(Schild)
(Maschine)
(  Hersteller: ChinaCnc)
(  Modell: 3040T)
(  Beschreibung: Generic 3-axis)
(T2  D=3.175 CR=0 KONIK=30Grad: - ZMIN=-0.25 - Zentrierbohren)
(T14  D=1.905 CR=0.953 - ZMIN=-2.3 - Kugelschlichtfraser)
G90 G94
G17
G21
G28 G91 Z0
G90

(Gravieren1)
T2
S5000 M3
G54
G0 X-18.912 Y-8.36
Z10
Z5
G1 Z-0.001 F1000
X-18.846 Y-8.293 Z-0.25
X-18.842 Y-4.927
X-18.908 Y-4.86 Z-0.001
X-18.842 Y-4.927 Z-0.25
X-17.703 Y-4.928
X-17.677 Y-4.929
X-17.651
X-17.625
X-17.599
X-17.574 Y-4.93
X-17.548
X-17.522 Y-4.931
X-17.497 Y-4.932
X-17.471 Y-4.933
X-17.446 Y-4.934
X-17.42 Y-4.935
X-17.395 Y-4.937
X-17.37 Y-4.939
X-17.345 Y-4.942
X-17.32 Y-4.944
X-17.295 Y-4.947
X-17.27 Y-4.951
X-17.244 Y-4.954
X-17.219 Y-4.958
X-17.193 Y-4.962
X-17.168 Y-4.966
X-17.142 Y-4.97
X-17.117 Y-4.974
X-17.095 Y-4.978
X-17.075 Y-4.983
X-17.052 Y-4.99
X-17.029 Y-4.997
X-17.007 Y-5.003
X-16.984 Y-5.01
X-16.962 Y-5.017
X-16.941 Y-5.025
X-16.919 Y-5.032
X-16.898 Y-5.04
X-16.877 Y-5.049
X-16.857 Y-5.058
X-16.837 Y-5.067
X-16.818 Y-5.077
X-16.799 Y-5.087
X-16.779 Y-5.098
X-16.76 Y-5.11
X-16.741 Y-5.122
X-16.722 Y-5.135
X-16.703 Y-5.148
X-16.684 Y-5.161
X-16.665 Y-5.175
X-16.646 Y-5.189
X-16.626 Y-5.203
X-16.61 Y-5.215
X-16.592 Y-5.233
X-16.57 Y-5.254
X-16.548 Y-5.276
X-16.527 Y-5.297
X-16.506 Y-5.319
X-16.486 Y-5.34
X-16.466 Y-5.362
X-16.447 Y-5.384
X-16.428 Y-5.406
X-16.41 Y-5.428
X-16.393 Y-5.451
X-16.377 Y-5.474
X-16.361 Y-5.497
X-16.346 Y-5.522
X-16.331 Y-5.546
X-16.317 Y-5.572
X-16.304 Y-5.598
X-16.29 Y-5.624
X-16.277 Y-5.651
X-16.265 Y-5.678
X-16.252 Y-5.705
X-16.24 Y-5.733
X-16.227 Y-5.761
X-16.216 Y-5.785
X-16.207 Y-5.816
X-16.197 Y-5.849
X-16.187 Y-5.883
X-16.177 Y-5.916
X-16.167 Y-5.95
X-16.158 Y-5.983
X-16.149 Y-6.017
X-16.141 Y-6.05
X-16.133 Y-6.083
X-16.126 Y-6.116
X-16.12 Y-6.149
X-16.114 Y-6.182
X-16.109 Y-6.216
X-16.105 Y-6.25
X-16.101 Y-6.283
X-16.098 Y-6.317
X-16.095 Y-6.352
X-16.093 Y-6.386
X-16.091 Y-6.421
X-16.089 Y-6.456
X-16.088 Y-6.49
X-16.086 Y-6.526
X-16.085 Y-6.561
X-16.084 Y-6.594
X-16.085 Y-6.623
X-16.086 Y-6.652
X-16.087 Y-6.682
X-16.088 Y-6.711
X-16.089 Y-6.741
X-16.09 Y-6.77
X-16.092 Y-6.799
X-16.094 Y-6.828
X-16.096 Y-6.857
X-16.098 Y-6.886
X-16.101 Y-6.914
X-16.105 Y-6.942
X-16.109 Y-6.971
X-16.113 Y-6.999
X-16.118 Y-7.027
X-16.123 Y-7.056
X-16.129 Y-7.084
X-16.135 Y-7.112
X-16.141 Y-7.141
X-16.148 Y-7.17
X-16.155 Y-7.198
X-16.162 Y-7.227
X-16.169 Y-7.256
X-16.176 Y-7.282
X-16.182 Y-7.302
X-16.19 Y-7.325
X-16.197 Y-7.347
X-16.204 Y-7.369
X-16.212 Y-7.391
X-16.22 Y-7.412
X-16.228 Y-7.434
X-16.236 Y-7.455
X-16.244 Y-7.476
X-16.253 Y-7.497
X-16.261 Y-7.517
X-16.271 Y-7.537
X-16.28 Y-7.557
X-16.29 Y-7.577
X-16.3 Y-7.597
X-16.311 Y-7.617
X-16.322 Y-7.636
X-16.334 Y-7.656
X-16.345 Y-7.676
X-16.357 Y-7.695
X-16.369 Y-7.715
X-16.382 Y-7.735
X-16.394 Y-7.755
X-16.405 Y-7.772
X-16.415 Y-7.784
X-16.426 Y-7.799
X-16.438 Y-7.814
X-16.449 Y-7.828
X-16.461 Y-7.843
X-16.472 Y-7.857
X-16.484 Y-7.871
X-16.496 Y-7.884
X-16.507 Y-7.898
X-16.519 Y-7.911
X-16.531 Y-7.923
X-16.543 Y-7.936
X-16.556 Y-7.948
X-16.568 Y-7.96
X-16.581 Y-7.972
X-16.595 Y-7.983
X-16.608 Y-7.995
X-16.622 Y-8.006
X-16.636 Y-8.018
X-16.651 Y-8.029
X-16.665 Y-8.04
X-16.68 Y-8.051
X-16.695 Y-8.063
X-16.707 Y-8.072
X-16.72 Y-8.079
X-16.736 Y-8.089
X-16.752 Y-8.098
X-16.768 Y-8.107
X-16.784 Y-8.116
X-16.8 Y-8.125
X-16.816 Y-8.134
X-16.832 Y-8.142
X-16.848 Y-8.15
X-16.864 Y-8.157
X-16.88 Y-8.165
X-16.896 Y-8.171
X-16.913 Y-8.178
X-16.929 Y-8.184
X-16.946 Y-8.19
X-16.963 Y-8.196
X-16.98 Y-8.202
X-16.998 Y-8.207
X-17.015 Y-8.212
X-17.033 Y-8.218
X-17.051 Y-8.223
X-17.069 Y-8.228
X-17.087 Y-8.233
X-17.103 Y-8.237
X-17.124 Y-8.241
X-17.147 Y-8.246
X-17.17 Y-8.25
X-17.193 Y-8.255
X-17.216 Y-8.259
X-17.238 Y-8.263
X-17.261 Y-8.267
X-17.284 Y-8.27
X-17.306 Y-8.274
X-17.329 Y-8.277
X-17.351 Y-8.28
X-17.374 Y-8.282
X-17.396 Y-8.284
X-17.419 Y-8.286
X-17.442 Y-8.288
X-17.465 Y-8.289
X-17.487 Y-8.29
X-17.511 Y-8.291
X-17.534 Y-8.292
X-17.557 Y-8.293
X-17.58
X-17.604 Y-8.294
X-17.627
X-17.65 Y-8.295
X-18.846 Y-8.293
G0 Z5
X-18.5 Y-7.992
G1 Z-0.25 F1000
X-18.477 Y-8.009
X-18.449 Y-8.015
X-17.702
X-17.701
X-17.678
X-17.655
X-17.632
X-17.609 Y-8.014
X-17.586
X-17.585
X-17.562 Y-8.013
X-17.539 Y-8.012
X-17.538
X-17.515 Y-8.011
X-17.492 Y-8.01
X-17.491
X-17.468 Y-8.008
X-17.467
X-17.445 Y-8.006
X-17.444
X-17.421 Y-8.004
X-17.42 Y-8.003
X-17.397 Y-8.001
X-17.396
X-17.373 Y-7.998
X-17.372 Y-7.997
X-17.35 Y-7.994
X-17.349
X-17.326 Y-7.99
X-17.325
X-17.303 Y-7.986
X-17.302 Y-7.985
X-17.279 Y-7.981
X-17.256 Y-7.976
X-17.233 Y-7.971
X-17.211 Y-7.966
X-17.21
X-17.188 Y-7.96
X-17.165 Y-7.955
X-17.143 Y-7.95
X-17.136 Y-7.948
X-17.121 Y-7.942
X-17.107 Y-7.937
X-17.106
X-17.092 Y-7.931
X-17.077 Y-7.926
X-17.063 Y-7.92
X-17.062
X-17.048 Y-7.914
X-17.047
X-17.033 Y-7.908
X-17.032 Y-7.907
X-17.018 Y-7.901
X-17.017
X-17.003 Y-7.894
X-17.002
X-16.988 Y-7.887
X-16.987 Y-7.886
X-16.973 Y-7.879
X-16.972 Y-7.878
X-16.958 Y-7.871
X-16.957 Y-7.87
X-16.944 Y-7.863
X-16.942 Y-7.862
X-16.929 Y-7.854
X-16.928 Y-7.853
X-16.915 Y-7.844
X-16.914 Y-7.843
X-16.902 Y-7.835
X-16.901 Y-7.834
X-16.888 Y-7.825
X-16.887 Y-7.824
X-16.875 Y-7.815
X-16.874 Y-7.814
X-16.862 Y-7.805
X-16.85 Y-7.795
X-16.849
X-16.837 Y-7.785
Y-7.784
X-16.825 Y-7.775
X-16.813 Y-7.765
X-16.801 Y-7.755
X-16.793 Y-7.747
X-16.779 Y-7.73
X-16.765 Y-7.714
Y-7.713
X-16.751 Y-7.697
Y-7.696
X-16.737 Y-7.68
Y-7.679
X-16.723 Y-7.663
Y-7.662
X-16.709 Y-7.645
Y-7.644
X-16.696 Y-7.627
X-16.695 Y-7.626
X-16.682 Y-7.609
Y-7.608
X-16.669 Y-7.59
Y-7.589
X-16.657 Y-7.571
X-16.656 Y-7.57
X-16.644 Y-7.552
X-16.643 Y-7.55
X-16.632 Y-7.531
Y-7.53
X-16.621 Y-7.511
X-16.62 Y-7.51
X-16.61 Y-7.491
Y-7.489
X-16.6 Y-7.47
Y-7.469
X-16.591 Y-7.45
X-16.59 Y-7.448
X-16.581 Y-7.429
Y-7.428
X-16.573 Y-7.408
X-16.572 Y-7.407
X-16.564 Y-7.387
X-16.556 Y-7.366
X-16.548 Y-7.346
X-16.54 Y-7.325
X-16.532 Y-7.305
Y-7.304
X-16.525 Y-7.284
X-16.523 Y-7.278
X-16.515 Y-7.25
X-16.508 Y-7.223
X-16.501 Y-7.195
Y-7.194
X-16.494 Y-7.167
Y-7.166
X-16.487 Y-7.139
Y-7.138
X-16.48 Y-7.11
X-16.474 Y-7.082
Y-7.081
X-16.468 Y-7.053
Y-7.052
X-16.462 Y-7.025
Y-7.023
X-16.457 Y-6.995
Y-6.994
X-16.452 Y-6.966
Y-6.965
X-16.448 Y-6.937
Y-6.936
X-16.444 Y-6.907
X-16.441 Y-6.878
Y-6.877
X-16.439 Y-6.849
Y-6.848
X-16.436 Y-6.82
Y-6.819
X-16.435 Y-6.791
Y-6.79
X-16.433 Y-6.761
X-16.432 Y-6.732
X-16.431 Y-6.703
X-16.43 Y-6.674
X-16.429 Y-6.645
X-16.428 Y-6.617
Y-6.588
Y-6.586
Y-6.549
Y-6.548
X-16.429 Y-6.512
X-16.43 Y-6.475
Y-6.474
X-16.431 Y-6.438
Y-6.437
X-16.433 Y-6.401
Y-6.4
X-16.435 Y-6.363
Y-6.362
X-16.437 Y-6.326
X-16.438 Y-6.325
X-16.441 Y-6.289
Y-6.287
X-16.445 Y-6.251
Y-6.25
X-16.45 Y-6.214
Y-6.212
X-16.455 Y-6.177
X-16.456 Y-6.175
X-16.462 Y-6.14
Y-6.137
X-16.47 Y-6.102
X-16.471 Y-6.1
X-16.479 Y-6.065
X-16.48 Y-6.063
X-16.489 Y-6.029
X-16.49 Y-6.027
X-16.501 Y-5.992
Y-5.991
X-16.513 Y-5.957
X-16.514 Y-5.955
X-16.526 Y-5.921
Y-5.92
X-16.54 Y-5.886
Y-5.885
X-16.554 Y-5.851
X-16.568 Y-5.817
Y-5.816
X-16.583 Y-5.783
X-16.598 Y-5.749
X-16.613 Y-5.715
X-16.619 Y-5.705
X-16.633 Y-5.684
X-16.647 Y-5.663
Y-5.662
X-16.662 Y-5.642
Y-5.641
X-16.677 Y-5.621
Y-5.62
X-16.692 Y-5.599
X-16.693 Y-5.598
X-16.708 Y-5.578
X-16.724 Y-5.558
X-16.725 Y-5.556
X-16.741 Y-5.537
Y-5.536
X-16.758 Y-5.517
X-16.759 Y-5.516
X-16.776 Y-5.497
X-16.777 Y-5.496
X-16.794 Y-5.478
X-16.796 Y-5.477
X-16.814 Y-5.459
X-16.816 Y-5.458
X-16.834 Y-5.441
X-16.836 Y-5.44
X-16.855 Y-5.424
X-16.857 Y-5.422
X-16.877 Y-5.408
X-16.879 Y-5.406
X-16.899 Y-5.392
X-16.901 Y-5.391
X-16.921 Y-5.377
X-16.923 Y-5.376
X-16.944 Y-5.363
X-16.945 Y-5.362
X-16.966 Y-5.35
X-16.968 Y-5.349
X-16.989 Y-5.337
X-16.99 Y-5.336
X-17.012 Y-5.324
X-17.013 Y-5.323
X-17.035 Y-5.311
X-17.058 Y-5.299
X-17.08 Y-5.288
X-17.095 Y-5.282
X-17.119 Y-5.276
X-17.144 Y-5.269
X-17.169 Y-5.263
X-17.194 Y-5.257
X-17.219 Y-5.251
X-17.22
X-17.244 Y-5.245
X-17.245
X-17.27 Y-5.24
X-17.271
X-17.295 Y-5.235
X-17.297
X-17.321 Y-5.23
X-17.323
X-17.347 Y-5.226
X-17.349
X-17.374 Y-5.223
X-17.375 Y-5.222
X-17.4 Y-5.219
X-17.401
X-17.426 Y-5.217
X-17.427
X-17.452 Y-5.215
X-17.453 Y-5.214
X-17.479 Y-5.213
X-17.505 Y-5.211
X-17.531 Y-5.21
X-17.556 Y-5.209
X-17.557
X-17.582
X-17.583
X-17.608 Y-5.208
X-17.609
X-17.634
X-17.66
X-17.685
X-17.711
X-18.446 Y-5.207
X-18.472 Y-5.212
X-18.493 Y-5.226
X-18.508 Y-5.248
X-18.513 Y-5.274
X-18.516 Y-7.948
X-18.512 Y-7.971
X-18.5 Y-7.992
G0 Z5
X-15.496 Y-7.47
G1 Z-0.25 F1000
X-15.493 Y-7.483
X-15.485 Y-7.523
X-15.475 Y-7.563
X-15.464 Y-7.602
X-15.451 Y-7.64
X-15.436 Y-7.677
X-15.42 Y-7.714
X-15.401 Y-7.751
X-15.382 Y-7.787
X-15.36 Y-7.823
X-15.338 Y-7.86
X-15.314 Y-7.896
X-15.29 Y-7.932
X-15.265 Y-7.968
X-15.239 Y-8.005
X-15.219 Y-8.034
X-15.194 Y-8.054
X-15.163 Y-8.079
X-15.133 Y-8.104
X-15.102 Y-8.128
X-15.071 Y-8.152
X-15.04 Y-8.174
X-15.009 Y-8.195
X-14.978 Y-8.215
X-14.946 Y-8.234
X-14.915 Y-8.251
X-14.883 Y-8.266
X-14.85 Y-8.28
X-14.817 Y-8.292
X-14.783 Y-8.303
X-14.748 Y-8.312
X-14.712 Y-8.32
X-14.676 Y-8.327
X-14.638 Y-8.333
X-14.6 Y-8.338
X-14.562 Y-8.342
X-14.523 Y-8.346
X-14.483 Y-8.35
X-14.443 Y-8.353
X-14.407 Y-8.355
X-14.385 Y-8.354
X-14.358 Y-8.353
X-14.332 Y-8.351
X-14.306 Y-8.349
X-14.28 Y-8.347
X-14.255 Y-8.344
X-14.229 Y-8.342
X-14.204 Y-8.338
X-14.18 Y-8.335
X-14.155 Y-8.33
X-14.131 Y-8.325
X-14.108 Y-8.32
X-14.084 Y-8.314
X-14.061 Y-8.307
X-14.037 Y-8.299
X-14.014 Y-8.29
X-13.991 Y-8.282
X-13.967 Y-8.272
X-13.943 Y-8.262
X-13.92 Y-8.252
X-13.896 Y-8.241
X-13.872 Y-8.23
X-13.848 Y-8.219
X-13.828 Y-8.209
X-13.81 Y-8.198
X-13.788 Y-8.184
X-13.767 Y-8.17
X-13.746 Y-8.156
X-13.725 Y-8.141
X-13.705 Y-8.127
X-13.686 Y-8.113
X-13.666 Y-8.098
X-13.648 Y-8.083
X-13.63 Y-8.067
X-13.613 Y-8.052
X-13.596 Y-8.036
X-13.58 Y-8.019
X-13.565 Y-8.001
X-13.55 Y-7.983
X-13.535 Y-7.965
X-13.521 Y-7.945
X-13.507 Y-7.925
X-13.493 Y-7.905
X-13.479 Y-7.884
X-13.465 Y-7.863
X-13.452 Y-7.841
X-13.438 Y-7.82
X-13.427 Y-7.803
X-13.418 Y-7.778
X-13.406 Y-7.747
X-13.394 Y-7.717
X-13.383 Y-7.686
X-13.372 Y-7.656
X-13.362 Y-7.626
X-13.352 Y-7.596
X-13.343 Y-7.566
X-13.334 Y-7.536
X-13.327 Y-7.506
X-13.32 Y-7.476
X-13.314 Y-7.445
X-13.309 Y-7.415
X-13.305 Y-7.384
X-13.301 Y-7.353
X-13.298 Y-7.321
X-13.295 Y-7.29
X-13.293 Y-7.258
X-13.291 Y-7.226
X-13.29 Y-7.193
X-13.289 Y-7.161
X-13.288 Y-7.128
X-13.287 Y-7.095
Y-7.064
X-13.289 Y-7.023
X-13.291 Y-6.98
X-13.294 Y-6.937
X-13.297 Y-6.894
X-13.301 Y-6.852
X-13.305 Y-6.811
X-13.311 Y-6.77
X-13.317 Y-6.73
X-13.324 Y-6.69
X-13.333 Y-6.652
X-13.343 Y-6.614
X-13.354 Y-6.577
X-13.368 Y-6.54
X-13.383 Y-6.505
X-13.399 Y-6.469
X-13.418 Y-6.434
X-13.437 Y-6.399
X-13.459 Y-6.364
X-13.481 Y-6.33
X-13.504 Y-6.295
X-13.528 Y-6.26
X-13.553 Y-6.226
X-13.579 Y-6.191
X-13.599 Y-6.162
X-13.624 Y-6.142
X-13.655 Y-6.117
X-13.685 Y-6.092
X-13.716 Y-6.068
X-13.746 Y-6.045
X-13.777 Y-6.022
X-13.808 Y-6.001
X-13.839 Y-5.981
X-13.87 Y-5.963
X-13.902 Y-5.946
X-13.933 Y-5.93
X-13.966 Y-5.917
X-13.998 Y-5.904
X-14.032 Y-5.894
X-14.067 Y-5.884
X-14.103 Y-5.876
X-14.139 Y-5.869
X-14.176 Y-5.863
X-14.214 Y-5.858
X-14.252 Y-5.853
X-14.291 Y-5.849
X-14.33 Y-5.846
X-14.37 Y-5.842
X-14.405 Y-5.84
X-14.436 Y-5.842
X-14.473 Y-5.845
X-14.508 Y-5.847
X-14.544 Y-5.851
X-14.579 Y-5.854
X-14.613 Y-5.859
X-14.647 Y-5.864
X-14.681 Y-5.869
X-14.713 Y-5.876
X-14.746 Y-5.884
X-14.777 Y-5.892
X-14.808 Y-5.902
X-14.838 Y-5.914
X-14.868 Y-5.926
X-14.898 Y-5.94
X-14.928 Y-5.956
X-14.957 Y-5.972
X-14.987 Y-5.989
X-15.016 Y-6.008
X-15.045 Y-6.027
X-15.075 Y-6.046
X-15.104 Y-6.067
X-15.134 Y-6.087
X-15.157 Y-6.103
X-15.182 Y-6.134
X-15.213 Y-6.171
X-15.243 Y-6.208
X-15.272 Y-6.245
X-15.3 Y-6.282
X-15.327 Y-6.32
X-15.353 Y-6.357
X-15.376 Y-6.395
X-15.398 Y-6.434
X-15.418 Y-6.472
X-15.436 Y-6.511
X-15.451 Y-6.551
X-15.465 Y-6.592
X-15.476 Y-6.634
X-15.486 Y-6.678
X-15.495 Y-6.722
X-15.502 Y-6.767
X-15.508 Y-6.812
X-15.513 Y-6.859
X-15.517 Y-6.906
X-15.521 Y-6.954
X-15.523 Y-7.002
X-15.526 Y-7.05
X-15.528 Y-7.096
X-15.526 Y-7.138
X-15.524 Y-7.183
X-15.522 Y-7.227
X-15.519 Y-7.271
X-15.516 Y-7.315
X-15.512 Y-7.358
X-15.507 Y-7.4
X-15.501 Y-7.442
X-15.496 Y-7.47
G0 Z5
X-15.196 Y-7.416
G1 Z-0.25 F1000
X-15.193 Y-7.432
Y-7.434
X-15.186 Y-7.465
Y-7.467
X-15.178 Y-7.498
X-15.177 Y-7.501
X-15.168 Y-7.531
Y-7.534
X-15.157 Y-7.564
X-15.156 Y-7.567
X-15.145 Y-7.596
X-15.144 Y-7.599
X-15.131 Y-7.628
X-15.13 Y-7.63
X-15.117 Y-7.659
X-15.116 Y-7.66
X-15.101 Y-7.689
X-15.1 Y-7.69
X-15.085 Y-7.719
X-15.084 Y-7.72
X-15.068 Y-7.748
Y-7.749
X-15.051 Y-7.777
Y-7.778
X-15.034 Y-7.806
X-15.033
X-15.016 Y-7.834
X-14.999 Y-7.862
X-14.988 Y-7.875
X-14.969 Y-7.893
X-14.95 Y-7.911
X-14.949
X-14.93 Y-7.928
Y-7.929
X-14.911 Y-7.946
X-14.91 Y-7.947
X-14.89 Y-7.963
X-14.889 Y-7.964
X-14.87 Y-7.98
X-14.868 Y-7.981
X-14.849 Y-7.997
X-14.847 Y-7.998
X-14.827 Y-8.013
X-14.825 Y-8.014
X-14.804 Y-8.028
X-14.802 Y-8.03
X-14.781 Y-8.043
X-14.778 Y-8.044
X-14.757 Y-8.056
X-14.753 Y-8.058
X-14.731 Y-8.069
X-14.728 Y-8.07
X-14.706 Y-8.08
X-14.702 Y-8.081
X-14.679 Y-8.089
X-14.676 Y-8.09
X-14.653 Y-8.097
X-14.65 Y-8.098
X-14.626 Y-8.105
X-14.624
X-14.599 Y-8.111
X-14.597
X-14.573 Y-8.116
X-14.571
X-14.546 Y-8.12
X-14.544 Y-8.121
X-14.519 Y-8.124
X-14.518
X-14.493 Y-8.128
X-14.492
X-14.466 Y-8.131
X-14.44 Y-8.133
X-14.414 Y-8.136
X-14.401
X-14.375 Y-8.133
X-14.349 Y-8.131
X-14.323 Y-8.128
X-14.322
X-14.297 Y-8.124
X-14.296
X-14.271 Y-8.121
X-14.269 Y-8.12
X-14.244 Y-8.116
X-14.242
X-14.218 Y-8.111
X-14.216
X-14.191 Y-8.105
X-14.189
X-14.165 Y-8.098
X-14.163 Y-8.097
X-14.139 Y-8.09
X-14.136 Y-8.089
X-14.113 Y-8.081
X-14.11 Y-8.08
X-14.087 Y-8.07
X-14.084 Y-8.068
X-14.062 Y-8.058
X-14.059 Y-8.056
X-14.038 Y-8.044
X-14.035 Y-8.043
X-14.014 Y-8.03
X-14.011 Y-8.028
X-13.991 Y-8.014
X-13.989 Y-8.013
X-13.969 Y-7.998
X-13.967 Y-7.997
X-13.948 Y-7.981
X-13.946 Y-7.98
X-13.927 Y-7.964
X-13.926 Y-7.963
X-13.906 Y-7.947
Y-7.946
X-13.887 Y-7.929
X-13.886 Y-7.928
X-13.867 Y-7.911
X-13.866 Y-7.91
X-13.848 Y-7.893
X-13.847
X-13.829 Y-7.875
X-13.818 Y-7.862
X-13.8 Y-7.833
X-13.783 Y-7.805
X-13.782 Y-7.804
X-13.765 Y-7.776
Y-7.775
X-13.748 Y-7.747
Y-7.746
X-13.731 Y-7.717
Y-7.716
X-13.715 Y-7.687
X-13.714 Y-7.686
X-13.7 Y-7.656
X-13.699 Y-7.655
X-13.685 Y-7.626
X-13.684 Y-7.623
X-13.671 Y-7.594
X-13.67 Y-7.591
X-13.659 Y-7.561
X-13.658 Y-7.559
X-13.647 Y-7.528
Y-7.525
X-13.638 Y-7.494
X-13.637 Y-7.492
X-13.629 Y-7.46
Y-7.458
X-13.622 Y-7.426
Y-7.424
X-13.616 Y-7.392
Y-7.39
X-13.611 Y-7.358
Y-7.356
X-13.607 Y-7.324
Y-7.322
X-13.604 Y-7.29
Y-7.288
X-13.601 Y-7.256
Y-7.254
X-13.599 Y-7.221
Y-7.22
X-13.598 Y-7.187
X-13.596 Y-7.153
X-13.595 Y-7.12
Y-7.119
X-13.594 Y-7.086
Y-7.082
X-13.595 Y-7.05
X-13.597 Y-7.017
X-13.598 Y-6.985
Y-6.984
X-13.6 Y-6.952
Y-6.951
X-13.602 Y-6.92
Y-6.918
X-13.604 Y-6.887
Y-6.885
X-13.608 Y-6.854
Y-6.852
X-13.612 Y-6.821
Y-6.819
X-13.617 Y-6.788
Y-6.786
X-13.623 Y-6.755
Y-6.753
X-13.63 Y-6.723
Y-6.72
X-13.638 Y-6.69
X-13.639 Y-6.687
X-13.648 Y-6.658
X-13.649 Y-6.655
X-13.659 Y-6.626
X-13.66 Y-6.623
X-13.672 Y-6.594
X-13.673 Y-6.592
X-13.686 Y-6.563
X-13.687 Y-6.561
X-13.7 Y-6.533
X-13.701 Y-6.532
X-13.716 Y-6.504
Y-6.502
X-13.732 Y-6.475
X-13.733 Y-6.473
X-13.749 Y-6.446
Y-6.445
X-13.766 Y-6.418
Y-6.417
X-13.783 Y-6.39
Y-6.389
X-13.8 Y-6.362
X-13.818 Y-6.335
X-13.828 Y-6.322
X-13.847 Y-6.305
X-13.866 Y-6.287
X-13.885 Y-6.27
X-13.886 Y-6.269
X-13.905 Y-6.252
X-13.906 Y-6.251
X-13.925 Y-6.235
X-13.926 Y-6.234
X-13.945 Y-6.218
X-13.947 Y-6.217
X-13.967 Y-6.201
X-13.968 Y-6.2
X-13.988 Y-6.185
X-13.99 Y-6.184
X-14.011 Y-6.17
X-14.013 Y-6.168
X-14.034 Y-6.155
X-14.037 Y-6.154
X-14.058 Y-6.142
X-14.061 Y-6.14
X-14.083 Y-6.13
X-14.086 Y-6.128
X-14.108 Y-6.119
X-14.112 Y-6.117
X-14.135 Y-6.109
X-14.138 Y-6.108
X-14.161 Y-6.101
X-14.164 Y-6.1
X-14.187 Y-6.093
X-14.19
X-14.214 Y-6.087
X-14.216
X-14.241 Y-6.082
X-14.242
X-14.267 Y-6.077
X-14.269
X-14.294 Y-6.074
X-14.295 Y-6.073
X-14.32 Y-6.07
X-14.321
X-14.346 Y-6.067
X-14.347
X-14.372 Y-6.064
X-14.373
X-14.398 Y-6.062
X-14.412
X-14.437 Y-6.064
X-14.438
X-14.463 Y-6.067
X-14.464
X-14.489 Y-6.07
X-14.49
X-14.516 Y-6.073
X-14.517
X-14.542 Y-6.076
X-14.543 Y-6.077
X-14.568 Y-6.081
X-14.57
X-14.595 Y-6.086
X-14.597
X-14.621 Y-6.092
X-14.624
X-14.648 Y-6.098
X-14.65 Y-6.099
X-14.674 Y-6.106
X-14.677 Y-6.107
X-14.7 Y-6.116
X-14.703 Y-6.117
X-14.726 Y-6.126
X-14.729 Y-6.128
X-14.751 Y-6.138
X-14.754 Y-6.14
X-14.775 Y-6.152
X-14.778 Y-6.153
X-14.799 Y-6.166
X-14.802 Y-6.168
X-14.822 Y-6.181
X-14.824 Y-6.183
X-14.844 Y-6.197
X-14.846 Y-6.199
X-14.866 Y-6.214
X-14.867 Y-6.215
X-14.887 Y-6.231
X-14.888 Y-6.232
X-14.908 Y-6.249
X-14.928 Y-6.266
Y-6.267
X-14.947 Y-6.284
X-14.948
X-14.967 Y-6.302
X-14.986 Y-6.32
X-14.997 Y-6.333
X-15.014 Y-6.361
X-15.032 Y-6.389
X-15.049 Y-6.417
Y-6.418
X-15.066 Y-6.445
X-15.067 Y-6.446
X-15.083 Y-6.474
Y-6.476
X-15.099 Y-6.504
X-15.1 Y-6.505
X-15.114 Y-6.534
X-15.115 Y-6.536
X-15.129 Y-6.564
X-15.13 Y-6.566
X-15.143 Y-6.596
X-15.144 Y-6.598
X-15.155 Y-6.627
X-15.156 Y-6.63
X-15.167 Y-6.66
X-15.168 Y-6.663
X-15.177 Y-6.693
Y-6.696
X-15.185 Y-6.726
X-15.186 Y-6.729
X-15.192 Y-6.76
X-15.193 Y-6.762
X-15.198 Y-6.793
X-15.199 Y-6.795
X-15.203 Y-6.827
Y-6.829
X-15.207 Y-6.861
X-15.208 Y-6.862
X-15.211 Y-6.894
Y-6.895
X-15.213 Y-6.928
Y-6.929
X-15.215 Y-6.962
X-15.216
X-15.217 Y-6.995
Y-6.996
X-15.218 Y-7.029
X-15.219 Y-7.062
X-15.22 Y-7.095
Y-7.099
Y-7.131
Y-7.132
X-15.219 Y-7.164
Y-7.165
X-15.217 Y-7.198
X-15.216 Y-7.231
Y-7.232
X-15.214 Y-7.264
Y-7.266
X-15.211 Y-7.298
Y-7.299
X-15.208 Y-7.331
Y-7.333
X-15.204 Y-7.365
Y-7.367
X-15.199 Y-7.398
Y-7.4
X-15.196 Y-7.416
G0 Z5
X-12.717 Y-8.367
G1 Z-0.001 F1000
X-12.65 Y-8.3 Z-0.25
X-12.648 Y-5.899
X-12.714 Y-5.832 Z-0.001
X-12.648 Y-5.899 Z-0.25
X-12.395
X-12.328 Y-5.832 Z-0.001
X-12.395 Y-5.899 Z-0.25
Y-6.193
X-12.387 Y-6.224
X-12.366 Y-6.248
X-12.336 Y-6.259
X-12.304 Y-6.255
X-12.277 Y-6.236
X-12.251 Y-6.206
X-12.224 Y-6.175
X-12.198 Y-6.146
X-12.172 Y-6.117
X-12.145 Y-6.089
X-12.118 Y-6.062
X-12.091 Y-6.037
X-12.064 Y-6.013
X-12.036 Y-5.991
X-12.008 Y-5.971
X-11.979 Y-5.953
X-11.95 Y-5.936
X-11.919 Y-5.922
X-11.888 Y-5.909
X-11.855 Y-5.898
X-11.82 Y-5.888
X-11.785 Y-5.88
X-11.748 Y-5.872
X-11.711 Y-5.866
X-11.673 Y-5.86
X-11.634 Y-5.855
X-11.595 Y-5.851
X-11.555 Y-5.846
X-11.519 Y-5.843
X-11.506 Y-5.844
X-11.488
X-11.47 Y-5.845
X-11.452 Y-5.846
X-11.435 Y-5.847
X-11.418 Y-5.849
X-11.401 Y-5.85
X-11.384 Y-5.852
X-11.367 Y-5.854
X-11.351 Y-5.856
X-11.335 Y-5.859
X-11.318 Y-5.861
X-11.303 Y-5.865
X-11.287 Y-5.868
X-11.271 Y-5.873
X-11.255 Y-5.877
X-11.238 Y-5.882
X-11.222 Y-5.887
X-11.206 Y-5.892
X-11.189 Y-5.898
X-11.173 Y-5.904
X-11.156 Y-5.909
X-11.139 Y-5.915
X-11.125 Y-5.921
X-11.115 Y-5.926
X-11.101 Y-5.932
X-11.088 Y-5.939
X-11.074 Y-5.945
X-11.062 Y-5.952
X-11.049 Y-5.958
X-11.037 Y-5.965
X-11.025 Y-5.972
X-11.013 Y-5.979
X-11.002 Y-5.986
X-10.991 Y-5.993
X-10.981 Y-6.001
X-10.97 Y-6.009
X-10.96 Y-6.017
X-10.951 Y-6.026
X-10.941 Y-6.035
X-10.931 Y-6.044
X-10.921 Y-6.054
X-10.912 Y-6.064
X-10.902 Y-6.074
X-10.892 Y-6.085
X-10.882 Y-6.096
X-10.872 Y-6.108
X-10.866 Y-6.115
X-10.861 Y-6.123
X-10.854 Y-6.135
X-10.846 Y-6.147
X-10.839 Y-6.159
X-10.832 Y-6.171
X-10.825 Y-6.183
X-10.819 Y-6.194
X-10.813 Y-6.206
X-10.806 Y-6.218
X-10.801 Y-6.229
X-10.795 Y-6.241
X-10.79 Y-6.253
X-10.786 Y-6.264
X-10.781 Y-6.276
X-10.777 Y-6.289
X-10.773 Y-6.301
X-10.769 Y-6.314
X-10.765 Y-6.327
X-10.761 Y-6.34
X-10.758 Y-6.354
X-10.754 Y-6.367
X-10.751 Y-6.381
X-10.747 Y-6.395
X-10.745 Y-6.405
X-10.743 Y-6.418
X-10.741 Y-6.435
X-10.739 Y-6.453
X-10.737 Y-6.47
X-10.735 Y-6.487
X-10.733 Y-6.504
X-10.731 Y-6.52
X-10.73 Y-6.537
X-10.728 Y-6.554
X-10.727 Y-6.571
X-10.726 Y-6.588
X-10.725 Y-6.604
X-10.724 Y-6.621
Y-6.638
X-10.723 Y-6.655
Y-6.672
X-10.722 Y-6.689
Y-6.706
Y-6.724
Y-6.741
Y-6.775
Y-6.793
Y-6.811
X-10.724 Y-8.303
X-10.657 Y-8.369 Z-0.001
X-10.724 Y-8.303 Z-0.25
X-11.02 Y-8.302
X-11.086 Y-8.369 Z-0.001
X-11.02 Y-8.302 Z-0.25
X-11.018 Y-6.827
Y-6.81
Y-6.793
X-11.019 Y-6.759
Y-6.742
Y-6.725
X-11.02 Y-6.708
Y-6.707
X-11.021 Y-6.691
Y-6.69
X-11.022 Y-6.673
X-11.023 Y-6.656
Y-6.655
X-11.025 Y-6.638
X-11.026 Y-6.621
X-11.027 Y-6.62
X-11.029 Y-6.603
Y-6.602
X-11.031 Y-6.586
Y-6.584
X-11.034 Y-6.568
Y-6.567
X-11.037 Y-6.551
X-11.038 Y-6.549
X-11.041 Y-6.533
Y-6.532
X-11.045 Y-6.516
X-11.049 Y-6.499
Y-6.498
X-11.053 Y-6.482
X-11.057 Y-6.466
Y-6.465
X-11.061 Y-6.449
X-11.066 Y-6.433
X-11.07 Y-6.417
X-11.074 Y-6.405
X-11.079 Y-6.394
X-11.08
X-11.085 Y-6.383
X-11.091 Y-6.372
X-11.096 Y-6.361
X-11.097 Y-6.36
X-11.102 Y-6.35
X-11.103 Y-6.349
X-11.108 Y-6.339
X-11.109 Y-6.338
X-11.115 Y-6.328
X-11.116 Y-6.326
X-11.122 Y-6.316
X-11.123 Y-6.315
X-11.129 Y-6.305
X-11.13 Y-6.304
X-11.137 Y-6.294
X-11.138 Y-6.292
X-11.145 Y-6.283
X-11.147 Y-6.281
X-11.154 Y-6.273
X-11.156 Y-6.27
X-11.163 Y-6.262
X-11.165 Y-6.26
X-11.173 Y-6.252
X-11.175 Y-6.25
X-11.183 Y-6.242
X-11.184 Y-6.241
X-11.193 Y-6.233
X-11.194 Y-6.232
X-11.203 Y-6.224
X-11.204 Y-6.223
X-11.213 Y-6.216
X-11.214 Y-6.215
X-11.224 Y-6.208
Y-6.207
X-11.234 Y-6.2
X-11.244 Y-6.193
Y-6.192
X-11.254 Y-6.185
X-11.264 Y-6.178
X-11.274 Y-6.171
X-11.282 Y-6.166
X-11.294 Y-6.16
X-11.306 Y-6.154
X-11.307
X-11.318 Y-6.148
X-11.319
X-11.331 Y-6.143
Y-6.142
X-11.343 Y-6.137
X-11.344 Y-6.136
X-11.356 Y-6.131
X-11.357 Y-6.13
X-11.369 Y-6.125
X-11.37
X-11.383 Y-6.12
X-11.384 Y-6.119
X-11.396 Y-6.115
X-11.398 Y-6.114
X-11.41 Y-6.11
X-11.412 Y-6.109
X-11.424 Y-6.106
X-11.426 Y-6.105
X-11.439 Y-6.102
X-11.441 Y-6.101
X-11.454 Y-6.098
X-11.456
X-11.468 Y-6.095
X-11.47
X-11.483 Y-6.092
X-11.484
X-11.497 Y-6.09
X-11.499
X-11.512 Y-6.088
X-11.513
X-11.526 Y-6.087
X-11.527
X-11.54 Y-6.086
X-11.541 Y-6.085
X-11.554 Y-6.084
X-11.555
X-11.568 Y-6.083
X-11.582
X-11.595 Y-6.082
X-11.608 Y-6.081
X-11.617
X-11.639 Y-6.083
X-11.661 Y-6.085
X-11.683 Y-6.087
X-11.684
X-11.705 Y-6.089
X-11.706
X-11.728 Y-6.092
X-11.729
X-11.75 Y-6.095
X-11.752
X-11.773 Y-6.098
X-11.775 Y-6.099
X-11.796 Y-6.102
X-11.798 Y-6.103
X-11.819 Y-6.107
X-11.821 Y-6.108
X-11.841 Y-6.113
X-11.844 Y-6.114
X-11.864 Y-6.12
X-11.867
X-11.887 Y-6.127
X-11.89 Y-6.128
X-11.909 Y-6.136
X-11.912 Y-6.137
X-11.931 Y-6.146
X-11.934 Y-6.147
X-11.953 Y-6.156
X-11.955 Y-6.157
X-11.973 Y-6.167
X-11.975 Y-6.168
X-11.994 Y-6.179
X-11.995
X-12.014 Y-6.191
X-12.015
X-12.033 Y-6.203
X-12.034 Y-6.204
X-12.052 Y-6.216
X-12.053
X-12.071 Y-6.229
X-12.089 Y-6.242
X-12.09
X-12.107 Y-6.255
X-12.125 Y-6.268
X-12.14 Y-6.283
X-12.158 Y-6.308
X-12.175 Y-6.332
X-12.176 Y-6.333
X-12.193 Y-6.358
X-12.21 Y-6.383
Y-6.384
X-12.226 Y-6.409
X-12.227 Y-6.41
X-12.242 Y-6.436
X-12.244 Y-6.438
X-12.258 Y-6.463
X-12.259 Y-6.465
X-12.272 Y-6.491
X-12.274 Y-6.493
X-12.286 Y-6.52
X-12.287 Y-6.523
X-12.298 Y-6.549
X-12.299 Y-6.552
X-12.309 Y-6.58
X-12.31 Y-6.583
X-12.318 Y-6.61
X-12.319 Y-6.613
X-12.326 Y-6.641
Y-6.644
X-12.332 Y-6.672
X-12.333 Y-6.674
X-12.337 Y-6.703
X-12.338 Y-6.706
X-12.342 Y-6.735
Y-6.736
X-12.345 Y-6.766
Y-6.767
X-12.348 Y-6.797
Y-6.798
X-12.349 Y-6.828
X-12.35 Y-6.829
X-12.351 Y-6.859
Y-6.86
X-12.352 Y-6.89
Y-6.891
Y-6.921
Y-6.922
X-12.353 Y-6.952
Y-6.983
X-12.355 Y-8.301
X-12.288 Y-8.367 Z-0.001
X-12.355 Y-8.301 Z-0.25
X-12.65 Y-8.3
G0 Z5
X-9.74 Y-7.784
G1 Z-0.25 F1000
Y-7.783
X-9.743 Y-7.77
Y-7.768
X-9.745 Y-7.755
Y-7.753
X-9.747 Y-7.74
Y-7.739
X-9.748 Y-7.725
X-9.75 Y-7.711
X-9.751 Y-7.697
Y-7.686
Y-7.677
Y-7.676
X-9.75 Y-7.667
X-9.749 Y-7.658
Y-7.657
Y-7.648
X-9.748
Y-7.639
X-9.747 Y-7.638
X-9.746 Y-7.629
Y-7.627
X-9.745 Y-7.619
Y-7.617
X-9.744 Y-7.608
X-9.743 Y-7.607
X-9.742 Y-7.598
X-9.741 Y-7.596
X-9.74 Y-7.587
X-9.739 Y-7.585
X-9.737 Y-7.577
Y-7.575
X-9.734 Y-7.566
Y-7.564
X-9.731 Y-7.555
X-9.73 Y-7.553
X-9.727 Y-7.545
Y-7.543
X-9.723 Y-7.535
Y-7.533
X-9.719 Y-7.525
Y-7.523
X-9.715 Y-7.515
X-9.714 Y-7.514
X-9.711 Y-7.506
X-9.71 Y-7.504
X-9.706 Y-7.496
X-9.701 Y-7.487
X-9.697 Y-7.479
Y-7.478
X-9.692 Y-7.47
X-9.688 Y-7.462
X-9.683 Y-7.454
X-9.678 Y-7.445
X-9.672 Y-7.438
X-9.666 Y-7.43
X-9.66 Y-7.422
X-9.659
X-9.654 Y-7.415
X-9.653 Y-7.414
X-9.647 Y-7.407
X-9.646 Y-7.406
X-9.64 Y-7.399
Y-7.398
X-9.634 Y-7.391
X-9.632 Y-7.39
X-9.626 Y-7.383
X-9.625 Y-7.382
X-9.619 Y-7.376
X-9.617 Y-7.374
X-9.611 Y-7.368
X-9.609 Y-7.366
X-9.602 Y-7.36
X-9.601 Y-7.359
X-9.594 Y-7.353
X-9.592 Y-7.351
X-9.585 Y-7.345
X-9.583 Y-7.344
X-9.575 Y-7.339
X-9.574 Y-7.337
X-9.566 Y-7.332
X-9.565 Y-7.331
X-9.557 Y-7.326
X-9.556 Y-7.325
X-9.548 Y-7.321
X-9.546 Y-7.32
X-9.538 Y-7.315
X-9.537
X-9.529 Y-7.31
X-9.528
X-9.52 Y-7.305
X-9.511 Y-7.3
X-9.502 Y-7.296
X-9.494 Y-7.291
X-9.485 Y-7.287
X-9.476 Y-7.283
X-9.461 Y-7.278
X-9.445 Y-7.273
X-9.43 Y-7.268
X-9.414 Y-7.263
X-9.399 Y-7.258
X-9.398
X-9.383 Y-7.253
X-9.382
X-9.367 Y-7.249
X-9.366 Y-7.248
X-9.351 Y-7.244
X-9.35
X-9.334 Y-7.24
X-9.333 Y-7.239
X-9.318 Y-7.235
X-9.317
X-9.301 Y-7.231
X-9.3
X-9.285 Y-7.228
X-9.284
X-9.268 Y-7.224
X-9.252 Y-7.221
X-9.251
X-9.235 Y-7.218
X-9.219 Y-7.215
X-9.203 Y-7.212
X-9.202
X-9.186 Y-7.209
X-9.17 Y-7.207
X-9.154 Y-7.204
X-9.138 Y-7.202
X-9.137
X-9.121 Y-7.199
X-9.105 Y-7.197
X-9.09 Y-7.195
X-9.06 Y-7.191
X-9.03 Y-7.186
X-9.001 Y-7.182
X-8.971 Y-7.177
X-8.942 Y-7.173
X-8.912 Y-7.168
X-8.883 Y-7.163
X-8.854 Y-7.158
X-8.825 Y-7.153
X-8.796 Y-7.147
X-8.767 Y-7.141
X-8.739 Y-7.135
X-8.71 Y-7.128
X-8.682 Y-7.122
X-8.654 Y-7.114
X-8.626 Y-7.107
X-8.597 Y-7.099
X-8.569 Y-7.09
X-8.541 Y-7.082
X-8.513 Y-7.073
X-8.484 Y-7.064
X-8.456 Y-7.055
X-8.427 Y-7.045
X-8.399 Y-7.036
X-8.368 Y-7.034
X-8.339 Y-7.045
X-8.318 Y-7.069
X-8.311 Y-7.1
Y-7.257
Y-7.258
Y-7.276
Y-7.277
X-8.312 Y-7.295
Y-7.314
Y-7.332
Y-7.333
X-8.313 Y-7.351
Y-7.352
X-8.314 Y-7.37
Y-7.371
X-8.315 Y-7.389
Y-7.39
X-8.316 Y-7.408
Y-7.409
X-8.317 Y-7.427
Y-7.428
X-8.319 Y-7.447
Y-7.448
X-8.321 Y-7.466
X-8.322 Y-7.467
X-8.324 Y-7.485
Y-7.487
X-8.327 Y-7.505
X-8.328 Y-7.506
X-8.331 Y-7.524
Y-7.526
X-8.335 Y-7.544
Y-7.545
X-8.34 Y-7.563
Y-7.564
X-8.344 Y-7.582
X-8.345 Y-7.583
X-8.35 Y-7.6
Y-7.601
X-8.355 Y-7.619
Y-7.62
X-8.361 Y-7.637
Y-7.638
X-8.367 Y-7.655
Y-7.656
X-8.373 Y-7.673
X-8.378 Y-7.691
X-8.384 Y-7.708
X-8.39 Y-7.721
X-8.399 Y-7.736
X-8.408 Y-7.751
Y-7.752
X-8.417 Y-7.767
X-8.418
X-8.427 Y-7.782
Y-7.783
X-8.437 Y-7.798
Y-7.799
X-8.447 Y-7.813
Y-7.814
X-8.457 Y-7.829
X-8.458 Y-7.83
X-8.468 Y-7.844
X-8.469 Y-7.845
X-8.48 Y-7.859
X-8.481 Y-7.861
X-8.492 Y-7.874
X-8.493 Y-7.876
X-8.504 Y-7.889
X-8.506 Y-7.891
X-8.517 Y-7.903
X-8.519 Y-7.905
X-8.531 Y-7.917
X-8.533 Y-7.919
X-8.546 Y-7.931
X-8.547 Y-7.932
X-8.56 Y-7.943
X-8.562 Y-7.945
X-8.575 Y-7.956
X-8.576 Y-7.957
X-8.59 Y-7.967
X-8.591 Y-7.968
X-8.605 Y-7.979
X-8.606
X-8.62 Y-7.989
X-8.621 Y-7.99
X-8.635 Y-8
X-8.636 Y-8.001
X-8.651 Y-8.01
Y-8.011
X-8.666 Y-8.02
Y-8.021
X-8.681 Y-8.03
X-8.696 Y-8.04
X-8.704 Y-8.045
X-8.722 Y-8.053
X-8.739 Y-8.061
X-8.74
X-8.757 Y-8.069
X-8.758
X-8.775 Y-8.077
X-8.776
X-8.793 Y-8.085
X-8.794
X-8.812 Y-8.093
X-8.813
X-8.831 Y-8.1
X-8.832 Y-8.101
X-8.85 Y-8.107
X-8.851 Y-8.108
X-8.869 Y-8.114
X-8.871 Y-8.115
X-8.889 Y-8.12
X-8.891 Y-8.121
X-8.909 Y-8.126
X-8.911 Y-8.127
X-8.929 Y-8.132
X-8.931
X-8.95 Y-8.136
X-8.952 Y-8.137
X-8.97 Y-8.14
X-8.972 Y-8.141
X-8.991 Y-8.144
X-8.992
X-9.011 Y-8.147
X-9.013
X-9.032 Y-8.149
X-9.033
X-9.052 Y-8.151
X-9.053
X-9.072 Y-8.153
X-9.073
X-9.092 Y-8.154
X-9.093 Y-8.155
X-9.112 Y-8.156
X-9.132 Y-8.157
X-9.151 Y-8.158
X-9.152
X-9.171 Y-8.159
X-9.176
X-9.194 Y-8.158
X-9.211
X-9.229 Y-8.157
X-9.246 Y-8.156
X-9.247
X-9.264 Y-8.155
X-9.265
X-9.282 Y-8.153
X-9.284
X-9.3 Y-8.151
X-9.302
X-9.319 Y-8.149
X-9.321
X-9.337 Y-8.146
X-9.339
X-9.356 Y-8.143
X-9.358 Y-8.142
X-9.374 Y-8.139
X-9.377 Y-8.138
X-9.393 Y-8.134
X-9.395 Y-8.133
X-9.411 Y-8.128
X-9.414 Y-8.127
X-9.43 Y-8.122
X-9.432 Y-8.121
X-9.448 Y-8.114
X-9.45 Y-8.113
X-9.465 Y-8.106
X-9.467
X-9.482 Y-8.098
X-9.484 Y-8.097
X-9.499 Y-8.089
X-9.5
X-9.515 Y-8.08
X-9.516
X-9.531 Y-8.071
X-9.532
X-9.546 Y-8.062
X-9.547 Y-8.061
X-9.561 Y-8.052
X-9.562
X-9.576 Y-8.043
X-9.577
X-9.591 Y-8.033
X-9.604 Y-8.023
X-9.613 Y-8.013
Y-8.012
X-9.623 Y-8.002
X-9.632 Y-7.992
X-9.633 Y-7.991
X-9.642 Y-7.981
X-9.643 Y-7.98
X-9.652 Y-7.969
X-9.653 Y-7.968
X-9.661 Y-7.958
X-9.662 Y-7.956
X-9.671 Y-7.946
X-9.672 Y-7.944
X-9.68 Y-7.933
X-9.681 Y-7.931
X-9.689 Y-7.92
X-9.69 Y-7.918
X-9.697 Y-7.907
X-9.699 Y-7.904
X-9.705 Y-7.892
X-9.707 Y-7.889
X-9.712 Y-7.878
X-9.714 Y-7.874
X-9.719 Y-7.862
X-9.72 Y-7.859
X-9.725 Y-7.846
X-9.726 Y-7.844
X-9.729 Y-7.831
X-9.73 Y-7.828
X-9.734 Y-7.815
Y-7.813
X-9.737 Y-7.8
X-9.738 Y-7.798
X-9.74 Y-7.785
Y-7.784
G0 Z5
X-10.067 Y-6.558
G1 Z-0.001 F1000
X-9.984 Y-6.502 Z-0.25
X-9.696 Y-6.542
X-9.648 Y-6.616 Z-0.001
X-9.696 Y-6.542 Z-0.25
X-9.691 Y-6.525
X-9.69 Y-6.524
X-9.685 Y-6.507
X-9.684 Y-6.506
X-9.679 Y-6.488
X-9.678 Y-6.487
X-9.672 Y-6.47
Y-6.468
X-9.665 Y-6.451
X-9.664 Y-6.45
X-9.658 Y-6.433
X-9.657 Y-6.431
X-9.65 Y-6.414
X-9.649 Y-6.412
X-9.641 Y-6.396
X-9.64 Y-6.394
X-9.631 Y-6.378
X-9.63 Y-6.376
X-9.621 Y-6.36
X-9.62 Y-6.358
X-9.61 Y-6.343
X-9.609 Y-6.34
X-9.598 Y-6.325
X-9.597 Y-6.324
X-9.586 Y-6.309
X-9.585 Y-6.307
X-9.574 Y-6.293
X-9.573 Y-6.292
X-9.561 Y-6.278
X-9.56 Y-6.276
X-9.548 Y-6.263
X-9.547 Y-6.262
X-9.534 Y-6.248
Y-6.247
X-9.521 Y-6.234
X-9.52 Y-6.233
X-9.508 Y-6.22
X-9.507
X-9.494 Y-6.206
X-9.481 Y-6.193
X-9.464 Y-6.18
X-9.446 Y-6.172
Y-6.171
X-9.429 Y-6.163
X-9.428 Y-6.162
X-9.411 Y-6.154
X-9.41 Y-6.153
X-9.392 Y-6.145
X-9.391 Y-6.144
X-9.374 Y-6.136
X-9.373
X-9.355 Y-6.128
X-9.354 Y-6.127
X-9.336 Y-6.12
X-9.334 Y-6.119
X-9.316 Y-6.112
X-9.314
X-9.296 Y-6.105
X-9.294 Y-6.104
X-9.276 Y-6.099
X-9.273 Y-6.098
X-9.255 Y-6.093
X-9.252 Y-6.092
X-9.234 Y-6.088
X-9.232 Y-6.087
X-9.213 Y-6.084
X-9.211 Y-6.083
X-9.192 Y-6.08
X-9.19
X-9.171 Y-6.077
X-9.169
X-9.15 Y-6.075
X-9.148
X-9.129 Y-6.073
X-9.128
X-9.108 Y-6.071
X-9.107
X-9.088 Y-6.07
X-9.087
X-9.067 Y-6.069
X-9.066
X-9.047
X-9.046
X-9.027 Y-6.068
X-9.026
X-9.007
X-9.006
X-8.987 Y-6.067
X-8.983
X-8.961 Y-6.068
X-8.939 Y-6.069
X-8.917 Y-6.07
X-8.916
X-8.894 Y-6.071
X-8.893
X-8.871 Y-6.073
X-8.87
X-8.848 Y-6.074
X-8.847 Y-6.075
X-8.825 Y-6.077
X-8.824
X-8.802 Y-6.08
X-8.801
X-8.779 Y-6.083
X-8.777
X-8.756 Y-6.087
X-8.754 Y-6.088
X-8.733 Y-6.092
X-8.731 Y-6.093
X-8.71 Y-6.098
X-8.707 Y-6.099
X-8.687 Y-6.105
X-8.684 Y-6.106
X-8.664 Y-6.113
X-8.661 Y-6.114
X-8.642 Y-6.122
X-8.639 Y-6.123
X-8.62 Y-6.132
X-8.618 Y-6.133
X-8.598 Y-6.142
X-8.597 Y-6.143
X-8.577 Y-6.153
X-8.576 Y-6.154
X-8.557 Y-6.165
X-8.556
X-8.537 Y-6.176
X-8.536 Y-6.177
X-8.517 Y-6.188
Y-6.189
X-8.498 Y-6.2
X-8.479 Y-6.212
X-8.46 Y-6.224
X-8.443 Y-6.24
X-8.433 Y-6.254
X-8.432
X-8.422 Y-6.268
X-8.412 Y-6.282
X-8.411 Y-6.283
X-8.402 Y-6.297
X-8.401 Y-6.298
X-8.392 Y-6.312
X-8.391 Y-6.313
X-8.382 Y-6.327
X-8.381 Y-6.329
X-8.372 Y-6.343
X-8.371 Y-6.345
X-8.363 Y-6.359
X-8.362 Y-6.362
X-8.354 Y-6.376
X-8.353 Y-6.379
X-8.346 Y-6.394
X-8.345 Y-6.397
X-8.339 Y-6.412
X-8.338 Y-6.415
X-8.333 Y-6.431
X-8.332 Y-6.434
X-8.328 Y-6.45
X-8.327 Y-6.452
X-8.323 Y-6.468
Y-6.471
X-8.32 Y-6.487
X-8.319 Y-6.489
X-8.317 Y-6.506
Y-6.507
X-8.314 Y-6.524
Y-6.526
X-8.313 Y-6.542
Y-6.544
X-8.311 Y-6.561
Y-6.562
X-8.31 Y-6.579
Y-6.58
X-8.309 Y-6.597
Y-6.614
Y-6.615
X-8.308 Y-6.632
Y-6.649
Y-6.652
Y-6.657
Y-6.661
Y-6.671
Y-6.675
Y-6.68
X-8.309 Y-6.685
Y-6.69
Y-6.694
Y-6.704
Y-6.708
Y-6.709
Y-6.713
Y-6.718
Y-6.723
X-8.31 Y-6.727
Y-6.728
Y-6.732
Y-6.737
Y-6.742
Y-6.746
Y-6.751
Y-6.756
Y-6.76
X-8.311 Y-6.765
X-8.317 Y-6.792
X-8.335 Y-6.815
X-8.36 Y-6.828
X-8.391 Y-6.836
X-8.423 Y-6.845
X-8.454 Y-6.853
X-8.455 Y-6.854
X-8.486 Y-6.862
X-8.518 Y-6.87
X-8.55 Y-6.878
Y-6.879
X-8.582 Y-6.886
X-8.583
X-8.614 Y-6.894
X-8.615
X-8.647 Y-6.901
Y-6.902
X-8.679 Y-6.908
X-8.68 Y-6.909
X-8.712 Y-6.915
X-8.713
X-8.744 Y-6.921
X-8.745
X-8.777 Y-6.927
X-8.778
X-8.81 Y-6.933
X-8.843 Y-6.938
X-8.875 Y-6.943
X-8.876
X-8.908 Y-6.948
X-8.941 Y-6.952
X-8.973 Y-6.957
X-8.974
X-9.006 Y-6.961
X-9.039 Y-6.965
X-9.071 Y-6.969
X-9.104 Y-6.973
X-9.136 Y-6.977
X-9.168 Y-6.981
X-9.184 Y-6.983
X-9.2 Y-6.985
X-9.216 Y-6.987
X-9.231 Y-6.989
X-9.247 Y-6.991
X-9.263 Y-6.993
X-9.279 Y-6.995
X-9.294 Y-6.997
X-9.31 Y-7
X-9.325 Y-7.002
X-9.341 Y-7.005
X-9.356 Y-7.008
X-9.372 Y-7.01
X-9.387 Y-7.013
X-9.402 Y-7.016
X-9.418 Y-7.02
X-9.433 Y-7.023
X-9.449 Y-7.026
X-9.465 Y-7.029
X-9.48 Y-7.033
X-9.496 Y-7.036
X-9.509 Y-7.039
X-9.52 Y-7.042
X-9.533 Y-7.047
X-9.546 Y-7.051
X-9.56 Y-7.055
X-9.573 Y-7.06
X-9.585 Y-7.064
X-9.598 Y-7.068
X-9.611 Y-7.073
X-9.623 Y-7.078
X-9.635 Y-7.083
X-9.647 Y-7.088
X-9.659 Y-7.093
X-9.671 Y-7.098
X-9.682 Y-7.104
X-9.694 Y-7.11
X-9.706 Y-7.116
X-9.717 Y-7.122
X-9.729 Y-7.129
X-9.741 Y-7.136
X-9.753 Y-7.143
X-9.764 Y-7.15
X-9.776 Y-7.157
X-9.788 Y-7.164
X-9.797 Y-7.17
X-9.806 Y-7.176
X-9.816 Y-7.185
X-9.827 Y-7.193
X-9.838 Y-7.202
X-9.848 Y-7.21
X-9.858 Y-7.218
X-9.868 Y-7.227
X-9.877 Y-7.235
X-9.886 Y-7.244
X-9.895 Y-7.252
X-9.903 Y-7.261
X-9.912 Y-7.27
X-9.919 Y-7.279
X-9.927 Y-7.288
X-9.935 Y-7.298
X-9.942 Y-7.308
X-9.95 Y-7.318
X-9.957 Y-7.328
X-9.964 Y-7.339
X-9.972 Y-7.351
X-9.979 Y-7.362
X-9.986 Y-7.373
X-9.994 Y-7.385
X-9.999 Y-7.393
X-10.003 Y-7.403
X-10.009 Y-7.416
X-10.015 Y-7.43
X-10.021 Y-7.443
X-10.027 Y-7.455
X-10.032 Y-7.468
X-10.037 Y-7.481
X-10.042 Y-7.493
X-10.046 Y-7.506
X-10.05 Y-7.518
X-10.054 Y-7.53
X-10.057 Y-7.542
X-10.06 Y-7.555
X-10.063 Y-7.567
X-10.065 Y-7.58
X-10.067 Y-7.593
X-10.068 Y-7.606
X-10.07 Y-7.62
X-10.071 Y-7.633
X-10.072 Y-7.648
X-10.073 Y-7.662
X-10.074 Y-7.676
X-10.075 Y-7.691
X-10.076 Y-7.701
X-10.074 Y-7.721
X-10.072 Y-7.745
X-10.069 Y-7.769
X-10.067 Y-7.793
X-10.064 Y-7.816
X-10.06 Y-7.838
X-10.056 Y-7.861
X-10.052 Y-7.882
X-10.047 Y-7.903
X-10.041 Y-7.923
X-10.034 Y-7.942
X-10.027 Y-7.961
X-10.019 Y-7.98
X-10.009 Y-7.998
X-9.999 Y-8.016
X-9.987 Y-8.034
X-9.975 Y-8.052
X-9.961 Y-8.07
X-9.947 Y-8.088
X-9.933 Y-8.106
X-9.917 Y-8.124
X-9.902 Y-8.142
X-9.885 Y-8.161
X-9.875 Y-8.173
X-9.858 Y-8.184
X-9.834 Y-8.2
X-9.81 Y-8.216
X-9.787 Y-8.231
X-9.763 Y-8.245
X-9.74 Y-8.259
X-9.716 Y-8.272
X-9.693 Y-8.284
X-9.67 Y-8.295
X-9.646 Y-8.305
X-9.623 Y-8.314
X-9.599 Y-8.322
X-9.575 Y-8.329
X-9.55 Y-8.335
X-9.524 Y-8.34
X-9.498 Y-8.344
X-9.471 Y-8.348
X-9.444 Y-8.351
X-9.417 Y-8.354
X-9.389 Y-8.356
X-9.361 Y-8.358
X-9.332 Y-8.359
X-9.303 Y-8.36
X-9.277 Y-8.361
X-9.26
X-9.239 Y-8.36
X-9.22 Y-8.359
X-9.2 Y-8.358
X-9.18 Y-8.357
X-9.161 Y-8.356
X-9.142 Y-8.354
X-9.122 Y-8.352
X-9.103 Y-8.35
X-9.085 Y-8.348
X-9.066 Y-8.346
X-9.048 Y-8.343
X-9.029 Y-8.339
X-9.011 Y-8.335
X-8.993 Y-8.331
X-8.974 Y-8.327
X-8.956 Y-8.322
X-8.937 Y-8.317
X-8.919 Y-8.311
X-8.9 Y-8.306
X-8.881 Y-8.3
X-8.862 Y-8.294
X-8.843 Y-8.288
X-8.827 Y-8.283
X-8.81 Y-8.275
X-8.79 Y-8.266
X-8.769 Y-8.256
X-8.749 Y-8.247
X-8.729 Y-8.237
X-8.709 Y-8.228
X-8.69 Y-8.218
X-8.671 Y-8.208
X-8.652 Y-8.198
X-8.633 Y-8.187
X-8.615 Y-8.176
X-8.597 Y-8.165
X-8.579 Y-8.154
X-8.561 Y-8.142
X-8.543 Y-8.13
X-8.526 Y-8.117
X-8.508 Y-8.104
X-8.491 Y-8.091
X-8.473 Y-8.077
X-8.456 Y-8.064
X-8.438 Y-8.05
X-8.421 Y-8.036
X-8.403 Y-8.022
X-8.385 Y-8.007
X-8.36 Y-7.995
X-8.332 Y-7.993
X-8.306 Y-8.004
X-8.286 Y-8.024
X-8.277 Y-8.05
X-8.275 Y-8.064
X-8.273 Y-8.077
X-8.271 Y-8.09
X-8.269 Y-8.103
X-8.267 Y-8.116
X-8.265 Y-8.129
X-8.263 Y-8.142
X-8.261 Y-8.154
X-8.258 Y-8.167
X-8.256 Y-8.179
X-8.253 Y-8.191
X-8.25 Y-8.202
X-8.246 Y-8.214
X-8.243 Y-8.226
X-8.239 Y-8.237
X-8.235 Y-8.249
X-8.231 Y-8.261
X-8.226 Y-8.273
X-8.222 Y-8.285
X-8.217 Y-8.297
X-8.213 Y-8.305
X-8.257 Y-8.372 Z-0.001
X-8.213 Y-8.305 Z-0.25
X-7.916 Y-8.306
X-7.822 Y-8.364 Z-0.031
X-7.809 Y-8.373 Z-0.001
X-7.822 Y-8.364 Z-0.031
X-7.916 Y-8.306 Z-0.25
X-7.917 Y-8.303
Y-8.302
X-7.923 Y-8.289
Y-8.288
X-7.928 Y-8.276
X-7.929 Y-8.275
X-7.934 Y-8.262
Y-8.261
X-7.939 Y-8.248
Y-8.247
X-7.944 Y-8.234
Y-8.233
X-7.948 Y-8.22
X-7.949 Y-8.219
X-7.952 Y-8.206
X-7.953 Y-8.205
X-7.956 Y-8.192
X-7.957 Y-8.191
X-7.96 Y-8.178
Y-8.177
X-7.964 Y-8.164
X-7.967 Y-8.15
X-7.97 Y-8.137
X-7.971 Y-8.136
X-7.974 Y-8.123
X-7.977 Y-8.109
X-7.98 Y-8.096
X-7.983 Y-8.083
X-7.984 Y-8.074
X-7.987 Y-8.043
X-7.989 Y-8.011
X-7.992 Y-7.979
X-7.994 Y-7.948
Y-7.947
X-7.997 Y-7.916
X-7.999 Y-7.884
X-8.001 Y-7.852
X-8.003 Y-7.82
X-8.005 Y-7.788
X-8.006 Y-7.756
X-8.008 Y-7.724
X-8.009 Y-7.692
X-8.01 Y-7.66
Y-7.628
X-8.011 Y-7.596
Y-7.564
Y-7.532
Y-7.5
Y-7.469
Y-7.468
Y-7.437
Y-7.405
Y-7.373
Y-7.341
Y-7.31
X-8.01 Y-6.737
Y-6.72
Y-6.704
Y-6.688
Y-6.671
Y-6.655
Y-6.638
Y-6.622
Y-6.606
X-8.011 Y-6.59
Y-6.574
X-8.012 Y-6.558
Y-6.542
X-8.013 Y-6.526
X-8.014 Y-6.51
X-8.015 Y-6.494
X-8.017 Y-6.478
X-8.018 Y-6.462
X-8.02 Y-6.446
X-8.021 Y-6.43
X-8.023 Y-6.414
X-8.025 Y-6.398
X-8.027 Y-6.382
X-8.029 Y-6.365
X-8.03 Y-6.353
X-8.032 Y-6.345
X-8.036 Y-6.332
X-8.039 Y-6.319
X-8.042 Y-6.306
X-8.046 Y-6.294
X-8.05 Y-6.282
X-8.053 Y-6.27
X-8.057 Y-6.258
X-8.061 Y-6.247
X-8.065 Y-6.235
X-8.07 Y-6.225
X-8.074 Y-6.214
X-8.079 Y-6.204
X-8.084 Y-6.193
X-8.09 Y-6.183
X-8.096 Y-6.173
X-8.102 Y-6.162
X-8.108 Y-6.152
X-8.115 Y-6.141
X-8.122 Y-6.13
X-8.13 Y-6.12
X-8.137 Y-6.109
X-8.145 Y-6.098
X-8.149 Y-6.092
X-8.155 Y-6.086
X-8.165 Y-6.076
X-8.176 Y-6.066
X-8.186 Y-6.056
X-8.197 Y-6.046
X-8.207 Y-6.037
X-8.217 Y-6.028
X-8.228 Y-6.02
X-8.238 Y-6.012
X-8.248 Y-6.004
X-8.259 Y-5.997
X-8.27 Y-5.99
X-8.281 Y-5.983
X-8.292 Y-5.976
X-8.304 Y-5.97
X-8.316 Y-5.964
X-8.328 Y-5.958
X-8.34 Y-5.952
X-8.353 Y-5.946
X-8.366 Y-5.94
X-8.38 Y-5.935
X-8.393 Y-5.929
X-8.407 Y-5.923
X-8.418 Y-5.919
X-8.436 Y-5.914
X-8.457 Y-5.908
X-8.478 Y-5.902
X-8.499 Y-5.896
X-8.52 Y-5.89
X-8.541 Y-5.885
X-8.562 Y-5.88
X-8.583 Y-5.875
X-8.603 Y-5.871
X-8.624 Y-5.867
X-8.644 Y-5.864
X-8.665 Y-5.861
X-8.686 Y-5.858
X-8.707 Y-5.856
X-8.728 Y-5.854
X-8.749 Y-5.852
X-8.77 Y-5.851
X-8.792 Y-5.849
X-8.814
X-8.836 Y-5.848
X-8.858 Y-5.847
X-8.88
X-8.902 Y-5.846
X-8.923
X-8.946
X-8.97 Y-5.847
X-8.994 Y-5.848
X-9.018 Y-5.849
X-9.042 Y-5.85
X-9.066 Y-5.851
X-9.089 Y-5.852
X-9.113 Y-5.854
X-9.136 Y-5.856
X-9.159 Y-5.859
X-9.182 Y-5.861
X-9.205 Y-5.865
X-9.227 Y-5.868
X-9.25 Y-5.872
X-9.273 Y-5.877
X-9.295 Y-5.882
X-9.318 Y-5.887
X-9.341 Y-5.893
X-9.364 Y-5.899
X-9.387 Y-5.905
X-9.41 Y-5.912
X-9.433 Y-5.918
X-9.456 Y-5.925
X-9.476 Y-5.931
X-9.491 Y-5.937
X-9.509 Y-5.944
X-9.527 Y-5.952
X-9.544 Y-5.959
X-9.561 Y-5.967
X-9.578 Y-5.974
X-9.594 Y-5.982
X-9.61 Y-5.99
X-9.626 Y-5.998
X-9.641 Y-6.007
X-9.656 Y-6.015
X-9.67 Y-6.024
X-9.684 Y-6.034
X-9.697 Y-6.044
X-9.711 Y-6.055
X-9.724 Y-6.066
X-9.737 Y-6.077
X-9.751 Y-6.089
X-9.764 Y-6.102
X-9.777 Y-6.115
X-9.79 Y-6.128
X-9.803 Y-6.141
X-9.817 Y-6.155
X-9.826 Y-6.165
X-9.834 Y-6.176
X-9.845 Y-6.193
X-9.855 Y-6.209
X-9.866 Y-6.226
X-9.876 Y-6.242
X-9.886 Y-6.258
X-9.895 Y-6.274
X-9.905 Y-6.291
X-9.913 Y-6.307
X-9.921 Y-6.323
X-9.929 Y-6.339
X-9.936 Y-6.356
X-9.943 Y-6.372
X-9.95 Y-6.389
X-9.956 Y-6.407
X-9.962 Y-6.424
X-9.968 Y-6.442
X-9.973 Y-6.46
X-9.978 Y-6.479
X-9.983 Y-6.498
X-9.984 Y-6.502
G0 Z5
X-7.285 Y-5.838
G1 Z-0.001 F1000
X-7.218 Y-5.905 Z-0.25
X-7.22 Y-7.409
Y-7.426
Y-7.442
Y-7.459
Y-7.476
Y-7.492
Y-7.509
Y-7.525
X-7.219 Y-7.541
Y-7.558
X-7.218 Y-7.574
X-7.217 Y-7.59
Y-7.606
X-7.216 Y-7.622
X-7.214 Y-7.638
X-7.213 Y-7.654
X-7.211 Y-7.67
X-7.21 Y-7.686
X-7.208 Y-7.702
X-7.206 Y-7.719
X-7.204 Y-7.735
X-7.202 Y-7.751
X-7.2 Y-7.768
X-7.197 Y-7.784
X-7.196 Y-7.798
X-7.193 Y-7.808
X-7.19 Y-7.822
X-7.186 Y-7.836
X-7.183 Y-7.85
X-7.179 Y-7.863
X-7.176 Y-7.877
X-7.172 Y-7.89
X-7.168 Y-7.902
X-7.164 Y-7.915
X-7.16 Y-7.927
X-7.155 Y-7.939
X-7.15 Y-7.951
X-7.146 Y-7.963
X-7.14 Y-7.975
X-7.135 Y-7.986
X-7.129 Y-7.998
X-7.122 Y-8.01
X-7.116 Y-8.021
X-7.109 Y-8.033
X-7.102 Y-8.045
X-7.095 Y-8.057
X-7.088 Y-8.069
X-7.08 Y-8.081
X-7.075 Y-8.089
X-7.069 Y-8.096
X-7.059 Y-8.107
X-7.049 Y-8.118
X-7.039 Y-8.129
X-7.029 Y-8.139
X-7.02 Y-8.149
X-7.01 Y-8.159
X-7 Y-8.169
X-6.99 Y-8.178
X-6.98 Y-8.186
X-6.97 Y-8.194
X-6.96 Y-8.202
X-6.949 Y-8.21
X-6.938 Y-8.217
X-6.927 Y-8.224
X-6.915 Y-8.231
X-6.903 Y-8.238
X-6.891 Y-8.245
X-6.878 Y-8.252
X-6.865 Y-8.259
X-6.852 Y-8.265
X-6.839 Y-8.272
X-6.825 Y-8.278
X-6.814 Y-8.284
X-6.8 Y-8.289
X-6.783 Y-8.295
X-6.767 Y-8.301
X-6.75 Y-8.307
X-6.734 Y-8.313
X-6.718 Y-8.319
X-6.702 Y-8.324
X-6.686 Y-8.329
X-6.67 Y-8.333
X-6.654 Y-8.338
X-6.638 Y-8.342
X-6.622 Y-8.345
X-6.606 Y-8.348
X-6.59 Y-8.351
X-6.574 Y-8.353
X-6.558 Y-8.355
X-6.541 Y-8.357
X-6.524 Y-8.359
X-6.507 Y-8.36
X-6.489 Y-8.361
X-6.472 Y-8.362
X-6.454 Y-8.363
X-6.437 Y-8.364
X-6.424 Y-8.365
X-6.389 Y-8.361
X-6.349 Y-8.356
X-6.309 Y-8.351
X-6.271 Y-8.345
X-6.233 Y-8.339
X-6.195 Y-8.332
X-6.159 Y-8.324
X-6.124 Y-8.315
X-6.09 Y-8.304
X-6.057 Y-8.292
X-6.025 Y-8.279
X-5.995 Y-8.264
X-5.965 Y-8.247
X-5.937 Y-8.228
X-5.908 Y-8.207
X-5.881 Y-8.185
X-5.853 Y-8.161
X-5.826 Y-8.135
X-5.8 Y-8.108
X-5.773 Y-8.08
X-5.747 Y-8.051
X-5.72 Y-8.021
X-5.694 Y-7.99
X-5.668 Y-7.959
X-5.641 Y-7.941
X-5.609 Y-7.936
X-5.579 Y-7.948
X-5.557 Y-7.972
X-5.55 Y-8.003
Y-8.308
X-5.617 Y-8.375 Z-0.001
X-5.55 Y-8.308 Z-0.25
X-5.3 Y-8.309
X-5.233 Y-8.375 Z-0.001
X-5.3 Y-8.309 Z-0.25
X-5.297 Y-5.907
X-5.23 Y-5.841 Z-0.001
X-5.297 Y-5.907 Z-0.25
X-5.593
X-5.659 Y-5.84 Z-0.001
X-5.593 Y-5.907 Z-0.25
X-5.594 Y-7.198
Y-7.199
Y-7.22
X-5.595 Y-7.241
Y-7.262
Y-7.263
Y-7.284
X-5.596 Y-7.305
Y-7.306
X-5.597 Y-7.327
Y-7.328
X-5.598 Y-7.348
Y-7.349
X-5.599 Y-7.37
Y-7.371
X-5.6 Y-7.392
X-5.601 Y-7.393
X-5.602 Y-7.414
Y-7.415
X-5.605 Y-7.436
Y-7.437
X-5.607 Y-7.458
Y-7.459
X-5.61 Y-7.48
X-5.611 Y-7.481
X-5.614 Y-7.502
Y-7.503
X-5.618 Y-7.524
Y-7.525
X-5.623 Y-7.545
Y-7.547
X-5.628 Y-7.567
Y-7.568
X-5.633 Y-7.588
Y-7.589
X-5.638 Y-7.609
X-5.639 Y-7.61
X-5.644 Y-7.63
Y-7.631
X-5.65 Y-7.651
Y-7.652
X-5.656 Y-7.672
X-5.662 Y-7.692
X-5.668 Y-7.713
X-5.673 Y-7.725
X-5.68 Y-7.738
X-5.687 Y-7.752
Y-7.753
X-5.695 Y-7.766
Y-7.767
X-5.702 Y-7.78
X-5.703 Y-7.781
X-5.71 Y-7.795
X-5.711 Y-7.796
X-5.719 Y-7.809
Y-7.81
X-5.727 Y-7.823
X-5.728 Y-7.824
X-5.737 Y-7.837
X-5.738 Y-7.839
X-5.746 Y-7.851
X-5.747 Y-7.853
X-5.756 Y-7.865
X-5.758 Y-7.867
X-5.767 Y-7.879
X-5.769 Y-7.881
X-5.779 Y-7.892
X-5.78 Y-7.894
X-5.791 Y-7.905
X-5.793 Y-7.907
X-5.803 Y-7.918
X-5.805 Y-7.919
X-5.816 Y-7.93
X-5.818 Y-7.931
X-5.829 Y-7.941
X-5.83 Y-7.942
X-5.842 Y-7.952
X-5.843 Y-7.953
X-5.855 Y-7.962
X-5.856 Y-7.963
X-5.869 Y-7.972
X-5.87 Y-7.973
X-5.882 Y-7.982
X-5.883
X-5.895 Y-7.991
X-5.896 Y-7.992
X-5.909 Y-8.001
X-5.922 Y-8.01
X-5.935 Y-8.019
X-5.942 Y-8.023
X-5.957 Y-8.03
X-5.971 Y-8.037
Y-8.038
X-5.986 Y-8.045
X-6.001 Y-8.052
X-6.016 Y-8.059
X-6.017
X-6.031 Y-8.066
X-6.032
X-6.047 Y-8.072
X-6.048 Y-8.073
X-6.062 Y-8.079
X-6.064
X-6.078 Y-8.085
X-6.08 Y-8.086
X-6.095 Y-8.091
X-6.097 Y-8.092
X-6.112 Y-8.096
X-6.113 Y-8.097
X-6.129 Y-8.101
X-6.131 Y-8.102
X-6.146 Y-8.106
X-6.148
X-6.163 Y-8.11
X-6.165
X-6.181 Y-8.113
X-6.182
X-6.198 Y-8.116
X-6.199
X-6.215 Y-8.118
X-6.216 Y-8.119
X-6.232 Y-8.121
X-6.233
X-6.249 Y-8.122
X-6.25
X-6.265 Y-8.124
X-6.266
X-6.282 Y-8.125
X-6.283
X-6.299 Y-8.126
X-6.315 Y-8.128
X-6.331 Y-8.129
X-6.339
X-6.354 Y-8.128
X-6.368 Y-8.127
X-6.369
X-6.383 Y-8.126
X-6.384
X-6.398 Y-8.125
X-6.399
X-6.413 Y-8.124
X-6.414
X-6.429 Y-8.122
X-6.43
X-6.444 Y-8.12
X-6.446
X-6.46 Y-8.118
X-6.462
X-6.476 Y-8.115
X-6.478
X-6.491 Y-8.112
X-6.494
X-6.507 Y-8.109
X-6.51 Y-8.108
X-6.523 Y-8.104
X-6.526
X-6.539 Y-8.099
X-6.542
X-6.555 Y-8.094
X-6.557 Y-8.093
X-6.57 Y-8.088
X-6.572 Y-8.087
X-6.585 Y-8.081
X-6.587 Y-8.08
X-6.6 Y-8.074
X-6.602
X-6.614 Y-8.067
X-6.616
X-6.628 Y-8.06
X-6.629 Y-8.059
X-6.642 Y-8.053
X-6.643 Y-8.052
X-6.655 Y-8.045
X-6.656
X-6.668 Y-8.037
X-6.669
X-6.681 Y-8.03
X-6.682
X-6.694 Y-8.022
X-6.705 Y-8.015
X-6.715 Y-8.006
Y-8.005
X-6.725 Y-7.996
X-6.736 Y-7.987
Y-7.986
X-6.746 Y-7.977
X-6.747 Y-7.976
X-6.757 Y-7.967
Y-7.966
X-6.767 Y-7.956
X-6.768 Y-7.955
X-6.777 Y-7.946
X-6.779 Y-7.944
X-6.787 Y-7.934
X-6.789 Y-7.933
X-6.797 Y-7.923
X-6.799 Y-7.921
X-6.807 Y-7.911
X-6.809 Y-7.909
X-6.817 Y-7.898
X-6.818 Y-7.896
X-6.826 Y-7.885
X-6.827 Y-7.882
X-6.834 Y-7.871
X-6.835 Y-7.868
X-6.842 Y-7.857
X-6.843 Y-7.855
X-6.849 Y-7.843
X-6.85 Y-7.841
X-6.856 Y-7.829
Y-7.827
X-6.862 Y-7.815
Y-7.813
X-6.867 Y-7.801
X-6.868 Y-7.799
X-6.873 Y-7.787
Y-7.786
X-6.878 Y-7.773
Y-7.772
X-6.882 Y-7.759
X-6.883 Y-7.758
X-6.887 Y-7.745
X-6.891 Y-7.732
X-6.895 Y-7.719
X-6.898 Y-7.707
X-6.9 Y-7.688
X-6.903 Y-7.669
X-6.905 Y-7.65
X-6.908 Y-7.631
X-6.91 Y-7.612
X-6.912 Y-7.593
Y-7.592
X-6.914 Y-7.574
Y-7.573
X-6.916 Y-7.554
Y-7.553
X-6.918 Y-7.535
Y-7.534
X-6.919 Y-7.515
Y-7.514
X-6.92 Y-7.495
X-6.921 Y-7.476
Y-7.475
X-6.922 Y-7.456
X-6.923 Y-7.437
Y-7.436
Y-7.417
X-6.924
Y-7.398
Y-7.397
Y-7.379
Y-7.378
Y-7.359
X-6.925 Y-7.34
Y-7.321
Y-7.302
Y-7.301
X-6.924 Y-7.282
Y-7.263
Y-7.244
X-6.923 Y-5.905
X-6.856 Y-5.839 Z-0.001
X-6.923 Y-5.905 Z-0.25
X-7.218
G0 Z5
X-4.864 Y-5.841
G1 Z-0.001 F1000
X-4.774 Y-5.908 Z-0.25
X-4.042 Y-8.31
X-4.091 Y-8.377 Z-0.001
X-4.042 Y-8.31 Z-0.25
X-3.694 Y-8.311
X-3.643 Y-8.377 Z-0.001
X-3.694 Y-8.311 Z-0.25
X-3.192 Y-6.411
X-3.178 Y-6.384
X-3.155 Y-6.367
X-3.126 Y-6.361
X-3.097 Y-6.368
X-3.074 Y-6.386
X-3.062 Y-6.413
X-2.965 Y-6.844
X-2.576 Y-8.312
X-2.628 Y-8.378 Z-0.001
X-2.576 Y-8.312 Z-0.25
X-2.231
X-2.182 Y-8.379 Z-0.001
X-2.231 Y-8.312 Z-0.25
X-1.477 Y-5.912
X-1.386 Y-5.845 Z-0.001
X-1.477 Y-5.912 Z-0.25
X-1.754 Y-5.911
X-1.804 Y-5.845 Z-0.001
X-1.754 Y-5.911 Z-0.25
X-2.176 Y-7.329
X-2.322 Y-7.818
X-2.336 Y-7.843
X-2.359 Y-7.86
X-2.387 Y-7.866
X-2.415 Y-7.859
X-2.438 Y-7.841
X-2.451 Y-7.816
X-2.577 Y-7.331
X-2.942 Y-5.91
X-2.89 Y-5.843 Z-0.001
X-2.942 Y-5.91 Z-0.25
X-3.281
X-3.332 Y-5.843 Z-0.001
X-3.281 Y-5.91 Z-0.25
X-3.672 Y-7.344
X-3.683 Y-7.387
X-3.711 Y-7.496
X-3.716 Y-7.518
X-3.722 Y-7.539
X-3.727 Y-7.561
X-3.733 Y-7.583
X-3.738 Y-7.605
X-3.744 Y-7.626
X-3.755 Y-7.67
X-3.76 Y-7.692
X-3.766 Y-7.714
X-3.771 Y-7.735
X-3.777 Y-7.757
X-3.782 Y-7.779
X-3.788 Y-7.801
X-3.793 Y-7.822
X-3.798 Y-7.844
X-3.804 Y-7.866
X-3.817 Y-7.892
X-3.84 Y-7.91
X-3.868 Y-7.917
X-3.897 Y-7.911
X-3.92 Y-7.893
X-3.933 Y-7.868
X-4.083 Y-7.323
X-4.472 Y-5.908
X-4.421 Y-5.842 Z-0.001
X-4.472 Y-5.908 Z-0.25
X-4.774
G0 Z5
X-0.781 Y-6.761
G1 Z-0.25 F1000
X-0.784 Y-6.776
Y-6.779
X-0.79 Y-6.81
Y-6.812
X-0.795 Y-6.844
Y-6.845
X-0.799 Y-6.877
Y-6.879
X-0.802 Y-6.911
X-0.803 Y-6.912
X-0.805 Y-6.945
Y-6.946
X-0.807 Y-6.978
Y-6.979
X-0.809 Y-7.012
X-0.81 Y-7.045
X-0.811 Y-7.078
X-0.812 Y-7.111
Y-7.115
X-0.811 Y-7.148
X-0.81 Y-7.181
X-0.809 Y-7.214
Y-7.215
X-0.807 Y-7.247
Y-7.248
X-0.806 Y-7.281
X-0.805 Y-7.282
X-0.803 Y-7.314
Y-7.316
X-0.8 Y-7.348
Y-7.349
X-0.796 Y-7.381
Y-7.383
X-0.791 Y-7.415
Y-7.417
X-0.785 Y-7.448
Y-7.45
X-0.778 Y-7.482
Y-7.484
X-0.77 Y-7.515
X-0.769 Y-7.517
X-0.76 Y-7.548
X-0.759 Y-7.551
X-0.749 Y-7.58
X-0.748 Y-7.583
X-0.737 Y-7.613
X-0.736 Y-7.615
X-0.723 Y-7.644
X-0.722 Y-7.646
X-0.708 Y-7.675
X-0.707 Y-7.677
X-0.693 Y-7.705
X-0.692 Y-7.707
X-0.677 Y-7.735
X-0.676 Y-7.737
X-0.66 Y-7.765
X-0.659 Y-7.766
X-0.643 Y-7.794
X-0.642
X-0.625 Y-7.822
Y-7.823
X-0.608 Y-7.85
Y-7.851
X-0.59 Y-7.878
X-0.579 Y-7.892
X-0.561 Y-7.909
X-0.56 Y-7.91
X-0.542 Y-7.927
X-0.541 Y-7.928
X-0.522 Y-7.945
X-0.521
X-0.502 Y-7.962
X-0.501 Y-7.963
X-0.482 Y-7.98
X-0.481 Y-7.981
X-0.461 Y-7.997
X-0.46 Y-7.998
X-0.44 Y-8.013
X-0.439 Y-8.015
X-0.418 Y-8.029
X-0.416 Y-8.031
X-0.396 Y-8.045
X-0.393 Y-8.046
X-0.373 Y-8.059
X-0.37 Y-8.061
X-0.348 Y-8.073
X-0.345 Y-8.074
X-0.323 Y-8.085
X-0.32 Y-8.087
X-0.297 Y-8.096
X-0.294 Y-8.097
X-0.271 Y-8.106
X-0.268 Y-8.107
X-0.245 Y-8.114
X-0.242 Y-8.115
X-0.218 Y-8.121
X-0.216 Y-8.122
X-0.191 Y-8.127
X-0.189 Y-8.128
X-0.164 Y-8.132
X-0.163 Y-8.133
X-0.138 Y-8.137
X-0.136
X-0.111 Y-8.141
X-0.11
X-0.084 Y-8.144
X-0.058 Y-8.147
X-0.057
X-0.032 Y-8.15
X-0.031
X-0.006 Y-8.152
X0.008
X0.033 Y-8.15
X0.059 Y-8.147
X0.06
X0.085 Y-8.144
X0.086
X0.111 Y-8.141
X0.112
X0.138 Y-8.137
X0.139
X0.164 Y-8.133
X0.166 Y-8.132
X0.19 Y-8.128
X0.193 Y-8.127
X0.217 Y-8.122
X0.219 Y-8.121
X0.243 Y-8.115
X0.246 Y-8.114
X0.269 Y-8.107
X0.272 Y-8.106
X0.295 Y-8.097
X0.298 Y-8.096
X0.321 Y-8.087
X0.324 Y-8.085
X0.346 Y-8.074
X0.349 Y-8.073
X0.371 Y-8.061
X0.373 Y-8.059
X0.394 Y-8.046
X0.397 Y-8.045
X0.417 Y-8.031
X0.419 Y-8.029
X0.439 Y-8.015
X0.441 Y-8.013
X0.461 Y-7.998
X0.462 Y-7.997
X0.481 Y-7.981
X0.483 Y-7.98
X0.502 Y-7.963
X0.503 Y-7.962
X0.522 Y-7.945
X0.541 Y-7.927
X0.542
X0.561 Y-7.909
X0.579 Y-7.892
X0.591 Y-7.878
X0.608 Y-7.85
X0.626 Y-7.821
X0.643 Y-7.793
Y-7.792
X0.66 Y-7.763
X0.661 Y-7.762
X0.677 Y-7.734
Y-7.733
X0.693 Y-7.704
X0.694 Y-7.702
X0.709 Y-7.673
Y-7.671
X0.723 Y-7.642
X0.724 Y-7.64
X0.737 Y-7.61
X0.738 Y-7.608
X0.75 Y-7.578
Y-7.575
X0.761 Y-7.545
X0.762 Y-7.542
X0.771 Y-7.511
Y-7.508
X0.779 Y-7.477
X0.78 Y-7.475
X0.786 Y-7.443
X0.787 Y-7.441
X0.792 Y-7.409
X0.793 Y-7.407
X0.797 Y-7.375
Y-7.373
X0.801 Y-7.34
Y-7.339
X0.804 Y-7.306
X0.805 Y-7.305
X0.807 Y-7.272
Y-7.271
X0.809 Y-7.238
Y-7.237
X0.811 Y-7.204
Y-7.203
X0.812 Y-7.17
Y-7.169
X0.813 Y-7.136
X0.814 Y-7.102
Y-7.098
X0.813 Y-7.066
X0.812 Y-7.034
Y-7.033
X0.81 Y-7.001
X0.809 Y-6.969
Y-6.968
X0.807 Y-6.936
X0.806 Y-6.935
X0.804 Y-6.903
Y-6.902
X0.801 Y-6.87
X0.8 Y-6.869
X0.797 Y-6.837
X0.796 Y-6.836
X0.792 Y-6.805
X0.791 Y-6.803
X0.786 Y-6.772
X0.785 Y-6.77
X0.778 Y-6.739
Y-6.737
X0.77 Y-6.707
X0.769 Y-6.704
X0.76 Y-6.674
X0.759 Y-6.672
X0.749 Y-6.642
X0.748 Y-6.64
X0.736 Y-6.611
X0.735 Y-6.608
X0.723 Y-6.58
X0.722 Y-6.578
X0.708 Y-6.55
X0.707 Y-6.548
X0.693 Y-6.52
X0.692 Y-6.519
X0.676 Y-6.491
Y-6.49
X0.66 Y-6.462
X0.659
X0.643 Y-6.434
X0.642
X0.625 Y-6.406
X0.608 Y-6.379
X0.591 Y-6.352
X0.58 Y-6.339
X0.561 Y-6.321
X0.542 Y-6.304
Y-6.303
X0.523 Y-6.286
X0.522 Y-6.285
X0.503 Y-6.268
X0.502
X0.483 Y-6.251
X0.482 Y-6.25
X0.463 Y-6.234
X0.461 Y-6.233
X0.442 Y-6.218
X0.44 Y-6.216
X0.42 Y-6.202
X0.418 Y-6.2
X0.398 Y-6.186
X0.395 Y-6.185
X0.374 Y-6.172
X0.372 Y-6.17
X0.35 Y-6.159
X0.347 Y-6.157
X0.326 Y-6.146
X0.322 Y-6.145
X0.3 Y-6.135
X0.297 Y-6.134
X0.274 Y-6.125
X0.271 Y-6.124
X0.247 Y-6.117
X0.245 Y-6.116
X0.221 Y-6.11
X0.218 Y-6.109
X0.194 Y-6.104
X0.192 Y-6.103
X0.168 Y-6.099
X0.166 Y-6.098
X0.141 Y-6.094
X0.14
X0.115 Y-6.09
X0.113
X0.088 Y-6.087
X0.087
X0.062 Y-6.084
X0.061
X0.036 Y-6.081
X0.01 Y-6.078
X-0.003
X-0.029 Y-6.081
X-0.055 Y-6.083
X-0.056
X-0.081 Y-6.086
X-0.082
X-0.107 Y-6.089
X-0.108
X-0.134 Y-6.093
X-0.135
X-0.16 Y-6.097
X-0.162 Y-6.098
X-0.187 Y-6.102
X-0.189 Y-6.103
X-0.213 Y-6.108
X-0.215 Y-6.109
X-0.239 Y-6.115
X-0.242 Y-6.116
X-0.266 Y-6.123
X-0.268 Y-6.124
X-0.292 Y-6.132
X-0.295 Y-6.133
X-0.317 Y-6.143
X-0.321 Y-6.144
X-0.343 Y-6.155
X-0.346 Y-6.157
X-0.367 Y-6.168
X-0.37 Y-6.17
X-0.391 Y-6.183
X-0.393 Y-6.184
X-0.414 Y-6.198
X-0.416 Y-6.199
X-0.436 Y-6.214
X-0.438 Y-6.215
X-0.458 Y-6.231
X-0.459 Y-6.232
X-0.479 Y-6.248
X-0.48 Y-6.249
X-0.499 Y-6.265
X-0.5 Y-6.266
X-0.519 Y-6.283
X-0.52
X-0.539 Y-6.301
X-0.558 Y-6.318
X-0.559 Y-6.319
X-0.578 Y-6.336
X-0.589 Y-6.35
X-0.606 Y-6.377
X-0.623 Y-6.405
X-0.624 Y-6.406
X-0.641 Y-6.433
Y-6.434
X-0.658 Y-6.462
Y-6.463
X-0.674 Y-6.491
X-0.675 Y-6.492
X-0.691 Y-6.52
Y-6.522
X-0.706 Y-6.55
X-0.707 Y-6.552
X-0.721 Y-6.581
X-0.722 Y-6.583
X-0.735 Y-6.612
X-0.736 Y-6.614
X-0.747 Y-6.644
X-0.748 Y-6.647
X-0.758 Y-6.676
X-0.759 Y-6.679
X-0.768 Y-6.71
X-0.769 Y-6.712
X-0.777 Y-6.743
Y-6.745
X-0.781 Y-6.761
G0 Z5
X-1.08 Y-6.703
G1 Z-0.25 F1000
X-1.078 Y-6.694
X-1.068 Y-6.651
X-1.056 Y-6.609
X-1.043 Y-6.568
X-1.027 Y-6.528
X-1.01 Y-6.489
X-0.99 Y-6.45
X-0.968 Y-6.412
X-0.944 Y-6.374
X-0.919 Y-6.336
X-0.892 Y-6.299
X-0.864 Y-6.262
X-0.835 Y-6.225
X-0.805 Y-6.187
X-0.774 Y-6.15
X-0.748 Y-6.12
X-0.726 Y-6.104
X-0.696 Y-6.083
X-0.667 Y-6.063
X-0.637 Y-6.043
X-0.608 Y-6.024
X-0.578 Y-6.006
X-0.549 Y-5.989
X-0.519 Y-5.972
X-0.49 Y-5.957
X-0.46 Y-5.943
X-0.43 Y-5.93
X-0.4 Y-5.919
X-0.369 Y-5.909
X-0.337 Y-5.9
X-0.305 Y-5.893
X-0.272 Y-5.886
X-0.239 Y-5.88
X-0.205 Y-5.875
X-0.17 Y-5.871
X-0.135 Y-5.867
X-0.1 Y-5.864
X-0.064 Y-5.861
X-0.028 Y-5.858
X0.003 Y-5.856
X0.038 Y-5.859
X0.078 Y-5.862
X0.117 Y-5.866
X0.156 Y-5.87
X0.194 Y-5.874
X0.232 Y-5.88
X0.269 Y-5.886
X0.306 Y-5.893
X0.341 Y-5.901
X0.376 Y-5.91
X0.41 Y-5.921
X0.443 Y-5.933
X0.475 Y-5.947
X0.507 Y-5.962
X0.538 Y-5.979
X0.569 Y-5.998
X0.6 Y-6.018
X0.631 Y-6.039
X0.662 Y-6.061
X0.692 Y-6.085
X0.723 Y-6.109
X0.754 Y-6.133
X0.784 Y-6.159
X0.809 Y-6.179
X0.83 Y-6.207
X0.855 Y-6.242
X0.88 Y-6.277
X0.904 Y-6.311
X0.927 Y-6.346
X0.95 Y-6.381
X0.971 Y-6.416
X0.991 Y-6.451
X1.009 Y-6.486
X1.026 Y-6.521
X1.041 Y-6.557
X1.054 Y-6.593
X1.065 Y-6.63
X1.075 Y-6.668
X1.084 Y-6.707
X1.091 Y-6.747
X1.098 Y-6.787
X1.103 Y-6.828
X1.107 Y-6.869
X1.111 Y-6.911
X1.114 Y-6.953
X1.117 Y-6.996
X1.119 Y-7.04
X1.122 Y-7.081
X1.121 Y-7.111
X1.12 Y-7.144
X1.119 Y-7.177
X1.118 Y-7.21
X1.117 Y-7.242
X1.115 Y-7.274
X1.113 Y-7.306
X1.11 Y-7.338
X1.107 Y-7.369
X1.104 Y-7.401
X1.099 Y-7.431
X1.094 Y-7.462
X1.088 Y-7.492
X1.081 Y-7.522
X1.074 Y-7.552
X1.065 Y-7.582
X1.056 Y-7.612
X1.046 Y-7.642
X1.036 Y-7.673
X1.025 Y-7.703
X1.014 Y-7.733
X1.002 Y-7.764
X0.99 Y-7.794
X0.981 Y-7.819
X0.97 Y-7.836
X0.957 Y-7.858
X0.943 Y-7.88
X0.929 Y-7.901
X0.915 Y-7.922
X0.902 Y-7.942
X0.887 Y-7.962
X0.873 Y-7.981
X0.858 Y-8
X0.843 Y-8.018
X0.828 Y-8.035
X0.812 Y-8.052
X0.795 Y-8.068
X0.778 Y-8.084
X0.76 Y-8.099
X0.742 Y-8.114
X0.723 Y-8.129
X0.703 Y-8.144
X0.683 Y-8.158
X0.662 Y-8.172
X0.641 Y-8.186
X0.62 Y-8.2
X0.599 Y-8.214
X0.581 Y-8.226
X0.56 Y-8.235
X0.536 Y-8.247
X0.512 Y-8.258
X0.489 Y-8.268
X0.465 Y-8.279
X0.441 Y-8.289
X0.418 Y-8.298
X0.394 Y-8.307
X0.371 Y-8.315
X0.347 Y-8.323
X0.324 Y-8.33
X0.3 Y-8.336
X0.277 Y-8.342
X0.253 Y-8.347
X0.228 Y-8.351
X0.204 Y-8.355
X0.179 Y-8.358
X0.154 Y-8.361
X0.128 Y-8.363
X0.102 Y-8.366
X0.076 Y-8.367
X0.05 Y-8.369
X0.023 Y-8.371
X0.001 Y-8.372
X-0.035 Y-8.369
X-0.075 Y-8.366
X-0.114 Y-8.363
X-0.153 Y-8.359
X-0.192 Y-8.354
X-0.23 Y-8.349
X-0.267 Y-8.343
X-0.304 Y-8.336
X-0.34 Y-8.328
X-0.375 Y-8.319
X-0.409 Y-8.309
X-0.442 Y-8.296
X-0.475 Y-8.283
X-0.507 Y-8.267
X-0.538 Y-8.25
X-0.57 Y-8.232
X-0.601 Y-8.212
X-0.632 Y-8.191
X-0.663 Y-8.168
X-0.694 Y-8.145
X-0.724 Y-8.121
X-0.755 Y-8.096
X-0.786 Y-8.071
X-0.81 Y-8.051
X-0.831 Y-8.021
X-0.857 Y-7.985
X-0.882 Y-7.949
X-0.906 Y-7.913
X-0.93 Y-7.876
X-0.952 Y-7.84
X-0.973 Y-7.804
X-0.993 Y-7.767
X-1.011 Y-7.73
X-1.028 Y-7.693
X-1.043 Y-7.656
X-1.056 Y-7.618
X-1.067 Y-7.58
X-1.077 Y-7.54
X-1.085 Y-7.5
X-1.092 Y-7.459
X-1.098 Y-7.417
X-1.103 Y-7.374
X-1.108 Y-7.331
X-1.111 Y-7.288
X-1.114 Y-7.244
X-1.116 Y-7.2
X-1.118 Y-7.155
X-1.12 Y-7.113
X-1.118 Y-7.067
X-1.115 Y-7.018
X-1.112 Y-6.97
X-1.109 Y-6.923
X-1.105 Y-6.875
X-1.1 Y-6.829
X-1.094 Y-6.783
X-1.087 Y-6.738
X-1.08 Y-6.703
G0 Z5
X0.224 Y-5.35
G1 Z-0.001 F1000
X0.291 Y-5.283 Z-0.25
X0.606
X0.672 Y-5.35 Z-0.001
X0.606 Y-5.283 Z-0.25
Y-4.928
X0.673 Y-4.861 Z-0.001
X0.606 Y-4.928 Z-0.25
X0.291
X0.225 Y-4.861 Z-0.001
X0.291 Y-4.928 Z-0.25
Y-5.283
G0 Z5
X-0.667 Y-5.349
G1 Z-0.001 F1000
X-0.6 Y-5.282 Z-0.25
X-0.285
X-0.218 Y-5.349 Z-0.001
X-0.285 Y-5.282 Z-0.25
X-0.284 Y-4.927
X-0.218 Y-4.86 Z-0.001
X-0.284 Y-4.927 Z-0.25
X-0.599
X-0.666 Y-4.86 Z-0.001
X-0.599 Y-4.927 Z-0.25
X-0.6 Y-5.282
G0 Z5
X-0.34 Y-2.686
G1 Z-0.25 F1000
X-0.324 Y-2.688
X-0.323
X-0.307 Y-2.689
X-0.306
X-0.29 Y-2.69
X-0.273 Y-2.691
X-0.257 Y-2.692
X-0.248
X-0.224 Y-2.69
X-0.2 Y-2.688
X-0.176 Y-2.686
X-0.175
X-0.152 Y-2.684
X-0.151
X-0.127 Y-2.681
X-0.126
X-0.103 Y-2.678
X-0.101
X-0.078 Y-2.674
X-0.077
X-0.054 Y-2.669
X-0.052
X-0.029 Y-2.664
X-0.027 Y-2.663
X-0.005 Y-2.658
X-0.002 Y-2.657
X0.02 Y-2.65
X0.023 Y-2.649
X0.044 Y-2.642
X0.047 Y-2.641
X0.068 Y-2.632
X0.071 Y-2.631
X0.092 Y-2.621
X0.095 Y-2.62
X0.115 Y-2.609
X0.117 Y-2.608
X0.137 Y-2.596
X0.139 Y-2.595
X0.159 Y-2.583
X0.16 Y-2.582
X0.18 Y-2.569
X0.181 Y-2.568
X0.2 Y-2.555
X0.201 Y-2.554
X0.22 Y-2.54
X0.221 Y-2.539
X0.24 Y-2.525
X0.241
X0.259 Y-2.51
X0.26
X0.278 Y-2.495
X0.279
X0.297 Y-2.48
X0.308 Y-2.47
X0.323 Y-2.452
X0.338 Y-2.433
X0.353 Y-2.414
X0.368 Y-2.395
Y-2.394
X0.382 Y-2.376
X0.383 Y-2.375
X0.397 Y-2.356
X0.398 Y-2.354
X0.411 Y-2.335
X0.412 Y-2.334
X0.424 Y-2.314
X0.425 Y-2.312
X0.437 Y-2.293
X0.438 Y-2.29
X0.449 Y-2.27
X0.45 Y-2.268
X0.46 Y-2.247
X0.461 Y-2.244
X0.47 Y-2.223
X0.472 Y-2.22
X0.479 Y-2.199
X0.48 Y-2.196
X0.487 Y-2.174
X0.488 Y-2.172
X0.494 Y-2.15
Y-2.147
X0.5 Y-2.125
Y-2.123
X0.504 Y-2.1
X0.505 Y-2.098
X0.508 Y-2.076
X0.509 Y-2.074
X0.512 Y-2.051
Y-2.05
X0.515 Y-2.026
Y-2.025
X0.517 Y-2.002
Y-2.001
X0.52 Y-1.978
Y-1.977
X0.522 Y-1.954
Y-1.953
X0.524 Y-1.93
Y-1.919
X0.522 Y-1.895
X0.52 Y-1.871
Y-1.87
X0.517 Y-1.846
Y-1.845
X0.515 Y-1.821
Y-1.82
X0.512 Y-1.797
Y-1.795
X0.508 Y-1.772
Y-1.77
X0.504 Y-1.747
Y-1.745
X0.499 Y-1.722
Y-1.72
X0.494 Y-1.697
X0.493 Y-1.694
X0.487 Y-1.672
X0.486 Y-1.669
X0.479 Y-1.647
X0.478 Y-1.644
X0.47 Y-1.623
X0.469 Y-1.619
X0.46 Y-1.598
X0.459 Y-1.595
X0.449 Y-1.574
X0.447 Y-1.572
X0.436 Y-1.551
X0.435 Y-1.549
X0.423 Y-1.529
X0.422 Y-1.527
X0.409 Y-1.507
X0.408 Y-1.506
X0.395 Y-1.486
X0.394 Y-1.485
X0.38 Y-1.466
X0.379 Y-1.464
X0.365 Y-1.445
X0.364
X0.349 Y-1.426
Y-1.425
X0.334 Y-1.406
X0.333
X0.318 Y-1.387
X0.303 Y-1.368
X0.293 Y-1.358
X0.274 Y-1.343
X0.255 Y-1.328
X0.254
X0.235 Y-1.313
X0.216 Y-1.298
X0.215 Y-1.297
X0.195 Y-1.283
X0.194 Y-1.282
X0.175 Y-1.269
X0.173 Y-1.268
X0.154 Y-1.255
X0.152 Y-1.254
X0.132 Y-1.241
X0.13 Y-1.24
X0.11 Y-1.228
X0.108 Y-1.227
X0.087 Y-1.216
X0.085 Y-1.215
X0.064 Y-1.205
X0.061 Y-1.203
X0.039 Y-1.194
X0.036 Y-1.193
X0.015 Y-1.185
X0.012 Y-1.184
X-0.01 Y-1.178
X-0.013 Y-1.177
X-0.036 Y-1.171
X-0.038 Y-1.17
X-0.061 Y-1.165
X-0.063
X-0.086 Y-1.16
X-0.088
X-0.111 Y-1.156
X-0.113
X-0.137 Y-1.152
X-0.138
X-0.162 Y-1.149
X-0.163
X-0.187 Y-1.147
X-0.211 Y-1.144
X-0.212
X-0.236 Y-1.142
X-0.26 Y-1.14
X-0.271
X-0.295 Y-1.142
X-0.318 Y-1.144
X-0.319
X-0.342 Y-1.146
X-0.343 Y-1.147
X-0.366 Y-1.149
X-0.368
X-0.391 Y-1.152
X-0.392
X-0.415 Y-1.155
X-0.417
X-0.439 Y-1.159
X-0.441 Y-1.16
X-0.464 Y-1.164
X-0.466
X-0.488 Y-1.169
X-0.491 Y-1.17
X-0.513 Y-1.176
X-0.515 Y-1.177
X-0.537 Y-1.183
X-0.54 Y-1.184
X-0.561 Y-1.192
X-0.564 Y-1.193
X-0.585 Y-1.202
X-0.588 Y-1.203
X-0.608 Y-1.213
X-0.611 Y-1.215
X-0.631 Y-1.225
X-0.633 Y-1.227
X-0.653 Y-1.238
X-0.655 Y-1.239
X-0.674 Y-1.252
X-0.676 Y-1.253
X-0.695 Y-1.266
X-0.696 Y-1.267
X-0.715 Y-1.28
X-0.716 Y-1.281
X-0.735 Y-1.295
X-0.736 Y-1.296
X-0.754 Y-1.31
X-0.755
X-0.773 Y-1.325
X-0.774
X-0.792 Y-1.34
X-0.811 Y-1.355
X-0.821 Y-1.365
X-0.835 Y-1.383
X-0.836 Y-1.384
X-0.85 Y-1.402
X-0.851
X-0.865 Y-1.421
X-0.866
X-0.88 Y-1.44
X-0.881 Y-1.441
X-0.894 Y-1.459
X-0.895 Y-1.46
X-0.909 Y-1.479
X-0.91 Y-1.481
X-0.923 Y-1.5
X-0.924 Y-1.501
X-0.936 Y-1.521
X-0.937 Y-1.523
X-0.949 Y-1.542
X-0.95 Y-1.544
X-0.961 Y-1.564
X-0.962 Y-1.567
X-0.972 Y-1.587
X-0.973 Y-1.59
X-0.982 Y-1.611
X-0.983 Y-1.614
X-0.991 Y-1.635
X-0.992 Y-1.638
X-0.998 Y-1.659
X-0.999 Y-1.662
X-1.005 Y-1.684
X-1.006 Y-1.686
X-1.011 Y-1.709
Y-1.711
X-1.016 Y-1.733
Y-1.735
X-1.02 Y-1.758
Y-1.759
X-1.023 Y-1.782
X-1.024 Y-1.784
X-1.026 Y-1.807
Y-1.808
X-1.029 Y-1.831
Y-1.832
X-1.031 Y-1.855
Y-1.856
X-1.033 Y-1.879
X-1.035 Y-1.903
Y-1.912
X-1.034 Y-1.928
X-1.033 Y-1.944
X-1.032 Y-1.959
Y-1.96
X-1.031 Y-1.975
Y-1.976
X-1.03 Y-1.991
Y-1.992
X-1.028 Y-2.007
Y-2.008
X-1.026 Y-2.024
Y-2.025
X-1.024 Y-2.04
Y-2.041
X-1.022 Y-2.057
X-1.021 Y-2.058
X-1.019 Y-2.073
X-1.018 Y-2.075
X-1.015 Y-2.09
Y-2.092
X-1.012 Y-2.106
X-1.011 Y-2.108
X-1.007 Y-2.123
Y-2.125
X-1.003 Y-2.139
X-1.002 Y-2.141
X-0.998 Y-2.156
X-0.997 Y-2.157
X-0.992 Y-2.172
Y-2.173
X-0.986 Y-2.187
Y-2.188
X-0.981 Y-2.203
X-0.98 Y-2.204
X-0.975 Y-2.218
X-0.974 Y-2.219
X-0.968 Y-2.233
X-0.962 Y-2.248
X-0.956 Y-2.262
Y-2.263
X-0.949 Y-2.277
X-0.943 Y-2.291
X-0.939 Y-2.299
X-0.931 Y-2.312
Y-2.313
X-0.923 Y-2.326
X-0.922
X-0.914 Y-2.34
X-0.905 Y-2.354
Y-2.355
X-0.896 Y-2.368
Y-2.369
X-0.887 Y-2.382
X-0.886 Y-2.383
X-0.877 Y-2.396
X-0.876 Y-2.397
X-0.867 Y-2.41
X-0.866 Y-2.411
X-0.857 Y-2.423
X-0.855 Y-2.425
X-0.846 Y-2.437
X-0.844 Y-2.438
X-0.834 Y-2.45
X-0.832 Y-2.452
X-0.822 Y-2.463
X-0.82 Y-2.465
X-0.809 Y-2.476
X-0.807 Y-2.478
X-0.796 Y-2.488
X-0.794 Y-2.489
X-0.783 Y-2.5
X-0.781 Y-2.501
X-0.769 Y-2.511
X-0.768 Y-2.512
X-0.756 Y-2.521
X-0.754 Y-2.522
X-0.742 Y-2.532
X-0.741
X-0.728 Y-2.541
X-0.727 Y-2.542
X-0.714 Y-2.551
X-0.713
X-0.7 Y-2.56
Y-2.561
X-0.687 Y-2.569
X-0.686 Y-2.57
X-0.673 Y-2.578
X-0.659 Y-2.587
X-0.652 Y-2.591
X-0.637 Y-2.598
X-0.622 Y-2.605
X-0.607 Y-2.612
X-0.592 Y-2.619
X-0.591
X-0.577 Y-2.626
X-0.576
X-0.561 Y-2.632
X-0.56 Y-2.633
X-0.545 Y-2.639
X-0.544
X-0.529 Y-2.645
X-0.528
X-0.513 Y-2.651
X-0.511
X-0.496 Y-2.656
X-0.494 Y-2.657
X-0.479 Y-2.662
X-0.477
X-0.462 Y-2.666
X-0.46 Y-2.667
X-0.444 Y-2.671
X-0.442
X-0.427 Y-2.674
X-0.425 Y-2.675
X-0.409 Y-2.677
X-0.408 Y-2.678
X-0.392 Y-2.68
X-0.391
X-0.375 Y-2.683
X-0.373
X-0.357 Y-2.685
X-0.356
X-0.34 Y-2.686
G0 Z5
X-0.357 Y-2.905
G1 Z-0.25 F1000
X-0.331 Y-2.907
X-0.292 Y-2.909
X-0.258 Y-2.912
X-0.224 Y-2.909
X-0.186 Y-2.907
X-0.148 Y-2.904
X-0.11 Y-2.901
X-0.073 Y-2.897
X-0.037 Y-2.893
X-0.001 Y-2.888
X0.035 Y-2.882
X0.069 Y-2.875
X0.103 Y-2.867
X0.136 Y-2.857
X0.169 Y-2.847
X0.2 Y-2.835
X0.231 Y-2.821
X0.262 Y-2.806
X0.293 Y-2.789
X0.324 Y-2.771
X0.354 Y-2.752
X0.385 Y-2.732
X0.415 Y-2.711
X0.446 Y-2.689
X0.476 Y-2.667
X0.507 Y-2.644
X0.532 Y-2.625
X0.55 Y-2.603
X0.573 Y-2.576
X0.595 Y-2.55
X0.617 Y-2.523
X0.638 Y-2.496
X0.659 Y-2.469
X0.678 Y-2.442
X0.696 Y-2.415
X0.713 Y-2.388
X0.728 Y-2.361
X0.743 Y-2.333
X0.755 Y-2.305
X0.767 Y-2.276
X0.776 Y-2.247
X0.785 Y-2.216
X0.793 Y-2.185
X0.8 Y-2.153
X0.805 Y-2.121
X0.811 Y-2.088
X0.815 Y-2.054
X0.819 Y-2.019
X0.823 Y-1.985
X0.826 Y-1.949
X0.829 Y-1.919
X0.828 Y-1.899
X0.826 Y-1.874
X0.825 Y-1.85
X0.823 Y-1.826
X0.821 Y-1.802
X0.818 Y-1.779
X0.815 Y-1.755
X0.812 Y-1.733
X0.808 Y-1.71
X0.804 Y-1.688
X0.799 Y-1.667
X0.793 Y-1.646
X0.786 Y-1.625
X0.779 Y-1.604
X0.771 Y-1.584
X0.762 Y-1.563
X0.752 Y-1.542
X0.742 Y-1.522
X0.731 Y-1.501
X0.72 Y-1.48
X0.708 Y-1.459
X0.696 Y-1.438
X0.683 Y-1.416
X0.674 Y-1.401
X0.661 Y-1.386
X0.645 Y-1.368
X0.628 Y-1.349
X0.611 Y-1.331
X0.595 Y-1.313
X0.578 Y-1.296
X0.561 Y-1.279
X0.544 Y-1.263
X0.527 Y-1.248
X0.509 Y-1.234
X0.491 Y-1.22
X0.473 Y-1.207
X0.455 Y-1.195
X0.435 Y-1.183
X0.415 Y-1.172
X0.395 Y-1.161
X0.374 Y-1.151
X0.352 Y-1.141
X0.33 Y-1.131
X0.307 Y-1.121
X0.284 Y-1.112
X0.261 Y-1.102
X0.238 Y-1.093
X0.214 Y-1.084
X0.188 Y-1.066
X0.173 Y-1.038
Y-1.007
X0.187 Y-0.979
X0.212 Y-0.96
X0.231 Y-0.952
X0.249 Y-0.944
X0.267 Y-0.936
X0.285 Y-0.928
X0.303 Y-0.92
X0.32 Y-0.912
X0.337 Y-0.903
X0.354 Y-0.895
X0.37 Y-0.886
X0.385 Y-0.876
X0.4 Y-0.867
X0.415 Y-0.857
X0.429 Y-0.847
X0.443 Y-0.836
X0.457 Y-0.824
X0.47 Y-0.812
X0.483 Y-0.8
X0.497 Y-0.787
X0.51 Y-0.773
X0.523 Y-0.759
X0.536 Y-0.745
X0.55 Y-0.73
X0.563 Y-0.715
X0.572 Y-0.704
X0.578 Y-0.694
X0.588 Y-0.678
X0.597 Y-0.662
X0.605 Y-0.646
X0.614 Y-0.63
X0.622 Y-0.615
X0.63 Y-0.599
X0.637 Y-0.584
X0.644 Y-0.569
X0.65 Y-0.553
X0.655 Y-0.538
X0.66 Y-0.523
X0.664 Y-0.508
X0.668 Y-0.492
X0.671 Y-0.476
X0.674 Y-0.459
X0.677 Y-0.443
X0.679 Y-0.425
X0.681 Y-0.408
X0.683 Y-0.39
X0.684 Y-0.372
X0.685 Y-0.353
X0.687 Y-0.335
X0.688 Y-0.321
X0.685 Y-0.296
X0.682 Y-0.266
X0.679 Y-0.236
X0.675 Y-0.206
X0.671 Y-0.177
X0.667 Y-0.149
X0.662 Y-0.121
X0.656 Y-0.094
X0.649 Y-0.067
X0.642 Y-0.042
X0.633 Y-0.017
X0.623 Y0.007
X0.612 Y0.031
X0.6 Y0.054
X0.587 Y0.078
X0.572 Y0.101
X0.556 Y0.124
X0.54 Y0.147
X0.522 Y0.169
X0.504 Y0.192
X0.485 Y0.215
X0.466 Y0.238
X0.446 Y0.261
X0.43 Y0.279
X0.409 Y0.295
X0.382 Y0.315
X0.355 Y0.334
X0.328 Y0.354
X0.301 Y0.372
X0.275 Y0.389
X0.248 Y0.406
X0.221 Y0.422
X0.194 Y0.436
X0.167 Y0.449
X0.14 Y0.461
X0.112 Y0.472
X0.084 Y0.481
X0.055 Y0.489
X0.026 Y0.496
X-0.005 Y0.502
X-0.036 Y0.507
X-0.067 Y0.512
X-0.099 Y0.515
X-0.132 Y0.519
X-0.165 Y0.522
X-0.198 Y0.524
X-0.232 Y0.526
X-0.261 Y0.528
X-0.291 Y0.526
X-0.324 Y0.524
X-0.357 Y0.522
X-0.39 Y0.519
X-0.422 Y0.516
X-0.454 Y0.513
X-0.485 Y0.509
X-0.515 Y0.504
X-0.545 Y0.498
X-0.575 Y0.491
X-0.603 Y0.483
X-0.631 Y0.474
X-0.659 Y0.464
X-0.686 Y0.453
X-0.712 Y0.44
X-0.739 Y0.426
X-0.766 Y0.41
X-0.792 Y0.394
X-0.819 Y0.377
X-0.845 Y0.359
X-0.872 Y0.341
X-0.899 Y0.321
X-0.925 Y0.302
X-0.947 Y0.286
X-0.962 Y0.269
X-0.981 Y0.246
X-1.001 Y0.223
X-1.019 Y0.201
X-1.037 Y0.178
X-1.055 Y0.156
X-1.071 Y0.133
X-1.087 Y0.11
X-1.101 Y0.088
X-1.114 Y0.065
X-1.126 Y0.042
X-1.137 Y0.018
X-1.147 Y-0.006
X-1.155 Y-0.03
X-1.163 Y-0.056
X-1.169 Y-0.082
X-1.175 Y-0.109
X-1.18 Y-0.136
X-1.184 Y-0.165
X-1.188 Y-0.193
X-1.192 Y-0.222
X-1.195 Y-0.252
X-1.198 Y-0.282
X-1.2 Y-0.307
X-1.199 Y-0.321
X-1.198 Y-0.341
X-1.197 Y-0.359
X-1.196 Y-0.378
X-1.194 Y-0.396
X-1.192 Y-0.414
X-1.19 Y-0.432
X-1.188 Y-0.449
X-1.185 Y-0.466
X-1.181 Y-0.483
X-1.178 Y-0.499
X-1.173 Y-0.515
X-1.169 Y-0.531
X-1.163 Y-0.546
X-1.157 Y-0.562
X-1.15 Y-0.578
X-1.143 Y-0.593
X-1.135 Y-0.609
X-1.127 Y-0.625
X-1.118 Y-0.641
X-1.109 Y-0.658
X-1.1 Y-0.674
X-1.091 Y-0.69
X-1.084 Y-0.701
X-1.075 Y-0.712
X-1.062 Y-0.727
X-1.048 Y-0.742
X-1.035 Y-0.756
X-1.021 Y-0.771
X-1.008 Y-0.784
X-0.994 Y-0.798
X-0.981 Y-0.81
X-0.967 Y-0.823
X-0.953 Y-0.834
X-0.939 Y-0.845
X-0.925 Y-0.856
X-0.91 Y-0.866
X-0.894 Y-0.875
X-0.878 Y-0.884
X-0.862 Y-0.893
X-0.845 Y-0.902
X-0.828 Y-0.91
X-0.81 Y-0.919
X-0.792 Y-0.927
X-0.774 Y-0.935
X-0.755 Y-0.943
X-0.736 Y-0.951
X-0.717 Y-0.959
X-0.691 Y-0.978
X-0.677 Y-1.007
X-0.679 Y-1.039
X-0.695 Y-1.067
X-0.722 Y-1.084
X-0.746 Y-1.092
X-0.77 Y-1.1
X-0.793 Y-1.108
X-0.816 Y-1.115
X-0.838 Y-1.124
X-0.861 Y-1.132
X-0.882 Y-1.141
X-0.903 Y-1.15
X-0.924 Y-1.16
X-0.944 Y-1.17
X-0.963 Y-1.18
X-0.982 Y-1.191
X-1 Y-1.203
X-1.017 Y-1.216
X-1.035 Y-1.229
X-1.052 Y-1.244
X-1.069 Y-1.259
X-1.086 Y-1.274
X-1.103 Y-1.291
X-1.12 Y-1.308
X-1.137 Y-1.325
X-1.153 Y-1.343
X-1.17 Y-1.361
X-1.183 Y-1.374
X-1.192 Y-1.39
X-1.205 Y-1.412
X-1.218 Y-1.433
X-1.23 Y-1.455
X-1.242 Y-1.476
X-1.253 Y-1.497
X-1.264 Y-1.519
X-1.274 Y-1.54
X-1.283 Y-1.561
X-1.292 Y-1.582
X-1.3 Y-1.603
X-1.306 Y-1.624
X-1.312 Y-1.645
X-1.317 Y-1.668
X-1.322 Y-1.69
X-1.326 Y-1.713
X-1.329 Y-1.736
X-1.332 Y-1.76
X-1.335 Y-1.784
X-1.337 Y-1.809
X-1.339 Y-1.833
X-1.34 Y-1.858
X-1.342 Y-1.884
X-1.343 Y-1.904
X-1.34 Y-1.936
X-1.337 Y-1.971
X-1.334 Y-2.007
X-1.33 Y-2.041
X-1.325 Y-2.076
X-1.32 Y-2.109
X-1.315 Y-2.142
X-1.308 Y-2.175
X-1.301 Y-2.206
X-1.292 Y-2.237
X-1.282 Y-2.267
X-1.271 Y-2.296
X-1.258 Y-2.325
X-1.244 Y-2.353
X-1.229 Y-2.381
X-1.212 Y-2.409
X-1.194 Y-2.436
X-1.174 Y-2.464
X-1.154 Y-2.491
X-1.133 Y-2.518
X-1.111 Y-2.545
X-1.088 Y-2.573
X-1.066 Y-2.6
X-1.047 Y-2.622
X-1.022 Y-2.641
X-0.992 Y-2.664
X-0.961 Y-2.687
X-0.931 Y-2.708
X-0.901 Y-2.73
X-0.87 Y-2.75
X-0.84 Y-2.769
X-0.809 Y-2.787
X-0.779 Y-2.804
X-0.748 Y-2.819
X-0.716 Y-2.833
X-0.685 Y-2.845
X-0.653 Y-2.856
X-0.619 Y-2.866
X-0.586 Y-2.874
X-0.551 Y-2.881
X-0.516 Y-2.887
X-0.48 Y-2.892
X-0.443 Y-2.897
X-0.406 Y-2.9
X-0.369 Y-2.904
X-0.357 Y-2.905
G0 Z5
X-0.257 Y-0.923
G1 Z-0.25 F1000
X-0.249
X-0.23 Y-0.922
X-0.229
X-0.21 Y-0.92
X-0.191 Y-0.919
X-0.19
X-0.171 Y-0.917
X-0.17
X-0.152 Y-0.915
X-0.15 Y-0.914
X-0.132 Y-0.912
X-0.13
X-0.112 Y-0.909
X-0.11
X-0.092 Y-0.905
X-0.09
X-0.072 Y-0.901
X-0.069 Y-0.9
X-0.052 Y-0.896
X-0.049 Y-0.895
X-0.032 Y-0.89
X-0.029 Y-0.889
X-0.012 Y-0.883
X-0.008 Y-0.882
X0.008 Y-0.875
X0.011 Y-0.874
X0.028 Y-0.866
X0.03 Y-0.865
X0.047 Y-0.856
X0.049 Y-0.855
X0.065 Y-0.846
X0.067 Y-0.845
X0.083 Y-0.835
X0.084 Y-0.834
X0.1 Y-0.824
X0.101 Y-0.823
X0.117 Y-0.813
X0.118 Y-0.812
X0.133 Y-0.801
X0.134 Y-0.8
X0.149 Y-0.789
X0.15 Y-0.788
X0.165 Y-0.777
X0.18 Y-0.765
X0.195 Y-0.753
X0.205 Y-0.743
X0.217 Y-0.73
Y-0.729
X0.229 Y-0.715
X0.24 Y-0.701
X0.241 Y-0.7
X0.252 Y-0.686
X0.253
X0.264 Y-0.671
Y-0.67
X0.275 Y-0.656
X0.276 Y-0.655
X0.286 Y-0.64
X0.287 Y-0.638
X0.297 Y-0.624
X0.298 Y-0.622
X0.307 Y-0.607
X0.309 Y-0.605
X0.317 Y-0.59
X0.318 Y-0.587
X0.326 Y-0.571
X0.328 Y-0.569
X0.335 Y-0.553
X0.336 Y-0.55
X0.342 Y-0.534
X0.343 Y-0.531
X0.349 Y-0.514
X0.35 Y-0.511
X0.354 Y-0.495
X0.355 Y-0.492
X0.359 Y-0.475
X0.36 Y-0.473
X0.363 Y-0.456
X0.364 Y-0.454
X0.367 Y-0.436
Y-0.435
X0.37 Y-0.417
Y-0.416
X0.372 Y-0.398
Y-0.397
X0.374 Y-0.379
Y-0.378
X0.376 Y-0.36
X0.378 Y-0.342
Y-0.341
X0.38 Y-0.323
Y-0.312
X0.378 Y-0.293
X0.376 Y-0.274
Y-0.273
X0.375 Y-0.255
X0.374 Y-0.254
X0.372 Y-0.235
Y-0.234
X0.37 Y-0.216
Y-0.215
X0.367 Y-0.196
Y-0.195
X0.364 Y-0.177
X0.363 Y-0.175
X0.36 Y-0.157
X0.359 Y-0.155
X0.355 Y-0.137
X0.354 Y-0.135
X0.349 Y-0.117
Y-0.114
X0.343 Y-0.097
X0.342 Y-0.094
X0.336 Y-0.078
X0.334 Y-0.074
X0.327 Y-0.058
X0.326 Y-0.055
X0.318 Y-0.039
X0.317 Y-0.036
X0.308 Y-0.021
X0.306 Y-0.018
X0.297 Y-0.003
X0.296 Y-0.001
X0.286 Y0.014
X0.285 Y0.016
X0.274 Y0.031
X0.273 Y0.032
X0.262 Y0.047
Y0.048
X0.25 Y0.063
Y0.064
X0.238 Y0.078
Y0.079
X0.226 Y0.094
X0.214 Y0.109
X0.213
X0.201 Y0.123
X0.192 Y0.133
X0.177 Y0.144
Y0.145
X0.162 Y0.157
X0.147 Y0.169
X0.146
X0.131 Y0.181
X0.13
X0.115 Y0.192
X0.114 Y0.193
X0.098 Y0.204
X0.097 Y0.205
X0.082 Y0.215
X0.08 Y0.217
X0.064 Y0.226
X0.062 Y0.228
X0.046 Y0.237
X0.044 Y0.238
X0.028 Y0.247
X0.025 Y0.248
X0.009 Y0.256
X0.006 Y0.257
X-0.011 Y0.264
X-0.014 Y0.266
X-0.031 Y0.272
X-0.034 Y0.273
X-0.051 Y0.278
X-0.054 Y0.279
X-0.072 Y0.284
X-0.074 Y0.285
X-0.092 Y0.289
X-0.094
X-0.113 Y0.293
X-0.114
X-0.133 Y0.296
X-0.134
X-0.153 Y0.299
X-0.154
X-0.173 Y0.301
X-0.174 Y0.302
X-0.193 Y0.304
X-0.194
X-0.213 Y0.305
X-0.232 Y0.307
X-0.251 Y0.309
X-0.262
X-0.281 Y0.307
X-0.3 Y0.306
X-0.301
X-0.32 Y0.304
X-0.339 Y0.302
X-0.34
X-0.359 Y0.3
X-0.36
X-0.379 Y0.297
X-0.38
X-0.399 Y0.294
X-0.401
X-0.419 Y0.29
X-0.421
X-0.439 Y0.286
X-0.441 Y0.285
X-0.459 Y0.281
X-0.462 Y0.28
X-0.479 Y0.275
X-0.482 Y0.274
X-0.499 Y0.268
X-0.503 Y0.267
X-0.519 Y0.26
X-0.522 Y0.259
X-0.539 Y0.251
X-0.542 Y0.25
X-0.558 Y0.241
X-0.56 Y0.24
X-0.576 Y0.231
X-0.578 Y0.23
X-0.594 Y0.22
X-0.595 Y0.219
X-0.611 Y0.209
X-0.612 Y0.208
X-0.628 Y0.197
X-0.629 Y0.196
X-0.644 Y0.185
X-0.645
X-0.66 Y0.173
X-0.661
X-0.676 Y0.161
X-0.691 Y0.15
X-0.692 Y0.149
X-0.707 Y0.138
X-0.716 Y0.129
X-0.728 Y0.115
X-0.74 Y0.101
X-0.752 Y0.087
X-0.763 Y0.073
X-0.764 Y0.072
X-0.775 Y0.058
X-0.776 Y0.057
X-0.787 Y0.043
X-0.788 Y0.042
X-0.798 Y0.027
X-0.799 Y0.026
X-0.809 Y0.011
X-0.81 Y0.01
X-0.819 Y-0.005
X-0.821 Y-0.007
X-0.829 Y-0.022
X-0.831 Y-0.025
X-0.839 Y-0.04
X-0.84 Y-0.043
X-0.847 Y-0.058
X-0.849 Y-0.061
X-0.855 Y-0.077
X-0.856 Y-0.08
X-0.862 Y-0.097
X-0.863 Y-0.099
X-0.868 Y-0.116
X-0.869 Y-0.118
X-0.873 Y-0.135
Y-0.137
X-0.877 Y-0.154
Y-0.156
X-0.881 Y-0.174
Y-0.175
X-0.884 Y-0.193
Y-0.194
X-0.887 Y-0.212
Y-0.213
X-0.889 Y-0.23
Y-0.231
X-0.891 Y-0.249
Y-0.25
X-0.893 Y-0.267
Y-0.268
X-0.895 Y-0.285
Y-0.297
X-0.894 Y-0.316
X-0.892 Y-0.335
Y-0.336
X-0.89 Y-0.355
Y-0.356
X-0.888 Y-0.374
Y-0.376
X-0.886 Y-0.394
Y-0.396
X-0.884 Y-0.414
X-0.883 Y-0.416
X-0.88 Y-0.434
Y-0.436
X-0.877 Y-0.454
X-0.876 Y-0.456
X-0.872 Y-0.474
Y-0.477
X-0.867 Y-0.494
X-0.866 Y-0.497
X-0.861 Y-0.515
X-0.86 Y-0.518
X-0.854 Y-0.535
X-0.853 Y-0.538
X-0.846 Y-0.555
X-0.844 Y-0.558
X-0.836 Y-0.574
X-0.835 Y-0.577
X-0.826 Y-0.593
X-0.825 Y-0.595
X-0.816 Y-0.611
X-0.815 Y-0.613
X-0.805 Y-0.629
X-0.804 Y-0.63
X-0.793 Y-0.646
X-0.792 Y-0.647
X-0.782 Y-0.662
X-0.781 Y-0.664
X-0.77 Y-0.679
X-0.769 Y-0.68
X-0.757 Y-0.695
X-0.745 Y-0.71
Y-0.711
X-0.733 Y-0.725
Y-0.726
X-0.721 Y-0.74
X-0.71 Y-0.751
X-0.695 Y-0.763
X-0.679 Y-0.775
X-0.664 Y-0.787
X-0.663
X-0.647 Y-0.799
Y-0.8
X-0.631 Y-0.811
X-0.63
X-0.614 Y-0.822
X-0.613 Y-0.823
X-0.597 Y-0.834
X-0.595 Y-0.835
X-0.579 Y-0.844
X-0.577 Y-0.846
X-0.561 Y-0.855
X-0.559 Y-0.856
X-0.542 Y-0.864
X-0.539 Y-0.866
X-0.523 Y-0.873
X-0.52 Y-0.875
X-0.502 Y-0.882
X-0.499 Y-0.883
X-0.482 Y-0.889
X-0.479 Y-0.89
X-0.461 Y-0.895
X-0.459 Y-0.896
X-0.44 Y-0.9
X-0.438 Y-0.901
X-0.42 Y-0.905
X-0.418
X-0.399 Y-0.909
X-0.397
X-0.379 Y-0.912
X-0.377
X-0.358 Y-0.914
X-0.357 Y-0.915
X-0.338 Y-0.917
X-0.337
X-0.318 Y-0.919
X-0.317
X-0.298 Y-0.92
X-0.297
X-0.278 Y-0.922
X-0.258 Y-0.923
X-0.257
G0 Z5
X1.258 Y-2.92
G1 Z-0.002 F1000
X1.327 Y-2.854 Z-0.25
Y-2.848
X1.328 Y-2.836
X1.329 Y-2.825
X1.33 Y-2.813
X1.331 Y-2.802
X1.332 Y-2.791
X1.334 Y-2.78
X1.336 Y-2.769
X1.338 Y-2.758
X1.341 Y-2.747
X1.344 Y-2.736
X1.347 Y-2.725
X1.35 Y-2.714
X1.353 Y-2.702
X1.357 Y-2.691
X1.36 Y-2.679
X1.364 Y-2.667
X1.368 Y-2.655
X1.371 Y-2.646
X1.379 Y-2.629
X1.388 Y-2.608
X1.397 Y-2.587
X1.407 Y-2.567
X1.416 Y-2.547
X1.425 Y-2.527
X1.435 Y-2.507
X1.445 Y-2.487
X1.455 Y-2.468
X1.465 Y-2.449
X1.476 Y-2.431
X1.487 Y-2.413
X1.498 Y-2.395
X1.51 Y-2.377
X1.522 Y-2.359
X1.535 Y-2.341
X1.548 Y-2.323
X1.561 Y-2.305
X1.574 Y-2.288
X1.588 Y-2.27
X1.602 Y-2.252
X1.616 Y-2.235
X1.63 Y-2.217
X1.643 Y-2.201
X1.663 Y-2.179
X1.685 Y-2.156
X1.707 Y-2.132
X1.729 Y-2.109
X1.75 Y-2.086
X1.773 Y-2.063
X1.795 Y-2.04
X1.817 Y-2.017
X1.839 Y-1.995
X1.862 Y-1.973
X1.884 Y-1.951
X1.907 Y-1.929
X1.931 Y-1.908
X1.954 Y-1.887
X1.978 Y-1.866
X2.001 Y-1.845
X2.025 Y-1.824
X2.05 Y-1.803
X2.074 Y-1.782
X2.099 Y-1.762
X2.123 Y-1.741
X2.148 Y-1.721
X2.173 Y-1.7
X2.197 Y-1.68
X2.232 Y-1.651
X2.266 Y-1.623
X2.301 Y-1.594
X2.336 Y-1.566
X2.37 Y-1.537
X2.405 Y-1.508
X2.439 Y-1.479
Y-1.478
X2.473 Y-1.449
X2.507 Y-1.419
X2.541 Y-1.389
X2.574 Y-1.359
Y-1.358
X2.607 Y-1.328
X2.608 Y-1.327
X2.64 Y-1.296
X2.641
X2.672 Y-1.265
X2.673 Y-1.264
X2.704 Y-1.232
X2.705
X2.736 Y-1.2
X2.737 Y-1.199
X2.767 Y-1.167
X2.768 Y-1.166
X2.798 Y-1.133
X2.828 Y-1.1
X2.829
X2.859 Y-1.066
X2.888 Y-1.033
X2.889
X2.918 Y-0.999
X2.948 Y-0.965
X2.977 Y-0.931
X2.982 Y-0.925
X2.995 Y-0.906
Y-0.905
X3.009 Y-0.886
Y-0.885
X3.022 Y-0.866
X3.023 Y-0.865
X3.036 Y-0.845
X3.049 Y-0.825
Y-0.824
X3.062 Y-0.804
Y-0.803
X3.074 Y-0.783
X3.075 Y-0.782
X3.087 Y-0.761
Y-0.76
X3.098 Y-0.739
X3.099 Y-0.738
X3.11 Y-0.717
X3.111 Y-0.715
X3.12 Y-0.694
X3.121 Y-0.692
X3.13 Y-0.671
X3.131 Y-0.668
X3.139 Y-0.647
X3.14 Y-0.644
X3.148 Y-0.622
Y-0.62
X3.155 Y-0.598
X3.156 Y-0.596
X3.162 Y-0.573
Y-0.572
X3.167 Y-0.549
X3.168 Y-0.547
X3.172 Y-0.524
X3.173 Y-0.523
X3.177 Y-0.5
Y-0.499
X3.181 Y-0.475
Y-0.474
X3.185 Y-0.451
Y-0.45
X3.188 Y-0.427
X3.191 Y-0.403
X3.194 Y-0.379
Y-0.365
X3.193 Y-0.344
X3.191 Y-0.324
Y-0.323
X3.188 Y-0.303
Y-0.302
X3.186 Y-0.282
Y-0.281
X3.183 Y-0.261
Y-0.259
X3.18 Y-0.239
Y-0.238
X3.176 Y-0.218
Y-0.216
X3.172 Y-0.197
X3.171 Y-0.194
X3.166 Y-0.175
Y-0.173
X3.16 Y-0.154
X3.159 Y-0.151
X3.153 Y-0.133
X3.152 Y-0.129
X3.145 Y-0.111
X3.144 Y-0.108
X3.136 Y-0.09
X3.134 Y-0.087
X3.125 Y-0.07
X3.124 Y-0.067
X3.114 Y-0.05
X3.113 Y-0.048
X3.102 Y-0.031
X3.101 Y-0.029
X3.09 Y-0.013
X3.089 Y-0.011
X3.077 Y0.005
X3.076 Y0.006
X3.064 Y0.022
X3.063 Y0.024
X3.051 Y0.039
X3.05 Y0.04
X3.037 Y0.056
Y0.057
X3.024 Y0.072
X3.023 Y0.073
X3.01 Y0.088
X2.996 Y0.104
X2.986 Y0.114
X2.969 Y0.127
X2.968
X2.951 Y0.141
X2.95
X2.933 Y0.154
X2.932
X2.914 Y0.167
X2.913 Y0.168
X2.896 Y0.18
X2.894 Y0.181
X2.876 Y0.193
X2.875 Y0.194
X2.857 Y0.206
X2.855 Y0.207
X2.837 Y0.218
X2.835 Y0.219
X2.816 Y0.229
X2.814 Y0.23
X2.794 Y0.24
X2.792 Y0.241
X2.773 Y0.249
X2.77 Y0.251
X2.75 Y0.258
X2.747 Y0.259
X2.727 Y0.266
X2.724 Y0.267
X2.704 Y0.273
X2.701 Y0.274
X2.68 Y0.279
X2.678
X2.657 Y0.283
X2.655 Y0.284
X2.634 Y0.288
X2.632
X2.611 Y0.291
X2.609
X2.587 Y0.294
X2.586
X2.564 Y0.296
X2.563
X2.542 Y0.298
X2.541
X2.519 Y0.3
X2.518
X2.496 Y0.302
X2.474 Y0.303
X2.465
X2.442 Y0.302
X2.419 Y0.3
X2.418
X2.395 Y0.298
X2.372 Y0.296
X2.371
X2.348 Y0.294
X2.347
X2.324 Y0.291
X2.322
X2.3 Y0.288
X2.298 Y0.287
X2.276 Y0.284
X2.274 Y0.283
X2.252 Y0.279
X2.25 Y0.278
X2.228 Y0.273
X2.225 Y0.272
X2.204 Y0.266
X2.201 Y0.265
X2.18 Y0.258
X2.177 Y0.257
X2.157 Y0.249
X2.153 Y0.248
X2.133 Y0.238
X2.131 Y0.237
X2.111 Y0.227
X2.108 Y0.226
X2.089 Y0.215
X2.087 Y0.214
X2.068 Y0.202
X2.066 Y0.201
X2.047 Y0.189
X2.046 Y0.188
X2.027 Y0.175
X2.026 Y0.174
X2.007 Y0.161
X2.006 Y0.16
X1.988 Y0.147
X1.987 Y0.146
X1.969 Y0.132
X1.968
X1.95 Y0.118
X1.932 Y0.104
X1.92 Y0.092
X1.905 Y0.073
Y0.072
X1.89 Y0.053
X1.876 Y0.034
X1.875 Y0.033
X1.861 Y0.014
Y0.013
X1.847 Y-0.006
X1.846 Y-0.007
X1.833 Y-0.027
X1.832 Y-0.028
X1.82 Y-0.048
X1.819 Y-0.05
X1.807 Y-0.07
X1.806 Y-0.072
X1.795 Y-0.092
X1.794 Y-0.095
X1.783 Y-0.115
X1.782 Y-0.118
X1.773 Y-0.139
X1.772 Y-0.142
X1.764 Y-0.163
X1.763 Y-0.166
X1.755 Y-0.188
Y-0.191
X1.748 Y-0.213
Y-0.215
X1.742 Y-0.238
Y-0.24
X1.737 Y-0.263
Y-0.265
X1.733 Y-0.288
Y-0.29
X1.729 Y-0.313
Y-0.314
X1.726 Y-0.338
Y-0.339
X1.724 Y-0.363
Y-0.364
X1.722 Y-0.387
Y-0.388
X1.721 Y-0.391
X1.783 Y-0.464 Z-0.002
X1.721 Y-0.391 Z-0.25
X1.418 Y-0.359
X1.342 Y-0.419 Z-0.001
X1.418 Y-0.359 Z-0.25
X1.419 Y-0.358
X1.424 Y-0.323
X1.43 Y-0.289
X1.436 Y-0.255
X1.443 Y-0.221
X1.45 Y-0.188
X1.459 Y-0.156
X1.468 Y-0.125
X1.478 Y-0.094
X1.488 Y-0.064
X1.501 Y-0.035
X1.514 Y-0.006
X1.529 Y0.021
X1.545 Y0.049
X1.562 Y0.076
X1.581 Y0.103
X1.6 Y0.13
X1.621 Y0.156
X1.643 Y0.183
X1.665 Y0.21
X1.688 Y0.236
X1.711 Y0.263
X1.729 Y0.283
X1.751 Y0.298
X1.781 Y0.318
X1.811 Y0.338
X1.84 Y0.356
X1.87 Y0.375
X1.899 Y0.392
X1.928 Y0.408
X1.958 Y0.424
X1.987 Y0.438
X2.017 Y0.451
X2.047 Y0.462
X2.077 Y0.473
X2.108 Y0.481
X2.139 Y0.489
X2.171 Y0.496
X2.204 Y0.502
X2.237 Y0.507
X2.271 Y0.511
X2.306 Y0.514
X2.34 Y0.517
X2.375 Y0.519
X2.411 Y0.522
X2.447 Y0.523
X2.479 Y0.525
X2.512 Y0.523
X2.549 Y0.521
X2.585 Y0.519
X2.62 Y0.516
X2.655 Y0.513
X2.69 Y0.509
X2.724 Y0.504
X2.758 Y0.499
X2.791 Y0.492
X2.823 Y0.485
X2.854 Y0.477
X2.885 Y0.467
X2.915 Y0.456
X2.945 Y0.443
X2.974 Y0.43
X3.004 Y0.414
X3.033 Y0.398
X3.062 Y0.38
X3.091 Y0.361
X3.12 Y0.342
X3.149 Y0.322
X3.178 Y0.301
X3.208 Y0.279
X3.231 Y0.262
X3.247 Y0.243
X3.268 Y0.219
X3.289 Y0.194
X3.309 Y0.17
X3.328 Y0.145
X3.347 Y0.121
X3.365 Y0.096
X3.381 Y0.071
X3.397 Y0.047
X3.411 Y0.022
X3.424 Y-0.004
X3.435 Y-0.029
X3.446 Y-0.055
X3.455 Y-0.082
X3.463 Y-0.11
X3.47 Y-0.138
X3.476 Y-0.167
X3.481 Y-0.197
X3.486 Y-0.227
X3.49 Y-0.258
X3.493 Y-0.29
X3.497 Y-0.322
X3.5 Y-0.354
X3.502 Y-0.382
Y-0.395
X3.501 Y-0.412
X3.5 Y-0.43
X3.498 Y-0.447
X3.497 Y-0.464
X3.496 Y-0.481
X3.494 Y-0.498
X3.492 Y-0.514
X3.49 Y-0.53
X3.487 Y-0.546
X3.485 Y-0.562
X3.482 Y-0.578
X3.478 Y-0.593
X3.474 Y-0.609
X3.47 Y-0.625
X3.465 Y-0.641
X3.461 Y-0.656
X3.455 Y-0.672
X3.45 Y-0.688
X3.444 Y-0.705
X3.438 Y-0.721
X3.433 Y-0.737
X3.426 Y-0.754
X3.422 Y-0.767
X3.414 Y-0.783
X3.404 Y-0.802
X3.394 Y-0.821
X3.385 Y-0.84
X3.375 Y-0.858
X3.365 Y-0.876
X3.355 Y-0.895
X3.345 Y-0.912
X3.334 Y-0.93
X3.324 Y-0.947
X3.313 Y-0.964
X3.302 Y-0.981
X3.29 Y-0.998
X3.279 Y-1.014
X3.266 Y-1.031
X3.254 Y-1.047
X3.241 Y-1.063
X3.228 Y-1.08
X3.215 Y-1.096
X3.202 Y-1.112
X3.188 Y-1.128
X3.174 Y-1.145
X3.16 Y-1.161
X3.148 Y-1.176
X3.123 Y-1.201
X3.097 Y-1.228
X3.07 Y-1.255
X3.044 Y-1.282
X3.018 Y-1.308
X2.991 Y-1.335
X2.965 Y-1.361
X2.938 Y-1.387
X2.911 Y-1.413
X2.885 Y-1.439
X2.858 Y-1.464
X2.83 Y-1.49
X2.803 Y-1.515
X2.775 Y-1.54
X2.747 Y-1.565
X2.719 Y-1.589
X2.691 Y-1.614
X2.663 Y-1.638
X2.634 Y-1.663
X2.606 Y-1.687
X2.577 Y-1.712
X2.548 Y-1.736
X2.52 Y-1.76
X2.491 Y-1.785
X2.47 Y-1.802
X2.449 Y-1.82
X2.427 Y-1.838
X2.406 Y-1.855
X2.385 Y-1.873
X2.363 Y-1.891
X2.342 Y-1.909
X2.321 Y-1.927
X2.3 Y-1.945
X2.279 Y-1.963
Y-1.964
X2.258 Y-1.982
X2.257
X2.237 Y-2
X2.236
X2.216 Y-2.019
X2.215
X2.195 Y-2.037
X2.194
X2.174 Y-2.056
X2.153 Y-2.075
X2.133 Y-2.094
X2.132
X2.112 Y-2.113
X2.092 Y-2.132
X2.071 Y-2.151
X2.051 Y-2.17
X2.031 Y-2.189
X2.011 Y-2.208
X1.991 Y-2.227
X1.987 Y-2.231
X1.979 Y-2.24
X1.971 Y-2.249
X1.962 Y-2.258
X1.954 Y-2.267
Y-2.268
X1.946 Y-2.277
X1.945
X1.937 Y-2.286
Y-2.287
X1.929 Y-2.296
X1.928
X1.92 Y-2.306
X1.912 Y-2.315
Y-2.316
X1.904 Y-2.325
X1.903 Y-2.326
X1.896 Y-2.336
X1.895
X1.887 Y-2.346
X1.879 Y-2.356
Y-2.357
X1.872 Y-2.367
X1.871
X1.864 Y-2.377
X1.863 Y-2.378
X1.856 Y-2.388
X1.849 Y-2.398
X1.848 Y-2.399
X1.841 Y-2.409
X1.834 Y-2.419
Y-2.42
X1.827 Y-2.43
X1.82 Y-2.44
X1.813 Y-2.451
X1.806 Y-2.461
X1.799 Y-2.471
X1.789 Y-2.498
X1.791 Y-2.527
X1.804 Y-2.552
X1.827 Y-2.569
X1.855 Y-2.575
X3.505 Y-2.577
X3.571 Y-2.511 Z-0.001
X3.505 Y-2.577 Z-0.25
X3.504 Y-2.856
X3.571 Y-2.923 Z-0.001
X3.504 Y-2.856 Z-0.25
X1.327 Y-2.854
G0 Z5
X4.098 Y-2.115
G1 Z-0.001 F1000
X4.177 Y-2.175 Z-0.25
X4.457 Y-2.149
X4.51 Y-2.077 Z-0.001
X4.457 Y-2.149 Z-0.25
X4.458 Y-2.15
Y-2.151
X4.462 Y-2.17
Y-2.171
X4.467 Y-2.191
Y-2.192
X4.472 Y-2.211
X4.473 Y-2.212
X4.478 Y-2.231
Y-2.233
X4.484 Y-2.252
Y-2.253
X4.49 Y-2.272
X4.491 Y-2.274
X4.498 Y-2.292
Y-2.294
X4.506 Y-2.312
Y-2.314
X4.514 Y-2.332
X4.515 Y-2.335
X4.524 Y-2.352
X4.525 Y-2.355
X4.534 Y-2.372
X4.535 Y-2.374
X4.545 Y-2.391
X4.546 Y-2.393
X4.557 Y-2.41
X4.558 Y-2.411
X4.569 Y-2.428
X4.57 Y-2.429
X4.581 Y-2.445
X4.582 Y-2.446
X4.594 Y-2.462
X4.595 Y-2.463
X4.607 Y-2.479
Y-2.48
X4.62 Y-2.495
Y-2.496
X4.633 Y-2.511
Y-2.512
X4.646 Y-2.527
X4.659 Y-2.543
X4.672 Y-2.555
X4.686 Y-2.565
X4.701 Y-2.575
X4.715 Y-2.585
X4.716
X4.73 Y-2.595
X4.731
X4.746 Y-2.605
X4.747
X4.761 Y-2.614
X4.763 Y-2.615
X4.777 Y-2.624
X4.779 Y-2.625
X4.794 Y-2.633
X4.796 Y-2.634
X4.811 Y-2.642
X4.813 Y-2.643
X4.828 Y-2.65
X4.831 Y-2.651
X4.846 Y-2.657
X4.849 Y-2.659
X4.865 Y-2.664
X4.868 Y-2.665
X4.883 Y-2.67
X4.886 Y-2.671
X4.902 Y-2.675
X4.905 Y-2.676
X4.921 Y-2.68
X4.923
X4.94 Y-2.683
X4.942 Y-2.684
X4.959 Y-2.687
X4.96
X4.977 Y-2.689
X4.979
X4.996 Y-2.691
X4.997
X5.014 Y-2.693
X5.015
X5.032 Y-2.695
X5.033
X5.05 Y-2.696
X5.051
X5.068 Y-2.697
X5.086 Y-2.698
X5.093
X5.109
X5.124 Y-2.697
X5.125
X5.14 Y-2.696
X5.155 Y-2.695
X5.156
X5.171 Y-2.694
X5.172
X5.187 Y-2.692
X5.188
X5.204 Y-2.69
X5.205
X5.22 Y-2.688
X5.221
X5.236 Y-2.686
X5.238
X5.253 Y-2.683
X5.254
X5.269 Y-2.68
X5.271 Y-2.679
X5.286 Y-2.676
X5.288 Y-2.675
X5.302 Y-2.671
X5.304
X5.319 Y-2.666
X5.321
X5.335 Y-2.661
X5.337 Y-2.66
X5.351 Y-2.655
X5.352 Y-2.654
X5.366 Y-2.649
X5.367 Y-2.648
X5.381 Y-2.642
X5.382
X5.396 Y-2.636
X5.397 Y-2.635
X5.411 Y-2.629
X5.412 Y-2.628
X5.425 Y-2.622
X5.426
X5.44 Y-2.615
X5.454 Y-2.608
X5.467 Y-2.601
X5.476 Y-2.596
X5.488 Y-2.588
X5.5 Y-2.58
Y-2.579
X5.512 Y-2.571
X5.524 Y-2.562
X5.525
X5.536 Y-2.553
X5.537
X5.549 Y-2.544
X5.561 Y-2.535
X5.562 Y-2.534
X5.573 Y-2.525
X5.574 Y-2.524
X5.585 Y-2.515
X5.586 Y-2.514
X5.597 Y-2.505
X5.598 Y-2.504
X5.609 Y-2.494
X5.61 Y-2.493
X5.621 Y-2.483
X5.622 Y-2.482
X5.632 Y-2.471
X5.633 Y-2.47
X5.643 Y-2.459
X5.644 Y-2.458
X5.654 Y-2.448
X5.655 Y-2.446
X5.664 Y-2.435
X5.665 Y-2.434
X5.674 Y-2.423
X5.675 Y-2.422
X5.684 Y-2.411
Y-2.41
X5.693 Y-2.399
X5.694 Y-2.398
X5.702 Y-2.386
X5.703
X5.711 Y-2.374
X5.72 Y-2.362
X5.729 Y-2.35
X5.737 Y-2.338
X5.742 Y-2.331
X5.75 Y-2.315
X5.759 Y-2.298
X5.768 Y-2.282
Y-2.281
X5.776 Y-2.265
X5.777
X5.785 Y-2.248
X5.794 Y-2.231
X5.802 Y-2.214
X5.81 Y-2.197
X5.811 Y-2.196
X5.818 Y-2.179
X5.819 Y-2.178
X5.826 Y-2.162
X5.827 Y-2.161
X5.834 Y-2.144
Y-2.142
X5.841 Y-2.125
Y-2.124
X5.848 Y-2.107
Y-2.106
X5.854 Y-2.089
Y-2.088
X5.86 Y-2.071
X5.861 Y-2.07
X5.866 Y-2.052
X5.867
X5.872 Y-2.034
Y-2.033
X5.878 Y-2.016
Y-2.015
X5.883 Y-1.998
Y-1.997
X5.888 Y-1.979
X5.893 Y-1.961
X5.898 Y-1.943
X5.903 Y-1.925
X5.908 Y-1.907
Y-1.904
X5.913 Y-1.882
X5.918 Y-1.861
X5.923 Y-1.839
X5.927 Y-1.817
X5.932 Y-1.795
X5.936 Y-1.773
X5.94 Y-1.751
Y-1.75
X5.944 Y-1.728
X5.948 Y-1.706
Y-1.705
X5.952 Y-1.683
X5.955 Y-1.661
Y-1.66
X5.958 Y-1.638
Y-1.637
X5.961 Y-1.615
Y-1.614
X5.963 Y-1.592
Y-1.591
X5.965 Y-1.569
X5.967 Y-1.547
Y-1.546
X5.968 Y-1.524
Y-1.523
X5.97 Y-1.501
X5.971 Y-1.479
Y-1.478
X5.972 Y-1.456
X5.973 Y-1.434
Y-1.433
X5.974 Y-1.411
Y-1.389
X5.975 Y-1.367
Y-1.364
Y-1.357
Y-1.353
Y-1.346
Y-1.342
Y-1.339
Y-1.335
Y-1.331
X5.974 Y-1.327
Y-1.324
Y-1.323
Y-1.32
Y-1.316
Y-1.313
Y-1.312
Y-1.302
Y-1.301
X5.973 Y-1.298
Y-1.294
Y-1.276
X5.966 Y-1.25
X5.949 Y-1.228
X5.925 Y-1.215
X5.898 Y-1.212
X5.872 Y-1.221
X5.852 Y-1.239
X5.839 Y-1.256
X5.828 Y-1.272
X5.816 Y-1.288
X5.804 Y-1.304
X5.792 Y-1.32
X5.78 Y-1.335
X5.768 Y-1.35
X5.755 Y-1.365
X5.743 Y-1.379
X5.73 Y-1.392
X5.717 Y-1.406
X5.704 Y-1.418
X5.691 Y-1.431
X5.677 Y-1.443
X5.663 Y-1.454
X5.648 Y-1.466
X5.632 Y-1.477
X5.617 Y-1.489
X5.601 Y-1.5
X5.585 Y-1.511
X5.568 Y-1.522
X5.551 Y-1.533
X5.534 Y-1.544
X5.52 Y-1.553
X5.505 Y-1.56
X5.486 Y-1.57
X5.467 Y-1.579
X5.449 Y-1.587
X5.43 Y-1.596
X5.412 Y-1.604
X5.393 Y-1.611
X5.375 Y-1.619
X5.357 Y-1.625
X5.339 Y-1.632
X5.321 Y-1.637
X5.303 Y-1.642
X5.285 Y-1.647
X5.266 Y-1.651
X5.247 Y-1.654
X5.228 Y-1.657
X5.209 Y-1.66
X5.189 Y-1.662
X5.169 Y-1.664
X5.149 Y-1.666
X5.128 Y-1.668
X5.108 Y-1.669
X5.087 Y-1.67
X5.071 Y-1.671
X5.041 Y-1.669
X5.007 Y-1.665
X4.973 Y-1.661
X4.939 Y-1.657
X4.906 Y-1.653
X4.874 Y-1.648
X4.842 Y-1.642
X4.811 Y-1.635
X4.781 Y-1.627
X4.751 Y-1.619
X4.723 Y-1.609
X4.695 Y-1.598
X4.668 Y-1.585
X4.641 Y-1.571
X4.614 Y-1.556
X4.588 Y-1.539
X4.561 Y-1.521
X4.535 Y-1.502
X4.509 Y-1.482
X4.483 Y-1.461
X4.457 Y-1.44
X4.431 Y-1.417
X4.405 Y-1.395
X4.384 Y-1.377
X4.365 Y-1.352
X4.343 Y-1.321
X4.321 Y-1.291
X4.299 Y-1.261
X4.279 Y-1.23
X4.259 Y-1.2
X4.24 Y-1.17
X4.222 Y-1.139
X4.206 Y-1.109
X4.191 Y-1.078
X4.177 Y-1.047
X4.166 Y-1.015
X4.155 Y-0.983
X4.146 Y-0.95
X4.138 Y-0.917
X4.131 Y-0.882
X4.125 Y-0.847
X4.12 Y-0.811
X4.116 Y-0.775
X4.112 Y-0.738
X4.109 Y-0.701
X4.106 Y-0.664
X4.104 Y-0.626
X4.102 Y-0.592
X4.104 Y-0.556
X4.107 Y-0.517
X4.11 Y-0.478
X4.113 Y-0.44
X4.117 Y-0.402
X4.122 Y-0.364
X4.127 Y-0.327
X4.133 Y-0.291
X4.14 Y-0.255
X4.149 Y-0.22
X4.159 Y-0.186
X4.17 Y-0.153
X4.182 Y-0.121
X4.196 Y-0.089
X4.212 Y-0.057
X4.229 Y-0.025
X4.248 Y0.006
X4.267 Y0.037
X4.288 Y0.068
X4.31 Y0.1
X4.332 Y0.131
X4.356 Y0.162
X4.379 Y0.193
X4.399 Y0.219
X4.421 Y0.238
X4.449 Y0.261
X4.477 Y0.284
X4.506 Y0.307
X4.534 Y0.329
X4.562 Y0.349
X4.59 Y0.369
X4.618 Y0.388
X4.647 Y0.405
X4.676 Y0.421
X4.705 Y0.436
X4.734 Y0.448
X4.764 Y0.46
X4.795 Y0.47
X4.827 Y0.479
X4.859 Y0.487
X4.893 Y0.493
X4.927 Y0.499
X4.961 Y0.504
X4.997 Y0.509
X5.033 Y0.512
X5.069 Y0.516
X5.105 Y0.519
X5.137 Y0.522
X5.16 Y0.52
X5.187 Y0.518
X5.214 Y0.516
X5.241 Y0.514
X5.268 Y0.511
X5.294 Y0.508
X5.32 Y0.505
X5.345 Y0.501
X5.371 Y0.496
X5.395 Y0.491
X5.42 Y0.485
X5.443 Y0.479
X5.467 Y0.471
X5.491 Y0.463
X5.514 Y0.454
X5.538 Y0.444
X5.561 Y0.433
X5.585 Y0.422
X5.609 Y0.41
X5.632 Y0.398
X5.656 Y0.386
X5.68 Y0.373
X5.704 Y0.359
X5.724 Y0.348
X5.742 Y0.334
X5.765 Y0.316
X5.787 Y0.299
X5.809 Y0.281
X5.83 Y0.263
X5.851 Y0.245
X5.872 Y0.227
X5.891 Y0.209
X5.91 Y0.19
X5.929 Y0.172
X5.946 Y0.152
X5.963 Y0.133
X5.979 Y0.112
X5.994 Y0.091
X6.009 Y0.069
X6.024 Y0.047
X6.038 Y0.024
X6.051 Y0
X6.065 Y-0.024
X6.078 Y-0.048
X6.091 Y-0.073
X6.104 Y-0.099
X6.117 Y-0.124
X6.128 Y-0.145
X6.138 Y-0.18
X6.15 Y-0.219
X6.162 Y-0.259
X6.174 Y-0.299
X6.185 Y-0.338
X6.196 Y-0.378
X6.206 Y-0.417
X6.215 Y-0.456
X6.224 Y-0.496
X6.231 Y-0.535
X6.238 Y-0.574
X6.244 Y-0.614
X6.249 Y-0.654
X6.253 Y-0.694
X6.257 Y-0.734
X6.26 Y-0.775
X6.262 Y-0.815
X6.264 Y-0.856
X6.265 Y-0.897
X6.266 Y-0.939
X6.267 Y-0.98
X6.268 Y-1.022
Y-1.064
X6.269 Y-1.105
X6.268 Y-1.149
X6.267 Y-1.194
X6.266 Y-1.239
X6.265 Y-1.284
X6.264 Y-1.329
X6.262 Y-1.374
X6.26 Y-1.418
X6.258 Y-1.462
X6.254 Y-1.506
X6.251 Y-1.55
X6.246 Y-1.594
X6.241 Y-1.637
X6.235 Y-1.68
X6.228 Y-1.723
X6.22 Y-1.766
X6.212 Y-1.809
X6.202 Y-1.852
X6.193 Y-1.895
X6.182 Y-1.939
X6.171 Y-1.982
X6.16 Y-2.025
X6.148 Y-2.068
X6.136 Y-2.112
X6.125 Y-2.151
X6.115 Y-2.176
X6.102 Y-2.205
X6.09 Y-2.234
X6.077 Y-2.262
X6.064 Y-2.29
X6.051 Y-2.318
X6.038 Y-2.345
X6.024 Y-2.371
X6.009 Y-2.397
X5.995 Y-2.422
X5.979 Y-2.446
X5.963 Y-2.47
X5.946 Y-2.493
X5.928 Y-2.516
X5.909 Y-2.538
X5.89 Y-2.56
X5.869 Y-2.581
X5.848 Y-2.602
X5.826 Y-2.623
X5.804 Y-2.644
X5.781 Y-2.665
X5.758 Y-2.686
X5.734 Y-2.707
X5.715 Y-2.723
X5.695 Y-2.736
X5.669 Y-2.751
X5.643 Y-2.766
X5.618 Y-2.78
X5.592 Y-2.794
X5.567 Y-2.808
X5.542 Y-2.821
X5.516 Y-2.833
X5.491 Y-2.844
X5.466 Y-2.854
X5.44 Y-2.863
X5.415 Y-2.872
X5.389 Y-2.879
X5.363 Y-2.885
X5.336 Y-2.891
X5.308 Y-2.896
X5.281 Y-2.9
X5.252 Y-2.904
X5.224 Y-2.907
X5.195 Y-2.91
X5.165 Y-2.912
X5.136 Y-2.914
X5.106 Y-2.916
X5.08 Y-2.918
X5.054 Y-2.916
X5.023 Y-2.914
X4.993 Y-2.912
X4.964 Y-2.91
X4.935 Y-2.907
X4.906 Y-2.904
X4.877 Y-2.9
X4.85 Y-2.895
X4.822 Y-2.89
X4.796 Y-2.884
X4.77 Y-2.877
X4.744 Y-2.869
X4.719 Y-2.86
X4.694 Y-2.85
X4.67 Y-2.839
X4.645 Y-2.827
X4.621 Y-2.813
X4.596 Y-2.799
X4.572 Y-2.784
X4.547 Y-2.769
X4.522 Y-2.752
X4.498 Y-2.736
X4.473 Y-2.718
X4.454 Y-2.705
X4.439 Y-2.688
X4.418 Y-2.666
X4.399 Y-2.643
X4.379 Y-2.621
X4.36 Y-2.598
X4.342 Y-2.575
X4.325 Y-2.553
X4.309 Y-2.53
X4.293 Y-2.507
X4.279 Y-2.484
X4.266 Y-2.46
X4.254 Y-2.436
X4.243 Y-2.412
X4.233 Y-2.387
X4.224 Y-2.361
X4.215 Y-2.334
X4.207 Y-2.307
X4.2 Y-2.279
X4.193 Y-2.251
X4.186 Y-2.222
X4.18 Y-2.192
X4.177 Y-2.175
G0 Z5
X4.768 Y-1.307
G1 Z-0.25 F1000
X4.766 Y-1.306
X4.748 Y-1.293
X4.746 Y-1.292
X4.728 Y-1.278
X4.727 Y-1.277
X4.708 Y-1.263
X4.707 Y-1.262
X4.689 Y-1.247
X4.671 Y-1.232
X4.67 Y-1.231
X4.652 Y-1.216
X4.634 Y-1.201
X4.624 Y-1.19
X4.609 Y-1.17
X4.594 Y-1.15
X4.593 Y-1.149
X4.578 Y-1.129
X4.563 Y-1.108
X4.548 Y-1.087
Y-1.086
X4.534 Y-1.065
X4.533 Y-1.064
X4.52 Y-1.043
X4.519 Y-1.041
X4.506 Y-1.02
X4.505 Y-1.018
X4.493 Y-0.997
X4.492 Y-0.995
X4.481 Y-0.973
X4.48 Y-0.97
X4.47 Y-0.948
X4.469 Y-0.945
X4.46 Y-0.923
X4.459 Y-0.92
X4.451 Y-0.897
X4.45 Y-0.894
X4.444 Y-0.871
X4.443 Y-0.868
X4.437 Y-0.845
Y-0.842
X4.432 Y-0.818
X4.431 Y-0.816
X4.427 Y-0.792
Y-0.79
X4.423 Y-0.766
Y-0.764
X4.42 Y-0.74
Y-0.738
X4.417 Y-0.714
Y-0.713
X4.415 Y-0.688
Y-0.687
X4.413 Y-0.662
Y-0.661
X4.411 Y-0.636
X4.41 Y-0.611
Y-0.602
X4.411 Y-0.574
X4.413 Y-0.546
X4.415 Y-0.518
Y-0.517
X4.418 Y-0.49
Y-0.489
X4.42 Y-0.461
X4.421 Y-0.46
X4.424 Y-0.433
Y-0.431
X4.428 Y-0.404
Y-0.402
X4.432 Y-0.376
X4.433 Y-0.374
X4.438 Y-0.347
X4.439 Y-0.345
X4.445 Y-0.319
Y-0.316
X4.452 Y-0.29
X4.453 Y-0.287
X4.461 Y-0.262
X4.462 Y-0.259
X4.471 Y-0.234
X4.473 Y-0.231
X4.483 Y-0.206
X4.484 Y-0.204
X4.496 Y-0.179
X4.497 Y-0.177
X4.509 Y-0.153
X4.51 Y-0.151
X4.523 Y-0.128
X4.524 Y-0.126
X4.538 Y-0.103
X4.539 Y-0.101
X4.554 Y-0.078
X4.555 Y-0.077
X4.57 Y-0.054
Y-0.053
X4.586 Y-0.03
X4.602 Y-0.007
X4.603 Y-0.006
X4.619 Y0.016
X4.635 Y0.039
X4.644 Y0.049
X4.661 Y0.065
X4.662 Y0.066
X4.679 Y0.082
X4.68
X4.697 Y0.099
X4.698
X4.716 Y0.115
X4.717 Y0.116
X4.735 Y0.132
X4.736
X4.754 Y0.148
X4.756 Y0.149
X4.774 Y0.163
X4.776 Y0.164
X4.795 Y0.178
X4.797 Y0.18
X4.816 Y0.193
X4.818 Y0.194
X4.838 Y0.207
X4.84 Y0.208
X4.86 Y0.22
X4.863 Y0.221
X4.883 Y0.232
X4.887 Y0.233
X4.908 Y0.242
X4.911 Y0.244
X4.932 Y0.252
X4.935 Y0.253
X4.957 Y0.26
X4.96 Y0.261
X4.982 Y0.267
X4.985 Y0.268
X5.008 Y0.274
X5.01
X5.033 Y0.279
X5.034
X5.058 Y0.283
X5.059 Y0.284
X5.083 Y0.287
X5.084 Y0.288
X5.108 Y0.291
X5.132 Y0.294
X5.133
X5.157 Y0.297
X5.181 Y0.3
X5.196
X5.219 Y0.297
X5.242 Y0.295
X5.265 Y0.292
X5.266
X5.288 Y0.289
X5.289
X5.312 Y0.285
X5.313
X5.335 Y0.281
X5.337
X5.359 Y0.276
X5.361
X5.383 Y0.271
X5.385 Y0.27
X5.406 Y0.264
X5.409
X5.43 Y0.257
X5.433 Y0.256
X5.453 Y0.248
X5.456 Y0.247
X5.476 Y0.238
X5.479 Y0.237
X5.499 Y0.227
X5.502 Y0.226
X5.521 Y0.215
X5.523 Y0.214
X5.542 Y0.202
X5.544 Y0.201
X5.562 Y0.188
X5.564 Y0.187
X5.582 Y0.174
X5.584 Y0.173
X5.602 Y0.159
X5.603 Y0.158
X5.62 Y0.143
X5.621
X5.639 Y0.128
Y0.127
X5.656 Y0.112
X5.657
X5.674 Y0.096
X5.691 Y0.08
X5.708 Y0.065
X5.718 Y0.054
X5.733 Y0.032
X5.748 Y0.009
X5.763 Y-0.013
X5.764 Y-0.014
X5.779 Y-0.036
Y-0.037
X5.793 Y-0.059
X5.794 Y-0.06
X5.808 Y-0.083
X5.809 Y-0.084
X5.822 Y-0.107
X5.823 Y-0.109
X5.835 Y-0.132
X5.836 Y-0.134
X5.848 Y-0.157
X5.849 Y-0.159
X5.859 Y-0.183
X5.86 Y-0.186
X5.87 Y-0.21
X5.871 Y-0.213
X5.88 Y-0.237
X5.881 Y-0.24
X5.888 Y-0.265
X5.889 Y-0.267
X5.895 Y-0.292
X5.896 Y-0.295
X5.901 Y-0.32
Y-0.322
X5.906 Y-0.348
Y-0.35
X5.91 Y-0.376
X5.911 Y-0.378
X5.914 Y-0.404
Y-0.405
X5.917 Y-0.432
Y-0.433
X5.919 Y-0.459
Y-0.46
X5.921 Y-0.487
Y-0.488
X5.923 Y-0.514
Y-0.515
X5.924 Y-0.542
X5.926 Y-0.569
Y-0.575
X5.924 Y-0.602
X5.923 Y-0.628
Y-0.629
X5.921 Y-0.655
Y-0.656
X5.92 Y-0.682
X5.919 Y-0.683
X5.917 Y-0.709
Y-0.71
X5.914 Y-0.736
Y-0.738
X5.911 Y-0.764
Y-0.765
X5.907 Y-0.791
Y-0.793
X5.902 Y-0.818
Y-0.82
X5.897 Y-0.845
X5.896 Y-0.848
X5.89 Y-0.873
X5.889 Y-0.875
X5.882 Y-0.9
X5.881 Y-0.902
X5.873 Y-0.927
X5.872 Y-0.929
X5.862 Y-0.953
X5.861 Y-0.956
X5.851 Y-0.979
X5.849 Y-0.981
X5.838 Y-1.004
X5.837 Y-1.006
X5.825 Y-1.029
X5.824 Y-1.031
X5.811 Y-1.053
X5.81 Y-1.055
X5.797 Y-1.077
X5.796 Y-1.078
X5.782 Y-1.1
X5.781 Y-1.101
X5.767 Y-1.123
X5.766
X5.751 Y-1.145
Y-1.146
X5.736 Y-1.167
X5.721 Y-1.189
X5.71 Y-1.201
X5.693 Y-1.217
X5.692
X5.675 Y-1.232
X5.674
X5.657 Y-1.248
X5.656
X5.638 Y-1.263
X5.637 Y-1.264
X5.619 Y-1.278
X5.618 Y-1.279
X5.6 Y-1.293
X5.599 Y-1.294
X5.58 Y-1.308
X5.578 Y-1.309
X5.56 Y-1.321
X5.558 Y-1.323
X5.539 Y-1.335
X5.536 Y-1.336
X5.517 Y-1.347
X5.514 Y-1.349
X5.494 Y-1.359
X5.491 Y-1.361
X5.471 Y-1.37
X5.468 Y-1.371
X5.447 Y-1.379
X5.444 Y-1.38
X5.423 Y-1.387
X5.42 Y-1.388
X5.399 Y-1.394
X5.396 Y-1.395
X5.374 Y-1.4
X5.372 Y-1.401
X5.35 Y-1.405
X5.348 Y-1.406
X5.325 Y-1.41
X5.323
X5.301 Y-1.413
X5.299 Y-1.414
X5.276 Y-1.417
X5.275
X5.252 Y-1.419
X5.251
X5.228 Y-1.422
X5.204 Y-1.424
X5.181 Y-1.426
X5.169
X5.145 Y-1.424
X5.122 Y-1.421
X5.121
X5.098 Y-1.419
X5.097
X5.074 Y-1.416
X5.073
X5.049 Y-1.413
X5.048
X5.025 Y-1.409
X5.024
X5.001 Y-1.405
X4.999 Y-1.404
X4.976 Y-1.4
X4.974 Y-1.399
X4.952 Y-1.394
X4.95 Y-1.393
X4.928 Y-1.387
X4.925 Y-1.386
X4.904 Y-1.379
X4.901 Y-1.378
X4.88 Y-1.37
X4.877 Y-1.368
X4.856 Y-1.359
X4.853 Y-1.358
X4.833 Y-1.347
X4.83 Y-1.346
X4.811 Y-1.335
X4.808 Y-1.333
X4.789 Y-1.321
X4.787 Y-1.32
X4.768 Y-1.307
G0 Z5
X7.652 Y-0.894
G1 Z-0.002 F1000
X7.71 Y-0.966 Z-0.25
G0 Z5
X6.755 Y-2.003
G1 Z-0.001 F1000
X6.833 Y-2.06 Z-0.25
X7.133 Y-2.021
X7.184 Y-1.947 Z-0.001
X7.133 Y-2.021 Z-0.25
X7.136 Y-2.035
X7.142 Y-2.06
X7.149 Y-2.084
Y-2.085
X7.155 Y-2.109
X7.156 Y-2.11
X7.163 Y-2.134
Y-2.135
X7.17 Y-2.159
X7.171 Y-2.16
X7.179 Y-2.184
Y-2.185
X7.188 Y-2.208
Y-2.21
X7.197 Y-2.233
X7.198 Y-2.235
X7.208 Y-2.257
X7.209 Y-2.259
X7.219 Y-2.281
X7.221 Y-2.283
X7.232 Y-2.305
X7.233 Y-2.307
X7.245 Y-2.328
X7.246 Y-2.33
X7.259 Y-2.351
X7.26 Y-2.352
X7.274 Y-2.373
X7.275 Y-2.374
X7.289 Y-2.394
X7.29 Y-2.396
X7.304 Y-2.415
X7.305 Y-2.416
X7.32 Y-2.436
X7.321 Y-2.437
X7.336 Y-2.456
X7.337 Y-2.457
X7.352 Y-2.476
Y-2.477
X7.368 Y-2.496
X7.384 Y-2.516
X7.396 Y-2.527
X7.412 Y-2.539
X7.428 Y-2.551
X7.429
X7.445 Y-2.563
X7.462 Y-2.575
X7.463
X7.479 Y-2.587
X7.48
X7.496 Y-2.598
X7.498 Y-2.599
X7.514 Y-2.609
X7.516 Y-2.61
X7.533 Y-2.62
X7.535 Y-2.621
X7.552 Y-2.631
X7.554 Y-2.632
X7.571 Y-2.64
X7.574 Y-2.642
X7.591 Y-2.65
X7.594 Y-2.651
X7.612 Y-2.658
X7.615 Y-2.659
X7.633 Y-2.665
X7.636 Y-2.666
X7.654 Y-2.672
X7.657
X7.676 Y-2.677
X7.678 Y-2.678
X7.697 Y-2.682
X7.699
X7.718 Y-2.686
X7.72
X7.74 Y-2.689
X7.741
X7.761 Y-2.692
X7.762
X7.782 Y-2.694
X7.783
X7.802 Y-2.696
X7.803
X7.823 Y-2.698
X7.824
X7.844 Y-2.7
X7.864 Y-2.701
X7.875
X7.899 Y-2.699
X7.923 Y-2.697
X7.924
X7.948 Y-2.695
X7.949
X7.972 Y-2.692
X7.973
X7.997 Y-2.689
X7.998
X8.022 Y-2.685
X8.024
X8.047 Y-2.681
X8.049 Y-2.68
X8.072 Y-2.676
X8.074 Y-2.675
X8.097 Y-2.67
X8.099 Y-2.669
X8.121 Y-2.663
X8.124 Y-2.662
X8.146 Y-2.655
X8.149 Y-2.654
X8.171 Y-2.646
X8.174 Y-2.645
X8.195 Y-2.635
X8.198 Y-2.634
X8.219 Y-2.624
X8.221 Y-2.622
X8.242 Y-2.611
X8.244 Y-2.61
X8.264 Y-2.598
X8.266 Y-2.597
X8.285 Y-2.584
X8.287 Y-2.583
X8.306 Y-2.569
X8.308 Y-2.568
X8.327 Y-2.554
X8.328
X8.347 Y-2.539
X8.348 Y-2.538
X8.367 Y-2.524
Y-2.523
X8.386 Y-2.508
X8.387
X8.405 Y-2.492
X8.424 Y-2.477
X8.433 Y-2.468
X8.449 Y-2.449
Y-2.448
X8.464 Y-2.429
X8.465
X8.48 Y-2.41
Y-2.409
X8.495 Y-2.39
X8.496 Y-2.389
X8.51 Y-2.37
X8.511 Y-2.369
X8.525 Y-2.349
X8.526 Y-2.348
X8.54 Y-2.328
X8.541 Y-2.326
X8.553 Y-2.306
X8.555 Y-2.304
X8.567 Y-2.284
X8.568 Y-2.282
X8.579 Y-2.261
X8.58 Y-2.259
X8.591 Y-2.238
X8.592 Y-2.235
X8.601 Y-2.213
X8.602 Y-2.21
X8.611 Y-2.188
X8.612 Y-2.185
X8.619 Y-2.163
X8.62 Y-2.16
X8.626 Y-2.138
Y-2.135
X8.632 Y-2.112
Y-2.11
X8.637 Y-2.087
Y-2.085
X8.641 Y-2.061
Y-2.06
X8.645 Y-2.036
Y-2.034
X8.648 Y-2.01
Y-2.009
X8.651 Y-1.985
Y-1.984
X8.653 Y-1.96
X8.656 Y-1.935
X8.658 Y-1.911
Y-1.9
X8.656 Y-1.877
X8.654 Y-1.854
Y-1.853
X8.652 Y-1.831
Y-1.83
X8.65 Y-1.807
X8.649 Y-1.806
X8.647 Y-1.784
Y-1.782
X8.644 Y-1.76
X8.643 Y-1.758
X8.64 Y-1.736
X8.639 Y-1.734
X8.635 Y-1.712
Y-1.71
X8.63 Y-1.689
X8.629 Y-1.686
X8.624 Y-1.665
X8.623 Y-1.662
X8.617 Y-1.641
X8.616 Y-1.638
X8.608 Y-1.618
X8.607 Y-1.615
X8.598 Y-1.594
X8.597 Y-1.591
X8.588 Y-1.572
X8.586 Y-1.569
X8.576 Y-1.55
X8.575 Y-1.547
X8.564 Y-1.528
X8.562 Y-1.526
X8.55 Y-1.507
X8.549 Y-1.506
X8.537 Y-1.487
X8.536 Y-1.486
X8.523 Y-1.467
X8.522 Y-1.466
X8.509 Y-1.448
X8.508 Y-1.447
X8.494 Y-1.429
X8.493
X8.479 Y-1.411
Y-1.41
X8.465 Y-1.392
X8.45 Y-1.374
X8.44 Y-1.364
X8.422 Y-1.35
X8.404 Y-1.335
X8.403
X8.385 Y-1.321
Y-1.32
X8.366 Y-1.307
Y-1.306
X8.347 Y-1.292
X8.346
X8.328 Y-1.279
X8.326 Y-1.278
X8.308 Y-1.265
X8.306 Y-1.264
X8.287 Y-1.252
X8.285 Y-1.251
X8.266 Y-1.24
X8.263 Y-1.239
X8.244 Y-1.228
X8.241 Y-1.227
X8.221 Y-1.218
X8.218 Y-1.216
X8.198 Y-1.208
X8.195 Y-1.207
X8.174 Y-1.199
X8.171 Y-1.198
X8.15 Y-1.192
X8.148 Y-1.191
X8.126 Y-1.185
X8.124
X8.102 Y-1.18
X8.1 Y-1.179
X8.078 Y-1.175
X8.076
X8.054 Y-1.171
X8.052
X8.03 Y-1.168
X8.028
X8.006 Y-1.165
X8.005
X7.982 Y-1.163
X7.981
X7.958 Y-1.161
X7.935 Y-1.159
X7.912 Y-1.157
X7.903
X7.89 Y-1.158
X7.877
X7.864 Y-1.159
X7.863
X7.851 Y-1.16
X7.85
X7.838 Y-1.161
X7.837
X7.824 Y-1.162
X7.811 Y-1.163
X7.81
X7.798 Y-1.165
X7.797
X7.784 Y-1.166
X7.783
X7.77 Y-1.168
X7.757 Y-1.17
X7.756
X7.743 Y-1.172
X7.742
X7.73 Y-1.174
X7.729
X7.716 Y-1.177
X7.715
X7.703 Y-1.179
X7.702
X7.69 Y-1.182
X7.689
X7.682 Y-1.184
X7.604 Y-1.271 Z-0.001
X7.682 Y-1.184 Z-0.25
X7.71 Y-0.966
X7.713
X7.716
X7.719
X7.725
X7.747 Y-0.964
X7.769 Y-0.963
X7.791 Y-0.961
X7.792
X7.814 Y-0.959
X7.836 Y-0.957
X7.837
X7.859 Y-0.955
X7.86
X7.881 Y-0.952
X7.883
X7.904 Y-0.949
X7.906 Y-0.948
X7.927 Y-0.945
X7.929
X7.95 Y-0.94
X7.952
X7.973 Y-0.935
X7.975 Y-0.934
X7.996 Y-0.929
X7.998 Y-0.928
X8.019 Y-0.922
X8.021 Y-0.921
X8.041 Y-0.914
X8.043
X8.063 Y-0.906
X8.065 Y-0.905
X8.085 Y-0.897
X8.086 Y-0.896
X8.106 Y-0.888
X8.107 Y-0.887
X8.127 Y-0.878
X8.128 Y-0.877
X8.148 Y-0.868
X8.149 Y-0.867
X8.168 Y-0.857
X8.169
X8.188 Y-0.847
X8.189
X8.208 Y-0.836
X8.228 Y-0.826
Y-0.825
X8.247 Y-0.815
X8.259 Y-0.807
X8.276 Y-0.792
X8.293 Y-0.777
X8.309 Y-0.762
X8.31 Y-0.761
X8.326 Y-0.746
X8.327 Y-0.745
X8.343 Y-0.73
X8.344 Y-0.729
X8.359 Y-0.714
X8.361 Y-0.712
X8.375 Y-0.696
X8.377 Y-0.695
X8.39 Y-0.678
X8.392 Y-0.676
X8.405 Y-0.66
X8.407 Y-0.657
X8.419 Y-0.64
X8.421 Y-0.637
X8.432 Y-0.619
X8.434 Y-0.615
X8.443 Y-0.597
X8.445 Y-0.593
X8.454 Y-0.574
X8.455 Y-0.571
X8.463 Y-0.551
X8.464 Y-0.548
X8.47 Y-0.528
X8.471 Y-0.525
X8.476 Y-0.505
X8.477 Y-0.502
X8.482 Y-0.481
Y-0.479
X8.486 Y-0.458
X8.487 Y-0.456
X8.49 Y-0.435
Y-0.433
X8.493 Y-0.412
Y-0.41
X8.496 Y-0.388
X8.498 Y-0.366
Y-0.365
X8.5 Y-0.343
X8.502 Y-0.32
Y-0.309
X8.5 Y-0.291
X8.499 Y-0.272
X8.497 Y-0.253
Y-0.252
X8.495 Y-0.234
Y-0.233
X8.493 Y-0.215
X8.492 Y-0.214
X8.49 Y-0.196
Y-0.194
X8.487 Y-0.176
X8.486 Y-0.174
X8.483 Y-0.157
X8.482 Y-0.155
X8.478 Y-0.137
Y-0.135
X8.473 Y-0.117
X8.472 Y-0.115
X8.467 Y-0.098
X8.466 Y-0.095
X8.459 Y-0.078
X8.458 Y-0.075
X8.451 Y-0.059
X8.45 Y-0.056
X8.442 Y-0.04
X8.441 Y-0.038
X8.432 Y-0.022
X8.431 Y-0.02
X8.422 Y-0.004
X8.42 Y-0.002
X8.41 Y0.013
X8.409 Y0.014
X8.399 Y0.029
X8.398 Y0.03
X8.387 Y0.045
X8.386 Y0.046
X8.375 Y0.061
Y0.062
X8.363 Y0.076
Y0.077
X8.351 Y0.091
X8.339 Y0.105
Y0.106
X8.327 Y0.12
X8.317 Y0.13
X8.301 Y0.142
X8.286 Y0.154
X8.27 Y0.165
Y0.166
X8.254 Y0.177
X8.253 Y0.178
X8.238 Y0.189
X8.237 Y0.19
X8.221 Y0.2
X8.22 Y0.201
X8.204 Y0.211
X8.202 Y0.212
X8.186 Y0.222
X8.184 Y0.223
X8.168 Y0.232
X8.166 Y0.233
X8.149 Y0.242
X8.147 Y0.243
X8.13 Y0.251
X8.127 Y0.252
X8.11 Y0.259
X8.107 Y0.26
X8.09 Y0.266
X8.087 Y0.267
X8.069 Y0.272
X8.066 Y0.273
X8.048 Y0.277
X8.046 Y0.278
X8.028 Y0.281
X8.026 Y0.282
X8.007 Y0.285
X8.006
X7.987 Y0.288
X7.985
X7.967 Y0.291
X7.965
X7.946 Y0.293
X7.945
X7.926 Y0.295
X7.907 Y0.297
X7.906
X7.887 Y0.298
X7.868 Y0.299
X7.858
X7.838 Y0.298
X7.819 Y0.296
X7.818
X7.799 Y0.295
X7.798
X7.779 Y0.293
X7.778
X7.759 Y0.291
X7.758
X7.739 Y0.288
X7.737
X7.718 Y0.285
X7.717
X7.698 Y0.281
X7.696
X7.678 Y0.277
X7.675 Y0.276
X7.657 Y0.272
X7.655 Y0.271
X7.637 Y0.266
X7.634 Y0.265
X7.616 Y0.259
X7.613 Y0.258
X7.596 Y0.251
X7.593 Y0.25
X7.576 Y0.242
X7.574 Y0.241
X7.557 Y0.232
X7.555 Y0.231
X7.538 Y0.222
X7.536 Y0.221
X7.52 Y0.211
X7.518 Y0.21
X7.502 Y0.2
X7.501 Y0.199
X7.485 Y0.188
X7.484
X7.468 Y0.177
Y0.176
X7.452 Y0.165
X7.451 Y0.164
X7.436 Y0.153
X7.435 Y0.152
X7.42 Y0.141
X7.404 Y0.129
X7.393 Y0.118
X7.379 Y0.101
Y0.1
X7.365 Y0.083
X7.364
X7.35 Y0.065
X7.336 Y0.047
Y0.046
X7.323 Y0.029
X7.322 Y0.028
X7.309 Y0.01
X7.308 Y0.009
X7.296 Y-0.009
X7.295 Y-0.011
X7.283 Y-0.029
X7.281 Y-0.031
X7.27 Y-0.049
X7.269 Y-0.051
X7.258 Y-0.07
X7.257 Y-0.072
X7.247 Y-0.092
X7.246 Y-0.094
X7.237 Y-0.114
X7.236 Y-0.116
X7.227 Y-0.136
Y-0.138
X7.219 Y-0.159
X7.218 Y-0.161
X7.211 Y-0.181
Y-0.183
X7.204 Y-0.204
Y-0.206
X7.198 Y-0.227
X7.197 Y-0.228
X7.192 Y-0.249
Y-0.251
X7.186 Y-0.272
Y-0.273
X7.181 Y-0.295
Y-0.296
X7.177 Y-0.317
X7.176 Y-0.318
