(Boden)
(Bearbeiten)
(  Hersteller: ChinaCnc)
(  model: 3040T)
(  description: Generic 3-axis)
(T14  D=3.175 CR=0 - ZMIN=-4.4 - Schaftfraser)
G90 G94
G17
G21
(When using Fusion 360 for Personal Use, the feedrate of)
(rapid moves is reduced to match the feedrate of cutting)
(moves, which can increase machining time. Unrestricted rapid)
(moves are available with a Fusion 360 Subscription.)

(2D-Kontur3)
T14
S4000 M3
G54
G0 X-4.682 Y-157.54
Z15
G1 Z5 F1500
Z3 F300
Z-1.683
G19 G3 Y-157.223 Z-2 J0.317 K0 F1016
G1 Y-156.905
G17 G3 X-5 Y-156.587 I-0.318 J0
G1 X-17.5 F1500
G2 X-19.087 Y-155 I0 J1.587
G1 Y-152.587
X-40.912
Y-155
G2 X-42.5 Y-156.587 I-1.588 J0
G1 X-67.5
G2 X-69.088 Y-155 I0 J1.587
G1 Y-152.587
X-90.912
Y-155
G2 X-92.5 Y-156.587 I-1.588 J0
G1 X-117.5
G2 X-119.088 Y-155 I0 J1.587
G1 Y-152.587
X-140.913
Y-155
G2 X-142.5 Y-156.587 I-1.587 J0
G1 X-167.5
G2 X-169.087 Y-155 I0 J1.587
G1 Y-152.587
X-190.913
Y-155
G2 X-192.5 Y-156.587 I-1.587 J0
G1 X-217.5
G2 X-219.087 Y-155 I0 J1.587
G1 Y-152.587
X-240.913
Y-155
G2 X-242.5 Y-156.587 I-1.587 J0
G1 X-255
G2 X-256.587 Y-155 I0 J1.587
G1 Y-130
G2 X-255 Y-128.413 I1.587 J0
G1 X-252.587
Y-111.588
X-255
G2 X-256.587 Y-110 I0 J1.588
G1 Y-90
G2 X-255 Y-88.412 I1.587 J0
G1 X-252.587
Y-71.588
X-255
G2 X-256.587 Y-70 I0 J1.588
G1 Y-50
G2 X-255 Y-48.412 I1.587 J0
G1 X-252.587
Y-31.587
X-255
G2 X-256.587 Y-30 I0 J1.587
G1 Y-5
G2 X-255 Y-3.412 I1.587 J0
G1 X-242.5
G2 X-240.913 Y-5 I0 J-1.588
G1 Y-7.412
X-219.087
Y-5
G2 X-217.5 Y-3.412 I1.587 J0
G1 X-192.5
G2 X-190.913 Y-5 I0 J-1.588
G1 Y-7.412
X-169.087
Y-5
G2 X-167.5 Y-3.412 I1.587 J0
G1 X-142.5
G2 X-140.913 Y-5 I0 J-1.588
G1 Y-7.412
X-119.088
Y-5
G2 X-117.5 Y-3.412 I1.588 J0
G1 X-92.5
G2 X-90.912 Y-5 I0 J-1.588
G1 Y-7.412
X-69.088
Y-5
G2 X-67.5 Y-3.412 I1.588 J0
G1 X-42.5
G2 X-40.912 Y-5 I0 J-1.588
G1 Y-7.412
X-19.087
Y-5
G2 X-17.5 Y-3.412 I1.587 J0
G1 X-5
G2 X-3.412 Y-5 I0 J-1.588
G1 Y-30
G2 X-5 Y-31.587 I-1.588 J0
G1 X-7.412
Y-48.412
X-5
G2 X-3.412 Y-50 I0 J-1.588
G1 Y-70
G2 X-5 Y-71.588 I-1.588 J0
G1 X-7.412
Y-88.412
X-5
G2 X-3.412 Y-90 I0 J-1.588
G1 Y-110
G2 X-5 Y-111.588 I-1.588 J0
G1 X-7.412
Y-128.413
X-5
G2 X-3.412 Y-130 I0 J-1.587
G1 Y-155
G2 X-5 Y-156.587 I-1.588 J0
G3 X-5.318 Y-156.905 I0 J-0.318 F1016
G1 Y-157.223
G19 G2 Y-157.54 Z-1.683 J0 K0.317
G1 Z5 F1500
X-4.682
Z1 F300
Z-2.883
G3 Y-157.223 Z-3.2 J0.317 K0 F1016
G1 Y-156.905
G17 G3 X-5 Y-156.587 I-0.318 J0
G1 X-17.5 F1500
G2 X-19.087 Y-155 I0 J1.587
G1 Y-152.587
X-40.912
Y-155
G2 X-42.5 Y-156.587 I-1.588 J0
G1 X-67.5
G2 X-69.088 Y-155 I0 J1.587
G1 Y-152.587
X-90.912
Y-155
G2 X-92.5 Y-156.587 I-1.588 J0
G1 X-117.5
G2 X-119.088 Y-155 I0 J1.587
G1 Y-152.587
X-140.913
Y-155
G2 X-142.5 Y-156.587 I-1.587 J0
G1 X-167.5
G2 X-169.087 Y-155 I0 J1.587
G1 Y-152.587
X-190.913
Y-155
G2 X-192.5 Y-156.587 I-1.587 J0
G1 X-217.5
G2 X-219.087 Y-155 I0 J1.587
G1 Y-152.587
X-240.913
Y-155
G2 X-242.5 Y-156.587 I-1.587 J0
G1 X-255
G2 X-256.587 Y-155 I0 J1.587
G1 Y-130
G2 X-255 Y-128.413 I1.587 J0
G1 X-252.587
Y-111.588
X-255
G2 X-256.587 Y-110 I0 J1.588
G1 Y-90
G2 X-255 Y-88.412 I1.587 J0
G1 X-252.587
Y-71.588
X-255
G2 X-256.587 Y-70 I0 J1.588
G1 Y-50
G2 X-255 Y-48.412 I1.587 J0
G1 X-252.587
Y-31.587
X-255
G2 X-256.587 Y-30 I0 J1.587
G1 Y-5
G2 X-255 Y-3.412 I1.587 J0
G1 X-242.5
G2 X-240.913 Y-5 I0 J-1.588
G1 Y-7.412
X-219.087
Y-5
G2 X-217.5 Y-3.412 I1.587 J0
G1 X-192.5
G2 X-190.913 Y-5 I0 J-1.588
G1 Y-7.412
X-169.087
Y-5
G2 X-167.5 Y-3.412 I1.587 J0
G1 X-142.5
G2 X-140.913 Y-5 I0 J-1.588
G1 Y-7.412
X-119.088
Y-5
G2 X-117.5 Y-3.412 I1.588 J0
G1 X-92.5
G2 X-90.912 Y-5 I0 J-1.588
G1 Y-7.412
X-69.088
Y-5
G2 X-67.5 Y-3.412 I1.588 J0
G1 X-42.5
G2 X-40.912 Y-5 I0 J-1.588
G1 Y-7.412
X-19.087
Y-5
G2 X-17.5 Y-3.412 I1.587 J0
G1 X-5
G2 X-3.412 Y-5 I0 J-1.588
G1 Y-30
G2 X-5 Y-31.587 I-1.588 J0
G1 X-7.412
Y-48.412
X-5
G2 X-3.412 Y-50 I0 J-1.588
G1 Y-70
G2 X-5 Y-71.588 I-1.588 J0
G1 X-7.412
Y-88.412
X-5
G2 X-3.412 Y-90 I0 J-1.588
G1 Y-110
G2 X-5 Y-111.588 I-1.588 J0
G1 X-7.412
Y-128.413
X-5
G2 X-3.412 Y-130 I0 J-1.587
G1 Y-155
G2 X-5 Y-156.587 I-1.588 J0
G3 X-5.318 Y-156.905 I0 J-0.318 F1016
G1 Y-157.223
G19 G2 Y-157.54 Z-2.883 J0 K0.318
G1 Z5 F1500
X-4.682
Z-0.2 F300
Z-4.083
G3 Y-157.223 Z-4.4 J0.317 K0 F1016
G1 Y-156.905
G17 G3 X-5 Y-156.587 I-0.318 J0
G1 X-17.5 F1500
G2 X-19.087 Y-155 I0 J1.587
G1 Y-152.587
X-40.912
Y-155
G2 X-42.5 Y-156.587 I-1.588 J0
G1 X-49.631
Z-3.606
X-62.806
Z-4.4 F300
X-67.5 F1500
G2 X-69.088 Y-155 I0 J1.587
G1 Y-152.587
X-90.912
Y-155
G2 X-92.5 Y-156.587 I-1.588 J0
G1 X-117.5
G2 X-119.088 Y-155 I0 J1.587
G1 Y-152.587
X-140.913
Y-155
G2 X-142.5 Y-156.587 I-1.587 J0
G1 X-167.5
G2 X-169.087 Y-155 I0 J1.587
G1 Y-152.587
X-190.913
Y-155
G2 X-192.5 Y-156.587 I-1.587 J0
G1 X-200.723
Z-3.606
X-213.898
Z-4.4 F300
X-217.5 F1500
G2 X-219.087 Y-155 I0 J1.587
G1 Y-152.587
X-240.913
Y-155
G2 X-242.5 Y-156.587 I-1.587 J0
G1 X-255
G2 X-256.587 Y-155 I0 J1.587
G1 Y-130
G2 X-255 Y-128.413 I1.587 J0
G1 X-252.587
Y-111.588
X-255
G2 X-256.587 Y-110 I0 J1.588
G1 Y-90
G2 X-255 Y-88.412 I1.587 J0
G1 X-252.587
Y-71.588
X-255
G2 X-256.587 Y-70 I0 J1.588
G1 Y-50
G2 X-255 Y-48.412 I1.587 J0
G1 X-252.587
Y-31.587
X-255
G2 X-256.587 Y-30 I0 J1.587
G1 Y-5
G2 X-255 Y-3.412 I1.587 J0
G1 X-242.5
G2 X-240.913 Y-5 I0 J-1.588
G1 Y-7.412
X-219.087
Y-5
G2 X-217.5 Y-3.412 I1.587 J0
G1 X-213.492
Z-3.606
X-200.316
Z-4.4 F300
X-192.5 F1500
G2 X-190.913 Y-5 I0 J-1.588
G1 Y-7.412
X-169.087
Y-5
G2 X-167.5 Y-3.412 I1.587 J0
G1 X-142.5
G2 X-140.913 Y-5 I0 J-1.588
G1 Y-7.412
X-119.088
Y-5
G2 X-117.5 Y-3.412 I1.588 J0
G1 X-92.5
G2 X-90.912 Y-5 I0 J-1.588
G1 Y-7.412
X-69.088
Y-5
G2 X-67.5 Y-3.412 I1.588 J0
G1 X-62.035
Z-3.606
X-48.86
Z-4.4 F300
X-42.5 F1500
G2 X-40.912 Y-5 I0 J-1.588
G1 Y-7.412
X-19.087
Y-5
G2 X-17.5 Y-3.412 I1.587 J0
G1 X-5
G2 X-3.412 Y-5 I0 J-1.588
G1 Y-30
G2 X-5 Y-31.587 I-1.588 J0
G1 X-7.412
Y-48.412
X-5
G2 X-3.412 Y-50 I0 J-1.588
G1 Y-70
G2 X-5 Y-71.588 I-1.588 J0
G1 X-7.412
Y-88.412
X-5
G2 X-3.412 Y-90 I0 J-1.588
G1 Y-110
G2 X-5 Y-111.588 I-1.588 J0
G1 X-7.412
Y-128.413
X-5
G2 X-3.412 Y-130 I0 J-1.587
G1 Y-155
G2 X-5 Y-156.587 I-1.588 J0
G3 X-5.318 Y-156.905 I0 J-0.318 F1016
G1 Y-157.223
G19 G2 Y-157.54 Z-4.083 J0 K0.318
G1 Z15 F1500
G17
M5
M30
