(KleineWand)
(Bearbeiten)
(  Hersteller: ChinaCnc)
(  model: 3040T)
(  description: Generic 3-axis)
(T14  D=3.175 CR=0 - ZMIN=-4.4 - Schaftfraser)
G90 G94
G17
G21
(When using Fusion 360 for Personal Use, the feedrate of)
(rapid moves is reduced to match the feedrate of cutting)
(moves, which can increase machining time. Unrestricted rapid)
(moves are available with a Fusion 360 Subscription.)

(Bohrfrasen1)
T14
S4000 M3
G54
G0 X-63.381 Y-122.317
Z15
G1 Z2 F1500
Z0.317 F1016
G18 G2 X-63.064 Z0 I0.317 K0
G1 X-62.905
G17 G3 X-62.588 Y-122 I0 J0.317
X-91.412 Y-122 Z-0.5 I-14.412 J0 F1500
X-62.588 Y-122 Z-1 I14.412 J0
X-91.412 Y-122 Z-1.5 I-14.412 J0
X-62.587 Y-122 Z-2 I14.412 J0
X-91.413 Y-122 Z-2.5 I-14.413 J0
X-62.587 Y-122 Z-3 I14.413 J0
X-91.413 Y-122 Z-3.5 I-14.413 J0
X-62.587 Y-122 Z-4 I14.413 J0
X-88.66 Y-113.529 Z-4.4 I-14.413 J0
X-65.34 Y-130.471 I11.66 J-8.471
X-88.66 Y-113.529 I-11.66 J8.471
X-88.59 Y-113.972 I0.257 J-0.187 F1016
G1 X-88.461 Y-114.065
X-88.404 Y-114.107 Z-4.392
X-88.35 Y-114.146 Z-4.369
X-88.301 Y-114.182 Z-4.331
X-88.26 Y-114.211 Z-4.28
X-88.23 Y-114.233 Z-4.22
X-88.211 Y-114.247 Z-4.153
X-88.204 Y-114.252 Z-4.082
Z15 F1500
(When using Fusion 360 for Personal Use, the feedrate of)
(rapid moves is reduced to match the feedrate of cutting)
(moves, which can increase machining time. Unrestricted rapid)
(moves are available with a Fusion 360 Subscription.)

(2D-Kontur1)
G0 X-77.317 Y0.54
G1 Z15 F1500
Z5
Z3 F300
Z-1.683
G19 G2 Y0.222 Z-2 J-0.318 K0 F1016
G1 Y-0.095
G17 G3 X-77 Y-0.412 I0.317 J0
G1 X-67 F1500
G2 X-65.412 Y-2 I0 J-1.588
G1 Y-4.412
X-48.588
Y-2
G2 X-47 Y-0.412 I1.588 J0
G1 X-27
G2 X-25.413 Y-2 I0 J-1.588
G1 Y-4.412
X-6
G2 X-4.412 Y-6 I0 J-1.588
G1 Y-10.413
X-2
G2 X-0.412 Y-12 I0 J-1.587
G1 Y-32
G2 X-2 Y-33.588 I-1.588 J0
G1 X-4.412
Y-50.412
X-2
G2 X-0.412 Y-52 I0 J-1.588
G1 Y-72
G2 X-0.665 Y-72.859 I-1.588 J0
G1 X-45.395 Y-142.345
G2 X-108.606 Y-142.345 I-31.606 J20.345
G1 X-153.335 Y-72.859
G2 X-153.587 Y-72 I1.335 J0.859
G1 Y-52
G2 X-152 Y-50.412 I1.587 J0
G1 X-149.587
Y-33.588
X-152
G2 X-153.587 Y-32 I0 J1.588
G1 Y-12
G2 X-152 Y-10.413 I1.587 J0
G1 X-149.587
Y-6
G2 X-148 Y-4.412 I1.587 J0
G1 X-128.587
Y-2
G2 X-127 Y-0.412 I1.587 J0
G1 X-107
G2 X-105.412 Y-2 I0 J-1.588
G1 Y-4.412
X-88.588
Y-2
G2 X-87 Y-0.412 I1.588 J0
G1 X-77
G3 X-76.683 Y-0.095 I0 J0.317 F1016
G1 Y0.222
G19 G3 Y0.54 Z-1.683 J0 K0.317
G1 Z5 F1500
X-77.317
Z1 F300
Z-2.883
G2 Y0.222 Z-3.2 J-0.318 K0 F1016
G1 Y-0.095
G17 G3 X-77 Y-0.412 I0.317 J0
G1 X-67 F1500
G2 X-65.412 Y-2 I0 J-1.588
G1 Y-4.412
X-48.588
Y-2
G2 X-47 Y-0.412 I1.588 J0
G1 X-27
G2 X-25.413 Y-2 I0 J-1.588
G1 Y-4.412
X-6
G2 X-4.412 Y-6 I0 J-1.588
G1 Y-10.413
X-2
G2 X-0.412 Y-12 I0 J-1.587
G1 Y-32
G2 X-2 Y-33.588 I-1.588 J0
G1 X-4.412
Y-50.412
X-2
G2 X-0.412 Y-52 I0 J-1.588
G1 Y-72
G2 X-0.665 Y-72.859 I-1.588 J0
G1 X-45.395 Y-142.345
G2 X-108.606 Y-142.345 I-31.606 J20.345
G1 X-153.335 Y-72.859
G2 X-153.587 Y-72 I1.335 J0.859
G1 Y-52
G2 X-152 Y-50.412 I1.587 J0
G1 X-149.587
Y-33.588
X-152
G2 X-153.587 Y-32 I0 J1.588
G1 Y-12
G2 X-152 Y-10.413 I1.587 J0
G1 X-149.587
Y-6
G2 X-148 Y-4.412 I1.587 J0
G1 X-128.587
Y-2
G2 X-127 Y-0.412 I1.587 J0
G1 X-107
G2 X-105.412 Y-2 I0 J-1.588
G1 Y-4.412
X-88.588
Y-2
G2 X-87 Y-0.412 I1.588 J0
G1 X-77
G3 X-76.683 Y-0.095 I0 J0.317 F1016
G1 Y0.222
G19 G3 Y0.54 Z-2.883 J0 K0.318
G1 Z5 F1500
X-77.317
Z-0.2 F300
Z-4.083
G2 Y0.222 Z-4.4 J-0.318 K0 F1016
G1 Y-0.095
G17 G3 X-77 Y-0.412 I0.317 J0
G1 X-67 F1500
G2 X-65.412 Y-2 I0 J-1.588
G1 Y-4.412
X-48.588
Y-2
G2 X-47 Y-0.412 I1.588 J0
G1 X-27
G2 X-25.413 Y-2 I0 J-1.588
G1 Y-4.412
X-6
G2 X-4.412 Y-6 I0 J-1.588
G1 Y-10.413
X-2
G2 X-0.412 Y-12 I0 J-1.587
G1 Y-32
G2 X-2 Y-33.588 I-1.588 J0
G1 X-4.412
Y-50.412
X-2
G2 X-0.412 Y-52 I0 J-1.588
G1 Y-72
G2 X-0.665 Y-72.859 I-1.588 J0
G1 X-19.464 Y-102.063
Z-3.606
X-26.596 Y-113.141
Z-4.4 F300
X-45.395 Y-142.345 F1500
G2 X-70.412 Y-159.006 I-31.606 J20.345
G1 Z-3.606
G2 X-83.588 Y-159.006 I-6.588 J37.006
G1 Z-4.4 F300
G2 X-108.606 Y-142.345 I6.587 J37.006 F1500
G1 X-127.405 Y-113.142
Z-3.606
X-134.536 Y-102.063
Z-4.4 F300
X-153.335 Y-72.859 F1500
G2 X-153.587 Y-72 I1.335 J0.859
G1 Y-52
G2 X-152 Y-50.412 I1.587 J0
G1 X-149.587
Y-33.588
X-152
G2 X-153.587 Y-32 I0 J1.588
G1 Y-12
G2 X-152 Y-10.413 I1.587 J0
G1 X-149.587
Y-6
G2 X-148 Y-4.412 I1.587 J0
G1 X-128.587
Y-2
G2 X-127 Y-0.412 I1.587 J0
G1 X-107
G2 X-105.412 Y-2 I0 J-1.588
G1 Y-4.412
X-88.588
Y-2
G2 X-87 Y-0.412 I1.588 J0
G1 X-77
G3 X-76.683 Y-0.095 I0 J0.317 F1016
G1 Y0.222
G19 G3 Y0.54 Z-4.083 J0 K0.318
G1 Z15 F1500
G17
M5
M30
