(SeitenWand)
(Bearbeiten)
(  Hersteller: ChinaCnc)
(  model: 3040T)
(  description: Generic 3-axis)
(T14  D=3.175 CR=0 - ZMIN=-4.4 - Schaftfraser)
G90 G94
G17
G21
(When using Fusion 360 for Personal Use, the feedrate of)
(rapid moves is reduced to match the feedrate of cutting)
(moves, which can increase machining time. Unrestricted rapid)
(moves are available with a Fusion 360 Subscription.)

(2D-Kontur2)
T14
S4000 M3
G54
G0 X-243.912 Y-2.719
Z15
G1 Z5 F1500
Z3 F300
Z-1.683
X-243.909 Y-2.727 Z-1.753 F1016
X-243.901 Y-2.749 Z-1.82
X-243.889 Y-2.784 Z-1.88
X-243.871 Y-2.832 Z-1.931
X-243.851 Y-2.888 Z-1.969
X-243.828 Y-2.951 Z-1.992
X-243.804 Y-3.018 Z-2
X-243.696 Y-3.316
G3 X-243.29 Y-3.507 I0.299 J0.108
G2 X-242.75 Y-3.412 I0.54 J-1.493 F1500
G1 X-217.25
G2 X-215.663 Y-5 I0 J-1.588
G1 Y-7.412
X-194.337
Y-5
G2 X-192.75 Y-3.412 I1.587 J0
G1 X-167.25
G2 X-165.663 Y-5 I0 J-1.588
G1 Y-7.412
X-144.337
Y-5
G2 X-142.75 Y-3.412 I1.587 J0
G1 X-117.25
G2 X-115.662 Y-5 I0 J-1.588
G1 Y-7.412
X-94.338
Y-5
G2 X-92.75 Y-3.412 I1.588 J0
G1 X-67.25
G2 X-65.662 Y-5 I0 J-1.588
G1 Y-7.412
X-44.338
Y-5
G2 X-42.75 Y-3.412 I1.588 J0
G1 X-17.25
G2 X-15.663 Y-5 I0 J-1.588
G1 Y-7.412
X-5
G2 X-3.412 Y-9 I0 J-1.588
G1 Y-14.75
G2 X-5 Y-16.337 I-1.588 J0
G1 X-7.412
Y-33.662
X-5
G2 X-3.412 Y-35.25 I0 J-1.588
G1 Y-55.25
G2 X-5 Y-56.838 I-1.588 J0
G1 X-7.412
Y-75
G2 X-9 Y-76.588 I-1.588 J0
G1 X-251
G2 X-252.587 Y-75 I0 J1.588
G1 Y-56.838
X-255
G2 X-256.587 Y-55.25 I0 J1.588
G1 Y-35.25
G2 X-255 Y-33.662 I1.587 J0
G1 X-252.587
Y-16.337
X-255
G2 X-256.587 Y-14.75 I0 J1.587
G1 Y-9
G2 X-255 Y-7.412 I1.587 J0
G1 X-244.337
Y-5
G2 X-243.29 Y-3.507 I1.587 J0
G3 X-243.099 Y-3.101 I-0.108 J0.299 F1016
G1 X-243.207 Y-2.802
X-243.231 Y-2.735 Z-1.992
X-243.254 Y-2.672 Z-1.969
X-243.274 Y-2.616 Z-1.931
X-243.291 Y-2.568 Z-1.88
X-243.304 Y-2.533 Z-1.82
X-243.312 Y-2.511 Z-1.753
X-243.315 Y-2.503 Z-1.683
Z5 F1500
X-243.912 Y-2.719
Z1 F300
Z-2.883
X-243.909 Y-2.727 Z-2.953 F1016
X-243.901 Y-2.749 Z-3.02
X-243.889 Y-2.784 Z-3.08
X-243.871 Y-2.832 Z-3.131
X-243.851 Y-2.888 Z-3.169
X-243.828 Y-2.951 Z-3.192
X-243.804 Y-3.018 Z-3.2
X-243.696 Y-3.316
G3 X-243.29 Y-3.507 I0.299 J0.108
G2 X-242.75 Y-3.412 I0.54 J-1.493 F1500
G1 X-217.25
G2 X-215.663 Y-5 I0 J-1.588
G1 Y-7.412
X-194.337
Y-5
G2 X-192.75 Y-3.412 I1.587 J0
G1 X-167.25
G2 X-165.663 Y-5 I0 J-1.588
G1 Y-7.412
X-144.337
Y-5
G2 X-142.75 Y-3.412 I1.587 J0
G1 X-117.25
G2 X-115.662 Y-5 I0 J-1.588
G1 Y-7.412
X-94.338
Y-5
G2 X-92.75 Y-3.412 I1.588 J0
G1 X-67.25
G2 X-65.662 Y-5 I0 J-1.588
G1 Y-7.412
X-44.338
Y-5
G2 X-42.75 Y-3.412 I1.588 J0
G1 X-17.25
G2 X-15.663 Y-5 I0 J-1.588
G1 Y-7.412
X-5
G2 X-3.412 Y-9 I0 J-1.588
G1 Y-14.75
G2 X-5 Y-16.337 I-1.588 J0
G1 X-7.412
Y-33.662
X-5
G2 X-3.412 Y-35.25 I0 J-1.588
G1 Y-55.25
G2 X-5 Y-56.838 I-1.588 J0
G1 X-7.412
Y-75
G2 X-9 Y-76.588 I-1.588 J0
G1 X-251
G2 X-252.587 Y-75 I0 J1.588
G1 Y-56.838
X-255
G2 X-256.587 Y-55.25 I0 J1.588
G1 Y-35.25
G2 X-255 Y-33.662 I1.587 J0
G1 X-252.587
Y-16.337
X-255
G2 X-256.587 Y-14.75 I0 J1.587
G1 Y-9
G2 X-255 Y-7.412 I1.587 J0
G1 X-244.337
Y-5
G2 X-243.29 Y-3.507 I1.587 J0
G3 X-243.099 Y-3.101 I-0.108 J0.299 F1016
G1 X-243.207 Y-2.802
X-243.231 Y-2.735 Z-3.192
X-243.254 Y-2.672 Z-3.169
X-243.274 Y-2.616 Z-3.131
X-243.291 Y-2.568 Z-3.08
X-243.304 Y-2.533 Z-3.02
X-243.312 Y-2.511 Z-2.953
X-243.315 Y-2.503 Z-2.883
Z5 F1500
X-243.912 Y-2.719
Z-0.2 F300
Z-4.083
X-243.909 Y-2.727 Z-4.153 F1016
X-243.901 Y-2.749 Z-4.22
X-243.889 Y-2.784 Z-4.28
X-243.871 Y-2.832 Z-4.331
X-243.851 Y-2.888 Z-4.369
X-243.828 Y-2.951 Z-4.392
X-243.804 Y-3.018 Z-4.4
X-243.696 Y-3.316
G3 X-243.29 Y-3.507 I0.299 J0.108
G2 X-242.75 Y-3.412 I0.54 J-1.493 F1500
G1 X-217.25
G2 X-215.663 Y-5 I0 J-1.588
G1 Y-7.412
X-194.337
Y-5
G2 X-192.75 Y-3.412 I1.587 J0
G1 X-167.25
G2 X-165.663 Y-5 I0 J-1.588
G1 Y-7.412
X-144.337
Y-5
G2 X-142.75 Y-3.412 I1.587 J0
G1 X-117.25
G2 X-115.662 Y-5 I0 J-1.588
G1 Y-7.412
X-94.338
Y-5
G2 X-92.75 Y-3.412 I1.588 J0
G1 X-67.25
G2 X-65.662 Y-5 I0 J-1.588
G1 Y-7.412
X-44.338
Y-5
G2 X-42.75 Y-3.412 I1.588 J0
G1 X-17.25
G2 X-15.663 Y-5 I0 J-1.588
G1 Y-7.412
X-5
G2 X-3.412 Y-9 I0 J-1.588
G1 Y-14.75
G2 X-5 Y-16.337 I-1.588 J0
G1 X-7.412
Y-33.662
X-5
G2 X-3.412 Y-35.25 I0 J-1.588
G1 Y-55.25
G2 X-5 Y-56.838 I-1.588 J0
G1 X-7.412
Y-75
G2 X-9 Y-76.588 I-1.588 J0
G1 X-60.412
Z-3.606
X-78.588
Z-4.4 F300
X-181.413 F1500
Z-3.606
X-199.587
Z-4.4 F300
X-251 F1500
G2 X-252.587 Y-75 I0 J1.588
G1 Y-56.838
X-255
G2 X-256.587 Y-55.25 I0 J1.588
G1 Y-35.25
G2 X-255 Y-33.662 I1.587 J0
G1 X-252.587
Y-16.337
X-255
G2 X-256.587 Y-14.75 I0 J1.587
G1 Y-9
G2 X-255 Y-7.412 I1.587 J0
G1 X-244.337
Y-5
G2 X-243.29 Y-3.507 I1.587 J0
G3 X-243.099 Y-3.101 I-0.108 J0.299 F1016
G1 X-243.207 Y-2.802
X-243.231 Y-2.735 Z-4.392
X-243.254 Y-2.672 Z-4.369
X-243.274 Y-2.616 Z-4.331
X-243.291 Y-2.568 Z-4.28
X-243.304 Y-2.533 Z-4.22
X-243.312 Y-2.511 Z-4.153
X-243.315 Y-2.503 Z-4.083
Z15 F1500
M5
M30
