;FLAVOR:Marlin
;TIME:5051
;Filament used: 3.25095m
;Layer height: 0.12
;MINX:49.214
;MINY:42.077
;MINZ:0.24
;MAXX:70.777
;MAXY:76.911
;MAXZ:48.96
;Generated with Cura_SteamEngine 4.7.1
M104 S210
M105
M109 S210
M82 ;absolute extrusion mode
;Sliced at: Thu 17-12-2020 14:29:52
G21 ;metric values
G90 ;absolute positioning
M82 ;set extruder to absolute mode
M107 ;start with the fan off
G1 Z5.0 F1800 ;move Z to 5mm
G28 X0 Y0 F1800 ;move X/Y to min endstops
G28 Z0 ;move Z to min endstop
G92 E0 ;zero the extruded length
G1 F200 E6.0 ;extrude 6.0mm of feed stock to build pressure
G1 Z5.0 F300 ;move the platform down 5mm
G92 E0 ;zero the extruded length again
G1 F1800
;Put printing message on LCD screen
M117 Printing...
G92 E0
G92 E0
G1 F1500 E-5
;LAYER_COUNT:395
;LAYER:0
M107
G0 F900 X53.086 Y44.448 Z0.24
;TYPE:SKIRT
G1 F1500 E0.70678
G1 F900 X52.797 Y44.85 E0.72851
G1 X52.581 Y45.313 E0.75094
G1 X52.367 Y45.938 E0.77995
G1 X52.259 Y46.27 E0.79528
G1 X51.946 Y47.29 E0.84212
G1 X51.889 Y47.618 E0.85673
G1 X51.813 Y48.418 E0.89202
G1 X51.613 Y50.309 E0.9755
G1 X51.254 Y53.081 E1.09822
G1 X50.816 Y55.841 E1.22091
G1 X50.5 Y57.654 E1.3017
G1 X50.418 Y58.525 E1.34011
G1 X50.407 Y59.086 E1.36475
G1 X50.428 Y59.631 E1.38869
G1 X50.466 Y60.072 E1.40812
G1 X50.541 Y60.602 E1.43163
G1 X50.638 Y61.101 E1.45394
G1 X51.304 Y63.914 E1.58086
G1 X51.866 Y66.654 E1.70366
G1 X52.349 Y69.406 E1.82633
G1 X52.552 Y70.666 E1.88236
G1 X52.62 Y70.961 E1.89565
G1 X52.843 Y71.681 E1.92874
G1 X52.958 Y72.035 E1.94508
G1 X53.271 Y72.946 E1.98737
G1 X53.454 Y73.313 E2.00538
G1 X53.764 Y73.729 E2.02815
G1 X54.088 Y74.03 E2.04757
G1 X54.689 Y74.481 E2.08056
G1 X54.936 Y74.661 E2.09398
G1 X55.821 Y75.281 E2.14142
G1 X56.166 Y75.458 E2.15844
G1 X56.642 Y75.605 E2.18031
G1 X57.129 Y75.661 E2.20184
G1 X57.84 Y75.671 E2.23305
G1 X58.161 Y75.671 E2.24715
G1 X59.22 Y75.652 E2.29365
G1 X59.532 Y75.607 E2.30749
G1 X60.023 Y75.456 E2.33004
G1 X60.475 Y75.209 E2.35265
G1 X61.121 Y74.753 E2.38737
G1 X61.412 Y74.541 E2.40318
G1 X62.18 Y73.963 E2.44538
G1 X62.528 Y73.602 E2.46739
G1 X62.779 Y73.23 E2.48709
G1 X63.069 Y72.696 E2.51377
G1 X64.021 Y70.897 E2.60313
G1 X65.401 Y68.464 E2.72593
G1 X66.851 Y66.072 E2.84874
G1 X67.563 Y64.97 E2.90634
G1 X67.99 Y64.296 E2.94137
G1 X67.991 Y64.297 E2.94143
G1 X68.341 Y63.724 E2.97091
G1 X68.604 Y63.224 E2.99571
G1 X68.76 Y62.894 E3.01174
G1 X68.992 Y62.315 E3.03912
G1 X69.142 Y61.885 E3.05912
G1 X69.295 Y61.337 E3.0841
G1 X69.389 Y60.925 E3.10265
G1 X69.484 Y60.38 E3.12694
G1 X69.54 Y59.933 E3.14672
G1 X69.579 Y59.338 E3.1729
G1 X69.584 Y58.929 E3.19085
G1 X69.562 Y58.338 E3.21682
G1 X69.525 Y57.927 E3.23494
G1 X69.44 Y57.343 E3.26084
G1 X69.359 Y56.933 E3.27919
G1 X69.224 Y56.397 E3.30346
G1 X69.095 Y55.972 E3.32296
G1 X68.892 Y55.419 E3.34882
G1 X68.728 Y55.039 E3.36699
G1 X68.48 Y54.534 E3.39169
G1 X68.263 Y54.143 E3.41133
G1 X67.957 Y53.656 E3.43658
G1 X67.915 Y53.593 E3.4399
G1 X67.18 Y52.54 E3.49628
G1 X66.067 Y50.911 E3.5829
G1 X64.546 Y48.564 E3.70569
G1 X63.095 Y46.176 E3.82836
G1 X62.464 Y45.104 E3.88298
G1 X62.208 Y44.761 E3.90177
G1 X61.859 Y44.43 E3.92288
G1 X61.2 Y43.937 E3.95902
G1 X60.654 Y43.54 E3.98865
G1 X59.696 Y42.867 E4.04005
G1 X59.346 Y42.689 E4.05729
G1 X58.869 Y42.542 E4.07921
G1 X58.388 Y42.487 E4.10046
G1 X57.675 Y42.477 E4.13177
G1 X57.35 Y42.477 E4.14604
G1 X56.313 Y42.495 E4.19157
G1 X55.842 Y42.577 E4.21256
G1 X55.422 Y42.73 E4.23219
G1 X55.034 Y42.952 E4.25181
G1 X54.412 Y43.391 E4.28524
G1 X54.157 Y43.577 E4.29909
G1 X53.584 Y44.009 E4.3306
G0 F810 X53.382 Y44.161
G0 X53.086 Y44.448
G0 F900 X52.781 Y44.186
G1 X53.123 Y43.854 E4.35153
G1 X53.916 Y43.257 E4.3951
G1 X54.181 Y43.064 E4.4095
G1 X54.816 Y42.616 E4.44362
G1 X55.254 Y42.365 E4.46578
G1 X55.737 Y42.189 E4.48835
G1 X56.26 Y42.098 E4.51165
G1 X56.29 Y42.095 E4.51298
G1 X57.343 Y42.077 E4.55922
G1 X57.681 Y42.077 E4.57405
G1 X58.408 Y42.087 E4.60598
G1 X58.953 Y42.149 E4.63006
G1 X59.499 Y42.318 E4.65515
G1 X59.9 Y42.522 E4.6749
G1 X60.889 Y43.216 E4.72795
G1 X61.435 Y43.613 E4.75759
G1 X62.115 Y44.122 E4.79488
G1 X62.51 Y44.497 E4.81879
G1 X62.798 Y44.883 E4.83993
G1 X63.438 Y45.971 E4.89535
G1 X64.885 Y48.351 E5.01764
G1 X66.4 Y50.689 E5.13995
G1 X67.509 Y52.313 E5.22629
G1 X68.246 Y53.369 E5.28282
G1 X68.296 Y53.443 E5.28675
G1 X68.602 Y53.93 E5.312
G1 X68.83 Y54.34 E5.33259
G1 X69.087 Y54.863 E5.35818
G1 X69.263 Y55.271 E5.37768
G1 X69.478 Y55.856 E5.40505
G1 X69.612 Y56.299 E5.42537
G1 X69.747 Y56.835 E5.44963
G1 X69.836 Y57.285 E5.46977
G1 X69.921 Y57.869 E5.49568
G1 X69.962 Y58.323 E5.5157
G1 X69.984 Y58.914 E5.54166
G1 X69.979 Y59.35 E5.5608
G1 X69.937 Y59.983 E5.58866
G1 X69.88 Y60.437 E5.60875
G1 X69.779 Y61.014 E5.63446
G1 X69.684 Y61.432 E5.65328
G1 X69.52 Y62.017 E5.67996
G1 X69.37 Y62.447 E5.69995
G1 X69.122 Y63.065 E5.72919
G1 X68.966 Y63.395 E5.74521
G1 X68.692 Y63.915 E5.77102
G1 X68.328 Y64.511 E5.80168
G1 X68.037 Y64.969 E5.8255
G1 X68.039 Y64.97 E5.8256
G1 X67.19 Y66.284 E5.89428
G1 X65.746 Y68.666 E6.01657
G1 X64.372 Y71.089 E6.13887
G1 X63.423 Y72.883 E6.22797
G1 X63.121 Y73.438 E6.25571
G1 X62.838 Y73.857 E6.27791
G1 X62.486 Y74.227 E6.30033
G1 X62.421 Y74.283 E6.3041
G1 X61.653 Y74.861 E6.3463
G1 X61.352 Y75.08 E6.36264
G1 X60.692 Y75.546 E6.39811
G1 X60.178 Y75.826 E6.42381
G1 X59.619 Y75.999 E6.4495
G1 X59.252 Y76.052 E6.46578
G1 X58.168 Y76.071 E6.51338
G1 X57.834 Y76.071 E6.52804
G1 X57.107 Y76.061 E6.55996
G1 X56.557 Y75.998 E6.58426
G1 X56.016 Y75.83 E6.60914
G1 X55.609 Y75.622 E6.6292
G1 X54.706 Y74.989 E6.67762
G1 X54.453 Y74.804 E6.69138
G1 X53.833 Y74.339 E6.7254
G1 X53.463 Y73.996 E6.74755
G1 X53.113 Y73.525 E6.77332
G1 X52.902 Y73.101 E6.79411
G1 X52.58 Y72.165 E6.83757
G1 X52.463 Y71.805 E6.85418
G1 X52.233 Y71.064 E6.88825
G1 X52.16 Y70.747 E6.90253
G1 X51.955 Y69.472 E6.95923
G1 X51.473 Y66.729 E7.0815
G1 X50.913 Y64 E7.20381
G1 X50.245 Y61.177 E7.33117
G1 X50.148 Y60.678 E7.35349
G1 X50.07 Y60.128 E7.37787
G1 X50.028 Y59.646 E7.39912
G1 X50.007 Y59.101 E7.42306
G1 X50.018 Y58.517 E7.44871
G1 X50.054 Y58.01 E7.47102
G1 X50.103 Y57.606 E7.48889
G1 X50.421 Y55.775 E7.57048
G1 X50.858 Y53.024 E7.69277
G1 X51.216 Y50.262 E7.81505
G1 X51.415 Y48.378 E7.89822
G1 X51.493 Y47.562 E7.93421
G1 X51.556 Y47.201 E7.9503
G1 X51.879 Y46.146 E7.99874
G1 X51.989 Y45.808 E8.01434
G1 X52.212 Y45.157 E8.04455
G1 X52.409 Y44.735 E8.065
G0 F810 X52.45 Y44.646
G0 X52.781 Y44.186
G0 F900 X55.201 Y46.28
G1 X56.58 Y45.277 E8.13986
G1 X58.28 Y45.277 E8.2145
G1 X59.659 Y46.28 E8.28936
G1 X60.186 Y47.897 E8.36403
G1 X59.659 Y49.516 E8.43878
G1 X58.099 Y50.688 E8.52445
G1 X56.589 Y50.524 E8.59113
G1 X55.201 Y49.514 E8.66649
G1 X54.674 Y47.897 E8.74116
G1 X54.995 Y46.912 E8.78664
G0 F810 X55.201 Y46.28
G0 F900 X55.542 Y46.526
G1 X56.709 Y45.677 E8.85
G1 X58.151 Y45.677 E8.91331
G1 X59.318 Y46.526 E8.97667
G1 X59.764 Y47.897 E9.03997
G1 X59.317 Y49.272 E9.10344
G1 X57.984 Y50.274 E9.17666
G1 X56.738 Y50.138 E9.23169
G1 X55.542 Y49.268 E9.29662
G1 X55.096 Y47.897 E9.35991
G1 X55.337 Y47.158 E9.39404
G0 F810 X55.542 Y46.526
G0 F900 X55.882 Y46.774
G1 X56.839 Y46.077 E9.44602
G1 X58.021 Y46.077 E9.49791
G1 X58.978 Y46.774 E9.54989
G1 X59.344 Y47.897 E9.60174
G1 X58.975 Y49.029 E9.65402
G1 X57.871 Y49.859 E9.71466
G1 X56.888 Y49.752 E9.75807
G1 X55.882 Y49.02 E9.81269
G1 X55.516 Y47.897 E9.86455
G1 X55.676 Y47.406 E9.88722
G0 F810 X55.882 Y46.774
G0 F900 X56.222 Y47.021
G1 X56.97 Y46.477 E9.92782
G1 X57.89 Y46.477 E9.96822
G1 X58.638 Y47.021 E10.00882
G1 X58.924 Y47.897 E10.04928
G1 X58.635 Y48.785 E10.09028
G1 X57.758 Y49.444 E10.13844
G1 X57.036 Y49.365 E10.17033
G1 X56.222 Y48.773 E10.21452
G1 X55.936 Y47.897 E10.25497
G1 X56.031 Y47.608 E10.26833
G0 F810 X56.222 Y47.021
G0 F900 X56.562 Y47.269
G1 X57.1 Y46.877 E10.29755
G1 X57.76 Y46.877 E10.32653
G1 X58.298 Y47.269 E10.35576
G1 X58.503 Y47.897 E10.38476
G1 X58.293 Y48.54 E10.41446
G1 X57.642 Y49.03 E10.45023
G1 X57.187 Y48.98 E10.47032
G1 X56.562 Y48.525 E10.50427
G1 X56.357 Y47.897 E10.53327
G1 X56.424 Y47.692 E10.54274
G0 F810 X56.562 Y47.269
G0 F900 X56.902 Y47.515
G1 X57.229 Y47.277 E10.56049
G1 X57.631 Y47.277 E10.57814
G1 X57.958 Y47.515 E10.5959
G1 X58.082 Y47.897 E10.61353
G1 X57.952 Y48.297 E10.632
G1 X57.53 Y48.615 E10.6552
G1 X57.335 Y48.594 E10.66381
G1 X56.902 Y48.279 E10.68732
G1 X56.778 Y47.897 E10.70495
G1 X56.818 Y47.774 E10.71063
G0 F810 X56.902 Y47.515
G0 F900 X57.242 Y47.763
G1 X57.36 Y47.677 E10.71704
G1 X57.5 Y47.677 E10.72318
G1 X57.618 Y47.763 E10.72959
G1 X57.662 Y47.897 E10.73579
G1 X57.611 Y48.052 E10.74295
G1 X57.444 Y48.178 E10.75213
G1 X57.242 Y48.031 E10.7631
G1 X57.198 Y47.897 E10.76929
G1 X57.212 Y47.856 E10.7712
G0 F810 X57.242 Y47.763
G0 F900 X59.31 Y56.645
G1 X60.446 Y56.645 E10.82107
G1 X61.508 Y57.643 E10.88505
G1 X61.947 Y59.571 E10.97187
G1 X61.55 Y60.791 E11.02819
G1 X60.516 Y61.544 E11.08435
G1 X59.242 Y61.544 E11.14028
G1 X58.229 Y60.806 E11.19531
G1 X58.011 Y58.443 E11.29949
G1 X58.375 Y57.325 E11.35111
G1 X58.773 Y57.036 E11.37271
G0 F810 X59.31 Y56.645
G0 F900 X59.439 Y57.045
G1 X60.288 Y57.045 E11.40998
G1 X61.145 Y57.851 E11.46163
G1 X61.532 Y59.551 E11.53818
G1 X61.209 Y60.545 E11.58406
G1 X60.387 Y61.144 E11.62872
G1 X59.371 Y61.144 E11.67332
G1 X58.61 Y60.59 E11.71465
G1 X58.417 Y58.491 E11.80719
G1 X58.716 Y57.571 E11.84966
G1 X58.902 Y57.436 E11.85975
G0 F810 X59.439 Y57.045
G0 F900 X59.57 Y57.445
G1 X60.13 Y57.445 E11.88434
G1 X60.782 Y58.058 E11.92363
G1 X61.118 Y59.533 E11.99004
G1 X60.869 Y60.298 E12.02536
G1 X60.257 Y60.744 E12.05861
G1 X59.501 Y60.744 E12.0918
G1 X58.993 Y60.373 E12.11942
G1 X58.823 Y58.534 E12.2005
G1 X59.056 Y57.819 E12.23352
G1 X59.057 Y57.818 E12.23358
G0 F810 X59.57 Y57.445
G0 F900 X59.7 Y57.845
G1 X59.971 Y57.845 E12.24548
G1 X60.419 Y58.266 E12.27247
G1 X60.703 Y59.515 E12.3287
G1 X60.529 Y60.05 E12.3534
G1 X60.126 Y60.344 E12.3753
G1 X59.632 Y60.344 E12.39699
G1 X59.374 Y60.156 E12.41101
G1 X59.229 Y58.579 E12.48053
G1 X59.37 Y58.148 E12.50044
G0 F810 X59.396 Y58.066
G0 X59.7 Y57.845
G0 F900 X59.82 Y58.252
G1 X60.056 Y58.474 E12.51467
G1 X60.289 Y59.496 E12.56069
G1 X60.189 Y59.803 E12.57486
G1 X59.996 Y59.944 E12.58536
G1 X59.755 Y59.939 E12.59594
G1 X59.634 Y58.626 E12.65383
G1 X59.686 Y58.468 E12.66113
G0 F810 X59.737 Y58.312
G0 X59.82 Y58.252
G0 F900 X57.46 Y67.387
G1 X58.912 Y67.387 E12.72488
G1 X60.336 Y68.594 E12.80684
G1 X60.869 Y70.231 E12.88242
G1 X60.338 Y71.86 E12.95764
G1 X58.949 Y72.871 E13.03307
G1 X57.235 Y72.871 E13.10832
G1 X55.846 Y71.86 E13.18374
G1 X55.32 Y70.245 E13.25831
G1 X56.263 Y68.257 E13.35491
G1 X56.922 Y67.778 E13.39068
G0 F810 X57.46 Y67.387
G0 F900 X57.589 Y67.787
G1 X58.765 Y67.787 E13.44231
G1 X59.991 Y68.827 E13.51289
G1 X60.448 Y70.231 E13.57772
G1 X59.998 Y71.613 E13.64153
G1 X58.82 Y72.471 E13.70551
G1 X57.364 Y72.471 E13.76943
G1 X56.186 Y71.613 E13.83342
G1 X55.749 Y70.273 E13.8953
G1 X56.58 Y68.52 E13.98047
G1 X57.051 Y68.177 E14.00605
G0 F810 X57.589 Y67.787
G0 F900 X57.719 Y68.187
G1 X58.618 Y68.187 E14.04552
G1 X59.645 Y69.058 E14.10464
G1 X60.027 Y70.231 E14.1588
G1 X59.657 Y71.367 E14.21125
G1 X58.69 Y72.071 E14.26377
G1 X57.494 Y72.071 E14.31627
G1 X56.527 Y71.367 E14.36879
G1 X56.18 Y70.3 E14.41805
G1 X56.899 Y68.783 E14.49175
G1 X57.181 Y68.578 E14.50706
G0 F810 X57.719 Y68.187
G0 F900 X57.848 Y68.587
G1 X58.471 Y68.587 E14.53441
G1 X59.3 Y69.29 E14.58213
G1 X59.607 Y70.231 E14.62559
G1 X59.317 Y71.119 E14.6666
G1 X58.559 Y71.671 E14.70777
G1 X57.625 Y71.671 E14.74877
G1 X56.867 Y71.119 E14.78994
G1 X56.609 Y70.328 E14.82647
G1 X57.216 Y69.047 E14.8887
G1 X57.32 Y68.971 E14.89436
G0 F810 X57.848 Y68.587
G0 F900 X57.98 Y68.987
G1 X58.325 Y68.987 E14.90951
G1 X58.955 Y69.521 E14.94576
G1 X59.187 Y70.231 E14.97856
G1 X58.978 Y70.872 E15.00816
G1 X58.43 Y71.271 E15.03792
G1 X57.754 Y71.271 E15.0676
G1 X57.206 Y70.872 E15.09736
G1 X57.038 Y70.355 E15.12122
G1 X57.533 Y69.312 E15.17191
G1 X57.59 Y69.27 E15.17502
G0 F810 X57.98 Y68.987
G0 F900 X58.109 Y69.387
G1 X58.178 Y69.387 E15.17805
G1 X58.609 Y69.753 E15.20287
G1 X58.765 Y70.231 E15.22495
G1 X58.637 Y70.624 E15.24309
G1 X58.298 Y70.871 E15.26151
G1 X57.886 Y70.871 E15.2796
G1 X57.547 Y70.624 E15.29801
G1 X57.468 Y70.383 E15.30915
G1 X57.852 Y69.574 E15.34846
G1 X57.859 Y69.569 E15.34884
G0 F810 X58.109 Y69.387
G0 F900 X58.147 Y69.885
G1 X58.265 Y69.985 E15.35563
G1 X58.345 Y70.231 E15.36699
G1 X58.297 Y70.378 E15.37378
G1 X58.169 Y70.471 E15.38072
G1 X58.015 Y70.471 E15.38748
G1 X57.906 Y70.392 E15.39339
G1 X58.103 Y69.978 E15.41352
G0 F810 X58.147 Y69.885
G0 F900 X52.463 Y71.805
G1 X52.233 Y71.064 E15.44759
G1 X52.16 Y70.747 E15.46187
G1 X51.955 Y69.472 E15.51856
G1 X51.473 Y66.729 E15.64084
G1 X50.913 Y64 E15.76315
G1 X50.245 Y61.177 E15.89051
G1 X50.148 Y60.678 E15.91282
G1 X50.07 Y60.128 E15.93721
G1 X50.028 Y59.646 E15.95845
G1 X50.007 Y59.101 E15.9824
G1 X50.018 Y58.517 E16.00804
G1 X50.054 Y58.01 E16.03036
G1 X50.103 Y57.606 E16.04823
G1 X50.421 Y55.775 E16.12982
G1 X50.858 Y53.024 E16.25211
G1 X51.216 Y50.262 E16.37438
G1 X51.415 Y48.378 E16.45756
G1 X51.493 Y47.562 E16.49355
G1 X51.556 Y47.201 E16.50964
G1 X51.879 Y46.146 E16.55808
G1 X51.989 Y45.808 E16.57368
G1 X52.212 Y45.157 E16.60389
G1 X52.45 Y44.646 E16.62864
G1 X52.781 Y44.186 E16.65352
G1 X53.123 Y43.854 E16.67445
G1 X53.916 Y43.257 E16.71803
G1 X54.181 Y43.064 E16.73242
G1 X54.816 Y42.616 E16.76654
G1 X55.254 Y42.365 E16.7887
G1 X55.737 Y42.189 E16.81127
G1 X56.26 Y42.098 E16.83458
G1 X56.29 Y42.095 E16.8359
G1 X57.343 Y42.077 E16.88214
G1 X57.681 Y42.077 E16.89698
G1 X58.408 Y42.087 E16.9289
G1 X58.953 Y42.149 E16.95298
G1 X59.499 Y42.318 E16.97807
G1 X59.9 Y42.522 E16.99783
G1 X60.889 Y43.216 E17.05087
G1 X61.435 Y43.613 E17.08051
G1 X62.115 Y44.122 E17.1178
G1 X62.51 Y44.497 E17.14171
G1 X62.798 Y44.883 E17.16286
G1 X63.438 Y45.971 E17.21827
G1 X64.885 Y48.351 E17.34056
G1 X66.4 Y50.689 E17.46287
G1 X67.509 Y52.313 E17.54921
G1 X68.246 Y53.369 E17.60575
G1 X68.296 Y53.443 E17.60967
G1 X68.602 Y53.93 E17.63492
G1 X68.83 Y54.34 E17.65552
G1 X69.087 Y54.863 E17.6811
G1 X69.263 Y55.271 E17.70061
G1 X69.478 Y55.856 E17.72797
G1 X69.612 Y56.299 E17.74829
G1 X69.747 Y56.835 E17.77256
G1 X69.836 Y57.285 E17.7927
G1 X69.921 Y57.869 E17.81861
G1 X69.962 Y58.323 E17.83862
G1 X69.984 Y58.914 E17.86458
G1 X69.979 Y59.35 E17.88373
G1 X69.937 Y59.983 E17.91158
G1 X69.88 Y60.437 E17.93167
G1 X69.779 Y61.014 E17.95739
G1 X69.684 Y61.432 E17.97621
G1 X69.52 Y62.017 E18.00288
G1 X69.37 Y62.447 E18.02287
G1 X69.122 Y63.065 E18.05211
G1 X68.966 Y63.395 E18.06813
G1 X68.692 Y63.915 E18.09394
G1 X68.328 Y64.511 E18.1246
G1 X68.037 Y64.969 E18.14842
G1 X68.039 Y64.97 E18.14852
G1 X67.19 Y66.284 E18.2172
G1 X65.746 Y68.666 E18.3395
G1 X64.372 Y71.089 E18.46179
G1 X63.423 Y72.883 E18.55089
G1 X63.121 Y73.438 E18.57863
G1 X62.838 Y73.857 E18.60083
G1 X62.486 Y74.227 E18.62325
G1 X62.421 Y74.283 E18.62702
G1 X61.653 Y74.861 E18.66922
G1 X61.352 Y75.08 E18.68556
G1 X60.692 Y75.546 E18.72103
G1 X60.178 Y75.826 E18.74673
G1 X59.619 Y75.999 E18.77242
G1 X59.252 Y76.052 E18.7887
G1 X58.168 Y76.071 E18.8363
G1 X57.834 Y76.071 E18.85096
G1 X57.107 Y76.061 E18.88288
G1 X56.557 Y75.998 E18.90719
G1 X56.016 Y75.83 E18.93206
G1 X55.609 Y75.622 E18.95212
G1 X54.706 Y74.989 E19.00054
G1 X54.453 Y74.804 E19.0143
G1 X53.833 Y74.339 E19.04833
G1 X53.463 Y73.996 E19.07048
G1 X53.113 Y73.525 E19.09624
G1 X52.902 Y73.101 E19.11703
G1 X52.673 Y72.436 E19.14791
G0 F810 X52.58 Y72.165
G0 X52.463 Y71.805
G1 F1500 E14.14791
;MESH:Winkel.stl
G0 F900 X58.331 Y66.479
G0 X58.663 Y65.239
G0 X62.764 Y62.923
G0 X62.707 Y62.842
;TYPE:WALL-INNER
G1 F1500 E19.85469
G1 F900 X63.205 Y62.435 E19.88292
G1 X63.643 Y61.966 E19.9111
G1 X64.011 Y61.442 E19.93921
G1 X64.308 Y60.874 E19.96735
G1 X64.522 Y60.268 E19.99557
G1 X64.653 Y59.639 E20.02377
G1 X64.696 Y59 E20.05189
G1 X64.653 Y58.361 E20.08001
G1 X64.522 Y57.732 E20.10822
G1 X64.308 Y57.127 E20.13639
G1 X64.012 Y56.558 E20.16455
G1 X63.643 Y56.034 E20.19269
G1 X63.205 Y55.565 E20.22086
G1 X62.707 Y55.158 E20.2491
