;FLAVOR:Marlin
;TIME:12450
;Filament used: 6.486m
;Layer height: 0.12
;MINX:2.798
;MINY:3.765
;MINZ:0.24
;MAXX:95.496
;MAXY:117.197
;MAXZ:27.24
;Generated with Cura_SteamEngine 4.8.0
M104 S210
M105
M109 S210
M82 ;absolute extrusion mode
;Sliced at: Sun 10-01-2021 13:47:54
G21 ;metric values
G90 ;absolute positioning
M82 ;set extruder to absolute mode
M107 ;start with the fan off
G1 Z5.0 F1800 ;move Z to 5mm
G28 X0 Y0 F1800 ;move X/Y to min endstops
G28 Z0 ;move Z to min endstop
G92 E0 ;zero the extruded length
G1 F200 E6.0 ;extrude 6.0mm of feed stock to build pressure
G1 Z5.0 F300 ;move the platform down 5mm
G92 E0 ;zero the extruded length again
G1 F1800
;Put printing message on LCD screen
M117 Printing...
G92 E0
G92 E0
G1 F1500 E-5
;LAYER_COUNT:226
;LAYER:0
M107
G0 F900 X66.825 Y6.079 Z0.24
;TYPE:SKIRT
G1 F1500 E0.70678
G1 F900 X67.45 Y5.479 E0.74136
G1 X67.579 Y5.364 E0.74825
G1 X68.126 Y4.909 E0.77665
G1 X68.598 Y4.588 E0.79943
G1 X69.079 Y4.329 E0.82124
G1 X69.65 Y4.099 E0.84581
G1 X70.336 Y3.899 E0.87433
G1 X71.027 Y3.792 E0.90224
G1 X71.58 Y3.765 E0.92433
G1 X72.244 Y3.791 E0.95086
G1 X72.743 Y3.855 E0.97093
G1 X73.278 Y3.977 E0.99284
G1 X73.945 Y4.213 E1.02107
G1 X74.502 Y4.473 E1.04561
G1 X75.054 Y4.819 E1.07161
G1 X75.452 Y5.123 E1.0916
G1 X75.838 Y5.469 E1.11229
G1 X76.267 Y5.877 E1.13592
G1 X92.566 Y22.175 E2.05588
G1 X93.001 Y22.617 E2.08063
G1 X93.425 Y23.073 E2.10548
G1 X93.878 Y23.617 E2.13373
G1 X94.24 Y24.166 E2.15998
G1 X94.493 Y24.654 E2.18192
G1 X94.773 Y25.412 E2.21417
G1 X94.931 Y26.032 E2.23971
G1 X95.012 Y26.795 E2.27033
G1 X95 Y27.622 E2.30334
G1 X94.966 Y27.963 E2.31702
G1 X94.771 Y29.157 E2.36531
G1 X94.737 Y29.339 E2.3727
G1 X94.284 Y32.004 E2.48059
G1 X93.895 Y34.765 E2.59187
G1 X93.584 Y37.536 E2.70316
G1 X93.36 Y40.22 E2.81066
G1 X93.206 Y42.992 E2.92147
G1 X93.132 Y45.73 E3.03079
G1 X93.136 Y48.471 E3.14019
G1 X93.218 Y51.249 E3.25111
G1 X93.373 Y53.931 E3.35833
G1 X93.614 Y56.715 E3.46986
G1 X93.927 Y59.439 E3.5793
G1 X94.322 Y62.187 E3.69011
G1 X94.781 Y64.851 E3.798
G1 X95.109 Y66.522 E3.86597
G1 X95.252 Y67.215 E3.89421
G1 X95.392 Y67.939 E3.92364
G1 X95.467 Y68.551 E3.94825
G1 X95.496 Y69.084 E3.96955
G1 X95.465 Y69.734 E3.99552
G1 X95.375 Y70.318 E4.01911
G1 X95.172 Y71.06 E4.04981
G1 X94.941 Y71.634 E4.07451
G1 X94.562 Y72.308 E4.10537
G1 X94.277 Y72.71 E4.12504
G1 X93.864 Y73.201 E4.15064
G1 X93.763 Y73.313 E4.15666
G1 X93.376 Y73.717 E4.17899
G1 X93.263 Y73.833 E4.18546
G1 X52.23 Y114.866 E6.50154
G1 X51.585 Y115.486 E6.53724
G1 X51.456 Y115.601 E6.54414
G1 X50.909 Y116.056 E6.57254
G1 X50.457 Y116.365 E6.59439
G1 X49.956 Y116.636 E6.61713
G1 X49.385 Y116.866 E6.64169
G1 X48.699 Y117.066 E6.67021
G1 X48.082 Y117.162 E6.69514
G1 X47.751 Y117.188 E6.70839
G1 X47.125 Y117.197 E6.73338
G1 X46.589 Y117.152 E6.75484
G1 X46.057 Y117.061 E6.77639
G1 X45.282 Y116.825 E6.80872
G1 X44.605 Y116.53 E6.83819
G1 X43.991 Y116.151 E6.86699
G1 X43.547 Y115.811 E6.88931
G1 X43.138 Y115.44 E6.91135
G1 X42.733 Y115.054 E6.93368
G1 X5.11 Y77.432 E9.05726
G1 X4.514 Y76.811 E9.09161
G1 X4.399 Y76.682 E9.09851
G1 X3.944 Y76.135 E9.12691
G1 X3.55 Y75.532 E9.15566
G1 X3.23 Y74.871 E9.18497
G1 X3.053 Y74.369 E9.20621
G1 X2.948 Y73.95 E9.22345
G1 X2.84 Y73.31 E9.24936
G1 X2.798 Y72.728 E9.27265
G1 X2.811 Y72.181 E9.29449
G1 X2.879 Y71.596 E9.31799
G1 X3.046 Y70.866 E9.34788
G1 X3.301 Y70.185 E9.3769
G1 X3.54 Y69.709 E9.39816
G1 X3.848 Y69.218 E9.42129
G1 X4.189 Y68.773 E9.44367
G1 X4.573 Y68.348 E9.46653
G1 X5.075 Y67.829 E9.49535
G1 X66.355 Y6.549 E12.95426
G0 F810 X66.825 Y6.079
G0 F900 X67.106 Y6.364
G1 X67.724 Y5.77 E12.98847
G1 X67.835 Y5.672 E12.99438
G1 X68.382 Y5.217 E13.02278
G1 X68.796 Y4.935 E13.04277
G1 X69.258 Y4.686 E13.06372
G1 X69.787 Y4.474 E13.08646
G1 X70.408 Y4.292 E13.11229
G1 X71.081 Y4.189 E13.13947
G1 X71.565 Y4.165 E13.15881
G1 X72.216 Y4.19 E13.18481
G1 X72.719 Y4.259 E13.20507
G1 X73.514 Y4.471 E13.23791
G1 X74.061 Y4.698 E13.26155
G1 X74.56 Y4.976 E13.28435
G1 X75.036 Y5.299 E13.30731
G1 X75.513 Y5.713 E13.33251
G1 X75.986 Y6.162 E13.35854
G1 X92.296 Y22.471 E14.27912
G1 X92.71 Y22.893 E14.30272
G1 X93.117 Y23.329 E14.32652
G1 X93.57 Y23.873 E14.35478
G1 X93.893 Y24.364 E14.37823
G1 X94.137 Y24.836 E14.39944
G1 X94.391 Y25.532 E14.42901
G1 X94.536 Y26.097 E14.45229
G1 X94.613 Y26.827 E14.48159
G1 X94.6 Y27.607 E14.51273
G1 X94.571 Y27.899 E14.52444
G1 X94.378 Y29.084 E14.57236
G1 X94.344 Y29.266 E14.57975
G1 X93.88 Y31.996 E14.69027
G1 X93.499 Y34.701 E14.7993
G1 X93.191 Y37.442 E14.90939
G1 X92.957 Y40.243 E15.02157
G1 X92.806 Y42.96 E15.13018
G1 X92.732 Y45.719 E15.24034
G1 X92.736 Y48.484 E15.35069
G1 X92.818 Y51.248 E15.46106
G1 X92.977 Y54.001 E15.57112
G1 X93.216 Y56.759 E15.68161
G1 X93.526 Y59.46 E15.79012
G1 X93.925 Y62.241 E15.90225
G1 X94.395 Y64.964 E16.01254
G1 X94.684 Y66.438 E16.07249
G1 X94.859 Y67.291 E16.10725
G1 X94.999 Y68.015 E16.13668
G1 X95.069 Y68.593 E16.15991
G1 X95.094 Y69.187 E16.18364
G1 X95.065 Y69.709 E16.20451
G1 X94.986 Y70.228 E16.22546
G1 X94.799 Y70.914 E16.25384
G1 X94.572 Y71.477 E16.27807
G1 X94.222 Y72.099 E16.30656
G1 X93.971 Y72.453 E16.32388
G1 X93.56 Y72.941 E16.34934
G1 X93.473 Y73.037 E16.35451
G1 X92.998 Y73.532 E16.38189
G1 X51.949 Y114.581 E18.69888
G1 X51.31 Y115.195 E18.73425
G1 X51.2 Y115.293 E18.74012
G1 X50.653 Y115.748 E18.76852
G1 X50.177 Y116.065 E18.79135
G1 X49.511 Y116.395 E18.82101
G1 X48.952 Y116.59 E18.84464
G1 X48.43 Y116.709 E18.86601
G1 X47.745 Y116.788 E18.89353
G1 X47.125 Y116.797 E18.91828
G1 X46.521 Y116.737 E18.94251
G1 X45.735 Y116.562 E18.97465
G1 X45.109 Y116.329 E19.00131
G1 X44.53 Y116.021 E19.02748
G1 X43.958 Y115.634 E19.05504
G1 X43.46 Y115.194 E19.08157
G1 X43.015 Y114.77 E19.1061
G1 X5.395 Y77.151 E21.22951
G1 X4.805 Y76.536 E21.26352
G1 X4.707 Y76.426 E21.2694
G1 X4.252 Y75.879 E21.2978
G1 X3.897 Y75.333 E21.32379
G1 X3.607 Y74.737 E21.35025
G1 X3.432 Y74.243 E21.37116
G1 X3.342 Y73.883 E21.38597
G1 X3.234 Y73.243 E21.41188
G1 X3.198 Y72.72 E21.4328
G1 X3.211 Y72.192 E21.45388
G1 X3.272 Y71.671 E21.47482
G1 X3.425 Y70.995 E21.50248
G1 X3.673 Y70.331 E21.53077
G1 X3.983 Y69.749 E21.55709
G1 X4.366 Y69.184 E21.58433
G1 X4.815 Y68.676 E21.61139
G1 X5.194 Y68.278 E21.63333
G1 X66.636 Y6.834 E25.10144
G0 F810 X67.106 Y6.364
G0 F900 X67.386 Y6.65
G1 X67.999 Y6.061 E25.13537
G1 X68.091 Y5.979 E25.14029
G1 X68.638 Y5.524 E25.16868
G1 X69.066 Y5.242 E25.18914
G1 X69.661 Y4.946 E25.21566
G1 X70.209 Y4.755 E25.23883
G1 X70.767 Y4.635 E25.26161
G1 X71.318 Y4.568 E25.28376
G1 X71.55 Y4.564 E25.29302
G1 X72.188 Y4.589 E25.31851
G1 X72.758 Y4.676 E25.34152
G1 X73.366 Y4.843 E25.36668
G1 X73.876 Y5.054 E25.38871
G1 X74.35 Y5.316 E25.41033
G1 X74.785 Y5.61 E25.43128
G1 X75.246 Y6.01 E25.45564
G1 X75.706 Y6.447 E25.48097
G1 X92.011 Y22.752 E26.40129
G1 X92.42 Y23.168 E26.42458
G1 X92.81 Y23.585 E26.44736
G1 X93.263 Y24.129 E26.47562
G1 X93.545 Y24.563 E26.49628
G1 X93.781 Y25.019 E26.51677
G1 X94.009 Y25.651 E26.54358
G1 X94.142 Y26.163 E26.5647
G1 X94.215 Y26.859 E26.59263
G1 X94.201 Y27.591 E26.62185
G1 X94.176 Y27.835 E26.63164
G1 X93.985 Y29.01 E26.67915
G1 X93.957 Y29.16 E26.68524
G1 X93.483 Y31.948 E26.79811
G1 X93.104 Y34.637 E26.9065
G1 X92.789 Y37.447 E27.01935
G1 X92.561 Y40.178 E27.12873
G1 X92.405 Y42.978 E27.24066
G1 X92.332 Y45.694 E27.3491
G1 X92.336 Y48.497 E27.46098
G1 X92.417 Y51.235 E27.5703
G1 X92.578 Y54.023 E27.68176
G1 X92.819 Y56.807 E27.79329
G1 X93.133 Y59.537 E27.90297
G1 X93.529 Y62.294 E28.01414
G1 X93.996 Y65.004 E28.1239
G1 X94.326 Y66.684 E28.19223
G1 X94.467 Y67.367 E28.22007
G1 X94.607 Y68.091 E28.2495
G1 X94.671 Y68.634 E28.27132
G1 X94.694 Y69.17 E28.29273
G1 X94.666 Y69.684 E28.31328
G1 X94.512 Y70.495 E28.34622
G1 X94.283 Y71.135 E28.37335
G1 X94.067 Y71.587 E28.39335
G1 X93.664 Y72.195 E28.42246
G1 X93.257 Y72.681 E28.44776
G1 X93.184 Y72.76 E28.45206
G1 X92.712 Y73.252 E28.47927
G1 X51.668 Y114.297 E30.796
G1 X51.036 Y114.904 E30.83097
G1 X50.944 Y114.986 E30.83589
G1 X50.397 Y115.441 E30.86429
G1 X49.978 Y115.718 E30.88433
G1 X49.374 Y116.019 E30.91127
G1 X48.826 Y116.21 E30.93443
G1 X48.269 Y116.33 E30.95717
G1 X47.738 Y116.388 E30.97849
G1 X47.125 Y116.397 E31.00296
G1 X46.591 Y116.343 E31.02438
G1 X45.87 Y116.186 E31.05383
G1 X45.255 Y115.956 E31.08004
G1 X44.737 Y115.679 E31.10348
G1 X44.213 Y115.325 E31.12872
G1 X43.729 Y114.897 E31.15451
G1 X43.296 Y114.486 E31.17834
G1 X5.68 Y76.87 E33.30155
G1 X5.096 Y76.262 E33.3352
G1 X5.014 Y76.17 E33.34011
G1 X4.559 Y75.623 E33.36851
G1 X4.243 Y75.133 E33.39178
G1 X3.983 Y74.602 E33.41538
G1 X3.812 Y74.116 E33.43594
G1 X3.737 Y73.817 E33.44825
G1 X3.629 Y73.177 E33.47415
G1 X3.599 Y72.618 E33.49649
G1 X3.63 Y71.979 E33.52203
G1 X3.732 Y71.394 E33.54573
G1 X3.902 Y70.841 E33.56882
G1 X4.165 Y70.226 E33.59552
G1 X4.521 Y69.65 E33.62254
G1 X5.112 Y68.944 E33.65929
G1 X5.478 Y68.559 E33.68049
G1 X66.916 Y7.12 E37.14835
G0 F810 X67.386 Y6.65
G0 F900 X67.667 Y6.935
G1 X68.273 Y6.352 E37.18191
G1 X68.347 Y6.287 E37.18584
G1 X68.894 Y5.832 E37.21424
G1 X69.577 Y5.422 E37.24603
G1 X70.061 Y5.226 E37.26687
G1 X70.551 Y5.079 E37.28729
G1 X71.189 Y4.982 E37.31305
G1 X71.536 Y4.964 E37.32692
G1 X72.16 Y4.988 E37.35184
G1 X72.674 Y5.067 E37.3726
G1 X73.217 Y5.214 E37.39505
G1 X73.741 Y5.431 E37.41768
G1 X74.399 Y5.825 E37.44829
G1 X74.978 Y6.307 E37.47836
G1 X75.425 Y6.732 E37.50298
G1 X91.726 Y23.032 E38.42305
G1 X92.13 Y23.443 E38.44605
G1 X92.503 Y23.841 E38.46782
G1 X92.956 Y24.385 E38.49608
G1 X93.233 Y24.826 E38.51686
G1 X93.528 Y25.453 E38.54452
G1 X93.709 Y26.058 E38.56972
G1 X93.791 Y26.578 E38.59074
G1 X93.82 Y27.079 E38.61076
G1 X93.781 Y27.771 E38.63843
G1 X93.592 Y28.937 E38.68557
G1 X93.558 Y29.119 E38.69296
G1 X93.092 Y31.858 E38.80385
G1 X92.706 Y34.592 E38.91405
G1 X92.391 Y37.402 E39.02691
G1 X92.163 Y40.132 E39.13625
G1 X92.006 Y42.956 E39.24914
G1 X91.932 Y45.692 E39.35838
G1 X91.936 Y48.508 E39.47077
G1 X92.018 Y51.283 E39.58157
G1 X92.177 Y54.035 E39.69159
G1 X92.417 Y56.808 E39.80268
G1 X92.739 Y59.607 E39.91514
G1 X93.132 Y62.348 E40.02565
G1 X93.61 Y65.116 E40.13777
G1 X93.934 Y66.765 E40.20484
G1 X94.074 Y67.443 E40.23247
G1 X94.214 Y68.167 E40.2619
G1 X94.273 Y68.676 E40.28235
G1 X94.287 Y69.339 E40.30882
G1 X94.244 Y69.846 E40.32913
G1 X94.122 Y70.403 E40.35189
G1 X93.91 Y70.988 E40.37672
G1 X93.726 Y71.377 E40.3939
G1 X93.358 Y71.938 E40.42068
G1 X92.953 Y72.42 E40.4458
G1 X92.895 Y72.484 E40.44925
G1 X92.518 Y72.878 E40.47101
G1 X51.387 Y114.012 E42.79271
G1 X50.762 Y114.613 E42.82732
G1 X50.688 Y114.678 E42.83125
G1 X50.141 Y115.133 E42.85965
G1 X49.458 Y115.543 E42.89144
G1 X48.974 Y115.739 E42.91228
G1 X48.484 Y115.886 E42.9327
G1 X47.921 Y115.973 E42.95544
G1 X47.731 Y115.988 E42.96304
G1 X47.125 Y115.997 E42.98723
G1 X46.267 Y115.879 E43.0218
G1 X45.689 Y115.696 E43.046
G1 X45.196 Y115.486 E43.06739
G1 X44.64 Y115.142 E43.09348
G1 X43.997 Y114.601 E43.12702
G1 X43.578 Y114.202 E43.15011
G1 X5.964 Y76.589 E45.27318
G1 X5.387 Y75.988 E45.30643
G1 X5.322 Y75.914 E45.31036
G1 X4.867 Y75.367 E45.33876
G1 X4.59 Y74.934 E45.35928
G1 X4.36 Y74.467 E45.38005
G1 X4.191 Y73.99 E45.40025
G1 X4.131 Y73.75 E45.41013
G1 X4.023 Y73.11 E45.43603
G1 X4.011 Y72.216 E45.47172
G1 X4.125 Y71.469 E45.50188
G1 X4.274 Y70.988 E45.52197
G1 X4.514 Y70.423 E45.54647
G1 X4.858 Y69.866 E45.5726
G1 X5.409 Y69.211 E45.60676
G1 X5.763 Y68.84 E45.62723
G1 X67.197 Y7.405 E49.09486
G0 F810 X67.667 Y6.935
G0 F900 X67.947 Y7.22
G1 X68.547 Y6.644 E49.12806
G1 X68.603 Y6.594 E49.13105
G1 X69.15 Y6.139 E49.15945
G1 X69.765 Y5.775 E49.18797
G1 X70.232 Y5.59 E49.20802
G1 X70.82 Y5.437 E49.23227
G1 X71.357 Y5.367 E49.25389
G1 X71.521 Y5.364 E49.26043
G1 X72.133 Y5.387 E49.28488
G1 X72.904 Y5.533 E49.31619
G1 X73.387 Y5.713 E49.33677
G1 X73.931 Y5.997 E49.36126
G1 X74.433 Y6.357 E49.38592
G1 X74.735 Y6.628 E49.40211
G1 X75.144 Y7.017 E49.42464
G1 X75.285 Y7.155 E49.43251
G1 X91.441 Y23.313 E50.34448
G1 X91.839 Y23.718 E50.36715
G1 X92.195 Y24.097 E50.3879
G1 X92.648 Y24.641 E50.41616
G1 X93.069 Y25.383 E50.45021
G1 X93.245 Y25.889 E50.47159
G1 X93.377 Y26.465 E50.49517
G1 X93.42 Y27.064 E50.51914
G1 X93.387 Y27.707 E50.54484
G1 X93.199 Y28.863 E50.59158
G1 X93.165 Y29.045 E50.59897
G1 X92.694 Y31.814 E50.71108
G1 X92.309 Y34.548 E50.82127
G1 X91.994 Y37.358 E50.93413
G1 X91.761 Y40.143 E51.04567
G1 X91.608 Y42.899 E51.15584
G1 X91.532 Y45.726 E51.26871
G1 X91.536 Y48.521 E51.38027
G1 X91.618 Y51.281 E51.49047
G1 X91.779 Y54.069 E51.60193
G1 X92.023 Y56.887 E51.71483
G1 X92.338 Y59.63 E51.82503
G1 X92.735 Y62.397 E51.93659
G1 X93.215 Y65.18 E52.04931
G1 X93.542 Y66.846 E52.11707
G1 X93.681 Y67.519 E52.1445
G1 X93.821 Y68.243 E52.17393
G1 X93.879 Y68.759 E52.19466
G1 X93.887 Y69.322 E52.21713
G1 X93.828 Y69.902 E52.2404
G1 X93.682 Y70.475 E52.264
G1 X93.468 Y71.008 E52.28692
G1 X93.2 Y71.469 E52.3082
G1 X93.052 Y71.681 E52.31852
G1 X92.649 Y72.16 E52.34351
G1 X92.606 Y72.208 E52.34608
G1 X92.233 Y72.598 E52.36762
G1 X92.132 Y72.702 E52.3734
G1 X51.105 Y113.728 E54.68912
G1 X50.488 Y114.322 E54.7233
G1 X50.432 Y114.371 E54.72627
G1 X49.885 Y114.826 E54.75467
G1 X49.269 Y115.19 E54.78323
G1 X48.803 Y115.375 E54.80324
G1 X48.215 Y115.528 E54.82749
G1 X47.725 Y115.588 E54.84719
G1 X47.125 Y115.597 E54.87114
G1 X46.337 Y115.485 E54.90291
G1 X45.824 Y115.319 E54.92443
G1 X45.333 Y115.104 E54.94582
G1 X44.856 Y114.805 E54.96829
G1 X44.265 Y114.304 E54.99921
G1 X43.859 Y113.918 E55.02157
G1 X6.249 Y76.308 E57.14444
G1 X5.678 Y75.714 E57.17733
G1 X5.629 Y75.658 E57.1803
G1 X5.174 Y75.111 E57.2087
G1 X4.806 Y74.49 E57.23751
G1 X4.602 Y73.958 E57.26025
G1 X4.526 Y73.684 E57.2716
G1 X4.418 Y73.044 E57.2975
G1 X4.411 Y72.227 E57.33011
G1 X4.518 Y71.544 E57.3577
G1 X4.79 Y70.771 E57.39041
G1 X5.194 Y70.082 E57.42229
G1 X5.706 Y69.479 E57.45386
G1 X6.213 Y68.954 E57.48299
G1 X67.477 Y7.69 E60.94099
G0 F810 X67.947 Y7.22
G0 F900 X68.228 Y7.505
G1 X68.821 Y6.935 E60.97382
G1 X68.858 Y6.902 E60.9758
G1 X69.405 Y6.447 E61.0042
G1 X69.954 Y6.127 E61.02956
G1 X70.587 Y5.894 E61.05648
G1 X71.296 Y5.774 E61.08518
G1 X71.506 Y5.764 E61.09357
G1 X72.105 Y5.786 E61.1175
G1 X72.811 Y5.922 E61.14619
G1 X73.422 Y6.165 E61.17244
G1 X73.963 Y6.495 E61.19773
G1 X74.443 Y6.902 E61.22285
G1 X74.863 Y7.302 E61.246
G1 X75.002 Y7.438 E61.25376
G1 X91.156 Y23.594 E62.16562
G1 X91.549 Y23.993 E62.18797
G1 X91.888 Y24.353 E62.20771
G1 X92.341 Y24.897 E62.23596
G1 X92.713 Y25.565 E62.26648
G1 X92.939 Y26.275 E62.29622
G1 X93.018 Y26.954 E62.3235
G1 X93.001 Y27.546 E62.34714
G1 X92.992 Y27.643 E62.35102
G1 X92.805 Y28.79 E62.39741
G1 X92.774 Y28.959 E62.40427
G1 X92.3 Y31.747 E62.51714
G1 X91.908 Y34.526 E62.62915
G1 X91.596 Y37.313 E62.74108
G1 X91.364 Y40.087 E62.85218
G1 X91.207 Y42.911 E62.96507
G1 X91.132 Y45.715 E63.07702
G1 X91.136 Y48.499 E63.18814
G1 X91.219 Y51.304 E63.30014
G1 X91.382 Y54.127 E63.413
G1 X91.622 Y56.9 E63.52409
G1 X91.942 Y59.687 E63.63606
G1 X92.344 Y62.487 E63.74896
G1 X92.818 Y65.234 E63.86022
G1 X93.15 Y66.929 E63.92915
G1 X93.288 Y67.595 E63.9563
G1 X93.428 Y68.319 E63.98573
G1 X93.493 Y68.972 E64.01192
G1 X93.468 Y69.61 E64.03741
G1 X93.344 Y70.22 E64.06225
G1 X93.166 Y70.696 E64.08253
G1 X92.859 Y71.26 E64.10816
G1 X92.746 Y71.424 E64.11611
G1 X92.345 Y71.9 E64.14095
G1 X91.947 Y72.319 E64.16402
G1 X50.828 Y113.44 E66.48501
G1 X50.213 Y114.03 E66.51902
G1 X50.177 Y114.063 E66.52097
G1 X49.63 Y114.518 E66.54937
G1 X49.081 Y114.838 E66.57473
G1 X48.448 Y115.071 E66.60165
G1 X47.813 Y115.181 E66.62738
G1 X47.718 Y115.188 E66.63118
G1 X47.125 Y115.197 E66.65485
G1 X46.407 Y115.092 E66.68381
G1 X45.693 Y114.839 E66.71404
G1 X45.072 Y114.469 E66.74289
G1 X44.533 Y114.007 E66.77123
G1 X44.141 Y113.633 E66.79285
G1 X6.537 Y76.031 E68.91533
G1 X5.97 Y75.439 E68.94805
G1 X5.937 Y75.403 E68.95
G1 X5.482 Y74.856 E68.97839
G1 X5.159 Y74.302 E69.00399
G1 X4.979 Y73.823 E69.02441
G1 X4.92 Y73.617 E69.03296
G1 X4.812 Y72.977 E69.05887
G1 X4.81 Y72.239 E69.08832
G1 X4.838 Y72.009 E69.09757
G1 X4.94 Y71.51 E69.1179
G1 X5.162 Y70.918 E69.14313
