;FLAVOR:Marlin
;TIME:3337
;Filament used: 1.79019m
;Layer height: 0.12
;MINX:30.788
;MINY:44.121
;MINZ:0.24
;MAXX:94.471
;MAXY:67.691
;MAXZ:27.96
;Generated with Cura_SteamEngine 4.8.0
M104 S210
M105
M109 S210
M82 ;absolute extrusion mode
;Sliced at: Mon 18-01-2021 20:17:33
G21 ;metric values
G90 ;absolute positioning
M82 ;set extruder to absolute mode
M107 ;start with the fan off
G1 Z5.0 F1800 ;move Z to 5mm
G28 X0 Y0 F1800 ;move X/Y to min endstops
G28 Z0 ;move Z to min endstop
G92 E0 ;zero the extruded length
G1 F200 E6.0 ;extrude 6.0mm of feed stock to build pressure
G1 Z5.0 F300 ;move the platform down 5mm
G92 E0 ;zero the extruded length again
G1 F1800
;Put printing message on LCD screen
M117 Printing...
G92 E0
G92 E0
G1 F1500 E-5
;LAYER_COUNT:207
;LAYER:0
M107
G0 F900 X37.767 Y49.306 Z0.24
;TYPE:SKIRT
G1 F1500 E0.70678
G1 F900 X35.512 Y50.961 E0.81842
G1 X34.289 Y51.806 E0.87775
G1 X33.701 Y52.224 E0.90654
G1 X33.269 Y52.621 E0.92996
G1 X33.013 Y52.969 E0.9472
G1 X32.774 Y53.467 E0.96925
G1 X31.967 Y55.94 E1.07307
G1 X31.577 Y57.082 E1.12124
G1 X31.256 Y58.131 E1.16502
G1 X31.19 Y58.737 E1.18935
G1 X31.237 Y59.219 E1.20868
G1 X31.551 Y60.659 E1.26751
G1 X31.707 Y61.294 E1.2936
G1 X31.872 Y61.7 E1.31109
G1 X32.149 Y62.133 E1.33161
G1 X32.513 Y62.51 E1.35253
G1 X32.936 Y62.803 E1.37306
G1 X33.501 Y63.106 E1.39865
G1 X34.122 Y63.412 E1.42628
G1 X34.738 Y63.685 E1.45318
G1 X35.214 Y63.872 E1.47359
G1 X36.066 Y64.156 E1.50943
G1 X36.672 Y64.331 E1.53461
G1 X38.53 Y64.692 E1.61015
G1 X38.529 Y64.698 E1.61039
G1 X39.122 Y64.81 E1.63448
G1 X39.793 Y64.925 E1.66165
G1 X40.291 Y64.918 E1.68153
G1 X43.057 Y64.733 E1.79217
G1 X43.515 Y64.709 E1.81048
G1 X45.194 Y64.597 E1.87764
G1 X47.99 Y64.493 E1.98931
G1 X50.786 Y64.47 E2.10091
G1 X53.583 Y64.526 E2.21257
G1 X56.377 Y64.664 E2.32422
G1 X59.166 Y64.881 E2.43587
G1 X59.582 Y64.925 E2.45256
G1 X61.631 Y65.118 E2.53471
G1 X64.49 Y65.354 E2.6492
G1 X67.266 Y65.665 E2.76069
G1 X68.159 Y65.777 E2.79661
G1 X68.853 Y65.84 E2.82443
G1 X71.583 Y66.065 E2.93376
G1 X74.361 Y66.373 E3.04531
G1 X75.295 Y66.49 E3.08288
G1 X75.92 Y66.55 E3.10794
G1 X78.552 Y66.765 E3.21334
G1 X81.329 Y67.068 E3.32483
G1 X82.484 Y67.211 E3.37128
G1 X83.051 Y67.265 E3.39402
G1 X83.668 Y67.29 E3.41866
G1 X84.777 Y67.241 E3.46297
G1 X87.999 Y67.15 E3.59162
G1 X90.02 Y67.155 E3.67228
G1 X90.775 Y67.123 E3.70244
G1 X91.217 Y67.023 E3.72053
G1 X91.862 Y66.809 E3.74765
G1 X92.447 Y66.556 E3.77309
G1 X92.868 Y66.255 E3.79374
G1 X93.22 Y65.875 E3.81442
G1 X93.453 Y65.506 E3.83184
G1 X93.621 Y65.104 E3.84923
G1 X93.732 Y64.587 E3.87033
G1 X93.872 Y63.191 E3.92633
G1 X93.983 Y61.94 E3.97645
G1 X94.063 Y61.192 E4.00648
G1 X94.053 Y60.63 E4.02891
G1 X93.937 Y60.121 E4.04975
G1 X93.75 Y59.697 E4.06824
G1 X93.508 Y59.335 E4.08562
G1 X93.207 Y59.016 E4.10313
G1 X92.845 Y58.746 E4.12115
G1 X92.453 Y58.547 E4.1387
G1 X92.017 Y58.413 E4.1569
G1 X91.349 Y58.275 E4.18413
G1 X89.551 Y58.052 E4.25644
G1 X86.785 Y57.641 E4.36805
G1 X85.06 Y57.333 E4.43799
G1 X84.231 Y57.197 E4.47152
G1 X83.627 Y57.11 E4.49587
G1 X80.869 Y56.654 E4.60744
G1 X78.124 Y56.117 E4.71908
G1 X75.394 Y55.502 E4.83077
G1 X72.685 Y54.809 E4.94237
G1 X69.996 Y54.039 E5.05401
G1 X67.33 Y53.191 E5.16567
G1 X64.69 Y52.268 E5.27729
G1 X62.078 Y51.269 E5.38891
G1 X59.495 Y50.195 E5.50056
G1 X56.944 Y49.047 E5.61221
G1 X54.426 Y47.827 E5.72388
G1 X51.946 Y46.536 E5.83547
G1 X49.507 Y45.175 E5.94695
G1 X49.135 Y44.964 E5.96402
G1 X48.707 Y44.786 E5.98252
G1 X47.99 Y44.586 E6.01223
G1 X47.502 Y44.531 E6.03183
G1 X46.789 Y44.521 E6.06029
G1 X45.866 Y44.521 E6.09713
G1 X44.781 Y44.54 E6.14044
G1 X44.292 Y44.63 E6.16028
G1 X43.781 Y44.832 E6.18221
G1 X43.199 Y45.156 E6.2088
G1 X42.656 Y45.539 E6.23532
G1 X41.854 Y46.121 E6.27487
G1 X41.007 Y46.759 E6.31719
G1 X39.994 Y47.572 E6.36904
G1 X38.291 Y48.898 E6.45518
G0 F810 X37.767 Y49.306
G0 F900 X37.526 Y48.987
G1 X39.746 Y47.258 E6.56749
G1 X40.766 Y46.44 E6.61967
G1 X41.619 Y45.797 E6.66231
G1 X42.421 Y45.215 E6.70186
G1 X42.986 Y44.817 E6.72944
G1 X43.611 Y44.469 E6.75799
G1 X44.179 Y44.244 E6.78238
G1 X44.732 Y44.143 E6.80481
G1 X44.761 Y44.14 E6.80598
G1 X45.859 Y44.121 E6.84981
G1 X46.795 Y44.121 E6.88716
G1 X47.522 Y44.131 E6.91618
G1 X48.067 Y44.193 E6.93807
G1 X48.84 Y44.408 E6.9701
G1 X49.315 Y44.606 E6.99064
G1 X49.703 Y44.827 E7.00846
G1 X52.136 Y46.184 E7.11965
G1 X54.606 Y47.47 E7.23079
G1 X57.113 Y48.685 E7.34198
G1 X59.654 Y49.828 E7.45319
G1 X62.226 Y50.897 E7.56436
G1 X64.828 Y51.892 E7.67554
G1 X67.457 Y52.812 E7.78671
G1 X70.112 Y53.656 E7.8979
G1 X72.79 Y54.423 E8.00909
G1 X75.488 Y55.113 E8.12023
G1 X78.206 Y55.726 E8.23144
G1 X80.94 Y56.26 E8.34262
G1 X83.688 Y56.715 E8.45379
G1 X84.296 Y56.802 E8.47831
G1 X85.125 Y56.938 E8.51184
G1 X86.85 Y57.246 E8.58177
G1 X89.605 Y57.656 E8.69294
G1 X91.31 Y57.866 E8.76151
G1 X91.423 Y57.882 E8.76606
G1 X92.112 Y58.024 E8.79414
G1 X92.603 Y58.175 E8.81464
G1 X93.058 Y58.405 E8.83499
G1 X93.476 Y58.718 E8.85583
G1 X93.82 Y59.082 E8.87582
G1 X94.102 Y59.503 E8.89605
G1 X94.319 Y59.996 E8.91755
G1 X94.452 Y60.579 E8.94141
G1 X94.471 Y61.085 E8.96162
G1 X94.461 Y61.235 E8.96762
G1 X94.381 Y61.979 E8.99749
G1 X94.27 Y63.231 E9.04765
G1 X94.128 Y64.646 E9.10441
G1 X94.004 Y65.227 E9.12812
G1 X93.81 Y65.69 E9.14816
G1 X93.539 Y66.119 E9.16841
G1 X93.133 Y66.557 E9.19225
G1 X92.645 Y66.906 E9.21619
G1 X92.001 Y67.185 E9.24421
G1 X91.328 Y67.408 E9.2725
G1 X90.826 Y67.522 E9.29305
G1 X90.036 Y67.555 E9.32461
G1 X88.004 Y67.55 E9.40571
G1 X84.792 Y67.641 E9.53396
G1 X83.67 Y67.691 E9.57878
G1 X83.033 Y67.665 E9.60423
G1 X82.433 Y67.608 E9.62829
G1 X81.283 Y67.465 E9.67454
G1 X78.514 Y67.163 E9.78571
G1 X75.888 Y66.949 E9.89087
G1 X75.245 Y66.887 E9.91665
G1 X74.314 Y66.77 E9.9541
G1 X71.545 Y66.463 E10.06529
G1 X68.82 Y66.239 E10.17442
G1 X68.109 Y66.174 E10.20292
G1 X67.219 Y66.062 E10.23872
G1 X64.451 Y65.752 E10.34989
G1 X61.598 Y65.517 E10.46414
G1 X59.539 Y65.323 E10.54668
G1 X59.129 Y65.279 E10.56314
G1 X56.352 Y65.063 E10.67431
G1 X53.569 Y64.926 E10.78552
G1 X50.784 Y64.87 E10.8967
G1 X47.999 Y64.893 E11.00786
G1 X45.215 Y64.997 E11.11905
G1 X43.541 Y65.108 E11.18601
G1 X43.081 Y65.132 E11.2044
G1 X40.305 Y65.318 E11.31544
G1 X39.764 Y65.325 E11.33704
G1 X39.048 Y65.203 E11.36603
G1 X38.038 Y65.012 E11.40705
G1 X38.04 Y65.004 E11.40738
G1 X36.584 Y64.722 E11.46657
G1 X35.947 Y64.538 E11.49304
G1 X35.079 Y64.248 E11.52956
G1 X34.576 Y64.051 E11.55112
G1 X33.952 Y63.775 E11.57836
G1 X33.324 Y63.465 E11.60631
G1 X32.721 Y63.141 E11.63363
G1 X32.253 Y62.817 E11.65635
G1 X31.833 Y62.382 E11.68048
G1 X31.515 Y61.885 E11.70403
G1 X31.327 Y61.421 E11.72401
G1 X31.16 Y60.744 E11.75184
G1 X30.841 Y59.283 E11.81153
G1 X30.788 Y58.738 E11.83338
G1 X30.83 Y58.219 E11.85416
G1 X30.867 Y58.036 E11.86162
G1 X31.199 Y56.953 E11.90683
G1 X31.588 Y55.813 E11.9549
G1 X32.404 Y53.314 E12.05983
G1 X32.667 Y52.764 E12.08416
G1 X32.97 Y52.353 E12.10454
G1 X33.45 Y51.911 E12.13058
G1 X34.057 Y51.48 E12.16029
G1 X35.28 Y50.635 E12.21962
G1 X36.99 Y49.38 E12.30428
G0 F810 X37.526 Y48.987
G0 F900 X37.873 Y53.569
G1 X40.823 Y53.488 E12.42207
G1 X41.411 Y53.87 E12.45005
G1 X41.543 Y53.901 E12.45547
G1 X43.437 Y53.684 E12.53155
G1 X43.55 Y53.631 E12.53653
G1 X43.611 Y53.522 E12.54152
G1 X43.604 Y53.423 E12.54548
G1 X42.85 Y51.107 E12.64269
G1 X43.584 Y48.853 E12.73731
G1 X45.504 Y47.459 E12.832
G1 X47.87 Y47.459 E12.92644
G1 X49.79 Y48.853 E13.02114
G1 X50.524 Y51.107 E13.11575
G1 X49.79 Y53.361 E13.21036
G1 X47.873 Y54.753 E13.30491
G1 X45.352 Y54.689 E13.40556
G1 X45.203 Y54.75 E13.41199
G1 X43.847 Y56.158 E13.49001
G1 X43.794 Y56.262 E13.49467
G1 X43.663 Y56.989 E13.52415
G1 X43.132 Y56.84 E13.54616
G1 X43.007 Y56.846 E13.55116
G1 X42.91 Y56.924 E13.55613
G1 X42.878 Y57.045 E13.56112
G1 X43.016 Y57.349 E13.57445
G1 X42.643 Y57.004 E13.59473
G1 X42.529 Y56.952 E13.59973
G1 X42.403 Y56.98 E13.60488
G1 X41.313 Y57.64 E13.65574
G1 X41.232 Y57.735 E13.66072
G1 X41.223 Y57.859 E13.66568
G1 X41.287 Y57.963 E13.67056
G1 X42.254 Y58.794 E13.72144
G1 X42.394 Y58.842 E13.72735
G1 X43.22 Y58.801 E13.76036
G1 X43.07 Y59.456 E13.78718
G1 X43.098 Y59.612 E13.7935
G1 X43.476 Y60.182 E13.8208
G1 X43.385 Y60.207 E13.82457
G1 X43.307 Y60.305 E13.82957
G1 X43.312 Y60.454 E13.83552
G1 X43.4 Y60.656 E13.84431
G1 X42.966 Y60.521 E13.86245
G1 X42.841 Y60.523 E13.86744
G1 X42.742 Y60.599 E13.87242
G1 X42.725 Y60.795 E13.88028
G1 X43.208 Y61.849 E13.92655
G1 X40.718 Y61.711 E14.02608
G1 X39.841 Y61.685 E14.0611
G1 X39.375 Y61.451 E14.08191
G1 X39.269 Y61.431 E14.08622
G1 X37.252 Y61.589 E14.16697
G1 X35.113 Y59.863 E14.27667
G1 X34.668 Y57.908 E14.35669
G1 X35.668 Y55.405 E14.46427
G1 X37.362 Y53.994 E14.55226
G0 F810 X37.873 Y53.569
G0 F900 X38.022 Y53.965
G1 X40.71 Y53.891 E14.65959
G1 X41.193 Y54.205 E14.68258
G1 X41.395 Y54.289 E14.69131
G1 X41.588 Y54.298 E14.69902
G1 X43.482 Y54.081 E14.77511
G1 X43.691 Y54.017 E14.78384
G1 X43.863 Y53.883 E14.79254
G1 X43.976 Y53.696 E14.80126
G1 X44.014 Y53.481 E14.80997
G1 X43.985 Y53.299 E14.81733
G1 X43.272 Y51.107 E14.90933
G1 X43.925 Y49.099 E14.9936
G1 X45.633 Y47.859 E15.07784
G1 X47.741 Y47.859 E15.16198
G1 X49.449 Y49.099 E15.24622
G1 X50.102 Y51.107 E15.3305
G1 X49.449 Y53.115 E15.41477
G1 X47.748 Y54.35 E15.49867
G1 X45.362 Y54.289 E15.59393
G1 X45.147 Y54.323 E15.60262
G1 X44.915 Y54.473 E15.61364
G1 X43.559 Y55.881 E15.69166
G1 X43.4 Y56.191 E15.70557
G1 X43.347 Y56.485 E15.71749
G1 X43.022 Y56.436 E15.73061
G1 X42.813 Y56.495 E15.73928
G1 X42.69 Y56.586 E15.74538
G1 X42.517 Y56.551 E15.75243
G1 X42.196 Y56.638 E15.7657
G1 X41.106 Y57.298 E15.81656
G1 X40.943 Y57.443 E15.82527
G1 X40.843 Y57.637 E15.83398
G1 X40.818 Y57.853 E15.84266
G1 X40.873 Y58.065 E15.8514
G1 X41.026 Y58.266 E15.86148
G1 X41.993 Y59.097 E15.91237
G1 X42.182 Y59.207 E15.9211
G1 X42.414 Y59.241 E15.93046
G1 X42.712 Y59.226 E15.94236
G1 X42.671 Y59.585 E15.95679
G1 X42.765 Y59.833 E15.96737
G1 X42.95 Y60.123 E15.9811
G1 X42.657 Y60.167 E15.99293
G1 X42.478 Y60.292 E16.00164
G1 X42.357 Y60.473 E16.01033
G1 X42.308 Y60.686 E16.01905
G1 X42.362 Y60.962 E16.03028
G1 X42.569 Y61.413 E16.05008
G1 X40.73 Y61.311 E16.1236
G1 X39.94 Y61.288 E16.15514
G1 X39.555 Y61.094 E16.17235
G1 X39.238 Y61.032 E16.18524
G1 X37.379 Y61.177 E16.25966
G1 X35.473 Y59.639 E16.35741
G1 X35.085 Y57.94 E16.42697
G1 X36.002 Y55.647 E16.52553
G1 X37.511 Y54.39 E16.60392
G0 F810 X38.022 Y53.965
G0 F900 X38.172 Y54.361
G1 X40.597 Y54.295 E16.70074
G1 X41.231 Y54.659 E16.72992
G1 X41.634 Y54.696 E16.74607
G1 X43.528 Y54.479 E16.82216
G1 X43.801 Y54.407 E16.83343
G1 X44.043 Y54.262 E16.84469
G1 X44.235 Y54.056 E16.85593
G1 X44.362 Y53.804 E16.86719
G1 X44.413 Y53.526 E16.87847
G1 X44.365 Y53.175 E16.89261
G1 X43.692 Y51.107 E16.97941
G1 X44.265 Y49.347 E17.05328
G1 X45.763 Y48.259 E17.12718
G1 X47.611 Y48.259 E17.20094
G1 X49.109 Y49.347 E17.27483
G1 X49.682 Y51.107 E17.3487
G1 X49.109 Y52.867 E17.42258
G1 X47.623 Y53.946 E17.49587
G1 X45.372 Y53.889 E17.58575
G1 X45.092 Y53.922 E17.597
G1 X44.832 Y54.032 E17.60827
G1 X44.627 Y54.195 E17.61872
G1 X43.271 Y55.603 E17.69674
G1 X43.106 Y55.832 E17.708
G1 X43.035 Y56.038 E17.7167
G1 X42.789 Y56.076 E17.72664
G1 X42.6 Y56.164 E17.73496
G1 X42.405 Y56.156 E17.74275
G1 X41.989 Y56.296 E17.76026
G1 X40.899 Y56.956 E17.81112
G1 X40.681 Y57.134 E17.82236
G1 X40.521 Y57.367 E17.83364
G1 X40.433 Y57.635 E17.84489
G1 X40.423 Y57.917 E17.85616
G1 X40.492 Y58.19 E17.8674
G1 X40.635 Y58.434 E17.87868
G1 X40.765 Y58.569 E17.88616
G1 X41.732 Y59.4 E17.93705
G1 X41.97 Y59.552 E17.94832
G1 X42.282 Y59.634 E17.9612
G1 X42.349 Y59.888 E17.97168
G1 X42.168 Y60.038 E17.98107
G1 X42.009 Y60.271 E17.99232
G1 X41.922 Y60.539 E18.00357
G1 X41.913 Y60.821 E18.01483
G1 X41.957 Y60.979 E18.02138
G1 X40.741 Y60.911 E18.06999
G1 X40.039 Y60.89 E18.09802
G1 X39.467 Y60.647 E18.12282
G1 X39.207 Y60.633 E18.13321
G1 X37.505 Y60.766 E18.20135
G1 X35.832 Y59.416 E18.28715
G1 X35.503 Y57.973 E18.34622
G1 X36.336 Y55.89 E18.43576
G1 X37.661 Y54.786 E18.5046
G0 F810 X38.172 Y54.361
G0 F900 X38.322 Y54.757
G1 X40.482 Y54.697 E18.59084
G1 X41.057 Y55.023 E18.61722
G1 X41.383 Y55.095 E18.63055
G1 X41.679 Y55.093 E18.64236
G1 X43.397 Y54.896 E18.71138
G1 X42.983 Y55.326 E18.7352
G1 X42.75 Y55.676 E18.75198
G1 X42.518 Y55.755 E18.76177
G1 X42.216 Y55.782 E18.77387
G1 X41.782 Y55.953 E18.79249
G1 X40.692 Y56.613 E18.84334
G1 X40.429 Y56.819 E18.85668
G1 X40.222 Y57.082 E18.87004
G1 X40.083 Y57.386 E18.88338
G1 X40.02 Y57.714 E18.89671
G1 X40.037 Y58.047 E18.91002
G1 X40.132 Y58.367 E18.92334
G1 X40.301 Y58.656 E18.9367
G1 X40.505 Y58.873 E18.94859
G1 X41.472 Y59.704 E18.99948
G1 X41.775 Y59.9 E19.01388
G1 X41.638 Y60.12 E19.02422
G1 X41.525 Y60.554 E19.04212
G1 X40.753 Y60.512 E19.07298
G1 X40.143 Y60.494 E19.09734
G1 X39.6 Y60.266 E19.12084
G1 X39.176 Y60.234 E19.13781
G1 X37.633 Y60.355 E19.19959
G1 X36.191 Y59.191 E19.27355
G1 X35.921 Y58.005 E19.3221
G1 X36.669 Y56.133 E19.40256
G1 X37.811 Y55.182 E19.46187
G0 F810 X38.322 Y54.757
G0 F900 X38.471 Y55.153
G1 X40.369 Y55.1 E19.53765
G1 X40.877 Y55.383 E19.56086
G1 X41.243 Y55.481 E19.57599
G1 X41.88 Y55.472 E19.60141
G1 X41.575 Y55.611 E19.61479
G1 X40.485 Y56.271 E19.66565
G1 X40.183 Y56.501 E19.6808
G1 X39.936 Y56.788 E19.69591
G1 X39.755 Y57.121 E19.71104
G1 X39.647 Y57.484 E19.72616
G1 X39.618 Y57.862 E19.74129
G1 X39.668 Y58.237 E19.75639
G1 X39.796 Y58.594 E19.77152
G1 X39.996 Y58.916 E19.78665
G1 X40.244 Y59.176 E19.80099
G1 X41.211 Y60.007 E19.85188
G1 X41.243 Y60.029 E19.85343
G1 X41.211 Y60.136 E19.85789
G1 X40.765 Y60.112 E19.87572
G1 X40.243 Y60.097 E19.89656
G1 X39.739 Y59.888 E19.91833
G1 X39.145 Y59.835 E19.94214
G1 X37.76 Y59.943 E19.99758
G1 X36.55 Y58.967 E20.05963
G1 X36.339 Y58.039 E20.09761
G1 X37.004 Y56.374 E20.16917
G1 X37.96 Y55.578 E20.21882
G0 F810 X38.471 Y55.153
G0 F900 X38.62 Y55.549
G1 X40.255 Y55.504 E20.2841
G1 X40.638 Y55.711 E20.30148
G1 X39.941 Y56.179 E20.33499
G1 X39.659 Y56.489 E20.35171
G1 X39.44 Y56.846 E20.36843
G1 X39.293 Y57.238 E20.38514
G1 X39.223 Y57.652 E20.4019
G1 X39.232 Y58.071 E20.41862
G1 X39.321 Y58.48 E20.43533
G1 X39.486 Y58.865 E20.45205
G1 X39.721 Y59.212 E20.46877
G1 X40.136 Y59.611 E20.49175
G1 X39.883 Y59.513 E20.50258
G1 X39.471 Y59.438 E20.51929
G1 X39.114 Y59.437 E20.53354
G1 X37.888 Y59.533 E20.58263
G1 X36.909 Y58.743 E20.63283
G1 X36.756 Y58.071 E20.66034
G1 X37.337 Y56.617 E20.72284
G1 X38.109 Y55.974 E20.76294
G0 F810 X38.62 Y55.549
G0 F900 X38.769 Y55.945
G1 X39.641 Y55.921 E20.79775
G1 X39.388 Y56.185 E20.81235
G1 X39.135 Y56.565 E20.83057
G1 X38.953 Y56.982 E20.84873
G1 X38.846 Y57.425 E20.86692
G1 X38.818 Y57.88 E20.88511
G1 X38.87 Y58.332 E20.90327
G1 X39 Y58.769 E20.92147
G1 X39.135 Y59.039 E20.93352
G1 X39.082 Y59.038 E20.93563
G1 X38.015 Y59.121 E20.97835
G1 X37.269 Y58.519 E21.01661
G1 X37.174 Y58.103 E21.03364
G1 X37.671 Y56.859 E21.0871
G1 X38.277 Y56.354 E21.11859
G0 F810 X38.769 Y55.945
G0 F900 X38.73 Y56.498
G1 X38.623 Y56.718 E21.12835
G1 X38.483 Y57.187 E21.14789
G1 X38.42 Y57.672 E21.16741
G1 X38.438 Y58.161 E21.18694
G1 X38.548 Y58.678 E21.20803
G1 X38.143 Y58.71 E21.22425
G1 X37.628 Y58.294 E21.25067
G1 X37.592 Y58.136 E21.25714
G1 X38.005 Y57.102 E21.30158
G1 X38.431 Y56.747 E21.32371
G0 F810 X38.73 Y56.498
G0 F900 X38.037 Y58.099
G1 X38.039 Y58.112 E21.32424
G1 X38.033 Y58.108 E21.32452
G1 X38.037 Y58.099 E21.32492
G0 X44.112 Y51.107
G1 X44.604 Y49.596 E21.38834
G1 X45.893 Y48.659 E21.45194
G1 X47.481 Y48.659 E21.51532
G1 X48.77 Y49.596 E21.57893
G1 X49.262 Y51.107 E21.64235
G1 X48.77 Y52.618 E21.70577
G1 X47.497 Y53.543 E21.76858
G1 X45.383 Y53.489 E21.85298
G1 X45.05 Y53.521 E21.86633
G1 X44.801 Y53.607 E21.87685
G1 X44.745 Y53.052 E21.89911
G1 X44.317 Y51.739 E21.95423
G0 F810 X44.112 Y51.107
G0 F900 X44.533 Y51.107
G1 X44.945 Y49.841 E22.00737
G1 X46.022 Y49.059 E22.06049
G1 X47.352 Y49.059 E22.11357
G1 X48.429 Y49.841 E22.16669
G1 X48.841 Y51.107 E22.21983
G1 X48.429 Y52.373 E22.27297
G1 X47.372 Y53.14 E22.32509
G1 X45.393 Y53.09 E22.4041
