;FLAVOR:Marlin
;TIME:2144
;Filament used: 1.14211m
;Layer height: 0.12
;MINX:38.672
;MINY:37.803
;MINZ:0.24
;MAXX:80.38
;MAXY:81.324
;MAXZ:7.92
;Generated with Cura_SteamEngine 4.8.0
M104 S210
M105
M109 S210
M82 ;absolute extrusion mode
;Sliced at: Sat 06-02-2021 21:07:11
G21 ;metric values
G90 ;absolute positioning
M82 ;set extruder to absolute mode
M107 ;start with the fan off
G1 Z5.0 F1800 ;move Z to 5mm
G28 X0 Y0 F1800 ;move X/Y to min endstops
G28 Z0 ;move Z to min endstop
G92 E0 ;zero the extruded length
G1 F200 E6.0 ;extrude 6.0mm of feed stock to build pressure
G1 Z5.0 F300 ;move the platform down 5mm
G92 E0 ;zero the extruded length again
G1 F1800
;Put printing message on LCD screen
M117 Printing...
G92 E0
G92 E0
G1 F1500 E-5
;LAYER_COUNT:65
;LAYER:0
M107
G0 F900 X63.644 Y40.519 Z0.24
;TYPE:SKIRT
G1 F1500 E0.70678
G1 F900 X62.941 Y41.622 E0.75898
G1 X62.019 Y43.044 E0.82662
G1 X60.443 Y45.353 E0.9382
G1 X58.801 Y47.617 E1.04983
G1 X57.094 Y49.834 E1.1615
G1 X55.325 Y52 E1.27312
G1 X53.495 Y54.115 E1.38475
G1 X51.604 Y56.177 E1.49641
G1 X49.656 Y58.18 E1.60793
G1 X41.199 Y66.637 E2.08528
G1 X40.676 Y67.175 E2.11522
G1 X40.077 Y67.895 E2.15261
G1 X39.819 Y68.308 E2.17204
G1 X39.46 Y69.04 E2.20458
G1 X39.287 Y69.564 E2.22661
G1 X39.218 Y69.825 E2.23738
G1 X39.109 Y70.437 E2.26219
G1 X39.073 Y70.972 E2.28359
G1 X39.122 Y71.857 E2.31897
G1 X39.2 Y72.312 E2.33739
G1 X39.336 Y72.777 E2.35673
G1 X39.606 Y73.483 E2.3869
G1 X39.923 Y74.077 E2.41377
G1 X40.195 Y74.461 E2.43255
G1 X40.697 Y75.045 E2.46329
G1 X41.221 Y75.583 E2.49326
G1 X44.445 Y78.808 E2.67527
G1 X45.054 Y79.398 E2.70911
G1 X45.65 Y79.892 E2.74001
G1 X46.125 Y80.19 E2.76239
G1 X46.727 Y80.491 E2.78925
G1 X47.3 Y80.697 E2.81355
G1 X47.75 Y80.818 E2.83215
G1 X48.229 Y80.891 E2.85149
G1 X48.728 Y80.924 E2.87145
G1 X49.271 Y80.913 E2.89313
G1 X49.957 Y80.834 E2.92069
G1 X50.489 Y80.693 E2.94266
G1 X51.214 Y80.428 E2.97346
G1 X51.917 Y80.052 E3.00528
G1 X52.308 Y79.762 E3.02471
G1 X52.813 Y79.335 E3.05111
G1 X53.384 Y78.78 E3.08289
G1 X66.173 Y65.993 E3.8047
G1 X68.703 Y63.552 E3.94501
G1 X70.778 Y61.675 E4.05669
G1 X72.907 Y59.861 E4.16832
G1 X75.084 Y58.109 E4.27985
G1 X76.351 Y57.123 E4.34393
G1 X76.779 Y56.762 E4.36628
G1 X77.253 Y56.311 E4.39239
G1 X77.836 Y55.657 E4.42736
G1 X78.231 Y55.139 E4.45336
G1 X78.536 Y54.676 E4.47549
G1 X78.807 Y54.215 E4.49683
G1 X78.962 Y53.914 E4.51034
G1 X79.316 Y53.125 E4.54486
G1 X79.537 Y52.523 E4.57046
G1 X79.648 Y52.117 E4.58725
G1 X79.778 Y51.585 E4.60911
G1 X79.864 Y51.118 E4.62806
G1 X79.943 Y50.502 E4.65285
G1 X79.975 Y49.887 E4.67743
G1 X79.98 Y49.318 E4.70014
G1 X79.944 Y48.681 E4.72561
G1 X79.839 Y47.956 E4.75484
G1 X79.725 Y47.389 E4.77793
G1 X79.569 Y46.813 E4.80175
G1 X79.371 Y46.234 E4.82617
G1 X79.17 Y45.734 E4.84768
G1 X78.751 Y44.821 E4.88777
G1 X78.673 Y44.657 E4.89502
G1 X77.556 Y42.092 E5.00668
G1 X77.399 Y41.702 E5.02346
G1 X76.99 Y40.731 E5.06551
G1 X76.656 Y40.176 E5.09136
G1 X76.358 Y39.856 E5.10882
G1 X75.98 Y39.571 E5.12771
G1 X75.49 Y39.27 E5.15066
G1 X74.959 Y38.984 E5.17474
G1 X74.515 Y38.838 E5.19339
G1 X73.15 Y38.532 E5.24922
G1 X71.781 Y38.246 E5.30504
G1 X71.286 Y38.217 E5.32483
G1 X70.237 Y38.203 E5.3667
G1 X69.212 Y38.22 E5.40762
G1 X68.587 Y38.339 E5.43301
G1 X66.082 Y39.068 E5.53714
G1 X65.244 Y39.322 E5.57209
G1 X64.798 Y39.521 E5.59158
G1 X64.35 Y39.805 E5.61275
G1 X64.088 Y40.027 E5.62646
G0 F810 X63.933 Y40.159
G0 X63.644 Y40.519
G0 F900 X63.322 Y40.28
G1 X63.644 Y39.88 E5.64695
G1 X64.112 Y39.482 E5.67147
G1 X64.607 Y39.169 E5.69485
G1 X65.096 Y38.95 E5.71623
G1 X65.177 Y38.923 E5.71964
G1 X65.97 Y38.684 E5.7527
G1 X68.484 Y37.952 E5.8572
G1 X68.979 Y37.841 E5.87745
G1 X69.19 Y37.82 E5.88591
G1 X70.235 Y37.803 E5.92763
G1 X71.292 Y37.817 E5.96982
G1 X71.838 Y37.849 E5.99165
G1 X73.233 Y38.141 E6.04853
G1 X74.626 Y38.453 E6.10551
G1 X75.118 Y38.615 E6.12618
G1 X75.689 Y38.923 E6.15207
G1 X76.204 Y39.239 E6.17619
G1 X76.627 Y39.558 E6.19734
G1 X76.972 Y39.929 E6.21756
G1 X77.248 Y40.349 E6.23762
G1 X77.354 Y40.564 E6.24718
G1 X77.768 Y41.547 E6.28975
G1 X77.925 Y41.937 E6.30653
G1 X79.037 Y44.491 E6.41771
G1 X79.115 Y44.654 E6.42492
G1 X79.534 Y45.567 E6.46502
G1 X79.742 Y46.085 E6.4873
G1 X79.955 Y46.708 E6.51358
G1 X80.114 Y47.295 E6.53785
G1 X80.235 Y47.899 E6.56243
G1 X80.342 Y48.636 E6.59216
G1 X80.38 Y49.322 E6.61958
G1 X80.375 Y49.891 E6.64229
G1 X80.34 Y50.553 E6.66875
G1 X80.261 Y51.17 E6.69358
G1 X80.167 Y51.68 E6.71427
G1 X80.037 Y52.212 E6.73613
G1 X79.92 Y52.64 E6.75384
G1 X79.681 Y53.289 E6.78144
G1 X79.318 Y54.097 E6.8168
G1 X79.158 Y54.408 E6.83076
G1 X78.879 Y54.882 E6.85271
G1 X78.56 Y55.366 E6.87585
G1 X78.146 Y55.91 E6.90313
G1 X77.533 Y56.597 E6.93988
G1 X77.047 Y57.059 E6.96664
G1 X76.597 Y57.439 E6.99015
G1 X75.332 Y58.423 E7.05411
G1 X73.162 Y60.169 E7.16528
G1 X71.042 Y61.976 E7.27646
G1 X68.976 Y63.844 E7.38763
G1 X66.453 Y66.278 E7.52754
G1 X53.663 Y79.067 E8.24944
G1 X53.082 Y79.632 E8.28179
G1 X52.557 Y80.075 E8.3092
G1 X52.135 Y80.389 E8.3302
G1 X51.831 Y80.562 E8.34416
G1 X51.371 Y80.797 E8.36477
G1 X50.606 Y81.076 E8.39727
G1 X50.037 Y81.227 E8.42077
G1 X49.293 Y81.313 E8.45066
G1 X48.721 Y81.324 E8.4735
G1 X48.179 Y81.288 E8.49518
G1 X47.675 Y81.212 E8.51552
G1 X47.183 Y81.08 E8.53585
G1 X46.563 Y80.857 E8.56215
G1 X45.928 Y80.539 E8.59049
G1 X45.418 Y80.219 E8.61452
G1 X44.791 Y79.699 E8.64703
G1 X44.74 Y79.652 E8.6498
G1 X44.166 Y79.095 E8.68172
G1 X40.938 Y75.866 E8.86396
G1 X40.406 Y75.319 E8.89441
G1 X39.882 Y74.71 E8.92648
G1 X39.581 Y74.285 E8.94726
G1 X39.24 Y73.646 E8.97617
G1 X38.957 Y72.907 E9.00775
G1 X38.81 Y72.406 E9.02859
G1 X38.724 Y71.904 E9.04892
G1 X38.672 Y70.967 E9.08638
G1 X38.712 Y70.386 E9.10962
G1 X38.827 Y69.738 E9.13589
G1 X38.902 Y69.453 E9.14765
G1 X39.088 Y68.89 E9.17131
G1 X39.469 Y68.113 E9.20585
G1 X39.748 Y67.667 E9.22685
G1 X40.064 Y67.265 E9.24726
G1 X40.389 Y66.896 E9.26688
G1 X40.916 Y66.354 E9.29706
G1 X49.371 Y57.899 E9.77429
G1 X51.313 Y55.902 E9.88547
G1 X53.196 Y53.849 E9.99666
G1 X55.019 Y51.743 E10.10783
G1 X56.781 Y49.585 E10.21902
G1 X58.481 Y47.378 E10.33021
G1 X60.116 Y45.123 E10.44138
G1 X61.686 Y42.822 E10.55256
G1 X62.605 Y41.406 E10.61994
G1 X62.965 Y40.841 E10.64667
G0 F810 X63.322 Y40.28
G0 F900 X67.465 Y42.499
G1 X69.016 Y41.504 E10.72022
G1 X70.601 Y41.483 E10.78349
G1 X71.898 Y42.467 E10.84847
G1 X72.383 Y44.087 E10.91596
G1 X71.863 Y45.685 E10.98303
G1 X70.503 Y46.673 E11.05012
G1 X68.827 Y46.673 E11.11702
G1 X67.467 Y45.685 E11.18411
G1 X66.947 Y44.089 E11.2511
G1 X67.259 Y43.131 E11.29132
G0 F810 X67.465 Y42.499
G0 F900 X67.802 Y42.758
G1 X69.136 Y41.903 E11.35456
G1 X70.468 Y41.885 E11.40772
G1 X71.552 Y42.708 E11.46204
G1 X71.964 Y44.081 E11.51926
G1 X71.522 Y45.439 E11.57626
G1 X70.374 Y46.273 E11.63289
G1 X68.956 Y46.273 E11.68949
G1 X67.808 Y45.439 E11.74612
G1 X67.369 Y44.089 E11.80278
G1 X67.597 Y43.39 E11.83212
G0 F810 X67.802 Y42.758
G0 F900 X68.138 Y43.018
G1 X69.257 Y42.301 E11.88517
G1 X70.337 Y42.287 E11.92828
G1 X71.207 Y42.947 E11.97186
G1 X71.545 Y44.076 E12.0189
G1 X71.182 Y45.191 E12.0657
G1 X70.244 Y45.873 E12.11199
G1 X69.086 Y45.873 E12.15821
G1 X68.148 Y45.191 E12.20449
G1 X67.789 Y44.089 E12.25075
G1 X67.932 Y43.65 E12.26918
G0 F810 X68.138 Y43.018
G0 F900 X68.473 Y43.278
G1 X69.376 Y42.7 E12.31197
G1 X70.204 Y42.688 E12.34502
G1 X70.861 Y43.188 E12.37797
G1 X71.126 Y44.072 E12.41481
G1 X70.843 Y44.944 E12.4514
G1 X70.115 Y45.473 E12.48731
G1 X69.215 Y45.473 E12.52323
G1 X68.487 Y44.944 E12.55915
G1 X68.209 Y44.089 E12.59504
G1 X68.292 Y43.835 E12.6057
G0 F810 X68.473 Y43.278
G0 F900 X68.81 Y43.536
G1 X69.494 Y43.098 E12.63812
G1 X70.072 Y43.09 E12.66119
G1 X70.516 Y43.427 E12.68344
G1 X70.707 Y44.066 E12.71006
G1 X70.502 Y44.697 E12.73654
G1 X69.984 Y45.073 E12.76208
G1 X69.346 Y45.073 E12.78755
G1 X68.828 Y44.697 E12.81309
G1 X68.63 Y44.089 E12.83861
G1 X68.683 Y43.929 E12.84534
G0 F810 X68.81 Y43.536
G0 F900 X69.146 Y43.797
G1 X69.614 Y43.497 E12.86753
G1 X69.94 Y43.492 E12.88054
G1 X70.17 Y43.666 E12.89205
G1 X70.288 Y44.061 E12.90851
G1 X70.162 Y44.449 E12.92479
G1 X69.854 Y44.673 E12.93999
G1 X69.476 Y44.673 E12.95508
G1 X69.168 Y44.449 E12.97028
G1 X69.051 Y44.089 E12.98538
G1 X69.072 Y44.025 E12.98807
G0 F810 X69.146 Y43.797
G0 F900 X69.481 Y44.057
G1 X69.734 Y43.895 E13.00006
G1 X69.808 Y43.894 E13.00302
G1 X69.869 Y44.057 E13.00996
G1 X69.822 Y44.201 E13.01601
G1 X69.724 Y44.273 E13.02086
G1 X69.606 Y44.273 E13.02557
G1 X69.508 Y44.201 E13.03043
G1 X69.493 Y44.122 E13.03363
G0 F810 X69.481 Y44.057
G0 F900 X68.484 Y37.952
G1 X68.979 Y37.841 E13.05388
G1 X69.19 Y37.82 E13.06234
G1 X70.235 Y37.803 E13.10406
G1 X71.292 Y37.817 E13.14625
G1 X71.838 Y37.849 E13.16808
G1 X72.522 Y37.991 E13.19596
G1 X73.233 Y38.141 E13.22496
G1 X74.626 Y38.453 E13.28194
G1 X75.118 Y38.615 E13.30261
G1 X75.689 Y38.923 E13.32851
G1 X76.204 Y39.239 E13.35262
G1 X76.627 Y39.558 E13.37377
G1 X76.972 Y39.929 E13.39399
G1 X77.248 Y40.349 E13.41405
G1 X77.354 Y40.564 E13.42361
G1 X77.768 Y41.547 E13.46618
G1 X77.925 Y41.937 E13.48296
G1 X79.037 Y44.491 E13.59414
G1 X79.115 Y44.654 E13.60136
G1 X79.534 Y45.567 E13.64145
G1 X79.742 Y46.085 E13.66373
G1 X79.955 Y46.708 E13.69001
G1 X80.114 Y47.295 E13.71428
G1 X80.235 Y47.899 E13.73887
G1 X80.342 Y48.636 E13.76859
G1 X80.38 Y49.322 E13.79601
G1 X80.375 Y49.891 E13.81872
G1 X80.34 Y50.553 E13.84518
G1 X80.261 Y51.17 E13.87001
G1 X80.167 Y51.68 E13.89071
G1 X80.037 Y52.212 E13.91256
G1 X79.92 Y52.64 E13.93027
G1 X79.681 Y53.289 E13.95788
G1 X79.318 Y54.097 E13.99323
G1 X79.158 Y54.408 E14.00719
G1 X78.879 Y54.882 E14.02914
G1 X78.56 Y55.366 E14.05228
G1 X78.146 Y55.91 E14.07956
G1 X77.533 Y56.597 E14.11631
G1 X77.047 Y57.059 E14.14307
G1 X76.597 Y57.439 E14.16658
G1 X75.332 Y58.423 E14.23055
G1 X73.162 Y60.169 E14.34171
G1 X71.042 Y61.976 E14.45289
G1 X68.976 Y63.844 E14.56406
G1 X66.453 Y66.278 E14.70398
G1 X53.663 Y79.067 E15.42587
G1 X53.082 Y79.632 E15.45822
G1 X52.557 Y80.075 E15.48563
G1 X52.135 Y80.389 E15.50663
G1 X51.831 Y80.562 E15.52059
G1 X51.371 Y80.797 E15.5412
G1 X50.606 Y81.076 E15.5737
G1 X50.037 Y81.227 E15.5972
G1 X49.293 Y81.313 E15.62709
G1 X48.721 Y81.324 E15.64993
G1 X48.179 Y81.288 E15.67161
G1 X47.675 Y81.212 E15.69195
G1 X47.183 Y81.08 E15.71228
G1 X46.563 Y80.857 E15.73858
G1 X45.928 Y80.539 E15.76692
G1 X45.418 Y80.219 E15.79095
G1 X44.791 Y79.699 E15.82346
G1 X44.74 Y79.652 E15.82623
G1 X44.166 Y79.095 E15.85816
G1 X40.938 Y75.866 E16.04039
G1 X40.406 Y75.319 E16.07084
G1 X39.882 Y74.71 E16.10291
G1 X39.581 Y74.285 E16.12369
G1 X39.24 Y73.646 E16.1526
G1 X38.957 Y72.907 E16.18418
G1 X38.81 Y72.406 E16.20502
G1 X38.724 Y71.904 E16.22535
G1 X38.672 Y70.967 E16.26281
G1 X38.712 Y70.386 E16.28605
G1 X38.827 Y69.738 E16.31232
G1 X38.902 Y69.453 E16.32408
G1 X39.088 Y68.89 E16.34774
G1 X39.469 Y68.113 E16.38228
G1 X39.748 Y67.667 E16.40328
G1 X40.064 Y67.265 E16.42369
G1 X40.389 Y66.896 E16.44332
G1 X40.916 Y66.354 E16.47349
G1 X49.371 Y57.899 E16.95072
G1 X51.313 Y55.902 E17.0619
G1 X53.196 Y53.849 E17.17309
G1 X55.019 Y51.743 E17.28426
G1 X56.781 Y49.585 E17.39545
G1 X58.481 Y47.378 E17.50664
G1 X60.116 Y45.123 E17.61781
G1 X61.686 Y42.822 E17.72899
G1 X62.605 Y41.406 E17.79637
G1 X63.322 Y40.28 E17.84965
G1 X63.644 Y39.88 E17.87014
G1 X64.112 Y39.482 E17.89466
G1 X64.607 Y39.169 E17.91804
G1 X65.096 Y38.95 E17.93942
G1 X65.177 Y38.923 E17.94283
G1 X65.97 Y38.684 E17.97588
G1 X67.846 Y38.137 E18.05388
G0 F810 X68.484 Y37.952
G1 F1500 E13.05388
;MESH:EndoHalter.stl
G0 F900 X66.48 Y44.868
G0 X65.466 Y45.233
G0 X64.27 Y47.591
G0 X56.595 Y61.339
;TYPE:WALL-INNER
G1 F1500 E18.76066
G1 F900 X55.764 Y61.276 E18.79392
G1 X54.948 Y61.463 E18.82733
G1 X54.271 Y61.862 E18.85869
G1 X54.045 Y62.066 E18.87085
G1 X45.486 Y70.627 E19.35401
G1 X45.038 Y71.236 E19.38418
G1 X44.769 Y72.025 E19.41745
G1 X44.745 Y72.863 E19.45091
G1 X44.976 Y73.667 E19.4843
G1 X45.009 Y73.716 E19.48666
G1 X45.438 Y74.365 E19.51771
G1 X46.086 Y74.894 E19.5511
G1 X46.248 Y74.959 E19.55806
G1 X46.861 Y75.204 E19.58441
G1 X47.696 Y75.269 E19.61784
G1 X48.511 Y75.079 E19.65124
G1 X49.187 Y74.68 E19.68257
G1 X49.413 Y74.476 E19.69472
G1 X57.972 Y65.915 E20.17789
G1 X58.42 Y65.307 E20.20803
G1 X58.689 Y64.517 E20.24134
G1 X58.713 Y63.679 E20.2748
G1 X58.482 Y62.875 E20.30818
G1 X58.02 Y62.177 E20.34159
G1 X57.372 Y61.648 E20.37498
G1 X57.213 Y61.584 E20.38182
G0 F810 X56.595 Y61.339
G0 F900 X56.504 Y61.733
G1 X55.794 Y61.679 E20.41024
G1 X55.098 Y61.839 E20.43874
G1 X54.509 Y62.186 E20.46603
G1 X54.321 Y62.356 E20.47614
G1 X45.79 Y70.888 E20.9577
G1 X45.397 Y71.423 E20.98419
G1 X45.167 Y72.097 E21.01262
G1 X45.147 Y72.812 E21.04117
G1 X45.344 Y73.498 E21.06965
G1 X45.738 Y74.094 E21.09817
G1 X46.291 Y74.545 E21.12665
G1 X46.953 Y74.81 E21.15511
G1 X47.665 Y74.865 E21.18361
G1 X48.361 Y74.703 E21.21213
G1 X48.949 Y74.356 E21.23938
G1 X49.137 Y74.186 E21.2495
G1 X57.668 Y65.654 E21.73105
G1 X58.061 Y65.12 E21.75752
G1 X58.291 Y64.445 E21.78598
G1 X58.311 Y63.73 E21.81453
G1 X58.114 Y63.044 E21.84301
G1 X57.72 Y62.448 E21.87153
G1 X57.167 Y61.997 E21.90001
G1 X57.122 Y61.979 E21.90194
G0 F810 X56.504 Y61.733
G0 F900 X56.413 Y62.127
;TYPE:WALL-OUTER
G1 X55.824 Y62.082 E21.92552
G1 X55.248 Y62.215 E21.94911
G1 X54.747 Y62.51 E21.97232
G1 X54.596 Y62.646 E21.98043
G1 X46.094 Y71.149 E22.46035
G1 X45.756 Y71.61 E22.48316
G1 X45.565 Y72.169 E22.50674
G1 X45.549 Y72.761 E22.53038
G1 X45.712 Y73.329 E22.55396
G1 X46.038 Y73.823 E22.57759
G1 X46.496 Y74.196 E22.60116
G1 X47.045 Y74.416 E22.62477
G1 X47.634 Y74.461 E22.64834
G1 X48.211 Y74.327 E22.67199
G1 X48.711 Y74.032 E22.69516
G1 X48.862 Y73.896 E22.70327
G1 X57.364 Y65.393 E23.18318
G1 X57.702 Y64.933 E23.20597
G1 X57.893 Y64.373 E23.22958
G1 X57.909 Y63.781 E23.25322
G1 X57.746 Y63.213 E23.2768
G1 X57.42 Y62.719 E23.30043
G1 X57.019 Y62.392 E23.32108
G0 F810 X56.962 Y62.346
G0 X56.413 Y62.127
G0 F900 X56.214 Y62.112
G0 X56.248 Y61.673
G0 X65.341 Y46.383
;TYPE:WALL-INNER
G1 X65.389 Y46.479 E23.32536
G1 X65.447 Y46.595 E23.33054
G1 X65.525 Y46.728 E23.33669
G1 X65.761 Y47.127 E23.35519
G1 X66.093 Y47.617 E23.37882
G1 X66.453 Y48.075 E23.40207
G1 X66.853 Y48.513 E23.42574
G1 X67.287 Y48.919 E23.44946
G1 X67.921 Y49.401 E23.48125
G1 X68.462 Y49.707 E23.50606
G1 X68.622 Y49.797 E23.51338
G1 X68.743 Y49.843 E23.51855
G1 X68.706 Y49.88
G1 X68.576 Y50.01 E23.52383
G1 X61.693 Y56.892 E23.9123
G1 X61.553 Y57.032 E23.92021
G1 X61.693 Y57.172 E23.9253
G1 X65.657 Y61.135 E24.14902
G1 X65.797 Y61.275 E24.15692
G1 X65.657 Y61.415 E24.16201
G1 X50.352 Y76.72 E25.0259
G1 X49.935 Y77.047 E25.04705
G1 X49.594 Y77.204 E25.06203
G1 X49.211 Y77.31 E25.07789
G1 X48.737 Y77.328 E25.09682
G1 X48.288 Y77.239 E25.11509
G1 X47.854 Y77.039 E25.13416
G1 X47.45 Y76.721 E25.15468
G1 X45.978 Y75.249 E25.23777
G1 X45.855 Y75.126 E25.2441
G1 X45.267 Y74.537 E25.26777
G1 X44.716 Y73.986 E25.29279
G1 X43.285 Y72.555 E25.37356
G1 X42.953 Y72.134 E25.39496
G1 X42.796 Y71.793 E25.40994
G1 X42.69 Y71.41 E25.4258
G1 X42.672 Y70.936 E25.44473
G1 X42.761 Y70.487 E25.463
G1 X42.96 Y70.056 E25.48195
G1 X43.286 Y69.643 E25.50295
G1 X64.486 Y48.444 E26.69954
G1 X64.74 Y47.596 E26.73487
G1 X64.952 Y47.078 E26.75721
G1 X65.151 Y46.699 E26.7743
G1 X65.223 Y46.562 E26.77922
G1 X65.275 Y46.483 E26.78075
G1 X65.341 Y46.383 E26.78215
G0 X65.416 Y45.597
G1 X65.474 Y45.732 E26.78802
G1 X65.539 Y45.884 E26.79462
G1 X65.568 Y45.943 E26.79724
G1 X65.799 Y46.404 E26.81782
G1 X66.099 Y46.913 E26.8414
G1 X66.416 Y47.381 E26.86396
G1 X66.758 Y47.816 E26.88605
G1 X67.138 Y48.232 E26.90854
G1 X67.545 Y48.613 E26.93079
G1 X68.141 Y49.066 E26.96067
G1 X68.792 Y49.434 E26.99051
G1 X69.176 Y49.58 E27.00691
G1 X69.177 Y49.581 E27.00697
G1 X69.464 Y49.688 E27.01919
G1 X69.247 Y49.905 E27.02629
G1 X62.259 Y56.892 E27.42069
G1 X62.119 Y57.032 E27.42859
G1 X62.259 Y57.172 E27.43369
G1 X66.223 Y61.135 E27.6574
G1 X66.363 Y61.275 E27.66531
G1 X66.223 Y61.415 E27.6704
G1 X50.618 Y77.02 E28.55121
G1 X50.148 Y77.389 E28.57506
G1 X49.761 Y77.566 E28.59205
