;FLAVOR:Marlin
;TIME:5231
;Filament used: 2.60457m
;Layer height: 0.12
;MINX:39.2
;MINY:29.55
;MINZ:0.24
;MAXX:80.8
;MAXY:90.45
;MAXZ:12
;Generated with Cura_SteamEngine 4.8.0
M104 S210
M105
M109 S210
M82 ;absolute extrusion mode
;Sliced at: Mon 08-02-2021 19:10:31
G21 ;metric values
G90 ;absolute positioning
M82 ;set extruder to absolute mode
M107 ;start with the fan off
G1 Z5.0 F1800 ;move Z to 5mm
G28 X0 Y0 F1800 ;move X/Y to min endstops
G28 Z0 ;move Z to min endstop
G92 E0 ;zero the extruded length
G1 F200 E6.0 ;extrude 6.0mm of feed stock to build pressure
G1 Z5.0 F300 ;move the platform down 5mm
G92 E0 ;zero the extruded length again
G1 F1800
;Put printing message on LCD screen
M117 Printing...
G92 E0
G92 E0
G1 F1500 E-5
;LAYER_COUNT:74
;LAYER:0
M107
G0 F900 X41.198 Y32.483 Z0.24
;TYPE:SKIRT
G1 F1500 E0.72757
G1 F900 X41.606 Y32.041 E0.75157
G1 X42.06 Y31.617 E0.77637
G1 X42.455 Y31.282 E0.79704
G1 X42.884 Y30.98 E0.81798
G1 X43.362 Y30.686 E0.84038
G1 X43.577 Y30.568 E0.85016
G1 X44.126 Y30.298 E0.87458
G1 X44.621 Y30.09 E0.89601
G1 X45.109 Y29.923 E0.9166
G1 X45.802 Y29.747 E0.94514
G1 X46.052 Y29.703 E0.95527
G1 X46.686 Y29.622 E0.98078
G1 X47.029 Y29.594 E0.99451
G1 X48.05 Y29.557 E1.03529
G1 X48.819 Y29.55 E1.06598
G1 X71.525 Y29.55 E1.97223
G1 X72.076 Y29.554 E1.99422
G1 X72.739 Y29.574 E2.02069
G1 X73.093 Y29.597 E2.03485
G1 X73.62 Y29.65 E2.05599
G1 X74.404 Y29.792 E2.08779
G1 X75.294 Y30.057 E2.12486
G1 X75.997 Y30.349 E2.15524
G1 X76.144 Y30.421 E2.16177
G1 X76.718 Y30.725 E2.1877
G1 X77.347 Y31.141 E2.21779
G1 X77.878 Y31.562 E2.24484
G1 X78.402 Y32.048 E2.27337
G1 X78.768 Y32.453 E2.29515
G1 X79.166 Y32.944 E2.32038
G1 X79.395 Y33.284 E2.33674
G1 X79.724 Y33.812 E2.36157
G1 X80.054 Y34.463 E2.3907
G1 X80.266 Y34.987 E2.41326
G1 X80.451 Y35.552 E2.43699
G1 X80.601 Y36.156 E2.46183
G1 X80.644 Y36.4 E2.47172
G1 X80.721 Y36.985 E2.49527
G1 X80.76 Y37.424 E2.51286
G1 X80.793 Y38.347 E2.54972
G1 X80.8 Y39.096 E2.57962
G1 X80.8 Y82.163 E4.29851
G1 X80.796 Y82.669 E4.31871
G1 X80.775 Y83.38 E4.3471
G1 X80.716 Y84.068 E4.37466
G1 X80.57 Y84.885 E4.40778
G1 X80.362 Y85.575 E4.43655
G1 X80.157 Y86.094 E4.45882
G1 X79.937 Y86.546 E4.47888
G1 X79.649 Y87.038 E4.50164
G1 X79.363 Y87.463 E4.52208
G1 X79.041 Y87.873 E4.54289
G1 X78.671 Y88.272 E4.56461
G1 X78.27 Y88.647 E4.58652
G1 X77.817 Y89.009 E4.60967
G1 X77.36 Y89.319 E4.63171
G1 X76.899 Y89.584 E4.65293
G1 X76.417 Y89.813 E4.67423
G1 X75.893 Y90.018 E4.69668
G1 X75.315 Y90.198 E4.72085
G1 X74.719 Y90.32 E4.74513
G1 X74.082 Y90.395 E4.77073
G1 X73.314 Y90.439 E4.80143
G1 X72.601 Y90.45 E4.82989
G1 X47.497 Y90.45 E5.83185
G1 X46.946 Y90.446 E5.85384
G1 X46.281 Y90.426 E5.88039
G1 X45.733 Y90.381 E5.90234
G1 X45.555 Y90.357 E5.90951
G1 X44.797 Y90.23 E5.94018
G1 X44.312 Y90.095 E5.96027
G1 X43.826 Y89.917 E5.98093
G1 X43.363 Y89.713 E6.00112
G1 X42.782 Y89.4 E6.02746
G1 X42.258 Y89.054 E6.05253
G1 X41.824 Y88.73 E6.07414
G1 X41.416 Y88.352 E6.09634
G1 X41.294 Y88.224 E6.1034
G1 X40.825 Y87.705 E6.13132
G1 X40.45 Y87.199 E6.15646
G1 X40.182 Y86.761 E6.17695
G1 X39.946 Y86.31 E6.19727
G1 X39.74 Y85.851 E6.21735
G1 X39.475 Y85.049 E6.25106
G1 X39.362 Y84.553 E6.27136
G1 X39.28 Y84.008 E6.29336
G1 X39.232 Y83.496 E6.31388
G1 X39.227 Y83.389 E6.31816
G1 X39.202 Y82.493 E6.35393
G1 X39.2 Y82.161 E6.36718
G1 X39.2 Y38.849 E8.09586
G1 X39.205 Y38.248 E8.11985
G1 X39.221 Y37.682 E8.14245
G1 X39.247 Y37.252 E8.15964
G1 X39.299 Y36.742 E8.1801
G1 X39.402 Y36.106 E8.20582
G1 X39.528 Y35.605 E8.22644
G1 X39.695 Y35.089 E8.24808
G1 X39.93 Y34.507 E8.27313
G1 X40.143 Y34.049 E8.29329
G1 X40.394 Y33.605 E8.31365
G1 X40.489 Y33.454 E8.32077
G1 X40.791 Y33.008 E8.34227
G0 F810 X40.841 Y32.934
G0 X41.198 Y32.483
G0 F900 X41.497 Y32.749
G1 X41.879 Y32.333 E8.36481
G1 X42.324 Y31.917 E8.38912
G1 X42.804 Y31.52 E8.41398
G1 X43.569 Y31.029 E8.45026
G1 X43.754 Y30.927 E8.4587
G1 X44.377 Y30.622 E8.48638
G1 X44.872 Y30.424 E8.50766
G1 X45.371 Y30.262 E8.5286
G1 X45.889 Y30.138 E8.54986
G1 X46.103 Y30.1 E8.55853
G1 X46.725 Y30.021 E8.58356
G1 X47.044 Y29.994 E8.59633
G1 X48.053 Y29.957 E8.63663
G1 X48.822 Y29.95 E8.66733
G1 X71.523 Y29.95 E9.57337
G1 X72.065 Y29.954 E9.59501
G1 X72.716 Y29.973 E9.621
G1 X73.053 Y29.995 E9.63448
G1 X73.58 Y30.048 E9.65562
G1 X74.321 Y30.184 E9.68569
G1 X75.17 Y30.437 E9.72105
G1 X75.831 Y30.713 E9.74964
G1 X75.958 Y30.775 E9.75528
G1 X76.442 Y31.03 E9.77711
G1 X76.905 Y31.319 E9.79889
G1 X77.627 Y31.873 E9.83522
G1 X78.118 Y32.329 E9.86196
G1 X78.462 Y32.71 E9.88245
G1 X78.838 Y33.173 E9.90625
G1 X79.056 Y33.496 E9.92181
G1 X79.358 Y33.98 E9.94458
G1 X79.693 Y34.636 E9.97398
G1 X79.889 Y35.119 E9.99478
G1 X80.064 Y35.652 E10.01717
G1 X80.21 Y36.243 E10.04147
G1 X80.247 Y36.452 E10.04994
G1 X80.334 Y37.121 E10.07686
G1 X80.36 Y37.439 E10.0896
G1 X80.393 Y38.351 E10.12602
G1 X80.4 Y39.1 E10.15592
G1 X80.4 Y82.16 E11.87454
G1 X80.396 Y82.659 E11.89445
G1 X80.376 Y83.357 E11.92232
G1 X80.318 Y84.028 E11.9492
G1 X80.179 Y84.805 E11.98071
G1 X79.982 Y85.449 E12.00759
G1 X79.79 Y85.934 E12.02841
G1 X79.487 Y86.537 E12.05534
G1 X79.317 Y86.815 E12.06835
G1 X79.031 Y87.24 E12.08879
G1 X78.544 Y87.83 E12.11933
G1 X78.064 Y88.294 E12.14597
G1 X77.578 Y88.688 E12.17094
G1 X77.138 Y88.986 E12.19215
G1 X76.462 Y89.355 E12.22289
G1 X75.816 Y89.619 E12.25074
G1 X75.213 Y89.812 E12.27601
G1 X74.668 Y89.923 E12.29821
G1 X74.058 Y89.996 E12.32273
G1 X73.302 Y90.039 E12.35296
G1 X72.599 Y90.05 E12.38102
G1 X47.499 Y90.05 E13.38281
G1 X46.957 Y90.046 E13.40445
G1 X46.305 Y90.027 E13.43048
G1 X45.773 Y89.983 E13.45178
G1 X45.621 Y89.963 E13.4579
G1 X44.953 Y89.852 E13.48493
G1 X44.435 Y89.714 E13.50633
G1 X43.965 Y89.542 E13.5263
G1 X43.244 Y89.205 E13.55807
G1 X43.002 Y89.066 E13.56921
G1 X42.55 Y88.769 E13.59079
G1 X42.087 Y88.429 E13.61372
G1 X41.695 Y88.065 E13.63507
G1 X41.59 Y87.956 E13.64111
G1 X41.121 Y87.437 E13.66903
G1 X40.783 Y86.977 E13.69181
G1 X40.466 Y86.451 E13.71632
G1 X40.175 Y85.855 E13.74279
G1 X39.991 Y85.367 E13.76361
G1 X39.806 Y84.738 E13.78978
G1 X39.676 Y83.95 E13.82165
G1 X39.629 Y83.438 E13.84218
G1 X39.602 Y82.49 E13.88003
G1 X39.6 Y82.158 E13.89328
G1 X39.6 Y38.852 E15.62171
G1 X39.605 Y38.259 E15.64538
G1 X39.624 Y37.623 E15.67078
G1 X39.645 Y37.293 E15.68398
G1 X39.706 Y36.709 E15.70741
G1 X39.795 Y36.177 E15.72894
G1 X39.934 Y35.646 E15.75085
G1 X40.146 Y35.022 E15.77715
G1 X40.435 Y34.361 E15.80594
G1 X40.739 Y33.808 E15.83113
G1 X40.821 Y33.679 E15.83723
G1 X41.093 Y33.277 E15.8566
G0 F810 X41.173 Y33.159
G0 X41.497 Y32.749
G0 F900 X42.027 Y32.755
G1 X42.153 Y32.625 E15.86383
G1 X42.589 Y32.217 E15.88766
G1 X43.045 Y31.84 E15.91128
G1 X43.776 Y31.371 E15.94594
G1 X43.93 Y31.286 E15.95296
G1 X44.541 Y30.987 E15.98011
G1 X45.363 Y30.682 E16.01511
G1 X46.154 Y30.497 E16.04753
G1 X46.764 Y30.419 E16.07207
G1 X47.059 Y30.393 E16.08389
G1 X48.057 Y30.357 E16.12375
G1 X48.826 Y30.35 E16.15444
G1 X71.52 Y30.35 E17.06021
G1 X72.053 Y30.354 E17.08148
G1 X72.692 Y30.372 E17.107
G1 X73.013 Y30.393 E17.11984
G1 X73.54 Y30.446 E17.14098
G1 X74.238 Y30.575 E17.16931
G1 X75.046 Y30.817 E17.20297
G1 X75.666 Y31.077 E17.22981
G1 X75.771 Y31.129 E17.23448
G1 X76.319 Y31.419 E17.25923
G1 X76.886 Y31.794 E17.28636
G1 X77.376 Y32.184 E17.31135
G1 X77.833 Y32.61 E17.33629
G1 X78.405 Y33.266 E17.37103
G1 X78.717 Y33.708 E17.39262
G1 X79.014 Y34.184 E17.41501
G1 X79.333 Y34.809 E17.44302
G1 X79.627 Y35.583 E17.47607
G1 X79.77 Y36.109 E17.49782
G1 X79.851 Y36.504 E17.51392
G1 X79.936 Y37.159 E17.54028
G1 X79.961 Y37.454 E17.55209
G1 X79.993 Y38.354 E17.58804
G1 X80 Y39.103 E17.61793
G1 X80 Y82.157 E19.33631
G1 X79.996 Y82.648 E19.35591
G1 X79.977 Y83.333 E19.38326
G1 X79.92 Y83.987 E19.40946
G1 X79.787 Y84.724 E19.43935
G1 X79.602 Y85.323 E19.46437
G1 X79.382 Y85.864 E19.48768
G1 X79.144 Y86.332 E19.50864
G1 X78.985 Y86.592 E19.5208
G1 X78.699 Y87.017 E19.54125
G1 X78.245 Y87.564 E19.56962
G1 X77.79 Y88.002 E19.59483
G1 X77.34 Y88.366 E19.61793
G1 X76.915 Y88.654 E19.63842
G1 X76.284 Y88.997 E19.66708
G1 X75.669 Y89.247 E19.69358
G1 X75.111 Y89.425 E19.71696
G1 X74.617 Y89.527 E19.73709
G1 X74.035 Y89.597 E19.76048
G1 X73.352 Y89.637 E19.78779
G1 X72.597 Y89.65 E19.81793
G1 X47.502 Y89.65 E20.81952
G1 X46.969 Y89.646 E20.8408
G1 X46.328 Y89.627 E20.86639
G1 X45.813 Y89.585 E20.88702
G1 X45.686 Y89.568 E20.89213
G1 X44.954 Y89.445 E20.92176
G1 X44.104 Y89.167 E20.95745
G1 X43.423 Y88.848 E20.98746
G1 X43.222 Y88.731 E20.99675
G1 X42.718 Y88.399 E21.02083
G1 X42.311 Y88.093 E21.04116
G1 X41.887 Y87.688 E21.06456
G1 X41.418 Y87.169 E21.09248
G1 X41.116 Y86.756 E21.1129
G1 X40.818 Y86.261 E21.13596
G1 X40.538 Y85.687 E21.16145
G1 X40.24 Y84.814 E21.19827
G1 X40.132 Y84.308 E21.21892
G1 X40.059 Y83.782 E21.24011
G1 X40.027 Y83.366 E21.25677
G1 X40.002 Y82.488 E21.29182
G1 X40 Y82.156 E21.30507
G1 X40 Y38.855 E23.03331
G1 X40.005 Y38.27 E23.05666
G1 X40.023 Y37.646 E23.08158
G1 X40.043 Y37.333 E23.09409
G1 X40.095 Y36.823 E23.11455
G1 X40.189 Y36.248 E23.13781
G1 X40.455 Y35.337 E23.17569
G1 X40.667 Y34.818 E23.19806
G1 X40.918 Y34.297 E23.22114
G1 X41.152 Y33.903 E23.23943
G1 X41.504 Y33.383 E23.2645
G1 X41.602 Y33.266 E23.27059
G0 F810 X42.027 Y32.755
G0 F900 X42.326 Y33.02
G1 X42.427 Y32.916 E23.27637
G1 X42.854 Y32.517 E23.2997
G1 X43.285 Y32.159 E23.32206
G1 X43.984 Y31.713 E23.35515
G1 X44.107 Y31.645 E23.36076
G1 X44.705 Y31.352 E23.38734
G1 X45.491 Y31.061 E23.42079
G1 X46.206 Y30.893 E23.45011
G1 X46.804 Y30.817 E23.47417
G1 X47.074 Y30.793 E23.48499
G1 X48.06 Y30.757 E23.52437
G1 X48.829 Y30.75 E23.55506
G1 X71.518 Y30.75 E24.46063
G1 X72.042 Y30.754 E24.48154
G1 X72.669 Y30.772 E24.50658
G1 X72.973 Y30.791 E24.51873
G1 X73.5 Y30.844 E24.53987
G1 X74.156 Y30.967 E24.56651
G1 X74.921 Y31.197 E24.5984
G1 X75.501 Y31.441 E24.62351
G1 X75.585 Y31.482 E24.62724
G1 X76.069 Y31.737 E24.64907
G1 X76.655 Y32.121 E24.67704
G1 X77.125 Y32.496 E24.70104
G1 X77.548 Y32.891 E24.72413
G1 X78.099 Y33.523 E24.7576
G1 X78.378 Y33.921 E24.777
G1 X78.687 Y34.417 E24.80032
G1 X78.972 Y34.981 E24.82554
G1 X79.249 Y35.715 E24.85686
G1 X79.382 Y36.209 E24.87728
G1 X79.454 Y36.556 E24.89142
G1 X79.538 Y37.197 E24.91722
G1 X79.561 Y37.468 E24.92808
G1 X79.593 Y38.358 E24.96362
G1 X79.6 Y39.107 E24.99352
G1 X79.6 Y82.155 E26.71166
G1 X79.596 Y82.637 E26.73089
G1 X79.577 Y83.309 E26.75773
G1 X79.522 Y83.947 E26.78328
G1 X79.395 Y84.643 E26.81152
G1 X79.223 Y85.198 E26.83471
G1 X79.024 Y85.687 E26.85578
G1 X78.699 Y86.296 E26.88334
G1 X78.653 Y86.368 E26.88675
G1 X78.367 Y86.793 E26.90719
G1 X77.947 Y87.297 E26.93338
G1 X77.516 Y87.711 E26.95723
G1 X77.101 Y88.045 E26.97849
G1 X76.67 Y88.336 E26.99925
G1 X76.105 Y88.639 E27.02483
G1 X75.523 Y88.875 E27.0499
G1 X75.009 Y89.038 E27.07142
G1 X74.122 Y89.187 E27.10732
G1 X74.012 Y89.197 E27.11173
G1 X73.28 Y89.239 E27.14099
G1 X72.595 Y89.25 E27.16834
G1 X47.504 Y89.25 E28.16977
G1 X46.98 Y89.246 E28.19069
G1 X46.352 Y89.228 E28.21576
G1 X45.752 Y89.173 E28.23981
G1 X45.012 Y89.049 E28.26976
G1 X44.244 Y88.792 E28.30208
G1 X43.603 Y88.49 E28.33036
G1 X43.441 Y88.397 E28.33782
G1 X42.948 Y88.072 E28.36138
G1 X42.475 Y87.705 E28.38528
G1 X42.184 Y87.42 E28.40153
G1 X41.715 Y86.901 E28.42945
G1 X41.413 Y86.476 E28.45026
G1 X41.156 Y86.045 E28.47029
G1 X40.901 Y85.519 E28.49362
G1 X40.622 Y84.696 E28.52831
G1 X40.467 Y83.836 E28.56318
G1 X40.427 Y83.354 E28.58249
G1 X40.402 Y82.486 E28.61715
G1 X40.4 Y82.154 E28.6304
G1 X40.4 Y38.858 E30.35843
G1 X40.405 Y38.282 E30.38142
G1 X40.423 Y37.669 E30.4059
G1 X40.441 Y37.374 E30.4177
G1 X40.499 Y36.815 E30.44013
G1 X40.583 Y36.319 E30.46021
G1 X40.836 Y35.461 E30.49591
G1 X41.035 Y34.974 E30.51691
G1 X41.271 Y34.484 E30.53861
G1 X41.483 Y34.127 E30.55518
G1 X41.835 Y33.607 E30.58025
G1 X41.9 Y33.53 E30.58427
G0 F810 X42.326 Y33.02
G0 F900 X42.625 Y33.286
G1 X42.701 Y33.208 E30.58861
G1 X43.119 Y32.817 E30.61146
G1 X43.526 Y32.479 E30.63257
G1 X44.191 Y32.055 E30.66405
G1 X44.283 Y32.004 E30.66825
G1 X44.832 Y31.734 E30.69267
G1 X45.618 Y31.44 E30.72616
G1 X46.15 Y31.309 E30.74803
G1 X46.257 Y31.29 E30.75237
G1 X46.843 Y31.215 E30.77595
G1 X47.088 Y31.193 E30.78576
G1 X48.064 Y31.157 E30.82475
G1 X48.833 Y31.15 E30.85544
G1 X71.515 Y31.15 E31.76073
G1 X72.031 Y31.153 E31.78132
G1 X72.645 Y31.171 E31.80584
G1 X72.933 Y31.189 E31.81736
G1 X73.46 Y31.242 E31.8385
G1 X74.073 Y31.358 E31.8634
G1 X74.797 Y31.577 E31.89358
G1 X75.335 Y31.805 E31.91691
G1 X75.398 Y31.836 E31.91971
G1 X75.921 Y32.112 E31.94331
G1 X76.424 Y32.448 E31.96745
G1 X76.873 Y32.807 E31.9904
G1 X77.264 Y33.172 E32.01175
G1 X77.792 Y33.78 E32.04389
G1 X78.039 Y34.133 E32.06108
G1 X78.349 Y34.63 E32.08446
G1 X78.611 Y35.154 E32.10784
G1 X78.872 Y35.847 E32.1374
G1 X79.004 Y36.347 E32.15804
G1 X79.058 Y36.608 E32.16868
G1 X79.14 Y37.235 E32.19391
G1 X79.161 Y37.483 E32.20385
G1 X79.193 Y38.362 E32.23895
G1 X79.2 Y39.111 E32.26885
G1 X79.2 Y82.152 E33.98671
G1 X79.197 Y82.626 E34.00563
G1 X79.178 Y83.286 E34.03198
G1 X79.124 Y83.906 E34.05682
G1 X79.003 Y84.562 E34.08344
G1 X78.843 Y85.072 E34.10478
G1 X78.503 Y85.837 E34.13819
G1 X78.322 Y86.145 E34.15245
G1 X78.036 Y86.57 E34.17289
G1 X77.648 Y87.031 E34.19694
G1 X77.242 Y87.419 E34.21936
G1 X76.815 Y87.758 E34.24112
G1 X76.367 Y88.053 E34.26253
G1 X75.831 Y88.324 E34.2865
G1 X75.347 Y88.514 E34.30725
G1 X74.856 Y88.664 E34.32774
G1 X74.071 Y88.79 E34.35947
G1 X73.988 Y88.798 E34.3628
G1 X73.269 Y88.84 E34.39155
G1 X72.593 Y88.85 E34.41853
G1 X47.507 Y88.85 E35.41977
G1 X46.991 Y88.847 E35.44036
G1 X46.376 Y88.829 E35.46492
G1 X45.817 Y88.779 E35.48732
G1 X45.091 Y88.657 E35.5167
G1 X44.947 Y88.619 E35.52265
G1 X44.383 Y88.417 E35.54656
G1 X43.782 Y88.133 E35.57309
G1 X43.661 Y88.063 E35.57867
G1 X43.178 Y87.745 E35.60175
G1 X42.739 Y87.405 E35.62391
G1 X42.481 Y87.152 E35.63833
G1 X42.012 Y86.633 E35.66625
G1 X41.552 Y85.934 E35.69965
G1 X41.264 Y85.351 E35.7256
G1 X41.004 Y84.578 E35.75815
G1 X40.863 Y83.779 E35.79054
G1 X40.826 Y83.343 E35.808
G1 X40.802 Y82.483 E35.84234
G1 X40.8 Y82.151 E35.85559
G1 X40.8 Y38.861 E37.58339
G1 X40.804 Y38.293 E37.60606
G1 X40.822 Y37.692 E37.63005
G1 X40.839 Y37.414 E37.64117
G1 X40.896 Y36.867 E37.66312
G1 X40.993 Y36.313 E37.68557
G1 X41.216 Y35.584 E37.716
G1 X41.418 Y35.095 E37.73711
G1 X41.649 Y34.627 E37.75794
G1 X41.814 Y34.351 E37.77078
G1 X42.166 Y33.831 E37.79584
G1 X42.197 Y33.795 E37.79774
G0 F810 X42.625 Y33.286
G0 F900 X42.535 Y34.004
G1 X42.924 Y33.552 E37.82154
G1 X42.974 Y33.5 E37.82442
G1 X43.383 Y33.116 E37.84681
G1 X43.799 Y32.775 E37.86828
G1 X44.398 Y32.397 E37.89655
G1 X44.46 Y32.363 E37.89937
G1 X45.034 Y32.081 E37.92489
G1 X45.745 Y31.819 E37.95514
G1 X46.237 Y31.699 E37.97535
G1 X46.308 Y31.687 E37.97822
G1 X46.882 Y31.613 E38.00132
G1 X47.103 Y31.593 E38.01018
G1 X48.068 Y31.557 E38.04872
G1 X48.837 Y31.55 E38.07941
G1 X71.513 Y31.55 E38.98446
G1 X72.02 Y31.553 E39.0047
G1 X72.622 Y31.57 E39.02873
G1 X72.893 Y31.587 E39.03957
G1 X73.42 Y31.64 E39.06071
G1 X73.99 Y31.749 E39.08387
G1 X74.673 Y31.958 E39.11238
G1 X75.17 Y32.17 E39.13395
G1 X75.212 Y32.19 E39.1358
G1 X75.721 Y32.459 E39.15878
G1 X76.193 Y32.775 E39.18145
G1 X76.622 Y33.118 E39.20337
G1 X77.006 Y33.481 E39.22446
G1 X77.486 Y34.037 E39.25378
G1 X77.7 Y34.345 E39.26875
G1 X77.996 Y34.82 E39.29109
G1 X78.25 Y35.327 E39.31372
G1 X78.494 Y35.979 E39.34151
G1 X78.649 Y36.591 E39.3667
G1 X78.661 Y36.661 E39.36954
G1 X78.741 Y37.274 E39.39421
G1 X78.761 Y37.498 E39.40319
G1 X78.793 Y38.366 E39.43786
G1 X78.8 Y39.115 E39.46775
G1 X78.8 Y82.149 E41.18533
G1 X78.797 Y82.615 E41.20393
G1 X78.779 Y83.262 E41.22976
G1 X78.726 Y83.866 E41.25396
G1 X78.612 Y84.482 E41.27897
G1 X78.455 Y84.97 E41.29943
G1 X78.144 Y85.66 E41.32963
G1 X77.99 Y85.922 E41.34176
G1 X77.704 Y86.347 E41.36221
G1 X77.35 Y86.765 E41.38407
G1 X76.968 Y87.128 E41.4051
G1 X76.247 Y87.657 E41.4408
G1 X75.749 Y87.923 E41.46333
G1 X75.23 Y88.13 E41.48563
G1 X74.532 Y88.325 E41.51456
G1 X74.02 Y88.393 E41.53517
G1 X73.965 Y88.399 E41.53738
G1 X73.257 Y88.44 E41.56568
