(1001)
(Bearbeiten)
(  Hersteller: ChinaCnc)
(  model: 3040T)
(  description: Generic 3-axis)
(T5  D=3.175 CR=0 - ZMIN=-4.2 - Schaftfraser)
G90 G94
G17
G21
G28 G91 Z0
G90

(2D-Kontur3)
T5
S8000 M3
G54
G0 X-137.54 Y-26.919
Z15
Z5
G1 Z2.818 F333.3
G18 G2 X-137.223 Z2.5 I0.317 K0 F1000
G1 X-136.905
G17 G3 X-136.587 Y-26.602 I0 J0.317
S5000
G1 Y-25.811 Z2.472 F333.3
X-138 Z2.423
G2 X-139.587 Y-24.223 Z2.336 I0 J1.587
G1 Y-20.954 Z2.222
G2 X-136.515 Y-17.404 Z2.043 I3.588 J0
G1 X-36.104 Y-2.851 Z-1.5
S8000
X-5.945 Y1.519 F1000
G2 X1.588 Y-5 I0.945 J-6.519
G1 X1.587 Y-107.407
G2 X-7.619 Y-113.452 I-6.588 J0
G1 X-149.426 Y-52.002
G2 X-151.587 Y-48.71 I1.426 J3.292
G1 Y-45.023
G2 X-150 Y-43.436 I1.587 J0
G1 X-136.587
Y-25.811
X-138
G2 X-139.587 Y-24.223 I0 J1.587
G1 Y-20.954
G2 X-136.515 Y-17.404 I3.588 J0
G1 X-36.104 Y-2.851
S5000
X-5.945 Y1.519 Z-2.544 F333.3
G2 X1.588 Y-5 Z-2.931 I0.945 J-6.519
G1 Y-7.003 Z-3
S8000
X1.587 Y-107.407 F1000
G2 X-7.619 Y-113.452 I-6.588 J0
G1 X-149.426 Y-52.002
G2 X-151.587 Y-48.71 I1.426 J3.292
G1 Y-45.023
G2 X-150 Y-43.436 I1.587 J0
G1 X-136.587
Y-25.811
X-138
G2 X-139.587 Y-24.223 I0 J1.587
G1 Y-20.954
G2 X-136.515 Y-17.404 I3.588 J0
G1 X-36.104 Y-2.851
X-5.945 Y1.519
G2 X1.588 Y-5 I0.945 J-6.519
G1 Y-7.003
S5000
Y-42.021 Z-4.2 F333.3
S8000
Y-52.116 F1000
Z-3.7
X1.587 Y-60.291
Z-4.2 F333.3
Y-107.407 F1000
G2 X-7.619 Y-113.452 I-6.588 J0
G1 X-74.772 Y-84.352
Z-3.7
X-82.273 Y-81.101
Z-4.2 F333.3
X-149.426 Y-52.002 F1000
G2 X-151.587 Y-48.71 I1.426 J3.292
G1 Y-45.023
G2 X-150 Y-43.436 I1.587 J0
G1 X-136.587
Y-25.811
X-138
G2 X-139.587 Y-24.223 I0 J1.587
G1 Y-20.954
G2 X-136.515 Y-17.404 I3.588 J0
G1 X-75.275 Y-8.528
Z-3.7
X-67.184 Y-7.356
Z-4.2 F333.3
X-5.945 Y1.519 F1000
G2 X1.588 Y-5 I0.945 J-6.519
G1 Y-42.021
G3 X1.905 Y-42.338 I0.317 J0
G1 X2.223
G18 G2 X2.54 Z-3.883 I0 K0.317
G0 Z15
G17
G28 G91 Z0
G90
G28 G91 X0 Y0
G90
M5
M30
