(1001)
(Bearbeiten)
(  Hersteller: ChinaCnc)
(  model: 3040T)
(  description: Generic 3-axis)
(T5  D=3.175 CR=0 - ZMIN=-4.2 - Schaftfraser)
G90 G94
G17
G21
G28 G91 Z0
G90

(Bohrfrasen1)
T5
S8000 M3
G54
G0 X-14.8 Y-26.061
Z15
Z1.683
G1 Z0 F1000
X-14.794 Y-26.055
X-14.8 Y-26.049
X-14.811 Y-26.055 Z-0.175
X-14.81 Y-26.068 Z-0.35
X-14.798 Y-26.073 Z-0.525
X-14.788 Y-26.065 Z-0.7
X-14.791 Y-26.052 Z-0.875
X-14.804 Y-26.049 Z-1.05
X-14.812 Y-26.059 Z-1.225
X-14.807 Y-26.071 Z-1.4
X-14.794 Y-26.072 Z-1.575
X-14.788 Y-26.061 Z-1.75
X-14.794 Y-26.05 Z-1.925
X-14.807 Y-26.051 Z-2.1
X-14.812 Y-26.063 Z-2.275
X-14.804 Y-26.073 Z-2.45
X-14.791 Y-26.07 Z-2.625
X-14.788 Y-26.057 Z-2.8
X-14.798 Y-26.049 Z-2.975
X-14.81 Y-26.054 Z-3.15
X-14.811 Y-26.067 Z-3.325
X-14.8 Y-26.074 Z-3.5
X-14.789 Y-26.067 Z-3.675
X-14.79 Y-26.054 Z-3.85
X-14.802 Y-26.049 Z-4.025
X-14.812 Y-26.057 Z-4.2
G3 X-14.788 Y-26.065 I0.012 J-0.004
X-14.812 Y-26.057 I-0.012 J0.004
G1 X-14.808 Y-26.065
X-14.8 Y-26.061
G0 Z15

(Bohrfrasen1)
X-154.8 Y-26.061
Z15
Z1.683
G1 Z0 F1000
X-154.794 Y-26.055
X-154.8 Y-26.049
X-154.811 Y-26.055 Z-0.175
X-154.81 Y-26.068 Z-0.35
X-154.798 Y-26.073 Z-0.525
X-154.788 Y-26.065 Z-0.7
X-154.791 Y-26.052 Z-0.875
X-154.804 Y-26.049 Z-1.05
X-154.812 Y-26.059 Z-1.225
X-154.807 Y-26.071 Z-1.4
X-154.794 Y-26.072 Z-1.575
X-154.787 Y-26.061 Z-1.75
X-154.794 Y-26.05 Z-1.925
X-154.807 Y-26.051 Z-2.1
X-154.812 Y-26.063 Z-2.275
X-154.804 Y-26.073 Z-2.45
X-154.791 Y-26.07 Z-2.625
X-154.788 Y-26.057 Z-2.8
X-154.798 Y-26.049 Z-2.975
X-154.81 Y-26.054 Z-3.15
X-154.811 Y-26.067 Z-3.325
X-154.8 Y-26.074 Z-3.5
X-154.789 Y-26.067 Z-3.675
X-154.79 Y-26.054 Z-3.85
X-154.802 Y-26.049 Z-4.025
X-154.812 Y-26.057 Z-4.2
G3 X-154.788 Y-26.065 I0.012 J-0.004
X-154.812 Y-26.057 I-0.012 J0.004
G1 X-154.808 Y-26.065
X-154.8 Y-26.061
G0 Z15

(Bohrfrasen1)
Z15
X-14.8 Y-66.061
Z1.683
G1 Z0 F1000
X-14.794 Y-66.055
X-14.8 Y-66.049
X-14.811 Y-66.055 Z-0.175
X-14.81 Y-66.068 Z-0.35
X-14.798 Y-66.073 Z-0.525
X-14.788 Y-66.065 Z-0.7
X-14.791 Y-66.052 Z-0.875
X-14.804 Y-66.049 Z-1.05
X-14.812 Y-66.059 Z-1.225
X-14.807 Y-66.071 Z-1.4
X-14.794 Y-66.072 Z-1.575
X-14.788 Y-66.061 Z-1.75
X-14.794 Y-66.05 Z-1.925
X-14.807 Y-66.051 Z-2.1
X-14.812 Y-66.063 Z-2.275
X-14.804 Y-66.073 Z-2.45
X-14.791 Y-66.07 Z-2.625
X-14.788 Y-66.057 Z-2.8
X-14.798 Y-66.049 Z-2.975
X-14.81 Y-66.054 Z-3.15
X-14.811 Y-66.067 Z-3.325
X-14.8 Y-66.074 Z-3.5
X-14.789 Y-66.067 Z-3.675
X-14.79 Y-66.054 Z-3.85
X-14.802 Y-66.049 Z-4.025
X-14.812 Y-66.057 Z-4.2
G3 X-14.788 Y-66.065 I0.012 J-0.004
X-14.812 Y-66.057 I-0.012 J0.004
G1 X-14.808 Y-66.065
X-14.8 Y-66.061
G0 Z15

(Bohrfrasen1)
X-154.8 Y-66.061
Z15
Z1.683
G1 Z0 F1000
X-154.794 Y-66.055
X-154.8 Y-66.049
X-154.811 Y-66.055 Z-0.175
X-154.81 Y-66.068 Z-0.35
X-154.798 Y-66.073 Z-0.525
X-154.788 Y-66.065 Z-0.7
X-154.791 Y-66.052 Z-0.875
X-154.804 Y-66.049 Z-1.05
X-154.812 Y-66.059 Z-1.225
X-154.807 Y-66.071 Z-1.4
X-154.794 Y-66.072 Z-1.575
X-154.787 Y-66.061 Z-1.75
X-154.794 Y-66.05 Z-1.925
X-154.807 Y-66.051 Z-2.1
X-154.812 Y-66.063 Z-2.275
X-154.804 Y-66.073 Z-2.45
X-154.791 Y-66.07 Z-2.625
X-154.788 Y-66.057 Z-2.8
X-154.798 Y-66.049 Z-2.975
X-154.81 Y-66.054 Z-3.15
X-154.811 Y-66.067 Z-3.325
X-154.8 Y-66.074 Z-3.5
X-154.789 Y-66.067 Z-3.675
X-154.79 Y-66.054 Z-3.85
X-154.802 Y-66.049 Z-4.025
X-154.812 Y-66.057 Z-4.2
G3 X-154.788 Y-66.065 I0.012 J-0.004
X-154.812 Y-66.057 I-0.012 J0.004
G1 X-154.808 Y-66.065
X-154.8 Y-66.061
G0 Z15

(Bohrfrasen1)
X-14.8 Y-106.061
Z15
Z1.683
G1 Z0 F1000
X-14.794 Y-106.055
X-14.8 Y-106.049
X-14.811 Y-106.055 Z-0.175
X-14.81 Y-106.068 Z-0.35
X-14.798 Y-106.073 Z-0.525
X-14.788 Y-106.065 Z-0.7
X-14.791 Y-106.052 Z-0.875
X-14.804 Y-106.049 Z-1.05
X-14.812 Y-106.059 Z-1.225
X-14.807 Y-106.071 Z-1.4
X-14.794 Y-106.072 Z-1.575
X-14.788 Y-106.061 Z-1.75
X-14.794 Y-106.05 Z-1.925
X-14.807 Y-106.051 Z-2.1
X-14.812 Y-106.063 Z-2.275
X-14.804 Y-106.073 Z-2.45
X-14.791 Y-106.07 Z-2.625
X-14.788 Y-106.057 Z-2.8
X-14.798 Y-106.049 Z-2.975
X-14.81 Y-106.054 Z-3.15
X-14.811 Y-106.067 Z-3.325
X-14.8 Y-106.074 Z-3.5
X-14.789 Y-106.067 Z-3.675
X-14.79 Y-106.054 Z-3.85
X-14.802 Y-106.049 Z-4.025
X-14.812 Y-106.057 Z-4.2
G3 X-14.788 Y-106.065 I0.012 J-0.004
X-14.812 Y-106.057 I-0.012 J0.004
G1 X-14.808 Y-106.065
X-14.8 Y-106.061
G0 Z15

(Bohrfrasen1)
X-154.8 Y-106.061
Z15
Z1.683
G1 Z0 F1000
X-154.794 Y-106.055
X-154.8 Y-106.049
X-154.811 Y-106.055 Z-0.175
X-154.81 Y-106.068 Z-0.35
X-154.798 Y-106.073 Z-0.525
X-154.788 Y-106.065 Z-0.7
X-154.791 Y-106.052 Z-0.875
X-154.804 Y-106.049 Z-1.05
X-154.812 Y-106.059 Z-1.225
X-154.807 Y-106.071 Z-1.4
X-154.794 Y-106.072 Z-1.575
X-154.787 Y-106.061 Z-1.75
X-154.794 Y-106.05 Z-1.925
X-154.807 Y-106.051 Z-2.1
X-154.812 Y-106.063 Z-2.275
X-154.804 Y-106.073 Z-2.45
X-154.791 Y-106.07 Z-2.625
X-154.788 Y-106.057 Z-2.8
X-154.798 Y-106.049 Z-2.975
X-154.81 Y-106.054 Z-3.15
X-154.811 Y-106.067 Z-3.325
X-154.8 Y-106.074 Z-3.5
X-154.789 Y-106.067 Z-3.675
X-154.79 Y-106.054 Z-3.85
X-154.802 Y-106.049 Z-4.025
X-154.812 Y-106.057 Z-4.2
G3 X-154.788 Y-106.065 I0.012 J-0.004
X-154.812 Y-106.057 I-0.012 J0.004
G1 X-154.808 Y-106.065
X-154.8 Y-106.061
G0 Z15

(2D-Kontur5)
X-30.606 Y-14.96
Z15
Z5
G1 Z2.818 F333.3
Y-14.968 Z2.747 F1000
X-30.608 Y-14.992 Z2.68
X-30.609 Y-15.03 Z2.62
X-30.612 Y-15.08 Z2.569
X-30.615 Y-15.14 Z2.531
X-30.618 Y-15.207 Z2.508
X-30.622 Y-15.278 Z2.5
X-30.637 Y-15.595
G3 X-30.335 Y-15.927 I0.317 J-0.015
S5000
G1 X-28.434 Y-16.02 Z2.434 F333.3
X-26.189 Y-16.113 Z2.355
X-24.348 Y-16.176 Z2.291
X-22.943 Y-16.212 Z2.242
X-21.99 Y-16.224 Z2.208
X-10 Z1.79
G2 X-8.413 Y-17.811 Z1.703 I0 J-1.587
G1 Y-34.311 Z1.126
G2 X-10 Y-35.899 Z1.039 I-1.587 J0
G1 X-21.987 Z0.621
X-22.936 Y-35.914 Z0.588
X-23.996 Y-35.958 Z0.551
X-25.18 Y-36.033 Z0.509
X-26.484 Y-36.138 Z0.463
X-27.906 Y-36.271 Z0.414
X-29.44 Y-36.432 Z0.36
X-31.085 Y-36.618 Z0.302
X-32.835 Y-36.828 Z0.24
X-36.641 Y-37.313 Z0.106
X-40.816 Y-37.866 Z-0.041
X-45.319 Y-38.467 Z-0.199
X-45.323 Z-0.2
X-50.106 Y-39.092 Z-0.368
X-50.116 Y-39.093
X-55.131 Y-39.718 Z-0.545
X-55.141 Y-39.72
X-57.72 Y-40.025 Z-0.636
X-57.728 Y-40.026
X-60.345 Y-40.322 Z-0.728
X-60.354 Y-40.323
X-63.004 Y-40.606 Z-0.821
X-63.015 Y-40.608 Z-0.822
X-65.69 Y-40.876 Z-0.916
X-65.701 Y-40.877
X-68.395 Y-41.128 Z-1.011
X-68.408 Y-41.129
X-71.113 Y-41.359 Z-1.106
X-71.127 Y-41.36
X-73.838 Y-41.566 Z-1.201
X-73.853 Y-41.567 Z-1.202
X-76.563 Y-41.746 Z-1.297
X-76.579 Y-41.747
X-79.28 Y-41.897 Z-1.392
X-79.298 Y-41.898
X-81.985 Y-42.018 Z-1.486
X-82.004 Z-1.487
X-82.379 Y-42.03 Z-1.5
S8000
X-84.669 Y-42.104 F1000
X-84.69 Y-42.105
X-87.327 Y-42.155
X-87.35
X-89.953 Y-42.168
X-89.977
X-92.542 Y-42.142
X-92.561
X-93.826 Y-42.114
X-93.839
X-95.093 Y-42.076
X-95.107
X-96.347 Y-42.028
X-96.361 Y-42.027
X-97.589 Y-41.969
X-97.604 Y-41.968
X-98.817 Y-41.899
X-98.832 Y-41.898
X-100.031 Y-41.819
X-100.047 Y-41.818
X-101.23 Y-41.728
X-101.246 Y-41.727
X-102.414 Y-41.626
X-102.43 Y-41.625
X-103.582 Y-41.514
X-103.599 Y-41.512
X-104.734 Y-41.391
X-104.751 Y-41.389
X-105.868 Y-41.257
X-105.886 Y-41.255
X-106.986 Y-41.113
X-107.004 Y-41.11
X-108.085 Y-40.957
X-108.104 Y-40.955
X-109.166 Y-40.792
X-109.185 Y-40.789
X-110.228 Y-40.616
X-110.247 Y-40.613
X-111.27 Y-40.43
X-111.29 Y-40.426
X-112.294 Y-40.234
X-112.314 Y-40.23
X-113.297 Y-40.028
X-113.318 Y-40.023
X-114.28 Y-39.812
X-114.301 Y-39.807
X-115.243 Y-39.587
X-115.265 Y-39.582
X-116.185 Y-39.354
X-116.206 Y-39.348
X-117.106 Y-39.111
X-117.128 Y-39.105
X-118.006 Y-38.861
X-118.028 Y-38.855
X-118.884 Y-38.603
X-118.907 Y-38.596
X-119.741 Y-38.337
X-119.763 Y-38.33
X-120.576 Y-38.064
X-120.599 Y-38.057
X-121.39 Y-37.785
X-121.413 Y-37.777
X-122.182 Y-37.499
X-122.205 Y-37.491
X-122.952 Y-37.208
X-122.975 Y-37.199
X-123.7 Y-36.912
X-123.724 Y-36.902
X-124.426 Y-36.611
X-124.449 Y-36.601
X-125.13 Y-36.306
X-125.154 Y-36.295
X-125.813 Y-35.996
X-125.836 Y-35.985
X-126.473 Y-35.684
X-126.498 Y-35.671
X-127.112 Y-35.367
X-127.136 Y-35.356
X-127.729 Y-35.05
X-127.754 Y-35.037
X-128.325 Y-34.729
X-128.349 Y-34.716
X-128.898 Y-34.408
X-128.924 Y-34.393
X-129.451 Y-34.084
X-129.475 Y-34.07
X-129.981 Y-33.761
X-130.007 Y-33.745
X-130.491 Y-33.436
X-130.518 Y-33.419
X-130.98 Y-33.111
X-131.006 Y-33.093
X-131.447 Y-32.787
X-131.475 Y-32.767
X-131.894 Y-32.462
X-131.92 Y-32.443
X-132.319 Y-32.14
X-132.348 Y-32.117
X-132.725 Y-31.816
X-132.756 Y-31.791
X-133.111 Y-31.493
X-133.14 Y-31.468
X-133.475 Y-31.173
X-133.509 Y-31.143
X-133.822 Y-30.85
X-133.856 Y-30.818
X-134.148 Y-30.529
X-134.185 Y-30.491
X-134.455 Y-30.205
X-134.492 Y-30.165
X-134.741 Y-29.882
X-134.782 Y-29.833
X-135.009 Y-29.554
X-135.05 Y-29.501
X-135.256 Y-29.224
X-135.303 Y-29.158
X-135.486 Y-28.884
X-135.534 Y-28.808
X-135.694 Y-28.536
X-135.739 Y-28.454
X-135.877 Y-28.184
X-135.923 Y-28.087
X-136.038 Y-27.819
X-136.081 Y-27.706
X-136.172 Y-27.439
X-136.209 Y-27.314
X-136.276 Y-27.049
X-136.304 Y-26.914
X-136.347 Y-26.649
X-136.363 Y-26.508
X-136.382 Y-26.243
X-136.386 Y-26.094
X-136.38 Y-25.828
X-136.37 Y-25.68
X-136.339 Y-25.413
X-136.316 Y-25.272
X-136.26 Y-25.004
X-136.225 Y-24.867
X-136.143 Y-24.597
X-136.1 Y-24.473
X-135.992 Y-24.2
X-135.946 Y-24.094
X-135.813 Y-23.819
X-135.762 Y-23.722
X-135.603 Y-23.443
X-135.552 Y-23.359
X-135.367 Y-23.077
X-135.316 Y-23.004
X-135.105 Y-22.718
X-135.057 Y-22.656
X-134.82 Y-22.366
X-134.774 Y-22.313
X-134.511 Y-22.019
X-134.47 Y-21.974
X-134.182 Y-21.676
X-134.143 Y-21.637
X-133.83 Y-21.335
X-133.795 Y-21.302
X-133.458 Y-20.995
X-133.424 Y-20.965
X-133.062 Y-20.654
X-133.031 Y-20.629
X-132.645 Y-20.314
X-132.616 Y-20.29
X-132.206 Y-19.972
X-132.18 Y-19.953
X-131.748 Y-19.631
X-131.724 Y-19.613
X-131.27 Y-19.288
X-131.247 Y-19.272
X-130.772 Y-18.945
X-130.739 Y-18.923
X-129.726 Y-18.261
X-129.688 Y-18.237
X-128.6 Y-17.57
X-128.564 Y-17.548
X-127.405 Y-16.879
X-127.371 Y-16.861
X-126.149 Y-16.194
X-126.117 Y-16.177
X-124.838 Y-15.517
X-124.807 Y-15.501
X-123.478 Y-14.852
X-123.447 Y-14.837
X-122.075 Y-14.203
X-122.044 Y-14.189
X-120.634 Y-13.573
X-120.603 Y-13.56
X-119.162 Y-12.967
X-119.129 Y-12.954
X-117.662 Y-12.389
X-117.629 Y-12.376
X-116.142 Y-11.841
X-116.107 Y-11.829
X-114.605 Y-11.327
X-114.568 Y-11.315
X-113.054 Y-10.85
X-113.026 Y-10.842
X-112.266 Y-10.624
X-112.246 Y-10.618
X-111.484 Y-10.41
X-111.465 Y-10.405
X-110.702 Y-10.207
X-110.682 Y-10.202
X-109.919 Y-10.014
X-109.898 Y-10.009
X-109.133 Y-9.832
X-109.112 Y-9.828
X-108.347 Y-9.661
X-108.326 Y-9.657
X-107.561 Y-9.501
X-107.54 Y-9.497
X-106.775 Y-9.352
X-106.754 Y-9.348
X-105.988 Y-9.214
X-105.966 Y-9.211
X-105.201 Y-9.087
X-105.179 Y-9.084
X-104.413 Y-8.972
X-104.392 Y-8.969
X-103.627 Y-8.867
X-103.605 Y-8.865
X-102.839 Y-8.774
X-102.817 Y-8.771
X-102.052 Y-8.692
X-102.03 Y-8.689
X-101.264 Y-8.62
X-101.243 Y-8.618
X-100.477 Y-8.559
X-100.455 Y-8.558
X-99.689 Y-8.509
X-99.668 Y-8.508
X-98.901 Y-8.47
X-98.87 Y-8.469
X-97.335 Y-8.422
X-97.295
X-95.756 Y-8.414
X-95.718 Y-8.415
X-94.175 Y-8.444
X-94.139 Y-8.445
X-92.589 Y-8.511
X-92.555 Y-8.512
X-90.997 Y-8.611
X-90.966 Y-8.613
X-89.397 Y-8.742
X-89.37 Y-8.745
X-87.788 Y-8.903
X-87.764 Y-8.906
X-86.168 Y-9.09
X-86.147 Y-9.092
X-84.535 Y-9.3
X-84.518 Y-9.302
X-82.887 Y-9.531
X-82.872 Y-9.533
X-81.221 Y-9.78
X-81.206 Y-9.782
X-77.838 Y-10.319
X-77.827 Y-10.321
X-74.363 Y-10.897
X-74.362 Y-10.898
X-70.8 Y-11.493
X-67.145 Y-12.088
X-63.401 Y-12.667
X-61.505 Y-12.945
X-59.593 Y-13.215
X-57.669 Y-13.474
X-55.738 Y-13.723
X-53.805 Y-13.96
X-51.874 Y-14.184
X-49.951 Y-14.396
X-48.041 Y-14.595
X-46.151 Y-14.781
X-44.288 Y-14.953
X-40.658 Y-15.26
X-37.208 Y-15.517
X-33.989 Y-15.726
X-31.048 Y-15.892
X-28.434 Y-16.02
X-26.189 Y-16.113
X-24.348 Y-16.176
X-22.943 Y-16.212
X-21.99 Y-16.224
X-10
G2 X-8.413 Y-17.811 I0 J-1.587
G1 Y-34.311
G2 X-10 Y-35.899 I-1.587 J0
G1 X-21.987
X-22.936 Y-35.914
X-23.996 Y-35.958
X-25.18 Y-36.033
X-26.484 Y-36.138
X-27.906 Y-36.271
X-29.44 Y-36.432
X-31.085 Y-36.618
X-32.835 Y-36.828
X-36.641 Y-37.313
X-40.816 Y-37.866
X-45.319 Y-38.467
X-45.323
X-50.106 Y-39.092
X-50.116 Y-39.093
X-55.131 Y-39.718
X-55.141 Y-39.72
X-57.72 Y-40.025
X-57.728 Y-40.026
X-60.345 Y-40.322
X-60.354 Y-40.323
X-63.004 Y-40.606
X-63.015 Y-40.608
X-65.69 Y-40.876
X-65.701 Y-40.877
X-68.395 Y-41.128
X-68.408 Y-41.129
X-71.113 Y-41.359
X-71.127 Y-41.36
X-73.838 Y-41.566
X-73.853 Y-41.567
X-76.563 Y-41.746
X-76.579 Y-41.747
X-79.28 Y-41.897
X-79.298 Y-41.898
X-81.985 Y-42.018
X-82.004
X-82.379 Y-42.03
S5000
X-84.669 Y-42.104 Z-1.58 F333.3
X-84.69 Y-42.105 Z-1.581
X-87.327 Y-42.155 Z-1.673
X-87.35 Z-1.674
X-89.953 Y-42.168 Z-1.765
X-89.977
X-92.542 Y-42.142 Z-1.855
X-92.561 Z-1.856
X-93.826 Y-42.114 Z-1.9
X-93.839
X-95.093 Y-42.076 Z-1.944
X-95.107 Z-1.945
X-96.347 Y-42.028 Z-1.988
X-96.361 Y-42.027
X-97.589 Y-41.969 Z-2.031
X-97.604 Y-41.968 Z-2.032
X-98.817 Y-41.899 Z-2.074
X-98.832 Y-41.898 Z-2.075
X-100.031 Y-41.819 Z-2.117
X-100.047 Y-41.818
X-101.23 Y-41.728 Z-2.159
X-101.246 Y-41.727
X-102.414 Y-41.626 Z-2.2
X-102.43 Y-41.625 Z-2.201
X-103.582 Y-41.514 Z-2.241
X-103.599 Y-41.512 Z-2.242
X-104.734 Y-41.391 Z-2.282
X-104.751 Y-41.389
X-105.868 Y-41.257 Z-2.322
X-105.886 Y-41.255
X-106.986 Y-41.113 Z-2.361
X-107.004 Y-41.11 Z-2.362
X-108.085 Y-40.957 Z-2.4
X-108.104 Y-40.955
X-109.166 Y-40.792 Z-2.438
X-109.185 Y-40.789 Z-2.439
X-110.228 Y-40.616 Z-2.475
X-110.247 Y-40.613 Z-2.476
X-111.27 Y-40.43 Z-2.512
X-111.29 Y-40.426 Z-2.513
X-112.294 Y-40.234 Z-2.549
X-112.314 Y-40.23 Z-2.55
X-113.297 Y-40.028 Z-2.585
X-113.318 Y-40.023
X-114.28 Y-39.812 Z-2.62
X-114.301 Y-39.807
X-115.243 Y-39.587 Z-2.654
X-115.265 Y-39.582 Z-2.655
X-116.185 Y-39.354 Z-2.688
X-116.206 Y-39.348 Z-2.689
X-117.106 Y-39.111 Z-2.721
X-117.128 Y-39.105 Z-2.722
X-118.006 Y-38.861 Z-2.754
X-118.028 Y-38.855 Z-2.755
X-118.884 Y-38.603 Z-2.786
X-118.907 Y-38.596 Z-2.787
X-119.741 Y-38.337 Z-2.817
X-119.763 Y-38.33 Z-2.818
X-120.576 Y-38.064 Z-2.848
X-120.599 Y-38.057 Z-2.849
X-121.39 Y-37.785 Z-2.878
X-121.413 Y-37.777 Z-2.879
X-122.182 Y-37.499 Z-2.907
X-122.205 Y-37.491 Z-2.908
X-122.952 Y-37.208 Z-2.936
X-122.975 Y-37.199 Z-2.937
X-123.7 Y-36.912 Z-2.964
X-123.724 Y-36.902 Z-2.965
X-124.426 Y-36.611 Z-2.992
X-124.449 Y-36.601 Z-2.993
X-124.643 Y-36.517 Z-3
S8000
X-125.13 Y-36.306 F1000
X-125.154 Y-36.295
X-125.813 Y-35.996
X-125.836 Y-35.985
X-126.473 Y-35.684
X-126.498 Y-35.671
X-127.112 Y-35.367
X-127.136 Y-35.356
X-127.729 Y-35.05
X-127.754 Y-35.037
X-128.325 Y-34.729
X-128.349 Y-34.716
X-128.898 Y-34.408
X-128.924 Y-34.393
X-129.451 Y-34.084
X-129.475 Y-34.07
X-129.981 Y-33.761
X-130.007 Y-33.745
X-130.491 Y-33.436
X-130.518 Y-33.419
X-130.98 Y-33.111
X-131.006 Y-33.093
X-131.447 Y-32.787
X-131.475 Y-32.767
X-131.894 Y-32.462
X-131.92 Y-32.443
X-132.319 Y-32.14
X-132.348 Y-32.117
X-132.725 Y-31.816
X-132.756 Y-31.791
X-133.111 Y-31.493
X-133.14 Y-31.468
X-133.475 Y-31.173
X-133.509 Y-31.143
X-133.822 Y-30.85
X-133.856 Y-30.818
X-134.148 Y-30.529
X-134.185 Y-30.491
X-134.455 Y-30.205
X-134.492 Y-30.165
X-134.741 Y-29.882
X-134.782 Y-29.833
X-135.009 Y-29.554
X-135.05 Y-29.501
X-135.256 Y-29.224
X-135.303 Y-29.158
X-135.486 Y-28.884
X-135.534 Y-28.808
X-135.694 Y-28.536
X-135.739 Y-28.454
X-135.877 Y-28.184
X-135.923 Y-28.087
X-136.038 Y-27.819
X-136.081 Y-27.706
X-136.172 Y-27.439
X-136.209 Y-27.314
X-136.276 Y-27.049
X-136.304 Y-26.914
X-136.347 Y-26.649
X-136.363 Y-26.508
X-136.382 Y-26.243
X-136.386 Y-26.094
X-136.38 Y-25.828
X-136.37 Y-25.68
X-136.339 Y-25.413
X-136.316 Y-25.272
X-136.26 Y-25.004
X-136.225 Y-24.867
X-136.143 Y-24.597
X-136.1 Y-24.473
X-135.992 Y-24.2
X-135.946 Y-24.094
X-135.813 Y-23.819
X-135.762 Y-23.722
X-135.603 Y-23.443
X-135.552 Y-23.359
X-135.367 Y-23.077
X-135.316 Y-23.004
X-135.105 Y-22.718
X-135.057 Y-22.656
X-134.82 Y-22.366
X-134.774 Y-22.313
X-134.511 Y-22.019
X-134.47 Y-21.974
X-134.182 Y-21.676
X-134.143 Y-21.637
X-133.83 Y-21.335
X-133.795 Y-21.302
X-133.458 Y-20.995
X-133.424 Y-20.965
X-133.062 Y-20.654
X-133.031 Y-20.629
X-132.645 Y-20.314
X-132.616 Y-20.29
X-132.206 Y-19.972
X-132.18 Y-19.953
X-131.748 Y-19.631
X-131.724 Y-19.613
X-131.27 Y-19.288
X-131.247 Y-19.272
X-130.772 Y-18.945
X-130.739 Y-18.923
X-129.726 Y-18.261
X-129.688 Y-18.237
X-128.6 Y-17.57
X-128.564 Y-17.548
X-127.405 Y-16.879
X-127.371 Y-16.861
X-126.149 Y-16.194
X-126.117 Y-16.177
X-124.838 Y-15.517
X-124.807 Y-15.501
X-123.478 Y-14.852
X-123.447 Y-14.837
X-122.075 Y-14.203
X-122.044 Y-14.189
X-120.634 Y-13.573
X-120.603 Y-13.56
X-119.162 Y-12.967
X-119.129 Y-12.954
X-117.662 Y-12.389
X-117.629 Y-12.376
X-116.142 Y-11.841
X-116.107 Y-11.829
X-114.605 Y-11.327
X-114.568 Y-11.315
X-113.054 Y-10.85
X-113.026 Y-10.842
X-112.266 Y-10.624
X-112.246 Y-10.618
X-111.484 Y-10.41
X-111.465 Y-10.405
X-110.702 Y-10.207
X-110.682 Y-10.202
X-109.919 Y-10.014
X-109.898 Y-10.009
X-109.133 Y-9.832
X-109.112 Y-9.828
X-108.347 Y-9.661
X-108.326 Y-9.657
X-107.561 Y-9.501
X-107.54 Y-9.497
X-106.775 Y-9.352
X-106.754 Y-9.348
X-105.988 Y-9.214
X-105.966 Y-9.211
X-105.201 Y-9.087
X-105.179 Y-9.084
X-104.413 Y-8.972
X-104.392 Y-8.969
X-103.627 Y-8.867
X-103.605 Y-8.865
X-102.839 Y-8.774
X-102.817 Y-8.771
X-102.052 Y-8.692
X-102.03 Y-8.689
X-101.264 Y-8.62
X-101.243 Y-8.618
X-100.477 Y-8.559
X-100.455 Y-8.558
X-99.689 Y-8.509
X-99.668 Y-8.508
X-98.901 Y-8.47
X-98.87 Y-8.469
X-97.335 Y-8.422
X-97.295
X-95.756 Y-8.414
X-95.718 Y-8.415
X-94.175 Y-8.444
X-94.139 Y-8.445
X-92.589 Y-8.511
X-92.555 Y-8.512
X-90.997 Y-8.611
X-90.966 Y-8.613
X-89.397 Y-8.742
X-89.37 Y-8.745
X-87.788 Y-8.903
X-87.764 Y-8.906
X-86.168 Y-9.09
X-86.147 Y-9.092
X-84.535 Y-9.3
X-84.518 Y-9.302
X-82.887 Y-9.531
X-82.872 Y-9.533
X-81.221 Y-9.78
X-81.206 Y-9.782
X-77.838 Y-10.319
X-77.827 Y-10.321
X-74.363 Y-10.897
X-74.362 Y-10.898
X-70.8 Y-11.493
X-67.145 Y-12.088
X-63.401 Y-12.667
X-61.505 Y-12.945
X-59.593 Y-13.215
X-57.669 Y-13.474
X-55.738 Y-13.723
X-53.805 Y-13.96
X-51.874 Y-14.184
X-49.951 Y-14.396
X-48.041 Y-14.595
X-46.151 Y-14.781
X-44.288 Y-14.953
X-40.658 Y-15.26
X-37.208 Y-15.517
X-33.989 Y-15.726
X-31.048 Y-15.892
X-28.434 Y-16.02
X-26.189 Y-16.113
X-24.348 Y-16.176
X-22.943 Y-16.212
X-21.99 Y-16.224
X-10
G2 X-8.413 Y-17.811 I0 J-1.587
G1 Y-34.311
G2 X-10 Y-35.899 I-1.587 J0
G1 X-21.987
X-22.936 Y-35.914
X-23.996 Y-35.958
X-25.18 Y-36.033
X-26.484 Y-36.138
X-27.906 Y-36.271
X-29.44 Y-36.432
X-31.085 Y-36.618
X-32.835 Y-36.828
X-36.641 Y-37.313
X-40.816 Y-37.866
X-45.319 Y-38.467
X-45.323
X-50.106 Y-39.092
X-50.116 Y-39.093
X-55.131 Y-39.718
X-55.141 Y-39.72
X-57.72 Y-40.025
X-57.728 Y-40.026
X-60.345 Y-40.322
X-60.354 Y-40.323
X-63.004 Y-40.606
X-63.015 Y-40.608
X-65.69 Y-40.876
X-65.701 Y-40.877
X-68.395 Y-41.128
X-68.408 Y-41.129
X-71.113 Y-41.359
X-71.127 Y-41.36
X-73.838 Y-41.566
X-73.853 Y-41.567
X-76.563 Y-41.746
X-76.579 Y-41.747
X-79.28 Y-41.897
X-79.298 Y-41.898
X-81.985 Y-42.018
X-82.004
X-84.669 Y-42.104
X-84.69 Y-42.105
X-87.327 Y-42.155
X-87.35
X-89.953 Y-42.168
X-89.977
X-92.542 Y-42.142
X-92.561
X-93.826 Y-42.114
X-93.839
X-95.093 Y-42.076
X-95.107
X-96.347 Y-42.028
X-96.361 Y-42.027
X-97.589 Y-41.969
X-97.604 Y-41.968
X-98.817 Y-41.899
X-98.832 Y-41.898
X-100.031 Y-41.819
X-100.047 Y-41.818
X-101.23 Y-41.728
X-101.246 Y-41.727
X-102.414 Y-41.626
X-102.43 Y-41.625
X-103.582 Y-41.514
X-103.599 Y-41.512
X-104.734 Y-41.391
X-104.751 Y-41.389
X-105.868 Y-41.257
X-105.886 Y-41.255
X-106.986 Y-41.113
X-107.004 Y-41.11
X-108.085 Y-40.957
X-108.104 Y-40.955
X-109.166 Y-40.792
X-109.185 Y-40.789
X-110.228 Y-40.616
X-110.247 Y-40.613
X-111.27 Y-40.43
X-111.29 Y-40.426
X-112.294 Y-40.234
X-112.314 Y-40.23
X-113.297 Y-40.028
X-113.318 Y-40.023
X-114.28 Y-39.812
X-114.301 Y-39.807
X-115.243 Y-39.587
X-115.265 Y-39.582
X-116.185 Y-39.354
X-116.206 Y-39.348
X-117.106 Y-39.111
X-117.128 Y-39.105
X-118.006 Y-38.861
X-118.028 Y-38.855
X-118.884 Y-38.603
X-118.907 Y-38.596
X-119.741 Y-38.337
X-119.763 Y-38.33
X-120.576 Y-38.064
X-120.599 Y-38.057
X-121.39 Y-37.785
X-121.413 Y-37.777
X-122.182 Y-37.499
X-122.205 Y-37.491
X-122.952 Y-37.208
X-122.975 Y-37.199
X-123.7 Y-36.912
X-123.724 Y-36.902
X-124.426 Y-36.611
X-124.449 Y-36.601
X-124.643 Y-36.517
S5000
X-125.13 Y-36.306 Z-3.019 F333.3
X-125.154 Y-36.295
X-125.813 Y-35.996 Z-3.045
X-125.836 Y-35.985 Z-3.046
X-126.473 Y-35.684 Z-3.07
X-126.498 Y-35.671 Z-3.071
X-127.112 Y-35.367 Z-3.095
X-127.136 Y-35.356 Z-3.096
X-127.729 Y-35.05 Z-3.119
X-127.754 Y-35.037 Z-3.12
X-128.325 Y-34.729 Z-3.143
X-128.349 Y-34.716 Z-3.144
X-128.898 Y-34.408 Z-3.166
X-128.924 Y-34.393 Z-3.167
X-129.451 Y-34.084 Z-3.188
X-129.475 Y-34.07 Z-3.189
X-129.981 Y-33.761 Z-3.21
X-130.007 Y-33.745 Z-3.211
X-130.491 Y-33.436 Z-3.231
X-130.518 Y-33.419 Z-3.232
X-130.98 Y-33.111 Z-3.252
X-131.006 Y-33.093 Z-3.253
X-131.447 Y-32.787 Z-3.271
X-131.475 Y-32.767 Z-3.273
X-131.894 Y-32.462 Z-3.291
X-131.92 Y-32.443 Z-3.292
X-132.319 Y-32.14 Z-3.309
X-132.348 Y-32.117 Z-3.311
X-132.725 Y-31.816 Z-3.328
X-132.756 Y-31.791 Z-3.329
X-133.111 Y-31.493 Z-3.345
X-133.14 Y-31.468 Z-3.346
X-133.475 Y-31.173 Z-3.362
X-133.509 Y-31.143 Z-3.364
X-133.822 Y-30.85 Z-3.379
X-133.856 Y-30.818 Z-3.38
X-134.148 Y-30.529 Z-3.395
X-134.185 Y-30.491 Z-3.396
X-134.455 Y-30.205 Z-3.41
X-134.492 Y-30.165 Z-3.412
X-134.741 Y-29.882 Z-3.425
X-134.782 Y-29.833 Z-3.427
X-135.009 Y-29.554 Z-3.44
X-135.05 Y-29.501 Z-3.442
X-135.256 Y-29.224 Z-3.454
X-135.303 Y-29.158 Z-3.457
X-135.486 Y-28.884 Z-3.469
X-135.534 Y-28.808 Z-3.472
X-135.694 Y-28.536 Z-3.483
X-135.739 Y-28.454 Z-3.486
X-135.877 Y-28.184 Z-3.497
X-135.923 Y-28.087 Z-3.5
X-136.038 Y-27.819 Z-3.511
X-136.081 Y-27.706 Z-3.515
X-136.172 Y-27.439 Z-3.525
X-136.209 Y-27.314 Z-3.529
X-136.276 Y-27.049 Z-3.539
X-136.304 Y-26.914 Z-3.544
X-136.347 Y-26.649 Z-3.553
X-136.363 Y-26.508 Z-3.558
X-136.382 Y-26.243 Z-3.567
X-136.386 Y-26.094 Z-3.572
X-136.38 Y-25.828 Z-3.582
X-136.37 Y-25.68 Z-3.587
X-136.339 Y-25.413 Z-3.596
X-136.316 Y-25.272 Z-3.601
X-136.26 Y-25.004 Z-3.611
X-136.225 Y-24.867 Z-3.616
X-136.143 Y-24.597 Z-3.626
X-136.1 Y-24.473 Z-3.63
X-135.992 Y-24.2 Z-3.641
X-135.946 Y-24.094 Z-3.645
X-135.813 Y-23.819 Z-3.655
X-135.762 Y-23.722 Z-3.659
X-135.603 Y-23.443 Z-3.67
X-135.552 Y-23.359 Z-3.674
X-135.367 Y-23.077 Z-3.686
X-135.316 Y-23.004 Z-3.689
X-135.105 Y-22.718 Z-3.701
X-135.057 Y-22.656 Z-3.704
X-134.82 Y-22.366 Z-3.717
X-134.806 Y-22.349 Z-3.718
Z-3.6
X-134.774 Y-22.313
X-134.511 Y-22.019
X-134.47 Y-21.974
X-134.182 Y-21.676
X-134.143 Y-21.637
X-133.83 Y-21.335
X-133.795 Y-21.302
X-133.458 Y-20.995
X-133.424 Y-20.965
X-133.062 Y-20.654
X-133.031 Y-20.629
X-132.645 Y-20.314
X-132.616 Y-20.29
X-132.206 Y-19.972
X-132.18 Y-19.953
X-131.748 Y-19.631
X-131.724 Y-19.613
X-131.27 Y-19.288
X-131.247 Y-19.272
X-130.772 Y-18.945
X-130.739 Y-18.923
X-129.726 Y-18.261
X-129.688 Y-18.237
X-128.6 Y-17.57
X-128.564 Y-17.548
X-128.3 Y-17.396
S8000
Z-4.004
S5000
X-127.405 Y-16.879 Z-4.04
X-127.371 Y-16.861 Z-4.042
X-126.149 Y-16.194 Z-4.09
X-126.117 Y-16.177 Z-4.092
X-124.838 Y-15.517 Z-4.142
X-124.807 Y-15.501 Z-4.143
X-123.478 Y-14.852 Z-4.195
X-123.447 Y-14.837 Z-4.196
X-123.342 Y-14.789 Z-4.2
S8000
X-122.075 Y-14.203 F1000
X-122.044 Y-14.189
X-120.634 Y-13.573
X-120.603 Y-13.56
X-119.162 Y-12.967
X-119.129 Y-12.954
X-117.662 Y-12.389
X-117.629 Y-12.376
X-116.142 Y-11.841
X-116.107 Y-11.829
X-114.605 Y-11.327
X-114.568 Y-11.315
X-113.054 Y-10.85
X-113.026 Y-10.842
X-112.266 Y-10.624
X-112.246 Y-10.618
X-111.484 Y-10.41
X-111.465 Y-10.405
X-110.702 Y-10.207
X-110.682 Y-10.202
X-109.919 Y-10.014
X-109.898 Y-10.009
X-109.133 Y-9.832
X-109.112 Y-9.828
X-108.347 Y-9.661
X-108.326 Y-9.657
X-107.561 Y-9.501
X-107.54 Y-9.497
X-106.775 Y-9.352
X-106.754 Y-9.348
X-105.988 Y-9.214
X-105.966 Y-9.211
X-105.201 Y-9.087
X-105.179 Y-9.084
X-104.413 Y-8.972
X-104.392 Y-8.969
X-103.627 Y-8.867
X-103.605 Y-8.865
X-102.839 Y-8.774
X-102.817 Y-8.771
X-102.052 Y-8.692
X-102.03 Y-8.689
X-101.264 Y-8.62
X-101.243 Y-8.618
X-100.477 Y-8.559
X-100.455 Y-8.558
X-99.689 Y-8.509
X-99.668 Y-8.508
X-98.901 Y-8.47
X-98.87 Y-8.469
X-97.335 Y-8.422
X-97.295
X-95.756 Y-8.414
X-95.718 Y-8.415
X-94.175 Y-8.444
X-94.139 Y-8.445
X-92.589 Y-8.511
X-92.555 Y-8.512
X-90.997 Y-8.611
X-90.966 Y-8.613
X-89.397 Y-8.742
X-89.37 Y-8.745
X-87.788 Y-8.903
X-87.764 Y-8.906
X-86.168 Y-9.09
X-86.147 Y-9.092
X-84.535 Y-9.3
X-84.518 Y-9.302
X-82.887 Y-9.531
X-82.872 Y-9.533
X-81.221 Y-9.78
X-81.206 Y-9.782
X-77.838 Y-10.319
X-77.827 Y-10.321
X-74.363 Y-10.897
X-74.362 Y-10.898
X-70.8 Y-11.493
X-67.145 Y-12.088
X-63.401 Y-12.667
X-61.505 Y-12.945
X-59.79 Y-13.187
Z-3.6
X-59.593 Y-13.215
X-57.669 Y-13.474
X-55.738 Y-13.723
X-53.805 Y-13.96
X-51.874 Y-14.184
X-51.679 Y-14.206
Z-4.2 F333.3
X-49.951 Y-14.396 F1000
X-48.041 Y-14.595
X-46.151 Y-14.781
X-44.288 Y-14.953
X-40.658 Y-15.26
X-37.208 Y-15.517
X-33.989 Y-15.726
X-31.048 Y-15.892
X-28.434 Y-16.02
X-26.189 Y-16.113
X-24.348 Y-16.176
X-22.943 Y-16.212
X-21.99 Y-16.224
X-10
G2 X-8.413 Y-17.811 I0 J-1.587
G1 Y-34.311
G2 X-10 Y-35.899 I-1.587 J0
G1 X-21.987
X-22.936 Y-35.914
X-23.996 Y-35.958
X-25.18 Y-36.033
X-26.484 Y-36.138
X-27.906 Y-36.271
X-29.44 Y-36.432
X-31.085 Y-36.618
X-32.835 Y-36.828
X-36.641 Y-37.313
X-40.816 Y-37.866
X-45.319 Y-38.467
X-45.323
X-50.106 Y-39.092
X-50.116 Y-39.093
X-55.131 Y-39.718
X-55.141 Y-39.72
X-57.72 Y-40.025
X-57.728 Y-40.026
X-60.345 Y-40.322
X-60.354 Y-40.323
X-63.004 Y-40.606
X-63.015 Y-40.608
X-65.69 Y-40.876
X-65.701 Y-40.877
X-67.048 Y-41.003
Z-3.6
X-68.395 Y-41.128
X-68.408 Y-41.129
X-71.113 Y-41.359
X-71.127 Y-41.36
X-73.838 Y-41.566
X-73.853 Y-41.567
X-75.197 Y-41.656
Z-4.2 F333.3
X-76.563 Y-41.746 F1000
X-76.579 Y-41.747
X-79.28 Y-41.897
X-79.298 Y-41.898
X-81.985 Y-42.018
X-82.004
X-84.669 Y-42.104
X-84.69 Y-42.105
X-87.327 Y-42.155
X-87.35
X-89.953 Y-42.168
X-89.977
X-92.542 Y-42.142
X-92.561
X-93.826 Y-42.114
X-93.839
X-95.093 Y-42.076
X-95.107
X-96.347 Y-42.028
X-96.361 Y-42.027
X-97.589 Y-41.969
X-97.604 Y-41.968
X-98.817 Y-41.899
X-98.832 Y-41.898
X-100.031 Y-41.819
X-100.047 Y-41.818
X-101.23 Y-41.728
X-101.246 Y-41.727
X-102.414 Y-41.626
X-102.43 Y-41.625
X-103.582 Y-41.514
X-103.599 Y-41.512
X-104.734 Y-41.391
X-104.751 Y-41.389
X-105.868 Y-41.257
X-105.886 Y-41.255
X-106.986 Y-41.113
X-107.004 Y-41.11
X-108.085 Y-40.957
X-108.104 Y-40.955
X-109.166 Y-40.792
X-109.185 Y-40.789
X-110.228 Y-40.616
X-110.247 Y-40.613
X-111.27 Y-40.43
X-111.29 Y-40.426
X-112.294 Y-40.234
X-112.314 Y-40.23
X-113.297 Y-40.028
X-113.318 Y-40.023
X-114.28 Y-39.812
X-114.301 Y-39.807
X-115.243 Y-39.587
X-115.265 Y-39.582
X-116.185 Y-39.354
X-116.206 Y-39.348
X-117.106 Y-39.111
X-117.128 Y-39.105
X-118.006 Y-38.861
X-118.028 Y-38.855
X-118.884 Y-38.603
X-118.907 Y-38.596
X-119.741 Y-38.337
X-119.763 Y-38.33
X-120.576 Y-38.064
X-120.599 Y-38.057
X-121.39 Y-37.785
X-121.413 Y-37.777
X-122.182 Y-37.499
X-122.205 Y-37.491
X-122.952 Y-37.208
X-122.975 Y-37.199
X-123.7 Y-36.912
X-123.724 Y-36.902
X-124.426 Y-36.611
X-124.449 Y-36.601
X-125.13 Y-36.306
X-125.154 Y-36.295
X-125.813 Y-35.996
X-125.836 Y-35.985
X-126.473 Y-35.684
X-126.498 Y-35.671
X-127.112 Y-35.367
X-127.136 Y-35.356
X-127.729 Y-35.05
X-127.754 Y-35.037
X-128.325 Y-34.729
X-128.349 Y-34.716
X-128.898 Y-34.408
X-128.924 Y-34.393
X-129.451 Y-34.084
X-129.475 Y-34.07
X-129.981 Y-33.761
X-130.007 Y-33.745
X-130.491 Y-33.436
X-130.518 Y-33.419
X-130.98 Y-33.111
X-131.006 Y-33.093
X-131.447 Y-32.787
X-131.475 Y-32.767
X-131.894 Y-32.462
X-131.92 Y-32.443
X-132.319 Y-32.14
X-132.348 Y-32.117
X-132.725 Y-31.816
X-132.756 Y-31.791
X-133.111 Y-31.493
X-133.14 Y-31.468
X-133.475 Y-31.173
X-133.509 Y-31.143
X-133.822 Y-30.85
X-133.856 Y-30.818
X-134.148 Y-30.529
X-134.185 Y-30.491
X-134.455 Y-30.205
X-134.492 Y-30.165
X-134.741 Y-29.882
X-134.782 Y-29.833
X-135.009 Y-29.554
X-135.05 Y-29.501
X-135.256 Y-29.224
X-135.303 Y-29.158
X-135.486 Y-28.884
X-135.534 Y-28.808
X-135.694 Y-28.536
X-135.739 Y-28.454
X-135.877 Y-28.184
X-135.923 Y-28.087
X-136.038 Y-27.819
X-136.081 Y-27.706
X-136.172 Y-27.439
X-136.209 Y-27.314
X-136.276 Y-27.049
X-136.304 Y-26.914
X-136.347 Y-26.649
X-136.363 Y-26.508
X-136.382 Y-26.243
X-136.386 Y-26.094
X-136.38 Y-25.828
X-136.37 Y-25.68
X-136.339 Y-25.413
X-136.316 Y-25.272
X-136.26 Y-25.004
X-136.225 Y-24.867
X-136.143 Y-24.597
X-136.1 Y-24.473
X-135.992 Y-24.2
X-135.946 Y-24.094
X-135.813 Y-23.819
X-135.762 Y-23.722
X-135.603 Y-23.443
X-135.552 Y-23.359
X-135.367 Y-23.077
X-135.316 Y-23.004
X-135.105 Y-22.718
X-135.057 Y-22.656
X-134.82 Y-22.366
X-134.806 Y-22.349
Z-3.6
X-134.774 Y-22.313
X-134.511 Y-22.019
X-134.47 Y-21.974
X-134.182 Y-21.676
X-134.143 Y-21.637
X-133.83 Y-21.335
X-133.795 Y-21.302
X-133.458 Y-20.995
X-133.424 Y-20.965
X-133.062 Y-20.654
X-133.031 Y-20.629
X-132.645 Y-20.314
X-132.616 Y-20.29
X-132.206 Y-19.972
X-132.18 Y-19.953
X-131.748 Y-19.631
X-131.724 Y-19.613
X-131.27 Y-19.288
X-131.247 Y-19.272
X-130.772 Y-18.945
X-130.739 Y-18.923
X-129.726 Y-18.261
X-129.688 Y-18.237
X-128.6 Y-17.57
X-128.564 Y-17.548
X-128.3 Y-17.396
Z-4.2 F333.3
X-127.405 Y-16.879 F1000
X-127.371 Y-16.861
X-126.149 Y-16.194
X-126.117 Y-16.177
X-124.838 Y-15.517
X-124.807 Y-15.501
X-123.478 Y-14.852
X-123.447 Y-14.837
X-123.342 Y-14.789
G3 X-123.188 Y-14.367 I-0.133 J0.288
G1 X-123.321 Y-14.079
X-123.35 Y-14.015 Z-4.192
X-123.379 Y-13.954 Z-4.169
X-123.404 Y-13.899 Z-4.131
X-123.425 Y-13.854 Z-4.08
X-123.441 Y-13.819 Z-4.02
X-123.451 Y-13.798 Z-3.953
X-123.454 Y-13.791 Z-3.883
G0 Z15

(2D-Kontur5)
X-170.606 Y-14.96
Z15
Z5
G1 Z2.818 F333.3
Y-14.968 Z2.747 F1000
X-170.608 Y-14.992 Z2.68
X-170.609 Y-15.03 Z2.62
X-170.612 Y-15.08 Z2.569
X-170.615 Y-15.14 Z2.531
X-170.618 Y-15.207 Z2.508
X-170.622 Y-15.278 Z2.5
X-170.637 Y-15.595
G3 X-170.335 Y-15.927 I0.317 J-0.015
S5000
G1 X-168.434 Y-16.02 Z2.434 F333.3
X-166.189 Y-16.113 Z2.355
X-164.348 Y-16.176 Z2.291
X-162.943 Y-16.212 Z2.242
X-161.99 Y-16.224 Z2.208
X-150 Z1.79
G2 X-148.412 Y-17.811 Z1.703 I0 J-1.587
G1 Y-34.311 Z1.126
G2 X-150 Y-35.899 Z1.039 I-1.587 J0
G1 X-161.987 Z0.621
X-162.936 Y-35.914 Z0.588
X-163.996 Y-35.958 Z0.551
X-165.18 Y-36.033 Z0.509
X-166.484 Y-36.138 Z0.463
X-167.906 Y-36.271 Z0.414
X-169.44 Y-36.432 Z0.36
X-171.085 Y-36.618 Z0.302
X-172.835 Y-36.828 Z0.24
X-176.641 Y-37.313 Z0.106
X-180.816 Y-37.866 Z-0.041
X-185.319 Y-38.467 Z-0.199
X-185.323 Z-0.2
X-190.106 Y-39.092 Z-0.368
X-190.116 Y-39.093
X-195.131 Y-39.718 Z-0.545
X-195.141 Y-39.72
X-197.72 Y-40.025 Z-0.636
X-197.728 Y-40.026
X-200.345 Y-40.322 Z-0.728
X-200.354 Y-40.323
X-203.004 Y-40.606 Z-0.821
X-203.015 Y-40.608 Z-0.822
X-205.69 Y-40.876 Z-0.916
X-205.701 Y-40.877
X-208.395 Y-41.128 Z-1.011
X-208.408 Y-41.129
X-211.113 Y-41.359 Z-1.106
X-211.127 Y-41.36
X-213.838 Y-41.566 Z-1.201
X-213.853 Y-41.567 Z-1.202
X-216.563 Y-41.746 Z-1.297
X-216.579 Y-41.747
X-219.28 Y-41.897 Z-1.392
X-219.298 Y-41.898
X-221.985 Y-42.018 Z-1.486
X-222.004 Z-1.487
X-222.379 Y-42.03 Z-1.5
S8000
X-224.669 Y-42.104 F1000
X-224.69 Y-42.105
X-227.327 Y-42.155
X-227.35
X-229.953 Y-42.168
X-229.977
X-232.542 Y-42.142
X-232.561
X-233.826 Y-42.114
X-233.839
X-235.093 Y-42.076
X-235.107
X-236.347 Y-42.028
X-236.361 Y-42.027
X-237.589 Y-41.969
X-237.604 Y-41.968
X-238.817 Y-41.899
X-238.832 Y-41.898
X-240.031 Y-41.819
X-240.046 Y-41.818
X-241.23 Y-41.728
X-241.246 Y-41.727
X-242.414 Y-41.626
X-242.43 Y-41.625
X-243.582 Y-41.514
X-243.599 Y-41.512
X-244.734 Y-41.391
X-244.751 Y-41.389
X-245.868 Y-41.257
X-245.886 Y-41.255
X-246.986 Y-41.113
X-247.004 Y-41.11
X-248.085 Y-40.957
X-248.104 Y-40.955
X-249.166 Y-40.792
X-249.185 Y-40.789
X-250.228 Y-40.616
X-250.247 Y-40.613
X-251.27 Y-40.43
X-251.29 Y-40.426
X-252.294 Y-40.234
X-252.314 Y-40.23
X-253.297 Y-40.028
X-253.318 Y-40.023
X-254.28 Y-39.812
X-254.301 Y-39.807
X-255.243 Y-39.587
X-255.265 Y-39.582
X-256.185 Y-39.354
X-256.206 Y-39.348
X-257.106 Y-39.111
X-257.128 Y-39.105
X-258.006 Y-38.861
X-258.028 Y-38.855
X-258.884 Y-38.603
X-258.907 Y-38.596
X-259.741 Y-38.337
X-259.763 Y-38.33
X-260.576 Y-38.064
X-260.599 Y-38.057
X-261.39 Y-37.785
X-261.413 Y-37.777
X-262.182 Y-37.499
X-262.205 Y-37.491
X-262.952 Y-37.208
X-262.975 Y-37.199
X-263.7 Y-36.912
X-263.724 Y-36.902
X-264.426 Y-36.611
X-264.449 Y-36.601
X-265.13 Y-36.306
X-265.154 Y-36.295
X-265.813 Y-35.996
X-265.836 Y-35.985
X-266.473 Y-35.684
X-266.498 Y-35.671
X-267.112 Y-35.367
X-267.136 Y-35.356
X-267.729 Y-35.05
X-267.754 Y-35.037
X-268.325 Y-34.729
X-268.349 Y-34.716
X-268.898 Y-34.408
X-268.924 Y-34.393
X-269.451 Y-34.084
X-269.475 Y-34.07
X-269.981 Y-33.761
X-270.007 Y-33.745
X-270.491 Y-33.436
X-270.518 Y-33.419
X-270.98 Y-33.111
X-271.006 Y-33.093
X-271.447 Y-32.787
X-271.475 Y-32.767
X-271.894 Y-32.462
X-271.92 Y-32.443
X-272.319 Y-32.14
X-272.348 Y-32.117
X-272.725 Y-31.816
X-272.756 Y-31.791
X-273.111 Y-31.493
X-273.14 Y-31.468
X-273.475 Y-31.173
X-273.509 Y-31.143
X-273.822 Y-30.85
X-273.856 Y-30.818
X-274.148 Y-30.529
X-274.185 Y-30.491
X-274.455 Y-30.205
X-274.492 Y-30.165
X-274.741 Y-29.882
X-274.782 Y-29.833
X-275.009 Y-29.554
X-275.05 Y-29.501
X-275.256 Y-29.224
X-275.303 Y-29.158
X-275.486 Y-28.884
X-275.534 Y-28.808
X-275.694 Y-28.536
X-275.739 Y-28.454
X-275.877 Y-28.184
X-275.923 Y-28.087
X-276.038 Y-27.819
X-276.081 Y-27.706
X-276.172 Y-27.439
X-276.209 Y-27.314
X-276.276 Y-27.049
X-276.304 Y-26.914
X-276.347 Y-26.649
X-276.363 Y-26.508
X-276.382 Y-26.243
X-276.386 Y-26.094
X-276.38 Y-25.828
X-276.37 Y-25.68
X-276.339 Y-25.413
X-276.316 Y-25.272
X-276.26 Y-25.004
X-276.225 Y-24.867
X-276.143 Y-24.597
X-276.1 Y-24.473
X-275.992 Y-24.2
X-275.946 Y-24.094
X-275.813 Y-23.819
X-275.762 Y-23.722
X-275.603 Y-23.443
X-275.552 Y-23.359
X-275.367 Y-23.077
X-275.316 Y-23.004
X-275.105 Y-22.718
X-275.057 Y-22.656
X-274.82 Y-22.366
X-274.774 Y-22.313
X-274.511 Y-22.019
X-274.47 Y-21.974
X-274.182 Y-21.676
X-274.143 Y-21.637
X-273.83 Y-21.335
X-273.795 Y-21.302
X-273.458 Y-20.995
X-273.424 Y-20.965
X-273.062 Y-20.654
X-273.031 Y-20.629
X-272.645 Y-20.314
X-272.616 Y-20.29
X-272.206 Y-19.972
X-272.18 Y-19.953
X-271.748 Y-19.631
X-271.724 Y-19.613
X-271.27 Y-19.288
X-271.247 Y-19.272
X-270.772 Y-18.945
X-270.739 Y-18.923
X-269.726 Y-18.261
X-269.688 Y-18.237
X-268.6 Y-17.57
X-268.564 Y-17.548
X-267.405 Y-16.879
X-267.371 Y-16.861
X-266.149 Y-16.194
X-266.117 Y-16.177
X-264.838 Y-15.517
X-264.807 Y-15.501
X-263.478 Y-14.852
X-263.447 Y-14.837
X-262.075 Y-14.203
X-262.044 Y-14.189
X-260.634 Y-13.573
X-260.603 Y-13.56
X-259.162 Y-12.967
X-259.129 Y-12.954
X-257.662 Y-12.389
X-257.629 Y-12.376
X-256.142 Y-11.841
X-256.107 Y-11.829
X-254.605 Y-11.327
X-254.568 Y-11.315
X-253.054 Y-10.85
X-253.026 Y-10.842
X-252.266 Y-10.624
X-252.246 Y-10.618
X-251.484 Y-10.41
X-251.465 Y-10.405
X-250.702 Y-10.207
X-250.682 Y-10.202
X-249.919 Y-10.014
X-249.898 Y-10.009
X-249.133 Y-9.832
X-249.112 Y-9.828
X-248.347 Y-9.661
X-248.326 Y-9.657
X-247.561 Y-9.501
X-247.54 Y-9.497
X-246.775 Y-9.352
X-246.754 Y-9.348
X-245.988 Y-9.214
X-245.966 Y-9.211
X-245.201 Y-9.087
X-245.179 Y-9.084
X-244.413 Y-8.972
X-244.392 Y-8.969
X-243.627 Y-8.867
X-243.605 Y-8.865
X-242.839 Y-8.774
X-242.817 Y-8.771
X-242.052 Y-8.692
X-242.03 Y-8.689
X-241.264 Y-8.62
X-241.242 Y-8.618
X-240.476 Y-8.559
X-240.455 Y-8.558
X-239.689 Y-8.509
X-239.668 Y-8.508
X-238.901 Y-8.47
X-238.87 Y-8.469
X-237.335 Y-8.422
X-237.295
X-235.756 Y-8.414
X-235.718 Y-8.415
X-234.175 Y-8.444
X-234.139 Y-8.445
X-232.589 Y-8.511
X-232.555 Y-8.512
X-230.997 Y-8.611
X-230.966 Y-8.613
X-229.397 Y-8.742
X-229.37 Y-8.745
X-227.788 Y-8.903
X-227.764 Y-8.906
X-226.168 Y-9.09
X-226.147 Y-9.092
X-224.535 Y-9.3
X-224.518 Y-9.302
X-222.887 Y-9.531
X-222.872 Y-9.533
X-221.221 Y-9.78
X-221.206 Y-9.782
X-217.838 Y-10.319
X-217.827 Y-10.321
X-214.363 Y-10.897
X-214.362 Y-10.898
X-210.8 Y-11.493
X-207.145 Y-12.088
X-203.401 Y-12.667
X-201.505 Y-12.945
X-199.593 Y-13.215
X-197.669 Y-13.474
X-195.738 Y-13.723
X-193.805 Y-13.96
X-191.874 Y-14.184
X-189.951 Y-14.396
X-188.041 Y-14.595
X-186.151 Y-14.781
X-184.288 Y-14.953
X-180.658 Y-15.26
X-177.208 Y-15.517
X-173.989 Y-15.726
X-171.048 Y-15.892
X-168.434 Y-16.02
X-166.189 Y-16.113
X-164.348 Y-16.176
X-162.943 Y-16.212
X-161.99 Y-16.224
X-150
G2 X-148.412 Y-17.811 I0 J-1.587
G1 Y-34.311
G2 X-150 Y-35.899 I-1.587 J0
G1 X-161.987
X-162.936 Y-35.914
X-163.996 Y-35.958
X-165.18 Y-36.033
X-166.484 Y-36.138
X-167.906 Y-36.271
X-169.44 Y-36.432
X-171.085 Y-36.618
X-172.835 Y-36.828
X-176.641 Y-37.313
X-180.816 Y-37.866
X-185.319 Y-38.467
X-185.323
X-190.106 Y-39.092
X-190.116 Y-39.093
X-195.131 Y-39.718
X-195.141 Y-39.72
X-197.72 Y-40.025
X-197.728 Y-40.026
X-200.345 Y-40.322
X-200.354 Y-40.323
X-203.004 Y-40.606
X-203.015 Y-40.608
X-205.69 Y-40.876
X-205.701 Y-40.877
X-208.395 Y-41.128
X-208.408 Y-41.129
X-211.113 Y-41.359
X-211.127 Y-41.36
X-213.838 Y-41.566
X-213.853 Y-41.567
X-216.563 Y-41.746
X-216.579 Y-41.747
X-219.28 Y-41.897
X-219.298 Y-41.898
X-221.985 Y-42.018
X-222.004
X-222.379 Y-42.03
S5000
X-224.669 Y-42.104 Z-1.58 F333.3
X-224.69 Y-42.105 Z-1.581
X-227.327 Y-42.155 Z-1.673
X-227.35 Z-1.674
X-229.953 Y-42.168 Z-1.765
X-229.977
X-232.542 Y-42.142 Z-1.855
X-232.561 Z-1.856
X-233.826 Y-42.114 Z-1.9
X-233.839
X-235.093 Y-42.076 Z-1.944
X-235.107 Z-1.945
X-236.347 Y-42.028 Z-1.988
X-236.361 Y-42.027
X-237.589 Y-41.969 Z-2.031
X-237.604 Y-41.968 Z-2.032
X-238.817 Y-41.899 Z-2.074
X-238.832 Y-41.898 Z-2.075
X-240.031 Y-41.819 Z-2.117
X-240.046 Y-41.818
X-241.23 Y-41.728 Z-2.159
X-241.246 Y-41.727
X-242.414 Y-41.626 Z-2.2
X-242.43 Y-41.625 Z-2.201
X-243.582 Y-41.514 Z-2.241
X-243.599 Y-41.512 Z-2.242
X-244.734 Y-41.391 Z-2.282
X-244.751 Y-41.389
X-245.868 Y-41.257 Z-2.322
X-245.886 Y-41.255
X-246.986 Y-41.113 Z-2.361
X-247.004 Y-41.11 Z-2.362
X-248.085 Y-40.957 Z-2.4
X-248.104 Y-40.955
X-249.166 Y-40.792 Z-2.438
X-249.185 Y-40.789 Z-2.439
X-250.228 Y-40.616 Z-2.475
X-250.247 Y-40.613 Z-2.476
X-251.27 Y-40.43 Z-2.512
X-251.29 Y-40.426 Z-2.513
X-252.294 Y-40.234 Z-2.549
X-252.314 Y-40.23 Z-2.55
X-253.297 Y-40.028 Z-2.585
X-253.318 Y-40.023
X-254.28 Y-39.812 Z-2.62
X-254.301 Y-39.807
X-255.243 Y-39.587 Z-2.654
X-255.265 Y-39.582 Z-2.655
X-256.185 Y-39.354 Z-2.688
X-256.206 Y-39.348 Z-2.689
X-257.106 Y-39.111 Z-2.721
X-257.128 Y-39.105 Z-2.722
X-258.006 Y-38.861 Z-2.754
X-258.028 Y-38.855 Z-2.755
X-258.884 Y-38.603 Z-2.786
X-258.907 Y-38.596 Z-2.787
X-259.741 Y-38.337 Z-2.817
X-259.763 Y-38.33 Z-2.818
X-260.576 Y-38.064 Z-2.848
X-260.599 Y-38.057 Z-2.849
X-261.39 Y-37.785 Z-2.878
X-261.413 Y-37.777 Z-2.879
X-262.182 Y-37.499 Z-2.907
X-262.205 Y-37.491 Z-2.908
X-262.952 Y-37.208 Z-2.936
X-262.975 Y-37.199 Z-2.937
X-263.7 Y-36.912 Z-2.964
X-263.724 Y-36.902 Z-2.965
X-264.426 Y-36.611 Z-2.992
X-264.449 Y-36.601 Z-2.993
X-264.643 Y-36.517 Z-3
S8000
X-265.13 Y-36.306 F1000
X-265.154 Y-36.295
X-265.813 Y-35.996
X-265.836 Y-35.985
X-266.473 Y-35.684
X-266.498 Y-35.671
X-267.112 Y-35.367
X-267.136 Y-35.356
X-267.729 Y-35.05
X-267.754 Y-35.037
X-268.325 Y-34.729
X-268.349 Y-34.716
X-268.898 Y-34.408
X-268.924 Y-34.393
X-269.451 Y-34.084
X-269.475 Y-34.07
X-269.981 Y-33.761
X-270.007 Y-33.745
X-270.491 Y-33.436
X-270.518 Y-33.419
X-270.98 Y-33.111
X-271.006 Y-33.093
X-271.447 Y-32.787
X-271.475 Y-32.767
X-271.894 Y-32.462
X-271.92 Y-32.443
X-272.319 Y-32.14
X-272.348 Y-32.117
X-272.725 Y-31.816
X-272.756 Y-31.791
X-273.111 Y-31.493
X-273.14 Y-31.468
X-273.475 Y-31.173
X-273.509 Y-31.143
X-273.822 Y-30.85
X-273.856 Y-30.818
X-274.148 Y-30.529
X-274.185 Y-30.491
X-274.455 Y-30.205
X-274.492 Y-30.165
X-274.741 Y-29.882
X-274.782 Y-29.833
X-275.009 Y-29.554
X-275.05 Y-29.501
X-275.256 Y-29.224
X-275.303 Y-29.158
X-275.486 Y-28.884
X-275.534 Y-28.808
X-275.694 Y-28.536
X-275.739 Y-28.454
X-275.877 Y-28.184
X-275.923 Y-28.087
X-276.038 Y-27.819
X-276.081 Y-27.706
X-276.172 Y-27.439
X-276.209 Y-27.314
X-276.276 Y-27.049
X-276.304 Y-26.914
X-276.347 Y-26.649
X-276.363 Y-26.508
X-276.382 Y-26.243
X-276.386 Y-26.094
X-276.38 Y-25.828
X-276.37 Y-25.68
X-276.339 Y-25.413
X-276.316 Y-25.272
X-276.26 Y-25.004
X-276.225 Y-24.867
X-276.143 Y-24.597
X-276.1 Y-24.473
X-275.992 Y-24.2
X-275.946 Y-24.094
X-275.813 Y-23.819
X-275.762 Y-23.722
X-275.603 Y-23.443
X-275.552 Y-23.359
X-275.367 Y-23.077
X-275.316 Y-23.004
X-275.105 Y-22.718
X-275.057 Y-22.656
X-274.82 Y-22.366
X-274.774 Y-22.313
X-274.511 Y-22.019
X-274.47 Y-21.974
X-274.182 Y-21.676
X-274.143 Y-21.637
X-273.83 Y-21.335
X-273.795 Y-21.302
X-273.458 Y-20.995
X-273.424 Y-20.965
X-273.062 Y-20.654
X-273.031 Y-20.629
X-272.645 Y-20.314
X-272.616 Y-20.29
X-272.206 Y-19.972
X-272.18 Y-19.953
X-271.748 Y-19.631
X-271.724 Y-19.613
X-271.27 Y-19.288
X-271.247 Y-19.272
X-270.772 Y-18.945
X-270.739 Y-18.923
X-269.726 Y-18.261
X-269.688 Y-18.237
X-268.6 Y-17.57
X-268.564 Y-17.548
X-267.405 Y-16.879
X-267.371 Y-16.861
X-266.149 Y-16.194
X-266.117 Y-16.177
X-264.838 Y-15.517
X-264.807 Y-15.501
X-263.478 Y-14.852
X-263.447 Y-14.837
X-262.075 Y-14.203
X-262.044 Y-14.189
X-260.634 Y-13.573
X-260.603 Y-13.56
X-259.162 Y-12.967
X-259.129 Y-12.954
X-257.662 Y-12.389
X-257.629 Y-12.376
X-256.142 Y-11.841
X-256.107 Y-11.829
X-254.605 Y-11.327
X-254.568 Y-11.315
X-253.054 Y-10.85
X-253.026 Y-10.842
X-252.266 Y-10.624
X-252.246 Y-10.618
X-251.484 Y-10.41
X-251.465 Y-10.405
X-250.702 Y-10.207
X-250.682 Y-10.202
X-249.919 Y-10.014
X-249.898 Y-10.009
X-249.133 Y-9.832
X-249.112 Y-9.828
X-248.347 Y-9.661
X-248.326 Y-9.657
X-247.561 Y-9.501
X-247.54 Y-9.497
X-246.775 Y-9.352
X-246.754 Y-9.348
X-245.988 Y-9.214
X-245.966 Y-9.211
X-245.201 Y-9.087
X-245.179 Y-9.084
X-244.413 Y-8.972
X-244.392 Y-8.969
X-243.627 Y-8.867
X-243.605 Y-8.865
X-242.839 Y-8.774
X-242.817 Y-8.771
X-242.052 Y-8.692
X-242.03 Y-8.689
X-241.264 Y-8.62
X-241.242 Y-8.618
X-240.476 Y-8.559
X-240.455 Y-8.558
X-239.689 Y-8.509
X-239.668 Y-8.508
X-238.901 Y-8.47
X-238.87 Y-8.469
X-237.335 Y-8.422
X-237.295
X-235.756 Y-8.414
X-235.718 Y-8.415
X-234.175 Y-8.444
X-234.139 Y-8.445
X-232.589 Y-8.511
X-232.555 Y-8.512
X-230.997 Y-8.611
X-230.966 Y-8.613
X-229.397 Y-8.742
X-229.37 Y-8.745
X-227.788 Y-8.903
X-227.764 Y-8.906
X-226.168 Y-9.09
X-226.147 Y-9.092
X-224.535 Y-9.3
X-224.518 Y-9.302
X-222.887 Y-9.531
X-222.872 Y-9.533
X-221.221 Y-9.78
X-221.206 Y-9.782
X-217.838 Y-10.319
X-217.827 Y-10.321
X-214.363 Y-10.897
X-214.362 Y-10.898
X-210.8 Y-11.493
X-207.145 Y-12.088
X-203.401 Y-12.667
X-201.505 Y-12.945
X-199.593 Y-13.215
X-197.669 Y-13.474
X-195.738 Y-13.723
X-193.805 Y-13.96
X-191.874 Y-14.184
X-189.951 Y-14.396
X-188.041 Y-14.595
X-186.151 Y-14.781
X-184.288 Y-14.953
X-180.658 Y-15.26
X-177.208 Y-15.517
X-173.989 Y-15.726
X-171.048 Y-15.892
X-168.434 Y-16.02
X-166.189 Y-16.113
X-164.348 Y-16.176
X-162.943 Y-16.212
X-161.99 Y-16.224
X-150
G2 X-148.412 Y-17.811 I0 J-1.587
G1 Y-34.311
G2 X-150 Y-35.899 I-1.587 J0
G1 X-161.987
X-162.936 Y-35.914
X-163.996 Y-35.958
X-165.18 Y-36.033
X-166.484 Y-36.138
X-167.906 Y-36.271
X-169.44 Y-36.432
X-171.085 Y-36.618
X-172.835 Y-36.828
X-176.641 Y-37.313
X-180.816 Y-37.866
X-185.319 Y-38.467
X-185.323
X-190.106 Y-39.092
X-190.116 Y-39.093
X-195.131 Y-39.718
X-195.141 Y-39.72
X-197.72 Y-40.025
X-197.728 Y-40.026
X-200.345 Y-40.322
X-200.354 Y-40.323
X-203.004 Y-40.606
X-203.015 Y-40.608
X-205.69 Y-40.876
X-205.701 Y-40.877
X-208.395 Y-41.128
X-208.408 Y-41.129
X-211.113 Y-41.359
X-211.127 Y-41.36
X-213.838 Y-41.566
X-213.853 Y-41.567
X-216.563 Y-41.746
X-216.579 Y-41.747
X-219.28 Y-41.897
X-219.298 Y-41.898
X-221.985 Y-42.018
X-222.004
X-224.669 Y-42.104
X-224.69 Y-42.105
X-227.327 Y-42.155
X-227.35
X-229.953 Y-42.168
X-229.977
X-232.542 Y-42.142
X-232.561
X-233.826 Y-42.114
X-233.839
X-235.093 Y-42.076
X-235.107
X-236.347 Y-42.028
X-236.361 Y-42.027
X-237.589 Y-41.969
X-237.604 Y-41.968
X-238.817 Y-41.899
X-238.832 Y-41.898
X-240.031 Y-41.819
X-240.046 Y-41.818
X-241.23 Y-41.728
X-241.246 Y-41.727
X-242.414 Y-41.626
X-242.43 Y-41.625
X-243.582 Y-41.514
X-243.599 Y-41.512
X-244.734 Y-41.391
X-244.751 Y-41.389
X-245.868 Y-41.257
X-245.886 Y-41.255
X-246.986 Y-41.113
X-247.004 Y-41.11
X-248.085 Y-40.957
X-248.104 Y-40.955
X-249.166 Y-40.792
X-249.185 Y-40.789
X-250.228 Y-40.616
X-250.247 Y-40.613
X-251.27 Y-40.43
X-251.29 Y-40.426
X-252.294 Y-40.234
X-252.314 Y-40.23
X-253.297 Y-40.028
X-253.318 Y-40.023
X-254.28 Y-39.812
X-254.301 Y-39.807
X-255.243 Y-39.587
X-255.265 Y-39.582
X-256.185 Y-39.354
X-256.206 Y-39.348
X-257.106 Y-39.111
X-257.128 Y-39.105
X-258.006 Y-38.861
X-258.028 Y-38.855
X-258.884 Y-38.603
X-258.907 Y-38.596
X-259.741 Y-38.337
X-259.763 Y-38.33
X-260.576 Y-38.064
X-260.599 Y-38.057
X-261.39 Y-37.785
X-261.413 Y-37.777
X-262.182 Y-37.499
X-262.205 Y-37.491
X-262.952 Y-37.208
X-262.975 Y-37.199
X-263.7 Y-36.912
X-263.724 Y-36.902
X-264.426 Y-36.611
X-264.449 Y-36.601
X-264.643 Y-36.517
S5000
X-265.13 Y-36.306 Z-3.019 F333.3
X-265.154 Y-36.295
X-265.813 Y-35.996 Z-3.045
X-265.836 Y-35.985 Z-3.046
X-266.473 Y-35.684 Z-3.07
X-266.498 Y-35.671 Z-3.071
X-267.112 Y-35.367 Z-3.095
X-267.136 Y-35.356 Z-3.096
X-267.729 Y-35.05 Z-3.119
X-267.754 Y-35.037 Z-3.12
X-268.325 Y-34.729 Z-3.143
X-268.349 Y-34.716 Z-3.144
X-268.898 Y-34.408 Z-3.166
X-268.924 Y-34.393 Z-3.167
X-269.451 Y-34.084 Z-3.188
X-269.475 Y-34.07 Z-3.189
X-269.981 Y-33.761 Z-3.21
X-270.007 Y-33.745 Z-3.211
X-270.491 Y-33.436 Z-3.231
X-270.518 Y-33.419 Z-3.232
X-270.98 Y-33.111 Z-3.252
X-271.006 Y-33.093 Z-3.253
X-271.447 Y-32.787 Z-3.271
X-271.475 Y-32.767 Z-3.273
X-271.894 Y-32.462 Z-3.291
X-271.92 Y-32.443 Z-3.292
X-272.319 Y-32.14 Z-3.309
X-272.348 Y-32.117 Z-3.311
X-272.725 Y-31.816 Z-3.328
X-272.756 Y-31.791 Z-3.329
X-273.111 Y-31.493 Z-3.345
X-273.14 Y-31.468 Z-3.346
X-273.475 Y-31.173 Z-3.362
X-273.509 Y-31.143 Z-3.364
X-273.822 Y-30.85 Z-3.379
X-273.856 Y-30.818 Z-3.38
X-274.148 Y-30.529 Z-3.395
X-274.185 Y-30.491 Z-3.396
X-274.455 Y-30.205 Z-3.41
X-274.492 Y-30.165 Z-3.412
X-274.741 Y-29.882 Z-3.425
X-274.782 Y-29.833 Z-3.427
X-275.009 Y-29.554 Z-3.44
X-275.05 Y-29.501 Z-3.442
X-275.256 Y-29.224 Z-3.454
X-275.303 Y-29.158 Z-3.457
X-275.486 Y-28.884 Z-3.469
X-275.534 Y-28.808 Z-3.472
X-275.694 Y-28.536 Z-3.483
X-275.739 Y-28.454 Z-3.486
X-275.877 Y-28.184 Z-3.497
X-275.923 Y-28.087 Z-3.5
X-276.038 Y-27.819 Z-3.511
X-276.081 Y-27.706 Z-3.515
X-276.172 Y-27.439 Z-3.525
X-276.209 Y-27.314 Z-3.529
X-276.276 Y-27.049 Z-3.539
X-276.304 Y-26.914 Z-3.544
X-276.347 Y-26.649 Z-3.553
X-276.363 Y-26.508 Z-3.558
X-276.382 Y-26.243 Z-3.567
X-276.386 Y-26.094 Z-3.572
X-276.38 Y-25.828 Z-3.582
X-276.37 Y-25.68 Z-3.587
X-276.339 Y-25.413 Z-3.596
X-276.316 Y-25.272 Z-3.601
X-276.26 Y-25.004 Z-3.611
X-276.225 Y-24.867 Z-3.616
X-276.143 Y-24.597 Z-3.626
X-276.1 Y-24.473 Z-3.63
X-275.992 Y-24.2 Z-3.641
X-275.946 Y-24.094 Z-3.645
X-275.813 Y-23.819 Z-3.655
X-275.762 Y-23.722 Z-3.659
X-275.603 Y-23.443 Z-3.67
X-275.552 Y-23.359 Z-3.674
X-275.367 Y-23.077 Z-3.686
X-275.316 Y-23.004 Z-3.689
X-275.105 Y-22.718 Z-3.701
X-275.057 Y-22.656 Z-3.704
X-274.82 Y-22.366 Z-3.717
X-274.806 Y-22.349 Z-3.718
Z-3.6
X-274.774 Y-22.313
X-274.511 Y-22.019
X-274.47 Y-21.974
X-274.182 Y-21.676
X-274.143 Y-21.637
X-273.83 Y-21.335
X-273.795 Y-21.302
X-273.458 Y-20.995
X-273.424 Y-20.965
X-273.062 Y-20.654
X-273.031 Y-20.629
X-272.645 Y-20.314
X-272.616 Y-20.29
X-272.206 Y-19.972
X-272.18 Y-19.953
X-271.748 Y-19.631
X-271.724 Y-19.613
X-271.27 Y-19.288
X-271.247 Y-19.272
X-270.772 Y-18.945
X-270.739 Y-18.923
X-269.726 Y-18.261
X-269.688 Y-18.237
X-268.6 Y-17.57
X-268.564 Y-17.548
X-268.3 Y-17.396
S8000
Z-4.004
S5000
X-267.405 Y-16.879 Z-4.04
X-267.371 Y-16.861 Z-4.042
X-266.149 Y-16.194 Z-4.09
X-266.117 Y-16.177 Z-4.092
X-264.838 Y-15.517 Z-4.142
X-264.807 Y-15.501 Z-4.143
X-263.478 Y-14.852 Z-4.195
X-263.447 Y-14.837 Z-4.196
X-263.342 Y-14.789 Z-4.2
S8000
X-262.075 Y-14.203 F1000
X-262.044 Y-14.189
X-260.634 Y-13.573
X-260.603 Y-13.56
X-259.162 Y-12.967
X-259.129 Y-12.954
X-257.662 Y-12.389
X-257.629 Y-12.376
X-256.142 Y-11.841
X-256.107 Y-11.829
X-254.605 Y-11.327
X-254.568 Y-11.315
X-253.054 Y-10.85
X-253.026 Y-10.842
X-252.266 Y-10.624
X-252.246 Y-10.618
X-251.484 Y-10.41
X-251.465 Y-10.405
X-250.702 Y-10.207
X-250.682 Y-10.202
X-249.919 Y-10.014
X-249.898 Y-10.009
X-249.133 Y-9.832
X-249.112 Y-9.828
X-248.347 Y-9.661
X-248.326 Y-9.657
X-247.561 Y-9.501
X-247.54 Y-9.497
X-246.775 Y-9.352
X-246.754 Y-9.348
X-245.988 Y-9.214
X-245.966 Y-9.211
X-245.201 Y-9.087
X-245.179 Y-9.084
X-244.413 Y-8.972
X-244.392 Y-8.969
X-243.627 Y-8.867
X-243.605 Y-8.865
X-242.839 Y-8.774
X-242.817 Y-8.771
X-242.052 Y-8.692
X-242.03 Y-8.689
X-241.264 Y-8.62
X-241.242 Y-8.618
X-240.476 Y-8.559
X-240.455 Y-8.558
X-239.689 Y-8.509
X-239.668 Y-8.508
X-238.901 Y-8.47
X-238.87 Y-8.469
X-237.335 Y-8.422
X-237.295
X-235.756 Y-8.414
X-235.718 Y-8.415
X-234.175 Y-8.444
X-234.139 Y-8.445
X-232.589 Y-8.511
X-232.555 Y-8.512
X-230.997 Y-8.611
X-230.966 Y-8.613
X-229.397 Y-8.742
X-229.37 Y-8.745
X-227.788 Y-8.903
X-227.764 Y-8.906
X-226.168 Y-9.09
X-226.147 Y-9.092
X-224.535 Y-9.3
X-224.518 Y-9.302
X-222.887 Y-9.531
X-222.872 Y-9.533
X-221.221 Y-9.78
X-221.206 Y-9.782
X-217.838 Y-10.319
X-217.827 Y-10.321
X-214.363 Y-10.897
X-214.362 Y-10.898
X-210.8 Y-11.493
X-207.145 Y-12.088
X-203.401 Y-12.667
X-201.505 Y-12.945
X-199.79 Y-13.187
Z-3.6
X-199.593 Y-13.215
X-197.669 Y-13.474
X-195.738 Y-13.723
X-193.805 Y-13.96
X-191.874 Y-14.184
X-191.679 Y-14.206
Z-4.2 F333.3
X-189.951 Y-14.396 F1000
X-188.041 Y-14.595
X-186.151 Y-14.781
X-184.288 Y-14.953
X-180.658 Y-15.26
X-177.208 Y-15.517
X-173.989 Y-15.726
X-171.048 Y-15.892
X-168.434 Y-16.02
X-166.189 Y-16.113
X-164.348 Y-16.176
X-162.943 Y-16.212
X-161.99 Y-16.224
X-150
G2 X-148.412 Y-17.811 I0 J-1.587
G1 Y-34.311
G2 X-150 Y-35.899 I-1.587 J0
G1 X-161.987
X-162.936 Y-35.914
X-163.996 Y-35.958
X-165.18 Y-36.033
X-166.484 Y-36.138
X-167.906 Y-36.271
X-169.44 Y-36.432
X-171.085 Y-36.618
X-172.835 Y-36.828
X-176.641 Y-37.313
X-180.816 Y-37.866
X-185.319 Y-38.467
X-185.323
X-190.106 Y-39.092
X-190.116 Y-39.093
X-195.131 Y-39.718
X-195.141 Y-39.72
X-197.72 Y-40.025
X-197.728 Y-40.026
X-200.345 Y-40.322
X-200.354 Y-40.323
X-203.004 Y-40.606
X-203.015 Y-40.608
X-205.69 Y-40.876
X-205.701 Y-40.877
X-207.048 Y-41.003
Z-3.6
X-208.395 Y-41.128
X-208.408 Y-41.129
X-211.113 Y-41.359
X-211.127 Y-41.36
X-213.838 Y-41.566
X-213.853 Y-41.567
X-215.197 Y-41.656
Z-4.2 F333.3
X-216.563 Y-41.746 F1000
X-216.579 Y-41.747
X-219.28 Y-41.897
X-219.298 Y-41.898
X-221.985 Y-42.018
X-222.004
X-224.669 Y-42.104
X-224.69 Y-42.105
X-227.327 Y-42.155
X-227.35
X-229.953 Y-42.168
X-229.977
X-232.542 Y-42.142
X-232.561
X-233.826 Y-42.114
X-233.839
X-235.093 Y-42.076
X-235.107
X-236.347 Y-42.028
X-236.361 Y-42.027
X-237.589 Y-41.969
X-237.604 Y-41.968
X-238.817 Y-41.899
X-238.832 Y-41.898
X-240.031 Y-41.819
X-240.046 Y-41.818
X-241.23 Y-41.728
X-241.246 Y-41.727
X-242.414 Y-41.626
X-242.43 Y-41.625
X-243.582 Y-41.514
X-243.599 Y-41.512
X-244.734 Y-41.391
X-244.751 Y-41.389
X-245.868 Y-41.257
X-245.886 Y-41.255
X-246.986 Y-41.113
X-247.004 Y-41.11
X-248.085 Y-40.957
X-248.104 Y-40.955
X-249.166 Y-40.792
X-249.185 Y-40.789
X-250.228 Y-40.616
X-250.247 Y-40.613
X-251.27 Y-40.43
X-251.29 Y-40.426
X-252.294 Y-40.234
X-252.314 Y-40.23
X-253.297 Y-40.028
X-253.318 Y-40.023
X-254.28 Y-39.812
X-254.301 Y-39.807
X-255.243 Y-39.587
X-255.265 Y-39.582
X-256.185 Y-39.354
X-256.206 Y-39.348
X-257.106 Y-39.111
X-257.128 Y-39.105
X-258.006 Y-38.861
X-258.028 Y-38.855
X-258.884 Y-38.603
X-258.907 Y-38.596
X-259.741 Y-38.337
X-259.763 Y-38.33
X-260.576 Y-38.064
X-260.599 Y-38.057
X-261.39 Y-37.785
X-261.413 Y-37.777
X-262.182 Y-37.499
X-262.205 Y-37.491
X-262.952 Y-37.208
X-262.975 Y-37.199
X-263.7 Y-36.912
X-263.724 Y-36.902
X-264.426 Y-36.611
X-264.449 Y-36.601
X-265.13 Y-36.306
X-265.154 Y-36.295
X-265.813 Y-35.996
X-265.836 Y-35.985
X-266.473 Y-35.684
X-266.498 Y-35.671
X-267.112 Y-35.367
X-267.136 Y-35.356
X-267.729 Y-35.05
X-267.754 Y-35.037
X-268.325 Y-34.729
X-268.349 Y-34.716
X-268.898 Y-34.408
X-268.924 Y-34.393
X-269.451 Y-34.084
X-269.475 Y-34.07
X-269.981 Y-33.761
X-270.007 Y-33.745
X-270.491 Y-33.436
X-270.518 Y-33.419
X-270.98 Y-33.111
X-271.006 Y-33.093
X-271.447 Y-32.787
X-271.475 Y-32.767
X-271.894 Y-32.462
X-271.92 Y-32.443
X-272.319 Y-32.14
X-272.348 Y-32.117
X-272.725 Y-31.816
X-272.756 Y-31.791
X-273.111 Y-31.493
X-273.14 Y-31.468
X-273.475 Y-31.173
X-273.509 Y-31.143
X-273.822 Y-30.85
X-273.856 Y-30.818
X-274.148 Y-30.529
X-274.185 Y-30.491
X-274.455 Y-30.205
X-274.492 Y-30.165
X-274.741 Y-29.882
X-274.782 Y-29.833
X-275.009 Y-29.554
X-275.05 Y-29.501
X-275.256 Y-29.224
X-275.303 Y-29.158
X-275.486 Y-28.884
X-275.534 Y-28.808
X-275.694 Y-28.536
X-275.739 Y-28.454
X-275.877 Y-28.184
X-275.923 Y-28.087
X-276.038 Y-27.819
X-276.081 Y-27.706
X-276.172 Y-27.439
X-276.209 Y-27.314
X-276.276 Y-27.049
X-276.304 Y-26.914
X-276.347 Y-26.649
X-276.363 Y-26.508
X-276.382 Y-26.243
X-276.386 Y-26.094
X-276.38 Y-25.828
X-276.37 Y-25.68
X-276.339 Y-25.413
X-276.316 Y-25.272
X-276.26 Y-25.004
X-276.225 Y-24.867
X-276.143 Y-24.597
X-276.1 Y-24.473
X-275.992 Y-24.2
X-275.946 Y-24.094
X-275.813 Y-23.819
X-275.762 Y-23.722
X-275.603 Y-23.443
X-275.552 Y-23.359
X-275.367 Y-23.077
X-275.316 Y-23.004
X-275.105 Y-22.718
X-275.057 Y-22.656
X-274.82 Y-22.366
X-274.806 Y-22.349
Z-3.6
X-274.774 Y-22.313
X-274.511 Y-22.019
X-274.47 Y-21.974
X-274.182 Y-21.676
X-274.143 Y-21.637
X-273.83 Y-21.335
X-273.795 Y-21.302
X-273.458 Y-20.995
X-273.424 Y-20.965
X-273.062 Y-20.654
X-273.031 Y-20.629
X-272.645 Y-20.314
X-272.616 Y-20.29
X-272.206 Y-19.972
X-272.18 Y-19.953
X-271.748 Y-19.631
X-271.724 Y-19.613
X-271.27 Y-19.288
X-271.247 Y-19.272
X-270.772 Y-18.945
X-270.739 Y-18.923
X-269.726 Y-18.261
X-269.688 Y-18.237
X-268.6 Y-17.57
X-268.564 Y-17.548
X-268.3 Y-17.396
Z-4.2 F333.3
X-267.405 Y-16.879 F1000
X-267.371 Y-16.861
X-266.149 Y-16.194
X-266.117 Y-16.177
X-264.838 Y-15.517
X-264.807 Y-15.501
X-263.478 Y-14.852
X-263.447 Y-14.837
X-263.342 Y-14.789
G3 X-263.187 Y-14.367 I-0.133 J0.288
G1 X-263.321 Y-14.079
X-263.35 Y-14.015 Z-4.192
X-263.379 Y-13.954 Z-4.169
X-263.404 Y-13.899 Z-4.131
X-263.425 Y-13.854 Z-4.08
X-263.441 Y-13.819 Z-4.02
X-263.451 Y-13.798 Z-3.953
X-263.454 Y-13.791 Z-3.883
G0 Z15

(2D-Kontur5)
Z15
X-30.606 Y-54.96
Z5
G1 Z2.818 F333.3
Y-54.968 Z2.747 F1000
X-30.608 Y-54.992 Z2.68
X-30.609 Y-55.03 Z2.62
X-30.612 Y-55.08 Z2.569
X-30.615 Y-55.14 Z2.531
X-30.618 Y-55.207 Z2.508
X-30.622 Y-55.278 Z2.5
X-30.637 Y-55.595
G3 X-30.335 Y-55.927 I0.317 J-0.015
S5000
G1 X-28.434 Y-56.02 Z2.434 F333.3
X-26.189 Y-56.113 Z2.355
X-24.348 Y-56.176 Z2.291
X-22.943 Y-56.212 Z2.242
X-21.99 Y-56.224 Z2.208
X-10 Z1.79
G2 X-8.413 Y-57.811 Z1.703 I0 J-1.587
G1 Y-74.311 Z1.126
G2 X-10 Y-75.899 Z1.039 I-1.587 J0
G1 X-21.987 Z0.621
X-22.936 Y-75.914 Z0.588
X-23.996 Y-75.958 Z0.551
X-25.18 Y-76.033 Z0.509
X-26.484 Y-76.138 Z0.463
X-27.906 Y-76.271 Z0.414
X-29.44 Y-76.432 Z0.36
X-31.085 Y-76.618 Z0.302
X-32.835 Y-76.828 Z0.24
X-36.641 Y-77.313 Z0.106
X-40.816 Y-77.866 Z-0.041
X-45.319 Y-78.467 Z-0.199
X-45.323 Z-0.2
X-50.106 Y-79.092 Z-0.368
X-50.116 Y-79.093
X-55.131 Y-79.718 Z-0.545
X-55.141 Y-79.72
X-57.72 Y-80.025 Z-0.636
X-57.728 Y-80.026
X-60.345 Y-80.322 Z-0.728
X-60.354 Y-80.323
X-63.004 Y-80.606 Z-0.821
X-63.015 Y-80.608 Z-0.822
X-65.69 Y-80.876 Z-0.916
X-65.701 Y-80.877
X-68.395 Y-81.128 Z-1.011
X-68.408 Y-81.129
X-71.113 Y-81.359 Z-1.106
X-71.127 Y-81.36
X-73.838 Y-81.566 Z-1.201
X-73.853 Y-81.567 Z-1.202
X-76.563 Y-81.746 Z-1.297
X-76.579 Y-81.747
X-79.28 Y-81.897 Z-1.392
X-79.298 Y-81.898
X-81.985 Y-82.018 Z-1.486
X-82.004 Z-1.487
X-82.379 Y-82.03 Z-1.5
S8000
X-84.669 Y-82.104 F1000
X-84.69 Y-82.105
X-87.327 Y-82.155
X-87.35
X-89.953 Y-82.168
X-89.977
X-92.542 Y-82.142
X-92.561
X-93.826 Y-82.114
X-93.839
X-95.093 Y-82.076
X-95.107
X-96.347 Y-82.028
X-96.361 Y-82.027
X-97.589 Y-81.969
X-97.604 Y-81.968
X-98.817 Y-81.899
X-98.832 Y-81.898
X-100.031 Y-81.819
X-100.047 Y-81.818
X-101.23 Y-81.728
X-101.246 Y-81.727
X-102.414 Y-81.626
X-102.43 Y-81.625
X-103.582 Y-81.514
X-103.599 Y-81.512
X-104.734 Y-81.391
X-104.751 Y-81.389
X-105.868 Y-81.257
X-105.886 Y-81.255
X-106.986 Y-81.113
X-107.004 Y-81.11
X-108.085 Y-80.957
X-108.104 Y-80.955
X-109.166 Y-80.792
X-109.185 Y-80.789
X-110.228 Y-80.616
X-110.247 Y-80.613
X-111.27 Y-80.43
X-111.29 Y-80.426
X-112.294 Y-80.234
X-112.314 Y-80.23
X-113.297 Y-80.028
X-113.318 Y-80.023
X-114.28 Y-79.812
X-114.301 Y-79.807
X-115.243 Y-79.587
X-115.265 Y-79.582
X-116.185 Y-79.354
X-116.206 Y-79.348
X-117.106 Y-79.111
X-117.128 Y-79.105
X-118.006 Y-78.861
X-118.028 Y-78.855
X-118.884 Y-78.603
X-118.907 Y-78.596
X-119.741 Y-78.337
X-119.763 Y-78.33
X-120.576 Y-78.064
X-120.599 Y-78.057
X-121.39 Y-77.785
X-121.413 Y-77.777
X-122.182 Y-77.499
X-122.205 Y-77.491
X-122.952 Y-77.208
X-122.975 Y-77.199
X-123.7 Y-76.912
X-123.724 Y-76.902
X-124.426 Y-76.611
X-124.449 Y-76.601
X-125.13 Y-76.306
X-125.154 Y-76.295
X-125.813 Y-75.996
X-125.836 Y-75.985
X-126.473 Y-75.684
X-126.498 Y-75.671
X-127.112 Y-75.367
X-127.136 Y-75.356
X-127.729 Y-75.05
X-127.754 Y-75.037
X-128.325 Y-74.729
X-128.349 Y-74.716
X-128.898 Y-74.408
X-128.924 Y-74.393
X-129.451 Y-74.084
X-129.475 Y-74.07
X-129.981 Y-73.761
X-130.007 Y-73.745
X-130.491 Y-73.436
X-130.518 Y-73.419
X-130.98 Y-73.111
X-131.006 Y-73.093
X-131.447 Y-72.787
X-131.475 Y-72.767
X-131.894 Y-72.462
X-131.92 Y-72.443
X-132.319 Y-72.14
X-132.348 Y-72.117
X-132.725 Y-71.816
X-132.756 Y-71.791
X-133.111 Y-71.493
X-133.14 Y-71.468
X-133.475 Y-71.173
X-133.509 Y-71.143
X-133.822 Y-70.85
X-133.856 Y-70.818
X-134.148 Y-70.529
X-134.185 Y-70.491
X-134.455 Y-70.205
X-134.492 Y-70.165
X-134.741 Y-69.882
X-134.782 Y-69.833
X-135.009 Y-69.554
X-135.05 Y-69.501
X-135.256 Y-69.224
X-135.303 Y-69.158
X-135.486 Y-68.884
X-135.534 Y-68.808
X-135.694 Y-68.536
X-135.739 Y-68.454
X-135.877 Y-68.184
X-135.923 Y-68.087
X-136.038 Y-67.819
X-136.081 Y-67.706
X-136.172 Y-67.439
X-136.209 Y-67.314
X-136.276 Y-67.049
X-136.304 Y-66.914
X-136.347 Y-66.649
X-136.363 Y-66.508
X-136.382 Y-66.243
X-136.386 Y-66.094
X-136.38 Y-65.828
X-136.37 Y-65.68
X-136.339 Y-65.413
X-136.316 Y-65.272
X-136.26 Y-65.004
X-136.225 Y-64.867
X-136.143 Y-64.597
X-136.1 Y-64.473
X-135.992 Y-64.2
X-135.946 Y-64.094
X-135.813 Y-63.819
X-135.762 Y-63.722
X-135.603 Y-63.443
X-135.552 Y-63.359
X-135.367 Y-63.077
X-135.316 Y-63.004
X-135.105 Y-62.718
X-135.057 Y-62.656
X-134.82 Y-62.366
X-134.774 Y-62.313
X-134.511 Y-62.019
X-134.47 Y-61.974
X-134.182 Y-61.676
X-134.143 Y-61.637
X-133.83 Y-61.335
X-133.795 Y-61.302
X-133.458 Y-60.995
X-133.424 Y-60.965
X-133.062 Y-60.654
X-133.031 Y-60.629
X-132.645 Y-60.314
X-132.616 Y-60.29
X-132.206 Y-59.972
X-132.18 Y-59.953
X-131.748 Y-59.631
X-131.724 Y-59.613
X-131.27 Y-59.288
X-131.247 Y-59.272
X-130.772 Y-58.945
X-130.739 Y-58.923
X-129.726 Y-58.261
X-129.688 Y-58.237
X-128.6 Y-57.57
X-128.564 Y-57.548
X-127.405 Y-56.879
X-127.371 Y-56.861
X-126.149 Y-56.194
X-126.117 Y-56.177
X-124.838 Y-55.517
X-124.807 Y-55.501
X-123.478 Y-54.852
X-123.447 Y-54.837
X-122.075 Y-54.203
X-122.044 Y-54.189
X-120.634 Y-53.573
X-120.603 Y-53.56
X-119.162 Y-52.967
X-119.129 Y-52.954
X-117.662 Y-52.389
X-117.629 Y-52.376
X-116.142 Y-51.841
X-116.107 Y-51.829
X-114.605 Y-51.327
X-114.568 Y-51.315
X-113.054 Y-50.85
X-113.026 Y-50.842
X-112.266 Y-50.624
X-112.246 Y-50.618
X-111.484 Y-50.41
X-111.465 Y-50.405
X-110.702 Y-50.207
X-110.682 Y-50.202
X-109.919 Y-50.014
X-109.898 Y-50.009
X-109.133 Y-49.832
X-109.112 Y-49.828
X-108.347 Y-49.661
X-108.326 Y-49.657
X-107.561 Y-49.501
X-107.54 Y-49.497
X-106.775 Y-49.352
X-106.754 Y-49.348
X-105.988 Y-49.214
X-105.966 Y-49.211
X-105.201 Y-49.087
X-105.179 Y-49.084
X-104.413 Y-48.972
X-104.392 Y-48.969
X-103.627 Y-48.867
X-103.605 Y-48.865
X-102.839 Y-48.774
X-102.817 Y-48.771
X-102.052 Y-48.692
X-102.03 Y-48.689
X-101.264 Y-48.62
X-101.243 Y-48.618
X-100.477 Y-48.559
X-100.455 Y-48.558
X-99.689 Y-48.509
X-99.668 Y-48.508
X-98.901 Y-48.47
X-98.87 Y-48.469
X-97.335 Y-48.422
X-97.295
X-95.756 Y-48.414
X-95.718 Y-48.415
X-94.175 Y-48.444
X-94.139 Y-48.445
X-92.589 Y-48.511
X-92.555 Y-48.512
X-90.997 Y-48.611
X-90.966 Y-48.613
X-89.397 Y-48.742
X-89.37 Y-48.745
X-87.788 Y-48.903
X-87.764 Y-48.906
X-86.168 Y-49.09
X-86.147 Y-49.092
X-84.535 Y-49.3
X-84.518 Y-49.302
X-82.887 Y-49.531
X-82.872 Y-49.533
X-81.221 Y-49.78
X-81.206 Y-49.782
X-77.838 Y-50.319
X-77.827 Y-50.321
X-74.363 Y-50.897
X-74.362 Y-50.898
X-70.8 Y-51.493
X-67.145 Y-52.088
X-63.401 Y-52.667
X-61.505 Y-52.945
X-59.593 Y-53.215
X-57.669 Y-53.474
X-55.738 Y-53.723
X-53.805 Y-53.96
X-51.874 Y-54.184
X-49.951 Y-54.396
X-48.041 Y-54.595
X-46.151 Y-54.781
X-44.288 Y-54.953
X-40.658 Y-55.26
X-37.208 Y-55.517
X-33.989 Y-55.726
X-31.048 Y-55.892
X-28.434 Y-56.02
X-26.189 Y-56.113
X-24.348 Y-56.176
X-22.943 Y-56.212
X-21.99 Y-56.224
X-10
G2 X-8.413 Y-57.811 I0 J-1.587
G1 Y-74.311
G2 X-10 Y-75.899 I-1.587 J0
G1 X-21.987
X-22.936 Y-75.914
X-23.996 Y-75.958
X-25.18 Y-76.033
X-26.484 Y-76.138
X-27.906 Y-76.271
X-29.44 Y-76.432
X-31.085 Y-76.618
X-32.835 Y-76.828
X-36.641 Y-77.313
X-40.816 Y-77.866
X-45.319 Y-78.467
X-45.323
X-50.106 Y-79.092
X-50.116 Y-79.093
X-55.131 Y-79.718
X-55.141 Y-79.72
X-57.72 Y-80.025
X-57.728 Y-80.026
X-60.345 Y-80.322
X-60.354 Y-80.323
X-63.004 Y-80.606
X-63.015 Y-80.608
X-65.69 Y-80.876
X-65.701 Y-80.877
X-68.395 Y-81.128
X-68.408 Y-81.129
X-71.113 Y-81.359
X-71.127 Y-81.36
X-73.838 Y-81.566
X-73.853 Y-81.567
X-76.563 Y-81.746
X-76.579 Y-81.747
X-79.28 Y-81.897
X-79.298 Y-81.898
X-81.985 Y-82.018
X-82.004
X-82.379 Y-82.03
S5000
X-84.669 Y-82.104 Z-1.58 F333.3
X-84.69 Y-82.105 Z-1.581
X-87.327 Y-82.155 Z-1.673
X-87.35 Z-1.674
X-89.953 Y-82.168 Z-1.765
X-89.977
X-92.542 Y-82.142 Z-1.855
X-92.561 Z-1.856
X-93.826 Y-82.114 Z-1.9
X-93.839
X-95.093 Y-82.076 Z-1.944
X-95.107 Z-1.945
X-96.347 Y-82.028 Z-1.988
X-96.361 Y-82.027
X-97.589 Y-81.969 Z-2.031
X-97.604 Y-81.968 Z-2.032
X-98.817 Y-81.899 Z-2.074
X-98.832 Y-81.898 Z-2.075
X-100.031 Y-81.819 Z-2.117
X-100.047 Y-81.818
X-101.23 Y-81.728 Z-2.159
X-101.246 Y-81.727
X-102.414 Y-81.626 Z-2.2
X-102.43 Y-81.625 Z-2.201
X-103.582 Y-81.514 Z-2.241
X-103.599 Y-81.512 Z-2.242
X-104.734 Y-81.391 Z-2.282
X-104.751 Y-81.389
X-105.868 Y-81.257 Z-2.322
X-105.886 Y-81.255
X-106.986 Y-81.113 Z-2.361
X-107.004 Y-81.11 Z-2.362
X-108.085 Y-80.957 Z-2.4
X-108.104 Y-80.955
X-109.166 Y-80.792 Z-2.438
X-109.185 Y-80.789 Z-2.439
X-110.228 Y-80.616 Z-2.475
X-110.247 Y-80.613 Z-2.476
X-111.27 Y-80.43 Z-2.512
X-111.29 Y-80.426 Z-2.513
X-112.294 Y-80.234 Z-2.549
X-112.314 Y-80.23 Z-2.55
X-113.297 Y-80.028 Z-2.585
X-113.318 Y-80.023
X-114.28 Y-79.812 Z-2.62
X-114.301 Y-79.807
X-115.243 Y-79.587 Z-2.654
X-115.265 Y-79.582 Z-2.655
X-116.185 Y-79.354 Z-2.688
X-116.206 Y-79.348 Z-2.689
X-117.106 Y-79.111 Z-2.721
X-117.128 Y-79.105 Z-2.722
X-118.006 Y-78.861 Z-2.754
X-118.028 Y-78.855 Z-2.755
X-118.884 Y-78.603 Z-2.786
X-118.907 Y-78.596 Z-2.787
X-119.741 Y-78.337 Z-2.817
X-119.763 Y-78.33 Z-2.818
X-120.576 Y-78.064 Z-2.848
X-120.599 Y-78.057 Z-2.849
X-121.39 Y-77.785 Z-2.878
X-121.413 Y-77.777 Z-2.879
X-122.182 Y-77.499 Z-2.907
X-122.205 Y-77.491 Z-2.908
X-122.952 Y-77.208 Z-2.936
X-122.975 Y-77.199 Z-2.937
X-123.7 Y-76.912 Z-2.964
X-123.724 Y-76.902 Z-2.965
X-124.426 Y-76.611 Z-2.992
X-124.449 Y-76.601 Z-2.993
X-124.643 Y-76.517 Z-3
S8000
X-125.13 Y-76.306 F1000
X-125.154 Y-76.295
X-125.813 Y-75.996
X-125.836 Y-75.985
X-126.473 Y-75.684
X-126.498 Y-75.671
X-127.112 Y-75.367
X-127.136 Y-75.356
X-127.729 Y-75.05
X-127.754 Y-75.037
X-128.325 Y-74.729
X-128.349 Y-74.716
X-128.898 Y-74.408
X-128.924 Y-74.393
X-129.451 Y-74.084
X-129.475 Y-74.07
X-129.981 Y-73.761
X-130.007 Y-73.745
X-130.491 Y-73.436
X-130.518 Y-73.419
X-130.98 Y-73.111
X-131.006 Y-73.093
X-131.447 Y-72.787
X-131.475 Y-72.767
X-131.894 Y-72.462
X-131.92 Y-72.443
X-132.319 Y-72.14
X-132.348 Y-72.117
X-132.725 Y-71.816
X-132.756 Y-71.791
X-133.111 Y-71.493
X-133.14 Y-71.468
X-133.475 Y-71.173
X-133.509 Y-71.143
X-133.822 Y-70.85
X-133.856 Y-70.818
X-134.148 Y-70.529
X-134.185 Y-70.491
X-134.455 Y-70.205
X-134.492 Y-70.165
X-134.741 Y-69.882
X-134.782 Y-69.833
X-135.009 Y-69.554
X-135.05 Y-69.501
X-135.256 Y-69.224
X-135.303 Y-69.158
X-135.486 Y-68.884
X-135.534 Y-68.808
X-135.694 Y-68.536
X-135.739 Y-68.454
X-135.877 Y-68.184
X-135.923 Y-68.087
X-136.038 Y-67.819
X-136.081 Y-67.706
X-136.172 Y-67.439
X-136.209 Y-67.314
X-136.276 Y-67.049
X-136.304 Y-66.914
X-136.347 Y-66.649
X-136.363 Y-66.508
X-136.382 Y-66.243
X-136.386 Y-66.094
X-136.38 Y-65.828
X-136.37 Y-65.68
X-136.339 Y-65.413
X-136.316 Y-65.272
X-136.26 Y-65.004
X-136.225 Y-64.867
X-136.143 Y-64.597
X-136.1 Y-64.473
X-135.992 Y-64.2
X-135.946 Y-64.094
X-135.813 Y-63.819
X-135.762 Y-63.722
X-135.603 Y-63.443
X-135.552 Y-63.359
X-135.367 Y-63.077
X-135.316 Y-63.004
X-135.105 Y-62.718
X-135.057 Y-62.656
X-134.82 Y-62.366
X-134.774 Y-62.313
X-134.511 Y-62.019
X-134.47 Y-61.974
X-134.182 Y-61.676
X-134.143 Y-61.637
X-133.83 Y-61.335
X-133.795 Y-61.302
X-133.458 Y-60.995
X-133.424 Y-60.965
X-133.062 Y-60.654
X-133.031 Y-60.629
X-132.645 Y-60.314
X-132.616 Y-60.29
X-132.206 Y-59.972
X-132.18 Y-59.953
X-131.748 Y-59.631
X-131.724 Y-59.613
X-131.27 Y-59.288
X-131.247 Y-59.272
X-130.772 Y-58.945
X-130.739 Y-58.923
X-129.726 Y-58.261
X-129.688 Y-58.237
X-128.6 Y-57.57
X-128.564 Y-57.548
X-127.405 Y-56.879
X-127.371 Y-56.861
X-126.149 Y-56.194
X-126.117 Y-56.177
X-124.838 Y-55.517
X-124.807 Y-55.501
X-123.478 Y-54.852
X-123.447 Y-54.837
X-122.075 Y-54.203
X-122.044 Y-54.189
X-120.634 Y-53.573
X-120.603 Y-53.56
X-119.162 Y-52.967
X-119.129 Y-52.954
X-117.662 Y-52.389
X-117.629 Y-52.376
X-116.142 Y-51.841
X-116.107 Y-51.829
X-114.605 Y-51.327
X-114.568 Y-51.315
X-113.054 Y-50.85
X-113.026 Y-50.842
X-112.266 Y-50.624
X-112.246 Y-50.618
X-111.484 Y-50.41
X-111.465 Y-50.405
X-110.702 Y-50.207
X-110.682 Y-50.202
X-109.919 Y-50.014
X-109.898 Y-50.009
X-109.133 Y-49.832
X-109.112 Y-49.828
X-108.347 Y-49.661
X-108.326 Y-49.657
X-107.561 Y-49.501
X-107.54 Y-49.497
X-106.775 Y-49.352
X-106.754 Y-49.348
X-105.988 Y-49.214
X-105.966 Y-49.211
X-105.201 Y-49.087
X-105.179 Y-49.084
X-104.413 Y-48.972
X-104.392 Y-48.969
X-103.627 Y-48.867
X-103.605 Y-48.865
X-102.839 Y-48.774
X-102.817 Y-48.771
X-102.052 Y-48.692
X-102.03 Y-48.689
X-101.264 Y-48.62
X-101.243 Y-48.618
X-100.477 Y-48.559
X-100.455 Y-48.558
X-99.689 Y-48.509
X-99.668 Y-48.508
X-98.901 Y-48.47
X-98.87 Y-48.469
X-97.335 Y-48.422
X-97.295
X-95.756 Y-48.414
X-95.718 Y-48.415
X-94.175 Y-48.444
X-94.139 Y-48.445
X-92.589 Y-48.511
X-92.555 Y-48.512
X-90.997 Y-48.611
X-90.966 Y-48.613
X-89.397 Y-48.742
X-89.37 Y-48.745
X-87.788 Y-48.903
X-87.764 Y-48.906
X-86.168 Y-49.09
X-86.147 Y-49.092
X-84.535 Y-49.3
X-84.518 Y-49.302
X-82.887 Y-49.531
X-82.872 Y-49.533
X-81.221 Y-49.78
X-81.206 Y-49.782
X-77.838 Y-50.319
X-77.827 Y-50.321
X-74.363 Y-50.897
X-74.362 Y-50.898
X-70.8 Y-51.493
X-67.145 Y-52.088
X-63.401 Y-52.667
X-61.505 Y-52.945
X-59.593 Y-53.215
X-57.669 Y-53.474
X-55.738 Y-53.723
X-53.805 Y-53.96
X-51.874 Y-54.184
X-49.951 Y-54.396
X-48.041 Y-54.595
X-46.151 Y-54.781
X-44.288 Y-54.953
X-40.658 Y-55.26
X-37.208 Y-55.517
X-33.989 Y-55.726
X-31.048 Y-55.892
X-28.434 Y-56.02
X-26.189 Y-56.113
X-24.348 Y-56.176
X-22.943 Y-56.212
X-21.99 Y-56.224
X-10
G2 X-8.413 Y-57.811 I0 J-1.587
G1 Y-74.311
G2 X-10 Y-75.899 I-1.587 J0
G1 X-21.987
X-22.936 Y-75.914
X-23.996 Y-75.958
X-25.18 Y-76.033
X-26.484 Y-76.138
X-27.906 Y-76.271
X-29.44 Y-76.432
X-31.085 Y-76.618
X-32.835 Y-76.828
X-36.641 Y-77.313
X-40.816 Y-77.866
X-45.319 Y-78.467
X-45.323
X-50.106 Y-79.092
X-50.116 Y-79.093
X-55.131 Y-79.718
X-55.141 Y-79.72
X-57.72 Y-80.025
X-57.728 Y-80.026
X-60.345 Y-80.322
X-60.354 Y-80.323
X-63.004 Y-80.606
X-63.015 Y-80.608
X-65.69 Y-80.876
X-65.701 Y-80.877
X-68.395 Y-81.128
X-68.408 Y-81.129
X-71.113 Y-81.359
X-71.127 Y-81.36
X-73.838 Y-81.566
X-73.853 Y-81.567
X-76.563 Y-81.746
X-76.579 Y-81.747
X-79.28 Y-81.897
X-79.298 Y-81.898
X-81.985 Y-82.018
X-82.004
X-84.669 Y-82.104
X-84.69 Y-82.105
X-87.327 Y-82.155
X-87.35
X-89.953 Y-82.168
X-89.977
X-92.542 Y-82.142
X-92.561
X-93.826 Y-82.114
X-93.839
X-95.093 Y-82.076
X-95.107
X-96.347 Y-82.028
X-96.361 Y-82.027
X-97.589 Y-81.969
X-97.604 Y-81.968
X-98.817 Y-81.899
X-98.832 Y-81.898
X-100.031 Y-81.819
X-100.047 Y-81.818
X-101.23 Y-81.728
X-101.246 Y-81.727
X-102.414 Y-81.626
X-102.43 Y-81.625
X-103.582 Y-81.514
X-103.599 Y-81.512
X-104.734 Y-81.391
X-104.751 Y-81.389
X-105.868 Y-81.257
X-105.886 Y-81.255
X-106.986 Y-81.113
X-107.004 Y-81.11
X-108.085 Y-80.957
X-108.104 Y-80.955
X-109.166 Y-80.792
X-109.185 Y-80.789
X-110.228 Y-80.616
X-110.247 Y-80.613
X-111.27 Y-80.43
X-111.29 Y-80.426
X-112.294 Y-80.234
X-112.314 Y-80.23
X-113.297 Y-80.028
X-113.318 Y-80.023
X-114.28 Y-79.812
X-114.301 Y-79.807
X-115.243 Y-79.587
X-115.265 Y-79.582
X-116.185 Y-79.354
X-116.206 Y-79.348
X-117.106 Y-79.111
X-117.128 Y-79.105
X-118.006 Y-78.861
X-118.028 Y-78.855
X-118.884 Y-78.603
X-118.907 Y-78.596
X-119.741 Y-78.337
X-119.763 Y-78.33
X-120.576 Y-78.064
X-120.599 Y-78.057
X-121.39 Y-77.785
X-121.413 Y-77.777
X-122.182 Y-77.499
X-122.205 Y-77.491
X-122.952 Y-77.208
X-122.975 Y-77.199
X-123.7 Y-76.912
X-123.724 Y-76.902
X-124.426 Y-76.611
X-124.449 Y-76.601
X-124.643 Y-76.517
S5000
X-125.13 Y-76.306 Z-3.019 F333.3
X-125.154 Y-76.295
X-125.813 Y-75.996 Z-3.045
X-125.836 Y-75.985 Z-3.046
X-126.473 Y-75.684 Z-3.07
X-126.498 Y-75.671 Z-3.071
X-127.112 Y-75.367 Z-3.095
X-127.136 Y-75.356 Z-3.096
X-127.729 Y-75.05 Z-3.119
X-127.754 Y-75.037 Z-3.12
X-128.325 Y-74.729 Z-3.143
X-128.349 Y-74.716 Z-3.144
X-128.898 Y-74.408 Z-3.166
X-128.924 Y-74.393 Z-3.167
X-129.451 Y-74.084 Z-3.188
X-129.475 Y-74.07 Z-3.189
X-129.981 Y-73.761 Z-3.21
X-130.007 Y-73.745 Z-3.211
X-130.491 Y-73.436 Z-3.231
X-130.518 Y-73.419 Z-3.232
X-130.98 Y-73.111 Z-3.252
X-131.006 Y-73.093 Z-3.253
X-131.447 Y-72.787 Z-3.271
X-131.475 Y-72.767 Z-3.273
X-131.894 Y-72.462 Z-3.291
X-131.92 Y-72.443 Z-3.292
X-132.319 Y-72.14 Z-3.309
X-132.348 Y-72.117 Z-3.311
X-132.725 Y-71.816 Z-3.328
X-132.756 Y-71.791 Z-3.329
X-133.111 Y-71.493 Z-3.345
X-133.14 Y-71.468 Z-3.346
X-133.475 Y-71.173 Z-3.362
X-133.509 Y-71.143 Z-3.364
X-133.822 Y-70.85 Z-3.379
X-133.856 Y-70.818 Z-3.38
X-134.148 Y-70.529 Z-3.395
X-134.185 Y-70.491 Z-3.396
X-134.455 Y-70.205 Z-3.41
X-134.492 Y-70.165 Z-3.412
X-134.741 Y-69.882 Z-3.425
X-134.782 Y-69.833 Z-3.427
X-135.009 Y-69.554 Z-3.44
X-135.05 Y-69.501 Z-3.442
X-135.256 Y-69.224 Z-3.454
X-135.303 Y-69.158 Z-3.457
X-135.486 Y-68.884 Z-3.469
X-135.534 Y-68.808 Z-3.472
X-135.694 Y-68.536 Z-3.483
X-135.739 Y-68.454 Z-3.486
X-135.877 Y-68.184 Z-3.497
X-135.923 Y-68.087 Z-3.5
X-136.038 Y-67.819 Z-3.511
X-136.081 Y-67.706 Z-3.515
X-136.172 Y-67.439 Z-3.525
X-136.209 Y-67.314 Z-3.529
X-136.276 Y-67.049 Z-3.539
X-136.304 Y-66.914 Z-3.544
X-136.347 Y-66.649 Z-3.553
X-136.363 Y-66.508 Z-3.558
X-136.382 Y-66.243 Z-3.567
X-136.386 Y-66.094 Z-3.572
X-136.38 Y-65.828 Z-3.582
X-136.37 Y-65.68 Z-3.587
X-136.339 Y-65.413 Z-3.596
X-136.316 Y-65.272 Z-3.601
X-136.26 Y-65.004 Z-3.611
X-136.225 Y-64.867 Z-3.616
X-136.143 Y-64.597 Z-3.626
X-136.1 Y-64.473 Z-3.63
X-135.992 Y-64.2 Z-3.641
X-135.946 Y-64.094 Z-3.645
X-135.813 Y-63.819 Z-3.655
X-135.762 Y-63.722 Z-3.659
X-135.603 Y-63.443 Z-3.67
X-135.552 Y-63.359 Z-3.674
X-135.367 Y-63.077 Z-3.686
X-135.316 Y-63.004 Z-3.689
X-135.105 Y-62.718 Z-3.701
X-135.057 Y-62.656 Z-3.704
X-134.82 Y-62.366 Z-3.717
X-134.806 Y-62.349 Z-3.718
Z-3.6
X-134.774 Y-62.313
X-134.511 Y-62.019
X-134.47 Y-61.974
X-134.182 Y-61.676
X-134.143 Y-61.637
X-133.83 Y-61.335
X-133.795 Y-61.302
X-133.458 Y-60.995
X-133.424 Y-60.965
X-133.062 Y-60.654
X-133.031 Y-60.629
X-132.645 Y-60.314
X-132.616 Y-60.29
X-132.206 Y-59.972
X-132.18 Y-59.953
X-131.748 Y-59.631
X-131.724 Y-59.613
X-131.27 Y-59.288
X-131.247 Y-59.272
X-130.772 Y-58.945
X-130.739 Y-58.923
X-129.726 Y-58.261
X-129.688 Y-58.237
X-128.6 Y-57.57
X-128.564 Y-57.548
X-128.3 Y-57.396
S8000
Z-4.004
S5000
X-127.405 Y-56.879 Z-4.04
X-127.371 Y-56.861 Z-4.042
X-126.149 Y-56.194 Z-4.09
X-126.117 Y-56.177 Z-4.092
X-124.838 Y-55.517 Z-4.142
X-124.807 Y-55.501 Z-4.143
X-123.478 Y-54.852 Z-4.195
X-123.447 Y-54.837 Z-4.196
X-123.342 Y-54.789 Z-4.2
S8000
X-122.075 Y-54.203 F1000
X-122.044 Y-54.189
X-120.634 Y-53.573
X-120.603 Y-53.56
X-119.162 Y-52.967
X-119.129 Y-52.954
X-117.662 Y-52.389
X-117.629 Y-52.376
X-116.142 Y-51.841
X-116.107 Y-51.829
X-114.605 Y-51.327
X-114.568 Y-51.315
X-113.054 Y-50.85
X-113.026 Y-50.842
X-112.266 Y-50.624
X-112.246 Y-50.618
X-111.484 Y-50.41
X-111.465 Y-50.405
X-110.702 Y-50.207
X-110.682 Y-50.202
X-109.919 Y-50.014
X-109.898 Y-50.009
X-109.133 Y-49.832
X-109.112 Y-49.828
X-108.347 Y-49.661
X-108.326 Y-49.657
X-107.561 Y-49.501
X-107.54 Y-49.497
X-106.775 Y-49.352
X-106.754 Y-49.348
X-105.988 Y-49.214
X-105.966 Y-49.211
X-105.201 Y-49.087
X-105.179 Y-49.084
X-104.413 Y-48.972
X-104.392 Y-48.969
X-103.627 Y-48.867
X-103.605 Y-48.865
X-102.839 Y-48.774
X-102.817 Y-48.771
X-102.052 Y-48.692
X-102.03 Y-48.689
X-101.264 Y-48.62
X-101.243 Y-48.618
X-100.477 Y-48.559
X-100.455 Y-48.558
X-99.689 Y-48.509
X-99.668 Y-48.508
X-98.901 Y-48.47
X-98.87 Y-48.469
X-97.335 Y-48.422
X-97.295
X-95.756 Y-48.414
X-95.718 Y-48.415
X-94.175 Y-48.444
X-94.139 Y-48.445
X-92.589 Y-48.511
X-92.555 Y-48.512
X-90.997 Y-48.611
X-90.966 Y-48.613
X-89.397 Y-48.742
X-89.37 Y-48.745
X-87.788 Y-48.903
X-87.764 Y-48.906
X-86.168 Y-49.09
X-86.147 Y-49.092
X-84.535 Y-49.3
X-84.518 Y-49.302
X-82.887 Y-49.531
X-82.872 Y-49.533
X-81.221 Y-49.78
X-81.206 Y-49.782
X-77.838 Y-50.319
X-77.827 Y-50.321
X-74.363 Y-50.897
X-74.362 Y-50.898
X-70.8 Y-51.493
X-67.145 Y-52.088
X-63.401 Y-52.667
X-61.505 Y-52.945
X-59.79 Y-53.187
Z-3.6
X-59.593 Y-53.215
X-57.669 Y-53.474
X-55.738 Y-53.723
X-53.805 Y-53.96
X-51.874 Y-54.184
X-51.679 Y-54.206
Z-4.2 F333.3
X-49.951 Y-54.396 F1000
X-48.041 Y-54.595
X-46.151 Y-54.781
X-44.288 Y-54.953
X-40.658 Y-55.26
X-37.208 Y-55.517
X-33.989 Y-55.726
X-31.048 Y-55.892
X-28.434 Y-56.02
X-26.189 Y-56.113
X-24.348 Y-56.176
X-22.943 Y-56.212
X-21.99 Y-56.224
X-10
G2 X-8.413 Y-57.811 I0 J-1.587
G1 Y-74.311
G2 X-10 Y-75.899 I-1.587 J0
G1 X-21.987
X-22.936 Y-75.914
X-23.996 Y-75.958
X-25.18 Y-76.033
X-26.484 Y-76.138
X-27.906 Y-76.271
X-29.44 Y-76.432
X-31.085 Y-76.618
X-32.835 Y-76.828
X-36.641 Y-77.313
X-40.816 Y-77.866
X-45.319 Y-78.467
X-45.323
X-50.106 Y-79.092
X-50.116 Y-79.093
X-55.131 Y-79.718
X-55.141 Y-79.72
X-57.72 Y-80.025
X-57.728 Y-80.026
X-60.345 Y-80.322
X-60.354 Y-80.323
X-63.004 Y-80.606
X-63.015 Y-80.608
X-65.69 Y-80.876
X-65.701 Y-80.877
X-67.048 Y-81.003
Z-3.6
X-68.395 Y-81.128
X-68.408 Y-81.129
X-71.113 Y-81.359
X-71.127 Y-81.36
X-73.838 Y-81.566
X-73.853 Y-81.567
X-75.197 Y-81.656
Z-4.2 F333.3
X-76.563 Y-81.746 F1000
X-76.579 Y-81.747
X-79.28 Y-81.897
X-79.298 Y-81.898
X-81.985 Y-82.018
X-82.004
X-84.669 Y-82.104
X-84.69 Y-82.105
X-87.327 Y-82.155
X-87.35
X-89.953 Y-82.168
X-89.977
X-92.542 Y-82.142
X-92.561
X-93.826 Y-82.114
X-93.839
X-95.093 Y-82.076
X-95.107
X-96.347 Y-82.028
X-96.361 Y-82.027
X-97.589 Y-81.969
X-97.604 Y-81.968
X-98.817 Y-81.899
X-98.832 Y-81.898
X-100.031 Y-81.819
X-100.047 Y-81.818
X-101.23 Y-81.728
X-101.246 Y-81.727
X-102.414 Y-81.626
X-102.43 Y-81.625
X-103.582 Y-81.514
X-103.599 Y-81.512
X-104.734 Y-81.391
X-104.751 Y-81.389
X-105.868 Y-81.257
X-105.886 Y-81.255
X-106.986 Y-81.113
X-107.004 Y-81.11
X-108.085 Y-80.957
X-108.104 Y-80.955
X-109.166 Y-80.792
X-109.185 Y-80.789
X-110.228 Y-80.616
X-110.247 Y-80.613
X-111.27 Y-80.43
X-111.29 Y-80.426
X-112.294 Y-80.234
X-112.314 Y-80.23
X-113.297 Y-80.028
X-113.318 Y-80.023
X-114.28 Y-79.812
X-114.301 Y-79.807
X-115.243 Y-79.587
X-115.265 Y-79.582
X-116.185 Y-79.354
X-116.206 Y-79.348
X-117.106 Y-79.111
X-117.128 Y-79.105
X-118.006 Y-78.861
X-118.028 Y-78.855
X-118.884 Y-78.603
X-118.907 Y-78.596
X-119.741 Y-78.337
X-119.763 Y-78.33
X-120.576 Y-78.064
X-120.599 Y-78.057
X-121.39 Y-77.785
X-121.413 Y-77.777
X-122.182 Y-77.499
X-122.205 Y-77.491
X-122.952 Y-77.208
X-122.975 Y-77.199
X-123.7 Y-76.912
X-123.724 Y-76.902
X-124.426 Y-76.611
X-124.449 Y-76.601
X-125.13 Y-76.306
X-125.154 Y-76.295
X-125.813 Y-75.996
X-125.836 Y-75.985
X-126.473 Y-75.684
X-126.498 Y-75.671
X-127.112 Y-75.367
X-127.136 Y-75.356
X-127.729 Y-75.05
X-127.754 Y-75.037
X-128.325 Y-74.729
X-128.349 Y-74.716
X-128.898 Y-74.408
X-128.924 Y-74.393
X-129.451 Y-74.084
X-129.475 Y-74.07
X-129.981 Y-73.761
X-130.007 Y-73.745
X-130.491 Y-73.436
X-130.518 Y-73.419
X-130.98 Y-73.111
X-131.006 Y-73.093
X-131.447 Y-72.787
X-131.475 Y-72.767
X-131.894 Y-72.462
X-131.92 Y-72.443
X-132.319 Y-72.14
X-132.348 Y-72.117
X-132.725 Y-71.816
X-132.756 Y-71.791
X-133.111 Y-71.493
X-133.14 Y-71.468
X-133.475 Y-71.173
X-133.509 Y-71.143
X-133.822 Y-70.85
X-133.856 Y-70.818
X-134.148 Y-70.529
X-134.185 Y-70.491
X-134.455 Y-70.205
X-134.492 Y-70.165
X-134.741 Y-69.882
X-134.782 Y-69.833
X-135.009 Y-69.554
X-135.05 Y-69.501
X-135.256 Y-69.224
X-135.303 Y-69.158
X-135.486 Y-68.884
X-135.534 Y-68.808
X-135.694 Y-68.536
X-135.739 Y-68.454
X-135.877 Y-68.184
X-135.923 Y-68.087
X-136.038 Y-67.819
X-136.081 Y-67.706
X-136.172 Y-67.439
X-136.209 Y-67.314
X-136.276 Y-67.049
X-136.304 Y-66.914
X-136.347 Y-66.649
X-136.363 Y-66.508
X-136.382 Y-66.243
X-136.386 Y-66.094
X-136.38 Y-65.828
X-136.37 Y-65.68
X-136.339 Y-65.413
X-136.316 Y-65.272
X-136.26 Y-65.004
X-136.225 Y-64.867
X-136.143 Y-64.597
X-136.1 Y-64.473
X-135.992 Y-64.2
X-135.946 Y-64.094
X-135.813 Y-63.819
X-135.762 Y-63.722
X-135.603 Y-63.443
X-135.552 Y-63.359
X-135.367 Y-63.077
X-135.316 Y-63.004
X-135.105 Y-62.718
X-135.057 Y-62.656
X-134.82 Y-62.366
X-134.806 Y-62.349
Z-3.6
X-134.774 Y-62.313
X-134.511 Y-62.019
X-134.47 Y-61.974
X-134.182 Y-61.676
X-134.143 Y-61.637
X-133.83 Y-61.335
X-133.795 Y-61.302
X-133.458 Y-60.995
X-133.424 Y-60.965
X-133.062 Y-60.654
X-133.031 Y-60.629
X-132.645 Y-60.314
X-132.616 Y-60.29
X-132.206 Y-59.972
X-132.18 Y-59.953
X-131.748 Y-59.631
X-131.724 Y-59.613
X-131.27 Y-59.288
X-131.247 Y-59.272
X-130.772 Y-58.945
X-130.739 Y-58.923
X-129.726 Y-58.261
X-129.688 Y-58.237
X-128.6 Y-57.57
X-128.564 Y-57.548
X-128.3 Y-57.396
Z-4.2 F333.3
X-127.405 Y-56.879 F1000
X-127.371 Y-56.861
X-126.149 Y-56.194
X-126.117 Y-56.177
X-124.838 Y-55.517
X-124.807 Y-55.501
X-123.478 Y-54.852
X-123.447 Y-54.837
X-123.342 Y-54.789
G3 X-123.188 Y-54.367 I-0.133 J0.288
G1 X-123.321 Y-54.079
X-123.35 Y-54.015 Z-4.192
X-123.379 Y-53.954 Z-4.169
X-123.404 Y-53.899 Z-4.131
X-123.425 Y-53.854 Z-4.08
X-123.441 Y-53.819 Z-4.02
X-123.451 Y-53.798 Z-3.953
X-123.454 Y-53.791 Z-3.883
G0 Z15

(2D-Kontur5)
X-170.606 Y-54.96
Z15
Z5
G1 Z2.818 F333.3
Y-54.968 Z2.747 F1000
X-170.608 Y-54.992 Z2.68
X-170.609 Y-55.03 Z2.62
X-170.612 Y-55.08 Z2.569
X-170.615 Y-55.14 Z2.531
X-170.618 Y-55.207 Z2.508
X-170.622 Y-55.278 Z2.5
X-170.637 Y-55.595
G3 X-170.335 Y-55.927 I0.317 J-0.015
S5000
G1 X-168.434 Y-56.02 Z2.434 F333.3
X-166.189 Y-56.113 Z2.355
X-164.348 Y-56.176 Z2.291
X-162.943 Y-56.212 Z2.242
X-161.99 Y-56.224 Z2.208
X-150 Z1.79
G2 X-148.412 Y-57.811 Z1.703 I0 J-1.587
G1 Y-74.311 Z1.126
G2 X-150 Y-75.899 Z1.039 I-1.587 J0
G1 X-161.987 Z0.621
X-162.936 Y-75.914 Z0.588
X-163.996 Y-75.958 Z0.551
X-165.18 Y-76.033 Z0.509
X-166.484 Y-76.138 Z0.463
X-167.906 Y-76.271 Z0.414
X-169.44 Y-76.432 Z0.36
X-171.085 Y-76.618 Z0.302
X-172.835 Y-76.828 Z0.24
X-176.641 Y-77.313 Z0.106
X-180.816 Y-77.866 Z-0.041
X-185.319 Y-78.467 Z-0.199
X-185.323 Z-0.2
X-190.106 Y-79.092 Z-0.368
X-190.116 Y-79.093
X-195.131 Y-79.718 Z-0.545
X-195.141 Y-79.72
X-197.72 Y-80.025 Z-0.636
X-197.728 Y-80.026
X-200.345 Y-80.322 Z-0.728
X-200.354 Y-80.323
X-203.004 Y-80.606 Z-0.821
X-203.015 Y-80.608 Z-0.822
X-205.69 Y-80.876 Z-0.916
X-205.701 Y-80.877
X-208.395 Y-81.128 Z-1.011
X-208.408 Y-81.129
X-211.113 Y-81.359 Z-1.106
X-211.127 Y-81.36
X-213.838 Y-81.566 Z-1.201
X-213.853 Y-81.567 Z-1.202
X-216.563 Y-81.746 Z-1.297
X-216.579 Y-81.747
X-219.28 Y-81.897 Z-1.392
X-219.298 Y-81.898
X-221.985 Y-82.018 Z-1.486
X-222.004 Z-1.487
X-222.379 Y-82.03 Z-1.5
S8000
X-224.669 Y-82.104 F1000
X-224.69 Y-82.105
X-227.327 Y-82.155
X-227.35
X-229.953 Y-82.168
X-229.977
X-232.542 Y-82.142
X-232.561
X-233.826 Y-82.114
X-233.839
X-235.093 Y-82.076
X-235.107
X-236.347 Y-82.028
X-236.361 Y-82.027
X-237.589 Y-81.969
X-237.604 Y-81.968
X-238.817 Y-81.899
X-238.832 Y-81.898
X-240.031 Y-81.819
X-240.046 Y-81.818
X-241.23 Y-81.728
X-241.246 Y-81.727
X-242.414 Y-81.626
X-242.43 Y-81.625
X-243.582 Y-81.514
X-243.599 Y-81.512
X-244.734 Y-81.391
X-244.751 Y-81.389
X-245.868 Y-81.257
X-245.886 Y-81.255
X-246.986 Y-81.113
X-247.004 Y-81.11
X-248.085 Y-80.957
X-248.104 Y-80.955
X-249.166 Y-80.792
X-249.185 Y-80.789
X-250.228 Y-80.616
X-250.247 Y-80.613
X-251.27 Y-80.43
X-251.29 Y-80.426
X-252.294 Y-80.234
X-252.314 Y-80.23
X-253.297 Y-80.028
X-253.318 Y-80.023
X-254.28 Y-79.812
X-254.301 Y-79.807
X-255.243 Y-79.587
X-255.265 Y-79.582
X-256.185 Y-79.354
X-256.206 Y-79.348
X-257.106 Y-79.111
X-257.128 Y-79.105
X-258.006 Y-78.861
X-258.028 Y-78.855
X-258.884 Y-78.603
X-258.907 Y-78.596
X-259.741 Y-78.337
X-259.763 Y-78.33
X-260.576 Y-78.064
X-260.599 Y-78.057
X-261.39 Y-77.785
X-261.413 Y-77.777
X-262.182 Y-77.499
X-262.205 Y-77.491
X-262.952 Y-77.208
X-262.975 Y-77.199
X-263.7 Y-76.912
X-263.724 Y-76.902
X-264.426 Y-76.611
X-264.449 Y-76.601
X-265.13 Y-76.306
X-265.154 Y-76.295
X-265.813 Y-75.996
X-265.836 Y-75.985
X-266.473 Y-75.684
X-266.498 Y-75.671
X-267.112 Y-75.367
X-267.136 Y-75.356
X-267.729 Y-75.05
X-267.754 Y-75.037
X-268.325 Y-74.729
X-268.349 Y-74.716
X-268.898 Y-74.408
X-268.924 Y-74.393
X-269.451 Y-74.084
X-269.475 Y-74.07
X-269.981 Y-73.761
X-270.007 Y-73.745
X-270.491 Y-73.436
X-270.518 Y-73.419
X-270.98 Y-73.111
X-271.006 Y-73.093
X-271.447 Y-72.787
X-271.475 Y-72.767
X-271.894 Y-72.462
X-271.92 Y-72.443
X-272.319 Y-72.14
X-272.348 Y-72.117
X-272.725 Y-71.816
X-272.756 Y-71.791
X-273.111 Y-71.493
X-273.14 Y-71.468
X-273.475 Y-71.173
X-273.509 Y-71.143
X-273.822 Y-70.85
X-273.856 Y-70.818
X-274.148 Y-70.529
X-274.185 Y-70.491
X-274.455 Y-70.205
X-274.492 Y-70.165
X-274.741 Y-69.882
X-274.782 Y-69.833
X-275.009 Y-69.554
X-275.05 Y-69.501
X-275.256 Y-69.224
X-275.303 Y-69.158
X-275.486 Y-68.884
X-275.534 Y-68.808
X-275.694 Y-68.536
X-275.739 Y-68.454
X-275.877 Y-68.184
X-275.923 Y-68.087
X-276.038 Y-67.819
X-276.081 Y-67.706
X-276.172 Y-67.439
X-276.209 Y-67.314
X-276.276 Y-67.049
X-276.304 Y-66.914
X-276.347 Y-66.649
X-276.363 Y-66.508
X-276.382 Y-66.243
X-276.386 Y-66.094
X-276.38 Y-65.828
X-276.37 Y-65.68
X-276.339 Y-65.413
X-276.316 Y-65.272
X-276.26 Y-65.004
X-276.225 Y-64.867
X-276.143 Y-64.597
X-276.1 Y-64.473
X-275.992 Y-64.2
X-275.946 Y-64.094
X-275.813 Y-63.819
X-275.762 Y-63.722
X-275.603 Y-63.443
X-275.552 Y-63.359
X-275.367 Y-63.077
X-275.316 Y-63.004
X-275.105 Y-62.718
X-275.057 Y-62.656
X-274.82 Y-62.366
X-274.774 Y-62.313
X-274.511 Y-62.019
X-274.47 Y-61.974
X-274.182 Y-61.676
X-274.143 Y-61.637
X-273.83 Y-61.335
X-273.795 Y-61.302
X-273.458 Y-60.995
X-273.424 Y-60.965
X-273.062 Y-60.654
X-273.031 Y-60.629
X-272.645 Y-60.314
X-272.616 Y-60.29
X-272.206 Y-59.972
X-272.18 Y-59.953
X-271.748 Y-59.631
X-271.724 Y-59.613
X-271.27 Y-59.288
X-271.247 Y-59.272
X-270.772 Y-58.945
X-270.739 Y-58.923
X-269.726 Y-58.261
X-269.688 Y-58.237
X-268.6 Y-57.57
X-268.564 Y-57.548
X-267.405 Y-56.879
X-267.371 Y-56.861
X-266.149 Y-56.194
X-266.117 Y-56.177
X-264.838 Y-55.517
X-264.807 Y-55.501
X-263.478 Y-54.852
X-263.447 Y-54.837
X-262.075 Y-54.203
X-262.044 Y-54.189
X-260.634 Y-53.573
X-260.603 Y-53.56
X-259.162 Y-52.967
X-259.129 Y-52.954
X-257.662 Y-52.389
X-257.629 Y-52.376
X-256.142 Y-51.841
X-256.107 Y-51.829
X-254.605 Y-51.327
X-254.568 Y-51.315
X-253.054 Y-50.85
X-253.026 Y-50.842
X-252.266 Y-50.624
X-252.246 Y-50.618
X-251.484 Y-50.41
X-251.465 Y-50.405
X-250.702 Y-50.207
X-250.682 Y-50.202
X-249.919 Y-50.014
X-249.898 Y-50.009
X-249.133 Y-49.832
X-249.112 Y-49.828
X-248.347 Y-49.661
X-248.326 Y-49.657
X-247.561 Y-49.501
X-247.54 Y-49.497
X-246.775 Y-49.352
X-246.754 Y-49.348
X-245.988 Y-49.214
X-245.966 Y-49.211
X-245.201 Y-49.087
X-245.179 Y-49.084
X-244.413 Y-48.972
X-244.392 Y-48.969
X-243.627 Y-48.867
X-243.605 Y-48.865
X-242.839 Y-48.774
X-242.817 Y-48.771
X-242.052 Y-48.692
X-242.03 Y-48.689
X-241.264 Y-48.62
X-241.242 Y-48.618
X-240.476 Y-48.559
X-240.455 Y-48.558
X-239.689 Y-48.509
X-239.668 Y-48.508
X-238.901 Y-48.47
X-238.87 Y-48.469
X-237.335 Y-48.422
X-237.295
X-235.756 Y-48.414
X-235.718 Y-48.415
X-234.175 Y-48.444
X-234.139 Y-48.445
X-232.589 Y-48.511
X-232.555 Y-48.512
X-230.997 Y-48.611
X-230.966 Y-48.613
X-229.397 Y-48.742
X-229.37 Y-48.745
X-227.788 Y-48.903
X-227.764 Y-48.906
X-226.168 Y-49.09
X-226.147 Y-49.092
X-224.535 Y-49.3
X-224.518 Y-49.302
X-222.887 Y-49.531
X-222.872 Y-49.533
X-221.221 Y-49.78
X-221.206 Y-49.782
X-217.838 Y-50.319
X-217.827 Y-50.321
X-214.363 Y-50.897
X-214.362 Y-50.898
X-210.8 Y-51.493
X-207.145 Y-52.088
X-203.401 Y-52.667
X-201.505 Y-52.945
X-199.593 Y-53.215
X-197.669 Y-53.474
X-195.738 Y-53.723
X-193.805 Y-53.96
X-191.874 Y-54.184
X-189.951 Y-54.396
X-188.041 Y-54.595
X-186.151 Y-54.781
X-184.288 Y-54.953
X-180.658 Y-55.26
X-177.208 Y-55.517
X-173.989 Y-55.726
X-171.048 Y-55.892
X-168.434 Y-56.02
X-166.189 Y-56.113
X-164.348 Y-56.176
X-162.943 Y-56.212
X-161.99 Y-56.224
X-150
G2 X-148.412 Y-57.811 I0 J-1.587
G1 Y-74.311
G2 X-150 Y-75.899 I-1.587 J0
G1 X-161.987
X-162.936 Y-75.914
X-163.996 Y-75.958
X-165.18 Y-76.033
X-166.484 Y-76.138
X-167.906 Y-76.271
X-169.44 Y-76.432
X-171.085 Y-76.618
X-172.835 Y-76.828
X-176.641 Y-77.313
X-180.816 Y-77.866
X-185.319 Y-78.467
X-185.323
X-190.106 Y-79.092
X-190.116 Y-79.093
X-195.131 Y-79.718
X-195.141 Y-79.72
X-197.72 Y-80.025
X-197.728 Y-80.026
X-200.345 Y-80.322
X-200.354 Y-80.323
X-203.004 Y-80.606
X-203.015 Y-80.608
X-205.69 Y-80.876
X-205.701 Y-80.877
X-208.395 Y-81.128
X-208.408 Y-81.129
X-211.113 Y-81.359
X-211.127 Y-81.36
X-213.838 Y-81.566
X-213.853 Y-81.567
X-216.563 Y-81.746
X-216.579 Y-81.747
X-219.28 Y-81.897
X-219.298 Y-81.898
X-221.985 Y-82.018
X-222.004
X-222.379 Y-82.03
S5000
X-224.669 Y-82.104 Z-1.58 F333.3
X-224.69 Y-82.105 Z-1.581
X-227.327 Y-82.155 Z-1.673
X-227.35 Z-1.674
X-229.953 Y-82.168 Z-1.765
X-229.977
X-232.542 Y-82.142 Z-1.855
X-232.561 Z-1.856
X-233.826 Y-82.114 Z-1.9
X-233.839
X-235.093 Y-82.076 Z-1.944
X-235.107 Z-1.945
X-236.347 Y-82.028 Z-1.988
X-236.361 Y-82.027
X-237.589 Y-81.969 Z-2.031
X-237.604 Y-81.968 Z-2.032
X-238.817 Y-81.899 Z-2.074
X-238.832 Y-81.898 Z-2.075
X-240.031 Y-81.819 Z-2.117
X-240.046 Y-81.818
X-241.23 Y-81.728 Z-2.159
X-241.246 Y-81.727
X-242.414 Y-81.626 Z-2.2
X-242.43 Y-81.625 Z-2.201
X-243.582 Y-81.514 Z-2.241
X-243.599 Y-81.512 Z-2.242
X-244.734 Y-81.391 Z-2.282
X-244.751 Y-81.389
X-245.868 Y-81.257 Z-2.322
X-245.886 Y-81.255
X-246.986 Y-81.113 Z-2.361
X-247.004 Y-81.11 Z-2.362
X-248.085 Y-80.957 Z-2.4
X-248.104 Y-80.955
X-249.166 Y-80.792 Z-2.438
X-249.185 Y-80.789 Z-2.439
X-250.228 Y-80.616 Z-2.475
X-250.247 Y-80.613 Z-2.476
X-251.27 Y-80.43 Z-2.512
X-251.29 Y-80.426 Z-2.513
X-252.294 Y-80.234 Z-2.549
X-252.314 Y-80.23 Z-2.55
X-253.297 Y-80.028 Z-2.585
X-253.318 Y-80.023
X-254.28 Y-79.812 Z-2.62
X-254.301 Y-79.807
X-255.243 Y-79.587 Z-2.654
X-255.265 Y-79.582 Z-2.655
X-256.185 Y-79.354 Z-2.688
X-256.206 Y-79.348 Z-2.689
X-257.106 Y-79.111 Z-2.721
X-257.128 Y-79.105 Z-2.722
X-258.006 Y-78.861 Z-2.754
X-258.028 Y-78.855 Z-2.755
X-258.884 Y-78.603 Z-2.786
X-258.907 Y-78.596 Z-2.787
X-259.741 Y-78.337 Z-2.817
X-259.763 Y-78.33 Z-2.818
X-260.576 Y-78.064 Z-2.848
X-260.599 Y-78.057 Z-2.849
X-261.39 Y-77.785 Z-2.878
X-261.413 Y-77.777 Z-2.879
X-262.182 Y-77.499 Z-2.907
X-262.205 Y-77.491 Z-2.908
X-262.952 Y-77.208 Z-2.936
X-262.975 Y-77.199 Z-2.937
X-263.7 Y-76.912 Z-2.964
X-263.724 Y-76.902 Z-2.965
X-264.426 Y-76.611 Z-2.992
X-264.449 Y-76.601 Z-2.993
X-264.643 Y-76.517 Z-3
S8000
X-265.13 Y-76.306 F1000
X-265.154 Y-76.295
X-265.813 Y-75.996
X-265.836 Y-75.985
X-266.473 Y-75.684
X-266.498 Y-75.671
X-267.112 Y-75.367
X-267.136 Y-75.356
X-267.729 Y-75.05
X-267.754 Y-75.037
X-268.325 Y-74.729
X-268.349 Y-74.716
X-268.898 Y-74.408
X-268.924 Y-74.393
X-269.451 Y-74.084
X-269.475 Y-74.07
X-269.981 Y-73.761
X-270.007 Y-73.745
X-270.491 Y-73.436
X-270.518 Y-73.419
X-270.98 Y-73.111
X-271.006 Y-73.093
X-271.447 Y-72.787
X-271.475 Y-72.767
X-271.894 Y-72.462
X-271.92 Y-72.443
X-272.319 Y-72.14
X-272.348 Y-72.117
X-272.725 Y-71.816
X-272.756 Y-71.791
X-273.111 Y-71.493
X-273.14 Y-71.468
X-273.475 Y-71.173
X-273.509 Y-71.143
X-273.822 Y-70.85
X-273.856 Y-70.818
X-274.148 Y-70.529
X-274.185 Y-70.491
X-274.455 Y-70.205
X-274.492 Y-70.165
X-274.741 Y-69.882
X-274.782 Y-69.833
X-275.009 Y-69.554
X-275.05 Y-69.501
X-275.256 Y-69.224
X-275.303 Y-69.158
X-275.486 Y-68.884
X-275.534 Y-68.808
X-275.694 Y-68.536
X-275.739 Y-68.454
X-275.877 Y-68.184
X-275.923 Y-68.087
X-276.038 Y-67.819
X-276.081 Y-67.706
X-276.172 Y-67.439
X-276.209 Y-67.314
X-276.276 Y-67.049
X-276.304 Y-66.914
X-276.347 Y-66.649
X-276.363 Y-66.508
X-276.382 Y-66.243
X-276.386 Y-66.094
X-276.38 Y-65.828
X-276.37 Y-65.68
X-276.339 Y-65.413
X-276.316 Y-65.272
X-276.26 Y-65.004
X-276.225 Y-64.867
X-276.143 Y-64.597
X-276.1 Y-64.473
X-275.992 Y-64.2
X-275.946 Y-64.094
X-275.813 Y-63.819
X-275.762 Y-63.722
X-275.603 Y-63.443
X-275.552 Y-63.359
X-275.367 Y-63.077
X-275.316 Y-63.004
X-275.105 Y-62.718
X-275.057 Y-62.656
X-274.82 Y-62.366
X-274.774 Y-62.313
X-274.511 Y-62.019
X-274.47 Y-61.974
X-274.182 Y-61.676
X-274.143 Y-61.637
X-273.83 Y-61.335
X-273.795 Y-61.302
X-273.458 Y-60.995
X-273.424 Y-60.965
X-273.062 Y-60.654
X-273.031 Y-60.629
X-272.645 Y-60.314
X-272.616 Y-60.29
X-272.206 Y-59.972
X-272.18 Y-59.953
X-271.748 Y-59.631
X-271.724 Y-59.613
X-271.27 Y-59.288
X-271.247 Y-59.272
X-270.772 Y-58.945
X-270.739 Y-58.923
X-269.726 Y-58.261
X-269.688 Y-58.237
X-268.6 Y-57.57
X-268.564 Y-57.548
X-267.405 Y-56.879
X-267.371 Y-56.861
X-266.149 Y-56.194
X-266.117 Y-56.177
X-264.838 Y-55.517
X-264.807 Y-55.501
X-263.478 Y-54.852
X-263.447 Y-54.837
X-262.075 Y-54.203
X-262.044 Y-54.189
X-260.634 Y-53.573
X-260.603 Y-53.56
X-259.162 Y-52.967
X-259.129 Y-52.954
X-257.662 Y-52.389
X-257.629 Y-52.376
X-256.142 Y-51.841
X-256.107 Y-51.829
X-254.605 Y-51.327
X-254.568 Y-51.315
X-253.054 Y-50.85
X-253.026 Y-50.842
X-252.266 Y-50.624
X-252.246 Y-50.618
X-251.484 Y-50.41
X-251.465 Y-50.405
X-250.702 Y-50.207
X-250.682 Y-50.202
X-249.919 Y-50.014
X-249.898 Y-50.009
X-249.133 Y-49.832
X-249.112 Y-49.828
X-248.347 Y-49.661
X-248.326 Y-49.657
X-247.561 Y-49.501
X-247.54 Y-49.497
X-246.775 Y-49.352
X-246.754 Y-49.348
X-245.988 Y-49.214
X-245.966 Y-49.211
X-245.201 Y-49.087
X-245.179 Y-49.084
X-244.413 Y-48.972
X-244.392 Y-48.969
X-243.627 Y-48.867
X-243.605 Y-48.865
X-242.839 Y-48.774
X-242.817 Y-48.771
X-242.052 Y-48.692
X-242.03 Y-48.689
X-241.264 Y-48.62
X-241.242 Y-48.618
X-240.476 Y-48.559
X-240.455 Y-48.558
X-239.689 Y-48.509
X-239.668 Y-48.508
X-238.901 Y-48.47
X-238.87 Y-48.469
X-237.335 Y-48.422
X-237.295
X-235.756 Y-48.414
X-235.718 Y-48.415
X-234.175 Y-48.444
X-234.139 Y-48.445
X-232.589 Y-48.511
X-232.555 Y-48.512
X-230.997 Y-48.611
X-230.966 Y-48.613
X-229.397 Y-48.742
X-229.37 Y-48.745
X-227.788 Y-48.903
X-227.764 Y-48.906
X-226.168 Y-49.09
X-226.147 Y-49.092
X-224.535 Y-49.3
X-224.518 Y-49.302
X-222.887 Y-49.531
X-222.872 Y-49.533
X-221.221 Y-49.78
X-221.206 Y-49.782
X-217.838 Y-50.319
X-217.827 Y-50.321
X-214.363 Y-50.897
X-214.362 Y-50.898
X-210.8 Y-51.493
X-207.145 Y-52.088
X-203.401 Y-52.667
X-201.505 Y-52.945
X-199.593 Y-53.215
X-197.669 Y-53.474
X-195.738 Y-53.723
X-193.805 Y-53.96
X-191.874 Y-54.184
X-189.951 Y-54.396
X-188.041 Y-54.595
X-186.151 Y-54.781
X-184.288 Y-54.953
X-180.658 Y-55.26
X-177.208 Y-55.517
X-173.989 Y-55.726
X-171.048 Y-55.892
X-168.434 Y-56.02
X-166.189 Y-56.113
X-164.348 Y-56.176
X-162.943 Y-56.212
X-161.99 Y-56.224
X-150
G2 X-148.412 Y-57.811 I0 J-1.587
G1 Y-74.311
G2 X-150 Y-75.899 I-1.587 J0
G1 X-161.987
X-162.936 Y-75.914
X-163.996 Y-75.958
X-165.18 Y-76.033
X-166.484 Y-76.138
X-167.906 Y-76.271
X-169.44 Y-76.432
X-171.085 Y-76.618
X-172.835 Y-76.828
X-176.641 Y-77.313
X-180.816 Y-77.866
X-185.319 Y-78.467
X-185.323
X-190.106 Y-79.092
X-190.116 Y-79.093
X-195.131 Y-79.718
X-195.141 Y-79.72
X-197.72 Y-80.025
X-197.728 Y-80.026
X-200.345 Y-80.322
X-200.354 Y-80.323
X-203.004 Y-80.606
X-203.015 Y-80.608
X-205.69 Y-80.876
X-205.701 Y-80.877
X-208.395 Y-81.128
X-208.408 Y-81.129
X-211.113 Y-81.359
X-211.127 Y-81.36
X-213.838 Y-81.566
X-213.853 Y-81.567
X-216.563 Y-81.746
X-216.579 Y-81.747
X-219.28 Y-81.897
X-219.298 Y-81.898
X-221.985 Y-82.018
X-222.004
X-224.669 Y-82.104
X-224.69 Y-82.105
X-227.327 Y-82.155
X-227.35
X-229.953 Y-82.168
X-229.977
X-232.542 Y-82.142
X-232.561
X-233.826 Y-82.114
X-233.839
X-235.093 Y-82.076
X-235.107
X-236.347 Y-82.028
X-236.361 Y-82.027
X-237.589 Y-81.969
X-237.604 Y-81.968
X-238.817 Y-81.899
X-238.832 Y-81.898
X-240.031 Y-81.819
X-240.046 Y-81.818
X-241.23 Y-81.728
X-241.246 Y-81.727
X-242.414 Y-81.626
X-242.43 Y-81.625
X-243.582 Y-81.514
X-243.599 Y-81.512
X-244.734 Y-81.391
X-244.751 Y-81.389
X-245.868 Y-81.257
X-245.886 Y-81.255
X-246.986 Y-81.113
X-247.004 Y-81.11
X-248.085 Y-80.957
X-248.104 Y-80.955
X-249.166 Y-80.792
X-249.185 Y-80.789
X-250.228 Y-80.616
X-250.247 Y-80.613
X-251.27 Y-80.43
X-251.29 Y-80.426
X-252.294 Y-80.234
X-252.314 Y-80.23
X-253.297 Y-80.028
X-253.318 Y-80.023
X-254.28 Y-79.812
X-254.301 Y-79.807
X-255.243 Y-79.587
X-255.265 Y-79.582
X-256.185 Y-79.354
X-256.206 Y-79.348
X-257.106 Y-79.111
X-257.128 Y-79.105
X-258.006 Y-78.861
X-258.028 Y-78.855
X-258.884 Y-78.603
X-258.907 Y-78.596
X-259.741 Y-78.337
X-259.763 Y-78.33
X-260.576 Y-78.064
X-260.599 Y-78.057
X-261.39 Y-77.785
X-261.413 Y-77.777
X-262.182 Y-77.499
X-262.205 Y-77.491
X-262.952 Y-77.208
X-262.975 Y-77.199
X-263.7 Y-76.912
X-263.724 Y-76.902
X-264.426 Y-76.611
X-264.449 Y-76.601
X-264.643 Y-76.517
S5000
X-265.13 Y-76.306 Z-3.019 F333.3
X-265.154 Y-76.295
X-265.813 Y-75.996 Z-3.045
X-265.836 Y-75.985 Z-3.046
X-266.473 Y-75.684 Z-3.07
X-266.498 Y-75.671 Z-3.071
X-267.112 Y-75.367 Z-3.095
X-267.136 Y-75.356 Z-3.096
X-267.729 Y-75.05 Z-3.119
X-267.754 Y-75.037 Z-3.12
X-268.325 Y-74.729 Z-3.143
X-268.349 Y-74.716 Z-3.144
X-268.898 Y-74.408 Z-3.166
X-268.924 Y-74.393 Z-3.167
X-269.451 Y-74.084 Z-3.188
X-269.475 Y-74.07 Z-3.189
X-269.981 Y-73.761 Z-3.21
X-270.007 Y-73.745 Z-3.211
X-270.491 Y-73.436 Z-3.231
X-270.518 Y-73.419 Z-3.232
X-270.98 Y-73.111 Z-3.252
X-271.006 Y-73.093 Z-3.253
X-271.447 Y-72.787 Z-3.271
X-271.475 Y-72.767 Z-3.273
X-271.894 Y-72.462 Z-3.291
X-271.92 Y-72.443 Z-3.292
X-272.319 Y-72.14 Z-3.309
X-272.348 Y-72.117 Z-3.311
X-272.725 Y-71.816 Z-3.328
X-272.756 Y-71.791 Z-3.329
X-273.111 Y-71.493 Z-3.345
X-273.14 Y-71.468 Z-3.346
X-273.475 Y-71.173 Z-3.362
X-273.509 Y-71.143 Z-3.364
X-273.822 Y-70.85 Z-3.379
X-273.856 Y-70.818 Z-3.38
X-274.148 Y-70.529 Z-3.395
X-274.185 Y-70.491 Z-3.396
X-274.455 Y-70.205 Z-3.41
X-274.492 Y-70.165 Z-3.412
X-274.741 Y-69.882 Z-3.425
X-274.782 Y-69.833 Z-3.427
X-275.009 Y-69.554 Z-3.44
X-275.05 Y-69.501 Z-3.442
X-275.256 Y-69.224 Z-3.454
X-275.303 Y-69.158 Z-3.457
X-275.486 Y-68.884 Z-3.469
X-275.534 Y-68.808 Z-3.472
X-275.694 Y-68.536 Z-3.483
X-275.739 Y-68.454 Z-3.486
X-275.877 Y-68.184 Z-3.497
X-275.923 Y-68.087 Z-3.5
X-276.038 Y-67.819 Z-3.511
X-276.081 Y-67.706 Z-3.515
X-276.172 Y-67.439 Z-3.525
X-276.209 Y-67.314 Z-3.529
X-276.276 Y-67.049 Z-3.539
X-276.304 Y-66.914 Z-3.544
X-276.347 Y-66.649 Z-3.553
X-276.363 Y-66.508 Z-3.558
X-276.382 Y-66.243 Z-3.567
X-276.386 Y-66.094 Z-3.572
X-276.38 Y-65.828 Z-3.582
X-276.37 Y-65.68 Z-3.587
X-276.339 Y-65.413 Z-3.596
X-276.316 Y-65.272 Z-3.601
X-276.26 Y-65.004 Z-3.611
X-276.225 Y-64.867 Z-3.616
X-276.143 Y-64.597 Z-3.626
X-276.1 Y-64.473 Z-3.63
X-275.992 Y-64.2 Z-3.641
X-275.946 Y-64.094 Z-3.645
X-275.813 Y-63.819 Z-3.655
X-275.762 Y-63.722 Z-3.659
X-275.603 Y-63.443 Z-3.67
X-275.552 Y-63.359 Z-3.674
X-275.367 Y-63.077 Z-3.686
X-275.316 Y-63.004 Z-3.689
X-275.105 Y-62.718 Z-3.701
X-275.057 Y-62.656 Z-3.704
X-274.82 Y-62.366 Z-3.717
X-274.806 Y-62.349 Z-3.718
Z-3.6
X-274.774 Y-62.313
X-274.511 Y-62.019
X-274.47 Y-61.974
X-274.182 Y-61.676
X-274.143 Y-61.637
X-273.83 Y-61.335
X-273.795 Y-61.302
X-273.458 Y-60.995
X-273.424 Y-60.965
X-273.062 Y-60.654
X-273.031 Y-60.629
X-272.645 Y-60.314
X-272.616 Y-60.29
X-272.206 Y-59.972
X-272.18 Y-59.953
X-271.748 Y-59.631
X-271.724 Y-59.613
X-271.27 Y-59.288
X-271.247 Y-59.272
X-270.772 Y-58.945
X-270.739 Y-58.923
X-269.726 Y-58.261
X-269.688 Y-58.237
X-268.6 Y-57.57
X-268.564 Y-57.548
X-268.3 Y-57.396
S8000
Z-4.004
S5000
X-267.405 Y-56.879 Z-4.04
X-267.371 Y-56.861 Z-4.042
X-266.149 Y-56.194 Z-4.09
X-266.117 Y-56.177 Z-4.092
X-264.838 Y-55.517 Z-4.142
X-264.807 Y-55.501 Z-4.143
X-263.478 Y-54.852 Z-4.195
X-263.447 Y-54.837 Z-4.196
X-263.342 Y-54.789 Z-4.2
S8000
X-262.075 Y-54.203 F1000
X-262.044 Y-54.189
X-260.634 Y-53.573
X-260.603 Y-53.56
X-259.162 Y-52.967
X-259.129 Y-52.954
X-257.662 Y-52.389
X-257.629 Y-52.376
X-256.142 Y-51.841
X-256.107 Y-51.829
X-254.605 Y-51.327
X-254.568 Y-51.315
X-253.054 Y-50.85
X-253.026 Y-50.842
X-252.266 Y-50.624
X-252.246 Y-50.618
X-251.484 Y-50.41
X-251.465 Y-50.405
X-250.702 Y-50.207
X-250.682 Y-50.202
X-249.919 Y-50.014
X-249.898 Y-50.009
X-249.133 Y-49.832
X-249.112 Y-49.828
X-248.347 Y-49.661
X-248.326 Y-49.657
X-247.561 Y-49.501
X-247.54 Y-49.497
X-246.775 Y-49.352
X-246.754 Y-49.348
X-245.988 Y-49.214
X-245.966 Y-49.211
X-245.201 Y-49.087
X-245.179 Y-49.084
X-244.413 Y-48.972
X-244.392 Y-48.969
X-243.627 Y-48.867
X-243.605 Y-48.865
X-242.839 Y-48.774
X-242.817 Y-48.771
X-242.052 Y-48.692
X-242.03 Y-48.689
X-241.264 Y-48.62
X-241.242 Y-48.618
X-240.476 Y-48.559
X-240.455 Y-48.558
X-239.689 Y-48.509
X-239.668 Y-48.508
X-238.901 Y-48.47
X-238.87 Y-48.469
X-237.335 Y-48.422
X-237.295
X-235.756 Y-48.414
X-235.718 Y-48.415
X-234.175 Y-48.444
X-234.139 Y-48.445
X-232.589 Y-48.511
X-232.555 Y-48.512
X-230.997 Y-48.611
X-230.966 Y-48.613
X-229.397 Y-48.742
X-229.37 Y-48.745
X-227.788 Y-48.903
X-227.764 Y-48.906
X-226.168 Y-49.09
X-226.147 Y-49.092
X-224.535 Y-49.3
X-224.518 Y-49.302
X-222.887 Y-49.531
X-222.872 Y-49.533
X-221.221 Y-49.78
X-221.206 Y-49.782
X-217.838 Y-50.319
X-217.827 Y-50.321
X-214.363 Y-50.897
X-214.362 Y-50.898
X-210.8 Y-51.493
X-207.145 Y-52.088
X-203.401 Y-52.667
X-201.505 Y-52.945
X-199.79 Y-53.187
Z-3.6
X-199.593 Y-53.215
X-197.669 Y-53.474
X-195.738 Y-53.723
X-193.805 Y-53.96
X-191.874 Y-54.184
X-191.679 Y-54.206
Z-4.2 F333.3
X-189.951 Y-54.396 F1000
X-188.041 Y-54.595
X-186.151 Y-54.781
X-184.288 Y-54.953
X-180.658 Y-55.26
X-177.208 Y-55.517
X-173.989 Y-55.726
X-171.048 Y-55.892
X-168.434 Y-56.02
X-166.189 Y-56.113
X-164.348 Y-56.176
X-162.943 Y-56.212
X-161.99 Y-56.224
X-150
G2 X-148.412 Y-57.811 I0 J-1.587
G1 Y-74.311
G2 X-150 Y-75.899 I-1.587 J0
G1 X-161.987
X-162.936 Y-75.914
X-163.996 Y-75.958
X-165.18 Y-76.033
X-166.484 Y-76.138
X-167.906 Y-76.271
X-169.44 Y-76.432
X-171.085 Y-76.618
X-172.835 Y-76.828
X-176.641 Y-77.313
X-180.816 Y-77.866
X-185.319 Y-78.467
X-185.323
X-190.106 Y-79.092
X-190.116 Y-79.093
X-195.131 Y-79.718
X-195.141 Y-79.72
X-197.72 Y-80.025
X-197.728 Y-80.026
X-200.345 Y-80.322
X-200.354 Y-80.323
X-203.004 Y-80.606
X-203.015 Y-80.608
X-205.69 Y-80.876
X-205.701 Y-80.877
X-207.048 Y-81.003
Z-3.6
X-208.395 Y-81.128
X-208.408 Y-81.129
X-211.113 Y-81.359
X-211.127 Y-81.36
X-213.838 Y-81.566
X-213.853 Y-81.567
X-215.197 Y-81.656
Z-4.2 F333.3
X-216.563 Y-81.746 F1000
X-216.579 Y-81.747
X-219.28 Y-81.897
X-219.298 Y-81.898
X-221.985 Y-82.018
X-222.004
X-224.669 Y-82.104
X-224.69 Y-82.105
X-227.327 Y-82.155
X-227.35
X-229.953 Y-82.168
X-229.977
X-232.542 Y-82.142
X-232.561
X-233.826 Y-82.114
X-233.839
X-235.093 Y-82.076
X-235.107
X-236.347 Y-82.028
X-236.361 Y-82.027
X-237.589 Y-81.969
X-237.604 Y-81.968
X-238.817 Y-81.899
X-238.832 Y-81.898
X-240.031 Y-81.819
X-240.046 Y-81.818
X-241.23 Y-81.728
X-241.246 Y-81.727
X-242.414 Y-81.626
X-242.43 Y-81.625
X-243.582 Y-81.514
X-243.599 Y-81.512
X-244.734 Y-81.391
X-244.751 Y-81.389
X-245.868 Y-81.257
X-245.886 Y-81.255
X-246.986 Y-81.113
X-247.004 Y-81.11
X-248.085 Y-80.957
X-248.104 Y-80.955
X-249.166 Y-80.792
X-249.185 Y-80.789
X-250.228 Y-80.616
X-250.247 Y-80.613
X-251.27 Y-80.43
X-251.29 Y-80.426
X-252.294 Y-80.234
X-252.314 Y-80.23
X-253.297 Y-80.028
X-253.318 Y-80.023
X-254.28 Y-79.812
X-254.301 Y-79.807
X-255.243 Y-79.587
X-255.265 Y-79.582
X-256.185 Y-79.354
X-256.206 Y-79.348
X-257.106 Y-79.111
X-257.128 Y-79.105
X-258.006 Y-78.861
X-258.028 Y-78.855
X-258.884 Y-78.603
