(1001)
(Bearbeiten)
(  Hersteller: ChinaCnc)
(  model: 3040T)
(  description: Generic 3-axis)
(T5  D=3.175 CR=0 - ZMIN=-4.2 - Schaftfraser)
G90 G94
G17
G21
G28 G91 Z0
G90

(Bohrfrasen2)
T5
S8000 M3
G54
G0 X-170 Y-30.111
Z15
Z1.683
G1 Z0 F1000
X-170.006 Y-30.117
X-170 Y-30.123
X-169.989 Y-30.116 Z-0.175
X-169.99 Y-30.103 Z-0.35
X-170.002 Y-30.098 Z-0.525
X-170.012 Y-30.107 Z-0.7
X-170.009 Y-30.119 Z-0.875
X-169.996 Y-30.122 Z-1.05
X-169.988 Y-30.113 Z-1.225
X-169.993 Y-30.1 Z-1.4
X-170.006 Y-30.099 Z-1.575
X-170.013 Y-30.111 Z-1.75
X-170.006 Y-30.122 Z-1.925
X-169.993 Y-30.121 Z-2.1
X-169.988 Y-30.109 Z-2.275
X-169.996 Y-30.099 Z-2.45
X-170.009 Y-30.102 Z-2.625
X-170.012 Y-30.114 Z-2.8
X-170.002 Y-30.123 Z-2.975
X-169.99 Y-30.118 Z-3.15
X-169.989 Y-30.105 Z-3.325
X-170 Y-30.098 Z-3.5
X-170.011 Y-30.105 Z-3.675
X-170.01 Y-30.118 Z-3.85
X-169.998 Y-30.123 Z-4.025
X-169.988 Y-30.114 Z-4.2
G3 X-170.012 Y-30.107 I-0.012 J0.004
X-169.988 Y-30.114 I0.012 J-0.004
G1 X-169.992 Y-30.107
X-170 Y-30.111
G0 Z15

(Bohrfrasen2)
X-340 Y-30.111
Z15
Z1.683
G1 Z0 F1000
X-340.006 Y-30.117
X-340 Y-30.123
X-339.989 Y-30.116 Z-0.175
X-339.99 Y-30.103 Z-0.35
X-340.002 Y-30.098 Z-0.525
X-340.012 Y-30.107 Z-0.7
X-340.009 Y-30.119 Z-0.875
X-339.996 Y-30.122 Z-1.05
X-339.988 Y-30.113 Z-1.225
X-339.993 Y-30.1 Z-1.4
X-340.006 Y-30.099 Z-1.575
X-340.013 Y-30.111 Z-1.75
X-340.006 Y-30.122 Z-1.925
X-339.993 Y-30.121 Z-2.1
X-339.988 Y-30.109 Z-2.275
X-339.996 Y-30.099 Z-2.45
X-340.009 Y-30.102 Z-2.625
X-340.012 Y-30.114 Z-2.8
X-340.002 Y-30.123 Z-2.975
X-339.99 Y-30.118 Z-3.15
X-339.989 Y-30.105 Z-3.325
X-340 Y-30.098 Z-3.5
X-340.011 Y-30.105 Z-3.675
X-340.01 Y-30.118 Z-3.85
X-339.998 Y-30.123 Z-4.025
X-339.988 Y-30.114 Z-4.2
G3 X-340.012 Y-30.107 I-0.012 J0.004
X-339.988 Y-30.114 I0.012 J-0.004
G1 X-339.992 Y-30.107
X-340 Y-30.111
G0 Z15

(Bohrfrasen2)
Z15
X-170 Y-70.111
Z1.683
G1 Z0 F1000
X-170.006 Y-70.117
X-170 Y-70.123
X-169.989 Y-70.116 Z-0.175
X-169.99 Y-70.103 Z-0.35
X-170.002 Y-70.098 Z-0.525
X-170.012 Y-70.107 Z-0.7
X-170.009 Y-70.119 Z-0.875
X-169.996 Y-70.122 Z-1.05
X-169.988 Y-70.113 Z-1.225
X-169.993 Y-70.1 Z-1.4
X-170.006 Y-70.099 Z-1.575
X-170.013 Y-70.111 Z-1.75
X-170.006 Y-70.122 Z-1.925
X-169.993 Y-70.121 Z-2.1
X-169.988 Y-70.109 Z-2.275
X-169.996 Y-70.099 Z-2.45
X-170.009 Y-70.102 Z-2.625
X-170.012 Y-70.114 Z-2.8
X-170.002 Y-70.123 Z-2.975
X-169.99 Y-70.118 Z-3.15
X-169.989 Y-70.105 Z-3.325
X-170 Y-70.098 Z-3.5
X-170.011 Y-70.105 Z-3.675
X-170.01 Y-70.118 Z-3.85
X-169.998 Y-70.123 Z-4.025
X-169.988 Y-70.114 Z-4.2
G3 X-170.012 Y-70.107 I-0.012 J0.004
X-169.988 Y-70.114 I0.012 J-0.004
G1 X-169.992 Y-70.107
X-170 Y-70.111
G0 Z15

(Bohrfrasen2)
X-340 Y-70.111
Z15
Z1.683
G1 Z0 F1000
X-340.006 Y-70.117
X-340 Y-70.123
X-339.989 Y-70.116 Z-0.175
X-339.99 Y-70.103 Z-0.35
X-340.002 Y-70.098 Z-0.525
X-340.012 Y-70.107 Z-0.7
X-340.009 Y-70.119 Z-0.875
X-339.996 Y-70.122 Z-1.05
X-339.988 Y-70.113 Z-1.225
X-339.993 Y-70.1 Z-1.4
X-340.006 Y-70.099 Z-1.575
X-340.013 Y-70.111 Z-1.75
X-340.006 Y-70.122 Z-1.925
X-339.993 Y-70.121 Z-2.1
X-339.988 Y-70.109 Z-2.275
X-339.996 Y-70.099 Z-2.45
X-340.009 Y-70.102 Z-2.625
X-340.012 Y-70.114 Z-2.8
X-340.002 Y-70.123 Z-2.975
X-339.99 Y-70.118 Z-3.15
X-339.989 Y-70.105 Z-3.325
X-340 Y-70.098 Z-3.5
X-340.011 Y-70.105 Z-3.675
X-340.01 Y-70.118 Z-3.85
X-339.998 Y-70.123 Z-4.025
X-339.988 Y-70.114 Z-4.2
G3 X-340.012 Y-70.107 I-0.012 J0.004
X-339.988 Y-70.114 I0.012 J-0.004
G1 X-339.992 Y-70.107
X-340 Y-70.111
G0 Z15

(Bohrfrasen2)
Z15
X-170 Y-110.111
Z1.683
G1 Z0 F1000
X-170.006 Y-110.117
X-170 Y-110.123
X-169.989 Y-110.116 Z-0.175
X-169.99 Y-110.103 Z-0.35
X-170.002 Y-110.098 Z-0.525
X-170.012 Y-110.107 Z-0.7
X-170.009 Y-110.119 Z-0.875
X-169.996 Y-110.122 Z-1.05
X-169.988 Y-110.113 Z-1.225
X-169.993 Y-110.1 Z-1.4
X-170.006 Y-110.099 Z-1.575
X-170.013 Y-110.111 Z-1.75
X-170.006 Y-110.122 Z-1.925
X-169.993 Y-110.121 Z-2.1
X-169.988 Y-110.109 Z-2.275
X-169.996 Y-110.099 Z-2.45
X-170.009 Y-110.102 Z-2.625
X-170.012 Y-110.114 Z-2.8
X-170.002 Y-110.123 Z-2.975
X-169.99 Y-110.118 Z-3.15
X-169.989 Y-110.105 Z-3.325
X-170 Y-110.098 Z-3.5
X-170.011 Y-110.105 Z-3.675
X-170.01 Y-110.118 Z-3.85
X-169.998 Y-110.123 Z-4.025
X-169.988 Y-110.114 Z-4.2
G3 X-170.012 Y-110.107 I-0.012 J0.004
X-169.988 Y-110.114 I0.012 J-0.004
G1 X-169.992 Y-110.107
X-170 Y-110.111
G0 Z15

(Bohrfrasen2)
X-340 Y-110.111
Z15
Z1.683
G1 Z0 F1000
X-340.006 Y-110.117
X-340 Y-110.123
X-339.989 Y-110.116 Z-0.175
X-339.99 Y-110.103 Z-0.35
X-340.002 Y-110.098 Z-0.525
X-340.012 Y-110.107 Z-0.7
X-340.009 Y-110.119 Z-0.875
X-339.996 Y-110.122 Z-1.05
X-339.988 Y-110.113 Z-1.225
X-339.993 Y-110.1 Z-1.4
X-340.006 Y-110.099 Z-1.575
X-340.013 Y-110.111 Z-1.75
X-340.006 Y-110.122 Z-1.925
X-339.993 Y-110.121 Z-2.1
X-339.988 Y-110.109 Z-2.275
X-339.996 Y-110.099 Z-2.45
X-340.009 Y-110.102 Z-2.625
X-340.012 Y-110.114 Z-2.8
X-340.002 Y-110.123 Z-2.975
X-339.99 Y-110.118 Z-3.15
X-339.989 Y-110.105 Z-3.325
X-340 Y-110.098 Z-3.5
X-340.011 Y-110.105 Z-3.675
X-340.01 Y-110.118 Z-3.85
X-339.998 Y-110.123 Z-4.025
X-339.988 Y-110.114 Z-4.2
G3 X-340.012 Y-110.107 I-0.012 J0.004
X-339.988 Y-110.114 I0.012 J-0.004
G1 X-339.992 Y-110.107
X-340 Y-110.111
G0 Z15

(2D-Kontur6)
X-35.35 Y-12.515
Z15
Z5
G1 Z2.818 F333.3
X-35.353 Y-12.523 Z2.747 F1000
X-35.359 Y-12.546 Z2.68
X-35.369 Y-12.582 Z2.62
X-35.382 Y-12.631 Z2.569
X-35.398 Y-12.689 Z2.531
X-35.415 Y-12.754 Z2.508
X-35.434 Y-12.822 Z2.5
X-35.517 Y-13.128
G3 X-35.295 Y-13.518 I0.306 J-0.084
S5000
G1 X-34.412 Y-13.759 Z2.468 F333.3
X-34.394 Y-13.764 Z2.467
X-33.063 Y-14.143 Z2.419
X-33.045 Y-14.149 Z2.418
X-31.741 Y-14.538 Z2.371
X-31.723 Y-14.544 Z2.37
X-30.448 Y-14.941 Z2.324
X-30.428 Y-14.948 Z2.323
X-29.183 Y-15.354 Z2.277
X-29.163 Y-15.36 Z2.276
X-27.947 Y-15.774 Z2.232
X-27.927 Y-15.781 Z2.231
X-26.742 Y-16.203 Z2.187
X-26.722 Y-16.21 Z2.186
X-25.569 Y-16.639 Z2.143
X-25.547 Y-16.647 Z2.142
X-24.428 Y-17.081 Z2.1
X-24.406 Y-17.09
X-23.32 Y-17.53 Z2.059
X-23.297 Y-17.539 Z2.058
X-22.246 Y-17.984 Z2.018
X-22.222 Y-17.994 Z2.017
X-21.206 Y-18.444 Z1.978
X-21.182 Y-18.455 Z1.977
X-20.203 Y-18.909 Z1.94
X-20.177 Y-18.921 Z1.939
X-19.235 Y-19.378 Z1.902
X-19.208 Y-19.391 Z1.901
X-18.304 Y-19.851 Z1.866
X-18.276 Y-19.866 Z1.865
X-17.411 Y-20.328 Z1.83
X-17.382 Y-20.344 Z1.829
X-16.556 Y-20.808 Z1.796
X-16.525 Y-20.826 Z1.795
X-15.74 Y-21.291 Z1.763
X-15.707 Y-21.312 Z1.762
X-14.964 Y-21.777 Z1.731
X-14.928 Y-21.8 Z1.729
X-14.227 Y-22.266 Z1.7
X-14.189 Y-22.292 Z1.698
X-13.53 Y-22.757 Z1.67
X-13.49 Y-22.786 Z1.669
X-12.874 Y-23.25 Z1.642
X-12.831 Y-23.284 Z1.64
X-12.259 Y-23.747 Z1.614
X-12.213 Y-23.785 Z1.612
X-11.686 Y-24.246 Z1.587
X-11.637 Y-24.291 Z1.585
X-11.154 Y-24.749 Z1.562
X-11.102 Y-24.801 Z1.559
X-10.666 Y-25.256 Z1.537
X-10.61 Y-25.317 Z1.534
X-10.22 Y-25.769 Z1.514
X-10.162 Y-25.84 Z1.51
X-9.817 Y-26.288 Z1.491
X-9.757 Y-26.371 Z1.487
X-9.46 Y-26.815 Z1.468
X-9.399 Y-26.913 Z1.464
X-9.15 Y-27.352 Z1.447
X-9.105 Y-27.436 Z1.443
X-8.998 Y-27.653 Z1.435
X-8.969 Y-27.715 Z1.433
X-8.874 Y-27.931 Z1.424
X-8.847 Y-27.998 Z1.422
X-8.764 Y-28.213 Z1.414
X-8.738 Y-28.284 Z1.411
X-8.667 Y-28.497 Z1.403
X-8.644 Y-28.574 Z1.401
X-8.585 Y-28.785 Z1.393
X-8.565 Y-28.866 Z1.39
X-8.518 Y-29.076 Z1.382
X-8.502 Y-29.16 Z1.379
X-8.467 Y-29.369 Z1.372
X-8.455 Y-29.458 Z1.369
X-8.433 Y-29.665 Z1.362
X-8.425 Y-29.756 Z1.358
X-8.415 Y-29.961 Z1.351
X-8.413 Y-30.056 Z1.348
X-8.415 Y-30.259 Z1.341
X-8.419 Y-30.356 Z1.337
X-8.433 Y-30.558 Z1.33
X-8.443 Y-30.654 Z1.327
X-8.469 Y-30.854 Z1.32
X-8.485 Y-30.949 Z1.317
X-8.523 Y-31.147 Z1.31
X-8.545 Y-31.242 Z1.306
X-8.596 Y-31.439 Z1.299
X-8.622 Y-31.53 Z1.296
X-8.685 Y-31.725 Z1.289
X-8.717 Y-31.814 Z1.285
X-8.792 Y-32.006 Z1.278
X-8.828 Y-32.09 Z1.275
X-8.915 Y-32.28 Z1.268
X-8.954 Y-32.36 Z1.265
X-9.054 Y-32.548 Z1.257
X-9.096 Y-32.623 Z1.254
X-9.208 Y-32.81 Z1.246
X-9.252 Y-32.879 Z1.244
X-9.376 Y-33.064 Z1.236
X-9.421 Y-33.127 Z1.233
X-9.557 Y-33.31 Z1.225
X-9.603 Y-33.369 Z1.223
X-9.751 Y-33.549 Z1.214
X-9.797 Y-33.602 Z1.212
X-9.957 Y-33.781 Z1.204
X-10.003 Y-33.83 Z1.201
X-10.175 Y-34.006 Z1.193
X-10.243 Y-34.071 Z1.189
X-10.624 Y-34.417 Z1.171
X-10.709 Y-34.489 Z1.167
X-11.138 Y-34.827 Z1.148
X-11.218 Y-34.886 Z1.145
X-11.694 Y-35.214 Z1.125
X-11.768 Y-35.262 Z1.122
X-12.291 Y-35.582 Z1.1
X-12.359 Y-35.621 Z1.098
X-12.928 Y-35.932 Z1.075
X-12.99 Y-35.963 Z1.072
X-13.606 Y-36.265 Z1.049
X-13.662 Y-36.291 Z1.046
X-14.323 Y-36.583 Z1.021
X-14.374 Y-36.605 Z1.019
X-15.08 Y-36.888 Z0.993
X-15.126 Y-36.905 Z0.991
X-15.876 Y-37.179 Z0.963
X-15.919 Y-37.194 Z0.961
X-16.712 Y-37.458 Z0.932
X-16.751 Y-37.471 Z0.931
X-17.587 Y-37.726 Z0.9
X-17.623 Y-37.736 Z0.899
X-18.501 Y-37.982 Z0.867
X-18.533 Y-37.991 Z0.866
X-19.453 Y-38.227 Z0.833
X-19.482 Y-38.235 Z0.832
X-20.442 Y-38.462 Z0.797
X-20.47 Y-38.468 Z0.796
X-21.469 Y-38.687 Z0.761
X-21.494 Y-38.692 Z0.76
X-22.532 Y-38.902 Z0.723
X-22.555 Y-38.906 Z0.722
X-23.631 Y-39.107 Z0.684
X-23.653 Y-39.11 Z0.683
X-24.765 Y-39.302 Z0.643
X-24.785 Y-39.305
X-25.933 Y-39.488 Z0.602
X-25.952 Y-39.491
X-27.135 Y-39.665 Z0.56
X-27.152 Y-39.667 Z0.559
X-28.369 Y-39.833 Z0.516
X-28.385 Y-39.835
X-29.634 Y-39.992 Z0.472
X-29.649 Y-39.994 Z0.471
X-30.93 Y-40.143 Z0.426
X-30.944 Y-40.145
X-32.256 Y-40.285 Z0.38
X-32.269 Y-40.287 Z0.379
X-33.61 Y-40.42 Z0.332
X-33.623 Y-40.421
X-34.992 Y-40.546 Z0.284
X-35.009 Y-40.547 Z0.283
X-37.83 Y-40.774 Z0.184
X-37.85 Y-40.776
X-40.771 Y-40.974 Z0.081
X-40.788 Y-40.975
X-43.801 Y-41.145 Z-0.025
X-43.816
X-46.911 Y-41.289 Z-0.133
X-46.925 Y-41.29 Z-0.134
X-50.092 Y-41.409 Z-0.245
X-50.104 Y-41.41
X-53.335 Y-41.506 Z-0.358
X-53.346
X-56.632 Y-41.581 Z-0.473
X-56.642
X-59.974 Y-41.636 Z-0.59
X-59.982
X-63.351 Y-41.673 Z-0.708
X-63.359
X-66.757 Y-41.693 Z-0.827
X-66.764
X-70.183 Y-41.698 Z-0.946
X-70.189
X-73.621 Y-41.69 Z-1.066
X-73.626 Z-1.067
X-77.064 Y-41.669 Z-1.187
X-77.071
X-83.936 Y-41.597 Z-1.427
X-83.944
X-86.039 Y-41.564 Z-1.5
S8000
X-90.752 Y-41.491 F1000
X-90.758
X-97.464 Y-41.362
X-97.469 Y-41.361
X-104.032 Y-41.215
X-104.036
X-110.423 Y-41.06
X-110.425
X-116.604 Y-40.901
X-116.605
X-122.548 Y-40.743
X-128.235 Y-40.593
X-133.644 Y-40.452
X-138.762 Y-40.324
X-143.575 Y-40.213
X-148.073 Y-40.119
X-152.249 Y-40.045
X-156.097 Y-39.991
X-159.615 Y-39.959
X-162.803 Y-39.948
X-174.8
G2 X-176.387 Y-38.361 I0 J1.588
G1 Y-21.861
G2 X-174.8 Y-20.273 I1.587 J0
G1 X-162.807
X-162.068 Y-20.266
X-161.314 Y-20.246
X-160.536 Y-20.213
X-159.735 Y-20.167
X-158.912 Y-20.107
X-158.065 Y-20.034
X-157.195 Y-19.948
X-156.306 Y-19.85
X-154.449 Y-19.615
X-152.506 Y-19.331
X-150.475 Y-19.002
X-148.358 Y-18.63
X-146.154 Y-18.219
X-143.866 Y-17.772
X-141.496 Y-17.293
X-139.045 Y-16.787
X-133.908 Y-15.712
X-133.906 Y-15.711
X-128.48 Y-14.584
X-128.472 Y-14.583
X-125.657 Y-14.013
X-125.649 Y-14.011
X-122.769 Y-13.444
X-122.759 Y-13.442
X-119.818 Y-12.882
X-119.806 Y-12.88
X-116.806 Y-12.333
X-116.792 Y-12.33
X-113.737 Y-11.801
X-113.722 Y-11.799
X-110.616 Y-11.292
X-110.598 Y-11.289
X-107.443 Y-10.81
X-107.425 Y-10.808
X-104.226 Y-10.361
X-104.211 Y-10.359
X-102.597 Y-10.149
X-102.586 Y-10.148
X-100.961 Y-9.947
X-100.95 Y-9.946
X-99.318 Y-9.756
X-99.307 Y-9.755
X-97.666 Y-9.576
X-97.654 Y-9.574
X-96.005 Y-9.406
X-95.993 Y-9.405
X-94.337 Y-9.249
X-94.325 Y-9.248
X-92.662 Y-9.104
X-92.65 Y-9.103
X-90.981 Y-8.972
X-90.969 Y-8.971
X-89.295 Y-8.852
X-89.282 Y-8.851
X-87.603 Y-8.747
X-87.59 Y-8.746
X-85.908 Y-8.655
X-85.894 Y-8.654
X-84.209 Y-8.577
X-84.195
X-82.507 Y-8.514
X-82.493
X-80.803 Y-8.466
X-80.789
X-79.098 Y-8.433
X-79.084
X-77.393 Y-8.416
X-77.378
X-75.688 Y-8.414
X-75.673
X-73.984 Y-8.427
X-73.969 Y-8.428
X-72.282 Y-8.457
X-72.267
X-70.582 Y-8.503
X-70.567
X-68.887 Y-8.564
X-68.872 Y-8.565
X-67.196 Y-8.642
X-67.181 Y-8.643
X-65.511 Y-8.736
X-65.495 Y-8.737
X-63.831 Y-8.847
X-63.816 Y-8.848
X-62.159 Y-8.973
X-62.144 Y-8.974
X-60.496 Y-9.115
X-60.48 Y-9.116
X-58.841 Y-9.273
X-58.825 Y-9.274
X-57.197 Y-9.447
X-57.181 Y-9.448
X-55.563 Y-9.636
X-55.547 Y-9.638
X-53.942 Y-9.841
X-53.926 Y-9.843
X-52.334 Y-10.06
X-52.318 Y-10.063
X-50.739 Y-10.295
X-50.723 Y-10.297
X-49.16 Y-10.544
X-49.144 Y-10.547
X-47.597 Y-10.807
X-47.58 Y-10.81
X-46.05 Y-11.085
X-46.034 Y-11.088
X-44.522 Y-11.376
X-44.506 Y-11.379
X-43.013 Y-11.68
X-42.996 Y-11.683
X-41.524 Y-11.997
X-41.507 Y-12
X-40.055 Y-12.326
X-40.038 Y-12.33
X-38.609 Y-12.667
X-38.591 Y-12.671
X-37.185 Y-13.02
X-37.168 Y-13.025
X-35.786 Y-13.384
X-35.768 Y-13.389
X-34.412 Y-13.759
X-34.394 Y-13.764
X-33.063 Y-14.143
X-33.045 Y-14.149
X-31.741 Y-14.538
X-31.723 Y-14.544
X-30.448 Y-14.941
X-30.428 Y-14.948
X-29.183 Y-15.354
X-29.163 Y-15.36
X-27.947 Y-15.774
X-27.927 Y-15.781
X-26.742 Y-16.203
X-26.722 Y-16.21
X-25.569 Y-16.639
X-25.547 Y-16.647
X-24.428 Y-17.081
X-24.406 Y-17.09
X-23.32 Y-17.53
X-23.297 Y-17.539
X-22.246 Y-17.984
X-22.222 Y-17.994
X-21.206 Y-18.444
X-21.182 Y-18.455
X-20.203 Y-18.909
X-20.177 Y-18.921
X-19.235 Y-19.378
X-19.208 Y-19.391
X-18.304 Y-19.851
X-18.276 Y-19.866
X-17.411 Y-20.328
X-17.382 Y-20.344
X-16.556 Y-20.808
X-16.525 Y-20.826
X-15.74 Y-21.291
X-15.707 Y-21.312
X-14.964 Y-21.777
X-14.928 Y-21.8
X-14.227 Y-22.266
X-14.189 Y-22.292
X-13.53 Y-22.757
X-13.49 Y-22.786
X-12.874 Y-23.25
X-12.831 Y-23.284
X-12.259 Y-23.747
X-12.213 Y-23.785
X-11.686 Y-24.246
X-11.637 Y-24.291
X-11.154 Y-24.749
X-11.102 Y-24.801
X-10.666 Y-25.256
X-10.61 Y-25.317
X-10.22 Y-25.769
X-10.162 Y-25.84
X-9.817 Y-26.288
X-9.757 Y-26.371
X-9.46 Y-26.815
X-9.399 Y-26.913
X-9.15 Y-27.352
X-9.105 Y-27.436
X-8.998 Y-27.653
X-8.969 Y-27.715
X-8.874 Y-27.931
X-8.847 Y-27.998
X-8.764 Y-28.213
X-8.738 Y-28.284
X-8.667 Y-28.497
X-8.644 Y-28.574
X-8.585 Y-28.785
X-8.565 Y-28.866
X-8.518 Y-29.076
X-8.502 Y-29.16
X-8.467 Y-29.369
X-8.455 Y-29.458
X-8.433 Y-29.665
X-8.425 Y-29.756
X-8.415 Y-29.961
X-8.413 Y-30.056
X-8.415 Y-30.259
X-8.419 Y-30.356
X-8.433 Y-30.558
X-8.443 Y-30.654
X-8.469 Y-30.854
X-8.485 Y-30.949
X-8.523 Y-31.147
X-8.545 Y-31.242
X-8.596 Y-31.439
X-8.622 Y-31.53
X-8.685 Y-31.725
X-8.717 Y-31.814
X-8.792 Y-32.006
X-8.828 Y-32.09
X-8.915 Y-32.28
X-8.954 Y-32.36
X-9.054 Y-32.548
X-9.096 Y-32.623
X-9.208 Y-32.81
X-9.252 Y-32.879
X-9.376 Y-33.064
X-9.421 Y-33.127
X-9.557 Y-33.31
X-9.603 Y-33.369
X-9.751 Y-33.549
X-9.797 Y-33.602
X-9.957 Y-33.781
X-10.003 Y-33.83
X-10.175 Y-34.006
X-10.243 Y-34.071
X-10.624 Y-34.417
X-10.709 Y-34.489
X-11.138 Y-34.827
X-11.218 Y-34.886
X-11.694 Y-35.214
X-11.768 Y-35.262
X-12.291 Y-35.582
X-12.359 Y-35.621
X-12.928 Y-35.932
X-12.99 Y-35.963
X-13.606 Y-36.265
X-13.662 Y-36.291
X-14.323 Y-36.583
X-14.374 Y-36.605
X-15.08 Y-36.888
X-15.126 Y-36.905
X-15.876 Y-37.179
X-15.919 Y-37.194
X-16.712 Y-37.458
X-16.751 Y-37.471
X-17.587 Y-37.726
X-17.623 Y-37.736
X-18.501 Y-37.982
X-18.533 Y-37.991
X-19.453 Y-38.227
X-19.482 Y-38.235
X-20.442 Y-38.462
X-20.47 Y-38.468
X-21.469 Y-38.687
X-21.494 Y-38.692
X-22.532 Y-38.902
X-22.555 Y-38.906
X-23.631 Y-39.107
X-23.653 Y-39.11
X-24.765 Y-39.302
X-24.785 Y-39.305
X-25.933 Y-39.488
X-25.952 Y-39.491
X-27.135 Y-39.665
X-27.152 Y-39.667
X-28.369 Y-39.833
X-28.385 Y-39.835
X-29.634 Y-39.992
X-29.649 Y-39.994
X-30.93 Y-40.143
X-30.944 Y-40.145
X-32.256 Y-40.285
X-32.269 Y-40.287
X-33.61 Y-40.42
X-33.623 Y-40.421
X-34.992 Y-40.546
X-35.009 Y-40.547
X-37.83 Y-40.774
X-37.85 Y-40.776
X-40.771 Y-40.974
X-40.788 Y-40.975
X-43.801 Y-41.145
X-43.816
X-46.911 Y-41.289
X-46.925 Y-41.29
X-50.092 Y-41.409
X-50.104 Y-41.41
X-53.335 Y-41.506
X-53.346
X-56.632 Y-41.581
X-56.642
X-59.974 Y-41.636
X-59.982
X-63.351 Y-41.673
X-63.359
X-66.757 Y-41.693
X-66.764
X-70.183 Y-41.698
X-70.189
X-73.621 Y-41.69
X-73.626
X-77.064 Y-41.669
X-77.071
X-83.936 Y-41.597
X-83.944
X-86.039 Y-41.564
S5000
X-90.752 Y-41.491 Z-1.665 F333.3
X-90.758
X-97.464 Y-41.362 Z-1.899
X-97.469 Y-41.361
X-104.032 Y-41.215 Z-2.128
X-104.036 Z-2.129
X-110.423 Y-41.06 Z-2.352
X-110.425
X-116.604 Y-40.901 Z-2.568
X-116.605
X-122.548 Y-40.743 Z-2.775
X-128.235 Y-40.593 Z-2.974
X-128.982 Y-40.573 Z-3
S8000
X-133.644 Y-40.452 F1000
X-138.762 Y-40.324
X-143.575 Y-40.213
X-148.073 Y-40.119
X-152.249 Y-40.045
X-156.097 Y-39.991
X-159.615 Y-39.959
X-162.803 Y-39.948
X-174.8
G2 X-176.387 Y-38.361 I0 J1.588
G1 Y-21.861
G2 X-174.8 Y-20.273 I1.587 J0
G1 X-162.807
X-162.068 Y-20.266
X-161.314 Y-20.246
X-160.536 Y-20.213
X-159.735 Y-20.167
X-158.912 Y-20.107
X-158.065 Y-20.034
X-157.195 Y-19.948
X-156.306 Y-19.85
X-154.449 Y-19.615
X-152.506 Y-19.331
X-150.475 Y-19.002
X-148.358 Y-18.63
X-146.154 Y-18.219
X-143.866 Y-17.772
X-141.496 Y-17.293
X-139.045 Y-16.787
X-133.908 Y-15.712
X-133.906 Y-15.711
X-128.48 Y-14.584
X-128.472 Y-14.583
X-125.657 Y-14.013
X-125.649 Y-14.011
X-122.769 Y-13.444
X-122.759 Y-13.442
X-119.818 Y-12.882
X-119.806 Y-12.88
X-116.806 Y-12.333
X-116.792 Y-12.33
X-113.737 Y-11.801
X-113.722 Y-11.799
X-110.616 Y-11.292
X-110.598 Y-11.289
X-107.443 Y-10.81
X-107.425 Y-10.808
X-104.226 Y-10.361
X-104.211 Y-10.359
X-102.597 Y-10.149
X-102.586 Y-10.148
X-100.961 Y-9.947
X-100.95 Y-9.946
X-99.318 Y-9.756
X-99.307 Y-9.755
X-97.666 Y-9.576
X-97.654 Y-9.574
X-96.005 Y-9.406
X-95.993 Y-9.405
X-94.337 Y-9.249
X-94.325 Y-9.248
X-92.662 Y-9.104
X-92.65 Y-9.103
X-90.981 Y-8.972
X-90.969 Y-8.971
X-89.295 Y-8.852
X-89.282 Y-8.851
X-87.603 Y-8.747
X-87.59 Y-8.746
X-85.908 Y-8.655
X-85.894 Y-8.654
X-84.209 Y-8.577
X-84.195
X-82.507 Y-8.514
X-82.493
X-80.803 Y-8.466
X-80.789
X-79.098 Y-8.433
X-79.084
X-77.393 Y-8.416
X-77.378
X-75.688 Y-8.414
X-75.673
X-73.984 Y-8.427
X-73.969 Y-8.428
X-72.282 Y-8.457
X-72.267
X-70.582 Y-8.503
X-70.567
X-68.887 Y-8.564
X-68.872 Y-8.565
X-67.196 Y-8.642
X-67.181 Y-8.643
X-65.511 Y-8.736
X-65.495 Y-8.737
X-63.831 Y-8.847
X-63.816 Y-8.848
X-62.159 Y-8.973
X-62.144 Y-8.974
X-60.496 Y-9.115
X-60.48 Y-9.116
X-58.841 Y-9.273
X-58.825 Y-9.274
X-57.197 Y-9.447
X-57.181 Y-9.448
X-55.563 Y-9.636
X-55.547 Y-9.638
X-53.942 Y-9.841
X-53.926 Y-9.843
X-52.334 Y-10.06
X-52.318 Y-10.063
X-50.739 Y-10.295
X-50.723 Y-10.297
X-49.16 Y-10.544
X-49.144 Y-10.547
X-47.597 Y-10.807
X-47.58 Y-10.81
X-46.05 Y-11.085
X-46.034 Y-11.088
X-44.522 Y-11.376
X-44.506 Y-11.379
X-43.013 Y-11.68
X-42.996 Y-11.683
X-41.524 Y-11.997
X-41.507 Y-12
X-40.055 Y-12.326
X-40.038 Y-12.33
X-38.609 Y-12.667
X-38.591 Y-12.671
X-37.185 Y-13.02
X-37.168 Y-13.025
X-35.786 Y-13.384
X-35.768 Y-13.389
X-34.412 Y-13.759
X-34.394 Y-13.764
X-33.063 Y-14.143
X-33.045 Y-14.149
X-31.741 Y-14.538
X-31.723 Y-14.544
X-30.448 Y-14.941
X-30.428 Y-14.948
X-29.183 Y-15.354
X-29.163 Y-15.36
X-27.947 Y-15.774
X-27.927 Y-15.781
X-26.742 Y-16.203
X-26.722 Y-16.21
X-25.569 Y-16.639
X-25.547 Y-16.647
X-24.428 Y-17.081
X-24.406 Y-17.09
X-23.32 Y-17.53
X-23.297 Y-17.539
X-22.246 Y-17.984
X-22.222 Y-17.994
X-21.206 Y-18.444
X-21.182 Y-18.455
X-20.203 Y-18.909
X-20.177 Y-18.921
X-19.235 Y-19.378
X-19.208 Y-19.391
X-18.304 Y-19.851
X-18.276 Y-19.866
X-17.411 Y-20.328
X-17.382 Y-20.344
X-16.556 Y-20.808
X-16.525 Y-20.826
X-15.74 Y-21.291
X-15.707 Y-21.312
X-14.964 Y-21.777
X-14.928 Y-21.8
X-14.227 Y-22.266
X-14.189 Y-22.292
X-13.53 Y-22.757
X-13.49 Y-22.786
X-12.874 Y-23.25
X-12.831 Y-23.284
X-12.259 Y-23.747
X-12.213 Y-23.785
X-11.686 Y-24.246
X-11.637 Y-24.291
X-11.154 Y-24.749
X-11.102 Y-24.801
X-10.666 Y-25.256
X-10.61 Y-25.317
X-10.22 Y-25.769
X-10.162 Y-25.84
X-9.817 Y-26.288
X-9.757 Y-26.371
X-9.46 Y-26.815
X-9.399 Y-26.913
X-9.15 Y-27.352
X-9.105 Y-27.436
X-8.998 Y-27.653
X-8.969 Y-27.715
X-8.874 Y-27.931
X-8.847 Y-27.998
X-8.764 Y-28.213
X-8.738 Y-28.284
X-8.667 Y-28.497
X-8.644 Y-28.574
X-8.585 Y-28.785
X-8.565 Y-28.866
X-8.518 Y-29.076
X-8.502 Y-29.16
X-8.467 Y-29.369
X-8.455 Y-29.458
X-8.433 Y-29.665
X-8.425 Y-29.756
X-8.415 Y-29.961
X-8.413 Y-30.056
X-8.415 Y-30.259
X-8.419 Y-30.356
X-8.433 Y-30.558
X-8.443 Y-30.654
X-8.469 Y-30.854
X-8.485 Y-30.949
X-8.523 Y-31.147
X-8.545 Y-31.242
X-8.596 Y-31.439
X-8.622 Y-31.53
X-8.685 Y-31.725
X-8.717 Y-31.814
X-8.792 Y-32.006
X-8.828 Y-32.09
X-8.915 Y-32.28
X-8.954 Y-32.36
X-9.054 Y-32.548
X-9.096 Y-32.623
X-9.208 Y-32.81
X-9.252 Y-32.879
X-9.376 Y-33.064
X-9.421 Y-33.127
X-9.557 Y-33.31
X-9.603 Y-33.369
X-9.751 Y-33.549
X-9.797 Y-33.602
X-9.957 Y-33.781
X-10.003 Y-33.83
X-10.175 Y-34.006
X-10.243 Y-34.071
X-10.624 Y-34.417
X-10.709 Y-34.489
X-11.138 Y-34.827
X-11.218 Y-34.886
X-11.694 Y-35.214
X-11.768 Y-35.262
X-12.291 Y-35.582
X-12.359 Y-35.621
X-12.928 Y-35.932
X-12.99 Y-35.963
X-13.606 Y-36.265
X-13.662 Y-36.291
X-14.323 Y-36.583
X-14.374 Y-36.605
X-15.08 Y-36.888
X-15.126 Y-36.905
X-15.876 Y-37.179
X-15.919 Y-37.194
X-16.712 Y-37.458
X-16.751 Y-37.471
X-17.587 Y-37.726
X-17.623 Y-37.736
X-18.501 Y-37.982
X-18.533 Y-37.991
X-19.453 Y-38.227
X-19.482 Y-38.235
X-20.442 Y-38.462
X-20.47 Y-38.468
X-21.469 Y-38.687
X-21.494 Y-38.692
X-22.532 Y-38.902
X-22.555 Y-38.906
X-23.631 Y-39.107
X-23.653 Y-39.11
X-24.765 Y-39.302
X-24.785 Y-39.305
X-25.933 Y-39.488
X-25.952 Y-39.491
X-27.135 Y-39.665
X-27.152 Y-39.667
X-28.369 Y-39.833
X-28.385 Y-39.835
X-29.634 Y-39.992
X-29.649 Y-39.994
X-30.93 Y-40.143
X-30.944 Y-40.145
X-32.256 Y-40.285
X-32.269 Y-40.287
X-33.61 Y-40.42
X-33.623 Y-40.421
X-34.992 Y-40.546
X-35.009 Y-40.547
X-37.83 Y-40.774
X-37.85 Y-40.776
X-40.771 Y-40.974
X-40.788 Y-40.975
X-43.801 Y-41.145
X-43.816
X-46.911 Y-41.289
X-46.925 Y-41.29
X-50.092 Y-41.409
X-50.104 Y-41.41
X-53.335 Y-41.506
X-53.346
X-56.632 Y-41.581
X-56.642
X-59.974 Y-41.636
X-59.982
X-63.351 Y-41.673
X-63.359
X-66.757 Y-41.693
X-66.764
X-70.183 Y-41.698
X-70.189
X-73.621 Y-41.69
X-73.626
X-77.064 Y-41.669
X-77.071
X-83.936 Y-41.597
X-83.944
X-90.752 Y-41.491
X-90.758
X-97.464 Y-41.362
X-97.469 Y-41.361
X-104.032 Y-41.215
X-104.036
X-110.423 Y-41.06
X-110.425
X-116.604 Y-40.901
X-116.605
X-122.548 Y-40.743
X-128.235 Y-40.593
X-128.982 Y-40.573
S5000
X-133.644 Y-40.452 Z-3.163 F333.3
X-138.762 Y-40.324 Z-3.342
X-143.575 Y-40.213 Z-3.51
X-148.073 Y-40.119 Z-3.667
X-152.249 Y-40.045 Z-3.813
X-156.097 Y-39.991 Z-3.947
X-159.615 Y-39.959 Z-4.07
X-162.803 Y-39.948 Z-4.181
X-163.339 Z-4.2
S8000
X-174.8 F1000
G2 X-176.387 Y-38.361 I0 J1.588
G1 Y-21.861
G2 X-174.8 Y-20.273 I1.587 J0
G1 X-162.807
X-162.068 Y-20.266
X-161.314 Y-20.246
X-160.536 Y-20.213
X-159.735 Y-20.167
X-158.912 Y-20.107
X-158.065 Y-20.034
X-157.195 Y-19.948
X-156.306 Y-19.85
X-154.449 Y-19.615
X-152.506 Y-19.331
X-150.475 Y-19.002
X-148.358 Y-18.63
X-146.154 Y-18.219
X-143.866 Y-17.772
X-141.496 Y-17.293
X-139.045 Y-16.787
X-133.908 Y-15.712
X-133.906 Y-15.711
X-133.862 Y-15.702
Z-3.6
X-128.48 Y-14.584
X-128.472 Y-14.583
X-125.855 Y-14.053
Z-4.2 F333.3
X-125.657 Y-14.013 F1000
X-125.649 Y-14.011
X-122.769 Y-13.444
X-122.759 Y-13.442
X-119.818 Y-12.882
X-119.806 Y-12.88
X-116.806 Y-12.333
X-116.792 Y-12.33
X-113.737 Y-11.801
X-113.722 Y-11.799
X-110.616 Y-11.292
X-110.598 Y-11.289
X-107.443 Y-10.81
X-107.425 Y-10.808
X-104.226 Y-10.361
X-104.211 Y-10.359
X-102.597 Y-10.149
X-102.586 Y-10.148
X-100.961 Y-9.947
X-100.95 Y-9.946
X-99.318 Y-9.756
X-99.307 Y-9.755
X-97.666 Y-9.576
X-97.654 Y-9.574
X-96.005 Y-9.406
X-95.993 Y-9.405
X-94.337 Y-9.249
X-94.325 Y-9.248
X-92.662 Y-9.104
X-92.65 Y-9.103
X-90.981 Y-8.972
X-90.969 Y-8.971
X-89.295 Y-8.852
X-89.282 Y-8.851
X-87.603 Y-8.747
X-87.59 Y-8.746
X-85.908 Y-8.655
X-85.894 Y-8.654
X-84.209 Y-8.577
X-84.195
X-82.507 Y-8.514
X-82.493
X-80.803 Y-8.466
X-80.789
X-79.098 Y-8.433
X-79.084
X-77.393 Y-8.416
X-77.378
X-75.688 Y-8.414
X-75.673
X-73.984 Y-8.427
X-73.969 Y-8.428
X-72.282 Y-8.457
X-72.267
X-70.582 Y-8.503
X-70.567
X-68.887 Y-8.564
X-68.872 Y-8.565
X-67.196 Y-8.642
X-67.181 Y-8.643
X-65.511 Y-8.736
X-65.495 Y-8.737
X-63.831 Y-8.847
X-63.816 Y-8.848
X-62.159 Y-8.973
X-62.144 Y-8.974
X-60.496 Y-9.115
X-60.48 Y-9.116
X-58.841 Y-9.273
X-58.825 Y-9.274
X-57.197 Y-9.447
X-57.181 Y-9.448
X-55.563 Y-9.636
X-55.547 Y-9.638
X-53.942 Y-9.841
X-53.926 Y-9.843
X-52.334 Y-10.06
X-52.318 Y-10.063
X-50.739 Y-10.295
X-50.723 Y-10.297
X-49.16 Y-10.544
X-49.144 Y-10.547
X-47.597 Y-10.807
X-47.58 Y-10.81
X-46.05 Y-11.085
X-46.034 Y-11.088
X-44.522 Y-11.376
X-44.506 Y-11.379
X-43.013 Y-11.68
X-42.996 Y-11.683
X-41.524 Y-11.997
X-41.507 Y-12
X-40.055 Y-12.326
X-40.038 Y-12.33
X-38.609 Y-12.667
X-38.591 Y-12.671
X-37.185 Y-13.02
X-37.168 Y-13.025
X-35.786 Y-13.384
X-35.768 Y-13.389
X-35.663 Y-13.418
Z-3.6
X-34.412 Y-13.759
X-34.394 Y-13.764
X-33.063 Y-14.143
X-33.045 Y-14.149
X-31.741 Y-14.538
X-31.723 Y-14.544
X-30.448 Y-14.941
X-30.428 Y-14.948
X-29.183 Y-15.354
X-29.163 Y-15.36
X-27.947 Y-15.774
X-27.927 Y-15.781
X-27.846 Y-15.81
Z-4.2 F333.3
X-26.742 Y-16.203 F1000
X-26.722 Y-16.21
X-25.569 Y-16.639
X-25.547 Y-16.647
X-24.428 Y-17.081
X-24.406 Y-17.09
X-23.32 Y-17.53
X-23.297 Y-17.539
X-22.246 Y-17.984
X-22.222 Y-17.994
X-21.206 Y-18.444
X-21.182 Y-18.455
X-20.203 Y-18.909
X-20.177 Y-18.921
X-19.235 Y-19.378
X-19.208 Y-19.391
X-18.304 Y-19.851
X-18.276 Y-19.866
X-17.411 Y-20.328
X-17.382 Y-20.344
X-16.556 Y-20.808
X-16.525 Y-20.826
X-15.74 Y-21.291
X-15.707 Y-21.312
X-14.964 Y-21.777
X-14.928 Y-21.8
X-14.227 Y-22.266
X-14.189 Y-22.292
X-13.53 Y-22.757
X-13.49 Y-22.786
X-12.874 Y-23.25
X-12.831 Y-23.284
X-12.259 Y-23.747
X-12.213 Y-23.785
X-11.686 Y-24.246
X-11.637 Y-24.291
X-11.154 Y-24.749
X-11.102 Y-24.801
X-10.666 Y-25.256
X-10.61 Y-25.317
X-10.22 Y-25.769
X-10.162 Y-25.84
X-9.817 Y-26.288
X-9.757 Y-26.371
X-9.46 Y-26.815
X-9.399 Y-26.913
X-9.15 Y-27.352
X-9.105 Y-27.436
X-8.998 Y-27.653
X-8.969 Y-27.715
X-8.874 Y-27.931
X-8.847 Y-27.998
X-8.764 Y-28.213
X-8.738 Y-28.284
X-8.667 Y-28.497
X-8.644 Y-28.574
X-8.585 Y-28.785
X-8.565 Y-28.866
X-8.518 Y-29.076
X-8.502 Y-29.16
X-8.467 Y-29.369
X-8.455 Y-29.458
X-8.433 Y-29.665
X-8.425 Y-29.756
X-8.415 Y-29.961
X-8.413 Y-30.056
X-8.415 Y-30.259
X-8.419 Y-30.356
X-8.433 Y-30.558
X-8.443 Y-30.654
X-8.469 Y-30.854
X-8.485 Y-30.949
X-8.523 Y-31.147
X-8.545 Y-31.242
X-8.596 Y-31.439
X-8.622 Y-31.53
X-8.685 Y-31.725
X-8.717 Y-31.814
X-8.792 Y-32.006
X-8.828 Y-32.09
X-8.915 Y-32.28
X-8.954 Y-32.36
X-9.054 Y-32.548
X-9.096 Y-32.623
X-9.208 Y-32.81
X-9.252 Y-32.879
X-9.376 Y-33.064
X-9.421 Y-33.127
X-9.557 Y-33.31
X-9.603 Y-33.369
X-9.751 Y-33.549
X-9.797 Y-33.602
X-9.957 Y-33.781
X-10.003 Y-33.83
X-10.175 Y-34.006
X-10.243 Y-34.071
X-10.624 Y-34.417
X-10.709 Y-34.489
X-11.138 Y-34.827
X-11.218 Y-34.886
X-11.694 Y-35.214
X-11.768 Y-35.262
X-12.291 Y-35.582
X-12.359 Y-35.621
X-12.928 Y-35.932
X-12.99 Y-35.963
X-13.606 Y-36.265
X-13.662 Y-36.291
X-14.323 Y-36.583
X-14.374 Y-36.605
X-15.08 Y-36.888
X-15.126 Y-36.905
X-15.876 Y-37.179
X-15.919 Y-37.194
X-16.712 Y-37.458
X-16.751 Y-37.471
X-17.587 Y-37.726
X-17.623 Y-37.736
X-18.501 Y-37.982
X-18.533 Y-37.991
X-19.453 Y-38.227
X-19.482 Y-38.235
X-20.442 Y-38.462
X-20.47 Y-38.468
X-21.469 Y-38.687
X-21.494 Y-38.692
X-22.532 Y-38.902
X-22.555 Y-38.906
X-23.631 Y-39.107
X-23.653 Y-39.11
X-24.765 Y-39.302
X-24.785 Y-39.305
X-25.933 Y-39.488
X-25.952 Y-39.491
X-26.882 Y-39.628
Z-3.6
X-27.135 Y-39.665
X-27.152 Y-39.667
X-28.369 Y-39.833
X-28.385 Y-39.835
X-29.634 Y-39.992
X-29.649 Y-39.994
X-30.93 Y-40.143
X-30.944 Y-40.145
X-32.256 Y-40.285
X-32.269 Y-40.287
X-33.61 Y-40.42
X-33.623 Y-40.421
X-34.992 Y-40.546
X-35.005 Y-40.547
Z-4.2 F333.3
X-35.009 F1000
X-37.83 Y-40.774
X-37.85 Y-40.776
X-40.771 Y-40.974
X-40.788 Y-40.975
X-43.801 Y-41.145
X-43.816
X-46.911 Y-41.289
X-46.925 Y-41.29
X-50.092 Y-41.409
X-50.104 Y-41.41
X-53.335 Y-41.506
X-53.346
X-56.632 Y-41.581
X-56.642
X-59.974 Y-41.636
X-59.982
X-63.351 Y-41.673
X-63.359
X-66.757 Y-41.693
X-66.764
X-70.183 Y-41.698
X-70.189
X-73.621 Y-41.69
X-73.626
X-77.064 Y-41.669
X-77.071
X-83.936 Y-41.597
X-83.944
X-90.752 Y-41.491
X-90.758
X-97.464 Y-41.362
X-97.469 Y-41.361
X-104.032 Y-41.215
X-104.036
X-110.423 Y-41.06
X-110.425
X-116.604 Y-40.901
X-116.605
X-122.548 Y-40.743
X-125.529 Y-40.664
Z-3.6
X-128.235 Y-40.593
X-133.644 Y-40.452
X-133.701 Y-40.45
Z-4.2 F333.3
X-138.762 Y-40.324 F1000
X-143.575 Y-40.213
X-148.073 Y-40.119
X-152.249 Y-40.045
X-156.097 Y-39.991
X-159.615 Y-39.959
X-162.803 Y-39.948
X-163.339
G3 X-163.656 Y-40.266 I0 J-0.317
G1 Y-40.583
G19 G2 Y-40.901 Z-3.883 J0 K0.317
G0 Z15
G17

(2D-Kontur6)
G0 X-205.35 Y-12.515
Z15
Z5
G1 Z2.818 F333.3
X-205.353 Y-12.523 Z2.747 F1000
X-205.359 Y-12.546 Z2.68
X-205.369 Y-12.582 Z2.62
X-205.382 Y-12.631 Z2.569
X-205.398 Y-12.689 Z2.531
X-205.415 Y-12.754 Z2.508
X-205.434 Y-12.822 Z2.5
X-205.517 Y-13.128
G3 X-205.295 Y-13.518 I0.306 J-0.084
S5000
G1 X-204.412 Y-13.759 Z2.468 F333.3
X-204.394 Y-13.764 Z2.467
X-203.063 Y-14.143 Z2.419
X-203.045 Y-14.149 Z2.418
X-201.741 Y-14.538 Z2.371
X-201.723 Y-14.544 Z2.37
X-200.448 Y-14.941 Z2.324
X-200.428 Y-14.948 Z2.323
X-199.183 Y-15.354 Z2.277
X-199.163 Y-15.36 Z2.276
X-197.947 Y-15.774 Z2.232
X-197.927 Y-15.781 Z2.231
X-196.742 Y-16.203 Z2.187
X-196.722 Y-16.21 Z2.186
X-195.569 Y-16.639 Z2.143
X-195.547 Y-16.647 Z2.142
X-194.428 Y-17.081 Z2.1
X-194.406 Y-17.09
X-193.32 Y-17.53 Z2.059
X-193.297 Y-17.539 Z2.058
X-192.246 Y-17.984 Z2.018
X-192.222 Y-17.994 Z2.017
X-191.206 Y-18.444 Z1.978
X-191.182 Y-18.455 Z1.977
X-190.203 Y-18.909 Z1.94
X-190.177 Y-18.921 Z1.939
X-189.235 Y-19.378 Z1.902
X-189.208 Y-19.391 Z1.901
X-188.304 Y-19.851 Z1.866
X-188.276 Y-19.866 Z1.865
X-187.411 Y-20.328 Z1.83
X-187.382 Y-20.344 Z1.829
X-186.556 Y-20.808 Z1.796
X-186.525 Y-20.826 Z1.795
X-185.74 Y-21.291 Z1.763
X-185.707 Y-21.312 Z1.762
X-184.964 Y-21.777 Z1.731
X-184.928 Y-21.8 Z1.729
X-184.227 Y-22.266 Z1.7
X-184.189 Y-22.292 Z1.698
X-183.53 Y-22.757 Z1.67
X-183.49 Y-22.786 Z1.669
X-182.874 Y-23.25 Z1.642
X-182.831 Y-23.284 Z1.64
X-182.259 Y-23.747 Z1.614
X-182.213 Y-23.785 Z1.612
X-181.686 Y-24.246 Z1.587
X-181.637 Y-24.291 Z1.585
X-181.154 Y-24.749 Z1.562
X-181.102 Y-24.801 Z1.559
X-180.666 Y-25.256 Z1.537
X-180.61 Y-25.317 Z1.534
X-180.22 Y-25.769 Z1.514
X-180.162 Y-25.84 Z1.51
X-179.817 Y-26.288 Z1.491
X-179.757 Y-26.371 Z1.487
X-179.46 Y-26.815 Z1.468
X-179.399 Y-26.913 Z1.464
X-179.15 Y-27.352 Z1.447
X-179.105 Y-27.436 Z1.443
X-178.998 Y-27.653 Z1.435
X-178.969 Y-27.715 Z1.433
X-178.874 Y-27.931 Z1.424
X-178.847 Y-27.998 Z1.422
X-178.764 Y-28.213 Z1.414
X-178.738 Y-28.284 Z1.411
X-178.667 Y-28.497 Z1.403
X-178.644 Y-28.574 Z1.401
X-178.585 Y-28.785 Z1.393
X-178.565 Y-28.866 Z1.39
X-178.518 Y-29.076 Z1.382
X-178.502 Y-29.16 Z1.379
X-178.467 Y-29.369 Z1.372
X-178.455 Y-29.458 Z1.369
X-178.433 Y-29.665 Z1.362
X-178.425 Y-29.756 Z1.358
X-178.415 Y-29.961 Z1.351
X-178.413 Y-30.056 Z1.348
X-178.415 Y-30.259 Z1.341
X-178.419 Y-30.356 Z1.337
X-178.433 Y-30.558 Z1.33
X-178.443 Y-30.654 Z1.327
X-178.469 Y-30.854 Z1.32
X-178.485 Y-30.949 Z1.317
X-178.523 Y-31.147 Z1.31
X-178.545 Y-31.242 Z1.306
X-178.596 Y-31.439 Z1.299
X-178.622 Y-31.53 Z1.296
X-178.685 Y-31.725 Z1.289
X-178.717 Y-31.814 Z1.285
X-178.792 Y-32.006 Z1.278
X-178.828 Y-32.09 Z1.275
X-178.915 Y-32.28 Z1.268
X-178.954 Y-32.36 Z1.265
X-179.054 Y-32.548 Z1.257
X-179.096 Y-32.623 Z1.254
X-179.208 Y-32.81 Z1.246
X-179.252 Y-32.879 Z1.244
X-179.376 Y-33.064 Z1.236
X-179.421 Y-33.127 Z1.233
X-179.557 Y-33.31 Z1.225
X-179.603 Y-33.369 Z1.223
X-179.751 Y-33.549 Z1.214
X-179.797 Y-33.602 Z1.212
X-179.957 Y-33.781 Z1.204
X-180.003 Y-33.83 Z1.201
X-180.175 Y-34.006 Z1.193
X-180.243 Y-34.071 Z1.189
X-180.624 Y-34.417 Z1.171
X-180.709 Y-34.489 Z1.167
X-181.138 Y-34.827 Z1.148
X-181.218 Y-34.886 Z1.145
X-181.694 Y-35.214 Z1.125
X-181.768 Y-35.262 Z1.122
X-182.291 Y-35.582 Z1.1
X-182.359 Y-35.621 Z1.098
X-182.928 Y-35.932 Z1.075
X-182.99 Y-35.963 Z1.072
X-183.606 Y-36.265 Z1.049
X-183.662 Y-36.291 Z1.046
X-184.323 Y-36.583 Z1.021
X-184.374 Y-36.605 Z1.019
X-185.08 Y-36.888 Z0.993
X-185.126 Y-36.905 Z0.991
X-185.876 Y-37.179 Z0.963
X-185.919 Y-37.194 Z0.961
X-186.712 Y-37.458 Z0.932
X-186.751 Y-37.471 Z0.931
X-187.587 Y-37.726 Z0.9
X-187.623 Y-37.736 Z0.899
X-188.501 Y-37.982 Z0.867
X-188.533 Y-37.991 Z0.866
X-189.453 Y-38.227 Z0.833
X-189.482 Y-38.235 Z0.832
X-190.442 Y-38.462 Z0.797
X-190.47 Y-38.468 Z0.796
X-191.469 Y-38.687 Z0.761
X-191.494 Y-38.692 Z0.76
X-192.532 Y-38.902 Z0.723
X-192.555 Y-38.906 Z0.722
X-193.631 Y-39.107 Z0.684
X-193.653 Y-39.11 Z0.683
X-194.765 Y-39.302 Z0.643
X-194.785 Y-39.305
X-195.933 Y-39.488 Z0.602
X-195.952 Y-39.491
X-197.135 Y-39.665 Z0.56
X-197.152 Y-39.667 Z0.559
X-198.369 Y-39.833 Z0.516
X-198.385 Y-39.835
X-199.634 Y-39.992 Z0.472
X-199.649 Y-39.994 Z0.471
X-200.93 Y-40.143 Z0.426
X-200.944 Y-40.145
X-202.256 Y-40.285 Z0.38
X-202.269 Y-40.287 Z0.379
X-203.61 Y-40.42 Z0.332
X-203.623 Y-40.421
X-204.992 Y-40.546 Z0.284
X-205.009 Y-40.547 Z0.283
X-207.83 Y-40.774 Z0.184
X-207.85 Y-40.776
X-210.771 Y-40.974 Z0.081
X-210.788 Y-40.975
X-213.801 Y-41.145 Z-0.025
X-213.816
X-216.911 Y-41.289 Z-0.133
X-216.925 Y-41.29 Z-0.134
X-220.092 Y-41.409 Z-0.245
X-220.104 Y-41.41
X-223.335 Y-41.506 Z-0.358
X-223.346
X-226.632 Y-41.581 Z-0.473
X-226.642
X-229.974 Y-41.636 Z-0.59
X-229.982
X-233.351 Y-41.673 Z-0.708
X-233.359
X-236.757 Y-41.693 Z-0.827
X-236.764
X-240.183 Y-41.698 Z-0.946
X-240.189
X-243.621 Y-41.69 Z-1.066
X-243.626 Z-1.067
X-247.064 Y-41.669 Z-1.187
X-247.071
X-253.936 Y-41.597 Z-1.427
X-253.944
X-256.039 Y-41.564 Z-1.5
S8000
X-260.752 Y-41.491 F1000
X-260.758
X-267.464 Y-41.362
X-267.469 Y-41.361
X-274.032 Y-41.215
X-274.036
X-280.423 Y-41.06
X-280.425
X-286.604 Y-40.901
X-286.605
X-292.548 Y-40.743
X-298.235 Y-40.593
X-303.644 Y-40.452
X-308.762 Y-40.324
X-313.575 Y-40.213
X-318.073 Y-40.119
X-322.249 Y-40.045
X-326.097 Y-39.991
X-329.615 Y-39.959
X-332.803 Y-39.948
X-344.8
G2 X-346.387 Y-38.361 I0 J1.588
G1 Y-21.861
G2 X-344.8 Y-20.273 I1.587 J0
G1 X-332.807
X-332.068 Y-20.266
X-331.314 Y-20.246
X-330.536 Y-20.213
X-329.735 Y-20.167
X-328.912 Y-20.107
X-328.065 Y-20.034
X-327.195 Y-19.948
X-326.306 Y-19.85
X-324.449 Y-19.615
X-322.506 Y-19.331
X-320.475 Y-19.002
X-318.358 Y-18.63
X-316.154 Y-18.219
X-313.866 Y-17.772
X-311.496 Y-17.293
X-309.045 Y-16.787
X-303.908 Y-15.712
X-303.906 Y-15.711
X-298.48 Y-14.584
X-298.472 Y-14.583
X-295.657 Y-14.013
X-295.649 Y-14.011
X-292.769 Y-13.444
X-292.759 Y-13.442
X-289.818 Y-12.882
X-289.806 Y-12.88
X-286.806 Y-12.333
X-286.792 Y-12.33
X-283.737 Y-11.801
X-283.722 Y-11.799
X-280.616 Y-11.292
X-280.598 Y-11.289
X-277.443 Y-10.81
X-277.425 Y-10.808
X-274.226 Y-10.361
X-274.211 Y-10.359
X-272.597 Y-10.149
X-272.586 Y-10.148
X-270.961 Y-9.947
X-270.95 Y-9.946
X-269.318 Y-9.756
X-269.307 Y-9.755
X-267.666 Y-9.576
X-267.654 Y-9.574
X-266.005 Y-9.406
X-265.993 Y-9.405
X-264.337 Y-9.249
X-264.325 Y-9.248
X-262.662 Y-9.104
X-262.65 Y-9.103
X-260.981 Y-8.972
X-260.969 Y-8.971
X-259.295 Y-8.852
X-259.282 Y-8.851
X-257.603 Y-8.747
X-257.59 Y-8.746
X-255.908 Y-8.655
X-255.894 Y-8.654
X-254.209 Y-8.577
X-254.195
X-252.507 Y-8.514
X-252.493
X-250.803 Y-8.466
X-250.789
X-249.098 Y-8.433
X-249.084
X-247.393 Y-8.416
X-247.378
X-245.688 Y-8.414
X-245.673
X-243.984 Y-8.427
X-243.969 Y-8.428
X-242.282 Y-8.457
X-242.267
X-240.582 Y-8.503
X-240.567
X-238.887 Y-8.564
X-238.872 Y-8.565
X-237.196 Y-8.642
X-237.181 Y-8.643
X-235.511 Y-8.736
X-235.495 Y-8.737
X-233.831 Y-8.847
X-233.816 Y-8.848
X-232.159 Y-8.973
X-232.144 Y-8.974
X-230.496 Y-9.115
X-230.48 Y-9.116
X-228.841 Y-9.273
X-228.825 Y-9.274
X-227.197 Y-9.447
X-227.181 Y-9.448
X-225.563 Y-9.636
X-225.547 Y-9.638
X-223.942 Y-9.841
X-223.926 Y-9.843
X-222.334 Y-10.06
X-222.318 Y-10.063
X-220.739 Y-10.295
X-220.723 Y-10.297
X-219.16 Y-10.544
X-219.144 Y-10.547
X-217.597 Y-10.807
X-217.58 Y-10.81
X-216.05 Y-11.085
X-216.034 Y-11.088
X-214.522 Y-11.376
X-214.506 Y-11.379
X-213.013 Y-11.68
X-212.996 Y-11.683
X-211.524 Y-11.997
X-211.507 Y-12
X-210.055 Y-12.326
X-210.038 Y-12.33
X-208.609 Y-12.667
X-208.591 Y-12.671
X-207.185 Y-13.02
X-207.168 Y-13.025
X-205.786 Y-13.384
X-205.768 Y-13.389
X-204.412 Y-13.759
X-204.394 Y-13.764
X-203.063 Y-14.143
X-203.045 Y-14.149
X-201.741 Y-14.538
X-201.723 Y-14.544
X-200.448 Y-14.941
X-200.428 Y-14.948
X-199.183 Y-15.354
X-199.163 Y-15.36
X-197.947 Y-15.774
X-197.927 Y-15.781
X-196.742 Y-16.203
X-196.722 Y-16.21
X-195.569 Y-16.639
X-195.547 Y-16.647
X-194.428 Y-17.081
X-194.406 Y-17.09
X-193.32 Y-17.53
X-193.297 Y-17.539
X-192.246 Y-17.984
X-192.222 Y-17.994
X-191.206 Y-18.444
X-191.182 Y-18.455
X-190.203 Y-18.909
X-190.177 Y-18.921
X-189.235 Y-19.378
X-189.208 Y-19.391
X-188.304 Y-19.851
X-188.276 Y-19.866
X-187.411 Y-20.328
X-187.382 Y-20.344
X-186.556 Y-20.808
X-186.525 Y-20.826
X-185.74 Y-21.291
X-185.707 Y-21.312
X-184.964 Y-21.777
X-184.928 Y-21.8
X-184.227 Y-22.266
X-184.189 Y-22.292
X-183.53 Y-22.757
X-183.49 Y-22.786
X-182.874 Y-23.25
X-182.831 Y-23.284
X-182.259 Y-23.747
X-182.213 Y-23.785
X-181.686 Y-24.246
X-181.637 Y-24.291
X-181.154 Y-24.749
X-181.102 Y-24.801
X-180.666 Y-25.256
X-180.61 Y-25.317
X-180.22 Y-25.769
X-180.162 Y-25.84
X-179.817 Y-26.288
X-179.757 Y-26.371
X-179.46 Y-26.815
X-179.399 Y-26.913
X-179.15 Y-27.352
X-179.105 Y-27.436
X-178.998 Y-27.653
X-178.969 Y-27.715
X-178.874 Y-27.931
X-178.847 Y-27.998
X-178.764 Y-28.213
X-178.738 Y-28.284
X-178.667 Y-28.497
X-178.644 Y-28.574
X-178.585 Y-28.785
X-178.565 Y-28.866
X-178.518 Y-29.076
X-178.502 Y-29.16
X-178.467 Y-29.369
X-178.455 Y-29.458
X-178.433 Y-29.665
X-178.425 Y-29.756
X-178.415 Y-29.961
X-178.413 Y-30.056
X-178.415 Y-30.259
X-178.419 Y-30.356
X-178.433 Y-30.558
X-178.443 Y-30.654
X-178.469 Y-30.854
X-178.485 Y-30.949
X-178.523 Y-31.147
X-178.545 Y-31.242
X-178.596 Y-31.439
X-178.622 Y-31.53
X-178.685 Y-31.725
X-178.717 Y-31.814
X-178.792 Y-32.006
X-178.828 Y-32.09
X-178.915 Y-32.28
X-178.954 Y-32.36
X-179.054 Y-32.548
X-179.096 Y-32.623
X-179.208 Y-32.81
X-179.252 Y-32.879
X-179.376 Y-33.064
X-179.421 Y-33.127
X-179.557 Y-33.31
X-179.603 Y-33.369
X-179.751 Y-33.549
X-179.797 Y-33.602
X-179.957 Y-33.781
X-180.003 Y-33.83
X-180.175 Y-34.006
X-180.243 Y-34.071
X-180.624 Y-34.417
X-180.709 Y-34.489
X-181.138 Y-34.827
X-181.218 Y-34.886
X-181.694 Y-35.214
X-181.768 Y-35.262
X-182.291 Y-35.582
X-182.359 Y-35.621
X-182.928 Y-35.932
X-182.99 Y-35.963
X-183.606 Y-36.265
X-183.662 Y-36.291
X-184.323 Y-36.583
X-184.374 Y-36.605
X-185.08 Y-36.888
X-185.126 Y-36.905
X-185.876 Y-37.179
X-185.919 Y-37.194
X-186.712 Y-37.458
X-186.751 Y-37.471
X-187.587 Y-37.726
X-187.623 Y-37.736
X-188.501 Y-37.982
X-188.533 Y-37.991
X-189.453 Y-38.227
X-189.482 Y-38.235
X-190.442 Y-38.462
X-190.47 Y-38.468
X-191.469 Y-38.687
X-191.494 Y-38.692
X-192.532 Y-38.902
X-192.555 Y-38.906
X-193.631 Y-39.107
X-193.653 Y-39.11
X-194.765 Y-39.302
X-194.785 Y-39.305
X-195.933 Y-39.488
X-195.952 Y-39.491
X-197.135 Y-39.665
X-197.152 Y-39.667
X-198.369 Y-39.833
X-198.385 Y-39.835
X-199.634 Y-39.992
X-199.649 Y-39.994
X-200.93 Y-40.143
X-200.944 Y-40.145
X-202.256 Y-40.285
X-202.269 Y-40.287
X-203.61 Y-40.42
X-203.623 Y-40.421
X-204.992 Y-40.546
X-205.009 Y-40.547
X-207.83 Y-40.774
X-207.85 Y-40.776
X-210.771 Y-40.974
X-210.788 Y-40.975
X-213.801 Y-41.145
X-213.816
X-216.911 Y-41.289
X-216.925 Y-41.29
X-220.092 Y-41.409
X-220.104 Y-41.41
X-223.335 Y-41.506
X-223.346
X-226.632 Y-41.581
X-226.642
X-229.974 Y-41.636
X-229.982
X-233.351 Y-41.673
X-233.359
X-236.757 Y-41.693
X-236.764
X-240.183 Y-41.698
X-240.189
X-243.621 Y-41.69
X-243.626
X-247.064 Y-41.669
X-247.071
X-253.936 Y-41.597
X-253.944
X-256.039 Y-41.564
S5000
X-260.752 Y-41.491 Z-1.665 F333.3
X-260.758
X-267.464 Y-41.362 Z-1.899
X-267.469 Y-41.361
X-274.032 Y-41.215 Z-2.128
X-274.036 Z-2.129
X-280.423 Y-41.06 Z-2.352
X-280.425
X-286.604 Y-40.901 Z-2.568
X-286.605
X-292.548 Y-40.743 Z-2.775
X-298.235 Y-40.593 Z-2.974
X-298.982 Y-40.573 Z-3
S8000
X-303.644 Y-40.452 F1000
X-308.762 Y-40.324
X-313.575 Y-40.213
X-318.073 Y-40.119
X-322.249 Y-40.045
X-326.097 Y-39.991
X-329.615 Y-39.959
X-332.803 Y-39.948
X-344.8
G2 X-346.387 Y-38.361 I0 J1.588
G1 Y-21.861
G2 X-344.8 Y-20.273 I1.587 J0
G1 X-332.807
X-332.068 Y-20.266
X-331.314 Y-20.246
X-330.536 Y-20.213
X-329.735 Y-20.167
X-328.912 Y-20.107
X-328.065 Y-20.034
X-327.195 Y-19.948
X-326.306 Y-19.85
X-324.449 Y-19.615
X-322.506 Y-19.331
X-320.475 Y-19.002
X-318.358 Y-18.63
X-316.154 Y-18.219
X-313.866 Y-17.772
X-311.496 Y-17.293
X-309.045 Y-16.787
X-303.908 Y-15.712
X-303.906 Y-15.711
X-298.48 Y-14.584
X-298.472 Y-14.583
X-295.657 Y-14.013
X-295.649 Y-14.011
X-292.769 Y-13.444
X-292.759 Y-13.442
X-289.818 Y-12.882
X-289.806 Y-12.88
X-286.806 Y-12.333
X-286.792 Y-12.33
X-283.737 Y-11.801
X-283.722 Y-11.799
X-280.616 Y-11.292
X-280.598 Y-11.289
X-277.443 Y-10.81
X-277.425 Y-10.808
X-274.226 Y-10.361
X-274.211 Y-10.359
X-272.597 Y-10.149
X-272.586 Y-10.148
X-270.961 Y-9.947
X-270.95 Y-9.946
X-269.318 Y-9.756
X-269.307 Y-9.755
X-267.666 Y-9.576
X-267.654 Y-9.574
X-266.005 Y-9.406
X-265.993 Y-9.405
X-264.337 Y-9.249
X-264.325 Y-9.248
X-262.662 Y-9.104
X-262.65 Y-9.103
X-260.981 Y-8.972
X-260.969 Y-8.971
X-259.295 Y-8.852
X-259.282 Y-8.851
X-257.603 Y-8.747
X-257.59 Y-8.746
X-255.908 Y-8.655
X-255.894 Y-8.654
X-254.209 Y-8.577
X-254.195
X-252.507 Y-8.514
X-252.493
X-250.803 Y-8.466
X-250.789
X-249.098 Y-8.433
X-249.084
X-247.393 Y-8.416
X-247.378
X-245.688 Y-8.414
X-245.673
X-243.984 Y-8.427
X-243.969 Y-8.428
X-242.282 Y-8.457
X-242.267
X-240.582 Y-8.503
X-240.567
X-238.887 Y-8.564
X-238.872 Y-8.565
X-237.196 Y-8.642
X-237.181 Y-8.643
X-235.511 Y-8.736
X-235.495 Y-8.737
X-233.831 Y-8.847
X-233.816 Y-8.848
X-232.159 Y-8.973
X-232.144 Y-8.974
X-230.496 Y-9.115
X-230.48 Y-9.116
X-228.841 Y-9.273
X-228.825 Y-9.274
X-227.197 Y-9.447
X-227.181 Y-9.448
X-225.563 Y-9.636
X-225.547 Y-9.638
X-223.942 Y-9.841
X-223.926 Y-9.843
X-222.334 Y-10.06
X-222.318 Y-10.063
X-220.739 Y-10.295
X-220.723 Y-10.297
X-219.16 Y-10.544
X-219.144 Y-10.547
X-217.597 Y-10.807
X-217.58 Y-10.81
X-216.05 Y-11.085
X-216.034 Y-11.088
X-214.522 Y-11.376
X-214.506 Y-11.379
X-213.013 Y-11.68
X-212.996 Y-11.683
X-211.524 Y-11.997
X-211.507 Y-12
X-210.055 Y-12.326
X-210.038 Y-12.33
X-208.609 Y-12.667
X-208.591 Y-12.671
X-207.185 Y-13.02
X-207.168 Y-13.025
X-205.786 Y-13.384
X-205.768 Y-13.389
X-204.412 Y-13.759
X-204.394 Y-13.764
X-203.063 Y-14.143
X-203.045 Y-14.149
X-201.741 Y-14.538
X-201.723 Y-14.544
X-200.448 Y-14.941
X-200.428 Y-14.948
X-199.183 Y-15.354
X-199.163 Y-15.36
X-197.947 Y-15.774
X-197.927 Y-15.781
X-196.742 Y-16.203
X-196.722 Y-16.21
X-195.569 Y-16.639
X-195.547 Y-16.647
X-194.428 Y-17.081
X-194.406 Y-17.09
X-193.32 Y-17.53
X-193.297 Y-17.539
X-192.246 Y-17.984
X-192.222 Y-17.994
X-191.206 Y-18.444
X-191.182 Y-18.455
X-190.203 Y-18.909
X-190.177 Y-18.921
X-189.235 Y-19.378
X-189.208 Y-19.391
X-188.304 Y-19.851
X-188.276 Y-19.866
X-187.411 Y-20.328
X-187.382 Y-20.344
X-186.556 Y-20.808
X-186.525 Y-20.826
X-185.74 Y-21.291
X-185.707 Y-21.312
X-184.964 Y-21.777
X-184.928 Y-21.8
X-184.227 Y-22.266
X-184.189 Y-22.292
X-183.53 Y-22.757
X-183.49 Y-22.786
X-182.874 Y-23.25
X-182.831 Y-23.284
X-182.259 Y-23.747
X-182.213 Y-23.785
X-181.686 Y-24.246
X-181.637 Y-24.291
X-181.154 Y-24.749
X-181.102 Y-24.801
X-180.666 Y-25.256
X-180.61 Y-25.317
X-180.22 Y-25.769
X-180.162 Y-25.84
X-179.817 Y-26.288
X-179.757 Y-26.371
X-179.46 Y-26.815
X-179.399 Y-26.913
X-179.15 Y-27.352
X-179.105 Y-27.436
X-178.998 Y-27.653
X-178.969 Y-27.715
X-178.874 Y-27.931
X-178.847 Y-27.998
X-178.764 Y-28.213
X-178.738 Y-28.284
X-178.667 Y-28.497
X-178.644 Y-28.574
X-178.585 Y-28.785
X-178.565 Y-28.866
X-178.518 Y-29.076
X-178.502 Y-29.16
X-178.467 Y-29.369
X-178.455 Y-29.458
X-178.433 Y-29.665
X-178.425 Y-29.756
X-178.415 Y-29.961
X-178.413 Y-30.056
X-178.415 Y-30.259
X-178.419 Y-30.356
X-178.433 Y-30.558
X-178.443 Y-30.654
X-178.469 Y-30.854
X-178.485 Y-30.949
X-178.523 Y-31.147
X-178.545 Y-31.242
X-178.596 Y-31.439
X-178.622 Y-31.53
X-178.685 Y-31.725
X-178.717 Y-31.814
X-178.792 Y-32.006
X-178.828 Y-32.09
X-178.915 Y-32.28
X-178.954 Y-32.36
X-179.054 Y-32.548
X-179.096 Y-32.623
X-179.208 Y-32.81
X-179.252 Y-32.879
X-179.376 Y-33.064
X-179.421 Y-33.127
X-179.557 Y-33.31
X-179.603 Y-33.369
X-179.751 Y-33.549
X-179.797 Y-33.602
X-179.957 Y-33.781
X-180.003 Y-33.83
X-180.175 Y-34.006
X-180.243 Y-34.071
X-180.624 Y-34.417
X-180.709 Y-34.489
X-181.138 Y-34.827
X-181.218 Y-34.886
X-181.694 Y-35.214
X-181.768 Y-35.262
X-182.291 Y-35.582
X-182.359 Y-35.621
X-182.928 Y-35.932
X-182.99 Y-35.963
X-183.606 Y-36.265
X-183.662 Y-36.291
X-184.323 Y-36.583
X-184.374 Y-36.605
X-185.08 Y-36.888
X-185.126 Y-36.905
X-185.876 Y-37.179
X-185.919 Y-37.194
X-186.712 Y-37.458
X-186.751 Y-37.471
X-187.587 Y-37.726
X-187.623 Y-37.736
X-188.501 Y-37.982
X-188.533 Y-37.991
X-189.453 Y-38.227
X-189.482 Y-38.235
X-190.442 Y-38.462
X-190.47 Y-38.468
X-191.469 Y-38.687
X-191.494 Y-38.692
X-192.532 Y-38.902
X-192.555 Y-38.906
X-193.631 Y-39.107
X-193.653 Y-39.11
X-194.765 Y-39.302
X-194.785 Y-39.305
X-195.933 Y-39.488
X-195.952 Y-39.491
X-197.135 Y-39.665
X-197.152 Y-39.667
X-198.369 Y-39.833
X-198.385 Y-39.835
X-199.634 Y-39.992
X-199.649 Y-39.994
X-200.93 Y-40.143
X-200.944 Y-40.145
X-202.256 Y-40.285
X-202.269 Y-40.287
X-203.61 Y-40.42
X-203.623 Y-40.421
X-204.992 Y-40.546
X-205.009 Y-40.547
X-207.83 Y-40.774
X-207.85 Y-40.776
X-210.771 Y-40.974
X-210.788 Y-40.975
X-213.801 Y-41.145
X-213.816
X-216.911 Y-41.289
X-216.925 Y-41.29
X-220.092 Y-41.409
X-220.104 Y-41.41
X-223.335 Y-41.506
X-223.346
X-226.632 Y-41.581
X-226.642
X-229.974 Y-41.636
X-229.982
X-233.351 Y-41.673
X-233.359
X-236.757 Y-41.693
X-236.764
X-240.183 Y-41.698
X-240.189
X-243.621 Y-41.69
X-243.626
X-247.064 Y-41.669
X-247.071
X-253.936 Y-41.597
X-253.944
X-260.752 Y-41.491
X-260.758
X-267.464 Y-41.362
X-267.469 Y-41.361
X-274.032 Y-41.215
X-274.036
X-280.423 Y-41.06
X-280.425
X-286.604 Y-40.901
X-286.605
X-292.548 Y-40.743
X-298.235 Y-40.593
X-298.982 Y-40.573
S5000
X-303.644 Y-40.452 Z-3.163 F333.3
X-308.762 Y-40.324 Z-3.342
X-313.575 Y-40.213 Z-3.51
X-318.073 Y-40.119 Z-3.667
X-322.249 Y-40.045 Z-3.813
X-326.097 Y-39.991 Z-3.947
X-329.615 Y-39.959 Z-4.07
X-332.803 Y-39.948 Z-4.181
X-333.339 Z-4.2
S8000
X-344.8 F1000
G2 X-346.387 Y-38.361 I0 J1.588
G1 Y-21.861
G2 X-344.8 Y-20.273 I1.587 J0
G1 X-332.807
X-332.068 Y-20.266
X-331.314 Y-20.246
X-330.536 Y-20.213
X-329.735 Y-20.167
X-328.912 Y-20.107
X-328.065 Y-20.034
X-327.195 Y-19.948
X-326.306 Y-19.85
X-324.449 Y-19.615
X-322.506 Y-19.331
X-320.475 Y-19.002
X-318.358 Y-18.63
X-316.154 Y-18.219
X-313.866 Y-17.772
X-311.496 Y-17.293
X-309.045 Y-16.787
X-303.908 Y-15.712
X-303.906 Y-15.711
X-303.862 Y-15.702
Z-3.6
X-298.48 Y-14.584
X-298.472 Y-14.583
X-295.855 Y-14.053
Z-4.2 F333.3
X-295.657 Y-14.013 F1000
X-295.649 Y-14.011
X-292.769 Y-13.444
X-292.759 Y-13.442
X-289.818 Y-12.882
X-289.806 Y-12.88
X-286.806 Y-12.333
X-286.792 Y-12.33
X-283.737 Y-11.801
X-283.722 Y-11.799
X-280.616 Y-11.292
X-280.598 Y-11.289
X-277.443 Y-10.81
X-277.425 Y-10.808
X-274.226 Y-10.361
X-274.211 Y-10.359
X-272.597 Y-10.149
X-272.586 Y-10.148
X-270.961 Y-9.947
X-270.95 Y-9.946
X-269.318 Y-9.756
X-269.307 Y-9.755
X-267.666 Y-9.576
X-267.654 Y-9.574
X-266.005 Y-9.406
X-265.993 Y-9.405
X-264.337 Y-9.249
X-264.325 Y-9.248
X-262.662 Y-9.104
X-262.65 Y-9.103
X-260.981 Y-8.972
X-260.969 Y-8.971
X-259.295 Y-8.852
X-259.282 Y-8.851
X-257.603 Y-8.747
X-257.59 Y-8.746
X-255.908 Y-8.655
X-255.894 Y-8.654
X-254.209 Y-8.577
X-254.195
X-252.507 Y-8.514
X-252.493
X-250.803 Y-8.466
X-250.789
X-249.098 Y-8.433
X-249.084
X-247.393 Y-8.416
X-247.378
X-245.688 Y-8.414
X-245.673
X-243.984 Y-8.427
X-243.969 Y-8.428
X-242.282 Y-8.457
X-242.267
X-240.582 Y-8.503
X-240.567
X-238.887 Y-8.564
X-238.872 Y-8.565
X-237.196 Y-8.642
X-237.181 Y-8.643
X-235.511 Y-8.736
X-235.495 Y-8.737
X-233.831 Y-8.847
X-233.816 Y-8.848
X-232.159 Y-8.973
X-232.144 Y-8.974
X-230.496 Y-9.115
X-230.48 Y-9.116
X-228.841 Y-9.273
X-228.825 Y-9.274
X-227.197 Y-9.447
X-227.181 Y-9.448
X-225.563 Y-9.636
X-225.547 Y-9.638
X-223.942 Y-9.841
X-223.926 Y-9.843
X-222.334 Y-10.06
X-222.318 Y-10.063
X-220.739 Y-10.295
X-220.723 Y-10.297
X-219.16 Y-10.544
X-219.144 Y-10.547
X-217.597 Y-10.807
X-217.58 Y-10.81
X-216.05 Y-11.085
X-216.034 Y-11.088
X-214.522 Y-11.376
X-214.506 Y-11.379
X-213.013 Y-11.68
X-212.996 Y-11.683
X-211.524 Y-11.997
X-211.507 Y-12
X-210.055 Y-12.326
X-210.038 Y-12.33
X-208.609 Y-12.667
X-208.591 Y-12.671
X-207.185 Y-13.02
X-207.168 Y-13.025
X-205.786 Y-13.384
X-205.768 Y-13.389
X-205.663 Y-13.418
Z-3.6
X-204.412 Y-13.759
X-204.394 Y-13.764
X-203.063 Y-14.143
X-203.045 Y-14.149
X-201.741 Y-14.538
X-201.723 Y-14.544
X-200.448 Y-14.941
X-200.428 Y-14.948
X-199.183 Y-15.354
X-199.163 Y-15.36
X-197.947 Y-15.774
X-197.927 Y-15.781
X-197.846 Y-15.81
Z-4.2 F333.3
X-196.742 Y-16.203 F1000
X-196.722 Y-16.21
X-195.569 Y-16.639
X-195.547 Y-16.647
X-194.428 Y-17.081
X-194.406 Y-17.09
X-193.32 Y-17.53
X-193.297 Y-17.539
X-192.246 Y-17.984
X-192.222 Y-17.994
X-191.206 Y-18.444
X-191.182 Y-18.455
X-190.203 Y-18.909
X-190.177 Y-18.921
X-189.235 Y-19.378
X-189.208 Y-19.391
X-188.304 Y-19.851
X-188.276 Y-19.866
X-187.411 Y-20.328
X-187.382 Y-20.344
X-186.556 Y-20.808
X-186.525 Y-20.826
X-185.74 Y-21.291
X-185.707 Y-21.312
X-184.964 Y-21.777
X-184.928 Y-21.8
X-184.227 Y-22.266
X-184.189 Y-22.292
X-183.53 Y-22.757
X-183.49 Y-22.786
X-182.874 Y-23.25
X-182.831 Y-23.284
X-182.259 Y-23.747
X-182.213 Y-23.785
X-181.686 Y-24.246
X-181.637 Y-24.291
X-181.154 Y-24.749
X-181.102 Y-24.801
X-180.666 Y-25.256
X-180.61 Y-25.317
X-180.22 Y-25.769
X-180.162 Y-25.84
X-179.817 Y-26.288
X-179.757 Y-26.371
X-179.46 Y-26.815
X-179.399 Y-26.913
X-179.15 Y-27.352
X-179.105 Y-27.436
X-178.998 Y-27.653
X-178.969 Y-27.715
X-178.874 Y-27.931
X-178.847 Y-27.998
X-178.764 Y-28.213
X-178.738 Y-28.284
X-178.667 Y-28.497
X-178.644 Y-28.574
X-178.585 Y-28.785
X-178.565 Y-28.866
X-178.518 Y-29.076
X-178.502 Y-29.16
X-178.467 Y-29.369
X-178.455 Y-29.458
X-178.433 Y-29.665
X-178.425 Y-29.756
X-178.415 Y-29.961
X-178.413 Y-30.056
X-178.415 Y-30.259
X-178.419 Y-30.356
X-178.433 Y-30.558
X-178.443 Y-30.654
X-178.469 Y-30.854
X-178.485 Y-30.949
X-178.523 Y-31.147
X-178.545 Y-31.242
X-178.596 Y-31.439
X-178.622 Y-31.53
X-178.685 Y-31.725
X-178.717 Y-31.814
X-178.792 Y-32.006
X-178.828 Y-32.09
X-178.915 Y-32.28
X-178.954 Y-32.36
X-179.054 Y-32.548
X-179.096 Y-32.623
X-179.208 Y-32.81
X-179.252 Y-32.879
X-179.376 Y-33.064
X-179.421 Y-33.127
X-179.557 Y-33.31
X-179.603 Y-33.369
X-179.751 Y-33.549
X-179.797 Y-33.602
X-179.957 Y-33.781
X-180.003 Y-33.83
X-180.175 Y-34.006
X-180.243 Y-34.071
X-180.624 Y-34.417
X-180.709 Y-34.489
X-181.138 Y-34.827
X-181.218 Y-34.886
X-181.694 Y-35.214
X-181.768 Y-35.262
X-182.291 Y-35.582
X-182.359 Y-35.621
X-182.928 Y-35.932
X-182.99 Y-35.963
X-183.606 Y-36.265
X-183.662 Y-36.291
X-184.323 Y-36.583
X-184.374 Y-36.605
X-185.08 Y-36.888
X-185.126 Y-36.905
X-185.876 Y-37.179
X-185.919 Y-37.194
X-186.712 Y-37.458
X-186.751 Y-37.471
X-187.587 Y-37.726
X-187.623 Y-37.736
X-188.501 Y-37.982
X-188.533 Y-37.991
X-189.453 Y-38.227
X-189.482 Y-38.235
X-190.442 Y-38.462
X-190.47 Y-38.468
X-191.469 Y-38.687
X-191.494 Y-38.692
X-192.532 Y-38.902
X-192.555 Y-38.906
X-193.631 Y-39.107
X-193.653 Y-39.11
X-194.765 Y-39.302
X-194.785 Y-39.305
X-195.933 Y-39.488
X-195.952 Y-39.491
X-196.882 Y-39.628
Z-3.6
X-197.135 Y-39.665
X-197.152 Y-39.667
X-198.369 Y-39.833
X-198.385 Y-39.835
X-199.634 Y-39.992
X-199.649 Y-39.994
X-200.93 Y-40.143
X-200.944 Y-40.145
X-202.256 Y-40.285
X-202.269 Y-40.287
X-203.61 Y-40.42
X-203.623 Y-40.421
X-204.992 Y-40.546
X-205.005 Y-40.547
Z-4.2 F333.3
X-205.009 F1000
X-207.83 Y-40.774
X-207.85 Y-40.776
X-210.771 Y-40.974
X-210.788 Y-40.975
X-213.801 Y-41.145
X-213.816
X-216.911 Y-41.289
X-216.925 Y-41.29
X-220.092 Y-41.409
X-220.104 Y-41.41
X-223.335 Y-41.506
X-223.346
X-226.632 Y-41.581
X-226.642
X-229.974 Y-41.636
X-229.982
X-233.351 Y-41.673
X-233.359
X-236.757 Y-41.693
X-236.764
X-240.183 Y-41.698
X-240.189
X-243.621 Y-41.69
X-243.626
X-247.064 Y-41.669
X-247.071
X-253.936 Y-41.597
X-253.944
X-260.752 Y-41.491
X-260.758
X-267.464 Y-41.362
X-267.469 Y-41.361
X-274.032 Y-41.215
X-274.036
X-280.423 Y-41.06
X-280.425
X-286.604 Y-40.901
X-286.605
X-292.548 Y-40.743
X-295.529 Y-40.664
Z-3.6
X-298.235 Y-40.593
X-303.644 Y-40.452
X-303.701 Y-40.45
Z-4.2 F333.3
X-308.762 Y-40.324 F1000
X-313.575 Y-40.213
X-318.073 Y-40.119
X-322.249 Y-40.045
X-326.097 Y-39.991
X-329.615 Y-39.959
X-332.803 Y-39.948
X-333.339
G3 X-333.656 Y-40.266 I0 J-0.317
G1 Y-40.583
G19 G2 Y-40.901 Z-3.883 J0 K0.317
G0 Z15
G17

(2D-Kontur6)
G0 Z15
X-35.35 Y-52.515
Z5
G1 Z2.818 F333.3
X-35.353 Y-52.523 Z2.747 F1000
X-35.359 Y-52.546 Z2.68
X-35.369 Y-52.582 Z2.62
X-35.382 Y-52.631 Z2.569
X-35.398 Y-52.689 Z2.531
X-35.415 Y-52.754 Z2.508
X-35.434 Y-52.822 Z2.5
X-35.517 Y-53.128
G3 X-35.295 Y-53.518 I0.306 J-0.084
S5000
G1 X-34.412 Y-53.759 Z2.468 F333.3
X-34.394 Y-53.764 Z2.467
X-33.063 Y-54.143 Z2.419
X-33.045 Y-54.149 Z2.418
X-31.741 Y-54.538 Z2.371
X-31.723 Y-54.544 Z2.37
X-30.448 Y-54.941 Z2.324
X-30.428 Y-54.948 Z2.323
X-29.183 Y-55.354 Z2.277
X-29.163 Y-55.36 Z2.276
X-27.947 Y-55.774 Z2.232
X-27.927 Y-55.781 Z2.231
X-26.742 Y-56.203 Z2.187
X-26.722 Y-56.21 Z2.186
X-25.569 Y-56.639 Z2.143
X-25.547 Y-56.647 Z2.142
X-24.428 Y-57.081 Z2.1
X-24.406 Y-57.09
X-23.32 Y-57.53 Z2.059
X-23.297 Y-57.539 Z2.058
X-22.246 Y-57.984 Z2.018
X-22.222 Y-57.994 Z2.017
X-21.206 Y-58.444 Z1.978
X-21.182 Y-58.455 Z1.977
X-20.203 Y-58.909 Z1.94
X-20.177 Y-58.921 Z1.939
X-19.235 Y-59.378 Z1.902
X-19.208 Y-59.391 Z1.901
X-18.304 Y-59.851 Z1.866
X-18.276 Y-59.866 Z1.865
X-17.411 Y-60.328 Z1.83
X-17.382 Y-60.344 Z1.829
X-16.556 Y-60.808 Z1.796
X-16.525 Y-60.826 Z1.795
X-15.74 Y-61.291 Z1.763
X-15.707 Y-61.312 Z1.762
X-14.964 Y-61.777 Z1.731
X-14.928 Y-61.8 Z1.729
X-14.227 Y-62.266 Z1.7
X-14.189 Y-62.292 Z1.698
X-13.53 Y-62.757 Z1.67
X-13.49 Y-62.786 Z1.669
X-12.874 Y-63.25 Z1.642
X-12.831 Y-63.284 Z1.64
X-12.259 Y-63.747 Z1.614
X-12.213 Y-63.785 Z1.612
X-11.686 Y-64.246 Z1.587
X-11.637 Y-64.291 Z1.585
X-11.154 Y-64.749 Z1.562
X-11.102 Y-64.801 Z1.559
X-10.666 Y-65.256 Z1.537
X-10.61 Y-65.317 Z1.534
X-10.22 Y-65.769 Z1.514
X-10.162 Y-65.84 Z1.51
X-9.817 Y-66.288 Z1.491
X-9.757 Y-66.371 Z1.487
X-9.46 Y-66.815 Z1.468
X-9.399 Y-66.913 Z1.464
X-9.15 Y-67.352 Z1.447
X-9.105 Y-67.436 Z1.443
X-8.998 Y-67.653 Z1.435
X-8.969 Y-67.715 Z1.433
X-8.874 Y-67.931 Z1.424
X-8.847 Y-67.998 Z1.422
X-8.764 Y-68.213 Z1.414
X-8.738 Y-68.284 Z1.411
X-8.667 Y-68.497 Z1.403
X-8.644 Y-68.574 Z1.401
X-8.585 Y-68.785 Z1.393
X-8.565 Y-68.866 Z1.39
X-8.518 Y-69.076 Z1.382
X-8.502 Y-69.16 Z1.379
X-8.467 Y-69.369 Z1.372
X-8.455 Y-69.458 Z1.369
X-8.433 Y-69.665 Z1.362
X-8.425 Y-69.756 Z1.358
X-8.415 Y-69.961 Z1.351
X-8.413 Y-70.056 Z1.348
X-8.415 Y-70.259 Z1.341
X-8.419 Y-70.356 Z1.337
X-8.433 Y-70.558 Z1.33
X-8.443 Y-70.654 Z1.327
X-8.469 Y-70.854 Z1.32
X-8.485 Y-70.949 Z1.317
X-8.523 Y-71.147 Z1.31
X-8.545 Y-71.242 Z1.306
X-8.596 Y-71.439 Z1.299
X-8.622 Y-71.53 Z1.296
X-8.685 Y-71.725 Z1.289
X-8.717 Y-71.814 Z1.285
X-8.792 Y-72.006 Z1.278
X-8.828 Y-72.09 Z1.275
X-8.915 Y-72.28 Z1.268
X-8.954 Y-72.36 Z1.265
X-9.054 Y-72.548 Z1.257
X-9.096 Y-72.623 Z1.254
X-9.208 Y-72.81 Z1.246
X-9.252 Y-72.879 Z1.244
X-9.376 Y-73.064 Z1.236
X-9.421 Y-73.127 Z1.233
X-9.557 Y-73.31 Z1.225
X-9.603 Y-73.369 Z1.223
X-9.751 Y-73.549 Z1.214
X-9.797 Y-73.602 Z1.212
X-9.957 Y-73.781 Z1.204
X-10.003 Y-73.83 Z1.201
X-10.175 Y-74.006 Z1.193
X-10.243 Y-74.071 Z1.189
X-10.624 Y-74.417 Z1.171
X-10.709 Y-74.489 Z1.167
X-11.138 Y-74.827 Z1.148
X-11.218 Y-74.886 Z1.145
X-11.694 Y-75.214 Z1.125
X-11.768 Y-75.262 Z1.122
X-12.291 Y-75.582 Z1.1
X-12.359 Y-75.621 Z1.098
X-12.928 Y-75.932 Z1.075
X-12.99 Y-75.963 Z1.072
X-13.606 Y-76.265 Z1.049
X-13.662 Y-76.291 Z1.046
X-14.323 Y-76.583 Z1.021
X-14.374 Y-76.605 Z1.019
X-15.08 Y-76.888 Z0.993
X-15.126 Y-76.905 Z0.991
X-15.876 Y-77.179 Z0.963
X-15.919 Y-77.194 Z0.961
X-16.712 Y-77.458 Z0.932
X-16.751 Y-77.471 Z0.931
X-17.587 Y-77.726 Z0.9
X-17.623 Y-77.736 Z0.899
X-18.501 Y-77.982 Z0.867
X-18.533 Y-77.991 Z0.866
X-19.453 Y-78.227 Z0.833
X-19.482 Y-78.235 Z0.832
X-20.442 Y-78.462 Z0.797
X-20.47 Y-78.468 Z0.796
X-21.469 Y-78.687 Z0.761
X-21.494 Y-78.692 Z0.76
X-22.532 Y-78.902 Z0.723
X-22.555 Y-78.906 Z0.722
X-23.631 Y-79.107 Z0.684
X-23.653 Y-79.11 Z0.683
X-24.765 Y-79.302 Z0.644
X-24.785 Y-79.305 Z0.643
X-25.933 Y-79.488 Z0.602
X-25.952 Y-79.491
X-27.135 Y-79.665 Z0.56
X-27.152 Y-79.668 Z0.559
X-28.369 Y-79.833 Z0.516
X-28.385 Y-79.835
X-29.634 Y-79.992 Z0.472
X-29.649 Y-79.994 Z0.471
X-30.93 Y-80.143 Z0.426
X-30.944 Y-80.145
X-32.256 Y-80.285 Z0.38
X-32.269 Y-80.287 Z0.379
X-33.61 Y-80.42 Z0.332
X-33.623 Y-80.421
X-34.992 Y-80.546 Z0.284
X-35.009 Y-80.547 Z0.283
X-37.83 Y-80.774 Z0.184
X-37.85 Y-80.776
X-40.771 Y-80.974 Z0.081
X-40.788 Y-80.975
X-43.801 Y-81.145 Z-0.025
X-43.816
X-46.911 Y-81.289 Z-0.133
X-46.925 Y-81.29 Z-0.134
X-50.092 Y-81.409 Z-0.245
X-50.104 Y-81.41
X-53.335 Y-81.506 Z-0.358
X-53.346
X-56.632 Y-81.581 Z-0.473
X-56.642
X-59.974 Y-81.636 Z-0.59
X-59.982
X-63.351 Y-81.673 Z-0.708
X-63.359
X-66.757 Y-81.693 Z-0.827
X-66.764
X-70.183 Y-81.698 Z-0.946
X-70.189
X-73.621 Y-81.69 Z-1.066
X-73.626 Z-1.067
X-77.064 Y-81.669 Z-1.187
X-77.071
X-83.936 Y-81.597 Z-1.427
X-83.944
X-86.039 Y-81.564 Z-1.5
S8000
X-90.752 Y-81.491 F1000
X-90.758
X-97.464 Y-81.362
X-97.469 Y-81.361
X-104.032 Y-81.215
X-104.036
X-110.423 Y-81.06
X-110.425
X-116.604 Y-80.901
X-116.605
X-122.548 Y-80.743
X-128.235 Y-80.593
X-133.644 Y-80.452
X-138.762 Y-80.324
X-143.575 Y-80.213
X-148.073 Y-80.119
X-152.249 Y-80.045
X-156.097 Y-79.991
X-159.615 Y-79.959
X-162.803 Y-79.948
X-174.8
G2 X-176.387 Y-78.361 I0 J1.588
G1 Y-61.861
G2 X-174.8 Y-60.273 I1.587 J0
G1 X-162.807
X-162.068 Y-60.266
X-161.314 Y-60.246
X-160.536 Y-60.213
X-159.735 Y-60.167
X-158.912 Y-60.107
X-158.065 Y-60.034
X-157.195 Y-59.948
X-156.306 Y-59.85
X-154.449 Y-59.615
X-152.506 Y-59.331
X-150.475 Y-59.002
X-148.358 Y-58.63
X-146.154 Y-58.219
X-143.866 Y-57.772
X-141.496 Y-57.293
X-139.045 Y-56.787
X-133.908 Y-55.712
X-133.906 Y-55.711
X-128.48 Y-54.584
X-128.472 Y-54.583
X-125.657 Y-54.013
X-125.649 Y-54.011
X-122.769 Y-53.444
X-122.759 Y-53.442
X-119.818 Y-52.882
X-119.806 Y-52.88
X-116.806 Y-52.333
X-116.792 Y-52.33
X-113.737 Y-51.801
X-113.722 Y-51.799
X-110.616 Y-51.292
X-110.598 Y-51.289
X-107.443 Y-50.81
X-107.425 Y-50.808
X-104.226 Y-50.361
X-104.211 Y-50.359
X-102.597 Y-50.149
X-102.586 Y-50.148
X-100.961 Y-49.947
X-100.95 Y-49.946
X-99.318 Y-49.756
X-99.307 Y-49.755
X-97.666 Y-49.576
X-97.654 Y-49.574
X-96.005 Y-49.406
X-95.993 Y-49.405
X-94.337 Y-49.249
X-94.325 Y-49.248
X-92.662 Y-49.104
X-92.65 Y-49.103
X-90.981 Y-48.972
X-90.969 Y-48.971
X-89.295 Y-48.852
X-89.282 Y-48.851
X-87.603 Y-48.747
X-87.59 Y-48.746
X-85.908 Y-48.655
X-85.894 Y-48.654
X-84.209 Y-48.577
X-84.195
X-82.507 Y-48.514
X-82.493
X-80.803 Y-48.466
X-80.789
X-79.098 Y-48.433
X-79.084
X-77.393 Y-48.416
X-77.378
X-75.688 Y-48.414
X-75.673
X-73.984 Y-48.427
X-73.969 Y-48.428
X-72.282 Y-48.457
X-72.267
X-70.582 Y-48.503
X-70.567
X-68.887 Y-48.564
X-68.872 Y-48.565
X-67.196 Y-48.642
X-67.181 Y-48.643
X-65.511 Y-48.736
X-65.495 Y-48.737
X-63.831 Y-48.847
X-63.816 Y-48.848
X-62.159 Y-48.973
X-62.144 Y-48.974
X-60.496 Y-49.115
X-60.48 Y-49.116
X-58.841 Y-49.273
X-58.825 Y-49.275
X-57.197 Y-49.447
X-57.181 Y-49.448
X-55.563 Y-49.636
X-55.547 Y-49.638
X-53.942 Y-49.841
X-53.926 Y-49.843
X-52.334 Y-50.06
X-52.318 Y-50.063
X-50.739 Y-50.295
X-50.723 Y-50.297
X-49.16 Y-50.544
X-49.144 Y-50.547
X-47.597 Y-50.807
X-47.58 Y-50.81
X-46.05 Y-51.085
X-46.034 Y-51.088
X-44.522 Y-51.376
X-44.506 Y-51.379
X-43.013 Y-51.68
X-42.996 Y-51.683
X-41.524 Y-51.997
X-41.507 Y-52
X-40.055 Y-52.326
X-40.038 Y-52.33
X-38.609 Y-52.667
X-38.591 Y-52.671
X-37.185 Y-53.02
X-37.168 Y-53.025
X-35.786 Y-53.384
X-35.768 Y-53.389
X-34.412 Y-53.759
X-34.394 Y-53.764
X-33.063 Y-54.143
X-33.045 Y-54.149
X-31.741 Y-54.538
X-31.723 Y-54.544
X-30.448 Y-54.941
X-30.428 Y-54.948
X-29.183 Y-55.354
X-29.163 Y-55.36
X-27.947 Y-55.774
X-27.927 Y-55.781
X-26.742 Y-56.203
X-26.722 Y-56.21
X-25.569 Y-56.639
X-25.547 Y-56.647
X-24.428 Y-57.081
X-24.406 Y-57.09
X-23.32 Y-57.53
X-23.297 Y-57.539
X-22.246 Y-57.984
X-22.222 Y-57.994
X-21.206 Y-58.444
X-21.182 Y-58.455
X-20.203 Y-58.909
X-20.177 Y-58.921
X-19.235 Y-59.378
X-19.208 Y-59.391
X-18.304 Y-59.851
X-18.276 Y-59.866
X-17.411 Y-60.328
X-17.382 Y-60.344
X-16.556 Y-60.808
X-16.525 Y-60.826
X-15.74 Y-61.291
X-15.707 Y-61.312
X-14.964 Y-61.777
X-14.928 Y-61.8
X-14.227 Y-62.266
X-14.189 Y-62.292
X-13.53 Y-62.757
X-13.49 Y-62.786
X-12.874 Y-63.25
X-12.831 Y-63.284
X-12.259 Y-63.747
X-12.213 Y-63.785
X-11.686 Y-64.246
X-11.637 Y-64.291
X-11.154 Y-64.749
X-11.102 Y-64.801
X-10.666 Y-65.256
X-10.61 Y-65.317
X-10.22 Y-65.769
X-10.162 Y-65.84
X-9.817 Y-66.288
X-9.757 Y-66.371
X-9.46 Y-66.815
X-9.399 Y-66.913
X-9.15 Y-67.352
X-9.105 Y-67.436
X-8.998 Y-67.653
X-8.969 Y-67.715
X-8.874 Y-67.931
X-8.847 Y-67.998
X-8.764 Y-68.213
X-8.738 Y-68.284
X-8.667 Y-68.497
X-8.644 Y-68.574
X-8.585 Y-68.785
X-8.565 Y-68.866
X-8.518 Y-69.076
X-8.502 Y-69.16
X-8.467 Y-69.369
X-8.455 Y-69.458
X-8.433 Y-69.665
X-8.425 Y-69.756
X-8.415 Y-69.961
X-8.413 Y-70.056
X-8.415 Y-70.259
X-8.419 Y-70.356
X-8.433 Y-70.558
X-8.443 Y-70.654
X-8.469 Y-70.854
X-8.485 Y-70.949
X-8.523 Y-71.147
X-8.545 Y-71.242
X-8.596 Y-71.439
X-8.622 Y-71.53
X-8.685 Y-71.725
X-8.717 Y-71.814
X-8.792 Y-72.006
X-8.828 Y-72.09
X-8.915 Y-72.28
X-8.954 Y-72.36
X-9.054 Y-72.548
X-9.096 Y-72.623
X-9.208 Y-72.81
X-9.252 Y-72.879
X-9.376 Y-73.064
X-9.421 Y-73.127
X-9.557 Y-73.31
X-9.603 Y-73.369
X-9.751 Y-73.549
X-9.797 Y-73.602
X-9.957 Y-73.781
X-10.003 Y-73.83
X-10.175 Y-74.006
X-10.243 Y-74.071
X-10.624 Y-74.417
X-10.709 Y-74.489
X-11.138 Y-74.827
X-11.218 Y-74.886
X-11.694 Y-75.214
X-11.768 Y-75.262
X-12.291 Y-75.582
X-12.359 Y-75.621
X-12.928 Y-75.932
X-12.99 Y-75.963
X-13.606 Y-76.265
X-13.662 Y-76.291
X-14.323 Y-76.583
X-14.374 Y-76.605
X-15.08 Y-76.888
X-15.126 Y-76.905
X-15.876 Y-77.179
X-15.919 Y-77.194
X-16.712 Y-77.458
X-16.751 Y-77.471
X-17.587 Y-77.726
X-17.623 Y-77.736
X-18.501 Y-77.982
X-18.533 Y-77.991
X-19.453 Y-78.227
X-19.482 Y-78.235
X-20.442 Y-78.462
X-20.47 Y-78.468
X-21.469 Y-78.687
X-21.494 Y-78.692
X-22.532 Y-78.902
X-22.555 Y-78.906
X-23.631 Y-79.107
X-23.653 Y-79.11
X-24.765 Y-79.302
X-24.785 Y-79.305
X-25.933 Y-79.488
X-25.952 Y-79.491
X-27.135 Y-79.665
X-27.152 Y-79.668
X-28.369 Y-79.833
X-28.385 Y-79.835
X-29.634 Y-79.992
X-29.649 Y-79.994
X-30.93 Y-80.143
X-30.944 Y-80.145
X-32.256 Y-80.285
X-32.269 Y-80.287
X-33.61 Y-80.42
X-33.623 Y-80.421
X-34.992 Y-80.546
X-35.009 Y-80.547
X-37.83 Y-80.774
X-37.85 Y-80.776
X-40.771 Y-80.974
X-40.788 Y-80.975
X-43.801 Y-81.145
X-43.816
X-46.911 Y-81.289
X-46.925 Y-81.29
X-50.092 Y-81.409
X-50.104 Y-81.41
X-53.335 Y-81.506
X-53.346
X-56.632 Y-81.581
X-56.642
X-59.974 Y-81.636
X-59.982
X-63.351 Y-81.673
X-63.359
X-66.757 Y-81.693
X-66.764
X-70.183 Y-81.698
X-70.189
X-73.621 Y-81.69
X-73.626
X-77.064 Y-81.669
X-77.071
X-83.936 Y-81.597
X-83.944
X-86.039 Y-81.564
S5000
X-90.752 Y-81.491 Z-1.665 F333.3
X-90.758
X-97.464 Y-81.362 Z-1.899
X-97.469 Y-81.361
X-104.032 Y-81.215 Z-2.128
X-104.036 Z-2.129
X-110.423 Y-81.06 Z-2.352
X-110.425
X-116.604 Y-80.901 Z-2.568
X-116.605
X-122.548 Y-80.743 Z-2.775
X-128.235 Y-80.593 Z-2.974
X-128.982 Y-80.573 Z-3
S8000
X-133.644 Y-80.452 F1000
X-138.762 Y-80.324
X-143.575 Y-80.213
X-148.073 Y-80.119
X-152.249 Y-80.045
X-156.097 Y-79.991
X-159.615 Y-79.959
X-162.803 Y-79.948
X-174.8
G2 X-176.387 Y-78.361 I0 J1.588
G1 Y-61.861
G2 X-174.8 Y-60.273 I1.587 J0
G1 X-162.807
X-162.068 Y-60.266
X-161.314 Y-60.246
X-160.536 Y-60.213
X-159.735 Y-60.167
X-158.912 Y-60.107
X-158.065 Y-60.034
X-157.195 Y-59.948
X-156.306 Y-59.85
X-154.449 Y-59.615
X-152.506 Y-59.331
X-150.475 Y-59.002
X-148.358 Y-58.63
X-146.154 Y-58.219
X-143.866 Y-57.772
X-141.496 Y-57.293
X-139.045 Y-56.787
X-133.908 Y-55.712
X-133.906 Y-55.711
X-128.48 Y-54.584
X-128.472 Y-54.583
X-125.657 Y-54.013
X-125.649 Y-54.011
X-122.769 Y-53.444
X-122.759 Y-53.442
X-119.818 Y-52.882
X-119.806 Y-52.88
X-116.806 Y-52.333
X-116.792 Y-52.33
X-113.737 Y-51.801
X-113.722 Y-51.799
X-110.616 Y-51.292
X-110.598 Y-51.289
X-107.443 Y-50.81
X-107.425 Y-50.808
X-104.226 Y-50.361
X-104.211 Y-50.359
X-102.597 Y-50.149
X-102.586 Y-50.148
X-100.961 Y-49.947
X-100.95 Y-49.946
X-99.318 Y-49.756
X-99.307 Y-49.755
X-97.666 Y-49.576
X-97.654 Y-49.574
X-96.005 Y-49.406
X-95.993 Y-49.405
X-94.337 Y-49.249
X-94.325 Y-49.248
X-92.662 Y-49.104
X-92.65 Y-49.103
X-90.981 Y-48.972
X-90.969 Y-48.971
X-89.295 Y-48.852
X-89.282 Y-48.851
X-87.603 Y-48.747
X-87.59 Y-48.746
X-85.908 Y-48.655
X-85.894 Y-48.654
X-84.209 Y-48.577
X-84.195
X-82.507 Y-48.514
X-82.493
X-80.803 Y-48.466
X-80.789
X-79.098 Y-48.433
X-79.084
X-77.393 Y-48.416
X-77.378
X-75.688 Y-48.414
X-75.673
X-73.984 Y-48.427
X-73.969 Y-48.428
X-72.282 Y-48.457
X-72.267
X-70.582 Y-48.503
X-70.567
X-68.887 Y-48.564
X-68.872 Y-48.565
X-67.196 Y-48.642
X-67.181 Y-48.643
X-65.511 Y-48.736
X-65.495 Y-48.737
X-63.831 Y-48.847
X-63.816 Y-48.848
X-62.159 Y-48.973
X-62.144 Y-48.974
X-60.496 Y-49.115
X-60.48 Y-49.116
X-58.841 Y-49.273
X-58.825 Y-49.275
X-57.197 Y-49.447
X-57.181 Y-49.448
X-55.563 Y-49.636
X-55.547 Y-49.638
X-53.942 Y-49.841
X-53.926 Y-49.843
X-52.334 Y-50.06
X-52.318 Y-50.063
X-50.739 Y-50.295
X-50.723 Y-50.297
X-49.16 Y-50.544
X-49.144 Y-50.547
X-47.597 Y-50.807
X-47.58 Y-50.81
X-46.05 Y-51.085
X-46.034 Y-51.088
X-44.522 Y-51.376
X-44.506 Y-51.379
X-43.013 Y-51.68
X-42.996 Y-51.683
X-41.524 Y-51.997
X-41.507 Y-52
X-40.055 Y-52.326
X-40.038 Y-52.33
X-38.609 Y-52.667
X-38.591 Y-52.671
X-37.185 Y-53.02
X-37.168 Y-53.025
X-35.786 Y-53.384
X-35.768 Y-53.389
X-34.412 Y-53.759
X-34.394 Y-53.764
X-33.063 Y-54.143
X-33.045 Y-54.149
X-31.741 Y-54.538
X-31.723 Y-54.544
X-30.448 Y-54.941
X-30.428 Y-54.948
X-29.183 Y-55.354
X-29.163 Y-55.36
X-27.947 Y-55.774
X-27.927 Y-55.781
X-26.742 Y-56.203
X-26.722 Y-56.21
X-25.569 Y-56.639
X-25.547 Y-56.647
X-24.428 Y-57.081
X-24.406 Y-57.09
X-23.32 Y-57.53
X-23.297 Y-57.539
X-22.246 Y-57.984
X-22.222 Y-57.994
X-21.206 Y-58.444
X-21.182 Y-58.455
X-20.203 Y-58.909
X-20.177 Y-58.921
X-19.235 Y-59.378
X-19.208 Y-59.391
X-18.304 Y-59.851
X-18.276 Y-59.866
X-17.411 Y-60.328
X-17.382 Y-60.344
X-16.556 Y-60.808
X-16.525 Y-60.826
X-15.74 Y-61.291
X-15.707 Y-61.312
X-14.964 Y-61.777
X-14.928 Y-61.8
X-14.227 Y-62.266
X-14.189 Y-62.292
X-13.53 Y-62.757
X-13.49 Y-62.786
X-12.874 Y-63.25
X-12.831 Y-63.284
X-12.259 Y-63.747
X-12.213 Y-63.785
X-11.686 Y-64.246
X-11.637 Y-64.291
X-11.154 Y-64.749
X-11.102 Y-64.801
X-10.666 Y-65.256
X-10.61 Y-65.317
X-10.22 Y-65.769
X-10.162 Y-65.84
X-9.817 Y-66.288
X-9.757 Y-66.371
X-9.46 Y-66.815
X-9.399 Y-66.913
X-9.15 Y-67.352
X-9.105 Y-67.436
X-8.998 Y-67.653
X-8.969 Y-67.715
X-8.874 Y-67.931
X-8.847 Y-67.998
X-8.764 Y-68.213
X-8.738 Y-68.284
X-8.667 Y-68.497
X-8.644 Y-68.574
X-8.585 Y-68.785
X-8.565 Y-68.866
X-8.518 Y-69.076
X-8.502 Y-69.16
X-8.467 Y-69.369
X-8.455 Y-69.458
X-8.433 Y-69.665
X-8.425 Y-69.756
X-8.415 Y-69.961
X-8.413 Y-70.056
X-8.415 Y-70.259
X-8.419 Y-70.356
X-8.433 Y-70.558
X-8.443 Y-70.654
X-8.469 Y-70.854
X-8.485 Y-70.949
X-8.523 Y-71.147
X-8.545 Y-71.242
X-8.596 Y-71.439
X-8.622 Y-71.53
X-8.685 Y-71.725
X-8.717 Y-71.814
X-8.792 Y-72.006
X-8.828 Y-72.09
X-8.915 Y-72.28
X-8.954 Y-72.36
X-9.054 Y-72.548
X-9.096 Y-72.623
X-9.208 Y-72.81
X-9.252 Y-72.879
X-9.376 Y-73.064
X-9.421 Y-73.127
X-9.557 Y-73.31
X-9.603 Y-73.369
X-9.751 Y-73.549
X-9.797 Y-73.602
X-9.957 Y-73.781
X-10.003 Y-73.83
X-10.175 Y-74.006
X-10.243 Y-74.071
X-10.624 Y-74.417
X-10.709 Y-74.489
X-11.138 Y-74.827
X-11.218 Y-74.886
X-11.694 Y-75.214
X-11.768 Y-75.262
X-12.291 Y-75.582
X-12.359 Y-75.621
X-12.928 Y-75.932
X-12.99 Y-75.963
X-13.606 Y-76.265
X-13.662 Y-76.291
X-14.323 Y-76.583
X-14.374 Y-76.605
X-15.08 Y-76.888
X-15.126 Y-76.905
X-15.876 Y-77.179
X-15.919 Y-77.194
X-16.712 Y-77.458
X-16.751 Y-77.471
X-17.587 Y-77.726
X-17.623 Y-77.736
X-18.501 Y-77.982
X-18.533 Y-77.991
X-19.453 Y-78.227
X-19.482 Y-78.235
X-20.442 Y-78.462
X-20.47 Y-78.468
X-21.469 Y-78.687
X-21.494 Y-78.692
X-22.532 Y-78.902
X-22.555 Y-78.906
X-23.631 Y-79.107
X-23.653 Y-79.11
X-24.765 Y-79.302
X-24.785 Y-79.305
X-25.933 Y-79.488
X-25.952 Y-79.491
X-27.135 Y-79.665
X-27.152 Y-79.668
X-28.369 Y-79.833
X-28.385 Y-79.835
X-29.634 Y-79.992
X-29.649 Y-79.994
X-30.93 Y-80.143
X-30.944 Y-80.145
X-32.256 Y-80.285
X-32.269 Y-80.287
X-33.61 Y-80.42
X-33.623 Y-80.421
X-34.992 Y-80.546
X-35.009 Y-80.547
X-37.83 Y-80.774
X-37.85 Y-80.776
X-40.771 Y-80.974
X-40.788 Y-80.975
X-43.801 Y-81.145
X-43.816
X-46.911 Y-81.289
X-46.925 Y-81.29
X-50.092 Y-81.409
X-50.104 Y-81.41
X-53.335 Y-81.506
X-53.346
X-56.632 Y-81.581
X-56.642
X-59.974 Y-81.636
X-59.982
X-63.351 Y-81.673
X-63.359
X-66.757 Y-81.693
X-66.764
X-70.183 Y-81.698
X-70.189
X-73.621 Y-81.69
X-73.626
X-77.064 Y-81.669
X-77.071
X-83.936 Y-81.597
X-83.944
X-90.752 Y-81.491
X-90.758
X-97.464 Y-81.362
X-97.469 Y-81.361
X-104.032 Y-81.215
X-104.036
X-110.423 Y-81.06
X-110.425
X-116.604 Y-80.901
X-116.605
X-122.548 Y-80.743
X-128.235 Y-80.593
X-128.982 Y-80.573
S5000
X-133.644 Y-80.452 Z-3.163 F333.3
X-138.762 Y-80.324 Z-3.342
X-143.575 Y-80.213 Z-3.51
X-148.073 Y-80.119 Z-3.667
X-152.249 Y-80.045 Z-3.813
X-156.097 Y-79.991 Z-3.947
X-159.615 Y-79.959 Z-4.07
X-162.803 Y-79.948 Z-4.181
X-163.339 Z-4.2
S8000
X-174.8 F1000
G2 X-176.387 Y-78.361 I0 J1.588
G1 Y-61.861
G2 X-174.8 Y-60.273 I1.587 J0
G1 X-162.807
X-162.068 Y-60.266
X-161.314 Y-60.246
X-160.536 Y-60.213
X-159.735 Y-60.167
X-158.912 Y-60.107
X-158.065 Y-60.034
X-157.195 Y-59.948
X-156.306 Y-59.85
X-154.449 Y-59.615
X-152.506 Y-59.331
X-150.475 Y-59.002
X-148.358 Y-58.63
X-146.154 Y-58.219
X-143.866 Y-57.772
X-141.496 Y-57.293
X-139.045 Y-56.787
X-133.908 Y-55.712
X-133.906 Y-55.711
X-133.862 Y-55.702
Z-3.6
X-128.48 Y-54.584
X-128.472 Y-54.583
X-125.855 Y-54.053
Z-4.2 F333.3
X-125.657 Y-54.013 F1000
X-125.649 Y-54.011
X-122.769 Y-53.444
X-122.759 Y-53.442
X-119.818 Y-52.882
X-119.806 Y-52.88
X-116.806 Y-52.333
X-116.792 Y-52.33
X-113.737 Y-51.801
X-113.722 Y-51.799
X-110.616 Y-51.292
X-110.598 Y-51.289
X-107.443 Y-50.81
X-107.425 Y-50.808
X-104.226 Y-50.361
X-104.211 Y-50.359
X-102.597 Y-50.149
X-102.586 Y-50.148
X-100.961 Y-49.947
X-100.95 Y-49.946
X-99.318 Y-49.756
X-99.307 Y-49.755
X-97.666 Y-49.576
X-97.654 Y-49.574
X-96.005 Y-49.406
X-95.993 Y-49.405
X-94.337 Y-49.249
X-94.325 Y-49.248
X-92.662 Y-49.104
X-92.65 Y-49.103
X-90.981 Y-48.972
X-90.969 Y-48.971
X-89.295 Y-48.852
X-89.282 Y-48.851
X-87.603 Y-48.747
X-87.59 Y-48.746
X-85.908 Y-48.655
X-85.894 Y-48.654
X-84.209 Y-48.577
X-84.195
X-82.507 Y-48.514
X-82.493
X-80.803 Y-48.466
X-80.789
X-79.098 Y-48.433
X-79.084
X-77.393 Y-48.416
X-77.378
X-75.688 Y-48.414
X-75.673
X-73.984 Y-48.427
X-73.969 Y-48.428
X-72.282 Y-48.457
X-72.267
X-70.582 Y-48.503
X-70.567
X-68.887 Y-48.564
X-68.872 Y-48.565
X-67.196 Y-48.642
X-67.181 Y-48.643
X-65.511 Y-48.736
X-65.495 Y-48.737
X-63.831 Y-48.847
X-63.816 Y-48.848
X-62.159 Y-48.973
X-62.144 Y-48.974
X-60.496 Y-49.115
X-60.48 Y-49.116
X-58.841 Y-49.273
X-58.825 Y-49.275
X-57.197 Y-49.447
X-57.181 Y-49.448
X-55.563 Y-49.636
X-55.547 Y-49.638
X-53.942 Y-49.841
X-53.926 Y-49.843
X-52.334 Y-50.06
X-52.318 Y-50.063
X-50.739 Y-50.295
X-50.723 Y-50.297
X-49.16 Y-50.544
X-49.144 Y-50.547
X-47.597 Y-50.807
X-47.58 Y-50.81
X-46.05 Y-51.085
X-46.034 Y-51.088
X-44.522 Y-51.376
X-44.506 Y-51.379
X-43.013 Y-51.68
X-42.996 Y-51.683
X-41.524 Y-51.997
X-41.507 Y-52
X-40.055 Y-52.326
X-40.038 Y-52.33
X-38.609 Y-52.667
X-38.591 Y-52.671
X-37.185 Y-53.02
X-37.168 Y-53.025
X-35.786 Y-53.384
X-35.768 Y-53.389
X-35.663 Y-53.418
Z-3.6
X-34.412 Y-53.759
X-34.394 Y-53.764
X-33.063 Y-54.143
X-33.045 Y-54.149
X-31.741 Y-54.538
X-31.723 Y-54.544
X-30.448 Y-54.941
X-30.428 Y-54.948
X-29.183 Y-55.354
X-29.163 Y-55.36
X-27.947 Y-55.774
X-27.927 Y-55.781
X-27.846 Y-55.81
Z-4.2 F333.3
X-26.742 Y-56.203 F1000
X-26.722 Y-56.21
X-25.569 Y-56.639
X-25.547 Y-56.647
X-24.428 Y-57.081
X-24.406 Y-57.09
X-23.32 Y-57.53
X-23.297 Y-57.539
X-22.246 Y-57.984
X-22.222 Y-57.994
X-21.206 Y-58.444
X-21.182 Y-58.455
X-20.203 Y-58.909
X-20.177 Y-58.921
X-19.235 Y-59.378
X-19.208 Y-59.391
X-18.304 Y-59.851
X-18.276 Y-59.866
X-17.411 Y-60.328
X-17.382 Y-60.344
X-16.556 Y-60.808
X-16.525 Y-60.826
X-15.74 Y-61.291
X-15.707 Y-61.312
X-14.964 Y-61.777
X-14.928 Y-61.8
X-14.227 Y-62.266
X-14.189 Y-62.292
X-13.53 Y-62.757
X-13.49 Y-62.786
X-12.874 Y-63.25
X-12.831 Y-63.284
X-12.259 Y-63.747
X-12.213 Y-63.785
X-11.686 Y-64.246
X-11.637 Y-64.291
X-11.154 Y-64.749
X-11.102 Y-64.801
X-10.666 Y-65.256
X-10.61 Y-65.317
X-10.22 Y-65.769
X-10.162 Y-65.84
X-9.817 Y-66.288
X-9.757 Y-66.371
X-9.46 Y-66.815
X-9.399 Y-66.913
X-9.15 Y-67.352
X-9.105 Y-67.436
X-8.998 Y-67.653
X-8.969 Y-67.715
X-8.874 Y-67.931
X-8.847 Y-67.998
X-8.764 Y-68.213
X-8.738 Y-68.284
X-8.667 Y-68.497
X-8.644 Y-68.574
X-8.585 Y-68.785
X-8.565 Y-68.866
X-8.518 Y-69.076
X-8.502 Y-69.16
X-8.467 Y-69.369
X-8.455 Y-69.458
X-8.433 Y-69.665
X-8.425 Y-69.756
X-8.415 Y-69.961
X-8.413 Y-70.056
X-8.415 Y-70.259
X-8.419 Y-70.356
X-8.433 Y-70.558
X-8.443 Y-70.654
X-8.469 Y-70.854
X-8.485 Y-70.949
X-8.523 Y-71.147
X-8.545 Y-71.242
X-8.596 Y-71.439
X-8.622 Y-71.53
X-8.685 Y-71.725
X-8.717 Y-71.814
X-8.792 Y-72.006
X-8.828 Y-72.09
X-8.915 Y-72.28
X-8.954 Y-72.36
X-9.054 Y-72.548
X-9.096 Y-72.623
X-9.208 Y-72.81
X-9.252 Y-72.879
X-9.376 Y-73.064
X-9.421 Y-73.127
X-9.557 Y-73.31
X-9.603 Y-73.369
X-9.751 Y-73.549
X-9.797 Y-73.602
X-9.957 Y-73.781
X-10.003 Y-73.83
X-10.175 Y-74.006
X-10.243 Y-74.071
X-10.624 Y-74.417
X-10.709 Y-74.489
X-11.138 Y-74.827
X-11.218 Y-74.886
X-11.694 Y-75.214
X-11.768 Y-75.262
X-12.291 Y-75.582
X-12.359 Y-75.621
X-12.928 Y-75.932
X-12.99 Y-75.963
X-13.606 Y-76.265
X-13.662 Y-76.291
X-14.323 Y-76.583
X-14.374 Y-76.605
X-15.08 Y-76.888
X-15.126 Y-76.905
X-15.876 Y-77.179
X-15.919 Y-77.194
X-16.712 Y-77.458
X-16.751 Y-77.471
X-17.587 Y-77.726
X-17.623 Y-77.736
X-18.501 Y-77.982
X-18.533 Y-77.991
X-19.453 Y-78.227
X-19.482 Y-78.235
X-20.442 Y-78.462
X-20.47 Y-78.468
X-21.469 Y-78.687
X-21.494 Y-78.692
X-22.532 Y-78.902
X-22.555 Y-78.906
X-23.631 Y-79.107
X-23.653 Y-79.11
X-24.765 Y-79.302
X-24.785 Y-79.305
X-25.933 Y-79.488
X-25.952 Y-79.491
X-26.882 Y-79.628
Z-3.6
X-27.135 Y-79.665
X-27.152 Y-79.668
X-28.369 Y-79.833
X-28.385 Y-79.835
X-29.634 Y-79.992
X-29.649 Y-79.994
X-30.93 Y-80.143
X-30.944 Y-80.145
X-32.256 Y-80.285
X-32.269 Y-80.287
X-33.61 Y-80.42
X-33.623 Y-80.421
X-34.992 Y-80.546
X-35.005 Y-80.547
Z-4.2 F333.3
X-35.009 F1000
X-37.83 Y-80.774
X-37.85 Y-80.776
X-40.771 Y-80.974
X-40.788 Y-80.975
X-43.801 Y-81.145
X-43.816
X-46.911 Y-81.289
X-46.925 Y-81.29
X-50.092 Y-81.409
X-50.104 Y-81.41
X-53.335 Y-81.506
X-53.346
X-56.632 Y-81.581
X-56.642
X-59.974 Y-81.636
X-59.982
X-63.351 Y-81.673
X-63.359
X-66.757 Y-81.693
X-66.764
X-70.183 Y-81.698
X-70.189
X-73.621 Y-81.69
X-73.626
X-77.064 Y-81.669
X-77.071
X-83.936 Y-81.597
X-83.944
X-90.752 Y-81.491
X-90.758
X-97.464 Y-81.362
X-97.469 Y-81.361
X-104.032 Y-81.215
X-104.036
X-110.423 Y-81.06
X-110.425
X-116.604 Y-80.901
X-116.605
X-122.548 Y-80.743
X-125.529 Y-80.664
Z-3.6
X-128.235 Y-80.593
X-133.644 Y-80.452
X-133.701 Y-80.45
Z-4.2 F333.3
X-138.762 Y-80.324 F1000
X-143.575 Y-80.213
X-148.073 Y-80.119
X-152.249 Y-80.045
X-156.097 Y-79.991
X-159.615 Y-79.959
X-162.803 Y-79.948
X-163.339
G3 X-163.656 Y-80.266 I0 J-0.317
G1 Y-80.583
G19 G2 Y-80.901 Z-3.882 J0 K0.317
G0 Z15
G17

(2D-Kontur6)
G0 X-205.35 Y-52.515
Z15
Z5
G1 Z2.818 F333.3
X-205.353 Y-52.523 Z2.747 F1000
X-205.359 Y-52.546 Z2.68
X-205.369 Y-52.582 Z2.62
X-205.382 Y-52.631 Z2.569
X-205.398 Y-52.689 Z2.531
X-205.415 Y-52.754 Z2.508
X-205.434 Y-52.822 Z2.5
X-205.517 Y-53.128
G3 X-205.295 Y-53.518 I0.306 J-0.084
S5000
G1 X-204.412 Y-53.759 Z2.468 F333.3
X-204.394 Y-53.764 Z2.467
X-203.063 Y-54.143 Z2.419
X-203.045 Y-54.149 Z2.418
X-201.741 Y-54.538 Z2.371
X-201.723 Y-54.544 Z2.37
X-200.448 Y-54.941 Z2.324
X-200.428 Y-54.948 Z2.323
X-199.183 Y-55.354 Z2.277
X-199.163 Y-55.36 Z2.276
X-197.947 Y-55.774 Z2.232
X-197.927 Y-55.781 Z2.231
X-196.742 Y-56.203 Z2.187
X-196.722 Y-56.21 Z2.186
X-195.569 Y-56.639 Z2.143
X-195.547 Y-56.647 Z2.142
X-194.428 Y-57.081 Z2.1
X-194.406 Y-57.09
X-193.32 Y-57.53 Z2.059
X-193.297 Y-57.539 Z2.058
X-192.246 Y-57.984 Z2.018
X-192.222 Y-57.994 Z2.017
X-191.206 Y-58.444 Z1.978
X-191.182 Y-58.455 Z1.977
X-190.203 Y-58.909 Z1.94
X-190.177 Y-58.921 Z1.939
X-189.235 Y-59.378 Z1.902
X-189.208 Y-59.391 Z1.901
X-188.304 Y-59.851 Z1.866
X-188.276 Y-59.866 Z1.865
X-187.411 Y-60.328 Z1.83
X-187.382 Y-60.344 Z1.829
X-186.556 Y-60.808 Z1.796
X-186.525 Y-60.826 Z1.795
X-185.74 Y-61.291 Z1.763
X-185.707 Y-61.312 Z1.762
X-184.964 Y-61.777 Z1.731
X-184.928 Y-61.8 Z1.729
X-184.227 Y-62.266 Z1.7
X-184.189 Y-62.292 Z1.698
X-183.53 Y-62.757 Z1.67
X-183.49 Y-62.786 Z1.669
X-182.874 Y-63.25 Z1.642
X-182.831 Y-63.284 Z1.64
X-182.259 Y-63.747 Z1.614
X-182.213 Y-63.785 Z1.612
X-181.686 Y-64.246 Z1.587
X-181.637 Y-64.291 Z1.585
X-181.154 Y-64.749 Z1.562
X-181.102 Y-64.801 Z1.559
X-180.666 Y-65.256 Z1.537
X-180.61 Y-65.317 Z1.534
X-180.22 Y-65.769 Z1.514
X-180.162 Y-65.84 Z1.51
X-179.817 Y-66.288 Z1.491
X-179.757 Y-66.371 Z1.487
X-179.46 Y-66.815 Z1.468
X-179.399 Y-66.913 Z1.464
X-179.15 Y-67.352 Z1.447
X-179.105 Y-67.436 Z1.443
X-178.998 Y-67.653 Z1.435
X-178.969 Y-67.715 Z1.433
X-178.874 Y-67.931 Z1.424
X-178.847 Y-67.998 Z1.422
X-178.764 Y-68.213 Z1.414
X-178.738 Y-68.284 Z1.411
X-178.667 Y-68.497 Z1.403
X-178.644 Y-68.574 Z1.401
X-178.585 Y-68.785 Z1.393
X-178.565 Y-68.866 Z1.39
X-178.518 Y-69.076 Z1.382
X-178.502 Y-69.16 Z1.379
X-178.467 Y-69.369 Z1.372
X-178.455 Y-69.458 Z1.369
X-178.433 Y-69.665 Z1.362
X-178.425 Y-69.756 Z1.358
X-178.415 Y-69.961 Z1.351
X-178.413 Y-70.056 Z1.348
X-178.415 Y-70.259 Z1.341
X-178.419 Y-70.356 Z1.337
X-178.433 Y-70.558 Z1.33
X-178.443 Y-70.654 Z1.327
X-178.469 Y-70.854 Z1.32
X-178.485 Y-70.949 Z1.317
X-178.523 Y-71.147 Z1.31
X-178.545 Y-71.242 Z1.306
X-178.596 Y-71.439 Z1.299
X-178.622 Y-71.53 Z1.296
X-178.685 Y-71.725 Z1.289
X-178.717 Y-71.814 Z1.285
X-178.792 Y-72.006 Z1.278
X-178.828 Y-72.09 Z1.275
X-178.915 Y-72.28 Z1.268
X-178.954 Y-72.36 Z1.265
X-179.054 Y-72.548 Z1.257
X-179.096 Y-72.623 Z1.254
X-179.208 Y-72.81 Z1.246
X-179.252 Y-72.879 Z1.244
X-179.376 Y-73.064 Z1.236
X-179.421 Y-73.127 Z1.233
X-179.557 Y-73.31 Z1.225
X-179.603 Y-73.369 Z1.223
X-179.751 Y-73.549 Z1.214
X-179.797 Y-73.602 Z1.212
X-179.957 Y-73.781 Z1.204
X-180.003 Y-73.83 Z1.201
X-180.175 Y-74.006 Z1.193
X-180.243 Y-74.071 Z1.189
X-180.624 Y-74.417 Z1.171
X-180.709 Y-74.489 Z1.167
X-181.138 Y-74.827 Z1.148
X-181.218 Y-74.886 Z1.145
X-181.694 Y-75.214 Z1.125
X-181.768 Y-75.262 Z1.122
X-182.291 Y-75.582 Z1.1
X-182.359 Y-75.621 Z1.098
X-182.928 Y-75.932 Z1.075
X-182.99 Y-75.963 Z1.072
X-183.606 Y-76.265 Z1.049
X-183.662 Y-76.291 Z1.046
X-184.323 Y-76.583 Z1.021
X-184.374 Y-76.605 Z1.019
X-185.08 Y-76.888 Z0.993
X-185.126 Y-76.905 Z0.991
X-185.876 Y-77.179 Z0.963
X-185.919 Y-77.194 Z0.961
X-186.712 Y-77.458 Z0.932
X-186.751 Y-77.471 Z0.931
X-187.587 Y-77.726 Z0.9
X-187.623 Y-77.736 Z0.899
X-188.501 Y-77.982 Z0.867
X-188.533 Y-77.991 Z0.866
X-189.453 Y-78.227 Z0.833
X-189.482 Y-78.235 Z0.832
X-190.442 Y-78.462 Z0.797
X-190.47 Y-78.468 Z0.796
X-191.469 Y-78.687 Z0.761
X-191.494 Y-78.692 Z0.76
X-192.532 Y-78.902 Z0.723
X-192.555 Y-78.906 Z0.722
X-193.631 Y-79.107 Z0.684
X-193.653 Y-79.11 Z0.683
X-194.765 Y-79.302 Z0.644
X-194.785 Y-79.305 Z0.643
X-195.933 Y-79.488 Z0.602
X-195.952 Y-79.491
X-197.135 Y-79.665 Z0.56
X-197.152 Y-79.668 Z0.559
X-198.369 Y-79.833 Z0.516
X-198.385 Y-79.835
X-199.634 Y-79.992 Z0.472
X-199.649 Y-79.994 Z0.471
X-200.93 Y-80.143 Z0.426
X-200.944 Y-80.145
X-202.256 Y-80.285 Z0.38
X-202.269 Y-80.287 Z0.379
X-203.61 Y-80.42 Z0.332
X-203.623 Y-80.421
X-204.992 Y-80.546 Z0.284
X-205.009 Y-80.547 Z0.283
X-207.83 Y-80.774 Z0.184
X-207.85 Y-80.776
X-210.771 Y-80.974 Z0.081
X-210.788 Y-80.975
X-213.801 Y-81.145 Z-0.025
X-213.816
X-216.911 Y-81.289 Z-0.133
X-216.925 Y-81.29 Z-0.134
X-220.092 Y-81.409 Z-0.245
X-220.104 Y-81.41
X-223.335 Y-81.506 Z-0.358
X-223.346
X-226.632 Y-81.581 Z-0.473
X-226.642
X-229.974 Y-81.636 Z-0.59
X-229.982
X-233.351 Y-81.673 Z-0.708
X-233.359
X-236.757 Y-81.693 Z-0.827
X-236.764
X-240.183 Y-81.698 Z-0.946
X-240.189
X-243.621 Y-81.69 Z-1.066
X-243.626 Z-1.067
X-247.064 Y-81.669 Z-1.187
X-247.071
X-253.936 Y-81.597 Z-1.427
X-253.944
X-256.039 Y-81.564 Z-1.5
S8000
X-260.752 Y-81.491 F1000
X-260.758
X-267.464 Y-81.362
X-267.469 Y-81.361
X-274.032 Y-81.215
X-274.036
X-280.423 Y-81.06
X-280.425
X-286.604 Y-80.901
X-286.605
X-292.548 Y-80.743
X-298.235 Y-80.593
X-303.644 Y-80.452
X-308.762 Y-80.324
X-313.575 Y-80.213
X-318.073 Y-80.119
X-322.249 Y-80.045
X-326.097 Y-79.991
X-329.615 Y-79.959
X-332.803 Y-79.948
X-344.8
G2 X-346.387 Y-78.361 I0 J1.588
G1 Y-61.861
G2 X-344.8 Y-60.273 I1.587 J0
G1 X-332.807
X-332.068 Y-60.266
X-331.314 Y-60.246
X-330.536 Y-60.213
X-329.735 Y-60.167
X-328.912 Y-60.107
X-328.065 Y-60.034
X-327.195 Y-59.948
X-326.306 Y-59.85
X-324.449 Y-59.615
X-322.506 Y-59.331
X-320.475 Y-59.002
X-318.358 Y-58.63
X-316.154 Y-58.219
X-313.866 Y-57.772
X-311.496 Y-57.293
X-309.045 Y-56.787
X-303.908 Y-55.712
X-303.906 Y-55.711
X-298.48 Y-54.584
X-298.472 Y-54.583
X-295.657 Y-54.013
X-295.649 Y-54.011
X-292.769 Y-53.444
X-292.759 Y-53.442
X-289.818 Y-52.882
X-289.806 Y-52.88
X-286.806 Y-52.333
X-286.792 Y-52.33
X-283.737 Y-51.801
X-283.722 Y-51.799
X-280.616 Y-51.292
X-280.598 Y-51.289
X-277.443 Y-50.81
X-277.425 Y-50.808
X-274.226 Y-50.361
X-274.211 Y-50.359
X-272.597 Y-50.149
X-272.586 Y-50.148
X-270.961 Y-49.947
X-270.95 Y-49.946
X-269.318 Y-49.756
X-269.307 Y-49.755
X-267.666 Y-49.576
X-267.654 Y-49.574
X-266.005 Y-49.406
X-265.993 Y-49.405
X-264.337 Y-49.249
X-264.325 Y-49.248
X-262.662 Y-49.104
X-262.65 Y-49.103
X-260.981 Y-48.972
X-260.969 Y-48.971
X-259.295 Y-48.852
X-259.282 Y-48.851
X-257.603 Y-48.747
X-257.59 Y-48.746
X-255.908 Y-48.655
X-255.894 Y-48.654
X-254.209 Y-48.577
X-254.195
X-252.507 Y-48.514
X-252.493
X-250.803 Y-48.466
X-250.789
X-249.098 Y-48.433
X-249.084
X-247.393 Y-48.416
X-247.378
X-245.688 Y-48.414
X-245.673
X-243.984 Y-48.427
X-243.969 Y-48.428
X-242.282 Y-48.457
X-242.267
X-240.582 Y-48.503
X-240.567
X-238.887 Y-48.564
X-238.872 Y-48.565
X-237.196 Y-48.642
X-237.181 Y-48.643
X-235.511 Y-48.736
X-235.495 Y-48.737
X-233.831 Y-48.847
X-233.816 Y-48.848
X-232.159 Y-48.973
X-232.144 Y-48.974
X-230.496 Y-49.115
X-230.48 Y-49.116
X-228.841 Y-49.273
X-228.825 Y-49.275
X-227.197 Y-49.447
X-227.181 Y-49.448
X-225.563 Y-49.636
X-225.547 Y-49.638
X-223.942 Y-49.841
X-223.926 Y-49.843
X-222.334 Y-50.06
X-222.318 Y-50.063
X-220.739 Y-50.295
X-220.723 Y-50.297
X-219.16 Y-50.544
X-219.144 Y-50.547
X-217.597 Y-50.807
X-217.58 Y-50.81
X-216.05 Y-51.085
X-216.034 Y-51.088
X-214.522 Y-51.376
X-214.506 Y-51.379
X-213.013 Y-51.68
X-212.996 Y-51.683
X-211.524 Y-51.997
X-211.507 Y-52
X-210.055 Y-52.326
X-210.038 Y-52.33
X-208.609 Y-52.667
X-208.591 Y-52.671
X-207.185 Y-53.02
X-207.168 Y-53.025
X-205.786 Y-53.384
X-205.768 Y-53.389
X-204.412 Y-53.759
X-204.394 Y-53.764
X-203.063 Y-54.143
X-203.045 Y-54.149
X-201.741 Y-54.538
X-201.723 Y-54.544
X-200.448 Y-54.941
X-200.428 Y-54.948
X-199.183 Y-55.354
X-199.163 Y-55.36
X-197.947 Y-55.774
X-197.927 Y-55.781
X-196.742 Y-56.203
X-196.722 Y-56.21
X-195.569 Y-56.639
X-195.547 Y-56.647
X-194.428 Y-57.081
X-194.406 Y-57.09
X-193.32 Y-57.53
X-193.297 Y-57.539
X-192.246 Y-57.984
X-192.222 Y-57.994
X-191.206 Y-58.444
X-191.182 Y-58.455
X-190.203 Y-58.909
X-190.177 Y-58.921
X-189.235 Y-59.378
X-189.208 Y-59.391
X-188.304 Y-59.851
X-188.276 Y-59.866
X-187.411 Y-60.328
X-187.382 Y-60.344
X-186.556 Y-60.808
X-186.525 Y-60.826
X-185.74 Y-61.291
X-185.707 Y-61.312
X-184.964 Y-61.777
X-184.928 Y-61.8
X-184.227 Y-62.266
X-184.189 Y-62.292
X-183.53 Y-62.757
X-183.49 Y-62.786
X-182.874 Y-63.25
X-182.831 Y-63.284
X-182.259 Y-63.747
X-182.213 Y-63.785
X-181.686 Y-64.246
X-181.637 Y-64.291
X-181.154 Y-64.749
X-181.102 Y-64.801
X-180.666 Y-65.256
X-180.61 Y-65.317
X-180.22 Y-65.769
X-180.162 Y-65.84
X-179.817 Y-66.288
X-179.757 Y-66.371
X-179.46 Y-66.815
X-179.399 Y-66.913
X-179.15 Y-67.352
X-179.105 Y-67.436
X-178.998 Y-67.653
X-178.969 Y-67.715
X-178.874 Y-67.931
X-178.847 Y-67.998
X-178.764 Y-68.213
X-178.738 Y-68.284
X-178.667 Y-68.497
X-178.644 Y-68.574
X-178.585 Y-68.785
X-178.565 Y-68.866
X-178.518 Y-69.076
X-178.502 Y-69.16
X-178.467 Y-69.369
X-178.455 Y-69.458
X-178.433 Y-69.665
X-178.425 Y-69.756
X-178.415 Y-69.961
X-178.413 Y-70.056
X-178.415 Y-70.259
X-178.419 Y-70.356
X-178.433 Y-70.558
X-178.443 Y-70.654
X-178.469 Y-70.854
X-178.485 Y-70.949
X-178.523 Y-71.147
X-178.545 Y-71.242
X-178.596 Y-71.439
X-178.622 Y-71.53
X-178.685 Y-71.725
X-178.717 Y-71.814
X-178.792 Y-72.006
X-178.828 Y-72.09
X-178.915 Y-72.28
X-178.954 Y-72.36
X-179.054 Y-72.548
X-179.096 Y-72.623
X-179.208 Y-72.81
X-179.252 Y-72.879
X-179.376 Y-73.064
X-179.421 Y-73.127
X-179.557 Y-73.31
X-179.603 Y-73.369
X-179.751 Y-73.549
X-179.797 Y-73.602
X-179.957 Y-73.781
X-180.003 Y-73.83
X-180.175 Y-74.006
X-180.243 Y-74.071
X-180.624 Y-74.417
X-180.709 Y-74.489
X-181.138 Y-74.827
X-181.218 Y-74.886
X-181.694 Y-75.214
X-181.768 Y-75.262
X-182.291 Y-75.582
X-182.359 Y-75.621
X-182.928 Y-75.932
X-182.99 Y-75.963
X-183.606 Y-76.265
X-183.662 Y-76.291
X-184.323 Y-76.583
X-184.374 Y-76.605
X-185.08 Y-76.888
X-185.126 Y-76.905
X-185.876 Y-77.179
X-185.919 Y-77.194
X-186.712 Y-77.458
X-186.751 Y-77.471
X-187.587 Y-77.726
X-187.623 Y-77.736
X-188.501 Y-77.982
X-188.533 Y-77.991
X-189.453 Y-78.227
X-189.482 Y-78.235
X-190.442 Y-78.462
X-190.47 Y-78.468
X-191.469 Y-78.687
X-191.494 Y-78.692
X-192.532 Y-78.902
X-192.555 Y-78.906
X-193.631 Y-79.107
X-193.653 Y-79.11
X-194.765 Y-79.302
X-194.785 Y-79.305
X-195.933 Y-79.488
X-195.952 Y-79.491
X-197.135 Y-79.665
X-197.152 Y-79.668
X-198.369 Y-79.833
X-198.385 Y-79.835
X-199.634 Y-79.992
X-199.649 Y-79.994
X-200.93 Y-80.143
X-200.944 Y-80.145
X-202.256 Y-80.285
X-202.269 Y-80.287
X-203.61 Y-80.42
X-203.623 Y-80.421
X-204.992 Y-80.546
X-205.009 Y-80.547
X-207.83 Y-80.774
X-207.85 Y-80.776
X-210.771 Y-80.974
X-210.788 Y-80.975
X-213.801 Y-81.145
X-213.816
X-216.911 Y-81.289
X-216.925 Y-81.29
X-220.092 Y-81.409
X-220.104 Y-81.41
X-223.335 Y-81.506
X-223.346
X-226.632 Y-81.581
X-226.642
X-229.974 Y-81.636
X-229.982
X-233.351 Y-81.673
X-233.359
X-236.757 Y-81.693
X-236.764
X-240.183 Y-81.698
X-240.189
X-243.621 Y-81.69
X-243.626
X-247.064 Y-81.669
X-247.071
X-253.936 Y-81.597
X-253.944
X-256.039 Y-81.564
S5000
X-260.752 Y-81.491 Z-1.665 F333.3
X-260.758
X-267.464 Y-81.362 Z-1.899
X-267.469 Y-81.361
X-274.032 Y-81.215 Z-2.128
X-274.036 Z-2.129
X-280.423 Y-81.06 Z-2.352
X-280.425
X-286.604 Y-80.901 Z-2.568
X-286.605
X-292.548 Y-80.743 Z-2.775
X-298.235 Y-80.593 Z-2.974
X-298.982 Y-80.573 Z-3
S8000
X-303.644 Y-80.452 F1000
X-308.762 Y-80.324
X-313.575 Y-80.213
X-318.073 Y-80.119
X-322.249 Y-80.045
X-326.097 Y-79.991
X-329.615 Y-79.959
X-332.803 Y-79.948
X-344.8
G2 X-346.387 Y-78.361 I0 J1.588
G1 Y-61.861
G2 X-344.8 Y-60.273 I1.587 J0
G1 X-332.807
X-332.068 Y-60.266
X-331.314 Y-60.246
X-330.536 Y-60.213
X-329.735 Y-60.167
X-328.912 Y-60.107
X-328.065 Y-60.034
X-327.195 Y-59.948
X-326.306 Y-59.85
X-324.449 Y-59.615
X-322.506 Y-59.331
X-320.475 Y-59.002
X-318.358 Y-58.63
X-316.154 Y-58.219
X-313.866 Y-57.772
X-311.496 Y-57.293
X-309.045 Y-56.787
X-303.908 Y-55.712
X-303.906 Y-55.711
X-298.48 Y-54.584
X-298.472 Y-54.583
X-295.657 Y-54.013
X-295.649 Y-54.011
X-292.769 Y-53.444
X-292.759 Y-53.442
X-289.818 Y-52.882
X-289.806 Y-52.88
X-286.806 Y-52.333
X-286.792 Y-52.33
X-283.737 Y-51.801
X-283.722 Y-51.799
X-280.616 Y-51.292
X-280.598 Y-51.289
X-277.443 Y-50.81
X-277.425 Y-50.808
X-274.226 Y-50.361
X-274.211 Y-50.359
X-272.597 Y-50.149
X-272.586 Y-50.148
X-270.961 Y-49.947
X-270.95 Y-49.946
X-269.318 Y-49.756
X-269.307 Y-49.755
X-267.666 Y-49.576
X-267.654 Y-49.574
X-266.005 Y-49.406
X-265.993 Y-49.405
X-264.337 Y-49.249
X-264.325 Y-49.248
X-262.662 Y-49.104
X-262.65 Y-49.103
X-260.981 Y-48.972
X-260.969 Y-48.971
X-259.295 Y-48.852
X-259.282 Y-48.851
X-257.603 Y-48.747
X-257.59 Y-48.746
X-255.908 Y-48.655
X-255.894 Y-48.654
X-254.209 Y-48.577
X-254.195
X-252.507 Y-48.514
X-252.493
X-250.803 Y-48.466
X-250.789
X-249.098 Y-48.433
X-249.084
X-247.393 Y-48.416
X-247.378
X-245.688 Y-48.414
X-245.673
X-243.984 Y-48.427
X-243.969 Y-48.428
X-242.282 Y-48.457
X-242.267
X-240.582 Y-48.503
X-240.567
X-238.887 Y-48.564
X-238.872 Y-48.565
X-237.196 Y-48.642
X-237.181 Y-48.643
X-235.511 Y-48.736
X-235.495 Y-48.737
X-233.831 Y-48.847
X-233.816 Y-48.848
X-232.159 Y-48.973
X-232.144 Y-48.974
X-230.496 Y-49.115
X-230.48 Y-49.116
X-228.841 Y-49.273
X-228.825 Y-49.275
X-227.197 Y-49.447
X-227.181 Y-49.448
X-225.563 Y-49.636
X-225.547 Y-49.638
X-223.942 Y-49.841
X-223.926 Y-49.843
X-222.334 Y-50.06
X-222.318 Y-50.063
X-220.739 Y-50.295
X-220.723 Y-50.297
X-219.16 Y-50.544
X-219.144 Y-50.547
X-217.597 Y-50.807
X-217.58 Y-50.81
X-216.05 Y-51.085
X-216.034 Y-51.088
X-214.522 Y-51.376
X-214.506 Y-51.379
X-213.013 Y-51.68
X-212.996 Y-51.683
X-211.524 Y-51.997
X-211.507 Y-52
X-210.055 Y-52.326
X-210.038 Y-52.33
X-208.609 Y-52.667
X-208.591 Y-52.671
X-207.185 Y-53.02
X-207.168 Y-53.025
X-205.786 Y-53.384
X-205.768 Y-53.389
X-204.412 Y-53.759
X-204.394 Y-53.764
X-203.063 Y-54.143
X-203.045 Y-54.149
X-201.741 Y-54.538
X-201.723 Y-54.544
X-200.448 Y-54.941
X-200.428 Y-54.948
X-199.183 Y-55.354
X-199.163 Y-55.36
X-197.947 Y-55.774
X-197.927 Y-55.781
X-196.742 Y-56.203
X-196.722 Y-56.21
X-195.569 Y-56.639
X-195.547 Y-56.647
X-194.428 Y-57.081
X-194.406 Y-57.09
X-193.32 Y-57.53
X-193.297 Y-57.539
X-192.246 Y-57.984
X-192.222 Y-57.994
X-191.206 Y-58.444
X-191.182 Y-58.455
X-190.203 Y-58.909
X-190.177 Y-58.921
X-189.235 Y-59.378
X-189.208 Y-59.391
X-188.304 Y-59.851
X-188.276 Y-59.866
X-187.411 Y-60.328
X-187.382 Y-60.344
X-186.556 Y-60.808
X-186.525 Y-60.826
X-185.74 Y-61.291
X-185.707 Y-61.312
X-184.964 Y-61.777
X-184.928 Y-61.8
X-184.227 Y-62.266
X-184.189 Y-62.292
X-183.53 Y-62.757
X-183.49 Y-62.786
X-182.874 Y-63.25
X-182.831 Y-63.284
X-182.259 Y-63.747
X-182.213 Y-63.785
X-181.686 Y-64.246
X-181.637 Y-64.291
X-181.154 Y-64.749
X-181.102 Y-64.801
X-180.666 Y-65.256
X-180.61 Y-65.317
X-180.22 Y-65.769
X-180.162 Y-65.84
X-179.817 Y-66.288
X-179.757 Y-66.371
X-179.46 Y-66.815
X-179.399 Y-66.913
X-179.15 Y-67.352
X-179.105 Y-67.436
X-178.998 Y-67.653
X-178.969 Y-67.715
X-178.874 Y-67.931
X-178.847 Y-67.998
X-178.764 Y-68.213
X-178.738 Y-68.284
X-178.667 Y-68.497
X-178.644 Y-68.574
X-178.585 Y-68.785
X-178.565 Y-68.866
X-178.518 Y-69.076
X-178.502 Y-69.16
X-178.467 Y-69.369
X-178.455 Y-69.458
X-178.433 Y-69.665
X-178.425 Y-69.756
X-178.415 Y-69.961
X-178.413 Y-70.056
X-178.415 Y-70.259
X-178.419 Y-70.356
X-178.433 Y-70.558
X-178.443 Y-70.654
X-178.469 Y-70.854
X-178.485 Y-70.949
X-178.523 Y-71.147
X-178.545 Y-71.242
X-178.596 Y-71.439
X-178.622 Y-71.53
X-178.685 Y-71.725
X-178.717 Y-71.814
X-178.792 Y-72.006
X-178.828 Y-72.09
X-178.915 Y-72.28
X-178.954 Y-72.36
X-179.054 Y-72.548
X-179.096 Y-72.623
X-179.208 Y-72.81
X-179.252 Y-72.879
X-179.376 Y-73.064
X-179.421 Y-73.127
X-179.557 Y-73.31
X-179.603 Y-73.369
X-179.751 Y-73.549
X-179.797 Y-73.602
X-179.957 Y-73.781
X-180.003 Y-73.83
X-180.175 Y-74.006
X-180.243 Y-74.071
X-180.624 Y-74.417
X-180.709 Y-74.489
X-181.138 Y-74.827
X-181.218 Y-74.886
X-181.694 Y-75.214
X-181.768 Y-75.262
X-182.291 Y-75.582
X-182.359 Y-75.621
X-182.928 Y-75.932
X-182.99 Y-75.963
X-183.606 Y-76.265
X-183.662 Y-76.291
X-184.323 Y-76.583
X-184.374 Y-76.605
X-185.08 Y-76.888
X-185.126 Y-76.905
X-185.876 Y-77.179
X-185.919 Y-77.194
X-186.712 Y-77.458
X-186.751 Y-77.471
X-187.587 Y-77.726
X-187.623 Y-77.736
X-188.501 Y-77.982
X-188.533 Y-77.991
X-189.453 Y-78.227
X-189.482 Y-78.235
X-190.442 Y-78.462
X-190.47 Y-78.468
X-191.469 Y-78.687
X-191.494 Y-78.692
X-192.532 Y-78.902
X-192.555 Y-78.906
X-193.631 Y-79.107
X-193.653 Y-79.11
X-194.765 Y-79.302
X-194.785 Y-79.305
X-195.933 Y-79.488
X-195.952 Y-79.491
X-197.135 Y-79.665
X-197.152 Y-79.668
X-198.369 Y-79.833
X-198.385 Y-79.835
X-199.634 Y-79.992
X-199.649 Y-79.994
X-200.93 Y-80.143
X-200.944 Y-80.145
X-202.256 Y-80.285
X-202.269 Y-80.287
X-203.61 Y-80.42
X-203.623 Y-80.421
X-204.992 Y-80.546
X-205.009 Y-80.547
X-207.83 Y-80.774
X-207.85 Y-80.776
X-210.771 Y-80.974
X-210.788 Y-80.975
X-213.801 Y-81.145
X-213.816
X-216.911 Y-81.289
X-216.925 Y-81.29
X-220.092 Y-81.409
X-220.104 Y-81.41
X-223.335 Y-81.506
X-223.346
X-226.632 Y-81.581
X-226.642
X-229.974 Y-81.636
X-229.982
X-233.351 Y-81.673
X-233.359
X-236.757 Y-81.693
X-236.764
X-240.183 Y-81.698
X-240.189
X-243.621 Y-81.69
X-243.626
X-247.064 Y-81.669
X-247.071
X-253.936 Y-81.597
X-253.944
X-260.752 Y-81.491
X-260.758
X-267.464 Y-81.362
X-267.469 Y-81.361
X-274.032 Y-81.215
X-274.036
X-280.423 Y-81.06
X-280.425
X-286.604 Y-80.901
X-286.605
X-292.548 Y-80.743
X-298.235 Y-80.593
X-298.982 Y-80.573
S5000
X-303.644 Y-80.452 Z-3.163 F333.3
X-308.762 Y-80.324 Z-3.342
X-313.575 Y-80.213 Z-3.51
X-318.073 Y-80.119 Z-3.667
X-322.249 Y-80.045 Z-3.813
X-326.097 Y-79.991 Z-3.947
X-329.615 Y-79.959 Z-4.07
X-332.803 Y-79.948 Z-4.181
X-333.339 Z-4.2
S8000
X-344.8 F1000
G2 X-346.387 Y-78.361 I0 J1.588
G1 Y-61.861
G2 X-344.8 Y-60.273 I1.587 J0
G1 X-332.807
X-332.068 Y-60.266
X-331.314 Y-60.246
X-330.536 Y-60.213
X-329.735 Y-60.167
X-328.912 Y-60.107
X-328.065 Y-60.034
X-327.195 Y-59.948
X-326.306 Y-59.85
X-324.449 Y-59.615
X-322.506 Y-59.331
X-320.475 Y-59.002
X-318.358 Y-58.63
X-316.154 Y-58.219
X-313.866 Y-57.772
X-311.496 Y-57.293
X-309.045 Y-56.787
X-303.908 Y-55.712
X-303.906 Y-55.711
X-303.862 Y-55.702
Z-3.6
X-298.48 Y-54.584
X-298.472 Y-54.583
X-295.855 Y-54.053
Z-4.2 F333.3
X-295.657 Y-54.013 F1000
X-295.649 Y-54.011
X-292.769 Y-53.444
X-292.759 Y-53.442
X-289.818 Y-52.882
X-289.806 Y-52.88
X-286.806 Y-52.333
X-286.792 Y-52.33
X-283.737 Y-51.801
X-283.722 Y-51.799
X-280.616 Y-51.292
X-280.598 Y-51.289
X-277.443 Y-50.81
X-277.425 Y-50.808
X-274.226 Y-50.361
X-274.211 Y-50.359
X-272.597 Y-50.149
X-272.586 Y-50.148
X-270.961 Y-49.947
X-270.95 Y-49.946
X-269.318 Y-49.756
X-269.307 Y-49.755
X-267.666 Y-49.576
X-267.654 Y-49.574
X-266.005 Y-49.406
X-265.993 Y-49.405
X-264.337 Y-49.249
X-264.325 Y-49.248
X-262.662 Y-49.104
X-262.65 Y-49.103
X-260.981 Y-48.972
X-260.969 Y-48.971
X-259.295 Y-48.852
X-259.282 Y-48.851
X-257.603 Y-48.747
X-257.59 Y-48.746
X-255.908 Y-48.655
X-255.894 Y-48.654
X-254.209 Y-48.577
X-254.195
X-252.507 Y-48.514
X-252.493
X-250.803 Y-48.466
X-250.789
X-249.098 Y-48.433
X-249.084
X-247.393 Y-48.416
X-247.378
X-245.688 Y-48.414
X-245.673
X-243.984 Y-48.427
X-243.969 Y-48.428
X-242.282 Y-48.457
X-242.267
X-240.582 Y-48.503
X-240.567
X-238.887 Y-48.564
X-238.872 Y-48.565
X-237.196 Y-48.642
X-237.181 Y-48.643
X-235.511 Y-48.736
X-235.495 Y-48.737
X-233.831 Y-48.847
X-233.816 Y-48.848
X-232.159 Y-48.973
X-232.144 Y-48.974
X-230.496 Y-49.115
X-230.48 Y-49.116
X-228.841 Y-49.273
X-228.825 Y-49.275
X-227.197 Y-49.447
X-227.181 Y-49.448
X-225.563 Y-49.636
X-225.547 Y-49.638
X-223.942 Y-49.841
X-223.926 Y-49.843
X-222.334 Y-50.06
X-222.318 Y-50.063
X-220.739 Y-50.295
X-220.723 Y-50.297
X-219.16 Y-50.544
X-219.144 Y-50.547
X-217.597 Y-50.807
X-217.58 Y-50.81
X-216.05 Y-51.085
X-216.034 Y-51.088
X-214.522 Y-51.376
X-214.506 Y-51.379
X-213.013 Y-51.68
X-212.996 Y-51.683
X-211.524 Y-51.997
X-211.507 Y-52
X-210.055 Y-52.326
X-210.038 Y-52.33
X-208.609 Y-52.667
X-208.591 Y-52.671
X-207.185 Y-53.02
X-207.168 Y-53.025
X-205.786 Y-53.384
X-205.768 Y-53.389
X-205.663 Y-53.418
Z-3.6
X-204.412 Y-53.759
X-204.394 Y-53.764
X-203.063 Y-54.143
X-203.045 Y-54.149
X-201.741 Y-54.538
X-201.723 Y-54.544
X-200.448 Y-54.941
X-200.428 Y-54.948
X-199.183 Y-55.354
X-199.163 Y-55.36
X-197.947 Y-55.774
X-197.927 Y-55.781
X-197.846 Y-55.81
Z-4.2 F333.3
X-196.742 Y-56.203 F1000
X-196.722 Y-56.21
X-195.569 Y-56.639
X-195.547 Y-56.647
X-194.428 Y-57.081
X-194.406 Y-57.09
X-193.32 Y-57.53
X-193.297 Y-57.539
X-192.246 Y-57.984
X-192.222 Y-57.994
X-191.206 Y-58.444
X-191.182 Y-58.455
X-190.203 Y-58.909
X-190.177 Y-58.921
X-189.235 Y-59.378
X-189.208 Y-59.391
X-188.304 Y-59.851
X-188.276 Y-59.866
X-187.411 Y-60.328
X-187.382 Y-60.344
X-186.556 Y-60.808
X-186.525 Y-60.826
X-185.74 Y-61.291
X-185.707 Y-61.312
X-184.964 Y-61.777
X-184.928 Y-61.8
X-184.227 Y-62.266
X-184.189 Y-62.292
X-183.53 Y-62.757
X-183.49 Y-62.786
X-182.874 Y-63.25
X-182.831 Y-63.284
X-182.259 Y-63.747
X-182.213 Y-63.785
X-181.686 Y-64.246
X-181.637 Y-64.291
X-181.154 Y-64.749
X-181.102 Y-64.801
X-180.666 Y-65.256
X-180.61 Y-65.317
X-180.22 Y-65.769
X-180.162 Y-65.84
X-179.817 Y-66.288
X-179.757 Y-66.371
X-179.46 Y-66.815
X-179.399 Y-66.913
X-179.15 Y-67.352
X-179.105 Y-67.436
X-178.998 Y-67.653
X-178.969 Y-67.715
X-178.874 Y-67.931
X-178.847 Y-67.998
X-178.764 Y-68.213
X-178.738 Y-68.284
X-178.667 Y-68.497
X-178.644 Y-68.574
X-178.585 Y-68.785
X-178.565 Y-68.866
X-178.518 Y-69.076
X-178.502 Y-69.16
X-178.467 Y-69.369
X-178.455 Y-69.458
X-178.433 Y-69.665
X-178.425 Y-69.756
X-178.415 Y-69.961
X-178.413 Y-70.056
X-178.415 Y-70.259
X-178.419 Y-70.356
X-178.433 Y-70.558
X-178.443 Y-70.654
X-178.469 Y-70.854
X-178.485 Y-70.949
X-178.523 Y-71.147
X-178.545 Y-71.242
X-178.596 Y-71.439
X-178.622 Y-71.53
X-178.685 Y-71.725
X-178.717 Y-71.814
X-178.792 Y-72.006
X-178.828 Y-72.09
X-178.915 Y-72.28
X-178.954 Y-72.36
X-179.054 Y-72.548
X-179.096 Y-72.623
X-179.208 Y-72.81
X-179.252 Y-72.879
X-179.376 Y-73.064
X-179.421 Y-73.127
X-179.557 Y-73.31
X-179.603 Y-73.369
X-179.751 Y-73.549
X-179.797 Y-73.602
X-179.957 Y-73.781
X-180.003 Y-73.83
X-180.175 Y-74.006
X-180.243 Y-74.071
X-180.624 Y-74.417
X-180.709 Y-74.489
X-181.138 Y-74.827
X-181.218 Y-74.886
X-181.694 Y-75.214
X-181.768 Y-75.262
X-182.291 Y-75.582
X-182.359 Y-75.621
X-182.928 Y-75.932
X-182.99 Y-75.963
X-183.606 Y-76.265
X-183.662 Y-76.291
X-184.323 Y-76.583
X-184.374 Y-76.605
X-185.08 Y-76.888
X-185.126 Y-76.905
X-185.876 Y-77.179
X-185.919 Y-77.194
X-186.712 Y-77.458
X-186.751 Y-77.471
X-187.587 Y-77.726
X-187.623 Y-77.736
X-188.501 Y-77.982
X-188.533 Y-77.991
X-189.453 Y-78.227
X-189.482 Y-78.235
X-190.442 Y-78.462
X-190.47 Y-78.468
X-191.469 Y-78.687
X-191.494 Y-78.692
X-192.532 Y-78.902
X-192.555 Y-78.906
X-193.631 Y-79.107
X-193.653 Y-79.11
X-194.765 Y-79.302
X-194.785 Y-79.305
X-195.933 Y-79.488
X-195.952 Y-79.491
X-196.882 Y-79.628
Z-3.6
X-197.135 Y-79.665
X-197.152 Y-79.668
X-198.369 Y-79.833
X-198.385 Y-79.835
X-199.634 Y-79.992
X-199.649 Y-79.994
X-200.93 Y-80.143
X-200.944 Y-80.145
X-202.256 Y-80.285
X-202.269 Y-80.287
X-203.61 Y-80.42
X-203.623 Y-80.421
X-204.992 Y-80.546
X-205.005 Y-80.547
Z-4.2 F333.3
X-205.009 F1000
X-207.83 Y-80.774
X-207.85 Y-80.776
X-210.771 Y-80.974
X-210.788 Y-80.975
X-213.801 Y-81.145
X-213.816
X-216.911 Y-81.289
X-216.925 Y-81.29
X-220.092 Y-81.409
X-220.104 Y-81.41
X-223.335 Y-81.506
X-223.346
X-226.632 Y-81.581
X-226.642
X-229.974 Y-81.636
X-229.982
X-233.351 Y-81.673
X-233.359
X-236.757 Y-81.693
X-236.764
X-240.183 Y-81.698
X-240.189
X-243.621 Y-81.69
X-243.626
X-247.064 Y-81.669
X-247.071
X-253.936 Y-81.597
X-253.944
X-260.752 Y-81.491
X-260.758
X-267.464 Y-81.362
X-267.469 Y-81.361
X-274.032 Y-81.215
X-274.036
X-280.423 Y-81.06
X-280.425
X-286.604 Y-80.901
X-286.605
X-292.548 Y-80.743
X-295.529 Y-80.664
Z-3.6
X-298.235 Y-80.593
X-303.644 Y-80.452
X-303.701 Y-80.45
Z-4.2 F333.3
X-308.762 Y-80.324 F1000
X-313.575 Y-80.213
X-318.073 Y-80.119
X-322.249 Y-80.045
X-326.097 Y-79.991
X-329.615 Y-79.959
X-332.803 Y-79.948
X-333.339
G3 X-333.656 Y-80.266 I0 J-0.317
G1 Y-80.583
G19 G2 Y-80.901 Z-3.882 J0 K0.317
G0 Z15
G17

(2D-Kontur6)
G0 Z15
X-35.35 Y-92.515
Z5
G1 Z2.818 F333.3
X-35.353 Y-92.523 Z2.747 F1000
X-35.359 Y-92.546 Z2.68
X-35.369 Y-92.582 Z2.62
X-35.382 Y-92.631 Z2.569
X-35.398 Y-92.689 Z2.531
X-35.415 Y-92.754 Z2.508
X-35.434 Y-92.822 Z2.5
X-35.517 Y-93.128
G3 X-35.295 Y-93.518 I0.306 J-0.084
S5000
G1 X-34.412 Y-93.759 Z2.468 F333.3
X-34.394 Y-93.764 Z2.467
X-33.063 Y-94.143 Z2.419
X-33.045 Y-94.149 Z2.418
X-31.741 Y-94.538 Z2.371
X-31.723 Y-94.544 Z2.37
X-30.448 Y-94.941 Z2.324
X-30.428 Y-94.948 Z2.323
X-29.183 Y-95.354 Z2.277
X-29.163 Y-95.36 Z2.276
X-27.947 Y-95.774 Z2.232
X-27.927 Y-95.781 Z2.231
X-26.742 Y-96.203 Z2.187
X-26.722 Y-96.21 Z2.186
X-25.569 Y-96.639 Z2.143
X-25.547 Y-96.647 Z2.142
X-24.428 Y-97.081 Z2.1
X-24.406 Y-97.09
X-23.32 Y-97.53 Z2.059
X-23.297 Y-97.539 Z2.058
X-22.246 Y-97.984 Z2.018
X-22.222 Y-97.994 Z2.017
X-21.206 Y-98.444 Z1.978
X-21.182 Y-98.455 Z1.977
X-20.203 Y-98.909 Z1.94
X-20.177 Y-98.921 Z1.939
X-19.235 Y-99.378 Z1.902
X-19.208 Y-99.391 Z1.901
X-18.304 Y-99.851 Z1.866
X-18.276 Y-99.866 Z1.865
