(1001)
(Bearbeiten)
(  Hersteller: ChinaCnc)
(  model: 3040T)
(  description: Generic 3-axis)
(T14  D=1.95 CR=0 - ZMIN=-2.3 - Schaftfraser)
G90 G94
G17
G21
(When using Fusion 360 for Personal Use, the feedrate of)
(rapid moves is reduced to match the feedrate of cutting)
(moves, which can increase machining time. Unrestricted rapid)
(moves are available with a Fusion 360 Subscription.)

(2D-Kontur1)
T14
S2000 M3
G54
G0 X-25.811 Y-10.139
Z15
G1 Z5 F1200
Z1.4 F400
Z-0.205
X-25.809 Y-10.132 Z-0.255 F1016
X-25.805 Y-10.113 Z-0.303
X-25.799 Y-10.083 Z-0.343
X-25.79 Y-10.044 Z-0.374
X-25.781 Y-9.998 Z-0.393
X-25.77 Y-9.948 Z-0.4
X-25.73 Y-9.757
G3 X-25.88 Y-9.526 I-0.191 J0.04
G1 X-31.519 Y-8.332 F1200
X-31.695
G2 X-31.695 Y-18.168 I-9.305 J-4.918
G1 X-31.519
X-10.943 Y-13.811
G2 X-10.943 Y-12.689 I4.943 J0.561
G1 X-25.88 Y-9.526
G3 X-26.111 Y-9.677 I-0.04 J-0.191 F1016
G1 X-26.152 Y-9.867
X-26.162 Y-9.917 Z-0.393
X-26.172 Y-9.963 Z-0.374
X-26.18 Y-10.002 Z-0.343
X-26.187 Y-10.033 Z-0.303
X-26.191 Y-10.052 Z-0.255
X-26.192 Y-10.058 Z-0.205
Z5 F1200
X-25.811 Y-10.139
Z1 F400
Z-0.605
X-25.809 Y-10.132 Z-0.655 F1016
X-25.805 Y-10.113 Z-0.703
X-25.799 Y-10.083 Z-0.743
X-25.79 Y-10.044 Z-0.774
X-25.781 Y-9.998 Z-0.793
X-25.77 Y-9.948 Z-0.8
X-25.73 Y-9.757
G3 X-25.88 Y-9.526 I-0.191 J0.04
G1 X-31.519 Y-8.332 F1200
X-31.695
G2 X-31.695 Y-18.168 I-9.305 J-4.918
G1 X-31.519
X-10.943 Y-13.811
G2 X-10.943 Y-12.689 I4.943 J0.561
G1 X-25.88 Y-9.526
G3 X-26.111 Y-9.677 I-0.04 J-0.191 F1016
G1 X-26.152 Y-9.867
X-26.162 Y-9.917 Z-0.793
X-26.172 Y-9.963 Z-0.774
X-26.18 Y-10.002 Z-0.743
X-26.187 Y-10.033 Z-0.703
X-26.191 Y-10.052 Z-0.655
X-26.192 Y-10.058 Z-0.605
Z5 F1200
X-25.811 Y-10.139
Z0.6 F400
Z-1.005
X-25.809 Y-10.132 Z-1.055 F1016
X-25.805 Y-10.113 Z-1.103
X-25.799 Y-10.083 Z-1.143
X-25.79 Y-10.044 Z-1.174
X-25.781 Y-9.998 Z-1.193
X-25.77 Y-9.948 Z-1.2
X-25.73 Y-9.757
G3 X-25.88 Y-9.526 I-0.191 J0.04
G1 X-31.519 Y-8.332 F1200
X-31.695
G2 X-31.695 Y-18.168 I-9.305 J-4.918
G1 X-31.519
X-10.943 Y-13.811
G2 X-10.943 Y-12.689 I4.943 J0.561
G1 X-25.88 Y-9.526
G3 X-26.111 Y-9.677 I-0.04 J-0.191 F1016
G1 X-26.152 Y-9.867
X-26.162 Y-9.917 Z-1.193
X-26.172 Y-9.963 Z-1.174
X-26.18 Y-10.002 Z-1.143
X-26.187 Y-10.033 Z-1.103
X-26.191 Y-10.052 Z-1.055
X-26.192 Y-10.058 Z-1.005
Z5 F1200
X-25.811 Y-10.139
Z0.2 F400
Z-1.405
X-25.809 Y-10.132 Z-1.455 F1016
X-25.805 Y-10.113 Z-1.503
X-25.799 Y-10.083 Z-1.543
X-25.79 Y-10.044 Z-1.574
X-25.781 Y-9.998 Z-1.593
X-25.77 Y-9.948 Z-1.6
X-25.73 Y-9.757
G3 X-25.88 Y-9.526 I-0.191 J0.04
G1 X-31.519 Y-8.332 F1200
X-31.695
G2 X-31.695 Y-18.168 I-9.305 J-4.918
G1 X-31.519
X-10.943 Y-13.811
G2 X-10.943 Y-12.689 I4.943 J0.561
G1 X-25.88 Y-9.526
G3 X-26.111 Y-9.677 I-0.04 J-0.191 F1016
G1 X-26.152 Y-9.867
X-26.162 Y-9.917 Z-1.593
X-26.172 Y-9.963 Z-1.574
X-26.18 Y-10.002 Z-1.543
X-26.187 Y-10.033 Z-1.503
X-26.191 Y-10.052 Z-1.455
X-26.192 Y-10.058 Z-1.405
Z5 F1200
X-25.811 Y-10.139
Z-0.2 F400
Z-1.805
X-25.809 Y-10.132 Z-1.855 F1016
X-25.805 Y-10.113 Z-1.903
X-25.799 Y-10.083 Z-1.943
X-25.79 Y-10.044 Z-1.974
X-25.781 Y-9.998 Z-1.993
X-25.77 Y-9.948 Z-2
X-25.73 Y-9.757
G3 X-25.88 Y-9.526 I-0.191 J0.04
G1 X-31.519 Y-8.332 F1200
X-31.695
G2 X-31.695 Y-18.168 I-9.305 J-4.918
G1 X-31.519
X-10.943 Y-13.811
G2 X-10.943 Y-12.689 I4.943 J0.561
G1 X-25.88 Y-9.526
G3 X-26.111 Y-9.677 I-0.04 J-0.191 F1016
G1 X-26.152 Y-9.867
X-26.162 Y-9.917 Z-1.993
X-26.172 Y-9.963 Z-1.974
X-26.18 Y-10.002 Z-1.943
X-26.187 Y-10.033 Z-1.903
X-26.191 Y-10.052 Z-1.855
X-26.192 Y-10.058 Z-1.805
Z5 F1200
X-25.811 Y-10.139
Z-0.6 F400
Z-2.105
X-25.809 Y-10.132 Z-2.155 F1016
X-25.805 Y-10.113 Z-2.203
X-25.799 Y-10.083 Z-2.243
X-25.79 Y-10.044 Z-2.274
X-25.781 Y-9.998 Z-2.293
X-25.77 Y-9.948 Z-2.3
X-25.73 Y-9.757
G3 X-25.88 Y-9.526 I-0.191 J0.04
G1 X-31.519 Y-8.332 F1200
X-31.695
G2 X-31.695 Y-18.168 I-9.305 J-4.918
G1 X-31.519
X-10.943 Y-13.811
G2 X-10.943 Y-12.689 I4.943 J0.561
G1 X-25.88 Y-9.526
G3 X-26.111 Y-9.677 I-0.04 J-0.191 F1016
G1 X-26.152 Y-9.867
X-26.162 Y-9.917 Z-2.293
X-26.172 Y-9.963 Z-2.274
X-26.18 Y-10.002 Z-2.243
X-26.187 Y-10.033 Z-2.203
X-26.191 Y-10.052 Z-2.155
X-26.192 Y-10.058 Z-2.105
Z5 F1200
X-34.81 Y-13.445
Z1.4 F400
Z-0.205
G18 G2 X-34.615 Z-0.4 I0.195 K0 F1016
G1 X-34.42
G17 G3 X-34.225 Y-13.25 I0 J0.195
X-47.775 Y-13.25 I-6.775 J0 F1200
X-34.225 Y-13.25 I6.775 J0
X-34.42 Y-13.055 I-0.195 J0 F1016
G1 X-34.615
G18 G3 X-34.81 Z-0.205 I0 K0.195
G1 Z5 F1200
Y-13.445
Z1 F400
Z-0.605
G2 X-34.615 Z-0.8 I0.195 K0 F1016
G1 X-34.42
G17 G3 X-34.225 Y-13.25 I0 J0.195
X-47.775 Y-13.25 I-6.775 J0 F1200
X-34.225 Y-13.25 I6.775 J0
X-34.42 Y-13.055 I-0.195 J0 F1016
G1 X-34.615
G18 G3 X-34.81 Z-0.605 I0 K0.195
G1 Z5 F1200
Y-13.445
Z0.6 F400
Z-1.005
G2 X-34.615 Z-1.2 I0.195 K0 F1016
G1 X-34.42
G17 G3 X-34.225 Y-13.25 I0 J0.195
X-47.775 Y-13.25 I-6.775 J0 F1200
X-34.225 Y-13.25 I6.775 J0
X-34.42 Y-13.055 I-0.195 J0 F1016
G1 X-34.615
G18 G3 X-34.81 Z-1.005 I0 K0.195
G1 Z5 F1200
Y-13.445
Z0.2 F400
Z-1.405
G2 X-34.615 Z-1.6 I0.195 K0 F1016
G1 X-34.42
G17 G3 X-34.225 Y-13.25 I0 J0.195
X-47.775 Y-13.25 I-6.775 J0 F1200
X-34.225 Y-13.25 I6.775 J0
X-34.42 Y-13.055 I-0.195 J0 F1016
G1 X-34.615
G18 G3 X-34.81 Z-1.405 I0 K0.195
G1 Z5 F1200
Y-13.445
Z-0.2 F400
Z-1.805
G2 X-34.615 Z-2 I0.195 K0 F1016
G1 X-34.42
G17 G3 X-34.225 Y-13.25 I0 J0.195
X-47.775 Y-13.25 I-6.775 J0 F1200
X-34.225 Y-13.25 I6.775 J0
X-34.42 Y-13.055 I-0.195 J0 F1016
G1 X-34.615
G18 G3 X-34.81 Z-1.805 I0 K0.195
G1 Z5 F1200
Y-13.445
Z-0.6 F400
Z-2.105
G2 X-34.615 Z-2.3 I0.195 K0 F1016
G1 X-34.42
G17 G3 X-34.225 Y-13.25 I0 J0.195
X-47.775 Y-13.25 I-6.775 J0 F1200
X-34.225 Y-13.25 I6.775 J0
X-34.42 Y-13.055 I-0.195 J0 F1016
G1 X-34.615
G18 G3 X-34.81 Z-2.105 I0 K0.195
G1 Z5 F1200
X-5.333 Y-13.298
Z1.4 F400
Z-0.205
X-5.326 Y-13.296 Z-0.255 F1016
X-5.307 Y-13.292 Z-0.303
X-5.277 Y-13.285 Z-0.343
X-5.238 Y-13.276 Z-0.374
X-5.192 Y-13.266 Z-0.393
X-5.143 Y-13.254 Z-0.4
X-4.952 Y-13.211
G17 G3 X-4.806 Y-12.977 I-0.043 J0.19
X-7.194 Y-13.523 I-1.194 J-0.273 F1200
X-4.806 Y-12.977 I1.194 J0.273
X-5.039 Y-12.831 I-0.19 J-0.043 F1016
G1 X-5.229 Y-12.874
X-5.279 Y-12.885 Z-0.393
X-5.324 Y-12.896 Z-0.374
X-5.364 Y-12.905 Z-0.343
X-5.394 Y-12.912 Z-0.303
X-5.413 Y-12.916 Z-0.255
X-5.419 Y-12.917 Z-0.205
Z5 F1200
X-5.333 Y-13.298
Z1 F400
Z-0.605
X-5.326 Y-13.296 Z-0.655 F1016
X-5.307 Y-13.292 Z-0.703
X-5.277 Y-13.285 Z-0.743
X-5.238 Y-13.276 Z-0.774
X-5.192 Y-13.266 Z-0.793
X-5.143 Y-13.254 Z-0.8
X-4.952 Y-13.211
G3 X-4.806 Y-12.977 I-0.043 J0.19
X-7.194 Y-13.523 I-1.194 J-0.273 F1200
X-4.806 Y-12.977 I1.194 J0.273
X-5.039 Y-12.831 I-0.19 J-0.043 F1016
G1 X-5.229 Y-12.874
X-5.279 Y-12.885 Z-0.793
X-5.324 Y-12.896 Z-0.774
X-5.364 Y-12.905 Z-0.743
X-5.394 Y-12.912 Z-0.703
X-5.413 Y-12.916 Z-0.655
X-5.419 Y-12.917 Z-0.605
Z5 F1200
X-5.333 Y-13.298
Z0.6 F400
Z-1.005
X-5.326 Y-13.296 Z-1.055 F1016
X-5.307 Y-13.292 Z-1.103
X-5.277 Y-13.285 Z-1.143
X-5.238 Y-13.276 Z-1.174
X-5.192 Y-13.266 Z-1.193
X-5.143 Y-13.254 Z-1.2
X-4.952 Y-13.211
G3 X-4.806 Y-12.977 I-0.043 J0.19
X-7.194 Y-13.523 I-1.194 J-0.273 F1200
X-4.806 Y-12.977 I1.194 J0.273
X-5.039 Y-12.831 I-0.19 J-0.043 F1016
G1 X-5.229 Y-12.874
X-5.279 Y-12.885 Z-1.193
X-5.324 Y-12.896 Z-1.174
X-5.364 Y-12.905 Z-1.143
X-5.394 Y-12.912 Z-1.103
X-5.413 Y-12.916 Z-1.055
X-5.419 Y-12.917 Z-1.005
Z5 F1200
X-5.333 Y-13.298
Z0.2 F400
Z-1.405
X-5.326 Y-13.296 Z-1.455 F1016
X-5.307 Y-13.292 Z-1.503
X-5.277 Y-13.285 Z-1.543
X-5.238 Y-13.276 Z-1.574
X-5.192 Y-13.266 Z-1.593
X-5.143 Y-13.254 Z-1.6
X-4.952 Y-13.211
G3 X-4.806 Y-12.977 I-0.043 J0.19
X-7.194 Y-13.523 I-1.194 J-0.273 F1200
X-4.806 Y-12.977 I1.194 J0.273
X-5.039 Y-12.831 I-0.19 J-0.043 F1016
G1 X-5.229 Y-12.874
X-5.279 Y-12.885 Z-1.593
X-5.324 Y-12.896 Z-1.574
X-5.364 Y-12.905 Z-1.543
X-5.394 Y-12.912 Z-1.503
X-5.413 Y-12.916 Z-1.455
X-5.419 Y-12.917 Z-1.405
Z5 F1200
X-5.333 Y-13.298
Z-0.2 F400
Z-1.805
X-5.326 Y-13.296 Z-1.855 F1016
X-5.307 Y-13.292 Z-1.903
X-5.277 Y-13.285 Z-1.943
X-5.238 Y-13.276 Z-1.974
X-5.192 Y-13.266 Z-1.993
X-5.143 Y-13.254 Z-2
X-4.952 Y-13.211
G3 X-4.806 Y-12.977 I-0.043 J0.19
X-7.194 Y-13.523 I-1.194 J-0.273 F1200
X-4.806 Y-12.977 I1.194 J0.273
X-5.039 Y-12.831 I-0.19 J-0.043 F1016
G1 X-5.229 Y-12.874
X-5.279 Y-12.885 Z-1.993
X-5.324 Y-12.896 Z-1.974
X-5.364 Y-12.905 Z-1.943
X-5.394 Y-12.912 Z-1.903
X-5.413 Y-12.916 Z-1.855
X-5.419 Y-12.917 Z-1.805
Z5 F1200
X-5.333 Y-13.298
Z-0.6 F400
Z-2.105
X-5.326 Y-13.296 Z-2.155 F1016
X-5.307 Y-13.292 Z-2.203
X-5.277 Y-13.285 Z-2.243
X-5.238 Y-13.276 Z-2.274
X-5.192 Y-13.266 Z-2.293
X-5.143 Y-13.254 Z-2.3
X-4.952 Y-13.211
G3 X-4.806 Y-12.977 I-0.043 J0.19
X-7.194 Y-13.523 I-1.194 J-0.273 F1200
X-4.806 Y-12.977 I1.194 J0.273
X-5.039 Y-12.831 I-0.19 J-0.043 F1016
G1 X-5.229 Y-12.874
X-5.279 Y-12.885 Z-2.293
X-5.324 Y-12.896 Z-2.274
X-5.364 Y-12.905 Z-2.243
X-5.394 Y-12.912 Z-2.203
X-5.413 Y-12.916 Z-2.155
X-5.419 Y-12.917 Z-2.105
Z15 F1200
(When using Fusion 360 for Personal Use, the feedrate of)
(rapid moves is reduced to match the feedrate of cutting)
(moves, which can increase machining time. Unrestricted rapid)
(moves are available with a Fusion 360 Subscription.)

(2D-Kontur3)
S3000 M3
G0 X-18.049 Y-21.484
G1 Z15 F1200
Z5
Z1.4 F400
Z1.195
X-18.051 Y-21.478 Z1.145 F1016
X-18.055 Y-21.459 Z1.097
X-18.061 Y-21.429 Z1.057
X-18.069 Y-21.389 Z1.026
X-18.079 Y-21.343 Z1.007
X-18.09 Y-21.294 Z1
X-18.13 Y-21.103
G3 X-18.361 Y-20.953 I-0.191 J-0.04
G1 X-38.468 Y-25.21 Z0.935
G2 X-43.532 Y-1.29 Z0.812 I-2.532 J11.96
X-38.468 Y-1.29 Z0.796 I2.532 J-11.96
G1 X-4.969 Y-8.383 Z0.687
G2 X-4.969 Y-18.117 Z0.644 I-1.031 J-4.867
G1 X-38.468 Y-25.21 Z0.535
G2 X-43.532 Y-1.29 Z0.412 I-2.532 J11.96
X-38.468 Y-1.29 Z0.396 I2.532 J-11.96
G1 X-4.969 Y-8.383 Z0.287
G2 X-4.969 Y-18.117 Z0.244 I-1.031 J-4.867
G1 X-38.468 Y-25.21 Z0.135
G2 X-43.532 Y-1.29 Z0.012 I-2.532 J11.96
X-38.468 Y-1.29 Z-0.004 I2.532 J-11.96
G1 X-4.969 Y-8.383 Z-0.113
G2 X-4.969 Y-18.117 Z-0.156 I-1.031 J-4.867
G1 X-38.468 Y-25.21 Z-0.265
G2 X-53.208 Y-13.894 Z-0.333 I-2.532 J11.96
X-39.74 Y-1.09 Z-0.4 I12.208 J0.644
X-38.468 Y-1.29 I-1.26 J-12.16 F1200
G1 X-4.969 Y-8.383
G2 X-4.969 Y-18.117 I-1.031 J-4.867
G1 X-38.468 Y-25.21
G2 X-53.208 Y-13.894 I-2.532 J11.96
X-39.74 Y-1.09 I12.208 J0.644
X-38.468 Y-1.29 Z-0.404 I-1.26 J-12.16 F1016
G1 X-4.969 Y-8.383 Z-0.513
G2 X-4.969 Y-18.117 Z-0.556 I-1.031 J-4.867
G1 X-38.468 Y-25.21 Z-0.665
G2 X-53.208 Y-13.894 Z-0.733 I-2.532 J11.96
X-39.74 Y-1.09 Z-0.8 I12.208 J0.644
X-38.468 Y-1.29 I-1.26 J-12.16 F1200
G1 X-4.969 Y-8.383
G2 X-4.969 Y-18.117 I-1.031 J-4.867
G1 X-38.468 Y-25.21
G2 X-53.208 Y-13.894 I-2.532 J11.96
X-39.74 Y-1.09 I12.208 J0.644
X-38.468 Y-1.29 Z-0.804 I-1.26 J-12.16 F1016
G1 X-4.969 Y-8.383 Z-0.913
G2 X-4.969 Y-18.117 Z-0.956 I-1.031 J-4.867
G1 X-38.468 Y-25.21 Z-1.065
G2 X-53.208 Y-13.894 Z-1.133 I-2.532 J11.96
X-39.74 Y-1.09 Z-1.2 I12.208 J0.644
X-38.468 Y-1.29 I-1.26 J-12.16 F1200
G1 X-4.969 Y-8.383
G2 X-4.969 Y-18.117 I-1.031 J-4.867
G1 X-38.468 Y-25.21
G2 X-53.208 Y-13.894 I-2.532 J11.96
X-39.74 Y-1.09 I12.208 J0.644
X-38.468 Y-1.29 Z-1.204 I-1.26 J-12.16 F1016
G1 X-4.969 Y-8.383 Z-1.313
G2 X-2.264 Y-16.535 Z-1.346 I-1.031 J-4.867
G1 Z-1.3
G2 X-4.969 Y-18.117 I-3.736 J3.285
G1 X-7.88 Y-18.733
Z-1.366 F400
X-38.468 Y-25.21 Z-1.465 F1016
G2 X-53.133 Y-14.749 Z-1.53 I-2.532 J11.96
X-41.454 Y-1.033 Z-1.595 I12.133 J1.499
G1 Z-1.3
G2 X-39.74 Y-1.09 I0.454 J-12.217
X-38.468 Y-1.29 I-1.26 J-12.16 F1200
G1 X-35.557 Y-1.906
Z-1.6 F400
X-4.969 Y-8.383 F1200
G2 X-2.264 Y-16.535 I-1.031 J-4.867
G1 Z-1.3
G2 X-4.969 Y-18.117 I-3.736 J3.285
G1 X-7.88 Y-18.733
Z-1.6 F400
X-38.468 Y-25.21 F1200
G2 X-53.133 Y-14.749 I-2.532 J11.96
X-41.454 Y-1.033 I12.133 J1.499
G1 Z-1.3
G2 X-39.74 Y-1.09 I0.454 J-12.217
X-38.468 Y-1.29 I-1.26 J-12.16 F1016
G1 X-35.557 Y-1.906
Z-1.614 F400
X-4.969 Y-8.383 Z-1.713 F1016
G2 X-2.264 Y-16.535 Z-1.746 I-1.031 J-4.867
G1 Z-1.3
G2 X-4.969 Y-18.117 I-3.736 J3.285
G1 X-7.88 Y-18.733
Z-1.766 F400
X-38.468 Y-25.21 Z-1.865 F1016
G2 X-53.133 Y-14.749 Z-1.93 I-2.532 J11.96
X-41.454 Y-1.033 Z-1.995 I12.133 J1.499
G1 Z-1.3
G2 X-39.74 Y-1.09 I0.454 J-12.217
X-38.468 Y-1.29 I-1.26 J-12.16 F1200
G1 X-35.557 Y-1.906
Z-2 F400
X-4.969 Y-8.383 F1200
G2 X-2.264 Y-16.535 I-1.031 J-4.867
G1 Z-1.3
G2 X-4.969 Y-18.117 I-3.736 J3.285
G1 X-7.88 Y-18.733
Z-2 F400
X-38.468 Y-25.21 F1200
G2 X-53.133 Y-14.749 I-2.532 J11.96
X-41.454 Y-1.033 I12.133 J1.499
G1 Z-1.3
G2 X-39.74 Y-1.09 I0.454 J-12.217
X-38.468 Y-1.29 I-1.26 J-12.16 F1016
G1 X-35.557 Y-1.906
Z-2.014 F400
X-4.969 Y-8.383 Z-2.113 F1016
G2 X-2.264 Y-16.535 Z-2.146 I-1.031 J-4.867
G1 Z-1.3
G2 X-4.969 Y-18.117 I-3.736 J3.285
G1 X-7.88 Y-18.733
Z-2.166 F400
X-38.468 Y-25.21 Z-2.265 F1016
G2 X-48.663 Y-22.775 Z-2.3 I-2.532 J11.96
X-41.454 Y-1.033 I7.663 J9.525 F1200
G1 Z-1.3
G2 X-38.468 Y-1.29 I0.454 J-12.217
G1 X-35.557 Y-1.906
Z-2.3 F400
X-4.969 Y-8.383 F1200
G2 X-2.264 Y-16.535 I-1.031 J-4.867
G1 Z-1.3
G2 X-4.969 Y-18.117 I-3.736 J3.285
G1 X-7.88 Y-18.733
Z-2.3 F400
X-38.468 Y-25.21 F1200
G2 X-48.663 Y-22.775 I-2.532 J11.96
G3 X-48.938 Y-22.805 I-0.122 J-0.152 F1016
G1 X-49.06 Y-22.957
X-49.091 Y-22.996 Z-2.293
X-49.121 Y-23.033 Z-2.274
X-49.146 Y-23.064 Z-2.243
X-49.166 Y-23.088 Z-2.203
X-49.178 Y-23.103 Z-2.155
X-49.182 Y-23.108 Z-2.105
Z15 F1200
M5
M30
