(1001)
(T5 D=3.175 CR=0 - ZMIN=-4.3 - Schaftfrser)
G90 G94
G17
G21
(-Attention- Property Safe Retracts is set to Clearance Height.)
(Ensure the clearance height will clear the part and or fixtures.)
(Raise the Z-axis to a safe height before starting the program.)
(When using Fusion for Personal Use, the feedrate of rapid)
(moves is reduced to match the feedrate of cutting moves,)
(which can increase machining time. Unrestricted rapid moves)
(are available with a Fusion Subscription.)

(2D-Kontur1)
M0
(MANUAL TOOL CHANGE TO T5)
S6000 M3
G17 G90 G94
G54
G0 X-94.718 Y1.54
Z15
G1 Z5 F1000
Z0.635 F333.3
Z-0.933
G19 G2 Y1.222 Z-1.25 J-0.317 K0 F1000
G1 Y0.905
G17 G3 X-94.401 Y0.587 I0.318 J0
G1 X-1
G2 X0.58 Y-1.154 I0 J-1.587
G1 X0.373 Y-3.286
X0.372 Y-3.295
X0.155 Y-5.411
X0.154 Y-5.419
X-0.073 Y-7.523
Y-7.531
X-0.31 Y-9.628
X-0.311 Y-9.636
X-0.558 Y-11.731
X-0.559 Y-11.739
X-0.817 Y-13.836
X-0.818 Y-13.844
X-1.088 Y-15.948
X-1.089 Y-15.956
X-1.369 Y-18.07
X-1.371 Y-18.081
X-1.96 Y-22.309
X-1.962 Y-22.322
X-2.587 Y-26.546
X-2.588 Y-26.558
X-3.245 Y-30.777
X-3.246 Y-30.788
X-3.931 Y-34.997
X-3.932 Y-35.004
X-4.282 Y-37.093
Y-37.097
X-4.635 Y-39.169
X-4.636 Y-39.173
X-4.991 Y-41.223
X-4.992 Y-41.227
X-5.347 Y-43.25
X-5.348 Y-43.254
X-5.702 Y-45.245
Y-45.248
X-6.054 Y-47.203
X-6.055 Y-47.205
X-6.23 Y-48.167
Y-48.169
X-6.403 Y-49.12
X-6.404 Y-49.121
X-6.576 Y-50.061
Y-50.062
X-6.747 Y-50.99
Y-50.991
X-6.916 Y-51.905
Y-51.907
X-7.084 Y-52.808
Y-52.809
X-7.249 Y-53.696
X-7.413 Y-54.57
X-7.574 Y-55.429
X-7.732 Y-56.272
X-7.888 Y-57.098
X-8.041 Y-57.907
X-8.191 Y-58.698
X-8.338 Y-59.472
X-8.481 Y-60.226
X-8.621 Y-60.961
X-8.757 Y-61.675
X-8.889 Y-62.369
X-9.017 Y-63.042
X-9.141 Y-63.693
G2 X-11.31 Y-64.862 I-1.56 J0.297
G1 X-12.518 Y-64.359
X-12.545 Y-64.348
X-13.737 Y-63.826
X-13.762 Y-63.814
X-14.939 Y-63.274
X-14.963 Y-63.263
X-16.125 Y-62.705
X-16.148 Y-62.694
X-17.295 Y-62.12
X-17.316 Y-62.11
X-18.45 Y-61.521
X-18.469 Y-61.511
X-19.592 Y-60.91
X-19.607 Y-60.902
X-20.72 Y-60.29
X-20.737 Y-60.28
X-22.94 Y-59.034
X-22.951 Y-59.027
X-25.132 Y-57.77
X-27.304 Y-56.526
X-28.383 Y-55.921
X-29.464 Y-55.329
X-30.547 Y-54.755
X-31.633 Y-54.201
X-32.725 Y-53.67
X-33.822 Y-53.165
X-34.926 Y-52.688
X-36.039 Y-52.244
X-37.168 Y-51.831
X-37.727 Y-51.641
X-38.295 Y-51.458
X-38.866 Y-51.285
X-39.439 Y-51.122
X-40.015 Y-50.969
X-40.594 Y-50.826
X-41.176 Y-50.694
X-41.76 Y-50.572
X-42.346 Y-50.462
X-42.935 Y-50.362
X-43.526 Y-50.274
X-44.119 Y-50.198
X-44.713 Y-50.132
X-45.309 Y-50.079
X-45.906 Y-50.037
X-46.503 Y-50.007
X-47.102 Y-49.989
X-47.7 Y-49.983
X-48.299 Y-49.989
X-48.897 Y-50.007
X-49.495 Y-50.037
X-50.092 Y-50.079
X-50.687 Y-50.132
X-51.282 Y-50.198
X-51.874 Y-50.274
X-52.465 Y-50.362
X-53.054 Y-50.462
X-53.641 Y-50.572
X-54.225 Y-50.694
X-54.806 Y-50.826
X-55.385 Y-50.969
X-55.961 Y-51.122
X-56.535 Y-51.285
X-57.105 Y-51.458
X-57.673 Y-51.641
X-58.233 Y-51.831
X-59.361 Y-52.244
X-60.474 Y-52.688
X-61.579 Y-53.165
X-62.676 Y-53.67
X-63.767 Y-54.201
X-64.853 Y-54.755
X-65.936 Y-55.329
X-67.017 Y-55.921
X-68.097 Y-56.526
X-70.268 Y-57.77
X-72.45 Y-59.027
X-72.461 Y-59.034
X-74.663 Y-60.28
X-74.681 Y-60.29
X-75.794 Y-60.902
X-75.809 Y-60.91
X-76.932 Y-61.511
X-76.95 Y-61.521
X-78.085 Y-62.11
X-78.106 Y-62.12
X-79.253 Y-62.694
X-79.276 Y-62.705
X-80.437 Y-63.263
X-80.462 Y-63.274
X-81.638 Y-63.814
X-81.664 Y-63.826
X-82.856 Y-64.348
X-82.882 Y-64.359
X-84.09 Y-64.862
G2 X-86.26 Y-63.692 I-0.61 J1.466
G1 X-86.384 Y-63.042
X-86.512 Y-62.369
X-86.644 Y-61.676
X-86.78 Y-60.961
X-86.919 Y-60.226
X-87.063 Y-59.472
X-87.209 Y-58.699
X-87.359 Y-57.907
X-87.512 Y-57.098
X-87.668 Y-56.272
X-87.827 Y-55.43
X-87.988 Y-54.571
Y-54.57
X-88.151 Y-53.697
X-88.317 Y-52.809
Y-52.808
X-88.484 Y-51.906
X-88.653 Y-50.991
X-88.654 Y-50.99
X-88.824 Y-50.062
X-88.825 Y-50.061
X-88.997 Y-49.121
Y-49.12
X-89.171 Y-48.168
Y-48.167
X-89.346 Y-47.205
Y-47.203
X-89.698 Y-45.248
X-89.699 Y-45.245
X-90.053 Y-43.253
X-90.054 Y-43.25
X-90.409 Y-41.227
X-90.41 Y-41.223
X-90.764 Y-39.173
X-90.765 Y-39.169
X-91.118 Y-37.097
X-91.119 Y-37.093
X-91.469 Y-35.004
X-91.47 Y-34.997
X-92.154 Y-30.788
X-92.156 Y-30.777
X-92.812 Y-26.558
X-92.814 Y-26.546
X-93.438 Y-22.322
X-93.44 Y-22.309
X-94.03 Y-18.081
X-94.031 Y-18.07
X-94.312 Y-15.956
X-94.313 Y-15.948
X-94.582 Y-13.844
X-94.583 Y-13.836
X-94.841 Y-11.739
X-94.842 Y-11.731
X-95.089 Y-9.636
X-95.09 Y-9.628
X-95.327 Y-7.531
X-95.328 Y-7.523
X-95.555 Y-5.419
X-95.556 Y-5.411
X-95.772 Y-3.295
X-95.773 Y-3.286
X-95.981 Y-1.154
G2 X-94.401 Y0.587 I1.58 J0.154
G3 X-94.083 Y0.905 I0 J0.317
G1 Y1.222
G19 G3 Y1.54 Z-0.933 J0 K0.317
G1 Z5
X-94.718
Z-0.615 F333.3
Z-2.183
G2 Y1.222 Z-2.5 J-0.317 K0 F1000
G1 Y0.905
G17 G3 X-94.401 Y0.587 I0.318 J0
G1 X-1
G2 X0.58 Y-1.154 I0 J-1.587
G1 X0.373 Y-3.286
X0.372 Y-3.295
X0.155 Y-5.411
X0.154 Y-5.419
X-0.073 Y-7.523
Y-7.531
X-0.31 Y-9.628
X-0.311 Y-9.636
X-0.558 Y-11.731
X-0.559 Y-11.739
X-0.817 Y-13.836
X-0.818 Y-13.844
X-1.088 Y-15.948
X-1.089 Y-15.956
X-1.369 Y-18.07
X-1.371 Y-18.081
X-1.96 Y-22.309
X-1.962 Y-22.322
X-2.587 Y-26.546
X-2.588 Y-26.558
X-3.245 Y-30.777
X-3.246 Y-30.788
X-3.931 Y-34.997
X-3.932 Y-35.004
X-4.282 Y-37.093
Y-37.097
X-4.635 Y-39.169
X-4.636 Y-39.173
X-4.991 Y-41.223
X-4.992 Y-41.227
X-5.347 Y-43.25
X-5.348 Y-43.254
X-5.702 Y-45.245
Y-45.248
X-6.054 Y-47.203
X-6.055 Y-47.205
X-6.23 Y-48.167
Y-48.169
X-6.403 Y-49.12
X-6.404 Y-49.121
X-6.576 Y-50.061
Y-50.062
X-6.747 Y-50.99
Y-50.991
X-6.916 Y-51.905
Y-51.907
X-7.084 Y-52.808
Y-52.809
X-7.249 Y-53.696
X-7.413 Y-54.57
X-7.574 Y-55.429
X-7.732 Y-56.272
X-7.888 Y-57.098
X-8.041 Y-57.907
X-8.191 Y-58.698
X-8.338 Y-59.472
X-8.481 Y-60.226
X-8.621 Y-60.961
X-8.757 Y-61.675
X-8.889 Y-62.369
X-9.017 Y-63.042
X-9.141 Y-63.693
G2 X-11.31 Y-64.862 I-1.56 J0.297
G1 X-12.518 Y-64.359
X-12.545 Y-64.348
X-13.737 Y-63.826
X-13.762 Y-63.814
X-14.939 Y-63.274
X-14.963 Y-63.263
X-16.125 Y-62.705
X-16.148 Y-62.694
X-17.295 Y-62.12
X-17.316 Y-62.11
X-18.45 Y-61.521
X-18.469 Y-61.511
X-19.592 Y-60.91
X-19.607 Y-60.902
X-20.72 Y-60.29
X-20.737 Y-60.28
X-22.94 Y-59.034
X-22.951 Y-59.027
X-25.132 Y-57.77
X-27.304 Y-56.526
X-28.383 Y-55.921
X-29.464 Y-55.329
X-30.547 Y-54.755
X-31.633 Y-54.201
X-32.725 Y-53.67
X-33.822 Y-53.165
X-34.926 Y-52.688
X-36.039 Y-52.244
X-37.168 Y-51.831
X-37.727 Y-51.641
X-38.295 Y-51.458
X-38.866 Y-51.285
X-39.439 Y-51.122
X-40.015 Y-50.969
X-40.594 Y-50.826
X-41.176 Y-50.694
X-41.76 Y-50.572
X-42.346 Y-50.462
X-42.935 Y-50.362
X-43.526 Y-50.274
X-44.119 Y-50.198
X-44.713 Y-50.132
X-45.309 Y-50.079
X-45.906 Y-50.037
X-46.503 Y-50.007
X-47.102 Y-49.989
X-47.7 Y-49.983
X-48.299 Y-49.989
X-48.897 Y-50.007
X-49.495 Y-50.037
X-50.092 Y-50.079
X-50.687 Y-50.132
X-51.282 Y-50.198
X-51.874 Y-50.274
X-52.465 Y-50.362
X-53.054 Y-50.462
X-53.641 Y-50.572
X-54.225 Y-50.694
X-54.806 Y-50.826
X-55.385 Y-50.969
X-55.961 Y-51.122
X-56.535 Y-51.285
X-57.105 Y-51.458
X-57.673 Y-51.641
X-58.233 Y-51.831
X-59.361 Y-52.244
X-60.474 Y-52.688
X-61.579 Y-53.165
X-62.676 Y-53.67
X-63.767 Y-54.201
X-64.853 Y-54.755
X-65.936 Y-55.329
X-67.017 Y-55.921
X-68.097 Y-56.526
X-70.268 Y-57.77
X-72.45 Y-59.027
X-72.461 Y-59.034
X-74.663 Y-60.28
X-74.681 Y-60.29
X-75.794 Y-60.902
X-75.809 Y-60.91
X-76.932 Y-61.511
X-76.95 Y-61.521
X-78.085 Y-62.11
X-78.106 Y-62.12
X-79.253 Y-62.694
X-79.276 Y-62.705
X-80.437 Y-63.263
X-80.462 Y-63.274
X-81.638 Y-63.814
X-81.664 Y-63.826
X-82.856 Y-64.348
X-82.882 Y-64.359
X-84.09 Y-64.862
G2 X-86.26 Y-63.692 I-0.61 J1.466
G1 X-86.384 Y-63.042
X-86.512 Y-62.369
X-86.644 Y-61.676
X-86.78 Y-60.961
X-86.919 Y-60.226
X-87.063 Y-59.472
X-87.209 Y-58.699
X-87.359 Y-57.907
X-87.512 Y-57.098
X-87.668 Y-56.272
X-87.827 Y-55.43
X-87.988 Y-54.571
Y-54.57
X-88.151 Y-53.697
X-88.317 Y-52.809
Y-52.808
X-88.484 Y-51.906
X-88.653 Y-50.991
X-88.654 Y-50.99
X-88.824 Y-50.062
X-88.825 Y-50.061
X-88.997 Y-49.121
Y-49.12
X-89.171 Y-48.168
Y-48.167
X-89.346 Y-47.205
Y-47.203
X-89.698 Y-45.248
X-89.699 Y-45.245
X-90.053 Y-43.253
X-90.054 Y-43.25
X-90.409 Y-41.227
X-90.41 Y-41.223
X-90.764 Y-39.173
X-90.765 Y-39.169
X-91.118 Y-37.097
X-91.119 Y-37.093
X-91.469 Y-35.004
X-91.47 Y-34.997
X-92.154 Y-30.788
X-92.156 Y-30.777
X-92.812 Y-26.558
X-92.814 Y-26.546
X-93.438 Y-22.322
X-93.44 Y-22.309
X-94.03 Y-18.081
X-94.031 Y-18.07
X-94.312 Y-15.956
X-94.313 Y-15.948
X-94.582 Y-13.844
X-94.583 Y-13.836
X-94.841 Y-11.739
X-94.842 Y-11.731
X-95.089 Y-9.636
X-95.09 Y-9.628
X-95.327 Y-7.531
X-95.328 Y-7.523
X-95.555 Y-5.419
X-95.556 Y-5.411
X-95.772 Y-3.295
X-95.773 Y-3.286
X-95.981 Y-1.154
G2 X-94.401 Y0.587 I1.58 J0.154
G3 X-94.083 Y0.905 I0 J0.317
G1 Y1.222
G19 G3 Y1.54 Z-2.183 J0 K0.318
G1 Z5
X-94.718
Z-1.865 F333.3
Z-3.433
G2 Y1.222 Z-3.75 J-0.317 K0 F1000
G1 Y0.905
G17 G3 X-94.401 Y0.587 I0.318 J0
G1 X-54.253
Z-3.506
X-47.903
Z-3.75 F333.3
X-1 F1000
G2 X0.58 Y-1.154 I0 J-1.587
G1 X0.373 Y-3.286
X0.372 Y-3.295
X0.155 Y-5.411
X0.154 Y-5.419
X-0.073 Y-7.523
Y-7.531
X-0.31 Y-9.628
X-0.311 Y-9.636
X-0.558 Y-11.731
X-0.559 Y-11.739
X-0.817 Y-13.836
X-0.818 Y-13.844
X-1.088 Y-15.948
X-1.089 Y-15.956
X-1.369 Y-18.07
X-1.371 Y-18.081
X-1.96 Y-22.309
X-1.962 Y-22.322
X-2.587 Y-26.546
X-2.588 Y-26.558
X-3.245 Y-30.777
X-3.246 Y-30.788
X-3.931 Y-34.997
X-3.932 Y-35.004
X-4.282 Y-37.093
Y-37.097
X-4.635 Y-39.169
X-4.636 Y-39.173
X-4.991 Y-41.223
X-4.992 Y-41.227
X-5.347 Y-43.25
X-5.348 Y-43.254
X-5.702 Y-45.245
Y-45.248
X-6.054 Y-47.203
X-6.055 Y-47.205
X-6.144 Y-47.694
Z-3.506
X-6.23 Y-48.167
Y-48.169
X-6.403 Y-49.12
X-6.404 Y-49.121
X-6.576 Y-50.061
Y-50.062
X-6.747 Y-50.99
Y-50.991
X-6.916 Y-51.905
Y-51.907
X-7.084 Y-52.808
Y-52.809
X-7.249 Y-53.696
X-7.295 Y-53.939
Z-3.75 F333.3
X-7.413 Y-54.57 F1000
X-7.574 Y-55.429
X-7.732 Y-56.272
X-7.888 Y-57.098
X-8.041 Y-57.907
X-8.191 Y-58.698
X-8.338 Y-59.472
X-8.481 Y-60.226
X-8.621 Y-60.961
X-8.757 Y-61.675
X-8.889 Y-62.369
X-9.017 Y-63.042
X-9.141 Y-63.693
G2 X-11.31 Y-64.862 I-1.56 J0.297
G1 X-12.518 Y-64.359
X-12.545 Y-64.348
X-13.737 Y-63.826
X-13.762 Y-63.814
X-14.939 Y-63.274
X-14.963 Y-63.263
X-16.125 Y-62.705
X-16.148 Y-62.694
X-17.295 Y-62.12
X-17.316 Y-62.11
X-18.45 Y-61.521
X-18.469 Y-61.511
X-19.592 Y-60.91
X-19.607 Y-60.902
X-20.72 Y-60.29
X-20.737 Y-60.28
X-22.94 Y-59.034
X-22.951 Y-59.027
X-25.132 Y-57.77
X-27.304 Y-56.526
X-28.383 Y-55.921
X-29.464 Y-55.329
X-30.547 Y-54.755
X-31.633 Y-54.201
X-32.725 Y-53.67
X-33.822 Y-53.165
X-34.926 Y-52.688
X-36.039 Y-52.244
X-37.168 Y-51.831
X-37.727 Y-51.641
X-38.295 Y-51.458
X-38.866 Y-51.285
X-39.439 Y-51.122
X-40.015 Y-50.969
X-40.594 Y-50.826
X-41.176 Y-50.694
X-41.76 Y-50.572
X-42.346 Y-50.462
X-42.935 Y-50.362
X-43.526 Y-50.274
X-44.119 Y-50.198
X-44.713 Y-50.132
X-45.309 Y-50.079
X-45.906 Y-50.037
X-46.503 Y-50.007
X-47.102 Y-49.989
X-47.7 Y-49.983
X-48.299 Y-49.989
X-48.897 Y-50.007
X-49.495 Y-50.037
X-50.092 Y-50.079
X-50.687 Y-50.132
X-51.282 Y-50.198
X-51.874 Y-50.274
X-52.465 Y-50.362
X-53.054 Y-50.462
X-53.641 Y-50.572
X-54.225 Y-50.694
X-54.806 Y-50.826
X-55.385 Y-50.969
X-55.961 Y-51.122
X-56.535 Y-51.285
X-57.105 Y-51.458
X-57.673 Y-51.641
X-58.233 Y-51.831
X-59.361 Y-52.244
X-60.474 Y-52.688
X-61.579 Y-53.165
X-62.676 Y-53.67
X-63.767 Y-54.201
X-64.853 Y-54.755
X-65.936 Y-55.329
X-67.017 Y-55.921
X-68.097 Y-56.526
X-70.268 Y-57.77
X-72.45 Y-59.027
X-72.461 Y-59.034
X-74.663 Y-60.28
X-74.681 Y-60.29
X-75.794 Y-60.902
X-75.809 Y-60.91
X-76.932 Y-61.511
X-76.95 Y-61.521
X-78.085 Y-62.11
X-78.106 Y-62.12
X-79.253 Y-62.694
X-79.276 Y-62.705
X-80.437 Y-63.263
X-80.462 Y-63.274
X-81.638 Y-63.814
X-81.664 Y-63.826
X-82.856 Y-64.348
X-82.882 Y-64.359
X-84.09 Y-64.862
G2 X-86.26 Y-63.692 I-0.61 J1.466
G1 X-86.384 Y-63.042
X-86.512 Y-62.369
X-86.644 Y-61.676
X-86.78 Y-60.961
X-86.851 Y-60.584
Z-3.506
X-86.919 Y-60.226
X-87.063 Y-59.472
X-87.209 Y-58.699
X-87.359 Y-57.907
X-87.512 Y-57.098
X-87.668 Y-56.272
X-87.827 Y-55.43
X-87.988 Y-54.571
Y-54.57
X-88.03 Y-54.344
Z-3.75 F333.3
X-88.151 Y-53.697 F1000
X-88.317 Y-52.809
Y-52.808
X-88.484 Y-51.906
X-88.653 Y-50.991
X-88.654 Y-50.99
X-88.824 Y-50.062
X-88.825 Y-50.061
X-88.997 Y-49.121
Y-49.12
X-89.171 Y-48.168
Y-48.167
X-89.346 Y-47.205
Y-47.203
X-89.698 Y-45.248
X-89.699 Y-45.245
X-90.053 Y-43.253
X-90.054 Y-43.25
X-90.409 Y-41.227
X-90.41 Y-41.223
X-90.764 Y-39.173
X-90.765 Y-39.169
X-91.118 Y-37.097
X-91.119 Y-37.093
X-91.469 Y-35.004
X-91.47 Y-34.997
X-92.154 Y-30.788
X-92.156 Y-30.777
X-92.812 Y-26.558
X-92.814 Y-26.546
X-93.438 Y-22.322
X-93.44 Y-22.309
X-94.03 Y-18.081
X-94.031 Y-18.07
X-94.312 Y-15.956
X-94.313 Y-15.948
X-94.582 Y-13.844
X-94.583 Y-13.836
X-94.841 Y-11.739
X-94.842 Y-11.731
X-95.089 Y-9.636
X-95.09 Y-9.628
X-95.327 Y-7.531
X-95.328 Y-7.523
X-95.555 Y-5.419
X-95.556 Y-5.411
X-95.772 Y-3.295
X-95.773 Y-3.286
X-95.981 Y-1.154
G2 X-94.401 Y0.587 I1.58 J0.154
G3 X-94.083 Y0.905 I0 J0.317
G1 Y1.222
G19 G3 Y1.54 Z-3.433 J0 K0.318
G1 Z5
X-94.718
Z-3.115 F333.3
Z-3.983
G2 Y1.222 Z-4.3 J-0.317 K0 F1000
G1 Y0.905
G17 G3 X-94.401 Y0.587 I0.318 J0
G1 X-54.253
Z-3.506
X-47.903
Z-4.3 F333.3
X-1 F1000
G2 X0.58 Y-1.154 I0 J-1.587
G1 X0.373 Y-3.286
X0.372 Y-3.295
X0.155 Y-5.411
X0.154 Y-5.419
X-0.073 Y-7.523
Y-7.531
X-0.31 Y-9.628
X-0.311 Y-9.636
X-0.558 Y-11.731
X-0.559 Y-11.739
X-0.817 Y-13.836
X-0.818 Y-13.844
X-1.088 Y-15.948
X-1.089 Y-15.956
X-1.369 Y-18.07
X-1.371 Y-18.081
X-1.96 Y-22.309
X-1.962 Y-22.322
X-2.587 Y-26.546
X-2.588 Y-26.558
X-3.245 Y-30.777
X-3.246 Y-30.788
X-3.931 Y-34.997
X-3.932 Y-35.004
X-4.282 Y-37.093
Y-37.097
X-4.635 Y-39.169
X-4.636 Y-39.173
X-4.991 Y-41.223
X-4.992 Y-41.227
X-5.347 Y-43.25
X-5.348 Y-43.254
X-5.702 Y-45.245
Y-45.248
X-6.054 Y-47.203
X-6.055 Y-47.205
X-6.144 Y-47.694
Z-3.506
X-6.23 Y-48.167
Y-48.169
X-6.403 Y-49.12
X-6.404 Y-49.121
X-6.576 Y-50.061
Y-50.062
X-6.747 Y-50.99
Y-50.991
X-6.916 Y-51.905
Y-51.907
X-7.084 Y-52.808
Y-52.809
X-7.249 Y-53.696
X-7.295 Y-53.939
Z-4.3 F333.3
X-7.413 Y-54.57 F1000
X-7.574 Y-55.429
X-7.732 Y-56.272
X-7.888 Y-57.098
X-8.041 Y-57.907
X-8.191 Y-58.698
X-8.338 Y-59.472
X-8.481 Y-60.226
X-8.621 Y-60.961
X-8.757 Y-61.675
X-8.889 Y-62.369
X-9.017 Y-63.042
X-9.141 Y-63.693
G2 X-11.31 Y-64.862 I-1.56 J0.297
G1 X-12.518 Y-64.359
X-12.545 Y-64.348
X-13.737 Y-63.826
X-13.762 Y-63.814
X-14.939 Y-63.274
X-14.963 Y-63.263
X-16.125 Y-62.705
X-16.148 Y-62.694
X-17.295 Y-62.12
X-17.316 Y-62.11
X-18.45 Y-61.521
X-18.469 Y-61.511
X-19.592 Y-60.91
X-19.607 Y-60.902
X-20.72 Y-60.29
X-20.737 Y-60.28
X-22.94 Y-59.034
X-22.951 Y-59.027
X-25.132 Y-57.77
X-27.304 Y-56.526
X-28.383 Y-55.921
X-29.464 Y-55.329
X-30.547 Y-54.755
X-31.633 Y-54.201
X-32.725 Y-53.67
X-33.822 Y-53.165
X-34.926 Y-52.688
X-36.039 Y-52.244
X-37.168 Y-51.831
X-37.727 Y-51.641
X-38.295 Y-51.458
X-38.866 Y-51.285
X-39.439 Y-51.122
X-40.015 Y-50.969
X-40.594 Y-50.826
X-41.176 Y-50.694
X-41.76 Y-50.572
X-42.346 Y-50.462
X-42.935 Y-50.362
X-43.526 Y-50.274
X-44.119 Y-50.198
X-44.713 Y-50.132
X-45.309 Y-50.079
X-45.906 Y-50.037
X-46.503 Y-50.007
X-47.102 Y-49.989
X-47.7 Y-49.983
X-48.299 Y-49.989
X-48.897 Y-50.007
X-49.495 Y-50.037
X-50.092 Y-50.079
X-50.687 Y-50.132
X-51.282 Y-50.198
X-51.874 Y-50.274
X-52.465 Y-50.362
X-53.054 Y-50.462
X-53.641 Y-50.572
X-54.225 Y-50.694
X-54.806 Y-50.826
X-55.385 Y-50.969
X-55.961 Y-51.122
X-56.535 Y-51.285
X-57.105 Y-51.458
X-57.673 Y-51.641
X-58.233 Y-51.831
X-59.361 Y-52.244
X-60.474 Y-52.688
X-61.579 Y-53.165
X-62.676 Y-53.67
X-63.767 Y-54.201
X-64.853 Y-54.755
X-65.936 Y-55.329
X-67.017 Y-55.921
X-68.097 Y-56.526
X-70.268 Y-57.77
X-72.45 Y-59.027
X-72.461 Y-59.034
X-74.663 Y-60.28
X-74.681 Y-60.29
X-75.794 Y-60.902
X-75.809 Y-60.91
X-76.932 Y-61.511
X-76.95 Y-61.521
X-78.085 Y-62.11
X-78.106 Y-62.12
X-79.253 Y-62.694
X-79.276 Y-62.705
X-80.437 Y-63.263
X-80.462 Y-63.274
X-81.638 Y-63.814
X-81.664 Y-63.826
X-82.856 Y-64.348
X-82.882 Y-64.359
X-84.09 Y-64.862
G2 X-86.26 Y-63.692 I-0.61 J1.466
G1 X-86.384 Y-63.042
X-86.512 Y-62.369
X-86.644 Y-61.676
X-86.78 Y-60.961
X-86.851 Y-60.584
Z-3.506
X-86.919 Y-60.226
X-87.063 Y-59.472
X-87.209 Y-58.699
X-87.359 Y-57.907
X-87.512 Y-57.098
X-87.668 Y-56.272
X-87.827 Y-55.43
X-87.988 Y-54.571
Y-54.57
X-88.03 Y-54.344
Z-4.3 F333.3
X-88.151 Y-53.697 F1000
X-88.317 Y-52.809
Y-52.808
X-88.484 Y-51.906
X-88.653 Y-50.991
X-88.654 Y-50.99
X-88.824 Y-50.062
X-88.825 Y-50.061
X-88.997 Y-49.121
Y-49.12
X-89.171 Y-48.168
Y-48.167
X-89.346 Y-47.205
Y-47.203
X-89.698 Y-45.248
X-89.699 Y-45.245
X-90.053 Y-43.253
X-90.054 Y-43.25
X-90.409 Y-41.227
X-90.41 Y-41.223
X-90.764 Y-39.173
X-90.765 Y-39.169
X-91.118 Y-37.097
X-91.119 Y-37.093
X-91.469 Y-35.004
X-91.47 Y-34.997
X-92.154 Y-30.788
X-92.156 Y-30.777
X-92.812 Y-26.558
X-92.814 Y-26.546
X-93.438 Y-22.322
X-93.44 Y-22.309
X-94.03 Y-18.081
X-94.031 Y-18.07
X-94.312 Y-15.956
X-94.313 Y-15.948
X-94.582 Y-13.844
X-94.583 Y-13.836
X-94.841 Y-11.739
X-94.842 Y-11.731
X-95.089 Y-9.636
X-95.09 Y-9.628
X-95.327 Y-7.531
X-95.328 Y-7.523
X-95.555 Y-5.419
X-95.556 Y-5.411
X-95.772 Y-3.295
X-95.773 Y-3.286
X-95.981 Y-1.154
G2 X-94.401 Y0.587 I1.58 J0.154
G3 X-94.083 Y0.905 I0 J0.317
G1 Y1.222
G19 G3 Y1.54 Z-3.983 J0 K0.318
G1 Z15
G17

M5
M30
