(1001)
G90 G94
G17
G21
(When using Fusion 360 for Personal Use, the feedrate of)
(rapid moves is reduced to match the feedrate of cutting)
(moves, which can increase machining time. Unrestricted rapid)
(moves are available with a Fusion 360 Subscription.)

(Bohrfrasen1)
S6000 M3
G54
G0 X-7.75 Y-9.2
Z15
G1 Z1.683 F1000
Z0
X-7.781 Y-9.231
X-7.777 Y-9.247
X-7.766 Y-9.258
X-7.75 Y-9.262
X-7.72 Y-9.255 Z-0.08
X-7.697 Y-9.233 Z-0.16
X-7.688 Y-9.204 Z-0.24
X-7.693 Y-9.173 Z-0.32
X-7.713 Y-9.149 Z-0.4
X-7.742 Y-9.138 Z-0.48
X-7.773 Y-9.142 Z-0.56
X-7.798 Y-9.16 Z-0.64
X-7.811 Y-9.188 Z-0.72
X-7.809 Y-9.219 Z-0.8
X-7.793 Y-9.246 Z-0.88
X-7.766 Y-9.261 Z-0.96
X-7.734 Z-1.04
X-7.707 Y-9.246 Z-1.12
X-7.691 Y-9.219 Z-1.2
X-7.689 Y-9.188 Z-1.28
X-7.702 Y-9.16 Z-1.36
X-7.727 Y-9.142 Z-1.44
X-7.758 Y-9.138 Z-1.52
X-7.787 Y-9.149 Z-1.6
X-7.807 Y-9.173 Z-1.68
X-7.812 Y-9.204 Z-1.76
X-7.803 Y-9.233 Z-1.84
X-7.78 Y-9.255 Z-1.92
X-7.75 Y-9.262 Z-2
X-7.72 Y-9.255 Z-2.08
X-7.697 Y-9.233 Z-2.16
X-7.688 Y-9.204 Z-2.24
X-7.693 Y-9.173 Z-2.32
X-7.713 Y-9.149 Z-2.4
X-7.742 Y-9.138 Z-2.48
X-7.773 Y-9.142 Z-2.56
X-7.798 Y-9.16 Z-2.64
X-7.811 Y-9.188 Z-2.72
X-7.809 Y-9.219 Z-2.8
X-7.793 Y-9.246 Z-2.88
X-7.766 Y-9.261 Z-2.96
X-7.734 Z-3.04
X-7.707 Y-9.246 Z-3.12
X-7.691 Y-9.219 Z-3.2
G3 X-7.809 Y-9.181 I-0.059 J0.019
X-7.691 Y-9.219 I0.059 J-0.019
G1 X-7.69 Y-9.203
X-7.697 Y-9.189
X-7.711 Y-9.18
X-7.75 Y-9.2
Z5
X-55.15 Y-9.37
Z1.683
Z0
X-55.181 Y-9.401
X-55.177 Y-9.417
X-55.166 Y-9.428
X-55.15 Y-9.432
X-55.12 Y-9.425 Z-0.08
X-55.097 Y-9.403 Z-0.16
X-55.088 Y-9.374 Z-0.24
X-55.093 Y-9.343 Z-0.32
X-55.113 Y-9.319 Z-0.4
X-55.142 Y-9.308 Z-0.48
X-55.173 Y-9.312 Z-0.56
X-55.198 Y-9.33 Z-0.64
X-55.211 Y-9.358 Z-0.72
X-55.209 Y-9.389 Z-0.8
X-55.193 Y-9.416 Z-0.88
X-55.166 Y-9.431 Z-0.96
X-55.134 Z-1.04
X-55.107 Y-9.416 Z-1.12
X-55.091 Y-9.389 Z-1.2
X-55.089 Y-9.358 Z-1.28
X-55.102 Y-9.33 Z-1.36
X-55.127 Y-9.312 Z-1.44
X-55.158 Y-9.308 Z-1.52
X-55.187 Y-9.319 Z-1.6
X-55.207 Y-9.343 Z-1.68
X-55.212 Y-9.374 Z-1.76
X-55.203 Y-9.403 Z-1.84
X-55.18 Y-9.425 Z-1.92
X-55.15 Y-9.433 Z-2
X-55.12 Y-9.425 Z-2.08
X-55.097 Y-9.403 Z-2.16
X-55.088 Y-9.374 Z-2.24
X-55.093 Y-9.343 Z-2.32
X-55.113 Y-9.319 Z-2.4
X-55.142 Y-9.308 Z-2.48
X-55.173 Y-9.312 Z-2.56
X-55.198 Y-9.33 Z-2.64
X-55.211 Y-9.358 Z-2.72
X-55.209 Y-9.389 Z-2.8
X-55.193 Y-9.416 Z-2.88
X-55.166 Y-9.431 Z-2.96
X-55.134 Z-3.04
X-55.107 Y-9.416 Z-3.12
X-55.091 Y-9.389 Z-3.2
G3 X-55.209 Y-9.351 I-0.059 J0.019
X-55.091 Y-9.389 I0.059 J-0.019
G1 X-55.09 Y-9.373
X-55.097 Y-9.359
X-55.111 Y-9.35
X-55.15 Y-9.37
Z5
X-70.11 Y-119.41
Z1.683
Z0
X-70.141 Y-119.441
X-70.137 Y-119.457
X-70.126 Y-119.468
X-70.11 Y-119.473
X-70.08 Y-119.465 Z-0.08
X-70.057 Y-119.443 Z-0.16
X-70.048 Y-119.414 Z-0.24
X-70.053 Y-119.383 Z-0.32
X-70.073 Y-119.359 Z-0.4
X-70.102 Y-119.348 Z-0.48
X-70.133 Y-119.352 Z-0.56
X-70.158 Y-119.37 Z-0.64
X-70.171 Y-119.398 Z-0.72
X-70.169 Y-119.429 Z-0.8
X-70.153 Y-119.456 Z-0.88
X-70.126 Y-119.471 Z-0.96
X-70.094 Z-1.04
X-70.067 Y-119.456 Z-1.12
X-70.051 Y-119.429 Z-1.2
X-70.049 Y-119.398 Z-1.28
X-70.062 Y-119.37 Z-1.36
X-70.087 Y-119.352 Z-1.44
X-70.118 Y-119.348 Z-1.52
X-70.147 Y-119.359 Z-1.6
X-70.167 Y-119.383 Z-1.68
X-70.172 Y-119.414 Z-1.76
X-70.163 Y-119.443 Z-1.84
X-70.14 Y-119.465 Z-1.92
X-70.11 Y-119.472 Z-2
X-70.08 Y-119.465 Z-2.08
X-70.057 Y-119.443 Z-2.16
X-70.048 Y-119.414 Z-2.24
X-70.053 Y-119.383 Z-2.32
X-70.073 Y-119.359 Z-2.4
X-70.102 Y-119.348 Z-2.48
X-70.133 Y-119.352 Z-2.56
X-70.158 Y-119.37 Z-2.64
X-70.171 Y-119.398 Z-2.72
X-70.169 Y-119.429 Z-2.8
X-70.153 Y-119.456 Z-2.88
X-70.126 Y-119.471 Z-2.96
X-70.094 Z-3.04
X-70.067 Y-119.456 Z-3.12
X-70.051 Y-119.429 Z-3.2
G3 X-70.169 Y-119.391 I-0.059 J0.019
X-70.051 Y-119.429 I0.059 J-0.019
G1 X-70.05 Y-119.413
X-70.057 Y-119.399
X-70.071 Y-119.39
X-70.11 Y-119.41
Z5
X-7.4 Y-131.28
Z1.683
Z0
X-7.431 Y-131.311
X-7.427 Y-131.327
X-7.416 Y-131.338
X-7.4 Y-131.342
X-7.37 Y-131.335 Z-0.08
X-7.347 Y-131.313 Z-0.16
X-7.338 Y-131.284 Z-0.24
X-7.343 Y-131.253 Z-0.32
X-7.363 Y-131.229 Z-0.4
X-7.392 Y-131.218 Z-0.48
X-7.423 Y-131.222 Z-0.56
X-7.448 Y-131.24 Z-0.64
X-7.461 Y-131.268 Z-0.72
X-7.459 Y-131.299 Z-0.8
X-7.443 Y-131.326 Z-0.88
X-7.416 Y-131.341 Z-0.96
X-7.384 Z-1.04
X-7.357 Y-131.326 Z-1.12
X-7.341 Y-131.299 Z-1.2
X-7.339 Y-131.268 Z-1.28
X-7.352 Y-131.24 Z-1.36
X-7.377 Y-131.222 Z-1.44
X-7.408 Y-131.218 Z-1.52
X-7.437 Y-131.229 Z-1.6
X-7.457 Y-131.253 Z-1.68
X-7.462 Y-131.284 Z-1.76
X-7.453 Y-131.313 Z-1.84
X-7.43 Y-131.335 Z-1.92
X-7.4 Y-131.342 Z-2
X-7.37 Y-131.335 Z-2.08
X-7.347 Y-131.313 Z-2.16
X-7.338 Y-131.284 Z-2.24
X-7.343 Y-131.253 Z-2.32
X-7.363 Y-131.229 Z-2.4
X-7.392 Y-131.218 Z-2.48
X-7.423 Y-131.222 Z-2.56
X-7.448 Y-131.24 Z-2.64
X-7.461 Y-131.268 Z-2.72
X-7.459 Y-131.299 Z-2.8
X-7.443 Y-131.326 Z-2.88
X-7.416 Y-131.341 Z-2.96
X-7.384 Z-3.04
X-7.357 Y-131.326 Z-3.12
X-7.341 Y-131.299 Z-3.2
G3 X-7.459 Y-131.261 I-0.059 J0.019
X-7.341 Y-131.299 I0.059 J-0.019
G1 X-7.34 Y-131.283
X-7.347 Y-131.269
X-7.361 Y-131.26
X-7.4 Y-131.28
Z15
(When using Fusion 360 for Personal Use, the feedrate of)
(rapid moves is reduced to match the feedrate of cutting)
(moves, which can increase machining time. Unrestricted rapid)
(moves are available with a Fusion 360 Subscription.)

(2D-Kontur1)
G0 X-24.063 Y-61.646
G1 Z15 F1000
Z5
Z1.5 F333.3
Z1
S5000
Y-82.113 Z0.285
X-22.737 Z0.239
Y-60.95 Z-0.5
S6000
Y-60.287 F1000
X-24.063
Y-82.113
X-22.737
Y-60.95
S5000
Y-60.287 Z-0.523 F333.3
X-24.063 Z-0.569
Y-72.618 Z-1
S6000
Y-82.113 F1000
X-22.737
Y-60.95
Y-60.287
X-24.063
Y-72.618
S5000
Y-82.113 Z-1.332 F333.3
X-22.737 Z-1.378
Y-78.614 Z-1.5
S6000
Y-60.287 F1000
X-24.063
Y-72.618
Y-82.113
X-22.737
Y-78.614
S5000
Y-64.296 Z-2 F333.3
S6000
Y-60.287 F1000
X-24.063
Y-82.113
X-22.737
Y-64.296
S5000
Y-60.287 Z-2.14 F333.3
X-24.063 Z-2.186
Y-69.273 Z-2.5
S6000
Y-82.113 F1000
X-22.737
Y-64.296
Y-60.287
X-24.063
Y-69.273
S5000
Y-82.113 Z-2.948 F333.3
X-22.737 Z-2.995
Y-81.959 Z-3
S6000
Y-60.287 F1000
X-24.063
Y-82.113
X-22.737
Y-81.959
S5000
Y-76.232 Z-3.2 F333.3
S6000
Y-60.287 F1000
X-24.063
Y-82.113
X-22.737
Y-76.232
Z5
X-26.984 Y-108.09
Z1.5 F333.3
Z1
S5000
X-18.15 Y-92.787 Z0.383
X-18.483 Z0.371
X-30.959 Y-114.396 Z-0.5
S6000
X-31.084 Y-114.613 F1000
X-30.75
X-18.15 Y-92.787
X-18.483
X-30.959 Y-114.396
S5000
X-31.084 Y-114.613 Z-0.509 F333.3
X-30.75 Z-0.52
X-23.883 Y-102.719 Z-1
S6000
X-18.15 Y-92.787 F1000
X-18.483
X-30.959 Y-114.396
X-31.084 Y-114.613
X-30.75
X-23.883 Y-102.719
S5000
X-18.15 Y-92.787 Z-1.4 F333.3
X-18.483 Z-1.412
X-19.742 Y-94.967 Z-1.5
S6000
X-31.084 Y-114.613 F1000
X-30.75
X-23.883 Y-102.719
X-18.15 Y-92.787
X-18.483
X-19.742 Y-94.967
S5000
X-26.901 Y-107.367 Z-2 F333.3
S6000
X-31.084 Y-114.613 F1000
X-30.75
X-18.15 Y-92.787
X-18.483
X-26.901 Y-107.367
S5000
X-31.084 Y-114.613 Z-2.292 F333.3
X-30.75 Z-2.304
X-27.941 Y-109.747 Z-2.5
S6000
X-18.15 Y-92.787 F1000
X-18.483
X-26.901 Y-107.367
X-31.084 Y-114.613
X-30.75
X-27.941 Y-109.747
S5000
X-20.782 Y-97.347 Z-3 F333.3
S6000
X-18.15 Y-92.787 F1000
X-18.483
X-31.084 Y-114.613
X-30.75
X-20.782 Y-97.347
S5000
X-18.15 Y-92.787 Z-3.184 F333.3
X-18.483 Z-3.196
X-18.548 Y-92.898 Z-3.2
S6000
X-31.084 Y-114.613 F1000
X-30.75
X-20.782 Y-97.347
X-18.15 Y-92.787
X-18.483
X-18.548 Y-92.898
Z5
X-13.1 Y-99.744
Z1.5 F333.3
Z1
S5000
X-21.684 Y-114.613 Z0.4
X-21.35 Z0.389
X-8.75 Y-92.787 Z-0.491
X-9 Z-0.5
S6000
X-9.083 F1000
X-21.684 Y-114.613
X-21.35
X-8.75 Y-92.787
X-9
S5000
X-9.083 Z-0.503 F333.3
X-16.201 Y-105.115 Z-1
S6000
X-21.684 Y-114.613 F1000
X-21.35
X-8.75 Y-92.787
X-9
X-9.083
X-16.201 Y-105.115
S5000
X-21.684 Y-114.613 Z-1.383 F333.3
X-21.35 Z-1.395
X-19.842 Y-111.999 Z-1.5
S6000
X-8.75 Y-92.787 F1000
X-9.083
X-16.201 Y-105.115
X-21.684 Y-114.613
X-21.35
X-19.842 Y-111.999
S5000
X-12.682 Y-99.599 Z-2 F333.3
S6000
X-8.75 Y-92.787 F1000
X-9.083
X-21.684 Y-114.613
X-21.35
X-12.682 Y-99.599
S5000
X-8.75 Y-92.787 Z-2.275 F333.3
X-9.083 Z-2.286
X-12.143 Y-98.086 Z-2.5
S6000
X-21.684 Y-114.613 F1000
X-21.35
X-12.682 Y-99.599
X-8.75 Y-92.787
X-9.083
X-12.143 Y-98.086
S5000
X-19.302 Y-110.486 Z-3 F333.3
S6000
X-21.684 Y-114.613 F1000
X-21.35
X-8.75 Y-92.787
X-9.083
X-19.302 Y-110.486
S5000
X-21.684 Y-114.613 Z-3.166 F333.3
X-21.35 Z-3.178
X-21.036 Y-114.068 Z-3.2
S6000
X-8.75 Y-92.787 F1000
X-9.083
X-19.302 Y-110.486
X-21.684 Y-114.613
X-21.35
X-21.036 Y-114.068
Z5
X-31.649 Y-99.31
Z1.5 F333.3
Z1
S5000
X-40.484 Y-114.613 Z0.383
X-40.15 Z0.371
X-27.675 Y-93.004 Z-0.5
S6000
X-27.55 Y-92.787 F1000
X-27.883
X-40.484 Y-114.613
X-40.15
X-27.675 Y-93.004
S5000
X-27.55 Y-92.787 Z-0.509 F333.3
X-27.883 Z-0.52
X-34.75 Y-104.681 Z-1
S6000
X-40.484 Y-114.613 F1000
X-40.15
X-27.675 Y-93.004
X-27.55 Y-92.787
X-27.883
X-34.75 Y-104.681
S5000
X-40.484 Y-114.613 Z-1.4 F333.3
X-40.15 Z-1.412
X-38.892 Y-112.433 Z-1.5
S6000
X-27.55 Y-92.787 F1000
X-27.883
X-34.75 Y-104.681
X-40.484 Y-114.613
X-40.15
X-38.892 Y-112.433
S5000
X-31.733 Y-100.033 Z-2 F333.3
S6000
X-27.55 Y-92.787 F1000
X-27.883
X-40.484 Y-114.613
X-40.15
X-31.733 Y-100.033
S5000
X-27.55 Y-92.787 Z-2.292 F333.3
X-27.883 Z-2.304
X-30.692 Y-97.653 Z-2.5
S6000
X-40.484 Y-114.613 F1000
X-40.15
X-31.733 Y-100.033
X-27.55 Y-92.787
X-27.883
X-30.692 Y-97.653
S5000
X-37.852 Y-110.053 Z-3 F333.3
S6000
X-40.484 Y-114.613 F1000
X-40.15
X-27.55 Y-92.787
X-27.883
X-37.852 Y-110.053
S5000
X-40.484 Y-114.613 Z-3.184 F333.3
X-40.15 Z-3.196
X-40.086 Y-114.502 Z-3.2
S6000
X-27.55 Y-92.787 F1000
X-27.883
X-37.852 Y-110.053
X-40.484 Y-114.613
X-40.15
X-40.086 Y-114.502
Z5
X-45.784 Y-108.09
Z1.5 F333.3
Z1
S5000
X-36.95 Y-92.787 Z0.383
X-37.283 Z0.371
X-49.759 Y-114.396 Z-0.5
S6000
X-49.884 Y-114.613 F1000
X-49.55
X-36.95 Y-92.787
X-37.283
X-49.759 Y-114.396
S5000
X-49.884 Y-114.613 Z-0.509 F333.3
X-49.55 Z-0.52
X-42.683 Y-102.719 Z-1
S6000
X-36.95 Y-92.787 F1000
X-37.283
X-49.759 Y-114.396
X-49.884 Y-114.613
X-49.55
X-42.683 Y-102.719
S5000
X-36.95 Y-92.787 Z-1.4 F333.3
X-37.283 Z-1.412
X-38.542 Y-94.967 Z-1.5
S6000
X-49.884 Y-114.613 F1000
X-49.55
X-42.683 Y-102.719
X-36.95 Y-92.787
X-37.283
X-38.542 Y-94.967
S5000
X-45.701 Y-107.367 Z-2 F333.3
S6000
X-49.884 Y-114.613 F1000
X-49.55
X-36.95 Y-92.787
X-37.283
X-45.701 Y-107.367
S5000
X-49.884 Y-114.613 Z-2.292 F333.3
X-49.55 Z-2.304
X-46.741 Y-109.747 Z-2.5
S6000
X-36.95 Y-92.787 F1000
X-37.283
X-45.701 Y-107.367
X-49.884 Y-114.613
X-49.55
X-46.741 Y-109.747
S5000
X-39.582 Y-97.347 Z-3 F333.3
S6000
X-36.95 Y-92.787 F1000
X-37.283
X-49.884 Y-114.613
X-49.55
X-39.582 Y-97.347
S5000
X-36.95 Y-92.787 Z-3.184 F333.3
X-37.283 Z-3.196
X-37.348 Y-92.898 Z-3.2
S6000
X-49.884 Y-114.613 F1000
X-49.55
X-39.582 Y-97.347
X-36.95 Y-92.787
X-37.283
X-37.348 Y-92.898
Z5
X-50.449 Y-99.31
Z1.5 F333.3
Z1
S5000
X-59.284 Y-114.613 Z0.383
X-58.95 Z0.371
X-46.475 Y-93.004 Z-0.5
S6000
X-46.35 Y-92.787 F1000
X-46.683
X-59.284 Y-114.613
X-58.95
X-46.475 Y-93.004
S5000
X-46.35 Y-92.787 Z-0.509 F333.3
X-46.683 Z-0.52
X-53.55 Y-104.681 Z-1
S6000
X-59.284 Y-114.613 F1000
X-58.95
X-46.475 Y-93.004
X-46.35 Y-92.787
X-46.683
X-53.55 Y-104.681
S5000
X-59.284 Y-114.613 Z-1.4 F333.3
X-58.95 Z-1.412
X-57.692 Y-112.433 Z-1.5
S6000
X-46.35 Y-92.787 F1000
X-46.683
X-53.55 Y-104.681
X-59.284 Y-114.613
X-58.95
X-57.692 Y-112.433
S5000
X-50.533 Y-100.033 Z-2 F333.3
S6000
X-46.35 Y-92.787 F1000
X-46.683
X-59.284 Y-114.613
X-58.95
X-50.533 Y-100.033
S5000
X-46.35 Y-92.787 Z-2.292 F333.3
X-46.683 Z-2.304
X-49.492 Y-97.653 Z-2.5
S6000
X-59.284 Y-114.613 F1000
X-58.95
X-50.533 Y-100.033
X-46.35 Y-92.787
X-46.683
X-49.492 Y-97.653
S5000
X-56.652 Y-110.053 Z-3 F333.3
S6000
X-59.284 Y-114.613 F1000
X-58.95
X-46.35 Y-92.787
X-46.683
X-56.652 Y-110.053
S5000
X-59.284 Y-114.613 Z-3.184 F333.3
X-58.95 Z-3.196
X-58.886 Y-114.502 Z-3.2
S6000
X-46.35 Y-92.787 F1000
X-46.683
X-56.652 Y-110.053
X-59.284 Y-114.613
X-58.95
X-58.886 Y-114.502
Z5
X-59.849 Y-99.31
Z1.5 F333.3
Z1
S5000
X-68.684 Y-114.613 Z0.383
X-68.35 Z0.371
X-55.875 Y-93.004 Z-0.5
S6000
X-55.75 Y-92.787 F1000
X-56.083
X-68.684 Y-114.613
X-68.35
X-55.875 Y-93.004
S5000
X-55.75 Y-92.787 Z-0.509 F333.3
X-56.083 Z-0.52
X-62.95 Y-104.681 Z-1
S6000
X-68.684 Y-114.613 F1000
X-68.35
X-55.875 Y-93.004
X-55.75 Y-92.787
X-56.083
X-62.95 Y-104.681
S5000
X-68.684 Y-114.613 Z-1.4 F333.3
X-68.35 Z-1.412
X-67.092 Y-112.433 Z-1.5
S6000
X-55.75 Y-92.787 F1000
X-56.083
X-62.95 Y-104.681
X-68.684 Y-114.613
X-68.35
X-67.092 Y-112.433
S5000
X-59.933 Y-100.033 Z-2 F333.3
S6000
X-55.75 Y-92.787 F1000
X-56.083
X-68.684 Y-114.613
X-68.35
X-59.933 Y-100.033
S5000
X-55.75 Y-92.787 Z-2.292 F333.3
X-56.083 Z-2.304
X-58.892 Y-97.653 Z-2.5
S6000
X-68.684 Y-114.613 F1000
X-68.35
X-59.933 Y-100.033
X-55.75 Y-92.787
X-56.083
X-58.892 Y-97.653
S5000
X-66.052 Y-110.053 Z-3 F333.3
S6000
X-68.684 Y-114.613 F1000
X-68.35
X-55.75 Y-92.787
X-56.083
X-66.052 Y-110.053
S5000
X-68.684 Y-114.613 Z-3.184 F333.3
X-68.35 Z-3.196
X-68.286 Y-114.502 Z-3.2
S6000
X-55.75 Y-92.787 F1000
X-56.083
X-66.052 Y-110.053
X-68.684 Y-114.613
X-68.35
X-68.286 Y-114.502
Z5
X-70.563 Y-64.296
Z1.5 F333.3
Z1
S5000
Y-82.113 Z0.378
X-69.238 Z0.332
Y-60.287 Z-0.431
X-70.563 Z-0.477
Y-60.95 Z-0.5
S6000
Y-82.113 F1000
X-69.238
Y-60.287
X-70.563
Y-60.95
S5000
Y-75.268 Z-1 F333.3
S6000
Y-82.113 F1000
X-69.238
Y-60.287
X-70.563
Y-75.268
S5000
Y-82.113 Z-1.239 F333.3
X-69.238 Z-1.285
Y-75.964 Z-1.5
S6000
Y-60.287 F1000
X-70.563
Y-75.268
Y-82.113
X-69.238
Y-75.964
S5000
Y-61.646 Z-2 F333.3
S6000
Y-60.287 F1000
X-70.563
Y-82.113
X-69.238
Y-61.646
S5000
Y-60.287 Z-2.047 F333.3
X-70.563 Z-2.094
Y-71.923 Z-2.5
S6000
Y-82.113 F1000
X-69.238
Y-61.646
Y-60.287
X-70.563
Y-71.923
S5000
Y-82.113 Z-2.856 F333.3
X-69.238 Z-2.902
Y-79.309 Z-3
S6000
Y-60.287 F1000
X-70.563
Y-71.923
Y-82.113
X-69.238
Y-79.309
S5000
Y-73.582 Z-3.2 F333.3
S6000
Y-60.287 F1000
X-70.563
Y-82.113
X-69.238
Y-73.582
Z5
X-64.751 Y-34.599
Z1.5 F333.3
Z1
S5000
X-56.083 Y-49.612 Z0.395
X-55.75 Z0.383
X-68.35 Y-27.788 Z-0.497
X-68.434 Z-0.5
S6000
X-68.684 F1000
X-56.083 Y-49.612
X-55.75
X-68.35 Y-27.788
X-68.434
S5000
X-68.684 Z-0.509 F333.3
X-61.65 Y-39.971 Z-1
S6000
X-56.083 Y-49.612 F1000
X-55.75
X-68.35 Y-27.788
X-68.684
X-61.65 Y-39.971
S5000
X-56.083 Y-49.612 Z-1.389 F333.3
X-55.75 Z-1.4
X-57.175 Y-47.144 Z-1.5
S6000
X-68.35 Y-27.788 F1000
X-68.684
X-61.65 Y-39.971
X-56.083 Y-49.612
X-55.75
X-57.175 Y-47.144
S5000
X-64.334 Y-34.744 Z-2 F333.3
S6000
X-68.35 Y-27.788 F1000
X-68.684
X-56.083 Y-49.612
X-55.75
X-64.334 Y-34.744
S5000
X-68.35 Y-27.788 Z-2.281 F333.3
X-68.684 Z-2.292
X-65.708 Y-32.942 Z-2.5
S6000
X-56.083 Y-49.612 F1000
X-55.75
X-64.334 Y-34.744
X-68.35 Y-27.788
X-68.684
X-65.708 Y-32.942
S5000
X-58.549 Y-45.342 Z-3 F333.3
S6000
X-56.083 Y-49.612 F1000
X-55.75
X-68.35 Y-27.788
X-68.684
X-58.549 Y-45.342
S5000
X-56.083 Y-49.612 Z-3.172 F333.3
X-55.75 Z-3.184
X-55.981 Y-49.212 Z-3.2
S6000
X-68.35 Y-27.788 F1000
X-68.684
X-58.549 Y-45.342
X-56.083 Y-49.612
X-55.75
X-55.981 Y-49.212
Z5
X-50.533 Y-42.367
Z1.5 F333.3
Z1
S5000
X-58.95 Y-27.788 Z0.412
X-59.284 Z0.4
X-46.683 Y-49.612 Z-0.48
X-46.35 Z-0.491
X-46.475 Y-49.396 Z-0.5
S6000
X-58.95 Y-27.788 F1000
X-59.284
X-46.683 Y-49.612
X-46.35
X-46.475 Y-49.396
S5000
X-53.634 Y-36.996 Z-1 F333.3
S6000
X-58.95 Y-27.788 F1000
X-59.284
X-46.683 Y-49.612
X-46.35
X-53.634 Y-36.996
S5000
X-58.95 Y-27.788 Z-1.371 F333.3
X-59.284 Z-1.383
X-57.608 Y-30.69 Z-1.5
S6000
X-46.683 Y-49.612 F1000
X-46.35
X-53.634 Y-36.996
X-58.95 Y-27.788
X-59.284
X-57.608 Y-30.69
S5000
X-50.449 Y-43.09 Z-2 F333.3
S6000
X-46.683 Y-49.612 F1000
X-46.35
X-58.95 Y-27.788
X-59.284
X-50.449 Y-43.09
S5000
X-46.683 Y-49.612 Z-2.263 F333.3
X-46.35 Z-2.275
X-49.576 Y-44.024 Z-2.5
S6000
X-58.95 Y-27.788 F1000
X-59.284
X-50.449 Y-43.09
X-46.683 Y-49.612
X-46.35
X-49.576 Y-44.024
S5000
X-56.735 Y-31.625 Z-3 F333.3
S6000
X-58.95 Y-27.788 F1000
X-59.284
X-46.683 Y-49.612
X-46.35
X-56.735 Y-31.625
S5000
X-58.95 Y-27.788 Z-3.155 F333.3
X-59.284 Z-3.166
X-58.803 Y-28.621 Z-3.2
S6000
X-46.683 Y-49.612 F1000
X-46.35
X-56.735 Y-31.625
X-58.95 Y-27.788
X-59.284
X-58.803 Y-28.621
Z5
X-45.701 Y-35.033
Z1.5 F333.3
Z1
S5000
X-37.283 Y-49.612 Z0.412
X-36.95 Z0.4
X-49.55 Y-27.788 Z-0.48
X-49.884 Z-0.491
X-49.759 Y-28.004 Z-0.5
S6000
X-37.283 Y-49.612 F1000
X-36.95
X-49.55 Y-27.788
X-49.884
X-49.759 Y-28.004
S5000
X-42.6 Y-40.404 Z-1 F333.3
S6000
X-37.283 Y-49.612 F1000
X-36.95
X-49.55 Y-27.788
X-49.884
X-42.6 Y-40.404
S5000
X-37.283 Y-49.612 Z-1.371 F333.3
X-36.95 Z-1.383
X-38.625 Y-46.71 Z-1.5
S6000
X-49.55 Y-27.788 F1000
X-49.884
X-42.6 Y-40.404
X-37.283 Y-49.612
X-36.95
X-38.625 Y-46.71
S5000
X-45.784 Y-34.31 Z-2 F333.3
S6000
X-49.55 Y-27.788 F1000
X-49.884
X-37.283 Y-49.612
X-36.95
X-45.784 Y-34.31
S5000
X-49.55 Y-27.788 Z-2.263 F333.3
X-49.884 Z-2.275
X-46.658 Y-33.376 Z-2.5
S6000
X-37.283 Y-49.612 F1000
X-36.95
X-45.784 Y-34.31
X-49.55 Y-27.788
X-49.884
X-46.658 Y-33.376
S5000
X-39.499 Y-45.775 Z-3 F333.3
S6000
X-37.283 Y-49.612 F1000
X-36.95
X-49.55 Y-27.788
X-49.884
X-39.499 Y-45.775
S5000
X-37.283 Y-49.612 Z-3.155 F333.3
X-36.95 Z-3.166
X-37.431 Y-48.779 Z-3.2
S6000
X-49.55 Y-27.788 F1000
X-49.884
X-39.499 Y-45.775
X-37.283 Y-49.612
X-36.95
X-37.431 Y-48.779
Z5
X-36.301 Y-35.033
Z1.5 F333.3
Z1
S5000
X-27.883 Y-49.612 Z0.412
X-27.55 Z0.4
X-40.15 Y-27.788 Z-0.48
X-40.484 Z-0.491
X-40.359 Y-28.004 Z-0.5
S6000
X-27.883 Y-49.612 F1000
X-27.55
X-40.15 Y-27.788
X-40.484
X-40.359 Y-28.004
S5000
X-33.2 Y-40.404 Z-1 F333.3
S6000
X-27.883 Y-49.612 F1000
X-27.55
X-40.15 Y-27.788
X-40.484
X-33.2 Y-40.404
S5000
X-27.883 Y-49.612 Z-1.371 F333.3
X-27.55 Z-1.383
X-29.225 Y-46.71 Z-1.5
S6000
X-40.15 Y-27.788 F1000
X-40.484
X-33.2 Y-40.404
X-27.883 Y-49.612
X-27.55
X-29.225 Y-46.71
S5000
X-36.384 Y-34.31 Z-2 F333.3
S6000
X-40.15 Y-27.788 F1000
X-40.484
X-27.883 Y-49.612
X-27.55
X-36.384 Y-34.31
S5000
X-40.15 Y-27.788 Z-2.263 F333.3
X-40.484 Z-2.275
X-37.258 Y-33.376 Z-2.5
S6000
X-27.883 Y-49.612 F1000
X-27.55
X-36.384 Y-34.31
X-40.15 Y-27.788
X-40.484
X-37.258 Y-33.376
S5000
X-30.099 Y-45.775 Z-3 F333.3
S6000
X-27.883 Y-49.612 F1000
X-27.55
X-40.15 Y-27.788
X-40.484
X-30.099 Y-45.775
S5000
X-27.883 Y-49.612 Z-3.155 F333.3
X-27.55 Z-3.166
X-28.031 Y-48.779 Z-3.2
S6000
X-40.15 Y-27.788 F1000
X-40.484
X-30.099 Y-45.775
X-27.883 Y-49.612
X-27.55
X-28.031 Y-48.779
Z5
X-21.999 Y-42.945
Z1.5 F333.3
Z1
S5000
X-30.75 Y-27.788 Z0.389
X-31.084 Z0.377
X-18.525 Y-49.54 Z-0.5
S6000
X-18.483 Y-49.612 F1000
X-18.15
X-30.75 Y-27.788
X-31.084
X-18.525 Y-49.54
S5000
X-18.483 Y-49.612 Z-0.503 F333.3
X-18.15 Z-0.515
X-25.1 Y-37.574 Z-1
S6000
X-30.75 Y-27.788 F1000
X-31.084
X-18.525 Y-49.54
X-18.483 Y-49.612
X-18.15
X-25.1 Y-37.574
S5000
X-30.75 Y-27.788 Z-1.395 F333.3
X-31.084 Z-1.406
X-29.742 Y-30.112 Z-1.5
S6000
X-18.483 Y-49.612 F1000
X-18.15
X-25.1 Y-37.574
X-30.75 Y-27.788
X-31.084
X-29.742 Y-30.112
S5000
X-22.583 Y-42.512 Z-2 F333.3
S6000
X-18.483 Y-49.612 F1000
X-18.15
X-30.75 Y-27.788
X-31.084
X-22.583 Y-42.512
S5000
X-18.483 Y-49.612 Z-2.286 F333.3
X-18.15 Z-2.298
X-21.042 Y-44.603 Z-2.5
S6000
X-30.75 Y-27.788 F1000
X-31.084
X-22.583 Y-42.512
X-18.483 Y-49.612
X-18.15
X-21.042 Y-44.603
S5000
X-28.201 Y-32.203 Z-3 F333.3
S6000
X-30.75 Y-27.788 F1000
X-31.084
X-18.483 Y-49.612
X-18.15
X-28.201 Y-32.203
S5000
X-30.75 Y-27.788 Z-3.178 F333.3
X-31.084 Z-3.19
X-30.937 Y-28.043 Z-3.2
S6000
X-18.483 Y-49.612 F1000
X-18.15
X-28.201 Y-32.203
X-30.75 Y-27.788
X-31.084
X-30.937 Y-28.043
Z5
X-12.682 Y-42.801
Z1.5 F333.3
Z1
S5000
X-21.35 Y-27.788 Z0.395
X-21.684 Z0.383
X-9.083 Y-49.612 Z-0.497
X-9 Z-0.5
S6000
X-8.75 F1000
X-21.35 Y-27.788
X-21.684
X-9.083 Y-49.612
X-9
S5000
X-8.75 Z-0.509 F333.3
X-15.784 Y-37.429 Z-1
S6000
X-21.35 Y-27.788 F1000
X-21.684
X-9.083 Y-49.612
X-8.75
X-15.784 Y-37.429
S5000
X-21.35 Y-27.788 Z-1.389 F333.3
X-21.684 Z-1.4
X-20.259 Y-30.256 Z-1.5
S6000
X-9.083 Y-49.612 F1000
X-8.75
X-15.784 Y-37.429
X-21.35 Y-27.788
X-21.684
X-20.259 Y-30.256
S5000
X-13.1 Y-42.656 Z-2 F333.3
S6000
X-9.083 Y-49.612 F1000
X-8.75
X-21.35 Y-27.788
X-21.684
X-13.1 Y-42.656
S5000
X-9.083 Y-49.612 Z-2.281 F333.3
X-8.75 Z-2.292
X-11.726 Y-44.458 Z-2.5
S6000
X-21.35 Y-27.788 F1000
X-21.684
X-13.1 Y-42.656
X-9.083 Y-49.612
X-8.75
X-11.726 Y-44.458
S5000
X-18.885 Y-32.058 Z-3 F333.3
S6000
X-21.35 Y-27.788 F1000
X-21.684
X-9.083 Y-49.612
X-8.75
X-18.885 Y-32.058
S5000
X-21.35 Y-27.788 Z-3.172 F333.3
X-21.684 Z-3.184
X-21.453 Y-28.188 Z-3.2
S6000
X-9.083 Y-49.612 F1000
X-8.75
X-18.885 Y-32.058
X-21.35 Y-27.788
X-21.684
X-21.453 Y-28.188
Z5
X-13.116 Y-15.129
Z1.5 F333.3
Z1
S5000
X-13.658 Y-14.587 Z0.973
X-24.913 Z0.58
Y-19.612 Z0.405
X-13.658 Z0.012
X-12.587 Y-18.542 Z-0.041
Y-15.658 Z-0.142
X-13.658 Y-14.587 Z-0.195
X-22.4 Z-0.5
S6000
X-24.913 F1000
Y-19.612
X-13.658
X-12.587 Y-18.542
Y-15.658
X-13.658 Y-14.587
X-22.4
S5000
X-24.913 Z-0.588 F333.3
Y-19.612 Z-0.763
X-18.132 Z-1
S6000
X-13.658 F1000
X-12.587 Y-18.542
Y-15.658
X-13.658 Y-14.587
X-22.4
X-24.913
Y-19.612
X-18.132
S5000
X-13.658 Z-1.156 F333.3
X-12.587 Y-18.542 Z-1.209
Y-15.658 Z-1.31
X-13.658 Y-14.587 Z-1.363
X-17.59 Z-1.5
S6000
X-24.913 F1000
Y-19.612
X-18.132
X-13.658
X-12.587 Y-18.542
Y-15.658
X-13.658 Y-14.587
X-17.59
S5000
X-24.913 Z-1.756 F333.3
Y-19.612 Z-1.931
X-22.942 Z-2
S6000
X-13.658 F1000
X-12.587 Y-18.542
Y-15.658
X-13.658 Y-14.587
X-24.913
Y-19.612
X-22.942
S5000
X-13.658 Z-2.324 F333.3
X-12.587 Y-18.542 Z-2.377
Y-15.658 Z-2.478
X-13.037 Y-15.208 Z-2.5
S6000
X-13.658 Y-14.587 F1000
X-24.913
Y-19.612
X-13.658
X-12.587 Y-18.542
Y-15.658
X-13.037 Y-15.208
S5000
X-13.658 Y-14.587 Z-2.531 F333.3
X-24.913 Z-2.924
Y-16.773 Z-3
S6000
Y-19.612 F1000
X-13.658
X-12.587 Y-18.542
Y-15.658
X-13.658 Y-14.587
X-24.913
Y-16.773
S5000
Y-19.612 Z-3.099 F333.3
X-22.025 Z-3.2
S6000
X-13.658 F1000
X-12.587 Y-18.542
Y-15.658
X-13.658 Y-14.587
X-24.913
Y-19.612
X-22.025
Z15
(When using Fusion 360 for Personal Use, the feedrate of)
(rapid moves is reduced to match the feedrate of cutting)
(moves, which can increase machining time. Unrestricted rapid)
(moves are available with a Fusion 360 Subscription.)

(2D-Kontur2)
G0 X-60.782 Y-142.988
G1 Z15 F1000
Z5
Z2.5 F333.3
S5000
X-71.6 Z2.122
G2 X-77.387 Y-137.2 Z1.805 I0 J5.788
G1 Y-71.2 Z-0.5
S6000
Y-5.2 F1000
G2 X-71.6 Y0.587 I5.787 J0
G1 X-5.2
G2 X0.587 Y-5.2 I0 J-5.787
G1 Y-137.2
G2 X-5.2 Y-142.988 I-5.787 J0
G1 X-71.6
G2 X-77.387 Y-137.2 I0 J5.788
G1 Y-71.2
S5000
Y-56.882 Z-1 F333.3
S6000
Y-5.2 F1000
G2 X-71.6 Y0.587 I5.787 J0
G1 X-5.2
G2 X0.587 Y-5.2 I0 J-5.787
G1 Y-137.2
G2 X-5.2 Y-142.988 I-5.787 J0
G1 X-71.6
G2 X-77.387 Y-137.2 I0 J5.788
G1 Y-71.2
Y-56.882
S5000
Y-42.564 Z-1.5 F333.3
S6000
Y-5.2 F1000
G2 X-71.6 Y0.587 I5.787 J0
G1 X-5.2
G2 X0.587 Y-5.2 I0 J-5.787
G1 Y-137.2
G2 X-5.2 Y-142.988 I-5.787 J0
G1 X-71.6
G2 X-77.387 Y-137.2 I0 J5.788
G1 Y-56.882
Y-42.564
S5000
Y-28.246 Z-2 F333.3
S6000
Y-5.2 F1000
G2 X-71.6 Y0.587 I5.787 J0
G1 X-5.2
G2 X0.587 Y-5.2 I0 J-5.787
G1 Y-137.2
G2 X-5.2 Y-142.988 I-5.787 J0
G1 X-71.6
G2 X-77.387 Y-137.2 I0 J5.788
G1 Y-42.564
Y-28.246
S5000
Y-13.927 Z-2.5 F333.3
S6000
Y-5.2 F1000
G2 X-71.6 Y0.587 I5.787 J0
G1 X-5.2
G2 X0.587 Y-5.2 I0 J-5.787
G1 Y-67.113
Z-2.4
Y-75.287
Z-2.5 F333.3
Y-137.2 F1000
G2 X-5.2 Y-142.988 I-5.787 J0
G1 X-71.6
G2 X-77.387 Y-137.2 I0 J5.788
G1 Y-75.287
Z-2.4
Y-67.113
Z-2.5 F333.3
Y-13.927 F1000
S5000
Y-5.2 Z-2.805 F333.3
G2 X-74.891 Y-0.439 Z-3 I5.787 J0
S6000
X-71.6 Y0.587 I3.291 J-4.761 F1000
G1 X-5.2
G2 X0.587 Y-5.2 I0 J-5.787
G1 Y-67.113
Z-2.4
Y-75.287
Z-3 F333.3
Y-137.2 F1000
G2 X-5.2 Y-142.988 I-5.787 J0
G1 X-71.6
G2 X-77.387 Y-137.2 I0 J5.788
G1 Y-75.287
Z-2.4
Y-67.113
Z-3 F333.3
Y-5.2 F1000
G2 X-74.891 Y-0.439 I5.787 J0
S5000
X-71.6 Y0.587 Z-3.122 I3.291 J-4.761 F333.3
G1 X-69.373 Z-3.2
S6000
X-5.2 F1000
G2 X0.587 Y-5.2 I0 J-5.787
G1 Y-67.113
Z-2.4
Y-75.287
Z-3.2 F333.3
Y-137.2 F1000
G2 X-5.2 Y-142.988 I-5.787 J0
G1 X-71.6
G2 X-77.387 Y-137.2 I0 J5.788
G1 Y-75.287
Z-2.4
Y-67.113
Z-3.2 F333.3
Y-5.2 F1000
G2 X-71.6 Y0.587 I5.787 J0
G1 X-69.373
Z15
M5
M30
