(1001)
(Bearbeiten)
(  Hersteller: ChinaCnc)
(  model: 3040T)
(  description: Generic 3-axis)
(T5 D=3.175 CR=0 - ZMIN=-4.3 - Schaftfrser)
G90 G94
G17
G21
(-Attention- Property Safe Retracts is set to Clearance Height.)
(Ensure the clearance height will clear the part and or fixtures.)
(Raise the Z-axis to a safe height before starting the program.)
(When using Fusion for Personal Use, the feedrate of rapid)
(moves is reduced to match the feedrate of cutting moves,)
(which can increase machining time. Unrestricted rapid moves)
(are available with a Fusion Subscription.)

(Bohrfrsen1)
M0
(MANUAL TOOL CHANGE TO T5)
S6000 M3
G17 G90 G94
G54
G0 X18.869 Y-19.317
Z15
G1 Z2 F1000
Z0.317
G18 G2 X19.186 Z0 I0.318 K0
G1 X19.345
G17 G3 X19.663 Y-19 I0 J0.317
X18.337 Y-19 Z-0.079 I-0.663 J0
X19.663 Y-19 Z-0.157 I0.663 J0
X18.337 Y-19 Z-0.236 I-0.663 J0
X19.663 Y-19 Z-0.314 I0.663 J0
X18.337 Y-19 Z-0.393 I-0.663 J0
X19.663 Y-19 Z-0.471 I0.663 J0
X18.337 Y-19 Z-0.55 I-0.663 J0
X19.663 Y-19 Z-0.629 I0.663 J0
X18.337 Y-19 Z-0.707 I-0.663 J0
X19.663 Y-19 Z-0.786 I0.663 J0
X18.337 Y-19 Z-0.864 I-0.663 J0
X19.663 Y-19 Z-0.943 I0.663 J0
X18.337 Y-19 Z-1.021 I-0.663 J0
X19.663 Y-19 Z-1.1 I0.663 J0
X18.337 Y-19 Z-1.179 I-0.663 J0
X19.663 Y-19 Z-1.257 I0.663 J0
X18.337 Y-19 Z-1.336 I-0.663 J0
X19.663 Y-19 Z-1.414 I0.663 J0
X18.337 Y-19 Z-1.493 I-0.663 J0
X19.663 Y-19 Z-1.571 I0.663 J0
X18.337 Y-19 Z-1.65 I-0.663 J0
X19.663 Y-19 Z-1.729 I0.663 J0
X18.337 Y-19 Z-1.807 I-0.663 J0
X19.663 Y-19 Z-1.886 I0.663 J0
X18.337 Y-19 Z-1.964 I-0.663 J0
X19.663 Y-19 Z-2.043 I0.663 J0
X18.337 Y-19 Z-2.121 I-0.663 J0
X19.663 Y-19 Z-2.2 I0.663 J0
X18.337 Y-19 Z-2.279 I-0.663 J0
X19.663 Y-19 Z-2.357 I0.663 J0
X18.338 Y-19 Z-2.436 I-0.663 J0
X19.662 Y-19 Z-2.514 I0.662 J0
X18.338 Y-19 Z-2.593 I-0.662 J0
X19.662 Y-19 Z-2.671 I0.662 J0
X18.338 Y-19 Z-2.75 I-0.662 J0
X19.662 Y-19 Z-2.829 I0.662 J0
X18.338 Y-19 Z-2.907 I-0.662 J0
X19.662 Y-19 Z-2.986 I0.662 J0
X18.338 Y-19 Z-3.064 I-0.662 J0
X19.662 Y-19 Z-3.143 I0.662 J0
X18.338 Y-19 Z-3.221 I-0.662 J0
X19.662 Y-19 Z-3.3 I0.662 J0
X18.338 Y-19 Z-3.379 I-0.662 J0
X19.662 Y-19 Z-3.457 I0.662 J0
X18.338 Y-19 Z-3.536 I-0.662 J0
X19.662 Y-19 Z-3.614 I0.662 J0
X18.338 Y-19 Z-3.693 I-0.662 J0
X19.662 Y-19 Z-3.771 I0.662 J0
X18.338 Y-19 Z-3.85 I-0.662 J0
X19.662 Y-19 Z-3.929 I0.662 J0
X18.338 Y-19 Z-4.007 I-0.662 J0
X19.662 Y-19 Z-4.086 I0.662 J0
X18.338 Y-19 Z-4.164 I-0.662 J0
X19.662 Y-19 Z-4.243 I0.662 J0
X18.566 Y-18.499 Z-4.3 I-0.662 J0
X19.434 Y-19.501 I0.434 J-0.501
X18.566 Y-18.499 I-0.434 J0.501
X18.534 Y-18.947 I0.208 J-0.24
G1 X18.638 Y-19.067
X18.684 Y-19.12 Z-4.292
X18.728 Y-19.171 Z-4.269
X18.768 Y-19.217 Z-4.231
X18.8 Y-19.255 Z-4.18
X18.825 Y-19.283 Z-4.12
X18.841 Y-19.301 Z-4.053
X18.846 Y-19.307 Z-3.983
Z5
X-19.131 Y-19.317
Z2
Z0.317
G18 G2 X-18.814 Z0 I0.318 K0
G1 X-18.655
G17 G3 X-18.337 Y-19 I0 J0.317
X-19.663 Y-19 Z-0.079 I-0.663 J0
X-18.337 Y-19 Z-0.157 I0.663 J0
X-19.663 Y-19 Z-0.236 I-0.663 J0
X-18.337 Y-19 Z-0.314 I0.663 J0
X-19.663 Y-19 Z-0.393 I-0.663 J0
X-18.337 Y-19 Z-0.471 I0.663 J0
X-19.663 Y-19 Z-0.55 I-0.663 J0
X-18.337 Y-19 Z-0.629 I0.663 J0
X-19.663 Y-19 Z-0.707 I-0.663 J0
X-18.337 Y-19 Z-0.786 I0.663 J0
X-19.663 Y-19 Z-0.864 I-0.663 J0
X-18.337 Y-19 Z-0.943 I0.663 J0
X-19.663 Y-19 Z-1.021 I-0.663 J0
X-18.337 Y-19 Z-1.1 I0.663 J0
X-19.663 Y-19 Z-1.179 I-0.663 J0
X-18.337 Y-19 Z-1.257 I0.663 J0
X-19.663 Y-19 Z-1.336 I-0.663 J0
X-18.337 Y-19 Z-1.414 I0.663 J0
X-19.663 Y-19 Z-1.493 I-0.663 J0
X-18.337 Y-19 Z-1.571 I0.663 J0
X-19.663 Y-19 Z-1.65 I-0.663 J0
X-18.337 Y-19 Z-1.729 I0.663 J0
X-19.663 Y-19 Z-1.807 I-0.663 J0
X-18.337 Y-19 Z-1.886 I0.663 J0
X-19.663 Y-19 Z-1.964 I-0.663 J0
X-18.337 Y-19 Z-2.043 I0.663 J0
X-19.663 Y-19 Z-2.121 I-0.663 J0
X-18.337 Y-19 Z-2.2 I0.663 J0
X-19.663 Y-19 Z-2.279 I-0.663 J0
X-18.337 Y-19 Z-2.357 I0.663 J0
X-19.662 Y-19 Z-2.436 I-0.663 J0
X-18.338 Y-19 Z-2.514 I0.662 J0
X-19.662 Y-19 Z-2.593 I-0.662 J0
X-18.338 Y-19 Z-2.671 I0.662 J0
X-19.662 Y-19 Z-2.75 I-0.662 J0
X-18.338 Y-19 Z-2.829 I0.662 J0
X-19.662 Y-19 Z-2.907 I-0.662 J0
X-18.338 Y-19 Z-2.986 I0.662 J0
X-19.662 Y-19 Z-3.064 I-0.662 J0
X-18.338 Y-19 Z-3.143 I0.662 J0
X-19.662 Y-19 Z-3.221 I-0.662 J0
X-18.338 Y-19 Z-3.3 I0.662 J0
X-19.662 Y-19 Z-3.379 I-0.662 J0
X-18.338 Y-19 Z-3.457 I0.662 J0
X-19.662 Y-19 Z-3.536 I-0.662 J0
X-18.338 Y-19 Z-3.614 I0.662 J0
X-19.662 Y-19 Z-3.693 I-0.662 J0
X-18.338 Y-19 Z-3.771 I0.662 J0
X-19.662 Y-19 Z-3.85 I-0.662 J0
X-18.338 Y-19 Z-3.929 I0.662 J0
X-19.662 Y-19 Z-4.007 I-0.662 J0
X-18.338 Y-19 Z-4.086 I0.662 J0
X-19.662 Y-19 Z-4.164 I-0.662 J0
X-18.338 Y-19 Z-4.243 I0.662 J0
X-19.434 Y-18.499 Z-4.3 I-0.662 J0
X-18.566 Y-19.501 I0.434 J-0.501
X-19.434 Y-18.499 I-0.434 J0.501
X-19.466 Y-18.947 I0.208 J-0.24
G1 X-19.362 Y-19.067
X-19.316 Y-19.12 Z-4.292
X-19.272 Y-19.171 Z-4.269
X-19.232 Y-19.217 Z-4.231
X-19.2 Y-19.255 Z-4.18
X-19.175 Y-19.283 Z-4.12
X-19.159 Y-19.301 Z-4.053
X-19.154 Y-19.307 Z-3.983
Z5
X-19.131 Y18.683
Z2
Z0.317
G18 G2 X-18.814 Z0 I0.318 K0
G1 X-18.655
G17 G3 X-18.337 Y19 I0 J0.317
X-19.663 Y19 Z-0.079 I-0.663 J0
X-18.337 Y19 Z-0.157 I0.663 J0
X-19.663 Y19 Z-0.236 I-0.663 J0
X-18.337 Y19 Z-0.314 I0.663 J0
X-19.663 Y19 Z-0.393 I-0.663 J0
X-18.337 Y19 Z-0.471 I0.663 J0
X-19.663 Y19 Z-0.55 I-0.663 J0
X-18.337 Y19 Z-0.629 I0.663 J0
X-19.663 Y19 Z-0.707 I-0.663 J0
X-18.337 Y19 Z-0.786 I0.663 J0
X-19.663 Y19 Z-0.864 I-0.663 J0
X-18.337 Y19 Z-0.943 I0.663 J0
X-19.663 Y19 Z-1.021 I-0.663 J0
X-18.337 Y19 Z-1.1 I0.663 J0
X-19.663 Y19 Z-1.179 I-0.663 J0
X-18.337 Y19 Z-1.257 I0.663 J0
X-19.663 Y19 Z-1.336 I-0.663 J0
X-18.337 Y19 Z-1.414 I0.663 J0
X-19.663 Y19 Z-1.493 I-0.663 J0
X-18.337 Y19 Z-1.571 I0.663 J0
X-19.663 Y19 Z-1.65 I-0.663 J0
X-18.337 Y19 Z-1.729 I0.663 J0
X-19.663 Y19 Z-1.807 I-0.663 J0
X-18.337 Y19 Z-1.886 I0.663 J0
X-19.663 Y19 Z-1.964 I-0.663 J0
X-18.337 Y19 Z-2.043 I0.663 J0
X-19.663 Y19 Z-2.121 I-0.663 J0
X-18.337 Y19 Z-2.2 I0.663 J0
X-19.663 Y19 Z-2.279 I-0.663 J0
X-18.337 Y19 Z-2.357 I0.663 J0
X-19.662 Y19 Z-2.436 I-0.663 J0
X-18.338 Y19 Z-2.514 I0.662 J0
X-19.662 Y19 Z-2.593 I-0.662 J0
X-18.338 Y19 Z-2.671 I0.662 J0
X-19.662 Y19 Z-2.75 I-0.662 J0
X-18.338 Y19 Z-2.829 I0.662 J0
X-19.662 Y19 Z-2.907 I-0.662 J0
X-18.338 Y19 Z-2.986 I0.662 J0
X-19.662 Y19 Z-3.064 I-0.662 J0
X-18.338 Y19 Z-3.143 I0.662 J0
X-19.662 Y19 Z-3.221 I-0.662 J0
X-18.338 Y19 Z-3.3 I0.662 J0
X-19.662 Y19 Z-3.379 I-0.662 J0
X-18.338 Y19 Z-3.457 I0.662 J0
X-19.662 Y19 Z-3.536 I-0.662 J0
X-18.338 Y19 Z-3.614 I0.662 J0
X-19.662 Y19 Z-3.693 I-0.662 J0
X-18.338 Y19 Z-3.771 I0.662 J0
X-19.662 Y19 Z-3.85 I-0.662 J0
X-18.338 Y19 Z-3.929 I0.662 J0
X-19.662 Y19 Z-4.007 I-0.662 J0
X-18.338 Y19 Z-4.086 I0.662 J0
X-19.662 Y19 Z-4.164 I-0.662 J0
X-18.338 Y19 Z-4.243 I0.662 J0
X-19.434 Y19.501 Z-4.3 I-0.662 J0
X-18.566 Y18.499 I0.434 J-0.501
X-19.434 Y19.501 I-0.434 J0.501
X-19.466 Y19.053 I0.208 J-0.24
G1 X-19.362 Y18.933
X-19.316 Y18.88 Z-4.292
X-19.272 Y18.829 Z-4.269
X-19.232 Y18.783 Z-4.231
X-19.2 Y18.745 Z-4.18
X-19.175 Y18.717 Z-4.12
X-19.159 Y18.699 Z-4.053
X-19.154 Y18.693 Z-3.983
Z5
X18.869 Y18.683
Z2
Z0.317
G18 G2 X19.186 Z0 I0.318 K0
G1 X19.345
G17 G3 X19.663 Y19 I0 J0.317
X18.337 Y19 Z-0.079 I-0.663 J0
X19.663 Y19 Z-0.157 I0.663 J0
X18.337 Y19 Z-0.236 I-0.663 J0
X19.663 Y19 Z-0.314 I0.663 J0
X18.337 Y19 Z-0.393 I-0.663 J0
X19.663 Y19 Z-0.471 I0.663 J0
X18.337 Y19 Z-0.55 I-0.663 J0
X19.663 Y19 Z-0.629 I0.663 J0
X18.337 Y19 Z-0.707 I-0.663 J0
X19.663 Y19 Z-0.786 I0.663 J0
X18.337 Y19 Z-0.864 I-0.663 J0
X19.663 Y19 Z-0.943 I0.663 J0
X18.337 Y19 Z-1.021 I-0.663 J0
X19.663 Y19 Z-1.1 I0.663 J0
X18.337 Y19 Z-1.179 I-0.663 J0
X19.663 Y19 Z-1.257 I0.663 J0
X18.337 Y19 Z-1.336 I-0.663 J0
X19.663 Y19 Z-1.414 I0.663 J0
X18.337 Y19 Z-1.493 I-0.663 J0
X19.663 Y19 Z-1.571 I0.663 J0
X18.337 Y19 Z-1.65 I-0.663 J0
X19.663 Y19 Z-1.729 I0.663 J0
X18.337 Y19 Z-1.807 I-0.663 J0
X19.663 Y19 Z-1.886 I0.663 J0
X18.337 Y19 Z-1.964 I-0.663 J0
X19.663 Y19 Z-2.043 I0.663 J0
X18.337 Y19 Z-2.121 I-0.663 J0
X19.663 Y19 Z-2.2 I0.663 J0
X18.337 Y19 Z-2.279 I-0.663 J0
X19.663 Y19 Z-2.357 I0.663 J0
X18.338 Y19 Z-2.436 I-0.663 J0
X19.662 Y19 Z-2.514 I0.662 J0
X18.338 Y19 Z-2.593 I-0.662 J0
X19.662 Y19 Z-2.671 I0.662 J0
X18.338 Y19 Z-2.75 I-0.662 J0
X19.662 Y19 Z-2.829 I0.662 J0
X18.338 Y19 Z-2.907 I-0.662 J0
X19.662 Y19 Z-2.986 I0.662 J0
X18.338 Y19 Z-3.064 I-0.662 J0
X19.662 Y19 Z-3.143 I0.662 J0
X18.338 Y19 Z-3.221 I-0.662 J0
X19.662 Y19 Z-3.3 I0.662 J0
X18.338 Y19 Z-3.379 I-0.662 J0
X19.662 Y19 Z-3.457 I0.662 J0
X18.338 Y19 Z-3.536 I-0.662 J0
X19.662 Y19 Z-3.614 I0.662 J0
X18.338 Y19 Z-3.693 I-0.662 J0
X19.662 Y19 Z-3.771 I0.662 J0
X18.338 Y19 Z-3.85 I-0.662 J0
X19.662 Y19 Z-3.929 I0.662 J0
X18.338 Y19 Z-4.007 I-0.662 J0
X19.662 Y19 Z-4.086 I0.662 J0
X18.338 Y19 Z-4.164 I-0.662 J0
X19.662 Y19 Z-4.243 I0.662 J0
X18.566 Y19.501 Z-4.3 I-0.662 J0
X19.434 Y18.499 I0.434 J-0.501
X18.566 Y19.501 I-0.434 J0.501
X18.534 Y19.053 I0.208 J-0.24
G1 X18.638 Y18.933
X18.684 Y18.88 Z-4.292
X18.728 Y18.829 Z-4.269
X18.768 Y18.783 Z-4.231
X18.8 Y18.745 Z-4.18
X18.825 Y18.717 Z-4.12
X18.841 Y18.699 Z-4.053
X18.846 Y18.693 Z-3.983
Z15
(When using Fusion for Personal Use, the feedrate of rapid)
(moves is reduced to match the feedrate of cutting moves,)
(which can increase machining time. Unrestricted rapid moves)
(are available with a Fusion Subscription.)

(Bohrfrsen2)
G0 X19.119 Y-0.317
G1 Z15 F1000
Z2
Z0.317
G18 G2 X19.436 Z0 I0.318 K0
G1 X19.595
G17 G3 X19.913 Y0 I0 J0.317
X-19.913 Y0 Z-0.751 I-19.913 J0
X19.913 Y0 Z-1.502 I19.913 J0
X-19.913 Y0 Z-2.252 I-19.913 J0
X19.913 Y0 Z-3.003 I19.913 J0
X-19.912 Y0 Z-3.754 I-19.913 J0
X13.039 Y-15.05 Z-4.3 I19.912 J0
X-13.039 Y15.05 I-13.039 J15.05
X13.039 Y-15.05 I13.039 J-15.05
X13.071 Y-14.602 I-0.208 J0.24
G1 X12.967 Y-14.482
X12.921 Y-14.429 Z-4.292
X12.877 Y-14.378 Z-4.269
X12.837 Y-14.332 Z-4.231
X12.804 Y-14.294 Z-4.18
X12.78 Y-14.266 Z-4.12
X12.764 Y-14.248 Z-4.053
X12.759 Y-14.242 Z-3.983
Z15

M5
M30
