(40Geb)
(Maschine)
(  Hersteller: ChinaCnc)
(  model: 3040T)
(  description: Generic 3-axis)
(T5 D=3.175 CR=0 - ZMIN=-4.3 - Schaftfrser)
G90 G94
G17
G21
(-Attention- Property Safe Retracts is set to Clearance Height.)
(Ensure the clearance height will clear the part and or fixtures.)
(Raise the Z-axis to a safe height before starting the program.)
(When using Fusion for Personal Use, the feedrate of rapid)
(moves is reduced to match the feedrate of cutting moves,)
(which can increase machining time. Unrestricted rapid moves)
(are available with a Fusion Subscription.)

(Bohrfrsen1)
M0
(MANUAL TOOL CHANGE TO T5)
S2000 M3
G17 G90 G94
G54
G0 X-40.419 Y-182.077
Z15
G1 Z1.683 F1000
Z0
Y-181.919
X-40.425 Y-181.888
X-40.443 Y-181.861
X-40.469 Y-181.844
X-40.5 Y-181.837
G3 X-40.5 Y-182.163 Z-0.061 I0 J-0.163
X-40.5 Y-181.837 Z-0.122 I0 J0.163
X-40.5 Y-182.163 Z-0.183 I0 J-0.163
X-40.5 Y-181.837 Z-0.244 I0 J0.163
X-40.5 Y-182.163 Z-0.306 I0 J-0.163
X-40.5 Y-181.837 Z-0.367 I0 J0.163
X-40.5 Y-182.163 Z-0.428 I0 J-0.163
X-40.5 Y-181.837 Z-0.489 I0 J0.163
X-40.5 Y-182.163 Z-0.55 I0 J-0.163
X-40.5 Y-181.837 Z-0.611 I0 J0.163
X-40.5 Y-182.163 Z-0.672 I0 J-0.163
X-40.5 Y-181.837 Z-0.733 I0 J0.163
X-40.5 Y-182.163 Z-0.794 I0 J-0.163
X-40.5 Y-181.837 Z-0.856 I0 J0.163
X-40.5 Y-182.163 Z-0.917 I0 J-0.163
X-40.5 Y-181.837 Z-0.978 I0 J0.163
X-40.5 Y-182.163 Z-1.039 I0 J-0.163
X-40.5 Y-181.837 Z-1.1 I0 J0.163
X-40.5 Y-182.163 Z-1.161 I0 J-0.163
X-40.5 Y-181.837 Z-1.222 I0 J0.163
X-40.5 Y-182.163 Z-1.283 I0 J-0.163
X-40.5 Y-181.837 Z-1.344 I0 J0.163
X-40.5 Y-182.163 Z-1.406 I0 J-0.163
X-40.5 Y-181.837 Z-1.467 I0 J0.163
X-40.5 Y-182.163 Z-1.528 I0 J-0.163
X-40.5 Y-181.837 Z-1.589 I0 J0.163
X-40.5 Y-182.163 Z-1.65 I0 J-0.163
X-40.5 Y-181.837 Z-1.711 I0 J0.163
X-40.5 Y-182.163 Z-1.772 I0 J-0.163
X-40.5 Y-181.837 Z-1.833 I0 J0.163
X-40.5 Y-182.163 Z-1.894 I0 J-0.163
X-40.5 Y-181.837 Z-1.956 I0 J0.163
X-40.5 Y-182.163 Z-2.017 I0 J-0.163
X-40.5 Y-181.837 Z-2.078 I0 J0.163
X-40.5 Y-182.163 Z-2.139 I0 J-0.163
X-40.5 Y-181.837 Z-2.2 I0 J0.163
X-40.5 Y-182.163 Z-2.261 I0 J-0.163
X-40.5 Y-181.837 Z-2.322 I0 J0.163
X-40.5 Y-182.163 Z-2.383 I0 J-0.163
X-40.5 Y-181.837 Z-2.444 I0 J0.163
X-40.5 Y-182.163 Z-2.506 I0 J-0.163
X-40.5 Y-181.837 Z-2.567 I0 J0.163
X-40.5 Y-182.163 Z-2.628 I0 J-0.163
X-40.5 Y-181.837 Z-2.689 I0 J0.163
X-40.5 Y-182.163 Z-2.75 I0 J-0.163
X-40.5 Y-181.837 Z-2.811 I0 J0.163
X-40.5 Y-182.163 Z-2.872 I0 J-0.163
X-40.5 Y-181.837 Z-2.933 I0 J0.163
X-40.5 Y-182.163 Z-2.994 I0 J-0.163
X-40.5 Y-181.837 Z-3.056 I0 J0.163
X-40.5 Y-182.163 Z-3.117 I0 J-0.163
X-40.5 Y-181.837 Z-3.178 I0 J0.163
X-40.5 Y-182.163 Z-3.239 I0 J-0.163
X-40.5 Y-181.837 Z-3.3 I0 J0.163
X-40.5 Y-182.163 Z-3.361 I0 J-0.163
X-40.5 Y-181.837 Z-3.422 I0 J0.163
X-40.5 Y-182.163 Z-3.483 I0 J-0.163
X-40.5 Y-181.837 Z-3.544 I0 J0.163
X-40.5 Y-182.163 Z-3.606 I0 J-0.163
X-40.5 Y-181.837 Z-3.667 I0 J0.163
X-40.5 Y-182.163 Z-3.728 I0 J-0.163
X-40.5 Y-181.838 Z-3.789 I0 J0.163
X-40.5 Y-182.162 Z-3.85 I0 J-0.162
X-40.5 Y-181.838 Z-3.911 I0 J0.162
X-40.5 Y-182.162 Z-3.972 I0 J-0.162
X-40.5 Y-181.838 Z-4.033 I0 J0.162
X-40.5 Y-182.162 Z-4.094 I0 J-0.162
X-40.5 Y-181.838 Z-4.156 I0 J0.162
X-40.5 Y-182.162 Z-4.217 I0 J-0.162
X-40.5 Y-181.838 Z-4.278 I0 J0.162
X-40.648 Y-181.932 Z-4.3 I0 J-0.162
X-40.352 Y-182.068 I0.148 J-0.068
X-40.648 Y-181.932 I-0.148 J0.068
G1 X-40.655 Y-181.963
X-40.65 Y-181.995
X-40.633 Y-182.022
X-40.608 Y-182.04
X-40.463 Y-182.106
Z5
X-124.419 Y-182.077
Z1.683
Z0
Y-181.919
X-124.425 Y-181.888
X-124.443 Y-181.861
X-124.469 Y-181.844
X-124.5 Y-181.837
G3 X-124.5 Y-182.163 Z-0.061 I0 J-0.163
X-124.5 Y-181.837 Z-0.122 I0 J0.163
X-124.5 Y-182.163 Z-0.183 I0 J-0.163
X-124.5 Y-181.837 Z-0.244 I0 J0.163
X-124.5 Y-182.163 Z-0.306 I0 J-0.163
X-124.5 Y-181.837 Z-0.367 I0 J0.163
X-124.5 Y-182.163 Z-0.428 I0 J-0.163
X-124.5 Y-181.837 Z-0.489 I0 J0.163
X-124.5 Y-182.163 Z-0.55 I0 J-0.163
X-124.5 Y-181.837 Z-0.611 I0 J0.163
X-124.5 Y-182.163 Z-0.672 I0 J-0.163
X-124.5 Y-181.837 Z-0.733 I0 J0.163
X-124.5 Y-182.163 Z-0.794 I0 J-0.163
X-124.5 Y-181.837 Z-0.856 I0 J0.163
X-124.5 Y-182.163 Z-0.917 I0 J-0.163
X-124.5 Y-181.837 Z-0.978 I0 J0.163
X-124.5 Y-182.163 Z-1.039 I0 J-0.163
X-124.5 Y-181.837 Z-1.1 I0 J0.163
X-124.5 Y-182.163 Z-1.161 I0 J-0.163
X-124.5 Y-181.837 Z-1.222 I0 J0.163
X-124.5 Y-182.163 Z-1.283 I0 J-0.163
X-124.5 Y-181.837 Z-1.344 I0 J0.163
X-124.5 Y-182.163 Z-1.406 I0 J-0.163
X-124.5 Y-181.837 Z-1.467 I0 J0.163
X-124.5 Y-182.163 Z-1.528 I0 J-0.163
X-124.5 Y-181.837 Z-1.589 I0 J0.163
X-124.5 Y-182.163 Z-1.65 I0 J-0.163
X-124.5 Y-181.837 Z-1.711 I0 J0.163
X-124.5 Y-182.163 Z-1.772 I0 J-0.163
X-124.5 Y-181.837 Z-1.833 I0 J0.163
X-124.5 Y-182.163 Z-1.894 I0 J-0.163
X-124.5 Y-181.837 Z-1.956 I0 J0.163
X-124.5 Y-182.163 Z-2.017 I0 J-0.163
X-124.5 Y-181.837 Z-2.078 I0 J0.163
X-124.5 Y-182.163 Z-2.139 I0 J-0.163
X-124.5 Y-181.837 Z-2.2 I0 J0.163
X-124.5 Y-182.163 Z-2.261 I0 J-0.163
X-124.5 Y-181.837 Z-2.322 I0 J0.163
X-124.5 Y-182.163 Z-2.383 I0 J-0.163
X-124.5 Y-181.837 Z-2.444 I0 J0.163
X-124.5 Y-182.163 Z-2.506 I0 J-0.163
X-124.5 Y-181.837 Z-2.567 I0 J0.163
X-124.5 Y-182.163 Z-2.628 I0 J-0.163
X-124.5 Y-181.837 Z-2.689 I0 J0.163
X-124.5 Y-182.163 Z-2.75 I0 J-0.163
X-124.5 Y-181.837 Z-2.811 I0 J0.163
X-124.5 Y-182.163 Z-2.872 I0 J-0.163
X-124.5 Y-181.837 Z-2.933 I0 J0.163
X-124.5 Y-182.163 Z-2.994 I0 J-0.163
X-124.5 Y-181.837 Z-3.056 I0 J0.163
X-124.5 Y-182.163 Z-3.117 I0 J-0.163
X-124.5 Y-181.837 Z-3.178 I0 J0.163
X-124.5 Y-182.163 Z-3.239 I0 J-0.163
X-124.5 Y-181.837 Z-3.3 I0 J0.163
X-124.5 Y-182.163 Z-3.361 I0 J-0.163
X-124.5 Y-181.837 Z-3.422 I0 J0.163
X-124.5 Y-182.163 Z-3.483 I0 J-0.163
X-124.5 Y-181.837 Z-3.544 I0 J0.163
X-124.5 Y-182.163 Z-3.606 I0 J-0.163
X-124.5 Y-181.837 Z-3.667 I0 J0.163
X-124.5 Y-182.163 Z-3.728 I0 J-0.163
X-124.5 Y-181.838 Z-3.789 I0 J0.163
X-124.5 Y-182.162 Z-3.85 I0 J-0.162
X-124.5 Y-181.838 Z-3.911 I0 J0.162
X-124.5 Y-182.162 Z-3.972 I0 J-0.162
X-124.5 Y-181.838 Z-4.033 I0 J0.162
X-124.5 Y-182.162 Z-4.094 I0 J-0.162
X-124.5 Y-181.838 Z-4.156 I0 J0.162
X-124.5 Y-182.162 Z-4.217 I0 J-0.162
X-124.5 Y-181.838 Z-4.278 I0 J0.162
X-124.648 Y-181.932 Z-4.3 I0 J-0.162
X-124.352 Y-182.068 I0.148 J-0.068
X-124.648 Y-181.932 I-0.148 J0.068
G1 X-124.655 Y-181.963
X-124.65 Y-181.995
X-124.633 Y-182.022
X-124.608 Y-182.04
X-124.463 Y-182.106
Z5
X-155.581 Y-181.923
Z1.683
Z0
Y-182.081
X-155.575 Y-182.112
X-155.557 Y-182.139
X-155.531 Y-182.156
X-155.5 Y-182.163
G3 X-155.5 Y-181.837 Z-0.061 I0 J0.163
X-155.5 Y-182.163 Z-0.122 I0 J-0.163
X-155.5 Y-181.837 Z-0.183 I0 J0.163
X-155.5 Y-182.163 Z-0.244 I0 J-0.163
X-155.5 Y-181.837 Z-0.306 I0 J0.163
X-155.5 Y-182.163 Z-0.367 I0 J-0.163
X-155.5 Y-181.837 Z-0.428 I0 J0.163
X-155.5 Y-182.163 Z-0.489 I0 J-0.163
X-155.5 Y-181.837 Z-0.55 I0 J0.163
X-155.5 Y-182.163 Z-0.611 I0 J-0.163
X-155.5 Y-181.837 Z-0.672 I0 J0.163
X-155.5 Y-182.163 Z-0.733 I0 J-0.163
X-155.5 Y-181.837 Z-0.794 I0 J0.163
X-155.5 Y-182.163 Z-0.856 I0 J-0.163
X-155.5 Y-181.837 Z-0.917 I0 J0.163
X-155.5 Y-182.163 Z-0.978 I0 J-0.163
X-155.5 Y-181.837 Z-1.039 I0 J0.163
X-155.5 Y-182.163 Z-1.1 I0 J-0.163
X-155.5 Y-181.837 Z-1.161 I0 J0.163
X-155.5 Y-182.163 Z-1.222 I0 J-0.163
X-155.5 Y-181.837 Z-1.283 I0 J0.163
X-155.5 Y-182.163 Z-1.344 I0 J-0.163
X-155.5 Y-181.837 Z-1.406 I0 J0.163
X-155.5 Y-182.163 Z-1.467 I0 J-0.163
X-155.5 Y-181.837 Z-1.528 I0 J0.163
X-155.5 Y-182.163 Z-1.589 I0 J-0.163
X-155.5 Y-181.837 Z-1.65 I0 J0.163
X-155.5 Y-182.163 Z-1.711 I0 J-0.163
X-155.5 Y-181.837 Z-1.772 I0 J0.163
X-155.5 Y-182.163 Z-1.833 I0 J-0.163
X-155.5 Y-181.838 Z-1.894 I0 J0.163
X-155.5 Y-182.162 Z-1.956 I0 J-0.162
X-155.5 Y-181.838 Z-2.017 I0 J0.162
X-155.5 Y-182.162 Z-2.078 I0 J-0.162
X-155.5 Y-181.838 Z-2.139 I0 J0.162
X-155.5 Y-182.162 Z-2.2 I0 J-0.162
X-155.5 Y-181.838 Z-2.261 I0 J0.162
X-155.5 Y-182.162 Z-2.322 I0 J-0.162
X-155.5 Y-181.838 Z-2.383 I0 J0.162
X-155.5 Y-182.162 Z-2.444 I0 J-0.162
X-155.5 Y-181.838 Z-2.506 I0 J0.162
X-155.5 Y-182.162 Z-2.567 I0 J-0.162
X-155.5 Y-181.838 Z-2.628 I0 J0.162
X-155.5 Y-182.162 Z-2.689 I0 J-0.162
X-155.5 Y-181.838 Z-2.75 I0 J0.162
X-155.5 Y-182.162 Z-2.811 I0 J-0.162
X-155.5 Y-181.838 Z-2.872 I0 J0.162
X-155.5 Y-182.162 Z-2.933 I0 J-0.162
X-155.5 Y-181.838 Z-2.994 I0 J0.162
X-155.5 Y-182.162 Z-3.056 I0 J-0.162
X-155.5 Y-181.838 Z-3.117 I0 J0.162
X-155.5 Y-182.162 Z-3.178 I0 J-0.162
X-155.5 Y-181.838 Z-3.239 I0 J0.162
X-155.5 Y-182.162 Z-3.3 I0 J-0.162
X-155.5 Y-181.838 Z-3.361 I0 J0.162
X-155.5 Y-182.162 Z-3.422 I0 J-0.162
X-155.5 Y-181.838 Z-3.483 I0 J0.162
X-155.5 Y-182.162 Z-3.544 I0 J-0.162
X-155.5 Y-181.838 Z-3.606 I0 J0.162
X-155.5 Y-182.162 Z-3.667 I0 J-0.162
X-155.5 Y-181.838 Z-3.728 I0 J0.162
X-155.5 Y-182.162 Z-3.789 I0 J-0.162
X-155.5 Y-181.838 Z-3.85 I0 J0.162
X-155.5 Y-182.162 Z-3.911 I0 J-0.162
X-155.5 Y-181.838 Z-3.972 I0 J0.162
X-155.5 Y-182.162 Z-4.033 I0 J-0.162
X-155.5 Y-181.838 Z-4.094 I0 J0.162
X-155.5 Y-182.162 Z-4.156 I0 J-0.162
X-155.5 Y-181.838 Z-4.217 I0 J0.162
X-155.5 Y-182.162 Z-4.278 I0 J-0.162
X-155.352 Y-182.068 Z-4.3 I0 J0.162
X-155.648 Y-181.932 I-0.148 J0.068
X-155.352 Y-182.068 I0.148 J-0.068
G1 X-155.345 Y-182.037
X-155.35 Y-182.005
X-155.367 Y-181.978
X-155.392 Y-181.96
X-155.537 Y-181.894
Z5
X-239.581 Y-181.923
Z1.683
Z0
Y-182.081
X-239.575 Y-182.112
X-239.557 Y-182.139
X-239.531 Y-182.156
X-239.5 Y-182.163
G3 X-239.5 Y-181.837 Z-0.061 I0 J0.163
X-239.5 Y-182.163 Z-0.122 I0 J-0.163
X-239.5 Y-181.837 Z-0.183 I0 J0.163
X-239.5 Y-182.163 Z-0.244 I0 J-0.163
X-239.5 Y-181.837 Z-0.306 I0 J0.163
X-239.5 Y-182.163 Z-0.367 I0 J-0.163
X-239.5 Y-181.837 Z-0.428 I0 J0.163
X-239.5 Y-182.163 Z-0.489 I0 J-0.163
X-239.5 Y-181.837 Z-0.55 I0 J0.163
X-239.5 Y-182.163 Z-0.611 I0 J-0.163
X-239.5 Y-181.837 Z-0.672 I0 J0.163
X-239.5 Y-182.163 Z-0.733 I0 J-0.163
X-239.5 Y-181.837 Z-0.794 I0 J0.163
X-239.5 Y-182.163 Z-0.856 I0 J-0.163
X-239.5 Y-181.837 Z-0.917 I0 J0.163
X-239.5 Y-182.163 Z-0.978 I0 J-0.163
X-239.5 Y-181.837 Z-1.039 I0 J0.163
X-239.5 Y-182.163 Z-1.1 I0 J-0.163
X-239.5 Y-181.837 Z-1.161 I0 J0.163
X-239.5 Y-182.163 Z-1.222 I0 J-0.163
X-239.5 Y-181.837 Z-1.283 I0 J0.163
X-239.5 Y-182.163 Z-1.344 I0 J-0.163
X-239.5 Y-181.837 Z-1.406 I0 J0.163
X-239.5 Y-182.163 Z-1.467 I0 J-0.163
X-239.5 Y-181.837 Z-1.528 I0 J0.163
X-239.5 Y-182.163 Z-1.589 I0 J-0.163
X-239.5 Y-181.837 Z-1.65 I0 J0.163
X-239.5 Y-182.163 Z-1.711 I0 J-0.163
X-239.5 Y-181.837 Z-1.772 I0 J0.163
X-239.5 Y-182.163 Z-1.833 I0 J-0.163
X-239.5 Y-181.838 Z-1.894 I0 J0.163
X-239.5 Y-182.162 Z-1.956 I0 J-0.162
X-239.5 Y-181.838 Z-2.017 I0 J0.162
X-239.5 Y-182.162 Z-2.078 I0 J-0.162
X-239.5 Y-181.838 Z-2.139 I0 J0.162
X-239.5 Y-182.162 Z-2.2 I0 J-0.162
X-239.5 Y-181.838 Z-2.261 I0 J0.162
X-239.5 Y-182.162 Z-2.322 I0 J-0.162
X-239.5 Y-181.838 Z-2.383 I0 J0.162
X-239.5 Y-182.162 Z-2.444 I0 J-0.162
X-239.5 Y-181.838 Z-2.506 I0 J0.162
X-239.5 Y-182.162 Z-2.567 I0 J-0.162
X-239.5 Y-181.838 Z-2.628 I0 J0.162
X-239.5 Y-182.162 Z-2.689 I0 J-0.162
X-239.5 Y-181.838 Z-2.75 I0 J0.162
X-239.5 Y-182.162 Z-2.811 I0 J-0.162
X-239.5 Y-181.838 Z-2.872 I0 J0.162
X-239.5 Y-182.162 Z-2.933 I0 J-0.162
X-239.5 Y-181.838 Z-2.994 I0 J0.162
X-239.5 Y-182.162 Z-3.056 I0 J-0.162
X-239.5 Y-181.838 Z-3.117 I0 J0.162
X-239.5 Y-182.162 Z-3.178 I0 J-0.162
X-239.5 Y-181.838 Z-3.239 I0 J0.162
X-239.5 Y-182.162 Z-3.3 I0 J-0.162
X-239.5 Y-181.838 Z-3.361 I0 J0.162
X-239.5 Y-182.162 Z-3.422 I0 J-0.162
X-239.5 Y-181.838 Z-3.483 I0 J0.162
X-239.5 Y-182.162 Z-3.544 I0 J-0.162
X-239.5 Y-181.838 Z-3.606 I0 J0.162
X-239.5 Y-182.162 Z-3.667 I0 J-0.162
X-239.5 Y-181.838 Z-3.728 I0 J0.162
X-239.5 Y-182.162 Z-3.789 I0 J-0.162
X-239.5 Y-181.838 Z-3.85 I0 J0.162
X-239.5 Y-182.162 Z-3.911 I0 J-0.162
X-239.5 Y-181.838 Z-3.972 I0 J0.162
X-239.5 Y-182.162 Z-4.033 I0 J-0.162
X-239.5 Y-181.838 Z-4.094 I0 J0.162
X-239.5 Y-182.162 Z-4.156 I0 J-0.162
X-239.5 Y-181.838 Z-4.217 I0 J0.162
X-239.5 Y-182.162 Z-4.278 I0 J-0.162
X-239.352 Y-182.068 Z-4.3 I0 J0.162
X-239.648 Y-181.932 I-0.148 J0.068
X-239.352 Y-182.068 I0.148 J-0.068
G1 X-239.345 Y-182.037
X-239.35 Y-182.005
X-239.367 Y-181.978
X-239.392 Y-181.96
X-239.537 Y-181.894
Z5
X-239.581 Y-17.923
Z1.683
Z0
Y-18.081
X-239.575 Y-18.112
X-239.557 Y-18.139
X-239.531 Y-18.156
X-239.5 Y-18.163
G3 X-239.5 Y-17.837 Z-0.061 I0 J0.163
X-239.5 Y-18.163 Z-0.122 I0 J-0.163
X-239.5 Y-17.837 Z-0.183 I0 J0.163
X-239.5 Y-18.163 Z-0.244 I0 J-0.163
X-239.5 Y-17.838 Z-0.306 I0 J0.163
X-239.5 Y-18.162 Z-0.367 I0 J-0.162
X-239.5 Y-17.838 Z-0.428 I0 J0.162
X-239.5 Y-18.162 Z-0.489 I0 J-0.162
X-239.5 Y-17.838 Z-0.55 I0 J0.162
X-239.5 Y-18.162 Z-0.611 I0 J-0.162
X-239.5 Y-17.838 Z-0.672 I0 J0.162
X-239.5 Y-18.162 Z-0.733 I0 J-0.162
X-239.5 Y-17.838 Z-0.794 I0 J0.162
X-239.5 Y-18.162 Z-0.856 I0 J-0.162
X-239.5 Y-17.838 Z-0.917 I0 J0.162
X-239.5 Y-18.162 Z-0.978 I0 J-0.162
X-239.5 Y-17.838 Z-1.039 I0 J0.162
X-239.5 Y-18.162 Z-1.1 I0 J-0.162
X-239.5 Y-17.838 Z-1.161 I0 J0.162
X-239.5 Y-18.162 Z-1.222 I0 J-0.162
X-239.5 Y-17.838 Z-1.283 I0 J0.162
X-239.5 Y-18.162 Z-1.344 I0 J-0.162
X-239.5 Y-17.838 Z-1.406 I0 J0.162
X-239.5 Y-18.162 Z-1.467 I0 J-0.162
X-239.5 Y-17.838 Z-1.528 I0 J0.162
X-239.5 Y-18.162 Z-1.589 I0 J-0.162
X-239.5 Y-17.838 Z-1.65 I0 J0.162
X-239.5 Y-18.162 Z-1.711 I0 J-0.162
X-239.5 Y-17.838 Z-1.772 I0 J0.162
X-239.5 Y-18.162 Z-1.833 I0 J-0.162
X-239.5 Y-17.838 Z-1.894 I0 J0.162
X-239.5 Y-18.162 Z-1.956 I0 J-0.162
X-239.5 Y-17.838 Z-2.017 I0 J0.162
X-239.5 Y-18.162 Z-2.078 I0 J-0.162
X-239.5 Y-17.838 Z-2.139 I0 J0.162
X-239.5 Y-18.162 Z-2.2 I0 J-0.162
X-239.5 Y-17.838 Z-2.261 I0 J0.162
X-239.5 Y-18.162 Z-2.322 I0 J-0.162
X-239.5 Y-17.838 Z-2.383 I0 J0.162
X-239.5 Y-18.162 Z-2.444 I0 J-0.162
X-239.5 Y-17.838 Z-2.506 I0 J0.162
X-239.5 Y-18.162 Z-2.567 I0 J-0.162
X-239.5 Y-17.838 Z-2.628 I0 J0.162
X-239.5 Y-18.162 Z-2.689 I0 J-0.162
X-239.5 Y-17.838 Z-2.75 I0 J0.162
X-239.5 Y-18.162 Z-2.811 I0 J-0.162
X-239.5 Y-17.838 Z-2.872 I0 J0.162
X-239.5 Y-18.162 Z-2.933 I0 J-0.162
X-239.5 Y-17.838 Z-2.994 I0 J0.162
X-239.5 Y-18.162 Z-3.056 I0 J-0.162
X-239.5 Y-17.838 Z-3.117 I0 J0.162
X-239.5 Y-18.162 Z-3.178 I0 J-0.162
X-239.5 Y-17.838 Z-3.239 I0 J0.162
X-239.5 Y-18.162 Z-3.3 I0 J-0.162
X-239.5 Y-17.838 Z-3.361 I0 J0.162
X-239.5 Y-18.162 Z-3.422 I0 J-0.162
X-239.5 Y-17.838 Z-3.483 I0 J0.162
X-239.5 Y-18.162 Z-3.544 I0 J-0.162
X-239.5 Y-17.838 Z-3.606 I0 J0.162
X-239.5 Y-18.162 Z-3.667 I0 J-0.162
X-239.5 Y-17.838 Z-3.728 I0 J0.162
X-239.5 Y-18.162 Z-3.789 I0 J-0.162
X-239.5 Y-17.838 Z-3.85 I0 J0.162
X-239.5 Y-18.162 Z-3.911 I0 J-0.162
X-239.5 Y-17.838 Z-3.972 I0 J0.162
X-239.5 Y-18.162 Z-4.033 I0 J-0.162
X-239.5 Y-17.838 Z-4.094 I0 J0.162
X-239.5 Y-18.162 Z-4.156 I0 J-0.162
X-239.5 Y-17.838 Z-4.217 I0 J0.162
X-239.5 Y-18.162 Z-4.278 I0 J-0.162
X-239.352 Y-18.068 Z-4.3 I0 J0.162
X-239.648 Y-17.932 I-0.148 J0.068
X-239.352 Y-18.068 I0.148 J-0.068
G1 X-239.345 Y-18.037
X-239.35 Y-18.005
X-239.367 Y-17.979
X-239.392 Y-17.96
X-239.537 Y-17.894
Z5
X-155.581 Y-17.923
Z1.683
Z0
Y-18.081
X-155.575 Y-18.112
X-155.557 Y-18.139
X-155.531 Y-18.156
X-155.5 Y-18.163
G3 X-155.5 Y-17.837 Z-0.061 I0 J0.163
X-155.5 Y-18.163 Z-0.122 I0 J-0.163
X-155.5 Y-17.837 Z-0.183 I0 J0.163
X-155.5 Y-18.163 Z-0.244 I0 J-0.163
X-155.5 Y-17.838 Z-0.306 I0 J0.163
X-155.5 Y-18.162 Z-0.367 I0 J-0.162
X-155.5 Y-17.838 Z-0.428 I0 J0.162
X-155.5 Y-18.162 Z-0.489 I0 J-0.162
X-155.5 Y-17.838 Z-0.55 I0 J0.162
X-155.5 Y-18.162 Z-0.611 I0 J-0.162
X-155.5 Y-17.838 Z-0.672 I0 J0.162
X-155.5 Y-18.162 Z-0.733 I0 J-0.162
X-155.5 Y-17.838 Z-0.794 I0 J0.162
X-155.5 Y-18.162 Z-0.856 I0 J-0.162
X-155.5 Y-17.838 Z-0.917 I0 J0.162
X-155.5 Y-18.162 Z-0.978 I0 J-0.162
X-155.5 Y-17.838 Z-1.039 I0 J0.162
X-155.5 Y-18.162 Z-1.1 I0 J-0.162
X-155.5 Y-17.838 Z-1.161 I0 J0.162
X-155.5 Y-18.162 Z-1.222 I0 J-0.162
X-155.5 Y-17.838 Z-1.283 I0 J0.162
X-155.5 Y-18.162 Z-1.344 I0 J-0.162
X-155.5 Y-17.838 Z-1.406 I0 J0.162
X-155.5 Y-18.162 Z-1.467 I0 J-0.162
X-155.5 Y-17.838 Z-1.528 I0 J0.162
X-155.5 Y-18.162 Z-1.589 I0 J-0.162
X-155.5 Y-17.838 Z-1.65 I0 J0.162
X-155.5 Y-18.162 Z-1.711 I0 J-0.162
X-155.5 Y-17.838 Z-1.772 I0 J0.162
X-155.5 Y-18.162 Z-1.833 I0 J-0.162
X-155.5 Y-17.838 Z-1.894 I0 J0.162
X-155.5 Y-18.162 Z-1.956 I0 J-0.162
X-155.5 Y-17.838 Z-2.017 I0 J0.162
X-155.5 Y-18.162 Z-2.078 I0 J-0.162
X-155.5 Y-17.838 Z-2.139 I0 J0.162
X-155.5 Y-18.162 Z-2.2 I0 J-0.162
X-155.5 Y-17.838 Z-2.261 I0 J0.162
X-155.5 Y-18.162 Z-2.322 I0 J-0.162
X-155.5 Y-17.838 Z-2.383 I0 J0.162
X-155.5 Y-18.162 Z-2.444 I0 J-0.162
X-155.5 Y-17.838 Z-2.506 I0 J0.162
X-155.5 Y-18.162 Z-2.567 I0 J-0.162
X-155.5 Y-17.838 Z-2.628 I0 J0.162
X-155.5 Y-18.162 Z-2.689 I0 J-0.162
X-155.5 Y-17.838 Z-2.75 I0 J0.162
X-155.5 Y-18.162 Z-2.811 I0 J-0.162
X-155.5 Y-17.838 Z-2.872 I0 J0.162
X-155.5 Y-18.162 Z-2.933 I0 J-0.162
X-155.5 Y-17.838 Z-2.994 I0 J0.162
X-155.5 Y-18.162 Z-3.056 I0 J-0.162
X-155.5 Y-17.838 Z-3.117 I0 J0.162
X-155.5 Y-18.162 Z-3.178 I0 J-0.162
X-155.5 Y-17.838 Z-3.239 I0 J0.162
X-155.5 Y-18.162 Z-3.3 I0 J-0.162
X-155.5 Y-17.838 Z-3.361 I0 J0.162
X-155.5 Y-18.162 Z-3.422 I0 J-0.162
X-155.5 Y-17.838 Z-3.483 I0 J0.162
X-155.5 Y-18.162 Z-3.544 I0 J-0.162
X-155.5 Y-17.838 Z-3.606 I0 J0.162
X-155.5 Y-18.162 Z-3.667 I0 J-0.162
X-155.5 Y-17.838 Z-3.728 I0 J0.162
X-155.5 Y-18.162 Z-3.789 I0 J-0.162
X-155.5 Y-17.838 Z-3.85 I0 J0.162
X-155.5 Y-18.162 Z-3.911 I0 J-0.162
X-155.5 Y-17.838 Z-3.972 I0 J0.162
X-155.5 Y-18.162 Z-4.033 I0 J-0.162
X-155.5 Y-17.838 Z-4.094 I0 J0.162
X-155.5 Y-18.162 Z-4.156 I0 J-0.162
X-155.5 Y-17.838 Z-4.217 I0 J0.162
X-155.5 Y-18.162 Z-4.278 I0 J-0.162
X-155.352 Y-18.068 Z-4.3 I0 J0.162
X-155.648 Y-17.932 I-0.148 J0.068
X-155.352 Y-18.068 I0.148 J-0.068
G1 X-155.345 Y-18.037
X-155.35 Y-18.005
X-155.367 Y-17.979
X-155.392 Y-17.96
X-155.537 Y-17.894
Z5
X-124.419 Y-18.077
Z1.683
Z0
Y-17.919
X-124.425 Y-17.888
X-124.443 Y-17.861
X-124.469 Y-17.844
X-124.5 Y-17.837
G3 X-124.5 Y-18.163 Z-0.061 I0 J-0.163
X-124.5 Y-17.837 Z-0.122 I0 J0.163
X-124.5 Y-18.163 Z-0.183 I0 J-0.163
X-124.5 Y-17.837 Z-0.244 I0 J0.163
X-124.5 Y-18.163 Z-0.306 I0 J-0.163
X-124.5 Y-17.837 Z-0.367 I0 J0.163
X-124.5 Y-18.163 Z-0.428 I0 J-0.163
X-124.5 Y-17.837 Z-0.489 I0 J0.163
X-124.5 Y-18.163 Z-0.55 I0 J-0.163
X-124.5 Y-17.837 Z-0.611 I0 J0.163
X-124.5 Y-18.163 Z-0.672 I0 J-0.163
X-124.5 Y-17.837 Z-0.733 I0 J0.163
X-124.5 Y-18.163 Z-0.794 I0 J-0.163
X-124.5 Y-17.837 Z-0.856 I0 J0.163
X-124.5 Y-18.163 Z-0.917 I0 J-0.163
X-124.5 Y-17.837 Z-0.978 I0 J0.163
X-124.5 Y-18.163 Z-1.039 I0 J-0.163
X-124.5 Y-17.837 Z-1.1 I0 J0.163
X-124.5 Y-18.163 Z-1.161 I0 J-0.163
X-124.5 Y-17.837 Z-1.222 I0 J0.163
X-124.5 Y-18.163 Z-1.283 I0 J-0.163
X-124.5 Y-17.837 Z-1.344 I0 J0.163
X-124.5 Y-18.163 Z-1.406 I0 J-0.163
X-124.5 Y-17.837 Z-1.467 I0 J0.163
X-124.5 Y-18.163 Z-1.528 I0 J-0.163
X-124.5 Y-17.837 Z-1.589 I0 J0.163
X-124.5 Y-18.163 Z-1.65 I0 J-0.163
X-124.5 Y-17.837 Z-1.711 I0 J0.163
X-124.5 Y-18.163 Z-1.772 I0 J-0.163
X-124.5 Y-17.837 Z-1.833 I0 J0.163
X-124.5 Y-18.163 Z-1.894 I0 J-0.163
X-124.5 Y-17.837 Z-1.956 I0 J0.163
X-124.5 Y-18.163 Z-2.017 I0 J-0.163
X-124.5 Y-17.837 Z-2.078 I0 J0.163
X-124.5 Y-18.163 Z-2.139 I0 J-0.163
X-124.5 Y-17.837 Z-2.2 I0 J0.163
X-124.5 Y-18.163 Z-2.261 I0 J-0.163
X-124.5 Y-17.837 Z-2.322 I0 J0.163
X-124.5 Y-18.163 Z-2.383 I0 J-0.163
X-124.5 Y-17.837 Z-2.444 I0 J0.163
X-124.5 Y-18.163 Z-2.506 I0 J-0.163
X-124.5 Y-17.837 Z-2.567 I0 J0.163
X-124.5 Y-18.163 Z-2.628 I0 J-0.163
X-124.5 Y-17.837 Z-2.689 I0 J0.163
X-124.5 Y-18.163 Z-2.75 I0 J-0.163
X-124.5 Y-17.837 Z-2.811 I0 J0.163
X-124.5 Y-18.163 Z-2.872 I0 J-0.163
X-124.5 Y-17.837 Z-2.933 I0 J0.163
X-124.5 Y-18.163 Z-2.994 I0 J-0.163
X-124.5 Y-17.837 Z-3.056 I0 J0.163
X-124.5 Y-18.163 Z-3.117 I0 J-0.163
X-124.5 Y-17.837 Z-3.178 I0 J0.163
X-124.5 Y-18.163 Z-3.239 I0 J-0.163
X-124.5 Y-17.837 Z-3.3 I0 J0.163
X-124.5 Y-18.163 Z-3.361 I0 J-0.163
X-124.5 Y-17.837 Z-3.422 I0 J0.163
X-124.5 Y-18.163 Z-3.483 I0 J-0.163
X-124.5 Y-17.837 Z-3.544 I0 J0.163
X-124.5 Y-18.163 Z-3.606 I0 J-0.163
X-124.5 Y-17.837 Z-3.667 I0 J0.163
X-124.5 Y-18.163 Z-3.728 I0 J-0.163
X-124.5 Y-17.837 Z-3.789 I0 J0.163
X-124.5 Y-18.163 Z-3.85 I0 J-0.163
X-124.5 Y-17.837 Z-3.911 I0 J0.163
X-124.5 Y-18.163 Z-3.972 I0 J-0.163
X-124.5 Y-17.837 Z-4.033 I0 J0.163
X-124.5 Y-18.163 Z-4.094 I0 J-0.163
X-124.5 Y-17.837 Z-4.156 I0 J0.163
X-124.5 Y-18.163 Z-4.217 I0 J-0.163
X-124.5 Y-17.837 Z-4.278 I0 J0.163
X-124.648 Y-17.932 Z-4.3 I0 J-0.163
X-124.352 Y-18.068 I0.148 J-0.068
X-124.648 Y-17.932 I-0.148 J0.068
G1 X-124.655 Y-17.963
X-124.65 Y-17.995
X-124.633 Y-18.021
X-124.608 Y-18.04
X-124.463 Y-18.106
Z5
X-40.419 Y-18.077
Z1.683
Z0
Y-17.919
X-40.425 Y-17.888
X-40.443 Y-17.861
X-40.469 Y-17.844
X-40.5 Y-17.837
G3 X-40.5 Y-18.163 Z-0.061 I0 J-0.163
X-40.5 Y-17.837 Z-0.122 I0 J0.163
X-40.5 Y-18.163 Z-0.183 I0 J-0.163
X-40.5 Y-17.837 Z-0.244 I0 J0.163
X-40.5 Y-18.163 Z-0.306 I0 J-0.163
X-40.5 Y-17.837 Z-0.367 I0 J0.163
X-40.5 Y-18.163 Z-0.428 I0 J-0.163
X-40.5 Y-17.837 Z-0.489 I0 J0.163
X-40.5 Y-18.163 Z-0.55 I0 J-0.163
X-40.5 Y-17.837 Z-0.611 I0 J0.163
X-40.5 Y-18.163 Z-0.672 I0 J-0.163
X-40.5 Y-17.837 Z-0.733 I0 J0.163
X-40.5 Y-18.163 Z-0.794 I0 J-0.163
X-40.5 Y-17.837 Z-0.856 I0 J0.163
X-40.5 Y-18.163 Z-0.917 I0 J-0.163
X-40.5 Y-17.837 Z-0.978 I0 J0.163
X-40.5 Y-18.163 Z-1.039 I0 J-0.163
X-40.5 Y-17.837 Z-1.1 I0 J0.163
X-40.5 Y-18.163 Z-1.161 I0 J-0.163
X-40.5 Y-17.837 Z-1.222 I0 J0.163
X-40.5 Y-18.163 Z-1.283 I0 J-0.163
X-40.5 Y-17.837 Z-1.344 I0 J0.163
X-40.5 Y-18.163 Z-1.406 I0 J-0.163
X-40.5 Y-17.837 Z-1.467 I0 J0.163
X-40.5 Y-18.163 Z-1.528 I0 J-0.163
X-40.5 Y-17.837 Z-1.589 I0 J0.163
X-40.5 Y-18.163 Z-1.65 I0 J-0.163
X-40.5 Y-17.837 Z-1.711 I0 J0.163
X-40.5 Y-18.163 Z-1.772 I0 J-0.163
X-40.5 Y-17.837 Z-1.833 I0 J0.163
X-40.5 Y-18.163 Z-1.894 I0 J-0.163
X-40.5 Y-17.837 Z-1.956 I0 J0.163
X-40.5 Y-18.163 Z-2.017 I0 J-0.163
X-40.5 Y-17.837 Z-2.078 I0 J0.163
X-40.5 Y-18.163 Z-2.139 I0 J-0.163
X-40.5 Y-17.837 Z-2.2 I0 J0.163
X-40.5 Y-18.163 Z-2.261 I0 J-0.163
X-40.5 Y-17.837 Z-2.322 I0 J0.163
X-40.5 Y-18.163 Z-2.383 I0 J-0.163
X-40.5 Y-17.837 Z-2.444 I0 J0.163
X-40.5 Y-18.163 Z-2.506 I0 J-0.163
X-40.5 Y-17.837 Z-2.567 I0 J0.163
X-40.5 Y-18.163 Z-2.628 I0 J-0.163
X-40.5 Y-17.837 Z-2.689 I0 J0.163
X-40.5 Y-18.163 Z-2.75 I0 J-0.163
X-40.5 Y-17.837 Z-2.811 I0 J0.163
X-40.5 Y-18.163 Z-2.872 I0 J-0.163
X-40.5 Y-17.837 Z-2.933 I0 J0.163
X-40.5 Y-18.163 Z-2.994 I0 J-0.163
X-40.5 Y-17.837 Z-3.056 I0 J0.163
X-40.5 Y-18.163 Z-3.117 I0 J-0.163
X-40.5 Y-17.837 Z-3.178 I0 J0.163
X-40.5 Y-18.163 Z-3.239 I0 J-0.163
X-40.5 Y-17.837 Z-3.3 I0 J0.163
X-40.5 Y-18.163 Z-3.361 I0 J-0.163
X-40.5 Y-17.837 Z-3.422 I0 J0.163
X-40.5 Y-18.163 Z-3.483 I0 J-0.163
X-40.5 Y-17.837 Z-3.544 I0 J0.163
X-40.5 Y-18.163 Z-3.606 I0 J-0.163
X-40.5 Y-17.837 Z-3.667 I0 J0.163
X-40.5 Y-18.163 Z-3.728 I0 J-0.163
X-40.5 Y-17.837 Z-3.789 I0 J0.163
X-40.5 Y-18.163 Z-3.85 I0 J-0.163
X-40.5 Y-17.837 Z-3.911 I0 J0.163
X-40.5 Y-18.163 Z-3.972 I0 J-0.163
X-40.5 Y-17.837 Z-4.033 I0 J0.163
X-40.5 Y-18.163 Z-4.094 I0 J-0.163
X-40.5 Y-17.837 Z-4.156 I0 J0.163
X-40.5 Y-18.163 Z-4.217 I0 J-0.163
X-40.5 Y-17.837 Z-4.278 I0 J0.163
X-40.648 Y-17.932 Z-4.3 I0 J-0.163
X-40.352 Y-18.068 I0.148 J-0.068
X-40.648 Y-17.932 I-0.148 J0.068
G1 X-40.655 Y-17.963
X-40.65 Y-17.995
X-40.633 Y-18.022
X-40.608 Y-18.04
X-40.463 Y-18.106
Z15
(When using Fusion for Personal Use, the feedrate of rapid)
(moves is reduced to match the feedrate of cutting moves,)
(which can increase machining time. Unrestricted rapid moves)
(are available with a Fusion Subscription.)

(2D-Kontur1)
G0 X-76.842 Y-86.175
G1 Z15 F1000
Z5
Z0.635 F333.3
Z-0.683
X-76.84 Y-86.167 Z-0.753 F1000
X-76.835 Y-86.144 Z-0.82
X-76.828 Y-86.107 Z-0.88
X-76.818 Y-86.058 Z-0.931
X-76.806 Y-85.999 Z-0.969
X-76.793 Y-85.933 Z-0.992
X-76.779 Y-85.864 Z-1
X-76.716 Y-85.553
G3 X-76.964 Y-85.178 I-0.311 J0.063
G1 X-76.979 Y-85.175
X-77.619 Y-85.04
X-77.65 Y-85.033
X-78.287 Y-84.884
X-78.32 Y-84.876
X-78.952 Y-84.714
X-78.984 Y-84.705
X-79.614 Y-84.53
X-79.643 Y-84.521
X-80.27 Y-84.334
X-80.297 Y-84.325
X-80.92 Y-84.126
X-80.946 Y-84.118
X-81.567 Y-83.908
X-81.6 Y-83.896
X-82.834 Y-83.448
X-82.872 Y-83.434
X-84.098 Y-82.952
X-84.128 Y-82.94
X-85.347 Y-82.433
X-85.369 Y-82.423
X-86.583 Y-81.896
X-86.601 Y-81.888
X-89.02 Y-80.8
X-89.14 Y-80.741
X-91.552 Y-79.403
X-91.568 Y-79.394
X-92.764 Y-78.712
X-92.783 Y-78.7
X-93.967 Y-78.003
X-93.993 Y-77.987
X-95.16 Y-77.269
X-95.192 Y-77.249
X-96.34 Y-76.505
X-96.367 Y-76.486
X-96.932 Y-76.103
X-96.953 Y-76.088
X-97.511 Y-75.696
X-97.533 Y-75.681
X-98.083 Y-75.28
X-98.107 Y-75.262
X-98.65 Y-74.852
X-98.674 Y-74.833
X-99.209 Y-74.412
X-99.233 Y-74.392
X-99.76 Y-73.961
X-99.782 Y-73.942
X-100.302 Y-73.501
X-100.322 Y-73.484
X-100.834 Y-73.034
X-100.861 Y-73.01
X-101.867 Y-72.085
X-101.896 Y-72.057
X-102.88 Y-71.104
X-102.903 Y-71.082
X-103.87 Y-70.107
X-103.888 Y-70.089
X-104.841 Y-69.097
X-104.854 Y-69.083
X-106.74 Y-67.073
X-106.797 Y-67.009
X-106.85 Y-66.942
X-108.122 Y-65.254
X-108.137 Y-65.233
X-108.757 Y-64.383
X-108.776 Y-64.356
X-109.375 Y-63.497
X-109.399 Y-63.462
X-109.972 Y-62.592
X-110 Y-62.547
X-110.54 Y-61.664
X-110.565 Y-61.621
X-110.82 Y-61.174
X-110.837 Y-61.144
X-111.082 Y-60.692
X-111.1 Y-60.657
X-111.333 Y-60.201
X-111.352 Y-60.162
X-111.572 Y-59.7
X-111.59 Y-59.66
X-111.797 Y-59.193
X-111.816 Y-59.15
X-112.009 Y-58.677
X-112.027 Y-58.63
X-112.205 Y-58.151
X-112.22 Y-58.11
X-112.385 Y-57.625
X-112.399 Y-57.581
X-112.55 Y-57.091
X-112.561 Y-57.053
X-112.7 Y-56.558
X-112.71 Y-56.523
X-112.838 Y-56.023
X-112.846 Y-55.992
X-112.964 Y-55.488
X-112.972 Y-55.448
X-113.183 Y-54.431
X-113.192 Y-54.385
X-113.374 Y-53.356
X-113.379 Y-53.324
X-113.495 Y-52.588
X-121.783
X-121.642 Y-53.58
X-121.423 Y-54.946
X-121.303 Y-55.614
X-121.173 Y-56.279
X-121.033 Y-56.937
X-120.882 Y-57.588
X-120.719 Y-58.228
X-120.541 Y-58.862
X-120.35 Y-59.488
X-120.144 Y-60.103
X-119.919 Y-60.711
X-119.677 Y-61.316
X-119.418 Y-61.917
X-119.143 Y-62.515
X-118.853 Y-63.109
X-118.547 Y-63.702
X-118.229 Y-64.293
X-117.898 Y-64.882
X-117.556 Y-65.469
X-117.206 Y-66.051
X-116.468 Y-67.226
X-115.705 Y-68.394
X-114.158 Y-70.684
X-111.944 Y-73.344
X-110.808 Y-74.675
X-109.656 Y-75.984
X-109.077 Y-76.623
X-108.49 Y-77.256
X-107.899 Y-77.879
X-107.3 Y-78.491
X-106.695 Y-79.092
X-106.081 Y-79.682
X-105.46 Y-80.258
X-104.829 Y-80.821
X-104.186 Y-81.372
X-103.531 Y-81.912
X-102.865 Y-82.443
X-102.189 Y-82.965
X-101.502 Y-83.479
X-100.811 Y-83.982
X-99.39 Y-84.977
X-97.944 Y-85.948
X-96.476 Y-86.903
X-93.549 Y-88.759
X-90.681 Y-90.217
X-89.224 Y-90.932
X-87.762 Y-91.62
X-87.036 Y-91.946
X-86.306 Y-92.264
X-85.575 Y-92.57
X-84.843 Y-92.862
X-84.109 Y-93.141
X-83.374 Y-93.404
X-82.636 Y-93.652
X-81.896 Y-93.882
X-81.153 Y-94.095
X-80.404 Y-94.29
X-79.648 Y-94.469
X-78.886 Y-94.632
X-78.116 Y-94.782
X-77.34 Y-94.919
X-76.558 Y-95.044
X-75.774 Y-95.157
X-74.176 Y-95.359
X-72.566 Y-95.532
X-70.94 Y-95.686
X-69.41 Y-95.821
X-68.15 Y-95.757
X-66.796 Y-95.678
X-65.462 Y-95.579
X-64.145 Y-95.45
X-63.505 Y-95.373
X-62.868 Y-95.283
X-62.238 Y-95.182
X-61.617 Y-95.068
X-61.005 Y-94.94
X-60.402 Y-94.796
X-59.808 Y-94.636
X-59.225 Y-94.459
X-58.651 Y-94.264
X-58.084 Y-94.048
X-57.521 Y-93.812
X-56.96 Y-93.556
X-56.401 Y-93.281
X-55.845 Y-92.989
X-55.289 Y-92.68
X-54.735 Y-92.357
X-54.181 Y-92.02
X-53.631 Y-91.673
X-52.517 Y-90.939
X-51.405 Y-90.178
X-50.448 Y-89.51
X-49.763 Y-88.714
X-48.969 Y-87.774
X-48.203 Y-86.832
X-47.841 Y-86.367
X-47.489 Y-85.897
X-47.15 Y-85.427
X-46.826 Y-84.955
X-46.519 Y-84.481
X-46.228 Y-84.005
X-45.957 Y-83.526
X-45.704 Y-83.044
X-45.472 Y-82.558
X-45.261 Y-82.067
X-45.069 Y-81.565
X-44.893 Y-81.052
X-44.734 Y-80.527
X-44.591 Y-79.991
X-44.461 Y-79.444
X-44.344 Y-78.887
X-44.24 Y-78.32
X-44.146 Y-77.744
X-44.062 Y-77.16
X-43.988 Y-76.572
X-43.859 Y-75.36
X-43.79 Y-74.588
X-52.157
X-52.22 Y-75.031
X-52.228 Y-75.081
X-52.331 Y-75.67
X-52.345 Y-75.737
X-52.472 Y-76.314
X-52.493 Y-76.398
X-52.65 Y-76.961
X-52.672 Y-77.034
X-52.764 Y-77.31
X-52.782 Y-77.363
X-52.883 Y-77.634
X-52.905 Y-77.691
X-53.016 Y-77.958
X-53.043 Y-78.018
X-53.164 Y-78.279
X-53.194 Y-78.339
X-53.326 Y-78.595
X-53.356 Y-78.649
X-53.499 Y-78.901
X-53.543 Y-78.973
X-53.857 Y-79.462
X-53.912 Y-79.543
X-54.259 Y-80.016
X-54.307 Y-80.079
X-54.682 Y-80.54
X-54.722 Y-80.587
X-55.118 Y-81.037
X-55.149 Y-81.071
X-55.561 Y-81.514
X-55.587 Y-81.541
X-56.44 Y-82.412
G2 X-56.722 Y-82.641 I-1.135 J1.11
G1 X-57.928 Y-83.41
X-57.957 Y-83.427
X-58.565 Y-83.797
X-58.599 Y-83.817
X-59.213 Y-84.169
X-59.261 Y-84.196
X-59.882 Y-84.524
X-59.944 Y-84.555
X-60.575 Y-84.854
X-60.63 Y-84.879
X-60.95 Y-85.016
X-60.993 Y-85.034
X-61.315 Y-85.161
X-61.361 Y-85.178
X-61.687 Y-85.295
X-61.736 Y-85.312
X-62.066 Y-85.418
X-62.114 Y-85.433
X-62.448 Y-85.529
X-62.493 Y-85.541
X-62.829 Y-85.627
X-62.891 Y-85.642
X-63.572 Y-85.787
X-63.644 Y-85.801
X-64.336 Y-85.916
X-64.396 Y-85.924
X-65.096 Y-86.013
X-65.143 Y-86.018
X-65.85 Y-86.086
X-65.885 Y-86.089
X-66.597 Y-86.142
X-66.626 Y-86.144
X-68.058 Y-86.222
X-68.168 Y-86.225
X-68.277 Y-86.219
X-70.917 Y-86
X-70.939 Y-85.998
X-72.255 Y-85.871
X-72.282 Y-85.868
X-73.592 Y-85.718
X-73.628 Y-85.714
X-74.93 Y-85.535
X-74.963 Y-85.53
X-75.611 Y-85.427
X-75.636 Y-85.423
X-76.281 Y-85.31
X-76.308 Y-85.305
X-76.95 Y-85.181
X-76.964 Y-85.178
G3 X-77.338 Y-85.427 I-0.063 J-0.311
G1 X-77.401 Y-85.738
X-77.415 Y-85.807 Z-0.992
X-77.428 Y-85.873 Z-0.969
X-77.44 Y-85.932 Z-0.931
X-77.45 Y-85.981 Z-0.88
X-77.458 Y-86.018 Z-0.82
X-77.462 Y-86.041 Z-0.753
X-77.464 Y-86.049 Z-0.683
Z5
X-76.842 Y-86.175
Z-0.365 F333.3
Z-1.683
X-76.84 Y-86.167 Z-1.753 F1000
X-76.835 Y-86.144 Z-1.82
X-76.828 Y-86.107 Z-1.88
X-76.818 Y-86.058 Z-1.931
X-76.806 Y-85.999 Z-1.969
X-76.793 Y-85.933 Z-1.992
X-76.779 Y-85.864 Z-2
X-76.716 Y-85.553
G3 X-76.964 Y-85.178 I-0.311 J0.063
G1 X-76.979 Y-85.175
X-77.619 Y-85.04
X-77.65 Y-85.033
X-78.287 Y-84.884
X-78.32 Y-84.876
X-78.952 Y-84.714
X-78.984 Y-84.705
X-79.614 Y-84.53
X-79.643 Y-84.521
X-80.27 Y-84.334
X-80.297 Y-84.325
X-80.92 Y-84.126
X-80.946 Y-84.118
X-81.567 Y-83.908
X-81.6 Y-83.896
X-82.834 Y-83.448
X-82.872 Y-83.434
X-84.098 Y-82.952
X-84.128 Y-82.94
X-85.347 Y-82.433
X-85.369 Y-82.423
X-86.583 Y-81.896
X-86.601 Y-81.888
X-89.02 Y-80.8
X-89.14 Y-80.741
X-91.552 Y-79.403
X-91.568 Y-79.394
X-92.764 Y-78.712
X-92.783 Y-78.7
X-93.967 Y-78.003
X-93.993 Y-77.987
X-95.16 Y-77.269
X-95.192 Y-77.249
X-96.34 Y-76.505
X-96.367 Y-76.486
X-96.932 Y-76.103
X-96.953 Y-76.088
X-97.511 Y-75.696
X-97.533 Y-75.681
X-98.083 Y-75.28
X-98.107 Y-75.262
X-98.65 Y-74.852
X-98.674 Y-74.833
X-99.209 Y-74.412
X-99.233 Y-74.392
X-99.76 Y-73.961
X-99.782 Y-73.942
X-100.302 Y-73.501
X-100.322 Y-73.484
X-100.834 Y-73.034
X-100.861 Y-73.01
X-101.867 Y-72.085
X-101.896 Y-72.057
X-102.88 Y-71.104
X-102.903 Y-71.082
X-103.87 Y-70.107
X-103.888 Y-70.089
X-104.841 Y-69.097
X-104.854 Y-69.083
X-106.74 Y-67.073
X-106.797 Y-67.009
X-106.85 Y-66.942
X-108.122 Y-65.254
X-108.137 Y-65.233
X-108.757 Y-64.383
X-108.776 Y-64.356
X-109.375 Y-63.497
X-109.399 Y-63.462
X-109.972 Y-62.592
X-110 Y-62.547
X-110.54 Y-61.664
X-110.565 Y-61.621
X-110.82 Y-61.174
X-110.837 Y-61.144
X-111.082 Y-60.692
X-111.1 Y-60.657
X-111.333 Y-60.201
X-111.352 Y-60.162
X-111.572 Y-59.7
X-111.59 Y-59.66
X-111.797 Y-59.193
X-111.816 Y-59.15
X-112.009 Y-58.677
X-112.027 Y-58.63
X-112.205 Y-58.151
X-112.22 Y-58.11
X-112.385 Y-57.625
X-112.399 Y-57.581
X-112.55 Y-57.091
X-112.561 Y-57.053
X-112.7 Y-56.558
X-112.71 Y-56.523
X-112.838 Y-56.023
X-112.846 Y-55.992
X-112.964 Y-55.488
X-112.972 Y-55.448
X-113.183 Y-54.431
X-113.192 Y-54.385
X-113.374 Y-53.356
X-113.379 Y-53.324
X-113.495 Y-52.588
X-121.783
X-121.642 Y-53.58
X-121.423 Y-54.946
X-121.303 Y-55.614
X-121.173 Y-56.279
X-121.033 Y-56.937
X-120.882 Y-57.588
X-120.719 Y-58.228
X-120.541 Y-58.862
X-120.35 Y-59.488
X-120.144 Y-60.103
X-119.919 Y-60.711
X-119.677 Y-61.316
X-119.418 Y-61.917
X-119.143 Y-62.515
X-118.853 Y-63.109
X-118.547 Y-63.702
X-118.229 Y-64.293
X-117.898 Y-64.882
X-117.556 Y-65.469
X-117.206 Y-66.051
X-116.468 Y-67.226
X-115.705 Y-68.394
X-114.158 Y-70.684
X-111.944 Y-73.344
X-110.808 Y-74.675
X-109.656 Y-75.984
X-109.077 Y-76.623
X-108.49 Y-77.256
X-107.899 Y-77.879
X-107.3 Y-78.491
X-106.695 Y-79.092
X-106.081 Y-79.682
X-105.46 Y-80.258
X-104.829 Y-80.821
X-104.186 Y-81.372
X-103.531 Y-81.912
X-102.865 Y-82.443
X-102.189 Y-82.965
X-101.502 Y-83.479
X-100.811 Y-83.982
X-99.39 Y-84.977
X-97.944 Y-85.948
X-96.476 Y-86.903
X-93.549 Y-88.759
X-90.681 Y-90.217
X-89.224 Y-90.932
X-87.762 Y-91.62
X-87.036 Y-91.946
X-86.306 Y-92.264
X-85.575 Y-92.57
X-84.843 Y-92.862
X-84.109 Y-93.141
X-83.374 Y-93.404
X-82.636 Y-93.652
X-81.896 Y-93.882
X-81.153 Y-94.095
X-80.404 Y-94.29
X-79.648 Y-94.469
X-78.886 Y-94.632
X-78.116 Y-94.782
X-77.34 Y-94.919
X-76.558 Y-95.044
X-75.774 Y-95.157
X-74.176 Y-95.359
X-72.566 Y-95.532
X-70.94 Y-95.686
X-69.41 Y-95.821
X-68.15 Y-95.757
X-66.796 Y-95.678
X-65.462 Y-95.579
X-64.145 Y-95.45
X-63.505 Y-95.373
X-62.868 Y-95.283
X-62.238 Y-95.182
X-61.617 Y-95.068
X-61.005 Y-94.94
X-60.402 Y-94.796
X-59.808 Y-94.636
X-59.225 Y-94.459
X-58.651 Y-94.264
X-58.084 Y-94.048
X-57.521 Y-93.812
X-56.96 Y-93.556
X-56.401 Y-93.281
X-55.845 Y-92.989
X-55.289 Y-92.68
X-54.735 Y-92.357
X-54.181 Y-92.02
X-53.631 Y-91.673
X-52.517 Y-90.939
X-51.405 Y-90.178
X-50.448 Y-89.51
X-49.763 Y-88.714
X-48.969 Y-87.774
X-48.203 Y-86.832
X-47.841 Y-86.367
X-47.489 Y-85.897
X-47.15 Y-85.427
X-46.826 Y-84.955
X-46.519 Y-84.481
X-46.228 Y-84.005
X-45.957 Y-83.526
X-45.704 Y-83.044
X-45.472 Y-82.558
X-45.261 Y-82.067
X-45.069 Y-81.565
X-44.893 Y-81.052
X-44.734 Y-80.527
X-44.591 Y-79.991
X-44.461 Y-79.444
X-44.344 Y-78.887
X-44.24 Y-78.32
X-44.146 Y-77.744
X-44.062 Y-77.16
X-43.988 Y-76.572
X-43.859 Y-75.36
X-43.79 Y-74.588
X-52.157
X-52.22 Y-75.031
X-52.228 Y-75.081
X-52.331 Y-75.67
X-52.345 Y-75.737
X-52.472 Y-76.314
X-52.493 Y-76.398
X-52.65 Y-76.961
X-52.672 Y-77.034
X-52.764 Y-77.31
X-52.782 Y-77.363
X-52.883 Y-77.634
X-52.905 Y-77.691
X-53.016 Y-77.958
X-53.043 Y-78.018
X-53.164 Y-78.279
X-53.194 Y-78.339
X-53.326 Y-78.595
X-53.356 Y-78.649
X-53.499 Y-78.901
X-53.543 Y-78.973
X-53.857 Y-79.462
X-53.912 Y-79.543
X-54.259 Y-80.016
X-54.307 Y-80.079
X-54.682 Y-80.54
X-54.722 Y-80.587
X-55.118 Y-81.037
X-55.149 Y-81.071
X-55.561 Y-81.514
X-55.587 Y-81.541
X-56.44 Y-82.412
G2 X-56.722 Y-82.641 I-1.135 J1.11
G1 X-57.928 Y-83.41
X-57.957 Y-83.427
X-58.565 Y-83.797
X-58.599 Y-83.817
X-59.213 Y-84.169
X-59.261 Y-84.196
X-59.882 Y-84.524
X-59.944 Y-84.555
X-60.575 Y-84.854
X-60.63 Y-84.879
X-60.95 Y-85.016
X-60.993 Y-85.034
X-61.315 Y-85.161
X-61.361 Y-85.178
X-61.687 Y-85.295
X-61.736 Y-85.312
X-62.066 Y-85.418
X-62.114 Y-85.433
X-62.448 Y-85.529
X-62.493 Y-85.541
X-62.829 Y-85.627
X-62.891 Y-85.642
X-63.572 Y-85.787
X-63.644 Y-85.801
X-64.336 Y-85.916
X-64.396 Y-85.924
X-65.096 Y-86.013
X-65.143 Y-86.018
X-65.85 Y-86.086
X-65.885 Y-86.089
X-66.597 Y-86.142
X-66.626 Y-86.144
X-68.058 Y-86.222
X-68.168 Y-86.225
X-68.277 Y-86.219
X-70.917 Y-86
X-70.939 Y-85.998
X-72.255 Y-85.871
X-72.282 Y-85.868
X-73.592 Y-85.718
X-73.628 Y-85.714
X-74.93 Y-85.535
X-74.963 Y-85.53
X-75.611 Y-85.427
X-75.636 Y-85.423
X-76.281 Y-85.31
X-76.308 Y-85.305
X-76.95 Y-85.181
X-76.964 Y-85.178
G3 X-77.338 Y-85.427 I-0.063 J-0.311
G1 X-77.401 Y-85.738
X-77.415 Y-85.807 Z-1.992
X-77.428 Y-85.873 Z-1.969
X-77.44 Y-85.932 Z-1.931
X-77.45 Y-85.981 Z-1.88
X-77.458 Y-86.018 Z-1.82
X-77.462 Y-86.041 Z-1.753
X-77.464 Y-86.049 Z-1.683
Z5
X-76.842 Y-86.175
Z-1.365 F333.3
Z-2.683
X-76.84 Y-86.167 Z-2.753 F1000
X-76.835 Y-86.144 Z-2.82
X-76.828 Y-86.107 Z-2.88
X-76.818 Y-86.058 Z-2.931
X-76.806 Y-85.999 Z-2.969
X-76.793 Y-85.933 Z-2.992
X-76.779 Y-85.864 Z-3
X-76.716 Y-85.553
G3 X-76.964 Y-85.178 I-0.311 J0.063
G1 X-76.979 Y-85.175
X-77.619 Y-85.04
X-77.65 Y-85.033
X-78.287 Y-84.884
X-78.32 Y-84.876
X-78.952 Y-84.714
X-78.984 Y-84.705
X-79.614 Y-84.53
X-79.643 Y-84.521
X-80.27 Y-84.334
X-80.297 Y-84.325
X-80.92 Y-84.126
X-80.946 Y-84.118
X-81.567 Y-83.908
X-81.6 Y-83.896
X-82.834 Y-83.448
X-82.872 Y-83.434
X-84.098 Y-82.952
X-84.128 Y-82.94
X-85.347 Y-82.433
X-85.369 Y-82.423
X-86.583 Y-81.896
X-86.601 Y-81.888
X-89.02 Y-80.8
X-89.14 Y-80.741
X-91.552 Y-79.403
X-91.568 Y-79.394
X-92.764 Y-78.712
X-92.783 Y-78.7
X-93.967 Y-78.003
X-93.993 Y-77.987
X-95.16 Y-77.269
X-95.192 Y-77.249
X-96.34 Y-76.505
X-96.367 Y-76.486
X-96.932 Y-76.103
X-96.953 Y-76.088
X-97.511 Y-75.696
X-97.533 Y-75.681
X-98.083 Y-75.28
X-98.107 Y-75.262
X-98.65 Y-74.852
X-98.674 Y-74.833
X-99.209 Y-74.412
X-99.233 Y-74.392
X-99.76 Y-73.961
X-99.782 Y-73.942
X-100.302 Y-73.501
X-100.322 Y-73.484
X-100.834 Y-73.034
X-100.861 Y-73.01
X-101.867 Y-72.085
X-101.896 Y-72.057
X-102.88 Y-71.104
X-102.903 Y-71.082
X-103.87 Y-70.107
X-103.888 Y-70.089
X-104.841 Y-69.097
X-104.854 Y-69.083
X-106.74 Y-67.073
X-106.797 Y-67.009
X-106.85 Y-66.942
X-108.122 Y-65.254
X-108.137 Y-65.233
X-108.757 Y-64.383
X-108.776 Y-64.356
X-109.375 Y-63.497
X-109.399 Y-63.462
X-109.972 Y-62.592
X-110 Y-62.547
X-110.54 Y-61.664
X-110.565 Y-61.621
X-110.82 Y-61.174
X-110.837 Y-61.144
X-111.082 Y-60.692
X-111.1 Y-60.657
X-111.333 Y-60.201
X-111.352 Y-60.162
X-111.572 Y-59.7
X-111.59 Y-59.66
X-111.797 Y-59.193
X-111.816 Y-59.15
X-112.009 Y-58.677
X-112.027 Y-58.63
X-112.205 Y-58.151
X-112.22 Y-58.11
X-112.385 Y-57.625
X-112.399 Y-57.581
X-112.55 Y-57.091
X-112.561 Y-57.053
X-112.7 Y-56.558
X-112.71 Y-56.523
X-112.838 Y-56.023
X-112.846 Y-55.992
X-112.964 Y-55.488
X-112.972 Y-55.448
X-113.183 Y-54.431
X-113.192 Y-54.385
X-113.374 Y-53.356
X-113.379 Y-53.324
X-113.495 Y-52.588
X-121.783
X-121.642 Y-53.58
X-121.423 Y-54.946
X-121.303 Y-55.614
X-121.173 Y-56.279
X-121.033 Y-56.937
X-120.882 Y-57.588
X-120.719 Y-58.228
X-120.541 Y-58.862
X-120.35 Y-59.488
X-120.144 Y-60.103
X-119.919 Y-60.711
X-119.677 Y-61.316
X-119.418 Y-61.917
X-119.143 Y-62.515
X-118.853 Y-63.109
X-118.547 Y-63.702
X-118.229 Y-64.293
X-117.898 Y-64.882
X-117.556 Y-65.469
X-117.206 Y-66.051
X-116.468 Y-67.226
X-115.705 Y-68.394
X-114.158 Y-70.684
X-111.944 Y-73.344
X-110.808 Y-74.675
X-109.656 Y-75.984
X-109.077 Y-76.623
X-108.49 Y-77.256
X-107.899 Y-77.879
X-107.3 Y-78.491
X-106.695 Y-79.092
X-106.081 Y-79.682
X-105.46 Y-80.258
X-104.829 Y-80.821
X-104.186 Y-81.372
X-103.531 Y-81.912
X-102.865 Y-82.443
X-102.189 Y-82.965
X-101.502 Y-83.479
X-100.811 Y-83.982
X-99.39 Y-84.977
X-97.944 Y-85.948
X-96.476 Y-86.903
X-93.549 Y-88.759
X-90.681 Y-90.217
X-89.224 Y-90.932
X-87.762 Y-91.62
X-87.036 Y-91.946
X-86.306 Y-92.264
X-85.575 Y-92.57
X-84.843 Y-92.862
X-84.109 Y-93.141
X-83.374 Y-93.404
X-82.636 Y-93.652
X-81.896 Y-93.882
X-81.153 Y-94.095
X-80.404 Y-94.29
X-79.648 Y-94.469
X-78.886 Y-94.632
X-78.116 Y-94.782
X-77.34 Y-94.919
X-76.558 Y-95.044
X-75.774 Y-95.157
X-74.176 Y-95.359
X-72.566 Y-95.532
X-70.94 Y-95.686
X-69.41 Y-95.821
X-68.15 Y-95.757
X-66.796 Y-95.678
X-65.462 Y-95.579
X-64.145 Y-95.45
X-63.505 Y-95.373
X-62.868 Y-95.283
X-62.238 Y-95.182
X-61.617 Y-95.068
X-61.005 Y-94.94
X-60.402 Y-94.796
X-59.808 Y-94.636
X-59.225 Y-94.459
X-58.651 Y-94.264
X-58.084 Y-94.048
X-57.521 Y-93.812
X-56.96 Y-93.556
X-56.401 Y-93.281
X-55.845 Y-92.989
X-55.289 Y-92.68
X-54.735 Y-92.357
X-54.181 Y-92.02
X-53.631 Y-91.673
X-52.517 Y-90.939
X-51.405 Y-90.178
X-50.448 Y-89.51
X-49.763 Y-88.714
X-48.969 Y-87.774
X-48.203 Y-86.832
X-47.841 Y-86.367
X-47.489 Y-85.897
X-47.15 Y-85.427
X-46.826 Y-84.955
X-46.519 Y-84.481
X-46.228 Y-84.005
X-45.957 Y-83.526
X-45.704 Y-83.044
X-45.472 Y-82.558
X-45.261 Y-82.067
X-45.069 Y-81.565
X-44.893 Y-81.052
X-44.734 Y-80.527
X-44.591 Y-79.991
X-44.461 Y-79.444
X-44.344 Y-78.887
X-44.24 Y-78.32
X-44.146 Y-77.744
X-44.062 Y-77.16
X-43.988 Y-76.572
X-43.859 Y-75.36
X-43.79 Y-74.588
X-52.157
X-52.22 Y-75.031
X-52.228 Y-75.081
X-52.331 Y-75.67
X-52.345 Y-75.737
X-52.472 Y-76.314
X-52.493 Y-76.398
X-52.65 Y-76.961
X-52.672 Y-77.034
X-52.764 Y-77.31
X-52.782 Y-77.363
X-52.883 Y-77.634
X-52.905 Y-77.691
X-53.016 Y-77.958
X-53.043 Y-78.018
X-53.164 Y-78.279
X-53.194 Y-78.339
X-53.326 Y-78.595
X-53.356 Y-78.649
X-53.499 Y-78.901
X-53.543 Y-78.973
X-53.857 Y-79.462
X-53.912 Y-79.543
X-54.259 Y-80.016
X-54.307 Y-80.079
X-54.682 Y-80.54
X-54.722 Y-80.587
X-55.118 Y-81.037
X-55.149 Y-81.071
X-55.561 Y-81.514
X-55.587 Y-81.541
X-56.44 Y-82.412
G2 X-56.722 Y-82.641 I-1.135 J1.11
G1 X-57.928 Y-83.41
X-57.957 Y-83.427
X-58.565 Y-83.797
X-58.599 Y-83.817
X-59.213 Y-84.169
X-59.261 Y-84.196
X-59.882 Y-84.524
X-59.944 Y-84.555
X-60.575 Y-84.854
X-60.63 Y-84.879
X-60.95 Y-85.016
X-60.993 Y-85.034
X-61.315 Y-85.161
X-61.361 Y-85.178
X-61.687 Y-85.295
X-61.736 Y-85.312
X-62.066 Y-85.418
X-62.114 Y-85.433
X-62.448 Y-85.529
X-62.493 Y-85.541
X-62.829 Y-85.627
X-62.891 Y-85.642
X-63.572 Y-85.787
X-63.644 Y-85.801
X-64.336 Y-85.916
X-64.396 Y-85.924
X-65.096 Y-86.013
X-65.143 Y-86.018
X-65.85 Y-86.086
X-65.885 Y-86.089
X-66.597 Y-86.142
X-66.626 Y-86.144
X-68.058 Y-86.222
X-68.168 Y-86.225
X-68.277 Y-86.219
X-70.917 Y-86
X-70.939 Y-85.998
X-72.255 Y-85.871
X-72.282 Y-85.868
X-73.592 Y-85.718
X-73.628 Y-85.714
X-74.93 Y-85.535
X-74.963 Y-85.53
X-75.611 Y-85.427
X-75.636 Y-85.423
X-76.281 Y-85.31
X-76.308 Y-85.305
X-76.95 Y-85.181
X-76.964 Y-85.178
G3 X-77.338 Y-85.427 I-0.063 J-0.311
G1 X-77.401 Y-85.738
X-77.415 Y-85.807 Z-2.992
X-77.428 Y-85.873 Z-2.969
X-77.44 Y-85.932 Z-2.931
X-77.45 Y-85.981 Z-2.88
X-77.458 Y-86.018 Z-2.82
X-77.462 Y-86.041 Z-2.753
X-77.464 Y-86.049 Z-2.683
Z5
X-76.842 Y-86.175
Z-2.365 F333.3
Z-3.683
X-76.84 Y-86.167 Z-3.753 F1000
X-76.835 Y-86.144 Z-3.82
X-76.828 Y-86.107 Z-3.88
X-76.818 Y-86.058 Z-3.931
X-76.806 Y-85.999 Z-3.969
X-76.793 Y-85.933 Z-3.992
X-76.779 Y-85.864 Z-4
X-76.716 Y-85.553
G3 X-76.964 Y-85.178 I-0.311 J0.063
G1 X-76.979 Y-85.175
X-77.619 Y-85.04
X-77.65 Y-85.033
X-78.287 Y-84.884
X-78.32 Y-84.876
X-78.952 Y-84.714
X-78.984 Y-84.705
X-79.614 Y-84.53
X-79.643 Y-84.521
X-80.27 Y-84.334
X-80.297 Y-84.325
X-80.92 Y-84.126
X-80.946 Y-84.118
X-81.567 Y-83.908
X-81.6 Y-83.896
X-82.834 Y-83.448
X-82.872 Y-83.434
X-84.098 Y-82.952
X-84.128 Y-82.94
X-85.347 Y-82.433
X-85.369 Y-82.423
X-86.583 Y-81.896
X-86.601 Y-81.888
X-89.02 Y-80.8
X-89.14 Y-80.741
X-91.552 Y-79.403
X-91.568 Y-79.394
X-92.764 Y-78.712
X-92.783 Y-78.7
X-93.967 Y-78.003
X-93.993 Y-77.987
X-95.16 Y-77.269
X-95.192 Y-77.249
X-96.34 Y-76.505
X-96.367 Y-76.486
X-96.932 Y-76.103
X-96.953 Y-76.088
X-97.511 Y-75.696
X-97.533 Y-75.681
X-98.083 Y-75.28
X-98.107 Y-75.262
X-98.65 Y-74.852
X-98.674 Y-74.833
X-99.209 Y-74.412
X-99.233 Y-74.392
X-99.76 Y-73.961
X-99.782 Y-73.942
X-100.302 Y-73.501
X-100.322 Y-73.484
X-100.834 Y-73.034
X-100.861 Y-73.01
X-101.867 Y-72.085
X-101.896 Y-72.057
X-102.88 Y-71.104
X-102.903 Y-71.082
X-103.87 Y-70.107
X-103.888 Y-70.089
X-104.841 Y-69.097
X-104.854 Y-69.083
X-106.74 Y-67.073
X-106.797 Y-67.009
X-106.85 Y-66.942
X-108.122 Y-65.254
X-108.137 Y-65.233
X-108.757 Y-64.383
X-108.776 Y-64.356
X-109.375 Y-63.497
X-109.399 Y-63.462
X-109.972 Y-62.592
X-110 Y-62.547
X-110.54 Y-61.664
X-110.565 Y-61.621
X-110.82 Y-61.174
X-110.837 Y-61.144
X-111.082 Y-60.692
X-111.1 Y-60.657
X-111.333 Y-60.201
X-111.352 Y-60.162
X-111.572 Y-59.7
X-111.59 Y-59.66
X-111.797 Y-59.193
X-111.816 Y-59.15
X-112.009 Y-58.677
X-112.027 Y-58.63
X-112.205 Y-58.151
X-112.22 Y-58.11
X-112.385 Y-57.625
X-112.399 Y-57.581
X-112.55 Y-57.091
X-112.561 Y-57.053
X-112.7 Y-56.558
X-112.71 Y-56.523
X-112.838 Y-56.023
X-112.846 Y-55.992
X-112.964 Y-55.488
X-112.972 Y-55.448
X-113.183 Y-54.431
X-113.192 Y-54.385
X-113.374 Y-53.356
X-113.379 Y-53.324
X-113.495 Y-52.588
X-121.783
X-121.642 Y-53.58
X-121.423 Y-54.946
X-121.303 Y-55.614
X-121.173 Y-56.279
X-121.033 Y-56.937
X-120.882 Y-57.588
X-120.719 Y-58.228
X-120.541 Y-58.862
X-120.35 Y-59.488
X-120.144 Y-60.103
X-119.919 Y-60.711
X-119.677 Y-61.316
X-119.418 Y-61.917
X-119.143 Y-62.515
X-118.853 Y-63.109
X-118.547 Y-63.702
X-118.229 Y-64.293
X-117.898 Y-64.882
X-117.556 Y-65.469
X-117.206 Y-66.051
X-116.468 Y-67.226
X-115.705 Y-68.394
X-114.158 Y-70.684
X-111.944 Y-73.344
X-110.808 Y-74.675
X-109.656 Y-75.984
X-109.077 Y-76.623
X-108.49 Y-77.256
X-107.899 Y-77.879
X-107.3 Y-78.491
X-106.695 Y-79.092
X-106.081 Y-79.682
X-105.46 Y-80.258
X-104.829 Y-80.821
X-104.186 Y-81.372
X-103.531 Y-81.912
X-102.865 Y-82.443
X-102.189 Y-82.965
X-101.502 Y-83.479
X-100.811 Y-83.982
X-99.39 Y-84.977
X-97.944 Y-85.948
X-96.476 Y-86.903
X-93.549 Y-88.759
X-90.681 Y-90.217
X-89.224 Y-90.932
X-87.762 Y-91.62
X-87.036 Y-91.946
X-86.306 Y-92.264
X-85.575 Y-92.57
X-84.843 Y-92.862
X-84.109 Y-93.141
X-83.374 Y-93.404
X-82.636 Y-93.652
X-81.896 Y-93.882
X-81.153 Y-94.095
X-80.404 Y-94.29
X-79.648 Y-94.469
X-78.886 Y-94.632
X-78.116 Y-94.782
X-77.34 Y-94.919
X-76.558 Y-95.044
X-75.774 Y-95.157
X-74.176 Y-95.359
X-72.566 Y-95.532
X-70.94 Y-95.686
X-69.41 Y-95.821
X-68.15 Y-95.757
X-66.796 Y-95.678
X-65.462 Y-95.579
X-64.145 Y-95.45
X-63.505 Y-95.373
X-62.868 Y-95.283
X-62.238 Y-95.182
X-61.617 Y-95.068
X-61.005 Y-94.94
X-60.402 Y-94.796
X-59.808 Y-94.636
X-59.225 Y-94.459
X-58.651 Y-94.264
X-58.084 Y-94.048
X-57.521 Y-93.812
X-56.96 Y-93.556
X-56.401 Y-93.281
X-55.845 Y-92.989
X-55.289 Y-92.68
X-54.735 Y-92.357
X-54.181 Y-92.02
X-53.631 Y-91.673
X-52.517 Y-90.939
X-51.405 Y-90.178
X-50.448 Y-89.51
X-49.763 Y-88.714
X-48.969 Y-87.774
X-48.203 Y-86.832
X-47.841 Y-86.367
X-47.489 Y-85.897
X-47.15 Y-85.427
X-46.826 Y-84.955
X-46.519 Y-84.481
X-46.228 Y-84.005
X-45.957 Y-83.526
X-45.704 Y-83.044
X-45.472 Y-82.558
X-45.261 Y-82.067
X-45.069 Y-81.565
X-44.893 Y-81.052
X-44.734 Y-80.527
X-44.591 Y-79.991
X-44.461 Y-79.444
X-44.344 Y-78.887
X-44.24 Y-78.32
X-44.146 Y-77.744
X-44.062 Y-77.16
X-43.988 Y-76.572
X-43.859 Y-75.36
X-43.79 Y-74.588
X-52.157
X-52.22 Y-75.031
X-52.228 Y-75.081
X-52.331 Y-75.67
X-52.345 Y-75.737
X-52.472 Y-76.314
X-52.493 Y-76.398
X-52.65 Y-76.961
X-52.672 Y-77.034
X-52.764 Y-77.31
X-52.782 Y-77.363
X-52.883 Y-77.634
X-52.905 Y-77.691
X-53.016 Y-77.958
X-53.043 Y-78.018
X-53.164 Y-78.279
X-53.194 Y-78.339
X-53.326 Y-78.595
X-53.356 Y-78.649
X-53.499 Y-78.901
X-53.543 Y-78.973
X-53.857 Y-79.462
X-53.912 Y-79.543
X-54.259 Y-80.016
X-54.307 Y-80.079
X-54.682 Y-80.54
X-54.722 Y-80.587
X-55.118 Y-81.037
X-55.149 Y-81.071
X-55.561 Y-81.514
X-55.587 Y-81.541
X-56.44 Y-82.412
G2 X-56.722 Y-82.641 I-1.135 J1.11
G1 X-57.928 Y-83.41
X-57.957 Y-83.427
X-58.565 Y-83.797
X-58.599 Y-83.817
X-59.213 Y-84.169
X-59.261 Y-84.196
X-59.882 Y-84.524
X-59.944 Y-84.555
X-60.575 Y-84.854
X-60.63 Y-84.879
X-60.95 Y-85.016
X-60.993 Y-85.034
X-61.315 Y-85.161
X-61.361 Y-85.178
X-61.687 Y-85.295
X-61.736 Y-85.312
X-62.066 Y-85.418
X-62.114 Y-85.433
X-62.448 Y-85.529
X-62.493 Y-85.541
X-62.829 Y-85.627
X-62.891 Y-85.642
X-63.572 Y-85.787
X-63.644 Y-85.801
X-64.336 Y-85.916
X-64.396 Y-85.924
X-65.096 Y-86.013
X-65.143 Y-86.018
X-65.85 Y-86.086
X-65.885 Y-86.089
X-66.597 Y-86.142
X-66.626 Y-86.144
X-68.058 Y-86.222
X-68.168 Y-86.225
X-68.277 Y-86.219
X-70.917 Y-86
X-70.939 Y-85.998
X-72.255 Y-85.871
X-72.282 Y-85.868
X-73.592 Y-85.718
X-73.628 Y-85.714
X-74.93 Y-85.535
X-74.963 Y-85.53
X-75.611 Y-85.427
X-75.636 Y-85.423
X-76.281 Y-85.31
X-76.308 Y-85.305
X-76.95 Y-85.181
X-76.964 Y-85.178
G3 X-77.338 Y-85.427 I-0.063 J-0.311
G1 X-77.401 Y-85.738
X-77.415 Y-85.807 Z-3.992
X-77.428 Y-85.873 Z-3.969
X-77.44 Y-85.932 Z-3.931
X-77.45 Y-85.981 Z-3.88
X-77.458 Y-86.018 Z-3.82
X-77.462 Y-86.041 Z-3.753
X-77.464 Y-86.049 Z-3.683
Z5
X-76.842 Y-86.175
Z-3.365 F333.3
Z-3.983
X-76.84 Y-86.167 Z-4.053 F1000
X-76.835 Y-86.144 Z-4.12
X-76.828 Y-86.107 Z-4.18
X-76.818 Y-86.058 Z-4.231
X-76.806 Y-85.999 Z-4.269
X-76.793 Y-85.933 Z-4.292
X-76.779 Y-85.864 Z-4.3
X-76.716 Y-85.553
G3 X-76.964 Y-85.178 I-0.311 J0.063
G1 X-76.979 Y-85.175
X-77.619 Y-85.04
X-77.65 Y-85.033
X-78.287 Y-84.884
X-78.32 Y-84.876
X-78.952 Y-84.714
X-78.984 Y-84.705
X-79.614 Y-84.53
X-79.643 Y-84.521
X-80.27 Y-84.334
X-80.297 Y-84.325
X-80.92 Y-84.126
X-80.946 Y-84.118
X-81.567 Y-83.908
X-81.6 Y-83.896
X-82.834 Y-83.448
X-82.872 Y-83.434
X-84.098 Y-82.952
X-84.128 Y-82.94
X-85.347 Y-82.433
X-85.369 Y-82.423
X-86.583 Y-81.896
X-86.601 Y-81.888
X-89.02 Y-80.8
X-89.14 Y-80.741
X-91.552 Y-79.403
X-91.568 Y-79.394
X-92.764 Y-78.712
X-92.783 Y-78.7
X-93.967 Y-78.003
X-93.993 Y-77.987
X-95.16 Y-77.269
X-95.192 Y-77.249
X-96.34 Y-76.505
X-96.367 Y-76.486
X-96.932 Y-76.103
X-96.953 Y-76.088
X-97.511 Y-75.696
X-97.533 Y-75.681
X-98.083 Y-75.28
X-98.107 Y-75.262
X-98.65 Y-74.852
X-98.674 Y-74.833
X-99.209 Y-74.412
X-99.233 Y-74.392
X-99.76 Y-73.961
X-99.782 Y-73.942
X-100.302 Y-73.501
X-100.322 Y-73.484
X-100.834 Y-73.034
X-100.861 Y-73.01
X-101.867 Y-72.085
X-101.896 Y-72.057
X-102.88 Y-71.104
X-102.903 Y-71.082
X-103.87 Y-70.107
X-103.888 Y-70.089
X-104.841 Y-69.097
X-104.854 Y-69.083
X-106.74 Y-67.073
X-106.797 Y-67.009
X-106.85 Y-66.942
X-108.122 Y-65.254
X-108.137 Y-65.233
X-108.757 Y-64.383
X-108.776 Y-64.356
X-109.375 Y-63.497
X-109.399 Y-63.462
X-109.972 Y-62.592
X-110 Y-62.547
X-110.54 Y-61.664
X-110.565 Y-61.621
X-110.82 Y-61.174
X-110.837 Y-61.144
X-111.082 Y-60.692
X-111.1 Y-60.657
X-111.333 Y-60.201
X-111.352 Y-60.162
X-111.572 Y-59.7
X-111.59 Y-59.66
X-111.797 Y-59.193
X-111.816 Y-59.15
X-112.009 Y-58.677
X-112.027 Y-58.63
X-112.205 Y-58.151
X-112.22 Y-58.11
X-112.385 Y-57.625
X-112.399 Y-57.581
X-112.55 Y-57.091
X-112.561 Y-57.053
X-112.7 Y-56.558
X-112.71 Y-56.523
X-112.838 Y-56.023
X-112.846 Y-55.992
X-112.964 Y-55.488
X-112.972 Y-55.448
X-113.183 Y-54.431
X-113.192 Y-54.385
X-113.374 Y-53.356
X-113.379 Y-53.324
X-113.495 Y-52.588
X-121.783
X-121.642 Y-53.58
X-121.423 Y-54.946
X-121.303 Y-55.614
X-121.173 Y-56.279
X-121.033 Y-56.937
X-120.882 Y-57.588
X-120.719 Y-58.228
X-120.541 Y-58.862
X-120.35 Y-59.488
X-120.144 Y-60.103
X-119.919 Y-60.711
X-119.677 Y-61.316
X-119.418 Y-61.917
X-119.143 Y-62.515
X-118.853 Y-63.109
X-118.547 Y-63.702
X-118.229 Y-64.293
X-117.898 Y-64.882
X-117.556 Y-65.469
X-117.206 Y-66.051
X-116.468 Y-67.226
X-115.705 Y-68.394
X-114.158 Y-70.684
X-111.944 Y-73.344
X-110.808 Y-74.675
X-109.656 Y-75.984
X-109.077 Y-76.623
X-108.49 Y-77.256
X-107.899 Y-77.879
X-107.3 Y-78.491
X-106.695 Y-79.092
X-106.081 Y-79.682
X-105.46 Y-80.258
X-104.829 Y-80.821
X-104.186 Y-81.372
X-103.531 Y-81.912
X-102.865 Y-82.443
X-102.189 Y-82.965
X-101.502 Y-83.479
X-100.811 Y-83.982
X-99.39 Y-84.977
X-97.944 Y-85.948
X-96.476 Y-86.903
X-93.549 Y-88.759
X-90.681 Y-90.217
X-89.224 Y-90.932
X-87.762 Y-91.62
X-87.036 Y-91.946
X-86.306 Y-92.264
X-85.575 Y-92.57
X-84.843 Y-92.862
X-84.109 Y-93.141
X-83.374 Y-93.404
X-82.636 Y-93.652
X-81.896 Y-93.882
X-81.153 Y-94.095
X-80.404 Y-94.29
X-79.648 Y-94.469
X-78.886 Y-94.632
X-78.116 Y-94.782
X-77.34 Y-94.919
X-76.558 Y-95.044
X-75.774 Y-95.157
X-74.176 Y-95.359
X-72.566 Y-95.532
X-70.94 Y-95.686
X-69.41 Y-95.821
X-68.15 Y-95.757
X-66.796 Y-95.678
X-65.462 Y-95.579
X-64.145 Y-95.45
X-63.505 Y-95.373
X-62.868 Y-95.283
X-62.238 Y-95.182
X-61.617 Y-95.068
X-61.005 Y-94.94
X-60.402 Y-94.796
X-59.808 Y-94.636
X-59.225 Y-94.459
X-58.651 Y-94.264
X-58.084 Y-94.048
X-57.521 Y-93.812
X-56.96 Y-93.556
X-56.401 Y-93.281
X-55.845 Y-92.989
X-55.289 Y-92.68
X-54.735 Y-92.357
X-54.181 Y-92.02
X-53.631 Y-91.673
X-52.517 Y-90.939
X-51.405 Y-90.178
X-50.448 Y-89.51
X-49.763 Y-88.714
X-48.969 Y-87.774
X-48.203 Y-86.832
X-47.841 Y-86.367
X-47.489 Y-85.897
X-47.15 Y-85.427
X-46.826 Y-84.955
X-46.519 Y-84.481
X-46.228 Y-84.005
X-45.957 Y-83.526
X-45.704 Y-83.044
X-45.472 Y-82.558
X-45.261 Y-82.067
X-45.069 Y-81.565
X-44.893 Y-81.052
X-44.734 Y-80.527
X-44.591 Y-79.991
X-44.461 Y-79.444
X-44.344 Y-78.887
X-44.24 Y-78.32
X-44.146 Y-77.744
X-44.062 Y-77.16
X-43.988 Y-76.572
X-43.859 Y-75.36
X-43.79 Y-74.588
X-52.157
X-52.22 Y-75.031
X-52.228 Y-75.081
X-52.331 Y-75.67
X-52.345 Y-75.737
X-52.472 Y-76.314
X-52.493 Y-76.398
X-52.65 Y-76.961
X-52.672 Y-77.034
X-52.764 Y-77.31
X-52.782 Y-77.363
X-52.883 Y-77.634
X-52.905 Y-77.691
X-53.016 Y-77.958
X-53.043 Y-78.018
X-53.164 Y-78.279
X-53.194 Y-78.339
X-53.326 Y-78.595
X-53.356 Y-78.649
X-53.499 Y-78.901
X-53.543 Y-78.973
X-53.857 Y-79.462
X-53.912 Y-79.543
X-54.259 Y-80.016
X-54.307 Y-80.079
X-54.682 Y-80.54
X-54.722 Y-80.587
X-55.118 Y-81.037
X-55.149 Y-81.071
X-55.561 Y-81.514
X-55.587 Y-81.541
X-56.44 Y-82.412
G2 X-56.722 Y-82.641 I-1.135 J1.11
G1 X-57.928 Y-83.41
X-57.957 Y-83.427
X-58.565 Y-83.797
X-58.599 Y-83.817
X-59.213 Y-84.169
X-59.261 Y-84.196
X-59.882 Y-84.524
X-59.944 Y-84.555
X-60.575 Y-84.854
X-60.63 Y-84.879
X-60.95 Y-85.016
X-60.993 Y-85.034
X-61.315 Y-85.161
X-61.361 Y-85.178
X-61.687 Y-85.295
X-61.736 Y-85.312
X-62.066 Y-85.418
X-62.114 Y-85.433
X-62.448 Y-85.529
X-62.493 Y-85.541
X-62.829 Y-85.627
X-62.891 Y-85.642
X-63.572 Y-85.787
X-63.644 Y-85.801
X-64.336 Y-85.916
X-64.396 Y-85.924
X-65.096 Y-86.013
X-65.143 Y-86.018
X-65.85 Y-86.086
X-65.885 Y-86.089
X-66.597 Y-86.142
X-66.626 Y-86.144
X-68.058 Y-86.222
X-68.168 Y-86.225
X-68.277 Y-86.219
X-70.917 Y-86
X-70.939 Y-85.998
X-72.255 Y-85.871
X-72.282 Y-85.868
X-73.592 Y-85.718
X-73.628 Y-85.714
X-74.93 Y-85.535
X-74.963 Y-85.53
X-75.611 Y-85.427
X-75.636 Y-85.423
X-76.281 Y-85.31
X-76.308 Y-85.305
X-76.95 Y-85.181
X-76.964 Y-85.178
G3 X-77.338 Y-85.427 I-0.063 J-0.311
G1 X-77.401 Y-85.738
X-77.415 Y-85.807 Z-4.292
X-77.428 Y-85.873 Z-4.269
X-77.44 Y-85.932 Z-4.231
X-77.45 Y-85.981 Z-4.18
X-77.458 Y-86.018 Z-4.12
X-77.462 Y-86.041 Z-4.053
X-77.464 Y-86.049 Z-3.983
Z5
X-75.433 Y-125.1
Z0.635 F333.3
Z-0.683
X-75.425 Y-125.098 Z-0.753 F1000
X-75.403 Y-125.09 Z-0.82
X-75.367 Y-125.079 Z-0.88
X-75.319 Y-125.064 Z-0.931
X-75.261 Y-125.045 Z-0.969
X-75.198 Y-125.025 Z-0.992
X-75.13 Y-125.004 Z-1
X-74.828 Y-124.907
G3 X-74.621 Y-124.509 I-0.096 J0.303
G2 X-74.696 Y-124.053 I1.513 J0.482
G1 X-74.74 Y-121.309
Y-121.3
X-74.77 Y-118.557
Y-118.544
X-74.783 Y-113.105
X-74.826 Y-112.433
X-74.893 Y-111.758
X-74.936 Y-111.464
X-74.989 Y-111.182
X-75.053 Y-110.919
X-75.129 Y-110.677
X-75.219 Y-110.446
X-75.33 Y-110.212
X-75.463 Y-109.969
X-75.618 Y-109.716
X-75.793 Y-109.454
X-75.984 Y-109.183
X-76.297 Y-108.761
X-76.686 Y-108.447
X-76.937 Y-108.255
X-77.182 Y-108.078
X-77.418 Y-107.922
X-77.643 Y-107.787
X-77.857 Y-107.677
X-78.066 Y-107.587
X-78.287 Y-107.512
X-78.53 Y-107.446
X-78.791 Y-107.391
X-79.066 Y-107.347
X-79.712 Y-107.275
X-80.323 Y-107.228
X-80.741 Y-107.239
X-81.196 Y-107.267
X-81.376 Y-107.287
X-81.549 Y-107.314
X-81.7 Y-107.346
X-81.829 Y-107.383
X-81.946 Y-107.427
X-82.057 Y-107.478
X-82.179 Y-107.547
X-82.306 Y-107.629
X-82.648 Y-107.885
X-82.798 Y-108.008
X-82.882 Y-108.154
X-83.079 Y-108.528
X-83.152 Y-108.683
X-83.216 Y-108.834
X-83.267 Y-108.975
X-83.309 Y-109.115
X-83.344 Y-109.264
X-83.372 Y-109.413
X-83.419 Y-109.8
X-83.448 Y-110.22
X-83.464 Y-110.641
X-83.416 Y-113.065
X-83.354 Y-115.532
X-83.196 Y-120.477
G2 X-85.381 Y-121.999 I-1.587 J-0.051
G1 X-100.006 Y-116.05
X-103.152 Y-114.817
X-103.163 Y-114.813
X-104.736 Y-114.183
X-104.75 Y-114.177
X-106.317 Y-113.532
X-106.334 Y-113.525
X-107.893 Y-112.862
X-107.908 Y-112.856
X-109.461 Y-112.177
X-109.475 Y-112.171
X-112.568 Y-110.784
X-112.603 Y-110.767
X-113.479 Y-110.348
X-114.342 Y-109.949
X-115.2 Y-109.579
X-115.615 Y-109.414
X-116.037 Y-109.257
X-116.455 Y-109.113
X-116.871 Y-108.984
X-117.297 Y-108.867
X-117.726 Y-108.761
X-118.639 Y-108.566
X-119.327 Y-108.434
X-119.931 Y-108.518
X-120.293 Y-108.582
X-120.615 Y-108.656
X-120.902 Y-108.743
X-120.992 Y-108.777
X-121.083 Y-108.818
X-121.161 Y-108.858
X-121.218 Y-108.894
X-121.26 Y-108.924
X-121.29 Y-108.95
X-121.318 Y-108.978
X-121.349 Y-109.018
X-121.384 Y-109.069
X-121.422 Y-109.135
X-121.465 Y-109.221
X-121.502 Y-109.307
X-121.596 Y-109.583
X-121.679 Y-109.895
X-121.753 Y-110.251
X-121.856 Y-110.863
X-121.778 Y-111.416
X-121.718 Y-111.771
X-121.649 Y-112.108
X-121.572 Y-112.416
X-121.486 Y-112.693
X-121.387 Y-112.941
X-121.277 Y-113.164
X-121.142 Y-113.383
X-120.98 Y-113.607
X-120.787 Y-113.837
X-120.566 Y-114.076
X-120.318 Y-114.321
X-120.049 Y-114.571
X-119.544 Y-115.018
X-118.263 Y-115.814
X-116.869 Y-116.659
X-116.176 Y-117.065
X-115.48 Y-117.462
X-114.779 Y-117.846
X-114.074 Y-118.218
X-112.63 Y-118.946
X-111.165 Y-119.648
X-109.681 Y-120.334
X-108.194 Y-121.009
X-105.189 Y-122.309
X-102.172 Y-123.6
X-99.149 Y-124.87
X-97.637 Y-125.49
X-96.122 Y-126.101
X-93.073 Y-127.303
X-90.013 Y-128.478
X-83.857 Y-130.795
G2 X-82.83 Y-132.223 I-0.559 J-1.486
G1 X-82.583 Y-138.98
Y-138.984
X-82.355 Y-145.742
Y-145.749
X-82.254 Y-149.129
X-82.253 Y-149.134
X-82.164 Y-152.514
Y-152.52
X-82.009 Y-159.28
G2 X-84.384 Y-160.694 I-1.587 J-0.036
G1 X-86.144 Y-159.688
X-86.153 Y-159.683
X-87.907 Y-158.666
X-87.924 Y-158.656
X-89.664 Y-157.618
X-89.686 Y-157.605
X-91.41 Y-156.539
X-91.427 Y-156.529
X-93.137 Y-155.442
X-93.151 Y-155.433
X-94.851 Y-154.328
X-94.862 Y-154.321
X-98.245 Y-152.083
X-98.262 Y-152.071
X-100.493 Y-150.552
X-100.506 Y-150.544
X-101.613 Y-149.775
X-101.627 Y-149.764
X-102.723 Y-148.984
X-102.745 Y-148.969
X-103.826 Y-148.172
X-103.849 Y-148.154
X-104.913 Y-147.339
X-104.943 Y-147.316
X-105.986 Y-146.477
X-106.02 Y-146.449
X-107.038 Y-145.583
X-107.066 Y-145.559
X-107.565 Y-145.114
X-107.584 Y-145.096
X-108.075 Y-144.643
X-108.095 Y-144.624
X-108.578 Y-144.163
X-108.596 Y-144.146
X-109.072 Y-143.677
X-109.097 Y-143.652
X-110.029 Y-142.692
X-110.056 Y-142.664
X-110.965 Y-141.68
X-110.987 Y-141.656
X-111.879 Y-140.652
X-111.895 Y-140.634
X-112.773 Y-139.615
X-112.785 Y-139.601
X-114.52 Y-137.539
X-114.58 Y-137.463
X-115.016 Y-136.876
X-115.22 Y-136.614
X-115.421 Y-136.37
X-115.616 Y-136.15
X-115.807 Y-135.956
X-115.995 Y-135.787
X-116.177 Y-135.644
X-116.353 Y-135.529
X-116.545 Y-135.427
X-116.763 Y-135.331
X-117.014 Y-135.241
X-117.294 Y-135.156
X-117.597 Y-135.076
X-117.877 Y-135.011
X-117.948 Y-135.033
X-118.393 Y-135.181
X-118.791 Y-135.33
X-119.149 Y-135.489
X-119.276 Y-135.555
X-119.399 Y-135.627
X-119.507 Y-135.699
X-119.591 Y-135.763
X-119.658 Y-135.824
X-119.715 Y-135.885
X-119.765 Y-135.947
X-119.813 Y-136.02
X-119.86 Y-136.105
X-119.91 Y-136.212
X-119.958 Y-136.333
X-120.002 Y-136.468
X-120.044 Y-136.621
X-120.078 Y-136.775
X-120.145 Y-137.173
X-120.191 Y-137.599
X-120.221 Y-138.063
X-120.248 Y-138.847
X-120.029 Y-139.576
X-119.728 Y-140.533
X-119.414 Y-141.463
X-119.075 Y-142.368
X-118.9 Y-142.795
X-118.714 Y-143.218
X-118.518 Y-143.63
X-118.313 Y-144.031
X-118.097 Y-144.419
X-117.866 Y-144.803
X-117.621 Y-145.183
X-117.364 Y-145.556
X-117.094 Y-145.924
X-116.809 Y-146.292
X-116.515 Y-146.654
X-116.214 Y-147.006
X-115.564 Y-147.723
X-114.884 Y-148.424
X-114.172 Y-149.119
X-113.435 Y-149.809
X-111.913 Y-151.192
X-109.633 Y-153.179
X-108.488 Y-154.164
X-107.339 Y-155.138
X-106.183 Y-156.097
X-105.019 Y-157.038
X-103.845 Y-157.959
X-102.658 Y-158.855
X-101.453 Y-159.728
X-100.229 Y-160.583
X-98.989 Y-161.421
X-97.734 Y-162.246
X-96.467 Y-163.062
X-95.19 Y-163.869
X-92.617 Y-165.474
X-90.997 Y-166.465
X-89.374 Y-167.428
X-88.569 Y-167.885
X-87.759 Y-168.328
X-86.947 Y-168.75
X-86.131 Y-169.15
X-85.312 Y-169.525
X-84.486 Y-169.872
X-83.649 Y-170.191
X-82.796 Y-170.486
X-81.924 Y-170.761
X-81.037 Y-171.023
X-79.503 Y-171.45
X-79.114 Y-171.408
X-78.474 Y-171.317
X-78.199 Y-171.264
X-77.935 Y-171.2
X-77.695 Y-171.127
X-77.468 Y-171.043
X-77.248 Y-170.942
X-77.022 Y-170.821
X-76.787 Y-170.679
X-76.552 Y-170.522
X-76.026 Y-170.135
X-75.592 Y-169.792
X-75.208 Y-169.355
X-74.997 Y-169.104
X-74.802 Y-168.858
X-74.629 Y-168.621
X-74.478 Y-168.393
X-74.352 Y-168.175
X-74.25 Y-167.963
X-74.163 Y-167.743
X-74.089 Y-167.503
X-74.023 Y-167.238
X-73.967 Y-166.95
X-73.919 Y-166.641
X-73.877 Y-166.316
X-73.813 Y-165.688
X-73.929 Y-158.358
X-73.998 Y-154.65
X-74.077 Y-150.941
X-74.259 Y-143.521
X-74.458 Y-136.098
G2 X-72.287 Y-134.579 I1.587 J0.043
G1 X-69.356 Y-135.739
X-67.896 Y-136.307
X-66.435 Y-136.862
X-64.975 Y-137.401
X-63.512 Y-137.919
X-62.048 Y-138.413
X-60.58 Y-138.88
X-59.108 Y-139.317
X-57.63 Y-139.718
X-56.142 Y-140.083
X-54.64 Y-140.415
X-53.123 Y-140.722
X-51.596 Y-141.01
X-48.687 Y-141.526
X-48.242 Y-141.5
X-47.652 Y-141.447
X-47.395 Y-141.412
X-47.143 Y-141.369
X-46.911 Y-141.319
X-46.698 Y-141.26
X-46.491 Y-141.187
X-46.28 Y-141.099
X-46.062 Y-140.994
X-45.839 Y-140.875
X-45.336 Y-140.575
X-44.982 Y-140.348
X-44.708 Y-140.047
X-44.533 Y-139.846
X-44.375 Y-139.651
X-44.238 Y-139.469
X-44.125 Y-139.296
X-44.034 Y-139.137
X-43.962 Y-138.983
X-43.901 Y-138.817
X-43.847 Y-138.63
X-43.8 Y-138.419
X-43.762 Y-138.196
X-43.698 Y-137.646
X-43.658 Y-137.128
X-43.678 Y-136.445
X-43.697 Y-136.098
X-43.725 Y-135.77
X-43.763 Y-135.468
X-43.813 Y-135.193
X-43.875 Y-134.947
X-43.947 Y-134.731
X-44.031 Y-134.541
X-44.135 Y-134.36
X-44.27 Y-134.167
X-44.44 Y-133.958
X-44.642 Y-133.737
X-44.871 Y-133.507
X-45.195 Y-133.202
X-45.897 Y-132.927
X-46.871 Y-132.565
X-47.342 Y-132.403
X-47.816 Y-132.251
X-48.289 Y-132.113
X-48.767 Y-131.987
X-49.254 Y-131.871
X-49.742 Y-131.764
X-50.758 Y-131.57
X-51.791 Y-131.396
X-52.845 Y-131.231
X-52.925 Y-131.217
X-55.531 Y-130.671
X-55.545 Y-130.668
X-58.145 Y-130.099
X-58.164 Y-130.095
X-59.46 Y-129.795
X-59.478 Y-129.79
X-60.769 Y-129.475
X-60.79 Y-129.47
X-62.077 Y-129.138
X-62.099 Y-129.132
X-63.381 Y-128.782
X-63.401 Y-128.777
X-64.679 Y-128.41
X-64.697 Y-128.405
X-65.971 Y-128.023
X-65.984 Y-128.019
X-67.254 Y-127.626
X-67.267 Y-127.622
X-68.535 Y-127.218
X-68.549 Y-127.213
X-71.079 Y-126.382
X-71.088 Y-126.379
X-73.613 Y-125.532
G2 X-74.621 Y-124.509 I0.505 J1.505
G3 X-75.02 Y-124.302 I-0.303 J-0.096
G1 X-75.323 Y-124.399
X-75.39 Y-124.42 Z-0.992
X-75.454 Y-124.44 Z-0.969
X-75.511 Y-124.459 Z-0.931
X-75.559 Y-124.474 Z-0.88
X-75.595 Y-124.485 Z-0.82
X-75.618 Y-124.493 Z-0.753
X-75.625 Y-124.495 Z-0.683
Z5
X-75.433 Y-125.1
Z-0.365 F333.3
Z-1.683
X-75.425 Y-125.098 Z-1.753 F1000
X-75.403 Y-125.09 Z-1.82
X-75.367 Y-125.079 Z-1.88
X-75.319 Y-125.064 Z-1.931
X-75.261 Y-125.045 Z-1.969
X-75.198 Y-125.025 Z-1.992
X-75.13 Y-125.004 Z-2
X-74.828 Y-124.907
G3 X-74.621 Y-124.509 I-0.096 J0.303
G2 X-74.696 Y-124.053 I1.513 J0.482
G1 X-74.74 Y-121.309
Y-121.3
X-74.77 Y-118.557
Y-118.544
X-74.783 Y-113.105
X-74.826 Y-112.433
X-74.893 Y-111.758
X-74.936 Y-111.464
X-74.989 Y-111.182
X-75.053 Y-110.919
X-75.129 Y-110.677
X-75.219 Y-110.446
X-75.33 Y-110.212
X-75.463 Y-109.969
X-75.618 Y-109.716
X-75.793 Y-109.454
X-75.984 Y-109.183
X-76.297 Y-108.761
X-76.686 Y-108.447
X-76.937 Y-108.255
X-77.182 Y-108.078
X-77.418 Y-107.922
X-77.643 Y-107.787
X-77.857 Y-107.677
X-78.066 Y-107.587
X-78.287 Y-107.512
X-78.53 Y-107.446
X-78.791 Y-107.391
X-79.066 Y-107.347
X-79.712 Y-107.275
X-80.323 Y-107.228
X-80.741 Y-107.239
X-81.196 Y-107.267
X-81.376 Y-107.287
X-81.549 Y-107.314
X-81.7 Y-107.346
X-81.829 Y-107.383
X-81.946 Y-107.427
X-82.057 Y-107.478
X-82.179 Y-107.547
X-82.306 Y-107.629
X-82.648 Y-107.885
X-82.798 Y-108.008
X-82.882 Y-108.154
X-83.079 Y-108.528
X-83.152 Y-108.683
X-83.216 Y-108.834
X-83.267 Y-108.975
X-83.309 Y-109.115
X-83.344 Y-109.264
X-83.372 Y-109.413
X-83.419 Y-109.8
X-83.448 Y-110.22
X-83.464 Y-110.641
X-83.416 Y-113.065
X-83.354 Y-115.532
X-83.196 Y-120.477
G2 X-85.381 Y-121.999 I-1.587 J-0.051
G1 X-100.006 Y-116.05
X-103.152 Y-114.817
X-103.163 Y-114.813
X-104.736 Y-114.183
X-104.75 Y-114.177
X-106.317 Y-113.532
X-106.334 Y-113.525
X-107.893 Y-112.862
X-107.908 Y-112.856
X-109.461 Y-112.177
X-109.475 Y-112.171
X-112.568 Y-110.784
X-112.603 Y-110.767
X-113.479 Y-110.348
X-114.342 Y-109.949
X-115.2 Y-109.579
X-115.615 Y-109.414
X-116.037 Y-109.257
X-116.455 Y-109.113
X-116.871 Y-108.984
X-117.297 Y-108.867
X-117.726 Y-108.761
X-118.639 Y-108.566
X-119.327 Y-108.434
X-119.931 Y-108.518
X-120.293 Y-108.582
X-120.615 Y-108.656
X-120.902 Y-108.743
X-120.992 Y-108.777
X-121.083 Y-108.818
X-121.161 Y-108.858
X-121.218 Y-108.894
X-121.26 Y-108.924
X-121.29 Y-108.95
X-121.318 Y-108.978
X-121.349 Y-109.018
X-121.384 Y-109.069
X-121.422 Y-109.135
X-121.465 Y-109.221
X-121.502 Y-109.307
X-121.596 Y-109.583
X-121.679 Y-109.895
X-121.753 Y-110.251
X-121.856 Y-110.863
X-121.778 Y-111.416
X-121.718 Y-111.771
X-121.649 Y-112.108
X-121.572 Y-112.416
X-121.486 Y-112.693
X-121.387 Y-112.941
X-121.277 Y-113.164
X-121.142 Y-113.383
X-120.98 Y-113.607
X-120.787 Y-113.837
X-120.566 Y-114.076
X-120.318 Y-114.321
X-120.049 Y-114.571
X-119.544 Y-115.018
X-118.263 Y-115.814
X-116.869 Y-116.659
X-116.176 Y-117.065
X-115.48 Y-117.462
X-114.779 Y-117.846
X-114.074 Y-118.218
X-112.63 Y-118.946
X-111.165 Y-119.648
X-109.681 Y-120.334
X-108.194 Y-121.009
X-105.189 Y-122.309
X-102.172 Y-123.6
X-99.149 Y-124.87
X-97.637 Y-125.49
X-96.122 Y-126.101
X-93.073 Y-127.303
X-90.013 Y-128.478
X-83.857 Y-130.795
G2 X-82.83 Y-132.223 I-0.559 J-1.486
G1 X-82.583 Y-138.98
Y-138.984
X-82.355 Y-145.742
Y-145.749
X-82.254 Y-149.129
X-82.253 Y-149.134
X-82.164 Y-152.514
Y-152.52
X-82.009 Y-159.28
G2 X-84.384 Y-160.694 I-1.587 J-0.036
G1 X-86.144 Y-159.688
X-86.153 Y-159.683
X-87.907 Y-158.666
X-87.924 Y-158.656
X-89.664 Y-157.618
X-89.686 Y-157.605
X-91.41 Y-156.539
X-91.427 Y-156.529
X-93.137 Y-155.442
X-93.151 Y-155.433
X-94.851 Y-154.328
X-94.862 Y-154.321
X-98.245 Y-152.083
X-98.262 Y-152.071
X-100.493 Y-150.552
X-100.506 Y-150.544
X-101.613 Y-149.775
X-101.627 Y-149.764
X-102.723 Y-148.984
X-102.745 Y-148.969
X-103.826 Y-148.172
X-103.849 Y-148.154
X-104.913 Y-147.339
X-104.943 Y-147.316
X-105.986 Y-146.477
X-106.02 Y-146.449
X-107.038 Y-145.583
X-107.066 Y-145.559
X-107.565 Y-145.114
X-107.584 Y-145.096
X-108.075 Y-144.643
X-108.095 Y-144.624
X-108.578 Y-144.163
X-108.596 Y-144.146
X-109.072 Y-143.677
X-109.097 Y-143.652
X-110.029 Y-142.692
X-110.056 Y-142.664
X-110.965 Y-141.68
X-110.987 Y-141.656
X-111.879 Y-140.652
X-111.895 Y-140.634
X-112.773 Y-139.615
X-112.785 Y-139.601
X-114.52 Y-137.539
X-114.58 Y-137.463
X-115.016 Y-136.876
X-115.22 Y-136.614
X-115.421 Y-136.37
X-115.616 Y-136.15
X-115.807 Y-135.956
X-115.995 Y-135.787
X-116.177 Y-135.644
X-116.353 Y-135.529
X-116.545 Y-135.427
X-116.763 Y-135.331
X-117.014 Y-135.241
X-117.294 Y-135.156
X-117.597 Y-135.076
X-117.877 Y-135.011
X-117.948 Y-135.033
X-118.393 Y-135.181
X-118.791 Y-135.33
X-119.149 Y-135.489
X-119.276 Y-135.555
X-119.399 Y-135.627
X-119.507 Y-135.699
X-119.591 Y-135.763
X-119.658 Y-135.824
X-119.715 Y-135.885
X-119.765 Y-135.947
X-119.813 Y-136.02
X-119.86 Y-136.105
X-119.91 Y-136.212
X-119.958 Y-136.333
X-120.002 Y-136.468
X-120.044 Y-136.621
X-120.078 Y-136.775
X-120.145 Y-137.173
X-120.191 Y-137.599
X-120.221 Y-138.063
X-120.248 Y-138.847
X-120.029 Y-139.576
X-119.728 Y-140.533
X-119.414 Y-141.463
X-119.075 Y-142.368
X-118.9 Y-142.795
X-118.714 Y-143.218
X-118.518 Y-143.63
X-118.313 Y-144.031
X-118.097 Y-144.419
X-117.866 Y-144.803
X-117.621 Y-145.183
X-117.364 Y-145.556
X-117.094 Y-145.924
X-116.809 Y-146.292
X-116.515 Y-146.654
X-116.214 Y-147.006
X-115.564 Y-147.723
X-114.884 Y-148.424
X-114.172 Y-149.119
X-113.435 Y-149.809
X-111.913 Y-151.192
X-109.633 Y-153.179
X-108.488 Y-154.164
X-107.339 Y-155.138
X-106.183 Y-156.097
X-105.019 Y-157.038
X-103.845 Y-157.959
X-102.658 Y-158.855
X-101.453 Y-159.728
X-100.229 Y-160.583
X-98.989 Y-161.421
X-97.734 Y-162.246
X-96.467 Y-163.062
X-95.19 Y-163.869
X-92.617 Y-165.474
X-90.997 Y-166.465
X-89.374 Y-167.428
X-88.569 Y-167.885
X-87.759 Y-168.328
X-86.947 Y-168.75
X-86.131 Y-169.15
X-85.312 Y-169.525
X-84.486 Y-169.872
X-83.649 Y-170.191
X-82.796 Y-170.486
X-81.924 Y-170.761
X-81.037 Y-171.023
X-79.503 Y-171.45
X-79.114 Y-171.408
X-78.474 Y-171.317
X-78.199 Y-171.264
X-77.935 Y-171.2
X-77.695 Y-171.127
X-77.468 Y-171.043
X-77.248 Y-170.942
X-77.022 Y-170.821
X-76.787 Y-170.679
X-76.552 Y-170.522
X-76.026 Y-170.135
X-75.592 Y-169.792
X-75.208 Y-169.355
X-74.997 Y-169.104
X-74.802 Y-168.858
X-74.629 Y-168.621
X-74.478 Y-168.393
X-74.352 Y-168.175
X-74.25 Y-167.963
X-74.163 Y-167.743
X-74.089 Y-167.503
X-74.023 Y-167.238
X-73.967 Y-166.95
X-73.919 Y-166.641
X-73.877 Y-166.316
X-73.813 Y-165.688
X-73.929 Y-158.358
X-73.998 Y-154.65
X-74.077 Y-150.941
X-74.259 Y-143.521
X-74.458 Y-136.098
G2 X-72.287 Y-134.579 I1.587 J0.043
G1 X-69.356 Y-135.739
X-67.896 Y-136.307
X-66.435 Y-136.862
X-64.975 Y-137.401
X-63.512 Y-137.919
X-62.048 Y-138.413
X-60.58 Y-138.88
X-59.108 Y-139.317
X-57.63 Y-139.718
X-56.142 Y-140.083
X-54.64 Y-140.415
X-53.123 Y-140.722
X-51.596 Y-141.01
X-48.687 Y-141.526
X-48.242 Y-141.5
X-47.652 Y-141.447
X-47.395 Y-141.412
X-47.143 Y-141.369
X-46.911 Y-141.319
X-46.698 Y-141.26
X-46.491 Y-141.187
X-46.28 Y-141.099
X-46.062 Y-140.994
X-45.839 Y-140.875
X-45.336 Y-140.575
X-44.982 Y-140.348
X-44.708 Y-140.047
X-44.533 Y-139.846
X-44.375 Y-139.651
X-44.238 Y-139.469
X-44.125 Y-139.296
X-44.034 Y-139.137
X-43.962 Y-138.983
X-43.901 Y-138.817
X-43.847 Y-138.63
X-43.8 Y-138.419
X-43.762 Y-138.196
X-43.698 Y-137.646
X-43.658 Y-137.128
X-43.678 Y-136.445
X-43.697 Y-136.098
X-43.725 Y-135.77
X-43.763 Y-135.468
X-43.813 Y-135.193
X-43.875 Y-134.947
X-43.947 Y-134.731
X-44.031 Y-134.541
X-44.135 Y-134.36
X-44.27 Y-134.167
X-44.44 Y-133.958
X-44.642 Y-133.737
X-44.871 Y-133.507
X-45.195 Y-133.202
X-45.897 Y-132.927
X-46.871 Y-132.565
X-47.342 Y-132.403
X-47.816 Y-132.251
X-48.289 Y-132.113
X-48.767 Y-131.987
X-49.254 Y-131.871
X-49.742 Y-131.764
X-50.758 Y-131.57
X-51.791 Y-131.396
X-52.845 Y-131.231
X-52.925 Y-131.217
X-55.531 Y-130.671
X-55.545 Y-130.668
X-58.145 Y-130.099
X-58.164 Y-130.095
X-59.46 Y-129.795
X-59.478 Y-129.79
X-60.769 Y-129.475
X-60.79 Y-129.47
X-62.077 Y-129.138
X-62.099 Y-129.132
X-63.381 Y-128.782
X-63.401 Y-128.777
X-64.679 Y-128.41
X-64.697 Y-128.405
X-65.971 Y-128.023
X-65.984 Y-128.019
X-67.254 Y-127.626
X-67.267 Y-127.622
X-68.535 Y-127.218
X-68.549 Y-127.213
X-71.079 Y-126.382
X-71.088 Y-126.379
X-73.613 Y-125.532
G2 X-74.621 Y-124.509 I0.505 J1.505
G3 X-75.02 Y-124.302 I-0.303 J-0.096
G1 X-75.323 Y-124.399
X-75.39 Y-124.42 Z-1.992
X-75.454 Y-124.44 Z-1.969
X-75.511 Y-124.459 Z-1.931
X-75.559 Y-124.474 Z-1.88
X-75.595 Y-124.485 Z-1.82
X-75.618 Y-124.493 Z-1.753
X-75.625 Y-124.495 Z-1.683
Z5
X-75.433 Y-125.1
Z-1.365 F333.3
Z-2.683
X-75.425 Y-125.098 Z-2.753 F1000
X-75.403 Y-125.09 Z-2.82
X-75.367 Y-125.079 Z-2.88
X-75.319 Y-125.064 Z-2.931
X-75.261 Y-125.045 Z-2.969
X-75.198 Y-125.025 Z-2.992
X-75.13 Y-125.004 Z-3
X-74.828 Y-124.907
G3 X-74.621 Y-124.509 I-0.096 J0.303
G2 X-74.696 Y-124.053 I1.513 J0.482
G1 X-74.74 Y-121.309
Y-121.3
X-74.77 Y-118.557
Y-118.544
X-74.783 Y-113.105
X-74.826 Y-112.433
X-74.893 Y-111.758
X-74.936 Y-111.464
X-74.989 Y-111.182
X-75.053 Y-110.919
X-75.129 Y-110.677
X-75.219 Y-110.446
X-75.33 Y-110.212
X-75.463 Y-109.969
X-75.618 Y-109.716
X-75.793 Y-109.454
X-75.984 Y-109.183
X-76.297 Y-108.761
X-76.686 Y-108.447
X-76.937 Y-108.255
X-77.182 Y-108.078
X-77.418 Y-107.922
X-77.643 Y-107.787
X-77.857 Y-107.677
X-78.066 Y-107.587
X-78.287 Y-107.512
X-78.53 Y-107.446
X-78.791 Y-107.391
X-79.066 Y-107.347
X-79.712 Y-107.275
X-80.323 Y-107.228
X-80.741 Y-107.239
X-81.196 Y-107.267
X-81.376 Y-107.287
X-81.549 Y-107.314
X-81.7 Y-107.346
X-81.829 Y-107.383
X-81.946 Y-107.427
X-82.057 Y-107.478
X-82.179 Y-107.547
X-82.306 Y-107.629
X-82.648 Y-107.885
X-82.798 Y-108.008
X-82.882 Y-108.154
X-83.079 Y-108.528
X-83.152 Y-108.683
X-83.216 Y-108.834
X-83.267 Y-108.975
X-83.309 Y-109.115
X-83.344 Y-109.264
X-83.372 Y-109.413
X-83.419 Y-109.8
X-83.448 Y-110.22
X-83.464 Y-110.641
X-83.416 Y-113.065
X-83.354 Y-115.532
X-83.196 Y-120.477
G2 X-85.381 Y-121.999 I-1.587 J-0.051
G1 X-100.006 Y-116.05
X-103.152 Y-114.817
X-103.163 Y-114.813
X-104.736 Y-114.183
X-104.75 Y-114.177
X-106.317 Y-113.532
X-106.334 Y-113.525
X-107.893 Y-112.862
X-107.908 Y-112.856
X-109.461 Y-112.177
X-109.475 Y-112.171
X-112.568 Y-110.784
X-112.603 Y-110.767
X-113.479 Y-110.348
X-114.342 Y-109.949
X-115.2 Y-109.579
X-115.615 Y-109.414
X-116.037 Y-109.257
X-116.455 Y-109.113
X-116.871 Y-108.984
X-117.297 Y-108.867
X-117.726 Y-108.761
X-118.639 Y-108.566
X-119.327 Y-108.434
X-119.931 Y-108.518
X-120.293 Y-108.582
X-120.615 Y-108.656
X-120.902 Y-108.743
X-120.992 Y-108.777
X-121.083 Y-108.818
X-121.161 Y-108.858
X-121.218 Y-108.894
X-121.26 Y-108.924
X-121.29 Y-108.95
X-121.318 Y-108.978
X-121.349 Y-109.018
X-121.384 Y-109.069
X-121.422 Y-109.135
X-121.465 Y-109.221
X-121.502 Y-109.307
X-121.596 Y-109.583
X-121.679 Y-109.895
X-121.753 Y-110.251
X-121.856 Y-110.863
X-121.778 Y-111.416
X-121.718 Y-111.771
X-121.649 Y-112.108
X-121.572 Y-112.416
X-121.486 Y-112.693
X-121.387 Y-112.941
X-121.277 Y-113.164
X-121.142 Y-113.383
X-120.98 Y-113.607
X-120.787 Y-113.837
X-120.566 Y-114.076
X-120.318 Y-114.321
X-120.049 Y-114.571
X-119.544 Y-115.018
X-118.263 Y-115.814
X-116.869 Y-116.659
X-116.176 Y-117.065
X-115.48 Y-117.462
X-114.779 Y-117.846
X-114.074 Y-118.218
X-112.63 Y-118.946
X-111.165 Y-119.648
X-109.681 Y-120.334
X-108.194 Y-121.009
X-105.189 Y-122.309
X-102.172 Y-123.6
X-99.149 Y-124.87
X-97.637 Y-125.49
X-96.122 Y-126.101
X-93.073 Y-127.303
X-90.013 Y-128.478
X-83.857 Y-130.795
G2 X-82.83 Y-132.223 I-0.559 J-1.486
G1 X-82.583 Y-138.98
Y-138.984
X-82.355 Y-145.742
Y-145.749
X-82.254 Y-149.129
X-82.253 Y-149.134
X-82.164 Y-152.514
Y-152.52
X-82.009 Y-159.28
G2 X-84.384 Y-160.694 I-1.587 J-0.036
G1 X-86.144 Y-159.688
X-86.153 Y-159.683
X-87.907 Y-158.666
X-87.924 Y-158.656
X-89.664 Y-157.618
X-89.686 Y-157.605
X-91.41 Y-156.539
X-91.427 Y-156.529
X-93.137 Y-155.442
X-93.151 Y-155.433
X-94.851 Y-154.328
X-94.862 Y-154.321
X-98.245 Y-152.083
X-98.262 Y-152.071
X-100.493 Y-150.552
X-100.506 Y-150.544
X-101.613 Y-149.775
X-101.627 Y-149.764
X-102.723 Y-148.984
X-102.745 Y-148.969
X-103.826 Y-148.172
X-103.849 Y-148.154
X-104.913 Y-147.339
X-104.943 Y-147.316
X-105.986 Y-146.477
X-106.02 Y-146.449
X-107.038 Y-145.583
X-107.066 Y-145.559
X-107.565 Y-145.114
X-107.584 Y-145.096
X-108.075 Y-144.643
X-108.095 Y-144.624
X-108.578 Y-144.163
X-108.596 Y-144.146
X-109.072 Y-143.677
X-109.097 Y-143.652
X-110.029 Y-142.692
X-110.056 Y-142.664
X-110.965 Y-141.68
X-110.987 Y-141.656
X-111.879 Y-140.652
X-111.895 Y-140.634
X-112.773 Y-139.615
X-112.785 Y-139.601
X-114.52 Y-137.539
X-114.58 Y-137.463
X-115.016 Y-136.876
X-115.22 Y-136.614
X-115.421 Y-136.37
X-115.616 Y-136.15
X-115.807 Y-135.956
X-115.995 Y-135.787
X-116.177 Y-135.644
X-116.353 Y-135.529
X-116.545 Y-135.427
X-116.763 Y-135.331
X-117.014 Y-135.241
X-117.294 Y-135.156
X-117.597 Y-135.076
X-117.877 Y-135.011
X-117.948 Y-135.033
X-118.393 Y-135.181
X-118.791 Y-135.33
X-119.149 Y-135.489
X-119.276 Y-135.555
X-119.399 Y-135.627
X-119.507 Y-135.699
X-119.591 Y-135.763
X-119.658 Y-135.824
X-119.715 Y-135.885
X-119.765 Y-135.947
X-119.813 Y-136.02
X-119.86 Y-136.105
X-119.91 Y-136.212
X-119.958 Y-136.333
X-120.002 Y-136.468
X-120.044 Y-136.621
X-120.078 Y-136.775
X-120.145 Y-137.173
X-120.191 Y-137.599
X-120.221 Y-138.063
X-120.248 Y-138.847
X-120.029 Y-139.576
X-119.728 Y-140.533
X-119.414 Y-141.463
X-119.075 Y-142.368
X-118.9 Y-142.795
X-118.714 Y-143.218
X-118.518 Y-143.63
X-118.313 Y-144.031
X-118.097 Y-144.419
X-117.866 Y-144.803
X-117.621 Y-145.183
X-117.364 Y-145.556
X-117.094 Y-145.924
X-116.809 Y-146.292
X-116.515 Y-146.654
X-116.214 Y-147.006
X-115.564 Y-147.723
X-114.884 Y-148.424
X-114.172 Y-149.119
X-113.435 Y-149.809
X-111.913 Y-151.192
X-109.633 Y-153.179
X-108.488 Y-154.164
X-107.339 Y-155.138
X-106.183 Y-156.097
X-105.019 Y-157.038
X-103.845 Y-157.959
X-102.658 Y-158.855
X-101.453 Y-159.728
X-100.229 Y-160.583
X-98.989 Y-161.421
X-97.734 Y-162.246
X-96.467 Y-163.062
X-95.19 Y-163.869
X-92.617 Y-165.474
X-90.997 Y-166.465
X-89.374 Y-167.428
X-88.569 Y-167.885
X-87.759 Y-168.328
X-86.947 Y-168.75
X-86.131 Y-169.15
X-85.312 Y-169.525
X-84.486 Y-169.872
X-83.649 Y-170.191
X-82.796 Y-170.486
X-81.924 Y-170.761
X-81.037 Y-171.023
X-79.503 Y-171.45
X-79.114 Y-171.408
X-78.474 Y-171.317
X-78.199 Y-171.264
X-77.935 Y-171.2
X-77.695 Y-171.127
X-77.468 Y-171.043
X-77.248 Y-170.942
X-77.022 Y-170.821
X-76.787 Y-170.679
X-76.552 Y-170.522
X-76.026 Y-170.135
X-75.592 Y-169.792
X-75.208 Y-169.355
X-74.997 Y-169.104
X-74.802 Y-168.858
X-74.629 Y-168.621
X-74.478 Y-168.393
X-74.352 Y-168.175
X-74.25 Y-167.963
X-74.163 Y-167.743
X-74.089 Y-167.503
X-74.023 Y-167.238
X-73.967 Y-166.95
X-73.919 Y-166.641
X-73.877 Y-166.316
X-73.813 Y-165.688
X-73.929 Y-158.358
X-73.998 Y-154.65
X-74.077 Y-150.941
X-74.259 Y-143.521
X-74.458 Y-136.098
G2 X-72.287 Y-134.579 I1.587 J0.043
G1 X-69.356 Y-135.739
X-67.896 Y-136.307
X-66.435 Y-136.862
X-64.975 Y-137.401
X-63.512 Y-137.919
X-62.048 Y-138.413
X-60.58 Y-138.88
X-59.108 Y-139.317
X-57.63 Y-139.718
X-56.142 Y-140.083
X-54.64 Y-140.415
X-53.123 Y-140.722
X-51.596 Y-141.01
X-48.687 Y-141.526
X-48.242 Y-141.5
X-47.652 Y-141.447
X-47.395 Y-141.412
X-47.143 Y-141.369
X-46.911 Y-141.319
X-46.698 Y-141.26
X-46.491 Y-141.187
X-46.28 Y-141.099
X-46.062 Y-140.994
X-45.839 Y-140.875
X-45.336 Y-140.575
X-44.982 Y-140.348
X-44.708 Y-140.047
X-44.533 Y-139.846
X-44.375 Y-139.651
X-44.238 Y-139.469
X-44.125 Y-139.296
X-44.034 Y-139.137
X-43.962 Y-138.983
X-43.901 Y-138.817
X-43.847 Y-138.63
X-43.8 Y-138.419
X-43.762 Y-138.196
X-43.698 Y-137.646
X-43.658 Y-137.128
X-43.678 Y-136.445
X-43.697 Y-136.098
X-43.725 Y-135.77
X-43.763 Y-135.468
X-43.813 Y-135.193
X-43.875 Y-134.947
X-43.947 Y-134.731
X-44.031 Y-134.541
X-44.135 Y-134.36
X-44.27 Y-134.167
X-44.44 Y-133.958
X-44.642 Y-133.737
X-44.871 Y-133.507
X-45.195 Y-133.202
X-45.897 Y-132.927
X-46.871 Y-132.565
X-47.342 Y-132.403
X-47.816 Y-132.251
X-48.289 Y-132.113
X-48.767 Y-131.987
X-49.254 Y-131.871
X-49.742 Y-131.764
X-50.758 Y-131.57
X-51.791 Y-131.396
X-52.845 Y-131.231
X-52.925 Y-131.217
X-55.531 Y-130.671
X-55.545 Y-130.668
X-58.145 Y-130.099
X-58.164 Y-130.095
X-59.46 Y-129.795
X-59.478 Y-129.79
X-60.769 Y-129.475
X-60.79 Y-129.47
X-62.077 Y-129.138
X-62.099 Y-129.132
X-63.381 Y-128.782
X-63.401 Y-128.777
X-64.679 Y-128.41
X-64.697 Y-128.405
X-65.971 Y-128.023
X-65.984 Y-128.019
X-67.254 Y-127.626
X-67.267 Y-127.622
X-68.535 Y-127.218
X-68.549 Y-127.213
X-71.079 Y-126.382
X-71.088 Y-126.379
X-73.613 Y-125.532
G2 X-74.621 Y-124.509 I0.505 J1.505
G3 X-75.02 Y-124.302 I-0.303 J-0.096
G1 X-75.323 Y-124.399
X-75.39 Y-124.42 Z-2.992
X-75.454 Y-124.44 Z-2.969
X-75.511 Y-124.459 Z-2.931
X-75.559 Y-124.474 Z-2.88
X-75.595 Y-124.485 Z-2.82
X-75.618 Y-124.493 Z-2.753
X-75.625 Y-124.495 Z-2.683
Z5
X-75.433 Y-125.1
Z-2.365 F333.3
Z-3.683
X-75.425 Y-125.098 Z-3.753 F1000
X-75.403 Y-125.09 Z-3.82
X-75.367 Y-125.079 Z-3.88
X-75.319 Y-125.064 Z-3.931
X-75.261 Y-125.045 Z-3.969
X-75.198 Y-125.025 Z-3.992
X-75.13 Y-125.004 Z-4
X-74.828 Y-124.907
G3 X-74.621 Y-124.509 I-0.096 J0.303
G2 X-74.696 Y-124.053 I1.513 J0.482
G1 X-74.74 Y-121.309
Y-121.3
X-74.77 Y-118.557
Y-118.544
X-74.783 Y-113.105
X-74.826 Y-112.433
X-74.893 Y-111.758
X-74.936 Y-111.464
X-74.989 Y-111.182
X-75.053 Y-110.919
X-75.129 Y-110.677
X-75.219 Y-110.446
X-75.33 Y-110.212
X-75.463 Y-109.969
X-75.618 Y-109.716
X-75.793 Y-109.454
X-75.984 Y-109.183
X-76.297 Y-108.761
X-76.686 Y-108.447
X-76.937 Y-108.255
X-77.182 Y-108.078
X-77.418 Y-107.922
X-77.643 Y-107.787
X-77.857 Y-107.677
X-78.066 Y-107.587
X-78.287 Y-107.512
X-78.53 Y-107.446
X-78.791 Y-107.391
X-79.066 Y-107.347
X-79.712 Y-107.275
X-80.323 Y-107.228
X-80.741 Y-107.239
X-81.196 Y-107.267
X-81.376 Y-107.287
X-81.549 Y-107.314
X-81.7 Y-107.346
X-81.829 Y-107.383
X-81.946 Y-107.427
X-82.057 Y-107.478
X-82.179 Y-107.547
X-82.306 Y-107.629
X-82.648 Y-107.885
X-82.798 Y-108.008
X-82.882 Y-108.154
X-83.079 Y-108.528
X-83.152 Y-108.683
X-83.216 Y-108.834
X-83.267 Y-108.975
X-83.309 Y-109.115
X-83.344 Y-109.264
X-83.372 Y-109.413
X-83.419 Y-109.8
X-83.448 Y-110.22
X-83.464 Y-110.641
X-83.416 Y-113.065
X-83.354 Y-115.532
X-83.196 Y-120.477
G2 X-85.381 Y-121.999 I-1.587 J-0.051
G1 X-100.006 Y-116.05
X-103.152 Y-114.817
X-103.163 Y-114.813
X-104.736 Y-114.183
X-104.75 Y-114.177
X-106.317 Y-113.532
X-106.334 Y-113.525
X-107.893 Y-112.862
X-107.908 Y-112.856
X-109.461 Y-112.177
X-109.475 Y-112.171
X-112.568 Y-110.784
X-112.603 Y-110.767
X-113.479 Y-110.348
X-114.342 Y-109.949
X-115.2 Y-109.579
X-115.615 Y-109.414
X-116.037 Y-109.257
X-116.455 Y-109.113
X-116.871 Y-108.984
X-117.297 Y-108.867
X-117.726 Y-108.761
X-118.639 Y-108.566
X-119.327 Y-108.434
X-119.931 Y-108.518
X-120.293 Y-108.582
X-120.615 Y-108.656
X-120.902 Y-108.743
X-120.992 Y-108.777
X-121.083 Y-108.818
X-121.161 Y-108.858
X-121.218 Y-108.894
X-121.26 Y-108.924
X-121.29 Y-108.95
X-121.318 Y-108.978
X-121.349 Y-109.018
X-121.384 Y-109.069
X-121.422 Y-109.135
X-121.465 Y-109.221
X-121.502 Y-109.307
X-121.596 Y-109.583
X-121.679 Y-109.895
X-121.753 Y-110.251
X-121.856 Y-110.863
X-121.778 Y-111.416
X-121.718 Y-111.771
X-121.649 Y-112.108
X-121.572 Y-112.416
X-121.486 Y-112.693
X-121.387 Y-112.941
X-121.277 Y-113.164
X-121.142 Y-113.383
X-120.98 Y-113.607
X-120.787 Y-113.837
X-120.566 Y-114.076
X-120.318 Y-114.321
X-120.049 Y-114.571
X-119.544 Y-115.018
X-118.263 Y-115.814
X-116.869 Y-116.659
X-116.176 Y-117.065
X-115.48 Y-117.462
X-114.779 Y-117.846
X-114.074 Y-118.218
X-112.63 Y-118.946
X-111.165 Y-119.648
X-109.681 Y-120.334
X-108.194 Y-121.009
X-105.189 Y-122.309
X-102.172 Y-123.6
X-99.149 Y-124.87
X-97.637 Y-125.49
X-96.122 Y-126.101
X-93.073 Y-127.303
X-90.013 Y-128.478
X-83.857 Y-130.795
G2 X-82.83 Y-132.223 I-0.559 J-1.486
G1 X-82.583 Y-138.98
Y-138.984
X-82.355 Y-145.742
Y-145.749
X-82.254 Y-149.129
X-82.253 Y-149.134
X-82.164 Y-152.514
Y-152.52
X-82.009 Y-159.28
G2 X-84.384 Y-160.694 I-1.587 J-0.036
G1 X-86.144 Y-159.688
X-86.153 Y-159.683
X-87.907 Y-158.666
X-87.924 Y-158.656
X-89.664 Y-157.618
X-89.686 Y-157.605
X-91.41 Y-156.539
X-91.427 Y-156.529
X-93.137 Y-155.442
X-93.151 Y-155.433
X-94.851 Y-154.328
X-94.862 Y-154.321
X-98.245 Y-152.083
X-98.262 Y-152.071
X-100.493 Y-150.552
X-100.506 Y-150.544
X-101.613 Y-149.775
X-101.627 Y-149.764
X-102.723 Y-148.984
X-102.745 Y-148.969
X-103.826 Y-148.172
X-103.849 Y-148.154
X-104.913 Y-147.339
X-104.943 Y-147.316
X-105.986 Y-146.477
X-106.02 Y-146.449
X-107.038 Y-145.583
X-107.066 Y-145.559
X-107.565 Y-145.114
X-107.584 Y-145.096
X-108.075 Y-144.643
X-108.095 Y-144.624
X-108.578 Y-144.163
X-108.596 Y-144.146
X-109.072 Y-143.677
X-109.097 Y-143.652
X-110.029 Y-142.692
X-110.056 Y-142.664
X-110.965 Y-141.68
X-110.987 Y-141.656
X-111.879 Y-140.652
X-111.895 Y-140.634
X-112.773 Y-139.615
X-112.785 Y-139.601
X-114.52 Y-137.539
X-114.58 Y-137.463
X-115.016 Y-136.876
X-115.22 Y-136.614
X-115.421 Y-136.37
X-115.616 Y-136.15
X-115.807 Y-135.956
X-115.995 Y-135.787
X-116.177 Y-135.644
X-116.353 Y-135.529
X-116.545 Y-135.427
X-116.763 Y-135.331
X-117.014 Y-135.241
X-117.294 Y-135.156
X-117.597 Y-135.076
X-117.877 Y-135.011
X-117.948 Y-135.033
X-118.393 Y-135.181
X-118.791 Y-135.33
X-119.149 Y-135.489
X-119.276 Y-135.555
X-119.399 Y-135.627
X-119.507 Y-135.699
X-119.591 Y-135.763
X-119.658 Y-135.824
X-119.715 Y-135.885
X-119.765 Y-135.947
X-119.813 Y-136.02
X-119.86 Y-136.105
X-119.91 Y-136.212
X-119.958 Y-136.333
X-120.002 Y-136.468
X-120.044 Y-136.621
X-120.078 Y-136.775
X-120.145 Y-137.173
X-120.191 Y-137.599
X-120.221 Y-138.063
X-120.248 Y-138.847
X-120.029 Y-139.576
X-119.728 Y-140.533
X-119.414 Y-141.463
X-119.075 Y-142.368
X-118.9 Y-142.795
X-118.714 Y-143.218
X-118.518 Y-143.63
X-118.313 Y-144.031
X-118.097 Y-144.419
X-117.866 Y-144.803
X-117.621 Y-145.183
X-117.364 Y-145.556
X-117.094 Y-145.924
X-116.809 Y-146.292
X-116.515 Y-146.654
X-116.214 Y-147.006
X-115.564 Y-147.723
X-114.884 Y-148.424
X-114.172 Y-149.119
X-113.435 Y-149.809
X-111.913 Y-151.192
X-109.633 Y-153.179
X-108.488 Y-154.164
X-107.339 Y-155.138
X-106.183 Y-156.097
X-105.019 Y-157.038
X-103.845 Y-157.959
X-102.658 Y-158.855
X-101.453 Y-159.728
X-100.229 Y-160.583
X-98.989 Y-161.421
X-97.734 Y-162.246
X-96.467 Y-163.062
X-95.19 Y-163.869
X-92.617 Y-165.474
X-90.997 Y-166.465
X-89.374 Y-167.428
X-88.569 Y-167.885
X-87.759 Y-168.328
X-86.947 Y-168.75
X-86.131 Y-169.15
X-85.312 Y-169.525
X-84.486 Y-169.872
X-83.649 Y-170.191
X-82.796 Y-170.486
X-81.924 Y-170.761
X-81.037 Y-171.023
X-79.503 Y-171.45
X-79.114 Y-171.408
X-78.474 Y-171.317
X-78.199 Y-171.264
X-77.935 Y-171.2
X-77.695 Y-171.127
X-77.468 Y-171.043
X-77.248 Y-170.942
X-77.022 Y-170.821
X-76.787 Y-170.679
X-76.552 Y-170.522
X-76.026 Y-170.135
X-75.592 Y-169.792
X-75.208 Y-169.355
X-74.997 Y-169.104
X-74.802 Y-168.858
X-74.629 Y-168.621
X-74.478 Y-168.393
X-74.352 Y-168.175
X-74.25 Y-167.963
X-74.163 Y-167.743
X-74.089 Y-167.503
X-74.023 Y-167.238
X-73.967 Y-166.95
X-73.919 Y-166.641
X-73.877 Y-166.316
X-73.813 Y-165.688
X-73.929 Y-158.358
X-73.998 Y-154.65
X-74.077 Y-150.941
X-74.259 Y-143.521
X-74.458 Y-136.098
G2 X-72.287 Y-134.579 I1.587 J0.043
G1 X-69.356 Y-135.739
X-67.896 Y-136.307
X-66.435 Y-136.862
X-64.975 Y-137.401
X-63.512 Y-137.919
X-62.048 Y-138.413
X-60.58 Y-138.88
X-59.108 Y-139.317
X-57.63 Y-139.718
X-56.142 Y-140.083
X-54.64 Y-140.415
X-53.123 Y-140.722
X-51.596 Y-141.01
X-48.687 Y-141.526
X-48.242 Y-141.5
X-47.652 Y-141.447
X-47.395 Y-141.412
X-47.143 Y-141.369
X-46.911 Y-141.319
X-46.698 Y-141.26
X-46.491 Y-141.187
X-46.28 Y-141.099
X-46.062 Y-140.994
X-45.839 Y-140.875
X-45.336 Y-140.575
X-44.982 Y-140.348
X-44.708 Y-140.047
X-44.533 Y-139.846
X-44.375 Y-139.651
X-44.238 Y-139.469
X-44.125 Y-139.296
X-44.034 Y-139.137
X-43.962 Y-138.983
X-43.901 Y-138.817
X-43.847 Y-138.63
X-43.8 Y-138.419
X-43.762 Y-138.196
X-43.698 Y-137.646
X-43.658 Y-137.128
X-43.678 Y-136.445
X-43.697 Y-136.098
X-43.725 Y-135.77
X-43.763 Y-135.468
X-43.813 Y-135.193
X-43.875 Y-134.947
X-43.947 Y-134.731
X-44.031 Y-134.541
X-44.135 Y-134.36
X-44.27 Y-134.167
X-44.44 Y-133.958
X-44.642 Y-133.737
X-44.871 Y-133.507
X-45.195 Y-133.202
X-45.897 Y-132.927
X-46.871 Y-132.565
X-47.342 Y-132.403
X-47.816 Y-132.251
X-48.289 Y-132.113
X-48.767 Y-131.987
X-49.254 Y-131.871
X-49.742 Y-131.764
X-50.758 Y-131.57
X-51.791 Y-131.396
X-52.845 Y-131.231
X-52.925 Y-131.217
X-55.531 Y-130.671
X-55.545 Y-130.668
X-58.145 Y-130.099
X-58.164 Y-130.095
X-59.46 Y-129.795
X-59.478 Y-129.79
X-60.769 Y-129.475
X-60.79 Y-129.47
X-62.077 Y-129.138
X-62.099 Y-129.132
X-63.381 Y-128.782
X-63.401 Y-128.777
X-64.679 Y-128.41
X-64.697 Y-128.405
X-65.971 Y-128.023
X-65.984 Y-128.019
X-67.254 Y-127.626
X-67.267 Y-127.622
X-68.535 Y-127.218
X-68.549 Y-127.213
X-71.079 Y-126.382
X-71.088 Y-126.379
X-73.613 Y-125.532
G2 X-74.621 Y-124.509 I0.505 J1.505
G3 X-75.02 Y-124.302 I-0.303 J-0.096
G1 X-75.323 Y-124.399
X-75.39 Y-124.42 Z-3.992
X-75.454 Y-124.44 Z-3.969
X-75.511 Y-124.459 Z-3.931
X-75.559 Y-124.474 Z-3.88
X-75.595 Y-124.485 Z-3.82
X-75.618 Y-124.493 Z-3.753
X-75.625 Y-124.495 Z-3.683
Z5
X-75.433 Y-125.1
Z-3.365 F333.3
Z-3.983
X-75.425 Y-125.098 Z-4.053 F1000
X-75.403 Y-125.09 Z-4.12
X-75.367 Y-125.079 Z-4.18
X-75.319 Y-125.064 Z-4.231
X-75.261 Y-125.045 Z-4.269
X-75.198 Y-125.025 Z-4.292
X-75.13 Y-125.004 Z-4.3
X-74.828 Y-124.907
G3 X-74.621 Y-124.509 I-0.096 J0.303
G2 X-74.696 Y-124.053 I1.513 J0.482
G1 X-74.74 Y-121.309
Y-121.3
X-74.77 Y-118.557
Y-118.544
X-74.783 Y-113.105
X-74.826 Y-112.433
X-74.893 Y-111.758
X-74.936 Y-111.464
X-74.989 Y-111.182
X-75.053 Y-110.919
X-75.129 Y-110.677
X-75.219 Y-110.446
X-75.33 Y-110.212
X-75.463 Y-109.969
X-75.618 Y-109.716
X-75.793 Y-109.454
X-75.984 Y-109.183
X-76.297 Y-108.761
X-76.686 Y-108.447
X-76.937 Y-108.255
X-77.182 Y-108.078
X-77.418 Y-107.922
X-77.643 Y-107.787
X-77.857 Y-107.677
X-78.066 Y-107.587
X-78.287 Y-107.512
X-78.53 Y-107.446
X-78.791 Y-107.391
X-79.066 Y-107.347
X-79.712 Y-107.275
X-80.323 Y-107.228
X-80.741 Y-107.239
X-81.196 Y-107.267
X-81.376 Y-107.287
X-81.549 Y-107.314
X-81.7 Y-107.346
X-81.829 Y-107.383
X-81.946 Y-107.427
X-82.057 Y-107.478
X-82.179 Y-107.547
X-82.306 Y-107.629
X-82.648 Y-107.885
X-82.798 Y-108.008
X-82.882 Y-108.154
X-83.079 Y-108.528
X-83.152 Y-108.683
X-83.216 Y-108.834
X-83.267 Y-108.975
X-83.309 Y-109.115
X-83.344 Y-109.264
X-83.372 Y-109.413
X-83.419 Y-109.8
X-83.448 Y-110.22
X-83.464 Y-110.641
X-83.416 Y-113.065
X-83.354 Y-115.532
X-83.196 Y-120.477
G2 X-85.381 Y-121.999 I-1.587 J-0.051
G1 X-100.006 Y-116.05
X-103.152 Y-114.817
X-103.163 Y-114.813
X-104.736 Y-114.183
X-104.75 Y-114.177
X-106.317 Y-113.532
X-106.334 Y-113.525
X-107.893 Y-112.862
X-107.908 Y-112.856
X-109.461 Y-112.177
X-109.475 Y-112.171
X-112.568 Y-110.784
X-112.603 Y-110.767
X-113.479 Y-110.348
X-114.342 Y-109.949
X-115.2 Y-109.579
X-115.615 Y-109.414
X-116.037 Y-109.257
X-116.455 Y-109.113
X-116.871 Y-108.984
X-117.297 Y-108.867
X-117.726 Y-108.761
X-118.639 Y-108.566
X-119.327 Y-108.434
X-119.931 Y-108.518
X-120.293 Y-108.582
X-120.615 Y-108.656
X-120.902 Y-108.743
X-120.992 Y-108.777
X-121.083 Y-108.818
X-121.161 Y-108.858
X-121.218 Y-108.894
X-121.26 Y-108.924
X-121.29 Y-108.95
X-121.318 Y-108.978
X-121.349 Y-109.018
X-121.384 Y-109.069
X-121.422 Y-109.135
X-121.465 Y-109.221
X-121.502 Y-109.307
X-121.596 Y-109.583
X-121.679 Y-109.895
X-121.753 Y-110.251
X-121.856 Y-110.863
X-121.778 Y-111.416
X-121.718 Y-111.771
X-121.649 Y-112.108
X-121.572 Y-112.416
X-121.486 Y-112.693
X-121.387 Y-112.941
X-121.277 Y-113.164
X-121.142 Y-113.383
X-120.98 Y-113.607
X-120.787 Y-113.837
X-120.566 Y-114.076
X-120.318 Y-114.321
X-120.049 Y-114.571
X-119.544 Y-115.018
X-118.263 Y-115.814
X-116.869 Y-116.659
X-116.176 Y-117.065
X-115.48 Y-117.462
X-114.779 Y-117.846
X-114.074 Y-118.218
X-112.63 Y-118.946
X-111.165 Y-119.648
X-109.681 Y-120.334
X-108.194 Y-121.009
X-105.189 Y-122.309
X-102.172 Y-123.6
X-99.149 Y-124.87
X-97.637 Y-125.49
X-96.122 Y-126.101
X-93.073 Y-127.303
X-90.013 Y-128.478
X-83.857 Y-130.795
G2 X-82.83 Y-132.223 I-0.559 J-1.486
G1 X-82.583 Y-138.98
Y-138.984
X-82.355 Y-145.742
Y-145.749
X-82.254 Y-149.129
X-82.253 Y-149.134
X-82.164 Y-152.514
Y-152.52
X-82.009 Y-159.28
G2 X-84.384 Y-160.694 I-1.587 J-0.036
G1 X-86.144 Y-159.688
X-86.153 Y-159.683
X-87.907 Y-158.666
X-87.924 Y-158.656
X-89.664 Y-157.618
X-89.686 Y-157.605
X-91.41 Y-156.539
X-91.427 Y-156.529
X-93.137 Y-155.442
X-93.151 Y-155.433
X-94.851 Y-154.328
X-94.862 Y-154.321
X-98.245 Y-152.083
X-98.262 Y-152.071
X-100.493 Y-150.552
X-100.506 Y-150.544
X-101.613 Y-149.775
X-101.627 Y-149.764
X-102.723 Y-148.984
X-102.745 Y-148.969
X-103.826 Y-148.172
X-103.849 Y-148.154
X-104.913 Y-147.339
X-104.943 Y-147.316
X-105.986 Y-146.477
X-106.02 Y-146.449
X-107.038 Y-145.583
X-107.066 Y-145.559
X-107.565 Y-145.114
X-107.584 Y-145.096
X-108.075 Y-144.643
X-108.095 Y-144.624
X-108.578 Y-144.163
X-108.596 Y-144.146
X-109.072 Y-143.677
X-109.097 Y-143.652
X-110.029 Y-142.692
X-110.056 Y-142.664
X-110.965 Y-141.68
X-110.987 Y-141.656
X-111.879 Y-140.652
X-111.895 Y-140.634
X-112.773 Y-139.615
X-112.785 Y-139.601
X-114.52 Y-137.539
X-114.58 Y-137.463
X-115.016 Y-136.876
X-115.22 Y-136.614
X-115.421 Y-136.37
X-115.616 Y-136.15
X-115.807 Y-135.956
X-115.995 Y-135.787
X-116.177 Y-135.644
X-116.353 Y-135.529
X-116.545 Y-135.427
X-116.763 Y-135.331
X-117.014 Y-135.241
X-117.294 Y-135.156
X-117.597 Y-135.076
X-117.877 Y-135.011
X-117.948 Y-135.033
X-118.393 Y-135.181
X-118.791 Y-135.33
X-119.149 Y-135.489
X-119.276 Y-135.555
X-119.399 Y-135.627
X-119.507 Y-135.699
X-119.591 Y-135.763
X-119.658 Y-135.824
X-119.715 Y-135.885
X-119.765 Y-135.947
X-119.813 Y-136.02
X-119.86 Y-136.105
X-119.91 Y-136.212
X-119.958 Y-136.333
X-120.002 Y-136.468
X-120.044 Y-136.621
X-120.078 Y-136.775
X-120.145 Y-137.173
X-120.191 Y-137.599
X-120.221 Y-138.063
X-120.248 Y-138.847
X-120.029 Y-139.576
X-119.728 Y-140.533
X-119.414 Y-141.463
X-119.075 Y-142.368
X-118.9 Y-142.795
X-118.714 Y-143.218
X-118.518 Y-143.63
X-118.313 Y-144.031
X-118.097 Y-144.419
X-117.866 Y-144.803
X-117.621 Y-145.183
X-117.364 Y-145.556
X-117.094 Y-145.924
X-116.809 Y-146.292
X-116.515 Y-146.654
X-116.214 Y-147.006
X-115.564 Y-147.723
X-114.884 Y-148.424
X-114.172 Y-149.119
X-113.435 Y-149.809
X-111.913 Y-151.192
X-109.633 Y-153.179
X-108.488 Y-154.164
X-107.339 Y-155.138
X-106.183 Y-156.097
X-105.019 Y-157.038
X-103.845 Y-157.959
X-102.658 Y-158.855
X-101.453 Y-159.728
X-100.229 Y-160.583
X-98.989 Y-161.421
X-97.734 Y-162.246
X-96.467 Y-163.062
X-95.19 Y-163.869
X-92.617 Y-165.474
X-90.997 Y-166.465
X-89.374 Y-167.428
X-88.569 Y-167.885
X-87.759 Y-168.328
X-86.947 Y-168.75
X-86.131 Y-169.15
X-85.312 Y-169.525
X-84.486 Y-169.872
X-83.649 Y-170.191
X-82.796 Y-170.486
X-81.924 Y-170.761
X-81.037 Y-171.023
X-79.503 Y-171.45
X-79.114 Y-171.408
X-78.474 Y-171.317
X-78.199 Y-171.264
X-77.935 Y-171.2
X-77.695 Y-171.127
X-77.468 Y-171.043
X-77.248 Y-170.942
X-77.022 Y-170.821
X-76.787 Y-170.679
X-76.552 Y-170.522
X-76.026 Y-170.135
X-75.592 Y-169.792
X-75.208 Y-169.355
X-74.997 Y-169.104
X-74.802 Y-168.858
X-74.629 Y-168.621
X-74.478 Y-168.393
X-74.352 Y-168.175
X-74.25 Y-167.963
X-74.163 Y-167.743
X-74.089 Y-167.503
X-74.023 Y-167.238
X-73.967 Y-166.95
X-73.919 Y-166.641
X-73.877 Y-166.316
X-73.813 Y-165.688
X-73.929 Y-158.358
X-73.998 Y-154.65
X-74.077 Y-150.941
X-74.259 Y-143.521
X-74.458 Y-136.098
G2 X-72.287 Y-134.579 I1.587 J0.043
G1 X-69.356 Y-135.739
X-67.896 Y-136.307
X-66.435 Y-136.862
X-64.975 Y-137.401
X-63.512 Y-137.919
X-62.048 Y-138.413
X-60.58 Y-138.88
X-59.108 Y-139.317
X-57.63 Y-139.718
X-56.142 Y-140.083
X-54.64 Y-140.415
X-53.123 Y-140.722
X-51.596 Y-141.01
X-48.687 Y-141.526
X-48.242 Y-141.5
X-47.652 Y-141.447
X-47.395 Y-141.412
X-47.143 Y-141.369
X-46.911 Y-141.319
X-46.698 Y-141.26
X-46.491 Y-141.187
X-46.28 Y-141.099
X-46.062 Y-140.994
X-45.839 Y-140.875
X-45.336 Y-140.575
X-44.982 Y-140.348
X-44.708 Y-140.047
X-44.533 Y-139.846
X-44.375 Y-139.651
X-44.238 Y-139.469
X-44.125 Y-139.296
X-44.034 Y-139.137
X-43.962 Y-138.983
X-43.901 Y-138.817
X-43.847 Y-138.63
X-43.8 Y-138.419
X-43.762 Y-138.196
X-43.698 Y-137.646
X-43.658 Y-137.128
X-43.678 Y-136.445
X-43.697 Y-136.098
X-43.725 Y-135.77
X-43.763 Y-135.468
X-43.813 Y-135.193
X-43.875 Y-134.947
X-43.947 Y-134.731
X-44.031 Y-134.541
X-44.135 Y-134.36
X-44.27 Y-134.167
X-44.44 Y-133.958
X-44.642 Y-133.737
X-44.871 Y-133.507
X-45.195 Y-133.202
X-45.897 Y-132.927
X-46.871 Y-132.565
X-47.342 Y-132.403
X-47.816 Y-132.251
X-48.289 Y-132.113
X-48.767 Y-131.987
X-49.254 Y-131.871
X-49.742 Y-131.764
X-50.758 Y-131.57
X-51.791 Y-131.396
X-52.845 Y-131.231
X-52.925 Y-131.217
X-55.531 Y-130.671
X-55.545 Y-130.668
X-58.145 Y-130.099
X-58.164 Y-130.095
X-59.46 Y-129.795
X-59.478 Y-129.79
X-60.769 Y-129.475
X-60.79 Y-129.47
X-62.077 Y-129.138
X-62.099 Y-129.132
X-63.381 Y-128.782
X-63.401 Y-128.777
X-64.679 Y-128.41
X-64.697 Y-128.405
X-65.971 Y-128.023
X-65.984 Y-128.019
X-67.254 Y-127.626
X-67.267 Y-127.622
X-68.535 Y-127.218
X-68.549 Y-127.213
X-71.079 Y-126.382
X-71.088 Y-126.379
X-73.613 Y-125.532
G2 X-74.621 Y-124.509 I0.505 J1.505
G3 X-75.02 Y-124.302 I-0.303 J-0.096
G1 X-75.323 Y-124.399
X-75.39 Y-124.42 Z-4.292
X-75.454 Y-124.44 Z-4.269
X-75.511 Y-124.459 Z-4.231
X-75.559 Y-124.474 Z-4.18
X-75.595 Y-124.485 Z-4.12
X-75.618 Y-124.493 Z-4.053
X-75.625 Y-124.495 Z-3.983
Z5
X-48.266 Y-59.617
Z0.635 F333.3
Z-0.683
X-48.259 Y-59.613 Z-0.753 F1000
X-48.239 Y-59.602 Z-0.82
X-48.205 Y-59.583 Z-0.88
X-48.161 Y-59.559 Z-0.931
X-48.109 Y-59.53 Z-0.969
X-48.05 Y-59.498 Z-0.992
X-47.988 Y-59.463 Z-1
X-47.71 Y-59.31
G3 X-47.586 Y-58.878 I-0.154 J0.278
G1 X-47.614 Y-58.828
X-48.14 Y-57.936
X-48.693 Y-57.047
X-49.269 Y-56.159
X-49.864 Y-55.273
X-50.474 Y-54.386
X-51.678 Y-52.672
X-53.952 Y-50.092
X-55.121 Y-48.799
X-56.306 Y-47.528
X-56.901 Y-46.909
X-57.503 Y-46.297
X-58.11 Y-45.695
X-58.724 Y-45.104
X-59.345 Y-44.524
X-59.973 Y-43.957
X-60.61 Y-43.403
X-61.256 Y-42.863
X-61.913 Y-42.335
X-62.582 Y-41.818
X-63.262 Y-41.311
X-63.952 Y-40.813
X-64.652 Y-40.324
X-65.357 Y-39.846
X-66.804 Y-38.901
X-68.276 Y-37.981
X-69.769 Y-37.078
X-72.749 Y-35.325
X-75.697 Y-33.929
X-77.194 Y-33.245
X-78.695 Y-32.587
X-79.44 Y-32.274
X-80.189 Y-31.97
X-80.939 Y-31.677
X-81.69 Y-31.397
X-82.442 Y-31.13
X-83.196 Y-30.877
X-83.951 Y-30.64
X-84.708 Y-30.419
X-85.469 Y-30.214
X-86.234 Y-30.027
X-87.006 Y-29.856
X-87.784 Y-29.699
X-88.569 Y-29.555
X-89.359 Y-29.424
X-90.155 Y-29.305
X-90.952 Y-29.196
X-92.574 Y-29.002
X-94.206 Y-28.837
X-97.414 Y-28.56
X-98.609 Y-28.62
X-99.897 Y-28.694
X-101.167 Y-28.787
X-102.422 Y-28.907
X-103.03 Y-28.98
X-103.637 Y-29.063
X-104.238 Y-29.157
X-104.829 Y-29.263
X-105.412 Y-29.383
X-105.988 Y-29.516
X-106.555 Y-29.665
X-107.111 Y-29.829
X-107.66 Y-30.011
X-108.202 Y-30.211
X-108.741 Y-30.431
X-109.278 Y-30.669
X-109.813 Y-30.924
X-110.348 Y-31.195
X-110.88 Y-31.481
X-111.413 Y-31.782
X-111.945 Y-32.095
X-112.473 Y-32.417
X-113.545 Y-33.098
X-114.616 Y-33.805
X-115.523 Y-34.415
X-116.544 Y-35.579
X-117.099 Y-36.23
X-117.638 Y-36.881
X-118.154 Y-37.533
X-118.643 Y-38.185
X-119.101 Y-38.841
X-119.53 Y-39.507
X-119.723 Y-39.832
X-119.912 Y-40.165
X-120.089 Y-40.499
X-120.257 Y-40.836
X-120.413 Y-41.174
X-120.558 Y-41.516
X-120.695 Y-41.864
X-120.822 Y-42.218
X-120.941 Y-42.579
X-121.049 Y-42.936
X-121.175 Y-43.412
X-111.686
X-111.685 Y-43.411
X-111.652 Y-43.368
X-111.403 Y-43.052
X-111.376 Y-43.019
X-111.117 Y-42.709
X-111.084 Y-42.67
X-110.541 Y-42.06
X-110.518 Y-42.034
X-109.958 Y-41.431
G2 X-109.594 Y-41.139 I1.163 J-1.08
G1 X-108.446 Y-40.471
X-108.417 Y-40.454
X-107.839 Y-40.134
X-107.801 Y-40.114
X-107.217 Y-39.81
X-107.169 Y-39.786
X-106.58 Y-39.504
X-106.515 Y-39.475
X-105.917 Y-39.222
X-105.837 Y-39.19
X-105.228 Y-38.971
X-105.136 Y-38.941
X-104.517 Y-38.759
X-104.428 Y-38.735
X-103.798 Y-38.589
X-103.719 Y-38.573
X-103.079 Y-38.459
X-103.013 Y-38.448
X-102.366 Y-38.361
X-102.31 Y-38.354
X-101.655 Y-38.29
X-101.611 Y-38.286
X-100.952 Y-38.239
X-100.919 Y-38.237
X-100.255 Y-38.204
X-100.228 Y-38.202
X-98.894 Y-38.158
X-98.803
X-98.712 Y-38.162
X-96.035 Y-38.381
X-96.014 Y-38.383
X-94.679 Y-38.509
X-94.654 Y-38.512
X-93.324 Y-38.66
X-93.29 Y-38.664
X-91.968 Y-38.841
X-91.937 Y-38.846
X-91.279 Y-38.947
X-91.255 Y-38.951
X-90.6 Y-39.062
X-90.574 Y-39.066
X-89.921 Y-39.188
X-89.893 Y-39.193
X-89.243 Y-39.326
X-89.213 Y-39.333
X-88.566 Y-39.478
X-88.534 Y-39.486
X-87.89 Y-39.645
X-87.861 Y-39.652
X-87.22 Y-39.824
X-87.192 Y-39.831
X-86.554 Y-40.015
X-86.528 Y-40.022
X-85.892 Y-40.217
X-85.868 Y-40.224
X-85.236 Y-40.429
X-85.204 Y-40.439
X-83.945 Y-40.876
X-83.909 Y-40.889
X-82.657 Y-41.357
X-82.629 Y-41.368
X-81.384 Y-41.862
X-81.363 Y-41.87
X-80.123 Y-42.383
X-80.105 Y-42.39
X-77.632 Y-43.446
X-77.523 Y-43.498
X-75.052 Y-44.784
X-75.037 Y-44.792
X-73.811 Y-45.448
X-73.792 Y-45.458
X-72.577 Y-46.129
X-72.552 Y-46.143
X-71.352 Y-46.835
X-71.321 Y-46.853
X-70.14 Y-47.571
X-70.113 Y-47.587
X-69.531 Y-47.957
X-69.511 Y-47.97
X-68.935 Y-48.348
X-68.914 Y-48.362
X-68.344 Y-48.75
X-68.322 Y-48.765
X-67.759 Y-49.162
X-67.735 Y-49.179
X-67.18 Y-49.586
X-67.157 Y-49.604
X-66.609 Y-50.021
X-66.587 Y-50.038
X-66.047 Y-50.465
X-66.027 Y-50.481
X-65.493 Y-50.917
X-65.467 Y-50.94
X-64.417 Y-51.836
X-64.387 Y-51.862
X-63.358 Y-52.786
X-63.335 Y-52.807
X-62.321 Y-53.754
X-62.304 Y-53.77
X-61.303 Y-54.733
X-61.29 Y-54.747
X-59.308 Y-56.701
X-59.251 Y-56.76
X-59.197 Y-56.823
X-58.314 Y-57.895
X-58.302 Y-57.91
X-57.436 Y-58.989
X-57.419 Y-59.01
X-56.997 Y-59.555
X-56.982 Y-59.574
X-56.57 Y-60.123
X-56.552 Y-60.148
X-56.152 Y-60.702
X-56.132 Y-60.731
X-55.747 Y-61.291
X-55.724 Y-61.325
X-55.355 Y-61.893
X-55.33 Y-61.932
X-54.979 Y-62.508
X-54.953 Y-62.552
X-54.622 Y-63.137
X-54.595 Y-63.187
X-54.286 Y-63.781
X-54.258 Y-63.838
X-53.974 Y-64.443
X-53.946 Y-64.505
X-53.689 Y-65.121
X-53.664 Y-65.184
X-53.58 Y-65.412
X-44.91
X-44.938 Y-65.294
X-45.065 Y-64.812
X-45.203 Y-64.33
X-45.349 Y-63.853
X-45.505 Y-63.382
X-45.67 Y-62.916
X-45.846 Y-62.453
X-46.033 Y-61.994
X-46.23 Y-61.537
X-46.438 Y-61.081
X-46.652 Y-60.634
X-47.118 Y-59.725
X-47.586 Y-58.878
G3 X-48.018 Y-58.754 I-0.278 J-0.154
G1 X-48.296 Y-58.908
X-48.357 Y-58.942 Z-0.992
X-48.416 Y-58.974 Z-0.969
X-48.469 Y-59.003 Z-0.931
X-48.513 Y-59.028 Z-0.88
X-48.546 Y-59.046 Z-0.82
X-48.566 Y-59.057 Z-0.753
X-48.573 Y-59.061 Z-0.683
Z5
X-48.266 Y-59.617
Z-0.365 F333.3
Z-1.683
X-48.259 Y-59.613 Z-1.753 F1000
X-48.239 Y-59.602 Z-1.82
X-48.205 Y-59.583 Z-1.88
X-48.161 Y-59.559 Z-1.931
X-48.109 Y-59.53 Z-1.969
X-48.05 Y-59.498 Z-1.992
X-47.988 Y-59.463 Z-2
X-47.71 Y-59.31
G3 X-47.586 Y-58.878 I-0.154 J0.278
G1 X-47.614 Y-58.828
X-48.14 Y-57.936
X-48.693 Y-57.047
X-49.269 Y-56.159
X-49.864 Y-55.273
X-50.474 Y-54.386
X-51.678 Y-52.672
X-53.952 Y-50.092
X-55.121 Y-48.799
X-56.306 Y-47.528
X-56.901 Y-46.909
X-57.503 Y-46.297
X-58.11 Y-45.695
X-58.724 Y-45.104
X-59.345 Y-44.524
X-59.973 Y-43.957
X-60.61 Y-43.403
X-61.256 Y-42.863
X-61.913 Y-42.335
X-62.582 Y-41.818
