(6inch_Source1)
(T5  D=3.175 CR=0 - ZMIN=-4.3 - Schaftfraser)
G90 G94
G17
G21
(When using Fusion 360 for Personal Use, the feedrate of)
(rapid moves is reduced to match the feedrate of cutting)
(moves, which can increase machining time. Unrestricted rapid)
(moves are available with a Fusion 360 Subscription.)

(Bohrfrasen1)
T5
S2000 M3
G54
G0 X-52.038 Y-16.317
Z15
G1 Z1.683 F1000
Z0
X-52.129 Y-16.447
X-52.142 Y-16.476
Y-16.508
X-52.131 Y-16.537
X-52.109 Y-16.56
G3 X-51.922 Y-16.294 Z-0.046 I0.093 J0.133
X-52.109 Y-16.56 Z-0.092 I-0.093 J-0.133
X-51.922 Y-16.294 Z-0.137 I0.093 J0.133
X-52.109 Y-16.56 Z-0.183 I-0.093 J-0.133
X-51.922 Y-16.294 Z-0.229 I0.093 J0.133
X-52.109 Y-16.56 Z-0.275 I-0.093 J-0.133
X-51.922 Y-16.294 Z-0.321 I0.093 J0.133
X-52.109 Y-16.56 Z-0.367 I-0.093 J-0.133
X-51.922 Y-16.294 Z-0.412 I0.093 J0.133
X-52.109 Y-16.56 Z-0.458 I-0.093 J-0.133
X-51.922 Y-16.294 Z-0.504 I0.093 J0.133
X-52.109 Y-16.56 Z-0.55 I-0.093 J-0.133
X-51.922 Y-16.294 Z-0.596 I0.093 J0.133
X-52.109 Y-16.56 Z-0.642 I-0.093 J-0.133
X-51.922 Y-16.294 Z-0.687 I0.093 J0.133
X-52.109 Y-16.56 Z-0.733 I-0.093 J-0.133
X-51.922 Y-16.294 Z-0.779 I0.093 J0.133
X-52.109 Y-16.56 Z-0.825 I-0.093 J-0.133
X-51.922 Y-16.294 Z-0.871 I0.093 J0.133
X-52.109 Y-16.56 Z-0.917 I-0.093 J-0.133
X-51.922 Y-16.294 Z-0.962 I0.093 J0.133
X-52.109 Y-16.56 Z-1.008 I-0.093 J-0.133
X-51.922 Y-16.294 Z-1.054 I0.093 J0.133
X-52.109 Y-16.56 Z-1.1 I-0.093 J-0.133
X-51.922 Y-16.294 Z-1.146 I0.093 J0.133
X-52.109 Y-16.56 Z-1.191 I-0.093 J-0.133
X-51.922 Y-16.294 Z-1.237 I0.093 J0.133
X-52.109 Y-16.56 Z-1.283 I-0.093 J-0.133
X-51.922 Y-16.294 Z-1.329 I0.093 J0.133
X-52.109 Y-16.56 Z-1.375 I-0.093 J-0.133
X-51.922 Y-16.294 Z-1.421 I0.093 J0.133
X-52.109 Y-16.56 Z-1.466 I-0.093 J-0.133
X-51.922 Y-16.294 Z-1.512 I0.093 J0.133
X-52.109 Y-16.56 Z-1.558 I-0.093 J-0.133
X-51.922 Y-16.294 Z-1.604 I0.093 J0.133
X-52.109 Y-16.56 Z-1.65 I-0.093 J-0.133
X-51.922 Y-16.294 Z-1.696 I0.093 J0.133
X-52.109 Y-16.56 Z-1.741 I-0.093 J-0.133
X-51.922 Y-16.294 Z-1.787 I0.093 J0.133
X-52.109 Y-16.56 Z-1.833 I-0.093 J-0.133
X-51.922 Y-16.294 Z-1.879 I0.093 J0.133
X-52.109 Y-16.56 Z-1.925 I-0.093 J-0.133
X-51.922 Y-16.294 Z-1.97 I0.093 J0.133
X-52.109 Y-16.56 Z-2.016 I-0.093 J-0.133
X-51.922 Y-16.294 Z-2.062 I0.093 J0.133
X-52.109 Y-16.56 Z-2.108 I-0.093 J-0.133
X-51.922 Y-16.294 Z-2.154 I0.093 J0.133
X-52.109 Y-16.56 Z-2.2 I-0.093 J-0.133
X-51.922 Y-16.294 Z-2.245 I0.093 J0.133
X-52.109 Y-16.56 Z-2.291 I-0.093 J-0.133
X-51.922 Y-16.294 Z-2.337 I0.093 J0.133
X-52.109 Y-16.56 Z-2.383 I-0.093 J-0.133
X-51.922 Y-16.294 Z-2.429 I0.093 J0.133
X-52.109 Y-16.56 Z-2.475 I-0.093 J-0.133
X-51.922 Y-16.294 Z-2.52 I0.093 J0.133
X-52.109 Y-16.56 Z-2.566 I-0.093 J-0.133
X-51.922 Y-16.294 Z-2.612 I0.093 J0.133
X-52.109 Y-16.56 Z-2.658 I-0.093 J-0.133
X-51.922 Y-16.294 Z-2.704 I0.093 J0.133
X-52.109 Y-16.56 Z-2.75 I-0.093 J-0.133
X-51.922 Y-16.294 Z-2.795 I0.093 J0.133
X-52.109 Y-16.56 Z-2.841 I-0.093 J-0.133
X-51.922 Y-16.294 Z-2.887 I0.093 J0.133
X-52.109 Y-16.56 Z-2.933 I-0.093 J-0.133
X-51.922 Y-16.294 Z-2.979 I0.093 J0.133
X-52.109 Y-16.56 Z-3.024 I-0.093 J-0.133
X-51.922 Y-16.294 Z-3.07 I0.093 J0.133
X-52.109 Y-16.56 Z-3.116 I-0.093 J-0.133
X-51.922 Y-16.294 Z-3.162 I0.093 J0.133
X-52.109 Y-16.56 Z-3.208 I-0.093 J-0.133
X-51.922 Y-16.294 Z-3.254 I0.093 J0.133
X-52.109 Y-16.56 Z-3.299 I-0.093 J-0.133
X-51.922 Y-16.294 Z-3.345 I0.093 J0.133
X-52.109 Y-16.56 Z-3.391 I-0.093 J-0.133
X-51.922 Y-16.294 Z-3.437 I0.093 J0.133
X-52.109 Y-16.56 Z-3.483 I-0.093 J-0.133
X-51.922 Y-16.294 Z-3.529 I0.093 J0.133
X-52.109 Y-16.56 Z-3.574 I-0.093 J-0.133
X-51.922 Y-16.294 Z-3.62 I0.093 J0.133
X-52.109 Y-16.56 Z-3.666 I-0.093 J-0.133
X-51.922 Y-16.294 Z-3.712 I0.093 J0.133
X-52.109 Y-16.56 Z-3.758 I-0.093 J-0.133
X-51.922 Y-16.294 Z-3.804 I0.093 J0.133
X-52.109 Y-16.56 Z-3.849 I-0.093 J-0.133
X-51.922 Y-16.294 Z-3.895 I0.093 J0.133
X-52.109 Y-16.56 Z-3.941 I-0.093 J-0.133
X-51.922 Y-16.294 Z-3.987 I0.093 J0.133
X-52.109 Y-16.56 Z-4.033 I-0.093 J-0.133
X-51.922 Y-16.294 Z-4.078 I0.093 J0.133
X-52.109 Y-16.56 Z-4.124 I-0.093 J-0.133
X-51.922 Y-16.294 Z-4.17 I0.093 J0.133
X-52.109 Y-16.56 Z-4.216 I-0.093 J-0.133
X-51.922 Y-16.294 Z-4.262 I0.093 J0.133
X-52.163 Y-16.496 Z-4.3 I-0.093 J-0.133
X-51.869 Y-16.358 I0.147 J0.069
X-52.163 Y-16.496 I-0.147 J-0.069
G1 X-52.144 Y-16.522
X-52.117 Y-16.538
X-52.085 Y-16.543
X-52.055 Y-16.535
X-51.911 Y-16.468
Z5
X-50.749 Y-23.628
Z1.683
Z0
X-50.84 Y-23.758
X-50.852 Y-23.787
X-50.853 Y-23.819
X-50.842 Y-23.849
X-50.82 Y-23.871
G3 X-50.633 Y-23.605 Z-0.046 I0.093 J0.133
X-50.82 Y-23.871 Z-0.092 I-0.093 J-0.133
X-50.633 Y-23.605 Z-0.137 I0.093 J0.133
X-50.82 Y-23.871 Z-0.183 I-0.093 J-0.133
X-50.633 Y-23.605 Z-0.229 I0.093 J0.133
X-50.82 Y-23.871 Z-0.275 I-0.093 J-0.133
X-50.633 Y-23.605 Z-0.321 I0.093 J0.133
X-50.82 Y-23.871 Z-0.367 I-0.093 J-0.133
X-50.633 Y-23.605 Z-0.412 I0.093 J0.133
X-50.82 Y-23.871 Z-0.458 I-0.093 J-0.133
X-50.633 Y-23.605 Z-0.504 I0.093 J0.133
X-50.82 Y-23.871 Z-0.55 I-0.093 J-0.133
X-50.633 Y-23.605 Z-0.596 I0.093 J0.133
X-50.82 Y-23.871 Z-0.642 I-0.093 J-0.133
X-50.633 Y-23.605 Z-0.687 I0.093 J0.133
X-50.82 Y-23.871 Z-0.733 I-0.093 J-0.133
X-50.633 Y-23.605 Z-0.779 I0.093 J0.133
X-50.82 Y-23.871 Z-0.825 I-0.093 J-0.133
X-50.633 Y-23.605 Z-0.871 I0.093 J0.133
X-50.82 Y-23.871 Z-0.917 I-0.093 J-0.133
X-50.633 Y-23.605 Z-0.962 I0.093 J0.133
X-50.82 Y-23.871 Z-1.008 I-0.093 J-0.133
X-50.633 Y-23.605 Z-1.054 I0.093 J0.133
X-50.82 Y-23.871 Z-1.1 I-0.093 J-0.133
X-50.633 Y-23.605 Z-1.146 I0.093 J0.133
X-50.82 Y-23.871 Z-1.191 I-0.093 J-0.133
X-50.633 Y-23.605 Z-1.237 I0.093 J0.133
X-50.82 Y-23.871 Z-1.283 I-0.093 J-0.133
X-50.633 Y-23.605 Z-1.329 I0.093 J0.133
X-50.82 Y-23.871 Z-1.375 I-0.093 J-0.133
X-50.633 Y-23.605 Z-1.421 I0.093 J0.133
X-50.82 Y-23.871 Z-1.466 I-0.093 J-0.133
X-50.633 Y-23.605 Z-1.512 I0.093 J0.133
X-50.82 Y-23.871 Z-1.558 I-0.093 J-0.133
X-50.633 Y-23.605 Z-1.604 I0.093 J0.133
X-50.82 Y-23.871 Z-1.65 I-0.093 J-0.133
X-50.633 Y-23.605 Z-1.696 I0.093 J0.133
X-50.82 Y-23.871 Z-1.741 I-0.093 J-0.133
X-50.633 Y-23.605 Z-1.787 I0.093 J0.133
X-50.82 Y-23.871 Z-1.833 I-0.093 J-0.133
X-50.633 Y-23.605 Z-1.879 I0.093 J0.133
X-50.82 Y-23.871 Z-1.925 I-0.093 J-0.133
X-50.633 Y-23.605 Z-1.97 I0.093 J0.133
X-50.82 Y-23.871 Z-2.016 I-0.093 J-0.133
X-50.633 Y-23.605 Z-2.062 I0.093 J0.133
X-50.82 Y-23.871 Z-2.108 I-0.093 J-0.133
X-50.633 Y-23.605 Z-2.154 I0.093 J0.133
X-50.82 Y-23.871 Z-2.2 I-0.093 J-0.133
X-50.633 Y-23.605 Z-2.245 I0.093 J0.133
X-50.82 Y-23.871 Z-2.291 I-0.093 J-0.133
X-50.633 Y-23.605 Z-2.337 I0.093 J0.133
X-50.82 Y-23.871 Z-2.383 I-0.093 J-0.133
X-50.633 Y-23.605 Z-2.429 I0.093 J0.133
X-50.82 Y-23.871 Z-2.475 I-0.093 J-0.133
X-50.633 Y-23.605 Z-2.52 I0.093 J0.133
X-50.82 Y-23.871 Z-2.566 I-0.093 J-0.133
X-50.633 Y-23.605 Z-2.612 I0.093 J0.133
X-50.82 Y-23.871 Z-2.658 I-0.093 J-0.133
X-50.633 Y-23.605 Z-2.704 I0.093 J0.133
X-50.82 Y-23.871 Z-2.75 I-0.093 J-0.133
X-50.633 Y-23.605 Z-2.795 I0.093 J0.133
X-50.82 Y-23.871 Z-2.841 I-0.093 J-0.133
X-50.633 Y-23.605 Z-2.887 I0.093 J0.133
X-50.82 Y-23.871 Z-2.933 I-0.093 J-0.133
X-50.633 Y-23.605 Z-2.979 I0.093 J0.133
X-50.82 Y-23.871 Z-3.024 I-0.093 J-0.133
X-50.633 Y-23.605 Z-3.07 I0.093 J0.133
X-50.82 Y-23.871 Z-3.116 I-0.093 J-0.133
X-50.633 Y-23.605 Z-3.162 I0.093 J0.133
X-50.82 Y-23.871 Z-3.208 I-0.093 J-0.133
X-50.633 Y-23.605 Z-3.254 I0.093 J0.133
X-50.82 Y-23.871 Z-3.299 I-0.093 J-0.133
X-50.633 Y-23.605 Z-3.345 I0.093 J0.133
X-50.82 Y-23.871 Z-3.391 I-0.093 J-0.133
X-50.633 Y-23.605 Z-3.437 I0.093 J0.133
X-50.82 Y-23.871 Z-3.483 I-0.093 J-0.133
X-50.633 Y-23.605 Z-3.529 I0.093 J0.133
X-50.82 Y-23.871 Z-3.574 I-0.093 J-0.133
X-50.633 Y-23.605 Z-3.62 I0.093 J0.133
X-50.82 Y-23.871 Z-3.666 I-0.093 J-0.133
X-50.633 Y-23.605 Z-3.712 I0.093 J0.133
X-50.82 Y-23.871 Z-3.758 I-0.093 J-0.133
X-50.633 Y-23.605 Z-3.804 I0.093 J0.133
X-50.82 Y-23.871 Z-3.849 I-0.093 J-0.133
X-50.633 Y-23.605 Z-3.895 I0.093 J0.133
X-50.82 Y-23.871 Z-3.941 I-0.093 J-0.133
X-50.633 Y-23.605 Z-3.987 I0.093 J0.133
X-50.82 Y-23.871 Z-4.033 I-0.093 J-0.133
X-50.633 Y-23.605 Z-4.078 I0.093 J0.133
X-50.82 Y-23.871 Z-4.124 I-0.093 J-0.133
X-50.633 Y-23.605 Z-4.17 I0.093 J0.133
X-50.82 Y-23.871 Z-4.216 I-0.093 J-0.133
X-50.633 Y-23.605 Z-4.262 I0.093 J0.133
X-50.874 Y-23.808 Z-4.3 I-0.093 J-0.133
X-50.58 Y-23.669 I0.147 J0.069
X-50.874 Y-23.808 I-0.147 J-0.069
G1 X-50.855 Y-23.833
X-50.828 Y-23.849
X-50.796 Y-23.854
X-50.765 Y-23.846
X-50.622 Y-23.779
Z5
X-18.088 Y-18.01
Z2
Z0.317
X-18.084 Y-18.004 Z0.247
X-18.07 Y-17.984 Z0.18
X-18.048 Y-17.953 Z0.12
X-18.02 Y-17.912 Z0.069
X-17.985 Y-17.863 Z0.031
X-17.947 Y-17.808 Z0.008
X-17.906 Y-17.75 Z0
X-17.815 Y-17.62
G3 X-17.893 Y-17.178 I-0.26 J0.182
X-21.234 Y-21.949 Z-0.118 I-1.671 J-2.386
X-17.893 Y-17.178 Z-0.236 I1.671 J2.386
X-21.234 Y-21.949 Z-0.354 I-1.671 J-2.386
X-17.893 Y-17.178 Z-0.471 I1.671 J2.386
X-21.234 Y-21.949 Z-0.589 I-1.671 J-2.386
X-17.893 Y-17.178 Z-0.707 I1.671 J2.386
X-21.234 Y-21.949 Z-0.825 I-1.671 J-2.386
X-17.893 Y-17.178 Z-0.943 I1.671 J2.386
X-21.234 Y-21.949 Z-1.061 I-1.671 J-2.386
X-17.893 Y-17.178 Z-1.178 I1.671 J2.386
X-21.234 Y-21.949 Z-1.296 I-1.671 J-2.386
X-17.893 Y-17.178 Z-1.414 I1.671 J2.386
X-21.234 Y-21.949 Z-1.532 I-1.671 J-2.386
X-17.893 Y-17.178 Z-1.65 I1.671 J2.386
X-21.234 Y-21.949 Z-1.768 I-1.671 J-2.386
X-17.893 Y-17.178 Z-1.885 I1.671 J2.386
X-21.234 Y-21.949 Z-2.003 I-1.671 J-2.386
X-17.893 Y-17.178 Z-2.121 I1.671 J2.386
X-21.234 Y-21.949 Z-2.239 I-1.671 J-2.386
X-17.893 Y-17.178 Z-2.357 I1.671 J2.386
X-21.234 Y-21.949 Z-2.475 I-1.671 J-2.386
X-17.893 Y-17.178 Z-2.592 I1.671 J2.386
X-21.234 Y-21.949 Z-2.71 I-1.671 J-2.386
X-17.893 Y-17.178 Z-2.828 I1.671 J2.386
X-21.234 Y-21.949 Z-2.946 I-1.671 J-2.386
X-17.893 Y-17.178 Z-3.064 I1.671 J2.386
X-21.234 Y-21.949 Z-3.182 I-1.671 J-2.386
X-17.893 Y-17.178 Z-3.299 I1.671 J2.386
X-21.234 Y-21.949 Z-3.417 I-1.671 J-2.386
X-17.893 Y-17.178 Z-3.535 I1.671 J2.386
X-21.234 Y-21.949 Z-3.653 I-1.671 J-2.386
X-17.893 Y-17.178 Z-3.771 I1.671 J2.386
X-21.234 Y-21.949 Z-3.889 I-1.671 J-2.386
X-17.893 Y-17.178 Z-4.006 I1.671 J2.386
X-21.234 Y-21.949 Z-4.124 I-1.671 J-2.386
X-17.893 Y-17.178 Z-4.242 I1.671 J2.386
X-21.902 Y-17.828 Z-4.3 I-1.671 J-2.386
X-17.225 Y-21.299 I2.339 J-1.736
X-21.902 Y-17.828 I-2.339 J1.736
X-21.836 Y-18.272 I0.255 J-0.189
G1 X-21.709 Y-18.366
X-21.652 Y-18.409 Z-4.292
X-21.598 Y-18.449 Z-4.269
X-21.55 Y-18.484 Z-4.231
X-21.51 Y-18.514 Z-4.18
X-21.479 Y-18.537 Z-4.12
X-21.46 Y-18.551 Z-4.053
X-21.454 Y-18.556 Z-3.983
Z5
X-50.777 Y-141.946
Z2
Z0.317
X-50.782 Y-141.953 Z0.247
X-50.795 Y-141.972 Z0.18
X-50.817 Y-142.003 Z0.12
X-50.846 Y-142.044 Z0.069
X-50.88 Y-142.093 Z0.031
X-50.919 Y-142.148 Z0.008
X-50.959 Y-142.206 Z0
X-51.051 Y-142.336
G3 X-50.973 Y-142.778 I0.26 J-0.182
X-47.631 Y-138.007 Z-0.118 I1.671 J2.386
X-50.973 Y-142.778 Z-0.236 I-1.671 J-2.386
X-47.631 Y-138.007 Z-0.354 I1.671 J2.386
X-50.973 Y-142.778 Z-0.471 I-1.671 J-2.386
X-47.631 Y-138.007 Z-0.589 I1.671 J2.386
X-50.973 Y-142.778 Z-0.707 I-1.671 J-2.386
X-47.631 Y-138.007 Z-0.825 I1.671 J2.386
X-50.973 Y-142.778 Z-0.943 I-1.671 J-2.386
X-47.631 Y-138.007 Z-1.061 I1.671 J2.386
X-50.973 Y-142.778 Z-1.178 I-1.671 J-2.386
X-47.631 Y-138.007 Z-1.296 I1.671 J2.386
X-50.973 Y-142.778 Z-1.414 I-1.671 J-2.386
X-47.631 Y-138.007 Z-1.532 I1.671 J2.386
X-50.973 Y-142.778 Z-1.65 I-1.671 J-2.386
X-47.631 Y-138.007 Z-1.768 I1.671 J2.386
X-50.973 Y-142.778 Z-1.885 I-1.671 J-2.386
X-47.631 Y-138.007 Z-2.003 I1.671 J2.386
X-50.973 Y-142.778 Z-2.121 I-1.671 J-2.386
X-47.631 Y-138.007 Z-2.239 I1.671 J2.386
X-50.973 Y-142.778 Z-2.357 I-1.671 J-2.386
X-47.631 Y-138.007 Z-2.475 I1.671 J2.386
X-50.973 Y-142.778 Z-2.592 I-1.671 J-2.386
X-47.631 Y-138.007 Z-2.71 I1.671 J2.386
X-50.973 Y-142.778 Z-2.828 I-1.671 J-2.386
X-47.631 Y-138.007 Z-2.946 I1.671 J2.386
X-50.973 Y-142.778 Z-3.064 I-1.671 J-2.386
X-47.631 Y-138.007 Z-3.182 I1.671 J2.386
X-50.973 Y-142.778 Z-3.299 I-1.671 J-2.386
X-47.631 Y-138.007 Z-3.417 I1.671 J2.386
X-50.973 Y-142.778 Z-3.535 I-1.671 J-2.386
X-47.631 Y-138.007 Z-3.653 I1.671 J2.386
X-50.973 Y-142.778 Z-3.771 I-1.671 J-2.386
X-47.631 Y-138.007 Z-3.889 I1.671 J2.386
X-50.973 Y-142.778 Z-4.006 I-1.671 J-2.386
X-47.631 Y-138.007 Z-4.124 I1.671 J2.386
X-50.973 Y-142.778 Z-4.242 I-1.671 J-2.386
X-46.963 Y-142.128 Z-4.3 I1.671 J2.386
X-51.641 Y-138.657 I-2.339 J1.736
X-46.963 Y-142.128 I2.339 J-1.736
X-47.029 Y-141.684 I-0.255 J0.189
G1 X-47.157 Y-141.59
X-47.213 Y-141.548 Z-4.292
X-47.267 Y-141.508 Z-4.269
X-47.316 Y-141.472 Z-4.231
X-47.356 Y-141.442 Z-4.18
X-47.386 Y-141.419 Z-4.12
X-47.405 Y-141.405 Z-4.053
X-47.411 Y-141.4 Z-3.983
Z5
X-18.117 Y-136.328
Z1.683
Z0
X-18.026 Y-136.198
X-18.013 Y-136.169
X-18.012 Y-136.137
X-18.024 Y-136.108
X-18.046 Y-136.085
G3 X-18.232 Y-136.351 Z-0.046 I-0.093 J-0.133
X-18.046 Y-136.085 Z-0.092 I0.093 J0.133
X-18.232 Y-136.351 Z-0.137 I-0.093 J-0.133
X-18.046 Y-136.085 Z-0.183 I0.093 J0.133
X-18.232 Y-136.351 Z-0.229 I-0.093 J-0.133
X-18.046 Y-136.085 Z-0.275 I0.093 J0.133
X-18.232 Y-136.351 Z-0.321 I-0.093 J-0.133
X-18.046 Y-136.085 Z-0.367 I0.093 J0.133
X-18.232 Y-136.351 Z-0.412 I-0.093 J-0.133
X-18.046 Y-136.085 Z-0.458 I0.093 J0.133
X-18.232 Y-136.351 Z-0.504 I-0.093 J-0.133
X-18.046 Y-136.085 Z-0.55 I0.093 J0.133
X-18.232 Y-136.351 Z-0.596 I-0.093 J-0.133
X-18.046 Y-136.085 Z-0.642 I0.093 J0.133
X-18.232 Y-136.351 Z-0.687 I-0.093 J-0.133
X-18.046 Y-136.085 Z-0.733 I0.093 J0.133
X-18.232 Y-136.351 Z-0.779 I-0.093 J-0.133
X-18.046 Y-136.085 Z-0.825 I0.093 J0.133
X-18.232 Y-136.351 Z-0.871 I-0.093 J-0.133
X-18.046 Y-136.085 Z-0.917 I0.093 J0.133
X-18.232 Y-136.351 Z-0.962 I-0.093 J-0.133
X-18.046 Y-136.085 Z-1.008 I0.093 J0.133
X-18.232 Y-136.351 Z-1.054 I-0.093 J-0.133
X-18.046 Y-136.085 Z-1.1 I0.093 J0.133
X-18.232 Y-136.351 Z-1.146 I-0.093 J-0.133
X-18.046 Y-136.085 Z-1.191 I0.093 J0.133
X-18.232 Y-136.351 Z-1.237 I-0.093 J-0.133
X-18.046 Y-136.085 Z-1.283 I0.093 J0.133
X-18.232 Y-136.351 Z-1.329 I-0.093 J-0.133
X-18.046 Y-136.085 Z-1.375 I0.093 J0.133
X-18.232 Y-136.351 Z-1.421 I-0.093 J-0.133
X-18.046 Y-136.085 Z-1.466 I0.093 J0.133
X-18.232 Y-136.351 Z-1.512 I-0.093 J-0.133
X-18.046 Y-136.085 Z-1.558 I0.093 J0.133
X-18.232 Y-136.351 Z-1.604 I-0.093 J-0.133
X-18.046 Y-136.085 Z-1.65 I0.093 J0.133
X-18.232 Y-136.351 Z-1.696 I-0.093 J-0.133
X-18.046 Y-136.085 Z-1.741 I0.093 J0.133
X-18.232 Y-136.351 Z-1.787 I-0.093 J-0.133
X-18.046 Y-136.085 Z-1.833 I0.093 J0.133
X-18.232 Y-136.351 Z-1.879 I-0.093 J-0.133
X-18.046 Y-136.085 Z-1.925 I0.093 J0.133
X-18.232 Y-136.351 Z-1.97 I-0.093 J-0.133
X-18.046 Y-136.085 Z-2.016 I0.093 J0.133
X-18.232 Y-136.351 Z-2.062 I-0.093 J-0.133
X-18.046 Y-136.085 Z-2.108 I0.093 J0.133
X-18.232 Y-136.351 Z-2.154 I-0.093 J-0.133
X-18.046 Y-136.085 Z-2.2 I0.093 J0.133
X-18.232 Y-136.351 Z-2.245 I-0.093 J-0.133
X-18.046 Y-136.085 Z-2.291 I0.093 J0.133
X-18.232 Y-136.351 Z-2.337 I-0.093 J-0.133
X-18.046 Y-136.085 Z-2.383 I0.093 J0.133
X-18.232 Y-136.351 Z-2.429 I-0.093 J-0.133
X-18.046 Y-136.085 Z-2.475 I0.093 J0.133
X-18.232 Y-136.351 Z-2.52 I-0.093 J-0.133
X-18.046 Y-136.085 Z-2.566 I0.093 J0.133
X-18.232 Y-136.351 Z-2.612 I-0.093 J-0.133
X-18.046 Y-136.085 Z-2.658 I0.093 J0.133
X-18.232 Y-136.351 Z-2.704 I-0.093 J-0.133
X-18.046 Y-136.085 Z-2.75 I0.093 J0.133
X-18.232 Y-136.351 Z-2.795 I-0.093 J-0.133
X-18.046 Y-136.085 Z-2.841 I0.093 J0.133
X-18.232 Y-136.351 Z-2.887 I-0.093 J-0.133
X-18.046 Y-136.085 Z-2.933 I0.093 J0.133
X-18.232 Y-136.351 Z-2.979 I-0.093 J-0.133
X-18.046 Y-136.085 Z-3.024 I0.093 J0.133
X-18.232 Y-136.351 Z-3.07 I-0.093 J-0.133
X-18.046 Y-136.085 Z-3.116 I0.093 J0.133
X-18.232 Y-136.351 Z-3.162 I-0.093 J-0.133
X-18.046 Y-136.085 Z-3.208 I0.093 J0.133
X-18.232 Y-136.351 Z-3.254 I-0.093 J-0.133
X-18.046 Y-136.085 Z-3.299 I0.093 J0.133
X-18.232 Y-136.351 Z-3.345 I-0.093 J-0.133
X-18.046 Y-136.085 Z-3.391 I0.093 J0.133
X-18.232 Y-136.351 Z-3.437 I-0.093 J-0.133
X-18.046 Y-136.085 Z-3.483 I0.093 J0.133
X-18.232 Y-136.351 Z-3.529 I-0.093 J-0.133
X-18.046 Y-136.085 Z-3.574 I0.093 J0.133
X-18.232 Y-136.351 Z-3.62 I-0.093 J-0.133
X-18.046 Y-136.085 Z-3.666 I0.093 J0.133
X-18.232 Y-136.351 Z-3.712 I-0.093 J-0.133
X-18.046 Y-136.085 Z-3.758 I0.093 J0.133
X-18.232 Y-136.351 Z-3.804 I-0.093 J-0.133
X-18.046 Y-136.085 Z-3.849 I0.093 J0.133
X-18.232 Y-136.351 Z-3.895 I-0.093 J-0.133
X-18.046 Y-136.085 Z-3.941 I0.093 J0.133
X-18.232 Y-136.351 Z-3.987 I-0.093 J-0.133
X-18.046 Y-136.085 Z-4.033 I0.093 J0.133
X-18.232 Y-136.351 Z-4.078 I-0.093 J-0.133
X-18.046 Y-136.085 Z-4.124 I0.093 J0.133
X-18.232 Y-136.351 Z-4.17 I-0.093 J-0.133
X-18.046 Y-136.085 Z-4.216 I0.093 J0.133
X-18.232 Y-136.351 Z-4.262 I-0.093 J-0.133
X-17.992 Y-136.149 Z-4.3 I0.093 J0.133
X-18.286 Y-136.287 I-0.147 J-0.069
X-17.992 Y-136.149 I0.147 J0.069
G1 X-18.011 Y-136.123
X-18.038 Y-136.107
X-18.069 Y-136.102
X-18.1 Y-136.11
X-18.244 Y-136.177
Z5
X-16.828 Y-143.639
Z1.683
Z0
X-16.737 Y-143.509
X-16.724 Y-143.48
X-16.723 Y-143.448
X-16.735 Y-143.419
X-16.757 Y-143.396
G3 X-16.943 Y-143.662 Z-0.046 I-0.093 J-0.133
X-16.757 Y-143.396 Z-0.092 I0.093 J0.133
X-16.943 Y-143.662 Z-0.137 I-0.093 J-0.133
X-16.757 Y-143.396 Z-0.183 I0.093 J0.133
X-16.943 Y-143.662 Z-0.229 I-0.093 J-0.133
X-16.757 Y-143.396 Z-0.275 I0.093 J0.133
X-16.943 Y-143.662 Z-0.321 I-0.093 J-0.133
X-16.757 Y-143.396 Z-0.367 I0.093 J0.133
X-16.943 Y-143.662 Z-0.412 I-0.093 J-0.133
X-16.757 Y-143.396 Z-0.458 I0.093 J0.133
X-16.943 Y-143.662 Z-0.504 I-0.093 J-0.133
X-16.757 Y-143.396 Z-0.55 I0.093 J0.133
X-16.943 Y-143.662 Z-0.596 I-0.093 J-0.133
X-16.757 Y-143.396 Z-0.642 I0.093 J0.133
X-16.943 Y-143.662 Z-0.687 I-0.093 J-0.133
X-16.757 Y-143.396 Z-0.733 I0.093 J0.133
X-16.943 Y-143.662 Z-0.779 I-0.093 J-0.133
X-16.757 Y-143.396 Z-0.825 I0.093 J0.133
X-16.943 Y-143.662 Z-0.871 I-0.093 J-0.133
X-16.757 Y-143.396 Z-0.917 I0.093 J0.133
X-16.943 Y-143.662 Z-0.962 I-0.093 J-0.133
X-16.757 Y-143.396 Z-1.008 I0.093 J0.133
X-16.943 Y-143.662 Z-1.054 I-0.093 J-0.133
X-16.757 Y-143.396 Z-1.1 I0.093 J0.133
X-16.943 Y-143.662 Z-1.146 I-0.093 J-0.133
X-16.757 Y-143.396 Z-1.191 I0.093 J0.133
X-16.943 Y-143.662 Z-1.237 I-0.093 J-0.133
X-16.757 Y-143.396 Z-1.283 I0.093 J0.133
X-16.943 Y-143.662 Z-1.329 I-0.093 J-0.133
X-16.757 Y-143.396 Z-1.375 I0.093 J0.133
X-16.943 Y-143.662 Z-1.421 I-0.093 J-0.133
X-16.757 Y-143.396 Z-1.466 I0.093 J0.133
X-16.943 Y-143.662 Z-1.512 I-0.093 J-0.133
X-16.757 Y-143.396 Z-1.558 I0.093 J0.133
X-16.943 Y-143.662 Z-1.604 I-0.093 J-0.133
X-16.757 Y-143.396 Z-1.65 I0.093 J0.133
X-16.943 Y-143.662 Z-1.696 I-0.093 J-0.133
X-16.757 Y-143.396 Z-1.741 I0.093 J0.133
X-16.943 Y-143.662 Z-1.787 I-0.093 J-0.133
X-16.757 Y-143.396 Z-1.833 I0.093 J0.133
X-16.943 Y-143.662 Z-1.879 I-0.093 J-0.133
X-16.757 Y-143.396 Z-1.925 I0.093 J0.133
X-16.943 Y-143.662 Z-1.97 I-0.093 J-0.133
X-16.757 Y-143.396 Z-2.016 I0.093 J0.133
X-16.943 Y-143.662 Z-2.062 I-0.093 J-0.133
X-16.757 Y-143.396 Z-2.108 I0.093 J0.133
X-16.943 Y-143.662 Z-2.154 I-0.093 J-0.133
X-16.757 Y-143.396 Z-2.2 I0.093 J0.133
X-16.943 Y-143.662 Z-2.245 I-0.093 J-0.133
X-16.757 Y-143.396 Z-2.291 I0.093 J0.133
X-16.943 Y-143.662 Z-2.337 I-0.093 J-0.133
X-16.757 Y-143.396 Z-2.383 I0.093 J0.133
X-16.943 Y-143.662 Z-2.429 I-0.093 J-0.133
X-16.757 Y-143.396 Z-2.475 I0.093 J0.133
X-16.943 Y-143.662 Z-2.52 I-0.093 J-0.133
X-16.757 Y-143.396 Z-2.566 I0.093 J0.133
X-16.943 Y-143.662 Z-2.612 I-0.093 J-0.133
X-16.757 Y-143.396 Z-2.658 I0.093 J0.133
X-16.943 Y-143.662 Z-2.704 I-0.093 J-0.133
X-16.757 Y-143.396 Z-2.75 I0.093 J0.133
X-16.943 Y-143.662 Z-2.795 I-0.093 J-0.133
X-16.757 Y-143.396 Z-2.841 I0.093 J0.133
X-16.943 Y-143.662 Z-2.887 I-0.093 J-0.133
X-16.757 Y-143.396 Z-2.933 I0.093 J0.133
X-16.943 Y-143.662 Z-2.979 I-0.093 J-0.133
X-16.757 Y-143.396 Z-3.024 I0.093 J0.133
X-16.943 Y-143.662 Z-3.07 I-0.093 J-0.133
X-16.757 Y-143.396 Z-3.116 I0.093 J0.133
X-16.943 Y-143.662 Z-3.162 I-0.093 J-0.133
X-16.757 Y-143.396 Z-3.208 I0.093 J0.133
X-16.943 Y-143.662 Z-3.254 I-0.093 J-0.133
X-16.757 Y-143.396 Z-3.299 I0.093 J0.133
X-16.943 Y-143.662 Z-3.345 I-0.093 J-0.133
X-16.757 Y-143.396 Z-3.391 I0.093 J0.133
X-16.943 Y-143.662 Z-3.437 I-0.093 J-0.133
X-16.757 Y-143.396 Z-3.483 I0.093 J0.133
X-16.943 Y-143.662 Z-3.529 I-0.093 J-0.133
X-16.757 Y-143.396 Z-3.574 I0.093 J0.133
X-16.943 Y-143.662 Z-3.62 I-0.093 J-0.133
X-16.757 Y-143.396 Z-3.666 I0.093 J0.133
X-16.943 Y-143.662 Z-3.712 I-0.093 J-0.133
X-16.757 Y-143.396 Z-3.758 I0.093 J0.133
X-16.943 Y-143.662 Z-3.804 I-0.093 J-0.133
X-16.757 Y-143.396 Z-3.849 I0.093 J0.133
X-16.943 Y-143.662 Z-3.895 I-0.093 J-0.133
X-16.757 Y-143.396 Z-3.941 I0.093 J0.133
X-16.943 Y-143.662 Z-3.987 I-0.093 J-0.133
X-16.757 Y-143.396 Z-4.033 I0.093 J0.133
X-16.943 Y-143.662 Z-4.078 I-0.093 J-0.133
X-16.757 Y-143.396 Z-4.124 I0.093 J0.133
X-16.943 Y-143.662 Z-4.17 I-0.093 J-0.133
X-16.757 Y-143.396 Z-4.216 I0.093 J0.133
X-16.943 Y-143.662 Z-4.262 I-0.093 J-0.133
X-16.703 Y-143.46 Z-4.3 I0.093 J0.133
X-16.997 Y-143.598 I-0.147 J-0.069
X-16.703 Y-143.46 I0.147 J0.069
G1 X-16.722 Y-143.434
X-16.749 Y-143.418
X-16.78 Y-143.413
X-16.811 Y-143.421
X-16.955 Y-143.489
Z15
(When using Fusion 360 for Personal Use, the feedrate of)
(rapid moves is reduced to match the feedrate of cutting)
(moves, which can increase machining time. Unrestricted rapid)
(moves are available with a Fusion 360 Subscription.)

(2D-Kontur1)
G0 X-26.477 Y-26.415
G1 Z15 F1000
Z5
Z2.5 F333.3
S5000
X-27.362 Y-27.323 Z2.467
G3 X-27.36 Y-27.552 Z2.46 I0.116 J-0.114
X-27.13 Y-27.55 Z2.453 I0.114 J0.116
G1 X-26.082 Y-26.476 Z2.414
G3 X-26.315 Y-26.249 Z2.401 I-0.116 J0.113
G1 X-27.362 Y-27.323 Z2.362
G3 X-27.36 Y-27.552 Z2.355 I0.116 J-0.114
X-27.13 Y-27.55 Z2.348 I0.114 J0.116
G1 X-26.082 Y-26.476 Z2.309
G3 X-26.315 Y-26.249 Z2.295 I-0.116 J0.113
G1 X-27.362 Y-27.323 Z2.256
G3 X-27.36 Y-27.552 Z2.25 I0.116 J-0.114
X-27.13 Y-27.55 Z2.243 I0.114 J0.116
G1 X-26.082 Y-26.476 Z2.204
G3 X-26.315 Y-26.249 Z2.19 I-0.116 J0.113
G1 X-27.362 Y-27.323 Z2.151
G3 X-27.36 Y-27.552 Z2.144 I0.116 J-0.114
X-27.13 Y-27.55 Z2.138 I0.114 J0.116
G1 X-26.082 Y-26.476 Z2.098
G3 X-26.315 Y-26.249 Z2.085 I-0.116 J0.113
G1 X-27.362 Y-27.323 Z2.046
G3 X-27.36 Y-27.552 Z2.039 I0.116 J-0.114
X-27.13 Y-27.55 Z2.032 I0.114 J0.116
G1 X-26.082 Y-26.476 Z1.993
G3 X-26.315 Y-26.249 Z1.98 I-0.116 J0.113
G1 X-27.362 Y-27.323 Z1.94
G3 X-27.36 Y-27.552 Z1.934 I0.116 J-0.114
X-27.13 Y-27.55 Z1.927 I0.114 J0.116
G1 X-26.082 Y-26.476 Z1.888
G3 X-26.315 Y-26.249 Z1.874 I-0.116 J0.113
G1 X-27.362 Y-27.323 Z1.835
G3 X-27.36 Y-27.552 Z1.828 I0.116 J-0.114
X-27.13 Y-27.55 Z1.822 I0.114 J0.116
G1 X-26.082 Y-26.476 Z1.782
G3 X-26.315 Y-26.249 Z1.769 I-0.116 J0.113
G1 X-27.362 Y-27.323 Z1.73
G3 X-27.36 Y-27.552 Z1.723 I0.116 J-0.114
X-27.13 Y-27.55 Z1.716 I0.114 J0.116
G1 X-26.082 Y-26.476 Z1.677
G3 X-26.315 Y-26.249 Z1.664 I-0.116 J0.113
G1 X-27.362 Y-27.323 Z1.624
G3 X-27.36 Y-27.552 Z1.618 I0.116 J-0.114
X-27.13 Y-27.55 Z1.611 I0.114 J0.116
G1 X-26.082 Y-26.476 Z1.572
G3 X-26.315 Y-26.249 Z1.558 I-0.116 J0.113
G1 X-27.362 Y-27.323 Z1.519
G3 X-27.36 Y-27.552 Z1.513 I0.116 J-0.114
X-27.13 Y-27.55 Z1.506 I0.114 J0.116
G1 X-26.082 Y-26.476 Z1.467
G3 X-26.315 Y-26.249 Z1.453 I-0.116 J0.113
G1 X-27.362 Y-27.323 Z1.414
G3 X-27.36 Y-27.552 Z1.407 I0.116 J-0.114
X-27.13 Y-27.55 Z1.401 I0.114 J0.116
G1 X-26.082 Y-26.476 Z1.361
G3 X-26.315 Y-26.249 Z1.348 I-0.116 J0.113
G1 X-27.362 Y-27.323 Z1.309
G3 X-27.36 Y-27.552 Z1.302 I0.116 J-0.114
X-27.13 Y-27.55 Z1.295 I0.114 J0.116
G1 X-26.082 Y-26.476 Z1.256
G3 X-26.315 Y-26.249 Z1.243 I-0.116 J0.113
G1 X-27.362 Y-27.323 Z1.203
G3 X-27.36 Y-27.552 Z1.197 I0.116 J-0.114
X-27.13 Y-27.55 Z1.19 I0.114 J0.116
G1 X-26.082 Y-26.476 Z1.151
G3 X-26.315 Y-26.249 Z1.137 I-0.116 J0.113
G1 X-27.362 Y-27.323 Z1.098
G3 X-27.36 Y-27.552 Z1.091 I0.116 J-0.114
X-27.13 Y-27.55 Z1.085 I0.114 J0.116
G1 X-26.082 Y-26.476 Z1.045
G3 X-26.315 Y-26.249 Z1.032 I-0.116 J0.113
G1 X-27.362 Y-27.323 Z0.993
G3 X-27.36 Y-27.552 Z0.986 I0.116 J-0.114
X-27.13 Y-27.55 Z0.979 I0.114 J0.116
G1 X-26.082 Y-26.476 Z0.94
G3 X-26.315 Y-26.249 Z0.927 I-0.116 J0.113
G1 X-27.362 Y-27.323 Z0.887
G3 X-27.36 Y-27.552 Z0.881 I0.116 J-0.114
X-27.13 Y-27.55 Z0.874 I0.114 J0.116
G1 X-26.082 Y-26.476 Z0.835
G3 X-26.315 Y-26.249 Z0.821 I-0.116 J0.113
G1 X-27.362 Y-27.323 Z0.782
G3 X-27.36 Y-27.552 Z0.775 I0.116 J-0.114
X-27.13 Y-27.55 Z0.769 I0.114 J0.116
G1 X-26.082 Y-26.476 Z0.73
G3 X-26.315 Y-26.249 Z0.716 I-0.116 J0.113
G1 X-27.362 Y-27.323 Z0.677
G3 X-27.36 Y-27.552 Z0.67 I0.116 J-0.114
X-27.13 Y-27.55 Z0.663 I0.114 J0.116
G1 X-26.082 Y-26.476 Z0.624
G3 X-26.315 Y-26.249 Z0.611 I-0.116 J0.113
G1 X-27.362 Y-27.323 Z0.572
G3 X-27.36 Y-27.552 Z0.565 I0.116 J-0.114
X-27.13 Y-27.55 Z0.558 I0.114 J0.116
G1 X-26.082 Y-26.476 Z0.519
G3 X-26.315 Y-26.249 Z0.506 I-0.116 J0.113
G1 X-27.362 Y-27.323 Z0.466
G3 X-27.36 Y-27.552 Z0.46 I0.116 J-0.114
X-27.13 Y-27.55 Z0.453 I0.114 J0.116
G1 X-26.082 Y-26.476 Z0.414
G3 X-26.315 Y-26.249 Z0.4 I-0.116 J0.113
G1 X-27.362 Y-27.323 Z0.361
G3 X-27.36 Y-27.552 Z0.354 I0.116 J-0.114
X-27.13 Y-27.55 Z0.348 I0.114 J0.116
G1 X-26.082 Y-26.476 Z0.308
G3 X-26.315 Y-26.249 Z0.295 I-0.116 J0.113
G1 X-27.362 Y-27.323 Z0.256
G3 X-27.36 Y-27.552 Z0.249 I0.116 J-0.114
X-27.13 Y-27.55 Z0.242 I0.114 J0.116
G1 X-26.082 Y-26.476 Z0.203
G3 X-26.315 Y-26.249 Z0.19 I-0.116 J0.113
G1 X-27.362 Y-27.323 Z0.15
G3 X-27.36 Y-27.552 Z0.144 I0.116 J-0.114
X-27.13 Y-27.55 Z0.137 I0.114 J0.116
G1 X-26.082 Y-26.476 Z0.098
G3 X-26.315 Y-26.249 Z0.084 I-0.116 J0.113
G1 X-27.362 Y-27.323 Z0.045
G3 X-27.36 Y-27.552 Z0.038 I0.116 J-0.114
X-27.13 Y-27.55 Z0.032 I0.114 J0.116
G1 X-26.082 Y-26.476 Z-0.008
G3 X-26.315 Y-26.249 Z-0.021 I-0.116 J0.113
G1 X-27.362 Y-27.323 Z-0.06
G3 X-27.36 Y-27.552 Z-0.067 I0.116 J-0.114
X-27.13 Y-27.55 Z-0.074 I0.114 J0.116
G1 X-26.082 Y-26.476 Z-0.113
G3 X-26.315 Y-26.249 Z-0.126 I-0.116 J0.113
G1 X-27.362 Y-27.323 Z-0.165
G3 X-27.36 Y-27.552 Z-0.172 I0.116 J-0.114
X-27.13 Y-27.55 Z-0.179 I0.114 J0.116
G1 X-26.082 Y-26.476 Z-0.218
G3 X-26.315 Y-26.249 Z-0.231 I-0.116 J0.113
G1 X-27.362 Y-27.323 Z-0.271
G3 X-27.36 Y-27.552 Z-0.277 I0.116 J-0.114
X-27.13 Y-27.55 Z-0.284 I0.114 J0.116
G1 X-26.082 Y-26.476 Z-0.323
G3 X-26.315 Y-26.249 Z-0.337 I-0.116 J0.113
G1 X-27.362 Y-27.323 Z-0.376
G3 X-27.36 Y-27.552 Z-0.383 I0.116 J-0.114
X-27.13 Y-27.55 Z-0.389 I0.114 J0.116
G1 X-26.082 Y-26.476 Z-0.429
G3 X-26.315 Y-26.249 Z-0.442 I-0.116 J0.113
G1 X-27.362 Y-27.323 Z-0.481
G3 X-27.36 Y-27.552 Z-0.488 I0.116 J-0.114
X-27.13 Y-27.55 Z-0.495 I0.114 J0.116
G1 X-26.082 Y-26.476 Z-0.534
G3 X-26.315 Y-26.249 Z-0.547 I-0.116 J0.113
G1 X-27.362 Y-27.323 Z-0.587
G3 X-27.36 Y-27.552 Z-0.593 I0.116 J-0.114
X-27.13 Y-27.55 Z-0.6 I0.114 J0.116
S2000
G1 X-26.082 Y-26.476 F1000
G3 X-26.315 Y-26.249 I-0.116 J0.113
G1 X-27.362 Y-27.323
G3 X-27.36 Y-27.552 I0.116 J-0.114
X-27.13 Y-27.55 I0.114 J0.116
S5000
G1 X-26.082 Y-26.476 Z-0.639 F333.3
G3 X-26.315 Y-26.249 Z-0.653 I-0.116 J0.113
G1 X-27.362 Y-27.323 Z-0.692
G3 X-27.36 Y-27.552 Z-0.699 I0.116 J-0.114
X-27.13 Y-27.55 Z-0.705 I0.114 J0.116
G1 X-26.082 Y-26.476 Z-0.745
G3 X-26.315 Y-26.249 Z-0.758 I-0.116 J0.113
G1 X-27.362 Y-27.323 Z-0.797
G3 X-27.36 Y-27.552 Z-0.804 I0.116 J-0.114
X-27.13 Y-27.55 Z-0.811 I0.114 J0.116
G1 X-26.082 Y-26.476 Z-0.85
G3 X-26.315 Y-26.249 Z-0.863 I-0.116 J0.113
G1 X-27.362 Y-27.323 Z-0.903
G3 X-27.36 Y-27.552 Z-0.909 I0.116 J-0.114
X-27.13 Y-27.55 Z-0.916 I0.114 J0.116
G1 X-26.082 Y-26.476 Z-0.955
G3 X-26.315 Y-26.249 Z-0.969 I-0.116 J0.113
G1 X-27.362 Y-27.323 Z-1.008
G3 X-27.36 Y-27.552 Z-1.014 I0.116 J-0.114
X-27.13 Y-27.55 Z-1.021 I0.114 J0.116
G1 X-26.082 Y-26.476 Z-1.06
G3 X-26.315 Y-26.249 Z-1.074 I-0.116 J0.113
G1 X-27.362 Y-27.323 Z-1.113
G3 X-27.36 Y-27.552 Z-1.12 I0.116 J-0.114
X-27.13 Y-27.55 Z-1.126 I0.114 J0.116
G1 X-26.082 Y-26.476 Z-1.166
G3 X-26.315 Y-26.249 Z-1.179 I-0.116 J0.113
G1 X-26.872 Y-26.82 Z-1.2
S2000
X-27.362 Y-27.323 F1000
G3 X-27.36 Y-27.552 I0.116 J-0.114
X-27.13 Y-27.55 I0.114 J0.116
G1 X-26.082 Y-26.476
G3 X-26.315 Y-26.249 I-0.116 J0.113
G1 X-26.872 Y-26.82
S5000
X-27.362 Y-27.323 Z-1.218 F333.3
G3 X-27.36 Y-27.552 Z-1.225 I0.116 J-0.114
X-27.13 Y-27.55 Z-1.232 I0.114 J0.116
G1 X-26.082 Y-26.476 Z-1.271
G3 X-26.315 Y-26.249 Z-1.284 I-0.116 J0.113
G1 X-27.362 Y-27.323 Z-1.324
G3 X-27.36 Y-27.552 Z-1.33 I0.116 J-0.114
X-27.13 Y-27.55 Z-1.337 I0.114 J0.116
G1 X-26.082 Y-26.476 Z-1.376
G3 X-26.315 Y-26.249 Z-1.39 I-0.116 J0.113
G1 X-27.362 Y-27.323 Z-1.429
G3 X-27.36 Y-27.552 Z-1.436 I0.116 J-0.114
X-27.13 Y-27.55 Z-1.442 I0.114 J0.116
G1 X-26.082 Y-26.476 Z-1.482
G3 X-26.315 Y-26.249 Z-1.495 I-0.116 J0.113
G1 X-27.362 Y-27.323 Z-1.534
G3 X-27.36 Y-27.552 Z-1.541 I0.116 J-0.114
X-27.13 Y-27.55 Z-1.548 I0.114 J0.116
G1 X-26.082 Y-26.476 Z-1.587
G3 X-26.315 Y-26.249 Z-1.6 I-0.116 J0.113
G1 X-27.362 Y-27.323 Z-1.64
G3 X-27.36 Y-27.552 Z-1.646 I0.116 J-0.114
X-27.13 Y-27.55 Z-1.653 I0.114 J0.116
G1 X-26.082 Y-26.476 Z-1.692
G3 X-26.315 Y-26.249 Z-1.706 I-0.116 J0.113
G1 X-27.362 Y-27.323 Z-1.745
G3 X-27.36 Y-27.552 Z-1.752 I0.116 J-0.114
X-27.13 Y-27.55 Z-1.758 I0.114 J0.116
G1 X-26.082 Y-26.476 Z-1.797
X-26.054 Y-26.437 Z-1.799
X-26.039 Y-26.392 Z-1.8
S2000
G3 X-26.315 Y-26.249 I-0.16 J0.029 F1000
G1 X-26.872 Y-26.82
X-27.362 Y-27.323
G3 X-27.36 Y-27.552 I0.116 J-0.114
X-27.13 Y-27.55 I0.114 J0.116
G1 X-26.082 Y-26.476
X-26.054 Y-26.437
X-26.039 Y-26.392
S5000
G3 X-26.315 Y-26.249 Z-1.811 I-0.16 J0.029 F333.3
G1 X-27.362 Y-27.323 Z-1.85
G3 X-27.36 Y-27.552 Z-1.857 I0.116 J-0.114
X-27.13 Y-27.55 Z-1.863 I0.114 J0.116
G1 X-26.082 Y-26.476 Z-1.903
G3 X-26.315 Y-26.249 Z-1.916 I-0.116 J0.113
G1 X-27.362 Y-27.323 Z-1.955
G3 X-27.36 Y-27.552 Z-1.962 I0.116 J-0.114
X-27.13 Y-27.55 Z-1.969 I0.114 J0.116
G1 X-26.082 Y-26.476 Z-2.008
G3 X-26.315 Y-26.249 Z-2.021 I-0.116 J0.113
G1 X-27.362 Y-27.323 Z-2.061
G3 X-27.36 Y-27.552 Z-2.067 I0.116 J-0.114
X-27.13 Y-27.55 Z-2.074 I0.114 J0.116
G1 X-26.082 Y-26.476 Z-2.113
G3 X-26.315 Y-26.249 Z-2.127 I-0.116 J0.113
G1 X-27.362 Y-27.323 Z-2.166
G3 X-27.36 Y-27.552 Z-2.173 I0.116 J-0.114
X-27.13 Y-27.55 Z-2.179 I0.114 J0.116
G1 X-26.082 Y-26.476 Z-2.219
G3 X-26.315 Y-26.249 Z-2.232 I-0.116 J0.113
G1 X-27.362 Y-27.323 Z-2.271
G3 X-27.36 Y-27.552 Z-2.278 I0.116 J-0.114
X-27.13 Y-27.55 Z-2.285 I0.114 J0.116
G1 X-26.082 Y-26.476 Z-2.324
G3 X-26.315 Y-26.249 Z-2.337 I-0.116 J0.113
G1 X-27.362 Y-27.323 Z-2.377
G3 X-27.36 Y-27.552 Z-2.383 I0.116 J-0.114
X-27.13 Y-27.55 Z-2.39 I0.114 J0.116
G1 X-26.862 Y-27.275 Z-2.4
S2000
X-26.082 Y-26.476 F1000
G3 X-26.315 Y-26.249 I-0.116 J0.113
G1 X-27.362 Y-27.323
G3 X-27.36 Y-27.552 I0.116 J-0.114
X-27.13 Y-27.55 I0.114 J0.116
G1 X-26.862 Y-27.275
S5000
X-26.082 Y-26.476 Z-2.429 F333.3
G3 X-26.315 Y-26.249 Z-2.443 I-0.116 J0.113
G1 X-27.362 Y-27.323 Z-2.482
G3 X-27.36 Y-27.552 Z-2.489 I0.116 J-0.114
X-27.13 Y-27.55 Z-2.495 I0.114 J0.116
G1 X-26.082 Y-26.476 Z-2.535
G3 X-26.315 Y-26.249 Z-2.548 I-0.116 J0.113
G1 X-27.362 Y-27.323 Z-2.587
G3 X-27.36 Y-27.552 Z-2.594 I0.116 J-0.114
X-27.13 Y-27.55 Z-2.601 I0.114 J0.116
G1 X-26.082 Y-26.476 Z-2.64
G3 X-26.315 Y-26.249 Z-2.653 I-0.116 J0.113
G1 X-27.362 Y-27.323 Z-2.692
G3 X-27.36 Y-27.552 Z-2.699 I0.116 J-0.114
X-27.13 Y-27.55 Z-2.706 I0.114 J0.116
G1 X-26.082 Y-26.476 Z-2.745
G3 X-26.315 Y-26.249 Z-2.758 I-0.116 J0.113
G1 X-27.362 Y-27.323 Z-2.798
G3 X-27.36 Y-27.552 Z-2.804 I0.116 J-0.114
X-27.13 Y-27.55 Z-2.811 I0.114 J0.116
G1 X-26.082 Y-26.476 Z-2.85
G3 X-26.315 Y-26.249 Z-2.864 I-0.116 J0.113
G1 X-27.362 Y-27.323 Z-2.903
G3 X-27.36 Y-27.552 Z-2.91 I0.116 J-0.114
X-27.13 Y-27.55 Z-2.916 I0.114 J0.116
G1 X-26.082 Y-26.476 Z-2.956
G3 X-26.315 Y-26.249 Z-2.969 I-0.116 J0.113
G1 X-27.14 Y-27.095 Z-3
S2000
X-27.362 Y-27.323 F1000
G3 X-27.36 Y-27.552 I0.116 J-0.114
X-27.13 Y-27.55 I0.114 J0.116
G1 X-26.082 Y-26.476
G3 X-26.315 Y-26.249 I-0.116 J0.113
G1 X-27.14 Y-27.095
S5000
X-27.362 Y-27.323 Z-3.008 F333.3
G3 X-27.36 Y-27.552 Z-3.015 I0.116 J-0.114
X-27.13 Y-27.55 Z-3.022 I0.114 J0.116
G1 X-26.082 Y-26.476 Z-3.061
G3 X-26.315 Y-26.249 Z-3.074 I-0.116 J0.113
G1 X-27.362 Y-27.323 Z-3.114
G3 X-27.36 Y-27.552 Z-3.12 I0.116 J-0.114
X-27.13 Y-27.55 Z-3.127 I0.114 J0.116
G1 X-26.082 Y-26.476 Z-3.166
G3 X-26.315 Y-26.249 Z-3.18 I-0.116 J0.113
G1 X-27.362 Y-27.323 Z-3.219
G3 X-27.36 Y-27.552 Z-3.226 I0.116 J-0.114
X-27.13 Y-27.55 Z-3.232 I0.114 J0.116
G1 X-26.082 Y-26.476 Z-3.272
G3 X-26.315 Y-26.249 Z-3.285 I-0.116 J0.113
G1 X-27.362 Y-27.323 Z-3.324
G3 X-27.36 Y-27.552 Z-3.331 I0.116 J-0.114
X-27.13 Y-27.55 Z-3.338 I0.114 J0.116
G1 X-26.082 Y-26.476 Z-3.377
G3 X-26.315 Y-26.249 Z-3.39 I-0.116 J0.113
G1 X-27.362 Y-27.323 Z-3.429
G3 X-27.36 Y-27.552 Z-3.436 I0.116 J-0.114
X-27.13 Y-27.55 Z-3.443 I0.114 J0.116
G1 X-26.082 Y-26.476 Z-3.482
G3 X-26.315 Y-26.249 Z-3.495 I-0.116 J0.113
G1 X-27.362 Y-27.323 Z-3.535
G3 X-27.36 Y-27.552 Z-3.541 I0.116 J-0.114
X-27.13 Y-27.55 Z-3.548 I0.114 J0.116
G1 X-26.082 Y-26.476 Z-3.587
G3 X-26.292 Y-26.23 Z-3.6 I-0.116 J0.113
S2000
G1 X-26.315 Y-26.249 F1000
X-27.14 Y-27.095
X-27.362 Y-27.323
G3 X-27.36 Y-27.552 I0.116 J-0.114
X-27.13 Y-27.55 I0.114 J0.116
G1 X-26.082 Y-26.476
G3 X-26.292 Y-26.23 I-0.116 J0.113
S5000
G1 X-26.315 Y-26.249 Z-3.601 F333.3
X-27.362 Y-27.323 Z-3.64
G3 X-27.36 Y-27.552 Z-3.647 I0.116 J-0.114
X-27.13 Y-27.55 Z-3.653 I0.114 J0.116
G1 X-26.082 Y-26.476 Z-3.693
G3 X-26.315 Y-26.249 Z-3.706 I-0.116 J0.113
G1 X-27.362 Y-27.323 Z-3.745
G3 X-27.36 Y-27.552 Z-3.752 I0.116 J-0.114
X-27.13 Y-27.55 Z-3.759 I0.114 J0.116
G1 X-26.082 Y-26.476 Z-3.798
G3 X-26.315 Y-26.249 Z-3.811 I-0.116 J0.113
G1 X-27.362 Y-27.323 Z-3.851
G3 X-27.36 Y-27.552 Z-3.857 I0.116 J-0.114
X-27.13 Y-27.55 Z-3.864 I0.114 J0.116
G1 X-26.082 Y-26.476 Z-3.903
G3 X-26.315 Y-26.249 Z-3.917 I-0.116 J0.113
G1 X-27.204 Y-27.16 Z-3.95
S2000
X-27.362 Y-27.323 F1000
G3 X-27.36 Y-27.552 I0.116 J-0.114
X-27.13 Y-27.55 I0.114 J0.116
G1 X-26.082 Y-26.476
G3 X-26.315 Y-26.249 I-0.116 J0.113
G1 X-27.204 Y-27.16
S5000
X-27.362 Y-27.323 Z-3.956 F333.3
G3 X-27.36 Y-27.552 Z-3.963 I0.116 J-0.114
X-27.13 Y-27.55 Z-3.969 I0.114 J0.116
G1 X-26.082 Y-26.476 Z-4.009
G3 X-26.315 Y-26.249 Z-4.022 I-0.116 J0.113
G1 X-27.362 Y-27.323 Z-4.061
G3 X-27.36 Y-27.552 Z-4.068 I0.116 J-0.114
X-27.13 Y-27.55 Z-4.075 I0.114 J0.116
G1 X-26.082 Y-26.476 Z-4.114
G3 X-26.315 Y-26.249 Z-4.127 I-0.116 J0.113
G1 X-27.362 Y-27.323 Z-4.167
G3 X-27.36 Y-27.552 Z-4.173 I0.116 J-0.114
X-27.13 Y-27.55 Z-4.18 I0.114 J0.116
G1 X-26.082 Y-26.476 Z-4.219
G3 X-26.315 Y-26.249 Z-4.233 I-0.116 J0.113
G1 X-27.362 Y-27.323 Z-4.272
G3 X-27.36 Y-27.552 Z-4.278 I0.116 J-0.114
X-27.13 Y-27.55 Z-4.285 I0.114 J0.116
G1 X-26.735 Y-27.145 Z-4.3
S2000
X-26.082 Y-26.476 F1000
G3 X-26.315 Y-26.249 I-0.116 J0.113
G1 X-27.204 Y-27.16
X-27.362 Y-27.323
G3 X-27.36 Y-27.552 I0.116 J-0.114
X-27.13 Y-27.55 I0.114 J0.116
G1 X-26.735 Y-27.145
Z5
X-11.744 Y-26.968
Z2.5 F333.3
S5000
X-12.651 Y-26.082 Z2.467
G3 X-12.881 Y-26.085 Z2.46 I-0.114 J-0.116
X-12.878 Y-26.315 Z2.453 I0.116 J-0.114
G1 X-11.804 Y-27.362 Z2.414
G3 X-11.577 Y-27.13 Z2.401 I0.113 J0.116
G1 X-12.651 Y-26.082 Z2.362
G3 X-12.881 Y-26.085 Z2.355 I-0.114 J-0.116
X-12.878 Y-26.315 Z2.348 I0.116 J-0.114
G1 X-11.804 Y-27.362 Z2.309
G3 X-11.577 Y-27.13 Z2.295 I0.113 J0.116
G1 X-12.651 Y-26.082 Z2.256
G3 X-12.881 Y-26.085 Z2.25 I-0.114 J-0.116
X-12.878 Y-26.315 Z2.243 I0.116 J-0.114
G1 X-11.804 Y-27.362 Z2.204
G3 X-11.577 Y-27.13 Z2.19 I0.113 J0.116
G1 X-12.651 Y-26.082 Z2.151
G3 X-12.881 Y-26.085 Z2.144 I-0.114 J-0.116
X-12.878 Y-26.315 Z2.138 I0.116 J-0.114
G1 X-11.804 Y-27.362 Z2.098
G3 X-11.577 Y-27.13 Z2.085 I0.113 J0.116
G1 X-12.651 Y-26.082 Z2.046
G3 X-12.881 Y-26.085 Z2.039 I-0.114 J-0.116
X-12.878 Y-26.315 Z2.032 I0.116 J-0.114
G1 X-11.804 Y-27.362 Z1.993
G3 X-11.577 Y-27.13 Z1.98 I0.113 J0.116
G1 X-12.651 Y-26.082 Z1.94
G3 X-12.881 Y-26.085 Z1.934 I-0.114 J-0.116
X-12.878 Y-26.315 Z1.927 I0.116 J-0.114
G1 X-11.804 Y-27.362 Z1.888
G3 X-11.577 Y-27.13 Z1.874 I0.113 J0.116
G1 X-12.651 Y-26.082 Z1.835
G3 X-12.881 Y-26.085 Z1.828 I-0.114 J-0.116
X-12.878 Y-26.315 Z1.822 I0.116 J-0.114
G1 X-11.804 Y-27.362 Z1.782
G3 X-11.577 Y-27.13 Z1.769 I0.113 J0.116
G1 X-12.651 Y-26.082 Z1.73
G3 X-12.881 Y-26.085 Z1.723 I-0.114 J-0.116
X-12.878 Y-26.315 Z1.716 I0.116 J-0.114
G1 X-11.804 Y-27.362 Z1.677
G3 X-11.577 Y-27.13 Z1.664 I0.113 J0.116
G1 X-12.651 Y-26.082 Z1.624
G3 X-12.881 Y-26.085 Z1.618 I-0.114 J-0.116
X-12.878 Y-26.315 Z1.611 I0.116 J-0.114
G1 X-11.804 Y-27.362 Z1.572
G3 X-11.577 Y-27.13 Z1.558 I0.113 J0.116
G1 X-12.651 Y-26.082 Z1.519
G3 X-12.881 Y-26.085 Z1.513 I-0.114 J-0.116
X-12.878 Y-26.315 Z1.506 I0.116 J-0.114
G1 X-11.804 Y-27.362 Z1.467
G3 X-11.577 Y-27.13 Z1.453 I0.113 J0.116
G1 X-12.651 Y-26.082 Z1.414
G3 X-12.881 Y-26.085 Z1.407 I-0.114 J-0.116
X-12.878 Y-26.315 Z1.401 I0.116 J-0.114
G1 X-11.804 Y-27.362 Z1.361
G3 X-11.577 Y-27.13 Z1.348 I0.113 J0.116
G1 X-12.651 Y-26.082 Z1.309
G3 X-12.881 Y-26.085 Z1.302 I-0.114 J-0.116
X-12.878 Y-26.315 Z1.295 I0.116 J-0.114
G1 X-11.804 Y-27.362 Z1.256
G3 X-11.577 Y-27.13 Z1.243 I0.113 J0.116
G1 X-12.651 Y-26.082 Z1.203
G3 X-12.881 Y-26.085 Z1.197 I-0.114 J-0.116
X-12.878 Y-26.315 Z1.19 I0.116 J-0.114
G1 X-11.804 Y-27.362 Z1.151
G3 X-11.577 Y-27.13 Z1.137 I0.113 J0.116
G1 X-12.651 Y-26.082 Z1.098
G3 X-12.881 Y-26.085 Z1.091 I-0.114 J-0.116
X-12.878 Y-26.315 Z1.085 I0.116 J-0.114
G1 X-11.804 Y-27.362 Z1.045
G3 X-11.577 Y-27.13 Z1.032 I0.113 J0.116
G1 X-12.651 Y-26.082 Z0.993
G3 X-12.881 Y-26.085 Z0.986 I-0.114 J-0.116
X-12.878 Y-26.315 Z0.979 I0.116 J-0.114
G1 X-11.804 Y-27.362 Z0.94
G3 X-11.577 Y-27.13 Z0.927 I0.113 J0.116
G1 X-12.651 Y-26.082 Z0.887
G3 X-12.881 Y-26.085 Z0.881 I-0.114 J-0.116
X-12.878 Y-26.315 Z0.874 I0.116 J-0.114
G1 X-11.804 Y-27.362 Z0.835
G3 X-11.577 Y-27.13 Z0.821 I0.113 J0.116
G1 X-12.651 Y-26.082 Z0.782
G3 X-12.881 Y-26.085 Z0.775 I-0.114 J-0.116
X-12.878 Y-26.315 Z0.769 I0.116 J-0.114
G1 X-11.804 Y-27.362 Z0.73
G3 X-11.577 Y-27.13 Z0.716 I0.113 J0.116
G1 X-12.651 Y-26.082 Z0.677
G3 X-12.881 Y-26.085 Z0.67 I-0.114 J-0.116
X-12.878 Y-26.315 Z0.663 I0.116 J-0.114
G1 X-11.804 Y-27.362 Z0.624
G3 X-11.577 Y-27.13 Z0.611 I0.113 J0.116
G1 X-12.651 Y-26.082 Z0.572
G3 X-12.881 Y-26.085 Z0.565 I-0.114 J-0.116
X-12.878 Y-26.315 Z0.558 I0.116 J-0.114
G1 X-11.804 Y-27.362 Z0.519
G3 X-11.577 Y-27.13 Z0.506 I0.113 J0.116
G1 X-12.651 Y-26.082 Z0.466
G3 X-12.881 Y-26.085 Z0.46 I-0.114 J-0.116
X-12.878 Y-26.315 Z0.453 I0.116 J-0.114
G1 X-11.804 Y-27.362 Z0.414
G3 X-11.577 Y-27.13 Z0.4 I0.113 J0.116
G1 X-12.651 Y-26.082 Z0.361
G3 X-12.881 Y-26.085 Z0.354 I-0.114 J-0.116
X-12.878 Y-26.315 Z0.348 I0.116 J-0.114
G1 X-11.804 Y-27.362 Z0.308
G3 X-11.577 Y-27.13 Z0.295 I0.113 J0.116
G1 X-12.651 Y-26.082 Z0.256
G3 X-12.881 Y-26.085 Z0.249 I-0.114 J-0.116
X-12.878 Y-26.315 Z0.242 I0.116 J-0.114
G1 X-11.804 Y-27.362 Z0.203
G3 X-11.577 Y-27.13 Z0.19 I0.113 J0.116
G1 X-12.651 Y-26.082 Z0.15
G3 X-12.881 Y-26.085 Z0.144 I-0.114 J-0.116
X-12.878 Y-26.315 Z0.137 I0.116 J-0.114
G1 X-11.804 Y-27.362 Z0.098
G3 X-11.577 Y-27.13 Z0.084 I0.113 J0.116
G1 X-12.651 Y-26.082 Z0.045
G3 X-12.881 Y-26.085 Z0.038 I-0.114 J-0.116
X-12.878 Y-26.315 Z0.032 I0.116 J-0.114
G1 X-11.804 Y-27.362 Z-0.008
G3 X-11.577 Y-27.13 Z-0.021 I0.113 J0.116
G1 X-12.651 Y-26.082 Z-0.06
G3 X-12.881 Y-26.085 Z-0.067 I-0.114 J-0.116
X-12.878 Y-26.315 Z-0.074 I0.116 J-0.114
G1 X-11.804 Y-27.362 Z-0.113
G3 X-11.577 Y-27.13 Z-0.126 I0.113 J0.116
G1 X-12.651 Y-26.082 Z-0.165
G3 X-12.881 Y-26.085 Z-0.172 I-0.114 J-0.116
X-12.878 Y-26.315 Z-0.179 I0.116 J-0.114
G1 X-11.804 Y-27.362 Z-0.218
G3 X-11.577 Y-27.13 Z-0.231 I0.113 J0.116
G1 X-12.651 Y-26.082 Z-0.271
G3 X-12.881 Y-26.085 Z-0.277 I-0.114 J-0.116
X-12.878 Y-26.315 Z-0.284 I0.116 J-0.114
G1 X-11.804 Y-27.362 Z-0.323
G3 X-11.577 Y-27.13 Z-0.337 I0.113 J0.116
G1 X-12.651 Y-26.082 Z-0.376
G3 X-12.881 Y-26.085 Z-0.383 I-0.114 J-0.116
X-12.878 Y-26.315 Z-0.389 I0.116 J-0.114
G1 X-11.804 Y-27.362 Z-0.429
G3 X-11.577 Y-27.13 Z-0.442 I0.113 J0.116
G1 X-12.651 Y-26.082 Z-0.481
G3 X-12.881 Y-26.085 Z-0.488 I-0.114 J-0.116
X-12.878 Y-26.315 Z-0.495 I0.116 J-0.114
G1 X-11.804 Y-27.362 Z-0.534
G3 X-11.577 Y-27.13 Z-0.547 I0.113 J0.116
G1 X-12.651 Y-26.082 Z-0.587
G3 X-12.881 Y-26.085 Z-0.593 I-0.114 J-0.116
X-12.878 Y-26.315 Z-0.6 I0.116 J-0.114
S2000
G1 X-11.804 Y-27.362 F1000
G3 X-11.577 Y-27.13 I0.113 J0.116
G1 X-12.651 Y-26.082
G3 X-12.881 Y-26.085 I-0.114 J-0.116
X-12.878 Y-26.315 I0.116 J-0.114
S5000
G1 X-11.804 Y-27.362 Z-0.639 F333.3
G3 X-11.577 Y-27.13 Z-0.653 I0.113 J0.116
G1 X-12.651 Y-26.082 Z-0.692
G3 X-12.881 Y-26.085 Z-0.699 I-0.114 J-0.116
X-12.878 Y-26.315 Z-0.705 I0.116 J-0.114
G1 X-11.804 Y-27.362 Z-0.745
G3 X-11.577 Y-27.13 Z-0.758 I0.113 J0.116
G1 X-12.651 Y-26.082 Z-0.797
G3 X-12.881 Y-26.085 Z-0.804 I-0.114 J-0.116
X-12.878 Y-26.315 Z-0.811 I0.116 J-0.114
G1 X-11.804 Y-27.362 Z-0.85
G3 X-11.577 Y-27.13 Z-0.863 I0.113 J0.116
G1 X-12.651 Y-26.082 Z-0.903
G3 X-12.881 Y-26.085 Z-0.909 I-0.114 J-0.116
X-12.878 Y-26.315 Z-0.916 I0.116 J-0.114
G1 X-11.804 Y-27.362 Z-0.955
G3 X-11.577 Y-27.13 Z-0.969 I0.113 J0.116
G1 X-12.651 Y-26.082 Z-1.008
G3 X-12.881 Y-26.085 Z-1.014 I-0.114 J-0.116
X-12.878 Y-26.315 Z-1.021 I0.116 J-0.114
G1 X-11.804 Y-27.362 Z-1.06
G3 X-11.577 Y-27.13 Z-1.074 I0.113 J0.116
G1 X-12.651 Y-26.082 Z-1.113
G3 X-12.881 Y-26.085 Z-1.12 I-0.114 J-0.116
X-12.878 Y-26.315 Z-1.126 I0.116 J-0.114
G1 X-11.804 Y-27.362 Z-1.166
G3 X-11.577 Y-27.13 Z-1.179 I0.113 J0.116
G1 X-12.149 Y-26.572 Z-1.2
S2000
X-12.651 Y-26.082 F1000
G3 X-12.881 Y-26.085 I-0.114 J-0.116
X-12.878 Y-26.315 I0.116 J-0.114
G1 X-11.804 Y-27.362
G3 X-11.577 Y-27.13 I0.113 J0.116
G1 X-12.149 Y-26.572
S5000
X-12.651 Y-26.082 Z-1.218 F333.3
G3 X-12.881 Y-26.085 Z-1.225 I-0.114 J-0.116
X-12.878 Y-26.315 Z-1.232 I0.116 J-0.114
G1 X-11.804 Y-27.362 Z-1.271
G3 X-11.577 Y-27.13 Z-1.284 I0.113 J0.116
G1 X-12.651 Y-26.082 Z-1.324
G3 X-12.881 Y-26.085 Z-1.33 I-0.114 J-0.116
X-12.878 Y-26.315 Z-1.337 I0.116 J-0.114
G1 X-11.804 Y-27.362 Z-1.376
G3 X-11.577 Y-27.13 Z-1.39 I0.113 J0.116
G1 X-12.651 Y-26.082 Z-1.429
G3 X-12.881 Y-26.085 Z-1.436 I-0.114 J-0.116
X-12.878 Y-26.315 Z-1.442 I0.116 J-0.114
G1 X-11.804 Y-27.362 Z-1.482
G3 X-11.577 Y-27.13 Z-1.495 I0.113 J0.116
G1 X-12.651 Y-26.082 Z-1.534
G3 X-12.881 Y-26.085 Z-1.541 I-0.114 J-0.116
X-12.878 Y-26.315 Z-1.548 I0.116 J-0.114
G1 X-11.804 Y-27.362 Z-1.587
G3 X-11.577 Y-27.13 Z-1.6 I0.113 J0.116
G1 X-12.651 Y-26.082 Z-1.64
G3 X-12.881 Y-26.085 Z-1.646 I-0.114 J-0.116
X-12.878 Y-26.315 Z-1.653 I0.116 J-0.114
G1 X-11.804 Y-27.362 Z-1.692
G3 X-11.577 Y-27.13 Z-1.706 I0.113 J0.116
G1 X-12.651 Y-26.082 Z-1.745
G3 X-12.881 Y-26.085 Z-1.752 I-0.114 J-0.116
X-12.878 Y-26.315 Z-1.758 I0.116 J-0.114
G1 X-11.804 Y-27.362 Z-1.797
X-11.766 Y-27.39 Z-1.799
X-11.72 Y-27.406 Z-1.8
S2000
G3 X-11.577 Y-27.13 I0.029 J0.16 F1000
G1 X-12.149 Y-26.572
X-12.651 Y-26.082
G3 X-12.881 Y-26.085 I-0.114 J-0.116
X-12.878 Y-26.315 I0.116 J-0.114
G1 X-11.804 Y-27.362
X-11.766 Y-27.39
X-11.72 Y-27.406
S5000
G3 X-11.577 Y-27.13 Z-1.811 I0.029 J0.16 F333.3
G1 X-12.651 Y-26.082 Z-1.85
G3 X-12.881 Y-26.085 Z-1.857 I-0.114 J-0.116
X-12.878 Y-26.315 Z-1.863 I0.116 J-0.114
G1 X-11.804 Y-27.362 Z-1.903
G3 X-11.577 Y-27.13 Z-1.916 I0.113 J0.116
G1 X-12.651 Y-26.082 Z-1.955
G3 X-12.881 Y-26.085 Z-1.962 I-0.114 J-0.116
X-12.878 Y-26.315 Z-1.969 I0.116 J-0.114
G1 X-11.804 Y-27.362 Z-2.008
G3 X-11.577 Y-27.13 Z-2.021 I0.113 J0.116
G1 X-12.651 Y-26.082 Z-2.061
G3 X-12.881 Y-26.085 Z-2.067 I-0.114 J-0.116
X-12.878 Y-26.315 Z-2.074 I0.116 J-0.114
G1 X-11.804 Y-27.362 Z-2.113
G3 X-11.577 Y-27.13 Z-2.127 I0.113 J0.116
G1 X-12.651 Y-26.082 Z-2.166
G3 X-12.881 Y-26.085 Z-2.173 I-0.114 J-0.116
X-12.878 Y-26.315 Z-2.179 I0.116 J-0.114
G1 X-11.804 Y-27.362 Z-2.219
G3 X-11.577 Y-27.13 Z-2.232 I0.113 J0.116
G1 X-12.651 Y-26.082 Z-2.271
G3 X-12.881 Y-26.085 Z-2.278 I-0.114 J-0.116
X-12.878 Y-26.315 Z-2.285 I0.116 J-0.114
G1 X-11.804 Y-27.362 Z-2.324
G3 X-11.577 Y-27.13 Z-2.337 I0.113 J0.116
G1 X-12.651 Y-26.082 Z-2.377
G3 X-12.881 Y-26.085 Z-2.383 I-0.114 J-0.116
X-12.878 Y-26.315 Z-2.39 I0.116 J-0.114
G1 X-12.603 Y-26.583 Z-2.4
S2000
X-11.804 Y-27.362 F1000
G3 X-11.577 Y-27.13 I0.113 J0.116
G1 X-12.651 Y-26.082
G3 X-12.881 Y-26.085 I-0.114 J-0.116
X-12.878 Y-26.315 I0.116 J-0.114
G1 X-12.603 Y-26.583
S5000
X-11.804 Y-27.362 Z-2.429 F333.3
G3 X-11.577 Y-27.13 Z-2.443 I0.113 J0.116
G1 X-12.651 Y-26.082 Z-2.482
G3 X-12.881 Y-26.085 Z-2.489 I-0.114 J-0.116
X-12.878 Y-26.315 Z-2.495 I0.116 J-0.114
G1 X-11.804 Y-27.362 Z-2.535
G3 X-11.577 Y-27.13 Z-2.548 I0.113 J0.116
G1 X-12.651 Y-26.082 Z-2.587
G3 X-12.881 Y-26.085 Z-2.594 I-0.114 J-0.116
X-12.878 Y-26.315 Z-2.601 I0.116 J-0.114
G1 X-11.804 Y-27.362 Z-2.64
G3 X-11.577 Y-27.13 Z-2.653 I0.113 J0.116
G1 X-12.651 Y-26.082 Z-2.692
G3 X-12.881 Y-26.085 Z-2.699 I-0.114 J-0.116
X-12.878 Y-26.315 Z-2.706 I0.116 J-0.114
G1 X-11.804 Y-27.362 Z-2.745
G3 X-11.577 Y-27.13 Z-2.758 I0.113 J0.116
G1 X-12.651 Y-26.082 Z-2.798
G3 X-12.881 Y-26.085 Z-2.804 I-0.114 J-0.116
X-12.878 Y-26.315 Z-2.811 I0.116 J-0.114
G1 X-11.804 Y-27.362 Z-2.85
G3 X-11.577 Y-27.13 Z-2.864 I0.113 J0.116
G1 X-12.651 Y-26.082 Z-2.903
G3 X-12.881 Y-26.085 Z-2.91 I-0.114 J-0.116
X-12.878 Y-26.315 Z-2.916 I0.116 J-0.114
G1 X-11.804 Y-27.362 Z-2.956
G3 X-11.577 Y-27.13 Z-2.969 I0.113 J0.116
G1 X-12.424 Y-26.304 Z-3
S2000
X-12.651 Y-26.082 F1000
G3 X-12.881 Y-26.085 I-0.114 J-0.116
X-12.878 Y-26.315 I0.116 J-0.114
G1 X-11.804 Y-27.362
G3 X-11.577 Y-27.13 I0.113 J0.116
G1 X-12.424 Y-26.304
S5000
X-12.651 Y-26.082 Z-3.008 F333.3
G3 X-12.881 Y-26.085 Z-3.015 I-0.114 J-0.116
X-12.878 Y-26.315 Z-3.022 I0.116 J-0.114
G1 X-11.804 Y-27.362 Z-3.061
G3 X-11.577 Y-27.13 Z-3.074 I0.113 J0.116
G1 X-12.651 Y-26.082 Z-3.114
G3 X-12.881 Y-26.085 Z-3.12 I-0.114 J-0.116
X-12.878 Y-26.315 Z-3.127 I0.116 J-0.114
G1 X-11.804 Y-27.362 Z-3.166
G3 X-11.577 Y-27.13 Z-3.18 I0.113 J0.116
G1 X-12.651 Y-26.082 Z-3.219
G3 X-12.881 Y-26.085 Z-3.226 I-0.114 J-0.116
X-12.878 Y-26.315 Z-3.232 I0.116 J-0.114
G1 X-11.804 Y-27.362 Z-3.272
G3 X-11.577 Y-27.13 Z-3.285 I0.113 J0.116
G1 X-12.651 Y-26.082 Z-3.324
G3 X-12.881 Y-26.085 Z-3.331 I-0.114 J-0.116
X-12.878 Y-26.315 Z-3.338 I0.116 J-0.114
G1 X-11.804 Y-27.362 Z-3.377
G3 X-11.577 Y-27.13 Z-3.39 I0.113 J0.116
G1 X-12.651 Y-26.082 Z-3.429
G3 X-12.881 Y-26.085 Z-3.436 I-0.114 J-0.116
X-12.878 Y-26.315 Z-3.443 I0.116 J-0.114
G1 X-11.804 Y-27.362 Z-3.482
G3 X-11.577 Y-27.13 Z-3.495 I0.113 J0.116
G1 X-12.651 Y-26.082 Z-3.535
G3 X-12.881 Y-26.085 Z-3.541 I-0.114 J-0.116
X-12.878 Y-26.315 Z-3.548 I0.116 J-0.114
G1 X-11.804 Y-27.362 Z-3.587
G3 X-11.558 Y-27.153 Z-3.6 I0.113 J0.116
S2000
G1 X-11.577 Y-27.13 F1000
X-12.424 Y-26.304
X-12.651 Y-26.082
G3 X-12.881 Y-26.085 I-0.114 J-0.116
X-12.878 Y-26.315 I0.116 J-0.114
G1 X-11.804 Y-27.362
G3 X-11.558 Y-27.153 I0.113 J0.116
S5000
G1 X-11.577 Y-27.13 Z-3.601 F333.3
X-12.651 Y-26.082 Z-3.64
G3 X-12.881 Y-26.085 Z-3.647 I-0.114 J-0.116
X-12.878 Y-26.315 Z-3.653 I0.116 J-0.114
G1 X-11.804 Y-27.362 Z-3.693
G3 X-11.577 Y-27.13 Z-3.706 I0.113 J0.116
G1 X-12.651 Y-26.082 Z-3.745
G3 X-12.881 Y-26.085 Z-3.752 I-0.114 J-0.116
X-12.878 Y-26.315 Z-3.759 I0.116 J-0.114
G1 X-11.804 Y-27.362 Z-3.798
G3 X-11.577 Y-27.13 Z-3.811 I0.113 J0.116
G1 X-12.651 Y-26.082 Z-3.851
G3 X-12.881 Y-26.085 Z-3.857 I-0.114 J-0.116
X-12.878 Y-26.315 Z-3.864 I0.116 J-0.114
G1 X-11.804 Y-27.362 Z-3.903
G3 X-11.577 Y-27.13 Z-3.917 I0.113 J0.116
G1 X-12.489 Y-26.241 Z-3.95
S2000
X-12.651 Y-26.082 F1000
G3 X-12.881 Y-26.085 I-0.114 J-0.116
X-12.878 Y-26.315 I0.116 J-0.114
G1 X-11.804 Y-27.362
G3 X-11.577 Y-27.13 I0.113 J0.116
G1 X-12.489 Y-26.241
S5000
X-12.651 Y-26.082 Z-3.956 F333.3
G3 X-12.881 Y-26.085 Z-3.963 I-0.114 J-0.116
X-12.878 Y-26.315 Z-3.969 I0.116 J-0.114
G1 X-11.804 Y-27.362 Z-4.009
G3 X-11.577 Y-27.13 Z-4.022 I0.113 J0.116
G1 X-12.651 Y-26.082 Z-4.061
G3 X-12.881 Y-26.085 Z-4.068 I-0.114 J-0.116
X-12.878 Y-26.315 Z-4.075 I0.116 J-0.114
G1 X-11.804 Y-27.362 Z-4.114
G3 X-11.577 Y-27.13 Z-4.127 I0.113 J0.116
G1 X-12.651 Y-26.082 Z-4.167
G3 X-12.881 Y-26.085 Z-4.173 I-0.114 J-0.116
X-12.878 Y-26.315 Z-4.18 I0.116 J-0.114
G1 X-11.804 Y-27.362 Z-4.219
G3 X-11.577 Y-27.13 Z-4.233 I0.113 J0.116
G1 X-12.651 Y-26.082 Z-4.272
G3 X-12.881 Y-26.085 Z-4.278 I-0.114 J-0.116
X-12.878 Y-26.315 Z-4.285 I0.116 J-0.114
G1 X-12.473 Y-26.71 Z-4.3
S2000
X-11.804 Y-27.362 F1000
G3 X-11.577 Y-27.13 I0.113 J0.116
G1 X-12.489 Y-26.241
X-12.651 Y-26.082
G3 X-12.881 Y-26.085 I-0.114 J-0.116
X-12.878 Y-26.315 I0.116 J-0.114
G1 X-12.473 Y-26.71
Z5
X-12.654 Y-12.716
Z2.5 F333.3
S5000
X-11.765 Y-11.804 Z2.467
G3 X-11.997 Y-11.577 Z2.453 I-0.116 J0.113
G1 Y-11.578
X-13.045 Y-12.651 Z2.414
G3 X-12.812 Y-12.878 Z2.401 I0.116 J-0.113
G1 X-11.765 Y-11.804 Z2.361
G3 X-11.997 Y-11.577 Z2.348 I-0.116 J0.113
G1 Y-11.578
X-13.045 Y-12.651 Z2.309
G3 X-12.812 Y-12.878 Z2.295 I0.116 J-0.113
G1 X-11.765 Y-11.804 Z2.256
G3 X-11.997 Y-11.577 Z2.243 I-0.116 J0.113
G1 Y-11.578
X-13.045 Y-12.651 Z2.203
G3 X-12.812 Y-12.878 Z2.19 I0.116 J-0.113
G1 X-11.765 Y-11.804 Z2.151
G3 X-11.997 Y-11.577 Z2.137 I-0.116 J0.113
G1 Y-11.578
X-13.045 Y-12.651 Z2.098
G3 X-12.812 Y-12.878 Z2.085 I0.116 J-0.113
G1 X-11.765 Y-11.804 Z2.046
G3 X-11.997 Y-11.577 Z2.032 I-0.116 J0.113
G1 Y-11.578
X-13.045 Y-12.651 Z1.993
G3 X-12.812 Y-12.878 Z1.98 I0.116 J-0.113
G1 X-11.765 Y-11.804 Z1.94
G3 X-11.997 Y-11.577 Z1.927 I-0.116 J0.113
G1 Y-11.578
X-13.045 Y-12.651 Z1.888
G3 X-12.812 Y-12.878 Z1.874 I0.116 J-0.113
G1 X-11.765 Y-11.804 Z1.835
G3 X-11.997 Y-11.577 Z1.822 I-0.116 J0.113
G1 Y-11.578
X-13.045 Y-12.651 Z1.782
G3 X-12.812 Y-12.878 Z1.769 I0.116 J-0.113
G1 X-11.765 Y-11.804 Z1.73
G3 X-11.997 Y-11.577 Z1.716 I-0.116 J0.113
G1 Y-11.578
X-13.045 Y-12.651 Z1.677
G3 X-12.812 Y-12.878 Z1.664 I0.116 J-0.113
G1 X-11.765 Y-11.804 Z1.624
G3 X-11.997 Y-11.577 Z1.611 I-0.116 J0.113
G1 Y-11.578
X-13.045 Y-12.651 Z1.572
G3 X-12.812 Y-12.878 Z1.558 I0.116 J-0.113
G1 X-11.765 Y-11.804 Z1.519
G3 X-11.997 Y-11.577 Z1.506 I-0.116 J0.113
G1 Y-11.578
X-13.045 Y-12.651 Z1.466
G3 X-12.812 Y-12.878 Z1.453 I0.116 J-0.113
G1 X-11.765 Y-11.804 Z1.414
G3 X-11.997 Y-11.577 Z1.4 I-0.116 J0.113
G1 Y-11.578
X-13.045 Y-12.651 Z1.361
G3 X-12.812 Y-12.878 Z1.348 I0.116 J-0.113
G1 X-11.765 Y-11.804 Z1.309
G3 X-11.997 Y-11.577 Z1.295 I-0.116 J0.113
G1 Y-11.578
X-13.045 Y-12.651 Z1.256
G3 X-12.812 Y-12.878 Z1.243 I0.116 J-0.113
G1 X-11.765 Y-11.804 Z1.203
G3 X-11.997 Y-11.577 Z1.19 I-0.116 J0.113
G1 Y-11.578
X-13.045 Y-12.651 Z1.151
G3 X-12.812 Y-12.878 Z1.137 I0.116 J-0.113
G1 X-11.765 Y-11.804 Z1.098
G3 X-11.997 Y-11.577 Z1.085 I-0.116 J0.113
G1 Y-11.578
X-13.045 Y-12.651 Z1.045
G3 X-12.812 Y-12.878 Z1.032 I0.116 J-0.113
G1 X-11.765 Y-11.804 Z0.993
G3 X-11.997 Y-11.577 Z0.979 I-0.116 J0.113
G1 Y-11.578
X-13.045 Y-12.651 Z0.94
G3 X-12.812 Y-12.878 Z0.927 I0.116 J-0.113
G1 X-11.765 Y-11.804 Z0.887
G3 X-11.997 Y-11.577 Z0.874 I-0.116 J0.113
G1 Y-11.578
X-13.045 Y-12.651 Z0.835
G3 X-12.812 Y-12.878 Z0.821 I0.116 J-0.113
G1 X-11.765 Y-11.804 Z0.782
G3 X-11.997 Y-11.577 Z0.769 I-0.116 J0.113
G1 Y-11.578
X-13.045 Y-12.651 Z0.729
G3 X-12.812 Y-12.878 Z0.716 I0.116 J-0.113
G1 X-11.765 Y-11.804 Z0.677
G3 X-11.997 Y-11.577 Z0.663 I-0.116 J0.113
G1 Y-11.578
X-13.045 Y-12.651 Z0.624
G3 X-12.812 Y-12.878 Z0.611 I0.116 J-0.113
G1 X-11.765 Y-11.804 Z0.572
G3 X-11.997 Y-11.577 Z0.558 I-0.116 J0.113
G1 Y-11.578
X-13.045 Y-12.651 Z0.519
G3 X-12.812 Y-12.878 Z0.506 I0.116 J-0.113
G1 X-11.765 Y-11.804 Z0.466
G3 X-11.997 Y-11.577 Z0.453 I-0.116 J0.113
G1 Y-11.578
X-13.045 Y-12.651 Z0.414
G3 X-12.812 Y-12.878 Z0.4 I0.116 J-0.113
G1 X-11.765 Y-11.804 Z0.361
G3 X-11.997 Y-11.577 Z0.348 I-0.116 J0.113
G1 Y-11.578
X-13.045 Y-12.651 Z0.308
G3 X-12.812 Y-12.878 Z0.295 I0.116 J-0.113
G1 X-11.765 Y-11.804 Z0.256
G3 X-11.997 Y-11.577 Z0.242 I-0.116 J0.113
G1 Y-11.578
X-13.045 Y-12.651 Z0.203
G3 X-12.812 Y-12.878 Z0.19 I0.116 J-0.113
G1 X-11.765 Y-11.804 Z0.15
G3 X-11.997 Y-11.577 Z0.137 I-0.116 J0.113
G1 Y-11.578
X-13.045 Y-12.651 Z0.098
G3 X-12.812 Y-12.878 Z0.084 I0.116 J-0.113
G1 X-11.765 Y-11.804 Z0.045
G3 X-11.997 Y-11.577 Z0.032 I-0.116 J0.113
G1 Y-11.578
X-13.045 Y-12.651 Z-0.008
G3 X-12.812 Y-12.878 Z-0.021 I0.116 J-0.113
G1 X-11.765 Y-11.804 Z-0.06
G3 X-11.997 Y-11.577 Z-0.074 I-0.116 J0.113
G1 Y-11.578
X-13.045 Y-12.651 Z-0.113
G3 X-12.812 Y-12.878 Z-0.126 I0.116 J-0.113
G1 X-11.765 Y-11.804 Z-0.165
G3 X-11.997 Y-11.577 Z-0.179 I-0.116 J0.113
G1 Y-11.578
X-13.045 Y-12.651 Z-0.218
G3 X-12.812 Y-12.878 Z-0.231 I0.116 J-0.113
G1 X-11.765 Y-11.804 Z-0.271
G3 X-11.997 Y-11.577 Z-0.284 I-0.116 J0.113
G1 Y-11.578
X-13.045 Y-12.651 Z-0.323
G3 X-12.812 Y-12.878 Z-0.337 I0.116 J-0.113
G1 X-11.765 Y-11.804 Z-0.376
G3 X-11.997 Y-11.577 Z-0.389 I-0.116 J0.113
G1 Y-11.578
X-13.045 Y-12.651 Z-0.429
G3 X-12.812 Y-12.878 Z-0.442 I0.116 J-0.113
G1 X-11.765 Y-11.804 Z-0.481
G3 X-11.997 Y-11.577 Z-0.495 I-0.116 J0.113
G1 Y-11.578
X-13.045 Y-12.651 Z-0.534
G3 X-12.812 Y-12.878 Z-0.547 I0.116 J-0.113
G1 X-11.765 Y-11.804 Z-0.587
G3 X-11.997 Y-11.577 Z-0.6 I-0.116 J0.113
G1 Y-11.578
S2000
X-13.045 Y-12.651 F1000
G3 X-12.812 Y-12.878 I0.116 J-0.113
G1 X-11.765 Y-11.804
G3 X-11.997 Y-11.577 I-0.116 J0.113
G1 Y-11.578
S5000
X-13.045 Y-12.651 Z-0.639 F333.3
G3 X-12.812 Y-12.878 Z-0.653 I0.116 J-0.113
G1 X-11.765 Y-11.804 Z-0.692
G3 X-11.997 Y-11.577 Z-0.705 I-0.116 J0.113
G1 Y-11.578
X-13.045 Y-12.651 Z-0.745
G3 X-12.812 Y-12.878 Z-0.758 I0.116 J-0.113
G1 X-11.765 Y-11.804 Z-0.797
G3 X-11.997 Y-11.577 Z-0.811 I-0.116 J0.113
G1 Y-11.578
X-13.045 Y-12.651 Z-0.85
G3 X-12.812 Y-12.878 Z-0.863 I0.116 J-0.113
G1 X-11.765 Y-11.804 Z-0.902
G3 X-11.997 Y-11.577 Z-0.916 I-0.116 J0.113
G1 Y-11.578
X-13.045 Y-12.651 Z-0.955
G3 X-12.812 Y-12.878 Z-0.968 I0.116 J-0.113
G1 X-11.765 Y-11.804 Z-1.008
G3 X-11.997 Y-11.577 Z-1.021 I-0.116 J0.113
G1 Y-11.578
X-13.045 Y-12.651 Z-1.06
G3 X-12.812 Y-12.878 Z-1.074 I0.116 J-0.113
G1 X-11.765 Y-11.804 Z-1.113
G3 X-11.997 Y-11.577 Z-1.126 I-0.116 J0.113
G1 Y-11.578
X-13.045 Y-12.651 Z-1.166
G3 X-12.812 Y-12.878 Z-1.179 I0.116 J-0.113
G1 X-12.254 Y-12.306 Z-1.2
S2000
X-11.765 Y-11.804 F1000
G3 X-11.997 Y-11.577 I-0.116 J0.113
G1 Y-11.578
X-13.045 Y-12.651
G3 X-12.812 Y-12.878 I0.116 J-0.113
G1 X-12.254 Y-12.306
S5000
X-11.765 Y-11.804 Z-1.218 F333.3
G3 X-11.997 Y-11.577 Z-1.232 I-0.116 J0.113
G1 X-13.045 Y-12.651 Z-1.271
G3 X-12.812 Y-12.878 Z-1.284 I0.116 J-0.113
G1 X-11.765 Y-11.804 Z-1.324
G3 X-11.997 Y-11.577 Z-1.337 I-0.116 J0.113
G1 X-13.045 Y-12.651 Z-1.376
G3 X-12.812 Y-12.878 Z-1.39 I0.116 J-0.113
G1 X-11.765 Y-11.804 Z-1.429
G3 X-11.997 Y-11.577 Z-1.442 I-0.116 J0.113
G1 X-13.045 Y-12.651 Z-1.482
G3 X-12.812 Y-12.878 Z-1.495 I0.116 J-0.113
G1 X-11.765 Y-11.804 Z-1.534
G3 X-11.997 Y-11.577 Z-1.548 I-0.116 J0.113
G1 X-13.045 Y-12.651 Z-1.587
G3 X-12.812 Y-12.878 Z-1.6 I0.116 J-0.113
G1 X-11.765 Y-11.804 Z-1.639
G3 X-11.997 Y-11.577 Z-1.653 I-0.116 J0.113
G1 X-13.045 Y-12.651 Z-1.692
G3 X-12.812 Y-12.878 Z-1.705 I0.116 J-0.113
G1 X-11.765 Y-11.804 Z-1.745
G3 X-11.997 Y-11.577 Z-1.758 I-0.116 J0.113
G1 X-13.045 Y-12.651 Z-1.797
X-13.073 Y-12.691 Z-1.799
X-13.089 Y-12.738 Z-1.8
S2000
G3 X-12.812 Y-12.878 I0.16 J-0.027 F1000
G1 X-12.254 Y-12.306
X-11.765 Y-11.804
G3 X-11.997 Y-11.577 I-0.116 J0.113
G1 X-13.045 Y-12.651
X-13.073 Y-12.691
X-13.089 Y-12.738
S5000
G3 X-12.812 Y-12.878 Z-1.811 I0.16 J-0.027 F333.3
G1 X-11.765 Y-11.804 Z-1.85
G3 X-11.997 Y-11.577 Z-1.863 I-0.116 J0.113
G1 X-13.045 Y-12.651 Z-1.903
G3 X-12.812 Y-12.878 Z-1.916 I0.116 J-0.113
G1 X-11.765 Y-11.804 Z-1.955
G3 X-11.997 Y-11.577 Z-1.969 I-0.116 J0.113
G1 X-13.045 Y-12.651 Z-2.008
G3 X-12.812 Y-12.878 Z-2.021 I0.116 J-0.113
G1 X-11.765 Y-11.804 Z-2.061
G3 X-11.997 Y-11.577 Z-2.074 I-0.116 J0.113
G1 X-13.045 Y-12.651 Z-2.113
G3 X-12.812 Y-12.878 Z-2.127 I0.116 J-0.113
G1 X-11.765 Y-11.804 Z-2.166
G3 X-11.997 Y-11.577 Z-2.179 I-0.116 J0.113
G1 X-13.045 Y-12.651 Z-2.219
G3 X-12.812 Y-12.878 Z-2.232 I0.116 J-0.113
G1 X-11.765 Y-11.804 Z-2.271
G3 X-11.997 Y-11.577 Z-2.285 I-0.116 J0.113
G1 X-13.045 Y-12.651 Z-2.324
G3 X-12.812 Y-12.878 Z-2.337 I0.116 J-0.113
G1 X-11.765 Y-11.804 Z-2.376
G3 X-11.997 Y-11.577 Z-2.39 I-0.116 J0.113
G1 X-12.268 Y-11.855 Z-2.4
S2000
X-13.045 Y-12.651 F1000
G3 X-12.812 Y-12.878 I0.116 J-0.113
G1 X-11.765 Y-11.804
G3 X-11.997 Y-11.577 I-0.116 J0.113
G1 X-12.268 Y-11.855
S5000
X-13.045 Y-12.651 Z-2.429 F333.3
G3 X-12.812 Y-12.878 Z-2.442 I0.116 J-0.113
G1 X-11.765 Y-11.804 Z-2.482
G3 X-11.997 Y-11.577 Z-2.495 I-0.116 J0.113
G1 X-13.045 Y-12.651 Z-2.534
G3 X-12.812 Y-12.878 Z-2.548 I0.116 J-0.113
G1 X-11.765 Y-11.804 Z-2.587
G3 X-11.997 Y-11.577 Z-2.6 I-0.116 J0.113
G1 X-13.045 Y-12.651 Z-2.64
G3 X-12.812 Y-12.878 Z-2.653 I0.116 J-0.113
G1 X-11.765 Y-11.804 Z-2.692
G3 X-11.997 Y-11.577 Z-2.706 I-0.116 J0.113
G1 X-13.045 Y-12.651 Z-2.745
G3 X-12.812 Y-12.878 Z-2.758 I0.116 J-0.113
G1 X-11.765 Y-11.804 Z-2.798
G3 X-11.997 Y-11.577 Z-2.811 I-0.116 J0.113
G1 X-13.045 Y-12.651 Z-2.85
G3 X-12.812 Y-12.878 Z-2.864 I0.116 J-0.113
G1 X-11.765 Y-11.804 Z-2.903
G3 X-11.997 Y-11.577 Z-2.916 I-0.116 J0.113
G1 X-13.045 Y-12.651 Z-2.956
G3 X-12.812 Y-12.878 Z-2.969 I0.116 J-0.113
G1 X-11.983 Y-12.029 Z-3
S2000
X-11.765 Y-11.804 F1000
G3 X-11.997 Y-11.577 I-0.116 J0.113
G1 X-13.045 Y-12.651
G3 X-12.812 Y-12.878 I0.116 J-0.113
G1 X-11.983 Y-12.029
S5000
X-11.765 Y-11.804 Z-3.008 F333.3
G3 X-11.997 Y-11.577 Z-3.022 I-0.116 J0.113
G1 X-13.045 Y-12.651 Z-3.061
G3 X-12.812 Y-12.878 Z-3.074 I0.116 J-0.113
G1 X-11.765 Y-11.804 Z-3.113
G3 X-11.997 Y-11.577 Z-3.127 I-0.116 J0.113
G1 X-13.045 Y-12.651 Z-3.166
G3 X-12.812 Y-12.878 Z-3.179 I0.116 J-0.113
G1 X-11.765 Y-11.804 Z-3.219
G3 X-11.997 Y-11.577 Z-3.232 I-0.116 J0.113
G1 X-13.045 Y-12.651 Z-3.271
G3 X-12.812 Y-12.878 Z-3.285 I0.116 J-0.113
G1 X-11.765 Y-11.804 Z-3.324
G3 X-11.997 Y-11.577 Z-3.337 I-0.116 J0.113
G1 X-13.045 Y-12.651 Z-3.377
G3 X-12.812 Y-12.878 Z-3.39 I0.116 J-0.113
G1 X-11.765 Y-11.804 Z-3.429
G3 X-11.997 Y-11.577 Z-3.443 I-0.116 J0.113
G1 X-13.045 Y-12.651 Z-3.482
G3 X-12.812 Y-12.878 Z-3.495 I0.116 J-0.113
G1 X-11.765 Y-11.804 Z-3.535
G3 X-11.997 Y-11.577 Z-3.548 I-0.116 J0.113
G1 X-13.045 Y-12.651 Z-3.587
G3 X-12.831 Y-12.894 Z-3.6 I0.116 J-0.113
S2000
G1 X-12.812 Y-12.878 F1000
X-11.983 Y-12.029
X-11.765 Y-11.804
G3 X-11.997 Y-11.577 I-0.116 J0.113
G1 X-13.045 Y-12.651
G3 X-12.831 Y-12.894 I0.116 J-0.113
S5000
G1 X-12.812 Y-12.878 Z-3.601 F333.3
X-11.765 Y-11.804 Z-3.64
G3 X-11.997 Y-11.577 Z-3.653 I-0.116 J0.113
G1 X-13.045 Y-12.651 Z-3.693
G3 X-12.812 Y-12.878 Z-3.706 I0.116 J-0.113
G1 X-11.765 Y-11.804 Z-3.745
G3 X-11.997 Y-11.577 Z-3.759 I-0.116 J0.113
G1 X-13.045 Y-12.651 Z-3.798
G3 X-12.812 Y-12.878 Z-3.811 I0.116 J-0.113
G1 X-11.765 Y-11.804 Z-3.85
G3 X-11.997 Y-11.577 Z-3.864 I-0.116 J0.113
G1 X-13.045 Y-12.651 Z-3.903
G3 X-12.812 Y-12.878 Z-3.916 I0.116 J-0.113
G1 X-11.919 Y-11.962 Z-3.95
S2000
X-11.765 Y-11.804 F1000
G3 X-11.997 Y-11.577 I-0.116 J0.113
G1 X-13.045 Y-12.651
G3 X-13.042 Y-12.881 I0.116 J-0.113
X-12.812 Y-12.878 I0.113 J0.116
G1 X-11.919 Y-11.962
S5000
X-11.765 Y-11.804 Z-3.956 F333.3
G3 X-11.997 Y-11.577 Z-3.969 I-0.116 J0.113
G1 X-13.045 Y-12.651 Z-4.008
G3 X-12.812 Y-12.878 Z-4.022 I0.116 J-0.113
G1 X-11.765 Y-11.804 Z-4.061
G3 X-11.997 Y-11.577 Z-4.074 I-0.116 J0.113
G1 X-13.045 Y-12.651 Z-4.114
G3 X-12.812 Y-12.878 Z-4.127 I0.116 J-0.113
G1 X-11.765 Y-11.804 Z-4.166
G3 X-11.997 Y-11.577 Z-4.18 I-0.116 J0.113
G1 X-13.045 Y-12.651 Z-4.219
G3 X-12.812 Y-12.878 Z-4.232 I0.116 J-0.113
G1 X-11.765 Y-11.804 Z-4.272
G3 X-11.997 Y-11.577 Z-4.285 I-0.116 J0.113
G1 X-12.397 Y-11.988 Z-4.3
S2000
X-13.045 Y-12.651 F1000
G3 X-12.812 Y-12.878 I0.116 J-0.113
G1 X-11.919 Y-11.962
X-11.765 Y-11.804
G3 X-11.997 Y-11.577 I-0.116 J0.113
G1 X-12.397 Y-11.988
Z5
X-26.234 Y-12.829
Z2.5 F333.3
S5000
X-26.249 Y-12.812 Z2.499
X-27.323 Y-11.765 Z2.46
G3 X-27.552 Y-11.767 Z2.453 I-0.114 J-0.116
X-27.55 Y-11.997 Z2.447 I0.116 J-0.114
G1 X-26.476 Y-13.045 Z2.407
G3 X-26.249 Y-12.812 Z2.394 I0.113 J0.116
G1 X-27.323 Y-11.765 Z2.355
G3 X-27.552 Y-11.767 Z2.348 I-0.114 J-0.116
X-27.55 Y-11.997 Z2.341 I0.116 J-0.114
G1 X-26.476 Y-13.045 Z2.302
G3 X-26.249 Y-12.812 Z2.289 I0.113 J0.116
G1 X-27.323 Y-11.765 Z2.25
G3 X-27.552 Y-11.767 Z2.243 I-0.114 J-0.116
X-27.55 Y-11.997 Z2.236 I0.116 J-0.114
G1 X-26.476 Y-13.045 Z2.197
G3 X-26.249 Y-12.812 Z2.184 I0.113 J0.116
G1 X-27.323 Y-11.765 Z2.144
G3 X-27.552 Y-11.767 Z2.138 I-0.114 J-0.116
X-27.55 Y-11.997 Z2.131 I0.116 J-0.114
G1 X-26.476 Y-13.045 Z2.092
G3 X-26.249 Y-12.812 Z2.078 I0.113 J0.116
G1 X-27.323 Y-11.765 Z2.039
G3 X-27.552 Y-11.767 Z2.032 I-0.114 J-0.116
X-27.55 Y-11.997 Z2.026 I0.116 J-0.114
G1 X-26.476 Y-13.045 Z1.986
G3 X-26.249 Y-12.812 Z1.973 I0.113 J0.116
G1 X-27.323 Y-11.765 Z1.934
G3 X-27.552 Y-11.767 Z1.927 I-0.114 J-0.116
X-27.55 Y-11.997 Z1.92 I0.116 J-0.114
G1 X-26.476 Y-13.045 Z1.881
G3 X-26.249 Y-12.812 Z1.868 I0.113 J0.116
G1 X-27.323 Y-11.765 Z1.828
G3 X-27.552 Y-11.767 Z1.822 I-0.114 J-0.116
X-27.55 Y-11.997 Z1.815 I0.116 J-0.114
G1 X-26.476 Y-13.045 Z1.776
G3 X-26.249 Y-12.812 Z1.762 I0.113 J0.116
G1 X-27.323 Y-11.765 Z1.723
G3 X-27.552 Y-11.767 Z1.716 I-0.114 J-0.116
X-27.55 Y-11.997 Z1.71 I0.116 J-0.114
G1 X-26.476 Y-13.045 Z1.67
G3 X-26.249 Y-12.812 Z1.657 I0.113 J0.116
G1 X-27.323 Y-11.765 Z1.618
G3 X-27.552 Y-11.767 Z1.611 I-0.114 J-0.116
X-27.55 Y-11.997 Z1.604 I0.116 J-0.114
G1 X-26.476 Y-13.045 Z1.565
G3 X-26.249 Y-12.812 Z1.552 I0.113 J0.116
G1 X-27.323 Y-11.765 Z1.513
G3 X-27.552 Y-11.767 Z1.506 I-0.114 J-0.116
X-27.55 Y-11.997 Z1.499 I0.116 J-0.114
G1 X-26.476 Y-13.045 Z1.46
G3 X-26.249 Y-12.812 Z1.446 I0.113 J0.116
G1 X-27.323 Y-11.765 Z1.407
G3 X-27.552 Y-11.767 Z1.401 I-0.114 J-0.116
X-27.55 Y-11.997 Z1.394 I0.116 J-0.114
G1 X-26.476 Y-13.045 Z1.355
G3 X-26.249 Y-12.812 Z1.341 I0.113 J0.116
G1 X-27.323 Y-11.765 Z1.302
G3 X-27.552 Y-11.767 Z1.295 I-0.114 J-0.116
X-27.55 Y-11.997 Z1.289 I0.116 J-0.114
G1 X-26.476 Y-13.045 Z1.249
G3 X-26.249 Y-12.812 Z1.236 I0.113 J0.116
G1 X-27.323 Y-11.765 Z1.197
G3 X-27.552 Y-11.767 Z1.19 I-0.114 J-0.116
X-27.55 Y-11.997 Z1.183 I0.116 J-0.114
G1 X-26.476 Y-13.045 Z1.144
G3 X-26.249 Y-12.812 Z1.131 I0.113 J0.116
G1 X-27.323 Y-11.765 Z1.091
G3 X-27.552 Y-11.767 Z1.085 I-0.114 J-0.116
X-27.55 Y-11.997 Z1.078 I0.116 J-0.114
G1 X-26.476 Y-13.045 Z1.039
G3 X-26.249 Y-12.812 Z1.025 I0.113 J0.116
G1 X-27.323 Y-11.765 Z0.986
G3 X-27.552 Y-11.767 Z0.979 I-0.114 J-0.116
X-27.55 Y-11.997 Z0.973 I0.116 J-0.114
G1 X-26.476 Y-13.045 Z0.933
G3 X-26.249 Y-12.812 Z0.92 I0.113 J0.116
G1 X-27.323 Y-11.765 Z0.881
G3 X-27.552 Y-11.767 Z0.874 I-0.114 J-0.116
X-27.55 Y-11.997 Z0.867 I0.116 J-0.114
G1 X-26.476 Y-13.045 Z0.828
G3 X-26.249 Y-12.812 Z0.815 I0.113 J0.116
G1 X-27.323 Y-11.765 Z0.775
G3 X-27.552 Y-11.767 Z0.769 I-0.114 J-0.116
X-27.55 Y-11.997 Z0.762 I0.116 J-0.114
G1 X-26.476 Y-13.045 Z0.723
G3 X-26.249 Y-12.812 Z0.709 I0.113 J0.116
G1 X-27.323 Y-11.765 Z0.67
G3 X-27.552 Y-11.767 Z0.663 I-0.114 J-0.116
X-27.55 Y-11.997 Z0.657 I0.116 J-0.114
G1 X-26.476 Y-13.045 Z0.618
G3 X-26.249 Y-12.812 Z0.604 I0.113 J0.116
G1 X-27.323 Y-11.765 Z0.565
G3 X-27.552 Y-11.767 Z0.558 I-0.114 J-0.116
X-27.55 Y-11.997 Z0.552 I0.116 J-0.114
G1 X-26.476 Y-13.045 Z0.512
G3 X-26.249 Y-12.812 Z0.499 I0.113 J0.116
G1 X-27.323 Y-11.765 Z0.46
G3 X-27.552 Y-11.767 Z0.453 I-0.114 J-0.116
X-27.55 Y-11.997 Z0.446 I0.116 J-0.114
G1 X-26.476 Y-13.045 Z0.407
G3 X-26.249 Y-12.812 Z0.394 I0.113 J0.116
G1 X-27.323 Y-11.765 Z0.354
G3 X-27.552 Y-11.767 Z0.348 I-0.114 J-0.116
X-27.55 Y-11.997 Z0.341 I0.116 J-0.114
G1 X-26.476 Y-13.045 Z0.302
G3 X-26.249 Y-12.812 Z0.288 I0.113 J0.116
G1 X-27.323 Y-11.765 Z0.249
G3 X-27.552 Y-11.767 Z0.242 I-0.114 J-0.116
X-27.55 Y-11.997 Z0.236 I0.116 J-0.114
G1 X-26.476 Y-13.045 Z0.196
G3 X-26.249 Y-12.812 Z0.183 I0.113 J0.116
G1 X-27.323 Y-11.765 Z0.144
G3 X-27.552 Y-11.767 Z0.137 I-0.114 J-0.116
X-27.55 Y-11.997 Z0.13 I0.116 J-0.114
G1 X-26.476 Y-13.045 Z0.091
G3 X-26.249 Y-12.812 Z0.078 I0.113 J0.116
G1 X-27.323 Y-11.765 Z0.038
G3 X-27.552 Y-11.767 Z0.032 I-0.114 J-0.116
X-27.55 Y-11.997 Z0.025 I0.116 J-0.114
G1 X-26.476 Y-13.045 Z-0.014
G3 X-26.249 Y-12.812 Z-0.028 I0.113 J0.116
G1 X-27.323 Y-11.765 Z-0.067
G3 X-27.552 Y-11.767 Z-0.074 I-0.114 J-0.116
X-27.55 Y-11.997 Z-0.08 I0.116 J-0.114
G1 X-26.476 Y-13.045 Z-0.12
G3 X-26.249 Y-12.812 Z-0.133 I0.113 J0.116
G1 X-27.323 Y-11.765 Z-0.172
G3 X-27.552 Y-11.767 Z-0.179 I-0.114 J-0.116
X-27.55 Y-11.997 Z-0.186 I0.116 J-0.114
G1 X-26.476 Y-13.045 Z-0.225
G3 X-26.249 Y-12.812 Z-0.238 I0.113 J0.116
G1 X-27.323 Y-11.765 Z-0.277
G3 X-27.552 Y-11.767 Z-0.284 I-0.114 J-0.116
X-27.55 Y-11.997 Z-0.291 I0.116 J-0.114
G1 X-26.476 Y-13.045 Z-0.33
G3 X-26.249 Y-12.812 Z-0.343 I0.113 J0.116
G1 X-27.323 Y-11.765 Z-0.383
G3 X-27.552 Y-11.767 Z-0.389 I-0.114 J-0.116
X-27.55 Y-11.997 Z-0.396 I0.116 J-0.114
G1 X-26.476 Y-13.045 Z-0.435
G3 X-26.249 Y-12.812 Z-0.449 I0.113 J0.116
G1 X-27.323 Y-11.765 Z-0.488
G3 X-27.552 Y-11.767 Z-0.495 I-0.114 J-0.116
X-27.55 Y-11.997 Z-0.501 I0.116 J-0.114
G1 X-26.476 Y-13.045 Z-0.541
G3 X-26.249 Y-12.812 Z-0.554 I0.113 J0.116
G1 X-27.323 Y-11.765 Z-0.593
X-27.357 Y-11.739 Z-0.594
X-27.396 Y-11.723 Z-0.596
X-27.438 Y-11.718 Z-0.597
X-27.48 Y-11.724 Z-0.598
X-27.519 Y-11.741 Z-0.599
X-27.552 Y-11.767 Z-0.6
S2000
X-27.578 Y-11.801 F1000
X-27.594 Y-11.841
X-27.599 Y-11.883
X-27.593 Y-11.925
X-27.576 Y-11.964
X-27.55 Y-11.997
X-26.476 Y-13.045
G3 X-26.249 Y-12.812 I0.113 J0.116
G1 X-27.323 Y-11.765
X-27.357 Y-11.739
X-27.396 Y-11.723
X-27.438 Y-11.718
X-27.48 Y-11.724
X-27.519 Y-11.741
X-27.552 Y-11.767
S5000
X-27.578 Y-11.801 Z-0.601 F333.3
X-27.594 Y-11.841 Z-0.602
X-27.599 Y-11.883 Z-0.603
X-27.593 Y-11.925 Z-0.604
X-27.576 Y-11.964 Z-0.606
X-27.55 Y-11.997 Z-0.607
X-26.476 Y-13.045 Z-0.646
G3 X-26.249 Y-12.812 Z-0.659 I0.113 J0.116
G1 X-27.323 Y-11.765 Z-0.699
G3 X-27.552 Y-11.767 Z-0.705 I-0.114 J-0.116
X-27.55 Y-11.997 Z-0.712 I0.116 J-0.114
G1 X-26.476 Y-13.045 Z-0.751
G3 X-26.249 Y-12.812 Z-0.765 I0.113 J0.116
G1 X-27.323 Y-11.765 Z-0.804
G3 X-27.552 Y-11.767 Z-0.811 I-0.114 J-0.116
X-27.55 Y-11.997 Z-0.817 I0.116 J-0.114
G1 X-26.476 Y-13.045 Z-0.857
G3 X-26.249 Y-12.812 Z-0.87 I0.113 J0.116
G1 X-27.323 Y-11.765 Z-0.909
G3 X-27.552 Y-11.767 Z-0.916 I-0.114 J-0.116
X-27.55 Y-11.997 Z-0.923 I0.116 J-0.114
G1 X-26.476 Y-13.045 Z-0.962
G3 X-26.249 Y-12.812 Z-0.975 I0.113 J0.116
G1 X-27.323 Y-11.765 Z-1.014
G3 X-27.552 Y-11.767 Z-1.021 I-0.114 J-0.116
X-27.55 Y-11.997 Z-1.028 I0.116 J-0.114
G1 X-26.476 Y-13.045 Z-1.067
G3 X-26.249 Y-12.812 Z-1.08 I0.113 J0.116
G1 X-27.323 Y-11.765 Z-1.12
G3 X-27.552 Y-11.767 Z-1.126 I-0.114 J-0.116
X-27.55 Y-11.997 Z-1.133 I0.116 J-0.114
G1 X-26.476 Y-13.045 Z-1.172
G3 X-26.249 Y-12.812 Z-1.186 I0.113 J0.116
G1 X-26.638 Y-12.433 Z-1.2
S2000
X-27.323 Y-11.765 F1000
G3 X-27.552 Y-11.767 I-0.114 J-0.116
X-27.55 Y-11.997 I0.116 J-0.114
G1 X-26.476 Y-13.045
G3 X-26.249 Y-12.812 I0.113 J0.116
G1 X-26.638 Y-12.433
S5000
X-27.323 Y-11.765 Z-1.225 F333.3
G3 X-27.552 Y-11.767 Z-1.232 I-0.114 J-0.116
X-27.55 Y-11.997 Z-1.238 I0.116 J-0.114
G1 X-26.476 Y-13.045 Z-1.278
G3 X-26.249 Y-12.812 Z-1.291 I0.113 J0.116
G1 X-27.323 Y-11.765 Z-1.33
G3 X-27.552 Y-11.767 Z-1.337 I-0.114 J-0.116
X-27.55 Y-11.997 Z-1.344 I0.116 J-0.114
G1 X-26.476 Y-13.045 Z-1.383
G3 X-26.249 Y-12.812 Z-1.396 I0.113 J0.116
G1 X-27.323 Y-11.765 Z-1.436
G3 X-27.552 Y-11.767 Z-1.442 I-0.114 J-0.116
X-27.55 Y-11.997 Z-1.449 I0.116 J-0.114
G1 X-26.476 Y-13.045 Z-1.488
G3 X-26.249 Y-12.812 Z-1.502 I0.113 J0.116
G1 X-27.323 Y-11.765 Z-1.541
G3 X-27.552 Y-11.767 Z-1.548 I-0.114 J-0.116
X-27.55 Y-11.997 Z-1.554 I0.116 J-0.114
G1 X-26.476 Y-13.045 Z-1.594
G3 X-26.249 Y-12.812 Z-1.607 I0.113 J0.116
G1 X-27.323 Y-11.765 Z-1.646
G3 X-27.552 Y-11.767 Z-1.653 I-0.114 J-0.116
X-27.55 Y-11.997 Z-1.66 I0.116 J-0.114
G1 X-26.476 Y-13.045 Z-1.699
G3 X-26.249 Y-12.812 Z-1.712 I0.113 J0.116
G1 X-27.323 Y-11.765 Z-1.752
G3 X-27.552 Y-11.767 Z-1.758 I-0.114 J-0.116
X-27.55 Y-11.997 Z-1.765 I0.116 J-0.114
G1 X-26.59 Y-12.934 Z-1.8
S2000
X-26.476 Y-13.045 F1000
G3 X-26.249 Y-12.812 I0.113 J0.116
G1 X-27.323 Y-11.765
G3 X-27.552 Y-11.767 I-0.114 J-0.116
X-27.55 Y-11.997 I0.116 J-0.114
G1 X-26.59 Y-12.934
S5000
X-26.476 Y-13.045 Z-1.804 F333.3
G3 X-26.249 Y-12.812 Z-1.818 I0.113 J0.116
G1 X-27.323 Y-11.765 Z-1.857
G3 X-27.552 Y-11.767 Z-1.863 I-0.114 J-0.116
X-27.55 Y-11.997 Z-1.87 I0.116 J-0.114
G1 X-26.476 Y-13.045 Z-1.909
G3 X-26.249 Y-12.812 Z-1.923 I0.113 J0.116
G1 X-27.323 Y-11.765 Z-1.962
G3 X-27.552 Y-11.767 Z-1.969 I-0.114 J-0.116
X-27.55 Y-11.997 Z-1.975 I0.116 J-0.114
G1 X-26.476 Y-13.045 Z-2.015
G3 X-26.249 Y-12.812 Z-2.028 I0.113 J0.116
G1 X-27.323 Y-11.765 Z-2.067
G3 X-27.552 Y-11.767 Z-2.074 I-0.114 J-0.116
X-27.55 Y-11.997 Z-2.081 I0.116 J-0.114
G1 X-26.476 Y-13.045 Z-2.12
G3 X-26.249 Y-12.812 Z-2.133 I0.113 J0.116
G1 X-27.323 Y-11.765 Z-2.173
G3 X-27.552 Y-11.767 Z-2.179 I-0.114 J-0.116
X-27.55 Y-11.997 Z-2.186 I0.116 J-0.114
G1 X-26.476 Y-13.045 Z-2.225
G3 X-26.249 Y-12.812 Z-2.239 I0.113 J0.116
G1 X-27.323 Y-11.765 Z-2.278
G3 X-27.552 Y-11.767 Z-2.285 I-0.114 J-0.116
X-27.55 Y-11.997 Z-2.291 I0.116 J-0.114
G1 X-26.476 Y-13.045 Z-2.331
G3 X-26.249 Y-12.812 Z-2.344 I0.113 J0.116
G1 X-27.323 Y-11.765 Z-2.383
G3 X-27.552 Y-11.767 Z-2.39 I-0.114 J-0.116
X-27.55 Y-11.997 Z-2.397 I0.116 J-0.114
G1 X-27.457 Y-12.087 Z-2.4
S2000
X-26.59 Y-12.934 F1000
X-26.476 Y-13.045
G3 X-26.249 Y-12.812 I0.113 J0.116
G1 X-27.323 Y-11.765
G3 X-27.552 Y-11.767 I-0.114 J-0.116
X-27.55 Y-11.997 I0.116 J-0.114
G1 X-27.457 Y-12.087
S5000
X-26.476 Y-13.045 Z-2.436 F333.3
G3 X-26.249 Y-12.812 Z-2.449 I0.113 J0.116
G1 X-27.323 Y-11.765 Z-2.489
G3 X-27.552 Y-11.767 Z-2.495 I-0.114 J-0.116
X-27.55 Y-11.997 Z-2.502 I0.116 J-0.114
G1 X-26.476 Y-13.045 Z-2.541
G3 X-26.249 Y-12.812 Z-2.555 I0.113 J0.116
G1 X-27.323 Y-11.765 Z-2.594
G3 X-27.552 Y-11.767 Z-2.601 I-0.114 J-0.116
X-27.55 Y-11.997 Z-2.607 I0.116 J-0.114
G1 X-26.476 Y-13.045 Z-2.646
G3 X-26.249 Y-12.812 Z-2.66 I0.113 J0.116
G1 X-27.323 Y-11.765 Z-2.699
G3 X-27.552 Y-11.767 Z-2.706 I-0.114 J-0.116
X-27.55 Y-11.997 Z-2.713 I0.116 J-0.114
G1 X-26.476 Y-13.045 Z-2.752
G3 X-26.249 Y-12.812 Z-2.765 I0.113 J0.116
G1 X-27.323 Y-11.765 Z-2.804
G3 X-27.552 Y-11.767 Z-2.811 I-0.114 J-0.116
X-27.55 Y-11.997 Z-2.818 I0.116 J-0.114
G1 X-26.476 Y-13.045 Z-2.857
G3 X-26.249 Y-12.812 Z-2.87 I0.113 J0.116
G1 X-27.323 Y-11.765 Z-2.91
G3 X-27.552 Y-11.767 Z-2.916 I-0.114 J-0.116
X-27.55 Y-11.997 Z-2.923 I0.116 J-0.114
G1 X-26.476 Y-13.045 Z-2.962
G3 X-26.249 Y-12.812 Z-2.976 I0.113 J0.116
G1 X-26.912 Y-12.165 Z-3
S2000
X-27.323 Y-11.765 F1000
G3 X-27.552 Y-11.767 I-0.114 J-0.116
X-27.55 Y-11.997 I0.116 J-0.114
G1 X-26.476 Y-13.045
G3 X-26.249 Y-12.812 I0.113 J0.116
G1 X-26.912 Y-12.165
S5000
X-27.323 Y-11.765 Z-3.015 F333.3
G3 X-27.552 Y-11.767 Z-3.022 I-0.114 J-0.116
X-27.55 Y-11.997 Z-3.028 I0.116 J-0.114
G1 X-26.476 Y-13.045 Z-3.068
G3 X-26.249 Y-12.812 Z-3.081 I0.113 J0.116
G1 X-27.323 Y-11.765 Z-3.12
G3 X-27.552 Y-11.767 Z-3.127 I-0.114 J-0.116
X-27.55 Y-11.997 Z-3.134 I0.116 J-0.114
G1 X-26.476 Y-13.045 Z-3.173
G3 X-26.249 Y-12.812 Z-3.186 I0.113 J0.116
G1 X-27.323 Y-11.765 Z-3.226
G3 X-27.552 Y-11.767 Z-3.232 I-0.114 J-0.116
X-27.55 Y-11.997 Z-3.239 I0.116 J-0.114
G1 X-26.476 Y-13.045 Z-3.278
G3 X-26.249 Y-12.812 Z-3.292 I0.113 J0.116
G1 X-27.323 Y-11.765 Z-3.331
G3 X-27.552 Y-11.767 Z-3.338 I-0.114 J-0.116
X-27.55 Y-11.997 Z-3.344 I0.116 J-0.114
G1 X-26.476 Y-13.045 Z-3.384
G3 X-26.249 Y-12.812 Z-3.397 I0.113 J0.116
G1 X-27.323 Y-11.765 Z-3.436
G3 X-27.552 Y-11.767 Z-3.443 I-0.114 J-0.116
X-27.55 Y-11.997 Z-3.45 I0.116 J-0.114
G1 X-26.476 Y-13.045 Z-3.489
G3 X-26.249 Y-12.812 Z-3.502 I0.113 J0.116
G1 X-27.323 Y-11.765 Z-3.541
G3 X-27.552 Y-11.767 Z-3.548 I-0.114 J-0.116
X-27.55 Y-11.997 Z-3.555 I0.116 J-0.114
G1 X-26.476 Y-13.045 Z-3.594
X-26.44 Y-13.071 Z-3.595
X-26.398 Y-13.087 Z-3.596
X-26.353 Y-13.091 Z-3.598
X-26.309 Y-13.082 Z-3.599
X-26.269 Y-13.062 Z-3.6
S2000
G3 X-26.249 Y-12.812 I-0.093 J0.133 F1000
G1 X-26.912 Y-12.165
X-27.323 Y-11.765
G3 X-27.552 Y-11.767 I-0.114 J-0.116
X-27.55 Y-11.997 I0.116 J-0.114
G1 X-26.476 Y-13.045
X-26.44 Y-13.071
X-26.398 Y-13.087
X-26.353 Y-13.091
X-26.309 Y-13.082
X-26.269 Y-13.062
S5000
G3 X-26.249 Y-12.812 Z-3.607 I-0.093 J0.133 F333.3
G1 X-27.323 Y-11.765 Z-3.647
G3 X-27.552 Y-11.767 Z-3.653 I-0.114 J-0.116
X-27.55 Y-11.997 Z-3.66 I0.116 J-0.114
G1 X-26.476 Y-13.045 Z-3.699
G3 X-26.249 Y-12.812 Z-3.713 I0.113 J0.116
G1 X-27.323 Y-11.765 Z-3.752
G3 X-27.552 Y-11.767 Z-3.759 I-0.114 J-0.116
X-27.55 Y-11.997 Z-3.765 I0.116 J-0.114
G1 X-26.476 Y-13.045 Z-3.805
G3 X-26.249 Y-12.812 Z-3.818 I0.113 J0.116
G1 X-27.323 Y-11.765 Z-3.857
G3 X-27.552 Y-11.767 Z-3.864 I-0.114 J-0.116
X-27.55 Y-11.997 Z-3.871 I0.116 J-0.114
G1 X-26.476 Y-13.045 Z-3.91
G3 X-26.249 Y-12.812 Z-3.923 I0.113 J0.116
G1 X-26.978 Y-12.101 Z-3.95
S2000
X-27.323 Y-11.765 F1000
G3 X-27.552 Y-11.767 I-0.114 J-0.116
X-27.55 Y-11.997 I0.116 J-0.114
G1 X-26.476 Y-13.045
G3 X-26.249 Y-12.812 I0.113 J0.116
G1 X-26.978 Y-12.101
S5000
X-27.323 Y-11.765 Z-3.963 F333.3
G3 X-27.552 Y-11.767 Z-3.969 I-0.114 J-0.116
X-27.55 Y-11.997 Z-3.976 I0.116 J-0.114
G1 X-26.476 Y-13.045 Z-4.015
G3 X-26.249 Y-12.812 Z-4.029 I0.113 J0.116
G1 X-27.323 Y-11.765 Z-4.068
G3 X-27.552 Y-11.767 Z-4.075 I-0.114 J-0.116
X-27.55 Y-11.997 Z-4.081 I0.116 J-0.114
G1 X-26.476 Y-13.045 Z-4.121
G3 X-26.249 Y-12.812 Z-4.134 I0.113 J0.116
G1 X-27.323 Y-11.765 Z-4.173
G3 X-27.552 Y-11.767 Z-4.18 I-0.114 J-0.116
X-27.55 Y-11.997 Z-4.187 I0.116 J-0.114
G1 X-26.476 Y-13.045 Z-4.226
G3 X-26.249 Y-12.812 Z-4.239 I0.113 J0.116
G1 X-27.323 Y-11.765 Z-4.278
G3 X-27.552 Y-11.767 Z-4.285 I-0.114 J-0.116
X-27.55 Y-11.997 Z-4.292 I0.116 J-0.114
G1 X-27.327 Y-12.214 Z-4.3
S2000
X-26.476 Y-13.045 F1000
G3 X-26.249 Y-12.812 I0.113 J0.116
G1 X-26.978 Y-12.101
X-27.323 Y-11.765
G3 X-27.552 Y-11.767 I-0.114 J-0.116
X-27.55 Y-11.997 I0.116 J-0.114
G1 X-27.327 Y-12.214
Z5
X-42.772 Y-133.718
Z2.5 F333.3
S5000
X-42.731 Y-133.744 Z2.499
X-42.684 Y-133.756 Z2.497
X-42.635 Y-133.753 Z2.496
X-42.59 Y-133.737 Z2.495
X-42.551 Y-133.707 Z2.494
X-41.503 Y-132.634 Z2.454
G3 X-41.506 Y-132.404 Z2.448 I-0.116 J0.114
X-41.736 Y-132.407 Z2.441 I-0.113 J-0.116
G1 X-42.784 Y-133.48 Z2.402
G3 X-42.781 Y-133.71 Z2.395 I0.116 J-0.114
X-42.551 Y-133.707 Z2.388 I0.114 J0.116
G1 X-41.503 Y-132.634 Z2.349
G3 X-41.506 Y-132.404 Z2.342 I-0.116 J0.114
X-41.736 Y-132.407 Z2.336 I-0.113 J-0.116
G1 X-42.784 Y-133.48 Z2.296
G3 X-42.781 Y-133.71 Z2.29 I0.116 J-0.114
X-42.551 Y-133.707 Z2.283 I0.114 J0.116
G1 X-41.503 Y-132.634 Z2.244
G3 X-41.506 Y-132.404 Z2.237 I-0.116 J0.114
X-41.736 Y-132.407 Z2.23 I-0.113 J-0.116
G1 X-42.784 Y-133.48 Z2.191
G3 X-42.781 Y-133.71 Z2.184 I0.116 J-0.114
X-42.551 Y-133.707 Z2.178 I0.114 J0.116
G1 X-41.503 Y-132.634 Z2.138
G3 X-41.506 Y-132.404 Z2.132 I-0.116 J0.114
X-41.736 Y-132.407 Z2.125 I-0.113 J-0.116
G1 X-42.784 Y-133.48 Z2.086
G3 X-42.781 Y-133.71 Z2.079 I0.116 J-0.114
X-42.551 Y-133.707 Z2.072 I0.114 J0.116
G1 X-41.503 Y-132.634 Z2.033
G3 X-41.506 Y-132.404 Z2.026 I-0.116 J0.114
X-41.736 Y-132.407 Z2.02 I-0.113 J-0.116
G1 X-42.784 Y-133.48 Z1.98
G3 X-42.781 Y-133.71 Z1.974 I0.116 J-0.114
X-42.551 Y-133.707 Z1.967 I0.114 J0.116
G1 X-41.503 Y-132.634 Z1.928
G3 X-41.506 Y-132.404 Z1.921 I-0.116 J0.114
X-41.736 Y-132.407 Z1.914 I-0.113 J-0.116
G1 X-42.784 Y-133.48 Z1.875
G3 X-42.781 Y-133.71 Z1.868 I0.116 J-0.114
X-42.551 Y-133.707 Z1.862 I0.114 J0.116
G1 X-41.503 Y-132.634 Z1.822
G3 X-41.506 Y-132.404 Z1.816 I-0.116 J0.114
X-41.736 Y-132.407 Z1.809 I-0.113 J-0.116
G1 X-42.784 Y-133.48 Z1.77
G3 X-42.781 Y-133.71 Z1.763 I0.116 J-0.114
X-42.551 Y-133.707 Z1.756 I0.114 J0.116
G1 X-41.503 Y-132.634 Z1.717
G3 X-41.506 Y-132.404 Z1.71 I-0.116 J0.114
X-41.736 Y-132.407 Z1.704 I-0.113 J-0.116
G1 X-42.784 Y-133.48 Z1.664
G3 X-42.781 Y-133.71 Z1.658 I0.116 J-0.114
X-42.551 Y-133.707 Z1.651 I0.114 J0.116
G1 X-41.503 Y-132.634 Z1.612
G3 X-41.506 Y-132.404 Z1.605 I-0.116 J0.114
X-41.736 Y-132.407 Z1.598 I-0.113 J-0.116
G1 X-42.784 Y-133.48 Z1.559
G3 X-42.781 Y-133.71 Z1.552 I0.116 J-0.114
X-42.551 Y-133.707 Z1.546 I0.114 J0.116
G1 X-41.503 Y-132.634 Z1.506
G3 X-41.506 Y-132.404 Z1.5 I-0.116 J0.114
X-41.736 Y-132.407 Z1.493 I-0.113 J-0.116
G1 X-42.784 Y-133.48 Z1.454
G3 X-42.781 Y-133.71 Z1.447 I0.116 J-0.114
X-42.551 Y-133.707 Z1.44 I0.114 J0.116
G1 X-41.503 Y-132.634 Z1.401
G3 X-41.506 Y-132.404 Z1.394 I-0.116 J0.114
X-41.736 Y-132.407 Z1.388 I-0.113 J-0.116
G1 X-42.784 Y-133.48 Z1.348
G3 X-42.781 Y-133.71 Z1.342 I0.116 J-0.114
X-42.551 Y-133.707 Z1.335 I0.114 J0.116
G1 X-41.503 Y-132.634 Z1.296
G3 X-41.506 Y-132.404 Z1.289 I-0.116 J0.114
X-41.736 Y-132.407 Z1.282 I-0.113 J-0.116
G1 X-42.784 Y-133.48 Z1.243
G3 X-42.781 Y-133.71 Z1.236 I0.116 J-0.114
X-42.551 Y-133.707 Z1.23 I0.114 J0.116
G1 X-41.503 Y-132.634 Z1.19
G3 X-41.506 Y-132.404 Z1.184 I-0.116 J0.114
X-41.736 Y-132.407 Z1.177 I-0.113 J-0.116
G1 X-42.784 Y-133.48 Z1.138
G3 X-42.781 Y-133.71 Z1.131 I0.116 J-0.114
X-42.551 Y-133.707 Z1.124 I0.114 J0.116
G1 X-41.503 Y-132.634 Z1.085
G3 X-41.506 Y-132.404 Z1.078 I-0.116 J0.114
X-41.736 Y-132.407 Z1.072 I-0.113 J-0.116
G1 X-42.784 Y-133.48 Z1.032
G3 X-42.781 Y-133.71 Z1.026 I0.116 J-0.114
X-42.551 Y-133.707 Z1.019 I0.114 J0.116
G1 X-41.503 Y-132.634 Z0.98
G3 X-41.506 Y-132.404 Z0.973 I-0.116 J0.114
X-41.736 Y-132.407 Z0.966 I-0.113 J-0.116
G1 X-42.784 Y-133.48 Z0.927
G3 X-42.781 Y-133.71 Z0.92 I0.116 J-0.114
X-42.551 Y-133.707 Z0.914 I0.114 J0.116
G1 X-41.503 Y-132.634 Z0.874
G3 X-41.506 Y-132.404 Z0.868 I-0.116 J0.114
X-41.736 Y-132.407 Z0.861 I-0.113 J-0.116
G1 X-42.784 Y-133.48 Z0.822
G3 X-42.781 Y-133.71 Z0.815 I0.116 J-0.114
X-42.551 Y-133.707 Z0.808 I0.114 J0.116
G1 X-41.503 Y-132.634 Z0.769
G3 X-41.506 Y-132.404 Z0.762 I-0.116 J0.114
X-41.736 Y-132.407 Z0.756 I-0.113 J-0.116
G1 X-42.784 Y-133.48 Z0.717
G3 X-42.781 Y-133.71 Z0.71 I0.116 J-0.114
X-42.551 Y-133.707 Z0.703 I0.114 J0.116
G1 X-41.503 Y-132.634 Z0.664
G3 X-41.506 Y-132.404 Z0.657 I-0.116 J0.114
X-41.736 Y-132.407 Z0.65 I-0.113 J-0.116
G1 X-42.784 Y-133.48 Z0.611
G3 X-42.781 Y-133.71 Z0.605 I0.116 J-0.114
X-42.551 Y-133.707 Z0.598 I0.114 J0.116
G1 X-41.503 Y-132.634 Z0.559
G3 X-41.506 Y-132.404 Z0.552 I-0.116 J0.114
X-41.736 Y-132.407 Z0.545 I-0.113 J-0.116
G1 X-42.784 Y-133.48 Z0.506
G3 X-42.781 Y-133.71 Z0.499 I0.116 J-0.114
X-42.551 Y-133.707 Z0.492 I0.114 J0.116
G1 X-41.503 Y-132.634 Z0.453
G3 X-41.506 Y-132.404 Z0.447 I-0.116 J0.114
X-41.736 Y-132.407 Z0.44 I-0.113 J-0.116
G1 X-42.784 Y-133.48 Z0.401
G3 X-42.781 Y-133.71 Z0.394 I0.116 J-0.114
X-42.551 Y-133.707 Z0.387 I0.114 J0.116
G1 X-41.503 Y-132.634 Z0.348
G3 X-41.506 Y-132.404 Z0.341 I-0.116 J0.114
X-41.736 Y-132.407 Z0.335 I-0.113 J-0.116
G1 X-42.784 Y-133.48 Z0.295
G3 X-42.781 Y-133.71 Z0.289 I0.116 J-0.114
X-42.551 Y-133.707 Z0.282 I0.114 J0.116
G1 X-41.503 Y-132.634 Z0.243
G3 X-41.506 Y-132.404 Z0.236 I-0.116 J0.114
X-41.736 Y-132.407 Z0.229 I-0.113 J-0.116
G1 X-42.784 Y-133.48 Z0.19
G3 X-42.781 Y-133.71 Z0.183 I0.116 J-0.114
X-42.551 Y-133.707 Z0.177 I0.114 J0.116
G1 X-41.503 Y-132.634 Z0.137
G3 X-41.506 Y-132.404 Z0.131 I-0.116 J0.114
X-41.736 Y-132.407 Z0.124 I-0.113 J-0.116
G1 X-42.784 Y-133.48 Z0.085
G3 X-42.781 Y-133.71 Z0.078 I0.116 J-0.114
X-42.551 Y-133.707 Z0.071 I0.114 J0.116
G1 X-41.503 Y-132.634 Z0.032
G3 X-41.506 Y-132.404 Z0.025 I-0.116 J0.114
X-41.736 Y-132.407 Z0.019 I-0.113 J-0.116
G1 X-42.784 Y-133.48 Z-0.021
G3 X-42.781 Y-133.71 Z-0.027 I0.116 J-0.114
X-42.551 Y-133.707 Z-0.034 I0.114 J0.116
G1 X-41.503 Y-132.634 Z-0.073
G3 X-41.506 Y-132.404 Z-0.08 I-0.116 J0.114
X-41.736 Y-132.407 Z-0.087 I-0.113 J-0.116
G1 X-42.784 Y-133.48 Z-0.126
G3 X-42.781 Y-133.71 Z-0.133 I0.116 J-0.114
X-42.551 Y-133.707 Z-0.139 I0.114 J0.116
G1 X-41.503 Y-132.634 Z-0.179
G3 X-41.506 Y-132.404 Z-0.185 I-0.116 J0.114
X-41.736 Y-132.407 Z-0.192 I-0.113 J-0.116
G1 X-42.784 Y-133.48 Z-0.231
G3 X-42.781 Y-133.71 Z-0.238 I0.116 J-0.114
X-42.551 Y-133.707 Z-0.245 I0.114 J0.116
G1 X-41.503 Y-132.634 Z-0.284
G3 X-41.506 Y-132.404 Z-0.291 I-0.116 J0.114
X-41.736 Y-132.407 Z-0.297 I-0.113 J-0.116
G1 X-42.784 Y-133.48 Z-0.337
G3 X-42.781 Y-133.71 Z-0.343 I0.116 J-0.114
X-42.551 Y-133.707 Z-0.35 I0.114 J0.116
G1 X-41.503 Y-132.634 Z-0.389
G3 X-41.506 Y-132.404 Z-0.396 I-0.116 J0.114
X-41.736 Y-132.407 Z-0.403 I-0.113 J-0.116
G1 X-42.784 Y-133.48 Z-0.442
G3 X-42.781 Y-133.71 Z-0.449 I0.116 J-0.114
X-42.551 Y-133.707 Z-0.455 I0.114 J0.116
G1 X-41.503 Y-132.634 Z-0.495
G3 X-41.506 Y-132.404 Z-0.501 I-0.116 J0.114
X-41.736 Y-132.407 Z-0.508 I-0.113 J-0.116
G1 X-42.784 Y-133.48 Z-0.547
G3 X-42.781 Y-133.71 Z-0.554 I0.116 J-0.114
X-42.551 Y-133.707 Z-0.561 I0.114 J0.116
G1 X-41.504 Y-132.634 Z-0.6
S2000
X-41.503 F1000
G3 X-41.506 Y-132.404 I-0.116 J0.114
X-41.736 Y-132.407 I-0.113 J-0.116
G1 X-42.784 Y-133.48
G3 X-42.781 Y-133.71 I0.116 J-0.114
X-42.551 Y-133.707 I0.114 J0.116
G1 X-41.504 Y-132.634
S5000
X-41.503 F333.3
G3 X-41.506 Y-132.404 Z-0.607 I-0.116 J0.114
X-41.736 Y-132.407 Z-0.613 I-0.113 J-0.116
G1 X-42.784 Y-133.48 Z-0.653
G3 X-42.781 Y-133.71 Z-0.659 I0.116 J-0.114
X-42.551 Y-133.707 Z-0.666 I0.114 J0.116
G1 X-41.503 Y-132.634 Z-0.705
G3 X-41.506 Y-132.404 Z-0.712 I-0.116 J0.114
X-41.736 Y-132.407 Z-0.719 I-0.113 J-0.116
G1 X-42.784 Y-133.48 Z-0.758
G3 X-42.781 Y-133.71 Z-0.765 I0.116 J-0.114
X-42.551 Y-133.707 Z-0.771 I0.114 J0.116
G1 X-41.503 Y-132.634 Z-0.811
G3 X-41.506 Y-132.404 Z-0.817 I-0.116 J0.114
X-41.736 Y-132.407 Z-0.824 I-0.113 J-0.116
G1 X-42.784 Y-133.48 Z-0.863
G3 X-42.781 Y-133.71 Z-0.87 I0.116 J-0.114
X-42.551 Y-133.707 Z-0.877 I0.114 J0.116
G1 X-41.503 Y-132.634 Z-0.916
G3 X-41.506 Y-132.404 Z-0.923 I-0.116 J0.114
X-41.736 Y-132.407 Z-0.929 I-0.113 J-0.116
G1 X-42.784 Y-133.48 Z-0.969
G3 X-42.781 Y-133.71 Z-0.975 I0.116 J-0.114
X-42.551 Y-133.707 Z-0.982 I0.114 J0.116
G1 X-41.503 Y-132.634 Z-1.021
G3 X-41.506 Y-132.404 Z-1.028 I-0.116 J0.114
X-41.736 Y-132.407 Z-1.035 I-0.113 J-0.116
G1 X-42.784 Y-133.48 Z-1.074
G3 X-42.781 Y-133.71 Z-1.081 I0.116 J-0.114
X-42.551 Y-133.707 Z-1.087 I0.114 J0.116
G1 X-41.503 Y-132.634 Z-1.127
G3 X-41.506 Y-132.404 Z-1.133 I-0.116 J0.114
X-41.736 Y-132.407 Z-1.14 I-0.113 J-0.116
G1 X-42.784 Y-133.48 Z-1.179
G3 X-42.781 Y-133.71 Z-1.186 I0.116 J-0.114
X-42.551 Y-133.707 Z-1.193 I0.114 J0.116
G1 X-42.355 Y-133.507 Z-1.2
S2000
X-41.504 Y-132.634 F1000
X-41.503
G3 X-41.506 Y-132.404 I-0.116 J0.114
X-41.736 Y-132.407 I-0.113 J-0.116
G1 X-42.784 Y-133.48
G3 X-42.781 Y-133.71 I0.116 J-0.114
X-42.551 Y-133.707 I0.114 J0.116
G1 X-42.355 Y-133.507
S5000
X-41.503 Y-132.634 Z-1.232 F333.3
G3 X-41.506 Y-132.404 Z-1.239 I-0.116 J0.114
X-41.736 Y-132.407 Z-1.245 I-0.113 J-0.116
G1 X-42.784 Y-133.48 Z-1.285
G3 X-42.781 Y-133.71 Z-1.291 I0.116 J-0.114
X-42.551 Y-133.707 Z-1.298 I0.114 J0.116
G1 X-41.503 Y-132.634 Z-1.337
G3 X-41.506 Y-132.404 Z-1.344 I-0.116 J0.114
X-41.736 Y-132.407 Z-1.351 I-0.113 J-0.116
G1 X-42.784 Y-133.48 Z-1.39
G3 X-42.781 Y-133.71 Z-1.397 I0.116 J-0.114
X-42.551 Y-133.707 Z-1.403 I0.114 J0.116
G1 X-41.503 Y-132.634 Z-1.443
G3 X-41.506 Y-132.404 Z-1.449 I-0.116 J0.114
X-41.736 Y-132.407 Z-1.456 I-0.113 J-0.116
G1 X-42.784 Y-133.48 Z-1.495
G3 X-42.781 Y-133.71 Z-1.502 I0.116 J-0.114
X-42.551 Y-133.707 Z-1.509 I0.114 J0.116
G1 X-41.503 Y-132.634 Z-1.548
G3 X-41.506 Y-132.404 Z-1.555 I-0.116 J0.114
X-41.736 Y-132.407 Z-1.561 I-0.113 J-0.116
G1 X-42.784 Y-133.48 Z-1.601
G3 X-42.781 Y-133.71 Z-1.607 I0.116 J-0.114
X-42.551 Y-133.707 Z-1.614 I0.114 J0.116
G1 X-41.503 Y-132.634 Z-1.653
G3 X-41.506 Y-132.404 Z-1.66 I-0.116 J0.114
X-41.736 Y-132.407 Z-1.667 I-0.113 J-0.116
G1 X-42.784 Y-133.48 Z-1.706
G3 X-42.781 Y-133.71 Z-1.713 I0.116 J-0.114
X-42.551 Y-133.707 Z-1.719 I0.114 J0.116
G1 X-41.503 Y-132.634 Z-1.759
G3 X-41.506 Y-132.404 Z-1.765 I-0.116 J0.114
X-41.736 Y-132.407 Z-1.772 I-0.113 J-0.116
G1 X-42.485 Y-133.174 Z-1.8
S2000
X-42.784 Y-133.48 F1000
G3 X-42.781 Y-133.71 I0.116 J-0.114
X-42.551 Y-133.707 I0.114 J0.116
G1 X-41.503 Y-132.634
G3 X-41.506 Y-132.404 I-0.116 J0.114
X-41.736 Y-132.407 I-0.113 J-0.116
G1 X-42.485 Y-133.174
S5000
X-42.784 Y-133.48 Z-1.811 F333.3
G3 X-42.781 Y-133.71 Z-1.818 I0.116 J-0.114
X-42.551 Y-133.707 Z-1.825 I0.114 J0.116
G1 X-41.503 Y-132.634 Z-1.864
G3 X-41.506 Y-132.404 Z-1.871 I-0.116 J0.114
X-41.736 Y-132.407 Z-1.877 I-0.113 J-0.116
G1 X-42.784 Y-133.48 Z-1.917
G3 X-42.781 Y-133.71 Z-1.923 I0.116 J-0.114
X-42.551 Y-133.707 Z-1.93 I0.114 J0.116
G1 X-41.503 Y-132.634 Z-1.969
G3 X-41.506 Y-132.404 Z-1.976 I-0.116 J0.114
X-41.736 Y-132.407 Z-1.983 I-0.113 J-0.116
G1 X-42.784 Y-133.48 Z-2.022
G3 X-42.781 Y-133.71 Z-2.029 I0.116 J-0.114
X-42.551 Y-133.707 Z-2.035 I0.114 J0.116
G1 X-41.503 Y-132.634 Z-2.075
G3 X-41.506 Y-132.404 Z-2.081 I-0.116 J0.114
X-41.736 Y-132.407 Z-2.088 I-0.113 J-0.116
G1 X-42.784 Y-133.48 Z-2.127
G3 X-42.781 Y-133.71 Z-2.134 I0.116 J-0.114
X-42.551 Y-133.707 Z-2.141 I0.114 J0.116
G1 X-41.503 Y-132.634 Z-2.18
G3 X-41.506 Y-132.404 Z-2.187 I-0.116 J0.114
X-41.736 Y-132.407 Z-2.193 I-0.113 J-0.116
G1 X-42.784 Y-133.48 Z-2.232
G3 X-42.781 Y-133.71 Z-2.239 I0.116 J-0.114
X-42.551 Y-133.707 Z-2.246 I0.114 J0.116
G1 X-41.503 Y-132.634 Z-2.285
G3 X-41.506 Y-132.404 Z-2.292 I-0.116 J0.114
X-41.736 Y-132.407 Z-2.299 I-0.113 J-0.116
G1 X-42.784 Y-133.48 Z-2.338
G3 X-42.781 Y-133.71 Z-2.345 I0.116 J-0.114
X-42.551 Y-133.707 Z-2.351 I0.114 J0.116
G1 X-41.503 Y-132.634 Z-2.39
G3 X-41.602 Y-132.359 Z-2.4 I-0.116 J0.114
S2000
G1 X-41.651 Y-132.361 F1000
X-41.697 Y-132.377
X-41.736 Y-132.407
X-42.485 Y-133.174
X-42.784 Y-133.48
G3 X-42.781 Y-133.71 I0.116 J-0.114
X-42.551 Y-133.707 I0.114 J0.116
G1 X-41.503 Y-132.634
G3 X-41.602 Y-132.359 I-0.116 J0.114
S5000
G1 X-41.651 Y-132.361 Z-2.401 F333.3
X-41.697 Y-132.377 Z-2.403
X-41.736 Y-132.407 Z-2.404
X-42.784 Y-133.48 Z-2.443
G3 X-42.781 Y-133.71 Z-2.45 I0.116 J-0.114
X-42.551 Y-133.707 Z-2.457 I0.114 J0.116
G1 X-41.503 Y-132.634 Z-2.496
G3 X-41.506 Y-132.404 Z-2.502 I-0.116 J0.114
X-41.736 Y-132.407 Z-2.509 I-0.113 J-0.116
G1 X-42.784 Y-133.48 Z-2.548
G3 X-42.781 Y-133.71 Z-2.555 I0.116 J-0.114
X-42.551 Y-133.707 Z-2.562 I0.114 J0.116
G1 X-41.503 Y-132.634 Z-2.601
G3 X-41.506 Y-132.404 Z-2.608 I-0.116 J0.114
X-41.736 Y-132.407 Z-2.614 I-0.113 J-0.116
G1 X-42.784 Y-133.48 Z-2.654
G3 X-42.781 Y-133.71 Z-2.66 I0.116 J-0.114
X-42.551 Y-133.707 Z-2.667 I0.114 J0.116
G1 X-41.503 Y-132.634 Z-2.706
G3 X-41.506 Y-132.404 Z-2.713 I-0.116 J0.114
X-41.736 Y-132.407 Z-2.72 I-0.113 J-0.116
G1 X-42.784 Y-133.48 Z-2.759
G3 X-42.781 Y-133.71 Z-2.766 I0.116 J-0.114
X-42.551 Y-133.707 Z-2.772 I0.114 J0.116
G1 X-41.503 Y-132.634 Z-2.812
G3 X-41.506 Y-132.404 Z-2.818 I-0.116 J0.114
X-41.736 Y-132.407 Z-2.825 I-0.113 J-0.116
G1 X-42.784 Y-133.48 Z-2.864
G3 X-42.781 Y-133.71 Z-2.871 I0.116 J-0.114
X-42.551 Y-133.707 Z-2.878 I0.114 J0.116
G1 X-41.503 Y-132.634 Z-2.917
G3 X-41.506 Y-132.404 Z-2.924 I-0.116 J0.114
X-41.736 Y-132.407 Z-2.93 I-0.113 J-0.116
G1 X-42.784 Y-133.48 Z-2.97
G3 X-42.781 Y-133.71 Z-2.976 I0.116 J-0.114
X-42.551 Y-133.707 Z-2.983 I0.114 J0.116
G1 X-42.101 Y-133.246 Z-3
S2000
X-41.503 Y-132.634 F1000
G3 X-41.506 Y-132.404 I-0.116 J0.114
X-41.736 Y-132.407 I-0.113 J-0.116
G1 X-42.784 Y-133.48
G3 X-42.781 Y-133.71 I0.116 J-0.114
X-42.551 Y-133.707 I0.114 J0.116
G1 X-42.101 Y-133.246
S5000
X-41.503 Y-132.634 Z-3.022 F333.3
G3 X-41.506 Y-132.404 Z-3.029 I-0.116 J0.114
X-41.736 Y-132.407 Z-3.036 I-0.113 J-0.116
G1 X-42.784 Y-133.48 Z-3.075
G3 X-42.781 Y-133.71 Z-3.082 I0.116 J-0.114
X-42.551 Y-133.707 Z-3.088 I0.114 J0.116
G1 X-41.503 Y-132.634 Z-3.128
G3 X-41.506 Y-132.404 Z-3.134 I-0.116 J0.114
X-41.736 Y-132.407 Z-3.141 I-0.113 J-0.116
G1 X-42.784 Y-133.48 Z-3.18
G3 X-42.781 Y-133.71 Z-3.187 I0.116 J-0.114
X-42.551 Y-133.707 Z-3.194 I0.114 J0.116
G1 X-41.503 Y-132.634 Z-3.233
G3 X-41.506 Y-132.404 Z-3.24 I-0.116 J0.114
X-41.736 Y-132.407 Z-3.246 I-0.113 J-0.116
G1 X-42.784 Y-133.48 Z-3.286
G3 X-42.781 Y-133.71 Z-3.292 I0.116 J-0.114
X-42.551 Y-133.707 Z-3.299 I0.114 J0.116
G1 X-41.503 Y-132.634 Z-3.338
G3 X-41.506 Y-132.404 Z-3.345 I-0.116 J0.114
X-41.736 Y-132.407 Z-3.352 I-0.113 J-0.116
G1 X-42.784 Y-133.48 Z-3.391
G3 X-42.781 Y-133.71 Z-3.398 I0.116 J-0.114
X-42.551 Y-133.707 Z-3.404 I0.114 J0.116
G1 X-41.503 Y-132.634 Z-3.444
G3 X-41.506 Y-132.404 Z-3.45 I-0.116 J0.114
X-41.736 Y-132.407 Z-3.457 I-0.113 J-0.116
G1 X-42.784 Y-133.48 Z-3.496
G3 X-42.781 Y-133.71 Z-3.503 I0.116 J-0.114
X-42.551 Y-133.707 Z-3.51 I0.114 J0.116
G1 X-41.503 Y-132.634 Z-3.549
G3 X-41.506 Y-132.404 Z-3.556 I-0.116 J0.114
X-41.736 Y-132.407 Z-3.562 I-0.113 J-0.116
G1 X-42.739 Y-133.434 Z-3.6
S2000
X-42.784 Y-133.48 F1000
G3 X-42.781 Y-133.71 I0.116 J-0.114
X-42.551 Y-133.707 I0.114 J0.116
G1 X-41.503 Y-132.634
G3 X-41.506 Y-132.404 I-0.116 J0.114
X-41.736 Y-132.407 I-0.113 J-0.116
G1 X-42.739 Y-133.434
S5000
X-42.784 Y-133.48 Z-3.602 F333.3
G3 X-42.781 Y-133.71 Z-3.608 I0.116 J-0.114
X-42.551 Y-133.707 Z-3.615 I0.114 J0.116
G1 X-41.503 Y-132.634 Z-3.654
G3 X-41.506 Y-132.404 Z-3.661 I-0.116 J0.114
X-41.736 Y-132.407 Z-3.668 I-0.113 J-0.116
G1 X-42.784 Y-133.48 Z-3.707
G3 X-42.781 Y-133.71 Z-3.714 I0.116 J-0.114
X-42.551 Y-133.707 Z-3.72 I0.114 J0.116
G1 X-41.503 Y-132.634 Z-3.76
G3 X-41.506 Y-132.404 Z-3.766 I-0.116 J0.114
X-41.736 Y-132.407 Z-3.773 I-0.113 J-0.116
G1 X-42.784 Y-133.48 Z-3.812
G3 X-42.781 Y-133.71 Z-3.819 I0.116 J-0.114
X-42.551 Y-133.707 Z-3.826 I0.114 J0.116
G1 X-41.503 Y-132.634 Z-3.865
G3 X-41.506 Y-132.404 Z-3.872 I-0.116 J0.114
X-41.736 Y-132.407 Z-3.878 I-0.113 J-0.116
G1 X-42.784 Y-133.48 Z-3.918
G3 X-42.781 Y-133.71 Z-3.924 I0.116 J-0.114
X-42.551 Y-133.707 Z-3.931 I0.114 J0.116
G1 X-42.045 Y-133.189 Z-3.95
S2000
X-41.503 Y-132.634 F1000
G3 X-41.506 Y-132.404 I-0.116 J0.114
X-41.736 Y-132.407 I-0.113 J-0.116
G1 X-42.739 Y-133.434
X-42.784 Y-133.48
G3 X-42.781 Y-133.71 I0.116 J-0.114
X-42.551 Y-133.707 I0.114 J0.116
G1 X-42.045 Y-133.189
S5000
X-41.503 Y-132.634 Z-3.97 F333.3
G3 X-41.506 Y-132.404 Z-3.977 I-0.116 J0.114
X-41.736 Y-132.407 Z-3.984 I-0.113 J-0.116
G1 X-42.784 Y-133.48 Z-4.023
G3 X-42.781 Y-133.71 Z-4.03 I0.116 J-0.114
X-42.551 Y-133.707 Z-4.036 I0.114 J0.116
G1 X-41.503 Y-132.634 Z-4.076
G3 X-41.506 Y-132.404 Z-4.082 I-0.116 J0.114
X-41.736 Y-132.407 Z-4.089 I-0.113 J-0.116
G1 X-42.784 Y-133.48 Z-4.128
G3 X-42.781 Y-133.71 Z-4.135 I0.116 J-0.114
X-42.551 Y-133.707 Z-4.142 I0.114 J0.116
G1 X-41.503 Y-132.634 Z-4.181
G3 X-41.506 Y-132.404 Z-4.188 I-0.116 J0.114
X-41.736 Y-132.407 Z-4.194 I-0.113 J-0.116
G1 X-42.784 Y-133.48 Z-4.234
G3 X-42.781 Y-133.71 Z-4.24 I0.116 J-0.114
X-42.551 Y-133.707 Z-4.247 I0.114 J0.116
G1 X-41.503 Y-132.634 Z-4.286
G3 X-41.506 Y-132.404 Z-4.293 I-0.116 J0.114
X-41.736 Y-132.407 Z-4.3 I-0.113 J-0.116
G1 X-41.745 Y-132.417
S2000
X-42.784 Y-133.48 F1000
G3 X-42.781 Y-133.71 I0.116 J-0.114
X-42.551 Y-133.707 I0.114 J0.116
G1 X-41.503 Y-132.634
G3 X-41.506 Y-132.404 I-0.116 J0.114
X-41.736 Y-132.407 I-0.113 J-0.116
G1 X-41.745 Y-132.417
Z5
X-57.287 Y-132.827
Z2.5 F333.3
S5000
X-56.214 Y-133.874 Z2.461
G3 X-55.984 Y-133.871 Z2.454 I0.114 J0.116
X-55.987 Y-133.641 Z2.447 I-0.116 J0.114
G1 X-57.061 Y-132.593 Z2.408
G3 X-57.288 Y-132.826 Z2.395 I-0.113 J-0.116
G1 X-56.214 Y-133.874 Z2.355
G3 X-55.984 Y-133.871 Z2.349 I0.114 J0.116
X-55.987 Y-133.641 Z2.342 I-0.116 J0.114
G1 X-57.061 Y-132.593 Z2.303
G3 X-57.288 Y-132.826 Z2.289 I-0.113 J-0.116
G1 X-56.214 Y-133.874 Z2.25
G3 X-55.984 Y-133.871 Z2.243 I0.114 J0.116
X-55.987 Y-133.641 Z2.237 I-0.116 J0.114
G1 X-57.061 Y-132.593 Z2.197
G3 X-57.288 Y-132.826 Z2.184 I-0.113 J-0.116
G1 X-56.214 Y-133.874 Z2.145
G3 X-55.984 Y-133.871 Z2.138 I0.114 J0.116
X-55.987 Y-133.641 Z2.131 I-0.116 J0.114
G1 X-57.061 Y-132.593 Z2.092
G3 X-57.288 Y-132.826 Z2.079 I-0.113 J-0.116
G1 X-56.214 Y-133.874 Z2.04
G3 X-55.984 Y-133.871 Z2.033 I0.114 J0.116
X-55.987 Y-133.641 Z2.026 I-0.116 J0.114
G1 X-57.061 Y-132.593 Z1.987
G3 X-57.288 Y-132.826 Z1.973 I-0.113 J-0.116
G1 X-56.214 Y-133.874 Z1.934
G3 X-55.984 Y-133.871 Z1.928 I0.114 J0.116
X-55.987 Y-133.641 Z1.921 I-0.116 J0.114
G1 X-57.061 Y-132.593 Z1.882
G3 X-57.288 Y-132.826 Z1.868 I-0.113 J-0.116
G1 X-56.214 Y-133.874 Z1.829
G3 X-55.984 Y-133.871 Z1.822 I0.114 J0.116
X-55.987 Y-133.641 Z1.816 I-0.116 J0.114
G1 X-57.061 Y-132.593 Z1.776
G3 X-57.288 Y-132.826 Z1.763 I-0.113 J-0.116
G1 X-56.214 Y-133.874 Z1.724
G3 X-55.984 Y-133.871 Z1.717 I0.114 J0.116
X-55.987 Y-133.641 Z1.71 I-0.116 J0.114
G1 X-57.061 Y-132.593 Z1.671
G3 X-57.288 Y-132.826 Z1.658 I-0.113 J-0.116
G1 X-56.214 Y-133.874 Z1.618
G3 X-55.984 Y-133.871 Z1.612 I0.114 J0.116
X-55.987 Y-133.641 Z1.605 I-0.116 J0.114
G1 X-57.061 Y-132.593 Z1.566
G3 X-57.288 Y-132.826 Z1.552 I-0.113 J-0.116
G1 X-56.214 Y-133.874 Z1.513
G3 X-55.984 Y-133.871 Z1.506 I0.114 J0.116
X-55.987 Y-133.641 Z1.5 I-0.116 J0.114
G1 X-57.061 Y-132.593 Z1.46
G3 X-57.288 Y-132.826 Z1.447 I-0.113 J-0.116
G1 X-56.214 Y-133.874 Z1.408
G3 X-55.984 Y-133.871 Z1.401 I0.114 J0.116
X-55.987 Y-133.641 Z1.394 I-0.116 J0.114
G1 X-57.061 Y-132.593 Z1.355
G3 X-57.288 Y-132.826 Z1.342 I-0.113 J-0.116
G1 X-56.214 Y-133.874 Z1.302
G3 X-55.984 Y-133.871 Z1.296 I0.114 J0.116
X-55.987 Y-133.641 Z1.289 I-0.116 J0.114
G1 X-57.061 Y-132.593 Z1.25
G3 X-57.288 Y-132.826 Z1.236 I-0.113 J-0.116
G1 X-56.214 Y-133.874 Z1.197
G3 X-55.984 Y-133.871 Z1.19 I0.114 J0.116
X-55.987 Y-133.641 Z1.184 I-0.116 J0.114
G1 X-57.061 Y-132.593 Z1.144
G3 X-57.288 Y-132.826 Z1.131 I-0.113 J-0.116
G1 X-56.214 Y-133.874 Z1.092
G3 X-55.984 Y-133.871 Z1.085 I0.114 J0.116
X-55.987 Y-133.641 Z1.078 I-0.116 J0.114
G1 X-57.061 Y-132.593 Z1.039
G3 X-57.288 Y-132.826 Z1.026 I-0.113 J-0.116
G1 X-56.214 Y-133.874 Z0.986
G3 X-55.984 Y-133.871 Z0.98 I0.114 J0.116
X-55.987 Y-133.641 Z0.973 I-0.116 J0.114
G1 X-57.061 Y-132.593 Z0.934
G3 X-57.288 Y-132.826 Z0.92 I-0.113 J-0.116
G1 X-56.214 Y-133.874 Z0.881
G3 X-55.984 Y-133.871 Z0.874 I0.114 J0.116
X-55.987 Y-133.641 Z0.868 I-0.116 J0.114
G1 X-57.061 Y-132.593 Z0.828
G3 X-57.288 Y-132.826 Z0.815 I-0.113 J-0.116
G1 X-56.214 Y-133.874 Z0.776
G3 X-55.984 Y-133.871 Z0.769 I0.114 J0.116
X-55.987 Y-133.641 Z0.762 I-0.116 J0.114
G1 X-57.061 Y-132.593 Z0.723
G3 X-57.288 Y-132.826 Z0.71 I-0.113 J-0.116
G1 X-56.214 Y-133.874 Z0.67
G3 X-55.984 Y-133.871 Z0.664 I0.114 J0.116
X-55.987 Y-133.641 Z0.657 I-0.116 J0.114
G1 X-57.061 Y-132.593 Z0.618
G3 X-57.288 Y-132.826 Z0.604 I-0.113 J-0.116
G1 X-56.214 Y-133.874 Z0.565
G3 X-55.984 Y-133.871 Z0.558 I0.114 J0.116
X-55.987 Y-133.641 Z0.552 I-0.116 J0.114
G1 X-57.061 Y-132.593 Z0.512
G3 X-57.288 Y-132.826 Z0.499 I-0.113 J-0.116
G1 X-56.214 Y-133.874 Z0.46
G3 X-55.984 Y-133.871 Z0.453 I0.114 J0.116
X-55.987 Y-133.641 Z0.446 I-0.116 J0.114
G1 X-57.061 Y-132.593 Z0.407
G3 X-57.288 Y-132.826 Z0.394 I-0.113 J-0.116
G1 X-56.214 Y-133.874 Z0.355
G3 X-55.984 Y-133.871 Z0.348 I0.114 J0.116
X-55.987 Y-133.641 Z0.341 I-0.116 J0.114
G1 X-57.061 Y-132.593 Z0.302
G3 X-57.288 Y-132.826 Z0.288 I-0.113 J-0.116
G1 X-56.214 Y-133.874 Z0.249
G3 X-55.984 Y-133.871 Z0.243 I0.114 J0.116
X-55.987 Y-133.641 Z0.236 I-0.116 J0.114
G1 X-57.061 Y-132.593 Z0.197
G3 X-57.288 Y-132.826 Z0.183 I-0.113 J-0.116
G1 X-56.214 Y-133.874 Z0.144
G3 X-55.984 Y-133.871 Z0.137 I0.114 J0.116
X-55.987 Y-133.641 Z0.131 I-0.116 J0.114
G1 X-57.061 Y-132.593 Z0.091
G3 X-57.288 Y-132.826 Z0.078 I-0.113 J-0.116
G1 X-56.214 Y-133.874 Z0.039
G3 X-55.984 Y-133.871 Z0.032 I0.114 J0.116
X-55.987 Y-133.641 Z0.025 I-0.116 J0.114
G1 X-57.061 Y-132.593 Z-0.014
G3 X-57.288 Y-132.826 Z-0.027 I-0.113 J-0.116
G1 X-56.214 Y-133.874 Z-0.067
G3 X-55.984 Y-133.871 Z-0.073 I0.114 J0.116
X-55.987 Y-133.641 Z-0.08 I-0.116 J0.114
G1 X-57.061 Y-132.593 Z-0.119
G3 X-57.288 Y-132.826 Z-0.133 I-0.113 J-0.116
G1 X-56.214 Y-133.874 Z-0.172
G3 X-55.984 Y-133.871 Z-0.179 I0.114 J0.116
X-55.987 Y-133.641 Z-0.185 I-0.116 J0.114
G1 X-57.061 Y-132.593 Z-0.225
G3 X-57.288 Y-132.826 Z-0.238 I-0.113 J-0.116
G1 X-56.214 Y-133.874 Z-0.277
G3 X-55.984 Y-133.871 Z-0.284 I0.114 J0.116
X-55.987 Y-133.641 Z-0.291 I-0.116 J0.114
G1 X-57.061 Y-132.593 Z-0.33
G3 X-57.288 Y-132.826 Z-0.343 I-0.113 J-0.116
G1 X-56.214 Y-133.874 Z-0.383
G3 X-55.984 Y-133.871 Z-0.389 I0.114 J0.116
X-55.987 Y-133.641 Z-0.396 I-0.116 J0.114
G1 X-57.061 Y-132.593 Z-0.435
G3 X-57.288 Y-132.826 Z-0.449 I-0.113 J-0.116
G1 X-56.214 Y-133.874 Z-0.488
G3 X-55.984 Y-133.871 Z-0.495 I0.114 J0.116
X-55.987 Y-133.641 Z-0.501 I-0.116 J0.114
G1 X-57.061 Y-132.593 Z-0.541
G3 X-57.288 Y-132.826 Z-0.554 I-0.113 J-0.116
G1 X-56.214 Y-133.874 Z-0.593
X-56.18 Y-133.9 Z-0.594
X-56.141 Y-133.915 Z-0.596
X-56.099 Y-133.92 Z-0.597
X-56.057 Y-133.914 Z-0.598
X-56.018 Y-133.898 Z-0.599
X-55.984 Y-133.871 Z-0.6
S2000
X-55.959 Y-133.837 F1000
X-55.943 Y-133.798
X-55.938 Y-133.756
X-55.944 Y-133.714
X-55.961 Y-133.675
X-55.987 Y-133.641
X-57.061 Y-132.593
G3 X-57.288 Y-132.826 I-0.113 J-0.116
G1 X-56.214 Y-133.874
X-56.18 Y-133.9
X-56.141 Y-133.915
X-56.099 Y-133.92
X-56.057 Y-133.914
X-56.018 Y-133.898
X-55.984 Y-133.871
S5000
X-55.959 Y-133.837 Z-0.601 F333.3
X-55.943 Y-133.798 Z-0.602
X-55.938 Y-133.756 Z-0.603
X-55.944 Y-133.714 Z-0.604
X-55.961 Y-133.675 Z-0.606
X-55.987 Y-133.641 Z-0.607
X-57.061 Y-132.593 Z-0.646
G3 X-57.288 Y-132.826 Z-0.659 I-0.113 J-0.116
G1 X-56.214 Y-133.874 Z-0.699
G3 X-55.984 Y-133.871 Z-0.705 I0.114 J0.116
X-55.987 Y-133.641 Z-0.712 I-0.116 J0.114
G1 X-57.061 Y-132.593 Z-0.751
G3 X-57.288 Y-132.826 Z-0.765 I-0.113 J-0.116
G1 X-56.214 Y-133.874 Z-0.804
G3 X-55.984 Y-133.871 Z-0.811 I0.114 J0.116
X-55.987 Y-133.641 Z-0.817 I-0.116 J0.114
G1 X-57.061 Y-132.593 Z-0.857
G3 X-57.288 Y-132.826 Z-0.87 I-0.113 J-0.116
G1 X-56.214 Y-133.874 Z-0.909
G3 X-55.984 Y-133.871 Z-0.916 I0.114 J0.116
X-55.987 Y-133.641 Z-0.923 I-0.116 J0.114
G1 X-57.061 Y-132.593 Z-0.962
G3 X-57.288 Y-132.826 Z-0.975 I-0.113 J-0.116
G1 X-56.214 Y-133.874 Z-1.015
G3 X-55.984 Y-133.871 Z-1.021 I0.114 J0.116
X-55.987 Y-133.641 Z-1.028 I-0.116 J0.114
G1 X-57.061 Y-132.593 Z-1.067
G3 X-57.288 Y-132.826 Z-1.081 I-0.113 J-0.116
G1 X-56.214 Y-133.874 Z-1.12
G3 X-55.984 Y-133.871 Z-1.127 I0.114 J0.116
X-55.987 Y-133.641 Z-1.133 I-0.116 J0.114
G1 X-57.061 Y-132.593 Z-1.173
G3 X-57.288 Y-132.826 Z-1.186 I-0.113 J-0.116
G1 X-56.903 Y-133.202 Z-1.2
S2000
X-56.214 Y-133.874 F1000
G3 X-55.984 Y-133.871 I0.114 J0.116
X-55.987 Y-133.641 I-0.116 J0.114
G1 X-57.061 Y-132.593
G3 X-57.288 Y-132.826 I-0.113 J-0.116
G1 X-56.903 Y-133.202
S5000
X-56.214 Y-133.874 Z-1.225 F333.3
G3 X-55.984 Y-133.871 Z-1.232 I0.114 J0.116
X-55.987 Y-133.641 Z-1.239 I-0.116 J0.114
G1 X-57.061 Y-132.593 Z-1.278
G3 X-57.288 Y-132.826 Z-1.291 I-0.113 J-0.116
G1 X-56.214 Y-133.874 Z-1.33
G3 X-55.984 Y-133.871 Z-1.337 I0.114 J0.116
X-55.987 Y-133.641 Z-1.344 I-0.116 J0.114
G1 X-57.061 Y-132.593 Z-1.383
G3 X-57.288 Y-132.826 Z-1.397 I-0.113 J-0.116
G1 X-56.214 Y-133.874 Z-1.436
G3 X-55.984 Y-133.871 Z-1.443 I0.114 J0.116
X-55.987 Y-133.641 Z-1.449 I-0.116 J0.114
G1 X-57.061 Y-132.593 Z-1.488
G3 X-57.288 Y-132.826 Z-1.502 I-0.113 J-0.116
G1 X-56.214 Y-133.874 Z-1.541
G3 X-55.984 Y-133.871 Z-1.548 I0.114 J0.116
X-55.987 Y-133.641 Z-1.555 I-0.116 J0.114
G1 X-57.061 Y-132.593 Z-1.594
G3 X-57.288 Y-132.826 Z-1.607 I-0.113 J-0.116
G1 X-56.214 Y-133.874 Z-1.646
G3 X-55.984 Y-133.871 Z-1.653 I0.114 J0.116
X-55.987 Y-133.641 Z-1.66 I-0.116 J0.114
G1 X-57.061 Y-132.593 Z-1.699
G3 X-57.288 Y-132.826 Z-1.712 I-0.113 J-0.116
G1 X-56.214 Y-133.874 Z-1.752
G3 X-55.984 Y-133.871 Z-1.758 I0.114 J0.116
X-55.987 Y-133.641 Z-1.765 I-0.116 J0.114
G1 X-56.94 Y-132.711 Z-1.8
S2000
X-57.061 Y-132.593 F1000
G3 X-57.288 Y-132.826 I-0.113 J-0.116
G1 X-56.214 Y-133.874
G3 X-55.984 Y-133.871 I0.114 J0.116
X-55.987 Y-133.641 I-0.116 J0.114
G1 X-56.94 Y-132.711
S5000
X-57.061 Y-132.593 Z-1.804 F333.3
G3 X-57.288 Y-132.826 Z-1.818 I-0.113 J-0.116
G1 X-56.214 Y-133.874 Z-1.857
G3 X-55.984 Y-133.871 Z-1.864 I0.114 J0.116
X-55.987 Y-133.641 Z-1.87 I-0.116 J0.114
G1 X-57.061 Y-132.593 Z-1.91
G3 X-57.288 Y-132.826 Z-1.923 I-0.113 J-0.116
G1 X-56.214 Y-133.874 Z-1.962
G3 X-55.984 Y-133.871 Z-1.969 I0.114 J0.116
X-55.987 Y-133.641 Z-1.976 I-0.116 J0.114
G1 X-57.061 Y-132.593 Z-2.015
G3 X-57.288 Y-132.826 Z-2.028 I-0.113 J-0.116
G1 X-56.214 Y-133.874 Z-2.068
