(anlenkung)
(T14  D=1.5 CR=0 - ZMIN=-2.5 - Schaftfraser)
G90 G94
G17
G21
(When using Fusion 360 for Personal Use, the feedrate of)
(rapid moves is reduced to match the feedrate of cutting)
(moves, which can increase machining time. Unrestricted rapid)
(moves are available with a Fusion 360 Subscription.)

(Bohrfrasen1)
T14
S4000 M3
G54
G0 X-69 Y-31.3
Z15
G1 Z2 F600
Z0 F400
X-68.875 Y-31.425
X-68.836 Y-31.419
X-68.802 Y-31.401
X-68.774 Y-31.373
X-68.756 Y-31.339
X-68.75 Y-31.3
G3 X-69.25 Y-31.3 Z-0.017 I-0.25 J0 F600
X-68.75 Y-31.3 Z-0.035 I0.25 J0
X-69.25 Y-31.3 Z-0.052 I-0.25 J0
X-68.75 Y-31.3 Z-0.07 I0.25 J0
X-69.25 Y-31.3 Z-0.087 I-0.25 J0
X-68.75 Y-31.3 Z-0.105 I0.25 J0
X-69.25 Y-31.3 Z-0.122 I-0.25 J0
X-68.75 Y-31.3 Z-0.14 I0.25 J0
X-69.25 Y-31.3 Z-0.157 I-0.25 J0
X-68.75 Y-31.3 Z-0.175 I0.25 J0
X-69.25 Y-31.3 Z-0.192 I-0.25 J0
X-68.75 Y-31.3 Z-0.209 I0.25 J0
X-69.25 Y-31.3 Z-0.227 I-0.25 J0
X-68.75 Y-31.3 Z-0.244 I0.25 J0
X-69.25 Y-31.3 Z-0.262 I-0.25 J0
X-68.75 Y-31.3 Z-0.279 I0.25 J0
X-69.25 Y-31.3 Z-0.297 I-0.25 J0
X-68.75 Y-31.3 Z-0.314 I0.25 J0
X-69.25 Y-31.3 Z-0.332 I-0.25 J0
X-68.75 Y-31.3 Z-0.349 I0.25 J0
X-69.25 Y-31.3 Z-0.367 I-0.25 J0
X-68.75 Y-31.3 Z-0.384 I0.25 J0
X-69.25 Y-31.3 Z-0.401 I-0.25 J0
X-68.75 Y-31.3 Z-0.419 I0.25 J0
X-69.25 Y-31.3 Z-0.436 I-0.25 J0
X-68.75 Y-31.3 Z-0.454 I0.25 J0
X-69.25 Y-31.3 Z-0.471 I-0.25 J0
X-68.75 Y-31.3 Z-0.489 I0.25 J0
X-69.25 Y-31.3 Z-0.506 I-0.25 J0
X-68.75 Y-31.3 Z-0.524 I0.25 J0
X-69.25 Y-31.3 Z-0.541 I-0.25 J0
X-68.75 Y-31.3 Z-0.559 I0.25 J0
X-69.25 Y-31.3 Z-0.576 I-0.25 J0
X-68.75 Y-31.3 Z-0.593 I0.25 J0
X-69.25 Y-31.3 Z-0.611 I-0.25 J0
X-68.75 Y-31.3 Z-0.628 I0.25 J0
X-69.25 Y-31.3 Z-0.646 I-0.25 J0
X-68.75 Y-31.3 Z-0.663 I0.25 J0
X-69.25 Y-31.3 Z-0.681 I-0.25 J0
X-68.75 Y-31.3 Z-0.698 I0.25 J0
X-69.25 Y-31.3 Z-0.716 I-0.25 J0
X-68.75 Y-31.3 Z-0.733 I0.25 J0
X-69.25 Y-31.3 Z-0.751 I-0.25 J0
X-68.75 Y-31.3 Z-0.768 I0.25 J0
X-69.25 Y-31.3 Z-0.785 I-0.25 J0
X-68.75 Y-31.3 Z-0.803 I0.25 J0
X-69.25 Y-31.3 Z-0.82 I-0.25 J0
X-68.75 Y-31.3 Z-0.838 I0.25 J0
X-69.25 Y-31.3 Z-0.855 I-0.25 J0
X-68.75 Y-31.3 Z-0.873 I0.25 J0
X-69.25 Y-31.3 Z-0.89 I-0.25 J0
X-68.75 Y-31.3 Z-0.908 I0.25 J0
X-69.25 Y-31.3 Z-0.925 I-0.25 J0
X-68.75 Y-31.3 Z-0.943 I0.25 J0
X-69.25 Y-31.3 Z-0.96 I-0.25 J0
X-68.75 Y-31.3 Z-0.977 I0.25 J0
X-69.25 Y-31.3 Z-0.995 I-0.25 J0
X-68.75 Y-31.3 Z-1.012 I0.25 J0
X-69.25 Y-31.3 Z-1.03 I-0.25 J0
X-68.75 Y-31.3 Z-1.047 I0.25 J0
X-69.25 Y-31.3 Z-1.065 I-0.25 J0
X-68.75 Y-31.3 Z-1.082 I0.25 J0
X-69.25 Y-31.3 Z-1.1 I-0.25 J0
X-68.75 Y-31.3 Z-1.117 I0.25 J0
X-69.25 Y-31.3 Z-1.135 I-0.25 J0
X-68.75 Y-31.3 Z-1.152 I0.25 J0
X-69.25 Y-31.3 Z-1.169 I-0.25 J0
X-68.75 Y-31.3 Z-1.187 I0.25 J0
X-69.25 Y-31.3 Z-1.204 I-0.25 J0
X-68.75 Y-31.3 Z-1.222 I0.25 J0
X-69.25 Y-31.3 Z-1.239 I-0.25 J0
X-68.75 Y-31.3 Z-1.257 I0.25 J0
X-69.25 Y-31.3 Z-1.274 I-0.25 J0
X-68.75 Y-31.3 Z-1.292 I0.25 J0
X-69.25 Y-31.3 Z-1.309 I-0.25 J0
X-68.75 Y-31.3 Z-1.327 I0.25 J0
X-69.25 Y-31.3 Z-1.344 I-0.25 J0
X-68.75 Y-31.3 Z-1.361 I0.25 J0
X-69.25 Y-31.3 Z-1.379 I-0.25 J0
X-68.75 Y-31.3 Z-1.396 I0.25 J0
X-69.25 Y-31.3 Z-1.414 I-0.25 J0
X-68.75 Y-31.3 Z-1.431 I0.25 J0
X-69.25 Y-31.3 Z-1.449 I-0.25 J0
X-68.75 Y-31.3 Z-1.466 I0.25 J0
X-69.25 Y-31.3 Z-1.484 I-0.25 J0
X-68.75 Y-31.3 Z-1.501 I0.25 J0
X-69.25 Y-31.3 Z-1.519 I-0.25 J0
X-68.75 Y-31.3 Z-1.536 I0.25 J0
X-69.25 Y-31.3 Z-1.554 I-0.25 J0
X-68.75 Y-31.3 Z-1.571 I0.25 J0
X-69.25 Y-31.3 Z-1.588 I-0.25 J0
X-68.75 Y-31.3 Z-1.606 I0.25 J0
X-69.25 Y-31.3 Z-1.623 I-0.25 J0
X-68.75 Y-31.3 Z-1.641 I0.25 J0
X-69.25 Y-31.3 Z-1.658 I-0.25 J0
X-68.75 Y-31.3 Z-1.676 I0.25 J0
X-69.25 Y-31.3 Z-1.693 I-0.25 J0
X-68.75 Y-31.3 Z-1.711 I0.25 J0
X-69.25 Y-31.3 Z-1.728 I-0.25 J0
X-68.75 Y-31.3 Z-1.746 I0.25 J0
X-69.25 Y-31.3 Z-1.763 I-0.25 J0
X-68.75 Y-31.3 Z-1.78 I0.25 J0
X-69.25 Y-31.3 Z-1.798 I-0.25 J0
X-68.75 Y-31.3 Z-1.815 I0.25 J0
X-69.25 Y-31.3 Z-1.833 I-0.25 J0
X-68.75 Y-31.3 Z-1.85 I0.25 J0
X-69.25 Y-31.3 Z-1.868 I-0.25 J0
X-68.75 Y-31.3 Z-1.885 I0.25 J0
X-69.25 Y-31.3 Z-1.903 I-0.25 J0
X-68.75 Y-31.3 Z-1.92 I0.25 J0
X-69.25 Y-31.3 Z-1.938 I-0.25 J0
X-68.75 Y-31.3 Z-1.955 I0.25 J0
X-69.25 Y-31.3 Z-1.972 I-0.25 J0
X-68.75 Y-31.3 Z-1.99 I0.25 J0
X-69.25 Y-31.3 Z-2.007 I-0.25 J0
X-68.75 Y-31.3 Z-2.025 I0.25 J0
X-69.25 Y-31.3 Z-2.042 I-0.25 J0
X-68.75 Y-31.3 Z-2.06 I0.25 J0
X-69.25 Y-31.3 Z-2.077 I-0.25 J0
X-68.75 Y-31.3 Z-2.095 I0.25 J0
X-69.25 Y-31.3 Z-2.112 I-0.25 J0
X-68.75 Y-31.3 Z-2.13 I0.25 J0
X-69.25 Y-31.3 Z-2.147 I-0.25 J0
X-68.75 Y-31.3 Z-2.164 I0.25 J0
X-69.25 Y-31.3 Z-2.182 I-0.25 J0
X-68.75 Y-31.3 Z-2.199 I0.25 J0
X-69.25 Y-31.3 Z-2.217 I-0.25 J0
X-68.75 Y-31.3 Z-2.234 I0.25 J0
X-69.25 Y-31.3 Z-2.252 I-0.25 J0
X-68.75 Y-31.3 Z-2.269 I0.25 J0
X-69.25 Y-31.3 Z-2.287 I-0.25 J0
X-68.75 Y-31.3 Z-2.304 I0.25 J0
X-69.25 Y-31.3 Z-2.322 I-0.25 J0
X-68.75 Y-31.3 Z-2.339 I0.25 J0
X-69.25 Y-31.3 Z-2.356 I-0.25 J0
X-68.75 Y-31.3 Z-2.374 I0.25 J0
X-69.25 Y-31.3 Z-2.391 I-0.25 J0
X-68.75 Y-31.3 Z-2.409 I0.25 J0
X-69.25 Y-31.3 Z-2.426 I-0.25 J0
X-68.75 Y-31.3 Z-2.444 I0.25 J0
X-69.25 Y-31.3 Z-2.461 I-0.25 J0
X-68.75 Y-31.3 Z-2.479 I0.25 J0
X-69.25 Y-31.3 Z-2.496 I-0.25 J0
X-69.19 Y-31.462 Z-2.5 I0.25 J0
X-68.81 Y-31.138 I0.19 J0.162
X-69.19 Y-31.462 I-0.19 J-0.162
G1 X-69.16 Y-31.488
X-69.124 Y-31.503
X-69.085 Y-31.506
X-69.047 Y-31.497
X-69.014 Y-31.476
X-69 Y-31.3
Z15
(When using Fusion 360 for Personal Use, the feedrate of)
(rapid moves is reduced to match the feedrate of cutting)
(moves, which can increase machining time. Unrestricted rapid)
(moves are available with a Fusion 360 Subscription.)

(2D-Kontur1)
S3000 M3
G0 X-16.35 Y-19.191
G1 Z15 F600
Z4.5
Z2 F300
Y-24.85 Z1.802 F1016
X-15.65 Z1.778
Y-5.75 Z1.111
X-16.35 Z1.087
Y-24.85 Z0.42
X-15.65 Z0.395
Y-5.75 Z-0.272
X-16.35 Z-0.296
Y-24.85 Z-0.963
X-15.65 Z-0.988
Y-24.5 Z-1
Y-5.75 F600
X-16.35
Y-24.85
X-15.65
Y-24.5
Y-10.182 Z-1.5 F1016
Y-5.75 F600
X-16.35
Y-24.85
X-15.65
Y-10.182
Y-5.75 Z-1.655 F1016
X-16.35 Z-1.679
Y-14.936 Z-2
Y-24.85 F600
X-15.65
Y-10.182
Y-5.75
X-16.35
Y-14.936
Z15
(When using Fusion 360 for Personal Use, the feedrate of)
(rapid moves is reduced to match the feedrate of cutting)
(moves, which can increase machining time. Unrestricted rapid)
(moves are available with a Fusion 360 Subscription.)

(2D-Kontur2)
G0 X-68.252 Y-23.364
G1 Z15 F600
Z4.6
Z2.1 F300
X-52.154 Y-5.461 Z1.259 F1016
G2 X-50.109 Y-4.55 Z1.179 I2.045 J-1.839
G1 X-43 Z0.93
G2 X-40.25 Y-7.3 Z0.78 I0 J-2.75
G1 Y-23.3 Z0.221
G2 X-43 Y-26.05 Z0.07 I-2.75 J0
G1 X-50.453 Z-0.19
G3 X-51.089 Y-26.224 Z-0.214 I0 J-1.25
G1 X-66.582 Y-35.388 Z-0.842
G2 X-68.126 Y-35.969 Z-0.9 I-2.418 J4.088
X-72.532 Y-28.124 I-0.874 J4.669 F600
G1 X-52.154 Y-5.461
G2 X-50.109 Y-4.55 I2.045 J-1.839
G1 X-43
G2 X-40.25 Y-7.3 I0 J-2.75
G1 Y-23.3
G2 X-43 Y-26.05 I-2.75 J0
G1 X-50.453
G3 X-51.089 Y-26.224 I0 J-1.25
G1 X-66.582 Y-35.388
G2 X-68.126 Y-35.969 I-2.418 J4.088
X-72.532 Y-28.124 Z-1.313 I-0.874 J4.669 F1016
G1 X-70.861 Y-26.266 Z-1.4
X-52.154 Y-5.461 F600
G2 X-50.109 Y-4.55 I2.045 J-1.839
G1 X-43
G2 X-40.25 Y-7.3 I0 J-2.75
G1 Y-23.3
G2 X-43 Y-26.05 I-2.75 J0
G1 X-50.453
G3 X-51.089 Y-26.224 I0 J-1.25
G1 X-66.582 Y-35.388
G2 X-72.532 Y-28.124 I-2.418 J4.088
G1 X-70.861 Y-26.266
X-65.117 Y-19.878 Z-1.7 F1016
X-64.182 Y-18.837 F600
Z-1.5
X-60.504 Y-14.748
Z-1.7 F300
X-52.154 Y-5.461 F600
G2 X-50.109 Y-4.55 I2.045 J-1.839
G1 X-43
G2 X-40.25 Y-7.3 I0 J-2.75
G1 Y-23.3
G2 X-43 Y-26.05 I-2.75 J0
G1 X-50.453
G3 X-51.089 Y-26.224 I0 J-1.25
G1 X-66.582 Y-35.388
G2 X-72.532 Y-28.124 I-2.418 J4.088
G1 X-65.117 Y-19.878
X-64.182 Y-18.837 Z-1.749 F1016
Z-1.5
X-60.504 Y-14.748
Z-1.941 F300
X-59.373 Y-13.49 Z-2 F1016
X-52.154 Y-5.461 F600
G2 X-50.109 Y-4.55 I2.045 J-1.839
G1 X-43
G2 X-40.25 Y-7.3 I0 J-2.75
G1 Y-23.3
G2 X-43 Y-26.05 I-2.75 J0
G1 X-50.453
G3 X-51.089 Y-26.224 I0 J-1.25
G1 X-66.582 Y-35.388
G2 X-72.532 Y-28.124 I-2.418 J4.088
G1 X-64.182 Y-18.837
Z-1.5
X-60.504 Y-14.748
Z-2 F300
X-59.373 Y-13.49 F600
Z5
X-0.25 Y-5.129
Z4.6
Z2.1 F300
Y-27.6 Z1.315 F1016
G2 X-3 Y-30.35 Z1.164 I-2.75 J0
G1 X-29 Z0.257
G2 X-31.75 Y-27.6 Z0.106 I0 J2.75
G1 Y-3 Z-0.753
G2 X-29.121 Y-0.253 Z-0.9 I2.75 J0
G1 X-29 Y-0.25 F600
X-3
G2 X-0.25 Y-3 I0 J-2.75
G1 Y-27.6
G2 X-3 Y-30.35 I-2.75 J0
G1 X-29
G2 X-31.75 Y-27.6 I0 J2.75
G1 Y-3
G2 X-29.121 Y-0.253 I2.75 J0
G1 X-29 Y-0.25 Z-0.904 F1016
X-14.803 Z-1.4
X-3 F600
G2 X-0.25 Y-3 I0 J-2.75
G1 Y-27.6
G2 X-3 Y-30.35 I-2.75 J0
G1 X-29
G2 X-31.75 Y-27.6 I0 J2.75
G1 Y-3
G2 X-29 Y-0.25 I2.75 J0
G1 X-14.803
X-6.212 Z-1.7 F1016
X-3 F600
G2 X-0.25 Y-3 I0 J-2.75
G1 Y-27.6
G2 X-3 Y-30.35 I-2.75 J0
G1 X-13.25
Z-1.5
X-18.75
Z-1.7 F300
X-29 F600
G2 X-31.75 Y-27.6 I0 J2.75
G1 Y-3
G2 X-29 Y-0.25 I2.75 J0
G1 X-18.75
Z-1.5
X-13.25
Z-1.7 F300
X-6.212 F600
X-3 Z-1.812 F1016
G2 X-0.25 Y-3 Z-1.963 I0 J-2.75
G1 Y-4.059 Z-2
Y-27.6 F600
G2 X-3 Y-30.35 I-2.75 J0
G1 X-13.25
Z-1.5
X-18.75
Z-2 F300
X-29 F600
G2 X-31.75 Y-27.6 I0 J2.75
G1 Y-3
G2 X-29 Y-0.25 I2.75 J0
G1 X-18.75
Z-1.5
X-13.25
Z-2 F300
X-3 F600
G2 X-0.25 Y-3 I0 J-2.75
G1 Y-4.059
Z15
M5
M30
