(1001)
(Bearbeiten)
(  Hersteller: ChinaCnc)
(  model: 3040T)
(  description: Generic 3-axis)
(T5  D=3.175 CR=0 - ZMIN=-0.4 - Schaftfraser)
G90 G94
G17
G21
(When using Fusion 360 for Personal Use, the feedrate of)
(rapid moves is reduced to match the feedrate of cutting)
(moves, which can increase machining time. Unrestricted rapid)
(moves are available with a Fusion 360 Subscription.)

(Bohrfrasen2)
T5
S6000 M3
G54
G0 X-11.669 Y0.078
Z31
G1 Z17.683 F1000
Z16
Y-0.081
X-11.663 Y-0.112
X-11.645 Y-0.139
X-11.619 Y-0.156
X-11.588 Y-0.162
G3 X-11.588 Y0.162 Z15.939 I0 J0.162
X-11.588 Y-0.162 Z15.878 I0 J-0.162
X-11.588 Y0.162 Z15.817 I0 J0.162
X-11.588 Y-0.162 Z15.756 I0 J-0.162
X-11.588 Y0.162 Z15.694 I0 J0.162
X-11.588 Y-0.162 Z15.633 I0 J-0.162
X-11.588 Y0.162 Z15.572 I0 J0.162
X-11.588 Y-0.162 Z15.511 I0 J-0.162
X-11.588 Y0.162 Z15.45 I0 J0.162
X-11.588 Y-0.162 Z15.389 I0 J-0.162
X-11.588 Y0.162 Z15.328 I0 J0.162
X-11.588 Y-0.162 Z15.267 I0 J-0.162
X-11.588 Y0.162 Z15.206 I0 J0.162
X-11.588 Y-0.162 Z15.144 I0 J-0.162
X-11.588 Y0.162 Z15.083 I0 J0.162
X-11.588 Y-0.162 Z15.022 I0 J-0.162
X-11.588 Y0.162 Z14.961 I0 J0.162
X-11.588 Y-0.162 Z14.9 I0 J-0.162
X-11.588 Y0.162 Z14.839 I0 J0.162
X-11.588 Y-0.162 Z14.778 I0 J-0.162
X-11.588 Y0.162 Z14.717 I0 J0.162
X-11.588 Y-0.162 Z14.656 I0 J-0.162
X-11.588 Y0.162 Z14.594 I0 J0.162
X-11.588 Y-0.162 Z14.533 I0 J-0.162
X-11.588 Y0.162 Z14.472 I0 J0.162
X-11.588 Y-0.162 Z14.411 I0 J-0.162
X-11.588 Y0.162 Z14.35 I0 J0.162
X-11.588 Y-0.162 Z14.289 I0 J-0.162
X-11.588 Y0.162 Z14.228 I0 J0.162
X-11.588 Y-0.162 Z14.167 I0 J-0.162
X-11.588 Y0.162 Z14.106 I0 J0.162
X-11.588 Y-0.162 Z14.044 I0 J-0.162
X-11.588 Y0.162 Z13.983 I0 J0.162
X-11.588 Y-0.162 Z13.922 I0 J-0.162
X-11.425 Y0.005 Z13.891 I0 J0.162
X-11.597 Y0.162 Z13.86 I-0.162 J-0.005
X-11.578 Y-0.162 I0.009 J-0.162
X-11.597 Y0.162 I-0.009 J0.162
G1 X-11.627 Y0.154
X-11.653 Y0.135
X-11.669 Y0.108
X-11.673 Y0.076
X-11.664 Y-0.082
Z21
X-56.669 Y0.078
Z17.683
Z16
Y-0.081
X-56.663 Y-0.112
X-56.645 Y-0.139
X-56.619 Y-0.156
X-56.588 Y-0.162
G3 X-56.588 Y0.162 Z15.939 I0 J0.162
X-56.588 Y-0.162 Z15.878 I0 J-0.162
X-56.588 Y0.162 Z15.817 I0 J0.162
X-56.588 Y-0.162 Z15.756 I0 J-0.162
X-56.588 Y0.162 Z15.694 I0 J0.162
X-56.588 Y-0.162 Z15.633 I0 J-0.162
X-56.588 Y0.162 Z15.572 I0 J0.162
X-56.588 Y-0.162 Z15.511 I0 J-0.162
X-56.588 Y0.162 Z15.45 I0 J0.162
X-56.588 Y-0.162 Z15.389 I0 J-0.162
X-56.588 Y0.162 Z15.328 I0 J0.162
X-56.588 Y-0.162 Z15.267 I0 J-0.162
X-56.588 Y0.162 Z15.206 I0 J0.162
X-56.588 Y-0.162 Z15.144 I0 J-0.162
X-56.588 Y0.162 Z15.083 I0 J0.162
X-56.588 Y-0.162 Z15.022 I0 J-0.162
X-56.588 Y0.162 Z14.961 I0 J0.162
X-56.588 Y-0.162 Z14.9 I0 J-0.162
X-56.588 Y0.162 Z14.839 I0 J0.162
X-56.588 Y-0.162 Z14.778 I0 J-0.162
X-56.588 Y0.162 Z14.717 I0 J0.162
X-56.588 Y-0.162 Z14.656 I0 J-0.162
X-56.588 Y0.162 Z14.594 I0 J0.162
X-56.588 Y-0.162 Z14.533 I0 J-0.162
X-56.588 Y0.162 Z14.472 I0 J0.162
X-56.588 Y-0.162 Z14.411 I0 J-0.162
X-56.588 Y0.162 Z14.35 I0 J0.162
X-56.588 Y-0.162 Z14.289 I0 J-0.162
X-56.588 Y0.162 Z14.228 I0 J0.162
X-56.588 Y-0.162 Z14.167 I0 J-0.162
X-56.588 Y0.162 Z14.106 I0 J0.162
X-56.588 Y-0.162 Z14.044 I0 J-0.162
X-56.588 Y0.162 Z13.983 I0 J0.162
X-56.588 Y-0.162 Z13.922 I0 J-0.162
X-56.425 Y0.005 Z13.891 I0 J0.162
X-56.597 Y0.162 Z13.86 I-0.162 J-0.005
X-56.578 Y-0.162 I0.009 J-0.162
X-56.597 Y0.162 I-0.009 J0.162
G1 X-56.627 Y0.154
X-56.653 Y0.135
X-56.669 Y0.108
X-56.673 Y0.076
X-56.664 Y-0.082
Z21
X-206.669 Y0.078
Z17.683
Z16
Y-0.081
X-206.663 Y-0.112
X-206.645 Y-0.139
X-206.619 Y-0.156
X-206.587 Y-0.162
G3 X-206.587 Y0.162 Z15.939 I0 J0.162
X-206.587 Y-0.163 Z15.878 I0 J-0.162
X-206.587 Y0.163 Z15.817 I0 J0.163
X-206.587 Y-0.163 Z15.756 I0 J-0.163
X-206.587 Y0.163 Z15.694 I0 J0.163
X-206.587 Y-0.163 Z15.633 I0 J-0.163
X-206.587 Y0.163 Z15.572 I0 J0.163
X-206.587 Y-0.163 Z15.511 I0 J-0.163
X-206.587 Y0.163 Z15.45 I0 J0.163
X-206.587 Y-0.163 Z15.389 I0 J-0.163
X-206.587 Y0.163 Z15.328 I0 J0.163
X-206.587 Y-0.163 Z15.267 I0 J-0.163
X-206.587 Y0.163 Z15.206 I0 J0.163
X-206.587 Y-0.163 Z15.144 I0 J-0.163
X-206.587 Y0.163 Z15.083 I0 J0.163
X-206.587 Y-0.163 Z15.022 I0 J-0.163
X-206.587 Y0.163 Z14.961 I0 J0.163
X-206.587 Y-0.163 Z14.9 I0 J-0.163
X-206.587 Y0.163 Z14.839 I0 J0.163
X-206.587 Y-0.163 Z14.778 I0 J-0.163
X-206.587 Y0.163 Z14.717 I0 J0.163
X-206.587 Y-0.163 Z14.656 I0 J-0.163
X-206.587 Y0.163 Z14.594 I0 J0.163
X-206.587 Y-0.163 Z14.533 I0 J-0.163
X-206.587 Y0.163 Z14.472 I0 J0.163
X-206.587 Y-0.163 Z14.411 I0 J-0.163
X-206.587 Y0.163 Z14.35 I0 J0.163
X-206.587 Y-0.163 Z14.289 I0 J-0.163
X-206.587 Y0.163 Z14.228 I0 J0.163
X-206.587 Y-0.163 Z14.167 I0 J-0.163
X-206.587 Y0.163 Z14.106 I0 J0.163
X-206.587 Y-0.163 Z14.044 I0 J-0.163
X-206.587 Y0.163 Z13.983 I0 J0.163
X-206.587 Y-0.163 Z13.922 I0 J-0.163
X-206.425 Y0.005 Z13.891 I0 J0.163
X-206.597 Y0.162 Z13.86 I-0.162 J-0.005
X-206.578 Y-0.162 I0.009 J-0.162
X-206.597 Y0.162 I-0.009 J0.162
G1 X-206.627 Y0.154
X-206.653 Y0.135
X-206.669 Y0.108
X-206.673 Y0.076
X-206.664 Y-0.082
Z31
(When using Fusion 360 for Personal Use, the feedrate of)
(rapid moves is reduced to match the feedrate of cutting)
(moves, which can increase machining time. Unrestricted rapid)
(moves are available with a Fusion 360 Subscription.)

(Bohrfrasen3)
G0 X-11.669 Y0.078
G1 Z31 F1000
Z3.423
Z1.74
Y-0.081
X-11.663 Y-0.112
X-11.645 Y-0.139
X-11.619 Y-0.156
X-11.588 Y-0.162
G3 X-11.588 Y0.162 Z1.679 I0 J0.162
X-11.588 Y-0.162 Z1.618 I0 J-0.162
X-11.588 Y0.162 Z1.557 I0 J0.162
X-11.588 Y-0.162 Z1.496 I0 J-0.162
X-11.588 Y0.162 Z1.434 I0 J0.162
X-11.588 Y-0.162 Z1.373 I0 J-0.162
X-11.588 Y0.162 Z1.312 I0 J0.162
X-11.588 Y-0.162 Z1.251 I0 J-0.162
X-11.588 Y0.162 Z1.19 I0 J0.162
X-11.588 Y-0.162 Z1.129 I0 J-0.162
X-11.588 Y0.162 Z1.068 I0 J0.162
X-11.588 Y-0.162 Z1.007 I0 J-0.162
X-11.588 Y0.162 Z0.946 I0 J0.162
X-11.588 Y-0.162 Z0.884 I0 J-0.162
X-11.588 Y0.162 Z0.823 I0 J0.162
X-11.588 Y-0.162 Z0.762 I0 J-0.162
X-11.588 Y0.162 Z0.701 I0 J0.162
X-11.588 Y-0.162 Z0.64 I0 J-0.162
X-11.588 Y0.162 Z0.579 I0 J0.162
X-11.588 Y-0.162 Z0.518 I0 J-0.162
X-11.588 Y0.162 Z0.457 I0 J0.162
X-11.588 Y-0.162 Z0.396 I0 J-0.162
X-11.588 Y0.162 Z0.334 I0 J0.162
X-11.588 Y-0.162 Z0.273 I0 J-0.162
X-11.588 Y0.162 Z0.212 I0 J0.162
X-11.588 Y-0.162 Z0.151 I0 J-0.162
X-11.588 Y0.162 Z0.09 I0 J0.162
X-11.588 Y-0.162 Z0.029 I0 J-0.162
X-11.588 Y0.162 Z-0.032 I0 J0.162
X-11.588 Y-0.162 Z-0.093 I0 J-0.162
X-11.588 Y0.162 Z-0.154 I0 J0.162
X-11.588 Y-0.162 Z-0.216 I0 J-0.162
X-11.588 Y0.162 Z-0.277 I0 J0.162
X-11.588 Y-0.162 Z-0.338 I0 J-0.162
X-11.425 Y0.005 Z-0.369 I0 J0.162
X-11.597 Y0.162 Z-0.4 I-0.162 J-0.005
X-11.578 Y-0.162 I0.009 J-0.162
X-11.597 Y0.162 I-0.009 J0.162
G1 X-11.627 Y0.154
X-11.653 Y0.135
X-11.669 Y0.108
X-11.673 Y0.076
X-11.664 Y-0.082
Z21
X-56.669 Y0.078
Z3.423
Z1.74
Y-0.081
X-56.663 Y-0.112
X-56.645 Y-0.139
X-56.619 Y-0.156
X-56.588 Y-0.162
G3 X-56.588 Y0.162 Z1.679 I0 J0.162
X-56.588 Y-0.162 Z1.618 I0 J-0.162
X-56.588 Y0.162 Z1.557 I0 J0.162
X-56.588 Y-0.162 Z1.496 I0 J-0.162
X-56.588 Y0.162 Z1.434 I0 J0.162
X-56.588 Y-0.162 Z1.373 I0 J-0.162
X-56.588 Y0.162 Z1.312 I0 J0.162
X-56.588 Y-0.162 Z1.251 I0 J-0.162
X-56.588 Y0.162 Z1.19 I0 J0.162
X-56.588 Y-0.162 Z1.129 I0 J-0.162
X-56.588 Y0.162 Z1.068 I0 J0.162
X-56.588 Y-0.162 Z1.007 I0 J-0.162
X-56.588 Y0.162 Z0.946 I0 J0.162
X-56.588 Y-0.162 Z0.884 I0 J-0.162
X-56.588 Y0.162 Z0.823 I0 J0.162
X-56.588 Y-0.162 Z0.762 I0 J-0.162
X-56.588 Y0.162 Z0.701 I0 J0.162
X-56.588 Y-0.162 Z0.64 I0 J-0.162
X-56.588 Y0.162 Z0.579 I0 J0.162
X-56.588 Y-0.162 Z0.518 I0 J-0.162
X-56.588 Y0.162 Z0.457 I0 J0.162
X-56.588 Y-0.162 Z0.396 I0 J-0.162
X-56.588 Y0.162 Z0.334 I0 J0.162
X-56.588 Y-0.162 Z0.273 I0 J-0.162
X-56.588 Y0.162 Z0.212 I0 J0.162
X-56.588 Y-0.162 Z0.151 I0 J-0.162
X-56.588 Y0.162 Z0.09 I0 J0.162
X-56.588 Y-0.162 Z0.029 I0 J-0.162
X-56.588 Y0.162 Z-0.032 I0 J0.162
X-56.588 Y-0.162 Z-0.093 I0 J-0.162
X-56.588 Y0.162 Z-0.154 I0 J0.162
X-56.588 Y-0.162 Z-0.216 I0 J-0.162
X-56.588 Y0.162 Z-0.277 I0 J0.162
X-56.588 Y-0.162 Z-0.338 I0 J-0.162
X-56.425 Y0.005 Z-0.369 I0 J0.162
X-56.597 Y0.162 Z-0.4 I-0.162 J-0.005
X-56.578 Y-0.162 I0.009 J-0.162
X-56.597 Y0.162 I-0.009 J0.162
G1 X-56.627 Y0.154
X-56.653 Y0.135
X-56.669 Y0.108
X-56.673 Y0.076
X-56.664 Y-0.082
Z21
X-206.669 Y0.078
Z3.423
Z1.74
Y-0.081
X-206.663 Y-0.112
X-206.645 Y-0.139
X-206.619 Y-0.156
X-206.587 Y-0.162
G3 X-206.587 Y0.162 Z1.679 I0 J0.162
X-206.587 Y-0.163 Z1.618 I0 J-0.162
X-206.587 Y0.163 Z1.557 I0 J0.163
X-206.587 Y-0.163 Z1.496 I0 J-0.163
X-206.587 Y0.163 Z1.434 I0 J0.163
X-206.587 Y-0.163 Z1.373 I0 J-0.163
X-206.587 Y0.163 Z1.312 I0 J0.163
X-206.587 Y-0.163 Z1.251 I0 J-0.163
X-206.587 Y0.163 Z1.19 I0 J0.163
X-206.587 Y-0.163 Z1.129 I0 J-0.163
X-206.587 Y0.163 Z1.068 I0 J0.163
X-206.587 Y-0.163 Z1.007 I0 J-0.163
X-206.587 Y0.163 Z0.946 I0 J0.163
X-206.587 Y-0.163 Z0.884 I0 J-0.163
X-206.587 Y0.163 Z0.823 I0 J0.163
X-206.587 Y-0.163 Z0.762 I0 J-0.163
X-206.587 Y0.163 Z0.701 I0 J0.163
X-206.587 Y-0.163 Z0.64 I0 J-0.163
X-206.587 Y0.163 Z0.579 I0 J0.163
X-206.587 Y-0.163 Z0.518 I0 J-0.163
X-206.587 Y0.163 Z0.457 I0 J0.163
X-206.587 Y-0.163 Z0.396 I0 J-0.163
X-206.587 Y0.163 Z0.334 I0 J0.163
X-206.587 Y-0.163 Z0.273 I0 J-0.163
X-206.587 Y0.163 Z0.212 I0 J0.163
X-206.587 Y-0.163 Z0.151 I0 J-0.163
X-206.587 Y0.163 Z0.09 I0 J0.163
X-206.587 Y-0.163 Z0.029 I0 J-0.163
X-206.587 Y0.163 Z-0.032 I0 J0.163
X-206.587 Y-0.163 Z-0.093 I0 J-0.163
X-206.587 Y0.163 Z-0.154 I0 J0.163
X-206.587 Y-0.163 Z-0.216 I0 J-0.163
X-206.587 Y0.163 Z-0.277 I0 J0.163
X-206.587 Y-0.163 Z-0.338 I0 J-0.163
X-206.425 Y0.005 Z-0.369 I0 J0.163
X-206.597 Y0.162 Z-0.4 I-0.162 J-0.005
X-206.578 Y-0.162 I0.009 J-0.162
X-206.597 Y0.162 I-0.009 J0.162
G1 X-206.627 Y0.154
X-206.653 Y0.135
X-206.669 Y0.108
X-206.673 Y0.076
X-206.664 Y-0.082
Z31
(When using Fusion 360 for Personal Use, the feedrate of)
(rapid moves is reduced to match the feedrate of cutting)
(moves, which can increase machining time. Unrestricted rapid)
(moves are available with a Fusion 360 Subscription.)

(2D-Kontur1)
G0 X-71.175 Y2.386
G1 Z31 F1000
Z21
Z18 F333.3
Z17
S5000
Y2.958 Z16.98
X-71.185 Y3.145 Z16.973
X-71.208 Y3.291 Z16.968
X-71.245 Y3.432 Z16.963
X-71.295 Y3.564 Z16.958
X-71.355 Y3.686 Z16.954
X-71.427 Y3.801 Z16.949
X-71.508 Y3.908 Z16.944
X-71.595 Y4.003 Z16.94
X-71.685 Y4.084 Z16.935
X-71.786 Y4.161 Z16.931
X-71.898 Y4.231 Z16.926
X-72.019 Y4.291 Z16.922
X-72.146 Y4.34 Z16.917
X-72.282 Y4.377 Z16.912
X-72.449 Y4.405 Z16.906
X-72.505 Y4.41 Z16.904
X-72.588 Y4.412 Z16.901
X-72.67 Y4.41 Z16.898
X-72.726 Y4.405 Z16.896
X-72.893 Y4.377 Z16.89
X-73.029 Y4.34 Z16.886
X-73.156 Y4.291 Z16.881
X-73.277 Y4.231 Z16.876
X-73.389 Y4.161 Z16.871
X-73.49 Y4.084 Z16.867
X-73.58 Y4.003 Z16.863
X-73.667 Y3.908 Z16.858
X-73.748 Y3.801 Z16.854
X-73.82 Y3.686 Z16.849
X-73.88 Y3.564 Z16.844
X-73.93 Y3.432 Z16.839
X-73.967 Y3.291 Z16.834
X-73.99 Y3.145 Z16.829
X-74 Y2.958 Z16.822
Y-2.958 Z16.616
X-73.99 Y-3.145 Z16.609
X-73.967 Y-3.291 Z16.604
X-73.93 Y-3.432 Z16.599
X-73.88 Y-3.564 Z16.594
X-73.82 Y-3.686 Z16.589
X-73.748 Y-3.801 Z16.585
X-73.667 Y-3.908 Z16.58
X-73.58 Y-4.003 Z16.575
X-73.49 Y-4.084 Z16.571
X-73.389 Y-4.161 Z16.567
X-73.277 Y-4.231 Z16.562
X-73.156 Y-4.291 Z16.557
X-73.029 Y-4.34 Z16.553
X-72.893 Y-4.377 Z16.548
X-72.726 Y-4.405 Z16.542
X-72.67 Y-4.41 Z16.54
X-72.588 Y-4.412 Z16.537
X-72.505 Y-4.41 Z16.534
X-72.449 Y-4.405 Z16.532
X-72.282 Y-4.377 Z16.526
X-72.146 Y-4.34 Z16.521
X-72.019 Y-4.291 Z16.517
X-71.898 Y-4.231 Z16.512
X-71.786 Y-4.161 Z16.507
X-71.685 Y-4.084 Z16.503
X-71.595 Y-4.003 Z16.499
X-71.508 Y-3.908 Z16.494
X-71.427 Y-3.801 Z16.489
X-71.355 Y-3.686 Z16.485
X-71.295 Y-3.564 Z16.48
X-71.245 Y-3.432 Z16.475
X-71.208 Y-3.291 Z16.47
X-71.185 Y-3.145 Z16.465
X-71.175 Y-2.958 Z16.458
Y2.958 Z16.252
X-71.185 Y3.145 Z16.245
X-71.208 Y3.291 Z16.24
X-71.245 Y3.432 Z16.235
X-71.295 Y3.564 Z16.23
X-71.355 Y3.686 Z16.225
X-71.427 Y3.801 Z16.22
X-71.508 Y3.908 Z16.216
X-71.595 Y4.003 Z16.211
X-71.685 Y4.084 Z16.207
X-71.786 Y4.161 Z16.203
X-71.898 Y4.231 Z16.198
X-72.019 Y4.291 Z16.193
X-72.146 Y4.34 Z16.188
X-72.282 Y4.377 Z16.184
X-72.449 Y4.405 Z16.178
X-72.505 Y4.41 Z16.176
X-72.588 Y4.412 Z16.173
X-72.67 Y4.41 Z16.17
X-72.726 Y4.405 Z16.168
X-72.893 Y4.377 Z16.162
X-73.029 Y4.34 Z16.157
X-73.156 Y4.291 Z16.152
X-73.277 Y4.231 Z16.148
X-73.389 Y4.161 Z16.143
X-73.49 Y4.084 Z16.139
X-73.58 Y4.003 Z16.134
X-73.667 Y3.908 Z16.13
X-73.748 Y3.801 Z16.125
X-73.82 Y3.686 Z16.12
X-73.88 Y3.564 Z16.116
X-73.93 Y3.432 Z16.111
X-73.967 Y3.291 Z16.106
X-73.99 Y3.145 Z16.101
X-74 Y2.958 Z16.094
Y-2.958 Z15.887
X-73.99 Y-3.145 Z15.881
X-73.967 Y-3.291 Z15.876
X-73.93 Y-3.432 Z15.871
X-73.88 Y-3.564 Z15.866
X-73.82 Y-3.686 Z15.861
X-73.748 Y-3.801 Z15.856
X-73.667 Y-3.908 Z15.851
X-73.58 Y-4.003 Z15.847
X-73.49 Y-4.084 Z15.843
X-73.389 Y-4.161 Z15.838
X-73.277 Y-4.231 Z15.834
X-73.156 Y-4.291 Z15.829
X-73.029 Y-4.34 Z15.824
X-72.893 Y-4.377 Z15.819
X-72.726 Y-4.405 Z15.813
X-72.67 Y-4.41 Z15.811
X-72.588 Y-4.412 Z15.809
X-72.505 Y-4.41 Z15.806
X-72.449 Y-4.405 Z15.804
X-72.282 Y-4.377 Z15.798
X-72.146 Y-4.34 Z15.793
X-72.019 Y-4.291 Z15.788
X-71.898 Y-4.231 Z15.783
X-71.786 Y-4.161 Z15.779
X-71.685 Y-4.084 Z15.774
X-71.595 Y-4.003 Z15.77
X-71.508 Y-3.908 Z15.766
X-71.427 Y-3.801 Z15.761
X-71.355 Y-3.686 Z15.756
X-71.295 Y-3.564 Z15.751
X-71.245 Y-3.432 Z15.747
X-71.208 Y-3.291 Z15.741
X-71.185 Y-3.145 Z15.736
X-71.175 Y-2.958 Z15.73
Y2.958 Z15.523
X-71.185 Y3.145 Z15.517
X-71.208 Y3.291 Z15.511
X-71.245 Y3.432 Z15.506
X-71.295 Y3.564 Z15.501
X-71.355 Y3.686 Z15.497
X-71.427 Y3.801 Z15.492
X-71.508 Y3.908 Z15.487
X-71.595 Y4.003 Z15.483
X-71.685 Y4.084 Z15.479
X-71.786 Y4.161 Z15.474
X-71.898 Y4.231 Z15.469
X-72.019 Y4.291 Z15.465
X-72.146 Y4.34 Z15.46
X-72.282 Y4.377 Z15.455
X-72.449 Y4.405 Z15.449
X-72.505 Y4.41 Z15.447
X-72.588 Y4.412 Z15.444
X-72.67 Y4.41 Z15.441
X-72.726 Y4.405 Z15.439
X-72.893 Y4.377 Z15.434
X-73.029 Y4.34 Z15.429
X-73.156 Y4.291 Z15.424
X-73.277 Y4.231 Z15.419
X-73.389 Y4.161 Z15.415
X-73.49 Y4.084 Z15.41
X-73.58 Y4.003 Z15.406
X-73.667 Y3.908 Z15.401
X-73.748 Y3.801 Z15.397
X-73.82 Y3.686 Z15.392
X-73.88 Y3.564 Z15.387
X-73.93 Y3.432 Z15.382
X-73.967 Y3.291 Z15.377
X-73.99 Y3.145 Z15.372
X-74 Y2.958 Z15.366
Y-2.958 Z15.159
X-73.99 Y-3.145 Z15.152
X-73.967 Y-3.291 Z15.147
X-73.93 Y-3.432 Z15.142
X-73.88 Y-3.564 Z15.137
X-73.82 Y-3.686 Z15.132
X-73.748 Y-3.801 Z15.128
X-73.667 Y-3.908 Z15.123
X-73.58 Y-4.003 Z15.119
X-73.49 Y-4.084 Z15.114
X-73.389 Y-4.161 Z15.11
X-73.277 Y-4.231 Z15.105
X-73.156 Y-4.291 Z15.101
X-73.029 Y-4.34 Z15.096
X-72.893 Y-4.377 Z15.091
X-72.726 Y-4.405 Z15.085
X-72.67 Y-4.41 Z15.083
X-72.588 Y-4.412 Z15.08
X-72.505 Y-4.41 Z15.077
X-72.449 Y-4.405 Z15.075
X-72.282 Y-4.377 Z15.069
X-72.146 Y-4.34 Z15.064
X-72.019 Y-4.291 Z15.06
X-71.898 Y-4.231 Z15.055
X-71.786 Y-4.161 Z15.05
X-71.685 Y-4.084 Z15.046
X-71.595 Y-4.003 Z15.042
X-71.508 Y-3.908 Z15.037
X-71.427 Y-3.801 Z15.033
X-71.355 Y-3.686 Z15.028
X-71.295 Y-3.564 Z15.023
X-71.245 Y-3.432 Z15.018
X-71.208 Y-3.291 Z15.013
X-71.185 Y-3.145 Z15.008
X-71.175 Y-2.958 Z15.001
Y-2.92 Z15
S6000
Y2.958 F1000
X-71.185 Y3.145
X-71.208 Y3.291
X-71.245 Y3.432
X-71.295 Y3.564
X-71.355 Y3.686
X-71.427 Y3.801
X-71.508 Y3.908
X-71.595 Y4.003
X-71.685 Y4.084
X-71.786 Y4.161
X-71.898 Y4.231
X-72.019 Y4.291
X-72.146 Y4.34
X-72.282 Y4.377
X-72.449 Y4.405
X-72.505 Y4.41
X-72.588 Y4.412
X-72.67 Y4.41
X-72.726 Y4.405
X-72.893 Y4.377
X-73.029 Y4.34
X-73.156 Y4.291
X-73.277 Y4.231
X-73.389 Y4.161
X-73.49 Y4.084
X-73.58 Y4.003
X-73.667 Y3.908
X-73.748 Y3.801
X-73.82 Y3.686
X-73.88 Y3.564
X-73.93 Y3.432
X-73.967 Y3.291
X-73.99 Y3.145
X-74 Y2.958
Y-2.958
X-73.99 Y-3.145
X-73.967 Y-3.291
X-73.93 Y-3.432
X-73.88 Y-3.564
X-73.82 Y-3.686
X-73.748 Y-3.801
X-73.667 Y-3.908
X-73.58 Y-4.003
X-73.49 Y-4.084
X-73.389 Y-4.161
X-73.277 Y-4.231
X-73.156 Y-4.291
X-73.029 Y-4.34
X-72.893 Y-4.377
X-72.726 Y-4.405
X-72.67 Y-4.41
X-72.588 Y-4.412
X-72.505 Y-4.41
X-72.449 Y-4.405
X-72.282 Y-4.377
X-72.146 Y-4.34
X-72.019 Y-4.291
X-71.898 Y-4.231
X-71.786 Y-4.161
X-71.685 Y-4.084
X-71.595 Y-4.003
X-71.508 Y-3.908
X-71.427 Y-3.801
X-71.355 Y-3.686
X-71.295 Y-3.564
X-71.245 Y-3.432
X-71.208 Y-3.291
X-71.185 Y-3.145
X-71.175 Y-2.958
Y-2.92
S5000
Y2.958 Z14.795 F333.3
X-71.185 Y3.145 Z14.788
X-71.208 Y3.291 Z14.783
X-71.245 Y3.432 Z14.778
X-71.295 Y3.564 Z14.773
X-71.355 Y3.686 Z14.768
X-71.427 Y3.801 Z14.764
X-71.508 Y3.908 Z14.759
X-71.595 Y4.003 Z14.754
X-71.685 Y4.084 Z14.75
X-71.786 Y4.161 Z14.746
X-71.898 Y4.231 Z14.741
X-72.019 Y4.291 Z14.736
X-72.146 Y4.34 Z14.732
X-72.282 Y4.377 Z14.727
X-72.449 Y4.405 Z14.721
X-72.505 Y4.41 Z14.719
X-72.588 Y4.412 Z14.716
X-72.67 Y4.41 Z14.713
X-72.726 Y4.405 Z14.711
X-72.893 Y4.377 Z14.705
X-73.029 Y4.34 Z14.7
X-73.156 Y4.291 Z14.695
X-73.277 Y4.231 Z14.691
X-73.389 Y4.161 Z14.686
X-73.49 Y4.084 Z14.682
X-73.58 Y4.003 Z14.677
X-73.667 Y3.908 Z14.673
X-73.748 Y3.801 Z14.668
X-73.82 Y3.686 Z14.664
X-73.88 Y3.564 Z14.659
X-73.93 Y3.432 Z14.654
X-73.967 Y3.291 Z14.649
X-73.99 Y3.145 Z14.644
X-74 Y2.958 Z14.637
Y-2.958 Z14.431
X-73.99 Y-3.145 Z14.424
X-73.967 Y-3.291 Z14.419
X-73.93 Y-3.432 Z14.414
X-73.88 Y-3.564 Z14.409
X-73.82 Y-3.686 Z14.404
X-73.748 Y-3.801 Z14.399
X-73.667 Y-3.908 Z14.395
X-73.58 Y-4.003 Z14.39
X-73.49 Y-4.084 Z14.386
X-73.389 Y-4.161 Z14.381
X-73.277 Y-4.231 Z14.377
X-73.156 Y-4.291 Z14.372
X-73.029 Y-4.34 Z14.367
X-72.893 Y-4.377 Z14.362
X-72.726 Y-4.405 Z14.357
X-72.67 Y-4.41 Z14.355
X-72.588 Y-4.412 Z14.352
X-72.505 Y-4.41 Z14.349
X-72.449 Y-4.405 Z14.347
X-72.282 Y-4.377 Z14.341
X-72.146 Y-4.34 Z14.336
X-72.019 Y-4.291 Z14.331
X-71.898 Y-4.231 Z14.327
X-71.786 Y-4.161 Z14.322
X-71.685 Y-4.084 Z14.318
X-71.595 Y-4.003 Z14.313
X-71.508 Y-3.908 Z14.309
X-71.427 Y-3.801 Z14.304
X-71.355 Y-3.686 Z14.299
X-71.295 Y-3.564 Z14.295
X-71.245 Y-3.432 Z14.29
X-71.208 Y-3.291 Z14.285
X-71.185 Y-3.145 Z14.279
X-71.175 Y-2.958 Z14.273
Y2.958 Z14.066
X-71.185 Y3.145 Z14.06
X-71.208 Y3.291 Z14.055
X-71.245 Y3.432 Z14.05
X-71.295 Y3.564 Z14.045
X-71.355 Y3.686 Z14.04
X-71.427 Y3.801 Z14.035
X-71.508 Y3.908 Z14.03
X-71.595 Y4.003 Z14.026
X-71.685 Y4.084 Z14.022
X-71.786 Y4.161 Z14.017
X-71.898 Y4.231 Z14.013
X-72.019 Y4.291 Z14.008
X-72.146 Y4.34 Z14.003
X-72.233 Y4.364 Z14
S6000
X-72.282 Y4.377 F1000
X-72.449 Y4.405
X-72.505 Y4.41
X-72.588 Y4.412
X-72.67 Y4.41
X-72.726 Y4.405
X-72.893 Y4.377
X-73.029 Y4.34
X-73.156 Y4.291
X-73.277 Y4.231
X-73.389 Y4.161
X-73.49 Y4.084
X-73.58 Y4.003
X-73.667 Y3.908
X-73.748 Y3.801
X-73.82 Y3.686
X-73.88 Y3.564
X-73.93 Y3.432
X-73.967 Y3.291
X-73.99 Y3.145
X-74 Y2.958
Y-2.958
X-73.99 Y-3.145
X-73.967 Y-3.291
X-73.93 Y-3.432
X-73.88 Y-3.564
X-73.82 Y-3.686
X-73.748 Y-3.801
X-73.667 Y-3.908
X-73.58 Y-4.003
X-73.49 Y-4.084
X-73.389 Y-4.161
X-73.277 Y-4.231
X-73.156 Y-4.291
X-73.029 Y-4.34
X-72.893 Y-4.377
X-72.726 Y-4.405
X-72.67 Y-4.41
X-72.588 Y-4.412
X-72.505 Y-4.41
X-72.449 Y-4.405
X-72.282 Y-4.377
X-72.146 Y-4.34
X-72.019 Y-4.291
X-71.898 Y-4.231
X-71.786 Y-4.161
X-71.685 Y-4.084
X-71.595 Y-4.003
X-71.508 Y-3.908
X-71.427 Y-3.801
X-71.355 Y-3.686
X-71.295 Y-3.564
X-71.245 Y-3.432
X-71.208 Y-3.291
X-71.185 Y-3.145
X-71.175 Y-2.958
Y2.958
X-71.185 Y3.145
X-71.208 Y3.291
X-71.245 Y3.432
X-71.295 Y3.564
X-71.355 Y3.686
X-71.427 Y3.801
X-71.508 Y3.908
X-71.595 Y4.003
X-71.685 Y4.084
X-71.786 Y4.161
X-71.898 Y4.231
X-72.019 Y4.291
X-72.146 Y4.34
X-72.233 Y4.364
S5000
X-72.282 Y4.377 Z13.998 F333.3
X-72.449 Y4.405 Z13.992
X-72.505 Y4.41 Z13.99
X-72.588 Y4.412 Z13.987
X-72.67 Y4.41 Z13.985
X-72.726 Y4.405 Z13.983
X-72.893 Y4.377 Z13.977
X-73.029 Y4.34 Z13.972
X-73.156 Y4.291 Z13.967
X-73.277 Y4.231 Z13.962
X-73.389 Y4.161 Z13.958
X-73.49 Y4.084 Z13.953
X-73.58 Y4.003 Z13.949
X-73.667 Y3.908 Z13.945
X-73.748 Y3.801 Z13.94
X-73.82 Y3.686 Z13.935
X-73.88 Y3.564 Z13.93
X-73.93 Y3.432 Z13.925
X-73.967 Y3.291 Z13.92
X-73.99 Y3.145 Z13.915
X-74 Y2.958 Z13.909
Y-2.958 Z13.702
X-73.99 Y-3.145 Z13.696
X-73.967 Y-3.291 Z13.69
X-73.93 Y-3.432 Z13.685
X-73.88 Y-3.564 Z13.68
X-73.82 Y-3.686 Z13.676
X-73.748 Y-3.801 Z13.671
X-73.667 Y-3.908 Z13.666
X-73.58 Y-4.003 Z13.662
X-73.49 Y-4.084 Z13.657
X-73.389 Y-4.161 Z13.653
X-73.277 Y-4.231 Z13.648
X-73.156 Y-4.291 Z13.644
X-73.029 Y-4.34 Z13.639
X-72.893 Y-4.377 Z13.634
X-72.726 Y-4.405 Z13.628
X-72.67 Y-4.41 Z13.626
X-72.588 Y-4.412 Z13.623
X-72.505 Y-4.41 Z13.62
X-72.449 Y-4.405 Z13.618
X-72.282 Y-4.377 Z13.612
X-72.146 Y-4.34 Z13.608
X-72.019 Y-4.291 Z13.603
X-71.898 Y-4.231 Z13.598
X-71.786 Y-4.161 Z13.593
X-71.685 Y-4.084 Z13.589
X-71.595 Y-4.003 Z13.585
X-71.508 Y-3.908 Z13.58
X-71.427 Y-3.801 Z13.576
X-71.355 Y-3.686 Z13.571
X-71.295 Y-3.564 Z13.566
X-71.245 Y-3.432 Z13.561
X-71.208 Y-3.291 Z13.556
X-71.185 Y-3.145 Z13.551
X-71.175 Y-2.958 Z13.544
Y2.958 Z13.338
X-71.185 Y3.145 Z13.331
X-71.208 Y3.291 Z13.326
X-71.245 Y3.432 Z13.321
X-71.295 Y3.564 Z13.316
X-71.355 Y3.686 Z13.311
X-71.427 Y3.801 Z13.307
X-71.508 Y3.908 Z13.302
X-71.595 Y4.003 Z13.297
X-71.685 Y4.084 Z13.293
X-71.786 Y4.161 Z13.289
X-71.898 Y4.231 Z13.284
X-72.019 Y4.291 Z13.279
X-72.146 Y4.34 Z13.275
X-72.282 Y4.377 Z13.27
X-72.449 Y4.405 Z13.264
X-72.505 Y4.41 Z13.262
X-72.588 Y4.412 Z13.259
X-72.67 Y4.41 Z13.256
X-72.726 Y4.405 Z13.254
X-72.893 Y4.377 Z13.248
X-73.029 Y4.34 Z13.243
X-73.156 Y4.291 Z13.239
X-73.277 Y4.231 Z13.234
X-73.389 Y4.161 Z13.229
X-73.49 Y4.084 Z13.225
X-73.58 Y4.003 Z13.221
X-73.667 Y3.908 Z13.216
X-73.748 Y3.801 Z13.211
X-73.82 Y3.686 Z13.207
X-73.88 Y3.564 Z13.202
X-73.93 Y3.432 Z13.197
X-73.967 Y3.291 Z13.192
X-73.99 Y3.145 Z13.187
X-74 Y2.958 Z13.18
Y-2.203 Z13
S6000
Y-2.958 F1000
X-73.99 Y-3.145
X-73.967 Y-3.291
X-73.93 Y-3.432
X-73.88 Y-3.564
X-73.82 Y-3.686
X-73.748 Y-3.801
X-73.667 Y-3.908
X-73.58 Y-4.003
X-73.49 Y-4.084
X-73.389 Y-4.161
X-73.277 Y-4.231
X-73.156 Y-4.291
X-73.029 Y-4.34
X-72.893 Y-4.377
X-72.726 Y-4.405
X-72.67 Y-4.41
X-72.588 Y-4.412
X-72.505 Y-4.41
X-72.449 Y-4.405
X-72.282 Y-4.377
X-72.146 Y-4.34
X-72.019 Y-4.291
X-71.898 Y-4.231
X-71.786 Y-4.161
X-71.685 Y-4.084
X-71.595 Y-4.003
X-71.508 Y-3.908
X-71.427 Y-3.801
X-71.355 Y-3.686
X-71.295 Y-3.564
X-71.245 Y-3.432
X-71.208 Y-3.291
X-71.185 Y-3.145
X-71.175 Y-2.958
Y2.958
X-71.185 Y3.145
X-71.208 Y3.291
X-71.245 Y3.432
X-71.295 Y3.564
X-71.355 Y3.686
X-71.427 Y3.801
X-71.508 Y3.908
X-71.595 Y4.003
X-71.685 Y4.084
X-71.786 Y4.161
X-71.898 Y4.231
X-72.019 Y4.291
X-72.146 Y4.34
X-72.233 Y4.364
X-72.282 Y4.377
X-72.449 Y4.405
X-72.505 Y4.41
X-72.588 Y4.412
X-72.67 Y4.41
X-72.726 Y4.405
X-72.893 Y4.377
X-73.029 Y4.34
X-73.156 Y4.291
X-73.277 Y4.231
X-73.389 Y4.161
X-73.49 Y4.084
X-73.58 Y4.003
X-73.667 Y3.908
X-73.748 Y3.801
X-73.82 Y3.686
X-73.88 Y3.564
X-73.93 Y3.432
X-73.967 Y3.291
X-73.99 Y3.145
X-74 Y2.958
Y-2.203
S5000
Y-2.958 Z12.974 F333.3
X-73.99 Y-3.145 Z12.967
X-73.967 Y-3.291 Z12.962
X-73.93 Y-3.432 Z12.957
X-73.88 Y-3.564 Z12.952
X-73.82 Y-3.686 Z12.947
X-73.748 Y-3.801 Z12.942
X-73.667 Y-3.908 Z12.938
X-73.58 Y-4.003 Z12.933
X-73.49 Y-4.084 Z12.929
X-73.389 Y-4.161 Z12.925
X-73.277 Y-4.231 Z12.92
X-73.156 Y-4.291 Z12.915
X-73.029 Y-4.34 Z12.911
X-72.893 Y-4.377 Z12.906
X-72.726 Y-4.405 Z12.9
X-72.67 Y-4.41 Z12.898
X-72.588 Y-4.412 Z12.895
X-72.505 Y-4.41 Z12.892
X-72.449 Y-4.405 Z12.89
X-72.282 Y-4.377 Z12.884
X-72.146 Y-4.34 Z12.879
X-72.019 Y-4.291 Z12.874
X-71.898 Y-4.231 Z12.87
X-71.786 Y-4.161 Z12.865
X-71.685 Y-4.084 Z12.861
X-71.595 Y-4.003 Z12.856
X-71.508 Y-3.908 Z12.852
X-71.427 Y-3.801 Z12.847
X-71.355 Y-3.686 Z12.843
X-71.295 Y-3.564 Z12.838
X-71.245 Y-3.432 Z12.833
X-71.208 Y-3.291 Z12.828
X-71.185 Y-3.145 Z12.823
X-71.175 Y-2.958 Z12.816
Y2.958 Z12.609
X-71.185 Y3.145 Z12.603
X-71.208 Y3.291 Z12.598
X-71.245 Y3.432 Z12.593
X-71.295 Y3.564 Z12.588
X-71.355 Y3.686 Z12.583
X-71.427 Y3.801 Z12.578
X-71.508 Y3.908 Z12.574
X-71.595 Y4.003 Z12.569
X-71.685 Y4.084 Z12.565
X-71.786 Y4.161 Z12.56
X-71.898 Y4.231 Z12.556
X-72.019 Y4.291 Z12.551
X-72.146 Y4.34 Z12.546
X-72.282 Y4.377 Z12.541
X-72.449 Y4.405 Z12.535
X-72.505 Y4.41 Z12.534
X-72.588 Y4.412 Z12.531
X-72.67 Y4.41 Z12.528
X-72.726 Y4.405 Z12.526
X-72.893 Y4.377 Z12.52
X-73.029 Y4.34 Z12.515
X-73.156 Y4.291 Z12.51
X-73.277 Y4.231 Z12.505
X-73.389 Y4.161 Z12.501
X-73.49 Y4.084 Z12.496
X-73.58 Y4.003 Z12.492
X-73.667 Y3.908 Z12.488
X-73.748 Y3.801 Z12.483
X-73.82 Y3.686 Z12.478
X-73.88 Y3.564 Z12.474
X-73.93 Y3.432 Z12.469
X-73.967 Y3.291 Z12.463
X-73.99 Y3.145 Z12.458
X-74 Y2.958 Z12.452
Y-2.958 Z12.245
X-73.99 Y-3.145 Z12.239
X-73.967 Y-3.291 Z12.234
X-73.93 Y-3.432 Z12.228
X-73.88 Y-3.564 Z12.224
X-73.82 Y-3.686 Z12.219
X-73.748 Y-3.801 Z12.214
X-73.667 Y-3.908 Z12.209
X-73.58 Y-4.003 Z12.205
X-73.49 Y-4.084 Z12.201
X-73.389 Y-4.161 Z12.196
X-73.277 Y-4.231 Z12.192
X-73.156 Y-4.291 Z12.187
X-73.029 Y-4.34 Z12.182
X-72.893 Y-4.377 Z12.177
X-72.726 Y-4.405 Z12.171
X-72.67 Y-4.41 Z12.169
X-72.588 Y-4.412 Z12.166
X-72.505 Y-4.41 Z12.164
X-72.449 Y-4.405 Z12.162
X-72.282 Y-4.377 Z12.156
X-72.146 Y-4.34 Z12.151
X-72.019 Y-4.291 Z12.146
X-71.898 Y-4.231 Z12.141
X-71.786 Y-4.161 Z12.137
X-71.685 Y-4.084 Z12.132
X-71.595 Y-4.003 Z12.128
X-71.508 Y-3.908 Z12.123
X-71.427 Y-3.801 Z12.119
X-71.355 Y-3.686 Z12.114
X-71.295 Y-3.564 Z12.109
X-71.245 Y-3.432 Z12.104
X-71.208 Y-3.291 Z12.099
X-71.185 Y-3.145 Z12.094
X-71.175 Y-2.958 Z12.088
Y-0.45 Z12
S6000
Y2.958 F1000
X-71.185 Y3.145
X-71.208 Y3.291
X-71.245 Y3.432
X-71.295 Y3.564
X-71.355 Y3.686
X-71.427 Y3.801
X-71.508 Y3.908
X-71.595 Y4.003
X-71.685 Y4.084
X-71.786 Y4.161
X-71.898 Y4.231
X-72.019 Y4.291
X-72.146 Y4.34
X-72.282 Y4.377
X-72.449 Y4.405
X-72.505 Y4.41
X-72.588 Y4.412
X-72.67 Y4.41
X-72.726 Y4.405
X-72.893 Y4.377
X-73.029 Y4.34
X-73.156 Y4.291
X-73.277 Y4.231
X-73.389 Y4.161
X-73.49 Y4.084
X-73.58 Y4.003
X-73.667 Y3.908
X-73.748 Y3.801
X-73.82 Y3.686
X-73.88 Y3.564
X-73.93 Y3.432
X-73.967 Y3.291
X-73.99 Y3.145
X-74 Y2.958
Y-2.203
Y-2.958
X-73.99 Y-3.145
X-73.967 Y-3.291
X-73.93 Y-3.432
X-73.88 Y-3.564
X-73.82 Y-3.686
X-73.748 Y-3.801
X-73.667 Y-3.908
X-73.58 Y-4.003
X-73.49 Y-4.084
X-73.389 Y-4.161
X-73.277 Y-4.231
X-73.156 Y-4.291
X-73.029 Y-4.34
X-72.893 Y-4.377
X-72.726 Y-4.405
X-72.67 Y-4.41
X-72.588 Y-4.412
X-72.505 Y-4.41
X-72.449 Y-4.405
X-72.282 Y-4.377
X-72.146 Y-4.34
X-72.019 Y-4.291
X-71.898 Y-4.231
X-71.786 Y-4.161
X-71.685 Y-4.084
X-71.595 Y-4.003
X-71.508 Y-3.908
X-71.427 Y-3.801
X-71.355 Y-3.686
X-71.295 Y-3.564
X-71.245 Y-3.432
X-71.208 Y-3.291
X-71.185 Y-3.145
X-71.175 Y-2.958
Y-0.45
S5000
Y2.958 Z11.881 F333.3
X-71.185 Y3.145 Z11.874
X-71.208 Y3.291 Z11.869
X-71.245 Y3.432 Z11.864
X-71.295 Y3.564 Z11.859
X-71.355 Y3.686 Z11.855
X-71.427 Y3.801 Z11.85
X-71.508 Y3.908 Z11.845
X-71.595 Y4.003 Z11.841
X-71.685 Y4.084 Z11.836
X-71.786 Y4.161 Z11.832
X-71.898 Y4.231 Z11.827
X-72.019 Y4.291 Z11.823
X-72.146 Y4.34 Z11.818
X-72.282 Y4.377 Z11.813
X-72.449 Y4.405 Z11.807
X-72.505 Y4.41 Z11.805
X-72.588 Y4.412 Z11.802
X-72.67 Y4.41 Z11.799
X-72.726 Y4.405 Z11.797
X-72.893 Y4.377 Z11.791
X-73.029 Y4.34 Z11.787
X-73.156 Y4.291 Z11.782
X-73.277 Y4.231 Z11.777
X-73.389 Y4.161 Z11.772
X-73.49 Y4.084 Z11.768
X-73.58 Y4.003 Z11.764
X-73.667 Y3.908 Z11.759
X-73.748 Y3.801 Z11.755
X-73.82 Y3.686 Z11.75
X-73.88 Y3.564 Z11.745
X-73.93 Y3.432 Z11.74
X-73.967 Y3.291 Z11.735
X-73.99 Y3.145 Z11.73
X-74 Y2.958 Z11.723
Y-2.958 Z11.517
X-73.99 Y-3.145 Z11.51
X-73.967 Y-3.291 Z11.505
X-73.93 Y-3.432 Z11.5
X-73.88 Y-3.564 Z11.495
X-73.82 Y-3.686 Z11.49
X-73.748 Y-3.801 Z11.486
X-73.667 Y-3.908 Z11.481
X-73.58 Y-4.003 Z11.476
X-73.49 Y-4.084 Z11.472
X-73.389 Y-4.161 Z11.468
X-73.277 Y-4.231 Z11.463
X-73.156 Y-4.291 Z11.458
X-73.029 Y-4.34 Z11.454
X-72.893 Y-4.377 Z11.449
X-72.726 Y-4.405 Z11.443
X-72.67 Y-4.41 Z11.441
X-72.588 Y-4.412 Z11.438
X-72.505 Y-4.41 Z11.435
X-72.449 Y-4.405 Z11.433
X-72.282 Y-4.377 Z11.427
X-72.146 Y-4.34 Z11.422
X-72.019 Y-4.291 Z11.418
X-71.898 Y-4.231 Z11.413
X-71.786 Y-4.161 Z11.408
X-71.685 Y-4.084 Z11.404
X-71.595 Y-4.003 Z11.4
X-71.508 Y-3.908 Z11.395
X-71.427 Y-3.801 Z11.39
X-71.355 Y-3.686 Z11.386
X-71.295 Y-3.564 Z11.381
X-71.245 Y-3.432 Z11.376
X-71.208 Y-3.291 Z11.371
X-71.185 Y-3.145 Z11.366
X-71.175 Y-2.958 Z11.359
Y2.958 Z11.153
X-71.185 Y3.145 Z11.146
X-71.208 Y3.291 Z11.141
X-71.245 Y3.432 Z11.136
X-71.295 Y3.564 Z11.131
X-71.355 Y3.686 Z11.126
X-71.427 Y3.801 Z11.121
X-71.508 Y3.908 Z11.117
X-71.595 Y4.003 Z11.112
X-71.685 Y4.084 Z11.108
X-71.786 Y4.161 Z11.104
X-71.898 Y4.231 Z11.099
X-72.019 Y4.291 Z11.094
X-72.146 Y4.34 Z11.089
X-72.282 Y4.377 Z11.085
X-72.449 Y4.405 Z11.079
X-72.505 Y4.41 Z11.077
X-72.588 Y4.412 Z11.074
X-72.67 Y4.41 Z11.071
X-72.726 Y4.405 Z11.069
X-72.893 Y4.377 Z11.063
X-73.029 Y4.34 Z11.058
X-73.156 Y4.291 Z11.053
X-73.277 Y4.231 Z11.049
X-73.389 Y4.161 Z11.044
X-73.49 Y4.084 Z11.04
X-73.58 Y4.003 Z11.035
X-73.667 Y3.908 Z11.031
X-73.748 Y3.801 Z11.026
X-73.82 Y3.686 Z11.021
X-73.88 Y3.564 Z11.017
X-73.93 Y3.432 Z11.012
X-73.967 Y3.291 Z11.007
X-73.99 Y3.145 Z11.002
X-73.992 Y3.102 Z11
S6000
X-74 Y2.958 F1000
Y-2.958
X-73.99 Y-3.145
X-73.967 Y-3.291
X-73.93 Y-3.432
X-73.88 Y-3.564
X-73.82 Y-3.686
X-73.748 Y-3.801
X-73.667 Y-3.908
X-73.58 Y-4.003
X-73.49 Y-4.084
X-73.389 Y-4.161
X-73.277 Y-4.231
X-73.156 Y-4.291
X-73.029 Y-4.34
X-72.893 Y-4.377
X-72.726 Y-4.405
X-72.67 Y-4.41
X-72.588 Y-4.412
X-72.505 Y-4.41
X-72.449 Y-4.405
X-72.282 Y-4.377
X-72.146 Y-4.34
X-72.019 Y-4.291
X-71.898 Y-4.231
X-71.786 Y-4.161
X-71.685 Y-4.084
X-71.595 Y-4.003
X-71.508 Y-3.908
X-71.427 Y-3.801
X-71.355 Y-3.686
X-71.295 Y-3.564
X-71.245 Y-3.432
X-71.208 Y-3.291
X-71.185 Y-3.145
X-71.175 Y-2.958
Y2.958
X-71.185 Y3.145
X-71.208 Y3.291
X-71.245 Y3.432
X-71.295 Y3.564
X-71.355 Y3.686
X-71.427 Y3.801
X-71.508 Y3.908
X-71.595 Y4.003
X-71.685 Y4.084
X-71.786 Y4.161
X-71.898 Y4.231
X-72.019 Y4.291
X-72.146 Y4.34
X-72.282 Y4.377
X-72.449 Y4.405
X-72.505 Y4.41
X-72.588 Y4.412
X-72.67 Y4.41
X-72.726 Y4.405
X-72.893 Y4.377
X-73.029 Y4.34
X-73.156 Y4.291
X-73.277 Y4.231
X-73.389 Y4.161
X-73.49 Y4.084
X-73.58 Y4.003
X-73.667 Y3.908
X-73.748 Y3.801
X-73.82 Y3.686
X-73.88 Y3.564
X-73.93 Y3.432
X-73.967 Y3.291
X-73.99 Y3.145
X-73.992 Y3.102
S5000
X-74 Y2.958 Z10.995 F333.3
Y-2.958 Z10.788
X-73.99 Y-3.145 Z10.782
X-73.967 Y-3.291 Z10.777
X-73.93 Y-3.432 Z10.772
X-73.88 Y-3.564 Z10.767
X-73.82 Y-3.686 Z10.762
X-73.748 Y-3.801 Z10.757
X-73.667 Y-3.908 Z10.752
X-73.58 Y-4.003 Z10.748
X-73.49 Y-4.084 Z10.744
X-73.389 Y-4.161 Z10.739
X-73.277 Y-4.231 Z10.735
X-73.156 Y-4.291 Z10.73
X-73.029 Y-4.34 Z10.725
X-72.893 Y-4.377 Z10.72
X-72.726 Y-4.405 Z10.714
X-72.67 Y-4.41 Z10.712
X-72.588 Y-4.412 Z10.71
X-72.505 Y-4.41 Z10.707
X-72.449 Y-4.405 Z10.705
X-72.282 Y-4.377 Z10.699
X-72.146 Y-4.34 Z10.694
X-72.019 Y-4.291 Z10.689
X-71.898 Y-4.231 Z10.684
X-71.786 Y-4.161 Z10.68
X-71.685 Y-4.084 Z10.675
X-71.595 Y-4.003 Z10.671
X-71.508 Y-3.908 Z10.667
X-71.427 Y-3.801 Z10.662
X-71.355 Y-3.686 Z10.657
X-71.295 Y-3.564 Z10.652
X-71.245 Y-3.432 Z10.648
X-71.208 Y-3.291 Z10.642
X-71.185 Y-3.145 Z10.637
X-71.175 Y-2.958 Z10.631
Y0.786 Z10.5
S6000
Y2.958 F1000
X-71.185 Y3.145
X-71.208 Y3.291
X-71.245 Y3.432
X-71.295 Y3.564
X-71.355 Y3.686
X-71.427 Y3.801
X-71.508 Y3.908
X-71.595 Y4.003
X-71.685 Y4.084
X-71.786 Y4.161
X-71.898 Y4.231
X-72.019 Y4.291
X-72.146 Y4.34
X-72.282 Y4.377
X-72.449 Y4.405
X-72.505 Y4.41
X-72.588 Y4.412
X-72.67 Y4.41
X-72.726 Y4.405
X-72.893 Y4.377
X-73.029 Y4.34
X-73.156 Y4.291
X-73.277 Y4.231
X-73.389 Y4.161
X-73.49 Y4.084
X-73.58 Y4.003
X-73.667 Y3.908
X-73.748 Y3.801
X-73.82 Y3.686
X-73.88 Y3.564
X-73.93 Y3.432
X-73.967 Y3.291
X-73.99 Y3.145
X-74 Y2.958
Y-2.958
X-73.99 Y-3.145
X-73.967 Y-3.291
X-73.93 Y-3.432
X-73.88 Y-3.564
X-73.82 Y-3.686
X-73.748 Y-3.801
X-73.667 Y-3.908
X-73.58 Y-4.003
X-73.49 Y-4.084
X-73.389 Y-4.161
X-73.277 Y-4.231
X-73.156 Y-4.291
X-73.029 Y-4.34
X-72.893 Y-4.377
X-72.726 Y-4.405
X-72.67 Y-4.41
X-72.588 Y-4.412
X-72.505 Y-4.41
X-72.449 Y-4.405
X-72.282 Y-4.377
X-72.146 Y-4.34
X-72.019 Y-4.291
X-71.898 Y-4.231
X-71.786 Y-4.161
X-71.685 Y-4.084
X-71.595 Y-4.003
X-71.508 Y-3.908
X-71.427 Y-3.801
X-71.355 Y-3.686
X-71.295 Y-3.564
X-71.245 Y-3.432
X-71.208 Y-3.291
X-71.185 Y-3.145
X-71.175 Y-2.958
Y0.786
Z31
(When using Fusion 360 for Personal Use, the feedrate of)
(rapid moves is reduced to match the feedrate of cutting)
(moves, which can increase machining time. Unrestricted rapid)
(moves are available with a Fusion 360 Subscription.)

(2D-Kontur2)
G0 X-248.176 Y-9
G1 Z31 F1000
Z21
Z18 F333.3
Z17
S5000
Y9 Z16.5
Y-9 Z16
Y9 Z15.5
Y-9 Z15
S6000
Y9 F1000
S5000
Y-9 Z14.667 F333.3
Y9 Z14.333
Y-9 Z14
S6000
Y9 F1000
S5000
Y-9 Z13.667 F333.3
Y9 Z13.333
Y-9 Z13
S6000
Y9 F1000
S5000
Y-9 Z12.667 F333.3
Y9 Z12.333
Y-9 Z12
S6000
Y9 F1000
S5000
Y-9 Z11.667 F333.3
Y9 Z11.333
Y-9 Z11
S6000
Y9 F1000
S5000
Y-9 Z10.667 F333.3
Y9 Z10.333
Y-9 Z10
S6000
Y9 F1000
S5000
Y-9 Z9.667 F333.3
Y9 Z9.333
Y-9 Z9
S6000
Y9 F1000
S5000
Y-9 Z8.667 F333.3
Y9 Z8.333
Y-9 Z8
S6000
Y9 F1000
S5000
Y-9 Z7.667 F333.3
Y9 Z7.333
Y-9 Z7
S6000
Y9 F1000
S5000
Y-9 Z6.667 F333.3
Y9 Z6.333
Y-9 Z6
S6000
Y9 F1000
S5000
Y-9 Z5.667 F333.3
Y9 Z5.333
Y-9 Z5
S6000
Y9 F1000
S5000
Y-9 Z4.667 F333.3
Y9 Z4.333
Y-9 Z4
S6000
Y9 F1000
S5000
Y-9 Z3.667 F333.3
Y9 Z3.333
Y-9 Z3
S6000
Y9 F1000
S5000
Y-9 Z2.667 F333.3
Y9 Z2.333
Y-9 Z2
S6000
Y9 F1000
S5000
Y-9 Z1.667 F333.3
Y9 Z1.333
Y-9 Z1
S6000
Y9 F1000
S5000
Y-9 Z0.667 F333.3
Y9 Z0.333
Y-9 Z0
S6000
Y9 F1000
S5000
Y-9 Z-0.4 F333.3
S6000
Y9 F1000
Z31
M5
M30
