(1001)
(Bearbeiten)
(  Hersteller: ChinaCnc)
(  model: 3040T)
(  description: Generic 3-axis)
(T14  D=1.5 CR=0 - ZMIN=-3.3 - Schaftfraser)
G90 G94
G17
G21
G28 G91 Z0
G90

(Bohrfrasen18)
T14
S6000 M3
G54
G0 X-15.728 Y-8
Z15
Z2
G1 Z0 F400
X-15.533
X-15.508 Y-7.965
X-15.495 Y-7.924
Y-7.881
X-15.508 Y-7.84
X-15.533 Y-7.806
G3 X-15.922 Y-8.194 Z-0.15 I-0.194 J-0.194 F600
X-15.533 Y-7.806 Z-0.3 I0.194 J0.194
X-15.922 Y-8.194 Z-0.45 I-0.194 J-0.194
X-15.533 Y-7.806 Z-0.6 I0.194 J0.194
X-15.922 Y-8.194 Z-0.75 I-0.194 J-0.194
X-15.533 Y-7.806 Z-0.9 I0.194 J0.194
X-15.922 Y-8.194 Z-1.05 I-0.194 J-0.194
X-15.533 Y-7.806 Z-1.2 I0.194 J0.194
X-15.922 Y-8.194 Z-1.35 I-0.194 J-0.194
X-15.533 Y-7.806 Z-1.5 I0.194 J0.194
X-15.922 Y-8.194 Z-1.65 I-0.194 J-0.194
X-15.533 Y-7.806 Z-1.8 I0.194 J0.194
X-15.922 Y-8.194 Z-1.95 I-0.194 J-0.194
X-15.533 Y-7.806 Z-2.1 I0.194 J0.194
X-15.922 Y-8.194 Z-2.25 I-0.194 J-0.194
X-15.533 Y-7.806 Z-2.4 I0.194 J0.194
X-15.922 Y-8.194 Z-2.55 I-0.194 J-0.194
X-15.533 Y-7.806 Z-2.7 I0.194 J0.194
X-15.922 Y-8.194 Z-2.85 I-0.194 J-0.194
X-15.533 Y-7.806 Z-3 I0.194 J0.194
X-15.922 Y-8.194 Z-3.15 I-0.194 J-0.194
X-15.533 Y-7.806 Z-3.3 I0.194 J0.194
X-15.922 Y-8.194 I-0.194 J-0.194
X-15.533 Y-7.806 I0.194 J0.194
G1 X-15.568 Y-7.78
X-15.609 Y-7.767
X-15.652
X-15.693 Y-7.78
X-15.728 Y-7.806
Y-8
G0 Z5
X-27.086
Z2
G1 Z0 F400
X-26.538 Y-7.664
X-26.51 Y-7.626
X-26.496 Y-7.582
Y-7.535
X-26.51 Y-7.49
X-26.538 Y-7.452
G3 X-27.634 Y-8.548 Z-0.15 I-0.548 J-0.548 F600
X-26.538 Y-7.452 Z-0.3 I0.548 J0.548
X-27.634 Y-8.548 Z-0.45 I-0.548 J-0.548
X-26.538 Y-7.452 Z-0.6 I0.548 J0.548
X-27.634 Y-8.548 Z-0.75 I-0.548 J-0.548
X-26.538 Y-7.452 Z-0.9 I0.548 J0.548
X-27.634 Y-8.548 Z-1.05 I-0.548 J-0.548
X-26.538 Y-7.452 Z-1.2 I0.548 J0.548
X-27.634 Y-8.548 Z-1.35 I-0.548 J-0.548
X-26.538 Y-7.452 Z-1.5 I0.548 J0.548
X-27.634 Y-8.548 Z-1.65 I-0.548 J-0.548
X-26.538 Y-7.452 Z-1.8 I0.548 J0.548
X-27.634 Y-8.548 Z-1.95 I-0.548 J-0.548
X-26.538 Y-7.452 Z-2.1 I0.548 J0.548
X-27.634 Y-8.548 Z-2.25 I-0.548 J-0.548
X-26.538 Y-7.452 Z-2.4 I0.548 J0.548
X-27.634 Y-8.548 Z-2.55 I-0.548 J-0.548
X-26.538 Y-7.452 Z-2.7 I0.548 J0.548
X-27.634 Y-8.548 Z-2.85 I-0.548 J-0.548
X-26.538 Y-7.452 Z-3 I0.548 J0.548
X-27.634 Y-8.548 Z-3.15 I-0.548 J-0.548
X-26.538 Y-7.452 Z-3.3 I0.548 J0.548
X-27.634 Y-8.548 I-0.548 J-0.548
X-26.538 Y-7.452 I0.548 J0.548
G1 X-26.576 Y-7.424
X-26.62 Y-7.41
X-26.667
X-26.712 Y-7.424
X-26.75 Y-7.452
X-27.086 Y-8
G0 Z5
X-62.043 Y-11.182
Z2
G1 Z0 F400
X-61.849
X-61.824 Y-11.147
X-61.81 Y-11.106
Y-11.063
X-61.824 Y-11.022
X-61.849 Y-10.988
G3 X-62.238 Y-11.376 Z-0.15 I-0.194 J-0.194 F600
X-61.849 Y-10.988 Z-0.3 I0.194 J0.194
X-62.238 Y-11.376 Z-0.45 I-0.194 J-0.194
X-61.849 Y-10.988 Z-0.6 I0.194 J0.194
X-62.238 Y-11.376 Z-0.75 I-0.194 J-0.194
X-61.849 Y-10.988 Z-0.9 I0.194 J0.194
X-62.238 Y-11.376 Z-1.05 I-0.194 J-0.194
X-61.849 Y-10.988 Z-1.2 I0.194 J0.194
X-62.238 Y-11.376 Z-1.35 I-0.194 J-0.194
X-61.849 Y-10.988 Z-1.5 I0.194 J0.194
X-62.238 Y-11.376 Z-1.65 I-0.194 J-0.194
X-61.849 Y-10.988 Z-1.8 I0.194 J0.194
X-62.238 Y-11.376 Z-1.95 I-0.194 J-0.194
X-61.849 Y-10.988 Z-2.1 I0.194 J0.194
X-62.238 Y-11.376 Z-2.25 I-0.194 J-0.194
X-61.849 Y-10.988 Z-2.4 I0.194 J0.194
X-62.238 Y-11.376 Z-2.55 I-0.194 J-0.194
X-61.849 Y-10.988 Z-2.7 I0.194 J0.194
X-62.238 Y-11.376 Z-2.85 I-0.194 J-0.194
X-61.849 Y-10.988 Z-3 I0.194 J0.194
X-62.238 Y-11.376 Z-3.15 I-0.194 J-0.194
X-61.849 Y-10.988 Z-3.3 I0.194 J0.194
X-62.238 Y-11.376 I-0.194 J-0.194
X-61.849 Y-10.988 I0.194 J0.194
G1 X-61.884 Y-10.962
X-61.925 Y-10.949
X-61.968
X-62.009 Y-10.962
X-62.043 Y-10.988
Y-11.182
G0 Z5
X-68.407
Z2
G1 Z0 F400
X-68.213
X-68.188 Y-11.147
X-68.174 Y-11.106
Y-11.063
X-68.188 Y-11.022
X-68.213 Y-10.988
G3 X-68.602 Y-11.376 Z-0.15 I-0.194 J-0.194 F600
X-68.213 Y-10.988 Z-0.3 I0.194 J0.194
X-68.602 Y-11.376 Z-0.45 I-0.194 J-0.194
X-68.213 Y-10.988 Z-0.6 I0.194 J0.194
X-68.602 Y-11.376 Z-0.75 I-0.194 J-0.194
X-68.213 Y-10.988 Z-0.9 I0.194 J0.194
X-68.602 Y-11.376 Z-1.05 I-0.194 J-0.194
X-68.213 Y-10.988 Z-1.2 I0.194 J0.194
X-68.602 Y-11.376 Z-1.35 I-0.194 J-0.194
X-68.213 Y-10.988 Z-1.5 I0.194 J0.194
X-68.602 Y-11.376 Z-1.65 I-0.194 J-0.194
X-68.213 Y-10.988 Z-1.8 I0.194 J0.194
X-68.602 Y-11.376 Z-1.95 I-0.194 J-0.194
X-68.213 Y-10.988 Z-2.1 I0.194 J0.194
X-68.602 Y-11.376 Z-2.25 I-0.194 J-0.194
X-68.213 Y-10.988 Z-2.4 I0.194 J0.194
X-68.602 Y-11.376 Z-2.55 I-0.194 J-0.194
X-68.213 Y-10.988 Z-2.7 I0.194 J0.194
X-68.602 Y-11.376 Z-2.85 I-0.194 J-0.194
X-68.213 Y-10.988 Z-3 I0.194 J0.194
X-68.602 Y-11.376 Z-3.15 I-0.194 J-0.194
X-68.213 Y-10.988 Z-3.3 I0.194 J0.194
X-68.602 Y-11.376 I-0.194 J-0.194
X-68.213 Y-10.988 I0.194 J0.194
G1 X-68.248 Y-10.962
X-68.289 Y-10.949
X-68.332
X-68.373 Y-10.962
X-68.407 Y-10.988
Y-11.182
G0 Z5
Y-4.818
Z2
G1 Z0 F400
X-68.213
X-68.188 Y-4.783
X-68.174 Y-4.742
Y-4.699
X-68.188 Y-4.658
X-68.213 Y-4.624
G3 X-68.602 Y-5.012 Z-0.15 I-0.194 J-0.194 F600
X-68.213 Y-4.624 Z-0.3 I0.194 J0.194
X-68.602 Y-5.012 Z-0.45 I-0.194 J-0.194
X-68.213 Y-4.624 Z-0.6 I0.194 J0.194
X-68.602 Y-5.012 Z-0.75 I-0.194 J-0.194
X-68.213 Y-4.624 Z-0.9 I0.194 J0.194
X-68.602 Y-5.012 Z-1.05 I-0.194 J-0.194
X-68.213 Y-4.624 Z-1.2 I0.194 J0.194
X-68.602 Y-5.012 Z-1.35 I-0.194 J-0.194
X-68.213 Y-4.624 Z-1.5 I0.194 J0.194
X-68.602 Y-5.012 Z-1.65 I-0.194 J-0.194
X-68.213 Y-4.624 Z-1.8 I0.194 J0.194
X-68.602 Y-5.012 Z-1.95 I-0.194 J-0.194
X-68.213 Y-4.624 Z-2.1 I0.194 J0.194
X-68.602 Y-5.012 Z-2.25 I-0.194 J-0.194
X-68.213 Y-4.624 Z-2.4 I0.194 J0.194
X-68.602 Y-5.012 Z-2.55 I-0.194 J-0.194
X-68.213 Y-4.624 Z-2.7 I0.194 J0.194
X-68.602 Y-5.012 Z-2.85 I-0.194 J-0.194
X-68.213 Y-4.624 Z-3 I0.194 J0.194
X-68.602 Y-5.012 Z-3.15 I-0.194 J-0.194
X-68.213 Y-4.624 Z-3.3 I0.194 J0.194
X-68.602 Y-5.012 I-0.194 J-0.194
X-68.213 Y-4.624 I0.194 J0.194
G1 X-68.248 Y-4.598
X-68.289 Y-4.585
X-68.332
X-68.373 Y-4.598
X-68.407 Y-4.624
Y-4.818
G0 Z5
X-65.225 Y-8
Z2
G1 Z0 F400
X-64.2 Y-7.187
X-64.173 Y-7.149
X-64.158 Y-7.104
Y-7.057
X-64.173 Y-7.013
X-64.2 Y-6.975
G3 X-66.251 Y-9.025 Z-0.15 I-1.025 J-1.025 F600
X-64.2 Y-6.975 Z-0.3 I1.025 J1.025
X-66.251 Y-9.025 Z-0.45 I-1.025 J-1.025
X-64.2 Y-6.975 Z-0.6 I1.025 J1.025
X-66.251 Y-9.025 Z-0.75 I-1.025 J-1.025
X-64.2 Y-6.975 Z-0.9 I1.025 J1.025
X-66.251 Y-9.025 Z-1.05 I-1.025 J-1.025
X-64.2 Y-6.975 Z-1.2 I1.025 J1.025
X-66.251 Y-9.025 Z-1.35 I-1.025 J-1.025
X-64.2 Y-6.975 Z-1.5 I1.025 J1.025
X-66.251 Y-9.025 Z-1.65 I-1.025 J-1.025
X-64.2 Y-6.975 Z-1.8 I1.025 J1.025
X-66.251 Y-9.025 Z-1.95 I-1.025 J-1.025
X-64.2 Y-6.975 Z-2.1 I1.025 J1.025
X-66.251 Y-9.025 Z-2.25 I-1.025 J-1.025
X-64.2 Y-6.975 Z-2.4 I1.025 J1.025
X-66.251 Y-9.025 Z-2.55 I-1.025 J-1.025
X-64.2 Y-6.975 Z-2.7 I1.025 J1.025
X-66.251 Y-9.025 Z-2.85 I-1.025 J-1.025
X-64.2 Y-6.975 Z-3 I1.025 J1.025
X-66.251 Y-9.025 Z-3.15 I-1.025 J-1.025
X-64.2 Y-6.975 Z-3.3 I1.025 J1.025
X-66.251 Y-9.025 I-1.025 J-1.025
X-64.2 Y-6.975 I1.025 J1.025
G1 X-64.238 Y-6.947
X-64.283 Y-6.933
X-64.33
X-64.374 Y-6.947
X-64.412 Y-6.975
X-65.225 Y-8
G0 Z5
X-62.043 Y-4.818
Z2
G1 Z0 F400
X-61.849
X-61.824 Y-4.783
X-61.81 Y-4.742
Y-4.699
X-61.824 Y-4.658
X-61.849 Y-4.624
G3 X-62.238 Y-5.012 Z-0.15 I-0.194 J-0.194 F600
X-61.849 Y-4.624 Z-0.3 I0.194 J0.194
X-62.238 Y-5.012 Z-0.45 I-0.194 J-0.194
X-61.849 Y-4.624 Z-0.6 I0.194 J0.194
X-62.238 Y-5.012 Z-0.75 I-0.194 J-0.194
X-61.849 Y-4.624 Z-0.9 I0.194 J0.194
X-62.238 Y-5.012 Z-1.05 I-0.194 J-0.194
X-61.849 Y-4.624 Z-1.2 I0.194 J0.194
X-62.238 Y-5.012 Z-1.35 I-0.194 J-0.194
X-61.849 Y-4.624 Z-1.5 I0.194 J0.194
X-62.238 Y-5.012 Z-1.65 I-0.194 J-0.194
X-61.849 Y-4.624 Z-1.8 I0.194 J0.194
X-62.238 Y-5.012 Z-1.95 I-0.194 J-0.194
X-61.849 Y-4.624 Z-2.1 I0.194 J0.194
X-62.238 Y-5.012 Z-2.25 I-0.194 J-0.194
X-61.849 Y-4.624 Z-2.4 I0.194 J0.194
X-62.238 Y-5.012 Z-2.55 I-0.194 J-0.194
X-61.849 Y-4.624 Z-2.7 I0.194 J0.194
X-62.238 Y-5.012 Z-2.85 I-0.194 J-0.194
X-61.849 Y-4.624 Z-3 I0.194 J0.194
X-62.238 Y-5.012 Z-3.15 I-0.194 J-0.194
X-61.849 Y-4.624 Z-3.3 I0.194 J0.194
X-62.238 Y-5.012 I-0.194 J-0.194
X-61.849 Y-4.624 I0.194 J0.194
G1 X-61.884 Y-4.598
X-61.925 Y-4.585
X-61.968
X-62.009 Y-4.598
X-62.043 Y-4.624
Y-4.818
G0 Z15

(2D-Kontur7)
X-79.913 Y-7.438
Z15
Z5
G1 Z1.25 F300
Z0.5
X-79.898 Y-7.376 Z0.498 F1016
X-79.838 Y-7.168 Z0.49
X-79.813 Y-7.095 Z0.488
X-79.729 Y-6.888 Z0.48
X-79.7 Y-6.824 Z0.477
X-79.593 Y-6.618 Z0.469
X-79.561 Y-6.563 Z0.467
X-79.432 Y-6.358 Z0.458
X-79.399 Y-6.31 Z0.456
X-79.247 Y-6.106 Z0.448
X-79.215 Y-6.066 Z0.446
X-79.042 Y-5.864 Z0.436
X-79.011 Y-5.83 Z0.435
X-78.817 Y-5.63 Z0.425
X-78.788 Y-5.601 Z0.424
X-78.574 Y-5.402 Z0.414
X-78.547 Y-5.378 Z0.412
X-78.313 Y-5.182 Z0.402
X-78.288 Y-5.162 Z0.4
X-78.036 Y-4.968 Z0.389
X-78.013 Y-4.95 Z0.388
X-77.743 Y-4.759 Z0.377
X-77.722 Y-4.744 Z0.376
X-77.436 Y-4.556 Z0.364
X-77.416 Y-4.543 Z0.363
X-77.115 Y-4.358 Z0.351
X-77.097 Y-4.347 Z0.35
X-76.781 Y-4.165 Z0.337
X-76.756 Y-4.151 Z0.336
X-76.087 Y-3.8 Z0.31
X-76.056 Y-3.785 Z0.309
X-75.344 Y-3.451 Z0.281
X-75.316 Y-3.438 Z0.28
X-74.569 Y-3.124 Z0.252
X-74.544 Y-3.114 Z0.251
X-73.771 Y-2.821 Z0.222
X-73.748 Y-2.813 Z0.221
X-72.958 Y-2.543 Z0.192
X-72.936 Y-2.536 Z0.191
X-72.138 Y-2.29 Z0.162
X-72.116 Y-2.284 Z0.161
X-71.317 Y-2.065 Z0.132
X-71.295 Y-2.059
X-70.502 Y-1.866 Z0.103
X-70.48 Y-1.861 Z0.102
X-69.698 Y-1.696 Z0.074
X-69.676 Y-1.692
X-68.911 Y-1.555 Z0.046
X-68.888 Y-1.551
X-68.144 Y-1.441 Z0.019
X-68.12 Y-1.438
X-67.398 Y-1.355 Z-0.007
X-67.373 Y-1.353 Z-0.008
X-66.672 Y-1.296 Z-0.032
X-66.648 Y-1.295 Z-0.033
X-65.966 Y-1.262 Z-0.057
X-65.942 Y-1.261 Z-0.058
X-65.274 Y-1.25 Z-0.081
X-65.253 Z-0.082
X-64.593 Y-1.258 Z-0.105
X-64.574 Y-1.259 Z-0.106
X-63.915 Y-1.283 Z-0.129
X-63.9
X-63.238 Y-1.321 Z-0.152
X-63.221 Y-1.322 Z-0.153
X-61.869 Y-1.43 Z-0.2
X-61.854 Y-1.431 Z-0.201
X-60.456 Y-1.569 Z-0.25
X-60.451 Y-1.57
X-60.447 F600
X-59.011 Y-1.731
X-59.004 Y-1.732
X-57.546 Y-1.909
X-57.54 Y-1.91
X-56.086 Y-2.1
X-56.078 Y-2.101
X-54.655 Y-2.302
X-54.645 Y-2.304
X-53.278 Y-2.515
X-53.267 Y-2.517
X-51.971 Y-2.736
X-51.962 Y-2.738
X-50.732 Y-2.961
X-50.73 Y-2.962
X-49.545 Y-3.181
X-48.365 Y-3.385
X-47.765 Y-3.478
X-47.144 Y-3.563
X-46.497 Y-3.64
X-45.817 Y-3.707
X-45.103 Y-3.764
X-44.352 Y-3.81
X-43.564 Y-3.846
X-42.742 Y-3.872
X-41.886 Y-3.887
X-41.002 Y-3.893
X-39.151 Y-3.877
X-37.226 Y-3.829
X-35.259 Y-3.757
X-33.288 Y-3.667
X-31.349 Y-3.57
X-29.477 Y-3.472
X-29.475
X-27.693 Y-3.383
X-27.688
X-26.005 Y-3.309
X-25.997
X-24.405 Y-3.255
X-24.395 Y-3.254
X-22.872 Y-3.223
X-22.86
X-21.382 Y-3.216
X-21.371
X-19.911 Y-3.232
X-19.9 Y-3.233
X-18.44 Y-3.269
X-18.432
X-16.962 Y-3.322
X-16.956 Y-3.323
X-15.472 Y-3.388
X-15.469
X-13.974 Y-3.46
X-12.471 Y-3.534
X-10.967 Y-3.603
X-9.47 Y-3.664
X-7.987 Y-3.71
X-6.524 Y-3.74
X-5.081 Y-3.75
G2 X-4.555 Y-3.97 I-0.005 J-0.75
G1 X-1.763 Y-6.763
G2 X-1.763 Y-9.237 I-1.237 J-1.237
G1 X-4.555 Y-12.03
G2 X-5.081 Y-12.25 I-0.53 J0.53
G1 X-6.524 Y-12.26
X-7.987 Y-12.29
X-9.47 Y-12.336
X-10.967 Y-12.397
X-12.471 Y-12.466
X-13.973 Y-12.54
X-15.469 Y-12.612
X-15.472
X-16.956 Y-12.677
X-16.962 Y-12.678
X-18.432 Y-12.731
X-18.44
X-19.9 Y-12.767
X-19.911 Y-12.768
X-21.371 Y-12.784
X-21.382
X-22.86 Y-12.777
X-22.872
X-24.395 Y-12.746
X-24.405 Y-12.745
X-25.997 Y-12.691
X-26.005
X-27.688 Y-12.617
X-27.693
X-29.475 Y-12.528
X-29.477
X-31.349 Y-12.43
X-33.288 Y-12.333
X-35.259 Y-12.243
X-37.226 Y-12.171
X-39.151 Y-12.123
X-41.002 Y-12.107
X-41.886 Y-12.113
X-42.742 Y-12.128
X-43.564 Y-12.154
X-44.352 Y-12.19
X-45.103 Y-12.236
X-45.817 Y-12.293
X-46.497 Y-12.36
X-47.144 Y-12.437
X-47.765 Y-12.522
X-48.365 Y-12.615
X-49.545 Y-12.819
X-50.73 Y-13.038
X-50.732 Y-13.039
X-51.962 Y-13.262
X-51.971 Y-13.264
X-53.267 Y-13.483
X-53.278 Y-13.485
X-54.645 Y-13.696
X-54.655 Y-13.698
X-56.078 Y-13.899
X-56.086 Y-13.9
X-57.54 Y-14.09
X-57.546 Y-14.091
X-59.004 Y-14.268
X-59.011 Y-14.269
X-60.447 Y-14.43
X-60.456 Y-14.431
X-61.854 Y-14.569
X-61.869 Y-14.57
X-63.221 Y-14.678
X-63.238 Y-14.679
X-63.9 Y-14.717
X-63.915
X-64.574 Y-14.741
X-64.593 Y-14.742
X-65.253 Y-14.75
X-65.274
X-65.942 Y-14.739
X-65.966 Y-14.738
X-66.648 Y-14.705
X-66.673 Y-14.704
X-67.373 Y-14.647
X-67.398 Y-14.645
X-68.12 Y-14.562
X-68.144 Y-14.559
X-68.888 Y-14.449
X-68.911 Y-14.445
X-69.676 Y-14.308
X-69.698 Y-14.304
X-70.48 Y-14.138
X-70.502 Y-14.134
X-71.295 Y-13.941
X-71.317 Y-13.935
X-72.116 Y-13.716
X-72.138 Y-13.71
X-72.936 Y-13.464
X-72.958 Y-13.457
X-73.748 Y-13.187
X-73.771 Y-13.179
X-74.544 Y-12.886
X-74.569 Y-12.876
X-75.316 Y-12.562
X-75.344 Y-12.549
X-76.056 Y-12.215
X-76.087 Y-12.2
X-76.756 Y-11.849
X-76.781 Y-11.835
X-77.097 Y-11.653
X-77.115 Y-11.642
X-77.416 Y-11.457
X-77.436 Y-11.444
X-77.722 Y-11.256
X-77.743 Y-11.241
X-78.013 Y-11.05
X-78.036 Y-11.032
X-78.288 Y-10.838
X-78.313 Y-10.818
X-78.547 Y-10.621
X-78.574 Y-10.598
X-78.788 Y-10.399
X-78.817 Y-10.37
X-79.011 Y-10.17
X-79.042 Y-10.136
X-79.215 Y-9.934
X-79.247 Y-9.894
X-79.399 Y-9.69
X-79.432 Y-9.642
X-79.561 Y-9.437
X-79.593 Y-9.382
X-79.7 Y-9.176
X-79.729 Y-9.112
X-79.813 Y-8.905
X-79.838 Y-8.832
X-79.898 Y-8.624
X-79.916 Y-8.544
X-79.952 Y-8.336
X-79.962 Y-8.252
X-79.974 Y-8.044
Y-7.956
X-79.962 Y-7.748
X-79.952 Y-7.664
X-79.916 Y-7.456
X-79.898 Y-7.376
X-79.838 Y-7.168
X-79.813 Y-7.095
X-79.729 Y-6.888
X-79.7 Y-6.824
X-79.593 Y-6.618
X-79.561 Y-6.563
X-79.432 Y-6.358
X-79.399 Y-6.31
X-79.247 Y-6.106
X-79.215 Y-6.066
X-79.042 Y-5.864
X-79.011 Y-5.83
X-78.817 Y-5.63
X-78.788 Y-5.601
X-78.574 Y-5.402
X-78.547 Y-5.378
X-78.313 Y-5.182
X-78.288 Y-5.162
X-78.036 Y-4.968
X-78.013 Y-4.95
X-77.743 Y-4.759
X-77.722 Y-4.744
X-77.436 Y-4.556
X-77.416 Y-4.543
X-77.115 Y-4.358
X-77.097 Y-4.347
X-76.781 Y-4.165
X-76.756 Y-4.151
X-76.087 Y-3.8
X-76.056 Y-3.785
X-75.344 Y-3.451
X-75.316 Y-3.438
X-74.569 Y-3.124
X-74.544 Y-3.114
X-73.771 Y-2.821
X-73.748 Y-2.813
X-72.958 Y-2.543
X-72.936 Y-2.536
X-72.138 Y-2.29
X-72.116 Y-2.284
X-71.317 Y-2.065
X-71.295 Y-2.059
X-70.502 Y-1.866
X-70.48 Y-1.861
X-69.698 Y-1.696
X-69.676 Y-1.692
X-68.911 Y-1.555
X-68.888 Y-1.551
X-68.144 Y-1.441
X-68.12 Y-1.438
X-67.398 Y-1.355
X-67.373 Y-1.353
X-66.672 Y-1.296
X-66.648 Y-1.295
X-65.966 Y-1.262
X-65.942 Y-1.261
X-65.274 Y-1.25
X-65.253
X-64.593 Y-1.258
X-64.574 Y-1.259
X-63.915 Y-1.283
X-63.9
X-63.238 Y-1.321
X-63.221 Y-1.322
X-61.869 Y-1.43
X-61.854 Y-1.431
X-60.456 Y-1.569
X-60.451 Y-1.57
X-60.447 F1016
X-59.011 Y-1.731 Z-0.301
X-59.004 Y-1.732
X-57.546 Y-1.909 Z-0.352
X-57.54 Y-1.91
X-56.086 Y-2.1 Z-0.404
X-56.078 Y-2.101
X-54.655 Y-2.302 Z-0.454
X-54.645 Y-2.304
X-53.354 Y-2.503 Z-0.5
X-53.278 Y-2.515 F600
X-53.267 Y-2.517
X-51.971 Y-2.736
X-51.962 Y-2.738
X-50.732 Y-2.961
X-50.73 Y-2.962
X-49.545 Y-3.181
X-48.365 Y-3.385
X-47.765 Y-3.478
X-47.144 Y-3.563
X-46.497 Y-3.64
X-45.817 Y-3.707
X-45.103 Y-3.764
X-44.352 Y-3.81
X-43.564 Y-3.846
X-42.742 Y-3.872
X-41.886 Y-3.887
X-41.002 Y-3.893
X-39.151 Y-3.877
X-37.226 Y-3.829
X-35.259 Y-3.757
X-33.288 Y-3.667
X-31.349 Y-3.57
X-29.477 Y-3.472
X-29.475
X-27.693 Y-3.383
X-27.688
X-26.005 Y-3.309
X-25.997
X-24.405 Y-3.255
X-24.395 Y-3.254
X-22.872 Y-3.223
X-22.86
X-21.382 Y-3.216
X-21.371
X-19.911 Y-3.232
X-19.9 Y-3.233
X-18.44 Y-3.269
X-18.432
X-16.962 Y-3.322
X-16.956 Y-3.323
X-15.472 Y-3.388
X-15.469
X-13.974 Y-3.46
X-12.471 Y-3.534
X-10.967 Y-3.603
X-9.47 Y-3.664
X-7.987 Y-3.71
X-6.524 Y-3.74
X-5.081 Y-3.75
G2 X-4.555 Y-3.97 I-0.005 J-0.75
G1 X-1.763 Y-6.763
G2 X-1.763 Y-9.237 I-1.237 J-1.237
G1 X-4.555 Y-12.03
G2 X-5.081 Y-12.25 I-0.53 J0.53
G1 X-6.524 Y-12.26
X-7.987 Y-12.29
X-9.47 Y-12.336
X-10.967 Y-12.397
X-12.471 Y-12.466
X-13.973 Y-12.54
X-15.469 Y-12.612
X-15.472
X-16.956 Y-12.677
X-16.962 Y-12.678
X-18.432 Y-12.731
X-18.44
X-19.9 Y-12.767
X-19.911 Y-12.768
X-21.371 Y-12.784
X-21.382
X-22.86 Y-12.777
X-22.872
X-24.395 Y-12.746
X-24.405 Y-12.745
X-25.997 Y-12.691
X-26.005
X-27.688 Y-12.617
X-27.693
X-29.475 Y-12.528
X-29.477
X-31.349 Y-12.43
X-33.288 Y-12.333
X-35.259 Y-12.243
X-37.226 Y-12.171
X-39.151 Y-12.123
X-41.002 Y-12.107
X-41.886 Y-12.113
X-42.742 Y-12.128
X-43.564 Y-12.154
X-44.352 Y-12.19
X-45.103 Y-12.236
X-45.817 Y-12.293
X-46.497 Y-12.36
X-47.144 Y-12.437
X-47.765 Y-12.522
X-48.365 Y-12.615
X-49.545 Y-12.819
X-50.73 Y-13.038
X-50.732 Y-13.039
X-51.962 Y-13.262
X-51.971 Y-13.264
X-53.267 Y-13.483
X-53.278 Y-13.485
X-54.645 Y-13.696
X-54.655 Y-13.698
X-56.078 Y-13.899
X-56.086 Y-13.9
X-57.54 Y-14.09
X-57.546 Y-14.091
X-59.004 Y-14.268
X-59.011 Y-14.269
X-60.447 Y-14.43
X-60.456 Y-14.431
X-61.854 Y-14.569
X-61.869 Y-14.57
X-63.221 Y-14.678
X-63.238 Y-14.679
X-63.9 Y-14.717
X-63.915
X-64.574 Y-14.741
X-64.593 Y-14.742
X-65.253 Y-14.75
X-65.274
X-65.942 Y-14.739
X-65.966 Y-14.738
X-66.648 Y-14.705
X-66.673 Y-14.704
X-67.373 Y-14.647
X-67.398 Y-14.645
X-68.12 Y-14.562
X-68.144 Y-14.559
X-68.888 Y-14.449
X-68.911 Y-14.445
X-69.676 Y-14.308
X-69.698 Y-14.304
X-70.48 Y-14.138
X-70.502 Y-14.134
X-71.295 Y-13.941
X-71.317 Y-13.935
X-72.116 Y-13.716
X-72.138 Y-13.71
X-72.936 Y-13.464
X-72.958 Y-13.457
X-73.748 Y-13.187
X-73.771 Y-13.179
X-74.544 Y-12.886
X-74.569 Y-12.876
X-75.316 Y-12.562
X-75.344 Y-12.549
X-76.056 Y-12.215
X-76.087 Y-12.2
X-76.756 Y-11.849
X-76.781 Y-11.835
X-77.097 Y-11.653
X-77.115 Y-11.642
X-77.416 Y-11.457
X-77.436 Y-11.444
X-77.722 Y-11.256
X-77.743 Y-11.241
X-78.013 Y-11.05
X-78.036 Y-11.032
X-78.288 Y-10.838
X-78.313 Y-10.818
X-78.547 Y-10.621
X-78.574 Y-10.598
X-78.788 Y-10.399
X-78.817 Y-10.37
X-79.011 Y-10.17
X-79.042 Y-10.136
X-79.215 Y-9.934
X-79.247 Y-9.894
X-79.399 Y-9.69
X-79.432 Y-9.642
X-79.561 Y-9.437
X-79.593 Y-9.382
X-79.7 Y-9.176
X-79.729 Y-9.112
X-79.813 Y-8.905
X-79.838 Y-8.832
X-79.898 Y-8.624
X-79.916 Y-8.544
X-79.952 Y-8.336
X-79.962 Y-8.252
X-79.974 Y-8.044
Y-7.956
X-79.962 Y-7.748
X-79.952 Y-7.664
X-79.916 Y-7.456
X-79.898 Y-7.376
X-79.838 Y-7.168
X-79.813 Y-7.095
X-79.729 Y-6.888
X-79.7 Y-6.824
X-79.593 Y-6.618
X-79.561 Y-6.563
X-79.432 Y-6.358
X-79.399 Y-6.31
X-79.247 Y-6.106
X-79.215 Y-6.066
X-79.042 Y-5.864
X-79.011 Y-5.83
X-78.817 Y-5.63
X-78.788 Y-5.601
X-78.574 Y-5.402
X-78.547 Y-5.378
X-78.313 Y-5.182
X-78.288 Y-5.162
X-78.036 Y-4.968
X-78.013 Y-4.95
X-77.743 Y-4.759
X-77.722 Y-4.744
X-77.436 Y-4.556
X-77.416 Y-4.543
X-77.115 Y-4.358
X-77.097 Y-4.347
X-76.781 Y-4.165
X-76.756 Y-4.151
X-76.087 Y-3.8
X-76.056 Y-3.785
X-75.344 Y-3.451
X-75.316 Y-3.438
X-74.569 Y-3.124
X-74.544 Y-3.114
X-73.771 Y-2.821
X-73.748 Y-2.813
X-72.958 Y-2.543
X-72.936 Y-2.536
X-72.138 Y-2.29
X-72.116 Y-2.284
X-71.317 Y-2.065
X-71.295 Y-2.059
X-70.502 Y-1.866
X-70.48 Y-1.861
X-69.698 Y-1.696
X-69.676 Y-1.692
X-68.911 Y-1.555
X-68.888 Y-1.551
X-68.144 Y-1.441
X-68.12 Y-1.438
X-67.398 Y-1.355
X-67.373 Y-1.353
X-66.672 Y-1.296
X-66.648 Y-1.295
X-65.966 Y-1.262
X-65.942 Y-1.261
X-65.274 Y-1.25
X-65.253
X-64.593 Y-1.258
X-64.574 Y-1.259
X-63.915 Y-1.283
X-63.9
X-63.238 Y-1.321
X-63.221 Y-1.322
X-61.869 Y-1.43
X-61.854 Y-1.431
X-60.456 Y-1.569
X-60.447 Y-1.57
X-59.011 Y-1.731
X-59.004 Y-1.732
X-57.546 Y-1.909
X-57.54 Y-1.91
X-56.086 Y-2.1
X-56.078 Y-2.101
X-54.655 Y-2.302
X-54.645 Y-2.304
X-53.354 Y-2.503
X-53.278 Y-2.515 Z-0.503 F1016
X-53.267 Y-2.517
X-51.971 Y-2.736 Z-0.549
X-51.962 Y-2.738
X-50.732 Y-2.961 Z-0.593
X-50.73 Y-2.962
X-49.545 Y-3.181 Z-0.635
X-48.365 Y-3.385 Z-0.677
X-47.765 Y-3.478 Z-0.698
X-47.144 Y-3.563 Z-0.72
X-46.497 Y-3.64 Z-0.743
X-46.291 Y-3.66 Z-0.75
X-45.817 Y-3.707 F600
X-45.103 Y-3.764
X-44.352 Y-3.81
X-43.564 Y-3.846
X-42.742 Y-3.872
X-41.886 Y-3.887
X-41.002 Y-3.893
X-39.151 Y-3.877
X-37.226 Y-3.829
X-35.259 Y-3.757
X-33.288 Y-3.667
X-31.349 Y-3.57
X-29.477 Y-3.472
X-29.475
X-27.693 Y-3.383
X-27.688
X-26.005 Y-3.309
X-25.997
X-24.405 Y-3.255
X-24.395 Y-3.254
X-22.872 Y-3.223
X-22.86
X-21.382 Y-3.216
X-21.371
X-19.911 Y-3.232
X-19.9 Y-3.233
X-18.44 Y-3.269
X-18.432
X-16.962 Y-3.322
X-16.956 Y-3.323
X-15.472 Y-3.388
X-15.469
X-13.974 Y-3.46
X-12.471 Y-3.534
X-10.967 Y-3.603
X-9.47 Y-3.664
X-7.987 Y-3.71
X-6.524 Y-3.74
X-5.081 Y-3.75
G2 X-4.555 Y-3.97 I-0.005 J-0.75
G1 X-1.763 Y-6.763
G2 X-1.763 Y-9.237 I-1.237 J-1.237
G1 X-4.555 Y-12.03
G2 X-5.081 Y-12.25 I-0.53 J0.53
G1 X-6.524 Y-12.26
X-7.987 Y-12.29
X-9.47 Y-12.336
X-10.967 Y-12.397
X-12.471 Y-12.466
X-13.973 Y-12.54
X-15.469 Y-12.612
X-15.472
X-16.956 Y-12.677
X-16.962 Y-12.678
X-18.432 Y-12.731
X-18.44
X-19.9 Y-12.767
X-19.911 Y-12.768
X-21.371 Y-12.784
X-21.382
X-22.86 Y-12.777
X-22.872
X-24.395 Y-12.746
X-24.405 Y-12.745
X-25.997 Y-12.691
X-26.005
X-27.688 Y-12.617
X-27.693
X-29.475 Y-12.528
X-29.477
X-31.349 Y-12.43
X-33.288 Y-12.333
X-35.259 Y-12.243
X-37.226 Y-12.171
X-39.151 Y-12.123
X-41.002 Y-12.107
X-41.886 Y-12.113
X-42.742 Y-12.128
X-43.564 Y-12.154
X-44.352 Y-12.19
X-45.103 Y-12.236
X-45.817 Y-12.293
X-46.497 Y-12.36
X-47.144 Y-12.437
X-47.765 Y-12.522
X-48.365 Y-12.615
X-49.545 Y-12.819
X-50.73 Y-13.038
X-50.732 Y-13.039
X-51.962 Y-13.262
X-51.971 Y-13.264
X-53.267 Y-13.483
X-53.278 Y-13.485
X-54.645 Y-13.696
X-54.655 Y-13.698
X-56.078 Y-13.899
X-56.086 Y-13.9
X-57.54 Y-14.09
X-57.546 Y-14.091
X-59.004 Y-14.268
X-59.011 Y-14.269
X-60.447 Y-14.43
X-60.456 Y-14.431
X-61.854 Y-14.569
X-61.869 Y-14.57
X-63.221 Y-14.678
X-63.238 Y-14.679
X-63.9 Y-14.717
X-63.915
X-64.574 Y-14.741
X-64.593 Y-14.742
X-65.253 Y-14.75
X-65.274
X-65.942 Y-14.739
X-65.966 Y-14.738
X-66.648 Y-14.705
X-66.673 Y-14.704
X-67.373 Y-14.647
X-67.398 Y-14.645
X-68.12 Y-14.562
X-68.144 Y-14.559
X-68.888 Y-14.449
X-68.911 Y-14.445
X-69.676 Y-14.308
X-69.698 Y-14.304
X-70.48 Y-14.138
X-70.502 Y-14.134
X-71.295 Y-13.941
X-71.317 Y-13.935
X-72.116 Y-13.716
X-72.138 Y-13.71
X-72.936 Y-13.464
X-72.958 Y-13.457
X-73.748 Y-13.187
X-73.771 Y-13.179
X-74.544 Y-12.886
X-74.569 Y-12.876
X-75.316 Y-12.562
X-75.344 Y-12.549
X-76.056 Y-12.215
X-76.087 Y-12.2
X-76.756 Y-11.849
X-76.781 Y-11.835
X-77.097 Y-11.653
X-77.115 Y-11.642
X-77.416 Y-11.457
X-77.436 Y-11.444
X-77.722 Y-11.256
X-77.743 Y-11.241
X-78.013 Y-11.05
X-78.036 Y-11.032
X-78.288 Y-10.838
X-78.313 Y-10.818
X-78.547 Y-10.621
X-78.574 Y-10.598
X-78.788 Y-10.399
X-78.817 Y-10.37
X-79.011 Y-10.17
X-79.042 Y-10.136
X-79.215 Y-9.934
X-79.247 Y-9.894
X-79.399 Y-9.69
X-79.432 Y-9.642
X-79.561 Y-9.437
X-79.593 Y-9.382
X-79.7 Y-9.176
X-79.729 Y-9.112
X-79.813 Y-8.905
X-79.838 Y-8.832
X-79.898 Y-8.624
X-79.916 Y-8.544
X-79.952 Y-8.336
X-79.962 Y-8.252
X-79.974 Y-8.044
Y-7.956
X-79.962 Y-7.748
X-79.952 Y-7.664
X-79.916 Y-7.456
X-79.898 Y-7.376
X-79.838 Y-7.168
X-79.813 Y-7.095
X-79.729 Y-6.888
X-79.7 Y-6.824
X-79.593 Y-6.618
X-79.561 Y-6.563
X-79.432 Y-6.358
X-79.399 Y-6.31
X-79.247 Y-6.106
X-79.215 Y-6.066
X-79.042 Y-5.864
X-79.011 Y-5.83
X-78.817 Y-5.63
X-78.788 Y-5.601
X-78.574 Y-5.402
X-78.547 Y-5.378
X-78.313 Y-5.182
X-78.288 Y-5.162
X-78.036 Y-4.968
X-78.013 Y-4.95
X-77.743 Y-4.759
X-77.722 Y-4.744
X-77.436 Y-4.556
X-77.416 Y-4.543
X-77.115 Y-4.358
X-77.097 Y-4.347
X-76.781 Y-4.165
X-76.756 Y-4.151
X-76.087 Y-3.8
X-76.056 Y-3.785
X-75.344 Y-3.451
X-75.316 Y-3.438
X-74.569 Y-3.124
X-74.544 Y-3.114
X-73.771 Y-2.821
X-73.748 Y-2.813
X-72.958 Y-2.543
X-72.936 Y-2.536
X-72.138 Y-2.29
X-72.116 Y-2.284
X-71.317 Y-2.065
X-71.295 Y-2.059
X-70.502 Y-1.866
X-70.48 Y-1.861
X-69.698 Y-1.696
X-69.676 Y-1.692
X-68.911 Y-1.555
X-68.888 Y-1.551
X-68.144 Y-1.441
X-68.12 Y-1.438
X-67.398 Y-1.355
X-67.373 Y-1.353
X-66.672 Y-1.296
X-66.648 Y-1.295
X-65.966 Y-1.262
X-65.942 Y-1.261
X-65.274 Y-1.25
X-65.253
X-64.593 Y-1.258
X-64.574 Y-1.259
X-63.915 Y-1.283
X-63.9
X-63.238 Y-1.321
X-63.221 Y-1.322
X-61.869 Y-1.43
X-61.854 Y-1.431
X-60.456 Y-1.569
X-60.447 Y-1.57
X-59.011 Y-1.731
X-59.004 Y-1.732
X-57.546 Y-1.909
X-57.54 Y-1.91
X-56.086 Y-2.1
X-56.078 Y-2.101
X-54.655 Y-2.302
X-54.645 Y-2.304
X-53.354 Y-2.503
X-53.278 Y-2.515
X-53.267 Y-2.517
X-51.971 Y-2.736
X-51.962 Y-2.738
X-50.732 Y-2.961
X-50.73 Y-2.962
X-49.545 Y-3.181
X-48.365 Y-3.385
X-47.765 Y-3.478
X-47.144 Y-3.563
X-46.497 Y-3.64
X-46.291 Y-3.66
X-45.817 Y-3.707 Z-0.767 F1016
X-45.103 Y-3.764 Z-0.792
X-44.352 Y-3.81 Z-0.818
X-43.564 Y-3.846 Z-0.845
X-42.742 Y-3.872 Z-0.874
X-41.886 Y-3.887 Z-0.904
X-41.002 Y-3.893 Z-0.935
X-39.151 Y-3.877 Z-1
X-39.139
X-37.226 Y-3.829 F600
X-35.259 Y-3.757
X-33.288 Y-3.667
X-31.349 Y-3.57
X-29.477 Y-3.472
X-29.475
X-27.693 Y-3.383
X-27.688
X-26.005 Y-3.309
X-25.997
X-24.405 Y-3.255
X-24.395 Y-3.254
X-22.872 Y-3.223
X-22.86
X-21.382 Y-3.216
X-21.371
X-19.911 Y-3.232
X-19.9 Y-3.233
X-18.44 Y-3.269
X-18.432
X-16.962 Y-3.322
X-16.956 Y-3.323
X-15.472 Y-3.388
X-15.469
X-13.974 Y-3.46
X-12.471 Y-3.534
X-10.967 Y-3.603
X-9.47 Y-3.664
X-7.987 Y-3.71
X-6.524 Y-3.74
X-5.081 Y-3.75
G2 X-4.555 Y-3.97 I-0.005 J-0.75
G1 X-1.763 Y-6.763
G2 X-1.763 Y-9.237 I-1.237 J-1.237
G1 X-4.555 Y-12.03
G2 X-5.081 Y-12.25 I-0.53 J0.53
G1 X-6.524 Y-12.26
X-7.987 Y-12.29
X-9.47 Y-12.336
X-10.967 Y-12.397
X-12.471 Y-12.466
X-13.973 Y-12.54
X-15.469 Y-12.612
X-15.472
X-16.956 Y-12.677
X-16.962 Y-12.678
X-18.432 Y-12.731
X-18.44
X-19.9 Y-12.767
X-19.911 Y-12.768
X-21.371 Y-12.784
X-21.382
X-22.86 Y-12.777
X-22.872
X-24.395 Y-12.746
X-24.405 Y-12.745
X-25.997 Y-12.691
X-26.005
X-27.688 Y-12.617
X-27.693
X-29.475 Y-12.528
X-29.477
X-31.349 Y-12.43
X-33.288 Y-12.333
X-35.259 Y-12.243
X-37.226 Y-12.171
X-39.151 Y-12.123
X-41.002 Y-12.107
X-41.886 Y-12.113
X-42.742 Y-12.128
X-43.564 Y-12.154
X-44.352 Y-12.19
X-45.103 Y-12.236
X-45.817 Y-12.293
X-46.497 Y-12.36
X-47.144 Y-12.437
X-47.765 Y-12.522
X-48.365 Y-12.615
X-49.545 Y-12.819
X-50.73 Y-13.038
X-50.732 Y-13.039
X-51.962 Y-13.262
X-51.971 Y-13.264
X-53.267 Y-13.483
X-53.278 Y-13.485
X-54.645 Y-13.696
X-54.655 Y-13.698
X-56.078 Y-13.899
X-56.086 Y-13.9
X-57.54 Y-14.09
X-57.546 Y-14.091
X-59.004 Y-14.268
X-59.011 Y-14.269
X-60.447 Y-14.43
X-60.456 Y-14.431
X-61.854 Y-14.569
X-61.869 Y-14.57
X-63.221 Y-14.678
X-63.238 Y-14.679
X-63.9 Y-14.717
X-63.915
X-64.574 Y-14.741
X-64.593 Y-14.742
X-65.253 Y-14.75
X-65.274
X-65.942 Y-14.739
X-65.966 Y-14.738
X-66.648 Y-14.705
X-66.673 Y-14.704
X-67.373 Y-14.647
X-67.398 Y-14.645
X-68.12 Y-14.562
X-68.144 Y-14.559
X-68.888 Y-14.449
X-68.911 Y-14.445
X-69.676 Y-14.308
X-69.698 Y-14.304
X-70.48 Y-14.138
X-70.502 Y-14.134
X-71.295 Y-13.941
X-71.317 Y-13.935
X-72.116 Y-13.716
X-72.138 Y-13.71
X-72.936 Y-13.464
X-72.958 Y-13.457
X-73.748 Y-13.187
X-73.771 Y-13.179
X-74.544 Y-12.886
X-74.569 Y-12.876
X-75.316 Y-12.562
X-75.344 Y-12.549
X-76.056 Y-12.215
X-76.087 Y-12.2
X-76.756 Y-11.849
X-76.781 Y-11.835
X-77.097 Y-11.653
X-77.115 Y-11.642
X-77.416 Y-11.457
X-77.436 Y-11.444
X-77.722 Y-11.256
X-77.743 Y-11.241
X-78.013 Y-11.05
X-78.036 Y-11.032
X-78.288 Y-10.838
X-78.313 Y-10.818
X-78.547 Y-10.621
X-78.574 Y-10.598
X-78.788 Y-10.399
X-78.817 Y-10.37
X-79.011 Y-10.17
X-79.042 Y-10.136
X-79.215 Y-9.934
X-79.247 Y-9.894
X-79.399 Y-9.69
X-79.432 Y-9.642
X-79.561 Y-9.437
X-79.593 Y-9.382
X-79.7 Y-9.176
X-79.729 Y-9.112
X-79.813 Y-8.905
X-79.838 Y-8.832
X-79.898 Y-8.624
X-79.916 Y-8.544
X-79.952 Y-8.336
X-79.962 Y-8.252
X-79.974 Y-8.044
Y-7.956
X-79.962 Y-7.748
X-79.952 Y-7.664
X-79.916 Y-7.456
X-79.898 Y-7.376
X-79.838 Y-7.168
X-79.813 Y-7.095
X-79.729 Y-6.888
X-79.7 Y-6.824
X-79.593 Y-6.618
X-79.561 Y-6.563
X-79.432 Y-6.358
X-79.399 Y-6.31
X-79.247 Y-6.106
X-79.215 Y-6.066
X-79.042 Y-5.864
X-79.011 Y-5.83
X-78.817 Y-5.63
X-78.788 Y-5.601
X-78.574 Y-5.402
X-78.547 Y-5.378
X-78.313 Y-5.182
X-78.288 Y-5.162
X-78.036 Y-4.968
X-78.013 Y-4.95
X-77.743 Y-4.759
X-77.722 Y-4.744
X-77.436 Y-4.556
X-77.416 Y-4.543
X-77.115 Y-4.358
X-77.097 Y-4.347
X-76.781 Y-4.165
X-76.756 Y-4.151
X-76.087 Y-3.8
X-76.056 Y-3.785
X-75.344 Y-3.451
X-75.316 Y-3.438
X-74.569 Y-3.124
X-74.544 Y-3.114
X-73.771 Y-2.821
X-73.748 Y-2.813
X-72.958 Y-2.543
X-72.936 Y-2.536
X-72.138 Y-2.29
X-72.116 Y-2.284
X-71.317 Y-2.065
X-71.295 Y-2.059
X-70.502 Y-1.866
X-70.48 Y-1.861
X-69.698 Y-1.696
X-69.676 Y-1.692
X-68.911 Y-1.555
X-68.888 Y-1.551
X-68.144 Y-1.441
X-68.12 Y-1.438
X-67.398 Y-1.355
X-67.373 Y-1.353
X-66.672 Y-1.296
X-66.648 Y-1.295
X-65.966 Y-1.262
X-65.942 Y-1.261
X-65.274 Y-1.25
X-65.253
X-64.593 Y-1.258
X-64.574 Y-1.259
X-63.915 Y-1.283
X-63.9
X-63.238 Y-1.321
X-63.221 Y-1.322
X-61.869 Y-1.43
X-61.854 Y-1.431
X-60.456 Y-1.569
X-60.447 Y-1.57
X-59.011 Y-1.731
X-59.004 Y-1.732
X-57.546 Y-1.909
X-57.54 Y-1.91
X-56.086 Y-2.1
X-56.078 Y-2.101
X-54.655 Y-2.302
X-54.645 Y-2.304
X-53.278 Y-2.515
X-53.267 Y-2.517
X-51.971 Y-2.736
X-51.962 Y-2.738
X-50.732 Y-2.961
X-50.73 Y-2.962
X-49.545 Y-3.181
X-48.365 Y-3.385
X-47.765 Y-3.478
X-47.144 Y-3.563
X-46.497 Y-3.64
X-45.817 Y-3.707
X-45.103 Y-3.764
X-44.352 Y-3.81
X-43.564 Y-3.846
X-42.742 Y-3.872
X-41.886 Y-3.887
X-41.002 Y-3.893
X-39.151 Y-3.877
X-39.139
X-37.226 Y-3.829 Z-1.067 F1016
X-35.259 Y-3.757 Z-1.136
X-33.288 Y-3.667 Z-1.204
X-31.986 Y-3.602 Z-1.25
X-31.349 Y-3.57 F600
X-29.477 Y-3.472
X-29.475
X-27.693 Y-3.383
X-27.688
X-26.005 Y-3.309
X-25.997
X-24.405 Y-3.255
X-24.395 Y-3.254
X-22.872 Y-3.223
X-22.86
X-21.382 Y-3.216
X-21.371
X-19.911 Y-3.232
X-19.9 Y-3.233
X-18.44 Y-3.269
X-18.432
X-16.962 Y-3.322
X-16.956 Y-3.323
X-15.472 Y-3.388
X-15.469
X-13.974 Y-3.46
X-12.471 Y-3.534
X-10.967 Y-3.603
X-9.47 Y-3.664
X-7.987 Y-3.71
X-6.524 Y-3.74
X-5.081 Y-3.75
G2 X-4.555 Y-3.97 I-0.005 J-0.75
G1 X-1.763 Y-6.763
G2 X-1.763 Y-9.237 I-1.237 J-1.237
G1 X-4.555 Y-12.03
G2 X-5.081 Y-12.25 I-0.53 J0.53
G1 X-6.524 Y-12.26
X-7.987 Y-12.29
X-9.47 Y-12.336
X-10.967 Y-12.397
X-12.471 Y-12.466
X-13.973 Y-12.54
X-15.469 Y-12.612
X-15.472
X-16.956 Y-12.677
X-16.962 Y-12.678
X-18.432 Y-12.731
X-18.44
X-19.9 Y-12.767
X-19.911 Y-12.768
X-21.371 Y-12.784
X-21.382
X-22.86 Y-12.777
X-22.872
X-24.395 Y-12.746
X-24.405 Y-12.745
X-25.997 Y-12.691
X-26.005
X-27.688 Y-12.617
X-27.693
X-29.475 Y-12.528
X-29.477
X-31.349 Y-12.43
X-33.288 Y-12.333
X-35.259 Y-12.243
X-37.226 Y-12.171
X-39.151 Y-12.123
X-41.002 Y-12.107
X-41.886 Y-12.113
X-42.742 Y-12.128
X-43.564 Y-12.154
X-44.352 Y-12.19
X-45.103 Y-12.236
X-45.817 Y-12.293
X-46.497 Y-12.36
X-47.144 Y-12.437
X-47.765 Y-12.522
X-48.365 Y-12.615
X-49.545 Y-12.819
X-50.73 Y-13.038
X-50.732 Y-13.039
X-51.962 Y-13.262
X-51.971 Y-13.264
X-53.267 Y-13.483
X-53.278 Y-13.485
X-54.645 Y-13.696
X-54.655 Y-13.698
X-56.078 Y-13.899
X-56.086 Y-13.9
X-57.54 Y-14.09
X-57.546 Y-14.091
X-59.004 Y-14.268
X-59.011 Y-14.269
X-60.447 Y-14.43
X-60.456 Y-14.431
X-61.854 Y-14.569
X-61.869 Y-14.57
X-63.221 Y-14.678
X-63.238 Y-14.679
X-63.9 Y-14.717
X-63.915
X-64.574 Y-14.741
X-64.593 Y-14.742
X-65.253 Y-14.75
X-65.274
X-65.942 Y-14.739
X-65.966 Y-14.738
X-66.648 Y-14.705
X-66.673 Y-14.704
X-67.373 Y-14.647
X-67.398 Y-14.645
X-68.12 Y-14.562
X-68.144 Y-14.559
X-68.888 Y-14.449
X-68.911 Y-14.445
X-69.676 Y-14.308
X-69.698 Y-14.304
X-70.48 Y-14.138
X-70.502 Y-14.134
X-71.295 Y-13.941
X-71.317 Y-13.935
X-72.116 Y-13.716
X-72.138 Y-13.71
X-72.936 Y-13.464
X-72.958 Y-13.457
X-73.748 Y-13.187
X-73.771 Y-13.179
X-74.544 Y-12.886
X-74.569 Y-12.876
X-75.316 Y-12.562
X-75.344 Y-12.549
X-76.056 Y-12.215
X-76.087 Y-12.2
X-76.756 Y-11.849
X-76.781 Y-11.835
X-77.097 Y-11.653
X-77.115 Y-11.642
X-77.416 Y-11.457
X-77.436 Y-11.444
X-77.722 Y-11.256
X-77.743 Y-11.241
X-78.013 Y-11.05
X-78.036 Y-11.032
X-78.288 Y-10.838
X-78.313 Y-10.818
X-78.547 Y-10.621
X-78.574 Y-10.598
X-78.788 Y-10.399
X-78.817 Y-10.37
X-79.011 Y-10.17
X-79.042 Y-10.136
X-79.215 Y-9.934
X-79.247 Y-9.894
X-79.399 Y-9.69
X-79.432 Y-9.642
X-79.561 Y-9.437
X-79.593 Y-9.382
X-79.7 Y-9.176
X-79.729 Y-9.112
X-79.813 Y-8.905
X-79.838 Y-8.832
X-79.898 Y-8.624
X-79.916 Y-8.544
X-79.952 Y-8.336
X-79.962 Y-8.252
X-79.974 Y-8.044
Y-7.956
X-79.962 Y-7.748
X-79.952 Y-7.664
X-79.916 Y-7.456
X-79.898 Y-7.376
X-79.838 Y-7.168
X-79.813 Y-7.095
X-79.729 Y-6.888
X-79.7 Y-6.824
X-79.593 Y-6.618
X-79.561 Y-6.563
X-79.432 Y-6.358
X-79.399 Y-6.31
X-79.247 Y-6.106
X-79.215 Y-6.066
X-79.042 Y-5.864
X-79.011 Y-5.83
X-78.817 Y-5.63
X-78.788 Y-5.601
X-78.574 Y-5.402
X-78.547 Y-5.378
X-78.313 Y-5.182
X-78.288 Y-5.162
X-78.036 Y-4.968
X-78.013 Y-4.95
X-77.743 Y-4.759
X-77.722 Y-4.744
X-77.436 Y-4.556
X-77.416 Y-4.543
X-77.115 Y-4.358
X-77.097 Y-4.347
X-76.781 Y-4.165
X-76.756 Y-4.151
X-76.087 Y-3.8
X-76.056 Y-3.785
X-75.344 Y-3.451
X-75.316 Y-3.438
X-74.569 Y-3.124
X-74.544 Y-3.114
X-73.771 Y-2.821
X-73.748 Y-2.813
X-72.958 Y-2.543
X-72.936 Y-2.536
X-72.138 Y-2.29
X-72.116 Y-2.284
X-71.317 Y-2.065
X-71.295 Y-2.059
X-70.502 Y-1.866
X-70.48 Y-1.861
X-69.698 Y-1.696
X-69.676 Y-1.692
X-68.911 Y-1.555
X-68.888 Y-1.551
X-68.144 Y-1.441
X-68.12 Y-1.438
X-67.398 Y-1.355
X-67.373 Y-1.353
X-66.672 Y-1.296
X-66.648 Y-1.295
X-65.966 Y-1.262
X-65.942 Y-1.261
X-65.274 Y-1.25
X-65.253
X-64.593 Y-1.258
X-64.574 Y-1.259
X-63.915 Y-1.283
X-63.9
X-63.238 Y-1.321
X-63.221 Y-1.322
X-61.869 Y-1.43
X-61.854 Y-1.431
X-60.456 Y-1.569
X-60.447 Y-1.57
X-59.011 Y-1.731
X-59.004 Y-1.732
X-57.546 Y-1.909
X-57.54 Y-1.91
X-56.086 Y-2.1
X-56.078 Y-2.101
X-54.655 Y-2.302
X-54.645 Y-2.304
X-53.278 Y-2.515
X-53.267 Y-2.517
X-51.971 Y-2.736
X-51.962 Y-2.738
X-50.732 Y-2.961
X-50.73 Y-2.962
X-49.545 Y-3.181
X-48.365 Y-3.385
X-47.765 Y-3.478
X-47.144 Y-3.563
X-46.497 Y-3.64
X-45.817 Y-3.707
X-45.103 Y-3.764
X-44.352 Y-3.81
X-43.564 Y-3.846
X-42.742 Y-3.872
X-41.886 Y-3.887
X-41.002 Y-3.893
X-39.151 Y-3.877
X-37.226 Y-3.829
X-35.259 Y-3.757
X-33.288 Y-3.667
X-31.986 Y-3.602
X-31.349 Y-3.57 Z-1.272 F1016
X-29.477 Y-3.472 Z-1.338
X-29.475
X-27.693 Y-3.383 Z-1.4
X-27.688
X-26.005 Y-3.309 Z-1.459
X-25.997
X-24.835 Y-3.269 Z-1.5
X-24.405 Y-3.255 F600
X-24.395 Y-3.254
X-22.872 Y-3.223
X-22.86
X-21.382 Y-3.216
X-21.371
X-19.911 Y-3.232
X-19.9 Y-3.233
X-18.44 Y-3.269
X-18.432
X-16.962 Y-3.322
X-16.956 Y-3.323
X-15.472 Y-3.388
X-15.469
X-13.974 Y-3.46
X-12.471 Y-3.534
X-10.967 Y-3.603
X-9.47 Y-3.664
X-7.987 Y-3.71
X-6.524 Y-3.74
X-5.081 Y-3.75
G2 X-4.555 Y-3.97 I-0.005 J-0.75
G1 X-1.763 Y-6.763
G2 X-1.763 Y-9.237 I-1.237 J-1.237
G1 X-4.555 Y-12.03
G2 X-5.081 Y-12.25 I-0.53 J0.53
G1 X-6.524 Y-12.26
X-7.987 Y-12.29
X-9.47 Y-12.336
X-10.967 Y-12.397
X-12.471 Y-12.466
X-13.973 Y-12.54
X-15.469 Y-12.612
X-15.472
X-16.956 Y-12.677
X-16.962 Y-12.678
X-18.432 Y-12.731
X-18.44
X-19.9 Y-12.767
X-19.911 Y-12.768
X-21.371 Y-12.784
X-21.382
X-22.86 Y-12.777
X-22.872
X-24.395 Y-12.746
X-24.405 Y-12.745
X-25.997 Y-12.691
X-26.005
X-27.688 Y-12.617
X-27.693
X-29.475 Y-12.528
X-29.477
X-31.349 Y-12.43
X-33.288 Y-12.333
X-35.259 Y-12.243
X-37.226 Y-12.171
X-39.151 Y-12.123
X-41.002 Y-12.107
X-41.886 Y-12.113
X-42.742 Y-12.128
X-43.564 Y-12.154
X-44.352 Y-12.19
X-45.103 Y-12.236
X-45.817 Y-12.293
X-46.497 Y-12.36
X-47.144 Y-12.437
X-47.765 Y-12.522
X-48.365 Y-12.615
X-49.545 Y-12.819
X-50.73 Y-13.038
X-50.732 Y-13.039
X-51.962 Y-13.262
X-51.971 Y-13.264
X-53.267 Y-13.483
X-53.278 Y-13.485
X-54.645 Y-13.696
X-54.655 Y-13.698
X-56.078 Y-13.899
X-56.086 Y-13.9
X-57.54 Y-14.09
X-57.546 Y-14.091
X-59.004 Y-14.268
X-59.011 Y-14.269
X-60.447 Y-14.43
X-60.456 Y-14.431
X-61.854 Y-14.569
X-61.869 Y-14.57
X-63.221 Y-14.678
X-63.238 Y-14.679
X-63.9 Y-14.717
X-63.915
X-64.574 Y-14.741
X-64.593 Y-14.742
X-65.253 Y-14.75
X-65.274
X-65.942 Y-14.739
X-65.966 Y-14.738
X-66.648 Y-14.705
X-66.673 Y-14.704
X-67.373 Y-14.647
X-67.398 Y-14.645
X-68.12 Y-14.562
X-68.144 Y-14.559
X-68.888 Y-14.449
X-68.911 Y-14.445
X-69.676 Y-14.308
X-69.698 Y-14.304
X-70.48 Y-14.138
X-70.502 Y-14.134
X-71.295 Y-13.941
X-71.317 Y-13.935
X-72.116 Y-13.716
X-72.138 Y-13.71
X-72.936 Y-13.464
X-72.958 Y-13.457
X-73.748 Y-13.187
X-73.771 Y-13.179
X-74.544 Y-12.886
X-74.569 Y-12.876
X-75.316 Y-12.562
X-75.344 Y-12.549
X-76.056 Y-12.215
X-76.087 Y-12.2
X-76.756 Y-11.849
X-76.781 Y-11.835
X-77.097 Y-11.653
X-77.115 Y-11.642
X-77.416 Y-11.457
X-77.436 Y-11.444
X-77.722 Y-11.256
X-77.743 Y-11.241
X-78.013 Y-11.05
X-78.036 Y-11.032
X-78.288 Y-10.838
X-78.313 Y-10.818
X-78.547 Y-10.621
X-78.574 Y-10.598
X-78.788 Y-10.399
X-78.817 Y-10.37
X-79.011 Y-10.17
X-79.042 Y-10.136
X-79.215 Y-9.934
X-79.247 Y-9.894
X-79.399 Y-9.69
X-79.432 Y-9.642
X-79.561 Y-9.437
X-79.593 Y-9.382
X-79.7 Y-9.176
X-79.729 Y-9.112
X-79.813 Y-8.905
X-79.838 Y-8.832
X-79.898 Y-8.624
X-79.916 Y-8.544
X-79.952 Y-8.336
X-79.962 Y-8.252
X-79.974 Y-8.044
Y-7.956
X-79.962 Y-7.748
X-79.952 Y-7.664
X-79.916 Y-7.456
X-79.898 Y-7.376
X-79.838 Y-7.168
X-79.813 Y-7.095
X-79.729 Y-6.888
X-79.7 Y-6.824
X-79.593 Y-6.618
X-79.561 Y-6.563
X-79.432 Y-6.358
X-79.399 Y-6.31
X-79.247 Y-6.106
X-79.215 Y-6.066
X-79.042 Y-5.864
X-79.011 Y-5.83
X-78.817 Y-5.63
X-78.788 Y-5.601
X-78.574 Y-5.402
X-78.547 Y-5.378
X-78.313 Y-5.182
X-78.288 Y-5.162
X-78.036 Y-4.968
X-78.013 Y-4.95
X-77.743 Y-4.759
X-77.722 Y-4.744
X-77.436 Y-4.556
X-77.416 Y-4.543
X-77.115 Y-4.358
X-77.097 Y-4.347
X-76.781 Y-4.165
X-76.756 Y-4.151
X-76.087 Y-3.8
X-76.056 Y-3.785
X-75.344 Y-3.451
X-75.316 Y-3.438
X-74.569 Y-3.124
X-74.544 Y-3.114
X-73.771 Y-2.821
X-73.748 Y-2.813
X-72.958 Y-2.543
X-72.936 Y-2.536
X-72.138 Y-2.29
X-72.116 Y-2.284
X-71.317 Y-2.065
X-71.295 Y-2.059
X-70.502 Y-1.866
X-70.48 Y-1.861
X-69.698 Y-1.696
X-69.676 Y-1.692
X-68.911 Y-1.555
X-68.888 Y-1.551
X-68.144 Y-1.441
X-68.12 Y-1.438
X-67.398 Y-1.355
X-67.373 Y-1.353
X-66.672 Y-1.296
X-66.648 Y-1.295
X-65.966 Y-1.262
X-65.942 Y-1.261
X-65.274 Y-1.25
X-65.253
X-64.593 Y-1.258
X-64.574 Y-1.259
X-63.915 Y-1.283
X-63.9
X-63.238 Y-1.321
X-63.221 Y-1.322
X-61.869 Y-1.43
X-61.854 Y-1.431
X-60.456 Y-1.569
X-60.447 Y-1.57
X-59.011 Y-1.731
X-59.004 Y-1.732
X-57.546 Y-1.909
X-57.54 Y-1.91
X-56.086 Y-2.1
X-56.078 Y-2.101
X-54.655 Y-2.302
X-54.645 Y-2.304
X-53.278 Y-2.515
X-53.267 Y-2.517
X-51.971 Y-2.736
X-51.962 Y-2.738
X-50.732 Y-2.961
X-50.73 Y-2.962
X-49.545 Y-3.181
X-48.365 Y-3.385
X-47.765 Y-3.478
X-47.144 Y-3.563
X-46.497 Y-3.64
X-45.817 Y-3.707
X-45.103 Y-3.764
X-44.352 Y-3.81
X-43.564 Y-3.846
X-42.742 Y-3.872
X-41.886 Y-3.887
X-41.002 Y-3.893
X-39.151 Y-3.877
X-37.226 Y-3.829
X-35.259 Y-3.757
X-33.288 Y-3.667
X-31.986 Y-3.602
X-31.349 Y-3.57
X-29.477 Y-3.472
X-29.475
X-27.693 Y-3.383
X-27.688
X-26.005 Y-3.309
X-25.997
X-24.835 Y-3.269
X-24.405 Y-3.255 Z-1.515 F1016
X-24.395 Y-3.254
X-22.872 Y-3.223 Z-1.569
X-22.86
X-21.382 Y-3.216 Z-1.621
X-21.371
X-19.911 Y-3.232 Z-1.672
X-19.9 Y-3.233
X-18.44 Y-3.269 Z-1.723
X-18.432 Z-1.724
X-17.677 Y-3.297 Z-1.75
X-16.962 Y-3.322 F600
X-16.956 Y-3.323
X-15.472 Y-3.388
X-15.469
X-13.974 Y-3.46
X-12.471 Y-3.534
X-10.967 Y-3.603
X-9.47 Y-3.664
X-7.987 Y-3.71
X-6.524 Y-3.74
X-5.081 Y-3.75
G2 X-4.555 Y-3.97 I-0.005 J-0.75
G1 X-1.763 Y-6.763
G2 X-1.763 Y-9.237 I-1.237 J-1.237
G1 X-4.555 Y-12.03
G2 X-5.081 Y-12.25 I-0.53 J0.53
G1 X-6.524 Y-12.26
X-7.987 Y-12.29
X-9.47 Y-12.336
X-10.967 Y-12.397
X-12.471 Y-12.466
X-13.973 Y-12.54
X-15.469 Y-12.612
X-15.472
X-16.956 Y-12.677
X-16.962 Y-12.678
X-18.432 Y-12.731
X-18.44
X-19.9 Y-12.767
X-19.911 Y-12.768
X-21.371 Y-12.784
X-21.382
X-22.86 Y-12.777
X-22.872
X-24.395 Y-12.746
X-24.405 Y-12.745
X-25.997 Y-12.691
X-26.005
X-27.688 Y-12.617
X-27.693
X-29.475 Y-12.528
X-29.477
X-31.349 Y-12.43
X-33.288 Y-12.333
X-35.259 Y-12.243
X-37.226 Y-12.171
X-39.151 Y-12.123
X-41.002 Y-12.107
X-41.886 Y-12.113
X-42.742 Y-12.128
X-43.564 Y-12.154
X-44.352 Y-12.19
X-45.103 Y-12.236
X-45.817 Y-12.293
X-46.497 Y-12.36
X-47.144 Y-12.437
X-47.765 Y-12.522
X-48.365 Y-12.615
X-49.545 Y-12.819
X-50.73 Y-13.038
X-50.732 Y-13.039
X-51.962 Y-13.262
X-51.971 Y-13.264
X-53.267 Y-13.483
X-53.278 Y-13.485
X-54.645 Y-13.696
X-54.655 Y-13.698
X-56.078 Y-13.899
X-56.086 Y-13.9
X-57.54 Y-14.09
X-57.546 Y-14.091
X-59.004 Y-14.268
X-59.011 Y-14.269
X-60.447 Y-14.43
X-60.456 Y-14.431
X-61.854 Y-14.569
X-61.869 Y-14.57
X-63.221 Y-14.678
X-63.238 Y-14.679
X-63.9 Y-14.717
X-63.915
X-64.574 Y-14.741
X-64.593 Y-14.742
X-65.253 Y-14.75
X-65.274
X-65.942 Y-14.739
X-65.966 Y-14.738
X-66.648 Y-14.705
X-66.673 Y-14.704
X-67.373 Y-14.647
X-67.398 Y-14.645
X-68.12 Y-14.562
X-68.144 Y-14.559
X-68.888 Y-14.449
X-68.911 Y-14.445
X-69.676 Y-14.308
X-69.698 Y-14.304
X-70.48 Y-14.138
X-70.502 Y-14.134
X-71.295 Y-13.941
X-71.317 Y-13.935
X-72.116 Y-13.716
X-72.138 Y-13.71
X-72.936 Y-13.464
X-72.958 Y-13.457
X-73.748 Y-13.187
X-73.771 Y-13.179
X-74.544 Y-12.886
X-74.569 Y-12.876
X-75.316 Y-12.562
X-75.344 Y-12.549
X-76.056 Y-12.215
X-76.087 Y-12.2
X-76.756 Y-11.849
X-76.781 Y-11.835
X-77.097 Y-11.653
X-77.115 Y-11.642
X-77.416 Y-11.457
X-77.436 Y-11.444
X-77.722 Y-11.256
X-77.743 Y-11.241
X-78.013 Y-11.05
X-78.036 Y-11.032
X-78.288 Y-10.838
X-78.313 Y-10.818
X-78.547 Y-10.621
X-78.574 Y-10.598
X-78.788 Y-10.399
X-78.817 Y-10.37
X-79.011 Y-10.17
X-79.042 Y-10.136
X-79.215 Y-9.934
X-79.247 Y-9.894
X-79.399 Y-9.69
X-79.432 Y-9.642
X-79.561 Y-9.437
X-79.593 Y-9.382
X-79.7 Y-9.176
X-79.729 Y-9.112
X-79.813 Y-8.905
X-79.838 Y-8.832
X-79.898 Y-8.624
X-79.916 Y-8.544
X-79.952 Y-8.336
X-79.962 Y-8.252
X-79.974 Y-8.044
Y-7.956
X-79.962 Y-7.748
X-79.952 Y-7.664
X-79.916 Y-7.456
X-79.898 Y-7.376
X-79.838 Y-7.168
X-79.813 Y-7.095
X-79.729 Y-6.888
X-79.7 Y-6.824
X-79.593 Y-6.618
X-79.561 Y-6.563
X-79.432 Y-6.358
X-79.399 Y-6.31
X-79.247 Y-6.106
X-79.215 Y-6.066
X-79.042 Y-5.864
X-79.011 Y-5.83
X-78.817 Y-5.63
X-78.788 Y-5.601
X-78.574 Y-5.402
X-78.547 Y-5.378
X-78.313 Y-5.182
X-78.288 Y-5.162
X-78.036 Y-4.968
X-78.013 Y-4.95
X-77.743 Y-4.759
X-77.722 Y-4.744
X-77.436 Y-4.556
X-77.416 Y-4.543
X-77.115 Y-4.358
X-77.097 Y-4.347
X-76.781 Y-4.165
X-76.756 Y-4.151
X-76.087 Y-3.8
X-76.056 Y-3.785
X-75.344 Y-3.451
X-75.316 Y-3.438
X-74.569 Y-3.124
X-74.544 Y-3.114
X-73.771 Y-2.821
X-73.748 Y-2.813
X-72.958 Y-2.543
X-72.936 Y-2.536
X-72.138 Y-2.29
X-72.116 Y-2.284
X-71.317 Y-2.065
X-71.295 Y-2.059
X-70.502 Y-1.866
X-70.48 Y-1.861
X-69.698 Y-1.696
X-69.676 Y-1.692
X-68.911 Y-1.555
X-68.888 Y-1.551
X-68.144 Y-1.441
X-68.12 Y-1.438
X-67.398 Y-1.355
X-67.373 Y-1.353
X-66.672 Y-1.296
X-66.648 Y-1.295
X-65.966 Y-1.262
X-65.942 Y-1.261
X-65.274 Y-1.25
X-65.253
X-64.593 Y-1.258
X-64.574 Y-1.259
X-63.915 Y-1.283
X-63.9
X-63.238 Y-1.321
X-63.221 Y-1.322
X-61.869 Y-1.43
X-61.854 Y-1.431
X-60.456 Y-1.569
X-60.447 Y-1.57
X-59.011 Y-1.731
X-59.004 Y-1.732
X-57.546 Y-1.909
X-57.54 Y-1.91
X-56.086 Y-2.1
X-56.078 Y-2.101
X-54.655 Y-2.302
X-54.645 Y-2.304
X-53.278 Y-2.515
X-53.267 Y-2.517
X-51.971 Y-2.736
X-51.962 Y-2.738
X-50.732 Y-2.961
X-50.73 Y-2.962
X-49.545 Y-3.181
X-48.365 Y-3.385
X-47.765 Y-3.478
X-47.144 Y-3.563
X-46.497 Y-3.64
X-45.817 Y-3.707
X-45.103 Y-3.764
X-44.352 Y-3.81
X-43.564 Y-3.846
X-42.742 Y-3.872
X-41.886 Y-3.887
X-41.002 Y-3.893
X-39.151 Y-3.877
X-37.226 Y-3.829
X-35.259 Y-3.757
X-33.288 Y-3.667
X-31.349 Y-3.57
X-29.477 Y-3.472
X-29.475
X-27.693 Y-3.383
X-27.688
X-26.005 Y-3.309
X-25.997
X-24.835 Y-3.269
X-24.405 Y-3.255
X-24.395 Y-3.254
X-22.872 Y-3.223
X-22.86
X-21.382 Y-3.216
X-21.371
X-19.911 Y-3.232
X-19.9 Y-3.233
X-18.44 Y-3.269
X-18.432
X-17.677 Y-3.297
X-16.962 Y-3.322 Z-1.775 F1016
X-16.956 Y-3.323
X-15.472 Y-3.388 Z-1.827
X-15.469
X-13.974 Y-3.46 Z-1.879
X-12.471 Y-3.534 Z-1.932
X-10.967 Y-3.603 Z-1.985
X-10.525 Y-3.621 Z-2
X-9.47 Y-3.664 F600
X-7.987 Y-3.71
X-6.524 Y-3.74
X-5.081 Y-3.75
G2 X-4.555 Y-3.97 I-0.005 J-0.75
G1 X-1.763 Y-6.763
G2 X-1.763 Y-9.237 I-1.237 J-1.237
G1 X-4.555 Y-12.03
G2 X-5.081 Y-12.25 I-0.53 J0.53
G1 X-6.524 Y-12.26
X-7.987 Y-12.29
X-9.47 Y-12.336
X-10.967 Y-12.397
X-12.471 Y-12.466
X-13.973 Y-12.54
X-15.469 Y-12.612
X-15.472
X-16.956 Y-12.677
X-16.962 Y-12.678
X-18.432 Y-12.731
X-18.44
X-19.9 Y-12.767
X-19.911 Y-12.768
X-21.371 Y-12.784
X-21.382
X-22.86 Y-12.777
X-22.872
X-24.395 Y-12.746
X-24.405 Y-12.745
X-25.997 Y-12.691
X-26.005
X-27.688 Y-12.617
X-27.693
X-29.475 Y-12.528
X-29.477
X-31.349 Y-12.43
X-33.288 Y-12.333
X-35.259 Y-12.243
X-37.226 Y-12.171
X-39.151 Y-12.123
X-41.002 Y-12.107
X-41.886 Y-12.113
X-42.742 Y-12.128
X-43.564 Y-12.154
X-44.352 Y-12.19
X-45.103 Y-12.236
X-45.817 Y-12.293
X-46.497 Y-12.36
X-47.144 Y-12.437
X-47.765 Y-12.522
X-48.365 Y-12.615
X-49.545 Y-12.819
X-50.73 Y-13.038
X-50.732 Y-13.039
X-51.962 Y-13.262
X-51.971 Y-13.264
X-53.267 Y-13.483
X-53.278 Y-13.485
X-54.645 Y-13.696
X-54.655 Y-13.698
X-56.078 Y-13.899
X-56.086 Y-13.9
X-57.54 Y-14.09
X-57.546 Y-14.091
X-59.004 Y-14.268
X-59.011 Y-14.269
X-60.447 Y-14.43
X-60.456 Y-14.431
X-61.854 Y-14.569
X-61.869 Y-14.57
X-63.221 Y-14.678
X-63.238 Y-14.679
X-63.9 Y-14.717
X-63.915
X-64.574 Y-14.741
X-64.593 Y-14.742
X-65.253 Y-14.75
X-65.274
X-65.942 Y-14.739
X-65.966 Y-14.738
X-66.648 Y-14.705
X-66.673 Y-14.704
X-67.373 Y-14.647
X-67.398 Y-14.645
X-68.12 Y-14.562
X-68.144 Y-14.559
X-68.888 Y-14.449
X-68.911 Y-14.445
X-69.676 Y-14.308
X-69.698 Y-14.304
X-70.48 Y-14.138
X-70.502 Y-14.134
X-71.295 Y-13.941
X-71.317 Y-13.935
X-72.116 Y-13.716
X-72.138 Y-13.71
X-72.936 Y-13.464
X-72.958 Y-13.457
X-73.748 Y-13.187
X-73.771 Y-13.179
X-74.544 Y-12.886
X-74.569 Y-12.876
X-75.316 Y-12.562
X-75.344 Y-12.549
X-76.056 Y-12.215
X-76.087 Y-12.2
X-76.756 Y-11.849
X-76.781 Y-11.835
X-77.097 Y-11.653
X-77.115 Y-11.642
X-77.416 Y-11.457
X-77.436 Y-11.444
X-77.722 Y-11.256
X-77.743 Y-11.241
X-78.013 Y-11.05
X-78.036 Y-11.032
X-78.288 Y-10.838
X-78.313 Y-10.818
X-78.547 Y-10.621
X-78.574 Y-10.598
X-78.788 Y-10.399
X-78.817 Y-10.37
X-79.011 Y-10.17
X-79.042 Y-10.136
X-79.215 Y-9.934
X-79.247 Y-9.894
X-79.399 Y-9.69
X-79.432 Y-9.642
X-79.561 Y-9.437
X-79.593 Y-9.382
X-79.7 Y-9.176
X-79.729 Y-9.112
X-79.813 Y-8.905
X-79.838 Y-8.832
X-79.898 Y-8.624
X-79.916 Y-8.544
X-79.952 Y-8.336
X-79.962 Y-8.252
X-79.974 Y-8.044
Y-7.956
X-79.962 Y-7.748
X-79.952 Y-7.664
X-79.916 Y-7.456
X-79.898 Y-7.376
X-79.838 Y-7.168
X-79.813 Y-7.095
X-79.729 Y-6.888
X-79.7 Y-6.824
X-79.593 Y-6.618
X-79.561 Y-6.563
X-79.432 Y-6.358
X-79.399 Y-6.31
X-79.247 Y-6.106
X-79.215 Y-6.066
X-79.042 Y-5.864
X-79.011 Y-5.83
X-78.817 Y-5.63
X-78.788 Y-5.601
X-78.574 Y-5.402
X-78.547 Y-5.378
X-78.313 Y-5.182
X-78.288 Y-5.162
X-78.036 Y-4.968
X-78.013 Y-4.95
X-77.743 Y-4.759
X-77.722 Y-4.744
X-77.436 Y-4.556
X-77.416 Y-4.543
X-77.115 Y-4.358
X-77.097 Y-4.347
X-76.781 Y-4.165
X-76.756 Y-4.151
X-76.087 Y-3.8
X-76.056 Y-3.785
X-75.344 Y-3.451
X-75.316 Y-3.438
X-74.569 Y-3.124
X-74.544 Y-3.114
X-73.771 Y-2.821
X-73.748 Y-2.813
X-72.958 Y-2.543
X-72.936 Y-2.536
X-72.138 Y-2.29
X-72.116 Y-2.284
X-71.317 Y-2.065
X-71.295 Y-2.059
X-70.502 Y-1.866
X-70.48 Y-1.861
X-69.698 Y-1.696
X-69.676 Y-1.692
X-68.911 Y-1.555
X-68.888 Y-1.551
X-68.144 Y-1.441
X-68.12 Y-1.438
X-67.398 Y-1.355
X-67.373 Y-1.353
X-66.672 Y-1.296
X-66.648 Y-1.295
X-65.966 Y-1.262
X-65.942 Y-1.261
X-65.274 Y-1.25
X-65.253
X-64.593 Y-1.258
X-64.574 Y-1.259
X-63.915 Y-1.283
X-63.9
X-63.238 Y-1.321
X-63.221 Y-1.322
X-61.869 Y-1.43
X-61.854 Y-1.431
X-60.456 Y-1.569
X-60.447 Y-1.57
X-59.011 Y-1.731
X-59.004 Y-1.732
X-57.546 Y-1.909
X-57.54 Y-1.91
X-56.086 Y-2.1
X-56.078 Y-2.101
X-54.655 Y-2.302
X-54.645 Y-2.304
X-53.278 Y-2.515
X-53.267 Y-2.517
X-51.971 Y-2.736
X-51.962 Y-2.738
X-50.732 Y-2.961
X-50.73 Y-2.962
X-49.545 Y-3.181
X-48.365 Y-3.385
X-47.765 Y-3.478
X-47.144 Y-3.563
X-46.497 Y-3.64
X-45.817 Y-3.707
X-45.103 Y-3.764
X-44.352 Y-3.81
X-43.564 Y-3.846
X-42.742 Y-3.872
X-41.886 Y-3.887
X-41.002 Y-3.893
X-39.151 Y-3.877
X-37.226 Y-3.829
X-35.259 Y-3.757
X-33.288 Y-3.667
X-31.349 Y-3.57
X-29.477 Y-3.472
X-29.475
X-27.693 Y-3.383
X-27.688
X-26.005 Y-3.309
X-25.997
X-24.405 Y-3.255
X-24.395 Y-3.254
X-22.872 Y-3.223
X-22.86
X-21.382 Y-3.216
X-21.371
X-19.911 Y-3.232
X-19.9 Y-3.233
X-18.44 Y-3.269
X-18.432
X-17.677 Y-3.297
X-16.962 Y-3.322
X-16.956 Y-3.323
X-15.472 Y-3.388
X-15.469
X-13.974 Y-3.46
X-12.471 Y-3.534
X-10.967 Y-3.603
X-10.525 Y-3.621
X-9.47 Y-3.664 Z-2.037 F1016
X-7.987 Y-3.71 Z-2.089
X-6.524 Y-3.74 Z-2.14
X-5.081 Y-3.75 Z-2.19
G2 X-4.555 Y-3.97 Z-2.211 I-0.005 J-0.75
G1 X-3.758 Y-4.768 Z-2.25
X-1.763 Y-6.763 F600
G2 X-1.763 Y-9.237 I-1.237 J-1.237
G1 X-4.555 Y-12.03
G2 X-5.081 Y-12.25 I-0.53 J0.53
G1 X-6.524 Y-12.26
X-7.987 Y-12.29
X-9.47 Y-12.336
X-10.967 Y-12.397
X-12.471 Y-12.466
X-13.973 Y-12.54
X-15.469 Y-12.612
X-15.472
X-16.956 Y-12.677
X-16.962 Y-12.678
X-18.432 Y-12.731
X-18.44
X-19.9 Y-12.767
X-19.911 Y-12.768
X-21.371 Y-12.784
X-21.382
X-22.86 Y-12.777
X-22.872
X-24.395 Y-12.746
X-24.405 Y-12.745
X-25.997 Y-12.691
X-26.005
X-27.688 Y-12.617
X-27.693
X-29.475 Y-12.528
X-29.477
X-31.349 Y-12.43
X-33.288 Y-12.333
X-35.259 Y-12.243
X-37.226 Y-12.171
X-39.151 Y-12.123
X-41.002 Y-12.107
X-41.886 Y-12.113
X-42.742 Y-12.128
X-43.564 Y-12.154
X-44.352 Y-12.19
X-45.103 Y-12.236
X-45.817 Y-12.293
X-46.497 Y-12.36
X-47.144 Y-12.437
X-47.765 Y-12.522
X-48.365 Y-12.615
X-49.545 Y-12.819
X-50.73 Y-13.038
X-50.732 Y-13.039
X-51.962 Y-13.262
X-51.971 Y-13.264
X-53.267 Y-13.483
X-53.278 Y-13.485
X-54.645 Y-13.696
X-54.655 Y-13.698
X-56.078 Y-13.899
X-56.086 Y-13.9
X-57.54 Y-14.09
X-57.546 Y-14.091
X-59.004 Y-14.268
X-59.011 Y-14.269
X-60.447 Y-14.43
X-60.456 Y-14.431
X-61.854 Y-14.569
X-61.869 Y-14.57
X-63.221 Y-14.678
X-63.238 Y-14.679
X-63.9 Y-14.717
X-63.915
X-64.574 Y-14.741
X-64.593 Y-14.742
X-65.253 Y-14.75
X-65.274
X-65.942 Y-14.739
X-65.966 Y-14.738
X-66.648 Y-14.705
X-66.673 Y-14.704
X-67.373 Y-14.647
X-67.398 Y-14.645
X-68.12 Y-14.562
X-68.144 Y-14.559
X-68.888 Y-14.449
X-68.911 Y-14.445
X-69.676 Y-14.308
X-69.698 Y-14.304
X-70.48 Y-14.138
X-70.502 Y-14.134
X-71.295 Y-13.941
X-71.317 Y-13.935
X-72.116 Y-13.716
X-72.138 Y-13.71
X-72.936 Y-13.464
X-72.958 Y-13.457
X-73.748 Y-13.187
X-73.771 Y-13.179
X-74.544 Y-12.886
X-74.569 Y-12.876
X-75.316 Y-12.562
X-75.344 Y-12.549
X-76.056 Y-12.215
X-76.087 Y-12.2
X-76.756 Y-11.849
X-76.781 Y-11.835
X-77.097 Y-11.653
X-77.115 Y-11.642
X-77.416 Y-11.457
X-77.436 Y-11.444
X-77.722 Y-11.256
X-77.743 Y-11.241
X-78.013 Y-11.05
X-78.036 Y-11.032
X-78.288 Y-10.838
X-78.313 Y-10.818
X-78.547 Y-10.621
X-78.574 Y-10.598
X-78.788 Y-10.399
X-78.817 Y-10.37
X-79.011 Y-10.17
X-79.042 Y-10.136
X-79.215 Y-9.934
X-79.247 Y-9.894
X-79.399 Y-9.69
X-79.432 Y-9.642
X-79.561 Y-9.437
X-79.593 Y-9.382
X-79.7 Y-9.176
X-79.729 Y-9.112
X-79.813 Y-8.905
X-79.838 Y-8.832
X-79.898 Y-8.624
X-79.916 Y-8.544
X-79.952 Y-8.336
X-79.962 Y-8.252
X-79.974 Y-8.044
Y-7.956
X-79.962 Y-7.748
X-79.952 Y-7.664
X-79.916 Y-7.456
X-79.898 Y-7.376
X-79.838 Y-7.168
X-79.813 Y-7.095
X-79.729 Y-6.888
X-79.7 Y-6.824
X-79.593 Y-6.618
X-79.561 Y-6.563
X-79.432 Y-6.358
X-79.399 Y-6.31
X-79.247 Y-6.106
X-79.215 Y-6.066
X-79.042 Y-5.864
X-79.011 Y-5.83
X-78.817 Y-5.63
X-78.788 Y-5.601
X-78.574 Y-5.402
X-78.547 Y-5.378
X-78.313 Y-5.182
X-78.288 Y-5.162
X-78.036 Y-4.968
X-78.013 Y-4.95
X-77.743 Y-4.759
X-77.722 Y-4.744
X-77.436 Y-4.556
X-77.416 Y-4.543
X-77.115 Y-4.358
X-77.097 Y-4.347
X-76.781 Y-4.165
X-76.756 Y-4.151
X-76.087 Y-3.8
X-76.056 Y-3.785
X-75.344 Y-3.451
X-75.316 Y-3.438
X-74.569 Y-3.124
X-74.544 Y-3.114
X-73.771 Y-2.821
X-73.748 Y-2.813
X-72.958 Y-2.543
X-72.936 Y-2.536
X-72.138 Y-2.29
X-72.116 Y-2.284
X-71.317 Y-2.065
X-71.295 Y-2.059
X-70.502 Y-1.866
X-70.48 Y-1.861
X-69.698 Y-1.696
X-69.676 Y-1.692
X-68.911 Y-1.555
X-68.888 Y-1.551
X-68.144 Y-1.441
X-68.12 Y-1.438
X-67.398 Y-1.355
X-67.373 Y-1.353
X-66.672 Y-1.296
X-66.648 Y-1.295
X-65.966 Y-1.262
X-65.942 Y-1.261
X-65.274 Y-1.25
X-65.253
X-64.593 Y-1.258
X-64.574 Y-1.259
X-63.915 Y-1.283
X-63.9
X-63.238 Y-1.321
X-63.221 Y-1.322
X-61.869 Y-1.43
X-61.854 Y-1.431
X-60.456 Y-1.569
X-60.447 Y-1.57
X-59.011 Y-1.731
X-59.004 Y-1.732
X-57.546 Y-1.909
X-57.54 Y-1.91
X-56.086 Y-2.1
X-56.078 Y-2.101
X-54.655 Y-2.302
X-54.645 Y-2.304
X-53.278 Y-2.515
X-53.267 Y-2.517
X-51.971 Y-2.736
X-51.962 Y-2.738
X-50.732 Y-2.961
X-50.73 Y-2.962
X-49.545 Y-3.181
X-48.365 Y-3.385
X-47.765 Y-3.478
X-47.144 Y-3.563
X-46.497 Y-3.64
X-45.817 Y-3.707
X-45.103 Y-3.764
X-44.352 Y-3.81
X-43.564 Y-3.846
X-42.742 Y-3.872
X-41.886 Y-3.887
X-41.002 Y-3.893
X-39.151 Y-3.877
X-37.226 Y-3.829
X-35.259 Y-3.757
X-33.288 Y-3.667
X-31.349 Y-3.57
X-29.477 Y-3.472
X-29.475
X-27.693 Y-3.383
X-27.688
X-26.005 Y-3.309
X-25.997
X-24.405 Y-3.255
X-24.395 Y-3.254
X-22.872 Y-3.223
X-22.86
X-21.382 Y-3.216
X-21.371
X-19.911 Y-3.232
X-19.9 Y-3.233
X-18.44 Y-3.269
X-18.432
X-16.962 Y-3.322
X-16.956 Y-3.323
X-15.472 Y-3.388
X-15.469
X-13.974 Y-3.46
X-12.471 Y-3.534
X-10.967 Y-3.603
X-9.47 Y-3.664
X-7.987 Y-3.71
X-6.524 Y-3.74
X-5.081 Y-3.75
G2 X-4.555 Y-3.97 I-0.005 J-0.75
G1 X-3.758 Y-4.768
X-1.763 Y-6.763 Z-2.349 F1016
G2 X-1.763 Y-9.237 Z-2.445 I-1.237 J-1.237
G1 X-2.886 Y-10.361 Z-2.5
X-4.555 Y-12.03 F600
G2 X-5.081 Y-12.25 I-0.53 J0.53
G1 X-6.524 Y-12.26
X-7.987 Y-12.29
X-9.47 Y-12.336
X-10.967 Y-12.397
X-12.471 Y-12.466
X-13.973 Y-12.54
X-15.469 Y-12.612
X-15.472
X-16.956 Y-12.677
X-16.962 Y-12.678
X-18.432 Y-12.731
X-18.44
X-19.9 Y-12.767
X-19.911 Y-12.768
X-21.371 Y-12.784
X-21.382
X-22.86 Y-12.777
X-22.872
X-24.395 Y-12.746
X-24.405 Y-12.745
X-25.997 Y-12.691
X-26.005
X-27.688 Y-12.617
X-27.693
X-29.475 Y-12.528
X-29.477
X-31.349 Y-12.43
X-33.288 Y-12.333
X-35.259 Y-12.243
X-37.226 Y-12.171
X-39.151 Y-12.123
X-41.002 Y-12.107
X-41.886 Y-12.113
X-42.742 Y-12.128
X-43.564 Y-12.154
X-44.352 Y-12.19
X-45.103 Y-12.236
X-45.817 Y-12.293
X-46.497 Y-12.36
X-47.144 Y-12.437
X-47.765 Y-12.522
X-48.365 Y-12.615
X-49.545 Y-12.819
X-50.73 Y-13.038
X-50.732 Y-13.039
X-51.962 Y-13.262
X-51.971 Y-13.264
X-53.267 Y-13.483
X-53.278 Y-13.485
X-54.645 Y-13.696
X-54.655 Y-13.698
X-56.078 Y-13.899
X-56.086 Y-13.9
X-57.54 Y-14.09
X-57.546 Y-14.091
X-59.004 Y-14.268
X-59.011 Y-14.269
X-60.447 Y-14.43
X-60.456 Y-14.431
X-61.854 Y-14.569
X-61.869 Y-14.57
X-63.221 Y-14.678
X-63.238 Y-14.679
X-63.9 Y-14.717
X-63.915
X-64.574 Y-14.741
X-64.593 Y-14.742
X-65.253 Y-14.75
X-65.274
X-65.942 Y-14.739
X-65.966 Y-14.738
X-66.648 Y-14.705
X-66.673 Y-14.704
X-67.373 Y-14.647
X-67.398 Y-14.645
X-68.12 Y-14.562
X-68.144 Y-14.559
X-68.888 Y-14.449
X-68.911 Y-14.445
X-69.676 Y-14.308
X-69.698 Y-14.304
X-70.48 Y-14.138
X-70.502 Y-14.134
X-71.295 Y-13.941
X-71.317 Y-13.935
X-72.116 Y-13.716
X-72.138 Y-13.71
X-72.936 Y-13.464
X-72.958 Y-13.457
X-73.748 Y-13.187
X-73.771 Y-13.179
X-74.544 Y-12.886
X-74.569 Y-12.876
X-75.316 Y-12.562
X-75.344 Y-12.549
X-76.056 Y-12.215
X-76.087 Y-12.2
X-76.756 Y-11.849
X-76.781 Y-11.835
X-77.097 Y-11.653
X-77.115 Y-11.642
X-77.416 Y-11.457
X-77.436 Y-11.444
X-77.722 Y-11.256
X-77.743 Y-11.241
X-78.013 Y-11.05
X-78.036 Y-11.032
X-78.288 Y-10.838
X-78.313 Y-10.818
X-78.547 Y-10.621
X-78.574 Y-10.598
X-78.788 Y-10.399
X-78.817 Y-10.37
X-79.011 Y-10.17
X-79.042 Y-10.136
X-79.215 Y-9.934
X-79.247 Y-9.894
X-79.399 Y-9.69
X-79.432 Y-9.642
X-79.561 Y-9.437
X-79.593 Y-9.382
X-79.7 Y-9.176
X-79.729 Y-9.112
X-79.813 Y-8.905
X-79.838 Y-8.832
X-79.898 Y-8.624
X-79.916 Y-8.544
X-79.952 Y-8.336
X-79.962 Y-8.252
X-79.974 Y-8.044
Y-7.956
X-79.962 Y-7.748
X-79.952 Y-7.664
X-79.916 Y-7.456
X-79.898 Y-7.376
X-79.838 Y-7.168
X-79.813 Y-7.095
X-79.729 Y-6.888
X-79.7 Y-6.824
X-79.593 Y-6.618
X-79.561 Y-6.563
X-79.432 Y-6.358
X-79.399 Y-6.31
X-79.247 Y-6.106
X-79.215 Y-6.066
X-79.042 Y-5.864
X-79.011 Y-5.83
X-78.817 Y-5.63
X-78.788 Y-5.601
X-78.574 Y-5.402
X-78.547 Y-5.378
X-78.313 Y-5.182
X-78.288 Y-5.162
X-78.036 Y-4.968
X-78.013 Y-4.95
X-77.743 Y-4.759
X-77.722 Y-4.744
X-77.436 Y-4.556
X-77.416 Y-4.543
X-77.115 Y-4.358
X-77.097 Y-4.347
X-76.781 Y-4.165
X-76.756 Y-4.151
X-76.087 Y-3.8
X-76.056 Y-3.785
X-75.344 Y-3.451
X-75.316 Y-3.438
X-74.569 Y-3.124
X-74.544 Y-3.114
X-73.771 Y-2.821
X-73.748 Y-2.813
X-72.958 Y-2.543
X-72.936 Y-2.536
X-72.138 Y-2.29
X-72.116 Y-2.284
X-71.317 Y-2.065
X-71.295 Y-2.059
X-70.502 Y-1.866
X-70.48 Y-1.861
X-69.698 Y-1.696
X-69.676 Y-1.692
X-68.911 Y-1.555
X-68.888 Y-1.551
X-68.144 Y-1.441
X-68.12 Y-1.438
X-67.398 Y-1.355
X-67.373 Y-1.353
X-66.672 Y-1.296
X-66.648 Y-1.295
X-65.966 Y-1.262
X-65.942 Y-1.261
X-65.274 Y-1.25
X-65.253
X-64.593 Y-1.258
X-64.574 Y-1.259
X-63.915 Y-1.283
X-63.9
X-63.238 Y-1.321
X-63.221 Y-1.322
X-61.869 Y-1.43
X-61.854 Y-1.431
X-60.456 Y-1.569
X-60.447 Y-1.57
X-59.011 Y-1.731
X-59.004 Y-1.732
X-57.546 Y-1.909
X-57.54 Y-1.91
X-56.086 Y-2.1
X-56.078 Y-2.101
X-54.655 Y-2.302
X-54.645 Y-2.304
X-53.278 Y-2.515
X-53.267 Y-2.517
X-51.971 Y-2.736
X-51.962 Y-2.738
X-50.732 Y-2.961
X-50.73 Y-2.962
X-49.545 Y-3.181
X-48.365 Y-3.385
X-47.765 Y-3.478
X-47.144 Y-3.563
X-46.497 Y-3.64
X-45.817 Y-3.707
X-45.103 Y-3.764
X-44.352 Y-3.81
X-43.564 Y-3.846
X-42.742 Y-3.872
X-41.886 Y-3.887
X-41.002 Y-3.893
X-39.151 Y-3.877
X-37.226 Y-3.829
X-35.259 Y-3.757
X-33.288 Y-3.667
X-31.349 Y-3.57
X-29.477 Y-3.472
X-29.475
X-27.693 Y-3.383
X-27.688
X-26.005 Y-3.309
X-25.997
X-24.405 Y-3.255
X-24.395 Y-3.254
X-22.872 Y-3.223
X-22.86
X-21.382 Y-3.216
X-21.371
X-19.911 Y-3.232
X-19.9 Y-3.233
X-18.44 Y-3.269
X-18.432
X-16.962 Y-3.322
X-16.956 Y-3.323
X-15.472 Y-3.388
X-15.469
X-13.974 Y-3.46
X-12.471 Y-3.534
X-10.967 Y-3.603
X-9.47 Y-3.664
X-7.987 Y-3.71
X-6.524 Y-3.74
X-5.081 Y-3.75
G2 X-4.555 Y-3.97 I-0.005 J-0.75
G1 X-1.763 Y-6.763
G2 X-1.763 Y-9.237 I-1.237 J-1.237
G1 X-2.886 Y-10.361
X-4.555 Y-12.03 Z-2.582 F1016
G2 X-5.081 Y-12.25 Z-2.603 I-0.53 J0.53
G1 X-6.524 Y-12.26 Z-2.653
X-7.987 Y-12.29 Z-2.704
X-9.294 Y-12.331 Z-2.75
X-9.47 Y-12.336 F600
X-10.967 Y-12.397
X-12.471 Y-12.466
X-13.973 Y-12.54
X-15.469 Y-12.612
X-15.472
X-16.956 Y-12.677
X-16.962 Y-12.678
X-18.432 Y-12.731
X-18.44
X-19.9 Y-12.767
X-19.911 Y-12.768
X-21.371 Y-12.784
X-21.382
X-22.86 Y-12.777
X-22.872
X-24.395 Y-12.746
X-24.405 Y-12.745
X-25.997 Y-12.691
X-26.005
X-27.688 Y-12.617
X-27.693
X-29.475 Y-12.528
X-29.477
X-31.349 Y-12.43
X-33.288 Y-12.333
X-35.259 Y-12.243
X-37.226 Y-12.171
X-39.151 Y-12.123
X-41.002 Y-12.107
X-41.886 Y-12.113
X-42.742 Y-12.128
X-43.564 Y-12.154
X-44.352 Y-12.19
X-44.502 Y-12.199
Z-2.7
X-45.103 Y-12.236
X-45.817 Y-12.293
X-46.497 Y-12.36
X-47.144 Y-12.437
X-47.765 Y-12.522
X-48.365 Y-12.615
X-48.479 Y-12.634
Z-2.75 F300
X-49.545 Y-12.819 F600
X-50.73 Y-13.038
X-50.732 Y-13.039
X-51.962 Y-13.262
X-51.971 Y-13.264
X-53.267 Y-13.483
X-53.278 Y-13.485
X-54.645 Y-13.696
X-54.655 Y-13.698
X-56.078 Y-13.899
X-56.086 Y-13.9
X-57.54 Y-14.09
X-57.546 Y-14.091
X-59.004 Y-14.268
X-59.011 Y-14.269
X-60.447 Y-14.43
X-60.456 Y-14.431
X-61.854 Y-14.569
X-61.869 Y-14.57
X-63.221 Y-14.678
X-63.238 Y-14.679
X-63.9 Y-14.717
X-63.915
X-64.574 Y-14.741
X-64.593 Y-14.742
X-65.253 Y-14.75
X-65.274
X-65.942 Y-14.739
X-65.966 Y-14.738
X-66.648 Y-14.705
X-66.673 Y-14.704
X-67.373 Y-14.647
X-67.398 Y-14.645
X-68.12 Y-14.562
X-68.144 Y-14.559
X-68.888 Y-14.449
X-68.911 Y-14.445
X-69.676 Y-14.308
X-69.698 Y-14.304
X-70.48 Y-14.138
X-70.502 Y-14.134
X-71.295 Y-13.941
X-71.317 Y-13.935
X-72.116 Y-13.716
X-72.138 Y-13.71
X-72.936 Y-13.464
X-72.958 Y-13.457
X-73.748 Y-13.187
X-73.771 Y-13.179
X-74.544 Y-12.886
X-74.569 Y-12.876
X-75.316 Y-12.562
X-75.344 Y-12.549
X-76.056 Y-12.215
X-76.087 Y-12.2
X-76.756 Y-11.849
X-76.781 Y-11.835
X-77.097 Y-11.653
X-77.115 Y-11.642
X-77.416 Y-11.457
X-77.436 Y-11.444
X-77.722 Y-11.256
X-77.743 Y-11.241
X-78.013 Y-11.05
X-78.036 Y-11.032
X-78.288 Y-10.838
X-78.313 Y-10.818
X-78.547 Y-10.621
X-78.574 Y-10.598
X-78.788 Y-10.399
X-78.817 Y-10.37
X-79.011 Y-10.17
X-79.042 Y-10.136
X-79.215 Y-9.934
X-79.247 Y-9.894
X-79.399 Y-9.69
X-79.432 Y-9.642
X-79.561 Y-9.437
X-79.593 Y-9.382
X-79.7 Y-9.176
X-79.729 Y-9.112
X-79.813 Y-8.905
X-79.838 Y-8.832
X-79.898 Y-8.624
X-79.916 Y-8.544
X-79.952 Y-8.336
X-79.962 Y-8.252
X-79.974 Y-8.044
Y-7.956
X-79.962 Y-7.748
X-79.952 Y-7.664
X-79.916 Y-7.456
X-79.898 Y-7.376
X-79.838 Y-7.168
X-79.813 Y-7.095
X-79.729 Y-6.888
X-79.7 Y-6.824
X-79.593 Y-6.618
X-79.561 Y-6.563
X-79.432 Y-6.358
X-79.399 Y-6.31
X-79.247 Y-6.106
X-79.215 Y-6.066
X-79.042 Y-5.864
X-79.011 Y-5.83
X-78.817 Y-5.63
X-78.788 Y-5.601
X-78.574 Y-5.402
X-78.547 Y-5.378
X-78.313 Y-5.182
X-78.288 Y-5.162
X-78.036 Y-4.968
X-78.013 Y-4.95
X-77.743 Y-4.759
X-77.722 Y-4.744
X-77.436 Y-4.556
X-77.416 Y-4.543
X-77.115 Y-4.358
X-77.097 Y-4.347
X-76.781 Y-4.165
X-76.756 Y-4.151
X-76.087 Y-3.8
X-76.056 Y-3.785
X-75.344 Y-3.451
X-75.316 Y-3.438
X-74.569 Y-3.124
X-74.544 Y-3.114
X-73.771 Y-2.821
X-73.748 Y-2.813
X-72.958 Y-2.543
X-72.936 Y-2.536
X-72.138 Y-2.29
X-72.116 Y-2.284
X-71.317 Y-2.065
X-71.295 Y-2.059
X-70.502 Y-1.866
X-70.48 Y-1.861
X-69.698 Y-1.696
X-69.676 Y-1.692
X-68.911 Y-1.555
X-68.888 Y-1.551
X-68.144 Y-1.441
X-68.12 Y-1.438
X-67.398 Y-1.355
X-67.373 Y-1.353
X-66.672 Y-1.296
X-66.648 Y-1.295
X-65.966 Y-1.262
X-65.942 Y-1.261
X-65.274 Y-1.25
X-65.253
X-64.593 Y-1.258
X-64.574 Y-1.259
X-63.915 Y-1.283
X-63.9
X-63.238 Y-1.321
X-63.221 Y-1.322
X-61.869 Y-1.43
X-61.854 Y-1.431
X-60.456 Y-1.569
X-60.447 Y-1.57
X-59.011 Y-1.731
X-59.004 Y-1.732
X-57.546 Y-1.909
X-57.54 Y-1.91
X-56.086 Y-2.1
X-56.078 Y-2.101
X-54.655 Y-2.302
X-54.645 Y-2.304
X-53.278 Y-2.515
X-53.267 Y-2.517
X-51.971 Y-2.736
X-51.962 Y-2.738
X-50.732 Y-2.961
X-50.73 Y-2.962
X-49.545 Y-3.181
X-48.479 Y-3.366
Z-2.7
X-48.365 Y-3.385
X-47.765 Y-3.478
X-47.144 Y-3.563
X-46.497 Y-3.64
X-45.817 Y-3.707
X-45.103 Y-3.764
X-44.502 Y-3.801
Z-2.75 F300
X-44.352 Y-3.81 F600
X-43.564 Y-3.846
X-42.742 Y-3.872
X-41.886 Y-3.887
X-41.002 Y-3.893
X-39.151 Y-3.877
X-37.226 Y-3.829
X-35.259 Y-3.757
X-33.288 Y-3.667
X-31.349 Y-3.57
X-29.477 Y-3.472
X-29.475
X-27.693 Y-3.383
X-27.688
X-26.005 Y-3.309
X-25.997
X-24.405 Y-3.255
X-24.395 Y-3.254
X-22.872 Y-3.223
X-22.86
X-21.382 Y-3.216
X-21.371
X-19.911 Y-3.232
X-19.9 Y-3.233
X-18.44 Y-3.269
X-18.432
X-16.962 Y-3.322
X-16.956 Y-3.323
X-15.472 Y-3.388
X-15.469
X-13.974 Y-3.46
X-12.471 Y-3.534
X-10.967 Y-3.603
X-9.47 Y-3.664
X-7.987 Y-3.71
X-6.524 Y-3.74
X-5.081 Y-3.75
G2 X-4.555 Y-3.97 I-0.005 J-0.75
G1 X-1.763 Y-6.763
G2 X-1.763 Y-9.237 I-1.237 J-1.237
G1 X-4.555 Y-12.03
G2 X-5.081 Y-12.25 I-0.53 J0.53
G1 X-6.524 Y-12.26
X-7.987 Y-12.29
X-9.294 Y-12.331
X-9.47 Y-12.336 Z-2.756 F1016
X-10.967 Y-12.397 Z-2.808
X-12.471 Y-12.466 Z-2.861
X-13.973 Y-12.54 Z-2.914
X-15.469 Y-12.612 Z-2.966
X-15.472
X-16.446 Y-12.655 Z-3
X-16.956 Y-12.677 F600
X-16.962 Y-12.678
X-18.432 Y-12.731
X-18.44
X-19.9 Y-12.767
X-19.911 Y-12.768
X-21.371 Y-12.784
X-21.382
X-22.86 Y-12.777
X-22.872
X-24.395 Y-12.746
X-24.405 Y-12.745
X-25.997 Y-12.691
X-26.005
X-27.688 Y-12.617
X-27.693
X-29.475 Y-12.528
X-29.477
X-31.349 Y-12.43
X-33.288 Y-12.333
X-35.259 Y-12.243
X-37.226 Y-12.171
X-39.151 Y-12.123
X-41.002 Y-12.107
X-41.886 Y-12.113
X-42.742 Y-12.128
X-43.564 Y-12.154
X-44.352 Y-12.19
X-44.502 Y-12.199
Z-2.7
X-45.103 Y-12.236
X-45.817 Y-12.293
X-46.497 Y-12.36
X-47.144 Y-12.437
X-47.765 Y-12.522
X-48.365 Y-12.615
X-48.479 Y-12.634
Z-3 F300
X-49.545 Y-12.819 F600
X-50.73 Y-13.038
X-50.732 Y-13.039
X-51.962 Y-13.262
X-51.971 Y-13.264
X-53.267 Y-13.483
X-53.278 Y-13.485
X-54.645 Y-13.696
X-54.655 Y-13.698
X-56.078 Y-13.899
X-56.086 Y-13.9
X-57.54 Y-14.09
X-57.546 Y-14.091
X-59.004 Y-14.268
X-59.011 Y-14.269
X-60.447 Y-14.43
X-60.456 Y-14.431
X-61.854 Y-14.569
X-61.869 Y-14.57
X-63.221 Y-14.678
X-63.238 Y-14.679
X-63.9 Y-14.717
X-63.915
X-64.574 Y-14.741
X-64.593 Y-14.742
X-65.253 Y-14.75
X-65.274
X-65.942 Y-14.739
X-65.966 Y-14.738
X-66.648 Y-14.705
X-66.673 Y-14.704
X-67.373 Y-14.647
X-67.398 Y-14.645
X-68.12 Y-14.562
X-68.144 Y-14.559
X-68.888 Y-14.449
X-68.911 Y-14.445
X-69.676 Y-14.308
X-69.698 Y-14.304
X-70.48 Y-14.138
X-70.502 Y-14.134
X-71.295 Y-13.941
X-71.317 Y-13.935
X-72.116 Y-13.716
X-72.138 Y-13.71
X-72.936 Y-13.464
X-72.958 Y-13.457
X-73.748 Y-13.187
X-73.771 Y-13.179
X-74.544 Y-12.886
X-74.569 Y-12.876
X-75.316 Y-12.562
X-75.344 Y-12.549
X-76.056 Y-12.215
X-76.087 Y-12.2
X-76.756 Y-11.849
X-76.781 Y-11.835
X-77.097 Y-11.653
X-77.115 Y-11.642
X-77.416 Y-11.457
X-77.436 Y-11.444
X-77.722 Y-11.256
X-77.743 Y-11.241
X-78.013 Y-11.05
X-78.036 Y-11.032
X-78.288 Y-10.838
X-78.313 Y-10.818
X-78.547 Y-10.621
X-78.574 Y-10.598
X-78.788 Y-10.399
X-78.817 Y-10.37
X-79.011 Y-10.17
X-79.042 Y-10.136
X-79.215 Y-9.934
X-79.247 Y-9.894
X-79.399 Y-9.69
X-79.432 Y-9.642
X-79.561 Y-9.437
X-79.593 Y-9.382
X-79.7 Y-9.176
X-79.729 Y-9.112
X-79.813 Y-8.905
X-79.838 Y-8.832
X-79.898 Y-8.624
X-79.916 Y-8.544
X-79.952 Y-8.336
X-79.962 Y-8.252
X-79.974 Y-8.044
Y-7.956
X-79.962 Y-7.748
X-79.952 Y-7.664
X-79.916 Y-7.456
X-79.898 Y-7.376
X-79.838 Y-7.168
X-79.813 Y-7.095
X-79.729 Y-6.888
X-79.7 Y-6.824
X-79.593 Y-6.618
X-79.561 Y-6.563
X-79.432 Y-6.358
X-79.399 Y-6.31
X-79.247 Y-6.106
X-79.215 Y-6.066
X-79.042 Y-5.864
X-79.011 Y-5.83
X-78.817 Y-5.63
X-78.788 Y-5.601
X-78.574 Y-5.402
X-78.547 Y-5.378
X-78.313 Y-5.182
X-78.288 Y-5.162
X-78.036 Y-4.968
X-78.013 Y-4.95
X-77.743 Y-4.759
X-77.722 Y-4.744
X-77.436 Y-4.556
X-77.416 Y-4.543
X-77.115 Y-4.358
X-77.097 Y-4.347
X-76.781 Y-4.165
X-76.756 Y-4.151
X-76.087 Y-3.8
X-76.056 Y-3.785
X-75.344 Y-3.451
X-75.316 Y-3.438
X-74.569 Y-3.124
X-74.544 Y-3.114
X-73.771 Y-2.821
X-73.748 Y-2.813
X-72.958 Y-2.543
X-72.936 Y-2.536
X-72.138 Y-2.29
X-72.116 Y-2.284
X-71.317 Y-2.065
X-71.295 Y-2.059
X-70.502 Y-1.866
X-70.48 Y-1.861
X-69.698 Y-1.696
X-69.676 Y-1.692
X-68.911 Y-1.555
X-68.888 Y-1.551
X-68.144 Y-1.441
X-68.12 Y-1.438
X-67.398 Y-1.355
X-67.373 Y-1.353
X-66.672 Y-1.296
X-66.648 Y-1.295
X-65.966 Y-1.262
X-65.942 Y-1.261
X-65.274 Y-1.25
X-65.253
X-64.593 Y-1.258
X-64.574 Y-1.259
X-63.915 Y-1.283
X-63.9
X-63.238 Y-1.321
X-63.221 Y-1.322
X-61.869 Y-1.43
X-61.854 Y-1.431
X-60.456 Y-1.569
X-60.447 Y-1.57
X-59.011 Y-1.731
X-59.004 Y-1.732
X-57.546 Y-1.909
X-57.54 Y-1.91
X-56.086 Y-2.1
X-56.078 Y-2.101
X-54.655 Y-2.302
X-54.645 Y-2.304
X-53.278 Y-2.515
X-53.267 Y-2.517
X-51.971 Y-2.736
X-51.962 Y-2.738
X-50.732 Y-2.961
X-50.73 Y-2.962
X-49.545 Y-3.181
X-48.479 Y-3.366
Z-2.7
X-48.365 Y-3.385
X-47.765 Y-3.478
X-47.144 Y-3.563
X-46.497 Y-3.64
X-45.817 Y-3.707
X-45.103 Y-3.764
X-44.502 Y-3.801
Z-3 F300
X-44.352 Y-3.81 F600
X-43.564 Y-3.846
X-42.742 Y-3.872
X-41.886 Y-3.887
X-41.002 Y-3.893
X-39.151 Y-3.877
X-37.226 Y-3.829
X-35.259 Y-3.757
X-33.288 Y-3.667
X-31.349 Y-3.57
X-29.477 Y-3.472
X-29.475
X-27.693 Y-3.383
X-27.688
X-26.005 Y-3.309
X-25.997
X-24.405 Y-3.255
X-24.395 Y-3.254
X-22.872 Y-3.223
X-22.86
X-21.382 Y-3.216
X-21.371
X-19.911 Y-3.232
X-19.9 Y-3.233
X-18.44 Y-3.269
X-18.432
X-16.962 Y-3.322
X-16.956 Y-3.323
X-15.472 Y-3.388
X-15.469
X-13.974 Y-3.46
X-12.471 Y-3.534
X-10.967 Y-3.603
X-9.47 Y-3.664
X-7.987 Y-3.71
X-6.524 Y-3.74
X-5.081 Y-3.75
G2 X-4.555 Y-3.97 I-0.005 J-0.75
G1 X-1.763 Y-6.763
G2 X-1.763 Y-9.237 I-1.237 J-1.237
G1 X-4.555 Y-12.03
G2 X-5.081 Y-12.25 I-0.53 J0.53
G1 X-6.524 Y-12.26
X-7.987 Y-12.29
X-9.47 Y-12.336
X-10.967 Y-12.397
X-12.471 Y-12.466
X-13.973 Y-12.54
X-15.469 Y-12.612
X-15.472
X-16.446 Y-12.655
X-16.956 Y-12.677 Z-3.018 F1016
X-16.962 Y-12.678
X-18.432 Y-12.731 Z-3.069
X-18.44 Z-3.07
X-19.9 Y-12.767 Z-3.121
X-19.911 Y-12.768
X-20.739 Y-12.777 Z-3.15
X-21.371 Y-12.784 F600
X-21.382
X-22.86 Y-12.777
X-22.872
X-24.395 Y-12.746
X-24.405 Y-12.745
X-25.997 Y-12.691
X-26.005
X-27.688 Y-12.617
X-27.693
X-29.475 Y-12.528
X-29.477
X-31.349 Y-12.43
X-33.288 Y-12.333
X-35.259 Y-12.243
X-37.226 Y-12.171
X-39.151 Y-12.123
X-41.002 Y-12.107
X-41.886 Y-12.113
X-42.742 Y-12.128
X-43.564 Y-12.154
X-44.352 Y-12.19
X-44.502 Y-12.199
Z-2.7
X-45.103 Y-12.236
X-45.817 Y-12.293
X-46.497 Y-12.36
X-47.144 Y-12.437
X-47.765 Y-12.522
X-48.365 Y-12.615
X-48.479 Y-12.634
Z-3.15 F300
X-49.545 Y-12.819 F600
X-50.73 Y-13.038
X-50.732 Y-13.039
X-51.962 Y-13.262
X-51.971 Y-13.264
X-53.267 Y-13.483
X-53.278 Y-13.485
X-54.645 Y-13.696
X-54.655 Y-13.698
X-56.078 Y-13.899
X-56.086 Y-13.9
X-57.54 Y-14.09
X-57.546 Y-14.091
X-59.004 Y-14.268
X-59.011 Y-14.269
X-60.447 Y-14.43
X-60.456 Y-14.431
X-61.854 Y-14.569
X-61.869 Y-14.57
X-63.221 Y-14.678
X-63.238 Y-14.679
X-63.9 Y-14.717
X-63.915
X-64.574 Y-14.741
X-64.593 Y-14.742
X-65.253 Y-14.75
X-65.274
X-65.942 Y-14.739
X-65.966 Y-14.738
X-66.648 Y-14.705
X-66.673 Y-14.704
X-67.373 Y-14.647
X-67.398 Y-14.645
X-68.12 Y-14.562
X-68.144 Y-14.559
X-68.888 Y-14.449
X-68.911 Y-14.445
X-69.676 Y-14.308
X-69.698 Y-14.304
X-70.48 Y-14.138
X-70.502 Y-14.134
X-71.295 Y-13.941
X-71.317 Y-13.935
X-72.116 Y-13.716
X-72.138 Y-13.71
X-72.936 Y-13.464
X-72.958 Y-13.457
X-73.748 Y-13.187
X-73.771 Y-13.179
X-74.544 Y-12.886
X-74.569 Y-12.876
X-75.316 Y-12.562
X-75.344 Y-12.549
X-76.056 Y-12.215
X-76.087 Y-12.2
X-76.756 Y-11.849
X-76.781 Y-11.835
X-77.097 Y-11.653
X-77.115 Y-11.642
X-77.416 Y-11.457
X-77.436 Y-11.444
X-77.722 Y-11.256
X-77.743 Y-11.241
X-78.013 Y-11.05
X-78.036 Y-11.032
X-78.288 Y-10.838
X-78.313 Y-10.818
X-78.547 Y-10.621
X-78.574 Y-10.598
X-78.788 Y-10.399
X-78.817 Y-10.37
X-79.011 Y-10.17
X-79.042 Y-10.136
X-79.215 Y-9.934
X-79.247 Y-9.894
X-79.399 Y-9.69
X-79.432 Y-9.642
X-79.561 Y-9.437
X-79.593 Y-9.382
X-79.7 Y-9.176
X-79.729 Y-9.112
X-79.813 Y-8.905
X-79.838 Y-8.832
X-79.898 Y-8.624
X-79.916 Y-8.544
X-79.952 Y-8.336
X-79.962 Y-8.252
X-79.974 Y-8.044
Y-7.956
X-79.962 Y-7.748
X-79.952 Y-7.664
X-79.916 Y-7.456
X-79.898 Y-7.376
X-79.838 Y-7.168
X-79.813 Y-7.095
X-79.729 Y-6.888
X-79.7 Y-6.824
X-79.593 Y-6.618
X-79.561 Y-6.563
X-79.432 Y-6.358
X-79.399 Y-6.31
X-79.247 Y-6.106
X-79.215 Y-6.066
X-79.042 Y-5.864
X-79.011 Y-5.83
X-78.817 Y-5.63
X-78.788 Y-5.601
X-78.574 Y-5.402
X-78.547 Y-5.378
X-78.313 Y-5.182
X-78.288 Y-5.162
X-78.036 Y-4.968
X-78.013 Y-4.95
X-77.743 Y-4.759
X-77.722 Y-4.744
X-77.436 Y-4.556
X-77.416 Y-4.543
X-77.115 Y-4.358
X-77.097 Y-4.347
X-76.781 Y-4.165
X-76.756 Y-4.151
X-76.087 Y-3.8
X-76.056 Y-3.785
X-75.344 Y-3.451
X-75.316 Y-3.438
X-74.569 Y-3.124
X-74.544 Y-3.114
X-73.771 Y-2.821
X-73.748 Y-2.813
X-72.958 Y-2.543
X-72.936 Y-2.536
X-72.138 Y-2.29
X-72.116 Y-2.284
X-71.317 Y-2.065
X-71.295 Y-2.059
X-70.502 Y-1.866
X-70.48 Y-1.861
X-69.698 Y-1.696
X-69.676 Y-1.692
X-68.911 Y-1.555
X-68.888 Y-1.551
X-68.144 Y-1.441
X-68.12 Y-1.438
X-67.398 Y-1.355
X-67.373 Y-1.353
X-66.672 Y-1.296
X-66.648 Y-1.295
X-65.966 Y-1.262
X-65.942 Y-1.261
X-65.274 Y-1.25
X-65.253
X-64.593 Y-1.258
X-64.574 Y-1.259
X-63.915 Y-1.283
X-63.9
X-63.238 Y-1.321
X-63.221 Y-1.322
X-61.869 Y-1.43
X-61.854 Y-1.431
X-60.456 Y-1.569
X-60.447 Y-1.57
X-59.011 Y-1.731
X-59.004 Y-1.732
X-57.546 Y-1.909
X-57.54 Y-1.91
X-56.086 Y-2.1
X-56.078 Y-2.101
X-54.655 Y-2.302
X-54.645 Y-2.304
X-53.278 Y-2.515
X-53.267 Y-2.517
X-51.971 Y-2.736
X-51.962 Y-2.738
X-50.732 Y-2.961
X-50.73 Y-2.962
X-49.545 Y-3.181
X-48.479 Y-3.366
Z-2.7
X-48.365 Y-3.385
X-47.765 Y-3.478
X-47.144 Y-3.563
X-46.497 Y-3.64
X-45.817 Y-3.707
X-45.103 Y-3.764
X-44.502 Y-3.801
Z-3.15 F300
X-44.352 Y-3.81 F600
X-43.564 Y-3.846
X-42.742 Y-3.872
X-41.886 Y-3.887
X-41.002 Y-3.893
X-39.151 Y-3.877
X-37.226 Y-3.829
X-35.259 Y-3.757
X-33.288 Y-3.667
X-31.349 Y-3.57
X-29.477 Y-3.472
X-29.475
X-27.693 Y-3.383
X-27.688
X-26.005 Y-3.309
X-25.997
X-24.405 Y-3.255
X-24.395 Y-3.254
X-22.872 Y-3.223
X-22.86
X-21.382 Y-3.216
X-21.371
X-19.911 Y-3.232
X-19.9 Y-3.233
X-18.44 Y-3.269
X-18.432
X-16.962 Y-3.322
X-16.956 Y-3.323
X-15.472 Y-3.388
X-15.469
X-13.974 Y-3.46
X-12.471 Y-3.534
X-10.967 Y-3.603
X-9.47 Y-3.664
X-7.987 Y-3.71
X-6.524 Y-3.74
X-5.081 Y-3.75
G2 X-4.555 Y-3.97 I-0.005 J-0.75
G1 X-1.763 Y-6.763
G2 X-1.763 Y-9.237 I-1.237 J-1.237
G1 X-4.555 Y-12.03
G2 X-5.081 Y-12.25 I-0.53 J0.53
G1 X-6.524 Y-12.26
X-7.987 Y-12.29
X-9.47 Y-12.336
X-10.967 Y-12.397
X-12.471 Y-12.466
X-13.973 Y-12.54
X-15.469 Y-12.612
X-15.472
X-16.956 Y-12.677
X-16.962 Y-12.678
X-18.432 Y-12.731
X-18.44
X-19.9 Y-12.767
X-19.911 Y-12.768
X-20.739 Y-12.777
X-21.371 Y-12.784 Z-3.172 F1016
X-21.382
X-22.86 Y-12.777 Z-3.224
X-22.872
X-24.395 Y-12.746 Z-3.278
X-24.405 Y-12.745
X-25.034 Y-12.724 Z-3.3
X-25.997 Y-12.691 F600
X-26.005
X-27.688 Y-12.617
X-27.693
X-29.475 Y-12.528
X-29.477
X-31.349 Y-12.43
X-33.288 Y-12.333
X-35.259 Y-12.243
X-37.226 Y-12.171
X-39.151 Y-12.123
X-41.002 Y-12.107
X-41.886 Y-12.113
X-42.742 Y-12.128
X-43.564 Y-12.154
X-44.352 Y-12.19
X-44.502 Y-12.199
Z-2.7
X-45.103 Y-12.236
X-45.817 Y-12.293
X-46.497 Y-12.36
X-47.144 Y-12.437
X-47.765 Y-12.522
X-48.365 Y-12.615
X-48.479 Y-12.634
Z-3.3 F300
X-49.545 Y-12.819 F600
X-50.73 Y-13.038
X-50.732 Y-13.039
X-51.962 Y-13.262
X-51.971 Y-13.264
X-53.267 Y-13.483
X-53.278 Y-13.485
X-54.645 Y-13.696
X-54.655 Y-13.698
X-56.078 Y-13.899
X-56.086 Y-13.9
X-57.54 Y-14.09
X-57.546 Y-14.091
X-59.004 Y-14.268
X-59.011 Y-14.269
X-60.447 Y-14.43
X-60.456 Y-14.431
X-61.854 Y-14.569
X-61.869 Y-14.57
X-63.221 Y-14.678
X-63.238 Y-14.679
X-63.9 Y-14.717
X-63.915
X-64.574 Y-14.741
X-64.593 Y-14.742
X-65.253 Y-14.75
X-65.274
X-65.942 Y-14.739
X-65.966 Y-14.738
X-66.648 Y-14.705
X-66.673 Y-14.704
X-67.373 Y-14.647
X-67.398 Y-14.645
X-68.12 Y-14.562
X-68.144 Y-14.559
X-68.888 Y-14.449
X-68.911 Y-14.445
X-69.676 Y-14.308
X-69.698 Y-14.304
X-70.48 Y-14.138
X-70.502 Y-14.134
X-71.295 Y-13.941
X-71.317 Y-13.935
X-72.116 Y-13.716
X-72.138 Y-13.71
X-72.936 Y-13.464
X-72.958 Y-13.457
X-73.748 Y-13.187
X-73.771 Y-13.179
X-74.544 Y-12.886
X-74.569 Y-12.876
X-75.316 Y-12.562
X-75.344 Y-12.549
X-76.056 Y-12.215
X-76.087 Y-12.2
X-76.756 Y-11.849
X-76.781 Y-11.835
X-77.097 Y-11.653
X-77.115 Y-11.642
X-77.416 Y-11.457
X-77.436 Y-11.444
X-77.722 Y-11.256
X-77.743 Y-11.241
X-78.013 Y-11.05
X-78.036 Y-11.032
X-78.288 Y-10.838
X-78.313 Y-10.818
X-78.547 Y-10.621
X-78.574 Y-10.598
X-78.788 Y-10.399
X-78.817 Y-10.37
X-79.011 Y-10.17
X-79.042 Y-10.136
X-79.215 Y-9.934
X-79.247 Y-9.894
X-79.399 Y-9.69
X-79.432 Y-9.642
X-79.561 Y-9.437
X-79.593 Y-9.382
X-79.7 Y-9.176
X-79.729 Y-9.112
X-79.813 Y-8.905
X-79.838 Y-8.832
X-79.898 Y-8.624
X-79.916 Y-8.544
X-79.952 Y-8.336
X-79.962 Y-8.252
X-79.974 Y-8.044
Y-7.956
X-79.962 Y-7.748
X-79.952 Y-7.664
X-79.916 Y-7.456
X-79.898 Y-7.376
X-79.838 Y-7.168
X-79.813 Y-7.095
X-79.729 Y-6.888
X-79.7 Y-6.824
X-79.593 Y-6.618
X-79.561 Y-6.563
X-79.432 Y-6.358
X-79.399 Y-6.31
X-79.247 Y-6.106
X-79.215 Y-6.066
X-79.042 Y-5.864
X-79.011 Y-5.83
X-78.817 Y-5.63
X-78.788 Y-5.601
X-78.574 Y-5.402
X-78.547 Y-5.378
X-78.313 Y-5.182
X-78.288 Y-5.162
X-78.036 Y-4.968
X-78.013 Y-4.95
X-77.743 Y-4.759
X-77.722 Y-4.744
X-77.436 Y-4.556
X-77.416 Y-4.543
X-77.115 Y-4.358
X-77.097 Y-4.347
X-76.781 Y-4.165
X-76.756 Y-4.151
X-76.087 Y-3.8
X-76.056 Y-3.785
X-75.344 Y-3.451
X-75.316 Y-3.438
X-74.569 Y-3.124
X-74.544 Y-3.114
X-73.771 Y-2.821
X-73.748 Y-2.813
X-72.958 Y-2.543
X-72.936 Y-2.536
X-72.138 Y-2.29
X-72.116 Y-2.284
X-71.317 Y-2.065
X-71.295 Y-2.059
X-70.502 Y-1.866
X-70.48 Y-1.861
X-69.698 Y-1.696
X-69.676 Y-1.692
X-68.911 Y-1.555
X-68.888 Y-1.551
X-68.144 Y-1.441
X-68.12 Y-1.438
X-67.398 Y-1.355
X-67.373 Y-1.353
X-66.672 Y-1.296
X-66.648 Y-1.295
X-65.966 Y-1.262
X-65.942 Y-1.261
X-65.274 Y-1.25
X-65.253
X-64.593 Y-1.258
X-64.574 Y-1.259
X-63.915 Y-1.283
X-63.9
X-63.238 Y-1.321
X-63.221 Y-1.322
X-61.869 Y-1.43
X-61.854 Y-1.431
X-60.456 Y-1.569
X-60.447 Y-1.57
X-59.011 Y-1.731
X-59.004 Y-1.732
X-57.546 Y-1.909
X-57.54 Y-1.91
X-56.086 Y-2.1
X-56.078 Y-2.101
X-54.655 Y-2.302
X-54.645 Y-2.304
X-53.278 Y-2.515
X-53.267 Y-2.517
X-51.971 Y-2.736
X-51.962 Y-2.738
X-50.732 Y-2.961
X-50.73 Y-2.962
X-49.545 Y-3.181
X-48.479 Y-3.366
Z-2.7
X-48.365 Y-3.385
X-47.765 Y-3.478
X-47.144 Y-3.563
X-46.497 Y-3.64
X-45.817 Y-3.707
X-45.103 Y-3.764
X-44.502 Y-3.801
Z-3.3 F300
X-44.352 Y-3.81 F600
X-43.564 Y-3.846
X-42.742 Y-3.872
X-41.886 Y-3.887
X-41.002 Y-3.893
X-39.151 Y-3.877
X-37.226 Y-3.829
X-35.259 Y-3.757
X-33.288 Y-3.667
X-31.349 Y-3.57
X-29.477 Y-3.472
X-29.475
X-27.693 Y-3.383
X-27.688
X-26.005 Y-3.309
X-25.997
X-24.405 Y-3.255
X-24.395 Y-3.254
X-22.872 Y-3.223
X-22.86
X-21.382 Y-3.216
X-21.371
X-19.911 Y-3.232
X-19.9 Y-3.233
X-18.44 Y-3.269
X-18.432
X-16.962 Y-3.322
X-16.956 Y-3.323
X-15.472 Y-3.388
X-15.469
X-13.974 Y-3.46
X-12.471 Y-3.534
X-10.967 Y-3.603
X-9.47 Y-3.664
X-7.987 Y-3.71
X-6.524 Y-3.74
X-5.081 Y-3.75
G2 X-4.555 Y-3.97 I-0.005 J-0.75
G1 X-1.763 Y-6.763
G2 X-1.763 Y-9.237 I-1.237 J-1.237
G1 X-4.555 Y-12.03
G2 X-5.081 Y-12.25 I-0.53 J0.53
G1 X-6.524 Y-12.26
X-7.987 Y-12.29
X-9.47 Y-12.336
X-10.967 Y-12.397
X-12.471 Y-12.466
X-13.973 Y-12.54
X-15.469 Y-12.612
X-15.472
X-16.956 Y-12.677
X-16.962 Y-12.678
X-18.432 Y-12.731
X-18.44
X-19.9 Y-12.767
X-19.911 Y-12.768
X-21.371 Y-12.784
X-21.382
X-22.86 Y-12.777
X-22.872
X-24.395 Y-12.746
X-24.405 Y-12.745
X-25.034 Y-12.724
G0 Z15
G28 G91 Z0
G90
G28 G91 X0 Y0
G90
M5
M30
