(1001)
G90 G94
G17
G21
(When using Fusion 360 for Personal Use, the feedrate of)
(rapid moves is reduced to match the feedrate of cutting)
(moves, which can increase machining time. Unrestricted rapid)
(moves are available with a Fusion 360 Subscription.)

(Bohrfrasen6)
S6000 M3
G54
G0 X-11.557 Y-13.468
Z15
G1 Z2 F600
Z0.15 F400
X-11.55 Z0.104
X-11.528 Z0.062
X-11.495 Z0.029
X-11.453 Z0.007
X-11.407 Z0
X-11.332
X-11.286 Y-13.461
X-11.244 Y-13.439
X-11.211 Y-13.406
X-11.189 Y-13.364
X-11.182 Y-13.318
G3 X-13.182 Y-13.318 Z-0.5 I-1 J0 F600
X-11.182 Y-13.318 Z-1 I1 J0
X-13.182 Y-13.318 Z-1.5 I-1 J0
X-11.182 Y-13.318 I1 J0
X-13.182 Y-13.318 I-1 J0
G1 X-13.175 Y-13.364
X-13.153 Y-13.406
X-13.12 Y-13.439
X-13.078 Y-13.461
X-13.032 Y-13.468
X-12.957
X-12.911 Z-1.493
X-12.869 Z-1.471
X-12.836 Z-1.438
X-12.814 Z-1.396
X-12.807 Z-1.35
Z5
X-5.193 Y-19.832
Z2
Z0.15 F400
X-5.186 Z0.104
X-5.164 Z0.062
X-5.131 Z0.029
X-5.089 Z0.007
X-5.043 Z0
X-4.968
X-4.922 Y-19.825
X-4.88 Y-19.803
X-4.847 Y-19.77
X-4.825 Y-19.728
X-4.818 Y-19.682
G3 X-6.818 Y-19.682 Z-0.5 I-1 J0 F600
X-4.818 Y-19.682 Z-1 I1 J0
X-6.818 Y-19.682 Z-1.5 I-1 J0
X-4.818 Y-19.682 I1 J0
X-6.818 Y-19.682 I-1 J0
G1 X-6.811 Y-19.728
X-6.789 Y-19.77
X-6.756 Y-19.803
X-6.714 Y-19.825
X-6.668 Y-19.832
X-6.593
X-6.547 Z-1.493
X-6.505 Z-1.471
X-6.472 Z-1.438
X-6.45 Z-1.396
X-6.443 Z-1.35
Z15
(When using Fusion 360 for Personal Use, the feedrate of)
(rapid moves is reduced to match the feedrate of cutting)
(moves, which can increase machining time. Unrestricted rapid)
(moves are available with a Fusion 360 Subscription.)

(Bohrfrasen4)
G0 X-8.575 Y-7.15
G1 Z15 F600
Z2
Z0.15 F400
X-8.568 Z0.104
X-8.546 Z0.062
X-8.513 Z0.029
X-8.471 Z0.007
X-8.425 Z0
X-8.35
X-8.304 Y-7.143
X-8.262 Y-7.121
X-8.229 Y-7.088
X-8.207 Y-7.046
X-8.2 Y-7
G3 X-9.8 Y-7 Z-0.5 I-0.8 J0 F600
X-8.2 Y-7 Z-1 I0.8 J0
X-9.8 Y-7 Z-1.5 I-0.8 J0
X-8.2 Y-7 Z-2 I0.8 J0
X-9.8 Y-7 Z-2.5 I-0.8 J0
X-8.2 Y-7 Z-3 I0.8 J0
X-9.8 Y-7 I-0.8 J0
X-8.2 Y-7 I0.8 J0
G1 X-8.207 Y-6.954
X-8.229 Y-6.912
X-8.262 Y-6.879
X-8.304 Y-6.857
X-8.35 Y-6.85
X-8.425
X-8.471 Z-2.993
X-8.513 Z-2.971
X-8.546 Z-2.938
X-8.568 Z-2.896
X-8.575 Z-2.85
Z5
X-12.207 Y-13.468
Z0.5
Z-1.35 F400
X-12.2 Z-1.396
X-12.178 Z-1.438
X-12.145 Z-1.471
X-12.103 Z-1.493
X-12.057 Z-1.5
X-11.982
X-11.936 Y-13.461
X-11.894 Y-13.439
X-11.861 Y-13.406
X-11.839 Y-13.364
X-11.832 Y-13.318
G3 X-12.532 Y-13.318 Z-2 I-0.35 J0 F600
X-11.832 Y-13.318 Z-2.5 I0.35 J0
X-12.532 Y-13.318 Z-3 I-0.35 J0
X-11.832 Y-13.318 I0.35 J0
X-12.532 Y-13.318 I-0.35 J0
G1 X-12.525 Y-13.364
X-12.503 Y-13.406
X-12.47 Y-13.439
X-12.428 Y-13.461
X-12.382 Y-13.468
X-12.307
X-12.261 Z-2.993
X-12.219 Z-2.971
X-12.186 Z-2.938
X-12.164 Z-2.896
X-12.157 Z-2.85
Z5
X-5.243
Z2
Z0.15 F400
X-5.236 Z0.104
X-5.214 Z0.062
X-5.181 Z0.029
X-5.139 Z0.007
X-5.093 Z0
X-5.018
X-4.972 Y-13.461
X-4.93 Y-13.439
X-4.897 Y-13.406
X-4.875 Y-13.364
X-4.868 Y-13.318
G3 X-6.768 Y-13.318 Z-0.5 I-0.95 J0 F600
X-4.868 Y-13.318 Z-1 I0.95 J0
X-6.768 Y-13.318 Z-1.5 I-0.95 J0
X-4.868 Y-13.318 Z-2 I0.95 J0
X-6.768 Y-13.318 Z-2.5 I-0.95 J0
X-4.868 Y-13.318 Z-3 I0.95 J0
X-6.768 Y-13.318 I-0.95 J0
X-4.868 Y-13.318 I0.95 J0
G1 X-4.875 Y-13.272
X-4.897 Y-13.23
X-4.93 Y-13.197
X-4.972 Y-13.175
X-5.018 Y-13.168
X-5.093
X-5.139 Z-2.993
X-5.181 Z-2.971
X-5.214 Z-2.938
X-5.236 Z-2.896
X-5.243 Z-2.85
Z5
X-5.843 Y-19.832
Z0.5
Z-1.35 F400
X-5.836 Z-1.396
X-5.814 Z-1.438
X-5.781 Z-1.471
X-5.739 Z-1.493
X-5.693 Z-1.5
X-5.618
X-5.572 Y-19.825
X-5.53 Y-19.803
X-5.497 Y-19.77
X-5.475 Y-19.728
X-5.468 Y-19.682
G3 X-6.168 Y-19.682 Z-2 I-0.35 J0 F600
X-5.468 Y-19.682 Z-2.5 I0.35 J0
X-6.168 Y-19.682 Z-3 I-0.35 J0
X-5.468 Y-19.682 I0.35 J0
X-6.168 Y-19.682 I-0.35 J0
G1 X-6.161 Y-19.728
X-6.139 Y-19.77
X-6.106 Y-19.803
X-6.064 Y-19.825
X-6.018 Y-19.832
X-5.943
X-5.897 Z-2.993
X-5.855 Z-2.971
X-5.822 Z-2.938
X-5.8 Z-2.896
X-5.793 Z-2.85
Z5
X-7.425 Y-16.65
Z2
Z0.15 F400
X-7.418 Z0.104
X-7.396 Z0.062
X-7.363 Z0.029
X-7.321 Z0.007
X-7.275 Z0
X-7.2
X-7.154 Y-16.643
X-7.112 Y-16.621
X-7.079 Y-16.588
X-7.057 Y-16.546
X-7.05 Y-16.5
G3 X-10.95 Y-16.5 Z-0.5 I-1.95 J0 F600
X-7.05 Y-16.5 Z-1 I1.95 J0
X-10.95 Y-16.5 Z-1.5 I-1.95 J0
X-7.05 Y-16.5 Z-2 I1.95 J0
X-10.95 Y-16.5 Z-2.5 I-1.95 J0
X-7.05 Y-16.5 Z-3 I1.95 J0
X-10.95 Y-16.5 I-1.95 J0
X-7.05 Y-16.5 I1.95 J0
G1 X-7.057 Y-16.454
X-7.079 Y-16.412
X-7.112 Y-16.379
X-7.154 Y-16.357
X-7.2 Y-16.35
X-7.275
X-7.321 Z-2.993
X-7.363 Z-2.971
X-7.396 Z-2.938
X-7.418 Z-2.896
X-7.425 Z-2.85
Z5
X-11.607 Y-19.832
Z2
Z0.15 F400
X-11.6 Z0.104
X-11.578 Z0.062
X-11.545 Z0.029
X-11.503 Z0.007
X-11.457 Z0
X-11.382
X-11.336 Y-19.825
X-11.294 Y-19.803
X-11.261 Y-19.77
X-11.239 Y-19.728
X-11.232 Y-19.682
G3 X-13.132 Y-19.682 Z-0.5 I-0.95 J0 F600
X-11.232 Y-19.682 Z-1 I0.95 J0
X-13.132 Y-19.682 Z-1.5 I-0.95 J0
X-11.232 Y-19.682 Z-2 I0.95 J0
X-13.132 Y-19.682 Z-2.5 I-0.95 J0
X-11.232 Y-19.682 Z-3 I0.95 J0
X-13.132 Y-19.682 I-0.95 J0
X-11.232 Y-19.682 I0.95 J0
G1 X-11.239 Y-19.636
X-11.261 Y-19.594
X-11.294 Y-19.561
X-11.336 Y-19.539
X-11.382 Y-19.532
X-11.457
X-11.503 Z-2.993
X-11.545 Z-2.971
X-11.578 Z-2.938
X-11.6 Z-2.896
X-11.607 Z-2.85
Z5
X-8.575 Y-26.15
Z2
Z0.15 F400
X-8.568 Z0.104
X-8.546 Z0.062
X-8.513 Z0.029
X-8.471 Z0.007
X-8.425 Z0
X-8.35
X-8.304 Y-26.143
X-8.262 Y-26.121
X-8.229 Y-26.088
X-8.207 Y-26.046
X-8.2 Y-26
G3 X-9.8 Y-26 Z-0.5 I-0.8 J0 F600
X-8.2 Y-26 Z-1 I0.8 J0
X-9.8 Y-26 Z-1.5 I-0.8 J0
X-8.2 Y-26 Z-2 I0.8 J0
X-9.8 Y-26 Z-2.5 I-0.8 J0
X-8.2 Y-26 Z-3 I0.8 J0
X-9.8 Y-26 I-0.8 J0
X-8.2 Y-26 I0.8 J0
G1 X-8.207 Y-25.954
X-8.229 Y-25.912
X-8.262 Y-25.879
X-8.304 Y-25.857
X-8.35 Y-25.85
X-8.425
X-8.471 Z-2.993
X-8.513 Z-2.971
X-8.546 Z-2.938
X-8.568 Z-2.896
X-8.575 Z-2.85
Z5
Y-61.91
Z2
Z0.15 F400
X-8.568 Z0.104
X-8.546 Z0.062
X-8.513 Z0.029
X-8.471 Z0.007
X-8.425 Z0
X-8.35
X-8.304 Y-61.903
X-8.262 Y-61.882
X-8.229 Y-61.848
X-8.207 Y-61.807
X-8.2 Y-61.76
G3 X-9.8 Y-61.76 Z-0.5 I-0.8 J0 F600
X-8.2 Y-61.76 Z-1 I0.8 J0
X-9.8 Y-61.76 Z-1.5 I-0.8 J0
X-8.2 Y-61.76 Z-2 I0.8 J0
X-9.8 Y-61.76 Z-2.5 I-0.8 J0
X-8.2 Y-61.76 Z-3 I0.8 J0
X-9.8 Y-61.76 I-0.8 J0
X-8.2 Y-61.76 I0.8 J0
G1 X-8.207 Y-61.714
X-8.229 Y-61.672
X-8.262 Y-61.639
X-8.304 Y-61.618
X-8.35 Y-61.61
X-8.425
X-8.471 Z-2.993
X-8.513 Z-2.971
X-8.546 Z-2.938
X-8.568 Z-2.896
X-8.575 Z-2.85
Z5
X-7.302 Y-70.613
Z2
Z0.15 F400
X-7.294 Z0.104
X-7.273 Z0.062
X-7.24 Z0.029
X-7.198 Z0.007
X-7.152 Z0
X-7.077
X-7.03 Y-70.606
X-6.988 Y-70.585
X-6.955 Y-70.551
X-6.934 Y-70.51
X-6.927 Y-70.463
G3 X-7.627 Y-70.463 Z-0.5 I-0.35 J0 F600
X-6.927 Y-70.463 Z-1 I0.35 J0
X-7.627 Y-70.463 Z-1.5 I-0.35 J0
X-6.927 Y-70.463 Z-2 I0.35 J0
X-7.627 Y-70.463 Z-2.5 I-0.35 J0
X-6.927 Y-70.463 Z-3 I0.35 J0
X-7.627 Y-70.463 I-0.35 J0
X-6.927 Y-70.463 I0.35 J0
G1 X-6.934 Y-70.417
X-6.955 Y-70.375
X-6.988 Y-70.342
X-7.03 Y-70.321
X-7.077 Y-70.313
X-7.152
X-7.198 Z-2.993
X-7.24 Z-2.971
X-7.273 Z-2.938
X-7.294 Z-2.896
X-7.302 Z-2.85
Z15
(When using Fusion 360 for Personal Use, the feedrate of)
(rapid moves is reduced to match the feedrate of cutting)
(moves, which can increase machining time. Unrestricted rapid)
(moves are available with a Fusion 360 Subscription.)

(2D-Kontur6)
G0 X-12.799 Y-57.474
G1 Z15 F600
Z5
Z2.5 F300
X-12.785 Y-57.23 Z2.491 F1016
X-12.738 Y-56.356 Z2.461
X-12.692 Y-55.457 Z2.429
X-12.648 Y-54.535 Z2.397
X-12.606 Y-53.588 Z2.364
X-12.565 Y-52.615 Z2.33
X-12.527 Y-51.617 Z2.295
X-12.49 Y-50.593 Z2.259
X-12.456 Y-49.542 Z2.223
X-12.425 Y-48.464 Z2.185
X-12.395 Y-47.358 Z2.146
X-12.368 Y-46.224 Z2.107
X-12.344 Y-45.062 Z2.066
X-12.322 Y-43.871 Z2.025
X-12.303 Y-42.651 Z1.982
X-12.287 Y-41.402 Z1.938
X-12.274 Y-40.123 Z1.894
X-12.263 Y-38.814 Z1.848
X-12.256 Y-37.476 Z1.801
X-12.251 Y-36.107 Z1.754
X-12.25 Y-34.708 Z1.705
Y-31.016 Z1.576
X-12.26 Y-30.781 Z1.568
X-12.288 Y-30.536 Z1.559
X-12.338 Y-30.266 Z1.549
X-12.408 Y-29.972 Z1.539
X-12.5 Y-29.654 Z1.527
X-12.612 Y-29.314 Z1.515
X-12.744 Y-28.954 Z1.501
X-12.893 Y-28.575 Z1.487
X-13.06 Y-28.178 Z1.472
X-13.241 Y-27.764 Z1.456
X-13.435 Y-27.335 Z1.44
X-13.639 Y-26.891 Z1.423
X-13.852 Y-26.434 Z1.405
X-14.072 Y-25.966 Z1.387
X-14.073 Y-25.963
X-14.52 Y-24.998 Z1.35
X-14.525 Y-24.987 Z1.349
X-14.968 Y-23.992 Z1.311
X-14.976 Y-23.973
X-15.397 Y-22.953 Z1.272
X-15.405 Y-22.934 Z1.271
X-15.602 Y-22.417 Z1.252
X-15.608 Y-22.401
X-15.794 Y-21.88 Z1.232
X-15.8 Y-21.862
X-15.972 Y-21.337 Z1.212
X-15.978 Y-21.317
X-16.136 Y-20.79 Z1.192
X-16.142 Y-20.768 Z1.191
X-16.283 Y-20.238 Z1.172
X-16.289 Y-20.214 Z1.171
X-16.412 Y-19.681 Z1.152
X-16.417 Y-19.655 Z1.151
X-16.521 Y-19.12 Z1.132
X-16.526 Y-19.093 Z1.131
X-16.61 Y-18.555 Z1.112
X-16.613 Y-18.526 Z1.111
X-16.677 Y-17.985 Z1.092
X-16.68 Y-17.956 Z1.091
X-16.723 Y-17.411 Z1.072
X-16.724 Y-17.382 Z1.071
X-16.746 Y-16.832 Z1.052
X-16.747 Y-16.804 Z1.051
X-16.748 Y-16.249 Z1.032
X-16.747 Y-16.221 Z1.031
X-16.728 Y-15.661 Z1.011
X-16.726 Y-15.634 Z1.01
X-16.686 Y-15.068 Z0.99
X-16.684 Y-15.043
X-16.624 Y-14.471 Z0.969
X-16.621 Y-14.447
X-16.542 Y-13.869 Z0.948
X-16.539 Y-13.847 Z0.947
X-16.442 Y-13.264 Z0.927
X-16.438 Y-13.244 Z0.926
X-16.323 Y-12.655 Z0.905
X-16.319 Y-12.636 Z0.904
X-16.187 Y-12.044 Z0.883
X-16.183 Y-12.026
X-16.035 Y-11.43 Z0.861
X-16.031 Y-11.413
X-15.867 Y-10.816 Z0.839
X-15.863 Y-10.8 Z0.838
X-15.685 Y-10.204 Z0.817
X-15.68 Y-10.188 Z0.816
X-15.489 Y-9.593 Z0.794
X-15.484 Y-9.578
X-15.28 Y-8.988 Z0.772
X-15.274 Y-8.973 Z0.771
X-15.058 Y-8.389 Z0.75
X-15.052 Y-8.374 Z0.749
X-14.825 Y-7.8 Z0.727
X-14.818 Y-7.784
X-14.581 Y-7.221 Z0.706
X-14.574 Y-7.205 Z0.705
X-14.326 Y-6.656 Z0.684
X-14.319 Y-6.639 Z0.683
X-14.063 Y-6.106 Z0.663
X-14.054 Y-6.089 Z0.662
X-13.79 Y-5.575 Z0.642
X-13.78 Y-5.556 Z0.641
X-13.509 Y-5.064 Z0.621
X-13.497 Y-5.044
X-13.22 Y-4.575 Z0.602
X-13.207 Y-4.553 Z0.601
X-12.924 Y-4.112 Z0.582
X-12.908 Y-4.087 Z0.581
X-12.62 Y-3.674 Z0.564
X-12.601 Y-3.648 Z0.563
X-12.31 Y-3.266 Z0.546
X-12.286 Y-3.237 Z0.545
X-11.991 Y-2.888 Z0.529
X-11.962 Y-2.856 Z0.527
X-11.665 Y-2.543 Z0.512
X-11.629 Y-2.508 Z0.51
X-11.329 Y-2.232 Z0.496
X-11.297 Y-2.204 Z0.495
X-11.146 Y-2.081 Z0.488
X-11.121 Y-2.061 Z0.487
X-10.97 Y-1.948 Z0.48
X-10.942 Y-1.928 Z0.479
X-10.791 Y-1.825 Z0.472
X-10.76 Y-1.805 Z0.471
X-10.609 Y-1.713 Z0.465
X-10.575 Y-1.693 Z0.464
X-10.423 Y-1.611 Z0.458
X-10.385 Y-1.592 Z0.456
X-10.233 Y-1.52 Z0.45
X-10.192 Y-1.503 Z0.449
X-10.04 Y-1.442 Z0.443
X-9.995 Y-1.426 Z0.441
X-9.843 Y-1.376 Z0.436
X-9.795 Y-1.362 Z0.434
X-9.643 Y-1.323 Z0.428
X-9.592 Y-1.312 Z0.427
X-9.439 Y-1.284 Z0.421
X-9.387 Y-1.277 Z0.419
X-9.234 Y-1.26 Z0.414
X-9.18 Y-1.256 Z0.412
X-9.027 Y-1.25 Z0.407
X-8.973 Z0.405
X-8.82 Y-1.256 Z0.4
X-8.766 Y-1.26 Z0.398
X-8.613 Y-1.277 Z0.392
X-8.561 Y-1.284 Z0.39
X-8.408 Y-1.312 Z0.385
X-8.357 Y-1.323 Z0.383
X-8.205 Y-1.362 Z0.378
X-8.157 Y-1.376 Z0.376
X-8.005 Y-1.426 Z0.37
X-7.96 Y-1.442 Z0.369
X-7.808 Y-1.503 Z0.363
X-7.767 Y-1.521 Z0.361
X-7.615 Y-1.592 Z0.356
X-7.577 Y-1.611 Z0.354
X-7.425 Y-1.693 Z0.348
X-7.391 Y-1.713 Z0.347
X-7.24 Y-1.805 Z0.34
X-7.209 Y-1.825 Z0.339
X-7.058 Y-1.928 Z0.333
X-7.03 Y-1.948 Z0.332
X-6.879 Y-2.061 Z0.325
X-6.854 Y-2.081 Z0.324
X-6.703 Y-2.204 Z0.317
X-6.671 Y-2.232 Z0.316
X-6.371 Y-2.508 Z0.301
X-6.335 Y-2.543 Z0.3
X-6.038 Y-2.856 Z0.285
X-6.009 Y-2.888 Z0.283
X-5.714 Y-3.237 Z0.267
X-5.69 Y-3.266 Z0.266
X-5.399 Y-3.648 Z0.249
X-5.38 Y-3.674 Z0.248
X-5.092 Y-4.087 Z0.23
X-5.076 Y-4.112 Z0.229
X-4.793 Y-4.553 Z0.211
X-4.78 Y-4.575 Z0.21
X-4.503 Y-5.044 Z0.191
X-4.491 Y-5.064 Z0.19
X-4.22 Y-5.556 Z0.171
X-4.21 Y-5.575 Z0.17
X-3.946 Y-6.089 Z0.15
X-3.937 Y-6.106 Z0.149
X-3.681 Y-6.639 Z0.128
X-3.674 Y-6.656
X-3.426 Y-7.205 Z0.107
X-3.419 Y-7.221 Z0.106
X-3.182 Y-7.784 Z0.085
X-3.175 Y-7.8 Z0.084
X-2.948 Y-8.374 Z0.063
X-2.942 Y-8.389 Z0.062
X-2.726 Y-8.973 Z0.04
X-2.72 Y-8.988
X-2.516 Y-9.578 Z0.018
X-2.511 Y-9.593 Z0.017
X-2.32 Y-10.188 Z-0.004
X-2.315 Y-10.204 Z-0.005
X-2.137 Y-10.8 Z-0.027
X-2.133 Y-10.816
X-1.969 Y-11.413 Z-0.049
X-1.965 Y-11.43 Z-0.05
X-1.817 Y-12.026 Z-0.071
X-1.813 Y-12.044 Z-0.072
X-1.681 Y-12.636 Z-0.093
X-1.677 Y-12.655 Z-0.094
X-1.562 Y-13.243 Z-0.114
X-1.558 Y-13.264 Z-0.115
X-1.461 Y-13.847 Z-0.136
X-1.458 Y-13.869 Z-0.137
X-1.379 Y-14.447 Z-0.157
X-1.376 Y-14.471 Z-0.158
X-1.316 Y-15.043 Z-0.178
X-1.314 Y-15.068 Z-0.179
X-1.274 Y-15.634 Z-0.199
X-1.272 Y-15.661 Z-0.2
X-1.253 Y-16.221 Z-0.219
X-1.252 Y-16.249 Z-0.22
X-1.253 Y-16.804 Z-0.239
X-1.254 Y-16.832 Z-0.24
X-1.276 Y-17.382 Z-0.26
X-1.277 Y-17.411 Z-0.261
X-1.32 Y-17.956 Z-0.28
X-1.323 Y-17.985 Z-0.281
X-1.387 Y-18.526 Z-0.3
Y-18.531
X-1.39 Y-18.555 F600
X-1.474 Y-19.093
X-1.479 Y-19.12
X-1.583 Y-19.655
X-1.588 Y-19.681
X-1.711 Y-20.214
X-1.717 Y-20.238
X-1.858 Y-20.768
X-1.864 Y-20.79
X-2.022 Y-21.317
X-2.028 Y-21.337
X-2.2 Y-21.862
X-2.206 Y-21.88
X-2.392 Y-22.401
X-2.398 Y-22.417
X-2.595 Y-22.934
X-2.603 Y-22.953
X-3.024 Y-23.973
X-3.032 Y-23.992
X-3.475 Y-24.987
X-3.48 Y-24.998
X-3.927 Y-25.963
X-3.928 Y-25.966
X-4.148 Y-26.434
X-4.361 Y-26.891
X-4.565 Y-27.335
X-4.759 Y-27.764
X-4.94 Y-28.178
X-5.107 Y-28.575
X-5.256 Y-28.954
X-5.388 Y-29.314
X-5.5 Y-29.654
X-5.592 Y-29.972
X-5.662 Y-30.266
X-5.712 Y-30.536
X-5.74 Y-30.781
X-5.75 Y-31.016
Y-34.708
X-5.749 Y-35.921
X-5.745 Y-37.112
X-5.74 Y-38.28
X-5.732 Y-39.426
X-5.722 Y-40.55
X-5.709 Y-41.651
X-5.695 Y-42.731
X-5.678 Y-43.789
X-5.659 Y-44.825
X-5.639 Y-45.84
X-5.616 Y-46.833
X-5.591 Y-47.806
X-5.564 Y-48.758
X-5.536 Y-49.689
X-5.506 Y-50.601
X-5.474 Y-51.492
X-5.441 Y-52.364
X-5.406 Y-53.217
X-5.369 Y-54.051
X-5.332 Y-54.867
X-5.293 Y-55.664
X-5.253 Y-56.443
X-5.211 Y-57.205
X-5.169 Y-57.949
X-5.126 Y-58.676
X-5.082 Y-59.387
X-5.038 Y-60.082
X-4.993 Y-60.761
X-4.947 Y-61.424
X-4.901 Y-62.072
X-4.855 Y-62.705
X-4.809 Y-63.324
X-4.762 Y-63.928
X-4.716 Y-64.519
X-4.67 Y-65.096
X-4.625 Y-65.66
X-4.579 Y-66.211
X-4.535 Y-66.75
X-4.491 Y-67.276
X-4.448 Y-67.791
X-4.406 Y-68.293
X-4.365 Y-68.785
X-4.325 Y-69.265
X-4.287 Y-69.734
Y-69.735
X-4.25 Y-70.193
Y-70.194
X-4.215 Y-70.642
Y-70.643
X-4.181 Y-71.081
Y-71.083
X-4.15 Y-71.51
X-4.149 Y-71.513
X-4.093 Y-72.338
X-4.092 Y-72.345
X-4.045 Y-73.132
Y-73.14
X-4.008 Y-73.891
Y-73.902
X-3.982 Y-74.618
Y-74.631
X-3.969 Y-75.315
Y-75.33
X-3.97 Y-75.982
Y-76
X-3.986 Y-76.621
X-3.987 Y-76.642
X-4.017 Y-77.213
Y-80.949
G2 X-4.498 Y-81.934 I-1.25 J0
G1 X-8.144 Y-84.783
G2 X-9.899 Y-84.568 I-0.77 J0.985
G1 X-13.422 Y-80.058
X-13.465 Y-79.997
X-13.518 Y-79.913
X-13.555 Y-79.848
X-13.585 Y-79.781
X-13.62 Y-79.688
X-13.646 Y-79.605
X-13.713 Y-79.345
X-13.718 Y-79.322
X-13.778 Y-79.054
X-13.782 Y-79.033
X-13.836 Y-78.756
X-13.839 Y-78.736
X-13.886 Y-78.451
X-13.889 Y-78.433
X-13.93 Y-78.139
X-13.932 Y-78.122
X-13.967 Y-77.82
X-13.968 Y-77.804
X-13.997 Y-77.493
X-13.999 Y-77.478
X-14.022 Y-77.159
X-14.023 Y-77.145
X-14.041 Y-76.816
Y-76.804
X-14.054 Y-76.466
Y-76.454
X-14.062 Y-76.107
Y-76.096
X-14.065 Y-75.74
Y-75.73
X-14.063 Y-75.364
Y-75.354
X-14.057 Y-74.978
X-14.056 Y-74.97
X-14.046 Y-74.583
Y-74.576
X-14.031 Y-74.178
Y-74.172
X-14.012 Y-73.763
Y-73.757
X-13.99 Y-73.338
Y-73.333
X-13.964 Y-72.901
Y-72.897
X-13.935 Y-72.454
Y-72.45
X-13.903 Y-71.995
Y-71.992
X-13.868 Y-71.524
Y-71.521
X-13.83 Y-71.04
Y-71.038
X-13.791 Y-70.544
X-13.79 Y-70.543
X-13.749 Y-70.035
X-13.748 Y-70.034
X-13.705 Y-69.512
X-13.659 Y-68.975
X-13.611 Y-68.424
X-13.562 Y-67.858
X-13.512 Y-67.276
X-13.461 Y-66.678
X-13.409 Y-66.064
X-13.357 Y-65.433
X-13.304 Y-64.785
X-13.25 Y-64.119
X-13.197 Y-63.434
X-13.143 Y-62.731
X-13.09 Y-62.008
X-13.037 Y-61.264
X-12.985 Y-60.501
X-12.934 Y-59.716
X-12.883 Y-58.91
X-12.833 Y-58.081
X-12.785 Y-57.23
X-12.738 Y-56.356
X-12.692 Y-55.457
X-12.648 Y-54.535
X-12.606 Y-53.588
X-12.565 Y-52.615
X-12.527 Y-51.617
X-12.49 Y-50.593
X-12.456 Y-49.542
X-12.425 Y-48.464
X-12.395 Y-47.358
X-12.368 Y-46.224
X-12.344 Y-45.062
X-12.322 Y-43.871
X-12.303 Y-42.651
X-12.287 Y-41.402
X-12.274 Y-40.123
X-12.263 Y-38.814
X-12.256 Y-37.476
X-12.251 Y-36.107
X-12.25 Y-34.708
Y-31.016
X-12.26 Y-30.781
X-12.288 Y-30.536
X-12.338 Y-30.266
X-12.408 Y-29.972
X-12.5 Y-29.654
X-12.612 Y-29.314
X-12.744 Y-28.954
X-12.893 Y-28.575
X-13.06 Y-28.178
X-13.241 Y-27.764
X-13.435 Y-27.335
X-13.639 Y-26.891
X-13.852 Y-26.434
X-14.072 Y-25.966
X-14.073 Y-25.963
X-14.52 Y-24.998
X-14.525 Y-24.987
X-14.968 Y-23.992
X-14.976 Y-23.973
X-15.397 Y-22.953
X-15.405 Y-22.934
X-15.602 Y-22.417
X-15.608 Y-22.401
X-15.794 Y-21.88
X-15.8 Y-21.862
X-15.972 Y-21.337
X-15.978 Y-21.317
X-16.136 Y-20.79
X-16.142 Y-20.768
X-16.283 Y-20.238
X-16.289 Y-20.214
X-16.412 Y-19.681
X-16.417 Y-19.655
X-16.521 Y-19.12
X-16.526 Y-19.093
X-16.61 Y-18.555
X-16.613 Y-18.526
X-16.677 Y-17.985
X-16.68 Y-17.956
X-16.723 Y-17.411
X-16.724 Y-17.382
X-16.746 Y-16.832
X-16.747 Y-16.804
X-16.748 Y-16.249
X-16.747 Y-16.221
X-16.728 Y-15.661
X-16.726 Y-15.634
X-16.686 Y-15.068
X-16.684 Y-15.043
X-16.624 Y-14.471
X-16.621 Y-14.447
X-16.542 Y-13.869
X-16.539 Y-13.847
X-16.442 Y-13.264
X-16.438 Y-13.244
X-16.323 Y-12.655
X-16.319 Y-12.636
X-16.187 Y-12.044
X-16.183 Y-12.026
X-16.035 Y-11.43
X-16.031 Y-11.413
X-15.867 Y-10.816
X-15.863 Y-10.8
X-15.685 Y-10.204
X-15.68 Y-10.188
X-15.489 Y-9.593
X-15.484 Y-9.578
X-15.28 Y-8.988
X-15.274 Y-8.973
X-15.058 Y-8.389
X-15.052 Y-8.374
X-14.825 Y-7.8
X-14.818 Y-7.784
X-14.581 Y-7.221
X-14.574 Y-7.205
X-14.326 Y-6.656
X-14.319 Y-6.639
X-14.063 Y-6.106
X-14.054 Y-6.089
X-13.79 Y-5.575
X-13.78 Y-5.556
X-13.509 Y-5.064
X-13.497 Y-5.044
X-13.22 Y-4.575
X-13.207 Y-4.553
X-12.924 Y-4.112
X-12.908 Y-4.087
X-12.62 Y-3.674
X-12.601 Y-3.648
X-12.31 Y-3.266
X-12.286 Y-3.237
X-11.991 Y-2.888
X-11.962 Y-2.856
X-11.665 Y-2.543
X-11.629 Y-2.508
X-11.329 Y-2.232
X-11.297 Y-2.204
X-11.146 Y-2.081
X-11.121 Y-2.061
X-10.97 Y-1.948
X-10.942 Y-1.928
X-10.791 Y-1.825
X-10.76 Y-1.805
X-10.609 Y-1.713
X-10.575 Y-1.693
X-10.423 Y-1.611
X-10.385 Y-1.592
X-10.233 Y-1.52
X-10.192 Y-1.503
X-10.04 Y-1.442
X-9.995 Y-1.426
X-9.843 Y-1.376
X-9.795 Y-1.362
X-9.643 Y-1.323
X-9.592 Y-1.312
X-9.439 Y-1.284
X-9.387 Y-1.277
X-9.234 Y-1.26
X-9.18 Y-1.256
X-9.027 Y-1.25
X-8.973
X-8.82 Y-1.256
X-8.766 Y-1.26
X-8.613 Y-1.277
X-8.561 Y-1.284
X-8.408 Y-1.312
X-8.357 Y-1.323
X-8.205 Y-1.362
X-8.157 Y-1.376
X-8.005 Y-1.426
X-7.96 Y-1.442
X-7.808 Y-1.503
X-7.767 Y-1.521
X-7.615 Y-1.592
X-7.577 Y-1.611
X-7.425 Y-1.693
X-7.391 Y-1.713
X-7.24 Y-1.805
X-7.209 Y-1.825
X-7.058 Y-1.928
X-7.03 Y-1.948
X-6.879 Y-2.061
X-6.854 Y-2.081
X-6.703 Y-2.204
X-6.671 Y-2.232
X-6.371 Y-2.508
X-6.335 Y-2.543
X-6.038 Y-2.856
X-6.009 Y-2.888
X-5.714 Y-3.237
X-5.69 Y-3.266
X-5.399 Y-3.648
X-5.38 Y-3.674
X-5.092 Y-4.087
X-5.076 Y-4.112
X-4.793 Y-4.553
X-4.78 Y-4.575
X-4.503 Y-5.044
X-4.491 Y-5.064
X-4.22 Y-5.556
X-4.21 Y-5.575
X-3.946 Y-6.089
X-3.937 Y-6.106
X-3.681 Y-6.639
X-3.674 Y-6.656
X-3.426 Y-7.205
X-3.419 Y-7.221
X-3.182 Y-7.784
X-3.175 Y-7.8
X-2.948 Y-8.374
X-2.942 Y-8.389
X-2.726 Y-8.973
X-2.72 Y-8.988
X-2.516 Y-9.578
X-2.511 Y-9.593
X-2.32 Y-10.188
X-2.315 Y-10.204
X-2.137 Y-10.8
X-2.133 Y-10.816
X-1.969 Y-11.413
X-1.965 Y-11.43
X-1.817 Y-12.026
X-1.813 Y-12.044
X-1.681 Y-12.636
X-1.677 Y-12.655
X-1.562 Y-13.243
X-1.558 Y-13.264
X-1.461 Y-13.847
X-1.458 Y-13.869
X-1.379 Y-14.447
X-1.376 Y-14.471
X-1.316 Y-15.043
X-1.314 Y-15.068
X-1.274 Y-15.634
X-1.272 Y-15.661
X-1.253 Y-16.221
X-1.252 Y-16.249
X-1.253 Y-16.804
X-1.254 Y-16.832
X-1.276 Y-17.382
X-1.277 Y-17.411
X-1.32 Y-17.956
X-1.323 Y-17.985
X-1.387 Y-18.526
Y-18.531
X-1.39 Y-18.555 Z-0.301 F1016
X-1.474 Y-19.093 Z-0.32
X-1.479 Y-19.12 Z-0.321
X-1.583 Y-19.655 Z-0.34
X-1.588 Y-19.681 Z-0.341
X-1.711 Y-20.214 Z-0.36
X-1.717 Y-20.238 Z-0.361
X-1.858 Y-20.768 Z-0.38
X-1.864 Y-20.79 Z-0.381
X-2.022 Y-21.317 Z-0.4
X-2.028 Y-21.337 Z-0.401
X-2.2 Y-21.862 Z-0.42
X-2.206 Y-21.88 Z-0.421
X-2.392 Y-22.401 Z-0.44
X-2.398 Y-22.417
X-2.595 Y-22.934 Z-0.46
X-2.603 Y-22.953 Z-0.461
X-3.024 Y-23.973 Z-0.499
X-3.032 Y-23.992 Z-0.5
X-3.475 Y-24.987 Z-0.538
X-3.48 Y-24.998
X-3.927 Y-25.963 Z-0.575
X-3.928 Y-25.966
X-4.148 Y-26.434 Z-0.594
X-4.226 Y-26.602 Z-0.6
X-4.361 Y-26.891 F600
X-4.565 Y-27.335
X-4.759 Y-27.764
X-4.94 Y-28.178
X-5.107 Y-28.575
X-5.256 Y-28.954
X-5.388 Y-29.314
X-5.5 Y-29.654
X-5.592 Y-29.972
X-5.662 Y-30.266
X-5.712 Y-30.536
X-5.74 Y-30.781
X-5.75 Y-31.016
Y-34.708
X-5.749 Y-35.921
X-5.745 Y-37.112
X-5.74 Y-38.28
X-5.732 Y-39.426
X-5.722 Y-40.55
X-5.709 Y-41.651
X-5.695 Y-42.731
X-5.678 Y-43.789
X-5.659 Y-44.825
X-5.639 Y-45.84
X-5.616 Y-46.833
X-5.591 Y-47.806
X-5.564 Y-48.758
X-5.536 Y-49.689
X-5.506 Y-50.601
X-5.474 Y-51.492
X-5.441 Y-52.364
X-5.406 Y-53.217
X-5.369 Y-54.051
X-5.332 Y-54.867
X-5.293 Y-55.664
X-5.253 Y-56.443
X-5.211 Y-57.205
X-5.169 Y-57.949
X-5.126 Y-58.676
X-5.082 Y-59.387
X-5.038 Y-60.082
X-4.993 Y-60.761
X-4.947 Y-61.424
X-4.901 Y-62.072
X-4.855 Y-62.705
X-4.809 Y-63.324
X-4.762 Y-63.928
X-4.716 Y-64.519
X-4.67 Y-65.096
X-4.625 Y-65.66
X-4.579 Y-66.211
X-4.535 Y-66.75
X-4.491 Y-67.276
X-4.448 Y-67.791
X-4.406 Y-68.293
X-4.365 Y-68.785
X-4.325 Y-69.265
X-4.287 Y-69.734
Y-69.735
X-4.25 Y-70.193
Y-70.194
X-4.215 Y-70.642
Y-70.643
X-4.181 Y-71.081
Y-71.083
X-4.15 Y-71.51
X-4.149 Y-71.513
X-4.093 Y-72.338
X-4.092 Y-72.345
X-4.045 Y-73.132
Y-73.14
X-4.008 Y-73.891
Y-73.902
X-3.982 Y-74.618
Y-74.631
X-3.969 Y-75.315
Y-75.33
X-3.97 Y-75.982
Y-76
X-3.986 Y-76.621
X-3.987 Y-76.642
X-4.017 Y-77.213
Y-80.949
G2 X-4.498 Y-81.934 I-1.25 J0
G1 X-8.144 Y-84.783
G2 X-9.899 Y-84.568 I-0.77 J0.985
G1 X-13.422 Y-80.058
X-13.465 Y-79.997
X-13.518 Y-79.913
X-13.555 Y-79.848
X-13.585 Y-79.781
X-13.62 Y-79.688
X-13.646 Y-79.605
X-13.713 Y-79.345
X-13.718 Y-79.322
X-13.778 Y-79.054
X-13.782 Y-79.033
X-13.836 Y-78.756
X-13.839 Y-78.736
X-13.886 Y-78.451
X-13.889 Y-78.433
X-13.93 Y-78.139
X-13.932 Y-78.122
X-13.967 Y-77.82
X-13.968 Y-77.804
X-13.997 Y-77.493
X-13.999 Y-77.478
X-14.022 Y-77.159
X-14.023 Y-77.145
X-14.041 Y-76.816
Y-76.804
X-14.054 Y-76.466
Y-76.454
X-14.062 Y-76.107
Y-76.096
X-14.065 Y-75.74
Y-75.73
X-14.063 Y-75.364
Y-75.354
X-14.057 Y-74.978
X-14.056 Y-74.97
X-14.046 Y-74.583
Y-74.576
X-14.031 Y-74.178
Y-74.172
X-14.012 Y-73.763
Y-73.757
X-13.99 Y-73.338
Y-73.333
X-13.964 Y-72.901
Y-72.897
X-13.935 Y-72.454
Y-72.45
X-13.903 Y-71.995
Y-71.992
X-13.868 Y-71.524
Y-71.521
X-13.83 Y-71.04
Y-71.038
X-13.791 Y-70.544
X-13.79 Y-70.543
X-13.749 Y-70.035
X-13.748 Y-70.034
X-13.705 Y-69.512
X-13.659 Y-68.975
X-13.611 Y-68.424
X-13.562 Y-67.858
X-13.512 Y-67.276
X-13.461 Y-66.678
X-13.409 Y-66.064
X-13.357 Y-65.433
X-13.304 Y-64.785
X-13.25 Y-64.119
X-13.197 Y-63.434
X-13.143 Y-62.731
X-13.09 Y-62.008
X-13.037 Y-61.264
X-12.985 Y-60.501
X-12.934 Y-59.716
X-12.883 Y-58.91
X-12.833 Y-58.081
X-12.785 Y-57.23
X-12.738 Y-56.356
X-12.692 Y-55.457
X-12.648 Y-54.535
X-12.606 Y-53.588
X-12.565 Y-52.615
X-12.527 Y-51.617
X-12.49 Y-50.593
X-12.456 Y-49.542
X-12.425 Y-48.464
X-12.395 Y-47.358
X-12.368 Y-46.224
X-12.344 Y-45.062
X-12.322 Y-43.871
X-12.303 Y-42.651
X-12.287 Y-41.402
X-12.274 Y-40.123
X-12.263 Y-38.814
X-12.256 Y-37.476
X-12.251 Y-36.107
X-12.25 Y-34.708
Y-31.016
X-12.26 Y-30.781
X-12.288 Y-30.536
X-12.338 Y-30.266
X-12.408 Y-29.972
X-12.5 Y-29.654
X-12.612 Y-29.314
X-12.744 Y-28.954
X-12.893 Y-28.575
X-13.06 Y-28.178
X-13.241 Y-27.764
X-13.435 Y-27.335
X-13.639 Y-26.891
X-13.852 Y-26.434
X-14.072 Y-25.966
X-14.073 Y-25.963
X-14.52 Y-24.998
X-14.525 Y-24.987
X-14.968 Y-23.992
X-14.976 Y-23.973
X-15.397 Y-22.953
X-15.405 Y-22.934
X-15.602 Y-22.417
X-15.608 Y-22.401
X-15.794 Y-21.88
X-15.8 Y-21.862
X-15.972 Y-21.337
X-15.978 Y-21.317
X-16.136 Y-20.79
X-16.142 Y-20.768
X-16.283 Y-20.238
X-16.289 Y-20.214
X-16.412 Y-19.681
X-16.417 Y-19.655
X-16.521 Y-19.12
X-16.526 Y-19.093
X-16.61 Y-18.555
X-16.613 Y-18.526
X-16.677 Y-17.985
X-16.68 Y-17.956
X-16.723 Y-17.411
X-16.724 Y-17.382
X-16.746 Y-16.832
X-16.747 Y-16.804
X-16.748 Y-16.249
X-16.747 Y-16.221
X-16.728 Y-15.661
X-16.726 Y-15.634
X-16.686 Y-15.068
X-16.684 Y-15.043
X-16.624 Y-14.471
X-16.621 Y-14.447
X-16.542 Y-13.869
X-16.539 Y-13.847
X-16.442 Y-13.264
X-16.438 Y-13.244
X-16.323 Y-12.655
X-16.319 Y-12.636
X-16.187 Y-12.044
X-16.183 Y-12.026
X-16.035 Y-11.43
X-16.031 Y-11.413
X-15.867 Y-10.816
X-15.863 Y-10.8
X-15.685 Y-10.204
X-15.68 Y-10.188
X-15.489 Y-9.593
X-15.484 Y-9.578
X-15.28 Y-8.988
X-15.274 Y-8.973
X-15.058 Y-8.389
X-15.052 Y-8.374
X-14.825 Y-7.8
X-14.818 Y-7.784
X-14.581 Y-7.221
X-14.574 Y-7.205
X-14.326 Y-6.656
X-14.319 Y-6.639
X-14.063 Y-6.106
X-14.054 Y-6.089
X-13.79 Y-5.575
X-13.78 Y-5.556
X-13.509 Y-5.064
X-13.497 Y-5.044
X-13.22 Y-4.575
X-13.207 Y-4.553
X-12.924 Y-4.112
X-12.908 Y-4.087
X-12.62 Y-3.674
X-12.601 Y-3.648
X-12.31 Y-3.266
X-12.286 Y-3.237
X-11.991 Y-2.888
X-11.962 Y-2.856
X-11.665 Y-2.543
X-11.629 Y-2.508
X-11.329 Y-2.232
X-11.297 Y-2.204
X-11.146 Y-2.081
X-11.121 Y-2.061
X-10.97 Y-1.948
X-10.942 Y-1.928
X-10.791 Y-1.825
X-10.76 Y-1.805
X-10.609 Y-1.713
X-10.575 Y-1.693
X-10.423 Y-1.611
X-10.385 Y-1.592
X-10.233 Y-1.52
X-10.192 Y-1.503
X-10.04 Y-1.442
X-9.995 Y-1.426
X-9.843 Y-1.376
X-9.795 Y-1.362
X-9.643 Y-1.323
X-9.592 Y-1.312
X-9.439 Y-1.284
X-9.387 Y-1.277
X-9.234 Y-1.26
X-9.18 Y-1.256
X-9.027 Y-1.25
X-8.973
X-8.82 Y-1.256
X-8.766 Y-1.26
X-8.613 Y-1.277
X-8.561 Y-1.284
X-8.408 Y-1.312
X-8.357 Y-1.323
X-8.205 Y-1.362
X-8.157 Y-1.376
X-8.005 Y-1.426
X-7.96 Y-1.442
X-7.808 Y-1.503
X-7.767 Y-1.521
X-7.615 Y-1.592
X-7.577 Y-1.611
X-7.425 Y-1.693
X-7.391 Y-1.713
X-7.24 Y-1.805
X-7.209 Y-1.825
X-7.058 Y-1.928
X-7.03 Y-1.948
X-6.879 Y-2.061
X-6.854 Y-2.081
X-6.703 Y-2.204
X-6.671 Y-2.232
X-6.371 Y-2.508
X-6.335 Y-2.543
X-6.038 Y-2.856
X-6.009 Y-2.888
X-5.714 Y-3.237
X-5.69 Y-3.266
X-5.399 Y-3.648
X-5.38 Y-3.674
X-5.092 Y-4.087
X-5.076 Y-4.112
X-4.793 Y-4.553
X-4.78 Y-4.575
X-4.503 Y-5.044
X-4.491 Y-5.064
X-4.22 Y-5.556
X-4.21 Y-5.575
X-3.946 Y-6.089
X-3.937 Y-6.106
X-3.681 Y-6.639
X-3.674 Y-6.656
X-3.426 Y-7.205
X-3.419 Y-7.221
X-3.182 Y-7.784
X-3.175 Y-7.8
X-2.948 Y-8.374
X-2.942 Y-8.389
X-2.726 Y-8.973
X-2.72 Y-8.988
X-2.516 Y-9.578
X-2.511 Y-9.593
X-2.32 Y-10.188
X-2.315 Y-10.204
X-2.137 Y-10.8
X-2.133 Y-10.816
X-1.969 Y-11.413
X-1.965 Y-11.43
X-1.817 Y-12.026
X-1.813 Y-12.044
X-1.681 Y-12.636
X-1.677 Y-12.655
X-1.562 Y-13.243
X-1.558 Y-13.264
X-1.461 Y-13.847
X-1.458 Y-13.869
X-1.379 Y-14.447
X-1.376 Y-14.471
X-1.316 Y-15.043
X-1.314 Y-15.068
X-1.274 Y-15.634
X-1.272 Y-15.661
X-1.253 Y-16.221
X-1.252 Y-16.249
X-1.253 Y-16.804
X-1.254 Y-16.832
X-1.276 Y-17.382
X-1.277 Y-17.411
X-1.32 Y-17.956
X-1.323 Y-17.985
X-1.387 Y-18.526
X-1.39 Y-18.555
X-1.474 Y-19.093
X-1.479 Y-19.12
X-1.583 Y-19.655
X-1.588 Y-19.681
X-1.711 Y-20.214
X-1.717 Y-20.238
X-1.858 Y-20.768
X-1.864 Y-20.79
X-2.022 Y-21.317
X-2.028 Y-21.337
X-2.2 Y-21.862
X-2.206 Y-21.88
X-2.392 Y-22.401
X-2.398 Y-22.417
X-2.595 Y-22.934
X-2.603 Y-22.953
X-3.024 Y-23.973
X-3.032 Y-23.992
X-3.475 Y-24.987
X-3.48 Y-24.998
X-3.927 Y-25.963
X-3.928 Y-25.966
X-4.148 Y-26.434
X-4.226 Y-26.602
X-4.361 Y-26.891 Z-0.611 F1016
X-4.565 Y-27.335 Z-0.628
X-4.759 Y-27.764 Z-0.645
X-4.94 Y-28.178 Z-0.66
X-5.107 Y-28.575 Z-0.675
X-5.256 Y-28.954 Z-0.69
X-5.388 Y-29.314 Z-0.703
X-5.5 Y-29.654 Z-0.716
X-5.592 Y-29.972 Z-0.727
X-5.662 Y-30.266 Z-0.738
X-5.712 Y-30.536 Z-0.747
X-5.74 Y-30.781 Z-0.756
X-5.75 Y-31.016 Z-0.764
Y-34.708 Z-0.893
Y-34.907 Z-0.9
X-5.749 Y-35.921 F600
X-5.745 Y-37.112
X-5.74 Y-38.28
X-5.732 Y-39.426
X-5.722 Y-40.55
X-5.709 Y-41.651
X-5.695 Y-42.731
X-5.678 Y-43.789
X-5.659 Y-44.825
X-5.639 Y-45.84
X-5.616 Y-46.833
X-5.591 Y-47.806
X-5.564 Y-48.758
X-5.536 Y-49.689
X-5.506 Y-50.601
X-5.474 Y-51.492
X-5.441 Y-52.364
X-5.406 Y-53.217
X-5.369 Y-54.051
X-5.332 Y-54.867
X-5.293 Y-55.664
X-5.253 Y-56.443
X-5.211 Y-57.205
X-5.169 Y-57.949
X-5.126 Y-58.676
X-5.082 Y-59.387
X-5.038 Y-60.082
X-4.993 Y-60.761
X-4.947 Y-61.424
X-4.901 Y-62.072
X-4.855 Y-62.705
X-4.809 Y-63.324
X-4.762 Y-63.928
X-4.716 Y-64.519
X-4.67 Y-65.096
X-4.625 Y-65.66
X-4.579 Y-66.211
X-4.535 Y-66.75
X-4.491 Y-67.276
X-4.448 Y-67.791
X-4.406 Y-68.293
X-4.365 Y-68.785
X-4.325 Y-69.265
X-4.287 Y-69.734
Y-69.735
X-4.25 Y-70.193
Y-70.194
X-4.215 Y-70.642
Y-70.643
X-4.181 Y-71.081
Y-71.083
X-4.15 Y-71.51
X-4.149 Y-71.513
X-4.093 Y-72.338
X-4.092 Y-72.345
X-4.045 Y-73.132
Y-73.14
X-4.008 Y-73.891
Y-73.902
X-3.982 Y-74.618
Y-74.631
X-3.969 Y-75.315
Y-75.33
X-3.97 Y-75.982
Y-76
X-3.986 Y-76.621
X-3.987 Y-76.642
X-4.017 Y-77.213
Y-80.949
G2 X-4.498 Y-81.934 I-1.25 J0
G1 X-8.144 Y-84.783
G2 X-9.899 Y-84.568 I-0.77 J0.985
G1 X-13.422 Y-80.058
X-13.465 Y-79.997
X-13.518 Y-79.913
X-13.555 Y-79.848
X-13.585 Y-79.781
X-13.62 Y-79.688
X-13.646 Y-79.605
X-13.713 Y-79.345
X-13.718 Y-79.322
X-13.778 Y-79.054
X-13.782 Y-79.033
X-13.836 Y-78.756
X-13.839 Y-78.736
X-13.886 Y-78.451
X-13.889 Y-78.433
X-13.93 Y-78.139
X-13.932 Y-78.122
X-13.967 Y-77.82
X-13.968 Y-77.804
X-13.997 Y-77.493
X-13.999 Y-77.478
X-14.022 Y-77.159
X-14.023 Y-77.145
X-14.041 Y-76.816
Y-76.804
X-14.054 Y-76.466
Y-76.454
X-14.062 Y-76.107
Y-76.096
X-14.065 Y-75.74
Y-75.73
X-14.063 Y-75.364
Y-75.354
X-14.057 Y-74.978
X-14.056 Y-74.97
X-14.046 Y-74.583
Y-74.576
X-14.031 Y-74.178
Y-74.172
X-14.012 Y-73.763
Y-73.757
X-13.99 Y-73.338
Y-73.333
X-13.964 Y-72.901
Y-72.897
X-13.935 Y-72.454
Y-72.45
X-13.903 Y-71.995
Y-71.992
X-13.868 Y-71.524
Y-71.521
X-13.83 Y-71.04
Y-71.038
X-13.791 Y-70.544
X-13.79 Y-70.543
X-13.749 Y-70.035
X-13.748 Y-70.034
X-13.705 Y-69.512
X-13.659 Y-68.975
X-13.611 Y-68.424
X-13.562 Y-67.858
X-13.512 Y-67.276
X-13.461 Y-66.678
X-13.409 Y-66.064
X-13.357 Y-65.433
X-13.304 Y-64.785
X-13.25 Y-64.119
X-13.197 Y-63.434
X-13.143 Y-62.731
X-13.09 Y-62.008
X-13.037 Y-61.264
X-12.985 Y-60.501
X-12.934 Y-59.716
X-12.883 Y-58.91
X-12.833 Y-58.081
X-12.785 Y-57.23
X-12.738 Y-56.356
X-12.692 Y-55.457
X-12.648 Y-54.535
X-12.606 Y-53.588
X-12.565 Y-52.615
X-12.527 Y-51.617
X-12.49 Y-50.593
X-12.456 Y-49.542
X-12.425 Y-48.464
X-12.395 Y-47.358
X-12.368 Y-46.224
X-12.344 Y-45.062
X-12.322 Y-43.871
X-12.303 Y-42.651
X-12.287 Y-41.402
X-12.274 Y-40.123
X-12.263 Y-38.814
X-12.256 Y-37.476
X-12.251 Y-36.107
X-12.25 Y-34.708
Y-31.016
X-12.26 Y-30.781
X-12.288 Y-30.536
X-12.338 Y-30.266
X-12.408 Y-29.972
X-12.5 Y-29.654
X-12.612 Y-29.314
X-12.744 Y-28.954
X-12.893 Y-28.575
X-13.06 Y-28.178
X-13.241 Y-27.764
X-13.435 Y-27.335
X-13.639 Y-26.891
X-13.852 Y-26.434
X-14.072 Y-25.966
X-14.073 Y-25.963
X-14.52 Y-24.998
X-14.525 Y-24.987
X-14.968 Y-23.992
X-14.976 Y-23.973
X-15.397 Y-22.953
X-15.405 Y-22.934
X-15.602 Y-22.417
X-15.608 Y-22.401
X-15.794 Y-21.88
X-15.8 Y-21.862
X-15.972 Y-21.337
X-15.978 Y-21.317
X-16.136 Y-20.79
X-16.142 Y-20.768
X-16.283 Y-20.238
X-16.289 Y-20.214
X-16.412 Y-19.681
X-16.417 Y-19.655
X-16.521 Y-19.12
X-16.526 Y-19.093
X-16.61 Y-18.555
X-16.613 Y-18.526
X-16.677 Y-17.985
X-16.68 Y-17.956
X-16.723 Y-17.411
X-16.724 Y-17.382
X-16.746 Y-16.832
X-16.747 Y-16.804
X-16.748 Y-16.249
X-16.747 Y-16.221
X-16.728 Y-15.661
X-16.726 Y-15.634
X-16.686 Y-15.068
X-16.684 Y-15.043
X-16.624 Y-14.471
X-16.621 Y-14.447
X-16.542 Y-13.869
X-16.539 Y-13.847
X-16.442 Y-13.264
X-16.438 Y-13.244
X-16.323 Y-12.655
X-16.319 Y-12.636
X-16.187 Y-12.044
X-16.183 Y-12.026
X-16.035 Y-11.43
X-16.031 Y-11.413
X-15.867 Y-10.816
X-15.863 Y-10.8
X-15.685 Y-10.204
X-15.68 Y-10.188
X-15.489 Y-9.593
X-15.484 Y-9.578
X-15.28 Y-8.988
X-15.274 Y-8.973
X-15.058 Y-8.389
X-15.052 Y-8.374
X-14.825 Y-7.8
X-14.818 Y-7.784
X-14.581 Y-7.221
X-14.574 Y-7.205
X-14.326 Y-6.656
X-14.319 Y-6.639
X-14.063 Y-6.106
X-14.054 Y-6.089
X-13.79 Y-5.575
X-13.78 Y-5.556
X-13.509 Y-5.064
X-13.497 Y-5.044
X-13.22 Y-4.575
X-13.207 Y-4.553
X-12.924 Y-4.112
X-12.908 Y-4.087
X-12.62 Y-3.674
X-12.601 Y-3.648
X-12.31 Y-3.266
X-12.286 Y-3.237
X-11.991 Y-2.888
X-11.962 Y-2.856
X-11.665 Y-2.543
X-11.629 Y-2.508
X-11.329 Y-2.232
X-11.297 Y-2.204
X-11.146 Y-2.081
X-11.121 Y-2.061
X-10.97 Y-1.948
X-10.942 Y-1.928
X-10.791 Y-1.825
X-10.76 Y-1.805
X-10.609 Y-1.713
X-10.575 Y-1.693
X-10.423 Y-1.611
X-10.385 Y-1.592
X-10.233 Y-1.52
X-10.192 Y-1.503
X-10.04 Y-1.442
X-9.995 Y-1.426
X-9.843 Y-1.376
X-9.795 Y-1.362
X-9.643 Y-1.323
X-9.592 Y-1.312
X-9.439 Y-1.284
X-9.387 Y-1.277
X-9.234 Y-1.26
X-9.18 Y-1.256
X-9.027 Y-1.25
X-8.973
X-8.82 Y-1.256
X-8.766 Y-1.26
X-8.613 Y-1.277
X-8.561 Y-1.284
X-8.408 Y-1.312
X-8.357 Y-1.323
X-8.205 Y-1.362
X-8.157 Y-1.376
X-8.005 Y-1.426
X-7.96 Y-1.442
X-7.808 Y-1.503
X-7.767 Y-1.521
X-7.615 Y-1.592
X-7.577 Y-1.611
X-7.425 Y-1.693
X-7.391 Y-1.713
X-7.24 Y-1.805
X-7.209 Y-1.825
X-7.058 Y-1.928
X-7.03 Y-1.948
X-6.879 Y-2.061
X-6.854 Y-2.081
X-6.703 Y-2.204
X-6.671 Y-2.232
X-6.371 Y-2.508
X-6.335 Y-2.543
X-6.038 Y-2.856
X-6.009 Y-2.888
X-5.714 Y-3.237
X-5.69 Y-3.266
X-5.399 Y-3.648
X-5.38 Y-3.674
X-5.092 Y-4.087
X-5.076 Y-4.112
X-4.793 Y-4.553
X-4.78 Y-4.575
X-4.503 Y-5.044
X-4.491 Y-5.064
X-4.22 Y-5.556
X-4.21 Y-5.575
X-3.946 Y-6.089
X-3.937 Y-6.106
X-3.681 Y-6.639
X-3.674 Y-6.656
X-3.426 Y-7.205
X-3.419 Y-7.221
X-3.182 Y-7.784
X-3.175 Y-7.8
X-2.948 Y-8.374
X-2.942 Y-8.389
X-2.726 Y-8.973
X-2.72 Y-8.988
X-2.516 Y-9.578
X-2.511 Y-9.593
X-2.32 Y-10.188
X-2.315 Y-10.204
X-2.137 Y-10.8
X-2.133 Y-10.816
X-1.969 Y-11.413
X-1.965 Y-11.43
X-1.817 Y-12.026
X-1.813 Y-12.044
X-1.681 Y-12.636
X-1.677 Y-12.655
X-1.562 Y-13.243
X-1.558 Y-13.264
X-1.461 Y-13.847
X-1.458 Y-13.869
X-1.379 Y-14.447
X-1.376 Y-14.471
X-1.316 Y-15.043
X-1.314 Y-15.068
X-1.274 Y-15.634
X-1.272 Y-15.661
X-1.253 Y-16.221
X-1.252 Y-16.249
X-1.253 Y-16.804
X-1.254 Y-16.832
X-1.276 Y-17.382
X-1.277 Y-17.411
X-1.32 Y-17.956
X-1.323 Y-17.985
X-1.387 Y-18.526
X-1.39 Y-18.555
X-1.474 Y-19.093
X-1.479 Y-19.12
X-1.583 Y-19.655
X-1.588 Y-19.681
X-1.711 Y-20.214
X-1.717 Y-20.238
X-1.858 Y-20.768
X-1.864 Y-20.79
X-2.022 Y-21.317
X-2.028 Y-21.337
X-2.2 Y-21.862
X-2.206 Y-21.88
X-2.392 Y-22.401
X-2.398 Y-22.417
X-2.595 Y-22.934
X-2.603 Y-22.953
X-3.024 Y-23.973
X-3.032 Y-23.992
X-3.475 Y-24.987
X-3.48 Y-24.998
X-3.927 Y-25.963
X-3.928 Y-25.966
X-4.148 Y-26.434
X-4.361 Y-26.891
X-4.565 Y-27.335
X-4.759 Y-27.764
X-4.94 Y-28.178
X-5.107 Y-28.575
X-5.256 Y-28.954
X-5.388 Y-29.314
X-5.5 Y-29.654
X-5.592 Y-29.972
X-5.662 Y-30.266
X-5.712 Y-30.536
X-5.74 Y-30.781
X-5.75 Y-31.016
Y-34.708
Y-34.907
X-5.749 Y-35.921 Z-0.935 F1016
X-5.745 Y-37.112 Z-0.977
X-5.74 Y-38.28 Z-1.018
X-5.732 Y-39.426 Z-1.058
X-5.722 Y-40.55 Z-1.097
X-5.709 Y-41.651 Z-1.136
X-5.695 Y-42.731 Z-1.173
X-5.683 Y-43.498 Z-1.2
X-5.678 Y-43.789 F600
X-5.659 Y-44.825
X-5.639 Y-45.84
X-5.616 Y-46.833
X-5.591 Y-47.806
X-5.564 Y-48.758
X-5.536 Y-49.689
X-5.506 Y-50.601
X-5.474 Y-51.492
X-5.441 Y-52.364
X-5.406 Y-53.217
X-5.369 Y-54.051
X-5.332 Y-54.867
X-5.293 Y-55.664
X-5.253 Y-56.443
X-5.211 Y-57.205
X-5.169 Y-57.949
X-5.126 Y-58.676
X-5.082 Y-59.387
X-5.038 Y-60.082
X-4.993 Y-60.761
X-4.947 Y-61.424
X-4.901 Y-62.072
X-4.855 Y-62.705
X-4.809 Y-63.324
X-4.762 Y-63.928
X-4.716 Y-64.519
X-4.67 Y-65.096
X-4.625 Y-65.66
X-4.579 Y-66.211
X-4.535 Y-66.75
X-4.491 Y-67.276
X-4.448 Y-67.791
X-4.406 Y-68.293
X-4.365 Y-68.785
X-4.325 Y-69.265
X-4.287 Y-69.734
Y-69.735
X-4.25 Y-70.193
Y-70.194
X-4.215 Y-70.642
Y-70.643
X-4.181 Y-71.081
Y-71.083
X-4.15 Y-71.51
X-4.149 Y-71.513
X-4.093 Y-72.338
X-4.092 Y-72.345
X-4.045 Y-73.132
Y-73.14
X-4.008 Y-73.891
Y-73.902
X-3.982 Y-74.618
Y-74.631
X-3.969 Y-75.315
Y-75.33
X-3.97 Y-75.982
Y-76
X-3.986 Y-76.621
X-3.987 Y-76.642
X-4.017 Y-77.213
Y-80.949
G2 X-4.498 Y-81.934 I-1.25 J0
G1 X-8.144 Y-84.783
G2 X-9.899 Y-84.568 I-0.77 J0.985
G1 X-13.422 Y-80.058
X-13.465 Y-79.997
X-13.518 Y-79.913
X-13.555 Y-79.848
X-13.585 Y-79.781
X-13.62 Y-79.688
X-13.646 Y-79.605
X-13.713 Y-79.345
X-13.718 Y-79.322
X-13.778 Y-79.054
X-13.782 Y-79.033
X-13.836 Y-78.756
X-13.839 Y-78.736
X-13.886 Y-78.451
X-13.889 Y-78.433
X-13.93 Y-78.139
X-13.932 Y-78.122
X-13.967 Y-77.82
X-13.968 Y-77.804
X-13.997 Y-77.493
X-13.999 Y-77.478
X-14.022 Y-77.159
X-14.023 Y-77.145
X-14.041 Y-76.816
Y-76.804
X-14.054 Y-76.466
Y-76.454
X-14.062 Y-76.107
Y-76.096
X-14.065 Y-75.74
Y-75.73
X-14.063 Y-75.364
Y-75.354
X-14.057 Y-74.978
X-14.056 Y-74.97
X-14.046 Y-74.583
Y-74.576
X-14.031 Y-74.178
Y-74.172
X-14.012 Y-73.763
Y-73.757
X-13.99 Y-73.338
Y-73.333
X-13.964 Y-72.901
Y-72.897
X-13.935 Y-72.454
Y-72.45
X-13.903 Y-71.995
Y-71.992
X-13.868 Y-71.524
Y-71.521
X-13.83 Y-71.04
Y-71.038
X-13.791 Y-70.544
X-13.79 Y-70.543
X-13.749 Y-70.035
X-13.748 Y-70.034
X-13.705 Y-69.512
X-13.659 Y-68.975
X-13.611 Y-68.424
X-13.562 Y-67.858
X-13.512 Y-67.276
X-13.461 Y-66.678
X-13.409 Y-66.064
X-13.357 Y-65.433
X-13.304 Y-64.785
X-13.25 Y-64.119
X-13.197 Y-63.434
X-13.143 Y-62.731
X-13.09 Y-62.008
X-13.037 Y-61.264
X-12.985 Y-60.501
X-12.934 Y-59.716
X-12.883 Y-58.91
X-12.833 Y-58.081
X-12.785 Y-57.23
X-12.738 Y-56.356
X-12.692 Y-55.457
X-12.648 Y-54.535
X-12.606 Y-53.588
X-12.565 Y-52.615
X-12.527 Y-51.617
X-12.49 Y-50.593
X-12.456 Y-49.542
X-12.425 Y-48.464
X-12.395 Y-47.358
X-12.368 Y-46.224
X-12.344 Y-45.062
X-12.322 Y-43.871
X-12.303 Y-42.651
X-12.287 Y-41.402
X-12.274 Y-40.123
X-12.263 Y-38.814
X-12.256 Y-37.476
X-12.251 Y-36.107
X-12.25 Y-34.708
Y-31.016
X-12.26 Y-30.781
X-12.288 Y-30.536
X-12.338 Y-30.266
X-12.408 Y-29.972
X-12.5 Y-29.654
X-12.612 Y-29.314
X-12.744 Y-28.954
X-12.893 Y-28.575
X-13.06 Y-28.178
X-13.241 Y-27.764
X-13.435 Y-27.335
X-13.639 Y-26.891
X-13.852 Y-26.434
X-14.072 Y-25.966
X-14.073 Y-25.963
X-14.52 Y-24.998
X-14.525 Y-24.987
X-14.968 Y-23.992
X-14.976 Y-23.973
X-15.397 Y-22.953
X-15.405 Y-22.934
X-15.602 Y-22.417
X-15.608 Y-22.401
X-15.794 Y-21.88
X-15.8 Y-21.862
X-15.972 Y-21.337
X-15.978 Y-21.317
X-16.136 Y-20.79
X-16.142 Y-20.768
X-16.283 Y-20.238
X-16.289 Y-20.214
X-16.412 Y-19.681
X-16.417 Y-19.655
X-16.521 Y-19.12
X-16.526 Y-19.093
X-16.61 Y-18.555
X-16.613 Y-18.526
X-16.677 Y-17.985
X-16.68 Y-17.956
X-16.723 Y-17.411
X-16.724 Y-17.382
X-16.746 Y-16.832
X-16.747 Y-16.804
X-16.748 Y-16.249
X-16.747 Y-16.221
X-16.728 Y-15.661
X-16.726 Y-15.634
X-16.686 Y-15.068
X-16.684 Y-15.043
X-16.624 Y-14.471
X-16.621 Y-14.447
X-16.542 Y-13.869
X-16.539 Y-13.847
X-16.442 Y-13.264
X-16.438 Y-13.244
X-16.323 Y-12.655
X-16.319 Y-12.636
X-16.187 Y-12.044
X-16.183 Y-12.026
X-16.035 Y-11.43
X-16.031 Y-11.413
X-15.867 Y-10.816
X-15.863 Y-10.8
X-15.685 Y-10.204
X-15.68 Y-10.188
X-15.489 Y-9.593
X-15.484 Y-9.578
X-15.28 Y-8.988
X-15.274 Y-8.973
X-15.058 Y-8.389
X-15.052 Y-8.374
X-14.825 Y-7.8
X-14.818 Y-7.784
X-14.581 Y-7.221
X-14.574 Y-7.205
X-14.326 Y-6.656
X-14.319 Y-6.639
X-14.063 Y-6.106
X-14.054 Y-6.089
X-13.79 Y-5.575
X-13.78 Y-5.556
X-13.509 Y-5.064
X-13.497 Y-5.044
X-13.22 Y-4.575
X-13.207 Y-4.553
X-12.924 Y-4.112
X-12.908 Y-4.087
X-12.62 Y-3.674
X-12.601 Y-3.648
X-12.31 Y-3.266
X-12.286 Y-3.237
X-11.991 Y-2.888
X-11.962 Y-2.856
X-11.665 Y-2.543
X-11.629 Y-2.508
X-11.329 Y-2.232
X-11.297 Y-2.204
X-11.146 Y-2.081
X-11.121 Y-2.061
X-10.97 Y-1.948
X-10.942 Y-1.928
X-10.791 Y-1.825
X-10.76 Y-1.805
X-10.609 Y-1.713
X-10.575 Y-1.693
X-10.423 Y-1.611
X-10.385 Y-1.592
X-10.233 Y-1.52
X-10.192 Y-1.503
X-10.04 Y-1.442
X-9.995 Y-1.426
X-9.843 Y-1.376
X-9.795 Y-1.362
X-9.643 Y-1.323
X-9.592 Y-1.312
X-9.439 Y-1.284
X-9.387 Y-1.277
X-9.234 Y-1.26
X-9.18 Y-1.256
X-9.027 Y-1.25
X-8.973
X-8.82 Y-1.256
X-8.766 Y-1.26
X-8.613 Y-1.277
X-8.561 Y-1.284
X-8.408 Y-1.312
X-8.357 Y-1.323
X-8.205 Y-1.362
X-8.157 Y-1.376
X-8.005 Y-1.426
X-7.96 Y-1.442
X-7.808 Y-1.503
X-7.767 Y-1.521
X-7.615 Y-1.592
X-7.577 Y-1.611
X-7.425 Y-1.693
X-7.391 Y-1.713
X-7.24 Y-1.805
X-7.209 Y-1.825
X-7.058 Y-1.928
X-7.03 Y-1.948
X-6.879 Y-2.061
X-6.854 Y-2.081
X-6.703 Y-2.204
X-6.671 Y-2.232
X-6.371 Y-2.508
X-6.335 Y-2.543
X-6.038 Y-2.856
X-6.009 Y-2.888
X-5.714 Y-3.237
X-5.69 Y-3.266
X-5.399 Y-3.648
X-5.38 Y-3.674
X-5.092 Y-4.087
X-5.076 Y-4.112
X-4.793 Y-4.553
X-4.78 Y-4.575
X-4.503 Y-5.044
X-4.491 Y-5.064
X-4.22 Y-5.556
X-4.21 Y-5.575
X-3.946 Y-6.089
X-3.937 Y-6.106
X-3.681 Y-6.639
X-3.674 Y-6.656
X-3.426 Y-7.205
X-3.419 Y-7.221
X-3.182 Y-7.784
X-3.175 Y-7.8
X-2.948 Y-8.374
X-2.942 Y-8.389
X-2.726 Y-8.973
X-2.72 Y-8.988
X-2.516 Y-9.578
X-2.511 Y-9.593
X-2.32 Y-10.188
X-2.315 Y-10.204
X-2.137 Y-10.8
X-2.133 Y-10.816
X-1.969 Y-11.413
X-1.965 Y-11.43
X-1.817 Y-12.026
X-1.813 Y-12.044
X-1.681 Y-12.636
X-1.677 Y-12.655
X-1.562 Y-13.243
X-1.558 Y-13.264
X-1.461 Y-13.847
X-1.458 Y-13.869
X-1.379 Y-14.447
X-1.376 Y-14.471
X-1.316 Y-15.043
X-1.314 Y-15.068
X-1.274 Y-15.634
X-1.272 Y-15.661
X-1.253 Y-16.221
X-1.252 Y-16.249
X-1.253 Y-16.804
X-1.254 Y-16.832
X-1.276 Y-17.382
X-1.277 Y-17.411
X-1.32 Y-17.956
X-1.323 Y-17.985
X-1.387 Y-18.526
X-1.39 Y-18.555
X-1.474 Y-19.093
X-1.479 Y-19.12
X-1.583 Y-19.655
X-1.588 Y-19.681
X-1.711 Y-20.214
X-1.717 Y-20.238
X-1.858 Y-20.768
X-1.864 Y-20.79
X-2.022 Y-21.317
X-2.028 Y-21.337
X-2.2 Y-21.862
X-2.206 Y-21.88
X-2.392 Y-22.401
X-2.398 Y-22.417
X-2.595 Y-22.934
X-2.603 Y-22.953
X-3.024 Y-23.973
X-3.032 Y-23.992
X-3.475 Y-24.987
X-3.48 Y-24.998
X-3.927 Y-25.963
X-3.928 Y-25.966
X-4.148 Y-26.434
X-4.361 Y-26.891
X-4.565 Y-27.335
X-4.759 Y-27.764
X-4.94 Y-28.178
X-5.107 Y-28.575
X-5.256 Y-28.954
X-5.388 Y-29.314
X-5.5 Y-29.654
X-5.592 Y-29.972
X-5.662 Y-30.266
X-5.712 Y-30.536
X-5.74 Y-30.781
X-5.75 Y-31.016
Y-34.708
X-5.749 Y-35.921
X-5.745 Y-37.112
X-5.74 Y-38.28
X-5.732 Y-39.426
X-5.722 Y-40.55
X-5.709 Y-41.651
X-5.695 Y-42.731
X-5.683 Y-43.498
X-5.678 Y-43.789 Z-1.21 F1016
X-5.659 Y-44.825 Z-1.246
X-5.639 Y-45.84 Z-1.282
X-5.616 Y-46.833 Z-1.316
X-5.591 Y-47.806 Z-1.35
X-5.564 Y-48.758 Z-1.384
X-5.536 Y-49.689 Z-1.416
X-5.506 Y-50.601 Z-1.448
X-5.474 Y-51.492 Z-1.479
X-5.451 Y-52.085 Z-1.5
X-5.441 Y-52.364 F600
X-5.406 Y-53.217
X-5.369 Y-54.051
X-5.332 Y-54.867
X-5.293 Y-55.664
X-5.253 Y-56.443
X-5.211 Y-57.205
X-5.169 Y-57.949
X-5.126 Y-58.676
X-5.082 Y-59.387
X-5.038 Y-60.082
X-4.993 Y-60.761
X-4.947 Y-61.424
X-4.901 Y-62.072
X-4.855 Y-62.705
X-4.809 Y-63.324
X-4.762 Y-63.928
X-4.716 Y-64.519
X-4.67 Y-65.096
X-4.625 Y-65.66
X-4.579 Y-66.211
X-4.535 Y-66.75
X-4.491 Y-67.276
X-4.448 Y-67.791
X-4.406 Y-68.293
X-4.365 Y-68.785
X-4.325 Y-69.265
X-4.287 Y-69.734
Y-69.735
X-4.25 Y-70.193
Y-70.194
X-4.215 Y-70.642
Y-70.643
X-4.181 Y-71.081
Y-71.083
X-4.15 Y-71.51
X-4.149 Y-71.513
X-4.093 Y-72.338
X-4.092 Y-72.345
X-4.045 Y-73.132
Y-73.14
X-4.008 Y-73.891
Y-73.902
X-3.982 Y-74.618
Y-74.631
X-3.969 Y-75.315
Y-75.33
X-3.97 Y-75.982
Y-76
X-3.986 Y-76.621
X-3.987 Y-76.642
X-4.017 Y-77.213
Y-80.949
G2 X-4.498 Y-81.934 I-1.25 J0
G1 X-8.144 Y-84.783
G2 X-9.899 Y-84.568 I-0.77 J0.985
G1 X-13.422 Y-80.058
X-13.465 Y-79.997
X-13.518 Y-79.913
X-13.555 Y-79.848
X-13.585 Y-79.781
X-13.62 Y-79.688
X-13.646 Y-79.605
X-13.713 Y-79.345
X-13.718 Y-79.322
X-13.778 Y-79.054
X-13.782 Y-79.033
X-13.836 Y-78.756
X-13.839 Y-78.736
X-13.886 Y-78.451
X-13.889 Y-78.433
X-13.93 Y-78.139
X-13.932 Y-78.122
X-13.967 Y-77.82
X-13.968 Y-77.804
X-13.997 Y-77.493
X-13.999 Y-77.478
X-14.022 Y-77.159
X-14.023 Y-77.145
X-14.041 Y-76.816
Y-76.804
X-14.054 Y-76.466
Y-76.454
X-14.062 Y-76.107
Y-76.096
X-14.065 Y-75.74
Y-75.73
X-14.063 Y-75.364
Y-75.354
X-14.057 Y-74.978
X-14.056 Y-74.97
X-14.046 Y-74.583
Y-74.576
X-14.031 Y-74.178
Y-74.172
X-14.012 Y-73.763
Y-73.757
X-13.99 Y-73.338
Y-73.333
X-13.964 Y-72.901
Y-72.897
X-13.935 Y-72.454
Y-72.45
X-13.903 Y-71.995
Y-71.992
X-13.868 Y-71.524
Y-71.521
X-13.83 Y-71.04
Y-71.038
X-13.791 Y-70.544
X-13.79 Y-70.543
X-13.749 Y-70.035
X-13.748 Y-70.034
X-13.705 Y-69.512
X-13.659 Y-68.975
X-13.611 Y-68.424
X-13.562 Y-67.858
X-13.512 Y-67.276
X-13.461 Y-66.678
X-13.409 Y-66.064
X-13.357 Y-65.433
X-13.304 Y-64.785
X-13.25 Y-64.119
X-13.197 Y-63.434
X-13.143 Y-62.731
X-13.09 Y-62.008
X-13.037 Y-61.264
X-12.985 Y-60.501
X-12.934 Y-59.716
X-12.883 Y-58.91
X-12.833 Y-58.081
X-12.785 Y-57.23
X-12.738 Y-56.356
X-12.692 Y-55.457
X-12.648 Y-54.535
X-12.606 Y-53.588
X-12.565 Y-52.615
X-12.527 Y-51.617
X-12.49 Y-50.593
X-12.456 Y-49.542
X-12.425 Y-48.464
X-12.395 Y-47.358
X-12.368 Y-46.224
X-12.344 Y-45.062
X-12.322 Y-43.871
X-12.303 Y-42.651
X-12.287 Y-41.402
X-12.274 Y-40.123
X-12.263 Y-38.814
X-12.256 Y-37.476
X-12.251 Y-36.107
X-12.25 Y-34.708
Y-31.016
X-12.26 Y-30.781
X-12.288 Y-30.536
X-12.338 Y-30.266
X-12.408 Y-29.972
X-12.5 Y-29.654
X-12.612 Y-29.314
X-12.744 Y-28.954
X-12.893 Y-28.575
X-13.06 Y-28.178
X-13.241 Y-27.764
X-13.435 Y-27.335
X-13.639 Y-26.891
X-13.852 Y-26.434
X-14.072 Y-25.966
X-14.073 Y-25.963
X-14.52 Y-24.998
X-14.525 Y-24.987
X-14.968 Y-23.992
X-14.976 Y-23.973
X-15.397 Y-22.953
X-15.405 Y-22.934
X-15.602 Y-22.417
X-15.608 Y-22.401
X-15.794 Y-21.88
X-15.8 Y-21.862
X-15.972 Y-21.337
X-15.978 Y-21.317
X-16.136 Y-20.79
X-16.142 Y-20.768
X-16.283 Y-20.238
X-16.289 Y-20.214
X-16.412 Y-19.681
X-16.417 Y-19.655
X-16.521 Y-19.12
X-16.526 Y-19.093
X-16.61 Y-18.555
X-16.613 Y-18.526
X-16.677 Y-17.985
X-16.68 Y-17.956
X-16.723 Y-17.411
X-16.724 Y-17.382
X-16.746 Y-16.832
X-16.747 Y-16.804
X-16.748 Y-16.249
X-16.747 Y-16.221
X-16.728 Y-15.661
X-16.726 Y-15.634
X-16.686 Y-15.068
X-16.684 Y-15.043
X-16.624 Y-14.471
X-16.621 Y-14.447
X-16.542 Y-13.869
X-16.539 Y-13.847
X-16.442 Y-13.264
X-16.438 Y-13.244
X-16.323 Y-12.655
X-16.319 Y-12.636
X-16.187 Y-12.044
X-16.183 Y-12.026
X-16.035 Y-11.43
X-16.031 Y-11.413
X-15.867 Y-10.816
X-15.863 Y-10.8
X-15.685 Y-10.204
X-15.68 Y-10.188
X-15.489 Y-9.593
X-15.484 Y-9.578
X-15.28 Y-8.988
X-15.274 Y-8.973
X-15.058 Y-8.389
X-15.052 Y-8.374
X-14.825 Y-7.8
X-14.818 Y-7.784
X-14.581 Y-7.221
X-14.574 Y-7.205
X-14.326 Y-6.656
X-14.319 Y-6.639
X-14.063 Y-6.106
X-14.054 Y-6.089
X-13.79 Y-5.575
X-13.78 Y-5.556
X-13.509 Y-5.064
X-13.497 Y-5.044
X-13.22 Y-4.575
X-13.207 Y-4.553
X-12.924 Y-4.112
X-12.908 Y-4.087
X-12.62 Y-3.674
X-12.601 Y-3.648
X-12.31 Y-3.266
X-12.286 Y-3.237
X-11.991 Y-2.888
X-11.962 Y-2.856
X-11.665 Y-2.543
X-11.629 Y-2.508
X-11.329 Y-2.232
X-11.297 Y-2.204
X-11.146 Y-2.081
X-11.121 Y-2.061
X-10.97 Y-1.948
X-10.942 Y-1.928
X-10.791 Y-1.825
X-10.76 Y-1.805
X-10.609 Y-1.713
X-10.575 Y-1.693
X-10.423 Y-1.611
X-10.385 Y-1.592
X-10.233 Y-1.52
X-10.192 Y-1.503
X-10.04 Y-1.442
X-9.995 Y-1.426
X-9.843 Y-1.376
X-9.795 Y-1.362
X-9.643 Y-1.323
X-9.592 Y-1.312
X-9.439 Y-1.284
X-9.387 Y-1.277
X-9.234 Y-1.26
X-9.18 Y-1.256
X-9.027 Y-1.25
X-8.973
X-8.82 Y-1.256
X-8.766 Y-1.26
X-8.613 Y-1.277
X-8.561 Y-1.284
X-8.408 Y-1.312
X-8.357 Y-1.323
X-8.205 Y-1.362
X-8.157 Y-1.376
X-8.005 Y-1.426
X-7.96 Y-1.442
X-7.808 Y-1.503
X-7.767 Y-1.521
X-7.615 Y-1.592
X-7.577 Y-1.611
X-7.425 Y-1.693
X-7.391 Y-1.713
X-7.24 Y-1.805
X-7.209 Y-1.825
X-7.058 Y-1.928
X-7.03 Y-1.948
X-6.879 Y-2.061
X-6.854 Y-2.081
X-6.703 Y-2.204
X-6.671 Y-2.232
X-6.371 Y-2.508
X-6.335 Y-2.543
X-6.038 Y-2.856
X-6.009 Y-2.888
X-5.714 Y-3.237
X-5.69 Y-3.266
X-5.399 Y-3.648
X-5.38 Y-3.674
X-5.092 Y-4.087
X-5.076 Y-4.112
X-4.793 Y-4.553
X-4.78 Y-4.575
X-4.503 Y-5.044
X-4.491 Y-5.064
X-4.22 Y-5.556
X-4.21 Y-5.575
X-3.946 Y-6.089
X-3.937 Y-6.106
X-3.681 Y-6.639
X-3.674 Y-6.656
X-3.426 Y-7.205
X-3.419 Y-7.221
X-3.182 Y-7.784
X-3.175 Y-7.8
X-2.948 Y-8.374
X-2.942 Y-8.389
X-2.726 Y-8.973
X-2.72 Y-8.988
X-2.516 Y-9.578
X-2.511 Y-9.593
X-2.32 Y-10.188
X-2.315 Y-10.204
X-2.137 Y-10.8
X-2.133 Y-10.816
X-1.969 Y-11.413
X-1.965 Y-11.43
X-1.817 Y-12.026
X-1.813 Y-12.044
X-1.681 Y-12.636
X-1.677 Y-12.655
X-1.562 Y-13.243
X-1.558 Y-13.264
X-1.461 Y-13.847
X-1.458 Y-13.869
X-1.379 Y-14.447
X-1.376 Y-14.471
X-1.316 Y-15.043
X-1.314 Y-15.068
X-1.274 Y-15.634
X-1.272 Y-15.661
X-1.253 Y-16.221
X-1.252 Y-16.249
X-1.253 Y-16.804
X-1.254 Y-16.832
X-1.276 Y-17.382
X-1.277 Y-17.411
X-1.32 Y-17.956
X-1.323 Y-17.985
X-1.387 Y-18.526
X-1.39 Y-18.555
X-1.474 Y-19.093
X-1.479 Y-19.12
X-1.583 Y-19.655
X-1.588 Y-19.681
X-1.711 Y-20.214
X-1.717 Y-20.238
X-1.858 Y-20.768
X-1.864 Y-20.79
X-2.022 Y-21.317
X-2.028 Y-21.337
X-2.2 Y-21.862
X-2.206 Y-21.88
X-2.392 Y-22.401
X-2.398 Y-22.417
X-2.595 Y-22.934
X-2.603 Y-22.953
X-3.024 Y-23.973
X-3.032 Y-23.992
X-3.475 Y-24.987
X-3.48 Y-24.998
X-3.927 Y-25.963
X-3.928 Y-25.966
X-4.148 Y-26.434
X-4.361 Y-26.891
X-4.565 Y-27.335
X-4.759 Y-27.764
X-4.94 Y-28.178
X-5.107 Y-28.575
X-5.256 Y-28.954
X-5.388 Y-29.314
X-5.5 Y-29.654
X-5.592 Y-29.972
X-5.662 Y-30.266
X-5.712 Y-30.536
X-5.74 Y-30.781
X-5.75 Y-31.016
Y-34.708
X-5.749 Y-35.921
X-5.745 Y-37.112
X-5.74 Y-38.28
X-5.732 Y-39.426
X-5.722 Y-40.55
X-5.709 Y-41.651
X-5.695 Y-42.731
X-5.683 Y-43.498
X-5.678 Y-43.789
X-5.659 Y-44.825
X-5.639 Y-45.84
X-5.616 Y-46.833
X-5.591 Y-47.806
X-5.564 Y-48.758
X-5.536 Y-49.689
X-5.506 Y-50.601
X-5.474 Y-51.492
X-5.451 Y-52.085
X-5.441 Y-52.364 Z-1.51 F1016
X-5.406 Y-53.217 Z-1.54
X-5.369 Y-54.051 Z-1.569
X-5.332 Y-54.867 Z-1.597
X-5.293 Y-55.664 Z-1.625
X-5.253 Y-56.443 Z-1.652
X-5.211 Y-57.205 Z-1.679
X-5.169 Y-57.949 Z-1.705
X-5.126 Y-58.676 Z-1.73
X-5.082 Y-59.387 Z-1.755
X-5.038 Y-60.082 Z-1.78
X-4.999 Y-60.664 Z-1.8
X-4.993 Y-60.761 F600
X-4.947 Y-61.424
X-4.901 Y-62.072
X-4.855 Y-62.705
X-4.809 Y-63.324
X-4.762 Y-63.928
X-4.716 Y-64.519
X-4.67 Y-65.096
X-4.625 Y-65.66
X-4.579 Y-66.211
X-4.535 Y-66.75
X-4.491 Y-67.276
X-4.448 Y-67.791
X-4.406 Y-68.293
X-4.365 Y-68.785
X-4.325 Y-69.265
X-4.287 Y-69.734
Y-69.735
X-4.25 Y-70.193
Y-70.194
X-4.215 Y-70.642
Y-70.643
X-4.181 Y-71.081
Y-71.083
X-4.15 Y-71.51
X-4.149 Y-71.513
X-4.093 Y-72.338
X-4.092 Y-72.345
X-4.045 Y-73.132
Y-73.14
X-4.008 Y-73.891
Y-73.902
X-3.982 Y-74.618
Y-74.631
X-3.969 Y-75.315
Y-75.33
X-3.97 Y-75.982
Y-76
X-3.986 Y-76.621
X-3.987 Y-76.642
X-4.017 Y-77.213
Y-80.949
G2 X-4.498 Y-81.934 I-1.25 J0
G1 X-8.144 Y-84.783
G2 X-9.899 Y-84.568 I-0.77 J0.985
G1 X-13.422 Y-80.058
X-13.465 Y-79.997
X-13.518 Y-79.913
X-13.555 Y-79.848
X-13.585 Y-79.781
X-13.62 Y-79.688
X-13.646 Y-79.605
X-13.713 Y-79.345
X-13.718 Y-79.322
X-13.778 Y-79.054
X-13.782 Y-79.033
X-13.836 Y-78.756
X-13.839 Y-78.736
X-13.886 Y-78.451
X-13.889 Y-78.433
X-13.93 Y-78.139
X-13.932 Y-78.122
X-13.967 Y-77.82
X-13.968 Y-77.804
X-13.997 Y-77.493
X-13.999 Y-77.478
X-14.022 Y-77.159
X-14.023 Y-77.145
X-14.041 Y-76.816
Y-76.804
X-14.054 Y-76.466
Y-76.454
X-14.062 Y-76.107
Y-76.096
X-14.065 Y-75.74
Y-75.73
X-14.063 Y-75.364
Y-75.354
X-14.057 Y-74.978
X-14.056 Y-74.97
X-14.046 Y-74.583
Y-74.576
X-14.031 Y-74.178
Y-74.172
X-14.012 Y-73.763
Y-73.757
X-13.99 Y-73.338
Y-73.333
X-13.964 Y-72.901
Y-72.897
X-13.935 Y-72.454
Y-72.45
X-13.903 Y-71.995
Y-71.992
X-13.868 Y-71.524
Y-71.521
X-13.83 Y-71.04
Y-71.038
X-13.791 Y-70.544
X-13.79 Y-70.543
X-13.749 Y-70.035
X-13.748 Y-70.034
X-13.705 Y-69.512
X-13.659 Y-68.975
X-13.611 Y-68.424
X-13.562 Y-67.858
X-13.512 Y-67.276
X-13.461 Y-66.678
X-13.409 Y-66.064
X-13.357 Y-65.433
X-13.304 Y-64.785
X-13.25 Y-64.119
X-13.197 Y-63.434
X-13.143 Y-62.731
X-13.09 Y-62.008
X-13.037 Y-61.264
X-12.985 Y-60.501
X-12.934 Y-59.716
X-12.883 Y-58.91
X-12.833 Y-58.081
X-12.785 Y-57.23
X-12.738 Y-56.356
X-12.692 Y-55.457
X-12.648 Y-54.535
X-12.606 Y-53.588
X-12.565 Y-52.615
X-12.527 Y-51.617
X-12.49 Y-50.593
X-12.456 Y-49.542
X-12.425 Y-48.464
X-12.395 Y-47.358
X-12.368 Y-46.224
X-12.344 Y-45.062
X-12.322 Y-43.871
X-12.303 Y-42.651
X-12.287 Y-41.402
X-12.274 Y-40.123
X-12.263 Y-38.814
X-12.256 Y-37.476
X-12.251 Y-36.107
X-12.25 Y-34.708
Y-31.016
X-12.26 Y-30.781
X-12.288 Y-30.536
X-12.338 Y-30.266
X-12.408 Y-29.972
X-12.5 Y-29.654
X-12.612 Y-29.314
X-12.744 Y-28.954
X-12.893 Y-28.575
X-13.06 Y-28.178
X-13.241 Y-27.764
X-13.435 Y-27.335
X-13.639 Y-26.891
X-13.852 Y-26.434
X-14.072 Y-25.966
X-14.073 Y-25.963
X-14.52 Y-24.998
X-14.525 Y-24.987
X-14.968 Y-23.992
X-14.976 Y-23.973
X-15.397 Y-22.953
X-15.405 Y-22.934
X-15.602 Y-22.417
X-15.608 Y-22.401
X-15.794 Y-21.88
X-15.8 Y-21.862
X-15.972 Y-21.337
X-15.978 Y-21.317
X-16.136 Y-20.79
X-16.142 Y-20.768
X-16.283 Y-20.238
X-16.289 Y-20.214
X-16.412 Y-19.681
X-16.417 Y-19.655
X-16.521 Y-19.12
X-16.526 Y-19.093
X-16.61 Y-18.555
X-16.613 Y-18.526
X-16.677 Y-17.985
X-16.68 Y-17.956
X-16.723 Y-17.411
X-16.724 Y-17.382
X-16.746 Y-16.832
X-16.747 Y-16.804
X-16.748 Y-16.249
X-16.747 Y-16.221
X-16.728 Y-15.661
X-16.726 Y-15.634
X-16.686 Y-15.068
X-16.684 Y-15.043
X-16.624 Y-14.471
X-16.621 Y-14.447
X-16.542 Y-13.869
X-16.539 Y-13.847
X-16.442 Y-13.264
X-16.438 Y-13.244
X-16.323 Y-12.655
X-16.319 Y-12.636
X-16.187 Y-12.044
X-16.183 Y-12.026
X-16.035 Y-11.43
X-16.031 Y-11.413
X-15.867 Y-10.816
X-15.863 Y-10.8
X-15.685 Y-10.204
X-15.68 Y-10.188
X-15.489 Y-9.593
X-15.484 Y-9.578
X-15.28 Y-8.988
X-15.274 Y-8.973
X-15.058 Y-8.389
X-15.052 Y-8.374
X-14.825 Y-7.8
X-14.818 Y-7.784
X-14.581 Y-7.221
X-14.574 Y-7.205
X-14.326 Y-6.656
X-14.319 Y-6.639
X-14.063 Y-6.106
X-14.054 Y-6.089
X-13.79 Y-5.575
X-13.78 Y-5.556
X-13.509 Y-5.064
X-13.497 Y-5.044
X-13.22 Y-4.575
X-13.207 Y-4.553
X-12.924 Y-4.112
X-12.908 Y-4.087
X-12.62 Y-3.674
X-12.601 Y-3.648
X-12.31 Y-3.266
X-12.286 Y-3.237
X-11.991 Y-2.888
X-11.962 Y-2.856
X-11.665 Y-2.543
X-11.629 Y-2.508
X-11.329 Y-2.232
X-11.297 Y-2.204
X-11.146 Y-2.081
X-11.121 Y-2.061
X-10.97 Y-1.948
X-10.942 Y-1.928
X-10.791 Y-1.825
X-10.76 Y-1.805
X-10.609 Y-1.713
X-10.575 Y-1.693
X-10.423 Y-1.611
X-10.385 Y-1.592
X-10.233 Y-1.52
X-10.192 Y-1.503
X-10.04 Y-1.442
X-9.995 Y-1.426
X-9.843 Y-1.376
X-9.795 Y-1.362
X-9.643 Y-1.323
X-9.592 Y-1.312
X-9.439 Y-1.284
X-9.387 Y-1.277
X-9.234 Y-1.26
X-9.18 Y-1.256
X-9.027 Y-1.25
X-8.973
X-8.82 Y-1.256
X-8.766 Y-1.26
X-8.613 Y-1.277
X-8.561 Y-1.284
X-8.408 Y-1.312
X-8.357 Y-1.323
X-8.205 Y-1.362
X-8.157 Y-1.376
X-8.005 Y-1.426
X-7.96 Y-1.442
X-7.808 Y-1.503
X-7.767 Y-1.521
X-7.615 Y-1.592
X-7.577 Y-1.611
X-7.425 Y-1.693
X-7.391 Y-1.713
X-7.24 Y-1.805
X-7.209 Y-1.825
X-7.058 Y-1.928
X-7.03 Y-1.948
X-6.879 Y-2.061
X-6.854 Y-2.081
X-6.703 Y-2.204
X-6.671 Y-2.232
X-6.371 Y-2.508
X-6.335 Y-2.543
X-6.038 Y-2.856
X-6.009 Y-2.888
X-5.714 Y-3.237
X-5.69 Y-3.266
X-5.399 Y-3.648
X-5.38 Y-3.674
X-5.092 Y-4.087
X-5.076 Y-4.112
X-4.793 Y-4.553
X-4.78 Y-4.575
X-4.503 Y-5.044
X-4.491 Y-5.064
X-4.22 Y-5.556
X-4.21 Y-5.575
X-3.946 Y-6.089
X-3.937 Y-6.106
X-3.681 Y-6.639
X-3.674 Y-6.656
X-3.426 Y-7.205
X-3.419 Y-7.221
X-3.182 Y-7.784
X-3.175 Y-7.8
X-2.948 Y-8.374
X-2.942 Y-8.389
X-2.726 Y-8.973
X-2.72 Y-8.988
X-2.516 Y-9.578
X-2.511 Y-9.593
X-2.32 Y-10.188
X-2.315 Y-10.204
X-2.137 Y-10.8
X-2.133 Y-10.816
X-1.969 Y-11.413
X-1.965 Y-11.43
X-1.817 Y-12.026
X-1.813 Y-12.044
X-1.681 Y-12.636
X-1.677 Y-12.655
X-1.562 Y-13.243
X-1.558 Y-13.264
X-1.461 Y-13.847
X-1.458 Y-13.869
X-1.379 Y-14.447
X-1.376 Y-14.471
X-1.316 Y-15.043
X-1.314 Y-15.068
X-1.274 Y-15.634
X-1.272 Y-15.661
X-1.253 Y-16.221
X-1.252 Y-16.249
X-1.253 Y-16.804
X-1.254 Y-16.832
X-1.276 Y-17.382
X-1.277 Y-17.411
X-1.32 Y-17.956
X-1.323 Y-17.985
X-1.387 Y-18.526
X-1.39 Y-18.555
X-1.474 Y-19.093
X-1.479 Y-19.12
X-1.583 Y-19.655
X-1.588 Y-19.681
X-1.711 Y-20.214
X-1.717 Y-20.238
X-1.858 Y-20.768
X-1.864 Y-20.79
X-2.022 Y-21.317
X-2.028 Y-21.337
X-2.2 Y-21.862
X-2.206 Y-21.88
X-2.392 Y-22.401
X-2.398 Y-22.417
X-2.595 Y-22.934
X-2.603 Y-22.953
X-3.024 Y-23.973
X-3.032 Y-23.992
X-3.475 Y-24.987
X-3.48 Y-24.998
X-3.927 Y-25.963
X-3.928 Y-25.966
X-4.148 Y-26.434
X-4.361 Y-26.891
X-4.565 Y-27.335
X-4.759 Y-27.764
X-4.94 Y-28.178
X-5.107 Y-28.575
X-5.256 Y-28.954
X-5.388 Y-29.314
X-5.5 Y-29.654
X-5.592 Y-29.972
X-5.662 Y-30.266
X-5.712 Y-30.536
X-5.74 Y-30.781
X-5.75 Y-31.016
Y-34.708
X-5.749 Y-35.921
X-5.745 Y-37.112
X-5.74 Y-38.28
X-5.732 Y-39.426
X-5.722 Y-40.55
X-5.709 Y-41.651
X-5.695 Y-42.731
X-5.678 Y-43.789
X-5.659 Y-44.825
X-5.639 Y-45.84
X-5.616 Y-46.833
X-5.591 Y-47.806
X-5.564 Y-48.758
X-5.536 Y-49.689
X-5.506 Y-50.601
X-5.474 Y-51.492
X-5.451 Y-52.085
X-5.441 Y-52.364
X-5.406 Y-53.217
X-5.369 Y-54.051
X-5.332 Y-54.867
X-5.293 Y-55.664
X-5.253 Y-56.443
X-5.211 Y-57.205
X-5.169 Y-57.949
X-5.126 Y-58.676
X-5.082 Y-59.387
X-5.038 Y-60.082
X-4.999 Y-60.664
X-4.993 Y-60.761 Z-1.803 F1016
X-4.947 Y-61.424 Z-1.827
X-4.901 Y-62.072 Z-1.849
X-4.855 Y-62.705 Z-1.871
X-4.809 Y-63.324 Z-1.893
X-4.762 Y-63.928 Z-1.914
X-4.716 Y-64.519 Z-1.935
X-4.67 Y-65.096 Z-1.955
X-4.625 Y-65.66 Z-1.975
X-4.579 Y-66.211 Z-1.994
X-4.535 Y-66.75 Z-2.013
X-4.491 Y-67.276 Z-2.032
X-4.448 Y-67.791 Z-2.05
X-4.406 Y-68.293 Z-2.067
X-4.365 Y-68.785 Z-2.084
X-4.328 Y-69.229 Z-2.1
X-4.325 Y-69.265 F600
X-4.287 Y-69.734
Y-69.735
X-4.25 Y-70.193
Y-70.194
X-4.215 Y-70.642
Y-70.643
X-4.181 Y-71.081
Y-71.083
X-4.15 Y-71.51
X-4.149 Y-71.513
X-4.093 Y-72.338
X-4.092 Y-72.345
X-4.045 Y-73.132
Y-73.14
X-4.008 Y-73.891
Y-73.902
X-3.982 Y-74.618
Y-74.631
X-3.969 Y-75.315
Y-75.33
X-3.97 Y-75.982
Y-76
X-3.986 Y-76.621
X-3.987 Y-76.642
X-4.017 Y-77.213
Y-80.949
G2 X-4.498 Y-81.934 I-1.25 J0
G1 X-8.144 Y-84.783
G2 X-9.899 Y-84.568 I-0.77 J0.985
G1 X-13.422 Y-80.058
X-13.465 Y-79.997
X-13.518 Y-79.913
X-13.555 Y-79.848
X-13.585 Y-79.781
X-13.62 Y-79.688
X-13.646 Y-79.605
X-13.713 Y-79.345
X-13.718 Y-79.322
X-13.778 Y-79.054
X-13.782 Y-79.033
X-13.836 Y-78.756
X-13.839 Y-78.736
X-13.886 Y-78.451
X-13.889 Y-78.433
X-13.93 Y-78.139
X-13.932 Y-78.122
X-13.967 Y-77.82
X-13.968 Y-77.804
X-13.997 Y-77.493
X-13.999 Y-77.478
X-14.022 Y-77.159
X-14.023 Y-77.145
X-14.041 Y-76.816
Y-76.804
X-14.054 Y-76.466
Y-76.454
X-14.062 Y-76.107
Y-76.096
X-14.065 Y-75.74
Y-75.73
X-14.063 Y-75.364
Y-75.354
X-14.057 Y-74.978
X-14.056 Y-74.97
X-14.046 Y-74.583
Y-74.576
X-14.031 Y-74.178
Y-74.172
X-14.012 Y-73.763
Y-73.757
X-13.99 Y-73.338
Y-73.333
X-13.964 Y-72.901
Y-72.897
X-13.935 Y-72.454
Y-72.45
X-13.903 Y-71.995
Y-71.992
X-13.868 Y-71.524
Y-71.521
X-13.83 Y-71.04
Y-71.038
X-13.791 Y-70.544
X-13.79 Y-70.543
X-13.749 Y-70.035
X-13.748 Y-70.034
X-13.705 Y-69.512
X-13.659 Y-68.975
X-13.611 Y-68.424
X-13.562 Y-67.858
X-13.512 Y-67.276
X-13.461 Y-66.678
X-13.409 Y-66.064
X-13.357 Y-65.433
X-13.304 Y-64.785
X-13.25 Y-64.119
X-13.197 Y-63.434
X-13.143 Y-62.731
X-13.09 Y-62.008
X-13.037 Y-61.264
X-12.985 Y-60.501
X-12.934 Y-59.716
X-12.883 Y-58.91
X-12.833 Y-58.081
X-12.785 Y-57.23
X-12.738 Y-56.356
X-12.692 Y-55.457
X-12.648 Y-54.535
X-12.606 Y-53.588
X-12.565 Y-52.615
X-12.527 Y-51.617
X-12.49 Y-50.593
X-12.456 Y-49.542
X-12.425 Y-48.464
X-12.395 Y-47.358
X-12.368 Y-46.224
X-12.344 Y-45.062
X-12.322 Y-43.871
X-12.303 Y-42.651
X-12.287 Y-41.402
X-12.274 Y-40.123
X-12.263 Y-38.814
X-12.256 Y-37.476
X-12.251 Y-36.107
X-12.25 Y-34.708
Y-31.016
X-12.26 Y-30.781
X-12.288 Y-30.536
X-12.338 Y-30.266
X-12.408 Y-29.972
X-12.5 Y-29.654
X-12.612 Y-29.314
X-12.744 Y-28.954
X-12.893 Y-28.575
X-13.06 Y-28.178
X-13.241 Y-27.764
X-13.435 Y-27.335
X-13.639 Y-26.891
X-13.852 Y-26.434
X-14.072 Y-25.966
X-14.073 Y-25.963
X-14.52 Y-24.998
X-14.525 Y-24.987
X-14.968 Y-23.992
X-14.976 Y-23.973
X-15.397 Y-22.953
X-15.405 Y-22.934
X-15.602 Y-22.417
X-15.608 Y-22.401
X-15.794 Y-21.88
X-15.8 Y-21.862
X-15.972 Y-21.337
X-15.978 Y-21.317
X-16.136 Y-20.79
X-16.142 Y-20.768
X-16.283 Y-20.238
X-16.289 Y-20.214
X-16.412 Y-19.681
X-16.417 Y-19.655
X-16.521 Y-19.12
X-16.526 Y-19.093
X-16.61 Y-18.555
X-16.613 Y-18.526
X-16.677 Y-17.985
X-16.68 Y-17.956
X-16.723 Y-17.411
X-16.724 Y-17.382
X-16.746 Y-16.832
X-16.747 Y-16.804
X-16.748 Y-16.249
X-16.747 Y-16.221
X-16.728 Y-15.661
X-16.726 Y-15.634
X-16.686 Y-15.068
X-16.684 Y-15.043
X-16.624 Y-14.471
X-16.621 Y-14.447
X-16.542 Y-13.869
X-16.539 Y-13.847
X-16.442 Y-13.264
X-16.438 Y-13.244
X-16.323 Y-12.655
X-16.319 Y-12.636
X-16.187 Y-12.044
X-16.183 Y-12.026
X-16.035 Y-11.43
X-16.031 Y-11.413
X-15.867 Y-10.816
X-15.863 Y-10.8
X-15.685 Y-10.204
X-15.68 Y-10.188
X-15.489 Y-9.593
X-15.484 Y-9.578
X-15.28 Y-8.988
X-15.274 Y-8.973
X-15.058 Y-8.389
X-15.052 Y-8.374
X-14.825 Y-7.8
X-14.818 Y-7.784
X-14.581 Y-7.221
X-14.574 Y-7.205
X-14.326 Y-6.656
X-14.319 Y-6.639
X-14.063 Y-6.106
X-14.054 Y-6.089
X-13.79 Y-5.575
X-13.78 Y-5.556
X-13.509 Y-5.064
X-13.497 Y-5.044
X-13.22 Y-4.575
X-13.207 Y-4.553
X-12.924 Y-4.112
X-12.908 Y-4.087
X-12.62 Y-3.674
X-12.601 Y-3.648
X-12.31 Y-3.266
X-12.286 Y-3.237
X-11.991 Y-2.888
X-11.962 Y-2.856
X-11.665 Y-2.543
X-11.629 Y-2.508
X-11.329 Y-2.232
X-11.297 Y-2.204
X-11.146 Y-2.081
X-11.121 Y-2.061
X-10.97 Y-1.948
X-10.942 Y-1.928
X-10.791 Y-1.825
X-10.76 Y-1.805
X-10.609 Y-1.713
X-10.575 Y-1.693
X-10.423 Y-1.611
X-10.385 Y-1.592
X-10.233 Y-1.52
X-10.192 Y-1.503
X-10.04 Y-1.442
X-9.995 Y-1.426
X-9.843 Y-1.376
X-9.795 Y-1.362
X-9.643 Y-1.323
X-9.592 Y-1.312
X-9.439 Y-1.284
X-9.387 Y-1.277
X-9.234 Y-1.26
X-9.18 Y-1.256
X-9.027 Y-1.25
X-8.973
X-8.82 Y-1.256
X-8.766 Y-1.26
X-8.613 Y-1.277
X-8.561 Y-1.284
X-8.408 Y-1.312
X-8.357 Y-1.323
X-8.205 Y-1.362
X-8.157 Y-1.376
X-8.005 Y-1.426
X-7.96 Y-1.442
X-7.808 Y-1.503
X-7.767 Y-1.521
X-7.615 Y-1.592
X-7.577 Y-1.611
X-7.425 Y-1.693
X-7.391 Y-1.713
X-7.24 Y-1.805
X-7.209 Y-1.825
X-7.058 Y-1.928
X-7.03 Y-1.948
X-6.879 Y-2.061
X-6.854 Y-2.081
X-6.703 Y-2.204
X-6.671 Y-2.232
X-6.371 Y-2.508
X-6.335 Y-2.543
X-6.038 Y-2.856
X-6.009 Y-2.888
X-5.714 Y-3.237
X-5.69 Y-3.266
X-5.399 Y-3.648
X-5.38 Y-3.674
X-5.092 Y-4.087
X-5.076 Y-4.112
X-4.793 Y-4.553
X-4.78 Y-4.575
X-4.503 Y-5.044
X-4.491 Y-5.064
X-4.22 Y-5.556
X-4.21 Y-5.575
X-3.946 Y-6.089
X-3.937 Y-6.106
X-3.681 Y-6.639
X-3.674 Y-6.656
X-3.426 Y-7.205
X-3.419 Y-7.221
X-3.182 Y-7.784
X-3.175 Y-7.8
X-2.948 Y-8.374
X-2.942 Y-8.389
X-2.726 Y-8.973
X-2.72 Y-8.988
X-2.516 Y-9.578
X-2.511 Y-9.593
X-2.32 Y-10.188
X-2.315 Y-10.204
X-2.137 Y-10.8
X-2.133 Y-10.816
X-1.969 Y-11.413
X-1.965 Y-11.43
X-1.817 Y-12.026
X-1.813 Y-12.044
X-1.681 Y-12.636
X-1.677 Y-12.655
X-1.562 Y-13.243
X-1.558 Y-13.264
X-1.461 Y-13.847
X-1.458 Y-13.869
X-1.379 Y-14.447
X-1.376 Y-14.471
X-1.316 Y-15.043
X-1.314 Y-15.068
X-1.274 Y-15.634
X-1.272 Y-15.661
X-1.253 Y-16.221
X-1.252 Y-16.249
X-1.253 Y-16.804
X-1.254 Y-16.832
X-1.276 Y-17.382
X-1.277 Y-17.411
X-1.32 Y-17.956
X-1.323 Y-17.985
X-1.387 Y-18.526
X-1.39 Y-18.555
X-1.474 Y-19.093
X-1.479 Y-19.12
X-1.583 Y-19.655
X-1.588 Y-19.681
X-1.711 Y-20.214
X-1.717 Y-20.238
X-1.858 Y-20.768
X-1.864 Y-20.79
X-2.022 Y-21.317
X-2.028 Y-21.337
X-2.2 Y-21.862
X-2.206 Y-21.88
X-2.392 Y-22.401
X-2.398 Y-22.417
X-2.595 Y-22.934
X-2.603 Y-22.953
X-3.024 Y-23.973
X-3.032 Y-23.992
X-3.475 Y-24.987
X-3.48 Y-24.998
X-3.927 Y-25.963
X-3.928 Y-25.966
X-4.148 Y-26.434
X-4.361 Y-26.891
X-4.565 Y-27.335
X-4.759 Y-27.764
X-4.94 Y-28.178
X-5.107 Y-28.575
X-5.256 Y-28.954
X-5.388 Y-29.314
X-5.5 Y-29.654
X-5.592 Y-29.972
X-5.662 Y-30.266
X-5.712 Y-30.536
X-5.74 Y-30.781
X-5.75 Y-31.016
Y-34.708
X-5.749 Y-35.921
X-5.745 Y-37.112
X-5.74 Y-38.28
X-5.732 Y-39.426
X-5.722 Y-40.55
X-5.709 Y-41.651
X-5.695 Y-42.731
X-5.678 Y-43.789
X-5.659 Y-44.825
X-5.639 Y-45.84
X-5.616 Y-46.833
X-5.591 Y-47.806
X-5.564 Y-48.758
X-5.536 Y-49.689
X-5.506 Y-50.601
X-5.474 Y-51.492
X-5.441 Y-52.364
X-5.406 Y-53.217
X-5.369 Y-54.051
X-5.332 Y-54.867
X-5.293 Y-55.664
X-5.253 Y-56.443
X-5.211 Y-57.205
X-5.169 Y-57.949
X-5.126 Y-58.676
X-5.082 Y-59.387
X-5.038 Y-60.082
X-4.999 Y-60.664
X-4.993 Y-60.761
X-4.947 Y-61.424
X-4.901 Y-62.072
X-4.855 Y-62.705
X-4.809 Y-63.324
X-4.762 Y-63.928
X-4.716 Y-64.519
X-4.67 Y-65.096
X-4.625 Y-65.66
X-4.579 Y-66.211
X-4.535 Y-66.75
X-4.491 Y-67.276
X-4.448 Y-67.791
X-4.406 Y-68.293
X-4.365 Y-68.785
X-4.328 Y-69.229
X-4.325 Y-69.265 Z-2.101 F1016
X-4.287 Y-69.734 Z-2.118
Y-69.735
X-4.25 Y-70.193 Z-2.134
Y-70.194
X-4.215 Y-70.642 Z-2.15
Y-70.643
X-4.181 Y-71.081 Z-2.165
Y-71.083
X-4.15 Y-71.51 Z-2.18
X-4.149 Y-71.513
X-4.093 Y-72.338 Z-2.209
X-4.092 Y-72.345
X-4.045 Y-73.132 Z-2.237
Y-73.14
X-4.008 Y-73.891 Z-2.263
Y-73.902 Z-2.264
X-3.982 Y-74.618 Z-2.289
Y-74.631
X-3.969 Y-75.315 Z-2.313
Y-75.33
X-3.97 Y-75.982 Z-2.336
Y-76 Z-2.337
X-3.986 Y-76.621 Z-2.359
X-3.987 Y-76.642
X-4.017 Y-77.213 Z-2.379
Y-77.807 Z-2.4
Y-80.949 F600
G2 X-4.498 Y-81.934 I-1.25 J0
G1 X-8.144 Y-84.783
G2 X-9.899 Y-84.568 I-0.77 J0.985
G1 X-13.422 Y-80.058
X-13.465 Y-79.997
X-13.518 Y-79.913
X-13.555 Y-79.848
X-13.585 Y-79.781
X-13.62 Y-79.688
X-13.646 Y-79.605
X-13.713 Y-79.345
X-13.718 Y-79.322
X-13.778 Y-79.054
X-13.782 Y-79.033
X-13.836 Y-78.756
X-13.839 Y-78.736
X-13.886 Y-78.451
X-13.889 Y-78.433
X-13.93 Y-78.139
X-13.932 Y-78.122
X-13.967 Y-77.82
X-13.968 Y-77.804
X-13.997 Y-77.493
X-13.999 Y-77.478
X-14.022 Y-77.159
X-14.023 Y-77.145
X-14.041 Y-76.816
Y-76.804
X-14.054 Y-76.466
Y-76.454
X-14.062 Y-76.107
Y-76.096
X-14.065 Y-75.74
Y-75.73
X-14.063 Y-75.364
Y-75.354
X-14.057 Y-74.978
X-14.056 Y-74.97
X-14.046 Y-74.583
Y-74.576
X-14.031 Y-74.178
Y-74.172
X-14.012 Y-73.763
Y-73.757
X-13.99 Y-73.338
Y-73.333
X-13.964 Y-72.901
Y-72.897
X-13.935 Y-72.454
Y-72.45
X-13.903 Y-71.995
Y-71.992
X-13.868 Y-71.524
Y-71.521
X-13.83 Y-71.04
Y-71.038
X-13.791 Y-70.544
X-13.79 Y-70.543
X-13.749 Y-70.035
X-13.748 Y-70.034
X-13.705 Y-69.512
X-13.659 Y-68.975
X-13.611 Y-68.424
X-13.562 Y-67.858
X-13.512 Y-67.276
X-13.461 Y-66.678
X-13.409 Y-66.064
X-13.357 Y-65.433
X-13.304 Y-64.785
X-13.25 Y-64.119
X-13.197 Y-63.434
X-13.143 Y-62.731
X-13.09 Y-62.008
X-13.037 Y-61.264
X-12.985 Y-60.501
X-12.934 Y-59.716
X-12.883 Y-58.91
X-12.833 Y-58.081
X-12.785 Y-57.23
X-12.738 Y-56.356
X-12.692 Y-55.457
X-12.648 Y-54.535
X-12.606 Y-53.588
X-12.565 Y-52.615
X-12.527 Y-51.617
X-12.49 Y-50.593
X-12.456 Y-49.542
X-12.425 Y-48.464
X-12.395 Y-47.358
X-12.368 Y-46.224
X-12.344 Y-45.062
X-12.322 Y-43.871
X-12.303 Y-42.651
X-12.287 Y-41.402
X-12.274 Y-40.123
X-12.263 Y-38.814
X-12.256 Y-37.476
X-12.251 Y-36.107
X-12.25 Y-34.708
Y-31.016
X-12.26 Y-30.781
X-12.288 Y-30.536
X-12.338 Y-30.266
X-12.408 Y-29.972
X-12.5 Y-29.654
X-12.612 Y-29.314
X-12.744 Y-28.954
X-12.893 Y-28.575
X-13.06 Y-28.178
X-13.241 Y-27.764
X-13.435 Y-27.335
X-13.639 Y-26.891
X-13.852 Y-26.434
X-14.072 Y-25.966
X-14.073 Y-25.963
X-14.52 Y-24.998
X-14.525 Y-24.987
X-14.968 Y-23.992
X-14.976 Y-23.973
X-15.397 Y-22.953
X-15.405 Y-22.934
X-15.602 Y-22.417
X-15.608 Y-22.401
X-15.794 Y-21.88
X-15.8 Y-21.862
X-15.972 Y-21.337
X-15.978 Y-21.317
X-16.136 Y-20.79
X-16.142 Y-20.768
X-16.283 Y-20.238
X-16.289 Y-20.214
X-16.412 Y-19.681
X-16.417 Y-19.655
X-16.521 Y-19.12
X-16.526 Y-19.093
X-16.61 Y-18.555
X-16.613 Y-18.526
X-16.677 Y-17.985
X-16.68 Y-17.956
X-16.723 Y-17.411
X-16.724 Y-17.382
X-16.746 Y-16.832
X-16.747 Y-16.804
X-16.748 Y-16.249
X-16.747 Y-16.221
X-16.728 Y-15.661
X-16.726 Y-15.634
X-16.686 Y-15.068
X-16.684 Y-15.043
X-16.624 Y-14.471
X-16.621 Y-14.447
X-16.542 Y-13.869
X-16.539 Y-13.847
X-16.442 Y-13.264
X-16.438 Y-13.244
X-16.323 Y-12.655
X-16.319 Y-12.636
X-16.187 Y-12.044
X-16.183 Y-12.026
X-16.035 Y-11.43
X-16.031 Y-11.413
X-15.867 Y-10.816
X-15.863 Y-10.8
X-15.685 Y-10.204
X-15.68 Y-10.188
X-15.489 Y-9.593
X-15.484 Y-9.578
X-15.28 Y-8.988
X-15.274 Y-8.973
X-15.058 Y-8.389
X-15.052 Y-8.374
X-14.825 Y-7.8
X-14.818 Y-7.784
X-14.581 Y-7.221
X-14.574 Y-7.205
X-14.326 Y-6.656
X-14.319 Y-6.639
X-14.063 Y-6.106
X-14.054 Y-6.089
X-13.79 Y-5.575
X-13.78 Y-5.556
X-13.509 Y-5.064
X-13.497 Y-5.044
X-13.22 Y-4.575
X-13.207 Y-4.553
X-12.924 Y-4.112
X-12.908 Y-4.087
X-12.62 Y-3.674
X-12.601 Y-3.648
X-12.31 Y-3.266
X-12.286 Y-3.237
X-11.991 Y-2.888
X-11.962 Y-2.856
X-11.665 Y-2.543
X-11.629 Y-2.508
X-11.329 Y-2.232
X-11.297 Y-2.204
X-11.146 Y-2.081
X-11.121 Y-2.061
X-10.97 Y-1.948
X-10.942 Y-1.928
X-10.791 Y-1.825
X-10.76 Y-1.805
X-10.609 Y-1.713
X-10.575 Y-1.693
X-10.423 Y-1.611
X-10.385 Y-1.592
X-10.233 Y-1.52
X-10.192 Y-1.503
X-10.04 Y-1.442
X-9.995 Y-1.426
X-9.843 Y-1.376
X-9.795 Y-1.362
X-9.643 Y-1.323
X-9.592 Y-1.312
X-9.439 Y-1.284
X-9.387 Y-1.277
X-9.234 Y-1.26
X-9.18 Y-1.256
X-9.027 Y-1.25
X-8.973
X-8.82 Y-1.256
X-8.766 Y-1.26
X-8.613 Y-1.277
X-8.561 Y-1.284
X-8.408 Y-1.312
X-8.357 Y-1.323
X-8.205 Y-1.362
X-8.157 Y-1.376
X-8.005 Y-1.426
X-7.96 Y-1.442
X-7.808 Y-1.503
X-7.767 Y-1.521
X-7.615 Y-1.592
X-7.577 Y-1.611
X-7.425 Y-1.693
X-7.391 Y-1.713
X-7.24 Y-1.805
X-7.209 Y-1.825
X-7.058 Y-1.928
X-7.03 Y-1.948
X-6.879 Y-2.061
X-6.854 Y-2.081
X-6.703 Y-2.204
X-6.671 Y-2.232
X-6.371 Y-2.508
X-6.335 Y-2.543
X-6.038 Y-2.856
X-6.009 Y-2.888
X-5.714 Y-3.237
X-5.69 Y-3.266
X-5.399 Y-3.648
X-5.38 Y-3.674
X-5.092 Y-4.087
X-5.076 Y-4.112
X-4.793 Y-4.553
X-4.78 Y-4.575
X-4.503 Y-5.044
X-4.491 Y-5.064
X-4.22 Y-5.556
X-4.21 Y-5.575
X-3.946 Y-6.089
X-3.937 Y-6.106
X-3.681 Y-6.639
X-3.674 Y-6.656
X-3.426 Y-7.205
X-3.419 Y-7.221
X-3.182 Y-7.784
X-3.175 Y-7.8
X-2.948 Y-8.374
X-2.942 Y-8.389
X-2.726 Y-8.973
X-2.72 Y-8.988
X-2.516 Y-9.578
X-2.511 Y-9.593
X-2.32 Y-10.188
X-2.315 Y-10.204
X-2.137 Y-10.8
X-2.133 Y-10.816
X-1.969 Y-11.413
X-1.965 Y-11.43
X-1.817 Y-12.026
X-1.813 Y-12.044
X-1.681 Y-12.636
X-1.677 Y-12.655
X-1.562 Y-13.243
X-1.558 Y-13.264
X-1.461 Y-13.847
X-1.458 Y-13.869
X-1.379 Y-14.447
X-1.376 Y-14.471
X-1.316 Y-15.043
X-1.314 Y-15.068
X-1.274 Y-15.634
X-1.272 Y-15.661
X-1.253 Y-16.221
X-1.252 Y-16.249
X-1.253 Y-16.804
X-1.254 Y-16.832
X-1.276 Y-17.382
X-1.277 Y-17.411
X-1.32 Y-17.956
X-1.323 Y-17.985
X-1.387 Y-18.526
X-1.39 Y-18.555
X-1.474 Y-19.093
X-1.479 Y-19.12
X-1.583 Y-19.655
X-1.588 Y-19.681
X-1.711 Y-20.214
X-1.717 Y-20.238
X-1.858 Y-20.768
X-1.864 Y-20.79
X-2.022 Y-21.317
X-2.028 Y-21.337
X-2.2 Y-21.862
X-2.206 Y-21.88
X-2.392 Y-22.401
X-2.398 Y-22.417
X-2.595 Y-22.934
X-2.603 Y-22.953
X-3.024 Y-23.973
X-3.032 Y-23.992
X-3.475 Y-24.987
X-3.48 Y-24.998
X-3.927 Y-25.963
X-3.928 Y-25.966
X-4.148 Y-26.434
X-4.361 Y-26.891
X-4.565 Y-27.335
X-4.759 Y-27.764
X-4.94 Y-28.178
X-5.107 Y-28.575
X-5.256 Y-28.954
X-5.388 Y-29.314
X-5.5 Y-29.654
X-5.592 Y-29.972
X-5.662 Y-30.266
X-5.712 Y-30.536
X-5.74 Y-30.781
X-5.75 Y-31.016
Y-34.708
X-5.749 Y-35.921
X-5.745 Y-37.112
X-5.74 Y-38.28
X-5.732 Y-39.426
X-5.722 Y-40.55
X-5.709 Y-41.651
X-5.695 Y-42.731
X-5.678 Y-43.789
X-5.659 Y-44.825
X-5.639 Y-45.84
X-5.616 Y-46.833
X-5.591 Y-47.806
X-5.564 Y-48.758
X-5.536 Y-49.689
X-5.506 Y-50.601
X-5.474 Y-51.492
X-5.441 Y-52.364
X-5.406 Y-53.217
X-5.369 Y-54.051
X-5.332 Y-54.867
X-5.293 Y-55.664
X-5.253 Y-56.443
X-5.211 Y-57.205
X-5.169 Y-57.949
X-5.126 Y-58.676
X-5.082 Y-59.387
X-5.038 Y-60.082
X-4.993 Y-60.761
X-4.947 Y-61.424
X-4.901 Y-62.072
X-4.855 Y-62.705
X-4.809 Y-63.324
X-4.762 Y-63.928
X-4.716 Y-64.519
X-4.67 Y-65.096
X-4.625 Y-65.66
X-4.579 Y-66.211
X-4.535 Y-66.75
X-4.491 Y-67.276
X-4.448 Y-67.791
X-4.406 Y-68.293
X-4.365 Y-68.785
X-4.328 Y-69.229
X-4.325 Y-69.265
X-4.287 Y-69.734
Y-69.735
X-4.25 Y-70.193
Y-70.194
X-4.215 Y-70.642
Y-70.643
X-4.181 Y-71.081
Y-71.083
X-4.15 Y-71.51
X-4.149 Y-71.513
X-4.093 Y-72.338
X-4.092 Y-72.345
X-4.045 Y-73.132
Y-73.14
X-4.008 Y-73.891
Y-73.902
X-3.982 Y-74.618
Y-74.631
X-3.969 Y-75.315
Y-75.33
X-3.97 Y-75.982
Y-76
X-3.986 Y-76.621
X-3.987 Y-76.642
X-4.017 Y-77.213
Y-77.807
Y-80.949 Z-2.51 F1016
G2 X-4.498 Y-81.934 Z-2.549 I-1.25 J0
G1 X-7.897 Y-84.59 Z-2.7
X-8.144 Y-84.783 F600
G2 X-9.899 Y-84.568 I-0.77 J0.985
G1 X-13.422 Y-80.058
X-13.465 Y-79.997
X-13.518 Y-79.913
X-13.555 Y-79.848
X-13.585 Y-79.781
X-13.62 Y-79.688
X-13.646 Y-79.605
X-13.713 Y-79.345
X-13.718 Y-79.322
X-13.778 Y-79.054
X-13.782 Y-79.033
X-13.836 Y-78.756
X-13.839 Y-78.736
X-13.886 Y-78.451
X-13.889 Y-78.433
X-13.93 Y-78.139
X-13.932 Y-78.122
X-13.967 Y-77.82
X-13.968 Y-77.804
X-13.997 Y-77.493
X-13.999 Y-77.478
X-14.022 Y-77.159
X-14.023 Y-77.145
X-14.041 Y-76.816
Y-76.804
X-14.054 Y-76.466
Y-76.454
X-14.062 Y-76.107
Y-76.096
X-14.065 Y-75.74
Y-75.73
X-14.063 Y-75.364
Y-75.354
X-14.057 Y-74.978
X-14.056 Y-74.97
X-14.046 Y-74.583
Y-74.576
X-14.031 Y-74.178
Y-74.172
X-14.012 Y-73.763
Y-73.757
X-13.99 Y-73.338
Y-73.333
X-13.964 Y-72.901
Y-72.897
X-13.935 Y-72.454
Y-72.45
X-13.903 Y-71.995
Y-71.992
X-13.868 Y-71.524
Y-71.521
X-13.83 Y-71.04
Y-71.038
X-13.791 Y-70.544
X-13.79 Y-70.543
X-13.749 Y-70.035
X-13.748 Y-70.034
X-13.705 Y-69.512
X-13.659 Y-68.975
X-13.611 Y-68.424
X-13.562 Y-67.858
X-13.558 Y-67.808
Z-2.4
X-13.512 Y-67.276
X-13.461 Y-66.678
X-13.409 Y-66.064
X-13.357 Y-65.433
X-13.304 Y-64.785
X-13.266 Y-64.32
Z-2.7 F300
X-13.25 Y-64.119 F600
X-13.197 Y-63.434
X-13.143 Y-62.731
X-13.09 Y-62.008
X-13.037 Y-61.264
X-12.985 Y-60.501
X-12.934 Y-59.716
X-12.883 Y-58.91
X-12.833 Y-58.081
X-12.785 Y-57.23
X-12.738 Y-56.356
X-12.692 Y-55.457
X-12.648 Y-54.535
X-12.606 Y-53.588
X-12.565 Y-52.615
X-12.527 Y-51.617
X-12.49 Y-50.593
X-12.456 Y-49.542
X-12.425 Y-48.464
X-12.395 Y-47.358
X-12.368 Y-46.224
X-12.344 Y-45.062
X-12.322 Y-43.871
X-12.303 Y-42.651
X-12.287 Y-41.402
X-12.274 Y-40.123
X-12.263 Y-38.814
X-12.256 Y-37.476
X-12.251 Y-36.107
X-12.25 Y-34.708
Y-31.016
X-12.26 Y-30.781
X-12.288 Y-30.536
X-12.338 Y-30.266
X-12.408 Y-29.972
X-12.5 Y-29.654
X-12.612 Y-29.314
X-12.744 Y-28.954
X-12.893 Y-28.575
X-13.06 Y-28.178
X-13.241 Y-27.764
X-13.435 Y-27.335
X-13.639 Y-26.891
X-13.852 Y-26.434
X-14.072 Y-25.966
X-14.073 Y-25.963
X-14.52 Y-24.998
X-14.525 Y-24.987
X-14.968 Y-23.992
X-14.976 Y-23.973
X-15.397 Y-22.953
X-15.405 Y-22.934
X-15.602 Y-22.417
X-15.608 Y-22.401
X-15.794 Y-21.88
X-15.8 Y-21.862
X-15.972 Y-21.337
X-15.978 Y-21.317
X-16.136 Y-20.79
X-16.142 Y-20.768
X-16.283 Y-20.238
X-16.289 Y-20.214
X-16.412 Y-19.681
X-16.417 Y-19.655
X-16.521 Y-19.12
X-16.526 Y-19.093
X-16.61 Y-18.555
X-16.613 Y-18.526
X-16.677 Y-17.985
X-16.68 Y-17.956
X-16.723 Y-17.411
X-16.724 Y-17.382
X-16.746 Y-16.832
X-16.747 Y-16.804
X-16.748 Y-16.249
X-16.747 Y-16.221
X-16.728 Y-15.661
X-16.726 Y-15.634
X-16.686 Y-15.068
X-16.684 Y-15.043
X-16.624 Y-14.471
X-16.621 Y-14.447
X-16.542 Y-13.869
X-16.539 Y-13.847
X-16.442 Y-13.264
X-16.438 Y-13.244
X-16.323 Y-12.655
X-16.319 Y-12.636
X-16.187 Y-12.044
X-16.183 Y-12.026
X-16.035 Y-11.43
X-16.031 Y-11.413
X-15.867 Y-10.816
X-15.863 Y-10.8
X-15.685 Y-10.204
X-15.68 Y-10.188
X-15.489 Y-9.593
X-15.484 Y-9.578
X-15.28 Y-8.988
X-15.274 Y-8.973
X-15.058 Y-8.389
X-15.052 Y-8.374
X-14.825 Y-7.8
X-14.818 Y-7.784
X-14.581 Y-7.221
X-14.574 Y-7.205
X-14.326 Y-6.656
X-14.319 Y-6.639
X-14.063 Y-6.106
X-14.054 Y-6.089
X-13.79 Y-5.575
X-13.78 Y-5.556
X-13.509 Y-5.064
X-13.497 Y-5.044
X-13.22 Y-4.575
X-13.207 Y-4.553
X-12.924 Y-4.112
X-12.908 Y-4.087
X-12.62 Y-3.674
X-12.601 Y-3.648
X-12.31 Y-3.266
X-12.286 Y-3.237
X-11.991 Y-2.888
X-11.962 Y-2.856
X-11.665 Y-2.543
X-11.629 Y-2.508
X-11.329 Y-2.232
X-11.297 Y-2.204
X-11.146 Y-2.081
X-11.121 Y-2.061
X-10.97 Y-1.948
X-10.942 Y-1.928
X-10.791 Y-1.825
X-10.76 Y-1.805
X-10.75 Y-1.799
Z-2.4
X-10.609 Y-1.713
X-10.575 Y-1.693
X-10.423 Y-1.611
X-10.385 Y-1.592
X-10.233 Y-1.52
X-10.192 Y-1.503
X-10.04 Y-1.442
X-9.995 Y-1.426
X-9.843 Y-1.376
X-9.795 Y-1.362
X-9.643 Y-1.323
X-9.592 Y-1.312
X-9.439 Y-1.284
X-9.387 Y-1.277
X-9.234 Y-1.26
X-9.18 Y-1.256
X-9.027 Y-1.25
X-8.973
X-8.82 Y-1.256
X-8.766 Y-1.26
X-8.613 Y-1.277
X-8.561 Y-1.284
X-8.408 Y-1.312
X-8.357 Y-1.323
X-8.205 Y-1.362
X-8.157 Y-1.376
X-8.005 Y-1.426
X-7.96 Y-1.442
X-7.808 Y-1.503
X-7.767 Y-1.521
X-7.615 Y-1.592
X-7.577 Y-1.611
X-7.425 Y-1.693
X-7.391 Y-1.713
X-7.25 Y-1.799
Z-2.7 F300
X-7.24 Y-1.805 F600
X-7.209 Y-1.825
X-7.058 Y-1.928
X-7.03 Y-1.948
X-6.879 Y-2.061
X-6.854 Y-2.081
X-6.703 Y-2.204
X-6.671 Y-2.232
X-6.371 Y-2.508
X-6.335 Y-2.543
X-6.038 Y-2.856
X-6.009 Y-2.888
X-5.714 Y-3.237
X-5.69 Y-3.266
X-5.399 Y-3.648
X-5.38 Y-3.674
X-5.092 Y-4.087
X-5.076 Y-4.112
X-4.793 Y-4.553
X-4.78 Y-4.575
X-4.503 Y-5.044
X-4.491 Y-5.064
X-4.22 Y-5.556
X-4.21 Y-5.575
X-3.946 Y-6.089
X-3.937 Y-6.106
X-3.681 Y-6.639
X-3.674 Y-6.656
X-3.426 Y-7.205
X-3.419 Y-7.221
X-3.182 Y-7.784
X-3.175 Y-7.8
X-2.948 Y-8.374
X-2.942 Y-8.389
X-2.726 Y-8.973
X-2.72 Y-8.988
X-2.516 Y-9.578
X-2.511 Y-9.593
X-2.32 Y-10.188
X-2.315 Y-10.204
X-2.137 Y-10.8
X-2.133 Y-10.816
X-1.969 Y-11.413
X-1.965 Y-11.43
X-1.817 Y-12.026
X-1.813 Y-12.044
X-1.681 Y-12.636
X-1.677 Y-12.655
X-1.562 Y-13.243
X-1.558 Y-13.264
X-1.461 Y-13.847
X-1.458 Y-13.869
X-1.379 Y-14.447
X-1.376 Y-14.471
X-1.316 Y-15.043
X-1.314 Y-15.068
X-1.274 Y-15.634
X-1.272 Y-15.661
X-1.253 Y-16.221
X-1.252 Y-16.249
X-1.253 Y-16.804
X-1.254 Y-16.832
X-1.276 Y-17.382
X-1.277 Y-17.411
X-1.32 Y-17.956
X-1.323 Y-17.985
X-1.387 Y-18.526
X-1.39 Y-18.555
X-1.474 Y-19.093
X-1.479 Y-19.12
X-1.583 Y-19.655
X-1.588 Y-19.681
X-1.711 Y-20.214
X-1.717 Y-20.238
X-1.858 Y-20.768
X-1.864 Y-20.79
X-2.022 Y-21.317
X-2.028 Y-21.337
X-2.2 Y-21.862
X-2.206 Y-21.88
X-2.392 Y-22.401
X-2.398 Y-22.417
X-2.595 Y-22.934
X-2.603 Y-22.953
X-3.024 Y-23.973
X-3.032 Y-23.992
X-3.475 Y-24.987
X-3.48 Y-24.998
X-3.927 Y-25.963
X-3.928 Y-25.966
X-4.148 Y-26.434
X-4.361 Y-26.891
X-4.565 Y-27.335
X-4.759 Y-27.764
X-4.94 Y-28.178
X-5.107 Y-28.575
X-5.256 Y-28.954
X-5.388 Y-29.314
X-5.5 Y-29.654
X-5.592 Y-29.972
X-5.662 Y-30.266
X-5.712 Y-30.536
X-5.74 Y-30.781
X-5.75 Y-31.016
Y-34.708
X-5.749 Y-35.921
X-5.745 Y-37.112
X-5.74 Y-38.28
X-5.732 Y-39.426
X-5.722 Y-40.55
X-5.709 Y-41.651
X-5.695 Y-42.731
X-5.678 Y-43.789
X-5.659 Y-44.825
X-5.639 Y-45.84
X-5.616 Y-46.833
X-5.591 Y-47.806
X-5.564 Y-48.758
X-5.536 Y-49.689
X-5.506 Y-50.601
X-5.474 Y-51.492
X-5.441 Y-52.364
X-5.406 Y-53.217
X-5.369 Y-54.051
X-5.332 Y-54.867
X-5.293 Y-55.664
X-5.253 Y-56.443
X-5.211 Y-57.205
X-5.169 Y-57.949
X-5.126 Y-58.676
X-5.082 Y-59.387
X-5.038 Y-60.082
X-4.993 Y-60.761
X-4.947 Y-61.424
X-4.936 Y-61.579
Z-2.4
X-4.901 Y-62.072
X-4.855 Y-62.705
X-4.809 Y-63.324
X-4.762 Y-63.928
X-4.716 Y-64.519
X-4.672 Y-65.069
Z-2.7 F300
X-4.67 Y-65.096 F600
X-4.625 Y-65.66
X-4.579 Y-66.211
X-4.535 Y-66.75
X-4.491 Y-67.276
X-4.448 Y-67.791
X-4.406 Y-68.293
X-4.365 Y-68.785
X-4.325 Y-69.265
X-4.287 Y-69.734
Y-69.735
X-4.25 Y-70.193
Y-70.194
X-4.215 Y-70.642
Y-70.643
X-4.181 Y-71.081
Y-71.083
X-4.15 Y-71.51
X-4.149 Y-71.513
X-4.093 Y-72.338
X-4.092 Y-72.345
X-4.045 Y-73.132
Y-73.14
X-4.008 Y-73.891
Y-73.902
X-3.982 Y-74.618
Y-74.631
X-3.969 Y-75.315
Y-75.33
X-3.97 Y-75.982
Y-76
X-3.986 Y-76.621
X-3.987 Y-76.642
X-4.017 Y-77.213
Y-80.949
G2 X-4.498 Y-81.934 I-1.25 J0
G1 X-7.897 Y-84.59
X-8.144 Y-84.783 Z-2.711 F1016
G2 X-9.899 Y-84.568 Z-2.78 I-0.77 J0.985
G1 X-13.422 Y-80.058 Z-2.979
X-13.465 Y-79.997 Z-2.982
X-13.518 Y-79.913 Z-2.985
X-13.555 Y-79.848 Z-2.988
X-13.585 Y-79.781 Z-2.991
X-13.62 Y-79.688 Z-2.994
X-13.646 Y-79.605 Z-2.997
X-13.667 Y-79.525 Z-3
X-13.713 Y-79.345 F600
X-13.718 Y-79.322
X-13.778 Y-79.054
X-13.782 Y-79.033
X-13.836 Y-78.756
X-13.839 Y-78.736
X-13.886 Y-78.451
X-13.889 Y-78.433
X-13.93 Y-78.139
X-13.932 Y-78.122
X-13.967 Y-77.82
X-13.968 Y-77.804
X-13.997 Y-77.493
X-13.999 Y-77.478
X-14.022 Y-77.159
X-14.023 Y-77.145
X-14.041 Y-76.816
Y-76.804
X-14.054 Y-76.466
Y-76.454
X-14.062 Y-76.107
Y-76.096
X-14.065 Y-75.74
Y-75.73
X-14.063 Y-75.364
Y-75.354
X-14.057 Y-74.978
X-14.056 Y-74.97
X-14.046 Y-74.583
Y-74.576
X-14.031 Y-74.178
Y-74.172
X-14.012 Y-73.763
Y-73.757
X-13.99 Y-73.338
Y-73.333
X-13.964 Y-72.901
Y-72.897
X-13.935 Y-72.454
Y-72.45
X-13.903 Y-71.995
Y-71.992
X-13.868 Y-71.524
Y-71.521
X-13.83 Y-71.04
Y-71.038
X-13.791 Y-70.544
X-13.79 Y-70.543
X-13.749 Y-70.035
X-13.748 Y-70.034
X-13.705 Y-69.512
X-13.659 Y-68.975
X-13.611 Y-68.424
X-13.562 Y-67.858
X-13.558 Y-67.808
Z-2.4
X-13.512 Y-67.276
X-13.461 Y-66.678
X-13.409 Y-66.064
X-13.357 Y-65.433
X-13.304 Y-64.785
X-13.266 Y-64.32
Z-3 F300
X-13.25 Y-64.119 F600
X-13.197 Y-63.434
X-13.143 Y-62.731
X-13.09 Y-62.008
X-13.037 Y-61.264
X-12.985 Y-60.501
X-12.934 Y-59.716
X-12.883 Y-58.91
X-12.833 Y-58.081
X-12.785 Y-57.23
X-12.738 Y-56.356
X-12.692 Y-55.457
X-12.648 Y-54.535
X-12.606 Y-53.588
X-12.565 Y-52.615
X-12.527 Y-51.617
X-12.49 Y-50.593
X-12.456 Y-49.542
X-12.425 Y-48.464
X-12.395 Y-47.358
X-12.368 Y-46.224
X-12.344 Y-45.062
X-12.322 Y-43.871
X-12.303 Y-42.651
X-12.287 Y-41.402
X-12.274 Y-40.123
X-12.263 Y-38.814
X-12.256 Y-37.476
X-12.251 Y-36.107
X-12.25 Y-34.708
Y-31.016
X-12.26 Y-30.781
X-12.288 Y-30.536
X-12.338 Y-30.266
X-12.408 Y-29.972
X-12.5 Y-29.654
X-12.612 Y-29.314
X-12.744 Y-28.954
X-12.893 Y-28.575
X-13.06 Y-28.178
X-13.241 Y-27.764
X-13.435 Y-27.335
X-13.639 Y-26.891
X-13.852 Y-26.434
X-14.072 Y-25.966
X-14.073 Y-25.963
X-14.52 Y-24.998
X-14.525 Y-24.987
X-14.968 Y-23.992
X-14.976 Y-23.973
X-15.397 Y-22.953
X-15.405 Y-22.934
X-15.602 Y-22.417
X-15.608 Y-22.401
X-15.794 Y-21.88
X-15.8 Y-21.862
X-15.972 Y-21.337
X-15.978 Y-21.317
X-16.136 Y-20.79
X-16.142 Y-20.768
X-16.283 Y-20.238
X-16.289 Y-20.214
X-16.412 Y-19.681
X-16.417 Y-19.655
X-16.521 Y-19.12
X-16.526 Y-19.093
X-16.61 Y-18.555
X-16.613 Y-18.526
X-16.677 Y-17.985
X-16.68 Y-17.956
X-16.723 Y-17.411
X-16.724 Y-17.382
X-16.746 Y-16.832
X-16.747 Y-16.804
X-16.748 Y-16.249
X-16.747 Y-16.221
X-16.728 Y-15.661
X-16.726 Y-15.634
X-16.686 Y-15.068
X-16.684 Y-15.043
X-16.624 Y-14.471
X-16.621 Y-14.447
X-16.542 Y-13.869
X-16.539 Y-13.847
X-16.442 Y-13.264
X-16.438 Y-13.244
X-16.323 Y-12.655
X-16.319 Y-12.636
X-16.187 Y-12.044
X-16.183 Y-12.026
X-16.035 Y-11.43
X-16.031 Y-11.413
X-15.867 Y-10.816
X-15.863 Y-10.8
X-15.685 Y-10.204
X-15.68 Y-10.188
X-15.489 Y-9.593
X-15.484 Y-9.578
X-15.28 Y-8.988
X-15.274 Y-8.973
X-15.058 Y-8.389
X-15.052 Y-8.374
X-14.825 Y-7.8
X-14.818 Y-7.784
X-14.581 Y-7.221
X-14.574 Y-7.205
X-14.326 Y-6.656
X-14.319 Y-6.639
X-14.063 Y-6.106
X-14.054 Y-6.089
X-13.79 Y-5.575
X-13.78 Y-5.556
X-13.509 Y-5.064
X-13.497 Y-5.044
X-13.22 Y-4.575
X-13.207 Y-4.553
X-12.924 Y-4.112
X-12.908 Y-4.087
X-12.62 Y-3.674
X-12.601 Y-3.648
X-12.31 Y-3.266
X-12.286 Y-3.237
X-11.991 Y-2.888
X-11.962 Y-2.856
X-11.665 Y-2.543
X-11.629 Y-2.508
X-11.329 Y-2.232
X-11.297 Y-2.204
X-11.146 Y-2.081
X-11.121 Y-2.061
X-10.97 Y-1.948
X-10.942 Y-1.928
X-10.791 Y-1.825
X-10.76 Y-1.805
X-10.75 Y-1.799
Z-2.4
X-10.609 Y-1.713
X-10.575 Y-1.693
X-10.423 Y-1.611
X-10.385 Y-1.592
X-10.233 Y-1.52
X-10.192 Y-1.503
X-10.04 Y-1.442
X-9.995 Y-1.426
X-9.843 Y-1.376
X-9.795 Y-1.362
X-9.643 Y-1.323
X-9.592 Y-1.312
X-9.439 Y-1.284
X-9.387 Y-1.277
X-9.234 Y-1.26
X-9.18 Y-1.256
X-9.027 Y-1.25
X-8.973
X-8.82 Y-1.256
X-8.766 Y-1.26
X-8.613 Y-1.277
X-8.561 Y-1.284
X-8.408 Y-1.312
X-8.357 Y-1.323
X-8.205 Y-1.362
X-8.157 Y-1.376
X-8.005 Y-1.426
X-7.96 Y-1.442
X-7.808 Y-1.503
X-7.767 Y-1.521
X-7.615 Y-1.592
X-7.577 Y-1.611
X-7.425 Y-1.693
X-7.391 Y-1.713
X-7.25 Y-1.799
Z-3 F300
X-7.24 Y-1.805 F600
X-7.209 Y-1.825
X-7.058 Y-1.928
X-7.03 Y-1.948
X-6.879 Y-2.061
X-6.854 Y-2.081
X-6.703 Y-2.204
X-6.671 Y-2.232
X-6.371 Y-2.508
X-6.335 Y-2.543
X-6.038 Y-2.856
X-6.009 Y-2.888
X-5.714 Y-3.237
X-5.69 Y-3.266
X-5.399 Y-3.648
X-5.38 Y-3.674
X-5.092 Y-4.087
X-5.076 Y-4.112
X-4.793 Y-4.553
X-4.78 Y-4.575
X-4.503 Y-5.044
X-4.491 Y-5.064
X-4.22 Y-5.556
X-4.21 Y-5.575
X-3.946 Y-6.089
X-3.937 Y-6.106
X-3.681 Y-6.639
X-3.674 Y-6.656
X-3.426 Y-7.205
X-3.419 Y-7.221
X-3.182 Y-7.784
X-3.175 Y-7.8
X-2.948 Y-8.374
X-2.942 Y-8.389
X-2.726 Y-8.973
X-2.72 Y-8.988
X-2.516 Y-9.578
X-2.511 Y-9.593
X-2.32 Y-10.188
X-2.315 Y-10.204
X-2.137 Y-10.8
X-2.133 Y-10.816
X-1.969 Y-11.413
X-1.965 Y-11.43
X-1.817 Y-12.026
X-1.813 Y-12.044
X-1.681 Y-12.636
X-1.677 Y-12.655
X-1.562 Y-13.243
X-1.558 Y-13.264
X-1.461 Y-13.847
X-1.458 Y-13.869
X-1.379 Y-14.447
X-1.376 Y-14.471
X-1.316 Y-15.043
X-1.314 Y-15.068
X-1.274 Y-15.634
X-1.272 Y-15.661
X-1.253 Y-16.221
X-1.252 Y-16.249
X-1.253 Y-16.804
X-1.254 Y-16.832
X-1.276 Y-17.382
X-1.277 Y-17.411
X-1.32 Y-17.956
X-1.323 Y-17.985
X-1.387 Y-18.526
X-1.39 Y-18.555
X-1.474 Y-19.093
X-1.479 Y-19.12
X-1.583 Y-19.655
X-1.588 Y-19.681
X-1.711 Y-20.214
X-1.717 Y-20.238
X-1.858 Y-20.768
X-1.864 Y-20.79
X-2.022 Y-21.317
X-2.028 Y-21.337
X-2.2 Y-21.862
X-2.206 Y-21.88
X-2.392 Y-22.401
X-2.398 Y-22.417
X-2.595 Y-22.934
X-2.603 Y-22.953
X-3.024 Y-23.973
X-3.032 Y-23.992
X-3.475 Y-24.987
X-3.48 Y-24.998
X-3.927 Y-25.963
X-3.928 Y-25.966
X-4.148 Y-26.434
X-4.361 Y-26.891
X-4.565 Y-27.335
X-4.759 Y-27.764
X-4.94 Y-28.178
X-5.107 Y-28.575
X-5.256 Y-28.954
X-5.388 Y-29.314
X-5.5 Y-29.654
X-5.592 Y-29.972
X-5.662 Y-30.266
X-5.712 Y-30.536
X-5.74 Y-30.781
X-5.75 Y-31.016
Y-34.708
X-5.749 Y-35.921
X-5.745 Y-37.112
X-5.74 Y-38.28
X-5.732 Y-39.426
X-5.722 Y-40.55
X-5.709 Y-41.651
X-5.695 Y-42.731
X-5.678 Y-43.789
X-5.659 Y-44.825
X-5.639 Y-45.84
X-5.616 Y-46.833
X-5.591 Y-47.806
X-5.564 Y-48.758
X-5.536 Y-49.689
X-5.506 Y-50.601
X-5.474 Y-51.492
X-5.441 Y-52.364
X-5.406 Y-53.217
X-5.369 Y-54.051
X-5.332 Y-54.867
X-5.293 Y-55.664
X-5.253 Y-56.443
X-5.211 Y-57.205
X-5.169 Y-57.949
X-5.126 Y-58.676
X-5.082 Y-59.387
X-5.038 Y-60.082
X-4.993 Y-60.761
X-4.947 Y-61.424
X-4.936 Y-61.579
Z-2.4
X-4.901 Y-62.072
X-4.855 Y-62.705
X-4.809 Y-63.324
X-4.762 Y-63.928
X-4.716 Y-64.519
X-4.672 Y-65.069
Z-3 F300
X-4.67 Y-65.096 F600
X-4.625 Y-65.66
X-4.579 Y-66.211
X-4.535 Y-66.75
X-4.491 Y-67.276
X-4.448 Y-67.791
X-4.406 Y-68.293
X-4.365 Y-68.785
X-4.325 Y-69.265
X-4.287 Y-69.734
Y-69.735
X-4.25 Y-70.193
Y-70.194
X-4.215 Y-70.642
Y-70.643
X-4.181 Y-71.081
Y-71.083
X-4.15 Y-71.51
X-4.149 Y-71.513
X-4.093 Y-72.338
X-4.092 Y-72.345
X-4.045 Y-73.132
Y-73.14
X-4.008 Y-73.891
Y-73.902
X-3.982 Y-74.618
Y-74.631
X-3.969 Y-75.315
Y-75.33
X-3.97 Y-75.982
Y-76
X-3.986 Y-76.621
X-3.987 Y-76.642
X-4.017 Y-77.213
Y-80.949
G2 X-4.498 Y-81.934 I-1.25 J0
G1 X-8.144 Y-84.783
G2 X-9.899 Y-84.568 I-0.77 J0.985
G1 X-13.422 Y-80.058
X-13.465 Y-79.997
X-13.518 Y-79.913
X-13.555 Y-79.848
X-13.585 Y-79.781
X-13.62 Y-79.688
X-13.646 Y-79.605
X-13.667 Y-79.525
Z15
(When using Fusion 360 for Personal Use, the feedrate of)
(rapid moves is reduced to match the feedrate of cutting)
(moves, which can increase machining time. Unrestricted rapid)
(moves are available with a Fusion 360 Subscription.)

(Bohrfrasen6)
G0 X-27.317 Y-25.781
G1 Z15 F600
Z2
Z0.15 F400
X-27.31 Z0.104
X-27.289 Z0.062
X-27.255 Z0.029
X-27.214 Z0.007
X-27.167 Z0
X-27.092
X-27.046 Y-25.774
X-27.004 Y-25.753
X-26.971 Y-25.719
X-26.95 Y-25.678
X-26.942 Y-25.631
G3 X-28.942 Y-25.631 Z-0.5 I-1 J0 F600
X-26.942 Y-25.631 Z-1 I1 J0
X-28.942 Y-25.631 Z-1.5 I-1 J0
X-26.942 Y-25.631 I1 J0
X-28.942 Y-25.631 I-1 J0
G1 X-28.935 Y-25.678
X-28.914 Y-25.719
X-28.88 Y-25.753
X-28.839 Y-25.774
X-28.792 Y-25.781
X-28.717
X-28.671 Z-1.493
X-28.629 Z-1.471
X-28.596 Z-1.438
X-28.575 Z-1.396
X-28.567 Z-1.35
Z5
X-20.953 Y-32.145
Z2
Z0.15 F400
X-20.946 Z0.104
X-20.925 Z0.062
X-20.891 Z0.029
X-20.85 Z0.007
X-20.803 Z0
X-20.728
X-20.682 Y-32.138
X-20.64 Y-32.117
X-20.607 Y-32.083
X-20.586 Y-32.042
X-20.578 Y-31.995
G3 X-22.578 Y-31.995 Z-0.5 I-1 J0 F600
X-20.578 Y-31.995 Z-1 I1 J0
X-22.578 Y-31.995 Z-1.5 I-1 J0
X-20.578 Y-31.995 I1 J0
X-22.578 Y-31.995 I-1 J0
G1 X-22.571 Y-32.042
X-22.55 Y-32.083
X-22.516 Y-32.117
X-22.475 Y-32.138
X-22.428 Y-32.145
X-22.353
X-22.307 Z-1.493
X-22.265 Z-1.471
X-22.232 Z-1.438
X-22.211 Z-1.396
X-22.203 Z-1.35
Z15
(When using Fusion 360 for Personal Use, the feedrate of)
(rapid moves is reduced to match the feedrate of cutting)
(moves, which can increase machining time. Unrestricted rapid)
(moves are available with a Fusion 360 Subscription.)

(Bohrfrasen4)
G0 X-24.335 Y-19.463
G1 Z15 F600
Z2
Z0.15 F400
X-24.328 Z0.104
X-24.307 Z0.062
X-24.273 Z0.029
X-24.232 Z0.007
X-24.185 Z0
X-24.11
X-24.064 Y-19.456
X-24.022 Y-19.435
X-23.989 Y-19.401
X-23.968 Y-19.36
X-23.96 Y-19.313
G3 X-25.56 Y-19.313 Z-0.5 I-0.8 J0 F600
X-23.96 Y-19.313 Z-1 I0.8 J0
X-25.56 Y-19.313 Z-1.5 I-0.8 J0
X-23.96 Y-19.313 Z-2 I0.8 J0
X-25.56 Y-19.313 Z-2.5 I-0.8 J0
X-23.96 Y-19.313 Z-3 I0.8 J0
X-25.56 Y-19.313 I-0.8 J0
X-23.96 Y-19.313 I0.8 J0
G1 X-23.968 Y-19.267
X-23.989 Y-19.225
X-24.022 Y-19.192
X-24.064 Y-19.171
X-24.11 Y-19.163
X-24.185
X-24.232 Z-2.993
X-24.273 Z-2.971
X-24.307 Z-2.938
X-24.328 Z-2.896
X-24.335 Z-2.85
Z5
X-27.967 Y-25.781
Z0.5
Z-1.35 F400
X-27.96 Z-1.396
X-27.939 Z-1.438
X-27.905 Z-1.471
X-27.864 Z-1.493
X-27.817 Z-1.5
X-27.742
X-27.696 Y-25.774
X-27.654 Y-25.753
X-27.621 Y-25.719
X-27.6 Y-25.678
X-27.592 Y-25.631
G3 X-28.292 Y-25.631 Z-2 I-0.35 J0 F600
X-27.592 Y-25.631 Z-2.5 I0.35 J0
X-28.292 Y-25.631 Z-3 I-0.35 J0
X-27.592 Y-25.631 I0.35 J0
X-28.292 Y-25.631 I-0.35 J0
G1 X-28.285 Y-25.678
X-28.264 Y-25.719
X-28.23 Y-25.753
X-28.189 Y-25.774
X-28.142 Y-25.781
X-28.067
X-28.021 Z-2.993
X-27.979 Z-2.971
X-27.946 Z-2.938
X-27.925 Z-2.896
X-27.917 Z-2.85
Z5
X-21.003
Z2
Z0.15 F400
X-20.996 Z0.104
X-20.975 Z0.062
X-20.941 Z0.029
X-20.9 Z0.007
X-20.853 Z0
X-20.778
X-20.732 Y-25.774
X-20.69 Y-25.753
X-20.657 Y-25.719
X-20.636 Y-25.678
X-20.628 Y-25.631
G3 X-22.528 Y-25.631 Z-0.5 I-0.95 J0 F600
X-20.628 Y-25.631 Z-1 I0.95 J0
X-22.528 Y-25.631 Z-1.5 I-0.95 J0
X-20.628 Y-25.631 Z-2 I0.95 J0
X-22.528 Y-25.631 Z-2.5 I-0.95 J0
X-20.628 Y-25.631 Z-3 I0.95 J0
X-22.528 Y-25.631 I-0.95 J0
X-20.628 Y-25.631 I0.95 J0
G1 X-20.636 Y-25.585
X-20.657 Y-25.543
X-20.69 Y-25.51
X-20.732 Y-25.489
X-20.778 Y-25.481
X-20.853
X-20.9 Z-2.993
X-20.941 Z-2.971
X-20.975 Z-2.938
X-20.996 Z-2.896
X-21.003 Z-2.85
Z5
X-21.603 Y-32.145
Z0.5
Z-1.35 F400
X-21.596 Z-1.396
X-21.575 Z-1.438
X-21.541 Z-1.471
X-21.5 Z-1.493
X-21.453 Z-1.5
X-21.378
X-21.332 Y-32.138
X-21.29 Y-32.117
X-21.257 Y-32.083
X-21.236 Y-32.042
X-21.228 Y-31.995
G3 X-21.928 Y-31.995 Z-2 I-0.35 J0 F600
X-21.228 Y-31.995 Z-2.5 I0.35 J0
X-21.928 Y-31.995 Z-3 I-0.35 J0
X-21.228 Y-31.995 I0.35 J0
X-21.928 Y-31.995 I-0.35 J0
G1 X-21.921 Y-32.042
X-21.9 Y-32.083
X-21.866 Y-32.117
X-21.825 Y-32.138
X-21.778 Y-32.145
X-21.703
X-21.657 Z-2.993
X-21.615 Z-2.971
X-21.582 Z-2.938
X-21.561 Z-2.896
X-21.553 Z-2.85
Z5
X-23.185 Y-28.963
Z2
Z0.15 F400
X-23.178 Z0.104
X-23.157 Z0.062
X-23.123 Z0.029
X-23.082 Z0.007
X-23.035 Z0
X-22.96
X-22.914 Y-28.956
X-22.872 Y-28.935
X-22.839 Y-28.901
X-22.818 Y-28.86
X-22.81 Y-28.813
G3 X-26.71 Y-28.813 Z-0.5 I-1.95 J0 F600
X-22.81 Y-28.813 Z-1 I1.95 J0
X-26.71 Y-28.813 Z-1.5 I-1.95 J0
X-22.81 Y-28.813 Z-2 I1.95 J0
X-26.71 Y-28.813 Z-2.5 I-1.95 J0
X-22.81 Y-28.813 Z-3 I1.95 J0
X-26.71 Y-28.813 I-1.95 J0
X-22.81 Y-28.813 I1.95 J0
G1 X-22.818 Y-28.767
X-22.839 Y-28.725
X-22.872 Y-28.692
X-22.914 Y-28.671
X-22.96 Y-28.663
X-23.035
X-23.082 Z-2.993
X-23.123 Z-2.971
X-23.157 Z-2.938
X-23.178 Z-2.896
X-23.185 Z-2.85
Z5
X-27.367 Y-32.145
Z2
Z0.15 F400
X-27.36 Z0.104
X-27.339 Z0.062
X-27.305 Z0.029
X-27.264 Z0.007
X-27.217 Z0
X-27.142
X-27.096 Y-32.138
X-27.054 Y-32.117
X-27.021 Y-32.083
X-27 Y-32.042
X-26.992 Y-31.995
G3 X-28.892 Y-31.995 Z-0.5 I-0.95 J0 F600
X-26.992 Y-31.995 Z-1 I0.95 J0
X-28.892 Y-31.995 Z-1.5 I-0.95 J0
X-26.992 Y-31.995 Z-2 I0.95 J0
X-28.892 Y-31.995 Z-2.5 I-0.95 J0
X-26.992 Y-31.995 Z-3 I0.95 J0
X-28.892 Y-31.995 I-0.95 J0
X-26.992 Y-31.995 I0.95 J0
G1 X-27 Y-31.949
X-27.021 Y-31.907
X-27.054 Y-31.874
X-27.096 Y-31.853
X-27.142 Y-31.845
X-27.217
X-27.264 Z-2.993
X-27.305 Z-2.971
X-27.339 Z-2.938
X-27.36 Z-2.896
X-27.367 Z-2.85
Z5
X-24.335 Y-38.463
Z2
Z0.15 F400
X-24.328 Z0.104
X-24.307 Z0.062
X-24.273 Z0.029
X-24.232 Z0.007
X-24.185 Z0
X-24.11
X-24.064 Y-38.456
X-24.022 Y-38.435
X-23.989 Y-38.401
X-23.968 Y-38.36
X-23.96 Y-38.313
G3 X-25.56 Y-38.313 Z-0.5 I-0.8 J0 F600
X-23.96 Y-38.313 Z-1 I0.8 J0
X-25.56 Y-38.313 Z-1.5 I-0.8 J0
X-23.96 Y-38.313 Z-2 I0.8 J0
X-25.56 Y-38.313 Z-2.5 I-0.8 J0
X-23.96 Y-38.313 Z-3 I0.8 J0
X-25.56 Y-38.313 I-0.8 J0
X-23.96 Y-38.313 I0.8 J0
G1 X-23.968 Y-38.267
X-23.989 Y-38.225
X-24.022 Y-38.192
X-24.064 Y-38.171
X-24.11 Y-38.163
X-24.185
X-24.232 Z-2.993
X-24.273 Z-2.971
X-24.307 Z-2.938
X-24.328 Z-2.896
X-24.335 Z-2.85
Z5
Y-74.223
Z2
Z0.15 F400
X-24.328 Z0.104
X-24.307 Z0.062
X-24.273 Z0.029
X-24.232 Z0.007
X-24.185 Z0
X-24.11
X-24.064 Y-74.216
X-24.022 Y-74.195
X-23.989 Y-74.162
X-23.968 Y-74.12
X-23.96 Y-74.073
G3 X-25.56 Y-74.073 Z-0.5 I-0.8 J0 F600
X-23.96 Y-74.073 Z-1 I0.8 J0
X-25.56 Y-74.073 Z-1.5 I-0.8 J0
X-23.96 Y-74.073 Z-2 I0.8 J0
X-25.56 Y-74.073 Z-2.5 I-0.8 J0
X-23.96 Y-74.073 Z-3 I0.8 J0
X-25.56 Y-74.073 I-0.8 J0
X-23.96 Y-74.073 I0.8 J0
G1 X-23.968 Y-74.027
X-23.989 Y-73.985
X-24.022 Y-73.952
X-24.064 Y-73.931
X-24.11 Y-73.923
X-24.185
X-24.232 Z-2.993
X-24.273 Z-2.971
X-24.307 Z-2.938
X-24.328 Z-2.896
X-24.335 Z-2.85
Z5
X-23.062 Y-82.927
Z2
Z0.15 F400
X-23.054 Z0.104
X-23.033 Z0.062
X-23 Z0.029
X-22.958 Z0.007
X-22.912 Z0
X-22.837
X-22.79 Y-82.919
X-22.749 Y-82.898
X-22.715 Y-82.865
X-22.694 Y-82.823
X-22.687 Y-82.777
G3 X-23.387 Y-82.777 Z-0.5 I-0.35 J0 F600
X-22.687 Y-82.777 Z-1 I0.35 J0
X-23.387 Y-82.777 Z-1.5 I-0.35 J0
X-22.687 Y-82.777 Z-2 I0.35 J0
X-23.387 Y-82.777 Z-2.5 I-0.35 J0
X-22.687 Y-82.777 Z-3 I0.35 J0
X-23.387 Y-82.777 I-0.35 J0
X-22.687 Y-82.777 I0.35 J0
G1 X-22.694 Y-82.73
X-22.715 Y-82.688
X-22.749 Y-82.655
X-22.79 Y-82.634
X-22.837 Y-82.627
X-22.912
X-22.958 Z-2.993
X-23 Z-2.971
X-23.033 Z-2.938
X-23.054 Z-2.896
X-23.062 Z-2.85
Z15
(When using Fusion 360 for Personal Use, the feedrate of)
(rapid moves is reduced to match the feedrate of cutting)
(moves, which can increase machining time. Unrestricted rapid)
(moves are available with a Fusion 360 Subscription.)

(2D-Kontur6)
G0 X-28.559 Y-69.787
G1 Z15 F600
Z5
Z2.5 F300
X-28.545 Y-69.543 Z2.491 F1016
X-28.498 Y-68.669 Z2.461
X-28.452 Y-67.771 Z2.429
X-28.408 Y-66.848 Z2.397
X-28.366 Y-65.901 Z2.364
X-28.326 Y-64.929 Z2.33
X-28.287 Y-63.93 Z2.295
X-28.251 Y-62.906 Z2.259
X-28.217 Y-61.855 Z2.223
X-28.185 Y-60.777 Z2.185
X-28.155 Y-59.671 Z2.146
X-28.128 Y-58.537 Z2.107
X-28.104 Y-57.375 Z2.066
X-28.082 Y-56.184 Z2.025
X-28.063 Y-54.964 Z1.982
X-28.047 Y-53.715 Z1.938
X-28.034 Y-52.436 Z1.894
X-28.024 Y-51.128 Z1.848
X-28.016 Y-49.789 Z1.801
X-28.012 Y-48.42 Z1.754
X-28.01 Y-47.021 Z1.705
Y-43.329 Z1.576
X-28.02 Y-43.094 Z1.568
X-28.049 Y-42.85 Z1.559
X-28.098 Y-42.579 Z1.549
X-28.168 Y-42.285 Z1.539
X-28.26 Y-41.967 Z1.527
X-28.372 Y-41.627 Z1.515
X-28.504 Y-41.267 Z1.501
X-28.654 Y-40.888 Z1.487
X-28.82 Y-40.491 Z1.472
X-29.001 Y-40.077 Z1.456
X-29.195 Y-39.648 Z1.44
X-29.399 Y-39.205 Z1.423
X-29.613 Y-38.748 Z1.405
X-29.832 Y-38.279 Z1.387
X-29.834 Y-38.276
X-30.281 Y-37.311 Z1.35
X-30.286 Y-37.301 Z1.349
X-30.728 Y-36.305 Z1.311
X-30.736 Y-36.286
X-31.158 Y-35.266 Z1.272
X-31.165 Y-35.247 Z1.271
X-31.362 Y-34.73 Z1.252
X-31.368 Y-34.714
X-31.554 Y-34.193 Z1.232
X-31.56 Y-34.175
X-31.732 Y-33.65 Z1.212
X-31.739 Y-33.631
X-31.896 Y-33.103 Z1.192
X-31.902 Y-33.081 Z1.191
X-32.043 Y-32.551 Z1.172
X-32.049 Y-32.527 Z1.171
X-32.172 Y-31.994 Z1.152
X-32.177 Y-31.969 Z1.151
X-32.281 Y-31.433 Z1.132
X-32.286 Y-31.406 Z1.131
X-32.37 Y-30.868 Z1.112
X-32.374 Y-30.84 Z1.111
X-32.437 Y-30.298 Z1.092
X-32.44 Y-30.269 Z1.091
X-32.483 Y-29.724 Z1.072
X-32.485 Y-29.695 Z1.071
X-32.507 Y-29.145 Z1.052
Y-29.117 Z1.051
X-32.508 Y-28.562 Z1.032
Y-28.534 Z1.031
X-32.488 Y-27.974 Z1.011
X-32.486 Y-27.947 Z1.01
X-32.446 Y-27.381 Z0.99
X-32.444 Y-27.356
X-32.384 Y-26.784 Z0.969
X-32.382 Y-26.76
X-32.303 Y-26.183 Z0.948
X-32.299 Y-26.161 Z0.947
X-32.202 Y-25.577 Z0.927
X-32.198 Y-25.557 Z0.926
X-32.083 Y-24.968 Z0.905
X-32.079 Y-24.949 Z0.904
X-31.947 Y-24.357 Z0.883
X-31.943 Y-24.339
X-31.795 Y-23.743 Z0.861
X-31.791 Y-23.726
X-31.628 Y-23.13 Z0.839
X-31.623 Y-23.113 Z0.838
X-31.445 Y-22.517 Z0.817
X-31.44 Y-22.501 Z0.816
X-31.249 Y-21.907 Z0.794
X-31.244 Y-21.891
X-31.04 Y-21.301 Z0.772
X-31.034 Y-21.286 Z0.771
X-30.818 Y-20.703 Z0.75
X-30.812 Y-20.687 Z0.749
X-30.585 Y-20.113 Z0.727
X-30.579 Y-20.097
X-30.341 Y-19.534 Z0.706
X-30.334 Y-19.518 Z0.705
X-30.087 Y-18.969 Z0.684
X-30.079 Y-18.952 Z0.683
X-29.823 Y-18.42 Z0.663
X-29.814 Y-18.402 Z0.662
X-29.55 Y-17.888 Z0.642
X-29.54 Y-17.869 Z0.641
X-29.269 Y-17.377 Z0.621
X-29.258 Y-17.357
X-28.98 Y-16.889 Z0.602
X-28.967 Y-16.866 Z0.601
X-28.684 Y-16.425 Z0.582
X-28.668 Y-16.4 Z0.581
X-28.381 Y-15.988 Z0.564
X-28.361 Y-15.961 Z0.563
X-28.07 Y-15.579 Z0.546
X-28.046 Y-15.55 Z0.545
X-27.751 Y-15.202 Z0.529
X-27.722 Y-15.169 Z0.527
X-27.425 Y-14.856 Z0.512
X-27.389 Y-14.821 Z0.51
X-27.089 Y-14.546 Z0.496
X-27.057 Y-14.517 Z0.495
X-26.906 Y-14.394 Z0.488
X-26.881 Y-14.375 Z0.487
X-26.731 Y-14.262 Z0.48
X-26.703 Y-14.242 Z0.479
X-26.551 Y-14.139 Z0.472
X-26.52 Y-14.119 Z0.471
X-26.369 Y-14.026 Z0.465
X-26.335 Y-14.006 Z0.464
X-26.183 Y-13.924 Z0.458
X-26.145 Y-13.905 Z0.456
X-25.993 Y-13.834 Z0.45
X-25.952 Y-13.816 Z0.449
X-25.8 Y-13.755 Z0.443
X-25.755 Y-13.739 Z0.441
X-25.603 Y-13.689 Z0.436
X-25.555 Y-13.675 Z0.434
X-25.403 Y-13.636 Z0.428
X-25.352 Y-13.625 Z0.427
X-25.2 Y-13.598 Z0.421
X-25.147 Y-13.59 Z0.419
X-24.994 Y-13.573 Z0.414
X-24.94 Y-13.569 Z0.412
X-24.788 Y-13.564 Z0.407
X-24.733 Z0.405
X-24.58 Y-13.569 Z0.4
X-24.526 Y-13.573 Z0.398
X-24.374 Y-13.59 Z0.392
X-24.321 Y-13.598 Z0.39
X-24.168 Y-13.625 Z0.385
X-24.118 Y-13.636 Z0.383
X-23.965 Y-13.675 Z0.378
X-23.917 Y-13.689 Z0.376
X-23.765 Y-13.739 Z0.37
X-23.72 Y-13.755 Z0.369
X-23.568 Y-13.816 Z0.363
X-23.527 Y-13.834 Z0.361
X-23.375 Y-13.905 Z0.356
X-23.337 Y-13.924 Z0.354
X-23.186 Y-14.006 Z0.348
X-23.151 Y-14.026 Z0.347
X-23 Y-14.119 Z0.34
X-22.969 Y-14.139 Z0.339
X-22.818 Y-14.242 Z0.333
X-22.79 Y-14.261 Z0.332
X-22.639 Y-14.375 Z0.325
X-22.614 Y-14.394 Z0.324
X-22.464 Y-14.517 Z0.317
X-22.431 Y-14.546 Z0.316
X-22.131 Y-14.821 Z0.301
X-22.095 Y-14.856 Z0.3
X-21.798 Y-15.169 Z0.285
X-21.769 Y-15.202 Z0.283
X-21.474 Y-15.55 Z0.267
X-21.451 Y-15.579 Z0.266
X-21.159 Y-15.961 Z0.249
X-21.14 Y-15.988 Z0.248
X-20.852 Y-16.401 Z0.23
X-20.836 Y-16.425 Z0.229
X-20.554 Y-16.866 Z0.211
X-20.54 Y-16.889 Z0.21
X-20.263 Y-17.357 Z0.191
X-20.251 Y-17.377 Z0.19
X-19.98 Y-17.869 Z0.171
X-19.97 Y-17.888 Z0.17
X-19.706 Y-18.402 Z0.15
X-19.698 Y-18.42 Z0.149
X-19.442 Y-18.952 Z0.128
X-19.434 Y-18.969
X-19.187 Y-19.518 Z0.107
X-19.179 Y-19.534 Z0.106
X-18.942 Y-20.097 Z0.085
X-18.935 Y-20.113 Z0.084
X-18.708 Y-20.687 Z0.063
X-18.702 Y-20.703 Z0.062
X-18.486 Y-21.286 Z0.04
X-18.48 Y-21.301
X-18.276 Y-21.891 Z0.018
X-18.271 Y-21.907 Z0.017
X-18.08 Y-22.501 Z-0.004
X-18.075 Y-22.517 Z-0.005
X-17.898 Y-23.113 Z-0.027
X-17.893 Y-23.13
X-17.73 Y-23.726 Z-0.049
X-17.725 Y-23.743 Z-0.05
X-17.577 Y-24.339 Z-0.071
X-17.573 Y-24.357 Z-0.072
X-17.441 Y-24.949 Z-0.093
X-17.437 Y-24.968 Z-0.094
X-17.322 Y-25.557 Z-0.114
X-17.319 Y-25.577 Z-0.115
X-17.221 Y-26.161 Z-0.136
X-17.218 Y-26.183 Z-0.137
X-17.139 Y-26.76 Z-0.157
X-17.136 Y-26.784 Z-0.158
X-17.076 Y-27.356 Z-0.178
X-17.074 Y-27.381 Z-0.179
X-17.034 Y-27.947 Z-0.199
X-17.033 Y-27.974 Z-0.2
X-17.013 Y-28.534 Z-0.219
X-17.012 Y-28.562 Z-0.22
X-17.013 Y-29.117 Z-0.239
X-17.014 Y-29.145 Z-0.24
X-17.036 Y-29.695 Z-0.26
X-17.037 Y-29.724 Z-0.261
X-17.08 Y-30.269 Z-0.28
X-17.083 Y-30.298 Z-0.281
X-17.147 Y-30.84 Z-0.3
Y-30.845
X-17.151 Y-30.868 F600
X-17.235 Y-31.406
X-17.239 Y-31.433
X-17.343 Y-31.968
X-17.349 Y-31.994
X-17.472 Y-32.527
X-17.477 Y-32.551
X-17.618 Y-33.081
X-17.624 Y-33.103
X-17.782 Y-33.631
X-17.788 Y-33.65
X-17.96 Y-34.175
X-17.966 Y-34.193
X-18.152 Y-34.714
X-18.158 Y-34.73
X-18.355 Y-35.247
X-18.363 Y-35.266
X-18.784 Y-36.286
X-18.792 Y-36.305
X-19.235 Y-37.301
X-19.24 Y-37.311
X-19.687 Y-38.276
X-19.688 Y-38.279
X-19.908 Y-38.748
X-20.121 Y-39.205
X-20.326 Y-39.648
X-20.52 Y-40.077
X-20.701 Y-40.491
X-20.867 Y-40.888
X-21.016 Y-41.267
X-21.148 Y-41.627
X-21.26 Y-41.967
X-21.352 Y-42.285
X-21.422 Y-42.579
X-21.472 Y-42.85
X-21.5 Y-43.094
X-21.51 Y-43.329
Y-47.021
X-21.509 Y-48.235
X-21.506 Y-49.425
X-21.5 Y-50.594
X-21.492 Y-51.739
X-21.482 Y-52.863
X-21.47 Y-53.965
X-21.455 Y-55.044
X-21.438 Y-56.102
X-21.42 Y-57.138
X-21.399 Y-58.153
X-21.376 Y-59.146
X-21.351 Y-60.119
X-21.325 Y-61.071
X-21.296 Y-62.003
X-21.266 Y-62.914
X-21.234 Y-63.806
X-21.201 Y-64.678
X-21.166 Y-65.531
X-21.13 Y-66.364
X-21.092 Y-67.18
X-21.053 Y-67.977
X-21.013 Y-68.756
X-20.972 Y-69.518
X-20.929 Y-70.262
X-20.886 Y-70.99
X-20.842 Y-71.701
X-20.798 Y-72.395
X-20.753 Y-73.074
X-20.707 Y-73.737
X-20.661 Y-74.385
X-20.615 Y-75.018
X-20.569 Y-75.637
X-20.523 Y-76.242
X-20.476 Y-76.832
X-20.43 Y-77.41
X-20.385 Y-77.973
X-20.34 Y-78.525
X-20.295 Y-79.063
X-20.251 Y-79.589
X-20.208 Y-80.104
X-20.166 Y-80.606
X-20.125 Y-81.098
X-20.085 Y-81.578
X-20.047 Y-82.047
Y-82.048
X-20.01 Y-82.506
Y-82.508
X-19.975 Y-82.955
Y-82.957
X-19.942 Y-83.394
X-19.941 Y-83.396
X-19.91 Y-83.823
Y-83.827
X-19.853 Y-84.651
Y-84.658
X-19.805 Y-85.445
Y-85.453
X-19.768 Y-86.205
Y-86.215
X-19.742 Y-86.932
Y-86.944
X-19.729 Y-87.628
Y-87.643
X-19.73 Y-88.295
X-19.731 Y-88.313
X-19.746 Y-88.934
X-19.747 Y-88.955
X-19.778 Y-89.526
Y-93.263
G2 X-20.258 Y-94.248 I-1.25 J0
G1 X-23.904 Y-97.096
G2 X-25.659 Y-96.881 I-0.77 J0.985
G1 X-29.182 Y-92.371
X-29.225 Y-92.31
X-29.278 Y-92.226
X-29.315 Y-92.162
X-29.345 Y-92.094
X-29.38 Y-92.001
X-29.407 Y-91.918
X-29.473 Y-91.658
X-29.478 Y-91.635
X-29.538 Y-91.367
X-29.542 Y-91.346
X-29.596 Y-91.069
X-29.599 Y-91.049
X-29.646 Y-90.764
X-29.649 Y-90.746
X-29.69 Y-90.452
X-29.692 Y-90.435
X-29.727 Y-90.133
X-29.729 Y-90.117
X-29.758 Y-89.806
X-29.759 Y-89.791
X-29.782 Y-89.472
X-29.783 Y-89.458
X-29.801 Y-89.13
Y-89.117
X-29.814 Y-88.779
X-29.815 Y-88.768
X-29.822 Y-88.42
Y-88.41
X-29.825 Y-88.053
Y-88.043
X-29.823 Y-87.677
Y-87.668
X-29.817 Y-87.291
Y-87.283
X-29.806 Y-86.896
Y-86.889
X-29.791 Y-86.491
Y-86.485
X-29.772 Y-86.076
Y-86.071
X-29.75 Y-85.651
Y-85.646
X-29.724 Y-85.214
Y-85.21
X-29.695 Y-84.767
Y-84.763
X-29.663 Y-84.308
Y-84.305
X-29.628 Y-83.837
Y-83.834
X-29.591 Y-83.354
Y-83.352
X-29.551 Y-82.858
Y-82.856
X-29.509 Y-82.348
Y-82.347
X-29.465 Y-81.826
X-29.419 Y-81.288
X-29.371 Y-80.737
X-29.323 Y-80.171
X-29.273 Y-79.589
X-29.221 Y-78.991
X-29.169 Y-78.378
X-29.117 Y-77.747
X-29.064 Y-77.098
X-29.01 Y-76.432
X-28.957 Y-75.747
X-28.904 Y-75.044
X-28.85 Y-74.321
X-28.798 Y-73.578
X-28.745 Y-72.814
X-28.694 Y-72.029
X-28.643 Y-71.223
X-28.594 Y-70.394
X-28.545 Y-69.543
