(1001)
G90 G94
G17
G21
(When using Fusion 360 for Personal Use, the feedrate of)
(rapid moves is reduced to match the feedrate of cutting)
(moves, which can increase machining time. Unrestricted rapid)
(moves are available with a Fusion 360 Subscription.)

(Bohrfrasen6)
S6000 M3
G54
G0 X-11.557 Y-13.468
Z15
G1 Z2 F600
Z0.15 F400
X-11.55 Z0.104
X-11.528 Z0.062
X-11.495 Z0.029
X-11.453 Z0.007
X-11.407 Z0
X-11.332
X-11.286 Y-13.461
X-11.244 Y-13.439
X-11.211 Y-13.406
X-11.189 Y-13.364
X-11.182 Y-13.318
G3 X-13.182 Y-13.318 Z-0.5 I-1 J0 F600
X-11.182 Y-13.318 Z-1 I1 J0
X-13.182 Y-13.318 Z-1.5 I-1 J0
X-11.182 Y-13.318 I1 J0
X-13.182 Y-13.318 I-1 J0
G1 X-13.175 Y-13.364
X-13.153 Y-13.406
X-13.12 Y-13.439
X-13.078 Y-13.461
X-13.032 Y-13.468
X-12.957
X-12.911 Z-1.493
X-12.869 Z-1.471
X-12.836 Z-1.438
X-12.814 Z-1.396
X-12.807 Z-1.35
Z5
X-5.193 Y-19.832
Z2
Z0.15 F400
X-5.186 Z0.104
X-5.164 Z0.062
X-5.131 Z0.029
X-5.089 Z0.007
X-5.043 Z0
X-4.968
X-4.922 Y-19.825
X-4.88 Y-19.803
X-4.847 Y-19.77
X-4.825 Y-19.728
X-4.818 Y-19.682
G3 X-6.818 Y-19.682 Z-0.5 I-1 J0 F600
X-4.818 Y-19.682 Z-1 I1 J0
X-6.818 Y-19.682 Z-1.5 I-1 J0
X-4.818 Y-19.682 I1 J0
X-6.818 Y-19.682 I-1 J0
G1 X-6.811 Y-19.728
X-6.789 Y-19.77
X-6.756 Y-19.803
X-6.714 Y-19.825
X-6.668 Y-19.832
X-6.593
X-6.547 Z-1.493
X-6.505 Z-1.471
X-6.472 Z-1.438
X-6.45 Z-1.396
X-6.443 Z-1.35
Z15
(When using Fusion 360 for Personal Use, the feedrate of)
(rapid moves is reduced to match the feedrate of cutting)
(moves, which can increase machining time. Unrestricted rapid)
(moves are available with a Fusion 360 Subscription.)

(Bohrfrasen4)
G0 X-8.575 Y-7.15
G1 Z15 F600
Z2
Z0.15 F400
X-8.568 Z0.104
X-8.546 Z0.062
X-8.513 Z0.029
X-8.471 Z0.007
X-8.425 Z0
X-8.35
X-8.304 Y-7.143
X-8.262 Y-7.121
X-8.229 Y-7.088
X-8.207 Y-7.046
X-8.2 Y-7
G3 X-9.8 Y-7 Z-0.5 I-0.8 J0 F600
X-8.2 Y-7 Z-1 I0.8 J0
X-9.8 Y-7 Z-1.5 I-0.8 J0
X-8.2 Y-7 Z-2 I0.8 J0
X-9.8 Y-7 Z-2.5 I-0.8 J0
X-8.2 Y-7 Z-3 I0.8 J0
X-8.753 Y-6.239 Z-3.2 I-0.8 J0
X-9.247 Y-7.761 I-0.247 J-0.761
X-8.753 Y-6.239 I0.247 J0.761
G1 X-8.799 Y-6.232
X-8.845 Y-6.239
X-8.887 Y-6.26
X-8.92 Y-6.294
X-8.942 Y-6.335
X-8.965 Y-6.407
X-8.979 Y-6.451 Z-3.193
X-8.992 Y-6.491 Z-3.171
X-9.002 Y-6.522 Z-3.138
X-9.009 Y-6.542 Z-3.096
X-9.011 Y-6.549 Z-3.05
Z5
X-12.207 Y-13.468
Z0.5
Z-1.35 F400
X-12.2 Z-1.396
X-12.178 Z-1.438
X-12.145 Z-1.471
X-12.103 Z-1.493
X-12.057 Z-1.5
X-11.982
X-11.936 Y-13.461
X-11.894 Y-13.439
X-11.861 Y-13.406
X-11.839 Y-13.364
X-11.832 Y-13.318
G3 X-12.532 Y-13.318 Z-2 I-0.35 J0 F600
X-11.832 Y-13.318 Z-2.5 I0.35 J0
X-12.532 Y-13.318 Z-3 I-0.35 J0
X-12.29 Y-13.651 Z-3.2 I0.35 J0
X-12.074 Y-12.985 I0.108 J0.333
X-12.29 Y-13.651 I-0.108 J-0.333
G1 X-12.244 Y-13.658
X-12.197 Y-13.651
X-12.156 Y-13.63
X-12.122 Y-13.596
X-12.101 Y-13.555
X-12.078 Y-13.483
X-12.064 Y-13.439 Z-3.193
X-12.051 Y-13.399 Z-3.171
X-12.04 Y-13.368 Z-3.138
X-12.034 Y-13.348 Z-3.096
X-12.032 Y-13.341 Z-3.05
Z5
X-5.243 Y-13.468
Z2
Z0.15 F400
X-5.236 Z0.104
X-5.214 Z0.062
X-5.181 Z0.029
X-5.139 Z0.007
X-5.093 Z0
X-5.018
X-4.972 Y-13.461
X-4.93 Y-13.439
X-4.897 Y-13.406
X-4.875 Y-13.364
X-4.868 Y-13.318
G3 X-6.768 Y-13.318 Z-0.5 I-0.95 J0 F600
X-4.868 Y-13.318 Z-1 I0.95 J0
X-6.768 Y-13.318 Z-1.5 I-0.95 J0
X-4.868 Y-13.318 Z-2 I0.95 J0
X-6.768 Y-13.318 Z-2.5 I-0.95 J0
X-4.868 Y-13.318 Z-3 I0.95 J0
X-5.524 Y-12.415 Z-3.2 I-0.95 J0
X-6.112 Y-14.222 I-0.294 J-0.904
X-5.524 Y-12.415 I0.294 J0.904
G1 X-5.571 Y-12.407
X-5.617 Y-12.415
X-5.659 Y-12.436
X-5.692 Y-12.469
X-5.713 Y-12.511
X-5.737 Y-12.582
X-5.751 Y-12.626 Z-3.193
X-5.764 Y-12.666 Z-3.171
X-5.774 Y-12.698 Z-3.138
X-5.781 Y-12.718 Z-3.096
X-5.783 Y-12.725 Z-3.05
Z5
X-5.843 Y-19.832
Z0.5
Z-1.35 F400
X-5.836 Z-1.396
X-5.814 Z-1.438
X-5.781 Z-1.471
X-5.739 Z-1.493
X-5.693 Z-1.5
X-5.618
X-5.572 Y-19.825
X-5.53 Y-19.803
X-5.497 Y-19.77
X-5.475 Y-19.728
X-5.468 Y-19.682
G3 X-6.168 Y-19.682 Z-2 I-0.35 J0 F600
X-5.468 Y-19.682 Z-2.5 I0.35 J0
X-6.168 Y-19.682 Z-3 I-0.35 J0
X-5.926 Y-20.015 Z-3.2 I0.35 J0
X-5.71 Y-19.349 I0.108 J0.333
X-5.926 Y-20.015 I-0.108 J-0.333
G1 X-5.88 Y-20.022
X-5.833 Y-20.015
X-5.792 Y-19.994
X-5.758 Y-19.96
X-5.737 Y-19.919
X-5.714 Y-19.847
X-5.7 Y-19.803 Z-3.193
X-5.687 Y-19.763 Z-3.171
X-5.676 Y-19.732 Z-3.138
X-5.67 Y-19.712 Z-3.096
X-5.668 Y-19.705 Z-3.05
Z5
X-7.425 Y-16.65
Z2
Z0.15 F400
X-7.418 Z0.104
X-7.396 Z0.062
X-7.363 Z0.029
X-7.321 Z0.007
X-7.275 Z0
X-7.2
X-7.154 Y-16.643
X-7.112 Y-16.621
X-7.079 Y-16.588
X-7.057 Y-16.546
X-7.05 Y-16.5
G3 X-10.95 Y-16.5 Z-0.5 I-1.95 J0 F600
X-7.05 Y-16.5 Z-1 I1.95 J0
X-10.95 Y-16.5 Z-1.5 I-1.95 J0
X-7.05 Y-16.5 Z-2 I1.95 J0
X-10.95 Y-16.5 Z-2.5 I-1.95 J0
X-7.05 Y-16.5 Z-3 I1.95 J0
X-8.397 Y-14.645 Z-3.2 I-1.95 J0
X-9.603 Y-18.355 I-0.603 J-1.855
X-8.397 Y-14.645 I0.603 J1.855
G1 X-8.444 Y-14.638
X-8.49 Y-14.645
X-8.532 Y-14.667
X-8.565 Y-14.7
X-8.586 Y-14.742
X-8.61 Y-14.813
X-8.624 Y-14.857 Z-3.193
X-8.637 Y-14.897 Z-3.171
X-8.647 Y-14.928 Z-3.138
X-8.654 Y-14.949 Z-3.096
X-8.656 Y-14.956 Z-3.05
Z5
X-11.607 Y-19.832
Z2
Z0.15 F400
X-11.6 Z0.104
X-11.578 Z0.062
X-11.545 Z0.029
X-11.503 Z0.007
X-11.457 Z0
X-11.382
X-11.336 Y-19.825
X-11.294 Y-19.803
X-11.261 Y-19.77
X-11.239 Y-19.728
X-11.232 Y-19.682
G3 X-13.132 Y-19.682 Z-0.5 I-0.95 J0 F600
X-11.232 Y-19.682 Z-1 I0.95 J0
X-13.132 Y-19.682 Z-1.5 I-0.95 J0
X-11.232 Y-19.682 Z-2 I0.95 J0
X-13.132 Y-19.682 Z-2.5 I-0.95 J0
X-11.232 Y-19.682 Z-3 I0.95 J0
X-11.888 Y-18.778 Z-3.2 I-0.95 J0
X-12.476 Y-20.585 I-0.294 J-0.904
X-11.888 Y-18.778 I0.294 J0.904
G1 X-11.935 Y-18.771
X-11.981 Y-18.778
X-12.023 Y-18.8
X-12.056 Y-18.833
X-12.077 Y-18.875
X-12.101 Y-18.946
X-12.115 Y-18.99 Z-3.193
X-12.128 Y-19.03 Z-3.171
X-12.138 Y-19.062 Z-3.138
X-12.145 Y-19.082 Z-3.096
X-12.147 Y-19.089 Z-3.05
Z5
X-8.575 Y-26.15
Z2
Z0.15 F400
X-8.568 Z0.104
X-8.546 Z0.062
X-8.513 Z0.029
X-8.471 Z0.007
X-8.425 Z0
X-8.35
X-8.304 Y-26.143
X-8.262 Y-26.121
X-8.229 Y-26.088
X-8.207 Y-26.046
X-8.2 Y-26
G3 X-9.8 Y-26 Z-0.5 I-0.8 J0 F600
X-8.2 Y-26 Z-1 I0.8 J0
X-9.8 Y-26 Z-1.5 I-0.8 J0
X-8.2 Y-26 Z-2 I0.8 J0
X-9.8 Y-26 Z-2.5 I-0.8 J0
X-8.2 Y-26 Z-3 I0.8 J0
X-8.753 Y-25.239 Z-3.2 I-0.8 J0
X-9.247 Y-26.761 I-0.247 J-0.761
X-8.753 Y-25.239 I0.247 J0.761
G1 X-8.799 Y-25.232
X-8.845 Y-25.239
X-8.887 Y-25.26
X-8.92 Y-25.294
X-8.942 Y-25.335
X-8.965 Y-25.407
X-8.979 Y-25.451 Z-3.193
X-8.992 Y-25.491 Z-3.171
X-9.002 Y-25.522 Z-3.138
X-9.009 Y-25.542 Z-3.096
X-9.011 Y-25.549 Z-3.05
Z5
X-8.575 Y-61.91
Z2
Z0.15 F400
X-8.568 Z0.104
X-8.546 Z0.062
X-8.513 Z0.029
X-8.471 Z0.007
X-8.425 Z0
X-8.35
X-8.304 Y-61.903
X-8.262 Y-61.882
X-8.229 Y-61.848
X-8.207 Y-61.807
X-8.2 Y-61.76
G3 X-9.8 Y-61.76 Z-0.5 I-0.8 J0 F600
X-8.2 Y-61.76 Z-1 I0.8 J0
X-9.8 Y-61.76 Z-1.5 I-0.8 J0
X-8.2 Y-61.76 Z-2 I0.8 J0
X-9.8 Y-61.76 Z-2.5 I-0.8 J0
X-8.2 Y-61.76 Z-3 I0.8 J0
X-8.753 Y-60.999 Z-3.2 I-0.8 J0
X-9.247 Y-62.521 I-0.247 J-0.761
X-8.753 Y-60.999 I0.247 J0.761
G1 X-8.799 Y-60.992
X-8.845 Y-60.999
X-8.887 Y-61.021
X-8.92 Y-61.054
X-8.942 Y-61.096
X-8.965 Y-61.167
X-8.979 Y-61.211 Z-3.193
X-8.992 Y-61.251 Z-3.171
X-9.002 Y-61.282 Z-3.138
X-9.009 Y-61.303 Z-3.096
X-9.011 Y-61.31 Z-3.05
Z5
X-7.302 Y-70.613
Z2
Z0.15 F400
X-7.294 Z0.104
X-7.273 Z0.062
X-7.24 Z0.029
X-7.198 Z0.007
X-7.152 Z0
X-7.077
X-7.03 Y-70.606
X-6.988 Y-70.585
X-6.955 Y-70.551
X-6.934 Y-70.51
X-6.927 Y-70.463
G3 X-7.627 Y-70.463 Z-0.5 I-0.35 J0 F600
X-6.927 Y-70.463 Z-1 I0.35 J0
X-7.627 Y-70.463 Z-1.5 I-0.35 J0
X-6.927 Y-70.463 Z-2 I0.35 J0
X-7.627 Y-70.463 Z-2.5 I-0.35 J0
X-6.927 Y-70.463 Z-3 I0.35 J0
X-7.168 Y-70.13 Z-3.2 I-0.35 J0
X-7.385 Y-70.796 I-0.108 J-0.333
X-7.168 Y-70.13 I0.108 J0.333
G1 X-7.215 Y-70.123
X-7.261 Y-70.13
X-7.303 Y-70.152
X-7.336 Y-70.185
X-7.357 Y-70.227
X-7.381 Y-70.298
X-7.395 Y-70.342 Z-3.193
X-7.408 Y-70.382 Z-3.171
X-7.418 Y-70.413 Z-3.138
X-7.425 Y-70.434 Z-3.096
X-7.427 Y-70.441 Z-3.05
Z15
(When using Fusion 360 for Personal Use, the feedrate of)
(rapid moves is reduced to match the feedrate of cutting)
(moves, which can increase machining time. Unrestricted rapid)
(moves are available with a Fusion 360 Subscription.)

(2D-Kontur6)
G0 X-12.799 Y-57.474
G1 Z15 F600
Z4.8
Z2.3 F300
X-12.785 Y-57.23 Z2.291 F1016
X-12.738 Y-56.356 Z2.261
X-12.692 Y-55.457 Z2.229
X-12.648 Y-54.535 Z2.197
X-12.606 Y-53.588 Z2.164
X-12.565 Y-52.615 Z2.13
X-12.527 Y-51.617 Z2.095
X-12.49 Y-50.593 Z2.059
X-12.456 Y-49.542 Z2.023
X-12.425 Y-48.464 Z1.985
X-12.395 Y-47.358 Z1.946
X-12.368 Y-46.224 Z1.907
X-12.344 Y-45.062 Z1.866
X-12.322 Y-43.871 Z1.825
X-12.303 Y-42.651 Z1.782
X-12.287 Y-41.402 Z1.738
X-12.274 Y-40.123 Z1.694
X-12.263 Y-38.814 Z1.648
X-12.256 Y-37.476 Z1.601
X-12.251 Y-36.107 Z1.554
X-12.25 Y-34.708 Z1.505
Y-31.016 Z1.376
X-12.26 Y-30.781 Z1.368
X-12.288 Y-30.536 Z1.359
X-12.338 Y-30.266 Z1.349
X-12.408 Y-29.972 Z1.339
X-12.5 Y-29.654 Z1.327
X-12.612 Y-29.314 Z1.315
X-12.744 Y-28.954 Z1.301
X-12.893 Y-28.575 Z1.287
X-13.06 Y-28.178 Z1.272
X-13.241 Y-27.764 Z1.256
X-13.435 Y-27.335 Z1.24
X-13.639 Y-26.891 Z1.223
X-13.852 Y-26.434 Z1.205
X-14.072 Y-25.966 Z1.187
X-14.073 Y-25.963
X-14.52 Y-24.998 Z1.15
X-14.525 Y-24.987 Z1.149
X-14.968 Y-23.992 Z1.111
X-14.976 Y-23.973
X-15.397 Y-22.953 Z1.072
X-15.405 Y-22.934 Z1.071
X-15.602 Y-22.417 Z1.052
X-15.608 Y-22.401
X-15.794 Y-21.88 Z1.032
X-15.8 Y-21.862
X-15.972 Y-21.337 Z1.012
X-15.978 Y-21.317
X-16.136 Y-20.79 Z0.992
X-16.142 Y-20.768 Z0.991
X-16.283 Y-20.238 Z0.972
X-16.289 Y-20.214 Z0.971
X-16.412 Y-19.681 Z0.952
X-16.417 Y-19.655 Z0.951
X-16.521 Y-19.12 Z0.932
X-16.526 Y-19.093 Z0.931
X-16.61 Y-18.555 Z0.912
X-16.613 Y-18.526 Z0.911
X-16.677 Y-17.985 Z0.892
X-16.68 Y-17.956 Z0.891
X-16.723 Y-17.411 Z0.872
X-16.724 Y-17.382 Z0.871
X-16.746 Y-16.832 Z0.852
X-16.747 Y-16.804 Z0.851
X-16.748 Y-16.249 Z0.832
X-16.747 Y-16.221 Z0.831
X-16.728 Y-15.661 Z0.811
X-16.726 Y-15.634 Z0.81
X-16.686 Y-15.068 Z0.79
X-16.684 Y-15.043
X-16.624 Y-14.471 Z0.769
X-16.621 Y-14.447
X-16.542 Y-13.869 Z0.748
X-16.539 Y-13.847 Z0.747
X-16.442 Y-13.264 Z0.727
X-16.438 Y-13.244 Z0.726
X-16.323 Y-12.655 Z0.705
X-16.319 Y-12.636 Z0.704
X-16.187 Y-12.044 Z0.683
X-16.183 Y-12.026
X-16.035 Y-11.43 Z0.661
X-16.031 Y-11.413
X-15.867 Y-10.816 Z0.639
X-15.863 Y-10.8 Z0.638
X-15.685 Y-10.204 Z0.617
X-15.68 Y-10.188 Z0.616
X-15.489 Y-9.593 Z0.594
X-15.484 Y-9.578
X-15.28 Y-8.988 Z0.572
X-15.274 Y-8.973 Z0.571
X-15.058 Y-8.389 Z0.55
X-15.052 Y-8.374 Z0.549
X-14.825 Y-7.8 Z0.527
X-14.818 Y-7.784
X-14.581 Y-7.221 Z0.506
X-14.574 Y-7.205 Z0.505
X-14.326 Y-6.656 Z0.484
X-14.319 Y-6.639 Z0.483
X-14.063 Y-6.106 Z0.463
X-14.054 Y-6.089 Z0.462
X-13.79 Y-5.575 Z0.442
X-13.78 Y-5.556 Z0.441
X-13.509 Y-5.064 Z0.421
X-13.497 Y-5.044
X-13.22 Y-4.575 Z0.402
X-13.207 Y-4.553 Z0.401
X-12.924 Y-4.112 Z0.382
X-12.908 Y-4.087 Z0.381
X-12.62 Y-3.674 Z0.364
X-12.601 Y-3.648 Z0.363
X-12.31 Y-3.266 Z0.346
X-12.286 Y-3.237 Z0.345
X-11.991 Y-2.888 Z0.329
X-11.962 Y-2.856 Z0.327
X-11.665 Y-2.543 Z0.312
X-11.629 Y-2.508 Z0.31
X-11.329 Y-2.232 Z0.296
X-11.297 Y-2.204 Z0.295
X-11.146 Y-2.081 Z0.288
X-11.121 Y-2.061 Z0.287
X-10.97 Y-1.948 Z0.28
X-10.942 Y-1.928 Z0.279
X-10.791 Y-1.825 Z0.272
X-10.76 Y-1.805 Z0.271
X-10.609 Y-1.713 Z0.265
X-10.575 Y-1.693 Z0.264
X-10.423 Y-1.611 Z0.258
X-10.385 Y-1.592 Z0.256
X-10.233 Y-1.52 Z0.25
X-10.192 Y-1.503 Z0.249
X-10.04 Y-1.442 Z0.243
X-9.995 Y-1.426 Z0.241
X-9.843 Y-1.376 Z0.236
X-9.795 Y-1.362 Z0.234
X-9.643 Y-1.323 Z0.228
X-9.592 Y-1.312 Z0.227
X-9.439 Y-1.284 Z0.221
X-9.387 Y-1.277 Z0.219
X-9.234 Y-1.26 Z0.214
X-9.18 Y-1.256 Z0.212
X-9.027 Y-1.25 Z0.207
X-8.973 Z0.205
X-8.82 Y-1.256 Z0.2
X-8.766 Y-1.26 Z0.198
X-8.613 Y-1.277 Z0.192
X-8.561 Y-1.284 Z0.19
X-8.408 Y-1.312 Z0.185
X-8.357 Y-1.323 Z0.183
X-8.205 Y-1.362 Z0.178
X-8.157 Y-1.376 Z0.176
X-8.005 Y-1.426 Z0.17
X-7.96 Y-1.442 Z0.169
X-7.808 Y-1.503 Z0.163
X-7.767 Y-1.521 Z0.161
X-7.615 Y-1.592 Z0.156
X-7.577 Y-1.611 Z0.154
X-7.425 Y-1.693 Z0.148
X-7.391 Y-1.713 Z0.147
X-7.24 Y-1.805 Z0.14
X-7.209 Y-1.825 Z0.139
X-7.058 Y-1.928 Z0.133
X-7.03 Y-1.948 Z0.132
X-6.879 Y-2.061 Z0.125
X-6.854 Y-2.081 Z0.124
X-6.703 Y-2.204 Z0.117
X-6.671 Y-2.232 Z0.116
X-6.371 Y-2.508 Z0.101
X-6.335 Y-2.543 Z0.1
X-6.038 Y-2.856 Z0.085
X-6.009 Y-2.888 Z0.083
X-5.714 Y-3.237 Z0.067
X-5.69 Y-3.266 Z0.066
X-5.399 Y-3.648 Z0.049
X-5.38 Y-3.674 Z0.048
X-5.092 Y-4.087 Z0.03
X-5.076 Y-4.112 Z0.029
X-4.793 Y-4.553 Z0.011
X-4.78 Y-4.575 Z0.01
X-4.503 Y-5.044 Z-0.009
X-4.491 Y-5.064 Z-0.01
X-4.22 Y-5.556 Z-0.029
X-4.21 Y-5.575 Z-0.03
X-3.946 Y-6.089 Z-0.05
X-3.937 Y-6.106 Z-0.051
X-3.681 Y-6.639 Z-0.072
X-3.674 Y-6.656
X-3.426 Y-7.205 Z-0.093
X-3.419 Y-7.221 Z-0.094
X-3.182 Y-7.784 Z-0.115
X-3.175 Y-7.8 Z-0.116
X-2.948 Y-8.374 Z-0.137
X-2.942 Y-8.389 Z-0.138
X-2.726 Y-8.973 Z-0.16
X-2.72 Y-8.988
X-2.516 Y-9.578 Z-0.182
X-2.511 Y-9.593 Z-0.183
X-2.32 Y-10.188 Z-0.204
X-2.315 Y-10.204 Z-0.205
X-2.137 Y-10.8 Z-0.227
X-2.133 Y-10.816
X-1.969 Y-11.413 Z-0.249
X-1.965 Y-11.43 Z-0.25
X-1.817 Y-12.026 Z-0.271
X-1.813 Y-12.044 Z-0.272
X-1.681 Y-12.636 Z-0.293
X-1.677 Y-12.655 Z-0.294
X-1.562 Y-13.243 Z-0.314
X-1.558 Y-13.264 Z-0.315
X-1.461 Y-13.847 Z-0.336
X-1.458 Y-13.869 Z-0.337
X-1.379 Y-14.447 Z-0.357
X-1.376 Y-14.471 Z-0.358
X-1.316 Y-15.043 Z-0.378
X-1.314 Y-15.068 Z-0.379
X-1.274 Y-15.634 Z-0.399
X-1.272 Y-15.661 Z-0.4
X-1.253 Y-16.221 Z-0.419
X-1.252 Y-16.249 Z-0.42
X-1.253 Y-16.804 Z-0.439
X-1.254 Y-16.832 Z-0.44
X-1.276 Y-17.382 Z-0.46
X-1.277 Y-17.411 Z-0.461
X-1.32 Y-17.956 Z-0.48
X-1.323 Y-17.985 Z-0.481
X-1.387 Y-18.526 Z-0.5
Y-18.531
X-1.39 Y-18.555 F600
X-1.474 Y-19.093
X-1.479 Y-19.12
X-1.583 Y-19.655
X-1.588 Y-19.681
X-1.711 Y-20.214
X-1.717 Y-20.238
X-1.858 Y-20.768
X-1.864 Y-20.79
X-2.022 Y-21.317
X-2.028 Y-21.337
X-2.2 Y-21.862
X-2.206 Y-21.88
X-2.392 Y-22.401
X-2.398 Y-22.417
X-2.595 Y-22.934
X-2.603 Y-22.953
X-3.024 Y-23.973
X-3.032 Y-23.992
X-3.475 Y-24.987
X-3.48 Y-24.998
X-3.927 Y-25.963
X-3.928 Y-25.966
X-4.148 Y-26.434
X-4.361 Y-26.891
X-4.565 Y-27.335
X-4.759 Y-27.764
X-4.94 Y-28.178
X-5.107 Y-28.575
X-5.256 Y-28.954
X-5.388 Y-29.314
X-5.5 Y-29.654
X-5.592 Y-29.972
X-5.662 Y-30.266
X-5.712 Y-30.536
X-5.74 Y-30.781
X-5.75 Y-31.016
Y-34.708
X-5.749 Y-35.921
X-5.745 Y-37.112
X-5.74 Y-38.28
X-5.732 Y-39.426
X-5.722 Y-40.55
X-5.709 Y-41.651
X-5.695 Y-42.731
X-5.678 Y-43.789
X-5.659 Y-44.825
X-5.639 Y-45.84
X-5.616 Y-46.833
X-5.591 Y-47.806
X-5.564 Y-48.758
X-5.536 Y-49.689
X-5.506 Y-50.601
X-5.474 Y-51.492
X-5.441 Y-52.364
X-5.406 Y-53.217
X-5.369 Y-54.051
X-5.332 Y-54.867
X-5.293 Y-55.664
X-5.253 Y-56.443
X-5.211 Y-57.205
X-5.169 Y-57.949
X-5.126 Y-58.676
X-5.082 Y-59.387
X-5.038 Y-60.082
X-4.993 Y-60.761
X-4.947 Y-61.424
X-4.901 Y-62.072
X-4.855 Y-62.705
X-4.809 Y-63.324
X-4.762 Y-63.928
X-4.716 Y-64.519
X-4.67 Y-65.096
X-4.625 Y-65.66
X-4.579 Y-66.211
X-4.535 Y-66.75
X-4.491 Y-67.276
X-4.448 Y-67.791
X-4.406 Y-68.293
X-4.365 Y-68.785
X-4.325 Y-69.265
X-4.287 Y-69.734
Y-69.735
X-4.25 Y-70.193
Y-70.194
X-4.215 Y-70.642
Y-70.643
X-4.181 Y-71.081
Y-71.083
X-4.15 Y-71.51
X-4.149 Y-71.513
X-4.093 Y-72.338
X-4.092 Y-72.345
X-4.045 Y-73.132
Y-73.14
X-4.008 Y-73.891
Y-73.902
X-3.982 Y-74.618
Y-74.631
X-3.969 Y-75.315
Y-75.33
X-3.97 Y-75.982
Y-76
X-3.986 Y-76.621
X-3.987 Y-76.642
X-4.017 Y-77.213
Y-80.949
G2 X-4.498 Y-81.934 I-1.25 J0
G1 X-8.144 Y-84.783
G2 X-9.899 Y-84.568 I-0.77 J0.985
G1 X-13.422 Y-80.058
X-13.465 Y-79.997
X-13.518 Y-79.913
X-13.555 Y-79.848
X-13.585 Y-79.781
X-13.62 Y-79.688
X-13.646 Y-79.605
X-13.713 Y-79.345
X-13.718 Y-79.322
X-13.778 Y-79.054
X-13.782 Y-79.033
X-13.836 Y-78.756
X-13.839 Y-78.736
X-13.886 Y-78.451
X-13.889 Y-78.433
X-13.93 Y-78.139
X-13.932 Y-78.122
X-13.967 Y-77.82
X-13.968 Y-77.804
X-13.997 Y-77.493
X-13.999 Y-77.478
X-14.022 Y-77.159
X-14.023 Y-77.145
X-14.041 Y-76.816
Y-76.804
X-14.054 Y-76.466
Y-76.454
X-14.062 Y-76.107
Y-76.096
X-14.065 Y-75.74
Y-75.73
X-14.063 Y-75.364
Y-75.354
X-14.057 Y-74.978
X-14.056 Y-74.97
X-14.046 Y-74.583
Y-74.576
X-14.031 Y-74.178
Y-74.172
X-14.012 Y-73.763
Y-73.757
X-13.99 Y-73.338
Y-73.333
X-13.964 Y-72.901
Y-72.897
X-13.935 Y-72.454
Y-72.45
X-13.903 Y-71.995
Y-71.992
X-13.868 Y-71.524
Y-71.521
X-13.83 Y-71.04
Y-71.038
X-13.791 Y-70.544
X-13.79 Y-70.543
X-13.749 Y-70.035
X-13.748 Y-70.034
X-13.705 Y-69.512
X-13.659 Y-68.975
X-13.611 Y-68.424
X-13.562 Y-67.858
X-13.512 Y-67.276
X-13.461 Y-66.678
X-13.409 Y-66.064
X-13.357 Y-65.433
X-13.304 Y-64.785
X-13.25 Y-64.119
X-13.197 Y-63.434
X-13.143 Y-62.731
X-13.09 Y-62.008
X-13.037 Y-61.264
X-12.985 Y-60.501
X-12.934 Y-59.716
X-12.883 Y-58.91
X-12.833 Y-58.081
X-12.785 Y-57.23
X-12.738 Y-56.356
X-12.692 Y-55.457
X-12.648 Y-54.535
X-12.606 Y-53.588
X-12.565 Y-52.615
X-12.527 Y-51.617
X-12.49 Y-50.593
X-12.456 Y-49.542
X-12.425 Y-48.464
X-12.395 Y-47.358
X-12.368 Y-46.224
X-12.344 Y-45.062
X-12.322 Y-43.871
X-12.303 Y-42.651
X-12.287 Y-41.402
X-12.274 Y-40.123
X-12.263 Y-38.814
X-12.256 Y-37.476
X-12.251 Y-36.107
X-12.25 Y-34.708
Y-31.016
X-12.26 Y-30.781
X-12.288 Y-30.536
X-12.338 Y-30.266
X-12.408 Y-29.972
X-12.5 Y-29.654
X-12.612 Y-29.314
X-12.744 Y-28.954
X-12.893 Y-28.575
X-13.06 Y-28.178
X-13.241 Y-27.764
X-13.435 Y-27.335
X-13.639 Y-26.891
X-13.852 Y-26.434
X-14.072 Y-25.966
X-14.073 Y-25.963
X-14.52 Y-24.998
X-14.525 Y-24.987
X-14.968 Y-23.992
X-14.976 Y-23.973
X-15.397 Y-22.953
X-15.405 Y-22.934
X-15.602 Y-22.417
X-15.608 Y-22.401
X-15.794 Y-21.88
X-15.8 Y-21.862
X-15.972 Y-21.337
X-15.978 Y-21.317
X-16.136 Y-20.79
X-16.142 Y-20.768
X-16.283 Y-20.238
X-16.289 Y-20.214
X-16.412 Y-19.681
X-16.417 Y-19.655
X-16.521 Y-19.12
X-16.526 Y-19.093
X-16.61 Y-18.555
X-16.613 Y-18.526
X-16.677 Y-17.985
X-16.68 Y-17.956
X-16.723 Y-17.411
X-16.724 Y-17.382
X-16.746 Y-16.832
X-16.747 Y-16.804
X-16.748 Y-16.249
X-16.747 Y-16.221
X-16.728 Y-15.661
X-16.726 Y-15.634
X-16.686 Y-15.068
X-16.684 Y-15.043
X-16.624 Y-14.471
X-16.621 Y-14.447
X-16.542 Y-13.869
X-16.539 Y-13.847
X-16.442 Y-13.264
X-16.438 Y-13.244
X-16.323 Y-12.655
X-16.319 Y-12.636
X-16.187 Y-12.044
X-16.183 Y-12.026
X-16.035 Y-11.43
X-16.031 Y-11.413
X-15.867 Y-10.816
X-15.863 Y-10.8
X-15.685 Y-10.204
X-15.68 Y-10.188
X-15.489 Y-9.593
X-15.484 Y-9.578
X-15.28 Y-8.988
X-15.274 Y-8.973
X-15.058 Y-8.389
X-15.052 Y-8.374
X-14.825 Y-7.8
X-14.818 Y-7.784
X-14.581 Y-7.221
X-14.574 Y-7.205
X-14.326 Y-6.656
X-14.319 Y-6.639
X-14.063 Y-6.106
X-14.054 Y-6.089
X-13.79 Y-5.575
X-13.78 Y-5.556
X-13.509 Y-5.064
X-13.497 Y-5.044
X-13.22 Y-4.575
X-13.207 Y-4.553
X-12.924 Y-4.112
X-12.908 Y-4.087
X-12.62 Y-3.674
X-12.601 Y-3.648
X-12.31 Y-3.266
X-12.286 Y-3.237
X-11.991 Y-2.888
X-11.962 Y-2.856
X-11.665 Y-2.543
X-11.629 Y-2.508
X-11.329 Y-2.232
X-11.297 Y-2.204
X-11.146 Y-2.081
X-11.121 Y-2.061
X-10.97 Y-1.948
X-10.942 Y-1.928
X-10.791 Y-1.825
X-10.76 Y-1.805
X-10.609 Y-1.713
X-10.575 Y-1.693
X-10.423 Y-1.611
X-10.385 Y-1.592
X-10.233 Y-1.52
X-10.192 Y-1.503
X-10.04 Y-1.442
X-9.995 Y-1.426
X-9.843 Y-1.376
X-9.795 Y-1.362
X-9.643 Y-1.323
X-9.592 Y-1.312
X-9.439 Y-1.284
X-9.387 Y-1.277
X-9.234 Y-1.26
X-9.18 Y-1.256
X-9.027 Y-1.25
X-8.973
X-8.82 Y-1.256
X-8.766 Y-1.26
X-8.613 Y-1.277
X-8.561 Y-1.284
X-8.408 Y-1.312
X-8.357 Y-1.323
X-8.205 Y-1.362
X-8.157 Y-1.376
X-8.005 Y-1.426
X-7.96 Y-1.442
X-7.808 Y-1.503
X-7.767 Y-1.521
X-7.615 Y-1.592
X-7.577 Y-1.611
X-7.425 Y-1.693
X-7.391 Y-1.713
X-7.24 Y-1.805
X-7.209 Y-1.825
X-7.058 Y-1.928
X-7.03 Y-1.948
X-6.879 Y-2.061
X-6.854 Y-2.081
X-6.703 Y-2.204
X-6.671 Y-2.232
X-6.371 Y-2.508
X-6.335 Y-2.543
X-6.038 Y-2.856
X-6.009 Y-2.888
X-5.714 Y-3.237
X-5.69 Y-3.266
X-5.399 Y-3.648
X-5.38 Y-3.674
X-5.092 Y-4.087
X-5.076 Y-4.112
X-4.793 Y-4.553
X-4.78 Y-4.575
X-4.503 Y-5.044
X-4.491 Y-5.064
X-4.22 Y-5.556
X-4.21 Y-5.575
X-3.946 Y-6.089
X-3.937 Y-6.106
X-3.681 Y-6.639
X-3.674 Y-6.656
X-3.426 Y-7.205
X-3.419 Y-7.221
X-3.182 Y-7.784
X-3.175 Y-7.8
X-2.948 Y-8.374
X-2.942 Y-8.389
X-2.726 Y-8.973
X-2.72 Y-8.988
X-2.516 Y-9.578
X-2.511 Y-9.593
X-2.32 Y-10.188
X-2.315 Y-10.204
X-2.137 Y-10.8
X-2.133 Y-10.816
X-1.969 Y-11.413
X-1.965 Y-11.43
X-1.817 Y-12.026
X-1.813 Y-12.044
X-1.681 Y-12.636
X-1.677 Y-12.655
X-1.562 Y-13.243
X-1.558 Y-13.264
X-1.461 Y-13.847
X-1.458 Y-13.869
X-1.379 Y-14.447
X-1.376 Y-14.471
X-1.316 Y-15.043
X-1.314 Y-15.068
X-1.274 Y-15.634
X-1.272 Y-15.661
X-1.253 Y-16.221
X-1.252 Y-16.249
X-1.253 Y-16.804
X-1.254 Y-16.832
X-1.276 Y-17.382
X-1.277 Y-17.411
X-1.32 Y-17.956
X-1.323 Y-17.985
X-1.387 Y-18.526
Y-18.531
X-1.39 Y-18.555 Z-0.501 F1016
X-1.474 Y-19.093 Z-0.52
X-1.479 Y-19.12 Z-0.521
X-1.583 Y-19.655 Z-0.54
X-1.588 Y-19.681 Z-0.541
X-1.711 Y-20.214 Z-0.56
X-1.717 Y-20.238 Z-0.561
X-1.858 Y-20.768 Z-0.58
X-1.864 Y-20.79 Z-0.581
X-2.022 Y-21.317 Z-0.6
X-2.028 Y-21.337 Z-0.601
X-2.2 Y-21.862 Z-0.62
X-2.206 Y-21.88 Z-0.621
X-2.392 Y-22.401 Z-0.64
X-2.398 Y-22.417
X-2.595 Y-22.934 Z-0.66
X-2.603 Y-22.953 Z-0.661
X-3.024 Y-23.973 Z-0.699
X-3.032 Y-23.992 Z-0.7
X-3.475 Y-24.987 Z-0.738
X-3.48 Y-24.998
X-3.927 Y-25.963 Z-0.775
X-3.928 Y-25.966
X-4.148 Y-26.434 Z-0.794
X-4.226 Y-26.602 Z-0.8
X-4.361 Y-26.891 F600
X-4.565 Y-27.335
X-4.759 Y-27.764
X-4.94 Y-28.178
X-5.107 Y-28.575
X-5.256 Y-28.954
X-5.388 Y-29.314
X-5.5 Y-29.654
X-5.592 Y-29.972
X-5.662 Y-30.266
X-5.712 Y-30.536
X-5.74 Y-30.781
X-5.75 Y-31.016
Y-34.708
X-5.749 Y-35.921
X-5.745 Y-37.112
X-5.74 Y-38.28
X-5.732 Y-39.426
X-5.722 Y-40.55
X-5.709 Y-41.651
X-5.695 Y-42.731
X-5.678 Y-43.789
X-5.659 Y-44.825
X-5.639 Y-45.84
X-5.616 Y-46.833
X-5.591 Y-47.806
X-5.564 Y-48.758
X-5.536 Y-49.689
X-5.506 Y-50.601
X-5.474 Y-51.492
X-5.441 Y-52.364
X-5.406 Y-53.217
X-5.369 Y-54.051
X-5.332 Y-54.867
X-5.293 Y-55.664
X-5.253 Y-56.443
X-5.211 Y-57.205
X-5.169 Y-57.949
X-5.126 Y-58.676
X-5.082 Y-59.387
X-5.038 Y-60.082
X-4.993 Y-60.761
X-4.947 Y-61.424
X-4.901 Y-62.072
X-4.855 Y-62.705
X-4.809 Y-63.324
X-4.762 Y-63.928
X-4.716 Y-64.519
X-4.67 Y-65.096
X-4.625 Y-65.66
X-4.579 Y-66.211
X-4.535 Y-66.75
X-4.491 Y-67.276
X-4.448 Y-67.791
X-4.406 Y-68.293
X-4.365 Y-68.785
X-4.325 Y-69.265
X-4.287 Y-69.734
Y-69.735
X-4.25 Y-70.193
Y-70.194
X-4.215 Y-70.642
Y-70.643
X-4.181 Y-71.081
Y-71.083
X-4.15 Y-71.51
X-4.149 Y-71.513
X-4.093 Y-72.338
X-4.092 Y-72.345
X-4.045 Y-73.132
Y-73.14
X-4.008 Y-73.891
Y-73.902
X-3.982 Y-74.618
Y-74.631
X-3.969 Y-75.315
Y-75.33
X-3.97 Y-75.982
Y-76
X-3.986 Y-76.621
X-3.987 Y-76.642
X-4.017 Y-77.213
Y-80.949
G2 X-4.498 Y-81.934 I-1.25 J0
G1 X-8.144 Y-84.783
G2 X-9.899 Y-84.568 I-0.77 J0.985
G1 X-13.422 Y-80.058
X-13.465 Y-79.997
X-13.518 Y-79.913
X-13.555 Y-79.848
X-13.585 Y-79.781
X-13.62 Y-79.688
X-13.646 Y-79.605
X-13.713 Y-79.345
X-13.718 Y-79.322
X-13.778 Y-79.054
X-13.782 Y-79.033
X-13.836 Y-78.756
X-13.839 Y-78.736
X-13.886 Y-78.451
X-13.889 Y-78.433
X-13.93 Y-78.139
X-13.932 Y-78.122
X-13.967 Y-77.82
X-13.968 Y-77.804
X-13.997 Y-77.493
X-13.999 Y-77.478
X-14.022 Y-77.159
X-14.023 Y-77.145
X-14.041 Y-76.816
Y-76.804
X-14.054 Y-76.466
Y-76.454
X-14.062 Y-76.107
Y-76.096
X-14.065 Y-75.74
Y-75.73
X-14.063 Y-75.364
Y-75.354
X-14.057 Y-74.978
X-14.056 Y-74.97
X-14.046 Y-74.583
Y-74.576
X-14.031 Y-74.178
Y-74.172
X-14.012 Y-73.763
Y-73.757
X-13.99 Y-73.338
Y-73.333
X-13.964 Y-72.901
Y-72.897
X-13.935 Y-72.454
Y-72.45
X-13.903 Y-71.995
Y-71.992
X-13.868 Y-71.524
Y-71.521
X-13.83 Y-71.04
Y-71.038
X-13.791 Y-70.544
X-13.79 Y-70.543
X-13.749 Y-70.035
X-13.748 Y-70.034
X-13.705 Y-69.512
X-13.659 Y-68.975
X-13.611 Y-68.424
X-13.562 Y-67.858
X-13.512 Y-67.276
X-13.461 Y-66.678
X-13.409 Y-66.064
X-13.357 Y-65.433
X-13.304 Y-64.785
X-13.25 Y-64.119
X-13.197 Y-63.434
X-13.143 Y-62.731
X-13.09 Y-62.008
X-13.037 Y-61.264
X-12.985 Y-60.501
X-12.934 Y-59.716
X-12.883 Y-58.91
X-12.833 Y-58.081
X-12.785 Y-57.23
X-12.738 Y-56.356
X-12.692 Y-55.457
X-12.648 Y-54.535
X-12.606 Y-53.588
X-12.565 Y-52.615
X-12.527 Y-51.617
X-12.49 Y-50.593
X-12.456 Y-49.542
X-12.425 Y-48.464
X-12.395 Y-47.358
X-12.368 Y-46.224
X-12.344 Y-45.062
X-12.322 Y-43.871
X-12.303 Y-42.651
X-12.287 Y-41.402
X-12.274 Y-40.123
X-12.263 Y-38.814
X-12.256 Y-37.476
X-12.251 Y-36.107
X-12.25 Y-34.708
Y-31.016
X-12.26 Y-30.781
X-12.288 Y-30.536
X-12.338 Y-30.266
X-12.408 Y-29.972
X-12.5 Y-29.654
X-12.612 Y-29.314
X-12.744 Y-28.954
X-12.893 Y-28.575
X-13.06 Y-28.178
X-13.241 Y-27.764
X-13.435 Y-27.335
X-13.639 Y-26.891
X-13.852 Y-26.434
X-14.072 Y-25.966
X-14.073 Y-25.963
X-14.52 Y-24.998
X-14.525 Y-24.987
X-14.968 Y-23.992
X-14.976 Y-23.973
X-15.397 Y-22.953
X-15.405 Y-22.934
X-15.602 Y-22.417
X-15.608 Y-22.401
X-15.794 Y-21.88
X-15.8 Y-21.862
X-15.972 Y-21.337
X-15.978 Y-21.317
X-16.136 Y-20.79
X-16.142 Y-20.768
X-16.283 Y-20.238
X-16.289 Y-20.214
X-16.412 Y-19.681
X-16.417 Y-19.655
X-16.521 Y-19.12
X-16.526 Y-19.093
X-16.61 Y-18.555
X-16.613 Y-18.526
X-16.677 Y-17.985
X-16.68 Y-17.956
X-16.723 Y-17.411
X-16.724 Y-17.382
X-16.746 Y-16.832
X-16.747 Y-16.804
X-16.748 Y-16.249
X-16.747 Y-16.221
X-16.728 Y-15.661
X-16.726 Y-15.634
X-16.686 Y-15.068
X-16.684 Y-15.043
X-16.624 Y-14.471
X-16.621 Y-14.447
X-16.542 Y-13.869
X-16.539 Y-13.847
X-16.442 Y-13.264
X-16.438 Y-13.244
X-16.323 Y-12.655
X-16.319 Y-12.636
X-16.187 Y-12.044
X-16.183 Y-12.026
X-16.035 Y-11.43
X-16.031 Y-11.413
X-15.867 Y-10.816
X-15.863 Y-10.8
X-15.685 Y-10.204
X-15.68 Y-10.188
X-15.489 Y-9.593
X-15.484 Y-9.578
X-15.28 Y-8.988
X-15.274 Y-8.973
X-15.058 Y-8.389
X-15.052 Y-8.374
X-14.825 Y-7.8
X-14.818 Y-7.784
X-14.581 Y-7.221
X-14.574 Y-7.205
X-14.326 Y-6.656
X-14.319 Y-6.639
X-14.063 Y-6.106
X-14.054 Y-6.089
X-13.79 Y-5.575
X-13.78 Y-5.556
X-13.509 Y-5.064
X-13.497 Y-5.044
X-13.22 Y-4.575
X-13.207 Y-4.553
X-12.924 Y-4.112
X-12.908 Y-4.087
X-12.62 Y-3.674
X-12.601 Y-3.648
X-12.31 Y-3.266
X-12.286 Y-3.237
X-11.991 Y-2.888
X-11.962 Y-2.856
X-11.665 Y-2.543
X-11.629 Y-2.508
X-11.329 Y-2.232
X-11.297 Y-2.204
X-11.146 Y-2.081
X-11.121 Y-2.061
X-10.97 Y-1.948
X-10.942 Y-1.928
X-10.791 Y-1.825
X-10.76 Y-1.805
X-10.609 Y-1.713
X-10.575 Y-1.693
X-10.423 Y-1.611
X-10.385 Y-1.592
X-10.233 Y-1.52
X-10.192 Y-1.503
X-10.04 Y-1.442
X-9.995 Y-1.426
X-9.843 Y-1.376
X-9.795 Y-1.362
X-9.643 Y-1.323
X-9.592 Y-1.312
X-9.439 Y-1.284
X-9.387 Y-1.277
X-9.234 Y-1.26
X-9.18 Y-1.256
X-9.027 Y-1.25
X-8.973
X-8.82 Y-1.256
X-8.766 Y-1.26
X-8.613 Y-1.277
X-8.561 Y-1.284
X-8.408 Y-1.312
X-8.357 Y-1.323
X-8.205 Y-1.362
X-8.157 Y-1.376
X-8.005 Y-1.426
X-7.96 Y-1.442
X-7.808 Y-1.503
X-7.767 Y-1.521
X-7.615 Y-1.592
X-7.577 Y-1.611
X-7.425 Y-1.693
X-7.391 Y-1.713
X-7.24 Y-1.805
X-7.209 Y-1.825
X-7.058 Y-1.928
X-7.03 Y-1.948
X-6.879 Y-2.061
X-6.854 Y-2.081
X-6.703 Y-2.204
X-6.671 Y-2.232
X-6.371 Y-2.508
X-6.335 Y-2.543
X-6.038 Y-2.856
X-6.009 Y-2.888
X-5.714 Y-3.237
X-5.69 Y-3.266
X-5.399 Y-3.648
X-5.38 Y-3.674
X-5.092 Y-4.087
X-5.076 Y-4.112
X-4.793 Y-4.553
X-4.78 Y-4.575
X-4.503 Y-5.044
X-4.491 Y-5.064
X-4.22 Y-5.556
X-4.21 Y-5.575
X-3.946 Y-6.089
X-3.937 Y-6.106
X-3.681 Y-6.639
X-3.674 Y-6.656
X-3.426 Y-7.205
X-3.419 Y-7.221
X-3.182 Y-7.784
X-3.175 Y-7.8
X-2.948 Y-8.374
X-2.942 Y-8.389
X-2.726 Y-8.973
X-2.72 Y-8.988
X-2.516 Y-9.578
X-2.511 Y-9.593
X-2.32 Y-10.188
X-2.315 Y-10.204
X-2.137 Y-10.8
X-2.133 Y-10.816
X-1.969 Y-11.413
X-1.965 Y-11.43
X-1.817 Y-12.026
X-1.813 Y-12.044
X-1.681 Y-12.636
X-1.677 Y-12.655
X-1.562 Y-13.243
X-1.558 Y-13.264
X-1.461 Y-13.847
X-1.458 Y-13.869
X-1.379 Y-14.447
X-1.376 Y-14.471
X-1.316 Y-15.043
X-1.314 Y-15.068
X-1.274 Y-15.634
X-1.272 Y-15.661
X-1.253 Y-16.221
X-1.252 Y-16.249
X-1.253 Y-16.804
X-1.254 Y-16.832
X-1.276 Y-17.382
X-1.277 Y-17.411
X-1.32 Y-17.956
X-1.323 Y-17.985
X-1.387 Y-18.526
X-1.39 Y-18.555
X-1.474 Y-19.093
X-1.479 Y-19.12
X-1.583 Y-19.655
X-1.588 Y-19.681
X-1.711 Y-20.214
X-1.717 Y-20.238
X-1.858 Y-20.768
X-1.864 Y-20.79
X-2.022 Y-21.317
X-2.028 Y-21.337
X-2.2 Y-21.862
X-2.206 Y-21.88
X-2.392 Y-22.401
X-2.398 Y-22.417
X-2.595 Y-22.934
X-2.603 Y-22.953
X-3.024 Y-23.973
X-3.032 Y-23.992
X-3.475 Y-24.987
X-3.48 Y-24.998
X-3.927 Y-25.963
X-3.928 Y-25.966
X-4.148 Y-26.434
X-4.226 Y-26.602
X-4.361 Y-26.891 Z-0.811 F1016
X-4.565 Y-27.335 Z-0.828
X-4.759 Y-27.764 Z-0.845
X-4.94 Y-28.178 Z-0.86
X-5.107 Y-28.575 Z-0.875
X-5.256 Y-28.954 Z-0.89
X-5.388 Y-29.314 Z-0.903
X-5.5 Y-29.654 Z-0.916
X-5.592 Y-29.972 Z-0.927
X-5.662 Y-30.266 Z-0.938
X-5.712 Y-30.536 Z-0.947
X-5.74 Y-30.781 Z-0.956
X-5.75 Y-31.016 Z-0.964
Y-34.708 Z-1.093
Y-34.907 Z-1.1
X-5.749 Y-35.921 F600
X-5.745 Y-37.112
X-5.74 Y-38.28
X-5.732 Y-39.426
X-5.722 Y-40.55
X-5.709 Y-41.651
X-5.695 Y-42.731
X-5.678 Y-43.789
X-5.659 Y-44.825
X-5.639 Y-45.84
X-5.616 Y-46.833
X-5.591 Y-47.806
X-5.564 Y-48.758
X-5.536 Y-49.689
X-5.506 Y-50.601
X-5.474 Y-51.492
X-5.441 Y-52.364
X-5.406 Y-53.217
X-5.369 Y-54.051
X-5.332 Y-54.867
X-5.293 Y-55.664
X-5.253 Y-56.443
X-5.211 Y-57.205
X-5.169 Y-57.949
X-5.126 Y-58.676
X-5.082 Y-59.387
X-5.038 Y-60.082
X-4.993 Y-60.761
X-4.947 Y-61.424
X-4.901 Y-62.072
X-4.855 Y-62.705
X-4.809 Y-63.324
X-4.762 Y-63.928
X-4.716 Y-64.519
X-4.67 Y-65.096
X-4.625 Y-65.66
X-4.579 Y-66.211
X-4.535 Y-66.75
X-4.491 Y-67.276
X-4.448 Y-67.791
X-4.406 Y-68.293
X-4.365 Y-68.785
X-4.325 Y-69.265
X-4.287 Y-69.734
Y-69.735
X-4.25 Y-70.193
Y-70.194
X-4.215 Y-70.642
Y-70.643
X-4.181 Y-71.081
Y-71.083
X-4.15 Y-71.51
X-4.149 Y-71.513
X-4.093 Y-72.338
X-4.092 Y-72.345
X-4.045 Y-73.132
Y-73.14
X-4.008 Y-73.891
Y-73.902
X-3.982 Y-74.618
Y-74.631
X-3.969 Y-75.315
Y-75.33
X-3.97 Y-75.982
Y-76
X-3.986 Y-76.621
X-3.987 Y-76.642
X-4.017 Y-77.213
Y-80.949
G2 X-4.498 Y-81.934 I-1.25 J0
G1 X-8.144 Y-84.783
G2 X-9.899 Y-84.568 I-0.77 J0.985
G1 X-13.422 Y-80.058
X-13.465 Y-79.997
X-13.518 Y-79.913
X-13.555 Y-79.848
X-13.585 Y-79.781
X-13.62 Y-79.688
X-13.646 Y-79.605
X-13.713 Y-79.345
X-13.718 Y-79.322
X-13.778 Y-79.054
X-13.782 Y-79.033
X-13.836 Y-78.756
X-13.839 Y-78.736
X-13.886 Y-78.451
X-13.889 Y-78.433
X-13.93 Y-78.139
X-13.932 Y-78.122
X-13.967 Y-77.82
X-13.968 Y-77.804
X-13.997 Y-77.493
X-13.999 Y-77.478
X-14.022 Y-77.159
X-14.023 Y-77.145
X-14.041 Y-76.816
Y-76.804
X-14.054 Y-76.466
Y-76.454
X-14.062 Y-76.107
Y-76.096
X-14.065 Y-75.74
Y-75.73
X-14.063 Y-75.364
Y-75.354
X-14.057 Y-74.978
X-14.056 Y-74.97
X-14.046 Y-74.583
Y-74.576
X-14.031 Y-74.178
Y-74.172
X-14.012 Y-73.763
Y-73.757
X-13.99 Y-73.338
Y-73.333
X-13.964 Y-72.901
Y-72.897
X-13.935 Y-72.454
Y-72.45
X-13.903 Y-71.995
Y-71.992
X-13.868 Y-71.524
Y-71.521
X-13.83 Y-71.04
Y-71.038
X-13.791 Y-70.544
X-13.79 Y-70.543
X-13.749 Y-70.035
X-13.748 Y-70.034
X-13.705 Y-69.512
X-13.659 Y-68.975
X-13.611 Y-68.424
X-13.562 Y-67.858
X-13.512 Y-67.276
X-13.461 Y-66.678
X-13.409 Y-66.064
X-13.357 Y-65.433
X-13.304 Y-64.785
X-13.25 Y-64.119
X-13.197 Y-63.434
X-13.143 Y-62.731
X-13.09 Y-62.008
X-13.037 Y-61.264
X-12.985 Y-60.501
X-12.934 Y-59.716
X-12.883 Y-58.91
X-12.833 Y-58.081
X-12.785 Y-57.23
X-12.738 Y-56.356
X-12.692 Y-55.457
X-12.648 Y-54.535
X-12.606 Y-53.588
X-12.565 Y-52.615
X-12.527 Y-51.617
X-12.49 Y-50.593
X-12.456 Y-49.542
X-12.425 Y-48.464
X-12.395 Y-47.358
X-12.368 Y-46.224
X-12.344 Y-45.062
X-12.322 Y-43.871
X-12.303 Y-42.651
X-12.287 Y-41.402
X-12.274 Y-40.123
X-12.263 Y-38.814
X-12.256 Y-37.476
X-12.251 Y-36.107
X-12.25 Y-34.708
Y-31.016
X-12.26 Y-30.781
X-12.288 Y-30.536
X-12.338 Y-30.266
X-12.408 Y-29.972
X-12.5 Y-29.654
X-12.612 Y-29.314
X-12.744 Y-28.954
X-12.893 Y-28.575
X-13.06 Y-28.178
X-13.241 Y-27.764
X-13.435 Y-27.335
X-13.639 Y-26.891
X-13.852 Y-26.434
X-14.072 Y-25.966
X-14.073 Y-25.963
X-14.52 Y-24.998
X-14.525 Y-24.987
X-14.968 Y-23.992
X-14.976 Y-23.973
X-15.397 Y-22.953
X-15.405 Y-22.934
X-15.602 Y-22.417
X-15.608 Y-22.401
X-15.794 Y-21.88
X-15.8 Y-21.862
X-15.972 Y-21.337
X-15.978 Y-21.317
X-16.136 Y-20.79
X-16.142 Y-20.768
X-16.283 Y-20.238
X-16.289 Y-20.214
X-16.412 Y-19.681
X-16.417 Y-19.655
X-16.521 Y-19.12
X-16.526 Y-19.093
X-16.61 Y-18.555
X-16.613 Y-18.526
X-16.677 Y-17.985
X-16.68 Y-17.956
X-16.723 Y-17.411
X-16.724 Y-17.382
X-16.746 Y-16.832
X-16.747 Y-16.804
X-16.748 Y-16.249
X-16.747 Y-16.221
X-16.728 Y-15.661
X-16.726 Y-15.634
X-16.686 Y-15.068
X-16.684 Y-15.043
X-16.624 Y-14.471
X-16.621 Y-14.447
X-16.542 Y-13.869
X-16.539 Y-13.847
X-16.442 Y-13.264
X-16.438 Y-13.244
X-16.323 Y-12.655
X-16.319 Y-12.636
X-16.187 Y-12.044
X-16.183 Y-12.026
X-16.035 Y-11.43
X-16.031 Y-11.413
X-15.867 Y-10.816
X-15.863 Y-10.8
X-15.685 Y-10.204
X-15.68 Y-10.188
X-15.489 Y-9.593
X-15.484 Y-9.578
X-15.28 Y-8.988
X-15.274 Y-8.973
X-15.058 Y-8.389
X-15.052 Y-8.374
X-14.825 Y-7.8
X-14.818 Y-7.784
X-14.581 Y-7.221
X-14.574 Y-7.205
X-14.326 Y-6.656
X-14.319 Y-6.639
X-14.063 Y-6.106
X-14.054 Y-6.089
X-13.79 Y-5.575
X-13.78 Y-5.556
X-13.509 Y-5.064
X-13.497 Y-5.044
X-13.22 Y-4.575
X-13.207 Y-4.553
X-12.924 Y-4.112
X-12.908 Y-4.087
X-12.62 Y-3.674
X-12.601 Y-3.648
X-12.31 Y-3.266
X-12.286 Y-3.237
X-11.991 Y-2.888
X-11.962 Y-2.856
X-11.665 Y-2.543
X-11.629 Y-2.508
X-11.329 Y-2.232
X-11.297 Y-2.204
X-11.146 Y-2.081
X-11.121 Y-2.061
X-10.97 Y-1.948
X-10.942 Y-1.928
X-10.791 Y-1.825
X-10.76 Y-1.805
X-10.609 Y-1.713
X-10.575 Y-1.693
X-10.423 Y-1.611
X-10.385 Y-1.592
X-10.233 Y-1.52
X-10.192 Y-1.503
X-10.04 Y-1.442
X-9.995 Y-1.426
X-9.843 Y-1.376
X-9.795 Y-1.362
X-9.643 Y-1.323
X-9.592 Y-1.312
X-9.439 Y-1.284
X-9.387 Y-1.277
X-9.234 Y-1.26
X-9.18 Y-1.256
X-9.027 Y-1.25
X-8.973
X-8.82 Y-1.256
X-8.766 Y-1.26
X-8.613 Y-1.277
X-8.561 Y-1.284
X-8.408 Y-1.312
X-8.357 Y-1.323
X-8.205 Y-1.362
X-8.157 Y-1.376
X-8.005 Y-1.426
X-7.96 Y-1.442
X-7.808 Y-1.503
X-7.767 Y-1.521
X-7.615 Y-1.592
X-7.577 Y-1.611
X-7.425 Y-1.693
X-7.391 Y-1.713
X-7.24 Y-1.805
X-7.209 Y-1.825
X-7.058 Y-1.928
X-7.03 Y-1.948
X-6.879 Y-2.061
X-6.854 Y-2.081
X-6.703 Y-2.204
X-6.671 Y-2.232
X-6.371 Y-2.508
X-6.335 Y-2.543
X-6.038 Y-2.856
X-6.009 Y-2.888
X-5.714 Y-3.237
X-5.69 Y-3.266
X-5.399 Y-3.648
X-5.38 Y-3.674
X-5.092 Y-4.087
X-5.076 Y-4.112
X-4.793 Y-4.553
X-4.78 Y-4.575
X-4.503 Y-5.044
X-4.491 Y-5.064
X-4.22 Y-5.556
X-4.21 Y-5.575
X-3.946 Y-6.089
X-3.937 Y-6.106
X-3.681 Y-6.639
X-3.674 Y-6.656
X-3.426 Y-7.205
X-3.419 Y-7.221
X-3.182 Y-7.784
X-3.175 Y-7.8
X-2.948 Y-8.374
X-2.942 Y-8.389
X-2.726 Y-8.973
X-2.72 Y-8.988
X-2.516 Y-9.578
X-2.511 Y-9.593
X-2.32 Y-10.188
X-2.315 Y-10.204
X-2.137 Y-10.8
X-2.133 Y-10.816
X-1.969 Y-11.413
X-1.965 Y-11.43
X-1.817 Y-12.026
X-1.813 Y-12.044
X-1.681 Y-12.636
X-1.677 Y-12.655
X-1.562 Y-13.243
X-1.558 Y-13.264
X-1.461 Y-13.847
X-1.458 Y-13.869
X-1.379 Y-14.447
X-1.376 Y-14.471
X-1.316 Y-15.043
X-1.314 Y-15.068
X-1.274 Y-15.634
X-1.272 Y-15.661
X-1.253 Y-16.221
X-1.252 Y-16.249
X-1.253 Y-16.804
X-1.254 Y-16.832
X-1.276 Y-17.382
X-1.277 Y-17.411
X-1.32 Y-17.956
X-1.323 Y-17.985
X-1.387 Y-18.526
X-1.39 Y-18.555
X-1.474 Y-19.093
X-1.479 Y-19.12
X-1.583 Y-19.655
X-1.588 Y-19.681
X-1.711 Y-20.214
X-1.717 Y-20.238
X-1.858 Y-20.768
X-1.864 Y-20.79
X-2.022 Y-21.317
X-2.028 Y-21.337
X-2.2 Y-21.862
X-2.206 Y-21.88
X-2.392 Y-22.401
X-2.398 Y-22.417
X-2.595 Y-22.934
X-2.603 Y-22.953
X-3.024 Y-23.973
X-3.032 Y-23.992
X-3.475 Y-24.987
X-3.48 Y-24.998
X-3.927 Y-25.963
X-3.928 Y-25.966
X-4.148 Y-26.434
X-4.361 Y-26.891
X-4.565 Y-27.335
X-4.759 Y-27.764
X-4.94 Y-28.178
X-5.107 Y-28.575
X-5.256 Y-28.954
X-5.388 Y-29.314
X-5.5 Y-29.654
X-5.592 Y-29.972
X-5.662 Y-30.266
X-5.712 Y-30.536
X-5.74 Y-30.781
X-5.75 Y-31.016
Y-34.708
Y-34.907
X-5.749 Y-35.921 Z-1.135 F1016
X-5.745 Y-37.112 Z-1.177
X-5.74 Y-38.28 Z-1.218
X-5.732 Y-39.426 Z-1.258
X-5.722 Y-40.55 Z-1.297
X-5.709 Y-41.651 Z-1.336
X-5.695 Y-42.731 Z-1.373
X-5.683 Y-43.498 Z-1.4
X-5.678 Y-43.789 F600
X-5.659 Y-44.825
X-5.639 Y-45.84
X-5.616 Y-46.833
X-5.591 Y-47.806
X-5.564 Y-48.758
X-5.536 Y-49.689
X-5.506 Y-50.601
X-5.474 Y-51.492
X-5.441 Y-52.364
X-5.406 Y-53.217
X-5.369 Y-54.051
X-5.332 Y-54.867
X-5.293 Y-55.664
X-5.253 Y-56.443
X-5.211 Y-57.205
X-5.169 Y-57.949
X-5.126 Y-58.676
X-5.082 Y-59.387
X-5.038 Y-60.082
X-4.993 Y-60.761
X-4.947 Y-61.424
X-4.901 Y-62.072
X-4.855 Y-62.705
X-4.809 Y-63.324
X-4.762 Y-63.928
X-4.716 Y-64.519
X-4.67 Y-65.096
X-4.625 Y-65.66
X-4.579 Y-66.211
X-4.535 Y-66.75
X-4.491 Y-67.276
X-4.448 Y-67.791
X-4.406 Y-68.293
X-4.365 Y-68.785
X-4.325 Y-69.265
X-4.287 Y-69.734
Y-69.735
X-4.25 Y-70.193
Y-70.194
X-4.215 Y-70.642
Y-70.643
X-4.181 Y-71.081
Y-71.083
X-4.15 Y-71.51
X-4.149 Y-71.513
X-4.093 Y-72.338
X-4.092 Y-72.345
X-4.045 Y-73.132
Y-73.14
X-4.008 Y-73.891
Y-73.902
X-3.982 Y-74.618
Y-74.631
X-3.969 Y-75.315
Y-75.33
X-3.97 Y-75.982
Y-76
X-3.986 Y-76.621
X-3.987 Y-76.642
X-4.017 Y-77.213
Y-80.949
G2 X-4.498 Y-81.934 I-1.25 J0
G1 X-8.144 Y-84.783
G2 X-9.899 Y-84.568 I-0.77 J0.985
G1 X-13.422 Y-80.058
X-13.465 Y-79.997
X-13.518 Y-79.913
X-13.555 Y-79.848
X-13.585 Y-79.781
X-13.62 Y-79.688
X-13.646 Y-79.605
X-13.713 Y-79.345
X-13.718 Y-79.322
X-13.778 Y-79.054
X-13.782 Y-79.033
X-13.836 Y-78.756
X-13.839 Y-78.736
X-13.886 Y-78.451
X-13.889 Y-78.433
X-13.93 Y-78.139
X-13.932 Y-78.122
X-13.967 Y-77.82
X-13.968 Y-77.804
X-13.997 Y-77.493
X-13.999 Y-77.478
X-14.022 Y-77.159
X-14.023 Y-77.145
X-14.041 Y-76.816
Y-76.804
X-14.054 Y-76.466
Y-76.454
X-14.062 Y-76.107
Y-76.096
X-14.065 Y-75.74
Y-75.73
X-14.063 Y-75.364
Y-75.354
X-14.057 Y-74.978
X-14.056 Y-74.97
X-14.046 Y-74.583
Y-74.576
X-14.031 Y-74.178
Y-74.172
X-14.012 Y-73.763
Y-73.757
X-13.99 Y-73.338
Y-73.333
X-13.964 Y-72.901
Y-72.897
X-13.935 Y-72.454
Y-72.45
X-13.903 Y-71.995
Y-71.992
X-13.868 Y-71.524
Y-71.521
X-13.83 Y-71.04
Y-71.038
X-13.791 Y-70.544
X-13.79 Y-70.543
X-13.749 Y-70.035
X-13.748 Y-70.034
X-13.705 Y-69.512
X-13.659 Y-68.975
X-13.611 Y-68.424
X-13.562 Y-67.858
X-13.512 Y-67.276
X-13.461 Y-66.678
X-13.409 Y-66.064
X-13.357 Y-65.433
X-13.304 Y-64.785
X-13.25 Y-64.119
X-13.197 Y-63.434
X-13.143 Y-62.731
X-13.09 Y-62.008
X-13.037 Y-61.264
X-12.985 Y-60.501
X-12.934 Y-59.716
X-12.883 Y-58.91
X-12.833 Y-58.081
X-12.785 Y-57.23
X-12.738 Y-56.356
X-12.692 Y-55.457
X-12.648 Y-54.535
X-12.606 Y-53.588
X-12.565 Y-52.615
X-12.527 Y-51.617
X-12.49 Y-50.593
X-12.456 Y-49.542
X-12.425 Y-48.464
X-12.395 Y-47.358
X-12.368 Y-46.224
X-12.344 Y-45.062
X-12.322 Y-43.871
X-12.303 Y-42.651
X-12.287 Y-41.402
X-12.274 Y-40.123
X-12.263 Y-38.814
X-12.256 Y-37.476
X-12.251 Y-36.107
X-12.25 Y-34.708
Y-31.016
X-12.26 Y-30.781
X-12.288 Y-30.536
X-12.338 Y-30.266
X-12.408 Y-29.972
X-12.5 Y-29.654
X-12.612 Y-29.314
X-12.744 Y-28.954
X-12.893 Y-28.575
X-13.06 Y-28.178
X-13.241 Y-27.764
X-13.435 Y-27.335
X-13.639 Y-26.891
X-13.852 Y-26.434
X-14.072 Y-25.966
X-14.073 Y-25.963
X-14.52 Y-24.998
X-14.525 Y-24.987
X-14.968 Y-23.992
X-14.976 Y-23.973
X-15.397 Y-22.953
X-15.405 Y-22.934
X-15.602 Y-22.417
X-15.608 Y-22.401
X-15.794 Y-21.88
X-15.8 Y-21.862
X-15.972 Y-21.337
X-15.978 Y-21.317
X-16.136 Y-20.79
X-16.142 Y-20.768
X-16.283 Y-20.238
X-16.289 Y-20.214
X-16.412 Y-19.681
X-16.417 Y-19.655
X-16.521 Y-19.12
X-16.526 Y-19.093
X-16.61 Y-18.555
X-16.613 Y-18.526
X-16.677 Y-17.985
X-16.68 Y-17.956
X-16.723 Y-17.411
X-16.724 Y-17.382
X-16.746 Y-16.832
X-16.747 Y-16.804
X-16.748 Y-16.249
X-16.747 Y-16.221
X-16.728 Y-15.661
X-16.726 Y-15.634
X-16.686 Y-15.068
X-16.684 Y-15.043
X-16.624 Y-14.471
X-16.621 Y-14.447
X-16.542 Y-13.869
X-16.539 Y-13.847
X-16.442 Y-13.264
X-16.438 Y-13.244
X-16.323 Y-12.655
X-16.319 Y-12.636
X-16.187 Y-12.044
X-16.183 Y-12.026
X-16.035 Y-11.43
X-16.031 Y-11.413
X-15.867 Y-10.816
X-15.863 Y-10.8
X-15.685 Y-10.204
X-15.68 Y-10.188
X-15.489 Y-9.593
X-15.484 Y-9.578
X-15.28 Y-8.988
X-15.274 Y-8.973
X-15.058 Y-8.389
X-15.052 Y-8.374
X-14.825 Y-7.8
X-14.818 Y-7.784
X-14.581 Y-7.221
X-14.574 Y-7.205
X-14.326 Y-6.656
X-14.319 Y-6.639
X-14.063 Y-6.106
X-14.054 Y-6.089
X-13.79 Y-5.575
X-13.78 Y-5.556
X-13.509 Y-5.064
X-13.497 Y-5.044
X-13.22 Y-4.575
X-13.207 Y-4.553
X-12.924 Y-4.112
X-12.908 Y-4.087
X-12.62 Y-3.674
X-12.601 Y-3.648
X-12.31 Y-3.266
X-12.286 Y-3.237
X-11.991 Y-2.888
X-11.962 Y-2.856
X-11.665 Y-2.543
X-11.629 Y-2.508
X-11.329 Y-2.232
X-11.297 Y-2.204
X-11.146 Y-2.081
X-11.121 Y-2.061
X-10.97 Y-1.948
X-10.942 Y-1.928
X-10.791 Y-1.825
X-10.76 Y-1.805
X-10.609 Y-1.713
X-10.575 Y-1.693
X-10.423 Y-1.611
X-10.385 Y-1.592
X-10.233 Y-1.52
X-10.192 Y-1.503
X-10.04 Y-1.442
X-9.995 Y-1.426
X-9.843 Y-1.376
X-9.795 Y-1.362
X-9.643 Y-1.323
X-9.592 Y-1.312
X-9.439 Y-1.284
X-9.387 Y-1.277
X-9.234 Y-1.26
X-9.18 Y-1.256
X-9.027 Y-1.25
X-8.973
X-8.82 Y-1.256
X-8.766 Y-1.26
X-8.613 Y-1.277
X-8.561 Y-1.284
X-8.408 Y-1.312
X-8.357 Y-1.323
X-8.205 Y-1.362
X-8.157 Y-1.376
X-8.005 Y-1.426
X-7.96 Y-1.442
X-7.808 Y-1.503
X-7.767 Y-1.521
X-7.615 Y-1.592
X-7.577 Y-1.611
X-7.425 Y-1.693
X-7.391 Y-1.713
X-7.24 Y-1.805
X-7.209 Y-1.825
X-7.058 Y-1.928
X-7.03 Y-1.948
X-6.879 Y-2.061
X-6.854 Y-2.081
X-6.703 Y-2.204
X-6.671 Y-2.232
X-6.371 Y-2.508
X-6.335 Y-2.543
X-6.038 Y-2.856
X-6.009 Y-2.888
X-5.714 Y-3.237
X-5.69 Y-3.266
X-5.399 Y-3.648
X-5.38 Y-3.674
X-5.092 Y-4.087
X-5.076 Y-4.112
X-4.793 Y-4.553
X-4.78 Y-4.575
X-4.503 Y-5.044
X-4.491 Y-5.064
X-4.22 Y-5.556
X-4.21 Y-5.575
X-3.946 Y-6.089
X-3.937 Y-6.106
X-3.681 Y-6.639
X-3.674 Y-6.656
X-3.426 Y-7.205
X-3.419 Y-7.221
X-3.182 Y-7.784
X-3.175 Y-7.8
X-2.948 Y-8.374
X-2.942 Y-8.389
X-2.726 Y-8.973
X-2.72 Y-8.988
X-2.516 Y-9.578
X-2.511 Y-9.593
X-2.32 Y-10.188
X-2.315 Y-10.204
X-2.137 Y-10.8
X-2.133 Y-10.816
X-1.969 Y-11.413
X-1.965 Y-11.43
X-1.817 Y-12.026
X-1.813 Y-12.044
X-1.681 Y-12.636
X-1.677 Y-12.655
X-1.562 Y-13.243
X-1.558 Y-13.264
X-1.461 Y-13.847
X-1.458 Y-13.869
X-1.379 Y-14.447
X-1.376 Y-14.471
X-1.316 Y-15.043
X-1.314 Y-15.068
X-1.274 Y-15.634
X-1.272 Y-15.661
X-1.253 Y-16.221
X-1.252 Y-16.249
X-1.253 Y-16.804
X-1.254 Y-16.832
X-1.276 Y-17.382
X-1.277 Y-17.411
X-1.32 Y-17.956
X-1.323 Y-17.985
X-1.387 Y-18.526
X-1.39 Y-18.555
X-1.474 Y-19.093
X-1.479 Y-19.12
X-1.583 Y-19.655
X-1.588 Y-19.681
X-1.711 Y-20.214
X-1.717 Y-20.238
X-1.858 Y-20.768
X-1.864 Y-20.79
X-2.022 Y-21.317
X-2.028 Y-21.337
X-2.2 Y-21.862
X-2.206 Y-21.88
X-2.392 Y-22.401
X-2.398 Y-22.417
X-2.595 Y-22.934
X-2.603 Y-22.953
X-3.024 Y-23.973
X-3.032 Y-23.992
X-3.475 Y-24.987
X-3.48 Y-24.998
X-3.927 Y-25.963
X-3.928 Y-25.966
X-4.148 Y-26.434
X-4.361 Y-26.891
X-4.565 Y-27.335
X-4.759 Y-27.764
X-4.94 Y-28.178
X-5.107 Y-28.575
X-5.256 Y-28.954
X-5.388 Y-29.314
X-5.5 Y-29.654
X-5.592 Y-29.972
X-5.662 Y-30.266
X-5.712 Y-30.536
X-5.74 Y-30.781
X-5.75 Y-31.016
Y-34.708
X-5.749 Y-35.921
X-5.745 Y-37.112
X-5.74 Y-38.28
X-5.732 Y-39.426
X-5.722 Y-40.55
X-5.709 Y-41.651
X-5.695 Y-42.731
X-5.683 Y-43.498
X-5.678 Y-43.789 Z-1.41 F1016
X-5.659 Y-44.825 Z-1.446
X-5.639 Y-45.84 Z-1.482
X-5.616 Y-46.833 Z-1.516
X-5.591 Y-47.806 Z-1.55
X-5.564 Y-48.758 Z-1.584
X-5.536 Y-49.689 Z-1.616
X-5.506 Y-50.601 Z-1.648
X-5.474 Y-51.492 Z-1.679
X-5.451 Y-52.085 Z-1.7
X-5.441 Y-52.364 F600
X-5.406 Y-53.217
X-5.369 Y-54.051
X-5.332 Y-54.867
X-5.293 Y-55.664
X-5.253 Y-56.443
X-5.211 Y-57.205
X-5.169 Y-57.949
X-5.126 Y-58.676
X-5.082 Y-59.387
X-5.038 Y-60.082
X-4.993 Y-60.761
X-4.947 Y-61.424
X-4.901 Y-62.072
X-4.855 Y-62.705
X-4.809 Y-63.324
X-4.762 Y-63.928
X-4.716 Y-64.519
X-4.67 Y-65.096
X-4.625 Y-65.66
X-4.579 Y-66.211
X-4.535 Y-66.75
X-4.491 Y-67.276
X-4.448 Y-67.791
X-4.406 Y-68.293
X-4.365 Y-68.785
X-4.325 Y-69.265
X-4.287 Y-69.734
Y-69.735
X-4.25 Y-70.193
Y-70.194
X-4.215 Y-70.642
Y-70.643
X-4.181 Y-71.081
Y-71.083
X-4.15 Y-71.51
X-4.149 Y-71.513
X-4.093 Y-72.338
X-4.092 Y-72.345
X-4.045 Y-73.132
Y-73.14
X-4.008 Y-73.891
Y-73.902
X-3.982 Y-74.618
Y-74.631
X-3.969 Y-75.315
Y-75.33
X-3.97 Y-75.982
Y-76
X-3.986 Y-76.621
X-3.987 Y-76.642
X-4.017 Y-77.213
Y-80.949
G2 X-4.498 Y-81.934 I-1.25 J0
G1 X-8.144 Y-84.783
G2 X-9.899 Y-84.568 I-0.77 J0.985
G1 X-13.422 Y-80.058
X-13.465 Y-79.997
X-13.518 Y-79.913
X-13.555 Y-79.848
X-13.585 Y-79.781
X-13.62 Y-79.688
X-13.646 Y-79.605
X-13.713 Y-79.345
X-13.718 Y-79.322
X-13.778 Y-79.054
X-13.782 Y-79.033
X-13.836 Y-78.756
X-13.839 Y-78.736
X-13.886 Y-78.451
X-13.889 Y-78.433
X-13.93 Y-78.139
X-13.932 Y-78.122
X-13.967 Y-77.82
X-13.968 Y-77.804
X-13.997 Y-77.493
X-13.999 Y-77.478
X-14.022 Y-77.159
X-14.023 Y-77.145
X-14.041 Y-76.816
Y-76.804
X-14.054 Y-76.466
Y-76.454
X-14.062 Y-76.107
Y-76.096
X-14.065 Y-75.74
Y-75.73
X-14.063 Y-75.364
Y-75.354
X-14.057 Y-74.978
X-14.056 Y-74.97
X-14.046 Y-74.583
Y-74.576
X-14.031 Y-74.178
Y-74.172
X-14.012 Y-73.763
Y-73.757
X-13.99 Y-73.338
Y-73.333
X-13.964 Y-72.901
Y-72.897
X-13.935 Y-72.454
Y-72.45
X-13.903 Y-71.995
Y-71.992
X-13.868 Y-71.524
Y-71.521
X-13.83 Y-71.04
Y-71.038
X-13.791 Y-70.544
X-13.79 Y-70.543
X-13.749 Y-70.035
X-13.748 Y-70.034
X-13.705 Y-69.512
X-13.659 Y-68.975
X-13.611 Y-68.424
X-13.562 Y-67.858
X-13.512 Y-67.276
X-13.461 Y-66.678
X-13.409 Y-66.064
X-13.357 Y-65.433
X-13.304 Y-64.785
X-13.25 Y-64.119
X-13.197 Y-63.434
X-13.143 Y-62.731
X-13.09 Y-62.008
X-13.037 Y-61.264
X-12.985 Y-60.501
X-12.934 Y-59.716
X-12.883 Y-58.91
X-12.833 Y-58.081
X-12.785 Y-57.23
X-12.738 Y-56.356
X-12.692 Y-55.457
X-12.648 Y-54.535
X-12.606 Y-53.588
X-12.565 Y-52.615
X-12.527 Y-51.617
X-12.49 Y-50.593
X-12.456 Y-49.542
X-12.425 Y-48.464
X-12.395 Y-47.358
X-12.368 Y-46.224
X-12.344 Y-45.062
X-12.322 Y-43.871
X-12.303 Y-42.651
X-12.287 Y-41.402
X-12.274 Y-40.123
X-12.263 Y-38.814
X-12.256 Y-37.476
X-12.251 Y-36.107
X-12.25 Y-34.708
Y-31.016
X-12.26 Y-30.781
X-12.288 Y-30.536
X-12.338 Y-30.266
X-12.408 Y-29.972
X-12.5 Y-29.654
X-12.612 Y-29.314
X-12.744 Y-28.954
X-12.893 Y-28.575
X-13.06 Y-28.178
X-13.241 Y-27.764
X-13.435 Y-27.335
X-13.639 Y-26.891
X-13.852 Y-26.434
X-14.072 Y-25.966
X-14.073 Y-25.963
X-14.52 Y-24.998
X-14.525 Y-24.987
X-14.968 Y-23.992
X-14.976 Y-23.973
X-15.397 Y-22.953
X-15.405 Y-22.934
X-15.602 Y-22.417
X-15.608 Y-22.401
X-15.794 Y-21.88
X-15.8 Y-21.862
X-15.972 Y-21.337
X-15.978 Y-21.317
X-16.136 Y-20.79
X-16.142 Y-20.768
X-16.283 Y-20.238
X-16.289 Y-20.214
X-16.412 Y-19.681
X-16.417 Y-19.655
X-16.521 Y-19.12
X-16.526 Y-19.093
X-16.61 Y-18.555
X-16.613 Y-18.526
X-16.677 Y-17.985
X-16.68 Y-17.956
X-16.723 Y-17.411
X-16.724 Y-17.382
X-16.746 Y-16.832
X-16.747 Y-16.804
X-16.748 Y-16.249
X-16.747 Y-16.221
X-16.728 Y-15.661
X-16.726 Y-15.634
X-16.686 Y-15.068
X-16.684 Y-15.043
X-16.624 Y-14.471
X-16.621 Y-14.447
X-16.542 Y-13.869
X-16.539 Y-13.847
X-16.442 Y-13.264
X-16.438 Y-13.244
X-16.323 Y-12.655
X-16.319 Y-12.636
X-16.187 Y-12.044
X-16.183 Y-12.026
X-16.035 Y-11.43
X-16.031 Y-11.413
X-15.867 Y-10.816
X-15.863 Y-10.8
X-15.685 Y-10.204
X-15.68 Y-10.188
X-15.489 Y-9.593
X-15.484 Y-9.578
X-15.28 Y-8.988
X-15.274 Y-8.973
X-15.058 Y-8.389
X-15.052 Y-8.374
X-14.825 Y-7.8
X-14.818 Y-7.784
X-14.581 Y-7.221
X-14.574 Y-7.205
X-14.326 Y-6.656
X-14.319 Y-6.639
X-14.063 Y-6.106
X-14.054 Y-6.089
X-13.79 Y-5.575
X-13.78 Y-5.556
X-13.509 Y-5.064
X-13.497 Y-5.044
X-13.22 Y-4.575
X-13.207 Y-4.553
X-12.924 Y-4.112
X-12.908 Y-4.087
X-12.62 Y-3.674
X-12.601 Y-3.648
X-12.31 Y-3.266
X-12.286 Y-3.237
X-11.991 Y-2.888
X-11.962 Y-2.856
X-11.665 Y-2.543
X-11.629 Y-2.508
X-11.329 Y-2.232
X-11.297 Y-2.204
X-11.146 Y-2.081
X-11.121 Y-2.061
X-10.97 Y-1.948
X-10.942 Y-1.928
X-10.791 Y-1.825
X-10.76 Y-1.805
X-10.609 Y-1.713
X-10.575 Y-1.693
X-10.423 Y-1.611
X-10.385 Y-1.592
X-10.233 Y-1.52
X-10.192 Y-1.503
X-10.04 Y-1.442
X-9.995 Y-1.426
X-9.843 Y-1.376
X-9.795 Y-1.362
X-9.643 Y-1.323
X-9.592 Y-1.312
X-9.439 Y-1.284
X-9.387 Y-1.277
X-9.234 Y-1.26
X-9.18 Y-1.256
X-9.027 Y-1.25
X-8.973
X-8.82 Y-1.256
X-8.766 Y-1.26
X-8.613 Y-1.277
X-8.561 Y-1.284
X-8.408 Y-1.312
X-8.357 Y-1.323
X-8.205 Y-1.362
X-8.157 Y-1.376
X-8.005 Y-1.426
X-7.96 Y-1.442
X-7.808 Y-1.503
X-7.767 Y-1.521
X-7.615 Y-1.592
X-7.577 Y-1.611
X-7.425 Y-1.693
X-7.391 Y-1.713
X-7.24 Y-1.805
X-7.209 Y-1.825
X-7.058 Y-1.928
X-7.03 Y-1.948
X-6.879 Y-2.061
X-6.854 Y-2.081
X-6.703 Y-2.204
X-6.671 Y-2.232
X-6.371 Y-2.508
X-6.335 Y-2.543
X-6.038 Y-2.856
X-6.009 Y-2.888
X-5.714 Y-3.237
X-5.69 Y-3.266
X-5.399 Y-3.648
X-5.38 Y-3.674
X-5.092 Y-4.087
X-5.076 Y-4.112
X-4.793 Y-4.553
X-4.78 Y-4.575
X-4.503 Y-5.044
X-4.491 Y-5.064
X-4.22 Y-5.556
X-4.21 Y-5.575
X-3.946 Y-6.089
X-3.937 Y-6.106
X-3.681 Y-6.639
X-3.674 Y-6.656
X-3.426 Y-7.205
X-3.419 Y-7.221
X-3.182 Y-7.784
X-3.175 Y-7.8
X-2.948 Y-8.374
X-2.942 Y-8.389
X-2.726 Y-8.973
X-2.72 Y-8.988
X-2.516 Y-9.578
X-2.511 Y-9.593
X-2.32 Y-10.188
X-2.315 Y-10.204
X-2.137 Y-10.8
X-2.133 Y-10.816
X-1.969 Y-11.413
X-1.965 Y-11.43
X-1.817 Y-12.026
X-1.813 Y-12.044
X-1.681 Y-12.636
X-1.677 Y-12.655
X-1.562 Y-13.243
X-1.558 Y-13.264
X-1.461 Y-13.847
X-1.458 Y-13.869
X-1.379 Y-14.447
X-1.376 Y-14.471
X-1.316 Y-15.043
X-1.314 Y-15.068
X-1.274 Y-15.634
X-1.272 Y-15.661
X-1.253 Y-16.221
X-1.252 Y-16.249
X-1.253 Y-16.804
X-1.254 Y-16.832
X-1.276 Y-17.382
X-1.277 Y-17.411
X-1.32 Y-17.956
X-1.323 Y-17.985
X-1.387 Y-18.526
X-1.39 Y-18.555
X-1.474 Y-19.093
X-1.479 Y-19.12
X-1.583 Y-19.655
X-1.588 Y-19.681
X-1.711 Y-20.214
X-1.717 Y-20.238
X-1.858 Y-20.768
X-1.864 Y-20.79
X-2.022 Y-21.317
X-2.028 Y-21.337
X-2.2 Y-21.862
X-2.206 Y-21.88
X-2.392 Y-22.401
X-2.398 Y-22.417
X-2.595 Y-22.934
X-2.603 Y-22.953
X-3.024 Y-23.973
X-3.032 Y-23.992
X-3.475 Y-24.987
X-3.48 Y-24.998
X-3.927 Y-25.963
X-3.928 Y-25.966
X-4.148 Y-26.434
X-4.361 Y-26.891
X-4.565 Y-27.335
X-4.759 Y-27.764
X-4.94 Y-28.178
X-5.107 Y-28.575
X-5.256 Y-28.954
X-5.388 Y-29.314
X-5.5 Y-29.654
X-5.592 Y-29.972
X-5.662 Y-30.266
X-5.712 Y-30.536
X-5.74 Y-30.781
X-5.75 Y-31.016
Y-34.708
X-5.749 Y-35.921
X-5.745 Y-37.112
X-5.74 Y-38.28
X-5.732 Y-39.426
X-5.722 Y-40.55
X-5.709 Y-41.651
X-5.695 Y-42.731
X-5.683 Y-43.498
X-5.678 Y-43.789
X-5.659 Y-44.825
X-5.639 Y-45.84
X-5.616 Y-46.833
X-5.591 Y-47.806
X-5.564 Y-48.758
X-5.536 Y-49.689
X-5.506 Y-50.601
X-5.474 Y-51.492
X-5.451 Y-52.085
X-5.441 Y-52.364 Z-1.71 F1016
X-5.406 Y-53.217 Z-1.74
X-5.369 Y-54.051 Z-1.769
X-5.332 Y-54.867 Z-1.797
X-5.293 Y-55.664 Z-1.825
X-5.253 Y-56.443 Z-1.852
X-5.211 Y-57.205 Z-1.879
X-5.169 Y-57.949 Z-1.905
X-5.126 Y-58.676 Z-1.93
X-5.082 Y-59.387 Z-1.955
X-5.038 Y-60.082 Z-1.98
X-4.999 Y-60.664 Z-2
X-4.993 Y-60.761 F600
X-4.947 Y-61.424
X-4.901 Y-62.072
X-4.855 Y-62.705
X-4.809 Y-63.324
X-4.762 Y-63.928
X-4.716 Y-64.519
X-4.67 Y-65.096
X-4.625 Y-65.66
X-4.579 Y-66.211
X-4.535 Y-66.75
X-4.491 Y-67.276
X-4.448 Y-67.791
X-4.406 Y-68.293
X-4.365 Y-68.785
X-4.325 Y-69.265
X-4.287 Y-69.734
Y-69.735
X-4.25 Y-70.193
Y-70.194
X-4.215 Y-70.642
Y-70.643
X-4.181 Y-71.081
Y-71.083
X-4.15 Y-71.51
X-4.149 Y-71.513
X-4.093 Y-72.338
X-4.092 Y-72.345
X-4.045 Y-73.132
Y-73.14
X-4.008 Y-73.891
Y-73.902
X-3.982 Y-74.618
Y-74.631
X-3.969 Y-75.315
Y-75.33
X-3.97 Y-75.982
Y-76
X-3.986 Y-76.621
X-3.987 Y-76.642
X-4.017 Y-77.213
Y-80.949
G2 X-4.498 Y-81.934 I-1.25 J0
G1 X-8.144 Y-84.783
G2 X-9.899 Y-84.568 I-0.77 J0.985
G1 X-13.422 Y-80.058
X-13.465 Y-79.997
X-13.518 Y-79.913
X-13.555 Y-79.848
X-13.585 Y-79.781
X-13.62 Y-79.688
X-13.646 Y-79.605
X-13.713 Y-79.345
X-13.718 Y-79.322
X-13.778 Y-79.054
X-13.782 Y-79.033
X-13.836 Y-78.756
X-13.839 Y-78.736
X-13.886 Y-78.451
X-13.889 Y-78.433
X-13.93 Y-78.139
X-13.932 Y-78.122
X-13.967 Y-77.82
X-13.968 Y-77.804
X-13.997 Y-77.493
X-13.999 Y-77.478
X-14.022 Y-77.159
X-14.023 Y-77.145
X-14.041 Y-76.816
Y-76.804
X-14.054 Y-76.466
Y-76.454
X-14.062 Y-76.107
Y-76.096
X-14.065 Y-75.74
Y-75.73
X-14.063 Y-75.364
Y-75.354
X-14.057 Y-74.978
X-14.056 Y-74.97
X-14.046 Y-74.583
Y-74.576
X-14.031 Y-74.178
Y-74.172
X-14.012 Y-73.763
Y-73.757
X-13.99 Y-73.338
Y-73.333
X-13.964 Y-72.901
Y-72.897
X-13.935 Y-72.454
Y-72.45
X-13.903 Y-71.995
Y-71.992
X-13.868 Y-71.524
Y-71.521
X-13.83 Y-71.04
Y-71.038
X-13.791 Y-70.544
X-13.79 Y-70.543
X-13.749 Y-70.035
X-13.748 Y-70.034
X-13.705 Y-69.512
X-13.659 Y-68.975
X-13.611 Y-68.424
X-13.562 Y-67.858
X-13.512 Y-67.276
X-13.461 Y-66.678
X-13.409 Y-66.064
X-13.357 Y-65.433
X-13.304 Y-64.785
X-13.25 Y-64.119
X-13.197 Y-63.434
X-13.143 Y-62.731
X-13.09 Y-62.008
X-13.037 Y-61.264
X-12.985 Y-60.501
X-12.934 Y-59.716
X-12.883 Y-58.91
X-12.833 Y-58.081
X-12.785 Y-57.23
X-12.738 Y-56.356
X-12.692 Y-55.457
X-12.648 Y-54.535
X-12.606 Y-53.588
X-12.565 Y-52.615
X-12.527 Y-51.617
X-12.49 Y-50.593
X-12.456 Y-49.542
X-12.425 Y-48.464
X-12.395 Y-47.358
X-12.368 Y-46.224
X-12.344 Y-45.062
X-12.322 Y-43.871
X-12.303 Y-42.651
X-12.287 Y-41.402
X-12.274 Y-40.123
X-12.263 Y-38.814
X-12.256 Y-37.476
X-12.251 Y-36.107
X-12.25 Y-34.708
Y-31.016
X-12.26 Y-30.781
X-12.288 Y-30.536
X-12.338 Y-30.266
X-12.408 Y-29.972
X-12.5 Y-29.654
X-12.612 Y-29.314
X-12.744 Y-28.954
X-12.893 Y-28.575
X-13.06 Y-28.178
X-13.241 Y-27.764
X-13.435 Y-27.335
X-13.639 Y-26.891
X-13.852 Y-26.434
X-14.072 Y-25.966
X-14.073 Y-25.963
X-14.52 Y-24.998
X-14.525 Y-24.987
X-14.968 Y-23.992
X-14.976 Y-23.973
X-15.397 Y-22.953
X-15.405 Y-22.934
X-15.602 Y-22.417
X-15.608 Y-22.401
X-15.794 Y-21.88
X-15.8 Y-21.862
X-15.972 Y-21.337
X-15.978 Y-21.317
X-16.136 Y-20.79
X-16.142 Y-20.768
X-16.283 Y-20.238
X-16.289 Y-20.214
X-16.412 Y-19.681
X-16.417 Y-19.655
X-16.521 Y-19.12
X-16.526 Y-19.093
X-16.61 Y-18.555
X-16.613 Y-18.526
X-16.677 Y-17.985
X-16.68 Y-17.956
X-16.723 Y-17.411
X-16.724 Y-17.382
X-16.746 Y-16.832
X-16.747 Y-16.804
X-16.748 Y-16.249
X-16.747 Y-16.221
X-16.728 Y-15.661
X-16.726 Y-15.634
X-16.686 Y-15.068
X-16.684 Y-15.043
X-16.624 Y-14.471
X-16.621 Y-14.447
X-16.542 Y-13.869
X-16.539 Y-13.847
X-16.442 Y-13.264
X-16.438 Y-13.244
X-16.323 Y-12.655
X-16.319 Y-12.636
X-16.187 Y-12.044
X-16.183 Y-12.026
X-16.035 Y-11.43
X-16.031 Y-11.413
X-15.867 Y-10.816
X-15.863 Y-10.8
X-15.685 Y-10.204
X-15.68 Y-10.188
X-15.489 Y-9.593
X-15.484 Y-9.578
X-15.28 Y-8.988
X-15.274 Y-8.973
X-15.058 Y-8.389
X-15.052 Y-8.374
X-14.825 Y-7.8
X-14.818 Y-7.784
X-14.581 Y-7.221
X-14.574 Y-7.205
X-14.326 Y-6.656
X-14.319 Y-6.639
X-14.063 Y-6.106
X-14.054 Y-6.089
X-13.79 Y-5.575
X-13.78 Y-5.556
X-13.509 Y-5.064
X-13.497 Y-5.044
X-13.22 Y-4.575
X-13.207 Y-4.553
X-12.924 Y-4.112
X-12.908 Y-4.087
X-12.62 Y-3.674
X-12.601 Y-3.648
X-12.31 Y-3.266
X-12.286 Y-3.237
X-11.991 Y-2.888
X-11.962 Y-2.856
X-11.665 Y-2.543
X-11.629 Y-2.508
X-11.329 Y-2.232
X-11.297 Y-2.204
X-11.146 Y-2.081
X-11.121 Y-2.061
X-10.97 Y-1.948
X-10.942 Y-1.928
X-10.791 Y-1.825
X-10.76 Y-1.805
X-10.609 Y-1.713
X-10.575 Y-1.693
X-10.423 Y-1.611
X-10.385 Y-1.592
X-10.233 Y-1.52
X-10.192 Y-1.503
X-10.04 Y-1.442
X-9.995 Y-1.426
X-9.843 Y-1.376
X-9.795 Y-1.362
X-9.643 Y-1.323
X-9.592 Y-1.312
X-9.439 Y-1.284
X-9.387 Y-1.277
X-9.234 Y-1.26
X-9.18 Y-1.256
X-9.027 Y-1.25
X-8.973
X-8.82 Y-1.256
X-8.766 Y-1.26
X-8.613 Y-1.277
X-8.561 Y-1.284
X-8.408 Y-1.312
X-8.357 Y-1.323
X-8.205 Y-1.362
X-8.157 Y-1.376
X-8.005 Y-1.426
X-7.96 Y-1.442
X-7.808 Y-1.503
X-7.767 Y-1.521
X-7.615 Y-1.592
X-7.577 Y-1.611
X-7.425 Y-1.693
X-7.391 Y-1.713
X-7.24 Y-1.805
X-7.209 Y-1.825
X-7.058 Y-1.928
X-7.03 Y-1.948
X-6.879 Y-2.061
X-6.854 Y-2.081
X-6.703 Y-2.204
X-6.671 Y-2.232
X-6.371 Y-2.508
X-6.335 Y-2.543
X-6.038 Y-2.856
X-6.009 Y-2.888
X-5.714 Y-3.237
X-5.69 Y-3.266
X-5.399 Y-3.648
X-5.38 Y-3.674
X-5.092 Y-4.087
X-5.076 Y-4.112
X-4.793 Y-4.553
X-4.78 Y-4.575
X-4.503 Y-5.044
X-4.491 Y-5.064
X-4.22 Y-5.556
X-4.21 Y-5.575
X-3.946 Y-6.089
X-3.937 Y-6.106
X-3.681 Y-6.639
X-3.674 Y-6.656
X-3.426 Y-7.205
X-3.419 Y-7.221
X-3.182 Y-7.784
X-3.175 Y-7.8
X-2.948 Y-8.374
X-2.942 Y-8.389
X-2.726 Y-8.973
X-2.72 Y-8.988
X-2.516 Y-9.578
X-2.511 Y-9.593
X-2.32 Y-10.188
X-2.315 Y-10.204
X-2.137 Y-10.8
X-2.133 Y-10.816
X-1.969 Y-11.413
X-1.965 Y-11.43
X-1.817 Y-12.026
X-1.813 Y-12.044
X-1.681 Y-12.636
X-1.677 Y-12.655
X-1.562 Y-13.243
X-1.558 Y-13.264
X-1.461 Y-13.847
X-1.458 Y-13.869
X-1.379 Y-14.447
X-1.376 Y-14.471
X-1.316 Y-15.043
X-1.314 Y-15.068
X-1.274 Y-15.634
X-1.272 Y-15.661
X-1.253 Y-16.221
X-1.252 Y-16.249
X-1.253 Y-16.804
X-1.254 Y-16.832
X-1.276 Y-17.382
X-1.277 Y-17.411
X-1.32 Y-17.956
X-1.323 Y-17.985
X-1.387 Y-18.526
X-1.39 Y-18.555
X-1.474 Y-19.093
X-1.479 Y-19.12
X-1.583 Y-19.655
X-1.588 Y-19.681
X-1.711 Y-20.214
X-1.717 Y-20.238
X-1.858 Y-20.768
X-1.864 Y-20.79
X-2.022 Y-21.317
X-2.028 Y-21.337
X-2.2 Y-21.862
X-2.206 Y-21.88
X-2.392 Y-22.401
X-2.398 Y-22.417
X-2.595 Y-22.934
X-2.603 Y-22.953
X-3.024 Y-23.973
X-3.032 Y-23.992
X-3.475 Y-24.987
X-3.48 Y-24.998
X-3.927 Y-25.963
X-3.928 Y-25.966
X-4.148 Y-26.434
X-4.361 Y-26.891
X-4.565 Y-27.335
X-4.759 Y-27.764
X-4.94 Y-28.178
X-5.107 Y-28.575
X-5.256 Y-28.954
X-5.388 Y-29.314
X-5.5 Y-29.654
X-5.592 Y-29.972
X-5.662 Y-30.266
X-5.712 Y-30.536
X-5.74 Y-30.781
X-5.75 Y-31.016
Y-34.708
X-5.749 Y-35.921
X-5.745 Y-37.112
X-5.74 Y-38.28
X-5.732 Y-39.426
X-5.722 Y-40.55
X-5.709 Y-41.651
X-5.695 Y-42.731
X-5.678 Y-43.789
X-5.659 Y-44.825
X-5.639 Y-45.84
X-5.616 Y-46.833
X-5.591 Y-47.806
X-5.564 Y-48.758
X-5.536 Y-49.689
X-5.506 Y-50.601
X-5.474 Y-51.492
X-5.451 Y-52.085
X-5.441 Y-52.364
X-5.406 Y-53.217
X-5.369 Y-54.051
X-5.332 Y-54.867
X-5.293 Y-55.664
X-5.253 Y-56.443
X-5.211 Y-57.205
X-5.169 Y-57.949
X-5.126 Y-58.676
X-5.082 Y-59.387
X-5.038 Y-60.082
X-4.999 Y-60.664
X-4.993 Y-60.761 Z-2.003 F1016
X-4.947 Y-61.424 Z-2.027
X-4.901 Y-62.072 Z-2.049
X-4.855 Y-62.705 Z-2.071
X-4.809 Y-63.324 Z-2.093
X-4.762 Y-63.928 Z-2.114
X-4.716 Y-64.519 Z-2.135
X-4.67 Y-65.096 Z-2.155
X-4.625 Y-65.66 Z-2.175
X-4.579 Y-66.211 Z-2.194
X-4.535 Y-66.75 Z-2.213
X-4.491 Y-67.276 Z-2.232
X-4.448 Y-67.791 Z-2.25
X-4.406 Y-68.293 Z-2.267
X-4.365 Y-68.785 Z-2.284
X-4.328 Y-69.229 Z-2.3
X-4.325 Y-69.265 F600
X-4.287 Y-69.734
Y-69.735
X-4.25 Y-70.193
Y-70.194
X-4.215 Y-70.642
Y-70.643
X-4.181 Y-71.081
Y-71.083
X-4.15 Y-71.51
X-4.149 Y-71.513
X-4.093 Y-72.338
X-4.092 Y-72.345
X-4.045 Y-73.132
Y-73.14
X-4.008 Y-73.891
Y-73.902
X-3.982 Y-74.618
Y-74.631
X-3.969 Y-75.315
Y-75.33
X-3.97 Y-75.982
Y-76
X-3.986 Y-76.621
X-3.987 Y-76.642
X-4.017 Y-77.213
Y-80.949
G2 X-4.498 Y-81.934 I-1.25 J0
G1 X-8.144 Y-84.783
G2 X-9.899 Y-84.568 I-0.77 J0.985
G1 X-13.422 Y-80.058
X-13.465 Y-79.997
X-13.518 Y-79.913
X-13.555 Y-79.848
X-13.585 Y-79.781
X-13.62 Y-79.688
X-13.646 Y-79.605
X-13.713 Y-79.345
X-13.718 Y-79.322
X-13.778 Y-79.054
X-13.782 Y-79.033
X-13.836 Y-78.756
X-13.839 Y-78.736
X-13.886 Y-78.451
X-13.889 Y-78.433
X-13.93 Y-78.139
X-13.932 Y-78.122
X-13.967 Y-77.82
X-13.968 Y-77.804
X-13.997 Y-77.493
X-13.999 Y-77.478
X-14.022 Y-77.159
X-14.023 Y-77.145
X-14.041 Y-76.816
Y-76.804
X-14.054 Y-76.466
Y-76.454
X-14.062 Y-76.107
Y-76.096
X-14.065 Y-75.74
Y-75.73
X-14.063 Y-75.364
Y-75.354
X-14.057 Y-74.978
X-14.056 Y-74.97
X-14.046 Y-74.583
Y-74.576
X-14.031 Y-74.178
Y-74.172
X-14.012 Y-73.763
Y-73.757
X-13.99 Y-73.338
Y-73.333
X-13.964 Y-72.901
Y-72.897
X-13.935 Y-72.454
Y-72.45
X-13.903 Y-71.995
Y-71.992
X-13.868 Y-71.524
Y-71.521
X-13.83 Y-71.04
Y-71.038
X-13.791 Y-70.544
X-13.79 Y-70.543
X-13.749 Y-70.035
X-13.748 Y-70.034
X-13.705 Y-69.512
X-13.659 Y-68.975
X-13.611 Y-68.424
X-13.562 Y-67.858
X-13.512 Y-67.276
X-13.461 Y-66.678
X-13.409 Y-66.064
X-13.357 Y-65.433
X-13.304 Y-64.785
X-13.25 Y-64.119
X-13.197 Y-63.434
X-13.143 Y-62.731
X-13.09 Y-62.008
X-13.037 Y-61.264
X-12.985 Y-60.501
X-12.934 Y-59.716
X-12.883 Y-58.91
X-12.833 Y-58.081
X-12.785 Y-57.23
X-12.738 Y-56.356
X-12.692 Y-55.457
X-12.648 Y-54.535
X-12.606 Y-53.588
X-12.565 Y-52.615
X-12.527 Y-51.617
X-12.49 Y-50.593
X-12.456 Y-49.542
X-12.425 Y-48.464
X-12.395 Y-47.358
X-12.368 Y-46.224
X-12.344 Y-45.062
X-12.322 Y-43.871
X-12.303 Y-42.651
X-12.287 Y-41.402
X-12.274 Y-40.123
X-12.263 Y-38.814
X-12.256 Y-37.476
X-12.251 Y-36.107
X-12.25 Y-34.708
Y-31.016
X-12.26 Y-30.781
X-12.288 Y-30.536
X-12.338 Y-30.266
X-12.408 Y-29.972
X-12.5 Y-29.654
X-12.612 Y-29.314
X-12.744 Y-28.954
X-12.893 Y-28.575
X-13.06 Y-28.178
X-13.241 Y-27.764
X-13.435 Y-27.335
X-13.639 Y-26.891
X-13.852 Y-26.434
X-14.072 Y-25.966
X-14.073 Y-25.963
X-14.52 Y-24.998
X-14.525 Y-24.987
X-14.968 Y-23.992
X-14.976 Y-23.973
X-15.397 Y-22.953
X-15.405 Y-22.934
X-15.602 Y-22.417
X-15.608 Y-22.401
X-15.794 Y-21.88
X-15.8 Y-21.862
X-15.972 Y-21.337
X-15.978 Y-21.317
X-16.136 Y-20.79
X-16.142 Y-20.768
X-16.283 Y-20.238
X-16.289 Y-20.214
X-16.412 Y-19.681
X-16.417 Y-19.655
X-16.521 Y-19.12
X-16.526 Y-19.093
X-16.61 Y-18.555
X-16.613 Y-18.526
X-16.677 Y-17.985
X-16.68 Y-17.956
X-16.723 Y-17.411
X-16.724 Y-17.382
X-16.746 Y-16.832
X-16.747 Y-16.804
X-16.748 Y-16.249
X-16.747 Y-16.221
X-16.728 Y-15.661
X-16.726 Y-15.634
X-16.686 Y-15.068
X-16.684 Y-15.043
X-16.624 Y-14.471
X-16.621 Y-14.447
X-16.542 Y-13.869
X-16.539 Y-13.847
X-16.442 Y-13.264
X-16.438 Y-13.244
X-16.323 Y-12.655
X-16.319 Y-12.636
X-16.187 Y-12.044
X-16.183 Y-12.026
X-16.035 Y-11.43
X-16.031 Y-11.413
X-15.867 Y-10.816
X-15.863 Y-10.8
X-15.685 Y-10.204
X-15.68 Y-10.188
X-15.489 Y-9.593
X-15.484 Y-9.578
X-15.28 Y-8.988
X-15.274 Y-8.973
X-15.058 Y-8.389
X-15.052 Y-8.374
X-14.825 Y-7.8
X-14.818 Y-7.784
X-14.581 Y-7.221
X-14.574 Y-7.205
X-14.326 Y-6.656
X-14.319 Y-6.639
X-14.063 Y-6.106
X-14.054 Y-6.089
X-13.79 Y-5.575
X-13.78 Y-5.556
X-13.509 Y-5.064
X-13.497 Y-5.044
X-13.22 Y-4.575
X-13.207 Y-4.553
X-12.924 Y-4.112
X-12.908 Y-4.087
X-12.62 Y-3.674
X-12.601 Y-3.648
X-12.31 Y-3.266
X-12.286 Y-3.237
X-11.991 Y-2.888
X-11.962 Y-2.856
X-11.665 Y-2.543
X-11.629 Y-2.508
X-11.329 Y-2.232
X-11.297 Y-2.204
X-11.146 Y-2.081
X-11.121 Y-2.061
X-10.97 Y-1.948
X-10.942 Y-1.928
X-10.791 Y-1.825
X-10.76 Y-1.805
X-10.609 Y-1.713
X-10.575 Y-1.693
X-10.423 Y-1.611
X-10.385 Y-1.592
X-10.233 Y-1.52
X-10.192 Y-1.503
X-10.04 Y-1.442
X-9.995 Y-1.426
X-9.843 Y-1.376
X-9.795 Y-1.362
X-9.643 Y-1.323
X-9.592 Y-1.312
X-9.439 Y-1.284
X-9.387 Y-1.277
X-9.234 Y-1.26
X-9.18 Y-1.256
X-9.027 Y-1.25
X-8.973
X-8.82 Y-1.256
X-8.766 Y-1.26
X-8.613 Y-1.277
X-8.561 Y-1.284
X-8.408 Y-1.312
X-8.357 Y-1.323
X-8.205 Y-1.362
X-8.157 Y-1.376
X-8.005 Y-1.426
X-7.96 Y-1.442
X-7.808 Y-1.503
X-7.767 Y-1.521
X-7.615 Y-1.592
X-7.577 Y-1.611
X-7.425 Y-1.693
X-7.391 Y-1.713
X-7.24 Y-1.805
X-7.209 Y-1.825
X-7.058 Y-1.928
X-7.03 Y-1.948
X-6.879 Y-2.061
X-6.854 Y-2.081
X-6.703 Y-2.204
X-6.671 Y-2.232
X-6.371 Y-2.508
X-6.335 Y-2.543
X-6.038 Y-2.856
X-6.009 Y-2.888
X-5.714 Y-3.237
X-5.69 Y-3.266
X-5.399 Y-3.648
X-5.38 Y-3.674
X-5.092 Y-4.087
X-5.076 Y-4.112
X-4.793 Y-4.553
X-4.78 Y-4.575
X-4.503 Y-5.044
X-4.491 Y-5.064
X-4.22 Y-5.556
X-4.21 Y-5.575
X-3.946 Y-6.089
X-3.937 Y-6.106
X-3.681 Y-6.639
X-3.674 Y-6.656
X-3.426 Y-7.205
X-3.419 Y-7.221
X-3.182 Y-7.784
X-3.175 Y-7.8
X-2.948 Y-8.374
X-2.942 Y-8.389
X-2.726 Y-8.973
X-2.72 Y-8.988
X-2.516 Y-9.578
X-2.511 Y-9.593
X-2.32 Y-10.188
X-2.315 Y-10.204
X-2.137 Y-10.8
X-2.133 Y-10.816
X-1.969 Y-11.413
X-1.965 Y-11.43
X-1.817 Y-12.026
X-1.813 Y-12.044
X-1.681 Y-12.636
X-1.677 Y-12.655
X-1.562 Y-13.243
X-1.558 Y-13.264
X-1.461 Y-13.847
X-1.458 Y-13.869
X-1.379 Y-14.447
X-1.376 Y-14.471
X-1.316 Y-15.043
X-1.314 Y-15.068
X-1.274 Y-15.634
X-1.272 Y-15.661
X-1.253 Y-16.221
X-1.252 Y-16.249
X-1.253 Y-16.804
X-1.254 Y-16.832
X-1.276 Y-17.382
X-1.277 Y-17.411
X-1.32 Y-17.956
X-1.323 Y-17.985
X-1.387 Y-18.526
X-1.39 Y-18.555
X-1.474 Y-19.093
X-1.479 Y-19.12
X-1.583 Y-19.655
X-1.588 Y-19.681
X-1.711 Y-20.214
X-1.717 Y-20.238
X-1.858 Y-20.768
X-1.864 Y-20.79
X-2.022 Y-21.317
X-2.028 Y-21.337
X-2.2 Y-21.862
X-2.206 Y-21.88
X-2.392 Y-22.401
X-2.398 Y-22.417
X-2.595 Y-22.934
X-2.603 Y-22.953
X-3.024 Y-23.973
X-3.032 Y-23.992
X-3.475 Y-24.987
X-3.48 Y-24.998
X-3.927 Y-25.963
X-3.928 Y-25.966
X-4.148 Y-26.434
X-4.361 Y-26.891
X-4.565 Y-27.335
X-4.759 Y-27.764
X-4.94 Y-28.178
X-5.107 Y-28.575
X-5.256 Y-28.954
X-5.388 Y-29.314
X-5.5 Y-29.654
X-5.592 Y-29.972
X-5.662 Y-30.266
X-5.712 Y-30.536
X-5.74 Y-30.781
X-5.75 Y-31.016
Y-34.708
X-5.749 Y-35.921
X-5.745 Y-37.112
X-5.74 Y-38.28
X-5.732 Y-39.426
X-5.722 Y-40.55
X-5.709 Y-41.651
X-5.695 Y-42.731
X-5.678 Y-43.789
X-5.659 Y-44.825
X-5.639 Y-45.84
X-5.616 Y-46.833
X-5.591 Y-47.806
X-5.564 Y-48.758
X-5.536 Y-49.689
X-5.506 Y-50.601
X-5.474 Y-51.492
X-5.441 Y-52.364
X-5.406 Y-53.217
X-5.369 Y-54.051
X-5.332 Y-54.867
X-5.293 Y-55.664
X-5.253 Y-56.443
X-5.211 Y-57.205
X-5.169 Y-57.949
X-5.126 Y-58.676
X-5.082 Y-59.387
X-5.038 Y-60.082
X-4.999 Y-60.664
X-4.993 Y-60.761
X-4.947 Y-61.424
X-4.901 Y-62.072
X-4.855 Y-62.705
X-4.809 Y-63.324
X-4.762 Y-63.928
X-4.716 Y-64.519
X-4.67 Y-65.096
X-4.625 Y-65.66
X-4.579 Y-66.211
X-4.535 Y-66.75
X-4.491 Y-67.276
X-4.448 Y-67.791
X-4.406 Y-68.293
X-4.365 Y-68.785
X-4.328 Y-69.229
X-4.325 Y-69.265 Z-2.301 F1016
X-4.287 Y-69.734 Z-2.318
Y-69.735
X-4.25 Y-70.193 Z-2.334
Y-70.194
X-4.215 Y-70.642 Z-2.35
Y-70.643
X-4.181 Y-71.081 Z-2.365
Y-71.083
X-4.15 Y-71.51 Z-2.38
X-4.149 Y-71.513
X-4.093 Y-72.338 Z-2.409
X-4.092 Y-72.345
X-4.045 Y-73.132 Z-2.437
Y-73.14
X-4.008 Y-73.891 Z-2.463
Y-73.902 Z-2.464
X-3.982 Y-74.618 Z-2.489
Y-74.631
X-3.969 Y-75.315 Z-2.513
Y-75.33
X-3.97 Y-75.982 Z-2.536
Y-76 Z-2.537
X-3.986 Y-76.621 Z-2.559
X-3.987 Y-76.642
X-4.017 Y-77.213 Z-2.579
Y-77.807 Z-2.6
Y-80.949 F600
G2 X-4.498 Y-81.934 I-1.25 J0
G1 X-8.144 Y-84.783
G2 X-9.899 Y-84.568 I-0.77 J0.985
G1 X-13.422 Y-80.058
X-13.465 Y-79.997
X-13.518 Y-79.913
X-13.555 Y-79.848
X-13.585 Y-79.781
X-13.62 Y-79.688
X-13.646 Y-79.605
X-13.713 Y-79.345
X-13.718 Y-79.322
X-13.778 Y-79.054
X-13.782 Y-79.033
X-13.836 Y-78.756
X-13.839 Y-78.736
X-13.886 Y-78.451
X-13.889 Y-78.433
X-13.93 Y-78.139
X-13.932 Y-78.122
X-13.967 Y-77.82
X-13.968 Y-77.804
X-13.997 Y-77.493
X-13.999 Y-77.478
X-14.022 Y-77.159
X-14.023 Y-77.145
X-14.041 Y-76.816
Y-76.804
X-14.054 Y-76.466
Y-76.454
X-14.062 Y-76.107
Y-76.096
X-14.065 Y-75.74
Y-75.73
X-14.063 Y-75.364
Y-75.354
X-14.057 Y-74.978
X-14.056 Y-74.97
X-14.046 Y-74.583
Y-74.576
X-14.031 Y-74.178
Y-74.172
X-14.012 Y-73.763
Y-73.757
X-13.99 Y-73.338
Y-73.333
X-13.964 Y-72.901
Y-72.897
X-13.935 Y-72.454
Y-72.45
X-13.903 Y-71.995
Y-71.992
X-13.868 Y-71.524
Y-71.521
X-13.83 Y-71.04
Y-71.038
X-13.791 Y-70.544
X-13.79 Y-70.543
X-13.749 Y-70.035
X-13.748 Y-70.034
X-13.705 Y-69.512
X-13.659 Y-68.975
X-13.611 Y-68.424
X-13.562 Y-67.858
X-13.558 Y-67.808
Z-2.4
X-13.512 Y-67.276
X-13.461 Y-66.678
X-13.409 Y-66.064
X-13.357 Y-65.433
X-13.304 Y-64.785
X-13.266 Y-64.32
Z-2.6 F300
X-13.25 Y-64.119 F600
X-13.197 Y-63.434
X-13.143 Y-62.731
X-13.09 Y-62.008
X-13.037 Y-61.264
X-12.985 Y-60.501
X-12.934 Y-59.716
X-12.883 Y-58.91
X-12.833 Y-58.081
X-12.785 Y-57.23
X-12.738 Y-56.356
X-12.692 Y-55.457
X-12.648 Y-54.535
X-12.606 Y-53.588
X-12.565 Y-52.615
X-12.527 Y-51.617
X-12.49 Y-50.593
X-12.456 Y-49.542
X-12.425 Y-48.464
X-12.395 Y-47.358
X-12.368 Y-46.224
X-12.344 Y-45.062
X-12.322 Y-43.871
X-12.303 Y-42.651
X-12.287 Y-41.402
X-12.274 Y-40.123
X-12.263 Y-38.814
X-12.256 Y-37.476
X-12.251 Y-36.107
X-12.25 Y-34.708
Y-31.016
X-12.26 Y-30.781
X-12.288 Y-30.536
X-12.338 Y-30.266
X-12.408 Y-29.972
X-12.5 Y-29.654
X-12.612 Y-29.314
X-12.744 Y-28.954
X-12.893 Y-28.575
X-13.06 Y-28.178
X-13.241 Y-27.764
X-13.435 Y-27.335
X-13.639 Y-26.891
X-13.852 Y-26.434
X-14.072 Y-25.966
X-14.073 Y-25.963
X-14.52 Y-24.998
X-14.525 Y-24.987
X-14.968 Y-23.992
X-14.976 Y-23.973
X-15.397 Y-22.953
X-15.405 Y-22.934
X-15.602 Y-22.417
X-15.608 Y-22.401
X-15.794 Y-21.88
X-15.8 Y-21.862
X-15.972 Y-21.337
X-15.978 Y-21.317
X-16.136 Y-20.79
X-16.142 Y-20.768
X-16.283 Y-20.238
X-16.289 Y-20.214
X-16.412 Y-19.681
X-16.417 Y-19.655
X-16.521 Y-19.12
X-16.526 Y-19.093
X-16.61 Y-18.555
X-16.613 Y-18.526
X-16.677 Y-17.985
X-16.68 Y-17.956
X-16.723 Y-17.411
X-16.724 Y-17.382
X-16.746 Y-16.832
X-16.747 Y-16.804
X-16.748 Y-16.249
X-16.747 Y-16.221
X-16.728 Y-15.661
X-16.726 Y-15.634
X-16.686 Y-15.068
X-16.684 Y-15.043
X-16.624 Y-14.471
X-16.621 Y-14.447
X-16.542 Y-13.869
X-16.539 Y-13.847
X-16.442 Y-13.264
X-16.438 Y-13.244
X-16.323 Y-12.655
X-16.319 Y-12.636
X-16.187 Y-12.044
X-16.183 Y-12.026
X-16.035 Y-11.43
X-16.031 Y-11.413
X-15.867 Y-10.816
X-15.863 Y-10.8
X-15.685 Y-10.204
X-15.68 Y-10.188
X-15.489 Y-9.593
X-15.484 Y-9.578
X-15.28 Y-8.988
X-15.274 Y-8.973
X-15.058 Y-8.389
X-15.052 Y-8.374
X-14.825 Y-7.8
X-14.818 Y-7.784
X-14.581 Y-7.221
X-14.574 Y-7.205
X-14.326 Y-6.656
X-14.319 Y-6.639
X-14.063 Y-6.106
X-14.054 Y-6.089
X-13.79 Y-5.575
X-13.78 Y-5.556
X-13.509 Y-5.064
X-13.497 Y-5.044
X-13.22 Y-4.575
X-13.207 Y-4.553
X-12.924 Y-4.112
X-12.908 Y-4.087
X-12.62 Y-3.674
X-12.601 Y-3.648
X-12.31 Y-3.266
X-12.286 Y-3.237
X-11.991 Y-2.888
X-11.962 Y-2.856
X-11.665 Y-2.543
X-11.629 Y-2.508
X-11.329 Y-2.232
X-11.297 Y-2.204
X-11.146 Y-2.081
X-11.121 Y-2.061
X-10.97 Y-1.948
X-10.942 Y-1.928
X-10.791 Y-1.825
X-10.76 Y-1.805
X-10.75 Y-1.799
Z-2.4
X-10.609 Y-1.713
X-10.575 Y-1.693
X-10.423 Y-1.611
X-10.385 Y-1.592
X-10.233 Y-1.52
X-10.192 Y-1.503
X-10.04 Y-1.442
X-9.995 Y-1.426
X-9.843 Y-1.376
X-9.795 Y-1.362
X-9.643 Y-1.323
X-9.592 Y-1.312
X-9.439 Y-1.284
X-9.387 Y-1.277
X-9.234 Y-1.26
X-9.18 Y-1.256
X-9.027 Y-1.25
X-8.973
X-8.82 Y-1.256
X-8.766 Y-1.26
X-8.613 Y-1.277
X-8.561 Y-1.284
X-8.408 Y-1.312
X-8.357 Y-1.323
X-8.205 Y-1.362
X-8.157 Y-1.376
X-8.005 Y-1.426
X-7.96 Y-1.442
X-7.808 Y-1.503
X-7.767 Y-1.521
X-7.615 Y-1.592
X-7.577 Y-1.611
X-7.425 Y-1.693
X-7.391 Y-1.713
X-7.25 Y-1.799
Z-2.6 F300
X-7.24 Y-1.805 F600
X-7.209 Y-1.825
X-7.058 Y-1.928
X-7.03 Y-1.948
X-6.879 Y-2.061
X-6.854 Y-2.081
X-6.703 Y-2.204
X-6.671 Y-2.232
X-6.371 Y-2.508
X-6.335 Y-2.543
X-6.038 Y-2.856
X-6.009 Y-2.888
X-5.714 Y-3.237
X-5.69 Y-3.266
X-5.399 Y-3.648
X-5.38 Y-3.674
X-5.092 Y-4.087
X-5.076 Y-4.112
X-4.793 Y-4.553
X-4.78 Y-4.575
X-4.503 Y-5.044
X-4.491 Y-5.064
X-4.22 Y-5.556
X-4.21 Y-5.575
X-3.946 Y-6.089
X-3.937 Y-6.106
X-3.681 Y-6.639
X-3.674 Y-6.656
X-3.426 Y-7.205
X-3.419 Y-7.221
X-3.182 Y-7.784
X-3.175 Y-7.8
X-2.948 Y-8.374
X-2.942 Y-8.389
X-2.726 Y-8.973
X-2.72 Y-8.988
X-2.516 Y-9.578
X-2.511 Y-9.593
X-2.32 Y-10.188
X-2.315 Y-10.204
X-2.137 Y-10.8
X-2.133 Y-10.816
X-1.969 Y-11.413
X-1.965 Y-11.43
X-1.817 Y-12.026
X-1.813 Y-12.044
X-1.681 Y-12.636
X-1.677 Y-12.655
X-1.562 Y-13.243
X-1.558 Y-13.264
X-1.461 Y-13.847
X-1.458 Y-13.869
X-1.379 Y-14.447
X-1.376 Y-14.471
X-1.316 Y-15.043
X-1.314 Y-15.068
X-1.274 Y-15.634
X-1.272 Y-15.661
X-1.253 Y-16.221
X-1.252 Y-16.249
X-1.253 Y-16.804
X-1.254 Y-16.832
X-1.276 Y-17.382
X-1.277 Y-17.411
X-1.32 Y-17.956
X-1.323 Y-17.985
X-1.387 Y-18.526
X-1.39 Y-18.555
X-1.474 Y-19.093
X-1.479 Y-19.12
X-1.583 Y-19.655
X-1.588 Y-19.681
X-1.711 Y-20.214
X-1.717 Y-20.238
X-1.858 Y-20.768
X-1.864 Y-20.79
X-2.022 Y-21.317
X-2.028 Y-21.337
X-2.2 Y-21.862
X-2.206 Y-21.88
X-2.392 Y-22.401
X-2.398 Y-22.417
X-2.595 Y-22.934
X-2.603 Y-22.953
X-3.024 Y-23.973
X-3.032 Y-23.992
X-3.475 Y-24.987
X-3.48 Y-24.998
X-3.927 Y-25.963
X-3.928 Y-25.966
X-4.148 Y-26.434
X-4.361 Y-26.891
X-4.565 Y-27.335
X-4.759 Y-27.764
X-4.94 Y-28.178
X-5.107 Y-28.575
X-5.256 Y-28.954
X-5.388 Y-29.314
X-5.5 Y-29.654
X-5.592 Y-29.972
X-5.662 Y-30.266
X-5.712 Y-30.536
X-5.74 Y-30.781
X-5.75 Y-31.016
Y-34.708
X-5.749 Y-35.921
X-5.745 Y-37.112
X-5.74 Y-38.28
X-5.732 Y-39.426
X-5.722 Y-40.55
X-5.709 Y-41.651
X-5.695 Y-42.731
X-5.678 Y-43.789
X-5.659 Y-44.825
X-5.639 Y-45.84
X-5.616 Y-46.833
X-5.591 Y-47.806
X-5.564 Y-48.758
X-5.536 Y-49.689
X-5.506 Y-50.601
X-5.474 Y-51.492
X-5.441 Y-52.364
X-5.406 Y-53.217
X-5.369 Y-54.051
X-5.332 Y-54.867
X-5.293 Y-55.664
X-5.253 Y-56.443
X-5.211 Y-57.205
X-5.169 Y-57.949
X-5.126 Y-58.676
X-5.082 Y-59.387
X-5.038 Y-60.082
X-4.993 Y-60.761
X-4.947 Y-61.424
X-4.936 Y-61.579
Z-2.4
X-4.901 Y-62.072
X-4.855 Y-62.705
X-4.809 Y-63.324
X-4.762 Y-63.928
X-4.716 Y-64.519
X-4.672 Y-65.069
Z-2.6 F300
X-4.67 Y-65.096 F600
X-4.625 Y-65.66
X-4.579 Y-66.211
X-4.535 Y-66.75
X-4.491 Y-67.276
X-4.448 Y-67.791
X-4.406 Y-68.293
X-4.365 Y-68.785
X-4.325 Y-69.265
X-4.287 Y-69.734
Y-69.735
X-4.25 Y-70.193
Y-70.194
X-4.215 Y-70.642
Y-70.643
X-4.181 Y-71.081
Y-71.083
X-4.15 Y-71.51
X-4.149 Y-71.513
X-4.093 Y-72.338
X-4.092 Y-72.345
X-4.045 Y-73.132
Y-73.14
X-4.008 Y-73.891
Y-73.902
X-3.982 Y-74.618
Y-74.631
X-3.969 Y-75.315
Y-75.33
X-3.97 Y-75.982
Y-76
X-3.986 Y-76.621
X-3.987 Y-76.642
X-4.017 Y-77.213
Y-77.807
Y-80.949 Z-2.71 F1016
G2 X-4.498 Y-81.934 Z-2.749 I-1.25 J0
G1 X-7.897 Y-84.59 Z-2.9
X-8.144 Y-84.783 F600
G2 X-9.899 Y-84.568 I-0.77 J0.985
G1 X-13.422 Y-80.058
X-13.465 Y-79.997
X-13.518 Y-79.913
X-13.555 Y-79.848
X-13.585 Y-79.781
X-13.62 Y-79.688
X-13.646 Y-79.605
X-13.713 Y-79.345
X-13.718 Y-79.322
X-13.778 Y-79.054
X-13.782 Y-79.033
X-13.836 Y-78.756
X-13.839 Y-78.736
X-13.886 Y-78.451
X-13.889 Y-78.433
X-13.93 Y-78.139
X-13.932 Y-78.122
X-13.967 Y-77.82
X-13.968 Y-77.804
X-13.997 Y-77.493
X-13.999 Y-77.478
X-14.022 Y-77.159
X-14.023 Y-77.145
X-14.041 Y-76.816
Y-76.804
X-14.054 Y-76.466
Y-76.454
X-14.062 Y-76.107
Y-76.096
X-14.065 Y-75.74
Y-75.73
X-14.063 Y-75.364
Y-75.354
X-14.057 Y-74.978
X-14.056 Y-74.97
X-14.046 Y-74.583
Y-74.576
X-14.031 Y-74.178
Y-74.172
X-14.012 Y-73.763
Y-73.757
X-13.99 Y-73.338
Y-73.333
X-13.964 Y-72.901
Y-72.897
X-13.935 Y-72.454
Y-72.45
X-13.903 Y-71.995
Y-71.992
X-13.868 Y-71.524
Y-71.521
X-13.83 Y-71.04
Y-71.038
X-13.791 Y-70.544
X-13.79 Y-70.543
X-13.749 Y-70.035
X-13.748 Y-70.034
X-13.705 Y-69.512
X-13.659 Y-68.975
X-13.611 Y-68.424
X-13.562 Y-67.858
X-13.558 Y-67.808
Z-2.4
X-13.512 Y-67.276
X-13.461 Y-66.678
X-13.409 Y-66.064
X-13.357 Y-65.433
X-13.304 Y-64.785
X-13.266 Y-64.32
Z-2.9 F300
X-13.25 Y-64.119 F600
X-13.197 Y-63.434
X-13.143 Y-62.731
X-13.09 Y-62.008
X-13.037 Y-61.264
X-12.985 Y-60.501
X-12.934 Y-59.716
X-12.883 Y-58.91
X-12.833 Y-58.081
X-12.785 Y-57.23
X-12.738 Y-56.356
X-12.692 Y-55.457
X-12.648 Y-54.535
X-12.606 Y-53.588
X-12.565 Y-52.615
X-12.527 Y-51.617
X-12.49 Y-50.593
X-12.456 Y-49.542
X-12.425 Y-48.464
X-12.395 Y-47.358
X-12.368 Y-46.224
X-12.344 Y-45.062
X-12.322 Y-43.871
X-12.303 Y-42.651
X-12.287 Y-41.402
X-12.274 Y-40.123
X-12.263 Y-38.814
X-12.256 Y-37.476
X-12.251 Y-36.107
X-12.25 Y-34.708
Y-31.016
X-12.26 Y-30.781
X-12.288 Y-30.536
X-12.338 Y-30.266
X-12.408 Y-29.972
X-12.5 Y-29.654
X-12.612 Y-29.314
X-12.744 Y-28.954
X-12.893 Y-28.575
X-13.06 Y-28.178
X-13.241 Y-27.764
X-13.435 Y-27.335
X-13.639 Y-26.891
X-13.852 Y-26.434
X-14.072 Y-25.966
X-14.073 Y-25.963
X-14.52 Y-24.998
X-14.525 Y-24.987
X-14.968 Y-23.992
X-14.976 Y-23.973
X-15.397 Y-22.953
X-15.405 Y-22.934
X-15.602 Y-22.417
X-15.608 Y-22.401
X-15.794 Y-21.88
X-15.8 Y-21.862
X-15.972 Y-21.337
X-15.978 Y-21.317
X-16.136 Y-20.79
X-16.142 Y-20.768
X-16.283 Y-20.238
X-16.289 Y-20.214
X-16.412 Y-19.681
X-16.417 Y-19.655
X-16.521 Y-19.12
X-16.526 Y-19.093
X-16.61 Y-18.555
X-16.613 Y-18.526
X-16.677 Y-17.985
X-16.68 Y-17.956
X-16.723 Y-17.411
X-16.724 Y-17.382
X-16.746 Y-16.832
X-16.747 Y-16.804
X-16.748 Y-16.249
X-16.747 Y-16.221
X-16.728 Y-15.661
X-16.726 Y-15.634
X-16.686 Y-15.068
X-16.684 Y-15.043
X-16.624 Y-14.471
X-16.621 Y-14.447
X-16.542 Y-13.869
X-16.539 Y-13.847
X-16.442 Y-13.264
X-16.438 Y-13.244
X-16.323 Y-12.655
X-16.319 Y-12.636
X-16.187 Y-12.044
X-16.183 Y-12.026
X-16.035 Y-11.43
X-16.031 Y-11.413
X-15.867 Y-10.816
X-15.863 Y-10.8
X-15.685 Y-10.204
X-15.68 Y-10.188
X-15.489 Y-9.593
X-15.484 Y-9.578
X-15.28 Y-8.988
X-15.274 Y-8.973
X-15.058 Y-8.389
X-15.052 Y-8.374
X-14.825 Y-7.8
X-14.818 Y-7.784
X-14.581 Y-7.221
X-14.574 Y-7.205
X-14.326 Y-6.656
X-14.319 Y-6.639
X-14.063 Y-6.106
X-14.054 Y-6.089
X-13.79 Y-5.575
X-13.78 Y-5.556
X-13.509 Y-5.064
X-13.497 Y-5.044
X-13.22 Y-4.575
X-13.207 Y-4.553
X-12.924 Y-4.112
X-12.908 Y-4.087
X-12.62 Y-3.674
X-12.601 Y-3.648
X-12.31 Y-3.266
X-12.286 Y-3.237
X-11.991 Y-2.888
X-11.962 Y-2.856
X-11.665 Y-2.543
X-11.629 Y-2.508
X-11.329 Y-2.232
X-11.297 Y-2.204
X-11.146 Y-2.081
X-11.121 Y-2.061
X-10.97 Y-1.948
X-10.942 Y-1.928
X-10.791 Y-1.825
X-10.76 Y-1.805
X-10.75 Y-1.799
Z-2.4
X-10.609 Y-1.713
X-10.575 Y-1.693
X-10.423 Y-1.611
X-10.385 Y-1.592
X-10.233 Y-1.52
X-10.192 Y-1.503
X-10.04 Y-1.442
X-9.995 Y-1.426
X-9.843 Y-1.376
X-9.795 Y-1.362
X-9.643 Y-1.323
X-9.592 Y-1.312
X-9.439 Y-1.284
X-9.387 Y-1.277
X-9.234 Y-1.26
X-9.18 Y-1.256
X-9.027 Y-1.25
X-8.973
X-8.82 Y-1.256
X-8.766 Y-1.26
X-8.613 Y-1.277
X-8.561 Y-1.284
X-8.408 Y-1.312
X-8.357 Y-1.323
X-8.205 Y-1.362
X-8.157 Y-1.376
X-8.005 Y-1.426
X-7.96 Y-1.442
X-7.808 Y-1.503
X-7.767 Y-1.521
X-7.615 Y-1.592
X-7.577 Y-1.611
X-7.425 Y-1.693
X-7.391 Y-1.713
X-7.25 Y-1.799
Z-2.9 F300
X-7.24 Y-1.805 F600
X-7.209 Y-1.825
X-7.058 Y-1.928
X-7.03 Y-1.948
X-6.879 Y-2.061
X-6.854 Y-2.081
X-6.703 Y-2.204
X-6.671 Y-2.232
X-6.371 Y-2.508
X-6.335 Y-2.543
X-6.038 Y-2.856
X-6.009 Y-2.888
X-5.714 Y-3.237
X-5.69 Y-3.266
X-5.399 Y-3.648
X-5.38 Y-3.674
X-5.092 Y-4.087
X-5.076 Y-4.112
X-4.793 Y-4.553
X-4.78 Y-4.575
X-4.503 Y-5.044
X-4.491 Y-5.064
X-4.22 Y-5.556
X-4.21 Y-5.575
X-3.946 Y-6.089
X-3.937 Y-6.106
X-3.681 Y-6.639
X-3.674 Y-6.656
X-3.426 Y-7.205
X-3.419 Y-7.221
X-3.182 Y-7.784
X-3.175 Y-7.8
X-2.948 Y-8.374
X-2.942 Y-8.389
X-2.726 Y-8.973
X-2.72 Y-8.988
X-2.516 Y-9.578
X-2.511 Y-9.593
X-2.32 Y-10.188
X-2.315 Y-10.204
X-2.137 Y-10.8
X-2.133 Y-10.816
X-1.969 Y-11.413
X-1.965 Y-11.43
X-1.817 Y-12.026
X-1.813 Y-12.044
X-1.681 Y-12.636
X-1.677 Y-12.655
X-1.562 Y-13.243
X-1.558 Y-13.264
X-1.461 Y-13.847
X-1.458 Y-13.869
X-1.379 Y-14.447
X-1.376 Y-14.471
X-1.316 Y-15.043
X-1.314 Y-15.068
X-1.274 Y-15.634
X-1.272 Y-15.661
X-1.253 Y-16.221
X-1.252 Y-16.249
X-1.253 Y-16.804
X-1.254 Y-16.832
X-1.276 Y-17.382
X-1.277 Y-17.411
X-1.32 Y-17.956
X-1.323 Y-17.985
X-1.387 Y-18.526
X-1.39 Y-18.555
X-1.474 Y-19.093
X-1.479 Y-19.12
X-1.583 Y-19.655
X-1.588 Y-19.681
X-1.711 Y-20.214
X-1.717 Y-20.238
X-1.858 Y-20.768
X-1.864 Y-20.79
X-2.022 Y-21.317
X-2.028 Y-21.337
X-2.2 Y-21.862
X-2.206 Y-21.88
X-2.392 Y-22.401
X-2.398 Y-22.417
X-2.595 Y-22.934
X-2.603 Y-22.953
X-3.024 Y-23.973
X-3.032 Y-23.992
X-3.475 Y-24.987
X-3.48 Y-24.998
X-3.927 Y-25.963
X-3.928 Y-25.966
X-4.148 Y-26.434
X-4.361 Y-26.891
X-4.565 Y-27.335
X-4.759 Y-27.764
X-4.94 Y-28.178
X-5.107 Y-28.575
X-5.256 Y-28.954
X-5.388 Y-29.314
X-5.5 Y-29.654
X-5.592 Y-29.972
X-5.662 Y-30.266
X-5.712 Y-30.536
X-5.74 Y-30.781
X-5.75 Y-31.016
Y-34.708
X-5.749 Y-35.921
X-5.745 Y-37.112
X-5.74 Y-38.28
X-5.732 Y-39.426
X-5.722 Y-40.55
X-5.709 Y-41.651
X-5.695 Y-42.731
X-5.678 Y-43.789
X-5.659 Y-44.825
X-5.639 Y-45.84
X-5.616 Y-46.833
X-5.591 Y-47.806
X-5.564 Y-48.758
X-5.536 Y-49.689
X-5.506 Y-50.601
X-5.474 Y-51.492
X-5.441 Y-52.364
X-5.406 Y-53.217
X-5.369 Y-54.051
X-5.332 Y-54.867
X-5.293 Y-55.664
X-5.253 Y-56.443
X-5.211 Y-57.205
X-5.169 Y-57.949
X-5.126 Y-58.676
X-5.082 Y-59.387
X-5.038 Y-60.082
X-4.993 Y-60.761
X-4.947 Y-61.424
X-4.936 Y-61.579
Z-2.4
X-4.901 Y-62.072
X-4.855 Y-62.705
X-4.809 Y-63.324
X-4.762 Y-63.928
X-4.716 Y-64.519
X-4.672 Y-65.069
Z-2.9 F300
X-4.67 Y-65.096 F600
X-4.625 Y-65.66
X-4.579 Y-66.211
X-4.535 Y-66.75
X-4.491 Y-67.276
X-4.448 Y-67.791
X-4.406 Y-68.293
X-4.365 Y-68.785
X-4.325 Y-69.265
X-4.287 Y-69.734
Y-69.735
X-4.25 Y-70.193
Y-70.194
X-4.215 Y-70.642
Y-70.643
X-4.181 Y-71.081
Y-71.083
X-4.15 Y-71.51
X-4.149 Y-71.513
X-4.093 Y-72.338
X-4.092 Y-72.345
X-4.045 Y-73.132
Y-73.14
X-4.008 Y-73.891
Y-73.902
X-3.982 Y-74.618
Y-74.631
X-3.969 Y-75.315
Y-75.33
X-3.97 Y-75.982
Y-76
X-3.986 Y-76.621
X-3.987 Y-76.642
X-4.017 Y-77.213
Y-80.949
G2 X-4.498 Y-81.934 I-1.25 J0
G1 X-7.897 Y-84.59
X-8.144 Y-84.783 Z-2.911 F1016
G2 X-9.899 Y-84.568 Z-2.98 I-0.77 J0.985
G1 X-10.26 Y-84.106 Z-3
X-13.422 Y-80.058 F600
X-13.465 Y-79.997
X-13.518 Y-79.913
X-13.555 Y-79.848
X-13.585 Y-79.781
X-13.62 Y-79.688
X-13.646 Y-79.605
X-13.713 Y-79.345
X-13.718 Y-79.322
X-13.778 Y-79.054
X-13.782 Y-79.033
X-13.836 Y-78.756
X-13.839 Y-78.736
X-13.886 Y-78.451
X-13.889 Y-78.433
X-13.93 Y-78.139
X-13.932 Y-78.122
X-13.967 Y-77.82
X-13.968 Y-77.804
X-13.997 Y-77.493
X-13.999 Y-77.478
X-14.022 Y-77.159
X-14.023 Y-77.145
X-14.041 Y-76.816
Y-76.804
X-14.054 Y-76.466
Y-76.454
X-14.062 Y-76.107
Y-76.096
X-14.065 Y-75.74
Y-75.73
X-14.063 Y-75.364
Y-75.354
X-14.057 Y-74.978
X-14.056 Y-74.97
X-14.046 Y-74.583
Y-74.576
X-14.031 Y-74.178
Y-74.172
X-14.012 Y-73.763
Y-73.757
X-13.99 Y-73.338
Y-73.333
X-13.964 Y-72.901
Y-72.897
X-13.935 Y-72.454
Y-72.45
X-13.903 Y-71.995
Y-71.992
X-13.868 Y-71.524
Y-71.521
X-13.83 Y-71.04
Y-71.038
X-13.791 Y-70.544
X-13.79 Y-70.543
X-13.749 Y-70.035
X-13.748 Y-70.034
X-13.705 Y-69.512
X-13.659 Y-68.975
X-13.611 Y-68.424
X-13.562 Y-67.858
X-13.558 Y-67.808
Z-2.4
X-13.512 Y-67.276
X-13.461 Y-66.678
X-13.409 Y-66.064
X-13.357 Y-65.433
X-13.304 Y-64.785
X-13.266 Y-64.32
Z-3 F300
X-13.25 Y-64.119 F600
X-13.197 Y-63.434
X-13.143 Y-62.731
X-13.09 Y-62.008
X-13.037 Y-61.264
X-12.985 Y-60.501
X-12.934 Y-59.716
X-12.883 Y-58.91
X-12.833 Y-58.081
X-12.785 Y-57.23
X-12.738 Y-56.356
X-12.692 Y-55.457
X-12.648 Y-54.535
X-12.606 Y-53.588
X-12.565 Y-52.615
X-12.527 Y-51.617
X-12.49 Y-50.593
X-12.456 Y-49.542
X-12.425 Y-48.464
X-12.395 Y-47.358
X-12.368 Y-46.224
X-12.344 Y-45.062
X-12.322 Y-43.871
X-12.303 Y-42.651
X-12.287 Y-41.402
X-12.274 Y-40.123
X-12.263 Y-38.814
X-12.256 Y-37.476
X-12.251 Y-36.107
X-12.25 Y-34.708
Y-31.016
X-12.26 Y-30.781
X-12.288 Y-30.536
X-12.338 Y-30.266
X-12.408 Y-29.972
X-12.5 Y-29.654
X-12.612 Y-29.314
X-12.744 Y-28.954
X-12.893 Y-28.575
X-13.06 Y-28.178
X-13.241 Y-27.764
X-13.435 Y-27.335
X-13.639 Y-26.891
X-13.852 Y-26.434
X-14.072 Y-25.966
X-14.073 Y-25.963
X-14.52 Y-24.998
X-14.525 Y-24.987
X-14.968 Y-23.992
X-14.976 Y-23.973
X-15.397 Y-22.953
X-15.405 Y-22.934
X-15.602 Y-22.417
X-15.608 Y-22.401
X-15.794 Y-21.88
X-15.8 Y-21.862
X-15.972 Y-21.337
X-15.978 Y-21.317
X-16.136 Y-20.79
X-16.142 Y-20.768
X-16.283 Y-20.238
X-16.289 Y-20.214
X-16.412 Y-19.681
X-16.417 Y-19.655
X-16.521 Y-19.12
X-16.526 Y-19.093
X-16.61 Y-18.555
X-16.613 Y-18.526
X-16.677 Y-17.985
X-16.68 Y-17.956
X-16.723 Y-17.411
X-16.724 Y-17.382
X-16.746 Y-16.832
X-16.747 Y-16.804
X-16.748 Y-16.249
X-16.747 Y-16.221
X-16.728 Y-15.661
X-16.726 Y-15.634
X-16.686 Y-15.068
X-16.684 Y-15.043
X-16.624 Y-14.471
X-16.621 Y-14.447
X-16.542 Y-13.869
X-16.539 Y-13.847
X-16.442 Y-13.264
X-16.438 Y-13.244
X-16.323 Y-12.655
X-16.319 Y-12.636
X-16.187 Y-12.044
X-16.183 Y-12.026
X-16.035 Y-11.43
X-16.031 Y-11.413
X-15.867 Y-10.816
X-15.863 Y-10.8
X-15.685 Y-10.204
X-15.68 Y-10.188
X-15.489 Y-9.593
X-15.484 Y-9.578
X-15.28 Y-8.988
X-15.274 Y-8.973
X-15.058 Y-8.389
X-15.052 Y-8.374
X-14.825 Y-7.8
X-14.818 Y-7.784
X-14.581 Y-7.221
X-14.574 Y-7.205
X-14.326 Y-6.656
X-14.319 Y-6.639
X-14.063 Y-6.106
X-14.054 Y-6.089
X-13.79 Y-5.575
X-13.78 Y-5.556
X-13.509 Y-5.064
X-13.497 Y-5.044
X-13.22 Y-4.575
X-13.207 Y-4.553
X-12.924 Y-4.112
X-12.908 Y-4.087
X-12.62 Y-3.674
X-12.601 Y-3.648
X-12.31 Y-3.266
X-12.286 Y-3.237
X-11.991 Y-2.888
X-11.962 Y-2.856
X-11.665 Y-2.543
X-11.629 Y-2.508
X-11.329 Y-2.232
X-11.297 Y-2.204
X-11.146 Y-2.081
X-11.121 Y-2.061
X-10.97 Y-1.948
X-10.942 Y-1.928
X-10.791 Y-1.825
X-10.76 Y-1.805
X-10.75 Y-1.799
Z-2.4
X-10.609 Y-1.713
X-10.575 Y-1.693
X-10.423 Y-1.611
X-10.385 Y-1.592
X-10.233 Y-1.52
X-10.192 Y-1.503
X-10.04 Y-1.442
X-9.995 Y-1.426
X-9.843 Y-1.376
X-9.795 Y-1.362
X-9.643 Y-1.323
X-9.592 Y-1.312
X-9.439 Y-1.284
X-9.387 Y-1.277
X-9.234 Y-1.26
X-9.18 Y-1.256
X-9.027 Y-1.25
X-8.973
X-8.82 Y-1.256
X-8.766 Y-1.26
X-8.613 Y-1.277
X-8.561 Y-1.284
X-8.408 Y-1.312
X-8.357 Y-1.323
X-8.205 Y-1.362
X-8.157 Y-1.376
X-8.005 Y-1.426
X-7.96 Y-1.442
X-7.808 Y-1.503
X-7.767 Y-1.521
X-7.615 Y-1.592
X-7.577 Y-1.611
X-7.425 Y-1.693
X-7.391 Y-1.713
X-7.25 Y-1.799
Z-3 F300
X-7.24 Y-1.805 F600
X-7.209 Y-1.825
X-7.058 Y-1.928
X-7.03 Y-1.948
X-6.879 Y-2.061
X-6.854 Y-2.081
X-6.703 Y-2.204
X-6.671 Y-2.232
X-6.371 Y-2.508
X-6.335 Y-2.543
X-6.038 Y-2.856
X-6.009 Y-2.888
X-5.714 Y-3.237
X-5.69 Y-3.266
X-5.399 Y-3.648
X-5.38 Y-3.674
X-5.092 Y-4.087
X-5.076 Y-4.112
X-4.793 Y-4.553
X-4.78 Y-4.575
X-4.503 Y-5.044
X-4.491 Y-5.064
X-4.22 Y-5.556
X-4.21 Y-5.575
X-3.946 Y-6.089
X-3.937 Y-6.106
X-3.681 Y-6.639
X-3.674 Y-6.656
X-3.426 Y-7.205
X-3.419 Y-7.221
X-3.182 Y-7.784
X-3.175 Y-7.8
X-2.948 Y-8.374
X-2.942 Y-8.389
X-2.726 Y-8.973
X-2.72 Y-8.988
X-2.516 Y-9.578
X-2.511 Y-9.593
X-2.32 Y-10.188
X-2.315 Y-10.204
X-2.137 Y-10.8
X-2.133 Y-10.816
X-1.969 Y-11.413
X-1.965 Y-11.43
X-1.817 Y-12.026
X-1.813 Y-12.044
X-1.681 Y-12.636
X-1.677 Y-12.655
X-1.562 Y-13.243
X-1.558 Y-13.264
X-1.461 Y-13.847
X-1.458 Y-13.869
X-1.379 Y-14.447
X-1.376 Y-14.471
X-1.316 Y-15.043
X-1.314 Y-15.068
X-1.274 Y-15.634
X-1.272 Y-15.661
X-1.253 Y-16.221
X-1.252 Y-16.249
X-1.253 Y-16.804
X-1.254 Y-16.832
X-1.276 Y-17.382
X-1.277 Y-17.411
X-1.32 Y-17.956
X-1.323 Y-17.985
X-1.387 Y-18.526
X-1.39 Y-18.555
X-1.474 Y-19.093
X-1.479 Y-19.12
X-1.583 Y-19.655
X-1.588 Y-19.681
X-1.711 Y-20.214
X-1.717 Y-20.238
X-1.858 Y-20.768
X-1.864 Y-20.79
X-2.022 Y-21.317
X-2.028 Y-21.337
X-2.2 Y-21.862
X-2.206 Y-21.88
X-2.392 Y-22.401
X-2.398 Y-22.417
X-2.595 Y-22.934
X-2.603 Y-22.953
X-3.024 Y-23.973
X-3.032 Y-23.992
X-3.475 Y-24.987
X-3.48 Y-24.998
X-3.927 Y-25.963
X-3.928 Y-25.966
X-4.148 Y-26.434
X-4.361 Y-26.891
X-4.565 Y-27.335
X-4.759 Y-27.764
X-4.94 Y-28.178
X-5.107 Y-28.575
X-5.256 Y-28.954
X-5.388 Y-29.314
X-5.5 Y-29.654
X-5.592 Y-29.972
X-5.662 Y-30.266
X-5.712 Y-30.536
X-5.74 Y-30.781
X-5.75 Y-31.016
Y-34.708
X-5.749 Y-35.921
X-5.745 Y-37.112
X-5.74 Y-38.28
X-5.732 Y-39.426
X-5.722 Y-40.55
X-5.709 Y-41.651
X-5.695 Y-42.731
X-5.678 Y-43.789
X-5.659 Y-44.825
X-5.639 Y-45.84
X-5.616 Y-46.833
X-5.591 Y-47.806
X-5.564 Y-48.758
X-5.536 Y-49.689
X-5.506 Y-50.601
X-5.474 Y-51.492
X-5.441 Y-52.364
X-5.406 Y-53.217
X-5.369 Y-54.051
X-5.332 Y-54.867
X-5.293 Y-55.664
X-5.253 Y-56.443
X-5.211 Y-57.205
X-5.169 Y-57.949
X-5.126 Y-58.676
X-5.082 Y-59.387
X-5.038 Y-60.082
X-4.993 Y-60.761
X-4.947 Y-61.424
X-4.936 Y-61.579
Z-2.4
X-4.901 Y-62.072
X-4.855 Y-62.705
X-4.809 Y-63.324
X-4.762 Y-63.928
X-4.716 Y-64.519
X-4.672 Y-65.069
Z-3 F300
X-4.67 Y-65.096 F600
X-4.625 Y-65.66
X-4.579 Y-66.211
X-4.535 Y-66.75
X-4.491 Y-67.276
X-4.448 Y-67.791
X-4.406 Y-68.293
X-4.365 Y-68.785
X-4.325 Y-69.265
X-4.287 Y-69.734
Y-69.735
X-4.25 Y-70.193
Y-70.194
X-4.215 Y-70.642
Y-70.643
X-4.181 Y-71.081
Y-71.083
X-4.15 Y-71.51
X-4.149 Y-71.513
X-4.093 Y-72.338
X-4.092 Y-72.345
X-4.045 Y-73.132
Y-73.14
X-4.008 Y-73.891
Y-73.902
X-3.982 Y-74.618
Y-74.631
X-3.969 Y-75.315
Y-75.33
X-3.97 Y-75.982
Y-76
X-3.986 Y-76.621
X-3.987 Y-76.642
X-4.017 Y-77.213
Y-80.949
G2 X-4.498 Y-81.934 I-1.25 J0
G1 X-8.144 Y-84.783
G2 X-9.899 Y-84.568 I-0.77 J0.985
G1 X-10.26 Y-84.106
Z15
(When using Fusion 360 for Personal Use, the feedrate of)
(rapid moves is reduced to match the feedrate of cutting)
(moves, which can increase machining time. Unrestricted rapid)
(moves are available with a Fusion 360 Subscription.)

(Bohrfrasen6)
G0 X-27.317 Y-25.781
G1 Z15 F600
Z2
Z0.15 F400
X-27.31 Z0.104
X-27.289 Z0.062
X-27.255 Z0.029
X-27.214 Z0.007
X-27.167 Z0
X-27.092
X-27.046 Y-25.774
X-27.004 Y-25.753
X-26.971 Y-25.719
X-26.95 Y-25.678
X-26.942 Y-25.631
G3 X-28.942 Y-25.631 Z-0.5 I-1 J0 F600
X-26.942 Y-25.631 Z-1 I1 J0
X-28.942 Y-25.631 Z-1.5 I-1 J0
X-26.942 Y-25.631 I1 J0
X-28.942 Y-25.631 I-1 J0
G1 X-28.935 Y-25.678
X-28.914 Y-25.719
X-28.88 Y-25.753
X-28.839 Y-25.774
X-28.792 Y-25.781
X-28.717
X-28.671 Z-1.493
X-28.629 Z-1.471
X-28.596 Z-1.438
X-28.575 Z-1.396
X-28.567 Z-1.35
Z5
X-20.953 Y-32.145
Z2
Z0.15 F400
X-20.946 Z0.104
X-20.925 Z0.062
X-20.891 Z0.029
X-20.85 Z0.007
X-20.803 Z0
X-20.728
X-20.682 Y-32.138
X-20.64 Y-32.117
X-20.607 Y-32.083
X-20.586 Y-32.042
X-20.578 Y-31.995
G3 X-22.578 Y-31.995 Z-0.5 I-1 J0 F600
X-20.578 Y-31.995 Z-1 I1 J0
X-22.578 Y-31.995 Z-1.5 I-1 J0
X-20.578 Y-31.995 I1 J0
X-22.578 Y-31.995 I-1 J0
G1 X-22.571 Y-32.042
X-22.55 Y-32.083
X-22.516 Y-32.117
X-22.475 Y-32.138
X-22.428 Y-32.145
X-22.353
X-22.307 Z-1.493
X-22.265 Z-1.471
X-22.232 Z-1.438
X-22.211 Z-1.396
X-22.203 Z-1.35
Z15
(When using Fusion 360 for Personal Use, the feedrate of)
(rapid moves is reduced to match the feedrate of cutting)
(moves, which can increase machining time. Unrestricted rapid)
(moves are available with a Fusion 360 Subscription.)

(Bohrfrasen4)
G0 X-24.335 Y-19.463
G1 Z15 F600
Z2
Z0.15 F400
X-24.328 Z0.104
X-24.307 Z0.062
X-24.273 Z0.029
X-24.232 Z0.007
X-24.185 Z0
X-24.11
X-24.064 Y-19.456
X-24.022 Y-19.435
X-23.989 Y-19.401
X-23.968 Y-19.36
X-23.96 Y-19.313
G3 X-25.56 Y-19.313 Z-0.5 I-0.8 J0 F600
X-23.96 Y-19.313 Z-1 I0.8 J0
X-25.56 Y-19.313 Z-1.5 I-0.8 J0
X-23.96 Y-19.313 Z-2 I0.8 J0
X-25.56 Y-19.313 Z-2.5 I-0.8 J0
X-23.96 Y-19.313 Z-3 I0.8 J0
X-24.513 Y-18.552 Z-3.2 I-0.8 J0
X-25.007 Y-20.074 I-0.247 J-0.761
X-24.513 Y-18.552 I0.247 J0.761
G1 X-24.559 Y-18.545
X-24.606 Y-18.552
X-24.648 Y-18.574
X-24.681 Y-18.607
X-24.702 Y-18.649
X-24.725 Y-18.72
X-24.74 Y-18.764 Z-3.193
X-24.752 Y-18.804 Z-3.171
X-24.763 Y-18.835 Z-3.138
X-24.769 Y-18.856 Z-3.096
X-24.772 Y-18.863 Z-3.05
Z5
X-27.967 Y-25.781
Z0.5
Z-1.35 F400
X-27.96 Z-1.396
X-27.939 Z-1.438
X-27.905 Z-1.471
X-27.864 Z-1.493
X-27.817 Z-1.5
X-27.742
X-27.696 Y-25.774
X-27.654 Y-25.753
X-27.621 Y-25.719
X-27.6 Y-25.678
X-27.592 Y-25.631
G3 X-28.292 Y-25.631 Z-2 I-0.35 J0 F600
X-27.592 Y-25.631 Z-2.5 I0.35 J0
X-28.292 Y-25.631 Z-3 I-0.35 J0
X-28.05 Y-25.964 Z-3.2 I0.35 J0
X-27.834 Y-25.298 I0.108 J0.333
X-28.05 Y-25.964 I-0.108 J-0.333
G1 X-28.004 Y-25.971
X-27.958 Y-25.964
X-27.916 Y-25.943
X-27.883 Y-25.91
X-27.861 Y-25.868
X-27.838 Y-25.796
X-27.824 Y-25.752 Z-3.193
X-27.811 Y-25.713 Z-3.171
X-27.801 Y-25.681 Z-3.138
X-27.794 Y-25.661 Z-3.096
X-27.792 Y-25.654 Z-3.05
Z5
X-21.003 Y-25.781
Z2
Z0.15 F400
X-20.996 Z0.104
X-20.975 Z0.062
X-20.941 Z0.029
X-20.9 Z0.007
X-20.853 Z0
X-20.778
X-20.732 Y-25.774
X-20.69 Y-25.753
X-20.657 Y-25.719
X-20.636 Y-25.678
X-20.628 Y-25.631
G3 X-22.528 Y-25.631 Z-0.5 I-0.95 J0 F600
X-20.628 Y-25.631 Z-1 I0.95 J0
X-22.528 Y-25.631 Z-1.5 I-0.95 J0
X-20.628 Y-25.631 Z-2 I0.95 J0
X-22.528 Y-25.631 Z-2.5 I-0.95 J0
X-20.628 Y-25.631 Z-3 I0.95 J0
X-21.285 Y-24.728 Z-3.2 I-0.95 J0
X-21.872 Y-26.535 I-0.294 J-0.904
X-21.285 Y-24.728 I0.294 J0.904
G1 X-21.331 Y-24.72
X-21.377 Y-24.728
X-21.419 Y-24.749
X-21.452 Y-24.782
X-21.474 Y-24.824
X-21.497 Y-24.895
X-21.511 Y-24.939 Z-3.193
X-21.524 Y-24.979 Z-3.171
X-21.534 Y-25.011 Z-3.138
X-21.541 Y-25.031 Z-3.096
X-21.543 Y-25.038 Z-3.05
Z5
X-21.603 Y-32.145
Z0.5
Z-1.35 F400
X-21.596 Z-1.396
X-21.575 Z-1.438
X-21.541 Z-1.471
X-21.5 Z-1.493
X-21.453 Z-1.5
X-21.378
X-21.332 Y-32.138
X-21.29 Y-32.117
X-21.257 Y-32.083
X-21.236 Y-32.042
X-21.228 Y-31.995
G3 X-21.928 Y-31.995 Z-2 I-0.35 J0 F600
X-21.228 Y-31.995 Z-2.5 I0.35 J0
X-21.928 Y-31.995 Z-3 I-0.35 J0
X-21.686 Y-32.328 Z-3.2 I0.35 J0
X-21.47 Y-31.662 I0.108 J0.333
X-21.686 Y-32.328 I-0.108 J-0.333
G1 X-21.64 Y-32.335
X-21.594 Y-32.328
X-21.552 Y-32.307
X-21.519 Y-32.274
X-21.497 Y-32.232
X-21.474 Y-32.16
X-21.46 Y-32.116 Z-3.193
X-21.447 Y-32.077 Z-3.171
X-21.437 Y-32.045 Z-3.138
X-21.43 Y-32.025 Z-3.096
X-21.428 Y-32.018 Z-3.05
Z5
X-23.185 Y-28.963
Z2
Z0.15 F400
X-23.178 Z0.104
X-23.157 Z0.062
X-23.123 Z0.029
X-23.082 Z0.007
X-23.035 Z0
X-22.96
X-22.914 Y-28.956
X-22.872 Y-28.935
X-22.839 Y-28.901
X-22.818 Y-28.86
X-22.81 Y-28.813
G3 X-26.71 Y-28.813 Z-0.5 I-1.95 J0 F600
X-22.81 Y-28.813 Z-1 I1.95 J0
X-26.71 Y-28.813 Z-1.5 I-1.95 J0
X-22.81 Y-28.813 Z-2 I1.95 J0
X-26.71 Y-28.813 Z-2.5 I-1.95 J0
X-22.81 Y-28.813 Z-3 I1.95 J0
X-24.158 Y-26.959 Z-3.2 I-1.95 J0
X-25.363 Y-30.668 I-0.603 J-1.855
X-24.158 Y-26.959 I0.603 J1.855
G1 X-24.204 Y-26.951
X-24.25 Y-26.959
X-24.292 Y-26.98
X-24.325 Y-27.013
X-24.347 Y-27.055
X-24.37 Y-27.126
X-24.384 Y-27.17 Z-3.193
X-24.397 Y-27.21 Z-3.171
X-24.407 Y-27.242 Z-3.138
X-24.414 Y-27.262 Z-3.096
X-24.416 Y-27.269 Z-3.05
Z5
X-27.367 Y-32.145
Z2
Z0.15 F400
X-27.36 Z0.104
X-27.339 Z0.062
X-27.305 Z0.029
X-27.264 Z0.007
X-27.217 Z0
X-27.142
X-27.096 Y-32.138
X-27.054 Y-32.117
X-27.021 Y-32.083
X-27 Y-32.042
X-26.992 Y-31.995
G3 X-28.892 Y-31.995 Z-0.5 I-0.95 J0 F600
X-26.992 Y-31.995 Z-1 I0.95 J0
X-28.892 Y-31.995 Z-1.5 I-0.95 J0
X-26.992 Y-31.995 Z-2 I0.95 J0
X-28.892 Y-31.995 Z-2.5 I-0.95 J0
X-26.992 Y-31.995 Z-3 I0.95 J0
X-27.649 Y-31.092 Z-3.2 I-0.95 J0
X-28.236 Y-32.899 I-0.294 J-0.904
X-27.649 Y-31.092 I0.294 J0.904
G1 X-27.695 Y-31.084
X-27.741 Y-31.092
X-27.783 Y-31.113
X-27.816 Y-31.146
X-27.838 Y-31.188
X-27.861 Y-31.259
X-27.875 Y-31.303 Z-3.193
X-27.888 Y-31.343 Z-3.171
X-27.898 Y-31.375 Z-3.138
X-27.905 Y-31.395 Z-3.096
X-27.907 Y-31.402 Z-3.05
Z5
X-24.335 Y-38.463
Z2
Z0.15 F400
X-24.328 Z0.104
X-24.307 Z0.062
X-24.273 Z0.029
X-24.232 Z0.007
X-24.185 Z0
X-24.11
X-24.064 Y-38.456
X-24.022 Y-38.435
X-23.989 Y-38.401
X-23.968 Y-38.36
X-23.96 Y-38.313
G3 X-25.56 Y-38.313 Z-0.5 I-0.8 J0 F600
X-23.96 Y-38.313 Z-1 I0.8 J0
X-25.56 Y-38.313 Z-1.5 I-0.8 J0
X-23.96 Y-38.313 Z-2 I0.8 J0
X-25.56 Y-38.313 Z-2.5 I-0.8 J0
X-23.96 Y-38.313 Z-3 I0.8 J0
X-24.513 Y-37.552 Z-3.2 I-0.8 J0
X-25.007 Y-39.074 I-0.247 J-0.761
X-24.513 Y-37.552 I0.247 J0.761
G1 X-24.559 Y-37.545
X-24.606 Y-37.552
X-24.648 Y-37.574
X-24.681 Y-37.607
X-24.702 Y-37.649
X-24.725 Y-37.72
X-24.74 Y-37.764 Z-3.193
X-24.752 Y-37.804 Z-3.171
X-24.763 Y-37.835 Z-3.138
X-24.769 Y-37.856 Z-3.096
X-24.772 Y-37.863 Z-3.05
Z5
X-24.335 Y-74.223
Z2
Z0.15 F400
X-24.328 Z0.104
X-24.307 Z0.062
X-24.273 Z0.029
X-24.232 Z0.007
X-24.185 Z0
X-24.11
X-24.064 Y-74.216
X-24.022 Y-74.195
X-23.989 Y-74.162
X-23.968 Y-74.12
X-23.96 Y-74.073
G3 X-25.56 Y-74.073 Z-0.5 I-0.8 J0 F600
X-23.96 Y-74.073 Z-1 I0.8 J0
X-25.56 Y-74.073 Z-1.5 I-0.8 J0
X-23.96 Y-74.073 Z-2 I0.8 J0
X-25.56 Y-74.073 Z-2.5 I-0.8 J0
X-23.96 Y-74.073 Z-3 I0.8 J0
X-24.513 Y-73.313 Z-3.2 I-0.8 J0
X-25.007 Y-74.834 I-0.247 J-0.761
X-24.513 Y-73.313 I0.247 J0.761
G1 X-24.559 Y-73.305
X-24.606 Y-73.313
X-24.648 Y-73.334
X-24.681 Y-73.367
X-24.702 Y-73.409
X-24.725 Y-73.48
X-24.74 Y-73.524 Z-3.193
X-24.752 Y-73.564 Z-3.171
X-24.763 Y-73.596 Z-3.138
X-24.769 Y-73.616 Z-3.096
X-24.772 Y-73.623 Z-3.05
Z5
X-23.062 Y-82.927
Z2
Z0.15 F400
X-23.054 Z0.104
X-23.033 Z0.062
X-23 Z0.029
X-22.958 Z0.007
X-22.912 Z0
X-22.837
X-22.79 Y-82.919
X-22.749 Y-82.898
X-22.715 Y-82.865
X-22.694 Y-82.823
X-22.687 Y-82.777
G3 X-23.387 Y-82.777 Z-0.5 I-0.35 J0 F600
X-22.687 Y-82.777 Z-1 I0.35 J0
X-23.387 Y-82.777 Z-1.5 I-0.35 J0
X-22.687 Y-82.777 Z-2 I0.35 J0
X-23.387 Y-82.777 Z-2.5 I-0.35 J0
X-22.687 Y-82.777 Z-3 I0.35 J0
X-22.929 Y-82.444 Z-3.2 I-0.35 J0
X-23.145 Y-83.109 I-0.108 J-0.333
X-22.929 Y-82.444 I0.108 J0.333
G1 X-22.975 Y-82.436
X-23.021 Y-82.444
X-23.063 Y-82.465
X-23.096 Y-82.498
X-23.118 Y-82.54
X-23.141 Y-82.611
X-23.155 Y-82.655 Z-3.193
X-23.168 Y-82.695 Z-3.171
X-23.178 Y-82.727 Z-3.138
X-23.185 Y-82.747 Z-3.096
X-23.187 Y-82.754 Z-3.05
Z15
(When using Fusion 360 for Personal Use, the feedrate of)
(rapid moves is reduced to match the feedrate of cutting)
(moves, which can increase machining time. Unrestricted rapid)
(moves are available with a Fusion 360 Subscription.)

(2D-Kontur6)
G0 X-28.559 Y-69.787
G1 Z15 F600
Z4.8
Z2.3 F300
X-28.545 Y-69.543 Z2.291 F1016
X-28.498 Y-68.669 Z2.261
X-28.452 Y-67.771 Z2.229
X-28.408 Y-66.848 Z2.197
X-28.366 Y-65.901 Z2.164
X-28.326 Y-64.929 Z2.13
X-28.287 Y-63.93 Z2.095
X-28.251 Y-62.906 Z2.059
X-28.217 Y-61.855 Z2.023
X-28.185 Y-60.777 Z1.985
X-28.155 Y-59.671 Z1.946
X-28.128 Y-58.537 Z1.907
X-28.104 Y-57.375 Z1.866
X-28.082 Y-56.184 Z1.825
X-28.063 Y-54.964 Z1.782
X-28.047 Y-53.715 Z1.738
X-28.034 Y-52.436 Z1.694
X-28.024 Y-51.128 Z1.648
X-28.016 Y-49.789 Z1.601
X-28.012 Y-48.42 Z1.554
X-28.01 Y-47.021 Z1.505
Y-43.329 Z1.376
X-28.02 Y-43.094 Z1.368
X-28.049 Y-42.85 Z1.359
X-28.098 Y-42.579 Z1.349
X-28.168 Y-42.285 Z1.339
X-28.26 Y-41.967 Z1.327
X-28.372 Y-41.627 Z1.315
X-28.504 Y-41.267 Z1.301
X-28.654 Y-40.888 Z1.287
X-28.82 Y-40.491 Z1.272
X-29.001 Y-40.077 Z1.256
X-29.195 Y-39.648 Z1.24
X-29.399 Y-39.205 Z1.223
X-29.613 Y-38.748 Z1.205
X-29.832 Y-38.279 Z1.187
X-29.834 Y-38.276
X-30.281 Y-37.311 Z1.15
X-30.286 Y-37.301 Z1.149
X-30.728 Y-36.305 Z1.111
X-30.736 Y-36.286
X-31.158 Y-35.266 Z1.072
X-31.165 Y-35.247 Z1.071
X-31.362 Y-34.73 Z1.052
X-31.368 Y-34.714
X-31.554 Y-34.193 Z1.032
X-31.56 Y-34.175
X-31.732 Y-33.65 Z1.012
X-31.739 Y-33.631
X-31.896 Y-33.103 Z0.992
X-31.902 Y-33.081 Z0.991
X-32.043 Y-32.551 Z0.972
X-32.049 Y-32.527 Z0.971
X-32.172 Y-31.994 Z0.952
X-32.177 Y-31.969 Z0.951
X-32.281 Y-31.433 Z0.932
X-32.286 Y-31.406 Z0.931
X-32.37 Y-30.868 Z0.912
X-32.374 Y-30.84 Z0.911
X-32.437 Y-30.298 Z0.892
X-32.44 Y-30.269 Z0.891
X-32.483 Y-29.724 Z0.872
X-32.485 Y-29.695 Z0.871
X-32.507 Y-29.145 Z0.852
Y-29.117 Z0.851
X-32.508 Y-28.562 Z0.832
Y-28.534 Z0.831
X-32.488 Y-27.974 Z0.811
X-32.486 Y-27.947 Z0.81
X-32.446 Y-27.381 Z0.79
X-32.444 Y-27.356
X-32.384 Y-26.784 Z0.769
X-32.382 Y-26.76
X-32.303 Y-26.183 Z0.748
X-32.299 Y-26.161 Z0.747
X-32.202 Y-25.577 Z0.727
X-32.198 Y-25.557 Z0.726
X-32.083 Y-24.968 Z0.705
X-32.079 Y-24.949 Z0.704
X-31.947 Y-24.357 Z0.683
X-31.943 Y-24.339
X-31.795 Y-23.743 Z0.661
X-31.791 Y-23.726
X-31.628 Y-23.13 Z0.639
X-31.623 Y-23.113 Z0.638
X-31.445 Y-22.517 Z0.617
X-31.44 Y-22.501 Z0.616
X-31.249 Y-21.907 Z0.594
X-31.244 Y-21.891
X-31.04 Y-21.301 Z0.572
X-31.034 Y-21.286 Z0.571
X-30.818 Y-20.703 Z0.55
X-30.812 Y-20.687 Z0.549
X-30.585 Y-20.113 Z0.527
X-30.579 Y-20.097
X-30.341 Y-19.534 Z0.506
X-30.334 Y-19.518 Z0.505
X-30.087 Y-18.969 Z0.484
X-30.079 Y-18.952 Z0.483
X-29.823 Y-18.42 Z0.463
X-29.814 Y-18.402 Z0.462
X-29.55 Y-17.888 Z0.442
X-29.54 Y-17.869 Z0.441
X-29.269 Y-17.377 Z0.421
X-29.258 Y-17.357
X-28.98 Y-16.889 Z0.402
X-28.967 Y-16.866 Z0.401
X-28.684 Y-16.425 Z0.382
X-28.668 Y-16.4 Z0.381
X-28.381 Y-15.988 Z0.364
X-28.361 Y-15.961 Z0.363
X-28.07 Y-15.579 Z0.346
X-28.046 Y-15.55 Z0.345
X-27.751 Y-15.202 Z0.329
X-27.722 Y-15.169 Z0.327
X-27.425 Y-14.856 Z0.312
X-27.389 Y-14.821 Z0.31
X-27.089 Y-14.546 Z0.296
X-27.057 Y-14.517 Z0.295
X-26.906 Y-14.394 Z0.288
X-26.881 Y-14.375 Z0.287
X-26.731 Y-14.262 Z0.28
X-26.703 Y-14.242 Z0.279
X-26.551 Y-14.139 Z0.272
X-26.52 Y-14.119 Z0.271
X-26.369 Y-14.026 Z0.265
X-26.335 Y-14.006 Z0.264
X-26.183 Y-13.924 Z0.258
X-26.145 Y-13.905 Z0.256
X-25.993 Y-13.834 Z0.25
X-25.952 Y-13.816 Z0.249
X-25.8 Y-13.755 Z0.243
X-25.755 Y-13.739 Z0.241
X-25.603 Y-13.689 Z0.236
X-25.555 Y-13.675 Z0.234
X-25.403 Y-13.636 Z0.228
X-25.352 Y-13.625 Z0.227
X-25.2 Y-13.598 Z0.221
X-25.147 Y-13.59 Z0.219
X-24.994 Y-13.573 Z0.214
X-24.94 Y-13.569 Z0.212
X-24.788 Y-13.564 Z0.207
X-24.733 Z0.205
X-24.58 Y-13.569 Z0.2
X-24.526 Y-13.573 Z0.198
X-24.374 Y-13.59 Z0.192
X-24.321 Y-13.598 Z0.19
X-24.168 Y-13.625 Z0.185
X-24.118 Y-13.636 Z0.183
X-23.965 Y-13.675 Z0.178
X-23.917 Y-13.689 Z0.176
X-23.765 Y-13.739 Z0.17
X-23.72 Y-13.755 Z0.169
X-23.568 Y-13.816 Z0.163
X-23.527 Y-13.834 Z0.161
X-23.375 Y-13.905 Z0.156
X-23.337 Y-13.924 Z0.154
X-23.186 Y-14.006 Z0.148
X-23.151 Y-14.026 Z0.147
X-23 Y-14.119 Z0.14
X-22.969 Y-14.139 Z0.139
X-22.818 Y-14.242 Z0.133
X-22.79 Y-14.261 Z0.132
X-22.639 Y-14.375 Z0.125
X-22.614 Y-14.394 Z0.124
X-22.464 Y-14.517 Z0.117
X-22.431 Y-14.546 Z0.116
X-22.131 Y-14.821 Z0.101
X-22.095 Y-14.856 Z0.1
X-21.798 Y-15.169 Z0.085
X-21.769 Y-15.202 Z0.083
X-21.474 Y-15.55 Z0.067
X-21.451 Y-15.579 Z0.066
X-21.159 Y-15.961 Z0.049
X-21.14 Y-15.988 Z0.048
X-20.852 Y-16.401 Z0.03
X-20.836 Y-16.425 Z0.029
X-20.554 Y-16.866 Z0.011
X-20.54 Y-16.889 Z0.01
X-20.263 Y-17.357 Z-0.009
X-20.251 Y-17.377 Z-0.01
X-19.98 Y-17.869 Z-0.029
X-19.97 Y-17.888 Z-0.03
X-19.706 Y-18.402 Z-0.05
X-19.698 Y-18.42 Z-0.051
X-19.442 Y-18.952 Z-0.072
X-19.434 Y-18.969
X-19.187 Y-19.518 Z-0.093
X-19.179 Y-19.534 Z-0.094
X-18.942 Y-20.097 Z-0.115
X-18.935 Y-20.113 Z-0.116
X-18.708 Y-20.687 Z-0.137
X-18.702 Y-20.703 Z-0.138
X-18.486 Y-21.286 Z-0.16
X-18.48 Y-21.301
X-18.276 Y-21.891 Z-0.182
X-18.271 Y-21.907 Z-0.183
X-18.08 Y-22.501 Z-0.204
X-18.075 Y-22.517 Z-0.205
X-17.898 Y-23.113 Z-0.227
X-17.893 Y-23.13
X-17.73 Y-23.726 Z-0.249
X-17.725 Y-23.743 Z-0.25
X-17.577 Y-24.339 Z-0.271
X-17.573 Y-24.357 Z-0.272
X-17.441 Y-24.949 Z-0.293
X-17.437 Y-24.968 Z-0.294
X-17.322 Y-25.557 Z-0.314
X-17.319 Y-25.577 Z-0.315
X-17.221 Y-26.161 Z-0.336
X-17.218 Y-26.183 Z-0.337
X-17.139 Y-26.76 Z-0.357
X-17.136 Y-26.784 Z-0.358
X-17.076 Y-27.356 Z-0.378
X-17.074 Y-27.381 Z-0.379
X-17.034 Y-27.947 Z-0.399
X-17.033 Y-27.974 Z-0.4
X-17.013 Y-28.534 Z-0.419
X-17.012 Y-28.562 Z-0.42
X-17.013 Y-29.117 Z-0.439
X-17.014 Y-29.145 Z-0.44
X-17.036 Y-29.695 Z-0.46
X-17.037 Y-29.724 Z-0.461
X-17.08 Y-30.269 Z-0.48
X-17.083 Y-30.298 Z-0.481
X-17.147 Y-30.84 Z-0.5
Y-30.845
X-17.151 Y-30.868 F600
X-17.235 Y-31.406
X-17.239 Y-31.433
X-17.343 Y-31.968
X-17.349 Y-31.994
X-17.472 Y-32.527
X-17.477 Y-32.551
X-17.618 Y-33.081
X-17.624 Y-33.103
X-17.782 Y-33.631
X-17.788 Y-33.65
X-17.96 Y-34.175
X-17.966 Y-34.193
X-18.152 Y-34.714
X-18.158 Y-34.73
X-18.355 Y-35.247
X-18.363 Y-35.266
X-18.784 Y-36.286
X-18.792 Y-36.305
X-19.235 Y-37.301
X-19.24 Y-37.311
X-19.687 Y-38.276
X-19.688 Y-38.279
X-19.908 Y-38.748
X-20.121 Y-39.205
X-20.326 Y-39.648
X-20.52 Y-40.077
X-20.701 Y-40.491
X-20.867 Y-40.888
X-21.016 Y-41.267
X-21.148 Y-41.627
X-21.26 Y-41.967
X-21.352 Y-42.285
X-21.422 Y-42.579
X-21.472 Y-42.85
X-21.5 Y-43.094
X-21.51 Y-43.329
Y-47.021
X-21.509 Y-48.235
X-21.506 Y-49.425
X-21.5 Y-50.594
X-21.492 Y-51.739
X-21.482 Y-52.863
X-21.47 Y-53.965
X-21.455 Y-55.044
X-21.438 Y-56.102
X-21.42 Y-57.138
X-21.399 Y-58.153
X-21.376 Y-59.146
X-21.351 Y-60.119
X-21.325 Y-61.071
X-21.296 Y-62.003
X-21.266 Y-62.914
X-21.234 Y-63.806
X-21.201 Y-64.678
X-21.166 Y-65.531
X-21.13 Y-66.364
X-21.092 Y-67.18
X-21.053 Y-67.977
X-21.013 Y-68.756
X-20.972 Y-69.518
X-20.929 Y-70.262
X-20.886 Y-70.99
X-20.842 Y-71.701
X-20.798 Y-72.395
X-20.753 Y-73.074
X-20.707 Y-73.737
X-20.661 Y-74.385
X-20.615 Y-75.018
X-20.569 Y-75.637
X-20.523 Y-76.242
X-20.476 Y-76.832
