(1001)
(Bearbeiten)
(  Hersteller: ChinaCnc)
(  model: 3040T)
(  description: Generic 3-axis)
(T14  D=1.5 CR=0 - ZMIN=-3 - Schaftfraser)
G90 G94
G17
G21
G28 G91 Z0
G90

(Bohrfrasen4)
T14
S6000 M3
G54
G0 X-8.625 Y-7.15
Z15
Z2
G1 Z0.15 F400
X-8.618 Z0.104
X-8.596 Z0.062
X-8.563 Z0.029
X-8.521 Z0.007
X-8.475 Z0
X-8.4
X-8.354 Y-7.143
X-8.312 Y-7.121
X-8.279 Y-7.088
X-8.257 Y-7.046
X-8.25 Y-7
G3 X-9.75 Y-7 Z-0.5 I-0.75 J0 F600
X-8.25 Y-7 Z-1 I0.75 J0
X-9.75 Y-7 Z-1.5 I-0.75 J0
X-8.25 Y-7 Z-2 I0.75 J0
X-9.75 Y-7 Z-2.5 I-0.75 J0
X-8.25 Y-7 Z-3 I0.75 J0
X-9.75 Y-7 I-0.75 J0
X-8.25 Y-7 I0.75 J0
G1 X-8.257 Y-6.954
X-8.279 Y-6.912
X-8.312 Y-6.879
X-8.354 Y-6.857
X-8.4 Y-6.85
X-8.475
X-8.521 Z-2.993
X-8.563 Z-2.971
X-8.596 Z-2.938
X-8.618 Z-2.896
X-8.625 Z-2.85
G0 Z5
X-5.043 Y-13.468
Z2
G1 Z0.15 F400
X-5.036 Z0.104
X-5.014 Z0.062
X-4.981 Z0.029
X-4.939 Z0.007
X-4.893 Z0
X-4.818
X-4.772 Y-13.461
X-4.73 Y-13.439
X-4.697 Y-13.406
X-4.675 Y-13.364
X-4.668 Y-13.318
G3 X-6.968 Y-13.318 Z-0.5 I-1.15 J0 F600
X-4.668 Y-13.318 Z-1 I1.15 J0
X-6.968 Y-13.318 Z-1.5 I-1.15 J0
X-4.668 Y-13.318 Z-2 I1.15 J0
X-6.968 Y-13.318 Z-2.5 I-1.15 J0
X-4.668 Y-13.318 Z-3 I1.15 J0
X-6.968 Y-13.318 I-1.15 J0
X-4.668 Y-13.318 I1.15 J0
G1 X-4.675 Y-13.272
X-4.697 Y-13.23
X-4.73 Y-13.197
X-4.772 Y-13.175
X-4.818 Y-13.168
X-4.893
X-4.939 Z-2.993
X-4.981 Z-2.971
X-5.014 Z-2.938
X-5.036 Z-2.896
X-5.043 Z-2.85
G0 Z5
X-11.407 Y-13.468
Z2
G1 Z0.15 F400
X-11.4 Z0.104
X-11.378 Z0.062
X-11.345 Z0.029
X-11.303 Z0.007
X-11.257 Z0
X-11.182
X-11.136 Y-13.461
X-11.094 Y-13.439
X-11.061 Y-13.406
X-11.039 Y-13.364
X-11.032 Y-13.318
G3 X-13.332 Y-13.318 Z-0.5 I-1.15 J0 F600
X-11.032 Y-13.318 Z-1 I1.15 J0
X-13.332 Y-13.318 Z-1.5 I-1.15 J0
X-11.032 Y-13.318 I1.15 J0
X-13.332 Y-13.318 I-1.15 J0
G1 X-13.325 Y-13.364
X-13.303 Y-13.406
X-13.27 Y-13.439
X-13.228 Y-13.461
X-13.182 Y-13.468
X-13.107
X-13.061 Z-1.493
X-13.019 Z-1.471
X-12.986 Z-1.438
X-12.964 Z-1.396
X-12.957 Z-1.35
G0 Z5
X-12.107
Z0.5
G1 Z-1.35 F400
X-12.1 Z-1.396
X-12.078 Z-1.438
X-12.045 Z-1.471
X-12.003 Z-1.493
X-11.957 Z-1.5
X-11.882
X-11.836 Y-13.461
X-11.794 Y-13.439
X-11.761 Y-13.406
X-11.739 Y-13.364
X-11.732 Y-13.318
G3 X-12.632 Y-13.318 Z-2 I-0.45 J0 F600
X-11.732 Y-13.318 Z-2.5 I0.45 J0
X-12.632 Y-13.318 Z-3 I-0.45 J0
X-11.732 Y-13.318 I0.45 J0
X-12.632 Y-13.318 I-0.45 J0
G1 X-12.625 Y-13.364
X-12.603 Y-13.406
X-12.57 Y-13.439
X-12.528 Y-13.461
X-12.482 Y-13.468
X-12.407
X-12.361 Z-2.993
X-12.319 Z-2.971
X-12.286 Z-2.938
X-12.264 Z-2.896
X-12.257 Z-2.85
G0 Z5
X-11.407 Y-19.832
Z2
G1 Z0.15 F400
X-11.4 Z0.104
X-11.378 Z0.062
X-11.345 Z0.029
X-11.303 Z0.007
X-11.257 Z0
X-11.182
X-11.136 Y-19.825
X-11.094 Y-19.803
X-11.061 Y-19.77
X-11.039 Y-19.728
X-11.032 Y-19.682
G3 X-13.332 Y-19.682 Z-0.5 I-1.15 J0 F600
X-11.032 Y-19.682 Z-1 I1.15 J0
X-13.332 Y-19.682 Z-1.5 I-1.15 J0
X-11.032 Y-19.682 Z-2 I1.15 J0
X-13.332 Y-19.682 Z-2.5 I-1.15 J0
X-11.032 Y-19.682 Z-3 I1.15 J0
X-13.332 Y-19.682 I-1.15 J0
X-11.032 Y-19.682 I1.15 J0
G1 X-11.039 Y-19.636
X-11.061 Y-19.594
X-11.094 Y-19.561
X-11.136 Y-19.539
X-11.182 Y-19.532
X-11.257
X-11.303 Z-2.993
X-11.345 Z-2.971
X-11.378 Z-2.938
X-11.4 Z-2.896
X-11.407 Z-2.85
G0 Z5
X-7.625 Y-16.65
Z2
G1 Z0.15 F400
X-7.618 Z0.104
X-7.596 Z0.062
X-7.563 Z0.029
X-7.521 Z0.007
X-7.475 Z0
X-7.4
X-7.354 Y-16.643
X-7.312 Y-16.621
X-7.279 Y-16.588
X-7.257 Y-16.546
X-7.25 Y-16.5
G3 X-10.75 Y-16.5 Z-0.5 I-1.75 J0 F600
X-7.25 Y-16.5 Z-1 I1.75 J0
X-10.75 Y-16.5 Z-1.5 I-1.75 J0
X-7.25 Y-16.5 Z-2 I1.75 J0
X-10.75 Y-16.5 Z-2.5 I-1.75 J0
X-7.25 Y-16.5 Z-3 I1.75 J0
X-10.75 Y-16.5 I-1.75 J0
X-7.25 Y-16.5 I1.75 J0
G1 X-7.257 Y-16.454
X-7.279 Y-16.412
X-7.312 Y-16.379
X-7.354 Y-16.357
X-7.4 Y-16.35
X-7.475
X-7.521 Z-2.993
X-7.563 Z-2.971
X-7.596 Z-2.938
X-7.618 Z-2.896
X-7.625 Z-2.85
G0 Z5
X-5.043 Y-19.832
Z2
G1 Z0.15 F400
X-5.036 Z0.104
X-5.014 Z0.062
X-4.981 Z0.029
X-4.939 Z0.007
X-4.893 Z0
X-4.818
X-4.772 Y-19.825
X-4.73 Y-19.803
X-4.697 Y-19.77
X-4.675 Y-19.728
X-4.668 Y-19.682
G3 X-6.968 Y-19.682 Z-0.5 I-1.15 J0 F600
X-4.668 Y-19.682 Z-1 I1.15 J0
X-6.968 Y-19.682 Z-1.5 I-1.15 J0
X-4.668 Y-19.682 I1.15 J0
X-6.968 Y-19.682 I-1.15 J0
G1 X-6.961 Y-19.728
X-6.939 Y-19.77
X-6.906 Y-19.803
X-6.864 Y-19.825
X-6.818 Y-19.832
X-6.743
X-6.697 Z-1.493
X-6.655 Z-1.471
X-6.622 Z-1.438
X-6.6 Z-1.396
X-6.593 Z-1.35
G0 Z5
X-5.743
Z0.5
G1 Z-1.35 F400
X-5.736 Z-1.396
X-5.714 Z-1.438
X-5.681 Z-1.471
X-5.639 Z-1.493
X-5.593 Z-1.5
X-5.518
X-5.472 Y-19.825
X-5.43 Y-19.803
X-5.397 Y-19.77
X-5.375 Y-19.728
X-5.368 Y-19.682
G3 X-6.268 Y-19.682 Z-2 I-0.45 J0 F600
X-5.368 Y-19.682 Z-2.5 I0.45 J0
X-6.268 Y-19.682 Z-3 I-0.45 J0
X-5.368 Y-19.682 I0.45 J0
X-6.268 Y-19.682 I-0.45 J0
G1 X-6.261 Y-19.728
X-6.239 Y-19.77
X-6.206 Y-19.803
X-6.164 Y-19.825
X-6.118 Y-19.832
X-6.043
X-5.997 Z-2.993
X-5.955 Z-2.971
X-5.922 Z-2.938
X-5.9 Z-2.896
X-5.893 Z-2.85
G0 Z5
X-8.625 Y-26.15
Z2
G1 Z0.15 F400
X-8.618 Z0.104
X-8.596 Z0.062
X-8.563 Z0.029
X-8.521 Z0.007
X-8.475 Z0
X-8.4
X-8.354 Y-26.143
X-8.312 Y-26.121
X-8.279 Y-26.088
X-8.257 Y-26.046
X-8.25 Y-26
G3 X-9.75 Y-26 Z-0.5 I-0.75 J0 F600
X-8.25 Y-26 Z-1 I0.75 J0
X-9.75 Y-26 Z-1.5 I-0.75 J0
X-8.25 Y-26 Z-2 I0.75 J0
X-9.75 Y-26 Z-2.5 I-0.75 J0
X-8.25 Y-26 Z-3 I0.75 J0
X-9.75 Y-26 I-0.75 J0
X-8.25 Y-26 I0.75 J0
G1 X-8.257 Y-25.954
X-8.279 Y-25.912
X-8.312 Y-25.879
X-8.354 Y-25.857
X-8.4 Y-25.85
X-8.475
X-8.521 Z-2.993
X-8.563 Z-2.971
X-8.596 Z-2.938
X-8.618 Z-2.896
X-8.625 Z-2.85
G0 Z5
X-8.425 Y-63.91
Z2
G1 Z0.15 F400
X-8.418 Z0.104
X-8.396 Z0.062
X-8.363 Z0.029
X-8.321 Z0.007
X-8.275 Z0
X-8.2
X-8.154 Y-63.903
X-8.112 Y-63.882
X-8.079 Y-63.848
X-8.057 Y-63.807
X-8.05 Y-63.76
G3 X-9.95 Y-63.76 Z-0.5 I-0.95 J0 F600
X-8.05 Y-63.76 Z-1 I0.95 J0
X-9.95 Y-63.76 Z-1.5 I-0.95 J0
X-8.05 Y-63.76 Z-2 I0.95 J0
X-9.95 Y-63.76 Z-2.5 I-0.95 J0
X-8.05 Y-63.76 Z-3 I0.95 J0
X-9.95 Y-63.76 I-0.95 J0
X-8.05 Y-63.76 I0.95 J0
G1 X-8.057 Y-63.714
X-8.079 Y-63.672
X-8.112 Y-63.639
X-8.154 Y-63.618
X-8.2 Y-63.61
X-8.275
X-8.321 Z-2.993
X-8.363 Z-2.971
X-8.396 Z-2.938
X-8.418 Z-2.896
X-8.425 Z-2.85
G0 Z5
X-7.202 Y-72.613
Z2
G1 Z0.15 F400
X-7.194 Z0.104
X-7.173 Z0.062
X-7.14 Z0.029
X-7.098 Z0.007
X-7.052 Z0
X-6.977
X-6.93 Y-72.606
X-6.888 Y-72.585
X-6.855 Y-72.551
X-6.834 Y-72.51
X-6.827 Y-72.463
G3 X-7.727 Y-72.463 Z-0.5 I-0.45 J0 F600
X-6.827 Y-72.463 Z-1 I0.45 J0
X-7.727 Y-72.463 Z-1.5 I-0.45 J0
X-6.827 Y-72.463 Z-2 I0.45 J0
X-7.727 Y-72.463 Z-2.5 I-0.45 J0
X-6.827 Y-72.463 Z-3 I0.45 J0
X-7.727 Y-72.463 I-0.45 J0
X-6.827 Y-72.463 I0.45 J0
G1 X-6.834 Y-72.417
X-6.855 Y-72.375
X-6.888 Y-72.342
X-6.93 Y-72.321
X-6.977 Y-72.313
X-7.052
X-7.098 Z-2.993
X-7.14 Z-2.971
X-7.173 Z-2.938
X-7.194 Z-2.896
X-7.202 Z-2.85
G0 Z15

(2D-Kontur6)
X-13.275 Y-57.984
Z15
Z5
G1 Z2.5 F300
X-13.269 Y-57.868 Z2.496 F1016
X-13.198 Y-56.242 Z2.439
X-13.129 Y-54.587 Z2.381
X-13.064 Y-52.903 Z2.322
X-13.003 Y-51.19 Z2.263
X-12.947 Y-49.449 Z2.202
X-12.897 Y-47.68 Z2.14
X-12.853 Y-45.884 Z2.077
X-12.817 Y-44.061 Z2.014
X-12.788 Y-42.212 Z1.949
X-12.767 Y-40.335 Z1.883
X-12.754 Y-38.431 Z1.817
X-12.75 Y-36.499 Z1.749
Y-30.015 Z1.523
X-12.759 Y-29.795 Z1.515
X-12.785 Y-29.566 Z1.507
X-12.83 Y-29.312 Z1.498
X-12.894 Y-29.034 Z1.488
X-12.978 Y-28.735 Z1.477
X-13.08 Y-28.415 Z1.466
X-13.2 Y-28.074 Z1.453
X-13.337 Y-27.716 Z1.44
X-13.489 Y-27.341 Z1.426
X-13.654 Y-26.949 Z1.411
X-13.83 Y-26.543 Z1.395
X-14.017 Y-26.122 Z1.379
X-14.211 Y-25.689 Z1.363
X-14.41 Y-25.245 Z1.346
X-14.412 Y-25.241
X-14.816 Y-24.326 Z1.311
X-14.821 Y-24.314 Z1.31
X-15.22 Y-23.369 Z1.274
X-15.228 Y-23.349
X-15.605 Y-22.379 Z1.237
X-15.613 Y-22.359 Z1.236
X-15.788 Y-21.866 Z1.218
X-15.794 Y-21.85
X-15.958 Y-21.353 Z1.199
X-15.964 Y-21.335
X-16.115 Y-20.834 Z1.18
X-16.121 Y-20.814
X-16.258 Y-20.309 Z1.161
X-16.264 Y-20.287
X-16.385 Y-19.779 Z1.142
X-16.39 Y-19.755 Z1.141
X-16.495 Y-19.245 Z1.123
X-16.5 Y-19.219 Z1.122
X-16.586 Y-18.705 Z1.104
X-16.59 Y-18.678 Z1.103
X-16.657 Y-18.16 Z1.085
X-16.66 Y-18.132 Z1.084
X-16.709 Y-17.61 Z1.066
X-16.711 Y-17.582 Z1.065
X-16.74 Y-17.055 Z1.046
X-16.741 Y-17.027 Z1.045
X-16.75 Y-16.494 Z1.027
Y-16.467 Z1.026
X-16.739 Y-15.928 Z1.007
X-16.738 Y-15.902 Z1.006
X-16.709 Y-15.356 Z0.987
X-16.707 Y-15.331 Z0.986
X-16.658 Y-14.779 Z0.967
X-16.655 Y-14.755 Z0.966
X-16.588 Y-14.197 Z0.946
X-16.585 Y-14.174 Z0.945
X-16.499 Y-13.609 Z0.925
X-16.496 Y-13.588
X-16.393 Y-13.017 Z0.904
X-16.389 Y-12.998
X-16.269 Y-12.421 Z0.883
X-16.265 Y-12.403
X-16.129 Y-11.822 Z0.862
X-16.125 Y-11.805 Z0.861
X-15.974 Y-11.221 Z0.84
X-15.969 Y-11.205 Z0.839
X-15.804 Y-10.619 Z0.818
X-15.799 Y-10.603
X-15.619 Y-10.018 Z0.796
X-15.615 Y-10.003
X-15.422 Y-9.42 Z0.774
X-15.417 Y-9.405
X-15.212 Y-8.827 Z0.752
X-15.207 Y-8.812
X-14.99 Y-8.24 Z0.73
X-14.984 Y-8.225
X-14.757 Y-7.662 Z0.709
X-14.751 Y-7.647 Z0.708
X-14.514 Y-7.095 Z0.687
X-14.507 Y-7.079 Z0.686
X-14.261 Y-6.542 Z0.666
X-14.253 Y-6.525 Z0.665
X-13.999 Y-6.004 Z0.645
X-13.99 Y-5.986 Z0.644
X-13.728 Y-5.483 Z0.624
X-13.718 Y-5.464
X-13.45 Y-4.983 Z0.604
X-13.438 Y-4.962
X-13.164 Y-4.504 Z0.585
X-13.15 Y-4.482 Z0.584
X-12.871 Y-4.05 Z0.566
X-12.855 Y-4.026 Z0.565
X-12.571 Y-3.623 Z0.548
X-12.551 Y-3.596 Z0.547
X-12.264 Y-3.223 Z0.53
X-12.24 Y-3.194 Z0.529
X-11.949 Y-2.853 Z0.513
X-11.92 Y-2.821 Z0.512
X-11.627 Y-2.516 Z0.497
X-11.591 Y-2.481 Z0.495
X-11.296 Y-2.212 Z0.481
X-11.251 Y-2.174 Z0.479
X-10.955 Y-1.943 Z0.466
X-10.914 Y-1.914 Z0.464
X-10.766 Y-1.813 Z0.458
X-10.735 Y-1.794 Z0.457
X-10.586 Y-1.703 Z0.451
X-10.552 Y-1.684 Z0.449
X-10.402 Y-1.603 Z0.443
X-10.365 Y-1.585 Z0.442
X-10.215 Y-1.515 Z0.436
X-10.174 Y-1.497 Z0.435
X-10.025 Y-1.438 Z0.429
X-9.98 Y-1.422 Z0.427
X-9.831 Y-1.373 Z0.422
X-9.783 Y-1.36 Z0.42
X-9.633 Y-1.322 Z0.415
X-9.583 Y-1.311 Z0.413
X-9.433 Y-1.284 Z0.408
X-9.381 Y-1.276 Z0.406
X-9.231 Y-1.26 Z0.401
X-9.177 Y-1.256 Z0.399
X-9.027 Y-1.25 Z0.393
X-8.973 Z0.392
X-8.823 Y-1.256 Z0.386
X-8.769 Y-1.26 Z0.384
X-8.619 Y-1.276 Z0.379
X-8.567 Y-1.284 Z0.377
X-8.417 Y-1.311 Z0.372
X-8.367 Y-1.322 Z0.37
X-8.217 Y-1.36 Z0.365
X-8.169 Y-1.373 Z0.363
X-8.02 Y-1.422 Z0.358
X-7.975 Y-1.438 Z0.356
X-7.826 Y-1.497 Z0.35
X-7.785 Y-1.515 Z0.349
X-7.635 Y-1.585 Z0.343
X-7.598 Y-1.603 Z0.342
X-7.448 Y-1.684 Z0.336
X-7.414 Y-1.703 Z0.334
X-7.265 Y-1.794 Z0.328
X-7.234 Y-1.813 Z0.327
X-7.086 Y-1.914 Z0.321
X-7.045 Y-1.943 Z0.319
X-6.749 Y-2.174 Z0.306
X-6.704 Y-2.212 Z0.304
X-6.409 Y-2.481 Z0.29
X-6.373 Y-2.516 Z0.288
X-6.08 Y-2.821 Z0.273
X-6.051 Y-2.853 Z0.272
X-5.76 Y-3.194 Z0.256
X-5.736 Y-3.223 Z0.255
X-5.449 Y-3.596 Z0.238
X-5.429 Y-3.623 Z0.237
X-5.145 Y-4.026 Z0.22
X-5.129 Y-4.05 Z0.219
X-4.85 Y-4.482 Z0.201
X-4.836 Y-4.504 Z0.2
X-4.562 Y-4.962 Z0.181
X-4.55 Y-4.983
X-4.282 Y-5.464 Z0.161
X-4.272 Y-5.483
X-4.01 Y-5.986 Z0.141
X-4.001 Y-6.003 Z0.14
X-3.747 Y-6.525 Z0.12
X-3.739 Y-6.542 Z0.119
X-3.493 Y-7.079 Z0.099
X-3.486 Y-7.095 Z0.098
X-3.249 Y-7.647 Z0.077
X-3.243 Y-7.662 Z0.076
X-3.016 Y-8.225 Z0.055
X-3.01 Y-8.24
X-2.793 Y-8.812 Z0.033
X-2.788 Y-8.827
X-2.583 Y-9.405 Z0.011
X-2.578 Y-9.42
X-2.385 Y-10.003 Z-0.011
X-2.38 Y-10.018
X-2.201 Y-10.604 Z-0.033
X-2.196 Y-10.619
X-2.031 Y-11.205 Z-0.054
X-2.026 Y-11.221 Z-0.055
X-1.875 Y-11.805 Z-0.076
X-1.871 Y-11.822 Z-0.077
X-1.735 Y-12.403 Z-0.098
X-1.731 Y-12.421
X-1.611 Y-12.998 Z-0.119
X-1.607 Y-13.017
X-1.504 Y-13.588 Z-0.14
X-1.501 Y-13.609
X-1.415 Y-14.174 Z-0.16
X-1.412 Y-14.197 Z-0.161
X-1.345 Y-14.755 Z-0.181
X-1.342 Y-14.779 Z-0.182
X-1.293 Y-15.331 Z-0.201
X-1.291 Y-15.356 Z-0.202
X-1.262 Y-15.902 Z-0.221
X-1.261 Y-15.928 Z-0.222
X-1.25 Y-16.467 Z-0.241
Y-16.494 Z-0.242
X-1.259 Y-17.027 Z-0.26
X-1.26 Y-17.055 Z-0.261
X-1.289 Y-17.582 Z-0.28
X-1.291 Y-17.61 Z-0.281
X-1.339 Y-18.132 Z-0.299
X-1.343 Y-18.16 Z-0.3
X-1.41 Y-18.678 F600
X-1.414 Y-18.705
X-1.5 Y-19.219
X-1.505 Y-19.245
X-1.61 Y-19.755
X-1.615 Y-19.78
X-1.736 Y-20.287
X-1.742 Y-20.309
X-1.879 Y-20.814
X-1.885 Y-20.834
X-2.036 Y-21.335
X-2.042 Y-21.353
X-2.206 Y-21.85
X-2.212 Y-21.866
X-2.387 Y-22.359
X-2.395 Y-22.379
X-2.772 Y-23.349
X-2.78 Y-23.369
X-3.179 Y-24.314
X-3.184 Y-24.326
X-3.588 Y-25.241
X-3.59 Y-25.245
X-3.789 Y-25.689
X-3.983 Y-26.122
X-4.17 Y-26.543
X-4.346 Y-26.949
X-4.511 Y-27.341
X-4.663 Y-27.716
X-4.8 Y-28.074
X-4.92 Y-28.415
X-5.022 Y-28.735
X-5.106 Y-29.034
X-5.17 Y-29.312
X-5.215 Y-29.566
X-5.241 Y-29.795
X-5.25 Y-30.015
Y-36.499
X-5.247 Y-38.144
X-5.238 Y-39.771
X-5.222 Y-41.38
X-5.201 Y-42.972
X-5.173 Y-44.546
X-5.141 Y-46.102
X-5.103 Y-47.641
X-5.06 Y-49.161
X-5.014 Y-50.663
X-4.963 Y-52.146
X-4.909 Y-53.61
X-4.852 Y-55.055
X-4.792 Y-56.479
X-4.731 Y-57.882
X-4.669 Y-59.264
X-4.607 Y-60.623
X-4.544 Y-61.958
X-4.483 Y-63.269
X-4.423 Y-64.555
X-4.365 Y-65.813
Y-65.814
X-4.31 Y-67.044
Y-67.045
X-4.259 Y-68.245
Y-68.247
X-4.212 Y-69.415
Y-69.418
X-4.171 Y-70.553
Y-70.556
X-4.135 Y-71.657
Y-71.661
X-4.107 Y-72.726
Y-72.731
X-4.086 Y-73.757
Y-73.762
X-4.078 Y-74.26
Y-74.263
X-4.073 Y-74.752
Y-74.755
X-4.07 Y-75.233
Y-75.237
X-4.069 Y-75.704
Y-75.708
X-4.071 Y-76.165
Y-76.169
X-4.076 Y-76.615
Y-76.62
X-4.083 Y-77.054
Y-77.059
X-4.093 Y-77.482
Y-77.487
X-4.105 Y-77.898
X-4.106 Y-77.904
X-4.121 Y-78.288
Y-83.03
G2 X-4.601 Y-84.015 I-1.25 J0
G1 X-8.144 Y-86.783
G2 X-9.899 Y-86.568 I-0.77 J0.985
G1 X-13.308 Y-82.204
X-13.358 Y-82.132
X-13.418 Y-82.033
X-13.459 Y-81.956
X-13.491 Y-81.875
X-13.527 Y-81.764
X-13.551 Y-81.67
X-13.608 Y-81.362
X-13.611 Y-81.343
X-13.663 Y-81.016
X-13.666 Y-81
X-13.713 Y-80.655
X-13.715 Y-80.64
X-13.758 Y-80.278
X-13.759 Y-80.265
X-13.797 Y-79.884
X-13.798 Y-79.873
X-13.831 Y-79.475
X-13.832 Y-79.465
X-13.861 Y-79.05
X-13.862 Y-79.041
X-13.886 Y-78.61
X-13.887 Y-78.601
X-13.907 Y-78.153
Y-78.146
X-13.924 Y-77.682
Y-77.676
X-13.937 Y-77.197
Y-77.19
X-13.945 Y-76.696
X-13.946 Y-76.69
X-13.951 Y-76.181
Y-76.176
X-13.952 Y-75.652
Y-75.647
X-13.951 Y-75.109
Y-75.104
X-13.946 Y-74.552
Y-74.548
X-13.938 Y-73.983
Y-73.979
X-13.928 Y-73.4
Y-73.397
X-13.914 Y-72.805
Y-72.802
X-13.898 Y-72.198
Y-72.195
X-13.88 Y-71.578
Y-71.576
X-13.859 Y-70.947
Y-70.945
X-13.836 Y-70.305
Y-70.303
X-13.812 Y-69.651
Y-69.649
X-13.785 Y-68.986
Y-68.985
X-13.757 Y-68.311
Y-68.31
X-13.727 Y-67.625
Y-67.624
X-13.696 Y-66.929
Y-66.928
X-13.631 Y-65.508
X-13.63 Y-65.507
X-13.561 Y-64.049
X-13.489 Y-62.554
X-13.416 Y-61.025
X-13.342 Y-59.462
X-13.269 Y-57.868
X-13.198 Y-56.242
X-13.129 Y-54.587
X-13.064 Y-52.903
X-13.003 Y-51.19
X-12.947 Y-49.449
X-12.897 Y-47.68
X-12.853 Y-45.884
X-12.817 Y-44.061
X-12.788 Y-42.212
X-12.767 Y-40.335
X-12.754 Y-38.431
X-12.75 Y-36.499
Y-30.015
X-12.759 Y-29.795
X-12.785 Y-29.566
X-12.83 Y-29.312
X-12.894 Y-29.034
X-12.978 Y-28.735
X-13.08 Y-28.415
X-13.2 Y-28.074
X-13.337 Y-27.716
X-13.489 Y-27.341
X-13.654 Y-26.949
X-13.83 Y-26.543
X-14.017 Y-26.122
X-14.211 Y-25.689
X-14.41 Y-25.245
X-14.412 Y-25.241
X-14.816 Y-24.326
X-14.821 Y-24.314
X-15.22 Y-23.369
X-15.228 Y-23.349
X-15.605 Y-22.379
X-15.613 Y-22.359
X-15.788 Y-21.866
X-15.794 Y-21.85
X-15.958 Y-21.353
X-15.964 Y-21.335
X-16.115 Y-20.834
X-16.121 Y-20.814
X-16.258 Y-20.309
X-16.264 Y-20.287
X-16.385 Y-19.779
X-16.39 Y-19.755
X-16.495 Y-19.245
X-16.5 Y-19.219
X-16.586 Y-18.705
X-16.59 Y-18.678
X-16.657 Y-18.16
X-16.66 Y-18.132
X-16.709 Y-17.61
X-16.711 Y-17.582
X-16.74 Y-17.055
X-16.741 Y-17.027
X-16.75 Y-16.494
Y-16.467
X-16.739 Y-15.928
X-16.738 Y-15.902
X-16.709 Y-15.356
X-16.707 Y-15.331
X-16.658 Y-14.779
X-16.655 Y-14.755
X-16.588 Y-14.197
X-16.585 Y-14.174
X-16.499 Y-13.609
X-16.496 Y-13.588
X-16.393 Y-13.017
X-16.389 Y-12.998
X-16.269 Y-12.421
X-16.265 Y-12.403
X-16.129 Y-11.822
X-16.125 Y-11.805
X-15.974 Y-11.221
X-15.969 Y-11.205
X-15.804 Y-10.619
X-15.799 Y-10.603
X-15.619 Y-10.018
X-15.615 Y-10.003
X-15.422 Y-9.42
X-15.417 Y-9.405
X-15.212 Y-8.827
X-15.207 Y-8.812
X-14.99 Y-8.24
X-14.984 Y-8.225
X-14.757 Y-7.662
X-14.751 Y-7.647
X-14.514 Y-7.095
X-14.507 Y-7.079
X-14.261 Y-6.542
X-14.253 Y-6.525
X-13.999 Y-6.004
X-13.99 Y-5.986
X-13.728 Y-5.483
X-13.718 Y-5.464
X-13.45 Y-4.983
X-13.438 Y-4.962
X-13.164 Y-4.504
X-13.15 Y-4.482
X-12.871 Y-4.05
X-12.855 Y-4.026
X-12.571 Y-3.623
X-12.551 Y-3.596
X-12.264 Y-3.223
X-12.24 Y-3.194
X-11.949 Y-2.853
X-11.92 Y-2.821
X-11.627 Y-2.516
X-11.591 Y-2.481
X-11.296 Y-2.212
X-11.251 Y-2.174
X-10.955 Y-1.943
X-10.914 Y-1.914
X-10.766 Y-1.813
X-10.735 Y-1.794
X-10.586 Y-1.703
X-10.552 Y-1.684
X-10.402 Y-1.603
X-10.365 Y-1.585
X-10.215 Y-1.515
X-10.174 Y-1.497
X-10.025 Y-1.438
X-9.98 Y-1.422
X-9.831 Y-1.373
X-9.783 Y-1.36
X-9.633 Y-1.322
X-9.583 Y-1.311
X-9.433 Y-1.284
X-9.381 Y-1.276
X-9.231 Y-1.26
X-9.177 Y-1.256
X-9.027 Y-1.25
X-8.973
X-8.823 Y-1.256
X-8.769 Y-1.26
X-8.619 Y-1.276
X-8.567 Y-1.284
X-8.417 Y-1.311
X-8.367 Y-1.322
X-8.217 Y-1.36
X-8.169 Y-1.373
X-8.02 Y-1.422
X-7.975 Y-1.438
X-7.826 Y-1.497
X-7.785 Y-1.515
X-7.635 Y-1.585
X-7.598 Y-1.603
X-7.448 Y-1.684
X-7.414 Y-1.703
X-7.265 Y-1.794
X-7.234 Y-1.813
X-7.086 Y-1.914
X-7.045 Y-1.943
X-6.749 Y-2.174
X-6.704 Y-2.212
X-6.409 Y-2.481
X-6.373 Y-2.516
X-6.08 Y-2.821
X-6.051 Y-2.853
X-5.76 Y-3.194
X-5.736 Y-3.223
X-5.449 Y-3.596
X-5.429 Y-3.623
X-5.145 Y-4.026
X-5.129 Y-4.05
X-4.85 Y-4.482
X-4.836 Y-4.504
X-4.562 Y-4.962
X-4.55 Y-4.983
X-4.282 Y-5.464
X-4.272 Y-5.483
X-4.01 Y-5.986
X-4.001 Y-6.003
X-3.747 Y-6.525
X-3.739 Y-6.542
X-3.493 Y-7.079
X-3.486 Y-7.095
X-3.249 Y-7.647
X-3.243 Y-7.662
X-3.016 Y-8.225
X-3.01 Y-8.24
X-2.793 Y-8.812
X-2.788 Y-8.827
X-2.583 Y-9.405
X-2.578 Y-9.42
X-2.385 Y-10.003
X-2.38 Y-10.018
X-2.201 Y-10.604
X-2.196 Y-10.619
X-2.031 Y-11.205
X-2.026 Y-11.221
X-1.875 Y-11.805
X-1.871 Y-11.822
X-1.735 Y-12.403
X-1.731 Y-12.421
X-1.611 Y-12.998
X-1.607 Y-13.017
X-1.504 Y-13.588
X-1.501 Y-13.609
X-1.415 Y-14.174
X-1.412 Y-14.197
X-1.345 Y-14.755
X-1.342 Y-14.779
X-1.293 Y-15.331
X-1.291 Y-15.356
X-1.262 Y-15.902
X-1.261 Y-15.928
X-1.25 Y-16.467
Y-16.494
X-1.259 Y-17.027
X-1.26 Y-17.055
X-1.289 Y-17.582
X-1.291 Y-17.61
X-1.339 Y-18.132
X-1.343 Y-18.16
X-1.41 Y-18.678 Z-0.318 F1016
X-1.414 Y-18.705 Z-0.319
X-1.5 Y-19.219 Z-0.337
X-1.505 Y-19.245 Z-0.338
X-1.61 Y-19.755 Z-0.357
X-1.615 Y-19.78
X-1.736 Y-20.287 Z-0.376
X-1.742 Y-20.309
X-1.879 Y-20.814 Z-0.395
X-1.885 Y-20.834
X-2.036 Y-21.335 Z-0.414
X-2.042 Y-21.353
X-2.206 Y-21.85 Z-0.433
X-2.212 Y-21.866
X-2.387 Y-22.359 Z-0.451
X-2.395 Y-22.379 Z-0.452
X-2.772 Y-23.349 Z-0.489
X-2.78 Y-23.369
X-3.179 Y-24.314 Z-0.525
X-3.184 Y-24.326 Z-0.526
X-3.588 Y-25.241 Z-0.561
X-3.59 Y-25.245
X-3.789 Y-25.689 Z-0.578
X-3.983 Y-26.122 Z-0.594
X-4.05 Y-26.273 Z-0.6
X-4.17 Y-26.543 F600
X-4.346 Y-26.949
X-4.511 Y-27.341
X-4.663 Y-27.716
X-4.8 Y-28.074
X-4.92 Y-28.415
X-5.022 Y-28.735
X-5.106 Y-29.034
X-5.17 Y-29.312
X-5.215 Y-29.566
X-5.241 Y-29.795
X-5.25 Y-30.015
Y-36.499
X-5.247 Y-38.144
X-5.238 Y-39.771
X-5.222 Y-41.38
X-5.201 Y-42.972
X-5.173 Y-44.546
X-5.141 Y-46.102
X-5.103 Y-47.641
X-5.06 Y-49.161
X-5.014 Y-50.663
X-4.963 Y-52.146
X-4.909 Y-53.61
X-4.852 Y-55.055
X-4.792 Y-56.479
X-4.731 Y-57.882
X-4.669 Y-59.264
X-4.607 Y-60.623
X-4.544 Y-61.958
X-4.483 Y-63.269
X-4.423 Y-64.555
X-4.365 Y-65.813
Y-65.814
X-4.31 Y-67.044
Y-67.045
X-4.259 Y-68.245
Y-68.247
X-4.212 Y-69.415
Y-69.418
X-4.171 Y-70.553
Y-70.556
X-4.135 Y-71.657
Y-71.661
X-4.107 Y-72.726
Y-72.731
X-4.086 Y-73.757
Y-73.762
X-4.078 Y-74.26
Y-74.263
X-4.073 Y-74.752
Y-74.755
X-4.07 Y-75.233
Y-75.237
X-4.069 Y-75.704
Y-75.708
X-4.071 Y-76.165
Y-76.169
X-4.076 Y-76.615
Y-76.62
X-4.083 Y-77.054
Y-77.059
X-4.093 Y-77.482
Y-77.487
X-4.105 Y-77.898
X-4.106 Y-77.904
X-4.121 Y-78.288
Y-83.03
G2 X-4.601 Y-84.015 I-1.25 J0
G1 X-8.144 Y-86.783
G2 X-9.899 Y-86.568 I-0.77 J0.985
G1 X-13.308 Y-82.204
X-13.358 Y-82.132
X-13.418 Y-82.033
X-13.459 Y-81.956
X-13.491 Y-81.875
X-13.527 Y-81.764
X-13.551 Y-81.67
X-13.608 Y-81.362
X-13.611 Y-81.343
X-13.663 Y-81.016
X-13.666 Y-81
X-13.713 Y-80.655
X-13.715 Y-80.64
X-13.758 Y-80.278
X-13.759 Y-80.265
X-13.797 Y-79.884
X-13.798 Y-79.873
X-13.831 Y-79.475
X-13.832 Y-79.465
X-13.861 Y-79.05
X-13.862 Y-79.041
X-13.886 Y-78.61
X-13.887 Y-78.601
X-13.907 Y-78.153
Y-78.146
X-13.924 Y-77.682
Y-77.676
X-13.937 Y-77.197
Y-77.19
X-13.945 Y-76.696
X-13.946 Y-76.69
X-13.951 Y-76.181
Y-76.176
X-13.952 Y-75.652
Y-75.647
X-13.951 Y-75.109
Y-75.104
X-13.946 Y-74.552
Y-74.548
X-13.938 Y-73.983
Y-73.979
X-13.928 Y-73.4
Y-73.397
X-13.914 Y-72.805
Y-72.802
X-13.898 Y-72.198
Y-72.195
X-13.88 Y-71.578
Y-71.576
X-13.859 Y-70.947
Y-70.945
X-13.836 Y-70.305
Y-70.303
X-13.812 Y-69.651
Y-69.649
X-13.785 Y-68.986
Y-68.985
X-13.757 Y-68.311
Y-68.31
X-13.727 Y-67.625
Y-67.624
X-13.696 Y-66.929
Y-66.928
X-13.631 Y-65.508
X-13.63 Y-65.507
X-13.561 Y-64.049
X-13.489 Y-62.554
X-13.416 Y-61.025
X-13.342 Y-59.462
X-13.269 Y-57.868
X-13.198 Y-56.242
X-13.129 Y-54.587
X-13.064 Y-52.903
X-13.003 Y-51.19
X-12.947 Y-49.449
X-12.897 Y-47.68
X-12.853 Y-45.884
X-12.817 Y-44.061
X-12.788 Y-42.212
X-12.767 Y-40.335
X-12.754 Y-38.431
X-12.75 Y-36.499
Y-30.015
X-12.759 Y-29.795
X-12.785 Y-29.566
X-12.83 Y-29.312
X-12.894 Y-29.034
X-12.978 Y-28.735
X-13.08 Y-28.415
X-13.2 Y-28.074
X-13.337 Y-27.716
X-13.489 Y-27.341
X-13.654 Y-26.949
X-13.83 Y-26.543
X-14.017 Y-26.122
X-14.211 Y-25.689
X-14.41 Y-25.245
X-14.412 Y-25.241
X-14.816 Y-24.326
X-14.821 Y-24.314
X-15.22 Y-23.369
X-15.228 Y-23.349
X-15.605 Y-22.379
X-15.613 Y-22.359
X-15.788 Y-21.866
X-15.794 Y-21.85
X-15.958 Y-21.353
X-15.964 Y-21.335
X-16.115 Y-20.834
X-16.121 Y-20.814
X-16.258 Y-20.309
X-16.264 Y-20.287
X-16.385 Y-19.779
X-16.39 Y-19.755
X-16.495 Y-19.245
X-16.5 Y-19.219
X-16.586 Y-18.705
X-16.59 Y-18.678
X-16.657 Y-18.16
X-16.66 Y-18.132
X-16.709 Y-17.61
X-16.711 Y-17.582
X-16.74 Y-17.055
X-16.741 Y-17.027
X-16.75 Y-16.494
Y-16.467
X-16.739 Y-15.928
X-16.738 Y-15.902
X-16.709 Y-15.356
X-16.707 Y-15.331
X-16.658 Y-14.779
X-16.655 Y-14.755
X-16.588 Y-14.197
X-16.585 Y-14.174
X-16.499 Y-13.609
X-16.496 Y-13.588
X-16.393 Y-13.017
X-16.389 Y-12.998
X-16.269 Y-12.421
X-16.265 Y-12.403
X-16.129 Y-11.822
X-16.125 Y-11.805
X-15.974 Y-11.221
X-15.969 Y-11.205
X-15.804 Y-10.619
X-15.799 Y-10.603
X-15.619 Y-10.018
X-15.615 Y-10.003
X-15.422 Y-9.42
X-15.417 Y-9.405
X-15.212 Y-8.827
X-15.207 Y-8.812
X-14.99 Y-8.24
X-14.984 Y-8.225
X-14.757 Y-7.662
X-14.751 Y-7.647
X-14.514 Y-7.095
X-14.507 Y-7.079
X-14.261 Y-6.542
X-14.253 Y-6.525
X-13.999 Y-6.004
X-13.99 Y-5.986
X-13.728 Y-5.483
X-13.718 Y-5.464
X-13.45 Y-4.983
X-13.438 Y-4.962
X-13.164 Y-4.504
X-13.15 Y-4.482
X-12.871 Y-4.05
X-12.855 Y-4.026
X-12.571 Y-3.623
X-12.551 Y-3.596
X-12.264 Y-3.223
X-12.24 Y-3.194
X-11.949 Y-2.853
X-11.92 Y-2.821
X-11.627 Y-2.516
X-11.591 Y-2.481
X-11.296 Y-2.212
X-11.251 Y-2.174
X-10.955 Y-1.943
X-10.914 Y-1.914
X-10.766 Y-1.813
X-10.735 Y-1.794
X-10.586 Y-1.703
X-10.552 Y-1.684
X-10.402 Y-1.603
X-10.365 Y-1.585
X-10.215 Y-1.515
X-10.174 Y-1.497
X-10.025 Y-1.438
X-9.98 Y-1.422
X-9.831 Y-1.373
X-9.783 Y-1.36
X-9.633 Y-1.322
X-9.583 Y-1.311
X-9.433 Y-1.284
X-9.381 Y-1.276
X-9.231 Y-1.26
X-9.177 Y-1.256
X-9.027 Y-1.25
X-8.973
X-8.823 Y-1.256
X-8.769 Y-1.26
X-8.619 Y-1.276
X-8.567 Y-1.284
X-8.417 Y-1.311
X-8.367 Y-1.322
X-8.217 Y-1.36
X-8.169 Y-1.373
X-8.02 Y-1.422
X-7.975 Y-1.438
X-7.826 Y-1.497
X-7.785 Y-1.515
X-7.635 Y-1.585
X-7.598 Y-1.603
X-7.448 Y-1.684
X-7.414 Y-1.703
X-7.265 Y-1.794
X-7.234 Y-1.813
X-7.086 Y-1.914
X-7.045 Y-1.943
X-6.749 Y-2.174
X-6.704 Y-2.212
X-6.409 Y-2.481
X-6.373 Y-2.516
X-6.08 Y-2.821
X-6.051 Y-2.853
X-5.76 Y-3.194
X-5.736 Y-3.223
X-5.449 Y-3.596
X-5.429 Y-3.623
X-5.145 Y-4.026
X-5.129 Y-4.05
X-4.85 Y-4.482
X-4.836 Y-4.504
X-4.562 Y-4.962
X-4.55 Y-4.983
X-4.282 Y-5.464
X-4.272 Y-5.483
X-4.01 Y-5.986
X-4.001 Y-6.003
X-3.747 Y-6.525
X-3.739 Y-6.542
X-3.493 Y-7.079
X-3.486 Y-7.095
X-3.249 Y-7.647
X-3.243 Y-7.662
X-3.016 Y-8.225
X-3.01 Y-8.24
X-2.793 Y-8.812
X-2.788 Y-8.827
X-2.583 Y-9.405
X-2.578 Y-9.42
X-2.385 Y-10.003
X-2.38 Y-10.018
X-2.201 Y-10.604
X-2.196 Y-10.619
X-2.031 Y-11.205
X-2.026 Y-11.221
X-1.875 Y-11.805
X-1.871 Y-11.822
X-1.735 Y-12.403
X-1.731 Y-12.421
X-1.611 Y-12.998
X-1.607 Y-13.017
X-1.504 Y-13.588
X-1.501 Y-13.609
X-1.415 Y-14.174
X-1.412 Y-14.197
X-1.345 Y-14.755
X-1.342 Y-14.779
X-1.293 Y-15.331
X-1.291 Y-15.356
X-1.262 Y-15.902
X-1.261 Y-15.928
X-1.25 Y-16.467
Y-16.494
X-1.259 Y-17.027
X-1.26 Y-17.055
X-1.289 Y-17.582
X-1.291 Y-17.61
X-1.339 Y-18.132
X-1.343 Y-18.16
X-1.41 Y-18.678
X-1.414 Y-18.705
X-1.5 Y-19.219
X-1.505 Y-19.245
X-1.61 Y-19.755
X-1.615 Y-19.78
X-1.736 Y-20.287
X-1.742 Y-20.309
X-1.879 Y-20.814
X-1.885 Y-20.834
X-2.036 Y-21.335
X-2.042 Y-21.353
X-2.206 Y-21.85
X-2.212 Y-21.866
X-2.387 Y-22.359
X-2.395 Y-22.379
X-2.772 Y-23.349
X-2.78 Y-23.369
X-3.179 Y-24.314
X-3.184 Y-24.326
X-3.588 Y-25.241
X-3.59 Y-25.245
X-3.789 Y-25.689
X-3.983 Y-26.122
X-4.05 Y-26.273
X-4.17 Y-26.543 Z-0.61 F1016
X-4.346 Y-26.949 Z-0.626
X-4.511 Y-27.341 Z-0.641
X-4.663 Y-27.716 Z-0.655
X-4.8 Y-28.074 Z-0.668
X-4.92 Y-28.415 Z-0.681
X-5.022 Y-28.735 Z-0.692
X-5.106 Y-29.034 Z-0.703
X-5.17 Y-29.312 Z-0.713
X-5.215 Y-29.566 Z-0.722
X-5.241 Y-29.795 Z-0.73
X-5.25 Y-30.015 Z-0.738
Y-34.653 Z-0.9
Y-36.499 F600
X-5.247 Y-38.144
X-5.238 Y-39.771
X-5.222 Y-41.38
X-5.201 Y-42.972
X-5.173 Y-44.546
X-5.141 Y-46.102
X-5.103 Y-47.641
X-5.06 Y-49.161
X-5.014 Y-50.663
X-4.963 Y-52.146
X-4.909 Y-53.61
X-4.852 Y-55.055
X-4.792 Y-56.479
X-4.731 Y-57.882
X-4.669 Y-59.264
X-4.607 Y-60.623
X-4.544 Y-61.958
X-4.483 Y-63.269
X-4.423 Y-64.555
X-4.365 Y-65.813
Y-65.814
X-4.31 Y-67.044
Y-67.045
X-4.259 Y-68.245
Y-68.247
X-4.212 Y-69.415
Y-69.418
X-4.171 Y-70.553
Y-70.556
X-4.135 Y-71.657
Y-71.661
X-4.107 Y-72.726
Y-72.731
X-4.086 Y-73.757
Y-73.762
X-4.078 Y-74.26
Y-74.263
X-4.073 Y-74.752
Y-74.755
X-4.07 Y-75.233
Y-75.237
X-4.069 Y-75.704
Y-75.708
X-4.071 Y-76.165
Y-76.169
X-4.076 Y-76.615
Y-76.62
X-4.083 Y-77.054
Y-77.059
X-4.093 Y-77.482
Y-77.487
X-4.105 Y-77.898
X-4.106 Y-77.904
X-4.121 Y-78.288
Y-83.03
G2 X-4.601 Y-84.015 I-1.25 J0
G1 X-8.144 Y-86.783
G2 X-9.899 Y-86.568 I-0.77 J0.985
G1 X-13.308 Y-82.204
X-13.358 Y-82.132
X-13.418 Y-82.033
X-13.459 Y-81.956
X-13.491 Y-81.875
X-13.527 Y-81.764
X-13.551 Y-81.67
X-13.608 Y-81.362
X-13.611 Y-81.343
X-13.663 Y-81.016
X-13.666 Y-81
X-13.713 Y-80.655
X-13.715 Y-80.64
X-13.758 Y-80.278
X-13.759 Y-80.265
X-13.797 Y-79.884
X-13.798 Y-79.873
X-13.831 Y-79.475
X-13.832 Y-79.465
X-13.861 Y-79.05
X-13.862 Y-79.041
X-13.886 Y-78.61
X-13.887 Y-78.601
X-13.907 Y-78.153
Y-78.146
X-13.924 Y-77.682
Y-77.676
X-13.937 Y-77.197
Y-77.19
X-13.945 Y-76.696
X-13.946 Y-76.69
X-13.951 Y-76.181
Y-76.176
X-13.952 Y-75.652
Y-75.647
X-13.951 Y-75.109
Y-75.104
X-13.946 Y-74.552
Y-74.548
X-13.938 Y-73.983
Y-73.979
X-13.928 Y-73.4
Y-73.397
X-13.914 Y-72.805
Y-72.802
X-13.898 Y-72.198
Y-72.195
X-13.88 Y-71.578
Y-71.576
X-13.859 Y-70.947
Y-70.945
X-13.836 Y-70.305
Y-70.303
X-13.812 Y-69.651
Y-69.649
X-13.785 Y-68.986
Y-68.985
X-13.757 Y-68.311
Y-68.31
X-13.727 Y-67.625
Y-67.624
X-13.696 Y-66.929
Y-66.928
X-13.631 Y-65.508
X-13.63 Y-65.507
X-13.561 Y-64.049
X-13.489 Y-62.554
X-13.416 Y-61.025
X-13.342 Y-59.462
X-13.269 Y-57.868
X-13.198 Y-56.242
X-13.129 Y-54.587
X-13.064 Y-52.903
X-13.003 Y-51.19
X-12.947 Y-49.449
X-12.897 Y-47.68
X-12.853 Y-45.884
X-12.817 Y-44.061
X-12.788 Y-42.212
X-12.767 Y-40.335
X-12.754 Y-38.431
X-12.75 Y-36.499
Y-30.015
X-12.759 Y-29.795
X-12.785 Y-29.566
X-12.83 Y-29.312
X-12.894 Y-29.034
X-12.978 Y-28.735
X-13.08 Y-28.415
X-13.2 Y-28.074
X-13.337 Y-27.716
X-13.489 Y-27.341
X-13.654 Y-26.949
X-13.83 Y-26.543
X-14.017 Y-26.122
X-14.211 Y-25.689
X-14.41 Y-25.245
X-14.412 Y-25.241
X-14.816 Y-24.326
X-14.821 Y-24.314
X-15.22 Y-23.369
X-15.228 Y-23.349
X-15.605 Y-22.379
X-15.613 Y-22.359
X-15.788 Y-21.866
X-15.794 Y-21.85
X-15.958 Y-21.353
X-15.964 Y-21.335
X-16.115 Y-20.834
X-16.121 Y-20.814
X-16.258 Y-20.309
X-16.264 Y-20.287
X-16.385 Y-19.779
X-16.39 Y-19.755
X-16.495 Y-19.245
X-16.5 Y-19.219
X-16.586 Y-18.705
X-16.59 Y-18.678
X-16.657 Y-18.16
X-16.66 Y-18.132
X-16.709 Y-17.61
X-16.711 Y-17.582
X-16.74 Y-17.055
X-16.741 Y-17.027
X-16.75 Y-16.494
Y-16.467
X-16.739 Y-15.928
X-16.738 Y-15.902
X-16.709 Y-15.356
X-16.707 Y-15.331
X-16.658 Y-14.779
X-16.655 Y-14.755
X-16.588 Y-14.197
X-16.585 Y-14.174
X-16.499 Y-13.609
X-16.496 Y-13.588
X-16.393 Y-13.017
X-16.389 Y-12.998
X-16.269 Y-12.421
X-16.265 Y-12.403
X-16.129 Y-11.822
X-16.125 Y-11.805
X-15.974 Y-11.221
X-15.969 Y-11.205
X-15.804 Y-10.619
X-15.799 Y-10.603
X-15.619 Y-10.018
X-15.615 Y-10.003
X-15.422 Y-9.42
X-15.417 Y-9.405
X-15.212 Y-8.827
X-15.207 Y-8.812
X-14.99 Y-8.24
X-14.984 Y-8.225
X-14.757 Y-7.662
X-14.751 Y-7.647
X-14.514 Y-7.095
X-14.507 Y-7.079
X-14.261 Y-6.542
X-14.253 Y-6.525
X-13.999 Y-6.004
X-13.99 Y-5.986
X-13.728 Y-5.483
X-13.718 Y-5.464
X-13.45 Y-4.983
X-13.438 Y-4.962
X-13.164 Y-4.504
X-13.15 Y-4.482
X-12.871 Y-4.05
X-12.855 Y-4.026
X-12.571 Y-3.623
X-12.551 Y-3.596
X-12.264 Y-3.223
X-12.24 Y-3.194
X-11.949 Y-2.853
X-11.92 Y-2.821
X-11.627 Y-2.516
X-11.591 Y-2.481
X-11.296 Y-2.212
X-11.251 Y-2.174
X-10.955 Y-1.943
X-10.914 Y-1.914
X-10.766 Y-1.813
X-10.735 Y-1.794
X-10.586 Y-1.703
X-10.552 Y-1.684
X-10.402 Y-1.603
X-10.365 Y-1.585
X-10.215 Y-1.515
X-10.174 Y-1.497
X-10.025 Y-1.438
X-9.98 Y-1.422
X-9.831 Y-1.373
X-9.783 Y-1.36
X-9.633 Y-1.322
X-9.583 Y-1.311
X-9.433 Y-1.284
X-9.381 Y-1.276
X-9.231 Y-1.26
X-9.177 Y-1.256
X-9.027 Y-1.25
X-8.973
X-8.823 Y-1.256
X-8.769 Y-1.26
X-8.619 Y-1.276
X-8.567 Y-1.284
X-8.417 Y-1.311
X-8.367 Y-1.322
X-8.217 Y-1.36
X-8.169 Y-1.373
X-8.02 Y-1.422
X-7.975 Y-1.438
X-7.826 Y-1.497
X-7.785 Y-1.515
X-7.635 Y-1.585
X-7.598 Y-1.603
X-7.448 Y-1.684
X-7.414 Y-1.703
X-7.265 Y-1.794
X-7.234 Y-1.813
X-7.086 Y-1.914
X-7.045 Y-1.943
X-6.749 Y-2.174
X-6.704 Y-2.212
X-6.409 Y-2.481
X-6.373 Y-2.516
X-6.08 Y-2.821
X-6.051 Y-2.853
X-5.76 Y-3.194
X-5.736 Y-3.223
X-5.449 Y-3.596
X-5.429 Y-3.623
X-5.145 Y-4.026
X-5.129 Y-4.05
X-4.85 Y-4.482
X-4.836 Y-4.504
X-4.562 Y-4.962
X-4.55 Y-4.983
X-4.282 Y-5.464
X-4.272 Y-5.483
X-4.01 Y-5.986
X-4.001 Y-6.003
X-3.747 Y-6.525
X-3.739 Y-6.542
X-3.493 Y-7.079
X-3.486 Y-7.095
X-3.249 Y-7.647
X-3.243 Y-7.662
X-3.016 Y-8.225
X-3.01 Y-8.24
X-2.793 Y-8.812
X-2.788 Y-8.827
X-2.583 Y-9.405
X-2.578 Y-9.42
X-2.385 Y-10.003
X-2.38 Y-10.018
X-2.201 Y-10.604
X-2.196 Y-10.619
X-2.031 Y-11.205
X-2.026 Y-11.221
X-1.875 Y-11.805
X-1.871 Y-11.822
X-1.735 Y-12.403
X-1.731 Y-12.421
X-1.611 Y-12.998
X-1.607 Y-13.017
X-1.504 Y-13.588
X-1.501 Y-13.609
X-1.415 Y-14.174
X-1.412 Y-14.197
X-1.345 Y-14.755
X-1.342 Y-14.779
X-1.293 Y-15.331
X-1.291 Y-15.356
X-1.262 Y-15.902
X-1.261 Y-15.928
X-1.25 Y-16.467
Y-16.494
X-1.259 Y-17.027
X-1.26 Y-17.055
X-1.289 Y-17.582
X-1.291 Y-17.61
X-1.339 Y-18.132
X-1.343 Y-18.16
X-1.41 Y-18.678
X-1.414 Y-18.705
X-1.5 Y-19.219
X-1.505 Y-19.245
X-1.61 Y-19.755
X-1.615 Y-19.78
X-1.736 Y-20.287
X-1.742 Y-20.309
X-1.879 Y-20.814
X-1.885 Y-20.834
X-2.036 Y-21.335
X-2.042 Y-21.353
X-2.206 Y-21.85
X-2.212 Y-21.866
X-2.387 Y-22.359
X-2.395 Y-22.379
X-2.772 Y-23.349
X-2.78 Y-23.369
X-3.179 Y-24.314
X-3.184 Y-24.326
X-3.588 Y-25.241
X-3.59 Y-25.245
X-3.789 Y-25.689
X-3.983 Y-26.122
X-4.17 Y-26.543
X-4.346 Y-26.949
X-4.511 Y-27.341
X-4.663 Y-27.716
X-4.8 Y-28.074
X-4.92 Y-28.415
X-5.022 Y-28.735
X-5.106 Y-29.034
X-5.17 Y-29.312
X-5.215 Y-29.566
X-5.241 Y-29.795
X-5.25 Y-30.015
Y-34.653
Y-36.499 Z-0.964 F1016
X-5.247 Y-38.144 Z-1.022
X-5.238 Y-39.771 Z-1.079
X-5.222 Y-41.38 Z-1.135
X-5.201 Y-42.972 Z-1.191
X-5.196 Y-43.243 Z-1.2
X-5.173 Y-44.546 F600
X-5.141 Y-46.102
X-5.103 Y-47.641
X-5.06 Y-49.161
X-5.014 Y-50.663
X-4.963 Y-52.146
X-4.909 Y-53.61
X-4.852 Y-55.055
X-4.792 Y-56.479
X-4.731 Y-57.882
X-4.669 Y-59.264
X-4.607 Y-60.623
X-4.544 Y-61.958
X-4.483 Y-63.269
X-4.423 Y-64.555
X-4.365 Y-65.813
Y-65.814
X-4.31 Y-67.044
Y-67.045
X-4.259 Y-68.245
Y-68.247
X-4.212 Y-69.415
Y-69.418
X-4.171 Y-70.553
Y-70.556
X-4.135 Y-71.657
Y-71.661
X-4.107 Y-72.726
Y-72.731
X-4.086 Y-73.757
Y-73.762
X-4.078 Y-74.26
Y-74.263
X-4.073 Y-74.752
Y-74.755
X-4.07 Y-75.233
Y-75.237
X-4.069 Y-75.704
Y-75.708
X-4.071 Y-76.165
Y-76.169
X-4.076 Y-76.615
Y-76.62
X-4.083 Y-77.054
Y-77.059
X-4.093 Y-77.482
Y-77.487
X-4.105 Y-77.898
X-4.106 Y-77.904
X-4.121 Y-78.288
Y-83.03
G2 X-4.601 Y-84.015 I-1.25 J0
G1 X-8.144 Y-86.783
G2 X-9.899 Y-86.568 I-0.77 J0.985
G1 X-13.308 Y-82.204
X-13.358 Y-82.132
X-13.418 Y-82.033
X-13.459 Y-81.956
X-13.491 Y-81.875
X-13.527 Y-81.764
X-13.551 Y-81.67
X-13.608 Y-81.362
X-13.611 Y-81.343
X-13.663 Y-81.016
X-13.666 Y-81
X-13.713 Y-80.655
X-13.715 Y-80.64
X-13.758 Y-80.278
X-13.759 Y-80.265
X-13.797 Y-79.884
X-13.798 Y-79.873
X-13.831 Y-79.475
X-13.832 Y-79.465
X-13.861 Y-79.05
X-13.862 Y-79.041
X-13.886 Y-78.61
X-13.887 Y-78.601
X-13.907 Y-78.153
Y-78.146
X-13.924 Y-77.682
Y-77.676
X-13.937 Y-77.197
Y-77.19
X-13.945 Y-76.696
X-13.946 Y-76.69
X-13.951 Y-76.181
Y-76.176
X-13.952 Y-75.652
Y-75.647
X-13.951 Y-75.109
Y-75.104
X-13.946 Y-74.552
Y-74.548
X-13.938 Y-73.983
Y-73.979
X-13.928 Y-73.4
Y-73.397
X-13.914 Y-72.805
Y-72.802
X-13.898 Y-72.198
Y-72.195
X-13.88 Y-71.578
Y-71.576
X-13.859 Y-70.947
Y-70.945
X-13.836 Y-70.305
Y-70.303
X-13.812 Y-69.651
Y-69.649
X-13.785 Y-68.986
Y-68.985
X-13.757 Y-68.311
Y-68.31
X-13.727 Y-67.625
Y-67.624
X-13.696 Y-66.929
Y-66.928
X-13.631 Y-65.508
X-13.63 Y-65.507
X-13.561 Y-64.049
X-13.489 Y-62.554
X-13.416 Y-61.025
X-13.342 Y-59.462
X-13.269 Y-57.868
X-13.198 Y-56.242
X-13.129 Y-54.587
X-13.064 Y-52.903
X-13.003 Y-51.19
X-12.947 Y-49.449
X-12.897 Y-47.68
X-12.853 Y-45.884
X-12.817 Y-44.061
X-12.788 Y-42.212
X-12.767 Y-40.335
X-12.754 Y-38.431
X-12.75 Y-36.499
Y-30.015
X-12.759 Y-29.795
X-12.785 Y-29.566
X-12.83 Y-29.312
X-12.894 Y-29.034
X-12.978 Y-28.735
X-13.08 Y-28.415
X-13.2 Y-28.074
X-13.337 Y-27.716
X-13.489 Y-27.341
X-13.654 Y-26.949
X-13.83 Y-26.543
X-14.017 Y-26.122
X-14.211 Y-25.689
X-14.41 Y-25.245
X-14.412 Y-25.241
X-14.816 Y-24.326
X-14.821 Y-24.314
X-15.22 Y-23.369
X-15.228 Y-23.349
X-15.605 Y-22.379
X-15.613 Y-22.359
X-15.788 Y-21.866
X-15.794 Y-21.85
X-15.958 Y-21.353
X-15.964 Y-21.335
X-16.115 Y-20.834
X-16.121 Y-20.814
X-16.258 Y-20.309
X-16.264 Y-20.287
X-16.385 Y-19.779
X-16.39 Y-19.755
X-16.495 Y-19.245
X-16.5 Y-19.219
X-16.586 Y-18.705
X-16.59 Y-18.678
X-16.657 Y-18.16
X-16.66 Y-18.132
X-16.709 Y-17.61
X-16.711 Y-17.582
X-16.74 Y-17.055
X-16.741 Y-17.027
X-16.75 Y-16.494
Y-16.467
X-16.739 Y-15.928
X-16.738 Y-15.902
X-16.709 Y-15.356
X-16.707 Y-15.331
X-16.658 Y-14.779
X-16.655 Y-14.755
X-16.588 Y-14.197
X-16.585 Y-14.174
X-16.499 Y-13.609
X-16.496 Y-13.588
X-16.393 Y-13.017
X-16.389 Y-12.998
X-16.269 Y-12.421
X-16.265 Y-12.403
X-16.129 Y-11.822
X-16.125 Y-11.805
X-15.974 Y-11.221
X-15.969 Y-11.205
X-15.804 Y-10.619
X-15.799 Y-10.603
X-15.619 Y-10.018
X-15.615 Y-10.003
X-15.422 Y-9.42
X-15.417 Y-9.405
X-15.212 Y-8.827
X-15.207 Y-8.812
X-14.99 Y-8.24
X-14.984 Y-8.225
X-14.757 Y-7.662
X-14.751 Y-7.647
X-14.514 Y-7.095
X-14.507 Y-7.079
X-14.261 Y-6.542
X-14.253 Y-6.525
X-13.999 Y-6.004
X-13.99 Y-5.986
X-13.728 Y-5.483
X-13.718 Y-5.464
X-13.45 Y-4.983
X-13.438 Y-4.962
X-13.164 Y-4.504
X-13.15 Y-4.482
X-12.871 Y-4.05
X-12.855 Y-4.026
X-12.571 Y-3.623
X-12.551 Y-3.596
X-12.264 Y-3.223
X-12.24 Y-3.194
X-11.949 Y-2.853
X-11.92 Y-2.821
X-11.627 Y-2.516
X-11.591 Y-2.481
X-11.296 Y-2.212
X-11.251 Y-2.174
X-10.955 Y-1.943
X-10.914 Y-1.914
X-10.766 Y-1.813
X-10.735 Y-1.794
X-10.586 Y-1.703
X-10.552 Y-1.684
X-10.402 Y-1.603
X-10.365 Y-1.585
X-10.215 Y-1.515
X-10.174 Y-1.497
X-10.025 Y-1.438
X-9.98 Y-1.422
X-9.831 Y-1.373
X-9.783 Y-1.36
X-9.633 Y-1.322
X-9.583 Y-1.311
X-9.433 Y-1.284
X-9.381 Y-1.276
X-9.231 Y-1.26
X-9.177 Y-1.256
X-9.027 Y-1.25
X-8.973
X-8.823 Y-1.256
X-8.769 Y-1.26
X-8.619 Y-1.276
X-8.567 Y-1.284
X-8.417 Y-1.311
X-8.367 Y-1.322
X-8.217 Y-1.36
X-8.169 Y-1.373
X-8.02 Y-1.422
X-7.975 Y-1.438
X-7.826 Y-1.497
X-7.785 Y-1.515
X-7.635 Y-1.585
X-7.598 Y-1.603
X-7.448 Y-1.684
X-7.414 Y-1.703
X-7.265 Y-1.794
X-7.234 Y-1.813
X-7.086 Y-1.914
X-7.045 Y-1.943
X-6.749 Y-2.174
X-6.704 Y-2.212
X-6.409 Y-2.481
X-6.373 Y-2.516
X-6.08 Y-2.821
X-6.051 Y-2.853
X-5.76 Y-3.194
X-5.736 Y-3.223
X-5.449 Y-3.596
X-5.429 Y-3.623
X-5.145 Y-4.026
X-5.129 Y-4.05
X-4.85 Y-4.482
X-4.836 Y-4.504
X-4.562 Y-4.962
X-4.55 Y-4.983
X-4.282 Y-5.464
X-4.272 Y-5.483
X-4.01 Y-5.986
X-4.001 Y-6.003
X-3.747 Y-6.525
X-3.739 Y-6.542
X-3.493 Y-7.079
X-3.486 Y-7.095
X-3.249 Y-7.647
X-3.243 Y-7.662
X-3.016 Y-8.225
X-3.01 Y-8.24
X-2.793 Y-8.812
X-2.788 Y-8.827
X-2.583 Y-9.405
X-2.578 Y-9.42
X-2.385 Y-10.003
X-2.38 Y-10.018
X-2.201 Y-10.604
X-2.196 Y-10.619
X-2.031 Y-11.205
X-2.026 Y-11.221
X-1.875 Y-11.805
X-1.871 Y-11.822
X-1.735 Y-12.403
X-1.731 Y-12.421
X-1.611 Y-12.998
X-1.607 Y-13.017
X-1.504 Y-13.588
X-1.501 Y-13.609
X-1.415 Y-14.174
X-1.412 Y-14.197
X-1.345 Y-14.755
X-1.342 Y-14.779
X-1.293 Y-15.331
X-1.291 Y-15.356
X-1.262 Y-15.902
X-1.261 Y-15.928
X-1.25 Y-16.467
Y-16.494
X-1.259 Y-17.027
X-1.26 Y-17.055
X-1.289 Y-17.582
X-1.291 Y-17.61
X-1.339 Y-18.132
X-1.343 Y-18.16
X-1.41 Y-18.678
X-1.414 Y-18.705
X-1.5 Y-19.219
X-1.505 Y-19.245
X-1.61 Y-19.755
X-1.615 Y-19.78
X-1.736 Y-20.287
X-1.742 Y-20.309
X-1.879 Y-20.814
X-1.885 Y-20.834
X-2.036 Y-21.335
X-2.042 Y-21.353
X-2.206 Y-21.85
X-2.212 Y-21.866
X-2.387 Y-22.359
X-2.395 Y-22.379
X-2.772 Y-23.349
X-2.78 Y-23.369
X-3.179 Y-24.314
X-3.184 Y-24.326
X-3.588 Y-25.241
X-3.59 Y-25.245
X-3.789 Y-25.689
X-3.983 Y-26.122
X-4.17 Y-26.543
X-4.346 Y-26.949
X-4.511 Y-27.341
X-4.663 Y-27.716
X-4.8 Y-28.074
X-4.92 Y-28.415
X-5.022 Y-28.735
X-5.106 Y-29.034
X-5.17 Y-29.312
X-5.215 Y-29.566
X-5.241 Y-29.795
X-5.25 Y-30.015
Y-34.653
Y-36.499
X-5.247 Y-38.144
X-5.238 Y-39.771
X-5.222 Y-41.38
X-5.201 Y-42.972
X-5.196 Y-43.243
X-5.173 Y-44.546 Z-1.245 F1016
X-5.141 Y-46.102 Z-1.3
X-5.103 Y-47.641 Z-1.354
X-5.06 Y-49.161 Z-1.407
X-5.014 Y-50.663 Z-1.459
X-4.974 Y-51.831 Z-1.5
X-4.963 Y-52.146 F600
X-4.909 Y-53.61
X-4.852 Y-55.055
X-4.792 Y-56.479
X-4.731 Y-57.882
X-4.669 Y-59.264
X-4.607 Y-60.623
X-4.544 Y-61.958
X-4.483 Y-63.269
X-4.423 Y-64.555
X-4.365 Y-65.813
Y-65.814
X-4.31 Y-67.044
Y-67.045
X-4.259 Y-68.245
Y-68.247
X-4.212 Y-69.415
Y-69.418
X-4.171 Y-70.553
Y-70.556
X-4.135 Y-71.657
Y-71.661
X-4.107 Y-72.726
Y-72.731
X-4.086 Y-73.757
Y-73.762
X-4.078 Y-74.26
Y-74.263
X-4.073 Y-74.752
Y-74.755
X-4.07 Y-75.233
Y-75.237
X-4.069 Y-75.704
Y-75.708
X-4.071 Y-76.165
Y-76.169
X-4.076 Y-76.615
Y-76.62
X-4.083 Y-77.054
Y-77.059
X-4.093 Y-77.482
Y-77.487
X-4.105 Y-77.898
X-4.106 Y-77.904
X-4.121 Y-78.288
Y-83.03
G2 X-4.601 Y-84.015 I-1.25 J0
G1 X-8.144 Y-86.783
G2 X-9.899 Y-86.568 I-0.77 J0.985
G1 X-13.308 Y-82.204
X-13.358 Y-82.132
X-13.418 Y-82.033
X-13.459 Y-81.956
X-13.491 Y-81.875
X-13.527 Y-81.764
X-13.551 Y-81.67
X-13.608 Y-81.362
X-13.611 Y-81.343
X-13.663 Y-81.016
X-13.666 Y-81
X-13.713 Y-80.655
X-13.715 Y-80.64
X-13.758 Y-80.278
X-13.759 Y-80.265
X-13.797 Y-79.884
X-13.798 Y-79.873
X-13.831 Y-79.475
X-13.832 Y-79.465
X-13.861 Y-79.05
X-13.862 Y-79.041
X-13.886 Y-78.61
X-13.887 Y-78.601
X-13.907 Y-78.153
Y-78.146
X-13.924 Y-77.682
Y-77.676
X-13.937 Y-77.197
Y-77.19
X-13.945 Y-76.696
X-13.946 Y-76.69
X-13.951 Y-76.181
Y-76.176
X-13.952 Y-75.652
Y-75.647
X-13.951 Y-75.109
Y-75.104
X-13.946 Y-74.552
Y-74.548
X-13.938 Y-73.983
Y-73.979
X-13.928 Y-73.4
Y-73.397
X-13.914 Y-72.805
Y-72.802
X-13.898 Y-72.198
Y-72.195
X-13.88 Y-71.578
Y-71.576
X-13.859 Y-70.947
Y-70.945
X-13.836 Y-70.305
Y-70.303
X-13.812 Y-69.651
Y-69.649
X-13.785 Y-68.986
Y-68.985
X-13.757 Y-68.311
Y-68.31
X-13.727 Y-67.625
Y-67.624
X-13.696 Y-66.929
Y-66.928
X-13.631 Y-65.508
X-13.63 Y-65.507
X-13.561 Y-64.049
X-13.489 Y-62.554
X-13.416 Y-61.025
X-13.342 Y-59.462
X-13.269 Y-57.868
X-13.198 Y-56.242
X-13.129 Y-54.587
X-13.064 Y-52.903
X-13.003 Y-51.19
X-12.947 Y-49.449
X-12.897 Y-47.68
X-12.853 Y-45.884
X-12.817 Y-44.061
X-12.788 Y-42.212
X-12.767 Y-40.335
X-12.754 Y-38.431
X-12.75 Y-36.499
Y-30.015
X-12.759 Y-29.795
X-12.785 Y-29.566
X-12.83 Y-29.312
X-12.894 Y-29.034
X-12.978 Y-28.735
X-13.08 Y-28.415
X-13.2 Y-28.074
X-13.337 Y-27.716
X-13.489 Y-27.341
X-13.654 Y-26.949
X-13.83 Y-26.543
X-14.017 Y-26.122
X-14.211 Y-25.689
X-14.41 Y-25.245
X-14.412 Y-25.241
X-14.816 Y-24.326
X-14.821 Y-24.314
X-15.22 Y-23.369
X-15.228 Y-23.349
X-15.605 Y-22.379
X-15.613 Y-22.359
X-15.788 Y-21.866
X-15.794 Y-21.85
X-15.958 Y-21.353
X-15.964 Y-21.335
X-16.115 Y-20.834
X-16.121 Y-20.814
X-16.258 Y-20.309
X-16.264 Y-20.287
X-16.385 Y-19.779
X-16.39 Y-19.755
X-16.495 Y-19.245
X-16.5 Y-19.219
X-16.586 Y-18.705
X-16.59 Y-18.678
X-16.657 Y-18.16
X-16.66 Y-18.132
X-16.709 Y-17.61
X-16.711 Y-17.582
X-16.74 Y-17.055
X-16.741 Y-17.027
X-16.75 Y-16.494
Y-16.467
X-16.739 Y-15.928
X-16.738 Y-15.902
X-16.709 Y-15.356
X-16.707 Y-15.331
X-16.658 Y-14.779
X-16.655 Y-14.755
X-16.588 Y-14.197
X-16.585 Y-14.174
X-16.499 Y-13.609
X-16.496 Y-13.588
X-16.393 Y-13.017
X-16.389 Y-12.998
X-16.269 Y-12.421
X-16.265 Y-12.403
X-16.129 Y-11.822
X-16.125 Y-11.805
X-15.974 Y-11.221
X-15.969 Y-11.205
X-15.804 Y-10.619
X-15.799 Y-10.603
X-15.619 Y-10.018
X-15.615 Y-10.003
X-15.422 Y-9.42
X-15.417 Y-9.405
X-15.212 Y-8.827
X-15.207 Y-8.812
X-14.99 Y-8.24
X-14.984 Y-8.225
X-14.757 Y-7.662
X-14.751 Y-7.647
X-14.514 Y-7.095
X-14.507 Y-7.079
X-14.261 Y-6.542
X-14.253 Y-6.525
X-13.999 Y-6.004
X-13.99 Y-5.986
X-13.728 Y-5.483
X-13.718 Y-5.464
X-13.45 Y-4.983
X-13.438 Y-4.962
X-13.164 Y-4.504
X-13.15 Y-4.482
X-12.871 Y-4.05
X-12.855 Y-4.026
X-12.571 Y-3.623
X-12.551 Y-3.596
X-12.264 Y-3.223
X-12.24 Y-3.194
X-11.949 Y-2.853
X-11.92 Y-2.821
X-11.627 Y-2.516
X-11.591 Y-2.481
X-11.296 Y-2.212
X-11.251 Y-2.174
X-10.955 Y-1.943
X-10.914 Y-1.914
X-10.766 Y-1.813
X-10.735 Y-1.794
X-10.586 Y-1.703
X-10.552 Y-1.684
X-10.402 Y-1.603
X-10.365 Y-1.585
X-10.215 Y-1.515
X-10.174 Y-1.497
X-10.025 Y-1.438
X-9.98 Y-1.422
X-9.831 Y-1.373
X-9.783 Y-1.36
X-9.633 Y-1.322
X-9.583 Y-1.311
X-9.433 Y-1.284
X-9.381 Y-1.276
X-9.231 Y-1.26
X-9.177 Y-1.256
X-9.027 Y-1.25
X-8.973
X-8.823 Y-1.256
X-8.769 Y-1.26
X-8.619 Y-1.276
X-8.567 Y-1.284
X-8.417 Y-1.311
X-8.367 Y-1.322
X-8.217 Y-1.36
X-8.169 Y-1.373
X-8.02 Y-1.422
X-7.975 Y-1.438
X-7.826 Y-1.497
X-7.785 Y-1.515
X-7.635 Y-1.585
X-7.598 Y-1.603
X-7.448 Y-1.684
X-7.414 Y-1.703
X-7.265 Y-1.794
X-7.234 Y-1.813
X-7.086 Y-1.914
X-7.045 Y-1.943
X-6.749 Y-2.174
X-6.704 Y-2.212
X-6.409 Y-2.481
X-6.373 Y-2.516
X-6.08 Y-2.821
X-6.051 Y-2.853
X-5.76 Y-3.194
X-5.736 Y-3.223
X-5.449 Y-3.596
X-5.429 Y-3.623
X-5.145 Y-4.026
X-5.129 Y-4.05
X-4.85 Y-4.482
X-4.836 Y-4.504
X-4.562 Y-4.962
X-4.55 Y-4.983
X-4.282 Y-5.464
X-4.272 Y-5.483
X-4.01 Y-5.986
X-4.001 Y-6.003
X-3.747 Y-6.525
X-3.739 Y-6.542
X-3.493 Y-7.079
X-3.486 Y-7.095
X-3.249 Y-7.647
X-3.243 Y-7.662
X-3.016 Y-8.225
X-3.01 Y-8.24
X-2.793 Y-8.812
X-2.788 Y-8.827
X-2.583 Y-9.405
X-2.578 Y-9.42
X-2.385 Y-10.003
X-2.38 Y-10.018
X-2.201 Y-10.604
X-2.196 Y-10.619
X-2.031 Y-11.205
X-2.026 Y-11.221
X-1.875 Y-11.805
X-1.871 Y-11.822
X-1.735 Y-12.403
X-1.731 Y-12.421
X-1.611 Y-12.998
X-1.607 Y-13.017
X-1.504 Y-13.588
X-1.501 Y-13.609
X-1.415 Y-14.174
X-1.412 Y-14.197
X-1.345 Y-14.755
X-1.342 Y-14.779
X-1.293 Y-15.331
X-1.291 Y-15.356
X-1.262 Y-15.902
X-1.261 Y-15.928
X-1.25 Y-16.467
Y-16.494
X-1.259 Y-17.027
X-1.26 Y-17.055
X-1.289 Y-17.582
X-1.291 Y-17.61
X-1.339 Y-18.132
X-1.343 Y-18.16
X-1.41 Y-18.678
X-1.414 Y-18.705
X-1.5 Y-19.219
X-1.505 Y-19.245
X-1.61 Y-19.755
X-1.615 Y-19.78
X-1.736 Y-20.287
X-1.742 Y-20.309
X-1.879 Y-20.814
X-1.885 Y-20.834
X-2.036 Y-21.335
X-2.042 Y-21.353
X-2.206 Y-21.85
X-2.212 Y-21.866
X-2.387 Y-22.359
X-2.395 Y-22.379
X-2.772 Y-23.349
X-2.78 Y-23.369
X-3.179 Y-24.314
X-3.184 Y-24.326
X-3.588 Y-25.241
X-3.59 Y-25.245
X-3.789 Y-25.689
X-3.983 Y-26.122
X-4.17 Y-26.543
X-4.346 Y-26.949
X-4.511 Y-27.341
X-4.663 Y-27.716
X-4.8 Y-28.074
X-4.92 Y-28.415
X-5.022 Y-28.735
X-5.106 Y-29.034
X-5.17 Y-29.312
X-5.215 Y-29.566
X-5.241 Y-29.795
X-5.25 Y-30.015
Y-36.499
X-5.247 Y-38.144
X-5.238 Y-39.771
X-5.222 Y-41.38
X-5.201 Y-42.972
X-5.173 Y-44.546
X-5.141 Y-46.102
X-5.103 Y-47.641
X-5.06 Y-49.161
X-5.014 Y-50.663
X-4.974 Y-51.831
X-4.963 Y-52.146 Z-1.511 F1016
X-4.909 Y-53.61 Z-1.562
X-4.852 Y-55.055 Z-1.613
X-4.792 Y-56.479 Z-1.662
X-4.731 Y-57.882 Z-1.711
X-4.669 Y-59.264 Z-1.76
X-4.616 Y-60.415 Z-1.8
X-4.607 Y-60.623 F600
X-4.544 Y-61.958
X-4.483 Y-63.269
X-4.423 Y-64.555
X-4.365 Y-65.813
Y-65.814
X-4.31 Y-67.044
Y-67.045
X-4.259 Y-68.245
Y-68.247
X-4.212 Y-69.415
Y-69.418
X-4.171 Y-70.553
Y-70.556
X-4.135 Y-71.657
Y-71.661
X-4.107 Y-72.726
Y-72.731
X-4.086 Y-73.757
Y-73.762
X-4.078 Y-74.26
Y-74.263
X-4.073 Y-74.752
Y-74.755
X-4.07 Y-75.233
Y-75.237
X-4.069 Y-75.704
Y-75.708
X-4.071 Y-76.165
Y-76.169
X-4.076 Y-76.615
Y-76.62
X-4.083 Y-77.054
Y-77.059
X-4.093 Y-77.482
Y-77.487
X-4.105 Y-77.898
X-4.106 Y-77.904
X-4.121 Y-78.288
Y-83.03
G2 X-4.601 Y-84.015 I-1.25 J0
G1 X-8.144 Y-86.783
G2 X-9.899 Y-86.568 I-0.77 J0.985
G1 X-13.308 Y-82.204
X-13.358 Y-82.132
X-13.418 Y-82.033
X-13.459 Y-81.956
X-13.491 Y-81.875
X-13.527 Y-81.764
X-13.551 Y-81.67
X-13.608 Y-81.362
X-13.611 Y-81.343
X-13.663 Y-81.016
X-13.666 Y-81
X-13.713 Y-80.655
X-13.715 Y-80.64
X-13.758 Y-80.278
X-13.759 Y-80.265
X-13.797 Y-79.884
X-13.798 Y-79.873
X-13.831 Y-79.475
X-13.832 Y-79.465
X-13.861 Y-79.05
X-13.862 Y-79.041
X-13.886 Y-78.61
X-13.887 Y-78.601
X-13.907 Y-78.153
Y-78.146
X-13.924 Y-77.682
Y-77.676
X-13.937 Y-77.197
Y-77.19
X-13.945 Y-76.696
X-13.946 Y-76.69
X-13.951 Y-76.181
Y-76.176
X-13.952 Y-75.652
Y-75.647
X-13.951 Y-75.109
Y-75.104
X-13.946 Y-74.552
Y-74.548
X-13.938 Y-73.983
Y-73.979
X-13.928 Y-73.4
Y-73.397
X-13.914 Y-72.805
Y-72.802
X-13.898 Y-72.198
Y-72.195
X-13.88 Y-71.578
Y-71.576
X-13.859 Y-70.947
Y-70.945
X-13.836 Y-70.305
Y-70.303
X-13.812 Y-69.651
Y-69.649
X-13.785 Y-68.986
Y-68.985
X-13.757 Y-68.311
Y-68.31
X-13.727 Y-67.625
Y-67.624
X-13.696 Y-66.929
Y-66.928
X-13.631 Y-65.508
X-13.63 Y-65.507
X-13.561 Y-64.049
X-13.489 Y-62.554
X-13.416 Y-61.025
X-13.342 Y-59.462
X-13.269 Y-57.868
X-13.198 Y-56.242
X-13.129 Y-54.587
X-13.064 Y-52.903
X-13.003 Y-51.19
X-12.947 Y-49.449
X-12.897 Y-47.68
X-12.853 Y-45.884
X-12.817 Y-44.061
X-12.788 Y-42.212
X-12.767 Y-40.335
X-12.754 Y-38.431
X-12.75 Y-36.499
Y-30.015
X-12.759 Y-29.795
X-12.785 Y-29.566
X-12.83 Y-29.312
X-12.894 Y-29.034
X-12.978 Y-28.735
X-13.08 Y-28.415
X-13.2 Y-28.074
X-13.337 Y-27.716
X-13.489 Y-27.341
X-13.654 Y-26.949
X-13.83 Y-26.543
X-14.017 Y-26.122
X-14.211 Y-25.689
X-14.41 Y-25.245
X-14.412 Y-25.241
X-14.816 Y-24.326
X-14.821 Y-24.314
X-15.22 Y-23.369
X-15.228 Y-23.349
X-15.605 Y-22.379
X-15.613 Y-22.359
X-15.788 Y-21.866
X-15.794 Y-21.85
X-15.958 Y-21.353
X-15.964 Y-21.335
X-16.115 Y-20.834
X-16.121 Y-20.814
X-16.258 Y-20.309
X-16.264 Y-20.287
X-16.385 Y-19.779
X-16.39 Y-19.755
X-16.495 Y-19.245
X-16.5 Y-19.219
X-16.586 Y-18.705
X-16.59 Y-18.678
X-16.657 Y-18.16
X-16.66 Y-18.132
X-16.709 Y-17.61
X-16.711 Y-17.582
X-16.74 Y-17.055
X-16.741 Y-17.027
X-16.75 Y-16.494
Y-16.467
X-16.739 Y-15.928
X-16.738 Y-15.902
X-16.709 Y-15.356
X-16.707 Y-15.331
X-16.658 Y-14.779
X-16.655 Y-14.755
X-16.588 Y-14.197
X-16.585 Y-14.174
X-16.499 Y-13.609
X-16.496 Y-13.588
X-16.393 Y-13.017
X-16.389 Y-12.998
X-16.269 Y-12.421
X-16.265 Y-12.403
X-16.129 Y-11.822
X-16.125 Y-11.805
X-15.974 Y-11.221
X-15.969 Y-11.205
X-15.804 Y-10.619
X-15.799 Y-10.603
X-15.619 Y-10.018
X-15.615 Y-10.003
X-15.422 Y-9.42
X-15.417 Y-9.405
X-15.212 Y-8.827
X-15.207 Y-8.812
X-14.99 Y-8.24
X-14.984 Y-8.225
X-14.757 Y-7.662
X-14.751 Y-7.647
X-14.514 Y-7.095
X-14.507 Y-7.079
X-14.261 Y-6.542
X-14.253 Y-6.525
X-13.999 Y-6.004
X-13.99 Y-5.986
X-13.728 Y-5.483
X-13.718 Y-5.464
X-13.45 Y-4.983
X-13.438 Y-4.962
X-13.164 Y-4.504
X-13.15 Y-4.482
X-12.871 Y-4.05
X-12.855 Y-4.026
X-12.571 Y-3.623
X-12.551 Y-3.596
X-12.264 Y-3.223
X-12.24 Y-3.194
X-11.949 Y-2.853
X-11.92 Y-2.821
X-11.627 Y-2.516
X-11.591 Y-2.481
X-11.296 Y-2.212
X-11.251 Y-2.174
X-10.955 Y-1.943
X-10.914 Y-1.914
X-10.766 Y-1.813
X-10.735 Y-1.794
X-10.586 Y-1.703
X-10.552 Y-1.684
X-10.402 Y-1.603
X-10.365 Y-1.585
X-10.215 Y-1.515
X-10.174 Y-1.497
X-10.025 Y-1.438
X-9.98 Y-1.422
X-9.831 Y-1.373
X-9.783 Y-1.36
X-9.633 Y-1.322
X-9.583 Y-1.311
X-9.433 Y-1.284
X-9.381 Y-1.276
X-9.231 Y-1.26
X-9.177 Y-1.256
X-9.027 Y-1.25
X-8.973
X-8.823 Y-1.256
X-8.769 Y-1.26
X-8.619 Y-1.276
X-8.567 Y-1.284
X-8.417 Y-1.311
X-8.367 Y-1.322
X-8.217 Y-1.36
X-8.169 Y-1.373
X-8.02 Y-1.422
X-7.975 Y-1.438
X-7.826 Y-1.497
X-7.785 Y-1.515
X-7.635 Y-1.585
X-7.598 Y-1.603
X-7.448 Y-1.684
X-7.414 Y-1.703
X-7.265 Y-1.794
X-7.234 Y-1.813
X-7.086 Y-1.914
X-7.045 Y-1.943
X-6.749 Y-2.174
X-6.704 Y-2.212
X-6.409 Y-2.481
X-6.373 Y-2.516
X-6.08 Y-2.821
X-6.051 Y-2.853
X-5.76 Y-3.194
X-5.736 Y-3.223
X-5.449 Y-3.596
X-5.429 Y-3.623
X-5.145 Y-4.026
X-5.129 Y-4.05
X-4.85 Y-4.482
X-4.836 Y-4.504
X-4.562 Y-4.962
X-4.55 Y-4.983
X-4.282 Y-5.464
X-4.272 Y-5.483
X-4.01 Y-5.986
X-4.001 Y-6.003
X-3.747 Y-6.525
X-3.739 Y-6.542
X-3.493 Y-7.079
X-3.486 Y-7.095
X-3.249 Y-7.647
X-3.243 Y-7.662
X-3.016 Y-8.225
X-3.01 Y-8.24
X-2.793 Y-8.812
X-2.788 Y-8.827
X-2.583 Y-9.405
X-2.578 Y-9.42
X-2.385 Y-10.003
X-2.38 Y-10.018
X-2.201 Y-10.604
X-2.196 Y-10.619
X-2.031 Y-11.205
X-2.026 Y-11.221
X-1.875 Y-11.805
X-1.871 Y-11.822
X-1.735 Y-12.403
X-1.731 Y-12.421
X-1.611 Y-12.998
X-1.607 Y-13.017
X-1.504 Y-13.588
X-1.501 Y-13.609
X-1.415 Y-14.174
X-1.412 Y-14.197
X-1.345 Y-14.755
X-1.342 Y-14.779
X-1.293 Y-15.331
X-1.291 Y-15.356
X-1.262 Y-15.902
X-1.261 Y-15.928
X-1.25 Y-16.467
Y-16.494
X-1.259 Y-17.027
X-1.26 Y-17.055
X-1.289 Y-17.582
X-1.291 Y-17.61
X-1.339 Y-18.132
X-1.343 Y-18.16
X-1.41 Y-18.678
X-1.414 Y-18.705
X-1.5 Y-19.219
X-1.505 Y-19.245
X-1.61 Y-19.755
X-1.615 Y-19.78
X-1.736 Y-20.287
X-1.742 Y-20.309
X-1.879 Y-20.814
X-1.885 Y-20.834
X-2.036 Y-21.335
X-2.042 Y-21.353
X-2.206 Y-21.85
X-2.212 Y-21.866
X-2.387 Y-22.359
X-2.395 Y-22.379
X-2.772 Y-23.349
X-2.78 Y-23.369
X-3.179 Y-24.314
X-3.184 Y-24.326
X-3.588 Y-25.241
X-3.59 Y-25.245
X-3.789 Y-25.689
X-3.983 Y-26.122
X-4.17 Y-26.543
X-4.346 Y-26.949
X-4.511 Y-27.341
X-4.663 Y-27.716
X-4.8 Y-28.074
X-4.92 Y-28.415
X-5.022 Y-28.735
X-5.106 Y-29.034
X-5.17 Y-29.312
X-5.215 Y-29.566
X-5.241 Y-29.795
X-5.25 Y-30.015
Y-36.499
X-5.247 Y-38.144
X-5.238 Y-39.771
X-5.222 Y-41.38
X-5.201 Y-42.972
X-5.173 Y-44.546
X-5.141 Y-46.102
X-5.103 Y-47.641
X-5.06 Y-49.161
X-5.014 Y-50.663
X-4.974 Y-51.831
X-4.963 Y-52.146
X-4.909 Y-53.61
X-4.852 Y-55.055
X-4.792 Y-56.479
X-4.731 Y-57.882
X-4.669 Y-59.264
X-4.616 Y-60.415
X-4.607 Y-60.623 Z-1.807 F1016
X-4.544 Y-61.958 Z-1.854
X-4.483 Y-63.269 Z-1.9
X-4.423 Y-64.555 Z-1.945
X-4.365 Y-65.813 Z-1.989
Y-65.814
X-4.31 Y-67.044 Z-2.032
Y-67.045
X-4.259 Y-68.245 Z-2.074
Y-68.247
X-4.229 Y-68.997 Z-2.1
X-4.212 Y-69.415 F600
Y-69.418
X-4.171 Y-70.553
Y-70.556
X-4.135 Y-71.657
Y-71.661
X-4.107 Y-72.726
Y-72.731
X-4.086 Y-73.757
Y-73.762
X-4.078 Y-74.26
Y-74.263
X-4.073 Y-74.752
Y-74.755
X-4.07 Y-75.233
Y-75.237
X-4.069 Y-75.704
Y-75.708
X-4.071 Y-76.165
Y-76.169
X-4.076 Y-76.615
Y-76.62
X-4.083 Y-77.054
Y-77.059
X-4.093 Y-77.482
Y-77.487
X-4.105 Y-77.898
X-4.106 Y-77.904
X-4.121 Y-78.288
Y-83.03
G2 X-4.601 Y-84.015 I-1.25 J0
G1 X-8.144 Y-86.783
G2 X-9.899 Y-86.568 I-0.77 J0.985
G1 X-13.308 Y-82.204
X-13.358 Y-82.132
X-13.418 Y-82.033
X-13.459 Y-81.956
X-13.491 Y-81.875
X-13.527 Y-81.764
X-13.551 Y-81.67
X-13.608 Y-81.362
X-13.611 Y-81.343
X-13.663 Y-81.016
X-13.666 Y-81
X-13.713 Y-80.655
X-13.715 Y-80.64
X-13.758 Y-80.278
X-13.759 Y-80.265
X-13.797 Y-79.884
X-13.798 Y-79.873
X-13.831 Y-79.475
X-13.832 Y-79.465
X-13.861 Y-79.05
X-13.862 Y-79.041
X-13.886 Y-78.61
X-13.887 Y-78.601
X-13.907 Y-78.153
Y-78.146
X-13.924 Y-77.682
Y-77.676
X-13.937 Y-77.197
Y-77.19
X-13.945 Y-76.696
X-13.946 Y-76.69
X-13.951 Y-76.181
Y-76.176
X-13.952 Y-75.652
Y-75.647
X-13.951 Y-75.109
Y-75.104
X-13.946 Y-74.552
Y-74.548
X-13.938 Y-73.983
Y-73.979
X-13.928 Y-73.4
Y-73.397
X-13.914 Y-72.805
Y-72.802
X-13.898 Y-72.198
Y-72.195
X-13.88 Y-71.578
Y-71.576
X-13.859 Y-70.947
Y-70.945
X-13.836 Y-70.305
Y-70.303
X-13.812 Y-69.651
Y-69.649
X-13.785 Y-68.986
Y-68.985
X-13.757 Y-68.311
Y-68.31
X-13.727 Y-67.625
Y-67.624
X-13.696 Y-66.929
Y-66.928
X-13.631 Y-65.508
X-13.63 Y-65.507
X-13.561 Y-64.049
X-13.489 Y-62.554
X-13.416 Y-61.025
X-13.342 Y-59.462
X-13.269 Y-57.868
X-13.198 Y-56.242
X-13.129 Y-54.587
X-13.064 Y-52.903
X-13.003 Y-51.19
X-12.947 Y-49.449
X-12.897 Y-47.68
X-12.853 Y-45.884
X-12.817 Y-44.061
X-12.788 Y-42.212
X-12.767 Y-40.335
X-12.754 Y-38.431
X-12.75 Y-36.499
Y-30.015
X-12.759 Y-29.795
X-12.785 Y-29.566
X-12.83 Y-29.312
X-12.894 Y-29.034
X-12.978 Y-28.735
X-13.08 Y-28.415
X-13.2 Y-28.074
X-13.337 Y-27.716
X-13.489 Y-27.341
X-13.654 Y-26.949
X-13.83 Y-26.543
X-14.017 Y-26.122
X-14.211 Y-25.689
X-14.41 Y-25.245
X-14.412 Y-25.241
X-14.816 Y-24.326
X-14.821 Y-24.314
X-15.22 Y-23.369
X-15.228 Y-23.349
X-15.605 Y-22.379
X-15.613 Y-22.359
X-15.788 Y-21.866
X-15.794 Y-21.85
X-15.958 Y-21.353
X-15.964 Y-21.335
X-16.115 Y-20.834
X-16.121 Y-20.814
X-16.258 Y-20.309
X-16.264 Y-20.287
X-16.385 Y-19.779
X-16.39 Y-19.755
X-16.495 Y-19.245
X-16.5 Y-19.219
X-16.586 Y-18.705
X-16.59 Y-18.678
X-16.657 Y-18.16
X-16.66 Y-18.132
X-16.709 Y-17.61
X-16.711 Y-17.582
X-16.74 Y-17.055
X-16.741 Y-17.027
X-16.75 Y-16.494
Y-16.467
X-16.739 Y-15.928
X-16.738 Y-15.902
X-16.709 Y-15.356
X-16.707 Y-15.331
X-16.658 Y-14.779
X-16.655 Y-14.755
X-16.588 Y-14.197
X-16.585 Y-14.174
X-16.499 Y-13.609
X-16.496 Y-13.588
X-16.393 Y-13.017
X-16.389 Y-12.998
X-16.269 Y-12.421
X-16.265 Y-12.403
X-16.129 Y-11.822
X-16.125 Y-11.805
X-15.974 Y-11.221
X-15.969 Y-11.205
X-15.804 Y-10.619
X-15.799 Y-10.603
X-15.619 Y-10.018
X-15.615 Y-10.003
X-15.422 Y-9.42
X-15.417 Y-9.405
X-15.212 Y-8.827
X-15.207 Y-8.812
X-14.99 Y-8.24
X-14.984 Y-8.225
X-14.757 Y-7.662
X-14.751 Y-7.647
X-14.514 Y-7.095
X-14.507 Y-7.079
X-14.261 Y-6.542
X-14.253 Y-6.525
X-13.999 Y-6.004
X-13.99 Y-5.986
X-13.728 Y-5.483
X-13.718 Y-5.464
X-13.45 Y-4.983
X-13.438 Y-4.962
X-13.164 Y-4.504
X-13.15 Y-4.482
X-12.871 Y-4.05
X-12.855 Y-4.026
X-12.571 Y-3.623
X-12.551 Y-3.596
X-12.264 Y-3.223
X-12.24 Y-3.194
X-11.949 Y-2.853
X-11.92 Y-2.821
X-11.627 Y-2.516
X-11.591 Y-2.481
X-11.296 Y-2.212
X-11.251 Y-2.174
X-10.955 Y-1.943
X-10.914 Y-1.914
X-10.766 Y-1.813
X-10.735 Y-1.794
X-10.586 Y-1.703
X-10.552 Y-1.684
X-10.402 Y-1.603
X-10.365 Y-1.585
X-10.215 Y-1.515
X-10.174 Y-1.497
X-10.025 Y-1.438
X-9.98 Y-1.422
X-9.831 Y-1.373
X-9.783 Y-1.36
X-9.633 Y-1.322
X-9.583 Y-1.311
X-9.433 Y-1.284
X-9.381 Y-1.276
X-9.231 Y-1.26
X-9.177 Y-1.256
X-9.027 Y-1.25
X-8.973
X-8.823 Y-1.256
X-8.769 Y-1.26
X-8.619 Y-1.276
X-8.567 Y-1.284
X-8.417 Y-1.311
X-8.367 Y-1.322
X-8.217 Y-1.36
X-8.169 Y-1.373
X-8.02 Y-1.422
X-7.975 Y-1.438
X-7.826 Y-1.497
X-7.785 Y-1.515
X-7.635 Y-1.585
X-7.598 Y-1.603
X-7.448 Y-1.684
X-7.414 Y-1.703
X-7.265 Y-1.794
X-7.234 Y-1.813
X-7.086 Y-1.914
X-7.045 Y-1.943
X-6.749 Y-2.174
X-6.704 Y-2.212
X-6.409 Y-2.481
X-6.373 Y-2.516
X-6.08 Y-2.821
X-6.051 Y-2.853
X-5.76 Y-3.194
X-5.736 Y-3.223
X-5.449 Y-3.596
X-5.429 Y-3.623
X-5.145 Y-4.026
X-5.129 Y-4.05
X-4.85 Y-4.482
X-4.836 Y-4.504
X-4.562 Y-4.962
X-4.55 Y-4.983
X-4.282 Y-5.464
X-4.272 Y-5.483
X-4.01 Y-5.986
X-4.001 Y-6.003
X-3.747 Y-6.525
X-3.739 Y-6.542
X-3.493 Y-7.079
X-3.486 Y-7.095
X-3.249 Y-7.647
X-3.243 Y-7.662
X-3.016 Y-8.225
X-3.01 Y-8.24
X-2.793 Y-8.812
X-2.788 Y-8.827
X-2.583 Y-9.405
X-2.578 Y-9.42
X-2.385 Y-10.003
X-2.38 Y-10.018
X-2.201 Y-10.604
X-2.196 Y-10.619
X-2.031 Y-11.205
X-2.026 Y-11.221
X-1.875 Y-11.805
X-1.871 Y-11.822
X-1.735 Y-12.403
X-1.731 Y-12.421
X-1.611 Y-12.998
X-1.607 Y-13.017
X-1.504 Y-13.588
X-1.501 Y-13.609
X-1.415 Y-14.174
X-1.412 Y-14.197
X-1.345 Y-14.755
X-1.342 Y-14.779
X-1.293 Y-15.331
X-1.291 Y-15.356
X-1.262 Y-15.902
X-1.261 Y-15.928
X-1.25 Y-16.467
Y-16.494
X-1.259 Y-17.027
X-1.26 Y-17.055
X-1.289 Y-17.582
X-1.291 Y-17.61
X-1.339 Y-18.132
X-1.343 Y-18.16
X-1.41 Y-18.678
X-1.414 Y-18.705
X-1.5 Y-19.219
X-1.505 Y-19.245
X-1.61 Y-19.755
X-1.615 Y-19.78
X-1.736 Y-20.287
X-1.742 Y-20.309
X-1.879 Y-20.814
X-1.885 Y-20.834
X-2.036 Y-21.335
X-2.042 Y-21.353
X-2.206 Y-21.85
X-2.212 Y-21.866
X-2.387 Y-22.359
X-2.395 Y-22.379
X-2.772 Y-23.349
X-2.78 Y-23.369
X-3.179 Y-24.314
X-3.184 Y-24.326
X-3.588 Y-25.241
X-3.59 Y-25.245
X-3.789 Y-25.689
X-3.983 Y-26.122
X-4.17 Y-26.543
X-4.346 Y-26.949
X-4.511 Y-27.341
X-4.663 Y-27.716
X-4.8 Y-28.074
X-4.92 Y-28.415
X-5.022 Y-28.735
X-5.106 Y-29.034
X-5.17 Y-29.312
X-5.215 Y-29.566
X-5.241 Y-29.795
X-5.25 Y-30.015
Y-36.499
X-5.247 Y-38.144
X-5.238 Y-39.771
X-5.222 Y-41.38
X-5.201 Y-42.972
X-5.173 Y-44.546
X-5.141 Y-46.102
X-5.103 Y-47.641
X-5.06 Y-49.161
X-5.014 Y-50.663
X-4.963 Y-52.146
X-4.909 Y-53.61
X-4.852 Y-55.055
X-4.792 Y-56.479
X-4.731 Y-57.882
X-4.669 Y-59.264
X-4.616 Y-60.415
X-4.607 Y-60.623
X-4.544 Y-61.958
X-4.483 Y-63.269
X-4.423 Y-64.555
X-4.365 Y-65.813
Y-65.814
X-4.31 Y-67.044
Y-67.045
X-4.259 Y-68.245
Y-68.247
X-4.229 Y-68.997
X-4.212 Y-69.415 Z-2.115 F1016
Y-69.418
X-4.171 Y-70.553 Z-2.154
Y-70.556
X-4.135 Y-71.657 Z-2.193
Y-71.661
X-4.107 Y-72.726 Z-2.23
Y-72.731
X-4.086 Y-73.757 Z-2.266
Y-73.762
X-4.078 Y-74.26 Z-2.284
Y-74.263
X-4.073 Y-74.752 Z-2.301
Y-74.755
X-4.07 Y-75.233 Z-2.318
Y-75.237
X-4.069 Y-75.704 Z-2.334
Y-75.708
X-4.071 Y-76.165 Z-2.35
Y-76.169 Z-2.351
X-4.076 Y-76.615 Z-2.366
Y-76.62
X-4.083 Y-77.054 Z-2.381
Y-77.059 Z-2.382
X-4.093 Y-77.482 Z-2.396
Y-77.487 Z-2.397
X-4.096 Y-77.585 Z-2.4
X-4.105 Y-77.898 F600
X-4.106 Y-77.904
X-4.121 Y-78.288
Y-83.03
G2 X-4.601 Y-84.015 I-1.25 J0
G1 X-8.144 Y-86.783
G2 X-9.899 Y-86.568 I-0.77 J0.985
G1 X-13.308 Y-82.204
X-13.358 Y-82.132
X-13.418 Y-82.033
X-13.459 Y-81.956
X-13.491 Y-81.875
X-13.527 Y-81.764
X-13.551 Y-81.67
X-13.608 Y-81.362
X-13.611 Y-81.343
X-13.663 Y-81.016
X-13.666 Y-81
X-13.713 Y-80.655
X-13.715 Y-80.64
X-13.758 Y-80.278
X-13.759 Y-80.265
X-13.797 Y-79.884
X-13.798 Y-79.873
X-13.831 Y-79.475
X-13.832 Y-79.465
X-13.861 Y-79.05
X-13.862 Y-79.041
X-13.886 Y-78.61
X-13.887 Y-78.601
X-13.907 Y-78.153
Y-78.146
X-13.924 Y-77.682
Y-77.676
X-13.937 Y-77.197
Y-77.19
X-13.945 Y-76.696
X-13.946 Y-76.69
X-13.951 Y-76.181
Y-76.176
X-13.952 Y-75.652
Y-75.647
X-13.951 Y-75.109
Y-75.104
X-13.946 Y-74.552
Y-74.548
X-13.938 Y-73.983
Y-73.979
X-13.928 Y-73.4
Y-73.397
X-13.914 Y-72.805
Y-72.802
X-13.898 Y-72.198
Y-72.195
X-13.88 Y-71.578
Y-71.576
X-13.859 Y-70.947
Y-70.945
X-13.836 Y-70.305
Y-70.303
X-13.812 Y-69.651
Y-69.649
X-13.785 Y-68.986
Y-68.985
X-13.757 Y-68.311
Y-68.31
X-13.727 Y-67.625
Y-67.624
X-13.696 Y-66.929
Y-66.928
X-13.631 Y-65.508
X-13.63 Y-65.507
X-13.561 Y-64.049
X-13.489 Y-62.554
X-13.416 Y-61.025
X-13.342 Y-59.462
X-13.269 Y-57.868
X-13.198 Y-56.242
X-13.129 Y-54.587
X-13.064 Y-52.903
X-13.003 Y-51.19
X-12.947 Y-49.449
X-12.897 Y-47.68
X-12.853 Y-45.884
X-12.817 Y-44.061
X-12.788 Y-42.212
X-12.767 Y-40.335
X-12.754 Y-38.431
X-12.75 Y-36.499
Y-30.015
X-12.759 Y-29.795
X-12.785 Y-29.566
X-12.83 Y-29.312
X-12.894 Y-29.034
X-12.978 Y-28.735
X-13.08 Y-28.415
X-13.2 Y-28.074
X-13.337 Y-27.716
X-13.489 Y-27.341
X-13.654 Y-26.949
X-13.83 Y-26.543
X-14.017 Y-26.122
X-14.211 Y-25.689
X-14.41 Y-25.245
X-14.412 Y-25.241
X-14.816 Y-24.326
X-14.821 Y-24.314
X-15.22 Y-23.369
X-15.228 Y-23.349
X-15.605 Y-22.379
X-15.613 Y-22.359
X-15.788 Y-21.866
X-15.794 Y-21.85
X-15.958 Y-21.353
X-15.964 Y-21.335
X-16.115 Y-20.834
X-16.121 Y-20.814
X-16.258 Y-20.309
X-16.264 Y-20.287
X-16.385 Y-19.779
X-16.39 Y-19.755
X-16.495 Y-19.245
X-16.5 Y-19.219
X-16.586 Y-18.705
X-16.59 Y-18.678
X-16.657 Y-18.16
X-16.66 Y-18.132
X-16.709 Y-17.61
X-16.711 Y-17.582
X-16.74 Y-17.055
X-16.741 Y-17.027
X-16.75 Y-16.494
Y-16.467
X-16.739 Y-15.928
X-16.738 Y-15.902
X-16.709 Y-15.356
X-16.707 Y-15.331
X-16.658 Y-14.779
X-16.655 Y-14.755
X-16.588 Y-14.197
X-16.585 Y-14.174
X-16.499 Y-13.609
X-16.496 Y-13.588
X-16.393 Y-13.017
X-16.389 Y-12.998
X-16.269 Y-12.421
X-16.265 Y-12.403
X-16.129 Y-11.822
X-16.125 Y-11.805
X-15.974 Y-11.221
X-15.969 Y-11.205
X-15.804 Y-10.619
X-15.799 Y-10.603
X-15.619 Y-10.018
X-15.615 Y-10.003
X-15.422 Y-9.42
X-15.417 Y-9.405
X-15.212 Y-8.827
X-15.207 Y-8.812
X-14.99 Y-8.24
X-14.984 Y-8.225
X-14.757 Y-7.662
X-14.751 Y-7.647
X-14.514 Y-7.095
X-14.507 Y-7.079
X-14.261 Y-6.542
X-14.253 Y-6.525
X-13.999 Y-6.004
X-13.99 Y-5.986
X-13.728 Y-5.483
X-13.718 Y-5.464
X-13.45 Y-4.983
X-13.438 Y-4.962
X-13.164 Y-4.504
X-13.15 Y-4.482
X-12.871 Y-4.05
X-12.855 Y-4.026
X-12.571 Y-3.623
X-12.551 Y-3.596
X-12.264 Y-3.223
X-12.24 Y-3.194
X-11.949 Y-2.853
X-11.92 Y-2.821
X-11.627 Y-2.516
X-11.591 Y-2.481
X-11.296 Y-2.212
X-11.251 Y-2.174
X-10.955 Y-1.943
X-10.914 Y-1.914
X-10.766 Y-1.813
X-10.735 Y-1.794
X-10.586 Y-1.703
X-10.552 Y-1.684
X-10.402 Y-1.603
X-10.365 Y-1.585
X-10.215 Y-1.515
X-10.174 Y-1.497
X-10.025 Y-1.438
X-9.98 Y-1.422
X-9.831 Y-1.373
X-9.783 Y-1.36
X-9.633 Y-1.322
X-9.583 Y-1.311
X-9.433 Y-1.284
X-9.381 Y-1.276
X-9.231 Y-1.26
X-9.177 Y-1.256
X-9.027 Y-1.25
X-8.973
X-8.823 Y-1.256
X-8.769 Y-1.26
X-8.619 Y-1.276
X-8.567 Y-1.284
X-8.417 Y-1.311
X-8.367 Y-1.322
X-8.217 Y-1.36
X-8.169 Y-1.373
X-8.02 Y-1.422
X-7.975 Y-1.438
X-7.826 Y-1.497
X-7.785 Y-1.515
X-7.635 Y-1.585
X-7.598 Y-1.603
X-7.448 Y-1.684
X-7.414 Y-1.703
X-7.265 Y-1.794
X-7.234 Y-1.813
X-7.086 Y-1.914
X-7.045 Y-1.943
X-6.749 Y-2.174
X-6.704 Y-2.212
X-6.409 Y-2.481
X-6.373 Y-2.516
X-6.08 Y-2.821
X-6.051 Y-2.853
X-5.76 Y-3.194
X-5.736 Y-3.223
X-5.449 Y-3.596
X-5.429 Y-3.623
X-5.145 Y-4.026
X-5.129 Y-4.05
X-4.85 Y-4.482
X-4.836 Y-4.504
X-4.562 Y-4.962
X-4.55 Y-4.983
X-4.282 Y-5.464
X-4.272 Y-5.483
X-4.01 Y-5.986
X-4.001 Y-6.003
X-3.747 Y-6.525
X-3.739 Y-6.542
X-3.493 Y-7.079
X-3.486 Y-7.095
X-3.249 Y-7.647
X-3.243 Y-7.662
X-3.016 Y-8.225
X-3.01 Y-8.24
X-2.793 Y-8.812
X-2.788 Y-8.827
X-2.583 Y-9.405
X-2.578 Y-9.42
X-2.385 Y-10.003
X-2.38 Y-10.018
X-2.201 Y-10.604
X-2.196 Y-10.619
X-2.031 Y-11.205
X-2.026 Y-11.221
X-1.875 Y-11.805
X-1.871 Y-11.822
X-1.735 Y-12.403
X-1.731 Y-12.421
X-1.611 Y-12.998
X-1.607 Y-13.017
X-1.504 Y-13.588
X-1.501 Y-13.609
X-1.415 Y-14.174
X-1.412 Y-14.197
X-1.345 Y-14.755
X-1.342 Y-14.779
X-1.293 Y-15.331
X-1.291 Y-15.356
X-1.262 Y-15.902
X-1.261 Y-15.928
X-1.25 Y-16.467
Y-16.494
X-1.259 Y-17.027
X-1.26 Y-17.055
X-1.289 Y-17.582
X-1.291 Y-17.61
X-1.339 Y-18.132
X-1.343 Y-18.16
X-1.41 Y-18.678
X-1.414 Y-18.705
X-1.5 Y-19.219
X-1.505 Y-19.245
X-1.61 Y-19.755
X-1.615 Y-19.78
X-1.736 Y-20.287
X-1.742 Y-20.309
X-1.879 Y-20.814
X-1.885 Y-20.834
X-2.036 Y-21.335
X-2.042 Y-21.353
X-2.206 Y-21.85
X-2.212 Y-21.866
X-2.387 Y-22.359
X-2.395 Y-22.379
X-2.772 Y-23.349
X-2.78 Y-23.369
X-3.179 Y-24.314
X-3.184 Y-24.326
X-3.588 Y-25.241
X-3.59 Y-25.245
X-3.789 Y-25.689
X-3.983 Y-26.122
X-4.17 Y-26.543
X-4.346 Y-26.949
X-4.511 Y-27.341
X-4.663 Y-27.716
X-4.8 Y-28.074
X-4.92 Y-28.415
X-5.022 Y-28.735
X-5.106 Y-29.034
X-5.17 Y-29.312
X-5.215 Y-29.566
X-5.241 Y-29.795
X-5.25 Y-30.015
Y-36.499
X-5.247 Y-38.144
X-5.238 Y-39.771
X-5.222 Y-41.38
X-5.201 Y-42.972
X-5.173 Y-44.546
X-5.141 Y-46.102
X-5.103 Y-47.641
X-5.06 Y-49.161
X-5.014 Y-50.663
X-4.963 Y-52.146
X-4.909 Y-53.61
X-4.852 Y-55.055
X-4.792 Y-56.479
X-4.731 Y-57.882
X-4.669 Y-59.264
X-4.607 Y-60.623
X-4.544 Y-61.958
X-4.483 Y-63.269
X-4.423 Y-64.555
X-4.365 Y-65.813
Y-65.814
X-4.31 Y-67.044
Y-67.045
X-4.259 Y-68.245
Y-68.247
X-4.229 Y-68.997
X-4.212 Y-69.415
Y-69.418
X-4.171 Y-70.553
Y-70.556
X-4.135 Y-71.657
Y-71.661
X-4.107 Y-72.726
Y-72.731
X-4.086 Y-73.757
Y-73.762
X-4.078 Y-74.26
Y-74.263
X-4.073 Y-74.752
Y-74.755
X-4.07 Y-75.233
Y-75.237
X-4.069 Y-75.704
Y-75.708
X-4.071 Y-76.165
Y-76.169
X-4.076 Y-76.615
Y-76.62
X-4.083 Y-77.054
Y-77.059
X-4.093 Y-77.482
Y-77.487
X-4.096 Y-77.585
X-4.105 Y-77.898 Z-2.411 F1016
X-4.106 Y-77.904
X-4.121 Y-78.288 Z-2.425
Y-83.03 Z-2.59
G2 X-4.601 Y-84.015 Z-2.63 I-1.25 J0
G1 X-6.186 Y-85.253 Z-2.7
X-8.144 Y-86.783 F600
G2 X-9.899 Y-86.568 I-0.77 J0.985
G1 X-13.308 Y-82.204
X-13.358 Y-82.132
X-13.418 Y-82.033
X-13.459 Y-81.956
X-13.491 Y-81.875
X-13.527 Y-81.764
X-13.551 Y-81.67
X-13.608 Y-81.362
X-13.611 Y-81.343
X-13.663 Y-81.016
X-13.666 Y-81
X-13.713 Y-80.655
X-13.715 Y-80.64
X-13.758 Y-80.278
X-13.759 Y-80.265
X-13.797 Y-79.884
X-13.798 Y-79.873
X-13.831 Y-79.475
X-13.832 Y-79.465
X-13.861 Y-79.05
X-13.862 Y-79.041
X-13.886 Y-78.61
X-13.887 Y-78.601
X-13.907 Y-78.153
Y-78.146
X-13.924 Y-77.682
Y-77.676
X-13.937 Y-77.197
Y-77.19
X-13.945 Y-76.696
X-13.946 Y-76.69
X-13.951 Y-76.181
Y-76.176
X-13.952 Y-75.652
Y-75.647
X-13.951 Y-75.109
Y-75.104
X-13.946 Y-74.552
Y-74.548
X-13.938 Y-73.983
Y-73.979
X-13.928 Y-73.4
Y-73.397
X-13.914 Y-72.805
Y-72.802
X-13.898 Y-72.198
Y-72.195
X-13.88 Y-71.578
Y-71.576
X-13.859 Y-70.947
Y-70.945
X-13.836 Y-70.305
Y-70.303
X-13.812 Y-69.651
Y-69.649
X-13.785 Y-68.986
Y-68.985
X-13.757 Y-68.311
Y-68.31
X-13.727 Y-67.625
Y-67.624
X-13.696 Y-66.929
Y-66.928
X-13.644 Y-65.797
Z-2.4
X-13.631 Y-65.508
X-13.63 Y-65.507
X-13.561 Y-64.049
X-13.489 Y-62.554
X-13.477 Y-62.301
Z-2.7 F300
X-13.416 Y-61.025 F600
X-13.342 Y-59.462
X-13.269 Y-57.868
X-13.198 Y-56.242
X-13.129 Y-54.587
X-13.064 Y-52.903
X-13.003 Y-51.19
X-12.947 Y-49.449
X-12.897 Y-47.68
X-12.853 Y-45.884
X-12.817 Y-44.061
X-12.788 Y-42.212
X-12.767 Y-40.335
X-12.754 Y-38.431
X-12.75 Y-36.499
Y-30.015
X-12.759 Y-29.795
X-12.785 Y-29.566
X-12.83 Y-29.312
X-12.894 Y-29.034
X-12.978 Y-28.735
X-13.08 Y-28.415
X-13.2 Y-28.074
X-13.337 Y-27.716
X-13.489 Y-27.341
X-13.654 Y-26.949
X-13.83 Y-26.543
X-14.017 Y-26.122
X-14.211 Y-25.689
X-14.41 Y-25.245
X-14.412 Y-25.241
X-14.816 Y-24.326
X-14.821 Y-24.314
X-15.22 Y-23.369
X-15.228 Y-23.349
X-15.605 Y-22.379
X-15.613 Y-22.359
X-15.788 Y-21.866
X-15.794 Y-21.85
X-15.958 Y-21.353
X-15.964 Y-21.335
X-16.115 Y-20.834
X-16.121 Y-20.814
X-16.258 Y-20.309
X-16.264 Y-20.287
X-16.385 Y-19.779
X-16.39 Y-19.755
X-16.495 Y-19.245
X-16.5 Y-19.219
X-16.586 Y-18.705
X-16.59 Y-18.678
X-16.657 Y-18.16
X-16.66 Y-18.132
X-16.709 Y-17.61
X-16.711 Y-17.582
X-16.74 Y-17.055
X-16.741 Y-17.027
X-16.75 Y-16.494
Y-16.467
X-16.739 Y-15.928
X-16.738 Y-15.902
X-16.709 Y-15.356
X-16.707 Y-15.331
X-16.658 Y-14.779
X-16.655 Y-14.755
X-16.588 Y-14.197
X-16.585 Y-14.174
X-16.499 Y-13.609
X-16.496 Y-13.588
X-16.393 Y-13.017
X-16.389 Y-12.998
X-16.269 Y-12.421
X-16.265 Y-12.403
X-16.129 Y-11.822
X-16.125 Y-11.805
X-15.974 Y-11.221
X-15.969 Y-11.205
X-15.804 Y-10.619
X-15.799 Y-10.603
X-15.619 Y-10.018
X-15.615 Y-10.003
X-15.422 Y-9.42
X-15.417 Y-9.405
X-15.212 Y-8.827
X-15.207 Y-8.812
X-14.99 Y-8.24
X-14.984 Y-8.225
X-14.757 Y-7.662
X-14.751 Y-7.647
X-14.514 Y-7.095
X-14.507 Y-7.079
X-14.261 Y-6.542
X-14.253 Y-6.525
X-13.999 Y-6.004
X-13.99 Y-5.986
X-13.728 Y-5.483
X-13.718 Y-5.464
X-13.45 Y-4.983
X-13.438 Y-4.962
X-13.164 Y-4.504
X-13.15 Y-4.482
X-12.871 Y-4.05
X-12.855 Y-4.026
X-12.571 Y-3.623
X-12.551 Y-3.596
X-12.264 Y-3.223
X-12.24 Y-3.194
X-11.949 Y-2.853
X-11.92 Y-2.821
X-11.627 Y-2.516
X-11.591 Y-2.481
X-11.296 Y-2.212
X-11.251 Y-2.174
X-10.955 Y-1.943
X-10.914 Y-1.914
X-10.766 Y-1.813
X-10.75 Y-1.803
Z-2.4
X-10.735 Y-1.794
X-10.586 Y-1.703
X-10.552 Y-1.684
X-10.402 Y-1.603
X-10.365 Y-1.585
X-10.215 Y-1.515
X-10.174 Y-1.497
X-10.025 Y-1.438
X-9.98 Y-1.422
X-9.831 Y-1.373
X-9.783 Y-1.36
X-9.633 Y-1.322
X-9.583 Y-1.311
X-9.433 Y-1.284
X-9.381 Y-1.276
X-9.231 Y-1.26
X-9.177 Y-1.256
X-9.027 Y-1.25
X-8.973
X-8.823 Y-1.256
X-8.769 Y-1.26
X-8.619 Y-1.276
X-8.567 Y-1.284
X-8.417 Y-1.311
X-8.367 Y-1.322
X-8.217 Y-1.36
X-8.169 Y-1.373
X-8.02 Y-1.422
X-7.975 Y-1.438
X-7.826 Y-1.497
X-7.785 Y-1.515
X-7.635 Y-1.585
X-7.598 Y-1.603
X-7.448 Y-1.684
X-7.414 Y-1.703
X-7.265 Y-1.794
X-7.25 Y-1.803
Z-2.7 F300
X-7.234 Y-1.813 F600
X-7.086 Y-1.914
X-7.045 Y-1.943
X-6.749 Y-2.174
X-6.704 Y-2.212
X-6.409 Y-2.481
X-6.373 Y-2.516
X-6.08 Y-2.821
X-6.051 Y-2.853
X-5.76 Y-3.194
X-5.736 Y-3.223
X-5.449 Y-3.596
X-5.429 Y-3.623
X-5.145 Y-4.026
X-5.129 Y-4.05
X-4.85 Y-4.482
X-4.836 Y-4.504
X-4.562 Y-4.962
X-4.55 Y-4.983
X-4.282 Y-5.464
X-4.272 Y-5.483
X-4.01 Y-5.986
X-4.001 Y-6.003
X-3.747 Y-6.525
X-3.739 Y-6.542
X-3.493 Y-7.079
X-3.486 Y-7.095
X-3.249 Y-7.647
X-3.243 Y-7.662
X-3.016 Y-8.225
X-3.01 Y-8.24
X-2.793 Y-8.812
X-2.788 Y-8.827
X-2.583 Y-9.405
X-2.578 Y-9.42
X-2.385 Y-10.003
X-2.38 Y-10.018
X-2.201 Y-10.604
X-2.196 Y-10.619
X-2.031 Y-11.205
X-2.026 Y-11.221
X-1.875 Y-11.805
X-1.871 Y-11.822
X-1.735 Y-12.403
X-1.731 Y-12.421
X-1.611 Y-12.998
X-1.607 Y-13.017
X-1.504 Y-13.588
X-1.501 Y-13.609
X-1.415 Y-14.174
X-1.412 Y-14.197
X-1.345 Y-14.755
X-1.342 Y-14.779
X-1.293 Y-15.331
X-1.291 Y-15.356
X-1.262 Y-15.902
X-1.261 Y-15.928
X-1.25 Y-16.467
Y-16.494
X-1.259 Y-17.027
X-1.26 Y-17.055
X-1.289 Y-17.582
X-1.291 Y-17.61
X-1.339 Y-18.132
X-1.343 Y-18.16
X-1.41 Y-18.678
X-1.414 Y-18.705
X-1.5 Y-19.219
X-1.505 Y-19.245
X-1.61 Y-19.755
X-1.615 Y-19.78
X-1.736 Y-20.287
X-1.742 Y-20.309
X-1.879 Y-20.814
X-1.885 Y-20.834
X-2.036 Y-21.335
X-2.042 Y-21.353
X-2.206 Y-21.85
X-2.212 Y-21.866
X-2.387 Y-22.359
X-2.395 Y-22.379
X-2.772 Y-23.349
X-2.78 Y-23.369
X-3.179 Y-24.314
X-3.184 Y-24.326
X-3.588 Y-25.241
X-3.59 Y-25.245
X-3.789 Y-25.689
X-3.983 Y-26.122
X-4.17 Y-26.543
X-4.346 Y-26.949
X-4.511 Y-27.341
X-4.663 Y-27.716
X-4.8 Y-28.074
X-4.92 Y-28.415
X-5.022 Y-28.735
X-5.106 Y-29.034
X-5.17 Y-29.312
X-5.215 Y-29.566
X-5.241 Y-29.795
X-5.25 Y-30.015
Y-36.499
X-5.247 Y-38.144
X-5.238 Y-39.771
X-5.222 Y-41.38
X-5.201 Y-42.972
X-5.173 Y-44.546
X-5.141 Y-46.102
X-5.103 Y-47.641
X-5.06 Y-49.161
X-5.014 Y-50.663
X-4.963 Y-52.146
X-4.909 Y-53.61
X-4.852 Y-55.055
X-4.792 Y-56.479
X-4.731 Y-57.882
X-4.687 Y-58.875
Z-2.4
X-4.669 Y-59.264
X-4.607 Y-60.623
X-4.544 Y-61.958
X-4.525 Y-62.371
Z-2.7 F300
X-4.483 Y-63.269 F600
X-4.423 Y-64.555
X-4.365 Y-65.813
Y-65.814
X-4.31 Y-67.044
Y-67.045
X-4.259 Y-68.245
Y-68.247
X-4.212 Y-69.415
Y-69.418
X-4.171 Y-70.553
Y-70.556
X-4.135 Y-71.657
Y-71.661
X-4.107 Y-72.726
Y-72.731
X-4.086 Y-73.757
Y-73.762
X-4.078 Y-74.26
Y-74.263
X-4.073 Y-74.752
Y-74.755
X-4.07 Y-75.233
Y-75.237
X-4.069 Y-75.704
Y-75.708
X-4.071 Y-76.165
Y-76.169
X-4.076 Y-76.615
Y-76.62
X-4.083 Y-77.054
Y-77.059
X-4.093 Y-77.482
Y-77.487
X-4.105 Y-77.898
X-4.106 Y-77.904
X-4.121 Y-78.288
Y-83.03
G2 X-4.601 Y-84.015 I-1.25 J0
G1 X-6.186 Y-85.253
X-8.144 Y-86.783 Z-2.787 F1016
G2 X-9.899 Y-86.568 Z-2.855 I-0.77 J0.985
G1 X-12.449 Y-83.304 Z-3
X-13.308 Y-82.204 F600
X-13.358 Y-82.132
X-13.418 Y-82.033
X-13.459 Y-81.956
X-13.491 Y-81.875
X-13.527 Y-81.764
X-13.551 Y-81.67
X-13.608 Y-81.362
X-13.611 Y-81.343
X-13.663 Y-81.016
X-13.666 Y-81
X-13.713 Y-80.655
X-13.715 Y-80.64
X-13.758 Y-80.278
X-13.759 Y-80.265
X-13.797 Y-79.884
X-13.798 Y-79.873
X-13.831 Y-79.475
X-13.832 Y-79.465
X-13.861 Y-79.05
X-13.862 Y-79.041
X-13.886 Y-78.61
X-13.887 Y-78.601
X-13.907 Y-78.153
Y-78.146
X-13.924 Y-77.682
Y-77.676
X-13.937 Y-77.197
Y-77.19
X-13.945 Y-76.696
X-13.946 Y-76.69
X-13.951 Y-76.181
Y-76.176
X-13.952 Y-75.652
Y-75.647
X-13.951 Y-75.109
Y-75.104
X-13.946 Y-74.552
Y-74.548
X-13.938 Y-73.983
Y-73.979
X-13.928 Y-73.4
Y-73.397
X-13.914 Y-72.805
Y-72.802
X-13.898 Y-72.198
Y-72.195
X-13.88 Y-71.578
Y-71.576
X-13.859 Y-70.947
Y-70.945
X-13.836 Y-70.305
Y-70.303
X-13.812 Y-69.651
Y-69.649
X-13.785 Y-68.986
Y-68.985
X-13.757 Y-68.311
Y-68.31
X-13.727 Y-67.625
Y-67.624
X-13.696 Y-66.929
Y-66.928
X-13.644 Y-65.797
Z-2.4
X-13.631 Y-65.508
X-13.63 Y-65.507
X-13.561 Y-64.049
X-13.489 Y-62.554
X-13.477 Y-62.301
Z-3 F300
X-13.416 Y-61.025 F600
X-13.342 Y-59.462
X-13.269 Y-57.868
X-13.198 Y-56.242
X-13.129 Y-54.587
X-13.064 Y-52.903
X-13.003 Y-51.19
X-12.947 Y-49.449
X-12.897 Y-47.68
X-12.853 Y-45.884
X-12.817 Y-44.061
X-12.788 Y-42.212
X-12.767 Y-40.335
X-12.754 Y-38.431
X-12.75 Y-36.499
Y-30.015
X-12.759 Y-29.795
X-12.785 Y-29.566
X-12.83 Y-29.312
X-12.894 Y-29.034
X-12.978 Y-28.735
X-13.08 Y-28.415
X-13.2 Y-28.074
X-13.337 Y-27.716
X-13.489 Y-27.341
X-13.654 Y-26.949
X-13.83 Y-26.543
X-14.017 Y-26.122
X-14.211 Y-25.689
X-14.41 Y-25.245
X-14.412 Y-25.241
X-14.816 Y-24.326
X-14.821 Y-24.314
X-15.22 Y-23.369
X-15.228 Y-23.349
X-15.605 Y-22.379
X-15.613 Y-22.359
X-15.788 Y-21.866
X-15.794 Y-21.85
X-15.958 Y-21.353
X-15.964 Y-21.335
X-16.115 Y-20.834
X-16.121 Y-20.814
X-16.258 Y-20.309
X-16.264 Y-20.287
X-16.385 Y-19.779
X-16.39 Y-19.755
X-16.495 Y-19.245
X-16.5 Y-19.219
X-16.586 Y-18.705
X-16.59 Y-18.678
X-16.657 Y-18.16
X-16.66 Y-18.132
X-16.709 Y-17.61
X-16.711 Y-17.582
X-16.74 Y-17.055
X-16.741 Y-17.027
X-16.75 Y-16.494
Y-16.467
X-16.739 Y-15.928
X-16.738 Y-15.902
X-16.709 Y-15.356
X-16.707 Y-15.331
X-16.658 Y-14.779
X-16.655 Y-14.755
X-16.588 Y-14.197
X-16.585 Y-14.174
X-16.499 Y-13.609
X-16.496 Y-13.588
X-16.393 Y-13.017
X-16.389 Y-12.998
X-16.269 Y-12.421
X-16.265 Y-12.403
X-16.129 Y-11.822
X-16.125 Y-11.805
X-15.974 Y-11.221
X-15.969 Y-11.205
X-15.804 Y-10.619
X-15.799 Y-10.603
X-15.619 Y-10.018
X-15.615 Y-10.003
X-15.422 Y-9.42
X-15.417 Y-9.405
X-15.212 Y-8.827
X-15.207 Y-8.812
X-14.99 Y-8.24
X-14.984 Y-8.225
X-14.757 Y-7.662
X-14.751 Y-7.647
X-14.514 Y-7.095
X-14.507 Y-7.079
X-14.261 Y-6.542
X-14.253 Y-6.525
X-13.999 Y-6.004
X-13.99 Y-5.986
X-13.728 Y-5.483
X-13.718 Y-5.464
X-13.45 Y-4.983
X-13.438 Y-4.962
X-13.164 Y-4.504
X-13.15 Y-4.482
X-12.871 Y-4.05
X-12.855 Y-4.026
X-12.571 Y-3.623
X-12.551 Y-3.596
X-12.264 Y-3.223
X-12.24 Y-3.194
X-11.949 Y-2.853
X-11.92 Y-2.821
X-11.627 Y-2.516
X-11.591 Y-2.481
X-11.296 Y-2.212
X-11.251 Y-2.174
X-10.955 Y-1.943
X-10.914 Y-1.914
X-10.766 Y-1.813
X-10.75 Y-1.803
Z-2.4
X-10.735 Y-1.794
X-10.586 Y-1.703
X-10.552 Y-1.684
X-10.402 Y-1.603
X-10.365 Y-1.585
X-10.215 Y-1.515
X-10.174 Y-1.497
X-10.025 Y-1.438
X-9.98 Y-1.422
X-9.831 Y-1.373
X-9.783 Y-1.36
X-9.633 Y-1.322
X-9.583 Y-1.311
X-9.433 Y-1.284
X-9.381 Y-1.276
X-9.231 Y-1.26
X-9.177 Y-1.256
X-9.027 Y-1.25
X-8.973
X-8.823 Y-1.256
X-8.769 Y-1.26
X-8.619 Y-1.276
X-8.567 Y-1.284
X-8.417 Y-1.311
X-8.367 Y-1.322
X-8.217 Y-1.36
X-8.169 Y-1.373
X-8.02 Y-1.422
X-7.975 Y-1.438
X-7.826 Y-1.497
X-7.785 Y-1.515
X-7.635 Y-1.585
X-7.598 Y-1.603
X-7.448 Y-1.684
X-7.414 Y-1.703
X-7.265 Y-1.794
X-7.25 Y-1.803
Z-3 F300
X-7.234 Y-1.813 F600
X-7.086 Y-1.914
X-7.045 Y-1.943
X-6.749 Y-2.174
X-6.704 Y-2.212
X-6.409 Y-2.481
X-6.373 Y-2.516
X-6.08 Y-2.821
X-6.051 Y-2.853
X-5.76 Y-3.194
X-5.736 Y-3.223
X-5.449 Y-3.596
X-5.429 Y-3.623
X-5.145 Y-4.026
X-5.129 Y-4.05
X-4.85 Y-4.482
X-4.836 Y-4.504
X-4.562 Y-4.962
X-4.55 Y-4.983
X-4.282 Y-5.464
X-4.272 Y-5.483
X-4.01 Y-5.986
X-4.001 Y-6.003
X-3.747 Y-6.525
X-3.739 Y-6.542
X-3.493 Y-7.079
X-3.486 Y-7.095
X-3.249 Y-7.647
X-3.243 Y-7.662
X-3.016 Y-8.225
X-3.01 Y-8.24
X-2.793 Y-8.812
X-2.788 Y-8.827
X-2.583 Y-9.405
X-2.578 Y-9.42
X-2.385 Y-10.003
X-2.38 Y-10.018
X-2.201 Y-10.604
X-2.196 Y-10.619
X-2.031 Y-11.205
X-2.026 Y-11.221
X-1.875 Y-11.805
X-1.871 Y-11.822
X-1.735 Y-12.403
X-1.731 Y-12.421
X-1.611 Y-12.998
X-1.607 Y-13.017
X-1.504 Y-13.588
X-1.501 Y-13.609
X-1.415 Y-14.174
X-1.412 Y-14.197
X-1.345 Y-14.755
X-1.342 Y-14.779
X-1.293 Y-15.331
X-1.291 Y-15.356
X-1.262 Y-15.902
X-1.261 Y-15.928
X-1.25 Y-16.467
Y-16.494
X-1.259 Y-17.027
X-1.26 Y-17.055
X-1.289 Y-17.582
X-1.291 Y-17.61
X-1.339 Y-18.132
X-1.343 Y-18.16
X-1.41 Y-18.678
X-1.414 Y-18.705
X-1.5 Y-19.219
X-1.505 Y-19.245
X-1.61 Y-19.755
X-1.615 Y-19.78
X-1.736 Y-20.287
X-1.742 Y-20.309
X-1.879 Y-20.814
X-1.885 Y-20.834
X-2.036 Y-21.335
X-2.042 Y-21.353
X-2.206 Y-21.85
X-2.212 Y-21.866
X-2.387 Y-22.359
X-2.395 Y-22.379
X-2.772 Y-23.349
X-2.78 Y-23.369
X-3.179 Y-24.314
X-3.184 Y-24.326
X-3.588 Y-25.241
X-3.59 Y-25.245
X-3.789 Y-25.689
X-3.983 Y-26.122
X-4.17 Y-26.543
X-4.346 Y-26.949
X-4.511 Y-27.341
X-4.663 Y-27.716
X-4.8 Y-28.074
X-4.92 Y-28.415
X-5.022 Y-28.735
X-5.106 Y-29.034
X-5.17 Y-29.312
X-5.215 Y-29.566
X-5.241 Y-29.795
X-5.25 Y-30.015
Y-36.499
X-5.247 Y-38.144
X-5.238 Y-39.771
X-5.222 Y-41.38
X-5.201 Y-42.972
X-5.173 Y-44.546
X-5.141 Y-46.102
X-5.103 Y-47.641
X-5.06 Y-49.161
X-5.014 Y-50.663
X-4.963 Y-52.146
X-4.909 Y-53.61
X-4.852 Y-55.055
X-4.792 Y-56.479
X-4.731 Y-57.882
X-4.687 Y-58.875
Z-2.4
X-4.669 Y-59.264
X-4.607 Y-60.623
X-4.544 Y-61.958
X-4.525 Y-62.371
Z-3 F300
X-4.483 Y-63.269 F600
X-4.423 Y-64.555
X-4.365 Y-65.813
Y-65.814
X-4.31 Y-67.044
Y-67.045
X-4.259 Y-68.245
Y-68.247
X-4.212 Y-69.415
Y-69.418
X-4.171 Y-70.553
Y-70.556
X-4.135 Y-71.657
Y-71.661
X-4.107 Y-72.726
Y-72.731
X-4.086 Y-73.757
Y-73.762
X-4.078 Y-74.26
Y-74.263
X-4.073 Y-74.752
Y-74.755
X-4.07 Y-75.233
Y-75.237
X-4.069 Y-75.704
Y-75.708
X-4.071 Y-76.165
Y-76.169
X-4.076 Y-76.615
Y-76.62
X-4.083 Y-77.054
Y-77.059
X-4.093 Y-77.482
Y-77.487
X-4.105 Y-77.898
X-4.106 Y-77.904
X-4.121 Y-78.288
Y-83.03
G2 X-4.601 Y-84.015 I-1.25 J0
G1 X-8.144 Y-86.783
G2 X-9.899 Y-86.568 I-0.77 J0.985
G1 X-12.449 Y-83.304
G0 Z15

(Bohrfrasen4)
X-24.385 Y-19.463
Z15
Z2
G1 Z0.15 F400
X-24.378 Z0.104
X-24.357 Z0.062
X-24.323 Z0.029
X-24.282 Z0.007
X-24.235 Z0
X-24.16
X-24.114 Y-19.456
X-24.072 Y-19.435
X-24.039 Y-19.401
X-24.018 Y-19.36
X-24.01 Y-19.313
G3 X-25.51 Y-19.313 Z-0.5 I-0.75 J0 F600
X-24.01 Y-19.313 Z-1 I0.75 J0
X-25.51 Y-19.313 Z-1.5 I-0.75 J0
X-24.01 Y-19.313 Z-2 I0.75 J0
X-25.51 Y-19.313 Z-2.5 I-0.75 J0
X-24.01 Y-19.313 Z-3 I0.75 J0
X-25.51 Y-19.313 I-0.75 J0
X-24.01 Y-19.313 I0.75 J0
G1 X-24.018 Y-19.267
X-24.039 Y-19.225
X-24.072 Y-19.192
X-24.114 Y-19.171
X-24.16 Y-19.163
X-24.235
X-24.282 Z-2.993
X-24.323 Z-2.971
X-24.357 Z-2.938
X-24.378 Z-2.896
X-24.385 Z-2.85
G0 Z5
X-20.803 Y-25.781
Z2
G1 Z0.15 F400
X-20.796 Z0.104
X-20.775 Z0.062
X-20.741 Z0.029
X-20.7 Z0.007
X-20.653 Z0
X-20.578
X-20.532 Y-25.774
X-20.49 Y-25.753
X-20.457 Y-25.719
X-20.436 Y-25.678
X-20.428 Y-25.631
G3 X-22.728 Y-25.631 Z-0.5 I-1.15 J0 F600
X-20.428 Y-25.631 Z-1 I1.15 J0
X-22.728 Y-25.631 Z-1.5 I-1.15 J0
X-20.428 Y-25.631 Z-2 I1.15 J0
X-22.728 Y-25.631 Z-2.5 I-1.15 J0
X-20.428 Y-25.631 Z-3 I1.15 J0
X-22.728 Y-25.631 I-1.15 J0
X-20.428 Y-25.631 I1.15 J0
G1 X-20.436 Y-25.585
X-20.457 Y-25.543
X-20.49 Y-25.51
X-20.532 Y-25.489
X-20.578 Y-25.481
X-20.653
X-20.7 Z-2.993
X-20.741 Z-2.971
X-20.775 Z-2.938
X-20.796 Z-2.896
X-20.803 Z-2.85
G0 Z5
X-27.167 Y-25.781
Z2
G1 Z0.15 F400
X-27.16 Z0.104
X-27.139 Z0.062
X-27.105 Z0.029
X-27.064 Z0.007
X-27.017 Z0
X-26.942
X-26.896 Y-25.774
X-26.854 Y-25.753
X-26.821 Y-25.719
X-26.8 Y-25.678
X-26.792 Y-25.631
G3 X-29.092 Y-25.631 Z-0.5 I-1.15 J0 F600
X-26.792 Y-25.631 Z-1 I1.15 J0
X-29.092 Y-25.631 Z-1.5 I-1.15 J0
X-26.792 Y-25.631 I1.15 J0
X-29.092 Y-25.631 I-1.15 J0
G1 X-29.085 Y-25.678
X-29.064 Y-25.719
X-29.03 Y-25.753
X-28.989 Y-25.774
X-28.942 Y-25.781
X-28.867
X-28.821 Z-1.493
X-28.779 Z-1.471
X-28.746 Z-1.438
X-28.725 Z-1.396
X-28.717 Z-1.35
G0 Z5
X-27.867
Z0.5
G1 Z-1.35 F400
X-27.86 Z-1.396
X-27.839 Z-1.438
X-27.805 Z-1.471
X-27.764 Z-1.493
X-27.717 Z-1.5
X-27.642
X-27.596 Y-25.774
X-27.554 Y-25.753
X-27.521 Y-25.719
X-27.5 Y-25.678
X-27.492 Y-25.631
G3 X-28.392 Y-25.631 Z-2 I-0.45 J0 F600
X-27.492 Y-25.631 Z-2.5 I0.45 J0
X-28.392 Y-25.631 Z-3 I-0.45 J0
X-27.492 Y-25.631 I0.45 J0
X-28.392 Y-25.631 I-0.45 J0
G1 X-28.385 Y-25.678
X-28.364 Y-25.719
X-28.33 Y-25.753
X-28.289 Y-25.774
X-28.242 Y-25.781
X-28.167
X-28.121 Z-2.993
X-28.079 Z-2.971
X-28.046 Z-2.938
X-28.025 Z-2.896
X-28.017 Z-2.85
G0 Z5
X-27.167 Y-32.145
Z2
G1 Z0.15 F400
X-27.16 Z0.104
X-27.139 Z0.062
X-27.105 Z0.029
X-27.064 Z0.007
X-27.017 Z0
X-26.942
X-26.896 Y-32.138
X-26.854 Y-32.117
X-26.821 Y-32.083
X-26.8 Y-32.042
X-26.792 Y-31.995
G3 X-29.092 Y-31.995 Z-0.5 I-1.15 J0 F600
X-26.792 Y-31.995 Z-1 I1.15 J0
X-29.092 Y-31.995 Z-1.5 I-1.15 J0
X-26.792 Y-31.995 Z-2 I1.15 J0
X-29.092 Y-31.995 Z-2.5 I-1.15 J0
X-26.792 Y-31.995 Z-3 I1.15 J0
X-29.092 Y-31.995 I-1.15 J0
X-26.792 Y-31.995 I1.15 J0
G1 X-26.8 Y-31.949
X-26.821 Y-31.907
X-26.854 Y-31.874
X-26.896 Y-31.853
X-26.942 Y-31.845
X-27.017
X-27.064 Z-2.993
X-27.105 Z-2.971
X-27.139 Z-2.938
X-27.16 Z-2.896
X-27.167 Z-2.85
G0 Z5
X-23.385 Y-28.963
Z2
G1 Z0.15 F400
X-23.378 Z0.104
X-23.357 Z0.062
X-23.323 Z0.029
X-23.282 Z0.007
X-23.235 Z0
X-23.16
X-23.114 Y-28.956
X-23.072 Y-28.935
X-23.039 Y-28.901
X-23.018 Y-28.86
X-23.01 Y-28.813
G3 X-26.51 Y-28.813 Z-0.5 I-1.75 J0 F600
X-23.01 Y-28.813 Z-1 I1.75 J0
X-26.51 Y-28.813 Z-1.5 I-1.75 J0
X-23.01 Y-28.813 Z-2 I1.75 J0
X-26.51 Y-28.813 Z-2.5 I-1.75 J0
X-23.01 Y-28.813 Z-3 I1.75 J0
X-26.51 Y-28.813 I-1.75 J0
X-23.01 Y-28.813 I1.75 J0
G1 X-23.018 Y-28.767
X-23.039 Y-28.725
X-23.072 Y-28.692
X-23.114 Y-28.671
X-23.16 Y-28.663
X-23.235
X-23.282 Z-2.993
X-23.323 Z-2.971
X-23.357 Z-2.938
X-23.378 Z-2.896
X-23.385 Z-2.85
G0 Z5
X-20.803 Y-32.145
Z2
G1 Z0.15 F400
X-20.796 Z0.104
X-20.775 Z0.062
X-20.741 Z0.029
X-20.7 Z0.007
X-20.653 Z0
X-20.578
X-20.532 Y-32.138
X-20.49 Y-32.117
X-20.457 Y-32.083
X-20.436 Y-32.042
X-20.428 Y-31.995
G3 X-22.728 Y-31.995 Z-0.5 I-1.15 J0 F600
X-20.428 Y-31.995 Z-1 I1.15 J0
X-22.728 Y-31.995 Z-1.5 I-1.15 J0
X-20.428 Y-31.995 I1.15 J0
X-22.728 Y-31.995 I-1.15 J0
G1 X-22.721 Y-32.042
X-22.7 Y-32.083
X-22.666 Y-32.117
X-22.625 Y-32.138
X-22.578 Y-32.145
X-22.503
X-22.457 Z-1.493
X-22.415 Z-1.471
X-22.382 Z-1.438
X-22.361 Z-1.396
X-22.353 Z-1.35
G0 Z5
X-21.503
Z0.5
G1 Z-1.35 F400
X-21.496 Z-1.396
X-21.475 Z-1.438
X-21.441 Z-1.471
X-21.4 Z-1.493
X-21.353 Z-1.5
X-21.278
X-21.232 Y-32.138
X-21.19 Y-32.117
X-21.157 Y-32.083
X-21.136 Y-32.042
X-21.128 Y-31.995
G3 X-22.028 Y-31.995 Z-2 I-0.45 J0 F600
X-21.128 Y-31.995 Z-2.5 I0.45 J0
X-22.028 Y-31.995 Z-3 I-0.45 J0
X-21.128 Y-31.995 I0.45 J0
X-22.028 Y-31.995 I-0.45 J0
G1 X-22.021 Y-32.042
X-22 Y-32.083
X-21.966 Y-32.117
X-21.925 Y-32.138
X-21.878 Y-32.145
X-21.803
X-21.757 Z-2.993
X-21.715 Z-2.971
X-21.682 Z-2.938
X-21.661 Z-2.896
X-21.653 Z-2.85
G0 Z5
X-24.385 Y-38.463
Z2
G1 Z0.15 F400
X-24.378 Z0.104
X-24.357 Z0.062
X-24.323 Z0.029
X-24.282 Z0.007
X-24.235 Z0
X-24.16
X-24.114 Y-38.456
X-24.072 Y-38.435
X-24.039 Y-38.401
X-24.018 Y-38.36
X-24.01 Y-38.313
G3 X-25.51 Y-38.313 Z-0.5 I-0.75 J0 F600
X-24.01 Y-38.313 Z-1 I0.75 J0
X-25.51 Y-38.313 Z-1.5 I-0.75 J0
X-24.01 Y-38.313 Z-2 I0.75 J0
X-25.51 Y-38.313 Z-2.5 I-0.75 J0
X-24.01 Y-38.313 Z-3 I0.75 J0
X-25.51 Y-38.313 I-0.75 J0
X-24.01 Y-38.313 I0.75 J0
G1 X-24.018 Y-38.267
X-24.039 Y-38.225
X-24.072 Y-38.192
X-24.114 Y-38.171
X-24.16 Y-38.163
X-24.235
X-24.282 Z-2.993
X-24.323 Z-2.971
X-24.357 Z-2.938
X-24.378 Z-2.896
X-24.385 Z-2.85
G0 Z5
X-24.185 Y-76.223
Z2
G1 Z0.15 F400
X-24.178 Z0.104
X-24.157 Z0.062
X-24.123 Z0.029
X-24.082 Z0.007
X-24.035 Z0
X-23.96
X-23.914 Y-76.216
X-23.872 Y-76.195
X-23.839 Y-76.162
X-23.818 Y-76.12
X-23.81 Y-76.073
G3 X-25.71 Y-76.073 Z-0.5 I-0.95 J0 F600
X-23.81 Y-76.073 Z-1 I0.95 J0
X-25.71 Y-76.073 Z-1.5 I-0.95 J0
X-23.81 Y-76.073 Z-2 I0.95 J0
X-25.71 Y-76.073 Z-2.5 I-0.95 J0
X-23.81 Y-76.073 Z-3 I0.95 J0
X-25.71 Y-76.073 I-0.95 J0
X-23.81 Y-76.073 I0.95 J0
G1 X-23.818 Y-76.027
X-23.839 Y-75.985
X-23.872 Y-75.952
X-23.914 Y-75.931
X-23.96 Y-75.923
X-24.035
X-24.082 Z-2.993
X-24.123 Z-2.971
X-24.157 Z-2.938
X-24.178 Z-2.896
X-24.185 Z-2.85
G0 Z5
X-22.962 Y-84.927
Z2
G1 Z0.15 F400
X-22.954 Z0.104
X-22.933 Z0.062
X-22.9 Z0.029
X-22.858 Z0.007
X-22.812 Z0
X-22.737
X-22.69 Y-84.919
X-22.649 Y-84.898
X-22.615 Y-84.865
X-22.594 Y-84.823
X-22.587 Y-84.777
G3 X-23.487 Y-84.777 Z-0.5 I-0.45 J0 F600
X-22.587 Y-84.777 Z-1 I0.45 J0
X-23.487 Y-84.777 Z-1.5 I-0.45 J0
X-22.587 Y-84.777 Z-2 I0.45 J0
X-23.487 Y-84.777 Z-2.5 I-0.45 J0
X-22.587 Y-84.777 Z-3 I0.45 J0
X-23.487 Y-84.777 I-0.45 J0
X-22.587 Y-84.777 I0.45 J0
G1 X-22.594 Y-84.73
X-22.615 Y-84.688
X-22.649 Y-84.655
X-22.69 Y-84.634
X-22.737 Y-84.627
X-22.812
X-22.858 Z-2.993
X-22.9 Z-2.971
X-22.933 Z-2.938
X-22.954 Z-2.896
X-22.962 Z-2.85
G0 Z15

(2D-Kontur6)
X-29.035 Y-70.297
Z15
Z5
G1 Z2.5 F300
X-29.03 Y-70.181 Z2.496 F1016
X-28.958 Y-68.556 Z2.439
X-28.889 Y-66.9 Z2.381
X-28.824 Y-65.216 Z2.322
X-28.763 Y-63.503 Z2.263
X-28.707 Y-61.762 Z2.202
X-28.657 Y-59.993 Z2.14
X-28.614 Y-58.198 Z2.077
X-28.577 Y-56.375 Z2.014
X-28.548 Y-54.525 Z1.949
X-28.527 Y-52.648 Z1.883
X-28.515 Y-50.744 Z1.817
X-28.51 Y-48.812 Z1.749
Y-42.328 Z1.523
X-28.519 Y-42.108 Z1.515
X-28.545 Y-41.879 Z1.507
X-28.59 Y-41.625 Z1.498
X-28.655 Y-41.348 Z1.488
X-28.738 Y-41.048 Z1.477
X-28.841 Y-40.728 Z1.466
X-28.961 Y-40.388 Z1.453
X-29.097 Y-40.029 Z1.44
X-29.249 Y-39.654 Z1.426
X-29.414 Y-39.262 Z1.411
X-29.591 Y-38.856 Z1.395
X-29.777 Y-38.436 Z1.379
X-29.971 Y-38.002 Z1.363
X-30.17 Y-37.558 Z1.346
X-30.172 Y-37.555
X-30.576 Y-36.639 Z1.311
X-30.581 Y-36.628 Z1.31
X-30.98 Y-35.682 Z1.274
X-30.988 Y-35.662
X-31.365 Y-34.692 Z1.237
X-31.373 Y-34.672 Z1.236
X-31.548 Y-34.179 Z1.218
X-31.554 Y-34.163
X-31.718 Y-33.666 Z1.199
X-31.724 Y-33.648
X-31.875 Y-33.147 Z1.18
X-31.881 Y-33.127
X-32.018 Y-32.623 Z1.161
X-32.024 Y-32.6
X-32.145 Y-32.093 Z1.142
X-32.151 Y-32.069 Z1.141
X-32.255 Y-31.558 Z1.123
X-32.26 Y-31.532 Z1.122
X-32.346 Y-31.018 Z1.104
X-32.35 Y-30.991 Z1.103
X-32.418 Y-30.473 Z1.085
X-32.421 Y-30.445 Z1.084
X-32.469 Y-29.923 Z1.066
X-32.471 Y-29.895 Z1.065
X-32.5 Y-29.368 Z1.046
X-32.501 Y-29.34 Z1.045
X-32.51 Y-28.807 Z1.027
Y-28.78 Z1.026
X-32.5 Y-28.241 Z1.007
X-32.499 Y-28.215 Z1.006
X-32.469 Y-27.67 Z0.987
X-32.467 Y-27.644 Z0.986
X-32.418 Y-27.092 Z0.967
X-32.415 Y-27.069 Z0.966
X-32.348 Y-26.51 Z0.946
X-32.345 Y-26.488 Z0.945
X-32.259 Y-25.922 Z0.925
X-32.256 Y-25.901
X-32.153 Y-25.33 Z0.904
X-32.149 Y-25.311
X-32.029 Y-24.734 Z0.883
X-32.025 Y-24.716
X-31.889 Y-24.135 Z0.862
X-31.885 Y-24.118 Z0.861
X-31.734 Y-23.534 Z0.84
X-31.73 Y-23.518 Z0.839
X-31.564 Y-22.932 Z0.818
X-31.559 Y-22.917
X-31.38 Y-22.332 Z0.796
X-31.375 Y-22.316
X-31.182 Y-21.734 Z0.774
X-31.177 Y-21.719
X-30.972 Y-21.14 Z0.752
X-30.967 Y-21.125
X-30.751 Y-20.553 Z0.73
X-30.745 Y-20.538
X-30.518 Y-19.975 Z0.709
X-30.511 Y-19.96 Z0.708
X-30.274 Y-19.408 Z0.687
X-30.267 Y-19.393 Z0.686
X-30.021 Y-18.855 Z0.666
X-30.013 Y-18.838 Z0.665
X-29.759 Y-18.317 Z0.645
X-29.75 Y-18.299 Z0.644
X-29.489 Y-17.796 Z0.624
X-29.479 Y-17.778
X-29.21 Y-17.296 Z0.604
X-29.198 Y-17.276
X-28.924 Y-16.818 Z0.585
X-28.91 Y-16.796 Z0.584
X-28.631 Y-16.364 Z0.566
X-28.615 Y-16.34 Z0.565
X-28.331 Y-15.936 Z0.548
X-28.312 Y-15.909 Z0.547
X-28.024 Y-15.536 Z0.53
X-28 Y-15.507 Z0.529
X-27.71 Y-15.167 Z0.513
X-27.681 Y-15.135 Z0.512
X-27.387 Y-14.829 Z0.497
X-27.351 Y-14.794 Z0.495
X-27.056 Y-14.525 Z0.481
X-27.012 Y-14.487 Z0.479
X-26.715 Y-14.256 Z0.466
X-26.674 Y-14.227 Z0.464
X-26.526 Y-14.127 Z0.458
X-26.495 Y-14.107 Z0.457
X-26.346 Y-14.016 Z0.451
X-26.312 Y-13.997 Z0.449
X-26.163 Y-13.917 Z0.443
X-26.125 Y-13.898 Z0.442
X-25.976 Y-13.828 Z0.436
X-25.935 Y-13.81 Z0.435
X-25.785 Y-13.751 Z0.429
X-25.741 Y-13.735 Z0.427
X-25.591 Y-13.687 Z0.422
X-25.543 Y-13.673 Z0.42
X-25.394 Y-13.635 Z0.415
X-25.343 Y-13.624 Z0.413
X-25.193 Y-13.597 Z0.408
X-25.141 Y-13.589 Z0.406
X-24.991 Y-13.573 Z0.401
X-24.937 Y-13.569 Z0.399
X-24.787 Y-13.564 Z0.393
X-24.733 Z0.392
X-24.583 Y-13.569 Z0.386
X-24.529 Y-13.573 Z0.384
X-24.38 Y-13.589 Z0.379
X-24.327 Y-13.597 Z0.377
X-24.177 Y-13.624 Z0.372
X-24.127 Y-13.635 Z0.37
X-23.977 Y-13.673 Z0.365
X-23.93 Y-13.687 Z0.363
X-23.78 Y-13.735 Z0.358
X-23.735 Y-13.751 Z0.356
X-23.586 Y-13.81 Z0.35
X-23.545 Y-13.828 Z0.349
X-23.395 Y-13.898 Z0.343
X-23.358 Y-13.917 Z0.342
X-23.209 Y-13.997 Z0.336
X-23.174 Y-14.016 Z0.334
X-23.026 Y-14.107 Z0.328
X-22.995 Y-14.127 Z0.327
X-22.846 Y-14.227 Z0.321
X-22.805 Y-14.256 Z0.319
X-22.509 Y-14.487 Z0.306
X-22.464 Y-14.525 Z0.304
X-22.169 Y-14.794 Z0.29
X-22.133 Y-14.829 Z0.288
X-21.84 Y-15.135 Z0.273
X-21.811 Y-15.167 Z0.272
X-21.52 Y-15.507 Z0.256
X-21.497 Y-15.536 Z0.255
X-21.209 Y-15.909 Z0.238
X-21.189 Y-15.936 Z0.237
X-20.906 Y-16.34 Z0.22
X-20.889 Y-16.364 Z0.219
X-20.61 Y-16.796 Z0.201
X-20.596 Y-16.818 Z0.2
X-20.322 Y-17.276 Z0.181
X-20.31 Y-17.296
X-20.042 Y-17.778 Z0.161
X-20.032 Y-17.796
X-19.77 Y-18.299 Z0.141
X-19.761 Y-18.317 Z0.14
X-19.507 Y-18.838 Z0.12
X-19.499 Y-18.855 Z0.119
X-19.253 Y-19.393 Z0.099
X-19.246 Y-19.409 Z0.098
X-19.009 Y-19.96 Z0.077
X-19.003 Y-19.975 Z0.076
X-18.776 Y-20.538 Z0.055
X-18.77 Y-20.553
X-18.554 Y-21.125 Z0.033
X-18.548 Y-21.14
X-18.343 Y-21.719 Z0.011
X-18.338 Y-21.734
X-18.146 Y-22.316 Z-0.011
X-18.141 Y-22.332
X-17.961 Y-22.917 Z-0.033
X-17.957 Y-22.932
X-17.791 Y-23.518 Z-0.054
X-17.786 Y-23.534 Z-0.055
X-17.635 Y-24.118 Z-0.076
X-17.631 Y-24.135 Z-0.077
X-17.495 Y-24.716 Z-0.098
X-17.491 Y-24.734
X-17.371 Y-25.311 Z-0.119
X-17.368 Y-25.33
X-17.265 Y-25.902 Z-0.14
X-17.261 Y-25.922
X-17.175 Y-26.488 Z-0.16
X-17.172 Y-26.51 Z-0.161
X-17.105 Y-27.069 Z-0.181
X-17.102 Y-27.092 Z-0.182
X-17.053 Y-27.644 Z-0.201
X-17.052 Y-27.67 Z-0.202
X-17.022 Y-28.215 Z-0.221
X-17.021 Y-28.241 Z-0.222
X-17.01 Y-28.78 Z-0.241
Y-28.807 Z-0.242
X-17.019 Y-29.34 Z-0.26
X-17.02 Y-29.368 Z-0.261
X-17.049 Y-29.895 Z-0.28
X-17.051 Y-29.923 Z-0.281
X-17.1 Y-30.445 Z-0.299
X-17.103 Y-30.473 Z-0.3
X-17.17 Y-30.991 F600
X-17.174 Y-31.018
X-17.261 Y-31.532
X-17.265 Y-31.558
X-17.37 Y-32.068
X-17.375 Y-32.093
X-17.496 Y-32.6
X-17.502 Y-32.623
X-17.639 Y-33.127
X-17.645 Y-33.147
X-17.797 Y-33.648
X-17.802 Y-33.666
X-17.967 Y-34.163
X-17.972 Y-34.179
X-18.148 Y-34.672
X-18.155 Y-34.692
X-18.532 Y-35.662
X-18.54 Y-35.682
X-18.939 Y-36.628
X-18.944 Y-36.639
X-19.349 Y-37.555
X-19.35 Y-37.558
X-19.55 Y-38.002
X-19.743 Y-38.436
X-19.93 Y-38.856
X-20.106 Y-39.262
X-20.271 Y-39.654
X-20.423 Y-40.029
X-20.56 Y-40.388
X-20.68 Y-40.728
X-20.782 Y-41.048
X-20.866 Y-41.348
X-20.93 Y-41.625
X-20.975 Y-41.879
X-21.001 Y-42.108
X-21.01 Y-42.328
Y-48.813
X-21.007 Y-50.457
X-20.998 Y-52.084
X-20.982 Y-53.693
X-20.961 Y-55.285
X-20.934 Y-56.859
X-20.901 Y-58.415
X-20.863 Y-59.954
X-20.821 Y-61.474
X-20.774 Y-62.976
X-20.723 Y-64.459
X-20.669 Y-65.924
X-20.612 Y-67.368
X-20.553 Y-68.792
X-20.492 Y-70.195
X-20.429 Y-71.577
X-20.367 Y-72.936
X-20.304 Y-74.272
X-20.243 Y-75.583
X-20.183 Y-76.868
X-20.125 Y-78.126
Y-78.127
X-20.07 Y-79.357
Y-79.358
X-20.019 Y-80.558
Y-80.56
X-19.972 Y-81.728
Y-81.731
X-19.931 Y-82.866
Y-82.869
X-19.896 Y-83.97
X-19.895 Y-83.974
X-19.867 Y-85.039
Y-85.044
X-19.846 Y-86.071
Y-86.075
X-19.838 Y-86.573
Y-86.576
X-19.833 Y-87.065
Y-87.068
X-19.83 Y-87.546
Y-87.55
X-19.829 Y-88.017
Y-88.021
X-19.831 Y-88.478
Y-88.482
X-19.836 Y-88.928
Y-88.933
X-19.843 Y-89.367
Y-89.372
X-19.853 Y-89.795
Y-89.8
X-19.866 Y-90.211
Y-90.217
X-19.881 Y-90.602
Y-95.343
G2 X-20.361 Y-96.328 I-1.25 J0
G1 X-23.904 Y-99.096
G2 X-25.659 Y-98.881 I-0.77 J0.985
G1 X-29.068 Y-94.517
X-29.118 Y-94.446
X-29.178 Y-94.346
X-29.219 Y-94.269
X-29.251 Y-94.188
X-29.287 Y-94.078
X-29.311 Y-93.983
X-29.368 Y-93.675
X-29.371 Y-93.656
X-29.424 Y-93.329
X-29.426 Y-93.313
X-29.473 Y-92.968
X-29.475 Y-92.954
X-29.518 Y-92.591
X-29.519 Y-92.578
X-29.557 Y-92.198
X-29.558 Y-92.186
X-29.592 Y-91.789
Y-91.778
X-29.621 Y-91.363
X-29.622 Y-91.354
X-29.646 Y-90.923
X-29.647 Y-90.914
X-29.667 Y-90.467
X-29.668 Y-90.459
X-29.684 Y-89.996
Y-89.989
X-29.697 Y-89.51
Y-89.503
X-29.706 Y-89.009
Y-89.003
X-29.711 Y-88.494
Y-88.489
X-29.713 Y-87.965
Y-87.96
X-29.711 Y-87.422
Y-87.418
X-29.706 Y-86.866
Y-86.862
X-29.698 Y-86.296
Y-86.293
X-29.688 Y-85.714
Y-85.71
X-29.674 Y-85.118
Y-85.116
X-29.658 Y-84.511
Y-84.508
X-29.64 Y-83.892
Y-83.889
X-29.619 Y-83.26
Y-83.258
X-29.596 Y-82.618
Y-82.616
X-29.572 Y-81.964
Y-81.962
X-29.545 Y-81.299
Y-81.298
X-29.517 Y-80.624
Y-80.623
X-29.487 Y-79.938
Y-79.937
X-29.456 Y-79.243
Y-79.241
X-29.391 Y-77.822
Y-77.821
X-29.321 Y-76.363
X-29.25 Y-74.867
X-29.176 Y-73.338
X-29.103 Y-71.776
X-29.03 Y-70.181
X-28.958 Y-68.556
X-28.889 Y-66.9
X-28.824 Y-65.216
X-28.763 Y-63.503
X-28.707 Y-61.762
X-28.657 Y-59.993
X-28.614 Y-58.198
X-28.577 Y-56.375
X-28.548 Y-54.525
X-28.527 Y-52.648
X-28.515 Y-50.744
X-28.51 Y-48.812
Y-42.328
X-28.519 Y-42.108
X-28.545 Y-41.879
X-28.59 Y-41.625
X-28.655 Y-41.348
X-28.738 Y-41.048
X-28.841 Y-40.728
X-28.961 Y-40.388
X-29.097 Y-40.029
X-29.249 Y-39.654
X-29.414 Y-39.262
X-29.591 Y-38.856
X-29.777 Y-38.436
X-29.971 Y-38.002
X-30.17 Y-37.558
X-30.172 Y-37.555
X-30.576 Y-36.639
X-30.581 Y-36.628
X-30.98 Y-35.682
X-30.988 Y-35.662
X-31.365 Y-34.692
X-31.373 Y-34.672
X-31.548 Y-34.179
X-31.554 Y-34.163
X-31.718 Y-33.666
X-31.724 Y-33.648
X-31.875 Y-33.147
X-31.881 Y-33.127
X-32.018 Y-32.623
X-32.024 Y-32.6
X-32.145 Y-32.093
X-32.151 Y-32.069
X-32.255 Y-31.558
X-32.26 Y-31.532
X-32.346 Y-31.018
X-32.35 Y-30.991
X-32.418 Y-30.473
X-32.421 Y-30.445
X-32.469 Y-29.923
X-32.471 Y-29.895
X-32.5 Y-29.368
X-32.501 Y-29.34
X-32.51 Y-28.807
Y-28.78
X-32.5 Y-28.241
X-32.499 Y-28.215
X-32.469 Y-27.67
X-32.467 Y-27.644
X-32.418 Y-27.092
X-32.415 Y-27.069
X-32.348 Y-26.51
X-32.345 Y-26.488
X-32.259 Y-25.922
X-32.256 Y-25.901
X-32.153 Y-25.33
X-32.149 Y-25.311
X-32.029 Y-24.734
X-32.025 Y-24.716
X-31.889 Y-24.135
X-31.885 Y-24.118
X-31.734 Y-23.534
X-31.73 Y-23.518
X-31.564 Y-22.932
X-31.559 Y-22.917
X-31.38 Y-22.332
X-31.375 Y-22.316
X-31.182 Y-21.734
X-31.177 Y-21.719
X-30.972 Y-21.14
X-30.967 Y-21.125
X-30.751 Y-20.553
X-30.745 Y-20.538
X-30.518 Y-19.975
X-30.511 Y-19.96
X-30.274 Y-19.408
X-30.267 Y-19.393
X-30.021 Y-18.855
X-30.013 Y-18.838
X-29.759 Y-18.317
X-29.75 Y-18.299
X-29.489 Y-17.796
X-29.479 Y-17.778
X-29.21 Y-17.296
X-29.198 Y-17.276
X-28.924 Y-16.818
X-28.91 Y-16.796
X-28.631 Y-16.364
X-28.615 Y-16.34
X-28.331 Y-15.936
X-28.312 Y-15.909
X-28.024 Y-15.536
X-28 Y-15.507
X-27.71 Y-15.167
X-27.681 Y-15.135
X-27.387 Y-14.829
X-27.351 Y-14.794
X-27.056 Y-14.525
X-27.012 Y-14.487
X-26.715 Y-14.256
X-26.674 Y-14.227
X-26.526 Y-14.127
X-26.495 Y-14.107
X-26.346 Y-14.016
X-26.312 Y-13.997
X-26.163 Y-13.917
X-26.125 Y-13.898
X-25.976 Y-13.828
X-25.935 Y-13.81
X-25.785 Y-13.751
X-25.741 Y-13.735
X-25.591 Y-13.687
X-25.543 Y-13.673
X-25.394 Y-13.635
X-25.343 Y-13.624
X-25.193 Y-13.597
X-25.141 Y-13.589
X-24.991 Y-13.573
X-24.937 Y-13.569
X-24.787 Y-13.564
X-24.733
X-24.583 Y-13.569
X-24.529 Y-13.573
X-24.38 Y-13.589
X-24.327 Y-13.597
X-24.177 Y-13.624
X-24.127 Y-13.635
X-23.977 Y-13.673
X-23.93 Y-13.687
X-23.78 Y-13.735
X-23.735 Y-13.751
X-23.586 Y-13.81
X-23.545 Y-13.828
X-23.395 Y-13.898
X-23.358 Y-13.917
X-23.209 Y-13.997
X-23.174 Y-14.016
X-23.026 Y-14.107
X-22.995 Y-14.127
X-22.846 Y-14.227
X-22.805 Y-14.256
X-22.509 Y-14.487
X-22.464 Y-14.525
X-22.169 Y-14.794
X-22.133 Y-14.829
X-21.84 Y-15.135
X-21.811 Y-15.167
X-21.52 Y-15.507
X-21.497 Y-15.536
X-21.209 Y-15.909
X-21.189 Y-15.936
X-20.906 Y-16.34
X-20.889 Y-16.364
X-20.61 Y-16.796
X-20.596 Y-16.818
X-20.322 Y-17.276
X-20.31 Y-17.296
X-20.042 Y-17.778
X-20.032 Y-17.796
X-19.77 Y-18.299
X-19.761 Y-18.317
X-19.507 Y-18.838
X-19.499 Y-18.855
X-19.253 Y-19.393
X-19.246 Y-19.409
X-19.009 Y-19.96
X-19.003 Y-19.975
X-18.776 Y-20.538
X-18.77 Y-20.553
X-18.554 Y-21.125
X-18.548 Y-21.14
X-18.343 Y-21.719
X-18.338 Y-21.734
X-18.146 Y-22.316
X-18.141 Y-22.332
X-17.961 Y-22.917
X-17.957 Y-22.932
X-17.791 Y-23.518
X-17.786 Y-23.534
X-17.635 Y-24.118
X-17.631 Y-24.135
X-17.495 Y-24.716
X-17.491 Y-24.734
X-17.371 Y-25.311
X-17.368 Y-25.33
X-17.265 Y-25.902
X-17.261 Y-25.922
X-17.175 Y-26.488
X-17.172 Y-26.51
X-17.105 Y-27.069
X-17.102 Y-27.092
X-17.053 Y-27.644
X-17.052 Y-27.67
X-17.022 Y-28.215
X-17.021 Y-28.241
X-17.01 Y-28.78
Y-28.807
X-17.019 Y-29.34
X-17.02 Y-29.368
X-17.049 Y-29.895
X-17.051 Y-29.923
X-17.1 Y-30.445
X-17.103 Y-30.473
X-17.17 Y-30.991 Z-0.318 F1016
X-17.174 Y-31.018 Z-0.319
X-17.261 Y-31.532 Z-0.337
X-17.265 Y-31.558 Z-0.338
X-17.37 Y-32.068 Z-0.357
X-17.375 Y-32.093
X-17.496 Y-32.6 Z-0.376
X-17.502 Y-32.623
X-17.639 Y-33.127 Z-0.395
X-17.645 Y-33.147
X-17.797 Y-33.648 Z-0.414
X-17.802 Y-33.666
X-17.967 Y-34.163 Z-0.433
X-17.972 Y-34.179
X-18.148 Y-34.672 Z-0.451
X-18.155 Y-34.692 Z-0.452
X-18.532 Y-35.662 Z-0.489
X-18.54 Y-35.682
X-18.939 Y-36.628 Z-0.525
X-18.944 Y-36.639 Z-0.526
X-19.349 Y-37.555 Z-0.561
X-19.35 Y-37.558
X-19.55 Y-38.002 Z-0.578
X-19.743 Y-38.436 Z-0.594
X-19.81 Y-38.586 Z-0.6
X-19.93 Y-38.856 F600
X-20.106 Y-39.262
X-20.271 Y-39.654
X-20.423 Y-40.029
X-20.56 Y-40.388
X-20.68 Y-40.728
X-20.782 Y-41.048
X-20.866 Y-41.348
X-20.93 Y-41.625
X-20.975 Y-41.879
X-21.001 Y-42.108
X-21.01 Y-42.328
Y-48.813
X-21.007 Y-50.457
X-20.998 Y-52.084
X-20.982 Y-53.693
X-20.961 Y-55.285
X-20.934 Y-56.859
X-20.901 Y-58.415
X-20.863 Y-59.954
X-20.821 Y-61.474
X-20.774 Y-62.976
X-20.723 Y-64.459
X-20.669 Y-65.924
X-20.612 Y-67.368
X-20.553 Y-68.792
X-20.492 Y-70.195
X-20.429 Y-71.577
X-20.367 Y-72.936
X-20.304 Y-74.272
X-20.243 Y-75.583
X-20.183 Y-76.868
X-20.125 Y-78.126
Y-78.127
X-20.07 Y-79.357
Y-79.358
X-20.019 Y-80.558
Y-80.56
X-19.972 Y-81.728
Y-81.731
X-19.931 Y-82.866
Y-82.869
X-19.896 Y-83.97
X-19.895 Y-83.974
X-19.867 Y-85.039
Y-85.044
X-19.846 Y-86.071
Y-86.075
X-19.838 Y-86.573
Y-86.576
X-19.833 Y-87.065
Y-87.068
X-19.83 Y-87.546
Y-87.55
X-19.829 Y-88.017
Y-88.021
X-19.831 Y-88.478
Y-88.482
X-19.836 Y-88.928
Y-88.933
X-19.843 Y-89.367
Y-89.372
X-19.853 Y-89.795
Y-89.8
X-19.866 Y-90.211
Y-90.217
X-19.881 Y-90.602
Y-95.343
G2 X-20.361 Y-96.328 I-1.25 J0
G1 X-23.904 Y-99.096
G2 X-25.659 Y-98.881 I-0.77 J0.985
G1 X-29.068 Y-94.517
X-29.118 Y-94.446
X-29.178 Y-94.346
X-29.219 Y-94.269
X-29.251 Y-94.188
X-29.287 Y-94.078
X-29.311 Y-93.983
X-29.368 Y-93.675
X-29.371 Y-93.656
X-29.424 Y-93.329
X-29.426 Y-93.313
X-29.473 Y-92.968
X-29.475 Y-92.954
X-29.518 Y-92.591
X-29.519 Y-92.578
X-29.557 Y-92.198
X-29.558 Y-92.186
X-29.592 Y-91.789
Y-91.778
X-29.621 Y-91.363
X-29.622 Y-91.354
X-29.646 Y-90.923
X-29.647 Y-90.914
X-29.667 Y-90.467
X-29.668 Y-90.459
X-29.684 Y-89.996
Y-89.989
X-29.697 Y-89.51
Y-89.503
X-29.706 Y-89.009
Y-89.003
X-29.711 Y-88.494
Y-88.489
X-29.713 Y-87.965
Y-87.96
X-29.711 Y-87.422
Y-87.418
X-29.706 Y-86.866
Y-86.862
X-29.698 Y-86.296
Y-86.293
X-29.688 Y-85.714
Y-85.71
X-29.674 Y-85.118
Y-85.116
X-29.658 Y-84.511
Y-84.508
X-29.64 Y-83.892
Y-83.889
X-29.619 Y-83.26
Y-83.258
X-29.596 Y-82.618
Y-82.616
X-29.572 Y-81.964
Y-81.962
X-29.545 Y-81.299
Y-81.298
X-29.517 Y-80.624
Y-80.623
X-29.487 Y-79.938
Y-79.937
X-29.456 Y-79.243
Y-79.241
X-29.391 Y-77.822
Y-77.821
X-29.321 Y-76.363
X-29.25 Y-74.867
X-29.176 Y-73.338
X-29.103 Y-71.776
X-29.03 Y-70.181
X-28.958 Y-68.556
X-28.889 Y-66.9
X-28.824 Y-65.216
X-28.763 Y-63.503
X-28.707 Y-61.762
X-28.657 Y-59.993
X-28.614 Y-58.198
X-28.577 Y-56.375
X-28.548 Y-54.525
X-28.527 Y-52.648
X-28.515 Y-50.744
X-28.51 Y-48.812
Y-42.328
X-28.519 Y-42.108
X-28.545 Y-41.879
X-28.59 Y-41.625
X-28.655 Y-41.348
X-28.738 Y-41.048
X-28.841 Y-40.728
X-28.961 Y-40.388
X-29.097 Y-40.029
X-29.249 Y-39.654
X-29.414 Y-39.262
X-29.591 Y-38.856
X-29.777 Y-38.436
X-29.971 Y-38.002
X-30.17 Y-37.558
X-30.172 Y-37.555
X-30.576 Y-36.639
X-30.581 Y-36.628
X-30.98 Y-35.682
X-30.988 Y-35.662
X-31.365 Y-34.692
X-31.373 Y-34.672
X-31.548 Y-34.179
X-31.554 Y-34.163
X-31.718 Y-33.666
X-31.724 Y-33.648
X-31.875 Y-33.147
X-31.881 Y-33.127
X-32.018 Y-32.623
X-32.024 Y-32.6
X-32.145 Y-32.093
X-32.151 Y-32.069
X-32.255 Y-31.558
X-32.26 Y-31.532
X-32.346 Y-31.018
X-32.35 Y-30.991
X-32.418 Y-30.473
X-32.421 Y-30.445
X-32.469 Y-29.923
X-32.471 Y-29.895
X-32.5 Y-29.368
X-32.501 Y-29.34
X-32.51 Y-28.807
Y-28.78
X-32.5 Y-28.241
X-32.499 Y-28.215
X-32.469 Y-27.67
X-32.467 Y-27.644
X-32.418 Y-27.092
X-32.415 Y-27.069
X-32.348 Y-26.51
X-32.345 Y-26.488
X-32.259 Y-25.922
X-32.256 Y-25.901
X-32.153 Y-25.33
X-32.149 Y-25.311
X-32.029 Y-24.734
X-32.025 Y-24.716
X-31.889 Y-24.135
X-31.885 Y-24.118
X-31.734 Y-23.534
X-31.73 Y-23.518
X-31.564 Y-22.932
X-31.559 Y-22.917
X-31.38 Y-22.332
X-31.375 Y-22.316
X-31.182 Y-21.734
X-31.177 Y-21.719
X-30.972 Y-21.14
X-30.967 Y-21.125
X-30.751 Y-20.553
X-30.745 Y-20.538
X-30.518 Y-19.975
X-30.511 Y-19.96
X-30.274 Y-19.408
X-30.267 Y-19.393
X-30.021 Y-18.855
X-30.013 Y-18.838
X-29.759 Y-18.317
X-29.75 Y-18.299
X-29.489 Y-17.796
X-29.479 Y-17.778
X-29.21 Y-17.296
X-29.198 Y-17.276
X-28.924 Y-16.818
X-28.91 Y-16.796
X-28.631 Y-16.364
X-28.615 Y-16.34
X-28.331 Y-15.936
X-28.312 Y-15.909
X-28.024 Y-15.536
X-28 Y-15.507
X-27.71 Y-15.167
X-27.681 Y-15.135
X-27.387 Y-14.829
X-27.351 Y-14.794
X-27.056 Y-14.525
X-27.012 Y-14.487
X-26.715 Y-14.256
X-26.674 Y-14.227
X-26.526 Y-14.127
X-26.495 Y-14.107
X-26.346 Y-14.016
X-26.312 Y-13.997
X-26.163 Y-13.917
X-26.125 Y-13.898
X-25.976 Y-13.828
X-25.935 Y-13.81
X-25.785 Y-13.751
X-25.741 Y-13.735
X-25.591 Y-13.687
X-25.543 Y-13.673
X-25.394 Y-13.635
X-25.343 Y-13.624
X-25.193 Y-13.597
X-25.141 Y-13.589
X-24.991 Y-13.573
X-24.937 Y-13.569
X-24.787 Y-13.564
X-24.733
X-24.583 Y-13.569
X-24.529 Y-13.573
X-24.38 Y-13.589
X-24.327 Y-13.597
X-24.177 Y-13.624
X-24.127 Y-13.635
X-23.977 Y-13.673
X-23.93 Y-13.687
X-23.78 Y-13.735
X-23.735 Y-13.751
X-23.586 Y-13.81
X-23.545 Y-13.828
X-23.395 Y-13.898
X-23.358 Y-13.917
X-23.209 Y-13.997
X-23.174 Y-14.016
X-23.026 Y-14.107
X-22.995 Y-14.127
X-22.846 Y-14.227
X-22.805 Y-14.256
X-22.509 Y-14.487
X-22.464 Y-14.525
X-22.169 Y-14.794
X-22.133 Y-14.829
X-21.84 Y-15.135
X-21.811 Y-15.167
X-21.52 Y-15.507
X-21.497 Y-15.536
X-21.209 Y-15.909
X-21.189 Y-15.936
X-20.906 Y-16.34
X-20.889 Y-16.364
X-20.61 Y-16.796
X-20.596 Y-16.818
X-20.322 Y-17.276
X-20.31 Y-17.296
X-20.042 Y-17.778
X-20.032 Y-17.796
X-19.77 Y-18.299
X-19.761 Y-18.317
X-19.507 Y-18.838
