(1001)
(Bearbeiten)
(  Hersteller: ChinaCnc)
(  model: 3040T)
(  description: Generic 3-axis)
(T14  D=1.5 CR=0 - ZMIN=-4 - Schaftfraser)
G90 G94
G17
G21
G28 G91 Z0
G90

(Bohrfrasen6)
T14
S6000 M3
G54
G0 X-5.043 Y-19.832
Z15
Z2
G1 Z0.15 F400
X-5.036 Z0.104
X-5.014 Z0.062
X-4.981 Z0.029
X-4.939 Z0.007
X-4.893 Z0
X-4.818
X-4.772 Y-19.825
X-4.73 Y-19.803
X-4.697 Y-19.77
X-4.675 Y-19.728
X-4.668 Y-19.682
G3 X-6.968 Y-19.682 Z-0.5 I-1.15 J0 F600
X-4.668 Y-19.682 Z-1 I1.15 J0
X-6.968 Y-19.682 Z-1.5 I-1.15 J0
X-4.668 Y-19.682 I1.15 J0
X-6.968 Y-19.682 I-1.15 J0
G1 X-6.961 Y-19.728
X-6.939 Y-19.77
X-6.906 Y-19.803
X-6.864 Y-19.825
X-6.818 Y-19.832
X-6.743
X-6.697 Z-1.493
X-6.655 Z-1.471
X-6.622 Z-1.438
X-6.6 Z-1.396
X-6.593 Z-1.35
G0 Z5
X-11.407 Y-13.468
Z2
G1 Z0.15 F400
X-11.4 Z0.104
X-11.378 Z0.062
X-11.345 Z0.029
X-11.303 Z0.007
X-11.257 Z0
X-11.182
X-11.136 Y-13.461
X-11.094 Y-13.439
X-11.061 Y-13.406
X-11.039 Y-13.364
X-11.032 Y-13.318
G3 X-13.332 Y-13.318 Z-0.5 I-1.15 J0 F600
X-11.032 Y-13.318 Z-1 I1.15 J0
X-13.332 Y-13.318 Z-1.5 I-1.15 J0
X-11.032 Y-13.318 I1.15 J0
X-13.332 Y-13.318 I-1.15 J0
G1 X-13.325 Y-13.364
X-13.303 Y-13.406
X-13.27 Y-13.439
X-13.228 Y-13.461
X-13.182 Y-13.468
X-13.107
X-13.061 Z-1.493
X-13.019 Z-1.471
X-12.986 Z-1.438
X-12.964 Z-1.396
X-12.957 Z-1.35
G0 Z15

(Bohrfrasen4)
X-8.425 Y-7.15
Z15
Z2
G1 Z0.15 F400
X-8.418 Z0.104
X-8.396 Z0.062
X-8.363 Z0.029
X-8.321 Z0.007
X-8.275 Z0
X-8.2
X-8.154 Y-7.143
X-8.112 Y-7.121
X-8.079 Y-7.088
X-8.057 Y-7.046
X-8.05 Y-7
G3 X-9.95 Y-7 Z-0.3 I-0.95 J0 F600
X-8.05 Y-7 Z-0.6 I0.95 J0
X-9.95 Y-7 Z-0.9 I-0.95 J0
X-8.05 Y-7 Z-1.2 I0.95 J0
X-9.95 Y-7 Z-1.5 I-0.95 J0
X-8.05 Y-7 Z-1.8 I0.95 J0
X-9.95 Y-7 Z-2.1 I-0.95 J0
X-8.05 Y-7 Z-2.4 I0.95 J0
X-9.95 Y-7 Z-2.7 I-0.95 J0
X-8.05 Y-7 Z-3 I0.95 J0
X-9.95 Y-7 Z-3.3 I-0.95 J0
X-8.05 Y-7 Z-3.6 I0.95 J0
X-9.95 Y-7 Z-3.9 I-0.95 J0
X-9.475 Y-7.823 Z-4 I0.95 J0
X-8.525 Y-6.177 I0.475 J0.823
X-9.475 Y-7.823 I-0.475 J-0.823
G1 X-9.431 Y-7.84
X-9.384 Y-7.842
X-9.339 Y-7.83
X-9.3 Y-7.804
X-9.27 Y-7.768
X-9.233 Y-7.703
X-9.209 Y-7.663 Z-3.993
X-9.189 Y-7.627 Z-3.971
X-9.172 Y-7.598 Z-3.938
X-9.161 Y-7.579 Z-3.896
X-9.158 Y-7.573 Z-3.85
G0 Z5
X-12.107 Y-13.468
Z0.5
G1 Z-1.35 F400
X-12.1 Z-1.396
X-12.078 Z-1.438
X-12.045 Z-1.471
X-12.003 Z-1.493
X-11.957 Z-1.5
X-11.882
X-11.836 Y-13.461
X-11.794 Y-13.439
X-11.761 Y-13.406
X-11.739 Y-13.364
X-11.732 Y-13.318
G3 X-12.632 Y-13.318 Z-1.8 I-0.45 J0 F600
X-11.732 Y-13.318 Z-2.1 I0.45 J0
X-12.632 Y-13.318 Z-2.4 I-0.45 J0
X-11.732 Y-13.318 Z-2.7 I0.45 J0
X-12.632 Y-13.318 Z-3 I-0.45 J0
X-11.732 Y-13.318 Z-3.3 I0.45 J0
X-12.632 Y-13.318 Z-3.6 I-0.45 J0
X-11.732 Y-13.318 Z-3.9 I0.45 J0
X-11.957 Y-12.928 Z-4 I-0.45 J0
X-12.407 Y-13.708 I-0.225 J-0.39
X-11.957 Y-12.928 I0.225 J0.39
G1 X-12.001 Y-12.911
X-12.048 Y-12.909
X-12.093 Y-12.921
X-12.132 Y-12.947
X-12.162 Y-12.983
X-12.199 Y-13.048
X-12.223 Y-13.088 Z-3.993
X-12.243 Y-13.125 Z-3.971
X-12.26 Y-13.153 Z-3.938
X-12.271 Y-13.172 Z-3.896
X-12.274 Y-13.178 Z-3.85
G0 Z5
X-5.043 Y-13.468
Z2
G1 Z0.15 F400
X-5.036 Z0.104
X-5.014 Z0.062
X-4.981 Z0.029
X-4.939 Z0.007
X-4.893 Z0
X-4.818
X-4.772 Y-13.461
X-4.73 Y-13.439
X-4.697 Y-13.406
X-4.675 Y-13.364
X-4.668 Y-13.318
G3 X-6.968 Y-13.318 Z-0.3 I-1.15 J0 F600
X-4.668 Y-13.318 Z-0.6 I1.15 J0
X-6.968 Y-13.318 Z-0.9 I-1.15 J0
X-4.668 Y-13.318 Z-1.2 I1.15 J0
X-6.968 Y-13.318 Z-1.5 I-1.15 J0
X-4.668 Y-13.318 Z-1.8 I1.15 J0
X-6.968 Y-13.318 Z-2.1 I-1.15 J0
X-4.668 Y-13.318 Z-2.4 I1.15 J0
X-6.968 Y-13.318 Z-2.7 I-1.15 J0
X-4.668 Y-13.318 Z-3 I1.15 J0
X-6.968 Y-13.318 Z-3.3 I-1.15 J0
X-4.668 Y-13.318 Z-3.6 I1.15 J0
X-6.968 Y-13.318 Z-3.9 I-1.15 J0
X-6.393 Y-14.314 Z-4 I1.15 J0
X-5.243 Y-12.322 I0.575 J0.996
X-6.393 Y-14.314 I-0.575 J-0.996
G1 X-6.349 Y-14.331
X-6.302 Y-14.333
X-6.257 Y-14.321
X-6.218 Y-14.296
X-6.188 Y-14.259
X-6.151 Y-14.194
X-6.127 Y-14.154 Z-3.993
X-6.107 Y-14.118 Z-3.971
X-6.09 Y-14.089 Z-3.938
X-6.079 Y-14.071 Z-3.896
X-6.076 Y-14.064 Z-3.85
G0 Z5
X-7.875 Y-16.65
Z2
G1 Z0.15 F400
X-7.868 Z0.104
X-7.846 Z0.062
X-7.813 Z0.029
X-7.771 Z0.007
X-7.725 Z0
X-7.65
X-7.604 Y-16.643
X-7.562 Y-16.621
X-7.529 Y-16.588
X-7.507 Y-16.546
X-7.5 Y-16.5
G3 X-10.5 Y-16.5 Z-0.3 I-1.5 J0 F600
X-7.5 Y-16.5 Z-0.6 I1.5 J0
X-10.5 Y-16.5 Z-0.9 I-1.5 J0
X-7.5 Y-16.5 Z-1.2 I1.5 J0
X-10.5 Y-16.5 Z-1.5 I-1.5 J0
X-7.5 Y-16.5 Z-1.8 I1.5 J0
X-10.5 Y-16.5 Z-2.1 I-1.5 J0
X-7.5 Y-16.5 Z-2.4 I1.5 J0
X-10.5 Y-16.5 Z-2.7 I-1.5 J0
X-7.5 Y-16.5 Z-3 I1.5 J0
X-10.5 Y-16.5 Z-3.3 I-1.5 J0
X-7.5 Y-16.5 Z-3.6 I1.5 J0
X-10.5 Y-16.5 Z-3.9 I-1.5 J0
X-9.75 Y-17.799 Z-4 I1.5 J0
X-8.25 Y-15.201 I0.75 J1.299
X-9.75 Y-17.799 I-0.75 J-1.299
G1 X-9.706 Y-17.816
X-9.659 Y-17.818
X-9.614 Y-17.806
X-9.575 Y-17.781
X-9.545 Y-17.744
X-9.508 Y-17.679
X-9.484 Y-17.639 Z-3.993
X-9.464 Y-17.603 Z-3.971
X-9.447 Y-17.574 Z-3.938
X-9.436 Y-17.556 Z-3.896
X-9.433 Y-17.549 Z-3.85
G0 Z5
X-11.407 Y-19.832
Z2
G1 Z0.15 F400
X-11.4 Z0.104
X-11.378 Z0.062
X-11.345 Z0.029
X-11.303 Z0.007
X-11.257 Z0
X-11.182
X-11.136 Y-19.825
X-11.094 Y-19.803
X-11.061 Y-19.77
X-11.039 Y-19.728
X-11.032 Y-19.682
G3 X-13.332 Y-19.682 Z-0.3 I-1.15 J0 F600
X-11.032 Y-19.682 Z-0.6 I1.15 J0
X-13.332 Y-19.682 Z-0.9 I-1.15 J0
X-11.032 Y-19.682 Z-1.2 I1.15 J0
X-13.332 Y-19.682 Z-1.5 I-1.15 J0
X-11.032 Y-19.682 Z-1.8 I1.15 J0
X-13.332 Y-19.682 Z-2.1 I-1.15 J0
X-11.032 Y-19.682 Z-2.4 I1.15 J0
X-13.332 Y-19.682 Z-2.7 I-1.15 J0
X-11.032 Y-19.682 Z-3 I1.15 J0
X-13.332 Y-19.682 Z-3.3 I-1.15 J0
X-11.032 Y-19.682 Z-3.6 I1.15 J0
X-13.332 Y-19.682 Z-3.9 I-1.15 J0
X-12.757 Y-20.678 Z-4 I1.15 J0
X-11.607 Y-18.686 I0.575 J0.996
X-12.757 Y-20.678 I-0.575 J-0.996
G1 X-12.713 Y-20.695
X-12.666 Y-20.697
X-12.621 Y-20.685
X-12.582 Y-20.659
X-12.552 Y-20.623
X-12.515 Y-20.558
X-12.491 Y-20.518 Z-3.993
X-12.47 Y-20.482 Z-3.971
X-12.454 Y-20.453 Z-3.938
X-12.443 Y-20.435 Z-3.896
X-12.44 Y-20.428 Z-3.85
G0 Z5
X-5.743 Y-19.832
Z0.5
G1 Z-1.35 F400
X-5.736 Z-1.396
X-5.714 Z-1.438
X-5.681 Z-1.471
X-5.639 Z-1.493
X-5.593 Z-1.5
X-5.518
X-5.472 Y-19.825
X-5.43 Y-19.803
X-5.397 Y-19.77
X-5.375 Y-19.728
X-5.368 Y-19.682
G3 X-6.268 Y-19.682 Z-1.8 I-0.45 J0 F600
X-5.368 Y-19.682 Z-2.1 I0.45 J0
X-6.268 Y-19.682 Z-2.4 I-0.45 J0
X-5.368 Y-19.682 Z-2.7 I0.45 J0
X-6.268 Y-19.682 Z-3 I-0.45 J0
X-5.368 Y-19.682 Z-3.3 I0.45 J0
X-6.268 Y-19.682 Z-3.6 I-0.45 J0
X-5.368 Y-19.682 Z-3.9 I0.45 J0
X-5.593 Y-19.292 Z-4 I-0.45 J0
X-6.043 Y-20.072 I-0.225 J-0.39
X-5.593 Y-19.292 I0.225 J0.39
G1 X-5.637 Y-19.275
X-5.684 Y-19.273
X-5.729 Y-19.285
X-5.768 Y-19.311
X-5.798 Y-19.347
X-5.835 Y-19.412
X-5.859 Y-19.452 Z-3.993
X-5.88 Y-19.488 Z-3.971
X-5.896 Y-19.517 Z-3.938
X-5.907 Y-19.536 Z-3.896
X-5.91 Y-19.542 Z-3.85
G0 Z5
X-8.425 Y-26.15
Z2
G1 Z0.15 F400
X-8.418 Z0.104
X-8.396 Z0.062
X-8.363 Z0.029
X-8.321 Z0.007
X-8.275 Z0
X-8.2
X-8.154 Y-26.143
X-8.112 Y-26.121
X-8.079 Y-26.088
X-8.057 Y-26.046
X-8.05 Y-26
G3 X-9.95 Y-26 Z-0.3 I-0.95 J0 F600
X-8.05 Y-26 Z-0.6 I0.95 J0
X-9.95 Y-26 Z-0.9 I-0.95 J0
X-8.05 Y-26 Z-1.2 I0.95 J0
X-9.95 Y-26 Z-1.5 I-0.95 J0
X-8.05 Y-26 Z-1.8 I0.95 J0
X-9.95 Y-26 Z-2.1 I-0.95 J0
X-8.05 Y-26 Z-2.4 I0.95 J0
X-9.95 Y-26 Z-2.7 I-0.95 J0
X-8.05 Y-26 Z-3 I0.95 J0
X-9.95 Y-26 Z-3.3 I-0.95 J0
X-8.05 Y-26 Z-3.6 I0.95 J0
X-9.95 Y-26 Z-3.9 I-0.95 J0
X-9.475 Y-26.823 Z-4 I0.95 J0
X-8.525 Y-25.177 I0.475 J0.823
X-9.475 Y-26.823 I-0.475 J-0.823
G1 X-9.431 Y-26.84
X-9.384 Y-26.842
X-9.339 Y-26.83
X-9.3 Y-26.804
X-9.27 Y-26.768
X-9.233 Y-26.703
X-9.209 Y-26.663 Z-3.993
X-9.189 Y-26.627 Z-3.971
X-9.172 Y-26.598 Z-3.938
X-9.161 Y-26.579 Z-3.896
X-9.158 Y-26.573 Z-3.85
G0 Z5
X-8.425 Y-63.91
Z2
G1 Z0.15 F400
X-8.418 Z0.104
X-8.396 Z0.062
X-8.363 Z0.029
X-8.321 Z0.007
X-8.275 Z0
X-8.2
X-8.154 Y-63.903
X-8.112 Y-63.882
X-8.079 Y-63.848
X-8.057 Y-63.807
X-8.05 Y-63.76
G3 X-9.95 Y-63.76 Z-0.3 I-0.95 J0 F600
X-8.05 Y-63.76 Z-0.6 I0.95 J0
X-9.95 Y-63.76 Z-0.9 I-0.95 J0
X-8.05 Y-63.76 Z-1.2 I0.95 J0
X-9.95 Y-63.76 Z-1.5 I-0.95 J0
X-8.05 Y-63.76 Z-1.8 I0.95 J0
X-9.95 Y-63.76 Z-2.1 I-0.95 J0
X-8.05 Y-63.76 Z-2.4 I0.95 J0
X-9.95 Y-63.76 Z-2.7 I-0.95 J0
X-8.05 Y-63.76 Z-3 I0.95 J0
X-9.95 Y-63.76 Z-3.3 I-0.95 J0
X-8.05 Y-63.76 Z-3.6 I0.95 J0
X-9.95 Y-63.76 Z-3.9 I-0.95 J0
X-9.475 Y-64.583 Z-4 I0.95 J0
X-8.525 Y-62.938 I0.475 J0.823
X-9.475 Y-64.583 I-0.475 J-0.823
G1 X-9.431 Y-64.6
X-9.384 Y-64.602
X-9.339 Y-64.59
X-9.3 Y-64.565
X-9.27 Y-64.528
X-9.233 Y-64.463
X-9.209 Y-64.423 Z-3.993
X-9.189 Y-64.387 Z-3.971
X-9.172 Y-64.358 Z-3.938
X-9.161 Y-64.34 Z-3.896
X-9.158 Y-64.333 Z-3.85
G0 Z5
X-7.202 Y-72.613
Z2
G1 Z0.15 F400
X-7.194 Z0.104
X-7.173 Z0.062
X-7.14 Z0.029
X-7.098 Z0.007
X-7.052 Z0
X-6.977
X-6.93 Y-72.606
X-6.888 Y-72.585
X-6.855 Y-72.551
X-6.834 Y-72.51
X-6.827 Y-72.463
G3 X-7.727 Y-72.463 Z-0.3 I-0.45 J0 F600
X-6.827 Y-72.463 Z-0.6 I0.45 J0
X-7.727 Y-72.463 Z-0.9 I-0.45 J0
X-6.827 Y-72.463 Z-1.2 I0.45 J0
X-7.727 Y-72.463 Z-1.5 I-0.45 J0
X-6.827 Y-72.463 Z-1.8 I0.45 J0
X-7.727 Y-72.463 Z-2.1 I-0.45 J0
X-6.827 Y-72.463 Z-2.4 I0.45 J0
X-7.727 Y-72.463 Z-2.7 I-0.45 J0
X-6.827 Y-72.463 Z-3 I0.45 J0
X-7.727 Y-72.463 Z-3.3 I-0.45 J0
X-6.827 Y-72.463 Z-3.6 I0.45 J0
X-7.727 Y-72.463 Z-3.9 I-0.45 J0
X-7.502 Y-72.853 Z-4 I0.45 J0
X-7.052 Y-72.074 I0.225 J0.39
X-7.502 Y-72.853 I-0.225 J-0.39
G1 X-7.458 Y-72.87
X-7.411 Y-72.872
X-7.365 Y-72.86
X-7.326 Y-72.835
X-7.297 Y-72.798
X-7.259 Y-72.733
X-7.236 Y-72.693 Z-3.993
X-7.215 Y-72.657 Z-3.971
X-7.198 Y-72.628 Z-3.938
X-7.188 Y-72.61 Z-3.896
X-7.184 Y-72.603 Z-3.85
G0 Z15

(2D-Kontur6)
Z25
X-13.275 Y-57.984
Z5.1
G1 Z2.6 F300
X-13.269 Y-57.868 Z2.596 F1016
X-13.198 Y-56.242 Z2.539
X-13.129 Y-54.587 Z2.481
X-13.064 Y-52.903 Z2.422
X-13.003 Y-51.19 Z2.363
X-12.947 Y-49.449 Z2.302
X-12.897 Y-47.68 Z2.24
X-12.853 Y-45.884 Z2.177
X-12.817 Y-44.061 Z2.114
X-12.788 Y-42.212 Z2.049
X-12.767 Y-40.335 Z1.983
X-12.754 Y-38.431 Z1.917
X-12.75 Y-36.499 Z1.849
Y-30.015 Z1.623
X-12.759 Y-29.795 Z1.615
X-12.785 Y-29.566 Z1.607
X-12.83 Y-29.312 Z1.598
X-12.894 Y-29.034 Z1.588
X-12.978 Y-28.735 Z1.577
X-13.08 Y-28.415 Z1.566
X-13.2 Y-28.074 Z1.553
X-13.337 Y-27.716 Z1.54
X-13.489 Y-27.341 Z1.526
X-13.654 Y-26.949 Z1.511
X-13.83 Y-26.543 Z1.495
X-14.017 Y-26.122 Z1.479
X-14.211 Y-25.689 Z1.463
X-14.41 Y-25.245 Z1.446
X-14.412 Y-25.241
X-14.816 Y-24.326 Z1.411
X-14.821 Y-24.314 Z1.41
X-15.22 Y-23.369 Z1.374
X-15.228 Y-23.349
X-15.605 Y-22.379 Z1.337
X-15.613 Y-22.359 Z1.336
X-15.788 Y-21.866 Z1.318
X-15.794 Y-21.85
X-15.958 Y-21.353 Z1.299
X-15.964 Y-21.335
X-16.115 Y-20.834 Z1.28
X-16.121 Y-20.814
X-16.258 Y-20.309 Z1.261
X-16.264 Y-20.287
X-16.385 Y-19.779 Z1.242
X-16.39 Y-19.755 Z1.241
X-16.495 Y-19.245 Z1.223
X-16.5 Y-19.219 Z1.222
X-16.586 Y-18.705 Z1.204
X-16.59 Y-18.678 Z1.203
X-16.657 Y-18.16 Z1.185
X-16.66 Y-18.132 Z1.184
X-16.709 Y-17.61 Z1.166
X-16.711 Y-17.582 Z1.165
X-16.74 Y-17.055 Z1.146
X-16.741 Y-17.027 Z1.145
X-16.75 Y-16.494 Z1.127
Y-16.467 Z1.126
X-16.739 Y-15.928 Z1.107
X-16.738 Y-15.902 Z1.106
X-16.709 Y-15.356 Z1.087
X-16.707 Y-15.331 Z1.086
X-16.658 Y-14.779 Z1.067
X-16.655 Y-14.755 Z1.066
X-16.588 Y-14.197 Z1.046
X-16.585 Y-14.174 Z1.045
X-16.499 Y-13.609 Z1.025
X-16.496 Y-13.588
X-16.393 Y-13.017 Z1.004
X-16.389 Y-12.998
X-16.269 Y-12.421 Z0.983
X-16.265 Y-12.403
X-16.129 Y-11.822 Z0.962
X-16.125 Y-11.805 Z0.961
X-15.974 Y-11.221 Z0.94
X-15.969 Y-11.205 Z0.939
X-15.804 Y-10.619 Z0.918
X-15.799 Y-10.603
X-15.619 Y-10.018 Z0.896
X-15.615 Y-10.003
X-15.422 Y-9.42 Z0.874
X-15.417 Y-9.405
X-15.212 Y-8.827 Z0.852
X-15.207 Y-8.812
X-14.99 Y-8.24 Z0.83
X-14.984 Y-8.225
X-14.757 Y-7.662 Z0.809
X-14.751 Y-7.647 Z0.808
X-14.514 Y-7.095 Z0.787
X-14.507 Y-7.079 Z0.786
X-14.261 Y-6.542 Z0.766
X-14.253 Y-6.525 Z0.765
X-13.999 Y-6.004 Z0.745
X-13.99 Y-5.986 Z0.744
X-13.728 Y-5.483 Z0.724
X-13.718 Y-5.464
X-13.45 Y-4.983 Z0.704
X-13.438 Y-4.962
X-13.164 Y-4.504 Z0.685
X-13.15 Y-4.482 Z0.684
X-12.871 Y-4.05 Z0.666
X-12.855 Y-4.026 Z0.665
X-12.571 Y-3.623 Z0.648
X-12.551 Y-3.596 Z0.647
X-12.264 Y-3.223 Z0.63
X-12.24 Y-3.194 Z0.629
X-11.949 Y-2.853 Z0.613
X-11.92 Y-2.821 Z0.612
X-11.627 Y-2.516 Z0.597
X-11.591 Y-2.481 Z0.595
X-11.296 Y-2.212 Z0.581
X-11.251 Y-2.174 Z0.579
X-10.955 Y-1.943 Z0.566
X-10.914 Y-1.914 Z0.564
X-10.766 Y-1.813 Z0.558
X-10.735 Y-1.794 Z0.557
X-10.586 Y-1.703 Z0.551
X-10.552 Y-1.684 Z0.549
X-10.402 Y-1.603 Z0.543
X-10.365 Y-1.585 Z0.542
X-10.215 Y-1.515 Z0.536
X-10.174 Y-1.497 Z0.535
X-10.025 Y-1.438 Z0.529
X-9.98 Y-1.422 Z0.527
X-9.831 Y-1.373 Z0.522
X-9.783 Y-1.36 Z0.52
X-9.633 Y-1.322 Z0.515
X-9.583 Y-1.311 Z0.513
X-9.433 Y-1.284 Z0.508
X-9.381 Y-1.276 Z0.506
X-9.231 Y-1.26 Z0.501
X-9.177 Y-1.256 Z0.499
X-9.027 Y-1.25 Z0.493
X-8.973 Z0.492
X-8.823 Y-1.256 Z0.486
X-8.769 Y-1.26 Z0.484
X-8.619 Y-1.276 Z0.479
X-8.567 Y-1.284 Z0.477
X-8.417 Y-1.311 Z0.472
X-8.367 Y-1.322 Z0.47
X-8.217 Y-1.36 Z0.465
X-8.169 Y-1.373 Z0.463
X-8.02 Y-1.422 Z0.458
X-7.975 Y-1.438 Z0.456
X-7.826 Y-1.497 Z0.45
X-7.785 Y-1.515 Z0.449
X-7.635 Y-1.585 Z0.443
X-7.598 Y-1.603 Z0.442
X-7.448 Y-1.684 Z0.436
X-7.414 Y-1.703 Z0.434
X-7.265 Y-1.794 Z0.428
X-7.234 Y-1.813 Z0.427
X-7.086 Y-1.914 Z0.421
X-7.045 Y-1.943 Z0.419
X-6.749 Y-2.174 Z0.406
X-6.704 Y-2.212 Z0.404
X-6.409 Y-2.481 Z0.39
X-6.373 Y-2.516 Z0.388
X-6.08 Y-2.821 Z0.373
X-6.051 Y-2.853 Z0.372
X-5.76 Y-3.194 Z0.356
X-5.736 Y-3.223 Z0.355
X-5.449 Y-3.596 Z0.338
X-5.429 Y-3.623 Z0.337
X-5.145 Y-4.026 Z0.32
X-5.129 Y-4.05 Z0.319
X-4.85 Y-4.482 Z0.301
X-4.836 Y-4.504 Z0.3
X-4.562 Y-4.962 Z0.281
X-4.55 Y-4.983
X-4.282 Y-5.464 Z0.261
X-4.272 Y-5.483
X-4.01 Y-5.986 Z0.241
X-4.001 Y-6.003 Z0.24
X-3.747 Y-6.525 Z0.22
X-3.739 Y-6.542 Z0.219
X-3.493 Y-7.079 Z0.199
X-3.486 Y-7.095 Z0.198
X-3.249 Y-7.647 Z0.177
X-3.243 Y-7.662 Z0.176
X-3.016 Y-8.225 Z0.155
X-3.01 Y-8.24
X-2.793 Y-8.812 Z0.133
X-2.788 Y-8.827
X-2.583 Y-9.405 Z0.111
X-2.578 Y-9.42
X-2.385 Y-10.003 Z0.089
X-2.38 Y-10.018
X-2.201 Y-10.604 Z0.067
X-2.196 Y-10.619
X-2.031 Y-11.205 Z0.046
X-2.026 Y-11.221 Z0.045
X-1.875 Y-11.805 Z0.024
X-1.871 Y-11.822 Z0.023
X-1.735 Y-12.403 Z0.002
X-1.731 Y-12.421
X-1.611 Y-12.998 Z-0.019
X-1.607 Y-13.017
X-1.504 Y-13.588 Z-0.04
X-1.501 Y-13.609
X-1.415 Y-14.174 Z-0.06
X-1.412 Y-14.197 Z-0.061
X-1.345 Y-14.755 Z-0.081
X-1.342 Y-14.779 Z-0.082
X-1.293 Y-15.331 Z-0.101
X-1.291 Y-15.356 Z-0.102
X-1.262 Y-15.902 Z-0.121
X-1.261 Y-15.928 Z-0.122
X-1.25 Y-16.467 Z-0.141
Y-16.494 Z-0.142
X-1.259 Y-17.027 Z-0.16
X-1.26 Y-17.055 Z-0.161
X-1.289 Y-17.582 Z-0.18
X-1.291 Y-17.61 Z-0.181
X-1.339 Y-18.132 Z-0.199
X-1.343 Y-18.16 Z-0.2
X-1.41 Y-18.678 F600
X-1.414 Y-18.705
X-1.5 Y-19.219
X-1.505 Y-19.245
X-1.61 Y-19.755
X-1.615 Y-19.78
X-1.736 Y-20.287
X-1.742 Y-20.309
X-1.879 Y-20.814
X-1.885 Y-20.834
X-2.036 Y-21.335
X-2.042 Y-21.353
X-2.206 Y-21.85
X-2.212 Y-21.866
X-2.387 Y-22.359
X-2.395 Y-22.379
X-2.772 Y-23.349
X-2.78 Y-23.369
X-3.179 Y-24.314
X-3.184 Y-24.326
X-3.588 Y-25.241
X-3.59 Y-25.245
X-3.789 Y-25.689
X-3.983 Y-26.122
X-4.17 Y-26.543
X-4.346 Y-26.949
X-4.511 Y-27.341
X-4.663 Y-27.716
X-4.8 Y-28.074
X-4.92 Y-28.415
X-5.022 Y-28.735
X-5.106 Y-29.034
X-5.17 Y-29.312
X-5.215 Y-29.566
X-5.241 Y-29.795
X-5.25 Y-30.015
Y-36.499
X-5.247 Y-38.144
X-5.238 Y-39.771
X-5.222 Y-41.38
X-5.201 Y-42.972
X-5.173 Y-44.546
X-5.141 Y-46.102
X-5.103 Y-47.641
X-5.06 Y-49.161
X-5.014 Y-50.663
X-4.963 Y-52.146
X-4.909 Y-53.61
X-4.852 Y-55.055
X-4.792 Y-56.479
X-4.731 Y-57.882
X-4.669 Y-59.264
X-4.607 Y-60.623
X-4.544 Y-61.958
X-4.483 Y-63.269
X-4.423 Y-64.555
X-4.365 Y-65.813
Y-65.814
X-4.31 Y-67.044
Y-67.045
X-4.259 Y-68.245
Y-68.247
X-4.212 Y-69.415
Y-69.418
X-4.171 Y-70.553
Y-70.556
X-4.135 Y-71.657
Y-71.661
X-4.107 Y-72.726
Y-72.731
X-4.086 Y-73.757
Y-73.762
X-4.078 Y-74.26
Y-74.263
X-4.073 Y-74.752
Y-74.755
X-4.07 Y-75.233
Y-75.237
X-4.069 Y-75.704
Y-75.708
X-4.071 Y-76.165
Y-76.169
X-4.076 Y-76.615
Y-76.62
X-4.083 Y-77.054
Y-77.059
X-4.093 Y-77.482
Y-77.487
X-4.105 Y-77.898
X-4.106 Y-77.904
X-4.121 Y-78.288
Y-83.03
G2 X-4.601 Y-84.015 I-1.25 J0
G1 X-8.144 Y-86.783
G2 X-9.899 Y-86.568 I-0.77 J0.985
G1 X-13.308 Y-82.204
X-13.358 Y-82.132
X-13.418 Y-82.033
X-13.459 Y-81.956
X-13.491 Y-81.875
X-13.527 Y-81.764
X-13.551 Y-81.67
X-13.608 Y-81.362
X-13.611 Y-81.343
X-13.663 Y-81.016
X-13.666 Y-81
X-13.713 Y-80.655
X-13.715 Y-80.64
X-13.758 Y-80.278
X-13.759 Y-80.265
X-13.797 Y-79.884
X-13.798 Y-79.873
X-13.831 Y-79.475
X-13.832 Y-79.465
X-13.861 Y-79.05
X-13.862 Y-79.041
X-13.886 Y-78.61
X-13.887 Y-78.601
X-13.907 Y-78.153
Y-78.146
X-13.924 Y-77.682
Y-77.676
X-13.937 Y-77.197
Y-77.19
X-13.945 Y-76.696
X-13.946 Y-76.69
X-13.951 Y-76.181
Y-76.176
X-13.952 Y-75.652
Y-75.647
X-13.951 Y-75.109
Y-75.104
X-13.946 Y-74.552
Y-74.548
X-13.938 Y-73.983
Y-73.979
X-13.928 Y-73.4
Y-73.397
X-13.914 Y-72.805
Y-72.802
X-13.898 Y-72.198
Y-72.195
X-13.88 Y-71.578
Y-71.576
X-13.859 Y-70.947
Y-70.945
X-13.836 Y-70.305
Y-70.303
X-13.812 Y-69.651
Y-69.649
X-13.785 Y-68.986
Y-68.985
X-13.757 Y-68.311
Y-68.31
X-13.727 Y-67.625
Y-67.624
X-13.696 Y-66.929
Y-66.928
X-13.631 Y-65.508
X-13.63 Y-65.507
X-13.561 Y-64.049
X-13.489 Y-62.554
X-13.416 Y-61.025
X-13.342 Y-59.462
X-13.269 Y-57.868
X-13.198 Y-56.242
X-13.129 Y-54.587
X-13.064 Y-52.903
X-13.003 Y-51.19
X-12.947 Y-49.449
X-12.897 Y-47.68
X-12.853 Y-45.884
X-12.817 Y-44.061
X-12.788 Y-42.212
X-12.767 Y-40.335
X-12.754 Y-38.431
X-12.75 Y-36.499
Y-30.015
X-12.759 Y-29.795
X-12.785 Y-29.566
X-12.83 Y-29.312
X-12.894 Y-29.034
X-12.978 Y-28.735
X-13.08 Y-28.415
X-13.2 Y-28.074
X-13.337 Y-27.716
X-13.489 Y-27.341
X-13.654 Y-26.949
X-13.83 Y-26.543
X-14.017 Y-26.122
X-14.211 Y-25.689
X-14.41 Y-25.245
X-14.412 Y-25.241
X-14.816 Y-24.326
X-14.821 Y-24.314
X-15.22 Y-23.369
X-15.228 Y-23.349
X-15.605 Y-22.379
X-15.613 Y-22.359
X-15.788 Y-21.866
X-15.794 Y-21.85
X-15.958 Y-21.353
X-15.964 Y-21.335
X-16.115 Y-20.834
X-16.121 Y-20.814
X-16.258 Y-20.309
X-16.264 Y-20.287
X-16.385 Y-19.779
X-16.39 Y-19.755
X-16.495 Y-19.245
X-16.5 Y-19.219
X-16.586 Y-18.705
X-16.59 Y-18.678
X-16.657 Y-18.16
X-16.66 Y-18.132
X-16.709 Y-17.61
X-16.711 Y-17.582
X-16.74 Y-17.055
X-16.741 Y-17.027
X-16.75 Y-16.494
Y-16.467
X-16.739 Y-15.928
X-16.738 Y-15.902
X-16.709 Y-15.356
X-16.707 Y-15.331
X-16.658 Y-14.779
X-16.655 Y-14.755
X-16.588 Y-14.197
X-16.585 Y-14.174
X-16.499 Y-13.609
X-16.496 Y-13.588
X-16.393 Y-13.017
X-16.389 Y-12.998
X-16.269 Y-12.421
X-16.265 Y-12.403
X-16.129 Y-11.822
X-16.125 Y-11.805
X-15.974 Y-11.221
X-15.969 Y-11.205
X-15.804 Y-10.619
X-15.799 Y-10.603
X-15.619 Y-10.018
X-15.615 Y-10.003
X-15.422 Y-9.42
X-15.417 Y-9.405
X-15.212 Y-8.827
X-15.207 Y-8.812
X-14.99 Y-8.24
X-14.984 Y-8.225
X-14.757 Y-7.662
X-14.751 Y-7.647
X-14.514 Y-7.095
X-14.507 Y-7.079
X-14.261 Y-6.542
X-14.253 Y-6.525
X-13.999 Y-6.004
X-13.99 Y-5.986
X-13.728 Y-5.483
X-13.718 Y-5.464
X-13.45 Y-4.983
X-13.438 Y-4.962
X-13.164 Y-4.504
X-13.15 Y-4.482
X-12.871 Y-4.05
X-12.855 Y-4.026
X-12.571 Y-3.623
X-12.551 Y-3.596
X-12.264 Y-3.223
X-12.24 Y-3.194
X-11.949 Y-2.853
X-11.92 Y-2.821
X-11.627 Y-2.516
X-11.591 Y-2.481
X-11.296 Y-2.212
X-11.251 Y-2.174
X-10.955 Y-1.943
X-10.914 Y-1.914
X-10.766 Y-1.813
X-10.735 Y-1.794
X-10.586 Y-1.703
X-10.552 Y-1.684
X-10.402 Y-1.603
X-10.365 Y-1.585
X-10.215 Y-1.515
X-10.174 Y-1.497
X-10.025 Y-1.438
X-9.98 Y-1.422
X-9.831 Y-1.373
X-9.783 Y-1.36
X-9.633 Y-1.322
X-9.583 Y-1.311
X-9.433 Y-1.284
X-9.381 Y-1.276
X-9.231 Y-1.26
X-9.177 Y-1.256
X-9.027 Y-1.25
X-8.973
X-8.823 Y-1.256
X-8.769 Y-1.26
X-8.619 Y-1.276
X-8.567 Y-1.284
X-8.417 Y-1.311
X-8.367 Y-1.322
X-8.217 Y-1.36
X-8.169 Y-1.373
X-8.02 Y-1.422
X-7.975 Y-1.438
X-7.826 Y-1.497
X-7.785 Y-1.515
X-7.635 Y-1.585
X-7.598 Y-1.603
X-7.448 Y-1.684
X-7.414 Y-1.703
X-7.265 Y-1.794
X-7.234 Y-1.813
X-7.086 Y-1.914
X-7.045 Y-1.943
X-6.749 Y-2.174
X-6.704 Y-2.212
X-6.409 Y-2.481
X-6.373 Y-2.516
X-6.08 Y-2.821
X-6.051 Y-2.853
X-5.76 Y-3.194
X-5.736 Y-3.223
X-5.449 Y-3.596
X-5.429 Y-3.623
X-5.145 Y-4.026
X-5.129 Y-4.05
X-4.85 Y-4.482
X-4.836 Y-4.504
X-4.562 Y-4.962
X-4.55 Y-4.983
X-4.282 Y-5.464
X-4.272 Y-5.483
X-4.01 Y-5.986
X-4.001 Y-6.003
X-3.747 Y-6.525
X-3.739 Y-6.542
X-3.493 Y-7.079
X-3.486 Y-7.095
X-3.249 Y-7.647
X-3.243 Y-7.662
X-3.016 Y-8.225
X-3.01 Y-8.24
X-2.793 Y-8.812
X-2.788 Y-8.827
X-2.583 Y-9.405
X-2.578 Y-9.42
X-2.385 Y-10.003
X-2.38 Y-10.018
X-2.201 Y-10.604
X-2.196 Y-10.619
X-2.031 Y-11.205
X-2.026 Y-11.221
X-1.875 Y-11.805
X-1.871 Y-11.822
X-1.735 Y-12.403
X-1.731 Y-12.421
X-1.611 Y-12.998
X-1.607 Y-13.017
X-1.504 Y-13.588
X-1.501 Y-13.609
X-1.415 Y-14.174
X-1.412 Y-14.197
X-1.345 Y-14.755
X-1.342 Y-14.779
X-1.293 Y-15.331
X-1.291 Y-15.356
X-1.262 Y-15.902
X-1.261 Y-15.928
X-1.25 Y-16.467
Y-16.494
X-1.259 Y-17.027
X-1.26 Y-17.055
X-1.289 Y-17.582
X-1.291 Y-17.61
X-1.339 Y-18.132
X-1.343 Y-18.16
X-1.41 Y-18.678 Z-0.218 F1016
X-1.414 Y-18.705 Z-0.219
X-1.5 Y-19.219 Z-0.237
X-1.505 Y-19.245 Z-0.238
X-1.61 Y-19.755 Z-0.257
X-1.615 Y-19.78
X-1.736 Y-20.287 Z-0.276
X-1.742 Y-20.309
X-1.879 Y-20.814 Z-0.295
X-1.885 Y-20.834
X-2.036 Y-21.335 Z-0.314
X-2.042 Y-21.353
X-2.206 Y-21.85 Z-0.333
X-2.212 Y-21.866
X-2.387 Y-22.359 Z-0.351
X-2.395 Y-22.379 Z-0.352
X-2.772 Y-23.349 Z-0.389
X-2.78 Y-23.369
X-3.179 Y-24.314 Z-0.425
X-3.184 Y-24.326 Z-0.426
X-3.588 Y-25.241 Z-0.461
X-3.59 Y-25.245
X-3.789 Y-25.689 Z-0.478
X-3.983 Y-26.122 Z-0.494
X-4.05 Y-26.273 Z-0.5
X-4.17 Y-26.543 F600
X-4.346 Y-26.949
X-4.511 Y-27.341
X-4.663 Y-27.716
X-4.8 Y-28.074
X-4.92 Y-28.415
X-5.022 Y-28.735
X-5.106 Y-29.034
X-5.17 Y-29.312
X-5.215 Y-29.566
X-5.241 Y-29.795
X-5.25 Y-30.015
Y-36.499
X-5.247 Y-38.144
X-5.238 Y-39.771
X-5.222 Y-41.38
X-5.201 Y-42.972
X-5.173 Y-44.546
X-5.141 Y-46.102
X-5.103 Y-47.641
X-5.06 Y-49.161
X-5.014 Y-50.663
X-4.963 Y-52.146
X-4.909 Y-53.61
X-4.852 Y-55.055
X-4.792 Y-56.479
X-4.731 Y-57.882
X-4.669 Y-59.264
X-4.607 Y-60.623
X-4.544 Y-61.958
X-4.483 Y-63.269
X-4.423 Y-64.555
X-4.365 Y-65.813
Y-65.814
X-4.31 Y-67.044
Y-67.045
X-4.259 Y-68.245
Y-68.247
X-4.212 Y-69.415
Y-69.418
X-4.171 Y-70.553
Y-70.556
X-4.135 Y-71.657
Y-71.661
X-4.107 Y-72.726
Y-72.731
X-4.086 Y-73.757
Y-73.762
X-4.078 Y-74.26
Y-74.263
X-4.073 Y-74.752
Y-74.755
X-4.07 Y-75.233
Y-75.237
X-4.069 Y-75.704
Y-75.708
X-4.071 Y-76.165
Y-76.169
X-4.076 Y-76.615
Y-76.62
X-4.083 Y-77.054
Y-77.059
X-4.093 Y-77.482
Y-77.487
X-4.105 Y-77.898
X-4.106 Y-77.904
X-4.121 Y-78.288
Y-83.03
G2 X-4.601 Y-84.015 I-1.25 J0
G1 X-8.144 Y-86.783
G2 X-9.899 Y-86.568 I-0.77 J0.985
G1 X-13.308 Y-82.204
X-13.358 Y-82.132
X-13.418 Y-82.033
X-13.459 Y-81.956
X-13.491 Y-81.875
X-13.527 Y-81.764
X-13.551 Y-81.67
X-13.608 Y-81.362
X-13.611 Y-81.343
X-13.663 Y-81.016
X-13.666 Y-81
X-13.713 Y-80.655
X-13.715 Y-80.64
X-13.758 Y-80.278
X-13.759 Y-80.265
X-13.797 Y-79.884
X-13.798 Y-79.873
X-13.831 Y-79.475
X-13.832 Y-79.465
X-13.861 Y-79.05
X-13.862 Y-79.041
X-13.886 Y-78.61
X-13.887 Y-78.601
X-13.907 Y-78.153
Y-78.146
X-13.924 Y-77.682
Y-77.676
X-13.937 Y-77.197
Y-77.19
X-13.945 Y-76.696
X-13.946 Y-76.69
X-13.951 Y-76.181
Y-76.176
X-13.952 Y-75.652
Y-75.647
X-13.951 Y-75.109
Y-75.104
X-13.946 Y-74.552
Y-74.548
X-13.938 Y-73.983
Y-73.979
X-13.928 Y-73.4
Y-73.397
X-13.914 Y-72.805
Y-72.802
X-13.898 Y-72.198
Y-72.195
X-13.88 Y-71.578
Y-71.576
X-13.859 Y-70.947
Y-70.945
X-13.836 Y-70.305
Y-70.303
X-13.812 Y-69.651
Y-69.649
X-13.785 Y-68.986
Y-68.985
X-13.757 Y-68.311
Y-68.31
X-13.727 Y-67.625
Y-67.624
X-13.696 Y-66.929
Y-66.928
X-13.631 Y-65.508
X-13.63 Y-65.507
X-13.561 Y-64.049
X-13.489 Y-62.554
X-13.416 Y-61.025
X-13.342 Y-59.462
X-13.269 Y-57.868
X-13.198 Y-56.242
X-13.129 Y-54.587
X-13.064 Y-52.903
X-13.003 Y-51.19
X-12.947 Y-49.449
X-12.897 Y-47.68
X-12.853 Y-45.884
X-12.817 Y-44.061
X-12.788 Y-42.212
X-12.767 Y-40.335
X-12.754 Y-38.431
X-12.75 Y-36.499
Y-30.015
X-12.759 Y-29.795
X-12.785 Y-29.566
X-12.83 Y-29.312
X-12.894 Y-29.034
X-12.978 Y-28.735
X-13.08 Y-28.415
X-13.2 Y-28.074
X-13.337 Y-27.716
X-13.489 Y-27.341
X-13.654 Y-26.949
X-13.83 Y-26.543
X-14.017 Y-26.122
X-14.211 Y-25.689
X-14.41 Y-25.245
X-14.412 Y-25.241
X-14.816 Y-24.326
X-14.821 Y-24.314
X-15.22 Y-23.369
X-15.228 Y-23.349
X-15.605 Y-22.379
X-15.613 Y-22.359
X-15.788 Y-21.866
X-15.794 Y-21.85
X-15.958 Y-21.353
X-15.964 Y-21.335
X-16.115 Y-20.834
X-16.121 Y-20.814
X-16.258 Y-20.309
X-16.264 Y-20.287
X-16.385 Y-19.779
X-16.39 Y-19.755
X-16.495 Y-19.245
X-16.5 Y-19.219
X-16.586 Y-18.705
X-16.59 Y-18.678
X-16.657 Y-18.16
X-16.66 Y-18.132
X-16.709 Y-17.61
X-16.711 Y-17.582
X-16.74 Y-17.055
X-16.741 Y-17.027
X-16.75 Y-16.494
Y-16.467
X-16.739 Y-15.928
X-16.738 Y-15.902
X-16.709 Y-15.356
X-16.707 Y-15.331
X-16.658 Y-14.779
X-16.655 Y-14.755
X-16.588 Y-14.197
X-16.585 Y-14.174
X-16.499 Y-13.609
X-16.496 Y-13.588
X-16.393 Y-13.017
X-16.389 Y-12.998
X-16.269 Y-12.421
X-16.265 Y-12.403
X-16.129 Y-11.822
X-16.125 Y-11.805
X-15.974 Y-11.221
X-15.969 Y-11.205
X-15.804 Y-10.619
X-15.799 Y-10.603
X-15.619 Y-10.018
X-15.615 Y-10.003
X-15.422 Y-9.42
X-15.417 Y-9.405
X-15.212 Y-8.827
X-15.207 Y-8.812
X-14.99 Y-8.24
X-14.984 Y-8.225
X-14.757 Y-7.662
X-14.751 Y-7.647
X-14.514 Y-7.095
X-14.507 Y-7.079
X-14.261 Y-6.542
X-14.253 Y-6.525
X-13.999 Y-6.004
X-13.99 Y-5.986
X-13.728 Y-5.483
X-13.718 Y-5.464
X-13.45 Y-4.983
X-13.438 Y-4.962
X-13.164 Y-4.504
X-13.15 Y-4.482
X-12.871 Y-4.05
X-12.855 Y-4.026
X-12.571 Y-3.623
X-12.551 Y-3.596
X-12.264 Y-3.223
X-12.24 Y-3.194
X-11.949 Y-2.853
X-11.92 Y-2.821
X-11.627 Y-2.516
X-11.591 Y-2.481
X-11.296 Y-2.212
X-11.251 Y-2.174
X-10.955 Y-1.943
X-10.914 Y-1.914
X-10.766 Y-1.813
X-10.735 Y-1.794
X-10.586 Y-1.703
X-10.552 Y-1.684
X-10.402 Y-1.603
X-10.365 Y-1.585
X-10.215 Y-1.515
X-10.174 Y-1.497
X-10.025 Y-1.438
X-9.98 Y-1.422
X-9.831 Y-1.373
X-9.783 Y-1.36
X-9.633 Y-1.322
X-9.583 Y-1.311
X-9.433 Y-1.284
X-9.381 Y-1.276
X-9.231 Y-1.26
X-9.177 Y-1.256
X-9.027 Y-1.25
X-8.973
X-8.823 Y-1.256
X-8.769 Y-1.26
X-8.619 Y-1.276
X-8.567 Y-1.284
X-8.417 Y-1.311
X-8.367 Y-1.322
X-8.217 Y-1.36
X-8.169 Y-1.373
X-8.02 Y-1.422
X-7.975 Y-1.438
X-7.826 Y-1.497
X-7.785 Y-1.515
X-7.635 Y-1.585
X-7.598 Y-1.603
X-7.448 Y-1.684
X-7.414 Y-1.703
X-7.265 Y-1.794
X-7.234 Y-1.813
X-7.086 Y-1.914
X-7.045 Y-1.943
X-6.749 Y-2.174
X-6.704 Y-2.212
X-6.409 Y-2.481
X-6.373 Y-2.516
X-6.08 Y-2.821
X-6.051 Y-2.853
X-5.76 Y-3.194
X-5.736 Y-3.223
X-5.449 Y-3.596
X-5.429 Y-3.623
X-5.145 Y-4.026
X-5.129 Y-4.05
X-4.85 Y-4.482
X-4.836 Y-4.504
X-4.562 Y-4.962
X-4.55 Y-4.983
X-4.282 Y-5.464
X-4.272 Y-5.483
X-4.01 Y-5.986
X-4.001 Y-6.003
X-3.747 Y-6.525
X-3.739 Y-6.542
X-3.493 Y-7.079
X-3.486 Y-7.095
X-3.249 Y-7.647
X-3.243 Y-7.662
X-3.016 Y-8.225
X-3.01 Y-8.24
X-2.793 Y-8.812
X-2.788 Y-8.827
X-2.583 Y-9.405
X-2.578 Y-9.42
X-2.385 Y-10.003
X-2.38 Y-10.018
X-2.201 Y-10.604
X-2.196 Y-10.619
X-2.031 Y-11.205
X-2.026 Y-11.221
X-1.875 Y-11.805
X-1.871 Y-11.822
X-1.735 Y-12.403
X-1.731 Y-12.421
X-1.611 Y-12.998
X-1.607 Y-13.017
X-1.504 Y-13.588
X-1.501 Y-13.609
X-1.415 Y-14.174
X-1.412 Y-14.197
X-1.345 Y-14.755
X-1.342 Y-14.779
X-1.293 Y-15.331
X-1.291 Y-15.356
X-1.262 Y-15.902
X-1.261 Y-15.928
X-1.25 Y-16.467
Y-16.494
X-1.259 Y-17.027
X-1.26 Y-17.055
X-1.289 Y-17.582
X-1.291 Y-17.61
X-1.339 Y-18.132
X-1.343 Y-18.16
X-1.41 Y-18.678
X-1.414 Y-18.705
X-1.5 Y-19.219
X-1.505 Y-19.245
X-1.61 Y-19.755
X-1.615 Y-19.78
X-1.736 Y-20.287
X-1.742 Y-20.309
X-1.879 Y-20.814
X-1.885 Y-20.834
X-2.036 Y-21.335
X-2.042 Y-21.353
X-2.206 Y-21.85
X-2.212 Y-21.866
X-2.387 Y-22.359
X-2.395 Y-22.379
X-2.772 Y-23.349
X-2.78 Y-23.369
X-3.179 Y-24.314
X-3.184 Y-24.326
X-3.588 Y-25.241
X-3.59 Y-25.245
X-3.789 Y-25.689
X-3.983 Y-26.122
X-4.05 Y-26.273
X-4.17 Y-26.543 Z-0.51 F1016
X-4.346 Y-26.949 Z-0.526
X-4.511 Y-27.341 Z-0.541
X-4.663 Y-27.716 Z-0.555
X-4.8 Y-28.074 Z-0.568
X-4.92 Y-28.415 Z-0.581
X-5.022 Y-28.735 Z-0.592
X-5.106 Y-29.034 Z-0.603
X-5.17 Y-29.312 Z-0.613
X-5.215 Y-29.566 Z-0.622
X-5.241 Y-29.795 Z-0.63
X-5.25 Y-30.015 Z-0.638
Y-34.653 Z-0.8
Y-36.499 F600
X-5.247 Y-38.144
X-5.238 Y-39.771
X-5.222 Y-41.38
X-5.201 Y-42.972
X-5.173 Y-44.546
X-5.141 Y-46.102
X-5.103 Y-47.641
X-5.06 Y-49.161
X-5.014 Y-50.663
X-4.963 Y-52.146
X-4.909 Y-53.61
X-4.852 Y-55.055
X-4.792 Y-56.479
X-4.731 Y-57.882
X-4.669 Y-59.264
X-4.607 Y-60.623
X-4.544 Y-61.958
X-4.483 Y-63.269
X-4.423 Y-64.555
X-4.365 Y-65.813
Y-65.814
X-4.31 Y-67.044
Y-67.045
X-4.259 Y-68.245
Y-68.247
X-4.212 Y-69.415
Y-69.418
X-4.171 Y-70.553
Y-70.556
X-4.135 Y-71.657
Y-71.661
X-4.107 Y-72.726
Y-72.731
X-4.086 Y-73.757
Y-73.762
X-4.078 Y-74.26
Y-74.263
X-4.073 Y-74.752
Y-74.755
X-4.07 Y-75.233
Y-75.237
X-4.069 Y-75.704
Y-75.708
X-4.071 Y-76.165
Y-76.169
X-4.076 Y-76.615
Y-76.62
X-4.083 Y-77.054
Y-77.059
X-4.093 Y-77.482
Y-77.487
X-4.105 Y-77.898
X-4.106 Y-77.904
X-4.121 Y-78.288
Y-83.03
G2 X-4.601 Y-84.015 I-1.25 J0
G1 X-8.144 Y-86.783
G2 X-9.899 Y-86.568 I-0.77 J0.985
G1 X-13.308 Y-82.204
X-13.358 Y-82.132
X-13.418 Y-82.033
X-13.459 Y-81.956
X-13.491 Y-81.875
X-13.527 Y-81.764
X-13.551 Y-81.67
X-13.608 Y-81.362
X-13.611 Y-81.343
X-13.663 Y-81.016
X-13.666 Y-81
X-13.713 Y-80.655
X-13.715 Y-80.64
X-13.758 Y-80.278
X-13.759 Y-80.265
X-13.797 Y-79.884
X-13.798 Y-79.873
X-13.831 Y-79.475
X-13.832 Y-79.465
X-13.861 Y-79.05
X-13.862 Y-79.041
X-13.886 Y-78.61
X-13.887 Y-78.601
X-13.907 Y-78.153
Y-78.146
X-13.924 Y-77.682
Y-77.676
X-13.937 Y-77.197
Y-77.19
X-13.945 Y-76.696
X-13.946 Y-76.69
X-13.951 Y-76.181
Y-76.176
X-13.952 Y-75.652
Y-75.647
X-13.951 Y-75.109
Y-75.104
X-13.946 Y-74.552
Y-74.548
X-13.938 Y-73.983
Y-73.979
X-13.928 Y-73.4
Y-73.397
X-13.914 Y-72.805
Y-72.802
X-13.898 Y-72.198
Y-72.195
X-13.88 Y-71.578
Y-71.576
X-13.859 Y-70.947
Y-70.945
X-13.836 Y-70.305
Y-70.303
X-13.812 Y-69.651
Y-69.649
X-13.785 Y-68.986
Y-68.985
X-13.757 Y-68.311
Y-68.31
X-13.727 Y-67.625
Y-67.624
X-13.696 Y-66.929
Y-66.928
X-13.631 Y-65.508
X-13.63 Y-65.507
X-13.561 Y-64.049
X-13.489 Y-62.554
X-13.416 Y-61.025
X-13.342 Y-59.462
X-13.269 Y-57.868
X-13.198 Y-56.242
X-13.129 Y-54.587
X-13.064 Y-52.903
X-13.003 Y-51.19
X-12.947 Y-49.449
X-12.897 Y-47.68
X-12.853 Y-45.884
X-12.817 Y-44.061
X-12.788 Y-42.212
X-12.767 Y-40.335
X-12.754 Y-38.431
X-12.75 Y-36.499
Y-30.015
X-12.759 Y-29.795
X-12.785 Y-29.566
X-12.83 Y-29.312
X-12.894 Y-29.034
X-12.978 Y-28.735
X-13.08 Y-28.415
X-13.2 Y-28.074
X-13.337 Y-27.716
X-13.489 Y-27.341
X-13.654 Y-26.949
X-13.83 Y-26.543
X-14.017 Y-26.122
X-14.211 Y-25.689
X-14.41 Y-25.245
X-14.412 Y-25.241
X-14.816 Y-24.326
X-14.821 Y-24.314
X-15.22 Y-23.369
X-15.228 Y-23.349
X-15.605 Y-22.379
X-15.613 Y-22.359
X-15.788 Y-21.866
X-15.794 Y-21.85
X-15.958 Y-21.353
X-15.964 Y-21.335
X-16.115 Y-20.834
X-16.121 Y-20.814
X-16.258 Y-20.309
X-16.264 Y-20.287
X-16.385 Y-19.779
X-16.39 Y-19.755
X-16.495 Y-19.245
X-16.5 Y-19.219
X-16.586 Y-18.705
X-16.59 Y-18.678
X-16.657 Y-18.16
X-16.66 Y-18.132
X-16.709 Y-17.61
X-16.711 Y-17.582
X-16.74 Y-17.055
X-16.741 Y-17.027
X-16.75 Y-16.494
Y-16.467
X-16.739 Y-15.928
X-16.738 Y-15.902
X-16.709 Y-15.356
X-16.707 Y-15.331
X-16.658 Y-14.779
X-16.655 Y-14.755
X-16.588 Y-14.197
X-16.585 Y-14.174
X-16.499 Y-13.609
X-16.496 Y-13.588
X-16.393 Y-13.017
X-16.389 Y-12.998
X-16.269 Y-12.421
X-16.265 Y-12.403
X-16.129 Y-11.822
X-16.125 Y-11.805
X-15.974 Y-11.221
X-15.969 Y-11.205
X-15.804 Y-10.619
X-15.799 Y-10.603
X-15.619 Y-10.018
X-15.615 Y-10.003
X-15.422 Y-9.42
X-15.417 Y-9.405
X-15.212 Y-8.827
X-15.207 Y-8.812
X-14.99 Y-8.24
X-14.984 Y-8.225
X-14.757 Y-7.662
X-14.751 Y-7.647
X-14.514 Y-7.095
X-14.507 Y-7.079
X-14.261 Y-6.542
X-14.253 Y-6.525
X-13.999 Y-6.004
X-13.99 Y-5.986
X-13.728 Y-5.483
X-13.718 Y-5.464
X-13.45 Y-4.983
X-13.438 Y-4.962
X-13.164 Y-4.504
X-13.15 Y-4.482
X-12.871 Y-4.05
X-12.855 Y-4.026
X-12.571 Y-3.623
X-12.551 Y-3.596
X-12.264 Y-3.223
X-12.24 Y-3.194
X-11.949 Y-2.853
X-11.92 Y-2.821
X-11.627 Y-2.516
X-11.591 Y-2.481
X-11.296 Y-2.212
X-11.251 Y-2.174
X-10.955 Y-1.943
X-10.914 Y-1.914
X-10.766 Y-1.813
X-10.735 Y-1.794
X-10.586 Y-1.703
X-10.552 Y-1.684
X-10.402 Y-1.603
X-10.365 Y-1.585
X-10.215 Y-1.515
X-10.174 Y-1.497
X-10.025 Y-1.438
X-9.98 Y-1.422
X-9.831 Y-1.373
X-9.783 Y-1.36
X-9.633 Y-1.322
X-9.583 Y-1.311
X-9.433 Y-1.284
X-9.381 Y-1.276
X-9.231 Y-1.26
X-9.177 Y-1.256
X-9.027 Y-1.25
X-8.973
X-8.823 Y-1.256
X-8.769 Y-1.26
X-8.619 Y-1.276
X-8.567 Y-1.284
X-8.417 Y-1.311
X-8.367 Y-1.322
X-8.217 Y-1.36
X-8.169 Y-1.373
X-8.02 Y-1.422
X-7.975 Y-1.438
X-7.826 Y-1.497
X-7.785 Y-1.515
X-7.635 Y-1.585
X-7.598 Y-1.603
X-7.448 Y-1.684
X-7.414 Y-1.703
X-7.265 Y-1.794
X-7.234 Y-1.813
X-7.086 Y-1.914
X-7.045 Y-1.943
X-6.749 Y-2.174
X-6.704 Y-2.212
X-6.409 Y-2.481
X-6.373 Y-2.516
X-6.08 Y-2.821
X-6.051 Y-2.853
X-5.76 Y-3.194
X-5.736 Y-3.223
X-5.449 Y-3.596
X-5.429 Y-3.623
X-5.145 Y-4.026
X-5.129 Y-4.05
X-4.85 Y-4.482
X-4.836 Y-4.504
X-4.562 Y-4.962
X-4.55 Y-4.983
X-4.282 Y-5.464
X-4.272 Y-5.483
X-4.01 Y-5.986
X-4.001 Y-6.003
X-3.747 Y-6.525
X-3.739 Y-6.542
X-3.493 Y-7.079
X-3.486 Y-7.095
X-3.249 Y-7.647
X-3.243 Y-7.662
X-3.016 Y-8.225
X-3.01 Y-8.24
X-2.793 Y-8.812
X-2.788 Y-8.827
X-2.583 Y-9.405
X-2.578 Y-9.42
X-2.385 Y-10.003
X-2.38 Y-10.018
X-2.201 Y-10.604
X-2.196 Y-10.619
X-2.031 Y-11.205
X-2.026 Y-11.221
X-1.875 Y-11.805
X-1.871 Y-11.822
X-1.735 Y-12.403
X-1.731 Y-12.421
X-1.611 Y-12.998
X-1.607 Y-13.017
X-1.504 Y-13.588
X-1.501 Y-13.609
X-1.415 Y-14.174
X-1.412 Y-14.197
X-1.345 Y-14.755
X-1.342 Y-14.779
X-1.293 Y-15.331
X-1.291 Y-15.356
X-1.262 Y-15.902
X-1.261 Y-15.928
X-1.25 Y-16.467
Y-16.494
X-1.259 Y-17.027
X-1.26 Y-17.055
X-1.289 Y-17.582
X-1.291 Y-17.61
X-1.339 Y-18.132
X-1.343 Y-18.16
X-1.41 Y-18.678
X-1.414 Y-18.705
X-1.5 Y-19.219
X-1.505 Y-19.245
X-1.61 Y-19.755
X-1.615 Y-19.78
X-1.736 Y-20.287
X-1.742 Y-20.309
X-1.879 Y-20.814
X-1.885 Y-20.834
X-2.036 Y-21.335
X-2.042 Y-21.353
X-2.206 Y-21.85
X-2.212 Y-21.866
X-2.387 Y-22.359
X-2.395 Y-22.379
X-2.772 Y-23.349
X-2.78 Y-23.369
X-3.179 Y-24.314
X-3.184 Y-24.326
X-3.588 Y-25.241
X-3.59 Y-25.245
X-3.789 Y-25.689
X-3.983 Y-26.122
X-4.17 Y-26.543
X-4.346 Y-26.949
X-4.511 Y-27.341
X-4.663 Y-27.716
X-4.8 Y-28.074
X-4.92 Y-28.415
X-5.022 Y-28.735
X-5.106 Y-29.034
X-5.17 Y-29.312
X-5.215 Y-29.566
X-5.241 Y-29.795
X-5.25 Y-30.015
Y-34.653
Y-36.499 Z-0.864 F1016
X-5.247 Y-38.144 Z-0.922
X-5.238 Y-39.771 Z-0.979
X-5.222 Y-41.38 Z-1.035
X-5.201 Y-42.972 Z-1.091
X-5.196 Y-43.243 Z-1.1
X-5.173 Y-44.546 F600
X-5.141 Y-46.102
X-5.103 Y-47.641
X-5.06 Y-49.161
X-5.014 Y-50.663
X-4.963 Y-52.146
X-4.909 Y-53.61
X-4.852 Y-55.055
X-4.792 Y-56.479
X-4.731 Y-57.882
X-4.669 Y-59.264
X-4.607 Y-60.623
X-4.544 Y-61.958
X-4.483 Y-63.269
X-4.423 Y-64.555
X-4.365 Y-65.813
Y-65.814
X-4.31 Y-67.044
Y-67.045
X-4.259 Y-68.245
Y-68.247
X-4.212 Y-69.415
Y-69.418
X-4.171 Y-70.553
Y-70.556
X-4.135 Y-71.657
Y-71.661
X-4.107 Y-72.726
Y-72.731
X-4.086 Y-73.757
Y-73.762
X-4.078 Y-74.26
Y-74.263
X-4.073 Y-74.752
Y-74.755
X-4.07 Y-75.233
Y-75.237
X-4.069 Y-75.704
Y-75.708
X-4.071 Y-76.165
Y-76.169
X-4.076 Y-76.615
Y-76.62
X-4.083 Y-77.054
Y-77.059
X-4.093 Y-77.482
Y-77.487
X-4.105 Y-77.898
X-4.106 Y-77.904
X-4.121 Y-78.288
Y-83.03
G2 X-4.601 Y-84.015 I-1.25 J0
G1 X-8.144 Y-86.783
G2 X-9.899 Y-86.568 I-0.77 J0.985
G1 X-13.308 Y-82.204
X-13.358 Y-82.132
X-13.418 Y-82.033
X-13.459 Y-81.956
X-13.491 Y-81.875
X-13.527 Y-81.764
X-13.551 Y-81.67
X-13.608 Y-81.362
X-13.611 Y-81.343
X-13.663 Y-81.016
X-13.666 Y-81
X-13.713 Y-80.655
X-13.715 Y-80.64
X-13.758 Y-80.278
X-13.759 Y-80.265
X-13.797 Y-79.884
X-13.798 Y-79.873
X-13.831 Y-79.475
X-13.832 Y-79.465
X-13.861 Y-79.05
X-13.862 Y-79.041
X-13.886 Y-78.61
X-13.887 Y-78.601
X-13.907 Y-78.153
Y-78.146
X-13.924 Y-77.682
Y-77.676
X-13.937 Y-77.197
Y-77.19
X-13.945 Y-76.696
X-13.946 Y-76.69
X-13.951 Y-76.181
Y-76.176
X-13.952 Y-75.652
Y-75.647
X-13.951 Y-75.109
Y-75.104
X-13.946 Y-74.552
Y-74.548
X-13.938 Y-73.983
Y-73.979
X-13.928 Y-73.4
Y-73.397
X-13.914 Y-72.805
Y-72.802
X-13.898 Y-72.198
Y-72.195
X-13.88 Y-71.578
Y-71.576
X-13.859 Y-70.947
Y-70.945
X-13.836 Y-70.305
Y-70.303
X-13.812 Y-69.651
Y-69.649
X-13.785 Y-68.986
Y-68.985
X-13.757 Y-68.311
Y-68.31
X-13.727 Y-67.625
Y-67.624
X-13.696 Y-66.929
Y-66.928
X-13.631 Y-65.508
X-13.63 Y-65.507
X-13.561 Y-64.049
X-13.489 Y-62.554
X-13.416 Y-61.025
X-13.342 Y-59.462
X-13.269 Y-57.868
X-13.198 Y-56.242
X-13.129 Y-54.587
X-13.064 Y-52.903
X-13.003 Y-51.19
X-12.947 Y-49.449
X-12.897 Y-47.68
X-12.853 Y-45.884
X-12.817 Y-44.061
X-12.788 Y-42.212
X-12.767 Y-40.335
X-12.754 Y-38.431
X-12.75 Y-36.499
Y-30.015
X-12.759 Y-29.795
X-12.785 Y-29.566
X-12.83 Y-29.312
X-12.894 Y-29.034
X-12.978 Y-28.735
X-13.08 Y-28.415
X-13.2 Y-28.074
X-13.337 Y-27.716
X-13.489 Y-27.341
X-13.654 Y-26.949
X-13.83 Y-26.543
X-14.017 Y-26.122
X-14.211 Y-25.689
X-14.41 Y-25.245
X-14.412 Y-25.241
X-14.816 Y-24.326
X-14.821 Y-24.314
X-15.22 Y-23.369
X-15.228 Y-23.349
X-15.605 Y-22.379
X-15.613 Y-22.359
X-15.788 Y-21.866
X-15.794 Y-21.85
X-15.958 Y-21.353
X-15.964 Y-21.335
X-16.115 Y-20.834
X-16.121 Y-20.814
X-16.258 Y-20.309
X-16.264 Y-20.287
X-16.385 Y-19.779
X-16.39 Y-19.755
X-16.495 Y-19.245
X-16.5 Y-19.219
X-16.586 Y-18.705
X-16.59 Y-18.678
X-16.657 Y-18.16
X-16.66 Y-18.132
X-16.709 Y-17.61
X-16.711 Y-17.582
X-16.74 Y-17.055
X-16.741 Y-17.027
X-16.75 Y-16.494
Y-16.467
X-16.739 Y-15.928
X-16.738 Y-15.902
X-16.709 Y-15.356
X-16.707 Y-15.331
X-16.658 Y-14.779
X-16.655 Y-14.755
X-16.588 Y-14.197
X-16.585 Y-14.174
X-16.499 Y-13.609
X-16.496 Y-13.588
X-16.393 Y-13.017
X-16.389 Y-12.998
X-16.269 Y-12.421
X-16.265 Y-12.403
X-16.129 Y-11.822
X-16.125 Y-11.805
X-15.974 Y-11.221
X-15.969 Y-11.205
X-15.804 Y-10.619
X-15.799 Y-10.603
X-15.619 Y-10.018
X-15.615 Y-10.003
X-15.422 Y-9.42
X-15.417 Y-9.405
X-15.212 Y-8.827
X-15.207 Y-8.812
X-14.99 Y-8.24
X-14.984 Y-8.225
X-14.757 Y-7.662
X-14.751 Y-7.647
X-14.514 Y-7.095
X-14.507 Y-7.079
X-14.261 Y-6.542
X-14.253 Y-6.525
X-13.999 Y-6.004
X-13.99 Y-5.986
X-13.728 Y-5.483
X-13.718 Y-5.464
X-13.45 Y-4.983
X-13.438 Y-4.962
X-13.164 Y-4.504
X-13.15 Y-4.482
X-12.871 Y-4.05
X-12.855 Y-4.026
X-12.571 Y-3.623
X-12.551 Y-3.596
X-12.264 Y-3.223
X-12.24 Y-3.194
X-11.949 Y-2.853
X-11.92 Y-2.821
X-11.627 Y-2.516
X-11.591 Y-2.481
X-11.296 Y-2.212
X-11.251 Y-2.174
X-10.955 Y-1.943
X-10.914 Y-1.914
X-10.766 Y-1.813
X-10.735 Y-1.794
X-10.586 Y-1.703
X-10.552 Y-1.684
X-10.402 Y-1.603
X-10.365 Y-1.585
X-10.215 Y-1.515
X-10.174 Y-1.497
X-10.025 Y-1.438
X-9.98 Y-1.422
X-9.831 Y-1.373
X-9.783 Y-1.36
X-9.633 Y-1.322
X-9.583 Y-1.311
X-9.433 Y-1.284
X-9.381 Y-1.276
X-9.231 Y-1.26
X-9.177 Y-1.256
X-9.027 Y-1.25
X-8.973
X-8.823 Y-1.256
X-8.769 Y-1.26
X-8.619 Y-1.276
X-8.567 Y-1.284
X-8.417 Y-1.311
X-8.367 Y-1.322
X-8.217 Y-1.36
X-8.169 Y-1.373
X-8.02 Y-1.422
X-7.975 Y-1.438
X-7.826 Y-1.497
X-7.785 Y-1.515
X-7.635 Y-1.585
X-7.598 Y-1.603
X-7.448 Y-1.684
X-7.414 Y-1.703
X-7.265 Y-1.794
X-7.234 Y-1.813
X-7.086 Y-1.914
X-7.045 Y-1.943
X-6.749 Y-2.174
X-6.704 Y-2.212
X-6.409 Y-2.481
X-6.373 Y-2.516
X-6.08 Y-2.821
X-6.051 Y-2.853
X-5.76 Y-3.194
X-5.736 Y-3.223
X-5.449 Y-3.596
X-5.429 Y-3.623
X-5.145 Y-4.026
X-5.129 Y-4.05
X-4.85 Y-4.482
X-4.836 Y-4.504
X-4.562 Y-4.962
X-4.55 Y-4.983
X-4.282 Y-5.464
X-4.272 Y-5.483
X-4.01 Y-5.986
X-4.001 Y-6.003
X-3.747 Y-6.525
X-3.739 Y-6.542
X-3.493 Y-7.079
X-3.486 Y-7.095
X-3.249 Y-7.647
X-3.243 Y-7.662
X-3.016 Y-8.225
X-3.01 Y-8.24
X-2.793 Y-8.812
X-2.788 Y-8.827
X-2.583 Y-9.405
X-2.578 Y-9.42
X-2.385 Y-10.003
X-2.38 Y-10.018
X-2.201 Y-10.604
X-2.196 Y-10.619
X-2.031 Y-11.205
X-2.026 Y-11.221
X-1.875 Y-11.805
X-1.871 Y-11.822
X-1.735 Y-12.403
X-1.731 Y-12.421
X-1.611 Y-12.998
X-1.607 Y-13.017
X-1.504 Y-13.588
X-1.501 Y-13.609
X-1.415 Y-14.174
X-1.412 Y-14.197
X-1.345 Y-14.755
X-1.342 Y-14.779
X-1.293 Y-15.331
X-1.291 Y-15.356
X-1.262 Y-15.902
X-1.261 Y-15.928
X-1.25 Y-16.467
Y-16.494
X-1.259 Y-17.027
X-1.26 Y-17.055
X-1.289 Y-17.582
X-1.291 Y-17.61
X-1.339 Y-18.132
X-1.343 Y-18.16
X-1.41 Y-18.678
X-1.414 Y-18.705
X-1.5 Y-19.219
X-1.505 Y-19.245
X-1.61 Y-19.755
X-1.615 Y-19.78
X-1.736 Y-20.287
X-1.742 Y-20.309
X-1.879 Y-20.814
X-1.885 Y-20.834
X-2.036 Y-21.335
X-2.042 Y-21.353
X-2.206 Y-21.85
X-2.212 Y-21.866
X-2.387 Y-22.359
X-2.395 Y-22.379
X-2.772 Y-23.349
X-2.78 Y-23.369
X-3.179 Y-24.314
X-3.184 Y-24.326
X-3.588 Y-25.241
X-3.59 Y-25.245
X-3.789 Y-25.689
X-3.983 Y-26.122
X-4.17 Y-26.543
X-4.346 Y-26.949
X-4.511 Y-27.341
X-4.663 Y-27.716
X-4.8 Y-28.074
X-4.92 Y-28.415
X-5.022 Y-28.735
X-5.106 Y-29.034
X-5.17 Y-29.312
X-5.215 Y-29.566
X-5.241 Y-29.795
X-5.25 Y-30.015
Y-34.653
Y-36.499
X-5.247 Y-38.144
X-5.238 Y-39.771
X-5.222 Y-41.38
X-5.201 Y-42.972
X-5.196 Y-43.243
X-5.173 Y-44.546 Z-1.145 F1016
X-5.141 Y-46.102 Z-1.2
X-5.103 Y-47.641 Z-1.254
X-5.06 Y-49.161 Z-1.307
X-5.014 Y-50.663 Z-1.359
X-4.974 Y-51.831 Z-1.4
X-4.963 Y-52.146 F600
X-4.909 Y-53.61
X-4.852 Y-55.055
X-4.792 Y-56.479
X-4.731 Y-57.882
X-4.669 Y-59.264
X-4.607 Y-60.623
X-4.544 Y-61.958
X-4.483 Y-63.269
X-4.423 Y-64.555
X-4.365 Y-65.813
Y-65.814
X-4.31 Y-67.044
Y-67.045
X-4.259 Y-68.245
Y-68.247
X-4.212 Y-69.415
Y-69.418
X-4.171 Y-70.553
Y-70.556
X-4.135 Y-71.657
Y-71.661
X-4.107 Y-72.726
Y-72.731
X-4.086 Y-73.757
Y-73.762
X-4.078 Y-74.26
Y-74.263
X-4.073 Y-74.752
Y-74.755
X-4.07 Y-75.233
Y-75.237
X-4.069 Y-75.704
Y-75.708
X-4.071 Y-76.165
Y-76.169
X-4.076 Y-76.615
Y-76.62
X-4.083 Y-77.054
Y-77.059
X-4.093 Y-77.482
Y-77.487
X-4.105 Y-77.898
X-4.106 Y-77.904
X-4.121 Y-78.288
Y-83.03
G2 X-4.601 Y-84.015 I-1.25 J0
G1 X-8.144 Y-86.783
G2 X-9.899 Y-86.568 I-0.77 J0.985
G1 X-13.308 Y-82.204
X-13.358 Y-82.132
X-13.418 Y-82.033
X-13.459 Y-81.956
X-13.491 Y-81.875
X-13.527 Y-81.764
X-13.551 Y-81.67
X-13.608 Y-81.362
X-13.611 Y-81.343
X-13.663 Y-81.016
X-13.666 Y-81
X-13.713 Y-80.655
X-13.715 Y-80.64
X-13.758 Y-80.278
X-13.759 Y-80.265
X-13.797 Y-79.884
X-13.798 Y-79.873
X-13.831 Y-79.475
X-13.832 Y-79.465
X-13.861 Y-79.05
X-13.862 Y-79.041
X-13.886 Y-78.61
X-13.887 Y-78.601
X-13.907 Y-78.153
Y-78.146
X-13.924 Y-77.682
Y-77.676
X-13.937 Y-77.197
Y-77.19
X-13.945 Y-76.696
X-13.946 Y-76.69
X-13.951 Y-76.181
Y-76.176
X-13.952 Y-75.652
Y-75.647
X-13.951 Y-75.109
Y-75.104
X-13.946 Y-74.552
Y-74.548
X-13.938 Y-73.983
Y-73.979
X-13.928 Y-73.4
Y-73.397
X-13.914 Y-72.805
Y-72.802
X-13.898 Y-72.198
Y-72.195
X-13.88 Y-71.578
Y-71.576
X-13.859 Y-70.947
Y-70.945
X-13.836 Y-70.305
Y-70.303
X-13.812 Y-69.651
Y-69.649
X-13.785 Y-68.986
Y-68.985
X-13.757 Y-68.311
Y-68.31
X-13.727 Y-67.625
Y-67.624
X-13.696 Y-66.929
Y-66.928
X-13.631 Y-65.508
X-13.63 Y-65.507
X-13.561 Y-64.049
X-13.489 Y-62.554
X-13.416 Y-61.025
X-13.342 Y-59.462
X-13.269 Y-57.868
X-13.198 Y-56.242
X-13.129 Y-54.587
X-13.064 Y-52.903
X-13.003 Y-51.19
X-12.947 Y-49.449
X-12.897 Y-47.68
X-12.853 Y-45.884
X-12.817 Y-44.061
X-12.788 Y-42.212
X-12.767 Y-40.335
X-12.754 Y-38.431
X-12.75 Y-36.499
Y-30.015
X-12.759 Y-29.795
X-12.785 Y-29.566
X-12.83 Y-29.312
X-12.894 Y-29.034
X-12.978 Y-28.735
X-13.08 Y-28.415
X-13.2 Y-28.074
X-13.337 Y-27.716
X-13.489 Y-27.341
X-13.654 Y-26.949
X-13.83 Y-26.543
X-14.017 Y-26.122
X-14.211 Y-25.689
X-14.41 Y-25.245
X-14.412 Y-25.241
X-14.816 Y-24.326
X-14.821 Y-24.314
X-15.22 Y-23.369
X-15.228 Y-23.349
X-15.605 Y-22.379
X-15.613 Y-22.359
X-15.788 Y-21.866
X-15.794 Y-21.85
X-15.958 Y-21.353
X-15.964 Y-21.335
X-16.115 Y-20.834
X-16.121 Y-20.814
X-16.258 Y-20.309
X-16.264 Y-20.287
X-16.385 Y-19.779
X-16.39 Y-19.755
X-16.495 Y-19.245
X-16.5 Y-19.219
X-16.586 Y-18.705
X-16.59 Y-18.678
X-16.657 Y-18.16
X-16.66 Y-18.132
X-16.709 Y-17.61
X-16.711 Y-17.582
X-16.74 Y-17.055
X-16.741 Y-17.027
X-16.75 Y-16.494
Y-16.467
X-16.739 Y-15.928
X-16.738 Y-15.902
X-16.709 Y-15.356
X-16.707 Y-15.331
X-16.658 Y-14.779
X-16.655 Y-14.755
X-16.588 Y-14.197
X-16.585 Y-14.174
X-16.499 Y-13.609
X-16.496 Y-13.588
X-16.393 Y-13.017
X-16.389 Y-12.998
X-16.269 Y-12.421
X-16.265 Y-12.403
X-16.129 Y-11.822
X-16.125 Y-11.805
X-15.974 Y-11.221
X-15.969 Y-11.205
X-15.804 Y-10.619
X-15.799 Y-10.603
X-15.619 Y-10.018
X-15.615 Y-10.003
X-15.422 Y-9.42
X-15.417 Y-9.405
X-15.212 Y-8.827
X-15.207 Y-8.812
X-14.99 Y-8.24
X-14.984 Y-8.225
X-14.757 Y-7.662
X-14.751 Y-7.647
X-14.514 Y-7.095
X-14.507 Y-7.079
X-14.261 Y-6.542
X-14.253 Y-6.525
X-13.999 Y-6.004
X-13.99 Y-5.986
X-13.728 Y-5.483
X-13.718 Y-5.464
X-13.45 Y-4.983
X-13.438 Y-4.962
X-13.164 Y-4.504
X-13.15 Y-4.482
X-12.871 Y-4.05
X-12.855 Y-4.026
X-12.571 Y-3.623
X-12.551 Y-3.596
X-12.264 Y-3.223
X-12.24 Y-3.194
X-11.949 Y-2.853
X-11.92 Y-2.821
X-11.627 Y-2.516
X-11.591 Y-2.481
X-11.296 Y-2.212
X-11.251 Y-2.174
X-10.955 Y-1.943
X-10.914 Y-1.914
X-10.766 Y-1.813
X-10.735 Y-1.794
X-10.586 Y-1.703
X-10.552 Y-1.684
X-10.402 Y-1.603
X-10.365 Y-1.585
X-10.215 Y-1.515
X-10.174 Y-1.497
X-10.025 Y-1.438
X-9.98 Y-1.422
X-9.831 Y-1.373
X-9.783 Y-1.36
X-9.633 Y-1.322
X-9.583 Y-1.311
X-9.433 Y-1.284
X-9.381 Y-1.276
X-9.231 Y-1.26
X-9.177 Y-1.256
X-9.027 Y-1.25
X-8.973
X-8.823 Y-1.256
X-8.769 Y-1.26
X-8.619 Y-1.276
X-8.567 Y-1.284
X-8.417 Y-1.311
X-8.367 Y-1.322
X-8.217 Y-1.36
X-8.169 Y-1.373
X-8.02 Y-1.422
X-7.975 Y-1.438
X-7.826 Y-1.497
X-7.785 Y-1.515
X-7.635 Y-1.585
X-7.598 Y-1.603
X-7.448 Y-1.684
X-7.414 Y-1.703
X-7.265 Y-1.794
X-7.234 Y-1.813
X-7.086 Y-1.914
X-7.045 Y-1.943
X-6.749 Y-2.174
X-6.704 Y-2.212
X-6.409 Y-2.481
X-6.373 Y-2.516
X-6.08 Y-2.821
X-6.051 Y-2.853
X-5.76 Y-3.194
X-5.736 Y-3.223
X-5.449 Y-3.596
X-5.429 Y-3.623
X-5.145 Y-4.026
X-5.129 Y-4.05
X-4.85 Y-4.482
X-4.836 Y-4.504
X-4.562 Y-4.962
X-4.55 Y-4.983
X-4.282 Y-5.464
X-4.272 Y-5.483
X-4.01 Y-5.986
X-4.001 Y-6.003
X-3.747 Y-6.525
X-3.739 Y-6.542
X-3.493 Y-7.079
X-3.486 Y-7.095
X-3.249 Y-7.647
X-3.243 Y-7.662
X-3.016 Y-8.225
X-3.01 Y-8.24
X-2.793 Y-8.812
X-2.788 Y-8.827
X-2.583 Y-9.405
X-2.578 Y-9.42
X-2.385 Y-10.003
X-2.38 Y-10.018
X-2.201 Y-10.604
X-2.196 Y-10.619
X-2.031 Y-11.205
X-2.026 Y-11.221
X-1.875 Y-11.805
X-1.871 Y-11.822
X-1.735 Y-12.403
X-1.731 Y-12.421
X-1.611 Y-12.998
X-1.607 Y-13.017
X-1.504 Y-13.588
X-1.501 Y-13.609
X-1.415 Y-14.174
X-1.412 Y-14.197
X-1.345 Y-14.755
X-1.342 Y-14.779
X-1.293 Y-15.331
X-1.291 Y-15.356
X-1.262 Y-15.902
X-1.261 Y-15.928
X-1.25 Y-16.467
Y-16.494
X-1.259 Y-17.027
X-1.26 Y-17.055
X-1.289 Y-17.582
X-1.291 Y-17.61
X-1.339 Y-18.132
X-1.343 Y-18.16
X-1.41 Y-18.678
X-1.414 Y-18.705
X-1.5 Y-19.219
X-1.505 Y-19.245
X-1.61 Y-19.755
X-1.615 Y-19.78
X-1.736 Y-20.287
X-1.742 Y-20.309
X-1.879 Y-20.814
X-1.885 Y-20.834
X-2.036 Y-21.335
X-2.042 Y-21.353
X-2.206 Y-21.85
X-2.212 Y-21.866
X-2.387 Y-22.359
X-2.395 Y-22.379
X-2.772 Y-23.349
X-2.78 Y-23.369
X-3.179 Y-24.314
X-3.184 Y-24.326
X-3.588 Y-25.241
X-3.59 Y-25.245
X-3.789 Y-25.689
X-3.983 Y-26.122
X-4.17 Y-26.543
X-4.346 Y-26.949
X-4.511 Y-27.341
X-4.663 Y-27.716
X-4.8 Y-28.074
X-4.92 Y-28.415
X-5.022 Y-28.735
X-5.106 Y-29.034
X-5.17 Y-29.312
X-5.215 Y-29.566
X-5.241 Y-29.795
X-5.25 Y-30.015
Y-36.499
X-5.247 Y-38.144
X-5.238 Y-39.771
X-5.222 Y-41.38
X-5.201 Y-42.972
X-5.173 Y-44.546
X-5.141 Y-46.102
X-5.103 Y-47.641
X-5.06 Y-49.161
X-5.014 Y-50.663
X-4.974 Y-51.831
X-4.963 Y-52.146 Z-1.411 F1016
X-4.909 Y-53.61 Z-1.462
X-4.852 Y-55.055 Z-1.513
X-4.792 Y-56.479 Z-1.562
X-4.731 Y-57.882 Z-1.611
X-4.669 Y-59.264 Z-1.66
X-4.616 Y-60.415 Z-1.7
X-4.607 Y-60.623 F600
X-4.544 Y-61.958
X-4.483 Y-63.269
X-4.423 Y-64.555
X-4.365 Y-65.813
Y-65.814
X-4.31 Y-67.044
Y-67.045
X-4.259 Y-68.245
Y-68.247
X-4.212 Y-69.415
Y-69.418
X-4.171 Y-70.553
Y-70.556
X-4.135 Y-71.657
Y-71.661
X-4.107 Y-72.726
Y-72.731
X-4.086 Y-73.757
Y-73.762
X-4.078 Y-74.26
Y-74.263
X-4.073 Y-74.752
Y-74.755
X-4.07 Y-75.233
Y-75.237
X-4.069 Y-75.704
Y-75.708
X-4.071 Y-76.165
Y-76.169
X-4.076 Y-76.615
Y-76.62
X-4.083 Y-77.054
Y-77.059
X-4.093 Y-77.482
Y-77.487
X-4.105 Y-77.898
X-4.106 Y-77.904
X-4.121 Y-78.288
Y-83.03
G2 X-4.601 Y-84.015 I-1.25 J0
G1 X-8.144 Y-86.783
G2 X-9.899 Y-86.568 I-0.77 J0.985
G1 X-13.308 Y-82.204
X-13.358 Y-82.132
X-13.418 Y-82.033
X-13.459 Y-81.956
X-13.491 Y-81.875
X-13.527 Y-81.764
X-13.551 Y-81.67
X-13.608 Y-81.362
X-13.611 Y-81.343
X-13.663 Y-81.016
X-13.666 Y-81
X-13.713 Y-80.655
X-13.715 Y-80.64
X-13.758 Y-80.278
X-13.759 Y-80.265
X-13.797 Y-79.884
X-13.798 Y-79.873
X-13.831 Y-79.475
X-13.832 Y-79.465
X-13.861 Y-79.05
X-13.862 Y-79.041
X-13.886 Y-78.61
X-13.887 Y-78.601
X-13.907 Y-78.153
Y-78.146
X-13.924 Y-77.682
Y-77.676
X-13.937 Y-77.197
Y-77.19
X-13.945 Y-76.696
X-13.946 Y-76.69
X-13.951 Y-76.181
Y-76.176
X-13.952 Y-75.652
Y-75.647
X-13.951 Y-75.109
Y-75.104
X-13.946 Y-74.552
Y-74.548
X-13.938 Y-73.983
Y-73.979
X-13.928 Y-73.4
Y-73.397
X-13.914 Y-72.805
Y-72.802
X-13.898 Y-72.198
Y-72.195
X-13.88 Y-71.578
Y-71.576
X-13.859 Y-70.947
Y-70.945
X-13.836 Y-70.305
Y-70.303
X-13.812 Y-69.651
Y-69.649
X-13.785 Y-68.986
Y-68.985
X-13.757 Y-68.311
Y-68.31
X-13.727 Y-67.625
Y-67.624
X-13.696 Y-66.929
Y-66.928
X-13.631 Y-65.508
X-13.63 Y-65.507
X-13.561 Y-64.049
X-13.489 Y-62.554
X-13.416 Y-61.025
X-13.342 Y-59.462
X-13.269 Y-57.868
X-13.198 Y-56.242
X-13.129 Y-54.587
X-13.064 Y-52.903
X-13.003 Y-51.19
X-12.947 Y-49.449
X-12.897 Y-47.68
X-12.853 Y-45.884
X-12.817 Y-44.061
X-12.788 Y-42.212
X-12.767 Y-40.335
X-12.754 Y-38.431
X-12.75 Y-36.499
Y-30.015
X-12.759 Y-29.795
X-12.785 Y-29.566
X-12.83 Y-29.312
X-12.894 Y-29.034
X-12.978 Y-28.735
X-13.08 Y-28.415
X-13.2 Y-28.074
X-13.337 Y-27.716
X-13.489 Y-27.341
X-13.654 Y-26.949
X-13.83 Y-26.543
X-14.017 Y-26.122
X-14.211 Y-25.689
X-14.41 Y-25.245
X-14.412 Y-25.241
X-14.816 Y-24.326
X-14.821 Y-24.314
X-15.22 Y-23.369
X-15.228 Y-23.349
X-15.605 Y-22.379
X-15.613 Y-22.359
X-15.788 Y-21.866
X-15.794 Y-21.85
X-15.958 Y-21.353
X-15.964 Y-21.335
X-16.115 Y-20.834
X-16.121 Y-20.814
X-16.258 Y-20.309
X-16.264 Y-20.287
X-16.385 Y-19.779
X-16.39 Y-19.755
X-16.495 Y-19.245
X-16.5 Y-19.219
X-16.586 Y-18.705
X-16.59 Y-18.678
X-16.657 Y-18.16
X-16.66 Y-18.132
X-16.709 Y-17.61
X-16.711 Y-17.582
X-16.74 Y-17.055
X-16.741 Y-17.027
X-16.75 Y-16.494
Y-16.467
X-16.739 Y-15.928
X-16.738 Y-15.902
X-16.709 Y-15.356
X-16.707 Y-15.331
X-16.658 Y-14.779
X-16.655 Y-14.755
X-16.588 Y-14.197
X-16.585 Y-14.174
X-16.499 Y-13.609
X-16.496 Y-13.588
X-16.393 Y-13.017
X-16.389 Y-12.998
X-16.269 Y-12.421
X-16.265 Y-12.403
X-16.129 Y-11.822
X-16.125 Y-11.805
X-15.974 Y-11.221
X-15.969 Y-11.205
X-15.804 Y-10.619
X-15.799 Y-10.603
X-15.619 Y-10.018
X-15.615 Y-10.003
X-15.422 Y-9.42
X-15.417 Y-9.405
X-15.212 Y-8.827
X-15.207 Y-8.812
X-14.99 Y-8.24
X-14.984 Y-8.225
X-14.757 Y-7.662
X-14.751 Y-7.647
X-14.514 Y-7.095
X-14.507 Y-7.079
X-14.261 Y-6.542
X-14.253 Y-6.525
X-13.999 Y-6.004
X-13.99 Y-5.986
X-13.728 Y-5.483
X-13.718 Y-5.464
X-13.45 Y-4.983
X-13.438 Y-4.962
X-13.164 Y-4.504
X-13.15 Y-4.482
X-12.871 Y-4.05
X-12.855 Y-4.026
X-12.571 Y-3.623
X-12.551 Y-3.596
X-12.264 Y-3.223
X-12.24 Y-3.194
X-11.949 Y-2.853
X-11.92 Y-2.821
X-11.627 Y-2.516
X-11.591 Y-2.481
X-11.296 Y-2.212
X-11.251 Y-2.174
X-10.955 Y-1.943
X-10.914 Y-1.914
X-10.766 Y-1.813
X-10.735 Y-1.794
X-10.586 Y-1.703
X-10.552 Y-1.684
X-10.402 Y-1.603
X-10.365 Y-1.585
X-10.215 Y-1.515
X-10.174 Y-1.497
X-10.025 Y-1.438
X-9.98 Y-1.422
X-9.831 Y-1.373
X-9.783 Y-1.36
X-9.633 Y-1.322
X-9.583 Y-1.311
X-9.433 Y-1.284
X-9.381 Y-1.276
X-9.231 Y-1.26
X-9.177 Y-1.256
X-9.027 Y-1.25
X-8.973
X-8.823 Y-1.256
X-8.769 Y-1.26
X-8.619 Y-1.276
X-8.567 Y-1.284
X-8.417 Y-1.311
X-8.367 Y-1.322
X-8.217 Y-1.36
X-8.169 Y-1.373
X-8.02 Y-1.422
X-7.975 Y-1.438
X-7.826 Y-1.497
X-7.785 Y-1.515
X-7.635 Y-1.585
X-7.598 Y-1.603
X-7.448 Y-1.684
X-7.414 Y-1.703
X-7.265 Y-1.794
X-7.234 Y-1.813
X-7.086 Y-1.914
X-7.045 Y-1.943
X-6.749 Y-2.174
X-6.704 Y-2.212
X-6.409 Y-2.481
X-6.373 Y-2.516
X-6.08 Y-2.821
X-6.051 Y-2.853
X-5.76 Y-3.194
X-5.736 Y-3.223
X-5.449 Y-3.596
X-5.429 Y-3.623
X-5.145 Y-4.026
X-5.129 Y-4.05
X-4.85 Y-4.482
X-4.836 Y-4.504
X-4.562 Y-4.962
X-4.55 Y-4.983
X-4.282 Y-5.464
X-4.272 Y-5.483
X-4.01 Y-5.986
X-4.001 Y-6.003
X-3.747 Y-6.525
X-3.739 Y-6.542
X-3.493 Y-7.079
X-3.486 Y-7.095
X-3.249 Y-7.647
X-3.243 Y-7.662
X-3.016 Y-8.225
X-3.01 Y-8.24
X-2.793 Y-8.812
X-2.788 Y-8.827
X-2.583 Y-9.405
X-2.578 Y-9.42
X-2.385 Y-10.003
X-2.38 Y-10.018
X-2.201 Y-10.604
X-2.196 Y-10.619
X-2.031 Y-11.205
X-2.026 Y-11.221
X-1.875 Y-11.805
X-1.871 Y-11.822
X-1.735 Y-12.403
X-1.731 Y-12.421
X-1.611 Y-12.998
X-1.607 Y-13.017
X-1.504 Y-13.588
X-1.501 Y-13.609
X-1.415 Y-14.174
X-1.412 Y-14.197
X-1.345 Y-14.755
X-1.342 Y-14.779
X-1.293 Y-15.331
X-1.291 Y-15.356
X-1.262 Y-15.902
X-1.261 Y-15.928
X-1.25 Y-16.467
Y-16.494
X-1.259 Y-17.027
X-1.26 Y-17.055
X-1.289 Y-17.582
X-1.291 Y-17.61
X-1.339 Y-18.132
X-1.343 Y-18.16
X-1.41 Y-18.678
X-1.414 Y-18.705
X-1.5 Y-19.219
X-1.505 Y-19.245
X-1.61 Y-19.755
X-1.615 Y-19.78
X-1.736 Y-20.287
X-1.742 Y-20.309
X-1.879 Y-20.814
X-1.885 Y-20.834
X-2.036 Y-21.335
X-2.042 Y-21.353
X-2.206 Y-21.85
X-2.212 Y-21.866
X-2.387 Y-22.359
X-2.395 Y-22.379
X-2.772 Y-23.349
X-2.78 Y-23.369
X-3.179 Y-24.314
X-3.184 Y-24.326
X-3.588 Y-25.241
X-3.59 Y-25.245
X-3.789 Y-25.689
X-3.983 Y-26.122
X-4.17 Y-26.543
X-4.346 Y-26.949
X-4.511 Y-27.341
X-4.663 Y-27.716
X-4.8 Y-28.074
X-4.92 Y-28.415
X-5.022 Y-28.735
X-5.106 Y-29.034
X-5.17 Y-29.312
X-5.215 Y-29.566
X-5.241 Y-29.795
X-5.25 Y-30.015
Y-36.499
X-5.247 Y-38.144
X-5.238 Y-39.771
X-5.222 Y-41.38
X-5.201 Y-42.972
X-5.173 Y-44.546
X-5.141 Y-46.102
X-5.103 Y-47.641
X-5.06 Y-49.161
X-5.014 Y-50.663
X-4.974 Y-51.831
X-4.963 Y-52.146
X-4.909 Y-53.61
X-4.852 Y-55.055
X-4.792 Y-56.479
X-4.731 Y-57.882
X-4.669 Y-59.264
X-4.616 Y-60.415
X-4.607 Y-60.623 Z-1.707 F1016
X-4.544 Y-61.958 Z-1.754
X-4.483 Y-63.269 Z-1.8
X-4.423 Y-64.555 Z-1.845
X-4.365 Y-65.813 Z-1.889
Y-65.814
X-4.31 Y-67.044 Z-1.932
Y-67.045
X-4.259 Y-68.245 Z-1.974
Y-68.247
X-4.229 Y-68.997 Z-2
X-4.212 Y-69.415 F600
Y-69.418
X-4.171 Y-70.553
Y-70.556
X-4.135 Y-71.657
Y-71.661
X-4.107 Y-72.726
Y-72.731
X-4.086 Y-73.757
Y-73.762
X-4.078 Y-74.26
Y-74.263
X-4.073 Y-74.752
Y-74.755
X-4.07 Y-75.233
Y-75.237
X-4.069 Y-75.704
Y-75.708
X-4.071 Y-76.165
Y-76.169
X-4.076 Y-76.615
Y-76.62
X-4.083 Y-77.054
Y-77.059
X-4.093 Y-77.482
Y-77.487
X-4.105 Y-77.898
X-4.106 Y-77.904
X-4.121 Y-78.288
Y-83.03
G2 X-4.601 Y-84.015 I-1.25 J0
G1 X-8.144 Y-86.783
G2 X-9.899 Y-86.568 I-0.77 J0.985
G1 X-13.308 Y-82.204
X-13.358 Y-82.132
X-13.418 Y-82.033
X-13.459 Y-81.956
X-13.491 Y-81.875
X-13.527 Y-81.764
X-13.551 Y-81.67
X-13.608 Y-81.362
X-13.611 Y-81.343
X-13.663 Y-81.016
X-13.666 Y-81
X-13.713 Y-80.655
X-13.715 Y-80.64
X-13.758 Y-80.278
X-13.759 Y-80.265
X-13.797 Y-79.884
X-13.798 Y-79.873
X-13.831 Y-79.475
X-13.832 Y-79.465
X-13.861 Y-79.05
X-13.862 Y-79.041
X-13.886 Y-78.61
X-13.887 Y-78.601
X-13.907 Y-78.153
Y-78.146
X-13.924 Y-77.682
Y-77.676
X-13.937 Y-77.197
Y-77.19
X-13.945 Y-76.696
X-13.946 Y-76.69
X-13.951 Y-76.181
Y-76.176
X-13.952 Y-75.652
Y-75.647
X-13.951 Y-75.109
Y-75.104
X-13.946 Y-74.552
Y-74.548
X-13.938 Y-73.983
Y-73.979
X-13.928 Y-73.4
Y-73.397
X-13.914 Y-72.805
Y-72.802
X-13.898 Y-72.198
Y-72.195
X-13.88 Y-71.578
Y-71.576
X-13.859 Y-70.947
Y-70.945
X-13.836 Y-70.305
Y-70.303
X-13.812 Y-69.651
Y-69.649
X-13.785 Y-68.986
Y-68.985
X-13.757 Y-68.311
Y-68.31
X-13.727 Y-67.625
Y-67.624
X-13.696 Y-66.929
Y-66.928
X-13.631 Y-65.508
X-13.63 Y-65.507
X-13.561 Y-64.049
X-13.489 Y-62.554
X-13.416 Y-61.025
X-13.342 Y-59.462
X-13.269 Y-57.868
X-13.198 Y-56.242
X-13.129 Y-54.587
X-13.064 Y-52.903
X-13.003 Y-51.19
X-12.947 Y-49.449
X-12.897 Y-47.68
X-12.853 Y-45.884
X-12.817 Y-44.061
X-12.788 Y-42.212
X-12.767 Y-40.335
X-12.754 Y-38.431
X-12.75 Y-36.499
Y-30.015
X-12.759 Y-29.795
X-12.785 Y-29.566
X-12.83 Y-29.312
X-12.894 Y-29.034
X-12.978 Y-28.735
X-13.08 Y-28.415
X-13.2 Y-28.074
X-13.337 Y-27.716
X-13.489 Y-27.341
X-13.654 Y-26.949
X-13.83 Y-26.543
X-14.017 Y-26.122
X-14.211 Y-25.689
X-14.41 Y-25.245
X-14.412 Y-25.241
X-14.816 Y-24.326
X-14.821 Y-24.314
X-15.22 Y-23.369
X-15.228 Y-23.349
X-15.605 Y-22.379
X-15.613 Y-22.359
X-15.788 Y-21.866
X-15.794 Y-21.85
X-15.958 Y-21.353
X-15.964 Y-21.335
X-16.115 Y-20.834
X-16.121 Y-20.814
X-16.258 Y-20.309
X-16.264 Y-20.287
X-16.385 Y-19.779
X-16.39 Y-19.755
X-16.495 Y-19.245
X-16.5 Y-19.219
X-16.586 Y-18.705
X-16.59 Y-18.678
X-16.657 Y-18.16
X-16.66 Y-18.132
X-16.709 Y-17.61
X-16.711 Y-17.582
X-16.74 Y-17.055
X-16.741 Y-17.027
X-16.75 Y-16.494
Y-16.467
X-16.739 Y-15.928
X-16.738 Y-15.902
X-16.709 Y-15.356
X-16.707 Y-15.331
X-16.658 Y-14.779
X-16.655 Y-14.755
X-16.588 Y-14.197
X-16.585 Y-14.174
X-16.499 Y-13.609
X-16.496 Y-13.588
X-16.393 Y-13.017
X-16.389 Y-12.998
X-16.269 Y-12.421
X-16.265 Y-12.403
X-16.129 Y-11.822
X-16.125 Y-11.805
X-15.974 Y-11.221
X-15.969 Y-11.205
X-15.804 Y-10.619
X-15.799 Y-10.603
X-15.619 Y-10.018
X-15.615 Y-10.003
X-15.422 Y-9.42
X-15.417 Y-9.405
X-15.212 Y-8.827
X-15.207 Y-8.812
X-14.99 Y-8.24
X-14.984 Y-8.225
X-14.757 Y-7.662
X-14.751 Y-7.647
X-14.514 Y-7.095
X-14.507 Y-7.079
X-14.261 Y-6.542
X-14.253 Y-6.525
X-13.999 Y-6.004
X-13.99 Y-5.986
X-13.728 Y-5.483
X-13.718 Y-5.464
X-13.45 Y-4.983
X-13.438 Y-4.962
X-13.164 Y-4.504
X-13.15 Y-4.482
X-12.871 Y-4.05
X-12.855 Y-4.026
X-12.571 Y-3.623
X-12.551 Y-3.596
X-12.264 Y-3.223
X-12.24 Y-3.194
X-11.949 Y-2.853
X-11.92 Y-2.821
X-11.627 Y-2.516
X-11.591 Y-2.481
X-11.296 Y-2.212
X-11.251 Y-2.174
X-10.955 Y-1.943
X-10.914 Y-1.914
X-10.766 Y-1.813
X-10.735 Y-1.794
X-10.586 Y-1.703
X-10.552 Y-1.684
X-10.402 Y-1.603
X-10.365 Y-1.585
X-10.215 Y-1.515
X-10.174 Y-1.497
X-10.025 Y-1.438
X-9.98 Y-1.422
X-9.831 Y-1.373
X-9.783 Y-1.36
X-9.633 Y-1.322
X-9.583 Y-1.311
X-9.433 Y-1.284
X-9.381 Y-1.276
X-9.231 Y-1.26
X-9.177 Y-1.256
X-9.027 Y-1.25
X-8.973
X-8.823 Y-1.256
X-8.769 Y-1.26
X-8.619 Y-1.276
X-8.567 Y-1.284
X-8.417 Y-1.311
X-8.367 Y-1.322
X-8.217 Y-1.36
X-8.169 Y-1.373
X-8.02 Y-1.422
X-7.975 Y-1.438
X-7.826 Y-1.497
X-7.785 Y-1.515
X-7.635 Y-1.585
X-7.598 Y-1.603
X-7.448 Y-1.684
X-7.414 Y-1.703
X-7.265 Y-1.794
X-7.234 Y-1.813
X-7.086 Y-1.914
X-7.045 Y-1.943
X-6.749 Y-2.174
X-6.704 Y-2.212
X-6.409 Y-2.481
X-6.373 Y-2.516
X-6.08 Y-2.821
X-6.051 Y-2.853
X-5.76 Y-3.194
X-5.736 Y-3.223
X-5.449 Y-3.596
X-5.429 Y-3.623
X-5.145 Y-4.026
X-5.129 Y-4.05
X-4.85 Y-4.482
X-4.836 Y-4.504
X-4.562 Y-4.962
X-4.55 Y-4.983
X-4.282 Y-5.464
X-4.272 Y-5.483
X-4.01 Y-5.986
X-4.001 Y-6.003
X-3.747 Y-6.525
X-3.739 Y-6.542
X-3.493 Y-7.079
X-3.486 Y-7.095
X-3.249 Y-7.647
X-3.243 Y-7.662
X-3.016 Y-8.225
X-3.01 Y-8.24
X-2.793 Y-8.812
X-2.788 Y-8.827
X-2.583 Y-9.405
X-2.578 Y-9.42
X-2.385 Y-10.003
X-2.38 Y-10.018
X-2.201 Y-10.604
X-2.196 Y-10.619
X-2.031 Y-11.205
X-2.026 Y-11.221
X-1.875 Y-11.805
X-1.871 Y-11.822
X-1.735 Y-12.403
X-1.731 Y-12.421
X-1.611 Y-12.998
X-1.607 Y-13.017
X-1.504 Y-13.588
X-1.501 Y-13.609
X-1.415 Y-14.174
X-1.412 Y-14.197
X-1.345 Y-14.755
X-1.342 Y-14.779
X-1.293 Y-15.331
X-1.291 Y-15.356
X-1.262 Y-15.902
X-1.261 Y-15.928
X-1.25 Y-16.467
Y-16.494
X-1.259 Y-17.027
X-1.26 Y-17.055
X-1.289 Y-17.582
X-1.291 Y-17.61
X-1.339 Y-18.132
X-1.343 Y-18.16
X-1.41 Y-18.678
X-1.414 Y-18.705
X-1.5 Y-19.219
X-1.505 Y-19.245
X-1.61 Y-19.755
X-1.615 Y-19.78
X-1.736 Y-20.287
X-1.742 Y-20.309
X-1.879 Y-20.814
X-1.885 Y-20.834
X-2.036 Y-21.335
X-2.042 Y-21.353
X-2.206 Y-21.85
X-2.212 Y-21.866
X-2.387 Y-22.359
X-2.395 Y-22.379
X-2.772 Y-23.349
X-2.78 Y-23.369
X-3.179 Y-24.314
X-3.184 Y-24.326
X-3.588 Y-25.241
X-3.59 Y-25.245
X-3.789 Y-25.689
X-3.983 Y-26.122
X-4.17 Y-26.543
X-4.346 Y-26.949
X-4.511 Y-27.341
X-4.663 Y-27.716
X-4.8 Y-28.074
X-4.92 Y-28.415
X-5.022 Y-28.735
X-5.106 Y-29.034
X-5.17 Y-29.312
X-5.215 Y-29.566
X-5.241 Y-29.795
X-5.25 Y-30.015
Y-36.499
X-5.247 Y-38.144
X-5.238 Y-39.771
X-5.222 Y-41.38
X-5.201 Y-42.972
X-5.173 Y-44.546
X-5.141 Y-46.102
X-5.103 Y-47.641
X-5.06 Y-49.161
X-5.014 Y-50.663
X-4.963 Y-52.146
X-4.909 Y-53.61
X-4.852 Y-55.055
X-4.792 Y-56.479
X-4.731 Y-57.882
X-4.669 Y-59.264
X-4.616 Y-60.415
X-4.607 Y-60.623
X-4.544 Y-61.958
X-4.483 Y-63.269
X-4.423 Y-64.555
X-4.365 Y-65.813
Y-65.814
X-4.31 Y-67.044
Y-67.045
X-4.259 Y-68.245
Y-68.247
X-4.229 Y-68.997
X-4.212 Y-69.415 Z-2.015 F1016
Y-69.418
X-4.171 Y-70.553 Z-2.054
Y-70.556
X-4.135 Y-71.657 Z-2.093
Y-71.661
X-4.107 Y-72.726 Z-2.13
Y-72.731
X-4.086 Y-73.757 Z-2.166
Y-73.762
X-4.078 Y-74.26 Z-2.184
Y-74.263
X-4.073 Y-74.752 Z-2.201
Y-74.755
X-4.07 Y-75.233 Z-2.218
Y-75.237
X-4.069 Y-75.704 Z-2.234
Y-75.708
X-4.071 Y-76.165 Z-2.25
Y-76.169 Z-2.251
X-4.076 Y-76.615 Z-2.266
Y-76.62
X-4.083 Y-77.054 Z-2.281
Y-77.059 Z-2.282
X-4.093 Y-77.482 Z-2.296
Y-77.487 Z-2.297
X-4.096 Y-77.585 Z-2.3
X-4.105 Y-77.898 F600
X-4.106 Y-77.904
X-4.121 Y-78.288
Y-83.03
G2 X-4.601 Y-84.015 I-1.25 J0
G1 X-8.144 Y-86.783
G2 X-9.899 Y-86.568 I-0.77 J0.985
G1 X-13.308 Y-82.204
X-13.358 Y-82.132
X-13.418 Y-82.033
X-13.459 Y-81.956
X-13.491 Y-81.875
X-13.527 Y-81.764
X-13.551 Y-81.67
X-13.608 Y-81.362
X-13.611 Y-81.343
X-13.663 Y-81.016
X-13.666 Y-81
X-13.713 Y-80.655
X-13.715 Y-80.64
X-13.758 Y-80.278
X-13.759 Y-80.265
X-13.797 Y-79.884
X-13.798 Y-79.873
X-13.831 Y-79.475
X-13.832 Y-79.465
X-13.861 Y-79.05
X-13.862 Y-79.041
X-13.886 Y-78.61
X-13.887 Y-78.601
X-13.907 Y-78.153
Y-78.146
X-13.924 Y-77.682
Y-77.676
X-13.937 Y-77.197
Y-77.19
X-13.945 Y-76.696
X-13.946 Y-76.69
X-13.951 Y-76.181
Y-76.176
X-13.952 Y-75.652
Y-75.647
X-13.951 Y-75.109
Y-75.104
X-13.946 Y-74.552
Y-74.548
X-13.938 Y-73.983
Y-73.979
X-13.928 Y-73.4
Y-73.397
X-13.914 Y-72.805
Y-72.802
X-13.898 Y-72.198
Y-72.195
X-13.88 Y-71.578
Y-71.576
X-13.859 Y-70.947
Y-70.945
X-13.836 Y-70.305
Y-70.303
X-13.812 Y-69.651
Y-69.649
X-13.785 Y-68.986
Y-68.985
X-13.757 Y-68.311
Y-68.31
X-13.727 Y-67.625
Y-67.624
X-13.696 Y-66.929
Y-66.928
X-13.631 Y-65.508
X-13.63 Y-65.507
X-13.561 Y-64.049
X-13.489 Y-62.554
X-13.416 Y-61.025
X-13.342 Y-59.462
X-13.269 Y-57.868
X-13.198 Y-56.242
X-13.129 Y-54.587
X-13.064 Y-52.903
X-13.003 Y-51.19
X-12.947 Y-49.449
X-12.897 Y-47.68
X-12.853 Y-45.884
X-12.817 Y-44.061
X-12.788 Y-42.212
X-12.767 Y-40.335
X-12.754 Y-38.431
X-12.75 Y-36.499
Y-30.015
X-12.759 Y-29.795
X-12.785 Y-29.566
X-12.83 Y-29.312
X-12.894 Y-29.034
X-12.978 Y-28.735
X-13.08 Y-28.415
X-13.2 Y-28.074
X-13.337 Y-27.716
X-13.489 Y-27.341
X-13.654 Y-26.949
X-13.83 Y-26.543
X-14.017 Y-26.122
X-14.211 Y-25.689
X-14.41 Y-25.245
X-14.412 Y-25.241
X-14.816 Y-24.326
X-14.821 Y-24.314
X-15.22 Y-23.369
X-15.228 Y-23.349
X-15.605 Y-22.379
X-15.613 Y-22.359
X-15.788 Y-21.866
X-15.794 Y-21.85
X-15.958 Y-21.353
X-15.964 Y-21.335
X-16.115 Y-20.834
X-16.121 Y-20.814
X-16.258 Y-20.309
X-16.264 Y-20.287
X-16.385 Y-19.779
X-16.39 Y-19.755
X-16.495 Y-19.245
X-16.5 Y-19.219
X-16.586 Y-18.705
X-16.59 Y-18.678
X-16.657 Y-18.16
X-16.66 Y-18.132
X-16.709 Y-17.61
X-16.711 Y-17.582
X-16.74 Y-17.055
X-16.741 Y-17.027
X-16.75 Y-16.494
Y-16.467
X-16.739 Y-15.928
X-16.738 Y-15.902
X-16.709 Y-15.356
X-16.707 Y-15.331
X-16.658 Y-14.779
X-16.655 Y-14.755
X-16.588 Y-14.197
X-16.585 Y-14.174
X-16.499 Y-13.609
X-16.496 Y-13.588
X-16.393 Y-13.017
X-16.389 Y-12.998
X-16.269 Y-12.421
X-16.265 Y-12.403
X-16.129 Y-11.822
X-16.125 Y-11.805
X-15.974 Y-11.221
X-15.969 Y-11.205
X-15.804 Y-10.619
X-15.799 Y-10.603
X-15.619 Y-10.018
X-15.615 Y-10.003
X-15.422 Y-9.42
X-15.417 Y-9.405
X-15.212 Y-8.827
X-15.207 Y-8.812
X-14.99 Y-8.24
X-14.984 Y-8.225
X-14.757 Y-7.662
X-14.751 Y-7.647
X-14.514 Y-7.095
X-14.507 Y-7.079
X-14.261 Y-6.542
X-14.253 Y-6.525
X-13.999 Y-6.004
X-13.99 Y-5.986
X-13.728 Y-5.483
X-13.718 Y-5.464
X-13.45 Y-4.983
X-13.438 Y-4.962
X-13.164 Y-4.504
X-13.15 Y-4.482
X-12.871 Y-4.05
X-12.855 Y-4.026
X-12.571 Y-3.623
X-12.551 Y-3.596
X-12.264 Y-3.223
X-12.24 Y-3.194
X-11.949 Y-2.853
X-11.92 Y-2.821
X-11.627 Y-2.516
X-11.591 Y-2.481
X-11.296 Y-2.212
X-11.251 Y-2.174
X-10.955 Y-1.943
X-10.914 Y-1.914
X-10.766 Y-1.813
X-10.735 Y-1.794
X-10.586 Y-1.703
X-10.552 Y-1.684
X-10.402 Y-1.603
X-10.365 Y-1.585
X-10.215 Y-1.515
X-10.174 Y-1.497
X-10.025 Y-1.438
X-9.98 Y-1.422
X-9.831 Y-1.373
X-9.783 Y-1.36
X-9.633 Y-1.322
X-9.583 Y-1.311
X-9.433 Y-1.284
X-9.381 Y-1.276
X-9.231 Y-1.26
X-9.177 Y-1.256
X-9.027 Y-1.25
X-8.973
X-8.823 Y-1.256
X-8.769 Y-1.26
X-8.619 Y-1.276
X-8.567 Y-1.284
X-8.417 Y-1.311
X-8.367 Y-1.322
X-8.217 Y-1.36
X-8.169 Y-1.373
X-8.02 Y-1.422
X-7.975 Y-1.438
X-7.826 Y-1.497
X-7.785 Y-1.515
X-7.635 Y-1.585
X-7.598 Y-1.603
X-7.448 Y-1.684
X-7.414 Y-1.703
X-7.265 Y-1.794
X-7.234 Y-1.813
X-7.086 Y-1.914
X-7.045 Y-1.943
X-6.749 Y-2.174
X-6.704 Y-2.212
X-6.409 Y-2.481
X-6.373 Y-2.516
X-6.08 Y-2.821
X-6.051 Y-2.853
X-5.76 Y-3.194
X-5.736 Y-3.223
X-5.449 Y-3.596
X-5.429 Y-3.623
X-5.145 Y-4.026
X-5.129 Y-4.05
X-4.85 Y-4.482
X-4.836 Y-4.504
X-4.562 Y-4.962
X-4.55 Y-4.983
X-4.282 Y-5.464
X-4.272 Y-5.483
X-4.01 Y-5.986
X-4.001 Y-6.003
X-3.747 Y-6.525
X-3.739 Y-6.542
X-3.493 Y-7.079
X-3.486 Y-7.095
X-3.249 Y-7.647
X-3.243 Y-7.662
X-3.016 Y-8.225
X-3.01 Y-8.24
X-2.793 Y-8.812
X-2.788 Y-8.827
X-2.583 Y-9.405
X-2.578 Y-9.42
X-2.385 Y-10.003
X-2.38 Y-10.018
X-2.201 Y-10.604
X-2.196 Y-10.619
X-2.031 Y-11.205
X-2.026 Y-11.221
X-1.875 Y-11.805
X-1.871 Y-11.822
X-1.735 Y-12.403
X-1.731 Y-12.421
X-1.611 Y-12.998
X-1.607 Y-13.017
X-1.504 Y-13.588
X-1.501 Y-13.609
X-1.415 Y-14.174
X-1.412 Y-14.197
X-1.345 Y-14.755
X-1.342 Y-14.779
X-1.293 Y-15.331
X-1.291 Y-15.356
X-1.262 Y-15.902
X-1.261 Y-15.928
X-1.25 Y-16.467
Y-16.494
X-1.259 Y-17.027
X-1.26 Y-17.055
X-1.289 Y-17.582
X-1.291 Y-17.61
X-1.339 Y-18.132
X-1.343 Y-18.16
X-1.41 Y-18.678
X-1.414 Y-18.705
X-1.5 Y-19.219
X-1.505 Y-19.245
X-1.61 Y-19.755
X-1.615 Y-19.78
X-1.736 Y-20.287
X-1.742 Y-20.309
X-1.879 Y-20.814
X-1.885 Y-20.834
X-2.036 Y-21.335
X-2.042 Y-21.353
X-2.206 Y-21.85
X-2.212 Y-21.866
X-2.387 Y-22.359
X-2.395 Y-22.379
X-2.772 Y-23.349
X-2.78 Y-23.369
X-3.179 Y-24.314
X-3.184 Y-24.326
X-3.588 Y-25.241
X-3.59 Y-25.245
X-3.789 Y-25.689
X-3.983 Y-26.122
X-4.17 Y-26.543
X-4.346 Y-26.949
X-4.511 Y-27.341
X-4.663 Y-27.716
X-4.8 Y-28.074
X-4.92 Y-28.415
X-5.022 Y-28.735
X-5.106 Y-29.034
X-5.17 Y-29.312
X-5.215 Y-29.566
X-5.241 Y-29.795
X-5.25 Y-30.015
Y-36.499
X-5.247 Y-38.144
X-5.238 Y-39.771
X-5.222 Y-41.38
X-5.201 Y-42.972
X-5.173 Y-44.546
X-5.141 Y-46.102
X-5.103 Y-47.641
X-5.06 Y-49.161
X-5.014 Y-50.663
X-4.963 Y-52.146
X-4.909 Y-53.61
X-4.852 Y-55.055
X-4.792 Y-56.479
X-4.731 Y-57.882
X-4.669 Y-59.264
X-4.607 Y-60.623
X-4.544 Y-61.958
X-4.483 Y-63.269
X-4.423 Y-64.555
X-4.365 Y-65.813
Y-65.814
X-4.31 Y-67.044
Y-67.045
X-4.259 Y-68.245
Y-68.247
X-4.229 Y-68.997
X-4.212 Y-69.415
Y-69.418
X-4.171 Y-70.553
Y-70.556
X-4.135 Y-71.657
Y-71.661
X-4.107 Y-72.726
Y-72.731
X-4.086 Y-73.757
Y-73.762
X-4.078 Y-74.26
Y-74.263
X-4.073 Y-74.752
Y-74.755
X-4.07 Y-75.233
Y-75.237
X-4.069 Y-75.704
Y-75.708
X-4.071 Y-76.165
Y-76.169
X-4.076 Y-76.615
Y-76.62
X-4.083 Y-77.054
Y-77.059
X-4.093 Y-77.482
Y-77.487
X-4.096 Y-77.585
X-4.105 Y-77.898 Z-2.311 F1016
X-4.106 Y-77.904
X-4.121 Y-78.288 Z-2.325
Y-83.03 Z-2.49
G2 X-4.601 Y-84.015 Z-2.53 I-1.25 J0
G1 X-6.186 Y-85.253 Z-2.6
X-8.144 Y-86.783 F600
G2 X-9.899 Y-86.568 I-0.77 J0.985
G1 X-13.308 Y-82.204
X-13.358 Y-82.132
X-13.418 Y-82.033
X-13.459 Y-81.956
X-13.491 Y-81.875
X-13.527 Y-81.764
X-13.551 Y-81.67
X-13.608 Y-81.362
X-13.611 Y-81.343
X-13.663 Y-81.016
X-13.666 Y-81
X-13.713 Y-80.655
X-13.715 Y-80.64
X-13.758 Y-80.278
X-13.759 Y-80.265
X-13.797 Y-79.884
X-13.798 Y-79.873
X-13.831 Y-79.475
X-13.832 Y-79.465
X-13.861 Y-79.05
X-13.862 Y-79.041
X-13.886 Y-78.61
X-13.887 Y-78.601
X-13.907 Y-78.153
Y-78.146
X-13.924 Y-77.682
Y-77.676
X-13.937 Y-77.197
Y-77.19
X-13.945 Y-76.696
X-13.946 Y-76.69
X-13.951 Y-76.181
Y-76.176
X-13.952 Y-75.652
Y-75.647
X-13.951 Y-75.109
Y-75.104
X-13.946 Y-74.552
Y-74.548
X-13.938 Y-73.983
Y-73.979
X-13.928 Y-73.4
Y-73.397
X-13.914 Y-72.805
Y-72.802
X-13.898 Y-72.198
Y-72.195
X-13.88 Y-71.578
Y-71.576
X-13.859 Y-70.947
Y-70.945
X-13.836 Y-70.305
Y-70.303
X-13.812 Y-69.651
Y-69.649
X-13.785 Y-68.986
Y-68.985
X-13.757 Y-68.311
Y-68.31
X-13.727 Y-67.625
Y-67.624
X-13.696 Y-66.929
Y-66.928
X-13.644 Y-65.797
Z-2.3
X-13.631 Y-65.508
X-13.63 Y-65.507
X-13.561 Y-64.049
X-13.489 Y-62.554
X-13.477 Y-62.301
Z-2.6 F300
X-13.416 Y-61.025 F600
X-13.342 Y-59.462
X-13.269 Y-57.868
X-13.198 Y-56.242
X-13.129 Y-54.587
X-13.064 Y-52.903
X-13.003 Y-51.19
X-12.947 Y-49.449
X-12.897 Y-47.68
X-12.853 Y-45.884
X-12.817 Y-44.061
X-12.788 Y-42.212
X-12.767 Y-40.335
X-12.754 Y-38.431
X-12.75 Y-36.499
Y-30.015
X-12.759 Y-29.795
X-12.785 Y-29.566
X-12.83 Y-29.312
X-12.894 Y-29.034
X-12.978 Y-28.735
X-13.08 Y-28.415
X-13.2 Y-28.074
X-13.337 Y-27.716
X-13.489 Y-27.341
X-13.654 Y-26.949
X-13.83 Y-26.543
X-14.017 Y-26.122
X-14.211 Y-25.689
X-14.41 Y-25.245
X-14.412 Y-25.241
X-14.816 Y-24.326
X-14.821 Y-24.314
X-15.22 Y-23.369
X-15.228 Y-23.349
X-15.605 Y-22.379
X-15.613 Y-22.359
X-15.788 Y-21.866
X-15.794 Y-21.85
X-15.958 Y-21.353
X-15.964 Y-21.335
X-16.115 Y-20.834
X-16.121 Y-20.814
X-16.258 Y-20.309
X-16.264 Y-20.287
X-16.385 Y-19.779
X-16.39 Y-19.755
X-16.495 Y-19.245
X-16.5 Y-19.219
X-16.586 Y-18.705
X-16.59 Y-18.678
X-16.657 Y-18.16
X-16.66 Y-18.132
X-16.709 Y-17.61
X-16.711 Y-17.582
X-16.74 Y-17.055
X-16.741 Y-17.027
X-16.75 Y-16.494
Y-16.467
X-16.739 Y-15.928
X-16.738 Y-15.902
X-16.709 Y-15.356
X-16.707 Y-15.331
X-16.658 Y-14.779
X-16.655 Y-14.755
X-16.588 Y-14.197
X-16.585 Y-14.174
X-16.499 Y-13.609
X-16.496 Y-13.588
X-16.393 Y-13.017
X-16.389 Y-12.998
X-16.269 Y-12.421
X-16.265 Y-12.403
X-16.129 Y-11.822
X-16.125 Y-11.805
X-15.974 Y-11.221
X-15.969 Y-11.205
X-15.804 Y-10.619
X-15.799 Y-10.603
X-15.619 Y-10.018
X-15.615 Y-10.003
X-15.422 Y-9.42
X-15.417 Y-9.405
X-15.212 Y-8.827
X-15.207 Y-8.812
X-14.99 Y-8.24
X-14.984 Y-8.225
X-14.757 Y-7.662
X-14.751 Y-7.647
X-14.514 Y-7.095
X-14.507 Y-7.079
X-14.261 Y-6.542
X-14.253 Y-6.525
X-13.999 Y-6.004
X-13.99 Y-5.986
X-13.728 Y-5.483
X-13.718 Y-5.464
X-13.45 Y-4.983
X-13.438 Y-4.962
X-13.164 Y-4.504
X-13.15 Y-4.482
X-12.871 Y-4.05
X-12.855 Y-4.026
X-12.571 Y-3.623
X-12.551 Y-3.596
X-12.264 Y-3.223
X-12.24 Y-3.194
X-11.949 Y-2.853
X-11.92 Y-2.821
X-11.627 Y-2.516
X-11.591 Y-2.481
X-11.296 Y-2.212
X-11.251 Y-2.174
X-10.955 Y-1.943
X-10.914 Y-1.914
X-10.766 Y-1.813
X-10.75 Y-1.803
Z-2.3
X-10.735 Y-1.794
X-10.586 Y-1.703
X-10.552 Y-1.684
X-10.402 Y-1.603
X-10.365 Y-1.585
X-10.215 Y-1.515
X-10.174 Y-1.497
X-10.025 Y-1.438
X-9.98 Y-1.422
X-9.831 Y-1.373
X-9.783 Y-1.36
X-9.633 Y-1.322
X-9.583 Y-1.311
X-9.433 Y-1.284
X-9.381 Y-1.276
X-9.231 Y-1.26
X-9.177 Y-1.256
X-9.027 Y-1.25
X-8.973
X-8.823 Y-1.256
X-8.769 Y-1.26
X-8.619 Y-1.276
X-8.567 Y-1.284
X-8.417 Y-1.311
X-8.367 Y-1.322
X-8.217 Y-1.36
X-8.169 Y-1.373
X-8.02 Y-1.422
X-7.975 Y-1.438
X-7.826 Y-1.497
X-7.785 Y-1.515
X-7.635 Y-1.585
X-7.598 Y-1.603
X-7.448 Y-1.684
X-7.414 Y-1.703
X-7.265 Y-1.794
X-7.25 Y-1.803
Z-2.6 F300
X-7.234 Y-1.813 F600
X-7.086 Y-1.914
X-7.045 Y-1.943
X-6.749 Y-2.174
X-6.704 Y-2.212
X-6.409 Y-2.481
X-6.373 Y-2.516
X-6.08 Y-2.821
X-6.051 Y-2.853
X-5.76 Y-3.194
X-5.736 Y-3.223
X-5.449 Y-3.596
X-5.429 Y-3.623
X-5.145 Y-4.026
X-5.129 Y-4.05
X-4.85 Y-4.482
X-4.836 Y-4.504
X-4.562 Y-4.962
X-4.55 Y-4.983
X-4.282 Y-5.464
X-4.272 Y-5.483
X-4.01 Y-5.986
X-4.001 Y-6.003
X-3.747 Y-6.525
X-3.739 Y-6.542
X-3.493 Y-7.079
X-3.486 Y-7.095
X-3.249 Y-7.647
X-3.243 Y-7.662
X-3.016 Y-8.225
X-3.01 Y-8.24
X-2.793 Y-8.812
X-2.788 Y-8.827
X-2.583 Y-9.405
X-2.578 Y-9.42
X-2.385 Y-10.003
X-2.38 Y-10.018
X-2.201 Y-10.604
X-2.196 Y-10.619
X-2.031 Y-11.205
X-2.026 Y-11.221
X-1.875 Y-11.805
X-1.871 Y-11.822
X-1.735 Y-12.403
X-1.731 Y-12.421
X-1.611 Y-12.998
X-1.607 Y-13.017
X-1.504 Y-13.588
X-1.501 Y-13.609
X-1.415 Y-14.174
X-1.412 Y-14.197
X-1.345 Y-14.755
X-1.342 Y-14.779
X-1.293 Y-15.331
X-1.291 Y-15.356
X-1.262 Y-15.902
X-1.261 Y-15.928
X-1.25 Y-16.467
Y-16.494
X-1.259 Y-17.027
X-1.26 Y-17.055
X-1.289 Y-17.582
X-1.291 Y-17.61
X-1.339 Y-18.132
X-1.343 Y-18.16
X-1.41 Y-18.678
X-1.414 Y-18.705
X-1.5 Y-19.219
X-1.505 Y-19.245
X-1.61 Y-19.755
X-1.615 Y-19.78
X-1.736 Y-20.287
X-1.742 Y-20.309
X-1.879 Y-20.814
X-1.885 Y-20.834
X-2.036 Y-21.335
X-2.042 Y-21.353
X-2.206 Y-21.85
X-2.212 Y-21.866
X-2.387 Y-22.359
X-2.395 Y-22.379
X-2.772 Y-23.349
X-2.78 Y-23.369
X-3.179 Y-24.314
X-3.184 Y-24.326
X-3.588 Y-25.241
X-3.59 Y-25.245
X-3.789 Y-25.689
X-3.983 Y-26.122
X-4.17 Y-26.543
X-4.346 Y-26.949
X-4.511 Y-27.341
X-4.663 Y-27.716
X-4.8 Y-28.074
X-4.92 Y-28.415
X-5.022 Y-28.735
X-5.106 Y-29.034
X-5.17 Y-29.312
X-5.215 Y-29.566
X-5.241 Y-29.795
X-5.25 Y-30.015
Y-36.499
X-5.247 Y-38.144
X-5.238 Y-39.771
X-5.222 Y-41.38
X-5.201 Y-42.972
X-5.173 Y-44.546
X-5.141 Y-46.102
X-5.103 Y-47.641
X-5.06 Y-49.161
X-5.014 Y-50.663
X-4.963 Y-52.146
X-4.909 Y-53.61
X-4.852 Y-55.055
X-4.792 Y-56.479
X-4.731 Y-57.882
X-4.687 Y-58.875
Z-2.3
X-4.669 Y-59.264
X-4.607 Y-60.623
X-4.544 Y-61.958
X-4.525 Y-62.371
Z-2.6 F300
X-4.483 Y-63.269 F600
X-4.423 Y-64.555
X-4.365 Y-65.813
Y-65.814
X-4.31 Y-67.044
Y-67.045
X-4.259 Y-68.245
Y-68.247
X-4.212 Y-69.415
Y-69.418
X-4.171 Y-70.553
Y-70.556
X-4.135 Y-71.657
Y-71.661
X-4.107 Y-72.726
Y-72.731
X-4.086 Y-73.757
Y-73.762
X-4.078 Y-74.26
Y-74.263
X-4.073 Y-74.752
Y-74.755
X-4.07 Y-75.233
Y-75.237
X-4.069 Y-75.704
Y-75.708
X-4.071 Y-76.165
Y-76.169
X-4.076 Y-76.615
Y-76.62
X-4.083 Y-77.054
Y-77.059
X-4.093 Y-77.482
Y-77.487
X-4.105 Y-77.898
X-4.106 Y-77.904
X-4.121 Y-78.288
Y-83.03
G2 X-4.601 Y-84.015 I-1.25 J0
G1 X-6.186 Y-85.253
X-8.144 Y-86.783 Z-2.687 F1016
G2 X-9.899 Y-86.568 Z-2.755 I-0.77 J0.985
G1 X-12.449 Y-83.304 Z-2.9
X-13.308 Y-82.204 F600
X-13.358 Y-82.132
X-13.418 Y-82.033
X-13.459 Y-81.956
X-13.491 Y-81.875
X-13.527 Y-81.764
X-13.551 Y-81.67
X-13.608 Y-81.362
X-13.611 Y-81.343
X-13.663 Y-81.016
X-13.666 Y-81
X-13.713 Y-80.655
X-13.715 Y-80.64
X-13.758 Y-80.278
X-13.759 Y-80.265
X-13.797 Y-79.884
X-13.798 Y-79.873
X-13.831 Y-79.475
X-13.832 Y-79.465
X-13.861 Y-79.05
X-13.862 Y-79.041
X-13.886 Y-78.61
X-13.887 Y-78.601
X-13.907 Y-78.153
Y-78.146
X-13.924 Y-77.682
Y-77.676
X-13.937 Y-77.197
Y-77.19
X-13.945 Y-76.696
X-13.946 Y-76.69
X-13.951 Y-76.181
Y-76.176
X-13.952 Y-75.652
Y-75.647
X-13.951 Y-75.109
Y-75.104
X-13.946 Y-74.552
Y-74.548
X-13.938 Y-73.983
Y-73.979
X-13.928 Y-73.4
Y-73.397
X-13.914 Y-72.805
Y-72.802
X-13.898 Y-72.198
Y-72.195
X-13.88 Y-71.578
Y-71.576
X-13.859 Y-70.947
Y-70.945
X-13.836 Y-70.305
Y-70.303
X-13.812 Y-69.651
Y-69.649
X-13.785 Y-68.986
Y-68.985
X-13.757 Y-68.311
Y-68.31
X-13.727 Y-67.625
Y-67.624
X-13.696 Y-66.929
Y-66.928
X-13.644 Y-65.797
Z-2.3
X-13.631 Y-65.508
X-13.63 Y-65.507
X-13.561 Y-64.049
X-13.489 Y-62.554
X-13.477 Y-62.301
Z-2.9 F300
X-13.416 Y-61.025 F600
X-13.342 Y-59.462
X-13.269 Y-57.868
X-13.198 Y-56.242
X-13.129 Y-54.587
X-13.064 Y-52.903
X-13.003 Y-51.19
X-12.947 Y-49.449
X-12.897 Y-47.68
X-12.853 Y-45.884
X-12.817 Y-44.061
X-12.788 Y-42.212
X-12.767 Y-40.335
X-12.754 Y-38.431
X-12.75 Y-36.499
Y-30.015
X-12.759 Y-29.795
X-12.785 Y-29.566
X-12.83 Y-29.312
X-12.894 Y-29.034
X-12.978 Y-28.735
X-13.08 Y-28.415
X-13.2 Y-28.074
X-13.337 Y-27.716
X-13.489 Y-27.341
X-13.654 Y-26.949
X-13.83 Y-26.543
X-14.017 Y-26.122
X-14.211 Y-25.689
X-14.41 Y-25.245
X-14.412 Y-25.241
X-14.816 Y-24.326
X-14.821 Y-24.314
X-15.22 Y-23.369
X-15.228 Y-23.349
X-15.605 Y-22.379
X-15.613 Y-22.359
X-15.788 Y-21.866
X-15.794 Y-21.85
X-15.958 Y-21.353
X-15.964 Y-21.335
X-16.115 Y-20.834
X-16.121 Y-20.814
X-16.258 Y-20.309
X-16.264 Y-20.287
X-16.385 Y-19.779
X-16.39 Y-19.755
X-16.495 Y-19.245
X-16.5 Y-19.219
X-16.586 Y-18.705
X-16.59 Y-18.678
X-16.657 Y-18.16
X-16.66 Y-18.132
X-16.709 Y-17.61
X-16.711 Y-17.582
X-16.74 Y-17.055
X-16.741 Y-17.027
X-16.75 Y-16.494
Y-16.467
X-16.739 Y-15.928
X-16.738 Y-15.902
X-16.709 Y-15.356
X-16.707 Y-15.331
X-16.658 Y-14.779
X-16.655 Y-14.755
X-16.588 Y-14.197
X-16.585 Y-14.174
X-16.499 Y-13.609
X-16.496 Y-13.588
X-16.393 Y-13.017
X-16.389 Y-12.998
X-16.269 Y-12.421
X-16.265 Y-12.403
X-16.129 Y-11.822
X-16.125 Y-11.805
X-15.974 Y-11.221
X-15.969 Y-11.205
X-15.804 Y-10.619
X-15.799 Y-10.603
X-15.619 Y-10.018
X-15.615 Y-10.003
X-15.422 Y-9.42
X-15.417 Y-9.405
X-15.212 Y-8.827
X-15.207 Y-8.812
X-14.99 Y-8.24
X-14.984 Y-8.225
X-14.757 Y-7.662
X-14.751 Y-7.647
X-14.514 Y-7.095
X-14.507 Y-7.079
X-14.261 Y-6.542
X-14.253 Y-6.525
X-13.999 Y-6.004
X-13.99 Y-5.986
X-13.728 Y-5.483
X-13.718 Y-5.464
X-13.45 Y-4.983
X-13.438 Y-4.962
X-13.164 Y-4.504
X-13.15 Y-4.482
X-12.871 Y-4.05
X-12.855 Y-4.026
X-12.571 Y-3.623
X-12.551 Y-3.596
X-12.264 Y-3.223
X-12.24 Y-3.194
X-11.949 Y-2.853
X-11.92 Y-2.821
X-11.627 Y-2.516
X-11.591 Y-2.481
X-11.296 Y-2.212
X-11.251 Y-2.174
X-10.955 Y-1.943
X-10.914 Y-1.914
X-10.766 Y-1.813
X-10.75 Y-1.803
Z-2.3
X-10.735 Y-1.794
X-10.586 Y-1.703
X-10.552 Y-1.684
X-10.402 Y-1.603
X-10.365 Y-1.585
X-10.215 Y-1.515
X-10.174 Y-1.497
X-10.025 Y-1.438
X-9.98 Y-1.422
X-9.831 Y-1.373
X-9.783 Y-1.36
X-9.633 Y-1.322
X-9.583 Y-1.311
X-9.433 Y-1.284
X-9.381 Y-1.276
X-9.231 Y-1.26
X-9.177 Y-1.256
X-9.027 Y-1.25
X-8.973
X-8.823 Y-1.256
X-8.769 Y-1.26
X-8.619 Y-1.276
X-8.567 Y-1.284
X-8.417 Y-1.311
X-8.367 Y-1.322
X-8.217 Y-1.36
X-8.169 Y-1.373
X-8.02 Y-1.422
X-7.975 Y-1.438
X-7.826 Y-1.497
X-7.785 Y-1.515
X-7.635 Y-1.585
X-7.598 Y-1.603
X-7.448 Y-1.684
X-7.414 Y-1.703
X-7.265 Y-1.794
X-7.25 Y-1.803
Z-2.9 F300
X-7.234 Y-1.813 F600
X-7.086 Y-1.914
X-7.045 Y-1.943
X-6.749 Y-2.174
X-6.704 Y-2.212
X-6.409 Y-2.481
X-6.373 Y-2.516
X-6.08 Y-2.821
X-6.051 Y-2.853
X-5.76 Y-3.194
X-5.736 Y-3.223
X-5.449 Y-3.596
X-5.429 Y-3.623
X-5.145 Y-4.026
X-5.129 Y-4.05
X-4.85 Y-4.482
X-4.836 Y-4.504
X-4.562 Y-4.962
X-4.55 Y-4.983
X-4.282 Y-5.464
X-4.272 Y-5.483
X-4.01 Y-5.986
X-4.001 Y-6.003
X-3.747 Y-6.525
X-3.739 Y-6.542
X-3.493 Y-7.079
X-3.486 Y-7.095
X-3.249 Y-7.647
X-3.243 Y-7.662
X-3.016 Y-8.225
X-3.01 Y-8.24
X-2.793 Y-8.812
X-2.788 Y-8.827
X-2.583 Y-9.405
X-2.578 Y-9.42
X-2.385 Y-10.003
X-2.38 Y-10.018
X-2.201 Y-10.604
X-2.196 Y-10.619
X-2.031 Y-11.205
X-2.026 Y-11.221
X-1.875 Y-11.805
X-1.871 Y-11.822
X-1.735 Y-12.403
X-1.731 Y-12.421
X-1.611 Y-12.998
X-1.607 Y-13.017
X-1.504 Y-13.588
X-1.501 Y-13.609
X-1.415 Y-14.174
X-1.412 Y-14.197
X-1.345 Y-14.755
X-1.342 Y-14.779
X-1.293 Y-15.331
X-1.291 Y-15.356
X-1.262 Y-15.902
X-1.261 Y-15.928
X-1.25 Y-16.467
Y-16.494
X-1.259 Y-17.027
X-1.26 Y-17.055
X-1.289 Y-17.582
X-1.291 Y-17.61
X-1.339 Y-18.132
X-1.343 Y-18.16
X-1.41 Y-18.678
X-1.414 Y-18.705
X-1.5 Y-19.219
X-1.505 Y-19.245
X-1.61 Y-19.755
X-1.615 Y-19.78
X-1.736 Y-20.287
X-1.742 Y-20.309
X-1.879 Y-20.814
X-1.885 Y-20.834
X-2.036 Y-21.335
X-2.042 Y-21.353
X-2.206 Y-21.85
X-2.212 Y-21.866
X-2.387 Y-22.359
X-2.395 Y-22.379
X-2.772 Y-23.349
X-2.78 Y-23.369
X-3.179 Y-24.314
X-3.184 Y-24.326
X-3.588 Y-25.241
X-3.59 Y-25.245
X-3.789 Y-25.689
X-3.983 Y-26.122
X-4.17 Y-26.543
X-4.346 Y-26.949
X-4.511 Y-27.341
X-4.663 Y-27.716
X-4.8 Y-28.074
X-4.92 Y-28.415
X-5.022 Y-28.735
X-5.106 Y-29.034
X-5.17 Y-29.312
X-5.215 Y-29.566
X-5.241 Y-29.795
X-5.25 Y-30.015
Y-36.499
X-5.247 Y-38.144
X-5.238 Y-39.771
X-5.222 Y-41.38
X-5.201 Y-42.972
X-5.173 Y-44.546
X-5.141 Y-46.102
X-5.103 Y-47.641
X-5.06 Y-49.161
X-5.014 Y-50.663
X-4.963 Y-52.146
X-4.909 Y-53.61
X-4.852 Y-55.055
X-4.792 Y-56.479
X-4.731 Y-57.882
X-4.687 Y-58.875
Z-2.3
X-4.669 Y-59.264
X-4.607 Y-60.623
X-4.544 Y-61.958
X-4.525 Y-62.371
Z-2.9 F300
X-4.483 Y-63.269 F600
X-4.423 Y-64.555
X-4.365 Y-65.813
Y-65.814
X-4.31 Y-67.044
Y-67.045
X-4.259 Y-68.245
Y-68.247
X-4.212 Y-69.415
Y-69.418
X-4.171 Y-70.553
Y-70.556
X-4.135 Y-71.657
Y-71.661
X-4.107 Y-72.726
Y-72.731
X-4.086 Y-73.757
Y-73.762
X-4.078 Y-74.26
Y-74.263
X-4.073 Y-74.752
Y-74.755
X-4.07 Y-75.233
Y-75.237
X-4.069 Y-75.704
Y-75.708
X-4.071 Y-76.165
Y-76.169
X-4.076 Y-76.615
Y-76.62
X-4.083 Y-77.054
Y-77.059
X-4.093 Y-77.482
Y-77.487
X-4.105 Y-77.898
X-4.106 Y-77.904
X-4.121 Y-78.288
Y-83.03
G2 X-4.601 Y-84.015 I-1.25 J0
G1 X-8.144 Y-86.783
G2 X-9.899 Y-86.568 I-0.77 J0.985
G1 X-12.449 Y-83.304
X-13.308 Y-82.204 Z-2.949 F1016
X-13.358 Y-82.132 Z-2.952
X-13.418 Y-82.033 Z-2.956
X-13.459 Y-81.956 Z-2.959
X-13.491 Y-81.875 Z-2.962
X-13.527 Y-81.764 Z-2.966
X-13.551 Y-81.67 Z-2.969
X-13.608 Y-81.362 Z-2.98
X-13.611 Y-81.343 Z-2.981
X-13.663 Y-81.016 Z-2.993
X-13.666 Y-81
X-13.713 Y-80.655 Z-3.005
X-13.715 Y-80.64 Z-3.006
X-13.758 Y-80.278 Z-3.019
X-13.759 Y-80.265
X-13.797 Y-79.884 Z-3.032
X-13.798 Y-79.873 Z-3.033
X-13.831 Y-79.475 Z-3.047
X-13.832 Y-79.465
X-13.861 Y-79.05 Z-3.062
X-13.862 Y-79.041
X-13.886 Y-78.61 Z-3.077
X-13.887 Y-78.601
X-13.907 Y-78.153 Z-3.093
Y-78.146
X-13.924 Y-77.682 Z-3.109
Y-77.676 Z-3.11
X-13.937 Y-77.197 Z-3.126
Y-77.19 Z-3.127
X-13.945 Y-76.696 Z-3.144
X-13.946 Y-76.69
X-13.951 Y-76.181 Z-3.162
Y-76.176
X-13.952 Y-75.652 Z-3.18
Y-75.647
X-13.951 Y-75.109 Z-3.199
Y-75.104
Y-75.088 Z-3.2
X-13.946 Y-74.552 F600
Y-74.548
X-13.938 Y-73.983
Y-73.979
X-13.928 Y-73.4
Y-73.397
X-13.914 Y-72.805
Y-72.802
X-13.898 Y-72.198
Y-72.195
X-13.88 Y-71.578
Y-71.576
X-13.859 Y-70.947
Y-70.945
X-13.836 Y-70.305
Y-70.303
X-13.812 Y-69.651
Y-69.649
X-13.785 Y-68.986
Y-68.985
X-13.757 Y-68.311
Y-68.31
X-13.727 Y-67.625
Y-67.624
X-13.696 Y-66.929
Y-66.928
X-13.644 Y-65.797
Z-2.3
X-13.631 Y-65.508
X-13.63 Y-65.507
X-13.561 Y-64.049
X-13.489 Y-62.554
X-13.477 Y-62.301
Z-3.2 F300
X-13.416 Y-61.025 F600
X-13.342 Y-59.462
X-13.269 Y-57.868
X-13.198 Y-56.242
X-13.129 Y-54.587
X-13.064 Y-52.903
X-13.003 Y-51.19
X-12.947 Y-49.449
X-12.897 Y-47.68
X-12.853 Y-45.884
X-12.817 Y-44.061
X-12.788 Y-42.212
X-12.767 Y-40.335
X-12.754 Y-38.431
X-12.75 Y-36.499
Y-30.015
X-12.759 Y-29.795
X-12.785 Y-29.566
X-12.83 Y-29.312
X-12.894 Y-29.034
X-12.978 Y-28.735
X-13.08 Y-28.415
X-13.2 Y-28.074
X-13.337 Y-27.716
X-13.489 Y-27.341
X-13.654 Y-26.949
X-13.83 Y-26.543
X-14.017 Y-26.122
X-14.211 Y-25.689
X-14.41 Y-25.245
X-14.412 Y-25.241
X-14.816 Y-24.326
X-14.821 Y-24.314
X-15.22 Y-23.369
X-15.228 Y-23.349
X-15.605 Y-22.379
X-15.613 Y-22.359
X-15.788 Y-21.866
X-15.794 Y-21.85
X-15.958 Y-21.353
X-15.964 Y-21.335
X-16.115 Y-20.834
X-16.121 Y-20.814
X-16.258 Y-20.309
X-16.264 Y-20.287
X-16.385 Y-19.779
X-16.39 Y-19.755
X-16.495 Y-19.245
X-16.5 Y-19.219
X-16.586 Y-18.705
X-16.59 Y-18.678
X-16.657 Y-18.16
X-16.66 Y-18.132
X-16.709 Y-17.61
X-16.711 Y-17.582
X-16.74 Y-17.055
X-16.741 Y-17.027
X-16.75 Y-16.494
Y-16.467
X-16.739 Y-15.928
X-16.738 Y-15.902
X-16.709 Y-15.356
X-16.707 Y-15.331
X-16.658 Y-14.779
X-16.655 Y-14.755
X-16.588 Y-14.197
X-16.585 Y-14.174
X-16.499 Y-13.609
X-16.496 Y-13.588
X-16.393 Y-13.017
X-16.389 Y-12.998
X-16.269 Y-12.421
X-16.265 Y-12.403
X-16.129 Y-11.822
X-16.125 Y-11.805
X-15.974 Y-11.221
X-15.969 Y-11.205
X-15.804 Y-10.619
X-15.799 Y-10.603
X-15.619 Y-10.018
X-15.615 Y-10.003
X-15.422 Y-9.42
X-15.417 Y-9.405
X-15.212 Y-8.827
X-15.207 Y-8.812
X-14.99 Y-8.24
X-14.984 Y-8.225
X-14.757 Y-7.662
X-14.751 Y-7.647
X-14.514 Y-7.095
X-14.507 Y-7.079
X-14.261 Y-6.542
X-14.253 Y-6.525
X-13.999 Y-6.004
X-13.99 Y-5.986
X-13.728 Y-5.483
X-13.718 Y-5.464
X-13.45 Y-4.983
X-13.438 Y-4.962
X-13.164 Y-4.504
X-13.15 Y-4.482
X-12.871 Y-4.05
X-12.855 Y-4.026
X-12.571 Y-3.623
X-12.551 Y-3.596
X-12.264 Y-3.223
X-12.24 Y-3.194
X-11.949 Y-2.853
X-11.92 Y-2.821
X-11.627 Y-2.516
X-11.591 Y-2.481
X-11.296 Y-2.212
X-11.251 Y-2.174
X-10.955 Y-1.943
X-10.914 Y-1.914
X-10.766 Y-1.813
X-10.75 Y-1.803
Z-2.3
X-10.735 Y-1.794
X-10.586 Y-1.703
X-10.552 Y-1.684
X-10.402 Y-1.603
X-10.365 Y-1.585
X-10.215 Y-1.515
X-10.174 Y-1.497
X-10.025 Y-1.438
X-9.98 Y-1.422
X-9.831 Y-1.373
X-9.783 Y-1.36
X-9.633 Y-1.322
X-9.583 Y-1.311
X-9.433 Y-1.284
X-9.381 Y-1.276
X-9.231 Y-1.26
X-9.177 Y-1.256
X-9.027 Y-1.25
X-8.973
X-8.823 Y-1.256
X-8.769 Y-1.26
X-8.619 Y-1.276
X-8.567 Y-1.284
X-8.417 Y-1.311
X-8.367 Y-1.322
X-8.217 Y-1.36
X-8.169 Y-1.373
X-8.02 Y-1.422
X-7.975 Y-1.438
X-7.826 Y-1.497
X-7.785 Y-1.515
X-7.635 Y-1.585
X-7.598 Y-1.603
X-7.448 Y-1.684
X-7.414 Y-1.703
X-7.265 Y-1.794
X-7.25 Y-1.803
Z-3.2 F300
X-7.234 Y-1.813 F600
X-7.086 Y-1.914
X-7.045 Y-1.943
X-6.749 Y-2.174
X-6.704 Y-2.212
X-6.409 Y-2.481
X-6.373 Y-2.516
X-6.08 Y-2.821
X-6.051 Y-2.853
X-5.76 Y-3.194
X-5.736 Y-3.223
X-5.449 Y-3.596
X-5.429 Y-3.623
X-5.145 Y-4.026
X-5.129 Y-4.05
X-4.85 Y-4.482
X-4.836 Y-4.504
X-4.562 Y-4.962
X-4.55 Y-4.983
X-4.282 Y-5.464
X-4.272 Y-5.483
X-4.01 Y-5.986
X-4.001 Y-6.003
X-3.747 Y-6.525
X-3.739 Y-6.542
X-3.493 Y-7.079
X-3.486 Y-7.095
X-3.249 Y-7.647
X-3.243 Y-7.662
X-3.016 Y-8.225
X-3.01 Y-8.24
X-2.793 Y-8.812
X-2.788 Y-8.827
X-2.583 Y-9.405
X-2.578 Y-9.42
X-2.385 Y-10.003
X-2.38 Y-10.018
X-2.201 Y-10.604
X-2.196 Y-10.619
X-2.031 Y-11.205
X-2.026 Y-11.221
X-1.875 Y-11.805
X-1.871 Y-11.822
X-1.735 Y-12.403
X-1.731 Y-12.421
X-1.611 Y-12.998
X-1.607 Y-13.017
X-1.504 Y-13.588
X-1.501 Y-13.609
X-1.415 Y-14.174
X-1.412 Y-14.197
X-1.345 Y-14.755
X-1.342 Y-14.779
X-1.293 Y-15.331
X-1.291 Y-15.356
X-1.262 Y-15.902
X-1.261 Y-15.928
X-1.25 Y-16.467
Y-16.494
X-1.259 Y-17.027
X-1.26 Y-17.055
X-1.289 Y-17.582
X-1.291 Y-17.61
X-1.339 Y-18.132
X-1.343 Y-18.16
X-1.41 Y-18.678
X-1.414 Y-18.705
X-1.5 Y-19.219
X-1.505 Y-19.245
X-1.61 Y-19.755
X-1.615 Y-19.78
X-1.736 Y-20.287
X-1.742 Y-20.309
X-1.879 Y-20.814
X-1.885 Y-20.834
X-2.036 Y-21.335
X-2.042 Y-21.353
X-2.206 Y-21.85
X-2.212 Y-21.866
X-2.387 Y-22.359
X-2.395 Y-22.379
X-2.772 Y-23.349
X-2.78 Y-23.369
X-3.179 Y-24.314
X-3.184 Y-24.326
X-3.588 Y-25.241
X-3.59 Y-25.245
X-3.789 Y-25.689
X-3.983 Y-26.122
X-4.17 Y-26.543
X-4.346 Y-26.949
X-4.511 Y-27.341
X-4.663 Y-27.716
X-4.8 Y-28.074
X-4.92 Y-28.415
X-5.022 Y-28.735
X-5.106 Y-29.034
X-5.17 Y-29.312
X-5.215 Y-29.566
X-5.241 Y-29.795
X-5.25 Y-30.015
Y-36.499
X-5.247 Y-38.144
X-5.238 Y-39.771
X-5.222 Y-41.38
X-5.201 Y-42.972
X-5.173 Y-44.546
X-5.141 Y-46.102
X-5.103 Y-47.641
X-5.06 Y-49.161
X-5.014 Y-50.663
X-4.963 Y-52.146
X-4.909 Y-53.61
X-4.852 Y-55.055
X-4.792 Y-56.479
X-4.731 Y-57.882
X-4.687 Y-58.875
Z-2.3
X-4.669 Y-59.264
X-4.607 Y-60.623
X-4.544 Y-61.958
X-4.525 Y-62.371
Z-3.2 F300
X-4.483 Y-63.269 F600
X-4.423 Y-64.555
X-4.365 Y-65.813
Y-65.814
X-4.31 Y-67.044
Y-67.045
X-4.259 Y-68.245
Y-68.247
X-4.212 Y-69.415
Y-69.418
X-4.171 Y-70.553
Y-70.556
X-4.135 Y-71.657
Y-71.661
X-4.107 Y-72.726
Y-72.731
X-4.086 Y-73.757
Y-73.762
X-4.078 Y-74.26
Y-74.263
X-4.073 Y-74.752
Y-74.755
X-4.07 Y-75.233
Y-75.237
X-4.069 Y-75.704
Y-75.708
X-4.071 Y-76.165
Y-76.169
X-4.076 Y-76.615
Y-76.62
X-4.083 Y-77.054
Y-77.059
X-4.093 Y-77.482
Y-77.487
X-4.105 Y-77.898
X-4.106 Y-77.904
X-4.121 Y-78.288
Y-83.03
G2 X-4.601 Y-84.015 I-1.25 J0
G1 X-8.144 Y-86.783
G2 X-9.899 Y-86.568 I-0.77 J0.985
G1 X-13.308 Y-82.204
X-13.358 Y-82.132
X-13.418 Y-82.033
X-13.459 Y-81.956
X-13.491 Y-81.875
X-13.527 Y-81.764
X-13.551 Y-81.67
X-13.608 Y-81.362
X-13.611 Y-81.343
X-13.663 Y-81.016
X-13.666 Y-81
X-13.713 Y-80.655
X-13.715 Y-80.64
X-13.758 Y-80.278
X-13.759 Y-80.265
X-13.797 Y-79.884
X-13.798 Y-79.873
X-13.831 Y-79.475
X-13.832 Y-79.465
X-13.861 Y-79.05
X-13.862 Y-79.041
X-13.886 Y-78.61
X-13.887 Y-78.601
X-13.907 Y-78.153
Y-78.146
X-13.924 Y-77.682
Y-77.676
X-13.937 Y-77.197
Y-77.19
X-13.945 Y-76.696
X-13.946 Y-76.69
X-13.951 Y-76.181
Y-76.176
X-13.952 Y-75.652
Y-75.647
X-13.951 Y-75.109
Y-75.104
Y-75.088
X-13.946 Y-74.552 Z-3.219 F1016
Y-74.548
X-13.938 Y-73.983 Z-3.239
Y-73.979
X-13.928 Y-73.4 Z-3.259
Y-73.397
X-13.914 Y-72.805 Z-3.28
Y-72.802
X-13.898 Y-72.198 Z-3.301
Y-72.195
X-13.88 Y-71.578 Z-3.323
Y-71.576
X-13.859 Y-70.947 Z-3.345
Y-70.945
X-13.836 Y-70.305 Z-3.367
Y-70.303
X-13.812 Y-69.651 Z-3.39
Y-69.649
X-13.785 Y-68.986 Z-3.413
Y-68.985
X-13.757 Y-68.311 Z-3.437
Y-68.31
X-13.727 Y-67.625 Z-3.461
Y-67.624
X-13.696 Y-66.929 Z-3.485
Y-66.928
X-13.676 Y-66.502 Z-3.5
X-13.644 Y-65.797 F600
Z-2.3
X-13.631 Y-65.508
X-13.63 Y-65.507
X-13.561 Y-64.049
X-13.489 Y-62.554
X-13.477 Y-62.301
Z-3.5 F300
X-13.416 Y-61.025 F600
X-13.342 Y-59.462
X-13.269 Y-57.868
X-13.198 Y-56.242
X-13.129 Y-54.587
X-13.064 Y-52.903
X-13.003 Y-51.19
X-12.947 Y-49.449
X-12.897 Y-47.68
X-12.853 Y-45.884
X-12.817 Y-44.061
X-12.788 Y-42.212
X-12.767 Y-40.335
X-12.754 Y-38.431
X-12.75 Y-36.499
Y-30.015
X-12.759 Y-29.795
X-12.785 Y-29.566
X-12.83 Y-29.312
X-12.894 Y-29.034
X-12.978 Y-28.735
X-13.08 Y-28.415
X-13.2 Y-28.074
X-13.337 Y-27.716
X-13.489 Y-27.341
X-13.654 Y-26.949
X-13.83 Y-26.543
X-14.017 Y-26.122
X-14.211 Y-25.689
X-14.41 Y-25.245
X-14.412 Y-25.241
X-14.816 Y-24.326
X-14.821 Y-24.314
X-15.22 Y-23.369
X-15.228 Y-23.349
X-15.605 Y-22.379
X-15.613 Y-22.359
X-15.788 Y-21.866
X-15.794 Y-21.85
X-15.958 Y-21.353
X-15.964 Y-21.335
X-16.115 Y-20.834
X-16.121 Y-20.814
X-16.258 Y-20.309
X-16.264 Y-20.287
X-16.385 Y-19.779
X-16.39 Y-19.755
X-16.495 Y-19.245
X-16.5 Y-19.219
X-16.586 Y-18.705
X-16.59 Y-18.678
X-16.657 Y-18.16
X-16.66 Y-18.132
X-16.709 Y-17.61
X-16.711 Y-17.582
X-16.74 Y-17.055
X-16.741 Y-17.027
X-16.75 Y-16.494
Y-16.467
X-16.739 Y-15.928
X-16.738 Y-15.902
X-16.709 Y-15.356
X-16.707 Y-15.331
X-16.658 Y-14.779
X-16.655 Y-14.755
X-16.588 Y-14.197
X-16.585 Y-14.174
X-16.499 Y-13.609
X-16.496 Y-13.588
X-16.393 Y-13.017
X-16.389 Y-12.998
X-16.269 Y-12.421
X-16.265 Y-12.403
X-16.129 Y-11.822
X-16.125 Y-11.805
X-15.974 Y-11.221
X-15.969 Y-11.205
X-15.804 Y-10.619
X-15.799 Y-10.603
X-15.619 Y-10.018
X-15.615 Y-10.003
X-15.422 Y-9.42
X-15.417 Y-9.405
X-15.212 Y-8.827
X-15.207 Y-8.812
X-14.99 Y-8.24
X-14.984 Y-8.225
X-14.757 Y-7.662
X-14.751 Y-7.647
X-14.514 Y-7.095
X-14.507 Y-7.079
X-14.261 Y-6.542
X-14.253 Y-6.525
X-13.999 Y-6.004
X-13.99 Y-5.986
X-13.728 Y-5.483
X-13.718 Y-5.464
X-13.45 Y-4.983
X-13.438 Y-4.962
X-13.164 Y-4.504
X-13.15 Y-4.482
X-12.871 Y-4.05
X-12.855 Y-4.026
X-12.571 Y-3.623
X-12.551 Y-3.596
X-12.264 Y-3.223
X-12.24 Y-3.194
X-11.949 Y-2.853
X-11.92 Y-2.821
X-11.627 Y-2.516
X-11.591 Y-2.481
X-11.296 Y-2.212
X-11.251 Y-2.174
X-10.955 Y-1.943
X-10.914 Y-1.914
X-10.766 Y-1.813
X-10.75 Y-1.803
Z-2.3
X-10.735 Y-1.794
X-10.586 Y-1.703
X-10.552 Y-1.684
X-10.402 Y-1.603
X-10.365 Y-1.585
X-10.215 Y-1.515
X-10.174 Y-1.497
X-10.025 Y-1.438
X-9.98 Y-1.422
X-9.831 Y-1.373
X-9.783 Y-1.36
X-9.633 Y-1.322
X-9.583 Y-1.311
X-9.433 Y-1.284
X-9.381 Y-1.276
X-9.231 Y-1.26
X-9.177 Y-1.256
X-9.027 Y-1.25
X-8.973
X-8.823 Y-1.256
X-8.769 Y-1.26
X-8.619 Y-1.276
X-8.567 Y-1.284
X-8.417 Y-1.311
X-8.367 Y-1.322
X-8.217 Y-1.36
X-8.169 Y-1.373
X-8.02 Y-1.422
X-7.975 Y-1.438
X-7.826 Y-1.497
X-7.785 Y-1.515
X-7.635 Y-1.585
X-7.598 Y-1.603
X-7.448 Y-1.684
X-7.414 Y-1.703
X-7.265 Y-1.794
X-7.25 Y-1.803
Z-3.5 F300
X-7.234 Y-1.813 F600
X-7.086 Y-1.914
X-7.045 Y-1.943
X-6.749 Y-2.174
X-6.704 Y-2.212
X-6.409 Y-2.481
X-6.373 Y-2.516
X-6.08 Y-2.821
X-6.051 Y-2.853
X-5.76 Y-3.194
X-5.736 Y-3.223
X-5.449 Y-3.596
X-5.429 Y-3.623
X-5.145 Y-4.026
X-5.129 Y-4.05
X-4.85 Y-4.482
X-4.836 Y-4.504
X-4.562 Y-4.962
X-4.55 Y-4.983
X-4.282 Y-5.464
X-4.272 Y-5.483
X-4.01 Y-5.986
X-4.001 Y-6.003
X-3.747 Y-6.525
X-3.739 Y-6.542
X-3.493 Y-7.079
X-3.486 Y-7.095
X-3.249 Y-7.647
X-3.243 Y-7.662
X-3.016 Y-8.225
X-3.01 Y-8.24
X-2.793 Y-8.812
X-2.788 Y-8.827
X-2.583 Y-9.405
X-2.578 Y-9.42
X-2.385 Y-10.003
X-2.38 Y-10.018
X-2.201 Y-10.604
X-2.196 Y-10.619
X-2.031 Y-11.205
X-2.026 Y-11.221
X-1.875 Y-11.805
X-1.871 Y-11.822
X-1.735 Y-12.403
X-1.731 Y-12.421
X-1.611 Y-12.998
X-1.607 Y-13.017
X-1.504 Y-13.588
X-1.501 Y-13.609
X-1.415 Y-14.174
X-1.412 Y-14.197
X-1.345 Y-14.755
X-1.342 Y-14.779
X-1.293 Y-15.331
X-1.291 Y-15.356
X-1.262 Y-15.902
X-1.261 Y-15.928
X-1.25 Y-16.467
Y-16.494
X-1.259 Y-17.027
X-1.26 Y-17.055
X-1.289 Y-17.582
X-1.291 Y-17.61
X-1.339 Y-18.132
X-1.343 Y-18.16
X-1.41 Y-18.678
X-1.414 Y-18.705
X-1.5 Y-19.219
X-1.505 Y-19.245
X-1.61 Y-19.755
X-1.615 Y-19.78
X-1.736 Y-20.287
X-1.742 Y-20.309
X-1.879 Y-20.814
X-1.885 Y-20.834
X-2.036 Y-21.335
X-2.042 Y-21.353
X-2.206 Y-21.85
X-2.212 Y-21.866
X-2.387 Y-22.359
X-2.395 Y-22.379
X-2.772 Y-23.349
X-2.78 Y-23.369
X-3.179 Y-24.314
X-3.184 Y-24.326
X-3.588 Y-25.241
X-3.59 Y-25.245
X-3.789 Y-25.689
X-3.983 Y-26.122
X-4.17 Y-26.543
X-4.346 Y-26.949
X-4.511 Y-27.341
X-4.663 Y-27.716
X-4.8 Y-28.074
X-4.92 Y-28.415
X-5.022 Y-28.735
X-5.106 Y-29.034
X-5.17 Y-29.312
X-5.215 Y-29.566
X-5.241 Y-29.795
X-5.25 Y-30.015
Y-36.499
X-5.247 Y-38.144
X-5.238 Y-39.771
X-5.222 Y-41.38
X-5.201 Y-42.972
X-5.173 Y-44.546
X-5.141 Y-46.102
X-5.103 Y-47.641
X-5.06 Y-49.161
X-5.014 Y-50.663
X-4.963 Y-52.146
X-4.909 Y-53.61
X-4.852 Y-55.055
X-4.792 Y-56.479
X-4.731 Y-57.882
X-4.687 Y-58.875
Z-2.3
X-4.669 Y-59.264
X-4.607 Y-60.623
X-4.544 Y-61.958
X-4.525 Y-62.371
Z-3.5 F300
X-4.483 Y-63.269 F600
X-4.423 Y-64.555
X-4.365 Y-65.813
Y-65.814
X-4.31 Y-67.044
Y-67.045
X-4.259 Y-68.245
Y-68.247
X-4.212 Y-69.415
Y-69.418
X-4.171 Y-70.553
Y-70.556
X-4.135 Y-71.657
Y-71.661
X-4.107 Y-72.726
Y-72.731
X-4.086 Y-73.757
Y-73.762
X-4.078 Y-74.26
Y-74.263
X-4.073 Y-74.752
Y-74.755
X-4.07 Y-75.233
Y-75.237
X-4.069 Y-75.704
Y-75.708
X-4.071 Y-76.165
Y-76.169
X-4.076 Y-76.615
Y-76.62
X-4.083 Y-77.054
Y-77.059
X-4.093 Y-77.482
Y-77.487
X-4.105 Y-77.898
X-4.106 Y-77.904
X-4.121 Y-78.288
Y-83.03
G2 X-4.601 Y-84.015 I-1.25 J0
G1 X-8.144 Y-86.783
G2 X-9.899 Y-86.568 I-0.77 J0.985
G1 X-13.308 Y-82.204
X-13.358 Y-82.132
X-13.418 Y-82.033
X-13.459 Y-81.956
X-13.491 Y-81.875
X-13.527 Y-81.764
X-13.551 Y-81.67
X-13.608 Y-81.362
X-13.611 Y-81.343
X-13.663 Y-81.016
X-13.666 Y-81
X-13.713 Y-80.655
X-13.715 Y-80.64
X-13.758 Y-80.278
X-13.759 Y-80.265
X-13.797 Y-79.884
X-13.798 Y-79.873
X-13.831 Y-79.475
X-13.832 Y-79.465
X-13.861 Y-79.05
X-13.862 Y-79.041
X-13.886 Y-78.61
X-13.887 Y-78.601
X-13.907 Y-78.153
Y-78.146
X-13.924 Y-77.682
Y-77.676
X-13.937 Y-77.197
Y-77.19
X-13.945 Y-76.696
X-13.946 Y-76.69
X-13.951 Y-76.181
Y-76.176
X-13.952 Y-75.652
Y-75.647
X-13.951 Y-75.109
Y-75.104
X-13.946 Y-74.552
Y-74.548
X-13.938 Y-73.983
Y-73.979
X-13.928 Y-73.4
Y-73.397
X-13.914 Y-72.805
Y-72.802
X-13.898 Y-72.198
Y-72.195
X-13.88 Y-71.578
Y-71.576
X-13.859 Y-70.947
Y-70.945
X-13.836 Y-70.305
Y-70.303
X-13.812 Y-69.651
Y-69.649
X-13.785 Y-68.986
Y-68.985
X-13.757 Y-68.311
Y-68.31
X-13.727 Y-67.625
Y-67.624
X-13.696 Y-66.929
Y-66.928
X-13.676 Y-66.502
G0 Z25

(Bohrfrasen6)
X-20.803 Y-32.145
Z15
Z2
G1 Z0.15 F400
X-20.796 Z0.104
X-20.775 Z0.062
X-20.741 Z0.029
X-20.7 Z0.007
X-20.653 Z0
X-20.578
X-20.532 Y-32.138
X-20.49 Y-32.117
X-20.457 Y-32.083
X-20.436 Y-32.042
X-20.428 Y-31.995
G3 X-22.728 Y-31.995 Z-0.5 I-1.15 J0 F600
X-20.428 Y-31.995 Z-1 I1.15 J0
X-22.728 Y-31.995 Z-1.5 I-1.15 J0
X-20.428 Y-31.995 I1.15 J0
X-22.728 Y-31.995 I-1.15 J0
G1 X-22.721 Y-32.042
X-22.7 Y-32.083
X-22.666 Y-32.117
X-22.625 Y-32.138
X-22.578 Y-32.145
X-22.503
X-22.457 Z-1.493
X-22.415 Z-1.471
X-22.382 Z-1.438
X-22.361 Z-1.396
X-22.353 Z-1.35
G0 Z5
X-27.167 Y-25.781
Z2
G1 Z0.15 F400
X-27.16 Z0.104
X-27.139 Z0.062
X-27.105 Z0.029
X-27.064 Z0.007
X-27.017 Z0
X-26.942
X-26.896 Y-25.774
X-26.854 Y-25.753
X-26.821 Y-25.719
X-26.8 Y-25.678
X-26.792 Y-25.631
G3 X-29.092 Y-25.631 Z-0.5 I-1.15 J0 F600
X-26.792 Y-25.631 Z-1 I1.15 J0
X-29.092 Y-25.631 Z-1.5 I-1.15 J0
X-26.792 Y-25.631 I1.15 J0
X-29.092 Y-25.631 I-1.15 J0
G1 X-29.085 Y-25.678
X-29.064 Y-25.719
X-29.03 Y-25.753
X-28.989 Y-25.774
X-28.942 Y-25.781
X-28.867
X-28.821 Z-1.493
X-28.779 Z-1.471
X-28.746 Z-1.438
X-28.725 Z-1.396
X-28.717 Z-1.35
G0 Z15

(Bohrfrasen4)
X-24.185 Y-19.463
Z15
Z2
G1 Z0.15 F400
X-24.178 Z0.104
X-24.157 Z0.062
X-24.123 Z0.029
X-24.082 Z0.007
X-24.035 Z0
X-23.96
X-23.914 Y-19.456
X-23.872 Y-19.435
X-23.839 Y-19.401
X-23.818 Y-19.36
X-23.81 Y-19.313
G3 X-25.71 Y-19.313 Z-0.3 I-0.95 J0 F600
X-23.81 Y-19.313 Z-0.6 I0.95 J0
X-25.71 Y-19.313 Z-0.9 I-0.95 J0
X-23.81 Y-19.313 Z-1.2 I0.95 J0
X-25.71 Y-19.313 Z-1.5 I-0.95 J0
X-23.81 Y-19.313 Z-1.8 I0.95 J0
X-25.71 Y-19.313 Z-2.1 I-0.95 J0
X-23.81 Y-19.313 Z-2.4 I0.95 J0
X-25.71 Y-19.313 Z-2.7 I-0.95 J0
X-23.81 Y-19.313 Z-3 I0.95 J0
X-25.71 Y-19.313 Z-3.3 I-0.95 J0
X-23.81 Y-19.313 Z-3.6 I0.95 J0
X-25.71 Y-19.313 Z-3.9 I-0.95 J0
X-25.235 Y-20.136 Z-4 I0.95 J0
X-24.285 Y-18.491 I0.475 J0.823
X-25.235 Y-20.136 I-0.475 J-0.823
G1 X-25.191 Y-20.153
X-25.145 Y-20.155
X-25.099 Y-20.143
X-25.06 Y-20.118
X-25.03 Y-20.081
X-24.993 Y-20.016
X-24.97 Y-19.976 Z-3.993
X-24.949 Y-19.94 Z-3.971
X-24.932 Y-19.911 Z-3.938
X-24.921 Y-19.893 Z-3.896
X-24.918 Y-19.886 Z-3.85
G0 Z5
X-27.867 Y-25.781
Z0.5
G1 Z-1.35 F400
X-27.86 Z-1.396
X-27.839 Z-1.438
X-27.805 Z-1.471
X-27.764 Z-1.493
X-27.717 Z-1.5
X-27.642
X-27.596 Y-25.774
X-27.554 Y-25.753
X-27.521 Y-25.719
X-27.5 Y-25.678
X-27.492 Y-25.631
G3 X-28.392 Y-25.631 Z-1.8 I-0.45 J0 F600
X-27.492 Y-25.631 Z-2.1 I0.45 J0
X-28.392 Y-25.631 Z-2.4 I-0.45 J0
X-27.492 Y-25.631 Z-2.7 I0.45 J0
X-28.392 Y-25.631 Z-3 I-0.45 J0
X-27.492 Y-25.631 Z-3.3 I0.45 J0
X-28.392 Y-25.631 Z-3.6 I-0.45 J0
X-27.492 Y-25.631 Z-3.9 I0.45 J0
X-27.717 Y-25.242 Z-4 I-0.45 J0
X-28.167 Y-26.021 I-0.225 J-0.39
X-27.717 Y-25.242 I0.225 J0.39
G1 X-27.761 Y-25.225
X-27.808 Y-25.222
X-27.853 Y-25.234
X-27.893 Y-25.26
X-27.922 Y-25.296
X-27.96 Y-25.361
X-27.983 Y-25.402 Z-3.993
X-28.004 Y-25.438 Z-3.971
X-28.02 Y-25.466 Z-3.938
X-28.031 Y-25.485 Z-3.896
X-28.035 Y-25.491 Z-3.85
G0 Z5
X-20.803 Y-25.781
Z2
G1 Z0.15 F400
X-20.796 Z0.104
X-20.775 Z0.062
X-20.741 Z0.029
X-20.7 Z0.007
X-20.653 Z0
X-20.578
X-20.532 Y-25.774
X-20.49 Y-25.753
X-20.457 Y-25.719
X-20.436 Y-25.678
X-20.428 Y-25.631
G3 X-22.728 Y-25.631 Z-0.3 I-1.15 J0 F600
X-20.428 Y-25.631 Z-0.6 I1.15 J0
X-22.728 Y-25.631 Z-0.9 I-1.15 J0
X-20.428 Y-25.631 Z-1.2 I1.15 J0
X-22.728 Y-25.631 Z-1.5 I-1.15 J0
X-20.428 Y-25.631 Z-1.8 I1.15 J0
X-22.728 Y-25.631 Z-2.1 I-1.15 J0
X-20.428 Y-25.631 Z-2.4 I1.15 J0
X-22.728 Y-25.631 Z-2.7 I-1.15 J0
X-20.428 Y-25.631 Z-3 I1.15 J0
X-22.728 Y-25.631 Z-3.3 I-1.15 J0
X-20.428 Y-25.631 Z-3.6 I1.15 J0
X-22.728 Y-25.631 Z-3.9 I-1.15 J0
X-22.153 Y-26.627 Z-4 I1.15 J0
X-21.003 Y-24.635 I0.575 J0.996
X-22.153 Y-26.627 I-0.575 J-0.996
G1 X-22.109 Y-26.644
X-22.063 Y-26.646
X-22.017 Y-26.634
X-21.978 Y-26.609
X-21.948 Y-26.572
X-21.911 Y-26.507
X-21.888 Y-26.467 Z-3.993
X-21.867 Y-26.431 Z-3.971
X-21.85 Y-26.402 Z-3.938
X-21.84 Y-26.384 Z-3.896
X-21.836 Y-26.377 Z-3.85
G0 Z5
X-23.635 Y-28.963
Z2
G1 Z0.15 F400
X-23.628 Z0.104
X-23.607 Z0.062
X-23.573 Z0.029
X-23.532 Z0.007
X-23.485 Z0
X-23.41
X-23.364 Y-28.956
X-23.322 Y-28.935
X-23.289 Y-28.901
X-23.268 Y-28.86
X-23.26 Y-28.813
G3 X-26.26 Y-28.813 Z-0.3 I-1.5 J0 F600
X-23.26 Y-28.813 Z-0.6 I1.5 J0
X-26.26 Y-28.813 Z-0.9 I-1.5 J0
X-23.26 Y-28.813 Z-1.2 I1.5 J0
X-26.26 Y-28.813 Z-1.5 I-1.5 J0
X-23.26 Y-28.813 Z-1.8 I1.5 J0
X-26.26 Y-28.813 Z-2.1 I-1.5 J0
X-23.26 Y-28.813 Z-2.4 I1.5 J0
X-26.26 Y-28.813 Z-2.7 I-1.5 J0
X-23.26 Y-28.813 Z-3 I1.5 J0
X-26.26 Y-28.813 Z-3.3 I-1.5 J0
X-23.26 Y-28.813 Z-3.6 I1.5 J0
X-26.26 Y-28.813 Z-3.9 I-1.5 J0
X-25.51 Y-30.112 Z-4 I1.5 J0
X-24.01 Y-27.514 I0.75 J1.299
X-25.51 Y-30.112 I-0.75 J-1.299
G1 X-25.466 Y-30.129
X-25.42 Y-30.132
X-25.374 Y-30.119
X-25.335 Y-30.094
X-25.305 Y-30.057
X-25.268 Y-29.992
X-25.245 Y-29.952 Z-3.993
X-25.224 Y-29.916 Z-3.971
X-25.207 Y-29.887 Z-3.938
X-25.196 Y-29.869 Z-3.896
X-25.193 Y-29.863 Z-3.85
G0 Z5
X-27.167 Y-32.145
Z2
G1 Z0.15 F400
X-27.16 Z0.104
X-27.139 Z0.062
X-27.105 Z0.029
X-27.064 Z0.007
X-27.017 Z0
X-26.942
X-26.896 Y-32.138
X-26.854 Y-32.117
X-26.821 Y-32.083
X-26.8 Y-32.042
X-26.792 Y-31.995
G3 X-29.092 Y-31.995 Z-0.3 I-1.15 J0 F600
X-26.792 Y-31.995 Z-0.6 I1.15 J0
X-29.092 Y-31.995 Z-0.9 I-1.15 J0
X-26.792 Y-31.995 Z-1.2 I1.15 J0
X-29.092 Y-31.995 Z-1.5 I-1.15 J0
X-26.792 Y-31.995 Z-1.8 I1.15 J0
X-29.092 Y-31.995 Z-2.1 I-1.15 J0
X-26.792 Y-31.995 Z-2.4 I1.15 J0
X-29.092 Y-31.995 Z-2.7 I-1.15 J0
X-26.792 Y-31.995 Z-3 I1.15 J0
X-29.092 Y-31.995 Z-3.3 I-1.15 J0
X-26.792 Y-31.995 Z-3.6 I1.15 J0
X-29.092 Y-31.995 Z-3.9 I-1.15 J0
X-28.517 Y-32.991 Z-4 I1.15 J0
X-27.367 Y-30.999 I0.575 J0.996
X-28.517 Y-32.991 I-0.575 J-0.996
G1 X-28.473 Y-33.008
X-28.427 Y-33.01
X-28.381 Y-32.998
X-28.342 Y-32.973
X-28.312 Y-32.936
X-28.275 Y-32.871
X-28.252 Y-32.831 Z-3.993
X-28.231 Y-32.795 Z-3.971
X-28.214 Y-32.766 Z-3.938
X-28.203 Y-32.748 Z-3.896
X-28.2 Y-32.741 Z-3.85
G0 Z5
X-21.503 Y-32.145
Z0.5
G1 Z-1.35 F400
X-21.496 Z-1.396
X-21.475 Z-1.438
X-21.441 Z-1.471
X-21.4 Z-1.493
X-21.353 Z-1.5
X-21.278
X-21.232 Y-32.138
X-21.19 Y-32.117
X-21.157 Y-32.083
X-21.136 Y-32.042
X-21.128 Y-31.995
G3 X-22.028 Y-31.995 Z-1.8 I-0.45 J0 F600
X-21.128 Y-31.995 Z-2.1 I0.45 J0
X-22.028 Y-31.995 Z-2.4 I-0.45 J0
X-21.128 Y-31.995 Z-2.7 I0.45 J0
X-22.028 Y-31.995 Z-3 I-0.45 J0
X-21.128 Y-31.995 Z-3.3 I0.45 J0
X-22.028 Y-31.995 Z-3.6 I-0.45 J0
X-21.128 Y-31.995 Z-3.9 I0.45 J0
X-21.353 Y-31.605 Z-4 I-0.45 J0
X-21.803 Y-32.385 I-0.225 J-0.39
X-21.353 Y-31.605 I0.225 J0.39
G1 X-21.397 Y-31.589
X-21.444 Y-31.586
X-21.489 Y-31.598
X-21.529 Y-31.624
X-21.558 Y-31.66
X-21.596 Y-31.725
X-21.619 Y-31.765 Z-3.993
X-21.64 Y-31.802 Z-3.971
X-21.656 Y-31.83 Z-3.938
X-21.667 Y-31.849 Z-3.896
X-21.671 Y-31.855 Z-3.85
G0 Z5
X-24.185 Y-38.463
Z2
G1 Z0.15 F400
X-24.178 Z0.104
X-24.157 Z0.062
X-24.123 Z0.029
X-24.082 Z0.007
X-24.035 Z0
X-23.96
X-23.914 Y-38.456
X-23.872 Y-38.435
X-23.839 Y-38.401
X-23.818 Y-38.36
X-23.81 Y-38.313
G3 X-25.71 Y-38.313 Z-0.3 I-0.95 J0 F600
X-23.81 Y-38.313 Z-0.6 I0.95 J0
X-25.71 Y-38.313 Z-0.9 I-0.95 J0
X-23.81 Y-38.313 Z-1.2 I0.95 J0
X-25.71 Y-38.313 Z-1.5 I-0.95 J0
X-23.81 Y-38.313 Z-1.8 I0.95 J0
X-25.71 Y-38.313 Z-2.1 I-0.95 J0
X-23.81 Y-38.313 Z-2.4 I0.95 J0
X-25.71 Y-38.313 Z-2.7 I-0.95 J0
X-23.81 Y-38.313 Z-3 I0.95 J0
X-25.71 Y-38.313 Z-3.3 I-0.95 J0
X-23.81 Y-38.313 Z-3.6 I0.95 J0
X-25.71 Y-38.313 Z-3.9 I-0.95 J0
X-25.235 Y-39.136 Z-4 I0.95 J0
X-24.285 Y-37.491 I0.475 J0.823
X-25.235 Y-39.136 I-0.475 J-0.823
G1 X-25.191 Y-39.153
X-25.145 Y-39.155
X-25.099 Y-39.143
