(1001)
G90 G94
G17
G21
(When using Fusion 360 for Personal Use, the feedrate of)
(rapid moves is reduced to match the feedrate of cutting)
(moves, which can increase machining time. Unrestricted rapid)
(moves are available with a Fusion 360 Subscription.)

(Bohrfrasen7)
S6000 M3
G54
G0 X-6.443 Y-26.168
Z15
G1 Z2 F600
Z0.15 F400
X-6.45 Z0.104
X-6.472 Z0.062
X-6.505 Z0.029
X-6.547 Z0.007
X-6.593 Z0
X-6.668
X-6.714 Y-26.175
X-6.756 Y-26.197
X-6.789 Y-26.23
X-6.811 Y-26.272
X-6.818 Y-26.318
G3 X-4.818 Y-26.318 Z-0.5 I1 J0 F600
X-6.818 Y-26.318 Z-1 I-1 J0
X-4.818 Y-26.318 Z-1.5 I1 J0
X-6.818 Y-26.318 I-1 J0
X-4.818 Y-26.318 I1 J0
G1 X-4.825 Y-26.272
X-4.847 Y-26.23
X-4.88 Y-26.197
X-4.922 Y-26.175
X-4.968 Y-26.168
X-5.043
X-5.089 Z-1.493
X-5.131 Z-1.471
X-5.164 Z-1.438
X-5.186 Z-1.396
X-5.193 Z-1.35
Z5
X-12.807 Y-32.532
Z2
Z0.15 F400
X-12.814 Z0.104
X-12.836 Z0.062
X-12.869 Z0.029
X-12.911 Z0.007
X-12.957 Z0
X-13.032
X-13.078 Y-32.539
X-13.12 Y-32.561
X-13.153 Y-32.594
X-13.175 Y-32.636
X-13.182 Y-32.682
G3 X-11.182 Y-32.682 Z-0.5 I1 J0 F600
X-13.182 Y-32.682 Z-1 I-1 J0
X-11.182 Y-32.682 Z-1.5 I1 J0
X-13.182 Y-32.682 I-1 J0
X-11.182 Y-32.682 I1 J0
G1 X-11.189 Y-32.636
X-11.211 Y-32.594
X-11.244 Y-32.561
X-11.286 Y-32.539
X-11.332 Y-32.532
X-11.407
X-11.453 Z-1.493
X-11.495 Z-1.471
X-11.528 Z-1.438
X-11.55 Z-1.396
X-11.557 Z-1.35
Z15
(When using Fusion 360 for Personal Use, the feedrate of)
(rapid moves is reduced to match the feedrate of cutting)
(moves, which can increase machining time. Unrestricted rapid)
(moves are available with a Fusion 360 Subscription.)

(Bohrfrasen5)
G0 X-9.425 Y-19.85
G1 Z15 F600
Z2
Z0.15 F400
X-9.432 Z0.104
X-9.454 Z0.062
X-9.487 Z0.029
X-9.529 Z0.007
X-9.575 Z0
X-9.65
X-9.696 Y-19.857
X-9.738 Y-19.879
X-9.771 Y-19.912
X-9.793 Y-19.954
X-9.8 Y-20
G3 X-8.2 Y-20 Z-0.5 I0.8 J0 F600
X-9.8 Y-20 Z-1 I-0.8 J0
X-8.2 Y-20 Z-1.5 I0.8 J0
X-9.8 Y-20 Z-2 I-0.8 J0
X-8.2 Y-20 Z-2.5 I0.8 J0
X-9.8 Y-20 Z-3 I-0.8 J0
X-8.2 Y-20 I0.8 J0
X-9.8 Y-20 I-0.8 J0
G1 X-9.793 Y-20.046
X-9.771 Y-20.088
X-9.738 Y-20.121
X-9.696 Y-20.143
X-9.65 Y-20.15
X-9.575
X-9.529 Z-2.993
X-9.487 Z-2.971
X-9.454 Z-2.938
X-9.432 Z-2.896
X-9.425 Z-2.85
Z5
X-5.793 Y-26.168
Z0.5
Z-1.35 F400
X-5.8 Z-1.396
X-5.822 Z-1.438
X-5.855 Z-1.471
X-5.897 Z-1.493
X-5.943 Z-1.5
X-6.018
X-6.064 Y-26.175
X-6.106 Y-26.197
X-6.139 Y-26.23
X-6.161 Y-26.272
X-6.168 Y-26.318
G3 X-5.468 Y-26.318 Z-2 I0.35 J0 F600
X-6.168 Y-26.318 Z-2.5 I-0.35 J0
X-5.468 Y-26.318 Z-3 I0.35 J0
X-6.168 Y-26.318 I-0.35 J0
X-5.468 Y-26.318 I0.35 J0
G1 X-5.475 Y-26.272
X-5.497 Y-26.23
X-5.53 Y-26.197
X-5.572 Y-26.175
X-5.618 Y-26.168
X-5.693
X-5.739 Z-2.993
X-5.781 Z-2.971
X-5.814 Z-2.938
X-5.836 Z-2.896
X-5.843 Z-2.85
Z5
X-12.757
Z2
Z0.15 F400
X-12.764 Z0.104
X-12.786 Z0.062
X-12.819 Z0.029
X-12.861 Z0.007
X-12.907 Z0
X-12.982
X-13.028 Y-26.175
X-13.07 Y-26.197
X-13.103 Y-26.23
X-13.125 Y-26.272
X-13.132 Y-26.318
G3 X-11.232 Y-26.318 Z-0.5 I0.95 J0 F600
X-13.132 Y-26.318 Z-1 I-0.95 J0
X-11.232 Y-26.318 Z-1.5 I0.95 J0
X-13.132 Y-26.318 Z-2 I-0.95 J0
X-11.232 Y-26.318 Z-2.5 I0.95 J0
X-13.132 Y-26.318 Z-3 I-0.95 J0
X-11.232 Y-26.318 I0.95 J0
X-13.132 Y-26.318 I-0.95 J0
G1 X-13.125 Y-26.364
X-13.103 Y-26.406
X-13.07 Y-26.439
X-13.028 Y-26.461
X-12.982 Y-26.468
X-12.907
X-12.861 Z-2.993
X-12.819 Z-2.971
X-12.786 Z-2.938
X-12.764 Z-2.896
X-12.757 Z-2.85
Z5
X-10.575 Y-29.35
Z2
Z0.15 F400
X-10.582 Z0.104
X-10.604 Z0.062
X-10.637 Z0.029
X-10.679 Z0.007
X-10.725 Z0
X-10.8
X-10.846 Y-29.357
X-10.888 Y-29.379
X-10.921 Y-29.412
X-10.943 Y-29.454
X-10.95 Y-29.5
G3 X-7.05 Y-29.5 Z-0.5 I1.95 J0 F600
X-10.95 Y-29.5 Z-1 I-1.95 J0
X-7.05 Y-29.5 Z-1.5 I1.95 J0
X-10.95 Y-29.5 Z-2 I-1.95 J0
X-7.05 Y-29.5 Z-2.5 I1.95 J0
X-10.95 Y-29.5 Z-3 I-1.95 J0
X-7.05 Y-29.5 I1.95 J0
X-10.95 Y-29.5 I-1.95 J0
G1 X-10.943 Y-29.546
X-10.921 Y-29.588
X-10.888 Y-29.621
X-10.846 Y-29.643
X-10.8 Y-29.65
X-10.725
X-10.679 Z-2.993
X-10.637 Z-2.971
X-10.604 Z-2.938
X-10.582 Z-2.896
X-10.575 Z-2.85
Z5
X-6.393 Y-32.532
Z2
Z0.15 F400
X-6.4 Z0.104
X-6.422 Z0.062
X-6.455 Z0.029
X-6.497 Z0.007
X-6.543 Z0
X-6.618
X-6.664 Y-32.539
X-6.706 Y-32.561
X-6.739 Y-32.594
X-6.761 Y-32.636
X-6.768 Y-32.682
G3 X-4.868 Y-32.682 Z-0.5 I0.95 J0 F600
X-6.768 Y-32.682 Z-1 I-0.95 J0
X-4.868 Y-32.682 Z-1.5 I0.95 J0
X-6.768 Y-32.682 Z-2 I-0.95 J0
X-4.868 Y-32.682 Z-2.5 I0.95 J0
X-6.768 Y-32.682 Z-3 I-0.95 J0
X-4.868 Y-32.682 I0.95 J0
X-6.768 Y-32.682 I-0.95 J0
G1 X-6.761 Y-32.728
X-6.739 Y-32.77
X-6.706 Y-32.803
X-6.664 Y-32.825
X-6.618 Y-32.832
X-6.543
X-6.497 Z-2.993
X-6.455 Z-2.971
X-6.422 Z-2.938
X-6.4 Z-2.896
X-6.393 Z-2.85
Z5
X-12.157 Y-32.532
Z0.5
Z-1.35 F400
X-12.164 Z-1.396
X-12.186 Z-1.438
X-12.219 Z-1.471
X-12.261 Z-1.493
X-12.307 Z-1.5
X-12.382
X-12.428 Y-32.539
X-12.47 Y-32.561
X-12.503 Y-32.594
X-12.525 Y-32.636
X-12.532 Y-32.682
G3 X-11.832 Y-32.682 Z-2 I0.35 J0 F600
X-12.532 Y-32.682 Z-2.5 I-0.35 J0
X-11.832 Y-32.682 Z-3 I0.35 J0
X-12.532 Y-32.682 I-0.35 J0
X-11.832 Y-32.682 I0.35 J0
G1 X-11.839 Y-32.636
X-11.861 Y-32.594
X-11.894 Y-32.561
X-11.936 Y-32.539
X-11.982 Y-32.532
X-12.057
X-12.103 Z-2.993
X-12.145 Z-2.971
X-12.178 Z-2.938
X-12.2 Z-2.896
X-12.207 Z-2.85
Z5
X-9.425 Y-38.85
Z2
Z0.15 F400
X-9.432 Z0.104
X-9.454 Z0.062
X-9.487 Z0.029
X-9.529 Z0.007
X-9.575 Z0
X-9.65
X-9.696 Y-38.857
X-9.738 Y-38.879
X-9.771 Y-38.912
X-9.793 Y-38.954
X-9.8 Y-39
G3 X-8.2 Y-39 Z-0.5 I0.8 J0 F600
X-9.8 Y-39 Z-1 I-0.8 J0
X-8.2 Y-39 Z-1.5 I0.8 J0
X-9.8 Y-39 Z-2 I-0.8 J0
X-8.2 Y-39 Z-2.5 I0.8 J0
X-9.8 Y-39 Z-3 I-0.8 J0
X-8.2 Y-39 I0.8 J0
X-9.8 Y-39 I-0.8 J0
G1 X-9.793 Y-39.046
X-9.771 Y-39.088
X-9.738 Y-39.121
X-9.696 Y-39.143
X-9.65 Y-39.15
X-9.575
X-9.529 Z-2.993
X-9.487 Z-2.971
X-9.454 Z-2.938
X-9.432 Z-2.896
X-9.425 Z-2.85
Z5
Y-74.61
Z2
Z0.15 F400
X-9.432 Z0.104
X-9.454 Z0.062
X-9.487 Z0.029
X-9.529 Z0.007
X-9.575 Z0
X-9.65
X-9.696 Y-74.618
X-9.738 Y-74.639
X-9.771 Y-74.672
X-9.793 Y-74.714
X-9.8 Y-74.76
G3 X-8.2 Y-74.76 Z-0.5 I0.8 J0 F600
X-9.8 Y-74.76 Z-1 I-0.8 J0
X-8.2 Y-74.76 Z-1.5 I0.8 J0
X-9.8 Y-74.76 Z-2 I-0.8 J0
X-8.2 Y-74.76 Z-2.5 I0.8 J0
X-9.8 Y-74.76 Z-3 I-0.8 J0
X-8.2 Y-74.76 I0.8 J0
X-9.8 Y-74.76 I-0.8 J0
G1 X-9.793 Y-74.807
X-9.771 Y-74.848
X-9.738 Y-74.882
X-9.696 Y-74.903
X-9.65 Y-74.91
X-9.575
X-9.529 Z-2.993
X-9.487 Z-2.971
X-9.454 Z-2.938
X-9.432 Z-2.896
X-9.425 Z-2.85
Z5
X-10.698 Y-83.313
Z2
Z0.15 F400
X-10.706 Z0.104
X-10.727 Z0.062
X-10.76 Z0.029
X-10.802 Z0.007
X-10.848 Z0
X-10.923
X-10.97 Y-83.321
X-11.012 Y-83.342
X-11.045 Y-83.375
X-11.066 Y-83.417
X-11.073 Y-83.463
G3 X-10.373 Y-83.463 Z-0.5 I0.35 J0 F600
X-11.073 Y-83.463 Z-1 I-0.35 J0
X-10.373 Y-83.463 Z-1.5 I0.35 J0
X-11.073 Y-83.463 Z-2 I-0.35 J0
X-10.373 Y-83.463 Z-2.5 I0.35 J0
X-11.073 Y-83.463 Z-3 I-0.35 J0
X-10.373 Y-83.463 I0.35 J0
X-11.073 Y-83.463 I-0.35 J0
G1 X-11.066 Y-83.51
X-11.045 Y-83.551
X-11.012 Y-83.585
X-10.97 Y-83.606
X-10.923 Y-83.613
X-10.848
X-10.802 Z-2.993
X-10.76 Z-2.971
X-10.727 Z-2.938
X-10.706 Z-2.896
X-10.698 Z-2.85
Z15
(When using Fusion 360 for Personal Use, the feedrate of)
(rapid moves is reduced to match the feedrate of cutting)
(moves, which can increase machining time. Unrestricted rapid)
(moves are available with a Fusion 360 Subscription.)

(2D-Kontur7)
G0 X-12.804 Y-70.474
G1 Z15 F600
Z5
Z2.5 F300
X-12.789 Y-70.205 Z2.491 F1016
X-12.747 Y-69.443 Z2.464
X-12.707 Y-68.664 Z2.437
X-12.668 Y-67.867 Z2.409
X-12.631 Y-67.051 Z2.38
X-12.594 Y-66.217 Z2.351
X-12.559 Y-65.364 Z2.321
X-12.526 Y-64.492 Z2.291
X-12.494 Y-63.601 Z2.26
X-12.464 Y-62.689 Z2.228
X-12.436 Y-61.758 Z2.195
X-12.409 Y-60.806 Z2.162
X-12.384 Y-59.833 Z2.128
X-12.361 Y-58.84 Z2.093
X-12.341 Y-57.825 Z2.058
X-12.322 Y-56.789 Z2.022
X-12.305 Y-55.731 Z1.985
X-12.291 Y-54.651 Z1.947
X-12.278 Y-53.55 Z1.909
X-12.268 Y-52.426 Z1.869
X-12.26 Y-51.28 Z1.829
X-12.255 Y-50.112 Z1.789
X-12.251 Y-48.921 Z1.747
X-12.25 Y-47.708 Z1.705
Y-44.016 Z1.576
X-12.26 Y-43.781 Z1.568
X-12.288 Y-43.536 Z1.559
X-12.338 Y-43.266 Z1.549
X-12.408 Y-42.972 Z1.539
X-12.5 Y-42.654 Z1.527
X-12.612 Y-42.314 Z1.515
X-12.744 Y-41.954 Z1.501
X-12.893 Y-41.575 Z1.487
X-13.06 Y-41.178 Z1.472
X-13.241 Y-40.764 Z1.456
X-13.435 Y-40.335 Z1.44
X-13.639 Y-39.891 Z1.423
X-13.852 Y-39.434 Z1.405
X-14.072 Y-38.966 Z1.387
X-14.073 Y-38.963
X-14.52 Y-37.998 Z1.35
X-14.525 Y-37.987 Z1.349
X-14.968 Y-36.992 Z1.311
X-14.976 Y-36.973
X-15.397 Y-35.953 Z1.272
X-15.405 Y-35.934 Z1.271
X-15.602 Y-35.417 Z1.252
X-15.608 Y-35.401
X-15.794 Y-34.88 Z1.232
X-15.8 Y-34.862
X-15.972 Y-34.337 Z1.212
X-15.978 Y-34.317
X-16.136 Y-33.79 Z1.192
X-16.142 Y-33.768 Z1.191
X-16.283 Y-33.238 Z1.172
X-16.289 Y-33.214 Z1.171
X-16.412 Y-32.681 Z1.152
X-16.417 Y-32.655 Z1.151
X-16.521 Y-32.12 Z1.132
X-16.526 Y-32.093 Z1.131
X-16.61 Y-31.555 Z1.112
X-16.613 Y-31.526 Z1.111
X-16.677 Y-30.985 Z1.092
X-16.68 Y-30.956 Z1.091
X-16.723 Y-30.411 Z1.072
X-16.724 Y-30.382 Z1.071
X-16.746 Y-29.832 Z1.052
X-16.747 Y-29.804 Z1.051
X-16.748 Y-29.249 Z1.032
X-16.747 Y-29.221 Z1.031
X-16.728 Y-28.661 Z1.011
X-16.726 Y-28.634 Z1.01
X-16.686 Y-28.068 Z0.99
X-16.684 Y-28.043
X-16.624 Y-27.471 Z0.969
X-16.621 Y-27.447
X-16.542 Y-26.869 Z0.948
X-16.539 Y-26.847 Z0.947
X-16.442 Y-26.264 Z0.927
X-16.438 Y-26.244 Z0.926
X-16.323 Y-25.655 Z0.905
X-16.319 Y-25.636 Z0.904
X-16.187 Y-25.044 Z0.883
X-16.183 Y-25.026
X-16.035 Y-24.43 Z0.861
X-16.031 Y-24.413
X-15.867 Y-23.816 Z0.839
X-15.863 Y-23.8 Z0.838
X-15.685 Y-23.204 Z0.817
X-15.68 Y-23.188 Z0.816
X-15.489 Y-22.593 Z0.794
X-15.484 Y-22.578
X-15.28 Y-21.988 Z0.772
X-15.274 Y-21.973 Z0.771
X-15.058 Y-21.389 Z0.75
X-15.052 Y-21.374 Z0.749
X-14.825 Y-20.8 Z0.727
X-14.818 Y-20.784
X-14.581 Y-20.221 Z0.706
X-14.574 Y-20.205 Z0.705
X-14.326 Y-19.656 Z0.684
X-14.319 Y-19.639 Z0.683
X-14.063 Y-19.106 Z0.663
X-14.054 Y-19.089 Z0.662
X-13.79 Y-18.575 Z0.642
X-13.78 Y-18.556 Z0.641
X-13.509 Y-18.064 Z0.621
X-13.497 Y-18.044
X-13.22 Y-17.575 Z0.602
X-13.207 Y-17.553 Z0.601
X-12.924 Y-17.111 Z0.582
X-12.908 Y-17.087 Z0.581
X-12.62 Y-16.674 Z0.564
X-12.601 Y-16.648 Z0.563
X-12.31 Y-16.266 Z0.546
X-12.286 Y-16.237 Z0.545
X-11.991 Y-15.888 Z0.529
X-11.962 Y-15.856 Z0.527
X-11.665 Y-15.543 Z0.512
X-11.629 Y-15.508 Z0.51
X-11.329 Y-15.232 Z0.496
X-11.297 Y-15.204 Z0.495
X-11.146 Y-15.081 Z0.488
X-11.121 Y-15.061 Z0.487
X-10.97 Y-14.948 Z0.48
X-10.943 Y-14.928 Z0.479
X-10.791 Y-14.825 Z0.472
X-10.76 Y-14.805 Z0.471
X-10.609 Y-14.713 Z0.465
X-10.574 Y-14.693 Z0.464
X-10.423 Y-14.611 Z0.458
X-10.385 Y-14.592 Z0.456
X-10.233 Y-14.521 Z0.45
X-10.192 Y-14.502 Z0.449
X-10.04 Y-14.442 Z0.443
X-9.995 Y-14.426 Z0.441
X-9.843 Y-14.376 Z0.436
X-9.795 Y-14.362 Z0.434
X-9.643 Y-14.323 Z0.428
X-9.592 Y-14.312 Z0.427
X-9.44 Y-14.284 Z0.421
X-9.386 Y-14.277 Z0.419
X-9.234 Y-14.26 Z0.414
X-9.18 Y-14.256 Z0.412
X-9.028 Y-14.251 Z0.407
X-8.972 Z0.405
X-8.82 Y-14.256 Z0.4
X-8.766 Y-14.26 Z0.398
X-8.614 Y-14.277 Z0.392
X-8.56 Y-14.284 Z0.39
X-8.408 Y-14.312 Z0.385
X-8.357 Y-14.323 Z0.383
X-8.205 Y-14.362 Z0.378
X-8.157 Y-14.376 Z0.376
X-8.005 Y-14.426 Z0.37
X-7.96 Y-14.442 Z0.369
X-7.808 Y-14.502 Z0.363
X-7.767 Y-14.521 Z0.361
X-7.615 Y-14.592 Z0.356
X-7.577 Y-14.611 Z0.354
X-7.426 Y-14.693 Z0.348
X-7.391 Y-14.713 Z0.347
X-7.24 Y-14.805 Z0.34
X-7.209 Y-14.825 Z0.339
X-7.057 Y-14.928 Z0.333
X-7.03 Y-14.948 Z0.332
X-6.879 Y-15.061 Z0.325
X-6.854 Y-15.081 Z0.324
X-6.703 Y-15.204 Z0.317
X-6.671 Y-15.232 Z0.316
X-6.371 Y-15.508 Z0.301
X-6.335 Y-15.543 Z0.3
X-6.038 Y-15.856 Z0.285
X-6.009 Y-15.888 Z0.283
X-5.714 Y-16.237 Z0.267
X-5.69 Y-16.266 Z0.266
X-5.399 Y-16.648 Z0.249
X-5.38 Y-16.674 Z0.248
X-5.092 Y-17.087 Z0.23
X-5.076 Y-17.111 Z0.229
X-4.793 Y-17.553 Z0.211
X-4.78 Y-17.575 Z0.21
X-4.503 Y-18.044 Z0.191
X-4.491 Y-18.064 Z0.19
X-4.22 Y-18.556 Z0.171
X-4.21 Y-18.575 Z0.17
X-3.946 Y-19.089 Z0.15
X-3.937 Y-19.106 Z0.149
X-3.681 Y-19.639 Z0.128
X-3.674 Y-19.656
X-3.426 Y-20.205 Z0.107
X-3.419 Y-20.221 Z0.106
X-3.182 Y-20.784 Z0.085
X-3.175 Y-20.8 Z0.084
X-2.948 Y-21.374 Z0.063
X-2.942 Y-21.389 Z0.062
X-2.726 Y-21.973 Z0.04
X-2.72 Y-21.988
X-2.516 Y-22.578 Z0.018
X-2.511 Y-22.593 Z0.017
X-2.32 Y-23.188 Z-0.004
X-2.315 Y-23.204 Z-0.005
X-2.137 Y-23.8 Z-0.027
X-2.133 Y-23.816
X-1.969 Y-24.413 Z-0.049
X-1.965 Y-24.43 Z-0.05
X-1.817 Y-25.026 Z-0.071
X-1.813 Y-25.044 Z-0.072
X-1.681 Y-25.636 Z-0.093
X-1.677 Y-25.655 Z-0.094
X-1.562 Y-26.243 Z-0.114
X-1.558 Y-26.264 Z-0.115
X-1.461 Y-26.847 Z-0.136
X-1.458 Y-26.869 Z-0.137
X-1.379 Y-27.447 Z-0.157
X-1.376 Y-27.471 Z-0.158
X-1.316 Y-28.043 Z-0.178
X-1.314 Y-28.068 Z-0.179
X-1.274 Y-28.634 Z-0.199
X-1.272 Y-28.661 Z-0.2
X-1.253 Y-29.221 Z-0.219
X-1.252 Y-29.249 Z-0.22
X-1.253 Y-29.804 Z-0.239
X-1.254 Y-29.832 Z-0.24
X-1.276 Y-30.382 Z-0.26
X-1.277 Y-30.411 Z-0.261
X-1.32 Y-30.956 Z-0.28
X-1.323 Y-30.985 Z-0.281
X-1.387 Y-31.526 Z-0.3
Y-31.531
X-1.39 Y-31.555 F600
X-1.474 Y-32.093
X-1.479 Y-32.12
X-1.583 Y-32.655
X-1.588 Y-32.681
X-1.711 Y-33.214
X-1.717 Y-33.238
X-1.858 Y-33.768
X-1.864 Y-33.79
X-2.022 Y-34.317
X-2.028 Y-34.337
X-2.2 Y-34.862
X-2.206 Y-34.88
X-2.392 Y-35.401
X-2.398 Y-35.417
X-2.595 Y-35.934
X-2.603 Y-35.953
X-3.024 Y-36.973
X-3.032 Y-36.992
X-3.475 Y-37.987
X-3.48 Y-37.998
X-3.927 Y-38.963
X-3.928 Y-38.966
X-4.148 Y-39.434
X-4.361 Y-39.891
X-4.565 Y-40.335
X-4.759 Y-40.764
X-4.94 Y-41.178
X-5.107 Y-41.575
X-5.256 Y-41.954
X-5.388 Y-42.314
X-5.5 Y-42.654
X-5.592 Y-42.972
X-5.662 Y-43.266
X-5.712 Y-43.536
X-5.74 Y-43.781
X-5.75 Y-44.016
Y-47.708
X-5.749 Y-49.107
X-5.744 Y-50.476
X-5.737 Y-51.814
X-5.726 Y-53.123
X-5.713 Y-54.402
X-5.697 Y-55.651
X-5.678 Y-56.871
X-5.656 Y-58.062
X-5.632 Y-59.224
X-5.605 Y-60.358
X-5.576 Y-61.464
X-5.544 Y-62.542
X-5.51 Y-63.593
X-5.473 Y-64.617
X-5.435 Y-65.615
X-5.394 Y-66.588
X-5.352 Y-67.535
X-5.308 Y-68.457
X-5.262 Y-69.356
X-5.215 Y-70.23
X-5.167 Y-71.081
X-5.117 Y-71.91
X-5.066 Y-72.716
X-5.015 Y-73.501
X-4.963 Y-74.264
X-4.91 Y-75.008
X-4.857 Y-75.731
X-4.803 Y-76.434
X-4.75 Y-77.119
X-4.696 Y-77.785
X-4.643 Y-78.433
X-4.591 Y-79.064
X-4.539 Y-79.678
X-4.488 Y-80.276
X-4.438 Y-80.858
X-4.389 Y-81.424
X-4.341 Y-81.975
X-4.296 Y-82.511
X-4.252 Y-83.034
X-4.251 Y-83.035
X-4.21 Y-83.543
X-4.209 Y-83.544
X-4.17 Y-84.038
X-4.169 Y-84.04
X-4.132 Y-84.521
Y-84.524
X-4.097 Y-84.992
Y-84.995
X-4.065 Y-85.45
Y-85.454
X-4.036 Y-85.897
Y-85.901
X-4.01 Y-86.333
Y-86.338
X-3.988 Y-86.757
Y-86.763
X-3.969 Y-87.172
Y-87.178
X-3.954 Y-87.576
Y-87.583
X-3.944 Y-87.97
X-3.943 Y-87.978
X-3.937 Y-88.355
Y-88.363
X-3.935 Y-88.73
Y-88.74
X-3.938 Y-89.096
Y-89.107
X-3.946 Y-89.454
Y-89.466
X-3.959 Y-89.804
Y-89.816
X-3.977 Y-90.145
X-3.978 Y-90.159
X-4.001 Y-90.478
X-4.003 Y-90.493
X-4.032 Y-90.804
X-4.033 Y-90.82
X-4.068 Y-91.122
X-4.07 Y-91.139
X-4.111 Y-91.432
X-4.114 Y-91.451
X-4.161 Y-91.736
X-4.164 Y-91.756
X-4.218 Y-92.033
X-4.222 Y-92.054
X-4.282 Y-92.322
X-4.287 Y-92.345
X-4.354 Y-92.605
X-4.38 Y-92.687
X-4.415 Y-92.78
X-4.445 Y-92.848
X-4.482 Y-92.913
X-4.535 Y-92.997
X-4.578 Y-93.058
X-8.101 Y-97.568
G2 X-9.856 Y-97.783 I-0.985 J0.77
G1 X-13.502 Y-94.934
G2 X-13.983 Y-93.949 I0.77 J0.985
G1 Y-90.213
X-14.013 Y-89.642
X-14.014 Y-89.621
X-14.03 Y-88.999
Y-88.982
X-14.031 Y-88.33
Y-88.315
X-14.018 Y-87.631
Y-87.618
X-13.992 Y-86.902
Y-86.891
X-13.955 Y-86.14
Y-86.132
X-13.908 Y-85.345
X-13.907 Y-85.338
X-13.851 Y-84.513
X-13.85 Y-84.51
X-13.819 Y-84.083
Y-84.08
X-13.785 Y-83.643
Y-83.642
X-13.75 Y-83.194
Y-83.193
X-13.713 Y-82.735
Y-82.734
X-13.675 Y-82.265
X-13.635 Y-81.785
X-13.594 Y-81.293
X-13.552 Y-80.791
X-13.509 Y-80.276
X-13.465 Y-79.75
X-13.421 Y-79.211
X-13.375 Y-78.66
X-13.33 Y-78.096
X-13.284 Y-77.519
X-13.238 Y-76.928
X-13.191 Y-76.324
X-13.145 Y-75.705
X-13.099 Y-75.072
X-13.053 Y-74.424
X-13.007 Y-73.761
X-12.962 Y-73.082
X-12.918 Y-72.387
X-12.874 Y-71.676
X-12.831 Y-70.949
X-12.789 Y-70.205
X-12.747 Y-69.443
X-12.707 Y-68.664
X-12.668 Y-67.867
X-12.631 Y-67.051
X-12.594 Y-66.217
X-12.559 Y-65.364
X-12.526 Y-64.492
X-12.494 Y-63.601
X-12.464 Y-62.689
X-12.436 Y-61.758
X-12.409 Y-60.806
X-12.384 Y-59.833
X-12.361 Y-58.84
X-12.341 Y-57.825
X-12.322 Y-56.789
X-12.305 Y-55.731
X-12.291 Y-54.651
X-12.278 Y-53.55
X-12.268 Y-52.426
X-12.26 Y-51.28
X-12.255 Y-50.112
X-12.251 Y-48.921
X-12.25 Y-47.708
Y-44.016
X-12.26 Y-43.781
X-12.288 Y-43.536
X-12.338 Y-43.266
X-12.408 Y-42.972
X-12.5 Y-42.654
X-12.612 Y-42.314
X-12.744 Y-41.954
X-12.893 Y-41.575
X-13.06 Y-41.178
X-13.241 Y-40.764
X-13.435 Y-40.335
X-13.639 Y-39.891
X-13.852 Y-39.434
X-14.072 Y-38.966
X-14.073 Y-38.963
X-14.52 Y-37.998
X-14.525 Y-37.987
X-14.968 Y-36.992
X-14.976 Y-36.973
X-15.397 Y-35.953
X-15.405 Y-35.934
X-15.602 Y-35.417
X-15.608 Y-35.401
X-15.794 Y-34.88
X-15.8 Y-34.862
X-15.972 Y-34.337
X-15.978 Y-34.317
X-16.136 Y-33.79
X-16.142 Y-33.768
X-16.283 Y-33.238
X-16.289 Y-33.214
X-16.412 Y-32.681
X-16.417 Y-32.655
X-16.521 Y-32.12
X-16.526 Y-32.093
X-16.61 Y-31.555
X-16.613 Y-31.526
X-16.677 Y-30.985
X-16.68 Y-30.956
X-16.723 Y-30.411
X-16.724 Y-30.382
X-16.746 Y-29.832
X-16.747 Y-29.804
X-16.748 Y-29.249
X-16.747 Y-29.221
X-16.728 Y-28.661
X-16.726 Y-28.634
X-16.686 Y-28.068
X-16.684 Y-28.043
X-16.624 Y-27.471
X-16.621 Y-27.447
X-16.542 Y-26.869
X-16.539 Y-26.847
X-16.442 Y-26.264
X-16.438 Y-26.244
X-16.323 Y-25.655
X-16.319 Y-25.636
X-16.187 Y-25.044
X-16.183 Y-25.026
X-16.035 Y-24.43
X-16.031 Y-24.413
X-15.867 Y-23.816
X-15.863 Y-23.8
X-15.685 Y-23.204
X-15.68 Y-23.188
X-15.489 Y-22.593
X-15.484 Y-22.578
X-15.28 Y-21.988
X-15.274 Y-21.973
X-15.058 Y-21.389
X-15.052 Y-21.374
X-14.825 Y-20.8
X-14.818 Y-20.784
X-14.581 Y-20.221
X-14.574 Y-20.205
X-14.326 Y-19.656
X-14.319 Y-19.639
X-14.063 Y-19.106
X-14.054 Y-19.089
X-13.79 Y-18.575
X-13.78 Y-18.556
X-13.509 Y-18.064
X-13.497 Y-18.044
X-13.22 Y-17.575
X-13.207 Y-17.553
X-12.924 Y-17.111
X-12.908 Y-17.087
X-12.62 Y-16.674
X-12.601 Y-16.648
X-12.31 Y-16.266
X-12.286 Y-16.237
X-11.991 Y-15.888
X-11.962 Y-15.856
X-11.665 Y-15.543
X-11.629 Y-15.508
X-11.329 Y-15.232
X-11.297 Y-15.204
X-11.146 Y-15.081
X-11.121 Y-15.061
X-10.97 Y-14.948
X-10.943 Y-14.928
X-10.791 Y-14.825
X-10.76 Y-14.805
X-10.609 Y-14.713
X-10.574 Y-14.693
X-10.423 Y-14.611
X-10.385 Y-14.592
X-10.233 Y-14.521
X-10.192 Y-14.502
X-10.04 Y-14.442
X-9.995 Y-14.426
X-9.843 Y-14.376
X-9.795 Y-14.362
X-9.643 Y-14.323
X-9.592 Y-14.312
X-9.44 Y-14.284
X-9.386 Y-14.277
X-9.234 Y-14.26
X-9.18 Y-14.256
X-9.028 Y-14.251
X-8.972
X-8.82 Y-14.256
X-8.766 Y-14.26
X-8.614 Y-14.277
X-8.56 Y-14.284
X-8.408 Y-14.312
X-8.357 Y-14.323
X-8.205 Y-14.362
X-8.157 Y-14.376
X-8.005 Y-14.426
X-7.96 Y-14.442
X-7.808 Y-14.502
X-7.767 Y-14.521
X-7.615 Y-14.592
X-7.577 Y-14.611
X-7.426 Y-14.693
X-7.391 Y-14.713
X-7.24 Y-14.805
X-7.209 Y-14.825
X-7.057 Y-14.928
X-7.03 Y-14.948
X-6.879 Y-15.061
X-6.854 Y-15.081
X-6.703 Y-15.204
X-6.671 Y-15.232
X-6.371 Y-15.508
X-6.335 Y-15.543
X-6.038 Y-15.856
X-6.009 Y-15.888
X-5.714 Y-16.237
X-5.69 Y-16.266
X-5.399 Y-16.648
X-5.38 Y-16.674
X-5.092 Y-17.087
X-5.076 Y-17.111
X-4.793 Y-17.553
X-4.78 Y-17.575
X-4.503 Y-18.044
X-4.491 Y-18.064
X-4.22 Y-18.556
X-4.21 Y-18.575
X-3.946 Y-19.089
X-3.937 Y-19.106
X-3.681 Y-19.639
X-3.674 Y-19.656
X-3.426 Y-20.205
X-3.419 Y-20.221
X-3.182 Y-20.784
X-3.175 Y-20.8
X-2.948 Y-21.374
X-2.942 Y-21.389
X-2.726 Y-21.973
X-2.72 Y-21.988
X-2.516 Y-22.578
X-2.511 Y-22.593
X-2.32 Y-23.188
X-2.315 Y-23.204
X-2.137 Y-23.8
X-2.133 Y-23.816
X-1.969 Y-24.413
X-1.965 Y-24.43
X-1.817 Y-25.026
X-1.813 Y-25.044
X-1.681 Y-25.636
X-1.677 Y-25.655
X-1.562 Y-26.243
X-1.558 Y-26.264
X-1.461 Y-26.847
X-1.458 Y-26.869
X-1.379 Y-27.447
X-1.376 Y-27.471
X-1.316 Y-28.043
X-1.314 Y-28.068
X-1.274 Y-28.634
X-1.272 Y-28.661
X-1.253 Y-29.221
X-1.252 Y-29.249
X-1.253 Y-29.804
X-1.254 Y-29.832
X-1.276 Y-30.382
X-1.277 Y-30.411
X-1.32 Y-30.956
X-1.323 Y-30.985
X-1.387 Y-31.526
Y-31.531
X-1.39 Y-31.555 Z-0.301 F1016
X-1.474 Y-32.093 Z-0.32
X-1.479 Y-32.12 Z-0.321
X-1.583 Y-32.655 Z-0.34
X-1.588 Y-32.681 Z-0.341
X-1.711 Y-33.214 Z-0.36
X-1.717 Y-33.238 Z-0.361
X-1.858 Y-33.768 Z-0.38
X-1.864 Y-33.79 Z-0.381
X-2.022 Y-34.317 Z-0.4
X-2.028 Y-34.337 Z-0.401
X-2.2 Y-34.862 Z-0.42
X-2.206 Y-34.88 Z-0.421
X-2.392 Y-35.401 Z-0.44
X-2.398 Y-35.417
X-2.595 Y-35.934 Z-0.46
X-2.603 Y-35.953 Z-0.461
X-3.024 Y-36.973 Z-0.499
X-3.032 Y-36.992 Z-0.5
X-3.475 Y-37.987 Z-0.538
X-3.48 Y-37.998
X-3.927 Y-38.963 Z-0.575
X-3.928 Y-38.966
X-4.148 Y-39.434 Z-0.594
X-4.226 Y-39.602 Z-0.6
X-4.361 Y-39.891 F600
X-4.565 Y-40.335
X-4.759 Y-40.764
X-4.94 Y-41.178
X-5.107 Y-41.575
X-5.256 Y-41.954
X-5.388 Y-42.314
X-5.5 Y-42.654
X-5.592 Y-42.972
X-5.662 Y-43.266
X-5.712 Y-43.536
X-5.74 Y-43.781
X-5.75 Y-44.016
Y-47.708
X-5.749 Y-49.107
X-5.744 Y-50.476
X-5.737 Y-51.814
X-5.726 Y-53.123
X-5.713 Y-54.402
X-5.697 Y-55.651
X-5.678 Y-56.871
X-5.656 Y-58.062
X-5.632 Y-59.224
X-5.605 Y-60.358
X-5.576 Y-61.464
X-5.544 Y-62.542
X-5.51 Y-63.593
X-5.473 Y-64.617
X-5.435 Y-65.615
X-5.394 Y-66.588
X-5.352 Y-67.535
X-5.308 Y-68.457
X-5.262 Y-69.356
X-5.215 Y-70.23
X-5.167 Y-71.081
X-5.117 Y-71.91
X-5.066 Y-72.716
X-5.015 Y-73.501
X-4.963 Y-74.264
X-4.91 Y-75.008
X-4.857 Y-75.731
X-4.803 Y-76.434
X-4.75 Y-77.119
X-4.696 Y-77.785
X-4.643 Y-78.433
X-4.591 Y-79.064
X-4.539 Y-79.678
X-4.488 Y-80.276
X-4.438 Y-80.858
X-4.389 Y-81.424
X-4.341 Y-81.975
X-4.296 Y-82.511
X-4.252 Y-83.034
X-4.251 Y-83.035
X-4.21 Y-83.543
X-4.209 Y-83.544
X-4.17 Y-84.038
X-4.169 Y-84.04
X-4.132 Y-84.521
Y-84.524
X-4.097 Y-84.992
Y-84.995
X-4.065 Y-85.45
Y-85.454
X-4.036 Y-85.897
Y-85.901
X-4.01 Y-86.333
Y-86.338
X-3.988 Y-86.757
Y-86.763
X-3.969 Y-87.172
Y-87.178
X-3.954 Y-87.576
Y-87.583
X-3.944 Y-87.97
X-3.943 Y-87.978
X-3.937 Y-88.355
Y-88.363
X-3.935 Y-88.73
Y-88.74
X-3.938 Y-89.096
Y-89.107
X-3.946 Y-89.454
Y-89.466
X-3.959 Y-89.804
Y-89.816
X-3.977 Y-90.145
X-3.978 Y-90.159
X-4.001 Y-90.478
X-4.003 Y-90.493
X-4.032 Y-90.804
X-4.033 Y-90.82
X-4.068 Y-91.122
X-4.07 Y-91.139
X-4.111 Y-91.432
X-4.114 Y-91.451
X-4.161 Y-91.736
X-4.164 Y-91.756
X-4.218 Y-92.033
X-4.222 Y-92.054
X-4.282 Y-92.322
X-4.287 Y-92.345
X-4.354 Y-92.605
X-4.38 Y-92.687
X-4.415 Y-92.78
X-4.445 Y-92.848
X-4.482 Y-92.913
X-4.535 Y-92.997
X-4.578 Y-93.058
X-8.101 Y-97.568
G2 X-9.856 Y-97.783 I-0.985 J0.77
G1 X-13.502 Y-94.934
G2 X-13.983 Y-93.949 I0.77 J0.985
G1 Y-90.213
X-14.013 Y-89.642
X-14.014 Y-89.621
X-14.03 Y-88.999
Y-88.982
X-14.031 Y-88.33
Y-88.315
X-14.018 Y-87.631
Y-87.618
X-13.992 Y-86.902
Y-86.891
X-13.955 Y-86.14
Y-86.132
X-13.908 Y-85.345
X-13.907 Y-85.338
X-13.851 Y-84.513
X-13.85 Y-84.51
X-13.819 Y-84.083
Y-84.08
X-13.785 Y-83.643
Y-83.642
X-13.75 Y-83.194
Y-83.193
X-13.713 Y-82.735
Y-82.734
X-13.675 Y-82.265
X-13.635 Y-81.785
X-13.594 Y-81.293
X-13.552 Y-80.791
X-13.509 Y-80.276
X-13.465 Y-79.75
X-13.421 Y-79.211
X-13.375 Y-78.66
X-13.33 Y-78.096
X-13.284 Y-77.519
X-13.238 Y-76.928
X-13.191 Y-76.324
X-13.145 Y-75.705
X-13.099 Y-75.072
X-13.053 Y-74.424
X-13.007 Y-73.761
X-12.962 Y-73.082
X-12.918 Y-72.387
X-12.874 Y-71.676
X-12.831 Y-70.949
X-12.789 Y-70.205
X-12.747 Y-69.443
X-12.707 Y-68.664
X-12.668 Y-67.867
X-12.631 Y-67.051
X-12.594 Y-66.217
X-12.559 Y-65.364
X-12.526 Y-64.492
X-12.494 Y-63.601
X-12.464 Y-62.689
X-12.436 Y-61.758
X-12.409 Y-60.806
X-12.384 Y-59.833
X-12.361 Y-58.84
X-12.341 Y-57.825
X-12.322 Y-56.789
X-12.305 Y-55.731
X-12.291 Y-54.651
X-12.278 Y-53.55
X-12.268 Y-52.426
X-12.26 Y-51.28
X-12.255 Y-50.112
X-12.251 Y-48.921
X-12.25 Y-47.708
Y-44.016
X-12.26 Y-43.781
X-12.288 Y-43.536
X-12.338 Y-43.266
X-12.408 Y-42.972
X-12.5 Y-42.654
X-12.612 Y-42.314
X-12.744 Y-41.954
X-12.893 Y-41.575
X-13.06 Y-41.178
X-13.241 Y-40.764
X-13.435 Y-40.335
X-13.639 Y-39.891
X-13.852 Y-39.434
X-14.072 Y-38.966
X-14.073 Y-38.963
X-14.52 Y-37.998
X-14.525 Y-37.987
X-14.968 Y-36.992
X-14.976 Y-36.973
X-15.397 Y-35.953
X-15.405 Y-35.934
X-15.602 Y-35.417
X-15.608 Y-35.401
X-15.794 Y-34.88
X-15.8 Y-34.862
X-15.972 Y-34.337
X-15.978 Y-34.317
X-16.136 Y-33.79
X-16.142 Y-33.768
X-16.283 Y-33.238
X-16.289 Y-33.214
X-16.412 Y-32.681
X-16.417 Y-32.655
X-16.521 Y-32.12
X-16.526 Y-32.093
X-16.61 Y-31.555
X-16.613 Y-31.526
X-16.677 Y-30.985
X-16.68 Y-30.956
X-16.723 Y-30.411
X-16.724 Y-30.382
X-16.746 Y-29.832
X-16.747 Y-29.804
X-16.748 Y-29.249
X-16.747 Y-29.221
X-16.728 Y-28.661
X-16.726 Y-28.634
X-16.686 Y-28.068
X-16.684 Y-28.043
X-16.624 Y-27.471
X-16.621 Y-27.447
X-16.542 Y-26.869
X-16.539 Y-26.847
X-16.442 Y-26.264
X-16.438 Y-26.244
X-16.323 Y-25.655
X-16.319 Y-25.636
X-16.187 Y-25.044
X-16.183 Y-25.026
X-16.035 Y-24.43
X-16.031 Y-24.413
X-15.867 Y-23.816
X-15.863 Y-23.8
X-15.685 Y-23.204
X-15.68 Y-23.188
X-15.489 Y-22.593
X-15.484 Y-22.578
X-15.28 Y-21.988
X-15.274 Y-21.973
X-15.058 Y-21.389
X-15.052 Y-21.374
X-14.825 Y-20.8
X-14.818 Y-20.784
X-14.581 Y-20.221
X-14.574 Y-20.205
X-14.326 Y-19.656
X-14.319 Y-19.639
X-14.063 Y-19.106
X-14.054 Y-19.089
X-13.79 Y-18.575
X-13.78 Y-18.556
X-13.509 Y-18.064
X-13.497 Y-18.044
X-13.22 Y-17.575
X-13.207 Y-17.553
X-12.924 Y-17.111
X-12.908 Y-17.087
X-12.62 Y-16.674
X-12.601 Y-16.648
X-12.31 Y-16.266
X-12.286 Y-16.237
X-11.991 Y-15.888
X-11.962 Y-15.856
X-11.665 Y-15.543
X-11.629 Y-15.508
X-11.329 Y-15.232
X-11.297 Y-15.204
X-11.146 Y-15.081
X-11.121 Y-15.061
X-10.97 Y-14.948
X-10.943 Y-14.928
X-10.791 Y-14.825
X-10.76 Y-14.805
X-10.609 Y-14.713
X-10.574 Y-14.693
X-10.423 Y-14.611
X-10.385 Y-14.592
X-10.233 Y-14.521
X-10.192 Y-14.502
X-10.04 Y-14.442
X-9.995 Y-14.426
X-9.843 Y-14.376
X-9.795 Y-14.362
X-9.643 Y-14.323
X-9.592 Y-14.312
X-9.44 Y-14.284
X-9.386 Y-14.277
X-9.234 Y-14.26
X-9.18 Y-14.256
X-9.028 Y-14.251
X-8.972
X-8.82 Y-14.256
X-8.766 Y-14.26
X-8.614 Y-14.277
X-8.56 Y-14.284
X-8.408 Y-14.312
X-8.357 Y-14.323
X-8.205 Y-14.362
X-8.157 Y-14.376
X-8.005 Y-14.426
X-7.96 Y-14.442
X-7.808 Y-14.502
X-7.767 Y-14.521
X-7.615 Y-14.592
X-7.577 Y-14.611
X-7.426 Y-14.693
X-7.391 Y-14.713
X-7.24 Y-14.805
X-7.209 Y-14.825
X-7.057 Y-14.928
X-7.03 Y-14.948
X-6.879 Y-15.061
X-6.854 Y-15.081
X-6.703 Y-15.204
X-6.671 Y-15.232
X-6.371 Y-15.508
X-6.335 Y-15.543
X-6.038 Y-15.856
X-6.009 Y-15.888
X-5.714 Y-16.237
X-5.69 Y-16.266
X-5.399 Y-16.648
X-5.38 Y-16.674
X-5.092 Y-17.087
X-5.076 Y-17.111
X-4.793 Y-17.553
X-4.78 Y-17.575
X-4.503 Y-18.044
X-4.491 Y-18.064
X-4.22 Y-18.556
X-4.21 Y-18.575
X-3.946 Y-19.089
X-3.937 Y-19.106
X-3.681 Y-19.639
X-3.674 Y-19.656
X-3.426 Y-20.205
X-3.419 Y-20.221
X-3.182 Y-20.784
X-3.175 Y-20.8
X-2.948 Y-21.374
X-2.942 Y-21.389
X-2.726 Y-21.973
X-2.72 Y-21.988
X-2.516 Y-22.578
X-2.511 Y-22.593
X-2.32 Y-23.188
X-2.315 Y-23.204
X-2.137 Y-23.8
X-2.133 Y-23.816
X-1.969 Y-24.413
X-1.965 Y-24.43
X-1.817 Y-25.026
X-1.813 Y-25.044
X-1.681 Y-25.636
X-1.677 Y-25.655
X-1.562 Y-26.243
X-1.558 Y-26.264
X-1.461 Y-26.847
X-1.458 Y-26.869
X-1.379 Y-27.447
X-1.376 Y-27.471
X-1.316 Y-28.043
X-1.314 Y-28.068
X-1.274 Y-28.634
X-1.272 Y-28.661
X-1.253 Y-29.221
X-1.252 Y-29.249
X-1.253 Y-29.804
X-1.254 Y-29.832
X-1.276 Y-30.382
X-1.277 Y-30.411
X-1.32 Y-30.956
X-1.323 Y-30.985
X-1.387 Y-31.526
X-1.39 Y-31.555
X-1.474 Y-32.093
X-1.479 Y-32.12
X-1.583 Y-32.655
X-1.588 Y-32.681
X-1.711 Y-33.214
X-1.717 Y-33.238
X-1.858 Y-33.768
X-1.864 Y-33.79
X-2.022 Y-34.317
X-2.028 Y-34.337
X-2.2 Y-34.862
X-2.206 Y-34.88
X-2.392 Y-35.401
X-2.398 Y-35.417
X-2.595 Y-35.934
X-2.603 Y-35.953
X-3.024 Y-36.973
X-3.032 Y-36.992
X-3.475 Y-37.987
X-3.48 Y-37.998
X-3.927 Y-38.963
X-3.928 Y-38.966
X-4.148 Y-39.434
X-4.226 Y-39.602
X-4.361 Y-39.891 Z-0.611 F1016
X-4.565 Y-40.335 Z-0.628
X-4.759 Y-40.764 Z-0.645
X-4.94 Y-41.178 Z-0.66
X-5.107 Y-41.575 Z-0.675
X-5.256 Y-41.954 Z-0.69
X-5.388 Y-42.314 Z-0.703
X-5.5 Y-42.654 Z-0.716
X-5.592 Y-42.972 Z-0.727
X-5.662 Y-43.266 Z-0.738
X-5.712 Y-43.536 Z-0.747
X-5.74 Y-43.781 Z-0.756
X-5.75 Y-44.016 Z-0.764
Y-47.708 Z-0.893
Y-47.907 Z-0.9
X-5.749 Y-49.107 F600
X-5.744 Y-50.476
X-5.737 Y-51.814
X-5.726 Y-53.123
X-5.713 Y-54.402
X-5.697 Y-55.651
X-5.678 Y-56.871
X-5.656 Y-58.062
X-5.632 Y-59.224
X-5.605 Y-60.358
X-5.576 Y-61.464
X-5.544 Y-62.542
X-5.51 Y-63.593
X-5.473 Y-64.617
X-5.435 Y-65.615
X-5.394 Y-66.588
X-5.352 Y-67.535
X-5.308 Y-68.457
X-5.262 Y-69.356
X-5.215 Y-70.23
X-5.167 Y-71.081
X-5.117 Y-71.91
X-5.066 Y-72.716
X-5.015 Y-73.501
X-4.963 Y-74.264
X-4.91 Y-75.008
X-4.857 Y-75.731
X-4.803 Y-76.434
X-4.75 Y-77.119
X-4.696 Y-77.785
X-4.643 Y-78.433
X-4.591 Y-79.064
X-4.539 Y-79.678
X-4.488 Y-80.276
X-4.438 Y-80.858
X-4.389 Y-81.424
X-4.341 Y-81.975
X-4.296 Y-82.511
X-4.252 Y-83.034
X-4.251 Y-83.035
X-4.21 Y-83.543
X-4.209 Y-83.544
X-4.17 Y-84.038
X-4.169 Y-84.04
X-4.132 Y-84.521
Y-84.524
X-4.097 Y-84.992
Y-84.995
X-4.065 Y-85.45
Y-85.454
X-4.036 Y-85.897
Y-85.901
X-4.01 Y-86.333
Y-86.338
X-3.988 Y-86.757
Y-86.763
X-3.969 Y-87.172
Y-87.178
X-3.954 Y-87.576
Y-87.583
X-3.944 Y-87.97
X-3.943 Y-87.978
X-3.937 Y-88.355
Y-88.363
X-3.935 Y-88.73
Y-88.74
X-3.938 Y-89.096
Y-89.107
X-3.946 Y-89.454
Y-89.466
X-3.959 Y-89.804
Y-89.816
X-3.977 Y-90.145
X-3.978 Y-90.159
X-4.001 Y-90.478
X-4.003 Y-90.493
X-4.032 Y-90.804
X-4.033 Y-90.82
X-4.068 Y-91.122
X-4.07 Y-91.139
X-4.111 Y-91.432
X-4.114 Y-91.451
X-4.161 Y-91.736
X-4.164 Y-91.756
X-4.218 Y-92.033
X-4.222 Y-92.054
X-4.282 Y-92.322
X-4.287 Y-92.345
X-4.354 Y-92.605
X-4.38 Y-92.687
X-4.415 Y-92.78
X-4.445 Y-92.848
X-4.482 Y-92.913
X-4.535 Y-92.997
X-4.578 Y-93.058
X-8.101 Y-97.568
G2 X-9.856 Y-97.783 I-0.985 J0.77
G1 X-13.502 Y-94.934
G2 X-13.983 Y-93.949 I0.77 J0.985
G1 Y-90.213
X-14.013 Y-89.642
X-14.014 Y-89.621
X-14.03 Y-88.999
Y-88.982
X-14.031 Y-88.33
Y-88.315
X-14.018 Y-87.631
Y-87.618
X-13.992 Y-86.902
Y-86.891
X-13.955 Y-86.14
Y-86.132
X-13.908 Y-85.345
X-13.907 Y-85.338
X-13.851 Y-84.513
X-13.85 Y-84.51
X-13.819 Y-84.083
Y-84.08
X-13.785 Y-83.643
Y-83.642
X-13.75 Y-83.194
Y-83.193
X-13.713 Y-82.735
Y-82.734
X-13.675 Y-82.265
X-13.635 Y-81.785
X-13.594 Y-81.293
X-13.552 Y-80.791
X-13.509 Y-80.276
X-13.465 Y-79.75
X-13.421 Y-79.211
X-13.375 Y-78.66
X-13.33 Y-78.096
X-13.284 Y-77.519
X-13.238 Y-76.928
X-13.191 Y-76.324
X-13.145 Y-75.705
X-13.099 Y-75.072
X-13.053 Y-74.424
X-13.007 Y-73.761
X-12.962 Y-73.082
X-12.918 Y-72.387
X-12.874 Y-71.676
X-12.831 Y-70.949
X-12.789 Y-70.205
X-12.747 Y-69.443
X-12.707 Y-68.664
X-12.668 Y-67.867
X-12.631 Y-67.051
X-12.594 Y-66.217
X-12.559 Y-65.364
X-12.526 Y-64.492
X-12.494 Y-63.601
X-12.464 Y-62.689
X-12.436 Y-61.758
X-12.409 Y-60.806
X-12.384 Y-59.833
X-12.361 Y-58.84
X-12.341 Y-57.825
X-12.322 Y-56.789
X-12.305 Y-55.731
X-12.291 Y-54.651
X-12.278 Y-53.55
X-12.268 Y-52.426
X-12.26 Y-51.28
X-12.255 Y-50.112
X-12.251 Y-48.921
X-12.25 Y-47.708
Y-44.016
X-12.26 Y-43.781
X-12.288 Y-43.536
X-12.338 Y-43.266
X-12.408 Y-42.972
X-12.5 Y-42.654
X-12.612 Y-42.314
X-12.744 Y-41.954
X-12.893 Y-41.575
X-13.06 Y-41.178
X-13.241 Y-40.764
X-13.435 Y-40.335
X-13.639 Y-39.891
X-13.852 Y-39.434
X-14.072 Y-38.966
X-14.073 Y-38.963
X-14.52 Y-37.998
X-14.525 Y-37.987
X-14.968 Y-36.992
X-14.976 Y-36.973
X-15.397 Y-35.953
X-15.405 Y-35.934
X-15.602 Y-35.417
X-15.608 Y-35.401
X-15.794 Y-34.88
X-15.8 Y-34.862
X-15.972 Y-34.337
X-15.978 Y-34.317
X-16.136 Y-33.79
X-16.142 Y-33.768
X-16.283 Y-33.238
X-16.289 Y-33.214
X-16.412 Y-32.681
X-16.417 Y-32.655
X-16.521 Y-32.12
X-16.526 Y-32.093
X-16.61 Y-31.555
X-16.613 Y-31.526
X-16.677 Y-30.985
X-16.68 Y-30.956
X-16.723 Y-30.411
X-16.724 Y-30.382
X-16.746 Y-29.832
X-16.747 Y-29.804
X-16.748 Y-29.249
X-16.747 Y-29.221
X-16.728 Y-28.661
X-16.726 Y-28.634
X-16.686 Y-28.068
X-16.684 Y-28.043
X-16.624 Y-27.471
X-16.621 Y-27.447
X-16.542 Y-26.869
X-16.539 Y-26.847
X-16.442 Y-26.264
X-16.438 Y-26.244
X-16.323 Y-25.655
X-16.319 Y-25.636
X-16.187 Y-25.044
X-16.183 Y-25.026
X-16.035 Y-24.43
X-16.031 Y-24.413
X-15.867 Y-23.816
X-15.863 Y-23.8
X-15.685 Y-23.204
X-15.68 Y-23.188
X-15.489 Y-22.593
X-15.484 Y-22.578
X-15.28 Y-21.988
X-15.274 Y-21.973
X-15.058 Y-21.389
X-15.052 Y-21.374
X-14.825 Y-20.8
X-14.818 Y-20.784
X-14.581 Y-20.221
X-14.574 Y-20.205
X-14.326 Y-19.656
X-14.319 Y-19.639
X-14.063 Y-19.106
X-14.054 Y-19.089
X-13.79 Y-18.575
X-13.78 Y-18.556
X-13.509 Y-18.064
X-13.497 Y-18.044
X-13.22 Y-17.575
X-13.207 Y-17.553
X-12.924 Y-17.111
X-12.908 Y-17.087
X-12.62 Y-16.674
X-12.601 Y-16.648
X-12.31 Y-16.266
X-12.286 Y-16.237
X-11.991 Y-15.888
X-11.962 Y-15.856
X-11.665 Y-15.543
X-11.629 Y-15.508
X-11.329 Y-15.232
X-11.297 Y-15.204
X-11.146 Y-15.081
X-11.121 Y-15.061
X-10.97 Y-14.948
X-10.943 Y-14.928
X-10.791 Y-14.825
X-10.76 Y-14.805
X-10.609 Y-14.713
X-10.574 Y-14.693
X-10.423 Y-14.611
X-10.385 Y-14.592
X-10.233 Y-14.521
X-10.192 Y-14.502
X-10.04 Y-14.442
X-9.995 Y-14.426
X-9.843 Y-14.376
X-9.795 Y-14.362
X-9.643 Y-14.323
X-9.592 Y-14.312
X-9.44 Y-14.284
X-9.386 Y-14.277
X-9.234 Y-14.26
X-9.18 Y-14.256
X-9.028 Y-14.251
X-8.972
X-8.82 Y-14.256
X-8.766 Y-14.26
X-8.614 Y-14.277
X-8.56 Y-14.284
X-8.408 Y-14.312
X-8.357 Y-14.323
X-8.205 Y-14.362
X-8.157 Y-14.376
X-8.005 Y-14.426
X-7.96 Y-14.442
X-7.808 Y-14.502
X-7.767 Y-14.521
X-7.615 Y-14.592
X-7.577 Y-14.611
X-7.426 Y-14.693
X-7.391 Y-14.713
X-7.24 Y-14.805
X-7.209 Y-14.825
X-7.057 Y-14.928
X-7.03 Y-14.948
X-6.879 Y-15.061
X-6.854 Y-15.081
X-6.703 Y-15.204
X-6.671 Y-15.232
X-6.371 Y-15.508
X-6.335 Y-15.543
X-6.038 Y-15.856
X-6.009 Y-15.888
X-5.714 Y-16.237
X-5.69 Y-16.266
X-5.399 Y-16.648
X-5.38 Y-16.674
X-5.092 Y-17.087
X-5.076 Y-17.111
X-4.793 Y-17.553
X-4.78 Y-17.575
X-4.503 Y-18.044
X-4.491 Y-18.064
X-4.22 Y-18.556
X-4.21 Y-18.575
X-3.946 Y-19.089
X-3.937 Y-19.106
X-3.681 Y-19.639
X-3.674 Y-19.656
X-3.426 Y-20.205
X-3.419 Y-20.221
X-3.182 Y-20.784
X-3.175 Y-20.8
X-2.948 Y-21.374
X-2.942 Y-21.389
X-2.726 Y-21.973
X-2.72 Y-21.988
X-2.516 Y-22.578
X-2.511 Y-22.593
X-2.32 Y-23.188
X-2.315 Y-23.204
X-2.137 Y-23.8
X-2.133 Y-23.816
X-1.969 Y-24.413
X-1.965 Y-24.43
X-1.817 Y-25.026
X-1.813 Y-25.044
X-1.681 Y-25.636
X-1.677 Y-25.655
X-1.562 Y-26.243
X-1.558 Y-26.264
X-1.461 Y-26.847
X-1.458 Y-26.869
X-1.379 Y-27.447
X-1.376 Y-27.471
X-1.316 Y-28.043
X-1.314 Y-28.068
X-1.274 Y-28.634
X-1.272 Y-28.661
X-1.253 Y-29.221
X-1.252 Y-29.249
X-1.253 Y-29.804
X-1.254 Y-29.832
X-1.276 Y-30.382
X-1.277 Y-30.411
X-1.32 Y-30.956
X-1.323 Y-30.985
X-1.387 Y-31.526
X-1.39 Y-31.555
X-1.474 Y-32.093
X-1.479 Y-32.12
X-1.583 Y-32.655
X-1.588 Y-32.681
X-1.711 Y-33.214
X-1.717 Y-33.238
X-1.858 Y-33.768
X-1.864 Y-33.79
X-2.022 Y-34.317
X-2.028 Y-34.337
X-2.2 Y-34.862
X-2.206 Y-34.88
X-2.392 Y-35.401
X-2.398 Y-35.417
X-2.595 Y-35.934
X-2.603 Y-35.953
X-3.024 Y-36.973
X-3.032 Y-36.992
X-3.475 Y-37.987
X-3.48 Y-37.998
X-3.927 Y-38.963
X-3.928 Y-38.966
X-4.148 Y-39.434
X-4.361 Y-39.891
X-4.565 Y-40.335
X-4.759 Y-40.764
X-4.94 Y-41.178
X-5.107 Y-41.575
X-5.256 Y-41.954
X-5.388 Y-42.314
X-5.5 Y-42.654
X-5.592 Y-42.972
X-5.662 Y-43.266
X-5.712 Y-43.536
X-5.74 Y-43.781
X-5.75 Y-44.016
Y-47.708
Y-47.907
X-5.749 Y-49.107 Z-0.942 F1016
X-5.744 Y-50.476 Z-0.99
X-5.737 Y-51.814 Z-1.036
X-5.726 Y-53.123 Z-1.082
X-5.713 Y-54.402 Z-1.127
X-5.697 Y-55.651 Z-1.17
X-5.684 Y-56.498 Z-1.2
X-5.678 Y-56.871 F600
X-5.656 Y-58.062
X-5.632 Y-59.224
X-5.605 Y-60.358
X-5.576 Y-61.464
X-5.544 Y-62.542
X-5.51 Y-63.593
X-5.473 Y-64.617
X-5.435 Y-65.615
X-5.394 Y-66.588
X-5.352 Y-67.535
X-5.308 Y-68.457
X-5.262 Y-69.356
X-5.215 Y-70.23
X-5.167 Y-71.081
X-5.117 Y-71.91
X-5.066 Y-72.716
X-5.015 Y-73.501
X-4.963 Y-74.264
X-4.91 Y-75.008
X-4.857 Y-75.731
X-4.803 Y-76.434
X-4.75 Y-77.119
X-4.696 Y-77.785
X-4.643 Y-78.433
X-4.591 Y-79.064
X-4.539 Y-79.678
X-4.488 Y-80.276
X-4.438 Y-80.858
X-4.389 Y-81.424
X-4.341 Y-81.975
X-4.296 Y-82.511
X-4.252 Y-83.034
X-4.251 Y-83.035
X-4.21 Y-83.543
X-4.209 Y-83.544
X-4.17 Y-84.038
X-4.169 Y-84.04
X-4.132 Y-84.521
Y-84.524
X-4.097 Y-84.992
Y-84.995
X-4.065 Y-85.45
Y-85.454
X-4.036 Y-85.897
Y-85.901
X-4.01 Y-86.333
Y-86.338
X-3.988 Y-86.757
Y-86.763
X-3.969 Y-87.172
Y-87.178
X-3.954 Y-87.576
Y-87.583
X-3.944 Y-87.97
X-3.943 Y-87.978
X-3.937 Y-88.355
Y-88.363
X-3.935 Y-88.73
Y-88.74
X-3.938 Y-89.096
Y-89.107
X-3.946 Y-89.454
Y-89.466
X-3.959 Y-89.804
Y-89.816
X-3.977 Y-90.145
X-3.978 Y-90.159
X-4.001 Y-90.478
X-4.003 Y-90.493
X-4.032 Y-90.804
X-4.033 Y-90.82
X-4.068 Y-91.122
X-4.07 Y-91.139
X-4.111 Y-91.432
X-4.114 Y-91.451
X-4.161 Y-91.736
X-4.164 Y-91.756
X-4.218 Y-92.033
X-4.222 Y-92.054
X-4.282 Y-92.322
X-4.287 Y-92.345
X-4.354 Y-92.605
X-4.38 Y-92.687
X-4.415 Y-92.78
X-4.445 Y-92.848
X-4.482 Y-92.913
X-4.535 Y-92.997
X-4.578 Y-93.058
X-8.101 Y-97.568
G2 X-9.856 Y-97.783 I-0.985 J0.77
G1 X-13.502 Y-94.934
G2 X-13.983 Y-93.949 I0.77 J0.985
G1 Y-90.213
X-14.013 Y-89.642
X-14.014 Y-89.621
X-14.03 Y-88.999
Y-88.982
X-14.031 Y-88.33
Y-88.315
X-14.018 Y-87.631
Y-87.618
X-13.992 Y-86.902
Y-86.891
X-13.955 Y-86.14
Y-86.132
X-13.908 Y-85.345
X-13.907 Y-85.338
X-13.851 Y-84.513
X-13.85 Y-84.51
X-13.819 Y-84.083
Y-84.08
X-13.785 Y-83.643
Y-83.642
X-13.75 Y-83.194
Y-83.193
X-13.713 Y-82.735
Y-82.734
X-13.675 Y-82.265
X-13.635 Y-81.785
X-13.594 Y-81.293
X-13.552 Y-80.791
X-13.509 Y-80.276
X-13.465 Y-79.75
X-13.421 Y-79.211
X-13.375 Y-78.66
X-13.33 Y-78.096
X-13.284 Y-77.519
X-13.238 Y-76.928
X-13.191 Y-76.324
X-13.145 Y-75.705
X-13.099 Y-75.072
X-13.053 Y-74.424
X-13.007 Y-73.761
X-12.962 Y-73.082
X-12.918 Y-72.387
X-12.874 Y-71.676
X-12.831 Y-70.949
X-12.789 Y-70.205
X-12.747 Y-69.443
X-12.707 Y-68.664
X-12.668 Y-67.867
X-12.631 Y-67.051
X-12.594 Y-66.217
X-12.559 Y-65.364
X-12.526 Y-64.492
X-12.494 Y-63.601
X-12.464 Y-62.689
X-12.436 Y-61.758
X-12.409 Y-60.806
X-12.384 Y-59.833
X-12.361 Y-58.84
X-12.341 Y-57.825
X-12.322 Y-56.789
X-12.305 Y-55.731
X-12.291 Y-54.651
X-12.278 Y-53.55
X-12.268 Y-52.426
X-12.26 Y-51.28
X-12.255 Y-50.112
X-12.251 Y-48.921
X-12.25 Y-47.708
Y-44.016
X-12.26 Y-43.781
X-12.288 Y-43.536
X-12.338 Y-43.266
X-12.408 Y-42.972
X-12.5 Y-42.654
X-12.612 Y-42.314
X-12.744 Y-41.954
X-12.893 Y-41.575
X-13.06 Y-41.178
X-13.241 Y-40.764
X-13.435 Y-40.335
X-13.639 Y-39.891
X-13.852 Y-39.434
X-14.072 Y-38.966
X-14.073 Y-38.963
X-14.52 Y-37.998
X-14.525 Y-37.987
X-14.968 Y-36.992
X-14.976 Y-36.973
X-15.397 Y-35.953
X-15.405 Y-35.934
X-15.602 Y-35.417
X-15.608 Y-35.401
X-15.794 Y-34.88
X-15.8 Y-34.862
X-15.972 Y-34.337
X-15.978 Y-34.317
X-16.136 Y-33.79
X-16.142 Y-33.768
X-16.283 Y-33.238
X-16.289 Y-33.214
X-16.412 Y-32.681
X-16.417 Y-32.655
X-16.521 Y-32.12
X-16.526 Y-32.093
X-16.61 Y-31.555
X-16.613 Y-31.526
X-16.677 Y-30.985
X-16.68 Y-30.956
X-16.723 Y-30.411
X-16.724 Y-30.382
X-16.746 Y-29.832
X-16.747 Y-29.804
X-16.748 Y-29.249
X-16.747 Y-29.221
X-16.728 Y-28.661
X-16.726 Y-28.634
X-16.686 Y-28.068
X-16.684 Y-28.043
X-16.624 Y-27.471
X-16.621 Y-27.447
X-16.542 Y-26.869
X-16.539 Y-26.847
X-16.442 Y-26.264
X-16.438 Y-26.244
X-16.323 Y-25.655
X-16.319 Y-25.636
X-16.187 Y-25.044
X-16.183 Y-25.026
X-16.035 Y-24.43
X-16.031 Y-24.413
X-15.867 Y-23.816
X-15.863 Y-23.8
X-15.685 Y-23.204
X-15.68 Y-23.188
X-15.489 Y-22.593
X-15.484 Y-22.578
X-15.28 Y-21.988
X-15.274 Y-21.973
X-15.058 Y-21.389
X-15.052 Y-21.374
X-14.825 Y-20.8
X-14.818 Y-20.784
X-14.581 Y-20.221
X-14.574 Y-20.205
X-14.326 Y-19.656
X-14.319 Y-19.639
X-14.063 Y-19.106
X-14.054 Y-19.089
X-13.79 Y-18.575
X-13.78 Y-18.556
X-13.509 Y-18.064
X-13.497 Y-18.044
X-13.22 Y-17.575
X-13.207 Y-17.553
X-12.924 Y-17.111
X-12.908 Y-17.087
X-12.62 Y-16.674
X-12.601 Y-16.648
X-12.31 Y-16.266
X-12.286 Y-16.237
X-11.991 Y-15.888
X-11.962 Y-15.856
X-11.665 Y-15.543
X-11.629 Y-15.508
X-11.329 Y-15.232
X-11.297 Y-15.204
X-11.146 Y-15.081
X-11.121 Y-15.061
X-10.97 Y-14.948
X-10.943 Y-14.928
X-10.791 Y-14.825
X-10.76 Y-14.805
X-10.609 Y-14.713
X-10.574 Y-14.693
X-10.423 Y-14.611
X-10.385 Y-14.592
X-10.233 Y-14.521
X-10.192 Y-14.502
X-10.04 Y-14.442
X-9.995 Y-14.426
X-9.843 Y-14.376
X-9.795 Y-14.362
X-9.643 Y-14.323
X-9.592 Y-14.312
X-9.44 Y-14.284
X-9.386 Y-14.277
X-9.234 Y-14.26
X-9.18 Y-14.256
X-9.028 Y-14.251
X-8.972
X-8.82 Y-14.256
X-8.766 Y-14.26
X-8.614 Y-14.277
X-8.56 Y-14.284
X-8.408 Y-14.312
X-8.357 Y-14.323
X-8.205 Y-14.362
X-8.157 Y-14.376
X-8.005 Y-14.426
X-7.96 Y-14.442
X-7.808 Y-14.502
X-7.767 Y-14.521
X-7.615 Y-14.592
X-7.577 Y-14.611
X-7.426 Y-14.693
X-7.391 Y-14.713
X-7.24 Y-14.805
X-7.209 Y-14.825
X-7.057 Y-14.928
X-7.03 Y-14.948
X-6.879 Y-15.061
X-6.854 Y-15.081
X-6.703 Y-15.204
X-6.671 Y-15.232
X-6.371 Y-15.508
X-6.335 Y-15.543
X-6.038 Y-15.856
X-6.009 Y-15.888
X-5.714 Y-16.237
X-5.69 Y-16.266
X-5.399 Y-16.648
X-5.38 Y-16.674
X-5.092 Y-17.087
X-5.076 Y-17.111
X-4.793 Y-17.553
X-4.78 Y-17.575
X-4.503 Y-18.044
X-4.491 Y-18.064
X-4.22 Y-18.556
X-4.21 Y-18.575
X-3.946 Y-19.089
X-3.937 Y-19.106
X-3.681 Y-19.639
X-3.674 Y-19.656
X-3.426 Y-20.205
X-3.419 Y-20.221
X-3.182 Y-20.784
X-3.175 Y-20.8
X-2.948 Y-21.374
X-2.942 Y-21.389
X-2.726 Y-21.973
X-2.72 Y-21.988
X-2.516 Y-22.578
X-2.511 Y-22.593
X-2.32 Y-23.188
X-2.315 Y-23.204
X-2.137 Y-23.8
X-2.133 Y-23.816
X-1.969 Y-24.413
X-1.965 Y-24.43
X-1.817 Y-25.026
X-1.813 Y-25.044
X-1.681 Y-25.636
X-1.677 Y-25.655
X-1.562 Y-26.243
X-1.558 Y-26.264
X-1.461 Y-26.847
X-1.458 Y-26.869
X-1.379 Y-27.447
X-1.376 Y-27.471
X-1.316 Y-28.043
X-1.314 Y-28.068
X-1.274 Y-28.634
X-1.272 Y-28.661
X-1.253 Y-29.221
X-1.252 Y-29.249
X-1.253 Y-29.804
X-1.254 Y-29.832
X-1.276 Y-30.382
X-1.277 Y-30.411
X-1.32 Y-30.956
X-1.323 Y-30.985
X-1.387 Y-31.526
X-1.39 Y-31.555
X-1.474 Y-32.093
X-1.479 Y-32.12
X-1.583 Y-32.655
X-1.588 Y-32.681
X-1.711 Y-33.214
X-1.717 Y-33.238
X-1.858 Y-33.768
X-1.864 Y-33.79
X-2.022 Y-34.317
X-2.028 Y-34.337
X-2.2 Y-34.862
X-2.206 Y-34.88
X-2.392 Y-35.401
X-2.398 Y-35.417
X-2.595 Y-35.934
X-2.603 Y-35.953
X-3.024 Y-36.973
X-3.032 Y-36.992
X-3.475 Y-37.987
X-3.48 Y-37.998
X-3.927 Y-38.963
X-3.928 Y-38.966
X-4.148 Y-39.434
X-4.361 Y-39.891
X-4.565 Y-40.335
X-4.759 Y-40.764
X-4.94 Y-41.178
X-5.107 Y-41.575
X-5.256 Y-41.954
X-5.388 Y-42.314
X-5.5 Y-42.654
X-5.592 Y-42.972
X-5.662 Y-43.266
X-5.712 Y-43.536
X-5.74 Y-43.781
X-5.75 Y-44.016
Y-47.708
X-5.749 Y-49.107
X-5.744 Y-50.476
X-5.737 Y-51.814
X-5.726 Y-53.123
X-5.713 Y-54.402
X-5.697 Y-55.651
X-5.684 Y-56.498
X-5.678 Y-56.871 Z-1.213 F1016
X-5.656 Y-58.062 Z-1.255
X-5.632 Y-59.224 Z-1.295
X-5.605 Y-60.358 Z-1.335
X-5.576 Y-61.464 Z-1.373
X-5.544 Y-62.542 Z-1.411
X-5.51 Y-63.593 Z-1.448
X-5.473 Y-64.617 Z-1.484
X-5.455 Y-65.086 Z-1.5
X-5.435 Y-65.615 F600
X-5.394 Y-66.588
X-5.352 Y-67.535
X-5.308 Y-68.457
X-5.262 Y-69.356
X-5.215 Y-70.23
X-5.167 Y-71.081
X-5.117 Y-71.91
X-5.066 Y-72.716
X-5.015 Y-73.501
X-4.963 Y-74.264
X-4.91 Y-75.008
X-4.857 Y-75.731
X-4.803 Y-76.434
X-4.75 Y-77.119
X-4.696 Y-77.785
X-4.643 Y-78.433
X-4.591 Y-79.064
X-4.539 Y-79.678
X-4.488 Y-80.276
X-4.438 Y-80.858
X-4.389 Y-81.424
X-4.341 Y-81.975
X-4.296 Y-82.511
X-4.252 Y-83.034
X-4.251 Y-83.035
X-4.21 Y-83.543
X-4.209 Y-83.544
X-4.17 Y-84.038
X-4.169 Y-84.04
X-4.132 Y-84.521
Y-84.524
X-4.097 Y-84.992
Y-84.995
X-4.065 Y-85.45
Y-85.454
X-4.036 Y-85.897
Y-85.901
X-4.01 Y-86.333
Y-86.338
X-3.988 Y-86.757
Y-86.763
X-3.969 Y-87.172
Y-87.178
X-3.954 Y-87.576
Y-87.583
X-3.944 Y-87.97
X-3.943 Y-87.978
X-3.937 Y-88.355
Y-88.363
X-3.935 Y-88.73
Y-88.74
X-3.938 Y-89.096
Y-89.107
X-3.946 Y-89.454
Y-89.466
X-3.959 Y-89.804
Y-89.816
X-3.977 Y-90.145
X-3.978 Y-90.159
X-4.001 Y-90.478
X-4.003 Y-90.493
X-4.032 Y-90.804
X-4.033 Y-90.82
X-4.068 Y-91.122
X-4.07 Y-91.139
X-4.111 Y-91.432
X-4.114 Y-91.451
X-4.161 Y-91.736
X-4.164 Y-91.756
X-4.218 Y-92.033
X-4.222 Y-92.054
X-4.282 Y-92.322
X-4.287 Y-92.345
X-4.354 Y-92.605
X-4.38 Y-92.687
X-4.415 Y-92.78
X-4.445 Y-92.848
X-4.482 Y-92.913
X-4.535 Y-92.997
X-4.578 Y-93.058
X-8.101 Y-97.568
G2 X-9.856 Y-97.783 I-0.985 J0.77
G1 X-13.502 Y-94.934
G2 X-13.983 Y-93.949 I0.77 J0.985
G1 Y-90.213
X-14.013 Y-89.642
X-14.014 Y-89.621
X-14.03 Y-88.999
Y-88.982
X-14.031 Y-88.33
Y-88.315
X-14.018 Y-87.631
Y-87.618
X-13.992 Y-86.902
Y-86.891
X-13.955 Y-86.14
Y-86.132
X-13.908 Y-85.345
X-13.907 Y-85.338
X-13.851 Y-84.513
X-13.85 Y-84.51
X-13.819 Y-84.083
Y-84.08
X-13.785 Y-83.643
Y-83.642
X-13.75 Y-83.194
Y-83.193
X-13.713 Y-82.735
Y-82.734
X-13.675 Y-82.265
X-13.635 Y-81.785
X-13.594 Y-81.293
X-13.552 Y-80.791
X-13.509 Y-80.276
X-13.465 Y-79.75
X-13.421 Y-79.211
X-13.375 Y-78.66
X-13.33 Y-78.096
X-13.284 Y-77.519
X-13.238 Y-76.928
X-13.191 Y-76.324
X-13.145 Y-75.705
X-13.099 Y-75.072
X-13.053 Y-74.424
X-13.007 Y-73.761
X-12.962 Y-73.082
X-12.918 Y-72.387
X-12.874 Y-71.676
X-12.831 Y-70.949
X-12.789 Y-70.205
X-12.747 Y-69.443
X-12.707 Y-68.664
X-12.668 Y-67.867
X-12.631 Y-67.051
X-12.594 Y-66.217
X-12.559 Y-65.364
X-12.526 Y-64.492
X-12.494 Y-63.601
X-12.464 Y-62.689
X-12.436 Y-61.758
X-12.409 Y-60.806
X-12.384 Y-59.833
X-12.361 Y-58.84
X-12.341 Y-57.825
X-12.322 Y-56.789
X-12.305 Y-55.731
X-12.291 Y-54.651
X-12.278 Y-53.55
X-12.268 Y-52.426
X-12.26 Y-51.28
X-12.255 Y-50.112
X-12.251 Y-48.921
X-12.25 Y-47.708
Y-44.016
X-12.26 Y-43.781
X-12.288 Y-43.536
X-12.338 Y-43.266
X-12.408 Y-42.972
X-12.5 Y-42.654
X-12.612 Y-42.314
X-12.744 Y-41.954
X-12.893 Y-41.575
X-13.06 Y-41.178
X-13.241 Y-40.764
X-13.435 Y-40.335
X-13.639 Y-39.891
X-13.852 Y-39.434
X-14.072 Y-38.966
X-14.073 Y-38.963
X-14.52 Y-37.998
X-14.525 Y-37.987
X-14.968 Y-36.992
X-14.976 Y-36.973
X-15.397 Y-35.953
X-15.405 Y-35.934
X-15.602 Y-35.417
X-15.608 Y-35.401
X-15.794 Y-34.88
X-15.8 Y-34.862
X-15.972 Y-34.337
X-15.978 Y-34.317
X-16.136 Y-33.79
X-16.142 Y-33.768
X-16.283 Y-33.238
X-16.289 Y-33.214
X-16.412 Y-32.681
X-16.417 Y-32.655
X-16.521 Y-32.12
X-16.526 Y-32.093
X-16.61 Y-31.555
X-16.613 Y-31.526
X-16.677 Y-30.985
X-16.68 Y-30.956
X-16.723 Y-30.411
X-16.724 Y-30.382
X-16.746 Y-29.832
X-16.747 Y-29.804
X-16.748 Y-29.249
X-16.747 Y-29.221
X-16.728 Y-28.661
X-16.726 Y-28.634
X-16.686 Y-28.068
X-16.684 Y-28.043
X-16.624 Y-27.471
X-16.621 Y-27.447
X-16.542 Y-26.869
X-16.539 Y-26.847
X-16.442 Y-26.264
X-16.438 Y-26.244
X-16.323 Y-25.655
X-16.319 Y-25.636
X-16.187 Y-25.044
X-16.183 Y-25.026
X-16.035 Y-24.43
X-16.031 Y-24.413
X-15.867 Y-23.816
X-15.863 Y-23.8
X-15.685 Y-23.204
X-15.68 Y-23.188
X-15.489 Y-22.593
X-15.484 Y-22.578
X-15.28 Y-21.988
X-15.274 Y-21.973
X-15.058 Y-21.389
X-15.052 Y-21.374
X-14.825 Y-20.8
X-14.818 Y-20.784
X-14.581 Y-20.221
X-14.574 Y-20.205
X-14.326 Y-19.656
X-14.319 Y-19.639
X-14.063 Y-19.106
X-14.054 Y-19.089
X-13.79 Y-18.575
X-13.78 Y-18.556
X-13.509 Y-18.064
X-13.497 Y-18.044
X-13.22 Y-17.575
X-13.207 Y-17.553
X-12.924 Y-17.111
X-12.908 Y-17.087
X-12.62 Y-16.674
X-12.601 Y-16.648
X-12.31 Y-16.266
X-12.286 Y-16.237
X-11.991 Y-15.888
X-11.962 Y-15.856
X-11.665 Y-15.543
X-11.629 Y-15.508
X-11.329 Y-15.232
X-11.297 Y-15.204
X-11.146 Y-15.081
X-11.121 Y-15.061
X-10.97 Y-14.948
X-10.943 Y-14.928
X-10.791 Y-14.825
X-10.76 Y-14.805
X-10.609 Y-14.713
X-10.574 Y-14.693
X-10.423 Y-14.611
X-10.385 Y-14.592
X-10.233 Y-14.521
X-10.192 Y-14.502
X-10.04 Y-14.442
X-9.995 Y-14.426
X-9.843 Y-14.376
X-9.795 Y-14.362
X-9.643 Y-14.323
X-9.592 Y-14.312
X-9.44 Y-14.284
X-9.386 Y-14.277
X-9.234 Y-14.26
X-9.18 Y-14.256
X-9.028 Y-14.251
X-8.972
X-8.82 Y-14.256
X-8.766 Y-14.26
X-8.614 Y-14.277
X-8.56 Y-14.284
X-8.408 Y-14.312
X-8.357 Y-14.323
X-8.205 Y-14.362
X-8.157 Y-14.376
X-8.005 Y-14.426
X-7.96 Y-14.442
X-7.808 Y-14.502
X-7.767 Y-14.521
X-7.615 Y-14.592
X-7.577 Y-14.611
X-7.426 Y-14.693
X-7.391 Y-14.713
X-7.24 Y-14.805
X-7.209 Y-14.825
X-7.057 Y-14.928
X-7.03 Y-14.948
X-6.879 Y-15.061
X-6.854 Y-15.081
X-6.703 Y-15.204
X-6.671 Y-15.232
X-6.371 Y-15.508
X-6.335 Y-15.543
X-6.038 Y-15.856
X-6.009 Y-15.888
X-5.714 Y-16.237
X-5.69 Y-16.266
X-5.399 Y-16.648
X-5.38 Y-16.674
X-5.092 Y-17.087
X-5.076 Y-17.111
X-4.793 Y-17.553
X-4.78 Y-17.575
X-4.503 Y-18.044
X-4.491 Y-18.064
X-4.22 Y-18.556
X-4.21 Y-18.575
X-3.946 Y-19.089
X-3.937 Y-19.106
X-3.681 Y-19.639
X-3.674 Y-19.656
X-3.426 Y-20.205
X-3.419 Y-20.221
X-3.182 Y-20.784
X-3.175 Y-20.8
X-2.948 Y-21.374
X-2.942 Y-21.389
X-2.726 Y-21.973
X-2.72 Y-21.988
X-2.516 Y-22.578
X-2.511 Y-22.593
X-2.32 Y-23.188
X-2.315 Y-23.204
X-2.137 Y-23.8
X-2.133 Y-23.816
X-1.969 Y-24.413
X-1.965 Y-24.43
X-1.817 Y-25.026
X-1.813 Y-25.044
X-1.681 Y-25.636
X-1.677 Y-25.655
X-1.562 Y-26.243
X-1.558 Y-26.264
X-1.461 Y-26.847
X-1.458 Y-26.869
X-1.379 Y-27.447
X-1.376 Y-27.471
X-1.316 Y-28.043
X-1.314 Y-28.068
X-1.274 Y-28.634
X-1.272 Y-28.661
X-1.253 Y-29.221
X-1.252 Y-29.249
X-1.253 Y-29.804
X-1.254 Y-29.832
X-1.276 Y-30.382
X-1.277 Y-30.411
X-1.32 Y-30.956
X-1.323 Y-30.985
X-1.387 Y-31.526
X-1.39 Y-31.555
X-1.474 Y-32.093
X-1.479 Y-32.12
X-1.583 Y-32.655
X-1.588 Y-32.681
X-1.711 Y-33.214
X-1.717 Y-33.238
X-1.858 Y-33.768
X-1.864 Y-33.79
X-2.022 Y-34.317
X-2.028 Y-34.337
X-2.2 Y-34.862
X-2.206 Y-34.88
X-2.392 Y-35.401
X-2.398 Y-35.417
X-2.595 Y-35.934
X-2.603 Y-35.953
X-3.024 Y-36.973
X-3.032 Y-36.992
X-3.475 Y-37.987
X-3.48 Y-37.998
X-3.927 Y-38.963
X-3.928 Y-38.966
X-4.148 Y-39.434
X-4.361 Y-39.891
X-4.565 Y-40.335
X-4.759 Y-40.764
X-4.94 Y-41.178
X-5.107 Y-41.575
X-5.256 Y-41.954
X-5.388 Y-42.314
X-5.5 Y-42.654
X-5.592 Y-42.972
X-5.662 Y-43.266
X-5.712 Y-43.536
X-5.74 Y-43.781
X-5.75 Y-44.016
Y-47.708
X-5.749 Y-49.107
X-5.744 Y-50.476
X-5.737 Y-51.814
X-5.726 Y-53.123
X-5.713 Y-54.402
X-5.697 Y-55.651
X-5.684 Y-56.498
X-5.678 Y-56.871
X-5.656 Y-58.062
X-5.632 Y-59.224
X-5.605 Y-60.358
X-5.576 Y-61.464
X-5.544 Y-62.542
X-5.51 Y-63.593
X-5.473 Y-64.617
X-5.455 Y-65.086
X-5.435 Y-65.615 Z-1.519 F1016
X-5.394 Y-66.588 Z-1.553
X-5.352 Y-67.535 Z-1.586
X-5.308 Y-68.457 Z-1.618
X-5.262 Y-69.356 Z-1.649
X-5.215 Y-70.23 Z-1.68
X-5.167 Y-71.081 Z-1.71
X-5.117 Y-71.91 Z-1.739
X-5.066 Y-72.716 Z-1.767
X-5.015 Y-73.501 Z-1.794
X-5.004 Y-73.664 Z-1.8
X-4.963 Y-74.264 F600
X-4.91 Y-75.008
X-4.857 Y-75.731
X-4.803 Y-76.434
X-4.75 Y-77.119
X-4.696 Y-77.785
X-4.643 Y-78.433
X-4.591 Y-79.064
X-4.539 Y-79.678
X-4.488 Y-80.276
X-4.438 Y-80.858
X-4.389 Y-81.424
X-4.341 Y-81.975
X-4.296 Y-82.511
X-4.252 Y-83.034
X-4.251 Y-83.035
X-4.21 Y-83.543
X-4.209 Y-83.544
X-4.17 Y-84.038
X-4.169 Y-84.04
X-4.132 Y-84.521
Y-84.524
X-4.097 Y-84.992
Y-84.995
X-4.065 Y-85.45
Y-85.454
X-4.036 Y-85.897
Y-85.901
X-4.01 Y-86.333
Y-86.338
X-3.988 Y-86.757
Y-86.763
X-3.969 Y-87.172
Y-87.178
X-3.954 Y-87.576
Y-87.583
X-3.944 Y-87.97
X-3.943 Y-87.978
X-3.937 Y-88.355
Y-88.363
X-3.935 Y-88.73
Y-88.74
X-3.938 Y-89.096
Y-89.107
X-3.946 Y-89.454
Y-89.466
X-3.959 Y-89.804
Y-89.816
X-3.977 Y-90.145
X-3.978 Y-90.159
X-4.001 Y-90.478
X-4.003 Y-90.493
X-4.032 Y-90.804
X-4.033 Y-90.82
X-4.068 Y-91.122
X-4.07 Y-91.139
X-4.111 Y-91.432
X-4.114 Y-91.451
X-4.161 Y-91.736
X-4.164 Y-91.756
X-4.218 Y-92.033
X-4.222 Y-92.054
X-4.282 Y-92.322
X-4.287 Y-92.345
X-4.354 Y-92.605
X-4.38 Y-92.687
X-4.415 Y-92.78
X-4.445 Y-92.848
X-4.482 Y-92.913
X-4.535 Y-92.997
X-4.578 Y-93.058
X-8.101 Y-97.568
G2 X-9.856 Y-97.783 I-0.985 J0.77
G1 X-13.502 Y-94.934
G2 X-13.983 Y-93.949 I0.77 J0.985
G1 Y-90.213
X-14.013 Y-89.642
X-14.014 Y-89.621
X-14.03 Y-88.999
Y-88.982
X-14.031 Y-88.33
Y-88.315
X-14.018 Y-87.631
Y-87.618
X-13.992 Y-86.902
Y-86.891
X-13.955 Y-86.14
Y-86.132
X-13.908 Y-85.345
X-13.907 Y-85.338
X-13.851 Y-84.513
X-13.85 Y-84.51
X-13.819 Y-84.083
Y-84.08
X-13.785 Y-83.643
Y-83.642
X-13.75 Y-83.194
Y-83.193
X-13.713 Y-82.735
Y-82.734
X-13.675 Y-82.265
X-13.635 Y-81.785
X-13.594 Y-81.293
X-13.552 Y-80.791
X-13.509 Y-80.276
X-13.465 Y-79.75
X-13.421 Y-79.211
X-13.375 Y-78.66
X-13.33 Y-78.096
X-13.284 Y-77.519
X-13.238 Y-76.928
X-13.191 Y-76.324
X-13.145 Y-75.705
X-13.099 Y-75.072
X-13.053 Y-74.424
X-13.007 Y-73.761
X-12.962 Y-73.082
X-12.918 Y-72.387
X-12.874 Y-71.676
X-12.831 Y-70.949
X-12.789 Y-70.205
X-12.747 Y-69.443
X-12.707 Y-68.664
X-12.668 Y-67.867
X-12.631 Y-67.051
X-12.594 Y-66.217
X-12.559 Y-65.364
X-12.526 Y-64.492
X-12.494 Y-63.601
X-12.464 Y-62.689
X-12.436 Y-61.758
X-12.409 Y-60.806
X-12.384 Y-59.833
X-12.361 Y-58.84
X-12.341 Y-57.825
X-12.322 Y-56.789
X-12.305 Y-55.731
X-12.291 Y-54.651
X-12.278 Y-53.55
X-12.268 Y-52.426
X-12.26 Y-51.28
X-12.255 Y-50.112
X-12.251 Y-48.921
X-12.25 Y-47.708
Y-44.016
X-12.26 Y-43.781
X-12.288 Y-43.536
X-12.338 Y-43.266
X-12.408 Y-42.972
X-12.5 Y-42.654
X-12.612 Y-42.314
X-12.744 Y-41.954
X-12.893 Y-41.575
X-13.06 Y-41.178
X-13.241 Y-40.764
X-13.435 Y-40.335
X-13.639 Y-39.891
X-13.852 Y-39.434
X-14.072 Y-38.966
X-14.073 Y-38.963
X-14.52 Y-37.998
X-14.525 Y-37.987
X-14.968 Y-36.992
X-14.976 Y-36.973
X-15.397 Y-35.953
X-15.405 Y-35.934
X-15.602 Y-35.417
X-15.608 Y-35.401
X-15.794 Y-34.88
X-15.8 Y-34.862
X-15.972 Y-34.337
X-15.978 Y-34.317
X-16.136 Y-33.79
X-16.142 Y-33.768
X-16.283 Y-33.238
X-16.289 Y-33.214
X-16.412 Y-32.681
X-16.417 Y-32.655
X-16.521 Y-32.12
X-16.526 Y-32.093
X-16.61 Y-31.555
X-16.613 Y-31.526
X-16.677 Y-30.985
X-16.68 Y-30.956
X-16.723 Y-30.411
X-16.724 Y-30.382
X-16.746 Y-29.832
X-16.747 Y-29.804
X-16.748 Y-29.249
X-16.747 Y-29.221
X-16.728 Y-28.661
X-16.726 Y-28.634
X-16.686 Y-28.068
X-16.684 Y-28.043
X-16.624 Y-27.471
X-16.621 Y-27.447
X-16.542 Y-26.869
X-16.539 Y-26.847
X-16.442 Y-26.264
X-16.438 Y-26.244
X-16.323 Y-25.655
X-16.319 Y-25.636
X-16.187 Y-25.044
X-16.183 Y-25.026
X-16.035 Y-24.43
X-16.031 Y-24.413
X-15.867 Y-23.816
X-15.863 Y-23.8
X-15.685 Y-23.204
X-15.68 Y-23.188
X-15.489 Y-22.593
X-15.484 Y-22.578
X-15.28 Y-21.988
X-15.274 Y-21.973
X-15.058 Y-21.389
X-15.052 Y-21.374
X-14.825 Y-20.8
X-14.818 Y-20.784
X-14.581 Y-20.221
X-14.574 Y-20.205
X-14.326 Y-19.656
X-14.319 Y-19.639
X-14.063 Y-19.106
X-14.054 Y-19.089
X-13.79 Y-18.575
X-13.78 Y-18.556
X-13.509 Y-18.064
X-13.497 Y-18.044
X-13.22 Y-17.575
X-13.207 Y-17.553
X-12.924 Y-17.111
X-12.908 Y-17.087
X-12.62 Y-16.674
X-12.601 Y-16.648
X-12.31 Y-16.266
X-12.286 Y-16.237
X-11.991 Y-15.888
X-11.962 Y-15.856
X-11.665 Y-15.543
X-11.629 Y-15.508
X-11.329 Y-15.232
X-11.297 Y-15.204
X-11.146 Y-15.081
X-11.121 Y-15.061
X-10.97 Y-14.948
X-10.943 Y-14.928
X-10.791 Y-14.825
X-10.76 Y-14.805
X-10.609 Y-14.713
X-10.574 Y-14.693
X-10.423 Y-14.611
X-10.385 Y-14.592
X-10.233 Y-14.521
X-10.192 Y-14.502
X-10.04 Y-14.442
X-9.995 Y-14.426
X-9.843 Y-14.376
X-9.795 Y-14.362
X-9.643 Y-14.323
X-9.592 Y-14.312
X-9.44 Y-14.284
X-9.386 Y-14.277
X-9.234 Y-14.26
X-9.18 Y-14.256
X-9.028 Y-14.251
X-8.972
X-8.82 Y-14.256
X-8.766 Y-14.26
X-8.614 Y-14.277
X-8.56 Y-14.284
X-8.408 Y-14.312
X-8.357 Y-14.323
X-8.205 Y-14.362
X-8.157 Y-14.376
X-8.005 Y-14.426
X-7.96 Y-14.442
X-7.808 Y-14.502
X-7.767 Y-14.521
X-7.615 Y-14.592
X-7.577 Y-14.611
X-7.426 Y-14.693
X-7.391 Y-14.713
X-7.24 Y-14.805
X-7.209 Y-14.825
X-7.057 Y-14.928
X-7.03 Y-14.948
X-6.879 Y-15.061
X-6.854 Y-15.081
X-6.703 Y-15.204
X-6.671 Y-15.232
X-6.371 Y-15.508
X-6.335 Y-15.543
X-6.038 Y-15.856
X-6.009 Y-15.888
X-5.714 Y-16.237
X-5.69 Y-16.266
X-5.399 Y-16.648
X-5.38 Y-16.674
X-5.092 Y-17.087
X-5.076 Y-17.111
X-4.793 Y-17.553
X-4.78 Y-17.575
X-4.503 Y-18.044
X-4.491 Y-18.064
X-4.22 Y-18.556
X-4.21 Y-18.575
X-3.946 Y-19.089
X-3.937 Y-19.106
X-3.681 Y-19.639
X-3.674 Y-19.656
X-3.426 Y-20.205
X-3.419 Y-20.221
X-3.182 Y-20.784
X-3.175 Y-20.8
X-2.948 Y-21.374
X-2.942 Y-21.389
X-2.726 Y-21.973
X-2.72 Y-21.988
X-2.516 Y-22.578
X-2.511 Y-22.593
X-2.32 Y-23.188
X-2.315 Y-23.204
X-2.137 Y-23.8
X-2.133 Y-23.816
X-1.969 Y-24.413
X-1.965 Y-24.43
X-1.817 Y-25.026
X-1.813 Y-25.044
X-1.681 Y-25.636
X-1.677 Y-25.655
X-1.562 Y-26.243
X-1.558 Y-26.264
X-1.461 Y-26.847
X-1.458 Y-26.869
X-1.379 Y-27.447
X-1.376 Y-27.471
X-1.316 Y-28.043
X-1.314 Y-28.068
X-1.274 Y-28.634
X-1.272 Y-28.661
X-1.253 Y-29.221
X-1.252 Y-29.249
X-1.253 Y-29.804
X-1.254 Y-29.832
X-1.276 Y-30.382
X-1.277 Y-30.411
X-1.32 Y-30.956
X-1.323 Y-30.985
X-1.387 Y-31.526
X-1.39 Y-31.555
X-1.474 Y-32.093
X-1.479 Y-32.12
X-1.583 Y-32.655
X-1.588 Y-32.681
X-1.711 Y-33.214
X-1.717 Y-33.238
X-1.858 Y-33.768
X-1.864 Y-33.79
X-2.022 Y-34.317
X-2.028 Y-34.337
X-2.2 Y-34.862
X-2.206 Y-34.88
X-2.392 Y-35.401
X-2.398 Y-35.417
X-2.595 Y-35.934
X-2.603 Y-35.953
X-3.024 Y-36.973
X-3.032 Y-36.992
X-3.475 Y-37.987
X-3.48 Y-37.998
X-3.927 Y-38.963
X-3.928 Y-38.966
X-4.148 Y-39.434
X-4.361 Y-39.891
X-4.565 Y-40.335
X-4.759 Y-40.764
X-4.94 Y-41.178
X-5.107 Y-41.575
X-5.256 Y-41.954
X-5.388 Y-42.314
X-5.5 Y-42.654
X-5.592 Y-42.972
X-5.662 Y-43.266
X-5.712 Y-43.536
X-5.74 Y-43.781
X-5.75 Y-44.016
Y-47.708
X-5.749 Y-49.107
X-5.744 Y-50.476
X-5.737 Y-51.814
X-5.726 Y-53.123
X-5.713 Y-54.402
X-5.697 Y-55.651
X-5.678 Y-56.871
X-5.656 Y-58.062
X-5.632 Y-59.224
X-5.605 Y-60.358
X-5.576 Y-61.464
X-5.544 Y-62.542
X-5.51 Y-63.593
X-5.473 Y-64.617
X-5.435 Y-65.615
X-5.394 Y-66.588
X-5.352 Y-67.535
X-5.308 Y-68.457
X-5.262 Y-69.356
X-5.215 Y-70.23
X-5.167 Y-71.081
X-5.117 Y-71.91
X-5.066 Y-72.716
X-5.015 Y-73.501
X-5.004 Y-73.664
X-4.963 Y-74.264 Z-1.821 F1016
X-4.91 Y-75.008 Z-1.847
X-4.857 Y-75.731 Z-1.872
X-4.803 Y-76.434 Z-1.897
X-4.75 Y-77.119 Z-1.921
X-4.696 Y-77.785 Z-1.944
X-4.643 Y-78.433 Z-1.967
X-4.591 Y-79.064 Z-1.989
X-4.539 Y-79.678 Z-2.011
X-4.488 Y-80.276 Z-2.032
X-4.438 Y-80.858 Z-2.052
X-4.389 Y-81.424 Z-2.072
X-4.341 Y-81.975 Z-2.091
X-4.32 Y-82.228 Z-2.1
X-4.296 Y-82.511 F600
X-4.252 Y-83.034
X-4.251 Y-83.035
X-4.21 Y-83.543
X-4.209 Y-83.544
X-4.17 Y-84.038
X-4.169 Y-84.04
X-4.132 Y-84.521
Y-84.524
X-4.097 Y-84.992
Y-84.995
X-4.065 Y-85.45
Y-85.454
X-4.036 Y-85.897
Y-85.901
X-4.01 Y-86.333
Y-86.338
X-3.988 Y-86.757
Y-86.763
X-3.969 Y-87.172
Y-87.178
X-3.954 Y-87.576
Y-87.583
X-3.944 Y-87.97
X-3.943 Y-87.978
X-3.937 Y-88.355
Y-88.363
X-3.935 Y-88.73
Y-88.74
X-3.938 Y-89.096
Y-89.107
X-3.946 Y-89.454
Y-89.466
X-3.959 Y-89.804
Y-89.816
X-3.977 Y-90.145
X-3.978 Y-90.159
X-4.001 Y-90.478
X-4.003 Y-90.493
X-4.032 Y-90.804
X-4.033 Y-90.82
X-4.068 Y-91.122
X-4.07 Y-91.139
X-4.111 Y-91.432
X-4.114 Y-91.451
X-4.161 Y-91.736
X-4.164 Y-91.756
X-4.218 Y-92.033
X-4.222 Y-92.054
X-4.282 Y-92.322
X-4.287 Y-92.345
X-4.354 Y-92.605
X-4.38 Y-92.687
X-4.415 Y-92.78
X-4.445 Y-92.848
X-4.482 Y-92.913
X-4.535 Y-92.997
X-4.578 Y-93.058
X-8.101 Y-97.568
G2 X-9.856 Y-97.783 I-0.985 J0.77
G1 X-13.502 Y-94.934
G2 X-13.983 Y-93.949 I0.77 J0.985
G1 Y-90.213
X-14.013 Y-89.642
X-14.014 Y-89.621
X-14.03 Y-88.999
Y-88.982
X-14.031 Y-88.33
Y-88.315
X-14.018 Y-87.631
Y-87.618
X-13.992 Y-86.902
Y-86.891
X-13.955 Y-86.14
Y-86.132
X-13.908 Y-85.345
X-13.907 Y-85.338
X-13.851 Y-84.513
X-13.85 Y-84.51
X-13.819 Y-84.083
Y-84.08
X-13.785 Y-83.643
Y-83.642
X-13.75 Y-83.194
Y-83.193
X-13.713 Y-82.735
Y-82.734
X-13.675 Y-82.265
X-13.635 Y-81.785
X-13.594 Y-81.293
X-13.552 Y-80.791
X-13.509 Y-80.276
X-13.465 Y-79.75
X-13.421 Y-79.211
X-13.375 Y-78.66
X-13.33 Y-78.096
X-13.284 Y-77.519
X-13.238 Y-76.928
X-13.191 Y-76.324
X-13.145 Y-75.705
X-13.099 Y-75.072
X-13.053 Y-74.424
X-13.007 Y-73.761
X-12.962 Y-73.082
X-12.918 Y-72.387
X-12.874 Y-71.676
X-12.831 Y-70.949
X-12.789 Y-70.205
X-12.747 Y-69.443
X-12.707 Y-68.664
X-12.668 Y-67.867
X-12.631 Y-67.051
X-12.594 Y-66.217
X-12.559 Y-65.364
X-12.526 Y-64.492
X-12.494 Y-63.601
X-12.464 Y-62.689
X-12.436 Y-61.758
X-12.409 Y-60.806
X-12.384 Y-59.833
X-12.361 Y-58.84
X-12.341 Y-57.825
X-12.322 Y-56.789
X-12.305 Y-55.731
X-12.291 Y-54.651
X-12.278 Y-53.55
X-12.268 Y-52.426
X-12.26 Y-51.28
X-12.255 Y-50.112
X-12.251 Y-48.921
X-12.25 Y-47.708
Y-44.016
X-12.26 Y-43.781
X-12.288 Y-43.536
X-12.338 Y-43.266
X-12.408 Y-42.972
X-12.5 Y-42.654
X-12.612 Y-42.314
X-12.744 Y-41.954
X-12.893 Y-41.575
X-13.06 Y-41.178
X-13.241 Y-40.764
X-13.435 Y-40.335
X-13.639 Y-39.891
X-13.852 Y-39.434
X-14.072 Y-38.966
X-14.073 Y-38.963
X-14.52 Y-37.998
X-14.525 Y-37.987
X-14.968 Y-36.992
X-14.976 Y-36.973
X-15.397 Y-35.953
X-15.405 Y-35.934
X-15.602 Y-35.417
X-15.608 Y-35.401
X-15.794 Y-34.88
X-15.8 Y-34.862
X-15.972 Y-34.337
X-15.978 Y-34.317
X-16.136 Y-33.79
X-16.142 Y-33.768
X-16.283 Y-33.238
X-16.289 Y-33.214
X-16.412 Y-32.681
X-16.417 Y-32.655
X-16.521 Y-32.12
X-16.526 Y-32.093
X-16.61 Y-31.555
X-16.613 Y-31.526
X-16.677 Y-30.985
X-16.68 Y-30.956
X-16.723 Y-30.411
X-16.724 Y-30.382
X-16.746 Y-29.832
X-16.747 Y-29.804
X-16.748 Y-29.249
X-16.747 Y-29.221
X-16.728 Y-28.661
X-16.726 Y-28.634
X-16.686 Y-28.068
X-16.684 Y-28.043
X-16.624 Y-27.471
X-16.621 Y-27.447
X-16.542 Y-26.869
X-16.539 Y-26.847
X-16.442 Y-26.264
X-16.438 Y-26.244
X-16.323 Y-25.655
X-16.319 Y-25.636
X-16.187 Y-25.044
X-16.183 Y-25.026
X-16.035 Y-24.43
X-16.031 Y-24.413
X-15.867 Y-23.816
X-15.863 Y-23.8
X-15.685 Y-23.204
X-15.68 Y-23.188
X-15.489 Y-22.593
X-15.484 Y-22.578
X-15.28 Y-21.988
X-15.274 Y-21.973
X-15.058 Y-21.389
X-15.052 Y-21.374
X-14.825 Y-20.8
X-14.818 Y-20.784
X-14.581 Y-20.221
X-14.574 Y-20.205
X-14.326 Y-19.656
X-14.319 Y-19.639
X-14.063 Y-19.106
X-14.054 Y-19.089
X-13.79 Y-18.575
X-13.78 Y-18.556
X-13.509 Y-18.064
X-13.497 Y-18.044
X-13.22 Y-17.575
X-13.207 Y-17.553
X-12.924 Y-17.111
X-12.908 Y-17.087
X-12.62 Y-16.674
X-12.601 Y-16.648
X-12.31 Y-16.266
X-12.286 Y-16.237
X-11.991 Y-15.888
X-11.962 Y-15.856
X-11.665 Y-15.543
X-11.629 Y-15.508
X-11.329 Y-15.232
X-11.297 Y-15.204
X-11.146 Y-15.081
X-11.121 Y-15.061
X-10.97 Y-14.948
X-10.943 Y-14.928
X-10.791 Y-14.825
X-10.76 Y-14.805
X-10.609 Y-14.713
X-10.574 Y-14.693
X-10.423 Y-14.611
X-10.385 Y-14.592
X-10.233 Y-14.521
X-10.192 Y-14.502
X-10.04 Y-14.442
X-9.995 Y-14.426
X-9.843 Y-14.376
X-9.795 Y-14.362
X-9.643 Y-14.323
X-9.592 Y-14.312
X-9.44 Y-14.284
X-9.386 Y-14.277
X-9.234 Y-14.26
X-9.18 Y-14.256
X-9.028 Y-14.251
X-8.972
X-8.82 Y-14.256
X-8.766 Y-14.26
X-8.614 Y-14.277
X-8.56 Y-14.284
X-8.408 Y-14.312
X-8.357 Y-14.323
X-8.205 Y-14.362
X-8.157 Y-14.376
X-8.005 Y-14.426
X-7.96 Y-14.442
X-7.808 Y-14.502
X-7.767 Y-14.521
X-7.615 Y-14.592
X-7.577 Y-14.611
X-7.426 Y-14.693
X-7.391 Y-14.713
X-7.24 Y-14.805
X-7.209 Y-14.825
X-7.057 Y-14.928
X-7.03 Y-14.948
X-6.879 Y-15.061
X-6.854 Y-15.081
X-6.703 Y-15.204
X-6.671 Y-15.232
X-6.371 Y-15.508
X-6.335 Y-15.543
X-6.038 Y-15.856
X-6.009 Y-15.888
X-5.714 Y-16.237
X-5.69 Y-16.266
X-5.399 Y-16.648
X-5.38 Y-16.674
X-5.092 Y-17.087
X-5.076 Y-17.111
X-4.793 Y-17.553
X-4.78 Y-17.575
X-4.503 Y-18.044
X-4.491 Y-18.064
X-4.22 Y-18.556
X-4.21 Y-18.575
X-3.946 Y-19.089
X-3.937 Y-19.106
X-3.681 Y-19.639
X-3.674 Y-19.656
X-3.426 Y-20.205
X-3.419 Y-20.221
X-3.182 Y-20.784
X-3.175 Y-20.8
X-2.948 Y-21.374
X-2.942 Y-21.389
X-2.726 Y-21.973
X-2.72 Y-21.988
X-2.516 Y-22.578
X-2.511 Y-22.593
X-2.32 Y-23.188
X-2.315 Y-23.204
X-2.137 Y-23.8
X-2.133 Y-23.816
X-1.969 Y-24.413
X-1.965 Y-24.43
X-1.817 Y-25.026
X-1.813 Y-25.044
X-1.681 Y-25.636
X-1.677 Y-25.655
X-1.562 Y-26.243
X-1.558 Y-26.264
X-1.461 Y-26.847
X-1.458 Y-26.869
X-1.379 Y-27.447
X-1.376 Y-27.471
X-1.316 Y-28.043
X-1.314 Y-28.068
X-1.274 Y-28.634
X-1.272 Y-28.661
X-1.253 Y-29.221
X-1.252 Y-29.249
X-1.253 Y-29.804
X-1.254 Y-29.832
X-1.276 Y-30.382
X-1.277 Y-30.411
X-1.32 Y-30.956
X-1.323 Y-30.985
X-1.387 Y-31.526
X-1.39 Y-31.555
X-1.474 Y-32.093
X-1.479 Y-32.12
X-1.583 Y-32.655
X-1.588 Y-32.681
X-1.711 Y-33.214
X-1.717 Y-33.238
X-1.858 Y-33.768
X-1.864 Y-33.79
X-2.022 Y-34.317
X-2.028 Y-34.337
X-2.2 Y-34.862
X-2.206 Y-34.88
X-2.392 Y-35.401
X-2.398 Y-35.417
X-2.595 Y-35.934
X-2.603 Y-35.953
X-3.024 Y-36.973
X-3.032 Y-36.992
X-3.475 Y-37.987
X-3.48 Y-37.998
X-3.927 Y-38.963
X-3.928 Y-38.966
X-4.148 Y-39.434
X-4.361 Y-39.891
X-4.565 Y-40.335
X-4.759 Y-40.764
X-4.94 Y-41.178
X-5.107 Y-41.575
X-5.256 Y-41.954
X-5.388 Y-42.314
X-5.5 Y-42.654
X-5.592 Y-42.972
X-5.662 Y-43.266
X-5.712 Y-43.536
X-5.74 Y-43.781
X-5.75 Y-44.016
Y-47.708
X-5.749 Y-49.107
X-5.744 Y-50.476
X-5.737 Y-51.814
X-5.726 Y-53.123
X-5.713 Y-54.402
X-5.697 Y-55.651
X-5.678 Y-56.871
X-5.656 Y-58.062
X-5.632 Y-59.224
X-5.605 Y-60.358
X-5.576 Y-61.464
X-5.544 Y-62.542
X-5.51 Y-63.593
X-5.473 Y-64.617
X-5.435 Y-65.615
X-5.394 Y-66.588
X-5.352 Y-67.535
X-5.308 Y-68.457
X-5.262 Y-69.356
X-5.215 Y-70.23
X-5.167 Y-71.081
X-5.117 Y-71.91
X-5.066 Y-72.716
X-5.015 Y-73.501
X-4.963 Y-74.264
X-4.91 Y-75.008
X-4.857 Y-75.731
X-4.803 Y-76.434
X-4.75 Y-77.119
X-4.696 Y-77.785
X-4.643 Y-78.433
X-4.591 Y-79.064
X-4.539 Y-79.678
X-4.488 Y-80.276
X-4.438 Y-80.858
X-4.389 Y-81.424
X-4.341 Y-81.975
X-4.32 Y-82.228
X-4.296 Y-82.511 Z-2.11 F1016
X-4.252 Y-83.034 Z-2.128
X-4.251 Y-83.035
X-4.21 Y-83.543 Z-2.146
X-4.209 Y-83.544
X-4.17 Y-84.038 Z-2.163
X-4.169 Y-84.04 Z-2.164
X-4.132 Y-84.521 Z-2.18
Y-84.524
X-4.097 Y-84.992 Z-2.197
Y-84.995
X-4.065 Y-85.45 Z-2.213
Y-85.454
X-4.036 Y-85.897 Z-2.229
Y-85.901
X-4.01 Y-86.333 Z-2.244
Y-86.338
X-3.988 Y-86.757 Z-2.259
Y-86.763
X-3.969 Y-87.172 Z-2.273
Y-87.178
X-3.954 Y-87.576 Z-2.287
Y-87.583
X-3.944 Y-87.97 Z-2.301
X-3.943 Y-87.978
X-3.937 Y-88.355 Z-2.314
Y-88.363 Z-2.315
X-3.935 Y-88.73 Z-2.328
Y-88.74
X-3.938 Y-89.096 Z-2.34
Y-89.107 Z-2.341
X-3.946 Y-89.454 Z-2.353
Y-89.466
X-3.959 Y-89.804 Z-2.365
Y-89.816
X-3.977 Y-90.145 Z-2.377
X-3.978 Y-90.159
X-4.001 Y-90.478 Z-2.389
X-4.003 Y-90.493
X-4.032 Y-90.802 Z-2.4
Y-90.804 F600
X-4.033 Y-90.82
X-4.068 Y-91.122
X-4.07 Y-91.139
X-4.111 Y-91.432
X-4.114 Y-91.451
X-4.161 Y-91.736
X-4.164 Y-91.756
X-4.218 Y-92.033
X-4.222 Y-92.054
X-4.282 Y-92.322
X-4.287 Y-92.345
X-4.354 Y-92.605
X-4.38 Y-92.687
X-4.415 Y-92.78
X-4.445 Y-92.848
X-4.482 Y-92.913
X-4.535 Y-92.997
X-4.578 Y-93.058
X-8.101 Y-97.568
G2 X-9.856 Y-97.783 I-0.985 J0.77
G1 X-13.502 Y-94.934
G2 X-13.983 Y-93.949 I0.77 J0.985
G1 Y-90.213
X-14.013 Y-89.642
X-14.014 Y-89.621
X-14.03 Y-88.999
Y-88.982
X-14.031 Y-88.33
Y-88.315
X-14.018 Y-87.631
Y-87.618
X-13.992 Y-86.902
Y-86.891
X-13.955 Y-86.14
Y-86.132
X-13.908 Y-85.345
X-13.907 Y-85.338
X-13.851 Y-84.513
X-13.85 Y-84.51
X-13.819 Y-84.083
Y-84.08
X-13.785 Y-83.643
Y-83.642
X-13.75 Y-83.194
Y-83.193
X-13.713 Y-82.735
Y-82.734
X-13.675 Y-82.265
X-13.635 Y-81.785
X-13.594 Y-81.293
X-13.552 Y-80.791
X-13.509 Y-80.276
X-13.465 Y-79.75
X-13.421 Y-79.211
X-13.375 Y-78.66
X-13.33 Y-78.096
X-13.284 Y-77.519
X-13.238 Y-76.928
X-13.191 Y-76.324
X-13.145 Y-75.705
X-13.099 Y-75.072
X-13.053 Y-74.424
X-13.007 Y-73.761
X-12.962 Y-73.082
X-12.918 Y-72.387
X-12.874 Y-71.676
X-12.831 Y-70.949
X-12.789 Y-70.205
X-12.747 Y-69.443
X-12.707 Y-68.664
X-12.668 Y-67.867
X-12.631 Y-67.051
X-12.594 Y-66.217
X-12.559 Y-65.364
X-12.526 Y-64.492
X-12.494 Y-63.601
X-12.464 Y-62.689
X-12.436 Y-61.758
X-12.409 Y-60.806
X-12.384 Y-59.833
X-12.361 Y-58.84
X-12.341 Y-57.825
X-12.322 Y-56.789
X-12.305 Y-55.731
X-12.291 Y-54.651
X-12.278 Y-53.55
X-12.268 Y-52.426
X-12.26 Y-51.28
X-12.255 Y-50.112
X-12.251 Y-48.921
X-12.25 Y-47.708
Y-44.016
X-12.26 Y-43.781
X-12.288 Y-43.536
X-12.338 Y-43.266
X-12.408 Y-42.972
X-12.5 Y-42.654
X-12.612 Y-42.314
X-12.744 Y-41.954
X-12.893 Y-41.575
X-13.06 Y-41.178
X-13.241 Y-40.764
X-13.435 Y-40.335
X-13.639 Y-39.891
X-13.852 Y-39.434
X-14.072 Y-38.966
X-14.073 Y-38.963
X-14.52 Y-37.998
X-14.525 Y-37.987
X-14.968 Y-36.992
X-14.976 Y-36.973
X-15.397 Y-35.953
X-15.405 Y-35.934
X-15.602 Y-35.417
X-15.608 Y-35.401
X-15.794 Y-34.88
X-15.8 Y-34.862
X-15.972 Y-34.337
X-15.978 Y-34.317
X-16.136 Y-33.79
X-16.142 Y-33.768
X-16.283 Y-33.238
X-16.289 Y-33.214
X-16.412 Y-32.681
X-16.417 Y-32.655
X-16.521 Y-32.12
X-16.526 Y-32.093
X-16.61 Y-31.555
X-16.613 Y-31.526
X-16.677 Y-30.985
X-16.68 Y-30.956
X-16.723 Y-30.411
X-16.724 Y-30.382
X-16.746 Y-29.832
X-16.747 Y-29.804
X-16.748 Y-29.249
X-16.747 Y-29.221
X-16.728 Y-28.661
X-16.726 Y-28.634
X-16.686 Y-28.068
X-16.684 Y-28.043
X-16.624 Y-27.471
X-16.621 Y-27.447
X-16.542 Y-26.869
X-16.539 Y-26.847
X-16.442 Y-26.264
X-16.438 Y-26.244
X-16.323 Y-25.655
X-16.319 Y-25.636
X-16.187 Y-25.044
X-16.183 Y-25.026
X-16.035 Y-24.43
X-16.031 Y-24.413
X-15.867 Y-23.816
X-15.863 Y-23.8
X-15.685 Y-23.204
X-15.68 Y-23.188
X-15.489 Y-22.593
X-15.484 Y-22.578
X-15.28 Y-21.988
X-15.274 Y-21.973
X-15.058 Y-21.389
X-15.052 Y-21.374
X-14.825 Y-20.8
X-14.818 Y-20.784
X-14.581 Y-20.221
X-14.574 Y-20.205
X-14.326 Y-19.656
X-14.319 Y-19.639
X-14.063 Y-19.106
X-14.054 Y-19.089
X-13.79 Y-18.575
X-13.78 Y-18.556
X-13.509 Y-18.064
X-13.497 Y-18.044
X-13.22 Y-17.575
X-13.207 Y-17.553
X-12.924 Y-17.111
X-12.908 Y-17.087
X-12.62 Y-16.674
X-12.601 Y-16.648
X-12.31 Y-16.266
X-12.286 Y-16.237
X-11.991 Y-15.888
X-11.962 Y-15.856
X-11.665 Y-15.543
X-11.629 Y-15.508
X-11.329 Y-15.232
X-11.297 Y-15.204
X-11.146 Y-15.081
X-11.121 Y-15.061
X-10.97 Y-14.948
X-10.943 Y-14.928
X-10.791 Y-14.825
X-10.76 Y-14.805
X-10.609 Y-14.713
X-10.574 Y-14.693
X-10.423 Y-14.611
X-10.385 Y-14.592
X-10.233 Y-14.521
X-10.192 Y-14.502
X-10.04 Y-14.442
X-9.995 Y-14.426
X-9.843 Y-14.376
X-9.795 Y-14.362
X-9.643 Y-14.323
X-9.592 Y-14.312
X-9.44 Y-14.284
X-9.386 Y-14.277
X-9.234 Y-14.26
X-9.18 Y-14.256
X-9.028 Y-14.251
X-8.972
X-8.82 Y-14.256
X-8.766 Y-14.26
X-8.614 Y-14.277
X-8.56 Y-14.284
X-8.408 Y-14.312
X-8.357 Y-14.323
X-8.205 Y-14.362
X-8.157 Y-14.376
X-8.005 Y-14.426
X-7.96 Y-14.442
X-7.808 Y-14.502
X-7.767 Y-14.521
X-7.615 Y-14.592
X-7.577 Y-14.611
X-7.426 Y-14.693
X-7.391 Y-14.713
X-7.24 Y-14.805
X-7.209 Y-14.825
X-7.057 Y-14.928
X-7.03 Y-14.948
X-6.879 Y-15.061
X-6.854 Y-15.081
X-6.703 Y-15.204
X-6.671 Y-15.232
X-6.371 Y-15.508
X-6.335 Y-15.543
X-6.038 Y-15.856
X-6.009 Y-15.888
X-5.714 Y-16.237
X-5.69 Y-16.266
X-5.399 Y-16.648
X-5.38 Y-16.674
X-5.092 Y-17.087
X-5.076 Y-17.111
X-4.793 Y-17.553
X-4.78 Y-17.575
X-4.503 Y-18.044
X-4.491 Y-18.064
X-4.22 Y-18.556
X-4.21 Y-18.575
X-3.946 Y-19.089
X-3.937 Y-19.106
X-3.681 Y-19.639
X-3.674 Y-19.656
X-3.426 Y-20.205
X-3.419 Y-20.221
X-3.182 Y-20.784
X-3.175 Y-20.8
X-2.948 Y-21.374
X-2.942 Y-21.389
X-2.726 Y-21.973
X-2.72 Y-21.988
X-2.516 Y-22.578
X-2.511 Y-22.593
X-2.32 Y-23.188
X-2.315 Y-23.204
X-2.137 Y-23.8
X-2.133 Y-23.816
X-1.969 Y-24.413
X-1.965 Y-24.43
X-1.817 Y-25.026
X-1.813 Y-25.044
X-1.681 Y-25.636
X-1.677 Y-25.655
X-1.562 Y-26.243
X-1.558 Y-26.264
X-1.461 Y-26.847
X-1.458 Y-26.869
X-1.379 Y-27.447
X-1.376 Y-27.471
X-1.316 Y-28.043
X-1.314 Y-28.068
X-1.274 Y-28.634
X-1.272 Y-28.661
X-1.253 Y-29.221
X-1.252 Y-29.249
X-1.253 Y-29.804
X-1.254 Y-29.832
X-1.276 Y-30.382
X-1.277 Y-30.411
X-1.32 Y-30.956
X-1.323 Y-30.985
X-1.387 Y-31.526
X-1.39 Y-31.555
X-1.474 Y-32.093
X-1.479 Y-32.12
X-1.583 Y-32.655
X-1.588 Y-32.681
X-1.711 Y-33.214
X-1.717 Y-33.238
X-1.858 Y-33.768
X-1.864 Y-33.79
X-2.022 Y-34.317
X-2.028 Y-34.337
X-2.2 Y-34.862
X-2.206 Y-34.88
X-2.392 Y-35.401
X-2.398 Y-35.417
X-2.595 Y-35.934
X-2.603 Y-35.953
X-3.024 Y-36.973
X-3.032 Y-36.992
X-3.475 Y-37.987
X-3.48 Y-37.998
X-3.927 Y-38.963
X-3.928 Y-38.966
X-4.148 Y-39.434
X-4.361 Y-39.891
X-4.565 Y-40.335
X-4.759 Y-40.764
X-4.94 Y-41.178
X-5.107 Y-41.575
X-5.256 Y-41.954
X-5.388 Y-42.314
X-5.5 Y-42.654
X-5.592 Y-42.972
X-5.662 Y-43.266
X-5.712 Y-43.536
X-5.74 Y-43.781
X-5.75 Y-44.016
Y-47.708
X-5.749 Y-49.107
X-5.744 Y-50.476
X-5.737 Y-51.814
X-5.726 Y-53.123
X-5.713 Y-54.402
X-5.697 Y-55.651
X-5.678 Y-56.871
X-5.656 Y-58.062
X-5.632 Y-59.224
X-5.605 Y-60.358
X-5.576 Y-61.464
X-5.544 Y-62.542
X-5.51 Y-63.593
X-5.473 Y-64.617
X-5.435 Y-65.615
X-5.394 Y-66.588
X-5.352 Y-67.535
X-5.308 Y-68.457
X-5.262 Y-69.356
X-5.215 Y-70.23
X-5.167 Y-71.081
X-5.117 Y-71.91
X-5.066 Y-72.716
X-5.015 Y-73.501
X-4.963 Y-74.264
X-4.91 Y-75.008
X-4.857 Y-75.731
X-4.803 Y-76.434
X-4.75 Y-77.119
X-4.696 Y-77.785
X-4.643 Y-78.433
X-4.591 Y-79.064
X-4.539 Y-79.678
X-4.488 Y-80.276
X-4.438 Y-80.858
X-4.389 Y-81.424
X-4.341 Y-81.975
X-4.296 Y-82.511
X-4.252 Y-83.034
X-4.251 Y-83.035
X-4.21 Y-83.543
X-4.209 Y-83.544
X-4.17 Y-84.038
X-4.169 Y-84.04
X-4.132 Y-84.521
Y-84.524
X-4.097 Y-84.992
Y-84.995
X-4.065 Y-85.45
Y-85.454
X-4.036 Y-85.897
Y-85.901
X-4.01 Y-86.333
Y-86.338
X-3.988 Y-86.757
Y-86.763
X-3.969 Y-87.172
Y-87.178
X-3.954 Y-87.576
Y-87.583
X-3.944 Y-87.97
X-3.943 Y-87.978
X-3.937 Y-88.355
Y-88.363
X-3.935 Y-88.73
Y-88.74
X-3.938 Y-89.096
Y-89.107
X-3.946 Y-89.454
Y-89.466
X-3.959 Y-89.804
Y-89.816
X-3.977 Y-90.145
X-3.978 Y-90.159
X-4.001 Y-90.478
X-4.003 Y-90.493
X-4.032 Y-90.802
Y-90.804 F1016
X-4.033 Y-90.82 Z-2.401
X-4.068 Y-91.122 Z-2.411
X-4.07 Y-91.139 Z-2.412
X-4.111 Y-91.432 Z-2.422
X-4.114 Y-91.451 Z-2.423
X-4.161 Y-91.736 Z-2.433
X-4.164 Y-91.756 Z-2.434
X-4.218 Y-92.033 Z-2.443
X-4.222 Y-92.054 Z-2.444
X-4.282 Y-92.322 Z-2.454
X-4.287 Y-92.345 Z-2.455
X-4.354 Y-92.605 Z-2.464
X-4.38 Y-92.687 Z-2.467
X-4.415 Y-92.78 Z-2.471
X-4.445 Y-92.848 Z-2.473
X-4.482 Y-92.913 Z-2.476
X-4.535 Y-92.997 Z-2.479
X-4.578 Y-93.058 Z-2.482
X-8.101 Y-97.568 Z-2.682
G2 X-8.501 Y-97.903 Z-2.7 I-0.985 J0.77
X-9.856 Y-97.783 I-0.585 J1.105 F600
G1 X-13.502 Y-94.934
G2 X-13.983 Y-93.949 I0.77 J0.985
G1 Y-90.213
X-14.013 Y-89.642
X-14.014 Y-89.621
X-14.03 Y-88.999
Y-88.982
X-14.031 Y-88.33
Y-88.315
X-14.018 Y-87.631
Y-87.618
X-13.992 Y-86.902
Y-86.891
X-13.955 Y-86.14
Y-86.132
X-13.908 Y-85.345
X-13.907 Y-85.338
X-13.851 Y-84.513
X-13.85 Y-84.51
X-13.819 Y-84.083
Y-84.08
X-13.785 Y-83.643
Y-83.642
X-13.75 Y-83.194
Y-83.193
X-13.713 Y-82.735
Y-82.734
X-13.675 Y-82.265
X-13.635 Y-81.785
X-13.594 Y-81.293
X-13.552 Y-80.791
X-13.509 Y-80.276
X-13.465 Y-79.75
X-13.421 Y-79.211
X-13.375 Y-78.66
X-13.33 Y-78.096
X-13.328 Y-78.069
Z-2.5
X-13.284 Y-77.519
X-13.238 Y-76.928
X-13.191 Y-76.324
X-13.145 Y-75.705
X-13.099 Y-75.072
X-13.064 Y-74.579
Z-2.7 F300
X-13.053 Y-74.424 F600
X-13.007 Y-73.761
X-12.962 Y-73.082
X-12.918 Y-72.387
X-12.874 Y-71.676
X-12.831 Y-70.949
X-12.789 Y-70.205
X-12.747 Y-69.443
X-12.707 Y-68.664
X-12.668 Y-67.867
X-12.631 Y-67.051
X-12.594 Y-66.217
X-12.559 Y-65.364
X-12.526 Y-64.492
X-12.494 Y-63.601
X-12.464 Y-62.689
X-12.436 Y-61.758
X-12.409 Y-60.806
X-12.384 Y-59.833
X-12.361 Y-58.84
X-12.341 Y-57.825
X-12.322 Y-56.789
X-12.305 Y-55.731
X-12.291 Y-54.651
X-12.278 Y-53.55
X-12.268 Y-52.426
X-12.26 Y-51.28
X-12.255 Y-50.112
X-12.251 Y-48.921
X-12.25 Y-47.708
Y-44.016
X-12.26 Y-43.781
X-12.288 Y-43.536
X-12.338 Y-43.266
X-12.408 Y-42.972
X-12.5 Y-42.654
X-12.612 Y-42.314
X-12.744 Y-41.954
X-12.893 Y-41.575
X-13.06 Y-41.178
X-13.241 Y-40.764
X-13.435 Y-40.335
X-13.639 Y-39.891
X-13.852 Y-39.434
X-14.072 Y-38.966
X-14.073 Y-38.963
X-14.52 Y-37.998
X-14.525 Y-37.987
X-14.968 Y-36.992
X-14.976 Y-36.973
X-15.397 Y-35.953
X-15.405 Y-35.934
X-15.602 Y-35.417
X-15.608 Y-35.401
X-15.794 Y-34.88
X-15.8 Y-34.862
X-15.972 Y-34.337
X-15.978 Y-34.317
X-16.136 Y-33.79
X-16.142 Y-33.768
X-16.283 Y-33.238
X-16.289 Y-33.214
X-16.412 Y-32.681
X-16.417 Y-32.655
X-16.521 Y-32.12
X-16.526 Y-32.093
X-16.61 Y-31.555
X-16.613 Y-31.526
X-16.677 Y-30.985
X-16.68 Y-30.956
X-16.723 Y-30.411
X-16.724 Y-30.382
X-16.746 Y-29.832
X-16.747 Y-29.804
X-16.748 Y-29.249
X-16.747 Y-29.221
X-16.728 Y-28.661
X-16.726 Y-28.634
X-16.686 Y-28.068
X-16.684 Y-28.043
X-16.624 Y-27.471
X-16.621 Y-27.447
X-16.542 Y-26.869
X-16.539 Y-26.847
X-16.442 Y-26.264
X-16.438 Y-26.244
X-16.323 Y-25.655
X-16.319 Y-25.636
X-16.187 Y-25.044
X-16.183 Y-25.026
X-16.035 Y-24.43
X-16.031 Y-24.413
X-15.867 Y-23.816
X-15.863 Y-23.8
X-15.685 Y-23.204
X-15.68 Y-23.188
X-15.489 Y-22.593
X-15.484 Y-22.578
X-15.28 Y-21.988
X-15.274 Y-21.973
X-15.058 Y-21.389
X-15.052 Y-21.374
X-14.825 Y-20.8
X-14.818 Y-20.784
X-14.581 Y-20.221
X-14.574 Y-20.205
X-14.326 Y-19.656
X-14.319 Y-19.639
X-14.063 Y-19.106
X-14.054 Y-19.089
X-13.79 Y-18.575
X-13.78 Y-18.556
X-13.509 Y-18.064
X-13.497 Y-18.044
X-13.22 Y-17.575
X-13.207 Y-17.553
X-12.924 Y-17.111
X-12.908 Y-17.087
X-12.62 Y-16.674
X-12.601 Y-16.648
X-12.31 Y-16.266
X-12.286 Y-16.237
X-11.991 Y-15.888
X-11.962 Y-15.856
X-11.665 Y-15.543
X-11.629 Y-15.508
X-11.329 Y-15.232
X-11.297 Y-15.204
X-11.146 Y-15.081
X-11.121 Y-15.061
X-10.97 Y-14.948
X-10.943 Y-14.928
X-10.791 Y-14.825
X-10.76 Y-14.805
X-10.75 Y-14.799
Z-2.5
X-10.609 Y-14.713
X-10.574 Y-14.693
X-10.423 Y-14.611
X-10.385 Y-14.592
X-10.233 Y-14.521
X-10.192 Y-14.502
X-10.04 Y-14.442
X-9.995 Y-14.426
X-9.843 Y-14.376
X-9.795 Y-14.362
X-9.643 Y-14.323
X-9.592 Y-14.312
X-9.44 Y-14.284
X-9.386 Y-14.277
X-9.234 Y-14.26
X-9.18 Y-14.256
X-9.028 Y-14.251
X-8.972
X-8.82 Y-14.256
X-8.766 Y-14.26
X-8.614 Y-14.277
X-8.56 Y-14.284
X-8.408 Y-14.312
X-8.357 Y-14.323
X-8.205 Y-14.362
X-8.157 Y-14.376
X-8.005 Y-14.426
X-7.96 Y-14.442
X-7.808 Y-14.502
X-7.767 Y-14.521
X-7.615 Y-14.592
X-7.577 Y-14.611
X-7.426 Y-14.693
X-7.391 Y-14.713
X-7.25 Y-14.799
Z-2.7 F300
X-7.24 Y-14.805 F600
X-7.209 Y-14.825
X-7.057 Y-14.928
X-7.03 Y-14.948
X-6.879 Y-15.061
X-6.854 Y-15.081
X-6.703 Y-15.204
X-6.671 Y-15.232
X-6.371 Y-15.508
X-6.335 Y-15.543
X-6.038 Y-15.856
X-6.009 Y-15.888
X-5.714 Y-16.237
X-5.69 Y-16.266
X-5.399 Y-16.648
X-5.38 Y-16.674
X-5.092 Y-17.087
X-5.076 Y-17.111
X-4.793 Y-17.553
X-4.78 Y-17.575
X-4.503 Y-18.044
X-4.491 Y-18.064
X-4.22 Y-18.556
X-4.21 Y-18.575
X-3.946 Y-19.089
X-3.937 Y-19.106
X-3.681 Y-19.639
X-3.674 Y-19.656
X-3.426 Y-20.205
X-3.419 Y-20.221
X-3.182 Y-20.784
X-3.175 Y-20.8
X-2.948 Y-21.374
X-2.942 Y-21.389
X-2.726 Y-21.973
X-2.72 Y-21.988
X-2.516 Y-22.578
X-2.511 Y-22.593
X-2.32 Y-23.188
X-2.315 Y-23.204
X-2.137 Y-23.8
X-2.133 Y-23.816
X-1.969 Y-24.413
X-1.965 Y-24.43
X-1.817 Y-25.026
X-1.813 Y-25.044
X-1.681 Y-25.636
X-1.677 Y-25.655
X-1.562 Y-26.243
X-1.558 Y-26.264
X-1.461 Y-26.847
X-1.458 Y-26.869
X-1.379 Y-27.447
X-1.376 Y-27.471
X-1.316 Y-28.043
X-1.314 Y-28.068
X-1.274 Y-28.634
X-1.272 Y-28.661
X-1.253 Y-29.221
X-1.252 Y-29.249
X-1.253 Y-29.804
X-1.254 Y-29.832
X-1.276 Y-30.382
X-1.277 Y-30.411
X-1.32 Y-30.956
X-1.323 Y-30.985
X-1.387 Y-31.526
X-1.39 Y-31.555
X-1.474 Y-32.093
X-1.479 Y-32.12
X-1.583 Y-32.655
X-1.588 Y-32.681
X-1.711 Y-33.214
X-1.717 Y-33.238
X-1.858 Y-33.768
X-1.864 Y-33.79
X-2.022 Y-34.317
X-2.028 Y-34.337
X-2.2 Y-34.862
X-2.206 Y-34.88
X-2.392 Y-35.401
X-2.398 Y-35.417
X-2.595 Y-35.934
X-2.603 Y-35.953
X-3.024 Y-36.973
X-3.032 Y-36.992
X-3.475 Y-37.987
X-3.48 Y-37.998
X-3.927 Y-38.963
X-3.928 Y-38.966
X-4.148 Y-39.434
X-4.361 Y-39.891
X-4.565 Y-40.335
X-4.759 Y-40.764
X-4.94 Y-41.178
X-5.107 Y-41.575
X-5.256 Y-41.954
X-5.388 Y-42.314
X-5.5 Y-42.654
X-5.592 Y-42.972
X-5.662 Y-43.266
X-5.712 Y-43.536
X-5.74 Y-43.781
X-5.75 Y-44.016
Y-47.708
X-5.749 Y-49.107
X-5.744 Y-50.476
X-5.737 Y-51.814
X-5.726 Y-53.123
X-5.713 Y-54.402
X-5.697 Y-55.651
X-5.678 Y-56.871
X-5.656 Y-58.062
X-5.632 Y-59.224
X-5.605 Y-60.358
X-5.576 Y-61.464
X-5.544 Y-62.542
X-5.51 Y-63.593
X-5.473 Y-64.617
X-5.435 Y-65.615
X-5.394 Y-66.588
X-5.352 Y-67.535
X-5.308 Y-68.457
X-5.262 Y-69.356
X-5.215 Y-70.23
X-5.167 Y-71.081
X-5.117 Y-71.91
X-5.066 Y-72.716
X-5.015 Y-73.501
X-4.963 Y-74.264
X-4.91 Y-75.008
X-4.857 Y-75.731
X-4.803 Y-76.434
X-4.75 Y-77.119
X-4.734 Y-77.32
Z-2.5
X-4.696 Y-77.785
X-4.643 Y-78.433
X-4.591 Y-79.064
X-4.539 Y-79.678
X-4.488 Y-80.276
X-4.442 Y-80.808
Z-2.7 F300
X-4.438 Y-80.858 F600
X-4.389 Y-81.424
X-4.341 Y-81.975
X-4.296 Y-82.511
X-4.252 Y-83.034
X-4.251 Y-83.035
X-4.21 Y-83.543
X-4.209 Y-83.544
X-4.17 Y-84.038
X-4.169 Y-84.04
X-4.132 Y-84.521
Y-84.524
X-4.097 Y-84.992
Y-84.995
X-4.065 Y-85.45
Y-85.454
X-4.036 Y-85.897
Y-85.901
X-4.01 Y-86.333
Y-86.338
X-3.988 Y-86.757
Y-86.763
X-3.969 Y-87.172
Y-87.178
X-3.954 Y-87.576
Y-87.583
X-3.944 Y-87.97
X-3.943 Y-87.978
X-3.937 Y-88.355
Y-88.363
X-3.935 Y-88.73
Y-88.74
X-3.938 Y-89.096
Y-89.107
X-3.946 Y-89.454
Y-89.466
X-3.959 Y-89.804
Y-89.816
X-3.977 Y-90.145
X-3.978 Y-90.159
X-4.001 Y-90.478
X-4.003 Y-90.493
X-4.032 Y-90.804
X-4.033 Y-90.82
X-4.068 Y-91.122
X-4.07 Y-91.139
X-4.111 Y-91.432
X-4.114 Y-91.451
X-4.161 Y-91.736
X-4.164 Y-91.756
X-4.218 Y-92.033
X-4.222 Y-92.054
X-4.282 Y-92.322
X-4.287 Y-92.345
X-4.354 Y-92.605
X-4.38 Y-92.687
X-4.415 Y-92.78
X-4.445 Y-92.848
X-4.482 Y-92.913
X-4.535 Y-92.997
X-4.578 Y-93.058
X-8.101 Y-97.568
G2 X-8.501 Y-97.903 I-0.985 J0.77
X-9.856 Y-97.783 Z-2.75 I-0.585 J1.105 F1016
G1 X-13.502 Y-94.934 Z-2.912
G2 X-13.983 Y-93.949 Z-2.951 I0.77 J0.985
G1 Y-92.558 Z-3
Y-90.213 F600
X-14.013 Y-89.642
X-14.014 Y-89.621
X-14.03 Y-88.999
Y-88.982
X-14.031 Y-88.33
Y-88.315
X-14.018 Y-87.631
Y-87.618
X-13.992 Y-86.902
Y-86.891
X-13.955 Y-86.14
Y-86.132
X-13.908 Y-85.345
X-13.907 Y-85.338
X-13.851 Y-84.513
X-13.85 Y-84.51
X-13.819 Y-84.083
Y-84.08
X-13.785 Y-83.643
Y-83.642
X-13.75 Y-83.194
Y-83.193
X-13.713 Y-82.735
Y-82.734
X-13.675 Y-82.265
X-13.635 Y-81.785
X-13.594 Y-81.293
X-13.552 Y-80.791
X-13.509 Y-80.276
X-13.465 Y-79.75
X-13.421 Y-79.211
X-13.375 Y-78.66
X-13.33 Y-78.096
X-13.328 Y-78.069
Z-2.5
X-13.284 Y-77.519
X-13.238 Y-76.928
X-13.191 Y-76.324
X-13.145 Y-75.705
X-13.099 Y-75.072
X-13.064 Y-74.579
Z-3 F300
X-13.053 Y-74.424 F600
X-13.007 Y-73.761
X-12.962 Y-73.082
X-12.918 Y-72.387
X-12.874 Y-71.676
X-12.831 Y-70.949
X-12.789 Y-70.205
X-12.747 Y-69.443
X-12.707 Y-68.664
X-12.668 Y-67.867
X-12.631 Y-67.051
X-12.594 Y-66.217
X-12.559 Y-65.364
X-12.526 Y-64.492
X-12.494 Y-63.601
X-12.464 Y-62.689
X-12.436 Y-61.758
X-12.409 Y-60.806
X-12.384 Y-59.833
X-12.361 Y-58.84
X-12.341 Y-57.825
X-12.322 Y-56.789
X-12.305 Y-55.731
X-12.291 Y-54.651
X-12.278 Y-53.55
X-12.268 Y-52.426
X-12.26 Y-51.28
X-12.255 Y-50.112
X-12.251 Y-48.921
X-12.25 Y-47.708
Y-44.016
X-12.26 Y-43.781
X-12.288 Y-43.536
X-12.338 Y-43.266
X-12.408 Y-42.972
X-12.5 Y-42.654
X-12.612 Y-42.314
X-12.744 Y-41.954
X-12.893 Y-41.575
X-13.06 Y-41.178
X-13.241 Y-40.764
X-13.435 Y-40.335
X-13.639 Y-39.891
X-13.852 Y-39.434
X-14.072 Y-38.966
X-14.073 Y-38.963
X-14.52 Y-37.998
X-14.525 Y-37.987
X-14.968 Y-36.992
X-14.976 Y-36.973
X-15.397 Y-35.953
X-15.405 Y-35.934
X-15.602 Y-35.417
X-15.608 Y-35.401
X-15.794 Y-34.88
X-15.8 Y-34.862
X-15.972 Y-34.337
X-15.978 Y-34.317
X-16.136 Y-33.79
X-16.142 Y-33.768
X-16.283 Y-33.238
X-16.289 Y-33.214
X-16.412 Y-32.681
X-16.417 Y-32.655
X-16.521 Y-32.12
X-16.526 Y-32.093
X-16.61 Y-31.555
X-16.613 Y-31.526
X-16.677 Y-30.985
X-16.68 Y-30.956
X-16.723 Y-30.411
X-16.724 Y-30.382
X-16.746 Y-29.832
X-16.747 Y-29.804
X-16.748 Y-29.249
X-16.747 Y-29.221
X-16.728 Y-28.661
X-16.726 Y-28.634
X-16.686 Y-28.068
X-16.684 Y-28.043
X-16.624 Y-27.471
X-16.621 Y-27.447
X-16.542 Y-26.869
X-16.539 Y-26.847
X-16.442 Y-26.264
X-16.438 Y-26.244
X-16.323 Y-25.655
X-16.319 Y-25.636
X-16.187 Y-25.044
X-16.183 Y-25.026
X-16.035 Y-24.43
X-16.031 Y-24.413
X-15.867 Y-23.816
X-15.863 Y-23.8
X-15.685 Y-23.204
X-15.68 Y-23.188
X-15.489 Y-22.593
X-15.484 Y-22.578
X-15.28 Y-21.988
X-15.274 Y-21.973
X-15.058 Y-21.389
X-15.052 Y-21.374
X-14.825 Y-20.8
X-14.818 Y-20.784
X-14.581 Y-20.221
X-14.574 Y-20.205
X-14.326 Y-19.656
X-14.319 Y-19.639
X-14.063 Y-19.106
X-14.054 Y-19.089
X-13.79 Y-18.575
X-13.78 Y-18.556
X-13.509 Y-18.064
X-13.497 Y-18.044
X-13.22 Y-17.575
X-13.207 Y-17.553
X-12.924 Y-17.111
X-12.908 Y-17.087
X-12.62 Y-16.674
X-12.601 Y-16.648
X-12.31 Y-16.266
X-12.286 Y-16.237
X-11.991 Y-15.888
X-11.962 Y-15.856
X-11.665 Y-15.543
X-11.629 Y-15.508
X-11.329 Y-15.232
X-11.297 Y-15.204
X-11.146 Y-15.081
X-11.121 Y-15.061
X-10.97 Y-14.948
X-10.943 Y-14.928
X-10.791 Y-14.825
X-10.76 Y-14.805
X-10.75 Y-14.799
Z-2.5
X-10.609 Y-14.713
X-10.574 Y-14.693
X-10.423 Y-14.611
X-10.385 Y-14.592
X-10.233 Y-14.521
X-10.192 Y-14.502
X-10.04 Y-14.442
X-9.995 Y-14.426
X-9.843 Y-14.376
X-9.795 Y-14.362
X-9.643 Y-14.323
X-9.592 Y-14.312
X-9.44 Y-14.284
X-9.386 Y-14.277
X-9.234 Y-14.26
X-9.18 Y-14.256
X-9.028 Y-14.251
X-8.972
X-8.82 Y-14.256
X-8.766 Y-14.26
X-8.614 Y-14.277
X-8.56 Y-14.284
X-8.408 Y-14.312
X-8.357 Y-14.323
X-8.205 Y-14.362
X-8.157 Y-14.376
X-8.005 Y-14.426
X-7.96 Y-14.442
X-7.808 Y-14.502
X-7.767 Y-14.521
X-7.615 Y-14.592
X-7.577 Y-14.611
X-7.426 Y-14.693
X-7.391 Y-14.713
X-7.25 Y-14.799
Z-3 F300
X-7.24 Y-14.805 F600
X-7.209 Y-14.825
X-7.057 Y-14.928
X-7.03 Y-14.948
X-6.879 Y-15.061
X-6.854 Y-15.081
X-6.703 Y-15.204
X-6.671 Y-15.232
X-6.371 Y-15.508
X-6.335 Y-15.543
X-6.038 Y-15.856
X-6.009 Y-15.888
X-5.714 Y-16.237
X-5.69 Y-16.266
X-5.399 Y-16.648
X-5.38 Y-16.674
X-5.092 Y-17.087
X-5.076 Y-17.111
X-4.793 Y-17.553
X-4.78 Y-17.575
X-4.503 Y-18.044
X-4.491 Y-18.064
X-4.22 Y-18.556
X-4.21 Y-18.575
X-3.946 Y-19.089
X-3.937 Y-19.106
X-3.681 Y-19.639
X-3.674 Y-19.656
X-3.426 Y-20.205
X-3.419 Y-20.221
X-3.182 Y-20.784
X-3.175 Y-20.8
X-2.948 Y-21.374
X-2.942 Y-21.389
X-2.726 Y-21.973
X-2.72 Y-21.988
X-2.516 Y-22.578
X-2.511 Y-22.593
X-2.32 Y-23.188
X-2.315 Y-23.204
X-2.137 Y-23.8
X-2.133 Y-23.816
X-1.969 Y-24.413
X-1.965 Y-24.43
X-1.817 Y-25.026
X-1.813 Y-25.044
X-1.681 Y-25.636
X-1.677 Y-25.655
X-1.562 Y-26.243
X-1.558 Y-26.264
X-1.461 Y-26.847
X-1.458 Y-26.869
X-1.379 Y-27.447
X-1.376 Y-27.471
X-1.316 Y-28.043
X-1.314 Y-28.068
X-1.274 Y-28.634
X-1.272 Y-28.661
X-1.253 Y-29.221
X-1.252 Y-29.249
X-1.253 Y-29.804
X-1.254 Y-29.832
X-1.276 Y-30.382
X-1.277 Y-30.411
X-1.32 Y-30.956
X-1.323 Y-30.985
X-1.387 Y-31.526
X-1.39 Y-31.555
X-1.474 Y-32.093
X-1.479 Y-32.12
X-1.583 Y-32.655
X-1.588 Y-32.681
X-1.711 Y-33.214
X-1.717 Y-33.238
X-1.858 Y-33.768
X-1.864 Y-33.79
X-2.022 Y-34.317
X-2.028 Y-34.337
X-2.2 Y-34.862
X-2.206 Y-34.88
X-2.392 Y-35.401
X-2.398 Y-35.417
X-2.595 Y-35.934
X-2.603 Y-35.953
X-3.024 Y-36.973
X-3.032 Y-36.992
X-3.475 Y-37.987
X-3.48 Y-37.998
X-3.927 Y-38.963
X-3.928 Y-38.966
X-4.148 Y-39.434
X-4.361 Y-39.891
X-4.565 Y-40.335
X-4.759 Y-40.764
X-4.94 Y-41.178
X-5.107 Y-41.575
X-5.256 Y-41.954
X-5.388 Y-42.314
X-5.5 Y-42.654
X-5.592 Y-42.972
X-5.662 Y-43.266
X-5.712 Y-43.536
X-5.74 Y-43.781
X-5.75 Y-44.016
Y-47.708
X-5.749 Y-49.107
X-5.744 Y-50.476
X-5.737 Y-51.814
X-5.726 Y-53.123
X-5.713 Y-54.402
X-5.697 Y-55.651
X-5.678 Y-56.871
X-5.656 Y-58.062
X-5.632 Y-59.224
X-5.605 Y-60.358
X-5.576 Y-61.464
X-5.544 Y-62.542
X-5.51 Y-63.593
X-5.473 Y-64.617
X-5.435 Y-65.615
X-5.394 Y-66.588
X-5.352 Y-67.535
X-5.308 Y-68.457
X-5.262 Y-69.356
X-5.215 Y-70.23
X-5.167 Y-71.081
X-5.117 Y-71.91
X-5.066 Y-72.716
X-5.015 Y-73.501
X-4.963 Y-74.264
X-4.91 Y-75.008
X-4.857 Y-75.731
X-4.803 Y-76.434
X-4.75 Y-77.119
X-4.734 Y-77.32
Z-2.5
X-4.696 Y-77.785
X-4.643 Y-78.433
X-4.591 Y-79.064
X-4.539 Y-79.678
X-4.488 Y-80.276
X-4.442 Y-80.808
Z-3 F300
X-4.438 Y-80.858 F600
X-4.389 Y-81.424
X-4.341 Y-81.975
X-4.296 Y-82.511
X-4.252 Y-83.034
X-4.251 Y-83.035
X-4.21 Y-83.543
X-4.209 Y-83.544
X-4.17 Y-84.038
X-4.169 Y-84.04
X-4.132 Y-84.521
Y-84.524
X-4.097 Y-84.992
Y-84.995
X-4.065 Y-85.45
Y-85.454
X-4.036 Y-85.897
Y-85.901
X-4.01 Y-86.333
Y-86.338
X-3.988 Y-86.757
Y-86.763
X-3.969 Y-87.172
Y-87.178
X-3.954 Y-87.576
Y-87.583
X-3.944 Y-87.97
X-3.943 Y-87.978
X-3.937 Y-88.355
Y-88.363
X-3.935 Y-88.73
Y-88.74
X-3.938 Y-89.096
Y-89.107
X-3.946 Y-89.454
Y-89.466
X-3.959 Y-89.804
Y-89.816
X-3.977 Y-90.145
X-3.978 Y-90.159
X-4.001 Y-90.478
X-4.003 Y-90.493
X-4.032 Y-90.804
X-4.033 Y-90.82
X-4.068 Y-91.122
X-4.07 Y-91.139
X-4.111 Y-91.432
X-4.114 Y-91.451
X-4.161 Y-91.736
X-4.164 Y-91.756
X-4.218 Y-92.033
X-4.222 Y-92.054
X-4.282 Y-92.322
X-4.287 Y-92.345
X-4.354 Y-92.605
X-4.38 Y-92.687
X-4.415 Y-92.78
X-4.445 Y-92.848
X-4.482 Y-92.913
X-4.535 Y-92.997
X-4.578 Y-93.058
X-8.101 Y-97.568
G2 X-9.856 Y-97.783 I-0.985 J0.77
G1 X-13.502 Y-94.934
G2 X-13.983 Y-93.949 I0.77 J0.985
G1 Y-92.558
Z15
(When using Fusion 360 for Personal Use, the feedrate of)
(rapid moves is reduced to match the feedrate of cutting)
(moves, which can increase machining time. Unrestricted rapid)
(moves are available with a Fusion 360 Subscription.)

(Bohrfrasen7)
G0 X-22.203 Y-13.855
G1 Z15 F600
Z2
Z0.15 F400
X-22.211 Z0.104
X-22.232 Z0.062
X-22.265 Z0.029
X-22.307 Z0.007
X-22.353 Z0
X-22.428
X-22.475 Y-13.862
X-22.516 Y-13.883
X-22.55 Y-13.917
X-22.571 Y-13.958
X-22.578 Y-14.005
G3 X-20.578 Y-14.005 Z-0.5 I1 J0 F600
X-22.578 Y-14.005 Z-1 I-1 J0
X-20.578 Y-14.005 Z-1.5 I1 J0
X-22.578 Y-14.005 I-1 J0
X-20.578 Y-14.005 I1 J0
G1 X-20.586 Y-13.958
X-20.607 Y-13.917
X-20.64 Y-13.883
X-20.682 Y-13.862
X-20.728 Y-13.855
X-20.803
X-20.85 Z-1.493
X-20.891 Z-1.471
X-20.925 Z-1.438
X-20.946 Z-1.396
X-20.953 Z-1.35
Z5
X-28.567 Y-20.219
Z2
Z0.15 F400
X-28.575 Z0.104
X-28.596 Z0.062
X-28.629 Z0.029
X-28.671 Z0.007
X-28.717 Z0
X-28.792
X-28.839 Y-20.226
X-28.88 Y-20.247
X-28.914 Y-20.281
X-28.935 Y-20.322
X-28.942 Y-20.369
G3 X-26.942 Y-20.369 Z-0.5 I1 J0 F600
X-28.942 Y-20.369 Z-1 I-1 J0
X-26.942 Y-20.369 Z-1.5 I1 J0
X-28.942 Y-20.369 I-1 J0
X-26.942 Y-20.369 I1 J0
G1 X-26.95 Y-20.322
X-26.971 Y-20.281
X-27.004 Y-20.247
X-27.046 Y-20.226
X-27.092 Y-20.219
X-27.167
X-27.214 Z-1.493
X-27.255 Z-1.471
X-27.289 Z-1.438
X-27.31 Z-1.396
X-27.317 Z-1.35
Z15
(When using Fusion 360 for Personal Use, the feedrate of)
(rapid moves is reduced to match the feedrate of cutting)
(moves, which can increase machining time. Unrestricted rapid)
(moves are available with a Fusion 360 Subscription.)

(Bohrfrasen5)
G0 X-25.185 Y-7.537
G1 Z15 F600
Z2
Z0.15 F400
X-25.193 Z0.104
X-25.214 Z0.062
X-25.247 Z0.029
X-25.289 Z0.007
X-25.335 Z0
X-25.41
X-25.457 Y-7.544
X-25.498 Y-7.565
X-25.532 Y-7.599
X-25.553 Y-7.64
X-25.56 Y-7.687
G3 X-23.96 Y-7.687 Z-0.5 I0.8 J0 F600
X-25.56 Y-7.687 Z-1 I-0.8 J0
X-23.96 Y-7.687 Z-1.5 I0.8 J0
X-25.56 Y-7.687 Z-2 I-0.8 J0
X-23.96 Y-7.687 Z-2.5 I0.8 J0
X-25.56 Y-7.687 Z-3 I-0.8 J0
X-23.96 Y-7.687 I0.8 J0
X-25.56 Y-7.687 I-0.8 J0
G1 X-25.553 Y-7.733
X-25.532 Y-7.775
X-25.498 Y-7.808
X-25.457 Y-7.829
X-25.41 Y-7.837
X-25.335
X-25.289 Z-2.993
X-25.247 Z-2.971
X-25.214 Z-2.938
X-25.193 Z-2.896
X-25.185 Z-2.85
Z5
X-21.553 Y-13.855
Z0.5
Z-1.35 F400
X-21.561 Z-1.396
X-21.582 Z-1.438
X-21.615 Z-1.471
X-21.657 Z-1.493
X-21.703 Z-1.5
X-21.778
X-21.825 Y-13.862
X-21.866 Y-13.883
X-21.9 Y-13.917
X-21.921 Y-13.958
X-21.928 Y-14.005
G3 X-21.228 Y-14.005 Z-2 I0.35 J0 F600
X-21.928 Y-14.005 Z-2.5 I-0.35 J0
X-21.228 Y-14.005 Z-3 I0.35 J0
X-21.928 Y-14.005 I-0.35 J0
X-21.228 Y-14.005 I0.35 J0
G1 X-21.236 Y-13.958
X-21.257 Y-13.917
X-21.29 Y-13.883
X-21.332 Y-13.862
X-21.378 Y-13.855
X-21.453
X-21.5 Z-2.993
X-21.541 Z-2.971
X-21.575 Z-2.938
X-21.596 Z-2.896
X-21.603 Z-2.85
Z5
X-28.517
Z2
Z0.15 F400
X-28.525 Z0.104
X-28.546 Z0.062
X-28.579 Z0.029
X-28.621 Z0.007
X-28.667 Z0
X-28.742
X-28.789 Y-13.862
X-28.83 Y-13.883
X-28.864 Y-13.917
X-28.885 Y-13.958
X-28.892 Y-14.005
G3 X-26.992 Y-14.005 Z-0.5 I0.95 J0 F600
X-28.892 Y-14.005 Z-1 I-0.95 J0
X-26.992 Y-14.005 Z-1.5 I0.95 J0
X-28.892 Y-14.005 Z-2 I-0.95 J0
X-26.992 Y-14.005 Z-2.5 I0.95 J0
X-28.892 Y-14.005 Z-3 I-0.95 J0
X-26.992 Y-14.005 I0.95 J0
X-28.892 Y-14.005 I-0.95 J0
G1 X-28.885 Y-14.051
X-28.864 Y-14.093
X-28.83 Y-14.126
X-28.789 Y-14.147
X-28.742 Y-14.155
X-28.667
X-28.621 Z-2.993
X-28.579 Z-2.971
X-28.546 Z-2.938
X-28.525 Z-2.896
X-28.517 Z-2.85
Z5
X-26.335 Y-17.037
Z2
Z0.15 F400
X-26.343 Z0.104
X-26.364 Z0.062
X-26.397 Z0.029
X-26.439 Z0.007
X-26.485 Z0
X-26.56
X-26.607 Y-17.044
X-26.648 Y-17.065
X-26.682 Y-17.099
X-26.703 Y-17.14
X-26.71 Y-17.187
G3 X-22.81 Y-17.187 Z-0.5 I1.95 J0 F600
X-26.71 Y-17.187 Z-1 I-1.95 J0
X-22.81 Y-17.187 Z-1.5 I1.95 J0
X-26.71 Y-17.187 Z-2 I-1.95 J0
X-22.81 Y-17.187 Z-2.5 I1.95 J0
X-26.71 Y-17.187 Z-3 I-1.95 J0
X-22.81 Y-17.187 I1.95 J0
X-26.71 Y-17.187 I-1.95 J0
G1 X-26.703 Y-17.233
X-26.682 Y-17.275
X-26.648 Y-17.308
X-26.607 Y-17.329
X-26.56 Y-17.337
X-26.485
X-26.439 Z-2.993
X-26.397 Z-2.971
X-26.364 Z-2.938
X-26.343 Z-2.896
X-26.335 Z-2.85
Z5
X-22.153 Y-20.219
Z2
Z0.15 F400
X-22.161 Z0.104
X-22.182 Z0.062
X-22.215 Z0.029
X-22.257 Z0.007
X-22.303 Z0
X-22.378
X-22.425 Y-20.226
X-22.466 Y-20.247
X-22.5 Y-20.281
X-22.521 Y-20.322
X-22.528 Y-20.369
G3 X-20.628 Y-20.369 Z-0.5 I0.95 J0 F600
X-22.528 Y-20.369 Z-1 I-0.95 J0
X-20.628 Y-20.369 Z-1.5 I0.95 J0
X-22.528 Y-20.369 Z-2 I-0.95 J0
X-20.628 Y-20.369 Z-2.5 I0.95 J0
X-22.528 Y-20.369 Z-3 I-0.95 J0
X-20.628 Y-20.369 I0.95 J0
X-22.528 Y-20.369 I-0.95 J0
G1 X-22.521 Y-20.415
X-22.5 Y-20.457
X-22.466 Y-20.49
X-22.425 Y-20.511
X-22.378 Y-20.519
X-22.303
X-22.257 Z-2.993
X-22.215 Z-2.971
X-22.182 Z-2.938
X-22.161 Z-2.896
X-22.153 Z-2.85
Z5
X-27.917 Y-20.219
Z0.5
Z-1.35 F400
X-27.925 Z-1.396
X-27.946 Z-1.438
X-27.979 Z-1.471
X-28.021 Z-1.493
X-28.067 Z-1.5
X-28.142
X-28.189 Y-20.226
X-28.23 Y-20.247
X-28.264 Y-20.281
X-28.285 Y-20.322
X-28.292 Y-20.369
G3 X-27.592 Y-20.369 Z-2 I0.35 J0 F600
X-28.292 Y-20.369 Z-2.5 I-0.35 J0
X-27.592 Y-20.369 Z-3 I0.35 J0
X-28.292 Y-20.369 I-0.35 J0
X-27.592 Y-20.369 I0.35 J0
G1 X-27.6 Y-20.322
X-27.621 Y-20.281
X-27.654 Y-20.247
X-27.696 Y-20.226
X-27.742 Y-20.219
X-27.817
X-27.864 Z-2.993
X-27.905 Z-2.971
X-27.939 Z-2.938
X-27.96 Z-2.896
X-27.967 Z-2.85
Z5
X-25.185 Y-26.537
Z2
Z0.15 F400
X-25.193 Z0.104
X-25.214 Z0.062
X-25.247 Z0.029
X-25.289 Z0.007
X-25.335 Z0
X-25.41
X-25.457 Y-26.544
X-25.498 Y-26.565
X-25.532 Y-26.599
X-25.553 Y-26.64
X-25.56 Y-26.687
G3 X-23.96 Y-26.687 Z-0.5 I0.8 J0 F600
X-25.56 Y-26.687 Z-1 I-0.8 J0
X-23.96 Y-26.687 Z-1.5 I0.8 J0
X-25.56 Y-26.687 Z-2 I-0.8 J0
X-23.96 Y-26.687 Z-2.5 I0.8 J0
X-25.56 Y-26.687 Z-3 I-0.8 J0
X-23.96 Y-26.687 I0.8 J0
X-25.56 Y-26.687 I-0.8 J0
G1 X-25.553 Y-26.733
X-25.532 Y-26.775
X-25.498 Y-26.808
X-25.457 Y-26.829
X-25.41 Y-26.837
X-25.335
X-25.289 Z-2.993
X-25.247 Z-2.971
X-25.214 Z-2.938
X-25.193 Z-2.896
X-25.185 Z-2.85
Z5
Y-62.297
Z2
Z0.15 F400
X-25.193 Z0.104
X-25.214 Z0.062
X-25.247 Z0.029
X-25.289 Z0.007
X-25.335 Z0
X-25.41
X-25.457 Y-62.304
X-25.498 Y-62.326
X-25.532 Y-62.359
X-25.553 Y-62.401
X-25.56 Y-62.447
G3 X-23.96 Y-62.447 Z-0.5 I0.8 J0 F600
X-25.56 Y-62.447 Z-1 I-0.8 J0
X-23.96 Y-62.447 Z-1.5 I0.8 J0
X-25.56 Y-62.447 Z-2 I-0.8 J0
X-23.96 Y-62.447 Z-2.5 I0.8 J0
X-25.56 Y-62.447 Z-3 I-0.8 J0
X-23.96 Y-62.447 I0.8 J0
X-25.56 Y-62.447 I-0.8 J0
G1 X-25.553 Y-62.493
X-25.532 Y-62.535
X-25.498 Y-62.568
X-25.457 Y-62.59
X-25.41 Y-62.597
X-25.335
X-25.289 Z-2.993
X-25.247 Z-2.971
X-25.214 Z-2.938
X-25.193 Z-2.896
X-25.185 Z-2.85
Z5
X-26.459 Y-71
Z2
Z0.15 F400
X-26.466 Z0.104
X-26.487 Z0.062
X-26.521 Z0.029
X-26.562 Z0.007
X-26.609 Z0
X-26.684
X-26.73 Y-71.007
X-26.772 Y-71.029
X-26.805 Y-71.062
X-26.826 Y-71.104
X-26.834 Y-71.15
G3 X-26.134 Y-71.15 Z-0.5 I0.35 J0 F600
X-26.834 Y-71.15 Z-1 I-0.35 J0
X-26.134 Y-71.15 Z-1.5 I0.35 J0
X-26.834 Y-71.15 Z-2 I-0.35 J0
X-26.134 Y-71.15 Z-2.5 I0.35 J0
X-26.834 Y-71.15 Z-3 I-0.35 J0
X-26.134 Y-71.15 I0.35 J0
X-26.834 Y-71.15 I-0.35 J0
G1 X-26.826 Y-71.196
X-26.805 Y-71.238
X-26.772 Y-71.271
X-26.73 Y-71.293
X-26.684 Y-71.3
X-26.609
X-26.562 Z-2.993
X-26.521 Z-2.971
X-26.487 Z-2.938
X-26.466 Z-2.896
X-26.459 Z-2.85
Z15
(When using Fusion 360 for Personal Use, the feedrate of)
(rapid moves is reduced to match the feedrate of cutting)
(moves, which can increase machining time. Unrestricted rapid)
(moves are available with a Fusion 360 Subscription.)

(2D-Kontur7)
G0 X-28.564 Y-58.161
G1 Z15 F600
Z5
Z2.5 F300
X-28.549 Y-57.891 Z2.491 F1016
X-28.508 Y-57.13 Z2.464
X-28.467 Y-56.351 Z2.437
X-28.429 Y-55.553 Z2.409
X-28.391 Y-54.738 Z2.38
X-28.354 Y-53.904 Z2.351
X-28.32 Y-53.051 Z2.321
X-28.286 Y-52.179 Z2.291
X-28.254 Y-51.287 Z2.26
X-28.224 Y-50.376 Z2.228
X-28.196 Y-49.445 Z2.195
X-28.169 Y-48.493 Z2.162
X-28.144 Y-47.52 Z2.128
X-28.122 Y-46.526 Z2.093
X-28.101 Y-45.512 Z2.058
X-28.082 Y-44.475 Z2.022
X-28.065 Y-43.418 Z1.985
X-28.051 Y-42.338 Z1.947
X-28.039 Y-41.237 Z1.909
X-28.028 Y-40.113 Z1.869
X-28.02 Y-38.967 Z1.829
X-28.015 Y-37.799 Z1.789
X-28.011 Y-36.608 Z1.747
X-28.01 Y-35.395 Z1.705
Y-31.702 Z1.576
X-28.02 Y-31.468 Z1.568
X-28.049 Y-31.223 Z1.559
X-28.098 Y-30.953 Z1.549
X-28.168 Y-30.658 Z1.539
X-28.26 Y-30.341 Z1.527
X-28.372 Y-30.001 Z1.515
X-28.504 Y-29.641 Z1.501
X-28.654 Y-29.262 Z1.487
X-28.82 Y-28.865 Z1.472
X-29.001 Y-28.451 Z1.456
X-29.195 Y-28.022 Z1.44
X-29.399 Y-27.578 Z1.423
X-29.613 Y-27.121 Z1.405
X-29.832 Y-26.653 Z1.387
X-29.834 Y-26.65
X-30.281 Y-25.685 Z1.35
X-30.286 Y-25.674 Z1.349
X-30.728 Y-24.678 Z1.311
X-30.736 Y-24.66
X-31.158 Y-23.64 Z1.272
X-31.165 Y-23.621 Z1.271
X-31.362 Y-23.103 Z1.252
X-31.368 Y-23.088
X-31.554 Y-22.566 Z1.232
X-31.56 Y-22.549
X-31.732 Y-22.024 Z1.212
X-31.739 Y-22.004
X-31.896 Y-21.477 Z1.192
X-31.902 Y-21.455 Z1.191
X-32.043 Y-20.924 Z1.172
X-32.049 Y-20.9 Z1.171
X-32.172 Y-20.368 Z1.152
X-32.177 Y-20.342 Z1.151
X-32.281 Y-19.807 Z1.132
X-32.286 Y-19.78 Z1.131
X-32.37 Y-19.241 Z1.112
X-32.374 Y-19.213 Z1.111
X-32.437 Y-18.672 Z1.092
X-32.44 Y-18.643 Z1.091
X-32.483 Y-18.097 Z1.072
X-32.485 Y-18.069 Z1.071
X-32.507 Y-17.519 Z1.052
Y-17.49 Z1.051
X-32.508 Y-16.936 Z1.032
Y-16.908 Z1.031
X-32.488 Y-16.347 Z1.011
X-32.486 Y-16.321 Z1.01
X-32.446 Y-15.755 Z0.99
X-32.444 Y-15.73
X-32.384 Y-15.158 Z0.969
X-32.382 Y-15.134
X-32.303 Y-14.556 Z0.948
X-32.299 Y-14.534 Z0.947
X-32.202 Y-13.951 Z0.927
X-32.198 Y-13.93 Z0.926
X-32.083 Y-13.342 Z0.905
X-32.079 Y-13.323 Z0.904
X-31.947 Y-12.73 Z0.883
X-31.943 Y-12.712
X-31.795 Y-12.117 Z0.861
X-31.791 Y-12.1
X-31.628 Y-11.503 Z0.839
X-31.623 Y-11.487 Z0.838
X-31.445 Y-10.89 Z0.817
X-31.44 Y-10.874 Z0.816
X-31.249 Y-10.28 Z0.794
X-31.244 Y-10.265
X-31.04 Y-9.675 Z0.772
X-31.034 Y-9.659 Z0.771
X-30.818 Y-9.076 Z0.75
X-30.812 Y-9.061 Z0.749
X-30.585 Y-8.486 Z0.727
X-30.579 Y-8.471
X-30.341 Y-7.908 Z0.706
X-30.334 Y-7.891 Z0.705
X-30.087 Y-7.343 Z0.684
X-30.079 Y-7.326 Z0.683
X-29.823 Y-6.793 Z0.663
X-29.814 Y-6.775 Z0.662
X-29.55 Y-6.262 Z0.642
X-29.54 Y-6.243 Z0.641
X-29.269 Y-5.751 Z0.621
X-29.258 Y-5.73
X-28.98 Y-5.262 Z0.602
X-28.967 Y-5.24 Z0.601
X-28.684 Y-4.798 Z0.582
X-28.668 Y-4.774 Z0.581
X-28.381 Y-4.361 Z0.564
X-28.361 Y-4.334 Z0.563
X-28.07 Y-3.953 Z0.546
X-28.046 Y-3.924 Z0.545
X-27.752 Y-3.575 Z0.529
X-27.722 Y-3.543 Z0.527
X-27.425 Y-3.23 Z0.512
X-27.389 Y-3.195 Z0.51
X-27.089 Y-2.919 Z0.496
X-27.057 Y-2.891 Z0.495
X-26.906 Y-2.768 Z0.488
X-26.881 Y-2.748 Z0.487
X-26.731 Y-2.635 Z0.48
X-26.703 Y-2.615 Z0.479
X-26.552 Y-2.512 Z0.472
X-26.521 Y-2.492 Z0.471
X-26.369 Y-2.4 Z0.465
X-26.335 Y-2.38 Z0.464
X-26.183 Y-2.298 Z0.458
X-26.146 Y-2.279 Z0.456
X-25.994 Y-2.207 Z0.45
X-25.952 Y-2.189 Z0.449
X-25.8 Y-2.129 Z0.443
X-25.755 Y-2.113 Z0.441
X-25.603 Y-2.063 Z0.436
X-25.555 Y-2.049 Z0.434
X-25.403 Y-2.01 Z0.428
X-25.352 Y-1.999 Z0.427
X-25.2 Y-1.971 Z0.421
X-25.146 Y-1.963 Z0.419
X-24.994 Y-1.947 Z0.414
X-24.94 Y-1.943 Z0.412
X-24.788 Y-1.937 Z0.407
X-24.733 Z0.405
X-24.58 Y-1.943 Z0.4
X-24.527 Y-1.947 Z0.398
X-24.374 Y-1.963 Z0.392
X-24.321 Y-1.971 Z0.39
X-24.168 Y-1.999 Z0.385
X-24.118 Y-2.01 Z0.383
X-23.965 Y-2.049 Z0.378
X-23.917 Y-2.063 Z0.376
X-23.765 Y-2.113 Z0.37
X-23.721 Y-2.129 Z0.369
X-23.569 Y-2.189 Z0.363
X-23.527 Y-2.207 Z0.361
X-23.375 Y-2.279 Z0.356
X-23.338 Y-2.298 Z0.354
X-23.186 Y-2.38 Z0.348
X-23.151 Y-2.4 Z0.347
X-23 Y-2.492 Z0.34
X-22.969 Y-2.512 Z0.339
X-22.818 Y-2.615 Z0.333
X-22.79 Y-2.635 Z0.332
X-22.639 Y-2.748 Z0.325
X-22.614 Y-2.768 Z0.324
X-22.464 Y-2.891 Z0.317
X-22.431 Y-2.919 Z0.316
X-22.131 Y-3.194 Z0.301
X-22.095 Y-3.23 Z0.3
X-21.798 Y-3.543 Z0.285
X-21.769 Y-3.575 Z0.283
X-21.474 Y-3.924 Z0.267
X-21.451 Y-3.953 Z0.266
X-21.159 Y-4.335 Z0.249
X-21.14 Y-4.361 Z0.248
X-20.852 Y-4.774 Z0.23
X-20.836 Y-4.798 Z0.229
X-20.554 Y-5.24 Z0.211
X-20.54 Y-5.262 Z0.21
X-20.263 Y-5.73 Z0.191
X-20.251 Y-5.751 Z0.19
X-19.98 Y-6.243 Z0.171
X-19.97 Y-6.262 Z0.17
X-19.706 Y-6.775 Z0.15
X-19.698 Y-6.793 Z0.149
X-19.442 Y-7.326 Z0.128
X-19.434 Y-7.343
X-19.187 Y-7.891 Z0.107
X-19.179 Y-7.908 Z0.106
X-18.942 Y-8.471 Z0.085
X-18.935 Y-8.486 Z0.084
X-18.708 Y-9.061 Z0.063
X-18.702 Y-9.076 Z0.062
X-18.486 Y-9.659 Z0.04
X-18.48 Y-9.675
X-18.276 Y-10.265 Z0.018
X-18.271 Y-10.28 Z0.017
X-18.08 Y-10.875 Z-0.004
X-18.075 Y-10.89 Z-0.005
X-17.898 Y-11.487 Z-0.027
X-17.893 Y-11.503
X-17.73 Y-12.1 Z-0.049
X-17.725 Y-12.117 Z-0.05
X-17.577 Y-12.712 Z-0.071
X-17.573 Y-12.73 Z-0.072
X-17.441 Y-13.323 Z-0.093
X-17.437 Y-13.342 Z-0.094
X-17.322 Y-13.93 Z-0.114
X-17.319 Y-13.951 Z-0.115
X-17.221 Y-14.534 Z-0.136
X-17.218 Y-14.556 Z-0.137
X-17.139 Y-15.134 Z-0.157
X-17.136 Y-15.158 Z-0.158
X-17.076 Y-15.73 Z-0.178
X-17.074 Y-15.755 Z-0.179
X-17.034 Y-16.321 Z-0.199
X-17.033 Y-16.347 Z-0.2
X-17.013 Y-16.908 Z-0.219
X-17.012 Y-16.935 Z-0.22
X-17.013 Y-17.49 Z-0.239
X-17.014 Y-17.519 Z-0.24
X-17.036 Y-18.069 Z-0.26
X-17.037 Y-18.097 Z-0.261
X-17.08 Y-18.643 Z-0.28
X-17.083 Y-18.672 Z-0.281
X-17.147 Y-19.213 Z-0.3
Y-19.218
X-17.151 Y-19.241 F600
X-17.235 Y-19.78
X-17.239 Y-19.807
X-17.343 Y-20.342
X-17.349 Y-20.368
X-17.472 Y-20.9
X-17.477 Y-20.924
X-17.618 Y-21.455
X-17.624 Y-21.477
X-17.782 Y-22.004
X-17.788 Y-22.024
X-17.96 Y-22.549
X-17.966 Y-22.566
X-18.152 Y-23.088
X-18.158 Y-23.103
X-18.355 Y-23.621
X-18.363 Y-23.64
X-18.784 Y-24.66
X-18.792 Y-24.678
X-19.235 Y-25.674
X-19.24 Y-25.685
X-19.687 Y-26.65
X-19.688 Y-26.653
X-19.908 Y-27.121
X-20.121 Y-27.578
X-20.326 Y-28.022
X-20.52 Y-28.451
X-20.701 Y-28.865
X-20.867 Y-29.262
X-21.016 Y-29.641
X-21.148 Y-30.001
X-21.26 Y-30.341
X-21.352 Y-30.658
X-21.422 Y-30.953
X-21.472 Y-31.223
X-21.5 Y-31.468
X-21.51 Y-31.702
Y-35.395
X-21.509 Y-36.794
X-21.504 Y-38.163
X-21.497 Y-39.501
X-21.486 Y-40.81
X-21.473 Y-42.089
X-21.457 Y-43.338
X-21.438 Y-44.558
X-21.416 Y-45.748
X-21.392 Y-46.911
X-21.365 Y-48.044
X-21.336 Y-49.15
X-21.304 Y-50.229
X-21.27 Y-51.28
X-21.233 Y-52.304
X-21.195 Y-53.302
X-21.154 Y-54.275
X-21.112 Y-55.222
X-21.068 Y-56.144
X-21.022 Y-57.042
X-20.975 Y-57.917
X-20.927 Y-58.768
X-20.877 Y-59.596
X-20.827 Y-60.403
X-20.775 Y-61.188
X-20.723 Y-61.951
X-20.67 Y-62.694
X-20.617 Y-63.417
X-20.563 Y-64.121
X-20.51 Y-64.806
X-20.457 Y-65.472
X-20.403 Y-66.12
X-20.351 Y-66.751
X-20.299 Y-67.365
X-20.248 Y-67.963
X-20.198 Y-68.544
X-20.149 Y-69.11
X-20.102 Y-69.662
X-20.056 Y-70.198
X-20.012 Y-70.721
Y-70.722
X-19.97 Y-71.229
Y-71.231
X-19.93 Y-71.725
Y-71.727
X-19.892 Y-72.208
Y-72.211
X-19.858 Y-72.678
X-19.857 Y-72.682
X-19.826 Y-73.137
X-19.825 Y-73.141
X-19.796 Y-73.584
