(1001)
(Bearbeiten)
(  Hersteller: ChinaCnc)
(  model: 3040T)
(  description: Generic 3-axis)
(T14  D=1.5 CR=0 - ZMIN=-3 - Schaftfraser)
G90 G94
G17
G21
G28 G91 Z0
G90

(Bohrfrasen5)
T14
S6000 M3
G54
G0 X-9.375 Y-19.85
Z15
Z2
G1 Z0.15 F400
X-9.382 Z0.104
X-9.404 Z0.062
X-9.437 Z0.029
X-9.479 Z0.007
X-9.525 Z0
X-9.6
X-9.646 Y-19.857
X-9.688 Y-19.879
X-9.721 Y-19.912
X-9.743 Y-19.954
X-9.75 Y-20
G3 X-8.25 Y-20 Z-0.5 I0.75 J0 F600
X-9.75 Y-20 Z-1 I-0.75 J0
X-8.25 Y-20 Z-1.5 I0.75 J0
X-9.75 Y-20 Z-2 I-0.75 J0
X-8.25 Y-20 Z-2.5 I0.75 J0
X-9.75 Y-20 Z-3 I-0.75 J0
X-8.25 Y-20 I0.75 J0
X-9.75 Y-20 I-0.75 J0
G1 X-9.743 Y-20.046
X-9.721 Y-20.088
X-9.688 Y-20.121
X-9.646 Y-20.143
X-9.6 Y-20.15
X-9.525
X-9.479 Z-2.993
X-9.437 Z-2.971
X-9.404 Z-2.938
X-9.382 Z-2.896
X-9.375 Z-2.85
G0 Z5
X-5.893 Y-26.168
Z0.5
G1 Z-1.35 F400
X-5.9 Z-1.396
X-5.922 Z-1.438
X-5.955 Z-1.471
X-5.997 Z-1.493
X-6.043 Z-1.5
X-6.118
X-6.164 Y-26.175
X-6.206 Y-26.197
X-6.239 Y-26.23
X-6.261 Y-26.272
X-6.268 Y-26.318
G3 X-5.368 Y-26.318 Z-2 I0.45 J0 F600
X-6.268 Y-26.318 Z-2.5 I-0.45 J0
X-5.368 Y-26.318 Z-3 I0.45 J0
X-6.268 Y-26.318 I-0.45 J0
X-5.368 Y-26.318 I0.45 J0
G1 X-5.375 Y-26.272
X-5.397 Y-26.23
X-5.43 Y-26.197
X-5.472 Y-26.175
X-5.518 Y-26.168
X-5.593
X-5.639 Z-2.993
X-5.681 Z-2.971
X-5.714 Z-2.938
X-5.736 Z-2.896
X-5.743 Z-2.85
G0 Z5
X-6.593
Z2
G1 Z0.15 F400
X-6.6 Z0.104
X-6.622 Z0.062
X-6.655 Z0.029
X-6.697 Z0.007
X-6.743 Z0
X-6.818
X-6.864 Y-26.175
X-6.906 Y-26.197
X-6.939 Y-26.23
X-6.961 Y-26.272
X-6.968 Y-26.318
G3 X-4.668 Y-26.318 Z-0.5 I1.15 J0 F600
X-6.968 Y-26.318 Z-1 I-1.15 J0
X-4.668 Y-26.318 Z-1.5 I1.15 J0
X-6.968 Y-26.318 I-1.15 J0
X-4.668 Y-26.318 I1.15 J0
G1 X-4.675 Y-26.272
X-4.697 Y-26.23
X-4.73 Y-26.197
X-4.772 Y-26.175
X-4.818 Y-26.168
X-4.893
X-4.939 Z-1.493
X-4.981 Z-1.471
X-5.014 Z-1.438
X-5.036 Z-1.396
X-5.043 Z-1.35
G0 Z5
X-10.375 Y-29.35
Z2
G1 Z0.15 F400
X-10.382 Z0.104
X-10.404 Z0.062
X-10.437 Z0.029
X-10.479 Z0.007
X-10.525 Z0
X-10.6
X-10.646 Y-29.357
X-10.688 Y-29.379
X-10.721 Y-29.412
X-10.743 Y-29.454
X-10.75 Y-29.5
G3 X-7.25 Y-29.5 Z-0.5 I1.75 J0 F600
X-10.75 Y-29.5 Z-1 I-1.75 J0
X-7.25 Y-29.5 Z-1.5 I1.75 J0
X-10.75 Y-29.5 Z-2 I-1.75 J0
X-7.25 Y-29.5 Z-2.5 I1.75 J0
X-10.75 Y-29.5 Z-3 I-1.75 J0
X-7.25 Y-29.5 I1.75 J0
X-10.75 Y-29.5 I-1.75 J0
G1 X-10.743 Y-29.546
X-10.721 Y-29.588
X-10.688 Y-29.621
X-10.646 Y-29.643
X-10.6 Y-29.65
X-10.525
X-10.479 Z-2.993
X-10.437 Z-2.971
X-10.404 Z-2.938
X-10.382 Z-2.896
X-10.375 Z-2.85
G0 Z5
X-12.957 Y-26.168
Z2
G1 Z0.15 F400
X-12.964 Z0.104
X-12.986 Z0.062
X-13.019 Z0.029
X-13.061 Z0.007
X-13.107 Z0
X-13.182
X-13.228 Y-26.175
X-13.27 Y-26.197
X-13.303 Y-26.23
X-13.325 Y-26.272
X-13.332 Y-26.318
G3 X-11.032 Y-26.318 Z-0.5 I1.15 J0 F600
X-13.332 Y-26.318 Z-1 I-1.15 J0
X-11.032 Y-26.318 Z-1.5 I1.15 J0
X-13.332 Y-26.318 Z-2 I-1.15 J0
X-11.032 Y-26.318 Z-2.5 I1.15 J0
X-13.332 Y-26.318 Z-3 I-1.15 J0
X-11.032 Y-26.318 I1.15 J0
X-13.332 Y-26.318 I-1.15 J0
G1 X-13.325 Y-26.364
X-13.303 Y-26.406
X-13.27 Y-26.439
X-13.228 Y-26.461
X-13.182 Y-26.468
X-13.107
X-13.061 Z-2.993
X-13.019 Z-2.971
X-12.986 Z-2.938
X-12.964 Z-2.896
X-12.957 Z-2.85
G0 Z5
X-12.257 Y-32.532
Z0.5
G1 Z-1.35 F400
X-12.264 Z-1.396
X-12.286 Z-1.438
X-12.319 Z-1.471
X-12.361 Z-1.493
X-12.407 Z-1.5
X-12.482
X-12.528 Y-32.539
X-12.57 Y-32.561
X-12.603 Y-32.594
X-12.625 Y-32.636
X-12.632 Y-32.682
G3 X-11.732 Y-32.682 Z-2 I0.45 J0 F600
X-12.632 Y-32.682 Z-2.5 I-0.45 J0
X-11.732 Y-32.682 Z-3 I0.45 J0
X-12.632 Y-32.682 I-0.45 J0
X-11.732 Y-32.682 I0.45 J0
G1 X-11.739 Y-32.636
X-11.761 Y-32.594
X-11.794 Y-32.561
X-11.836 Y-32.539
X-11.882 Y-32.532
X-11.957
X-12.003 Z-2.993
X-12.045 Z-2.971
X-12.078 Z-2.938
X-12.1 Z-2.896
X-12.107 Z-2.85
G0 Z5
X-12.957
Z2
G1 Z0.15 F400
X-12.964 Z0.104
X-12.986 Z0.062
X-13.019 Z0.029
X-13.061 Z0.007
X-13.107 Z0
X-13.182
X-13.228 Y-32.539
X-13.27 Y-32.561
X-13.303 Y-32.594
X-13.325 Y-32.636
X-13.332 Y-32.682
G3 X-11.032 Y-32.682 Z-0.5 I1.15 J0 F600
X-13.332 Y-32.682 Z-1 I-1.15 J0
X-11.032 Y-32.682 Z-1.5 I1.15 J0
X-13.332 Y-32.682 I-1.15 J0
X-11.032 Y-32.682 I1.15 J0
G1 X-11.039 Y-32.636
X-11.061 Y-32.594
X-11.094 Y-32.561
X-11.136 Y-32.539
X-11.182 Y-32.532
X-11.257
X-11.303 Z-1.493
X-11.345 Z-1.471
X-11.378 Z-1.438
X-11.4 Z-1.396
X-11.407 Z-1.35
G0 Z5
X-6.593
Z2
G1 Z0.15 F400
X-6.6 Z0.104
X-6.622 Z0.062
X-6.655 Z0.029
X-6.697 Z0.007
X-6.743 Z0
X-6.818
X-6.864 Y-32.539
X-6.906 Y-32.561
X-6.939 Y-32.594
X-6.961 Y-32.636
X-6.968 Y-32.682
G3 X-4.668 Y-32.682 Z-0.5 I1.15 J0 F600
X-6.968 Y-32.682 Z-1 I-1.15 J0
X-4.668 Y-32.682 Z-1.5 I1.15 J0
X-6.968 Y-32.682 Z-2 I-1.15 J0
X-4.668 Y-32.682 Z-2.5 I1.15 J0
X-6.968 Y-32.682 Z-3 I-1.15 J0
X-4.668 Y-32.682 I1.15 J0
X-6.968 Y-32.682 I-1.15 J0
G1 X-6.961 Y-32.728
X-6.939 Y-32.77
X-6.906 Y-32.803
X-6.864 Y-32.825
X-6.818 Y-32.832
X-6.743
X-6.697 Z-2.993
X-6.655 Z-2.971
X-6.622 Z-2.938
X-6.6 Z-2.896
X-6.593 Z-2.85
G0 Z5
X-9.375 Y-38.85
Z2
G1 Z0.15 F400
X-9.382 Z0.104
X-9.404 Z0.062
X-9.437 Z0.029
X-9.479 Z0.007
X-9.525 Z0
X-9.6
X-9.646 Y-38.857
X-9.688 Y-38.879
X-9.721 Y-38.912
X-9.743 Y-38.954
X-9.75 Y-39
G3 X-8.25 Y-39 Z-0.5 I0.75 J0 F600
X-9.75 Y-39 Z-1 I-0.75 J0
X-8.25 Y-39 Z-1.5 I0.75 J0
X-9.75 Y-39 Z-2 I-0.75 J0
X-8.25 Y-39 Z-2.5 I0.75 J0
X-9.75 Y-39 Z-3 I-0.75 J0
X-8.25 Y-39 I0.75 J0
X-9.75 Y-39 I-0.75 J0
G1 X-9.743 Y-39.046
X-9.721 Y-39.088
X-9.688 Y-39.121
X-9.646 Y-39.143
X-9.6 Y-39.15
X-9.525
X-9.479 Z-2.993
X-9.437 Z-2.971
X-9.404 Z-2.938
X-9.382 Z-2.896
X-9.375 Z-2.85
G0 Z5
X-9.575 Y-76.61
Z2
G1 Z0.15 F400
X-9.582 Z0.104
X-9.604 Z0.062
X-9.637 Z0.029
X-9.679 Z0.007
X-9.725 Z0
X-9.8
X-9.846 Y-76.618
X-9.888 Y-76.639
X-9.921 Y-76.672
X-9.943 Y-76.714
X-9.95 Y-76.76
G3 X-8.05 Y-76.76 Z-0.5 I0.95 J0 F600
X-9.95 Y-76.76 Z-1 I-0.95 J0
X-8.05 Y-76.76 Z-1.5 I0.95 J0
X-9.95 Y-76.76 Z-2 I-0.95 J0
X-8.05 Y-76.76 Z-2.5 I0.95 J0
X-9.95 Y-76.76 Z-3 I-0.95 J0
X-8.05 Y-76.76 I0.95 J0
X-9.95 Y-76.76 I-0.95 J0
G1 X-9.943 Y-76.807
X-9.921 Y-76.848
X-9.888 Y-76.882
X-9.846 Y-76.903
X-9.8 Y-76.91
X-9.725
X-9.679 Z-2.993
X-9.637 Z-2.971
X-9.604 Z-2.938
X-9.582 Z-2.896
X-9.575 Z-2.85
G0 Z5
X-10.798 Y-85.313
Z2
G1 Z0.15 F400
X-10.806 Z0.104
X-10.827 Z0.062
X-10.86 Z0.029
X-10.902 Z0.007
X-10.948 Z0
X-11.023
X-11.07 Y-85.321
X-11.112 Y-85.342
X-11.145 Y-85.375
X-11.166 Y-85.417
X-11.173 Y-85.463
G3 X-10.273 Y-85.463 Z-0.5 I0.45 J0 F600
X-11.173 Y-85.463 Z-1 I-0.45 J0
X-10.273 Y-85.463 Z-1.5 I0.45 J0
X-11.173 Y-85.463 Z-2 I-0.45 J0
X-10.273 Y-85.463 Z-2.5 I0.45 J0
X-11.173 Y-85.463 Z-3 I-0.45 J0
X-10.273 Y-85.463 I0.45 J0
X-11.173 Y-85.463 I-0.45 J0
G1 X-11.166 Y-85.51
X-11.145 Y-85.551
X-11.112 Y-85.585
X-11.07 Y-85.606
X-11.023 Y-85.613
X-10.948
X-10.902 Z-2.993
X-10.86 Z-2.971
X-10.827 Z-2.938
X-10.806 Z-2.896
X-10.798 Z-2.85
G0 Z15

(2D-Kontur7)
X-13.273 Y-70.984
Z15
Z5
G1 Z2.5 F300
X-13.269 Y-70.882 Z2.496 F1016
X-13.208 Y-69.479 Z2.447
X-13.148 Y-68.055 Z2.398
X-13.091 Y-66.61 Z2.347
X-13.037 Y-65.146 Z2.296
X-12.986 Y-63.663 Z2.244
X-12.94 Y-62.161 Z2.192
X-12.897 Y-60.641 Z2.139
X-12.859 Y-59.102 Z2.085
X-12.827 Y-57.546 Z2.03
X-12.799 Y-55.972 Z1.975
X-12.778 Y-54.38 Z1.92
X-12.762 Y-52.771 Z1.864
X-12.753 Y-51.144 Z1.807
X-12.75 Y-49.499 Z1.749
Y-43.015 Z1.523
X-12.759 Y-42.795 Z1.515
X-12.785 Y-42.566 Z1.507
X-12.83 Y-42.312 Z1.498
X-12.894 Y-42.034 Z1.488
X-12.978 Y-41.735 Z1.477
X-13.08 Y-41.415 Z1.466
X-13.2 Y-41.074 Z1.453
X-13.337 Y-40.716 Z1.44
X-13.489 Y-40.341 Z1.426
X-13.654 Y-39.949 Z1.411
X-13.83 Y-39.543 Z1.395
X-14.017 Y-39.122 Z1.379
X-14.211 Y-38.689 Z1.363
X-14.41 Y-38.245 Z1.346
X-14.412 Y-38.241
X-14.816 Y-37.326 Z1.311
X-14.821 Y-37.314 Z1.31
X-15.22 Y-36.369 Z1.274
X-15.228 Y-36.349
X-15.605 Y-35.379 Z1.237
X-15.613 Y-35.359 Z1.236
X-15.788 Y-34.866 Z1.218
X-15.794 Y-34.85
X-15.958 Y-34.353 Z1.199
X-15.964 Y-34.335
X-16.115 Y-33.834 Z1.18
X-16.121 Y-33.814
X-16.258 Y-33.309 Z1.161
X-16.264 Y-33.287
X-16.385 Y-32.779 Z1.142
X-16.39 Y-32.755 Z1.141
X-16.495 Y-32.245 Z1.123
X-16.5 Y-32.219 Z1.122
X-16.586 Y-31.705 Z1.104
X-16.59 Y-31.678 Z1.103
X-16.657 Y-31.16 Z1.085
X-16.66 Y-31.132 Z1.084
X-16.709 Y-30.61 Z1.066
X-16.711 Y-30.582 Z1.065
X-16.74 Y-30.055 Z1.046
X-16.741 Y-30.027 Z1.045
X-16.75 Y-29.494 Z1.027
Y-29.467 Z1.026
X-16.739 Y-28.928 Z1.007
X-16.738 Y-28.902 Z1.006
X-16.709 Y-28.356 Z0.987
X-16.707 Y-28.331 Z0.986
X-16.658 Y-27.779 Z0.967
X-16.655 Y-27.755 Z0.966
X-16.588 Y-27.197 Z0.946
X-16.585 Y-27.174 Z0.945
X-16.499 Y-26.609 Z0.925
X-16.496 Y-26.588
X-16.393 Y-26.017 Z0.904
X-16.389 Y-25.998
X-16.269 Y-25.421 Z0.883
X-16.265 Y-25.403
X-16.129 Y-24.822 Z0.862
X-16.125 Y-24.805 Z0.861
X-15.974 Y-24.221 Z0.84
X-15.969 Y-24.205 Z0.839
X-15.804 Y-23.619 Z0.818
X-15.799 Y-23.603
X-15.619 Y-23.018 Z0.796
X-15.615 Y-23.003
X-15.422 Y-22.42 Z0.774
X-15.417 Y-22.405
X-15.212 Y-21.827 Z0.752
X-15.207 Y-21.812
X-14.99 Y-21.24 Z0.73
X-14.984 Y-21.225
X-14.757 Y-20.662 Z0.709
X-14.751 Y-20.647 Z0.708
X-14.514 Y-20.095 Z0.687
X-14.507 Y-20.079 Z0.686
X-14.261 Y-19.542 Z0.666
X-14.253 Y-19.525 Z0.665
X-13.999 Y-19.003 Z0.645
X-13.99 Y-18.986 Z0.644
X-13.728 Y-18.483 Z0.624
X-13.718 Y-18.464
X-13.45 Y-17.983 Z0.604
X-13.438 Y-17.962
X-13.164 Y-17.504 Z0.585
X-13.15 Y-17.482 Z0.584
X-12.871 Y-17.05 Z0.566
X-12.855 Y-17.026 Z0.565
X-12.571 Y-16.623 Z0.548
X-12.551 Y-16.596 Z0.547
X-12.264 Y-16.223 Z0.53
X-12.24 Y-16.194 Z0.529
X-11.949 Y-15.853 Z0.513
X-11.92 Y-15.821 Z0.512
X-11.627 Y-15.516 Z0.497
X-11.591 Y-15.481 Z0.495
X-11.296 Y-15.212 Z0.481
X-11.251 Y-15.174 Z0.479
X-10.955 Y-14.943 Z0.466
X-10.914 Y-14.914 Z0.464
X-10.766 Y-14.813 Z0.458
X-10.735 Y-14.794 Z0.457
X-10.586 Y-14.703 Z0.451
X-10.551 Y-14.684 Z0.449
X-10.402 Y-14.603 Z0.443
X-10.365 Y-14.585 Z0.442
X-10.215 Y-14.515 Z0.436
X-10.174 Y-14.497 Z0.435
X-10.025 Y-14.438 Z0.429
X-9.98 Y-14.422 Z0.427
X-9.831 Y-14.373 Z0.422
X-9.783 Y-14.36 Z0.42
X-9.633 Y-14.322 Z0.415
X-9.583 Y-14.311 Z0.413
X-9.433 Y-14.284 Z0.408
X-9.381 Y-14.276 Z0.406
X-9.231 Y-14.26 Z0.401
X-9.177 Y-14.256 Z0.399
X-9.027 Y-14.25 Z0.393
X-8.973 Z0.392
X-8.823 Y-14.256 Z0.386
X-8.769 Y-14.26 Z0.384
X-8.619 Y-14.276 Z0.379
X-8.567 Y-14.284 Z0.377
X-8.417 Y-14.311 Z0.372
X-8.367 Y-14.322 Z0.37
X-8.217 Y-14.36 Z0.365
X-8.169 Y-14.373 Z0.363
X-8.02 Y-14.422 Z0.358
X-7.975 Y-14.438 Z0.356
X-7.826 Y-14.497 Z0.35
X-7.785 Y-14.515 Z0.349
X-7.635 Y-14.585 Z0.343
X-7.598 Y-14.603 Z0.342
X-7.449 Y-14.684 Z0.336
X-7.414 Y-14.703 Z0.334
X-7.265 Y-14.794 Z0.328
X-7.234 Y-14.813 Z0.327
X-7.086 Y-14.914 Z0.321
X-7.045 Y-14.943 Z0.319
X-6.749 Y-15.174 Z0.306
X-6.704 Y-15.212 Z0.304
X-6.409 Y-15.481 Z0.29
X-6.373 Y-15.516 Z0.288
X-6.08 Y-15.821 Z0.273
X-6.051 Y-15.854 Z0.272
X-5.76 Y-16.194 Z0.256
X-5.736 Y-16.223 Z0.255
X-5.449 Y-16.596 Z0.238
X-5.429 Y-16.623 Z0.237
X-5.145 Y-17.026 Z0.22
X-5.129 Y-17.05 Z0.219
X-4.85 Y-17.482 Z0.201
X-4.836 Y-17.504 Z0.2
X-4.562 Y-17.962 Z0.181
X-4.55 Y-17.983
X-4.282 Y-18.464 Z0.161
X-4.272 Y-18.483
X-4.01 Y-18.986 Z0.141
X-4.001 Y-19.003 Z0.14
X-3.747 Y-19.525 Z0.12
X-3.739 Y-19.542 Z0.119
X-3.493 Y-20.079 Z0.099
X-3.486 Y-20.095 Z0.098
X-3.249 Y-20.647 Z0.077
X-3.243 Y-20.662 Z0.076
X-3.016 Y-21.225 Z0.055
X-3.01 Y-21.24
X-2.793 Y-21.812 Z0.033
X-2.788 Y-21.827
X-2.583 Y-22.405 Z0.011
X-2.578 Y-22.42
X-2.385 Y-23.003 Z-0.011
X-2.38 Y-23.018
X-2.201 Y-23.604 Z-0.033
X-2.196 Y-23.619
X-2.031 Y-24.205 Z-0.054
X-2.026 Y-24.221 Z-0.055
X-1.875 Y-24.805 Z-0.076
X-1.871 Y-24.822 Z-0.077
X-1.735 Y-25.403 Z-0.098
X-1.731 Y-25.421
X-1.611 Y-25.998 Z-0.119
X-1.607 Y-26.017
X-1.504 Y-26.588 Z-0.14
X-1.501 Y-26.609
X-1.415 Y-27.174 Z-0.16
X-1.412 Y-27.197 Z-0.161
X-1.345 Y-27.755 Z-0.181
X-1.342 Y-27.779 Z-0.182
X-1.293 Y-28.331 Z-0.201
X-1.291 Y-28.356 Z-0.202
X-1.262 Y-28.902 Z-0.221
X-1.261 Y-28.928 Z-0.222
X-1.25 Y-29.467 Z-0.241
Y-29.494 Z-0.242
X-1.259 Y-30.027 Z-0.26
X-1.26 Y-30.055 Z-0.261
X-1.289 Y-30.582 Z-0.28
X-1.291 Y-30.61 Z-0.281
X-1.339 Y-31.132 Z-0.299
X-1.343 Y-31.16 Z-0.3
X-1.41 Y-31.678 F600
X-1.414 Y-31.705
X-1.5 Y-32.219
X-1.505 Y-32.245
X-1.61 Y-32.755
X-1.615 Y-32.78
X-1.736 Y-33.287
X-1.742 Y-33.309
X-1.879 Y-33.814
X-1.885 Y-33.834
X-2.036 Y-34.335
X-2.042 Y-34.353
X-2.206 Y-34.85
X-2.212 Y-34.866
X-2.387 Y-35.359
X-2.395 Y-35.379
X-2.772 Y-36.349
X-2.78 Y-36.369
X-3.179 Y-37.314
X-3.184 Y-37.326
X-3.588 Y-38.241
X-3.59 Y-38.245
X-3.789 Y-38.689
X-3.983 Y-39.122
X-4.17 Y-39.543
X-4.346 Y-39.949
X-4.511 Y-40.341
X-4.663 Y-40.716
X-4.8 Y-41.074
X-4.92 Y-41.415
X-5.022 Y-41.735
X-5.106 Y-42.034
X-5.17 Y-42.312
X-5.215 Y-42.566
X-5.241 Y-42.795
X-5.25 Y-43.015
Y-49.499
X-5.246 Y-51.431
X-5.233 Y-53.335
X-5.212 Y-55.212
X-5.183 Y-57.061
X-5.147 Y-58.884
X-5.103 Y-60.68
X-5.053 Y-62.449
X-4.997 Y-64.19
X-4.936 Y-65.903
X-4.871 Y-67.587
X-4.802 Y-69.242
X-4.731 Y-70.868
X-4.658 Y-72.462
X-4.584 Y-74.025
X-4.511 Y-75.554
X-4.439 Y-77.049
X-4.37 Y-78.507
X-4.304 Y-79.928
Y-79.929
X-4.273 Y-80.624
X-4.243 Y-81.31
Y-81.311
X-4.215 Y-81.985
Y-81.986
X-4.189 Y-82.649
X-4.188 Y-82.651
X-4.164 Y-83.303
Y-83.305
X-4.141 Y-83.945
Y-83.947
X-4.12 Y-84.576
Y-84.578
X-4.102 Y-85.195
Y-85.198
X-4.086 Y-85.802
Y-85.805
X-4.073 Y-86.397
X-4.072 Y-86.4
X-4.062 Y-86.979
Y-86.983
X-4.054 Y-87.548
Y-87.552
X-4.049 Y-88.105
Y-88.109
X-4.047 Y-88.647
Y-88.652
X-4.049 Y-89.176
Y-89.181
X-4.054 Y-89.69
Y-89.696
X-4.063 Y-90.19
Y-90.196
X-4.076 Y-90.675
Y-90.682
X-4.093 Y-91.146
Y-91.154
X-4.113 Y-91.601
X-4.114 Y-91.61
X-4.138 Y-92.041
X-4.139 Y-92.05
X-4.168 Y-92.465
X-4.169 Y-92.475
X-4.202 Y-92.873
X-4.203 Y-92.884
X-4.241 Y-93.265
X-4.242 Y-93.278
X-4.285 Y-93.641
X-4.287 Y-93.655
X-4.334 Y-94
X-4.337 Y-94.016
X-4.389 Y-94.343
X-4.392 Y-94.362
X-4.449 Y-94.67
X-4.473 Y-94.764
X-4.509 Y-94.875
X-4.541 Y-94.956
X-4.582 Y-95.033
X-4.642 Y-95.132
X-4.692 Y-95.204
X-8.101 Y-99.568
G2 X-9.856 Y-99.783 I-0.985 J0.77
G1 X-13.399 Y-97.015
G2 X-13.879 Y-96.03 I0.77 J0.985
G1 Y-91.288
X-13.894 Y-90.904
X-13.895 Y-90.898
X-13.907 Y-90.487
Y-90.481
X-13.917 Y-90.059
Y-90.054
X-13.924 Y-89.62
Y-89.615
X-13.929 Y-89.169
Y-89.165
X-13.931 Y-88.708
Y-88.704
X-13.93 Y-88.237
Y-88.233
X-13.927 Y-87.755
Y-87.752
X-13.922 Y-87.263
Y-87.26
X-13.915 Y-86.762
X-13.914 Y-86.757
X-13.893 Y-85.731
Y-85.726
X-13.865 Y-84.661
Y-84.657
X-13.829 Y-83.556
Y-83.553
X-13.788 Y-82.418
Y-82.415
X-13.741 Y-81.247
Y-81.245
X-13.69 Y-80.045
Y-80.044
X-13.635 Y-78.814
Y-78.813
X-13.578 Y-77.555
X-13.517 Y-76.27
X-13.456 Y-74.958
X-13.393 Y-73.623
X-13.331 Y-72.264
X-13.269 Y-70.882
X-13.208 Y-69.479
X-13.148 Y-68.055
X-13.091 Y-66.61
X-13.037 Y-65.146
X-12.986 Y-63.663
X-12.94 Y-62.161
X-12.897 Y-60.641
X-12.859 Y-59.102
X-12.827 Y-57.546
X-12.799 Y-55.972
X-12.778 Y-54.38
X-12.762 Y-52.771
X-12.753 Y-51.144
X-12.75 Y-49.499
Y-43.015
X-12.759 Y-42.795
X-12.785 Y-42.566
X-12.83 Y-42.312
X-12.894 Y-42.034
X-12.978 Y-41.735
X-13.08 Y-41.415
X-13.2 Y-41.074
X-13.337 Y-40.716
X-13.489 Y-40.341
X-13.654 Y-39.949
X-13.83 Y-39.543
X-14.017 Y-39.122
X-14.211 Y-38.689
X-14.41 Y-38.245
X-14.412 Y-38.241
X-14.816 Y-37.326
X-14.821 Y-37.314
X-15.22 Y-36.369
X-15.228 Y-36.349
X-15.605 Y-35.379
X-15.613 Y-35.359
X-15.788 Y-34.866
X-15.794 Y-34.85
X-15.958 Y-34.353
X-15.964 Y-34.335
X-16.115 Y-33.834
X-16.121 Y-33.814
X-16.258 Y-33.309
X-16.264 Y-33.287
X-16.385 Y-32.779
X-16.39 Y-32.755
X-16.495 Y-32.245
X-16.5 Y-32.219
X-16.586 Y-31.705
X-16.59 Y-31.678
X-16.657 Y-31.16
X-16.66 Y-31.132
X-16.709 Y-30.61
X-16.711 Y-30.582
X-16.74 Y-30.055
X-16.741 Y-30.027
X-16.75 Y-29.494
Y-29.467
X-16.739 Y-28.928
X-16.738 Y-28.902
X-16.709 Y-28.356
X-16.707 Y-28.331
X-16.658 Y-27.779
X-16.655 Y-27.755
X-16.588 Y-27.197
X-16.585 Y-27.174
X-16.499 Y-26.609
X-16.496 Y-26.588
X-16.393 Y-26.017
X-16.389 Y-25.998
X-16.269 Y-25.421
X-16.265 Y-25.403
X-16.129 Y-24.822
X-16.125 Y-24.805
X-15.974 Y-24.221
X-15.969 Y-24.205
X-15.804 Y-23.619
X-15.799 Y-23.603
X-15.619 Y-23.018
X-15.615 Y-23.003
X-15.422 Y-22.42
X-15.417 Y-22.405
X-15.212 Y-21.827
X-15.207 Y-21.812
X-14.99 Y-21.24
X-14.984 Y-21.225
X-14.757 Y-20.662
X-14.751 Y-20.647
X-14.514 Y-20.095
X-14.507 Y-20.079
X-14.261 Y-19.542
X-14.253 Y-19.525
X-13.999 Y-19.003
X-13.99 Y-18.986
X-13.728 Y-18.483
X-13.718 Y-18.464
X-13.45 Y-17.983
X-13.438 Y-17.962
X-13.164 Y-17.504
X-13.15 Y-17.482
X-12.871 Y-17.05
X-12.855 Y-17.026
X-12.571 Y-16.623
X-12.551 Y-16.596
X-12.264 Y-16.223
X-12.24 Y-16.194
X-11.949 Y-15.853
X-11.92 Y-15.821
X-11.627 Y-15.516
X-11.591 Y-15.481
X-11.296 Y-15.212
X-11.251 Y-15.174
X-10.955 Y-14.943
X-10.914 Y-14.914
X-10.766 Y-14.813
X-10.735 Y-14.794
X-10.586 Y-14.703
X-10.551 Y-14.684
X-10.402 Y-14.603
X-10.365 Y-14.585
X-10.215 Y-14.515
X-10.174 Y-14.497
X-10.025 Y-14.438
X-9.98 Y-14.422
X-9.831 Y-14.373
X-9.783 Y-14.36
X-9.633 Y-14.322
X-9.583 Y-14.311
X-9.433 Y-14.284
X-9.381 Y-14.276
X-9.231 Y-14.26
X-9.177 Y-14.256
X-9.027 Y-14.25
X-8.973
X-8.823 Y-14.256
X-8.769 Y-14.26
X-8.619 Y-14.276
X-8.567 Y-14.284
X-8.417 Y-14.311
X-8.367 Y-14.322
X-8.217 Y-14.36
X-8.169 Y-14.373
X-8.02 Y-14.422
X-7.975 Y-14.438
X-7.826 Y-14.497
X-7.785 Y-14.515
X-7.635 Y-14.585
X-7.598 Y-14.603
X-7.449 Y-14.684
X-7.414 Y-14.703
X-7.265 Y-14.794
X-7.234 Y-14.813
X-7.086 Y-14.914
X-7.045 Y-14.943
X-6.749 Y-15.174
X-6.704 Y-15.212
X-6.409 Y-15.481
X-6.373 Y-15.516
X-6.08 Y-15.821
X-6.051 Y-15.854
X-5.76 Y-16.194
X-5.736 Y-16.223
X-5.449 Y-16.596
X-5.429 Y-16.623
X-5.145 Y-17.026
X-5.129 Y-17.05
X-4.85 Y-17.482
X-4.836 Y-17.504
X-4.562 Y-17.962
X-4.55 Y-17.983
X-4.282 Y-18.464
X-4.272 Y-18.483
X-4.01 Y-18.986
X-4.001 Y-19.003
X-3.747 Y-19.525
X-3.739 Y-19.542
X-3.493 Y-20.079
X-3.486 Y-20.095
X-3.249 Y-20.647
X-3.243 Y-20.662
X-3.016 Y-21.225
X-3.01 Y-21.24
X-2.793 Y-21.812
X-2.788 Y-21.827
X-2.583 Y-22.405
X-2.578 Y-22.42
X-2.385 Y-23.003
X-2.38 Y-23.018
X-2.201 Y-23.604
X-2.196 Y-23.619
X-2.031 Y-24.205
X-2.026 Y-24.221
X-1.875 Y-24.805
X-1.871 Y-24.822
X-1.735 Y-25.403
X-1.731 Y-25.421
X-1.611 Y-25.998
X-1.607 Y-26.017
X-1.504 Y-26.588
X-1.501 Y-26.609
X-1.415 Y-27.174
X-1.412 Y-27.197
X-1.345 Y-27.755
X-1.342 Y-27.779
X-1.293 Y-28.331
X-1.291 Y-28.356
X-1.262 Y-28.902
X-1.261 Y-28.928
X-1.25 Y-29.467
Y-29.494
X-1.259 Y-30.027
X-1.26 Y-30.055
X-1.289 Y-30.582
X-1.291 Y-30.61
X-1.339 Y-31.132
X-1.343 Y-31.16
X-1.41 Y-31.678 Z-0.318 F1016
X-1.414 Y-31.705 Z-0.319
X-1.5 Y-32.219 Z-0.337
X-1.505 Y-32.245 Z-0.338
X-1.61 Y-32.755 Z-0.357
X-1.615 Y-32.78
X-1.736 Y-33.287 Z-0.376
X-1.742 Y-33.309
X-1.879 Y-33.814 Z-0.395
X-1.885 Y-33.834
X-2.036 Y-34.335 Z-0.414
X-2.042 Y-34.353
X-2.206 Y-34.85 Z-0.433
X-2.212 Y-34.866
X-2.387 Y-35.359 Z-0.451
X-2.395 Y-35.379 Z-0.452
X-2.772 Y-36.349 Z-0.489
X-2.78 Y-36.369
X-3.179 Y-37.314 Z-0.525
X-3.184 Y-37.326 Z-0.526
X-3.588 Y-38.241 Z-0.561
X-3.59 Y-38.245
X-3.789 Y-38.689 Z-0.578
X-3.983 Y-39.122 Z-0.594
X-4.05 Y-39.273 Z-0.6
X-4.17 Y-39.543 F600
X-4.346 Y-39.949
X-4.511 Y-40.341
X-4.663 Y-40.716
X-4.8 Y-41.074
X-4.92 Y-41.415
X-5.022 Y-41.735
X-5.106 Y-42.034
X-5.17 Y-42.312
X-5.215 Y-42.566
X-5.241 Y-42.795
X-5.25 Y-43.015
Y-49.499
X-5.246 Y-51.431
X-5.233 Y-53.335
X-5.212 Y-55.212
X-5.183 Y-57.061
X-5.147 Y-58.884
X-5.103 Y-60.68
X-5.053 Y-62.449
X-4.997 Y-64.19
X-4.936 Y-65.903
X-4.871 Y-67.587
X-4.802 Y-69.242
X-4.731 Y-70.868
X-4.658 Y-72.462
X-4.584 Y-74.025
X-4.511 Y-75.554
X-4.439 Y-77.049
X-4.37 Y-78.507
X-4.304 Y-79.928
Y-79.929
X-4.273 Y-80.624
X-4.243 Y-81.31
Y-81.311
X-4.215 Y-81.985
Y-81.986
X-4.189 Y-82.649
X-4.188 Y-82.651
X-4.164 Y-83.303
Y-83.305
X-4.141 Y-83.945
Y-83.947
X-4.12 Y-84.576
Y-84.578
X-4.102 Y-85.195
Y-85.198
X-4.086 Y-85.802
Y-85.805
X-4.073 Y-86.397
X-4.072 Y-86.4
X-4.062 Y-86.979
Y-86.983
X-4.054 Y-87.548
Y-87.552
X-4.049 Y-88.105
Y-88.109
X-4.047 Y-88.647
Y-88.652
X-4.049 Y-89.176
Y-89.181
X-4.054 Y-89.69
Y-89.696
X-4.063 Y-90.19
Y-90.196
X-4.076 Y-90.675
Y-90.682
X-4.093 Y-91.146
Y-91.154
X-4.113 Y-91.601
X-4.114 Y-91.61
X-4.138 Y-92.041
X-4.139 Y-92.05
X-4.168 Y-92.465
X-4.169 Y-92.475
X-4.202 Y-92.873
X-4.203 Y-92.884
X-4.241 Y-93.265
X-4.242 Y-93.278
X-4.285 Y-93.641
X-4.287 Y-93.655
X-4.334 Y-94
X-4.337 Y-94.016
X-4.389 Y-94.343
X-4.392 Y-94.362
X-4.449 Y-94.67
X-4.473 Y-94.764
X-4.509 Y-94.875
X-4.541 Y-94.956
X-4.582 Y-95.033
X-4.642 Y-95.132
X-4.692 Y-95.204
X-8.101 Y-99.568
G2 X-9.856 Y-99.783 I-0.985 J0.77
G1 X-13.399 Y-97.015
G2 X-13.879 Y-96.03 I0.77 J0.985
G1 Y-91.288
X-13.894 Y-90.904
X-13.895 Y-90.898
X-13.907 Y-90.487
Y-90.481
X-13.917 Y-90.059
Y-90.054
X-13.924 Y-89.62
Y-89.615
X-13.929 Y-89.169
Y-89.165
X-13.931 Y-88.708
Y-88.704
X-13.93 Y-88.237
Y-88.233
X-13.927 Y-87.755
Y-87.752
X-13.922 Y-87.263
Y-87.26
X-13.915 Y-86.762
X-13.914 Y-86.757
X-13.893 Y-85.731
Y-85.726
X-13.865 Y-84.661
Y-84.657
X-13.829 Y-83.556
Y-83.553
X-13.788 Y-82.418
Y-82.415
X-13.741 Y-81.247
Y-81.245
X-13.69 Y-80.045
Y-80.044
X-13.635 Y-78.814
Y-78.813
X-13.578 Y-77.555
X-13.517 Y-76.27
X-13.456 Y-74.958
X-13.393 Y-73.623
X-13.331 Y-72.264
X-13.269 Y-70.882
X-13.208 Y-69.479
X-13.148 Y-68.055
X-13.091 Y-66.61
X-13.037 Y-65.146
X-12.986 Y-63.663
X-12.94 Y-62.161
X-12.897 Y-60.641
X-12.859 Y-59.102
X-12.827 Y-57.546
X-12.799 Y-55.972
X-12.778 Y-54.38
X-12.762 Y-52.771
X-12.753 Y-51.144
X-12.75 Y-49.499
Y-43.015
X-12.759 Y-42.795
X-12.785 Y-42.566
X-12.83 Y-42.312
X-12.894 Y-42.034
X-12.978 Y-41.735
X-13.08 Y-41.415
X-13.2 Y-41.074
X-13.337 Y-40.716
X-13.489 Y-40.341
X-13.654 Y-39.949
X-13.83 Y-39.543
X-14.017 Y-39.122
X-14.211 Y-38.689
X-14.41 Y-38.245
X-14.412 Y-38.241
X-14.816 Y-37.326
X-14.821 Y-37.314
X-15.22 Y-36.369
X-15.228 Y-36.349
X-15.605 Y-35.379
X-15.613 Y-35.359
X-15.788 Y-34.866
X-15.794 Y-34.85
X-15.958 Y-34.353
X-15.964 Y-34.335
X-16.115 Y-33.834
X-16.121 Y-33.814
X-16.258 Y-33.309
X-16.264 Y-33.287
X-16.385 Y-32.779
X-16.39 Y-32.755
X-16.495 Y-32.245
X-16.5 Y-32.219
X-16.586 Y-31.705
X-16.59 Y-31.678
X-16.657 Y-31.16
X-16.66 Y-31.132
X-16.709 Y-30.61
X-16.711 Y-30.582
X-16.74 Y-30.055
X-16.741 Y-30.027
X-16.75 Y-29.494
Y-29.467
X-16.739 Y-28.928
X-16.738 Y-28.902
X-16.709 Y-28.356
X-16.707 Y-28.331
X-16.658 Y-27.779
X-16.655 Y-27.755
X-16.588 Y-27.197
X-16.585 Y-27.174
X-16.499 Y-26.609
X-16.496 Y-26.588
X-16.393 Y-26.017
X-16.389 Y-25.998
X-16.269 Y-25.421
X-16.265 Y-25.403
X-16.129 Y-24.822
X-16.125 Y-24.805
X-15.974 Y-24.221
X-15.969 Y-24.205
X-15.804 Y-23.619
X-15.799 Y-23.603
X-15.619 Y-23.018
X-15.615 Y-23.003
X-15.422 Y-22.42
X-15.417 Y-22.405
X-15.212 Y-21.827
X-15.207 Y-21.812
X-14.99 Y-21.24
X-14.984 Y-21.225
X-14.757 Y-20.662
X-14.751 Y-20.647
X-14.514 Y-20.095
X-14.507 Y-20.079
X-14.261 Y-19.542
X-14.253 Y-19.525
X-13.999 Y-19.003
X-13.99 Y-18.986
X-13.728 Y-18.483
X-13.718 Y-18.464
X-13.45 Y-17.983
X-13.438 Y-17.962
X-13.164 Y-17.504
X-13.15 Y-17.482
X-12.871 Y-17.05
X-12.855 Y-17.026
X-12.571 Y-16.623
X-12.551 Y-16.596
X-12.264 Y-16.223
X-12.24 Y-16.194
X-11.949 Y-15.853
X-11.92 Y-15.821
X-11.627 Y-15.516
X-11.591 Y-15.481
X-11.296 Y-15.212
X-11.251 Y-15.174
X-10.955 Y-14.943
X-10.914 Y-14.914
X-10.766 Y-14.813
X-10.735 Y-14.794
X-10.586 Y-14.703
X-10.551 Y-14.684
X-10.402 Y-14.603
X-10.365 Y-14.585
X-10.215 Y-14.515
X-10.174 Y-14.497
X-10.025 Y-14.438
X-9.98 Y-14.422
X-9.831 Y-14.373
X-9.783 Y-14.36
X-9.633 Y-14.322
X-9.583 Y-14.311
X-9.433 Y-14.284
X-9.381 Y-14.276
X-9.231 Y-14.26
X-9.177 Y-14.256
X-9.027 Y-14.25
X-8.973
X-8.823 Y-14.256
X-8.769 Y-14.26
X-8.619 Y-14.276
X-8.567 Y-14.284
X-8.417 Y-14.311
X-8.367 Y-14.322
X-8.217 Y-14.36
X-8.169 Y-14.373
X-8.02 Y-14.422
X-7.975 Y-14.438
X-7.826 Y-14.497
X-7.785 Y-14.515
X-7.635 Y-14.585
X-7.598 Y-14.603
X-7.449 Y-14.684
X-7.414 Y-14.703
X-7.265 Y-14.794
X-7.234 Y-14.813
X-7.086 Y-14.914
X-7.045 Y-14.943
X-6.749 Y-15.174
X-6.704 Y-15.212
X-6.409 Y-15.481
X-6.373 Y-15.516
X-6.08 Y-15.821
X-6.051 Y-15.854
X-5.76 Y-16.194
X-5.736 Y-16.223
X-5.449 Y-16.596
X-5.429 Y-16.623
X-5.145 Y-17.026
X-5.129 Y-17.05
X-4.85 Y-17.482
X-4.836 Y-17.504
X-4.562 Y-17.962
X-4.55 Y-17.983
X-4.282 Y-18.464
X-4.272 Y-18.483
X-4.01 Y-18.986
X-4.001 Y-19.003
X-3.747 Y-19.525
X-3.739 Y-19.542
X-3.493 Y-20.079
X-3.486 Y-20.095
X-3.249 Y-20.647
X-3.243 Y-20.662
X-3.016 Y-21.225
X-3.01 Y-21.24
X-2.793 Y-21.812
X-2.788 Y-21.827
X-2.583 Y-22.405
X-2.578 Y-22.42
X-2.385 Y-23.003
X-2.38 Y-23.018
X-2.201 Y-23.604
X-2.196 Y-23.619
X-2.031 Y-24.205
X-2.026 Y-24.221
X-1.875 Y-24.805
X-1.871 Y-24.822
X-1.735 Y-25.403
X-1.731 Y-25.421
X-1.611 Y-25.998
X-1.607 Y-26.017
X-1.504 Y-26.588
X-1.501 Y-26.609
X-1.415 Y-27.174
X-1.412 Y-27.197
X-1.345 Y-27.755
X-1.342 Y-27.779
X-1.293 Y-28.331
X-1.291 Y-28.356
X-1.262 Y-28.902
X-1.261 Y-28.928
X-1.25 Y-29.467
Y-29.494
X-1.259 Y-30.027
X-1.26 Y-30.055
X-1.289 Y-30.582
X-1.291 Y-30.61
X-1.339 Y-31.132
X-1.343 Y-31.16
X-1.41 Y-31.678
X-1.414 Y-31.705
X-1.5 Y-32.219
X-1.505 Y-32.245
X-1.61 Y-32.755
X-1.615 Y-32.78
X-1.736 Y-33.287
X-1.742 Y-33.309
X-1.879 Y-33.814
X-1.885 Y-33.834
X-2.036 Y-34.335
X-2.042 Y-34.353
X-2.206 Y-34.85
X-2.212 Y-34.866
X-2.387 Y-35.359
X-2.395 Y-35.379
X-2.772 Y-36.349
X-2.78 Y-36.369
X-3.179 Y-37.314
X-3.184 Y-37.326
X-3.588 Y-38.241
X-3.59 Y-38.245
X-3.789 Y-38.689
X-3.983 Y-39.122
X-4.05 Y-39.273
X-4.17 Y-39.543 Z-0.61 F1016
X-4.346 Y-39.949 Z-0.626
X-4.511 Y-40.341 Z-0.641
X-4.663 Y-40.716 Z-0.655
X-4.8 Y-41.074 Z-0.668
X-4.92 Y-41.415 Z-0.681
X-5.022 Y-41.735 Z-0.692
X-5.106 Y-42.034 Z-0.703
X-5.17 Y-42.312 Z-0.713
X-5.215 Y-42.566 Z-0.722
X-5.241 Y-42.795 Z-0.73
X-5.25 Y-43.015 Z-0.738
Y-47.653 Z-0.9
Y-49.499 F600
X-5.246 Y-51.431
X-5.233 Y-53.335
X-5.212 Y-55.212
X-5.183 Y-57.061
X-5.147 Y-58.884
X-5.103 Y-60.68
X-5.053 Y-62.449
X-4.997 Y-64.19
X-4.936 Y-65.903
X-4.871 Y-67.587
X-4.802 Y-69.242
X-4.731 Y-70.868
X-4.658 Y-72.462
X-4.584 Y-74.025
X-4.511 Y-75.554
X-4.439 Y-77.049
X-4.37 Y-78.507
X-4.304 Y-79.928
Y-79.929
X-4.273 Y-80.624
X-4.243 Y-81.31
Y-81.311
X-4.215 Y-81.985
Y-81.986
X-4.189 Y-82.649
X-4.188 Y-82.651
X-4.164 Y-83.303
Y-83.305
X-4.141 Y-83.945
Y-83.947
X-4.12 Y-84.576
Y-84.578
X-4.102 Y-85.195
Y-85.198
X-4.086 Y-85.802
Y-85.805
X-4.073 Y-86.397
X-4.072 Y-86.4
X-4.062 Y-86.979
Y-86.983
X-4.054 Y-87.548
Y-87.552
X-4.049 Y-88.105
Y-88.109
X-4.047 Y-88.647
Y-88.652
X-4.049 Y-89.176
Y-89.181
X-4.054 Y-89.69
Y-89.696
X-4.063 Y-90.19
Y-90.196
X-4.076 Y-90.675
Y-90.682
X-4.093 Y-91.146
Y-91.154
X-4.113 Y-91.601
X-4.114 Y-91.61
X-4.138 Y-92.041
X-4.139 Y-92.05
X-4.168 Y-92.465
X-4.169 Y-92.475
X-4.202 Y-92.873
X-4.203 Y-92.884
X-4.241 Y-93.265
X-4.242 Y-93.278
X-4.285 Y-93.641
X-4.287 Y-93.655
X-4.334 Y-94
X-4.337 Y-94.016
X-4.389 Y-94.343
X-4.392 Y-94.362
X-4.449 Y-94.67
X-4.473 Y-94.764
X-4.509 Y-94.875
X-4.541 Y-94.956
X-4.582 Y-95.033
X-4.642 Y-95.132
X-4.692 Y-95.204
X-8.101 Y-99.568
G2 X-9.856 Y-99.783 I-0.985 J0.77
G1 X-13.399 Y-97.015
G2 X-13.879 Y-96.03 I0.77 J0.985
G1 Y-91.288
X-13.894 Y-90.904
X-13.895 Y-90.898
X-13.907 Y-90.487
Y-90.481
X-13.917 Y-90.059
Y-90.054
X-13.924 Y-89.62
Y-89.615
X-13.929 Y-89.169
Y-89.165
X-13.931 Y-88.708
Y-88.704
X-13.93 Y-88.237
Y-88.233
X-13.927 Y-87.755
Y-87.752
X-13.922 Y-87.263
Y-87.26
X-13.915 Y-86.762
X-13.914 Y-86.757
X-13.893 Y-85.731
Y-85.726
X-13.865 Y-84.661
Y-84.657
X-13.829 Y-83.556
Y-83.553
X-13.788 Y-82.418
Y-82.415
X-13.741 Y-81.247
Y-81.245
X-13.69 Y-80.045
Y-80.044
X-13.635 Y-78.814
Y-78.813
X-13.578 Y-77.555
X-13.517 Y-76.27
X-13.456 Y-74.958
X-13.393 Y-73.623
X-13.331 Y-72.264
X-13.269 Y-70.882
X-13.208 Y-69.479
X-13.148 Y-68.055
X-13.091 Y-66.61
X-13.037 Y-65.146
X-12.986 Y-63.663
X-12.94 Y-62.161
X-12.897 Y-60.641
X-12.859 Y-59.102
X-12.827 Y-57.546
X-12.799 Y-55.972
X-12.778 Y-54.38
X-12.762 Y-52.771
X-12.753 Y-51.144
X-12.75 Y-49.499
Y-43.015
X-12.759 Y-42.795
X-12.785 Y-42.566
X-12.83 Y-42.312
X-12.894 Y-42.034
X-12.978 Y-41.735
X-13.08 Y-41.415
X-13.2 Y-41.074
X-13.337 Y-40.716
X-13.489 Y-40.341
X-13.654 Y-39.949
X-13.83 Y-39.543
X-14.017 Y-39.122
X-14.211 Y-38.689
X-14.41 Y-38.245
X-14.412 Y-38.241
X-14.816 Y-37.326
X-14.821 Y-37.314
X-15.22 Y-36.369
X-15.228 Y-36.349
X-15.605 Y-35.379
X-15.613 Y-35.359
X-15.788 Y-34.866
X-15.794 Y-34.85
X-15.958 Y-34.353
X-15.964 Y-34.335
X-16.115 Y-33.834
X-16.121 Y-33.814
X-16.258 Y-33.309
X-16.264 Y-33.287
X-16.385 Y-32.779
X-16.39 Y-32.755
X-16.495 Y-32.245
X-16.5 Y-32.219
X-16.586 Y-31.705
X-16.59 Y-31.678
X-16.657 Y-31.16
X-16.66 Y-31.132
X-16.709 Y-30.61
X-16.711 Y-30.582
X-16.74 Y-30.055
X-16.741 Y-30.027
X-16.75 Y-29.494
Y-29.467
X-16.739 Y-28.928
X-16.738 Y-28.902
X-16.709 Y-28.356
X-16.707 Y-28.331
X-16.658 Y-27.779
X-16.655 Y-27.755
X-16.588 Y-27.197
X-16.585 Y-27.174
X-16.499 Y-26.609
X-16.496 Y-26.588
X-16.393 Y-26.017
X-16.389 Y-25.998
X-16.269 Y-25.421
X-16.265 Y-25.403
X-16.129 Y-24.822
X-16.125 Y-24.805
X-15.974 Y-24.221
X-15.969 Y-24.205
X-15.804 Y-23.619
X-15.799 Y-23.603
X-15.619 Y-23.018
X-15.615 Y-23.003
X-15.422 Y-22.42
X-15.417 Y-22.405
X-15.212 Y-21.827
X-15.207 Y-21.812
X-14.99 Y-21.24
X-14.984 Y-21.225
X-14.757 Y-20.662
X-14.751 Y-20.647
X-14.514 Y-20.095
X-14.507 Y-20.079
X-14.261 Y-19.542
X-14.253 Y-19.525
X-13.999 Y-19.003
X-13.99 Y-18.986
X-13.728 Y-18.483
X-13.718 Y-18.464
X-13.45 Y-17.983
X-13.438 Y-17.962
X-13.164 Y-17.504
X-13.15 Y-17.482
X-12.871 Y-17.05
X-12.855 Y-17.026
X-12.571 Y-16.623
X-12.551 Y-16.596
X-12.264 Y-16.223
X-12.24 Y-16.194
X-11.949 Y-15.853
X-11.92 Y-15.821
X-11.627 Y-15.516
X-11.591 Y-15.481
X-11.296 Y-15.212
X-11.251 Y-15.174
X-10.955 Y-14.943
X-10.914 Y-14.914
X-10.766 Y-14.813
X-10.735 Y-14.794
X-10.586 Y-14.703
X-10.551 Y-14.684
X-10.402 Y-14.603
X-10.365 Y-14.585
X-10.215 Y-14.515
X-10.174 Y-14.497
X-10.025 Y-14.438
X-9.98 Y-14.422
X-9.831 Y-14.373
X-9.783 Y-14.36
X-9.633 Y-14.322
X-9.583 Y-14.311
X-9.433 Y-14.284
X-9.381 Y-14.276
X-9.231 Y-14.26
X-9.177 Y-14.256
X-9.027 Y-14.25
X-8.973
X-8.823 Y-14.256
X-8.769 Y-14.26
X-8.619 Y-14.276
X-8.567 Y-14.284
X-8.417 Y-14.311
X-8.367 Y-14.322
X-8.217 Y-14.36
X-8.169 Y-14.373
X-8.02 Y-14.422
X-7.975 Y-14.438
X-7.826 Y-14.497
X-7.785 Y-14.515
X-7.635 Y-14.585
X-7.598 Y-14.603
X-7.449 Y-14.684
X-7.414 Y-14.703
X-7.265 Y-14.794
X-7.234 Y-14.813
X-7.086 Y-14.914
X-7.045 Y-14.943
X-6.749 Y-15.174
X-6.704 Y-15.212
X-6.409 Y-15.481
X-6.373 Y-15.516
X-6.08 Y-15.821
X-6.051 Y-15.854
X-5.76 Y-16.194
X-5.736 Y-16.223
X-5.449 Y-16.596
X-5.429 Y-16.623
X-5.145 Y-17.026
X-5.129 Y-17.05
X-4.85 Y-17.482
X-4.836 Y-17.504
X-4.562 Y-17.962
X-4.55 Y-17.983
X-4.282 Y-18.464
X-4.272 Y-18.483
X-4.01 Y-18.986
X-4.001 Y-19.003
X-3.747 Y-19.525
X-3.739 Y-19.542
X-3.493 Y-20.079
X-3.486 Y-20.095
X-3.249 Y-20.647
X-3.243 Y-20.662
X-3.016 Y-21.225
X-3.01 Y-21.24
X-2.793 Y-21.812
X-2.788 Y-21.827
X-2.583 Y-22.405
X-2.578 Y-22.42
X-2.385 Y-23.003
X-2.38 Y-23.018
X-2.201 Y-23.604
X-2.196 Y-23.619
X-2.031 Y-24.205
X-2.026 Y-24.221
X-1.875 Y-24.805
X-1.871 Y-24.822
X-1.735 Y-25.403
X-1.731 Y-25.421
X-1.611 Y-25.998
X-1.607 Y-26.017
X-1.504 Y-26.588
X-1.501 Y-26.609
X-1.415 Y-27.174
X-1.412 Y-27.197
X-1.345 Y-27.755
X-1.342 Y-27.779
X-1.293 Y-28.331
X-1.291 Y-28.356
X-1.262 Y-28.902
X-1.261 Y-28.928
X-1.25 Y-29.467
Y-29.494
X-1.259 Y-30.027
X-1.26 Y-30.055
X-1.289 Y-30.582
X-1.291 Y-30.61
X-1.339 Y-31.132
X-1.343 Y-31.16
X-1.41 Y-31.678
X-1.414 Y-31.705
X-1.5 Y-32.219
X-1.505 Y-32.245
X-1.61 Y-32.755
X-1.615 Y-32.78
X-1.736 Y-33.287
X-1.742 Y-33.309
X-1.879 Y-33.814
X-1.885 Y-33.834
X-2.036 Y-34.335
X-2.042 Y-34.353
X-2.206 Y-34.85
X-2.212 Y-34.866
X-2.387 Y-35.359
X-2.395 Y-35.379
X-2.772 Y-36.349
X-2.78 Y-36.369
X-3.179 Y-37.314
X-3.184 Y-37.326
X-3.588 Y-38.241
X-3.59 Y-38.245
X-3.789 Y-38.689
X-3.983 Y-39.122
X-4.17 Y-39.543
X-4.346 Y-39.949
X-4.511 Y-40.341
X-4.663 Y-40.716
X-4.8 Y-41.074
X-4.92 Y-41.415
X-5.022 Y-41.735
X-5.106 Y-42.034
X-5.17 Y-42.312
X-5.215 Y-42.566
X-5.241 Y-42.795
X-5.25 Y-43.015
Y-47.653
Y-49.499 Z-0.964 F1016
X-5.246 Y-51.431 Z-1.032
X-5.233 Y-53.335 Z-1.098
X-5.212 Y-55.212 Z-1.164
X-5.196 Y-56.243 Z-1.2
X-5.183 Y-57.061 F600
X-5.147 Y-58.884
X-5.103 Y-60.68
X-5.053 Y-62.449
X-4.997 Y-64.19
X-4.936 Y-65.903
X-4.871 Y-67.587
X-4.802 Y-69.242
X-4.731 Y-70.868
X-4.658 Y-72.462
X-4.584 Y-74.025
X-4.511 Y-75.554
X-4.439 Y-77.049
X-4.37 Y-78.507
X-4.304 Y-79.928
Y-79.929
X-4.273 Y-80.624
X-4.243 Y-81.31
Y-81.311
X-4.215 Y-81.985
Y-81.986
X-4.189 Y-82.649
X-4.188 Y-82.651
X-4.164 Y-83.303
Y-83.305
X-4.141 Y-83.945
Y-83.947
X-4.12 Y-84.576
Y-84.578
X-4.102 Y-85.195
Y-85.198
X-4.086 Y-85.802
Y-85.805
X-4.073 Y-86.397
X-4.072 Y-86.4
X-4.062 Y-86.979
Y-86.983
X-4.054 Y-87.548
Y-87.552
X-4.049 Y-88.105
Y-88.109
X-4.047 Y-88.647
Y-88.652
X-4.049 Y-89.176
Y-89.181
X-4.054 Y-89.69
Y-89.696
X-4.063 Y-90.19
Y-90.196
X-4.076 Y-90.675
Y-90.682
X-4.093 Y-91.146
Y-91.154
X-4.113 Y-91.601
X-4.114 Y-91.61
X-4.138 Y-92.041
X-4.139 Y-92.05
X-4.168 Y-92.465
X-4.169 Y-92.475
X-4.202 Y-92.873
X-4.203 Y-92.884
X-4.241 Y-93.265
X-4.242 Y-93.278
X-4.285 Y-93.641
X-4.287 Y-93.655
X-4.334 Y-94
X-4.337 Y-94.016
X-4.389 Y-94.343
X-4.392 Y-94.362
X-4.449 Y-94.67
X-4.473 Y-94.764
X-4.509 Y-94.875
X-4.541 Y-94.956
X-4.582 Y-95.033
X-4.642 Y-95.132
X-4.692 Y-95.204
X-8.101 Y-99.568
G2 X-9.856 Y-99.783 I-0.985 J0.77
G1 X-13.399 Y-97.015
G2 X-13.879 Y-96.03 I0.77 J0.985
G1 Y-91.288
X-13.894 Y-90.904
X-13.895 Y-90.898
X-13.907 Y-90.487
Y-90.481
X-13.917 Y-90.059
Y-90.054
X-13.924 Y-89.62
Y-89.615
X-13.929 Y-89.169
Y-89.165
X-13.931 Y-88.708
Y-88.704
X-13.93 Y-88.237
Y-88.233
X-13.927 Y-87.755
Y-87.752
X-13.922 Y-87.263
Y-87.26
X-13.915 Y-86.762
X-13.914 Y-86.757
X-13.893 Y-85.731
Y-85.726
X-13.865 Y-84.661
Y-84.657
X-13.829 Y-83.556
Y-83.553
X-13.788 Y-82.418
Y-82.415
X-13.741 Y-81.247
Y-81.245
X-13.69 Y-80.045
Y-80.044
X-13.635 Y-78.814
Y-78.813
X-13.578 Y-77.555
X-13.517 Y-76.27
X-13.456 Y-74.958
X-13.393 Y-73.623
X-13.331 Y-72.264
X-13.269 Y-70.882
X-13.208 Y-69.479
X-13.148 Y-68.055
X-13.091 Y-66.61
X-13.037 Y-65.146
X-12.986 Y-63.663
X-12.94 Y-62.161
X-12.897 Y-60.641
X-12.859 Y-59.102
X-12.827 Y-57.546
X-12.799 Y-55.972
X-12.778 Y-54.38
X-12.762 Y-52.771
X-12.753 Y-51.144
X-12.75 Y-49.499
Y-43.015
X-12.759 Y-42.795
X-12.785 Y-42.566
X-12.83 Y-42.312
X-12.894 Y-42.034
X-12.978 Y-41.735
X-13.08 Y-41.415
X-13.2 Y-41.074
X-13.337 Y-40.716
X-13.489 Y-40.341
X-13.654 Y-39.949
X-13.83 Y-39.543
X-14.017 Y-39.122
X-14.211 Y-38.689
X-14.41 Y-38.245
X-14.412 Y-38.241
X-14.816 Y-37.326
X-14.821 Y-37.314
X-15.22 Y-36.369
X-15.228 Y-36.349
X-15.605 Y-35.379
X-15.613 Y-35.359
X-15.788 Y-34.866
X-15.794 Y-34.85
X-15.958 Y-34.353
X-15.964 Y-34.335
X-16.115 Y-33.834
X-16.121 Y-33.814
X-16.258 Y-33.309
X-16.264 Y-33.287
X-16.385 Y-32.779
X-16.39 Y-32.755
X-16.495 Y-32.245
X-16.5 Y-32.219
X-16.586 Y-31.705
X-16.59 Y-31.678
X-16.657 Y-31.16
X-16.66 Y-31.132
X-16.709 Y-30.61
X-16.711 Y-30.582
X-16.74 Y-30.055
X-16.741 Y-30.027
X-16.75 Y-29.494
Y-29.467
X-16.739 Y-28.928
X-16.738 Y-28.902
X-16.709 Y-28.356
X-16.707 Y-28.331
X-16.658 Y-27.779
X-16.655 Y-27.755
X-16.588 Y-27.197
X-16.585 Y-27.174
X-16.499 Y-26.609
X-16.496 Y-26.588
X-16.393 Y-26.017
X-16.389 Y-25.998
X-16.269 Y-25.421
X-16.265 Y-25.403
X-16.129 Y-24.822
X-16.125 Y-24.805
X-15.974 Y-24.221
X-15.969 Y-24.205
X-15.804 Y-23.619
X-15.799 Y-23.603
X-15.619 Y-23.018
X-15.615 Y-23.003
X-15.422 Y-22.42
X-15.417 Y-22.405
X-15.212 Y-21.827
X-15.207 Y-21.812
X-14.99 Y-21.24
X-14.984 Y-21.225
X-14.757 Y-20.662
X-14.751 Y-20.647
X-14.514 Y-20.095
X-14.507 Y-20.079
X-14.261 Y-19.542
X-14.253 Y-19.525
X-13.999 Y-19.003
X-13.99 Y-18.986
X-13.728 Y-18.483
X-13.718 Y-18.464
X-13.45 Y-17.983
X-13.438 Y-17.962
X-13.164 Y-17.504
X-13.15 Y-17.482
X-12.871 Y-17.05
X-12.855 Y-17.026
X-12.571 Y-16.623
X-12.551 Y-16.596
X-12.264 Y-16.223
X-12.24 Y-16.194
X-11.949 Y-15.853
X-11.92 Y-15.821
X-11.627 Y-15.516
X-11.591 Y-15.481
X-11.296 Y-15.212
X-11.251 Y-15.174
X-10.955 Y-14.943
X-10.914 Y-14.914
X-10.766 Y-14.813
X-10.735 Y-14.794
X-10.586 Y-14.703
X-10.551 Y-14.684
X-10.402 Y-14.603
X-10.365 Y-14.585
X-10.215 Y-14.515
X-10.174 Y-14.497
X-10.025 Y-14.438
X-9.98 Y-14.422
X-9.831 Y-14.373
X-9.783 Y-14.36
X-9.633 Y-14.322
X-9.583 Y-14.311
X-9.433 Y-14.284
X-9.381 Y-14.276
X-9.231 Y-14.26
X-9.177 Y-14.256
X-9.027 Y-14.25
X-8.973
X-8.823 Y-14.256
X-8.769 Y-14.26
X-8.619 Y-14.276
X-8.567 Y-14.284
X-8.417 Y-14.311
X-8.367 Y-14.322
X-8.217 Y-14.36
X-8.169 Y-14.373
X-8.02 Y-14.422
X-7.975 Y-14.438
X-7.826 Y-14.497
X-7.785 Y-14.515
X-7.635 Y-14.585
X-7.598 Y-14.603
X-7.449 Y-14.684
X-7.414 Y-14.703
X-7.265 Y-14.794
X-7.234 Y-14.813
X-7.086 Y-14.914
X-7.045 Y-14.943
X-6.749 Y-15.174
X-6.704 Y-15.212
X-6.409 Y-15.481
X-6.373 Y-15.516
X-6.08 Y-15.821
X-6.051 Y-15.854
X-5.76 Y-16.194
X-5.736 Y-16.223
X-5.449 Y-16.596
X-5.429 Y-16.623
X-5.145 Y-17.026
X-5.129 Y-17.05
X-4.85 Y-17.482
X-4.836 Y-17.504
X-4.562 Y-17.962
X-4.55 Y-17.983
X-4.282 Y-18.464
X-4.272 Y-18.483
X-4.01 Y-18.986
X-4.001 Y-19.003
X-3.747 Y-19.525
X-3.739 Y-19.542
X-3.493 Y-20.079
X-3.486 Y-20.095
X-3.249 Y-20.647
X-3.243 Y-20.662
X-3.016 Y-21.225
X-3.01 Y-21.24
X-2.793 Y-21.812
X-2.788 Y-21.827
X-2.583 Y-22.405
X-2.578 Y-22.42
X-2.385 Y-23.003
X-2.38 Y-23.018
X-2.201 Y-23.604
X-2.196 Y-23.619
X-2.031 Y-24.205
X-2.026 Y-24.221
X-1.875 Y-24.805
X-1.871 Y-24.822
X-1.735 Y-25.403
X-1.731 Y-25.421
X-1.611 Y-25.998
X-1.607 Y-26.017
X-1.504 Y-26.588
X-1.501 Y-26.609
X-1.415 Y-27.174
X-1.412 Y-27.197
X-1.345 Y-27.755
X-1.342 Y-27.779
X-1.293 Y-28.331
X-1.291 Y-28.356
X-1.262 Y-28.902
X-1.261 Y-28.928
X-1.25 Y-29.467
Y-29.494
X-1.259 Y-30.027
X-1.26 Y-30.055
X-1.289 Y-30.582
X-1.291 Y-30.61
X-1.339 Y-31.132
X-1.343 Y-31.16
X-1.41 Y-31.678
X-1.414 Y-31.705
X-1.5 Y-32.219
X-1.505 Y-32.245
X-1.61 Y-32.755
X-1.615 Y-32.78
X-1.736 Y-33.287
X-1.742 Y-33.309
X-1.879 Y-33.814
X-1.885 Y-33.834
X-2.036 Y-34.335
X-2.042 Y-34.353
X-2.206 Y-34.85
X-2.212 Y-34.866
X-2.387 Y-35.359
X-2.395 Y-35.379
X-2.772 Y-36.349
X-2.78 Y-36.369
X-3.179 Y-37.314
X-3.184 Y-37.326
X-3.588 Y-38.241
X-3.59 Y-38.245
X-3.789 Y-38.689
X-3.983 Y-39.122
X-4.17 Y-39.543
X-4.346 Y-39.949
X-4.511 Y-40.341
X-4.663 Y-40.716
X-4.8 Y-41.074
X-4.92 Y-41.415
X-5.022 Y-41.735
X-5.106 Y-42.034
X-5.17 Y-42.312
X-5.215 Y-42.566
X-5.241 Y-42.795
X-5.25 Y-43.015
Y-47.653
Y-49.499
X-5.246 Y-51.431
X-5.233 Y-53.335
X-5.212 Y-55.212
X-5.196 Y-56.243
X-5.183 Y-57.061 Z-1.229 F1016
X-5.147 Y-58.884 Z-1.292
X-5.103 Y-60.68 Z-1.355
X-5.053 Y-62.449 Z-1.417
X-4.997 Y-64.19 Z-1.478
X-4.974 Y-64.831 Z-1.5
X-4.936 Y-65.903 F600
X-4.871 Y-67.587
X-4.802 Y-69.242
X-4.731 Y-70.868
X-4.658 Y-72.462
X-4.584 Y-74.025
X-4.511 Y-75.554
X-4.439 Y-77.049
X-4.37 Y-78.507
X-4.304 Y-79.928
Y-79.929
X-4.273 Y-80.624
X-4.243 Y-81.31
Y-81.311
X-4.215 Y-81.985
Y-81.986
X-4.189 Y-82.649
X-4.188 Y-82.651
X-4.164 Y-83.303
Y-83.305
X-4.141 Y-83.945
Y-83.947
X-4.12 Y-84.576
Y-84.578
X-4.102 Y-85.195
Y-85.198
X-4.086 Y-85.802
Y-85.805
X-4.073 Y-86.397
X-4.072 Y-86.4
X-4.062 Y-86.979
Y-86.983
X-4.054 Y-87.548
Y-87.552
X-4.049 Y-88.105
Y-88.109
X-4.047 Y-88.647
Y-88.652
X-4.049 Y-89.176
Y-89.181
X-4.054 Y-89.69
Y-89.696
X-4.063 Y-90.19
Y-90.196
X-4.076 Y-90.675
Y-90.682
X-4.093 Y-91.146
Y-91.154
X-4.113 Y-91.601
X-4.114 Y-91.61
X-4.138 Y-92.041
X-4.139 Y-92.05
X-4.168 Y-92.465
X-4.169 Y-92.475
X-4.202 Y-92.873
X-4.203 Y-92.884
X-4.241 Y-93.265
X-4.242 Y-93.278
X-4.285 Y-93.641
X-4.287 Y-93.655
X-4.334 Y-94
X-4.337 Y-94.016
X-4.389 Y-94.343
X-4.392 Y-94.362
X-4.449 Y-94.67
X-4.473 Y-94.764
X-4.509 Y-94.875
X-4.541 Y-94.956
X-4.582 Y-95.033
X-4.642 Y-95.132
X-4.692 Y-95.204
X-8.101 Y-99.568
G2 X-9.856 Y-99.783 I-0.985 J0.77
G1 X-13.399 Y-97.015
G2 X-13.879 Y-96.03 I0.77 J0.985
G1 Y-91.288
X-13.894 Y-90.904
X-13.895 Y-90.898
X-13.907 Y-90.487
Y-90.481
X-13.917 Y-90.059
Y-90.054
X-13.924 Y-89.62
Y-89.615
X-13.929 Y-89.169
Y-89.165
X-13.931 Y-88.708
Y-88.704
X-13.93 Y-88.237
Y-88.233
X-13.927 Y-87.755
Y-87.752
X-13.922 Y-87.263
Y-87.26
X-13.915 Y-86.762
X-13.914 Y-86.757
X-13.893 Y-85.731
Y-85.726
X-13.865 Y-84.661
Y-84.657
X-13.829 Y-83.556
Y-83.553
X-13.788 Y-82.418
Y-82.415
X-13.741 Y-81.247
Y-81.245
X-13.69 Y-80.045
Y-80.044
X-13.635 Y-78.814
Y-78.813
X-13.578 Y-77.555
X-13.517 Y-76.27
X-13.456 Y-74.958
X-13.393 Y-73.623
X-13.331 Y-72.264
X-13.269 Y-70.882
X-13.208 Y-69.479
X-13.148 Y-68.055
X-13.091 Y-66.61
X-13.037 Y-65.146
X-12.986 Y-63.663
X-12.94 Y-62.161
X-12.897 Y-60.641
X-12.859 Y-59.102
X-12.827 Y-57.546
X-12.799 Y-55.972
X-12.778 Y-54.38
X-12.762 Y-52.771
X-12.753 Y-51.144
X-12.75 Y-49.499
Y-43.015
X-12.759 Y-42.795
X-12.785 Y-42.566
X-12.83 Y-42.312
X-12.894 Y-42.034
X-12.978 Y-41.735
X-13.08 Y-41.415
X-13.2 Y-41.074
X-13.337 Y-40.716
X-13.489 Y-40.341
X-13.654 Y-39.949
X-13.83 Y-39.543
X-14.017 Y-39.122
X-14.211 Y-38.689
X-14.41 Y-38.245
X-14.412 Y-38.241
X-14.816 Y-37.326
X-14.821 Y-37.314
X-15.22 Y-36.369
X-15.228 Y-36.349
X-15.605 Y-35.379
X-15.613 Y-35.359
X-15.788 Y-34.866
X-15.794 Y-34.85
X-15.958 Y-34.353
X-15.964 Y-34.335
X-16.115 Y-33.834
X-16.121 Y-33.814
X-16.258 Y-33.309
X-16.264 Y-33.287
X-16.385 Y-32.779
X-16.39 Y-32.755
X-16.495 Y-32.245
X-16.5 Y-32.219
X-16.586 Y-31.705
X-16.59 Y-31.678
X-16.657 Y-31.16
X-16.66 Y-31.132
X-16.709 Y-30.61
X-16.711 Y-30.582
X-16.74 Y-30.055
X-16.741 Y-30.027
X-16.75 Y-29.494
Y-29.467
X-16.739 Y-28.928
X-16.738 Y-28.902
X-16.709 Y-28.356
X-16.707 Y-28.331
X-16.658 Y-27.779
X-16.655 Y-27.755
X-16.588 Y-27.197
X-16.585 Y-27.174
X-16.499 Y-26.609
X-16.496 Y-26.588
X-16.393 Y-26.017
X-16.389 Y-25.998
X-16.269 Y-25.421
X-16.265 Y-25.403
X-16.129 Y-24.822
X-16.125 Y-24.805
X-15.974 Y-24.221
X-15.969 Y-24.205
X-15.804 Y-23.619
X-15.799 Y-23.603
X-15.619 Y-23.018
X-15.615 Y-23.003
X-15.422 Y-22.42
X-15.417 Y-22.405
X-15.212 Y-21.827
X-15.207 Y-21.812
X-14.99 Y-21.24
X-14.984 Y-21.225
X-14.757 Y-20.662
X-14.751 Y-20.647
X-14.514 Y-20.095
X-14.507 Y-20.079
X-14.261 Y-19.542
X-14.253 Y-19.525
X-13.999 Y-19.003
X-13.99 Y-18.986
X-13.728 Y-18.483
X-13.718 Y-18.464
X-13.45 Y-17.983
X-13.438 Y-17.962
X-13.164 Y-17.504
X-13.15 Y-17.482
X-12.871 Y-17.05
X-12.855 Y-17.026
X-12.571 Y-16.623
X-12.551 Y-16.596
X-12.264 Y-16.223
X-12.24 Y-16.194
X-11.949 Y-15.853
X-11.92 Y-15.821
X-11.627 Y-15.516
X-11.591 Y-15.481
X-11.296 Y-15.212
X-11.251 Y-15.174
X-10.955 Y-14.943
X-10.914 Y-14.914
X-10.766 Y-14.813
X-10.735 Y-14.794
X-10.586 Y-14.703
X-10.551 Y-14.684
X-10.402 Y-14.603
X-10.365 Y-14.585
X-10.215 Y-14.515
X-10.174 Y-14.497
X-10.025 Y-14.438
X-9.98 Y-14.422
X-9.831 Y-14.373
X-9.783 Y-14.36
X-9.633 Y-14.322
X-9.583 Y-14.311
X-9.433 Y-14.284
X-9.381 Y-14.276
X-9.231 Y-14.26
X-9.177 Y-14.256
X-9.027 Y-14.25
X-8.973
X-8.823 Y-14.256
X-8.769 Y-14.26
X-8.619 Y-14.276
X-8.567 Y-14.284
X-8.417 Y-14.311
X-8.367 Y-14.322
X-8.217 Y-14.36
X-8.169 Y-14.373
X-8.02 Y-14.422
X-7.975 Y-14.438
X-7.826 Y-14.497
X-7.785 Y-14.515
X-7.635 Y-14.585
X-7.598 Y-14.603
X-7.449 Y-14.684
X-7.414 Y-14.703
X-7.265 Y-14.794
X-7.234 Y-14.813
X-7.086 Y-14.914
X-7.045 Y-14.943
X-6.749 Y-15.174
X-6.704 Y-15.212
X-6.409 Y-15.481
X-6.373 Y-15.516
X-6.08 Y-15.821
X-6.051 Y-15.854
X-5.76 Y-16.194
X-5.736 Y-16.223
X-5.449 Y-16.596
X-5.429 Y-16.623
X-5.145 Y-17.026
X-5.129 Y-17.05
X-4.85 Y-17.482
X-4.836 Y-17.504
X-4.562 Y-17.962
X-4.55 Y-17.983
X-4.282 Y-18.464
X-4.272 Y-18.483
X-4.01 Y-18.986
X-4.001 Y-19.003
X-3.747 Y-19.525
X-3.739 Y-19.542
X-3.493 Y-20.079
X-3.486 Y-20.095
X-3.249 Y-20.647
X-3.243 Y-20.662
X-3.016 Y-21.225
X-3.01 Y-21.24
X-2.793 Y-21.812
X-2.788 Y-21.827
X-2.583 Y-22.405
X-2.578 Y-22.42
X-2.385 Y-23.003
X-2.38 Y-23.018
X-2.201 Y-23.604
X-2.196 Y-23.619
X-2.031 Y-24.205
X-2.026 Y-24.221
X-1.875 Y-24.805
X-1.871 Y-24.822
X-1.735 Y-25.403
X-1.731 Y-25.421
X-1.611 Y-25.998
X-1.607 Y-26.017
X-1.504 Y-26.588
X-1.501 Y-26.609
X-1.415 Y-27.174
X-1.412 Y-27.197
X-1.345 Y-27.755
X-1.342 Y-27.779
X-1.293 Y-28.331
X-1.291 Y-28.356
X-1.262 Y-28.902
X-1.261 Y-28.928
X-1.25 Y-29.467
Y-29.494
X-1.259 Y-30.027
X-1.26 Y-30.055
X-1.289 Y-30.582
X-1.291 Y-30.61
X-1.339 Y-31.132
X-1.343 Y-31.16
X-1.41 Y-31.678
X-1.414 Y-31.705
X-1.5 Y-32.219
X-1.505 Y-32.245
X-1.61 Y-32.755
X-1.615 Y-32.78
X-1.736 Y-33.287
X-1.742 Y-33.309
X-1.879 Y-33.814
X-1.885 Y-33.834
X-2.036 Y-34.335
X-2.042 Y-34.353
X-2.206 Y-34.85
X-2.212 Y-34.866
X-2.387 Y-35.359
X-2.395 Y-35.379
X-2.772 Y-36.349
X-2.78 Y-36.369
X-3.179 Y-37.314
X-3.184 Y-37.326
X-3.588 Y-38.241
X-3.59 Y-38.245
X-3.789 Y-38.689
X-3.983 Y-39.122
X-4.17 Y-39.543
X-4.346 Y-39.949
X-4.511 Y-40.341
X-4.663 Y-40.716
X-4.8 Y-41.074
X-4.92 Y-41.415
X-5.022 Y-41.735
X-5.106 Y-42.034
X-5.17 Y-42.312
X-5.215 Y-42.566
X-5.241 Y-42.795
X-5.25 Y-43.015
Y-49.499
X-5.246 Y-51.431
X-5.233 Y-53.335
X-5.212 Y-55.212
X-5.196 Y-56.243
X-5.183 Y-57.061
X-5.147 Y-58.884
X-5.103 Y-60.68
X-5.053 Y-62.449
X-4.997 Y-64.19
X-4.974 Y-64.831
X-4.936 Y-65.903 Z-1.537 F1016
X-4.871 Y-67.587 Z-1.596
X-4.802 Y-69.242 Z-1.654
X-4.731 Y-70.868 Z-1.711
X-4.658 Y-72.462 Z-1.767
X-4.613 Y-73.415 Z-1.8
X-4.584 Y-74.025 F600
X-4.511 Y-75.554
X-4.439 Y-77.049
X-4.37 Y-78.507
X-4.304 Y-79.928
Y-79.929
X-4.273 Y-80.624
X-4.243 Y-81.31
Y-81.311
X-4.215 Y-81.985
Y-81.986
X-4.189 Y-82.649
X-4.188 Y-82.651
X-4.164 Y-83.303
Y-83.305
X-4.141 Y-83.945
Y-83.947
X-4.12 Y-84.576
Y-84.578
X-4.102 Y-85.195
Y-85.198
X-4.086 Y-85.802
Y-85.805
X-4.073 Y-86.397
X-4.072 Y-86.4
X-4.062 Y-86.979
Y-86.983
X-4.054 Y-87.548
Y-87.552
X-4.049 Y-88.105
Y-88.109
X-4.047 Y-88.647
Y-88.652
X-4.049 Y-89.176
Y-89.181
X-4.054 Y-89.69
Y-89.696
X-4.063 Y-90.19
Y-90.196
X-4.076 Y-90.675
Y-90.682
X-4.093 Y-91.146
Y-91.154
X-4.113 Y-91.601
X-4.114 Y-91.61
X-4.138 Y-92.041
X-4.139 Y-92.05
X-4.168 Y-92.465
X-4.169 Y-92.475
X-4.202 Y-92.873
X-4.203 Y-92.884
X-4.241 Y-93.265
X-4.242 Y-93.278
X-4.285 Y-93.641
X-4.287 Y-93.655
X-4.334 Y-94
X-4.337 Y-94.016
X-4.389 Y-94.343
X-4.392 Y-94.362
X-4.449 Y-94.67
X-4.473 Y-94.764
X-4.509 Y-94.875
X-4.541 Y-94.956
X-4.582 Y-95.033
X-4.642 Y-95.132
X-4.692 Y-95.204
X-8.101 Y-99.568
G2 X-9.856 Y-99.783 I-0.985 J0.77
G1 X-13.399 Y-97.015
G2 X-13.879 Y-96.03 I0.77 J0.985
G1 Y-91.288
X-13.894 Y-90.904
X-13.895 Y-90.898
X-13.907 Y-90.487
Y-90.481
X-13.917 Y-90.059
Y-90.054
X-13.924 Y-89.62
Y-89.615
X-13.929 Y-89.169
Y-89.165
X-13.931 Y-88.708
Y-88.704
X-13.93 Y-88.237
Y-88.233
X-13.927 Y-87.755
Y-87.752
X-13.922 Y-87.263
Y-87.26
X-13.915 Y-86.762
X-13.914 Y-86.757
X-13.893 Y-85.731
Y-85.726
X-13.865 Y-84.661
Y-84.657
X-13.829 Y-83.556
Y-83.553
X-13.788 Y-82.418
Y-82.415
X-13.741 Y-81.247
Y-81.245
X-13.69 Y-80.045
Y-80.044
X-13.635 Y-78.814
Y-78.813
X-13.578 Y-77.555
X-13.517 Y-76.27
X-13.456 Y-74.958
X-13.393 Y-73.623
X-13.331 Y-72.264
X-13.269 Y-70.882
X-13.208 Y-69.479
X-13.148 Y-68.055
X-13.091 Y-66.61
X-13.037 Y-65.146
X-12.986 Y-63.663
X-12.94 Y-62.161
X-12.897 Y-60.641
X-12.859 Y-59.102
X-12.827 Y-57.546
X-12.799 Y-55.972
X-12.778 Y-54.38
X-12.762 Y-52.771
X-12.753 Y-51.144
X-12.75 Y-49.499
Y-43.015
X-12.759 Y-42.795
X-12.785 Y-42.566
X-12.83 Y-42.312
X-12.894 Y-42.034
X-12.978 Y-41.735
X-13.08 Y-41.415
X-13.2 Y-41.074
X-13.337 Y-40.716
X-13.489 Y-40.341
X-13.654 Y-39.949
X-13.83 Y-39.543
X-14.017 Y-39.122
X-14.211 Y-38.689
X-14.41 Y-38.245
X-14.412 Y-38.241
X-14.816 Y-37.326
X-14.821 Y-37.314
X-15.22 Y-36.369
X-15.228 Y-36.349
X-15.605 Y-35.379
X-15.613 Y-35.359
X-15.788 Y-34.866
X-15.794 Y-34.85
X-15.958 Y-34.353
X-15.964 Y-34.335
X-16.115 Y-33.834
X-16.121 Y-33.814
X-16.258 Y-33.309
X-16.264 Y-33.287
X-16.385 Y-32.779
X-16.39 Y-32.755
X-16.495 Y-32.245
X-16.5 Y-32.219
X-16.586 Y-31.705
X-16.59 Y-31.678
X-16.657 Y-31.16
X-16.66 Y-31.132
X-16.709 Y-30.61
X-16.711 Y-30.582
X-16.74 Y-30.055
X-16.741 Y-30.027
X-16.75 Y-29.494
Y-29.467
X-16.739 Y-28.928
X-16.738 Y-28.902
X-16.709 Y-28.356
X-16.707 Y-28.331
X-16.658 Y-27.779
X-16.655 Y-27.755
X-16.588 Y-27.197
X-16.585 Y-27.174
X-16.499 Y-26.609
X-16.496 Y-26.588
X-16.393 Y-26.017
X-16.389 Y-25.998
X-16.269 Y-25.421
X-16.265 Y-25.403
X-16.129 Y-24.822
X-16.125 Y-24.805
X-15.974 Y-24.221
X-15.969 Y-24.205
X-15.804 Y-23.619
X-15.799 Y-23.603
X-15.619 Y-23.018
X-15.615 Y-23.003
X-15.422 Y-22.42
X-15.417 Y-22.405
X-15.212 Y-21.827
X-15.207 Y-21.812
X-14.99 Y-21.24
X-14.984 Y-21.225
X-14.757 Y-20.662
X-14.751 Y-20.647
X-14.514 Y-20.095
X-14.507 Y-20.079
X-14.261 Y-19.542
X-14.253 Y-19.525
X-13.999 Y-19.003
X-13.99 Y-18.986
X-13.728 Y-18.483
X-13.718 Y-18.464
X-13.45 Y-17.983
X-13.438 Y-17.962
X-13.164 Y-17.504
X-13.15 Y-17.482
X-12.871 Y-17.05
X-12.855 Y-17.026
X-12.571 Y-16.623
X-12.551 Y-16.596
X-12.264 Y-16.223
X-12.24 Y-16.194
X-11.949 Y-15.853
X-11.92 Y-15.821
X-11.627 Y-15.516
X-11.591 Y-15.481
X-11.296 Y-15.212
X-11.251 Y-15.174
X-10.955 Y-14.943
X-10.914 Y-14.914
X-10.766 Y-14.813
X-10.735 Y-14.794
X-10.586 Y-14.703
X-10.551 Y-14.684
X-10.402 Y-14.603
X-10.365 Y-14.585
X-10.215 Y-14.515
X-10.174 Y-14.497
X-10.025 Y-14.438
X-9.98 Y-14.422
X-9.831 Y-14.373
X-9.783 Y-14.36
X-9.633 Y-14.322
X-9.583 Y-14.311
X-9.433 Y-14.284
X-9.381 Y-14.276
X-9.231 Y-14.26
X-9.177 Y-14.256
X-9.027 Y-14.25
X-8.973
X-8.823 Y-14.256
X-8.769 Y-14.26
X-8.619 Y-14.276
X-8.567 Y-14.284
X-8.417 Y-14.311
X-8.367 Y-14.322
X-8.217 Y-14.36
X-8.169 Y-14.373
X-8.02 Y-14.422
X-7.975 Y-14.438
X-7.826 Y-14.497
X-7.785 Y-14.515
X-7.635 Y-14.585
X-7.598 Y-14.603
X-7.449 Y-14.684
X-7.414 Y-14.703
X-7.265 Y-14.794
X-7.234 Y-14.813
X-7.086 Y-14.914
X-7.045 Y-14.943
X-6.749 Y-15.174
X-6.704 Y-15.212
X-6.409 Y-15.481
X-6.373 Y-15.516
X-6.08 Y-15.821
X-6.051 Y-15.854
X-5.76 Y-16.194
X-5.736 Y-16.223
X-5.449 Y-16.596
X-5.429 Y-16.623
X-5.145 Y-17.026
X-5.129 Y-17.05
X-4.85 Y-17.482
X-4.836 Y-17.504
X-4.562 Y-17.962
X-4.55 Y-17.983
X-4.282 Y-18.464
X-4.272 Y-18.483
X-4.01 Y-18.986
X-4.001 Y-19.003
X-3.747 Y-19.525
X-3.739 Y-19.542
X-3.493 Y-20.079
X-3.486 Y-20.095
X-3.249 Y-20.647
X-3.243 Y-20.662
X-3.016 Y-21.225
X-3.01 Y-21.24
X-2.793 Y-21.812
X-2.788 Y-21.827
X-2.583 Y-22.405
X-2.578 Y-22.42
X-2.385 Y-23.003
X-2.38 Y-23.018
X-2.201 Y-23.604
X-2.196 Y-23.619
X-2.031 Y-24.205
X-2.026 Y-24.221
X-1.875 Y-24.805
X-1.871 Y-24.822
X-1.735 Y-25.403
X-1.731 Y-25.421
X-1.611 Y-25.998
X-1.607 Y-26.017
X-1.504 Y-26.588
X-1.501 Y-26.609
X-1.415 Y-27.174
X-1.412 Y-27.197
X-1.345 Y-27.755
X-1.342 Y-27.779
X-1.293 Y-28.331
X-1.291 Y-28.356
X-1.262 Y-28.902
X-1.261 Y-28.928
X-1.25 Y-29.467
Y-29.494
X-1.259 Y-30.027
X-1.26 Y-30.055
X-1.289 Y-30.582
X-1.291 Y-30.61
X-1.339 Y-31.132
X-1.343 Y-31.16
X-1.41 Y-31.678
X-1.414 Y-31.705
X-1.5 Y-32.219
X-1.505 Y-32.245
X-1.61 Y-32.755
X-1.615 Y-32.78
X-1.736 Y-33.287
X-1.742 Y-33.309
X-1.879 Y-33.814
X-1.885 Y-33.834
X-2.036 Y-34.335
X-2.042 Y-34.353
X-2.206 Y-34.85
X-2.212 Y-34.866
X-2.387 Y-35.359
X-2.395 Y-35.379
X-2.772 Y-36.349
X-2.78 Y-36.369
X-3.179 Y-37.314
X-3.184 Y-37.326
X-3.588 Y-38.241
X-3.59 Y-38.245
X-3.789 Y-38.689
X-3.983 Y-39.122
X-4.17 Y-39.543
X-4.346 Y-39.949
X-4.511 Y-40.341
X-4.663 Y-40.716
X-4.8 Y-41.074
X-4.92 Y-41.415
X-5.022 Y-41.735
X-5.106 Y-42.034
X-5.17 Y-42.312
X-5.215 Y-42.566
X-5.241 Y-42.795
X-5.25 Y-43.015
Y-49.499
X-5.246 Y-51.431
X-5.233 Y-53.335
X-5.212 Y-55.212
X-5.183 Y-57.061
X-5.147 Y-58.884
X-5.103 Y-60.68
X-5.053 Y-62.449
X-4.997 Y-64.19
X-4.936 Y-65.903
X-4.871 Y-67.587
X-4.802 Y-69.242
X-4.731 Y-70.868
X-4.658 Y-72.462
X-4.613 Y-73.415
X-4.584 Y-74.025 Z-1.821 F1016
X-4.511 Y-75.554 Z-1.875
X-4.439 Y-77.049 Z-1.927
X-4.37 Y-78.507 Z-1.978
X-4.304 Y-79.928 Z-2.028
Y-79.929
X-4.273 Y-80.624 Z-2.052
X-4.243 Y-81.31 Z-2.076
Y-81.311
X-4.215 Y-81.985 Z-2.1
Y-81.986
Y-81.996
X-4.189 Y-82.649 F600
X-4.188 Y-82.651
X-4.164 Y-83.303
Y-83.305
X-4.141 Y-83.945
Y-83.947
X-4.12 Y-84.576
Y-84.578
X-4.102 Y-85.195
Y-85.198
X-4.086 Y-85.802
Y-85.805
X-4.073 Y-86.397
X-4.072 Y-86.4
X-4.062 Y-86.979
Y-86.983
X-4.054 Y-87.548
Y-87.552
X-4.049 Y-88.105
Y-88.109
X-4.047 Y-88.647
Y-88.652
X-4.049 Y-89.176
Y-89.181
X-4.054 Y-89.69
Y-89.696
X-4.063 Y-90.19
Y-90.196
X-4.076 Y-90.675
Y-90.682
X-4.093 Y-91.146
Y-91.154
X-4.113 Y-91.601
X-4.114 Y-91.61
X-4.138 Y-92.041
X-4.139 Y-92.05
X-4.168 Y-92.465
X-4.169 Y-92.475
X-4.202 Y-92.873
X-4.203 Y-92.884
X-4.241 Y-93.265
X-4.242 Y-93.278
X-4.285 Y-93.641
X-4.287 Y-93.655
X-4.334 Y-94
X-4.337 Y-94.016
X-4.389 Y-94.343
X-4.392 Y-94.362
X-4.449 Y-94.67
X-4.473 Y-94.764
X-4.509 Y-94.875
X-4.541 Y-94.956
X-4.582 Y-95.033
X-4.642 Y-95.132
X-4.692 Y-95.204
X-8.101 Y-99.568
G2 X-9.856 Y-99.783 I-0.985 J0.77
G1 X-13.399 Y-97.015
G2 X-13.879 Y-96.03 I0.77 J0.985
G1 Y-91.288
X-13.894 Y-90.904
X-13.895 Y-90.898
X-13.907 Y-90.487
Y-90.481
X-13.917 Y-90.059
Y-90.054
X-13.924 Y-89.62
Y-89.615
X-13.929 Y-89.169
Y-89.165
X-13.931 Y-88.708
Y-88.704
X-13.93 Y-88.237
Y-88.233
X-13.927 Y-87.755
Y-87.752
X-13.922 Y-87.263
Y-87.26
X-13.915 Y-86.762
X-13.914 Y-86.757
X-13.893 Y-85.731
Y-85.726
X-13.865 Y-84.661
Y-84.657
X-13.829 Y-83.556
Y-83.553
X-13.788 Y-82.418
Y-82.415
X-13.741 Y-81.247
Y-81.245
X-13.69 Y-80.045
Y-80.044
X-13.635 Y-78.814
Y-78.813
X-13.578 Y-77.555
X-13.517 Y-76.27
X-13.456 Y-74.958
X-13.393 Y-73.623
X-13.331 Y-72.264
X-13.269 Y-70.882
X-13.208 Y-69.479
X-13.148 Y-68.055
X-13.091 Y-66.61
X-13.037 Y-65.146
X-12.986 Y-63.663
X-12.94 Y-62.161
X-12.897 Y-60.641
X-12.859 Y-59.102
X-12.827 Y-57.546
X-12.799 Y-55.972
X-12.778 Y-54.38
X-12.762 Y-52.771
X-12.753 Y-51.144
X-12.75 Y-49.499
Y-43.015
X-12.759 Y-42.795
X-12.785 Y-42.566
X-12.83 Y-42.312
X-12.894 Y-42.034
X-12.978 Y-41.735
X-13.08 Y-41.415
X-13.2 Y-41.074
X-13.337 Y-40.716
X-13.489 Y-40.341
X-13.654 Y-39.949
X-13.83 Y-39.543
X-14.017 Y-39.122
X-14.211 Y-38.689
X-14.41 Y-38.245
X-14.412 Y-38.241
X-14.816 Y-37.326
X-14.821 Y-37.314
X-15.22 Y-36.369
X-15.228 Y-36.349
X-15.605 Y-35.379
X-15.613 Y-35.359
X-15.788 Y-34.866
X-15.794 Y-34.85
X-15.958 Y-34.353
X-15.964 Y-34.335
X-16.115 Y-33.834
X-16.121 Y-33.814
X-16.258 Y-33.309
X-16.264 Y-33.287
X-16.385 Y-32.779
X-16.39 Y-32.755
X-16.495 Y-32.245
X-16.5 Y-32.219
X-16.586 Y-31.705
X-16.59 Y-31.678
X-16.657 Y-31.16
X-16.66 Y-31.132
X-16.709 Y-30.61
X-16.711 Y-30.582
X-16.74 Y-30.055
X-16.741 Y-30.027
X-16.75 Y-29.494
Y-29.467
X-16.739 Y-28.928
X-16.738 Y-28.902
X-16.709 Y-28.356
X-16.707 Y-28.331
X-16.658 Y-27.779
X-16.655 Y-27.755
X-16.588 Y-27.197
X-16.585 Y-27.174
X-16.499 Y-26.609
X-16.496 Y-26.588
X-16.393 Y-26.017
X-16.389 Y-25.998
X-16.269 Y-25.421
X-16.265 Y-25.403
X-16.129 Y-24.822
X-16.125 Y-24.805
X-15.974 Y-24.221
X-15.969 Y-24.205
X-15.804 Y-23.619
X-15.799 Y-23.603
X-15.619 Y-23.018
X-15.615 Y-23.003
X-15.422 Y-22.42
X-15.417 Y-22.405
X-15.212 Y-21.827
X-15.207 Y-21.812
X-14.99 Y-21.24
X-14.984 Y-21.225
X-14.757 Y-20.662
X-14.751 Y-20.647
X-14.514 Y-20.095
X-14.507 Y-20.079
X-14.261 Y-19.542
X-14.253 Y-19.525
X-13.999 Y-19.003
X-13.99 Y-18.986
X-13.728 Y-18.483
X-13.718 Y-18.464
X-13.45 Y-17.983
X-13.438 Y-17.962
X-13.164 Y-17.504
X-13.15 Y-17.482
X-12.871 Y-17.05
X-12.855 Y-17.026
X-12.571 Y-16.623
X-12.551 Y-16.596
X-12.264 Y-16.223
X-12.24 Y-16.194
X-11.949 Y-15.853
X-11.92 Y-15.821
X-11.627 Y-15.516
X-11.591 Y-15.481
X-11.296 Y-15.212
X-11.251 Y-15.174
X-10.955 Y-14.943
X-10.914 Y-14.914
X-10.766 Y-14.813
X-10.735 Y-14.794
X-10.586 Y-14.703
X-10.551 Y-14.684
X-10.402 Y-14.603
X-10.365 Y-14.585
X-10.215 Y-14.515
X-10.174 Y-14.497
X-10.025 Y-14.438
X-9.98 Y-14.422
X-9.831 Y-14.373
X-9.783 Y-14.36
X-9.633 Y-14.322
X-9.583 Y-14.311
X-9.433 Y-14.284
X-9.381 Y-14.276
X-9.231 Y-14.26
X-9.177 Y-14.256
X-9.027 Y-14.25
X-8.973
X-8.823 Y-14.256
X-8.769 Y-14.26
X-8.619 Y-14.276
X-8.567 Y-14.284
X-8.417 Y-14.311
X-8.367 Y-14.322
X-8.217 Y-14.36
X-8.169 Y-14.373
X-8.02 Y-14.422
X-7.975 Y-14.438
X-7.826 Y-14.497
X-7.785 Y-14.515
X-7.635 Y-14.585
X-7.598 Y-14.603
X-7.449 Y-14.684
X-7.414 Y-14.703
X-7.265 Y-14.794
X-7.234 Y-14.813
X-7.086 Y-14.914
X-7.045 Y-14.943
X-6.749 Y-15.174
X-6.704 Y-15.212
X-6.409 Y-15.481
X-6.373 Y-15.516
X-6.08 Y-15.821
X-6.051 Y-15.854
X-5.76 Y-16.194
X-5.736 Y-16.223
X-5.449 Y-16.596
X-5.429 Y-16.623
X-5.145 Y-17.026
X-5.129 Y-17.05
X-4.85 Y-17.482
X-4.836 Y-17.504
X-4.562 Y-17.962
X-4.55 Y-17.983
X-4.282 Y-18.464
X-4.272 Y-18.483
X-4.01 Y-18.986
X-4.001 Y-19.003
X-3.747 Y-19.525
X-3.739 Y-19.542
X-3.493 Y-20.079
X-3.486 Y-20.095
X-3.249 Y-20.647
X-3.243 Y-20.662
X-3.016 Y-21.225
X-3.01 Y-21.24
X-2.793 Y-21.812
X-2.788 Y-21.827
X-2.583 Y-22.405
X-2.578 Y-22.42
X-2.385 Y-23.003
X-2.38 Y-23.018
X-2.201 Y-23.604
X-2.196 Y-23.619
X-2.031 Y-24.205
X-2.026 Y-24.221
X-1.875 Y-24.805
X-1.871 Y-24.822
X-1.735 Y-25.403
X-1.731 Y-25.421
X-1.611 Y-25.998
X-1.607 Y-26.017
X-1.504 Y-26.588
X-1.501 Y-26.609
X-1.415 Y-27.174
X-1.412 Y-27.197
X-1.345 Y-27.755
X-1.342 Y-27.779
X-1.293 Y-28.331
X-1.291 Y-28.356
X-1.262 Y-28.902
X-1.261 Y-28.928
X-1.25 Y-29.467
Y-29.494
X-1.259 Y-30.027
X-1.26 Y-30.055
X-1.289 Y-30.582
X-1.291 Y-30.61
X-1.339 Y-31.132
X-1.343 Y-31.16
X-1.41 Y-31.678
X-1.414 Y-31.705
X-1.5 Y-32.219
X-1.505 Y-32.245
X-1.61 Y-32.755
X-1.615 Y-32.78
X-1.736 Y-33.287
X-1.742 Y-33.309
X-1.879 Y-33.814
X-1.885 Y-33.834
X-2.036 Y-34.335
X-2.042 Y-34.353
X-2.206 Y-34.85
X-2.212 Y-34.866
X-2.387 Y-35.359
X-2.395 Y-35.379
X-2.772 Y-36.349
X-2.78 Y-36.369
X-3.179 Y-37.314
X-3.184 Y-37.326
X-3.588 Y-38.241
X-3.59 Y-38.245
X-3.789 Y-38.689
X-3.983 Y-39.122
X-4.17 Y-39.543
X-4.346 Y-39.949
X-4.511 Y-40.341
X-4.663 Y-40.716
X-4.8 Y-41.074
X-4.92 Y-41.415
X-5.022 Y-41.735
X-5.106 Y-42.034
X-5.17 Y-42.312
X-5.215 Y-42.566
X-5.241 Y-42.795
X-5.25 Y-43.015
Y-49.499
X-5.246 Y-51.431
X-5.233 Y-53.335
X-5.212 Y-55.212
X-5.183 Y-57.061
X-5.147 Y-58.884
X-5.103 Y-60.68
X-5.053 Y-62.449
X-4.997 Y-64.19
X-4.936 Y-65.903
X-4.871 Y-67.587
X-4.802 Y-69.242
X-4.731 Y-70.868
X-4.658 Y-72.462
X-4.613 Y-73.415
X-4.584 Y-74.025
X-4.511 Y-75.554
X-4.439 Y-77.049
X-4.37 Y-78.507
X-4.304 Y-79.928
Y-79.929
X-4.273 Y-80.624
X-4.243 Y-81.31
Y-81.311
X-4.215 Y-81.985
Y-81.986
Y-81.996
X-4.189 Y-82.649 Z-2.123 F1016
X-4.188 Y-82.651
X-4.164 Y-83.303 Z-2.146
Y-83.305
X-4.141 Y-83.945 Z-2.168
Y-83.947
X-4.12 Y-84.576 Z-2.19
Y-84.578
X-4.102 Y-85.195 Z-2.212
Y-85.198
X-4.086 Y-85.802 Z-2.233
Y-85.805
X-4.073 Y-86.397 Z-2.254
X-4.072 Y-86.4
X-4.062 Y-86.979 Z-2.274
Y-86.983
X-4.054 Y-87.548 Z-2.294
Y-87.552
X-4.049 Y-88.105 Z-2.313
Y-88.109 Z-2.314
X-4.047 Y-88.647 Z-2.332
Y-88.652 Z-2.333
X-4.049 Y-89.176 Z-2.351
Y-89.181
X-4.054 Y-89.69 Z-2.369
Y-89.696
X-4.063 Y-90.19 Z-2.386
Y-90.196
X-4.074 Y-90.584 Z-2.4
X-4.076 Y-90.675 F600
Y-90.682
X-4.093 Y-91.146
Y-91.154
X-4.113 Y-91.601
X-4.114 Y-91.61
X-4.138 Y-92.041
X-4.139 Y-92.05
X-4.168 Y-92.465
X-4.169 Y-92.475
X-4.202 Y-92.873
X-4.203 Y-92.884
X-4.241 Y-93.265
X-4.242 Y-93.278
X-4.285 Y-93.641
X-4.287 Y-93.655
X-4.334 Y-94
X-4.337 Y-94.016
X-4.389 Y-94.343
X-4.392 Y-94.362
X-4.449 Y-94.67
X-4.473 Y-94.764
X-4.509 Y-94.875
X-4.541 Y-94.956
X-4.582 Y-95.033
X-4.642 Y-95.132
X-4.692 Y-95.204
X-8.101 Y-99.568
G2 X-9.856 Y-99.783 I-0.985 J0.77
G1 X-13.399 Y-97.015
G2 X-13.879 Y-96.03 I0.77 J0.985
G1 Y-91.288
X-13.894 Y-90.904
X-13.895 Y-90.898
X-13.907 Y-90.487
Y-90.481
X-13.917 Y-90.059
Y-90.054
X-13.924 Y-89.62
Y-89.615
X-13.929 Y-89.169
Y-89.165
X-13.931 Y-88.708
Y-88.704
X-13.93 Y-88.237
Y-88.233
X-13.927 Y-87.755
Y-87.752
X-13.922 Y-87.263
Y-87.26
X-13.915 Y-86.762
X-13.914 Y-86.757
X-13.893 Y-85.731
Y-85.726
X-13.865 Y-84.661
Y-84.657
X-13.829 Y-83.556
Y-83.553
X-13.788 Y-82.418
Y-82.415
X-13.741 Y-81.247
Y-81.245
X-13.69 Y-80.045
Y-80.044
X-13.635 Y-78.814
Y-78.813
X-13.578 Y-77.555
X-13.517 Y-76.27
X-13.456 Y-74.958
X-13.393 Y-73.623
X-13.331 Y-72.264
X-13.269 Y-70.882
X-13.208 Y-69.479
X-13.148 Y-68.055
X-13.091 Y-66.61
X-13.037 Y-65.146
X-12.986 Y-63.663
X-12.94 Y-62.161
X-12.897 Y-60.641
X-12.859 Y-59.102
X-12.827 Y-57.546
X-12.799 Y-55.972
X-12.778 Y-54.38
X-12.762 Y-52.771
X-12.753 Y-51.144
X-12.75 Y-49.499
Y-43.015
X-12.759 Y-42.795
X-12.785 Y-42.566
X-12.83 Y-42.312
X-12.894 Y-42.034
X-12.978 Y-41.735
X-13.08 Y-41.415
X-13.2 Y-41.074
X-13.337 Y-40.716
X-13.489 Y-40.341
X-13.654 Y-39.949
X-13.83 Y-39.543
X-14.017 Y-39.122
X-14.211 Y-38.689
X-14.41 Y-38.245
X-14.412 Y-38.241
X-14.816 Y-37.326
X-14.821 Y-37.314
X-15.22 Y-36.369
X-15.228 Y-36.349
X-15.605 Y-35.379
X-15.613 Y-35.359
X-15.788 Y-34.866
X-15.794 Y-34.85
X-15.958 Y-34.353
X-15.964 Y-34.335
X-16.115 Y-33.834
X-16.121 Y-33.814
X-16.258 Y-33.309
X-16.264 Y-33.287
X-16.385 Y-32.779
X-16.39 Y-32.755
X-16.495 Y-32.245
X-16.5 Y-32.219
X-16.586 Y-31.705
X-16.59 Y-31.678
X-16.657 Y-31.16
X-16.66 Y-31.132
X-16.709 Y-30.61
X-16.711 Y-30.582
X-16.74 Y-30.055
X-16.741 Y-30.027
X-16.75 Y-29.494
Y-29.467
X-16.739 Y-28.928
X-16.738 Y-28.902
X-16.709 Y-28.356
X-16.707 Y-28.331
X-16.658 Y-27.779
X-16.655 Y-27.755
X-16.588 Y-27.197
X-16.585 Y-27.174
X-16.499 Y-26.609
X-16.496 Y-26.588
X-16.393 Y-26.017
X-16.389 Y-25.998
X-16.269 Y-25.421
X-16.265 Y-25.403
X-16.129 Y-24.822
X-16.125 Y-24.805
X-15.974 Y-24.221
X-15.969 Y-24.205
X-15.804 Y-23.619
X-15.799 Y-23.603
X-15.619 Y-23.018
X-15.615 Y-23.003
X-15.422 Y-22.42
X-15.417 Y-22.405
X-15.212 Y-21.827
X-15.207 Y-21.812
X-14.99 Y-21.24
X-14.984 Y-21.225
X-14.757 Y-20.662
X-14.751 Y-20.647
X-14.514 Y-20.095
X-14.507 Y-20.079
X-14.261 Y-19.542
X-14.253 Y-19.525
X-13.999 Y-19.003
X-13.99 Y-18.986
X-13.728 Y-18.483
X-13.718 Y-18.464
X-13.45 Y-17.983
X-13.438 Y-17.962
X-13.164 Y-17.504
X-13.15 Y-17.482
X-12.871 Y-17.05
X-12.855 Y-17.026
X-12.571 Y-16.623
X-12.551 Y-16.596
X-12.264 Y-16.223
X-12.24 Y-16.194
X-11.949 Y-15.853
X-11.92 Y-15.821
X-11.627 Y-15.516
X-11.591 Y-15.481
X-11.296 Y-15.212
X-11.251 Y-15.174
X-10.955 Y-14.943
X-10.914 Y-14.914
X-10.766 Y-14.813
X-10.735 Y-14.794
X-10.586 Y-14.703
X-10.551 Y-14.684
X-10.402 Y-14.603
X-10.365 Y-14.585
X-10.215 Y-14.515
X-10.174 Y-14.497
X-10.025 Y-14.438
X-9.98 Y-14.422
X-9.831 Y-14.373
X-9.783 Y-14.36
X-9.633 Y-14.322
X-9.583 Y-14.311
X-9.433 Y-14.284
X-9.381 Y-14.276
X-9.231 Y-14.26
X-9.177 Y-14.256
X-9.027 Y-14.25
X-8.973
X-8.823 Y-14.256
X-8.769 Y-14.26
X-8.619 Y-14.276
X-8.567 Y-14.284
X-8.417 Y-14.311
X-8.367 Y-14.322
X-8.217 Y-14.36
X-8.169 Y-14.373
X-8.02 Y-14.422
X-7.975 Y-14.438
X-7.826 Y-14.497
X-7.785 Y-14.515
X-7.635 Y-14.585
X-7.598 Y-14.603
X-7.449 Y-14.684
X-7.414 Y-14.703
X-7.265 Y-14.794
X-7.234 Y-14.813
X-7.086 Y-14.914
X-7.045 Y-14.943
X-6.749 Y-15.174
X-6.704 Y-15.212
X-6.409 Y-15.481
X-6.373 Y-15.516
X-6.08 Y-15.821
X-6.051 Y-15.854
X-5.76 Y-16.194
X-5.736 Y-16.223
X-5.449 Y-16.596
X-5.429 Y-16.623
X-5.145 Y-17.026
X-5.129 Y-17.05
X-4.85 Y-17.482
X-4.836 Y-17.504
X-4.562 Y-17.962
X-4.55 Y-17.983
X-4.282 Y-18.464
X-4.272 Y-18.483
X-4.01 Y-18.986
X-4.001 Y-19.003
X-3.747 Y-19.525
X-3.739 Y-19.542
X-3.493 Y-20.079
X-3.486 Y-20.095
X-3.249 Y-20.647
X-3.243 Y-20.662
X-3.016 Y-21.225
X-3.01 Y-21.24
X-2.793 Y-21.812
X-2.788 Y-21.827
X-2.583 Y-22.405
X-2.578 Y-22.42
X-2.385 Y-23.003
X-2.38 Y-23.018
X-2.201 Y-23.604
X-2.196 Y-23.619
X-2.031 Y-24.205
X-2.026 Y-24.221
X-1.875 Y-24.805
X-1.871 Y-24.822
X-1.735 Y-25.403
X-1.731 Y-25.421
X-1.611 Y-25.998
X-1.607 Y-26.017
X-1.504 Y-26.588
X-1.501 Y-26.609
X-1.415 Y-27.174
X-1.412 Y-27.197
X-1.345 Y-27.755
X-1.342 Y-27.779
X-1.293 Y-28.331
X-1.291 Y-28.356
X-1.262 Y-28.902
X-1.261 Y-28.928
X-1.25 Y-29.467
Y-29.494
X-1.259 Y-30.027
X-1.26 Y-30.055
X-1.289 Y-30.582
X-1.291 Y-30.61
X-1.339 Y-31.132
X-1.343 Y-31.16
X-1.41 Y-31.678
X-1.414 Y-31.705
X-1.5 Y-32.219
X-1.505 Y-32.245
X-1.61 Y-32.755
X-1.615 Y-32.78
X-1.736 Y-33.287
X-1.742 Y-33.309
X-1.879 Y-33.814
X-1.885 Y-33.834
X-2.036 Y-34.335
X-2.042 Y-34.353
X-2.206 Y-34.85
X-2.212 Y-34.866
X-2.387 Y-35.359
X-2.395 Y-35.379
X-2.772 Y-36.349
X-2.78 Y-36.369
X-3.179 Y-37.314
X-3.184 Y-37.326
X-3.588 Y-38.241
X-3.59 Y-38.245
X-3.789 Y-38.689
X-3.983 Y-39.122
X-4.17 Y-39.543
X-4.346 Y-39.949
X-4.511 Y-40.341
X-4.663 Y-40.716
X-4.8 Y-41.074
X-4.92 Y-41.415
X-5.022 Y-41.735
X-5.106 Y-42.034
X-5.17 Y-42.312
X-5.215 Y-42.566
X-5.241 Y-42.795
X-5.25 Y-43.015
Y-49.499
X-5.246 Y-51.431
X-5.233 Y-53.335
X-5.212 Y-55.212
X-5.183 Y-57.061
X-5.147 Y-58.884
X-5.103 Y-60.68
X-5.053 Y-62.449
X-4.997 Y-64.19
X-4.936 Y-65.903
X-4.871 Y-67.587
X-4.802 Y-69.242
X-4.731 Y-70.868
X-4.658 Y-72.462
X-4.584 Y-74.025
X-4.511 Y-75.554
X-4.439 Y-77.049
X-4.37 Y-78.507
X-4.304 Y-79.928
Y-79.929
X-4.273 Y-80.624
X-4.243 Y-81.31
Y-81.311
X-4.215 Y-81.985
Y-81.986
X-4.189 Y-82.649
X-4.188 Y-82.651
X-4.164 Y-83.303
Y-83.305
X-4.141 Y-83.945
Y-83.947
X-4.12 Y-84.576
Y-84.578
X-4.102 Y-85.195
Y-85.198
X-4.086 Y-85.802
Y-85.805
X-4.073 Y-86.397
X-4.072 Y-86.4
X-4.062 Y-86.979
Y-86.983
X-4.054 Y-87.548
Y-87.552
X-4.049 Y-88.105
Y-88.109
X-4.047 Y-88.647
Y-88.652
X-4.049 Y-89.176
Y-89.181
X-4.054 Y-89.69
Y-89.696
X-4.063 Y-90.19
Y-90.196
X-4.074 Y-90.584
X-4.076 Y-90.675 Z-2.403 F1016
Y-90.682
X-4.093 Y-91.146 Z-2.42
Y-91.154
X-4.113 Y-91.601 Z-2.436
X-4.114 Y-91.61
X-4.138 Y-92.041 Z-2.451
X-4.139 Y-92.05
X-4.168 Y-92.465 Z-2.466
X-4.169 Y-92.475
X-4.202 Y-92.873 Z-2.48
X-4.203 Y-92.884
X-4.241 Y-93.265 Z-2.494
X-4.242 Y-93.278
X-4.285 Y-93.641 Z-2.507
X-4.287 Y-93.655 Z-2.508
X-4.334 Y-94 Z-2.52
X-4.337 Y-94.016
X-4.389 Y-94.343 Z-2.532
X-4.392 Y-94.362
X-4.449 Y-94.67 Z-2.543
X-4.473 Y-94.764 Z-2.547
X-4.509 Y-94.875 Z-2.551
X-4.541 Y-94.956 Z-2.554
X-4.582 Y-95.033 Z-2.557
X-4.642 Y-95.132 Z-2.561
X-4.692 Y-95.204 Z-2.564
X-7.088 Y-98.271 Z-2.7
X-8.101 Y-99.568 F600
G2 X-9.856 Y-99.783 I-0.985 J0.77
G1 X-13.399 Y-97.015
G2 X-13.879 Y-96.03 I0.77 J0.985
G1 Y-91.288
X-13.894 Y-90.904
X-13.895 Y-90.898
X-13.907 Y-90.487
Y-90.481
X-13.917 Y-90.059
Y-90.054
X-13.924 Y-89.62
Y-89.615
X-13.929 Y-89.169
Y-89.165
X-13.931 Y-88.708
Y-88.704
X-13.93 Y-88.237
Y-88.233
X-13.927 Y-87.755
Y-87.752
X-13.922 Y-87.263
Y-87.26
X-13.915 Y-86.762
X-13.914 Y-86.757
X-13.893 Y-85.731
Y-85.726
X-13.865 Y-84.661
Y-84.657
X-13.829 Y-83.556
Y-83.553
X-13.788 Y-82.418
Y-82.415
X-13.741 Y-81.247
Y-81.245
X-13.69 Y-80.045
Y-80.044
X-13.635 Y-78.814
Y-78.813
X-13.578 Y-77.555
X-13.517 Y-76.27
X-13.475 Y-75.371
Z-2.5
X-13.456 Y-74.958
X-13.393 Y-73.623
X-13.331 Y-72.264
X-13.313 Y-71.875
Z-2.7 F300
X-13.269 Y-70.882 F600
X-13.208 Y-69.479
X-13.148 Y-68.055
X-13.091 Y-66.61
X-13.037 Y-65.146
X-12.986 Y-63.663
X-12.94 Y-62.161
X-12.897 Y-60.641
X-12.859 Y-59.102
X-12.827 Y-57.546
X-12.799 Y-55.972
X-12.778 Y-54.38
X-12.762 Y-52.771
X-12.753 Y-51.144
X-12.75 Y-49.499
Y-43.015
X-12.759 Y-42.795
X-12.785 Y-42.566
X-12.83 Y-42.312
X-12.894 Y-42.034
X-12.978 Y-41.735
X-13.08 Y-41.415
X-13.2 Y-41.074
X-13.337 Y-40.716
X-13.489 Y-40.341
X-13.654 Y-39.949
X-13.83 Y-39.543
X-14.017 Y-39.122
X-14.211 Y-38.689
X-14.41 Y-38.245
X-14.412 Y-38.241
X-14.816 Y-37.326
X-14.821 Y-37.314
X-15.22 Y-36.369
X-15.228 Y-36.349
X-15.605 Y-35.379
X-15.613 Y-35.359
X-15.788 Y-34.866
X-15.794 Y-34.85
X-15.958 Y-34.353
X-15.964 Y-34.335
X-16.115 Y-33.834
X-16.121 Y-33.814
X-16.258 Y-33.309
X-16.264 Y-33.287
X-16.385 Y-32.779
X-16.39 Y-32.755
X-16.495 Y-32.245
X-16.5 Y-32.219
X-16.586 Y-31.705
X-16.59 Y-31.678
X-16.657 Y-31.16
X-16.66 Y-31.132
X-16.709 Y-30.61
X-16.711 Y-30.582
X-16.74 Y-30.055
X-16.741 Y-30.027
X-16.75 Y-29.494
Y-29.467
X-16.739 Y-28.928
X-16.738 Y-28.902
X-16.709 Y-28.356
X-16.707 Y-28.331
X-16.658 Y-27.779
X-16.655 Y-27.755
X-16.588 Y-27.197
X-16.585 Y-27.174
X-16.499 Y-26.609
X-16.496 Y-26.588
X-16.393 Y-26.017
X-16.389 Y-25.998
X-16.269 Y-25.421
X-16.265 Y-25.403
X-16.129 Y-24.822
X-16.125 Y-24.805
X-15.974 Y-24.221
X-15.969 Y-24.205
X-15.804 Y-23.619
X-15.799 Y-23.603
X-15.619 Y-23.018
X-15.615 Y-23.003
X-15.422 Y-22.42
X-15.417 Y-22.405
X-15.212 Y-21.827
X-15.207 Y-21.812
X-14.99 Y-21.24
X-14.984 Y-21.225
X-14.757 Y-20.662
X-14.751 Y-20.647
X-14.514 Y-20.095
X-14.507 Y-20.079
X-14.261 Y-19.542
X-14.253 Y-19.525
X-13.999 Y-19.003
X-13.99 Y-18.986
X-13.728 Y-18.483
X-13.718 Y-18.464
X-13.45 Y-17.983
X-13.438 Y-17.962
X-13.164 Y-17.504
X-13.15 Y-17.482
X-12.871 Y-17.05
X-12.855 Y-17.026
X-12.571 Y-16.623
X-12.551 Y-16.596
X-12.264 Y-16.223
X-12.24 Y-16.194
X-11.949 Y-15.853
X-11.92 Y-15.821
X-11.627 Y-15.516
X-11.591 Y-15.481
X-11.296 Y-15.212
X-11.251 Y-15.174
X-10.955 Y-14.943
X-10.914 Y-14.914
X-10.766 Y-14.813
X-10.75 Y-14.803
Z-2.5
X-10.735 Y-14.794
X-10.586 Y-14.703
X-10.551 Y-14.684
X-10.402 Y-14.603
X-10.365 Y-14.585
X-10.215 Y-14.515
X-10.174 Y-14.497
X-10.025 Y-14.438
X-9.98 Y-14.422
X-9.831 Y-14.373
X-9.783 Y-14.36
X-9.633 Y-14.322
X-9.583 Y-14.311
X-9.433 Y-14.284
X-9.381 Y-14.276
X-9.231 Y-14.26
X-9.177 Y-14.256
X-9.027 Y-14.25
X-8.973
X-8.823 Y-14.256
X-8.769 Y-14.26
X-8.619 Y-14.276
X-8.567 Y-14.284
X-8.417 Y-14.311
X-8.367 Y-14.322
X-8.217 Y-14.36
X-8.169 Y-14.373
X-8.02 Y-14.422
X-7.975 Y-14.438
X-7.826 Y-14.497
X-7.785 Y-14.515
X-7.635 Y-14.585
X-7.598 Y-14.603
X-7.449 Y-14.684
X-7.414 Y-14.703
X-7.265 Y-14.794
X-7.25 Y-14.803
Z-2.7 F300
X-7.234 Y-14.813 F600
X-7.086 Y-14.914
X-7.045 Y-14.943
X-6.749 Y-15.174
X-6.704 Y-15.212
X-6.409 Y-15.481
X-6.373 Y-15.516
X-6.08 Y-15.821
X-6.051 Y-15.854
X-5.76 Y-16.194
X-5.736 Y-16.223
X-5.449 Y-16.596
X-5.429 Y-16.623
X-5.145 Y-17.026
X-5.129 Y-17.05
X-4.85 Y-17.482
X-4.836 Y-17.504
X-4.562 Y-17.962
X-4.55 Y-17.983
X-4.282 Y-18.464
X-4.272 Y-18.483
X-4.01 Y-18.986
X-4.001 Y-19.003
X-3.747 Y-19.525
X-3.739 Y-19.542
X-3.493 Y-20.079
X-3.486 Y-20.095
X-3.249 Y-20.647
X-3.243 Y-20.662
X-3.016 Y-21.225
X-3.01 Y-21.24
X-2.793 Y-21.812
X-2.788 Y-21.827
X-2.583 Y-22.405
X-2.578 Y-22.42
X-2.385 Y-23.003
X-2.38 Y-23.018
X-2.201 Y-23.604
X-2.196 Y-23.619
X-2.031 Y-24.205
X-2.026 Y-24.221
X-1.875 Y-24.805
X-1.871 Y-24.822
X-1.735 Y-25.403
X-1.731 Y-25.421
X-1.611 Y-25.998
X-1.607 Y-26.017
X-1.504 Y-26.588
X-1.501 Y-26.609
X-1.415 Y-27.174
X-1.412 Y-27.197
X-1.345 Y-27.755
X-1.342 Y-27.779
X-1.293 Y-28.331
X-1.291 Y-28.356
X-1.262 Y-28.902
X-1.261 Y-28.928
X-1.25 Y-29.467
Y-29.494
X-1.259 Y-30.027
X-1.26 Y-30.055
X-1.289 Y-30.582
X-1.291 Y-30.61
X-1.339 Y-31.132
X-1.343 Y-31.16
X-1.41 Y-31.678
X-1.414 Y-31.705
X-1.5 Y-32.219
X-1.505 Y-32.245
X-1.61 Y-32.755
X-1.615 Y-32.78
X-1.736 Y-33.287
X-1.742 Y-33.309
X-1.879 Y-33.814
X-1.885 Y-33.834
X-2.036 Y-34.335
X-2.042 Y-34.353
X-2.206 Y-34.85
X-2.212 Y-34.866
X-2.387 Y-35.359
X-2.395 Y-35.379
X-2.772 Y-36.349
X-2.78 Y-36.369
X-3.179 Y-37.314
X-3.184 Y-37.326
X-3.588 Y-38.241
X-3.59 Y-38.245
X-3.789 Y-38.689
X-3.983 Y-39.122
X-4.17 Y-39.543
X-4.346 Y-39.949
X-4.511 Y-40.341
X-4.663 Y-40.716
X-4.8 Y-41.074
X-4.92 Y-41.415
X-5.022 Y-41.735
X-5.106 Y-42.034
X-5.17 Y-42.312
X-5.215 Y-42.566
X-5.241 Y-42.795
X-5.25 Y-43.015
Y-49.499
X-5.246 Y-51.431
X-5.233 Y-53.335
X-5.212 Y-55.212
X-5.183 Y-57.061
X-5.147 Y-58.884
X-5.103 Y-60.68
X-5.053 Y-62.449
X-4.997 Y-64.19
X-4.936 Y-65.903
X-4.871 Y-67.587
X-4.802 Y-69.242
X-4.731 Y-70.868
X-4.658 Y-72.462
X-4.584 Y-74.025
X-4.523 Y-75.301
Z-2.5
X-4.511 Y-75.554
X-4.439 Y-77.049
X-4.37 Y-78.507
X-4.356 Y-78.797
Z-2.7 F300
X-4.304 Y-79.928 F600
Y-79.929
X-4.273 Y-80.624
X-4.243 Y-81.31
Y-81.311
X-4.215 Y-81.985
Y-81.986
X-4.189 Y-82.649
X-4.188 Y-82.651
X-4.164 Y-83.303
Y-83.305
X-4.141 Y-83.945
Y-83.947
X-4.12 Y-84.576
Y-84.578
X-4.102 Y-85.195
Y-85.198
X-4.086 Y-85.802
Y-85.805
X-4.073 Y-86.397
X-4.072 Y-86.4
X-4.062 Y-86.979
Y-86.983
X-4.054 Y-87.548
Y-87.552
X-4.049 Y-88.105
Y-88.109
X-4.047 Y-88.647
Y-88.652
X-4.049 Y-89.176
Y-89.181
X-4.054 Y-89.69
Y-89.696
X-4.063 Y-90.19
Y-90.196
X-4.076 Y-90.675
Y-90.682
X-4.093 Y-91.146
Y-91.154
X-4.113 Y-91.601
X-4.114 Y-91.61
X-4.138 Y-92.041
X-4.139 Y-92.05
X-4.168 Y-92.465
X-4.169 Y-92.475
X-4.202 Y-92.873
X-4.203 Y-92.884
X-4.241 Y-93.265
X-4.242 Y-93.278
X-4.285 Y-93.641
X-4.287 Y-93.655
X-4.334 Y-94
X-4.337 Y-94.016
X-4.389 Y-94.343
X-4.392 Y-94.362
X-4.449 Y-94.67
X-4.473 Y-94.764
X-4.509 Y-94.875
X-4.541 Y-94.956
X-4.582 Y-95.033
X-4.642 Y-95.132
X-4.692 Y-95.204
X-7.088 Y-98.271
X-8.101 Y-99.568 Z-2.757 F1016
G2 X-9.856 Y-99.783 Z-2.826 I-0.985 J0.77
G1 X-13.399 Y-97.015 Z-2.983
G2 X-13.715 Y-96.65 Z-3 I0.77 J0.985
X-13.879 Y-96.03 I1.085 J0.62 F600
G1 Y-91.288
X-13.894 Y-90.904
X-13.895 Y-90.898
X-13.907 Y-90.487
Y-90.481
X-13.917 Y-90.059
Y-90.054
X-13.924 Y-89.62
Y-89.615
X-13.929 Y-89.169
Y-89.165
X-13.931 Y-88.708
Y-88.704
X-13.93 Y-88.237
Y-88.233
X-13.927 Y-87.755
Y-87.752
X-13.922 Y-87.263
Y-87.26
X-13.915 Y-86.762
X-13.914 Y-86.757
X-13.893 Y-85.731
Y-85.726
X-13.865 Y-84.661
Y-84.657
X-13.829 Y-83.556
Y-83.553
X-13.788 Y-82.418
Y-82.415
X-13.741 Y-81.247
Y-81.245
X-13.69 Y-80.045
Y-80.044
X-13.635 Y-78.814
Y-78.813
X-13.578 Y-77.555
X-13.517 Y-76.27
X-13.475 Y-75.371
Z-2.5
X-13.456 Y-74.958
X-13.393 Y-73.623
X-13.331 Y-72.264
X-13.313 Y-71.875
Z-3 F300
X-13.269 Y-70.882 F600
X-13.208 Y-69.479
X-13.148 Y-68.055
X-13.091 Y-66.61
X-13.037 Y-65.146
X-12.986 Y-63.663
X-12.94 Y-62.161
X-12.897 Y-60.641
X-12.859 Y-59.102
X-12.827 Y-57.546
X-12.799 Y-55.972
X-12.778 Y-54.38
X-12.762 Y-52.771
X-12.753 Y-51.144
X-12.75 Y-49.499
Y-43.015
X-12.759 Y-42.795
X-12.785 Y-42.566
X-12.83 Y-42.312
X-12.894 Y-42.034
X-12.978 Y-41.735
X-13.08 Y-41.415
X-13.2 Y-41.074
X-13.337 Y-40.716
X-13.489 Y-40.341
X-13.654 Y-39.949
X-13.83 Y-39.543
X-14.017 Y-39.122
X-14.211 Y-38.689
X-14.41 Y-38.245
X-14.412 Y-38.241
X-14.816 Y-37.326
X-14.821 Y-37.314
X-15.22 Y-36.369
X-15.228 Y-36.349
X-15.605 Y-35.379
X-15.613 Y-35.359
X-15.788 Y-34.866
X-15.794 Y-34.85
X-15.958 Y-34.353
X-15.964 Y-34.335
X-16.115 Y-33.834
X-16.121 Y-33.814
X-16.258 Y-33.309
X-16.264 Y-33.287
X-16.385 Y-32.779
X-16.39 Y-32.755
X-16.495 Y-32.245
X-16.5 Y-32.219
X-16.586 Y-31.705
X-16.59 Y-31.678
X-16.657 Y-31.16
X-16.66 Y-31.132
X-16.709 Y-30.61
X-16.711 Y-30.582
X-16.74 Y-30.055
X-16.741 Y-30.027
X-16.75 Y-29.494
Y-29.467
X-16.739 Y-28.928
X-16.738 Y-28.902
X-16.709 Y-28.356
X-16.707 Y-28.331
X-16.658 Y-27.779
X-16.655 Y-27.755
X-16.588 Y-27.197
X-16.585 Y-27.174
X-16.499 Y-26.609
X-16.496 Y-26.588
X-16.393 Y-26.017
X-16.389 Y-25.998
X-16.269 Y-25.421
X-16.265 Y-25.403
X-16.129 Y-24.822
X-16.125 Y-24.805
X-15.974 Y-24.221
X-15.969 Y-24.205
X-15.804 Y-23.619
X-15.799 Y-23.603
X-15.619 Y-23.018
X-15.615 Y-23.003
X-15.422 Y-22.42
X-15.417 Y-22.405
X-15.212 Y-21.827
X-15.207 Y-21.812
X-14.99 Y-21.24
X-14.984 Y-21.225
X-14.757 Y-20.662
X-14.751 Y-20.647
X-14.514 Y-20.095
X-14.507 Y-20.079
X-14.261 Y-19.542
X-14.253 Y-19.525
X-13.999 Y-19.003
X-13.99 Y-18.986
X-13.728 Y-18.483
X-13.718 Y-18.464
X-13.45 Y-17.983
X-13.438 Y-17.962
X-13.164 Y-17.504
X-13.15 Y-17.482
X-12.871 Y-17.05
X-12.855 Y-17.026
X-12.571 Y-16.623
X-12.551 Y-16.596
X-12.264 Y-16.223
X-12.24 Y-16.194
X-11.949 Y-15.853
X-11.92 Y-15.821
X-11.627 Y-15.516
X-11.591 Y-15.481
X-11.296 Y-15.212
X-11.251 Y-15.174
X-10.955 Y-14.943
X-10.914 Y-14.914
X-10.766 Y-14.813
X-10.75 Y-14.803
Z-2.5
X-10.735 Y-14.794
X-10.586 Y-14.703
X-10.551 Y-14.684
X-10.402 Y-14.603
X-10.365 Y-14.585
X-10.215 Y-14.515
X-10.174 Y-14.497
X-10.025 Y-14.438
X-9.98 Y-14.422
X-9.831 Y-14.373
X-9.783 Y-14.36
X-9.633 Y-14.322
X-9.583 Y-14.311
X-9.433 Y-14.284
X-9.381 Y-14.276
X-9.231 Y-14.26
X-9.177 Y-14.256
X-9.027 Y-14.25
X-8.973
X-8.823 Y-14.256
X-8.769 Y-14.26
X-8.619 Y-14.276
X-8.567 Y-14.284
X-8.417 Y-14.311
X-8.367 Y-14.322
X-8.217 Y-14.36
X-8.169 Y-14.373
X-8.02 Y-14.422
X-7.975 Y-14.438
X-7.826 Y-14.497
X-7.785 Y-14.515
X-7.635 Y-14.585
X-7.598 Y-14.603
X-7.449 Y-14.684
X-7.414 Y-14.703
X-7.265 Y-14.794
X-7.25 Y-14.803
Z-3 F300
X-7.234 Y-14.813 F600
X-7.086 Y-14.914
X-7.045 Y-14.943
X-6.749 Y-15.174
X-6.704 Y-15.212
X-6.409 Y-15.481
X-6.373 Y-15.516
X-6.08 Y-15.821
X-6.051 Y-15.854
X-5.76 Y-16.194
X-5.736 Y-16.223
X-5.449 Y-16.596
X-5.429 Y-16.623
X-5.145 Y-17.026
X-5.129 Y-17.05
X-4.85 Y-17.482
X-4.836 Y-17.504
X-4.562 Y-17.962
X-4.55 Y-17.983
X-4.282 Y-18.464
X-4.272 Y-18.483
X-4.01 Y-18.986
X-4.001 Y-19.003
X-3.747 Y-19.525
X-3.739 Y-19.542
X-3.493 Y-20.079
X-3.486 Y-20.095
X-3.249 Y-20.647
X-3.243 Y-20.662
X-3.016 Y-21.225
X-3.01 Y-21.24
X-2.793 Y-21.812
X-2.788 Y-21.827
X-2.583 Y-22.405
X-2.578 Y-22.42
X-2.385 Y-23.003
X-2.38 Y-23.018
X-2.201 Y-23.604
X-2.196 Y-23.619
X-2.031 Y-24.205
X-2.026 Y-24.221
X-1.875 Y-24.805
X-1.871 Y-24.822
X-1.735 Y-25.403
X-1.731 Y-25.421
X-1.611 Y-25.998
X-1.607 Y-26.017
X-1.504 Y-26.588
X-1.501 Y-26.609
X-1.415 Y-27.174
X-1.412 Y-27.197
X-1.345 Y-27.755
X-1.342 Y-27.779
X-1.293 Y-28.331
X-1.291 Y-28.356
X-1.262 Y-28.902
X-1.261 Y-28.928
X-1.25 Y-29.467
Y-29.494
X-1.259 Y-30.027
X-1.26 Y-30.055
X-1.289 Y-30.582
X-1.291 Y-30.61
X-1.339 Y-31.132
X-1.343 Y-31.16
X-1.41 Y-31.678
X-1.414 Y-31.705
X-1.5 Y-32.219
X-1.505 Y-32.245
X-1.61 Y-32.755
X-1.615 Y-32.78
X-1.736 Y-33.287
X-1.742 Y-33.309
X-1.879 Y-33.814
X-1.885 Y-33.834
X-2.036 Y-34.335
X-2.042 Y-34.353
X-2.206 Y-34.85
X-2.212 Y-34.866
X-2.387 Y-35.359
X-2.395 Y-35.379
X-2.772 Y-36.349
X-2.78 Y-36.369
X-3.179 Y-37.314
X-3.184 Y-37.326
X-3.588 Y-38.241
X-3.59 Y-38.245
X-3.789 Y-38.689
X-3.983 Y-39.122
X-4.17 Y-39.543
X-4.346 Y-39.949
X-4.511 Y-40.341
X-4.663 Y-40.716
X-4.8 Y-41.074
X-4.92 Y-41.415
X-5.022 Y-41.735
X-5.106 Y-42.034
X-5.17 Y-42.312
X-5.215 Y-42.566
X-5.241 Y-42.795
X-5.25 Y-43.015
Y-49.499
X-5.246 Y-51.431
X-5.233 Y-53.335
X-5.212 Y-55.212
X-5.183 Y-57.061
X-5.147 Y-58.884
X-5.103 Y-60.68
X-5.053 Y-62.449
X-4.997 Y-64.19
X-4.936 Y-65.903
X-4.871 Y-67.587
X-4.802 Y-69.242
X-4.731 Y-70.868
X-4.658 Y-72.462
X-4.584 Y-74.025
X-4.523 Y-75.301
Z-2.5
X-4.511 Y-75.554
X-4.439 Y-77.049
X-4.37 Y-78.507
X-4.356 Y-78.797
Z-3 F300
X-4.304 Y-79.928 F600
Y-79.929
X-4.273 Y-80.624
X-4.243 Y-81.31
Y-81.311
X-4.215 Y-81.985
Y-81.986
X-4.189 Y-82.649
X-4.188 Y-82.651
X-4.164 Y-83.303
Y-83.305
X-4.141 Y-83.945
Y-83.947
X-4.12 Y-84.576
Y-84.578
X-4.102 Y-85.195
Y-85.198
X-4.086 Y-85.802
Y-85.805
X-4.073 Y-86.397
X-4.072 Y-86.4
X-4.062 Y-86.979
Y-86.983
X-4.054 Y-87.548
Y-87.552
X-4.049 Y-88.105
Y-88.109
X-4.047 Y-88.647
Y-88.652
X-4.049 Y-89.176
Y-89.181
X-4.054 Y-89.69
Y-89.696
X-4.063 Y-90.19
Y-90.196
X-4.076 Y-90.675
Y-90.682
X-4.093 Y-91.146
Y-91.154
X-4.113 Y-91.601
X-4.114 Y-91.61
X-4.138 Y-92.041
X-4.139 Y-92.05
X-4.168 Y-92.465
X-4.169 Y-92.475
X-4.202 Y-92.873
X-4.203 Y-92.884
X-4.241 Y-93.265
X-4.242 Y-93.278
X-4.285 Y-93.641
X-4.287 Y-93.655
X-4.334 Y-94
X-4.337 Y-94.016
X-4.389 Y-94.343
X-4.392 Y-94.362
X-4.449 Y-94.67
X-4.473 Y-94.764
X-4.509 Y-94.875
X-4.541 Y-94.956
X-4.582 Y-95.033
X-4.642 Y-95.132
X-4.692 Y-95.204
X-8.101 Y-99.568
G2 X-9.856 Y-99.783 I-0.985 J0.77
G1 X-13.399 Y-97.015
G2 X-13.715 Y-96.65 I0.77 J0.985
G0 Z15

(Bohrfrasen5)
X-25.135 Y-7.537
Z15
Z2
G1 Z0.15 F400
X-25.143 Z0.104
X-25.164 Z0.062
X-25.197 Z0.029
X-25.239 Z0.007
X-25.285 Z0
X-25.36
X-25.407 Y-7.544
X-25.448 Y-7.565
X-25.482 Y-7.599
X-25.503 Y-7.64
X-25.51 Y-7.687
G3 X-24.01 Y-7.687 Z-0.5 I0.75 J0 F600
X-25.51 Y-7.687 Z-1 I-0.75 J0
X-24.01 Y-7.687 Z-1.5 I0.75 J0
X-25.51 Y-7.687 Z-2 I-0.75 J0
X-24.01 Y-7.687 Z-2.5 I0.75 J0
X-25.51 Y-7.687 Z-3 I-0.75 J0
X-24.01 Y-7.687 I0.75 J0
X-25.51 Y-7.687 I-0.75 J0
G1 X-25.503 Y-7.733
X-25.482 Y-7.775
X-25.448 Y-7.808
X-25.407 Y-7.829
X-25.36 Y-7.837
X-25.285
X-25.239 Z-2.993
X-25.197 Z-2.971
X-25.164 Z-2.938
X-25.143 Z-2.896
X-25.135 Z-2.85
G0 Z5
X-21.653 Y-13.855
Z0.5
G1 Z-1.35 F400
X-21.661 Z-1.396
X-21.682 Z-1.438
X-21.715 Z-1.471
X-21.757 Z-1.493
X-21.803 Z-1.5
X-21.878
X-21.925 Y-13.862
X-21.966 Y-13.883
X-22 Y-13.917
X-22.021 Y-13.958
X-22.028 Y-14.005
G3 X-21.128 Y-14.005 Z-2 I0.45 J0 F600
X-22.028 Y-14.005 Z-2.5 I-0.45 J0
X-21.128 Y-14.005 Z-3 I0.45 J0
X-22.028 Y-14.005 I-0.45 J0
X-21.128 Y-14.005 I0.45 J0
G1 X-21.136 Y-13.958
X-21.157 Y-13.917
X-21.19 Y-13.883
X-21.232 Y-13.862
X-21.278 Y-13.855
X-21.353
X-21.4 Z-2.993
X-21.441 Z-2.971
X-21.475 Z-2.938
X-21.496 Z-2.896
X-21.503 Z-2.85
G0 Z5
X-22.353
Z2
G1 Z0.15 F400
X-22.361 Z0.104
X-22.382 Z0.062
X-22.415 Z0.029
X-22.457 Z0.007
X-22.503 Z0
X-22.578
X-22.625 Y-13.862
X-22.666 Y-13.883
X-22.7 Y-13.917
X-22.721 Y-13.958
X-22.728 Y-14.005
G3 X-20.428 Y-14.005 Z-0.5 I1.15 J0 F600
X-22.728 Y-14.005 Z-1 I-1.15 J0
X-20.428 Y-14.005 Z-1.5 I1.15 J0
X-22.728 Y-14.005 I-1.15 J0
X-20.428 Y-14.005 I1.15 J0
G1 X-20.436 Y-13.958
X-20.457 Y-13.917
X-20.49 Y-13.883
X-20.532 Y-13.862
X-20.578 Y-13.855
X-20.653
X-20.7 Z-1.493
X-20.741 Z-1.471
X-20.775 Z-1.438
X-20.796 Z-1.396
X-20.803 Z-1.35
G0 Z5
X-26.135 Y-17.037
Z2
G1 Z0.15 F400
X-26.143 Z0.104
X-26.164 Z0.062
X-26.197 Z0.029
X-26.239 Z0.007
X-26.285 Z0
X-26.36
X-26.407 Y-17.044
X-26.448 Y-17.065
X-26.482 Y-17.099
X-26.503 Y-17.14
X-26.51 Y-17.187
G3 X-23.01 Y-17.187 Z-0.5 I1.75 J0 F600
X-26.51 Y-17.187 Z-1 I-1.75 J0
X-23.01 Y-17.187 Z-1.5 I1.75 J0
X-26.51 Y-17.187 Z-2 I-1.75 J0
X-23.01 Y-17.187 Z-2.5 I1.75 J0
X-26.51 Y-17.187 Z-3 I-1.75 J0
X-23.01 Y-17.187 I1.75 J0
X-26.51 Y-17.187 I-1.75 J0
G1 X-26.503 Y-17.233
X-26.482 Y-17.275
X-26.448 Y-17.308
X-26.407 Y-17.329
X-26.36 Y-17.337
X-26.285
X-26.239 Z-2.993
X-26.197 Z-2.971
X-26.164 Z-2.938
X-26.143 Z-2.896
X-26.135 Z-2.85
G0 Z5
X-28.717 Y-13.855
Z2
G1 Z0.15 F400
X-28.725 Z0.104
X-28.746 Z0.062
X-28.779 Z0.029
X-28.821 Z0.007
X-28.867 Z0
X-28.942
X-28.989 Y-13.862
X-29.03 Y-13.883
X-29.064 Y-13.917
X-29.085 Y-13.958
X-29.092 Y-14.005
G3 X-26.792 Y-14.005 Z-0.5 I1.15 J0 F600
X-29.092 Y-14.005 Z-1 I-1.15 J0
X-26.792 Y-14.005 Z-1.5 I1.15 J0
X-29.092 Y-14.005 Z-2 I-1.15 J0
X-26.792 Y-14.005 Z-2.5 I1.15 J0
X-29.092 Y-14.005 Z-3 I-1.15 J0
X-26.792 Y-14.005 I1.15 J0
X-29.092 Y-14.005 I-1.15 J0
G1 X-29.085 Y-14.051
X-29.064 Y-14.093
X-29.03 Y-14.126
X-28.989 Y-14.147
X-28.942 Y-14.155
X-28.867
X-28.821 Z-2.993
X-28.779 Z-2.971
X-28.746 Z-2.938
X-28.725 Z-2.896
X-28.717 Z-2.85
G0 Z5
X-28.017 Y-20.219
Z0.5
G1 Z-1.35 F400
X-28.025 Z-1.396
X-28.046 Z-1.438
X-28.079 Z-1.471
X-28.121 Z-1.493
X-28.167 Z-1.5
X-28.242
X-28.289 Y-20.226
X-28.33 Y-20.247
X-28.364 Y-20.281
X-28.385 Y-20.322
X-28.392 Y-20.369
G3 X-27.492 Y-20.369 Z-2 I0.45 J0 F600
X-28.392 Y-20.369 Z-2.5 I-0.45 J0
X-27.492 Y-20.369 Z-3 I0.45 J0
X-28.392 Y-20.369 I-0.45 J0
X-27.492 Y-20.369 I0.45 J0
G1 X-27.5 Y-20.322
X-27.521 Y-20.281
X-27.554 Y-20.247
X-27.596 Y-20.226
X-27.642 Y-20.219
X-27.717
X-27.764 Z-2.993
X-27.805 Z-2.971
X-27.839 Z-2.938
X-27.86 Z-2.896
X-27.867 Z-2.85
G0 Z5
X-28.717
Z2
G1 Z0.15 F400
X-28.725 Z0.104
X-28.746 Z0.062
X-28.779 Z0.029
X-28.821 Z0.007
X-28.867 Z0
X-28.942
X-28.989 Y-20.226
X-29.03 Y-20.247
X-29.064 Y-20.281
X-29.085 Y-20.322
X-29.092 Y-20.369
G3 X-26.792 Y-20.369 Z-0.5 I1.15 J0 F600
X-29.092 Y-20.369 Z-1 I-1.15 J0
X-26.792 Y-20.369 Z-1.5 I1.15 J0
X-29.092 Y-20.369 I-1.15 J0
X-26.792 Y-20.369 I1.15 J0
G1 X-26.8 Y-20.322
X-26.821 Y-20.281
X-26.854 Y-20.247
X-26.896 Y-20.226
X-26.942 Y-20.219
X-27.017
X-27.064 Z-1.493
X-27.105 Z-1.471
X-27.139 Z-1.438
X-27.16 Z-1.396
X-27.167 Z-1.35
G0 Z5
X-22.353
Z2
G1 Z0.15 F400
X-22.361 Z0.104
X-22.382 Z0.062
X-22.415 Z0.029
X-22.457 Z0.007
X-22.503 Z0
X-22.578
X-22.625 Y-20.226
X-22.666 Y-20.247
X-22.7 Y-20.281
X-22.721 Y-20.322
X-22.728 Y-20.369
G3 X-20.428 Y-20.369 Z-0.5 I1.15 J0 F600
X-22.728 Y-20.369 Z-1 I-1.15 J0
X-20.428 Y-20.369 Z-1.5 I1.15 J0
X-22.728 Y-20.369 Z-2 I-1.15 J0
X-20.428 Y-20.369 Z-2.5 I1.15 J0
X-22.728 Y-20.369 Z-3 I-1.15 J0
X-20.428 Y-20.369 I1.15 J0
X-22.728 Y-20.369 I-1.15 J0
G1 X-22.721 Y-20.415
X-22.7 Y-20.457
X-22.666 Y-20.49
X-22.625 Y-20.511
X-22.578 Y-20.519
X-22.503
X-22.457 Z-2.993
X-22.415 Z-2.971
X-22.382 Z-2.938
X-22.361 Z-2.896
X-22.353 Z-2.85
G0 Z5
X-25.135 Y-26.537
Z2
G1 Z0.15 F400
X-25.143 Z0.104
X-25.164 Z0.062
X-25.197 Z0.029
X-25.239 Z0.007
X-25.285 Z0
X-25.36
X-25.407 Y-26.544
X-25.448 Y-26.565
X-25.482 Y-26.599
X-25.503 Y-26.64
X-25.51 Y-26.687
G3 X-24.01 Y-26.687 Z-0.5 I0.75 J0 F600
X-25.51 Y-26.687 Z-1 I-0.75 J0
X-24.01 Y-26.687 Z-1.5 I0.75 J0
X-25.51 Y-26.687 Z-2 I-0.75 J0
X-24.01 Y-26.687 Z-2.5 I0.75 J0
X-25.51 Y-26.687 Z-3 I-0.75 J0
X-24.01 Y-26.687 I0.75 J0
X-25.51 Y-26.687 I-0.75 J0
G1 X-25.503 Y-26.733
X-25.482 Y-26.775
X-25.448 Y-26.808
X-25.407 Y-26.829
X-25.36 Y-26.837
X-25.285
X-25.239 Z-2.993
X-25.197 Z-2.971
X-25.164 Z-2.938
X-25.143 Z-2.896
X-25.135 Z-2.85
G0 Z5
X-25.335 Y-64.297
Z2
G1 Z0.15 F400
X-25.343 Z0.104
X-25.364 Z0.062
X-25.397 Z0.029
X-25.439 Z0.007
X-25.485 Z0
X-25.56
X-25.607 Y-64.304
X-25.648 Y-64.326
X-25.682 Y-64.359
X-25.703 Y-64.401
X-25.71 Y-64.447
G3 X-23.81 Y-64.447 Z-0.5 I0.95 J0 F600
X-25.71 Y-64.447 Z-1 I-0.95 J0
X-23.81 Y-64.447 Z-1.5 I0.95 J0
X-25.71 Y-64.447 Z-2 I-0.95 J0
X-23.81 Y-64.447 Z-2.5 I0.95 J0
X-25.71 Y-64.447 Z-3 I-0.95 J0
X-23.81 Y-64.447 I0.95 J0
X-25.71 Y-64.447 I-0.95 J0
G1 X-25.703 Y-64.493
X-25.682 Y-64.535
X-25.648 Y-64.568
X-25.607 Y-64.59
X-25.56 Y-64.597
X-25.485
X-25.439 Z-2.993
X-25.397 Z-2.971
X-25.364 Z-2.938
X-25.343 Z-2.896
X-25.335 Z-2.85
G0 Z5
X-26.559 Y-73
Z2
G1 Z0.15 F400
X-26.566 Z0.104
X-26.587 Z0.062
X-26.621 Z0.029
X-26.662 Z0.007
X-26.709 Z0
X-26.784
X-26.83 Y-73.007
X-26.872 Y-73.029
X-26.905 Y-73.062
X-26.926 Y-73.104
X-26.934 Y-73.15
G3 X-26.034 Y-73.15 Z-0.5 I0.45 J0 F600
X-26.934 Y-73.15 Z-1 I-0.45 J0
X-26.034 Y-73.15 Z-1.5 I0.45 J0
X-26.934 Y-73.15 Z-2 I-0.45 J0
X-26.034 Y-73.15 Z-2.5 I0.45 J0
X-26.934 Y-73.15 Z-3 I-0.45 J0
X-26.034 Y-73.15 I0.45 J0
X-26.934 Y-73.15 I-0.45 J0
G1 X-26.926 Y-73.196
X-26.905 Y-73.238
X-26.872 Y-73.271
X-26.83 Y-73.293
X-26.784 Y-73.3
X-26.709
X-26.662 Z-2.993
X-26.621 Z-2.971
X-26.587 Z-2.938
X-26.566 Z-2.896
X-26.559 Z-2.85
G0 Z15

(2D-Kontur7)
X-29.033 Y-58.67
Z15
Z5
G1 Z2.5 F300
X-29.029 Y-58.569 Z2.496 F1016
X-28.968 Y-57.166 Z2.447
X-28.908 Y-55.742 Z2.398
X-28.851 Y-54.297 Z2.347
X-28.797 Y-52.833 Z2.296
X-28.747 Y-51.35 Z2.244
X-28.7 Y-49.848 Z2.192
X-28.657 Y-48.327 Z2.139
X-28.62 Y-46.789 Z2.085
X-28.587 Y-45.232 Z2.03
X-28.56 Y-43.658 Z1.975
X-28.538 Y-42.067 Z1.92
X-28.523 Y-40.458 Z1.864
X-28.513 Y-38.831 Z1.807
X-28.51 Y-37.186 Z1.749
Y-30.702 Z1.523
X-28.519 Y-30.482 Z1.515
X-28.545 Y-30.252 Z1.507
X-28.59 Y-29.998 Z1.498
X-28.655 Y-29.721 Z1.488
X-28.738 Y-29.422 Z1.477
X-28.841 Y-29.101 Z1.466
X-28.961 Y-28.761 Z1.453
X-29.097 Y-28.403 Z1.44
X-29.249 Y-28.027 Z1.426
X-29.414 Y-27.636 Z1.411
X-29.591 Y-27.229 Z1.395
X-29.777 Y-26.809 Z1.379
X-29.971 Y-26.376 Z1.363
X-30.17 Y-25.932 Z1.346
X-30.172 Y-25.928
X-30.576 Y-25.013 Z1.311
X-30.581 Y-25.001 Z1.31
X-30.98 Y-24.056 Z1.274
X-30.988 Y-24.036
X-31.365 Y-23.066 Z1.237
X-31.373 Y-23.046 Z1.236
X-31.548 Y-22.553 Z1.218
X-31.554 Y-22.537
X-31.718 Y-22.04 Z1.199
X-31.724 Y-22.022
X-31.875 Y-21.521 Z1.18
X-31.881 Y-21.5
X-32.018 Y-20.996 Z1.161
X-32.024 Y-20.974
X-32.145 Y-20.466 Z1.142
X-32.151 Y-20.442 Z1.141
X-32.255 Y-19.932 Z1.123
X-32.26 Y-19.906 Z1.122
X-32.346 Y-19.392 Z1.104
X-32.35 Y-19.364 Z1.103
X-32.418 Y-18.847 Z1.085
X-32.421 Y-18.819 Z1.084
X-32.469 Y-18.297 Z1.066
X-32.471 Y-18.268 Z1.065
X-32.5 Y-17.741 Z1.046
X-32.501 Y-17.714 Z1.045
X-32.51 Y-17.181 Z1.027
Y-17.153 Z1.026
X-32.5 Y-16.615 Z1.007
X-32.499 Y-16.588 Z1.006
X-32.469 Y-16.043 Z0.987
X-32.467 Y-16.018 Z0.986
X-32.418 Y-15.466 Z0.967
X-32.415 Y-15.442 Z0.966
X-32.348 Y-14.884 Z0.946
X-32.345 Y-14.861 Z0.945
X-32.259 Y-14.296 Z0.925
X-32.256 Y-14.275
X-32.153 Y-13.704 Z0.904
X-32.149 Y-13.684
X-32.029 Y-13.108 Z0.883
X-32.025 Y-13.09
X-31.889 Y-12.509 Z0.862
X-31.885 Y-12.491 Z0.861
X-31.734 Y-11.908 Z0.84
X-31.73 Y-11.891 Z0.839
X-31.564 Y-11.306 Z0.818
X-31.559 Y-11.29
X-31.38 Y-10.705 Z0.796
X-31.375 Y-10.69
X-31.182 Y-10.107 Z0.774
X-31.177 Y-10.092
X-30.972 Y-9.514 Z0.752
X-30.967 Y-9.499
X-30.751 Y-8.927 Z0.73
X-30.745 Y-8.912
X-30.518 Y-8.349 Z0.709
X-30.511 Y-8.334 Z0.708
X-30.274 Y-7.782 Z0.687
X-30.267 Y-7.766 Z0.686
X-30.021 Y-7.228 Z0.666
X-30.013 Y-7.212 Z0.665
X-29.759 Y-6.69 Z0.645
X-29.75 Y-6.672 Z0.644
X-29.489 Y-6.17 Z0.624
X-29.479 Y-6.151
X-29.21 Y-5.67 Z0.604
X-29.198 Y-5.649
X-28.924 Y-5.191 Z0.585
X-28.91 Y-5.169 Z0.584
X-28.631 Y-4.737 Z0.566
X-28.615 Y-4.713 Z0.565
X-28.331 Y-4.309 Z0.548
X-28.311 Y-4.283 Z0.547
X-28.024 Y-3.91 Z0.53
X-28 Y-3.881 Z0.529
X-27.71 Y-3.54 Z0.513
X-27.68 Y-3.508 Z0.512
X-27.387 Y-3.203 Z0.497
X-27.351 Y-3.167 Z0.495
X-27.056 Y-2.898 Z0.481
X-27.012 Y-2.861 Z0.479
X-26.715 Y-2.63 Z0.466
X-26.674 Y-2.601 Z0.464
X-26.526 Y-2.5 Z0.458
X-26.495 Y-2.48 Z0.457
X-26.346 Y-2.39 Z0.451
X-26.312 Y-2.37 Z0.449
X-26.162 Y-2.29 Z0.443
X-26.125 Y-2.271 Z0.442
X-25.976 Y-2.202 Z0.436
X-25.935 Y-2.184 Z0.435
X-25.785 Y-2.125 Z0.429
X-25.741 Y-2.109 Z0.427
X-25.591 Y-2.06 Z0.422
X-25.543 Y-2.046 Z0.42
X-25.394 Y-2.009 Z0.415
X-25.343 Y-1.998 Z0.413
X-25.193 Y-1.97 Z0.408
X-25.141 Y-1.963 Z0.406
X-24.991 Y-1.947 Z0.401
X-24.937 Y-1.943 Z0.399
X-24.787 Y-1.937 Z0.393
X-24.733 Z0.392
X-24.583 Y-1.943 Z0.386
X-24.529 Y-1.947 Z0.384
X-24.379 Y-1.963 Z0.379
X-24.327 Y-1.97 Z0.377
X-24.177 Y-1.998 Z0.372
X-24.127 Y-2.009 Z0.37
X-23.977 Y-2.046 Z0.365
X-23.929 Y-2.06 Z0.363
X-23.78 Y-2.109 Z0.358
X-23.735 Y-2.125 Z0.356
X-23.586 Y-2.184 Z0.35
X-23.545 Y-2.202 Z0.349
X-23.396 Y-2.271 Z0.343
X-23.358 Y-2.29 Z0.342
X-23.209 Y-2.37 Z0.336
X-23.174 Y-2.39 Z0.334
X-23.025 Y-2.48 Z0.328
X-22.995 Y-2.5 Z0.327
X-22.846 Y-2.601 Z0.321
X-22.805 Y-2.63 Z0.319
X-22.509 Y-2.861 Z0.306
X-22.464 Y-2.898 Z0.304
X-22.169 Y-3.167 Z0.29
X-22.133 Y-3.203 Z0.288
X-21.84 Y-3.508 Z0.273
X-21.811 Y-3.54 Z0.272
X-21.52 Y-3.881 Z0.256
X-21.497 Y-3.91 Z0.255
X-21.209 Y-4.283 Z0.238
X-21.189 Y-4.309 Z0.237
X-20.906 Y-4.713 Z0.22
X-20.889 Y-4.737 Z0.219
X-20.61 Y-5.169 Z0.201
X-20.596 Y-5.191 Z0.2
X-20.322 Y-5.649 Z0.181
X-20.31 Y-5.669
X-20.042 Y-6.151 Z0.161
X-20.032 Y-6.17
X-19.77 Y-6.673 Z0.141
X-19.761 Y-6.69 Z0.14
X-19.507 Y-7.212 Z0.12
X-19.499 Y-7.228 Z0.119
X-19.253 Y-7.766 Z0.099
X-19.246 Y-7.782 Z0.098
X-19.009 Y-8.334 Z0.077
X-19.003 Y-8.349 Z0.076
X-18.776 Y-8.912 Z0.055
X-18.77 Y-8.927
X-18.554 Y-9.499 Z0.033
X-18.548 Y-9.514
X-18.343 Y-10.092 Z0.011
X-18.338 Y-10.107
X-18.146 Y-10.69 Z-0.011
X-18.141 Y-10.705
X-17.961 Y-11.29 Z-0.033
X-17.957 Y-11.306
X-17.791 Y-11.891 Z-0.054
X-17.786 Y-11.908 Z-0.055
X-17.635 Y-12.491 Z-0.076
X-17.631 Y-12.509 Z-0.077
X-17.495 Y-13.089 Z-0.098
X-17.491 Y-13.108
X-17.371 Y-13.684 Z-0.119
X-17.368 Y-13.704
X-17.265 Y-14.275 Z-0.14
X-17.261 Y-14.296
X-17.175 Y-14.861 Z-0.16
X-17.172 Y-14.883 Z-0.161
X-17.105 Y-15.442 Z-0.181
X-17.102 Y-15.466 Z-0.182
X-17.053 Y-16.018 Z-0.201
X-17.052 Y-16.043 Z-0.202
X-17.022 Y-16.588 Z-0.221
X-17.021 Y-16.615 Z-0.222
X-17.01 Y-17.153 Z-0.241
Y-17.181 Z-0.242
X-17.019 Y-17.714 Z-0.26
X-17.02 Y-17.742 Z-0.261
X-17.049 Y-18.269 Z-0.28
X-17.051 Y-18.297 Z-0.281
X-17.1 Y-18.819 Z-0.299
X-17.103 Y-18.847 Z-0.3
X-17.17 Y-19.365 F600
X-17.174 Y-19.392
X-17.261 Y-19.906
X-17.265 Y-19.932
X-17.37 Y-20.442
X-17.375 Y-20.466
X-17.496 Y-20.974
X-17.502 Y-20.996
X-17.639 Y-21.5
X-17.645 Y-21.521
X-17.797 Y-22.022
X-17.802 Y-22.04
X-17.967 Y-22.537
X-17.972 Y-22.553
X-18.148 Y-23.046
X-18.155 Y-23.066
X-18.532 Y-24.036
X-18.54 Y-24.056
X-18.939 Y-25.001
X-18.944 Y-25.013
X-19.349 Y-25.928
X-19.35 Y-25.932
X-19.55 Y-26.376
X-19.743 Y-26.809
X-19.93 Y-27.229
X-20.106 Y-27.636
X-20.271 Y-28.027
X-20.423 Y-28.403
X-20.56 Y-28.761
X-20.68 Y-29.101
X-20.782 Y-29.422
X-20.866 Y-29.721
X-20.93 Y-29.998
X-20.975 Y-30.252
X-21.001 Y-30.482
X-21.01 Y-30.702
Y-37.186
X-21.006 Y-39.118
X-20.993 Y-41.021
X-20.972 Y-42.898
X-20.943 Y-44.748
X-20.907 Y-46.571
X-20.863 Y-48.367
X-20.813 Y-50.135
X-20.757 Y-51.876
X-20.696 Y-53.589
X-20.631 Y-55.274
X-20.562 Y-56.929
X-20.491 Y-58.554
X-20.418 Y-60.149
X-20.344 Y-61.712
X-20.271 Y-63.241
X-20.199 Y-64.736
X-20.13 Y-66.194
X-20.064 Y-67.615
Y-67.616
X-20.033 Y-68.311
X-20.003 Y-68.996
Y-68.998
X-19.975 Y-69.672
Y-69.673
X-19.949 Y-70.336
Y-70.338
X-19.924 Y-70.99
Y-70.991
X-19.901 Y-71.632
Y-71.634
X-19.881 Y-72.263
Y-72.265
X-19.862 Y-72.882
Y-72.885
X-19.846 Y-73.489
Y-73.492
X-19.833 Y-74.084
Y-74.087
X-19.822 Y-74.666
Y-74.67
X-19.814 Y-75.235
Y-75.239
X-19.809 Y-75.791
Y-75.796
X-19.808 Y-76.334
Y-76.338
X-19.809 Y-76.862
Y-76.867
X-19.815 Y-77.377
Y-77.382
X-19.823 Y-77.877
X-19.824 Y-77.883
X-19.836 Y-78.362
Y-78.369
X-19.853 Y-78.833
Y-78.84
X-19.874 Y-79.288
Y-79.296
X-19.899 Y-79.727
Y-79.737
X-19.928 Y-80.151
X-19.929 Y-80.162
X-19.962 Y-80.56
X-19.963 Y-80.571
X-20.001 Y-80.952
X-20.003 Y-80.965
X-20.045 Y-81.327
X-20.047 Y-81.342
X-20.094 Y-81.687
X-20.097 Y-81.703
X-20.149 Y-82.03
X-20.152 Y-82.048
X-20.21 Y-82.357
X-20.234 Y-82.451
X-20.269 Y-82.562
X-20.301 Y-82.643
X-20.342 Y-82.72
X-20.403 Y-82.819
X-20.452 Y-82.891
X-23.861 Y-87.254
G2 X-25.616 Y-87.47 I-0.985 J0.77
G1 X-29.159 Y-84.702
G2 X-29.64 Y-83.717 I0.77 J0.985
G1 Y-78.975
X-29.655 Y-78.591
Y-78.585
X-29.667 Y-78.174
X-29.668 Y-78.168
X-29.677 Y-77.746
X-29.678 Y-77.741
X-29.685 Y-77.306
Y-77.301
X-29.689 Y-76.856
Y-76.852
X-29.691 Y-76.395
Y-76.391
X-29.69 Y-75.924
Y-75.92
X-29.687 Y-75.442
Y-75.438
X-29.682 Y-74.95
Y-74.947
X-29.675 Y-74.448
Y-74.444
X-29.654 Y-73.417
Y-73.413
X-29.625 Y-72.348
Y-72.344
X-29.59 Y-71.243
Y-71.24
X-29.548 Y-70.104
Y-70.102
X-29.502 Y-68.934
X-29.501 Y-68.932
X-29.45 Y-67.732
Y-67.73
X-29.396 Y-66.501
Y-66.5
X-29.338 Y-65.242
X-29.278 Y-63.956
X-29.216 Y-62.645
X-29.154 Y-61.31
X-29.091 Y-59.951
X-29.029 Y-58.569
X-28.968 Y-57.166
X-28.908 Y-55.742
X-28.851 Y-54.297
X-28.797 Y-52.833
X-28.747 Y-51.35
X-28.7 Y-49.848
X-28.657 Y-48.327
X-28.62 Y-46.789
X-28.587 Y-45.232
X-28.56 Y-43.658
X-28.538 Y-42.067
X-28.523 Y-40.458
X-28.513 Y-38.831
X-28.51 Y-37.186
Y-30.702
X-28.519 Y-30.482
X-28.545 Y-30.252
X-28.59 Y-29.998
X-28.655 Y-29.721
X-28.738 Y-29.422
X-28.841 Y-29.101
X-28.961 Y-28.761
X-29.097 Y-28.403
X-29.249 Y-28.027
X-29.414 Y-27.636
X-29.591 Y-27.229
X-29.777 Y-26.809
X-29.971 Y-26.376
X-30.17 Y-25.932
X-30.172 Y-25.928
X-30.576 Y-25.013
X-30.581 Y-25.001
X-30.98 Y-24.056
X-30.988 Y-24.036
X-31.365 Y-23.066
X-31.373 Y-23.046
X-31.548 Y-22.553
X-31.554 Y-22.537
X-31.718 Y-22.04
X-31.724 Y-22.022
X-31.875 Y-21.521
X-31.881 Y-21.5
X-32.018 Y-20.996
X-32.024 Y-20.974
X-32.145 Y-20.466
X-32.151 Y-20.442
X-32.255 Y-19.932
X-32.26 Y-19.906
X-32.346 Y-19.392
X-32.35 Y-19.364
X-32.418 Y-18.847
X-32.421 Y-18.819
X-32.469 Y-18.297
X-32.471 Y-18.268
X-32.5 Y-17.741
X-32.501 Y-17.714
X-32.51 Y-17.181
Y-17.153
X-32.5 Y-16.615
X-32.499 Y-16.588
X-32.469 Y-16.043
X-32.467 Y-16.018
X-32.418 Y-15.466
X-32.415 Y-15.442
X-32.348 Y-14.884
X-32.345 Y-14.861
X-32.259 Y-14.296
X-32.256 Y-14.275
X-32.153 Y-13.704
X-32.149 Y-13.684
X-32.029 Y-13.108
X-32.025 Y-13.09
X-31.889 Y-12.509
X-31.885 Y-12.491
X-31.734 Y-11.908
X-31.73 Y-11.891
X-31.564 Y-11.306
X-31.559 Y-11.29
X-31.38 Y-10.705
X-31.375 Y-10.69
X-31.182 Y-10.107
X-31.177 Y-10.092
X-30.972 Y-9.514
X-30.967 Y-9.499
X-30.751 Y-8.927
X-30.745 Y-8.912
X-30.518 Y-8.349
X-30.511 Y-8.334
X-30.274 Y-7.782
X-30.267 Y-7.766
X-30.021 Y-7.228
X-30.013 Y-7.212
X-29.759 Y-6.69
X-29.75 Y-6.672
X-29.489 Y-6.17
X-29.479 Y-6.151
X-29.21 Y-5.67
X-29.198 Y-5.649
X-28.924 Y-5.191
X-28.91 Y-5.169
X-28.631 Y-4.737
X-28.615 Y-4.713
X-28.331 Y-4.309
X-28.311 Y-4.283
X-28.024 Y-3.91
X-28 Y-3.881
X-27.71 Y-3.54
X-27.68 Y-3.508
X-27.387 Y-3.203
X-27.351 Y-3.167
X-27.056 Y-2.898
X-27.012 Y-2.861
X-26.715 Y-2.63
X-26.674 Y-2.601
X-26.526 Y-2.5
X-26.495 Y-2.48
X-26.346 Y-2.39
X-26.312 Y-2.37
X-26.162 Y-2.29
X-26.125 Y-2.271
X-25.976 Y-2.202
X-25.935 Y-2.184
X-25.785 Y-2.125
X-25.741 Y-2.109
X-25.591 Y-2.06
X-25.543 Y-2.046
X-25.394 Y-2.009
X-25.343 Y-1.998
X-25.193 Y-1.97
X-25.141 Y-1.963
X-24.991 Y-1.947
X-24.937 Y-1.943
X-24.787 Y-1.937
X-24.733
X-24.583 Y-1.943
X-24.529 Y-1.947
X-24.379 Y-1.963
X-24.327 Y-1.97
X-24.177 Y-1.998
X-24.127 Y-2.009
X-23.977 Y-2.046
X-23.929 Y-2.06
X-23.78 Y-2.109
X-23.735 Y-2.125
X-23.586 Y-2.184
X-23.545 Y-2.202
X-23.396 Y-2.271
X-23.358 Y-2.29
X-23.209 Y-2.37
X-23.174 Y-2.39
X-23.025 Y-2.48
X-22.995 Y-2.5
X-22.846 Y-2.601
X-22.805 Y-2.63
X-22.509 Y-2.861
X-22.464 Y-2.898
X-22.169 Y-3.167
X-22.133 Y-3.203
X-21.84 Y-3.508
X-21.811 Y-3.54
X-21.52 Y-3.881
X-21.497 Y-3.91
X-21.209 Y-4.283
X-21.189 Y-4.309
X-20.906 Y-4.713
X-20.889 Y-4.737
X-20.61 Y-5.169
X-20.596 Y-5.191
X-20.322 Y-5.649
X-20.31 Y-5.669
X-20.042 Y-6.151
X-20.032 Y-6.17
X-19.77 Y-6.673
X-19.761 Y-6.69
X-19.507 Y-7.212
X-19.499 Y-7.228
X-19.253 Y-7.766
X-19.246 Y-7.782
X-19.009 Y-8.334
X-19.003 Y-8.349
X-18.776 Y-8.912
X-18.77 Y-8.927
X-18.554 Y-9.499
X-18.548 Y-9.514
X-18.343 Y-10.092
X-18.338 Y-10.107
X-18.146 Y-10.69
X-18.141 Y-10.705
X-17.961 Y-11.29
X-17.957 Y-11.306
X-17.791 Y-11.891
X-17.786 Y-11.908
X-17.635 Y-12.491
X-17.631 Y-12.509
X-17.495 Y-13.089
X-17.491 Y-13.108
X-17.371 Y-13.684
X-17.368 Y-13.704
X-17.265 Y-14.275
X-17.261 Y-14.296
X-17.175 Y-14.861
X-17.172 Y-14.883
X-17.105 Y-15.442
X-17.102 Y-15.466
X-17.053 Y-16.018
X-17.052 Y-16.043
X-17.022 Y-16.588
X-17.021 Y-16.615
X-17.01 Y-17.153
Y-17.181
X-17.019 Y-17.714
X-17.02 Y-17.742
X-17.049 Y-18.269
X-17.051 Y-18.297
X-17.1 Y-18.819
X-17.103 Y-18.847
X-17.17 Y-19.365 Z-0.318 F1016
X-17.174 Y-19.392 Z-0.319
X-17.261 Y-19.906 Z-0.337
X-17.265 Y-19.932 Z-0.338
X-17.37 Y-20.442 Z-0.357
X-17.375 Y-20.466
X-17.496 Y-20.974 Z-0.376
X-17.502 Y-20.996
X-17.639 Y-21.5 Z-0.395
X-17.645 Y-21.521
X-17.797 Y-22.022 Z-0.414
X-17.802 Y-22.04
X-17.967 Y-22.537 Z-0.433
X-17.972 Y-22.553
X-18.148 Y-23.046 Z-0.451
X-18.155 Y-23.066 Z-0.452
X-18.532 Y-24.036 Z-0.489
X-18.54 Y-24.056
X-18.939 Y-25.001 Z-0.525
X-18.944 Y-25.013 Z-0.526
X-19.349 Y-25.928 Z-0.561
X-19.35 Y-25.932
X-19.55 Y-26.376 Z-0.578
X-19.743 Y-26.809 Z-0.594
X-19.81 Y-26.96 Z-0.6
X-19.93 Y-27.229 F600
X-20.106 Y-27.636
X-20.271 Y-28.027
X-20.423 Y-28.403
X-20.56 Y-28.761
X-20.68 Y-29.101
X-20.782 Y-29.422
X-20.866 Y-29.721
X-20.93 Y-29.998
X-20.975 Y-30.252
X-21.001 Y-30.482
X-21.01 Y-30.702
Y-37.186
X-21.006 Y-39.118
X-20.993 Y-41.021
X-20.972 Y-42.898
X-20.943 Y-44.748
X-20.907 Y-46.571
X-20.863 Y-48.367
X-20.813 Y-50.135
X-20.757 Y-51.876
X-20.696 Y-53.589
X-20.631 Y-55.274
X-20.562 Y-56.929
X-20.491 Y-58.554
X-20.418 Y-60.149
X-20.344 Y-61.712
X-20.271 Y-63.241
X-20.199 Y-64.736
X-20.13 Y-66.194
X-20.064 Y-67.615
Y-67.616
X-20.033 Y-68.311
X-20.003 Y-68.996
Y-68.998
X-19.975 Y-69.672
Y-69.673
X-19.949 Y-70.336
Y-70.338
X-19.924 Y-70.99
Y-70.991
X-19.901 Y-71.632
Y-71.634
X-19.881 Y-72.263
Y-72.265
X-19.862 Y-72.882
Y-72.885
X-19.846 Y-73.489
Y-73.492
X-19.833 Y-74.084
Y-74.087
X-19.822 Y-74.666
Y-74.67
X-19.814 Y-75.235
Y-75.239
X-19.809 Y-75.791
Y-75.796
X-19.808 Y-76.334
Y-76.338
X-19.809 Y-76.862
Y-76.867
X-19.815 Y-77.377
Y-77.382
X-19.823 Y-77.877
X-19.824 Y-77.883
X-19.836 Y-78.362
Y-78.369
X-19.853 Y-78.833
Y-78.84
X-19.874 Y-79.288
Y-79.296
X-19.899 Y-79.727
Y-79.737
X-19.928 Y-80.151
X-19.929 Y-80.162
X-19.962 Y-80.56
X-19.963 Y-80.571
X-20.001 Y-80.952
X-20.003 Y-80.965
X-20.045 Y-81.327
X-20.047 Y-81.342
X-20.094 Y-81.687
X-20.097 Y-81.703
X-20.149 Y-82.03
X-20.152 Y-82.048
X-20.21 Y-82.357
X-20.234 Y-82.451
X-20.269 Y-82.562
X-20.301 Y-82.643
X-20.342 Y-82.72
X-20.403 Y-82.819
X-20.452 Y-82.891
X-23.861 Y-87.254
G2 X-25.616 Y-87.47 I-0.985 J0.77
G1 X-29.159 Y-84.702
G2 X-29.64 Y-83.717 I0.77 J0.985
G1 Y-78.975
X-29.655 Y-78.591
Y-78.585
X-29.667 Y-78.174
X-29.668 Y-78.168
X-29.677 Y-77.746
X-29.678 Y-77.741
X-29.685 Y-77.306
Y-77.301
X-29.689 Y-76.856
Y-76.852
X-29.691 Y-76.395
Y-76.391
X-29.69 Y-75.924
Y-75.92
X-29.687 Y-75.442
Y-75.438
X-29.682 Y-74.95
Y-74.947
X-29.675 Y-74.448
Y-74.444
X-29.654 Y-73.417
Y-73.413
X-29.625 Y-72.348
Y-72.344
X-29.59 Y-71.243
Y-71.24
X-29.548 Y-70.104
Y-70.102
X-29.502 Y-68.934
X-29.501 Y-68.932
X-29.45 Y-67.732
Y-67.73
X-29.396 Y-66.501
Y-66.5
X-29.338 Y-65.242
X-29.278 Y-63.956
X-29.216 Y-62.645
X-29.154 Y-61.31
X-29.091 Y-59.951
X-29.029 Y-58.569
X-28.968 Y-57.166
X-28.908 Y-55.742
X-28.851 Y-54.297
X-28.797 Y-52.833
X-28.747 Y-51.35
X-28.7 Y-49.848
X-28.657 Y-48.327
X-28.62 Y-46.789
X-28.587 Y-45.232
X-28.56 Y-43.658
X-28.538 Y-42.067
X-28.523 Y-40.458
X-28.513 Y-38.831
X-28.51 Y-37.186
Y-30.702
X-28.519 Y-30.482
X-28.545 Y-30.252
X-28.59 Y-29.998
X-28.655 Y-29.721
X-28.738 Y-29.422
X-28.841 Y-29.101
X-28.961 Y-28.761
X-29.097 Y-28.403
X-29.249 Y-28.027
X-29.414 Y-27.636
X-29.591 Y-27.229
X-29.777 Y-26.809
X-29.971 Y-26.376
X-30.17 Y-25.932
X-30.172 Y-25.928
X-30.576 Y-25.013
X-30.581 Y-25.001
X-30.98 Y-24.056
X-30.988 Y-24.036
X-31.365 Y-23.066
X-31.373 Y-23.046
X-31.548 Y-22.553
X-31.554 Y-22.537
X-31.718 Y-22.04
X-31.724 Y-22.022
X-31.875 Y-21.521
X-31.881 Y-21.5
X-32.018 Y-20.996
X-32.024 Y-20.974
X-32.145 Y-20.466
X-32.151 Y-20.442
X-32.255 Y-19.932
X-32.26 Y-19.906
X-32.346 Y-19.392
X-32.35 Y-19.364
X-32.418 Y-18.847
X-32.421 Y-18.819
X-32.469 Y-18.297
X-32.471 Y-18.268
X-32.5 Y-17.741
X-32.501 Y-17.714
X-32.51 Y-17.181
Y-17.153
X-32.5 Y-16.615
X-32.499 Y-16.588
X-32.469 Y-16.043
X-32.467 Y-16.018
X-32.418 Y-15.466
X-32.415 Y-15.442
X-32.348 Y-14.884
X-32.345 Y-14.861
X-32.259 Y-14.296
X-32.256 Y-14.275
X-32.153 Y-13.704
X-32.149 Y-13.684
X-32.029 Y-13.108
X-32.025 Y-13.09
X-31.889 Y-12.509
X-31.885 Y-12.491
X-31.734 Y-11.908
X-31.73 Y-11.891
X-31.564 Y-11.306
X-31.559 Y-11.29
X-31.38 Y-10.705
X-31.375 Y-10.69
X-31.182 Y-10.107
X-31.177 Y-10.092
X-30.972 Y-9.514
X-30.967 Y-9.499
X-30.751 Y-8.927
X-30.745 Y-8.912
X-30.518 Y-8.349
X-30.511 Y-8.334
X-30.274 Y-7.782
X-30.267 Y-7.766
X-30.021 Y-7.228
X-30.013 Y-7.212
X-29.759 Y-6.69
X-29.75 Y-6.672
X-29.489 Y-6.17
X-29.479 Y-6.151
X-29.21 Y-5.67
X-29.198 Y-5.649
X-28.924 Y-5.191
X-28.91 Y-5.169
X-28.631 Y-4.737
X-28.615 Y-4.713
X-28.331 Y-4.309
X-28.311 Y-4.283
X-28.024 Y-3.91
X-28 Y-3.881
X-27.71 Y-3.54
X-27.68 Y-3.508
