(1001)
(Bearbeiten)
(  Hersteller: ChinaCnc)
(  model: 3040T)
(  description: Generic 3-axis)
(T14  D=1.5 CR=0 - ZMIN=-3.5 - Schaftfraser)
G90 G94
G17
G21
G28 G91 Z0
G90

(Bohrfrasen7)
T14
S6000 M3
G54
G0 X-6.593 Y-26.168
Z15
Z2
G1 Z0.15 F400
X-6.6 Z0.104
X-6.622 Z0.062
X-6.655 Z0.029
X-6.697 Z0.007
X-6.743 Z0
X-6.818
X-6.864 Y-26.175
X-6.906 Y-26.197
X-6.939 Y-26.23
X-6.961 Y-26.272
X-6.968 Y-26.318
G3 X-4.668 Y-26.318 Z-0.5 I1.15 J0 F600
X-6.968 Y-26.318 Z-1 I-1.15 J0
X-4.668 Y-26.318 Z-1.5 I1.15 J0
X-6.968 Y-26.318 I-1.15 J0
X-4.668 Y-26.318 I1.15 J0
G1 X-4.675 Y-26.272
X-4.697 Y-26.23
X-4.73 Y-26.197
X-4.772 Y-26.175
X-4.818 Y-26.168
X-4.893
X-4.939 Z-1.493
X-4.981 Z-1.471
X-5.014 Z-1.438
X-5.036 Z-1.396
X-5.043 Z-1.35
G0 Z5
X-12.957 Y-32.532
Z2
G1 Z0.15 F400
X-12.964 Z0.104
X-12.986 Z0.062
X-13.019 Z0.029
X-13.061 Z0.007
X-13.107 Z0
X-13.182
X-13.228 Y-32.539
X-13.27 Y-32.561
X-13.303 Y-32.594
X-13.325 Y-32.636
X-13.332 Y-32.682
G3 X-11.032 Y-32.682 Z-0.5 I1.15 J0 F600
X-13.332 Y-32.682 Z-1 I-1.15 J0
X-11.032 Y-32.682 Z-1.5 I1.15 J0
X-13.332 Y-32.682 I-1.15 J0
X-11.032 Y-32.682 I1.15 J0
G1 X-11.039 Y-32.636
X-11.061 Y-32.594
X-11.094 Y-32.561
X-11.136 Y-32.539
X-11.182 Y-32.532
X-11.257
X-11.303 Z-1.493
X-11.345 Z-1.471
X-11.378 Z-1.438
X-11.4 Z-1.396
X-11.407 Z-1.35
G0 Z15

(Bohrfrasen5)
X-9.575 Y-19.85
Z15
Z2
G1 Z0.15 F400
X-9.582 Z0.104
X-9.604 Z0.062
X-9.637 Z0.029
X-9.679 Z0.007
X-9.725 Z0
X-9.8
X-9.846 Y-19.857
X-9.888 Y-19.879
X-9.921 Y-19.912
X-9.943 Y-19.954
X-9.95 Y-20
G3 X-8.05 Y-20 Z-0.5 I0.95 J0 F600
X-9.95 Y-20 Z-1 I-0.95 J0
X-8.05 Y-20 Z-1.5 I0.95 J0
X-9.95 Y-20 Z-2 I-0.95 J0
X-8.05 Y-20 Z-2.5 I0.95 J0
X-9.95 Y-20 Z-3 I-0.95 J0
X-8.05 Y-20 Z-3.5 I0.95 J0
X-9.95 Y-20 I-0.95 J0
X-8.05 Y-20 I0.95 J0
G1 X-8.057 Y-19.954
X-8.079 Y-19.912
X-8.112 Y-19.879
X-8.154 Y-19.857
X-8.2 Y-19.85
X-8.275
X-8.321 Z-3.493
X-8.363 Z-3.471
X-8.396 Z-3.438
X-8.418 Z-3.396
X-8.425 Z-3.35
G0 Z5
X-5.893 Y-26.168
Z0.5
G1 Z-1.35 F400
X-5.9 Z-1.396
X-5.922 Z-1.438
X-5.955 Z-1.471
X-5.997 Z-1.493
X-6.043 Z-1.5
X-6.118
X-6.164 Y-26.175
X-6.206 Y-26.197
X-6.239 Y-26.23
X-6.261 Y-26.272
X-6.268 Y-26.318
G3 X-5.368 Y-26.318 Z-2 I0.45 J0 F600
X-6.268 Y-26.318 Z-2.5 I-0.45 J0
X-5.368 Y-26.318 Z-3 I0.45 J0
X-6.268 Y-26.318 Z-3.5 I-0.45 J0
X-5.368 Y-26.318 I0.45 J0
X-6.268 Y-26.318 I-0.45 J0
G1 X-6.261 Y-26.364
X-6.239 Y-26.406
X-6.206 Y-26.439
X-6.164 Y-26.461
X-6.118 Y-26.468
X-6.043
X-5.997 Z-3.493
X-5.955 Z-3.471
X-5.922 Z-3.438
X-5.9 Z-3.396
X-5.893 Z-3.35
G0 Z5
X-12.957 Y-26.168
Z2
G1 Z0.15 F400
X-12.964 Z0.104
X-12.986 Z0.062
X-13.019 Z0.029
X-13.061 Z0.007
X-13.107 Z0
X-13.182
X-13.228 Y-26.175
X-13.27 Y-26.197
X-13.303 Y-26.23
X-13.325 Y-26.272
X-13.332 Y-26.318
G3 X-11.032 Y-26.318 Z-0.5 I1.15 J0 F600
X-13.332 Y-26.318 Z-1 I-1.15 J0
X-11.032 Y-26.318 Z-1.5 I1.15 J0
X-13.332 Y-26.318 Z-2 I-1.15 J0
X-11.032 Y-26.318 Z-2.5 I1.15 J0
X-13.332 Y-26.318 Z-3 I-1.15 J0
X-11.032 Y-26.318 Z-3.5 I1.15 J0
X-13.332 Y-26.318 I-1.15 J0
X-11.032 Y-26.318 I1.15 J0
G1 X-11.039 Y-26.272
X-11.061 Y-26.23
X-11.094 Y-26.197
X-11.136 Y-26.175
X-11.182 Y-26.168
X-11.257
X-11.303 Z-3.493
X-11.345 Z-3.471
X-11.378 Z-3.438
X-11.4 Z-3.396
X-11.407 Z-3.35
G0 Z5
X-10.125 Y-29.35
Z2
G1 Z0.15 F400
X-10.132 Z0.104
X-10.154 Z0.062
X-10.187 Z0.029
X-10.229 Z0.007
X-10.275 Z0
X-10.35
X-10.396 Y-29.357
X-10.438 Y-29.379
X-10.471 Y-29.412
X-10.493 Y-29.454
X-10.5 Y-29.5
G3 X-7.5 Y-29.5 Z-0.5 I1.5 J0 F600
X-10.5 Y-29.5 Z-1 I-1.5 J0
X-7.5 Y-29.5 Z-1.5 I1.5 J0
X-10.5 Y-29.5 Z-2 I-1.5 J0
X-7.5 Y-29.5 Z-2.5 I1.5 J0
X-10.5 Y-29.5 Z-3 I-1.5 J0
X-7.5 Y-29.5 Z-3.5 I1.5 J0
X-10.5 Y-29.5 I-1.5 J0
X-7.5 Y-29.5 I1.5 J0
G1 X-7.507 Y-29.454
X-7.529 Y-29.412
X-7.562 Y-29.379
X-7.604 Y-29.357
X-7.65 Y-29.35
X-7.725
X-7.771 Z-3.493
X-7.813 Z-3.471
X-7.846 Z-3.438
X-7.868 Z-3.396
X-7.875 Z-3.35
G0 Z5
X-6.593 Y-32.532
Z2
G1 Z0.15 F400
X-6.6 Z0.104
X-6.622 Z0.062
X-6.655 Z0.029
X-6.697 Z0.007
X-6.743 Z0
X-6.818
X-6.864 Y-32.539
X-6.906 Y-32.561
X-6.939 Y-32.594
X-6.961 Y-32.636
X-6.968 Y-32.682
G3 X-4.668 Y-32.682 Z-0.5 I1.15 J0 F600
X-6.968 Y-32.682 Z-1 I-1.15 J0
X-4.668 Y-32.682 Z-1.5 I1.15 J0
X-6.968 Y-32.682 Z-2 I-1.15 J0
X-4.668 Y-32.682 Z-2.5 I1.15 J0
X-6.968 Y-32.682 Z-3 I-1.15 J0
X-4.668 Y-32.682 Z-3.5 I1.15 J0
X-6.968 Y-32.682 I-1.15 J0
X-4.668 Y-32.682 I1.15 J0
G1 X-4.675 Y-32.636
X-4.697 Y-32.594
X-4.73 Y-32.561
X-4.772 Y-32.539
X-4.818 Y-32.532
X-4.893
X-4.939 Z-3.493
X-4.981 Z-3.471
X-5.014 Z-3.438
X-5.036 Z-3.396
X-5.043 Z-3.35
G0 Z5
X-12.257
Z0.5
G1 Z-1.35 F400
X-12.264 Z-1.396
X-12.286 Z-1.438
X-12.319 Z-1.471
X-12.361 Z-1.493
X-12.407 Z-1.5
X-12.482
X-12.528 Y-32.539
X-12.57 Y-32.561
X-12.603 Y-32.594
X-12.625 Y-32.636
X-12.632 Y-32.682
G3 X-11.732 Y-32.682 Z-2 I0.45 J0 F600
X-12.632 Y-32.682 Z-2.5 I-0.45 J0
X-11.732 Y-32.682 Z-3 I0.45 J0
X-12.632 Y-32.682 Z-3.5 I-0.45 J0
X-11.732 Y-32.682 I0.45 J0
X-12.632 Y-32.682 I-0.45 J0
G1 X-12.625 Y-32.728
X-12.603 Y-32.77
X-12.57 Y-32.803
X-12.528 Y-32.825
X-12.482 Y-32.832
X-12.407
X-12.361 Z-3.493
X-12.319 Z-3.471
X-12.286 Z-3.438
X-12.264 Z-3.396
X-12.257 Z-3.35
G0 Z5
X-9.575 Y-38.85
Z2
G1 Z0.15 F400
X-9.582 Z0.104
X-9.604 Z0.062
X-9.637 Z0.029
X-9.679 Z0.007
X-9.725 Z0
X-9.8
X-9.846 Y-38.857
X-9.888 Y-38.879
X-9.921 Y-38.912
X-9.943 Y-38.954
X-9.95 Y-39
G3 X-8.05 Y-39 Z-0.5 I0.95 J0 F600
X-9.95 Y-39 Z-1 I-0.95 J0
X-8.05 Y-39 Z-1.5 I0.95 J0
X-9.95 Y-39 Z-2 I-0.95 J0
X-8.05 Y-39 Z-2.5 I0.95 J0
X-9.95 Y-39 Z-3 I-0.95 J0
X-8.05 Y-39 Z-3.5 I0.95 J0
X-9.95 Y-39 I-0.95 J0
X-8.05 Y-39 I0.95 J0
G1 X-8.057 Y-38.954
X-8.079 Y-38.912
X-8.112 Y-38.879
X-8.154 Y-38.857
X-8.2 Y-38.85
X-8.275
X-8.321 Z-3.493
X-8.363 Z-3.471
X-8.396 Z-3.438
X-8.418 Z-3.396
X-8.425 Z-3.35
G0 Z5
X-9.575 Y-76.61
Z2
G1 Z0.15 F400
X-9.582 Z0.104
X-9.604 Z0.062
X-9.637 Z0.029
X-9.679 Z0.007
X-9.725 Z0
X-9.8
X-9.846 Y-76.618
X-9.888 Y-76.639
X-9.921 Y-76.672
X-9.943 Y-76.714
X-9.95 Y-76.76
G3 X-8.05 Y-76.76 Z-0.5 I0.95 J0 F600
X-9.95 Y-76.76 Z-1 I-0.95 J0
X-8.05 Y-76.76 Z-1.5 I0.95 J0
X-9.95 Y-76.76 Z-2 I-0.95 J0
X-8.05 Y-76.76 Z-2.5 I0.95 J0
X-9.95 Y-76.76 Z-3 I-0.95 J0
X-8.05 Y-76.76 Z-3.5 I0.95 J0
X-9.95 Y-76.76 I-0.95 J0
X-8.05 Y-76.76 I0.95 J0
G1 X-8.057 Y-76.714
X-8.079 Y-76.672
X-8.112 Y-76.639
X-8.154 Y-76.618
X-8.2 Y-76.61
X-8.275
X-8.321 Z-3.493
X-8.363 Z-3.471
X-8.396 Z-3.438
X-8.418 Z-3.396
X-8.425 Z-3.35
G0 Z5
X-10.798 Y-85.313
Z2
G1 Z0.15 F400
X-10.806 Z0.104
X-10.827 Z0.062
X-10.86 Z0.029
X-10.902 Z0.007
X-10.948 Z0
X-11.023
X-11.07 Y-85.321
X-11.112 Y-85.342
X-11.145 Y-85.375
X-11.166 Y-85.417
X-11.173 Y-85.463
G3 X-10.273 Y-85.463 Z-0.5 I0.45 J0 F600
X-11.173 Y-85.463 Z-1 I-0.45 J0
X-10.273 Y-85.463 Z-1.5 I0.45 J0
X-11.173 Y-85.463 Z-2 I-0.45 J0
X-10.273 Y-85.463 Z-2.5 I0.45 J0
X-11.173 Y-85.463 Z-3 I-0.45 J0
X-10.273 Y-85.463 Z-3.5 I0.45 J0
X-11.173 Y-85.463 I-0.45 J0
X-10.273 Y-85.463 I0.45 J0
G1 X-10.281 Y-85.417
X-10.302 Y-85.375
X-10.335 Y-85.342
X-10.377 Y-85.321
X-10.423 Y-85.313
X-10.498
X-10.545 Z-3.493
X-10.587 Z-3.471
X-10.62 Z-3.438
X-10.641 Z-3.396
X-10.648 Z-3.35
G0 Z15

(2D-Kontur7)
Z25
X-13.273 Y-70.984
Z5.1
G1 Z2.6 F300
X-13.269 Y-70.882 Z2.596 F1016
X-13.208 Y-69.479 Z2.547
X-13.148 Y-68.055 Z2.498
X-13.091 Y-66.61 Z2.447
X-13.037 Y-65.146 Z2.396
X-12.986 Y-63.663 Z2.344
X-12.94 Y-62.161 Z2.292
X-12.897 Y-60.641 Z2.239
X-12.859 Y-59.102 Z2.185
X-12.827 Y-57.546 Z2.13
X-12.799 Y-55.972 Z2.075
X-12.778 Y-54.38 Z2.02
X-12.762 Y-52.771 Z1.964
X-12.753 Y-51.144 Z1.907
X-12.75 Y-49.499 Z1.849
Y-43.015 Z1.623
X-12.759 Y-42.795 Z1.615
X-12.785 Y-42.566 Z1.607
X-12.83 Y-42.312 Z1.598
X-12.894 Y-42.034 Z1.588
X-12.978 Y-41.735 Z1.577
X-13.08 Y-41.415 Z1.566
X-13.2 Y-41.074 Z1.553
X-13.337 Y-40.716 Z1.54
X-13.489 Y-40.341 Z1.526
X-13.654 Y-39.949 Z1.511
X-13.83 Y-39.543 Z1.495
X-14.017 Y-39.122 Z1.479
X-14.211 Y-38.689 Z1.463
X-14.41 Y-38.245 Z1.446
X-14.412 Y-38.241
X-14.816 Y-37.326 Z1.411
X-14.821 Y-37.314 Z1.41
X-15.22 Y-36.369 Z1.374
X-15.228 Y-36.349
X-15.605 Y-35.379 Z1.337
X-15.613 Y-35.359 Z1.336
X-15.788 Y-34.866 Z1.318
X-15.794 Y-34.85
X-15.958 Y-34.353 Z1.299
X-15.964 Y-34.335
X-16.115 Y-33.834 Z1.28
X-16.121 Y-33.814
X-16.258 Y-33.309 Z1.261
X-16.264 Y-33.287
X-16.385 Y-32.779 Z1.242
X-16.39 Y-32.755 Z1.241
X-16.495 Y-32.245 Z1.223
X-16.5 Y-32.219 Z1.222
X-16.586 Y-31.705 Z1.204
X-16.59 Y-31.678 Z1.203
X-16.657 Y-31.16 Z1.185
X-16.66 Y-31.132 Z1.184
X-16.709 Y-30.61 Z1.166
X-16.711 Y-30.582 Z1.165
X-16.74 Y-30.055 Z1.146
X-16.741 Y-30.027 Z1.145
X-16.75 Y-29.494 Z1.127
Y-29.467 Z1.126
X-16.739 Y-28.928 Z1.107
X-16.738 Y-28.902 Z1.106
X-16.709 Y-28.356 Z1.087
X-16.707 Y-28.331 Z1.086
X-16.658 Y-27.779 Z1.067
X-16.655 Y-27.755 Z1.066
X-16.588 Y-27.197 Z1.046
X-16.585 Y-27.174 Z1.045
X-16.499 Y-26.609 Z1.025
X-16.496 Y-26.588
X-16.393 Y-26.017 Z1.004
X-16.389 Y-25.998
X-16.269 Y-25.421 Z0.983
X-16.265 Y-25.403
X-16.129 Y-24.822 Z0.962
X-16.125 Y-24.805 Z0.961
X-15.974 Y-24.221 Z0.94
X-15.969 Y-24.205 Z0.939
X-15.804 Y-23.619 Z0.918
X-15.799 Y-23.603
X-15.619 Y-23.018 Z0.896
X-15.615 Y-23.003
X-15.422 Y-22.42 Z0.874
X-15.417 Y-22.405
X-15.212 Y-21.827 Z0.852
X-15.207 Y-21.812
X-14.99 Y-21.24 Z0.83
X-14.984 Y-21.225
X-14.757 Y-20.662 Z0.809
X-14.751 Y-20.647 Z0.808
X-14.514 Y-20.095 Z0.787
X-14.507 Y-20.079 Z0.786
X-14.261 Y-19.542 Z0.766
X-14.253 Y-19.525 Z0.765
X-13.999 Y-19.003 Z0.745
X-13.99 Y-18.986 Z0.744
X-13.728 Y-18.483 Z0.724
X-13.718 Y-18.464
X-13.45 Y-17.983 Z0.704
X-13.438 Y-17.962
X-13.164 Y-17.504 Z0.685
X-13.15 Y-17.482 Z0.684
X-12.871 Y-17.05 Z0.666
X-12.855 Y-17.026 Z0.665
X-12.571 Y-16.623 Z0.648
X-12.551 Y-16.596 Z0.647
X-12.264 Y-16.223 Z0.63
X-12.24 Y-16.194 Z0.629
X-11.949 Y-15.853 Z0.613
X-11.92 Y-15.821 Z0.612
X-11.627 Y-15.516 Z0.597
X-11.591 Y-15.481 Z0.595
X-11.296 Y-15.212 Z0.581
X-11.251 Y-15.174 Z0.579
X-10.955 Y-14.943 Z0.566
X-10.914 Y-14.914 Z0.564
X-10.766 Y-14.813 Z0.558
X-10.735 Y-14.794 Z0.557
X-10.586 Y-14.703 Z0.551
X-10.551 Y-14.684 Z0.549
X-10.402 Y-14.603 Z0.543
X-10.365 Y-14.585 Z0.542
X-10.215 Y-14.515 Z0.536
X-10.174 Y-14.497 Z0.535
X-10.025 Y-14.438 Z0.529
X-9.98 Y-14.422 Z0.527
X-9.831 Y-14.373 Z0.522
X-9.783 Y-14.36 Z0.52
X-9.633 Y-14.322 Z0.515
X-9.583 Y-14.311 Z0.513
X-9.433 Y-14.284 Z0.508
X-9.381 Y-14.276 Z0.506
X-9.231 Y-14.26 Z0.501
X-9.177 Y-14.256 Z0.499
X-9.027 Y-14.25 Z0.493
X-8.973 Z0.492
X-8.823 Y-14.256 Z0.486
X-8.769 Y-14.26 Z0.484
X-8.619 Y-14.276 Z0.479
X-8.567 Y-14.284 Z0.477
X-8.417 Y-14.311 Z0.472
X-8.367 Y-14.322 Z0.47
X-8.217 Y-14.36 Z0.465
X-8.169 Y-14.373 Z0.463
X-8.02 Y-14.422 Z0.458
X-7.975 Y-14.438 Z0.456
X-7.826 Y-14.497 Z0.45
X-7.785 Y-14.515 Z0.449
X-7.635 Y-14.585 Z0.443
X-7.598 Y-14.603 Z0.442
X-7.449 Y-14.684 Z0.436
X-7.414 Y-14.703 Z0.434
X-7.265 Y-14.794 Z0.428
X-7.234 Y-14.813 Z0.427
X-7.086 Y-14.914 Z0.421
X-7.045 Y-14.943 Z0.419
X-6.749 Y-15.174 Z0.406
X-6.704 Y-15.212 Z0.404
X-6.409 Y-15.481 Z0.39
X-6.373 Y-15.516 Z0.388
X-6.08 Y-15.821 Z0.373
X-6.051 Y-15.854 Z0.372
X-5.76 Y-16.194 Z0.356
X-5.736 Y-16.223 Z0.355
X-5.449 Y-16.596 Z0.338
X-5.429 Y-16.623 Z0.337
X-5.145 Y-17.026 Z0.32
X-5.129 Y-17.05 Z0.319
X-4.85 Y-17.482 Z0.301
X-4.836 Y-17.504 Z0.3
X-4.562 Y-17.962 Z0.281
X-4.55 Y-17.983
X-4.282 Y-18.464 Z0.261
X-4.272 Y-18.483
X-4.01 Y-18.986 Z0.241
X-4.001 Y-19.003 Z0.24
X-3.747 Y-19.525 Z0.22
X-3.739 Y-19.542 Z0.219
X-3.493 Y-20.079 Z0.199
X-3.486 Y-20.095 Z0.198
X-3.249 Y-20.647 Z0.177
X-3.243 Y-20.662 Z0.176
X-3.016 Y-21.225 Z0.155
X-3.01 Y-21.24
X-2.793 Y-21.812 Z0.133
X-2.788 Y-21.827
X-2.583 Y-22.405 Z0.111
X-2.578 Y-22.42
X-2.385 Y-23.003 Z0.089
X-2.38 Y-23.018
X-2.201 Y-23.604 Z0.067
X-2.196 Y-23.619
X-2.031 Y-24.205 Z0.046
X-2.026 Y-24.221 Z0.045
X-1.875 Y-24.805 Z0.024
X-1.871 Y-24.822 Z0.023
X-1.735 Y-25.403 Z0.002
X-1.731 Y-25.421
X-1.611 Y-25.998 Z-0.019
X-1.607 Y-26.017
X-1.504 Y-26.588 Z-0.04
X-1.501 Y-26.609
X-1.415 Y-27.174 Z-0.06
X-1.412 Y-27.197 Z-0.061
X-1.345 Y-27.755 Z-0.081
X-1.342 Y-27.779 Z-0.082
X-1.293 Y-28.331 Z-0.101
X-1.291 Y-28.356 Z-0.102
X-1.262 Y-28.902 Z-0.121
X-1.261 Y-28.928 Z-0.122
X-1.25 Y-29.467 Z-0.141
Y-29.494 Z-0.142
X-1.259 Y-30.027 Z-0.16
X-1.26 Y-30.055 Z-0.161
X-1.289 Y-30.582 Z-0.18
X-1.291 Y-30.61 Z-0.181
X-1.339 Y-31.132 Z-0.199
X-1.343 Y-31.16 Z-0.2
X-1.41 Y-31.678 F600
X-1.414 Y-31.705
X-1.5 Y-32.219
X-1.505 Y-32.245
X-1.61 Y-32.755
X-1.615 Y-32.78
X-1.736 Y-33.287
X-1.742 Y-33.309
X-1.879 Y-33.814
X-1.885 Y-33.834
X-2.036 Y-34.335
X-2.042 Y-34.353
X-2.206 Y-34.85
X-2.212 Y-34.866
X-2.387 Y-35.359
X-2.395 Y-35.379
X-2.772 Y-36.349
X-2.78 Y-36.369
X-3.179 Y-37.314
X-3.184 Y-37.326
X-3.588 Y-38.241
X-3.59 Y-38.245
X-3.789 Y-38.689
X-3.983 Y-39.122
X-4.17 Y-39.543
X-4.346 Y-39.949
X-4.511 Y-40.341
X-4.663 Y-40.716
X-4.8 Y-41.074
X-4.92 Y-41.415
X-5.022 Y-41.735
X-5.106 Y-42.034
X-5.17 Y-42.312
X-5.215 Y-42.566
X-5.241 Y-42.795
X-5.25 Y-43.015
Y-49.499
X-5.246 Y-51.431
X-5.233 Y-53.335
X-5.212 Y-55.212
X-5.183 Y-57.061
X-5.147 Y-58.884
X-5.103 Y-60.68
X-5.053 Y-62.449
X-4.997 Y-64.19
X-4.936 Y-65.903
X-4.871 Y-67.587
X-4.802 Y-69.242
X-4.731 Y-70.868
X-4.658 Y-72.462
X-4.584 Y-74.025
X-4.511 Y-75.554
X-4.439 Y-77.049
X-4.37 Y-78.507
X-4.304 Y-79.928
Y-79.929
X-4.273 Y-80.624
X-4.243 Y-81.31
Y-81.311
X-4.215 Y-81.985
Y-81.986
X-4.189 Y-82.649
X-4.188 Y-82.651
X-4.164 Y-83.303
Y-83.305
X-4.141 Y-83.945
Y-83.947
X-4.12 Y-84.576
Y-84.578
X-4.102 Y-85.195
Y-85.198
X-4.086 Y-85.802
Y-85.805
X-4.073 Y-86.397
X-4.072 Y-86.4
X-4.062 Y-86.979
Y-86.983
X-4.054 Y-87.548
Y-87.552
X-4.049 Y-88.105
Y-88.109
X-4.047 Y-88.647
Y-88.652
X-4.049 Y-89.176
Y-89.181
X-4.054 Y-89.69
Y-89.696
X-4.063 Y-90.19
Y-90.196
X-4.076 Y-90.675
Y-90.682
X-4.093 Y-91.146
Y-91.154
X-4.113 Y-91.601
X-4.114 Y-91.61
X-4.138 Y-92.041
X-4.139 Y-92.05
X-4.168 Y-92.465
X-4.169 Y-92.475
X-4.202 Y-92.873
X-4.203 Y-92.884
X-4.241 Y-93.265
X-4.242 Y-93.278
X-4.285 Y-93.641
X-4.287 Y-93.655
X-4.334 Y-94
X-4.337 Y-94.016
X-4.389 Y-94.343
X-4.392 Y-94.362
X-4.449 Y-94.67
X-4.473 Y-94.764
X-4.509 Y-94.875
X-4.541 Y-94.956
X-4.582 Y-95.033
X-4.642 Y-95.132
X-4.692 Y-95.204
X-8.101 Y-99.568
G2 X-9.856 Y-99.783 I-0.985 J0.77
G1 X-13.399 Y-97.015
G2 X-13.879 Y-96.03 I0.77 J0.985
G1 Y-91.288
X-13.894 Y-90.904
X-13.895 Y-90.898
X-13.907 Y-90.487
Y-90.481
X-13.917 Y-90.059
Y-90.054
X-13.924 Y-89.62
Y-89.615
X-13.929 Y-89.169
Y-89.165
X-13.931 Y-88.708
Y-88.704
X-13.93 Y-88.237
Y-88.233
X-13.927 Y-87.755
Y-87.752
X-13.922 Y-87.263
Y-87.26
X-13.915 Y-86.762
X-13.914 Y-86.757
X-13.893 Y-85.731
Y-85.726
X-13.865 Y-84.661
Y-84.657
X-13.829 Y-83.556
Y-83.553
X-13.788 Y-82.418
Y-82.415
X-13.741 Y-81.247
Y-81.245
X-13.69 Y-80.045
Y-80.044
X-13.635 Y-78.814
Y-78.813
X-13.578 Y-77.555
X-13.517 Y-76.27
X-13.456 Y-74.958
X-13.393 Y-73.623
X-13.331 Y-72.264
X-13.269 Y-70.882
X-13.208 Y-69.479
X-13.148 Y-68.055
X-13.091 Y-66.61
X-13.037 Y-65.146
X-12.986 Y-63.663
X-12.94 Y-62.161
X-12.897 Y-60.641
X-12.859 Y-59.102
X-12.827 Y-57.546
X-12.799 Y-55.972
X-12.778 Y-54.38
X-12.762 Y-52.771
X-12.753 Y-51.144
X-12.75 Y-49.499
Y-43.015
X-12.759 Y-42.795
X-12.785 Y-42.566
X-12.83 Y-42.312
X-12.894 Y-42.034
X-12.978 Y-41.735
X-13.08 Y-41.415
X-13.2 Y-41.074
X-13.337 Y-40.716
X-13.489 Y-40.341
X-13.654 Y-39.949
X-13.83 Y-39.543
X-14.017 Y-39.122
X-14.211 Y-38.689
X-14.41 Y-38.245
X-14.412 Y-38.241
X-14.816 Y-37.326
X-14.821 Y-37.314
X-15.22 Y-36.369
X-15.228 Y-36.349
X-15.605 Y-35.379
X-15.613 Y-35.359
X-15.788 Y-34.866
X-15.794 Y-34.85
X-15.958 Y-34.353
X-15.964 Y-34.335
X-16.115 Y-33.834
X-16.121 Y-33.814
X-16.258 Y-33.309
X-16.264 Y-33.287
X-16.385 Y-32.779
X-16.39 Y-32.755
X-16.495 Y-32.245
X-16.5 Y-32.219
X-16.586 Y-31.705
X-16.59 Y-31.678
X-16.657 Y-31.16
X-16.66 Y-31.132
X-16.709 Y-30.61
X-16.711 Y-30.582
X-16.74 Y-30.055
X-16.741 Y-30.027
X-16.75 Y-29.494
Y-29.467
X-16.739 Y-28.928
X-16.738 Y-28.902
X-16.709 Y-28.356
X-16.707 Y-28.331
X-16.658 Y-27.779
X-16.655 Y-27.755
X-16.588 Y-27.197
X-16.585 Y-27.174
X-16.499 Y-26.609
X-16.496 Y-26.588
X-16.393 Y-26.017
X-16.389 Y-25.998
X-16.269 Y-25.421
X-16.265 Y-25.403
X-16.129 Y-24.822
X-16.125 Y-24.805
X-15.974 Y-24.221
X-15.969 Y-24.205
X-15.804 Y-23.619
X-15.799 Y-23.603
X-15.619 Y-23.018
X-15.615 Y-23.003
X-15.422 Y-22.42
X-15.417 Y-22.405
X-15.212 Y-21.827
X-15.207 Y-21.812
X-14.99 Y-21.24
X-14.984 Y-21.225
X-14.757 Y-20.662
X-14.751 Y-20.647
X-14.514 Y-20.095
X-14.507 Y-20.079
X-14.261 Y-19.542
X-14.253 Y-19.525
X-13.999 Y-19.003
X-13.99 Y-18.986
X-13.728 Y-18.483
X-13.718 Y-18.464
X-13.45 Y-17.983
X-13.438 Y-17.962
X-13.164 Y-17.504
X-13.15 Y-17.482
X-12.871 Y-17.05
X-12.855 Y-17.026
X-12.571 Y-16.623
X-12.551 Y-16.596
X-12.264 Y-16.223
X-12.24 Y-16.194
X-11.949 Y-15.853
X-11.92 Y-15.821
X-11.627 Y-15.516
X-11.591 Y-15.481
X-11.296 Y-15.212
X-11.251 Y-15.174
X-10.955 Y-14.943
X-10.914 Y-14.914
X-10.766 Y-14.813
X-10.735 Y-14.794
X-10.586 Y-14.703
X-10.551 Y-14.684
X-10.402 Y-14.603
X-10.365 Y-14.585
X-10.215 Y-14.515
X-10.174 Y-14.497
X-10.025 Y-14.438
X-9.98 Y-14.422
X-9.831 Y-14.373
X-9.783 Y-14.36
X-9.633 Y-14.322
X-9.583 Y-14.311
X-9.433 Y-14.284
X-9.381 Y-14.276
X-9.231 Y-14.26
X-9.177 Y-14.256
X-9.027 Y-14.25
X-8.973
X-8.823 Y-14.256
X-8.769 Y-14.26
X-8.619 Y-14.276
X-8.567 Y-14.284
X-8.417 Y-14.311
X-8.367 Y-14.322
X-8.217 Y-14.36
X-8.169 Y-14.373
X-8.02 Y-14.422
X-7.975 Y-14.438
X-7.826 Y-14.497
X-7.785 Y-14.515
X-7.635 Y-14.585
X-7.598 Y-14.603
X-7.449 Y-14.684
X-7.414 Y-14.703
X-7.265 Y-14.794
X-7.234 Y-14.813
X-7.086 Y-14.914
X-7.045 Y-14.943
X-6.749 Y-15.174
X-6.704 Y-15.212
X-6.409 Y-15.481
X-6.373 Y-15.516
X-6.08 Y-15.821
X-6.051 Y-15.854
X-5.76 Y-16.194
X-5.736 Y-16.223
X-5.449 Y-16.596
X-5.429 Y-16.623
X-5.145 Y-17.026
X-5.129 Y-17.05
X-4.85 Y-17.482
X-4.836 Y-17.504
X-4.562 Y-17.962
X-4.55 Y-17.983
X-4.282 Y-18.464
X-4.272 Y-18.483
X-4.01 Y-18.986
X-4.001 Y-19.003
X-3.747 Y-19.525
X-3.739 Y-19.542
X-3.493 Y-20.079
X-3.486 Y-20.095
X-3.249 Y-20.647
X-3.243 Y-20.662
X-3.016 Y-21.225
X-3.01 Y-21.24
X-2.793 Y-21.812
X-2.788 Y-21.827
X-2.583 Y-22.405
X-2.578 Y-22.42
X-2.385 Y-23.003
X-2.38 Y-23.018
X-2.201 Y-23.604
X-2.196 Y-23.619
X-2.031 Y-24.205
X-2.026 Y-24.221
X-1.875 Y-24.805
X-1.871 Y-24.822
X-1.735 Y-25.403
X-1.731 Y-25.421
X-1.611 Y-25.998
X-1.607 Y-26.017
X-1.504 Y-26.588
X-1.501 Y-26.609
X-1.415 Y-27.174
X-1.412 Y-27.197
X-1.345 Y-27.755
X-1.342 Y-27.779
X-1.293 Y-28.331
X-1.291 Y-28.356
X-1.262 Y-28.902
X-1.261 Y-28.928
X-1.25 Y-29.467
Y-29.494
X-1.259 Y-30.027
X-1.26 Y-30.055
X-1.289 Y-30.582
X-1.291 Y-30.61
X-1.339 Y-31.132
X-1.343 Y-31.16
X-1.41 Y-31.678 Z-0.218 F1016
X-1.414 Y-31.705 Z-0.219
X-1.5 Y-32.219 Z-0.237
X-1.505 Y-32.245 Z-0.238
X-1.61 Y-32.755 Z-0.257
X-1.615 Y-32.78
X-1.736 Y-33.287 Z-0.276
X-1.742 Y-33.309
X-1.879 Y-33.814 Z-0.295
X-1.885 Y-33.834
X-2.036 Y-34.335 Z-0.314
X-2.042 Y-34.353
X-2.206 Y-34.85 Z-0.333
X-2.212 Y-34.866
X-2.387 Y-35.359 Z-0.351
X-2.395 Y-35.379 Z-0.352
X-2.772 Y-36.349 Z-0.389
X-2.78 Y-36.369
X-3.179 Y-37.314 Z-0.425
X-3.184 Y-37.326 Z-0.426
X-3.588 Y-38.241 Z-0.461
X-3.59 Y-38.245
X-3.789 Y-38.689 Z-0.478
X-3.983 Y-39.122 Z-0.494
X-4.05 Y-39.273 Z-0.5
X-4.17 Y-39.543 F600
X-4.346 Y-39.949
X-4.511 Y-40.341
X-4.663 Y-40.716
X-4.8 Y-41.074
X-4.92 Y-41.415
X-5.022 Y-41.735
X-5.106 Y-42.034
X-5.17 Y-42.312
X-5.215 Y-42.566
X-5.241 Y-42.795
X-5.25 Y-43.015
Y-49.499
X-5.246 Y-51.431
X-5.233 Y-53.335
X-5.212 Y-55.212
X-5.183 Y-57.061
X-5.147 Y-58.884
X-5.103 Y-60.68
X-5.053 Y-62.449
X-4.997 Y-64.19
X-4.936 Y-65.903
X-4.871 Y-67.587
X-4.802 Y-69.242
X-4.731 Y-70.868
X-4.658 Y-72.462
X-4.584 Y-74.025
X-4.511 Y-75.554
X-4.439 Y-77.049
X-4.37 Y-78.507
X-4.304 Y-79.928
Y-79.929
X-4.273 Y-80.624
X-4.243 Y-81.31
Y-81.311
X-4.215 Y-81.985
Y-81.986
X-4.189 Y-82.649
X-4.188 Y-82.651
X-4.164 Y-83.303
Y-83.305
X-4.141 Y-83.945
Y-83.947
X-4.12 Y-84.576
Y-84.578
X-4.102 Y-85.195
Y-85.198
X-4.086 Y-85.802
Y-85.805
X-4.073 Y-86.397
X-4.072 Y-86.4
X-4.062 Y-86.979
Y-86.983
X-4.054 Y-87.548
Y-87.552
X-4.049 Y-88.105
Y-88.109
X-4.047 Y-88.647
Y-88.652
X-4.049 Y-89.176
Y-89.181
X-4.054 Y-89.69
Y-89.696
X-4.063 Y-90.19
Y-90.196
X-4.076 Y-90.675
Y-90.682
X-4.093 Y-91.146
Y-91.154
X-4.113 Y-91.601
X-4.114 Y-91.61
X-4.138 Y-92.041
X-4.139 Y-92.05
X-4.168 Y-92.465
X-4.169 Y-92.475
X-4.202 Y-92.873
X-4.203 Y-92.884
X-4.241 Y-93.265
X-4.242 Y-93.278
X-4.285 Y-93.641
X-4.287 Y-93.655
X-4.334 Y-94
X-4.337 Y-94.016
X-4.389 Y-94.343
X-4.392 Y-94.362
X-4.449 Y-94.67
X-4.473 Y-94.764
X-4.509 Y-94.875
X-4.541 Y-94.956
X-4.582 Y-95.033
X-4.642 Y-95.132
X-4.692 Y-95.204
X-8.101 Y-99.568
G2 X-9.856 Y-99.783 I-0.985 J0.77
G1 X-13.399 Y-97.015
G2 X-13.879 Y-96.03 I0.77 J0.985
G1 Y-91.288
X-13.894 Y-90.904
X-13.895 Y-90.898
X-13.907 Y-90.487
Y-90.481
X-13.917 Y-90.059
Y-90.054
X-13.924 Y-89.62
Y-89.615
X-13.929 Y-89.169
Y-89.165
X-13.931 Y-88.708
Y-88.704
X-13.93 Y-88.237
Y-88.233
X-13.927 Y-87.755
Y-87.752
X-13.922 Y-87.263
Y-87.26
X-13.915 Y-86.762
X-13.914 Y-86.757
X-13.893 Y-85.731
Y-85.726
X-13.865 Y-84.661
Y-84.657
X-13.829 Y-83.556
Y-83.553
X-13.788 Y-82.418
Y-82.415
X-13.741 Y-81.247
Y-81.245
X-13.69 Y-80.045
Y-80.044
X-13.635 Y-78.814
Y-78.813
X-13.578 Y-77.555
X-13.517 Y-76.27
X-13.456 Y-74.958
X-13.393 Y-73.623
X-13.331 Y-72.264
X-13.269 Y-70.882
X-13.208 Y-69.479
X-13.148 Y-68.055
X-13.091 Y-66.61
X-13.037 Y-65.146
X-12.986 Y-63.663
X-12.94 Y-62.161
X-12.897 Y-60.641
X-12.859 Y-59.102
X-12.827 Y-57.546
X-12.799 Y-55.972
X-12.778 Y-54.38
X-12.762 Y-52.771
X-12.753 Y-51.144
X-12.75 Y-49.499
Y-43.015
X-12.759 Y-42.795
X-12.785 Y-42.566
X-12.83 Y-42.312
X-12.894 Y-42.034
X-12.978 Y-41.735
X-13.08 Y-41.415
X-13.2 Y-41.074
X-13.337 Y-40.716
X-13.489 Y-40.341
X-13.654 Y-39.949
X-13.83 Y-39.543
X-14.017 Y-39.122
X-14.211 Y-38.689
X-14.41 Y-38.245
X-14.412 Y-38.241
X-14.816 Y-37.326
X-14.821 Y-37.314
X-15.22 Y-36.369
X-15.228 Y-36.349
X-15.605 Y-35.379
X-15.613 Y-35.359
X-15.788 Y-34.866
X-15.794 Y-34.85
X-15.958 Y-34.353
X-15.964 Y-34.335
X-16.115 Y-33.834
X-16.121 Y-33.814
X-16.258 Y-33.309
X-16.264 Y-33.287
X-16.385 Y-32.779
X-16.39 Y-32.755
X-16.495 Y-32.245
X-16.5 Y-32.219
X-16.586 Y-31.705
X-16.59 Y-31.678
X-16.657 Y-31.16
X-16.66 Y-31.132
X-16.709 Y-30.61
X-16.711 Y-30.582
X-16.74 Y-30.055
X-16.741 Y-30.027
X-16.75 Y-29.494
Y-29.467
X-16.739 Y-28.928
X-16.738 Y-28.902
X-16.709 Y-28.356
X-16.707 Y-28.331
X-16.658 Y-27.779
X-16.655 Y-27.755
X-16.588 Y-27.197
X-16.585 Y-27.174
X-16.499 Y-26.609
X-16.496 Y-26.588
X-16.393 Y-26.017
X-16.389 Y-25.998
X-16.269 Y-25.421
X-16.265 Y-25.403
X-16.129 Y-24.822
X-16.125 Y-24.805
X-15.974 Y-24.221
X-15.969 Y-24.205
X-15.804 Y-23.619
X-15.799 Y-23.603
X-15.619 Y-23.018
X-15.615 Y-23.003
X-15.422 Y-22.42
X-15.417 Y-22.405
X-15.212 Y-21.827
X-15.207 Y-21.812
X-14.99 Y-21.24
X-14.984 Y-21.225
X-14.757 Y-20.662
X-14.751 Y-20.647
X-14.514 Y-20.095
X-14.507 Y-20.079
X-14.261 Y-19.542
X-14.253 Y-19.525
X-13.999 Y-19.003
X-13.99 Y-18.986
X-13.728 Y-18.483
X-13.718 Y-18.464
X-13.45 Y-17.983
X-13.438 Y-17.962
X-13.164 Y-17.504
X-13.15 Y-17.482
X-12.871 Y-17.05
X-12.855 Y-17.026
X-12.571 Y-16.623
X-12.551 Y-16.596
X-12.264 Y-16.223
X-12.24 Y-16.194
X-11.949 Y-15.853
X-11.92 Y-15.821
X-11.627 Y-15.516
X-11.591 Y-15.481
X-11.296 Y-15.212
X-11.251 Y-15.174
X-10.955 Y-14.943
X-10.914 Y-14.914
X-10.766 Y-14.813
X-10.735 Y-14.794
X-10.586 Y-14.703
X-10.551 Y-14.684
X-10.402 Y-14.603
X-10.365 Y-14.585
X-10.215 Y-14.515
X-10.174 Y-14.497
X-10.025 Y-14.438
X-9.98 Y-14.422
X-9.831 Y-14.373
X-9.783 Y-14.36
X-9.633 Y-14.322
X-9.583 Y-14.311
X-9.433 Y-14.284
X-9.381 Y-14.276
X-9.231 Y-14.26
X-9.177 Y-14.256
X-9.027 Y-14.25
X-8.973
X-8.823 Y-14.256
X-8.769 Y-14.26
X-8.619 Y-14.276
X-8.567 Y-14.284
X-8.417 Y-14.311
X-8.367 Y-14.322
X-8.217 Y-14.36
X-8.169 Y-14.373
X-8.02 Y-14.422
X-7.975 Y-14.438
X-7.826 Y-14.497
X-7.785 Y-14.515
X-7.635 Y-14.585
X-7.598 Y-14.603
X-7.449 Y-14.684
X-7.414 Y-14.703
X-7.265 Y-14.794
X-7.234 Y-14.813
X-7.086 Y-14.914
X-7.045 Y-14.943
X-6.749 Y-15.174
X-6.704 Y-15.212
X-6.409 Y-15.481
X-6.373 Y-15.516
X-6.08 Y-15.821
X-6.051 Y-15.854
X-5.76 Y-16.194
X-5.736 Y-16.223
X-5.449 Y-16.596
X-5.429 Y-16.623
X-5.145 Y-17.026
X-5.129 Y-17.05
X-4.85 Y-17.482
X-4.836 Y-17.504
X-4.562 Y-17.962
X-4.55 Y-17.983
X-4.282 Y-18.464
X-4.272 Y-18.483
X-4.01 Y-18.986
X-4.001 Y-19.003
X-3.747 Y-19.525
X-3.739 Y-19.542
X-3.493 Y-20.079
X-3.486 Y-20.095
X-3.249 Y-20.647
X-3.243 Y-20.662
X-3.016 Y-21.225
X-3.01 Y-21.24
X-2.793 Y-21.812
X-2.788 Y-21.827
X-2.583 Y-22.405
X-2.578 Y-22.42
X-2.385 Y-23.003
X-2.38 Y-23.018
X-2.201 Y-23.604
X-2.196 Y-23.619
X-2.031 Y-24.205
X-2.026 Y-24.221
X-1.875 Y-24.805
X-1.871 Y-24.822
X-1.735 Y-25.403
X-1.731 Y-25.421
X-1.611 Y-25.998
X-1.607 Y-26.017
X-1.504 Y-26.588
X-1.501 Y-26.609
X-1.415 Y-27.174
X-1.412 Y-27.197
X-1.345 Y-27.755
X-1.342 Y-27.779
X-1.293 Y-28.331
X-1.291 Y-28.356
X-1.262 Y-28.902
X-1.261 Y-28.928
X-1.25 Y-29.467
Y-29.494
X-1.259 Y-30.027
X-1.26 Y-30.055
X-1.289 Y-30.582
X-1.291 Y-30.61
X-1.339 Y-31.132
X-1.343 Y-31.16
X-1.41 Y-31.678
X-1.414 Y-31.705
X-1.5 Y-32.219
X-1.505 Y-32.245
X-1.61 Y-32.755
X-1.615 Y-32.78
X-1.736 Y-33.287
X-1.742 Y-33.309
X-1.879 Y-33.814
X-1.885 Y-33.834
X-2.036 Y-34.335
X-2.042 Y-34.353
X-2.206 Y-34.85
X-2.212 Y-34.866
X-2.387 Y-35.359
X-2.395 Y-35.379
X-2.772 Y-36.349
X-2.78 Y-36.369
X-3.179 Y-37.314
X-3.184 Y-37.326
X-3.588 Y-38.241
X-3.59 Y-38.245
X-3.789 Y-38.689
X-3.983 Y-39.122
X-4.05 Y-39.273
X-4.17 Y-39.543 Z-0.51 F1016
X-4.346 Y-39.949 Z-0.526
X-4.511 Y-40.341 Z-0.541
X-4.663 Y-40.716 Z-0.555
X-4.8 Y-41.074 Z-0.568
X-4.92 Y-41.415 Z-0.581
X-5.022 Y-41.735 Z-0.592
X-5.106 Y-42.034 Z-0.603
X-5.17 Y-42.312 Z-0.613
X-5.215 Y-42.566 Z-0.622
X-5.241 Y-42.795 Z-0.63
X-5.25 Y-43.015 Z-0.638
Y-47.653 Z-0.8
Y-49.499 F600
X-5.246 Y-51.431
X-5.233 Y-53.335
X-5.212 Y-55.212
X-5.183 Y-57.061
X-5.147 Y-58.884
X-5.103 Y-60.68
X-5.053 Y-62.449
X-4.997 Y-64.19
X-4.936 Y-65.903
X-4.871 Y-67.587
X-4.802 Y-69.242
X-4.731 Y-70.868
X-4.658 Y-72.462
X-4.584 Y-74.025
X-4.511 Y-75.554
X-4.439 Y-77.049
X-4.37 Y-78.507
X-4.304 Y-79.928
Y-79.929
X-4.273 Y-80.624
X-4.243 Y-81.31
Y-81.311
X-4.215 Y-81.985
Y-81.986
X-4.189 Y-82.649
X-4.188 Y-82.651
X-4.164 Y-83.303
Y-83.305
X-4.141 Y-83.945
Y-83.947
X-4.12 Y-84.576
Y-84.578
X-4.102 Y-85.195
Y-85.198
X-4.086 Y-85.802
Y-85.805
X-4.073 Y-86.397
X-4.072 Y-86.4
X-4.062 Y-86.979
Y-86.983
X-4.054 Y-87.548
Y-87.552
X-4.049 Y-88.105
Y-88.109
X-4.047 Y-88.647
Y-88.652
X-4.049 Y-89.176
Y-89.181
X-4.054 Y-89.69
Y-89.696
X-4.063 Y-90.19
Y-90.196
X-4.076 Y-90.675
Y-90.682
X-4.093 Y-91.146
Y-91.154
X-4.113 Y-91.601
X-4.114 Y-91.61
X-4.138 Y-92.041
X-4.139 Y-92.05
X-4.168 Y-92.465
X-4.169 Y-92.475
X-4.202 Y-92.873
X-4.203 Y-92.884
X-4.241 Y-93.265
X-4.242 Y-93.278
X-4.285 Y-93.641
X-4.287 Y-93.655
X-4.334 Y-94
X-4.337 Y-94.016
X-4.389 Y-94.343
X-4.392 Y-94.362
X-4.449 Y-94.67
X-4.473 Y-94.764
X-4.509 Y-94.875
X-4.541 Y-94.956
X-4.582 Y-95.033
X-4.642 Y-95.132
X-4.692 Y-95.204
X-8.101 Y-99.568
G2 X-9.856 Y-99.783 I-0.985 J0.77
G1 X-13.399 Y-97.015
G2 X-13.879 Y-96.03 I0.77 J0.985
G1 Y-91.288
X-13.894 Y-90.904
X-13.895 Y-90.898
X-13.907 Y-90.487
Y-90.481
X-13.917 Y-90.059
Y-90.054
X-13.924 Y-89.62
Y-89.615
X-13.929 Y-89.169
Y-89.165
X-13.931 Y-88.708
Y-88.704
X-13.93 Y-88.237
Y-88.233
X-13.927 Y-87.755
Y-87.752
X-13.922 Y-87.263
Y-87.26
X-13.915 Y-86.762
X-13.914 Y-86.757
X-13.893 Y-85.731
Y-85.726
X-13.865 Y-84.661
Y-84.657
X-13.829 Y-83.556
Y-83.553
X-13.788 Y-82.418
Y-82.415
X-13.741 Y-81.247
Y-81.245
X-13.69 Y-80.045
Y-80.044
X-13.635 Y-78.814
Y-78.813
X-13.578 Y-77.555
X-13.517 Y-76.27
X-13.456 Y-74.958
X-13.393 Y-73.623
X-13.331 Y-72.264
X-13.269 Y-70.882
X-13.208 Y-69.479
X-13.148 Y-68.055
X-13.091 Y-66.61
X-13.037 Y-65.146
X-12.986 Y-63.663
X-12.94 Y-62.161
X-12.897 Y-60.641
X-12.859 Y-59.102
X-12.827 Y-57.546
X-12.799 Y-55.972
X-12.778 Y-54.38
X-12.762 Y-52.771
X-12.753 Y-51.144
X-12.75 Y-49.499
Y-43.015
X-12.759 Y-42.795
X-12.785 Y-42.566
X-12.83 Y-42.312
X-12.894 Y-42.034
X-12.978 Y-41.735
X-13.08 Y-41.415
X-13.2 Y-41.074
X-13.337 Y-40.716
X-13.489 Y-40.341
X-13.654 Y-39.949
X-13.83 Y-39.543
X-14.017 Y-39.122
X-14.211 Y-38.689
X-14.41 Y-38.245
X-14.412 Y-38.241
X-14.816 Y-37.326
X-14.821 Y-37.314
X-15.22 Y-36.369
X-15.228 Y-36.349
X-15.605 Y-35.379
X-15.613 Y-35.359
X-15.788 Y-34.866
X-15.794 Y-34.85
X-15.958 Y-34.353
X-15.964 Y-34.335
X-16.115 Y-33.834
X-16.121 Y-33.814
X-16.258 Y-33.309
X-16.264 Y-33.287
X-16.385 Y-32.779
X-16.39 Y-32.755
X-16.495 Y-32.245
X-16.5 Y-32.219
X-16.586 Y-31.705
X-16.59 Y-31.678
X-16.657 Y-31.16
X-16.66 Y-31.132
X-16.709 Y-30.61
X-16.711 Y-30.582
X-16.74 Y-30.055
X-16.741 Y-30.027
X-16.75 Y-29.494
Y-29.467
X-16.739 Y-28.928
X-16.738 Y-28.902
X-16.709 Y-28.356
X-16.707 Y-28.331
X-16.658 Y-27.779
X-16.655 Y-27.755
X-16.588 Y-27.197
X-16.585 Y-27.174
X-16.499 Y-26.609
X-16.496 Y-26.588
X-16.393 Y-26.017
X-16.389 Y-25.998
X-16.269 Y-25.421
X-16.265 Y-25.403
X-16.129 Y-24.822
X-16.125 Y-24.805
X-15.974 Y-24.221
X-15.969 Y-24.205
X-15.804 Y-23.619
X-15.799 Y-23.603
X-15.619 Y-23.018
X-15.615 Y-23.003
X-15.422 Y-22.42
X-15.417 Y-22.405
X-15.212 Y-21.827
X-15.207 Y-21.812
X-14.99 Y-21.24
X-14.984 Y-21.225
X-14.757 Y-20.662
X-14.751 Y-20.647
X-14.514 Y-20.095
X-14.507 Y-20.079
X-14.261 Y-19.542
X-14.253 Y-19.525
X-13.999 Y-19.003
X-13.99 Y-18.986
X-13.728 Y-18.483
X-13.718 Y-18.464
X-13.45 Y-17.983
X-13.438 Y-17.962
X-13.164 Y-17.504
X-13.15 Y-17.482
X-12.871 Y-17.05
X-12.855 Y-17.026
X-12.571 Y-16.623
X-12.551 Y-16.596
X-12.264 Y-16.223
X-12.24 Y-16.194
X-11.949 Y-15.853
X-11.92 Y-15.821
X-11.627 Y-15.516
X-11.591 Y-15.481
X-11.296 Y-15.212
X-11.251 Y-15.174
X-10.955 Y-14.943
X-10.914 Y-14.914
X-10.766 Y-14.813
X-10.735 Y-14.794
X-10.586 Y-14.703
X-10.551 Y-14.684
X-10.402 Y-14.603
X-10.365 Y-14.585
X-10.215 Y-14.515
X-10.174 Y-14.497
X-10.025 Y-14.438
X-9.98 Y-14.422
X-9.831 Y-14.373
X-9.783 Y-14.36
X-9.633 Y-14.322
X-9.583 Y-14.311
X-9.433 Y-14.284
X-9.381 Y-14.276
X-9.231 Y-14.26
X-9.177 Y-14.256
X-9.027 Y-14.25
X-8.973
X-8.823 Y-14.256
X-8.769 Y-14.26
X-8.619 Y-14.276
X-8.567 Y-14.284
X-8.417 Y-14.311
X-8.367 Y-14.322
X-8.217 Y-14.36
X-8.169 Y-14.373
X-8.02 Y-14.422
X-7.975 Y-14.438
X-7.826 Y-14.497
X-7.785 Y-14.515
X-7.635 Y-14.585
X-7.598 Y-14.603
X-7.449 Y-14.684
X-7.414 Y-14.703
X-7.265 Y-14.794
X-7.234 Y-14.813
X-7.086 Y-14.914
X-7.045 Y-14.943
X-6.749 Y-15.174
X-6.704 Y-15.212
X-6.409 Y-15.481
X-6.373 Y-15.516
X-6.08 Y-15.821
X-6.051 Y-15.854
X-5.76 Y-16.194
X-5.736 Y-16.223
X-5.449 Y-16.596
X-5.429 Y-16.623
X-5.145 Y-17.026
X-5.129 Y-17.05
X-4.85 Y-17.482
X-4.836 Y-17.504
X-4.562 Y-17.962
X-4.55 Y-17.983
X-4.282 Y-18.464
X-4.272 Y-18.483
X-4.01 Y-18.986
X-4.001 Y-19.003
X-3.747 Y-19.525
X-3.739 Y-19.542
X-3.493 Y-20.079
X-3.486 Y-20.095
X-3.249 Y-20.647
X-3.243 Y-20.662
X-3.016 Y-21.225
X-3.01 Y-21.24
X-2.793 Y-21.812
X-2.788 Y-21.827
X-2.583 Y-22.405
X-2.578 Y-22.42
X-2.385 Y-23.003
X-2.38 Y-23.018
X-2.201 Y-23.604
X-2.196 Y-23.619
X-2.031 Y-24.205
X-2.026 Y-24.221
X-1.875 Y-24.805
X-1.871 Y-24.822
X-1.735 Y-25.403
X-1.731 Y-25.421
X-1.611 Y-25.998
X-1.607 Y-26.017
X-1.504 Y-26.588
X-1.501 Y-26.609
X-1.415 Y-27.174
X-1.412 Y-27.197
X-1.345 Y-27.755
X-1.342 Y-27.779
X-1.293 Y-28.331
X-1.291 Y-28.356
X-1.262 Y-28.902
X-1.261 Y-28.928
X-1.25 Y-29.467
Y-29.494
X-1.259 Y-30.027
X-1.26 Y-30.055
X-1.289 Y-30.582
X-1.291 Y-30.61
X-1.339 Y-31.132
X-1.343 Y-31.16
X-1.41 Y-31.678
X-1.414 Y-31.705
X-1.5 Y-32.219
X-1.505 Y-32.245
X-1.61 Y-32.755
X-1.615 Y-32.78
X-1.736 Y-33.287
X-1.742 Y-33.309
X-1.879 Y-33.814
X-1.885 Y-33.834
X-2.036 Y-34.335
X-2.042 Y-34.353
X-2.206 Y-34.85
X-2.212 Y-34.866
X-2.387 Y-35.359
X-2.395 Y-35.379
X-2.772 Y-36.349
X-2.78 Y-36.369
X-3.179 Y-37.314
X-3.184 Y-37.326
X-3.588 Y-38.241
X-3.59 Y-38.245
X-3.789 Y-38.689
X-3.983 Y-39.122
X-4.17 Y-39.543
X-4.346 Y-39.949
X-4.511 Y-40.341
X-4.663 Y-40.716
X-4.8 Y-41.074
X-4.92 Y-41.415
X-5.022 Y-41.735
X-5.106 Y-42.034
X-5.17 Y-42.312
X-5.215 Y-42.566
X-5.241 Y-42.795
X-5.25 Y-43.015
Y-47.653
Y-49.499 Z-0.864 F1016
X-5.246 Y-51.431 Z-0.932
X-5.233 Y-53.335 Z-0.998
X-5.212 Y-55.212 Z-1.064
X-5.196 Y-56.243 Z-1.1
X-5.183 Y-57.061 F600
X-5.147 Y-58.884
X-5.103 Y-60.68
X-5.053 Y-62.449
X-4.997 Y-64.19
X-4.936 Y-65.903
X-4.871 Y-67.587
X-4.802 Y-69.242
X-4.731 Y-70.868
X-4.658 Y-72.462
X-4.584 Y-74.025
X-4.511 Y-75.554
X-4.439 Y-77.049
X-4.37 Y-78.507
X-4.304 Y-79.928
Y-79.929
X-4.273 Y-80.624
X-4.243 Y-81.31
Y-81.311
X-4.215 Y-81.985
Y-81.986
X-4.189 Y-82.649
X-4.188 Y-82.651
X-4.164 Y-83.303
Y-83.305
X-4.141 Y-83.945
Y-83.947
X-4.12 Y-84.576
Y-84.578
X-4.102 Y-85.195
Y-85.198
X-4.086 Y-85.802
Y-85.805
X-4.073 Y-86.397
X-4.072 Y-86.4
X-4.062 Y-86.979
Y-86.983
X-4.054 Y-87.548
Y-87.552
X-4.049 Y-88.105
Y-88.109
X-4.047 Y-88.647
Y-88.652
X-4.049 Y-89.176
Y-89.181
X-4.054 Y-89.69
Y-89.696
X-4.063 Y-90.19
Y-90.196
X-4.076 Y-90.675
Y-90.682
X-4.093 Y-91.146
Y-91.154
X-4.113 Y-91.601
X-4.114 Y-91.61
X-4.138 Y-92.041
X-4.139 Y-92.05
X-4.168 Y-92.465
X-4.169 Y-92.475
X-4.202 Y-92.873
X-4.203 Y-92.884
X-4.241 Y-93.265
X-4.242 Y-93.278
X-4.285 Y-93.641
X-4.287 Y-93.655
X-4.334 Y-94
X-4.337 Y-94.016
X-4.389 Y-94.343
X-4.392 Y-94.362
X-4.449 Y-94.67
X-4.473 Y-94.764
X-4.509 Y-94.875
X-4.541 Y-94.956
X-4.582 Y-95.033
X-4.642 Y-95.132
X-4.692 Y-95.204
X-8.101 Y-99.568
G2 X-9.856 Y-99.783 I-0.985 J0.77
G1 X-13.399 Y-97.015
G2 X-13.879 Y-96.03 I0.77 J0.985
G1 Y-91.288
X-13.894 Y-90.904
X-13.895 Y-90.898
X-13.907 Y-90.487
Y-90.481
X-13.917 Y-90.059
Y-90.054
X-13.924 Y-89.62
Y-89.615
X-13.929 Y-89.169
Y-89.165
X-13.931 Y-88.708
Y-88.704
X-13.93 Y-88.237
Y-88.233
X-13.927 Y-87.755
Y-87.752
X-13.922 Y-87.263
Y-87.26
X-13.915 Y-86.762
X-13.914 Y-86.757
X-13.893 Y-85.731
Y-85.726
X-13.865 Y-84.661
Y-84.657
X-13.829 Y-83.556
Y-83.553
X-13.788 Y-82.418
Y-82.415
X-13.741 Y-81.247
Y-81.245
X-13.69 Y-80.045
Y-80.044
X-13.635 Y-78.814
Y-78.813
X-13.578 Y-77.555
X-13.517 Y-76.27
X-13.456 Y-74.958
X-13.393 Y-73.623
X-13.331 Y-72.264
X-13.269 Y-70.882
X-13.208 Y-69.479
X-13.148 Y-68.055
X-13.091 Y-66.61
X-13.037 Y-65.146
X-12.986 Y-63.663
X-12.94 Y-62.161
X-12.897 Y-60.641
X-12.859 Y-59.102
X-12.827 Y-57.546
X-12.799 Y-55.972
X-12.778 Y-54.38
X-12.762 Y-52.771
X-12.753 Y-51.144
X-12.75 Y-49.499
Y-43.015
X-12.759 Y-42.795
X-12.785 Y-42.566
X-12.83 Y-42.312
X-12.894 Y-42.034
X-12.978 Y-41.735
X-13.08 Y-41.415
X-13.2 Y-41.074
X-13.337 Y-40.716
X-13.489 Y-40.341
X-13.654 Y-39.949
X-13.83 Y-39.543
X-14.017 Y-39.122
X-14.211 Y-38.689
X-14.41 Y-38.245
X-14.412 Y-38.241
X-14.816 Y-37.326
X-14.821 Y-37.314
X-15.22 Y-36.369
X-15.228 Y-36.349
X-15.605 Y-35.379
X-15.613 Y-35.359
X-15.788 Y-34.866
X-15.794 Y-34.85
X-15.958 Y-34.353
X-15.964 Y-34.335
X-16.115 Y-33.834
X-16.121 Y-33.814
X-16.258 Y-33.309
X-16.264 Y-33.287
X-16.385 Y-32.779
X-16.39 Y-32.755
X-16.495 Y-32.245
X-16.5 Y-32.219
X-16.586 Y-31.705
X-16.59 Y-31.678
X-16.657 Y-31.16
X-16.66 Y-31.132
X-16.709 Y-30.61
X-16.711 Y-30.582
X-16.74 Y-30.055
X-16.741 Y-30.027
X-16.75 Y-29.494
Y-29.467
X-16.739 Y-28.928
X-16.738 Y-28.902
X-16.709 Y-28.356
X-16.707 Y-28.331
X-16.658 Y-27.779
X-16.655 Y-27.755
X-16.588 Y-27.197
X-16.585 Y-27.174
X-16.499 Y-26.609
X-16.496 Y-26.588
X-16.393 Y-26.017
X-16.389 Y-25.998
X-16.269 Y-25.421
X-16.265 Y-25.403
X-16.129 Y-24.822
X-16.125 Y-24.805
X-15.974 Y-24.221
X-15.969 Y-24.205
X-15.804 Y-23.619
X-15.799 Y-23.603
X-15.619 Y-23.018
X-15.615 Y-23.003
X-15.422 Y-22.42
X-15.417 Y-22.405
X-15.212 Y-21.827
X-15.207 Y-21.812
X-14.99 Y-21.24
X-14.984 Y-21.225
X-14.757 Y-20.662
X-14.751 Y-20.647
X-14.514 Y-20.095
X-14.507 Y-20.079
X-14.261 Y-19.542
X-14.253 Y-19.525
X-13.999 Y-19.003
X-13.99 Y-18.986
X-13.728 Y-18.483
X-13.718 Y-18.464
X-13.45 Y-17.983
X-13.438 Y-17.962
X-13.164 Y-17.504
X-13.15 Y-17.482
X-12.871 Y-17.05
X-12.855 Y-17.026
X-12.571 Y-16.623
X-12.551 Y-16.596
X-12.264 Y-16.223
X-12.24 Y-16.194
X-11.949 Y-15.853
X-11.92 Y-15.821
X-11.627 Y-15.516
X-11.591 Y-15.481
X-11.296 Y-15.212
X-11.251 Y-15.174
X-10.955 Y-14.943
X-10.914 Y-14.914
X-10.766 Y-14.813
X-10.735 Y-14.794
X-10.586 Y-14.703
X-10.551 Y-14.684
X-10.402 Y-14.603
X-10.365 Y-14.585
X-10.215 Y-14.515
X-10.174 Y-14.497
X-10.025 Y-14.438
X-9.98 Y-14.422
X-9.831 Y-14.373
X-9.783 Y-14.36
X-9.633 Y-14.322
X-9.583 Y-14.311
X-9.433 Y-14.284
X-9.381 Y-14.276
X-9.231 Y-14.26
X-9.177 Y-14.256
X-9.027 Y-14.25
X-8.973
X-8.823 Y-14.256
X-8.769 Y-14.26
X-8.619 Y-14.276
X-8.567 Y-14.284
X-8.417 Y-14.311
X-8.367 Y-14.322
X-8.217 Y-14.36
X-8.169 Y-14.373
X-8.02 Y-14.422
X-7.975 Y-14.438
X-7.826 Y-14.497
X-7.785 Y-14.515
X-7.635 Y-14.585
X-7.598 Y-14.603
X-7.449 Y-14.684
X-7.414 Y-14.703
X-7.265 Y-14.794
X-7.234 Y-14.813
X-7.086 Y-14.914
X-7.045 Y-14.943
X-6.749 Y-15.174
X-6.704 Y-15.212
X-6.409 Y-15.481
X-6.373 Y-15.516
X-6.08 Y-15.821
X-6.051 Y-15.854
X-5.76 Y-16.194
X-5.736 Y-16.223
X-5.449 Y-16.596
X-5.429 Y-16.623
X-5.145 Y-17.026
X-5.129 Y-17.05
X-4.85 Y-17.482
X-4.836 Y-17.504
X-4.562 Y-17.962
X-4.55 Y-17.983
X-4.282 Y-18.464
X-4.272 Y-18.483
X-4.01 Y-18.986
X-4.001 Y-19.003
X-3.747 Y-19.525
X-3.739 Y-19.542
X-3.493 Y-20.079
X-3.486 Y-20.095
X-3.249 Y-20.647
X-3.243 Y-20.662
X-3.016 Y-21.225
X-3.01 Y-21.24
X-2.793 Y-21.812
X-2.788 Y-21.827
X-2.583 Y-22.405
X-2.578 Y-22.42
X-2.385 Y-23.003
X-2.38 Y-23.018
X-2.201 Y-23.604
X-2.196 Y-23.619
X-2.031 Y-24.205
X-2.026 Y-24.221
X-1.875 Y-24.805
X-1.871 Y-24.822
X-1.735 Y-25.403
X-1.731 Y-25.421
X-1.611 Y-25.998
X-1.607 Y-26.017
X-1.504 Y-26.588
X-1.501 Y-26.609
X-1.415 Y-27.174
X-1.412 Y-27.197
X-1.345 Y-27.755
X-1.342 Y-27.779
X-1.293 Y-28.331
X-1.291 Y-28.356
X-1.262 Y-28.902
X-1.261 Y-28.928
X-1.25 Y-29.467
Y-29.494
X-1.259 Y-30.027
X-1.26 Y-30.055
X-1.289 Y-30.582
X-1.291 Y-30.61
X-1.339 Y-31.132
X-1.343 Y-31.16
X-1.41 Y-31.678
X-1.414 Y-31.705
X-1.5 Y-32.219
X-1.505 Y-32.245
X-1.61 Y-32.755
X-1.615 Y-32.78
X-1.736 Y-33.287
X-1.742 Y-33.309
X-1.879 Y-33.814
X-1.885 Y-33.834
X-2.036 Y-34.335
X-2.042 Y-34.353
X-2.206 Y-34.85
X-2.212 Y-34.866
X-2.387 Y-35.359
X-2.395 Y-35.379
X-2.772 Y-36.349
X-2.78 Y-36.369
X-3.179 Y-37.314
X-3.184 Y-37.326
X-3.588 Y-38.241
X-3.59 Y-38.245
X-3.789 Y-38.689
X-3.983 Y-39.122
X-4.17 Y-39.543
X-4.346 Y-39.949
X-4.511 Y-40.341
X-4.663 Y-40.716
X-4.8 Y-41.074
X-4.92 Y-41.415
X-5.022 Y-41.735
X-5.106 Y-42.034
X-5.17 Y-42.312
X-5.215 Y-42.566
X-5.241 Y-42.795
X-5.25 Y-43.015
Y-47.653
Y-49.499
X-5.246 Y-51.431
X-5.233 Y-53.335
X-5.212 Y-55.212
X-5.196 Y-56.243
X-5.183 Y-57.061 Z-1.129 F1016
X-5.147 Y-58.884 Z-1.192
X-5.103 Y-60.68 Z-1.255
X-5.053 Y-62.449 Z-1.317
X-4.997 Y-64.19 Z-1.378
X-4.974 Y-64.831 Z-1.4
X-4.936 Y-65.903 F600
X-4.871 Y-67.587
X-4.802 Y-69.242
X-4.731 Y-70.868
X-4.658 Y-72.462
X-4.584 Y-74.025
X-4.511 Y-75.554
X-4.439 Y-77.049
X-4.37 Y-78.507
X-4.304 Y-79.928
Y-79.929
X-4.273 Y-80.624
X-4.243 Y-81.31
Y-81.311
X-4.215 Y-81.985
Y-81.986
X-4.189 Y-82.649
X-4.188 Y-82.651
X-4.164 Y-83.303
Y-83.305
X-4.141 Y-83.945
Y-83.947
X-4.12 Y-84.576
Y-84.578
X-4.102 Y-85.195
Y-85.198
X-4.086 Y-85.802
Y-85.805
X-4.073 Y-86.397
X-4.072 Y-86.4
X-4.062 Y-86.979
Y-86.983
X-4.054 Y-87.548
Y-87.552
X-4.049 Y-88.105
Y-88.109
X-4.047 Y-88.647
Y-88.652
X-4.049 Y-89.176
Y-89.181
X-4.054 Y-89.69
Y-89.696
X-4.063 Y-90.19
Y-90.196
X-4.076 Y-90.675
Y-90.682
X-4.093 Y-91.146
Y-91.154
X-4.113 Y-91.601
X-4.114 Y-91.61
X-4.138 Y-92.041
X-4.139 Y-92.05
X-4.168 Y-92.465
X-4.169 Y-92.475
X-4.202 Y-92.873
X-4.203 Y-92.884
X-4.241 Y-93.265
X-4.242 Y-93.278
X-4.285 Y-93.641
X-4.287 Y-93.655
X-4.334 Y-94
X-4.337 Y-94.016
X-4.389 Y-94.343
X-4.392 Y-94.362
X-4.449 Y-94.67
X-4.473 Y-94.764
X-4.509 Y-94.875
X-4.541 Y-94.956
X-4.582 Y-95.033
X-4.642 Y-95.132
X-4.692 Y-95.204
X-8.101 Y-99.568
G2 X-9.856 Y-99.783 I-0.985 J0.77
G1 X-13.399 Y-97.015
G2 X-13.879 Y-96.03 I0.77 J0.985
G1 Y-91.288
X-13.894 Y-90.904
X-13.895 Y-90.898
X-13.907 Y-90.487
Y-90.481
X-13.917 Y-90.059
Y-90.054
X-13.924 Y-89.62
Y-89.615
X-13.929 Y-89.169
Y-89.165
X-13.931 Y-88.708
Y-88.704
X-13.93 Y-88.237
Y-88.233
X-13.927 Y-87.755
Y-87.752
X-13.922 Y-87.263
Y-87.26
X-13.915 Y-86.762
X-13.914 Y-86.757
X-13.893 Y-85.731
Y-85.726
X-13.865 Y-84.661
Y-84.657
X-13.829 Y-83.556
Y-83.553
X-13.788 Y-82.418
Y-82.415
X-13.741 Y-81.247
Y-81.245
X-13.69 Y-80.045
Y-80.044
X-13.635 Y-78.814
Y-78.813
X-13.578 Y-77.555
X-13.517 Y-76.27
X-13.456 Y-74.958
X-13.393 Y-73.623
X-13.331 Y-72.264
X-13.269 Y-70.882
X-13.208 Y-69.479
X-13.148 Y-68.055
X-13.091 Y-66.61
X-13.037 Y-65.146
X-12.986 Y-63.663
X-12.94 Y-62.161
X-12.897 Y-60.641
X-12.859 Y-59.102
X-12.827 Y-57.546
X-12.799 Y-55.972
X-12.778 Y-54.38
X-12.762 Y-52.771
X-12.753 Y-51.144
X-12.75 Y-49.499
Y-43.015
X-12.759 Y-42.795
X-12.785 Y-42.566
X-12.83 Y-42.312
X-12.894 Y-42.034
X-12.978 Y-41.735
X-13.08 Y-41.415
X-13.2 Y-41.074
X-13.337 Y-40.716
X-13.489 Y-40.341
X-13.654 Y-39.949
X-13.83 Y-39.543
X-14.017 Y-39.122
X-14.211 Y-38.689
X-14.41 Y-38.245
X-14.412 Y-38.241
X-14.816 Y-37.326
X-14.821 Y-37.314
X-15.22 Y-36.369
X-15.228 Y-36.349
X-15.605 Y-35.379
X-15.613 Y-35.359
X-15.788 Y-34.866
X-15.794 Y-34.85
X-15.958 Y-34.353
X-15.964 Y-34.335
X-16.115 Y-33.834
X-16.121 Y-33.814
X-16.258 Y-33.309
X-16.264 Y-33.287
X-16.385 Y-32.779
X-16.39 Y-32.755
X-16.495 Y-32.245
X-16.5 Y-32.219
X-16.586 Y-31.705
X-16.59 Y-31.678
X-16.657 Y-31.16
X-16.66 Y-31.132
X-16.709 Y-30.61
X-16.711 Y-30.582
X-16.74 Y-30.055
X-16.741 Y-30.027
X-16.75 Y-29.494
Y-29.467
X-16.739 Y-28.928
X-16.738 Y-28.902
X-16.709 Y-28.356
X-16.707 Y-28.331
X-16.658 Y-27.779
X-16.655 Y-27.755
X-16.588 Y-27.197
X-16.585 Y-27.174
X-16.499 Y-26.609
X-16.496 Y-26.588
X-16.393 Y-26.017
X-16.389 Y-25.998
X-16.269 Y-25.421
X-16.265 Y-25.403
X-16.129 Y-24.822
X-16.125 Y-24.805
X-15.974 Y-24.221
X-15.969 Y-24.205
X-15.804 Y-23.619
X-15.799 Y-23.603
X-15.619 Y-23.018
X-15.615 Y-23.003
X-15.422 Y-22.42
X-15.417 Y-22.405
X-15.212 Y-21.827
X-15.207 Y-21.812
X-14.99 Y-21.24
X-14.984 Y-21.225
X-14.757 Y-20.662
X-14.751 Y-20.647
X-14.514 Y-20.095
X-14.507 Y-20.079
X-14.261 Y-19.542
X-14.253 Y-19.525
X-13.999 Y-19.003
X-13.99 Y-18.986
X-13.728 Y-18.483
X-13.718 Y-18.464
X-13.45 Y-17.983
X-13.438 Y-17.962
X-13.164 Y-17.504
X-13.15 Y-17.482
X-12.871 Y-17.05
X-12.855 Y-17.026
X-12.571 Y-16.623
X-12.551 Y-16.596
X-12.264 Y-16.223
X-12.24 Y-16.194
X-11.949 Y-15.853
X-11.92 Y-15.821
X-11.627 Y-15.516
X-11.591 Y-15.481
X-11.296 Y-15.212
X-11.251 Y-15.174
X-10.955 Y-14.943
X-10.914 Y-14.914
X-10.766 Y-14.813
X-10.735 Y-14.794
X-10.586 Y-14.703
X-10.551 Y-14.684
X-10.402 Y-14.603
X-10.365 Y-14.585
X-10.215 Y-14.515
X-10.174 Y-14.497
X-10.025 Y-14.438
X-9.98 Y-14.422
X-9.831 Y-14.373
X-9.783 Y-14.36
X-9.633 Y-14.322
X-9.583 Y-14.311
X-9.433 Y-14.284
X-9.381 Y-14.276
X-9.231 Y-14.26
X-9.177 Y-14.256
X-9.027 Y-14.25
X-8.973
X-8.823 Y-14.256
X-8.769 Y-14.26
X-8.619 Y-14.276
X-8.567 Y-14.284
X-8.417 Y-14.311
X-8.367 Y-14.322
X-8.217 Y-14.36
X-8.169 Y-14.373
X-8.02 Y-14.422
X-7.975 Y-14.438
X-7.826 Y-14.497
X-7.785 Y-14.515
X-7.635 Y-14.585
X-7.598 Y-14.603
X-7.449 Y-14.684
X-7.414 Y-14.703
X-7.265 Y-14.794
X-7.234 Y-14.813
X-7.086 Y-14.914
X-7.045 Y-14.943
X-6.749 Y-15.174
X-6.704 Y-15.212
X-6.409 Y-15.481
X-6.373 Y-15.516
X-6.08 Y-15.821
X-6.051 Y-15.854
X-5.76 Y-16.194
X-5.736 Y-16.223
X-5.449 Y-16.596
X-5.429 Y-16.623
X-5.145 Y-17.026
X-5.129 Y-17.05
X-4.85 Y-17.482
X-4.836 Y-17.504
X-4.562 Y-17.962
X-4.55 Y-17.983
X-4.282 Y-18.464
X-4.272 Y-18.483
X-4.01 Y-18.986
X-4.001 Y-19.003
X-3.747 Y-19.525
X-3.739 Y-19.542
X-3.493 Y-20.079
X-3.486 Y-20.095
X-3.249 Y-20.647
X-3.243 Y-20.662
X-3.016 Y-21.225
X-3.01 Y-21.24
X-2.793 Y-21.812
X-2.788 Y-21.827
X-2.583 Y-22.405
X-2.578 Y-22.42
X-2.385 Y-23.003
X-2.38 Y-23.018
X-2.201 Y-23.604
X-2.196 Y-23.619
X-2.031 Y-24.205
X-2.026 Y-24.221
X-1.875 Y-24.805
X-1.871 Y-24.822
X-1.735 Y-25.403
X-1.731 Y-25.421
X-1.611 Y-25.998
X-1.607 Y-26.017
X-1.504 Y-26.588
X-1.501 Y-26.609
X-1.415 Y-27.174
X-1.412 Y-27.197
X-1.345 Y-27.755
X-1.342 Y-27.779
X-1.293 Y-28.331
X-1.291 Y-28.356
X-1.262 Y-28.902
X-1.261 Y-28.928
X-1.25 Y-29.467
Y-29.494
X-1.259 Y-30.027
X-1.26 Y-30.055
X-1.289 Y-30.582
X-1.291 Y-30.61
X-1.339 Y-31.132
X-1.343 Y-31.16
X-1.41 Y-31.678
X-1.414 Y-31.705
X-1.5 Y-32.219
X-1.505 Y-32.245
X-1.61 Y-32.755
X-1.615 Y-32.78
X-1.736 Y-33.287
X-1.742 Y-33.309
X-1.879 Y-33.814
X-1.885 Y-33.834
X-2.036 Y-34.335
X-2.042 Y-34.353
X-2.206 Y-34.85
X-2.212 Y-34.866
X-2.387 Y-35.359
X-2.395 Y-35.379
X-2.772 Y-36.349
X-2.78 Y-36.369
X-3.179 Y-37.314
X-3.184 Y-37.326
X-3.588 Y-38.241
X-3.59 Y-38.245
X-3.789 Y-38.689
X-3.983 Y-39.122
X-4.17 Y-39.543
X-4.346 Y-39.949
X-4.511 Y-40.341
X-4.663 Y-40.716
X-4.8 Y-41.074
X-4.92 Y-41.415
X-5.022 Y-41.735
X-5.106 Y-42.034
X-5.17 Y-42.312
X-5.215 Y-42.566
X-5.241 Y-42.795
X-5.25 Y-43.015
Y-49.499
X-5.246 Y-51.431
X-5.233 Y-53.335
X-5.212 Y-55.212
X-5.196 Y-56.243
X-5.183 Y-57.061
X-5.147 Y-58.884
X-5.103 Y-60.68
X-5.053 Y-62.449
X-4.997 Y-64.19
X-4.974 Y-64.831
X-4.936 Y-65.903 Z-1.437 F1016
X-4.871 Y-67.587 Z-1.496
X-4.802 Y-69.242 Z-1.554
X-4.731 Y-70.868 Z-1.611
X-4.658 Y-72.462 Z-1.667
X-4.613 Y-73.415 Z-1.7
X-4.584 Y-74.025 F600
X-4.511 Y-75.554
X-4.439 Y-77.049
X-4.37 Y-78.507
X-4.304 Y-79.928
Y-79.929
X-4.273 Y-80.624
X-4.243 Y-81.31
Y-81.311
X-4.215 Y-81.985
Y-81.986
X-4.189 Y-82.649
X-4.188 Y-82.651
X-4.164 Y-83.303
Y-83.305
X-4.141 Y-83.945
Y-83.947
X-4.12 Y-84.576
Y-84.578
X-4.102 Y-85.195
Y-85.198
X-4.086 Y-85.802
Y-85.805
X-4.073 Y-86.397
X-4.072 Y-86.4
X-4.062 Y-86.979
Y-86.983
X-4.054 Y-87.548
Y-87.552
X-4.049 Y-88.105
Y-88.109
X-4.047 Y-88.647
Y-88.652
X-4.049 Y-89.176
Y-89.181
X-4.054 Y-89.69
Y-89.696
X-4.063 Y-90.19
Y-90.196
X-4.076 Y-90.675
Y-90.682
X-4.093 Y-91.146
Y-91.154
X-4.113 Y-91.601
X-4.114 Y-91.61
X-4.138 Y-92.041
X-4.139 Y-92.05
X-4.168 Y-92.465
X-4.169 Y-92.475
X-4.202 Y-92.873
X-4.203 Y-92.884
X-4.241 Y-93.265
X-4.242 Y-93.278
X-4.285 Y-93.641
X-4.287 Y-93.655
X-4.334 Y-94
X-4.337 Y-94.016
X-4.389 Y-94.343
X-4.392 Y-94.362
X-4.449 Y-94.67
X-4.473 Y-94.764
X-4.509 Y-94.875
X-4.541 Y-94.956
X-4.582 Y-95.033
X-4.642 Y-95.132
X-4.692 Y-95.204
X-8.101 Y-99.568
G2 X-9.856 Y-99.783 I-0.985 J0.77
G1 X-13.399 Y-97.015
G2 X-13.879 Y-96.03 I0.77 J0.985
G1 Y-91.288
X-13.894 Y-90.904
X-13.895 Y-90.898
X-13.907 Y-90.487
Y-90.481
X-13.917 Y-90.059
Y-90.054
X-13.924 Y-89.62
Y-89.615
X-13.929 Y-89.169
Y-89.165
X-13.931 Y-88.708
Y-88.704
X-13.93 Y-88.237
Y-88.233
X-13.927 Y-87.755
Y-87.752
X-13.922 Y-87.263
Y-87.26
X-13.915 Y-86.762
X-13.914 Y-86.757
X-13.893 Y-85.731
Y-85.726
X-13.865 Y-84.661
Y-84.657
X-13.829 Y-83.556
Y-83.553
X-13.788 Y-82.418
Y-82.415
X-13.741 Y-81.247
Y-81.245
X-13.69 Y-80.045
Y-80.044
X-13.635 Y-78.814
Y-78.813
X-13.578 Y-77.555
X-13.517 Y-76.27
X-13.456 Y-74.958
X-13.393 Y-73.623
X-13.331 Y-72.264
X-13.269 Y-70.882
X-13.208 Y-69.479
X-13.148 Y-68.055
X-13.091 Y-66.61
X-13.037 Y-65.146
X-12.986 Y-63.663
X-12.94 Y-62.161
X-12.897 Y-60.641
X-12.859 Y-59.102
X-12.827 Y-57.546
X-12.799 Y-55.972
X-12.778 Y-54.38
X-12.762 Y-52.771
X-12.753 Y-51.144
X-12.75 Y-49.499
Y-43.015
X-12.759 Y-42.795
X-12.785 Y-42.566
X-12.83 Y-42.312
X-12.894 Y-42.034
X-12.978 Y-41.735
X-13.08 Y-41.415
X-13.2 Y-41.074
X-13.337 Y-40.716
X-13.489 Y-40.341
X-13.654 Y-39.949
X-13.83 Y-39.543
X-14.017 Y-39.122
X-14.211 Y-38.689
X-14.41 Y-38.245
X-14.412 Y-38.241
X-14.816 Y-37.326
X-14.821 Y-37.314
X-15.22 Y-36.369
X-15.228 Y-36.349
X-15.605 Y-35.379
X-15.613 Y-35.359
X-15.788 Y-34.866
X-15.794 Y-34.85
X-15.958 Y-34.353
X-15.964 Y-34.335
X-16.115 Y-33.834
X-16.121 Y-33.814
X-16.258 Y-33.309
X-16.264 Y-33.287
X-16.385 Y-32.779
X-16.39 Y-32.755
X-16.495 Y-32.245
X-16.5 Y-32.219
X-16.586 Y-31.705
X-16.59 Y-31.678
X-16.657 Y-31.16
X-16.66 Y-31.132
X-16.709 Y-30.61
X-16.711 Y-30.582
X-16.74 Y-30.055
X-16.741 Y-30.027
X-16.75 Y-29.494
Y-29.467
X-16.739 Y-28.928
X-16.738 Y-28.902
X-16.709 Y-28.356
X-16.707 Y-28.331
X-16.658 Y-27.779
X-16.655 Y-27.755
X-16.588 Y-27.197
X-16.585 Y-27.174
X-16.499 Y-26.609
X-16.496 Y-26.588
X-16.393 Y-26.017
X-16.389 Y-25.998
X-16.269 Y-25.421
X-16.265 Y-25.403
X-16.129 Y-24.822
X-16.125 Y-24.805
X-15.974 Y-24.221
X-15.969 Y-24.205
X-15.804 Y-23.619
X-15.799 Y-23.603
X-15.619 Y-23.018
X-15.615 Y-23.003
X-15.422 Y-22.42
X-15.417 Y-22.405
X-15.212 Y-21.827
X-15.207 Y-21.812
X-14.99 Y-21.24
X-14.984 Y-21.225
X-14.757 Y-20.662
X-14.751 Y-20.647
X-14.514 Y-20.095
X-14.507 Y-20.079
X-14.261 Y-19.542
X-14.253 Y-19.525
X-13.999 Y-19.003
X-13.99 Y-18.986
X-13.728 Y-18.483
X-13.718 Y-18.464
X-13.45 Y-17.983
X-13.438 Y-17.962
X-13.164 Y-17.504
X-13.15 Y-17.482
X-12.871 Y-17.05
X-12.855 Y-17.026
X-12.571 Y-16.623
X-12.551 Y-16.596
X-12.264 Y-16.223
X-12.24 Y-16.194
X-11.949 Y-15.853
X-11.92 Y-15.821
X-11.627 Y-15.516
X-11.591 Y-15.481
X-11.296 Y-15.212
X-11.251 Y-15.174
X-10.955 Y-14.943
X-10.914 Y-14.914
X-10.766 Y-14.813
X-10.735 Y-14.794
X-10.586 Y-14.703
X-10.551 Y-14.684
X-10.402 Y-14.603
X-10.365 Y-14.585
X-10.215 Y-14.515
X-10.174 Y-14.497
X-10.025 Y-14.438
X-9.98 Y-14.422
X-9.831 Y-14.373
X-9.783 Y-14.36
X-9.633 Y-14.322
X-9.583 Y-14.311
X-9.433 Y-14.284
X-9.381 Y-14.276
X-9.231 Y-14.26
X-9.177 Y-14.256
X-9.027 Y-14.25
X-8.973
X-8.823 Y-14.256
X-8.769 Y-14.26
X-8.619 Y-14.276
X-8.567 Y-14.284
X-8.417 Y-14.311
X-8.367 Y-14.322
X-8.217 Y-14.36
X-8.169 Y-14.373
X-8.02 Y-14.422
X-7.975 Y-14.438
X-7.826 Y-14.497
X-7.785 Y-14.515
X-7.635 Y-14.585
X-7.598 Y-14.603
X-7.449 Y-14.684
X-7.414 Y-14.703
X-7.265 Y-14.794
X-7.234 Y-14.813
X-7.086 Y-14.914
X-7.045 Y-14.943
X-6.749 Y-15.174
X-6.704 Y-15.212
X-6.409 Y-15.481
X-6.373 Y-15.516
X-6.08 Y-15.821
X-6.051 Y-15.854
X-5.76 Y-16.194
X-5.736 Y-16.223
X-5.449 Y-16.596
X-5.429 Y-16.623
X-5.145 Y-17.026
X-5.129 Y-17.05
X-4.85 Y-17.482
X-4.836 Y-17.504
X-4.562 Y-17.962
X-4.55 Y-17.983
X-4.282 Y-18.464
X-4.272 Y-18.483
X-4.01 Y-18.986
X-4.001 Y-19.003
X-3.747 Y-19.525
X-3.739 Y-19.542
X-3.493 Y-20.079
X-3.486 Y-20.095
X-3.249 Y-20.647
X-3.243 Y-20.662
X-3.016 Y-21.225
X-3.01 Y-21.24
X-2.793 Y-21.812
X-2.788 Y-21.827
X-2.583 Y-22.405
X-2.578 Y-22.42
X-2.385 Y-23.003
X-2.38 Y-23.018
X-2.201 Y-23.604
X-2.196 Y-23.619
X-2.031 Y-24.205
X-2.026 Y-24.221
X-1.875 Y-24.805
X-1.871 Y-24.822
X-1.735 Y-25.403
X-1.731 Y-25.421
X-1.611 Y-25.998
X-1.607 Y-26.017
X-1.504 Y-26.588
X-1.501 Y-26.609
X-1.415 Y-27.174
X-1.412 Y-27.197
X-1.345 Y-27.755
X-1.342 Y-27.779
X-1.293 Y-28.331
X-1.291 Y-28.356
X-1.262 Y-28.902
X-1.261 Y-28.928
X-1.25 Y-29.467
Y-29.494
X-1.259 Y-30.027
X-1.26 Y-30.055
X-1.289 Y-30.582
X-1.291 Y-30.61
X-1.339 Y-31.132
X-1.343 Y-31.16
X-1.41 Y-31.678
X-1.414 Y-31.705
X-1.5 Y-32.219
X-1.505 Y-32.245
X-1.61 Y-32.755
X-1.615 Y-32.78
X-1.736 Y-33.287
X-1.742 Y-33.309
X-1.879 Y-33.814
X-1.885 Y-33.834
X-2.036 Y-34.335
X-2.042 Y-34.353
X-2.206 Y-34.85
X-2.212 Y-34.866
X-2.387 Y-35.359
X-2.395 Y-35.379
X-2.772 Y-36.349
X-2.78 Y-36.369
X-3.179 Y-37.314
X-3.184 Y-37.326
X-3.588 Y-38.241
X-3.59 Y-38.245
X-3.789 Y-38.689
X-3.983 Y-39.122
X-4.17 Y-39.543
X-4.346 Y-39.949
X-4.511 Y-40.341
X-4.663 Y-40.716
X-4.8 Y-41.074
X-4.92 Y-41.415
X-5.022 Y-41.735
X-5.106 Y-42.034
X-5.17 Y-42.312
X-5.215 Y-42.566
X-5.241 Y-42.795
X-5.25 Y-43.015
Y-49.499
X-5.246 Y-51.431
X-5.233 Y-53.335
X-5.212 Y-55.212
X-5.183 Y-57.061
X-5.147 Y-58.884
X-5.103 Y-60.68
X-5.053 Y-62.449
X-4.997 Y-64.19
X-4.936 Y-65.903
X-4.871 Y-67.587
X-4.802 Y-69.242
X-4.731 Y-70.868
X-4.658 Y-72.462
X-4.613 Y-73.415
X-4.584 Y-74.025 Z-1.721 F1016
X-4.511 Y-75.554 Z-1.775
X-4.439 Y-77.049 Z-1.827
X-4.37 Y-78.507 Z-1.878
X-4.304 Y-79.928 Z-1.928
Y-79.929
X-4.273 Y-80.624 Z-1.952
X-4.243 Y-81.31 Z-1.976
Y-81.311
X-4.215 Y-81.985 Z-2
Y-81.986
Y-81.996
X-4.189 Y-82.649 F600
X-4.188 Y-82.651
X-4.164 Y-83.303
Y-83.305
X-4.141 Y-83.945
Y-83.947
X-4.12 Y-84.576
Y-84.578
X-4.102 Y-85.195
Y-85.198
X-4.086 Y-85.802
Y-85.805
X-4.073 Y-86.397
X-4.072 Y-86.4
X-4.062 Y-86.979
Y-86.983
X-4.054 Y-87.548
Y-87.552
X-4.049 Y-88.105
Y-88.109
X-4.047 Y-88.647
Y-88.652
X-4.049 Y-89.176
Y-89.181
X-4.054 Y-89.69
Y-89.696
X-4.063 Y-90.19
Y-90.196
X-4.076 Y-90.675
Y-90.682
X-4.093 Y-91.146
Y-91.154
X-4.113 Y-91.601
X-4.114 Y-91.61
X-4.138 Y-92.041
X-4.139 Y-92.05
X-4.168 Y-92.465
X-4.169 Y-92.475
X-4.202 Y-92.873
X-4.203 Y-92.884
X-4.241 Y-93.265
X-4.242 Y-93.278
X-4.285 Y-93.641
X-4.287 Y-93.655
X-4.334 Y-94
X-4.337 Y-94.016
X-4.389 Y-94.343
X-4.392 Y-94.362
X-4.449 Y-94.67
X-4.473 Y-94.764
X-4.509 Y-94.875
X-4.541 Y-94.956
X-4.582 Y-95.033
X-4.642 Y-95.132
X-4.692 Y-95.204
X-8.101 Y-99.568
G2 X-9.856 Y-99.783 I-0.985 J0.77
G1 X-13.399 Y-97.015
G2 X-13.879 Y-96.03 I0.77 J0.985
G1 Y-91.288
X-13.894 Y-90.904
X-13.895 Y-90.898
X-13.907 Y-90.487
Y-90.481
X-13.917 Y-90.059
Y-90.054
X-13.924 Y-89.62
Y-89.615
X-13.929 Y-89.169
Y-89.165
X-13.931 Y-88.708
Y-88.704
X-13.93 Y-88.237
Y-88.233
X-13.927 Y-87.755
Y-87.752
X-13.922 Y-87.263
Y-87.26
X-13.915 Y-86.762
X-13.914 Y-86.757
X-13.893 Y-85.731
Y-85.726
X-13.865 Y-84.661
Y-84.657
X-13.829 Y-83.556
Y-83.553
X-13.788 Y-82.418
Y-82.415
X-13.741 Y-81.247
Y-81.245
X-13.69 Y-80.045
Y-80.044
X-13.635 Y-78.814
Y-78.813
X-13.578 Y-77.555
X-13.517 Y-76.27
X-13.456 Y-74.958
X-13.393 Y-73.623
X-13.331 Y-72.264
X-13.269 Y-70.882
X-13.208 Y-69.479
X-13.148 Y-68.055
X-13.091 Y-66.61
X-13.037 Y-65.146
X-12.986 Y-63.663
X-12.94 Y-62.161
X-12.897 Y-60.641
X-12.859 Y-59.102
X-12.827 Y-57.546
X-12.799 Y-55.972
X-12.778 Y-54.38
X-12.762 Y-52.771
X-12.753 Y-51.144
X-12.75 Y-49.499
Y-43.015
X-12.759 Y-42.795
X-12.785 Y-42.566
X-12.83 Y-42.312
X-12.894 Y-42.034
X-12.978 Y-41.735
X-13.08 Y-41.415
X-13.2 Y-41.074
X-13.337 Y-40.716
X-13.489 Y-40.341
X-13.654 Y-39.949
X-13.83 Y-39.543
X-14.017 Y-39.122
X-14.211 Y-38.689
X-14.41 Y-38.245
X-14.412 Y-38.241
X-14.816 Y-37.326
X-14.821 Y-37.314
X-15.22 Y-36.369
X-15.228 Y-36.349
X-15.605 Y-35.379
X-15.613 Y-35.359
X-15.788 Y-34.866
X-15.794 Y-34.85
X-15.958 Y-34.353
X-15.964 Y-34.335
X-16.115 Y-33.834
X-16.121 Y-33.814
X-16.258 Y-33.309
X-16.264 Y-33.287
X-16.385 Y-32.779
X-16.39 Y-32.755
X-16.495 Y-32.245
X-16.5 Y-32.219
X-16.586 Y-31.705
X-16.59 Y-31.678
X-16.657 Y-31.16
X-16.66 Y-31.132
X-16.709 Y-30.61
X-16.711 Y-30.582
X-16.74 Y-30.055
X-16.741 Y-30.027
X-16.75 Y-29.494
Y-29.467
X-16.739 Y-28.928
X-16.738 Y-28.902
X-16.709 Y-28.356
X-16.707 Y-28.331
X-16.658 Y-27.779
X-16.655 Y-27.755
X-16.588 Y-27.197
X-16.585 Y-27.174
X-16.499 Y-26.609
X-16.496 Y-26.588
X-16.393 Y-26.017
X-16.389 Y-25.998
X-16.269 Y-25.421
X-16.265 Y-25.403
X-16.129 Y-24.822
X-16.125 Y-24.805
X-15.974 Y-24.221
X-15.969 Y-24.205
X-15.804 Y-23.619
X-15.799 Y-23.603
X-15.619 Y-23.018
X-15.615 Y-23.003
X-15.422 Y-22.42
X-15.417 Y-22.405
X-15.212 Y-21.827
X-15.207 Y-21.812
X-14.99 Y-21.24
X-14.984 Y-21.225
X-14.757 Y-20.662
X-14.751 Y-20.647
X-14.514 Y-20.095
X-14.507 Y-20.079
X-14.261 Y-19.542
X-14.253 Y-19.525
X-13.999 Y-19.003
X-13.99 Y-18.986
X-13.728 Y-18.483
X-13.718 Y-18.464
X-13.45 Y-17.983
X-13.438 Y-17.962
X-13.164 Y-17.504
X-13.15 Y-17.482
X-12.871 Y-17.05
X-12.855 Y-17.026
X-12.571 Y-16.623
X-12.551 Y-16.596
X-12.264 Y-16.223
X-12.24 Y-16.194
X-11.949 Y-15.853
X-11.92 Y-15.821
X-11.627 Y-15.516
X-11.591 Y-15.481
X-11.296 Y-15.212
X-11.251 Y-15.174
X-10.955 Y-14.943
X-10.914 Y-14.914
X-10.766 Y-14.813
X-10.735 Y-14.794
X-10.586 Y-14.703
X-10.551 Y-14.684
X-10.402 Y-14.603
X-10.365 Y-14.585
X-10.215 Y-14.515
X-10.174 Y-14.497
X-10.025 Y-14.438
X-9.98 Y-14.422
X-9.831 Y-14.373
X-9.783 Y-14.36
X-9.633 Y-14.322
X-9.583 Y-14.311
X-9.433 Y-14.284
X-9.381 Y-14.276
X-9.231 Y-14.26
X-9.177 Y-14.256
X-9.027 Y-14.25
X-8.973
X-8.823 Y-14.256
X-8.769 Y-14.26
X-8.619 Y-14.276
X-8.567 Y-14.284
X-8.417 Y-14.311
X-8.367 Y-14.322
X-8.217 Y-14.36
X-8.169 Y-14.373
X-8.02 Y-14.422
X-7.975 Y-14.438
X-7.826 Y-14.497
X-7.785 Y-14.515
X-7.635 Y-14.585
X-7.598 Y-14.603
X-7.449 Y-14.684
X-7.414 Y-14.703
X-7.265 Y-14.794
X-7.234 Y-14.813
X-7.086 Y-14.914
X-7.045 Y-14.943
X-6.749 Y-15.174
X-6.704 Y-15.212
X-6.409 Y-15.481
X-6.373 Y-15.516
X-6.08 Y-15.821
X-6.051 Y-15.854
X-5.76 Y-16.194
X-5.736 Y-16.223
X-5.449 Y-16.596
X-5.429 Y-16.623
X-5.145 Y-17.026
X-5.129 Y-17.05
X-4.85 Y-17.482
X-4.836 Y-17.504
X-4.562 Y-17.962
X-4.55 Y-17.983
X-4.282 Y-18.464
X-4.272 Y-18.483
X-4.01 Y-18.986
X-4.001 Y-19.003
X-3.747 Y-19.525
X-3.739 Y-19.542
X-3.493 Y-20.079
X-3.486 Y-20.095
X-3.249 Y-20.647
X-3.243 Y-20.662
X-3.016 Y-21.225
X-3.01 Y-21.24
X-2.793 Y-21.812
X-2.788 Y-21.827
X-2.583 Y-22.405
X-2.578 Y-22.42
X-2.385 Y-23.003
X-2.38 Y-23.018
X-2.201 Y-23.604
X-2.196 Y-23.619
X-2.031 Y-24.205
X-2.026 Y-24.221
X-1.875 Y-24.805
X-1.871 Y-24.822
X-1.735 Y-25.403
X-1.731 Y-25.421
X-1.611 Y-25.998
X-1.607 Y-26.017
X-1.504 Y-26.588
X-1.501 Y-26.609
X-1.415 Y-27.174
X-1.412 Y-27.197
X-1.345 Y-27.755
X-1.342 Y-27.779
X-1.293 Y-28.331
X-1.291 Y-28.356
X-1.262 Y-28.902
X-1.261 Y-28.928
X-1.25 Y-29.467
Y-29.494
X-1.259 Y-30.027
X-1.26 Y-30.055
X-1.289 Y-30.582
X-1.291 Y-30.61
X-1.339 Y-31.132
X-1.343 Y-31.16
X-1.41 Y-31.678
X-1.414 Y-31.705
X-1.5 Y-32.219
X-1.505 Y-32.245
X-1.61 Y-32.755
X-1.615 Y-32.78
X-1.736 Y-33.287
X-1.742 Y-33.309
X-1.879 Y-33.814
X-1.885 Y-33.834
X-2.036 Y-34.335
X-2.042 Y-34.353
X-2.206 Y-34.85
X-2.212 Y-34.866
X-2.387 Y-35.359
X-2.395 Y-35.379
X-2.772 Y-36.349
X-2.78 Y-36.369
X-3.179 Y-37.314
X-3.184 Y-37.326
X-3.588 Y-38.241
X-3.59 Y-38.245
X-3.789 Y-38.689
X-3.983 Y-39.122
X-4.17 Y-39.543
X-4.346 Y-39.949
X-4.511 Y-40.341
X-4.663 Y-40.716
X-4.8 Y-41.074
X-4.92 Y-41.415
X-5.022 Y-41.735
X-5.106 Y-42.034
X-5.17 Y-42.312
X-5.215 Y-42.566
X-5.241 Y-42.795
X-5.25 Y-43.015
Y-49.499
X-5.246 Y-51.431
X-5.233 Y-53.335
X-5.212 Y-55.212
X-5.183 Y-57.061
X-5.147 Y-58.884
X-5.103 Y-60.68
X-5.053 Y-62.449
X-4.997 Y-64.19
X-4.936 Y-65.903
X-4.871 Y-67.587
X-4.802 Y-69.242
X-4.731 Y-70.868
X-4.658 Y-72.462
X-4.613 Y-73.415
X-4.584 Y-74.025
X-4.511 Y-75.554
X-4.439 Y-77.049
X-4.37 Y-78.507
X-4.304 Y-79.928
Y-79.929
X-4.273 Y-80.624
X-4.243 Y-81.31
Y-81.311
X-4.215 Y-81.985
Y-81.986
Y-81.996
X-4.189 Y-82.649 Z-2.023 F1016
X-4.188 Y-82.651
X-4.164 Y-83.303 Z-2.046
Y-83.305
X-4.141 Y-83.945 Z-2.068
Y-83.947
X-4.12 Y-84.576 Z-2.09
Y-84.578
X-4.102 Y-85.195 Z-2.112
Y-85.198
X-4.086 Y-85.802 Z-2.133
Y-85.805
X-4.073 Y-86.397 Z-2.154
X-4.072 Y-86.4
X-4.062 Y-86.979 Z-2.174
Y-86.983
X-4.054 Y-87.548 Z-2.194
Y-87.552
X-4.049 Y-88.105 Z-2.213
Y-88.109 Z-2.214
X-4.047 Y-88.647 Z-2.232
Y-88.652 Z-2.233
X-4.049 Y-89.176 Z-2.251
Y-89.181
X-4.054 Y-89.69 Z-2.269
Y-89.696
X-4.063 Y-90.19 Z-2.286
Y-90.196
X-4.074 Y-90.584 Z-2.3
X-4.076 Y-90.675 F600
Y-90.682
X-4.093 Y-91.146
Y-91.154
X-4.113 Y-91.601
X-4.114 Y-91.61
X-4.138 Y-92.041
X-4.139 Y-92.05
X-4.168 Y-92.465
X-4.169 Y-92.475
X-4.202 Y-92.873
X-4.203 Y-92.884
X-4.241 Y-93.265
X-4.242 Y-93.278
X-4.285 Y-93.641
X-4.287 Y-93.655
X-4.334 Y-94
X-4.337 Y-94.016
X-4.389 Y-94.343
X-4.392 Y-94.362
X-4.449 Y-94.67
X-4.473 Y-94.764
X-4.509 Y-94.875
X-4.541 Y-94.956
X-4.582 Y-95.033
X-4.642 Y-95.132
X-4.692 Y-95.204
X-8.101 Y-99.568
G2 X-9.856 Y-99.783 I-0.985 J0.77
G1 X-13.399 Y-97.015
G2 X-13.879 Y-96.03 I0.77 J0.985
G1 Y-91.288
X-13.894 Y-90.904
X-13.895 Y-90.898
X-13.907 Y-90.487
Y-90.481
X-13.917 Y-90.059
Y-90.054
X-13.924 Y-89.62
Y-89.615
X-13.929 Y-89.169
Y-89.165
X-13.931 Y-88.708
Y-88.704
X-13.93 Y-88.237
Y-88.233
X-13.927 Y-87.755
Y-87.752
X-13.922 Y-87.263
Y-87.26
X-13.915 Y-86.762
X-13.914 Y-86.757
X-13.893 Y-85.731
Y-85.726
X-13.865 Y-84.661
Y-84.657
X-13.829 Y-83.556
Y-83.553
X-13.788 Y-82.418
Y-82.415
X-13.741 Y-81.247
Y-81.245
X-13.69 Y-80.045
Y-80.044
X-13.635 Y-78.814
Y-78.813
X-13.578 Y-77.555
X-13.517 Y-76.27
X-13.456 Y-74.958
X-13.393 Y-73.623
X-13.331 Y-72.264
X-13.269 Y-70.882
X-13.208 Y-69.479
X-13.148 Y-68.055
X-13.091 Y-66.61
X-13.037 Y-65.146
X-12.986 Y-63.663
X-12.94 Y-62.161
X-12.897 Y-60.641
X-12.859 Y-59.102
X-12.827 Y-57.546
X-12.799 Y-55.972
X-12.778 Y-54.38
X-12.762 Y-52.771
X-12.753 Y-51.144
X-12.75 Y-49.499
Y-43.015
X-12.759 Y-42.795
X-12.785 Y-42.566
X-12.83 Y-42.312
X-12.894 Y-42.034
X-12.978 Y-41.735
X-13.08 Y-41.415
X-13.2 Y-41.074
X-13.337 Y-40.716
X-13.489 Y-40.341
X-13.654 Y-39.949
X-13.83 Y-39.543
X-14.017 Y-39.122
X-14.211 Y-38.689
X-14.41 Y-38.245
X-14.412 Y-38.241
X-14.816 Y-37.326
X-14.821 Y-37.314
X-15.22 Y-36.369
X-15.228 Y-36.349
X-15.605 Y-35.379
X-15.613 Y-35.359
X-15.788 Y-34.866
X-15.794 Y-34.85
X-15.958 Y-34.353
X-15.964 Y-34.335
X-16.115 Y-33.834
X-16.121 Y-33.814
X-16.258 Y-33.309
X-16.264 Y-33.287
X-16.385 Y-32.779
X-16.39 Y-32.755
X-16.495 Y-32.245
X-16.5 Y-32.219
X-16.586 Y-31.705
X-16.59 Y-31.678
X-16.657 Y-31.16
X-16.66 Y-31.132
X-16.709 Y-30.61
X-16.711 Y-30.582
X-16.74 Y-30.055
X-16.741 Y-30.027
X-16.75 Y-29.494
Y-29.467
X-16.739 Y-28.928
X-16.738 Y-28.902
X-16.709 Y-28.356
X-16.707 Y-28.331
X-16.658 Y-27.779
X-16.655 Y-27.755
X-16.588 Y-27.197
X-16.585 Y-27.174
X-16.499 Y-26.609
X-16.496 Y-26.588
X-16.393 Y-26.017
X-16.389 Y-25.998
X-16.269 Y-25.421
X-16.265 Y-25.403
X-16.129 Y-24.822
X-16.125 Y-24.805
X-15.974 Y-24.221
X-15.969 Y-24.205
X-15.804 Y-23.619
X-15.799 Y-23.603
X-15.619 Y-23.018
X-15.615 Y-23.003
X-15.422 Y-22.42
X-15.417 Y-22.405
X-15.212 Y-21.827
X-15.207 Y-21.812
X-14.99 Y-21.24
X-14.984 Y-21.225
X-14.757 Y-20.662
X-14.751 Y-20.647
X-14.514 Y-20.095
X-14.507 Y-20.079
X-14.261 Y-19.542
X-14.253 Y-19.525
X-13.999 Y-19.003
X-13.99 Y-18.986
X-13.728 Y-18.483
X-13.718 Y-18.464
X-13.45 Y-17.983
X-13.438 Y-17.962
X-13.164 Y-17.504
X-13.15 Y-17.482
X-12.871 Y-17.05
X-12.855 Y-17.026
X-12.571 Y-16.623
X-12.551 Y-16.596
X-12.264 Y-16.223
X-12.24 Y-16.194
X-11.949 Y-15.853
X-11.92 Y-15.821
X-11.627 Y-15.516
X-11.591 Y-15.481
X-11.296 Y-15.212
X-11.251 Y-15.174
X-10.955 Y-14.943
X-10.914 Y-14.914
X-10.766 Y-14.813
X-10.735 Y-14.794
X-10.586 Y-14.703
X-10.551 Y-14.684
X-10.402 Y-14.603
X-10.365 Y-14.585
X-10.215 Y-14.515
X-10.174 Y-14.497
X-10.025 Y-14.438
X-9.98 Y-14.422
X-9.831 Y-14.373
X-9.783 Y-14.36
X-9.633 Y-14.322
X-9.583 Y-14.311
X-9.433 Y-14.284
X-9.381 Y-14.276
X-9.231 Y-14.26
X-9.177 Y-14.256
X-9.027 Y-14.25
X-8.973
X-8.823 Y-14.256
X-8.769 Y-14.26
X-8.619 Y-14.276
X-8.567 Y-14.284
X-8.417 Y-14.311
X-8.367 Y-14.322
X-8.217 Y-14.36
X-8.169 Y-14.373
X-8.02 Y-14.422
X-7.975 Y-14.438
X-7.826 Y-14.497
X-7.785 Y-14.515
X-7.635 Y-14.585
X-7.598 Y-14.603
X-7.449 Y-14.684
X-7.414 Y-14.703
X-7.265 Y-14.794
X-7.234 Y-14.813
X-7.086 Y-14.914
X-7.045 Y-14.943
X-6.749 Y-15.174
X-6.704 Y-15.212
X-6.409 Y-15.481
X-6.373 Y-15.516
X-6.08 Y-15.821
X-6.051 Y-15.854
X-5.76 Y-16.194
X-5.736 Y-16.223
X-5.449 Y-16.596
X-5.429 Y-16.623
X-5.145 Y-17.026
X-5.129 Y-17.05
X-4.85 Y-17.482
X-4.836 Y-17.504
X-4.562 Y-17.962
X-4.55 Y-17.983
X-4.282 Y-18.464
X-4.272 Y-18.483
X-4.01 Y-18.986
X-4.001 Y-19.003
X-3.747 Y-19.525
X-3.739 Y-19.542
X-3.493 Y-20.079
X-3.486 Y-20.095
X-3.249 Y-20.647
X-3.243 Y-20.662
X-3.016 Y-21.225
X-3.01 Y-21.24
X-2.793 Y-21.812
X-2.788 Y-21.827
X-2.583 Y-22.405
X-2.578 Y-22.42
X-2.385 Y-23.003
X-2.38 Y-23.018
X-2.201 Y-23.604
X-2.196 Y-23.619
X-2.031 Y-24.205
X-2.026 Y-24.221
X-1.875 Y-24.805
X-1.871 Y-24.822
X-1.735 Y-25.403
X-1.731 Y-25.421
X-1.611 Y-25.998
X-1.607 Y-26.017
X-1.504 Y-26.588
X-1.501 Y-26.609
X-1.415 Y-27.174
X-1.412 Y-27.197
X-1.345 Y-27.755
X-1.342 Y-27.779
X-1.293 Y-28.331
X-1.291 Y-28.356
X-1.262 Y-28.902
X-1.261 Y-28.928
X-1.25 Y-29.467
Y-29.494
X-1.259 Y-30.027
X-1.26 Y-30.055
X-1.289 Y-30.582
X-1.291 Y-30.61
X-1.339 Y-31.132
X-1.343 Y-31.16
X-1.41 Y-31.678
X-1.414 Y-31.705
X-1.5 Y-32.219
X-1.505 Y-32.245
X-1.61 Y-32.755
X-1.615 Y-32.78
X-1.736 Y-33.287
X-1.742 Y-33.309
X-1.879 Y-33.814
X-1.885 Y-33.834
X-2.036 Y-34.335
X-2.042 Y-34.353
X-2.206 Y-34.85
X-2.212 Y-34.866
X-2.387 Y-35.359
X-2.395 Y-35.379
X-2.772 Y-36.349
X-2.78 Y-36.369
X-3.179 Y-37.314
X-3.184 Y-37.326
X-3.588 Y-38.241
X-3.59 Y-38.245
X-3.789 Y-38.689
X-3.983 Y-39.122
X-4.17 Y-39.543
X-4.346 Y-39.949
X-4.511 Y-40.341
X-4.663 Y-40.716
X-4.8 Y-41.074
X-4.92 Y-41.415
X-5.022 Y-41.735
X-5.106 Y-42.034
X-5.17 Y-42.312
X-5.215 Y-42.566
X-5.241 Y-42.795
X-5.25 Y-43.015
Y-49.499
X-5.246 Y-51.431
X-5.233 Y-53.335
X-5.212 Y-55.212
X-5.183 Y-57.061
X-5.147 Y-58.884
X-5.103 Y-60.68
X-5.053 Y-62.449
X-4.997 Y-64.19
X-4.936 Y-65.903
X-4.871 Y-67.587
X-4.802 Y-69.242
X-4.731 Y-70.868
X-4.658 Y-72.462
X-4.584 Y-74.025
X-4.511 Y-75.554
X-4.439 Y-77.049
X-4.37 Y-78.507
X-4.304 Y-79.928
Y-79.929
X-4.273 Y-80.624
X-4.243 Y-81.31
Y-81.311
X-4.215 Y-81.985
Y-81.986
X-4.189 Y-82.649
X-4.188 Y-82.651
X-4.164 Y-83.303
Y-83.305
X-4.141 Y-83.945
Y-83.947
X-4.12 Y-84.576
Y-84.578
X-4.102 Y-85.195
Y-85.198
X-4.086 Y-85.802
Y-85.805
X-4.073 Y-86.397
X-4.072 Y-86.4
X-4.062 Y-86.979
Y-86.983
X-4.054 Y-87.548
Y-87.552
X-4.049 Y-88.105
Y-88.109
X-4.047 Y-88.647
Y-88.652
X-4.049 Y-89.176
Y-89.181
X-4.054 Y-89.69
Y-89.696
X-4.063 Y-90.19
Y-90.196
X-4.074 Y-90.584
X-4.076 Y-90.675 Z-2.303 F1016
Y-90.682
X-4.093 Y-91.146 Z-2.32
Y-91.154
X-4.113 Y-91.601 Z-2.336
X-4.114 Y-91.61
X-4.138 Y-92.041 Z-2.351
X-4.139 Y-92.05
X-4.168 Y-92.465 Z-2.366
X-4.169 Y-92.475
X-4.202 Y-92.873 Z-2.38
X-4.203 Y-92.884
X-4.241 Y-93.265 Z-2.394
X-4.242 Y-93.278
X-4.285 Y-93.641 Z-2.407
X-4.287 Y-93.655 Z-2.408
X-4.334 Y-94 Z-2.42
X-4.337 Y-94.016
X-4.389 Y-94.343 Z-2.432
X-4.392 Y-94.362
X-4.449 Y-94.67 Z-2.443
X-4.473 Y-94.764 Z-2.447
X-4.509 Y-94.875 Z-2.451
X-4.541 Y-94.956 Z-2.454
X-4.582 Y-95.033 Z-2.457
X-4.642 Y-95.132 Z-2.461
X-4.692 Y-95.204 Z-2.464
X-7.088 Y-98.271 Z-2.6
X-8.101 Y-99.568 F600
G2 X-9.856 Y-99.783 I-0.985 J0.77
G1 X-13.399 Y-97.015
G2 X-13.879 Y-96.03 I0.77 J0.985
G1 Y-91.288
X-13.894 Y-90.904
X-13.895 Y-90.898
X-13.907 Y-90.487
Y-90.481
X-13.917 Y-90.059
Y-90.054
X-13.924 Y-89.62
Y-89.615
X-13.929 Y-89.169
Y-89.165
X-13.931 Y-88.708
Y-88.704
X-13.93 Y-88.237
Y-88.233
X-13.927 Y-87.755
Y-87.752
X-13.922 Y-87.263
Y-87.26
X-13.915 Y-86.762
X-13.914 Y-86.757
X-13.893 Y-85.731
Y-85.726
X-13.865 Y-84.661
Y-84.657
X-13.829 Y-83.556
Y-83.553
X-13.788 Y-82.418
Y-82.415
X-13.741 Y-81.247
Y-81.245
X-13.69 Y-80.045
Y-80.044
X-13.635 Y-78.814
Y-78.813
X-13.578 Y-77.555
X-13.517 Y-76.27
X-13.456 Y-74.958
X-13.393 Y-73.623
X-13.331 Y-72.264
X-13.269 Y-70.882
X-13.208 Y-69.479
X-13.148 Y-68.055
X-13.091 Y-66.61
X-13.037 Y-65.146
X-12.986 Y-63.663
X-12.94 Y-62.161
X-12.897 Y-60.641
X-12.859 Y-59.102
X-12.827 Y-57.546
X-12.799 Y-55.972
X-12.778 Y-54.38
X-12.762 Y-52.771
X-12.753 Y-51.144
X-12.75 Y-49.499
Y-43.015
X-12.759 Y-42.795
X-12.785 Y-42.566
X-12.83 Y-42.312
X-12.894 Y-42.034
X-12.978 Y-41.735
X-13.08 Y-41.415
X-13.2 Y-41.074
X-13.337 Y-40.716
X-13.489 Y-40.341
X-13.654 Y-39.949
X-13.83 Y-39.543
X-14.017 Y-39.122
X-14.211 Y-38.689
X-14.41 Y-38.245
X-14.412 Y-38.241
X-14.816 Y-37.326
X-14.821 Y-37.314
X-15.22 Y-36.369
X-15.228 Y-36.349
X-15.605 Y-35.379
X-15.613 Y-35.359
X-15.788 Y-34.866
X-15.794 Y-34.85
X-15.958 Y-34.353
X-15.964 Y-34.335
X-16.115 Y-33.834
X-16.121 Y-33.814
X-16.258 Y-33.309
X-16.264 Y-33.287
X-16.385 Y-32.779
X-16.39 Y-32.755
X-16.495 Y-32.245
X-16.5 Y-32.219
X-16.586 Y-31.705
X-16.59 Y-31.678
X-16.657 Y-31.16
X-16.66 Y-31.132
X-16.709 Y-30.61
X-16.711 Y-30.582
X-16.74 Y-30.055
X-16.741 Y-30.027
X-16.75 Y-29.494
Y-29.467
X-16.739 Y-28.928
X-16.738 Y-28.902
X-16.709 Y-28.356
X-16.707 Y-28.331
X-16.658 Y-27.779
X-16.655 Y-27.755
X-16.588 Y-27.197
X-16.585 Y-27.174
X-16.499 Y-26.609
X-16.496 Y-26.588
X-16.393 Y-26.017
X-16.389 Y-25.998
X-16.269 Y-25.421
X-16.265 Y-25.403
X-16.129 Y-24.822
X-16.125 Y-24.805
X-15.974 Y-24.221
X-15.969 Y-24.205
X-15.804 Y-23.619
X-15.799 Y-23.603
X-15.619 Y-23.018
X-15.615 Y-23.003
X-15.422 Y-22.42
X-15.417 Y-22.405
X-15.212 Y-21.827
X-15.207 Y-21.812
X-14.99 Y-21.24
X-14.984 Y-21.225
X-14.757 Y-20.662
X-14.751 Y-20.647
X-14.514 Y-20.095
X-14.507 Y-20.079
X-14.261 Y-19.542
X-14.253 Y-19.525
X-13.999 Y-19.003
X-13.99 Y-18.986
X-13.728 Y-18.483
X-13.718 Y-18.464
X-13.45 Y-17.983
X-13.438 Y-17.962
X-13.164 Y-17.504
X-13.15 Y-17.482
X-12.871 Y-17.05
X-12.855 Y-17.026
X-12.571 Y-16.623
X-12.551 Y-16.596
X-12.264 Y-16.223
X-12.24 Y-16.194
X-11.949 Y-15.853
X-11.92 Y-15.821
X-11.627 Y-15.516
X-11.591 Y-15.481
X-11.296 Y-15.212
X-11.251 Y-15.174
X-10.955 Y-14.943
X-10.914 Y-14.914
X-10.766 Y-14.813
X-10.735 Y-14.794
X-10.586 Y-14.703
X-10.551 Y-14.684
X-10.402 Y-14.603
X-10.365 Y-14.585
X-10.215 Y-14.515
X-10.174 Y-14.497
X-10.025 Y-14.438
X-9.98 Y-14.422
X-9.831 Y-14.373
X-9.783 Y-14.36
X-9.633 Y-14.322
X-9.583 Y-14.311
X-9.433 Y-14.284
X-9.381 Y-14.276
X-9.231 Y-14.26
X-9.177 Y-14.256
X-9.027 Y-14.25
X-8.973
X-8.823 Y-14.256
X-8.769 Y-14.26
X-8.619 Y-14.276
X-8.567 Y-14.284
X-8.417 Y-14.311
X-8.367 Y-14.322
X-8.217 Y-14.36
X-8.169 Y-14.373
X-8.02 Y-14.422
X-7.975 Y-14.438
X-7.826 Y-14.497
X-7.785 Y-14.515
X-7.635 Y-14.585
X-7.598 Y-14.603
X-7.449 Y-14.684
X-7.414 Y-14.703
X-7.265 Y-14.794
X-7.234 Y-14.813
X-7.086 Y-14.914
X-7.045 Y-14.943
X-6.749 Y-15.174
X-6.704 Y-15.212
X-6.409 Y-15.481
X-6.373 Y-15.516
X-6.08 Y-15.821
X-6.051 Y-15.854
X-5.76 Y-16.194
X-5.736 Y-16.223
X-5.449 Y-16.596
X-5.429 Y-16.623
X-5.145 Y-17.026
X-5.129 Y-17.05
X-4.85 Y-17.482
X-4.836 Y-17.504
X-4.562 Y-17.962
X-4.55 Y-17.983
X-4.282 Y-18.464
X-4.272 Y-18.483
X-4.01 Y-18.986
X-4.001 Y-19.003
X-3.747 Y-19.525
X-3.739 Y-19.542
X-3.493 Y-20.079
X-3.486 Y-20.095
X-3.249 Y-20.647
X-3.243 Y-20.662
X-3.016 Y-21.225
X-3.01 Y-21.24
X-2.793 Y-21.812
X-2.788 Y-21.827
X-2.583 Y-22.405
X-2.578 Y-22.42
X-2.385 Y-23.003
X-2.38 Y-23.018
X-2.201 Y-23.604
X-2.196 Y-23.619
X-2.031 Y-24.205
X-2.026 Y-24.221
X-1.875 Y-24.805
X-1.871 Y-24.822
X-1.735 Y-25.403
X-1.731 Y-25.421
X-1.611 Y-25.998
X-1.607 Y-26.017
X-1.504 Y-26.588
X-1.501 Y-26.609
X-1.415 Y-27.174
X-1.412 Y-27.197
X-1.345 Y-27.755
X-1.342 Y-27.779
X-1.293 Y-28.331
X-1.291 Y-28.356
X-1.262 Y-28.902
X-1.261 Y-28.928
X-1.25 Y-29.467
Y-29.494
X-1.259 Y-30.027
X-1.26 Y-30.055
X-1.289 Y-30.582
X-1.291 Y-30.61
X-1.339 Y-31.132
X-1.343 Y-31.16
X-1.41 Y-31.678
X-1.414 Y-31.705
X-1.5 Y-32.219
X-1.505 Y-32.245
X-1.61 Y-32.755
X-1.615 Y-32.78
X-1.736 Y-33.287
X-1.742 Y-33.309
X-1.879 Y-33.814
X-1.885 Y-33.834
X-2.036 Y-34.335
X-2.042 Y-34.353
X-2.206 Y-34.85
X-2.212 Y-34.866
X-2.387 Y-35.359
X-2.395 Y-35.379
X-2.772 Y-36.349
X-2.78 Y-36.369
X-3.179 Y-37.314
X-3.184 Y-37.326
X-3.588 Y-38.241
X-3.59 Y-38.245
X-3.789 Y-38.689
X-3.983 Y-39.122
X-4.17 Y-39.543
X-4.346 Y-39.949
X-4.511 Y-40.341
X-4.663 Y-40.716
X-4.8 Y-41.074
X-4.92 Y-41.415
X-5.022 Y-41.735
X-5.106 Y-42.034
X-5.17 Y-42.312
X-5.215 Y-42.566
X-5.241 Y-42.795
X-5.25 Y-43.015
Y-49.499
X-5.246 Y-51.431
X-5.233 Y-53.335
X-5.212 Y-55.212
X-5.183 Y-57.061
X-5.147 Y-58.884
X-5.103 Y-60.68
X-5.053 Y-62.449
X-4.997 Y-64.19
X-4.936 Y-65.903
X-4.871 Y-67.587
X-4.802 Y-69.242
X-4.731 Y-70.868
X-4.658 Y-72.462
X-4.584 Y-74.025
X-4.511 Y-75.554
X-4.439 Y-77.049
X-4.37 Y-78.507
X-4.304 Y-79.928
Y-79.929
X-4.273 Y-80.624
X-4.243 Y-81.31
Y-81.311
X-4.215 Y-81.985
Y-81.986
X-4.189 Y-82.649
X-4.188 Y-82.651
X-4.164 Y-83.303
Y-83.305
X-4.141 Y-83.945
Y-83.947
X-4.12 Y-84.576
Y-84.578
X-4.102 Y-85.195
Y-85.198
X-4.086 Y-85.802
Y-85.805
X-4.073 Y-86.397
X-4.072 Y-86.4
X-4.062 Y-86.979
Y-86.983
X-4.054 Y-87.548
Y-87.552
X-4.049 Y-88.105
Y-88.109
X-4.047 Y-88.647
Y-88.652
X-4.049 Y-89.176
Y-89.181
X-4.054 Y-89.69
Y-89.696
X-4.063 Y-90.19
Y-90.196
X-4.074 Y-90.584
X-4.076 Y-90.675
Y-90.682
X-4.093 Y-91.146
Y-91.154
X-4.113 Y-91.601
X-4.114 Y-91.61
X-4.138 Y-92.041
X-4.139 Y-92.05
X-4.168 Y-92.465
X-4.169 Y-92.475
X-4.202 Y-92.873
X-4.203 Y-92.884
X-4.241 Y-93.265
X-4.242 Y-93.278
X-4.285 Y-93.641
X-4.287 Y-93.655
X-4.334 Y-94
X-4.337 Y-94.016
X-4.389 Y-94.343
X-4.392 Y-94.362
X-4.449 Y-94.67
X-4.473 Y-94.764
X-4.509 Y-94.875
X-4.541 Y-94.956
X-4.582 Y-95.033
X-4.642 Y-95.132
X-4.692 Y-95.204
X-7.088 Y-98.271
X-8.101 Y-99.568 Z-2.657 F1016
G2 X-9.856 Y-99.783 Z-2.726 I-0.985 J0.77
G1 X-13.399 Y-97.015 Z-2.883
G2 X-13.715 Y-96.65 Z-2.9 I0.77 J0.985
X-13.879 Y-96.03 I1.085 J0.62 F600
G1 Y-91.288
X-13.894 Y-90.904
X-13.895 Y-90.898
X-13.907 Y-90.487
Y-90.481
X-13.917 Y-90.059
Y-90.054
X-13.924 Y-89.62
Y-89.615
X-13.929 Y-89.169
Y-89.165
X-13.931 Y-88.708
Y-88.704
X-13.93 Y-88.237
Y-88.233
X-13.927 Y-87.755
Y-87.752
X-13.922 Y-87.263
Y-87.26
X-13.915 Y-86.762
X-13.914 Y-86.757
X-13.893 Y-85.731
Y-85.726
X-13.865 Y-84.661
Y-84.657
X-13.829 Y-83.556
Y-83.553
X-13.788 Y-82.418
Y-82.415
X-13.741 Y-81.247
Y-81.245
X-13.69 Y-80.045
Y-80.044
X-13.635 Y-78.814
Y-78.813
X-13.578 Y-77.555
X-13.517 Y-76.27
X-13.456 Y-74.958
X-13.393 Y-73.623
X-13.331 Y-72.264
X-13.269 Y-70.882
X-13.208 Y-69.479
X-13.148 Y-68.055
X-13.091 Y-66.61
X-13.037 Y-65.146
X-12.986 Y-63.663
X-12.94 Y-62.161
X-12.897 Y-60.641
X-12.859 Y-59.102
X-12.827 Y-57.546
X-12.799 Y-55.972
X-12.778 Y-54.38
X-12.762 Y-52.771
X-12.753 Y-51.144
X-12.75 Y-49.499
Y-43.015
X-12.759 Y-42.795
X-12.785 Y-42.566
X-12.83 Y-42.312
X-12.894 Y-42.034
X-12.978 Y-41.735
X-13.08 Y-41.415
X-13.2 Y-41.074
X-13.337 Y-40.716
X-13.489 Y-40.341
X-13.654 Y-39.949
X-13.83 Y-39.543
X-14.017 Y-39.122
X-14.211 Y-38.689
X-14.41 Y-38.245
X-14.412 Y-38.241
X-14.816 Y-37.326
X-14.821 Y-37.314
X-15.22 Y-36.369
X-15.228 Y-36.349
X-15.605 Y-35.379
X-15.613 Y-35.359
X-15.788 Y-34.866
X-15.794 Y-34.85
X-15.958 Y-34.353
X-15.964 Y-34.335
X-16.115 Y-33.834
X-16.121 Y-33.814
X-16.258 Y-33.309
X-16.264 Y-33.287
X-16.385 Y-32.779
X-16.39 Y-32.755
X-16.495 Y-32.245
X-16.5 Y-32.219
X-16.586 Y-31.705
X-16.59 Y-31.678
X-16.657 Y-31.16
X-16.66 Y-31.132
X-16.709 Y-30.61
X-16.711 Y-30.582
X-16.74 Y-30.055
X-16.741 Y-30.027
X-16.75 Y-29.494
Y-29.467
X-16.739 Y-28.928
X-16.738 Y-28.902
X-16.709 Y-28.356
X-16.707 Y-28.331
X-16.658 Y-27.779
X-16.655 Y-27.755
X-16.588 Y-27.197
X-16.585 Y-27.174
X-16.499 Y-26.609
X-16.496 Y-26.588
X-16.393 Y-26.017
X-16.389 Y-25.998
X-16.269 Y-25.421
X-16.265 Y-25.403
X-16.129 Y-24.822
X-16.125 Y-24.805
X-15.974 Y-24.221
X-15.969 Y-24.205
X-15.804 Y-23.619
X-15.799 Y-23.603
X-15.619 Y-23.018
X-15.615 Y-23.003
X-15.422 Y-22.42
X-15.417 Y-22.405
X-15.212 Y-21.827
X-15.207 Y-21.812
X-14.99 Y-21.24
X-14.984 Y-21.225
X-14.757 Y-20.662
X-14.751 Y-20.647
X-14.514 Y-20.095
X-14.507 Y-20.079
X-14.261 Y-19.542
X-14.253 Y-19.525
X-13.999 Y-19.003
X-13.99 Y-18.986
X-13.728 Y-18.483
X-13.718 Y-18.464
X-13.45 Y-17.983
X-13.438 Y-17.962
X-13.164 Y-17.504
X-13.15 Y-17.482
X-12.871 Y-17.05
X-12.855 Y-17.026
X-12.571 Y-16.623
X-12.551 Y-16.596
X-12.264 Y-16.223
X-12.24 Y-16.194
X-11.949 Y-15.853
X-11.92 Y-15.821
X-11.627 Y-15.516
X-11.591 Y-15.481
X-11.296 Y-15.212
X-11.251 Y-15.174
X-10.955 Y-14.943
X-10.914 Y-14.914
X-10.766 Y-14.813
X-10.735 Y-14.794
X-10.586 Y-14.703
X-10.551 Y-14.684
X-10.402 Y-14.603
X-10.365 Y-14.585
X-10.215 Y-14.515
X-10.174 Y-14.497
X-10.025 Y-14.438
X-9.98 Y-14.422
X-9.831 Y-14.373
X-9.783 Y-14.36
X-9.633 Y-14.322
X-9.583 Y-14.311
X-9.433 Y-14.284
X-9.381 Y-14.276
X-9.231 Y-14.26
X-9.177 Y-14.256
X-9.027 Y-14.25
X-8.973
X-8.823 Y-14.256
X-8.769 Y-14.26
X-8.619 Y-14.276
X-8.567 Y-14.284
X-8.417 Y-14.311
X-8.367 Y-14.322
X-8.217 Y-14.36
X-8.169 Y-14.373
X-8.02 Y-14.422
X-7.975 Y-14.438
X-7.826 Y-14.497
X-7.785 Y-14.515
X-7.635 Y-14.585
X-7.598 Y-14.603
X-7.449 Y-14.684
X-7.414 Y-14.703
X-7.265 Y-14.794
X-7.234 Y-14.813
X-7.086 Y-14.914
X-7.045 Y-14.943
X-6.749 Y-15.174
X-6.704 Y-15.212
X-6.409 Y-15.481
X-6.373 Y-15.516
X-6.08 Y-15.821
X-6.051 Y-15.854
X-5.76 Y-16.194
X-5.736 Y-16.223
X-5.449 Y-16.596
X-5.429 Y-16.623
X-5.145 Y-17.026
X-5.129 Y-17.05
X-4.85 Y-17.482
X-4.836 Y-17.504
X-4.562 Y-17.962
X-4.55 Y-17.983
X-4.282 Y-18.464
X-4.272 Y-18.483
X-4.01 Y-18.986
X-4.001 Y-19.003
X-3.747 Y-19.525
X-3.739 Y-19.542
X-3.493 Y-20.079
X-3.486 Y-20.095
X-3.249 Y-20.647
X-3.243 Y-20.662
X-3.016 Y-21.225
X-3.01 Y-21.24
X-2.793 Y-21.812
X-2.788 Y-21.827
X-2.583 Y-22.405
X-2.578 Y-22.42
X-2.385 Y-23.003
X-2.38 Y-23.018
X-2.201 Y-23.604
X-2.196 Y-23.619
X-2.031 Y-24.205
X-2.026 Y-24.221
X-1.875 Y-24.805
X-1.871 Y-24.822
X-1.735 Y-25.403
X-1.731 Y-25.421
X-1.611 Y-25.998
X-1.607 Y-26.017
X-1.504 Y-26.588
X-1.501 Y-26.609
X-1.415 Y-27.174
X-1.412 Y-27.197
X-1.345 Y-27.755
X-1.342 Y-27.779
X-1.293 Y-28.331
X-1.291 Y-28.356
X-1.262 Y-28.902
X-1.261 Y-28.928
X-1.25 Y-29.467
Y-29.494
X-1.259 Y-30.027
X-1.26 Y-30.055
X-1.289 Y-30.582
X-1.291 Y-30.61
X-1.339 Y-31.132
X-1.343 Y-31.16
X-1.41 Y-31.678
X-1.414 Y-31.705
X-1.5 Y-32.219
X-1.505 Y-32.245
X-1.61 Y-32.755
X-1.615 Y-32.78
X-1.736 Y-33.287
X-1.742 Y-33.309
X-1.879 Y-33.814
X-1.885 Y-33.834
X-2.036 Y-34.335
X-2.042 Y-34.353
X-2.206 Y-34.85
X-2.212 Y-34.866
X-2.387 Y-35.359
X-2.395 Y-35.379
X-2.772 Y-36.349
X-2.78 Y-36.369
X-3.179 Y-37.314
X-3.184 Y-37.326
X-3.588 Y-38.241
X-3.59 Y-38.245
X-3.789 Y-38.689
X-3.983 Y-39.122
X-4.17 Y-39.543
X-4.346 Y-39.949
X-4.511 Y-40.341
X-4.663 Y-40.716
X-4.8 Y-41.074
X-4.92 Y-41.415
X-5.022 Y-41.735
X-5.106 Y-42.034
X-5.17 Y-42.312
X-5.215 Y-42.566
X-5.241 Y-42.795
X-5.25 Y-43.015
Y-49.499
X-5.246 Y-51.431
X-5.233 Y-53.335
X-5.212 Y-55.212
X-5.183 Y-57.061
X-5.147 Y-58.884
X-5.103 Y-60.68
X-5.053 Y-62.449
X-4.997 Y-64.19
X-4.936 Y-65.903
X-4.871 Y-67.587
X-4.802 Y-69.242
X-4.731 Y-70.868
X-4.658 Y-72.462
X-4.584 Y-74.025
X-4.511 Y-75.554
X-4.439 Y-77.049
X-4.37 Y-78.507
X-4.304 Y-79.928
Y-79.929
X-4.273 Y-80.624
X-4.243 Y-81.31
Y-81.311
X-4.215 Y-81.985
Y-81.986
X-4.189 Y-82.649
X-4.188 Y-82.651
X-4.164 Y-83.303
Y-83.305
X-4.141 Y-83.945
Y-83.947
X-4.12 Y-84.576
Y-84.578
X-4.102 Y-85.195
Y-85.198
X-4.086 Y-85.802
Y-85.805
X-4.073 Y-86.397
X-4.072 Y-86.4
X-4.062 Y-86.979
Y-86.983
X-4.054 Y-87.548
Y-87.552
X-4.049 Y-88.105
Y-88.109
X-4.047 Y-88.647
Y-88.652
X-4.049 Y-89.176
Y-89.181
X-4.054 Y-89.69
Y-89.696
X-4.063 Y-90.19
Y-90.196
X-4.076 Y-90.675
Y-90.682
X-4.093 Y-91.146
Y-91.154
X-4.113 Y-91.601
X-4.114 Y-91.61
X-4.138 Y-92.041
X-4.139 Y-92.05
X-4.168 Y-92.465
X-4.169 Y-92.475
X-4.202 Y-92.873
X-4.203 Y-92.884
X-4.241 Y-93.265
X-4.242 Y-93.278
X-4.285 Y-93.641
X-4.287 Y-93.655
X-4.334 Y-94
X-4.337 Y-94.016
X-4.389 Y-94.343
X-4.392 Y-94.362
X-4.449 Y-94.67
X-4.473 Y-94.764
X-4.509 Y-94.875
X-4.541 Y-94.956
X-4.582 Y-95.033
X-4.642 Y-95.132
X-4.692 Y-95.204
X-7.088 Y-98.271
X-8.101 Y-99.568
G2 X-9.856 Y-99.783 I-0.985 J0.77
G1 X-13.399 Y-97.015
G2 X-13.715 Y-96.65 I0.77 J0.985
X-13.879 Y-96.03 Z-2.923 I1.085 J0.62 F1016
G1 Y-91.288 Z-3.088
X-13.894 Y-90.904 Z-3.102
X-13.895 Y-90.898
X-13.907 Y-90.487 Z-3.116
Y-90.481
X-13.917 Y-90.059 Z-3.131
Y-90.054
X-13.924 Y-89.62 Z-3.147
Y-89.615
X-13.929 Y-89.169 Z-3.162
Y-89.165
X-13.931 Y-88.708 Z-3.178
Y-88.704 Z-3.179
X-13.93 Y-88.237 Z-3.195
Y-88.233
X-13.929 Y-88.089 Z-3.2
X-13.927 Y-87.755 F600
Y-87.752
X-13.922 Y-87.263
Y-87.26
X-13.915 Y-86.762
X-13.914 Y-86.757
X-13.893 Y-85.731
Y-85.726
X-13.865 Y-84.661
Y-84.657
X-13.829 Y-83.556
Y-83.553
X-13.788 Y-82.418
Y-82.415
X-13.741 Y-81.247
Y-81.245
X-13.69 Y-80.045
Y-80.044
X-13.635 Y-78.814
Y-78.813
X-13.578 Y-77.555
X-13.517 Y-76.27
X-13.475 Y-75.371
Z-3
X-13.456 Y-74.958
X-13.393 Y-73.623
X-13.331 Y-72.264
X-13.313 Y-71.875
Z-3.2 F300
X-13.269 Y-70.882 F600
X-13.208 Y-69.479
X-13.148 Y-68.055
X-13.091 Y-66.61
X-13.037 Y-65.146
X-12.986 Y-63.663
X-12.94 Y-62.161
X-12.897 Y-60.641
X-12.859 Y-59.102
X-12.827 Y-57.546
X-12.799 Y-55.972
X-12.778 Y-54.38
X-12.762 Y-52.771
X-12.753 Y-51.144
X-12.75 Y-49.499
Y-43.015
X-12.759 Y-42.795
X-12.785 Y-42.566
X-12.83 Y-42.312
X-12.894 Y-42.034
X-12.978 Y-41.735
X-13.08 Y-41.415
X-13.2 Y-41.074
X-13.337 Y-40.716
X-13.489 Y-40.341
X-13.654 Y-39.949
X-13.83 Y-39.543
X-14.017 Y-39.122
X-14.211 Y-38.689
X-14.41 Y-38.245
X-14.412 Y-38.241
X-14.816 Y-37.326
X-14.821 Y-37.314
X-15.22 Y-36.369
X-15.228 Y-36.349
X-15.605 Y-35.379
X-15.613 Y-35.359
X-15.788 Y-34.866
X-15.794 Y-34.85
X-15.958 Y-34.353
X-15.964 Y-34.335
X-16.115 Y-33.834
X-16.121 Y-33.814
X-16.258 Y-33.309
X-16.264 Y-33.287
X-16.385 Y-32.779
X-16.39 Y-32.755
X-16.495 Y-32.245
X-16.5 Y-32.219
X-16.586 Y-31.705
X-16.59 Y-31.678
X-16.657 Y-31.16
X-16.66 Y-31.132
X-16.709 Y-30.61
X-16.711 Y-30.582
X-16.74 Y-30.055
X-16.741 Y-30.027
X-16.75 Y-29.494
Y-29.467
X-16.739 Y-28.928
X-16.738 Y-28.902
X-16.709 Y-28.356
X-16.707 Y-28.331
X-16.658 Y-27.779
X-16.655 Y-27.755
X-16.588 Y-27.197
X-16.585 Y-27.174
X-16.499 Y-26.609
X-16.496 Y-26.588
X-16.393 Y-26.017
X-16.389 Y-25.998
X-16.269 Y-25.421
X-16.265 Y-25.403
X-16.129 Y-24.822
X-16.125 Y-24.805
X-15.974 Y-24.221
X-15.969 Y-24.205
X-15.804 Y-23.619
X-15.799 Y-23.603
X-15.619 Y-23.018
X-15.615 Y-23.003
X-15.422 Y-22.42
X-15.417 Y-22.405
X-15.212 Y-21.827
X-15.207 Y-21.812
X-14.99 Y-21.24
X-14.984 Y-21.225
X-14.757 Y-20.662
X-14.751 Y-20.647
X-14.514 Y-20.095
X-14.507 Y-20.079
X-14.261 Y-19.542
X-14.253 Y-19.525
X-13.999 Y-19.003
X-13.99 Y-18.986
X-13.728 Y-18.483
X-13.718 Y-18.464
X-13.45 Y-17.983
X-13.438 Y-17.962
X-13.164 Y-17.504
X-13.15 Y-17.482
X-12.871 Y-17.05
X-12.855 Y-17.026
X-12.571 Y-16.623
X-12.551 Y-16.596
X-12.264 Y-16.223
X-12.24 Y-16.194
X-11.949 Y-15.853
X-11.92 Y-15.821
X-11.627 Y-15.516
X-11.591 Y-15.481
X-11.296 Y-15.212
X-11.251 Y-15.174
X-10.955 Y-14.943
X-10.914 Y-14.914
X-10.766 Y-14.813
X-10.75 Y-14.803
Z-3
X-10.735 Y-14.794
X-10.586 Y-14.703
X-10.551 Y-14.684
X-10.402 Y-14.603
X-10.365 Y-14.585
X-10.215 Y-14.515
X-10.174 Y-14.497
X-10.025 Y-14.438
X-9.98 Y-14.422
X-9.831 Y-14.373
X-9.783 Y-14.36
X-9.633 Y-14.322
X-9.583 Y-14.311
X-9.433 Y-14.284
X-9.381 Y-14.276
X-9.231 Y-14.26
X-9.177 Y-14.256
X-9.027 Y-14.25
X-8.973
X-8.823 Y-14.256
X-8.769 Y-14.26
X-8.619 Y-14.276
X-8.567 Y-14.284
X-8.417 Y-14.311
X-8.367 Y-14.322
X-8.217 Y-14.36
X-8.169 Y-14.373
X-8.02 Y-14.422
X-7.975 Y-14.438
X-7.826 Y-14.497
X-7.785 Y-14.515
X-7.635 Y-14.585
X-7.598 Y-14.603
X-7.449 Y-14.684
X-7.414 Y-14.703
X-7.265 Y-14.794
X-7.25 Y-14.803
Z-3.2 F300
X-7.234 Y-14.813 F600
X-7.086 Y-14.914
X-7.045 Y-14.943
X-6.749 Y-15.174
X-6.704 Y-15.212
X-6.409 Y-15.481
X-6.373 Y-15.516
X-6.08 Y-15.821
X-6.051 Y-15.854
X-5.76 Y-16.194
X-5.736 Y-16.223
X-5.449 Y-16.596
X-5.429 Y-16.623
X-5.145 Y-17.026
X-5.129 Y-17.05
X-4.85 Y-17.482
X-4.836 Y-17.504
X-4.562 Y-17.962
X-4.55 Y-17.983
X-4.282 Y-18.464
X-4.272 Y-18.483
X-4.01 Y-18.986
X-4.001 Y-19.003
X-3.747 Y-19.525
X-3.739 Y-19.542
X-3.493 Y-20.079
X-3.486 Y-20.095
X-3.249 Y-20.647
X-3.243 Y-20.662
X-3.016 Y-21.225
X-3.01 Y-21.24
X-2.793 Y-21.812
X-2.788 Y-21.827
X-2.583 Y-22.405
X-2.578 Y-22.42
X-2.385 Y-23.003
X-2.38 Y-23.018
X-2.201 Y-23.604
X-2.196 Y-23.619
X-2.031 Y-24.205
X-2.026 Y-24.221
X-1.875 Y-24.805
X-1.871 Y-24.822
X-1.735 Y-25.403
X-1.731 Y-25.421
X-1.611 Y-25.998
X-1.607 Y-26.017
X-1.504 Y-26.588
X-1.501 Y-26.609
X-1.415 Y-27.174
X-1.412 Y-27.197
X-1.345 Y-27.755
X-1.342 Y-27.779
X-1.293 Y-28.331
X-1.291 Y-28.356
X-1.262 Y-28.902
X-1.261 Y-28.928
X-1.25 Y-29.467
Y-29.494
X-1.259 Y-30.027
X-1.26 Y-30.055
X-1.289 Y-30.582
X-1.291 Y-30.61
X-1.339 Y-31.132
X-1.343 Y-31.16
X-1.41 Y-31.678
X-1.414 Y-31.705
X-1.5 Y-32.219
X-1.505 Y-32.245
X-1.61 Y-32.755
X-1.615 Y-32.78
X-1.736 Y-33.287
X-1.742 Y-33.309
X-1.879 Y-33.814
X-1.885 Y-33.834
X-2.036 Y-34.335
X-2.042 Y-34.353
X-2.206 Y-34.85
X-2.212 Y-34.866
X-2.387 Y-35.359
X-2.395 Y-35.379
X-2.772 Y-36.349
X-2.78 Y-36.369
X-3.179 Y-37.314
X-3.184 Y-37.326
X-3.588 Y-38.241
X-3.59 Y-38.245
X-3.789 Y-38.689
X-3.983 Y-39.122
X-4.17 Y-39.543
X-4.346 Y-39.949
X-4.511 Y-40.341
X-4.663 Y-40.716
X-4.8 Y-41.074
X-4.92 Y-41.415
X-5.022 Y-41.735
X-5.106 Y-42.034
X-5.17 Y-42.312
X-5.215 Y-42.566
X-5.241 Y-42.795
X-5.25 Y-43.015
Y-49.499
X-5.246 Y-51.431
X-5.233 Y-53.335
X-5.212 Y-55.212
X-5.183 Y-57.061
X-5.147 Y-58.884
X-5.103 Y-60.68
X-5.053 Y-62.449
X-4.997 Y-64.19
X-4.936 Y-65.903
X-4.871 Y-67.587
X-4.802 Y-69.242
X-4.731 Y-70.868
X-4.658 Y-72.462
X-4.584 Y-74.025
X-4.523 Y-75.301
Z-3
X-4.511 Y-75.554
X-4.439 Y-77.049
X-4.37 Y-78.507
X-4.356 Y-78.797
Z-3.2 F300
X-4.304 Y-79.928 F600
Y-79.929
X-4.273 Y-80.624
X-4.243 Y-81.31
Y-81.311
X-4.215 Y-81.985
Y-81.986
X-4.189 Y-82.649
X-4.188 Y-82.651
X-4.164 Y-83.303
Y-83.305
X-4.141 Y-83.945
Y-83.947
X-4.12 Y-84.576
Y-84.578
X-4.102 Y-85.195
Y-85.198
X-4.086 Y-85.802
Y-85.805
X-4.073 Y-86.397
X-4.072 Y-86.4
X-4.062 Y-86.979
Y-86.983
X-4.054 Y-87.548
Y-87.552
X-4.049 Y-88.105
Y-88.109
X-4.047 Y-88.647
Y-88.652
X-4.049 Y-89.176
Y-89.181
X-4.054 Y-89.69
Y-89.696
X-4.063 Y-90.19
Y-90.196
X-4.076 Y-90.675
Y-90.682
X-4.093 Y-91.146
Y-91.154
X-4.113 Y-91.601
X-4.114 Y-91.61
X-4.138 Y-92.041
X-4.139 Y-92.05
X-4.168 Y-92.465
X-4.169 Y-92.475
X-4.202 Y-92.873
X-4.203 Y-92.884
X-4.241 Y-93.265
X-4.242 Y-93.278
X-4.285 Y-93.641
X-4.287 Y-93.655
X-4.334 Y-94
X-4.337 Y-94.016
X-4.389 Y-94.343
X-4.392 Y-94.362
X-4.449 Y-94.67
X-4.473 Y-94.764
X-4.509 Y-94.875
X-4.541 Y-94.956
X-4.582 Y-95.033
X-4.642 Y-95.132
X-4.692 Y-95.204
X-8.101 Y-99.568
G2 X-9.856 Y-99.783 I-0.985 J0.77
G1 X-13.399 Y-97.015
G2 X-13.879 Y-96.03 I0.77 J0.985
G1 Y-91.288
X-13.894 Y-90.904
X-13.895 Y-90.898
X-13.907 Y-90.487
Y-90.481
X-13.917 Y-90.059
Y-90.054
X-13.924 Y-89.62
Y-89.615
X-13.929 Y-89.169
Y-89.165
X-13.931 Y-88.708
Y-88.704
X-13.93 Y-88.237
Y-88.233
X-13.929 Y-88.089
X-13.927 Y-87.755 Z-3.212 F1016
Y-87.752
X-13.922 Y-87.263 Z-3.229
Y-87.26
X-13.915 Y-86.762 Z-3.246
X-13.914 Y-86.757 Z-3.247
X-13.893 Y-85.731 Z-3.282
Y-85.726 Z-3.283
X-13.865 Y-84.661 Z-3.32
Y-84.657
X-13.829 Y-83.556 Z-3.358
Y-83.553
X-13.788 Y-82.418 Z-3.398
Y-82.415
X-13.741 Y-81.247 Z-3.439
Y-81.245
X-13.69 Y-80.045 Z-3.481
Y-80.044
X-13.666 Y-79.503 Z-3.5
X-13.635 Y-78.814 F600
Y-78.813
X-13.578 Y-77.555
X-13.517 Y-76.27
X-13.475 Y-75.371
Z-3
X-13.456 Y-74.958
X-13.393 Y-73.623
X-13.331 Y-72.264
X-13.313 Y-71.875
Z-3.5 F300
X-13.269 Y-70.882 F600
X-13.208 Y-69.479
X-13.148 Y-68.055
X-13.091 Y-66.61
X-13.037 Y-65.146
X-12.986 Y-63.663
X-12.94 Y-62.161
X-12.897 Y-60.641
X-12.859 Y-59.102
X-12.827 Y-57.546
X-12.799 Y-55.972
X-12.778 Y-54.38
X-12.762 Y-52.771
X-12.753 Y-51.144
X-12.75 Y-49.499
Y-43.015
X-12.759 Y-42.795
X-12.785 Y-42.566
X-12.83 Y-42.312
X-12.894 Y-42.034
X-12.978 Y-41.735
X-13.08 Y-41.415
X-13.2 Y-41.074
X-13.337 Y-40.716
X-13.489 Y-40.341
X-13.654 Y-39.949
X-13.83 Y-39.543
X-14.017 Y-39.122
X-14.211 Y-38.689
X-14.41 Y-38.245
X-14.412 Y-38.241
X-14.816 Y-37.326
X-14.821 Y-37.314
X-15.22 Y-36.369
X-15.228 Y-36.349
X-15.605 Y-35.379
X-15.613 Y-35.359
X-15.788 Y-34.866
X-15.794 Y-34.85
X-15.958 Y-34.353
X-15.964 Y-34.335
X-16.115 Y-33.834
X-16.121 Y-33.814
X-16.258 Y-33.309
X-16.264 Y-33.287
X-16.385 Y-32.779
X-16.39 Y-32.755
X-16.495 Y-32.245
X-16.5 Y-32.219
X-16.586 Y-31.705
X-16.59 Y-31.678
X-16.657 Y-31.16
X-16.66 Y-31.132
X-16.709 Y-30.61
X-16.711 Y-30.582
X-16.74 Y-30.055
X-16.741 Y-30.027
X-16.75 Y-29.494
Y-29.467
X-16.739 Y-28.928
X-16.738 Y-28.902
X-16.709 Y-28.356
X-16.707 Y-28.331
X-16.658 Y-27.779
X-16.655 Y-27.755
X-16.588 Y-27.197
X-16.585 Y-27.174
X-16.499 Y-26.609
X-16.496 Y-26.588
X-16.393 Y-26.017
X-16.389 Y-25.998
X-16.269 Y-25.421
X-16.265 Y-25.403
X-16.129 Y-24.822
X-16.125 Y-24.805
X-15.974 Y-24.221
X-15.969 Y-24.205
X-15.804 Y-23.619
X-15.799 Y-23.603
X-15.619 Y-23.018
X-15.615 Y-23.003
X-15.422 Y-22.42
X-15.417 Y-22.405
X-15.212 Y-21.827
X-15.207 Y-21.812
X-14.99 Y-21.24
X-14.984 Y-21.225
X-14.757 Y-20.662
X-14.751 Y-20.647
X-14.514 Y-20.095
X-14.507 Y-20.079
X-14.261 Y-19.542
X-14.253 Y-19.525
X-13.999 Y-19.003
X-13.99 Y-18.986
X-13.728 Y-18.483
X-13.718 Y-18.464
X-13.45 Y-17.983
X-13.438 Y-17.962
X-13.164 Y-17.504
X-13.15 Y-17.482
X-12.871 Y-17.05
X-12.855 Y-17.026
X-12.571 Y-16.623
X-12.551 Y-16.596
X-12.264 Y-16.223
X-12.24 Y-16.194
X-11.949 Y-15.853
X-11.92 Y-15.821
X-11.627 Y-15.516
X-11.591 Y-15.481
X-11.296 Y-15.212
X-11.251 Y-15.174
X-10.955 Y-14.943
X-10.914 Y-14.914
X-10.766 Y-14.813
X-10.75 Y-14.803
Z-3
X-10.735 Y-14.794
X-10.586 Y-14.703
X-10.551 Y-14.684
X-10.402 Y-14.603
X-10.365 Y-14.585
X-10.215 Y-14.515
X-10.174 Y-14.497
X-10.025 Y-14.438
X-9.98 Y-14.422
X-9.831 Y-14.373
X-9.783 Y-14.36
X-9.633 Y-14.322
X-9.583 Y-14.311
X-9.433 Y-14.284
X-9.381 Y-14.276
X-9.231 Y-14.26
X-9.177 Y-14.256
X-9.027 Y-14.25
X-8.973
X-8.823 Y-14.256
X-8.769 Y-14.26
X-8.619 Y-14.276
X-8.567 Y-14.284
X-8.417 Y-14.311
X-8.367 Y-14.322
X-8.217 Y-14.36
X-8.169 Y-14.373
X-8.02 Y-14.422
X-7.975 Y-14.438
X-7.826 Y-14.497
X-7.785 Y-14.515
X-7.635 Y-14.585
X-7.598 Y-14.603
X-7.449 Y-14.684
X-7.414 Y-14.703
X-7.265 Y-14.794
X-7.25 Y-14.803
Z-3.5 F300
X-7.234 Y-14.813 F600
X-7.086 Y-14.914
X-7.045 Y-14.943
X-6.749 Y-15.174
X-6.704 Y-15.212
X-6.409 Y-15.481
X-6.373 Y-15.516
X-6.08 Y-15.821
X-6.051 Y-15.854
X-5.76 Y-16.194
X-5.736 Y-16.223
X-5.449 Y-16.596
X-5.429 Y-16.623
X-5.145 Y-17.026
X-5.129 Y-17.05
X-4.85 Y-17.482
X-4.836 Y-17.504
X-4.562 Y-17.962
X-4.55 Y-17.983
X-4.282 Y-18.464
X-4.272 Y-18.483
X-4.01 Y-18.986
X-4.001 Y-19.003
X-3.747 Y-19.525
X-3.739 Y-19.542
X-3.493 Y-20.079
X-3.486 Y-20.095
X-3.249 Y-20.647
X-3.243 Y-20.662
X-3.016 Y-21.225
X-3.01 Y-21.24
X-2.793 Y-21.812
X-2.788 Y-21.827
X-2.583 Y-22.405
X-2.578 Y-22.42
X-2.385 Y-23.003
X-2.38 Y-23.018
X-2.201 Y-23.604
X-2.196 Y-23.619
X-2.031 Y-24.205
X-2.026 Y-24.221
X-1.875 Y-24.805
X-1.871 Y-24.822
X-1.735 Y-25.403
X-1.731 Y-25.421
X-1.611 Y-25.998
X-1.607 Y-26.017
X-1.504 Y-26.588
X-1.501 Y-26.609
X-1.415 Y-27.174
X-1.412 Y-27.197
X-1.345 Y-27.755
X-1.342 Y-27.779
X-1.293 Y-28.331
X-1.291 Y-28.356
X-1.262 Y-28.902
X-1.261 Y-28.928
X-1.25 Y-29.467
Y-29.494
X-1.259 Y-30.027
X-1.26 Y-30.055
X-1.289 Y-30.582
X-1.291 Y-30.61
X-1.339 Y-31.132
X-1.343 Y-31.16
X-1.41 Y-31.678
X-1.414 Y-31.705
X-1.5 Y-32.219
X-1.505 Y-32.245
X-1.61 Y-32.755
X-1.615 Y-32.78
X-1.736 Y-33.287
X-1.742 Y-33.309
X-1.879 Y-33.814
X-1.885 Y-33.834
X-2.036 Y-34.335
X-2.042 Y-34.353
X-2.206 Y-34.85
X-2.212 Y-34.866
X-2.387 Y-35.359
X-2.395 Y-35.379
X-2.772 Y-36.349
X-2.78 Y-36.369
X-3.179 Y-37.314
X-3.184 Y-37.326
X-3.588 Y-38.241
X-3.59 Y-38.245
X-3.789 Y-38.689
X-3.983 Y-39.122
X-4.17 Y-39.543
X-4.346 Y-39.949
X-4.511 Y-40.341
X-4.663 Y-40.716
X-4.8 Y-41.074
X-4.92 Y-41.415
X-5.022 Y-41.735
X-5.106 Y-42.034
X-5.17 Y-42.312
X-5.215 Y-42.566
X-5.241 Y-42.795
X-5.25 Y-43.015
Y-49.499
X-5.246 Y-51.431
X-5.233 Y-53.335
X-5.212 Y-55.212
X-5.183 Y-57.061
X-5.147 Y-58.884
X-5.103 Y-60.68
X-5.053 Y-62.449
X-4.997 Y-64.19
X-4.936 Y-65.903
X-4.871 Y-67.587
X-4.802 Y-69.242
X-4.731 Y-70.868
X-4.658 Y-72.462
X-4.584 Y-74.025
X-4.523 Y-75.301
Z-3
X-4.511 Y-75.554
X-4.439 Y-77.049
X-4.37 Y-78.507
X-4.356 Y-78.797
Z-3.5 F300
X-4.304 Y-79.928 F600
Y-79.929
X-4.273 Y-80.624
X-4.243 Y-81.31
Y-81.311
X-4.215 Y-81.985
Y-81.986
X-4.189 Y-82.649
X-4.188 Y-82.651
X-4.164 Y-83.303
Y-83.305
X-4.141 Y-83.945
Y-83.947
X-4.12 Y-84.576
Y-84.578
X-4.102 Y-85.195
Y-85.198
X-4.086 Y-85.802
Y-85.805
X-4.073 Y-86.397
X-4.072 Y-86.4
X-4.062 Y-86.979
Y-86.983
X-4.054 Y-87.548
Y-87.552
X-4.049 Y-88.105
Y-88.109
X-4.047 Y-88.647
Y-88.652
X-4.049 Y-89.176
Y-89.181
X-4.054 Y-89.69
Y-89.696
X-4.063 Y-90.19
Y-90.196
X-4.076 Y-90.675
Y-90.682
X-4.093 Y-91.146
Y-91.154
X-4.113 Y-91.601
X-4.114 Y-91.61
X-4.138 Y-92.041
X-4.139 Y-92.05
X-4.168 Y-92.465
X-4.169 Y-92.475
X-4.202 Y-92.873
X-4.203 Y-92.884
X-4.241 Y-93.265
X-4.242 Y-93.278
X-4.285 Y-93.641
X-4.287 Y-93.655
X-4.334 Y-94
X-4.337 Y-94.016
X-4.389 Y-94.343
X-4.392 Y-94.362
X-4.449 Y-94.67
X-4.473 Y-94.764
X-4.509 Y-94.875
X-4.541 Y-94.956
X-4.582 Y-95.033
X-4.642 Y-95.132
X-4.692 Y-95.204
X-8.101 Y-99.568
G2 X-9.856 Y-99.783 I-0.985 J0.77
G1 X-13.399 Y-97.015
G2 X-13.879 Y-96.03 I0.77 J0.985
G1 Y-91.288
X-13.894 Y-90.904
X-13.895 Y-90.898
X-13.907 Y-90.487
Y-90.481
X-13.917 Y-90.059
Y-90.054
X-13.924 Y-89.62
Y-89.615
X-13.929 Y-89.169
Y-89.165
X-13.931 Y-88.708
Y-88.704
X-13.93 Y-88.237
Y-88.233
X-13.927 Y-87.755
Y-87.752
X-13.922 Y-87.263
Y-87.26
X-13.915 Y-86.762
X-13.914 Y-86.757
X-13.893 Y-85.731
Y-85.726
X-13.865 Y-84.661
Y-84.657
X-13.829 Y-83.556
Y-83.553
X-13.788 Y-82.418
Y-82.415
X-13.741 Y-81.247
Y-81.245
X-13.69 Y-80.045
Y-80.044
X-13.666 Y-79.503
G0 Z25

(Bohrfrasen7)
X-22.353 Y-13.855
Z15
Z2
G1 Z0.15 F400
X-22.361 Z0.104
X-22.382 Z0.062
X-22.415 Z0.029
X-22.457 Z0.007
X-22.503 Z0
X-22.578
X-22.625 Y-13.862
X-22.666 Y-13.883
X-22.7 Y-13.917
X-22.721 Y-13.958
X-22.728 Y-14.005
G3 X-20.428 Y-14.005 Z-0.5 I1.15 J0 F600
X-22.728 Y-14.005 Z-1 I-1.15 J0
X-20.428 Y-14.005 Z-1.5 I1.15 J0
X-22.728 Y-14.005 I-1.15 J0
X-20.428 Y-14.005 I1.15 J0
G1 X-20.436 Y-13.958
X-20.457 Y-13.917
X-20.49 Y-13.883
X-20.532 Y-13.862
X-20.578 Y-13.855
X-20.653
X-20.7 Z-1.493
X-20.741 Z-1.471
X-20.775 Z-1.438
X-20.796 Z-1.396
X-20.803 Z-1.35
G0 Z5
X-28.717 Y-20.219
Z2
G1 Z0.15 F400
X-28.725 Z0.104
X-28.746 Z0.062
X-28.779 Z0.029
X-28.821 Z0.007
X-28.867 Z0
X-28.942
X-28.989 Y-20.226
X-29.03 Y-20.247
X-29.064 Y-20.281
X-29.085 Y-20.322
X-29.092 Y-20.369
G3 X-26.792 Y-20.369 Z-0.5 I1.15 J0 F600
X-29.092 Y-20.369 Z-1 I-1.15 J0
X-26.792 Y-20.369 Z-1.5 I1.15 J0
X-29.092 Y-20.369 I-1.15 J0
X-26.792 Y-20.369 I1.15 J0
G1 X-26.8 Y-20.322
X-26.821 Y-20.281
X-26.854 Y-20.247
X-26.896 Y-20.226
X-26.942 Y-20.219
X-27.017
X-27.064 Z-1.493
X-27.105 Z-1.471
X-27.139 Z-1.438
X-27.16 Z-1.396
X-27.167 Z-1.35
G0 Z15

(Bohrfrasen5)
X-25.335 Y-7.537
Z15
Z2
G1 Z0.15 F400
X-25.343 Z0.104
X-25.364 Z0.062
X-25.397 Z0.029
X-25.439 Z0.007
X-25.485 Z0
X-25.56
X-25.607 Y-7.544
X-25.648 Y-7.565
X-25.682 Y-7.599
X-25.703 Y-7.64
X-25.71 Y-7.687
G3 X-23.81 Y-7.687 Z-0.5 I0.95 J0 F600
X-25.71 Y-7.687 Z-1 I-0.95 J0
X-23.81 Y-7.687 Z-1.5 I0.95 J0
X-25.71 Y-7.687 Z-2 I-0.95 J0
X-23.81 Y-7.687 Z-2.5 I0.95 J0
X-25.71 Y-7.687 Z-3 I-0.95 J0
X-23.81 Y-7.687 Z-3.5 I0.95 J0
X-25.71 Y-7.687 I-0.95 J0
X-23.81 Y-7.687 I0.95 J0
G1 X-23.818 Y-7.64
X-23.839 Y-7.599
X-23.872 Y-7.565
X-23.914 Y-7.544
X-23.96 Y-7.537
X-24.035
X-24.082 Z-3.493
X-24.123 Z-3.471
X-24.157 Z-3.438
X-24.178 Z-3.396
X-24.185 Z-3.35
G0 Z5
X-21.653 Y-13.855
Z0.5
G1 Z-1.35 F400
X-21.661 Z-1.396
X-21.682 Z-1.438
X-21.715 Z-1.471
X-21.757 Z-1.493
X-21.803 Z-1.5
X-21.878
X-21.925 Y-13.862
X-21.966 Y-13.883
X-22 Y-13.917
X-22.021 Y-13.958
X-22.028 Y-14.005
G3 X-21.128 Y-14.005 Z-2 I0.45 J0 F600
X-22.028 Y-14.005 Z-2.5 I-0.45 J0
X-21.128 Y-14.005 Z-3 I0.45 J0
X-22.028 Y-14.005 Z-3.5 I-0.45 J0
X-21.128 Y-14.005 I0.45 J0
X-22.028 Y-14.005 I-0.45 J0
G1 X-22.021 Y-14.051
X-22 Y-14.093
X-21.966 Y-14.126
X-21.925 Y-14.147
X-21.878 Y-14.155
X-21.803
X-21.757 Z-3.493
X-21.715 Z-3.471
X-21.682 Z-3.438
X-21.661 Z-3.396
X-21.653 Z-3.35
G0 Z5
X-28.717 Y-13.855
Z2
G1 Z0.15 F400
X-28.725 Z0.104
X-28.746 Z0.062
X-28.779 Z0.029
X-28.821 Z0.007
X-28.867 Z0
X-28.942
X-28.989 Y-13.862
X-29.03 Y-13.883
X-29.064 Y-13.917
X-29.085 Y-13.958
X-29.092 Y-14.005
G3 X-26.792 Y-14.005 Z-0.5 I1.15 J0 F600
X-29.092 Y-14.005 Z-1 I-1.15 J0
X-26.792 Y-14.005 Z-1.5 I1.15 J0
X-29.092 Y-14.005 Z-2 I-1.15 J0
X-26.792 Y-14.005 Z-2.5 I1.15 J0
X-29.092 Y-14.005 Z-3 I-1.15 J0
X-26.792 Y-14.005 Z-3.5 I1.15 J0
X-29.092 Y-14.005 I-1.15 J0
X-26.792 Y-14.005 I1.15 J0
G1 X-26.8 Y-13.958
X-26.821 Y-13.917
X-26.854 Y-13.883
X-26.896 Y-13.862
X-26.942 Y-13.855
X-27.017
X-27.064 Z-3.493
X-27.105 Z-3.471
X-27.139 Z-3.438
X-27.16 Z-3.396
X-27.167 Z-3.35
G0 Z5
X-25.885 Y-17.037
Z2
G1 Z0.15 F400
X-25.893 Z0.104
X-25.914 Z0.062
X-25.947 Z0.029
X-25.989 Z0.007
X-26.035 Z0
X-26.11
X-26.157 Y-17.044
X-26.198 Y-17.065
X-26.232 Y-17.099
X-26.253 Y-17.14
X-26.26 Y-17.187
G3 X-23.26 Y-17.187 Z-0.5 I1.5 J0 F600
X-26.26 Y-17.187 Z-1 I-1.5 J0
X-23.26 Y-17.187 Z-1.5 I1.5 J0
X-26.26 Y-17.187 Z-2 I-1.5 J0
X-23.26 Y-17.187 Z-2.5 I1.5 J0
X-26.26 Y-17.187 Z-3 I-1.5 J0
X-23.26 Y-17.187 Z-3.5 I1.5 J0
X-26.26 Y-17.187 I-1.5 J0
X-23.26 Y-17.187 I1.5 J0
G1 X-23.268 Y-17.14
X-23.289 Y-17.099
X-23.322 Y-17.065
X-23.364 Y-17.044
X-23.41 Y-17.037
X-23.485
X-23.532 Z-3.493
X-23.573 Z-3.471
X-23.607 Z-3.438
X-23.628 Z-3.396
X-23.635 Z-3.35
G0 Z5
X-22.353 Y-20.219
Z2
G1 Z0.15 F400
X-22.361 Z0.104
X-22.382 Z0.062
X-22.415 Z0.029
X-22.457 Z0.007
X-22.503 Z0
X-22.578
X-22.625 Y-20.226
X-22.666 Y-20.247
X-22.7 Y-20.281
X-22.721 Y-20.322
X-22.728 Y-20.369
G3 X-20.428 Y-20.369 Z-0.5 I1.15 J0 F600
X-22.728 Y-20.369 Z-1 I-1.15 J0
X-20.428 Y-20.369 Z-1.5 I1.15 J0
X-22.728 Y-20.369 Z-2 I-1.15 J0
X-20.428 Y-20.369 Z-2.5 I1.15 J0
X-22.728 Y-20.369 Z-3 I-1.15 J0
X-20.428 Y-20.369 Z-3.5 I1.15 J0
X-22.728 Y-20.369 I-1.15 J0
X-20.428 Y-20.369 I1.15 J0
G1 X-20.436 Y-20.322
X-20.457 Y-20.281
X-20.49 Y-20.247
X-20.532 Y-20.226
X-20.578 Y-20.219
X-20.653
X-20.7 Z-3.493
X-20.741 Z-3.471
X-20.775 Z-3.438
X-20.796 Z-3.396
X-20.803 Z-3.35
G0 Z5
X-28.017
Z0.5
G1 Z-1.35 F400
X-28.025 Z-1.396
X-28.046 Z-1.438
X-28.079 Z-1.471
X-28.121 Z-1.493
X-28.167 Z-1.5
X-28.242
X-28.289 Y-20.226
X-28.33 Y-20.247
X-28.364 Y-20.281
X-28.385 Y-20.322
X-28.392 Y-20.369
G3 X-27.492 Y-20.369 Z-2 I0.45 J0 F600
X-28.392 Y-20.369 Z-2.5 I-0.45 J0
X-27.492 Y-20.369 Z-3 I0.45 J0
X-28.392 Y-20.369 Z-3.5 I-0.45 J0
X-27.492 Y-20.369 I0.45 J0
X-28.392 Y-20.369 I-0.45 J0
G1 X-28.385 Y-20.415
X-28.364 Y-20.457
X-28.33 Y-20.49
X-28.289 Y-20.511
X-28.242 Y-20.519
X-28.167
X-28.121 Z-3.493
X-28.079 Z-3.471
X-28.046 Z-3.438
X-28.025 Z-3.396
X-28.017 Z-3.35
G0 Z5
X-25.335 Y-26.537
Z2
G1 Z0.15 F400
X-25.343 Z0.104
X-25.364 Z0.062
X-25.397 Z0.029
X-25.439 Z0.007
X-25.485 Z0
X-25.56
X-25.607 Y-26.544
X-25.648 Y-26.565
X-25.682 Y-26.599
X-25.703 Y-26.64
X-25.71 Y-26.687
G3 X-23.81 Y-26.687 Z-0.5 I0.95 J0 F600
X-25.71 Y-26.687 Z-1 I-0.95 J0
X-23.81 Y-26.687 Z-1.5 I0.95 J0
X-25.71 Y-26.687 Z-2 I-0.95 J0
X-23.81 Y-26.687 Z-2.5 I0.95 J0
X-25.71 Y-26.687 Z-3 I-0.95 J0
X-23.81 Y-26.687 Z-3.5 I0.95 J0
X-25.71 Y-26.687 I-0.95 J0
X-23.81 Y-26.687 I0.95 J0
G1 X-23.818 Y-26.64
X-23.839 Y-26.599
X-23.872 Y-26.565
X-23.914 Y-26.544
X-23.96 Y-26.537
X-24.035
X-24.082 Z-3.493
X-24.123 Z-3.471
X-24.157 Z-3.438
X-24.178 Z-3.396
X-24.185 Z-3.35
G0 Z5
X-25.335 Y-64.297
Z2
G1 Z0.15 F400
X-25.343 Z0.104
X-25.364 Z0.062
X-25.397 Z0.029
X-25.439 Z0.007
X-25.485 Z0
X-25.56
X-25.607 Y-64.304
X-25.648 Y-64.326
X-25.682 Y-64.359
X-25.703 Y-64.401
X-25.71 Y-64.447
G3 X-23.81 Y-64.447 Z-0.5 I0.95 J0 F600
X-25.71 Y-64.447 Z-1 I-0.95 J0
X-23.81 Y-64.447 Z-1.5 I0.95 J0
X-25.71 Y-64.447 Z-2 I-0.95 J0
X-23.81 Y-64.447 Z-2.5 I0.95 J0
X-25.71 Y-64.447 Z-3 I-0.95 J0
X-23.81 Y-64.447 Z-3.5 I0.95 J0
X-25.71 Y-64.447 I-0.95 J0
X-23.81 Y-64.447 I0.95 J0
G1 X-23.818 Y-64.401
X-23.839 Y-64.359
X-23.872 Y-64.326
X-23.914 Y-64.304
X-23.96 Y-64.297
X-24.035
X-24.082 Z-3.493
X-24.123 Z-3.471
X-24.157 Z-3.438
X-24.178 Z-3.396
X-24.185 Z-3.35
G0 Z5
X-26.559 Y-73
Z2
G1 Z0.15 F400
X-26.566 Z0.104
X-26.587 Z0.062
X-26.621 Z0.029
X-26.662 Z0.007
X-26.709 Z0
X-26.784
X-26.83 Y-73.007
X-26.872 Y-73.029
X-26.905 Y-73.062
X-26.926 Y-73.104
X-26.934 Y-73.15
G3 X-26.034 Y-73.15 Z-0.5 I0.45 J0 F600
X-26.934 Y-73.15 Z-1 I-0.45 J0
X-26.034 Y-73.15 Z-1.5 I0.45 J0
X-26.934 Y-73.15 Z-2 I-0.45 J0
X-26.034 Y-73.15 Z-2.5 I0.45 J0
X-26.934 Y-73.15 Z-3 I-0.45 J0
X-26.034 Y-73.15 Z-3.5 I0.45 J0
X-26.934 Y-73.15 I-0.45 J0
X-26.034 Y-73.15 I0.45 J0
G1 X-26.041 Y-73.104
X-26.062 Y-73.062
X-26.096 Y-73.029
X-26.137 Y-73.007
X-26.184 Y-73
X-26.259
X-26.305 Z-3.493
X-26.347 Z-3.471
X-26.38 Z-3.438
X-26.401 Z-3.396
X-26.409 Z-3.35
G0 Z15

(2D-Kontur7)
Z25
X-29.033 Y-58.67
Z5.1
G1 Z2.6 F300
X-29.029 Y-58.569 Z2.596 F1016
X-28.968 Y-57.166 Z2.547
X-28.908 Y-55.742 Z2.498
X-28.851 Y-54.297 Z2.447
X-28.797 Y-52.833 Z2.396
X-28.747 Y-51.35 Z2.344
X-28.7 Y-49.848 Z2.292
X-28.657 Y-48.327 Z2.239
X-28.62 Y-46.789 Z2.185
X-28.587 Y-45.232 Z2.13
X-28.56 Y-43.658 Z2.075
X-28.538 Y-42.067 Z2.02
X-28.523 Y-40.458 Z1.964
X-28.513 Y-38.831 Z1.907
X-28.51 Y-37.186 Z1.849
Y-30.702 Z1.623
X-28.519 Y-30.482 Z1.615
X-28.545 Y-30.252 Z1.607
X-28.59 Y-29.998 Z1.598
X-28.655 Y-29.721 Z1.588
X-28.738 Y-29.422 Z1.577
X-28.841 Y-29.101 Z1.566
X-28.961 Y-28.761 Z1.553
X-29.097 Y-28.403 Z1.54
X-29.249 Y-28.027 Z1.526
X-29.414 Y-27.636 Z1.511
X-29.591 Y-27.229 Z1.495
X-29.777 Y-26.809 Z1.479
X-29.971 Y-26.376 Z1.463
X-30.17 Y-25.932 Z1.446
X-30.172 Y-25.928
X-30.576 Y-25.013 Z1.411
X-30.581 Y-25.001 Z1.41
X-30.98 Y-24.056 Z1.374
X-30.988 Y-24.036
X-31.365 Y-23.066 Z1.337
X-31.373 Y-23.046 Z1.336
X-31.548 Y-22.553 Z1.318
X-31.554 Y-22.537
X-31.718 Y-22.04 Z1.299
X-31.724 Y-22.022
X-31.875 Y-21.521 Z1.28
X-31.881 Y-21.5
X-32.018 Y-20.996 Z1.261
X-32.024 Y-20.974
X-32.145 Y-20.466 Z1.242
X-32.151 Y-20.442 Z1.241
X-32.255 Y-19.932 Z1.223
X-32.26 Y-19.906 Z1.222
X-32.346 Y-19.392 Z1.204
X-32.35 Y-19.364 Z1.203
X-32.418 Y-18.847 Z1.185
X-32.421 Y-18.819 Z1.184
X-32.469 Y-18.297 Z1.166
X-32.471 Y-18.268 Z1.165
X-32.5 Y-17.741 Z1.146
X-32.501 Y-17.714 Z1.145
X-32.51 Y-17.181 Z1.127
Y-17.153 Z1.126
X-32.5 Y-16.615 Z1.107
X-32.499 Y-16.588 Z1.106
X-32.469 Y-16.043 Z1.087
X-32.467 Y-16.018 Z1.086
X-32.418 Y-15.466 Z1.067
X-32.415 Y-15.442 Z1.066
X-32.348 Y-14.884 Z1.046
X-32.345 Y-14.861 Z1.045
X-32.259 Y-14.296 Z1.025
X-32.256 Y-14.275
X-32.153 Y-13.704 Z1.004
X-32.149 Y-13.684
X-32.029 Y-13.108 Z0.983
X-32.025 Y-13.09
X-31.889 Y-12.509 Z0.962
X-31.885 Y-12.491 Z0.961
X-31.734 Y-11.908 Z0.94
X-31.73 Y-11.891 Z0.939
X-31.564 Y-11.306 Z0.918
X-31.559 Y-11.29
X-31.38 Y-10.705 Z0.896
X-31.375 Y-10.69
X-31.182 Y-10.107 Z0.874
X-31.177 Y-10.092
X-30.972 Y-9.514 Z0.852
X-30.967 Y-9.499
X-30.751 Y-8.927 Z0.83
X-30.745 Y-8.912
X-30.518 Y-8.349 Z0.809
X-30.511 Y-8.334 Z0.808
X-30.274 Y-7.782 Z0.787
