(1001)
(Bearbeiten)
(  Hersteller: ChinaCnc)
(  model: 3040T)
(  description: Generic 3-axis)
(T13  D=1.8 CR=0 - ZMIN=-3.3 - Schaftfraser)
G90 G94
G17
G21
G28 G91 Z0
G90

(Bohrfrasen18)
T13
S4000 M3
G54
G0 X-15.728 Y-8
Z15
Z2
G1 Z0 F1000
X-15.64
X-15.626 Y-7.98
X-15.621 Y-7.956
X-15.626 Y-7.932
X-15.64 Y-7.912
G3 X-15.816 Y-8.088 Z-0.15 I-0.088 J-0.088
X-15.64 Y-7.912 Z-0.3 I0.088 J0.088
X-15.816 Y-8.088 Z-0.45 I-0.088 J-0.088
X-15.64 Y-7.912 Z-0.6 I0.088 J0.088
X-15.816 Y-8.088 Z-0.75 I-0.088 J-0.088
X-15.64 Y-7.912 Z-0.9 I0.088 J0.088
X-15.816 Y-8.088 Z-1.05 I-0.088 J-0.088
X-15.64 Y-7.912 Z-1.2 I0.088 J0.088
X-15.816 Y-8.088 Z-1.35 I-0.088 J-0.088
X-15.64 Y-7.912 Z-1.5 I0.088 J0.088
X-15.816 Y-8.088 Z-1.65 I-0.088 J-0.088
X-15.64 Y-7.912 Z-1.8 I0.088 J0.088
X-15.816 Y-8.088 Z-1.95 I-0.088 J-0.088
X-15.64 Y-7.912 Z-2.1 I0.088 J0.088
X-15.816 Y-8.088 Z-2.25 I-0.088 J-0.088
X-15.64 Y-7.912 Z-2.4 I0.088 J0.088
X-15.816 Y-8.088 Z-2.55 I-0.088 J-0.088
X-15.64 Y-7.912 Z-2.7 I0.088 J0.088
X-15.816 Y-8.088 Z-2.85 I-0.088 J-0.088
X-15.64 Y-7.912 Z-3 I0.088 J0.088
X-15.816 Y-8.088 Z-3.15 I-0.088 J-0.088
X-15.64 Y-7.912 Z-3.3 I0.088 J0.088
X-15.816 Y-8.088 I-0.088 J-0.088
X-15.64 Y-7.912 I0.088 J0.088
G1 X-15.66 Y-7.898
X-15.684 Y-7.893
X-15.708 Y-7.898
X-15.728 Y-7.912
Y-8
G0 Z5
X-27.086
Z2
G1 Z0 F1000
X-26.644 Y-7.813
G3 X-26.644 Y-7.558 I-0.127 J0.127
X-27.528 Y-8.442 Z-0.15 I-0.442 J-0.442
X-26.644 Y-7.558 Z-0.3 I0.442 J0.442
X-27.528 Y-8.442 Z-0.45 I-0.442 J-0.442
X-26.644 Y-7.558 Z-0.6 I0.442 J0.442
X-27.528 Y-8.442 Z-0.75 I-0.442 J-0.442
X-26.644 Y-7.558 Z-0.9 I0.442 J0.442
X-27.528 Y-8.442 Z-1.05 I-0.442 J-0.442
X-26.644 Y-7.558 Z-1.2 I0.442 J0.442
X-27.528 Y-8.442 Z-1.35 I-0.442 J-0.442
X-26.644 Y-7.558 Z-1.5 I0.442 J0.442
X-27.528 Y-8.442 Z-1.65 I-0.442 J-0.442
X-26.644 Y-7.558 Z-1.8 I0.442 J0.442
X-27.528 Y-8.442 Z-1.95 I-0.442 J-0.442
X-26.644 Y-7.558 Z-2.1 I0.442 J0.442
X-27.528 Y-8.442 Z-2.25 I-0.442 J-0.442
X-26.644 Y-7.558 Z-2.4 I0.442 J0.442
X-27.528 Y-8.442 Z-2.55 I-0.442 J-0.442
X-26.644 Y-7.558 Z-2.7 I0.442 J0.442
X-27.528 Y-8.442 Z-2.85 I-0.442 J-0.442
X-26.644 Y-7.558 Z-3 I0.442 J0.442
X-27.528 Y-8.442 Z-3.15 I-0.442 J-0.442
X-26.644 Y-7.558 Z-3.3 I0.442 J0.442
X-27.528 Y-8.442 I-0.442 J-0.442
X-26.644 Y-7.558 I0.442 J0.442
X-26.898 Y-7.558 I-0.127 J-0.127
G1 X-27.086 Y-8
G0 Z5
X-62.043 Y-11.182
Z2
G1 Z0 F1000
X-61.955
X-61.941 Y-11.162
X-61.937 Y-11.138
X-61.941 Y-11.114
X-61.955 Y-11.094
X-61.992 Y-11.068 Z-0.017
X-62.035 Y-11.057 Z-0.034
X-62.079 Y-11.062 Z-0.051
X-62.119 Y-11.082 Z-0.068
X-62.149 Y-11.115 Z-0.085
X-62.166 Y-11.156 Z-0.103
X-62.167 Y-11.201 Z-0.12
X-62.153 Y-11.243 Z-0.137
X-62.124 Y-11.277 Z-0.154
X-62.086 Y-11.3 Z-0.171
X-62.042 Y-11.307 Z-0.188
X-61.998 Y-11.299 Z-0.205
X-61.96 Y-11.275 Z-0.222
X-61.933 Y-11.24 Z-0.239
X-61.919 Y-11.198 Z-0.256
X-61.922 Y-11.153 Z-0.274
X-61.94 Y-11.112 Z-0.291
X-61.971 Y-11.08 Z-0.308
X-62.011 Y-11.061 Z-0.325
X-62.055 Y-11.058 Z-0.342
X-62.098 Y-11.07 Z-0.359
X-62.134 Y-11.096 Z-0.376
X-62.158 Y-11.133 Z-0.393
X-62.168 Y-11.176 Z-0.41
X-62.162 Y-11.221 Z-0.427
X-62.141 Y-11.26 Z-0.445
X-62.108 Y-11.289 Z-0.462
X-62.066 Y-11.305 Z-0.479
X-62.022 Z-0.496
X-61.98 Y-11.29 Z-0.513
X-61.946 Y-11.261 Z-0.53
X-61.925 Y-11.221 Z-0.547
X-61.919 Y-11.177 Z-0.564
X-61.928 Y-11.134 Z-0.581
X-61.952 Y-11.097 Z-0.598
X-61.988 Y-11.07 Z-0.616
X-62.031 Y-11.058 Z-0.633
X-62.075 Y-11.061 Z-0.65
X-62.115 Y-11.08 Z-0.667
X-62.147 Y-11.112 Z-0.684
X-62.165 Y-11.152 Z-0.701
X-62.168 Y-11.197 Z-0.718
X-62.155 Y-11.239 Z-0.735
X-62.127 Y-11.275 Z-0.752
X-62.09 Y-11.298 Z-0.769
X-62.046 Y-11.307 Z-0.787
X-62.002 Y-11.3 Z-0.804
X-61.963 Y-11.278 Z-0.821
X-61.935 Y-11.244 Z-0.838
X-61.92 Y-11.202 Z-0.855
X-61.921 Y-11.157 Z-0.872
X-61.937 Y-11.116 Z-0.889
X-61.967 Y-11.083 Z-0.906
X-62.007 Y-11.062 Z-0.923
X-62.051 Y-11.057 Z-0.94
X-62.094 Y-11.068 Z-0.958
X-62.131 Y-11.093 Z-0.975
X-62.157 Y-11.129 Z-0.992
X-62.168 Y-11.172 Z-1.009
X-62.164 Y-11.217 Z-1.026
X-62.144 Y-11.257 Z-1.043
X-62.111 Y-11.287 Z-1.06
X-62.07 Y-11.304 Z-1.077
X-62.026 Y-11.306 Z-1.094
X-61.983 Y-11.292 Z-1.111
X-61.949 Y-11.264 Z-1.128
X-61.926 Y-11.225 Z-1.146
X-61.918 Y-11.181 Z-1.163
X-61.927 Y-11.138 Z-1.18
X-61.949 Y-11.1 Z-1.197
X-61.984 Y-11.072 Z-1.214
X-62.027 Y-11.058 Z-1.231
X-62.071 Y-11.06 Z-1.248
X-62.112 Y-11.078 Z-1.265
X-62.144 Y-11.108 Z-1.282
X-62.164 Y-11.148 Z-1.299
X-62.168 Y-11.193 Z-1.317
X-62.156 Y-11.236 Z-1.334
X-62.13 Y-11.272 Z-1.351
X-62.093 Y-11.297 Z-1.368
X-62.05 Y-11.307 Z-1.385
X-62.006 Y-11.301 Z-1.402
X-61.966 Y-11.28 Z-1.419
X-61.937 Y-11.247 Z-1.436
X-61.921 Y-11.206 Z-1.453
X-61.92 Y-11.161 Z-1.47
X-61.935 Y-11.119 Z-1.488
X-61.964 Y-11.085 Z-1.505
X-62.003 Y-11.064 Z-1.522
X-62.047 Y-11.057 Z-1.539
X-62.091 Y-11.066 Z-1.556
X-62.128 Y-11.09 Z-1.573
X-62.155 Y-11.126 Z-1.59
X-62.168 Y-11.168 Z-1.607
X-62.165 Y-11.213 Z-1.624
X-62.146 Y-11.253 Z-1.641
X-62.115 Y-11.285 Z-1.659
X-62.074 Y-11.303 Z-1.676
X-62.03 Y-11.306 Z-1.693
X-61.987 Y-11.294 Z-1.71
X-61.952 Y-11.267 Z-1.727
X-61.928 Y-11.229 Z-1.744
X-61.918 Y-11.186 Z-1.761
X-61.925 Y-11.142 Z-1.778
X-61.947 Y-11.103 Z-1.795
X-61.981 Y-11.074 Z-1.812
X-62.023 Y-11.059 Z-1.83
X-62.067 Z-1.847
X-62.109 Y-11.075 Z-1.864
X-62.142 Y-11.105 Z-1.881
X-62.163 Y-11.144 Z-1.898
X-62.168 Y-11.189 Z-1.915
X-62.158 Y-11.232 Z-1.932
X-62.133 Y-11.269 Z-1.949
X-62.097 Y-11.295 Z-1.966
X-62.054 Y-11.307 Z-1.983
X-62.01 Y-11.302 Z-2.001
X-61.97 Y-11.283 Z-2.018
X-61.939 Y-11.251 Z-2.035
X-61.922 Y-11.21 Z-2.052
X-61.92 Y-11.165 Z-2.069
X-61.933 Y-11.123 Z-2.086
X-61.961 Y-11.088 Z-2.103
X-61.999 Y-11.065 Z-2.12
X-62.043 Y-11.057 Z-2.137
X-62.087 Y-11.065 Z-2.154
X-62.125 Y-11.087 Z-2.172
X-62.153 Y-11.122 Z-2.189
X-62.167 Y-11.164 Z-2.206
X-62.166 Y-11.209 Z-2.223
X-62.148 Y-11.25 Z-2.24
X-62.118 Y-11.282 Z-2.257
X-62.078 Y-11.302 Z-2.274
X-62.034 Y-11.307 Z-2.291
X-61.991 Y-11.295 Z-2.308
X-61.954 Y-11.27 Z-2.325
X-61.929 Y-11.233 Z-2.342
X-61.919 Y-11.19 Z-2.36
X-61.924 Y-11.145 Z-2.377
X-61.944 Y-11.106 Z-2.394
X-61.977 Y-11.076 Z-2.411
X-62.019 Y-11.059 Z-2.428
X-62.063 Z-2.445
X-62.105 Y-11.073 Z-2.462
X-62.139 Y-11.102 Z-2.479
X-62.161 Y-11.141 Z-2.496
X-62.168 Y-11.185 Z-2.513
X-62.16 Y-11.228 Z-2.531
X-62.136 Y-11.266 Z-2.548
X-62.101 Y-11.293 Z-2.565
X-62.058 Y-11.306 Z-2.582
X-62.014 Y-11.303 Z-2.599
X-61.973 Y-11.285 Z-2.616
X-61.941 Y-11.254 Z-2.633
X-61.923 Y-11.214 Z-2.65
X-61.919 Y-11.169 Z-2.667
X-61.931 Y-11.127 Z-2.684
X-61.958 Y-11.091 Z-2.702
X-61.995 Y-11.067 Z-2.719
X-62.039 Y-11.057 Z-2.736
X-62.083 Y-11.063 Z-2.753
X-62.122 Y-11.085 Z-2.77
X-62.151 Y-11.118 Z-2.787
X-62.167 Y-11.16 Z-2.804
X-62.166 Y-11.205 Z-2.821
X-62.151 Y-11.246 Z-2.838
X-62.121 Y-11.28 Z-2.855
X-62.082 Y-11.301 Z-2.873
X-62.038 Y-11.307 Z-2.89
X-61.994 Y-11.297 Z-2.907
X-61.957 Y-11.272 Z-2.924
X-61.931 Y-11.237 Z-2.941
X-61.919 Y-11.194 Z-2.958
X-61.923 Y-11.149 Z-2.975
X-61.942 Y-11.109 Z-2.992
X-61.974 Y-11.078 Z-3.009
X-62.015 Y-11.06 Z-3.026
X-62.059 Y-11.058 Z-3.044
X-62.102 Y-11.071 Z-3.061
X-62.137 Y-11.099 Z-3.078
X-62.16 Y-11.137 Z-3.095
X-62.168 Y-11.18 Z-3.112
X-62.161 Y-11.224 Z-3.129
X-62.139 Y-11.263 Z-3.146
X-62.104 Y-11.291 Z-3.163
X-62.062 Y-11.306 Z-3.18
X-62.018 Y-11.304 Z-3.197
X-61.976 Y-11.288 Z-3.215
X-61.944 Y-11.257 Z-3.232
X-61.924 Y-11.218 Z-3.249
X-61.919 Y-11.173 Z-3.266
X-61.93 Y-11.13 Z-3.283
X-61.955 Y-11.094 Z-3.3
G3 X-62.132 Y-11.27 I-0.088 J-0.088
X-61.955 Y-11.094 I0.088 J0.088
G1 X-61.975 Y-11.08
X-61.999 Y-11.075
X-62.023 Y-11.08
X-62.043 Y-11.094
Y-11.182
G0 Z5
X-68.407
Z2
G1 Z0 F1000
X-68.319
X-68.305 Y-11.162
X-68.301 Y-11.138
X-68.305 Y-11.114
X-68.319 Y-11.094
X-68.356 Y-11.068 Z-0.017
X-68.399 Y-11.057 Z-0.034
X-68.443 Y-11.062 Z-0.051
X-68.483 Y-11.082 Z-0.068
X-68.513 Y-11.115 Z-0.085
X-68.53 Y-11.156 Z-0.103
X-68.531 Y-11.201 Z-0.12
X-68.517 Y-11.243 Z-0.137
X-68.488 Y-11.277 Z-0.154
X-68.45 Y-11.3 Z-0.171
X-68.406 Y-11.307 Z-0.188
X-68.362 Y-11.299 Z-0.205
X-68.324 Y-11.275 Z-0.222
X-68.297 Y-11.24 Z-0.239
X-68.283 Y-11.198 Z-0.256
X-68.286 Y-11.153 Z-0.274
X-68.304 Y-11.112 Z-0.291
X-68.334 Y-11.08 Z-0.308
X-68.375 Y-11.061 Z-0.325
X-68.419 Y-11.058 Z-0.342
X-68.462 Y-11.07 Z-0.359
X-68.498 Y-11.096 Z-0.376
X-68.522 Y-11.133 Z-0.393
X-68.532 Y-11.176 Z-0.41
X-68.526 Y-11.221 Z-0.427
X-68.505 Y-11.26 Z-0.445
X-68.472 Y-11.289 Z-0.462
X-68.43 Y-11.305 Z-0.479
X-68.386 Z-0.496
X-68.344 Y-11.29 Z-0.513
X-68.31 Y-11.261 Z-0.53
X-68.289 Y-11.221 Z-0.547
X-68.282 Y-11.177 Z-0.564
X-68.292 Y-11.134 Z-0.581
X-68.316 Y-11.097 Z-0.598
X-68.352 Y-11.07 Z-0.616
X-68.395 Y-11.058 Z-0.633
X-68.439 Y-11.061 Z-0.65
X-68.479 Y-11.08 Z-0.667
X-68.511 Y-11.112 Z-0.684
X-68.529 Y-11.152 Z-0.701
X-68.532 Y-11.197 Z-0.718
X-68.518 Y-11.239 Z-0.735
X-68.491 Y-11.275 Z-0.752
X-68.454 Y-11.298 Z-0.769
X-68.41 Y-11.307 Z-0.787
X-68.366 Y-11.3 Z-0.804
X-68.327 Y-11.278 Z-0.821
X-68.299 Y-11.244 Z-0.838
X-68.284 Y-11.202 Z-0.855
X-68.285 Y-11.157 Z-0.872
X-68.301 Y-11.116 Z-0.889
X-68.331 Y-11.083 Z-0.906
X-68.371 Y-11.062 Z-0.923
X-68.415 Y-11.057 Z-0.94
X-68.458 Y-11.068 Z-0.958
X-68.495 Y-11.093 Z-0.975
X-68.521 Y-11.129 Z-0.992
X-68.532 Y-11.172 Z-1.009
X-68.527 Y-11.217 Z-1.026
X-68.508 Y-11.257 Z-1.043
X-68.475 Y-11.287 Z-1.06
X-68.434 Y-11.304 Z-1.077
X-68.39 Y-11.306 Z-1.094
X-68.347 Y-11.292 Z-1.111
X-68.313 Y-11.264 Z-1.128
X-68.29 Y-11.225 Z-1.146
X-68.282 Y-11.181 Z-1.163
X-68.29 Y-11.138 Z-1.18
X-68.313 Y-11.1 Z-1.197
X-68.348 Y-11.072 Z-1.214
X-68.391 Y-11.058 Z-1.231
X-68.435 Y-11.06 Z-1.248
X-68.476 Y-11.078 Z-1.265
X-68.508 Y-11.108 Z-1.282
X-68.528 Y-11.148 Z-1.299
X-68.532 Y-11.193 Z-1.317
X-68.52 Y-11.236 Z-1.334
X-68.494 Y-11.272 Z-1.351
X-68.457 Y-11.297 Z-1.368
X-68.414 Y-11.307 Z-1.385
X-68.37 Y-11.301 Z-1.402
X-68.33 Y-11.28 Z-1.419
X-68.301 Y-11.247 Z-1.436
X-68.285 Y-11.206 Z-1.453
X-68.284 Y-11.161 Z-1.47
X-68.299 Y-11.119 Z-1.488
X-68.328 Y-11.085 Z-1.505
X-68.367 Y-11.064 Z-1.522
X-68.411 Y-11.057 Z-1.539
X-68.455 Y-11.066 Z-1.556
X-68.492 Y-11.09 Z-1.573
X-68.519 Y-11.126 Z-1.59
X-68.532 Y-11.168 Z-1.607
X-68.529 Y-11.213 Z-1.624
X-68.51 Y-11.253 Z-1.641
X-68.479 Y-11.285 Z-1.659
X-68.438 Y-11.303 Z-1.676
X-68.394 Y-11.306 Z-1.693
X-68.351 Y-11.294 Z-1.71
X-68.315 Y-11.267 Z-1.727
X-68.292 Y-11.229 Z-1.744
X-68.282 Y-11.186 Z-1.761
X-68.289 Y-11.142 Z-1.778
X-68.311 Y-11.103 Z-1.795
X-68.345 Y-11.074 Z-1.812
X-68.387 Y-11.059 Z-1.83
X-68.431 Z-1.847
X-68.473 Y-11.075 Z-1.864
X-68.506 Y-11.105 Z-1.881
X-68.527 Y-11.144 Z-1.898
X-68.532 Y-11.189 Z-1.915
X-68.522 Y-11.232 Z-1.932
X-68.497 Y-11.269 Z-1.949
X-68.461 Y-11.295 Z-1.966
X-68.418 Y-11.307 Z-1.983
X-68.374 Y-11.302 Z-2.001
X-68.334 Y-11.283 Z-2.018
X-68.303 Y-11.251 Z-2.035
X-68.285 Y-11.21 Z-2.052
X-68.284 Y-11.165 Z-2.069
X-68.297 Y-11.123 Z-2.086
X-68.325 Y-11.088 Z-2.103
X-68.363 Y-11.065 Z-2.12
X-68.407 Y-11.057 Z-2.137
X-68.451 Y-11.065 Z-2.154
X-68.489 Y-11.087 Z-2.172
X-68.517 Y-11.122 Z-2.189
X-68.531 Y-11.164 Z-2.206
X-68.529 Y-11.209 Z-2.223
X-68.512 Y-11.25 Z-2.24
X-68.482 Y-11.282 Z-2.257
X-68.442 Y-11.302 Z-2.274
X-68.398 Y-11.307 Z-2.291
X-68.355 Y-11.295 Z-2.308
X-68.318 Y-11.27 Z-2.325
X-68.293 Y-11.233 Z-2.342
X-68.283 Y-11.19 Z-2.36
X-68.288 Y-11.145 Z-2.377
X-68.308 Y-11.106 Z-2.394
X-68.341 Y-11.076 Z-2.411
X-68.383 Y-11.059 Z-2.428
X-68.427 Z-2.445
X-68.469 Y-11.073 Z-2.462
X-68.503 Y-11.102 Z-2.479
X-68.525 Y-11.141 Z-2.496
X-68.532 Y-11.185 Z-2.513
X-68.524 Y-11.228 Z-2.531
X-68.5 Y-11.266 Z-2.548
X-68.465 Y-11.293 Z-2.565
X-68.422 Y-11.306 Z-2.582
X-68.378 Y-11.303 Z-2.599
X-68.337 Y-11.285 Z-2.616
X-68.305 Y-11.254 Z-2.633
X-68.286 Y-11.214 Z-2.65
X-68.283 Y-11.169 Z-2.667
X-68.295 Y-11.127 Z-2.684
X-68.322 Y-11.091 Z-2.702
X-68.359 Y-11.067 Z-2.719
X-68.403 Y-11.057 Z-2.736
X-68.447 Y-11.063 Z-2.753
X-68.486 Y-11.085 Z-2.77
X-68.515 Y-11.118 Z-2.787
X-68.53 Y-11.16 Z-2.804
Y-11.205 Z-2.821
X-68.515 Y-11.246 Z-2.838
X-68.485 Y-11.28 Z-2.855
X-68.446 Y-11.301 Z-2.873
X-68.402 Y-11.307 Z-2.89
X-68.358 Y-11.297 Z-2.907
X-68.321 Y-11.272 Z-2.924
X-68.295 Y-11.237 Z-2.941
X-68.283 Y-11.194 Z-2.958
X-68.287 Y-11.149 Z-2.975
X-68.306 Y-11.109 Z-2.992
X-68.338 Y-11.078 Z-3.009
X-68.379 Y-11.06 Z-3.026
X-68.423 Y-11.058 Z-3.044
X-68.466 Y-11.071 Z-3.061
X-68.501 Y-11.099 Z-3.078
X-68.524 Y-11.137 Z-3.095
X-68.532 Y-11.18 Z-3.112
X-68.525 Y-11.224 Z-3.129
X-68.503 Y-11.263 Z-3.146
X-68.468 Y-11.291 Z-3.163
X-68.426 Y-11.306 Z-3.18
X-68.382 Y-11.304 Z-3.197
X-68.34 Y-11.288 Z-3.215
X-68.308 Y-11.257 Z-3.232
X-68.288 Y-11.218 Z-3.249
X-68.283 Y-11.173 Z-3.266
X-68.294 Y-11.13 Z-3.283
X-68.319 Y-11.094 Z-3.3
G3 X-68.496 Y-11.27 I-0.088 J-0.088
X-68.319 Y-11.094 I0.088 J0.088
G1 X-68.339 Y-11.08
X-68.363 Y-11.075
X-68.387 Y-11.08
X-68.407 Y-11.094
Y-11.182
G0 Z5
Y-4.818
Z2
G1 Z0 F1000
X-68.319
X-68.305 Y-4.798
X-68.301 Y-4.774
X-68.305 Y-4.75
X-68.319 Y-4.73
X-68.356 Y-4.704 Z-0.017
X-68.399 Y-4.693 Z-0.034
X-68.443 Y-4.698 Z-0.051
X-68.483 Y-4.718 Z-0.068
X-68.513 Y-4.751 Z-0.085
X-68.53 Y-4.792 Z-0.103
X-68.531 Y-4.837 Z-0.12
X-68.517 Y-4.879 Z-0.137
X-68.488 Y-4.913 Z-0.154
X-68.45 Y-4.936 Z-0.171
X-68.406 Y-4.943 Z-0.188
X-68.362 Y-4.935 Z-0.205
X-68.324 Y-4.911 Z-0.222
X-68.297 Y-4.876 Z-0.239
X-68.283 Y-4.834 Z-0.256
X-68.286 Y-4.789 Z-0.274
X-68.304 Y-4.748 Z-0.291
X-68.334 Y-4.716 Z-0.308
X-68.375 Y-4.697 Z-0.325
X-68.419 Y-4.694 Z-0.342
X-68.462 Y-4.706 Z-0.359
X-68.498 Y-4.732 Z-0.376
X-68.522 Y-4.769 Z-0.393
X-68.532 Y-4.812 Z-0.41
X-68.526 Y-4.857 Z-0.427
X-68.505 Y-4.896 Z-0.445
X-68.472 Y-4.925 Z-0.462
X-68.43 Y-4.941 Z-0.479
X-68.386 Z-0.496
X-68.344 Y-4.926 Z-0.513
X-68.31 Y-4.897 Z-0.53
X-68.289 Y-4.858 Z-0.547
X-68.282 Y-4.813 Z-0.564
X-68.292 Y-4.77 Z-0.581
X-68.316 Y-4.733 Z-0.598
X-68.352 Y-4.706 Z-0.616
X-68.395 Y-4.694 Z-0.633
X-68.439 Y-4.697 Z-0.65
X-68.479 Y-4.716 Z-0.667
X-68.511 Y-4.748 Z-0.684
X-68.529 Y-4.788 Z-0.701
X-68.532 Y-4.833 Z-0.718
X-68.518 Y-4.875 Z-0.735
X-68.491 Y-4.911 Z-0.752
X-68.454 Y-4.934 Z-0.769
X-68.41 Y-4.943 Z-0.787
X-68.366 Y-4.936 Z-0.804
X-68.327 Y-4.914 Z-0.821
X-68.299 Y-4.88 Z-0.838
X-68.284 Y-4.838 Z-0.855
X-68.285 Y-4.793 Z-0.872
X-68.301 Y-4.752 Z-0.889
X-68.331 Y-4.719 Z-0.906
X-68.371 Y-4.698 Z-0.923
X-68.415 Y-4.693 Z-0.94
X-68.458 Y-4.704 Z-0.958
X-68.495 Y-4.729 Z-0.975
X-68.521 Y-4.765 Z-0.992
X-68.532 Y-4.808 Z-1.009
X-68.527 Y-4.853 Z-1.026
X-68.508 Y-4.893 Z-1.043
X-68.475 Y-4.923 Z-1.06
X-68.434 Y-4.94 Z-1.077
X-68.39 Y-4.942 Z-1.094
X-68.347 Y-4.928 Z-1.111
X-68.313 Y-4.9 Z-1.128
X-68.29 Y-4.861 Z-1.146
X-68.282 Y-4.818 Z-1.163
X-68.29 Y-4.774 Z-1.18
X-68.313 Y-4.736 Z-1.197
X-68.348 Y-4.708 Z-1.214
X-68.391 Y-4.694 Z-1.231
X-68.435 Y-4.696 Z-1.248
X-68.476 Y-4.714 Z-1.265
X-68.508 Y-4.744 Z-1.282
X-68.528 Y-4.784 Z-1.299
X-68.532 Y-4.829 Z-1.317
X-68.52 Y-4.872 Z-1.334
X-68.494 Y-4.908 Z-1.351
X-68.457 Y-4.933 Z-1.368
X-68.414 Y-4.943 Z-1.385
X-68.37 Y-4.937 Z-1.402
X-68.33 Y-4.917 Z-1.419
X-68.301 Y-4.883 Z-1.436
X-68.285 Y-4.842 Z-1.453
X-68.284 Y-4.797 Z-1.47
X-68.299 Y-4.755 Z-1.488
X-68.328 Y-4.721 Z-1.505
X-68.367 Y-4.7 Z-1.522
X-68.411 Y-4.693 Z-1.539
X-68.455 Y-4.702 Z-1.556
X-68.492 Y-4.726 Z-1.573
X-68.519 Y-4.762 Z-1.59
X-68.532 Y-4.804 Z-1.607
X-68.529 Y-4.849 Z-1.624
X-68.51 Y-4.889 Z-1.641
X-68.479 Y-4.921 Z-1.659
X-68.438 Y-4.939 Z-1.676
X-68.394 Y-4.942 Z-1.693
X-68.351 Y-4.93 Z-1.71
X-68.315 Y-4.903 Z-1.727
X-68.292 Y-4.865 Z-1.744
X-68.282 Y-4.822 Z-1.761
X-68.289 Y-4.778 Z-1.778
X-68.311 Y-4.739 Z-1.795
X-68.345 Y-4.71 Z-1.812
X-68.387 Y-4.695 Z-1.83
X-68.431 Z-1.847
X-68.473 Y-4.711 Z-1.864
X-68.506 Y-4.741 Z-1.881
X-68.527 Y-4.78 Z-1.898
X-68.532 Y-4.825 Z-1.915
X-68.522 Y-4.868 Z-1.932
X-68.497 Y-4.905 Z-1.949
X-68.461 Y-4.931 Z-1.966
X-68.418 Y-4.943 Z-1.983
X-68.374 Y-4.938 Z-2.001
X-68.334 Y-4.919 Z-2.018
X-68.303 Y-4.887 Z-2.035
X-68.285 Y-4.846 Z-2.052
X-68.284 Y-4.801 Z-2.069
X-68.297 Y-4.759 Z-2.086
X-68.325 Y-4.724 Z-2.103
X-68.363 Y-4.701 Z-2.12
X-68.407 Y-4.693 Z-2.137
X-68.451 Y-4.701 Z-2.154
X-68.489 Y-4.723 Z-2.172
X-68.517 Y-4.758 Z-2.189
X-68.531 Y-4.8 Z-2.206
X-68.529 Y-4.845 Z-2.223
X-68.512 Y-4.886 Z-2.24
X-68.482 Y-4.918 Z-2.257
X-68.442 Y-4.938 Z-2.274
X-68.398 Y-4.943 Z-2.291
X-68.355 Y-4.931 Z-2.308
X-68.318 Y-4.906 Z-2.325
X-68.293 Y-4.869 Z-2.342
X-68.283 Y-4.826 Z-2.36
X-68.288 Y-4.781 Z-2.377
X-68.308 Y-4.742 Z-2.394
X-68.341 Y-4.712 Z-2.411
X-68.383 Y-4.695 Z-2.428
X-68.427 Z-2.445
X-68.469 Y-4.709 Z-2.462
X-68.503 Y-4.738 Z-2.479
X-68.525 Y-4.777 Z-2.496
X-68.532 Y-4.821 Z-2.513
X-68.524 Y-4.864 Z-2.531
X-68.5 Y-4.902 Z-2.548
X-68.465 Y-4.929 Z-2.565
X-68.422 Y-4.942 Z-2.582
X-68.378 Y-4.939 Z-2.599
X-68.337 Y-4.921 Z-2.616
X-68.305 Y-4.89 Z-2.633
X-68.286 Y-4.85 Z-2.65
X-68.283 Y-4.805 Z-2.667
X-68.295 Y-4.763 Z-2.684
X-68.322 Y-4.727 Z-2.702
X-68.359 Y-4.703 Z-2.719
X-68.403 Y-4.693 Z-2.736
X-68.447 Y-4.699 Z-2.753
X-68.486 Y-4.721 Z-2.77
X-68.515 Y-4.754 Z-2.787
X-68.53 Y-4.796 Z-2.804
Y-4.841 Z-2.821
X-68.515 Y-4.882 Z-2.838
X-68.485 Y-4.916 Z-2.855
X-68.446 Y-4.937 Z-2.873
X-68.402 Y-4.943 Z-2.89
X-68.358 Y-4.933 Z-2.907
X-68.321 Y-4.909 Z-2.924
X-68.295 Y-4.873 Z-2.941
X-68.283 Y-4.83 Z-2.958
X-68.287 Y-4.785 Z-2.975
X-68.306 Y-4.745 Z-2.992
X-68.338 Y-4.714 Z-3.009
X-68.379 Y-4.696 Z-3.026
X-68.423 Y-4.694 Z-3.044
X-68.466 Y-4.707 Z-3.061
X-68.501 Y-4.735 Z-3.078
X-68.524 Y-4.773 Z-3.095
X-68.532 Y-4.816 Z-3.112
X-68.525 Y-4.86 Z-3.129
X-68.503 Y-4.899 Z-3.146
X-68.468 Y-4.927 Z-3.163
X-68.426 Y-4.942 Z-3.18
X-68.382 Y-4.94 Z-3.197
X-68.34 Y-4.924 Z-3.215
X-68.308 Y-4.893 Z-3.232
X-68.288 Y-4.854 Z-3.249
X-68.283 Y-4.809 Z-3.266
X-68.294 Y-4.766 Z-3.283
X-68.319 Y-4.73 Z-3.3
G3 X-68.496 Y-4.906 I-0.088 J-0.088
X-68.319 Y-4.73 I0.088 J0.088
G1 X-68.339 Y-4.716
X-68.363 Y-4.711
X-68.387 Y-4.716
X-68.407 Y-4.73
Y-4.818
G0 Z5
X-65.225 Y-8
Z2
G1 Z0 F1000
X-64.306 Y-7.335
G3 X-64.306 Y-7.081 I-0.127 J0.127
X-66.145 Y-8.919 Z-0.15 I-0.919 J-0.919
X-64.306 Y-7.081 Z-0.3 I0.919 J0.919
X-66.145 Y-8.919 Z-0.45 I-0.919 J-0.919
X-64.306 Y-7.081 Z-0.6 I0.919 J0.919
X-66.145 Y-8.919 Z-0.75 I-0.919 J-0.919
X-64.306 Y-7.081 Z-0.9 I0.919 J0.919
X-66.145 Y-8.919 Z-1.05 I-0.919 J-0.919
X-64.306 Y-7.081 Z-1.2 I0.919 J0.919
X-66.145 Y-8.919 Z-1.35 I-0.919 J-0.919
X-64.306 Y-7.081 Z-1.5 I0.919 J0.919
X-66.145 Y-8.919 Z-1.65 I-0.919 J-0.919
X-64.306 Y-7.081 Z-1.8 I0.919 J0.919
X-66.145 Y-8.919 Z-1.95 I-0.919 J-0.919
X-64.306 Y-7.081 Z-2.1 I0.919 J0.919
X-66.145 Y-8.919 Z-2.25 I-0.919 J-0.919
X-64.306 Y-7.081 Z-2.4 I0.919 J0.919
X-66.145 Y-8.919 Z-2.55 I-0.919 J-0.919
X-64.306 Y-7.081 Z-2.7 I0.919 J0.919
X-66.145 Y-8.919 Z-2.85 I-0.919 J-0.919
X-64.306 Y-7.081 Z-3 I0.919 J0.919
X-66.145 Y-8.919 Z-3.15 I-0.919 J-0.919
X-64.306 Y-7.081 Z-3.3 I0.919 J0.919
X-66.145 Y-8.919 I-0.919 J-0.919
X-64.306 Y-7.081 I0.919 J0.919
X-64.561 Y-7.081 I-0.127 J-0.127
G1 X-65.225 Y-8
G0 Z5
X-62.043 Y-4.818
Z2
G1 Z0 F1000
X-61.955
X-61.941 Y-4.798
X-61.937 Y-4.774
X-61.941 Y-4.75
X-61.955 Y-4.73
X-61.992 Y-4.704 Z-0.017
X-62.035 Y-4.693 Z-0.034
X-62.079 Y-4.698 Z-0.051
X-62.119 Y-4.718 Z-0.068
X-62.149 Y-4.751 Z-0.085
X-62.166 Y-4.792 Z-0.103
X-62.167 Y-4.837 Z-0.12
X-62.153 Y-4.879 Z-0.137
X-62.124 Y-4.913 Z-0.154
X-62.086 Y-4.936 Z-0.171
X-62.042 Y-4.943 Z-0.188
X-61.998 Y-4.935 Z-0.205
X-61.96 Y-4.911 Z-0.222
X-61.933 Y-4.876 Z-0.239
X-61.919 Y-4.834 Z-0.256
X-61.922 Y-4.789 Z-0.274
X-61.94 Y-4.748 Z-0.291
X-61.971 Y-4.716 Z-0.308
X-62.011 Y-4.697 Z-0.325
X-62.055 Y-4.694 Z-0.342
X-62.098 Y-4.706 Z-0.359
X-62.134 Y-4.732 Z-0.376
X-62.158 Y-4.769 Z-0.393
X-62.168 Y-4.812 Z-0.41
X-62.162 Y-4.857 Z-0.427
X-62.141 Y-4.896 Z-0.445
X-62.108 Y-4.925 Z-0.462
X-62.066 Y-4.941 Z-0.479
X-62.022 Z-0.496
X-61.98 Y-4.926 Z-0.513
X-61.946 Y-4.897 Z-0.53
X-61.925 Y-4.858 Z-0.547
X-61.919 Y-4.813 Z-0.564
X-61.928 Y-4.77 Z-0.581
X-61.952 Y-4.733 Z-0.598
X-61.988 Y-4.706 Z-0.616
X-62.031 Y-4.694 Z-0.633
X-62.075 Y-4.697 Z-0.65
X-62.115 Y-4.716 Z-0.667
X-62.147 Y-4.748 Z-0.684
X-62.165 Y-4.788 Z-0.701
X-62.168 Y-4.833 Z-0.718
X-62.155 Y-4.875 Z-0.735
X-62.127 Y-4.911 Z-0.752
X-62.09 Y-4.934 Z-0.769
X-62.046 Y-4.943 Z-0.787
X-62.002 Y-4.936 Z-0.804
X-61.963 Y-4.914 Z-0.821
X-61.935 Y-4.88 Z-0.838
X-61.92 Y-4.838 Z-0.855
X-61.921 Y-4.793 Z-0.872
X-61.937 Y-4.752 Z-0.889
X-61.967 Y-4.719 Z-0.906
X-62.007 Y-4.698 Z-0.923
X-62.051 Y-4.693 Z-0.94
X-62.094 Y-4.704 Z-0.958
X-62.131 Y-4.729 Z-0.975
X-62.157 Y-4.765 Z-0.992
X-62.168 Y-4.808 Z-1.009
X-62.164 Y-4.853 Z-1.026
X-62.144 Y-4.893 Z-1.043
X-62.111 Y-4.923 Z-1.06
X-62.07 Y-4.94 Z-1.077
X-62.026 Y-4.942 Z-1.094
X-61.983 Y-4.928 Z-1.111
X-61.949 Y-4.9 Z-1.128
X-61.926 Y-4.861 Z-1.146
X-61.918 Y-4.818 Z-1.163
X-61.927 Y-4.774 Z-1.18
X-61.949 Y-4.736 Z-1.197
X-61.984 Y-4.708 Z-1.214
X-62.027 Y-4.694 Z-1.231
X-62.071 Y-4.696 Z-1.248
X-62.112 Y-4.714 Z-1.265
X-62.144 Y-4.744 Z-1.282
X-62.164 Y-4.784 Z-1.299
X-62.168 Y-4.829 Z-1.317
X-62.156 Y-4.872 Z-1.334
X-62.13 Y-4.908 Z-1.351
X-62.093 Y-4.933 Z-1.368
X-62.05 Y-4.943 Z-1.385
X-62.006 Y-4.937 Z-1.402
X-61.966 Y-4.917 Z-1.419
X-61.937 Y-4.883 Z-1.436
X-61.921 Y-4.842 Z-1.453
X-61.92 Y-4.797 Z-1.47
X-61.935 Y-4.755 Z-1.488
X-61.964 Y-4.721 Z-1.505
X-62.003 Y-4.7 Z-1.522
X-62.047 Y-4.693 Z-1.539
X-62.091 Y-4.702 Z-1.556
X-62.128 Y-4.726 Z-1.573
X-62.155 Y-4.762 Z-1.59
X-62.168 Y-4.804 Z-1.607
X-62.165 Y-4.849 Z-1.624
X-62.146 Y-4.889 Z-1.641
X-62.115 Y-4.921 Z-1.659
X-62.074 Y-4.939 Z-1.676
X-62.03 Y-4.942 Z-1.693
X-61.987 Y-4.93 Z-1.71
X-61.952 Y-4.903 Z-1.727
X-61.928 Y-4.865 Z-1.744
X-61.918 Y-4.822 Z-1.761
X-61.925 Y-4.778 Z-1.778
X-61.947 Y-4.739 Z-1.795
X-61.981 Y-4.71 Z-1.812
X-62.023 Y-4.695 Z-1.83
X-62.067 Z-1.847
X-62.109 Y-4.711 Z-1.864
X-62.142 Y-4.741 Z-1.881
X-62.163 Y-4.78 Z-1.898
X-62.168 Y-4.825 Z-1.915
X-62.158 Y-4.868 Z-1.932
X-62.133 Y-4.905 Z-1.949
X-62.097 Y-4.931 Z-1.966
X-62.054 Y-4.943 Z-1.983
X-62.01 Y-4.938 Z-2.001
X-61.97 Y-4.919 Z-2.018
X-61.939 Y-4.887 Z-2.035
X-61.922 Y-4.846 Z-2.052
X-61.92 Y-4.801 Z-2.069
X-61.933 Y-4.759 Z-2.086
X-61.961 Y-4.724 Z-2.103
X-61.999 Y-4.701 Z-2.12
X-62.043 Y-4.693 Z-2.137
X-62.087 Y-4.701 Z-2.154
X-62.125 Y-4.723 Z-2.172
X-62.153 Y-4.758 Z-2.189
X-62.167 Y-4.8 Z-2.206
X-62.166 Y-4.845 Z-2.223
X-62.148 Y-4.886 Z-2.24
X-62.118 Y-4.918 Z-2.257
X-62.078 Y-4.938 Z-2.274
X-62.034 Y-4.943 Z-2.291
X-61.991 Y-4.931 Z-2.308
X-61.954 Y-4.906 Z-2.325
X-61.929 Y-4.869 Z-2.342
X-61.919 Y-4.826 Z-2.36
X-61.924 Y-4.781 Z-2.377
X-61.944 Y-4.742 Z-2.394
X-61.977 Y-4.712 Z-2.411
X-62.019 Y-4.695 Z-2.428
X-62.063 Z-2.445
X-62.105 Y-4.709 Z-2.462
X-62.139 Y-4.738 Z-2.479
X-62.161 Y-4.777 Z-2.496
X-62.168 Y-4.821 Z-2.513
X-62.16 Y-4.864 Z-2.531
X-62.136 Y-4.902 Z-2.548
X-62.101 Y-4.929 Z-2.565
X-62.058 Y-4.942 Z-2.582
X-62.014 Y-4.939 Z-2.599
X-61.973 Y-4.921 Z-2.616
X-61.941 Y-4.89 Z-2.633
X-61.923 Y-4.85 Z-2.65
X-61.919 Y-4.805 Z-2.667
X-61.931 Y-4.763 Z-2.684
X-61.958 Y-4.727 Z-2.702
X-61.995 Y-4.703 Z-2.719
X-62.039 Y-4.693 Z-2.736
X-62.083 Y-4.699 Z-2.753
X-62.122 Y-4.721 Z-2.77
X-62.151 Y-4.754 Z-2.787
X-62.167 Y-4.796 Z-2.804
X-62.166 Y-4.841 Z-2.821
X-62.151 Y-4.882 Z-2.838
X-62.121 Y-4.916 Z-2.855
X-62.082 Y-4.937 Z-2.873
X-62.038 Y-4.943 Z-2.89
X-61.994 Y-4.933 Z-2.907
X-61.957 Y-4.909 Z-2.924
X-61.931 Y-4.873 Z-2.941
X-61.919 Y-4.83 Z-2.958
X-61.923 Y-4.785 Z-2.975
X-61.942 Y-4.745 Z-2.992
X-61.974 Y-4.714 Z-3.009
X-62.015 Y-4.696 Z-3.026
X-62.059 Y-4.694 Z-3.044
X-62.102 Y-4.707 Z-3.061
X-62.137 Y-4.735 Z-3.078
X-62.16 Y-4.773 Z-3.095
X-62.168 Y-4.816 Z-3.112
X-62.161 Y-4.86 Z-3.129
X-62.139 Y-4.899 Z-3.146
X-62.104 Y-4.927 Z-3.163
X-62.062 Y-4.942 Z-3.18
X-62.018 Y-4.94 Z-3.197
X-61.976 Y-4.924 Z-3.215
X-61.944 Y-4.893 Z-3.232
X-61.924 Y-4.854 Z-3.249
X-61.919 Y-4.809 Z-3.266
X-61.93 Y-4.766 Z-3.283
X-61.955 Y-4.73 Z-3.3
G3 X-62.132 Y-4.906 I-0.088 J-0.088
X-61.955 Y-4.73 I0.088 J0.088
G1 X-61.975 Y-4.716
X-61.999 Y-4.711
X-62.023 Y-4.716
X-62.043 Y-4.73
Y-4.818
G0 Z15

(2D-Kontur7)
X-79.313 Y-5.95
Z15
Z5
G1 Z1.2 F200
Z0.5
S5000
X-79.156 Y-5.766 Z0.492 F333.3
X-79.119 Y-5.726 Z0.49
X-78.925 Y-5.525 Z0.48
X-78.89 Y-5.491 Z0.478
X-78.676 Y-5.292 Z0.468
X-78.643 Y-5.264 Z0.466
X-78.41 Y-5.067 Z0.456
X-78.379 Y-5.043 Z0.454
X-78.128 Y-4.849 Z0.443
X-78.1 Y-4.828 Z0.442
X-77.83 Y-4.637 Z0.431
X-77.804 Y-4.619 Z0.429
X-77.519 Y-4.431 Z0.418
X-77.495 Y-4.415 Z0.417
X-77.194 Y-4.23 Z0.404
X-77.171 Y-4.217 Z0.403
X-76.856 Y-4.035 Z0.391
X-76.826 Y-4.018 Z0.389
X-76.157 Y-3.667 Z0.363
X-76.12 Y-3.649 Z0.362
X-75.407 Y-3.315 Z0.334
X-75.375 Y-3.3 Z0.333
X-74.627 Y-2.986 Z0.305
X-74.597 Y-2.974 Z0.303
X-73.825 Y-2.681 Z0.275
X-73.797 Y-2.671 Z0.273
X-73.007 Y-2.401 Z0.244
X-72.98 Y-2.392 Z0.243
X-72.182 Y-2.147 Z0.214
X-72.156 Y-2.139 Z0.213
X-71.356 Y-1.92 Z0.184
X-71.33 Y-1.913 Z0.183
X-70.537 Y-1.721 Z0.155
X-70.511 Y-1.715 Z0.154
X-69.729 Y-1.55 Z0.126
X-69.702 Y-1.544 Z0.125
X-68.938 Y-1.407 Z0.098
X-68.91 Y-1.402 Z0.097
X-68.166 Y-1.293 Z0.071
X-68.137 Y-1.289 Z0.07
X-67.415 Y-1.206 Z0.044
X-67.385 Y-1.203 Z0.043
X-66.685 Y-1.147 Z0.019
X-66.655 Y-1.145 Z0.018
X-65.973 Y-1.112 Z-0.006
X-65.945 Y-1.111 Z-0.007
X-65.277 Y-1.1 Z-0.03
X-65.251 Z-0.031
X-64.591 Y-1.108 Z-0.054
X-64.569 Y-1.109 Z-0.055
X-63.91 Y-1.133 Z-0.078
X-63.892 Y-1.134 Z-0.079
X-63.229 Y-1.171 Z-0.102
X-63.209 Y-1.173 Z-0.103
X-61.857 Y-1.28 Z-0.15
X-61.839 Y-1.282 Z-0.151
X-60.442 Y-1.42 Z-0.2
X-60.435 Y-1.421
S4000
X-60.43 F1000
X-58.994 Y-1.582
X-58.985 Y-1.583
X-57.528 Y-1.76
X-57.52 Y-1.761
X-56.066 Y-1.951
X-56.057 Y-1.952
X-54.634 Y-2.154
X-54.622 Y-2.156
X-53.255 Y-2.367
X-53.242 Y-2.369
X-51.946 Y-2.589
X-51.935 Y-2.59
X-50.705 Y-2.814
X-50.702
X-49.519 Y-3.033
X-48.341 Y-3.237
X-47.744 Y-3.329
X-47.125 Y-3.414
X-46.48 Y-3.49
X-45.804 Y-3.557
X-45.092 Y-3.614
X-44.344 Y-3.66
X-43.559 Y-3.696
X-42.738 Y-3.722
X-41.884 Y-3.737
X-41.002 Y-3.743
X-39.154 Y-3.727
X-37.231 Y-3.68
X-35.266 Y-3.607
X-33.295 Y-3.518
X-31.357 Y-3.42
X-29.484 Y-3.323
X-29.483
X-27.7 Y-3.233
X-27.695
X-26.011 Y-3.159
X-26.002
X-24.41 Y-3.105
X-24.398 Y-3.104
X-22.875 Y-3.073
X-22.861
X-21.383 Y-3.066
X-21.369
X-19.909 Y-3.082
X-19.897 Y-3.083
X-18.437 Y-3.119
X-18.427
X-16.956 Y-3.173
X-16.949
X-15.466 Y-3.238
X-15.462
X-13.967 Y-3.31
X-12.464 Y-3.384
X-10.961 Y-3.453
X-9.465 Y-3.514
X-7.983 Y-3.56
X-6.522 Y-3.59
X-5.079 Y-3.6
G2 X-4.449 Y-3.864 I-0.006 J-0.9
G1 X-1.656 Y-6.656
G2 X-1.656 Y-9.344 I-1.344 J-1.344
G1 X-4.449 Y-12.136
G2 X-5.079 Y-12.4 I-0.636 J0.636
G1 X-6.522 Y-12.41
X-7.983 Y-12.44
X-9.465 Y-12.486
X-10.961 Y-12.547
X-12.464 Y-12.616
X-13.966 Y-12.69
X-15.462 Y-12.762
X-15.466
X-16.949 Y-12.827
X-16.956
X-18.427 Y-12.881
X-18.437
X-19.897 Y-12.917
X-19.909 Y-12.918
X-21.369 Y-12.934
X-21.383
X-22.861 Y-12.927
X-22.875
X-24.398 Y-12.896
X-24.41 Y-12.895
X-26.002 Y-12.841
X-26.011
X-27.695 Y-12.767
X-27.7
X-29.483 Y-12.677
X-29.484
X-31.357 Y-12.58
X-33.295 Y-12.482
X-35.266 Y-12.393
X-37.231 Y-12.32
X-39.154 Y-12.273
X-41.002 Y-12.257
X-41.884 Y-12.263
X-42.738 Y-12.278
X-43.559 Y-12.304
X-44.344 Y-12.34
X-45.092 Y-12.386
X-45.804 Y-12.443
X-46.48 Y-12.509
X-47.125 Y-12.586
X-47.744 Y-12.671
X-48.341 Y-12.763
X-49.519 Y-12.967
X-50.702 Y-13.186
X-50.705
X-51.935 Y-13.41
X-51.946 Y-13.411
X-53.242 Y-13.631
X-53.255 Y-13.633
X-54.622 Y-13.844
X-54.634 Y-13.846
X-56.057 Y-14.048
X-56.066 Y-14.049
X-57.52 Y-14.239
X-57.528 Y-14.24
X-58.985 Y-14.417
X-58.994 Y-14.418
X-60.43 Y-14.579
X-60.442 Y-14.58
X-61.839 Y-14.718
X-61.857 Y-14.72
X-63.209 Y-14.827
X-63.229 Y-14.829
X-63.892 Y-14.866
X-63.91 Y-14.867
X-64.569 Y-14.891
X-64.591 Y-14.892
X-65.251 Y-14.9
X-65.277
X-65.945 Y-14.889
X-65.973 Y-14.888
X-66.655 Y-14.855
X-66.685 Y-14.853
X-67.385 Y-14.797
X-67.415 Y-14.794
X-68.137 Y-14.711
X-68.166 Y-14.707
X-68.91 Y-14.598
X-68.938 Y-14.593
X-69.702 Y-14.456
X-69.729 Y-14.45
X-70.511 Y-14.285
X-70.537 Y-14.279
X-71.33 Y-14.087
X-71.356 Y-14.08
X-72.156 Y-13.861
X-72.182 Y-13.853
X-72.98 Y-13.608
X-73.007 Y-13.599
X-73.796 Y-13.329
X-73.825 Y-13.319
X-74.597 Y-13.026
X-74.627 Y-13.014
X-75.374 Y-12.7
X-75.407 Y-12.685
X-76.12 Y-12.351
X-76.157 Y-12.333
X-76.826 Y-11.981
X-76.856 Y-11.965
X-77.171 Y-11.783
X-77.194 Y-11.77
X-77.495 Y-11.585
X-77.519 Y-11.569
X-77.804 Y-11.381
X-77.83 Y-11.363
X-78.1 Y-11.172
X-78.128 Y-11.151
X-78.379 Y-10.957
X-78.41 Y-10.933
X-78.643 Y-10.736
X-78.676 Y-10.708
X-78.89 Y-10.509
X-78.925 Y-10.475
X-79.119 Y-10.274
X-79.156 Y-10.234
X-79.329 Y-10.031
X-79.367 Y-9.983
X-79.519 Y-9.779
X-79.558 Y-9.722
X-79.688 Y-9.517
X-79.726 Y-9.451
X-79.833 Y-9.245
X-79.868 Y-9.168
X-79.952 Y-8.961
X-79.982 Y-8.874
X-80.042 Y-8.666
X-80.064 Y-8.57
X-80.1 Y-8.362
X-80.112 Y-8.26
X-80.124 Y-8.052
Y-7.948
X-80.112 Y-7.74
X-80.1 Y-7.638
X-80.064 Y-7.43
X-80.042 Y-7.334
X-79.982 Y-7.126
X-79.952 Y-7.039
X-79.868 Y-6.832
X-79.833 Y-6.755
X-79.726 Y-6.549
X-79.688 Y-6.483
X-79.558 Y-6.278
X-79.519 Y-6.221
X-79.367 Y-6.017
X-79.329 Y-5.969
X-79.156 Y-5.766
X-79.119 Y-5.726
X-78.925 Y-5.525
X-78.89 Y-5.491
X-78.676 Y-5.292
X-78.643 Y-5.264
X-78.41 Y-5.067
X-78.379 Y-5.043
X-78.128 Y-4.849
X-78.1 Y-4.828
X-77.83 Y-4.637
X-77.804 Y-4.619
X-77.519 Y-4.431
X-77.495 Y-4.415
X-77.194 Y-4.23
X-77.171 Y-4.217
X-76.856 Y-4.035
X-76.826 Y-4.018
X-76.157 Y-3.667
X-76.12 Y-3.649
X-75.407 Y-3.315
X-75.375 Y-3.3
X-74.627 Y-2.986
X-74.597 Y-2.974
X-73.825 Y-2.681
X-73.797 Y-2.671
X-73.007 Y-2.401
X-72.98 Y-2.392
X-72.182 Y-2.147
X-72.156 Y-2.139
X-71.356 Y-1.92
X-71.33 Y-1.913
X-70.537 Y-1.721
X-70.511 Y-1.715
X-69.729 Y-1.55
X-69.702 Y-1.544
X-68.938 Y-1.407
X-68.91 Y-1.402
X-68.166 Y-1.293
X-68.137 Y-1.289
X-67.415 Y-1.206
X-67.385 Y-1.203
X-66.685 Y-1.147
X-66.655 Y-1.145
X-65.973 Y-1.112
X-65.945 Y-1.111
X-65.277 Y-1.1
X-65.251
X-64.591 Y-1.108
X-64.569 Y-1.109
X-63.91 Y-1.133
X-63.892 Y-1.134
X-63.229 Y-1.171
X-63.209 Y-1.173
X-61.857 Y-1.28
X-61.839 Y-1.282
X-60.442 Y-1.42
X-60.435 Y-1.421
S5000
X-60.43 F333.3
X-58.994 Y-1.582 Z-0.251
X-58.985 Y-1.583
X-57.528 Y-1.76 Z-0.302
X-57.52 Y-1.761
X-56.066 Y-1.951 Z-0.354
X-56.057 Y-1.952
X-54.753 Y-2.137 Z-0.4
S4000
X-54.634 Y-2.154 F1000
X-54.622 Y-2.156
X-53.255 Y-2.367
X-53.242 Y-2.369
X-51.946 Y-2.589
X-51.935 Y-2.59
X-50.705 Y-2.814
X-50.702
X-49.519 Y-3.033
X-48.341 Y-3.237
X-47.744 Y-3.329
X-47.125 Y-3.414
X-46.48 Y-3.49
X-45.804 Y-3.557
X-45.092 Y-3.614
X-44.344 Y-3.66
X-43.559 Y-3.696
X-42.738 Y-3.722
X-41.884 Y-3.737
X-41.002 Y-3.743
X-39.154 Y-3.727
X-37.231 Y-3.68
X-35.266 Y-3.607
X-33.295 Y-3.518
X-31.357 Y-3.42
X-29.484 Y-3.323
X-29.483
X-27.7 Y-3.233
X-27.695
X-26.011 Y-3.159
X-26.002
X-24.41 Y-3.105
X-24.398 Y-3.104
X-22.875 Y-3.073
X-22.861
X-21.383 Y-3.066
X-21.369
X-19.909 Y-3.082
X-19.897 Y-3.083
X-18.437 Y-3.119
X-18.427
X-16.956 Y-3.173
X-16.949
X-15.466 Y-3.238
X-15.462
X-13.967 Y-3.31
X-12.464 Y-3.384
X-10.961 Y-3.453
X-9.465 Y-3.514
X-7.983 Y-3.56
X-6.522 Y-3.59
X-5.079 Y-3.6
G2 X-4.449 Y-3.864 I-0.006 J-0.9
G1 X-1.656 Y-6.656
G2 X-1.656 Y-9.344 I-1.344 J-1.344
G1 X-4.449 Y-12.136
G2 X-5.079 Y-12.4 I-0.636 J0.636
G1 X-6.522 Y-12.41
X-7.983 Y-12.44
X-9.465 Y-12.486
X-10.961 Y-12.547
X-12.464 Y-12.616
X-13.966 Y-12.69
X-15.462 Y-12.762
X-15.466
X-16.949 Y-12.827
X-16.956
X-18.427 Y-12.881
X-18.437
X-19.897 Y-12.917
X-19.909 Y-12.918
X-21.369 Y-12.934
X-21.383
X-22.861 Y-12.927
X-22.875
X-24.398 Y-12.896
X-24.41 Y-12.895
X-26.002 Y-12.841
X-26.011
X-27.695 Y-12.767
X-27.7
X-29.483 Y-12.677
X-29.484
X-31.357 Y-12.58
X-33.295 Y-12.482
X-35.266 Y-12.393
X-37.231 Y-12.32
X-39.154 Y-12.273
X-41.002 Y-12.257
X-41.884 Y-12.263
X-42.738 Y-12.278
X-43.559 Y-12.304
X-44.344 Y-12.34
X-45.092 Y-12.386
X-45.804 Y-12.443
X-46.48 Y-12.509
X-47.125 Y-12.586
X-47.744 Y-12.671
X-48.341 Y-12.763
X-49.519 Y-12.967
X-50.702 Y-13.186
X-50.705
X-51.935 Y-13.41
X-51.946 Y-13.411
X-53.242 Y-13.631
X-53.255 Y-13.633
X-54.622 Y-13.844
X-54.634 Y-13.846
X-56.057 Y-14.048
X-56.066 Y-14.049
X-57.52 Y-14.239
X-57.528 Y-14.24
X-58.985 Y-14.417
X-58.994 Y-14.418
X-60.43 Y-14.579
X-60.442 Y-14.58
X-61.839 Y-14.718
X-61.857 Y-14.72
X-63.209 Y-14.827
X-63.229 Y-14.829
X-63.892 Y-14.866
X-63.91 Y-14.867
X-64.569 Y-14.891
X-64.591 Y-14.892
X-65.251 Y-14.9
X-65.277
X-65.945 Y-14.889
X-65.973 Y-14.888
X-66.655 Y-14.855
X-66.685 Y-14.853
X-67.385 Y-14.797
X-67.415 Y-14.794
X-68.137 Y-14.711
X-68.166 Y-14.707
X-68.91 Y-14.598
X-68.938 Y-14.593
X-69.702 Y-14.456
X-69.729 Y-14.45
X-70.511 Y-14.285
X-70.537 Y-14.279
X-71.33 Y-14.087
X-71.356 Y-14.08
X-72.156 Y-13.861
X-72.182 Y-13.853
X-72.98 Y-13.608
X-73.007 Y-13.599
X-73.796 Y-13.329
X-73.825 Y-13.319
X-74.597 Y-13.026
X-74.627 Y-13.014
X-75.374 Y-12.7
X-75.407 Y-12.685
X-76.12 Y-12.351
X-76.157 Y-12.333
X-76.826 Y-11.981
X-76.856 Y-11.965
X-77.171 Y-11.783
X-77.194 Y-11.77
X-77.495 Y-11.585
X-77.519 Y-11.569
X-77.804 Y-11.381
X-77.83 Y-11.363
X-78.1 Y-11.172
X-78.128 Y-11.151
X-78.379 Y-10.957
X-78.41 Y-10.933
X-78.643 Y-10.736
X-78.676 Y-10.708
X-78.89 Y-10.509
X-78.925 Y-10.475
X-79.119 Y-10.274
X-79.156 Y-10.234
X-79.329 Y-10.031
X-79.367 Y-9.983
X-79.519 Y-9.779
X-79.558 Y-9.722
X-79.688 Y-9.517
X-79.726 Y-9.451
X-79.833 Y-9.245
X-79.868 Y-9.168
X-79.952 Y-8.961
X-79.982 Y-8.874
X-80.042 Y-8.666
X-80.064 Y-8.57
X-80.1 Y-8.362
X-80.112 Y-8.26
X-80.124 Y-8.052
Y-7.948
X-80.112 Y-7.74
X-80.1 Y-7.638
X-80.064 Y-7.43
X-80.042 Y-7.334
X-79.982 Y-7.126
X-79.952 Y-7.039
X-79.868 Y-6.832
X-79.833 Y-6.755
X-79.726 Y-6.549
X-79.688 Y-6.483
X-79.558 Y-6.278
X-79.519 Y-6.221
X-79.367 Y-6.017
X-79.329 Y-5.969
X-79.156 Y-5.766
X-79.119 Y-5.726
X-78.925 Y-5.525
X-78.89 Y-5.491
X-78.676 Y-5.292
X-78.643 Y-5.264
X-78.41 Y-5.067
X-78.379 Y-5.043
X-78.128 Y-4.849
X-78.1 Y-4.828
X-77.83 Y-4.637
X-77.804 Y-4.619
X-77.519 Y-4.431
X-77.495 Y-4.415
X-77.194 Y-4.23
X-77.171 Y-4.217
X-76.856 Y-4.035
X-76.826 Y-4.018
X-76.157 Y-3.667
X-76.12 Y-3.649
X-75.407 Y-3.315
X-75.375 Y-3.3
X-74.627 Y-2.986
X-74.597 Y-2.974
X-73.825 Y-2.681
X-73.797 Y-2.671
X-73.007 Y-2.401
X-72.98 Y-2.392
X-72.182 Y-2.147
X-72.156 Y-2.139
X-71.356 Y-1.92
X-71.33 Y-1.913
X-70.537 Y-1.721
X-70.511 Y-1.715
X-69.729 Y-1.55
X-69.702 Y-1.544
X-68.938 Y-1.407
X-68.91 Y-1.402
X-68.166 Y-1.293
X-68.137 Y-1.289
X-67.415 Y-1.206
X-67.385 Y-1.203
X-66.685 Y-1.147
X-66.655 Y-1.145
X-65.973 Y-1.112
X-65.945 Y-1.111
X-65.277 Y-1.1
X-65.251
X-64.591 Y-1.108
X-64.569 Y-1.109
X-63.91 Y-1.133
X-63.892 Y-1.134
X-63.229 Y-1.171
X-63.209 Y-1.173
X-61.857 Y-1.28
X-61.839 Y-1.282
X-60.442 Y-1.42
X-60.43 Y-1.421
X-58.994 Y-1.582
X-58.985 Y-1.583
X-57.528 Y-1.76
X-57.52 Y-1.761
X-56.066 Y-1.951
X-56.057 Y-1.952
X-54.753 Y-2.137
S5000
X-54.634 Y-2.154 Z-0.404 F333.3
X-54.622 Y-2.156 Z-0.405
X-53.255 Y-2.367 Z-0.453
X-53.242 Y-2.369
X-51.946 Y-2.589 Z-0.499
X-51.935 Y-2.59 Z-0.5
X-50.705 Y-2.814 Z-0.543
X-50.702
X-49.519 Y-3.033 Z-0.585
X-49.109 Y-3.104 Z-0.6
S4000
X-48.341 Y-3.237 F1000
X-47.744 Y-3.329
X-47.125 Y-3.414
X-46.48 Y-3.49
X-45.804 Y-3.557
X-45.092 Y-3.614
X-44.344 Y-3.66
X-43.559 Y-3.696
X-42.738 Y-3.722
X-41.884 Y-3.737
X-41.002 Y-3.743
X-39.154 Y-3.727
X-37.231 Y-3.68
X-35.266 Y-3.607
X-33.295 Y-3.518
X-31.357 Y-3.42
X-29.484 Y-3.323
X-29.483
X-27.7 Y-3.233
X-27.695
X-26.011 Y-3.159
X-26.002
X-24.41 Y-3.105
X-24.398 Y-3.104
X-22.875 Y-3.073
X-22.861
X-21.383 Y-3.066
X-21.369
X-19.909 Y-3.082
X-19.897 Y-3.083
X-18.437 Y-3.119
X-18.427
X-16.956 Y-3.173
X-16.949
X-15.466 Y-3.238
X-15.462
X-13.967 Y-3.31
X-12.464 Y-3.384
X-10.961 Y-3.453
X-9.465 Y-3.514
X-7.983 Y-3.56
X-6.522 Y-3.59
X-5.079 Y-3.6
G2 X-4.449 Y-3.864 I-0.006 J-0.9
G1 X-1.656 Y-6.656
G2 X-1.656 Y-9.344 I-1.344 J-1.344
G1 X-4.449 Y-12.136
G2 X-5.079 Y-12.4 I-0.636 J0.636
G1 X-6.522 Y-12.41
X-7.983 Y-12.44
X-9.465 Y-12.486
X-10.961 Y-12.547
X-12.464 Y-12.616
X-13.966 Y-12.69
X-15.462 Y-12.762
X-15.466
X-16.949 Y-12.827
X-16.956
X-18.427 Y-12.881
X-18.437
X-19.897 Y-12.917
X-19.909 Y-12.918
X-21.369 Y-12.934
X-21.383
X-22.861 Y-12.927
X-22.875
X-24.398 Y-12.896
X-24.41 Y-12.895
X-26.002 Y-12.841
X-26.011
X-27.695 Y-12.767
X-27.7
X-29.483 Y-12.677
X-29.484
X-31.357 Y-12.58
X-33.295 Y-12.482
X-35.266 Y-12.393
X-37.231 Y-12.32
X-39.154 Y-12.273
X-41.002 Y-12.257
X-41.884 Y-12.263
X-42.738 Y-12.278
X-43.559 Y-12.304
X-44.344 Y-12.34
X-45.092 Y-12.386
X-45.804 Y-12.443
X-46.48 Y-12.509
X-47.125 Y-12.586
X-47.744 Y-12.671
X-48.341 Y-12.763
X-49.519 Y-12.967
X-50.702 Y-13.186
X-50.705
X-51.935 Y-13.41
X-51.946 Y-13.411
X-53.242 Y-13.631
X-53.255 Y-13.633
X-54.622 Y-13.844
X-54.634 Y-13.846
X-56.057 Y-14.048
X-56.066 Y-14.049
X-57.52 Y-14.239
X-57.528 Y-14.24
X-58.985 Y-14.417
X-58.994 Y-14.418
X-60.43 Y-14.579
X-60.442 Y-14.58
X-61.839 Y-14.718
X-61.857 Y-14.72
X-63.209 Y-14.827
X-63.229 Y-14.829
X-63.892 Y-14.866
X-63.91 Y-14.867
X-64.569 Y-14.891
X-64.591 Y-14.892
X-65.251 Y-14.9
X-65.277
X-65.945 Y-14.889
X-65.973 Y-14.888
X-66.655 Y-14.855
X-66.685 Y-14.853
X-67.385 Y-14.797
X-67.415 Y-14.794
X-68.137 Y-14.711
X-68.166 Y-14.707
X-68.91 Y-14.598
X-68.938 Y-14.593
X-69.702 Y-14.456
X-69.729 Y-14.45
X-70.511 Y-14.285
X-70.537 Y-14.279
X-71.33 Y-14.087
X-71.356 Y-14.08
X-72.156 Y-13.861
X-72.182 Y-13.853
X-72.98 Y-13.608
X-73.007 Y-13.599
X-73.796 Y-13.329
X-73.825 Y-13.319
X-74.597 Y-13.026
X-74.627 Y-13.014
X-75.374 Y-12.7
X-75.407 Y-12.685
X-76.12 Y-12.351
X-76.157 Y-12.333
X-76.826 Y-11.981
X-76.856 Y-11.965
X-77.171 Y-11.783
X-77.194 Y-11.77
X-77.495 Y-11.585
X-77.519 Y-11.569
X-77.804 Y-11.381
X-77.83 Y-11.363
X-78.1 Y-11.172
X-78.128 Y-11.151
X-78.379 Y-10.957
X-78.41 Y-10.933
X-78.643 Y-10.736
X-78.676 Y-10.708
X-78.89 Y-10.509
X-78.925 Y-10.475
X-79.119 Y-10.274
X-79.156 Y-10.234
X-79.329 Y-10.031
X-79.367 Y-9.983
X-79.519 Y-9.779
X-79.558 Y-9.722
X-79.688 Y-9.517
X-79.726 Y-9.451
X-79.833 Y-9.245
X-79.868 Y-9.168
X-79.952 Y-8.961
X-79.982 Y-8.874
X-80.042 Y-8.666
X-80.064 Y-8.57
X-80.1 Y-8.362
X-80.112 Y-8.26
X-80.124 Y-8.052
Y-7.948
X-80.112 Y-7.74
X-80.1 Y-7.638
X-80.064 Y-7.43
X-80.042 Y-7.334
X-79.982 Y-7.126
X-79.952 Y-7.039
X-79.868 Y-6.832
X-79.833 Y-6.755
X-79.726 Y-6.549
X-79.688 Y-6.483
X-79.558 Y-6.278
X-79.519 Y-6.221
X-79.367 Y-6.017
X-79.329 Y-5.969
X-79.156 Y-5.766
X-79.119 Y-5.726
X-78.925 Y-5.525
X-78.89 Y-5.491
X-78.676 Y-5.292
X-78.643 Y-5.264
X-78.41 Y-5.067
X-78.379 Y-5.043
X-78.128 Y-4.849
X-78.1 Y-4.828
X-77.83 Y-4.637
X-77.804 Y-4.619
X-77.519 Y-4.431
X-77.495 Y-4.415
X-77.194 Y-4.23
X-77.171 Y-4.217
X-76.856 Y-4.035
X-76.826 Y-4.018
X-76.157 Y-3.667
X-76.12 Y-3.649
X-75.407 Y-3.315
X-75.375 Y-3.3
X-74.627 Y-2.986
X-74.597 Y-2.974
X-73.825 Y-2.681
X-73.797 Y-2.671
X-73.007 Y-2.401
X-72.98 Y-2.392
X-72.182 Y-2.147
X-72.156 Y-2.139
X-71.356 Y-1.92
X-71.33 Y-1.913
X-70.537 Y-1.721
X-70.511 Y-1.715
X-69.729 Y-1.55
X-69.702 Y-1.544
X-68.938 Y-1.407
X-68.91 Y-1.402
X-68.166 Y-1.293
X-68.137 Y-1.289
X-67.415 Y-1.206
X-67.385 Y-1.203
X-66.685 Y-1.147
X-66.655 Y-1.145
X-65.973 Y-1.112
X-65.945 Y-1.111
X-65.277 Y-1.1
X-65.251
X-64.591 Y-1.108
X-64.569 Y-1.109
X-63.91 Y-1.133
X-63.892 Y-1.134
X-63.229 Y-1.171
X-63.209 Y-1.173
X-61.857 Y-1.28
X-61.839 Y-1.282
X-60.442 Y-1.42
X-60.43 Y-1.421
X-58.994 Y-1.582
X-58.985 Y-1.583
X-57.528 Y-1.76
X-57.52 Y-1.761
X-56.066 Y-1.951
X-56.057 Y-1.952
X-54.753 Y-2.137
X-54.634 Y-2.154
X-54.622 Y-2.156
X-53.255 Y-2.367
X-53.242 Y-2.369
X-51.946 Y-2.589
X-51.935 Y-2.59
X-50.705 Y-2.814
X-50.702
X-49.519 Y-3.033
X-49.109 Y-3.104
S5000
X-48.341 Y-3.237 Z-0.627 F333.3
X-47.744 Y-3.329 Z-0.648
X-47.125 Y-3.414 Z-0.67
X-46.48 Y-3.49 Z-0.693
X-45.804 Y-3.557 Z-0.717
X-45.092 Y-3.614 Z-0.741
X-44.344 Y-3.66 Z-0.768
X-43.559 Y-3.696 Z-0.795
X-43.418 Y-3.701 Z-0.8
S4000
X-42.738 Y-3.722 F1000
X-41.884 Y-3.737
X-41.002 Y-3.743
X-39.154 Y-3.727
X-37.231 Y-3.68
X-35.266 Y-3.607
X-33.295 Y-3.518
X-31.357 Y-3.42
X-29.484 Y-3.323
X-29.483
X-27.7 Y-3.233
X-27.695
X-26.011 Y-3.159
X-26.002
X-24.41 Y-3.105
X-24.398 Y-3.104
X-22.875 Y-3.073
X-22.861
X-21.383 Y-3.066
X-21.369
X-19.909 Y-3.082
X-19.897 Y-3.083
X-18.437 Y-3.119
X-18.427
X-16.956 Y-3.173
X-16.949
X-15.466 Y-3.238
X-15.462
X-13.967 Y-3.31
X-12.464 Y-3.384
X-10.961 Y-3.453
X-9.465 Y-3.514
X-7.983 Y-3.56
X-6.522 Y-3.59
X-5.079 Y-3.6
G2 X-4.449 Y-3.864 I-0.006 J-0.9
G1 X-1.656 Y-6.656
G2 X-1.656 Y-9.344 I-1.344 J-1.344
G1 X-4.449 Y-12.136
G2 X-5.079 Y-12.4 I-0.636 J0.636
G1 X-6.522 Y-12.41
X-7.983 Y-12.44
X-9.465 Y-12.486
X-10.961 Y-12.547
X-12.464 Y-12.616
X-13.966 Y-12.69
X-15.462 Y-12.762
X-15.466
X-16.949 Y-12.827
X-16.956
X-18.427 Y-12.881
X-18.437
X-19.897 Y-12.917
X-19.909 Y-12.918
X-21.369 Y-12.934
X-21.383
X-22.861 Y-12.927
X-22.875
X-24.398 Y-12.896
X-24.41 Y-12.895
X-26.002 Y-12.841
X-26.011
X-27.695 Y-12.767
X-27.7
X-29.483 Y-12.677
X-29.484
X-31.357 Y-12.58
X-33.295 Y-12.482
X-35.266 Y-12.393
X-37.231 Y-12.32
X-39.154 Y-12.273
X-41.002 Y-12.257
X-41.884 Y-12.263
X-42.738 Y-12.278
X-43.559 Y-12.304
X-44.344 Y-12.34
X-45.092 Y-12.386
X-45.804 Y-12.443
X-46.48 Y-12.509
X-47.125 Y-12.586
X-47.744 Y-12.671
X-48.341 Y-12.763
X-49.519 Y-12.967
X-50.702 Y-13.186
X-50.705
X-51.935 Y-13.41
X-51.946 Y-13.411
X-53.242 Y-13.631
X-53.255 Y-13.633
X-54.622 Y-13.844
X-54.634 Y-13.846
X-56.057 Y-14.048
X-56.066 Y-14.049
X-57.52 Y-14.239
X-57.528 Y-14.24
X-58.985 Y-14.417
X-58.994 Y-14.418
X-60.43 Y-14.579
X-60.442 Y-14.58
X-61.839 Y-14.718
X-61.857 Y-14.72
X-63.209 Y-14.827
X-63.229 Y-14.829
X-63.892 Y-14.866
X-63.91 Y-14.867
X-64.569 Y-14.891
X-64.591 Y-14.892
X-65.251 Y-14.9
X-65.277
X-65.945 Y-14.889
X-65.973 Y-14.888
X-66.655 Y-14.855
X-66.685 Y-14.853
X-67.385 Y-14.797
X-67.415 Y-14.794
X-68.137 Y-14.711
X-68.166 Y-14.707
X-68.91 Y-14.598
X-68.938 Y-14.593
X-69.702 Y-14.456
X-69.729 Y-14.45
X-70.511 Y-14.285
X-70.537 Y-14.279
X-71.33 Y-14.087
X-71.356 Y-14.08
X-72.156 Y-13.861
X-72.182 Y-13.853
X-72.98 Y-13.608
X-73.007 Y-13.599
X-73.796 Y-13.329
X-73.825 Y-13.319
X-74.597 Y-13.026
X-74.627 Y-13.014
X-75.374 Y-12.7
X-75.407 Y-12.685
X-76.12 Y-12.351
X-76.157 Y-12.333
X-76.826 Y-11.981
X-76.856 Y-11.965
X-77.171 Y-11.783
X-77.194 Y-11.77
X-77.495 Y-11.585
X-77.519 Y-11.569
X-77.804 Y-11.381
X-77.83 Y-11.363
X-78.1 Y-11.172
X-78.128 Y-11.151
X-78.379 Y-10.957
X-78.41 Y-10.933
X-78.643 Y-10.736
X-78.676 Y-10.708
X-78.89 Y-10.509
X-78.925 Y-10.475
X-79.119 Y-10.274
X-79.156 Y-10.234
X-79.329 Y-10.031
X-79.367 Y-9.983
X-79.519 Y-9.779
X-79.558 Y-9.722
X-79.688 Y-9.517
X-79.726 Y-9.451
X-79.833 Y-9.245
X-79.868 Y-9.168
X-79.952 Y-8.961
X-79.982 Y-8.874
X-80.042 Y-8.666
X-80.064 Y-8.57
X-80.1 Y-8.362
X-80.112 Y-8.26
X-80.124 Y-8.052
Y-7.948
X-80.112 Y-7.74
X-80.1 Y-7.638
X-80.064 Y-7.43
X-80.042 Y-7.334
X-79.982 Y-7.126
X-79.952 Y-7.039
X-79.868 Y-6.832
X-79.833 Y-6.755
X-79.726 Y-6.549
X-79.688 Y-6.483
X-79.558 Y-6.278
X-79.519 Y-6.221
X-79.367 Y-6.017
X-79.329 Y-5.969
X-79.156 Y-5.766
X-79.119 Y-5.726
X-78.925 Y-5.525
X-78.89 Y-5.491
X-78.676 Y-5.292
X-78.643 Y-5.264
X-78.41 Y-5.067
X-78.379 Y-5.043
X-78.128 Y-4.849
X-78.1 Y-4.828
X-77.83 Y-4.637
X-77.804 Y-4.619
X-77.519 Y-4.431
X-77.495 Y-4.415
X-77.194 Y-4.23
X-77.171 Y-4.217
X-76.856 Y-4.035
X-76.826 Y-4.018
X-76.157 Y-3.667
X-76.12 Y-3.649
X-75.407 Y-3.315
X-75.375 Y-3.3
X-74.627 Y-2.986
X-74.597 Y-2.974
X-73.825 Y-2.681
X-73.797 Y-2.671
X-73.007 Y-2.401
X-72.98 Y-2.392
X-72.182 Y-2.147
X-72.156 Y-2.139
X-71.356 Y-1.92
X-71.33 Y-1.913
X-70.537 Y-1.721
X-70.511 Y-1.715
X-69.729 Y-1.55
X-69.702 Y-1.544
X-68.938 Y-1.407
X-68.91 Y-1.402
X-68.166 Y-1.293
X-68.137 Y-1.289
X-67.415 Y-1.206
X-67.385 Y-1.203
X-66.685 Y-1.147
X-66.655 Y-1.145
X-65.973 Y-1.112
X-65.945 Y-1.111
X-65.277 Y-1.1
X-65.251
X-64.591 Y-1.108
X-64.569 Y-1.109
X-63.91 Y-1.133
X-63.892 Y-1.134
X-63.229 Y-1.171
X-63.209 Y-1.173
X-61.857 Y-1.28
X-61.839 Y-1.282
X-60.442 Y-1.42
X-60.43 Y-1.421
X-58.994 Y-1.582
X-58.985 Y-1.583
X-57.528 Y-1.76
X-57.52 Y-1.761
X-56.066 Y-1.951
X-56.057 Y-1.952
X-54.634 Y-2.154
X-54.622 Y-2.156
X-53.255 Y-2.367
X-53.242 Y-2.369
X-51.946 Y-2.589
X-51.935 Y-2.59
X-50.705 Y-2.814
X-50.702
X-49.519 Y-3.033
X-48.341 Y-3.237
X-47.744 Y-3.329
X-47.125 Y-3.414
X-46.48 Y-3.49
X-45.804 Y-3.557
X-45.092 Y-3.614
X-44.344 Y-3.66
X-43.559 Y-3.696
X-43.418 Y-3.701
S5000
X-42.738 Y-3.722 Z-0.824 F333.3
X-41.884 Y-3.737 Z-0.854
X-41.002 Y-3.743 Z-0.884
X-39.154 Y-3.727 Z-0.949
X-37.692 Y-3.691 Z-1
S4000
X-37.231 Y-3.68 F1000
X-35.266 Y-3.607
X-33.295 Y-3.518
X-31.357 Y-3.42
X-29.484 Y-3.323
X-29.483
X-27.7 Y-3.233
X-27.695
X-26.011 Y-3.159
X-26.002
X-24.41 Y-3.105
X-24.398 Y-3.104
X-22.875 Y-3.073
X-22.861
X-21.383 Y-3.066
X-21.369
X-19.909 Y-3.082
X-19.897 Y-3.083
X-18.437 Y-3.119
X-18.427
X-16.956 Y-3.173
X-16.949
X-15.466 Y-3.238
X-15.462
X-13.967 Y-3.31
X-12.464 Y-3.384
X-10.961 Y-3.453
X-9.465 Y-3.514
X-7.983 Y-3.56
X-6.522 Y-3.59
X-5.079 Y-3.6
G2 X-4.449 Y-3.864 I-0.006 J-0.9
G1 X-1.656 Y-6.656
G2 X-1.656 Y-9.344 I-1.344 J-1.344
G1 X-4.449 Y-12.136
G2 X-5.079 Y-12.4 I-0.636 J0.636
G1 X-6.522 Y-12.41
X-7.983 Y-12.44
X-9.465 Y-12.486
X-10.961 Y-12.547
X-12.464 Y-12.616
X-13.966 Y-12.69
X-15.462 Y-12.762
X-15.466
X-16.949 Y-12.827
X-16.956
X-18.427 Y-12.881
X-18.437
X-19.897 Y-12.917
X-19.909 Y-12.918
X-21.369 Y-12.934
X-21.383
X-22.861 Y-12.927
X-22.875
X-24.398 Y-12.896
X-24.41 Y-12.895
X-26.002 Y-12.841
X-26.011
X-27.695 Y-12.767
X-27.7
X-29.483 Y-12.677
X-29.484
X-31.357 Y-12.58
X-33.295 Y-12.482
X-35.266 Y-12.393
X-37.231 Y-12.32
X-39.154 Y-12.273
X-41.002 Y-12.257
X-41.884 Y-12.263
X-42.738 Y-12.278
X-43.559 Y-12.304
X-44.344 Y-12.34
X-45.092 Y-12.386
X-45.804 Y-12.443
X-46.48 Y-12.509
X-47.125 Y-12.586
X-47.744 Y-12.671
X-48.341 Y-12.763
X-49.519 Y-12.967
X-50.702 Y-13.186
X-50.705
X-51.935 Y-13.41
X-51.946 Y-13.411
X-53.242 Y-13.631
X-53.255 Y-13.633
X-54.622 Y-13.844
X-54.634 Y-13.846
X-56.057 Y-14.048
X-56.066 Y-14.049
X-57.52 Y-14.239
X-57.528 Y-14.24
X-58.985 Y-14.417
X-58.994 Y-14.418
X-60.43 Y-14.579
X-60.442 Y-14.58
X-61.839 Y-14.718
X-61.857 Y-14.72
X-63.209 Y-14.827
X-63.229 Y-14.829
X-63.892 Y-14.866
X-63.91 Y-14.867
X-64.569 Y-14.891
X-64.591 Y-14.892
X-65.251 Y-14.9
X-65.277
X-65.945 Y-14.889
X-65.973 Y-14.888
X-66.655 Y-14.855
X-66.685 Y-14.853
X-67.385 Y-14.797
X-67.415 Y-14.794
X-68.137 Y-14.711
X-68.166 Y-14.707
X-68.91 Y-14.598
X-68.938 Y-14.593
X-69.702 Y-14.456
X-69.729 Y-14.45
X-70.511 Y-14.285
X-70.537 Y-14.279
X-71.33 Y-14.087
X-71.356 Y-14.08
X-72.156 Y-13.861
X-72.182 Y-13.853
X-72.98 Y-13.608
X-73.007 Y-13.599
X-73.796 Y-13.329
X-73.825 Y-13.319
X-74.597 Y-13.026
X-74.627 Y-13.014
X-75.374 Y-12.7
X-75.407 Y-12.685
X-76.12 Y-12.351
X-76.157 Y-12.333
X-76.826 Y-11.981
X-76.856 Y-11.965
X-77.171 Y-11.783
X-77.194 Y-11.77
X-77.495 Y-11.585
X-77.519 Y-11.569
X-77.804 Y-11.381
X-77.83 Y-11.363
X-78.1 Y-11.172
X-78.128 Y-11.151
X-78.379 Y-10.957
X-78.41 Y-10.933
X-78.643 Y-10.736
X-78.676 Y-10.708
X-78.89 Y-10.509
X-78.925 Y-10.475
X-79.119 Y-10.274
X-79.156 Y-10.234
X-79.329 Y-10.031
X-79.367 Y-9.983
X-79.519 Y-9.779
X-79.558 Y-9.722
X-79.688 Y-9.517
X-79.726 Y-9.451
X-79.833 Y-9.245
X-79.868 Y-9.168
X-79.952 Y-8.961
X-79.982 Y-8.874
X-80.042 Y-8.666
X-80.064 Y-8.57
X-80.1 Y-8.362
X-80.112 Y-8.26
X-80.124 Y-8.052
Y-7.948
X-80.112 Y-7.74
X-80.1 Y-7.638
X-80.064 Y-7.43
X-80.042 Y-7.334
X-79.982 Y-7.126
X-79.952 Y-7.039
X-79.868 Y-6.832
X-79.833 Y-6.755
X-79.726 Y-6.549
X-79.688 Y-6.483
X-79.558 Y-6.278
X-79.519 Y-6.221
X-79.367 Y-6.017
X-79.329 Y-5.969
X-79.156 Y-5.766
X-79.119 Y-5.726
X-78.925 Y-5.525
X-78.89 Y-5.491
X-78.676 Y-5.292
X-78.643 Y-5.264
X-78.41 Y-5.067
X-78.379 Y-5.043
X-78.128 Y-4.849
X-78.1 Y-4.828
X-77.83 Y-4.637
X-77.804 Y-4.619
X-77.519 Y-4.431
X-77.495 Y-4.415
X-77.194 Y-4.23
X-77.171 Y-4.217
X-76.856 Y-4.035
X-76.826 Y-4.018
X-76.157 Y-3.667
X-76.12 Y-3.649
X-75.407 Y-3.315
X-75.375 Y-3.3
X-74.627 Y-2.986
X-74.597 Y-2.974
X-73.825 Y-2.681
X-73.797 Y-2.671
X-73.007 Y-2.401
X-72.98 Y-2.392
X-72.182 Y-2.147
X-72.156 Y-2.139
X-71.356 Y-1.92
X-71.33 Y-1.913
X-70.537 Y-1.721
X-70.511 Y-1.715
X-69.729 Y-1.55
X-69.702 Y-1.544
X-68.938 Y-1.407
X-68.91 Y-1.402
X-68.166 Y-1.293
X-68.137 Y-1.289
X-67.415 Y-1.206
X-67.385 Y-1.203
X-66.685 Y-1.147
X-66.655 Y-1.145
X-65.973 Y-1.112
X-65.945 Y-1.111
X-65.277 Y-1.1
X-65.251
X-64.591 Y-1.108
X-64.569 Y-1.109
X-63.91 Y-1.133
X-63.892 Y-1.134
X-63.229 Y-1.171
X-63.209 Y-1.173
X-61.857 Y-1.28
X-61.839 Y-1.282
X-60.442 Y-1.42
X-60.43 Y-1.421
X-58.994 Y-1.582
X-58.985 Y-1.583
X-57.528 Y-1.76
X-57.52 Y-1.761
X-56.066 Y-1.951
X-56.057 Y-1.952
X-54.634 Y-2.154
X-54.622 Y-2.156
X-53.255 Y-2.367
X-53.242 Y-2.369
X-51.946 Y-2.589
X-51.935 Y-2.59
X-50.705 Y-2.814
X-50.702
X-49.519 Y-3.033
X-48.341 Y-3.237
X-47.744 Y-3.329
X-47.125 Y-3.414
X-46.48 Y-3.49
X-45.804 Y-3.557
X-45.092 Y-3.614
X-44.344 Y-3.66
X-43.559 Y-3.696
X-42.738 Y-3.722
X-41.884 Y-3.737
X-41.002 Y-3.743
X-39.154 Y-3.727
X-37.692 Y-3.691
S5000
X-37.231 Y-3.68 Z-1.016 F333.3
X-35.266 Y-3.607 Z-1.085
X-33.295 Y-3.518 Z-1.154
X-31.97 Y-3.451 Z-1.2
S4000
X-31.357 Y-3.42 F1000
X-29.484 Y-3.323
X-29.483
X-27.7 Y-3.233
X-27.695
X-26.011 Y-3.159
X-26.002
X-24.41 Y-3.105
X-24.398 Y-3.104
X-22.875 Y-3.073
X-22.861
X-21.383 Y-3.066
X-21.369
X-19.909 Y-3.082
X-19.897 Y-3.083
X-18.437 Y-3.119
X-18.427
X-16.956 Y-3.173
X-16.949
X-15.466 Y-3.238
X-15.462
X-13.967 Y-3.31
X-12.464 Y-3.384
X-10.961 Y-3.453
X-9.465 Y-3.514
X-7.983 Y-3.56
X-6.522 Y-3.59
X-5.079 Y-3.6
G2 X-4.449 Y-3.864 I-0.006 J-0.9
G1 X-1.656 Y-6.656
G2 X-1.656 Y-9.344 I-1.344 J-1.344
G1 X-4.449 Y-12.136
G2 X-5.079 Y-12.4 I-0.636 J0.636
G1 X-6.522 Y-12.41
X-7.983 Y-12.44
X-9.465 Y-12.486
X-10.961 Y-12.547
X-12.464 Y-12.616
X-13.966 Y-12.69
X-15.462 Y-12.762
X-15.466
X-16.949 Y-12.827
X-16.956
X-18.427 Y-12.881
X-18.437
X-19.897 Y-12.917
X-19.909 Y-12.918
X-21.369 Y-12.934
X-21.383
X-22.861 Y-12.927
X-22.875
X-24.398 Y-12.896
X-24.41 Y-12.895
X-26.002 Y-12.841
X-26.011
X-27.695 Y-12.767
X-27.7
X-29.483 Y-12.677
X-29.484
X-31.357 Y-12.58
X-33.295 Y-12.482
X-35.266 Y-12.393
X-37.231 Y-12.32
X-39.154 Y-12.273
X-41.002 Y-12.257
X-41.884 Y-12.263
X-42.738 Y-12.278
X-43.559 Y-12.304
X-44.344 Y-12.34
X-45.092 Y-12.386
X-45.804 Y-12.443
X-46.48 Y-12.509
X-47.125 Y-12.586
X-47.744 Y-12.671
X-48.341 Y-12.763
X-49.519 Y-12.967
X-50.702 Y-13.186
X-50.705
X-51.935 Y-13.41
X-51.946 Y-13.411
X-53.242 Y-13.631
X-53.255 Y-13.633
X-54.622 Y-13.844
X-54.634 Y-13.846
X-56.057 Y-14.048
X-56.066 Y-14.049
X-57.52 Y-14.239
X-57.528 Y-14.24
X-58.985 Y-14.417
X-58.994 Y-14.418
X-60.43 Y-14.579
X-60.442 Y-14.58
X-61.839 Y-14.718
X-61.857 Y-14.72
X-63.209 Y-14.827
X-63.229 Y-14.829
X-63.892 Y-14.866
X-63.91 Y-14.867
X-64.569 Y-14.891
X-64.591 Y-14.892
X-65.251 Y-14.9
X-65.277
X-65.945 Y-14.889
X-65.973 Y-14.888
X-66.655 Y-14.855
X-66.685 Y-14.853
X-67.385 Y-14.797
X-67.415 Y-14.794
X-68.137 Y-14.711
X-68.166 Y-14.707
X-68.91 Y-14.598
X-68.938 Y-14.593
X-69.702 Y-14.456
X-69.729 Y-14.45
X-70.511 Y-14.285
X-70.537 Y-14.279
X-71.33 Y-14.087
X-71.356 Y-14.08
X-72.156 Y-13.861
X-72.182 Y-13.853
X-72.98 Y-13.608
X-73.007 Y-13.599
X-73.796 Y-13.329
X-73.825 Y-13.319
X-74.597 Y-13.026
X-74.627 Y-13.014
X-75.374 Y-12.7
X-75.407 Y-12.685
X-76.12 Y-12.351
X-76.157 Y-12.333
X-76.826 Y-11.981
X-76.856 Y-11.965
X-77.171 Y-11.783
X-77.194 Y-11.77
X-77.495 Y-11.585
X-77.519 Y-11.569
X-77.804 Y-11.381
X-77.83 Y-11.363
X-78.1 Y-11.172
X-78.128 Y-11.151
X-78.379 Y-10.957
X-78.41 Y-10.933
X-78.643 Y-10.736
X-78.676 Y-10.708
X-78.89 Y-10.509
X-78.925 Y-10.475
X-79.119 Y-10.274
X-79.156 Y-10.234
X-79.329 Y-10.031
X-79.367 Y-9.983
X-79.519 Y-9.779
X-79.558 Y-9.722
X-79.688 Y-9.517
X-79.726 Y-9.451
X-79.833 Y-9.245
X-79.868 Y-9.168
X-79.952 Y-8.961
X-79.982 Y-8.874
X-80.042 Y-8.666
X-80.064 Y-8.57
X-80.1 Y-8.362
X-80.112 Y-8.26
X-80.124 Y-8.052
Y-7.948
X-80.112 Y-7.74
X-80.1 Y-7.638
X-80.064 Y-7.43
X-80.042 Y-7.334
X-79.982 Y-7.126
X-79.952 Y-7.039
X-79.868 Y-6.832
X-79.833 Y-6.755
X-79.726 Y-6.549
X-79.688 Y-6.483
X-79.558 Y-6.278
X-79.519 Y-6.221
X-79.367 Y-6.017
X-79.329 Y-5.969
X-79.156 Y-5.766
X-79.119 Y-5.726
X-78.925 Y-5.525
X-78.89 Y-5.491
X-78.676 Y-5.292
X-78.643 Y-5.264
X-78.41 Y-5.067
X-78.379 Y-5.043
X-78.128 Y-4.849
X-78.1 Y-4.828
X-77.83 Y-4.637
X-77.804 Y-4.619
X-77.519 Y-4.431
X-77.495 Y-4.415
X-77.194 Y-4.23
X-77.171 Y-4.217
X-76.856 Y-4.035
X-76.826 Y-4.018
X-76.157 Y-3.667
X-76.12 Y-3.649
X-75.407 Y-3.315
X-75.375 Y-3.3
X-74.627 Y-2.986
X-74.597 Y-2.974
X-73.825 Y-2.681
X-73.797 Y-2.671
X-73.007 Y-2.401
X-72.98 Y-2.392
X-72.182 Y-2.147
X-72.156 Y-2.139
X-71.356 Y-1.92
X-71.33 Y-1.913
X-70.537 Y-1.721
X-70.511 Y-1.715
X-69.729 Y-1.55
X-69.702 Y-1.544
X-68.938 Y-1.407
X-68.91 Y-1.402
X-68.166 Y-1.293
X-68.137 Y-1.289
X-67.415 Y-1.206
X-67.385 Y-1.203
X-66.685 Y-1.147
X-66.655 Y-1.145
X-65.973 Y-1.112
X-65.945 Y-1.111
X-65.277 Y-1.1
X-65.251
X-64.591 Y-1.108
X-64.569 Y-1.109
X-63.91 Y-1.133
X-63.892 Y-1.134
X-63.229 Y-1.171
X-63.209 Y-1.173
X-61.857 Y-1.28
X-61.839 Y-1.282
X-60.442 Y-1.42
X-60.43 Y-1.421
X-58.994 Y-1.582
X-58.985 Y-1.583
X-57.528 Y-1.76
X-57.52 Y-1.761
X-56.066 Y-1.951
X-56.057 Y-1.952
X-54.634 Y-2.154
X-54.622 Y-2.156
X-53.255 Y-2.367
X-53.242 Y-2.369
X-51.946 Y-2.589
X-51.935 Y-2.59
X-50.705 Y-2.814
X-50.702
X-49.519 Y-3.033
X-48.341 Y-3.237
X-47.744 Y-3.329
X-47.125 Y-3.414
X-46.48 Y-3.49
X-45.804 Y-3.557
X-45.092 Y-3.614
X-44.344 Y-3.66
X-43.559 Y-3.696
X-42.738 Y-3.722
X-41.884 Y-3.737
X-41.002 Y-3.743
X-39.154 Y-3.727
X-37.692 Y-3.691
X-37.231 Y-3.68
X-35.266 Y-3.607
X-33.295 Y-3.518
X-31.97 Y-3.451
S5000
X-31.357 Y-3.42 Z-1.221 F333.3
X-29.484 Y-3.323 Z-1.287
X-29.483
X-27.7 Y-3.233 Z-1.349
X-27.695
X-26.25 Y-3.17 Z-1.4
S4000
X-26.011 Y-3.159 F1000
X-26.002
X-24.41 Y-3.105
X-24.398 Y-3.104
X-22.875 Y-3.073
X-22.861
X-21.383 Y-3.066
X-21.369
X-19.909 Y-3.082
X-19.897 Y-3.083
X-18.437 Y-3.119
X-18.427
X-16.956 Y-3.173
X-16.949
X-15.466 Y-3.238
X-15.462
X-13.967 Y-3.31
X-12.464 Y-3.384
X-10.961 Y-3.453
X-9.465 Y-3.514
X-7.983 Y-3.56
X-6.522 Y-3.59
X-5.079 Y-3.6
G2 X-4.449 Y-3.864 I-0.006 J-0.9
G1 X-1.656 Y-6.656
G2 X-1.656 Y-9.344 I-1.344 J-1.344
G1 X-4.449 Y-12.136
G2 X-5.079 Y-12.4 I-0.636 J0.636
G1 X-6.522 Y-12.41
X-7.983 Y-12.44
X-9.465 Y-12.486
X-10.961 Y-12.547
X-12.464 Y-12.616
X-13.966 Y-12.69
X-15.462 Y-12.762
X-15.466
X-16.949 Y-12.827
X-16.956
X-18.427 Y-12.881
X-18.437
X-19.897 Y-12.917
X-19.909 Y-12.918
X-21.369 Y-12.934
X-21.383
X-22.861 Y-12.927
X-22.875
X-24.398 Y-12.896
X-24.41 Y-12.895
X-26.002 Y-12.841
X-26.011
X-27.695 Y-12.767
X-27.7
X-29.483 Y-12.677
X-29.484
X-31.357 Y-12.58
X-33.295 Y-12.482
X-35.266 Y-12.393
X-37.231 Y-12.32
X-39.154 Y-12.273
X-41.002 Y-12.257
X-41.884 Y-12.263
X-42.738 Y-12.278
X-43.559 Y-12.304
X-44.344 Y-12.34
X-45.092 Y-12.386
X-45.804 Y-12.443
X-46.48 Y-12.509
X-47.125 Y-12.586
X-47.744 Y-12.671
X-48.341 Y-12.763
X-49.519 Y-12.967
X-50.702 Y-13.186
X-50.705
X-51.935 Y-13.41
X-51.946 Y-13.411
X-53.242 Y-13.631
X-53.255 Y-13.633
X-54.622 Y-13.844
X-54.634 Y-13.846
X-56.057 Y-14.048
X-56.066 Y-14.049
X-57.52 Y-14.239
X-57.528 Y-14.24
X-58.985 Y-14.417
X-58.994 Y-14.418
X-60.43 Y-14.579
X-60.442 Y-14.58
X-61.839 Y-14.718
X-61.857 Y-14.72
X-63.209 Y-14.827
X-63.229 Y-14.829
X-63.892 Y-14.866
X-63.91 Y-14.867
X-64.569 Y-14.891
X-64.591 Y-14.892
X-65.251 Y-14.9
X-65.277
X-65.945 Y-14.889
X-65.973 Y-14.888
X-66.655 Y-14.855
X-66.685 Y-14.853
X-67.385 Y-14.797
X-67.415 Y-14.794
X-68.137 Y-14.711
X-68.166 Y-14.707
X-68.91 Y-14.598
X-68.938 Y-14.593
X-69.702 Y-14.456
X-69.729 Y-14.45
X-70.511 Y-14.285
X-70.537 Y-14.279
X-71.33 Y-14.087
X-71.356 Y-14.08
X-72.156 Y-13.861
X-72.182 Y-13.853
X-72.98 Y-13.608
X-73.007 Y-13.599
X-73.796 Y-13.329
X-73.825 Y-13.319
X-74.597 Y-13.026
X-74.627 Y-13.014
X-75.374 Y-12.7
X-75.407 Y-12.685
X-76.12 Y-12.351
X-76.157 Y-12.333
X-76.826 Y-11.981
X-76.856 Y-11.965
X-77.171 Y-11.783
X-77.194 Y-11.77
X-77.495 Y-11.585
X-77.519 Y-11.569
X-77.804 Y-11.381
X-77.83 Y-11.363
X-78.1 Y-11.172
X-78.128 Y-11.151
X-78.379 Y-10.957
X-78.41 Y-10.933
X-78.643 Y-10.736
X-78.676 Y-10.708
X-78.89 Y-10.509
X-78.925 Y-10.475
X-79.119 Y-10.274
X-79.156 Y-10.234
X-79.329 Y-10.031
X-79.367 Y-9.983
X-79.519 Y-9.779
X-79.558 Y-9.722
X-79.688 Y-9.517
X-79.726 Y-9.451
X-79.833 Y-9.245
X-79.868 Y-9.168
X-79.952 Y-8.961
X-79.982 Y-8.874
X-80.042 Y-8.666
X-80.064 Y-8.57
X-80.1 Y-8.362
X-80.112 Y-8.26
X-80.124 Y-8.052
Y-7.948
X-80.112 Y-7.74
X-80.1 Y-7.638
X-80.064 Y-7.43
X-80.042 Y-7.334
X-79.982 Y-7.126
X-79.952 Y-7.039
X-79.868 Y-6.832
X-79.833 Y-6.755
X-79.726 Y-6.549
X-79.688 Y-6.483
X-79.558 Y-6.278
X-79.519 Y-6.221
X-79.367 Y-6.017
X-79.329 Y-5.969
X-79.156 Y-5.766
X-79.119 Y-5.726
X-78.925 Y-5.525
X-78.89 Y-5.491
X-78.676 Y-5.292
X-78.643 Y-5.264
X-78.41 Y-5.067
X-78.379 Y-5.043
X-78.128 Y-4.849
X-78.1 Y-4.828
X-77.83 Y-4.637
X-77.804 Y-4.619
X-77.519 Y-4.431
X-77.495 Y-4.415
X-77.194 Y-4.23
X-77.171 Y-4.217
X-76.856 Y-4.035
X-76.826 Y-4.018
X-76.157 Y-3.667
X-76.12 Y-3.649
X-75.407 Y-3.315
X-75.375 Y-3.3
X-74.627 Y-2.986
X-74.597 Y-2.974
X-73.825 Y-2.681
X-73.797 Y-2.671
X-73.007 Y-2.401
X-72.98 Y-2.392
X-72.182 Y-2.147
X-72.156 Y-2.139
X-71.356 Y-1.92
X-71.33 Y-1.913
X-70.537 Y-1.721
X-70.511 Y-1.715
X-69.729 Y-1.55
X-69.702 Y-1.544
X-68.938 Y-1.407
X-68.91 Y-1.402
X-68.166 Y-1.293
X-68.137 Y-1.289
X-67.415 Y-1.206
X-67.385 Y-1.203
X-66.685 Y-1.147
X-66.655 Y-1.145
X-65.973 Y-1.112
X-65.945 Y-1.111
X-65.277 Y-1.1
X-65.251
X-64.591 Y-1.108
X-64.569 Y-1.109
X-63.91 Y-1.133
X-63.892 Y-1.134
X-63.229 Y-1.171
X-63.209 Y-1.173
X-61.857 Y-1.28
X-61.839 Y-1.282
X-60.442 Y-1.42
X-60.43 Y-1.421
X-58.994 Y-1.582
X-58.985 Y-1.583
X-57.528 Y-1.76
X-57.52 Y-1.761
X-56.066 Y-1.951
X-56.057 Y-1.952
X-54.634 Y-2.154
X-54.622 Y-2.156
X-53.255 Y-2.367
X-53.242 Y-2.369
X-51.946 Y-2.589
X-51.935 Y-2.59
X-50.705 Y-2.814
X-50.702
X-49.519 Y-3.033
X-48.341 Y-3.237
X-47.744 Y-3.329
X-47.125 Y-3.414
X-46.48 Y-3.49
X-45.804 Y-3.557
X-45.092 Y-3.614
X-44.344 Y-3.66
X-43.559 Y-3.696
X-42.738 Y-3.722
X-41.884 Y-3.737
X-41.002 Y-3.743
X-39.154 Y-3.727
X-37.231 Y-3.68
X-35.266 Y-3.607
X-33.295 Y-3.518
X-31.97 Y-3.451
X-31.357 Y-3.42
X-29.484 Y-3.323
X-29.483
X-27.7 Y-3.233
X-27.695
X-26.25 Y-3.17
S5000
X-26.011 Y-3.159 Z-1.408 F333.3
X-26.002 Z-1.409
X-24.41 Y-3.105 Z-1.464
X-24.398 Y-3.104 Z-1.465
X-22.875 Y-3.073 Z-1.518
X-22.861
X-21.383 Y-3.066 Z-1.57
X-21.369
X-20.524 Y-3.076 Z-1.6
S4000
X-19.909 Y-3.082 F1000
X-19.897 Y-3.083
X-18.437 Y-3.119
X-18.427
X-16.956 Y-3.173
X-16.949
X-15.466 Y-3.238
X-15.462
X-13.967 Y-3.31
X-12.464 Y-3.384
X-10.961 Y-3.453
X-9.465 Y-3.514
X-7.983 Y-3.56
X-6.522 Y-3.59
X-5.079 Y-3.6
G2 X-4.449 Y-3.864 I-0.006 J-0.9
G1 X-1.656 Y-6.656
G2 X-1.656 Y-9.344 I-1.344 J-1.344
G1 X-4.449 Y-12.136
G2 X-5.079 Y-12.4 I-0.636 J0.636
G1 X-6.522 Y-12.41
X-7.983 Y-12.44
X-9.465 Y-12.486
X-10.961 Y-12.547
X-12.464 Y-12.616
X-13.966 Y-12.69
X-15.462 Y-12.762
X-15.466
X-16.949 Y-12.827
X-16.956
X-18.427 Y-12.881
X-18.437
X-19.897 Y-12.917
X-19.909 Y-12.918
X-21.369 Y-12.934
X-21.383
X-22.861 Y-12.927
X-22.875
X-24.398 Y-12.896
X-24.41 Y-12.895
X-26.002 Y-12.841
X-26.011
X-27.695 Y-12.767
X-27.7
X-29.483 Y-12.677
X-29.484
X-31.357 Y-12.58
X-33.295 Y-12.482
X-35.266 Y-12.393
X-37.231 Y-12.32
X-39.154 Y-12.273
X-41.002 Y-12.257
X-41.884 Y-12.263
X-42.738 Y-12.278
X-43.559 Y-12.304
X-44.344 Y-12.34
X-45.092 Y-12.386
X-45.804 Y-12.443
X-46.48 Y-12.509
X-47.125 Y-12.586
X-47.744 Y-12.671
X-48.341 Y-12.763
X-49.519 Y-12.967
X-50.702 Y-13.186
X-50.705
X-51.935 Y-13.41
X-51.946 Y-13.411
X-53.242 Y-13.631
X-53.255 Y-13.633
X-54.622 Y-13.844
X-54.634 Y-13.846
X-56.057 Y-14.048
X-56.066 Y-14.049
X-57.52 Y-14.239
X-57.528 Y-14.24
X-58.985 Y-14.417
X-58.994 Y-14.418
X-60.43 Y-14.579
X-60.442 Y-14.58
X-61.839 Y-14.718
X-61.857 Y-14.72
X-63.209 Y-14.827
X-63.229 Y-14.829
X-63.892 Y-14.866
X-63.91 Y-14.867
X-64.569 Y-14.891
X-64.591 Y-14.892
X-65.251 Y-14.9
X-65.277
X-65.945 Y-14.889
X-65.973 Y-14.888
X-66.655 Y-14.855
X-66.685 Y-14.853
X-67.385 Y-14.797
X-67.415 Y-14.794
X-68.137 Y-14.711
X-68.166 Y-14.707
X-68.91 Y-14.598
X-68.938 Y-14.593
X-69.702 Y-14.456
X-69.729 Y-14.45
X-70.511 Y-14.285
X-70.537 Y-14.279
X-71.33 Y-14.087
X-71.356 Y-14.08
X-72.156 Y-13.861
X-72.182 Y-13.853
X-72.98 Y-13.608
X-73.007 Y-13.599
X-73.796 Y-13.329
X-73.825 Y-13.319
X-74.597 Y-13.026
X-74.627 Y-13.014
X-75.374 Y-12.7
X-75.407 Y-12.685
X-76.12 Y-12.351
X-76.157 Y-12.333
X-76.826 Y-11.981
X-76.856 Y-11.965
X-77.171 Y-11.783
X-77.194 Y-11.77
X-77.495 Y-11.585
X-77.519 Y-11.569
X-77.804 Y-11.381
X-77.83 Y-11.363
X-78.1 Y-11.172
X-78.128 Y-11.151
X-78.379 Y-10.957
X-78.41 Y-10.933
X-78.643 Y-10.736
X-78.676 Y-10.708
X-78.89 Y-10.509
X-78.925 Y-10.475
X-79.119 Y-10.274
X-79.156 Y-10.234
X-79.329 Y-10.031
X-79.367 Y-9.983
X-79.519 Y-9.779
X-79.558 Y-9.722
X-79.688 Y-9.517
X-79.726 Y-9.451
X-79.833 Y-9.245
X-79.868 Y-9.168
X-79.952 Y-8.961
X-79.982 Y-8.874
X-80.042 Y-8.666
X-80.064 Y-8.57
X-80.1 Y-8.362
X-80.112 Y-8.26
X-80.124 Y-8.052
Y-7.948
X-80.112 Y-7.74
X-80.1 Y-7.638
X-80.064 Y-7.43
X-80.042 Y-7.334
X-79.982 Y-7.126
X-79.952 Y-7.039
X-79.868 Y-6.832
X-79.833 Y-6.755
X-79.726 Y-6.549
X-79.688 Y-6.483
X-79.558 Y-6.278
X-79.519 Y-6.221
X-79.367 Y-6.017
X-79.329 Y-5.969
X-79.156 Y-5.766
X-79.119 Y-5.726
X-78.925 Y-5.525
X-78.89 Y-5.491
X-78.676 Y-5.292
X-78.643 Y-5.264
X-78.41 Y-5.067
X-78.379 Y-5.043
X-78.128 Y-4.849
X-78.1 Y-4.828
X-77.83 Y-4.637
X-77.804 Y-4.619
X-77.519 Y-4.431
X-77.495 Y-4.415
X-77.194 Y-4.23
X-77.171 Y-4.217
X-76.856 Y-4.035
X-76.826 Y-4.018
X-76.157 Y-3.667
X-76.12 Y-3.649
X-75.407 Y-3.315
X-75.375 Y-3.3
X-74.627 Y-2.986
X-74.597 Y-2.974
X-73.825 Y-2.681
X-73.797 Y-2.671
X-73.007 Y-2.401
X-72.98 Y-2.392
X-72.182 Y-2.147
X-72.156 Y-2.139
X-71.356 Y-1.92
X-71.33 Y-1.913
X-70.537 Y-1.721
X-70.511 Y-1.715
X-69.729 Y-1.55
X-69.702 Y-1.544
X-68.938 Y-1.407
X-68.91 Y-1.402
X-68.166 Y-1.293
X-68.137 Y-1.289
X-67.415 Y-1.206
X-67.385 Y-1.203
X-66.685 Y-1.147
X-66.655 Y-1.145
X-65.973 Y-1.112
X-65.945 Y-1.111
X-65.277 Y-1.1
X-65.251
X-64.591 Y-1.108
X-64.569 Y-1.109
X-63.91 Y-1.133
X-63.892 Y-1.134
X-63.229 Y-1.171
X-63.209 Y-1.173
X-61.857 Y-1.28
X-61.839 Y-1.282
X-60.442 Y-1.42
X-60.43 Y-1.421
X-58.994 Y-1.582
X-58.985 Y-1.583
X-57.528 Y-1.76
X-57.52 Y-1.761
X-56.066 Y-1.951
X-56.057 Y-1.952
X-54.634 Y-2.154
X-54.622 Y-2.156
X-53.255 Y-2.367
X-53.242 Y-2.369
X-51.946 Y-2.589
X-51.935 Y-2.59
X-50.705 Y-2.814
X-50.702
X-49.519 Y-3.033
X-48.341 Y-3.237
X-47.744 Y-3.329
X-47.125 Y-3.414
X-46.48 Y-3.49
X-45.804 Y-3.557
X-45.092 Y-3.614
X-44.344 Y-3.66
X-43.559 Y-3.696
X-42.738 Y-3.722
X-41.884 Y-3.737
X-41.002 Y-3.743
X-39.154 Y-3.727
X-37.231 Y-3.68
X-35.266 Y-3.607
X-33.295 Y-3.518
X-31.357 Y-3.42
X-29.484 Y-3.323
X-29.483
X-27.7 Y-3.233
X-27.695
X-26.25 Y-3.17
X-26.011 Y-3.159
X-26.002
X-24.41 Y-3.105
X-24.398 Y-3.104
X-22.875 Y-3.073
X-22.861
X-21.383 Y-3.066
X-21.369
X-20.524 Y-3.076
S5000
X-19.909 Y-3.082 Z-1.621 F333.3
X-19.897 Y-3.083 Z-1.622
X-18.437 Y-3.119 Z-1.673
X-18.427
X-16.956 Y-3.173 Z-1.725
X-16.949
X-15.466 Y-3.238 Z-1.777
X-15.462
X-14.8 Y-3.27 Z-1.8
S4000
X-13.967 Y-3.31 F1000
X-12.464 Y-3.384
X-10.961 Y-3.453
X-9.465 Y-3.514
X-7.983 Y-3.56
X-6.522 Y-3.59
X-5.079 Y-3.6
G2 X-4.449 Y-3.864 I-0.006 J-0.9
G1 X-1.656 Y-6.656
G2 X-1.656 Y-9.344 I-1.344 J-1.344
G1 X-4.449 Y-12.136
G2 X-5.079 Y-12.4 I-0.636 J0.636
G1 X-6.522 Y-12.41
X-7.983 Y-12.44
X-9.465 Y-12.486
X-10.961 Y-12.547
X-12.464 Y-12.616
X-13.966 Y-12.69
X-15.462 Y-12.762
X-15.466
X-16.949 Y-12.827
X-16.956
X-18.427 Y-12.881
X-18.437
X-19.897 Y-12.917
X-19.909 Y-12.918
X-21.369 Y-12.934
X-21.383
X-22.861 Y-12.927
X-22.875
X-24.398 Y-12.896
X-24.41 Y-12.895
X-26.002 Y-12.841
X-26.011
X-27.695 Y-12.767
X-27.7
X-29.483 Y-12.677
X-29.484
X-31.357 Y-12.58
X-33.295 Y-12.482
X-35.266 Y-12.393
X-37.231 Y-12.32
X-39.154 Y-12.273
X-41.002 Y-12.257
X-41.884 Y-12.263
X-42.738 Y-12.278
X-43.559 Y-12.304
X-44.344 Y-12.34
X-45.092 Y-12.386
X-45.804 Y-12.443
X-46.48 Y-12.509
X-47.125 Y-12.586
X-47.744 Y-12.671
X-48.341 Y-12.763
X-49.519 Y-12.967
X-50.702 Y-13.186
X-50.705
X-51.935 Y-13.41
X-51.946 Y-13.411
X-53.242 Y-13.631
X-53.255 Y-13.633
X-54.622 Y-13.844
X-54.634 Y-13.846
X-56.057 Y-14.048
X-56.066 Y-14.049
X-57.52 Y-14.239
X-57.528 Y-14.24
X-58.985 Y-14.417
X-58.994 Y-14.418
X-60.43 Y-14.579
X-60.442 Y-14.58
X-61.839 Y-14.718
X-61.857 Y-14.72
X-63.209 Y-14.827
X-63.229 Y-14.829
X-63.892 Y-14.866
X-63.91 Y-14.867
X-64.569 Y-14.891
X-64.591 Y-14.892
X-65.251 Y-14.9
X-65.277
X-65.945 Y-14.889
X-65.973 Y-14.888
X-66.655 Y-14.855
X-66.685 Y-14.853
X-67.385 Y-14.797
X-67.415 Y-14.794
X-68.137 Y-14.711
X-68.166 Y-14.707
X-68.91 Y-14.598
X-68.938 Y-14.593
X-69.702 Y-14.456
X-69.729 Y-14.45
X-70.511 Y-14.285
X-70.537 Y-14.279
X-71.33 Y-14.087
X-71.356 Y-14.08
X-72.156 Y-13.861
X-72.182 Y-13.853
X-72.98 Y-13.608
X-73.007 Y-13.599
X-73.796 Y-13.329
X-73.825 Y-13.319
X-74.597 Y-13.026
X-74.627 Y-13.014
X-75.374 Y-12.7
X-75.407 Y-12.685
X-76.12 Y-12.351
X-76.157 Y-12.333
X-76.826 Y-11.981
X-76.856 Y-11.965
X-77.171 Y-11.783
X-77.194 Y-11.77
X-77.495 Y-11.585
X-77.519 Y-11.569
X-77.804 Y-11.381
X-77.83 Y-11.363
X-78.1 Y-11.172
X-78.128 Y-11.151
X-78.379 Y-10.957
X-78.41 Y-10.933
X-78.643 Y-10.736
X-78.676 Y-10.708
X-78.89 Y-10.509
X-78.925 Y-10.475
X-79.119 Y-10.274
X-79.156 Y-10.234
X-79.329 Y-10.031
X-79.367 Y-9.983
X-79.519 Y-9.779
X-79.558 Y-9.722
X-79.688 Y-9.517
X-79.726 Y-9.451
X-79.833 Y-9.245
X-79.868 Y-9.168
X-79.952 Y-8.961
X-79.982 Y-8.874
X-80.042 Y-8.666
X-80.064 Y-8.57
X-80.1 Y-8.362
X-80.112 Y-8.26
X-80.124 Y-8.052
Y-7.948
X-80.112 Y-7.74
X-80.1 Y-7.638
X-80.064 Y-7.43
X-80.042 Y-7.334
X-79.982 Y-7.126
X-79.952 Y-7.039
X-79.868 Y-6.832
X-79.833 Y-6.755
X-79.726 Y-6.549
X-79.688 Y-6.483
X-79.558 Y-6.278
X-79.519 Y-6.221
X-79.367 Y-6.017
X-79.329 Y-5.969
X-79.156 Y-5.766
X-79.119 Y-5.726
X-78.925 Y-5.525
X-78.89 Y-5.491
X-78.676 Y-5.292
X-78.643 Y-5.264
X-78.41 Y-5.067
X-78.379 Y-5.043
X-78.128 Y-4.849
X-78.1 Y-4.828
X-77.83 Y-4.637
X-77.804 Y-4.619
X-77.519 Y-4.431
X-77.495 Y-4.415
X-77.194 Y-4.23
X-77.171 Y-4.217
X-76.856 Y-4.035
X-76.826 Y-4.018
X-76.157 Y-3.667
X-76.12 Y-3.649
X-75.407 Y-3.315
X-75.375 Y-3.3
X-74.627 Y-2.986
X-74.597 Y-2.974
X-73.825 Y-2.681
X-73.797 Y-2.671
X-73.007 Y-2.401
X-72.98 Y-2.392
X-72.182 Y-2.147
X-72.156 Y-2.139
X-71.356 Y-1.92
X-71.33 Y-1.913
X-70.537 Y-1.721
X-70.511 Y-1.715
X-69.729 Y-1.55
X-69.702 Y-1.544
X-68.938 Y-1.407
X-68.91 Y-1.402
X-68.166 Y-1.293
X-68.137 Y-1.289
X-67.415 Y-1.206
X-67.385 Y-1.203
X-66.685 Y-1.147
X-66.655 Y-1.145
X-65.973 Y-1.112
X-65.945 Y-1.111
X-65.277 Y-1.1
X-65.251
X-64.591 Y-1.108
X-64.569 Y-1.109
X-63.91 Y-1.133
X-63.892 Y-1.134
X-63.229 Y-1.171
X-63.209 Y-1.173
X-61.857 Y-1.28
X-61.839 Y-1.282
X-60.442 Y-1.42
X-60.43 Y-1.421
X-58.994 Y-1.582
X-58.985 Y-1.583
X-57.528 Y-1.76
X-57.52 Y-1.761
X-56.066 Y-1.951
X-56.057 Y-1.952
X-54.634 Y-2.154
X-54.622 Y-2.156
X-53.255 Y-2.367
X-53.242 Y-2.369
X-51.946 Y-2.589
X-51.935 Y-2.59
X-50.705 Y-2.814
X-50.702
X-49.519 Y-3.033
X-48.341 Y-3.237
X-47.744 Y-3.329
X-47.125 Y-3.414
X-46.48 Y-3.49
X-45.804 Y-3.557
X-45.092 Y-3.614
X-44.344 Y-3.66
X-43.559 Y-3.696
X-42.738 Y-3.722
X-41.884 Y-3.737
X-41.002 Y-3.743
X-39.154 Y-3.727
X-37.231 Y-3.68
X-35.266 Y-3.607
X-33.295 Y-3.518
X-31.357 Y-3.42
X-29.484 Y-3.323
X-29.483
X-27.7 Y-3.233
X-27.695
X-26.011 Y-3.159
X-26.002
X-24.41 Y-3.105
X-24.398 Y-3.104
X-22.875 Y-3.073
X-22.861
X-21.383 Y-3.066
X-21.369
X-20.524 Y-3.076
X-19.909 Y-3.082
X-19.897 Y-3.083
X-18.437 Y-3.119
X-18.427
X-16.956 Y-3.173
X-16.949
X-15.466 Y-3.238
X-15.462
X-14.8 Y-3.27
S5000
X-13.967 Y-3.31 Z-1.829 F333.3
X-12.464 Y-3.384 Z-1.882
X-10.961 Y-3.453 Z-1.934
X-9.465 Y-3.514 Z-1.987
X-9.079 Y-3.526 Z-2
S4000
X-7.983 Y-3.56 F1000
X-6.522 Y-3.59
X-5.079 Y-3.6
G2 X-4.449 Y-3.864 I-0.006 J-0.9
G1 X-1.656 Y-6.656
G2 X-1.656 Y-9.344 I-1.344 J-1.344
G1 X-4.449 Y-12.136
G2 X-5.079 Y-12.4 I-0.636 J0.636
G1 X-6.522 Y-12.41
X-7.983 Y-12.44
X-9.465 Y-12.486
X-10.961 Y-12.547
X-12.464 Y-12.616
X-13.966 Y-12.69
X-15.462 Y-12.762
X-15.466
X-16.949 Y-12.827
X-16.956
X-18.427 Y-12.881
X-18.437
X-19.897 Y-12.917
X-19.909 Y-12.918
X-21.369 Y-12.934
X-21.383
X-22.861 Y-12.927
X-22.875
X-24.398 Y-12.896
X-24.41 Y-12.895
X-26.002 Y-12.841
X-26.011
X-27.695 Y-12.767
X-27.7
X-29.483 Y-12.677
X-29.484
X-31.357 Y-12.58
X-33.295 Y-12.482
X-35.266 Y-12.393
X-37.231 Y-12.32
X-39.154 Y-12.273
X-41.002 Y-12.257
X-41.884 Y-12.263
X-42.738 Y-12.278
X-43.559 Y-12.304
X-44.344 Y-12.34
X-45.092 Y-12.386
X-45.804 Y-12.443
X-46.48 Y-12.509
X-47.125 Y-12.586
X-47.744 Y-12.671
X-48.341 Y-12.763
X-49.519 Y-12.967
X-50.702 Y-13.186
X-50.705
X-51.935 Y-13.41
X-51.946 Y-13.411
X-53.242 Y-13.631
X-53.255 Y-13.633
X-54.622 Y-13.844
X-54.634 Y-13.846
X-56.057 Y-14.048
X-56.066 Y-14.049
X-57.52 Y-14.239
X-57.528 Y-14.24
X-58.985 Y-14.417
X-58.994 Y-14.418
X-60.43 Y-14.579
X-60.442 Y-14.58
X-61.839 Y-14.718
X-61.857 Y-14.72
X-63.209 Y-14.827
X-63.229 Y-14.829
X-63.892 Y-14.866
X-63.91 Y-14.867
X-64.569 Y-14.891
X-64.591 Y-14.892
X-65.251 Y-14.9
X-65.277
X-65.945 Y-14.889
X-65.973 Y-14.888
X-66.655 Y-14.855
X-66.685 Y-14.853
X-67.385 Y-14.797
X-67.415 Y-14.794
X-68.137 Y-14.711
X-68.166 Y-14.707
X-68.91 Y-14.598
X-68.938 Y-14.593
X-69.702 Y-14.456
X-69.729 Y-14.45
X-70.511 Y-14.285
X-70.537 Y-14.279
X-71.33 Y-14.087
X-71.356 Y-14.08
X-72.156 Y-13.861
X-72.182 Y-13.853
X-72.98 Y-13.608
X-73.007 Y-13.599
X-73.796 Y-13.329
X-73.825 Y-13.319
X-74.597 Y-13.026
X-74.627 Y-13.014
X-75.374 Y-12.7
X-75.407 Y-12.685
X-76.12 Y-12.351
X-76.157 Y-12.333
X-76.826 Y-11.981
X-76.856 Y-11.965
X-77.171 Y-11.783
X-77.194 Y-11.77
X-77.495 Y-11.585
X-77.519 Y-11.569
X-77.804 Y-11.381
X-77.83 Y-11.363
X-78.1 Y-11.172
X-78.128 Y-11.151
X-78.379 Y-10.957
X-78.41 Y-10.933
X-78.643 Y-10.736
X-78.676 Y-10.708
X-78.89 Y-10.509
X-78.925 Y-10.475
X-79.119 Y-10.274
X-79.156 Y-10.234
X-79.329 Y-10.031
X-79.367 Y-9.983
X-79.519 Y-9.779
X-79.558 Y-9.722
X-79.688 Y-9.517
X-79.726 Y-9.451
X-79.833 Y-9.245
X-79.868 Y-9.168
X-79.952 Y-8.961
X-79.982 Y-8.874
X-80.042 Y-8.666
X-80.064 Y-8.57
X-80.1 Y-8.362
X-80.112 Y-8.26
X-80.124 Y-8.052
Y-7.948
X-80.112 Y-7.74
X-80.1 Y-7.638
X-80.064 Y-7.43
X-80.042 Y-7.334
X-79.982 Y-7.126
X-79.952 Y-7.039
X-79.868 Y-6.832
X-79.833 Y-6.755
X-79.726 Y-6.549
X-79.688 Y-6.483
X-79.558 Y-6.278
X-79.519 Y-6.221
X-79.367 Y-6.017
X-79.329 Y-5.969
X-79.156 Y-5.766
X-79.119 Y-5.726
X-78.925 Y-5.525
X-78.89 Y-5.491
X-78.676 Y-5.292
X-78.643 Y-5.264
X-78.41 Y-5.067
X-78.379 Y-5.043
X-78.128 Y-4.849
X-78.1 Y-4.828
X-77.83 Y-4.637
X-77.804 Y-4.619
X-77.519 Y-4.431
X-77.495 Y-4.415
X-77.194 Y-4.23
X-77.171 Y-4.217
X-76.856 Y-4.035
X-76.826 Y-4.018
X-76.157 Y-3.667
X-76.12 Y-3.649
X-75.407 Y-3.315
X-75.375 Y-3.3
X-74.627 Y-2.986
X-74.597 Y-2.974
X-73.825 Y-2.681
X-73.797 Y-2.671
X-73.007 Y-2.401
X-72.98 Y-2.392
X-72.182 Y-2.147
X-72.156 Y-2.139
X-71.356 Y-1.92
X-71.33 Y-1.913
X-70.537 Y-1.721
X-70.511 Y-1.715
X-69.729 Y-1.55
X-69.702 Y-1.544
X-68.938 Y-1.407
X-68.91 Y-1.402
X-68.166 Y-1.293
X-68.137 Y-1.289
X-67.415 Y-1.206
X-67.385 Y-1.203
X-66.685 Y-1.147
X-66.655 Y-1.145
X-65.973 Y-1.112
X-65.945 Y-1.111
X-65.277 Y-1.1
X-65.251
X-64.591 Y-1.108
X-64.569 Y-1.109
X-63.91 Y-1.133
X-63.892 Y-1.134
X-63.229 Y-1.171
X-63.209 Y-1.173
X-61.857 Y-1.28
X-61.839 Y-1.282
X-60.442 Y-1.42
X-60.43 Y-1.421
X-58.994 Y-1.582
X-58.985 Y-1.583
X-57.528 Y-1.76
X-57.52 Y-1.761
X-56.066 Y-1.951
X-56.057 Y-1.952
X-54.634 Y-2.154
X-54.622 Y-2.156
X-53.255 Y-2.367
X-53.242 Y-2.369
X-51.946 Y-2.589
X-51.935 Y-2.59
X-50.705 Y-2.814
X-50.702
X-49.519 Y-3.033
X-48.341 Y-3.237
X-47.744 Y-3.329
X-47.125 Y-3.414
X-46.48 Y-3.49
X-45.804 Y-3.557
X-45.092 Y-3.614
X-44.344 Y-3.66
X-43.559 Y-3.696
X-42.738 Y-3.722
X-41.884 Y-3.737
X-41.002 Y-3.743
X-39.154 Y-3.727
X-37.231 Y-3.68
X-35.266 Y-3.607
X-33.295 Y-3.518
X-31.357 Y-3.42
X-29.484 Y-3.323
X-29.483
X-27.7 Y-3.233
X-27.695
X-26.011 Y-3.159
X-26.002
X-24.41 Y-3.105
X-24.398 Y-3.104
X-22.875 Y-3.073
X-22.861
X-21.383 Y-3.066
X-21.369
X-19.909 Y-3.082
X-19.897 Y-3.083
X-18.437 Y-3.119
X-18.427
X-16.956 Y-3.173
X-16.949
X-15.466 Y-3.238
X-15.462
X-13.967 Y-3.31
X-12.464 Y-3.384
X-10.961 Y-3.453
X-9.465 Y-3.514
X-9.079 Y-3.526
S5000
X-7.983 Y-3.56 Z-2.038 F333.3
X-6.522 Y-3.59 Z-2.089
X-5.079 Y-3.6 Z-2.14
G2 X-4.449 Y-3.864 Z-2.164 I-0.006 J-0.9
G1 X-3.724 Y-4.589 Z-2.2
S4000
X-1.656 Y-6.656 F1000
G2 X-1.656 Y-9.344 I-1.344 J-1.344
G1 X-4.449 Y-12.136
G2 X-5.079 Y-12.4 I-0.636 J0.636
G1 X-6.522 Y-12.41
X-7.983 Y-12.44
X-9.465 Y-12.486
X-10.961 Y-12.547
X-12.464 Y-12.616
X-13.966 Y-12.69
X-15.462 Y-12.762
X-15.466
X-16.949 Y-12.827
X-16.956
X-18.427 Y-12.881
X-18.437
X-19.897 Y-12.917
X-19.909 Y-12.918
X-21.369 Y-12.934
X-21.383
X-22.861 Y-12.927
X-22.875
X-24.398 Y-12.896
X-24.41 Y-12.895
X-26.002 Y-12.841
X-26.011
X-27.695 Y-12.767
X-27.7
X-29.483 Y-12.677
X-29.484
X-31.357 Y-12.58
X-33.295 Y-12.482
X-35.266 Y-12.393
X-37.231 Y-12.32
X-39.154 Y-12.273
X-41.002 Y-12.257
X-41.884 Y-12.263
X-42.738 Y-12.278
X-43.559 Y-12.304
X-44.344 Y-12.34
X-45.092 Y-12.386
X-45.804 Y-12.443
X-46.48 Y-12.509
X-47.125 Y-12.586
X-47.744 Y-12.671
X-48.341 Y-12.763
X-49.519 Y-12.967
X-50.702 Y-13.186
X-50.705
X-51.935 Y-13.41
X-51.946 Y-13.411
X-53.242 Y-13.631
X-53.255 Y-13.633
X-54.622 Y-13.844
X-54.634 Y-13.846
X-56.057 Y-14.048
X-56.066 Y-14.049
X-57.52 Y-14.239
X-57.528 Y-14.24
X-58.985 Y-14.417
X-58.994 Y-14.418
X-60.43 Y-14.579
X-60.442 Y-14.58
X-61.839 Y-14.718
X-61.857 Y-14.72
X-63.209 Y-14.827
X-63.229 Y-14.829
X-63.892 Y-14.866
X-63.91 Y-14.867
X-64.569 Y-14.891
X-64.591 Y-14.892
X-65.251 Y-14.9
X-65.277
X-65.945 Y-14.889
X-65.973 Y-14.888
X-66.655 Y-14.855
X-66.685 Y-14.853
X-67.385 Y-14.797
X-67.415 Y-14.794
X-68.137 Y-14.711
X-68.166 Y-14.707
X-68.91 Y-14.598
X-68.938 Y-14.593
X-69.702 Y-14.456
X-69.729 Y-14.45
X-70.511 Y-14.285
X-70.537 Y-14.279
X-71.33 Y-14.087
X-71.356 Y-14.08
X-72.156 Y-13.861
X-72.182 Y-13.853
X-72.98 Y-13.608
X-73.007 Y-13.599
X-73.796 Y-13.329
X-73.825 Y-13.319
X-74.597 Y-13.026
X-74.627 Y-13.014
X-75.374 Y-12.7
X-75.407 Y-12.685
X-76.12 Y-12.351
X-76.157 Y-12.333
X-76.826 Y-11.981
X-76.856 Y-11.965
X-77.171 Y-11.783
X-77.194 Y-11.77
X-77.495 Y-11.585
X-77.519 Y-11.569
X-77.804 Y-11.381
X-77.83 Y-11.363
X-78.1 Y-11.172
X-78.128 Y-11.151
X-78.379 Y-10.957
X-78.41 Y-10.933
X-78.643 Y-10.736
X-78.676 Y-10.708
X-78.89 Y-10.509
X-78.925 Y-10.475
X-79.119 Y-10.274
X-79.156 Y-10.234
X-79.329 Y-10.031
X-79.367 Y-9.983
X-79.519 Y-9.779
X-79.558 Y-9.722
X-79.688 Y-9.517
X-79.726 Y-9.451
X-79.833 Y-9.245
X-79.868 Y-9.168
X-79.952 Y-8.961
X-79.982 Y-8.874
X-80.042 Y-8.666
X-80.064 Y-8.57
X-80.1 Y-8.362
X-80.112 Y-8.26
X-80.124 Y-8.052
Y-7.948
X-80.112 Y-7.74
X-80.1 Y-7.638
X-80.064 Y-7.43
X-80.042 Y-7.334
X-79.982 Y-7.126
X-79.952 Y-7.039
X-79.868 Y-6.832
X-79.833 Y-6.755
X-79.726 Y-6.549
X-79.688 Y-6.483
X-79.558 Y-6.278
X-79.519 Y-6.221
X-79.367 Y-6.017
X-79.329 Y-5.969
X-79.156 Y-5.766
X-79.119 Y-5.726
X-78.925 Y-5.525
X-78.89 Y-5.491
X-78.676 Y-5.292
X-78.643 Y-5.264
X-78.41 Y-5.067
X-78.379 Y-5.043
X-78.128 Y-4.849
X-78.1 Y-4.828
X-77.83 Y-4.637
X-77.804 Y-4.619
X-77.519 Y-4.431
X-77.495 Y-4.415
X-77.194 Y-4.23
X-77.171 Y-4.217
X-76.856 Y-4.035
X-76.826 Y-4.018
X-76.157 Y-3.667
X-76.12 Y-3.649
X-75.407 Y-3.315
X-75.375 Y-3.3
X-74.627 Y-2.986
X-74.597 Y-2.974
X-73.825 Y-2.681
X-73.797 Y-2.671
X-73.007 Y-2.401
X-72.98 Y-2.392
X-72.182 Y-2.147
X-72.156 Y-2.139
X-71.356 Y-1.92
X-71.33 Y-1.913
X-70.537 Y-1.721
X-70.511 Y-1.715
X-69.729 Y-1.55
X-69.702 Y-1.544
X-68.938 Y-1.407
X-68.91 Y-1.402
X-68.166 Y-1.293
X-68.137 Y-1.289
X-67.415 Y-1.206
X-67.385 Y-1.203
X-66.685 Y-1.147
X-66.655 Y-1.145
X-65.973 Y-1.112
X-65.945 Y-1.111
X-65.277 Y-1.1
X-65.251
X-64.591 Y-1.108
X-64.569 Y-1.109
X-63.91 Y-1.133
X-63.892 Y-1.134
X-63.229 Y-1.171
X-63.209 Y-1.173
X-61.857 Y-1.28
X-61.839 Y-1.282
X-60.442 Y-1.42
X-60.43 Y-1.421
X-58.994 Y-1.582
X-58.985 Y-1.583
X-57.528 Y-1.76
X-57.52 Y-1.761
X-56.066 Y-1.951
X-56.057 Y-1.952
X-54.634 Y-2.154
X-54.622 Y-2.156
X-53.255 Y-2.367
X-53.242 Y-2.369
X-51.946 Y-2.589
X-51.935 Y-2.59
X-50.705 Y-2.814
X-50.702
X-49.519 Y-3.033
X-48.341 Y-3.237
X-47.744 Y-3.329
X-47.125 Y-3.414
X-46.48 Y-3.49
X-45.804 Y-3.557
X-45.092 Y-3.614
X-44.344 Y-3.66
X-43.559 Y-3.696
X-42.738 Y-3.722
X-41.884 Y-3.737
X-41.002 Y-3.743
X-39.154 Y-3.727
X-37.231 Y-3.68
X-35.266 Y-3.607
X-33.295 Y-3.518
X-31.357 Y-3.42
X-29.484 Y-3.323
X-29.483
X-27.7 Y-3.233
X-27.695
X-26.011 Y-3.159
X-26.002
X-24.41 Y-3.105
X-24.398 Y-3.104
X-22.875 Y-3.073
X-22.861
X-21.383 Y-3.066
X-21.369
X-19.909 Y-3.082
X-19.897 Y-3.083
X-18.437 Y-3.119
X-18.427
X-16.956 Y-3.173
X-16.949
X-15.466 Y-3.238
X-15.462
X-13.967 Y-3.31
X-12.464 Y-3.384
X-10.961 Y-3.453
X-9.465 Y-3.514
X-7.983 Y-3.56
X-6.522 Y-3.59
X-5.079 Y-3.6
G2 X-4.449 Y-3.864 I-0.006 J-0.9
G1 X-3.724 Y-4.589
S5000
X-1.656 Y-6.656 Z-2.302 F333.3
G2 X-1.535 Y-9.21 Z-2.4 I-1.344 J-1.344
S4000
G1 X-1.594 Y-9.278 F1000
X-1.656 Y-9.344
X-4.449 Y-12.136
G2 X-5.079 Y-12.4 I-0.636 J0.636
G1 X-6.522 Y-12.41
X-7.983 Y-12.44
X-9.465 Y-12.486
X-10.961 Y-12.547
X-12.464 Y-12.616
X-13.966 Y-12.69
X-15.462 Y-12.762
X-15.466
X-16.949 Y-12.827
X-16.956
X-18.427 Y-12.881
X-18.437
X-19.897 Y-12.917
X-19.909 Y-12.918
X-21.369 Y-12.934
X-21.383
X-22.861 Y-12.927
X-22.875
X-24.398 Y-12.896
X-24.41 Y-12.895
X-26.002 Y-12.841
X-26.011
X-27.695 Y-12.767
X-27.7
X-29.483 Y-12.677
X-29.484
X-31.357 Y-12.58
X-33.295 Y-12.482
X-35.266 Y-12.393
X-37.231 Y-12.32
X-39.154 Y-12.273
X-41.002 Y-12.257
X-41.884 Y-12.263
X-42.738 Y-12.278
X-43.559 Y-12.304
X-44.344 Y-12.34
X-45.092 Y-12.386
X-45.804 Y-12.443
X-46.48 Y-12.509
X-47.125 Y-12.586
X-47.744 Y-12.671
X-48.341 Y-12.763
X-49.519 Y-12.967
X-50.702 Y-13.186
X-50.705
X-51.935 Y-13.41
X-51.946 Y-13.411
X-53.242 Y-13.631
X-53.255 Y-13.633
X-54.622 Y-13.844
X-54.634 Y-13.846
X-56.057 Y-14.048
X-56.066 Y-14.049
X-57.52 Y-14.239
X-57.528 Y-14.24
X-58.985 Y-14.417
X-58.994 Y-14.418
X-60.43 Y-14.579
X-60.442 Y-14.58
X-61.839 Y-14.718
X-61.857 Y-14.72
X-63.209 Y-14.827
X-63.229 Y-14.829
X-63.892 Y-14.866
X-63.91 Y-14.867
X-64.569 Y-14.891
X-64.591 Y-14.892
X-65.251 Y-14.9
X-65.277
X-65.945 Y-14.889
X-65.973 Y-14.888
X-66.655 Y-14.855
X-66.685 Y-14.853
X-67.385 Y-14.797
X-67.415 Y-14.794
X-68.137 Y-14.711
X-68.166 Y-14.707
X-68.91 Y-14.598
X-68.938 Y-14.593
X-69.702 Y-14.456
X-69.729 Y-14.45
X-70.511 Y-14.285
X-70.537 Y-14.279
X-71.33 Y-14.087
X-71.356 Y-14.08
X-72.156 Y-13.861
X-72.182 Y-13.853
X-72.98 Y-13.608
X-73.007 Y-13.599
X-73.796 Y-13.329
X-73.825 Y-13.319
X-74.597 Y-13.026
X-74.627 Y-13.014
X-75.374 Y-12.7
X-75.407 Y-12.685
X-76.12 Y-12.351
X-76.157 Y-12.333
X-76.826 Y-11.981
X-76.856 Y-11.965
X-77.171 Y-11.783
X-77.194 Y-11.77
X-77.495 Y-11.585
X-77.519 Y-11.569
X-77.804 Y-11.381
X-77.83 Y-11.363
X-78.1 Y-11.172
X-78.128 Y-11.151
X-78.379 Y-10.957
X-78.41 Y-10.933
X-78.643 Y-10.736
X-78.676 Y-10.708
X-78.89 Y-10.509
X-78.925 Y-10.475
X-79.119 Y-10.274
X-79.156 Y-10.234
X-79.329 Y-10.031
X-79.367 Y-9.983
X-79.519 Y-9.779
X-79.558 Y-9.722
X-79.688 Y-9.517
X-79.726 Y-9.451
X-79.833 Y-9.245
X-79.868 Y-9.168
X-79.952 Y-8.961
X-79.982 Y-8.874
X-80.042 Y-8.666
X-80.064 Y-8.57
X-80.1 Y-8.362
X-80.112 Y-8.26
X-80.124 Y-8.052
Y-7.948
X-80.112 Y-7.74
X-80.1 Y-7.638
X-80.064 Y-7.43
X-80.042 Y-7.334
X-79.982 Y-7.126
X-79.952 Y-7.039
X-79.868 Y-6.832
X-79.833 Y-6.755
X-79.726 Y-6.549
X-79.688 Y-6.483
X-79.558 Y-6.278
X-79.519 Y-6.221
X-79.367 Y-6.017
X-79.329 Y-5.969
X-79.156 Y-5.766
X-79.119 Y-5.726
X-78.925 Y-5.525
X-78.89 Y-5.491
X-78.676 Y-5.292
X-78.643 Y-5.264
X-78.41 Y-5.067
X-78.379 Y-5.043
X-78.128 Y-4.849
X-78.1 Y-4.828
X-77.83 Y-4.637
X-77.804 Y-4.619
X-77.519 Y-4.431
X-77.495 Y-4.415
X-77.194 Y-4.23
X-77.171 Y-4.217
X-76.856 Y-4.035
X-76.826 Y-4.018
X-76.157 Y-3.667
X-76.12 Y-3.649
X-75.407 Y-3.315
X-75.375 Y-3.3
X-74.627 Y-2.986
X-74.597 Y-2.974
X-73.825 Y-2.681
X-73.797 Y-2.671
X-73.007 Y-2.401
X-72.98 Y-2.392
X-72.182 Y-2.147
X-72.156 Y-2.139
X-71.356 Y-1.92
X-71.33 Y-1.913
X-70.537 Y-1.721
X-70.511 Y-1.715
X-69.729 Y-1.55
X-69.702 Y-1.544
X-68.938 Y-1.407
X-68.91 Y-1.402
X-68.166 Y-1.293
X-68.137 Y-1.289
X-67.415 Y-1.206
X-67.385 Y-1.203
X-66.685 Y-1.147
X-66.655 Y-1.145
X-65.973 Y-1.112
X-65.945 Y-1.111
X-65.277 Y-1.1
X-65.251
X-64.591 Y-1.108
X-64.569 Y-1.109
X-63.91 Y-1.133
X-63.892 Y-1.134
X-63.229 Y-1.171
X-63.209 Y-1.173
X-61.857 Y-1.28
X-61.839 Y-1.282
X-60.442 Y-1.42
X-60.43 Y-1.421
X-58.994 Y-1.582
X-58.985 Y-1.583
X-57.528 Y-1.76
X-57.52 Y-1.761
X-56.066 Y-1.951
X-56.057 Y-1.952
X-54.634 Y-2.154
X-54.622 Y-2.156
X-53.255 Y-2.367
X-53.242 Y-2.369
X-51.946 Y-2.589
X-51.935 Y-2.59
X-50.705 Y-2.814
X-50.702
X-49.519 Y-3.033
X-48.341 Y-3.237
X-47.744 Y-3.329
X-47.125 Y-3.414
X-46.48 Y-3.49
X-45.804 Y-3.557
X-45.092 Y-3.614
X-44.344 Y-3.66
X-43.559 Y-3.696
X-42.738 Y-3.722
X-41.884 Y-3.737
X-41.002 Y-3.743
X-39.154 Y-3.727
X-37.231 Y-3.68
X-35.266 Y-3.607
X-33.295 Y-3.518
X-31.357 Y-3.42
X-29.484 Y-3.323
X-29.483
X-27.7 Y-3.233
X-27.695
X-26.011 Y-3.159
X-26.002
X-24.41 Y-3.105
X-24.398 Y-3.104
X-22.875 Y-3.073
X-22.861
X-21.383 Y-3.066
X-21.369
X-19.909 Y-3.082
X-19.897 Y-3.083
X-18.437 Y-3.119
X-18.427
X-16.956 Y-3.173
X-16.949
X-15.466 Y-3.238
X-15.462
X-13.967 Y-3.31
X-12.464 Y-3.384
X-10.961 Y-3.453
X-9.465 Y-3.514
X-7.983 Y-3.56
X-6.522 Y-3.59
X-5.079 Y-3.6
G2 X-4.449 Y-3.864 I-0.006 J-0.9
G1 X-1.656 Y-6.656
G2 X-1.535 Y-9.21 I-1.344 J-1.344
S5000
G1 X-1.594 Y-9.278 Z-2.403 F333.3
X-1.656 Y-9.344 Z-2.406
X-4.449 Y-12.136 Z-2.544
G2 X-5.079 Y-12.4 Z-2.569 I-0.636 J0.636
G1 X-5.976 Y-12.406 Z-2.6
S4000
X-6.522 Y-12.41 F1000
X-7.983 Y-12.44
X-9.465 Y-12.486
X-10.961 Y-12.547
X-12.464 Y-12.616
X-13.966 Y-12.69
X-15.462 Y-12.762
X-15.466
X-16.949 Y-12.827
X-16.956
X-18.427 Y-12.881
X-18.437
X-19.897 Y-12.917
X-19.909 Y-12.918
X-21.369 Y-12.934
X-21.383
X-22.861 Y-12.927
X-22.875
X-24.398 Y-12.896
X-24.41 Y-12.895
X-26.002 Y-12.841
X-26.011
X-27.695 Y-12.767
X-27.7
X-29.483 Y-12.677
X-29.484
X-31.357 Y-12.58
X-33.295 Y-12.482
X-35.266 Y-12.393
X-37.231 Y-12.32
X-39.154 Y-12.273
X-41.002 Y-12.257
X-41.884 Y-12.263
X-42.738 Y-12.278
X-43.559 Y-12.304
X-44.344 Y-12.34
X-45.092 Y-12.386
X-45.804 Y-12.443
X-46.48 Y-12.509
X-47.125 Y-12.586
X-47.744 Y-12.671
X-48.341 Y-12.763
X-49.519 Y-12.967
X-50.702 Y-13.186
X-50.705
X-51.935 Y-13.41
X-51.946 Y-13.411
X-53.242 Y-13.631
X-53.255 Y-13.633
X-54.622 Y-13.844
X-54.634 Y-13.846
X-56.057 Y-14.048
X-56.066 Y-14.049
X-57.52 Y-14.239
X-57.528 Y-14.24
X-58.985 Y-14.417
X-58.994 Y-14.418
X-60.43 Y-14.579
X-60.442 Y-14.58
X-61.839 Y-14.718
X-61.857 Y-14.72
X-63.209 Y-14.827
X-63.229 Y-14.829
X-63.892 Y-14.866
X-63.91 Y-14.867
X-64.569 Y-14.891
X-64.591 Y-14.892
X-65.251 Y-14.9
X-65.277
X-65.945 Y-14.889
X-65.973 Y-14.888
X-66.655 Y-14.855
X-66.685 Y-14.853
X-67.385 Y-14.797
X-67.415 Y-14.794
X-68.137 Y-14.711
X-68.166 Y-14.707
X-68.91 Y-14.598
X-68.938 Y-14.593
X-69.702 Y-14.456
X-69.729 Y-14.45
X-70.511 Y-14.285
X-70.537 Y-14.279
X-71.33 Y-14.087
X-71.356 Y-14.08
X-72.156 Y-13.861
X-72.182 Y-13.853
X-72.98 Y-13.608
X-73.007 Y-13.599
X-73.796 Y-13.329
X-73.825 Y-13.319
X-74.597 Y-13.026
X-74.627 Y-13.014
X-75.374 Y-12.7
X-75.407 Y-12.685
X-76.12 Y-12.351
X-76.157 Y-12.333
X-76.826 Y-11.981
X-76.856 Y-11.965
X-77.171 Y-11.783
X-77.194 Y-11.77
X-77.495 Y-11.585
X-77.519 Y-11.569
X-77.804 Y-11.381
X-77.83 Y-11.363
X-78.1 Y-11.172
X-78.128 Y-11.151
X-78.379 Y-10.957
X-78.41 Y-10.933
X-78.643 Y-10.736
X-78.676 Y-10.708
X-78.89 Y-10.509
X-78.925 Y-10.475
X-79.119 Y-10.274
X-79.156 Y-10.234
X-79.329 Y-10.031
X-79.367 Y-9.983
X-79.519 Y-9.779
X-79.558 Y-9.722
X-79.688 Y-9.517
X-79.726 Y-9.451
X-79.833 Y-9.245
X-79.868 Y-9.168
X-79.952 Y-8.961
X-79.982 Y-8.874
X-80.042 Y-8.666
X-80.064 Y-8.57
X-80.1 Y-8.362
X-80.112 Y-8.26
X-80.124 Y-8.052
Y-7.948
X-80.112 Y-7.74
X-80.1 Y-7.638
X-80.064 Y-7.43
X-80.042 Y-7.334
X-79.982 Y-7.126
X-79.952 Y-7.039
X-79.868 Y-6.832
X-79.833 Y-6.755
X-79.726 Y-6.549
X-79.688 Y-6.483
X-79.558 Y-6.278
X-79.519 Y-6.221
X-79.367 Y-6.017
X-79.329 Y-5.969
X-79.156 Y-5.766
X-79.119 Y-5.726
X-78.925 Y-5.525
X-78.89 Y-5.491
X-78.676 Y-5.292
X-78.643 Y-5.264
X-78.41 Y-5.067
X-78.379 Y-5.043
X-78.128 Y-4.849
X-78.1 Y-4.828
X-77.83 Y-4.637
X-77.804 Y-4.619
X-77.519 Y-4.431
X-77.495 Y-4.415
X-77.194 Y-4.23
X-77.171 Y-4.217
X-76.856 Y-4.035
X-76.826 Y-4.018
X-76.157 Y-3.667
X-76.12 Y-3.649
X-75.407 Y-3.315
X-75.375 Y-3.3
X-74.627 Y-2.986
X-74.597 Y-2.974
X-73.825 Y-2.681
X-73.797 Y-2.671
X-73.007 Y-2.401
X-72.98 Y-2.392
X-72.182 Y-2.147
X-72.156 Y-2.139
X-71.356 Y-1.92
X-71.33 Y-1.913
X-70.537 Y-1.721
X-70.511 Y-1.715
X-69.729 Y-1.55
X-69.702 Y-1.544
X-68.938 Y-1.407
X-68.91 Y-1.402
X-68.166 Y-1.293
X-68.137 Y-1.289
X-67.415 Y-1.206
X-67.385 Y-1.203
X-66.685 Y-1.147
X-66.655 Y-1.145
X-65.973 Y-1.112
X-65.945 Y-1.111
X-65.277 Y-1.1
X-65.251
X-64.591 Y-1.108
X-64.569 Y-1.109
X-63.91 Y-1.133
X-63.892 Y-1.134
X-63.229 Y-1.171
X-63.209 Y-1.173
X-61.857 Y-1.28
X-61.839 Y-1.282
X-60.442 Y-1.42
X-60.43 Y-1.421
X-58.994 Y-1.582
X-58.985 Y-1.583
X-57.528 Y-1.76
X-57.52 Y-1.761
X-56.066 Y-1.951
X-56.057 Y-1.952
X-54.634 Y-2.154
X-54.622 Y-2.156
X-53.255 Y-2.367
X-53.242 Y-2.369
X-51.946 Y-2.589
X-51.935 Y-2.59
X-50.705 Y-2.814
X-50.702
X-49.519 Y-3.033
X-48.341 Y-3.237
X-47.744 Y-3.329
X-47.125 Y-3.414
X-46.48 Y-3.49
X-45.804 Y-3.557
X-45.092 Y-3.614
X-44.344 Y-3.66
X-43.559 Y-3.696
X-42.738 Y-3.722
X-41.884 Y-3.737
X-41.002 Y-3.743
X-39.154 Y-3.727
X-37.231 Y-3.68
X-35.266 Y-3.607
X-33.295 Y-3.518
X-31.357 Y-3.42
X-29.484 Y-3.323
X-29.483
X-27.7 Y-3.233
X-27.695
X-26.011 Y-3.159
X-26.002
X-24.41 Y-3.105
X-24.398 Y-3.104
X-22.875 Y-3.073
X-22.861
X-21.383 Y-3.066
X-21.369
X-19.909 Y-3.082
X-19.897 Y-3.083
X-18.437 Y-3.119
X-18.427
X-16.956 Y-3.173
X-16.949
X-15.466 Y-3.238
X-15.462
X-13.967 Y-3.31
X-12.464 Y-3.384
X-10.961 Y-3.453
X-9.465 Y-3.514
X-7.983 Y-3.56
X-6.522 Y-3.59
X-5.079 Y-3.6
G2 X-4.449 Y-3.864 I-0.006 J-0.9
G1 X-1.656 Y-6.656
G2 X-1.656 Y-9.344 I-1.344 J-1.344
G1 X-4.449 Y-12.136
G2 X-5.079 Y-12.4 I-0.636 J0.636
G1 X-5.976 Y-12.406
S5000
X-6.522 Y-12.41 Z-2.619 F333.3
X-7.983 Y-12.44 Z-2.67
X-9.465 Y-12.486 Z-2.722
X-10.961 Y-12.547 Z-2.774
X-11.7 Y-12.581 Z-2.8
S4000
X-12.464 Y-12.616 F1000
X-13.966 Y-12.69
X-15.462 Y-12.762
X-15.466
X-16.949 Y-12.827
X-16.956
X-18.427 Y-12.881
X-18.437
X-19.897 Y-12.917
X-19.909 Y-12.918
X-21.369 Y-12.934
X-21.383
X-22.861 Y-12.927
X-22.875
X-24.398 Y-12.896
X-24.41 Y-12.895
X-26.002 Y-12.841
X-26.011
X-27.695 Y-12.767
X-27.7
X-29.483 Y-12.677
X-29.484
X-31.357 Y-12.58
X-33.295 Y-12.482
X-35.266 Y-12.393
X-37.231 Y-12.32
X-39.154 Y-12.273
X-41.002 Y-12.257
X-41.884 Y-12.263
X-42.738 Y-12.278
X-43.559 Y-12.304
X-44.336 Y-12.339
Z-2.7
X-44.344 Y-12.34
X-45.092 Y-12.386
X-45.804 Y-12.443
X-46.48 Y-12.509
X-47.125 Y-12.586
X-47.744 Y-12.671
X-48.341 Y-12.763
X-48.61 Y-12.81
Z-2.8 F200
X-49.519 Y-12.967 F1000
X-50.702 Y-13.186
X-50.705
X-51.935 Y-13.41
X-51.946 Y-13.411
X-53.242 Y-13.631
X-53.255 Y-13.633
X-54.622 Y-13.844
X-54.634 Y-13.846
X-56.057 Y-14.048
X-56.066 Y-14.049
X-57.52 Y-14.239
X-57.528 Y-14.24
X-58.985 Y-14.417
X-58.994 Y-14.418
X-60.43 Y-14.579
X-60.442 Y-14.58
X-61.839 Y-14.718
X-61.857 Y-14.72
X-63.209 Y-14.827
X-63.229 Y-14.829
X-63.892 Y-14.866
X-63.91 Y-14.867
X-64.569 Y-14.891
X-64.591 Y-14.892
X-65.251 Y-14.9
X-65.277
X-65.945 Y-14.889
X-65.973 Y-14.888
X-66.655 Y-14.855
X-66.685 Y-14.853
X-67.385 Y-14.797
X-67.415 Y-14.794
X-68.137 Y-14.711
X-68.166 Y-14.707
X-68.91 Y-14.598
X-68.938 Y-14.593
X-69.702 Y-14.456
X-69.729 Y-14.45
X-70.511 Y-14.285
X-70.537 Y-14.279
X-71.33 Y-14.087
X-71.356 Y-14.08
X-72.156 Y-13.861
X-72.182 Y-13.853
X-72.98 Y-13.608
X-73.007 Y-13.599
X-73.796 Y-13.329
X-73.825 Y-13.319
X-74.597 Y-13.026
X-74.627 Y-13.014
X-75.374 Y-12.7
X-75.407 Y-12.685
X-76.12 Y-12.351
X-76.157 Y-12.333
X-76.826 Y-11.981
X-76.856 Y-11.965
X-77.171 Y-11.783
X-77.194 Y-11.77
X-77.495 Y-11.585
X-77.519 Y-11.569
X-77.804 Y-11.381
X-77.83 Y-11.363
X-78.1 Y-11.172
X-78.128 Y-11.151
X-78.379 Y-10.957
X-78.41 Y-10.933
X-78.643 Y-10.736
X-78.676 Y-10.708
X-78.89 Y-10.509
X-78.925 Y-10.475
X-79.119 Y-10.274
X-79.156 Y-10.234
X-79.329 Y-10.031
X-79.367 Y-9.983
X-79.519 Y-9.779
X-79.558 Y-9.722
X-79.688 Y-9.517
X-79.726 Y-9.451
X-79.833 Y-9.245
X-79.868 Y-9.168
X-79.952 Y-8.961
X-79.982 Y-8.874
X-80.042 Y-8.666
X-80.064 Y-8.57
X-80.1 Y-8.362
X-80.112 Y-8.26
X-80.124 Y-8.052
Y-7.948
X-80.112 Y-7.74
X-80.1 Y-7.638
X-80.064 Y-7.43
X-80.042 Y-7.334
X-79.982 Y-7.126
X-79.952 Y-7.039
X-79.868 Y-6.832
X-79.833 Y-6.755
X-79.726 Y-6.549
X-79.688 Y-6.483
X-79.558 Y-6.278
X-79.519 Y-6.221
X-79.367 Y-6.017
X-79.329 Y-5.969
X-79.156 Y-5.766
X-79.119 Y-5.726
X-78.925 Y-5.525
X-78.89 Y-5.491
X-78.676 Y-5.292
X-78.643 Y-5.264
X-78.41 Y-5.067
X-78.379 Y-5.043
X-78.128 Y-4.849
X-78.1 Y-4.828
X-77.83 Y-4.637
X-77.804 Y-4.619
X-77.519 Y-4.431
X-77.495 Y-4.415
X-77.194 Y-4.23
X-77.171 Y-4.217
X-76.856 Y-4.035
X-76.826 Y-4.018
X-76.157 Y-3.667
X-76.12 Y-3.649
X-75.407 Y-3.315
X-75.375 Y-3.3
X-74.627 Y-2.986
X-74.597 Y-2.974
X-73.825 Y-2.681
X-73.797 Y-2.671
X-73.007 Y-2.401
X-72.98 Y-2.392
X-72.182 Y-2.147
X-72.156 Y-2.139
X-71.356 Y-1.92
X-71.33 Y-1.913
X-70.537 Y-1.721
X-70.511 Y-1.715
X-69.729 Y-1.55
X-69.702 Y-1.544
X-68.938 Y-1.407
X-68.91 Y-1.402
X-68.166 Y-1.293
X-68.137 Y-1.289
X-67.415 Y-1.206
X-67.385 Y-1.203
X-66.685 Y-1.147
X-66.655 Y-1.145
X-65.973 Y-1.112
X-65.945 Y-1.111
X-65.277 Y-1.1
X-65.251
X-64.591 Y-1.108
X-64.569 Y-1.109
X-63.91 Y-1.133
X-63.892 Y-1.134
X-63.229 Y-1.171
X-63.209 Y-1.173
X-61.857 Y-1.28
X-61.839 Y-1.282
X-60.442 Y-1.42
X-60.43 Y-1.421
X-58.994 Y-1.582
X-58.985 Y-1.583
X-57.528 Y-1.76
X-57.52 Y-1.761
X-56.066 Y-1.951
X-56.057 Y-1.952
X-54.634 Y-2.154
X-54.622 Y-2.156
X-53.255 Y-2.367
X-53.242 Y-2.369
X-51.946 Y-2.589
X-51.935 Y-2.59
X-50.705 Y-2.814
X-50.702
X-49.519 Y-3.033
X-48.61 Y-3.19
Z-2.7
X-48.341 Y-3.237
X-47.744 Y-3.329
X-47.125 Y-3.414
X-46.48 Y-3.49
X-45.804 Y-3.557
X-45.092 Y-3.614
X-44.344 Y-3.66
X-44.336 Y-3.661
Z-2.8 F200
X-43.559 Y-3.696 F1000
X-42.738 Y-3.722
X-41.884 Y-3.737
X-41.002 Y-3.743
X-39.154 Y-3.727
X-37.231 Y-3.68
X-35.266 Y-3.607
X-33.295 Y-3.518
X-31.357 Y-3.42
X-29.484 Y-3.323
X-29.483
X-27.7 Y-3.233
X-27.695
X-26.011 Y-3.159
X-26.002
X-24.41 Y-3.105
X-24.398 Y-3.104
X-22.875 Y-3.073
X-22.861
X-21.383 Y-3.066
X-21.369
X-19.909 Y-3.082
X-19.897 Y-3.083
X-18.437 Y-3.119
X-18.427
X-16.956 Y-3.173
X-16.949
X-15.466 Y-3.238
X-15.462
X-13.967 Y-3.31
X-12.464 Y-3.384
X-10.961 Y-3.453
X-9.465 Y-3.514
X-7.983 Y-3.56
X-6.522 Y-3.59
X-5.079 Y-3.6
G2 X-4.449 Y-3.864 I-0.006 J-0.9
G1 X-1.656 Y-6.656
G2 X-1.656 Y-9.344 I-1.344 J-1.344
G1 X-4.449 Y-12.136
G2 X-5.079 Y-12.4 I-0.636 J0.636
G1 X-6.522 Y-12.41
X-7.983 Y-12.44
X-9.465 Y-12.486
X-10.961 Y-12.547
X-11.7 Y-12.581
S5000
X-12.464 Y-12.616 Z-2.827 F333.3
X-13.966 Y-12.69 Z-2.879
X-15.462 Y-12.762 Z-2.932
X-15.466
X-16.949 Y-12.827 Z-2.984
X-16.956
X-17.421 Y-12.844 Z-3
S4000
X-18.427 Y-12.881 F1000
X-18.437
X-19.897 Y-12.917
X-19.909 Y-12.918
X-21.369 Y-12.934
X-21.383
X-22.861 Y-12.927
X-22.875
X-24.398 Y-12.896
X-24.41 Y-12.895
X-26.002 Y-12.841
X-26.011
X-27.695 Y-12.767
X-27.7
X-29.483 Y-12.677
X-29.484
X-31.357 Y-12.58
X-33.295 Y-12.482
X-35.266 Y-12.393
X-37.231 Y-12.32
X-39.154 Y-12.273
X-41.002 Y-12.257
X-41.884 Y-12.263
X-42.738 Y-12.278
X-43.559 Y-12.304
X-44.336 Y-12.339
Z-2.7
X-44.344 Y-12.34
X-45.092 Y-12.386
X-45.804 Y-12.443
X-46.48 Y-12.509
X-47.125 Y-12.586
X-47.744 Y-12.671
X-48.341 Y-12.763
X-48.61 Y-12.81
Z-3 F200
X-49.519 Y-12.967 F1000
X-50.702 Y-13.186
X-50.705
X-51.935 Y-13.41
X-51.946 Y-13.411
X-53.242 Y-13.631
X-53.255 Y-13.633
X-54.622 Y-13.844
X-54.634 Y-13.846
X-56.057 Y-14.048
X-56.066 Y-14.049
X-57.52 Y-14.239
X-57.528 Y-14.24
X-58.985 Y-14.417
X-58.994 Y-14.418
X-60.43 Y-14.579
X-60.442 Y-14.58
X-61.839 Y-14.718
X-61.857 Y-14.72
X-63.209 Y-14.827
X-63.229 Y-14.829
X-63.892 Y-14.866
X-63.91 Y-14.867
X-64.569 Y-14.891
X-64.591 Y-14.892
X-65.251 Y-14.9
X-65.277
X-65.945 Y-14.889
X-65.973 Y-14.888
X-66.655 Y-14.855
X-66.685 Y-14.853
X-67.385 Y-14.797
X-67.415 Y-14.794
X-68.137 Y-14.711
X-68.166 Y-14.707
X-68.91 Y-14.598
X-68.938 Y-14.593
X-69.702 Y-14.456
X-69.729 Y-14.45
X-70.511 Y-14.285
X-70.537 Y-14.279
X-71.33 Y-14.087
X-71.356 Y-14.08
X-72.156 Y-13.861
X-72.182 Y-13.853
X-72.98 Y-13.608
X-73.007 Y-13.599
X-73.796 Y-13.329
X-73.825 Y-13.319
X-74.597 Y-13.026
X-74.627 Y-13.014
X-75.374 Y-12.7
X-75.407 Y-12.685
X-76.12 Y-12.351
X-76.157 Y-12.333
X-76.826 Y-11.981
X-76.856 Y-11.965
X-77.171 Y-11.783
X-77.194 Y-11.77
X-77.495 Y-11.585
X-77.519 Y-11.569
X-77.804 Y-11.381
X-77.83 Y-11.363
X-78.1 Y-11.172
X-78.128 Y-11.151
X-78.379 Y-10.957
X-78.41 Y-10.933
X-78.643 Y-10.736
X-78.676 Y-10.708
X-78.89 Y-10.509
X-78.925 Y-10.475
X-79.119 Y-10.274
X-79.156 Y-10.234
X-79.329 Y-10.031
X-79.367 Y-9.983
X-79.519 Y-9.779
X-79.558 Y-9.722
X-79.688 Y-9.517
X-79.726 Y-9.451
X-79.833 Y-9.245
X-79.868 Y-9.168
X-79.952 Y-8.961
X-79.982 Y-8.874
X-80.042 Y-8.666
X-80.064 Y-8.57
X-80.1 Y-8.362
X-80.112 Y-8.26
X-80.124 Y-8.052
Y-7.948
X-80.112 Y-7.74
X-80.1 Y-7.638
X-80.064 Y-7.43
X-80.042 Y-7.334
X-79.982 Y-7.126
X-79.952 Y-7.039
X-79.868 Y-6.832
X-79.833 Y-6.755
X-79.726 Y-6.549
X-79.688 Y-6.483
X-79.558 Y-6.278
X-79.519 Y-6.221
X-79.367 Y-6.017
X-79.329 Y-5.969
X-79.156 Y-5.766
X-79.119 Y-5.726
X-78.925 Y-5.525
X-78.89 Y-5.491
X-78.676 Y-5.292
X-78.643 Y-5.264
X-78.41 Y-5.067
X-78.379 Y-5.043
X-78.128 Y-4.849
X-78.1 Y-4.828
X-77.83 Y-4.637
X-77.804 Y-4.619
X-77.519 Y-4.431
X-77.495 Y-4.415
X-77.194 Y-4.23
X-77.171 Y-4.217
X-76.856 Y-4.035
X-76.826 Y-4.018
X-76.157 Y-3.667
X-76.12 Y-3.649
X-75.407 Y-3.315
X-75.375 Y-3.3
X-74.627 Y-2.986
X-74.597 Y-2.974
X-73.825 Y-2.681
X-73.797 Y-2.671
X-73.007 Y-2.401
X-72.98 Y-2.392
X-72.182 Y-2.147
X-72.156 Y-2.139
X-71.356 Y-1.92
X-71.33 Y-1.913
X-70.537 Y-1.721
X-70.511 Y-1.715
X-69.729 Y-1.55
X-69.702 Y-1.544
X-68.938 Y-1.407
X-68.91 Y-1.402
X-68.166 Y-1.293
X-68.137 Y-1.289
X-67.415 Y-1.206
X-67.385 Y-1.203
X-66.685 Y-1.147
X-66.655 Y-1.145
X-65.973 Y-1.112
X-65.945 Y-1.111
X-65.277 Y-1.1
X-65.251
X-64.591 Y-1.108
X-64.569 Y-1.109
X-63.91 Y-1.133
X-63.892 Y-1.134
X-63.229 Y-1.171
X-63.209 Y-1.173
X-61.857 Y-1.28
X-61.839 Y-1.282
X-60.442 Y-1.42
X-60.43 Y-1.421
X-58.994 Y-1.582
X-58.985 Y-1.583
X-57.528 Y-1.76
X-57.52 Y-1.761
X-56.066 Y-1.951
X-56.057 Y-1.952
X-54.634 Y-2.154
X-54.622 Y-2.156
X-53.255 Y-2.367
X-53.242 Y-2.369
X-51.946 Y-2.589
X-51.935 Y-2.59
X-50.705 Y-2.814
X-50.702
X-49.519 Y-3.033
X-48.61 Y-3.19
Z-2.7
X-48.341 Y-3.237
X-47.744 Y-3.329
X-47.125 Y-3.414
X-46.48 Y-3.49
X-45.804 Y-3.557
X-45.092 Y-3.614
X-44.344 Y-3.66
X-44.336 Y-3.661
Z-3 F200
X-43.559 Y-3.696 F1000
X-42.738 Y-3.722
X-41.884 Y-3.737
X-41.002 Y-3.743
X-39.154 Y-3.727
X-37.231 Y-3.68
X-35.266 Y-3.607
X-33.295 Y-3.518
X-31.357 Y-3.42
X-29.484 Y-3.323
X-29.483
X-27.7 Y-3.233
X-27.695
X-26.011 Y-3.159
X-26.002
X-24.41 Y-3.105
X-24.398 Y-3.104
X-22.875 Y-3.073
X-22.861
X-21.383 Y-3.066
X-21.369
X-19.909 Y-3.082
X-19.897 Y-3.083
X-18.437 Y-3.119
X-18.427
X-16.956 Y-3.173
X-16.949
X-15.466 Y-3.238
X-15.462
X-13.967 Y-3.31
X-12.464 Y-3.384
X-10.961 Y-3.453
X-9.465 Y-3.514
X-7.983 Y-3.56
X-6.522 Y-3.59
X-5.079 Y-3.6
G2 X-4.449 Y-3.864 I-0.006 J-0.9
G1 X-1.656 Y-6.656
G2 X-1.656 Y-9.344 I-1.344 J-1.344
G1 X-4.449 Y-12.136
G2 X-5.079 Y-12.4 I-0.636 J0.636
G1 X-6.522 Y-12.41
X-7.983 Y-12.44
X-9.465 Y-12.486
X-10.961 Y-12.547
X-12.464 Y-12.616
X-13.966 Y-12.69
X-15.462 Y-12.762
X-15.466
X-16.949 Y-12.827
X-16.956
X-17.421 Y-12.844
S5000
X-18.427 Y-12.881 Z-3.035 F333.3
X-18.437
X-19.897 Y-12.917 Z-3.086
X-19.909 Y-12.918 Z-3.087
X-21.369 Y-12.934 Z-3.138
X-21.383
X-22.861 Y-12.927 Z-3.19
X-22.875
X-23.147 Y-12.921 Z-3.2
S4000
X-24.398 Y-12.896 F1000
X-24.41 Y-12.895
X-26.002 Y-12.841
X-26.011
X-27.695 Y-12.767
X-27.7
X-29.483 Y-12.677
X-29.484
X-31.357 Y-12.58
X-33.295 Y-12.482
X-35.266 Y-12.393
X-37.231 Y-12.32
X-39.154 Y-12.273
X-41.002 Y-12.257
X-41.884 Y-12.263
X-42.738 Y-12.278
X-43.559 Y-12.304
X-44.336 Y-12.339
Z-2.7
X-44.344 Y-12.34
X-45.092 Y-12.386
X-45.804 Y-12.443
X-46.48 Y-12.509
X-47.125 Y-12.586
X-47.744 Y-12.671
X-48.341 Y-12.763
X-48.61 Y-12.81
Z-3.2 F200
X-49.519 Y-12.967 F1000
X-50.702 Y-13.186
X-50.705
X-51.935 Y-13.41
X-51.946 Y-13.411
X-53.242 Y-13.631
X-53.255 Y-13.633
X-54.622 Y-13.844
X-54.634 Y-13.846
X-56.057 Y-14.048
X-56.066 Y-14.049
X-57.52 Y-14.239
X-57.528 Y-14.24
X-58.985 Y-14.417
X-58.994 Y-14.418
X-60.43 Y-14.579
X-60.442 Y-14.58
X-61.839 Y-14.718
X-61.857 Y-14.72
X-63.209 Y-14.827
X-63.229 Y-14.829
X-63.892 Y-14.866
X-63.91 Y-14.867
X-64.569 Y-14.891
X-64.591 Y-14.892
X-65.251 Y-14.9
X-65.277
X-65.945 Y-14.889
X-65.973 Y-14.888
X-66.655 Y-14.855
X-66.685 Y-14.853
X-67.385 Y-14.797
X-67.415 Y-14.794
X-68.137 Y-14.711
X-68.166 Y-14.707
X-68.91 Y-14.598
X-68.938 Y-14.593
X-69.702 Y-14.456
X-69.729 Y-14.45
X-70.511 Y-14.285
X-70.537 Y-14.279
X-71.33 Y-14.087
X-71.356 Y-14.08
X-72.156 Y-13.861
X-72.182 Y-13.853
X-72.98 Y-13.608
X-73.007 Y-13.599
X-73.796 Y-13.329
X-73.825 Y-13.319
X-74.597 Y-13.026
X-74.627 Y-13.014
X-75.374 Y-12.7
X-75.407 Y-12.685
X-76.12 Y-12.351
X-76.157 Y-12.333
X-76.826 Y-11.981
X-76.856 Y-11.965
X-77.171 Y-11.783
X-77.194 Y-11.77
X-77.495 Y-11.585
X-77.519 Y-11.569
X-77.804 Y-11.381
X-77.83 Y-11.363
X-78.1 Y-11.172
X-78.128 Y-11.151
X-78.379 Y-10.957
X-78.41 Y-10.933
X-78.643 Y-10.736
X-78.676 Y-10.708
X-78.89 Y-10.509
X-78.925 Y-10.475
X-79.119 Y-10.274
X-79.156 Y-10.234
X-79.329 Y-10.031
X-79.367 Y-9.983
X-79.519 Y-9.779
X-79.558 Y-9.722
X-79.688 Y-9.517
X-79.726 Y-9.451
X-79.833 Y-9.245
X-79.868 Y-9.168
X-79.952 Y-8.961
X-79.982 Y-8.874
X-80.042 Y-8.666
X-80.064 Y-8.57
X-80.1 Y-8.362
X-80.112 Y-8.26
X-80.124 Y-8.052
Y-7.948
X-80.112 Y-7.74
X-80.1 Y-7.638
X-80.064 Y-7.43
X-80.042 Y-7.334
X-79.982 Y-7.126
X-79.952 Y-7.039
X-79.868 Y-6.832
X-79.833 Y-6.755
X-79.726 Y-6.549
X-79.688 Y-6.483
X-79.558 Y-6.278
X-79.519 Y-6.221
X-79.367 Y-6.017
X-79.329 Y-5.969
X-79.156 Y-5.766
X-79.119 Y-5.726
X-78.925 Y-5.525
X-78.89 Y-5.491
X-78.676 Y-5.292
X-78.643 Y-5.264
X-78.41 Y-5.067
X-78.379 Y-5.043
X-78.128 Y-4.849
X-78.1 Y-4.828
X-77.83 Y-4.637
X-77.804 Y-4.619
X-77.519 Y-4.431
X-77.495 Y-4.415
X-77.194 Y-4.23
X-77.171 Y-4.217
X-76.856 Y-4.035
X-76.826 Y-4.018
X-76.157 Y-3.667
X-76.12 Y-3.649
X-75.407 Y-3.315
X-75.375 Y-3.3
X-74.627 Y-2.986
X-74.597 Y-2.974
X-73.825 Y-2.681
X-73.797 Y-2.671
X-73.007 Y-2.401
X-72.98 Y-2.392
X-72.182 Y-2.147
X-72.156 Y-2.139
X-71.356 Y-1.92
X-71.33 Y-1.913
X-70.537 Y-1.721
X-70.511 Y-1.715
X-69.729 Y-1.55
X-69.702 Y-1.544
X-68.938 Y-1.407
X-68.91 Y-1.402
X-68.166 Y-1.293
X-68.137 Y-1.289
X-67.415 Y-1.206
X-67.385 Y-1.203
X-66.685 Y-1.147
X-66.655 Y-1.145
X-65.973 Y-1.112
X-65.945 Y-1.111
X-65.277 Y-1.1
X-65.251
X-64.591 Y-1.108
X-64.569 Y-1.109
X-63.91 Y-1.133
X-63.892 Y-1.134
X-63.229 Y-1.171
X-63.209 Y-1.173
X-61.857 Y-1.28
X-61.839 Y-1.282
X-60.442 Y-1.42
X-60.43 Y-1.421
X-58.994 Y-1.582
X-58.985 Y-1.583
X-57.528 Y-1.76
X-57.52 Y-1.761
X-56.066 Y-1.951
X-56.057 Y-1.952
X-54.634 Y-2.154
X-54.622 Y-2.156
X-53.255 Y-2.367
X-53.242 Y-2.369
X-51.946 Y-2.589
X-51.935 Y-2.59
X-50.705 Y-2.814
X-50.702
X-49.519 Y-3.033
X-48.61 Y-3.19
Z-2.7
X-48.341 Y-3.237
X-47.744 Y-3.329
X-47.125 Y-3.414
X-46.48 Y-3.49
X-45.804 Y-3.557
X-45.092 Y-3.614
X-44.344 Y-3.66
X-44.336 Y-3.661
Z-3.2 F200
X-43.559 Y-3.696 F1000
X-42.738 Y-3.722
X-41.884 Y-3.737
X-41.002 Y-3.743
X-39.154 Y-3.727
X-37.231 Y-3.68
X-35.266 Y-3.607
X-33.295 Y-3.518
X-31.357 Y-3.42
X-29.484 Y-3.323
X-29.483
X-27.7 Y-3.233
X-27.695
X-26.011 Y-3.159
X-26.002
X-24.41 Y-3.105
X-24.398 Y-3.104
X-22.875 Y-3.073
X-22.861
X-21.383 Y-3.066
X-21.369
X-19.909 Y-3.082
X-19.897 Y-3.083
X-18.437 Y-3.119
X-18.427
X-16.956 Y-3.173
X-16.949
X-15.466 Y-3.238
X-15.462
X-13.967 Y-3.31
X-12.464 Y-3.384
X-10.961 Y-3.453
X-9.465 Y-3.514
X-7.983 Y-3.56
X-6.522 Y-3.59
X-5.079 Y-3.6
G2 X-4.449 Y-3.864 I-0.006 J-0.9
G1 X-1.656 Y-6.656
G2 X-1.656 Y-9.344 I-1.344 J-1.344
G1 X-4.449 Y-12.136
G2 X-5.079 Y-12.4 I-0.636 J0.636
G1 X-6.522 Y-12.41
X-7.983 Y-12.44
X-9.465 Y-12.486
X-10.961 Y-12.547
X-12.464 Y-12.616
X-13.966 Y-12.69
X-15.462 Y-12.762
X-15.466
X-16.949 Y-12.827
X-16.956
X-18.427 Y-12.881
X-18.437
X-19.897 Y-12.917
X-19.909 Y-12.918
X-21.369 Y-12.934
X-21.383
X-22.861 Y-12.927
X-22.875
X-23.147 Y-12.921
S5000
X-24.398 Y-12.896 Z-3.244 F333.3
X-24.41 Y-12.895
X-26.002 Y-12.841 Z-3.3
X-26.01
S4000
X-26.011 F1000
X-27.695 Y-12.767
X-27.7
X-29.483 Y-12.677
X-29.484
X-31.357 Y-12.58
X-33.295 Y-12.482
X-35.266 Y-12.393
X-37.231 Y-12.32
X-39.154 Y-12.273
X-41.002 Y-12.257
X-41.884 Y-12.263
X-42.738 Y-12.278
X-43.559 Y-12.304
X-44.336 Y-12.339
Z-2.7
X-44.344 Y-12.34
X-45.092 Y-12.386
X-45.804 Y-12.443
X-46.48 Y-12.509
X-47.125 Y-12.586
X-47.744 Y-12.671
X-48.341 Y-12.763
X-48.61 Y-12.81
Z-3.3 F200
X-49.519 Y-12.967 F1000
X-50.702 Y-13.186
X-50.705
X-51.935 Y-13.41
X-51.946 Y-13.411
X-53.242 Y-13.631
X-53.255 Y-13.633
X-54.622 Y-13.844
