(1001)
G90 G94
G17
G21
(When using Fusion 360 for Personal Use, the feedrate of)
(rapid moves is reduced to match the feedrate of cutting)
(moves, which can increase machining time. Unrestricted rapid)
(moves are available with a Fusion 360 Subscription.)

(Bohrfrasen18)
S4000 M3
G54
G0 X3.182 Y-27.795
Z15
G1 Z2 F600
Z0 F400
Y-27.6
X3.147 Y-27.575
X3.106 Y-27.562
X3.063
X3.022 Y-27.575
X2.988 Y-27.6
G3 X3.376 Y-27.989 Z-0.15 I0.194 J-0.194 F600
X2.988 Y-27.6 Z-0.3 I-0.194 J0.194
X3.376 Y-27.989 Z-0.45 I0.194 J-0.194
X2.988 Y-27.6 Z-0.6 I-0.194 J0.194
X3.376 Y-27.989 Z-0.75 I0.194 J-0.194
X2.988 Y-27.6 Z-0.9 I-0.194 J0.194
X3.376 Y-27.989 Z-1.05 I0.194 J-0.194
X2.988 Y-27.6 Z-1.2 I-0.194 J0.194
X3.376 Y-27.989 Z-1.35 I0.194 J-0.194
X2.988 Y-27.6 Z-1.5 I-0.194 J0.194
X3.376 Y-27.989 Z-1.65 I0.194 J-0.194
X2.988 Y-27.6 Z-1.8 I-0.194 J0.194
X3.376 Y-27.989 Z-1.95 I0.194 J-0.194
X2.988 Y-27.6 Z-2.1 I-0.194 J0.194
X3.376 Y-27.989 Z-2.25 I0.194 J-0.194
X2.988 Y-27.6 Z-2.4 I-0.194 J0.194
X3.376 Y-27.989 Z-2.55 I0.194 J-0.194
X2.988 Y-27.6 Z-2.7 I-0.194 J0.194
X3.376 Y-27.989 Z-2.85 I0.194 J-0.194
X2.988 Y-27.6 Z-3 I-0.194 J0.194
X3.376 Y-27.989 Z-3.15 I0.194 J-0.194
X2.988 Y-27.6 Z-3.3 I-0.194 J0.194
X3.376 Y-27.989 I0.194 J-0.194
X2.988 Y-27.6 I-0.194 J0.194
G1 X2.962 Y-27.635
X2.949 Y-27.676
Y-27.719
X2.962 Y-27.76
X2.988 Y-27.795
X3.182
Z5
X-3.182
Z2
Z0 F400
Y-27.6
X-3.217 Y-27.575
X-3.258 Y-27.562
X-3.301
X-3.342 Y-27.575
X-3.376 Y-27.6
G3 X-2.988 Y-27.989 Z-0.15 I0.194 J-0.194 F600
X-3.376 Y-27.6 Z-0.3 I-0.194 J0.194
X-2.988 Y-27.989 Z-0.45 I0.194 J-0.194
X-3.376 Y-27.6 Z-0.6 I-0.194 J0.194
X-2.988 Y-27.989 Z-0.75 I0.194 J-0.194
X-3.376 Y-27.6 Z-0.9 I-0.194 J0.194
X-2.988 Y-27.989 Z-1.05 I0.194 J-0.194
X-3.376 Y-27.6 Z-1.2 I-0.194 J0.194
X-2.988 Y-27.989 Z-1.35 I0.194 J-0.194
X-3.376 Y-27.6 Z-1.5 I-0.194 J0.194
X-2.988 Y-27.989 Z-1.65 I0.194 J-0.194
X-3.376 Y-27.6 Z-1.8 I-0.194 J0.194
X-2.988 Y-27.989 Z-1.95 I0.194 J-0.194
X-3.376 Y-27.6 Z-2.1 I-0.194 J0.194
X-2.988 Y-27.989 Z-2.25 I0.194 J-0.194
X-3.376 Y-27.6 Z-2.4 I-0.194 J0.194
X-2.988 Y-27.989 Z-2.55 I0.194 J-0.194
X-3.376 Y-27.6 Z-2.7 I-0.194 J0.194
X-2.988 Y-27.989 Z-2.85 I0.194 J-0.194
X-3.376 Y-27.6 Z-3 I-0.194 J0.194
X-2.988 Y-27.989 Z-3.15 I0.194 J-0.194
X-3.376 Y-27.6 Z-3.3 I-0.194 J0.194
X-2.988 Y-27.989 I0.194 J-0.194
X-3.376 Y-27.6 I-0.194 J0.194
G1 X-3.402 Y-27.635
X-3.415 Y-27.676
Y-27.719
X-3.402 Y-27.76
X-3.376 Y-27.795
X-3.182
Z5
X0 Y-24.613
Z2
Z0 F400
X-0.813 Y-23.587
X-0.851 Y-23.56
X-0.896 Y-23.545
X-0.943
X-0.987 Y-23.56
X-1.025 Y-23.587
G3 X1.025 Y-25.638 Z-0.15 I1.025 J-1.025 F600
X-1.025 Y-23.587 Z-0.3 I-1.025 J1.025
X1.025 Y-25.638 Z-0.45 I1.025 J-1.025
X-1.025 Y-23.587 Z-0.6 I-1.025 J1.025
X1.025 Y-25.638 Z-0.75 I1.025 J-1.025
X-1.025 Y-23.587 Z-0.9 I-1.025 J1.025
X1.025 Y-25.638 Z-1.05 I1.025 J-1.025
X-1.025 Y-23.587 Z-1.2 I-1.025 J1.025
X1.025 Y-25.638 Z-1.35 I1.025 J-1.025
X-1.025 Y-23.587 Z-1.5 I-1.025 J1.025
X1.025 Y-25.638 Z-1.65 I1.025 J-1.025
X-1.025 Y-23.587 Z-1.8 I-1.025 J1.025
X1.025 Y-25.638 Z-1.95 I1.025 J-1.025
X-1.025 Y-23.587 Z-2.1 I-1.025 J1.025
X1.025 Y-25.638 Z-2.25 I1.025 J-1.025
X-1.025 Y-23.587 Z-2.4 I-1.025 J1.025
X1.025 Y-25.638 Z-2.55 I1.025 J-1.025
X-1.025 Y-23.587 Z-2.7 I-1.025 J1.025
X1.025 Y-25.638 Z-2.85 I1.025 J-1.025
X-1.025 Y-23.587 Z-3 I-1.025 J1.025
X1.025 Y-25.638 Z-3.15 I1.025 J-1.025
X-1.025 Y-23.587 Z-3.3 I-1.025 J1.025
X1.025 Y-25.638 I1.025 J-1.025
X-1.025 Y-23.587 I-1.025 J1.025
G1 X-1.053 Y-23.625
X-1.067 Y-23.67
Y-23.717
X-1.053 Y-23.762
X-1.025 Y-23.8
X0 Y-24.613
Z5
X-3.182 Y-21.431
Z2
Z0 F400
Y-21.236
X-3.217 Y-21.211
X-3.258 Y-21.198
X-3.301
X-3.342 Y-21.211
X-3.376 Y-21.236
G3 X-2.988 Y-21.625 Z-0.15 I0.194 J-0.194 F600
X-3.376 Y-21.236 Z-0.3 I-0.194 J0.194
X-2.988 Y-21.625 Z-0.45 I0.194 J-0.194
X-3.376 Y-21.236 Z-0.6 I-0.194 J0.194
X-2.988 Y-21.625 Z-0.75 I0.194 J-0.194
X-3.376 Y-21.236 Z-0.9 I-0.194 J0.194
X-2.988 Y-21.625 Z-1.05 I0.194 J-0.194
X-3.376 Y-21.236 Z-1.2 I-0.194 J0.194
X-2.988 Y-21.625 Z-1.35 I0.194 J-0.194
X-3.376 Y-21.236 Z-1.5 I-0.194 J0.194
X-2.988 Y-21.625 Z-1.65 I0.194 J-0.194
X-3.376 Y-21.236 Z-1.8 I-0.194 J0.194
X-2.988 Y-21.625 Z-1.95 I0.194 J-0.194
X-3.376 Y-21.236 Z-2.1 I-0.194 J0.194
X-2.988 Y-21.625 Z-2.25 I0.194 J-0.194
X-3.376 Y-21.236 Z-2.4 I-0.194 J0.194
X-2.988 Y-21.625 Z-2.55 I0.194 J-0.194
X-3.376 Y-21.236 Z-2.7 I-0.194 J0.194
X-2.988 Y-21.625 Z-2.85 I0.194 J-0.194
X-3.376 Y-21.236 Z-3 I-0.194 J0.194
X-2.988 Y-21.625 Z-3.15 I0.194 J-0.194
X-3.376 Y-21.236 Z-3.3 I-0.194 J0.194
X-2.988 Y-21.625 I0.194 J-0.194
X-3.376 Y-21.236 I-0.194 J0.194
G1 X-3.402 Y-21.271
X-3.415 Y-21.312
Y-21.355
X-3.402 Y-21.396
X-3.376 Y-21.431
X-3.182
Z5
X3.182
Z2
Z0 F400
Y-21.236
X3.147 Y-21.211
X3.106 Y-21.198
X3.063
X3.022 Y-21.211
X2.988 Y-21.236
G3 X3.376 Y-21.625 Z-0.15 I0.194 J-0.194 F600
X2.988 Y-21.236 Z-0.3 I-0.194 J0.194
X3.376 Y-21.625 Z-0.45 I0.194 J-0.194
X2.988 Y-21.236 Z-0.6 I-0.194 J0.194
X3.376 Y-21.625 Z-0.75 I0.194 J-0.194
X2.988 Y-21.236 Z-0.9 I-0.194 J0.194
X3.376 Y-21.625 Z-1.05 I0.194 J-0.194
X2.988 Y-21.236 Z-1.2 I-0.194 J0.194
X3.376 Y-21.625 Z-1.35 I0.194 J-0.194
X2.988 Y-21.236 Z-1.5 I-0.194 J0.194
X3.376 Y-21.625 Z-1.65 I0.194 J-0.194
X2.988 Y-21.236 Z-1.8 I-0.194 J0.194
X3.376 Y-21.625 Z-1.95 I0.194 J-0.194
X2.988 Y-21.236 Z-2.1 I-0.194 J0.194
X3.376 Y-21.625 Z-2.25 I0.194 J-0.194
X2.988 Y-21.236 Z-2.4 I-0.194 J0.194
X3.376 Y-21.625 Z-2.55 I0.194 J-0.194
X2.988 Y-21.236 Z-2.7 I-0.194 J0.194
X3.376 Y-21.625 Z-2.85 I0.194 J-0.194
X2.988 Y-21.236 Z-3 I-0.194 J0.194
X3.376 Y-21.625 Z-3.15 I0.194 J-0.194
X2.988 Y-21.236 Z-3.3 I-0.194 J0.194
X3.376 Y-21.625 I0.194 J-0.194
X2.988 Y-21.236 I-0.194 J0.194
G1 X2.962 Y-21.271
X2.949 Y-21.312
Y-21.355
X2.962 Y-21.396
X2.988 Y-21.431
X3.182
Z5
X0 Y13.527
Z2
Z0 F400
X-0.336 Y14.075
X-0.374 Y14.103
X-0.418 Y14.117
X-0.465
X-0.51 Y14.103
X-0.548 Y14.075
G3 X0.548 Y12.979 Z-0.15 I0.548 J-0.548 F600
X-0.548 Y14.075 Z-0.3 I-0.548 J0.548
X0.548 Y12.979 Z-0.45 I0.548 J-0.548
X-0.548 Y14.075 Z-0.6 I-0.548 J0.548
X0.548 Y12.979 Z-0.75 I0.548 J-0.548
X-0.548 Y14.075 Z-0.9 I-0.548 J0.548
X0.548 Y12.979 Z-1.05 I0.548 J-0.548
X-0.548 Y14.075 Z-1.2 I-0.548 J0.548
X0.548 Y12.979 Z-1.35 I0.548 J-0.548
X-0.548 Y14.075 Z-1.5 I-0.548 J0.548
X0.548 Y12.979 Z-1.65 I0.548 J-0.548
X-0.548 Y14.075 Z-1.8 I-0.548 J0.548
X0.548 Y12.979 Z-1.95 I0.548 J-0.548
X-0.548 Y14.075 Z-2.1 I-0.548 J0.548
X0.548 Y12.979 Z-2.25 I0.548 J-0.548
X-0.548 Y14.075 Z-2.4 I-0.548 J0.548
X0.548 Y12.979 Z-2.55 I0.548 J-0.548
X-0.548 Y14.075 Z-2.7 I-0.548 J0.548
X0.548 Y12.979 Z-2.85 I0.548 J-0.548
X-0.548 Y14.075 Z-3 I-0.548 J0.548
X0.548 Y12.979 Z-3.15 I0.548 J-0.548
X-0.548 Y14.075 Z-3.3 I-0.548 J0.548
X0.548 Y12.979 I0.548 J-0.548
X-0.548 Y14.075 I-0.548 J0.548
G1 X-0.576 Y14.037
X-0.59 Y13.992
Y13.945
X-0.576 Y13.901
X-0.548 Y13.863
X0 Y13.527
Z5
Y24.885
Z2
Z0 F400
Y25.079
X-0.035 Y25.105
X-0.076 Y25.118
X-0.119
X-0.16 Y25.105
X-0.194 Y25.079
G3 X0.194 Y24.69 Z-0.15 I0.194 J-0.194 F600
X-0.194 Y25.079 Z-0.3 I-0.194 J0.194
X0.194 Y24.69 Z-0.45 I0.194 J-0.194
X-0.194 Y25.079 Z-0.6 I-0.194 J0.194
X0.194 Y24.69 Z-0.75 I0.194 J-0.194
X-0.194 Y25.079 Z-0.9 I-0.194 J0.194
X0.194 Y24.69 Z-1.05 I0.194 J-0.194
X-0.194 Y25.079 Z-1.2 I-0.194 J0.194
X0.194 Y24.69 Z-1.35 I0.194 J-0.194
X-0.194 Y25.079 Z-1.5 I-0.194 J0.194
X0.194 Y24.69 Z-1.65 I0.194 J-0.194
X-0.194 Y25.079 Z-1.8 I-0.194 J0.194
X0.194 Y24.69 Z-1.95 I0.194 J-0.194
X-0.194 Y25.079 Z-2.1 I-0.194 J0.194
X0.194 Y24.69 Z-2.25 I0.194 J-0.194
X-0.194 Y25.079 Z-2.4 I-0.194 J0.194
X0.194 Y24.69 Z-2.55 I0.194 J-0.194
X-0.194 Y25.079 Z-2.7 I-0.194 J0.194
X0.194 Y24.69 Z-2.85 I0.194 J-0.194
X-0.194 Y25.079 Z-3 I-0.194 J0.194
X0.194 Y24.69 Z-3.15 I0.194 J-0.194
X-0.194 Y25.079 Z-3.3 I-0.194 J0.194
X0.194 Y24.69 I0.194 J-0.194
X-0.194 Y25.079 I-0.194 J0.194
G1 X-0.22 Y25.044
X-0.233 Y25.004
Y24.96
X-0.22 Y24.92
X-0.194 Y24.885
X0
Z15
(When using Fusion 360 for Personal Use, the feedrate of)
(rapid moves is reduced to match the feedrate of cutting)
(moves, which can increase machining time. Unrestricted rapid)
(moves are available with a Fusion 360 Subscription.)

(2D-Kontur7)
S6000 M3
G0 X0.85 Y-39.22
G1 Z15 F600
Z5
Z1.3 F300
Z0.5
X0.832 Y-39.225 Z0.499 F1016
X0.624 Y-39.285 Z0.492
X0.544 Y-39.304 Z0.489
X0.336 Y-39.34 Z0.482
X0.252 Y-39.349 Z0.479
X0.044 Y-39.361 Z0.471
X-0.044 Z0.468
X-0.252 Y-39.349 Z0.461
X-0.336 Y-39.34 Z0.458
X-0.544 Y-39.304 Z0.451
X-0.624 Y-39.285 Z0.448
X-0.832 Y-39.225 Z0.44
X-0.905 Y-39.2 Z0.438
X-1.112 Y-39.116 Z0.43
X-1.176 Y-39.087 Z0.427
X-1.382 Y-38.98 Z0.419
X-1.437 Y-38.948 Z0.417
X-1.642 Y-38.819 Z0.408
X-1.69 Y-38.786 Z0.406
X-1.894 Y-38.634 Z0.398
X-1.934 Y-38.602 Z0.396
X-2.136 Y-38.429 Z0.386
X-2.17 Y-38.398 Z0.385
X-2.37 Y-38.204 Z0.375
X-2.399 Y-38.175 Z0.374
X-2.598 Y-37.961 Z0.364
X-2.622 Y-37.934 Z0.362
X-2.818 Y-37.7 Z0.352
X-2.838 Y-37.675 Z0.35
X-3.032 Y-37.423 Z0.339
X-3.05 Y-37.4 Z0.338
X-3.241 Y-37.131 Z0.327
X-3.256 Y-37.109 Z0.326
X-3.444 Y-36.823 Z0.314
X-3.457 Y-36.803 Z0.313
X-3.642 Y-36.502 Z0.301
X-3.653 Y-36.484 Z0.3
X-3.835 Y-36.169 Z0.287
X-3.849 Y-36.143 Z0.286
X-4.2 Y-35.474 Z0.26
X-4.215 Y-35.444 Z0.259
X-4.549 Y-34.731 Z0.231
X-4.562 Y-34.704 Z0.23
X-4.876 Y-33.957 Z0.202
X-4.886 Y-33.931 Z0.201
X-5.179 Y-33.159 Z0.172
X-5.187 Y-33.135 Z0.171
X-5.457 Y-32.346 Z0.142
X-5.464 Y-32.323 Z0.141
X-5.71 Y-31.525 Z0.112
X-5.716 Y-31.503 Z0.111
X-5.935 Y-30.704 Z0.082
X-5.941 Y-30.682
X-6.134 Y-29.889 Z0.053
X-6.139 Y-29.867 Z0.052
X-6.304 Y-29.086 Z0.024
X-6.308 Y-29.063
X-6.445 Y-28.299 Z-0.004
X-6.449 Y-28.275
X-6.559 Y-27.531 Z-0.031
X-6.562 Y-27.507
X-6.645 Y-26.785 Z-0.057
X-6.647 Y-26.76 Z-0.058
X-6.704 Y-26.06 Z-0.082
X-6.705 Y-26.035 Z-0.083
X-6.738 Y-25.353 Z-0.107
X-6.739 Y-25.33 Z-0.108
X-6.75 Y-24.661 Z-0.131
Y-24.64 Z-0.132
X-6.742 Y-23.98 Z-0.155
X-6.741 Y-23.961 Z-0.156
X-6.717 Y-23.303 Z-0.179
Y-23.288
X-6.679 Y-22.625 Z-0.202
X-6.678 Y-22.608 Z-0.203
X-6.57 Y-21.256 Z-0.25
X-6.569 Y-21.241 Z-0.251
X-6.431 Y-19.844 Z-0.3
X-6.43 Y-19.838
Y-19.834 F600
X-6.269 Y-18.398
X-6.268 Y-18.391
X-6.091 Y-16.934
X-6.09 Y-16.927
X-5.9 Y-15.473
X-5.899 Y-15.465
X-5.698 Y-14.042
X-5.696 Y-14.032
X-5.485 Y-12.665
X-5.483 Y-12.655
X-5.264 Y-11.358
X-5.262 Y-11.349
X-5.039 Y-10.119
X-5.038 Y-10.117
X-4.819 Y-8.932
X-4.615 Y-7.753
X-4.522 Y-7.153
X-4.437 Y-6.531
X-4.36 Y-5.884
X-4.293 Y-5.205
X-4.236 Y-4.49
X-4.19 Y-3.739
X-4.154 Y-2.952
X-4.128 Y-2.129
X-4.113 Y-1.273
X-4.107 Y-0.389
X-4.123 Y1.461
X-4.171 Y3.386
X-4.243 Y5.353
X-4.333 Y7.325
X-4.43 Y9.263
X-4.528 Y11.136
Y11.138
X-4.617 Y12.92
Y12.925
X-4.691 Y14.608
Y14.615
X-4.745 Y16.208
X-4.746 Y16.218
X-4.777 Y17.741
Y17.752
X-4.784 Y19.23
Y19.242
X-4.768 Y20.702
X-4.767 Y20.712
X-4.731 Y22.172
Y22.181
X-4.678 Y23.651
X-4.677 Y23.657
X-4.612 Y25.14
Y25.143
X-4.54 Y26.639
X-4.466 Y28.142
X-4.397 Y29.646
X-4.336 Y31.143
X-4.29 Y32.626
X-4.26 Y34.089
X-4.25 Y35.532
G2 X-4.03 Y36.057 I0.75 J-0.005
G1 X-1.237 Y38.85
G2 X1.237 Y38.85 I1.237 J-1.237
G1 X4.03 Y36.057
G2 X4.25 Y35.532 I-0.53 J-0.53
G1 X4.26 Y34.089
X4.29 Y32.626
X4.336 Y31.143
X4.397 Y29.646
X4.466 Y28.142
X4.54 Y26.639
X4.612 Y25.143
Y25.14
X4.677 Y23.657
X4.678 Y23.651
X4.731 Y22.181
Y22.172
X4.767 Y20.712
X4.768 Y20.702
X4.784 Y19.242
Y19.23
X4.777 Y17.752
Y17.741
X4.746 Y16.218
X4.745 Y16.208
X4.691 Y14.615
Y14.608
X4.617 Y12.925
Y12.92
X4.528 Y11.138
Y11.136
X4.43 Y9.263
X4.333 Y7.325
X4.243 Y5.353
X4.171 Y3.386
X4.123 Y1.461
X4.107 Y-0.389
X4.113 Y-1.273
X4.128 Y-2.129
X4.154 Y-2.952
X4.19 Y-3.739
X4.236 Y-4.49
X4.293 Y-5.205
X4.36 Y-5.884
X4.437 Y-6.531
X4.522 Y-7.153
X4.615 Y-7.753
X4.819 Y-8.932
X5.038 Y-10.117
X5.039 Y-10.119
X5.262 Y-11.349
X5.264 Y-11.358
X5.483 Y-12.655
X5.485 Y-12.665
X5.696 Y-14.032
X5.698 Y-14.042
X5.899 Y-15.465
X5.9 Y-15.473
X6.09 Y-16.927
X6.091 Y-16.934
X6.268 Y-18.391
X6.269 Y-18.398
X6.43 Y-19.834
X6.431 Y-19.844
X6.569 Y-21.241
X6.57 Y-21.256
X6.678 Y-22.608
X6.679 Y-22.625
X6.717 Y-23.288
Y-23.303
X6.741 Y-23.961
X6.742 Y-23.98
X6.75 Y-24.64
Y-24.661
X6.739 Y-25.33
X6.738 Y-25.353
X6.705 Y-26.035
X6.704 Y-26.06
X6.647 Y-26.76
X6.645 Y-26.785
X6.562 Y-27.507
X6.559 Y-27.531
X6.449 Y-28.275
X6.445 Y-28.299
X6.308 Y-29.063
X6.304 Y-29.086
X6.139 Y-29.867
X6.134 Y-29.889
X5.941 Y-30.682
X5.935 Y-30.704
X5.716 Y-31.503
X5.71 Y-31.525
X5.464 Y-32.323
X5.457 Y-32.346
X5.187 Y-33.135
X5.179 Y-33.159
X4.886 Y-33.931
X4.876 Y-33.957
X4.562 Y-34.704
X4.549 Y-34.731
X4.215 Y-35.444
X4.2 Y-35.474
X3.849 Y-36.143
X3.835 Y-36.169
X3.653 Y-36.484
X3.642 Y-36.502
X3.457 Y-36.803
X3.444 Y-36.823
X3.256 Y-37.109
X3.241 Y-37.131
X3.05 Y-37.4
X3.032 Y-37.423
X2.838 Y-37.675
X2.818 Y-37.7
X2.622 Y-37.934
X2.598 Y-37.961
X2.399 Y-38.175
X2.37 Y-38.204
X2.17 Y-38.398
X2.136 Y-38.429
X1.934 Y-38.602
X1.894 Y-38.634
X1.69 Y-38.786
X1.642 Y-38.819
X1.437 Y-38.948
X1.382 Y-38.98
X1.176 Y-39.087
X1.112 Y-39.116
X0.905 Y-39.2
X0.832 Y-39.225
X0.624 Y-39.285
X0.544 Y-39.304
X0.336 Y-39.34
X0.252 Y-39.349
X0.044 Y-39.361
X-0.044
X-0.252 Y-39.349
X-0.336 Y-39.34
X-0.544 Y-39.304
X-0.624 Y-39.285
X-0.832 Y-39.225
X-0.905 Y-39.2
X-1.112 Y-39.116
X-1.176 Y-39.087
X-1.382 Y-38.98
X-1.437 Y-38.948
X-1.642 Y-38.819
X-1.69 Y-38.786
X-1.894 Y-38.634
X-1.934 Y-38.602
X-2.136 Y-38.429
X-2.17 Y-38.398
X-2.37 Y-38.204
X-2.399 Y-38.175
X-2.598 Y-37.961
X-2.622 Y-37.934
X-2.818 Y-37.7
X-2.838 Y-37.675
X-3.032 Y-37.423
X-3.05 Y-37.4
X-3.241 Y-37.131
X-3.256 Y-37.109
X-3.444 Y-36.823
X-3.457 Y-36.803
X-3.642 Y-36.502
X-3.653 Y-36.484
X-3.835 Y-36.169
X-3.849 Y-36.143
X-4.2 Y-35.474
X-4.215 Y-35.444
X-4.549 Y-34.731
X-4.562 Y-34.704
X-4.876 Y-33.957
X-4.886 Y-33.931
X-5.179 Y-33.159
X-5.187 Y-33.135
X-5.457 Y-32.346
X-5.464 Y-32.323
X-5.71 Y-31.525
X-5.716 Y-31.503
X-5.935 Y-30.704
X-5.941 Y-30.682
X-6.134 Y-29.889
X-6.139 Y-29.867
X-6.304 Y-29.086
X-6.308 Y-29.063
X-6.445 Y-28.299
X-6.449 Y-28.275
X-6.559 Y-27.531
X-6.562 Y-27.507
X-6.645 Y-26.785
X-6.647 Y-26.76
X-6.704 Y-26.06
X-6.705 Y-26.035
X-6.738 Y-25.353
X-6.739 Y-25.33
X-6.75 Y-24.661
Y-24.64
X-6.742 Y-23.98
X-6.741 Y-23.961
X-6.717 Y-23.303
Y-23.288
X-6.679 Y-22.625
X-6.678 Y-22.608
X-6.57 Y-21.256
X-6.569 Y-21.241
X-6.431 Y-19.844
X-6.43 Y-19.838
Y-19.834 F1016
X-6.269 Y-18.398 Z-0.351
X-6.268 Y-18.391
X-6.091 Y-16.934 Z-0.402
X-6.09 Y-16.927
X-5.9 Y-15.473 Z-0.454
X-5.899 Y-15.465
X-5.698 Y-14.042 Z-0.504
X-5.696 Y-14.032
X-5.485 Y-12.665 Z-0.553
X-5.483 Y-12.655
X-5.264 Y-11.358 Z-0.599
X-5.262 Y-11.349
X-5.258 Y-11.329 Z-0.6
X-5.039 Y-10.119 F600
X-5.038 Y-10.117
X-4.819 Y-8.932
X-4.615 Y-7.753
X-4.522 Y-7.153
X-4.437 Y-6.531
X-4.36 Y-5.884
X-4.293 Y-5.205
X-4.236 Y-4.49
X-4.19 Y-3.739
X-4.154 Y-2.952
X-4.128 Y-2.129
X-4.113 Y-1.273
X-4.107 Y-0.389
X-4.123 Y1.461
X-4.171 Y3.386
X-4.243 Y5.353
X-4.333 Y7.325
X-4.43 Y9.263
X-4.528 Y11.136
Y11.138
X-4.617 Y12.92
Y12.925
X-4.691 Y14.608
Y14.615
X-4.745 Y16.208
X-4.746 Y16.218
X-4.777 Y17.741
Y17.752
X-4.784 Y19.23
Y19.242
X-4.768 Y20.702
X-4.767 Y20.712
X-4.731 Y22.172
Y22.181
X-4.678 Y23.651
X-4.677 Y23.657
X-4.612 Y25.14
Y25.143
X-4.54 Y26.639
X-4.466 Y28.142
X-4.397 Y29.646
X-4.336 Y31.143
X-4.29 Y32.626
X-4.26 Y34.089
X-4.25 Y35.532
G2 X-4.03 Y36.057 I0.75 J-0.005
G1 X-1.237 Y38.85
G2 X1.237 Y38.85 I1.237 J-1.237
G1 X4.03 Y36.057
G2 X4.25 Y35.532 I-0.53 J-0.53
G1 X4.26 Y34.089
X4.29 Y32.626
X4.336 Y31.143
X4.397 Y29.646
X4.466 Y28.142
X4.54 Y26.639
X4.612 Y25.143
Y25.14
X4.677 Y23.657
X4.678 Y23.651
X4.731 Y22.181
Y22.172
X4.767 Y20.712
X4.768 Y20.702
X4.784 Y19.242
Y19.23
X4.777 Y17.752
Y17.741
X4.746 Y16.218
X4.745 Y16.208
X4.691 Y14.615
Y14.608
X4.617 Y12.925
Y12.92
X4.528 Y11.138
Y11.136
X4.43 Y9.263
X4.333 Y7.325
X4.243 Y5.353
X4.171 Y3.386
X4.123 Y1.461
X4.107 Y-0.389
X4.113 Y-1.273
X4.128 Y-2.129
X4.154 Y-2.952
X4.19 Y-3.739
X4.236 Y-4.49
X4.293 Y-5.205
X4.36 Y-5.884
X4.437 Y-6.531
X4.522 Y-7.153
X4.615 Y-7.753
X4.819 Y-8.932
X5.038 Y-10.117
X5.039 Y-10.119
X5.262 Y-11.349
X5.264 Y-11.358
X5.483 Y-12.655
X5.485 Y-12.665
X5.696 Y-14.032
X5.698 Y-14.042
X5.899 Y-15.465
X5.9 Y-15.473
X6.09 Y-16.927
X6.091 Y-16.934
X6.268 Y-18.391
X6.269 Y-18.398
X6.43 Y-19.834
X6.431 Y-19.844
X6.569 Y-21.241
X6.57 Y-21.256
X6.678 Y-22.608
X6.679 Y-22.625
X6.717 Y-23.288
Y-23.303
X6.741 Y-23.961
X6.742 Y-23.98
X6.75 Y-24.64
Y-24.661
X6.739 Y-25.33
X6.738 Y-25.353
X6.705 Y-26.035
X6.704 Y-26.06
X6.647 Y-26.76
X6.645 Y-26.785
X6.562 Y-27.507
X6.559 Y-27.531
X6.449 Y-28.275
X6.445 Y-28.299
X6.308 Y-29.063
X6.304 Y-29.086
X6.139 Y-29.867
X6.134 Y-29.889
X5.941 Y-30.682
X5.935 Y-30.704
X5.716 Y-31.503
X5.71 Y-31.525
X5.464 Y-32.323
X5.457 Y-32.346
X5.187 Y-33.135
X5.179 Y-33.159
X4.886 Y-33.931
X4.876 Y-33.957
X4.562 Y-34.704
X4.549 Y-34.731
X4.215 Y-35.444
X4.2 Y-35.474
X3.849 Y-36.143
X3.835 Y-36.169
X3.653 Y-36.484
X3.642 Y-36.502
X3.457 Y-36.803
X3.444 Y-36.823
X3.256 Y-37.109
X3.241 Y-37.131
X3.05 Y-37.4
X3.032 Y-37.423
X2.838 Y-37.675
X2.818 Y-37.7
X2.622 Y-37.934
X2.598 Y-37.961
X2.399 Y-38.175
X2.37 Y-38.204
X2.17 Y-38.398
X2.136 Y-38.429
X1.934 Y-38.602
X1.894 Y-38.634
X1.69 Y-38.786
X1.642 Y-38.819
X1.437 Y-38.948
X1.382 Y-38.98
X1.176 Y-39.087
X1.112 Y-39.116
X0.905 Y-39.2
X0.832 Y-39.225
X0.624 Y-39.285
X0.544 Y-39.304
X0.336 Y-39.34
X0.252 Y-39.349
X0.044 Y-39.361
X-0.044
X-0.252 Y-39.349
X-0.336 Y-39.34
X-0.544 Y-39.304
X-0.624 Y-39.285
X-0.832 Y-39.225
X-0.905 Y-39.2
X-1.112 Y-39.116
X-1.176 Y-39.087
X-1.382 Y-38.98
X-1.437 Y-38.948
X-1.642 Y-38.819
X-1.69 Y-38.786
X-1.894 Y-38.634
X-1.934 Y-38.602
X-2.136 Y-38.429
X-2.17 Y-38.398
X-2.37 Y-38.204
X-2.399 Y-38.175
X-2.598 Y-37.961
X-2.622 Y-37.934
X-2.818 Y-37.7
X-2.838 Y-37.675
X-3.032 Y-37.423
X-3.05 Y-37.4
X-3.241 Y-37.131
X-3.256 Y-37.109
X-3.444 Y-36.823
X-3.457 Y-36.803
X-3.642 Y-36.502
X-3.653 Y-36.484
X-3.835 Y-36.169
X-3.849 Y-36.143
X-4.2 Y-35.474
X-4.215 Y-35.444
X-4.549 Y-34.731
X-4.562 Y-34.704
X-4.876 Y-33.957
X-4.886 Y-33.931
X-5.179 Y-33.159
X-5.187 Y-33.135
X-5.457 Y-32.346
X-5.464 Y-32.323
X-5.71 Y-31.525
X-5.716 Y-31.503
X-5.935 Y-30.704
X-5.941 Y-30.682
X-6.134 Y-29.889
X-6.139 Y-29.867
X-6.304 Y-29.086
X-6.308 Y-29.063
X-6.445 Y-28.299
X-6.449 Y-28.275
X-6.559 Y-27.531
X-6.562 Y-27.507
X-6.645 Y-26.785
X-6.647 Y-26.76
X-6.704 Y-26.06
X-6.705 Y-26.035
X-6.738 Y-25.353
X-6.739 Y-25.33
X-6.75 Y-24.661
Y-24.64
X-6.742 Y-23.98
X-6.741 Y-23.961
X-6.717 Y-23.303
Y-23.288
X-6.679 Y-22.625
X-6.678 Y-22.608
X-6.57 Y-21.256
X-6.569 Y-21.241
X-6.431 Y-19.844
X-6.43 Y-19.834
X-6.269 Y-18.398
X-6.268 Y-18.391
X-6.091 Y-16.934
X-6.09 Y-16.927
X-5.9 Y-15.473
X-5.899 Y-15.465
X-5.698 Y-14.042
X-5.696 Y-14.032
X-5.485 Y-12.665
X-5.483 Y-12.655
X-5.264 Y-11.358
X-5.262 Y-11.349
X-5.258 Y-11.329
X-5.039 Y-10.119 Z-0.643 F1016
X-5.038 Y-10.117
X-4.819 Y-8.932 Z-0.685
X-4.615 Y-7.753 Z-0.727
X-4.522 Y-7.153 Z-0.748
X-4.437 Y-6.531 Z-0.77
X-4.36 Y-5.884 Z-0.793
X-4.293 Y-5.205 Z-0.817
X-4.236 Y-4.49 Z-0.842
X-4.19 Y-3.739 Z-0.868
X-4.154 Y-2.952 Z-0.895
X-4.15 Y-2.821 Z-0.9
X-4.128 Y-2.129 F600
X-4.113 Y-1.273
X-4.107 Y-0.389
X-4.123 Y1.461
X-4.171 Y3.386
X-4.243 Y5.353
X-4.333 Y7.325
X-4.43 Y9.263
X-4.528 Y11.136
Y11.138
X-4.617 Y12.92
Y12.925
X-4.691 Y14.608
Y14.615
X-4.745 Y16.208
X-4.746 Y16.218
X-4.777 Y17.741
Y17.752
X-4.784 Y19.23
Y19.242
X-4.768 Y20.702
X-4.767 Y20.712
X-4.731 Y22.172
Y22.181
X-4.678 Y23.651
X-4.677 Y23.657
X-4.612 Y25.14
Y25.143
X-4.54 Y26.639
X-4.466 Y28.142
X-4.397 Y29.646
X-4.336 Y31.143
X-4.29 Y32.626
X-4.26 Y34.089
X-4.25 Y35.532
G2 X-4.03 Y36.057 I0.75 J-0.005
G1 X-1.237 Y38.85
G2 X1.237 Y38.85 I1.237 J-1.237
G1 X4.03 Y36.057
G2 X4.25 Y35.532 I-0.53 J-0.53
G1 X4.26 Y34.089
X4.29 Y32.626
X4.336 Y31.143
X4.397 Y29.646
X4.466 Y28.142
X4.54 Y26.639
X4.612 Y25.143
Y25.14
X4.677 Y23.657
X4.678 Y23.651
X4.731 Y22.181
Y22.172
X4.767 Y20.712
X4.768 Y20.702
X4.784 Y19.242
Y19.23
X4.777 Y17.752
Y17.741
X4.746 Y16.218
X4.745 Y16.208
X4.691 Y14.615
Y14.608
X4.617 Y12.925
Y12.92
X4.528 Y11.138
Y11.136
X4.43 Y9.263
X4.333 Y7.325
X4.243 Y5.353
X4.171 Y3.386
X4.123 Y1.461
X4.107 Y-0.389
X4.113 Y-1.273
X4.128 Y-2.129
X4.154 Y-2.952
X4.19 Y-3.739
X4.236 Y-4.49
X4.293 Y-5.205
X4.36 Y-5.884
X4.437 Y-6.531
X4.522 Y-7.153
X4.615 Y-7.753
X4.819 Y-8.932
X5.038 Y-10.117
X5.039 Y-10.119
X5.262 Y-11.349
X5.264 Y-11.358
X5.483 Y-12.655
X5.485 Y-12.665
X5.696 Y-14.032
X5.698 Y-14.042
X5.899 Y-15.465
X5.9 Y-15.473
X6.09 Y-16.927
X6.091 Y-16.934
X6.268 Y-18.391
X6.269 Y-18.398
X6.43 Y-19.834
X6.431 Y-19.844
X6.569 Y-21.241
X6.57 Y-21.256
X6.678 Y-22.608
X6.679 Y-22.625
X6.717 Y-23.288
Y-23.303
X6.741 Y-23.961
X6.742 Y-23.98
X6.75 Y-24.64
Y-24.661
X6.739 Y-25.33
X6.738 Y-25.353
X6.705 Y-26.035
X6.704 Y-26.06
X6.647 Y-26.76
X6.645 Y-26.785
X6.562 Y-27.507
X6.559 Y-27.531
X6.449 Y-28.275
X6.445 Y-28.299
X6.308 Y-29.063
X6.304 Y-29.086
X6.139 Y-29.867
X6.134 Y-29.889
X5.941 Y-30.682
X5.935 Y-30.704
X5.716 Y-31.503
X5.71 Y-31.525
X5.464 Y-32.323
X5.457 Y-32.346
X5.187 Y-33.135
X5.179 Y-33.159
X4.886 Y-33.931
X4.876 Y-33.957
X4.562 Y-34.704
X4.549 Y-34.731
X4.215 Y-35.444
X4.2 Y-35.474
X3.849 Y-36.143
X3.835 Y-36.169
X3.653 Y-36.484
X3.642 Y-36.502
X3.457 Y-36.803
X3.444 Y-36.823
X3.256 Y-37.109
X3.241 Y-37.131
X3.05 Y-37.4
X3.032 Y-37.423
X2.838 Y-37.675
X2.818 Y-37.7
X2.622 Y-37.934
X2.598 Y-37.961
X2.399 Y-38.175
X2.37 Y-38.204
X2.17 Y-38.398
X2.136 Y-38.429
X1.934 Y-38.602
X1.894 Y-38.634
X1.69 Y-38.786
X1.642 Y-38.819
X1.437 Y-38.948
X1.382 Y-38.98
X1.176 Y-39.087
X1.112 Y-39.116
X0.905 Y-39.2
X0.832 Y-39.225
X0.624 Y-39.285
X0.544 Y-39.304
X0.336 Y-39.34
X0.252 Y-39.349
X0.044 Y-39.361
X-0.044
X-0.252 Y-39.349
X-0.336 Y-39.34
X-0.544 Y-39.304
X-0.624 Y-39.285
X-0.832 Y-39.225
X-0.905 Y-39.2
X-1.112 Y-39.116
X-1.176 Y-39.087
X-1.382 Y-38.98
X-1.437 Y-38.948
X-1.642 Y-38.819
X-1.69 Y-38.786
X-1.894 Y-38.634
X-1.934 Y-38.602
X-2.136 Y-38.429
X-2.17 Y-38.398
X-2.37 Y-38.204
X-2.399 Y-38.175
X-2.598 Y-37.961
X-2.622 Y-37.934
X-2.818 Y-37.7
X-2.838 Y-37.675
X-3.032 Y-37.423
X-3.05 Y-37.4
X-3.241 Y-37.131
X-3.256 Y-37.109
X-3.444 Y-36.823
X-3.457 Y-36.803
X-3.642 Y-36.502
X-3.653 Y-36.484
X-3.835 Y-36.169
X-3.849 Y-36.143
X-4.2 Y-35.474
X-4.215 Y-35.444
X-4.549 Y-34.731
X-4.562 Y-34.704
X-4.876 Y-33.957
X-4.886 Y-33.931
X-5.179 Y-33.159
X-5.187 Y-33.135
X-5.457 Y-32.346
X-5.464 Y-32.323
X-5.71 Y-31.525
X-5.716 Y-31.503
X-5.935 Y-30.704
X-5.941 Y-30.682
X-6.134 Y-29.889
X-6.139 Y-29.867
X-6.304 Y-29.086
X-6.308 Y-29.063
X-6.445 Y-28.299
X-6.449 Y-28.275
X-6.559 Y-27.531
X-6.562 Y-27.507
X-6.645 Y-26.785
X-6.647 Y-26.76
X-6.704 Y-26.06
X-6.705 Y-26.035
X-6.738 Y-25.353
X-6.739 Y-25.33
X-6.75 Y-24.661
Y-24.64
X-6.742 Y-23.98
X-6.741 Y-23.961
X-6.717 Y-23.303
Y-23.288
X-6.679 Y-22.625
X-6.678 Y-22.608
X-6.57 Y-21.256
X-6.569 Y-21.241
X-6.431 Y-19.844
X-6.43 Y-19.834
X-6.269 Y-18.398
X-6.268 Y-18.391
X-6.091 Y-16.934
X-6.09 Y-16.927
X-5.9 Y-15.473
X-5.899 Y-15.465
X-5.698 Y-14.042
X-5.696 Y-14.032
X-5.485 Y-12.665
X-5.483 Y-12.655
X-5.264 Y-11.358
X-5.262 Y-11.349
X-5.039 Y-10.119
X-5.038 Y-10.117
X-4.819 Y-8.932
X-4.615 Y-7.753
X-4.522 Y-7.153
X-4.437 Y-6.531
X-4.36 Y-5.884
X-4.293 Y-5.205
X-4.236 Y-4.49
X-4.19 Y-3.739
X-4.154 Y-2.952
X-4.15 Y-2.821
X-4.128 Y-2.129 Z-0.924 F1016
X-4.113 Y-1.273 Z-0.954
X-4.107 Y-0.389 Z-0.985
X-4.123 Y1.461 Z-1.05
X-4.171 Y3.386 Z-1.117
X-4.243 Y5.353 Z-1.186
X-4.262 Y5.767 Z-1.2
X-4.333 Y7.325 F600
X-4.43 Y9.263
X-4.528 Y11.136
Y11.138
X-4.617 Y12.92
Y12.925
X-4.691 Y14.608
Y14.615
X-4.745 Y16.208
X-4.746 Y16.218
X-4.777 Y17.741
Y17.752
X-4.784 Y19.23
Y19.242
X-4.768 Y20.702
X-4.767 Y20.712
X-4.731 Y22.172
Y22.181
X-4.678 Y23.651
X-4.677 Y23.657
X-4.612 Y25.14
Y25.143
X-4.54 Y26.639
X-4.466 Y28.142
X-4.397 Y29.646
X-4.336 Y31.143
X-4.29 Y32.626
X-4.26 Y34.089
X-4.25 Y35.532
G2 X-4.03 Y36.057 I0.75 J-0.005
G1 X-1.237 Y38.85
G2 X1.237 Y38.85 I1.237 J-1.237
G1 X4.03 Y36.057
G2 X4.25 Y35.532 I-0.53 J-0.53
G1 X4.26 Y34.089
X4.29 Y32.626
X4.336 Y31.143
X4.397 Y29.646
X4.466 Y28.142
X4.54 Y26.639
X4.612 Y25.143
Y25.14
X4.677 Y23.657
X4.678 Y23.651
X4.731 Y22.181
Y22.172
X4.767 Y20.712
X4.768 Y20.702
X4.784 Y19.242
Y19.23
X4.777 Y17.752
Y17.741
X4.746 Y16.218
X4.745 Y16.208
X4.691 Y14.615
Y14.608
X4.617 Y12.925
Y12.92
X4.528 Y11.138
Y11.136
X4.43 Y9.263
X4.333 Y7.325
X4.243 Y5.353
X4.171 Y3.386
X4.123 Y1.461
X4.107 Y-0.389
X4.113 Y-1.273
X4.128 Y-2.129
X4.154 Y-2.952
X4.19 Y-3.739
X4.236 Y-4.49
X4.293 Y-5.205
X4.36 Y-5.884
X4.437 Y-6.531
X4.522 Y-7.153
X4.615 Y-7.753
X4.819 Y-8.932
X5.038 Y-10.117
X5.039 Y-10.119
X5.262 Y-11.349
X5.264 Y-11.358
X5.483 Y-12.655
X5.485 Y-12.665
X5.696 Y-14.032
X5.698 Y-14.042
X5.899 Y-15.465
X5.9 Y-15.473
X6.09 Y-16.927
X6.091 Y-16.934
X6.268 Y-18.391
X6.269 Y-18.398
X6.43 Y-19.834
X6.431 Y-19.844
X6.569 Y-21.241
X6.57 Y-21.256
X6.678 Y-22.608
X6.679 Y-22.625
X6.717 Y-23.288
Y-23.303
X6.741 Y-23.961
X6.742 Y-23.98
X6.75 Y-24.64
Y-24.661
X6.739 Y-25.33
X6.738 Y-25.353
X6.705 Y-26.035
X6.704 Y-26.06
X6.647 Y-26.76
X6.645 Y-26.785
X6.562 Y-27.507
X6.559 Y-27.531
X6.449 Y-28.275
X6.445 Y-28.299
X6.308 Y-29.063
X6.304 Y-29.086
X6.139 Y-29.867
X6.134 Y-29.889
X5.941 Y-30.682
X5.935 Y-30.704
X5.716 Y-31.503
X5.71 Y-31.525
X5.464 Y-32.323
X5.457 Y-32.346
X5.187 Y-33.135
X5.179 Y-33.159
X4.886 Y-33.931
X4.876 Y-33.957
X4.562 Y-34.704
X4.549 Y-34.731
X4.215 Y-35.444
X4.2 Y-35.474
X3.849 Y-36.143
X3.835 Y-36.169
X3.653 Y-36.484
X3.642 Y-36.502
X3.457 Y-36.803
X3.444 Y-36.823
X3.256 Y-37.109
X3.241 Y-37.131
X3.05 Y-37.4
X3.032 Y-37.423
X2.838 Y-37.675
X2.818 Y-37.7
X2.622 Y-37.934
X2.598 Y-37.961
X2.399 Y-38.175
X2.37 Y-38.204
X2.17 Y-38.398
X2.136 Y-38.429
X1.934 Y-38.602
X1.894 Y-38.634
X1.69 Y-38.786
X1.642 Y-38.819
X1.437 Y-38.948
X1.382 Y-38.98
X1.176 Y-39.087
X1.112 Y-39.116
X0.905 Y-39.2
X0.832 Y-39.225
X0.624 Y-39.285
X0.544 Y-39.304
X0.336 Y-39.34
X0.252 Y-39.349
X0.044 Y-39.361
X-0.044
X-0.252 Y-39.349
X-0.336 Y-39.34
X-0.544 Y-39.304
X-0.624 Y-39.285
X-0.832 Y-39.225
X-0.905 Y-39.2
X-1.112 Y-39.116
X-1.176 Y-39.087
X-1.382 Y-38.98
X-1.437 Y-38.948
X-1.642 Y-38.819
X-1.69 Y-38.786
X-1.894 Y-38.634
X-1.934 Y-38.602
X-2.136 Y-38.429
X-2.17 Y-38.398
X-2.37 Y-38.204
X-2.399 Y-38.175
X-2.598 Y-37.961
X-2.622 Y-37.934
X-2.818 Y-37.7
X-2.838 Y-37.675
X-3.032 Y-37.423
X-3.05 Y-37.4
X-3.241 Y-37.131
X-3.256 Y-37.109
X-3.444 Y-36.823
X-3.457 Y-36.803
X-3.642 Y-36.502
X-3.653 Y-36.484
X-3.835 Y-36.169
X-3.849 Y-36.143
X-4.2 Y-35.474
X-4.215 Y-35.444
X-4.549 Y-34.731
X-4.562 Y-34.704
X-4.876 Y-33.957
X-4.886 Y-33.931
X-5.179 Y-33.159
X-5.187 Y-33.135
X-5.457 Y-32.346
X-5.464 Y-32.323
X-5.71 Y-31.525
X-5.716 Y-31.503
X-5.935 Y-30.704
X-5.941 Y-30.682
X-6.134 Y-29.889
X-6.139 Y-29.867
X-6.304 Y-29.086
X-6.308 Y-29.063
X-6.445 Y-28.299
X-6.449 Y-28.275
X-6.559 Y-27.531
X-6.562 Y-27.507
X-6.645 Y-26.785
X-6.647 Y-26.76
X-6.704 Y-26.06
X-6.705 Y-26.035
X-6.738 Y-25.353
X-6.739 Y-25.33
X-6.75 Y-24.661
Y-24.64
X-6.742 Y-23.98
X-6.741 Y-23.961
X-6.717 Y-23.303
Y-23.288
X-6.679 Y-22.625
X-6.678 Y-22.608
X-6.57 Y-21.256
X-6.569 Y-21.241
X-6.431 Y-19.844
X-6.43 Y-19.834
X-6.269 Y-18.398
X-6.268 Y-18.391
X-6.091 Y-16.934
X-6.09 Y-16.927
X-5.9 Y-15.473
X-5.899 Y-15.465
X-5.698 Y-14.042
X-5.696 Y-14.032
X-5.485 Y-12.665
X-5.483 Y-12.655
X-5.264 Y-11.358
X-5.262 Y-11.349
X-5.039 Y-10.119
X-5.038 Y-10.117
X-4.819 Y-8.932
X-4.615 Y-7.753
X-4.522 Y-7.153
X-4.437 Y-6.531
X-4.36 Y-5.884
X-4.293 Y-5.205
X-4.236 Y-4.49
X-4.19 Y-3.739
X-4.154 Y-2.952
X-4.128 Y-2.129
X-4.113 Y-1.273
X-4.107 Y-0.389
X-4.123 Y1.461
X-4.171 Y3.386
X-4.243 Y5.353
X-4.262 Y5.767
X-4.333 Y7.325 Z-1.254 F1016
X-4.43 Y9.263 Z-1.322
X-4.528 Y11.136 Z-1.388
Y11.138
X-4.617 Y12.92 Z-1.45
Y12.925
X-4.68 Y14.347 Z-1.5
X-4.691 Y14.608 F600
Y14.615
X-4.745 Y16.208
X-4.746 Y16.218
X-4.777 Y17.741
Y17.752
X-4.784 Y19.23
Y19.242
X-4.768 Y20.702
X-4.767 Y20.712
X-4.731 Y22.172
Y22.181
X-4.678 Y23.651
X-4.677 Y23.657
X-4.612 Y25.14
Y25.143
X-4.54 Y26.639
X-4.466 Y28.142
X-4.397 Y29.646
X-4.336 Y31.143
X-4.29 Y32.626
X-4.26 Y34.089
X-4.25 Y35.532
G2 X-4.03 Y36.057 I0.75 J-0.005
G1 X-1.237 Y38.85
G2 X1.237 Y38.85 I1.237 J-1.237
G1 X4.03 Y36.057
G2 X4.25 Y35.532 I-0.53 J-0.53
G1 X4.26 Y34.089
X4.29 Y32.626
X4.336 Y31.143
X4.397 Y29.646
X4.466 Y28.142
X4.54 Y26.639
X4.612 Y25.143
Y25.14
X4.677 Y23.657
X4.678 Y23.651
X4.731 Y22.181
Y22.172
X4.767 Y20.712
X4.768 Y20.702
X4.784 Y19.242
Y19.23
X4.777 Y17.752
Y17.741
X4.746 Y16.218
X4.745 Y16.208
X4.691 Y14.615
Y14.608
X4.617 Y12.925
Y12.92
X4.528 Y11.138
Y11.136
X4.43 Y9.263
X4.333 Y7.325
X4.243 Y5.353
X4.171 Y3.386
X4.123 Y1.461
X4.107 Y-0.389
X4.113 Y-1.273
X4.128 Y-2.129
X4.154 Y-2.952
X4.19 Y-3.739
X4.236 Y-4.49
X4.293 Y-5.205
X4.36 Y-5.884
X4.437 Y-6.531
X4.522 Y-7.153
X4.615 Y-7.753
X4.819 Y-8.932
X5.038 Y-10.117
X5.039 Y-10.119
X5.262 Y-11.349
X5.264 Y-11.358
X5.483 Y-12.655
X5.485 Y-12.665
X5.696 Y-14.032
X5.698 Y-14.042
X5.899 Y-15.465
X5.9 Y-15.473
X6.09 Y-16.927
X6.091 Y-16.934
X6.268 Y-18.391
X6.269 Y-18.398
X6.43 Y-19.834
X6.431 Y-19.844
X6.569 Y-21.241
X6.57 Y-21.256
X6.678 Y-22.608
X6.679 Y-22.625
X6.717 Y-23.288
Y-23.303
X6.741 Y-23.961
X6.742 Y-23.98
X6.75 Y-24.64
Y-24.661
X6.739 Y-25.33
X6.738 Y-25.353
X6.705 Y-26.035
X6.704 Y-26.06
X6.647 Y-26.76
X6.645 Y-26.785
X6.562 Y-27.507
X6.559 Y-27.531
X6.449 Y-28.275
X6.445 Y-28.299
X6.308 Y-29.063
X6.304 Y-29.086
X6.139 Y-29.867
X6.134 Y-29.889
X5.941 Y-30.682
X5.935 Y-30.704
X5.716 Y-31.503
X5.71 Y-31.525
X5.464 Y-32.323
X5.457 Y-32.346
X5.187 Y-33.135
X5.179 Y-33.159
X4.886 Y-33.931
X4.876 Y-33.957
X4.562 Y-34.704
X4.549 Y-34.731
X4.215 Y-35.444
X4.2 Y-35.474
X3.849 Y-36.143
X3.835 Y-36.169
X3.653 Y-36.484
X3.642 Y-36.502
X3.457 Y-36.803
X3.444 Y-36.823
X3.256 Y-37.109
X3.241 Y-37.131
X3.05 Y-37.4
X3.032 Y-37.423
X2.838 Y-37.675
X2.818 Y-37.7
X2.622 Y-37.934
X2.598 Y-37.961
X2.399 Y-38.175
X2.37 Y-38.204
X2.17 Y-38.398
X2.136 Y-38.429
X1.934 Y-38.602
X1.894 Y-38.634
X1.69 Y-38.786
X1.642 Y-38.819
X1.437 Y-38.948
X1.382 Y-38.98
X1.176 Y-39.087
X1.112 Y-39.116
X0.905 Y-39.2
X0.832 Y-39.225
X0.624 Y-39.285
X0.544 Y-39.304
X0.336 Y-39.34
X0.252 Y-39.349
X0.044 Y-39.361
X-0.044
X-0.252 Y-39.349
X-0.336 Y-39.34
X-0.544 Y-39.304
X-0.624 Y-39.285
X-0.832 Y-39.225
X-0.905 Y-39.2
X-1.112 Y-39.116
X-1.176 Y-39.087
X-1.382 Y-38.98
X-1.437 Y-38.948
X-1.642 Y-38.819
X-1.69 Y-38.786
X-1.894 Y-38.634
X-1.934 Y-38.602
X-2.136 Y-38.429
X-2.17 Y-38.398
X-2.37 Y-38.204
X-2.399 Y-38.175
X-2.598 Y-37.961
X-2.622 Y-37.934
X-2.818 Y-37.7
X-2.838 Y-37.675
X-3.032 Y-37.423
X-3.05 Y-37.4
X-3.241 Y-37.131
X-3.256 Y-37.109
X-3.444 Y-36.823
X-3.457 Y-36.803
X-3.642 Y-36.502
X-3.653 Y-36.484
X-3.835 Y-36.169
X-3.849 Y-36.143
X-4.2 Y-35.474
X-4.215 Y-35.444
X-4.549 Y-34.731
X-4.562 Y-34.704
X-4.876 Y-33.957
X-4.886 Y-33.931
X-5.179 Y-33.159
X-5.187 Y-33.135
X-5.457 Y-32.346
X-5.464 Y-32.323
X-5.71 Y-31.525
X-5.716 Y-31.503
X-5.935 Y-30.704
X-5.941 Y-30.682
X-6.134 Y-29.889
X-6.139 Y-29.867
X-6.304 Y-29.086
X-6.308 Y-29.063
X-6.445 Y-28.299
X-6.449 Y-28.275
X-6.559 Y-27.531
X-6.562 Y-27.507
X-6.645 Y-26.785
X-6.647 Y-26.76
X-6.704 Y-26.06
X-6.705 Y-26.035
X-6.738 Y-25.353
X-6.739 Y-25.33
X-6.75 Y-24.661
Y-24.64
X-6.742 Y-23.98
X-6.741 Y-23.961
X-6.717 Y-23.303
Y-23.288
X-6.679 Y-22.625
X-6.678 Y-22.608
X-6.57 Y-21.256
X-6.569 Y-21.241
X-6.431 Y-19.844
X-6.43 Y-19.834
X-6.269 Y-18.398
X-6.268 Y-18.391
X-6.091 Y-16.934
X-6.09 Y-16.927
X-5.9 Y-15.473
X-5.899 Y-15.465
X-5.698 Y-14.042
X-5.696 Y-14.032
X-5.485 Y-12.665
X-5.483 Y-12.655
X-5.264 Y-11.358
X-5.262 Y-11.349
X-5.039 Y-10.119
X-5.038 Y-10.117
X-4.819 Y-8.932
X-4.615 Y-7.753
X-4.522 Y-7.153
X-4.437 Y-6.531
X-4.36 Y-5.884
X-4.293 Y-5.205
X-4.236 Y-4.49
X-4.19 Y-3.739
X-4.154 Y-2.952
X-4.128 Y-2.129
X-4.113 Y-1.273
X-4.107 Y-0.389
X-4.123 Y1.461
X-4.171 Y3.386
X-4.243 Y5.353
X-4.333 Y7.325
X-4.43 Y9.263
X-4.528 Y11.136
Y11.138
X-4.617 Y12.92
Y12.925
X-4.68 Y14.347
X-4.691 Y14.608 Z-1.509 F1016
Y14.615
X-4.745 Y16.208 Z-1.565
X-4.746 Y16.218
X-4.777 Y17.741 Z-1.619
Y17.752
X-4.784 Y19.23 Z-1.671
Y19.242
X-4.768 Y20.702 Z-1.722
X-4.767 Y20.712
X-4.731 Y22.172 Z-1.773
Y22.181 Z-1.774
X-4.703 Y22.936 Z-1.8
X-4.678 Y23.651 F600
X-4.677 Y23.657
X-4.612 Y25.14
Y25.143
X-4.54 Y26.639
X-4.466 Y28.142
X-4.397 Y29.646
X-4.336 Y31.143
X-4.29 Y32.626
X-4.26 Y34.089
X-4.25 Y35.532
G2 X-4.03 Y36.057 I0.75 J-0.005
G1 X-1.237 Y38.85
G2 X1.237 Y38.85 I1.237 J-1.237
G1 X4.03 Y36.057
G2 X4.25 Y35.532 I-0.53 J-0.53
G1 X4.26 Y34.089
X4.29 Y32.626
X4.336 Y31.143
X4.397 Y29.646
X4.466 Y28.142
X4.54 Y26.639
X4.612 Y25.143
Y25.14
X4.677 Y23.657
X4.678 Y23.651
X4.731 Y22.181
Y22.172
X4.767 Y20.712
X4.768 Y20.702
X4.784 Y19.242
Y19.23
X4.777 Y17.752
Y17.741
X4.746 Y16.218
X4.745 Y16.208
X4.691 Y14.615
Y14.608
X4.617 Y12.925
Y12.92
X4.528 Y11.138
Y11.136
X4.43 Y9.263
X4.333 Y7.325
X4.243 Y5.353
X4.171 Y3.386
X4.123 Y1.461
X4.107 Y-0.389
X4.113 Y-1.273
X4.128 Y-2.129
X4.154 Y-2.952
X4.19 Y-3.739
X4.236 Y-4.49
X4.293 Y-5.205
X4.36 Y-5.884
X4.437 Y-6.531
X4.522 Y-7.153
X4.615 Y-7.753
X4.819 Y-8.932
X5.038 Y-10.117
X5.039 Y-10.119
X5.262 Y-11.349
X5.264 Y-11.358
X5.483 Y-12.655
X5.485 Y-12.665
X5.696 Y-14.032
X5.698 Y-14.042
X5.899 Y-15.465
X5.9 Y-15.473
X6.09 Y-16.927
X6.091 Y-16.934
X6.268 Y-18.391
X6.269 Y-18.398
X6.43 Y-19.834
X6.431 Y-19.844
X6.569 Y-21.241
X6.57 Y-21.256
X6.678 Y-22.608
X6.679 Y-22.625
X6.717 Y-23.288
Y-23.303
X6.741 Y-23.961
X6.742 Y-23.98
X6.75 Y-24.64
Y-24.661
X6.739 Y-25.33
X6.738 Y-25.353
X6.705 Y-26.035
X6.704 Y-26.06
X6.647 Y-26.76
X6.645 Y-26.785
X6.562 Y-27.507
X6.559 Y-27.531
X6.449 Y-28.275
X6.445 Y-28.299
X6.308 Y-29.063
X6.304 Y-29.086
X6.139 Y-29.867
X6.134 Y-29.889
X5.941 Y-30.682
X5.935 Y-30.704
X5.716 Y-31.503
X5.71 Y-31.525
X5.464 Y-32.323
X5.457 Y-32.346
X5.187 Y-33.135
X5.179 Y-33.159
X4.886 Y-33.931
X4.876 Y-33.957
X4.562 Y-34.704
X4.549 Y-34.731
X4.215 Y-35.444
X4.2 Y-35.474
X3.849 Y-36.143
X3.835 Y-36.169
X3.653 Y-36.484
X3.642 Y-36.502
X3.457 Y-36.803
X3.444 Y-36.823
X3.256 Y-37.109
X3.241 Y-37.131
X3.05 Y-37.4
X3.032 Y-37.423
X2.838 Y-37.675
X2.818 Y-37.7
X2.622 Y-37.934
X2.598 Y-37.961
X2.399 Y-38.175
X2.37 Y-38.204
X2.17 Y-38.398
X2.136 Y-38.429
X1.934 Y-38.602
X1.894 Y-38.634
X1.69 Y-38.786
X1.642 Y-38.819
X1.437 Y-38.948
X1.382 Y-38.98
X1.176 Y-39.087
X1.112 Y-39.116
X0.905 Y-39.2
X0.832 Y-39.225
X0.624 Y-39.285
X0.544 Y-39.304
X0.336 Y-39.34
X0.252 Y-39.349
X0.044 Y-39.361
X-0.044
X-0.252 Y-39.349
X-0.336 Y-39.34
X-0.544 Y-39.304
X-0.624 Y-39.285
X-0.832 Y-39.225
X-0.905 Y-39.2
X-1.112 Y-39.116
X-1.176 Y-39.087
X-1.382 Y-38.98
X-1.437 Y-38.948
X-1.642 Y-38.819
X-1.69 Y-38.786
X-1.894 Y-38.634
X-1.934 Y-38.602
X-2.136 Y-38.429
X-2.17 Y-38.398
X-2.37 Y-38.204
X-2.399 Y-38.175
X-2.598 Y-37.961
X-2.622 Y-37.934
X-2.818 Y-37.7
X-2.838 Y-37.675
X-3.032 Y-37.423
X-3.05 Y-37.4
X-3.241 Y-37.131
X-3.256 Y-37.109
X-3.444 Y-36.823
X-3.457 Y-36.803
X-3.642 Y-36.502
X-3.653 Y-36.484
X-3.835 Y-36.169
X-3.849 Y-36.143
X-4.2 Y-35.474
X-4.215 Y-35.444
X-4.549 Y-34.731
X-4.562 Y-34.704
X-4.876 Y-33.957
X-4.886 Y-33.931
X-5.179 Y-33.159
X-5.187 Y-33.135
X-5.457 Y-32.346
X-5.464 Y-32.323
X-5.71 Y-31.525
X-5.716 Y-31.503
X-5.935 Y-30.704
X-5.941 Y-30.682
X-6.134 Y-29.889
X-6.139 Y-29.867
X-6.304 Y-29.086
X-6.308 Y-29.063
X-6.445 Y-28.299
X-6.449 Y-28.275
X-6.559 Y-27.531
X-6.562 Y-27.507
X-6.645 Y-26.785
X-6.647 Y-26.76
X-6.704 Y-26.06
X-6.705 Y-26.035
X-6.738 Y-25.353
X-6.739 Y-25.33
X-6.75 Y-24.661
Y-24.64
X-6.742 Y-23.98
X-6.741 Y-23.961
X-6.717 Y-23.303
Y-23.288
X-6.679 Y-22.625
X-6.678 Y-22.608
X-6.57 Y-21.256
X-6.569 Y-21.241
X-6.431 Y-19.844
X-6.43 Y-19.834
X-6.269 Y-18.398
X-6.268 Y-18.391
X-6.091 Y-16.934
X-6.09 Y-16.927
X-5.9 Y-15.473
X-5.899 Y-15.465
X-5.698 Y-14.042
X-5.696 Y-14.032
X-5.485 Y-12.665
X-5.483 Y-12.655
X-5.264 Y-11.358
X-5.262 Y-11.349
X-5.039 Y-10.119
X-5.038 Y-10.117
X-4.819 Y-8.932
X-4.615 Y-7.753
X-4.522 Y-7.153
X-4.437 Y-6.531
X-4.36 Y-5.884
X-4.293 Y-5.205
X-4.236 Y-4.49
X-4.19 Y-3.739
X-4.154 Y-2.952
X-4.128 Y-2.129
X-4.113 Y-1.273
X-4.107 Y-0.389
X-4.123 Y1.461
X-4.171 Y3.386
X-4.243 Y5.353
X-4.333 Y7.325
X-4.43 Y9.263
X-4.528 Y11.136
Y11.138
X-4.617 Y12.92
Y12.925
X-4.68 Y14.347
X-4.691 Y14.608
Y14.615
X-4.745 Y16.208
X-4.746 Y16.218
X-4.777 Y17.741
Y17.752
X-4.784 Y19.23
Y19.242
X-4.768 Y20.702
X-4.767 Y20.712
X-4.731 Y22.172
Y22.181
X-4.703 Y22.936
X-4.678 Y23.651 Z-1.825 F1016
X-4.677 Y23.657
X-4.612 Y25.14 Z-1.877
Y25.143
X-4.54 Y26.639 Z-1.929
X-4.466 Y28.142 Z-1.982
X-4.397 Y29.646 Z-2.035
X-4.336 Y31.143 Z-2.087
X-4.325 Y31.518 Z-2.1
X-4.29 Y32.626 F600
X-4.26 Y34.089
X-4.25 Y35.532
G2 X-4.03 Y36.057 I0.75 J-0.005
G1 X-1.237 Y38.85
G2 X1.237 Y38.85 I1.237 J-1.237
G1 X4.03 Y36.057
G2 X4.25 Y35.532 I-0.53 J-0.53
G1 X4.26 Y34.089
X4.29 Y32.626
X4.336 Y31.143
X4.397 Y29.646
X4.466 Y28.142
X4.54 Y26.639
X4.612 Y25.143
Y25.14
X4.677 Y23.657
X4.678 Y23.651
X4.731 Y22.181
Y22.172
X4.767 Y20.712
X4.768 Y20.702
X4.784 Y19.242
Y19.23
X4.777 Y17.752
Y17.741
X4.746 Y16.218
X4.745 Y16.208
X4.691 Y14.615
Y14.608
X4.617 Y12.925
Y12.92
X4.528 Y11.138
Y11.136
X4.43 Y9.263
X4.333 Y7.325
X4.243 Y5.353
X4.171 Y3.386
X4.123 Y1.461
X4.107 Y-0.389
X4.113 Y-1.273
X4.128 Y-2.129
X4.154 Y-2.952
X4.19 Y-3.739
X4.236 Y-4.49
X4.293 Y-5.205
X4.36 Y-5.884
X4.437 Y-6.531
X4.522 Y-7.153
X4.615 Y-7.753
X4.819 Y-8.932
X5.038 Y-10.117
X5.039 Y-10.119
X5.262 Y-11.349
X5.264 Y-11.358
X5.483 Y-12.655
X5.485 Y-12.665
X5.696 Y-14.032
X5.698 Y-14.042
X5.899 Y-15.465
X5.9 Y-15.473
X6.09 Y-16.927
X6.091 Y-16.934
X6.268 Y-18.391
X6.269 Y-18.398
X6.43 Y-19.834
X6.431 Y-19.844
X6.569 Y-21.241
X6.57 Y-21.256
X6.678 Y-22.608
X6.679 Y-22.625
X6.717 Y-23.288
Y-23.303
X6.741 Y-23.961
X6.742 Y-23.98
X6.75 Y-24.64
Y-24.661
X6.739 Y-25.33
X6.738 Y-25.353
X6.705 Y-26.035
X6.704 Y-26.06
X6.647 Y-26.76
X6.645 Y-26.785
X6.562 Y-27.507
X6.559 Y-27.531
X6.449 Y-28.275
X6.445 Y-28.299
X6.308 Y-29.063
X6.304 Y-29.086
X6.139 Y-29.867
X6.134 Y-29.889
X5.941 Y-30.682
X5.935 Y-30.704
X5.716 Y-31.503
X5.71 Y-31.525
X5.464 Y-32.323
X5.457 Y-32.346
X5.187 Y-33.135
X5.179 Y-33.159
X4.886 Y-33.931
X4.876 Y-33.957
X4.562 Y-34.704
X4.549 Y-34.731
X4.215 Y-35.444
X4.2 Y-35.474
X3.849 Y-36.143
X3.835 Y-36.169
X3.653 Y-36.484
X3.642 Y-36.502
X3.457 Y-36.803
X3.444 Y-36.823
X3.256 Y-37.109
X3.241 Y-37.131
X3.05 Y-37.4
X3.032 Y-37.423
X2.838 Y-37.675
X2.818 Y-37.7
X2.622 Y-37.934
X2.598 Y-37.961
X2.399 Y-38.175
X2.37 Y-38.204
X2.17 Y-38.398
X2.136 Y-38.429
X1.934 Y-38.602
X1.894 Y-38.634
X1.69 Y-38.786
X1.642 Y-38.819
X1.437 Y-38.948
X1.382 Y-38.98
X1.176 Y-39.087
X1.112 Y-39.116
X0.905 Y-39.2
X0.832 Y-39.225
X0.624 Y-39.285
X0.544 Y-39.304
X0.336 Y-39.34
X0.252 Y-39.349
X0.044 Y-39.361
X-0.044
X-0.252 Y-39.349
X-0.336 Y-39.34
X-0.544 Y-39.304
X-0.624 Y-39.285
X-0.832 Y-39.225
X-0.905 Y-39.2
X-1.112 Y-39.116
X-1.176 Y-39.087
X-1.382 Y-38.98
X-1.437 Y-38.948
X-1.642 Y-38.819
X-1.69 Y-38.786
X-1.894 Y-38.634
X-1.934 Y-38.602
X-2.136 Y-38.429
X-2.17 Y-38.398
X-2.37 Y-38.204
X-2.399 Y-38.175
X-2.598 Y-37.961
X-2.622 Y-37.934
X-2.818 Y-37.7
X-2.838 Y-37.675
X-3.032 Y-37.423
X-3.05 Y-37.4
X-3.241 Y-37.131
X-3.256 Y-37.109
X-3.444 Y-36.823
X-3.457 Y-36.803
X-3.642 Y-36.502
X-3.653 Y-36.484
X-3.835 Y-36.169
X-3.849 Y-36.143
X-4.2 Y-35.474
X-4.215 Y-35.444
X-4.549 Y-34.731
X-4.562 Y-34.704
X-4.876 Y-33.957
X-4.886 Y-33.931
X-5.179 Y-33.159
X-5.187 Y-33.135
X-5.457 Y-32.346
X-5.464 Y-32.323
X-5.71 Y-31.525
X-5.716 Y-31.503
X-5.935 Y-30.704
X-5.941 Y-30.682
X-6.134 Y-29.889
X-6.139 Y-29.867
X-6.304 Y-29.086
X-6.308 Y-29.063
X-6.445 Y-28.299
X-6.449 Y-28.275
X-6.559 Y-27.531
X-6.562 Y-27.507
X-6.645 Y-26.785
X-6.647 Y-26.76
X-6.704 Y-26.06
X-6.705 Y-26.035
X-6.738 Y-25.353
X-6.739 Y-25.33
X-6.75 Y-24.661
Y-24.64
X-6.742 Y-23.98
X-6.741 Y-23.961
X-6.717 Y-23.303
Y-23.288
X-6.679 Y-22.625
X-6.678 Y-22.608
X-6.57 Y-21.256
X-6.569 Y-21.241
X-6.431 Y-19.844
X-6.43 Y-19.834
X-6.269 Y-18.398
X-6.268 Y-18.391
X-6.091 Y-16.934
X-6.09 Y-16.927
X-5.9 Y-15.473
X-5.899 Y-15.465
X-5.698 Y-14.042
X-5.696 Y-14.032
X-5.485 Y-12.665
X-5.483 Y-12.655
X-5.264 Y-11.358
X-5.262 Y-11.349
X-5.039 Y-10.119
X-5.038 Y-10.117
X-4.819 Y-8.932
X-4.615 Y-7.753
X-4.522 Y-7.153
X-4.437 Y-6.531
X-4.36 Y-5.884
X-4.293 Y-5.205
X-4.236 Y-4.49
X-4.19 Y-3.739
X-4.154 Y-2.952
X-4.128 Y-2.129
X-4.113 Y-1.273
X-4.107 Y-0.389
X-4.123 Y1.461
X-4.171 Y3.386
X-4.243 Y5.353
X-4.333 Y7.325
X-4.43 Y9.263
X-4.528 Y11.136
Y11.138
X-4.617 Y12.92
Y12.925
X-4.691 Y14.608
Y14.615
X-4.745 Y16.208
X-4.746 Y16.218
X-4.777 Y17.741
Y17.752
X-4.784 Y19.23
Y19.242
X-4.768 Y20.702
X-4.767 Y20.712
X-4.731 Y22.172
Y22.181
X-4.703 Y22.936
X-4.678 Y23.651
X-4.677 Y23.657
X-4.612 Y25.14
Y25.143
X-4.54 Y26.639
X-4.466 Y28.142
X-4.397 Y29.646
X-4.336 Y31.143
X-4.325 Y31.518
X-4.29 Y32.626 Z-2.139 F1016
X-4.26 Y34.089 Z-2.19
X-4.25 Y35.532 Z-2.24
G2 X-4.03 Y36.057 Z-2.261 I0.75 J-0.005
G1 X-1.237 Y38.85 Z-2.399
X-1.207 Y38.88 Z-2.4
G2 X1.237 Y38.85 I1.207 J-1.267 F600
G1 X4.03 Y36.057
G2 X4.25 Y35.532 I-0.53 J-0.53
G1 X4.26 Y34.089
X4.29 Y32.626
X4.336 Y31.143
X4.397 Y29.646
X4.466 Y28.142
X4.54 Y26.639
X4.612 Y25.143
Y25.14
X4.677 Y23.657
X4.678 Y23.651
X4.731 Y22.181
Y22.172
X4.767 Y20.712
X4.768 Y20.702
X4.784 Y19.242
Y19.23
X4.777 Y17.752
Y17.741
X4.746 Y16.218
X4.745 Y16.208
X4.691 Y14.615
Y14.608
X4.617 Y12.925
Y12.92
X4.528 Y11.138
Y11.136
X4.43 Y9.263
X4.333 Y7.325
X4.243 Y5.353
X4.171 Y3.386
X4.123 Y1.461
X4.107 Y-0.389
X4.113 Y-1.273
X4.128 Y-2.129
X4.154 Y-2.952
X4.19 Y-3.739
X4.236 Y-4.49
X4.293 Y-5.205
X4.36 Y-5.884
X4.437 Y-6.531
X4.522 Y-7.153
X4.615 Y-7.753
X4.819 Y-8.932
X5.038 Y-10.117
X5.039 Y-10.119
X5.262 Y-11.349
X5.264 Y-11.358
X5.483 Y-12.655
X5.485 Y-12.665
X5.696 Y-14.032
X5.698 Y-14.042
X5.899 Y-15.465
X5.9 Y-15.473
X6.09 Y-16.927
X6.091 Y-16.934
X6.268 Y-18.391
X6.269 Y-18.398
X6.43 Y-19.834
X6.431 Y-19.844
X6.569 Y-21.241
X6.57 Y-21.256
X6.678 Y-22.608
X6.679 Y-22.625
X6.717 Y-23.288
Y-23.303
X6.741 Y-23.961
X6.742 Y-23.98
X6.75 Y-24.64
Y-24.661
X6.739 Y-25.33
X6.738 Y-25.353
X6.705 Y-26.035
X6.704 Y-26.06
X6.647 Y-26.76
X6.645 Y-26.785
X6.562 Y-27.507
X6.559 Y-27.531
X6.449 Y-28.275
X6.445 Y-28.299
X6.308 Y-29.063
X6.304 Y-29.086
X6.139 Y-29.867
X6.134 Y-29.889
X5.941 Y-30.682
X5.935 Y-30.704
X5.716 Y-31.503
X5.71 Y-31.525
X5.464 Y-32.323
X5.457 Y-32.346
X5.187 Y-33.135
X5.179 Y-33.159
X4.886 Y-33.931
X4.876 Y-33.957
X4.562 Y-34.704
X4.549 Y-34.731
X4.215 Y-35.444
X4.2 Y-35.474
X3.849 Y-36.143
X3.835 Y-36.169
X3.653 Y-36.484
X3.642 Y-36.502
X3.457 Y-36.803
X3.444 Y-36.823
X3.256 Y-37.109
X3.241 Y-37.131
X3.05 Y-37.4
X3.032 Y-37.423
X2.838 Y-37.675
X2.818 Y-37.7
X2.622 Y-37.934
X2.598 Y-37.961
X2.399 Y-38.175
X2.37 Y-38.204
X2.17 Y-38.398
X2.136 Y-38.429
X1.934 Y-38.602
X1.894 Y-38.634
X1.69 Y-38.786
X1.642 Y-38.819
X1.437 Y-38.948
X1.382 Y-38.98
X1.176 Y-39.087
X1.112 Y-39.116
X0.905 Y-39.2
X0.832 Y-39.225
X0.624 Y-39.285
X0.544 Y-39.304
X0.336 Y-39.34
X0.252 Y-39.349
X0.044 Y-39.361
X-0.044
X-0.252 Y-39.349
X-0.336 Y-39.34
X-0.544 Y-39.304
X-0.624 Y-39.285
X-0.832 Y-39.225
X-0.905 Y-39.2
X-1.112 Y-39.116
X-1.176 Y-39.087
X-1.382 Y-38.98
X-1.437 Y-38.948
X-1.642 Y-38.819
X-1.69 Y-38.786
X-1.894 Y-38.634
X-1.934 Y-38.602
X-2.136 Y-38.429
X-2.17 Y-38.398
X-2.37 Y-38.204
X-2.399 Y-38.175
X-2.598 Y-37.961
X-2.622 Y-37.934
X-2.818 Y-37.7
X-2.838 Y-37.675
X-3.032 Y-37.423
X-3.05 Y-37.4
X-3.241 Y-37.131
X-3.256 Y-37.109
X-3.444 Y-36.823
X-3.457 Y-36.803
X-3.642 Y-36.502
X-3.653 Y-36.484
X-3.835 Y-36.169
X-3.849 Y-36.143
X-4.2 Y-35.474
X-4.215 Y-35.444
X-4.549 Y-34.731
X-4.562 Y-34.704
X-4.876 Y-33.957
X-4.886 Y-33.931
X-5.179 Y-33.159
X-5.187 Y-33.135
X-5.457 Y-32.346
X-5.464 Y-32.323
X-5.71 Y-31.525
X-5.716 Y-31.503
X-5.935 Y-30.704
X-5.941 Y-30.682
X-6.134 Y-29.889
X-6.139 Y-29.867
X-6.304 Y-29.086
X-6.308 Y-29.063
X-6.445 Y-28.299
X-6.449 Y-28.275
X-6.559 Y-27.531
X-6.562 Y-27.507
X-6.645 Y-26.785
X-6.647 Y-26.76
X-6.704 Y-26.06
X-6.705 Y-26.035
X-6.738 Y-25.353
X-6.739 Y-25.33
X-6.75 Y-24.661
Y-24.64
X-6.742 Y-23.98
X-6.741 Y-23.961
X-6.717 Y-23.303
Y-23.288
X-6.679 Y-22.625
X-6.678 Y-22.608
X-6.57 Y-21.256
X-6.569 Y-21.241
X-6.431 Y-19.844
X-6.43 Y-19.834
X-6.269 Y-18.398
X-6.268 Y-18.391
X-6.091 Y-16.934
X-6.09 Y-16.927
X-5.9 Y-15.473
X-5.899 Y-15.465
X-5.698 Y-14.042
X-5.696 Y-14.032
X-5.485 Y-12.665
X-5.483 Y-12.655
X-5.264 Y-11.358
X-5.262 Y-11.349
X-5.039 Y-10.119
X-5.038 Y-10.117
X-4.819 Y-8.932
X-4.615 Y-7.753
X-4.522 Y-7.153
X-4.437 Y-6.531
X-4.36 Y-5.884
X-4.293 Y-5.205
X-4.236 Y-4.49
X-4.19 Y-3.739
X-4.154 Y-2.952
X-4.128 Y-2.129
X-4.113 Y-1.273
X-4.107 Y-0.389
X-4.123 Y1.461
X-4.171 Y3.386
X-4.243 Y5.353
X-4.333 Y7.325
X-4.43 Y9.263
X-4.528 Y11.136
Y11.138
X-4.617 Y12.92
Y12.925
X-4.691 Y14.608
Y14.615
X-4.745 Y16.208
X-4.746 Y16.218
X-4.777 Y17.741
Y17.752
X-4.784 Y19.23
Y19.242
X-4.768 Y20.702
X-4.767 Y20.712
X-4.731 Y22.172
Y22.181
X-4.678 Y23.651
X-4.677 Y23.657
X-4.612 Y25.14
Y25.143
X-4.54 Y26.639
X-4.466 Y28.142
X-4.397 Y29.646
X-4.336 Y31.143
X-4.29 Y32.626
X-4.26 Y34.089
X-4.25 Y35.532
G2 X-4.03 Y36.057 I0.75 J-0.005
G1 X-1.237 Y38.85
X-1.207 Y38.88
G2 X1.237 Y38.85 Z-2.495 I1.207 J-1.267 F1016
G1 X4.03 Y36.057 Z-2.632
G2 X4.25 Y35.532 Z-2.653 I-0.53 J-0.53
G1 X4.259 Y34.181 Z-2.7
X4.26 Y34.089 F600
X4.29 Y32.626
X4.336 Y31.143
X4.397 Y29.646
X4.466 Y28.142
X4.54 Y26.639
X4.612 Y25.143
Y25.14
X4.677 Y23.657
X4.678 Y23.651
X4.731 Y22.181
Y22.172
X4.767 Y20.712
X4.768 Y20.702
X4.784 Y19.242
Y19.23
X4.777 Y17.752
Y17.741
X4.746 Y16.218
X4.745 Y16.208
X4.691 Y14.615
Y14.608
X4.617 Y12.925
Y12.92
X4.528 Y11.138
Y11.136
X4.43 Y9.263
X4.333 Y7.325
X4.243 Y5.353
X4.171 Y3.386
X4.123 Y1.461
X4.107 Y-0.389
X4.113 Y-1.273
X4.128 Y-2.129
X4.154 Y-2.952
X4.19 Y-3.739
X4.236 Y-4.49
X4.293 Y-5.205
X4.36 Y-5.884
X4.437 Y-6.531
X4.522 Y-7.153
X4.615 Y-7.753
X4.819 Y-8.932
X5.038 Y-10.117
X5.039 Y-10.119
X5.262 Y-11.349
X5.264 Y-11.358
X5.483 Y-12.655
X5.485 Y-12.665
X5.696 Y-14.032
X5.698 Y-14.042
X5.899 Y-15.465
X5.9 Y-15.473
X6.09 Y-16.927
X6.091 Y-16.934
X6.268 Y-18.391
X6.269 Y-18.398
X6.43 Y-19.834
X6.431 Y-19.844
X6.569 Y-21.241
X6.57 Y-21.256
X6.678 Y-22.608
X6.679 Y-22.625
X6.717 Y-23.288
Y-23.303
X6.741 Y-23.961
X6.742 Y-23.98
X6.75 Y-24.64
Y-24.661
X6.739 Y-25.33
X6.738 Y-25.353
X6.705 Y-26.035
X6.704 Y-26.06
X6.647 Y-26.76
X6.645 Y-26.785
X6.562 Y-27.507
X6.559 Y-27.531
X6.449 Y-28.275
X6.445 Y-28.299
X6.308 Y-29.063
X6.304 Y-29.086
X6.139 Y-29.867
X6.134 Y-29.889
X5.941 Y-30.682
X5.935 Y-30.704
X5.716 Y-31.503
X5.71 Y-31.525
X5.464 Y-32.323
X5.457 Y-32.346
X5.187 Y-33.135
X5.179 Y-33.159
X4.886 Y-33.931
X4.876 Y-33.957
X4.562 Y-34.704
X4.549 Y-34.731
X4.215 Y-35.444
X4.2 Y-35.474
X3.849 Y-36.143
X3.835 Y-36.169
X3.653 Y-36.484
X3.642 Y-36.502
X3.457 Y-36.803
X3.444 Y-36.823
X3.256 Y-37.109
X3.241 Y-37.131
X3.05 Y-37.4
X3.032 Y-37.423
X2.838 Y-37.675
X2.818 Y-37.7
X2.622 Y-37.934
X2.598 Y-37.961
X2.399 Y-38.175
X2.37 Y-38.204
X2.17 Y-38.398
X2.136 Y-38.429
X1.934 Y-38.602
X1.894 Y-38.634
X1.69 Y-38.786
X1.642 Y-38.819
X1.437 Y-38.948
X1.382 Y-38.98
X1.176 Y-39.087
X1.112 Y-39.116
X0.905 Y-39.2
X0.832 Y-39.225
X0.624 Y-39.285
X0.544 Y-39.304
X0.336 Y-39.34
X0.252 Y-39.349
X0.044 Y-39.361
X-0.044
X-0.252 Y-39.349
X-0.336 Y-39.34
X-0.544 Y-39.304
X-0.624 Y-39.285
X-0.832 Y-39.225
X-0.905 Y-39.2
X-1.112 Y-39.116
X-1.176 Y-39.087
X-1.382 Y-38.98
X-1.437 Y-38.948
X-1.642 Y-38.819
X-1.69 Y-38.786
X-1.894 Y-38.634
X-1.934 Y-38.602
X-2.136 Y-38.429
X-2.17 Y-38.398
X-2.37 Y-38.204
X-2.399 Y-38.175
X-2.598 Y-37.961
X-2.622 Y-37.934
X-2.818 Y-37.7
X-2.838 Y-37.675
X-3.032 Y-37.423
X-3.05 Y-37.4
X-3.241 Y-37.131
X-3.256 Y-37.109
X-3.444 Y-36.823
X-3.457 Y-36.803
X-3.642 Y-36.502
X-3.653 Y-36.484
X-3.835 Y-36.169
X-3.849 Y-36.143
X-4.2 Y-35.474
X-4.215 Y-35.444
X-4.549 Y-34.731
X-4.562 Y-34.704
X-4.876 Y-33.957
X-4.886 Y-33.931
X-5.179 Y-33.159
X-5.187 Y-33.135
X-5.457 Y-32.346
X-5.464 Y-32.323
X-5.71 Y-31.525
X-5.716 Y-31.503
X-5.935 Y-30.704
X-5.941 Y-30.682
X-6.134 Y-29.889
X-6.139 Y-29.867
X-6.304 Y-29.086
X-6.308 Y-29.063
X-6.445 Y-28.299
X-6.449 Y-28.275
X-6.559 Y-27.531
X-6.562 Y-27.507
X-6.645 Y-26.785
X-6.647 Y-26.76
X-6.704 Y-26.06
X-6.705 Y-26.035
X-6.738 Y-25.353
X-6.739 Y-25.33
X-6.75 Y-24.661
Y-24.64
X-6.742 Y-23.98
X-6.741 Y-23.961
X-6.717 Y-23.303
Y-23.288
X-6.679 Y-22.625
X-6.678 Y-22.608
X-6.57 Y-21.256
X-6.569 Y-21.241
X-6.431 Y-19.844
X-6.43 Y-19.834
X-6.269 Y-18.398
X-6.268 Y-18.391
X-6.091 Y-16.934
X-6.09 Y-16.927
X-5.9 Y-15.473
X-5.899 Y-15.465
X-5.698 Y-14.042
X-5.696 Y-14.032
X-5.485 Y-12.665
X-5.483 Y-12.655
X-5.264 Y-11.358
X-5.262 Y-11.349
X-5.039 Y-10.119
X-5.038 Y-10.117
X-4.819 Y-8.932
X-4.615 Y-7.753
X-4.522 Y-7.153
X-4.437 Y-6.531
X-4.36 Y-5.884
X-4.293 Y-5.205
X-4.236 Y-4.49
X-4.19 Y-3.739
X-4.154 Y-2.952
X-4.128 Y-2.129
X-4.113 Y-1.273
X-4.107 Y-0.389
X-4.123 Y1.461
X-4.171 Y3.386
X-4.243 Y5.353
X-4.333 Y7.325
X-4.43 Y9.263
X-4.528 Y11.136
Y11.138
X-4.617 Y12.92
Y12.925
X-4.691 Y14.608
Y14.615
X-4.745 Y16.208
X-4.746 Y16.218
X-4.777 Y17.741
Y17.752
X-4.784 Y19.23
Y19.242
X-4.768 Y20.702
X-4.767 Y20.712
X-4.731 Y22.172
Y22.181
X-4.678 Y23.651
X-4.677 Y23.657
X-4.612 Y25.14
Y25.143
X-4.54 Y26.639
X-4.466 Y28.142
X-4.397 Y29.646
X-4.336 Y31.143
X-4.29 Y32.626
X-4.26 Y34.089
X-4.25 Y35.532
G2 X-4.03 Y36.057 I0.75 J-0.005
G1 X-1.237 Y38.85
G2 X1.237 Y38.85 I1.237 J-1.237
G1 X4.03 Y36.057
G2 X4.25 Y35.532 I-0.53 J-0.53
G1 X4.259 Y34.181
X4.26 Y34.089 Z-2.703 F1016
X4.29 Y32.626 Z-2.754
X4.336 Y31.143 Z-2.806
X4.397 Y29.646 Z-2.858
X4.466 Y28.142 Z-2.911
X4.54 Y26.639 Z-2.964
X4.59 Y25.597 Z-3
X4.612 Y25.143 F600
Y25.14
X4.677 Y23.657
X4.678 Y23.651
X4.731 Y22.181
Y22.172
X4.767 Y20.712
X4.768 Y20.702
X4.784 Y19.242
Y19.23
X4.777 Y17.752
Y17.741
X4.746 Y16.218
X4.745 Y16.208
X4.691 Y14.615
Y14.608
X4.617 Y12.925
Y12.92
X4.528 Y11.138
Y11.136
X4.43 Y9.263
X4.333 Y7.325
X4.243 Y5.353
X4.171 Y3.386
X4.123 Y1.461
X4.107 Y-0.389
X4.113 Y-1.273
X4.128 Y-2.129
X4.154 Y-2.952
X4.19 Y-3.739
X4.199 Y-3.89
Z-2.7
X4.236 Y-4.49
X4.293 Y-5.205
X4.36 Y-5.884
X4.437 Y-6.531
X4.522 Y-7.153
X4.615 Y-7.753
X4.634 Y-7.866
Z-3 F300
X4.819 Y-8.932 F600
X5.038 Y-10.117
X5.039 Y-10.119
X5.262 Y-11.349
X5.264 Y-11.358
X5.483 Y-12.655
X5.485 Y-12.665
X5.696 Y-14.032
X5.698 Y-14.042
X5.899 Y-15.465
X5.9 Y-15.473
X6.09 Y-16.927
X6.091 Y-16.934
X6.268 Y-18.391
X6.269 Y-18.398
X6.43 Y-19.834
X6.431 Y-19.844
X6.569 Y-21.241
X6.57 Y-21.256
X6.678 Y-22.608
X6.679 Y-22.625
X6.717 Y-23.288
Y-23.303
X6.741 Y-23.961
X6.742 Y-23.98
X6.75 Y-24.64
Y-24.661
X6.739 Y-25.33
X6.738 Y-25.353
X6.705 Y-26.035
X6.704 Y-26.06
X6.647 Y-26.76
X6.645 Y-26.785
X6.562 Y-27.507
X6.559 Y-27.531
X6.449 Y-28.275
X6.445 Y-28.299
X6.308 Y-29.063
X6.304 Y-29.086
X6.139 Y-29.867
X6.134 Y-29.889
X5.941 Y-30.682
X5.935 Y-30.704
X5.716 Y-31.503
X5.71 Y-31.525
X5.464 Y-32.323
X5.457 Y-32.346
X5.187 Y-33.135
X5.179 Y-33.159
X4.886 Y-33.931
X4.876 Y-33.957
X4.562 Y-34.704
X4.549 Y-34.731
X4.215 Y-35.444
X4.2 Y-35.474
X3.849 Y-36.143
X3.835 Y-36.169
X3.653 Y-36.484
X3.642 Y-36.502
X3.457 Y-36.803
X3.444 Y-36.823
X3.256 Y-37.109
X3.241 Y-37.131
X3.05 Y-37.4
X3.032 Y-37.423
X2.838 Y-37.675
X2.818 Y-37.7
X2.622 Y-37.934
X2.598 Y-37.961
X2.399 Y-38.175
X2.37 Y-38.204
X2.17 Y-38.398
X2.136 Y-38.429
X1.934 Y-38.602
X1.894 Y-38.634
X1.69 Y-38.786
X1.642 Y-38.819
X1.437 Y-38.948
X1.382 Y-38.98
X1.176 Y-39.087
X1.112 Y-39.116
X0.905 Y-39.2
X0.832 Y-39.225
X0.624 Y-39.285
X0.544 Y-39.304
X0.336 Y-39.34
X0.252 Y-39.349
X0.044 Y-39.361
X-0.044
X-0.252 Y-39.349
X-0.336 Y-39.34
X-0.544 Y-39.304
X-0.624 Y-39.285
X-0.832 Y-39.225
X-0.905 Y-39.2
X-1.112 Y-39.116
X-1.176 Y-39.087
X-1.382 Y-38.98
X-1.437 Y-38.948
X-1.642 Y-38.819
X-1.69 Y-38.786
X-1.894 Y-38.634
X-1.934 Y-38.602
X-2.136 Y-38.429
X-2.17 Y-38.398
X-2.37 Y-38.204
X-2.399 Y-38.175
X-2.598 Y-37.961
X-2.622 Y-37.934
X-2.818 Y-37.7
X-2.838 Y-37.675
X-3.032 Y-37.423
X-3.05 Y-37.4
X-3.241 Y-37.131
X-3.256 Y-37.109
X-3.444 Y-36.823
X-3.457 Y-36.803
X-3.642 Y-36.502
X-3.653 Y-36.484
X-3.835 Y-36.169
X-3.849 Y-36.143
X-4.2 Y-35.474
X-4.215 Y-35.444
X-4.549 Y-34.731
X-4.562 Y-34.704
X-4.876 Y-33.957
X-4.886 Y-33.931
X-5.179 Y-33.159
X-5.187 Y-33.135
X-5.457 Y-32.346
X-5.464 Y-32.323
X-5.71 Y-31.525
X-5.716 Y-31.503
X-5.935 Y-30.704
X-5.941 Y-30.682
X-6.134 Y-29.889
X-6.139 Y-29.867
X-6.304 Y-29.086
X-6.308 Y-29.063
X-6.445 Y-28.299
X-6.449 Y-28.275
X-6.559 Y-27.531
X-6.562 Y-27.507
X-6.645 Y-26.785
X-6.647 Y-26.76
X-6.704 Y-26.06
X-6.705 Y-26.035
X-6.738 Y-25.353
X-6.739 Y-25.33
X-6.75 Y-24.661
Y-24.64
X-6.742 Y-23.98
X-6.741 Y-23.961
X-6.717 Y-23.303
Y-23.288
X-6.679 Y-22.625
X-6.678 Y-22.608
X-6.57 Y-21.256
X-6.569 Y-21.241
X-6.431 Y-19.844
X-6.43 Y-19.834
X-6.269 Y-18.398
X-6.268 Y-18.391
X-6.091 Y-16.934
X-6.09 Y-16.927
X-5.9 Y-15.473
X-5.899 Y-15.465
X-5.698 Y-14.042
X-5.696 Y-14.032
X-5.485 Y-12.665
X-5.483 Y-12.655
X-5.264 Y-11.358
X-5.262 Y-11.349
X-5.039 Y-10.119
X-5.038 Y-10.117
X-4.819 Y-8.932
X-4.634 Y-7.866
Z-2.7
X-4.615 Y-7.753
X-4.522 Y-7.153
X-4.437 Y-6.531
X-4.36 Y-5.884
X-4.293 Y-5.205
X-4.236 Y-4.49
X-4.199 Y-3.89
Z-3 F300
X-4.19 Y-3.739 F600
X-4.154 Y-2.952
X-4.128 Y-2.129
X-4.113 Y-1.273
X-4.107 Y-0.389
X-4.123 Y1.461
X-4.171 Y3.386
X-4.243 Y5.353
X-4.333 Y7.325
X-4.43 Y9.263
X-4.528 Y11.136
Y11.138
X-4.617 Y12.92
Y12.925
X-4.691 Y14.608
Y14.615
X-4.745 Y16.208
X-4.746 Y16.218
X-4.777 Y17.741
Y17.752
X-4.784 Y19.23
Y19.242
X-4.768 Y20.702
X-4.767 Y20.712
X-4.731 Y22.172
Y22.181
X-4.678 Y23.651
X-4.677 Y23.657
X-4.612 Y25.14
Y25.143
X-4.54 Y26.639
X-4.466 Y28.142
X-4.397 Y29.646
X-4.336 Y31.143
X-4.29 Y32.626
X-4.26 Y34.089
X-4.25 Y35.532
G2 X-4.03 Y36.057 I0.75 J-0.005
G1 X-1.237 Y38.85
G2 X1.237 Y38.85 I1.237 J-1.237
G1 X4.03 Y36.057
G2 X4.25 Y35.532 I-0.53 J-0.53
G1 X4.26 Y34.089
X4.29 Y32.626
X4.336 Y31.143
X4.397 Y29.646
X4.466 Y28.142
X4.54 Y26.639
X4.59 Y25.597
X4.612 Y25.143 Z-3.016 F1016
Y25.14
X4.677 Y23.657 Z-3.068
X4.678 Y23.651
X4.731 Y22.181 Z-3.119
Y22.172 Z-3.12
X4.767 Y20.712 Z-3.171
X4.768 Y20.702
X4.784 Y19.242 Z-3.222
Y19.23
X4.777 Y17.752 Z-3.274
Y17.741
X4.762 Y17.01 Z-3.3
X4.746 Y16.218 F600
X4.745 Y16.208
X4.691 Y14.615
Y14.608
X4.617 Y12.925
Y12.92
X4.528 Y11.138
Y11.136
X4.43 Y9.263
X4.333 Y7.325
X4.243 Y5.353
X4.171 Y3.386
X4.123 Y1.461
X4.107 Y-0.389
X4.113 Y-1.273
X4.128 Y-2.129
X4.154 Y-2.952
X4.19 Y-3.739
X4.199 Y-3.89
Z-2.7
X4.236 Y-4.49
X4.293 Y-5.205
X4.36 Y-5.884
X4.437 Y-6.531
X4.522 Y-7.153
X4.615 Y-7.753
X4.634 Y-7.866
Z-3.3 F300
X4.819 Y-8.932 F600
X5.038 Y-10.117
X5.039 Y-10.119
X5.262 Y-11.349
X5.264 Y-11.358
X5.483 Y-12.655
X5.485 Y-12.665
X5.696 Y-14.032
X5.698 Y-14.042
X5.899 Y-15.465
X5.9 Y-15.473
X6.09 Y-16.927
X6.091 Y-16.934
X6.268 Y-18.391
X6.269 Y-18.398
X6.43 Y-19.834
X6.431 Y-19.844
X6.569 Y-21.241
X6.57 Y-21.256
X6.678 Y-22.608
X6.679 Y-22.625
X6.717 Y-23.288
Y-23.303
X6.741 Y-23.961
X6.742 Y-23.98
X6.75 Y-24.64
Y-24.661
X6.739 Y-25.33
X6.738 Y-25.353
X6.705 Y-26.035
X6.704 Y-26.06
X6.647 Y-26.76
X6.645 Y-26.785
X6.562 Y-27.507
X6.559 Y-27.531
X6.449 Y-28.275
X6.445 Y-28.299
X6.308 Y-29.063
X6.304 Y-29.086
X6.139 Y-29.867
X6.134 Y-29.889
X5.941 Y-30.682
X5.935 Y-30.704
X5.716 Y-31.503
X5.71 Y-31.525
X5.464 Y-32.323
X5.457 Y-32.346
X5.187 Y-33.135
X5.179 Y-33.159
X4.886 Y-33.931
X4.876 Y-33.957
X4.562 Y-34.704
X4.549 Y-34.731
X4.215 Y-35.444
X4.2 Y-35.474
X3.849 Y-36.143
X3.835 Y-36.169
X3.653 Y-36.484
X3.642 Y-36.502
X3.457 Y-36.803
X3.444 Y-36.823
X3.256 Y-37.109
X3.241 Y-37.131
X3.05 Y-37.4
X3.032 Y-37.423
X2.838 Y-37.675
X2.818 Y-37.7
X2.622 Y-37.934
X2.598 Y-37.961
X2.399 Y-38.175
X2.37 Y-38.204
X2.17 Y-38.398
X2.136 Y-38.429
X1.934 Y-38.602
X1.894 Y-38.634
X1.69 Y-38.786
X1.642 Y-38.819
X1.437 Y-38.948
X1.382 Y-38.98
X1.176 Y-39.087
X1.112 Y-39.116
X0.905 Y-39.2
X0.832 Y-39.225
X0.624 Y-39.285
X0.544 Y-39.304
X0.336 Y-39.34
X0.252 Y-39.349
X0.044 Y-39.361
X-0.044
X-0.252 Y-39.349
X-0.336 Y-39.34
X-0.544 Y-39.304
X-0.624 Y-39.285
X-0.832 Y-39.225
X-0.905 Y-39.2
X-1.112 Y-39.116
X-1.176 Y-39.087
X-1.382 Y-38.98
X-1.437 Y-38.948
X-1.642 Y-38.819
X-1.69 Y-38.786
X-1.894 Y-38.634
X-1.934 Y-38.602
X-2.136 Y-38.429
X-2.17 Y-38.398
X-2.37 Y-38.204
X-2.399 Y-38.175
X-2.598 Y-37.961
X-2.622 Y-37.934
X-2.818 Y-37.7
X-2.838 Y-37.675
X-3.032 Y-37.423
X-3.05 Y-37.4
X-3.241 Y-37.131
X-3.256 Y-37.109
X-3.444 Y-36.823
X-3.457 Y-36.803
X-3.642 Y-36.502
X-3.653 Y-36.484
X-3.835 Y-36.169
X-3.849 Y-36.143
X-4.2 Y-35.474
X-4.215 Y-35.444
X-4.549 Y-34.731
X-4.562 Y-34.704
X-4.876 Y-33.957
X-4.886 Y-33.931
X-5.179 Y-33.159
X-5.187 Y-33.135
X-5.457 Y-32.346
X-5.464 Y-32.323
X-5.71 Y-31.525
X-5.716 Y-31.503
X-5.935 Y-30.704
X-5.941 Y-30.682
X-6.134 Y-29.889
X-6.139 Y-29.867
X-6.304 Y-29.086
X-6.308 Y-29.063
X-6.445 Y-28.299
X-6.449 Y-28.275
X-6.559 Y-27.531
X-6.562 Y-27.507
X-6.645 Y-26.785
X-6.647 Y-26.76
X-6.704 Y-26.06
X-6.705 Y-26.035
X-6.738 Y-25.353
X-6.739 Y-25.33
X-6.75 Y-24.661
Y-24.64
X-6.742 Y-23.98
X-6.741 Y-23.961
X-6.717 Y-23.303
Y-23.288
X-6.679 Y-22.625
X-6.678 Y-22.608
X-6.57 Y-21.256
X-6.569 Y-21.241
X-6.431 Y-19.844
X-6.43 Y-19.834
X-6.269 Y-18.398
X-6.268 Y-18.391
X-6.091 Y-16.934
X-6.09 Y-16.927
X-5.9 Y-15.473
X-5.899 Y-15.465
X-5.698 Y-14.042
X-5.696 Y-14.032
X-5.485 Y-12.665
X-5.483 Y-12.655
X-5.264 Y-11.358
X-5.262 Y-11.349
X-5.039 Y-10.119
X-5.038 Y-10.117
X-4.819 Y-8.932
X-4.634 Y-7.866
Z-2.7
X-4.615 Y-7.753
X-4.522 Y-7.153
X-4.437 Y-6.531
X-4.36 Y-5.884
X-4.293 Y-5.205
X-4.236 Y-4.49
X-4.199 Y-3.89
Z-3.3 F300
X-4.19 Y-3.739 F600
X-4.154 Y-2.952
X-4.128 Y-2.129
X-4.113 Y-1.273
X-4.107 Y-0.389
X-4.123 Y1.461
X-4.171 Y3.386
X-4.243 Y5.353
X-4.333 Y7.325
X-4.43 Y9.263
X-4.528 Y11.136
Y11.138
X-4.617 Y12.92
Y12.925
X-4.691 Y14.608
Y14.615
X-4.745 Y16.208
X-4.746 Y16.218
X-4.777 Y17.741
Y17.752
X-4.784 Y19.23
Y19.242
X-4.768 Y20.702
X-4.767 Y20.712
X-4.731 Y22.172
Y22.181
X-4.678 Y23.651
X-4.677 Y23.657
X-4.612 Y25.14
Y25.143
X-4.54 Y26.639
X-4.466 Y28.142
X-4.397 Y29.646
X-4.336 Y31.143
X-4.29 Y32.626
X-4.26 Y34.089
X-4.25 Y35.532
G2 X-4.03 Y36.057 I0.75 J-0.005
G1 X-1.237 Y38.85
G2 X1.237 Y38.85 I1.237 J-1.237
G1 X4.03 Y36.057
G2 X4.25 Y35.532 I-0.53 J-0.53
G1 X4.26 Y34.089
X4.29 Y32.626
X4.336 Y31.143
X4.397 Y29.646
X4.466 Y28.142
X4.54 Y26.639
X4.612 Y25.143
Y25.14
X4.677 Y23.657
X4.678 Y23.651
X4.731 Y22.181
Y22.172
X4.767 Y20.712
X4.768 Y20.702
X4.784 Y19.242
Y19.23
X4.777 Y17.752
Y17.741
X4.762 Y17.01
Z15
M5
M30
