(arm_6mm)
(Bearbeiten)
(  Hersteller: ChinaCnc)
(  model: 3040T)
(  description: Generic 3-axis)
(T14 D=3.175 CR=0 - ZMIN=-6.3 - Schaftfrser)
G90 G94
G17
G21
(-Attention- Property Safe Retracts is set to Clearance Height.)
(Ensure the clearance height will clear the part and or fixtures.)
(Raise the Z-axis to a safe height before starting the program.)
(When using Fusion 360 for Personal Use, the feedrate of)
(rapid moves is reduced to match the feedrate of cutting)
(moves, which can increase machining time. Unrestricted rapid)
(moves are available with a Fusion 360 Subscription.)

(Bohrfrsen2)
M0
(MANUAL TOOL CHANGE TO T14)
S6000 M3
G17 G90 G94
G54
G0 X-23.601 Y-25.323
Z15
G1 Z2 F1500
Z0.317 F1016
Y-25.331 Z0.247
X-23.603 Y-25.355 Z0.18
X-23.605 Y-25.392 Z0.12
X-23.608 Y-25.443 Z0.069
X-23.612 Y-25.503 Z0.031
X-23.616 Y-25.57 Z0.008
X-23.621 Y-25.64 Z0
X-23.631 Y-25.799
G3 X-23.333 Y-26.135 I0.317 J-0.02
X-22.91 Y-19.323 Z-0.175 I0.212 J3.406 F1500
X-23.333 Y-26.135 Z-0.349 I-0.212 J-3.406
X-22.91 Y-19.323 Z-0.524 I0.212 J3.406
X-23.333 Y-26.135 Z-0.698 I-0.212 J-3.406
X-22.91 Y-19.323 Z-0.873 I0.212 J3.406
X-23.333 Y-26.135 Z-1.048 I-0.212 J-3.406
X-22.91 Y-19.323 Z-1.222 I0.212 J3.406
X-23.333 Y-26.135 Z-1.397 I-0.212 J-3.406
X-22.91 Y-19.323 Z-1.571 I0.212 J3.406
X-23.333 Y-26.135 Z-1.746 I-0.212 J-3.406
X-22.91 Y-19.323 Z-1.921 I0.212 J3.406
X-23.333 Y-26.135 Z-2.095 I-0.212 J-3.406
X-22.91 Y-19.323 Z-2.27 I0.212 J3.406
X-23.333 Y-26.135 Z-2.444 I-0.212 J-3.406
X-22.91 Y-19.323 Z-2.619 I0.212 J3.406
X-23.333 Y-26.135 Z-2.794 I-0.212 J-3.406
X-22.91 Y-19.323 Z-2.968 I0.212 J3.406
X-23.333 Y-26.135 Z-3.143 I-0.212 J-3.406
X-22.91 Y-19.323 Z-3.317 I0.212 J3.406
X-23.333 Y-26.135 Z-3.492 I-0.212 J-3.406
X-22.91 Y-19.323 Z-3.667 I0.212 J3.406
X-23.333 Y-26.135 Z-3.841 I-0.212 J-3.406
X-22.91 Y-19.323 Z-4.016 I0.212 J3.406
X-23.333 Y-26.135 Z-4.19 I-0.212 J-3.406
X-22.91 Y-19.323 Z-4.365 I0.212 J3.406
X-23.333 Y-26.135 Z-4.54 I-0.212 J-3.406
X-22.91 Y-19.323 Z-4.714 I0.212 J3.406
X-23.333 Y-26.135 Z-4.889 I-0.212 J-3.406
X-22.91 Y-19.323 Z-5.064 I0.212 J3.406
X-23.333 Y-26.135 Z-5.238 I-0.212 J-3.406
X-22.91 Y-19.323 Z-5.413 I0.212 J3.406
X-23.333 Y-26.135 Z-5.587 I-0.212 J-3.406
X-22.91 Y-19.323 Z-5.762 I0.212 J3.406
X-23.333 Y-26.135 Z-5.937 I-0.212 J-3.406
X-22.91 Y-19.323 Z-6.111 I0.212 J3.406
X-26.527 Y-22.955 Z-6.206 I-0.212 J-3.406
X-22.462 Y-26.077 Z-6.3 I3.405 J0.226
X-23.781 Y-19.381 I-0.66 J3.348
X-22.462 Y-26.077 I0.66 J-3.348
X-22.212 Y-25.705 I-0.061 J0.312 F1016
G1 X-22.243 Y-25.549
X-22.256 Y-25.48 Z-6.292
X-22.269 Y-25.414 Z-6.269
X-22.281 Y-25.355 Z-6.231
X-22.291 Y-25.305 Z-6.18
X-22.298 Y-25.268 Z-6.12
X-22.302 Y-25.245 Z-6.053
X-22.304 Y-25.237 Z-5.983
Z5 F1500
X-32.458 Y-51.282
Z1.683
Z0 F1016
X-32.448 Y-51.124
X-32.453 Y-51.092
X-32.469 Y-51.065
X-32.494 Y-51.046
X-32.524 Y-51.038
G3 X-32.545 Y-51.362 Z-0.061 I-0.01 J-0.162 F1500
X-32.524 Y-51.038 Z-0.122 I0.01 J0.162
X-32.545 Y-51.362 Z-0.183 I-0.01 J-0.162
X-32.524 Y-51.038 Z-0.244 I0.01 J0.162
X-32.545 Y-51.362 Z-0.306 I-0.01 J-0.162
X-32.524 Y-51.038 Z-0.367 I0.01 J0.162
X-32.545 Y-51.362 Z-0.428 I-0.01 J-0.162
X-32.524 Y-51.038 Z-0.489 I0.01 J0.162
X-32.545 Y-51.362 Z-0.55 I-0.01 J-0.162
X-32.524 Y-51.038 Z-0.611 I0.01 J0.162
X-32.545 Y-51.362 Z-0.672 I-0.01 J-0.162
X-32.524 Y-51.038 Z-0.733 I0.01 J0.162
X-32.545 Y-51.362 Z-0.794 I-0.01 J-0.162
X-32.524 Y-51.038 Z-0.856 I0.01 J0.162
X-32.545 Y-51.362 Z-0.917 I-0.01 J-0.162
X-32.524 Y-51.038 Z-0.978 I0.01 J0.162
X-32.545 Y-51.362 Z-1.039 I-0.01 J-0.162
X-32.524 Y-51.038 Z-1.1 I0.01 J0.162
X-32.545 Y-51.362 Z-1.161 I-0.01 J-0.162
X-32.524 Y-51.038 Z-1.222 I0.01 J0.162
X-32.545 Y-51.362 Z-1.283 I-0.01 J-0.162
X-32.524 Y-51.038 Z-1.344 I0.01 J0.162
X-32.545 Y-51.362 Z-1.406 I-0.01 J-0.162
X-32.524 Y-51.038 Z-1.467 I0.01 J0.162
X-32.545 Y-51.362 Z-1.528 I-0.01 J-0.162
X-32.524 Y-51.038 Z-1.589 I0.01 J0.162
X-32.545 Y-51.362 Z-1.65 I-0.01 J-0.162
X-32.524 Y-51.038 Z-1.711 I0.01 J0.162
X-32.545 Y-51.362 Z-1.772 I-0.01 J-0.162
X-32.524 Y-51.038 Z-1.833 I0.01 J0.162
X-32.545 Y-51.362 Z-1.894 I-0.01 J-0.162
X-32.524 Y-51.038 Z-1.956 I0.01 J0.162
X-32.545 Y-51.362 Z-2.017 I-0.01 J-0.162
X-32.524 Y-51.038 Z-2.078 I0.01 J0.162
X-32.545 Y-51.362 Z-2.139 I-0.01 J-0.162
X-32.524 Y-51.038 Z-2.2 I0.01 J0.162
X-32.545 Y-51.362 Z-2.261 I-0.01 J-0.162
X-32.524 Y-51.038 Z-2.322 I0.01 J0.162
X-32.545 Y-51.362 Z-2.383 I-0.01 J-0.162
X-32.524 Y-51.038 Z-2.444 I0.01 J0.162
X-32.545 Y-51.362 Z-2.506 I-0.01 J-0.162
X-32.524 Y-51.038 Z-2.567 I0.01 J0.162
X-32.545 Y-51.362 Z-2.628 I-0.01 J-0.162
X-32.524 Y-51.038 Z-2.689 I0.01 J0.162
X-32.545 Y-51.362 Z-2.75 I-0.01 J-0.162
X-32.524 Y-51.038 Z-2.811 I0.01 J0.162
X-32.545 Y-51.362 Z-2.872 I-0.01 J-0.162
X-32.524 Y-51.038 Z-2.933 I0.01 J0.162
X-32.545 Y-51.362 Z-2.994 I-0.01 J-0.162
X-32.524 Y-51.038 Z-3.056 I0.01 J0.162
X-32.545 Y-51.362 Z-3.117 I-0.01 J-0.162
X-32.524 Y-51.038 Z-3.178 I0.01 J0.162
X-32.545 Y-51.362 Z-3.239 I-0.01 J-0.162
X-32.524 Y-51.038 Z-3.3 I0.01 J0.162
X-32.545 Y-51.362 Z-3.361 I-0.01 J-0.162
X-32.524 Y-51.038 Z-3.422 I0.01 J0.162
X-32.545 Y-51.362 Z-3.483 I-0.01 J-0.162
X-32.524 Y-51.038 Z-3.544 I0.01 J0.162
X-32.545 Y-51.362 Z-3.606 I-0.01 J-0.162
X-32.524 Y-51.038 Z-3.667 I0.01 J0.162
X-32.545 Y-51.362 Z-3.728 I-0.01 J-0.162
X-32.524 Y-51.038 Z-3.789 I0.01 J0.162
X-32.545 Y-51.362 Z-3.85 I-0.01 J-0.162
X-32.524 Y-51.038 Z-3.911 I0.01 J0.162
X-32.545 Y-51.362 Z-3.972 I-0.01 J-0.162
X-32.524 Y-51.038 Z-4.033 I0.01 J0.162
X-32.545 Y-51.362 Z-4.094 I-0.01 J-0.162
X-32.524 Y-51.038 Z-4.156 I0.01 J0.162
X-32.545 Y-51.362 Z-4.217 I-0.01 J-0.162
X-32.524 Y-51.038 Z-4.278 I0.01 J0.162
X-32.545 Y-51.362 Z-4.339 I-0.01 J-0.162
X-32.524 Y-51.038 Z-4.4 I0.01 J0.162
X-32.545 Y-51.362 Z-4.461 I-0.01 J-0.162
X-32.524 Y-51.038 Z-4.522 I0.01 J0.162
X-32.545 Y-51.362 Z-4.583 I-0.01 J-0.162
X-32.524 Y-51.038 Z-4.644 I0.01 J0.162
X-32.545 Y-51.362 Z-4.706 I-0.01 J-0.162
X-32.524 Y-51.038 Z-4.767 I0.01 J0.162
X-32.545 Y-51.362 Z-4.828 I-0.01 J-0.162
X-32.524 Y-51.038 Z-4.889 I0.01 J0.162
X-32.545 Y-51.362 Z-4.95 I-0.01 J-0.162
X-32.524 Y-51.038 Z-5.011 I0.01 J0.162
X-32.545 Y-51.362 Z-5.072 I-0.01 J-0.162
X-32.524 Y-51.038 Z-5.133 I0.01 J0.162
X-32.545 Y-51.362 Z-5.194 I-0.01 J-0.162
X-32.524 Y-51.038 Z-5.256 I0.01 J0.162
X-32.545 Y-51.362 Z-5.317 I-0.01 J-0.162
X-32.524 Y-51.038 Z-5.378 I0.01 J0.162
X-32.545 Y-51.362 Z-5.439 I-0.01 J-0.162
X-32.524 Y-51.038 Z-5.5 I0.01 J0.162
X-32.545 Y-51.362 Z-5.561 I-0.01 J-0.162
X-32.524 Y-51.038 Z-5.622 I0.01 J0.162
X-32.545 Y-51.362 Z-5.683 I-0.01 J-0.162
X-32.524 Y-51.038 Z-5.744 I0.01 J0.162
X-32.545 Y-51.362 Z-5.806 I-0.01 J-0.162
X-32.524 Y-51.038 Z-5.867 I0.01 J0.162
X-32.545 Y-51.362 Z-5.928 I-0.01 J-0.162
X-32.524 Y-51.038 Z-5.989 I0.01 J0.162
X-32.545 Y-51.362 Z-6.05 I-0.01 J-0.162
X-32.524 Y-51.038 Z-6.111 I0.01 J0.162
X-32.545 Y-51.362 Z-6.172 I-0.01 J-0.162
X-32.524 Y-51.038 Z-6.233 I0.01 J0.162
X-32.696 Y-51.213 Z-6.267 I-0.01 J-0.162
X-32.499 Y-51.358 Z-6.3 I0.162 J0.013
X-32.57 Y-51.041 I-0.036 J0.159
X-32.499 Y-51.358 I0.036 J-0.159
G1 X-32.47 Y-51.346 F1016
X-32.448 Y-51.323
X-32.437 Y-51.293
Y-51.261
X-32.472 Y-51.106
Z5 F1500
X-14.493 Y-52.4
Z1.683
Z0 F1016
X-14.483 Y-52.241
X-14.487 Y-52.21
X-14.503 Y-52.182
X-14.528 Y-52.163
X-14.559 Y-52.155
G3 X-14.579 Y-52.479 Z-0.061 I-0.01 J-0.162 F1500
X-14.559 Y-52.155 Z-0.122 I0.01 J0.162
X-14.579 Y-52.479 Z-0.183 I-0.01 J-0.162
X-14.559 Y-52.155 Z-0.244 I0.01 J0.162
X-14.579 Y-52.479 Z-0.306 I-0.01 J-0.162
X-14.559 Y-52.155 Z-0.367 I0.01 J0.162
X-14.579 Y-52.479 Z-0.428 I-0.01 J-0.162
X-14.559 Y-52.155 Z-0.489 I0.01 J0.162
X-14.579 Y-52.479 Z-0.55 I-0.01 J-0.162
X-14.559 Y-52.155 Z-0.611 I0.01 J0.162
X-14.579 Y-52.479 Z-0.672 I-0.01 J-0.162
X-14.559 Y-52.155 Z-0.733 I0.01 J0.162
X-14.579 Y-52.479 Z-0.794 I-0.01 J-0.162
X-14.559 Y-52.155 Z-0.856 I0.01 J0.162
X-14.579 Y-52.479 Z-0.917 I-0.01 J-0.162
X-14.559 Y-52.155 Z-0.978 I0.01 J0.162
X-14.579 Y-52.479 Z-1.039 I-0.01 J-0.162
X-14.559 Y-52.155 Z-1.1 I0.01 J0.162
X-14.579 Y-52.479 Z-1.161 I-0.01 J-0.162
X-14.559 Y-52.155 Z-1.222 I0.01 J0.162
X-14.579 Y-52.479 Z-1.283 I-0.01 J-0.162
X-14.559 Y-52.155 Z-1.344 I0.01 J0.162
X-14.579 Y-52.479 Z-1.406 I-0.01 J-0.162
X-14.559 Y-52.155 Z-1.467 I0.01 J0.162
X-14.579 Y-52.479 Z-1.528 I-0.01 J-0.162
X-14.559 Y-52.155 Z-1.589 I0.01 J0.162
X-14.579 Y-52.479 Z-1.65 I-0.01 J-0.162
X-14.559 Y-52.155 Z-1.711 I0.01 J0.162
X-14.579 Y-52.479 Z-1.772 I-0.01 J-0.162
X-14.559 Y-52.155 Z-1.833 I0.01 J0.162
X-14.579 Y-52.479 Z-1.894 I-0.01 J-0.162
X-14.559 Y-52.155 Z-1.956 I0.01 J0.162
X-14.579 Y-52.479 Z-2.017 I-0.01 J-0.162
X-14.559 Y-52.155 Z-2.078 I0.01 J0.162
X-14.579 Y-52.479 Z-2.139 I-0.01 J-0.162
X-14.559 Y-52.155 Z-2.2 I0.01 J0.162
X-14.579 Y-52.479 Z-2.261 I-0.01 J-0.162
X-14.559 Y-52.155 Z-2.322 I0.01 J0.162
X-14.579 Y-52.479 Z-2.383 I-0.01 J-0.162
X-14.559 Y-52.155 Z-2.444 I0.01 J0.162
X-14.579 Y-52.479 Z-2.506 I-0.01 J-0.162
X-14.559 Y-52.155 Z-2.567 I0.01 J0.162
X-14.579 Y-52.479 Z-2.628 I-0.01 J-0.162
X-14.559 Y-52.155 Z-2.689 I0.01 J0.162
X-14.579 Y-52.479 Z-2.75 I-0.01 J-0.162
X-14.559 Y-52.155 Z-2.811 I0.01 J0.162
X-14.579 Y-52.479 Z-2.872 I-0.01 J-0.162
X-14.559 Y-52.155 Z-2.933 I0.01 J0.162
X-14.579 Y-52.479 Z-2.994 I-0.01 J-0.162
X-14.559 Y-52.155 Z-3.056 I0.01 J0.162
X-14.579 Y-52.479 Z-3.117 I-0.01 J-0.162
X-14.559 Y-52.155 Z-3.178 I0.01 J0.162
X-14.579 Y-52.479 Z-3.239 I-0.01 J-0.162
X-14.559 Y-52.155 Z-3.3 I0.01 J0.162
X-14.579 Y-52.479 Z-3.361 I-0.01 J-0.162
X-14.559 Y-52.155 Z-3.422 I0.01 J0.162
X-14.579 Y-52.479 Z-3.483 I-0.01 J-0.162
X-14.559 Y-52.155 Z-3.544 I0.01 J0.162
X-14.579 Y-52.479 Z-3.606 I-0.01 J-0.162
X-14.559 Y-52.155 Z-3.667 I0.01 J0.162
X-14.579 Y-52.479 Z-3.728 I-0.01 J-0.162
X-14.559 Y-52.155 Z-3.789 I0.01 J0.162
X-14.579 Y-52.479 Z-3.85 I-0.01 J-0.162
X-14.559 Y-52.155 Z-3.911 I0.01 J0.162
X-14.579 Y-52.479 Z-3.972 I-0.01 J-0.162
X-14.559 Y-52.155 Z-4.033 I0.01 J0.162
X-14.579 Y-52.479 Z-4.094 I-0.01 J-0.162
X-14.559 Y-52.155 Z-4.156 I0.01 J0.162
X-14.579 Y-52.479 Z-4.217 I-0.01 J-0.162
X-14.559 Y-52.155 Z-4.278 I0.01 J0.162
X-14.579 Y-52.479 Z-4.339 I-0.01 J-0.162
X-14.559 Y-52.155 Z-4.4 I0.01 J0.162
X-14.579 Y-52.479 Z-4.461 I-0.01 J-0.162
X-14.559 Y-52.155 Z-4.522 I0.01 J0.162
X-14.579 Y-52.479 Z-4.583 I-0.01 J-0.162
X-14.559 Y-52.155 Z-4.644 I0.01 J0.162
X-14.579 Y-52.479 Z-4.706 I-0.01 J-0.162
X-14.559 Y-52.155 Z-4.767 I0.01 J0.162
X-14.579 Y-52.479 Z-4.828 I-0.01 J-0.162
X-14.559 Y-52.155 Z-4.889 I0.01 J0.162
X-14.579 Y-52.479 Z-4.95 I-0.01 J-0.162
X-14.559 Y-52.155 Z-5.011 I0.01 J0.162
X-14.579 Y-52.479 Z-5.072 I-0.01 J-0.162
X-14.559 Y-52.155 Z-5.133 I0.01 J0.162
X-14.579 Y-52.479 Z-5.194 I-0.01 J-0.162
X-14.559 Y-52.155 Z-5.256 I0.01 J0.162
X-14.579 Y-52.479 Z-5.317 I-0.01 J-0.162
X-14.559 Y-52.155 Z-5.378 I0.01 J0.162
X-14.579 Y-52.479 Z-5.439 I-0.01 J-0.162
X-14.559 Y-52.155 Z-5.5 I0.01 J0.162
X-14.579 Y-52.479 Z-5.561 I-0.01 J-0.162
X-14.559 Y-52.155 Z-5.622 I0.01 J0.162
X-14.579 Y-52.479 Z-5.683 I-0.01 J-0.162
X-14.559 Y-52.155 Z-5.744 I0.01 J0.162
X-14.579 Y-52.479 Z-5.806 I-0.01 J-0.162
X-14.559 Y-52.155 Z-5.867 I0.01 J0.162
X-14.579 Y-52.479 Z-5.928 I-0.01 J-0.162
X-14.559 Y-52.155 Z-5.989 I0.01 J0.162
X-14.579 Y-52.479 Z-6.05 I-0.01 J-0.162
X-14.559 Y-52.155 Z-6.111 I0.01 J0.162
X-14.579 Y-52.479 Z-6.172 I-0.01 J-0.162
X-14.559 Y-52.155 Z-6.233 I0.01 J0.162
X-14.731 Y-52.33 Z-6.267 I-0.01 J-0.162
X-14.533 Y-52.476 Z-6.3 I0.162 J0.013
X-14.605 Y-52.159 I-0.036 J0.159
X-14.533 Y-52.476 I0.036 J-0.159
G1 X-14.504 Y-52.463 F1016
X-14.483 Y-52.44
X-14.471 Y-52.41
X-14.472 Y-52.379
X-14.507 Y-52.224
Z5 F1500
X-23.209 Y-83.46
Z2
Z0.317 F1016
Y-83.468 Z0.247
X-23.211 Y-83.491 Z0.18
X-23.213 Y-83.529 Z0.12
X-23.216 Y-83.579 Z0.069
X-23.22 Y-83.639 Z0.031
X-23.224 Y-83.706 Z0.008
X-23.228 Y-83.777 Z0
X-23.238 Y-83.935
G3 X-22.941 Y-84.272 I0.317 J-0.02
X-22.518 Y-77.46 Z-0.175 I0.212 J3.406 F1500
X-22.941 Y-84.272 Z-0.349 I-0.212 J-3.406
X-22.518 Y-77.46 Z-0.524 I0.212 J3.406
X-22.941 Y-84.272 Z-0.698 I-0.212 J-3.406
X-22.518 Y-77.46 Z-0.873 I0.212 J3.406
X-22.941 Y-84.272 Z-1.048 I-0.212 J-3.406
X-22.518 Y-77.46 Z-1.222 I0.212 J3.406
X-22.941 Y-84.272 Z-1.397 I-0.212 J-3.406
X-22.518 Y-77.46 Z-1.571 I0.212 J3.406
X-22.941 Y-84.272 Z-1.746 I-0.212 J-3.406
X-22.518 Y-77.46 Z-1.921 I0.212 J3.406
X-22.941 Y-84.272 Z-2.095 I-0.212 J-3.406
X-22.518 Y-77.46 Z-2.27 I0.212 J3.406
X-22.941 Y-84.272 Z-2.444 I-0.212 J-3.406
X-22.518 Y-77.46 Z-2.619 I0.212 J3.406
X-22.941 Y-84.272 Z-2.794 I-0.212 J-3.406
X-22.518 Y-77.46 Z-2.968 I0.212 J3.406
X-22.941 Y-84.272 Z-3.143 I-0.212 J-3.406
X-22.518 Y-77.46 Z-3.317 I0.212 J3.406
X-22.941 Y-84.272 Z-3.492 I-0.212 J-3.406
X-22.518 Y-77.46 Z-3.667 I0.212 J3.406
X-22.941 Y-84.272 Z-3.841 I-0.212 J-3.406
X-22.518 Y-77.46 Z-4.016 I0.212 J3.406
X-22.941 Y-84.272 Z-4.19 I-0.212 J-3.406
X-22.518 Y-77.46 Z-4.365 I0.212 J3.406
X-22.941 Y-84.272 Z-4.54 I-0.212 J-3.406
X-22.518 Y-77.46 Z-4.714 I0.212 J3.406
X-22.941 Y-84.272 Z-4.889 I-0.212 J-3.406
X-22.518 Y-77.46 Z-5.064 I0.212 J3.406
X-22.941 Y-84.272 Z-5.238 I-0.212 J-3.406
X-22.518 Y-77.46 Z-5.413 I0.212 J3.406
X-22.941 Y-84.272 Z-5.587 I-0.212 J-3.406
X-22.518 Y-77.46 Z-5.762 I0.212 J3.406
X-22.941 Y-84.272 Z-5.937 I-0.212 J-3.406
X-22.518 Y-77.46 Z-6.111 I0.212 J3.406
X-26.134 Y-81.091 Z-6.206 I-0.212 J-3.406
X-22.07 Y-84.214 Z-6.3 I3.405 J0.226
X-23.389 Y-77.518 I-0.66 J3.348
X-22.07 Y-84.214 I0.66 J-3.348
X-21.82 Y-83.841 I-0.061 J0.312 F1016
G1 X-21.85 Y-83.685
X-21.864 Y-83.616 Z-6.292
X-21.877 Y-83.55 Z-6.269
X-21.889 Y-83.491 Z-6.231
X-21.898 Y-83.442 Z-6.18
X-21.906 Y-83.405 Z-6.12
X-21.91 Y-83.382 Z-6.053
X-21.912 Y-83.374 Z-5.983
Z5 F1500
X-32.066 Y-109.419
Z1.683
Z0 F1016
X-32.056 Y-109.26
X-32.06 Y-109.229
X-32.076 Y-109.202
X-32.102 Y-109.182
X-32.132 Y-109.174
G3 X-32.152 Y-109.499 Z-0.061 I-0.01 J-0.162 F1500
X-32.132 Y-109.174 Z-0.122 I0.01 J0.162
X-32.152 Y-109.499 Z-0.183 I-0.01 J-0.162
X-32.132 Y-109.174 Z-0.244 I0.01 J0.162
X-32.152 Y-109.499 Z-0.306 I-0.01 J-0.162
X-32.132 Y-109.174 Z-0.367 I0.01 J0.162
X-32.152 Y-109.499 Z-0.428 I-0.01 J-0.162
X-32.132 Y-109.174 Z-0.489 I0.01 J0.162
X-32.152 Y-109.499 Z-0.55 I-0.01 J-0.162
X-32.132 Y-109.174 Z-0.611 I0.01 J0.162
X-32.152 Y-109.499 Z-0.672 I-0.01 J-0.162
X-32.132 Y-109.174 Z-0.733 I0.01 J0.162
X-32.152 Y-109.499 Z-0.794 I-0.01 J-0.162
X-32.132 Y-109.174 Z-0.856 I0.01 J0.162
X-32.152 Y-109.499 Z-0.917 I-0.01 J-0.162
X-32.132 Y-109.174 Z-0.978 I0.01 J0.162
X-32.152 Y-109.499 Z-1.039 I-0.01 J-0.162
X-32.132 Y-109.174 Z-1.1 I0.01 J0.162
X-32.152 Y-109.499 Z-1.161 I-0.01 J-0.162
X-32.132 Y-109.174 Z-1.222 I0.01 J0.162
X-32.152 Y-109.499 Z-1.283 I-0.01 J-0.162
X-32.132 Y-109.174 Z-1.344 I0.01 J0.162
X-32.152 Y-109.499 Z-1.406 I-0.01 J-0.162
X-32.132 Y-109.174 Z-1.467 I0.01 J0.162
X-32.152 Y-109.499 Z-1.528 I-0.01 J-0.162
X-32.132 Y-109.174 Z-1.589 I0.01 J0.162
X-32.152 Y-109.499 Z-1.65 I-0.01 J-0.162
X-32.132 Y-109.174 Z-1.711 I0.01 J0.162
X-32.152 Y-109.499 Z-1.772 I-0.01 J-0.162
X-32.132 Y-109.174 Z-1.833 I0.01 J0.162
X-32.152 Y-109.499 Z-1.894 I-0.01 J-0.162
X-32.132 Y-109.174 Z-1.956 I0.01 J0.162
X-32.152 Y-109.499 Z-2.017 I-0.01 J-0.162
X-32.132 Y-109.174 Z-2.078 I0.01 J0.162
X-32.152 Y-109.499 Z-2.139 I-0.01 J-0.162
X-32.132 Y-109.174 Z-2.2 I0.01 J0.162
X-32.152 Y-109.499 Z-2.261 I-0.01 J-0.162
X-32.132 Y-109.174 Z-2.322 I0.01 J0.162
X-32.152 Y-109.499 Z-2.383 I-0.01 J-0.162
X-32.132 Y-109.174 Z-2.444 I0.01 J0.162
X-32.152 Y-109.499 Z-2.506 I-0.01 J-0.162
X-32.132 Y-109.174 Z-2.567 I0.01 J0.162
X-32.152 Y-109.499 Z-2.628 I-0.01 J-0.162
X-32.132 Y-109.174 Z-2.689 I0.01 J0.162
X-32.152 Y-109.499 Z-2.75 I-0.01 J-0.162
X-32.132 Y-109.174 Z-2.811 I0.01 J0.162
X-32.152 Y-109.499 Z-2.872 I-0.01 J-0.162
X-32.132 Y-109.174 Z-2.933 I0.01 J0.162
X-32.152 Y-109.499 Z-2.994 I-0.01 J-0.162
X-32.132 Y-109.174 Z-3.056 I0.01 J0.162
X-32.152 Y-109.499 Z-3.117 I-0.01 J-0.162
X-32.132 Y-109.174 Z-3.178 I0.01 J0.162
X-32.152 Y-109.499 Z-3.239 I-0.01 J-0.162
X-32.132 Y-109.174 Z-3.3 I0.01 J0.162
X-32.152 Y-109.499 Z-3.361 I-0.01 J-0.162
X-32.132 Y-109.174 Z-3.422 I0.01 J0.162
X-32.152 Y-109.499 Z-3.483 I-0.01 J-0.162
X-32.132 Y-109.174 Z-3.544 I0.01 J0.162
X-32.152 Y-109.499 Z-3.606 I-0.01 J-0.162
X-32.132 Y-109.174 Z-3.667 I0.01 J0.162
X-32.152 Y-109.499 Z-3.728 I-0.01 J-0.162
X-32.132 Y-109.174 Z-3.789 I0.01 J0.162
X-32.152 Y-109.499 Z-3.85 I-0.01 J-0.162
X-32.132 Y-109.174 Z-3.911 I0.01 J0.162
X-32.152 Y-109.499 Z-3.972 I-0.01 J-0.162
X-32.132 Y-109.174 Z-4.033 I0.01 J0.162
X-32.152 Y-109.499 Z-4.094 I-0.01 J-0.162
X-32.132 Y-109.174 Z-4.156 I0.01 J0.162
X-32.152 Y-109.499 Z-4.217 I-0.01 J-0.162
X-32.132 Y-109.174 Z-4.278 I0.01 J0.162
X-32.152 Y-109.499 Z-4.339 I-0.01 J-0.162
X-32.132 Y-109.174 Z-4.4 I0.01 J0.162
X-32.152 Y-109.499 Z-4.461 I-0.01 J-0.162
X-32.132 Y-109.174 Z-4.522 I0.01 J0.162
X-32.152 Y-109.499 Z-4.583 I-0.01 J-0.162
X-32.132 Y-109.174 Z-4.644 I0.01 J0.162
X-32.152 Y-109.499 Z-4.706 I-0.01 J-0.162
X-32.132 Y-109.174 Z-4.767 I0.01 J0.162
X-32.152 Y-109.499 Z-4.828 I-0.01 J-0.162
X-32.132 Y-109.174 Z-4.889 I0.01 J0.162
X-32.152 Y-109.499 Z-4.95 I-0.01 J-0.162
X-32.132 Y-109.174 Z-5.011 I0.01 J0.162
X-32.152 Y-109.499 Z-5.072 I-0.01 J-0.162
X-32.132 Y-109.174 Z-5.133 I0.01 J0.162
X-32.152 Y-109.499 Z-5.194 I-0.01 J-0.162
X-32.132 Y-109.174 Z-5.256 I0.01 J0.162
X-32.152 Y-109.499 Z-5.317 I-0.01 J-0.162
X-32.132 Y-109.174 Z-5.378 I0.01 J0.162
X-32.152 Y-109.499 Z-5.439 I-0.01 J-0.162
X-32.132 Y-109.174 Z-5.5 I0.01 J0.162
X-32.152 Y-109.499 Z-5.561 I-0.01 J-0.162
X-32.132 Y-109.174 Z-5.622 I0.01 J0.162
X-32.152 Y-109.499 Z-5.683 I-0.01 J-0.162
X-32.132 Y-109.174 Z-5.744 I0.01 J0.162
X-32.152 Y-109.499 Z-5.806 I-0.01 J-0.162
X-32.132 Y-109.174 Z-5.867 I0.01 J0.162
X-32.152 Y-109.499 Z-5.928 I-0.01 J-0.162
X-32.132 Y-109.174 Z-5.989 I0.01 J0.162
X-32.152 Y-109.499 Z-6.05 I-0.01 J-0.162
X-32.132 Y-109.174 Z-6.111 I0.01 J0.162
X-32.152 Y-109.499 Z-6.172 I-0.01 J-0.162
X-32.132 Y-109.174 Z-6.233 I0.01 J0.162
X-32.304 Y-109.349 Z-6.267 I-0.01 J-0.162
X-32.106 Y-109.495 Z-6.3 I0.162 J0.013
X-32.178 Y-109.178 I-0.036 J0.159
X-32.106 Y-109.495 I0.036 J-0.159
G1 X-32.077 Y-109.482 F1016
X-32.056 Y-109.459
X-32.044 Y-109.429
X-32.045 Y-109.398
X-32.08 Y-109.243
Z5 F1500
X-14.101 Y-110.536
Z1.683
Z0 F1016
X-14.091 Y-110.378
X-14.095 Y-110.346
X-14.111 Y-110.319
X-14.136 Y-110.3
X-14.167 Y-110.291
G3 X-14.187 Y-110.616 Z-0.061 I-0.01 J-0.162 F1500
X-14.167 Y-110.291 Z-0.122 I0.01 J0.162
X-14.187 Y-110.616 Z-0.183 I-0.01 J-0.162
X-14.167 Y-110.291 Z-0.244 I0.01 J0.162
X-14.187 Y-110.616 Z-0.306 I-0.01 J-0.162
X-14.167 Y-110.291 Z-0.367 I0.01 J0.162
X-14.187 Y-110.616 Z-0.428 I-0.01 J-0.162
X-14.167 Y-110.291 Z-0.489 I0.01 J0.162
X-14.187 Y-110.616 Z-0.55 I-0.01 J-0.162
X-14.167 Y-110.291 Z-0.611 I0.01 J0.162
X-14.187 Y-110.616 Z-0.672 I-0.01 J-0.162
X-14.167 Y-110.291 Z-0.733 I0.01 J0.162
X-14.187 Y-110.616 Z-0.794 I-0.01 J-0.162
X-14.167 Y-110.291 Z-0.856 I0.01 J0.162
X-14.187 Y-110.616 Z-0.917 I-0.01 J-0.162
X-14.167 Y-110.291 Z-0.978 I0.01 J0.162
X-14.187 Y-110.616 Z-1.039 I-0.01 J-0.162
X-14.167 Y-110.291 Z-1.1 I0.01 J0.162
X-14.187 Y-110.616 Z-1.161 I-0.01 J-0.162
X-14.167 Y-110.291 Z-1.222 I0.01 J0.162
X-14.187 Y-110.616 Z-1.283 I-0.01 J-0.162
X-14.167 Y-110.291 Z-1.344 I0.01 J0.162
X-14.187 Y-110.616 Z-1.406 I-0.01 J-0.162
X-14.167 Y-110.291 Z-1.467 I0.01 J0.162
X-14.187 Y-110.616 Z-1.528 I-0.01 J-0.162
X-14.167 Y-110.291 Z-1.589 I0.01 J0.162
X-14.187 Y-110.616 Z-1.65 I-0.01 J-0.162
X-14.167 Y-110.291 Z-1.711 I0.01 J0.162
X-14.187 Y-110.616 Z-1.772 I-0.01 J-0.162
X-14.167 Y-110.291 Z-1.833 I0.01 J0.162
X-14.187 Y-110.616 Z-1.894 I-0.01 J-0.162
X-14.167 Y-110.291 Z-1.956 I0.01 J0.162
X-14.187 Y-110.616 Z-2.017 I-0.01 J-0.162
X-14.167 Y-110.291 Z-2.078 I0.01 J0.162
X-14.187 Y-110.616 Z-2.139 I-0.01 J-0.162
X-14.167 Y-110.291 Z-2.2 I0.01 J0.162
X-14.187 Y-110.616 Z-2.261 I-0.01 J-0.162
X-14.167 Y-110.291 Z-2.322 I0.01 J0.162
X-14.187 Y-110.616 Z-2.383 I-0.01 J-0.162
X-14.167 Y-110.291 Z-2.444 I0.01 J0.162
X-14.187 Y-110.616 Z-2.506 I-0.01 J-0.162
X-14.167 Y-110.291 Z-2.567 I0.01 J0.162
X-14.187 Y-110.616 Z-2.628 I-0.01 J-0.162
X-14.167 Y-110.291 Z-2.689 I0.01 J0.162
X-14.187 Y-110.616 Z-2.75 I-0.01 J-0.162
X-14.167 Y-110.291 Z-2.811 I0.01 J0.162
X-14.187 Y-110.616 Z-2.872 I-0.01 J-0.162
X-14.167 Y-110.291 Z-2.933 I0.01 J0.162
X-14.187 Y-110.616 Z-2.994 I-0.01 J-0.162
X-14.167 Y-110.291 Z-3.056 I0.01 J0.162
X-14.187 Y-110.616 Z-3.117 I-0.01 J-0.162
X-14.167 Y-110.291 Z-3.178 I0.01 J0.162
X-14.187 Y-110.616 Z-3.239 I-0.01 J-0.162
X-14.167 Y-110.291 Z-3.3 I0.01 J0.162
X-14.187 Y-110.616 Z-3.361 I-0.01 J-0.162
X-14.167 Y-110.291 Z-3.422 I0.01 J0.162
X-14.187 Y-110.616 Z-3.483 I-0.01 J-0.162
X-14.167 Y-110.291 Z-3.544 I0.01 J0.162
X-14.187 Y-110.616 Z-3.606 I-0.01 J-0.162
X-14.167 Y-110.291 Z-3.667 I0.01 J0.162
X-14.187 Y-110.616 Z-3.728 I-0.01 J-0.162
X-14.167 Y-110.291 Z-3.789 I0.01 J0.162
X-14.187 Y-110.616 Z-3.85 I-0.01 J-0.162
X-14.167 Y-110.291 Z-3.911 I0.01 J0.162
X-14.187 Y-110.616 Z-3.972 I-0.01 J-0.162
X-14.167 Y-110.291 Z-4.033 I0.01 J0.162
X-14.187 Y-110.616 Z-4.094 I-0.01 J-0.162
X-14.167 Y-110.291 Z-4.156 I0.01 J0.162
X-14.187 Y-110.616 Z-4.217 I-0.01 J-0.162
X-14.167 Y-110.291 Z-4.278 I0.01 J0.162
X-14.187 Y-110.616 Z-4.339 I-0.01 J-0.162
X-14.167 Y-110.291 Z-4.4 I0.01 J0.162
X-14.187 Y-110.616 Z-4.461 I-0.01 J-0.162
X-14.167 Y-110.291 Z-4.522 I0.01 J0.162
X-14.187 Y-110.616 Z-4.583 I-0.01 J-0.162
X-14.167 Y-110.291 Z-4.644 I0.01 J0.162
X-14.187 Y-110.616 Z-4.706 I-0.01 J-0.162
X-14.167 Y-110.291 Z-4.767 I0.01 J0.162
X-14.187 Y-110.616 Z-4.828 I-0.01 J-0.162
X-14.167 Y-110.291 Z-4.889 I0.01 J0.162
X-14.187 Y-110.616 Z-4.95 I-0.01 J-0.162
X-14.167 Y-110.291 Z-5.011 I0.01 J0.162
X-14.187 Y-110.616 Z-5.072 I-0.01 J-0.162
X-14.167 Y-110.291 Z-5.133 I0.01 J0.162
X-14.187 Y-110.616 Z-5.194 I-0.01 J-0.162
X-14.167 Y-110.291 Z-5.256 I0.01 J0.162
X-14.187 Y-110.616 Z-5.317 I-0.01 J-0.162
X-14.167 Y-110.291 Z-5.378 I0.01 J0.162
X-14.187 Y-110.616 Z-5.439 I-0.01 J-0.162
X-14.167 Y-110.291 Z-5.5 I0.01 J0.162
X-14.187 Y-110.616 Z-5.561 I-0.01 J-0.162
X-14.167 Y-110.291 Z-5.622 I0.01 J0.162
X-14.187 Y-110.616 Z-5.683 I-0.01 J-0.162
X-14.167 Y-110.291 Z-5.744 I0.01 J0.162
X-14.187 Y-110.616 Z-5.806 I-0.01 J-0.162
X-14.167 Y-110.291 Z-5.867 I0.01 J0.162
X-14.187 Y-110.616 Z-5.928 I-0.01 J-0.162
X-14.167 Y-110.291 Z-5.989 I0.01 J0.162
X-14.187 Y-110.616 Z-6.05 I-0.01 J-0.162
X-14.167 Y-110.291 Z-6.111 I0.01 J0.162
X-14.187 Y-110.616 Z-6.172 I-0.01 J-0.162
X-14.167 Y-110.291 Z-6.233 I0.01 J0.162
X-14.339 Y-110.467 Z-6.267 I-0.01 J-0.162
X-14.141 Y-110.612 Z-6.3 I0.162 J0.013
X-14.213 Y-110.295 I-0.036 J0.159
X-14.141 Y-110.612 I0.036 J-0.159
G1 X-14.112 Y-110.599 F1016
X-14.09 Y-110.576
X-14.079 Y-110.547
X-14.08 Y-110.515
X-14.115 Y-110.36
Z5 F1500
X-186.018 Y-97.143
Z2
Z0.317 F1016
Y-97.135 Z0.247
X-186.016 Y-97.112 Z0.18
X-186.014 Y-97.074 Z0.12
X-186.011 Y-97.024 Z0.069
X-186.007 Y-96.964 Z0.031
X-186.003 Y-96.897 Z0.008
X-185.999 Y-96.826 Z0
X-185.989 Y-96.668
G3 X-186.286 Y-96.331 I-0.317 J0.02
X-186.71 Y-103.143 Z-0.175 I-0.212 J-3.406 F1500
X-186.286 Y-96.331 Z-0.349 I0.212 J3.406
X-186.71 Y-103.143 Z-0.524 I-0.212 J-3.406
X-186.286 Y-96.331 Z-0.698 I0.212 J3.406
X-186.71 Y-103.143 Z-0.873 I-0.212 J-3.406
X-186.286 Y-96.331 Z-1.048 I0.212 J3.406
X-186.71 Y-103.143 Z-1.222 I-0.212 J-3.406
X-186.286 Y-96.331 Z-1.397 I0.212 J3.406
X-186.71 Y-103.143 Z-1.571 I-0.212 J-3.406
X-186.286 Y-96.331 Z-1.746 I0.212 J3.406
X-186.71 Y-103.143 Z-1.921 I-0.212 J-3.406
X-186.286 Y-96.331 Z-2.095 I0.212 J3.406
X-186.71 Y-103.143 Z-2.27 I-0.212 J-3.406
X-186.286 Y-96.331 Z-2.444 I0.212 J3.406
X-186.71 Y-103.143 Z-2.619 I-0.212 J-3.406
X-186.286 Y-96.331 Z-2.794 I0.212 J3.406
X-186.71 Y-103.143 Z-2.968 I-0.212 J-3.406
X-186.286 Y-96.331 Z-3.143 I0.212 J3.406
X-186.71 Y-103.143 Z-3.317 I-0.212 J-3.406
X-186.286 Y-96.331 Z-3.492 I0.212 J3.406
X-186.71 Y-103.143 Z-3.667 I-0.212 J-3.406
X-186.286 Y-96.331 Z-3.841 I0.212 J3.406
X-186.71 Y-103.143 Z-4.016 I-0.212 J-3.406
X-186.286 Y-96.331 Z-4.19 I0.212 J3.406
X-186.71 Y-103.143 Z-4.365 I-0.212 J-3.406
X-186.286 Y-96.331 Z-4.54 I0.212 J3.406
X-186.71 Y-103.143 Z-4.714 I-0.212 J-3.406
X-186.286 Y-96.331 Z-4.889 I0.212 J3.406
X-186.71 Y-103.143 Z-5.064 I-0.212 J-3.406
X-186.286 Y-96.331 Z-5.238 I0.212 J3.406
X-186.71 Y-103.143 Z-5.413 I-0.212 J-3.406
X-186.286 Y-96.331 Z-5.587 I0.212 J3.406
X-186.71 Y-103.143 Z-5.762 I-0.212 J-3.406
X-186.286 Y-96.331 Z-5.937 I0.212 J3.406
X-186.71 Y-103.143 Z-6.111 I-0.212 J-3.406
X-183.093 Y-99.511 Z-6.206 I0.212 J3.406
X-187.157 Y-96.389 Z-6.3 I-3.405 J-0.226
X-185.838 Y-103.085 I0.66 J-3.348
X-187.157 Y-96.389 I-0.66 J3.348
X-187.408 Y-96.762 I0.061 J-0.312 F1016
G1 X-187.377 Y-96.918
X-187.363 Y-96.987 Z-6.292
X-187.35 Y-97.053 Z-6.269
X-187.339 Y-97.112 Z-6.231
X-187.329 Y-97.161 Z-6.18
X-187.322 Y-97.198 Z-6.12
X-187.317 Y-97.221 Z-6.053
X-187.316 Y-97.229 Z-5.983
Z5 F1500
X-177.161 Y-71.184
Z1.683
Z0 F1016
X-177.171 Y-71.343
X-177.167 Y-71.374
X-177.151 Y-71.401
X-177.126 Y-71.421
X-177.095 Y-71.429
G3 X-177.075 Y-71.104 Z-0.061 I0.01 J0.162 F1500
X-177.095 Y-71.429 Z-0.122 I-0.01 J-0.162
X-177.075 Y-71.104 Z-0.183 I0.01 J0.162
X-177.095 Y-71.429 Z-0.244 I-0.01 J-0.162
X-177.075 Y-71.104 Z-0.306 I0.01 J0.162
X-177.095 Y-71.429 Z-0.367 I-0.01 J-0.162
X-177.075 Y-71.104 Z-0.428 I0.01 J0.162
X-177.095 Y-71.429 Z-0.489 I-0.01 J-0.162
X-177.075 Y-71.104 Z-0.55 I0.01 J0.162
X-177.095 Y-71.429 Z-0.611 I-0.01 J-0.162
X-177.075 Y-71.104 Z-0.672 I0.01 J0.162
X-177.095 Y-71.429 Z-0.733 I-0.01 J-0.162
X-177.075 Y-71.104 Z-0.794 I0.01 J0.162
X-177.095 Y-71.429 Z-0.856 I-0.01 J-0.162
X-177.075 Y-71.104 Z-0.917 I0.01 J0.162
X-177.095 Y-71.429 Z-0.978 I-0.01 J-0.162
X-177.075 Y-71.104 Z-1.039 I0.01 J0.162
X-177.095 Y-71.429 Z-1.1 I-0.01 J-0.162
X-177.075 Y-71.104 Z-1.161 I0.01 J0.162
X-177.095 Y-71.429 Z-1.222 I-0.01 J-0.162
X-177.075 Y-71.104 Z-1.283 I0.01 J0.162
X-177.095 Y-71.429 Z-1.344 I-0.01 J-0.162
X-177.075 Y-71.104 Z-1.406 I0.01 J0.162
X-177.095 Y-71.429 Z-1.467 I-0.01 J-0.162
X-177.075 Y-71.104 Z-1.528 I0.01 J0.162
X-177.095 Y-71.429 Z-1.589 I-0.01 J-0.162
X-177.075 Y-71.104 Z-1.65 I0.01 J0.162
X-177.095 Y-71.429 Z-1.711 I-0.01 J-0.162
X-177.075 Y-71.104 Z-1.772 I0.01 J0.162
X-177.095 Y-71.429 Z-1.833 I-0.01 J-0.162
X-177.075 Y-71.104 Z-1.894 I0.01 J0.162
X-177.095 Y-71.429 Z-1.956 I-0.01 J-0.162
X-177.075 Y-71.104 Z-2.017 I0.01 J0.162
X-177.095 Y-71.429 Z-2.078 I-0.01 J-0.162
X-177.075 Y-71.104 Z-2.139 I0.01 J0.162
X-177.095 Y-71.429 Z-2.2 I-0.01 J-0.162
X-177.075 Y-71.104 Z-2.261 I0.01 J0.162
X-177.095 Y-71.429 Z-2.322 I-0.01 J-0.162
X-177.075 Y-71.104 Z-2.383 I0.01 J0.162
X-177.095 Y-71.429 Z-2.444 I-0.01 J-0.162
X-177.075 Y-71.104 Z-2.506 I0.01 J0.162
X-177.095 Y-71.429 Z-2.567 I-0.01 J-0.162
X-177.075 Y-71.104 Z-2.628 I0.01 J0.162
X-177.095 Y-71.429 Z-2.689 I-0.01 J-0.162
X-177.075 Y-71.104 Z-2.75 I0.01 J0.162
X-177.095 Y-71.429 Z-2.811 I-0.01 J-0.162
X-177.075 Y-71.104 Z-2.872 I0.01 J0.162
X-177.095 Y-71.429 Z-2.933 I-0.01 J-0.162
X-177.075 Y-71.104 Z-2.994 I0.01 J0.162
X-177.095 Y-71.429 Z-3.056 I-0.01 J-0.162
X-177.075 Y-71.104 Z-3.117 I0.01 J0.162
X-177.095 Y-71.429 Z-3.178 I-0.01 J-0.162
X-177.075 Y-71.104 Z-3.239 I0.01 J0.162
X-177.095 Y-71.429 Z-3.3 I-0.01 J-0.162
X-177.075 Y-71.104 Z-3.361 I0.01 J0.162
X-177.095 Y-71.429 Z-3.422 I-0.01 J-0.162
X-177.075 Y-71.104 Z-3.483 I0.01 J0.162
X-177.095 Y-71.429 Z-3.544 I-0.01 J-0.162
X-177.075 Y-71.104 Z-3.606 I0.01 J0.162
X-177.095 Y-71.429 Z-3.667 I-0.01 J-0.162
X-177.075 Y-71.104 Z-3.728 I0.01 J0.162
X-177.095 Y-71.429 Z-3.789 I-0.01 J-0.162
X-177.075 Y-71.104 Z-3.85 I0.01 J0.162
X-177.095 Y-71.429 Z-3.911 I-0.01 J-0.162
X-177.075 Y-71.104 Z-3.972 I0.01 J0.162
X-177.095 Y-71.429 Z-4.033 I-0.01 J-0.162
X-177.075 Y-71.104 Z-4.094 I0.01 J0.162
X-177.095 Y-71.429 Z-4.156 I-0.01 J-0.162
X-177.075 Y-71.104 Z-4.217 I0.01 J0.162
X-177.095 Y-71.429 Z-4.278 I-0.01 J-0.162
X-177.075 Y-71.104 Z-4.339 I0.01 J0.162
X-177.095 Y-71.429 Z-4.4 I-0.01 J-0.162
X-177.075 Y-71.104 Z-4.461 I0.01 J0.162
X-177.095 Y-71.429 Z-4.522 I-0.01 J-0.162
X-177.075 Y-71.104 Z-4.583 I0.01 J0.162
X-177.095 Y-71.429 Z-4.644 I-0.01 J-0.162
X-177.075 Y-71.104 Z-4.706 I0.01 J0.162
X-177.095 Y-71.429 Z-4.767 I-0.01 J-0.162
X-177.075 Y-71.104 Z-4.828 I0.01 J0.162
X-177.095 Y-71.429 Z-4.889 I-0.01 J-0.162
X-177.075 Y-71.104 Z-4.95 I0.01 J0.162
X-177.095 Y-71.429 Z-5.011 I-0.01 J-0.162
X-177.075 Y-71.104 Z-5.072 I0.01 J0.162
X-177.095 Y-71.429 Z-5.133 I-0.01 J-0.162
X-177.075 Y-71.104 Z-5.194 I0.01 J0.162
X-177.095 Y-71.429 Z-5.256 I-0.01 J-0.162
X-177.075 Y-71.104 Z-5.317 I0.01 J0.162
X-177.095 Y-71.429 Z-5.378 I-0.01 J-0.162
X-177.075 Y-71.104 Z-5.439 I0.01 J0.162
X-177.095 Y-71.429 Z-5.5 I-0.01 J-0.162
X-177.075 Y-71.104 Z-5.561 I0.01 J0.162
X-177.095 Y-71.429 Z-5.622 I-0.01 J-0.162
X-177.075 Y-71.104 Z-5.683 I0.01 J0.162
X-177.095 Y-71.429 Z-5.744 I-0.01 J-0.162
X-177.075 Y-71.104 Z-5.806 I0.01 J0.162
X-177.095 Y-71.429 Z-5.867 I-0.01 J-0.162
X-177.075 Y-71.104 Z-5.928 I0.01 J0.162
X-177.095 Y-71.429 Z-5.989 I-0.01 J-0.162
X-177.075 Y-71.104 Z-6.05 I0.01 J0.162
X-177.095 Y-71.429 Z-6.111 I-0.01 J-0.162
X-177.075 Y-71.104 Z-6.172 I0.01 J0.162
X-177.095 Y-71.429 Z-6.233 I-0.01 J-0.162
X-176.923 Y-71.253 Z-6.267 I0.01 J0.162
X-177.121 Y-71.108 Z-6.3 I-0.162 J-0.013
X-177.049 Y-71.425 I0.036 J-0.159
X-177.121 Y-71.108 I-0.036 J0.159
G1 X-177.15 Y-71.121 F1016
X-177.172 Y-71.144
X-177.183 Y-71.173
X-177.182 Y-71.205
X-177.147 Y-71.36
Z5 F1500
X-195.127 Y-70.067
Z1.683
Z0 F1016
X-195.136 Y-70.225
X-195.132 Y-70.257
X-195.116 Y-70.284
X-195.091 Y-70.303
X-195.06 Y-70.311
G3 X-195.04 Y-69.987 Z-0.061 I0.01 J0.162 F1500
X-195.06 Y-70.311 Z-0.122 I-0.01 J-0.162
X-195.04 Y-69.987 Z-0.183 I0.01 J0.162
X-195.06 Y-70.311 Z-0.244 I-0.01 J-0.162
X-195.04 Y-69.987 Z-0.306 I0.01 J0.162
X-195.06 Y-70.311 Z-0.367 I-0.01 J-0.162
X-195.04 Y-69.987 Z-0.428 I0.01 J0.162
X-195.06 Y-70.311 Z-0.489 I-0.01 J-0.162
X-195.04 Y-69.987 Z-0.55 I0.01 J0.162
X-195.06 Y-70.311 Z-0.611 I-0.01 J-0.162
X-195.04 Y-69.987 Z-0.672 I0.01 J0.162
X-195.06 Y-70.311 Z-0.733 I-0.01 J-0.162
X-195.04 Y-69.987 Z-0.794 I0.01 J0.162
X-195.06 Y-70.311 Z-0.856 I-0.01 J-0.162
X-195.04 Y-69.987 Z-0.917 I0.01 J0.162
X-195.06 Y-70.311 Z-0.978 I-0.01 J-0.162
X-195.04 Y-69.987 Z-1.039 I0.01 J0.162
X-195.06 Y-70.311 Z-1.1 I-0.01 J-0.162
X-195.04 Y-69.987 Z-1.161 I0.01 J0.162
X-195.06 Y-70.311 Z-1.222 I-0.01 J-0.162
X-195.04 Y-69.987 Z-1.283 I0.01 J0.162
X-195.06 Y-70.311 Z-1.344 I-0.01 J-0.162
X-195.04 Y-69.987 Z-1.406 I0.01 J0.162
X-195.06 Y-70.311 Z-1.467 I-0.01 J-0.162
X-195.04 Y-69.987 Z-1.528 I0.01 J0.162
X-195.06 Y-70.311 Z-1.589 I-0.01 J-0.162
X-195.04 Y-69.987 Z-1.65 I0.01 J0.162
X-195.06 Y-70.311 Z-1.711 I-0.01 J-0.162
X-195.04 Y-69.987 Z-1.772 I0.01 J0.162
X-195.06 Y-70.311 Z-1.833 I-0.01 J-0.162
X-195.04 Y-69.987 Z-1.894 I0.01 J0.162
X-195.06 Y-70.311 Z-1.956 I-0.01 J-0.162
X-195.04 Y-69.987 Z-2.017 I0.01 J0.162
X-195.06 Y-70.311 Z-2.078 I-0.01 J-0.162
X-195.04 Y-69.987 Z-2.139 I0.01 J0.162
X-195.06 Y-70.311 Z-2.2 I-0.01 J-0.162
X-195.04 Y-69.987 Z-2.261 I0.01 J0.162
X-195.06 Y-70.311 Z-2.322 I-0.01 J-0.162
X-195.04 Y-69.987 Z-2.383 I0.01 J0.162
X-195.06 Y-70.311 Z-2.444 I-0.01 J-0.162
X-195.04 Y-69.987 Z-2.506 I0.01 J0.162
X-195.06 Y-70.311 Z-2.567 I-0.01 J-0.162
X-195.04 Y-69.987 Z-2.628 I0.01 J0.162
X-195.06 Y-70.311 Z-2.689 I-0.01 J-0.162
X-195.04 Y-69.987 Z-2.75 I0.01 J0.162
X-195.06 Y-70.311 Z-2.811 I-0.01 J-0.162
X-195.04 Y-69.987 Z-2.872 I0.01 J0.162
X-195.06 Y-70.311 Z-2.933 I-0.01 J-0.162
X-195.04 Y-69.987 Z-2.994 I0.01 J0.162
X-195.06 Y-70.311 Z-3.056 I-0.01 J-0.162
X-195.04 Y-69.987 Z-3.117 I0.01 J0.162
X-195.06 Y-70.311 Z-3.178 I-0.01 J-0.162
X-195.04 Y-69.987 Z-3.239 I0.01 J0.162
X-195.06 Y-70.311 Z-3.3 I-0.01 J-0.162
X-195.04 Y-69.987 Z-3.361 I0.01 J0.162
X-195.06 Y-70.311 Z-3.422 I-0.01 J-0.162
X-195.04 Y-69.987 Z-3.483 I0.01 J0.162
X-195.06 Y-70.311 Z-3.544 I-0.01 J-0.162
X-195.04 Y-69.987 Z-3.606 I0.01 J0.162
X-195.06 Y-70.311 Z-3.667 I-0.01 J-0.162
X-195.04 Y-69.987 Z-3.728 I0.01 J0.162
X-195.06 Y-70.311 Z-3.789 I-0.01 J-0.162
X-195.04 Y-69.987 Z-3.85 I0.01 J0.162
X-195.06 Y-70.311 Z-3.911 I-0.01 J-0.162
X-195.04 Y-69.987 Z-3.972 I0.01 J0.162
X-195.06 Y-70.311 Z-4.033 I-0.01 J-0.162
X-195.04 Y-69.987 Z-4.094 I0.01 J0.162
X-195.06 Y-70.311 Z-4.156 I-0.01 J-0.162
X-195.04 Y-69.987 Z-4.217 I0.01 J0.162
X-195.06 Y-70.311 Z-4.278 I-0.01 J-0.162
X-195.04 Y-69.987 Z-4.339 I0.01 J0.162
X-195.06 Y-70.311 Z-4.4 I-0.01 J-0.162
X-195.04 Y-69.987 Z-4.461 I0.01 J0.162
X-195.06 Y-70.311 Z-4.522 I-0.01 J-0.162
X-195.04 Y-69.987 Z-4.583 I0.01 J0.162
X-195.06 Y-70.311 Z-4.644 I-0.01 J-0.162
X-195.04 Y-69.987 Z-4.706 I0.01 J0.162
X-195.06 Y-70.311 Z-4.767 I-0.01 J-0.162
X-195.04 Y-69.987 Z-4.828 I0.01 J0.162
X-195.06 Y-70.311 Z-4.889 I-0.01 J-0.162
X-195.04 Y-69.987 Z-4.95 I0.01 J0.162
X-195.06 Y-70.311 Z-5.011 I-0.01 J-0.162
X-195.04 Y-69.987 Z-5.072 I0.01 J0.162
X-195.06 Y-70.311 Z-5.133 I-0.01 J-0.162
X-195.04 Y-69.987 Z-5.194 I0.01 J0.162
X-195.06 Y-70.311 Z-5.256 I-0.01 J-0.162
X-195.04 Y-69.987 Z-5.317 I0.01 J0.162
X-195.06 Y-70.311 Z-5.378 I-0.01 J-0.162
X-195.04 Y-69.987 Z-5.439 I0.01 J0.162
X-195.06 Y-70.311 Z-5.5 I-0.01 J-0.162
X-195.04 Y-69.987 Z-5.561 I0.01 J0.162
X-195.06 Y-70.311 Z-5.622 I-0.01 J-0.162
X-195.04 Y-69.987 Z-5.683 I0.01 J0.162
X-195.06 Y-70.311 Z-5.744 I-0.01 J-0.162
X-195.04 Y-69.987 Z-5.806 I0.01 J0.162
X-195.06 Y-70.311 Z-5.867 I-0.01 J-0.162
X-195.04 Y-69.987 Z-5.928 I0.01 J0.162
X-195.06 Y-70.311 Z-5.989 I-0.01 J-0.162
X-195.04 Y-69.987 Z-6.05 I0.01 J0.162
X-195.06 Y-70.311 Z-6.111 I-0.01 J-0.162
X-195.04 Y-69.987 Z-6.172 I0.01 J0.162
X-195.06 Y-70.311 Z-6.233 I-0.01 J-0.162
X-194.888 Y-70.136 Z-6.267 I0.01 J0.162
X-195.086 Y-69.991 Z-6.3 I-0.162 J-0.013
X-195.014 Y-70.308 I0.036 J-0.159
X-195.086 Y-69.991 I-0.036 J0.159
G1 X-195.115 Y-70.004 F1016
X-195.137 Y-70.027
X-195.148 Y-70.056
X-195.147 Y-70.088
X-195.112 Y-70.243
Z5 F1500
X-186.411 Y-39.007
Z2
Z0.317 F1016
X-186.41 Y-38.999 Z0.247
X-186.409 Y-38.975 Z0.18
X-186.406 Y-38.938 Z0.12
X-186.403 Y-38.887 Z0.069
X-186.4 Y-38.827 Z0.031
X-186.395 Y-38.76 Z0.008
X-186.391 Y-38.69 Z0
X-186.381 Y-38.531
G3 X-186.678 Y-38.195 I-0.317 J0.02
X-187.102 Y-45.007 Z-0.175 I-0.212 J-3.406 F1500
X-186.678 Y-38.195 Z-0.349 I0.212 J3.406
X-187.102 Y-45.007 Z-0.524 I-0.212 J-3.406
X-186.678 Y-38.195 Z-0.698 I0.212 J3.406
X-187.102 Y-45.007 Z-0.873 I-0.212 J-3.406
X-186.678 Y-38.195 Z-1.048 I0.212 J3.406
X-187.102 Y-45.007 Z-1.222 I-0.212 J-3.406
X-186.678 Y-38.195 Z-1.397 I0.212 J3.406
X-187.102 Y-45.007 Z-1.571 I-0.212 J-3.406
X-186.678 Y-38.195 Z-1.746 I0.212 J3.406
X-187.102 Y-45.007 Z-1.921 I-0.212 J-3.406
X-186.678 Y-38.195 Z-2.095 I0.212 J3.406
X-187.102 Y-45.007 Z-2.27 I-0.212 J-3.406
X-186.678 Y-38.195 Z-2.444 I0.212 J3.406
X-187.102 Y-45.007 Z-2.619 I-0.212 J-3.406
X-186.678 Y-38.195 Z-2.794 I0.212 J3.406
X-187.102 Y-45.007 Z-2.968 I-0.212 J-3.406
X-186.678 Y-38.195 Z-3.143 I0.212 J3.406
X-187.102 Y-45.007 Z-3.317 I-0.212 J-3.406
X-186.678 Y-38.195 Z-3.492 I0.212 J3.406
X-187.102 Y-45.007 Z-3.667 I-0.212 J-3.406
X-186.678 Y-38.195 Z-3.841 I0.212 J3.406
X-187.102 Y-45.007 Z-4.016 I-0.212 J-3.406
X-186.678 Y-38.195 Z-4.19 I0.212 J3.406
X-187.102 Y-45.007 Z-4.365 I-0.212 J-3.406
X-186.678 Y-38.195 Z-4.54 I0.212 J3.406
X-187.102 Y-45.007 Z-4.714 I-0.212 J-3.406
X-186.678 Y-38.195 Z-4.889 I0.212 J3.406
X-187.102 Y-45.007 Z-5.064 I-0.212 J-3.406
X-186.678 Y-38.195 Z-5.238 I0.212 J3.406
X-187.102 Y-45.007 Z-5.413 I-0.212 J-3.406
X-186.678 Y-38.195 Z-5.587 I0.212 J3.406
X-187.102 Y-45.007 Z-5.762 I-0.212 J-3.406
X-186.678 Y-38.195 Z-5.937 I0.212 J3.406
X-187.102 Y-45.007 Z-6.111 I-0.212 J-3.406
X-183.485 Y-41.375 Z-6.206 I0.212 J3.406
X-187.55 Y-38.252 Z-6.3 I-3.405 J-0.226
X-186.231 Y-44.949 I0.66 J-3.348
X-187.55 Y-38.252 I-0.66 J3.348
X-187.8 Y-38.625 I0.061 J-0.312 F1016
G1 X-187.769 Y-38.781
X-187.755 Y-38.85 Z-6.292
X-187.743 Y-38.916 Z-6.269
X-187.731 Y-38.975 Z-6.231
X-187.721 Y-39.025 Z-6.18
X-187.714 Y-39.062 Z-6.12
X-187.709 Y-39.085 Z-6.053
X-187.708 Y-39.093 Z-5.983
Z5 F1500
X-177.553 Y-13.048
Z1.683
Z0 F1016
X-177.563 Y-13.206
X-177.559 Y-13.237
X-177.543 Y-13.265
X-177.518 Y-13.284
X-177.487 Y-13.292
G3 X-177.467 Y-12.968 Z-0.061 I0.01 J0.162 F1500
X-177.487 Y-13.292 Z-0.122 I-0.01 J-0.162
X-177.467 Y-12.968 Z-0.183 I0.01 J0.162
X-177.487 Y-13.292 Z-0.244 I-0.01 J-0.162
X-177.467 Y-12.968 Z-0.306 I0.01 J0.162
X-177.487 Y-13.292 Z-0.367 I-0.01 J-0.162
X-177.467 Y-12.968 Z-0.428 I0.01 J0.162
X-177.487 Y-13.292 Z-0.489 I-0.01 J-0.162
X-177.467 Y-12.968 Z-0.55 I0.01 J0.162
X-177.487 Y-13.292 Z-0.611 I-0.01 J-0.162
X-177.467 Y-12.968 Z-0.672 I0.01 J0.162
X-177.487 Y-13.292 Z-0.733 I-0.01 J-0.162
X-177.467 Y-12.968 Z-0.794 I0.01 J0.162
X-177.487 Y-13.292 Z-0.856 I-0.01 J-0.162
X-177.467 Y-12.968 Z-0.917 I0.01 J0.162
X-177.487 Y-13.292 Z-0.978 I-0.01 J-0.162
X-177.467 Y-12.968 Z-1.039 I0.01 J0.162
X-177.487 Y-13.292 Z-1.1 I-0.01 J-0.162
X-177.467 Y-12.968 Z-1.161 I0.01 J0.162
X-177.487 Y-13.292 Z-1.222 I-0.01 J-0.162
X-177.467 Y-12.968 Z-1.283 I0.01 J0.162
X-177.487 Y-13.292 Z-1.344 I-0.01 J-0.162
X-177.467 Y-12.968 Z-1.406 I0.01 J0.162
X-177.487 Y-13.292 Z-1.467 I-0.01 J-0.162
X-177.467 Y-12.968 Z-1.528 I0.01 J0.162
X-177.487 Y-13.292 Z-1.589 I-0.01 J-0.162
X-177.467 Y-12.968 Z-1.65 I0.01 J0.162
X-177.487 Y-13.292 Z-1.711 I-0.01 J-0.162
X-177.467 Y-12.968 Z-1.772 I0.01 J0.162
X-177.487 Y-13.292 Z-1.833 I-0.01 J-0.162
X-177.467 Y-12.968 Z-1.894 I0.01 J0.162
X-177.487 Y-13.292 Z-1.956 I-0.01 J-0.162
X-177.467 Y-12.968 Z-2.017 I0.01 J0.162
X-177.487 Y-13.292 Z-2.078 I-0.01 J-0.162
X-177.467 Y-12.968 Z-2.139 I0.01 J0.162
X-177.487 Y-13.292 Z-2.2 I-0.01 J-0.162
X-177.467 Y-12.968 Z-2.261 I0.01 J0.162
X-177.487 Y-13.292 Z-2.322 I-0.01 J-0.162
X-177.467 Y-12.968 Z-2.383 I0.01 J0.162
X-177.487 Y-13.292 Z-2.444 I-0.01 J-0.162
X-177.467 Y-12.968 Z-2.506 I0.01 J0.162
X-177.487 Y-13.292 Z-2.567 I-0.01 J-0.162
X-177.467 Y-12.968 Z-2.628 I0.01 J0.162
X-177.487 Y-13.292 Z-2.689 I-0.01 J-0.162
X-177.467 Y-12.968 Z-2.75 I0.01 J0.162
X-177.487 Y-13.292 Z-2.811 I-0.01 J-0.162
X-177.467 Y-12.968 Z-2.872 I0.01 J0.162
X-177.487 Y-13.292 Z-2.933 I-0.01 J-0.162
X-177.467 Y-12.968 Z-2.994 I0.01 J0.162
X-177.487 Y-13.292 Z-3.056 I-0.01 J-0.162
X-177.467 Y-12.968 Z-3.117 I0.01 J0.162
X-177.487 Y-13.292 Z-3.178 I-0.01 J-0.162
X-177.467 Y-12.968 Z-3.239 I0.01 J0.162
X-177.487 Y-13.292 Z-3.3 I-0.01 J-0.162
X-177.467 Y-12.968 Z-3.361 I0.01 J0.162
X-177.487 Y-13.292 Z-3.422 I-0.01 J-0.162
X-177.467 Y-12.968 Z-3.483 I0.01 J0.162
X-177.487 Y-13.292 Z-3.544 I-0.01 J-0.162
X-177.467 Y-12.968 Z-3.606 I0.01 J0.162
X-177.487 Y-13.292 Z-3.667 I-0.01 J-0.162
X-177.467 Y-12.968 Z-3.728 I0.01 J0.162
X-177.487 Y-13.292 Z-3.789 I-0.01 J-0.162
X-177.467 Y-12.968 Z-3.85 I0.01 J0.162
X-177.487 Y-13.292 Z-3.911 I-0.01 J-0.162
X-177.467 Y-12.968 Z-3.972 I0.01 J0.162
X-177.487 Y-13.292 Z-4.033 I-0.01 J-0.162
X-177.467 Y-12.968 Z-4.094 I0.01 J0.162
X-177.487 Y-13.292 Z-4.156 I-0.01 J-0.162
X-177.467 Y-12.968 Z-4.217 I0.01 J0.162
X-177.487 Y-13.292 Z-4.278 I-0.01 J-0.162
X-177.467 Y-12.968 Z-4.339 I0.01 J0.162
X-177.487 Y-13.292 Z-4.4 I-0.01 J-0.162
X-177.467 Y-12.968 Z-4.461 I0.01 J0.162
X-177.487 Y-13.292 Z-4.522 I-0.01 J-0.162
X-177.467 Y-12.968 Z-4.583 I0.01 J0.162
X-177.487 Y-13.292 Z-4.644 I-0.01 J-0.162
X-177.467 Y-12.968 Z-4.706 I0.01 J0.162
X-177.487 Y-13.292 Z-4.767 I-0.01 J-0.162
X-177.467 Y-12.968 Z-4.828 I0.01 J0.162
X-177.487 Y-13.292 Z-4.889 I-0.01 J-0.162
X-177.467 Y-12.968 Z-4.95 I0.01 J0.162
X-177.487 Y-13.292 Z-5.011 I-0.01 J-0.162
X-177.467 Y-12.968 Z-5.072 I0.01 J0.162
X-177.487 Y-13.292 Z-5.133 I-0.01 J-0.162
X-177.467 Y-12.968 Z-5.194 I0.01 J0.162
X-177.487 Y-13.292 Z-5.256 I-0.01 J-0.162
X-177.467 Y-12.968 Z-5.317 I0.01 J0.162
X-177.487 Y-13.292 Z-5.378 I-0.01 J-0.162
X-177.467 Y-12.968 Z-5.439 I0.01 J0.162
X-177.487 Y-13.292 Z-5.5 I-0.01 J-0.162
X-177.467 Y-12.968 Z-5.561 I0.01 J0.162
X-177.487 Y-13.292 Z-5.622 I-0.01 J-0.162
X-177.467 Y-12.968 Z-5.683 I0.01 J0.162
X-177.487 Y-13.292 Z-5.744 I-0.01 J-0.162
X-177.467 Y-12.968 Z-5.806 I0.01 J0.162
X-177.487 Y-13.292 Z-5.867 I-0.01 J-0.162
X-177.467 Y-12.968 Z-5.928 I0.01 J0.162
X-177.487 Y-13.292 Z-5.989 I-0.01 J-0.162
X-177.467 Y-12.968 Z-6.05 I0.01 J0.162
X-177.487 Y-13.292 Z-6.111 I-0.01 J-0.162
X-177.467 Y-12.968 Z-6.172 I0.01 J0.162
X-177.487 Y-13.292 Z-6.233 I-0.01 J-0.162
X-177.315 Y-13.117 Z-6.267 I0.01 J0.162
X-177.513 Y-12.972 Z-6.3 I-0.162 J-0.013
X-177.441 Y-13.289 I0.036 J-0.159
X-177.513 Y-12.972 I-0.036 J0.159
G1 X-177.542 Y-12.984 F1016
X-177.564 Y-13.007
X-177.575 Y-13.037
X-177.574 Y-13.069
X-177.539 Y-13.224
Z5 F1500
X-195.519 Y-11.93
Z1.683
Z0 F1016
X-195.529 Y-12.089
X-195.524 Y-12.12
X-195.508 Y-12.148
X-195.483 Y-12.167
X-195.453 Y-12.175
G3 X-195.432 Y-11.851 Z-0.061 I0.01 J0.162 F1500
X-195.453 Y-12.175 Z-0.122 I-0.01 J-0.162
X-195.432 Y-11.851 Z-0.183 I0.01 J0.162
X-195.453 Y-12.175 Z-0.244 I-0.01 J-0.162
X-195.432 Y-11.851 Z-0.306 I0.01 J0.162
X-195.453 Y-12.175 Z-0.367 I-0.01 J-0.162
X-195.432 Y-11.851 Z-0.428 I0.01 J0.162
X-195.453 Y-12.175 Z-0.489 I-0.01 J-0.162
X-195.432 Y-11.851 Z-0.55 I0.01 J0.162
X-195.453 Y-12.175 Z-0.611 I-0.01 J-0.162
X-195.432 Y-11.851 Z-0.672 I0.01 J0.162
X-195.453 Y-12.175 Z-0.733 I-0.01 J-0.162
X-195.432 Y-11.851 Z-0.794 I0.01 J0.162
X-195.453 Y-12.175 Z-0.856 I-0.01 J-0.162
X-195.432 Y-11.851 Z-0.917 I0.01 J0.162
X-195.453 Y-12.175 Z-0.978 I-0.01 J-0.162
X-195.432 Y-11.851 Z-1.039 I0.01 J0.162
X-195.453 Y-12.175 Z-1.1 I-0.01 J-0.162
X-195.432 Y-11.851 Z-1.161 I0.01 J0.162
X-195.453 Y-12.175 Z-1.222 I-0.01 J-0.162
X-195.432 Y-11.851 Z-1.283 I0.01 J0.162
X-195.453 Y-12.175 Z-1.344 I-0.01 J-0.162
X-195.432 Y-11.851 Z-1.406 I0.01 J0.162
X-195.453 Y-12.175 Z-1.467 I-0.01 J-0.162
X-195.432 Y-11.851 Z-1.528 I0.01 J0.162
X-195.453 Y-12.175 Z-1.589 I-0.01 J-0.162
X-195.432 Y-11.851 Z-1.65 I0.01 J0.162
X-195.453 Y-12.175 Z-1.711 I-0.01 J-0.162
X-195.432 Y-11.851 Z-1.772 I0.01 J0.162
X-195.453 Y-12.175 Z-1.833 I-0.01 J-0.162
X-195.432 Y-11.851 Z-1.894 I0.01 J0.162
X-195.453 Y-12.175 Z-1.956 I-0.01 J-0.162
X-195.432 Y-11.851 Z-2.017 I0.01 J0.162
X-195.453 Y-12.175 Z-2.078 I-0.01 J-0.162
X-195.432 Y-11.851 Z-2.139 I0.01 J0.162
X-195.453 Y-12.175 Z-2.2 I-0.01 J-0.162
X-195.432 Y-11.851 Z-2.261 I0.01 J0.162
X-195.453 Y-12.175 Z-2.322 I-0.01 J-0.162
X-195.432 Y-11.851 Z-2.383 I0.01 J0.162
X-195.453 Y-12.175 Z-2.444 I-0.01 J-0.162
X-195.432 Y-11.851 Z-2.506 I0.01 J0.162
X-195.453 Y-12.175 Z-2.567 I-0.01 J-0.162
X-195.432 Y-11.851 Z-2.628 I0.01 J0.162
X-195.453 Y-12.175 Z-2.689 I-0.01 J-0.162
X-195.432 Y-11.851 Z-2.75 I0.01 J0.162
X-195.453 Y-12.175 Z-2.811 I-0.01 J-0.162
X-195.432 Y-11.851 Z-2.872 I0.01 J0.162
X-195.453 Y-12.175 Z-2.933 I-0.01 J-0.162
X-195.432 Y-11.851 Z-2.994 I0.01 J0.162
X-195.453 Y-12.175 Z-3.056 I-0.01 J-0.162
X-195.432 Y-11.851 Z-3.117 I0.01 J0.162
X-195.453 Y-12.175 Z-3.178 I-0.01 J-0.162
X-195.432 Y-11.851 Z-3.239 I0.01 J0.162
X-195.453 Y-12.175 Z-3.3 I-0.01 J-0.162
X-195.432 Y-11.851 Z-3.361 I0.01 J0.162
X-195.453 Y-12.175 Z-3.422 I-0.01 J-0.162
X-195.432 Y-11.851 Z-3.483 I0.01 J0.162
X-195.453 Y-12.175 Z-3.544 I-0.01 J-0.162
X-195.432 Y-11.851 Z-3.606 I0.01 J0.162
X-195.453 Y-12.175 Z-3.667 I-0.01 J-0.162
X-195.432 Y-11.851 Z-3.728 I0.01 J0.162
X-195.453 Y-12.175 Z-3.789 I-0.01 J-0.162
X-195.432 Y-11.851 Z-3.85 I0.01 J0.162
X-195.453 Y-12.175 Z-3.911 I-0.01 J-0.162
X-195.432 Y-11.851 Z-3.972 I0.01 J0.162
X-195.453 Y-12.175 Z-4.033 I-0.01 J-0.162
X-195.432 Y-11.851 Z-4.094 I0.01 J0.162
X-195.453 Y-12.175 Z-4.156 I-0.01 J-0.162
X-195.432 Y-11.851 Z-4.217 I0.01 J0.162
X-195.453 Y-12.175 Z-4.278 I-0.01 J-0.162
X-195.432 Y-11.851 Z-4.339 I0.01 J0.162
X-195.453 Y-12.175 Z-4.4 I-0.01 J-0.162
X-195.432 Y-11.851 Z-4.461 I0.01 J0.162
X-195.453 Y-12.175 Z-4.522 I-0.01 J-0.162
X-195.432 Y-11.851 Z-4.583 I0.01 J0.162
X-195.453 Y-12.175 Z-4.644 I-0.01 J-0.162
X-195.432 Y-11.851 Z-4.706 I0.01 J0.162
X-195.453 Y-12.175 Z-4.767 I-0.01 J-0.162
X-195.432 Y-11.851 Z-4.828 I0.01 J0.162
X-195.453 Y-12.175 Z-4.889 I-0.01 J-0.162
X-195.432 Y-11.851 Z-4.95 I0.01 J0.162
X-195.453 Y-12.175 Z-5.011 I-0.01 J-0.162
X-195.432 Y-11.851 Z-5.072 I0.01 J0.162
X-195.453 Y-12.175 Z-5.133 I-0.01 J-0.162
X-195.432 Y-11.851 Z-5.194 I0.01 J0.162
X-195.453 Y-12.175 Z-5.256 I-0.01 J-0.162
X-195.432 Y-11.851 Z-5.317 I0.01 J0.162
X-195.453 Y-12.175 Z-5.378 I-0.01 J-0.162
X-195.432 Y-11.851 Z-5.439 I0.01 J0.162
X-195.453 Y-12.175 Z-5.5 I-0.01 J-0.162
X-195.432 Y-11.851 Z-5.561 I0.01 J0.162
X-195.453 Y-12.175 Z-5.622 I-0.01 J-0.162
X-195.432 Y-11.851 Z-5.683 I0.01 J0.162
X-195.453 Y-12.175 Z-5.744 I-0.01 J-0.162
X-195.432 Y-11.851 Z-5.806 I0.01 J0.162
X-195.453 Y-12.175 Z-5.867 I-0.01 J-0.162
X-195.432 Y-11.851 Z-5.928 I0.01 J0.162
X-195.453 Y-12.175 Z-5.989 I-0.01 J-0.162
X-195.432 Y-11.851 Z-6.05 I0.01 J0.162
X-195.453 Y-12.175 Z-6.111 I-0.01 J-0.162
X-195.432 Y-11.851 Z-6.172 I0.01 J0.162
X-195.453 Y-12.175 Z-6.233 I-0.01 J-0.162
X-195.281 Y-12 Z-6.267 I0.01 J0.162
X-195.478 Y-11.854 Z-6.3 I-0.162 J-0.013
X-195.407 Y-12.171 I0.036 J-0.159
X-195.478 Y-11.854 I-0.036 J0.159
G1 X-195.507 Y-11.867 F1016
X-195.529 Y-11.89
X-195.54 Y-11.92
Y-11.951
X-195.505 Y-12.106
Z15 F1500
(When using Fusion 360 for Personal Use, the feedrate of)
(rapid moves is reduced to match the feedrate of cutting)
(moves, which can increase machining time. Unrestricted rapid)
(moves are available with a Fusion 360 Subscription.)

(2D-Kontur4)
G0 X-179.76 Y-49.922
G1 Z15 F1500
Z5
Z1 F300
S8000
X-179.07 Y-50.704 Z0.964 F1016
G3 X-178.84 Y-50.718 Z0.955 I0.122 J0.108
X-178.826 Y-50.489 Z0.946 I-0.108 J0.122
G1 X-181.473 Y-47.49 Z0.806
G3 X-181.703 Y-47.476 Z0.797 I-0.122 J-0.108
X-181.717 Y-47.705 Z0.788 I0.108 J-0.122
G1 X-179.07 Y-50.704 Z0.649
G3 X-178.84 Y-50.718 Z0.64 I0.122 J0.108
X-178.826 Y-50.489 Z0.631 I-0.108 J0.122
G1 X-181.473 Y-47.49 Z0.491
G3 X-181.703 Y-47.476 Z0.482 I-0.122 J-0.108
X-181.717 Y-47.705 Z0.473 I0.108 J-0.122
G1 X-179.07 Y-50.704 Z0.333
G3 X-178.84 Y-50.718 Z0.325 I0.122 J0.108
X-178.826 Y-50.489 Z0.316 I-0.108 J0.122
G1 X-181.473 Y-47.49 Z0.176
G3 X-181.703 Y-47.476 Z0.167 I-0.122 J-0.108
X-181.717 Y-47.705 Z0.158 I0.108 J-0.122
G1 X-179.07 Y-50.704 Z0.018
G3 X-178.84 Y-50.718 Z0.01 I0.122 J0.108
X-178.826 Y-50.489 Z0.001 I-0.108 J0.122
G1 X-181.473 Y-47.49 Z-0.139
G3 X-181.703 Y-47.476 Z-0.148 I-0.122 J-0.108
X-181.717 Y-47.705 Z-0.157 I0.108 J-0.122
G1 X-179.07 Y-50.704 Z-0.297
G3 X-178.84 Y-50.718 Z-0.305 I0.122 J0.108
X-178.826 Y-50.489 Z-0.314 I-0.108 J0.122
G1 X-181.473 Y-47.49 Z-0.454
G3 X-181.703 Y-47.476 Z-0.463 I-0.122 J-0.108
X-181.717 Y-47.705 Z-0.472 I0.108 J-0.122
G1 X-179.07 Y-50.704 Z-0.612
G3 X-178.84 Y-50.718 Z-0.621 I0.122 J0.108
X-178.826 Y-50.489 Z-0.629 I-0.108 J0.122
G1 X-181.473 Y-47.49 Z-0.769
G3 X-181.703 Y-47.476 Z-0.778 I-0.122 J-0.108
X-181.717 Y-47.705 Z-0.787 I0.108 J-0.122
G1 X-179.07 Y-50.704 Z-0.927
G3 X-178.84 Y-50.718 Z-0.936 I0.122 J0.108
X-178.826 Y-50.489 Z-0.944 I-0.108 J0.122
G1 X-181.473 Y-47.49 Z-1.084
G3 X-181.703 Y-47.476 Z-1.093 I-0.122 J-0.108
X-181.717 Y-47.705 Z-1.102 I0.108 J-0.122
G1 X-179.07 Y-50.704 Z-1.242
G3 X-178.84 Y-50.718 Z-1.251 I0.122 J0.108
X-178.826 Y-50.489 Z-1.259 I-0.108 J0.122
G1 X-181.473 Y-47.49 Z-1.399
G3 X-181.703 Y-47.476 Z-1.408 I-0.122 J-0.108
X-181.717 Y-47.705 Z-1.417 I0.108 J-0.122
G1 X-179.07 Y-50.704 Z-1.557
G3 X-178.84 Y-50.718 Z-1.566 I0.122 J0.108
X-178.826 Y-50.489 Z-1.575 I-0.108 J0.122
G1 X-181.473 Y-47.49 Z-1.714
G3 X-181.703 Y-47.476 Z-1.723 I-0.122 J-0.108
X-181.717 Y-47.705 Z-1.732 I0.108 J-0.122
G1 X-179.07 Y-50.704 Z-1.872
G3 X-178.84 Y-50.718 Z-1.881 I0.122 J0.108
X-178.826 Y-50.489 Z-1.89 I-0.108 J0.122
G1 X-181.473 Y-47.49 Z-2.029
G3 X-181.703 Y-47.476 Z-2.038 I-0.122 J-0.108
X-181.717 Y-47.705 Z-2.047 I0.108 J-0.122
G1 X-179.07 Y-50.704 Z-2.187
G3 X-178.84 Y-50.718 Z-2.196 I0.122 J0.108
X-178.826 Y-50.489 Z-2.205 I-0.108 J0.122
G1 X-181.473 Y-47.49 Z-2.344
G3 X-181.703 Y-47.476 Z-2.353 I-0.122 J-0.108
X-181.717 Y-47.705 Z-2.362 I0.108 J-0.122
G1 X-179.07 Y-50.704 Z-2.502
G3 X-178.84 Y-50.718 Z-2.511 I0.122 J0.108
X-178.826 Y-50.489 Z-2.52 I-0.108 J0.122
G1 X-181.473 Y-47.49 Z-2.659
G3 X-181.703 Y-47.476 Z-2.668 I-0.122 J-0.108
X-181.717 Y-47.705 Z-2.677 I0.108 J-0.122
G1 X-179.07 Y-50.704 Z-2.817
G3 X-178.84 Y-50.718 Z-2.826 I0.122 J0.108
X-178.826 Y-50.489 Z-2.835 I-0.108 J0.122
G1 X-181.473 Y-47.49 Z-2.974
G3 X-181.703 Y-47.476 Z-2.983 I-0.122 J-0.108
X-181.717 Y-47.705 Z-2.992 I0.108 J-0.122
G1 X-179.07 Y-50.704 Z-3.132
G3 X-178.84 Y-50.718 Z-3.141 I0.122 J0.108
X-178.826 Y-50.489 Z-3.15 I-0.108 J0.122
G1 X-181.473 Y-47.49 Z-3.289
G3 X-181.703 Y-47.476 Z-3.298 I-0.122 J-0.108
X-181.717 Y-47.705 Z-3.307 I0.108 J-0.122
G1 X-179.07 Y-50.704 Z-3.447
G3 X-178.84 Y-50.718 Z-3.456 I0.122 J0.108
X-178.826 Y-50.489 Z-3.465 I-0.108 J0.122
G1 X-181.473 Y-47.49 Z-3.604
G3 X-181.703 Y-47.476 Z-3.613 I-0.122 J-0.108
X-181.717 Y-47.705 Z-3.622 I0.108 J-0.122
G1 X-179.07 Y-50.704 Z-3.762
G3 X-178.84 Y-50.718 Z-3.771 I0.122 J0.108
X-178.826 Y-50.489 Z-3.78 I-0.108 J0.122
G1 X-181.473 Y-47.49 Z-3.919
G3 X-181.703 Y-47.476 Z-3.928 I-0.122 J-0.108
X-181.717 Y-47.705 Z-3.937 I0.108 J-0.122
G1 X-179.07 Y-50.704 Z-4.077
G3 X-178.84 Y-50.718 Z-4.086 I0.122 J0.108
X-178.826 Y-50.489 Z-4.095 I-0.108 J0.122
G1 X-181.473 Y-47.49 Z-4.234
G3 X-181.703 Y-47.476 Z-4.243 I-0.122 J-0.108
X-181.717 Y-47.705 Z-4.252 I0.108 J-0.122
G1 X-179.07 Y-50.704 Z-4.392
G3 X-178.84 Y-50.718 Z-4.401 I0.122 J0.108
X-178.826 Y-50.489 Z-4.41 I-0.108 J0.122
G1 X-181.473 Y-47.49 Z-4.549
G3 X-181.703 Y-47.476 Z-4.558 I-0.122 J-0.108
X-181.717 Y-47.705 Z-4.567 I0.108 J-0.122
G1 X-179.07 Y-50.704 Z-4.707
G3 X-178.84 Y-50.718 Z-4.716 I0.122 J0.108
X-178.826 Y-50.489 Z-4.725 I-0.108 J0.122
G1 X-181.473 Y-47.49 Z-4.865
G3 X-181.703 Y-47.476 Z-4.873 I-0.122 J-0.108
X-181.717 Y-47.705 Z-4.882 I0.108 J-0.122
G1 X-179.07 Y-50.704 Z-5.022
G3 X-178.84 Y-50.718 Z-5.031 I0.122 J0.108
X-178.826 Y-50.489 Z-5.04 I-0.108 J0.122
G1 X-181.473 Y-47.49 Z-5.18
G3 X-181.703 Y-47.476 Z-5.188 I-0.122 J-0.108
X-181.717 Y-47.705 Z-5.197 I0.108 J-0.122
G1 X-179.07 Y-50.704 Z-5.337
G3 X-178.84 Y-50.718 Z-5.346 I0.122 J0.108
X-178.826 Y-50.489 Z-5.355 I-0.108 J0.122
G1 X-181.473 Y-47.49 Z-5.495
G3 X-181.703 Y-47.476 Z-5.504 I-0.122 J-0.108
X-181.717 Y-47.705 Z-5.512 I0.108 J-0.122
G1 X-179.07 Y-50.704 Z-5.652
G3 X-178.84 Y-50.718 Z-5.661 I0.122 J0.108
X-178.826 Y-50.489 Z-5.67 I-0.108 J0.122
G1 X-181.473 Y-47.49 Z-5.81
G3 X-181.703 Y-47.476 Z-5.819 I-0.122 J-0.108
X-181.717 Y-47.705 Z-5.827 I0.108 J-0.122
G1 X-179.07 Y-50.704 Z-5.967
G3 X-178.84 Y-50.718 Z-5.976 I0.122 J0.108
X-178.826 Y-50.489 Z-5.985 I-0.108 J0.122
G1 X-181.473 Y-47.49 Z-6.125
G3 X-181.703 Y-47.476 Z-6.134 I-0.122 J-0.108
X-181.717 Y-47.705 Z-6.142 I0.108 J-0.122
G1 X-179.07 Y-50.704 Z-6.282
G3 X-178.84 Y-50.718 Z-6.291 I0.122 J0.108
X-178.826 Y-50.489 Z-6.3 I-0.108 J0.122
S6000
G1 X-181.473 Y-47.49 F1500
G3 X-181.703 Y-47.476 I-0.122 J-0.108
X-181.717 Y-47.705 I0.108 J-0.122
G1 X-179.07 Y-50.704
G3 X-178.84 Y-50.718 I0.122 J0.108
X-178.826 Y-50.489 I-0.108 J0.122
G1 Z5
X-178.786 Y-34.663
Z1 F300
S8000
X-177.787 Y-33.781 Z0.953 F1016
G3 X-178.002 Y-33.537 Z0.936 I-0.108 J0.122
G1 X-181 Y-36.184 Z0.796
G3 X-181.015 Y-36.413 Z0.787 I0.107 J-0.122
X-180.786 Y-36.428 Z0.778 I0.122 J0.107
G1 X-177.787 Y-33.781 Z0.638
G3 X-178.002 Y-33.537 Z0.621 I-0.108 J0.122
G1 X-181 Y-36.184 Z0.481
G3 X-181.015 Y-36.413 Z0.472 I0.107 J-0.122
X-180.786 Y-36.428 Z0.463 I0.122 J0.107
G1 X-177.787 Y-33.781 Z0.323
G3 X-178.002 Y-33.537 Z0.306 I-0.108 J0.122
G1 X-181 Y-36.184 Z0.166
G3 X-181.015 Y-36.413 Z0.157 I0.107 J-0.122
X-180.786 Y-36.428 Z0.148 I0.122 J0.107
G1 X-177.787 Y-33.781 Z0.009
G3 X-178.002 Y-33.537 Z-0.009 I-0.108 J0.122
G1 X-181 Y-36.184 Z-0.149
G3 X-181.015 Y-36.413 Z-0.158 I0.107 J-0.122
X-180.786 Y-36.428 Z-0.167 I0.122 J0.107
G1 X-177.787 Y-33.781 Z-0.306
G3 X-178.002 Y-33.537 Z-0.324 I-0.108 J0.122
G1 X-181 Y-36.184 Z-0.464
G3 X-181.015 Y-36.413 Z-0.473 I0.107 J-0.122
X-180.786 Y-36.428 Z-0.482 I0.122 J0.107
G1 X-177.787 Y-33.781 Z-0.621
G3 X-178.002 Y-33.537 Z-0.639 I-0.108 J0.122
G1 X-181 Y-36.184 Z-0.779
G3 X-181.015 Y-36.413 Z-0.788 I0.107 J-0.122
X-180.786 Y-36.428 Z-0.797 I0.122 J0.107
G1 X-177.787 Y-33.781 Z-0.936
G3 X-178.002 Y-33.537 Z-0.954 I-0.108 J0.122
G1 X-181 Y-36.184 Z-1.094
G3 X-181.015 Y-36.413 Z-1.103 I0.107 J-0.122
X-180.786 Y-36.428 Z-1.112 I0.122 J0.107
G1 X-177.787 Y-33.781 Z-1.251
G3 X-178.002 Y-33.537 Z-1.269 I-0.108 J0.122
G1 X-181 Y-36.184 Z-1.409
G3 X-181.015 Y-36.413 Z-1.418 I0.107 J-0.122
X-180.786 Y-36.428 Z-1.427 I0.122 J0.107
G1 X-177.787 Y-33.781 Z-1.566
G3 X-178.002 Y-33.537 Z-1.584 I-0.108 J0.122
G1 X-181 Y-36.184 Z-1.724
G3 X-181.015 Y-36.413 Z-1.733 I0.107 J-0.122
X-180.786 Y-36.428 Z-1.742 I0.122 J0.107
G1 X-177.787 Y-33.781 Z-1.881
G3 X-178.002 Y-33.537 Z-1.899 I-0.108 J0.122
G1 X-181 Y-36.184 Z-2.039
G3 X-181.015 Y-36.413 Z-2.048 I0.107 J-0.122
X-180.786 Y-36.428 Z-2.057 I0.122 J0.107
G1 X-177.787 Y-33.781 Z-2.196
G3 X-178.002 Y-33.537 Z-2.214 I-0.108 J0.122
G1 X-181 Y-36.184 Z-2.354
G3 X-181.015 Y-36.413 Z-2.363 I0.107 J-0.122
X-180.786 Y-36.428 Z-2.372 I0.122 J0.107
G1 X-177.787 Y-33.781 Z-2.511
G3 X-178.002 Y-33.537 Z-2.529 I-0.108 J0.122
G1 X-181 Y-36.184 Z-2.669
G3 X-181.015 Y-36.413 Z-2.678 I0.107 J-0.122
X-180.786 Y-36.428 Z-2.687 I0.122 J0.107
G1 X-177.787 Y-33.781 Z-2.826
G3 X-178.002 Y-33.537 Z-2.844 I-0.108 J0.122
G1 X-181 Y-36.184 Z-2.984
G3 X-181.015 Y-36.413 Z-2.993 I0.107 J-0.122
X-180.786 Y-36.428 Z-3.002 I0.122 J0.107
G1 X-177.787 Y-33.781 Z-3.141
G3 X-178.002 Y-33.537 Z-3.159 I-0.108 J0.122
G1 X-181 Y-36.184 Z-3.299
G3 X-181.015 Y-36.413 Z-3.308 I0.107 J-0.122
X-180.786 Y-36.428 Z-3.317 I0.122 J0.107
G1 X-177.787 Y-33.781 Z-3.456
G3 X-178.002 Y-33.537 Z-3.474 I-0.108 J0.122
G1 X-181 Y-36.184 Z-3.614
G3 X-181.015 Y-36.413 Z-3.623 I0.107 J-0.122
X-180.786 Y-36.428 Z-3.632 I0.122 J0.107
G1 X-177.787 Y-33.781 Z-3.771
G3 X-178.002 Y-33.537 Z-3.789 I-0.108 J0.122
G1 X-181 Y-36.184 Z-3.929
G3 X-181.015 Y-36.413 Z-3.938 I0.107 J-0.122
X-180.786 Y-36.428 Z-3.947 I0.122 J0.107
G1 X-177.787 Y-33.781 Z-4.086
G3 X-178.002 Y-33.537 Z-4.104 I-0.108 J0.122
G1 X-181 Y-36.184 Z-4.244
G3 X-181.015 Y-36.413 Z-4.253 I0.107 J-0.122
X-180.786 Y-36.428 Z-4.262 I0.122 J0.107
G1 X-177.787 Y-33.781 Z-4.401
G3 X-178.002 Y-33.537 Z-4.419 I-0.108 J0.122
G1 X-181 Y-36.184 Z-4.559
G3 X-181.015 Y-36.413 Z-4.568 I0.107 J-0.122
X-180.786 Y-36.428 Z-4.577 I0.122 J0.107
G1 X-177.787 Y-33.781 Z-4.716
G3 X-178.002 Y-33.537 Z-4.734 I-0.108 J0.122
G1 X-181 Y-36.184 Z-4.874
G3 X-181.015 Y-36.413 Z-4.883 I0.107 J-0.122
X-180.786 Y-36.428 Z-4.891 I0.122 J0.107
G1 X-177.787 Y-33.781 Z-5.031
G3 X-178.002 Y-33.537 Z-5.049 I-0.108 J0.122
G1 X-181 Y-36.184 Z-5.189
G3 X-181.015 Y-36.413 Z-5.198 I0.107 J-0.122
X-180.786 Y-36.428 Z-5.206 I0.122 J0.107
G1 X-177.787 Y-33.781 Z-5.346
G3 X-178.002 Y-33.537 Z-5.364 I-0.108 J0.122
G1 X-181 Y-36.184 Z-5.504
G3 X-181.015 Y-36.413 Z-5.513 I0.107 J-0.122
X-180.786 Y-36.428 Z-5.521 I0.122 J0.107
G1 X-177.787 Y-33.781 Z-5.661
G3 X-178.002 Y-33.537 Z-5.679 I-0.108 J0.122
G1 X-181 Y-36.184 Z-5.819
G3 X-181.015 Y-36.413 Z-5.828 I0.107 J-0.122
X-180.786 Y-36.428 Z-5.836 I0.122 J0.107
G1 X-177.787 Y-33.781 Z-5.976
G3 X-178.002 Y-33.537 Z-5.994 I-0.108 J0.122
G1 X-181 Y-36.184 Z-6.134
G3 X-181.015 Y-36.413 Z-6.143 I0.107 J-0.122
X-180.786 Y-36.428 Z-6.151 I0.122 J0.107
G1 X-177.787 Y-33.781 Z-6.291
X-177.755 Y-33.741 Z-6.293
X-177.736 Y-33.694 Z-6.295
X-177.733 Y-33.643 Z-6.296
X-177.746 Y-33.594 Z-6.298
X-177.773 Y-33.551 Z-6.3
S6000
X-177.812 Y-33.519 F1500
X-177.859 Y-33.5
X-177.91 Y-33.497
X-177.96 Y-33.51
X-178.002 Y-33.537
X-181 Y-36.184
G3 X-181.015 Y-36.413 I0.107 J-0.122
X-180.786 Y-36.428 I0.122 J0.107
G1 X-177.787 Y-33.781
X-177.755 Y-33.741
X-177.736 Y-33.694
X-177.733 Y-33.643
X-177.746 Y-33.594
X-177.773 Y-33.551
Z5
X-193.022 Y-34.901
Z1 F300
S8000
X-192.307 Y-35.711 Z0.962 F1016
G3 X-192.063 Y-35.496 Z0.944 I0.122 J0.108
G1 X-194.711 Y-32.498 Z0.805
G3 X-194.954 Y-32.713 Z0.787 I-0.121 J-0.108
G1 X-192.307 Y-35.711 Z0.647
G3 X-192.063 Y-35.496 Z0.629 I0.122 J0.108
G1 X-194.711 Y-32.498 Z0.49
G3 X-194.954 Y-32.713 Z0.472 I-0.121 J-0.108
G1 X-192.307 Y-35.711 Z0.332
G3 X-192.063 Y-35.496 Z0.314 I0.122 J0.108
G1 X-194.711 Y-32.498 Z0.175
G3 X-194.954 Y-32.713 Z0.157 I-0.121 J-0.108
G1 X-192.307 Y-35.711 Z0.017
G3 X-192.063 Y-35.496 Z-0.001 I0.122 J0.108
G1 X-194.711 Y-32.498 Z-0.14
G3 X-194.954 Y-32.713 Z-0.158 I-0.121 J-0.108
G1 X-192.307 Y-35.711 Z-0.298
G3 X-192.063 Y-35.496 Z-0.315 I0.122 J0.108
G1 X-194.711 Y-32.498 Z-0.455
G3 X-194.954 Y-32.713 Z-0.473 I-0.121 J-0.108
G1 X-192.307 Y-35.711 Z-0.613
G3 X-192.063 Y-35.496 Z-0.63 I0.122 J0.108
G1 X-194.711 Y-32.498 Z-0.77
G3 X-194.954 Y-32.713 Z-0.788 I-0.121 J-0.108
G1 X-192.307 Y-35.711 Z-0.928
G3 X-192.063 Y-35.496 Z-0.945 I0.122 J0.108
G1 X-194.711 Y-32.498 Z-1.085
G3 X-194.954 Y-32.713 Z-1.103 I-0.121 J-0.108
G1 X-192.307 Y-35.711 Z-1.243
G3 X-192.063 Y-35.496 Z-1.26 I0.122 J0.108
G1 X-194.711 Y-32.498 Z-1.4
G3 X-194.954 Y-32.713 Z-1.418 I-0.121 J-0.108
G1 X-192.307 Y-35.711 Z-1.558
G3 X-192.063 Y-35.496 Z-1.575 I0.122 J0.108
G1 X-194.711 Y-32.498 Z-1.715
G3 X-194.954 Y-32.713 Z-1.733 I-0.121 J-0.108
G1 X-192.307 Y-35.711 Z-1.873
G3 X-192.063 Y-35.496 Z-1.89 I0.122 J0.108
G1 X-194.711 Y-32.498 Z-2.03
G3 X-194.954 Y-32.713 Z-2.048 I-0.121 J-0.108
G1 X-192.307 Y-35.711 Z-2.187
G3 X-192.063 Y-35.496 Z-2.205 I0.122 J0.108
G1 X-194.711 Y-32.498 Z-2.345
G3 X-194.954 Y-32.713 Z-2.363 I-0.121 J-0.108
G1 X-192.307 Y-35.711 Z-2.502
G3 X-192.063 Y-35.496 Z-2.52 I0.122 J0.108
G1 X-194.711 Y-32.498 Z-2.66
G3 X-194.954 Y-32.713 Z-2.678 I-0.121 J-0.108
G1 X-192.307 Y-35.711 Z-2.817
G3 X-192.063 Y-35.496 Z-2.835 I0.122 J0.108
G1 X-194.711 Y-32.498 Z-2.975
G3 X-194.954 Y-32.713 Z-2.993 I-0.121 J-0.108
G1 X-192.307 Y-35.711 Z-3.132
G3 X-192.063 Y-35.496 Z-3.15 I0.122 J0.108
G1 X-194.711 Y-32.498 Z-3.29
G3 X-194.954 Y-32.713 Z-3.308 I-0.121 J-0.108
G1 X-192.307 Y-35.711 Z-3.447
G3 X-192.063 Y-35.496 Z-3.465 I0.122 J0.108
G1 X-194.711 Y-32.498 Z-3.605
G3 X-194.954 Y-32.713 Z-3.623 I-0.121 J-0.108
G1 X-192.307 Y-35.711 Z-3.762
G3 X-192.063 Y-35.496 Z-3.78 I0.122 J0.108
G1 X-194.711 Y-32.498 Z-3.92
G3 X-194.954 Y-32.713 Z-3.938 I-0.121 J-0.108
G1 X-192.307 Y-35.711 Z-4.077
G3 X-192.063 Y-35.496 Z-4.095 I0.122 J0.108
G1 X-194.711 Y-32.498 Z-4.235
G3 X-194.954 Y-32.713 Z-4.253 I-0.121 J-0.108
G1 X-192.307 Y-35.711 Z-4.392
G3 X-192.063 Y-35.496 Z-4.41 I0.122 J0.108
G1 X-194.711 Y-32.498 Z-4.55
G3 X-194.954 Y-32.713 Z-4.568 I-0.121 J-0.108
G1 X-192.307 Y-35.711 Z-4.707
G3 X-192.063 Y-35.496 Z-4.725 I0.122 J0.108
G1 X-194.711 Y-32.498 Z-4.865
G3 X-194.954 Y-32.713 Z-4.883 I-0.121 J-0.108
G1 X-192.307 Y-35.711 Z-5.022
G3 X-192.063 Y-35.496 Z-5.04 I0.122 J0.108
G1 X-194.711 Y-32.498 Z-5.18
G3 X-194.954 Y-32.713 Z-5.198 I-0.121 J-0.108
G1 X-192.307 Y-35.711 Z-5.337
G3 X-192.063 Y-35.496 Z-5.355 I0.122 J0.108
G1 X-194.711 Y-32.498 Z-5.495
G3 X-194.954 Y-32.713 Z-5.513 I-0.121 J-0.108
G1 X-192.307 Y-35.711 Z-5.652
G3 X-192.063 Y-35.496 Z-5.67 I0.122 J0.108
G1 X-194.711 Y-32.498 Z-5.81
G3 X-194.954 Y-32.713 Z-5.828 I-0.121 J-0.108
G1 X-192.307 Y-35.711 Z-5.967
G3 X-192.063 Y-35.496 Z-5.985 I0.122 J0.108
G1 X-194.711 Y-32.498 Z-6.125
G3 X-194.954 Y-32.713 Z-6.142 I-0.121 J-0.108
G1 X-192.307 Y-35.711 Z-6.282
G3 X-192.063 Y-35.496 Z-6.3 I0.122 J0.108
S6000
G1 X-194.711 Y-32.498 F1500
G3 X-194.954 Y-32.713 I-0.121 J-0.108
G1 X-192.307 Y-35.711
G3 X-192.063 Y-35.496 I0.122 J0.108
G1 Z5
X-194.84 Y-48.403
Z1 F300
S8000
X-195.993 Y-49.421 Z0.946 F1016
G3 X-196.008 Y-49.651 Z0.937 I0.108 J-0.122
X-195.778 Y-49.665 Z0.928 I0.122 J0.108
G1 X-192.78 Y-47.017 Z0.789
G3 X-192.765 Y-46.788 Z0.78 I-0.107 J0.122
X-192.994 Y-46.774 Z0.771 I-0.122 J-0.107
G1 X-195.993 Y-49.421 Z0.631
G3 X-196.008 Y-49.651 Z0.622 I0.108 J-0.122
X-195.778 Y-49.665 Z0.613 I0.122 J0.108
G1 X-192.78 Y-47.017 Z0.474
G3 X-192.765 Y-46.788 Z0.465 I-0.107 J0.122
X-192.994 Y-46.774 Z0.456 I-0.122 J-0.107
G1 X-195.993 Y-49.421 Z0.316
G3 X-196.008 Y-49.651 Z0.307 I0.108 J-0.122
X-195.778 Y-49.665 Z0.298 I0.122 J0.108
G1 X-192.78 Y-47.017 Z0.159
G3 X-192.765 Y-46.788 Z0.15 I-0.107 J0.122
X-192.994 Y-46.774 Z0.141 I-0.122 J-0.107
G1 X-195.993 Y-49.421 Z0.001
G3 X-196.008 Y-49.651 Z-0.008 I0.108 J-0.122
X-195.778 Y-49.665 Z-0.017 I0.122 J0.108
G1 X-192.78 Y-47.017 Z-0.156
G3 X-192.765 Y-46.788 Z-0.165 I-0.107 J0.122
X-192.994 Y-46.774 Z-0.174 I-0.122 J-0.107
G1 X-195.993 Y-49.421 Z-0.314
G3 X-196.008 Y-49.651 Z-0.323 I0.108 J-0.122
X-195.778 Y-49.665 Z-0.332 I0.122 J0.108
G1 X-192.78 Y-47.017 Z-0.471
G3 X-192.765 Y-46.788 Z-0.48 I-0.107 J0.122
X-192.994 Y-46.774 Z-0.489 I-0.122 J-0.107
G1 X-195.993 Y-49.421 Z-0.629
G3 X-196.008 Y-49.651 Z-0.638 I0.108 J-0.122
X-195.778 Y-49.665 Z-0.647 I0.122 J0.108
G1 X-192.78 Y-47.017 Z-0.787
G3 X-192.765 Y-46.788 Z-0.795 I-0.107 J0.122
X-192.994 Y-46.774 Z-0.804 I-0.122 J-0.107
G1 X-195.993 Y-49.421 Z-0.944
G3 X-196.008 Y-49.651 Z-0.953 I0.108 J-0.122
X-195.778 Y-49.665 Z-0.962 I0.122 J0.108
G1 X-192.78 Y-47.017 Z-1.102
G3 X-192.765 Y-46.788 Z-1.111 I-0.107 J0.122
X-192.994 Y-46.774 Z-1.119 I-0.122 J-0.107
G1 X-195.993 Y-49.421 Z-1.259
G3 X-196.008 Y-49.651 Z-1.268 I0.108 J-0.122
X-195.778 Y-49.665 Z-1.277 I0.122 J0.108
G1 X-192.78 Y-47.017 Z-1.417
G3 X-192.765 Y-46.788 Z-1.426 I-0.107 J0.122
X-192.994 Y-46.774 Z-1.434 I-0.122 J-0.107
G1 X-195.993 Y-49.421 Z-1.574
G3 X-196.008 Y-49.651 Z-1.583 I0.108 J-0.122
X-195.778 Y-49.665 Z-1.592 I0.122 J0.108
G1 X-192.78 Y-47.017 Z-1.732
G3 X-192.765 Y-46.788 Z-1.741 I-0.107 J0.122
X-192.994 Y-46.774 Z-1.75 I-0.122 J-0.107
G1 X-195.993 Y-49.421 Z-1.889
G3 X-196.008 Y-49.651 Z-1.898 I0.108 J-0.122
X-195.778 Y-49.665 Z-1.907 I0.122 J0.108
G1 X-192.78 Y-47.017 Z-2.047
G3 X-192.765 Y-46.788 Z-2.056 I-0.107 J0.122
X-192.994 Y-46.774 Z-2.065 I-0.122 J-0.107
G1 X-195.993 Y-49.421 Z-2.204
G3 X-196.008 Y-49.651 Z-2.213 I0.108 J-0.122
X-195.778 Y-49.665 Z-2.222 I0.122 J0.108
G1 X-192.78 Y-47.017 Z-2.362
G3 X-192.765 Y-46.788 Z-2.371 I-0.107 J0.122
X-192.994 Y-46.774 Z-2.38 I-0.122 J-0.107
G1 X-195.993 Y-49.421 Z-2.519
G3 X-196.008 Y-49.651 Z-2.528 I0.108 J-0.122
X-195.778 Y-49.665 Z-2.537 I0.122 J0.108
G1 X-192.78 Y-47.017 Z-2.677
G3 X-192.765 Y-46.788 Z-2.686 I-0.107 J0.122
X-192.994 Y-46.774 Z-2.695 I-0.122 J-0.107
G1 X-195.993 Y-49.421 Z-2.834
G3 X-196.008 Y-49.651 Z-2.843 I0.108 J-0.122
X-195.778 Y-49.665 Z-2.852 I0.122 J0.108
G1 X-192.78 Y-47.017 Z-2.992
G3 X-192.765 Y-46.788 Z-3.001 I-0.107 J0.122
X-192.994 Y-46.774 Z-3.01 I-0.122 J-0.107
G1 X-195.993 Y-49.421 Z-3.149
G3 X-196.008 Y-49.651 Z-3.158 I0.108 J-0.122
X-195.778 Y-49.665 Z-3.167 I0.122 J0.108
G1 X-192.78 Y-47.017 Z-3.307
G3 X-192.765 Y-46.788 Z-3.316 I-0.107 J0.122
X-192.994 Y-46.774 Z-3.325 I-0.122 J-0.107
G1 X-195.993 Y-49.421 Z-3.464
G3 X-196.008 Y-49.651 Z-3.473 I0.108 J-0.122
X-195.778 Y-49.665 Z-3.482 I0.122 J0.108
G1 X-192.78 Y-47.017 Z-3.622
G3 X-192.765 Y-46.788 Z-3.631 I-0.107 J0.122
X-192.994 Y-46.774 Z-3.64 I-0.122 J-0.107
G1 X-195.993 Y-49.421 Z-3.78
G3 X-196.008 Y-49.651 Z-3.788 I0.108 J-0.122
X-195.778 Y-49.665 Z-3.797 I0.122 J0.108
G1 X-192.78 Y-47.017 Z-3.937
G3 X-192.765 Y-46.788 Z-3.946 I-0.107 J0.122
X-192.994 Y-46.774 Z-3.955 I-0.122 J-0.107
G1 X-195.993 Y-49.421 Z-4.095
G3 X-196.008 Y-49.651 Z-4.104 I0.108 J-0.122
X-195.778 Y-49.665 Z-4.112 I0.122 J0.108
G1 X-192.78 Y-47.017 Z-4.252
G3 X-192.765 Y-46.788 Z-4.261 I-0.107 J0.122
X-192.994 Y-46.774 Z-4.27 I-0.122 J-0.107
G1 X-195.993 Y-49.421 Z-4.41
G3 X-196.008 Y-49.651 Z-4.419 I0.108 J-0.122
X-195.778 Y-49.665 Z-4.428 I0.122 J0.108
G1 X-192.78 Y-47.017 Z-4.567
G3 X-192.765 Y-46.788 Z-4.576 I-0.107 J0.122
X-192.994 Y-46.774 Z-4.585 I-0.122 J-0.107
G1 X-195.993 Y-49.421 Z-4.725
G3 X-196.008 Y-49.651 Z-4.734 I0.108 J-0.122
X-195.778 Y-49.665 Z-4.743 I0.122 J0.108
G1 X-192.78 Y-47.017 Z-4.882
G3 X-192.765 Y-46.788 Z-4.891 I-0.107 J0.122
X-192.994 Y-46.774 Z-4.9 I-0.122 J-0.107
G1 X-195.993 Y-49.421 Z-5.04
G3 X-196.008 Y-49.651 Z-5.049 I0.108 J-0.122
X-195.778 Y-49.665 Z-5.058 I0.122 J0.108
G1 X-192.78 Y-47.017 Z-5.197
G3 X-192.765 Y-46.788 Z-5.206 I-0.107 J0.122
X-192.994 Y-46.774 Z-5.215 I-0.122 J-0.107
G1 X-195.993 Y-49.421 Z-5.355
G3 X-196.008 Y-49.651 Z-5.364 I0.108 J-0.122
X-195.778 Y-49.665 Z-5.373 I0.122 J0.108
G1 X-192.78 Y-47.017 Z-5.512
G3 X-192.765 Y-46.788 Z-5.521 I-0.107 J0.122
X-192.994 Y-46.774 Z-5.53 I-0.122 J-0.107
G1 X-195.993 Y-49.421 Z-5.67
G3 X-196.008 Y-49.651 Z-5.679 I0.108 J-0.122
X-195.778 Y-49.665 Z-5.688 I0.122 J0.108
G1 X-192.78 Y-47.017 Z-5.827
G3 X-192.765 Y-46.788 Z-5.836 I-0.107 J0.122
X-192.994 Y-46.774 Z-5.845 I-0.122 J-0.107
G1 X-195.993 Y-49.421 Z-5.985
G3 X-196.008 Y-49.651 Z-5.994 I0.108 J-0.122
X-195.778 Y-49.665 Z-6.003 I0.122 J0.108
G1 X-192.78 Y-47.017 Z-6.142
G3 X-192.765 Y-46.788 Z-6.151 I-0.107 J0.122
X-192.994 Y-46.774 Z-6.16 I-0.122 J-0.107
G1 X-195.993 Y-49.421 Z-6.3
S6000
G3 X-196.008 Y-49.651 I0.108 J-0.122 F1500
X-195.778 Y-49.665 I0.122 J0.108
G1 X-192.78 Y-47.017
G3 X-192.765 Y-46.788 I-0.107 J0.122
X-192.994 Y-46.774 I-0.122 J-0.107
G1 X-195.993 Y-49.421
Z5
X-193.284 Y-91.805
Z1 F300
S8000
X-194.318 Y-90.634 Z0.945 F1016
G3 X-194.548 Y-90.62 Z0.937 I-0.122 J-0.108
X-194.562 Y-90.849 Z0.928 I0.108 J-0.122
G1 X-191.915 Y-93.848 Z0.788
G3 X-191.671 Y-93.632 Z0.77 I0.122 J0.108
G1 X-194.318 Y-90.634 Z0.63
G3 X-194.548 Y-90.62 Z0.622 I-0.122 J-0.108
X-194.562 Y-90.849 Z0.613 I0.108 J-0.122
G1 X-191.915 Y-93.848 Z0.473
G3 X-191.671 Y-93.632 Z0.455 I0.122 J0.108
G1 X-194.318 Y-90.634 Z0.315
G3 X-194.548 Y-90.62 Z0.306 I-0.122 J-0.108
X-194.562 Y-90.849 Z0.298 I0.108 J-0.122
G1 X-191.915 Y-93.848 Z0.158
G3 X-191.671 Y-93.632 Z0.14 I0.122 J0.108
G1 X-194.318 Y-90.634 Z0
G3 X-194.548 Y-90.62 Z-0.009 I-0.122 J-0.108
X-194.562 Y-90.849 Z-0.017 I0.108 J-0.122
G1 X-191.915 Y-93.848 Z-0.157
G3 X-191.671 Y-93.632 Z-0.175 I0.122 J0.108
G1 X-194.318 Y-90.634 Z-0.315
G3 X-194.548 Y-90.62 Z-0.324 I-0.122 J-0.108
X-194.562 Y-90.849 Z-0.332 I0.108 J-0.122
G1 X-191.915 Y-93.848 Z-0.472
G3 X-191.671 Y-93.632 Z-0.49 I0.122 J0.108
G1 X-194.318 Y-90.634 Z-0.63
G3 X-194.548 Y-90.62 Z-0.639 I-0.122 J-0.108
X-194.562 Y-90.849 Z-0.647 I0.108 J-0.122
G1 X-191.915 Y-93.848 Z-0.787
G3 X-191.671 Y-93.632 Z-0.805 I0.122 J0.108
G1 X-194.318 Y-90.634 Z-0.945
G3 X-194.548 Y-90.62 Z-0.954 I-0.122 J-0.108
X-194.562 Y-90.849 Z-0.963 I0.108 J-0.122
G1 X-191.915 Y-93.848 Z-1.102
G3 X-191.671 Y-93.632 Z-1.12 I0.122 J0.108
G1 X-194.318 Y-90.634 Z-1.26
G3 X-194.548 Y-90.62 Z-1.269 I-0.122 J-0.108
X-194.562 Y-90.849 Z-1.278 I0.108 J-0.122
G1 X-191.915 Y-93.848 Z-1.417
G3 X-191.671 Y-93.632 Z-1.435 I0.122 J0.108
G1 X-194.318 Y-90.634 Z-1.575
G3 X-194.548 Y-90.62 Z-1.584 I-0.122 J-0.108
X-194.562 Y-90.849 Z-1.593 I0.108 J-0.122
G1 X-191.915 Y-93.848 Z-1.732
G3 X-191.671 Y-93.632 Z-1.75 I0.122 J0.108
G1 X-194.318 Y-90.634 Z-1.89
G3 X-194.548 Y-90.62 Z-1.899 I-0.122 J-0.108
X-194.562 Y-90.849 Z-1.908 I0.108 J-0.122
G1 X-191.915 Y-93.848 Z-2.047
G3 X-191.671 Y-93.632 Z-2.065 I0.122 J0.108
G1 X-194.318 Y-90.634 Z-2.205
G3 X-194.548 Y-90.62 Z-2.214 I-0.122 J-0.108
X-194.562 Y-90.849 Z-2.223 I0.108 J-0.122
G1 X-191.915 Y-93.848 Z-2.362
G3 X-191.671 Y-93.632 Z-2.38 I0.122 J0.108
G1 X-194.318 Y-90.634 Z-2.52
G3 X-194.548 Y-90.62 Z-2.529 I-0.122 J-0.108
X-194.562 Y-90.849 Z-2.538 I0.108 J-0.122
G1 X-191.915 Y-93.848 Z-2.677
G3 X-191.671 Y-93.632 Z-2.695 I0.122 J0.108
G1 X-194.318 Y-90.634 Z-2.835
G3 X-194.548 Y-90.62 Z-2.844 I-0.122 J-0.108
X-194.562 Y-90.849 Z-2.853 I0.108 J-0.122
G1 X-191.915 Y-93.848 Z-2.992
G3 X-191.671 Y-93.632 Z-3.01 I0.122 J0.108
G1 X-194.318 Y-90.634 Z-3.15
G3 X-194.548 Y-90.62 Z-3.159 I-0.122 J-0.108
X-194.562 Y-90.849 Z-3.168 I0.108 J-0.122
G1 X-191.915 Y-93.848 Z-3.307
G3 X-191.671 Y-93.632 Z-3.325 I0.122 J0.108
G1 X-194.318 Y-90.634 Z-3.465
G3 X-194.548 Y-90.62 Z-3.474 I-0.122 J-0.108
X-194.562 Y-90.849 Z-3.483 I0.108 J-0.122
G1 X-191.915 Y-93.848 Z-3.622
G3 X-191.671 Y-93.632 Z-3.64 I0.122 J0.108
G1 X-194.318 Y-90.634 Z-3.78
G3 X-194.548 Y-90.62 Z-3.789 I-0.122 J-0.108
X-194.562 Y-90.849 Z-3.798 I0.108 J-0.122
G1 X-191.915 Y-93.848 Z-3.937
G3 X-191.671 Y-93.632 Z-3.955 I0.122 J0.108
G1 X-194.318 Y-90.634 Z-4.095
G3 X-194.548 Y-90.62 Z-4.104 I-0.122 J-0.108
X-194.562 Y-90.849 Z-4.113 I0.108 J-0.122
G1 X-191.915 Y-93.848 Z-4.252
G3 X-191.671 Y-93.632 Z-4.27 I0.122 J0.108
G1 X-194.318 Y-90.634 Z-4.41
G3 X-194.548 Y-90.62 Z-4.419 I-0.122 J-0.108
X-194.562 Y-90.849 Z-4.428 I0.108 J-0.122
G1 X-191.915 Y-93.848 Z-4.567
G3 X-191.671 Y-93.632 Z-4.585 I0.122 J0.108
G1 X-194.318 Y-90.634 Z-4.725
G3 X-194.548 Y-90.62 Z-4.734 I-0.122 J-0.108
X-194.562 Y-90.849 Z-4.743 I0.108 J-0.122
G1 X-191.915 Y-93.848 Z-4.882
G3 X-191.671 Y-93.632 Z-4.9 I0.122 J0.108
G1 X-194.318 Y-90.634 Z-5.04
G3 X-194.548 Y-90.62 Z-5.049 I-0.122 J-0.108
X-194.562 Y-90.849 Z-5.058 I0.108 J-0.122
G1 X-191.915 Y-93.848 Z-5.197
G3 X-191.671 Y-93.632 Z-5.215 I0.122 J0.108
G1 X-194.318 Y-90.634 Z-5.355
G3 X-194.548 Y-90.62 Z-5.364 I-0.122 J-0.108
X-194.562 Y-90.849 Z-5.373 I0.108 J-0.122
G1 X-191.915 Y-93.848 Z-5.512
G3 X-191.671 Y-93.632 Z-5.53 I0.122 J0.108
G1 X-194.318 Y-90.634 Z-5.67
G3 X-194.548 Y-90.62 Z-5.679 I-0.122 J-0.108
X-194.562 Y-90.849 Z-5.688 I0.108 J-0.122
G1 X-191.915 Y-93.848 Z-5.827
G3 X-191.671 Y-93.632 Z-5.845 I0.122 J0.108
G1 X-194.318 Y-90.634 Z-5.985
G3 X-194.548 Y-90.62 Z-5.994 I-0.122 J-0.108
X-194.562 Y-90.849 Z-6.003 I0.108 J-0.122
G1 X-191.915 Y-93.848 Z-6.142
G3 X-191.671 Y-93.632 Z-6.16 I0.122 J0.108
G1 X-194.318 Y-90.634 Z-6.3
S6000
G3 X-194.548 Y-90.62 I-0.122 J-0.108 F1500
X-194.562 Y-90.849 I0.108 J-0.122
G1 X-191.915 Y-93.848
G3 X-191.671 Y-93.632 I0.122 J0.108
G1 X-194.318 Y-90.634
Z5
X-178.356 Y-92.765
Z1 F300
S8000
X-177.395 Y-91.917 Z0.955 F1016
G3 X-177.38 Y-91.687 Z0.946 I-0.108 J0.122
X-177.61 Y-91.673 Z0.937 I-0.122 J-0.108
G1 X-180.608 Y-94.32 Z0.798
G3 X-180.623 Y-94.55 Z0.789 I0.107 J-0.122
X-180.394 Y-94.564 Z0.78 I0.122 J0.107
G1 X-177.395 Y-91.917 Z0.64
G3 X-177.38 Y-91.687 Z0.631 I-0.108 J0.122
X-177.61 Y-91.673 Z0.622 I-0.122 J-0.108
G1 X-180.608 Y-94.32 Z0.483
G3 X-180.623 Y-94.55 Z0.474 I0.107 J-0.122
X-180.394 Y-94.564 Z0.465 I0.122 J0.107
G1 X-177.395 Y-91.917 Z0.325
G3 X-177.38 Y-91.687 Z0.316 I-0.108 J0.122
X-177.61 Y-91.673 Z0.307 I-0.122 J-0.108
G1 X-180.608 Y-94.32 Z0.168
G3 X-180.623 Y-94.55 Z0.159 I0.107 J-0.122
X-180.394 Y-94.564 Z0.15 I0.122 J0.107
G1 X-177.395 Y-91.917 Z0.01
G3 X-177.38 Y-91.687 Z0.001 I-0.108 J0.122
X-177.61 Y-91.673 Z-0.008 I-0.122 J-0.108
G1 X-180.608 Y-94.32 Z-0.147
G3 X-180.623 Y-94.55 Z-0.156 I0.107 J-0.122
X-180.394 Y-94.564 Z-0.165 I0.122 J0.107
G1 X-177.395 Y-91.917 Z-0.305
G3 X-177.38 Y-91.687 Z-0.314 I-0.108 J0.122
X-177.61 Y-91.673 Z-0.323 I-0.122 J-0.108
G1 X-180.608 Y-94.32 Z-0.463
G3 X-180.623 Y-94.55 Z-0.471 I0.107 J-0.122
X-180.394 Y-94.564 Z-0.48 I0.122 J0.107
G1 X-177.395 Y-91.917 Z-0.62
G3 X-177.38 Y-91.687 Z-0.629 I-0.108 J0.122
X-177.61 Y-91.673 Z-0.638 I-0.122 J-0.108
G1 X-180.608 Y-94.32 Z-0.778
G3 X-180.623 Y-94.55 Z-0.787 I0.107 J-0.122
X-180.394 Y-94.564 Z-0.795 I0.122 J0.107
G1 X-177.395 Y-91.917 Z-0.935
G3 X-177.38 Y-91.687 Z-0.944 I-0.108 J0.122
X-177.61 Y-91.673 Z-0.953 I-0.122 J-0.108
G1 X-180.608 Y-94.32 Z-1.093
G3 X-180.623 Y-94.55 Z-1.102 I0.107 J-0.122
X-180.394 Y-94.564 Z-1.11 I0.122 J0.107
G1 X-177.395 Y-91.917 Z-1.25
G3 X-177.38 Y-91.687 Z-1.259 I-0.108 J0.122
X-177.61 Y-91.673 Z-1.268 I-0.122 J-0.108
G1 X-180.608 Y-94.32 Z-1.408
G3 X-180.623 Y-94.55 Z-1.417 I0.107 J-0.122
X-180.394 Y-94.564 Z-1.426 I0.122 J0.107
G1 X-177.395 Y-91.917 Z-1.565
G3 X-177.38 Y-91.687 Z-1.574 I-0.108 J0.122
X-177.61 Y-91.673 Z-1.583 I-0.122 J-0.108
G1 X-180.608 Y-94.32 Z-1.723
G3 X-180.623 Y-94.55 Z-1.732 I0.107 J-0.122
X-180.394 Y-94.564 Z-1.741 I0.122 J0.107
G1 X-177.395 Y-91.917 Z-1.88
G3 X-177.38 Y-91.687 Z-1.889 I-0.108 J0.122
X-177.61 Y-91.673 Z-1.898 I-0.122 J-0.108
G1 X-180.608 Y-94.32 Z-2.038
G3 X-180.623 Y-94.55 Z-2.047 I0.107 J-0.122
X-180.394 Y-94.564 Z-2.056 I0.122 J0.107
G1 X-177.395 Y-91.917 Z-2.195
G3 X-177.38 Y-91.687 Z-2.204 I-0.108 J0.122
X-177.61 Y-91.673 Z-2.213 I-0.122 J-0.108
G1 X-180.608 Y-94.32 Z-2.353
G3 X-180.623 Y-94.55 Z-2.362 I0.107 J-0.122
X-180.394 Y-94.564 Z-2.371 I0.122 J0.107
G1 X-177.395 Y-91.917 Z-2.51
G3 X-177.38 Y-91.687 Z-2.519 I-0.108 J0.122
X-177.61 Y-91.673 Z-2.528 I-0.122 J-0.108
G1 X-180.608 Y-94.32 Z-2.668
G3 X-180.623 Y-94.55 Z-2.677 I0.107 J-0.122
X-180.394 Y-94.564 Z-2.686 I0.122 J0.107
G1 X-177.395 Y-91.917 Z-2.825
G3 X-177.38 Y-91.687 Z-2.834 I-0.108 J0.122
X-177.61 Y-91.673 Z-2.843 I-0.122 J-0.108
G1 X-180.608 Y-94.32 Z-2.983
G3 X-180.623 Y-94.55 Z-2.992 I0.107 J-0.122
X-180.394 Y-94.564 Z-3.001 I0.122 J0.107
G1 X-177.395 Y-91.917 Z-3.141
G3 X-177.38 Y-91.687 Z-3.149 I-0.108 J0.122
X-177.61 Y-91.673 Z-3.158 I-0.122 J-0.108
G1 X-180.608 Y-94.32 Z-3.298
G3 X-180.623 Y-94.55 Z-3.307 I0.107 J-0.122
X-180.394 Y-94.564 Z-3.316 I0.122 J0.107
G1 X-177.395 Y-91.917 Z-3.456
G3 X-177.38 Y-91.687 Z-3.464 I-0.108 J0.122
X-177.61 Y-91.673 Z-3.473 I-0.122 J-0.108
G1 X-180.608 Y-94.32 Z-3.613
G3 X-180.623 Y-94.55 Z-3.622 I0.107 J-0.122
X-180.394 Y-94.564 Z-3.631 I0.122 J0.107
G1 X-177.395 Y-91.917 Z-3.771
G3 X-177.38 Y-91.687 Z-3.78 I-0.108 J0.122
X-177.61 Y-91.673 Z-3.788 I-0.122 J-0.108
G1 X-180.608 Y-94.32 Z-3.928
G3 X-180.623 Y-94.55 Z-3.937 I0.107 J-0.122
X-180.394 Y-94.564 Z-3.946 I0.122 J0.107
G1 X-177.395 Y-91.917 Z-4.086
G3 X-177.38 Y-91.687 Z-4.095 I-0.108 J0.122
X-177.61 Y-91.673 Z-4.104 I-0.122 J-0.108
G1 X-180.608 Y-94.32 Z-4.243
G3 X-180.623 Y-94.55 Z-4.252 I0.107 J-0.122
X-180.394 Y-94.564 Z-4.261 I0.122 J0.107
G1 X-177.395 Y-91.917 Z-4.401
G3 X-177.38 Y-91.687 Z-4.41 I-0.108 J0.122
X-177.61 Y-91.673 Z-4.419 I-0.122 J-0.108
G1 X-180.608 Y-94.32 Z-4.558
G3 X-180.623 Y-94.55 Z-4.567 I0.107 J-0.122
X-180.394 Y-94.564 Z-4.576 I0.122 J0.107
G1 X-177.395 Y-91.917 Z-4.716
G3 X-177.38 Y-91.687 Z-4.725 I-0.108 J0.122
X-177.61 Y-91.673 Z-4.734 I-0.122 J-0.108
G1 X-180.608 Y-94.32 Z-4.873
G3 X-180.623 Y-94.55 Z-4.882 I0.107 J-0.122
X-180.394 Y-94.564 Z-4.891 I0.122 J0.107
G1 X-177.395 Y-91.917 Z-5.031
G3 X-177.38 Y-91.687 Z-5.04 I-0.108 J0.122
X-177.61 Y-91.673 Z-5.049 I-0.122 J-0.108
G1 X-180.608 Y-94.32 Z-5.188
G3 X-180.623 Y-94.55 Z-5.197 I0.107 J-0.122
X-180.394 Y-94.564 Z-5.206 I0.122 J0.107
G1 X-177.395 Y-91.917 Z-5.346
G3 X-177.38 Y-91.687 Z-5.355 I-0.108 J0.122
X-177.61 Y-91.673 Z-5.364 I-0.122 J-0.108
G1 X-180.608 Y-94.32 Z-5.503
G3 X-180.623 Y-94.55 Z-5.512 I0.107 J-0.122
X-180.394 Y-94.564 Z-5.521 I0.122 J0.107
G1 X-177.395 Y-91.917 Z-5.661
G3 X-177.38 Y-91.687 Z-5.67 I-0.108 J0.122
X-177.61 Y-91.673 Z-5.679 I-0.122 J-0.108
G1 X-180.608 Y-94.32 Z-5.818
G3 X-180.623 Y-94.55 Z-5.827 I0.107 J-0.122
X-180.394 Y-94.564 Z-5.836 I0.122 J0.107
G1 X-177.395 Y-91.917 Z-5.976
G3 X-177.38 Y-91.687 Z-5.985 I-0.108 J0.122
X-177.61 Y-91.673 Z-5.994 I-0.122 J-0.108
G1 X-180.608 Y-94.32 Z-6.134
G3 X-180.623 Y-94.55 Z-6.142 I0.107 J-0.122
X-180.394 Y-94.564 Z-6.151 I0.122 J0.107
G1 X-177.395 Y-91.917 Z-6.291
X-177.367 Y-91.885 Z-6.293
X-177.348 Y-91.846 Z-6.294
X-177.34 Y-91.805 Z-6.296
X-177.343 Y-91.762 Z-6.297
X-177.356 Y-91.722 Z-6.299
X-177.38 Y-91.687 Z-6.3
S6000
X-177.412 Y-91.659 F1500
X-177.45 Y-91.64
X-177.492 Y-91.632
X-177.534 Y-91.635
X-177.575 Y-91.649
X-177.61 Y-91.673
X-180.608 Y-94.32
G3 X-180.623 Y-94.55 I0.107 J-0.122
X-180.394 Y-94.564 I0.122 J0.107
G1 X-177.395 Y-91.917
X-177.367 Y-91.885
X-177.348 Y-91.846
X-177.34 Y-91.805
X-177.343 Y-91.762
X-177.356 Y-91.722
X-177.38 Y-91.687
Z5
X-179.356 Y-108.072
Z1 F300
S8000
X-178.678 Y-108.84 Z0.964 F1016
G3 X-178.448 Y-108.855 Z0.955 I0.122 J0.108
X-178.434 Y-108.625 Z0.946 I-0.108 J0.122
G1 X-181.081 Y-105.627 Z0.807
G3 X-181.31 Y-105.612 Z0.798 I-0.122 J-0.107
X-181.325 Y-105.841 Z0.789 I0.107 J-0.122
G1 X-178.678 Y-108.84 Z0.649
G3 X-178.448 Y-108.855 Z0.64 I0.122 J0.108
X-178.434 Y-108.625 Z0.631 I-0.108 J0.122
G1 X-181.081 Y-105.627 Z0.492
G3 X-181.31 Y-105.612 Z0.483 I-0.122 J-0.107
X-181.325 Y-105.841 Z0.474 I0.107 J-0.122
G1 X-178.678 Y-108.84 Z0.334
G3 X-178.448 Y-108.855 Z0.325 I0.122 J0.108
X-178.434 Y-108.625 Z0.316 I-0.108 J0.122
G1 X-181.081 Y-105.627 Z0.177
G3 X-181.31 Y-105.612 Z0.168 I-0.122 J-0.107
X-181.325 Y-105.841 Z0.159 I0.107 J-0.122
G1 X-178.678 Y-108.84 Z0.019
G3 X-178.448 Y-108.855 Z0.01 I0.122 J0.108
X-178.434 Y-108.625 Z0.001 I-0.108 J0.122
G1 X-181.081 Y-105.627 Z-0.138
G3 X-181.31 Y-105.612 Z-0.147 I-0.122 J-0.107
X-181.325 Y-105.841 Z-0.156 I0.107 J-0.122
G1 X-178.678 Y-108.84 Z-0.296
G3 X-178.448 Y-108.855 Z-0.305 I0.122 J0.108
X-178.434 Y-108.625 Z-0.314 I-0.108 J0.122
G1 X-181.081 Y-105.627 Z-0.454
G3 X-181.31 Y-105.612 Z-0.462 I-0.122 J-0.107
X-181.325 Y-105.841 Z-0.471 I0.107 J-0.122
G1 X-178.678 Y-108.84 Z-0.611
G3 X-178.448 Y-108.855 Z-0.62 I0.122 J0.108
X-178.434 Y-108.625 Z-0.629 I-0.108 J0.122
G1 X-181.081 Y-105.627 Z-0.769
G3 X-181.31 Y-105.612 Z-0.778 I-0.122 J-0.107
X-181.325 Y-105.841 Z-0.786 I0.107 J-0.122
G1 X-178.678 Y-108.84 Z-0.926
G3 X-178.448 Y-108.855 Z-0.935 I0.122 J0.108
X-178.434 Y-108.625 Z-0.944 I-0.108 J0.122
G1 X-181.081 Y-105.627 Z-1.084
G3 X-181.31 Y-105.612 Z-1.093 I-0.122 J-0.107
X-181.325 Y-105.841 Z-1.102 I0.107 J-0.122
G1 X-178.678 Y-108.84 Z-1.241
G3 X-178.448 Y-108.855 Z-1.25 I0.122 J0.108
X-178.434 Y-108.625 Z-1.259 I-0.108 J0.122
G1 X-181.081 Y-105.627 Z-1.399
G3 X-181.31 Y-105.612 Z-1.408 I-0.122 J-0.107
X-181.325 Y-105.841 Z-1.417 I0.107 J-0.122
G1 X-178.678 Y-108.84 Z-1.556
G3 X-178.448 Y-108.855 Z-1.565 I0.122 J0.108
X-178.434 Y-108.625 Z-1.574 I-0.108 J0.122
G1 X-181.081 Y-105.627 Z-1.714
G3 X-181.31 Y-105.612 Z-1.723 I-0.122 J-0.107
X-181.325 Y-105.841 Z-1.732 I0.107 J-0.122
G1 X-178.678 Y-108.84 Z-1.871
G3 X-178.448 Y-108.855 Z-1.88 I0.122 J0.108
X-178.434 Y-108.625 Z-1.889 I-0.108 J0.122
G1 X-181.081 Y-105.627 Z-2.029
G3 X-181.31 Y-105.612 Z-2.038 I-0.122 J-0.107
X-181.325 Y-105.841 Z-2.047 I0.107 J-0.122
G1 X-178.678 Y-108.84 Z-2.186
G3 X-178.448 Y-108.855 Z-2.195 I0.122 J0.108
X-178.434 Y-108.625 Z-2.204 I-0.108 J0.122
G1 X-181.081 Y-105.627 Z-2.344
G3 X-181.31 Y-105.612 Z-2.353 I-0.122 J-0.107
X-181.325 Y-105.841 Z-2.362 I0.107 J-0.122
G1 X-178.678 Y-108.84 Z-2.501
G3 X-178.448 Y-108.855 Z-2.51 I0.122 J0.108
X-178.434 Y-108.625 Z-2.519 I-0.108 J0.122
G1 X-181.081 Y-105.627 Z-2.659
G3 X-181.31 Y-105.612 Z-2.668 I-0.122 J-0.107
X-181.325 Y-105.841 Z-2.677 I0.107 J-0.122
G1 X-178.678 Y-108.84 Z-2.816
G3 X-178.448 Y-108.855 Z-2.825 I0.122 J0.108
X-178.434 Y-108.625 Z-2.834 I-0.108 J0.122
G1 X-181.081 Y-105.627 Z-2.974
G3 X-181.31 Y-105.612 Z-2.983 I-0.122 J-0.107
X-181.325 Y-105.841 Z-2.992 I0.107 J-0.122
G1 X-178.678 Y-108.84 Z-3.132
G3 X-178.448 Y-108.855 Z-3.14 I0.122 J0.108
X-178.434 Y-108.625 Z-3.149 I-0.108 J0.122
G1 X-181.081 Y-105.627 Z-3.289
G3 X-181.31 Y-105.612 Z-3.298 I-0.122 J-0.107
X-181.325 Y-105.841 Z-3.307 I0.107 J-0.122
G1 X-178.678 Y-108.84 Z-3.447
G3 X-178.448 Y-108.855 Z-3.456 I0.122 J0.108
X-178.434 Y-108.625 Z-3.464 I-0.108 J0.122
G1 X-181.081 Y-105.627 Z-3.604
G3 X-181.31 Y-105.612 Z-3.613 I-0.122 J-0.107
X-181.325 Y-105.841 Z-3.622 I0.107 J-0.122
G1 X-178.678 Y-108.84 Z-3.762
G3 X-178.448 Y-108.855 Z-3.771 I0.122 J0.108
X-178.434 Y-108.625 Z-3.78 I-0.108 J0.122
G1 X-181.081 Y-105.627 Z-3.919
G3 X-181.31 Y-105.612 Z-3.928 I-0.122 J-0.107
X-181.325 Y-105.841 Z-3.937 I0.107 J-0.122
G1 X-178.678 Y-108.84 Z-4.077
G3 X-178.448 Y-108.855 Z-4.086 I0.122 J0.108
X-178.434 Y-108.625 Z-4.095 I-0.108 J0.122
G1 X-181.081 Y-105.627 Z-4.234
G3 X-181.31 Y-105.612 Z-4.243 I-0.122 J-0.107
X-181.325 Y-105.841 Z-4.252 I0.107 J-0.122
G1 X-178.678 Y-108.84 Z-4.392
G3 X-178.448 Y-108.855 Z-4.401 I0.122 J0.108
X-178.434 Y-108.625 Z-4.41 I-0.108 J0.122
G1 X-181.081 Y-105.627 Z-4.549
G3 X-181.31 Y-105.612 Z-4.558 I-0.122 J-0.107
X-181.325 Y-105.841 Z-4.567 I0.107 J-0.122
G1 X-178.678 Y-108.84 Z-4.707
G3 X-178.448 Y-108.855 Z-4.716 I0.122 J0.108
X-178.434 Y-108.625 Z-4.725 I-0.108 J0.122
G1 X-181.081 Y-105.627 Z-4.864
G3 X-181.31 Y-105.612 Z-4.873 I-0.122 J-0.107
X-181.325 Y-105.841 Z-4.882 I0.107 J-0.122
G1 X-178.678 Y-108.84 Z-5.022
G3 X-178.448 Y-108.855 Z-5.031 I0.122 J0.108
X-178.434 Y-108.625 Z-5.04 I-0.108 J0.122
G1 X-181.081 Y-105.627 Z-5.179
G3 X-181.31 Y-105.612 Z-5.188 I-0.122 J-0.107
X-181.325 Y-105.841 Z-5.197 I0.107 J-0.122
G1 X-178.678 Y-108.84 Z-5.337
G3 X-178.448 Y-108.855 Z-5.346 I0.122 J0.108
X-178.434 Y-108.625 Z-5.355 I-0.108 J0.122
G1 X-181.081 Y-105.627 Z-5.495
G3 X-181.31 Y-105.612 Z-5.503 I-0.122 J-0.107
X-181.325 Y-105.841 Z-5.512 I0.107 J-0.122
G1 X-178.678 Y-108.84 Z-5.652
G3 X-178.448 Y-108.855 Z-5.661 I0.122 J0.108
X-178.434 Y-108.625 Z-5.67 I-0.108 J0.122
G1 X-181.081 Y-105.627 Z-5.81
G3 X-181.31 Y-105.612 Z-5.818 I-0.122 J-0.107
X-181.325 Y-105.841 Z-5.827 I0.107 J-0.122
G1 X-178.678 Y-108.84 Z-5.967
G3 X-178.448 Y-108.855 Z-5.976 I0.122 J0.108
X-178.434 Y-108.625 Z-5.985 I-0.108 J0.122
G1 X-181.081 Y-105.627 Z-6.125
G3 X-181.31 Y-105.612 Z-6.134 I-0.122 J-0.107
X-181.325 Y-105.841 Z-6.142 I0.107 J-0.122
G1 X-178.678 Y-108.84 Z-6.282
G3 X-178.448 Y-108.855 Z-6.291 I0.122 J0.108
X-178.434 Y-108.625 Z-6.3 I-0.108 J0.122
S6000
G1 X-181.081 Y-105.627 F1500
G3 X-181.31 Y-105.612 I-0.122 J-0.107
X-181.325 Y-105.841 I0.107 J-0.122
G1 X-178.678 Y-108.84
G3 X-178.448 Y-108.855 I0.122 J0.108
X-178.434 Y-108.625 I-0.108 J0.122
G1 Z5
X-194.415 Y-106.51
Z1 F300
S8000
X-195.601 Y-107.557 Z0.945 F1016
G3 X-195.385 Y-107.801 Z0.927 I0.108 J-0.122
G1 X-192.388 Y-105.154 Z0.787
G3 X-192.373 Y-104.925 Z0.778 I-0.107 J0.122
X-192.602 Y-104.91 Z0.769 I-0.122 J-0.107
G1 X-195.601 Y-107.557 Z0.63
G3 X-195.385 Y-107.801 Z0.612 I0.108 J-0.122
G1 X-192.388 Y-105.154 Z0.472
G3 X-192.373 Y-104.925 Z0.463 I-0.107 J0.122
X-192.602 Y-104.91 Z0.454 I-0.122 J-0.107
G1 X-195.601 Y-107.557 Z0.315
G3 X-195.385 Y-107.801 Z0.297 I0.108 J-0.122
G1 X-192.388 Y-105.154 Z0.157
G3 X-192.373 Y-104.925 Z0.148 I-0.107 J0.122
X-192.602 Y-104.91 Z0.139 I-0.122 J-0.107
G1 X-195.601 Y-107.557 Z0
G3 X-195.385 Y-107.801 Z-0.018 I0.108 J-0.122
G1 X-192.388 Y-105.154 Z-0.158
G3 X-192.373 Y-104.925 Z-0.167 I-0.107 J0.122
X-192.602 Y-104.91 Z-0.176 I-0.122 J-0.107
G1 X-195.601 Y-107.557 Z-0.315
G3 X-195.385 Y-107.801 Z-0.333 I0.108 J-0.122
G1 X-192.388 Y-105.154 Z-0.473
G3 X-192.373 Y-104.925 Z-0.482 I-0.107 J0.122
X-192.602 Y-104.91 Z-0.491 I-0.122 J-0.107
G1 X-195.601 Y-107.557 Z-0.63
G3 X-195.385 Y-107.801 Z-0.648 I0.108 J-0.122
G1 X-192.388 Y-105.154 Z-0.788
G3 X-192.373 Y-104.925 Z-0.797 I-0.107 J0.122
X-192.602 Y-104.91 Z-0.806 I-0.122 J-0.107
G1 X-195.601 Y-107.557 Z-0.945
G3 X-195.385 Y-107.801 Z-0.963 I0.108 J-0.122
G1 X-192.388 Y-105.154 Z-1.103
G3 X-192.373 Y-104.925 Z-1.112 I-0.107 J0.122
X-192.602 Y-104.91 Z-1.121 I-0.122 J-0.107
G1 X-195.601 Y-107.557 Z-1.26
G3 X-195.385 Y-107.801 Z-1.278 I0.108 J-0.122
G1 X-192.388 Y-105.154 Z-1.418
G3 X-192.373 Y-104.925 Z-1.427 I-0.107 J0.122
X-192.602 Y-104.91 Z-1.436 I-0.122 J-0.107
G1 X-195.601 Y-107.557 Z-1.575
G3 X-195.385 Y-107.801 Z-1.593 I0.108 J-0.122
G1 X-192.388 Y-105.154 Z-1.733
G3 X-192.373 Y-104.925 Z-1.742 I-0.107 J0.122
X-192.602 Y-104.91 Z-1.75 I-0.122 J-0.107
G1 X-195.601 Y-107.557 Z-1.89
G3 X-195.385 Y-107.801 Z-1.908 I0.108 J-0.122
G1 X-192.388 Y-105.154 Z-2.048
G3 X-192.373 Y-104.925 Z-2.057 I-0.107 J0.122
X-192.602 Y-104.91 Z-2.065 I-0.122 J-0.107
G1 X-195.601 Y-107.557 Z-2.205
G3 X-195.385 Y-107.801 Z-2.223 I0.108 J-0.122
G1 X-192.388 Y-105.154 Z-2.363
G3 X-192.373 Y-104.925 Z-2.372 I-0.107 J0.122
X-192.602 Y-104.91 Z-2.38 I-0.122 J-0.107
G1 X-195.601 Y-107.557 Z-2.52
G3 X-195.385 Y-107.801 Z-2.538 I0.108 J-0.122
G1 X-192.388 Y-105.154 Z-2.678
G3 X-192.373 Y-104.925 Z-2.687 I-0.107 J0.122
X-192.602 Y-104.91 Z-2.695 I-0.122 J-0.107
G1 X-195.601 Y-107.557 Z-2.835
G3 X-195.385 Y-107.801 Z-2.853 I0.108 J-0.122
G1 X-192.388 Y-105.154 Z-2.993
G3 X-192.373 Y-104.925 Z-3.002 I-0.107 J0.122
X-192.602 Y-104.91 Z-3.01 I-0.122 J-0.107
G1 X-195.601 Y-107.557 Z-3.15
G3 X-195.385 Y-107.801 Z-3.168 I0.108 J-0.122
G1 X-192.388 Y-105.154 Z-3.308
G3 X-192.373 Y-104.925 Z-3.317 I-0.107 J0.122
X-192.602 Y-104.91 Z-3.325 I-0.122 J-0.107
G1 X-195.601 Y-107.557 Z-3.465
G3 X-195.385 Y-107.801 Z-3.483 I0.108 J-0.122
G1 X-192.388 Y-105.154 Z-3.623
G3 X-192.373 Y-104.925 Z-3.632 I-0.107 J0.122
X-192.602 Y-104.91 Z-3.64 I-0.122 J-0.107
G1 X-195.601 Y-107.557 Z-3.78
G3 X-195.385 Y-107.801 Z-3.798 I0.108 J-0.122
G1 X-192.388 Y-105.154 Z-3.938
G3 X-192.373 Y-104.925 Z-3.947 I-0.107 J0.122
X-192.602 Y-104.91 Z-3.955 I-0.122 J-0.107
G1 X-195.601 Y-107.557 Z-4.095
G3 X-195.385 Y-107.801 Z-4.113 I0.108 J-0.122
G1 X-192.388 Y-105.154 Z-4.253
G3 X-192.373 Y-104.925 Z-4.261 I-0.107 J0.122
X-192.602 Y-104.91 Z-4.27 I-0.122 J-0.107
G1 X-195.601 Y-107.557 Z-4.41
G3 X-195.385 Y-107.801 Z-4.428 I0.108 J-0.122
G1 X-192.388 Y-105.154 Z-4.568
G3 X-192.373 Y-104.925 Z-4.576 I-0.107 J0.122
X-192.602 Y-104.91 Z-4.585 I-0.122 J-0.107
G1 X-195.601 Y-107.557 Z-4.725
G3 X-195.385 Y-107.801 Z-4.743 I0.108 J-0.122
G1 X-192.388 Y-105.154 Z-4.883
G3 X-192.373 Y-104.925 Z-4.891 I-0.107 J0.122
X-192.602 Y-104.91 Z-4.9 I-0.122 J-0.107
G1 X-195.601 Y-107.557 Z-5.04
G3 X-195.385 Y-107.801 Z-5.058 I0.108 J-0.122
G1 X-192.388 Y-105.154 Z-5.198
G3 X-192.373 Y-104.925 Z-5.206 I-0.107 J0.122
X-192.602 Y-104.91 Z-5.215 I-0.122 J-0.107
G1 X-195.601 Y-107.557 Z-5.355
G3 X-195.385 Y-107.801 Z-5.373 I0.108 J-0.122
G1 X-192.388 Y-105.154 Z-5.513
G3 X-192.373 Y-104.925 Z-5.521 I-0.107 J0.122
X-192.602 Y-104.91 Z-5.53 I-0.122 J-0.107
G1 X-195.601 Y-107.557 Z-5.67
G3 X-195.385 Y-107.801 Z-5.688 I0.108 J-0.122
G1 X-192.388 Y-105.154 Z-5.828
G3 X-192.373 Y-104.925 Z-5.836 I-0.107 J0.122
X-192.602 Y-104.91 Z-5.845 I-0.122 J-0.107
G1 X-195.601 Y-107.557 Z-5.985
G3 X-195.385 Y-107.801 Z-6.003 I0.108 J-0.122
G1 X-192.388 Y-105.154 Z-6.143
G3 X-192.373 Y-104.925 Z-6.151 I-0.107 J0.122
X-192.602 Y-104.91 Z-6.16 I-0.122 J-0.107
G1 X-195.601 Y-107.557 Z-6.3
S6000
G3 X-195.385 Y-107.801 I0.108 J-0.122 F1500
G1 X-192.388 Y-105.154
G3 X-192.373 Y-104.925 I-0.107 J0.122
X-192.602 Y-104.91 I-0.122 J-0.107
G1 X-195.601 Y-107.557
Z5
X-29.598 Y-87.147
Z1 F300
S8000
X-28.619 Y-86.282 Z0.954 F1016
G3 X-28.834 Y-86.039 Z0.937 I-0.108 J0.122
G1 X-31.832 Y-88.686 Z0.797
G3 X-31.617 Y-88.93 Z0.779 I0.108 J-0.122
G1 X-28.619 Y-86.282 Z0.639
G3 X-28.834 Y-86.039 Z0.622 I-0.108 J0.122
G1 X-31.832 Y-88.686 Z0.482
G3 X-31.617 Y-88.93 Z0.464 I0.108 J-0.122
G1 X-28.619 Y-86.282 Z0.324
G3 X-28.834 Y-86.039 Z0.307 I-0.108 J0.122
G1 X-31.832 Y-88.686 Z0.167
G3 X-31.617 Y-88.93 Z0.149 I0.108 J-0.122
G1 X-28.619 Y-86.282 Z0.009
G3 X-28.834 Y-86.039 Z-0.008 I-0.108 J0.122
G1 X-31.832 Y-88.686 Z-0.148
G3 X-31.617 Y-88.93 Z-0.166 I0.108 J-0.122
G1 X-28.619 Y-86.282 Z-0.306
G3 X-28.834 Y-86.039 Z-0.324 I-0.108 J0.122
G1 X-31.832 Y-88.686 Z-0.463
G3 X-31.617 Y-88.93 Z-0.481 I0.108 J-0.122
G1 X-28.619 Y-86.282 Z-0.621
G3 X-28.834 Y-86.039 Z-0.639 I-0.108 J0.122
G1 X-31.832 Y-88.686 Z-0.778
G3 X-31.617 Y-88.93 Z-0.796 I0.108 J-0.122
G1 X-28.619 Y-86.282 Z-0.936
G3 X-28.834 Y-86.039 Z-0.954 I-0.108 J0.122
G1 X-31.832 Y-88.686 Z-1.093
G3 X-31.617 Y-88.93 Z-1.111 I0.108 J-0.122
G1 X-28.619 Y-86.282 Z-1.251
G3 X-28.834 Y-86.039 Z-1.269 I-0.108 J0.122
G1 X-31.832 Y-88.686 Z-1.408
G3 X-31.617 Y-88.93 Z-1.426 I0.108 J-0.122
G1 X-28.619 Y-86.282 Z-1.566
G3 X-28.834 Y-86.039 Z-1.584 I-0.108 J0.122
G1 X-31.832 Y-88.686 Z-1.723
G3 X-31.617 Y-88.93 Z-1.741 I0.108 J-0.122
G1 X-28.619 Y-86.282 Z-1.881
G3 X-28.834 Y-86.039 Z-1.899 I-0.108 J0.122
G1 X-31.832 Y-88.686 Z-2.038
G3 X-31.617 Y-88.93 Z-2.056 I0.108 J-0.122
G1 X-28.619 Y-86.282 Z-2.196
G3 X-28.834 Y-86.039 Z-2.214 I-0.108 J0.122
G1 X-31.832 Y-88.686 Z-2.353
G3 X-31.617 Y-88.93 Z-2.371 I0.108 J-0.122
G1 X-28.619 Y-86.282 Z-2.511
G3 X-28.834 Y-86.039 Z-2.529 I-0.108 J0.122
G1 X-31.832 Y-88.686 Z-2.668
G3 X-31.617 Y-88.93 Z-2.686 I0.108 J-0.122
G1 X-28.619 Y-86.282 Z-2.826
G3 X-28.834 Y-86.039 Z-2.844 I-0.108 J0.122
G1 X-31.832 Y-88.686 Z-2.983
G3 X-31.617 Y-88.93 Z-3.001 I0.108 J-0.122
G1 X-28.619 Y-86.282 Z-3.141
G3 X-28.834 Y-86.039 Z-3.159 I-0.108 J0.122
G1 X-31.832 Y-88.686 Z-3.298
G3 X-31.617 Y-88.93 Z-3.316 I0.108 J-0.122
G1 X-28.619 Y-86.282 Z-3.456
G3 X-28.834 Y-86.039 Z-3.474 I-0.108 J0.122
G1 X-31.832 Y-88.686 Z-3.613
G3 X-31.617 Y-88.93 Z-3.631 I0.108 J-0.122
G1 X-28.619 Y-86.282 Z-3.771
G3 X-28.834 Y-86.039 Z-3.789 I-0.108 J0.122
G1 X-31.832 Y-88.686 Z-3.928
G3 X-31.617 Y-88.93 Z-3.946 I0.108 J-0.122
G1 X-28.619 Y-86.282 Z-4.086
G3 X-28.834 Y-86.039 Z-4.104 I-0.108 J0.122
G1 X-31.832 Y-88.686 Z-4.243
G3 X-31.617 Y-88.93 Z-4.261 I0.108 J-0.122
G1 X-28.619 Y-86.282 Z-4.401
G3 X-28.834 Y-86.039 Z-4.419 I-0.108 J0.122
G1 X-31.832 Y-88.686 Z-4.558
G3 X-31.617 Y-88.93 Z-4.576 I0.108 J-0.122
G1 X-28.619 Y-86.282 Z-4.716
G3 X-28.834 Y-86.039 Z-4.734 I-0.108 J0.122
G1 X-31.832 Y-88.686 Z-4.873
G3 X-31.617 Y-88.93 Z-4.891 I0.108 J-0.122
G1 X-28.619 Y-86.282 Z-5.031
G3 X-28.834 Y-86.039 Z-5.049 I-0.108 J0.122
G1 X-31.832 Y-88.686 Z-5.189
G3 X-31.617 Y-88.93 Z-5.206 I0.108 J-0.122
G1 X-28.619 Y-86.282 Z-5.346
G3 X-28.834 Y-86.039 Z-5.364 I-0.108 J0.122
G1 X-31.832 Y-88.686 Z-5.504
G3 X-31.617 Y-88.93 Z-5.521 I0.108 J-0.122
G1 X-28.619 Y-86.282 Z-5.661
G3 X-28.834 Y-86.039 Z-5.679 I-0.108 J0.122
G1 X-31.832 Y-88.686 Z-5.819
G3 X-31.617 Y-88.93 Z-5.836 I0.108 J-0.122
G1 X-28.619 Y-86.282 Z-5.976
G3 X-28.834 Y-86.039 Z-5.994 I-0.108 J0.122
G1 X-31.832 Y-88.686 Z-6.134
G3 X-31.617 Y-88.93 Z-6.151 I0.108 J-0.122
G1 X-28.619 Y-86.282 Z-6.291
X-28.591 Y-86.25 Z-6.293
X-28.572 Y-86.212 Z-6.294
X-28.564 Y-86.171 Z-6.296
X-28.567 Y-86.128 Z-6.297
X-28.581 Y-86.088 Z-6.299
X-28.605 Y-86.053 Z-6.3
S6000
X-28.637 Y-86.025 F1500
X-28.675 Y-86.007
X-28.716 Y-85.998
X-28.759 Y-86.001
X-28.799 Y-86.015
X-28.834 Y-86.039
X-31.832 Y-88.686
G3 X-31.617 Y-88.93 I0.108 J-0.122
G1 X-28.619 Y-86.282
X-28.591 Y-86.25
X-28.572 Y-86.212
X-28.564 Y-86.171
X-28.567 Y-86.128
X-28.581 Y-86.088
X-28.605 Y-86.053
Z5
X-15.599 Y-89.187
Z1 F300
S8000
X-14.909 Y-89.969 Z0.964 F1016
G3 X-14.679 Y-89.983 Z0.955 I0.122 J0.107
X-14.665 Y-89.754 Z0.946 I-0.108 J0.122
G1 X-17.313 Y-86.755 Z0.806
G3 X-17.542 Y-86.741 Z0.797 I-0.122 J-0.108
X-17.556 Y-86.97 Z0.788 I0.108 J-0.122
G1 X-14.909 Y-89.969 Z0.649
G3 X-14.679 Y-89.983 Z0.64 I0.122 J0.107
X-14.665 Y-89.754 Z0.631 I-0.108 J0.122
G1 X-17.313 Y-86.755 Z0.491
G3 X-17.542 Y-86.741 Z0.482 I-0.122 J-0.108
X-17.556 Y-86.97 Z0.473 I0.108 J-0.122
G1 X-14.909 Y-89.969 Z0.334
G3 X-14.679 Y-89.983 Z0.325 I0.122 J0.107
X-14.665 Y-89.754 Z0.316 I-0.108 J0.122
G1 X-17.313 Y-86.755 Z0.176
G3 X-17.542 Y-86.741 Z0.167 I-0.122 J-0.108
X-17.556 Y-86.97 Z0.158 I0.108 J-0.122
G1 X-14.909 Y-89.969 Z0.018
G3 X-14.679 Y-89.983 Z0.01 I0.122 J0.107
X-14.665 Y-89.754 Z0.001 I-0.108 J0.122
G1 X-17.313 Y-86.755 Z-0.139
G3 X-17.542 Y-86.741 Z-0.148 I-0.122 J-0.108
X-17.556 Y-86.97 Z-0.157 I0.108 J-0.122
G1 X-14.909 Y-89.969 Z-0.297
G3 X-14.679 Y-89.983 Z-0.305 I0.122 J0.107
X-14.665 Y-89.754 Z-0.314 I-0.108 J0.122
G1 X-17.313 Y-86.755 Z-0.454
G3 X-17.542 Y-86.741 Z-0.463 I-0.122 J-0.108
X-17.556 Y-86.97 Z-0.472 I0.108 J-0.122
G1 X-14.909 Y-89.969 Z-0.612
G3 X-14.679 Y-89.983 Z-0.62 I0.122 J0.107
X-14.665 Y-89.754 Z-0.629 I-0.108 J0.122
G1 X-17.313 Y-86.755 Z-0.769
G3 X-17.542 Y-86.741 Z-0.778 I-0.122 J-0.108
X-17.556 Y-86.97 Z-0.787 I0.108 J-0.122
G1 X-14.909 Y-89.969 Z-0.927
G3 X-14.679 Y-89.983 Z-0.936 I0.122 J0.107
X-14.665 Y-89.754 Z-0.944 I-0.108 J0.122
G1 X-17.313 Y-86.755 Z-1.084
G3 X-17.542 Y-86.741 Z-1.093 I-0.122 J-0.108
X-17.556 Y-86.97 Z-1.102 I0.108 J-0.122
G1 X-14.909 Y-89.969 Z-1.242
G3 X-14.679 Y-89.983 Z-1.251 I0.122 J0.107
X-14.665 Y-89.754 Z-1.259 I-0.108 J0.122
G1 X-17.313 Y-86.755 Z-1.399
G3 X-17.542 Y-86.741 Z-1.408 I-0.122 J-0.108
X-17.556 Y-86.97 Z-1.417 I0.108 J-0.122
G1 X-14.909 Y-89.969 Z-1.557
G3 X-14.679 Y-89.983 Z-1.566 I0.122 J0.107
X-14.665 Y-89.754 Z-1.575 I-0.108 J0.122
G1 X-17.313 Y-86.755 Z-1.714
G3 X-17.542 Y-86.741 Z-1.723 I-0.122 J-0.108
X-17.556 Y-86.97 Z-1.732 I0.108 J-0.122
G1 X-14.909 Y-89.969 Z-1.872
G3 X-14.679 Y-89.983 Z-1.881 I0.122 J0.107
X-14.665 Y-89.754 Z-1.89 I-0.108 J0.122
G1 X-17.313 Y-86.755 Z-2.029
G3 X-17.542 Y-86.741 Z-2.038 I-0.122 J-0.108
X-17.556 Y-86.97 Z-2.047 I0.108 J-0.122
G1 X-14.909 Y-89.969 Z-2.187
G3 X-14.679 Y-89.983 Z-2.196 I0.122 J0.107
X-14.665 Y-89.754 Z-2.205 I-0.108 J0.122
G1 X-17.313 Y-86.755 Z-2.344
G3 X-17.542 Y-86.741 Z-2.353 I-0.122 J-0.108
X-17.556 Y-86.97 Z-2.362 I0.108 J-0.122
G1 X-14.909 Y-89.969 Z-2.502
G3 X-14.679 Y-89.983 Z-2.511 I0.122 J0.107
X-14.665 Y-89.754 Z-2.52 I-0.108 J0.122
G1 X-17.313 Y-86.755 Z-2.659
G3 X-17.542 Y-86.741 Z-2.668 I-0.122 J-0.108
X-17.556 Y-86.97 Z-2.677 I0.108 J-0.122
G1 X-14.909 Y-89.969 Z-2.817
G3 X-14.679 Y-89.983 Z-2.826 I0.122 J0.107
X-14.665 Y-89.754 Z-2.835 I-0.108 J0.122
G1 X-17.313 Y-86.755 Z-2.974
G3 X-17.542 Y-86.741 Z-2.983 I-0.122 J-0.108
X-17.556 Y-86.97 Z-2.992 I0.108 J-0.122
G1 X-14.909 Y-89.969 Z-3.132
G3 X-14.679 Y-89.983 Z-3.141 I0.122 J0.107
X-14.665 Y-89.754 Z-3.15 I-0.108 J0.122
G1 X-17.313 Y-86.755 Z-3.289
G3 X-17.542 Y-86.741 Z-3.298 I-0.122 J-0.108
X-17.556 Y-86.97 Z-3.307 I0.108 J-0.122
G1 X-14.909 Y-89.969 Z-3.447
G3 X-14.679 Y-89.983 Z-3.456 I0.122 J0.107
X-14.665 Y-89.754 Z-3.465 I-0.108 J0.122
G1 X-17.313 Y-86.755 Z-3.604
G3 X-17.542 Y-86.741 Z-3.613 I-0.122 J-0.108
X-17.556 Y-86.97 Z-3.622 I0.108 J-0.122
G1 X-14.909 Y-89.969 Z-3.762
G3 X-14.679 Y-89.983 Z-3.771 I0.122 J0.107
X-14.665 Y-89.754 Z-3.78 I-0.108 J0.122
G1 X-17.313 Y-86.755 Z-3.919
G3 X-17.542 Y-86.741 Z-3.928 I-0.122 J-0.108
X-17.556 Y-86.97 Z-3.937 I0.108 J-0.122
G1 X-14.909 Y-89.969 Z-4.077
G3 X-14.679 Y-89.983 Z-4.086 I0.122 J0.107
X-14.665 Y-89.754 Z-4.095 I-0.108 J0.122
G1 X-17.313 Y-86.755 Z-4.234
G3 X-17.542 Y-86.741 Z-4.243 I-0.122 J-0.108
X-17.556 Y-86.97 Z-4.252 I0.108 J-0.122
G1 X-14.909 Y-89.969 Z-4.392
G3 X-14.679 Y-89.983 Z-4.401 I0.122 J0.107
X-14.665 Y-89.754 Z-4.41 I-0.108 J0.122
G1 X-17.313 Y-86.755 Z-4.549
G3 X-17.542 Y-86.741 Z-4.558 I-0.122 J-0.108
X-17.556 Y-86.97 Z-4.567 I0.108 J-0.122
G1 X-14.909 Y-89.969 Z-4.707
G3 X-14.679 Y-89.983 Z-4.716 I0.122 J0.107
X-14.665 Y-89.754 Z-4.725 I-0.108 J0.122
G1 X-17.313 Y-86.755 Z-4.865
G3 X-17.542 Y-86.741 Z-4.873 I-0.122 J-0.108
X-17.556 Y-86.97 Z-4.882 I0.108 J-0.122
G1 X-14.909 Y-89.969 Z-5.022
G3 X-14.679 Y-89.983 Z-5.031 I0.122 J0.107
X-14.665 Y-89.754 Z-5.04 I-0.108 J0.122
G1 X-17.313 Y-86.755 Z-5.18
G3 X-17.542 Y-86.741 Z-5.188 I-0.122 J-0.108
X-17.556 Y-86.97 Z-5.197 I0.108 J-0.122
G1 X-14.909 Y-89.969 Z-5.337
G3 X-14.679 Y-89.983 Z-5.346 I0.122 J0.107
X-14.665 Y-89.754 Z-5.355 I-0.108 J0.122
G1 X-17.313 Y-86.755 Z-5.495
G3 X-17.542 Y-86.741 Z-5.504 I-0.122 J-0.108
X-17.556 Y-86.97 Z-5.512 I0.108 J-0.122
G1 X-14.909 Y-89.969 Z-5.652
G3 X-14.679 Y-89.983 Z-5.661 I0.122 J0.107
X-14.665 Y-89.754 Z-5.67 I-0.108 J0.122
G1 X-17.313 Y-86.755 Z-5.81
G3 X-17.542 Y-86.741 Z-5.819 I-0.122 J-0.108
X-17.556 Y-86.97 Z-5.827 I0.108 J-0.122
G1 X-14.909 Y-89.969 Z-5.967
G3 X-14.679 Y-89.983 Z-5.976 I0.122 J0.107
X-14.665 Y-89.754 Z-5.985 I-0.108 J0.122
G1 X-17.313 Y-86.755 Z-6.125
G3 X-17.542 Y-86.741 Z-6.134 I-0.122 J-0.108
X-17.556 Y-86.97 Z-6.142 I0.108 J-0.122
G1 X-14.909 Y-89.969 Z-6.282
G3 X-14.679 Y-89.983 Z-6.291 I0.122 J0.107
X-14.665 Y-89.754 Z-6.3 I-0.108 J0.122
S6000
G1 X-17.313 Y-86.755 F1500
G3 X-17.542 Y-86.741 I-0.122 J-0.108
X-17.556 Y-86.97 I0.108 J-0.122
G1 X-14.909 Y-89.969
G3 X-14.679 Y-89.983 I0.122 J0.107
X-14.665 Y-89.754 I-0.108 J0.122
G1 Z5
X-14.602 Y-73.907
Z1 F300
S8000
X-13.626 Y-73.045 Z0.955 F1016
G3 X-13.612 Y-72.816 Z0.946 I-0.107 J0.122
X-13.841 Y-72.802 Z0.937 I-0.122 J-0.108
G1 X-16.84 Y-75.449 Z0.797
G3 X-16.854 Y-75.679 Z0.788 I0.108 J-0.122
X-16.625 Y-75.693 Z0.779 I0.122 J0.108
G1 X-13.626 Y-73.045 Z0.64
G3 X-13.612 Y-72.816 Z0.631 I-0.107 J0.122
X-13.841 Y-72.802 Z0.622 I-0.122 J-0.108
G1 X-16.84 Y-75.449 Z0.482
G3 X-16.854 Y-75.679 Z0.473 I0.108 J-0.122
X-16.625 Y-75.693 Z0.464 I0.122 J0.108
G1 X-13.626 Y-73.045 Z0.325
G3 X-13.612 Y-72.816 Z0.316 I-0.107 J0.122
X-13.841 Y-72.802 Z0.307 I-0.122 J-0.108
G1 X-16.84 Y-75.449 Z0.167
G3 X-16.854 Y-75.679 Z0.158 I0.108 J-0.122
X-16.625 Y-75.693 Z0.149 I0.122 J0.108
G1 X-13.626 Y-73.045 Z0.009
G3 X-13.612 Y-72.816 Z0.001 I-0.107 J0.122
X-13.841 Y-72.802 Z-0.008 I-0.122 J-0.108
G1 X-16.84 Y-75.449 Z-0.148
G3 X-16.854 Y-75.679 Z-0.157 I0.108 J-0.122
X-16.625 Y-75.693 Z-0.166 I0.122 J0.108
G1 X-13.626 Y-73.045 Z-0.306
G3 X-13.612 Y-72.816 Z-0.314 I-0.107 J0.122
X-13.841 Y-72.802 Z-0.323 I-0.122 J-0.108
G1 X-16.84 Y-75.449 Z-0.463
G3 X-16.854 Y-75.679 Z-0.472 I0.108 J-0.122
X-16.625 Y-75.693 Z-0.481 I0.122 J0.108
G1 X-13.626 Y-73.045 Z-0.621
G3 X-13.612 Y-72.816 Z-0.629 I-0.107 J0.122
X-13.841 Y-72.802 Z-0.638 I-0.122 J-0.108
G1 X-16.84 Y-75.449 Z-0.778
G3 X-16.854 Y-75.679 Z-0.787 I0.108 J-0.122
X-16.625 Y-75.693 Z-0.796 I0.122 J0.108
G1 X-13.626 Y-73.045 Z-0.936
G3 X-13.612 Y-72.816 Z-0.945 I-0.107 J0.122
X-13.841 Y-72.802 Z-0.953 I-0.122 J-0.108
G1 X-16.84 Y-75.449 Z-1.093
G3 X-16.854 Y-75.679 Z-1.102 I0.108 J-0.122
X-16.625 Y-75.693 Z-1.111 I0.122 J0.108
G1 X-13.626 Y-73.045 Z-1.251
G3 X-13.612 Y-72.816 Z-1.26 I-0.107 J0.122
X-13.841 Y-72.802 Z-1.268 I-0.122 J-0.108
G1 X-16.84 Y-75.449 Z-1.408
G3 X-16.854 Y-75.679 Z-1.417 I0.108 J-0.122
X-16.625 Y-75.693 Z-1.426 I0.122 J0.108
G1 X-13.626 Y-73.045 Z-1.566
G3 X-13.612 Y-72.816 Z-1.575 I-0.107 J0.122
X-13.841 Y-72.802 Z-1.583 I-0.122 J-0.108
G1 X-16.84 Y-75.449 Z-1.723
G3 X-16.854 Y-75.679 Z-1.732 I0.108 J-0.122
X-16.625 Y-75.693 Z-1.741 I0.122 J0.108
G1 X-13.626 Y-73.045 Z-1.881
G3 X-13.612 Y-72.816 Z-1.89 I-0.107 J0.122
X-13.841 Y-72.802 Z-1.899 I-0.122 J-0.108
G1 X-16.84 Y-75.449 Z-2.038
G3 X-16.854 Y-75.679 Z-2.047 I0.108 J-0.122
X-16.625 Y-75.693 Z-2.056 I0.122 J0.108
G1 X-13.626 Y-73.045 Z-2.196
G3 X-13.612 Y-72.816 Z-2.205 I-0.107 J0.122
X-13.841 Y-72.802 Z-2.214 I-0.122 J-0.108
G1 X-16.84 Y-75.449 Z-2.353
G3 X-16.854 Y-75.679 Z-2.362 I0.108 J-0.122
X-16.625 Y-75.693 Z-2.371 I0.122 J0.108
G1 X-13.626 Y-73.045 Z-2.511
G3 X-13.612 Y-72.816 Z-2.52 I-0.107 J0.122
X-13.841 Y-72.802 Z-2.529 I-0.122 J-0.108
G1 X-16.84 Y-75.449 Z-2.668
G3 X-16.854 Y-75.679 Z-2.677 I0.108 J-0.122
X-16.625 Y-75.693 Z-2.686 I0.122 J0.108
G1 X-13.626 Y-73.045 Z-2.826
G3 X-13.612 Y-72.816 Z-2.835 I-0.107 J0.122
X-13.841 Y-72.802 Z-2.844 I-0.122 J-0.108
G1 X-16.84 Y-75.449 Z-2.983
G3 X-16.854 Y-75.679 Z-2.992 I0.108 J-0.122
X-16.625 Y-75.693 Z-3.001 I0.122 J0.108
G1 X-13.626 Y-73.045 Z-3.141
G3 X-13.612 Y-72.816 Z-3.15 I-0.107 J0.122
X-13.841 Y-72.802 Z-3.159 I-0.122 J-0.108
G1 X-16.84 Y-75.449 Z-3.298
G3 X-16.854 Y-75.679 Z-3.307 I0.108 J-0.122
X-16.625 Y-75.693 Z-3.316 I0.122 J0.108
G1 X-13.626 Y-73.045 Z-3.456
G3 X-13.612 Y-72.816 Z-3.465 I-0.107 J0.122
X-13.841 Y-72.802 Z-3.474 I-0.122 J-0.108
G1 X-16.84 Y-75.449 Z-3.613
G3 X-16.854 Y-75.679 Z-3.622 I0.108 J-0.122
X-16.625 Y-75.693 Z-3.631 I0.122 J0.108
G1 X-13.626 Y-73.045 Z-3.771
G3 X-13.612 Y-72.816 Z-3.78 I-0.107 J0.122
X-13.841 Y-72.802 Z-3.789 I-0.122 J-0.108
G1 X-16.84 Y-75.449 Z-3.928
G3 X-16.854 Y-75.679 Z-3.937 I0.108 J-0.122
X-16.625 Y-75.693 Z-3.946 I0.122 J0.108
G1 X-13.626 Y-73.045 Z-4.086
G3 X-13.612 Y-72.816 Z-4.095 I-0.107 J0.122
X-13.841 Y-72.802 Z-4.104 I-0.122 J-0.108
G1 X-16.84 Y-75.449 Z-4.243
G3 X-16.854 Y-75.679 Z-4.252 I0.108 J-0.122
X-16.625 Y-75.693 Z-4.261 I0.122 J0.108
G1 X-13.626 Y-73.045 Z-4.401
G3 X-13.612 Y-72.816 Z-4.41 I-0.107 J0.122
X-13.841 Y-72.802 Z-4.419 I-0.122 J-0.108
G1 X-16.84 Y-75.449 Z-4.558
G3 X-16.854 Y-75.679 Z-4.567 I0.108 J-0.122
X-16.625 Y-75.693 Z-4.576 I0.122 J0.108
G1 X-13.626 Y-73.045 Z-4.716
G3 X-13.612 Y-72.816 Z-4.725 I-0.107 J0.122
X-13.841 Y-72.802 Z-4.734 I-0.122 J-0.108
G1 X-16.84 Y-75.449 Z-4.873
G3 X-16.854 Y-75.679 Z-4.882 I0.108 J-0.122
X-16.625 Y-75.693 Z-4.891 I0.122 J0.108
G1 X-13.626 Y-73.045 Z-5.031
G3 X-13.612 Y-72.816 Z-5.04 I-0.107 J0.122
X-13.841 Y-72.802 Z-5.049 I-0.122 J-0.108
G1 X-16.84 Y-75.449 Z-5.188
G3 X-16.854 Y-75.679 Z-5.197 I0.108 J-0.122
X-16.625 Y-75.693 Z-5.206 I0.122 J0.108
