(Arm_ersatz)
(T5 D=3.175 CR=0 - ZMIN=-8.3 - Schaftfrser)
G90 G94
G17
G21
(When using Fusion for Personal Use, the feedrate of rapid)
(moves is reduced to match the feedrate of cutting moves,)
(which can increase machining time. Unrestricted rapid moves)
(are available with a Fusion Subscription.)
G28 G91 Z0
G90

(2D-Kontur9)
M0
(MANUAL TOOL CHANGE TO T5)
S2500 M3
G17 G90 G94
G54
G0 X-200.035 Y-27.512
Z15
G1 Z5 F1000
Z2.5 F333.3
S5000
X-199.704 Y-27.18 Z2.488
G3 X-199.935 Y-26.95 Z2.474 I-0.116 J0.115
G1 X-201.344 Y-28.369 Z2.422
G3 X-201.114 Y-28.598 Z2.409 I0.115 J-0.114
G1 X-199.704 Y-27.18 Z2.356
G3 X-199.935 Y-26.95 Z2.343 I-0.116 J0.115
G1 X-201.344 Y-28.369 Z2.29
G3 X-201.114 Y-28.598 Z2.277 I0.115 J-0.114
G1 X-199.704 Y-27.18 Z2.225
G3 X-199.935 Y-26.95 Z2.211 I-0.116 J0.115
G1 X-201.344 Y-28.369 Z2.159
G3 X-201.114 Y-28.598 Z2.146 I0.115 J-0.114
G1 X-199.704 Y-27.18 Z2.093
G3 X-199.935 Y-26.95 Z2.08 I-0.116 J0.115
G1 X-201.344 Y-28.369 Z2.028
G3 X-201.114 Y-28.598 Z2.014 I0.115 J-0.114
G1 X-199.704 Y-27.18 Z1.962
G3 X-199.935 Y-26.95 Z1.948 I-0.116 J0.115
G1 X-201.344 Y-28.369 Z1.896
G3 X-201.114 Y-28.598 Z1.883 I0.115 J-0.114
G1 X-199.704 Y-27.18 Z1.83
G3 X-199.935 Y-26.95 Z1.817 I-0.116 J0.115
G1 X-201.344 Y-28.369 Z1.765
G3 X-201.114 Y-28.598 Z1.751 I0.115 J-0.114
G1 X-199.704 Y-27.18 Z1.699
G3 X-199.935 Y-26.95 Z1.685 I-0.116 J0.115
G1 X-201.344 Y-28.369 Z1.633
G3 X-201.114 Y-28.598 Z1.62 I0.115 J-0.114
G1 X-199.704 Y-27.18 Z1.567
G3 X-199.935 Y-26.95 Z1.554 I-0.116 J0.115
G1 X-201.344 Y-28.369 Z1.502
G3 X-201.114 Y-28.598 Z1.488 I0.115 J-0.114
G1 X-199.704 Y-27.18 Z1.436
G3 X-199.935 Y-26.95 Z1.423 I-0.116 J0.115
G1 X-201.344 Y-28.369 Z1.37
G3 X-201.114 Y-28.598 Z1.357 I0.115 J-0.114
G1 X-199.704 Y-27.18 Z1.304
G3 X-199.935 Y-26.95 Z1.291 I-0.116 J0.115
G1 X-201.344 Y-28.369 Z1.239
G3 X-201.114 Y-28.598 Z1.225 I0.115 J-0.114
G1 X-199.704 Y-27.18 Z1.173
G3 X-199.935 Y-26.95 Z1.16 I-0.116 J0.115
G1 X-201.344 Y-28.369 Z1.107
G3 X-201.114 Y-28.598 Z1.094 I0.115 J-0.114
G1 X-199.704 Y-27.18 Z1.041
G3 X-199.935 Y-26.95 Z1.028 I-0.116 J0.115
G1 X-201.344 Y-28.369 Z0.976
G3 X-201.114 Y-28.598 Z0.962 I0.115 J-0.114
G1 X-199.704 Y-27.18 Z0.91
G3 X-199.935 Y-26.95 Z0.897 I-0.116 J0.115
G1 X-201.344 Y-28.369 Z0.844
G3 X-201.114 Y-28.598 Z0.831 I0.115 J-0.114
G1 X-199.704 Y-27.18 Z0.779
G3 X-199.935 Y-26.95 Z0.765 I-0.116 J0.115
G1 X-201.344 Y-28.369 Z0.713
G3 X-201.114 Y-28.598 Z0.699 I0.115 J-0.114
G1 X-199.704 Y-27.18 Z0.647
G3 X-199.935 Y-26.95 Z0.634 I-0.116 J0.115
G1 X-201.344 Y-28.369 Z0.581
G3 X-201.114 Y-28.598 Z0.568 I0.115 J-0.114
G1 X-199.704 Y-27.18 Z0.516
G3 X-199.935 Y-26.95 Z0.502 I-0.116 J0.115
G1 X-201.344 Y-28.369 Z0.45
G3 X-201.114 Y-28.598 Z0.436 I0.115 J-0.114
G1 X-199.704 Y-27.18 Z0.384
G3 X-199.935 Y-26.95 Z0.371 I-0.116 J0.115
G1 X-201.344 Y-28.369 Z0.318
G3 X-201.114 Y-28.598 Z0.305 I0.115 J-0.114
G1 X-199.704 Y-27.18 Z0.253
G3 X-199.935 Y-26.95 Z0.239 I-0.116 J0.115
G1 X-201.344 Y-28.369 Z0.187
G3 X-201.114 Y-28.598 Z0.174 I0.115 J-0.114
G1 X-199.704 Y-27.18 Z0.121
G3 X-199.935 Y-26.95 Z0.108 I-0.116 J0.115
G1 X-201.344 Y-28.369 Z0.055
G3 X-201.114 Y-28.598 Z0.042 I0.115 J-0.114
G1 X-199.704 Y-27.18 Z-0.01
G3 X-199.935 Y-26.95 Z-0.024 I-0.116 J0.115
G1 X-201.344 Y-28.369 Z-0.076
G3 X-201.114 Y-28.598 Z-0.089 I0.115 J-0.114
G1 X-199.704 Y-27.18 Z-0.142
G3 X-199.935 Y-26.95 Z-0.155 I-0.116 J0.115
G1 X-201.344 Y-28.369 Z-0.208
G3 X-201.114 Y-28.598 Z-0.221 I0.115 J-0.114
G1 X-199.704 Y-27.18 Z-0.273
G3 X-199.935 Y-26.95 Z-0.287 I-0.116 J0.115
G1 X-201.344 Y-28.369 Z-0.339
G3 X-201.114 Y-28.598 Z-0.352 I0.115 J-0.114
G1 X-199.704 Y-27.18 Z-0.405
G3 X-199.935 Y-26.95 Z-0.418 I-0.116 J0.115
G1 X-201.344 Y-28.369 Z-0.471
G3 X-201.114 Y-28.598 Z-0.484 I0.115 J-0.114
G1 X-199.704 Y-27.18 Z-0.536
G3 X-199.935 Y-26.95 Z-0.55 I-0.116 J0.115
G1 X-201.344 Y-28.369 Z-0.602
G3 X-201.114 Y-28.598 Z-0.615 I0.115 J-0.114
G1 X-199.704 Y-27.18 Z-0.668
G3 X-199.935 Y-26.95 Z-0.681 I-0.116 J0.115
G1 X-201.344 Y-28.369 Z-0.733
G3 X-201.114 Y-28.598 Z-0.747 I0.115 J-0.114
G1 X-199.704 Y-27.18 Z-0.799
G3 X-199.935 Y-26.95 Z-0.813 I-0.116 J0.115
G1 X-201.344 Y-28.369 Z-0.865
G3 X-201.114 Y-28.598 Z-0.878 I0.115 J-0.114
G1 X-199.704 Y-27.18 Z-0.931
G3 X-199.935 Y-26.95 Z-0.944 I-0.116 J0.115
G1 X-201.344 Y-28.369 Z-0.996
G3 X-201.114 Y-28.598 Z-1.01 I0.115 J-0.114
G1 X-199.704 Y-27.18 Z-1.062
G3 X-199.935 Y-26.95 Z-1.076 I-0.116 J0.115
G1 X-201.344 Y-28.369 Z-1.128
G3 X-201.114 Y-28.598 Z-1.141 I0.115 J-0.114
G1 X-199.704 Y-27.18 Z-1.194
G3 X-199.935 Y-26.95 Z-1.207 I-0.116 J0.115
G1 X-201.344 Y-28.369 Z-1.259
G3 X-201.114 Y-28.598 Z-1.273 I0.115 J-0.114
G1 X-199.704 Y-27.18 Z-1.325
G3 X-199.935 Y-26.95 Z-1.338 I-0.116 J0.115
G1 X-201.344 Y-28.369 Z-1.391
G3 X-201.114 Y-28.598 Z-1.404 I0.115 J-0.114
G1 X-199.704 Y-27.18 Z-1.457
G3 X-199.935 Y-26.95 Z-1.47 I-0.116 J0.115
G1 X-201.344 Y-28.369 Z-1.522
G3 X-201.114 Y-28.598 Z-1.536 I0.115 J-0.114
G1 X-199.704 Y-27.18 Z-1.588
G3 X-199.935 Y-26.95 Z-1.601 I-0.116 J0.115
G1 X-201.344 Y-28.369 Z-1.654
G3 X-201.114 Y-28.598 Z-1.667 I0.115 J-0.114
G1 X-199.704 Y-27.18 Z-1.72
G3 X-199.935 Y-26.95 Z-1.733 I-0.116 J0.115
G1 X-201.344 Y-28.369 Z-1.785
G3 X-201.114 Y-28.598 Z-1.799 I0.115 J-0.114
G1 X-199.704 Y-27.18 Z-1.851
G3 X-199.935 Y-26.95 Z-1.864 I-0.116 J0.115
G1 X-201.344 Y-28.369 Z-1.917
G3 X-201.114 Y-28.598 Z-1.93 I0.115 J-0.114
G1 X-199.704 Y-27.18 Z-1.982
G3 X-199.935 Y-26.95 Z-1.996 I-0.116 J0.115
G1 X-201.344 Y-28.369 Z-2.048
G3 X-201.114 Y-28.598 Z-2.062 I0.115 J-0.114
G1 X-199.704 Y-27.18 Z-2.114
G3 X-199.935 Y-26.95 Z-2.127 I-0.116 J0.115
G1 X-201.344 Y-28.369 Z-2.18
G3 X-201.114 Y-28.598 Z-2.193 I0.115 J-0.114
G1 X-199.704 Y-27.18 Z-2.245
G3 X-199.935 Y-26.95 Z-2.259 I-0.116 J0.115
G1 X-201.344 Y-28.369 Z-2.311
G3 X-201.114 Y-28.598 Z-2.325 I0.115 J-0.114
G1 X-199.704 Y-27.18 Z-2.377
G3 X-199.935 Y-26.95 Z-2.39 I-0.116 J0.115
G1 X-201.344 Y-28.369 Z-2.443
G3 X-201.114 Y-28.598 Z-2.456 I0.115 J-0.114
G1 X-199.704 Y-27.18 Z-2.508
G3 X-199.935 Y-26.95 Z-2.522 I-0.116 J0.115
G1 X-201.344 Y-28.369 Z-2.574
G3 X-201.114 Y-28.598 Z-2.587 I0.115 J-0.114
G1 X-199.704 Y-27.18 Z-2.64
G3 X-199.935 Y-26.95 Z-2.653 I-0.116 J0.115
G1 X-201.344 Y-28.369 Z-2.706
G3 X-201.114 Y-28.598 Z-2.719 I0.115 J-0.114
G1 X-199.704 Y-27.18 Z-2.771
G3 X-199.935 Y-26.95 Z-2.785 I-0.116 J0.115
G1 X-201.344 Y-28.369 Z-2.837
G3 X-201.114 Y-28.598 Z-2.85 I0.115 J-0.114
G1 X-199.704 Y-27.18 Z-2.903
G3 X-199.935 Y-26.95 Z-2.916 I-0.116 J0.115
G1 X-201.344 Y-28.369 Z-2.969
G3 X-201.114 Y-28.598 Z-2.982 I0.115 J-0.114
G1 X-199.704 Y-27.18 Z-3.034
G3 X-199.935 Y-26.95 Z-3.048 I-0.116 J0.115
G1 X-201.344 Y-28.369 Z-3.1
G3 X-201.114 Y-28.598 Z-3.113 I0.115 J-0.114
G1 X-199.704 Y-27.18 Z-3.166
G3 X-199.935 Y-26.95 Z-3.179 I-0.116 J0.115
G1 X-201.344 Y-28.369 Z-3.231
G3 X-201.114 Y-28.598 Z-3.245 I0.115 J-0.114
G1 X-199.704 Y-27.18 Z-3.297
G3 X-199.935 Y-26.95 Z-3.311 I-0.116 J0.115
G1 X-201.344 Y-28.369 Z-3.363
G3 X-201.114 Y-28.598 Z-3.376 I0.115 J-0.114
G1 X-199.704 Y-27.18 Z-3.429
G3 X-199.935 Y-26.95 Z-3.442 I-0.116 J0.115
G1 X-201.344 Y-28.369 Z-3.494
G3 X-201.114 Y-28.598 Z-3.508 I0.115 J-0.114
G1 X-199.704 Y-27.18 Z-3.56
G3 X-199.935 Y-26.95 Z-3.574 I-0.116 J0.115
G1 X-201.344 Y-28.369 Z-3.626
G3 X-201.114 Y-28.598 Z-3.639 I0.115 J-0.114
G1 X-199.704 Y-27.18 Z-3.692
G3 X-199.935 Y-26.95 Z-3.705 I-0.116 J0.115
G1 X-201.344 Y-28.369 Z-3.757
G3 X-201.114 Y-28.598 Z-3.771 I0.115 J-0.114
G1 X-199.704 Y-27.18 Z-3.823
G3 X-199.935 Y-26.95 Z-3.837 I-0.116 J0.115
G1 X-201.344 Y-28.369 Z-3.889
G3 X-201.114 Y-28.598 Z-3.902 I0.115 J-0.114
G1 X-199.704 Y-27.18 Z-3.955
G3 X-199.935 Y-26.95 Z-3.968 I-0.116 J0.115
G1 X-201.344 Y-28.369 Z-4.02
G3 X-201.114 Y-28.598 Z-4.034 I0.115 J-0.114
G1 X-199.704 Y-27.18 Z-4.086
G3 X-199.935 Y-26.95 Z-4.099 I-0.116 J0.115
G1 X-201.344 Y-28.369 Z-4.152
G3 X-201.114 Y-28.598 Z-4.165 I0.115 J-0.114
G1 X-199.704 Y-27.18 Z-4.218
G3 X-199.935 Y-26.95 Z-4.231 I-0.116 J0.115
G1 X-201.344 Y-28.369 Z-4.283
G3 X-201.114 Y-28.598 Z-4.297 I0.115 J-0.114
G1 X-199.704 Y-27.18 Z-4.349
G3 X-199.935 Y-26.95 Z-4.362 I-0.116 J0.115
G1 X-201.344 Y-28.369 Z-4.415
G3 X-201.114 Y-28.598 Z-4.428 I0.115 J-0.114
G1 X-199.704 Y-27.18 Z-4.481
G3 X-199.935 Y-26.95 Z-4.494 I-0.116 J0.115
G1 X-201.344 Y-28.369 Z-4.546
G3 X-201.114 Y-28.598 Z-4.56 I0.115 J-0.114
G1 X-199.704 Y-27.18 Z-4.612
G3 X-199.935 Y-26.95 Z-4.625 I-0.116 J0.115
G1 X-201.344 Y-28.369 Z-4.678
G3 X-201.114 Y-28.598 Z-4.691 I0.115 J-0.114
G1 X-199.704 Y-27.18 Z-4.743
G3 X-199.935 Y-26.95 Z-4.757 I-0.116 J0.115
G1 X-201.344 Y-28.369 Z-4.809
G3 X-201.114 Y-28.598 Z-4.823 I0.115 J-0.114
G1 X-199.704 Y-27.18 Z-4.875
G3 X-199.935 Y-26.95 Z-4.888 I-0.116 J0.115
G1 X-201.344 Y-28.369 Z-4.941
G3 X-201.114 Y-28.598 Z-4.954 I0.115 J-0.114
G1 X-199.704 Y-27.18 Z-5.006
G3 X-199.935 Y-26.95 Z-5.02 I-0.116 J0.115
G1 X-201.344 Y-28.369 Z-5.072
G3 X-201.114 Y-28.598 Z-5.086 I0.115 J-0.114
G1 X-199.704 Y-27.18 Z-5.138
G3 X-199.935 Y-26.95 Z-5.151 I-0.116 J0.115
G1 X-201.344 Y-28.369 Z-5.204
G3 X-201.114 Y-28.598 Z-5.217 I0.115 J-0.114
G1 X-199.704 Y-27.18 Z-5.269
G3 X-199.935 Y-26.95 Z-5.283 I-0.116 J0.115
G1 X-201.344 Y-28.369 Z-5.335
G3 X-201.114 Y-28.598 Z-5.348 I0.115 J-0.114
G1 X-199.704 Y-27.18 Z-5.401
G3 X-199.935 Y-26.95 Z-5.414 I-0.116 J0.115
G1 X-201.344 Y-28.369 Z-5.467
G3 X-201.114 Y-28.598 Z-5.48 I0.115 J-0.114
G1 X-199.704 Y-27.18 Z-5.532
G3 X-199.935 Y-26.95 Z-5.546 I-0.116 J0.115
G1 X-201.344 Y-28.369 Z-5.598
G3 X-201.114 Y-28.598 Z-5.611 I0.115 J-0.114
G1 X-199.704 Y-27.18 Z-5.664
G3 X-199.935 Y-26.95 Z-5.677 I-0.116 J0.115
G1 X-201.344 Y-28.369 Z-5.73
G3 X-201.114 Y-28.598 Z-5.743 I0.115 J-0.114
G1 X-199.704 Y-27.18 Z-5.795
G3 X-199.935 Y-26.95 Z-5.809 I-0.116 J0.115
G1 X-201.344 Y-28.369 Z-5.861
G3 X-201.114 Y-28.598 Z-5.874 I0.115 J-0.114
G1 X-199.704 Y-27.18 Z-5.927
G3 X-199.935 Y-26.95 Z-5.94 I-0.116 J0.115
G1 X-201.344 Y-28.369 Z-5.992
G3 X-201.114 Y-28.598 Z-6.006 I0.115 J-0.114
G1 X-199.704 Y-27.18 Z-6.058
G3 X-199.935 Y-26.95 Z-6.072 I-0.116 J0.115
G1 X-201.344 Y-28.369 Z-6.124
G3 X-201.114 Y-28.598 Z-6.137 I0.115 J-0.114
G1 X-199.704 Y-27.18 Z-6.19
G3 X-199.935 Y-26.95 Z-6.203 I-0.116 J0.115
G1 X-201.344 Y-28.369 Z-6.255
G3 X-201.114 Y-28.598 Z-6.269 I0.115 J-0.114
G1 X-199.704 Y-27.18 Z-6.321
G3 X-199.935 Y-26.95 Z-6.335 I-0.116 J0.115
G1 X-201.344 Y-28.369 Z-6.387
G3 X-201.114 Y-28.598 Z-6.4 I0.115 J-0.114
G1 X-199.704 Y-27.18 Z-6.453
G3 X-199.935 Y-26.95 Z-6.466 I-0.116 J0.115
G1 X-201.344 Y-28.369 Z-6.518
G3 X-201.114 Y-28.598 Z-6.532 I0.115 J-0.114
G1 X-199.704 Y-27.18 Z-6.584
G3 X-199.935 Y-26.95 Z-6.598 I-0.116 J0.115
G1 X-201.344 Y-28.369 Z-6.65
G3 X-201.114 Y-28.598 Z-6.663 I0.115 J-0.114
G1 X-199.704 Y-27.18 Z-6.716
G3 X-199.935 Y-26.95 Z-6.729 I-0.116 J0.115
G1 X-201.344 Y-28.369 Z-6.781
G3 X-201.114 Y-28.598 Z-6.795 I0.115 J-0.114
G1 X-199.704 Y-27.18 Z-6.847
G3 X-199.935 Y-26.95 Z-6.86 I-0.116 J0.115
G1 X-201.344 Y-28.369 Z-6.913
G3 X-201.114 Y-28.598 Z-6.926 I0.115 J-0.114
G1 X-199.704 Y-27.18 Z-6.979
G3 X-199.935 Y-26.95 Z-6.992 I-0.116 J0.115
G1 X-201.344 Y-28.369 Z-7.044
G3 X-201.114 Y-28.598 Z-7.058 I0.115 J-0.114
G1 X-199.704 Y-27.18 Z-7.11
G3 X-199.935 Y-26.95 Z-7.123 I-0.116 J0.115
G1 X-201.344 Y-28.369 Z-7.176
G3 X-201.114 Y-28.598 Z-7.189 I0.115 J-0.114
G1 X-199.704 Y-27.18 Z-7.241
G3 X-199.935 Y-26.95 Z-7.255 I-0.116 J0.115
G1 X-201.344 Y-28.369 Z-7.307
G3 X-201.114 Y-28.598 Z-7.321 I0.115 J-0.114
G1 X-199.704 Y-27.18 Z-7.373
G3 X-199.935 Y-26.95 Z-7.386 I-0.116 J0.115
G1 X-201.344 Y-28.369 Z-7.439
G3 X-201.114 Y-28.598 Z-7.452 I0.115 J-0.114
G1 X-199.704 Y-27.18 Z-7.504
G3 X-199.935 Y-26.95 Z-7.518 I-0.116 J0.115
G1 X-201.344 Y-28.369 Z-7.57
G3 X-201.114 Y-28.598 Z-7.584 I0.115 J-0.114
G1 X-199.704 Y-27.18 Z-7.636
G3 X-199.935 Y-26.95 Z-7.649 I-0.116 J0.115
G1 X-201.344 Y-28.369 Z-7.702
G3 X-201.114 Y-28.598 Z-7.715 I0.115 J-0.114
G1 X-199.704 Y-27.18 Z-7.767
G3 X-199.935 Y-26.95 Z-7.781 I-0.116 J0.115
G1 X-201.344 Y-28.369 Z-7.833
G3 X-201.114 Y-28.598 Z-7.847 I0.115 J-0.114
G1 X-199.704 Y-27.18 Z-7.899
G3 X-199.935 Y-26.95 Z-7.912 I-0.116 J0.115
G1 X-201.344 Y-28.369 Z-7.965
G3 X-201.114 Y-28.598 Z-7.978 I0.115 J-0.114
G1 X-199.704 Y-27.18 Z-8.03
G3 X-199.935 Y-26.95 Z-8.044 I-0.116 J0.115
G1 X-201.344 Y-28.369 Z-8.096
G3 X-201.114 Y-28.598 Z-8.109 I0.115 J-0.114
G1 X-199.704 Y-27.18 Z-8.162
G3 X-199.935 Y-26.95 Z-8.175 I-0.116 J0.115
G1 X-201.344 Y-28.369 Z-8.228
G3 X-201.114 Y-28.598 Z-8.241 I0.115 J-0.114
G1 X-199.704 Y-27.18 Z-8.293
X-199.679 Y-27.146 Z-8.294
X-199.663 Y-27.106 Z-8.296
X-199.657 Y-27.064 Z-8.297
X-199.663 Y-27.022 Z-8.298
X-199.679 Y-26.983 Z-8.299
X-199.705 Y-26.949 Z-8.3
S2500
X-199.739 Y-26.924 F1000
X-199.778 Y-26.908
X-199.821 Y-26.902
X-199.863 Y-26.908
X-199.902 Y-26.924
X-199.935 Y-26.95
X-201.344 Y-28.369
G3 X-201.114 Y-28.598 I0.115 J-0.114
G1 X-199.704 Y-27.18
X-199.679 Y-27.146
X-199.663 Y-27.106
X-199.657 Y-27.064
X-199.663 Y-27.022
X-199.679 Y-26.983
X-199.705 Y-26.949
X-199.725 Y-26.933 Z-8.298
X-199.747 Y-26.921 Z-8.292
X-199.769 Y-26.913 Z-8.282
X-199.79 Y-26.908 Z-8.269
X-199.809 Y-26.906 Z-8.252
X-199.826 Y-26.907 Z-8.233
X-199.839 Y-26.908 Z-8.211
X-199.849 Y-26.91 Z-8.188
X-199.854 Y-26.911 Z-8.163
X-199.856 Y-26.912 Z-8.137
Z5
X-212.855 Y-28.441
Z2.5 F333.3
S5000
X-212.657 Y-28.638 Z2.493
G3 X-212.429 Y-28.407 Z2.479 I0.114 J0.115
G1 X-213.848 Y-26.998 Z2.427
G3 X-214.076 Y-27.228 Z2.414 I-0.114 J-0.115
G1 X-212.657 Y-28.638 Z2.361
G3 X-212.429 Y-28.407 Z2.348 I0.114 J0.115
G1 X-213.848 Y-26.998 Z2.296
G3 X-214.076 Y-27.228 Z2.282 I-0.114 J-0.115
G1 X-212.657 Y-28.638 Z2.23
G3 X-212.429 Y-28.407 Z2.216 I0.114 J0.115
G1 X-213.848 Y-26.998 Z2.164
G3 X-214.076 Y-27.228 Z2.151 I-0.114 J-0.115
G1 X-212.657 Y-28.638 Z2.098
G3 X-212.429 Y-28.407 Z2.085 I0.114 J0.115
G1 X-213.848 Y-26.998 Z2.033
G3 X-214.076 Y-27.228 Z2.019 I-0.114 J-0.115
G1 X-212.657 Y-28.638 Z1.967
G3 X-212.429 Y-28.407 Z1.954 I0.114 J0.115
G1 X-213.848 Y-26.998 Z1.901
G3 X-214.076 Y-27.228 Z1.888 I-0.114 J-0.115
G1 X-212.657 Y-28.638 Z1.835
G3 X-212.429 Y-28.407 Z1.822 I0.114 J0.115
G1 X-213.848 Y-26.998 Z1.77
G3 X-214.076 Y-27.228 Z1.756 I-0.114 J-0.115
G1 X-212.657 Y-28.638 Z1.704
G3 X-212.429 Y-28.407 Z1.691 I0.114 J0.115
G1 X-213.848 Y-26.998 Z1.638
G3 X-214.076 Y-27.228 Z1.625 I-0.114 J-0.115
G1 X-212.657 Y-28.638 Z1.573
G3 X-212.429 Y-28.407 Z1.559 I0.114 J0.115
G1 X-213.848 Y-26.998 Z1.507
G3 X-214.076 Y-27.228 Z1.493 I-0.114 J-0.115
G1 X-212.657 Y-28.638 Z1.441
G3 X-212.429 Y-28.407 Z1.428 I0.114 J0.115
G1 X-213.848 Y-26.998 Z1.375
G3 X-214.076 Y-27.228 Z1.362 I-0.114 J-0.115
G1 X-212.657 Y-28.638 Z1.31
G3 X-212.429 Y-28.407 Z1.296 I0.114 J0.115
G1 X-213.848 Y-26.998 Z1.244
G3 X-214.076 Y-27.228 Z1.231 I-0.114 J-0.115
G1 X-212.657 Y-28.638 Z1.178
G3 X-212.429 Y-28.407 Z1.165 I0.114 J0.115
G1 X-213.848 Y-26.998 Z1.112
G3 X-214.076 Y-27.228 Z1.099 I-0.114 J-0.115
G1 X-212.657 Y-28.638 Z1.047
G3 X-212.429 Y-28.407 Z1.033 I0.114 J0.115
G1 X-213.848 Y-26.998 Z0.981
G3 X-214.076 Y-27.228 Z0.968 I-0.114 J-0.115
G1 X-212.657 Y-28.638 Z0.915
G3 X-212.429 Y-28.407 Z0.902 I0.114 J0.115
G1 X-213.848 Y-26.998 Z0.849
G3 X-214.076 Y-27.228 Z0.836 I-0.114 J-0.115
G1 X-212.657 Y-28.638 Z0.784
G3 X-212.429 Y-28.407 Z0.77 I0.114 J0.115
G1 X-213.848 Y-26.998 Z0.718
G3 X-214.076 Y-27.228 Z0.705 I-0.114 J-0.115
G1 X-212.657 Y-28.638 Z0.652
G3 X-212.429 Y-28.407 Z0.639 I0.114 J0.115
G1 X-213.848 Y-26.998 Z0.587
G3 X-214.076 Y-27.228 Z0.573 I-0.114 J-0.115
G1 X-212.657 Y-28.638 Z0.521
G3 X-212.429 Y-28.407 Z0.508 I0.114 J0.115
G1 X-213.848 Y-26.998 Z0.455
G3 X-214.076 Y-27.228 Z0.442 I-0.114 J-0.115
G1 X-212.657 Y-28.638 Z0.389
G3 X-212.429 Y-28.407 Z0.376 I0.114 J0.115
G1 X-213.848 Y-26.998 Z0.324
G3 X-214.076 Y-27.228 Z0.31 I-0.114 J-0.115
G1 X-212.657 Y-28.638 Z0.258
G3 X-212.429 Y-28.407 Z0.245 I0.114 J0.115
G1 X-213.848 Y-26.998 Z0.192
G3 X-214.076 Y-27.228 Z0.179 I-0.114 J-0.115
G1 X-212.657 Y-28.638 Z0.126
G3 X-212.429 Y-28.407 Z0.113 I0.114 J0.115
G1 X-213.848 Y-26.998 Z0.061
G3 X-214.076 Y-27.228 Z0.047 I-0.114 J-0.115
G1 X-212.657 Y-28.638 Z-0.005
G3 X-212.429 Y-28.407 Z-0.018 I0.114 J0.115
G1 X-213.848 Y-26.998 Z-0.071
G3 X-214.076 Y-27.228 Z-0.084 I-0.114 J-0.115
G1 X-212.657 Y-28.638 Z-0.136
G3 X-212.429 Y-28.407 Z-0.15 I0.114 J0.115
G1 X-213.848 Y-26.998 Z-0.202
G3 X-214.076 Y-27.228 Z-0.215 I-0.114 J-0.115
G1 X-212.657 Y-28.638 Z-0.268
G3 X-212.429 Y-28.407 Z-0.281 I0.114 J0.115
G1 X-213.848 Y-26.998 Z-0.334
G3 X-214.076 Y-27.228 Z-0.347 I-0.114 J-0.115
G1 X-212.657 Y-28.638 Z-0.399
G3 X-212.429 Y-28.407 Z-0.413 I0.114 J0.115
G1 X-213.848 Y-26.998 Z-0.465
G3 X-214.076 Y-27.228 Z-0.478 I-0.114 J-0.115
G1 X-212.657 Y-28.638 Z-0.531
G3 X-212.429 Y-28.407 Z-0.544 I0.114 J0.115
G1 X-213.848 Y-26.998 Z-0.597
G3 X-214.076 Y-27.228 Z-0.61 I-0.114 J-0.115
G1 X-212.657 Y-28.638 Z-0.662
G3 X-212.429 Y-28.407 Z-0.676 I0.114 J0.115
G1 X-213.848 Y-26.998 Z-0.728
G3 X-214.076 Y-27.228 Z-0.741 I-0.114 J-0.115
G1 X-212.657 Y-28.638 Z-0.794
G3 X-212.429 Y-28.407 Z-0.807 I0.114 J0.115
G1 X-213.848 Y-26.998 Z-0.859
G3 X-214.076 Y-27.228 Z-0.873 I-0.114 J-0.115
G1 X-212.657 Y-28.638 Z-0.925
G3 X-212.429 Y-28.407 Z-0.939 I0.114 J0.115
G1 X-213.848 Y-26.998 Z-0.991
G3 X-214.076 Y-27.228 Z-1.004 I-0.114 J-0.115
G1 X-212.657 Y-28.638 Z-1.057
G3 X-212.429 Y-28.407 Z-1.07 I0.114 J0.115
G1 X-213.848 Y-26.998 Z-1.122
G3 X-214.076 Y-27.228 Z-1.136 I-0.114 J-0.115
G1 X-212.657 Y-28.638 Z-1.188
G3 X-212.429 Y-28.407 Z-1.201 I0.114 J0.115
G1 X-213.848 Y-26.998 Z-1.254
G3 X-214.076 Y-27.228 Z-1.267 I-0.114 J-0.115
G1 X-212.657 Y-28.638 Z-1.32
G3 X-212.429 Y-28.407 Z-1.333 I0.114 J0.115
G1 X-213.848 Y-26.998 Z-1.385
G3 X-214.076 Y-27.228 Z-1.399 I-0.114 J-0.115
G1 X-212.657 Y-28.638 Z-1.451
G3 X-212.429 Y-28.407 Z-1.464 I0.114 J0.115
G1 X-213.848 Y-26.998 Z-1.517
G3 X-214.076 Y-27.228 Z-1.53 I-0.114 J-0.115
G1 X-212.657 Y-28.638 Z-1.582
G3 X-212.429 Y-28.407 Z-1.596 I0.114 J0.115
G1 X-213.848 Y-26.998 Z-1.648
G3 X-214.076 Y-27.228 Z-1.662 I-0.114 J-0.115
G1 X-212.657 Y-28.638 Z-1.714
G3 X-212.429 Y-28.407 Z-1.727 I0.114 J0.115
G1 X-213.848 Y-26.998 Z-1.78
G3 X-214.076 Y-27.228 Z-1.793 I-0.114 J-0.115
G1 X-212.657 Y-28.638 Z-1.845
G3 X-212.429 Y-28.407 Z-1.859 I0.114 J0.115
G1 X-213.848 Y-26.998 Z-1.911
G3 X-214.076 Y-27.228 Z-1.924 I-0.114 J-0.115
G1 X-212.657 Y-28.638 Z-1.977
G3 X-212.429 Y-28.407 Z-1.99 I0.114 J0.115
G1 X-213.848 Y-26.998 Z-2.043
G3 X-214.076 Y-27.228 Z-2.056 I-0.114 J-0.115
G1 X-212.657 Y-28.638 Z-2.108
G3 X-212.429 Y-28.407 Z-2.122 I0.114 J0.115
G1 X-213.848 Y-26.998 Z-2.174
G3 X-214.076 Y-27.228 Z-2.187 I-0.114 J-0.115
G1 X-212.657 Y-28.638 Z-2.24
G3 X-212.429 Y-28.407 Z-2.253 I0.114 J0.115
G1 X-213.848 Y-26.998 Z-2.305
G3 X-214.076 Y-27.228 Z-2.319 I-0.114 J-0.115
G1 X-212.657 Y-28.638 Z-2.371
G3 X-212.429 Y-28.407 Z-2.385 I0.114 J0.115
G1 X-213.848 Y-26.998 Z-2.437
G3 X-214.076 Y-27.228 Z-2.45 I-0.114 J-0.115
G1 X-212.657 Y-28.638 Z-2.503
G3 X-212.429 Y-28.407 Z-2.516 I0.114 J0.115
G1 X-213.848 Y-26.998 Z-2.568
G3 X-214.076 Y-27.228 Z-2.582 I-0.114 J-0.115
G1 X-212.657 Y-28.638 Z-2.634
G3 X-212.429 Y-28.407 Z-2.647 I0.114 J0.115
G1 X-213.848 Y-26.998 Z-2.7
G3 X-214.076 Y-27.228 Z-2.713 I-0.114 J-0.115
G1 X-212.657 Y-28.638 Z-2.766
G3 X-212.429 Y-28.407 Z-2.779 I0.114 J0.115
G1 X-213.848 Y-26.998 Z-2.831
G3 X-214.076 Y-27.228 Z-2.845 I-0.114 J-0.115
G1 X-212.657 Y-28.638 Z-2.897
G3 X-212.429 Y-28.407 Z-2.91 I0.114 J0.115
G1 X-213.848 Y-26.998 Z-2.963
G3 X-214.076 Y-27.228 Z-2.976 I-0.114 J-0.115
G1 X-212.657 Y-28.638 Z-3.028
G3 X-212.429 Y-28.407 Z-3.042 I0.114 J0.115
G1 X-213.848 Y-26.998 Z-3.094
G3 X-214.076 Y-27.228 Z-3.108 I-0.114 J-0.115
G1 X-212.657 Y-28.638 Z-3.16
G3 X-212.429 Y-28.407 Z-3.173 I0.114 J0.115
G1 X-213.848 Y-26.998 Z-3.226
G3 X-214.076 Y-27.228 Z-3.239 I-0.114 J-0.115
G1 X-212.657 Y-28.638 Z-3.291
G3 X-212.429 Y-28.407 Z-3.305 I0.114 J0.115
G1 X-213.848 Y-26.998 Z-3.357
G3 X-214.076 Y-27.228 Z-3.37 I-0.114 J-0.115
G1 X-212.657 Y-28.638 Z-3.423
G3 X-212.429 Y-28.407 Z-3.436 I0.114 J0.115
G1 X-213.848 Y-26.998 Z-3.489
G3 X-214.076 Y-27.228 Z-3.502 I-0.114 J-0.115
G1 X-212.657 Y-28.638 Z-3.554
G3 X-212.429 Y-28.407 Z-3.568 I0.114 J0.115
G1 X-213.848 Y-26.998 Z-3.62
G3 X-214.076 Y-27.228 Z-3.633 I-0.114 J-0.115
G1 X-212.657 Y-28.638 Z-3.686
G3 X-212.429 Y-28.407 Z-3.699 I0.114 J0.115
G1 X-213.848 Y-26.998 Z-3.751
G3 X-214.076 Y-27.228 Z-3.765 I-0.114 J-0.115
G1 X-212.657 Y-28.638 Z-3.817
G3 X-212.429 Y-28.407 Z-3.831 I0.114 J0.115
G1 X-213.848 Y-26.998 Z-3.883
G3 X-214.076 Y-27.228 Z-3.896 I-0.114 J-0.115
G1 X-212.657 Y-28.638 Z-3.949
G3 X-212.429 Y-28.407 Z-3.962 I0.114 J0.115
G1 X-213.848 Y-26.998 Z-4.014
G3 X-214.076 Y-27.228 Z-4.028 I-0.114 J-0.115
G1 X-212.657 Y-28.638 Z-4.08
G3 X-212.429 Y-28.407 Z-4.093 I0.114 J0.115
G1 X-213.848 Y-26.998 Z-4.146
G3 X-214.076 Y-27.228 Z-4.159 I-0.114 J-0.115
G1 X-212.657 Y-28.638 Z-4.212
G3 X-212.429 Y-28.407 Z-4.225 I0.114 J0.115
G1 X-213.848 Y-26.998 Z-4.277
G3 X-214.076 Y-27.228 Z-4.291 I-0.114 J-0.115
G1 X-212.657 Y-28.638 Z-4.343
G3 X-212.429 Y-28.407 Z-4.356 I0.114 J0.115
G1 X-213.848 Y-26.998 Z-4.409
G3 X-214.076 Y-27.228 Z-4.422 I-0.114 J-0.115
G1 X-212.657 Y-28.638 Z-4.474
G3 X-212.429 Y-28.407 Z-4.488 I0.114 J0.115
G1 X-213.848 Y-26.998 Z-4.54
G3 X-214.076 Y-27.228 Z-4.554 I-0.114 J-0.115
G1 X-212.657 Y-28.638 Z-4.606
G3 X-212.429 Y-28.407 Z-4.619 I0.114 J0.115
G1 X-213.848 Y-26.998 Z-4.672
G3 X-214.076 Y-27.228 Z-4.685 I-0.114 J-0.115
G1 X-212.657 Y-28.638 Z-4.737
G3 X-212.429 Y-28.407 Z-4.751 I0.114 J0.115
G1 X-213.848 Y-26.998 Z-4.803
G3 X-214.076 Y-27.228 Z-4.816 I-0.114 J-0.115
G1 X-212.657 Y-28.638 Z-4.869
G3 X-212.429 Y-28.407 Z-4.882 I0.114 J0.115
G1 X-213.848 Y-26.998 Z-4.935
G3 X-214.076 Y-27.228 Z-4.948 I-0.114 J-0.115
G1 X-212.657 Y-28.638 Z-5
G3 X-212.429 Y-28.407 Z-5.014 I0.114 J0.115
G1 X-213.848 Y-26.998 Z-5.066
G3 X-214.076 Y-27.228 Z-5.079 I-0.114 J-0.115
G1 X-212.657 Y-28.638 Z-5.132
G3 X-212.429 Y-28.407 Z-5.145 I0.114 J0.115
G1 X-213.848 Y-26.998 Z-5.197
G3 X-214.076 Y-27.228 Z-5.211 I-0.114 J-0.115
G1 X-212.657 Y-28.638 Z-5.263
G3 X-212.429 Y-28.407 Z-5.277 I0.114 J0.115
G1 X-213.848 Y-26.998 Z-5.329
G3 X-214.076 Y-27.228 Z-5.342 I-0.114 J-0.115
G1 X-212.657 Y-28.638 Z-5.395
G3 X-212.429 Y-28.407 Z-5.408 I0.114 J0.115
G1 X-213.848 Y-26.998 Z-5.46
G3 X-214.076 Y-27.228 Z-5.474 I-0.114 J-0.115
G1 X-212.657 Y-28.638 Z-5.526
G3 X-212.429 Y-28.407 Z-5.539 I0.114 J0.115
G1 X-213.848 Y-26.998 Z-5.592
G3 X-214.076 Y-27.228 Z-5.605 I-0.114 J-0.115
G1 X-212.657 Y-28.638 Z-5.658
G3 X-212.429 Y-28.407 Z-5.671 I0.114 J0.115
G1 X-213.848 Y-26.998 Z-5.723
G3 X-214.076 Y-27.228 Z-5.737 I-0.114 J-0.115
G1 X-212.657 Y-28.638 Z-5.789
G3 X-212.429 Y-28.407 Z-5.802 I0.114 J0.115
G1 X-213.848 Y-26.998 Z-5.855
G3 X-214.076 Y-27.228 Z-5.868 I-0.114 J-0.115
G1 X-212.657 Y-28.638 Z-5.92
G3 X-212.429 Y-28.407 Z-5.934 I0.114 J0.115
G1 X-213.848 Y-26.998 Z-5.986
G3 X-214.076 Y-27.228 Z-6 I-0.114 J-0.115
G1 X-212.657 Y-28.638 Z-6.052
G3 X-212.429 Y-28.407 Z-6.065 I0.114 J0.115
G1 X-213.848 Y-26.998 Z-6.118
G3 X-214.076 Y-27.228 Z-6.131 I-0.114 J-0.115
G1 X-212.657 Y-28.638 Z-6.183
G3 X-212.429 Y-28.407 Z-6.197 I0.114 J0.115
G1 X-213.848 Y-26.998 Z-6.249
G3 X-214.076 Y-27.228 Z-6.262 I-0.114 J-0.115
G1 X-212.657 Y-28.638 Z-6.315
G3 X-212.429 Y-28.407 Z-6.328 I0.114 J0.115
G1 X-213.848 Y-26.998 Z-6.381
G3 X-214.076 Y-27.228 Z-6.394 I-0.114 J-0.115
G1 X-212.657 Y-28.638 Z-6.446
G3 X-212.429 Y-28.407 Z-6.46 I0.114 J0.115
G1 X-213.848 Y-26.998 Z-6.512
G3 X-214.076 Y-27.228 Z-6.525 I-0.114 J-0.115
G1 X-212.657 Y-28.638 Z-6.578
G3 X-212.429 Y-28.407 Z-6.591 I0.114 J0.115
G1 X-213.848 Y-26.998 Z-6.643
G3 X-214.076 Y-27.228 Z-6.657 I-0.114 J-0.115
G1 X-212.657 Y-28.638 Z-6.709
G3 X-212.429 Y-28.407 Z-6.723 I0.114 J0.115
G1 X-213.848 Y-26.998 Z-6.775
G3 X-214.076 Y-27.228 Z-6.788 I-0.114 J-0.115
G1 X-212.657 Y-28.638 Z-6.841
G3 X-212.429 Y-28.407 Z-6.854 I0.114 J0.115
G1 X-213.848 Y-26.998 Z-6.906
G3 X-214.076 Y-27.228 Z-6.92 I-0.114 J-0.115
G1 X-212.657 Y-28.638 Z-6.972
G3 X-212.429 Y-28.407 Z-6.985 I0.114 J0.115
G1 X-213.848 Y-26.998 Z-7.038
G3 X-214.076 Y-27.228 Z-7.051 I-0.114 J-0.115
G1 X-212.657 Y-28.638 Z-7.104
G3 X-212.429 Y-28.407 Z-7.117 I0.114 J0.115
G1 X-213.848 Y-26.998 Z-7.169
G3 X-214.076 Y-27.228 Z-7.183 I-0.114 J-0.115
G1 X-212.657 Y-28.638 Z-7.235
G3 X-212.429 Y-28.407 Z-7.248 I0.114 J0.115
G1 X-213.848 Y-26.998 Z-7.301
G3 X-214.076 Y-27.228 Z-7.314 I-0.114 J-0.115
G1 X-212.657 Y-28.638 Z-7.366
G3 X-212.429 Y-28.407 Z-7.38 I0.114 J0.115
G1 X-213.848 Y-26.998 Z-7.432
G3 X-214.076 Y-27.228 Z-7.446 I-0.114 J-0.115
G1 X-212.657 Y-28.638 Z-7.498
G3 X-212.429 Y-28.407 Z-7.511 I0.114 J0.115
G1 X-213.848 Y-26.998 Z-7.564
G3 X-214.076 Y-27.228 Z-7.577 I-0.114 J-0.115
G1 X-212.657 Y-28.638 Z-7.629
G3 X-212.429 Y-28.407 Z-7.643 I0.114 J0.115
G1 X-213.848 Y-26.998 Z-7.695
G3 X-214.076 Y-27.228 Z-7.708 I-0.114 J-0.115
G1 X-212.657 Y-28.638 Z-7.761
G3 X-212.429 Y-28.407 Z-7.774 I0.114 J0.115
G1 X-213.848 Y-26.998 Z-7.827
G3 X-214.076 Y-27.228 Z-7.84 I-0.114 J-0.115
G1 X-212.657 Y-28.638 Z-7.892
G3 X-212.429 Y-28.407 Z-7.906 I0.114 J0.115
G1 X-213.848 Y-26.998 Z-7.958
G3 X-214.076 Y-27.228 Z-7.971 I-0.114 J-0.115
G1 X-212.657 Y-28.638 Z-8.024
G3 X-212.429 Y-28.407 Z-8.037 I0.114 J0.115
G1 X-213.848 Y-26.998 Z-8.089
G3 X-214.076 Y-27.228 Z-8.103 I-0.114 J-0.115
G1 X-212.657 Y-28.638 Z-8.155
G3 X-212.429 Y-28.407 Z-8.169 I0.114 J0.115
G1 X-213.848 Y-26.998 Z-8.221
G3 X-214.076 Y-27.228 Z-8.234 I-0.114 J-0.115
G1 X-212.657 Y-28.638 Z-8.287
G3 X-212.429 Y-28.407 Z-8.3 I0.114 J0.115
S2500
G1 X-213.848 Y-26.998 F1000
G3 X-214.076 Y-27.228 I-0.114 J-0.115
G1 X-212.657 Y-28.638
G3 X-212.429 Y-28.407 I0.114 J0.115
G1 X-212.466 Y-28.375 Z-8.296
X-212.508 Y-28.35 Z-8.284
X-212.55 Y-28.332 Z-8.265
X-212.591 Y-28.321 Z-8.239
X-212.629 Y-28.316 Z-8.207
X-212.661 Y-28.315 Z-8.169
X-212.687 Y-28.317 Z-8.127
X-212.706 Y-28.32 Z-8.081
X-212.717 Y-28.322 Z-8.032
X-212.721 Y-28.323 Z-7.983
Z5
X-213.501 Y-40.608
Z2.5 F333.3
S5000
X-214.03 Y-41.14 Z2.48
G3 X-213.799 Y-41.37 Z2.467 I0.116 J-0.115
G1 X-212.39 Y-39.951 Z2.415
G3 X-212.62 Y-39.722 Z2.401 I-0.115 J0.114
G1 X-214.03 Y-41.14 Z2.349
G3 X-213.799 Y-41.37 Z2.335 I0.116 J-0.115
G1 X-212.39 Y-39.951 Z2.283
G3 X-212.62 Y-39.722 Z2.27 I-0.115 J0.114
G1 X-214.03 Y-41.14 Z2.217
G3 X-213.799 Y-41.37 Z2.204 I0.116 J-0.115
G1 X-212.39 Y-39.951 Z2.152
G3 X-212.62 Y-39.722 Z2.138 I-0.115 J0.114
G1 X-214.03 Y-41.14 Z2.086
G3 X-213.799 Y-41.37 Z2.073 I0.116 J-0.115
G1 X-212.39 Y-39.951 Z2.02
G3 X-212.62 Y-39.722 Z2.007 I-0.115 J0.114
G1 X-214.03 Y-41.14 Z1.954
G3 X-213.799 Y-41.37 Z1.941 I0.116 J-0.115
G1 X-212.39 Y-39.951 Z1.889
G3 X-212.62 Y-39.722 Z1.875 I-0.115 J0.114
G1 X-214.03 Y-41.14 Z1.823
G3 X-213.799 Y-41.37 Z1.81 I0.116 J-0.115
G1 X-212.39 Y-39.951 Z1.757
G3 X-212.62 Y-39.722 Z1.744 I-0.115 J0.114
G1 X-214.03 Y-41.14 Z1.692
G3 X-213.799 Y-41.37 Z1.678 I0.116 J-0.115
G1 X-212.39 Y-39.951 Z1.626
G3 X-212.62 Y-39.722 Z1.612 I-0.115 J0.114
G1 X-214.03 Y-41.14 Z1.56
G3 X-213.799 Y-41.37 Z1.547 I0.116 J-0.115
G1 X-212.39 Y-39.951 Z1.494
G3 X-212.62 Y-39.722 Z1.481 I-0.115 J0.114
G1 X-214.03 Y-41.14 Z1.429
G3 X-213.799 Y-41.37 Z1.415 I0.116 J-0.115
G1 X-212.39 Y-39.951 Z1.363
G3 X-212.62 Y-39.722 Z1.35 I-0.115 J0.114
G1 X-214.03 Y-41.14 Z1.297
G3 X-213.799 Y-41.37 Z1.284 I0.116 J-0.115
G1 X-212.39 Y-39.951 Z1.231
G3 X-212.62 Y-39.722 Z1.218 I-0.115 J0.114
G1 X-214.03 Y-41.14 Z1.166
G3 X-213.799 Y-41.37 Z1.152 I0.116 J-0.115
G1 X-212.39 Y-39.951 Z1.1
G3 X-212.62 Y-39.722 Z1.087 I-0.115 J0.114
G1 X-214.03 Y-41.14 Z1.034
G3 X-213.799 Y-41.37 Z1.021 I0.116 J-0.115
G1 X-212.39 Y-39.951 Z0.968
G3 X-212.62 Y-39.722 Z0.955 I-0.115 J0.114
G1 X-214.03 Y-41.14 Z0.903
G3 X-213.799 Y-41.37 Z0.889 I0.116 J-0.115
G1 X-212.39 Y-39.951 Z0.837
G3 X-212.62 Y-39.722 Z0.824 I-0.115 J0.114
G1 X-214.03 Y-41.14 Z0.771
G3 X-213.799 Y-41.37 Z0.758 I0.116 J-0.115
G1 X-212.39 Y-39.951 Z0.706
G3 X-212.62 Y-39.722 Z0.692 I-0.115 J0.114
G1 X-214.03 Y-41.14 Z0.64
G3 X-213.799 Y-41.37 Z0.626 I0.116 J-0.115
G1 X-212.39 Y-39.951 Z0.574
G3 X-212.62 Y-39.722 Z0.561 I-0.115 J0.114
G1 X-214.03 Y-41.14 Z0.508
G3 X-213.799 Y-41.37 Z0.495 I0.116 J-0.115
G1 X-212.39 Y-39.951 Z0.443
G3 X-212.62 Y-39.722 Z0.429 I-0.115 J0.114
G1 X-214.03 Y-41.14 Z0.377
G3 X-213.799 Y-41.37 Z0.363 I0.116 J-0.115
G1 X-212.39 Y-39.951 Z0.311
G3 X-212.62 Y-39.722 Z0.298 I-0.115 J0.114
G1 X-214.03 Y-41.14 Z0.245
G3 X-213.799 Y-41.37 Z0.232 I0.116 J-0.115
G1 X-212.39 Y-39.951 Z0.18
G3 X-212.62 Y-39.722 Z0.166 I-0.115 J0.114
G1 X-214.03 Y-41.14 Z0.114
G3 X-213.799 Y-41.37 Z0.101 I0.116 J-0.115
G1 X-212.39 Y-39.951 Z0.048
G3 X-212.62 Y-39.722 Z0.035 I-0.115 J0.114
G1 X-214.03 Y-41.14 Z-0.018
G3 X-213.799 Y-41.37 Z-0.031 I0.116 J-0.115
G1 X-212.39 Y-39.951 Z-0.083
G3 X-212.62 Y-39.722 Z-0.097 I-0.115 J0.114
G1 X-214.03 Y-41.14 Z-0.149
G3 X-213.799 Y-41.37 Z-0.162 I0.116 J-0.115
G1 X-212.39 Y-39.951 Z-0.215
G3 X-212.62 Y-39.722 Z-0.228 I-0.115 J0.114
G1 X-214.03 Y-41.14 Z-0.28
G3 X-213.799 Y-41.37 Z-0.294 I0.116 J-0.115
G1 X-212.39 Y-39.951 Z-0.346
G3 X-212.62 Y-39.722 Z-0.36 I-0.115 J0.114
G1 X-214.03 Y-41.14 Z-0.412
G3 X-213.799 Y-41.37 Z-0.425 I0.116 J-0.115
G1 X-212.39 Y-39.951 Z-0.478
G3 X-212.62 Y-39.722 Z-0.491 I-0.115 J0.114
G1 X-214.03 Y-41.14 Z-0.543
G3 X-213.799 Y-41.37 Z-0.557 I0.116 J-0.115
G1 X-212.39 Y-39.951 Z-0.609
G3 X-212.62 Y-39.722 Z-0.623 I-0.115 J0.114
G1 X-214.03 Y-41.14 Z-0.675
G3 X-213.799 Y-41.37 Z-0.688 I0.116 J-0.115
G1 X-212.39 Y-39.951 Z-0.741
G3 X-212.62 Y-39.722 Z-0.754 I-0.115 J0.114
G1 X-214.03 Y-41.14 Z-0.806
G3 X-213.799 Y-41.37 Z-0.82 I0.116 J-0.115
G1 X-212.39 Y-39.951 Z-0.872
G3 X-212.62 Y-39.722 Z-0.885 I-0.115 J0.114
G1 X-214.03 Y-41.14 Z-0.938
G3 X-213.799 Y-41.37 Z-0.951 I0.116 J-0.115
G1 X-212.39 Y-39.951 Z-1.004
G3 X-212.62 Y-39.722 Z-1.017 I-0.115 J0.114
G1 X-214.03 Y-41.14 Z-1.069
G3 X-213.799 Y-41.37 Z-1.083 I0.116 J-0.115
G1 X-212.39 Y-39.951 Z-1.135
G3 X-212.62 Y-39.722 Z-1.148 I-0.115 J0.114
G1 X-214.03 Y-41.14 Z-1.201
G3 X-213.799 Y-41.37 Z-1.214 I0.116 J-0.115
G1 X-212.39 Y-39.951 Z-1.266
G3 X-212.62 Y-39.722 Z-1.28 I-0.115 J0.114
G1 X-214.03 Y-41.14 Z-1.332
G3 X-213.799 Y-41.37 Z-1.346 I0.116 J-0.115
G1 X-212.39 Y-39.951 Z-1.398
G3 X-212.62 Y-39.722 Z-1.411 I-0.115 J0.114
G1 X-214.03 Y-41.14 Z-1.464
G3 X-213.799 Y-41.37 Z-1.477 I0.116 J-0.115
G1 X-212.39 Y-39.951 Z-1.529
G3 X-212.62 Y-39.722 Z-1.543 I-0.115 J0.114
G1 X-214.03 Y-41.14 Z-1.595
G3 X-213.799 Y-41.37 Z-1.609 I0.116 J-0.115
G1 X-212.39 Y-39.951 Z-1.661
G3 X-212.62 Y-39.722 Z-1.674 I-0.115 J0.114
G1 X-214.03 Y-41.14 Z-1.727
G3 X-213.799 Y-41.37 Z-1.74 I0.116 J-0.115
G1 X-212.39 Y-39.951 Z-1.792
G3 X-212.62 Y-39.722 Z-1.806 I-0.115 J0.114
G1 X-214.03 Y-41.14 Z-1.858
G3 X-213.799 Y-41.37 Z-1.871 I0.116 J-0.115
G1 X-212.39 Y-39.951 Z-1.924
G3 X-212.62 Y-39.722 Z-1.937 I-0.115 J0.114
G1 X-214.03 Y-41.14 Z-1.99
G3 X-213.799 Y-41.37 Z-2.003 I0.116 J-0.115
G1 X-212.39 Y-39.951 Z-2.055
G3 X-212.62 Y-39.722 Z-2.069 I-0.115 J0.114
G1 X-214.03 Y-41.14 Z-2.121
G3 X-213.799 Y-41.37 Z-2.134 I0.116 J-0.115
G1 X-212.39 Y-39.951 Z-2.187
G3 X-212.62 Y-39.722 Z-2.2 I-0.115 J0.114
G1 X-214.03 Y-41.14 Z-2.252
G3 X-213.799 Y-41.37 Z-2.266 I0.116 J-0.115
G1 X-212.39 Y-39.951 Z-2.318
G3 X-212.62 Y-39.722 Z-2.332 I-0.115 J0.114
G1 X-214.03 Y-41.14 Z-2.384
G3 X-213.799 Y-41.37 Z-2.397 I0.116 J-0.115
G1 X-212.39 Y-39.951 Z-2.45
G3 X-212.62 Y-39.722 Z-2.463 I-0.115 J0.114
G1 X-214.03 Y-41.14 Z-2.515
G3 X-213.799 Y-41.37 Z-2.529 I0.116 J-0.115
G1 X-212.39 Y-39.951 Z-2.581
G3 X-212.62 Y-39.722 Z-2.595 I-0.115 J0.114
G1 X-214.03 Y-41.14 Z-2.647
G3 X-213.799 Y-41.37 Z-2.66 I0.116 J-0.115
G1 X-212.39 Y-39.951 Z-2.713
G3 X-212.62 Y-39.722 Z-2.726 I-0.115 J0.114
G1 X-214.03 Y-41.14 Z-2.778
G3 X-213.799 Y-41.37 Z-2.792 I0.116 J-0.115
G1 X-212.39 Y-39.951 Z-2.844
G3 X-212.62 Y-39.722 Z-2.857 I-0.115 J0.114
G1 X-214.03 Y-41.14 Z-2.91
G3 X-213.799 Y-41.37 Z-2.923 I0.116 J-0.115
G1 X-212.39 Y-39.951 Z-2.976
G3 X-212.62 Y-39.722 Z-2.989 I-0.115 J0.114
G1 X-214.03 Y-41.14 Z-3.041
G3 X-213.799 Y-41.37 Z-3.055 I0.116 J-0.115
G1 X-212.39 Y-39.951 Z-3.107
G3 X-212.62 Y-39.722 Z-3.12 I-0.115 J0.114
G1 X-214.03 Y-41.14 Z-3.173
G3 X-213.799 Y-41.37 Z-3.186 I0.116 J-0.115
G1 X-212.39 Y-39.951 Z-3.239
G3 X-212.62 Y-39.722 Z-3.252 I-0.115 J0.114
G1 X-214.03 Y-41.14 Z-3.304
G3 X-213.799 Y-41.37 Z-3.318 I0.116 J-0.115
G1 X-212.39 Y-39.951 Z-3.37
G3 X-212.62 Y-39.722 Z-3.383 I-0.115 J0.114
G1 X-214.03 Y-41.14 Z-3.436
G3 X-213.799 Y-41.37 Z-3.449 I0.116 J-0.115
G1 X-212.39 Y-39.951 Z-3.501
G3 X-212.62 Y-39.722 Z-3.515 I-0.115 J0.114
G1 X-214.03 Y-41.14 Z-3.567
G3 X-213.799 Y-41.37 Z-3.581 I0.116 J-0.115
G1 X-212.39 Y-39.951 Z-3.633
G3 X-212.62 Y-39.722 Z-3.646 I-0.115 J0.114
G1 X-214.03 Y-41.14 Z-3.699
G3 X-213.799 Y-41.37 Z-3.712 I0.116 J-0.115
G1 X-212.39 Y-39.951 Z-3.764
G3 X-212.62 Y-39.722 Z-3.778 I-0.115 J0.114
G1 X-214.03 Y-41.14 Z-3.83
G3 X-213.799 Y-41.37 Z-3.843 I0.116 J-0.115
G1 X-212.39 Y-39.951 Z-3.896
G3 X-212.62 Y-39.722 Z-3.909 I-0.115 J0.114
G1 X-214.03 Y-41.14 Z-3.962
G3 X-213.799 Y-41.37 Z-3.975 I0.116 J-0.115
G1 X-212.39 Y-39.951 Z-4.027
G3 X-212.62 Y-39.722 Z-4.041 I-0.115 J0.114
G1 X-214.03 Y-41.14 Z-4.093
G3 X-213.799 Y-41.37 Z-4.106 I0.116 J-0.115
G1 X-212.39 Y-39.951 Z-4.159
G3 X-212.62 Y-39.722 Z-4.172 I-0.115 J0.114
G1 X-214.03 Y-41.14 Z-4.225
G3 X-213.799 Y-41.37 Z-4.238 I0.116 J-0.115
G1 X-212.39 Y-39.951 Z-4.29
G3 X-212.62 Y-39.722 Z-4.304 I-0.115 J0.114
G1 X-214.03 Y-41.14 Z-4.356
G3 X-213.799 Y-41.37 Z-4.369 I0.116 J-0.115
G1 X-212.39 Y-39.951 Z-4.422
G3 X-212.62 Y-39.722 Z-4.435 I-0.115 J0.114
G1 X-214.03 Y-41.14 Z-4.487
G3 X-213.799 Y-41.37 Z-4.501 I0.116 J-0.115
G1 X-212.39 Y-39.951 Z-4.553
G3 X-212.62 Y-39.722 Z-4.567 I-0.115 J0.114
G1 X-214.03 Y-41.14 Z-4.619
G3 X-213.799 Y-41.37 Z-4.632 I0.116 J-0.115
G1 X-212.39 Y-39.951 Z-4.685
G3 X-212.62 Y-39.722 Z-4.698 I-0.115 J0.114
G1 X-214.03 Y-41.14 Z-4.75
G3 X-213.799 Y-41.37 Z-4.764 I0.116 J-0.115
G1 X-212.39 Y-39.951 Z-4.816
G3 X-212.62 Y-39.722 Z-4.829 I-0.115 J0.114
G1 X-214.03 Y-41.14 Z-4.882
G3 X-213.799 Y-41.37 Z-4.895 I0.116 J-0.115
G1 X-212.39 Y-39.951 Z-4.948
G3 X-212.62 Y-39.722 Z-4.961 I-0.115 J0.114
G1 X-214.03 Y-41.14 Z-5.013
G3 X-213.799 Y-41.37 Z-5.027 I0.116 J-0.115
G1 X-212.39 Y-39.951 Z-5.079
G3 X-212.62 Y-39.722 Z-5.092 I-0.115 J0.114
G1 X-214.03 Y-41.14 Z-5.145
G3 X-213.799 Y-41.37 Z-5.158 I0.116 J-0.115
G1 X-212.39 Y-39.951 Z-5.211
G3 X-212.62 Y-39.722 Z-5.224 I-0.115 J0.114
G1 X-214.03 Y-41.14 Z-5.276
G3 X-213.799 Y-41.37 Z-5.29 I0.116 J-0.115
G1 X-212.39 Y-39.951 Z-5.342
G3 X-212.62 Y-39.722 Z-5.355 I-0.115 J0.114
G1 X-214.03 Y-41.14 Z-5.408
G3 X-213.799 Y-41.37 Z-5.421 I0.116 J-0.115
G1 X-212.39 Y-39.951 Z-5.473
G3 X-212.62 Y-39.722 Z-5.487 I-0.115 J0.114
G1 X-214.03 Y-41.14 Z-5.539
G3 X-213.799 Y-41.37 Z-5.553 I0.116 J-0.115
G1 X-212.39 Y-39.951 Z-5.605
G3 X-212.62 Y-39.722 Z-5.618 I-0.115 J0.114
G1 X-214.03 Y-41.14 Z-5.671
G3 X-213.799 Y-41.37 Z-5.684 I0.116 J-0.115
G1 X-212.39 Y-39.951 Z-5.736
G3 X-212.62 Y-39.722 Z-5.75 I-0.115 J0.114
G1 X-214.03 Y-41.14 Z-5.802
G3 X-213.799 Y-41.37 Z-5.816 I0.116 J-0.115
G1 X-212.39 Y-39.951 Z-5.868
G3 X-212.62 Y-39.722 Z-5.881 I-0.115 J0.114
G1 X-214.03 Y-41.14 Z-5.934
G3 X-213.799 Y-41.37 Z-5.947 I0.116 J-0.115
G1 X-212.39 Y-39.951 Z-5.999
G3 X-212.62 Y-39.722 Z-6.013 I-0.115 J0.114
G1 X-214.03 Y-41.14 Z-6.065
G3 X-213.799 Y-41.37 Z-6.078 I0.116 J-0.115
G1 X-212.39 Y-39.951 Z-6.131
G3 X-212.62 Y-39.722 Z-6.144 I-0.115 J0.114
G1 X-214.03 Y-41.14 Z-6.197
G3 X-213.799 Y-41.37 Z-6.21 I0.116 J-0.115
G1 X-212.39 Y-39.951 Z-6.262
G3 X-212.62 Y-39.722 Z-6.276 I-0.115 J0.114
G1 X-214.03 Y-41.14 Z-6.328
G3 X-213.799 Y-41.37 Z-6.341 I0.116 J-0.115
G1 X-212.39 Y-39.951 Z-6.394
G3 X-212.62 Y-39.722 Z-6.407 I-0.115 J0.114
G1 X-214.03 Y-41.14 Z-6.459
G3 X-213.799 Y-41.37 Z-6.473 I0.116 J-0.115
G1 X-212.39 Y-39.951 Z-6.525
G3 X-212.62 Y-39.722 Z-6.539 I-0.115 J0.114
G1 X-214.03 Y-41.14 Z-6.591
G3 X-213.799 Y-41.37 Z-6.604 I0.116 J-0.115
G1 X-212.39 Y-39.951 Z-6.657
G3 X-212.62 Y-39.722 Z-6.67 I-0.115 J0.114
G1 X-214.03 Y-41.14 Z-6.722
G3 X-213.799 Y-41.37 Z-6.736 I0.116 J-0.115
G1 X-212.39 Y-39.951 Z-6.788
G3 X-212.62 Y-39.722 Z-6.801 I-0.115 J0.114
G1 X-214.03 Y-41.14 Z-6.854
G3 X-213.799 Y-41.37 Z-6.867 I0.116 J-0.115
G1 X-212.39 Y-39.951 Z-6.92
G3 X-212.62 Y-39.722 Z-6.933 I-0.115 J0.114
G1 X-214.03 Y-41.14 Z-6.985
G3 X-213.799 Y-41.37 Z-6.999 I0.116 J-0.115
G1 X-212.39 Y-39.951 Z-7.051
G3 X-212.62 Y-39.722 Z-7.064 I-0.115 J0.114
G1 X-214.03 Y-41.14 Z-7.117
G3 X-213.799 Y-41.37 Z-7.13 I0.116 J-0.115
G1 X-212.39 Y-39.951 Z-7.183
G3 X-212.62 Y-39.722 Z-7.196 I-0.115 J0.114
G1 X-214.03 Y-41.14 Z-7.248
G3 X-213.799 Y-41.37 Z-7.262 I0.116 J-0.115
G1 X-212.39 Y-39.951 Z-7.314
G3 X-212.62 Y-39.722 Z-7.327 I-0.115 J0.114
G1 X-214.03 Y-41.14 Z-7.38
G3 X-213.799 Y-41.37 Z-7.393 I0.116 J-0.115
G1 X-212.39 Y-39.951 Z-7.445
G3 X-212.62 Y-39.722 Z-7.459 I-0.115 J0.114
G1 X-214.03 Y-41.14 Z-7.511
G3 X-213.799 Y-41.37 Z-7.525 I0.116 J-0.115
G1 X-212.39 Y-39.951 Z-7.577
G3 X-212.62 Y-39.722 Z-7.59 I-0.115 J0.114
G1 X-214.03 Y-41.14 Z-7.643
G3 X-213.799 Y-41.37 Z-7.656 I0.116 J-0.115
G1 X-212.39 Y-39.951 Z-7.708
G3 X-212.62 Y-39.722 Z-7.722 I-0.115 J0.114
G1 X-214.03 Y-41.14 Z-7.774
G3 X-213.799 Y-41.37 Z-7.788 I0.116 J-0.115
G1 X-212.39 Y-39.951 Z-7.84
G3 X-212.62 Y-39.722 Z-7.853 I-0.115 J0.114
G1 X-214.03 Y-41.14 Z-7.906
G3 X-213.799 Y-41.37 Z-7.919 I0.116 J-0.115
G1 X-212.39 Y-39.951 Z-7.971
G3 X-212.62 Y-39.722 Z-7.985 I-0.115 J0.114
G1 X-214.03 Y-41.14 Z-8.037
G3 X-213.799 Y-41.37 Z-8.05 I0.116 J-0.115
G1 X-212.39 Y-39.951 Z-8.103
G3 X-212.62 Y-39.722 Z-8.116 I-0.115 J0.114
G1 X-214.03 Y-41.14 Z-8.169
G3 X-213.799 Y-41.37 Z-8.182 I0.116 J-0.115
G1 X-212.39 Y-39.951 Z-8.234
G3 X-212.62 Y-39.722 Z-8.248 I-0.115 J0.114
G1 X-214.029 Y-41.14 Z-8.3
S2500
X-214.03 F1000
G3 X-213.799 Y-41.37 I0.116 J-0.115
G1 X-212.39 Y-39.951
G3 X-212.62 Y-39.722 I-0.115 J0.114
G1 X-214.029 Y-41.14
X-214.045 Y-41.159 Z-8.298
X-214.057 Y-41.179 Z-8.292
X-214.066 Y-41.199 Z-8.283
X-214.071 Y-41.219 Z-8.271
X-214.074 Y-41.237 Z-8.255
Y-41.253 Z-8.236
X-214.073 Y-41.266 Z-8.216
X-214.072 Y-41.275 Z-8.193
X-214.071 Y-41.28 Z-8.17
Y-41.282 Z-8.146
Z5
X-200.504 Y-40.251
Z2.5 F333.3
S5000
X-201.077 Y-39.682 Z2.479
G3 X-201.305 Y-39.913 Z2.466 I-0.114 J-0.115
G1 X-199.886 Y-41.322 Z2.413
G3 X-199.658 Y-41.092 Z2.4 I0.114 J0.115
G1 X-201.077 Y-39.682 Z2.347
G3 X-201.305 Y-39.913 Z2.334 I-0.114 J-0.115
G1 X-199.886 Y-41.322 Z2.282
G3 X-199.658 Y-41.092 Z2.268 I0.114 J0.115
G1 X-201.077 Y-39.682 Z2.216
G3 X-201.305 Y-39.913 Z2.203 I-0.114 J-0.115
G1 X-199.886 Y-41.322 Z2.15
G3 X-199.658 Y-41.092 Z2.137 I0.114 J0.115
G1 X-201.077 Y-39.682 Z2.085
G3 X-201.305 Y-39.913 Z2.071 I-0.114 J-0.115
G1 X-199.886 Y-41.322 Z2.019
G3 X-199.658 Y-41.092 Z2.005 I0.114 J0.115
G1 X-201.077 Y-39.682 Z1.953
G3 X-201.305 Y-39.913 Z1.94 I-0.114 J-0.115
G1 X-199.886 Y-41.322 Z1.887
G3 X-199.658 Y-41.092 Z1.874 I0.114 J0.115
G1 X-201.077 Y-39.682 Z1.822
G3 X-201.305 Y-39.913 Z1.808 I-0.114 J-0.115
G1 X-199.886 Y-41.322 Z1.756
G3 X-199.658 Y-41.092 Z1.743 I0.114 J0.115
G1 X-201.077 Y-39.682 Z1.69
G3 X-201.305 Y-39.913 Z1.677 I-0.114 J-0.115
G1 X-199.886 Y-41.322 Z1.624
G3 X-199.658 Y-41.092 Z1.611 I0.114 J0.115
G1 X-201.077 Y-39.682 Z1.559
G3 X-201.305 Y-39.913 Z1.545 I-0.114 J-0.115
G1 X-199.886 Y-41.322 Z1.493
G3 X-199.658 Y-41.092 Z1.48 I0.114 J0.115
G1 X-201.077 Y-39.682 Z1.427
G3 X-201.305 Y-39.913 Z1.414 I-0.114 J-0.115
G1 X-199.886 Y-41.322 Z1.362
G3 X-199.658 Y-41.092 Z1.348 I0.114 J0.115
G1 X-201.077 Y-39.682 Z1.296
G3 X-201.305 Y-39.913 Z1.282 I-0.114 J-0.115
G1 X-199.886 Y-41.322 Z1.23
G3 X-199.658 Y-41.092 Z1.217 I0.114 J0.115
G1 X-201.077 Y-39.682 Z1.164
G3 X-201.305 Y-39.913 Z1.151 I-0.114 J-0.115
G1 X-199.886 Y-41.322 Z1.099
G3 X-199.658 Y-41.092 Z1.085 I0.114 J0.115
G1 X-201.077 Y-39.682 Z1.033
G3 X-201.305 Y-39.913 Z1.02 I-0.114 J-0.115
G1 X-199.886 Y-41.322 Z0.967
G3 X-199.658 Y-41.092 Z0.954 I0.114 J0.115
G1 X-201.077 Y-39.682 Z0.901
G3 X-201.305 Y-39.913 Z0.888 I-0.114 J-0.115
G1 X-199.886 Y-41.322 Z0.836
G3 X-199.658 Y-41.092 Z0.822 I0.114 J0.115
G1 X-201.077 Y-39.682 Z0.77
G3 X-201.305 Y-39.913 Z0.757 I-0.114 J-0.115
G1 X-199.886 Y-41.322 Z0.704
G3 X-199.658 Y-41.092 Z0.691 I0.114 J0.115
G1 X-201.077 Y-39.682 Z0.639
G3 X-201.305 Y-39.913 Z0.625 I-0.114 J-0.115
G1 X-199.886 Y-41.322 Z0.573
G3 X-199.658 Y-41.092 Z0.559 I0.114 J0.115
G1 X-201.077 Y-39.682 Z0.507
G3 X-201.305 Y-39.913 Z0.494 I-0.114 J-0.115
G1 X-199.886 Y-41.322 Z0.441
G3 X-199.658 Y-41.092 Z0.428 I0.114 J0.115
G1 X-201.077 Y-39.682 Z0.376
G3 X-201.305 Y-39.913 Z0.362 I-0.114 J-0.115
G1 X-199.886 Y-41.322 Z0.31
G3 X-199.658 Y-41.092 Z0.297 I0.114 J0.115
G1 X-201.077 Y-39.682 Z0.244
G3 X-201.305 Y-39.913 Z0.231 I-0.114 J-0.115
G1 X-199.886 Y-41.322 Z0.178
G3 X-199.658 Y-41.092 Z0.165 I0.114 J0.115
G1 X-201.077 Y-39.682 Z0.113
G3 X-201.305 Y-39.913 Z0.099 I-0.114 J-0.115
G1 X-199.886 Y-41.322 Z0.047
G3 X-199.658 Y-41.092 Z0.034 I0.114 J0.115
G1 X-201.077 Y-39.682 Z-0.019
G3 X-201.305 Y-39.913 Z-0.032 I-0.114 J-0.115
G1 X-199.886 Y-41.322 Z-0.084
G3 X-199.658 Y-41.092 Z-0.098 I0.114 J0.115
G1 X-201.077 Y-39.682 Z-0.15
G3 X-201.305 Y-39.913 Z-0.163 I-0.114 J-0.115
G1 X-199.886 Y-41.322 Z-0.216
G3 X-199.658 Y-41.092 Z-0.229 I0.114 J0.115
G1 X-201.077 Y-39.682 Z-0.282
G3 X-201.305 Y-39.913 Z-0.295 I-0.114 J-0.115
G1 X-199.886 Y-41.322 Z-0.347
G3 X-199.658 Y-41.092 Z-0.361 I0.114 J0.115
G1 X-201.077 Y-39.682 Z-0.413
G3 X-201.305 Y-39.913 Z-0.426 I-0.114 J-0.115
G1 X-199.886 Y-41.322 Z-0.479
G3 X-199.658 Y-41.092 Z-0.492 I0.114 J0.115
G1 X-201.077 Y-39.682 Z-0.544
G3 X-201.305 Y-39.913 Z-0.558 I-0.114 J-0.115
G1 X-199.886 Y-41.322 Z-0.61
G3 X-199.658 Y-41.092 Z-0.624 I0.114 J0.115
G1 X-201.077 Y-39.682 Z-0.676
G3 X-201.305 Y-39.913 Z-0.689 I-0.114 J-0.115
G1 X-199.886 Y-41.322 Z-0.742
G3 X-199.658 Y-41.092 Z-0.755 I0.114 J0.115
G1 X-201.077 Y-39.682 Z-0.807
G3 X-201.305 Y-39.913 Z-0.821 I-0.114 J-0.115
G1 X-199.886 Y-41.322 Z-0.873
G3 X-199.658 Y-41.092 Z-0.886 I0.114 J0.115
G1 X-201.077 Y-39.682 Z-0.939
G3 X-201.305 Y-39.913 Z-0.952 I-0.114 J-0.115
G1 X-199.886 Y-41.322 Z-1.005
G3 X-199.658 Y-41.092 Z-1.018 I0.114 J0.115
G1 X-201.077 Y-39.682 Z-1.07
G3 X-201.305 Y-39.913 Z-1.084 I-0.114 J-0.115
G1 X-199.886 Y-41.322 Z-1.136
G3 X-199.658 Y-41.092 Z-1.149 I0.114 J0.115
G1 X-201.077 Y-39.682 Z-1.202
G3 X-201.305 Y-39.913 Z-1.215 I-0.114 J-0.115
G1 X-199.886 Y-41.322 Z-1.267
G3 X-199.658 Y-41.092 Z-1.281 I0.114 J0.115
G1 X-201.077 Y-39.682 Z-1.333
G3 X-201.305 Y-39.913 Z-1.347 I-0.114 J-0.115
G1 X-199.886 Y-41.322 Z-1.399
G3 X-199.658 Y-41.092 Z-1.412 I0.114 J0.115
G1 X-201.077 Y-39.682 Z-1.465
G3 X-201.305 Y-39.913 Z-1.478 I-0.114 J-0.115
G1 X-199.886 Y-41.322 Z-1.53
G3 X-199.658 Y-41.092 Z-1.544 I0.114 J0.115
G1 X-201.077 Y-39.682 Z-1.596
G3 X-201.305 Y-39.913 Z-1.609 I-0.114 J-0.115
G1 X-199.886 Y-41.322 Z-1.662
G3 X-199.658 Y-41.092 Z-1.675 I0.114 J0.115
G1 X-201.077 Y-39.682 Z-1.728
G3 X-201.305 Y-39.913 Z-1.741 I-0.114 J-0.115
G1 X-199.886 Y-41.322 Z-1.793
G3 X-199.658 Y-41.092 Z-1.807 I0.114 J0.115
G1 X-201.077 Y-39.682 Z-1.859
G3 X-201.305 Y-39.913 Z-1.872 I-0.114 J-0.115
G1 X-199.886 Y-41.322 Z-1.925
G3 X-199.658 Y-41.092 Z-1.938 I0.114 J0.115
G1 X-201.077 Y-39.682 Z-1.99
G3 X-201.305 Y-39.913 Z-2.004 I-0.114 J-0.115
G1 X-199.886 Y-41.322 Z-2.056
G3 X-199.658 Y-41.092 Z-2.07 I0.114 J0.115
G1 X-201.077 Y-39.682 Z-2.122
G3 X-201.305 Y-39.913 Z-2.135 I-0.114 J-0.115
G1 X-199.886 Y-41.322 Z-2.188
G3 X-199.658 Y-41.092 Z-2.201 I0.114 J0.115
G1 X-201.077 Y-39.682 Z-2.253
G3 X-201.305 Y-39.913 Z-2.267 I-0.114 J-0.115
G1 X-199.886 Y-41.322 Z-2.319
G3 X-199.658 Y-41.092 Z-2.332 I0.114 J0.115
G1 X-201.077 Y-39.682 Z-2.385
G3 X-201.305 Y-39.913 Z-2.398 I-0.114 J-0.115
G1 X-199.886 Y-41.322 Z-2.451
G3 X-199.658 Y-41.092 Z-2.464 I0.114 J0.115
G1 X-201.077 Y-39.682 Z-2.516
G3 X-201.305 Y-39.913 Z-2.53 I-0.114 J-0.115
G1 X-199.886 Y-41.322 Z-2.582
G3 X-199.658 Y-41.092 Z-2.595 I0.114 J0.115
G1 X-201.077 Y-39.682 Z-2.648
G3 X-201.305 Y-39.913 Z-2.661 I-0.114 J-0.115
G1 X-199.886 Y-41.322 Z-2.713
G3 X-199.658 Y-41.092 Z-2.727 I0.114 J0.115
G1 X-201.077 Y-39.682 Z-2.779
G3 X-201.305 Y-39.913 Z-2.792 I-0.114 J-0.115
G1 X-199.886 Y-41.322 Z-2.845
G3 X-199.658 Y-41.092 Z-2.858 I0.114 J0.115
G1 X-201.077 Y-39.682 Z-2.911
G3 X-201.305 Y-39.913 Z-2.924 I-0.114 J-0.115
G1 X-199.886 Y-41.322 Z-2.976
G3 X-199.658 Y-41.092 Z-2.99 I0.114 J0.115
G1 X-201.077 Y-39.682 Z-3.042
G3 X-201.305 Y-39.913 Z-3.055 I-0.114 J-0.115
G1 X-199.886 Y-41.322 Z-3.108
G3 X-199.658 Y-41.092 Z-3.121 I0.114 J0.115
G1 X-201.077 Y-39.682 Z-3.173
G3 X-201.305 Y-39.913 Z-3.187 I-0.114 J-0.115
G1 X-199.886 Y-41.322 Z-3.239
G3 X-199.658 Y-41.092 Z-3.253 I0.114 J0.115
G1 X-201.077 Y-39.682 Z-3.305
G3 X-201.305 Y-39.913 Z-3.318 I-0.114 J-0.115
G1 X-199.886 Y-41.322 Z-3.371
G3 X-199.658 Y-41.092 Z-3.384 I0.114 J0.115
G1 X-201.077 Y-39.682 Z-3.436
G3 X-201.305 Y-39.913 Z-3.45 I-0.114 J-0.115
G1 X-199.886 Y-41.322 Z-3.502
G3 X-199.658 Y-41.092 Z-3.515 I0.114 J0.115
G1 X-201.077 Y-39.682 Z-3.568
G3 X-201.305 Y-39.913 Z-3.581 I-0.114 J-0.115
G1 X-199.886 Y-41.322 Z-3.634
G3 X-199.658 Y-41.092 Z-3.647 I0.114 J0.115
G1 X-201.077 Y-39.682 Z-3.699
G3 X-201.305 Y-39.913 Z-3.713 I-0.114 J-0.115
G1 X-199.886 Y-41.322 Z-3.765
G3 X-199.658 Y-41.092 Z-3.778 I0.114 J0.115
G1 X-201.077 Y-39.682 Z-3.831
G3 X-201.305 Y-39.913 Z-3.844 I-0.114 J-0.115
G1 X-199.886 Y-41.322 Z-3.896
G3 X-199.658 Y-41.092 Z-3.91 I0.114 J0.115
G1 X-201.077 Y-39.682 Z-3.962
G3 X-201.305 Y-39.913 Z-3.976 I-0.114 J-0.115
G1 X-199.886 Y-41.322 Z-4.028
G3 X-199.658 Y-41.092 Z-4.041 I0.114 J0.115
G1 X-201.077 Y-39.682 Z-4.094
G3 X-201.305 Y-39.913 Z-4.107 I-0.114 J-0.115
G1 X-199.886 Y-41.322 Z-4.159
G3 X-199.658 Y-41.092 Z-4.173 I0.114 J0.115
G1 X-201.077 Y-39.682 Z-4.225
G3 X-201.305 Y-39.913 Z-4.238 I-0.114 J-0.115
G1 X-199.886 Y-41.322 Z-4.291
G3 X-199.658 Y-41.092 Z-4.304 I0.114 J0.115
G1 X-201.077 Y-39.682 Z-4.357
G3 X-201.305 Y-39.913 Z-4.37 I-0.114 J-0.115
G1 X-199.886 Y-41.322 Z-4.422
G3 X-199.658 Y-41.092 Z-4.436 I0.114 J0.115
G1 X-201.077 Y-39.682 Z-4.488
G3 X-201.305 Y-39.913 Z-4.501 I-0.114 J-0.115
G1 X-199.886 Y-41.322 Z-4.554
G3 X-199.658 Y-41.092 Z-4.567 I0.114 J0.115
G1 X-201.077 Y-39.682 Z-4.619
G3 X-201.305 Y-39.913 Z-4.633 I-0.114 J-0.115
G1 X-199.886 Y-41.322 Z-4.685
G3 X-199.658 Y-41.092 Z-4.698 I0.114 J0.115
G1 X-201.077 Y-39.682 Z-4.751
G3 X-201.305 Y-39.913 Z-4.764 I-0.114 J-0.115
G1 X-199.886 Y-41.322 Z-4.817
G3 X-199.658 Y-41.092 Z-4.83 I0.114 J0.115
G1 X-201.077 Y-39.682 Z-4.882
G3 X-201.305 Y-39.913 Z-4.896 I-0.114 J-0.115
G1 X-199.886 Y-41.322 Z-4.948
G3 X-199.658 Y-41.092 Z-4.961 I0.114 J0.115
G1 X-201.077 Y-39.682 Z-5.014
G3 X-201.305 Y-39.913 Z-5.027 I-0.114 J-0.115
G1 X-199.886 Y-41.322 Z-5.079
G3 X-199.658 Y-41.092 Z-5.093 I0.114 J0.115
G1 X-201.077 Y-39.682 Z-5.145
G3 X-201.305 Y-39.913 Z-5.159 I-0.114 J-0.115
G1 X-199.886 Y-41.322 Z-5.211
G3 X-199.658 Y-41.092 Z-5.224 I0.114 J0.115
G1 X-201.077 Y-39.682 Z-5.277
G3 X-201.305 Y-39.913 Z-5.29 I-0.114 J-0.115
G1 X-199.886 Y-41.322 Z-5.342
G3 X-199.658 Y-41.092 Z-5.356 I0.114 J0.115
G1 X-201.077 Y-39.682 Z-5.408
G3 X-201.305 Y-39.913 Z-5.421 I-0.114 J-0.115
G1 X-199.886 Y-41.322 Z-5.474
G3 X-199.658 Y-41.092 Z-5.487 I0.114 J0.115
G1 X-201.077 Y-39.682 Z-5.54
G3 X-201.305 Y-39.913 Z-5.553 I-0.114 J-0.115
G1 X-199.886 Y-41.322 Z-5.605
G3 X-199.658 Y-41.092 Z-5.619 I0.114 J0.115
G1 X-201.077 Y-39.682 Z-5.671
G3 X-201.305 Y-39.913 Z-5.684 I-0.114 J-0.115
G1 X-199.886 Y-41.322 Z-5.737
G3 X-199.658 Y-41.092 Z-5.75 I0.114 J0.115
G1 X-201.077 Y-39.682 Z-5.802
G3 X-201.305 Y-39.913 Z-5.816 I-0.114 J-0.115
G1 X-199.886 Y-41.322 Z-5.868
G3 X-199.658 Y-41.092 Z-5.882 I0.114 J0.115
G1 X-201.077 Y-39.682 Z-5.934
G3 X-201.305 Y-39.913 Z-5.947 I-0.114 J-0.115
G1 X-199.886 Y-41.322 Z-6
G3 X-199.658 Y-41.092 Z-6.013 I0.114 J0.115
G1 X-201.077 Y-39.682 Z-6.065
G3 X-201.305 Y-39.913 Z-6.079 I-0.114 J-0.115
G1 X-199.886 Y-41.322 Z-6.131
G3 X-199.658 Y-41.092 Z-6.144 I0.114 J0.115
G1 X-201.077 Y-39.682 Z-6.197
G3 X-201.305 Y-39.913 Z-6.21 I-0.114 J-0.115
G1 X-199.886 Y-41.322 Z-6.263
G3 X-199.658 Y-41.092 Z-6.276 I0.114 J0.115
G1 X-201.077 Y-39.682 Z-6.328
G3 X-201.305 Y-39.913 Z-6.342 I-0.114 J-0.115
G1 X-199.886 Y-41.322 Z-6.394
G3 X-199.658 Y-41.092 Z-6.407 I0.114 J0.115
G1 X-201.077 Y-39.682 Z-6.46
G3 X-201.305 Y-39.913 Z-6.473 I-0.114 J-0.115
G1 X-199.886 Y-41.322 Z-6.525
G3 X-199.658 Y-41.092 Z-6.539 I0.114 J0.115
G1 X-201.077 Y-39.682 Z-6.591
G3 X-201.305 Y-39.913 Z-6.605 I-0.114 J-0.115
G1 X-199.886 Y-41.322 Z-6.657
G3 X-199.658 Y-41.092 Z-6.67 I0.114 J0.115
G1 X-201.077 Y-39.682 Z-6.723
G3 X-201.305 Y-39.913 Z-6.736 I-0.114 J-0.115
G1 X-199.886 Y-41.322 Z-6.788
G3 X-199.658 Y-41.092 Z-6.802 I0.114 J0.115
G1 X-201.077 Y-39.682 Z-6.854
G3 X-201.305 Y-39.913 Z-6.867 I-0.114 J-0.115
G1 X-199.886 Y-41.322 Z-6.92
G3 X-199.658 Y-41.092 Z-6.933 I0.114 J0.115
G1 X-201.077 Y-39.682 Z-6.986
G3 X-201.305 Y-39.913 Z-6.999 I-0.114 J-0.115
G1 X-199.886 Y-41.322 Z-7.051
G3 X-199.658 Y-41.092 Z-7.065 I0.114 J0.115
G1 X-201.077 Y-39.682 Z-7.117
G3 X-201.305 Y-39.913 Z-7.13 I-0.114 J-0.115
G1 X-199.886 Y-41.322 Z-7.183
G3 X-199.658 Y-41.092 Z-7.196 I0.114 J0.115
G1 X-201.077 Y-39.682 Z-7.248
G3 X-201.305 Y-39.913 Z-7.262 I-0.114 J-0.115
G1 X-199.886 Y-41.322 Z-7.314
G3 X-199.658 Y-41.092 Z-7.327 I0.114 J0.115
G1 X-201.077 Y-39.682 Z-7.38
G3 X-201.305 Y-39.913 Z-7.393 I-0.114 J-0.115
G1 X-199.886 Y-41.322 Z-7.446
G3 X-199.658 Y-41.092 Z-7.459 I0.114 J0.115
G1 X-201.077 Y-39.682 Z-7.511
G3 X-201.305 Y-39.913 Z-7.525 I-0.114 J-0.115
G1 X-199.886 Y-41.322 Z-7.577
G3 X-199.658 Y-41.092 Z-7.59 I0.114 J0.115
G1 X-201.077 Y-39.682 Z-7.643
G3 X-201.305 Y-39.913 Z-7.656 I-0.114 J-0.115
G1 X-199.886 Y-41.322 Z-7.708
G3 X-199.658 Y-41.092 Z-7.722 I0.114 J0.115
G1 X-201.077 Y-39.682 Z-7.774
G3 X-201.305 Y-39.913 Z-7.788 I-0.114 J-0.115
G1 X-199.886 Y-41.322 Z-7.84
G3 X-199.658 Y-41.092 Z-7.853 I0.114 J0.115
G1 X-201.077 Y-39.682 Z-7.906
G3 X-201.305 Y-39.913 Z-7.919 I-0.114 J-0.115
G1 X-199.886 Y-41.322 Z-7.971
G3 X-199.658 Y-41.092 Z-7.985 I0.114 J0.115
G1 X-201.077 Y-39.682 Z-8.037
G3 X-201.305 Y-39.913 Z-8.05 I-0.114 J-0.115
G1 X-199.886 Y-41.322 Z-8.103
G3 X-199.658 Y-41.092 Z-8.116 I0.114 J0.115
G1 X-201.077 Y-39.682 Z-8.169
G3 X-201.305 Y-39.913 Z-8.182 I-0.114 J-0.115
G1 X-199.886 Y-41.322 Z-8.234
G3 X-199.658 Y-41.092 Z-8.248 I0.114 J0.115
G1 X-201.077 Y-39.682 Z-8.3
S2500
G3 X-201.305 Y-39.913 I-0.114 J-0.115 F1000
G1 X-199.886 Y-41.322
G3 X-199.658 Y-41.092 I0.114 J0.115
G1 X-201.077 Y-39.682
X-201.096 Y-39.667 Z-8.298
X-201.118 Y-39.654 Z-8.292
X-201.14 Y-39.646 Z-8.282
X-201.161 Y-39.641 Z-8.269
X-201.18 Y-39.639 Z-8.252
X-201.197 Y-39.64 Z-8.233
X-201.21 Y-39.641 Z-8.211
X-201.22 Y-39.643 Z-8.188
X-201.225 Y-39.644 Z-8.163
X-201.227 Y-39.645 Z-8.138
Z5
X-34.657 Y-22.312
Z2.5 F333.3
S5000
X-35.162 Y-22.821 Z2.481
G3 X-35.161 Y-23.05 Z2.475 I0.115 J-0.115
X-34.932 Y-23.05 Z2.468 I0.115 J0.115
G1 X-33.522 Y-21.631 Z2.415
G3 X-33.753 Y-21.402 Z2.402 I-0.115 J0.115
G1 X-35.162 Y-22.821 Z2.35
G3 X-35.161 Y-23.05 Z2.343 I0.115 J-0.115
X-34.932 Y-23.05 Z2.336 I0.115 J0.115
G1 X-33.522 Y-21.631 Z2.284
G3 X-33.753 Y-21.402 Z2.271 I-0.115 J0.115
G1 X-35.162 Y-22.821 Z2.218
G3 X-35.161 Y-23.05 Z2.212 I0.115 J-0.115
X-34.932 Y-23.05 Z2.205 I0.115 J0.115
G1 X-33.522 Y-21.631 Z2.153
G3 X-33.753 Y-21.402 Z2.139 I-0.115 J0.115
G1 X-35.162 Y-22.821 Z2.087
G3 X-35.161 Y-23.05 Z2.08 I0.115 J-0.115
X-34.932 Y-23.05 Z2.073 I0.115 J0.115
G1 X-33.522 Y-21.631 Z2.021
G3 X-33.753 Y-21.402 Z2.008 I-0.115 J0.115
G1 X-35.162 Y-22.821 Z1.955
G3 X-35.161 Y-23.05 Z1.949 I0.115 J-0.115
X-34.932 Y-23.05 Z1.942 I0.115 J0.115
G1 X-33.522 Y-21.631 Z1.89
G3 X-33.753 Y-21.402 Z1.876 I-0.115 J0.115
G1 X-35.162 Y-22.821 Z1.824
G3 X-35.161 Y-23.05 Z1.817 I0.115 J-0.115
X-34.932 Y-23.05 Z1.81 I0.115 J0.115
G1 X-33.522 Y-21.631 Z1.758
G3 X-33.753 Y-21.402 Z1.745 I-0.115 J0.115
G1 X-35.162 Y-22.821 Z1.692
G3 X-35.161 Y-23.05 Z1.686 I0.115 J-0.115
X-34.932 Y-23.05 Z1.679 I0.115 J0.115
G1 X-33.522 Y-21.631 Z1.627
G3 X-33.753 Y-21.402 Z1.613 I-0.115 J0.115
G1 X-35.162 Y-22.821 Z1.561
G3 X-35.161 Y-23.05 Z1.554 I0.115 J-0.115
X-34.932 Y-23.05 Z1.548 I0.115 J0.115
G1 X-33.522 Y-21.631 Z1.495
G3 X-33.753 Y-21.402 Z1.482 I-0.115 J0.115
G1 X-35.162 Y-22.821 Z1.429
G3 X-35.161 Y-23.05 Z1.423 I0.115 J-0.115
X-34.932 Y-23.05 Z1.416 I0.115 J0.115
G1 X-33.522 Y-21.631 Z1.364
G3 X-33.753 Y-21.402 Z1.35 I-0.115 J0.115
G1 X-35.162 Y-22.821 Z1.298
G3 X-35.161 Y-23.05 Z1.291 I0.115 J-0.115
X-34.932 Y-23.05 Z1.285 I0.115 J0.115
G1 X-33.522 Y-21.631 Z1.232
G3 X-33.753 Y-21.402 Z1.219 I-0.115 J0.115
G1 X-35.162 Y-22.821 Z1.166
G3 X-35.161 Y-23.05 Z1.16 I0.115 J-0.115
X-34.932 Y-23.05 Z1.153 I0.115 J0.115
G1 X-33.522 Y-21.631 Z1.101
G3 X-33.753 Y-21.402 Z1.087 I-0.115 J0.115
G1 X-35.162 Y-22.821 Z1.035
G3 X-35.161 Y-23.05 Z1.028 I0.115 J-0.115
X-34.932 Y-23.05 Z1.022 I0.115 J0.115
G1 X-33.522 Y-21.631 Z0.969
G3 X-33.753 Y-21.402 Z0.956 I-0.115 J0.115
G1 X-35.162 Y-22.821 Z0.903
G3 X-35.161 Y-23.05 Z0.897 I0.115 J-0.115
X-34.932 Y-23.05 Z0.89 I0.115 J0.115
G1 X-33.522 Y-21.631 Z0.838
G3 X-33.753 Y-21.402 Z0.824 I-0.115 J0.115
G1 X-35.162 Y-22.821 Z0.772
G3 X-35.161 Y-23.05 Z0.765 I0.115 J-0.115
X-34.932 Y-23.05 Z0.759 I0.115 J0.115
G1 X-33.522 Y-21.631 Z0.706
G3 X-33.753 Y-21.402 Z0.693 I-0.115 J0.115
G1 X-35.162 Y-22.821 Z0.641
G3 X-35.161 Y-23.05 Z0.634 I0.115 J-0.115
X-34.932 Y-23.05 Z0.627 I0.115 J0.115
G1 X-33.522 Y-21.631 Z0.575
G3 X-33.753 Y-21.402 Z0.561 I-0.115 J0.115
G1 X-35.162 Y-22.821 Z0.509
G3 X-35.161 Y-23.05 Z0.502 I0.115 J-0.115
X-34.932 Y-23.05 Z0.496 I0.115 J0.115
G1 X-33.522 Y-21.631 Z0.443
G3 X-33.753 Y-21.402 Z0.43 I-0.115 J0.115
G1 X-35.162 Y-22.821 Z0.378
G3 X-35.161 Y-23.05 Z0.371 I0.115 J-0.115
X-34.932 Y-23.05 Z0.364 I0.115 J0.115
G1 X-33.522 Y-21.631 Z0.312
G3 X-33.753 Y-21.402 Z0.298 I-0.115 J0.115
G1 X-35.162 Y-22.821 Z0.246
G3 X-35.161 Y-23.05 Z0.239 I0.115 J-0.115
X-34.932 Y-23.05 Z0.233 I0.115 J0.115
G1 X-33.522 Y-21.631 Z0.18
G3 X-33.753 Y-21.402 Z0.167 I-0.115 J0.115
G1 X-35.162 Y-22.821 Z0.115
G3 X-35.161 Y-23.05 Z0.108 I0.115 J-0.115
X-34.932 Y-23.05 Z0.101 I0.115 J0.115
G1 X-33.522 Y-21.631 Z0.049
G3 X-33.753 Y-21.402 Z0.036 I-0.115 J0.115
G1 X-35.162 Y-22.821 Z-0.017
G3 X-35.161 Y-23.05 Z-0.024 I0.115 J-0.115
X-34.932 Y-23.05 Z-0.03 I0.115 J0.115
G1 X-33.522 Y-21.631 Z-0.083
G3 X-33.753 Y-21.402 Z-0.096 I-0.115 J0.115
G1 X-35.162 Y-22.821 Z-0.148
G3 X-35.161 Y-23.05 Z-0.155 I0.115 J-0.115
X-34.932 Y-23.05 Z-0.162 I0.115 J0.115
G1 X-33.522 Y-21.631 Z-0.214
G3 X-33.753 Y-21.402 Z-0.227 I-0.115 J0.115
G1 X-35.162 Y-22.821 Z-0.28
G3 X-35.161 Y-23.05 Z-0.286 I0.115 J-0.115
X-34.932 Y-23.05 Z-0.293 I0.115 J0.115
G1 X-33.522 Y-21.631 Z-0.346
G3 X-33.753 Y-21.402 Z-0.359 I-0.115 J0.115
G1 X-35.162 Y-22.821 Z-0.411
G3 X-35.161 Y-23.05 Z-0.418 I0.115 J-0.115
X-34.932 Y-23.05 Z-0.425 I0.115 J0.115
G1 X-33.522 Y-21.631 Z-0.477
G3 X-33.753 Y-21.402 Z-0.49 I-0.115 J0.115
G1 X-35.162 Y-22.821 Z-0.543
G3 X-35.161 Y-23.05 Z-0.549 I0.115 J-0.115
X-34.932 Y-23.05 Z-0.556 I0.115 J0.115
G1 X-33.522 Y-21.631 Z-0.609
G3 X-33.753 Y-21.402 Z-0.622 I-0.115 J0.115
G1 X-35.162 Y-22.821 Z-0.674
G3 X-35.161 Y-23.05 Z-0.681 I0.115 J-0.115
X-34.932 Y-23.05 Z-0.688 I0.115 J0.115
G1 X-33.522 Y-21.631 Z-0.74
G3 X-33.753 Y-21.402 Z-0.753 I-0.115 J0.115
G1 X-35.162 Y-22.821 Z-0.806
G3 X-35.161 Y-23.05 Z-0.812 I0.115 J-0.115
X-34.932 Y-23.05 Z-0.819 I0.115 J0.115
G1 X-33.522 Y-21.631 Z-0.871
G3 X-33.753 Y-21.402 Z-0.885 I-0.115 J0.115
G1 X-35.162 Y-22.821 Z-0.937
G3 X-35.161 Y-23.05 Z-0.944 I0.115 J-0.115
X-34.932 Y-23.05 Z-0.951 I0.115 J0.115
G1 X-33.522 Y-21.631 Z-1.003
G3 X-33.753 Y-21.402 Z-1.016 I-0.115 J0.115
G1 X-35.162 Y-22.821 Z-1.069
G3 X-35.161 Y-23.05 Z-1.075 I0.115 J-0.115
X-34.932 Y-23.05 Z-1.082 I0.115 J0.115
G1 X-33.522 Y-21.631 Z-1.134
G3 X-33.753 Y-21.402 Z-1.148 I-0.115 J0.115
G1 X-35.162 Y-22.821 Z-1.2
G3 X-35.161 Y-23.05 Z-1.207 I0.115 J-0.115
X-34.932 Y-23.05 Z-1.214 I0.115 J0.115
G1 X-33.522 Y-21.631 Z-1.266
G3 X-33.753 Y-21.402 Z-1.279 I-0.115 J0.115
G1 X-35.162 Y-22.821 Z-1.332
G3 X-35.161 Y-23.05 Z-1.338 I0.115 J-0.115
X-34.932 Y-23.05 Z-1.345 I0.115 J0.115
G1 X-33.522 Y-21.631 Z-1.397
G3 X-33.753 Y-21.402 Z-1.411 I-0.115 J0.115
G1 X-35.162 Y-22.821 Z-1.463
G3 X-35.161 Y-23.05 Z-1.47 I0.115 J-0.115
X-34.932 Y-23.05 Z-1.476 I0.115 J0.115
G1 X-33.522 Y-21.631 Z-1.529
G3 X-33.753 Y-21.402 Z-1.542 I-0.115 J0.115
G1 X-35.162 Y-22.821 Z-1.595
G3 X-35.161 Y-23.05 Z-1.601 I0.115 J-0.115
X-34.932 Y-23.05 Z-1.608 I0.115 J0.115
G1 X-33.522 Y-21.631 Z-1.66
G3 X-33.753 Y-21.402 Z-1.674 I-0.115 J0.115
G1 X-35.162 Y-22.821 Z-1.726
G3 X-35.161 Y-23.05 Z-1.733 I0.115 J-0.115
X-34.932 Y-23.05 Z-1.739 I0.115 J0.115
G1 X-33.522 Y-21.631 Z-1.792
G3 X-33.753 Y-21.402 Z-1.805 I-0.115 J0.115
G1 X-35.162 Y-22.821 Z-1.858
G3 X-35.161 Y-23.05 Z-1.864 I0.115 J-0.115
X-34.932 Y-23.05 Z-1.871 I0.115 J0.115
G1 X-33.522 Y-21.631 Z-1.923
G3 X-33.753 Y-21.402 Z-1.937 I-0.115 J0.115
G1 X-35.162 Y-22.821 Z-1.989
G3 X-35.161 Y-23.05 Z-1.996 I0.115 J-0.115
X-34.932 Y-23.05 Z-2.002 I0.115 J0.115
G1 X-33.522 Y-21.631 Z-2.055
G3 X-33.753 Y-21.402 Z-2.068 I-0.115 J0.115
G1 X-35.162 Y-22.821 Z-2.121
G3 X-35.161 Y-23.05 Z-2.127 I0.115 J-0.115
X-34.932 Y-23.05 Z-2.134 I0.115 J0.115
G1 X-33.522 Y-21.631 Z-2.186
G3 X-33.753 Y-21.402 Z-2.2 I-0.115 J0.115
G1 X-35.162 Y-22.821 Z-2.252
G3 X-35.161 Y-23.05 Z-2.259 I0.115 J-0.115
X-34.932 Y-23.05 Z-2.265 I0.115 J0.115
G1 X-33.522 Y-21.631 Z-2.318
G3 X-33.753 Y-21.402 Z-2.331 I-0.115 J0.115
G1 X-35.162 Y-22.821 Z-2.383
G3 X-35.161 Y-23.05 Z-2.39 I0.115 J-0.115
X-34.932 Y-23.05 Z-2.397 I0.115 J0.115
G1 X-33.522 Y-21.631 Z-2.449
G3 X-33.753 Y-21.402 Z-2.463 I-0.115 J0.115
G1 X-35.162 Y-22.821 Z-2.515
G3 X-35.161 Y-23.05 Z-2.522 I0.115 J-0.115
X-34.932 Y-23.05 Z-2.528 I0.115 J0.115
G1 X-33.522 Y-21.631 Z-2.581
G3 X-33.753 Y-21.402 Z-2.594 I-0.115 J0.115
G1 X-35.162 Y-22.821 Z-2.646
G3 X-35.161 Y-23.05 Z-2.653 I0.115 J-0.115
X-34.932 Y-23.05 Z-2.66 I0.115 J0.115
G1 X-33.522 Y-21.631 Z-2.712
G3 X-33.753 Y-21.402 Z-2.726 I-0.115 J0.115
G1 X-35.162 Y-22.821 Z-2.778
G3 X-35.161 Y-23.05 Z-2.785 I0.115 J-0.115
X-34.932 Y-23.05 Z-2.791 I0.115 J0.115
G1 X-33.522 Y-21.631 Z-2.844
G3 X-33.753 Y-21.402 Z-2.857 I-0.115 J0.115
G1 X-35.162 Y-22.821 Z-2.909
G3 X-35.161 Y-23.05 Z-2.916 I0.115 J-0.115
X-34.932 Y-23.05 Z-2.923 I0.115 J0.115
G1 X-33.522 Y-21.631 Z-2.975
G3 X-33.753 Y-21.402 Z-2.988 I-0.115 J0.115
G1 X-35.162 Y-22.821 Z-3.041
G3 X-35.161 Y-23.05 Z-3.048 I0.115 J-0.115
X-34.932 Y-23.05 Z-3.054 I0.115 J0.115
G1 X-33.522 Y-21.631 Z-3.107
G3 X-33.753 Y-21.402 Z-3.12 I-0.115 J0.115
G1 X-35.162 Y-22.821 Z-3.172
G3 X-35.161 Y-23.05 Z-3.179 I0.115 J-0.115
X-34.932 Y-23.05 Z-3.186 I0.115 J0.115
G1 X-33.522 Y-21.631 Z-3.238
G3 X-33.753 Y-21.402 Z-3.251 I-0.115 J0.115
G1 X-35.162 Y-22.821 Z-3.304
G3 X-35.161 Y-23.05 Z-3.311 I0.115 J-0.115
X-34.932 Y-23.05 Z-3.317 I0.115 J0.115
G1 X-33.522 Y-21.631 Z-3.37
G3 X-33.753 Y-21.402 Z-3.383 I-0.115 J0.115
G1 X-35.162 Y-22.821 Z-3.435
G3 X-35.161 Y-23.05 Z-3.442 I0.115 J-0.115
X-34.932 Y-23.05 Z-3.449 I0.115 J0.115
G1 X-33.522 Y-21.631 Z-3.501
G3 X-33.753 Y-21.402 Z-3.514 I-0.115 J0.115
G1 X-35.162 Y-22.821 Z-3.567
G3 X-35.161 Y-23.05 Z-3.573 I0.115 J-0.115
X-34.932 Y-23.05 Z-3.58 I0.115 J0.115
G1 X-33.522 Y-21.631 Z-3.633
G3 X-33.753 Y-21.402 Z-3.646 I-0.115 J0.115
G1 X-35.162 Y-22.821 Z-3.698
G3 X-35.161 Y-23.05 Z-3.705 I0.115 J-0.115
X-34.932 Y-23.05 Z-3.712 I0.115 J0.115
G1 X-33.522 Y-21.631 Z-3.764
G3 X-33.753 Y-21.402 Z-3.777 I-0.115 J0.115
G1 X-35.162 Y-22.821 Z-3.83
G3 X-35.161 Y-23.05 Z-3.836 I0.115 J-0.115
X-34.932 Y-23.05 Z-3.843 I0.115 J0.115
G1 X-33.522 Y-21.631 Z-3.895
G3 X-33.753 Y-21.402 Z-3.909 I-0.115 J0.115
G1 X-35.162 Y-22.821 Z-3.961
G3 X-35.161 Y-23.05 Z-3.968 I0.115 J-0.115
X-34.932 Y-23.05 Z-3.975 I0.115 J0.115
G1 X-33.522 Y-21.631 Z-4.027
G3 X-33.753 Y-21.402 Z-4.04 I-0.115 J0.115
G1 X-35.162 Y-22.821 Z-4.093
G3 X-35.161 Y-23.05 Z-4.099 I0.115 J-0.115
X-34.932 Y-23.05 Z-4.106 I0.115 J0.115
G1 X-33.522 Y-21.631 Z-4.158
G3 X-33.753 Y-21.402 Z-4.172 I-0.115 J0.115
G1 X-35.162 Y-22.821 Z-4.224
G3 X-35.161 Y-23.05 Z-4.231 I0.115 J-0.115
X-34.932 Y-23.05 Z-4.238 I0.115 J0.115
G1 X-33.522 Y-21.631 Z-4.29
G3 X-33.753 Y-21.402 Z-4.303 I-0.115 J0.115
G1 X-35.162 Y-22.821 Z-4.356
G3 X-35.161 Y-23.05 Z-4.362 I0.115 J-0.115
X-34.932 Y-23.05 Z-4.369 I0.115 J0.115
G1 X-33.522 Y-21.631 Z-4.421
G3 X-33.753 Y-21.402 Z-4.435 I-0.115 J0.115
G1 X-35.162 Y-22.821 Z-4.487
G3 X-35.161 Y-23.05 Z-4.494 I0.115 J-0.115
X-34.932 Y-23.05 Z-4.5 I0.115 J0.115
G1 X-33.522 Y-21.631 Z-4.553
G3 X-33.753 Y-21.402 Z-4.566 I-0.115 J0.115
G1 X-35.162 Y-22.821 Z-4.619
G3 X-35.161 Y-23.05 Z-4.625 I0.115 J-0.115
X-34.932 Y-23.05 Z-4.632 I0.115 J0.115
G1 X-33.522 Y-21.631 Z-4.684
G3 X-33.753 Y-21.402 Z-4.698 I-0.115 J0.115
G1 X-35.162 Y-22.821 Z-4.75
G3 X-35.161 Y-23.05 Z-4.757 I0.115 J-0.115
X-34.932 Y-23.05 Z-4.763 I0.115 J0.115
G1 X-33.522 Y-21.631 Z-4.816
G3 X-33.753 Y-21.402 Z-4.829 I-0.115 J0.115
G1 X-35.162 Y-22.821 Z-4.882
G3 X-35.161 Y-23.05 Z-4.888 I0.115 J-0.115
X-34.932 Y-23.05 Z-4.895 I0.115 J0.115
G1 X-33.522 Y-21.631 Z-4.947
G3 X-33.753 Y-21.402 Z-4.961 I-0.115 J0.115
G1 X-35.162 Y-22.821 Z-5.013
G3 X-35.161 Y-23.05 Z-5.02 I0.115 J-0.115
X-34.932 Y-23.05 Z-5.026 I0.115 J0.115
G1 X-33.522 Y-21.631 Z-5.079
G3 X-33.753 Y-21.402 Z-5.092 I-0.115 J0.115
G1 X-35.162 Y-22.821 Z-5.145
G3 X-35.161 Y-23.05 Z-5.151 I0.115 J-0.115
X-34.932 Y-23.05 Z-5.158 I0.115 J0.115
G1 X-33.522 Y-21.631 Z-5.21
G3 X-33.753 Y-21.402 Z-5.224 I-0.115 J0.115
G1 X-35.162 Y-22.821 Z-5.276
G3 X-35.161 Y-23.05 Z-5.283 I0.115 J-0.115
X-34.932 Y-23.05 Z-5.289 I0.115 J0.115
G1 X-33.522 Y-21.631 Z-5.342
G3 X-33.753 Y-21.402 Z-5.355 I-0.115 J0.115
G1 X-35.162 Y-22.821 Z-5.407
G3 X-35.161 Y-23.05 Z-5.414 I0.115 J-0.115
X-34.932 Y-23.05 Z-5.421 I0.115 J0.115
G1 X-33.522 Y-21.631 Z-5.473
G3 X-33.753 Y-21.402 Z-5.487 I-0.115 J0.115
G1 X-35.162 Y-22.821 Z-5.539
G3 X-35.161 Y-23.05 Z-5.546 I0.115 J-0.115
X-34.932 Y-23.05 Z-5.552 I0.115 J0.115
G1 X-33.522 Y-21.631 Z-5.605
G3 X-33.753 Y-21.402 Z-5.618 I-0.115 J0.115
G1 X-35.162 Y-22.821 Z-5.67
G3 X-35.161 Y-23.05 Z-5.677 I0.115 J-0.115
X-34.932 Y-23.05 Z-5.684 I0.115 J0.115
G1 X-33.522 Y-21.631 Z-5.736
G3 X-33.753 Y-21.402 Z-5.75 I-0.115 J0.115
G1 X-35.162 Y-22.821 Z-5.802
G3 X-35.161 Y-23.05 Z-5.809 I0.115 J-0.115
X-34.932 Y-23.05 Z-5.815 I0.115 J0.115
G1 X-33.522 Y-21.631 Z-5.868
G3 X-33.753 Y-21.402 Z-5.881 I-0.115 J0.115
G1 X-35.162 Y-22.821 Z-5.933
G3 X-35.161 Y-23.05 Z-5.94 I0.115 J-0.115
X-34.932 Y-23.05 Z-5.947 I0.115 J0.115
G1 X-33.522 Y-21.631 Z-5.999
G3 X-33.753 Y-21.402 Z-6.012 I-0.115 J0.115
G1 X-35.162 Y-22.821 Z-6.065
G3 X-35.161 Y-23.05 Z-6.072 I0.115 J-0.115
X-34.932 Y-23.05 Z-6.078 I0.115 J0.115
G1 X-33.522 Y-21.631 Z-6.131
G3 X-33.753 Y-21.402 Z-6.144 I-0.115 J0.115
G1 X-35.162 Y-22.821 Z-6.196
G3 X-35.161 Y-23.05 Z-6.203 I0.115 J-0.115
X-34.932 Y-23.05 Z-6.21 I0.115 J0.115
G1 X-33.522 Y-21.631 Z-6.262
G3 X-33.753 Y-21.402 Z-6.275 I-0.115 J0.115
G1 X-35.162 Y-22.821 Z-6.328
G3 X-35.161 Y-23.05 Z-6.335 I0.115 J-0.115
X-34.932 Y-23.05 Z-6.341 I0.115 J0.115
G1 X-33.522 Y-21.631 Z-6.394
G3 X-33.753 Y-21.402 Z-6.407 I-0.115 J0.115
G1 X-35.162 Y-22.821 Z-6.459
G3 X-35.161 Y-23.05 Z-6.466 I0.115 J-0.115
X-34.932 Y-23.05 Z-6.473 I0.115 J0.115
G1 X-33.522 Y-21.631 Z-6.525
G3 X-33.753 Y-21.402 Z-6.538 I-0.115 J0.115
G1 X-35.162 Y-22.821 Z-6.591
G3 X-35.161 Y-23.05 Z-6.597 I0.115 J-0.115
X-34.932 Y-23.05 Z-6.604 I0.115 J0.115
G1 X-33.522 Y-21.631 Z-6.657
G3 X-33.753 Y-21.402 Z-6.67 I-0.115 J0.115
G1 X-35.162 Y-22.821 Z-6.722
G3 X-35.161 Y-23.05 Z-6.729 I0.115 J-0.115
X-34.932 Y-23.05 Z-6.736 I0.115 J0.115
G1 X-33.522 Y-21.631 Z-6.788
G3 X-33.753 Y-21.402 Z-6.801 I-0.115 J0.115
G1 X-35.162 Y-22.821 Z-6.854
G3 X-35.161 Y-23.05 Z-6.86 I0.115 J-0.115
X-34.932 Y-23.05 Z-6.867 I0.115 J0.115
G1 X-33.522 Y-21.631 Z-6.919
G3 X-33.753 Y-21.402 Z-6.933 I-0.115 J0.115
G1 X-35.162 Y-22.821 Z-6.985
G3 X-35.161 Y-23.05 Z-6.992 I0.115 J-0.115
X-34.932 Y-23.05 Z-6.999 I0.115 J0.115
G1 X-33.522 Y-21.631 Z-7.051
G3 X-33.753 Y-21.402 Z-7.064 I-0.115 J0.115
G1 X-35.162 Y-22.821 Z-7.117
G3 X-35.161 Y-23.05 Z-7.123 I0.115 J-0.115
X-34.932 Y-23.05 Z-7.13 I0.115 J0.115
G1 X-33.522 Y-21.631 Z-7.182
G3 X-33.753 Y-21.402 Z-7.196 I-0.115 J0.115
G1 X-35.162 Y-22.821 Z-7.248
G3 X-35.161 Y-23.05 Z-7.255 I0.115 J-0.115
X-34.932 Y-23.05 Z-7.262 I0.115 J0.115
G1 X-33.522 Y-21.631 Z-7.314
G3 X-33.753 Y-21.402 Z-7.327 I-0.115 J0.115
G1 X-35.162 Y-22.821 Z-7.38
G3 X-35.161 Y-23.05 Z-7.386 I0.115 J-0.115
X-34.932 Y-23.05 Z-7.393 I0.115 J0.115
G1 X-33.522 Y-21.631 Z-7.445
G3 X-33.753 Y-21.402 Z-7.459 I-0.115 J0.115
G1 X-35.162 Y-22.821 Z-7.511
G3 X-35.161 Y-23.05 Z-7.518 I0.115 J-0.115
X-34.932 Y-23.05 Z-7.524 I0.115 J0.115
G1 X-33.522 Y-21.631 Z-7.577
G3 X-33.753 Y-21.402 Z-7.59 I-0.115 J0.115
G1 X-35.162 Y-22.821 Z-7.643
G3 X-35.161 Y-23.05 Z-7.649 I0.115 J-0.115
X-34.932 Y-23.05 Z-7.656 I0.115 J0.115
G1 X-33.522 Y-21.631 Z-7.708
G3 X-33.753 Y-21.402 Z-7.722 I-0.115 J0.115
G1 X-35.162 Y-22.821 Z-7.774
G3 X-35.161 Y-23.05 Z-7.781 I0.115 J-0.115
X-34.932 Y-23.05 Z-7.787 I0.115 J0.115
G1 X-33.522 Y-21.631 Z-7.84
G3 X-33.753 Y-21.402 Z-7.853 I-0.115 J0.115
G1 X-35.162 Y-22.821 Z-7.906
G3 X-35.161 Y-23.05 Z-7.912 I0.115 J-0.115
X-34.932 Y-23.05 Z-7.919 I0.115 J0.115
G1 X-33.522 Y-21.631 Z-7.971
G3 X-33.753 Y-21.402 Z-7.985 I-0.115 J0.115
G1 X-35.162 Y-22.821 Z-8.037
G3 X-35.161 Y-23.05 Z-8.044 I0.115 J-0.115
X-34.932 Y-23.05 Z-8.05 I0.115 J0.115
G1 X-33.522 Y-21.631 Z-8.103
G3 X-33.753 Y-21.402 Z-8.116 I-0.115 J0.115
G1 X-35.162 Y-22.821 Z-8.169
G3 X-35.161 Y-23.05 Z-8.175 I0.115 J-0.115
X-34.932 Y-23.05 Z-8.182 I0.115 J0.115
G1 X-33.522 Y-21.631 Z-8.234
G3 X-33.753 Y-21.402 Z-8.248 I-0.115 J0.115
G1 X-35.162 Y-22.821 Z-8.3
S2500
G3 X-35.161 Y-23.05 I0.115 J-0.115 F1000
X-34.932 Y-23.05 I0.115 J0.115
G1 X-33.522 Y-21.631
G3 X-33.753 Y-21.402 I-0.115 J0.115
G1 X-35.162 Y-22.821
X-35.178 Y-22.84 Z-8.298
X-35.19 Y-22.862 Z-8.292
X-35.199 Y-22.884 Z-8.282
X-35.204 Y-22.905 Z-8.269
X-35.205 Y-22.924 Z-8.252
Y-22.941 Z-8.233
X-35.203 Y-22.954 Z-8.211
X-35.202 Y-22.964 Z-8.188
X-35.2 Y-22.969 Z-8.163
Y-22.971 Z-8.138
Z5
X-33.941 Y-10.168
Z2.5 F333.3
S5000
X-33.79 Y-10.318 Z2.494
G3 X-33.561 Y-10.317 Z2.488 I0.115 J0.115
X-33.561 Y-10.087 Z2.481 I-0.115 J0.115
G1 X-34.98 Y-8.678 Z2.429
G3 X-35.209 Y-8.908 Z2.415 I-0.115 J-0.115
G1 X-33.79 Y-10.318 Z2.363
G3 X-33.561 Y-10.317 Z2.356 I0.115 J0.115
X-33.561 Y-10.087 Z2.35 I-0.115 J0.115
G1 X-34.98 Y-8.678 Z2.297
G3 X-35.209 Y-8.908 Z2.284 I-0.115 J-0.115
G1 X-33.79 Y-10.318 Z2.231
G3 X-33.561 Y-10.317 Z2.225 I0.115 J0.115
X-33.561 Y-10.087 Z2.218 I-0.115 J0.115
G1 X-34.98 Y-8.678 Z2.166
G3 X-35.209 Y-8.908 Z2.152 I-0.115 J-0.115
G1 X-33.79 Y-10.318 Z2.1
G3 X-33.561 Y-10.317 Z2.093 I0.115 J0.115
X-33.561 Y-10.087 Z2.087 I-0.115 J0.115
G1 X-34.98 Y-8.678 Z2.034
G3 X-35.209 Y-8.908 Z2.021 I-0.115 J-0.115
G1 X-33.79 Y-10.318 Z1.969
G3 X-33.561 Y-10.317 Z1.962 I0.115 J0.115
X-33.561 Y-10.087 Z1.955 I-0.115 J0.115
G1 X-34.98 Y-8.678 Z1.903
G3 X-35.209 Y-8.908 Z1.889 I-0.115 J-0.115
G1 X-33.79 Y-10.318 Z1.837
G3 X-33.561 Y-10.317 Z1.83 I0.115 J0.115
X-33.561 Y-10.087 Z1.824 I-0.115 J0.115
G1 X-34.98 Y-8.678 Z1.771
G3 X-35.209 Y-8.908 Z1.758 I-0.115 J-0.115
G1 X-33.79 Y-10.318 Z1.706
G3 X-33.561 Y-10.317 Z1.699 I0.115 J0.115
X-33.561 Y-10.087 Z1.692 I-0.115 J0.115
G1 X-34.98 Y-8.678 Z1.64
G3 X-35.209 Y-8.908 Z1.626 I-0.115 J-0.115
G1 X-33.79 Y-10.318 Z1.574
G3 X-33.561 Y-10.317 Z1.567 I0.115 J0.115
X-33.561 Y-10.087 Z1.561 I-0.115 J0.115
G1 X-34.98 Y-8.678 Z1.508
G3 X-35.209 Y-8.908 Z1.495 I-0.115 J-0.115
G1 X-33.79 Y-10.318 Z1.443
G3 X-33.561 Y-10.317 Z1.436 I0.115 J0.115
X-33.561 Y-10.087 Z1.429 I-0.115 J0.115
G1 X-34.98 Y-8.678 Z1.377
G3 X-35.209 Y-8.908 Z1.364 I-0.115 J-0.115
G1 X-33.79 Y-10.318 Z1.311
G3 X-33.561 Y-10.317 Z1.304 I0.115 J0.115
X-33.561 Y-10.087 Z1.298 I-0.115 J0.115
G1 X-34.98 Y-8.678 Z1.245
G3 X-35.209 Y-8.908 Z1.232 I-0.115 J-0.115
G1 X-33.79 Y-10.318 Z1.18
G3 X-33.561 Y-10.317 Z1.173 I0.115 J0.115
X-33.561 Y-10.087 Z1.166 I-0.115 J0.115
G1 X-34.98 Y-8.678 Z1.114
G3 X-35.209 Y-8.908 Z1.101 I-0.115 J-0.115
G1 X-33.79 Y-10.318 Z1.048
G3 X-33.561 Y-10.317 Z1.042 I0.115 J0.115
X-33.561 Y-10.087 Z1.035 I-0.115 J0.115
G1 X-34.98 Y-8.678 Z0.982
G3 X-35.209 Y-8.908 Z0.969 I-0.115 J-0.115
G1 X-33.79 Y-10.318 Z0.917
G3 X-33.561 Y-10.317 Z0.91 I0.115 J0.115
X-33.561 Y-10.087 Z0.903 I-0.115 J0.115
G1 X-34.98 Y-8.678 Z0.851
G3 X-35.209 Y-8.908 Z0.838 I-0.115 J-0.115
G1 X-33.79 Y-10.318 Z0.785
G3 X-33.561 Y-10.317 Z0.779 I0.115 J0.115
X-33.561 Y-10.087 Z0.772 I-0.115 J0.115
G1 X-34.98 Y-8.678 Z0.72
G3 X-35.209 Y-8.908 Z0.706 I-0.115 J-0.115
G1 X-33.79 Y-10.318 Z0.654
G3 X-33.561 Y-10.317 Z0.647 I0.115 J0.115
X-33.561 Y-10.087 Z0.64 I-0.115 J0.115
G1 X-34.98 Y-8.678 Z0.588
G3 X-35.209 Y-8.908 Z0.575 I-0.115 J-0.115
G1 X-33.79 Y-10.318 Z0.522
G3 X-33.561 Y-10.317 Z0.516 I0.115 J0.115
X-33.561 Y-10.087 Z0.509 I-0.115 J0.115
G1 X-34.98 Y-8.678 Z0.457
G3 X-35.209 Y-8.908 Z0.443 I-0.115 J-0.115
G1 X-33.79 Y-10.318 Z0.391
G3 X-33.561 Y-10.317 Z0.384 I0.115 J0.115
X-33.561 Y-10.087 Z0.377 I-0.115 J0.115
G1 X-34.98 Y-8.678 Z0.325
G3 X-35.209 Y-8.908 Z0.312 I-0.115 J-0.115
G1 X-33.79 Y-10.318 Z0.259
G3 X-33.561 Y-10.317 Z0.253 I0.115 J0.115
X-33.561 Y-10.087 Z0.246 I-0.115 J0.115
G1 X-34.98 Y-8.678 Z0.194
G3 X-35.209 Y-8.908 Z0.18 I-0.115 J-0.115
G1 X-33.79 Y-10.318 Z0.128
G3 X-33.561 Y-10.317 Z0.121 I0.115 J0.115
X-33.561 Y-10.087 Z0.115 I-0.115 J0.115
G1 X-34.98 Y-8.678 Z0.062
G3 X-35.209 Y-8.908 Z0.049 I-0.115 J-0.115
G1 X-33.79 Y-10.318 Z-0.004
G3 X-33.561 Y-10.317 Z-0.01 I0.115 J0.115
X-33.561 Y-10.087 Z-0.017 I-0.115 J0.115
G1 X-34.98 Y-8.678 Z-0.069
G3 X-35.209 Y-8.908 Z-0.083 I-0.115 J-0.115
G1 X-33.79 Y-10.318 Z-0.135
G3 X-33.561 Y-10.317 Z-0.142 I0.115 J0.115
X-33.561 Y-10.087 Z-0.148 I-0.115 J0.115
G1 X-34.98 Y-8.678 Z-0.201
G3 X-35.209 Y-8.908 Z-0.214 I-0.115 J-0.115
G1 X-33.79 Y-10.318 Z-0.267
G3 X-33.561 Y-10.317 Z-0.273 I0.115 J0.115
X-33.561 Y-10.087 Z-0.28 I-0.115 J0.115
G1 X-34.98 Y-8.678 Z-0.332
G3 X-35.209 Y-8.908 Z-0.346 I-0.115 J-0.115
G1 X-33.79 Y-10.318 Z-0.398
G3 X-33.561 Y-10.317 Z-0.405 I0.115 J0.115
X-33.561 Y-10.087 Z-0.411 I-0.115 J0.115
G1 X-34.98 Y-8.678 Z-0.464
G3 X-35.209 Y-8.908 Z-0.477 I-0.115 J-0.115
G1 X-33.79 Y-10.318 Z-0.53
G3 X-33.561 Y-10.317 Z-0.536 I0.115 J0.115
X-33.561 Y-10.087 Z-0.543 I-0.115 J0.115
G1 X-34.98 Y-8.678 Z-0.595
G3 X-35.209 Y-8.908 Z-0.609 I-0.115 J-0.115
G1 X-33.79 Y-10.318 Z-0.661
G3 X-33.561 Y-10.317 Z-0.668 I0.115 J0.115
X-33.561 Y-10.087 Z-0.674 I-0.115 J0.115
G1 X-34.98 Y-8.678 Z-0.727
G3 X-35.209 Y-8.908 Z-0.74 I-0.115 J-0.115
G1 X-33.79 Y-10.318 Z-0.792
G3 X-33.561 Y-10.317 Z-0.799 I0.115 J0.115
X-33.561 Y-10.087 Z-0.806 I-0.115 J0.115
G1 X-34.98 Y-8.678 Z-0.858
G3 X-35.209 Y-8.908 Z-0.872 I-0.115 J-0.115
G1 X-33.79 Y-10.318 Z-0.924
G3 X-33.561 Y-10.317 Z-0.931 I0.115 J0.115
X-33.561 Y-10.087 Z-0.937 I-0.115 J0.115
G1 X-34.98 Y-8.678 Z-0.99
G3 X-35.209 Y-8.908 Z-1.003 I-0.115 J-0.115
G1 X-33.79 Y-10.318 Z-1.055
G3 X-33.561 Y-10.317 Z-1.062 I0.115 J0.115
X-33.561 Y-10.087 Z-1.069 I-0.115 J0.115
G1 X-34.98 Y-8.678 Z-1.121
G3 X-35.209 Y-8.908 Z-1.135 I-0.115 J-0.115
G1 X-33.79 Y-10.318 Z-1.187
G3 X-33.561 Y-10.317 Z-1.194 I0.115 J0.115
X-33.561 Y-10.087 Z-1.2 I-0.115 J0.115
G1 X-34.98 Y-8.678 Z-1.253
G3 X-35.209 Y-8.908 Z-1.266 I-0.115 J-0.115
G1 X-33.79 Y-10.318 Z-1.318
G3 X-33.561 Y-10.317 Z-1.325 I0.115 J0.115
X-33.561 Y-10.087 Z-1.332 I-0.115 J0.115
G1 X-34.98 Y-8.678 Z-1.384
G3 X-35.209 Y-8.908 Z-1.397 I-0.115 J-0.115
G1 X-33.79 Y-10.318 Z-1.45
G3 X-33.561 Y-10.317 Z-1.457 I0.115 J0.115
X-33.561 Y-10.087 Z-1.463 I-0.115 J0.115
G1 X-34.98 Y-8.678 Z-1.516
G3 X-35.209 Y-8.908 Z-1.529 I-0.115 J-0.115
G1 X-33.79 Y-10.318 Z-1.581
G3 X-33.561 Y-10.317 Z-1.588 I0.115 J0.115
X-33.561 Y-10.087 Z-1.595 I-0.115 J0.115
G1 X-34.98 Y-8.678 Z-1.647
G3 X-35.209 Y-8.908 Z-1.66 I-0.115 J-0.115
G1 X-33.79 Y-10.318 Z-1.713
G3 X-33.561 Y-10.317 Z-1.719 I0.115 J0.115
X-33.561 Y-10.087 Z-1.726 I-0.115 J0.115
G1 X-34.98 Y-8.678 Z-1.779
G3 X-35.209 Y-8.908 Z-1.792 I-0.115 J-0.115
G1 X-33.79 Y-10.318 Z-1.844
G3 X-33.561 Y-10.317 Z-1.851 I0.115 J0.115
X-33.561 Y-10.087 Z-1.858 I-0.115 J0.115
G1 X-34.98 Y-8.678 Z-1.91
G3 X-35.209 Y-8.908 Z-1.923 I-0.115 J-0.115
G1 X-33.79 Y-10.318 Z-1.976
G3 X-33.561 Y-10.317 Z-1.982 I0.115 J0.115
X-33.561 Y-10.087 Z-1.989 I-0.115 J0.115
G1 X-34.98 Y-8.678 Z-2.041
G3 X-35.209 Y-8.908 Z-2.055 I-0.115 J-0.115
G1 X-33.79 Y-10.318 Z-2.107
G3 X-33.561 Y-10.317 Z-2.114 I0.115 J0.115
X-33.561 Y-10.087 Z-2.121 I-0.115 J0.115
G1 X-34.98 Y-8.678 Z-2.173
G3 X-35.209 Y-8.908 Z-2.186 I-0.115 J-0.115
G1 X-33.79 Y-10.318 Z-2.239
G3 X-33.561 Y-10.317 Z-2.245 I0.115 J0.115
X-33.561 Y-10.087 Z-2.252 I-0.115 J0.115
G1 X-34.98 Y-8.678 Z-2.304
G3 X-35.209 Y-8.908 Z-2.318 I-0.115 J-0.115
G1 X-33.79 Y-10.318 Z-2.37
G3 X-33.561 Y-10.317 Z-2.377 I0.115 J0.115
X-33.561 Y-10.087 Z-2.384 I-0.115 J0.115
G1 X-34.98 Y-8.678 Z-2.436
G3 X-35.209 Y-8.908 Z-2.449 I-0.115 J-0.115
G1 X-33.79 Y-10.318 Z-2.502
G3 X-33.561 Y-10.317 Z-2.508 I0.115 J0.115
X-33.561 Y-10.087 Z-2.515 I-0.115 J0.115
G1 X-34.98 Y-8.678 Z-2.567
G3 X-35.209 Y-8.908 Z-2.581 I-0.115 J-0.115
G1 X-33.79 Y-10.318 Z-2.633
G3 X-33.561 Y-10.317 Z-2.64 I0.115 J0.115
X-33.561 Y-10.087 Z-2.647 I-0.115 J0.115
G1 X-34.98 Y-8.678 Z-2.699
G3 X-35.209 Y-8.908 Z-2.712 I-0.115 J-0.115
G1 X-33.79 Y-10.318 Z-2.765
G3 X-33.561 Y-10.317 Z-2.771 I0.115 J0.115
X-33.561 Y-10.087 Z-2.778 I-0.115 J0.115
G1 X-34.98 Y-8.678 Z-2.83
G3 X-35.209 Y-8.908 Z-2.844 I-0.115 J-0.115
G1 X-33.79 Y-10.318 Z-2.896
G3 X-33.561 Y-10.317 Z-2.903 I0.115 J0.115
X-33.561 Y-10.087 Z-2.909 I-0.115 J0.115
G1 X-34.98 Y-8.678 Z-2.962
G3 X-35.209 Y-8.908 Z-2.975 I-0.115 J-0.115
G1 X-33.79 Y-10.318 Z-3.028
G3 X-33.561 Y-10.317 Z-3.034 I0.115 J0.115
X-33.561 Y-10.087 Z-3.041 I-0.115 J0.115
G1 X-34.98 Y-8.678 Z-3.093
G3 X-35.209 Y-8.908 Z-3.107 I-0.115 J-0.115
G1 X-33.79 Y-10.318 Z-3.159
G3 X-33.561 Y-10.317 Z-3.166 I0.115 J0.115
X-33.561 Y-10.087 Z-3.172 I-0.115 J0.115
G1 X-34.98 Y-8.678 Z-3.225
G3 X-35.209 Y-8.908 Z-3.238 I-0.115 J-0.115
G1 X-33.79 Y-10.318 Z-3.291
G3 X-33.561 Y-10.317 Z-3.297 I0.115 J0.115
X-33.561 Y-10.087 Z-3.304 I-0.115 J0.115
G1 X-34.98 Y-8.678 Z-3.356
G3 X-35.209 Y-8.908 Z-3.37 I-0.115 J-0.115
G1 X-33.79 Y-10.318 Z-3.422
G3 X-33.561 Y-10.317 Z-3.429 I0.115 J0.115
X-33.561 Y-10.087 Z-3.435 I-0.115 J0.115
G1 X-34.98 Y-8.678 Z-3.488
G3 X-35.209 Y-8.908 Z-3.501 I-0.115 J-0.115
G1 X-33.79 Y-10.318 Z-3.553
G3 X-33.561 Y-10.317 Z-3.56 I0.115 J0.115
X-33.561 Y-10.087 Z-3.567 I-0.115 J0.115
G1 X-34.98 Y-8.678 Z-3.619
G3 X-35.209 Y-8.908 Z-3.633 I-0.115 J-0.115
G1 X-33.79 Y-10.318 Z-3.685
G3 X-33.561 Y-10.317 Z-3.692 I0.115 J0.115
X-33.561 Y-10.087 Z-3.698 I-0.115 J0.115
G1 X-34.98 Y-8.678 Z-3.751
G3 X-35.209 Y-8.908 Z-3.764 I-0.115 J-0.115
G1 X-33.79 Y-10.318 Z-3.816
G3 X-33.561 Y-10.317 Z-3.823 I0.115 J0.115
X-33.561 Y-10.087 Z-3.83 I-0.115 J0.115
G1 X-34.98 Y-8.678 Z-3.882
G3 X-35.209 Y-8.908 Z-3.896 I-0.115 J-0.115
G1 X-33.79 Y-10.318 Z-3.948
G3 X-33.561 Y-10.317 Z-3.955 I0.115 J0.115
X-33.561 Y-10.087 Z-3.961 I-0.115 J0.115
G1 X-34.98 Y-8.678 Z-4.014
G3 X-35.209 Y-8.908 Z-4.027 I-0.115 J-0.115
G1 X-33.79 Y-10.318 Z-4.079
G3 X-33.561 Y-10.317 Z-4.086 I0.115 J0.115
X-33.561 Y-10.087 Z-4.093 I-0.115 J0.115
G1 X-34.98 Y-8.678 Z-4.145
G3 X-35.209 Y-8.908 Z-4.158 I-0.115 J-0.115
G1 X-33.79 Y-10.318 Z-4.211
G3 X-33.561 Y-10.317 Z-4.218 I0.115 J0.115
X-33.561 Y-10.087 Z-4.224 I-0.115 J0.115
G1 X-34.98 Y-8.678 Z-4.277
G3 X-35.209 Y-8.908 Z-4.29 I-0.115 J-0.115
G1 X-33.79 Y-10.318 Z-4.342
G3 X-33.561 Y-10.317 Z-4.349 I0.115 J0.115
X-33.561 Y-10.087 Z-4.356 I-0.115 J0.115
G1 X-34.98 Y-8.678 Z-4.408
G3 X-35.209 Y-8.908 Z-4.421 I-0.115 J-0.115
G1 X-33.79 Y-10.318 Z-4.474
G3 X-33.561 Y-10.317 Z-4.48 I0.115 J0.115
X-33.561 Y-10.087 Z-4.487 I-0.115 J0.115
G1 X-34.98 Y-8.678 Z-4.54
G3 X-35.209 Y-8.908 Z-4.553 I-0.115 J-0.115
G1 X-33.79 Y-10.318 Z-4.605
G3 X-33.561 Y-10.317 Z-4.612 I0.115 J0.115
X-33.561 Y-10.087 Z-4.619 I-0.115 J0.115
G1 X-34.98 Y-8.678 Z-4.671
G3 X-35.209 Y-8.908 Z-4.684 I-0.115 J-0.115
G1 X-33.79 Y-10.318 Z-4.737
G3 X-33.561 Y-10.317 Z-4.743 I0.115 J0.115
X-33.561 Y-10.087 Z-4.75 I-0.115 J0.115
G1 X-34.98 Y-8.678 Z-4.803
G3 X-35.209 Y-8.908 Z-4.816 I-0.115 J-0.115
G1 X-33.79 Y-10.318 Z-4.868
G3 X-33.561 Y-10.317 Z-4.875 I0.115 J0.115
X-33.561 Y-10.087 Z-4.882 I-0.115 J0.115
G1 X-34.98 Y-8.678 Z-4.934
G3 X-35.209 Y-8.908 Z-4.947 I-0.115 J-0.115
G1 X-33.79 Y-10.318 Z-5
G3 X-33.561 Y-10.317 Z-5.006 I0.115 J0.115
X-33.561 Y-10.087 Z-5.013 I-0.115 J0.115
G1 X-34.98 Y-8.678 Z-5.065
G3 X-35.209 Y-8.908 Z-5.079 I-0.115 J-0.115
G1 X-33.79 Y-10.318 Z-5.131
G3 X-33.561 Y-10.317 Z-5.138 I0.115 J0.115
X-33.561 Y-10.087 Z-5.145 I-0.115 J0.115
G1 X-34.98 Y-8.678 Z-5.197
G3 X-35.209 Y-8.908 Z-5.21 I-0.115 J-0.115
G1 X-33.79 Y-10.318 Z-5.263
G3 X-33.561 Y-10.317 Z-5.269 I0.115 J0.115
X-33.561 Y-10.087 Z-5.276 I-0.115 J0.115
G1 X-34.98 Y-8.678 Z-5.328
G3 X-35.209 Y-8.908 Z-5.342 I-0.115 J-0.115
G1 X-33.79 Y-10.318 Z-5.394
G3 X-33.561 Y-10.317 Z-5.401 I0.115 J0.115
X-33.561 Y-10.087 Z-5.408 I-0.115 J0.115
G1 X-34.98 Y-8.678 Z-5.46
G3 X-35.209 Y-8.908 Z-5.473 I-0.115 J-0.115
G1 X-33.79 Y-10.318 Z-5.526
G3 X-33.561 Y-10.317 Z-5.532 I0.115 J0.115
X-33.561 Y-10.087 Z-5.539 I-0.115 J0.115
G1 X-34.98 Y-8.678 Z-5.591
G3 X-35.209 Y-8.908 Z-5.605 I-0.115 J-0.115
G1 X-33.79 Y-10.318 Z-5.657
G3 X-33.561 Y-10.317 Z-5.664 I0.115 J0.115
X-33.561 Y-10.087 Z-5.67 I-0.115 J0.115
G1 X-34.98 Y-8.678 Z-5.723
G3 X-35.209 Y-8.908 Z-5.736 I-0.115 J-0.115
G1 X-33.79 Y-10.318 Z-5.789
G3 X-33.561 Y-10.317 Z-5.795 I0.115 J0.115
X-33.561 Y-10.087 Z-5.802 I-0.115 J0.115
G1 X-34.98 Y-8.678 Z-5.854
G3 X-35.209 Y-8.908 Z-5.868 I-0.115 J-0.115
G1 X-33.79 Y-10.318 Z-5.92
G3 X-33.561 Y-10.317 Z-5.927 I0.115 J0.115
X-33.561 Y-10.087 Z-5.933 I-0.115 J0.115
G1 X-34.98 Y-8.678 Z-5.986
G3 X-35.209 Y-8.908 Z-5.999 I-0.115 J-0.115
G1 X-33.79 Y-10.318 Z-6.052
G3 X-33.561 Y-10.317 Z-6.058 I0.115 J0.115
X-33.561 Y-10.087 Z-6.065 I-0.115 J0.115
G1 X-34.98 Y-8.678 Z-6.117
G3 X-35.209 Y-8.908 Z-6.131 I-0.115 J-0.115
G1 X-33.79 Y-10.318 Z-6.183
G3 X-33.561 Y-10.317 Z-6.19 I0.115 J0.115
X-33.561 Y-10.087 Z-6.196 I-0.115 J0.115
G1 X-34.98 Y-8.678 Z-6.249
G3 X-35.209 Y-8.908 Z-6.262 I-0.115 J-0.115
G1 X-33.79 Y-10.318 Z-6.314
G3 X-33.561 Y-10.317 Z-6.321 I0.115 J0.115
X-33.561 Y-10.087 Z-6.328 I-0.115 J0.115
G1 X-34.98 Y-8.678 Z-6.38
G3 X-35.209 Y-8.908 Z-6.394 I-0.115 J-0.115
G1 X-33.79 Y-10.318 Z-6.446
G3 X-33.561 Y-10.317 Z-6.453 I0.115 J0.115
X-33.561 Y-10.087 Z-6.459 I-0.115 J0.115
G1 X-34.98 Y-8.678 Z-6.512
G3 X-35.209 Y-8.908 Z-6.525 I-0.115 J-0.115
G1 X-33.79 Y-10.318 Z-6.577
G3 X-33.561 Y-10.317 Z-6.584 I0.115 J0.115
X-33.561 Y-10.087 Z-6.591 I-0.115 J0.115
G1 X-34.98 Y-8.678 Z-6.643
G3 X-35.209 Y-8.908 Z-6.657 I-0.115 J-0.115
G1 X-33.79 Y-10.318 Z-6.709
G3 X-33.561 Y-10.317 Z-6.716 I0.115 J0.115
X-33.561 Y-10.087 Z-6.722 I-0.115 J0.115
G1 X-34.98 Y-8.678 Z-6.775
G3 X-35.209 Y-8.908 Z-6.788 I-0.115 J-0.115
G1 X-33.79 Y-10.318 Z-6.84
G3 X-33.561 Y-10.317 Z-6.847 I0.115 J0.115
X-33.561 Y-10.087 Z-6.854 I-0.115 J0.115
G1 X-34.98 Y-8.678 Z-6.906
G3 X-35.209 Y-8.908 Z-6.919 I-0.115 J-0.115
G1 X-33.79 Y-10.318 Z-6.972
G3 X-33.561 Y-10.317 Z-6.979 I0.115 J0.115
X-33.561 Y-10.087 Z-6.985 I-0.115 J0.115
G1 X-34.98 Y-8.678 Z-7.038
G3 X-35.209 Y-8.908 Z-7.051 I-0.115 J-0.115
G1 X-33.79 Y-10.318 Z-7.103
G3 X-33.561 Y-10.317 Z-7.11 I0.115 J0.115
X-33.561 Y-10.087 Z-7.117 I-0.115 J0.115
G1 X-34.98 Y-8.678 Z-7.169
G3 X-35.209 Y-8.908 Z-7.182 I-0.115 J-0.115
G1 X-33.79 Y-10.318 Z-7.235
G3 X-33.561 Y-10.317 Z-7.242 I0.115 J0.115
X-33.561 Y-10.087 Z-7.248 I-0.115 J0.115
G1 X-34.98 Y-8.678 Z-7.301
G3 X-35.209 Y-8.908 Z-7.314 I-0.115 J-0.115
G1 X-33.79 Y-10.318 Z-7.366
G3 X-33.561 Y-10.317 Z-7.373 I0.115 J0.115
X-33.561 Y-10.087 Z-7.38 I-0.115 J0.115
G1 X-34.98 Y-8.678 Z-7.432
G3 X-35.209 Y-8.908 Z-7.445 I-0.115 J-0.115
G1 X-33.79 Y-10.318 Z-7.498
G3 X-33.561 Y-10.317 Z-7.504 I0.115 J0.115
X-33.561 Y-10.087 Z-7.511 I-0.115 J0.115
G1 X-34.98 Y-8.678 Z-7.564
G3 X-35.209 Y-8.908 Z-7.577 I-0.115 J-0.115
G1 X-33.79 Y-10.318 Z-7.629
G3 X-33.561 Y-10.317 Z-7.636 I0.115 J0.115
X-33.561 Y-10.087 Z-7.643 I-0.115 J0.115
G1 X-34.98 Y-8.678 Z-7.695
G3 X-35.209 Y-8.908 Z-7.708 I-0.115 J-0.115
G1 X-33.79 Y-10.318 Z-7.761
G3 X-33.561 Y-10.317 Z-7.767 I0.115 J0.115
X-33.561 Y-10.087 Z-7.774 I-0.115 J0.115
G1 X-34.98 Y-8.678 Z-7.826
G3 X-35.209 Y-8.908 Z-7.84 I-0.115 J-0.115
G1 X-33.79 Y-10.318 Z-7.892
G3 X-33.561 Y-10.317 Z-7.899 I0.115 J0.115
X-33.561 Y-10.087 Z-7.906 I-0.115 J0.115
G1 X-34.98 Y-8.678 Z-7.958
G3 X-35.209 Y-8.908 Z-7.971 I-0.115 J-0.115
G1 X-33.79 Y-10.318 Z-8.024
G3 X-33.561 Y-10.317 Z-8.03 I0.115 J0.115
X-33.561 Y-10.087 Z-8.037 I-0.115 J0.115
G1 X-34.98 Y-8.678 Z-8.089
G3 X-35.209 Y-8.908 Z-8.103 I-0.115 J-0.115
G1 X-33.79 Y-10.318 Z-8.155
G3 X-33.561 Y-10.317 Z-8.162 I0.115 J0.115
X-33.561 Y-10.087 Z-8.169 I-0.115 J0.115
G1 X-34.98 Y-8.678 Z-8.221
G3 X-35.209 Y-8.908 Z-8.234 I-0.115 J-0.115
G1 X-33.79 Y-10.318 Z-8.287
G3 X-33.561 Y-10.317 Z-8.293 I0.115 J0.115
X-33.561 Y-10.087 Z-8.3 I-0.115 J0.115
S2500
G1 X-34.98 Y-8.678 F1000
G3 X-35.209 Y-8.908 I-0.115 J-0.115
G1 X-33.79 Y-10.318
G3 X-33.561 Y-10.317 I0.115 J0.115
X-33.561 Y-10.087 I-0.115 J0.115
G1 X-33.599 Y-10.055 Z-8.296
X-33.641 Y-10.03 Z-8.284
X-33.683 Y-10.012 Z-8.265
X-33.724 Y-10.001 Z-8.239
X-33.761 Y-9.996 Z-8.207
X-33.794 Y-9.995 Z-8.169
X-33.82 Y-9.997 Z-8.127
X-33.839 Y-9.999 Z-8.081
X-33.85 Y-10.002 Z-8.032
X-33.854 Z-7.983
Z5
X-21.157 Y-9.181
Z2.5 F333.3
S5000
X-20.838 Y-8.86 Z2.488
G3 X-21.068 Y-8.63 Z2.475 I-0.115 J0.115
G1 X-22.478 Y-10.049 Z2.422
G3 X-22.477 Y-10.279 Z2.416 I0.115 J-0.115
X-22.247 Y-10.279 Z2.409 I0.115 J0.115
G1 X-20.838 Y-8.86 Z2.357
G3 X-21.068 Y-8.63 Z2.343 I-0.115 J0.115
G1 X-22.478 Y-10.049 Z2.291
G3 X-22.477 Y-10.279 Z2.284 I0.115 J-0.115
X-22.247 Y-10.279 Z2.278 I0.115 J0.115
G1 X-20.838 Y-8.86 Z2.225
G3 X-21.068 Y-8.63 Z2.212 I-0.115 J0.115
G1 X-22.478 Y-10.049 Z2.159
G3 X-22.477 Y-10.279 Z2.153 I0.115 J-0.115
X-22.247 Y-10.279 Z2.146 I0.115 J0.115
G1 X-20.838 Y-8.86 Z2.094
G3 X-21.068 Y-8.63 Z2.08 I-0.115 J0.115
G1 X-22.478 Y-10.049 Z2.028
G3 X-22.477 Y-10.279 Z2.021 I0.115 J-0.115
X-22.247 Y-10.279 Z2.015 I0.115 J0.115
G1 X-20.838 Y-8.86 Z1.962
G3 X-21.068 Y-8.63 Z1.949 I-0.115 J0.115
G1 X-22.478 Y-10.049 Z1.896
G3 X-22.477 Y-10.279 Z1.89 I0.115 J-0.115
X-22.247 Y-10.279 Z1.883 I0.115 J0.115
G1 X-20.838 Y-8.86 Z1.831
G3 X-21.068 Y-8.63 Z1.817 I-0.115 J0.115
G1 X-22.478 Y-10.049 Z1.765
G3 X-22.477 Y-10.279 Z1.758 I0.115 J-0.115
X-22.247 Y-10.279 Z1.752 I0.115 J0.115
G1 X-20.838 Y-8.86 Z1.699
G3 X-21.068 Y-8.63 Z1.686 I-0.115 J0.115
G1 X-22.478 Y-10.049 Z1.634
G3 X-22.477 Y-10.279 Z1.627 I0.115 J-0.115
X-22.247 Y-10.279 Z1.62 I0.115 J0.115
G1 X-20.838 Y-8.86 Z1.568
G3 X-21.068 Y-8.63 Z1.554 I-0.115 J0.115
G1 X-22.478 Y-10.049 Z1.502
G3 X-22.477 Y-10.279 Z1.495 I0.115 J-0.115
X-22.247 Y-10.279 Z1.489 I0.115 J0.115
G1 X-20.838 Y-8.86 Z1.436
G3 X-21.068 Y-8.63 Z1.423 I-0.115 J0.115
G1 X-22.478 Y-10.049 Z1.371
G3 X-22.477 Y-10.279 Z1.364 I0.115 J-0.115
X-22.247 Y-10.279 Z1.357 I0.115 J0.115
G1 X-20.838 Y-8.86 Z1.305
G3 X-21.068 Y-8.63 Z1.291 I-0.115 J0.115
G1 X-22.478 Y-10.049 Z1.239
G3 X-22.477 Y-10.279 Z1.232 I0.115 J-0.115
X-22.247 Y-10.279 Z1.226 I0.115 J0.115
G1 X-20.838 Y-8.86 Z1.173
G3 X-21.068 Y-8.63 Z1.16 I-0.115 J0.115
G1 X-22.478 Y-10.049 Z1.108
G3 X-22.477 Y-10.279 Z1.101 I0.115 J-0.115
X-22.247 Y-10.279 Z1.094 I0.115 J0.115
G1 X-20.838 Y-8.86 Z1.042
G3 X-21.068 Y-8.63 Z1.028 I-0.115 J0.115
G1 X-22.478 Y-10.049 Z0.976
G3 X-22.477 Y-10.279 Z0.969 I0.115 J-0.115
X-22.247 Y-10.279 Z0.963 I0.115 J0.115
G1 X-20.838 Y-8.86 Z0.91
G3 X-21.068 Y-8.63 Z0.897 I-0.115 J0.115
G1 X-22.478 Y-10.049 Z0.845
G3 X-22.477 Y-10.279 Z0.838 I0.115 J-0.115
X-22.247 Y-10.279 Z0.831 I0.115 J0.115
G1 X-20.838 Y-8.86 Z0.779
G3 X-21.068 Y-8.63 Z0.766 I-0.115 J0.115
G1 X-22.478 Y-10.049 Z0.713
G3 X-22.477 Y-10.279 Z0.706 I0.115 J-0.115
X-22.247 Y-10.279 Z0.7 I0.115 J0.115
G1 X-20.838 Y-8.86 Z0.647
G3 X-21.068 Y-8.63 Z0.634 I-0.115 J0.115
G1 X-22.478 Y-10.049 Z0.582
G3 X-22.477 Y-10.279 Z0.575 I0.115 J-0.115
X-22.247 Y-10.279 Z0.568 I0.115 J0.115
G1 X-20.838 Y-8.86 Z0.516
G3 X-21.068 Y-8.63 Z0.503 I-0.115 J0.115
G1 X-22.478 Y-10.049 Z0.45
G3 X-22.477 Y-10.279 Z0.443 I0.115 J-0.115
X-22.247 Y-10.279 Z0.437 I0.115 J0.115
G1 X-20.838 Y-8.86 Z0.384
G3 X-21.068 Y-8.63 Z0.371 I-0.115 J0.115
G1 X-22.478 Y-10.049 Z0.319
G3 X-22.477 Y-10.279 Z0.312 I0.115 J-0.115
X-22.247 Y-10.279 Z0.305 I0.115 J0.115
G1 X-20.838 Y-8.86 Z0.253
G3 X-21.068 Y-8.63 Z0.24 I-0.115 J0.115
G1 X-22.478 Y-10.049 Z0.187
G3 X-22.477 Y-10.279 Z0.181 I0.115 J-0.115
X-22.247 Y-10.279 Z0.174 I0.115 J0.115
G1 X-20.838 Y-8.86 Z0.121
G3 X-21.068 Y-8.63 Z0.108 I-0.115 J0.115
G1 X-22.478 Y-10.049 Z0.056
G3 X-22.477 Y-10.279 Z0.049 I0.115 J-0.115
X-22.247 Y-10.279 Z0.042 I0.115 J0.115
G1 X-20.838 Y-8.86 Z-0.01
G3 X-21.068 Y-8.63 Z-0.023 I-0.115 J0.115
G1 X-22.478 Y-10.049 Z-0.076
G3 X-22.477 Y-10.279 Z-0.082 I0.115 J-0.115
X-22.247 Y-10.279 Z-0.089 I0.115 J0.115
G1 X-20.838 Y-8.86 Z-0.141
G3 X-21.068 Y-8.63 Z-0.155 I-0.115 J0.115
G1 X-22.478 Y-10.049 Z-0.207
G3 X-22.477 Y-10.279 Z-0.214 I0.115 J-0.115
X-22.247 Y-10.279 Z-0.221 I0.115 J0.115
G1 X-20.838 Y-8.86 Z-0.273
G3 X-21.068 Y-8.63 Z-0.286 I-0.115 J0.115
G1 X-22.478 Y-10.049 Z-0.339
G3 X-22.477 Y-10.279 Z-0.345 I0.115 J-0.115
X-22.247 Y-10.279 Z-0.352 I0.115 J0.115
G1 X-20.838 Y-8.86 Z-0.404
G3 X-21.068 Y-8.63 Z-0.418 I-0.115 J0.115
G1 X-22.478 Y-10.049 Z-0.47
G3 X-22.477 Y-10.279 Z-0.477 I0.115 J-0.115
X-22.247 Y-10.279 Z-0.484 I0.115 J0.115
G1 X-20.838 Y-8.86 Z-0.536
G3 X-21.068 Y-8.63 Z-0.549 I-0.115 J0.115
G1 X-22.478 Y-10.049 Z-0.602
G3 X-22.477 Y-10.279 Z-0.608 I0.115 J-0.115
X-22.247 Y-10.279 Z-0.615 I0.115 J0.115
G1 X-20.838 Y-8.86 Z-0.667
G3 X-21.068 Y-8.63 Z-0.681 I-0.115 J0.115
G1 X-22.478 Y-10.049 Z-0.733
G3 X-22.477 Y-10.279 Z-0.74 I0.115 J-0.115
X-22.247 Y-10.279 Z-0.747 I0.115 J0.115
G1 X-20.838 Y-8.86 Z-0.799
G3 X-21.068 Y-8.63 Z-0.812 I-0.115 J0.115
G1 X-22.478 Y-10.049 Z-0.865
G3 X-22.477 Y-10.279 Z-0.871 I0.115 J-0.115
X-22.247 Y-10.279 Z-0.878 I0.115 J0.115
G1 X-20.838 Y-8.86 Z-0.93
G3 X-21.068 Y-8.63 Z-0.944 I-0.115 J0.115
G1 X-22.478 Y-10.049 Z-0.996
G3 X-22.477 Y-10.279 Z-1.003 I0.115 J-0.115
X-22.247 Y-10.279 Z-1.009 I0.115 J0.115
G1 X-20.838 Y-8.86 Z-1.062
G3 X-21.068 Y-8.63 Z-1.075 I-0.115 J0.115
G1 X-22.478 Y-10.049 Z-1.128
G3 X-22.477 Y-10.279 Z-1.134 I0.115 J-0.115
X-22.247 Y-10.279 Z-1.141 I0.115 J0.115
G1 X-20.838 Y-8.86 Z-1.193
G3 X-21.068 Y-8.63 Z-1.207 I-0.115 J0.115
G1 X-22.478 Y-10.049 Z-1.259
G3 X-22.477 Y-10.279 Z-1.266 I0.115 J-0.115
X-22.247 Y-10.279 Z-1.272 I0.115 J0.115
G1 X-20.838 Y-8.86 Z-1.325
G3 X-21.068 Y-8.63 Z-1.338 I-0.115 J0.115
G1 X-22.478 Y-10.049 Z-1.391
G3 X-22.477 Y-10.279 Z-1.397 I0.115 J-0.115
X-22.247 Y-10.279 Z-1.404 I0.115 J0.115
G1 X-20.838 Y-8.86 Z-1.456
G3 X-21.068 Y-8.63 Z-1.47 I-0.115 J0.115
G1 X-22.478 Y-10.049 Z-1.522
G3 X-22.477 Y-10.279 Z-1.529 I0.115 J-0.115
X-22.247 Y-10.279 Z-1.535 I0.115 J0.115
G1 X-20.838 Y-8.86 Z-1.588
G3 X-21.068 Y-8.63 Z-1.601 I-0.115 J0.115
G1 X-22.478 Y-10.049 Z-1.654
G3 X-22.477 Y-10.279 Z-1.66 I0.115 J-0.115
X-22.247 Y-10.279 Z-1.667 I0.115 J0.115
G1 X-20.838 Y-8.86 Z-1.719
G3 X-21.068 Y-8.63 Z-1.733 I-0.115 J0.115
G1 X-22.478 Y-10.049 Z-1.785
G3 X-22.477 Y-10.279 Z-1.792 I0.115 J-0.115
X-22.247 Y-10.279 Z-1.798 I0.115 J0.115
G1 X-20.838 Y-8.86 Z-1.851
G3 X-21.068 Y-8.63 Z-1.864 I-0.115 J0.115
G1 X-22.478 Y-10.049 Z-1.916
G3 X-22.477 Y-10.279 Z-1.923 I0.115 J-0.115
X-22.247 Y-10.279 Z-1.93 I0.115 J0.115
G1 X-20.838 Y-8.86 Z-1.982
G3 X-21.068 Y-8.63 Z-1.996 I-0.115 J0.115
G1 X-22.478 Y-10.049 Z-2.048
G3 X-22.477 Y-10.279 Z-2.055 I0.115 J-0.115
X-22.247 Y-10.279 Z-2.061 I0.115 J0.115
G1 X-20.838 Y-8.86 Z-2.114
G3 X-21.068 Y-8.63 Z-2.127 I-0.115 J0.115
G1 X-22.478 Y-10.049 Z-2.179
G3 X-22.477 Y-10.279 Z-2.186 I0.115 J-0.115
X-22.247 Y-10.279 Z-2.193 I0.115 J0.115
G1 X-20.838 Y-8.86 Z-2.245
G3 X-21.068 Y-8.63 Z-2.259 I-0.115 J0.115
G1 X-22.478 Y-10.049 Z-2.311
G3 X-22.477 Y-10.279 Z-2.318 I0.115 J-0.115
X-22.247 Y-10.279 Z-2.324 I0.115 J0.115
G1 X-20.838 Y-8.86 Z-2.377
G3 X-21.068 Y-8.63 Z-2.39 I-0.115 J0.115
G1 X-22.478 Y-10.049 Z-2.442
G3 X-22.477 Y-10.279 Z-2.449 I0.115 J-0.115
X-22.247 Y-10.279 Z-2.456 I0.115 J0.115
G1 X-20.838 Y-8.86 Z-2.508
G3 X-21.068 Y-8.63 Z-2.522 I-0.115 J0.115
G1 X-22.478 Y-10.049 Z-2.574
G3 X-22.477 Y-10.279 Z-2.581 I0.115 J-0.115
X-22.247 Y-10.279 Z-2.587 I0.115 J0.115
G1 X-20.838 Y-8.86 Z-2.64
G3 X-21.068 Y-8.63 Z-2.653 I-0.115 J0.115
G1 X-22.478 Y-10.049 Z-2.705
G3 X-22.477 Y-10.279 Z-2.712 I0.115 J-0.115
X-22.247 Y-10.279 Z-2.719 I0.115 J0.115
G1 X-20.838 Y-8.86 Z-2.771
G3 X-21.068 Y-8.63 Z-2.784 I-0.115 J0.115
G1 X-22.478 Y-10.049 Z-2.837
G3 X-22.477 Y-10.279 Z-2.844 I0.115 J-0.115
X-22.247 Y-10.279 Z-2.85 I0.115 J0.115
G1 X-20.838 Y-8.86 Z-2.903
G3 X-21.068 Y-8.63 Z-2.916 I-0.115 J0.115
G1 X-22.478 Y-10.049 Z-2.968
G3 X-22.477 Y-10.279 Z-2.975 I0.115 J-0.115
X-22.247 Y-10.279 Z-2.982 I0.115 J0.115
G1 X-20.838 Y-8.86 Z-3.034
G3 X-21.068 Y-8.63 Z-3.047 I-0.115 J0.115
G1 X-22.478 Y-10.049 Z-3.1
G3 X-22.477 Y-10.279 Z-3.106 I0.115 J-0.115
X-22.247 Y-10.279 Z-3.113 I0.115 J0.115
G1 X-20.838 Y-8.86 Z-3.166
G3 X-21.068 Y-8.63 Z-3.179 I-0.115 J0.115
G1 X-22.478 Y-10.049 Z-3.231
G3 X-22.477 Y-10.279 Z-3.238 I0.115 J-0.115
X-22.247 Y-10.279 Z-3.245 I0.115 J0.115
G1 X-20.838 Y-8.86 Z-3.297
G3 X-21.068 Y-8.63 Z-3.31 I-0.115 J0.115
G1 X-22.478 Y-10.049 Z-3.363
G3 X-22.477 Y-10.279 Z-3.369 I0.115 J-0.115
X-22.247 Y-10.279 Z-3.376 I0.115 J0.115
G1 X-20.838 Y-8.86 Z-3.429
G3 X-21.068 Y-8.63 Z-3.442 I-0.115 J0.115
G1 X-22.478 Y-10.049 Z-3.494
G3 X-22.477 Y-10.279 Z-3.501 I0.115 J-0.115
X-22.247 Y-10.279 Z-3.508 I0.115 J0.115
G1 X-20.838 Y-8.86 Z-3.56
G3 X-21.068 Y-8.63 Z-3.573 I-0.115 J0.115
G1 X-22.478 Y-10.049 Z-3.626
G3 X-22.477 Y-10.279 Z-3.632 I0.115 J-0.115
X-22.247 Y-10.279 Z-3.639 I0.115 J0.115
G1 X-20.838 Y-8.86 Z-3.691
G3 X-21.068 Y-8.63 Z-3.705 I-0.115 J0.115
G1 X-22.478 Y-10.049 Z-3.757
G3 X-22.477 Y-10.279 Z-3.764 I0.115 J-0.115
X-22.247 Y-10.279 Z-3.771 I0.115 J0.115
G1 X-20.838 Y-8.86 Z-3.823
G3 X-21.068 Y-8.63 Z-3.836 I-0.115 J0.115
G1 X-22.478 Y-10.049 Z-3.889
G3 X-22.477 Y-10.279 Z-3.895 I0.115 J-0.115
X-22.247 Y-10.279 Z-3.902 I0.115 J0.115
G1 X-20.838 Y-8.86 Z-3.954
G3 X-21.068 Y-8.63 Z-3.968 I-0.115 J0.115
G1 X-22.478 Y-10.049 Z-4.02
G3 X-22.477 Y-10.279 Z-4.027 I0.115 J-0.115
X-22.247 Y-10.279 Z-4.034 I0.115 J0.115
G1 X-20.838 Y-8.86 Z-4.086
G3 X-21.068 Y-8.63 Z-4.099 I-0.115 J0.115
G1 X-22.478 Y-10.049 Z-4.152
G3 X-22.477 Y-10.279 Z-4.158 I0.115 J-0.115
X-22.247 Y-10.279 Z-4.165 I0.115 J0.115
G1 X-20.838 Y-8.86 Z-4.217
G3 X-21.068 Y-8.63 Z-4.231 I-0.115 J0.115
G1 X-22.478 Y-10.049 Z-4.283
G3 X-22.477 Y-10.279 Z-4.29 I0.115 J-0.115
X-22.247 Y-10.279 Z-4.297 I0.115 J0.115
G1 X-20.838 Y-8.86 Z-4.349
G3 X-21.068 Y-8.63 Z-4.362 I-0.115 J0.115
G1 X-22.478 Y-10.049 Z-4.415
G3 X-22.477 Y-10.279 Z-4.421 I0.115 J-0.115
X-22.247 Y-10.279 Z-4.428 I0.115 J0.115
G1 X-20.838 Y-8.86 Z-4.48
G3 X-21.068 Y-8.63 Z-4.494 I-0.115 J0.115
G1 X-22.478 Y-10.049 Z-4.546
G3 X-22.477 Y-10.279 Z-4.553 I0.115 J-0.115
X-22.247 Y-10.279 Z-4.559 I0.115 J0.115
G1 X-20.838 Y-8.86 Z-4.612
G3 X-21.068 Y-8.63 Z-4.625 I-0.115 J0.115
G1 X-22.478 Y-10.049 Z-4.678
G3 X-22.477 Y-10.279 Z-4.684 I0.115 J-0.115
X-22.247 Y-10.279 Z-4.691 I0.115 J0.115
G1 X-20.838 Y-8.86 Z-4.743
G3 X-21.068 Y-8.63 Z-4.757 I-0.115 J0.115
G1 X-22.478 Y-10.049 Z-4.809
G3 X-22.477 Y-10.279 Z-4.816 I0.115 J-0.115
X-22.247 Y-10.279 Z-4.822 I0.115 J0.115
G1 X-20.838 Y-8.86 Z-4.875
G3 X-21.068 Y-8.63 Z-4.888 I-0.115 J0.115
G1 X-22.478 Y-10.049 Z-4.941
G3 X-22.477 Y-10.279 Z-4.947 I0.115 J-0.115
X-22.247 Y-10.279 Z-4.954 I0.115 J0.115
G1 X-20.838 Y-8.86 Z-5.006
G3 X-21.068 Y-8.63 Z-5.02 I-0.115 J0.115
G1 X-22.478 Y-10.049 Z-5.072
G3 X-22.477 Y-10.279 Z-5.079 I0.115 J-0.115
X-22.247 Y-10.279 Z-5.085 I0.115 J0.115
G1 X-20.838 Y-8.86 Z-5.138
G3 X-21.068 Y-8.63 Z-5.151 I-0.115 J0.115
G1 X-22.478 Y-10.049 Z-5.204
G3 X-22.477 Y-10.279 Z-5.21 I0.115 J-0.115
X-22.247 Y-10.279 Z-5.217 I0.115 J0.115
G1 X-20.838 Y-8.86 Z-5.269
G3 X-21.068 Y-8.63 Z-5.283 I-0.115 J0.115
G1 X-22.478 Y-10.049 Z-5.335
G3 X-22.477 Y-10.279 Z-5.342 I0.115 J-0.115
X-22.247 Y-10.279 Z-5.348 I0.115 J0.115
G1 X-20.838 Y-8.86 Z-5.401
G3 X-21.068 Y-8.63 Z-5.414 I-0.115 J0.115
G1 X-22.478 Y-10.049 Z-5.466
G3 X-22.477 Y-10.279 Z-5.473 I0.115 J-0.115
X-22.247 Y-10.279 Z-5.48 I0.115 J0.115
G1 X-20.838 Y-8.86 Z-5.532
G3 X-21.068 Y-8.63 Z-5.546 I-0.115 J0.115
G1 X-22.478 Y-10.049 Z-5.598
G3 X-22.477 Y-10.279 Z-5.605 I0.115 J-0.115
X-22.247 Y-10.279 Z-5.611 I0.115 J0.115
G1 X-20.838 Y-8.86 Z-5.664
G3 X-21.068 Y-8.63 Z-5.677 I-0.115 J0.115
G1 X-22.478 Y-10.049 Z-5.729
G3 X-22.477 Y-10.279 Z-5.736 I0.115 J-0.115
X-22.247 Y-10.279 Z-5.743 I0.115 J0.115
G1 X-20.838 Y-8.86 Z-5.795
G3 X-21.068 Y-8.63 Z-5.809 I-0.115 J0.115
G1 X-22.478 Y-10.049 Z-5.861
G3 X-22.477 Y-10.279 Z-5.868 I0.115 J-0.115
X-22.247 Y-10.279 Z-5.874 I0.115 J0.115
G1 X-20.838 Y-8.86 Z-5.927
G3 X-21.068 Y-8.63 Z-5.94 I-0.115 J0.115
G1 X-22.478 Y-10.049 Z-5.992
G3 X-22.477 Y-10.279 Z-5.999 I0.115 J-0.115
X-22.247 Y-10.279 Z-6.006 I0.115 J0.115
G1 X-20.838 Y-8.86 Z-6.058
G3 X-21.068 Y-8.63 Z-6.072 I-0.115 J0.115
G1 X-22.478 Y-10.049 Z-6.124
G3 X-22.477 Y-10.279 Z-6.131 I0.115 J-0.115
X-22.247 Y-10.279 Z-6.137 I0.115 J0.115
G1 X-20.838 Y-8.86 Z-6.19
G3 X-21.068 Y-8.63 Z-6.203 I-0.115 J0.115
G1 X-22.478 Y-10.049 Z-6.255
G3 X-22.477 Y-10.279 Z-6.262 I0.115 J-0.115
X-22.247 Y-10.279 Z-6.269 I0.115 J0.115
G1 X-20.838 Y-8.86 Z-6.321
G3 X-21.068 Y-8.63 Z-6.334 I-0.115 J0.115
G1 X-22.478 Y-10.049 Z-6.387
G3 X-22.477 Y-10.279 Z-6.394 I0.115 J-0.115
X-22.247 Y-10.279 Z-6.4 I0.115 J0.115
G1 X-20.838 Y-8.86 Z-6.453
G3 X-21.068 Y-8.63 Z-6.466 I-0.115 J0.115
G1 X-22.478 Y-10.049 Z-6.518
G3 X-22.477 Y-10.279 Z-6.525 I0.115 J-0.115
X-22.247 Y-10.279 Z-6.532 I0.115 J0.115
G1 X-20.838 Y-8.86 Z-6.584
G3 X-21.068 Y-8.63 Z-6.597 I-0.115 J0.115
G1 X-22.478 Y-10.049 Z-6.65
G3 X-22.477 Y-10.279 Z-6.656 I0.115 J-0.115
X-22.247 Y-10.279 Z-6.663 I0.115 J0.115
G1 X-20.838 Y-8.86 Z-6.716
G3 X-21.068 Y-8.63 Z-6.729 I-0.115 J0.115
G1 X-22.478 Y-10.049 Z-6.781
G3 X-22.477 Y-10.279 Z-6.788 I0.115 J-0.115
X-22.247 Y-10.279 Z-6.795 I0.115 J0.115
G1 X-20.838 Y-8.86 Z-6.847
G3 X-21.068 Y-8.63 Z-6.86 I-0.115 J0.115
G1 X-22.478 Y-10.049 Z-6.913
G3 X-22.477 Y-10.279 Z-6.919 I0.115 J-0.115
X-22.247 Y-10.279 Z-6.926 I0.115 J0.115
G1 X-20.838 Y-8.86 Z-6.979
G3 X-21.068 Y-8.63 Z-6.992 I-0.115 J0.115
G1 X-22.478 Y-10.049 Z-7.044
G3 X-22.477 Y-10.279 Z-7.051 I0.115 J-0.115
X-22.247 Y-10.279 Z-7.058 I0.115 J0.115
G1 X-20.838 Y-8.86 Z-7.11
G3 X-21.068 Y-8.63 Z-7.123 I-0.115 J0.115
G1 X-22.478 Y-10.049 Z-7.176
G3 X-22.477 Y-10.279 Z-7.182 I0.115 J-0.115
X-22.247 Y-10.279 Z-7.189 I0.115 J0.115
G1 X-20.838 Y-8.86 Z-7.241
G3 X-21.068 Y-8.63 Z-7.255 I-0.115 J0.115
G1 X-22.478 Y-10.049 Z-7.307
G3 X-22.477 Y-10.279 Z-7.314 I0.115 J-0.115
X-22.247 Y-10.279 Z-7.321 I0.115 J0.115
G1 X-20.838 Y-8.86 Z-7.373
G3 X-21.068 Y-8.63 Z-7.386 I-0.115 J0.115
G1 X-22.478 Y-10.049 Z-7.439
G3 X-22.477 Y-10.279 Z-7.445 I0.115 J-0.115
X-22.247 Y-10.279 Z-7.452 I0.115 J0.115
G1 X-20.838 Y-8.86 Z-7.504
G3 X-21.068 Y-8.63 Z-7.518 I-0.115 J0.115
G1 X-22.478 Y-10.049 Z-7.57
G3 X-22.477 Y-10.279 Z-7.577 I0.115 J-0.115
X-22.247 Y-10.279 Z-7.584 I0.115 J0.115
G1 X-20.838 Y-8.86 Z-7.636
G3 X-21.068 Y-8.63 Z-7.649 I-0.115 J0.115
G1 X-22.478 Y-10.049 Z-7.702
G3 X-22.477 Y-10.279 Z-7.708 I0.115 J-0.115
X-22.247 Y-10.279 Z-7.715 I0.115 J0.115
G1 X-20.838 Y-8.86 Z-7.767
G3 X-21.068 Y-8.63 Z-7.781 I-0.115 J0.115
G1 X-22.478 Y-10.049 Z-7.833
G3 X-22.477 Y-10.279 Z-7.84 I0.115 J-0.115
X-22.247 Y-10.279 Z-7.847 I0.115 J0.115
G1 X-20.838 Y-8.86 Z-7.899
G3 X-21.068 Y-8.63 Z-7.912 I-0.115 J0.115
G1 X-22.478 Y-10.049 Z-7.965
G3 X-22.477 Y-10.279 Z-7.971 I0.115 J-0.115
X-22.247 Y-10.279 Z-7.978 I0.115 J0.115
G1 X-20.838 Y-8.86 Z-8.03
G3 X-21.068 Y-8.63 Z-8.044 I-0.115 J0.115
G1 X-22.478 Y-10.049 Z-8.096
G3 X-22.477 Y-10.279 Z-8.103 I0.115 J-0.115
X-22.247 Y-10.279 Z-8.109 I0.115 J0.115
G1 X-20.838 Y-8.86 Z-8.162
G3 X-21.068 Y-8.63 Z-8.175 I-0.115 J0.115
G1 X-22.478 Y-10.049 Z-8.228
G3 X-22.477 Y-10.279 Z-8.234 I0.115 J-0.115
X-22.247 Y-10.279 Z-8.241 I0.115 J0.115
G1 X-20.838 Y-8.86 Z-8.293
X-20.812 Y-8.826 Z-8.294
X-20.796 Y-8.787 Z-8.296
X-20.79 Y-8.744 Z-8.297
X-20.796 Y-8.702 Z-8.298
X-20.812 Y-8.663 Z-8.299
X-20.838 Y-8.63 Z-8.3
S2500
X-20.872 Y-8.604 F1000
X-20.911 Y-8.588
X-20.953 Y-8.583
X-20.995 Y-8.588
X-21.035 Y-8.605
X-21.068 Y-8.63
X-22.478 Y-10.049
G3 X-22.477 Y-10.279 I0.115 J-0.115
X-22.247 Y-10.279 I0.115 J0.115
G1 X-20.838 Y-8.86
X-20.812 Y-8.826
X-20.796 Y-8.787
X-20.79 Y-8.744
X-20.796 Y-8.702
X-20.812 Y-8.663
X-20.838 Y-8.63
X-20.858 Y-8.614 Z-8.298
X-20.88 Y-8.602 Z-8.292
X-20.902 Y-8.593 Z-8.282
X-20.923 Y-8.588 Z-8.269
X-20.942 Y-8.587 Z-8.252
X-20.959 Z-8.233
X-20.972 Y-8.588 Z-8.211
X-20.982 Y-8.59 Z-8.188
X-20.987 Y-8.592 Z-8.163
X-20.989 Z-8.137
Z5
X-21.714 Y-21.855
Z2.5 F333.3
S5000
X-22.209 Y-21.362 Z2.482
G3 X-22.439 Y-21.363 Z2.475 I-0.115 J-0.115
X-22.438 Y-21.593 Z2.468 I0.115 J-0.115
G1 X-21.019 Y-23.002 Z2.416
G3 X-20.79 Y-22.772 Z2.403 I0.115 J0.115
G1 X-22.209 Y-21.362 Z2.35
G3 X-22.439 Y-21.363 Z2.344 I-0.115 J-0.115
X-22.438 Y-21.593 Z2.337 I0.115 J-0.115
G1 X-21.019 Y-23.002 Z2.284
G3 X-20.79 Y-22.772 Z2.271 I0.115 J0.115
G1 X-22.209 Y-21.362 Z2.219
G3 X-22.439 Y-21.363 Z2.212 I-0.115 J-0.115
X-22.438 Y-21.593 Z2.205 I0.115 J-0.115
G1 X-21.019 Y-23.002 Z2.153
G3 X-20.79 Y-22.772 Z2.14 I0.115 J0.115
G1 X-22.209 Y-21.362 Z2.087
G3 X-22.439 Y-21.363 Z2.081 I-0.115 J-0.115
X-22.438 Y-21.593 Z2.074 I0.115 J-0.115
G1 X-21.019 Y-23.002 Z2.022
G3 X-20.79 Y-22.772 Z2.008 I0.115 J0.115
G1 X-22.209 Y-21.362 Z1.956
G3 X-22.439 Y-21.363 Z1.949 I-0.115 J-0.115
X-22.438 Y-21.593 Z1.942 I0.115 J-0.115
G1 X-21.019 Y-23.002 Z1.89
G3 X-20.79 Y-22.772 Z1.877 I0.115 J0.115
G1 X-22.209 Y-21.362 Z1.824
G3 X-22.439 Y-21.363 Z1.818 I-0.115 J-0.115
X-22.438 Y-21.593 Z1.811 I0.115 J-0.115
G1 X-21.019 Y-23.002 Z1.759
G3 X-20.79 Y-22.772 Z1.745 I0.115 J0.115
G1 X-22.209 Y-21.362 Z1.693
G3 X-22.439 Y-21.363 Z1.686 I-0.115 J-0.115
X-22.438 Y-21.593 Z1.679 I0.115 J-0.115
G1 X-21.019 Y-23.002 Z1.627
G3 X-20.79 Y-22.772 Z1.614 I0.115 J0.115
G1 X-22.209 Y-21.362 Z1.561
G3 X-22.439 Y-21.363 Z1.555 I-0.115 J-0.115
X-22.438 Y-21.593 Z1.548 I0.115 J-0.115
G1 X-21.019 Y-23.002 Z1.496
G3 X-20.79 Y-22.772 Z1.482 I0.115 J0.115
G1 X-22.209 Y-21.362 Z1.43
G3 X-22.439 Y-21.363 Z1.423 I-0.115 J-0.115
X-22.438 Y-21.593 Z1.416 I0.115 J-0.115
G1 X-21.019 Y-23.002 Z1.364
G3 X-20.79 Y-22.772 Z1.351 I0.115 J0.115
G1 X-22.209 Y-21.362 Z1.298
G3 X-22.439 Y-21.363 Z1.292 I-0.115 J-0.115
X-22.438 Y-21.593 Z1.285 I0.115 J-0.115
G1 X-21.019 Y-23.002 Z1.233
G3 X-20.79 Y-22.772 Z1.219 I0.115 J0.115
G1 X-22.209 Y-21.362 Z1.167
G3 X-22.439 Y-21.363 Z1.16 I-0.115 J-0.115
X-22.438 Y-21.593 Z1.153 I0.115 J-0.115
G1 X-21.019 Y-23.002 Z1.101
G3 X-20.79 Y-22.772 Z1.088 I0.115 J0.115
G1 X-22.209 Y-21.362 Z1.035
G3 X-22.439 Y-21.363 Z1.029 I-0.115 J-0.115
X-22.438 Y-21.593 Z1.022 I0.115 J-0.115
G1 X-21.019 Y-23.002 Z0.97
G3 X-20.79 Y-22.772 Z0.956 I0.115 J0.115
G1 X-22.209 Y-21.362 Z0.904
G3 X-22.439 Y-21.363 Z0.897 I-0.115 J-0.115
X-22.438 Y-21.593 Z0.891 I0.115 J-0.115
G1 X-21.019 Y-23.002 Z0.838
G3 X-20.79 Y-22.772 Z0.825 I0.115 J0.115
G1 X-22.209 Y-21.362 Z0.772
G3 X-22.439 Y-21.363 Z0.766 I-0.115 J-0.115
X-22.438 Y-21.593 Z0.759 I0.115 J-0.115
G1 X-21.019 Y-23.002 Z0.707
G3 X-20.79 Y-22.772 Z0.693 I0.115 J0.115
G1 X-22.209 Y-21.362 Z0.641
G3 X-22.439 Y-21.363 Z0.634 I-0.115 J-0.115
X-22.438 Y-21.593 Z0.628 I0.115 J-0.115
G1 X-21.019 Y-23.002 Z0.575
G3 X-20.79 Y-22.772 Z0.562 I0.115 J0.115
G1 X-22.209 Y-21.362 Z0.509
G3 X-22.439 Y-21.363 Z0.503 I-0.115 J-0.115
