(1001)
(Bearbeiten)
(  Hersteller: ChinaCnc)
(  model: 3040T)
(  description: Generic 3-axis)
(T13  D=1.2 CR=0 - ZMIN=-3.3 - Schaftfraser)
G90 G94
G17
G21
G28 G91 Z0
G90

(Bohrfrasen18)
T13
S4000 M3
G54
G0 X-15.728 Y-8
Z15
Z2
G1 Z0 F1000
X-15.427 Y-7.869
X-15.405 Y-7.839
X-15.394 Y-7.803
Y-7.766
X-15.405 Y-7.73
X-15.427 Y-7.699
G3 X-16.028 Y-8.301 Z-0.15 I-0.301 J-0.301
X-15.427 Y-7.699 Z-0.3 I0.301 J0.301
X-16.028 Y-8.301 Z-0.45 I-0.301 J-0.301
X-15.427 Y-7.699 Z-0.6 I0.301 J0.301
X-16.028 Y-8.301 Z-0.75 I-0.301 J-0.301
X-15.427 Y-7.699 Z-0.9 I0.301 J0.301
X-16.028 Y-8.301 Z-1.05 I-0.301 J-0.301
X-15.427 Y-7.699 Z-1.2 I0.301 J0.301
X-16.028 Y-8.301 Z-1.35 I-0.301 J-0.301
X-15.427 Y-7.699 Z-1.5 I0.301 J0.301
X-16.028 Y-8.301 Z-1.65 I-0.301 J-0.301
X-15.427 Y-7.699 Z-1.8 I0.301 J0.301
X-16.028 Y-8.301 Z-1.95 I-0.301 J-0.301
X-15.427 Y-7.699 Z-2.1 I0.301 J0.301
X-16.028 Y-8.301 Z-2.25 I-0.301 J-0.301
X-15.427 Y-7.699 Z-2.4 I0.301 J0.301
X-16.028 Y-8.301 Z-2.55 I-0.301 J-0.301
X-15.427 Y-7.699 Z-2.7 I0.301 J0.301
X-16.028 Y-8.301 Z-2.85 I-0.301 J-0.301
X-15.427 Y-7.699 Z-3 I0.301 J0.301
X-16.028 Y-8.301 Z-3.15 I-0.301 J-0.301
X-15.427 Y-7.699 Z-3.3 I0.301 J0.301
X-16.028 Y-8.301 I-0.301 J-0.301
X-15.427 Y-7.699 I0.301 J0.301
G1 X-15.458 Y-7.677
X-15.493 Y-7.666
X-15.531
X-15.567 Y-7.677
X-15.597 Y-7.699
X-15.728 Y-8
G0 Z5
X-27.086
Z2
G1 Z0 F1000
X-26.432 Y-7.516
X-26.41 Y-7.485
X-26.398 Y-7.45
Y-7.412
X-26.41 Y-7.376
X-26.432 Y-7.346
G3 X-27.74 Y-8.654 Z-0.15 I-0.654 J-0.654
X-26.432 Y-7.346 Z-0.3 I0.654 J0.654
X-27.74 Y-8.654 Z-0.45 I-0.654 J-0.654
X-26.432 Y-7.346 Z-0.6 I0.654 J0.654
X-27.74 Y-8.654 Z-0.75 I-0.654 J-0.654
X-26.432 Y-7.346 Z-0.9 I0.654 J0.654
X-27.74 Y-8.654 Z-1.05 I-0.654 J-0.654
X-26.432 Y-7.346 Z-1.2 I0.654 J0.654
X-27.74 Y-8.654 Z-1.35 I-0.654 J-0.654
X-26.432 Y-7.346 Z-1.5 I0.654 J0.654
X-27.74 Y-8.654 Z-1.65 I-0.654 J-0.654
X-26.432 Y-7.346 Z-1.8 I0.654 J0.654
X-27.74 Y-8.654 Z-1.95 I-0.654 J-0.654
X-26.432 Y-7.346 Z-2.1 I0.654 J0.654
X-27.74 Y-8.654 Z-2.25 I-0.654 J-0.654
X-26.432 Y-7.346 Z-2.4 I0.654 J0.654
X-27.74 Y-8.654 Z-2.55 I-0.654 J-0.654
X-26.432 Y-7.346 Z-2.7 I0.654 J0.654
X-27.74 Y-8.654 Z-2.85 I-0.654 J-0.654
X-26.432 Y-7.346 Z-3 I0.654 J0.654
X-27.74 Y-8.654 Z-3.15 I-0.654 J-0.654
X-26.432 Y-7.346 Z-3.3 I0.654 J0.654
X-27.74 Y-8.654 I-0.654 J-0.654
X-26.432 Y-7.346 I0.654 J0.654
G1 X-26.462 Y-7.324
X-26.498 Y-7.312
X-26.535
X-26.571 Y-7.324
X-26.601 Y-7.346
X-27.086 Y-8
G0 Z5
X-62.043 Y-11.182
Z2
G1 Z0 F1000
X-61.743 Y-11.051
X-61.721 Y-11.021
X-61.709 Y-10.985
Y-10.948
X-61.721 Y-10.912
X-61.743 Y-10.881
G3 X-62.344 Y-11.483 Z-0.15 I-0.301 J-0.301
X-61.743 Y-10.881 Z-0.3 I0.301 J0.301
X-62.344 Y-11.483 Z-0.45 I-0.301 J-0.301
X-61.743 Y-10.881 Z-0.6 I0.301 J0.301
X-62.344 Y-11.483 Z-0.75 I-0.301 J-0.301
X-61.743 Y-10.881 Z-0.9 I0.301 J0.301
X-62.344 Y-11.483 Z-1.05 I-0.301 J-0.301
X-61.743 Y-10.881 Z-1.2 I0.301 J0.301
X-62.344 Y-11.483 Z-1.35 I-0.301 J-0.301
X-61.743 Y-10.881 Z-1.5 I0.301 J0.301
X-62.344 Y-11.483 Z-1.65 I-0.301 J-0.301
X-61.743 Y-10.881 Z-1.8 I0.301 J0.301
X-62.344 Y-11.483 Z-1.95 I-0.301 J-0.301
X-61.743 Y-10.881 Z-2.1 I0.301 J0.301
X-62.344 Y-11.483 Z-2.25 I-0.301 J-0.301
X-61.743 Y-10.881 Z-2.4 I0.301 J0.301
X-62.344 Y-11.483 Z-2.55 I-0.301 J-0.301
X-61.743 Y-10.881 Z-2.7 I0.301 J0.301
X-62.344 Y-11.483 Z-2.85 I-0.301 J-0.301
X-61.743 Y-10.881 Z-3 I0.301 J0.301
X-62.344 Y-11.483 Z-3.15 I-0.301 J-0.301
X-61.743 Y-10.881 Z-3.3 I0.301 J0.301
X-62.344 Y-11.483 I-0.301 J-0.301
X-61.743 Y-10.881 I0.301 J0.301
G1 X-61.773 Y-10.859
X-61.809 Y-10.848
X-61.847
X-61.882 Y-10.859
X-61.913 Y-10.881
X-62.043 Y-11.182
G0 Z5
X-68.407
Z2
G1 Z0 F1000
X-68.107 Y-11.051
X-68.085 Y-11.021
X-68.073 Y-10.985
Y-10.948
X-68.085 Y-10.912
X-68.107 Y-10.881
G3 X-68.708 Y-11.483 Z-0.15 I-0.301 J-0.301
X-68.107 Y-10.881 Z-0.3 I0.301 J0.301
X-68.708 Y-11.483 Z-0.45 I-0.301 J-0.301
X-68.107 Y-10.881 Z-0.6 I0.301 J0.301
X-68.708 Y-11.483 Z-0.75 I-0.301 J-0.301
X-68.107 Y-10.881 Z-0.9 I0.301 J0.301
X-68.708 Y-11.483 Z-1.05 I-0.301 J-0.301
X-68.107 Y-10.881 Z-1.2 I0.301 J0.301
X-68.708 Y-11.483 Z-1.35 I-0.301 J-0.301
X-68.107 Y-10.881 Z-1.5 I0.301 J0.301
X-68.708 Y-11.483 Z-1.65 I-0.301 J-0.301
X-68.107 Y-10.881 Z-1.8 I0.301 J0.301
X-68.708 Y-11.483 Z-1.95 I-0.301 J-0.301
X-68.107 Y-10.881 Z-2.1 I0.301 J0.301
X-68.708 Y-11.483 Z-2.25 I-0.301 J-0.301
X-68.107 Y-10.881 Z-2.4 I0.301 J0.301
X-68.708 Y-11.483 Z-2.55 I-0.301 J-0.301
X-68.107 Y-10.881 Z-2.7 I0.301 J0.301
X-68.708 Y-11.483 Z-2.85 I-0.301 J-0.301
X-68.107 Y-10.881 Z-3 I0.301 J0.301
X-68.708 Y-11.483 Z-3.15 I-0.301 J-0.301
X-68.107 Y-10.881 Z-3.3 I0.301 J0.301
X-68.708 Y-11.483 I-0.301 J-0.301
X-68.107 Y-10.881 I0.301 J0.301
G1 X-68.137 Y-10.859
X-68.173 Y-10.848
X-68.21
X-68.246 Y-10.859
X-68.277 Y-10.881
X-68.407 Y-11.182
G0 Z5
Y-4.818
Z2
G1 Z0 F1000
X-68.107 Y-4.687
X-68.085 Y-4.657
X-68.073 Y-4.621
Y-4.584
X-68.085 Y-4.548
X-68.107 Y-4.517
G3 X-68.708 Y-5.119 Z-0.15 I-0.301 J-0.301
X-68.107 Y-4.517 Z-0.3 I0.301 J0.301
X-68.708 Y-5.119 Z-0.45 I-0.301 J-0.301
X-68.107 Y-4.517 Z-0.6 I0.301 J0.301
X-68.708 Y-5.119 Z-0.75 I-0.301 J-0.301
X-68.107 Y-4.517 Z-0.9 I0.301 J0.301
X-68.708 Y-5.119 Z-1.05 I-0.301 J-0.301
X-68.107 Y-4.517 Z-1.2 I0.301 J0.301
X-68.708 Y-5.119 Z-1.35 I-0.301 J-0.301
X-68.107 Y-4.517 Z-1.5 I0.301 J0.301
X-68.708 Y-5.119 Z-1.65 I-0.301 J-0.301
X-68.107 Y-4.517 Z-1.8 I0.301 J0.301
X-68.708 Y-5.119 Z-1.95 I-0.301 J-0.301
X-68.107 Y-4.517 Z-2.1 I0.301 J0.301
X-68.708 Y-5.119 Z-2.25 I-0.301 J-0.301
X-68.107 Y-4.517 Z-2.4 I0.301 J0.301
X-68.708 Y-5.119 Z-2.55 I-0.301 J-0.301
X-68.107 Y-4.517 Z-2.7 I0.301 J0.301
X-68.708 Y-5.119 Z-2.85 I-0.301 J-0.301
X-68.107 Y-4.517 Z-3 I0.301 J0.301
X-68.708 Y-5.119 Z-3.15 I-0.301 J-0.301
X-68.107 Y-4.517 Z-3.3 I0.301 J0.301
X-68.708 Y-5.119 I-0.301 J-0.301
X-68.107 Y-4.517 I0.301 J0.301
G1 X-68.137 Y-4.495
X-68.173 Y-4.484
X-68.21
X-68.246 Y-4.495
X-68.277 Y-4.517
X-68.407 Y-4.818
G0 Z5
X-65.225 Y-8
Z2
G1 Z0 F1000
X-64.094 Y-7.038
X-64.072 Y-7.008
X-64.06 Y-6.972
Y-6.935
X-64.072 Y-6.899
X-64.094 Y-6.869
G3 X-66.357 Y-9.131 Z-0.15 I-1.131 J-1.131
X-64.094 Y-6.869 Z-0.3 I1.131 J1.131
X-66.357 Y-9.131 Z-0.45 I-1.131 J-1.131
X-64.094 Y-6.869 Z-0.6 I1.131 J1.131
X-66.357 Y-9.131 Z-0.75 I-1.131 J-1.131
X-64.094 Y-6.869 Z-0.9 I1.131 J1.131
X-66.357 Y-9.131 Z-1.05 I-1.131 J-1.131
X-64.094 Y-6.869 Z-1.2 I1.131 J1.131
X-66.357 Y-9.131 Z-1.35 I-1.131 J-1.131
X-64.094 Y-6.869 Z-1.5 I1.131 J1.131
X-66.357 Y-9.131 Z-1.65 I-1.131 J-1.131
X-64.094 Y-6.869 Z-1.8 I1.131 J1.131
X-66.357 Y-9.131 Z-1.95 I-1.131 J-1.131
X-64.094 Y-6.869 Z-2.1 I1.131 J1.131
X-66.357 Y-9.131 Z-2.25 I-1.131 J-1.131
X-64.094 Y-6.869 Z-2.4 I1.131 J1.131
X-66.357 Y-9.131 Z-2.55 I-1.131 J-1.131
X-64.094 Y-6.869 Z-2.7 I1.131 J1.131
X-66.357 Y-9.131 Z-2.85 I-1.131 J-1.131
X-64.094 Y-6.869 Z-3 I1.131 J1.131
X-66.357 Y-9.131 Z-3.15 I-1.131 J-1.131
X-64.094 Y-6.869 Z-3.3 I1.131 J1.131
X-66.357 Y-9.131 I-1.131 J-1.131
X-64.094 Y-6.869 I1.131 J1.131
G1 X-64.124 Y-6.847
X-64.16 Y-6.835
X-64.198
X-64.233 Y-6.847
X-64.264 Y-6.869
X-65.225 Y-8
G0 Z5
X-62.043 Y-4.818
Z2
G1 Z0 F1000
X-61.743 Y-4.687
X-61.721 Y-4.657
X-61.709 Y-4.621
Y-4.584
X-61.721 Y-4.548
X-61.743 Y-4.517
G3 X-62.344 Y-5.119 Z-0.15 I-0.301 J-0.301
X-61.743 Y-4.517 Z-0.3 I0.301 J0.301
X-62.344 Y-5.119 Z-0.45 I-0.301 J-0.301
X-61.743 Y-4.517 Z-0.6 I0.301 J0.301
X-62.344 Y-5.119 Z-0.75 I-0.301 J-0.301
X-61.743 Y-4.517 Z-0.9 I0.301 J0.301
X-62.344 Y-5.119 Z-1.05 I-0.301 J-0.301
X-61.743 Y-4.517 Z-1.2 I0.301 J0.301
X-62.344 Y-5.119 Z-1.35 I-0.301 J-0.301
X-61.743 Y-4.517 Z-1.5 I0.301 J0.301
X-62.344 Y-5.119 Z-1.65 I-0.301 J-0.301
X-61.743 Y-4.517 Z-1.8 I0.301 J0.301
X-62.344 Y-5.119 Z-1.95 I-0.301 J-0.301
X-61.743 Y-4.517 Z-2.1 I0.301 J0.301
X-62.344 Y-5.119 Z-2.25 I-0.301 J-0.301
X-61.743 Y-4.517 Z-2.4 I0.301 J0.301
X-62.344 Y-5.119 Z-2.55 I-0.301 J-0.301
X-61.743 Y-4.517 Z-2.7 I0.301 J0.301
X-62.344 Y-5.119 Z-2.85 I-0.301 J-0.301
X-61.743 Y-4.517 Z-3 I0.301 J0.301
X-62.344 Y-5.119 Z-3.15 I-0.301 J-0.301
X-61.743 Y-4.517 Z-3.3 I0.301 J0.301
X-62.344 Y-5.119 I-0.301 J-0.301
X-61.743 Y-4.517 I0.301 J0.301
G1 X-61.773 Y-4.495
X-61.809 Y-4.484
X-61.847
X-61.882 Y-4.495
X-61.913 Y-4.517
X-62.043 Y-4.818
G0 Z15

(2D-Kontur7)
X-79.261 Y-6.376
Z15
Z5
G1 Z1.2 F200
Z0.5
S5000
X-79.127 Y-6.196 Z0.492 F333.3
X-79.101 Y-6.164 Z0.491
X-78.928 Y-5.961 Z0.481
X-78.903 Y-5.935 Z0.48
X-78.709 Y-5.734 Z0.47
X-78.686 Y-5.711 Z0.469
X-78.472 Y-5.512 Z0.459
X-78.45 Y-5.493 Z0.458
X-78.216 Y-5.297 Z0.447
X-78.196 Y-5.281 Z0.446
X-77.944 Y-5.086 Z0.435
X-77.926 Y-5.073
X-77.656 Y-4.881 Z0.423
X-77.639 Y-4.869 Z0.422
X-77.354 Y-4.681 Z0.41
X-77.338 Y-4.671
X-77.037 Y-4.486 Z0.397
X-77.022 Y-4.477
X-76.706 Y-4.295 Z0.384
X-76.686 Y-4.284 Z0.383
X-76.017 Y-3.933 Z0.357
X-75.993 Y-3.92 Z0.356
X-75.28 Y-3.586 Z0.328
X-75.258 Y-3.577
X-74.511 Y-3.262 Z0.299
X-74.491 Y-3.254 Z0.298
X-73.718 Y-2.961 Z0.27
X-73.7 Y-2.955 Z0.269
X-72.91 Y-2.685 Z0.24
X-72.892 Y-2.679 Z0.239
X-72.094 Y-2.434 Z0.21
X-72.076 Y-2.429 Z0.209
X-71.277 Y-2.209 Z0.18
X-71.26 Y-2.205
X-70.466 Y-2.012 Z0.151
X-70.449 Y-2.008
X-69.667 Y-1.843 Z0.123
X-69.649 Y-1.84 Z0.122
X-68.885 Y-1.702 Z0.095
X-68.866 Y-1.699 Z0.094
X-68.122 Y-1.59 Z0.068
X-68.103 Y-1.587 Z0.067
X-67.381 Y-1.504 Z0.042
X-67.361 Y-1.502 Z0.041
X-66.66 Y-1.446 Z0.017
X-66.641 Y-1.444 Z0.016
X-65.959 Y-1.412 Z-0.008
X-65.94 Y-1.411
X-65.272 Y-1.4 Z-0.032
X-65.255
X-64.594 Y-1.408 Z-0.055
X-64.58 Z-0.056
X-63.921 Y-1.433 Z-0.079
X-63.909
X-63.246 Y-1.471 Z-0.103
X-63.233 Y-1.472
X-61.88 Y-1.579 Z-0.15
X-61.869 Y-1.58 Z-0.151
X-60.471 Y-1.719 Z-0.2
X-60.467
S4000
X-60.464 F1000
X-59.027 Y-1.88
X-59.022 Y-1.881
X-57.564 Y-2.058
X-57.559
X-56.105 Y-2.249
X-56.099
X-54.676 Y-2.451
X-54.668 Y-2.452
X-53.301 Y-2.663
X-53.292 Y-2.665
X-51.996 Y-2.884
X-51.989 Y-2.886
X-50.759 Y-3.109
X-50.757
X-49.572 Y-3.328
X-48.39 Y-3.533
X-47.787 Y-3.626
X-47.163 Y-3.712
X-46.513 Y-3.789
X-45.831 Y-3.856
X-45.114 Y-3.913
X-44.36 Y-3.96
X-43.57 Y-3.996
X-42.745 Y-4.022
X-41.888 Y-4.037
X-41.002 Y-4.043
X-39.149 Y-4.027
X-37.222 Y-3.979
X-35.253 Y-3.907
X-33.281 Y-3.817
X-31.342 Y-3.72
X-29.469 Y-3.622
X-29.468
X-27.685 Y-3.533
X-27.682
X-25.998 Y-3.459
X-25.992
X-24.4 Y-3.404
X-24.391
X-22.869 Y-3.373
X-22.86
X-21.382 Y-3.366
X-21.372
X-19.913 Y-3.382
X-19.904 Y-3.383
X-18.444 Y-3.419
X-18.437
X-16.967 Y-3.472
X-16.962 Y-3.473
X-15.479 Y-3.538
X-15.476
X-13.981 Y-3.61
X-12.478 Y-3.684
X-10.974 Y-3.753
X-9.475 Y-3.814
X-7.991 Y-3.86
X-6.526 Y-3.89
X-5.082 Y-3.9
G2 X-4.662 Y-4.076 I-0.004 J-0.6
G1 X-1.869 Y-6.869
G2 X-1.869 Y-9.131 I-1.131 J-1.131
G1 X-4.662 Y-11.924
G2 X-5.082 Y-12.1 I-0.424 J0.424
G1 X-6.526 Y-12.11
X-7.991 Y-12.14
X-9.475 Y-12.187
X-10.974 Y-12.247
X-12.478 Y-12.316
X-13.981 Y-12.39
X-15.477 Y-12.462
X-15.479
X-16.962 Y-12.527
X-16.967 Y-12.528
X-18.437 Y-12.581
X-18.444
X-19.904 Y-12.617
X-19.913 Y-12.618
X-21.372 Y-12.634
X-21.382
X-22.86 Y-12.627
X-22.869
X-24.391 Y-12.596
X-24.4
X-25.992 Y-12.541
X-25.998
X-27.682 Y-12.467
X-27.685
X-29.468 Y-12.378
X-29.469
X-31.342 Y-12.28
X-33.281 Y-12.183
X-35.253 Y-12.093
X-37.222 Y-12.021
X-39.149 Y-11.973
X-41.002 Y-11.957
X-41.888 Y-11.963
X-42.745 Y-11.978
X-43.57 Y-12.004
X-44.36 Y-12.04
X-45.114 Y-12.087
X-45.831 Y-12.144
X-46.513 Y-12.211
X-47.163 Y-12.288
X-47.787 Y-12.374
X-48.39 Y-12.467
X-49.572 Y-12.672
X-50.757 Y-12.891
X-50.759
X-51.989 Y-13.114
X-51.996 Y-13.116
X-53.292 Y-13.335
X-53.301 Y-13.337
X-54.668 Y-13.548
X-54.676 Y-13.549
X-56.099 Y-13.75
X-56.105 Y-13.751
X-57.559 Y-13.942
X-57.564
X-59.022 Y-14.119
X-59.027 Y-14.12
X-60.464 Y-14.281
X-60.471
X-61.869 Y-14.42
X-61.88 Y-14.421
X-63.233 Y-14.528
X-63.246 Y-14.529
X-63.909 Y-14.567
X-63.921
X-64.58 Y-14.592
X-64.594
X-65.255 Y-14.6
X-65.272
X-65.94 Y-14.589
X-65.959 Y-14.588
X-66.641 Y-14.556
X-66.66 Y-14.554
X-67.361 Y-14.498
X-67.381 Y-14.496
X-68.103 Y-14.413
X-68.122 Y-14.41
X-68.866 Y-14.301
X-68.885 Y-14.298
X-69.649 Y-14.16
X-69.667 Y-14.157
X-70.449 Y-13.992
X-70.466 Y-13.988
X-71.26 Y-13.795
X-71.277 Y-13.791
X-72.076 Y-13.571
X-72.094 Y-13.566
X-72.892 Y-13.321
X-72.91 Y-13.315
X-73.699 Y-13.045
X-73.718 Y-13.039
X-74.491 Y-12.746
X-74.511 Y-12.738
X-75.258 Y-12.423
X-75.28 Y-12.414
X-75.993 Y-12.08
X-76.017 Y-12.067
X-76.686 Y-11.716
X-76.706 Y-11.705
X-77.022 Y-11.523
X-77.036 Y-11.514
X-77.337 Y-11.329
X-77.354 Y-11.319
X-77.639 Y-11.131
X-77.656 Y-11.119
X-77.926 Y-10.927
X-77.944 Y-10.914
X-78.196 Y-10.719
X-78.216 Y-10.703
X-78.45 Y-10.507
X-78.472 Y-10.488
X-78.686 Y-10.289
X-78.709 Y-10.266
X-78.903 Y-10.065
X-78.928 Y-10.039
X-79.101 Y-9.836
X-79.127 Y-9.804
X-79.279 Y-9.6
X-79.305 Y-9.562
X-79.434 Y-9.357
X-79.46 Y-9.313
X-79.566 Y-9.107
X-79.59 Y-9.055
X-79.674 Y-8.848
X-79.694 Y-8.79
X-79.754 Y-8.583
X-79.769 Y-8.518
X-79.805 Y-8.311
X-79.812 Y-8.243
X-79.824 Y-8.035
Y-7.965
X-79.812 Y-7.757
X-79.805 Y-7.689
X-79.769 Y-7.482
X-79.754 Y-7.417
X-79.694 Y-7.21
X-79.674 Y-7.152
X-79.59 Y-6.945
X-79.566 Y-6.893
X-79.46 Y-6.687
X-79.434 Y-6.643
X-79.305 Y-6.438
X-79.279 Y-6.4
X-79.127 Y-6.196
X-79.101 Y-6.164
X-78.928 Y-5.961
X-78.903 Y-5.935
X-78.709 Y-5.734
X-78.686 Y-5.711
X-78.472 Y-5.512
X-78.45 Y-5.493
X-78.216 Y-5.297
X-78.196 Y-5.281
X-77.944 Y-5.086
X-77.926 Y-5.073
X-77.656 Y-4.881
X-77.639 Y-4.869
X-77.354 Y-4.681
X-77.338 Y-4.671
X-77.037 Y-4.486
X-77.022 Y-4.477
X-76.706 Y-4.295
X-76.686 Y-4.284
X-76.017 Y-3.933
X-75.993 Y-3.92
X-75.28 Y-3.586
X-75.258 Y-3.577
X-74.511 Y-3.262
X-74.491 Y-3.254
X-73.718 Y-2.961
X-73.7 Y-2.955
X-72.91 Y-2.685
X-72.892 Y-2.679
X-72.094 Y-2.434
X-72.076 Y-2.429
X-71.277 Y-2.209
X-71.26 Y-2.205
X-70.466 Y-2.012
X-70.449 Y-2.008
X-69.667 Y-1.843
X-69.649 Y-1.84
X-68.885 Y-1.702
X-68.866 Y-1.699
X-68.122 Y-1.59
X-68.103 Y-1.587
X-67.381 Y-1.504
X-67.361 Y-1.502
X-66.66 Y-1.446
X-66.641 Y-1.444
X-65.959 Y-1.412
X-65.94 Y-1.411
X-65.272 Y-1.4
X-65.255
X-64.594 Y-1.408
X-64.58
X-63.921 Y-1.433
X-63.909
X-63.246 Y-1.471
X-63.233 Y-1.472
X-61.88 Y-1.579
X-61.869 Y-1.58
X-60.471 Y-1.719
X-60.467
S5000
X-60.464 F333.3
X-59.027 Y-1.88 Z-0.251
X-59.022 Y-1.881
X-57.564 Y-2.058 Z-0.302
X-57.559
X-56.105 Y-2.249 Z-0.353
X-56.099 Z-0.354
X-54.785 Y-2.435 Z-0.4
S4000
X-54.676 Y-2.451 F1000
X-54.668 Y-2.452
X-53.301 Y-2.663
X-53.292 Y-2.665
X-51.996 Y-2.884
X-51.989 Y-2.886
X-50.759 Y-3.109
X-50.757
X-49.572 Y-3.328
X-48.39 Y-3.533
X-47.787 Y-3.626
X-47.163 Y-3.712
X-46.513 Y-3.789
X-45.831 Y-3.856
X-45.114 Y-3.913
X-44.36 Y-3.96
X-43.57 Y-3.996
X-42.745 Y-4.022
X-41.888 Y-4.037
X-41.002 Y-4.043
X-39.149 Y-4.027
X-37.222 Y-3.979
X-35.253 Y-3.907
X-33.281 Y-3.817
X-31.342 Y-3.72
X-29.469 Y-3.622
X-29.468
X-27.685 Y-3.533
X-27.682
X-25.998 Y-3.459
X-25.992
X-24.4 Y-3.404
X-24.391
X-22.869 Y-3.373
X-22.86
X-21.382 Y-3.366
X-21.372
X-19.913 Y-3.382
X-19.904 Y-3.383
X-18.444 Y-3.419
X-18.437
X-16.967 Y-3.472
X-16.962 Y-3.473
X-15.479 Y-3.538
X-15.476
X-13.981 Y-3.61
X-12.478 Y-3.684
X-10.974 Y-3.753
X-9.475 Y-3.814
X-7.991 Y-3.86
X-6.526 Y-3.89
X-5.082 Y-3.9
G2 X-4.662 Y-4.076 I-0.004 J-0.6
G1 X-1.869 Y-6.869
G2 X-1.869 Y-9.131 I-1.131 J-1.131
G1 X-4.662 Y-11.924
G2 X-5.082 Y-12.1 I-0.424 J0.424
G1 X-6.526 Y-12.11
X-7.991 Y-12.14
X-9.475 Y-12.187
X-10.974 Y-12.247
X-12.478 Y-12.316
X-13.981 Y-12.39
X-15.477 Y-12.462
X-15.479
X-16.962 Y-12.527
X-16.967 Y-12.528
X-18.437 Y-12.581
X-18.444
X-19.904 Y-12.617
X-19.913 Y-12.618
X-21.372 Y-12.634
X-21.382
X-22.86 Y-12.627
X-22.869
X-24.391 Y-12.596
X-24.4
X-25.992 Y-12.541
X-25.998
X-27.682 Y-12.467
X-27.685
X-29.468 Y-12.378
X-29.469
X-31.342 Y-12.28
X-33.281 Y-12.183
X-35.253 Y-12.093
X-37.222 Y-12.021
X-39.149 Y-11.973
X-41.002 Y-11.957
X-41.888 Y-11.963
X-42.745 Y-11.978
X-43.57 Y-12.004
X-44.36 Y-12.04
X-45.114 Y-12.087
X-45.831 Y-12.144
X-46.513 Y-12.211
X-47.163 Y-12.288
X-47.787 Y-12.374
X-48.39 Y-12.467
X-49.572 Y-12.672
X-50.757 Y-12.891
X-50.759
X-51.989 Y-13.114
X-51.996 Y-13.116
X-53.292 Y-13.335
X-53.301 Y-13.337
X-54.668 Y-13.548
X-54.676 Y-13.549
X-56.099 Y-13.75
X-56.105 Y-13.751
X-57.559 Y-13.942
X-57.564
X-59.022 Y-14.119
X-59.027 Y-14.12
X-60.464 Y-14.281
X-60.471
X-61.869 Y-14.42
X-61.88 Y-14.421
X-63.233 Y-14.528
X-63.246 Y-14.529
X-63.909 Y-14.567
X-63.921
X-64.58 Y-14.592
X-64.594
X-65.255 Y-14.6
X-65.272
X-65.94 Y-14.589
X-65.959 Y-14.588
X-66.641 Y-14.556
X-66.66 Y-14.554
X-67.361 Y-14.498
X-67.381 Y-14.496
X-68.103 Y-14.413
X-68.122 Y-14.41
X-68.866 Y-14.301
X-68.885 Y-14.298
X-69.649 Y-14.16
X-69.667 Y-14.157
X-70.449 Y-13.992
X-70.466 Y-13.988
X-71.26 Y-13.795
X-71.277 Y-13.791
X-72.076 Y-13.571
X-72.094 Y-13.566
X-72.892 Y-13.321
X-72.91 Y-13.315
X-73.699 Y-13.045
X-73.718 Y-13.039
X-74.491 Y-12.746
X-74.511 Y-12.738
X-75.258 Y-12.423
X-75.28 Y-12.414
X-75.993 Y-12.08
X-76.017 Y-12.067
X-76.686 Y-11.716
X-76.706 Y-11.705
X-77.022 Y-11.523
X-77.036 Y-11.514
X-77.337 Y-11.329
X-77.354 Y-11.319
X-77.639 Y-11.131
X-77.656 Y-11.119
X-77.926 Y-10.927
X-77.944 Y-10.914
X-78.196 Y-10.719
X-78.216 Y-10.703
X-78.45 Y-10.507
X-78.472 Y-10.488
X-78.686 Y-10.289
X-78.709 Y-10.266
X-78.903 Y-10.065
X-78.928 Y-10.039
X-79.101 Y-9.836
X-79.127 Y-9.804
X-79.279 Y-9.6
X-79.305 Y-9.562
X-79.434 Y-9.357
X-79.46 Y-9.313
X-79.566 Y-9.107
X-79.59 Y-9.055
X-79.674 Y-8.848
X-79.694 Y-8.79
X-79.754 Y-8.583
X-79.769 Y-8.518
X-79.805 Y-8.311
X-79.812 Y-8.243
X-79.824 Y-8.035
Y-7.965
X-79.812 Y-7.757
X-79.805 Y-7.689
X-79.769 Y-7.482
X-79.754 Y-7.417
X-79.694 Y-7.21
X-79.674 Y-7.152
X-79.59 Y-6.945
X-79.566 Y-6.893
X-79.46 Y-6.687
X-79.434 Y-6.643
X-79.305 Y-6.438
X-79.279 Y-6.4
X-79.127 Y-6.196
X-79.101 Y-6.164
X-78.928 Y-5.961
X-78.903 Y-5.935
X-78.709 Y-5.734
X-78.686 Y-5.711
X-78.472 Y-5.512
X-78.45 Y-5.493
X-78.216 Y-5.297
X-78.196 Y-5.281
X-77.944 Y-5.086
X-77.926 Y-5.073
X-77.656 Y-4.881
X-77.639 Y-4.869
X-77.354 Y-4.681
X-77.338 Y-4.671
X-77.037 Y-4.486
X-77.022 Y-4.477
X-76.706 Y-4.295
X-76.686 Y-4.284
X-76.017 Y-3.933
X-75.993 Y-3.92
X-75.28 Y-3.586
X-75.258 Y-3.577
X-74.511 Y-3.262
X-74.491 Y-3.254
X-73.718 Y-2.961
X-73.7 Y-2.955
X-72.91 Y-2.685
X-72.892 Y-2.679
X-72.094 Y-2.434
X-72.076 Y-2.429
X-71.277 Y-2.209
X-71.26 Y-2.205
X-70.466 Y-2.012
X-70.449 Y-2.008
X-69.667 Y-1.843
X-69.649 Y-1.84
X-68.885 Y-1.702
X-68.866 Y-1.699
X-68.122 Y-1.59
X-68.103 Y-1.587
X-67.381 Y-1.504
X-67.361 Y-1.502
X-66.66 Y-1.446
X-66.641 Y-1.444
X-65.959 Y-1.412
X-65.94 Y-1.411
X-65.272 Y-1.4
X-65.255
X-64.594 Y-1.408
X-64.58
X-63.921 Y-1.433
X-63.909
X-63.246 Y-1.471
X-63.233 Y-1.472
X-61.88 Y-1.579
X-61.869 Y-1.58
X-60.471 Y-1.719
X-60.464
X-59.027 Y-1.88
X-59.022 Y-1.881
X-57.564 Y-2.058
X-57.559
X-56.105 Y-2.249
X-56.099
X-54.785 Y-2.435
S5000
X-54.676 Y-2.451 Z-0.404 F333.3
X-54.668 Y-2.452
X-53.301 Y-2.663 Z-0.452
X-53.292 Y-2.665 Z-0.453
X-51.996 Y-2.884 Z-0.499
X-51.989 Y-2.886
X-50.759 Y-3.109 Z-0.543
X-50.757
X-49.572 Y-3.328 Z-0.585
X-49.141 Y-3.403 Z-0.6
S4000
X-48.39 Y-3.533 F1000
X-47.787 Y-3.626
X-47.163 Y-3.712
X-46.513 Y-3.789
X-45.831 Y-3.856
X-45.114 Y-3.913
X-44.36 Y-3.96
X-43.57 Y-3.996
X-42.745 Y-4.022
X-41.888 Y-4.037
X-41.002 Y-4.043
X-39.149 Y-4.027
X-37.222 Y-3.979
X-35.253 Y-3.907
X-33.281 Y-3.817
X-31.342 Y-3.72
X-29.469 Y-3.622
X-29.468
X-27.685 Y-3.533
X-27.682
X-25.998 Y-3.459
X-25.992
X-24.4 Y-3.404
X-24.391
X-22.869 Y-3.373
X-22.86
X-21.382 Y-3.366
X-21.372
X-19.913 Y-3.382
X-19.904 Y-3.383
X-18.444 Y-3.419
X-18.437
X-16.967 Y-3.472
X-16.962 Y-3.473
X-15.479 Y-3.538
X-15.476
X-13.981 Y-3.61
X-12.478 Y-3.684
X-10.974 Y-3.753
X-9.475 Y-3.814
X-7.991 Y-3.86
X-6.526 Y-3.89
X-5.082 Y-3.9
G2 X-4.662 Y-4.076 I-0.004 J-0.6
G1 X-1.869 Y-6.869
G2 X-1.869 Y-9.131 I-1.131 J-1.131
G1 X-4.662 Y-11.924
G2 X-5.082 Y-12.1 I-0.424 J0.424
G1 X-6.526 Y-12.11
X-7.991 Y-12.14
X-9.475 Y-12.187
X-10.974 Y-12.247
X-12.478 Y-12.316
X-13.981 Y-12.39
X-15.477 Y-12.462
X-15.479
X-16.962 Y-12.527
X-16.967 Y-12.528
X-18.437 Y-12.581
X-18.444
X-19.904 Y-12.617
X-19.913 Y-12.618
X-21.372 Y-12.634
X-21.382
X-22.86 Y-12.627
X-22.869
X-24.391 Y-12.596
X-24.4
X-25.992 Y-12.541
X-25.998
X-27.682 Y-12.467
X-27.685
X-29.468 Y-12.378
X-29.469
X-31.342 Y-12.28
X-33.281 Y-12.183
X-35.253 Y-12.093
X-37.222 Y-12.021
X-39.149 Y-11.973
X-41.002 Y-11.957
X-41.888 Y-11.963
X-42.745 Y-11.978
X-43.57 Y-12.004
X-44.36 Y-12.04
X-45.114 Y-12.087
X-45.831 Y-12.144
X-46.513 Y-12.211
X-47.163 Y-12.288
X-47.787 Y-12.374
X-48.39 Y-12.467
X-49.572 Y-12.672
X-50.757 Y-12.891
X-50.759
X-51.989 Y-13.114
X-51.996 Y-13.116
X-53.292 Y-13.335
X-53.301 Y-13.337
X-54.668 Y-13.548
X-54.676 Y-13.549
X-56.099 Y-13.75
X-56.105 Y-13.751
X-57.559 Y-13.942
X-57.564
X-59.022 Y-14.119
X-59.027 Y-14.12
X-60.464 Y-14.281
X-60.471
X-61.869 Y-14.42
X-61.88 Y-14.421
X-63.233 Y-14.528
X-63.246 Y-14.529
X-63.909 Y-14.567
X-63.921
X-64.58 Y-14.592
X-64.594
X-65.255 Y-14.6
X-65.272
X-65.94 Y-14.589
X-65.959 Y-14.588
X-66.641 Y-14.556
X-66.66 Y-14.554
X-67.361 Y-14.498
X-67.381 Y-14.496
X-68.103 Y-14.413
X-68.122 Y-14.41
X-68.866 Y-14.301
X-68.885 Y-14.298
X-69.649 Y-14.16
X-69.667 Y-14.157
X-70.449 Y-13.992
X-70.466 Y-13.988
X-71.26 Y-13.795
X-71.277 Y-13.791
X-72.076 Y-13.571
X-72.094 Y-13.566
X-72.892 Y-13.321
X-72.91 Y-13.315
X-73.699 Y-13.045
X-73.718 Y-13.039
X-74.491 Y-12.746
X-74.511 Y-12.738
X-75.258 Y-12.423
X-75.28 Y-12.414
X-75.993 Y-12.08
X-76.017 Y-12.067
X-76.686 Y-11.716
X-76.706 Y-11.705
X-77.022 Y-11.523
X-77.036 Y-11.514
X-77.337 Y-11.329
X-77.354 Y-11.319
X-77.639 Y-11.131
X-77.656 Y-11.119
X-77.926 Y-10.927
X-77.944 Y-10.914
X-78.196 Y-10.719
X-78.216 Y-10.703
X-78.45 Y-10.507
X-78.472 Y-10.488
X-78.686 Y-10.289
X-78.709 Y-10.266
X-78.903 Y-10.065
X-78.928 Y-10.039
X-79.101 Y-9.836
X-79.127 Y-9.804
X-79.279 Y-9.6
X-79.305 Y-9.562
X-79.434 Y-9.357
X-79.46 Y-9.313
X-79.566 Y-9.107
X-79.59 Y-9.055
X-79.674 Y-8.848
X-79.694 Y-8.79
X-79.754 Y-8.583
X-79.769 Y-8.518
X-79.805 Y-8.311
X-79.812 Y-8.243
X-79.824 Y-8.035
Y-7.965
X-79.812 Y-7.757
X-79.805 Y-7.689
X-79.769 Y-7.482
X-79.754 Y-7.417
X-79.694 Y-7.21
X-79.674 Y-7.152
X-79.59 Y-6.945
X-79.566 Y-6.893
X-79.46 Y-6.687
X-79.434 Y-6.643
X-79.305 Y-6.438
X-79.279 Y-6.4
X-79.127 Y-6.196
X-79.101 Y-6.164
X-78.928 Y-5.961
X-78.903 Y-5.935
X-78.709 Y-5.734
X-78.686 Y-5.711
X-78.472 Y-5.512
X-78.45 Y-5.493
X-78.216 Y-5.297
X-78.196 Y-5.281
X-77.944 Y-5.086
X-77.926 Y-5.073
X-77.656 Y-4.881
X-77.639 Y-4.869
X-77.354 Y-4.681
X-77.338 Y-4.671
X-77.037 Y-4.486
X-77.022 Y-4.477
X-76.706 Y-4.295
X-76.686 Y-4.284
X-76.017 Y-3.933
X-75.993 Y-3.92
X-75.28 Y-3.586
X-75.258 Y-3.577
X-74.511 Y-3.262
X-74.491 Y-3.254
X-73.718 Y-2.961
X-73.7 Y-2.955
X-72.91 Y-2.685
X-72.892 Y-2.679
X-72.094 Y-2.434
X-72.076 Y-2.429
X-71.277 Y-2.209
X-71.26 Y-2.205
X-70.466 Y-2.012
X-70.449 Y-2.008
X-69.667 Y-1.843
X-69.649 Y-1.84
X-68.885 Y-1.702
X-68.866 Y-1.699
X-68.122 Y-1.59
X-68.103 Y-1.587
X-67.381 Y-1.504
X-67.361 Y-1.502
X-66.66 Y-1.446
X-66.641 Y-1.444
X-65.959 Y-1.412
X-65.94 Y-1.411
X-65.272 Y-1.4
X-65.255
X-64.594 Y-1.408
X-64.58
X-63.921 Y-1.433
X-63.909
X-63.246 Y-1.471
X-63.233 Y-1.472
X-61.88 Y-1.579
X-61.869 Y-1.58
X-60.471 Y-1.719
X-60.464
X-59.027 Y-1.88
X-59.022 Y-1.881
X-57.564 Y-2.058
X-57.559
X-56.105 Y-2.249
X-56.099
X-54.785 Y-2.435
X-54.676 Y-2.451
X-54.668 Y-2.452
X-53.301 Y-2.663
X-53.292 Y-2.665
X-51.996 Y-2.884
X-51.989 Y-2.886
X-50.759 Y-3.109
X-50.757
X-49.572 Y-3.328
X-49.141 Y-3.403
S5000
X-48.39 Y-3.533 Z-0.627 F333.3
X-47.787 Y-3.626 Z-0.648
X-47.163 Y-3.712 Z-0.67
X-46.513 Y-3.789 Z-0.693
X-45.831 Y-3.856 Z-0.717
X-45.114 Y-3.913 Z-0.742
X-44.36 Y-3.96 Z-0.768
X-43.57 Y-3.996 Z-0.796
X-43.45 Y-4 Z-0.8
S4000
X-42.745 Y-4.022 F1000
X-41.888 Y-4.037
X-41.002 Y-4.043
X-39.149 Y-4.027
X-37.222 Y-3.979
X-35.253 Y-3.907
X-33.281 Y-3.817
X-31.342 Y-3.72
X-29.469 Y-3.622
X-29.468
X-27.685 Y-3.533
X-27.682
X-25.998 Y-3.459
X-25.992
X-24.4 Y-3.404
X-24.391
X-22.869 Y-3.373
X-22.86
X-21.382 Y-3.366
X-21.372
X-19.913 Y-3.382
X-19.904 Y-3.383
X-18.444 Y-3.419
X-18.437
X-16.967 Y-3.472
X-16.962 Y-3.473
X-15.479 Y-3.538
X-15.476
X-13.981 Y-3.61
X-12.478 Y-3.684
X-10.974 Y-3.753
X-9.475 Y-3.814
X-7.991 Y-3.86
X-6.526 Y-3.89
X-5.082 Y-3.9
G2 X-4.662 Y-4.076 I-0.004 J-0.6
G1 X-1.869 Y-6.869
G2 X-1.869 Y-9.131 I-1.131 J-1.131
G1 X-4.662 Y-11.924
G2 X-5.082 Y-12.1 I-0.424 J0.424
G1 X-6.526 Y-12.11
X-7.991 Y-12.14
X-9.475 Y-12.187
X-10.974 Y-12.247
X-12.478 Y-12.316
X-13.981 Y-12.39
X-15.477 Y-12.462
X-15.479
X-16.962 Y-12.527
X-16.967 Y-12.528
X-18.437 Y-12.581
X-18.444
X-19.904 Y-12.617
X-19.913 Y-12.618
X-21.372 Y-12.634
X-21.382
X-22.86 Y-12.627
X-22.869
X-24.391 Y-12.596
X-24.4
X-25.992 Y-12.541
X-25.998
X-27.682 Y-12.467
X-27.685
X-29.468 Y-12.378
X-29.469
X-31.342 Y-12.28
X-33.281 Y-12.183
X-35.253 Y-12.093
X-37.222 Y-12.021
X-39.149 Y-11.973
X-41.002 Y-11.957
X-41.888 Y-11.963
X-42.745 Y-11.978
X-43.57 Y-12.004
X-44.36 Y-12.04
X-45.114 Y-12.087
X-45.831 Y-12.144
X-46.513 Y-12.211
X-47.163 Y-12.288
X-47.787 Y-12.374
X-48.39 Y-12.467
X-49.572 Y-12.672
X-50.757 Y-12.891
X-50.759
X-51.989 Y-13.114
X-51.996 Y-13.116
X-53.292 Y-13.335
X-53.301 Y-13.337
X-54.668 Y-13.548
X-54.676 Y-13.549
X-56.099 Y-13.75
X-56.105 Y-13.751
X-57.559 Y-13.942
X-57.564
X-59.022 Y-14.119
X-59.027 Y-14.12
X-60.464 Y-14.281
X-60.471
X-61.869 Y-14.42
X-61.88 Y-14.421
X-63.233 Y-14.528
X-63.246 Y-14.529
X-63.909 Y-14.567
X-63.921
X-64.58 Y-14.592
X-64.594
X-65.255 Y-14.6
X-65.272
X-65.94 Y-14.589
X-65.959 Y-14.588
X-66.641 Y-14.556
X-66.66 Y-14.554
X-67.361 Y-14.498
X-67.381 Y-14.496
X-68.103 Y-14.413
X-68.122 Y-14.41
X-68.866 Y-14.301
X-68.885 Y-14.298
X-69.649 Y-14.16
X-69.667 Y-14.157
X-70.449 Y-13.992
X-70.466 Y-13.988
X-71.26 Y-13.795
X-71.277 Y-13.791
X-72.076 Y-13.571
X-72.094 Y-13.566
X-72.892 Y-13.321
X-72.91 Y-13.315
X-73.699 Y-13.045
X-73.718 Y-13.039
X-74.491 Y-12.746
X-74.511 Y-12.738
X-75.258 Y-12.423
X-75.28 Y-12.414
X-75.993 Y-12.08
X-76.017 Y-12.067
X-76.686 Y-11.716
X-76.706 Y-11.705
X-77.022 Y-11.523
X-77.036 Y-11.514
X-77.337 Y-11.329
X-77.354 Y-11.319
X-77.639 Y-11.131
X-77.656 Y-11.119
X-77.926 Y-10.927
X-77.944 Y-10.914
X-78.196 Y-10.719
X-78.216 Y-10.703
X-78.45 Y-10.507
X-78.472 Y-10.488
X-78.686 Y-10.289
X-78.709 Y-10.266
X-78.903 Y-10.065
X-78.928 Y-10.039
X-79.101 Y-9.836
X-79.127 Y-9.804
X-79.279 Y-9.6
X-79.305 Y-9.562
X-79.434 Y-9.357
X-79.46 Y-9.313
X-79.566 Y-9.107
X-79.59 Y-9.055
X-79.674 Y-8.848
X-79.694 Y-8.79
X-79.754 Y-8.583
X-79.769 Y-8.518
X-79.805 Y-8.311
X-79.812 Y-8.243
X-79.824 Y-8.035
Y-7.965
X-79.812 Y-7.757
X-79.805 Y-7.689
X-79.769 Y-7.482
X-79.754 Y-7.417
X-79.694 Y-7.21
X-79.674 Y-7.152
X-79.59 Y-6.945
X-79.566 Y-6.893
X-79.46 Y-6.687
X-79.434 Y-6.643
X-79.305 Y-6.438
X-79.279 Y-6.4
X-79.127 Y-6.196
X-79.101 Y-6.164
X-78.928 Y-5.961
X-78.903 Y-5.935
X-78.709 Y-5.734
X-78.686 Y-5.711
X-78.472 Y-5.512
X-78.45 Y-5.493
X-78.216 Y-5.297
X-78.196 Y-5.281
X-77.944 Y-5.086
X-77.926 Y-5.073
X-77.656 Y-4.881
X-77.639 Y-4.869
X-77.354 Y-4.681
X-77.338 Y-4.671
X-77.037 Y-4.486
X-77.022 Y-4.477
X-76.706 Y-4.295
X-76.686 Y-4.284
X-76.017 Y-3.933
X-75.993 Y-3.92
X-75.28 Y-3.586
X-75.258 Y-3.577
X-74.511 Y-3.262
X-74.491 Y-3.254
X-73.718 Y-2.961
X-73.7 Y-2.955
X-72.91 Y-2.685
X-72.892 Y-2.679
X-72.094 Y-2.434
X-72.076 Y-2.429
X-71.277 Y-2.209
X-71.26 Y-2.205
X-70.466 Y-2.012
X-70.449 Y-2.008
X-69.667 Y-1.843
X-69.649 Y-1.84
X-68.885 Y-1.702
X-68.866 Y-1.699
X-68.122 Y-1.59
X-68.103 Y-1.587
X-67.381 Y-1.504
X-67.361 Y-1.502
X-66.66 Y-1.446
X-66.641 Y-1.444
X-65.959 Y-1.412
X-65.94 Y-1.411
X-65.272 Y-1.4
X-65.255
X-64.594 Y-1.408
X-64.58
X-63.921 Y-1.433
X-63.909
X-63.246 Y-1.471
X-63.233 Y-1.472
X-61.88 Y-1.579
X-61.869 Y-1.58
X-60.471 Y-1.719
X-60.464
X-59.027 Y-1.88
X-59.022 Y-1.881
X-57.564 Y-2.058
X-57.559
X-56.105 Y-2.249
X-56.099
X-54.676 Y-2.451
X-54.668 Y-2.452
X-53.301 Y-2.663
X-53.292 Y-2.665
X-51.996 Y-2.884
X-51.989 Y-2.886
X-50.759 Y-3.109
X-50.757
X-49.572 Y-3.328
X-48.39 Y-3.533
X-47.787 Y-3.626
X-47.163 Y-3.712
X-46.513 Y-3.789
X-45.831 Y-3.856
X-45.114 Y-3.913
X-44.36 Y-3.96
X-43.57 Y-3.996
X-43.45 Y-4
S5000
X-42.745 Y-4.022 Z-0.825 F333.3
X-41.888 Y-4.037 Z-0.855
X-41.002 Y-4.043 Z-0.886
X-39.149 Y-4.027 Z-0.95
X-37.724 Y-3.992 Z-1
S4000
X-37.222 Y-3.979 F1000
X-35.253 Y-3.907
X-33.281 Y-3.817
X-31.342 Y-3.72
X-29.469 Y-3.622
X-29.468
X-27.685 Y-3.533
X-27.682
X-25.998 Y-3.459
X-25.992
X-24.4 Y-3.404
X-24.391
X-22.869 Y-3.373
X-22.86
X-21.382 Y-3.366
X-21.372
X-19.913 Y-3.382
X-19.904 Y-3.383
X-18.444 Y-3.419
X-18.437
X-16.967 Y-3.472
X-16.962 Y-3.473
X-15.479 Y-3.538
X-15.476
X-13.981 Y-3.61
X-12.478 Y-3.684
X-10.974 Y-3.753
X-9.475 Y-3.814
X-7.991 Y-3.86
X-6.526 Y-3.89
X-5.082 Y-3.9
G2 X-4.662 Y-4.076 I-0.004 J-0.6
G1 X-1.869 Y-6.869
G2 X-1.869 Y-9.131 I-1.131 J-1.131
G1 X-4.662 Y-11.924
G2 X-5.082 Y-12.1 I-0.424 J0.424
G1 X-6.526 Y-12.11
X-7.991 Y-12.14
X-9.475 Y-12.187
X-10.974 Y-12.247
X-12.478 Y-12.316
X-13.981 Y-12.39
X-15.477 Y-12.462
X-15.479
X-16.962 Y-12.527
X-16.967 Y-12.528
X-18.437 Y-12.581
X-18.444
X-19.904 Y-12.617
X-19.913 Y-12.618
X-21.372 Y-12.634
X-21.382
X-22.86 Y-12.627
X-22.869
X-24.391 Y-12.596
X-24.4
X-25.992 Y-12.541
X-25.998
X-27.682 Y-12.467
X-27.685
X-29.468 Y-12.378
X-29.469
X-31.342 Y-12.28
X-33.281 Y-12.183
X-35.253 Y-12.093
X-37.222 Y-12.021
X-39.149 Y-11.973
X-41.002 Y-11.957
X-41.888 Y-11.963
X-42.745 Y-11.978
X-43.57 Y-12.004
X-44.36 Y-12.04
X-45.114 Y-12.087
X-45.831 Y-12.144
X-46.513 Y-12.211
X-47.163 Y-12.288
X-47.787 Y-12.374
X-48.39 Y-12.467
X-49.572 Y-12.672
X-50.757 Y-12.891
X-50.759
X-51.989 Y-13.114
X-51.996 Y-13.116
X-53.292 Y-13.335
X-53.301 Y-13.337
X-54.668 Y-13.548
X-54.676 Y-13.549
X-56.099 Y-13.75
X-56.105 Y-13.751
X-57.559 Y-13.942
X-57.564
X-59.022 Y-14.119
X-59.027 Y-14.12
X-60.464 Y-14.281
X-60.471
X-61.869 Y-14.42
X-61.88 Y-14.421
X-63.233 Y-14.528
X-63.246 Y-14.529
X-63.909 Y-14.567
X-63.921
X-64.58 Y-14.592
X-64.594
X-65.255 Y-14.6
X-65.272
X-65.94 Y-14.589
X-65.959 Y-14.588
X-66.641 Y-14.556
X-66.66 Y-14.554
X-67.361 Y-14.498
X-67.381 Y-14.496
X-68.103 Y-14.413
X-68.122 Y-14.41
X-68.866 Y-14.301
X-68.885 Y-14.298
X-69.649 Y-14.16
X-69.667 Y-14.157
X-70.449 Y-13.992
X-70.466 Y-13.988
X-71.26 Y-13.795
X-71.277 Y-13.791
X-72.076 Y-13.571
X-72.094 Y-13.566
X-72.892 Y-13.321
X-72.91 Y-13.315
X-73.699 Y-13.045
X-73.718 Y-13.039
X-74.491 Y-12.746
X-74.511 Y-12.738
X-75.258 Y-12.423
X-75.28 Y-12.414
X-75.993 Y-12.08
X-76.017 Y-12.067
X-76.686 Y-11.716
X-76.706 Y-11.705
X-77.022 Y-11.523
X-77.036 Y-11.514
X-77.337 Y-11.329
X-77.354 Y-11.319
X-77.639 Y-11.131
X-77.656 Y-11.119
X-77.926 Y-10.927
X-77.944 Y-10.914
X-78.196 Y-10.719
X-78.216 Y-10.703
X-78.45 Y-10.507
X-78.472 Y-10.488
X-78.686 Y-10.289
X-78.709 Y-10.266
X-78.903 Y-10.065
X-78.928 Y-10.039
X-79.101 Y-9.836
X-79.127 Y-9.804
X-79.279 Y-9.6
X-79.305 Y-9.562
X-79.434 Y-9.357
X-79.46 Y-9.313
X-79.566 Y-9.107
X-79.59 Y-9.055
X-79.674 Y-8.848
X-79.694 Y-8.79
X-79.754 Y-8.583
X-79.769 Y-8.518
X-79.805 Y-8.311
X-79.812 Y-8.243
X-79.824 Y-8.035
Y-7.965
X-79.812 Y-7.757
X-79.805 Y-7.689
X-79.769 Y-7.482
X-79.754 Y-7.417
X-79.694 Y-7.21
X-79.674 Y-7.152
X-79.59 Y-6.945
X-79.566 Y-6.893
X-79.46 Y-6.687
X-79.434 Y-6.643
X-79.305 Y-6.438
X-79.279 Y-6.4
X-79.127 Y-6.196
X-79.101 Y-6.164
X-78.928 Y-5.961
X-78.903 Y-5.935
X-78.709 Y-5.734
X-78.686 Y-5.711
X-78.472 Y-5.512
X-78.45 Y-5.493
X-78.216 Y-5.297
X-78.196 Y-5.281
X-77.944 Y-5.086
X-77.926 Y-5.073
X-77.656 Y-4.881
X-77.639 Y-4.869
X-77.354 Y-4.681
X-77.338 Y-4.671
X-77.037 Y-4.486
X-77.022 Y-4.477
X-76.706 Y-4.295
X-76.686 Y-4.284
X-76.017 Y-3.933
X-75.993 Y-3.92
X-75.28 Y-3.586
X-75.258 Y-3.577
X-74.511 Y-3.262
X-74.491 Y-3.254
X-73.718 Y-2.961
X-73.7 Y-2.955
X-72.91 Y-2.685
X-72.892 Y-2.679
X-72.094 Y-2.434
X-72.076 Y-2.429
X-71.277 Y-2.209
X-71.26 Y-2.205
X-70.466 Y-2.012
X-70.449 Y-2.008
X-69.667 Y-1.843
X-69.649 Y-1.84
X-68.885 Y-1.702
X-68.866 Y-1.699
X-68.122 Y-1.59
X-68.103 Y-1.587
X-67.381 Y-1.504
X-67.361 Y-1.502
X-66.66 Y-1.446
X-66.641 Y-1.444
X-65.959 Y-1.412
X-65.94 Y-1.411
X-65.272 Y-1.4
X-65.255
X-64.594 Y-1.408
X-64.58
X-63.921 Y-1.433
X-63.909
X-63.246 Y-1.471
X-63.233 Y-1.472
X-61.88 Y-1.579
X-61.869 Y-1.58
X-60.471 Y-1.719
X-60.464
X-59.027 Y-1.88
X-59.022 Y-1.881
X-57.564 Y-2.058
X-57.559
X-56.105 Y-2.249
X-56.099
X-54.676 Y-2.451
X-54.668 Y-2.452
X-53.301 Y-2.663
X-53.292 Y-2.665
X-51.996 Y-2.884
X-51.989 Y-2.886
X-50.759 Y-3.109
X-50.757
X-49.572 Y-3.328
X-48.39 Y-3.533
X-47.787 Y-3.626
X-47.163 Y-3.712
X-46.513 Y-3.789
X-45.831 Y-3.856
X-45.114 Y-3.913
X-44.36 Y-3.96
X-43.57 Y-3.996
X-42.745 Y-4.022
X-41.888 Y-4.037
X-41.002 Y-4.043
X-39.149 Y-4.027
X-37.724 Y-3.992
S5000
X-37.222 Y-3.979 Z-1.018 F333.3
X-35.253 Y-3.907 Z-1.086
X-33.281 Y-3.817 Z-1.155
X-32.002 Y-3.753 Z-1.2
S4000
X-31.342 Y-3.72 F1000
X-29.469 Y-3.622
X-29.468
X-27.685 Y-3.533
X-27.682
X-25.998 Y-3.459
X-25.992
X-24.4 Y-3.404
X-24.391
X-22.869 Y-3.373
X-22.86
X-21.382 Y-3.366
X-21.372
X-19.913 Y-3.382
X-19.904 Y-3.383
X-18.444 Y-3.419
X-18.437
X-16.967 Y-3.472
X-16.962 Y-3.473
X-15.479 Y-3.538
X-15.476
X-13.981 Y-3.61
X-12.478 Y-3.684
X-10.974 Y-3.753
X-9.475 Y-3.814
X-7.991 Y-3.86
X-6.526 Y-3.89
X-5.082 Y-3.9
G2 X-4.662 Y-4.076 I-0.004 J-0.6
G1 X-1.869 Y-6.869
G2 X-1.869 Y-9.131 I-1.131 J-1.131
G1 X-4.662 Y-11.924
G2 X-5.082 Y-12.1 I-0.424 J0.424
G1 X-6.526 Y-12.11
X-7.991 Y-12.14
X-9.475 Y-12.187
X-10.974 Y-12.247
X-12.478 Y-12.316
X-13.981 Y-12.39
X-15.477 Y-12.462
X-15.479
X-16.962 Y-12.527
X-16.967 Y-12.528
X-18.437 Y-12.581
X-18.444
X-19.904 Y-12.617
X-19.913 Y-12.618
X-21.372 Y-12.634
X-21.382
X-22.86 Y-12.627
X-22.869
X-24.391 Y-12.596
X-24.4
X-25.992 Y-12.541
X-25.998
X-27.682 Y-12.467
X-27.685
X-29.468 Y-12.378
X-29.469
X-31.342 Y-12.28
X-33.281 Y-12.183
X-35.253 Y-12.093
X-37.222 Y-12.021
X-39.149 Y-11.973
X-41.002 Y-11.957
X-41.888 Y-11.963
X-42.745 Y-11.978
X-43.57 Y-12.004
X-44.36 Y-12.04
X-45.114 Y-12.087
X-45.831 Y-12.144
X-46.513 Y-12.211
X-47.163 Y-12.288
X-47.787 Y-12.374
X-48.39 Y-12.467
X-49.572 Y-12.672
X-50.757 Y-12.891
X-50.759
X-51.989 Y-13.114
X-51.996 Y-13.116
X-53.292 Y-13.335
X-53.301 Y-13.337
X-54.668 Y-13.548
X-54.676 Y-13.549
X-56.099 Y-13.75
X-56.105 Y-13.751
X-57.559 Y-13.942
X-57.564
X-59.022 Y-14.119
X-59.027 Y-14.12
X-60.464 Y-14.281
X-60.471
X-61.869 Y-14.42
X-61.88 Y-14.421
X-63.233 Y-14.528
X-63.246 Y-14.529
X-63.909 Y-14.567
X-63.921
X-64.58 Y-14.592
X-64.594
X-65.255 Y-14.6
X-65.272
X-65.94 Y-14.589
X-65.959 Y-14.588
X-66.641 Y-14.556
X-66.66 Y-14.554
X-67.361 Y-14.498
X-67.381 Y-14.496
X-68.103 Y-14.413
X-68.122 Y-14.41
X-68.866 Y-14.301
X-68.885 Y-14.298
X-69.649 Y-14.16
X-69.667 Y-14.157
X-70.449 Y-13.992
X-70.466 Y-13.988
X-71.26 Y-13.795
X-71.277 Y-13.791
X-72.076 Y-13.571
X-72.094 Y-13.566
X-72.892 Y-13.321
X-72.91 Y-13.315
X-73.699 Y-13.045
X-73.718 Y-13.039
X-74.491 Y-12.746
X-74.511 Y-12.738
X-75.258 Y-12.423
X-75.28 Y-12.414
X-75.993 Y-12.08
X-76.017 Y-12.067
X-76.686 Y-11.716
X-76.706 Y-11.705
X-77.022 Y-11.523
X-77.036 Y-11.514
X-77.337 Y-11.329
X-77.354 Y-11.319
X-77.639 Y-11.131
X-77.656 Y-11.119
X-77.926 Y-10.927
X-77.944 Y-10.914
X-78.196 Y-10.719
X-78.216 Y-10.703
X-78.45 Y-10.507
X-78.472 Y-10.488
X-78.686 Y-10.289
X-78.709 Y-10.266
X-78.903 Y-10.065
X-78.928 Y-10.039
X-79.101 Y-9.836
X-79.127 Y-9.804
X-79.279 Y-9.6
X-79.305 Y-9.562
X-79.434 Y-9.357
X-79.46 Y-9.313
X-79.566 Y-9.107
X-79.59 Y-9.055
X-79.674 Y-8.848
X-79.694 Y-8.79
X-79.754 Y-8.583
X-79.769 Y-8.518
X-79.805 Y-8.311
X-79.812 Y-8.243
X-79.824 Y-8.035
Y-7.965
X-79.812 Y-7.757
X-79.805 Y-7.689
X-79.769 Y-7.482
X-79.754 Y-7.417
X-79.694 Y-7.21
X-79.674 Y-7.152
X-79.59 Y-6.945
X-79.566 Y-6.893
X-79.46 Y-6.687
X-79.434 Y-6.643
X-79.305 Y-6.438
X-79.279 Y-6.4
X-79.127 Y-6.196
X-79.101 Y-6.164
X-78.928 Y-5.961
X-78.903 Y-5.935
X-78.709 Y-5.734
X-78.686 Y-5.711
X-78.472 Y-5.512
X-78.45 Y-5.493
X-78.216 Y-5.297
X-78.196 Y-5.281
X-77.944 Y-5.086
X-77.926 Y-5.073
X-77.656 Y-4.881
X-77.639 Y-4.869
X-77.354 Y-4.681
X-77.338 Y-4.671
X-77.037 Y-4.486
X-77.022 Y-4.477
X-76.706 Y-4.295
X-76.686 Y-4.284
X-76.017 Y-3.933
X-75.993 Y-3.92
X-75.28 Y-3.586
X-75.258 Y-3.577
X-74.511 Y-3.262
X-74.491 Y-3.254
X-73.718 Y-2.961
X-73.7 Y-2.955
X-72.91 Y-2.685
X-72.892 Y-2.679
X-72.094 Y-2.434
X-72.076 Y-2.429
X-71.277 Y-2.209
X-71.26 Y-2.205
X-70.466 Y-2.012
X-70.449 Y-2.008
X-69.667 Y-1.843
X-69.649 Y-1.84
X-68.885 Y-1.702
X-68.866 Y-1.699
X-68.122 Y-1.59
X-68.103 Y-1.587
X-67.381 Y-1.504
X-67.361 Y-1.502
X-66.66 Y-1.446
X-66.641 Y-1.444
X-65.959 Y-1.412
X-65.94 Y-1.411
X-65.272 Y-1.4
X-65.255
X-64.594 Y-1.408
X-64.58
X-63.921 Y-1.433
X-63.909
X-63.246 Y-1.471
X-63.233 Y-1.472
X-61.88 Y-1.579
X-61.869 Y-1.58
X-60.471 Y-1.719
X-60.464
X-59.027 Y-1.88
X-59.022 Y-1.881
X-57.564 Y-2.058
X-57.559
X-56.105 Y-2.249
X-56.099
X-54.676 Y-2.451
X-54.668 Y-2.452
X-53.301 Y-2.663
X-53.292 Y-2.665
X-51.996 Y-2.884
X-51.989 Y-2.886
X-50.759 Y-3.109
X-50.757
X-49.572 Y-3.328
X-48.39 Y-3.533
X-47.787 Y-3.626
X-47.163 Y-3.712
X-46.513 Y-3.789
X-45.831 Y-3.856
X-45.114 Y-3.913
X-44.36 Y-3.96
X-43.57 Y-3.996
X-42.745 Y-4.022
X-41.888 Y-4.037
X-41.002 Y-4.043
X-39.149 Y-4.027
X-37.724 Y-3.992
X-37.222 Y-3.979
X-35.253 Y-3.907
X-33.281 Y-3.817
X-32.002 Y-3.753
S5000
X-31.342 Y-3.72 Z-1.223 F333.3
X-29.469 Y-3.622 Z-1.289
X-29.468
X-27.685 Y-3.533 Z-1.351
X-27.682
X-26.281 Y-3.471 Z-1.4
S4000
X-25.998 Y-3.459 F1000
X-25.992
X-24.4 Y-3.404
X-24.391
X-22.869 Y-3.373
X-22.86
X-21.382 Y-3.366
X-21.372
X-19.913 Y-3.382
X-19.904 Y-3.383
X-18.444 Y-3.419
X-18.437
X-16.967 Y-3.472
X-16.962 Y-3.473
X-15.479 Y-3.538
X-15.476
X-13.981 Y-3.61
X-12.478 Y-3.684
X-10.974 Y-3.753
X-9.475 Y-3.814
X-7.991 Y-3.86
X-6.526 Y-3.89
X-5.082 Y-3.9
G2 X-4.662 Y-4.076 I-0.004 J-0.6
G1 X-1.869 Y-6.869
G2 X-1.869 Y-9.131 I-1.131 J-1.131
G1 X-4.662 Y-11.924
G2 X-5.082 Y-12.1 I-0.424 J0.424
G1 X-6.526 Y-12.11
X-7.991 Y-12.14
X-9.475 Y-12.187
X-10.974 Y-12.247
X-12.478 Y-12.316
X-13.981 Y-12.39
X-15.477 Y-12.462
X-15.479
X-16.962 Y-12.527
X-16.967 Y-12.528
X-18.437 Y-12.581
X-18.444
X-19.904 Y-12.617
X-19.913 Y-12.618
X-21.372 Y-12.634
X-21.382
X-22.86 Y-12.627
X-22.869
X-24.391 Y-12.596
X-24.4
X-25.992 Y-12.541
X-25.998
X-27.682 Y-12.467
X-27.685
X-29.468 Y-12.378
X-29.469
X-31.342 Y-12.28
X-33.281 Y-12.183
X-35.253 Y-12.093
X-37.222 Y-12.021
X-39.149 Y-11.973
X-41.002 Y-11.957
X-41.888 Y-11.963
X-42.745 Y-11.978
X-43.57 Y-12.004
X-44.36 Y-12.04
X-45.114 Y-12.087
X-45.831 Y-12.144
X-46.513 Y-12.211
X-47.163 Y-12.288
X-47.787 Y-12.374
X-48.39 Y-12.467
X-49.572 Y-12.672
X-50.757 Y-12.891
X-50.759
X-51.989 Y-13.114
X-51.996 Y-13.116
X-53.292 Y-13.335
X-53.301 Y-13.337
X-54.668 Y-13.548
X-54.676 Y-13.549
X-56.099 Y-13.75
X-56.105 Y-13.751
X-57.559 Y-13.942
X-57.564
X-59.022 Y-14.119
X-59.027 Y-14.12
X-60.464 Y-14.281
X-60.471
X-61.869 Y-14.42
X-61.88 Y-14.421
X-63.233 Y-14.528
X-63.246 Y-14.529
X-63.909 Y-14.567
X-63.921
X-64.58 Y-14.592
X-64.594
X-65.255 Y-14.6
X-65.272
X-65.94 Y-14.589
X-65.959 Y-14.588
X-66.641 Y-14.556
X-66.66 Y-14.554
X-67.361 Y-14.498
X-67.381 Y-14.496
X-68.103 Y-14.413
X-68.122 Y-14.41
X-68.866 Y-14.301
X-68.885 Y-14.298
X-69.649 Y-14.16
X-69.667 Y-14.157
X-70.449 Y-13.992
X-70.466 Y-13.988
X-71.26 Y-13.795
X-71.277 Y-13.791
X-72.076 Y-13.571
X-72.094 Y-13.566
X-72.892 Y-13.321
X-72.91 Y-13.315
X-73.699 Y-13.045
X-73.718 Y-13.039
X-74.491 Y-12.746
X-74.511 Y-12.738
X-75.258 Y-12.423
X-75.28 Y-12.414
X-75.993 Y-12.08
X-76.017 Y-12.067
X-76.686 Y-11.716
X-76.706 Y-11.705
X-77.022 Y-11.523
X-77.036 Y-11.514
X-77.337 Y-11.329
X-77.354 Y-11.319
X-77.639 Y-11.131
X-77.656 Y-11.119
X-77.926 Y-10.927
X-77.944 Y-10.914
X-78.196 Y-10.719
X-78.216 Y-10.703
X-78.45 Y-10.507
X-78.472 Y-10.488
X-78.686 Y-10.289
X-78.709 Y-10.266
X-78.903 Y-10.065
X-78.928 Y-10.039
X-79.101 Y-9.836
X-79.127 Y-9.804
X-79.279 Y-9.6
X-79.305 Y-9.562
X-79.434 Y-9.357
X-79.46 Y-9.313
X-79.566 Y-9.107
X-79.59 Y-9.055
X-79.674 Y-8.848
X-79.694 Y-8.79
X-79.754 Y-8.583
X-79.769 Y-8.518
X-79.805 Y-8.311
X-79.812 Y-8.243
X-79.824 Y-8.035
Y-7.965
X-79.812 Y-7.757
X-79.805 Y-7.689
X-79.769 Y-7.482
X-79.754 Y-7.417
X-79.694 Y-7.21
X-79.674 Y-7.152
X-79.59 Y-6.945
X-79.566 Y-6.893
X-79.46 Y-6.687
X-79.434 Y-6.643
X-79.305 Y-6.438
X-79.279 Y-6.4
X-79.127 Y-6.196
X-79.101 Y-6.164
X-78.928 Y-5.961
X-78.903 Y-5.935
X-78.709 Y-5.734
X-78.686 Y-5.711
X-78.472 Y-5.512
X-78.45 Y-5.493
X-78.216 Y-5.297
X-78.196 Y-5.281
X-77.944 Y-5.086
X-77.926 Y-5.073
X-77.656 Y-4.881
X-77.639 Y-4.869
X-77.354 Y-4.681
X-77.338 Y-4.671
X-77.037 Y-4.486
X-77.022 Y-4.477
X-76.706 Y-4.295
X-76.686 Y-4.284
X-76.017 Y-3.933
X-75.993 Y-3.92
X-75.28 Y-3.586
X-75.258 Y-3.577
X-74.511 Y-3.262
X-74.491 Y-3.254
X-73.718 Y-2.961
X-73.7 Y-2.955
X-72.91 Y-2.685
X-72.892 Y-2.679
X-72.094 Y-2.434
X-72.076 Y-2.429
X-71.277 Y-2.209
X-71.26 Y-2.205
X-70.466 Y-2.012
X-70.449 Y-2.008
X-69.667 Y-1.843
X-69.649 Y-1.84
X-68.885 Y-1.702
X-68.866 Y-1.699
X-68.122 Y-1.59
X-68.103 Y-1.587
X-67.381 Y-1.504
X-67.361 Y-1.502
X-66.66 Y-1.446
X-66.641 Y-1.444
X-65.959 Y-1.412
X-65.94 Y-1.411
X-65.272 Y-1.4
X-65.255
X-64.594 Y-1.408
X-64.58
X-63.921 Y-1.433
X-63.909
X-63.246 Y-1.471
X-63.233 Y-1.472
X-61.88 Y-1.579
X-61.869 Y-1.58
X-60.471 Y-1.719
X-60.464
X-59.027 Y-1.88
X-59.022 Y-1.881
X-57.564 Y-2.058
X-57.559
X-56.105 Y-2.249
X-56.099
X-54.676 Y-2.451
X-54.668 Y-2.452
X-53.301 Y-2.663
X-53.292 Y-2.665
X-51.996 Y-2.884
X-51.989 Y-2.886
X-50.759 Y-3.109
X-50.757
X-49.572 Y-3.328
X-48.39 Y-3.533
X-47.787 Y-3.626
X-47.163 Y-3.712
X-46.513 Y-3.789
X-45.831 Y-3.856
X-45.114 Y-3.913
X-44.36 Y-3.96
X-43.57 Y-3.996
X-42.745 Y-4.022
X-41.888 Y-4.037
X-41.002 Y-4.043
X-39.149 Y-4.027
X-37.222 Y-3.979
X-35.253 Y-3.907
X-33.281 Y-3.817
X-32.002 Y-3.753
X-31.342 Y-3.72
X-29.469 Y-3.622
X-29.468
X-27.685 Y-3.533
X-27.682
X-26.281 Y-3.471
S5000
X-25.998 Y-3.459 Z-1.41 F333.3
X-25.992
X-24.4 Y-3.404 Z-1.466
X-24.391
X-22.869 Y-3.373 Z-1.519
X-22.86 Z-1.52
X-21.382 Y-3.366 Z-1.571
X-21.372
X-20.556 Y-3.375 Z-1.6
S4000
X-19.913 Y-3.382 F1000
X-19.904 Y-3.383
X-18.444 Y-3.419
X-18.437
X-16.967 Y-3.472
X-16.962 Y-3.473
X-15.479 Y-3.538
X-15.476
X-13.981 Y-3.61
X-12.478 Y-3.684
X-10.974 Y-3.753
X-9.475 Y-3.814
X-7.991 Y-3.86
X-6.526 Y-3.89
X-5.082 Y-3.9
G2 X-4.662 Y-4.076 I-0.004 J-0.6
G1 X-1.869 Y-6.869
G2 X-1.869 Y-9.131 I-1.131 J-1.131
G1 X-4.662 Y-11.924
G2 X-5.082 Y-12.1 I-0.424 J0.424
G1 X-6.526 Y-12.11
X-7.991 Y-12.14
X-9.475 Y-12.187
X-10.974 Y-12.247
X-12.478 Y-12.316
X-13.981 Y-12.39
X-15.477 Y-12.462
X-15.479
X-16.962 Y-12.527
X-16.967 Y-12.528
X-18.437 Y-12.581
X-18.444
X-19.904 Y-12.617
X-19.913 Y-12.618
X-21.372 Y-12.634
X-21.382
X-22.86 Y-12.627
X-22.869
X-24.391 Y-12.596
X-24.4
X-25.992 Y-12.541
X-25.998
X-27.682 Y-12.467
X-27.685
X-29.468 Y-12.378
X-29.469
X-31.342 Y-12.28
X-33.281 Y-12.183
X-35.253 Y-12.093
X-37.222 Y-12.021
X-39.149 Y-11.973
X-41.002 Y-11.957
X-41.888 Y-11.963
X-42.745 Y-11.978
X-43.57 Y-12.004
X-44.36 Y-12.04
X-45.114 Y-12.087
X-45.831 Y-12.144
X-46.513 Y-12.211
X-47.163 Y-12.288
X-47.787 Y-12.374
X-48.39 Y-12.467
X-49.572 Y-12.672
X-50.757 Y-12.891
X-50.759
X-51.989 Y-13.114
X-51.996 Y-13.116
X-53.292 Y-13.335
X-53.301 Y-13.337
X-54.668 Y-13.548
X-54.676 Y-13.549
X-56.099 Y-13.75
X-56.105 Y-13.751
X-57.559 Y-13.942
X-57.564
X-59.022 Y-14.119
X-59.027 Y-14.12
X-60.464 Y-14.281
X-60.471
X-61.869 Y-14.42
X-61.88 Y-14.421
X-63.233 Y-14.528
X-63.246 Y-14.529
X-63.909 Y-14.567
X-63.921
X-64.58 Y-14.592
X-64.594
X-65.255 Y-14.6
X-65.272
X-65.94 Y-14.589
X-65.959 Y-14.588
X-66.641 Y-14.556
X-66.66 Y-14.554
X-67.361 Y-14.498
X-67.381 Y-14.496
X-68.103 Y-14.413
X-68.122 Y-14.41
X-68.866 Y-14.301
X-68.885 Y-14.298
X-69.649 Y-14.16
X-69.667 Y-14.157
X-70.449 Y-13.992
X-70.466 Y-13.988
X-71.26 Y-13.795
X-71.277 Y-13.791
X-72.076 Y-13.571
X-72.094 Y-13.566
X-72.892 Y-13.321
X-72.91 Y-13.315
X-73.699 Y-13.045
X-73.718 Y-13.039
X-74.491 Y-12.746
X-74.511 Y-12.738
X-75.258 Y-12.423
X-75.28 Y-12.414
X-75.993 Y-12.08
X-76.017 Y-12.067
X-76.686 Y-11.716
X-76.706 Y-11.705
X-77.022 Y-11.523
X-77.036 Y-11.514
X-77.337 Y-11.329
X-77.354 Y-11.319
X-77.639 Y-11.131
X-77.656 Y-11.119
X-77.926 Y-10.927
X-77.944 Y-10.914
X-78.196 Y-10.719
X-78.216 Y-10.703
X-78.45 Y-10.507
X-78.472 Y-10.488
X-78.686 Y-10.289
X-78.709 Y-10.266
X-78.903 Y-10.065
X-78.928 Y-10.039
X-79.101 Y-9.836
X-79.127 Y-9.804
X-79.279 Y-9.6
X-79.305 Y-9.562
X-79.434 Y-9.357
X-79.46 Y-9.313
X-79.566 Y-9.107
X-79.59 Y-9.055
X-79.674 Y-8.848
X-79.694 Y-8.79
X-79.754 Y-8.583
X-79.769 Y-8.518
X-79.805 Y-8.311
X-79.812 Y-8.243
X-79.824 Y-8.035
Y-7.965
X-79.812 Y-7.757
X-79.805 Y-7.689
X-79.769 Y-7.482
X-79.754 Y-7.417
X-79.694 Y-7.21
X-79.674 Y-7.152
X-79.59 Y-6.945
X-79.566 Y-6.893
X-79.46 Y-6.687
X-79.434 Y-6.643
X-79.305 Y-6.438
X-79.279 Y-6.4
X-79.127 Y-6.196
X-79.101 Y-6.164
X-78.928 Y-5.961
X-78.903 Y-5.935
X-78.709 Y-5.734
X-78.686 Y-5.711
X-78.472 Y-5.512
X-78.45 Y-5.493
X-78.216 Y-5.297
X-78.196 Y-5.281
X-77.944 Y-5.086
X-77.926 Y-5.073
X-77.656 Y-4.881
X-77.639 Y-4.869
X-77.354 Y-4.681
X-77.338 Y-4.671
X-77.037 Y-4.486
X-77.022 Y-4.477
X-76.706 Y-4.295
X-76.686 Y-4.284
X-76.017 Y-3.933
X-75.993 Y-3.92
X-75.28 Y-3.586
X-75.258 Y-3.577
X-74.511 Y-3.262
X-74.491 Y-3.254
X-73.718 Y-2.961
X-73.7 Y-2.955
X-72.91 Y-2.685
X-72.892 Y-2.679
X-72.094 Y-2.434
X-72.076 Y-2.429
X-71.277 Y-2.209
X-71.26 Y-2.205
X-70.466 Y-2.012
X-70.449 Y-2.008
X-69.667 Y-1.843
X-69.649 Y-1.84
X-68.885 Y-1.702
X-68.866 Y-1.699
X-68.122 Y-1.59
X-68.103 Y-1.587
X-67.381 Y-1.504
X-67.361 Y-1.502
X-66.66 Y-1.446
X-66.641 Y-1.444
X-65.959 Y-1.412
X-65.94 Y-1.411
X-65.272 Y-1.4
X-65.255
X-64.594 Y-1.408
X-64.58
X-63.921 Y-1.433
X-63.909
X-63.246 Y-1.471
X-63.233 Y-1.472
X-61.88 Y-1.579
X-61.869 Y-1.58
X-60.471 Y-1.719
X-60.464
X-59.027 Y-1.88
X-59.022 Y-1.881
X-57.564 Y-2.058
X-57.559
X-56.105 Y-2.249
X-56.099
X-54.676 Y-2.451
X-54.668 Y-2.452
X-53.301 Y-2.663
X-53.292 Y-2.665
X-51.996 Y-2.884
X-51.989 Y-2.886
X-50.759 Y-3.109
X-50.757
X-49.572 Y-3.328
X-48.39 Y-3.533
X-47.787 Y-3.626
X-47.163 Y-3.712
X-46.513 Y-3.789
X-45.831 Y-3.856
X-45.114 Y-3.913
X-44.36 Y-3.96
X-43.57 Y-3.996
X-42.745 Y-4.022
X-41.888 Y-4.037
X-41.002 Y-4.043
X-39.149 Y-4.027
X-37.222 Y-3.979
X-35.253 Y-3.907
X-33.281 Y-3.817
X-31.342 Y-3.72
X-29.469 Y-3.622
X-29.468
X-27.685 Y-3.533
X-27.682
X-26.281 Y-3.471
X-25.998 Y-3.459
X-25.992
X-24.4 Y-3.404
X-24.391
X-22.869 Y-3.373
X-22.86
X-21.382 Y-3.366
X-21.372
X-20.556 Y-3.375
S5000
X-19.913 Y-3.382 Z-1.622 F333.3
X-19.904 Y-3.383 Z-1.623
X-18.444 Y-3.419 Z-1.674
X-18.437
X-16.967 Y-3.472 Z-1.725
X-16.962 Y-3.473 Z-1.726
X-15.479 Y-3.538 Z-1.777
X-15.476
X-14.832 Y-3.569 Z-1.8
S4000
X-13.981 Y-3.61 F1000
X-12.478 Y-3.684
X-10.974 Y-3.753
X-9.475 Y-3.814
X-7.991 Y-3.86
X-6.526 Y-3.89
X-5.082 Y-3.9
G2 X-4.662 Y-4.076 I-0.004 J-0.6
G1 X-1.869 Y-6.869
G2 X-1.869 Y-9.131 I-1.131 J-1.131
G1 X-4.662 Y-11.924
G2 X-5.082 Y-12.1 I-0.424 J0.424
G1 X-6.526 Y-12.11
X-7.991 Y-12.14
X-9.475 Y-12.187
X-10.974 Y-12.247
X-12.478 Y-12.316
X-13.981 Y-12.39
X-15.477 Y-12.462
X-15.479
X-16.962 Y-12.527
X-16.967 Y-12.528
X-18.437 Y-12.581
X-18.444
X-19.904 Y-12.617
X-19.913 Y-12.618
X-21.372 Y-12.634
X-21.382
X-22.86 Y-12.627
X-22.869
X-24.391 Y-12.596
X-24.4
X-25.992 Y-12.541
X-25.998
X-27.682 Y-12.467
X-27.685
X-29.468 Y-12.378
X-29.469
X-31.342 Y-12.28
X-33.281 Y-12.183
X-35.253 Y-12.093
X-37.222 Y-12.021
X-39.149 Y-11.973
X-41.002 Y-11.957
X-41.888 Y-11.963
X-42.745 Y-11.978
X-43.57 Y-12.004
X-44.36 Y-12.04
X-45.114 Y-12.087
X-45.831 Y-12.144
X-46.513 Y-12.211
X-47.163 Y-12.288
X-47.787 Y-12.374
X-48.39 Y-12.467
X-49.572 Y-12.672
X-50.757 Y-12.891
X-50.759
X-51.989 Y-13.114
X-51.996 Y-13.116
X-53.292 Y-13.335
X-53.301 Y-13.337
X-54.668 Y-13.548
X-54.676 Y-13.549
X-56.099 Y-13.75
X-56.105 Y-13.751
X-57.559 Y-13.942
X-57.564
X-59.022 Y-14.119
X-59.027 Y-14.12
X-60.464 Y-14.281
X-60.471
X-61.869 Y-14.42
X-61.88 Y-14.421
X-63.233 Y-14.528
X-63.246 Y-14.529
X-63.909 Y-14.567
X-63.921
X-64.58 Y-14.592
X-64.594
X-65.255 Y-14.6
X-65.272
X-65.94 Y-14.589
X-65.959 Y-14.588
X-66.641 Y-14.556
X-66.66 Y-14.554
X-67.361 Y-14.498
X-67.381 Y-14.496
X-68.103 Y-14.413
X-68.122 Y-14.41
X-68.866 Y-14.301
X-68.885 Y-14.298
X-69.649 Y-14.16
X-69.667 Y-14.157
X-70.449 Y-13.992
X-70.466 Y-13.988
X-71.26 Y-13.795
X-71.277 Y-13.791
X-72.076 Y-13.571
X-72.094 Y-13.566
X-72.892 Y-13.321
X-72.91 Y-13.315
X-73.699 Y-13.045
X-73.718 Y-13.039
X-74.491 Y-12.746
X-74.511 Y-12.738
X-75.258 Y-12.423
X-75.28 Y-12.414
X-75.993 Y-12.08
X-76.017 Y-12.067
X-76.686 Y-11.716
X-76.706 Y-11.705
X-77.022 Y-11.523
X-77.036 Y-11.514
X-77.337 Y-11.329
X-77.354 Y-11.319
X-77.639 Y-11.131
X-77.656 Y-11.119
X-77.926 Y-10.927
X-77.944 Y-10.914
X-78.196 Y-10.719
X-78.216 Y-10.703
X-78.45 Y-10.507
X-78.472 Y-10.488
X-78.686 Y-10.289
X-78.709 Y-10.266
X-78.903 Y-10.065
X-78.928 Y-10.039
X-79.101 Y-9.836
X-79.127 Y-9.804
X-79.279 Y-9.6
X-79.305 Y-9.562
X-79.434 Y-9.357
X-79.46 Y-9.313
X-79.566 Y-9.107
X-79.59 Y-9.055
X-79.674 Y-8.848
X-79.694 Y-8.79
X-79.754 Y-8.583
X-79.769 Y-8.518
X-79.805 Y-8.311
X-79.812 Y-8.243
X-79.824 Y-8.035
Y-7.965
X-79.812 Y-7.757
X-79.805 Y-7.689
X-79.769 Y-7.482
X-79.754 Y-7.417
X-79.694 Y-7.21
X-79.674 Y-7.152
X-79.59 Y-6.945
X-79.566 Y-6.893
X-79.46 Y-6.687
X-79.434 Y-6.643
X-79.305 Y-6.438
X-79.279 Y-6.4
X-79.127 Y-6.196
X-79.101 Y-6.164
X-78.928 Y-5.961
X-78.903 Y-5.935
X-78.709 Y-5.734
X-78.686 Y-5.711
X-78.472 Y-5.512
X-78.45 Y-5.493
X-78.216 Y-5.297
X-78.196 Y-5.281
X-77.944 Y-5.086
X-77.926 Y-5.073
X-77.656 Y-4.881
X-77.639 Y-4.869
X-77.354 Y-4.681
X-77.338 Y-4.671
X-77.037 Y-4.486
X-77.022 Y-4.477
X-76.706 Y-4.295
X-76.686 Y-4.284
X-76.017 Y-3.933
X-75.993 Y-3.92
X-75.28 Y-3.586
X-75.258 Y-3.577
X-74.511 Y-3.262
X-74.491 Y-3.254
X-73.718 Y-2.961
X-73.7 Y-2.955
X-72.91 Y-2.685
X-72.892 Y-2.679
X-72.094 Y-2.434
X-72.076 Y-2.429
X-71.277 Y-2.209
X-71.26 Y-2.205
X-70.466 Y-2.012
X-70.449 Y-2.008
X-69.667 Y-1.843
X-69.649 Y-1.84
X-68.885 Y-1.702
X-68.866 Y-1.699
X-68.122 Y-1.59
X-68.103 Y-1.587
X-67.381 Y-1.504
X-67.361 Y-1.502
X-66.66 Y-1.446
X-66.641 Y-1.444
X-65.959 Y-1.412
X-65.94 Y-1.411
X-65.272 Y-1.4
X-65.255
X-64.594 Y-1.408
X-64.58
X-63.921 Y-1.433
X-63.909
X-63.246 Y-1.471
X-63.233 Y-1.472
X-61.88 Y-1.579
X-61.869 Y-1.58
X-60.471 Y-1.719
X-60.464
X-59.027 Y-1.88
X-59.022 Y-1.881
X-57.564 Y-2.058
X-57.559
X-56.105 Y-2.249
X-56.099
X-54.676 Y-2.451
X-54.668 Y-2.452
X-53.301 Y-2.663
X-53.292 Y-2.665
X-51.996 Y-2.884
X-51.989 Y-2.886
X-50.759 Y-3.109
X-50.757
X-49.572 Y-3.328
X-48.39 Y-3.533
X-47.787 Y-3.626
X-47.163 Y-3.712
X-46.513 Y-3.789
X-45.831 Y-3.856
X-45.114 Y-3.913
X-44.36 Y-3.96
X-43.57 Y-3.996
X-42.745 Y-4.022
X-41.888 Y-4.037
X-41.002 Y-4.043
X-39.149 Y-4.027
X-37.222 Y-3.979
X-35.253 Y-3.907
X-33.281 Y-3.817
X-31.342 Y-3.72
X-29.469 Y-3.622
X-29.468
X-27.685 Y-3.533
X-27.682
X-25.998 Y-3.459
X-25.992
X-24.4 Y-3.404
X-24.391
X-22.869 Y-3.373
X-22.86
X-21.382 Y-3.366
X-21.372
X-20.556 Y-3.375
X-19.913 Y-3.382
X-19.904 Y-3.383
X-18.444 Y-3.419
X-18.437
X-16.967 Y-3.472
X-16.962 Y-3.473
X-15.479 Y-3.538
X-15.476
X-14.832 Y-3.569
S5000
X-13.981 Y-3.61 Z-1.83 F333.3
X-12.478 Y-3.684 Z-1.882
X-10.974 Y-3.753 Z-1.935
X-9.475 Y-3.814 Z-1.987
X-9.111 Y-3.825 Z-2
S4000
X-7.991 Y-3.86 F1000
X-6.526 Y-3.89
X-5.082 Y-3.9
G2 X-4.662 Y-4.076 I-0.004 J-0.6
G1 X-1.869 Y-6.869
G2 X-1.869 Y-9.131 I-1.131 J-1.131
G1 X-4.662 Y-11.924
G2 X-5.082 Y-12.1 I-0.424 J0.424
G1 X-6.526 Y-12.11
X-7.991 Y-12.14
X-9.475 Y-12.187
X-10.974 Y-12.247
X-12.478 Y-12.316
X-13.981 Y-12.39
X-15.477 Y-12.462
X-15.479
X-16.962 Y-12.527
X-16.967 Y-12.528
X-18.437 Y-12.581
X-18.444
X-19.904 Y-12.617
X-19.913 Y-12.618
X-21.372 Y-12.634
X-21.382
X-22.86 Y-12.627
X-22.869
X-24.391 Y-12.596
X-24.4
X-25.992 Y-12.541
X-25.998
X-27.682 Y-12.467
X-27.685
X-29.468 Y-12.378
X-29.469
X-31.342 Y-12.28
X-33.281 Y-12.183
X-35.253 Y-12.093
X-37.222 Y-12.021
X-39.149 Y-11.973
X-41.002 Y-11.957
X-41.888 Y-11.963
X-42.745 Y-11.978
X-43.57 Y-12.004
X-44.36 Y-12.04
X-45.114 Y-12.087
X-45.831 Y-12.144
X-46.513 Y-12.211
X-47.163 Y-12.288
X-47.787 Y-12.374
X-48.39 Y-12.467
X-49.572 Y-12.672
X-50.757 Y-12.891
X-50.759
X-51.989 Y-13.114
X-51.996 Y-13.116
X-53.292 Y-13.335
X-53.301 Y-13.337
X-54.668 Y-13.548
X-54.676 Y-13.549
X-56.099 Y-13.75
X-56.105 Y-13.751
X-57.559 Y-13.942
X-57.564
X-59.022 Y-14.119
X-59.027 Y-14.12
X-60.464 Y-14.281
X-60.471
X-61.869 Y-14.42
X-61.88 Y-14.421
X-63.233 Y-14.528
X-63.246 Y-14.529
X-63.909 Y-14.567
X-63.921
X-64.58 Y-14.592
X-64.594
X-65.255 Y-14.6
X-65.272
X-65.94 Y-14.589
X-65.959 Y-14.588
X-66.641 Y-14.556
X-66.66 Y-14.554
X-67.361 Y-14.498
X-67.381 Y-14.496
X-68.103 Y-14.413
X-68.122 Y-14.41
X-68.866 Y-14.301
X-68.885 Y-14.298
X-69.649 Y-14.16
X-69.667 Y-14.157
X-70.449 Y-13.992
X-70.466 Y-13.988
X-71.26 Y-13.795
X-71.277 Y-13.791
X-72.076 Y-13.571
X-72.094 Y-13.566
X-72.892 Y-13.321
X-72.91 Y-13.315
X-73.699 Y-13.045
X-73.718 Y-13.039
X-74.491 Y-12.746
X-74.511 Y-12.738
X-75.258 Y-12.423
X-75.28 Y-12.414
X-75.993 Y-12.08
X-76.017 Y-12.067
X-76.686 Y-11.716
X-76.706 Y-11.705
X-77.022 Y-11.523
X-77.036 Y-11.514
X-77.337 Y-11.329
X-77.354 Y-11.319
X-77.639 Y-11.131
X-77.656 Y-11.119
X-77.926 Y-10.927
X-77.944 Y-10.914
X-78.196 Y-10.719
X-78.216 Y-10.703
X-78.45 Y-10.507
X-78.472 Y-10.488
X-78.686 Y-10.289
X-78.709 Y-10.266
X-78.903 Y-10.065
X-78.928 Y-10.039
X-79.101 Y-9.836
X-79.127 Y-9.804
X-79.279 Y-9.6
X-79.305 Y-9.562
X-79.434 Y-9.357
X-79.46 Y-9.313
X-79.566 Y-9.107
X-79.59 Y-9.055
X-79.674 Y-8.848
X-79.694 Y-8.79
X-79.754 Y-8.583
X-79.769 Y-8.518
X-79.805 Y-8.311
X-79.812 Y-8.243
X-79.824 Y-8.035
Y-7.965
X-79.812 Y-7.757
X-79.805 Y-7.689
X-79.769 Y-7.482
X-79.754 Y-7.417
X-79.694 Y-7.21
X-79.674 Y-7.152
X-79.59 Y-6.945
X-79.566 Y-6.893
X-79.46 Y-6.687
X-79.434 Y-6.643
X-79.305 Y-6.438
X-79.279 Y-6.4
X-79.127 Y-6.196
X-79.101 Y-6.164
X-78.928 Y-5.961
X-78.903 Y-5.935
X-78.709 Y-5.734
X-78.686 Y-5.711
X-78.472 Y-5.512
X-78.45 Y-5.493
X-78.216 Y-5.297
X-78.196 Y-5.281
X-77.944 Y-5.086
X-77.926 Y-5.073
X-77.656 Y-4.881
X-77.639 Y-4.869
X-77.354 Y-4.681
X-77.338 Y-4.671
X-77.037 Y-4.486
X-77.022 Y-4.477
X-76.706 Y-4.295
X-76.686 Y-4.284
X-76.017 Y-3.933
X-75.993 Y-3.92
X-75.28 Y-3.586
X-75.258 Y-3.577
X-74.511 Y-3.262
X-74.491 Y-3.254
X-73.718 Y-2.961
X-73.7 Y-2.955
X-72.91 Y-2.685
X-72.892 Y-2.679
X-72.094 Y-2.434
X-72.076 Y-2.429
X-71.277 Y-2.209
X-71.26 Y-2.205
X-70.466 Y-2.012
X-70.449 Y-2.008
X-69.667 Y-1.843
X-69.649 Y-1.84
X-68.885 Y-1.702
X-68.866 Y-1.699
X-68.122 Y-1.59
X-68.103 Y-1.587
X-67.381 Y-1.504
X-67.361 Y-1.502
X-66.66 Y-1.446
X-66.641 Y-1.444
X-65.959 Y-1.412
X-65.94 Y-1.411
X-65.272 Y-1.4
X-65.255
X-64.594 Y-1.408
X-64.58
X-63.921 Y-1.433
X-63.909
X-63.246 Y-1.471
X-63.233 Y-1.472
X-61.88 Y-1.579
X-61.869 Y-1.58
X-60.471 Y-1.719
X-60.464
X-59.027 Y-1.88
X-59.022 Y-1.881
X-57.564 Y-2.058
X-57.559
X-56.105 Y-2.249
X-56.099
X-54.676 Y-2.451
X-54.668 Y-2.452
X-53.301 Y-2.663
X-53.292 Y-2.665
X-51.996 Y-2.884
X-51.989 Y-2.886
X-50.759 Y-3.109
X-50.757
X-49.572 Y-3.328
X-48.39 Y-3.533
X-47.787 Y-3.626
X-47.163 Y-3.712
X-46.513 Y-3.789
X-45.831 Y-3.856
X-45.114 Y-3.913
X-44.36 Y-3.96
X-43.57 Y-3.996
X-42.745 Y-4.022
X-41.888 Y-4.037
X-41.002 Y-4.043
X-39.149 Y-4.027
X-37.222 Y-3.979
X-35.253 Y-3.907
X-33.281 Y-3.817
X-31.342 Y-3.72
X-29.469 Y-3.622
X-29.468
X-27.685 Y-3.533
X-27.682
X-25.998 Y-3.459
X-25.992
X-24.4 Y-3.404
X-24.391
X-22.869 Y-3.373
X-22.86
X-21.382 Y-3.366
X-21.372
X-19.913 Y-3.382
X-19.904 Y-3.383
X-18.444 Y-3.419
X-18.437
X-16.967 Y-3.472
X-16.962 Y-3.473
X-15.479 Y-3.538
X-15.476
X-13.981 Y-3.61
X-12.478 Y-3.684
X-10.974 Y-3.753
X-9.475 Y-3.814
X-9.111 Y-3.825
S5000
X-7.991 Y-3.86 Z-2.039 F333.3
X-6.526 Y-3.89 Z-2.09
X-5.082 Y-3.9 Z-2.141
G2 X-4.662 Y-4.076 Z-2.157 I-0.004 J-0.6
G1 X-3.792 Y-4.946 Z-2.2
S4000
X-1.869 Y-6.869 F1000
G2 X-1.869 Y-9.131 I-1.131 J-1.131
G1 X-4.662 Y-11.924
G2 X-5.082 Y-12.1 I-0.424 J0.424
G1 X-6.526 Y-12.11
X-7.991 Y-12.14
X-9.475 Y-12.187
X-10.974 Y-12.247
X-12.478 Y-12.316
X-13.981 Y-12.39
X-15.477 Y-12.462
X-15.479
X-16.962 Y-12.527
X-16.967 Y-12.528
X-18.437 Y-12.581
X-18.444
X-19.904 Y-12.617
X-19.913 Y-12.618
X-21.372 Y-12.634
X-21.382
X-22.86 Y-12.627
X-22.869
X-24.391 Y-12.596
X-24.4
X-25.992 Y-12.541
X-25.998
X-27.682 Y-12.467
X-27.685
X-29.468 Y-12.378
X-29.469
X-31.342 Y-12.28
X-33.281 Y-12.183
X-35.253 Y-12.093
X-37.222 Y-12.021
X-39.149 Y-11.973
X-41.002 Y-11.957
X-41.888 Y-11.963
X-42.745 Y-11.978
X-43.57 Y-12.004
X-44.36 Y-12.04
X-45.114 Y-12.087
X-45.831 Y-12.144
X-46.513 Y-12.211
X-47.163 Y-12.288
X-47.787 Y-12.374
X-48.39 Y-12.467
X-49.572 Y-12.672
X-50.757 Y-12.891
X-50.759
X-51.989 Y-13.114
X-51.996 Y-13.116
X-53.292 Y-13.335
X-53.301 Y-13.337
X-54.668 Y-13.548
X-54.676 Y-13.549
X-56.099 Y-13.75
X-56.105 Y-13.751
X-57.559 Y-13.942
X-57.564
X-59.022 Y-14.119
X-59.027 Y-14.12
X-60.464 Y-14.281
X-60.471
X-61.869 Y-14.42
X-61.88 Y-14.421
X-63.233 Y-14.528
X-63.246 Y-14.529
X-63.909 Y-14.567
X-63.921
X-64.58 Y-14.592
X-64.594
X-65.255 Y-14.6
X-65.272
X-65.94 Y-14.589
X-65.959 Y-14.588
X-66.641 Y-14.556
X-66.66 Y-14.554
X-67.361 Y-14.498
X-67.381 Y-14.496
X-68.103 Y-14.413
X-68.122 Y-14.41
X-68.866 Y-14.301
X-68.885 Y-14.298
X-69.649 Y-14.16
X-69.667 Y-14.157
X-70.449 Y-13.992
X-70.466 Y-13.988
X-71.26 Y-13.795
X-71.277 Y-13.791
X-72.076 Y-13.571
X-72.094 Y-13.566
X-72.892 Y-13.321
X-72.91 Y-13.315
X-73.699 Y-13.045
X-73.718 Y-13.039
X-74.491 Y-12.746
X-74.511 Y-12.738
X-75.258 Y-12.423
X-75.28 Y-12.414
X-75.993 Y-12.08
X-76.017 Y-12.067
X-76.686 Y-11.716
X-76.706 Y-11.705
X-77.022 Y-11.523
X-77.036 Y-11.514
X-77.337 Y-11.329
X-77.354 Y-11.319
X-77.639 Y-11.131
X-77.656 Y-11.119
X-77.926 Y-10.927
X-77.944 Y-10.914
X-78.196 Y-10.719
X-78.216 Y-10.703
X-78.45 Y-10.507
X-78.472 Y-10.488
X-78.686 Y-10.289
X-78.709 Y-10.266
X-78.903 Y-10.065
X-78.928 Y-10.039
X-79.101 Y-9.836
X-79.127 Y-9.804
X-79.279 Y-9.6
X-79.305 Y-9.562
X-79.434 Y-9.357
X-79.46 Y-9.313
X-79.566 Y-9.107
X-79.59 Y-9.055
X-79.674 Y-8.848
X-79.694 Y-8.79
X-79.754 Y-8.583
X-79.769 Y-8.518
X-79.805 Y-8.311
X-79.812 Y-8.243
X-79.824 Y-8.035
Y-7.965
X-79.812 Y-7.757
X-79.805 Y-7.689
X-79.769 Y-7.482
X-79.754 Y-7.417
X-79.694 Y-7.21
X-79.674 Y-7.152
X-79.59 Y-6.945
X-79.566 Y-6.893
X-79.46 Y-6.687
X-79.434 Y-6.643
X-79.305 Y-6.438
X-79.279 Y-6.4
X-79.127 Y-6.196
X-79.101 Y-6.164
X-78.928 Y-5.961
X-78.903 Y-5.935
X-78.709 Y-5.734
X-78.686 Y-5.711
X-78.472 Y-5.512
X-78.45 Y-5.493
X-78.216 Y-5.297
X-78.196 Y-5.281
X-77.944 Y-5.086
X-77.926 Y-5.073
X-77.656 Y-4.881
X-77.639 Y-4.869
X-77.354 Y-4.681
X-77.338 Y-4.671
X-77.037 Y-4.486
X-77.022 Y-4.477
X-76.706 Y-4.295
X-76.686 Y-4.284
X-76.017 Y-3.933
X-75.993 Y-3.92
X-75.28 Y-3.586
X-75.258 Y-3.577
X-74.511 Y-3.262
X-74.491 Y-3.254
X-73.718 Y-2.961
X-73.7 Y-2.955
X-72.91 Y-2.685
X-72.892 Y-2.679
X-72.094 Y-2.434
X-72.076 Y-2.429
X-71.277 Y-2.209
X-71.26 Y-2.205
X-70.466 Y-2.012
X-70.449 Y-2.008
X-69.667 Y-1.843
X-69.649 Y-1.84
X-68.885 Y-1.702
X-68.866 Y-1.699
X-68.122 Y-1.59
X-68.103 Y-1.587
X-67.381 Y-1.504
X-67.361 Y-1.502
X-66.66 Y-1.446
X-66.641 Y-1.444
X-65.959 Y-1.412
X-65.94 Y-1.411
X-65.272 Y-1.4
X-65.255
X-64.594 Y-1.408
X-64.58
X-63.921 Y-1.433
X-63.909
X-63.246 Y-1.471
X-63.233 Y-1.472
X-61.88 Y-1.579
X-61.869 Y-1.58
X-60.471 Y-1.719
X-60.464
X-59.027 Y-1.88
X-59.022 Y-1.881
X-57.564 Y-2.058
X-57.559
X-56.105 Y-2.249
X-56.099
X-54.676 Y-2.451
X-54.668 Y-2.452
X-53.301 Y-2.663
X-53.292 Y-2.665
X-51.996 Y-2.884
X-51.989 Y-2.886
X-50.759 Y-3.109
X-50.757
X-49.572 Y-3.328
X-48.39 Y-3.533
X-47.787 Y-3.626
X-47.163 Y-3.712
X-46.513 Y-3.789
X-45.831 Y-3.856
X-45.114 Y-3.913
X-44.36 Y-3.96
X-43.57 Y-3.996
X-42.745 Y-4.022
X-41.888 Y-4.037
X-41.002 Y-4.043
X-39.149 Y-4.027
X-37.222 Y-3.979
X-35.253 Y-3.907
X-33.281 Y-3.817
X-31.342 Y-3.72
X-29.469 Y-3.622
X-29.468
X-27.685 Y-3.533
X-27.682
X-25.998 Y-3.459
X-25.992
X-24.4 Y-3.404
X-24.391
X-22.869 Y-3.373
X-22.86
X-21.382 Y-3.366
X-21.372
X-19.913 Y-3.382
X-19.904 Y-3.383
X-18.444 Y-3.419
X-18.437
X-16.967 Y-3.472
X-16.962 Y-3.473
X-15.479 Y-3.538
X-15.476
X-13.981 Y-3.61
X-12.478 Y-3.684
X-10.974 Y-3.753
X-9.475 Y-3.814
X-7.991 Y-3.86
X-6.526 Y-3.89
X-5.082 Y-3.9
G2 X-4.662 Y-4.076 I-0.004 J-0.6
G1 X-3.792 Y-4.946
S5000
X-1.869 Y-6.869 Z-2.295 F333.3
G2 X-1.869 Y-9.131 Z-2.383 I-1.131 J-1.131
G1 X-2.218 Y-9.481 Z-2.4
S4000
X-4.662 Y-11.924 F1000
G2 X-5.082 Y-12.1 I-0.424 J0.424
G1 X-6.526 Y-12.11
X-7.991 Y-12.14
X-9.475 Y-12.187
X-10.974 Y-12.247
X-12.478 Y-12.316
X-13.981 Y-12.39
X-15.477 Y-12.462
X-15.479
X-16.962 Y-12.527
X-16.967 Y-12.528
X-18.437 Y-12.581
X-18.444
X-19.904 Y-12.617
X-19.913 Y-12.618
X-21.372 Y-12.634
X-21.382
X-22.86 Y-12.627
X-22.869
X-24.391 Y-12.596
X-24.4
X-25.992 Y-12.541
X-25.998
X-27.682 Y-12.467
X-27.685
X-29.468 Y-12.378
X-29.469
X-31.342 Y-12.28
X-33.281 Y-12.183
X-35.253 Y-12.093
X-37.222 Y-12.021
X-39.149 Y-11.973
X-41.002 Y-11.957
X-41.888 Y-11.963
X-42.745 Y-11.978
X-43.57 Y-12.004
X-44.36 Y-12.04
X-45.114 Y-12.087
X-45.831 Y-12.144
X-46.513 Y-12.211
X-47.163 Y-12.288
X-47.787 Y-12.374
X-48.39 Y-12.467
X-49.572 Y-12.672
X-50.757 Y-12.891
X-50.759
X-51.989 Y-13.114
X-51.996 Y-13.116
X-53.292 Y-13.335
X-53.301 Y-13.337
X-54.668 Y-13.548
X-54.676 Y-13.549
X-56.099 Y-13.75
X-56.105 Y-13.751
X-57.559 Y-13.942
X-57.564
X-59.022 Y-14.119
X-59.027 Y-14.12
X-60.464 Y-14.281
X-60.471
X-61.869 Y-14.42
X-61.88 Y-14.421
X-63.233 Y-14.528
X-63.246 Y-14.529
X-63.909 Y-14.567
X-63.921
X-64.58 Y-14.592
X-64.594
X-65.255 Y-14.6
X-65.272
X-65.94 Y-14.589
X-65.959 Y-14.588
X-66.641 Y-14.556
X-66.66 Y-14.554
X-67.361 Y-14.498
X-67.381 Y-14.496
X-68.103 Y-14.413
X-68.122 Y-14.41
X-68.866 Y-14.301
X-68.885 Y-14.298
X-69.649 Y-14.16
X-69.667 Y-14.157
X-70.449 Y-13.992
X-70.466 Y-13.988
X-71.26 Y-13.795
X-71.277 Y-13.791
X-72.076 Y-13.571
X-72.094 Y-13.566
X-72.892 Y-13.321
X-72.91 Y-13.315
X-73.699 Y-13.045
X-73.718 Y-13.039
X-74.491 Y-12.746
X-74.511 Y-12.738
X-75.258 Y-12.423
X-75.28 Y-12.414
X-75.993 Y-12.08
X-76.017 Y-12.067
X-76.686 Y-11.716
X-76.706 Y-11.705
X-77.022 Y-11.523
X-77.036 Y-11.514
X-77.337 Y-11.329
X-77.354 Y-11.319
X-77.639 Y-11.131
X-77.656 Y-11.119
X-77.926 Y-10.927
X-77.944 Y-10.914
X-78.196 Y-10.719
X-78.216 Y-10.703
X-78.45 Y-10.507
X-78.472 Y-10.488
X-78.686 Y-10.289
X-78.709 Y-10.266
X-78.903 Y-10.065
X-78.928 Y-10.039
X-79.101 Y-9.836
X-79.127 Y-9.804
X-79.279 Y-9.6
X-79.305 Y-9.562
X-79.434 Y-9.357
X-79.46 Y-9.313
X-79.566 Y-9.107
X-79.59 Y-9.055
X-79.674 Y-8.848
X-79.694 Y-8.79
X-79.754 Y-8.583
X-79.769 Y-8.518
X-79.805 Y-8.311
X-79.812 Y-8.243
X-79.824 Y-8.035
Y-7.965
X-79.812 Y-7.757
X-79.805 Y-7.689
X-79.769 Y-7.482
X-79.754 Y-7.417
X-79.694 Y-7.21
X-79.674 Y-7.152
X-79.59 Y-6.945
X-79.566 Y-6.893
X-79.46 Y-6.687
X-79.434 Y-6.643
X-79.305 Y-6.438
X-79.279 Y-6.4
X-79.127 Y-6.196
X-79.101 Y-6.164
X-78.928 Y-5.961
X-78.903 Y-5.935
X-78.709 Y-5.734
X-78.686 Y-5.711
X-78.472 Y-5.512
X-78.45 Y-5.493
X-78.216 Y-5.297
X-78.196 Y-5.281
X-77.944 Y-5.086
X-77.926 Y-5.073
X-77.656 Y-4.881
X-77.639 Y-4.869
X-77.354 Y-4.681
X-77.338 Y-4.671
X-77.037 Y-4.486
X-77.022 Y-4.477
X-76.706 Y-4.295
X-76.686 Y-4.284
X-76.017 Y-3.933
X-75.993 Y-3.92
X-75.28 Y-3.586
X-75.258 Y-3.577
X-74.511 Y-3.262
X-74.491 Y-3.254
X-73.718 Y-2.961
X-73.7 Y-2.955
X-72.91 Y-2.685
X-72.892 Y-2.679
X-72.094 Y-2.434
X-72.076 Y-2.429
X-71.277 Y-2.209
X-71.26 Y-2.205
X-70.466 Y-2.012
X-70.449 Y-2.008
X-69.667 Y-1.843
X-69.649 Y-1.84
X-68.885 Y-1.702
X-68.866 Y-1.699
X-68.122 Y-1.59
X-68.103 Y-1.587
X-67.381 Y-1.504
X-67.361 Y-1.502
X-66.66 Y-1.446
X-66.641 Y-1.444
X-65.959 Y-1.412
X-65.94 Y-1.411
X-65.272 Y-1.4
X-65.255
X-64.594 Y-1.408
X-64.58
X-63.921 Y-1.433
X-63.909
X-63.246 Y-1.471
X-63.233 Y-1.472
X-61.88 Y-1.579
X-61.869 Y-1.58
X-60.471 Y-1.719
X-60.464
X-59.027 Y-1.88
X-59.022 Y-1.881
X-57.564 Y-2.058
X-57.559
X-56.105 Y-2.249
X-56.099
X-54.676 Y-2.451
X-54.668 Y-2.452
X-53.301 Y-2.663
X-53.292 Y-2.665
X-51.996 Y-2.884
X-51.989 Y-2.886
X-50.759 Y-3.109
X-50.757
X-49.572 Y-3.328
X-48.39 Y-3.533
X-47.787 Y-3.626
X-47.163 Y-3.712
X-46.513 Y-3.789
X-45.831 Y-3.856
X-45.114 Y-3.913
X-44.36 Y-3.96
X-43.57 Y-3.996
X-42.745 Y-4.022
X-41.888 Y-4.037
X-41.002 Y-4.043
X-39.149 Y-4.027
X-37.222 Y-3.979
X-35.253 Y-3.907
X-33.281 Y-3.817
X-31.342 Y-3.72
X-29.469 Y-3.622
X-29.468
X-27.685 Y-3.533
X-27.682
X-25.998 Y-3.459
X-25.992
X-24.4 Y-3.404
X-24.391
X-22.869 Y-3.373
X-22.86
X-21.382 Y-3.366
X-21.372
X-19.913 Y-3.382
X-19.904 Y-3.383
X-18.444 Y-3.419
X-18.437
X-16.967 Y-3.472
X-16.962 Y-3.473
X-15.479 Y-3.538
X-15.476
X-13.981 Y-3.61
X-12.478 Y-3.684
X-10.974 Y-3.753
X-9.475 Y-3.814
X-7.991 Y-3.86
X-6.526 Y-3.89
X-5.082 Y-3.9
G2 X-4.662 Y-4.076 I-0.004 J-0.6
G1 X-1.869 Y-6.869
G2 X-1.869 Y-9.131 I-1.131 J-1.131
G1 X-2.218 Y-9.481
S5000
X-4.662 Y-11.924 Z-2.521 F333.3
G2 X-5.082 Y-12.1 Z-2.537 I-0.424 J0.424
G1 X-6.526 Y-12.11 Z-2.587
X-6.886 Y-12.117 Z-2.6
S4000
X-7.991 Y-12.14 F1000
X-9.475 Y-12.187
X-10.974 Y-12.247
X-12.478 Y-12.316
X-13.981 Y-12.39
X-15.477 Y-12.462
X-15.479
X-16.962 Y-12.527
X-16.967 Y-12.528
X-18.437 Y-12.581
X-18.444
X-19.904 Y-12.617
X-19.913 Y-12.618
X-21.372 Y-12.634
X-21.382
X-22.86 Y-12.627
X-22.869
X-24.391 Y-12.596
X-24.4
X-25.992 Y-12.541
X-25.998
X-27.682 Y-12.467
X-27.685
X-29.468 Y-12.378
X-29.469
X-31.342 Y-12.28
X-33.281 Y-12.183
X-35.253 Y-12.093
X-37.222 Y-12.021
X-39.149 Y-11.973
X-41.002 Y-11.957
X-41.888 Y-11.963
X-42.745 Y-11.978
X-43.57 Y-12.004
X-44.36 Y-12.04
X-45.114 Y-12.087
X-45.831 Y-12.144
X-46.513 Y-12.211
X-47.163 Y-12.288
X-47.787 Y-12.374
X-48.39 Y-12.467
X-49.572 Y-12.672
X-50.757 Y-12.891
X-50.759
X-51.989 Y-13.114
X-51.996 Y-13.116
X-53.292 Y-13.335
X-53.301 Y-13.337
X-54.668 Y-13.548
X-54.676 Y-13.549
X-56.099 Y-13.75
X-56.105 Y-13.751
X-57.559 Y-13.942
X-57.564
X-59.022 Y-14.119
X-59.027 Y-14.12
X-60.464 Y-14.281
X-60.471
X-61.869 Y-14.42
X-61.88 Y-14.421
X-63.233 Y-14.528
X-63.246 Y-14.529
X-63.909 Y-14.567
X-63.921
X-64.58 Y-14.592
X-64.594
X-65.255 Y-14.6
X-65.272
X-65.94 Y-14.589
X-65.959 Y-14.588
X-66.641 Y-14.556
X-66.66 Y-14.554
X-67.361 Y-14.498
X-67.381 Y-14.496
X-68.103 Y-14.413
X-68.122 Y-14.41
X-68.866 Y-14.301
X-68.885 Y-14.298
X-69.649 Y-14.16
X-69.667 Y-14.157
X-70.449 Y-13.992
X-70.466 Y-13.988
X-71.26 Y-13.795
X-71.277 Y-13.791
X-72.076 Y-13.571
X-72.094 Y-13.566
X-72.892 Y-13.321
X-72.91 Y-13.315
X-73.699 Y-13.045
X-73.718 Y-13.039
X-74.491 Y-12.746
X-74.511 Y-12.738
X-75.258 Y-12.423
X-75.28 Y-12.414
X-75.993 Y-12.08
X-76.017 Y-12.067
X-76.686 Y-11.716
X-76.706 Y-11.705
X-77.022 Y-11.523
X-77.036 Y-11.514
X-77.337 Y-11.329
X-77.354 Y-11.319
X-77.639 Y-11.131
X-77.656 Y-11.119
X-77.926 Y-10.927
X-77.944 Y-10.914
X-78.196 Y-10.719
X-78.216 Y-10.703
X-78.45 Y-10.507
X-78.472 Y-10.488
X-78.686 Y-10.289
X-78.709 Y-10.266
X-78.903 Y-10.065
X-78.928 Y-10.039
X-79.101 Y-9.836
X-79.127 Y-9.804
X-79.279 Y-9.6
X-79.305 Y-9.562
X-79.434 Y-9.357
X-79.46 Y-9.313
X-79.566 Y-9.107
X-79.59 Y-9.055
X-79.674 Y-8.848
X-79.694 Y-8.79
X-79.754 Y-8.583
X-79.769 Y-8.518
X-79.805 Y-8.311
X-79.812 Y-8.243
X-79.824 Y-8.035
Y-7.965
X-79.812 Y-7.757
X-79.805 Y-7.689
X-79.769 Y-7.482
X-79.754 Y-7.417
X-79.694 Y-7.21
X-79.674 Y-7.152
X-79.59 Y-6.945
X-79.566 Y-6.893
X-79.46 Y-6.687
X-79.434 Y-6.643
X-79.305 Y-6.438
X-79.279 Y-6.4
X-79.127 Y-6.196
X-79.101 Y-6.164
X-78.928 Y-5.961
X-78.903 Y-5.935
X-78.709 Y-5.734
X-78.686 Y-5.711
X-78.472 Y-5.512
X-78.45 Y-5.493
X-78.216 Y-5.297
X-78.196 Y-5.281
X-77.944 Y-5.086
X-77.926 Y-5.073
X-77.656 Y-4.881
X-77.639 Y-4.869
X-77.354 Y-4.681
X-77.338 Y-4.671
X-77.037 Y-4.486
X-77.022 Y-4.477
X-76.706 Y-4.295
X-76.686 Y-4.284
X-76.017 Y-3.933
X-75.993 Y-3.92
X-75.28 Y-3.586
X-75.258 Y-3.577
X-74.511 Y-3.262
X-74.491 Y-3.254
X-73.718 Y-2.961
X-73.7 Y-2.955
X-72.91 Y-2.685
X-72.892 Y-2.679
X-72.094 Y-2.434
X-72.076 Y-2.429
X-71.277 Y-2.209
X-71.26 Y-2.205
X-70.466 Y-2.012
X-70.449 Y-2.008
X-69.667 Y-1.843
X-69.649 Y-1.84
X-68.885 Y-1.702
X-68.866 Y-1.699
X-68.122 Y-1.59
X-68.103 Y-1.587
X-67.381 Y-1.504
X-67.361 Y-1.502
X-66.66 Y-1.446
X-66.641 Y-1.444
X-65.959 Y-1.412
X-65.94 Y-1.411
X-65.272 Y-1.4
X-65.255
X-64.594 Y-1.408
X-64.58
X-63.921 Y-1.433
X-63.909
X-63.246 Y-1.471
X-63.233 Y-1.472
X-61.88 Y-1.579
X-61.869 Y-1.58
X-60.471 Y-1.719
X-60.464
X-59.027 Y-1.88
X-59.022 Y-1.881
X-57.564 Y-2.058
X-57.559
X-56.105 Y-2.249
X-56.099
X-54.676 Y-2.451
X-54.668 Y-2.452
X-53.301 Y-2.663
X-53.292 Y-2.665
X-51.996 Y-2.884
X-51.989 Y-2.886
X-50.759 Y-3.109
X-50.757
X-49.572 Y-3.328
X-48.39 Y-3.533
X-47.787 Y-3.626
X-47.163 Y-3.712
X-46.513 Y-3.789
X-45.831 Y-3.856
X-45.114 Y-3.913
X-44.36 Y-3.96
X-43.57 Y-3.996
X-42.745 Y-4.022
X-41.888 Y-4.037
X-41.002 Y-4.043
X-39.149 Y-4.027
X-37.222 Y-3.979
X-35.253 Y-3.907
X-33.281 Y-3.817
X-31.342 Y-3.72
X-29.469 Y-3.622
X-29.468
X-27.685 Y-3.533
X-27.682
X-25.998 Y-3.459
X-25.992
X-24.4 Y-3.404
X-24.391
X-22.869 Y-3.373
X-22.86
X-21.382 Y-3.366
X-21.372
X-19.913 Y-3.382
X-19.904 Y-3.383
X-18.444 Y-3.419
X-18.437
X-16.967 Y-3.472
X-16.962 Y-3.473
X-15.479 Y-3.538
X-15.476
X-13.981 Y-3.61
X-12.478 Y-3.684
X-10.974 Y-3.753
X-9.475 Y-3.814
X-7.991 Y-3.86
X-6.526 Y-3.89
X-5.082 Y-3.9
G2 X-4.662 Y-4.076 I-0.004 J-0.6
G1 X-1.869 Y-6.869
G2 X-1.869 Y-9.131 I-1.131 J-1.131
G1 X-4.662 Y-11.924
G2 X-5.082 Y-12.1 I-0.424 J0.424
G1 X-6.526 Y-12.11
X-6.886 Y-12.117
S5000
X-7.991 Y-12.14 Z-2.639 F333.3
X-9.475 Y-12.187 Z-2.69
X-10.974 Y-12.247 Z-2.743
X-12.478 Y-12.316 Z-2.795
X-12.61 Y-12.323 Z-2.8
S4000
X-13.981 Y-12.39 F1000
X-15.477 Y-12.462
X-15.479
X-16.962 Y-12.527
X-16.967 Y-12.528
X-18.437 Y-12.581
X-18.444
X-19.904 Y-12.617
X-19.913 Y-12.618
X-21.372 Y-12.634
X-21.382
X-22.86 Y-12.627
X-22.869
X-24.391 Y-12.596
X-24.4
X-25.992 Y-12.541
X-25.998
X-27.682 Y-12.467
X-27.685
X-29.468 Y-12.378
X-29.469
X-31.342 Y-12.28
X-33.281 Y-12.183
X-35.253 Y-12.093
X-37.222 Y-12.021
X-39.149 Y-11.973
X-41.002 Y-11.957
X-41.888 Y-11.963
X-42.745 Y-11.978
X-43.57 Y-12.004
X-44.36 Y-12.04
X-44.668 Y-12.059
Z-2.7
X-45.114 Y-12.087
X-45.831 Y-12.144
X-46.513 Y-12.211
X-47.163 Y-12.288
X-47.787 Y-12.374
X-48.347 Y-12.46
Z-2.8 F200
X-48.39 Y-12.467 F1000
X-49.572 Y-12.672
X-50.757 Y-12.891
X-50.759
X-51.989 Y-13.114
X-51.996 Y-13.116
X-53.292 Y-13.335
X-53.301 Y-13.337
X-54.668 Y-13.548
X-54.676 Y-13.549
X-56.099 Y-13.75
X-56.105 Y-13.751
X-57.559 Y-13.942
X-57.564
X-59.022 Y-14.119
X-59.027 Y-14.12
X-60.464 Y-14.281
X-60.471
X-61.869 Y-14.42
X-61.88 Y-14.421
X-63.233 Y-14.528
X-63.246 Y-14.529
X-63.909 Y-14.567
X-63.921
X-64.58 Y-14.592
X-64.594
X-65.255 Y-14.6
X-65.272
X-65.94 Y-14.589
X-65.959 Y-14.588
X-66.641 Y-14.556
X-66.66 Y-14.554
X-67.361 Y-14.498
X-67.381 Y-14.496
X-68.103 Y-14.413
X-68.122 Y-14.41
X-68.866 Y-14.301
X-68.885 Y-14.298
X-69.649 Y-14.16
X-69.667 Y-14.157
X-70.449 Y-13.992
X-70.466 Y-13.988
X-71.26 Y-13.795
X-71.277 Y-13.791
X-72.076 Y-13.571
X-72.094 Y-13.566
X-72.892 Y-13.321
X-72.91 Y-13.315
X-73.699 Y-13.045
X-73.718 Y-13.039
X-74.491 Y-12.746
X-74.511 Y-12.738
X-75.258 Y-12.423
X-75.28 Y-12.414
X-75.993 Y-12.08
X-76.017 Y-12.067
X-76.686 Y-11.716
X-76.706 Y-11.705
X-77.022 Y-11.523
X-77.036 Y-11.514
X-77.337 Y-11.329
X-77.354 Y-11.319
X-77.639 Y-11.131
X-77.656 Y-11.119
X-77.926 Y-10.927
X-77.944 Y-10.914
X-78.196 Y-10.719
X-78.216 Y-10.703
X-78.45 Y-10.507
X-78.472 Y-10.488
X-78.686 Y-10.289
X-78.709 Y-10.266
X-78.903 Y-10.065
X-78.928 Y-10.039
X-79.101 Y-9.836
X-79.127 Y-9.804
X-79.279 Y-9.6
X-79.305 Y-9.562
X-79.434 Y-9.357
X-79.46 Y-9.313
X-79.566 Y-9.107
X-79.59 Y-9.055
X-79.674 Y-8.848
X-79.694 Y-8.79
X-79.754 Y-8.583
X-79.769 Y-8.518
X-79.805 Y-8.311
X-79.812 Y-8.243
X-79.824 Y-8.035
Y-7.965
X-79.812 Y-7.757
X-79.805 Y-7.689
X-79.769 Y-7.482
X-79.754 Y-7.417
X-79.694 Y-7.21
X-79.674 Y-7.152
X-79.59 Y-6.945
X-79.566 Y-6.893
X-79.46 Y-6.687
X-79.434 Y-6.643
X-79.305 Y-6.438
X-79.279 Y-6.4
X-79.127 Y-6.196
X-79.101 Y-6.164
X-78.928 Y-5.961
X-78.903 Y-5.935
X-78.709 Y-5.734
X-78.686 Y-5.711
X-78.472 Y-5.512
X-78.45 Y-5.493
X-78.216 Y-5.297
X-78.196 Y-5.281
X-77.944 Y-5.086
X-77.926 Y-5.073
X-77.656 Y-4.881
X-77.639 Y-4.869
X-77.354 Y-4.681
X-77.338 Y-4.671
X-77.037 Y-4.486
X-77.022 Y-4.477
X-76.706 Y-4.295
X-76.686 Y-4.284
X-76.017 Y-3.933
X-75.993 Y-3.92
X-75.28 Y-3.586
X-75.258 Y-3.577
X-74.511 Y-3.262
X-74.491 Y-3.254
X-73.718 Y-2.961
X-73.7 Y-2.955
X-72.91 Y-2.685
X-72.892 Y-2.679
X-72.094 Y-2.434
X-72.076 Y-2.429
X-71.277 Y-2.209
X-71.26 Y-2.205
X-70.466 Y-2.012
X-70.449 Y-2.008
X-69.667 Y-1.843
X-69.649 Y-1.84
X-68.885 Y-1.702
X-68.866 Y-1.699
X-68.122 Y-1.59
X-68.103 Y-1.587
X-67.381 Y-1.504
X-67.361 Y-1.502
X-66.66 Y-1.446
X-66.641 Y-1.444
X-65.959 Y-1.412
X-65.94 Y-1.411
X-65.272 Y-1.4
X-65.255
X-64.594 Y-1.408
X-64.58
X-63.921 Y-1.433
X-63.909
X-63.246 Y-1.471
X-63.233 Y-1.472
X-61.88 Y-1.579
X-61.869 Y-1.58
X-60.471 Y-1.719
X-60.464
X-59.027 Y-1.88
X-59.022 Y-1.881
X-57.564 Y-2.058
X-57.559
X-56.105 Y-2.249
X-56.099
X-54.676 Y-2.451
X-54.668 Y-2.452
X-53.301 Y-2.663
X-53.292 Y-2.665
X-51.996 Y-2.884
X-51.989 Y-2.886
X-50.759 Y-3.109
X-50.757
X-49.572 Y-3.328
X-48.39 Y-3.533
X-48.347 Y-3.54
Z-2.7
X-47.787 Y-3.626
X-47.163 Y-3.712
X-46.513 Y-3.789
X-45.831 Y-3.856
X-45.114 Y-3.913
X-44.668 Y-3.941
Z-2.8 F200
X-44.36 Y-3.96 F1000
X-43.57 Y-3.996
X-42.745 Y-4.022
X-41.888 Y-4.037
X-41.002 Y-4.043
X-39.149 Y-4.027
X-37.222 Y-3.979
X-35.253 Y-3.907
X-33.281 Y-3.817
X-31.342 Y-3.72
X-29.469 Y-3.622
X-29.468
X-27.685 Y-3.533
X-27.682
X-25.998 Y-3.459
X-25.992
X-24.4 Y-3.404
X-24.391
X-22.869 Y-3.373
X-22.86
X-21.382 Y-3.366
X-21.372
X-19.913 Y-3.382
X-19.904 Y-3.383
X-18.444 Y-3.419
X-18.437
X-16.967 Y-3.472
X-16.962 Y-3.473
X-15.479 Y-3.538
X-15.476
X-13.981 Y-3.61
X-12.478 Y-3.684
X-10.974 Y-3.753
X-9.475 Y-3.814
X-7.991 Y-3.86
X-6.526 Y-3.89
X-5.082 Y-3.9
G2 X-4.662 Y-4.076 I-0.004 J-0.6
G1 X-1.869 Y-6.869
G2 X-1.869 Y-9.131 I-1.131 J-1.131
G1 X-4.662 Y-11.924
G2 X-5.082 Y-12.1 I-0.424 J0.424
G1 X-6.526 Y-12.11
X-7.991 Y-12.14
X-9.475 Y-12.187
X-10.974 Y-12.247
X-12.478 Y-12.316
X-12.61 Y-12.323
S5000
X-13.981 Y-12.39 Z-2.848 F333.3
X-15.477 Y-12.462 Z-2.9
X-15.479
X-16.962 Y-12.527 Z-2.952
X-16.967 Y-12.528
X-18.331 Y-12.577 Z-3
S4000
X-18.437 Y-12.581 F1000
X-18.444
X-19.904 Y-12.617
X-19.913 Y-12.618
X-21.372 Y-12.634
X-21.382
X-22.86 Y-12.627
X-22.869
X-24.391 Y-12.596
X-24.4
X-25.992 Y-12.541
X-25.998
X-27.682 Y-12.467
X-27.685
X-29.468 Y-12.378
X-29.469
X-31.342 Y-12.28
X-33.281 Y-12.183
X-35.253 Y-12.093
X-37.222 Y-12.021
X-39.149 Y-11.973
X-41.002 Y-11.957
X-41.888 Y-11.963
X-42.745 Y-11.978
X-43.57 Y-12.004
X-44.36 Y-12.04
X-44.668 Y-12.059
Z-2.7
X-45.114 Y-12.087
X-45.831 Y-12.144
X-46.513 Y-12.211
X-47.163 Y-12.288
X-47.787 Y-12.374
X-48.347 Y-12.46
Z-3 F200
X-48.39 Y-12.467 F1000
X-49.572 Y-12.672
X-50.757 Y-12.891
X-50.759
X-51.989 Y-13.114
X-51.996 Y-13.116
X-53.292 Y-13.335
X-53.301 Y-13.337
X-54.668 Y-13.548
X-54.676 Y-13.549
X-56.099 Y-13.75
X-56.105 Y-13.751
X-57.559 Y-13.942
X-57.564
X-59.022 Y-14.119
X-59.027 Y-14.12
X-60.464 Y-14.281
X-60.471
X-61.869 Y-14.42
X-61.88 Y-14.421
X-63.233 Y-14.528
X-63.246 Y-14.529
X-63.909 Y-14.567
X-63.921
X-64.58 Y-14.592
X-64.594
X-65.255 Y-14.6
X-65.272
X-65.94 Y-14.589
X-65.959 Y-14.588
X-66.641 Y-14.556
X-66.66 Y-14.554
X-67.361 Y-14.498
X-67.381 Y-14.496
X-68.103 Y-14.413
X-68.122 Y-14.41
X-68.866 Y-14.301
X-68.885 Y-14.298
X-69.649 Y-14.16
X-69.667 Y-14.157
X-70.449 Y-13.992
X-70.466 Y-13.988
X-71.26 Y-13.795
X-71.277 Y-13.791
X-72.076 Y-13.571
X-72.094 Y-13.566
X-72.892 Y-13.321
X-72.91 Y-13.315
X-73.699 Y-13.045
X-73.718 Y-13.039
X-74.491 Y-12.746
X-74.511 Y-12.738
X-75.258 Y-12.423
X-75.28 Y-12.414
X-75.993 Y-12.08
X-76.017 Y-12.067
X-76.686 Y-11.716
X-76.706 Y-11.705
X-77.022 Y-11.523
X-77.036 Y-11.514
X-77.337 Y-11.329
X-77.354 Y-11.319
X-77.639 Y-11.131
X-77.656 Y-11.119
X-77.926 Y-10.927
X-77.944 Y-10.914
X-78.196 Y-10.719
X-78.216 Y-10.703
X-78.45 Y-10.507
X-78.472 Y-10.488
X-78.686 Y-10.289
X-78.709 Y-10.266
X-78.903 Y-10.065
X-78.928 Y-10.039
X-79.101 Y-9.836
X-79.127 Y-9.804
X-79.279 Y-9.6
X-79.305 Y-9.562
X-79.434 Y-9.357
X-79.46 Y-9.313
X-79.566 Y-9.107
X-79.59 Y-9.055
X-79.674 Y-8.848
X-79.694 Y-8.79
X-79.754 Y-8.583
X-79.769 Y-8.518
X-79.805 Y-8.311
X-79.812 Y-8.243
X-79.824 Y-8.035
Y-7.965
X-79.812 Y-7.757
X-79.805 Y-7.689
X-79.769 Y-7.482
X-79.754 Y-7.417
X-79.694 Y-7.21
X-79.674 Y-7.152
X-79.59 Y-6.945
X-79.566 Y-6.893
X-79.46 Y-6.687
X-79.434 Y-6.643
X-79.305 Y-6.438
X-79.279 Y-6.4
X-79.127 Y-6.196
X-79.101 Y-6.164
X-78.928 Y-5.961
X-78.903 Y-5.935
X-78.709 Y-5.734
X-78.686 Y-5.711
X-78.472 Y-5.512
X-78.45 Y-5.493
X-78.216 Y-5.297
X-78.196 Y-5.281
X-77.944 Y-5.086
X-77.926 Y-5.073
X-77.656 Y-4.881
X-77.639 Y-4.869
X-77.354 Y-4.681
X-77.338 Y-4.671
X-77.037 Y-4.486
X-77.022 Y-4.477
X-76.706 Y-4.295
X-76.686 Y-4.284
X-76.017 Y-3.933
X-75.993 Y-3.92
X-75.28 Y-3.586
X-75.258 Y-3.577
X-74.511 Y-3.262
X-74.491 Y-3.254
X-73.718 Y-2.961
X-73.7 Y-2.955
X-72.91 Y-2.685
X-72.892 Y-2.679
X-72.094 Y-2.434
X-72.076 Y-2.429
X-71.277 Y-2.209
X-71.26 Y-2.205
X-70.466 Y-2.012
X-70.449 Y-2.008
X-69.667 Y-1.843
X-69.649 Y-1.84
X-68.885 Y-1.702
X-68.866 Y-1.699
X-68.122 Y-1.59
X-68.103 Y-1.587
X-67.381 Y-1.504
X-67.361 Y-1.502
X-66.66 Y-1.446
X-66.641 Y-1.444
X-65.959 Y-1.412
X-65.94 Y-1.411
X-65.272 Y-1.4
X-65.255
X-64.594 Y-1.408
X-64.58
X-63.921 Y-1.433
X-63.909
X-63.246 Y-1.471
X-63.233 Y-1.472
X-61.88 Y-1.579
X-61.869 Y-1.58
X-60.471 Y-1.719
X-60.464
X-59.027 Y-1.88
X-59.022 Y-1.881
X-57.564 Y-2.058
X-57.559
X-56.105 Y-2.249
X-56.099
X-54.676 Y-2.451
X-54.668 Y-2.452
X-53.301 Y-2.663
X-53.292 Y-2.665
X-51.996 Y-2.884
X-51.989 Y-2.886
X-50.759 Y-3.109
X-50.757
X-49.572 Y-3.328
X-48.39 Y-3.533
X-48.347 Y-3.54
Z-2.7
X-47.787 Y-3.626
X-47.163 Y-3.712
X-46.513 Y-3.789
X-45.831 Y-3.856
X-45.114 Y-3.913
X-44.668 Y-3.941
Z-3 F200
X-44.36 Y-3.96 F1000
X-43.57 Y-3.996
X-42.745 Y-4.022
X-41.888 Y-4.037
X-41.002 Y-4.043
X-39.149 Y-4.027
X-37.222 Y-3.979
X-35.253 Y-3.907
X-33.281 Y-3.817
X-31.342 Y-3.72
X-29.469 Y-3.622
X-29.468
X-27.685 Y-3.533
X-27.682
X-25.998 Y-3.459
X-25.992
X-24.4 Y-3.404
X-24.391
X-22.869 Y-3.373
X-22.86
X-21.382 Y-3.366
X-21.372
X-19.913 Y-3.382
X-19.904 Y-3.383
X-18.444 Y-3.419
X-18.437
X-16.967 Y-3.472
X-16.962 Y-3.473
X-15.479 Y-3.538
X-15.476
X-13.981 Y-3.61
X-12.478 Y-3.684
X-10.974 Y-3.753
X-9.475 Y-3.814
X-7.991 Y-3.86
X-6.526 Y-3.89
X-5.082 Y-3.9
G2 X-4.662 Y-4.076 I-0.004 J-0.6
G1 X-1.869 Y-6.869
G2 X-1.869 Y-9.131 I-1.131 J-1.131
G1 X-4.662 Y-11.924
G2 X-5.082 Y-12.1 I-0.424 J0.424
G1 X-6.526 Y-12.11
X-7.991 Y-12.14
X-9.475 Y-12.187
X-10.974 Y-12.247
X-12.478 Y-12.316
X-13.981 Y-12.39
X-15.477 Y-12.462
X-15.479
X-16.962 Y-12.527
X-16.967 Y-12.528
X-18.331 Y-12.577
S5000
X-18.437 Y-12.581 Z-3.004 F333.3
X-18.444
X-19.904 Y-12.617 Z-3.055
X-19.913 Y-12.618
X-21.372 Y-12.634 Z-3.106
X-21.382 Z-3.107
X-22.86 Y-12.627 Z-3.158
X-22.869
X-24.058 Y-12.603 Z-3.2
S4000
X-24.391 Y-12.596 F1000
X-24.4
X-25.992 Y-12.541
X-25.998
X-27.682 Y-12.467
X-27.685
X-29.468 Y-12.378
X-29.469
X-31.342 Y-12.28
X-33.281 Y-12.183
X-35.253 Y-12.093
X-37.222 Y-12.021
X-39.149 Y-11.973
X-41.002 Y-11.957
X-41.888 Y-11.963
X-42.745 Y-11.978
X-43.57 Y-12.004
X-44.36 Y-12.04
X-44.668 Y-12.059
Z-2.7
X-45.114 Y-12.087
X-45.831 Y-12.144
X-46.513 Y-12.211
X-47.163 Y-12.288
X-47.787 Y-12.374
X-48.347 Y-12.46
Z-3.2 F200
X-48.39 Y-12.467 F1000
X-49.572 Y-12.672
X-50.757 Y-12.891
X-50.759
X-51.989 Y-13.114
X-51.996 Y-13.116
X-53.292 Y-13.335
X-53.301 Y-13.337
X-54.668 Y-13.548
X-54.676 Y-13.549
X-56.099 Y-13.75
X-56.105 Y-13.751
X-57.559 Y-13.942
X-57.564
X-59.022 Y-14.119
X-59.027 Y-14.12
X-60.464 Y-14.281
X-60.471
X-61.869 Y-14.42
X-61.88 Y-14.421
X-63.233 Y-14.528
X-63.246 Y-14.529
X-63.909 Y-14.567
X-63.921
X-64.58 Y-14.592
X-64.594
X-65.255 Y-14.6
X-65.272
X-65.94 Y-14.589
X-65.959 Y-14.588
X-66.641 Y-14.556
X-66.66 Y-14.554
X-67.361 Y-14.498
X-67.381 Y-14.496
X-68.103 Y-14.413
X-68.122 Y-14.41
X-68.866 Y-14.301
X-68.885 Y-14.298
X-69.649 Y-14.16
X-69.667 Y-14.157
X-70.449 Y-13.992
X-70.466 Y-13.988
X-71.26 Y-13.795
X-71.277 Y-13.791
X-72.076 Y-13.571
X-72.094 Y-13.566
X-72.892 Y-13.321
X-72.91 Y-13.315
X-73.699 Y-13.045
X-73.718 Y-13.039
X-74.491 Y-12.746
X-74.511 Y-12.738
X-75.258 Y-12.423
X-75.28 Y-12.414
X-75.993 Y-12.08
X-76.017 Y-12.067
X-76.686 Y-11.716
X-76.706 Y-11.705
X-77.022 Y-11.523
X-77.036 Y-11.514
X-77.337 Y-11.329
X-77.354 Y-11.319
X-77.639 Y-11.131
X-77.656 Y-11.119
X-77.926 Y-10.927
X-77.944 Y-10.914
X-78.196 Y-10.719
X-78.216 Y-10.703
X-78.45 Y-10.507
X-78.472 Y-10.488
X-78.686 Y-10.289
X-78.709 Y-10.266
X-78.903 Y-10.065
X-78.928 Y-10.039
X-79.101 Y-9.836
X-79.127 Y-9.804
X-79.279 Y-9.6
X-79.305 Y-9.562
X-79.434 Y-9.357
X-79.46 Y-9.313
X-79.566 Y-9.107
X-79.59 Y-9.055
X-79.674 Y-8.848
X-79.694 Y-8.79
X-79.754 Y-8.583
X-79.769 Y-8.518
X-79.805 Y-8.311
X-79.812 Y-8.243
X-79.824 Y-8.035
Y-7.965
X-79.812 Y-7.757
X-79.805 Y-7.689
X-79.769 Y-7.482
X-79.754 Y-7.417
X-79.694 Y-7.21
X-79.674 Y-7.152
X-79.59 Y-6.945
X-79.566 Y-6.893
X-79.46 Y-6.687
X-79.434 Y-6.643
X-79.305 Y-6.438
X-79.279 Y-6.4
X-79.127 Y-6.196
X-79.101 Y-6.164
X-78.928 Y-5.961
X-78.903 Y-5.935
X-78.709 Y-5.734
X-78.686 Y-5.711
X-78.472 Y-5.512
X-78.45 Y-5.493
X-78.216 Y-5.297
X-78.196 Y-5.281
X-77.944 Y-5.086
X-77.926 Y-5.073
X-77.656 Y-4.881
X-77.639 Y-4.869
X-77.354 Y-4.681
X-77.338 Y-4.671
X-77.037 Y-4.486
X-77.022 Y-4.477
X-76.706 Y-4.295
X-76.686 Y-4.284
X-76.017 Y-3.933
X-75.993 Y-3.92
X-75.28 Y-3.586
X-75.258 Y-3.577
X-74.511 Y-3.262
X-74.491 Y-3.254
X-73.718 Y-2.961
X-73.7 Y-2.955
X-72.91 Y-2.685
X-72.892 Y-2.679
X-72.094 Y-2.434
X-72.076 Y-2.429
X-71.277 Y-2.209
X-71.26 Y-2.205
X-70.466 Y-2.012
X-70.449 Y-2.008
X-69.667 Y-1.843
X-69.649 Y-1.84
X-68.885 Y-1.702
X-68.866 Y-1.699
X-68.122 Y-1.59
X-68.103 Y-1.587
X-67.381 Y-1.504
X-67.361 Y-1.502
X-66.66 Y-1.446
X-66.641 Y-1.444
X-65.959 Y-1.412
X-65.94 Y-1.411
X-65.272 Y-1.4
X-65.255
X-64.594 Y-1.408
X-64.58
X-63.921 Y-1.433
X-63.909
X-63.246 Y-1.471
X-63.233 Y-1.472
X-61.88 Y-1.579
X-61.869 Y-1.58
X-60.471 Y-1.719
X-60.464
X-59.027 Y-1.88
X-59.022 Y-1.881
X-57.564 Y-2.058
X-57.559
X-56.105 Y-2.249
X-56.099
X-54.676 Y-2.451
X-54.668 Y-2.452
X-53.301 Y-2.663
X-53.292 Y-2.665
X-51.996 Y-2.884
X-51.989 Y-2.886
X-50.759 Y-3.109
X-50.757
X-49.572 Y-3.328
X-48.39 Y-3.533
X-48.347 Y-3.54
Z-2.7
X-47.787 Y-3.626
X-47.163 Y-3.712
X-46.513 Y-3.789
X-45.831 Y-3.856
X-45.114 Y-3.913
X-44.668 Y-3.941
Z-3.2 F200
X-44.36 Y-3.96 F1000
X-43.57 Y-3.996
X-42.745 Y-4.022
X-41.888 Y-4.037
X-41.002 Y-4.043
X-39.149 Y-4.027
X-37.222 Y-3.979
X-35.253 Y-3.907
X-33.281 Y-3.817
X-31.342 Y-3.72
X-29.469 Y-3.622
X-29.468
X-27.685 Y-3.533
X-27.682
X-25.998 Y-3.459
X-25.992
X-24.4 Y-3.404
X-24.391
X-22.869 Y-3.373
X-22.86
X-21.382 Y-3.366
X-21.372
X-19.913 Y-3.382
X-19.904 Y-3.383
X-18.444 Y-3.419
X-18.437
X-16.967 Y-3.472
X-16.962 Y-3.473
X-15.479 Y-3.538
X-15.476
X-13.981 Y-3.61
X-12.478 Y-3.684
X-10.974 Y-3.753
X-9.475 Y-3.814
X-7.991 Y-3.86
X-6.526 Y-3.89
X-5.082 Y-3.9
G2 X-4.662 Y-4.076 I-0.004 J-0.6
G1 X-1.869 Y-6.869
G2 X-1.869 Y-9.131 I-1.131 J-1.131
G1 X-4.662 Y-11.924
G2 X-5.082 Y-12.1 I-0.424 J0.424
G1 X-6.526 Y-12.11
X-7.991 Y-12.14
X-9.475 Y-12.187
X-10.974 Y-12.247
X-12.478 Y-12.316
X-13.981 Y-12.39
X-15.477 Y-12.462
X-15.479
X-16.962 Y-12.527
X-16.967 Y-12.528
X-18.437 Y-12.581
X-18.444
X-19.904 Y-12.617
X-19.913 Y-12.618
X-21.372 Y-12.634
X-21.382
X-22.86 Y-12.627
X-22.869
X-24.058 Y-12.603
S5000
X-24.391 Y-12.596 Z-3.212 F333.3
X-24.4
X-25.992 Y-12.541 Z-3.268
X-25.998
X-26.919 Y-12.501 Z-3.3
S4000
X-27.682 Y-12.467 F1000
X-27.685
X-29.468 Y-12.378
X-29.469
X-31.342 Y-12.28
X-33.281 Y-12.183
X-35.253 Y-12.093
X-37.222 Y-12.021
X-39.149 Y-11.973
X-41.002 Y-11.957
X-41.888 Y-11.963
X-42.745 Y-11.978
X-43.57 Y-12.004
X-44.36 Y-12.04
X-44.668 Y-12.059
Z-2.7
X-45.114 Y-12.087
X-45.831 Y-12.144
X-46.513 Y-12.211
X-47.163 Y-12.288
X-47.787 Y-12.374
X-48.347 Y-12.46
Z-3.3 F200
X-48.39 Y-12.467 F1000
X-49.572 Y-12.672
X-50.757 Y-12.891
X-50.759
X-51.989 Y-13.114
X-51.996 Y-13.116
X-53.292 Y-13.335
X-53.301 Y-13.337
X-54.668 Y-13.548
X-54.676 Y-13.549
X-56.099 Y-13.75
X-56.105 Y-13.751
X-57.559 Y-13.942
X-57.564
X-59.022 Y-14.119
X-59.027 Y-14.12
X-60.464 Y-14.281
X-60.471
X-61.869 Y-14.42
X-61.88 Y-14.421
X-63.233 Y-14.528
X-63.246 Y-14.529
X-63.909 Y-14.567
X-63.921
X-64.58 Y-14.592
X-64.594
X-65.255 Y-14.6
X-65.272
X-65.94 Y-14.589
X-65.959 Y-14.588
X-66.641 Y-14.556
X-66.66 Y-14.554
X-67.361 Y-14.498
X-67.381 Y-14.496
X-68.103 Y-14.413
X-68.122 Y-14.41
X-68.866 Y-14.301
X-68.885 Y-14.298
X-69.649 Y-14.16
X-69.667 Y-14.157
X-70.449 Y-13.992
X-70.466 Y-13.988
X-71.26 Y-13.795
X-71.277 Y-13.791
X-72.076 Y-13.571
X-72.094 Y-13.566
X-72.892 Y-13.321
X-72.91 Y-13.315
X-73.699 Y-13.045
X-73.718 Y-13.039
X-74.491 Y-12.746
X-74.511 Y-12.738
X-75.258 Y-12.423
X-75.28 Y-12.414
X-75.993 Y-12.08
X-76.017 Y-12.067
X-76.686 Y-11.716
X-76.706 Y-11.705
X-77.022 Y-11.523
X-77.036 Y-11.514
X-77.337 Y-11.329
X-77.354 Y-11.319
X-77.639 Y-11.131
X-77.656 Y-11.119
X-77.926 Y-10.927
X-77.944 Y-10.914
X-78.196 Y-10.719
X-78.216 Y-10.703
X-78.45 Y-10.507
X-78.472 Y-10.488
X-78.686 Y-10.289
X-78.709 Y-10.266
X-78.903 Y-10.065
X-78.928 Y-10.039
X-79.101 Y-9.836
X-79.127 Y-9.804
X-79.279 Y-9.6
X-79.305 Y-9.562
X-79.434 Y-9.357
X-79.46 Y-9.313
X-79.566 Y-9.107
X-79.59 Y-9.055
X-79.674 Y-8.848
X-79.694 Y-8.79
X-79.754 Y-8.583
X-79.769 Y-8.518
X-79.805 Y-8.311
X-79.812 Y-8.243
X-79.824 Y-8.035
Y-7.965
X-79.812 Y-7.757
X-79.805 Y-7.689
X-79.769 Y-7.482
X-79.754 Y-7.417
X-79.694 Y-7.21
X-79.674 Y-7.152
X-79.59 Y-6.945
X-79.566 Y-6.893
X-79.46 Y-6.687
X-79.434 Y-6.643
X-79.305 Y-6.438
X-79.279 Y-6.4
X-79.127 Y-6.196
X-79.101 Y-6.164
X-78.928 Y-5.961
X-78.903 Y-5.935
X-78.709 Y-5.734
X-78.686 Y-5.711
X-78.472 Y-5.512
X-78.45 Y-5.493
X-78.216 Y-5.297
X-78.196 Y-5.281
X-77.944 Y-5.086
X-77.926 Y-5.073
X-77.656 Y-4.881
X-77.639 Y-4.869
X-77.354 Y-4.681
X-77.338 Y-4.671
X-77.037 Y-4.486
X-77.022 Y-4.477
X-76.706 Y-4.295
X-76.686 Y-4.284
X-76.017 Y-3.933
X-75.993 Y-3.92
X-75.28 Y-3.586
X-75.258 Y-3.577
X-74.511 Y-3.262
X-74.491 Y-3.254
X-73.718 Y-2.961
X-73.7 Y-2.955
X-72.91 Y-2.685
X-72.892 Y-2.679
X-72.094 Y-2.434
X-72.076 Y-2.429
X-71.277 Y-2.209
X-71.26 Y-2.205
X-70.466 Y-2.012
X-70.449 Y-2.008
X-69.667 Y-1.843
X-69.649 Y-1.84
X-68.885 Y-1.702
X-68.866 Y-1.699
X-68.122 Y-1.59
X-68.103 Y-1.587
X-67.381 Y-1.504
X-67.361 Y-1.502
X-66.66 Y-1.446
X-66.641 Y-1.444
X-65.959 Y-1.412
X-65.94 Y-1.411
X-65.272 Y-1.4
X-65.255
X-64.594 Y-1.408
X-64.58
X-63.921 Y-1.433
X-63.909
X-63.246 Y-1.471
X-63.233 Y-1.472
X-61.88 Y-1.579
X-61.869 Y-1.58
X-60.471 Y-1.719
X-60.464
X-59.027 Y-1.88
X-59.022 Y-1.881
X-57.564 Y-2.058
X-57.559
X-56.105 Y-2.249
X-56.099
X-54.676 Y-2.451
X-54.668 Y-2.452
X-53.301 Y-2.663
X-53.292 Y-2.665
X-51.996 Y-2.884
X-51.989 Y-2.886
X-50.759 Y-3.109
X-50.757
X-49.572 Y-3.328
X-48.39 Y-3.533
X-48.347 Y-3.54
Z-2.7
X-47.787 Y-3.626
X-47.163 Y-3.712
X-46.513 Y-3.789
X-45.831 Y-3.856
X-45.114 Y-3.913
X-44.668 Y-3.941
Z-3.3 F200
X-44.36 Y-3.96 F1000
X-43.57 Y-3.996
X-42.745 Y-4.022
X-41.888 Y-4.037
X-41.002 Y-4.043
X-39.149 Y-4.027
X-37.222 Y-3.979
X-35.253 Y-3.907
X-33.281 Y-3.817
X-31.342 Y-3.72
X-29.469 Y-3.622
X-29.468
X-27.685 Y-3.533
X-27.682
X-25.998 Y-3.459
X-25.992
X-24.4 Y-3.404
X-24.391
X-22.869 Y-3.373
X-22.86
X-21.382 Y-3.366
X-21.372
X-19.913 Y-3.382
X-19.904 Y-3.383
X-18.444 Y-3.419
X-18.437
X-16.967 Y-3.472
X-16.962 Y-3.473
X-15.479 Y-3.538
X-15.476
X-13.981 Y-3.61
X-12.478 Y-3.684
X-10.974 Y-3.753
X-9.475 Y-3.814
X-7.991 Y-3.86
X-6.526 Y-3.89
X-5.082 Y-3.9
G2 X-4.662 Y-4.076 I-0.004 J-0.6
G1 X-1.869 Y-6.869
G2 X-1.869 Y-9.131 I-1.131 J-1.131
G1 X-4.662 Y-11.924
G2 X-5.082 Y-12.1 I-0.424 J0.424
G1 X-6.526 Y-12.11
X-7.991 Y-12.14
X-9.475 Y-12.187
X-10.974 Y-12.247
X-12.478 Y-12.316
X-13.981 Y-12.39
X-15.477 Y-12.462
X-15.479
X-16.962 Y-12.527
X-16.967 Y-12.528
X-18.437 Y-12.581
X-18.444
X-19.904 Y-12.617
X-19.913 Y-12.618
X-21.372 Y-12.634
X-21.382
X-22.86 Y-12.627
X-22.869
X-24.391 Y-12.596
X-24.4
X-25.992 Y-12.541
X-25.998
X-26.919 Y-12.501
G0 Z15
G28 G91 Z0
G90
G28 G91 X0 Y0
G90
M5
M30
