(1001)
(Bearbeiten)
(  Hersteller: ChinaCnc)
(  model: 3040T)
(  description: Generic 3-axis)
(T14  D=1.95 CR=0 - ZMIN=-3.3 - Schaftfraser)
G90 G94
G17
G21
G28 G91 Z0
G90

(Bohrfrasen18)
T14
S4000 M3
G54
G0 X-15.728 Y-8
Z15
Z2
G1 Z0 F1016
X-15.693
X-15.685 Y-7.982
X-15.693 Y-7.965
X-15.717 Y-7.951 Z-0.027 F2540
X-15.745 Y-7.953 Z-0.054
X-15.768 Y-7.969 Z-0.081
X-15.778 Y-7.995 Z-0.108
X-15.772 Y-8.023 Z-0.135
X-15.753 Y-8.043 Z-0.162
X-15.726 Y-8.05 Z-0.189
X-15.699 Y-8.041 Z-0.216
X-15.682 Y-8.019 Z-0.243
X-15.679 Y-7.992 Z-0.27
X-15.691 Y-7.967 Z-0.298
X-15.715 Y-7.952 Z-0.325
X-15.743 Z-0.352
X-15.766 Y-7.967 Z-0.379
X-15.777 Y-7.993 Z-0.406
X-15.773 Y-8.021 Z-0.433
X-15.755 Y-8.042 Z-0.46
X-15.729 Y-8.05 Z-0.487
X-15.702 Y-8.043 Z-0.514
X-15.683 Y-8.022 Z-0.541
X-15.678 Y-7.994 Z-0.568
X-15.689 Y-7.968 Z-0.595
X-15.712 Y-7.953 Z-0.622
X-15.74 Y-7.951 Z-0.649
X-15.764 Y-7.966 Z-0.676
X-15.777 Y-7.99 Z-0.703
X-15.774 Y-8.018 Z-0.73
X-15.757 Y-8.04 Z-0.757
X-15.731 Y-8.05 Z-0.784
X-15.704 Y-8.044 Z-0.811
X-15.684 Y-8.024 Z-0.839
X-15.678 Y-7.997 Z-0.866
X-15.688 Y-7.971 Z-0.893
X-15.71 Y-7.953 Z-0.92
X-15.738 Y-7.951 Z-0.947
X-15.762 Y-7.964 Z-0.974
X-15.776 Y-7.988 Z-1.001
X-15.775 Y-8.016 Z-1.028
X-15.759 Y-8.039 Z-1.055
X-15.734 Y-8.05 Z-1.082
X-15.706 Y-8.045 Z-1.109
X-15.685 Y-8.026 Z-1.136
X-15.678 Y-7.999 Z-1.163
X-15.686 Y-7.973 Z-1.19
X-15.707 Y-7.954 Z-1.217
X-15.735 Y-7.951 Z-1.244
X-15.76 Y-7.962 Z-1.271
X-15.776 Y-7.985 Z-1.298
Y-8.013 Z-1.325
X-15.761 Y-8.037 Z-1.352
X-15.736 Y-8.049 Z-1.38
X-15.708 Y-8.046 Z-1.407
X-15.687 Y-8.028 Z-1.434
X-15.678 Y-8.002 Z-1.461
X-15.685 Y-7.975 Z-1.488
X-15.705 Y-7.956 Z-1.515
X-15.732 Y-7.95 Z-1.542
X-15.758 Y-7.96 Z-1.569
X-15.775 Y-7.983 Z-1.596
X-15.777 Y-8.011 Z-1.623
X-15.763 Y-8.035 Z-1.65
X-15.739 Y-8.049 Z-1.677
X-15.711 Y-8.047 Z-1.704
X-15.688 Y-8.031 Z-1.731
X-15.678 Y-8.005 Z-1.758
X-15.683 Y-7.977 Z-1.785
X-15.703 Y-7.957 Z-1.812
X-15.73 Y-7.95 Z-1.839
X-15.756 Y-7.959 Z-1.866
X-15.774 Y-7.981 Z-1.893
X-15.777 Y-8.008 Z-1.92
X-15.765 Y-8.033 Z-1.948
X-15.741 Y-8.048 Z-1.975
X-15.713 Z-2.002
X-15.69 Y-8.033 Z-2.029
X-15.678 Y-8.007 Z-2.056
X-15.682 Y-7.979 Z-2.083
X-15.701 Y-7.958 Z-2.11
X-15.727 Y-7.95 Z-2.137
X-15.754 Y-7.957 Z-2.164
X-15.773 Y-7.978 Z-2.191
X-15.778 Y-8.006 Z-2.218
X-15.767 Y-8.032 Z-2.245
X-15.744 Y-8.047 Z-2.272
X-15.716 Y-8.049 Z-2.299
X-15.692 Y-8.034 Z-2.326
X-15.679 Y-8.01 Z-2.353
X-15.681 Y-7.982 Z-2.38
X-15.698 Y-7.96 Z-2.407
X-15.725 Y-7.95 Z-2.434
X-15.752 Y-7.956 Z-2.461
X-15.772 Y-7.976 Z-2.489
X-15.778 Y-8.003 Z-2.516
X-15.768 Y-8.029 Z-2.543
X-15.746 Y-8.047 Z-2.57
X-15.718 Y-8.049 Z-2.597
X-15.693 Y-8.036 Z-2.624
X-15.679 Y-8.012 Z-2.651
X-15.68 Y-7.984 Z-2.678
X-15.696 Y-7.961 Z-2.705
X-15.722 Y-7.95 Z-2.732
X-15.75 Y-7.955 Z-2.759
X-15.77 Y-7.974 Z-2.786
X-15.778 Y-8.001 Z-2.813
X-15.77 Y-8.027 Z-2.84
X-15.749 Y-8.046 Z-2.867
X-15.721 Y-8.049 Z-2.894
X-15.695 Y-8.038 Z-2.921
X-15.68 Y-8.015 Z-2.948
Y-7.987 Z-2.975
X-15.694 Y-7.963 Z-3.002
X-15.72 Y-7.951 Z-3.03
X-15.747 Y-7.954 Z-3.057
X-15.769 Y-7.972 Z-3.084
X-15.778 Y-7.998 Z-3.111
X-15.771 Y-8.025 Z-3.138
X-15.751 Y-8.044 Z-3.165
X-15.723 Y-8.05 Z-3.192
X-15.697 Y-8.04 Z-3.219
X-15.681 Y-8.017 Z-3.246
X-15.679 Y-7.989 Z-3.273
X-15.693 Y-7.965 Z-3.3
G3 X-15.763 Y-8.035 I-0.035 J-0.035
X-15.693 Y-7.965 I0.035 J0.035
G1 X-15.71 Y-7.957 F1016
X-15.728 Y-7.965
Y-8
G0 Z5
X-27.086
Z2
G1 Z0 F1016
X-26.697 Y-7.887
G3 X-26.697 Y-7.611 I-0.138 J0.138
X-27.475 Y-8.389 Z-0.15 I-0.389 J-0.389 F2540
X-26.697 Y-7.611 Z-0.3 I0.389 J0.389
X-27.475 Y-8.389 Z-0.45 I-0.389 J-0.389
X-26.697 Y-7.611 Z-0.6 I0.389 J0.389
X-27.475 Y-8.389 Z-0.75 I-0.389 J-0.389
X-26.697 Y-7.611 Z-0.9 I0.389 J0.389
X-27.475 Y-8.389 Z-1.05 I-0.389 J-0.389
X-26.697 Y-7.611 Z-1.2 I0.389 J0.389
X-27.475 Y-8.389 Z-1.35 I-0.389 J-0.389
X-26.697 Y-7.611 Z-1.5 I0.389 J0.389
X-27.475 Y-8.389 Z-1.65 I-0.389 J-0.389
X-26.697 Y-7.611 Z-1.8 I0.389 J0.389
X-27.475 Y-8.389 Z-1.95 I-0.389 J-0.389
X-26.697 Y-7.611 Z-2.1 I0.389 J0.389
X-27.475 Y-8.389 Z-2.25 I-0.389 J-0.389
X-26.697 Y-7.611 Z-2.4 I0.389 J0.389
X-27.475 Y-8.389 Z-2.55 I-0.389 J-0.389
X-26.697 Y-7.611 Z-2.7 I0.389 J0.389
X-27.475 Y-8.389 Z-2.85 I-0.389 J-0.389
X-26.697 Y-7.611 Z-3 I0.389 J0.389
X-27.475 Y-8.389 Z-3.15 I-0.389 J-0.389
X-26.697 Y-7.611 Z-3.3 I0.389 J0.389
X-27.475 Y-8.389 I-0.389 J-0.389
X-26.697 Y-7.611 I0.389 J0.389
X-26.973 Y-7.611 I-0.138 J-0.138 F1016
G1 X-27.086 Y-8
G0 Z5
X-62.043 Y-11.182
Z2
G1 Z0 F1016
X-62.008
X-62.001 Y-11.164
X-62.008 Y-11.147
X-62.033 Y-11.133 Z-0.027 F2540
X-62.06 Y-11.135 Z-0.054
X-62.083 Y-11.151 Z-0.081
X-62.093 Y-11.177 Z-0.108
X-62.088 Y-11.205 Z-0.135
X-62.069 Y-11.225 Z-0.162
X-62.041 Y-11.232 Z-0.189
X-62.015 Y-11.223 Z-0.216
X-61.997 Y-11.201 Z-0.243
X-61.994 Y-11.174 Z-0.27
X-62.006 Y-11.148 Z-0.298
X-62.03 Y-11.134 Z-0.325
X-62.058 Z-0.352
X-62.081 Y-11.149 Z-0.379
X-62.093 Y-11.175 Z-0.406
X-62.089 Y-11.203 Z-0.433
X-62.071 Y-11.224 Z-0.46
X-62.044 Y-11.232 Z-0.487
X-62.017 Y-11.225 Z-0.514
X-61.998 Y-11.204 Z-0.541
X-61.994 Y-11.176 Z-0.568
X-62.005 Y-11.15 Z-0.595
X-62.028 Y-11.135 Z-0.622
X-62.056 Y-11.133 Z-0.649
X-62.08 Y-11.148 Z-0.676
X-62.092 Y-11.172 Z-0.703
X-62.09 Y-11.2 Z-0.73
X-62.073 Y-11.222 Z-0.757
X-62.047 Y-11.232 Z-0.784
X-62.019 Y-11.226 Z-0.811
X-62 Y-11.206 Z-0.839
X-61.994 Y-11.179 Z-0.866
X-62.003 Y-11.152 Z-0.893
X-62.025 Y-11.135 Z-0.92
X-62.053 Y-11.133 Z-0.947
X-62.078 Y-11.146 Z-0.974
X-62.092 Y-11.17 Z-1.001
X-62.091 Y-11.198 Z-1.028
X-62.075 Y-11.221 Z-1.055
X-62.049 Y-11.232 Z-1.082
X-62.022 Y-11.227 Z-1.109
X-62.001 Y-11.208 Z-1.136
X-61.993 Y-11.181 Z-1.163
X-62.002 Y-11.155 Z-1.19
X-62.023 Y-11.136 Z-1.217
X-62.05 Y-11.132 Z-1.244
X-62.076 Y-11.144 Z-1.271
X-62.091 Y-11.167 Z-1.298
X-62.092 Y-11.195 Z-1.325
X-62.077 Y-11.219 Z-1.352
X-62.052 Y-11.231 Z-1.38
X-62.024 Y-11.228 Z-1.407
X-62.002 Y-11.21 Z-1.434
X-61.993 Y-11.184 Z-1.461
X-62 Y-11.157 Z-1.488
X-62.02 Y-11.138 Z-1.515
X-62.048 Y-11.132 Z-1.542
X-62.074 Y-11.142 Z-1.569
X-62.09 Y-11.165 Z-1.596
X-62.092 Y-11.193 Z-1.623
X-62.079 Y-11.217 Z-1.65
X-62.054 Y-11.231 Z-1.677
X-62.026 Y-11.229 Z-1.704
X-62.004 Y-11.213 Z-1.731
X-61.994 Y-11.186 Z-1.758
X-61.999 Y-11.159 Z-1.785
X-62.018 Y-11.139 Z-1.812
X-62.045 Y-11.132 Z-1.839
X-62.072 Y-11.141 Z-1.866
X-62.089 Y-11.163 Z-1.893
X-62.093 Y-11.19 Z-1.92
X-62.081 Y-11.215 Z-1.948
X-62.057 Y-11.23 Z-1.975
X-62.029 Z-2.002
X-62.005 Y-11.215 Z-2.029
X-61.994 Y-11.189 Z-2.056
X-61.998 Y-11.161 Z-2.083
X-62.016 Y-11.14 Z-2.11
X-62.043 Y-11.132 Z-2.137
X-62.07 Y-11.139 Z-2.164
X-62.088 Y-11.16 Z-2.191
X-62.093 Y-11.188 Z-2.218
X-62.082 Y-11.214 Z-2.245
X-62.059 Y-11.229 Z-2.272
X-62.031 Y-11.23 Z-2.299
X-62.007 Y-11.216 Z-2.326
X-61.994 Y-11.192 Z-2.353
X-61.997 Y-11.164 Z-2.38
X-62.014 Y-11.142 Z-2.407
X-62.04 Y-11.132 Z-2.434
X-62.067 Y-11.138 Z-2.461
X-62.087 Y-11.158 Z-2.489
X-62.093 Y-11.185 Z-2.516
X-62.084 Y-11.211 Z-2.543
X-62.062 Y-11.229 Z-2.57
X-62.034 Y-11.231 Z-2.597
X-62.009 Y-11.218 Z-2.624
X-61.995 Y-11.194 Z-2.651
X-61.996 Y-11.166 Z-2.678
X-62.012 Y-11.143 Z-2.705
X-62.038 Y-11.132 Z-2.732
X-62.065 Y-11.137 Z-2.759
X-62.086 Y-11.156 Z-2.786
X-62.093 Y-11.183 Z-2.813
X-62.085 Y-11.209 Z-2.84
X-62.064 Y-11.228 Z-2.867
X-62.036 Y-11.231 Z-2.894
X-62.011 Y-11.22 Z-2.921
X-61.996 Y-11.197 Z-2.948
X-61.995 Y-11.169 Z-2.975
X-62.01 Y-11.145 Z-3.002
X-62.035 Y-11.133 Z-3.03
X-62.063 Y-11.136 Z-3.057
X-62.085 Y-11.154 Z-3.084
X-62.093 Y-11.18 Z-3.111
X-62.087 Y-11.207 Z-3.138
X-62.066 Y-11.226 Z-3.165
X-62.039 Y-11.232 Z-3.192
X-62.013 Y-11.222 Z-3.219
X-61.996 Y-11.199 Z-3.246
X-61.995 Y-11.171 Z-3.273
X-62.008 Y-11.147 Z-3.3
G3 X-62.079 Y-11.217 I-0.035 J-0.035
X-62.008 Y-11.147 I0.035 J0.035
G1 X-62.026 Y-11.139 F1016
X-62.043 Y-11.147
Y-11.182
G0 Z5
X-68.407
Z2
G1 Z0 F1016
X-68.372
X-68.365 Y-11.164
X-68.372 Y-11.147
X-68.397 Y-11.133 Z-0.027 F2540
X-68.424 Y-11.135 Z-0.054
X-68.447 Y-11.151 Z-0.081
X-68.457 Y-11.177 Z-0.108
X-68.452 Y-11.205 Z-0.135
X-68.433 Y-11.225 Z-0.162
X-68.405 Y-11.232 Z-0.189
X-68.379 Y-11.223 Z-0.216
X-68.361 Y-11.201 Z-0.243
X-68.358 Y-11.174 Z-0.27
X-68.37 Y-11.148 Z-0.298
X-68.394 Y-11.134 Z-0.325
X-68.422 Z-0.352
X-68.445 Y-11.149 Z-0.379
X-68.457 Y-11.175 Z-0.406
X-68.453 Y-11.203 Z-0.433
X-68.435 Y-11.224 Z-0.46
X-68.408 Y-11.232 Z-0.487
X-68.381 Y-11.225 Z-0.514
X-68.362 Y-11.204 Z-0.541
X-68.358 Y-11.176 Z-0.568
X-68.369 Y-11.15 Z-0.595
X-68.392 Y-11.135 Z-0.622
X-68.419 Y-11.133 Z-0.649
X-68.444 Y-11.148 Z-0.676
X-68.456 Y-11.172 Z-0.703
X-68.454 Y-11.2 Z-0.73
X-68.437 Y-11.222 Z-0.757
X-68.411 Y-11.232 Z-0.784
X-68.383 Y-11.226 Z-0.811
X-68.364 Y-11.206 Z-0.839
X-68.357 Y-11.179 Z-0.866
X-68.367 Y-11.152 Z-0.893
X-68.389 Y-11.135 Z-0.92
X-68.417 Y-11.133 Z-0.947
X-68.442 Y-11.146 Z-0.974
X-68.456 Y-11.17 Z-1.001
X-68.455 Y-11.198 Z-1.028
X-68.439 Y-11.221 Z-1.055
X-68.413 Y-11.232 Z-1.082
X-68.386 Y-11.227 Z-1.109
X-68.365 Y-11.208 Z-1.136
X-68.357 Y-11.181 Z-1.163
X-68.366 Y-11.155 Z-1.19
X-68.387 Y-11.136 Z-1.217
X-68.414 Y-11.132 Z-1.244
X-68.44 Y-11.144 Z-1.271
X-68.455 Y-11.167 Z-1.298
X-68.456 Y-11.195 Z-1.325
X-68.441 Y-11.219 Z-1.352
X-68.416 Y-11.231 Z-1.38
X-68.388 Y-11.228 Z-1.407
X-68.366 Y-11.21 Z-1.434
X-68.357 Y-11.184 Z-1.461
X-68.364 Y-11.157 Z-1.488
X-68.384 Y-11.138 Z-1.515
X-68.412 Y-11.132 Z-1.542
X-68.438 Y-11.142 Z-1.569
X-68.454 Y-11.165 Z-1.596
X-68.456 Y-11.193 Z-1.623
X-68.443 Y-11.217 Z-1.65
X-68.418 Y-11.231 Z-1.677
X-68.39 Y-11.229 Z-1.704
X-68.368 Y-11.213 Z-1.731
X-68.358 Y-11.186 Z-1.758
X-68.363 Y-11.159 Z-1.785
X-68.382 Y-11.139 Z-1.812
X-68.409 Y-11.132 Z-1.839
X-68.436 Y-11.141 Z-1.866
X-68.453 Y-11.163 Z-1.893
X-68.457 Y-11.19 Z-1.92
X-68.445 Y-11.215 Z-1.948
X-68.421 Y-11.23 Z-1.975
X-68.393 Z-2.002
X-68.369 Y-11.215 Z-2.029
X-68.358 Y-11.189 Z-2.056
X-68.362 Y-11.161 Z-2.083
X-68.38 Y-11.14 Z-2.11
X-68.407 Y-11.132 Z-2.137
X-68.434 Y-11.139 Z-2.164
X-68.452 Y-11.16 Z-2.191
X-68.457 Y-11.188 Z-2.218
X-68.446 Y-11.214 Z-2.245
X-68.423 Y-11.229 Z-2.272
X-68.395 Y-11.23 Z-2.299
X-68.371 Y-11.216 Z-2.326
X-68.358 Y-11.192 Z-2.353
X-68.361 Y-11.164 Z-2.38
X-68.378 Y-11.142 Z-2.407
X-68.404 Y-11.132 Z-2.434
X-68.431 Y-11.138 Z-2.461
X-68.451 Y-11.158 Z-2.489
X-68.457 Y-11.185 Z-2.516
X-68.448 Y-11.211 Z-2.543
X-68.426 Y-11.229 Z-2.57
X-68.398 Y-11.231 Z-2.597
X-68.373 Y-11.218 Z-2.624
X-68.359 Y-11.194 Z-2.651
X-68.36 Y-11.166 Z-2.678
X-68.376 Y-11.143 Z-2.705
X-68.402 Y-11.132 Z-2.732
X-68.429 Y-11.137 Z-2.759
X-68.45 Y-11.156 Z-2.786
X-68.457 Y-11.183 Z-2.813
X-68.449 Y-11.209 Z-2.84
X-68.428 Y-11.228 Z-2.867
X-68.4 Y-11.231 Z-2.894
X-68.375 Y-11.22 Z-2.921
X-68.36 Y-11.197 Z-2.948
X-68.359 Y-11.169 Z-2.975
X-68.374 Y-11.145 Z-3.002
X-68.399 Y-11.133 Z-3.03
X-68.427 Y-11.136 Z-3.057
X-68.448 Y-11.154 Z-3.084
X-68.457 Y-11.18 Z-3.111
X-68.451 Y-11.207 Z-3.138
X-68.43 Y-11.226 Z-3.165
X-68.403 Y-11.232 Z-3.192
X-68.377 Y-11.222 Z-3.219
X-68.36 Y-11.199 Z-3.246
X-68.359 Y-11.171 Z-3.273
X-68.372 Y-11.147 Z-3.3
G3 X-68.443 Y-11.217 I-0.035 J-0.035
X-68.372 Y-11.147 I0.035 J0.035
G1 X-68.39 Y-11.139 F1016
X-68.407 Y-11.147
Y-11.182
G0 Z5
Y-4.818
Z2
G1 Z0 F1016
X-68.372
X-68.365 Y-4.8
X-68.372 Y-4.783
X-68.397 Y-4.769 Z-0.027 F2540
X-68.424 Y-4.771 Z-0.054
X-68.447 Y-4.787 Z-0.081
X-68.457 Y-4.814 Z-0.108
X-68.452 Y-4.841 Z-0.135
X-68.433 Y-4.861 Z-0.162
X-68.405 Y-4.868 Z-0.189
X-68.379 Y-4.859 Z-0.216
X-68.361 Y-4.837 Z-0.243
X-68.358 Y-4.81 Z-0.27
X-68.37 Y-4.785 Z-0.298
X-68.394 Y-4.77 Z-0.325
X-68.422 Z-0.352
X-68.445 Y-4.785 Z-0.379
X-68.457 Y-4.811 Z-0.406
X-68.453 Y-4.839 Z-0.433
X-68.435 Y-4.86 Z-0.46
X-68.408 Y-4.868 Z-0.487
X-68.381 Y-4.861 Z-0.514
X-68.362 Y-4.84 Z-0.541
X-68.358 Y-4.812 Z-0.568
X-68.369 Y-4.786 Z-0.595
X-68.392 Y-4.771 Z-0.622
X-68.419 Y-4.77 Z-0.649
X-68.444 Y-4.784 Z-0.676
X-68.456 Y-4.808 Z-0.703
X-68.454 Y-4.836 Z-0.73
X-68.437 Y-4.858 Z-0.757
X-68.411 Y-4.868 Z-0.784
X-68.383 Y-4.862 Z-0.811
X-68.364 Y-4.842 Z-0.839
X-68.357 Y-4.815 Z-0.866
X-68.367 Y-4.789 Z-0.893
X-68.389 Y-4.771 Z-0.92
X-68.417 Y-4.769 Z-0.947
X-68.442 Y-4.782 Z-0.974
X-68.456 Y-4.806 Z-1.001
X-68.455 Y-4.834 Z-1.028
X-68.439 Y-4.857 Z-1.055
X-68.413 Y-4.868 Z-1.082
X-68.386 Y-4.863 Z-1.109
X-68.365 Y-4.844 Z-1.136
X-68.357 Y-4.817 Z-1.163
X-68.366 Y-4.791 Z-1.19
X-68.387 Y-4.772 Z-1.217
X-68.414 Y-4.769 Z-1.244
X-68.44 Y-4.78 Z-1.271
X-68.455 Y-4.803 Z-1.298
X-68.456 Y-4.831 Z-1.325
X-68.441 Y-4.855 Z-1.352
X-68.416 Y-4.867 Z-1.38
X-68.388 Y-4.864 Z-1.407
X-68.366 Y-4.846 Z-1.434
X-68.357 Y-4.82 Z-1.461
X-68.364 Y-4.793 Z-1.488
X-68.384 Y-4.774 Z-1.515
X-68.412 Y-4.768 Z-1.542
X-68.438 Y-4.778 Z-1.569
X-68.454 Y-4.801 Z-1.596
X-68.456 Y-4.829 Z-1.623
X-68.443 Y-4.853 Z-1.65
X-68.418 Y-4.867 Z-1.677
X-68.39 Y-4.865 Z-1.704
X-68.368 Y-4.849 Z-1.731
X-68.358 Y-4.823 Z-1.758
X-68.363 Y-4.795 Z-1.785
X-68.382 Y-4.775 Z-1.812
X-68.409 Y-4.768 Z-1.839
X-68.436 Y-4.777 Z-1.866
X-68.453 Y-4.799 Z-1.893
X-68.457 Y-4.826 Z-1.92
X-68.445 Y-4.852 Z-1.948
X-68.421 Y-4.866 Z-1.975
X-68.393 Z-2.002
X-68.369 Y-4.851 Z-2.029
X-68.358 Y-4.825 Z-2.056
X-68.362 Y-4.797 Z-2.083
X-68.38 Y-4.776 Z-2.11
X-68.407 Y-4.768 Z-2.137
X-68.434 Y-4.775 Z-2.164
X-68.452 Y-4.796 Z-2.191
X-68.457 Y-4.824 Z-2.218
X-68.446 Y-4.85 Z-2.245
X-68.423 Y-4.865 Z-2.272
X-68.395 Y-4.867 Z-2.299
X-68.371 Y-4.852 Z-2.326
X-68.358 Y-4.828 Z-2.353
X-68.361 Y-4.8 Z-2.38
X-68.378 Y-4.778 Z-2.407
X-68.404 Y-4.768 Z-2.434
X-68.431 Y-4.774 Z-2.461
X-68.451 Y-4.794 Z-2.489
X-68.457 Y-4.821 Z-2.516
X-68.448 Y-4.848 Z-2.543
X-68.426 Y-4.865 Z-2.57
X-68.398 Y-4.867 Z-2.597
X-68.373 Y-4.854 Z-2.624
X-68.359 Y-4.83 Z-2.651
X-68.36 Y-4.802 Z-2.678
X-68.376 Y-4.779 Z-2.705
X-68.402 Y-4.768 Z-2.732
X-68.429 Y-4.773 Z-2.759
X-68.45 Y-4.792 Z-2.786
X-68.457 Y-4.819 Z-2.813
X-68.449 Y-4.845 Z-2.84
X-68.428 Y-4.864 Z-2.867
X-68.4 Y-4.868 Z-2.894
X-68.375 Y-4.856 Z-2.921
X-68.36 Y-4.833 Z-2.948
X-68.359 Y-4.805 Z-2.975
X-68.374 Y-4.781 Z-3.002
X-68.399 Y-4.769 Z-3.03
X-68.427 Y-4.772 Z-3.057
X-68.448 Y-4.79 Z-3.084
X-68.457 Y-4.816 Z-3.111
X-68.451 Y-4.843 Z-3.138
X-68.43 Y-4.862 Z-3.165
X-68.403 Y-4.868 Z-3.192
X-68.377 Y-4.858 Z-3.219
X-68.36 Y-4.835 Z-3.246
X-68.359 Y-4.807 Z-3.273
X-68.372 Y-4.783 Z-3.3
G3 X-68.443 Y-4.853 I-0.035 J-0.035
X-68.372 Y-4.783 I0.035 J0.035
G1 X-68.39 Y-4.775 F1016
X-68.407 Y-4.783
Y-4.818
G0 Z5
X-65.225 Y-8
Z2
G1 Z0 F1016
X-64.359 Y-7.41
G3 X-64.359 Y-7.134 I-0.138 J0.138
X-66.092 Y-8.866 Z-0.15 I-0.866 J-0.866 F2540
X-64.359 Y-7.134 Z-0.3 I0.866 J0.866
X-66.092 Y-8.866 Z-0.45 I-0.866 J-0.866
X-64.359 Y-7.134 Z-0.6 I0.866 J0.866
X-66.092 Y-8.866 Z-0.75 I-0.866 J-0.866
X-64.359 Y-7.134 Z-0.9 I0.866 J0.866
X-66.092 Y-8.866 Z-1.05 I-0.866 J-0.866
X-64.359 Y-7.134 Z-1.2 I0.866 J0.866
X-66.092 Y-8.866 Z-1.35 I-0.866 J-0.866
X-64.359 Y-7.134 Z-1.5 I0.866 J0.866
X-66.092 Y-8.866 Z-1.65 I-0.866 J-0.866
X-64.359 Y-7.134 Z-1.8 I0.866 J0.866
X-66.092 Y-8.866 Z-1.95 I-0.866 J-0.866
X-64.359 Y-7.134 Z-2.1 I0.866 J0.866
X-66.092 Y-8.866 Z-2.25 I-0.866 J-0.866
X-64.359 Y-7.134 Z-2.4 I0.866 J0.866
X-66.092 Y-8.866 Z-2.55 I-0.866 J-0.866
X-64.359 Y-7.134 Z-2.7 I0.866 J0.866
X-66.092 Y-8.866 Z-2.85 I-0.866 J-0.866
X-64.359 Y-7.134 Z-3 I0.866 J0.866
X-66.092 Y-8.866 Z-3.15 I-0.866 J-0.866
X-64.359 Y-7.134 Z-3.3 I0.866 J0.866
X-66.092 Y-8.866 I-0.866 J-0.866
X-64.359 Y-7.134 I0.866 J0.866
X-64.635 Y-7.134 I-0.138 J-0.138 F1016
G1 X-65.225 Y-8
G0 Z5
X-62.043 Y-4.818
Z2
G1 Z0 F1016
X-62.008
X-62.001 Y-4.8
X-62.008 Y-4.783
X-62.033 Y-4.769 Z-0.027 F2540
X-62.06 Y-4.771 Z-0.054
X-62.083 Y-4.787 Z-0.081
X-62.093 Y-4.814 Z-0.108
X-62.088 Y-4.841 Z-0.135
X-62.069 Y-4.861 Z-0.162
X-62.041 Y-4.868 Z-0.189
X-62.015 Y-4.859 Z-0.216
X-61.997 Y-4.837 Z-0.243
X-61.994 Y-4.81 Z-0.27
X-62.006 Y-4.785 Z-0.298
X-62.03 Y-4.77 Z-0.325
X-62.058 Z-0.352
X-62.081 Y-4.785 Z-0.379
X-62.093 Y-4.811 Z-0.406
X-62.089 Y-4.839 Z-0.433
X-62.071 Y-4.86 Z-0.46
X-62.044 Y-4.868 Z-0.487
X-62.017 Y-4.861 Z-0.514
X-61.998 Y-4.84 Z-0.541
X-61.994 Y-4.812 Z-0.568
X-62.005 Y-4.786 Z-0.595
X-62.028 Y-4.771 Z-0.622
X-62.056 Y-4.77 Z-0.649
X-62.08 Y-4.784 Z-0.676
X-62.092 Y-4.808 Z-0.703
X-62.09 Y-4.836 Z-0.73
X-62.073 Y-4.858 Z-0.757
X-62.047 Y-4.868 Z-0.784
X-62.019 Y-4.862 Z-0.811
X-62 Y-4.842 Z-0.839
X-61.994 Y-4.815 Z-0.866
X-62.003 Y-4.789 Z-0.893
X-62.025 Y-4.771 Z-0.92
X-62.053 Y-4.769 Z-0.947
X-62.078 Y-4.782 Z-0.974
X-62.092 Y-4.806 Z-1.001
X-62.091 Y-4.834 Z-1.028
X-62.075 Y-4.857 Z-1.055
X-62.049 Y-4.868 Z-1.082
X-62.022 Y-4.863 Z-1.109
X-62.001 Y-4.844 Z-1.136
X-61.993 Y-4.817 Z-1.163
X-62.002 Y-4.791 Z-1.19
X-62.023 Y-4.772 Z-1.217
X-62.05 Y-4.769 Z-1.244
X-62.076 Y-4.78 Z-1.271
X-62.091 Y-4.803 Z-1.298
X-62.092 Y-4.831 Z-1.325
X-62.077 Y-4.855 Z-1.352
X-62.052 Y-4.867 Z-1.38
X-62.024 Y-4.864 Z-1.407
X-62.002 Y-4.846 Z-1.434
X-61.993 Y-4.82 Z-1.461
X-62 Y-4.793 Z-1.488
X-62.02 Y-4.774 Z-1.515
X-62.048 Y-4.768 Z-1.542
X-62.074 Y-4.778 Z-1.569
X-62.09 Y-4.801 Z-1.596
X-62.092 Y-4.829 Z-1.623
X-62.079 Y-4.853 Z-1.65
X-62.054 Y-4.867 Z-1.677
X-62.026 Y-4.865 Z-1.704
X-62.004 Y-4.849 Z-1.731
X-61.994 Y-4.823 Z-1.758
X-61.999 Y-4.795 Z-1.785
X-62.018 Y-4.775 Z-1.812
X-62.045 Y-4.768 Z-1.839
X-62.072 Y-4.777 Z-1.866
X-62.089 Y-4.799 Z-1.893
X-62.093 Y-4.826 Z-1.92
X-62.081 Y-4.852 Z-1.948
X-62.057 Y-4.866 Z-1.975
X-62.029 Z-2.002
X-62.005 Y-4.851 Z-2.029
X-61.994 Y-4.825 Z-2.056
X-61.998 Y-4.797 Z-2.083
X-62.016 Y-4.776 Z-2.11
X-62.043 Y-4.768 Z-2.137
X-62.07 Y-4.775 Z-2.164
X-62.088 Y-4.796 Z-2.191
X-62.093 Y-4.824 Z-2.218
X-62.082 Y-4.85 Z-2.245
X-62.059 Y-4.865 Z-2.272
X-62.031 Y-4.867 Z-2.299
X-62.007 Y-4.852 Z-2.326
X-61.994 Y-4.828 Z-2.353
X-61.997 Y-4.8 Z-2.38
X-62.014 Y-4.778 Z-2.407
X-62.04 Y-4.768 Z-2.434
X-62.067 Y-4.774 Z-2.461
X-62.087 Y-4.794 Z-2.489
X-62.093 Y-4.821 Z-2.516
X-62.084 Y-4.848 Z-2.543
X-62.062 Y-4.865 Z-2.57
X-62.034 Y-4.867 Z-2.597
X-62.009 Y-4.854 Z-2.624
X-61.995 Y-4.83 Z-2.651
X-61.996 Y-4.802 Z-2.678
X-62.012 Y-4.779 Z-2.705
X-62.038 Y-4.768 Z-2.732
X-62.065 Y-4.773 Z-2.759
X-62.086 Y-4.792 Z-2.786
X-62.093 Y-4.819 Z-2.813
X-62.085 Y-4.845 Z-2.84
X-62.064 Y-4.864 Z-2.867
X-62.036 Y-4.868 Z-2.894
X-62.011 Y-4.856 Z-2.921
X-61.996 Y-4.833 Z-2.948
X-61.995 Y-4.805 Z-2.975
X-62.01 Y-4.781 Z-3.002
X-62.035 Y-4.769 Z-3.03
X-62.063 Y-4.772 Z-3.057
X-62.085 Y-4.79 Z-3.084
X-62.093 Y-4.816 Z-3.111
X-62.087 Y-4.843 Z-3.138
X-62.066 Y-4.862 Z-3.165
X-62.039 Y-4.868 Z-3.192
X-62.013 Y-4.858 Z-3.219
X-61.996 Y-4.835 Z-3.246
X-61.995 Y-4.807 Z-3.273
X-62.008 Y-4.783 Z-3.3
G3 X-62.079 Y-4.853 I-0.035 J-0.035
X-62.008 Y-4.783 I0.035 J0.035
G1 X-62.026 Y-4.775 F1016
X-62.043 Y-4.783
Y-4.818
G0 Z15

(2D-Kontur7)
X-79.323 Y-5.846
Z15
Z5
G1 Z1.2 F508
Z0.5
X-79.213 Y-5.717 Z0.494 F1016
X-79.173 Y-5.674 Z0.492
X-78.979 Y-5.473 Z0.482
X-78.941 Y-5.436 Z0.48
X-78.727 Y-5.238 Z0.47
X-78.691 Y-5.206 Z0.469
X-78.458 Y-5.01 Z0.458
X-78.425 Y-4.984 Z0.456
X-78.173 Y-4.789 Z0.445
X-78.143 Y-4.767 Z0.444
X-77.874 Y-4.576 Z0.432
X-77.846 Y-4.556 Z0.431
X-77.56 Y-4.368 Z0.419
X-77.534 Y-4.351 Z0.418
X-77.233 Y-4.166 Z0.406
X-77.209 Y-4.152 Z0.405
X-76.894 Y-3.97 Z0.392
X-76.86 Y-3.952 Z0.391
X-76.192 Y-3.601 Z0.365
X-76.152 Y-3.581 Z0.363
X-75.439 Y-3.247 Z0.336
X-75.404 Y-3.231 Z0.334
X-74.657 Y-2.917 Z0.306
X-74.624 Y-2.904 Z0.305
X-73.851 Y-2.611 Z0.276
X-73.821 Y-2.6 Z0.275
X-73.031 Y-2.33 Z0.245
X-73.002 Y-2.32 Z0.244
X-72.204 Y-2.075 Z0.215
X-72.176 Y-2.067 Z0.214
X-71.376 Y-1.848 Z0.185
X-71.348 Y-1.84 Z0.184
X-70.555 Y-1.648 Z0.156
X-70.526 Y-1.641 Z0.155
X-69.745 Y-1.476 Z0.127
X-69.716 Y-1.471 Z0.126
X-68.951 Y-1.333 Z0.099
X-68.921 Y-1.328 Z0.098
X-68.177 Y-1.219 Z0.071
X-68.146 Y-1.214 Z0.07
X-67.423 Y-1.132 Z0.045
X-67.391 Y-1.129 Z0.044
X-66.691 Y-1.072 Z0.019
X-66.659 Y-1.07 Z0.018
X-65.977 Y-1.037 Z-0.006
X-65.946 Y-1.036 Z-0.007
X-65.278 Y-1.025 Z-0.03
X-65.25 Z-0.031
X-64.59 Y-1.033 Z-0.054
X-64.566 Y-1.034 Z-0.055
X-63.907 Y-1.058 Z-0.078
X-63.887 Y-1.059 Z-0.079
X-63.225 Y-1.097 Z-0.102
X-63.203 Y-1.098 Z-0.103
X-61.851 Y-1.205 Z-0.15
X-61.832 Y-1.207 Z-0.151
X-60.434 Y-1.345 Z-0.2
X-60.427 Y-1.346
X-60.422 Y-1.347 F2540
X-58.986 Y-1.507
X-58.976 Y-1.508
X-57.519 Y-1.686
X-57.51 Y-1.687
X-56.056 Y-1.877
X-56.046 Y-1.878
X-54.623 Y-2.08
X-54.611 Y-2.081
X-53.244 Y-2.293
X-53.23 Y-2.295
X-51.933 Y-2.515
X-51.922 Y-2.517
X-50.692 Y-2.74
X-50.689
X-49.506 Y-2.959
X-48.329 Y-3.163
X-47.733 Y-3.255
X-47.116 Y-3.34
X-46.472 Y-3.416
X-45.797 Y-3.483
X-45.087 Y-3.539
X-44.34 Y-3.586
X-43.556 Y-3.622
X-42.736 Y-3.647
X-41.883 Y-3.662
X-41.002 Y-3.668
X-39.155 Y-3.652
X-37.233 Y-3.605
X-35.269 Y-3.532
X-33.299 Y-3.443
X-31.361 Y-3.345
X-29.488 Y-3.248
X-29.486
X-27.704 Y-3.159
X-27.698 Y-3.158
X-26.015 Y-3.084
X-26.005
X-24.412 Y-3.03
X-24.399 Y-3.029
X-22.877 Y-2.998
X-22.861
X-21.383 Y-2.991
X-21.368
X-19.908 Y-3.007
X-19.895 Y-3.008
X-18.435 Y-3.044
X-18.424 Y-3.045
X-16.954 Y-3.098
X-16.946
X-15.463 Y-3.163
X-15.458
X-13.963 Y-3.235
X-12.46 Y-3.309
X-10.957 Y-3.379
X-9.462 Y-3.439
X-7.981 Y-3.485
X-6.521 Y-3.515
X-5.079 Y-3.525
G2 X-4.396 Y-3.811 I-0.007 J-0.975
G1 X-1.603 Y-6.603
G2 X-1.603 Y-9.397 I-1.397 J-1.397
G1 X-4.396 Y-12.189
G2 X-5.079 Y-12.475 I-0.689 J0.689
G1 X-6.521 Y-12.485
X-7.981 Y-12.515
X-9.462 Y-12.561
X-10.957 Y-12.621
X-12.46 Y-12.691
X-13.962 Y-12.765
X-15.458 Y-12.837
X-15.463
X-16.946 Y-12.902
X-16.954
X-18.424 Y-12.955
X-18.435 Y-12.956
X-19.895 Y-12.992
X-19.908 Y-12.993
X-21.368 Y-13.009
X-21.383
X-22.861 Y-13.002
X-22.877
X-24.399 Y-12.971
X-24.412 Y-12.97
X-26.005 Y-12.916
X-26.015
X-27.698 Y-12.842
X-27.704 Y-12.841
X-29.486 Y-12.752
X-29.488
X-31.361 Y-12.655
X-33.299 Y-12.557
X-35.269 Y-12.468
X-37.233 Y-12.395
X-39.155 Y-12.348
X-41.002 Y-12.332
X-41.883 Y-12.338
X-42.736 Y-12.353
X-43.556 Y-12.379
X-44.34 Y-12.414
X-45.087 Y-12.461
X-45.797 Y-12.517
X-46.472 Y-12.584
X-47.116 Y-12.66
X-47.733 Y-12.745
X-48.329 Y-12.837
X-49.506 Y-13.041
X-50.689 Y-13.26
X-50.692
X-51.922 Y-13.483
X-51.933 Y-13.485
X-53.23 Y-13.705
X-53.244 Y-13.707
X-54.611 Y-13.919
X-54.623 Y-13.92
X-56.046 Y-14.122
X-56.056 Y-14.123
X-57.51 Y-14.313
X-57.519 Y-14.314
X-58.976 Y-14.492
X-58.986 Y-14.493
X-60.422 Y-14.653
X-60.434 Y-14.655
X-61.832 Y-14.793
X-61.851 Y-14.795
X-63.203 Y-14.902
X-63.225 Y-14.903
X-63.887 Y-14.941
X-63.907 Y-14.942
X-64.566 Y-14.966
X-64.59 Y-14.967
X-65.25 Y-14.975
X-65.278
X-65.946 Y-14.964
X-65.977 Y-14.963
X-66.659 Y-14.93
X-66.691 Y-14.928
X-67.391 Y-14.871
X-67.423 Y-14.868
X-68.145 Y-14.786
X-68.177 Y-14.781
X-68.921 Y-14.672
X-68.951 Y-14.667
X-69.716 Y-14.529
X-69.745 Y-14.524
X-70.526 Y-14.359
X-70.555 Y-14.352
X-71.348 Y-14.16
X-71.376 Y-14.152
X-72.176 Y-13.933
X-72.204 Y-13.925
X-73.002 Y-13.68
X-73.031 Y-13.67
X-73.821 Y-13.4
X-73.851 Y-13.389
X-74.624 Y-13.096
X-74.656 Y-13.083
X-75.404 Y-12.769
X-75.439 Y-12.753
X-76.152 Y-12.419
X-76.192 Y-12.399
X-76.86 Y-12.048
X-76.894 Y-12.03
X-77.209 Y-11.848
X-77.233 Y-11.834
X-77.534 Y-11.649
X-77.56 Y-11.632
X-77.846 Y-11.444
X-77.874 Y-11.424
X-78.143 Y-11.233
X-78.173 Y-11.211
X-78.425 Y-11.017
X-78.458 Y-10.99
X-78.692 Y-10.794
X-78.727 Y-10.763
X-78.941 Y-10.564
X-78.979 Y-10.527
X-79.173 Y-10.326
X-79.213 Y-10.283
X-79.386 Y-10.08
X-79.428 Y-10.028
X-79.579 Y-9.824
X-79.622 Y-9.762
X-79.751 Y-9.557
X-79.793 Y-9.485
X-79.899 Y-9.279
X-79.938 Y-9.196
X-80.021 Y-8.989
X-80.054 Y-8.894
X-80.114 Y-8.687
X-80.138 Y-8.582
X-80.174 Y-8.374
X-80.187 Y-8.265
X-80.199 Y-8.057
Y-7.943
X-80.187 Y-7.735
X-80.174 Y-7.626
X-80.138 Y-7.418
X-80.114 Y-7.313
X-80.054 Y-7.106
X-80.021 Y-7.011
X-79.938 Y-6.804
X-79.899 Y-6.721
X-79.793 Y-6.515
X-79.751 Y-6.443
X-79.622 Y-6.238
X-79.579 Y-6.176
X-79.428 Y-5.972
X-79.386 Y-5.92
X-79.213 Y-5.717
X-79.173 Y-5.674
X-78.979 Y-5.473
X-78.941 Y-5.436
X-78.727 Y-5.238
X-78.691 Y-5.206
X-78.458 Y-5.01
X-78.425 Y-4.984
X-78.173 Y-4.789
X-78.143 Y-4.767
X-77.874 Y-4.576
X-77.846 Y-4.556
X-77.56 Y-4.368
X-77.534 Y-4.351
X-77.233 Y-4.166
X-77.209 Y-4.152
X-76.894 Y-3.97
X-76.86 Y-3.952
X-76.192 Y-3.601
X-76.152 Y-3.581
X-75.439 Y-3.247
X-75.404 Y-3.231
X-74.657 Y-2.917
X-74.624 Y-2.904
X-73.851 Y-2.611
X-73.821 Y-2.6
X-73.031 Y-2.33
X-73.002 Y-2.32
X-72.204 Y-2.075
X-72.176 Y-2.067
X-71.376 Y-1.848
X-71.348 Y-1.84
X-70.555 Y-1.648
X-70.526 Y-1.641
X-69.745 Y-1.476
X-69.716 Y-1.471
X-68.951 Y-1.333
X-68.921 Y-1.328
X-68.177 Y-1.219
X-68.146 Y-1.214
X-67.423 Y-1.132
X-67.391 Y-1.129
X-66.691 Y-1.072
X-66.659 Y-1.07
X-65.977 Y-1.037
X-65.946 Y-1.036
X-65.278 Y-1.025
X-65.25
X-64.59 Y-1.033
X-64.566 Y-1.034
X-63.907 Y-1.058
X-63.887 Y-1.059
X-63.225 Y-1.097
X-63.203 Y-1.098
X-61.851 Y-1.205
X-61.832 Y-1.207
X-60.434 Y-1.345
X-60.427 Y-1.346
X-60.422 Y-1.347 F1016
X-58.986 Y-1.507 Z-0.251
X-58.976 Y-1.508
X-57.519 Y-1.686 Z-0.302
X-57.51 Y-1.687 Z-0.303
X-56.056 Y-1.877 Z-0.354
X-56.046 Y-1.878
X-54.745 Y-2.062 Z-0.4
X-54.623 Y-2.08 F2540
X-54.611 Y-2.081
X-53.244 Y-2.293
X-53.23 Y-2.295
X-51.933 Y-2.515
X-51.922 Y-2.517
X-50.692 Y-2.74
X-50.689
X-49.506 Y-2.959
X-48.329 Y-3.163
X-47.733 Y-3.255
X-47.116 Y-3.34
X-46.472 Y-3.416
X-45.797 Y-3.483
X-45.087 Y-3.539
X-44.34 Y-3.586
X-43.556 Y-3.622
X-42.736 Y-3.647
X-41.883 Y-3.662
X-41.002 Y-3.668
X-39.155 Y-3.652
X-37.233 Y-3.605
X-35.269 Y-3.532
X-33.299 Y-3.443
X-31.361 Y-3.345
X-29.488 Y-3.248
X-29.486
X-27.704 Y-3.159
X-27.698 Y-3.158
X-26.015 Y-3.084
X-26.005
X-24.412 Y-3.03
X-24.399 Y-3.029
X-22.877 Y-2.998
X-22.861
X-21.383 Y-2.991
X-21.368
X-19.908 Y-3.007
X-19.895 Y-3.008
X-18.435 Y-3.044
X-18.424 Y-3.045
X-16.954 Y-3.098
X-16.946
X-15.463 Y-3.163
X-15.458
X-13.963 Y-3.235
X-12.46 Y-3.309
X-10.957 Y-3.379
X-9.462 Y-3.439
X-7.981 Y-3.485
X-6.521 Y-3.515
X-5.079 Y-3.525
G2 X-4.396 Y-3.811 I-0.007 J-0.975
G1 X-1.603 Y-6.603
G2 X-1.603 Y-9.397 I-1.397 J-1.397
G1 X-4.396 Y-12.189
G2 X-5.079 Y-12.475 I-0.689 J0.689
G1 X-6.521 Y-12.485
X-7.981 Y-12.515
X-9.462 Y-12.561
X-10.957 Y-12.621
X-12.46 Y-12.691
X-13.962 Y-12.765
X-15.458 Y-12.837
X-15.463
X-16.946 Y-12.902
X-16.954
X-18.424 Y-12.955
X-18.435 Y-12.956
X-19.895 Y-12.992
X-19.908 Y-12.993
X-21.368 Y-13.009
X-21.383
X-22.861 Y-13.002
X-22.877
X-24.399 Y-12.971
X-24.412 Y-12.97
X-26.005 Y-12.916
X-26.015
X-27.698 Y-12.842
X-27.704 Y-12.841
X-29.486 Y-12.752
X-29.488
X-31.361 Y-12.655
X-33.299 Y-12.557
X-35.269 Y-12.468
X-37.233 Y-12.395
X-39.155 Y-12.348
X-41.002 Y-12.332
X-41.883 Y-12.338
X-42.736 Y-12.353
X-43.556 Y-12.379
X-44.34 Y-12.414
X-45.087 Y-12.461
X-45.797 Y-12.517
X-46.472 Y-12.584
X-47.116 Y-12.66
X-47.733 Y-12.745
X-48.329 Y-12.837
X-49.506 Y-13.041
X-50.689 Y-13.26
X-50.692
X-51.922 Y-13.483
X-51.933 Y-13.485
X-53.23 Y-13.705
X-53.244 Y-13.707
X-54.611 Y-13.919
X-54.623 Y-13.92
X-56.046 Y-14.122
X-56.056 Y-14.123
X-57.51 Y-14.313
X-57.519 Y-14.314
X-58.976 Y-14.492
X-58.986 Y-14.493
X-60.422 Y-14.653
X-60.434 Y-14.655
X-61.832 Y-14.793
X-61.851 Y-14.795
X-63.203 Y-14.902
X-63.225 Y-14.903
X-63.887 Y-14.941
X-63.907 Y-14.942
X-64.566 Y-14.966
X-64.59 Y-14.967
X-65.25 Y-14.975
X-65.278
X-65.946 Y-14.964
X-65.977 Y-14.963
X-66.659 Y-14.93
X-66.691 Y-14.928
X-67.391 Y-14.871
X-67.423 Y-14.868
X-68.145 Y-14.786
X-68.177 Y-14.781
X-68.921 Y-14.672
X-68.951 Y-14.667
X-69.716 Y-14.529
X-69.745 Y-14.524
X-70.526 Y-14.359
X-70.555 Y-14.352
X-71.348 Y-14.16
X-71.376 Y-14.152
X-72.176 Y-13.933
X-72.204 Y-13.925
X-73.002 Y-13.68
X-73.031 Y-13.67
X-73.821 Y-13.4
X-73.851 Y-13.389
X-74.624 Y-13.096
X-74.656 Y-13.083
X-75.404 Y-12.769
X-75.439 Y-12.753
X-76.152 Y-12.419
X-76.192 Y-12.399
X-76.86 Y-12.048
X-76.894 Y-12.03
X-77.209 Y-11.848
X-77.233 Y-11.834
X-77.534 Y-11.649
X-77.56 Y-11.632
X-77.846 Y-11.444
X-77.874 Y-11.424
X-78.143 Y-11.233
X-78.173 Y-11.211
X-78.425 Y-11.017
X-78.458 Y-10.99
X-78.692 Y-10.794
X-78.727 Y-10.763
X-78.941 Y-10.564
X-78.979 Y-10.527
X-79.173 Y-10.326
X-79.213 Y-10.283
X-79.386 Y-10.08
X-79.428 Y-10.028
X-79.579 Y-9.824
X-79.622 Y-9.762
X-79.751 Y-9.557
X-79.793 Y-9.485
X-79.899 Y-9.279
X-79.938 Y-9.196
X-80.021 Y-8.989
X-80.054 Y-8.894
X-80.114 Y-8.687
X-80.138 Y-8.582
X-80.174 Y-8.374
X-80.187 Y-8.265
X-80.199 Y-8.057
Y-7.943
X-80.187 Y-7.735
X-80.174 Y-7.626
X-80.138 Y-7.418
X-80.114 Y-7.313
X-80.054 Y-7.106
X-80.021 Y-7.011
X-79.938 Y-6.804
X-79.899 Y-6.721
X-79.793 Y-6.515
X-79.751 Y-6.443
X-79.622 Y-6.238
X-79.579 Y-6.176
X-79.428 Y-5.972
X-79.386 Y-5.92
X-79.213 Y-5.717
X-79.173 Y-5.674
X-78.979 Y-5.473
X-78.941 Y-5.436
X-78.727 Y-5.238
X-78.691 Y-5.206
X-78.458 Y-5.01
X-78.425 Y-4.984
X-78.173 Y-4.789
X-78.143 Y-4.767
X-77.874 Y-4.576
X-77.846 Y-4.556
X-77.56 Y-4.368
X-77.534 Y-4.351
X-77.233 Y-4.166
X-77.209 Y-4.152
X-76.894 Y-3.97
X-76.86 Y-3.952
X-76.192 Y-3.601
X-76.152 Y-3.581
X-75.439 Y-3.247
X-75.404 Y-3.231
X-74.657 Y-2.917
X-74.624 Y-2.904
X-73.851 Y-2.611
X-73.821 Y-2.6
X-73.031 Y-2.33
X-73.002 Y-2.32
X-72.204 Y-2.075
X-72.176 Y-2.067
X-71.376 Y-1.848
X-71.348 Y-1.84
X-70.555 Y-1.648
X-70.526 Y-1.641
X-69.745 Y-1.476
X-69.716 Y-1.471
X-68.951 Y-1.333
X-68.921 Y-1.328
X-68.177 Y-1.219
X-68.146 Y-1.214
X-67.423 Y-1.132
X-67.391 Y-1.129
X-66.691 Y-1.072
X-66.659 Y-1.07
X-65.977 Y-1.037
X-65.946 Y-1.036
X-65.278 Y-1.025
X-65.25
X-64.59 Y-1.033
X-64.566 Y-1.034
X-63.907 Y-1.058
X-63.887 Y-1.059
X-63.225 Y-1.097
X-63.203 Y-1.098
X-61.851 Y-1.205
X-61.832 Y-1.207
X-60.434 Y-1.345
X-60.422 Y-1.347
X-58.986 Y-1.507
X-58.976 Y-1.508
X-57.519 Y-1.686
X-57.51 Y-1.687
X-56.056 Y-1.877
X-56.046 Y-1.878
X-54.745 Y-2.062
X-54.623 Y-2.08 Z-0.404 F1016
X-54.611 Y-2.081 Z-0.405
X-53.244 Y-2.293 Z-0.453
X-53.23 Y-2.295 Z-0.454
X-51.933 Y-2.515 Z-0.499
X-51.922 Y-2.517 Z-0.5
X-50.692 Y-2.74 Z-0.544
X-50.689
X-49.506 Y-2.959 Z-0.586
X-49.101 Y-3.029 Z-0.6
X-48.329 Y-3.163 F2540
X-47.733 Y-3.255
X-47.116 Y-3.34
X-46.472 Y-3.416
X-45.797 Y-3.483
X-45.087 Y-3.539
X-44.34 Y-3.586
X-43.556 Y-3.622
X-42.736 Y-3.647
X-41.883 Y-3.662
X-41.002 Y-3.668
X-39.155 Y-3.652
X-37.233 Y-3.605
X-35.269 Y-3.532
X-33.299 Y-3.443
X-31.361 Y-3.345
X-29.488 Y-3.248
X-29.486
X-27.704 Y-3.159
X-27.698 Y-3.158
X-26.015 Y-3.084
X-26.005
X-24.412 Y-3.03
X-24.399 Y-3.029
X-22.877 Y-2.998
X-22.861
X-21.383 Y-2.991
X-21.368
X-19.908 Y-3.007
X-19.895 Y-3.008
X-18.435 Y-3.044
X-18.424 Y-3.045
X-16.954 Y-3.098
X-16.946
X-15.463 Y-3.163
X-15.458
X-13.963 Y-3.235
X-12.46 Y-3.309
X-10.957 Y-3.379
X-9.462 Y-3.439
X-7.981 Y-3.485
X-6.521 Y-3.515
X-5.079 Y-3.525
G2 X-4.396 Y-3.811 I-0.007 J-0.975
G1 X-1.603 Y-6.603
G2 X-1.603 Y-9.397 I-1.397 J-1.397
G1 X-4.396 Y-12.189
G2 X-5.079 Y-12.475 I-0.689 J0.689
G1 X-6.521 Y-12.485
X-7.981 Y-12.515
X-9.462 Y-12.561
X-10.957 Y-12.621
X-12.46 Y-12.691
X-13.962 Y-12.765
X-15.458 Y-12.837
X-15.463
X-16.946 Y-12.902
X-16.954
X-18.424 Y-12.955
X-18.435 Y-12.956
X-19.895 Y-12.992
X-19.908 Y-12.993
X-21.368 Y-13.009
X-21.383
X-22.861 Y-13.002
X-22.877
X-24.399 Y-12.971
X-24.412 Y-12.97
X-26.005 Y-12.916
X-26.015
X-27.698 Y-12.842
X-27.704 Y-12.841
X-29.486 Y-12.752
X-29.488
X-31.361 Y-12.655
X-33.299 Y-12.557
X-35.269 Y-12.468
X-37.233 Y-12.395
X-39.155 Y-12.348
X-41.002 Y-12.332
X-41.883 Y-12.338
X-42.736 Y-12.353
X-43.556 Y-12.379
X-44.34 Y-12.414
X-45.087 Y-12.461
X-45.797 Y-12.517
X-46.472 Y-12.584
X-47.116 Y-12.66
X-47.733 Y-12.745
X-48.329 Y-12.837
X-49.506 Y-13.041
X-50.689 Y-13.26
X-50.692
X-51.922 Y-13.483
X-51.933 Y-13.485
X-53.23 Y-13.705
X-53.244 Y-13.707
X-54.611 Y-13.919
X-54.623 Y-13.92
X-56.046 Y-14.122
X-56.056 Y-14.123
X-57.51 Y-14.313
X-57.519 Y-14.314
X-58.976 Y-14.492
X-58.986 Y-14.493
X-60.422 Y-14.653
X-60.434 Y-14.655
X-61.832 Y-14.793
X-61.851 Y-14.795
X-63.203 Y-14.902
X-63.225 Y-14.903
X-63.887 Y-14.941
X-63.907 Y-14.942
X-64.566 Y-14.966
X-64.59 Y-14.967
X-65.25 Y-14.975
X-65.278
X-65.946 Y-14.964
X-65.977 Y-14.963
X-66.659 Y-14.93
X-66.691 Y-14.928
X-67.391 Y-14.871
X-67.423 Y-14.868
X-68.145 Y-14.786
X-68.177 Y-14.781
X-68.921 Y-14.672
X-68.951 Y-14.667
X-69.716 Y-14.529
X-69.745 Y-14.524
X-70.526 Y-14.359
X-70.555 Y-14.352
X-71.348 Y-14.16
X-71.376 Y-14.152
X-72.176 Y-13.933
X-72.204 Y-13.925
X-73.002 Y-13.68
X-73.031 Y-13.67
X-73.821 Y-13.4
X-73.851 Y-13.389
X-74.624 Y-13.096
X-74.656 Y-13.083
X-75.404 Y-12.769
X-75.439 Y-12.753
X-76.152 Y-12.419
X-76.192 Y-12.399
X-76.86 Y-12.048
X-76.894 Y-12.03
X-77.209 Y-11.848
X-77.233 Y-11.834
X-77.534 Y-11.649
X-77.56 Y-11.632
X-77.846 Y-11.444
X-77.874 Y-11.424
X-78.143 Y-11.233
X-78.173 Y-11.211
X-78.425 Y-11.017
X-78.458 Y-10.99
X-78.692 Y-10.794
X-78.727 Y-10.763
X-78.941 Y-10.564
X-78.979 Y-10.527
X-79.173 Y-10.326
X-79.213 Y-10.283
X-79.386 Y-10.08
X-79.428 Y-10.028
X-79.579 Y-9.824
X-79.622 Y-9.762
X-79.751 Y-9.557
X-79.793 Y-9.485
X-79.899 Y-9.279
X-79.938 Y-9.196
X-80.021 Y-8.989
X-80.054 Y-8.894
X-80.114 Y-8.687
X-80.138 Y-8.582
X-80.174 Y-8.374
X-80.187 Y-8.265
X-80.199 Y-8.057
Y-7.943
X-80.187 Y-7.735
X-80.174 Y-7.626
X-80.138 Y-7.418
X-80.114 Y-7.313
X-80.054 Y-7.106
X-80.021 Y-7.011
X-79.938 Y-6.804
X-79.899 Y-6.721
X-79.793 Y-6.515
X-79.751 Y-6.443
X-79.622 Y-6.238
X-79.579 Y-6.176
X-79.428 Y-5.972
X-79.386 Y-5.92
X-79.213 Y-5.717
X-79.173 Y-5.674
X-78.979 Y-5.473
X-78.941 Y-5.436
X-78.727 Y-5.238
X-78.691 Y-5.206
X-78.458 Y-5.01
X-78.425 Y-4.984
X-78.173 Y-4.789
X-78.143 Y-4.767
X-77.874 Y-4.576
X-77.846 Y-4.556
X-77.56 Y-4.368
X-77.534 Y-4.351
X-77.233 Y-4.166
X-77.209 Y-4.152
X-76.894 Y-3.97
X-76.86 Y-3.952
X-76.192 Y-3.601
X-76.152 Y-3.581
X-75.439 Y-3.247
X-75.404 Y-3.231
X-74.657 Y-2.917
X-74.624 Y-2.904
X-73.851 Y-2.611
X-73.821 Y-2.6
X-73.031 Y-2.33
X-73.002 Y-2.32
X-72.204 Y-2.075
X-72.176 Y-2.067
X-71.376 Y-1.848
X-71.348 Y-1.84
X-70.555 Y-1.648
X-70.526 Y-1.641
X-69.745 Y-1.476
X-69.716 Y-1.471
X-68.951 Y-1.333
X-68.921 Y-1.328
X-68.177 Y-1.219
X-68.146 Y-1.214
X-67.423 Y-1.132
X-67.391 Y-1.129
X-66.691 Y-1.072
X-66.659 Y-1.07
X-65.977 Y-1.037
X-65.946 Y-1.036
X-65.278 Y-1.025
X-65.25
X-64.59 Y-1.033
X-64.566 Y-1.034
X-63.907 Y-1.058
X-63.887 Y-1.059
X-63.225 Y-1.097
X-63.203 Y-1.098
X-61.851 Y-1.205
X-61.832 Y-1.207
X-60.434 Y-1.345
X-60.422 Y-1.347
X-58.986 Y-1.507
X-58.976 Y-1.508
X-57.519 Y-1.686
X-57.51 Y-1.687
X-56.056 Y-1.877
X-56.046 Y-1.878
X-54.745 Y-2.062
X-54.623 Y-2.08
X-54.611 Y-2.081
X-53.244 Y-2.293
X-53.23 Y-2.295
X-51.933 Y-2.515
X-51.922 Y-2.517
X-50.692 Y-2.74
X-50.689
X-49.506 Y-2.959
X-49.101 Y-3.029
X-48.329 Y-3.163 Z-0.627 F1016
X-47.733 Y-3.255 Z-0.648
X-47.116 Y-3.34 Z-0.67
X-46.472 Y-3.416 Z-0.693
X-45.797 Y-3.483 Z-0.716
X-45.087 Y-3.539 Z-0.741
X-44.34 Y-3.586 Z-0.768
X-43.556 Y-3.622 Z-0.795
X-43.41 Y-3.626 Z-0.8
X-42.736 Y-3.647 F2540
X-41.883 Y-3.662
X-41.002 Y-3.668
X-39.155 Y-3.652
X-37.233 Y-3.605
X-35.269 Y-3.532
X-33.299 Y-3.443
X-31.361 Y-3.345
X-29.488 Y-3.248
X-29.486
X-27.704 Y-3.159
X-27.698 Y-3.158
X-26.015 Y-3.084
X-26.005
X-24.412 Y-3.03
X-24.399 Y-3.029
X-22.877 Y-2.998
X-22.861
X-21.383 Y-2.991
X-21.368
X-19.908 Y-3.007
X-19.895 Y-3.008
X-18.435 Y-3.044
X-18.424 Y-3.045
X-16.954 Y-3.098
X-16.946
X-15.463 Y-3.163
X-15.458
X-13.963 Y-3.235
X-12.46 Y-3.309
X-10.957 Y-3.379
X-9.462 Y-3.439
X-7.981 Y-3.485
X-6.521 Y-3.515
X-5.079 Y-3.525
G2 X-4.396 Y-3.811 I-0.007 J-0.975
G1 X-1.603 Y-6.603
G2 X-1.603 Y-9.397 I-1.397 J-1.397
G1 X-4.396 Y-12.189
G2 X-5.079 Y-12.475 I-0.689 J0.689
G1 X-6.521 Y-12.485
X-7.981 Y-12.515
X-9.462 Y-12.561
X-10.957 Y-12.621
X-12.46 Y-12.691
X-13.962 Y-12.765
X-15.458 Y-12.837
X-15.463
X-16.946 Y-12.902
X-16.954
X-18.424 Y-12.955
X-18.435 Y-12.956
X-19.895 Y-12.992
X-19.908 Y-12.993
X-21.368 Y-13.009
X-21.383
X-22.861 Y-13.002
X-22.877
X-24.399 Y-12.971
X-24.412 Y-12.97
X-26.005 Y-12.916
X-26.015
X-27.698 Y-12.842
X-27.704 Y-12.841
X-29.486 Y-12.752
X-29.488
X-31.361 Y-12.655
X-33.299 Y-12.557
X-35.269 Y-12.468
X-37.233 Y-12.395
X-39.155 Y-12.348
X-41.002 Y-12.332
X-41.883 Y-12.338
X-42.736 Y-12.353
X-43.556 Y-12.379
X-44.34 Y-12.414
X-45.087 Y-12.461
X-45.797 Y-12.517
X-46.472 Y-12.584
X-47.116 Y-12.66
X-47.733 Y-12.745
X-48.329 Y-12.837
X-49.506 Y-13.041
X-50.689 Y-13.26
X-50.692
X-51.922 Y-13.483
X-51.933 Y-13.485
X-53.23 Y-13.705
X-53.244 Y-13.707
X-54.611 Y-13.919
X-54.623 Y-13.92
X-56.046 Y-14.122
X-56.056 Y-14.123
X-57.51 Y-14.313
X-57.519 Y-14.314
X-58.976 Y-14.492
X-58.986 Y-14.493
X-60.422 Y-14.653
X-60.434 Y-14.655
X-61.832 Y-14.793
X-61.851 Y-14.795
X-63.203 Y-14.902
X-63.225 Y-14.903
X-63.887 Y-14.941
X-63.907 Y-14.942
X-64.566 Y-14.966
X-64.59 Y-14.967
X-65.25 Y-14.975
X-65.278
X-65.946 Y-14.964
X-65.977 Y-14.963
X-66.659 Y-14.93
X-66.691 Y-14.928
X-67.391 Y-14.871
X-67.423 Y-14.868
X-68.145 Y-14.786
X-68.177 Y-14.781
X-68.921 Y-14.672
X-68.951 Y-14.667
X-69.716 Y-14.529
X-69.745 Y-14.524
X-70.526 Y-14.359
X-70.555 Y-14.352
X-71.348 Y-14.16
X-71.376 Y-14.152
X-72.176 Y-13.933
X-72.204 Y-13.925
X-73.002 Y-13.68
X-73.031 Y-13.67
X-73.821 Y-13.4
X-73.851 Y-13.389
X-74.624 Y-13.096
X-74.656 Y-13.083
X-75.404 Y-12.769
X-75.439 Y-12.753
X-76.152 Y-12.419
X-76.192 Y-12.399
X-76.86 Y-12.048
X-76.894 Y-12.03
X-77.209 Y-11.848
X-77.233 Y-11.834
X-77.534 Y-11.649
X-77.56 Y-11.632
X-77.846 Y-11.444
X-77.874 Y-11.424
X-78.143 Y-11.233
X-78.173 Y-11.211
X-78.425 Y-11.017
X-78.458 Y-10.99
X-78.692 Y-10.794
X-78.727 Y-10.763
X-78.941 Y-10.564
X-78.979 Y-10.527
X-79.173 Y-10.326
X-79.213 Y-10.283
X-79.386 Y-10.08
X-79.428 Y-10.028
X-79.579 Y-9.824
X-79.622 Y-9.762
X-79.751 Y-9.557
X-79.793 Y-9.485
X-79.899 Y-9.279
X-79.938 Y-9.196
X-80.021 Y-8.989
X-80.054 Y-8.894
X-80.114 Y-8.687
X-80.138 Y-8.582
X-80.174 Y-8.374
X-80.187 Y-8.265
X-80.199 Y-8.057
Y-7.943
X-80.187 Y-7.735
X-80.174 Y-7.626
X-80.138 Y-7.418
X-80.114 Y-7.313
X-80.054 Y-7.106
X-80.021 Y-7.011
X-79.938 Y-6.804
X-79.899 Y-6.721
X-79.793 Y-6.515
X-79.751 Y-6.443
X-79.622 Y-6.238
X-79.579 Y-6.176
X-79.428 Y-5.972
X-79.386 Y-5.92
X-79.213 Y-5.717
X-79.173 Y-5.674
X-78.979 Y-5.473
X-78.941 Y-5.436
X-78.727 Y-5.238
X-78.691 Y-5.206
X-78.458 Y-5.01
X-78.425 Y-4.984
X-78.173 Y-4.789
X-78.143 Y-4.767
X-77.874 Y-4.576
X-77.846 Y-4.556
X-77.56 Y-4.368
X-77.534 Y-4.351
X-77.233 Y-4.166
X-77.209 Y-4.152
X-76.894 Y-3.97
X-76.86 Y-3.952
X-76.192 Y-3.601
X-76.152 Y-3.581
X-75.439 Y-3.247
X-75.404 Y-3.231
X-74.657 Y-2.917
X-74.624 Y-2.904
X-73.851 Y-2.611
X-73.821 Y-2.6
X-73.031 Y-2.33
X-73.002 Y-2.32
X-72.204 Y-2.075
X-72.176 Y-2.067
X-71.376 Y-1.848
X-71.348 Y-1.84
X-70.555 Y-1.648
X-70.526 Y-1.641
X-69.745 Y-1.476
X-69.716 Y-1.471
X-68.951 Y-1.333
X-68.921 Y-1.328
X-68.177 Y-1.219
X-68.146 Y-1.214
X-67.423 Y-1.132
X-67.391 Y-1.129
X-66.691 Y-1.072
X-66.659 Y-1.07
X-65.977 Y-1.037
X-65.946 Y-1.036
X-65.278 Y-1.025
X-65.25
X-64.59 Y-1.033
X-64.566 Y-1.034
X-63.907 Y-1.058
X-63.887 Y-1.059
X-63.225 Y-1.097
X-63.203 Y-1.098
X-61.851 Y-1.205
X-61.832 Y-1.207
X-60.434 Y-1.345
X-60.422 Y-1.347
X-58.986 Y-1.507
X-58.976 Y-1.508
X-57.519 Y-1.686
X-57.51 Y-1.687
X-56.056 Y-1.877
X-56.046 Y-1.878
X-54.623 Y-2.08
X-54.611 Y-2.081
X-53.244 Y-2.293
X-53.23 Y-2.295
X-51.933 Y-2.515
X-51.922 Y-2.517
X-50.692 Y-2.74
X-50.689
X-49.506 Y-2.959
X-48.329 Y-3.163
X-47.733 Y-3.255
X-47.116 Y-3.34
X-46.472 Y-3.416
X-45.797 Y-3.483
X-45.087 Y-3.539
X-44.34 Y-3.586
X-43.556 Y-3.622
X-43.41 Y-3.626
X-42.736 Y-3.647 Z-0.824 F1016
X-41.883 Y-3.662 Z-0.853
X-41.002 Y-3.668 Z-0.884
X-39.155 Y-3.652 Z-0.949
X-37.684 Y-3.616 Z-1
X-37.233 Y-3.605 F2540
X-35.269 Y-3.532
X-33.299 Y-3.443
X-31.361 Y-3.345
X-29.488 Y-3.248
X-29.486
X-27.704 Y-3.159
X-27.698 Y-3.158
X-26.015 Y-3.084
X-26.005
X-24.412 Y-3.03
X-24.399 Y-3.029
X-22.877 Y-2.998
X-22.861
X-21.383 Y-2.991
X-21.368
X-19.908 Y-3.007
X-19.895 Y-3.008
X-18.435 Y-3.044
X-18.424 Y-3.045
X-16.954 Y-3.098
X-16.946
X-15.463 Y-3.163
X-15.458
X-13.963 Y-3.235
X-12.46 Y-3.309
X-10.957 Y-3.379
X-9.462 Y-3.439
X-7.981 Y-3.485
X-6.521 Y-3.515
X-5.079 Y-3.525
G2 X-4.396 Y-3.811 I-0.007 J-0.975
G1 X-1.603 Y-6.603
G2 X-1.603 Y-9.397 I-1.397 J-1.397
G1 X-4.396 Y-12.189
G2 X-5.079 Y-12.475 I-0.689 J0.689
G1 X-6.521 Y-12.485
X-7.981 Y-12.515
X-9.462 Y-12.561
X-10.957 Y-12.621
X-12.46 Y-12.691
X-13.962 Y-12.765
X-15.458 Y-12.837
X-15.463
X-16.946 Y-12.902
X-16.954
X-18.424 Y-12.955
X-18.435 Y-12.956
X-19.895 Y-12.992
X-19.908 Y-12.993
X-21.368 Y-13.009
X-21.383
X-22.861 Y-13.002
X-22.877
X-24.399 Y-12.971
X-24.412 Y-12.97
X-26.005 Y-12.916
X-26.015
X-27.698 Y-12.842
X-27.704 Y-12.841
X-29.486 Y-12.752
X-29.488
X-31.361 Y-12.655
X-33.299 Y-12.557
X-35.269 Y-12.468
X-37.233 Y-12.395
X-39.155 Y-12.348
X-41.002 Y-12.332
X-41.883 Y-12.338
X-42.736 Y-12.353
X-43.556 Y-12.379
X-44.34 Y-12.414
X-45.087 Y-12.461
X-45.797 Y-12.517
X-46.472 Y-12.584
X-47.116 Y-12.66
X-47.733 Y-12.745
X-48.329 Y-12.837
X-49.506 Y-13.041
X-50.689 Y-13.26
X-50.692
X-51.922 Y-13.483
X-51.933 Y-13.485
X-53.23 Y-13.705
X-53.244 Y-13.707
X-54.611 Y-13.919
X-54.623 Y-13.92
X-56.046 Y-14.122
X-56.056 Y-14.123
X-57.51 Y-14.313
X-57.519 Y-14.314
X-58.976 Y-14.492
X-58.986 Y-14.493
X-60.422 Y-14.653
X-60.434 Y-14.655
X-61.832 Y-14.793
X-61.851 Y-14.795
X-63.203 Y-14.902
X-63.225 Y-14.903
X-63.887 Y-14.941
X-63.907 Y-14.942
X-64.566 Y-14.966
X-64.59 Y-14.967
X-65.25 Y-14.975
X-65.278
X-65.946 Y-14.964
X-65.977 Y-14.963
X-66.659 Y-14.93
X-66.691 Y-14.928
X-67.391 Y-14.871
X-67.423 Y-14.868
X-68.145 Y-14.786
X-68.177 Y-14.781
X-68.921 Y-14.672
X-68.951 Y-14.667
X-69.716 Y-14.529
X-69.745 Y-14.524
X-70.526 Y-14.359
X-70.555 Y-14.352
X-71.348 Y-14.16
X-71.376 Y-14.152
X-72.176 Y-13.933
X-72.204 Y-13.925
X-73.002 Y-13.68
X-73.031 Y-13.67
X-73.821 Y-13.4
X-73.851 Y-13.389
X-74.624 Y-13.096
X-74.656 Y-13.083
X-75.404 Y-12.769
X-75.439 Y-12.753
X-76.152 Y-12.419
X-76.192 Y-12.399
X-76.86 Y-12.048
X-76.894 Y-12.03
X-77.209 Y-11.848
X-77.233 Y-11.834
X-77.534 Y-11.649
X-77.56 Y-11.632
X-77.846 Y-11.444
X-77.874 Y-11.424
X-78.143 Y-11.233
X-78.173 Y-11.211
X-78.425 Y-11.017
X-78.458 Y-10.99
X-78.692 Y-10.794
X-78.727 Y-10.763
X-78.941 Y-10.564
X-78.979 Y-10.527
X-79.173 Y-10.326
X-79.213 Y-10.283
X-79.386 Y-10.08
X-79.428 Y-10.028
X-79.579 Y-9.824
X-79.622 Y-9.762
X-79.751 Y-9.557
X-79.793 Y-9.485
X-79.899 Y-9.279
X-79.938 Y-9.196
X-80.021 Y-8.989
X-80.054 Y-8.894
X-80.114 Y-8.687
X-80.138 Y-8.582
X-80.174 Y-8.374
X-80.187 Y-8.265
X-80.199 Y-8.057
Y-7.943
X-80.187 Y-7.735
X-80.174 Y-7.626
X-80.138 Y-7.418
X-80.114 Y-7.313
X-80.054 Y-7.106
X-80.021 Y-7.011
X-79.938 Y-6.804
X-79.899 Y-6.721
X-79.793 Y-6.515
X-79.751 Y-6.443
X-79.622 Y-6.238
X-79.579 Y-6.176
X-79.428 Y-5.972
X-79.386 Y-5.92
X-79.213 Y-5.717
X-79.173 Y-5.674
X-78.979 Y-5.473
X-78.941 Y-5.436
X-78.727 Y-5.238
X-78.691 Y-5.206
X-78.458 Y-5.01
X-78.425 Y-4.984
X-78.173 Y-4.789
X-78.143 Y-4.767
X-77.874 Y-4.576
X-77.846 Y-4.556
X-77.56 Y-4.368
X-77.534 Y-4.351
X-77.233 Y-4.166
X-77.209 Y-4.152
X-76.894 Y-3.97
X-76.86 Y-3.952
X-76.192 Y-3.601
X-76.152 Y-3.581
X-75.439 Y-3.247
X-75.404 Y-3.231
X-74.657 Y-2.917
X-74.624 Y-2.904
X-73.851 Y-2.611
X-73.821 Y-2.6
X-73.031 Y-2.33
X-73.002 Y-2.32
X-72.204 Y-2.075
X-72.176 Y-2.067
X-71.376 Y-1.848
X-71.348 Y-1.84
X-70.555 Y-1.648
X-70.526 Y-1.641
X-69.745 Y-1.476
X-69.716 Y-1.471
X-68.951 Y-1.333
X-68.921 Y-1.328
X-68.177 Y-1.219
X-68.146 Y-1.214
X-67.423 Y-1.132
X-67.391 Y-1.129
X-66.691 Y-1.072
X-66.659 Y-1.07
X-65.977 Y-1.037
X-65.946 Y-1.036
X-65.278 Y-1.025
X-65.25
X-64.59 Y-1.033
X-64.566 Y-1.034
X-63.907 Y-1.058
X-63.887 Y-1.059
X-63.225 Y-1.097
X-63.203 Y-1.098
X-61.851 Y-1.205
X-61.832 Y-1.207
X-60.434 Y-1.345
X-60.422 Y-1.347
X-58.986 Y-1.507
X-58.976 Y-1.508
X-57.519 Y-1.686
X-57.51 Y-1.687
X-56.056 Y-1.877
X-56.046 Y-1.878
X-54.623 Y-2.08
X-54.611 Y-2.081
X-53.244 Y-2.293
X-53.23 Y-2.295
X-51.933 Y-2.515
X-51.922 Y-2.517
X-50.692 Y-2.74
X-50.689
X-49.506 Y-2.959
X-48.329 Y-3.163
X-47.733 Y-3.255
X-47.116 Y-3.34
X-46.472 Y-3.416
X-45.797 Y-3.483
X-45.087 Y-3.539
X-44.34 Y-3.586
X-43.556 Y-3.622
X-42.736 Y-3.647
X-41.883 Y-3.662
X-41.002 Y-3.668
X-39.155 Y-3.652
X-37.684 Y-3.616
X-37.233 Y-3.605 Z-1.016 F1016
X-35.269 Y-3.532 Z-1.084
X-33.299 Y-3.443 Z-1.153
X-31.962 Y-3.375 Z-1.2
X-31.361 Y-3.345 F2540
X-29.488 Y-3.248
X-29.486
X-27.704 Y-3.159
X-27.698 Y-3.158
X-26.015 Y-3.084
X-26.005
X-24.412 Y-3.03
X-24.399 Y-3.029
X-22.877 Y-2.998
X-22.861
X-21.383 Y-2.991
X-21.368
X-19.908 Y-3.007
X-19.895 Y-3.008
X-18.435 Y-3.044
X-18.424 Y-3.045
X-16.954 Y-3.098
X-16.946
X-15.463 Y-3.163
X-15.458
X-13.963 Y-3.235
X-12.46 Y-3.309
X-10.957 Y-3.379
X-9.462 Y-3.439
X-7.981 Y-3.485
X-6.521 Y-3.515
X-5.079 Y-3.525
G2 X-4.396 Y-3.811 I-0.007 J-0.975
G1 X-1.603 Y-6.603
G2 X-1.603 Y-9.397 I-1.397 J-1.397
G1 X-4.396 Y-12.189
G2 X-5.079 Y-12.475 I-0.689 J0.689
G1 X-6.521 Y-12.485
X-7.981 Y-12.515
X-9.462 Y-12.561
X-10.957 Y-12.621
X-12.46 Y-12.691
X-13.962 Y-12.765
X-15.458 Y-12.837
X-15.463
X-16.946 Y-12.902
X-16.954
X-18.424 Y-12.955
X-18.435 Y-12.956
X-19.895 Y-12.992
X-19.908 Y-12.993
X-21.368 Y-13.009
X-21.383
X-22.861 Y-13.002
X-22.877
X-24.399 Y-12.971
X-24.412 Y-12.97
X-26.005 Y-12.916
X-26.015
X-27.698 Y-12.842
X-27.704 Y-12.841
X-29.486 Y-12.752
X-29.488
X-31.361 Y-12.655
X-33.299 Y-12.557
X-35.269 Y-12.468
X-37.233 Y-12.395
X-39.155 Y-12.348
X-41.002 Y-12.332
X-41.883 Y-12.338
X-42.736 Y-12.353
X-43.556 Y-12.379
X-44.34 Y-12.414
X-45.087 Y-12.461
X-45.797 Y-12.517
X-46.472 Y-12.584
X-47.116 Y-12.66
X-47.733 Y-12.745
X-48.329 Y-12.837
X-49.506 Y-13.041
X-50.689 Y-13.26
X-50.692
X-51.922 Y-13.483
X-51.933 Y-13.485
X-53.23 Y-13.705
X-53.244 Y-13.707
X-54.611 Y-13.919
X-54.623 Y-13.92
X-56.046 Y-14.122
X-56.056 Y-14.123
X-57.51 Y-14.313
X-57.519 Y-14.314
X-58.976 Y-14.492
X-58.986 Y-14.493
X-60.422 Y-14.653
X-60.434 Y-14.655
X-61.832 Y-14.793
X-61.851 Y-14.795
X-63.203 Y-14.902
X-63.225 Y-14.903
X-63.887 Y-14.941
X-63.907 Y-14.942
X-64.566 Y-14.966
X-64.59 Y-14.967
X-65.25 Y-14.975
X-65.278
X-65.946 Y-14.964
X-65.977 Y-14.963
X-66.659 Y-14.93
X-66.691 Y-14.928
X-67.391 Y-14.871
X-67.423 Y-14.868
X-68.145 Y-14.786
X-68.177 Y-14.781
X-68.921 Y-14.672
X-68.951 Y-14.667
X-69.716 Y-14.529
X-69.745 Y-14.524
X-70.526 Y-14.359
X-70.555 Y-14.352
X-71.348 Y-14.16
X-71.376 Y-14.152
X-72.176 Y-13.933
X-72.204 Y-13.925
X-73.002 Y-13.68
X-73.031 Y-13.67
X-73.821 Y-13.4
X-73.851 Y-13.389
X-74.624 Y-13.096
X-74.656 Y-13.083
X-75.404 Y-12.769
X-75.439 Y-12.753
X-76.152 Y-12.419
X-76.192 Y-12.399
X-76.86 Y-12.048
X-76.894 Y-12.03
X-77.209 Y-11.848
X-77.233 Y-11.834
X-77.534 Y-11.649
X-77.56 Y-11.632
X-77.846 Y-11.444
X-77.874 Y-11.424
X-78.143 Y-11.233
X-78.173 Y-11.211
X-78.425 Y-11.017
X-78.458 Y-10.99
X-78.692 Y-10.794
X-78.727 Y-10.763
X-78.941 Y-10.564
X-78.979 Y-10.527
X-79.173 Y-10.326
X-79.213 Y-10.283
X-79.386 Y-10.08
X-79.428 Y-10.028
X-79.579 Y-9.824
X-79.622 Y-9.762
X-79.751 Y-9.557
X-79.793 Y-9.485
X-79.899 Y-9.279
X-79.938 Y-9.196
X-80.021 Y-8.989
X-80.054 Y-8.894
X-80.114 Y-8.687
X-80.138 Y-8.582
X-80.174 Y-8.374
X-80.187 Y-8.265
X-80.199 Y-8.057
Y-7.943
X-80.187 Y-7.735
X-80.174 Y-7.626
X-80.138 Y-7.418
X-80.114 Y-7.313
X-80.054 Y-7.106
X-80.021 Y-7.011
X-79.938 Y-6.804
X-79.899 Y-6.721
X-79.793 Y-6.515
X-79.751 Y-6.443
X-79.622 Y-6.238
X-79.579 Y-6.176
X-79.428 Y-5.972
X-79.386 Y-5.92
X-79.213 Y-5.717
X-79.173 Y-5.674
X-78.979 Y-5.473
X-78.941 Y-5.436
X-78.727 Y-5.238
X-78.691 Y-5.206
X-78.458 Y-5.01
X-78.425 Y-4.984
X-78.173 Y-4.789
X-78.143 Y-4.767
X-77.874 Y-4.576
X-77.846 Y-4.556
X-77.56 Y-4.368
X-77.534 Y-4.351
X-77.233 Y-4.166
X-77.209 Y-4.152
X-76.894 Y-3.97
X-76.86 Y-3.952
X-76.192 Y-3.601
X-76.152 Y-3.581
X-75.439 Y-3.247
X-75.404 Y-3.231
X-74.657 Y-2.917
X-74.624 Y-2.904
X-73.851 Y-2.611
X-73.821 Y-2.6
X-73.031 Y-2.33
X-73.002 Y-2.32
X-72.204 Y-2.075
X-72.176 Y-2.067
X-71.376 Y-1.848
X-71.348 Y-1.84
X-70.555 Y-1.648
X-70.526 Y-1.641
X-69.745 Y-1.476
X-69.716 Y-1.471
X-68.951 Y-1.333
X-68.921 Y-1.328
X-68.177 Y-1.219
X-68.146 Y-1.214
X-67.423 Y-1.132
X-67.391 Y-1.129
X-66.691 Y-1.072
X-66.659 Y-1.07
X-65.977 Y-1.037
X-65.946 Y-1.036
X-65.278 Y-1.025
X-65.25
X-64.59 Y-1.033
X-64.566 Y-1.034
X-63.907 Y-1.058
X-63.887 Y-1.059
X-63.225 Y-1.097
X-63.203 Y-1.098
X-61.851 Y-1.205
X-61.832 Y-1.207
X-60.434 Y-1.345
X-60.422 Y-1.347
X-58.986 Y-1.507
X-58.976 Y-1.508
X-57.519 Y-1.686
X-57.51 Y-1.687
X-56.056 Y-1.877
X-56.046 Y-1.878
X-54.623 Y-2.08
X-54.611 Y-2.081
X-53.244 Y-2.293
X-53.23 Y-2.295
X-51.933 Y-2.515
X-51.922 Y-2.517
X-50.692 Y-2.74
X-50.689
X-49.506 Y-2.959
X-48.329 Y-3.163
X-47.733 Y-3.255
X-47.116 Y-3.34
X-46.472 Y-3.416
X-45.797 Y-3.483
X-45.087 Y-3.539
X-44.34 Y-3.586
X-43.556 Y-3.622
X-42.736 Y-3.647
X-41.883 Y-3.662
X-41.002 Y-3.668
X-39.155 Y-3.652
X-37.684 Y-3.616
X-37.233 Y-3.605
X-35.269 Y-3.532
X-33.299 Y-3.443
X-31.962 Y-3.375
X-31.361 Y-3.345 Z-1.221 F1016
X-29.488 Y-3.248 Z-1.287
X-29.486
X-27.704 Y-3.159 Z-1.349
X-27.698 Y-3.158
X-26.242 Y-3.094 Z-1.4
X-26.015 Y-3.084 F2540
X-26.005
X-24.412 Y-3.03
X-24.399 Y-3.029
X-22.877 Y-2.998
X-22.861
X-21.383 Y-2.991
X-21.368
X-19.908 Y-3.007
X-19.895 Y-3.008
X-18.435 Y-3.044
X-18.424 Y-3.045
X-16.954 Y-3.098
X-16.946
X-15.463 Y-3.163
X-15.458
X-13.963 Y-3.235
X-12.46 Y-3.309
X-10.957 Y-3.379
X-9.462 Y-3.439
X-7.981 Y-3.485
X-6.521 Y-3.515
X-5.079 Y-3.525
G2 X-4.396 Y-3.811 I-0.007 J-0.975
G1 X-1.603 Y-6.603
G2 X-1.603 Y-9.397 I-1.397 J-1.397
G1 X-4.396 Y-12.189
G2 X-5.079 Y-12.475 I-0.689 J0.689
G1 X-6.521 Y-12.485
X-7.981 Y-12.515
X-9.462 Y-12.561
X-10.957 Y-12.621
X-12.46 Y-12.691
X-13.962 Y-12.765
X-15.458 Y-12.837
X-15.463
X-16.946 Y-12.902
X-16.954
X-18.424 Y-12.955
X-18.435 Y-12.956
X-19.895 Y-12.992
X-19.908 Y-12.993
X-21.368 Y-13.009
X-21.383
X-22.861 Y-13.002
X-22.877
X-24.399 Y-12.971
X-24.412 Y-12.97
X-26.005 Y-12.916
X-26.015
X-27.698 Y-12.842
X-27.704 Y-12.841
X-29.486 Y-12.752
X-29.488
X-31.361 Y-12.655
X-33.299 Y-12.557
X-35.269 Y-12.468
X-37.233 Y-12.395
X-39.155 Y-12.348
X-41.002 Y-12.332
X-41.883 Y-12.338
X-42.736 Y-12.353
X-43.556 Y-12.379
X-44.34 Y-12.414
X-45.087 Y-12.461
X-45.797 Y-12.517
X-46.472 Y-12.584
X-47.116 Y-12.66
X-47.733 Y-12.745
X-48.329 Y-12.837
X-49.506 Y-13.041
X-50.689 Y-13.26
X-50.692
X-51.922 Y-13.483
X-51.933 Y-13.485
X-53.23 Y-13.705
X-53.244 Y-13.707
X-54.611 Y-13.919
X-54.623 Y-13.92
X-56.046 Y-14.122
X-56.056 Y-14.123
X-57.51 Y-14.313
X-57.519 Y-14.314
X-58.976 Y-14.492
X-58.986 Y-14.493
X-60.422 Y-14.653
X-60.434 Y-14.655
X-61.832 Y-14.793
X-61.851 Y-14.795
X-63.203 Y-14.902
X-63.225 Y-14.903
X-63.887 Y-14.941
X-63.907 Y-14.942
X-64.566 Y-14.966
X-64.59 Y-14.967
X-65.25 Y-14.975
X-65.278
X-65.946 Y-14.964
X-65.977 Y-14.963
X-66.659 Y-14.93
X-66.691 Y-14.928
X-67.391 Y-14.871
X-67.423 Y-14.868
X-68.145 Y-14.786
X-68.177 Y-14.781
X-68.921 Y-14.672
X-68.951 Y-14.667
X-69.716 Y-14.529
X-69.745 Y-14.524
X-70.526 Y-14.359
X-70.555 Y-14.352
X-71.348 Y-14.16
X-71.376 Y-14.152
X-72.176 Y-13.933
X-72.204 Y-13.925
X-73.002 Y-13.68
X-73.031 Y-13.67
X-73.821 Y-13.4
X-73.851 Y-13.389
X-74.624 Y-13.096
X-74.656 Y-13.083
X-75.404 Y-12.769
X-75.439 Y-12.753
X-76.152 Y-12.419
X-76.192 Y-12.399
X-76.86 Y-12.048
X-76.894 Y-12.03
X-77.209 Y-11.848
X-77.233 Y-11.834
X-77.534 Y-11.649
X-77.56 Y-11.632
X-77.846 Y-11.444
X-77.874 Y-11.424
X-78.143 Y-11.233
X-78.173 Y-11.211
X-78.425 Y-11.017
X-78.458 Y-10.99
X-78.692 Y-10.794
X-78.727 Y-10.763
X-78.941 Y-10.564
X-78.979 Y-10.527
X-79.173 Y-10.326
X-79.213 Y-10.283
X-79.386 Y-10.08
X-79.428 Y-10.028
X-79.579 Y-9.824
X-79.622 Y-9.762
X-79.751 Y-9.557
X-79.793 Y-9.485
X-79.899 Y-9.279
X-79.938 Y-9.196
X-80.021 Y-8.989
X-80.054 Y-8.894
X-80.114 Y-8.687
X-80.138 Y-8.582
X-80.174 Y-8.374
X-80.187 Y-8.265
X-80.199 Y-8.057
Y-7.943
X-80.187 Y-7.735
X-80.174 Y-7.626
X-80.138 Y-7.418
X-80.114 Y-7.313
X-80.054 Y-7.106
X-80.021 Y-7.011
X-79.938 Y-6.804
X-79.899 Y-6.721
X-79.793 Y-6.515
X-79.751 Y-6.443
X-79.622 Y-6.238
X-79.579 Y-6.176
X-79.428 Y-5.972
X-79.386 Y-5.92
X-79.213 Y-5.717
X-79.173 Y-5.674
X-78.979 Y-5.473
X-78.941 Y-5.436
X-78.727 Y-5.238
X-78.691 Y-5.206
X-78.458 Y-5.01
X-78.425 Y-4.984
X-78.173 Y-4.789
X-78.143 Y-4.767
X-77.874 Y-4.576
X-77.846 Y-4.556
X-77.56 Y-4.368
X-77.534 Y-4.351
X-77.233 Y-4.166
X-77.209 Y-4.152
X-76.894 Y-3.97
X-76.86 Y-3.952
X-76.192 Y-3.601
X-76.152 Y-3.581
X-75.439 Y-3.247
X-75.404 Y-3.231
X-74.657 Y-2.917
X-74.624 Y-2.904
X-73.851 Y-2.611
X-73.821 Y-2.6
X-73.031 Y-2.33
X-73.002 Y-2.32
X-72.204 Y-2.075
X-72.176 Y-2.067
X-71.376 Y-1.848
X-71.348 Y-1.84
X-70.555 Y-1.648
X-70.526 Y-1.641
X-69.745 Y-1.476
X-69.716 Y-1.471
X-68.951 Y-1.333
X-68.921 Y-1.328
X-68.177 Y-1.219
X-68.146 Y-1.214
X-67.423 Y-1.132
X-67.391 Y-1.129
X-66.691 Y-1.072
X-66.659 Y-1.07
X-65.977 Y-1.037
X-65.946 Y-1.036
X-65.278 Y-1.025
X-65.25
X-64.59 Y-1.033
X-64.566 Y-1.034
X-63.907 Y-1.058
X-63.887 Y-1.059
X-63.225 Y-1.097
X-63.203 Y-1.098
X-61.851 Y-1.205
X-61.832 Y-1.207
X-60.434 Y-1.345
X-60.422 Y-1.347
X-58.986 Y-1.507
X-58.976 Y-1.508
X-57.519 Y-1.686
X-57.51 Y-1.687
X-56.056 Y-1.877
X-56.046 Y-1.878
X-54.623 Y-2.08
X-54.611 Y-2.081
X-53.244 Y-2.293
X-53.23 Y-2.295
X-51.933 Y-2.515
X-51.922 Y-2.517
X-50.692 Y-2.74
X-50.689
X-49.506 Y-2.959
X-48.329 Y-3.163
X-47.733 Y-3.255
X-47.116 Y-3.34
X-46.472 Y-3.416
X-45.797 Y-3.483
X-45.087 Y-3.539
X-44.34 Y-3.586
X-43.556 Y-3.622
X-42.736 Y-3.647
X-41.883 Y-3.662
X-41.002 Y-3.668
X-39.155 Y-3.652
X-37.233 Y-3.605
X-35.269 Y-3.532
X-33.299 Y-3.443
X-31.962 Y-3.375
X-31.361 Y-3.345
X-29.488 Y-3.248
X-29.486
X-27.704 Y-3.159
X-27.698 Y-3.158
X-26.242 Y-3.094
X-26.015 Y-3.084 Z-1.408 F1016
X-26.005
X-24.412 Y-3.03 Z-1.464
X-24.399 Y-3.029
X-22.877 Y-2.998 Z-1.518
X-22.861
X-21.383 Y-2.991 Z-1.57
X-21.368
X-20.516 Y-3.001 Z-1.6
X-19.908 Y-3.007 F2540
X-19.895 Y-3.008
X-18.435 Y-3.044
X-18.424 Y-3.045
X-16.954 Y-3.098
X-16.946
X-15.463 Y-3.163
X-15.458
X-13.963 Y-3.235
X-12.46 Y-3.309
X-10.957 Y-3.379
X-9.462 Y-3.439
X-7.981 Y-3.485
X-6.521 Y-3.515
X-5.079 Y-3.525
G2 X-4.396 Y-3.811 I-0.007 J-0.975
G1 X-1.603 Y-6.603
G2 X-1.603 Y-9.397 I-1.397 J-1.397
G1 X-4.396 Y-12.189
G2 X-5.079 Y-12.475 I-0.689 J0.689
G1 X-6.521 Y-12.485
X-7.981 Y-12.515
X-9.462 Y-12.561
X-10.957 Y-12.621
X-12.46 Y-12.691
X-13.962 Y-12.765
X-15.458 Y-12.837
X-15.463
X-16.946 Y-12.902
X-16.954
X-18.424 Y-12.955
X-18.435 Y-12.956
X-19.895 Y-12.992
X-19.908 Y-12.993
X-21.368 Y-13.009
X-21.383
X-22.861 Y-13.002
X-22.877
X-24.399 Y-12.971
X-24.412 Y-12.97
X-26.005 Y-12.916
X-26.015
X-27.698 Y-12.842
X-27.704 Y-12.841
X-29.486 Y-12.752
X-29.488
X-31.361 Y-12.655
X-33.299 Y-12.557
X-35.269 Y-12.468
X-37.233 Y-12.395
X-39.155 Y-12.348
X-41.002 Y-12.332
X-41.883 Y-12.338
X-42.736 Y-12.353
X-43.556 Y-12.379
X-44.34 Y-12.414
X-45.087 Y-12.461
X-45.797 Y-12.517
X-46.472 Y-12.584
X-47.116 Y-12.66
X-47.733 Y-12.745
X-48.329 Y-12.837
X-49.506 Y-13.041
X-50.689 Y-13.26
X-50.692
X-51.922 Y-13.483
X-51.933 Y-13.485
X-53.23 Y-13.705
X-53.244 Y-13.707
X-54.611 Y-13.919
X-54.623 Y-13.92
X-56.046 Y-14.122
X-56.056 Y-14.123
X-57.51 Y-14.313
X-57.519 Y-14.314
X-58.976 Y-14.492
X-58.986 Y-14.493
X-60.422 Y-14.653
X-60.434 Y-14.655
X-61.832 Y-14.793
X-61.851 Y-14.795
X-63.203 Y-14.902
X-63.225 Y-14.903
X-63.887 Y-14.941
X-63.907 Y-14.942
X-64.566 Y-14.966
X-64.59 Y-14.967
X-65.25 Y-14.975
X-65.278
X-65.946 Y-14.964
X-65.977 Y-14.963
X-66.659 Y-14.93
X-66.691 Y-14.928
X-67.391 Y-14.871
X-67.423 Y-14.868
X-68.145 Y-14.786
X-68.177 Y-14.781
X-68.921 Y-14.672
X-68.951 Y-14.667
X-69.716 Y-14.529
X-69.745 Y-14.524
X-70.526 Y-14.359
X-70.555 Y-14.352
X-71.348 Y-14.16
X-71.376 Y-14.152
X-72.176 Y-13.933
X-72.204 Y-13.925
X-73.002 Y-13.68
X-73.031 Y-13.67
X-73.821 Y-13.4
X-73.851 Y-13.389
X-74.624 Y-13.096
X-74.656 Y-13.083
X-75.404 Y-12.769
X-75.439 Y-12.753
X-76.152 Y-12.419
X-76.192 Y-12.399
X-76.86 Y-12.048
X-76.894 Y-12.03
X-77.209 Y-11.848
X-77.233 Y-11.834
X-77.534 Y-11.649
X-77.56 Y-11.632
X-77.846 Y-11.444
X-77.874 Y-11.424
X-78.143 Y-11.233
X-78.173 Y-11.211
X-78.425 Y-11.017
X-78.458 Y-10.99
X-78.692 Y-10.794
X-78.727 Y-10.763
X-78.941 Y-10.564
X-78.979 Y-10.527
X-79.173 Y-10.326
X-79.213 Y-10.283
X-79.386 Y-10.08
X-79.428 Y-10.028
X-79.579 Y-9.824
X-79.622 Y-9.762
X-79.751 Y-9.557
X-79.793 Y-9.485
X-79.899 Y-9.279
X-79.938 Y-9.196
X-80.021 Y-8.989
X-80.054 Y-8.894
X-80.114 Y-8.687
X-80.138 Y-8.582
X-80.174 Y-8.374
X-80.187 Y-8.265
X-80.199 Y-8.057
Y-7.943
X-80.187 Y-7.735
X-80.174 Y-7.626
X-80.138 Y-7.418
X-80.114 Y-7.313
X-80.054 Y-7.106
X-80.021 Y-7.011
X-79.938 Y-6.804
X-79.899 Y-6.721
X-79.793 Y-6.515
X-79.751 Y-6.443
X-79.622 Y-6.238
X-79.579 Y-6.176
X-79.428 Y-5.972
X-79.386 Y-5.92
X-79.213 Y-5.717
X-79.173 Y-5.674
X-78.979 Y-5.473
X-78.941 Y-5.436
X-78.727 Y-5.238
X-78.691 Y-5.206
X-78.458 Y-5.01
X-78.425 Y-4.984
X-78.173 Y-4.789
X-78.143 Y-4.767
X-77.874 Y-4.576
X-77.846 Y-4.556
X-77.56 Y-4.368
X-77.534 Y-4.351
X-77.233 Y-4.166
X-77.209 Y-4.152
X-76.894 Y-3.97
X-76.86 Y-3.952
X-76.192 Y-3.601
X-76.152 Y-3.581
X-75.439 Y-3.247
X-75.404 Y-3.231
X-74.657 Y-2.917
X-74.624 Y-2.904
X-73.851 Y-2.611
X-73.821 Y-2.6
X-73.031 Y-2.33
X-73.002 Y-2.32
X-72.204 Y-2.075
X-72.176 Y-2.067
X-71.376 Y-1.848
X-71.348 Y-1.84
X-70.555 Y-1.648
X-70.526 Y-1.641
X-69.745 Y-1.476
X-69.716 Y-1.471
X-68.951 Y-1.333
X-68.921 Y-1.328
X-68.177 Y-1.219
X-68.146 Y-1.214
X-67.423 Y-1.132
X-67.391 Y-1.129
X-66.691 Y-1.072
X-66.659 Y-1.07
X-65.977 Y-1.037
X-65.946 Y-1.036
X-65.278 Y-1.025
X-65.25
X-64.59 Y-1.033
X-64.566 Y-1.034
X-63.907 Y-1.058
X-63.887 Y-1.059
X-63.225 Y-1.097
X-63.203 Y-1.098
X-61.851 Y-1.205
X-61.832 Y-1.207
X-60.434 Y-1.345
X-60.422 Y-1.347
X-58.986 Y-1.507
X-58.976 Y-1.508
X-57.519 Y-1.686
X-57.51 Y-1.687
X-56.056 Y-1.877
X-56.046 Y-1.878
X-54.623 Y-2.08
X-54.611 Y-2.081
X-53.244 Y-2.293
X-53.23 Y-2.295
X-51.933 Y-2.515
X-51.922 Y-2.517
X-50.692 Y-2.74
X-50.689
X-49.506 Y-2.959
X-48.329 Y-3.163
X-47.733 Y-3.255
X-47.116 Y-3.34
X-46.472 Y-3.416
X-45.797 Y-3.483
X-45.087 Y-3.539
X-44.34 Y-3.586
X-43.556 Y-3.622
X-42.736 Y-3.647
X-41.883 Y-3.662
X-41.002 Y-3.668
X-39.155 Y-3.652
X-37.233 Y-3.605
X-35.269 Y-3.532
X-33.299 Y-3.443
X-31.361 Y-3.345
X-29.488 Y-3.248
X-29.486
X-27.704 Y-3.159
X-27.698 Y-3.158
X-26.242 Y-3.094
X-26.015 Y-3.084
X-26.005
X-24.412 Y-3.03
X-24.399 Y-3.029
X-22.877 Y-2.998
X-22.861
X-21.383 Y-2.991
X-21.368
X-20.516 Y-3.001
X-19.908 Y-3.007 Z-1.621 F1016
X-19.895 Y-3.008 Z-1.622
X-18.435 Y-3.044 Z-1.673
X-18.424 Y-3.045
X-16.954 Y-3.098 Z-1.724
X-16.946 Z-1.725
X-15.463 Y-3.163 Z-1.777
X-15.458
X-14.792 Y-3.195 Z-1.8
X-13.963 Y-3.235 F2540
X-12.46 Y-3.309
X-10.957 Y-3.379
X-9.462 Y-3.439
X-7.981 Y-3.485
X-6.521 Y-3.515
X-5.079 Y-3.525
G2 X-4.396 Y-3.811 I-0.007 J-0.975
G1 X-1.603 Y-6.603
G2 X-1.603 Y-9.397 I-1.397 J-1.397
G1 X-4.396 Y-12.189
G2 X-5.079 Y-12.475 I-0.689 J0.689
G1 X-6.521 Y-12.485
X-7.981 Y-12.515
X-9.462 Y-12.561
X-10.957 Y-12.621
X-12.46 Y-12.691
X-13.962 Y-12.765
X-15.458 Y-12.837
X-15.463
X-16.946 Y-12.902
X-16.954
X-18.424 Y-12.955
X-18.435 Y-12.956
X-19.895 Y-12.992
X-19.908 Y-12.993
X-21.368 Y-13.009
X-21.383
X-22.861 Y-13.002
X-22.877
X-24.399 Y-12.971
X-24.412 Y-12.97
X-26.005 Y-12.916
X-26.015
X-27.698 Y-12.842
X-27.704 Y-12.841
X-29.486 Y-12.752
X-29.488
X-31.361 Y-12.655
X-33.299 Y-12.557
X-35.269 Y-12.468
X-37.233 Y-12.395
X-39.155 Y-12.348
X-41.002 Y-12.332
X-41.883 Y-12.338
X-42.736 Y-12.353
X-43.556 Y-12.379
X-44.34 Y-12.414
X-45.087 Y-12.461
X-45.797 Y-12.517
X-46.472 Y-12.584
X-47.116 Y-12.66
X-47.733 Y-12.745
X-48.329 Y-12.837
X-49.506 Y-13.041
X-50.689 Y-13.26
X-50.692
X-51.922 Y-13.483
X-51.933 Y-13.485
X-53.23 Y-13.705
X-53.244 Y-13.707
X-54.611 Y-13.919
X-54.623 Y-13.92
X-56.046 Y-14.122
X-56.056 Y-14.123
X-57.51 Y-14.313
X-57.519 Y-14.314
X-58.976 Y-14.492
X-58.986 Y-14.493
X-60.422 Y-14.653
X-60.434 Y-14.655
X-61.832 Y-14.793
X-61.851 Y-14.795
X-63.203 Y-14.902
X-63.225 Y-14.903
X-63.887 Y-14.941
X-63.907 Y-14.942
X-64.566 Y-14.966
X-64.59 Y-14.967
X-65.25 Y-14.975
X-65.278
X-65.946 Y-14.964
X-65.977 Y-14.963
X-66.659 Y-14.93
X-66.691 Y-14.928
X-67.391 Y-14.871
X-67.423 Y-14.868
X-68.145 Y-14.786
X-68.177 Y-14.781
X-68.921 Y-14.672
X-68.951 Y-14.667
X-69.716 Y-14.529
X-69.745 Y-14.524
X-70.526 Y-14.359
X-70.555 Y-14.352
X-71.348 Y-14.16
X-71.376 Y-14.152
X-72.176 Y-13.933
X-72.204 Y-13.925
X-73.002 Y-13.68
X-73.031 Y-13.67
X-73.821 Y-13.4
X-73.851 Y-13.389
X-74.624 Y-13.096
X-74.656 Y-13.083
X-75.404 Y-12.769
X-75.439 Y-12.753
X-76.152 Y-12.419
X-76.192 Y-12.399
X-76.86 Y-12.048
X-76.894 Y-12.03
X-77.209 Y-11.848
X-77.233 Y-11.834
X-77.534 Y-11.649
X-77.56 Y-11.632
X-77.846 Y-11.444
X-77.874 Y-11.424
X-78.143 Y-11.233
X-78.173 Y-11.211
X-78.425 Y-11.017
X-78.458 Y-10.99
X-78.692 Y-10.794
X-78.727 Y-10.763
X-78.941 Y-10.564
X-78.979 Y-10.527
X-79.173 Y-10.326
X-79.213 Y-10.283
X-79.386 Y-10.08
X-79.428 Y-10.028
X-79.579 Y-9.824
X-79.622 Y-9.762
X-79.751 Y-9.557
X-79.793 Y-9.485
X-79.899 Y-9.279
X-79.938 Y-9.196
X-80.021 Y-8.989
X-80.054 Y-8.894
X-80.114 Y-8.687
X-80.138 Y-8.582
X-80.174 Y-8.374
X-80.187 Y-8.265
X-80.199 Y-8.057
Y-7.943
X-80.187 Y-7.735
X-80.174 Y-7.626
X-80.138 Y-7.418
X-80.114 Y-7.313
X-80.054 Y-7.106
X-80.021 Y-7.011
X-79.938 Y-6.804
X-79.899 Y-6.721
X-79.793 Y-6.515
X-79.751 Y-6.443
X-79.622 Y-6.238
X-79.579 Y-6.176
X-79.428 Y-5.972
X-79.386 Y-5.92
X-79.213 Y-5.717
X-79.173 Y-5.674
X-78.979 Y-5.473
X-78.941 Y-5.436
X-78.727 Y-5.238
X-78.691 Y-5.206
X-78.458 Y-5.01
X-78.425 Y-4.984
X-78.173 Y-4.789
X-78.143 Y-4.767
X-77.874 Y-4.576
X-77.846 Y-4.556
X-77.56 Y-4.368
X-77.534 Y-4.351
X-77.233 Y-4.166
X-77.209 Y-4.152
X-76.894 Y-3.97
X-76.86 Y-3.952
X-76.192 Y-3.601
X-76.152 Y-3.581
X-75.439 Y-3.247
X-75.404 Y-3.231
X-74.657 Y-2.917
X-74.624 Y-2.904
X-73.851 Y-2.611
X-73.821 Y-2.6
X-73.031 Y-2.33
X-73.002 Y-2.32
X-72.204 Y-2.075
X-72.176 Y-2.067
X-71.376 Y-1.848
X-71.348 Y-1.84
X-70.555 Y-1.648
X-70.526 Y-1.641
X-69.745 Y-1.476
X-69.716 Y-1.471
X-68.951 Y-1.333
X-68.921 Y-1.328
X-68.177 Y-1.219
X-68.146 Y-1.214
X-67.423 Y-1.132
X-67.391 Y-1.129
X-66.691 Y-1.072
X-66.659 Y-1.07
X-65.977 Y-1.037
X-65.946 Y-1.036
X-65.278 Y-1.025
X-65.25
X-64.59 Y-1.033
X-64.566 Y-1.034
X-63.907 Y-1.058
X-63.887 Y-1.059
X-63.225 Y-1.097
X-63.203 Y-1.098
X-61.851 Y-1.205
X-61.832 Y-1.207
X-60.434 Y-1.345
X-60.422 Y-1.347
X-58.986 Y-1.507
X-58.976 Y-1.508
X-57.519 Y-1.686
X-57.51 Y-1.687
X-56.056 Y-1.877
X-56.046 Y-1.878
X-54.623 Y-2.08
X-54.611 Y-2.081
X-53.244 Y-2.293
X-53.23 Y-2.295
X-51.933 Y-2.515
X-51.922 Y-2.517
X-50.692 Y-2.74
X-50.689
X-49.506 Y-2.959
X-48.329 Y-3.163
X-47.733 Y-3.255
X-47.116 Y-3.34
X-46.472 Y-3.416
X-45.797 Y-3.483
X-45.087 Y-3.539
X-44.34 Y-3.586
X-43.556 Y-3.622
X-42.736 Y-3.647
X-41.883 Y-3.662
X-41.002 Y-3.668
X-39.155 Y-3.652
X-37.233 Y-3.605
X-35.269 Y-3.532
X-33.299 Y-3.443
X-31.361 Y-3.345
X-29.488 Y-3.248
X-29.486
X-27.704 Y-3.159
X-27.698 Y-3.158
X-26.015 Y-3.084
X-26.005
X-24.412 Y-3.03
X-24.399 Y-3.029
X-22.877 Y-2.998
X-22.861
X-21.383 Y-2.991
X-21.368
X-20.516 Y-3.001
X-19.908 Y-3.007
X-19.895 Y-3.008
X-18.435 Y-3.044
X-18.424 Y-3.045
X-16.954 Y-3.098
X-16.946
X-15.463 Y-3.163
X-15.458
X-14.792 Y-3.195
X-13.963 Y-3.235 Z-1.829 F1016
X-12.46 Y-3.309 Z-1.882
X-10.957 Y-3.379 Z-1.934
X-9.462 Y-3.439 Z-1.986
X-9.071 Y-3.451 Z-2
X-7.981 Y-3.485 F2540
X-6.521 Y-3.515
X-5.079 Y-3.525
G2 X-4.396 Y-3.811 I-0.007 J-0.975
G1 X-1.603 Y-6.603
G2 X-1.603 Y-9.397 I-1.397 J-1.397
G1 X-4.396 Y-12.189
G2 X-5.079 Y-12.475 I-0.689 J0.689
G1 X-6.521 Y-12.485
X-7.981 Y-12.515
X-9.462 Y-12.561
X-10.957 Y-12.621
X-12.46 Y-12.691
X-13.962 Y-12.765
X-15.458 Y-12.837
X-15.463
X-16.946 Y-12.902
X-16.954
X-18.424 Y-12.955
X-18.435 Y-12.956
X-19.895 Y-12.992
X-19.908 Y-12.993
X-21.368 Y-13.009
X-21.383
X-22.861 Y-13.002
X-22.877
X-24.399 Y-12.971
X-24.412 Y-12.97
X-26.005 Y-12.916
X-26.015
X-27.698 Y-12.842
X-27.704 Y-12.841
X-29.486 Y-12.752
X-29.488
X-31.361 Y-12.655
X-33.299 Y-12.557
X-35.269 Y-12.468
X-37.233 Y-12.395
X-39.155 Y-12.348
X-41.002 Y-12.332
X-41.883 Y-12.338
X-42.736 Y-12.353
X-43.556 Y-12.379
X-44.34 Y-12.414
X-45.087 Y-12.461
X-45.797 Y-12.517
X-46.472 Y-12.584
X-47.116 Y-12.66
X-47.733 Y-12.745
X-48.329 Y-12.837
X-49.506 Y-13.041
X-50.689 Y-13.26
X-50.692
X-51.922 Y-13.483
X-51.933 Y-13.485
X-53.23 Y-13.705
X-53.244 Y-13.707
X-54.611 Y-13.919
X-54.623 Y-13.92
X-56.046 Y-14.122
X-56.056 Y-14.123
X-57.51 Y-14.313
X-57.519 Y-14.314
X-58.976 Y-14.492
X-58.986 Y-14.493
X-60.422 Y-14.653
X-60.434 Y-14.655
X-61.832 Y-14.793
X-61.851 Y-14.795
X-63.203 Y-14.902
X-63.225 Y-14.903
X-63.887 Y-14.941
X-63.907 Y-14.942
X-64.566 Y-14.966
X-64.59 Y-14.967
X-65.25 Y-14.975
X-65.278
X-65.946 Y-14.964
X-65.977 Y-14.963
X-66.659 Y-14.93
X-66.691 Y-14.928
X-67.391 Y-14.871
X-67.423 Y-14.868
X-68.145 Y-14.786
X-68.177 Y-14.781
X-68.921 Y-14.672
X-68.951 Y-14.667
X-69.716 Y-14.529
X-69.745 Y-14.524
X-70.526 Y-14.359
X-70.555 Y-14.352
X-71.348 Y-14.16
X-71.376 Y-14.152
X-72.176 Y-13.933
X-72.204 Y-13.925
X-73.002 Y-13.68
X-73.031 Y-13.67
X-73.821 Y-13.4
X-73.851 Y-13.389
X-74.624 Y-13.096
X-74.656 Y-13.083
X-75.404 Y-12.769
X-75.439 Y-12.753
X-76.152 Y-12.419
X-76.192 Y-12.399
X-76.86 Y-12.048
X-76.894 Y-12.03
X-77.209 Y-11.848
X-77.233 Y-11.834
X-77.534 Y-11.649
X-77.56 Y-11.632
X-77.846 Y-11.444
X-77.874 Y-11.424
X-78.143 Y-11.233
X-78.173 Y-11.211
X-78.425 Y-11.017
X-78.458 Y-10.99
X-78.692 Y-10.794
X-78.727 Y-10.763
X-78.941 Y-10.564
X-78.979 Y-10.527
X-79.173 Y-10.326
X-79.213 Y-10.283
X-79.386 Y-10.08
X-79.428 Y-10.028
X-79.579 Y-9.824
X-79.622 Y-9.762
X-79.751 Y-9.557
X-79.793 Y-9.485
X-79.899 Y-9.279
X-79.938 Y-9.196
X-80.021 Y-8.989
X-80.054 Y-8.894
X-80.114 Y-8.687
X-80.138 Y-8.582
X-80.174 Y-8.374
X-80.187 Y-8.265
X-80.199 Y-8.057
Y-7.943
X-80.187 Y-7.735
X-80.174 Y-7.626
X-80.138 Y-7.418
X-80.114 Y-7.313
X-80.054 Y-7.106
X-80.021 Y-7.011
X-79.938 Y-6.804
X-79.899 Y-6.721
X-79.793 Y-6.515
X-79.751 Y-6.443
X-79.622 Y-6.238
X-79.579 Y-6.176
X-79.428 Y-5.972
X-79.386 Y-5.92
X-79.213 Y-5.717
X-79.173 Y-5.674
X-78.979 Y-5.473
X-78.941 Y-5.436
X-78.727 Y-5.238
X-78.691 Y-5.206
X-78.458 Y-5.01
X-78.425 Y-4.984
X-78.173 Y-4.789
X-78.143 Y-4.767
X-77.874 Y-4.576
X-77.846 Y-4.556
X-77.56 Y-4.368
X-77.534 Y-4.351
X-77.233 Y-4.166
X-77.209 Y-4.152
X-76.894 Y-3.97
X-76.86 Y-3.952
X-76.192 Y-3.601
X-76.152 Y-3.581
X-75.439 Y-3.247
X-75.404 Y-3.231
X-74.657 Y-2.917
X-74.624 Y-2.904
X-73.851 Y-2.611
X-73.821 Y-2.6
X-73.031 Y-2.33
X-73.002 Y-2.32
X-72.204 Y-2.075
X-72.176 Y-2.067
X-71.376 Y-1.848
X-71.348 Y-1.84
X-70.555 Y-1.648
X-70.526 Y-1.641
X-69.745 Y-1.476
X-69.716 Y-1.471
X-68.951 Y-1.333
X-68.921 Y-1.328
X-68.177 Y-1.219
X-68.146 Y-1.214
X-67.423 Y-1.132
X-67.391 Y-1.129
X-66.691 Y-1.072
X-66.659 Y-1.07
X-65.977 Y-1.037
X-65.946 Y-1.036
X-65.278 Y-1.025
X-65.25
X-64.59 Y-1.033
X-64.566 Y-1.034
X-63.907 Y-1.058
X-63.887 Y-1.059
X-63.225 Y-1.097
X-63.203 Y-1.098
X-61.851 Y-1.205
X-61.832 Y-1.207
X-60.434 Y-1.345
X-60.422 Y-1.347
X-58.986 Y-1.507
X-58.976 Y-1.508
X-57.519 Y-1.686
X-57.51 Y-1.687
X-56.056 Y-1.877
X-56.046 Y-1.878
X-54.623 Y-2.08
X-54.611 Y-2.081
X-53.244 Y-2.293
X-53.23 Y-2.295
X-51.933 Y-2.515
X-51.922 Y-2.517
X-50.692 Y-2.74
X-50.689
X-49.506 Y-2.959
X-48.329 Y-3.163
X-47.733 Y-3.255
X-47.116 Y-3.34
X-46.472 Y-3.416
X-45.797 Y-3.483
X-45.087 Y-3.539
X-44.34 Y-3.586
X-43.556 Y-3.622
X-42.736 Y-3.647
X-41.883 Y-3.662
X-41.002 Y-3.668
X-39.155 Y-3.652
X-37.233 Y-3.605
X-35.269 Y-3.532
X-33.299 Y-3.443
X-31.361 Y-3.345
X-29.488 Y-3.248
X-29.486
X-27.704 Y-3.159
X-27.698 Y-3.158
X-26.015 Y-3.084
X-26.005
X-24.412 Y-3.03
X-24.399 Y-3.029
X-22.877 Y-2.998
X-22.861
X-21.383 Y-2.991
X-21.368
X-19.908 Y-3.007
X-19.895 Y-3.008
X-18.435 Y-3.044
X-18.424 Y-3.045
X-16.954 Y-3.098
X-16.946
X-15.463 Y-3.163
X-15.458
X-13.963 Y-3.235
X-12.46 Y-3.309
X-10.957 Y-3.379
X-9.462 Y-3.439
X-9.071 Y-3.451
X-7.981 Y-3.485 Z-2.038 F1016
X-6.521 Y-3.515 Z-2.089
X-5.079 Y-3.525 Z-2.139
G2 X-4.396 Y-3.811 Z-2.166 I-0.007 J-0.975
G1 X-3.707 Y-4.5 Z-2.2
X-1.603 Y-6.603 F2540
G2 X-1.603 Y-9.397 I-1.397 J-1.397
G1 X-4.396 Y-12.189
G2 X-5.079 Y-12.475 I-0.689 J0.689
G1 X-6.521 Y-12.485
X-7.981 Y-12.515
X-9.462 Y-12.561
X-10.957 Y-12.621
X-12.46 Y-12.691
X-13.962 Y-12.765
X-15.458 Y-12.837
X-15.463
X-16.946 Y-12.902
X-16.954
X-18.424 Y-12.955
X-18.435 Y-12.956
X-19.895 Y-12.992
X-19.908 Y-12.993
X-21.368 Y-13.009
X-21.383
X-22.861 Y-13.002
X-22.877
X-24.399 Y-12.971
X-24.412 Y-12.97
X-26.005 Y-12.916
X-26.015
X-27.698 Y-12.842
X-27.704 Y-12.841
X-29.486 Y-12.752
X-29.488
X-31.361 Y-12.655
X-33.299 Y-12.557
X-35.269 Y-12.468
X-37.233 Y-12.395
X-39.155 Y-12.348
X-41.002 Y-12.332
X-41.883 Y-12.338
X-42.736 Y-12.353
X-43.556 Y-12.379
X-44.34 Y-12.414
X-45.087 Y-12.461
X-45.797 Y-12.517
X-46.472 Y-12.584
X-47.116 Y-12.66
X-47.733 Y-12.745
X-48.329 Y-12.837
X-49.506 Y-13.041
X-50.689 Y-13.26
X-50.692
X-51.922 Y-13.483
X-51.933 Y-13.485
X-53.23 Y-13.705
X-53.244 Y-13.707
X-54.611 Y-13.919
X-54.623 Y-13.92
X-56.046 Y-14.122
X-56.056 Y-14.123
X-57.51 Y-14.313
X-57.519 Y-14.314
X-58.976 Y-14.492
X-58.986 Y-14.493
X-60.422 Y-14.653
X-60.434 Y-14.655
X-61.832 Y-14.793
X-61.851 Y-14.795
X-63.203 Y-14.902
X-63.225 Y-14.903
X-63.887 Y-14.941
X-63.907 Y-14.942
X-64.566 Y-14.966
X-64.59 Y-14.967
X-65.25 Y-14.975
X-65.278
X-65.946 Y-14.964
X-65.977 Y-14.963
X-66.659 Y-14.93
X-66.691 Y-14.928
X-67.391 Y-14.871
X-67.423 Y-14.868
X-68.145 Y-14.786
X-68.177 Y-14.781
X-68.921 Y-14.672
X-68.951 Y-14.667
X-69.716 Y-14.529
X-69.745 Y-14.524
X-70.526 Y-14.359
X-70.555 Y-14.352
X-71.348 Y-14.16
X-71.376 Y-14.152
X-72.176 Y-13.933
X-72.204 Y-13.925
X-73.002 Y-13.68
X-73.031 Y-13.67
X-73.821 Y-13.4
X-73.851 Y-13.389
X-74.624 Y-13.096
X-74.656 Y-13.083
X-75.404 Y-12.769
X-75.439 Y-12.753
X-76.152 Y-12.419
X-76.192 Y-12.399
X-76.86 Y-12.048
X-76.894 Y-12.03
X-77.209 Y-11.848
X-77.233 Y-11.834
X-77.534 Y-11.649
X-77.56 Y-11.632
X-77.846 Y-11.444
X-77.874 Y-11.424
X-78.143 Y-11.233
X-78.173 Y-11.211
X-78.425 Y-11.017
X-78.458 Y-10.99
X-78.692 Y-10.794
X-78.727 Y-10.763
X-78.941 Y-10.564
X-78.979 Y-10.527
X-79.173 Y-10.326
X-79.213 Y-10.283
X-79.386 Y-10.08
X-79.428 Y-10.028
X-79.579 Y-9.824
X-79.622 Y-9.762
X-79.751 Y-9.557
X-79.793 Y-9.485
X-79.899 Y-9.279
X-79.938 Y-9.196
X-80.021 Y-8.989
X-80.054 Y-8.894
X-80.114 Y-8.687
X-80.138 Y-8.582
X-80.174 Y-8.374
X-80.187 Y-8.265
X-80.199 Y-8.057
Y-7.943
X-80.187 Y-7.735
X-80.174 Y-7.626
X-80.138 Y-7.418
X-80.114 Y-7.313
X-80.054 Y-7.106
X-80.021 Y-7.011
X-79.938 Y-6.804
X-79.899 Y-6.721
X-79.793 Y-6.515
X-79.751 Y-6.443
X-79.622 Y-6.238
X-79.579 Y-6.176
X-79.428 Y-5.972
X-79.386 Y-5.92
X-79.213 Y-5.717
X-79.173 Y-5.674
X-78.979 Y-5.473
X-78.941 Y-5.436
X-78.727 Y-5.238
X-78.691 Y-5.206
X-78.458 Y-5.01
X-78.425 Y-4.984
X-78.173 Y-4.789
X-78.143 Y-4.767
X-77.874 Y-4.576
X-77.846 Y-4.556
X-77.56 Y-4.368
X-77.534 Y-4.351
X-77.233 Y-4.166
X-77.209 Y-4.152
X-76.894 Y-3.97
X-76.86 Y-3.952
X-76.192 Y-3.601
X-76.152 Y-3.581
X-75.439 Y-3.247
X-75.404 Y-3.231
X-74.657 Y-2.917
X-74.624 Y-2.904
X-73.851 Y-2.611
X-73.821 Y-2.6
X-73.031 Y-2.33
X-73.002 Y-2.32
X-72.204 Y-2.075
X-72.176 Y-2.067
X-71.376 Y-1.848
X-71.348 Y-1.84
X-70.555 Y-1.648
X-70.526 Y-1.641
X-69.745 Y-1.476
X-69.716 Y-1.471
X-68.951 Y-1.333
X-68.921 Y-1.328
X-68.177 Y-1.219
X-68.146 Y-1.214
X-67.423 Y-1.132
X-67.391 Y-1.129
X-66.691 Y-1.072
X-66.659 Y-1.07
X-65.977 Y-1.037
X-65.946 Y-1.036
X-65.278 Y-1.025
X-65.25
X-64.59 Y-1.033
X-64.566 Y-1.034
X-63.907 Y-1.058
X-63.887 Y-1.059
X-63.225 Y-1.097
X-63.203 Y-1.098
X-61.851 Y-1.205
X-61.832 Y-1.207
X-60.434 Y-1.345
X-60.422 Y-1.347
X-58.986 Y-1.507
X-58.976 Y-1.508
X-57.519 Y-1.686
X-57.51 Y-1.687
X-56.056 Y-1.877
X-56.046 Y-1.878
X-54.623 Y-2.08
X-54.611 Y-2.081
X-53.244 Y-2.293
X-53.23 Y-2.295
X-51.933 Y-2.515
X-51.922 Y-2.517
X-50.692 Y-2.74
X-50.689
X-49.506 Y-2.959
X-48.329 Y-3.163
X-47.733 Y-3.255
X-47.116 Y-3.34
X-46.472 Y-3.416
X-45.797 Y-3.483
X-45.087 Y-3.539
X-44.34 Y-3.586
X-43.556 Y-3.622
X-42.736 Y-3.647
X-41.883 Y-3.662
X-41.002 Y-3.668
X-39.155 Y-3.652
X-37.233 Y-3.605
X-35.269 Y-3.532
X-33.299 Y-3.443
X-31.361 Y-3.345
X-29.488 Y-3.248
X-29.486
X-27.704 Y-3.159
X-27.698 Y-3.158
X-26.015 Y-3.084
X-26.005
X-24.412 Y-3.03
X-24.399 Y-3.029
X-22.877 Y-2.998
X-22.861
X-21.383 Y-2.991
X-21.368
X-19.908 Y-3.007
X-19.895 Y-3.008
X-18.435 Y-3.044
X-18.424 Y-3.045
X-16.954 Y-3.098
X-16.946
X-15.463 Y-3.163
X-15.458
X-13.963 Y-3.235
X-12.46 Y-3.309
X-10.957 Y-3.379
X-9.462 Y-3.439
X-7.981 Y-3.485
X-6.521 Y-3.515
X-5.079 Y-3.525
G2 X-4.396 Y-3.811 I-0.007 J-0.975
G1 X-3.707 Y-4.5
X-1.603 Y-6.603 Z-2.304 F1016
G2 X-1.38 Y-9.129 Z-2.4 I-1.397 J-1.397
X-1.603 Y-9.397 I-1.62 J1.129 F2540
G1 X-4.396 Y-12.189
G2 X-5.079 Y-12.475 I-0.689 J0.689
G1 X-6.521 Y-12.485
X-7.981 Y-12.515
X-9.462 Y-12.561
X-10.957 Y-12.621
X-12.46 Y-12.691
X-13.962 Y-12.765
X-15.458 Y-12.837
X-15.463
X-16.946 Y-12.902
X-16.954
X-18.424 Y-12.955
X-18.435 Y-12.956
X-19.895 Y-12.992
X-19.908 Y-12.993
X-21.368 Y-13.009
X-21.383
X-22.861 Y-13.002
X-22.877
X-24.399 Y-12.971
X-24.412 Y-12.97
X-26.005 Y-12.916
X-26.015
X-27.698 Y-12.842
X-27.704 Y-12.841
X-29.486 Y-12.752
X-29.488
X-31.361 Y-12.655
X-33.299 Y-12.557
X-35.269 Y-12.468
X-37.233 Y-12.395
X-39.155 Y-12.348
X-41.002 Y-12.332
X-41.883 Y-12.338
X-42.736 Y-12.353
X-43.556 Y-12.379
X-44.34 Y-12.414
X-45.087 Y-12.461
X-45.797 Y-12.517
X-46.472 Y-12.584
X-47.116 Y-12.66
X-47.733 Y-12.745
X-48.329 Y-12.837
X-49.506 Y-13.041
X-50.689 Y-13.26
X-50.692
X-51.922 Y-13.483
X-51.933 Y-13.485
X-53.23 Y-13.705
X-53.244 Y-13.707
X-54.611 Y-13.919
X-54.623 Y-13.92
X-56.046 Y-14.122
X-56.056 Y-14.123
X-57.51 Y-14.313
X-57.519 Y-14.314
X-58.976 Y-14.492
X-58.986 Y-14.493
X-60.422 Y-14.653
X-60.434 Y-14.655
X-61.832 Y-14.793
X-61.851 Y-14.795
X-63.203 Y-14.902
X-63.225 Y-14.903
X-63.887 Y-14.941
X-63.907 Y-14.942
X-64.566 Y-14.966
X-64.59 Y-14.967
X-65.25 Y-14.975
X-65.278
X-65.946 Y-14.964
X-65.977 Y-14.963
X-66.659 Y-14.93
X-66.691 Y-14.928
X-67.391 Y-14.871
X-67.423 Y-14.868
X-68.145 Y-14.786
X-68.177 Y-14.781
X-68.921 Y-14.672
X-68.951 Y-14.667
X-69.716 Y-14.529
X-69.745 Y-14.524
X-70.526 Y-14.359
X-70.555 Y-14.352
X-71.348 Y-14.16
X-71.376 Y-14.152
X-72.176 Y-13.933
X-72.204 Y-13.925
X-73.002 Y-13.68
X-73.031 Y-13.67
X-73.821 Y-13.4
X-73.851 Y-13.389
X-74.624 Y-13.096
X-74.656 Y-13.083
X-75.404 Y-12.769
X-75.439 Y-12.753
X-76.152 Y-12.419
X-76.192 Y-12.399
X-76.86 Y-12.048
X-76.894 Y-12.03
X-77.209 Y-11.848
X-77.233 Y-11.834
X-77.534 Y-11.649
X-77.56 Y-11.632
X-77.846 Y-11.444
X-77.874 Y-11.424
X-78.143 Y-11.233
X-78.173 Y-11.211
X-78.425 Y-11.017
X-78.458 Y-10.99
X-78.692 Y-10.794
X-78.727 Y-10.763
X-78.941 Y-10.564
X-78.979 Y-10.527
X-79.173 Y-10.326
X-79.213 Y-10.283
X-79.386 Y-10.08
X-79.428 Y-10.028
X-79.579 Y-9.824
X-79.622 Y-9.762
X-79.751 Y-9.557
X-79.793 Y-9.485
X-79.899 Y-9.279
X-79.938 Y-9.196
X-80.021 Y-8.989
X-80.054 Y-8.894
X-80.114 Y-8.687
X-80.138 Y-8.582
X-80.174 Y-8.374
X-80.187 Y-8.265
X-80.199 Y-8.057
Y-7.943
X-80.187 Y-7.735
X-80.174 Y-7.626
X-80.138 Y-7.418
X-80.114 Y-7.313
X-80.054 Y-7.106
X-80.021 Y-7.011
X-79.938 Y-6.804
X-79.899 Y-6.721
X-79.793 Y-6.515
X-79.751 Y-6.443
X-79.622 Y-6.238
X-79.579 Y-6.176
X-79.428 Y-5.972
X-79.386 Y-5.92
X-79.213 Y-5.717
X-79.173 Y-5.674
X-78.979 Y-5.473
X-78.941 Y-5.436
X-78.727 Y-5.238
X-78.691 Y-5.206
X-78.458 Y-5.01
X-78.425 Y-4.984
X-78.173 Y-4.789
X-78.143 Y-4.767
X-77.874 Y-4.576
X-77.846 Y-4.556
X-77.56 Y-4.368
X-77.534 Y-4.351
X-77.233 Y-4.166
X-77.209 Y-4.152
X-76.894 Y-3.97
X-76.86 Y-3.952
X-76.192 Y-3.601
X-76.152 Y-3.581
X-75.439 Y-3.247
X-75.404 Y-3.231
X-74.657 Y-2.917
X-74.624 Y-2.904
X-73.851 Y-2.611
X-73.821 Y-2.6
X-73.031 Y-2.33
X-73.002 Y-2.32
X-72.204 Y-2.075
X-72.176 Y-2.067
X-71.376 Y-1.848
X-71.348 Y-1.84
X-70.555 Y-1.648
X-70.526 Y-1.641
X-69.745 Y-1.476
X-69.716 Y-1.471
X-68.951 Y-1.333
X-68.921 Y-1.328
X-68.177 Y-1.219
X-68.146 Y-1.214
X-67.423 Y-1.132
X-67.391 Y-1.129
X-66.691 Y-1.072
X-66.659 Y-1.07
X-65.977 Y-1.037
X-65.946 Y-1.036
X-65.278 Y-1.025
X-65.25
X-64.59 Y-1.033
X-64.566 Y-1.034
X-63.907 Y-1.058
X-63.887 Y-1.059
X-63.225 Y-1.097
X-63.203 Y-1.098
X-61.851 Y-1.205
X-61.832 Y-1.207
X-60.434 Y-1.345
X-60.422 Y-1.347
X-58.986 Y-1.507
X-58.976 Y-1.508
X-57.519 Y-1.686
X-57.51 Y-1.687
X-56.056 Y-1.877
X-56.046 Y-1.878
X-54.623 Y-2.08
X-54.611 Y-2.081
X-53.244 Y-2.293
X-53.23 Y-2.295
X-51.933 Y-2.515
X-51.922 Y-2.517
X-50.692 Y-2.74
X-50.689
X-49.506 Y-2.959
X-48.329 Y-3.163
X-47.733 Y-3.255
X-47.116 Y-3.34
X-46.472 Y-3.416
X-45.797 Y-3.483
X-45.087 Y-3.539
X-44.34 Y-3.586
X-43.556 Y-3.622
X-42.736 Y-3.647
X-41.883 Y-3.662
X-41.002 Y-3.668
X-39.155 Y-3.652
X-37.233 Y-3.605
X-35.269 Y-3.532
X-33.299 Y-3.443
X-31.361 Y-3.345
X-29.488 Y-3.248
X-29.486
X-27.704 Y-3.159
X-27.698 Y-3.158
X-26.015 Y-3.084
X-26.005
X-24.412 Y-3.03
X-24.399 Y-3.029
X-22.877 Y-2.998
X-22.861
X-21.383 Y-2.991
X-21.368
X-19.908 Y-3.007
X-19.895 Y-3.008
X-18.435 Y-3.044
X-18.424 Y-3.045
X-16.954 Y-3.098
X-16.946
X-15.463 Y-3.163
X-15.458
X-13.963 Y-3.235
X-12.46 Y-3.309
X-10.957 Y-3.379
X-9.462 Y-3.439
X-7.981 Y-3.485
X-6.521 Y-3.515
X-5.079 Y-3.525
G2 X-4.396 Y-3.811 I-0.007 J-0.975
G1 X-1.603 Y-6.603
G2 X-1.38 Y-9.129 I-1.397 J-1.397
X-1.603 Y-9.397 Z-2.412 I-1.62 J1.129 F1016
G1 X-4.396 Y-12.189 Z-2.55
G2 X-5.079 Y-12.475 Z-2.577 I-0.689 J0.689
G1 X-5.748 Y-12.48 Z-2.6
X-6.521 Y-12.485 F2540
X-7.981 Y-12.515
X-9.462 Y-12.561
X-10.957 Y-12.621
X-12.46 Y-12.691
X-13.962 Y-12.765
X-15.458 Y-12.837
X-15.463
X-16.946 Y-12.902
X-16.954
X-18.424 Y-12.955
X-18.435 Y-12.956
X-19.895 Y-12.992
X-19.908 Y-12.993
X-21.368 Y-13.009
X-21.383
X-22.861 Y-13.002
X-22.877
X-24.399 Y-12.971
X-24.412 Y-12.97
X-26.005 Y-12.916
X-26.015
X-27.698 Y-12.842
X-27.704 Y-12.841
X-29.486 Y-12.752
X-29.488
X-31.361 Y-12.655
X-33.299 Y-12.557
X-35.269 Y-12.468
X-37.233 Y-12.395
X-39.155 Y-12.348
X-41.002 Y-12.332
X-41.883 Y-12.338
X-42.736 Y-12.353
X-43.556 Y-12.379
X-44.34 Y-12.414
X-45.087 Y-12.461
X-45.797 Y-12.517
X-46.472 Y-12.584
X-47.116 Y-12.66
X-47.733 Y-12.745
X-48.329 Y-12.837
X-49.506 Y-13.041
X-50.689 Y-13.26
X-50.692
X-51.922 Y-13.483
X-51.933 Y-13.485
X-53.23 Y-13.705
X-53.244 Y-13.707
X-54.611 Y-13.919
X-54.623 Y-13.92
X-56.046 Y-14.122
X-56.056 Y-14.123
X-57.51 Y-14.313
X-57.519 Y-14.314
X-58.976 Y-14.492
X-58.986 Y-14.493
X-60.422 Y-14.653
X-60.434 Y-14.655
X-61.832 Y-14.793
X-61.851 Y-14.795
X-63.203 Y-14.902
X-63.225 Y-14.903
X-63.887 Y-14.941
X-63.907 Y-14.942
X-64.566 Y-14.966
X-64.59 Y-14.967
X-65.25 Y-14.975
X-65.278
X-65.946 Y-14.964
X-65.977 Y-14.963
X-66.659 Y-14.93
X-66.691 Y-14.928
X-67.391 Y-14.871
X-67.423 Y-14.868
X-68.145 Y-14.786
X-68.177 Y-14.781
X-68.921 Y-14.672
X-68.951 Y-14.667
X-69.716 Y-14.529
X-69.745 Y-14.524
X-70.526 Y-14.359
X-70.555 Y-14.352
X-71.348 Y-14.16
X-71.376 Y-14.152
X-72.176 Y-13.933
X-72.204 Y-13.925
X-73.002 Y-13.68
X-73.031 Y-13.67
X-73.821 Y-13.4
X-73.851 Y-13.389
X-74.624 Y-13.096
X-74.656 Y-13.083
X-75.404 Y-12.769
X-75.439 Y-12.753
X-76.152 Y-12.419
X-76.192 Y-12.399
X-76.86 Y-12.048
X-76.894 Y-12.03
X-77.209 Y-11.848
X-77.233 Y-11.834
X-77.534 Y-11.649
X-77.56 Y-11.632
X-77.846 Y-11.444
X-77.874 Y-11.424
X-78.143 Y-11.233
X-78.173 Y-11.211
X-78.425 Y-11.017
X-78.458 Y-10.99
X-78.692 Y-10.794
X-78.727 Y-10.763
X-78.941 Y-10.564
X-78.979 Y-10.527
X-79.173 Y-10.326
X-79.213 Y-10.283
X-79.386 Y-10.08
X-79.428 Y-10.028
X-79.579 Y-9.824
X-79.622 Y-9.762
X-79.751 Y-9.557
X-79.793 Y-9.485
X-79.899 Y-9.279
X-79.938 Y-9.196
X-80.021 Y-8.989
X-80.054 Y-8.894
X-80.114 Y-8.687
X-80.138 Y-8.582
X-80.174 Y-8.374
X-80.187 Y-8.265
X-80.199 Y-8.057
Y-7.943
X-80.187 Y-7.735
X-80.174 Y-7.626
X-80.138 Y-7.418
X-80.114 Y-7.313
X-80.054 Y-7.106
X-80.021 Y-7.011
X-79.938 Y-6.804
X-79.899 Y-6.721
X-79.793 Y-6.515
X-79.751 Y-6.443
X-79.622 Y-6.238
X-79.579 Y-6.176
X-79.428 Y-5.972
X-79.386 Y-5.92
X-79.213 Y-5.717
X-79.173 Y-5.674
X-78.979 Y-5.473
X-78.941 Y-5.436
X-78.727 Y-5.238
X-78.691 Y-5.206
X-78.458 Y-5.01
X-78.425 Y-4.984
X-78.173 Y-4.789
X-78.143 Y-4.767
X-77.874 Y-4.576
X-77.846 Y-4.556
X-77.56 Y-4.368
X-77.534 Y-4.351
X-77.233 Y-4.166
X-77.209 Y-4.152
X-76.894 Y-3.97
X-76.86 Y-3.952
X-76.192 Y-3.601
X-76.152 Y-3.581
X-75.439 Y-3.247
X-75.404 Y-3.231
X-74.657 Y-2.917
X-74.624 Y-2.904
X-73.851 Y-2.611
X-73.821 Y-2.6
X-73.031 Y-2.33
X-73.002 Y-2.32
X-72.204 Y-2.075
X-72.176 Y-2.067
X-71.376 Y-1.848
X-71.348 Y-1.84
X-70.555 Y-1.648
X-70.526 Y-1.641
X-69.745 Y-1.476
X-69.716 Y-1.471
X-68.951 Y-1.333
X-68.921 Y-1.328
X-68.177 Y-1.219
X-68.146 Y-1.214
X-67.423 Y-1.132
X-67.391 Y-1.129
X-66.691 Y-1.072
X-66.659 Y-1.07
X-65.977 Y-1.037
X-65.946 Y-1.036
X-65.278 Y-1.025
X-65.25
X-64.59 Y-1.033
X-64.566 Y-1.034
X-63.907 Y-1.058
X-63.887 Y-1.059
X-63.225 Y-1.097
X-63.203 Y-1.098
X-61.851 Y-1.205
X-61.832 Y-1.207
X-60.434 Y-1.345
X-60.422 Y-1.347
X-58.986 Y-1.507
X-58.976 Y-1.508
X-57.519 Y-1.686
X-57.51 Y-1.687
X-56.056 Y-1.877
X-56.046 Y-1.878
X-54.623 Y-2.08
X-54.611 Y-2.081
X-53.244 Y-2.293
X-53.23 Y-2.295
X-51.933 Y-2.515
X-51.922 Y-2.517
X-50.692 Y-2.74
X-50.689
X-49.506 Y-2.959
X-48.329 Y-3.163
X-47.733 Y-3.255
X-47.116 Y-3.34
X-46.472 Y-3.416
X-45.797 Y-3.483
X-45.087 Y-3.539
X-44.34 Y-3.586
X-43.556 Y-3.622
X-42.736 Y-3.647
X-41.883 Y-3.662
X-41.002 Y-3.668
X-39.155 Y-3.652
X-37.233 Y-3.605
X-35.269 Y-3.532
X-33.299 Y-3.443
X-31.361 Y-3.345
X-29.488 Y-3.248
X-29.486
X-27.704 Y-3.159
X-27.698 Y-3.158
X-26.015 Y-3.084
X-26.005
X-24.412 Y-3.03
X-24.399 Y-3.029
X-22.877 Y-2.998
X-22.861
X-21.383 Y-2.991
X-21.368
X-19.908 Y-3.007
X-19.895 Y-3.008
X-18.435 Y-3.044
X-18.424 Y-3.045
X-16.954 Y-3.098
X-16.946
X-15.463 Y-3.163
X-15.458
X-13.963 Y-3.235
X-12.46 Y-3.309
X-10.957 Y-3.379
X-9.462 Y-3.439
X-7.981 Y-3.485
X-6.521 Y-3.515
X-5.079 Y-3.525
G2 X-4.396 Y-3.811 I-0.007 J-0.975
G1 X-1.603 Y-6.603
G2 X-1.603 Y-9.397 I-1.397 J-1.397
G1 X-4.396 Y-12.189
G2 X-5.079 Y-12.475 I-0.689 J0.689
G1 X-5.748 Y-12.48
X-6.521 Y-12.485 Z-2.627 F1016
X-7.981 Y-12.515 Z-2.678
X-9.462 Y-12.561 Z-2.73
X-10.957 Y-12.621 Z-2.782
X-11.473 Y-12.645 Z-2.8
X-12.46 Y-12.691 F2540
X-13.962 Y-12.765
X-15.458 Y-12.837
X-15.463
X-16.946 Y-12.902
X-16.954
X-18.424 Y-12.955
X-18.435 Y-12.956
X-19.895 Y-12.992
X-19.908 Y-12.993
X-21.368 Y-13.009
X-21.383
X-22.861 Y-13.002
X-22.877
X-24.399 Y-12.971
X-24.412 Y-12.97
X-26.005 Y-12.916
X-26.015
X-27.698 Y-12.842
X-27.704 Y-12.841
X-29.486 Y-12.752
X-29.488
X-31.361 Y-12.655
X-33.299 Y-12.557
X-35.269 Y-12.468
X-37.233 Y-12.395
X-39.155 Y-12.348
X-41.002 Y-12.332
X-41.883 Y-12.338
X-42.736 Y-12.353
X-43.556 Y-12.379
X-44.253 Y-12.41
Z-2.7
X-44.34 Y-12.414
X-45.087 Y-12.461
X-45.797 Y-12.517
X-46.472 Y-12.584
X-47.116 Y-12.66
X-47.733 Y-12.745
X-48.329 Y-12.837
X-48.676 Y-12.897
Z-2.8 F508
X-49.506 Y-13.041 F2540
X-50.689 Y-13.26
X-50.692
X-51.922 Y-13.483
X-51.933 Y-13.485
X-53.23 Y-13.705
X-53.244 Y-13.707
X-54.611 Y-13.919
X-54.623 Y-13.92
X-56.046 Y-14.122
X-56.056 Y-14.123
X-57.51 Y-14.313
X-57.519 Y-14.314
X-58.976 Y-14.492
X-58.986 Y-14.493
X-60.422 Y-14.653
X-60.434 Y-14.655
X-61.832 Y-14.793
X-61.851 Y-14.795
X-63.203 Y-14.902
X-63.225 Y-14.903
X-63.887 Y-14.941
X-63.907 Y-14.942
X-64.566 Y-14.966
X-64.59 Y-14.967
X-65.25 Y-14.975
X-65.278
X-65.946 Y-14.964
X-65.977 Y-14.963
X-66.659 Y-14.93
X-66.691 Y-14.928
X-67.391 Y-14.871
X-67.423 Y-14.868
X-68.145 Y-14.786
X-68.177 Y-14.781
X-68.921 Y-14.672
X-68.951 Y-14.667
X-69.716 Y-14.529
X-69.745 Y-14.524
X-70.526 Y-14.359
X-70.555 Y-14.352
X-71.348 Y-14.16
X-71.376 Y-14.152
X-72.176 Y-13.933
X-72.204 Y-13.925
X-73.002 Y-13.68
X-73.031 Y-13.67
X-73.821 Y-13.4
X-73.851 Y-13.389
X-74.624 Y-13.096
X-74.656 Y-13.083
X-75.404 Y-12.769
X-75.439 Y-12.753
X-76.152 Y-12.419
X-76.192 Y-12.399
X-76.86 Y-12.048
X-76.894 Y-12.03
X-77.209 Y-11.848
X-77.233 Y-11.834
X-77.534 Y-11.649
X-77.56 Y-11.632
X-77.846 Y-11.444
X-77.874 Y-11.424
X-78.143 Y-11.233
X-78.173 Y-11.211
X-78.425 Y-11.017
X-78.458 Y-10.99
X-78.692 Y-10.794
X-78.727 Y-10.763
X-78.941 Y-10.564
X-78.979 Y-10.527
X-79.173 Y-10.326
X-79.213 Y-10.283
X-79.386 Y-10.08
X-79.428 Y-10.028
X-79.579 Y-9.824
X-79.622 Y-9.762
X-79.751 Y-9.557
X-79.793 Y-9.485
X-79.899 Y-9.279
X-79.938 Y-9.196
X-80.021 Y-8.989
X-80.054 Y-8.894
X-80.114 Y-8.687
X-80.138 Y-8.582
X-80.174 Y-8.374
X-80.187 Y-8.265
X-80.199 Y-8.057
Y-7.943
X-80.187 Y-7.735
X-80.174 Y-7.626
X-80.138 Y-7.418
X-80.114 Y-7.313
X-80.054 Y-7.106
X-80.021 Y-7.011
X-79.938 Y-6.804
X-79.899 Y-6.721
X-79.793 Y-6.515
X-79.751 Y-6.443
X-79.622 Y-6.238
X-79.579 Y-6.176
X-79.428 Y-5.972
X-79.386 Y-5.92
X-79.213 Y-5.717
X-79.173 Y-5.674
X-78.979 Y-5.473
X-78.941 Y-5.436
X-78.727 Y-5.238
X-78.691 Y-5.206
X-78.458 Y-5.01
X-78.425 Y-4.984
X-78.173 Y-4.789
X-78.143 Y-4.767
X-77.874 Y-4.576
X-77.846 Y-4.556
X-77.56 Y-4.368
X-77.534 Y-4.351
X-77.233 Y-4.166
X-77.209 Y-4.152
X-76.894 Y-3.97
X-76.86 Y-3.952
X-76.192 Y-3.601
X-76.152 Y-3.581
X-75.439 Y-3.247
X-75.404 Y-3.231
X-74.657 Y-2.917
X-74.624 Y-2.904
X-73.851 Y-2.611
X-73.821 Y-2.6
X-73.031 Y-2.33
X-73.002 Y-2.32
X-72.204 Y-2.075
X-72.176 Y-2.067
X-71.376 Y-1.848
X-71.348 Y-1.84
X-70.555 Y-1.648
X-70.526 Y-1.641
X-69.745 Y-1.476
X-69.716 Y-1.471
X-68.951 Y-1.333
X-68.921 Y-1.328
X-68.177 Y-1.219
X-68.146 Y-1.214
X-67.423 Y-1.132
X-67.391 Y-1.129
X-66.691 Y-1.072
X-66.659 Y-1.07
X-65.977 Y-1.037
X-65.946 Y-1.036
X-65.278 Y-1.025
X-65.25
X-64.59 Y-1.033
X-64.566 Y-1.034
X-63.907 Y-1.058
X-63.887 Y-1.059
X-63.225 Y-1.097
X-63.203 Y-1.098
X-61.851 Y-1.205
X-61.832 Y-1.207
X-60.434 Y-1.345
X-60.422 Y-1.347
X-58.986 Y-1.507
X-58.976 Y-1.508
X-57.519 Y-1.686
X-57.51 Y-1.687
X-56.056 Y-1.877
X-56.046 Y-1.878
X-54.623 Y-2.08
X-54.611 Y-2.081
X-53.244 Y-2.293
X-53.23 Y-2.295
X-51.933 Y-2.515
X-51.922 Y-2.517
X-50.692 Y-2.74
X-50.689
X-49.506 Y-2.959
X-48.676 Y-3.103
Z-2.7
X-48.329 Y-3.163
X-47.733 Y-3.255
X-47.116 Y-3.34
X-46.472 Y-3.416
X-45.797 Y-3.483
X-45.087 Y-3.539
X-44.34 Y-3.586
X-44.253 Y-3.59
Z-2.8 F508
X-43.556 Y-3.622 F2540
X-42.736 Y-3.647
X-41.883 Y-3.662
X-41.002 Y-3.668
X-39.155 Y-3.652
X-37.233 Y-3.605
X-35.269 Y-3.532
X-33.299 Y-3.443
X-31.361 Y-3.345
X-29.488 Y-3.248
X-29.486
X-27.704 Y-3.159
X-27.698 Y-3.158
X-26.015 Y-3.084
X-26.005
X-24.412 Y-3.03
X-24.399 Y-3.029
X-22.877 Y-2.998
X-22.861
X-21.383 Y-2.991
X-21.368
X-19.908 Y-3.007
X-19.895 Y-3.008
X-18.435 Y-3.044
X-18.424 Y-3.045
X-16.954 Y-3.098
X-16.946
X-15.463 Y-3.163
X-15.458
X-13.963 Y-3.235
X-12.46 Y-3.309
X-10.957 Y-3.379
X-9.462 Y-3.439
X-7.981 Y-3.485
X-6.521 Y-3.515
X-5.079 Y-3.525
G2 X-4.396 Y-3.811 I-0.007 J-0.975
G1 X-1.603 Y-6.603
G2 X-1.603 Y-9.397 I-1.397 J-1.397
G1 X-4.396 Y-12.189
G2 X-5.079 Y-12.475 I-0.689 J0.689
G1 X-6.521 Y-12.485
X-7.981 Y-12.515
X-9.462 Y-12.561
X-10.957 Y-12.621
X-11.473 Y-12.645
X-12.46 Y-12.691 Z-2.835 F1016
X-13.962 Y-12.765 Z-2.887
X-15.458 Y-12.837 Z-2.939
X-15.463
X-16.946 Y-12.902 Z-2.991
X-16.954 Z-2.992
X-17.194 Y-12.911 Z-3
X-18.424 Y-12.955 F2540
X-18.435 Y-12.956
X-19.895 Y-12.992
X-19.908 Y-12.993
X-21.368 Y-13.009
X-21.383
X-22.861 Y-13.002
X-22.877
X-24.399 Y-12.971
X-24.412 Y-12.97
X-26.005 Y-12.916
X-26.015
X-27.698 Y-12.842
X-27.704 Y-12.841
X-29.486 Y-12.752
X-29.488
X-31.361 Y-12.655
X-33.299 Y-12.557
X-35.269 Y-12.468
X-37.233 Y-12.395
X-39.155 Y-12.348
X-41.002 Y-12.332
X-41.883 Y-12.338
X-42.736 Y-12.353
X-43.556 Y-12.379
X-44.253 Y-12.41
Z-2.7
X-44.34 Y-12.414
X-45.087 Y-12.461
X-45.797 Y-12.517
X-46.472 Y-12.584
X-47.116 Y-12.66
X-47.733 Y-12.745
X-48.329 Y-12.837
X-48.676 Y-12.897
Z-3 F508
X-49.506 Y-13.041 F2540
X-50.689 Y-13.26
X-50.692
X-51.922 Y-13.483
X-51.933 Y-13.485
X-53.23 Y-13.705
X-53.244 Y-13.707
X-54.611 Y-13.919
X-54.623 Y-13.92
X-56.046 Y-14.122
X-56.056 Y-14.123
X-57.51 Y-14.313
X-57.519 Y-14.314
X-58.976 Y-14.492
X-58.986 Y-14.493
X-60.422 Y-14.653
X-60.434 Y-14.655
X-61.832 Y-14.793
X-61.851 Y-14.795
X-63.203 Y-14.902
X-63.225 Y-14.903
X-63.887 Y-14.941
X-63.907 Y-14.942
X-64.566 Y-14.966
X-64.59 Y-14.967
X-65.25 Y-14.975
X-65.278
X-65.946 Y-14.964
X-65.977 Y-14.963
X-66.659 Y-14.93
X-66.691 Y-14.928
X-67.391 Y-14.871
X-67.423 Y-14.868
X-68.145 Y-14.786
X-68.177 Y-14.781
X-68.921 Y-14.672
X-68.951 Y-14.667
X-69.716 Y-14.529
X-69.745 Y-14.524
X-70.526 Y-14.359
X-70.555 Y-14.352
X-71.348 Y-14.16
X-71.376 Y-14.152
X-72.176 Y-13.933
X-72.204 Y-13.925
X-73.002 Y-13.68
X-73.031 Y-13.67
X-73.821 Y-13.4
X-73.851 Y-13.389
X-74.624 Y-13.096
X-74.656 Y-13.083
X-75.404 Y-12.769
X-75.439 Y-12.753
X-76.152 Y-12.419
X-76.192 Y-12.399
X-76.86 Y-12.048
X-76.894 Y-12.03
X-77.209 Y-11.848
X-77.233 Y-11.834
X-77.534 Y-11.649
X-77.56 Y-11.632
X-77.846 Y-11.444
X-77.874 Y-11.424
X-78.143 Y-11.233
X-78.173 Y-11.211
X-78.425 Y-11.017
X-78.458 Y-10.99
X-78.692 Y-10.794
X-78.727 Y-10.763
X-78.941 Y-10.564
X-78.979 Y-10.527
X-79.173 Y-10.326
X-79.213 Y-10.283
X-79.386 Y-10.08
X-79.428 Y-10.028
X-79.579 Y-9.824
X-79.622 Y-9.762
X-79.751 Y-9.557
X-79.793 Y-9.485
X-79.899 Y-9.279
X-79.938 Y-9.196
X-80.021 Y-8.989
X-80.054 Y-8.894
X-80.114 Y-8.687
X-80.138 Y-8.582
X-80.174 Y-8.374
X-80.187 Y-8.265
X-80.199 Y-8.057
Y-7.943
X-80.187 Y-7.735
X-80.174 Y-7.626
X-80.138 Y-7.418
X-80.114 Y-7.313
X-80.054 Y-7.106
X-80.021 Y-7.011
X-79.938 Y-6.804
X-79.899 Y-6.721
X-79.793 Y-6.515
X-79.751 Y-6.443
X-79.622 Y-6.238
X-79.579 Y-6.176
X-79.428 Y-5.972
X-79.386 Y-5.92
X-79.213 Y-5.717
X-79.173 Y-5.674
X-78.979 Y-5.473
X-78.941 Y-5.436
X-78.727 Y-5.238
X-78.691 Y-5.206
X-78.458 Y-5.01
X-78.425 Y-4.984
X-78.173 Y-4.789
X-78.143 Y-4.767
X-77.874 Y-4.576
X-77.846 Y-4.556
X-77.56 Y-4.368
X-77.534 Y-4.351
X-77.233 Y-4.166
X-77.209 Y-4.152
X-76.894 Y-3.97
X-76.86 Y-3.952
X-76.192 Y-3.601
X-76.152 Y-3.581
X-75.439 Y-3.247
X-75.404 Y-3.231
X-74.657 Y-2.917
X-74.624 Y-2.904
X-73.851 Y-2.611
X-73.821 Y-2.6
X-73.031 Y-2.33
X-73.002 Y-2.32
X-72.204 Y-2.075
X-72.176 Y-2.067
X-71.376 Y-1.848
X-71.348 Y-1.84
X-70.555 Y-1.648
X-70.526 Y-1.641
X-69.745 Y-1.476
X-69.716 Y-1.471
X-68.951 Y-1.333
X-68.921 Y-1.328
X-68.177 Y-1.219
X-68.146 Y-1.214
X-67.423 Y-1.132
X-67.391 Y-1.129
X-66.691 Y-1.072
X-66.659 Y-1.07
X-65.977 Y-1.037
X-65.946 Y-1.036
X-65.278 Y-1.025
X-65.25
X-64.59 Y-1.033
X-64.566 Y-1.034
X-63.907 Y-1.058
X-63.887 Y-1.059
X-63.225 Y-1.097
X-63.203 Y-1.098
X-61.851 Y-1.205
X-61.832 Y-1.207
X-60.434 Y-1.345
X-60.422 Y-1.347
X-58.986 Y-1.507
X-58.976 Y-1.508
X-57.519 Y-1.686
X-57.51 Y-1.687
X-56.056 Y-1.877
X-56.046 Y-1.878
X-54.623 Y-2.08
X-54.611 Y-2.081
X-53.244 Y-2.293
X-53.23 Y-2.295
X-51.933 Y-2.515
X-51.922 Y-2.517
X-50.692 Y-2.74
X-50.689
X-49.506 Y-2.959
X-48.676 Y-3.103
Z-2.7
X-48.329 Y-3.163
X-47.733 Y-3.255
X-47.116 Y-3.34
X-46.472 Y-3.416
X-45.797 Y-3.483
X-45.087 Y-3.539
X-44.34 Y-3.586
X-44.253 Y-3.59
Z-3 F508
X-43.556 Y-3.622 F2540
X-42.736 Y-3.647
X-41.883 Y-3.662
X-41.002 Y-3.668
X-39.155 Y-3.652
X-37.233 Y-3.605
X-35.269 Y-3.532
X-33.299 Y-3.443
X-31.361 Y-3.345
X-29.488 Y-3.248
X-29.486
X-27.704 Y-3.159
X-27.698 Y-3.158
X-26.015 Y-3.084
X-26.005
X-24.412 Y-3.03
X-24.399 Y-3.029
X-22.877 Y-2.998
X-22.861
X-21.383 Y-2.991
X-21.368
X-19.908 Y-3.007
X-19.895 Y-3.008
X-18.435 Y-3.044
X-18.424 Y-3.045
X-16.954 Y-3.098
X-16.946
X-15.463 Y-3.163
X-15.458
X-13.963 Y-3.235
X-12.46 Y-3.309
X-10.957 Y-3.379
X-9.462 Y-3.439
X-7.981 Y-3.485
X-6.521 Y-3.515
X-5.079 Y-3.525
G2 X-4.396 Y-3.811 I-0.007 J-0.975
G1 X-1.603 Y-6.603
G2 X-1.603 Y-9.397 I-1.397 J-1.397
G1 X-4.396 Y-12.189
G2 X-5.079 Y-12.475 I-0.689 J0.689
G1 X-6.521 Y-12.485
X-7.981 Y-12.515
X-9.462 Y-12.561
X-10.957 Y-12.621
X-12.46 Y-12.691
X-13.962 Y-12.765
X-15.458 Y-12.837
X-15.463
X-16.946 Y-12.902
X-16.954
X-17.194 Y-12.911
X-18.424 Y-12.955 Z-3.043 F1016
X-18.435 Y-12.956
X-19.895 Y-12.992 Z-3.094
X-19.908 Y-12.993 Z-3.095
X-21.368 Y-13.009 Z-3.146
X-21.383
X-22.861 Y-13.002 Z-3.198
X-22.877 Z-3.199
X-22.92 Y-13.001 Z-3.2
X-24.399 Y-12.971 F2540
X-24.412 Y-12.97
X-26.005 Y-12.916
X-26.015
X-27.698 Y-12.842
X-27.704 Y-12.841
X-29.486 Y-12.752
X-29.488
X-31.361 Y-12.655
X-33.299 Y-12.557
X-35.269 Y-12.468
X-37.233 Y-12.395
X-39.155 Y-12.348
X-41.002 Y-12.332
X-41.883 Y-12.338
X-42.736 Y-12.353
X-43.556 Y-12.379
X-44.253 Y-12.41
Z-2.7
X-44.34 Y-12.414
X-45.087 Y-12.461
X-45.797 Y-12.517
X-46.472 Y-12.584
X-47.116 Y-12.66
X-47.733 Y-12.745
X-48.329 Y-12.837
X-48.676 Y-12.897
Z-3.2 F508
X-49.506 Y-13.041 F2540
X-50.689 Y-13.26
X-50.692
X-51.922 Y-13.483
X-51.933 Y-13.485
X-53.23 Y-13.705
X-53.244 Y-13.707
X-54.611 Y-13.919
X-54.623 Y-13.92
X-56.046 Y-14.122
X-56.056 Y-14.123
X-57.51 Y-14.313
X-57.519 Y-14.314
X-58.976 Y-14.492
X-58.986 Y-14.493
X-60.422 Y-14.653
X-60.434 Y-14.655
X-61.832 Y-14.793
X-61.851 Y-14.795
X-63.203 Y-14.902
X-63.225 Y-14.903
X-63.887 Y-14.941
X-63.907 Y-14.942
X-64.566 Y-14.966
X-64.59 Y-14.967
X-65.25 Y-14.975
X-65.278
X-65.946 Y-14.964
X-65.977 Y-14.963
X-66.659 Y-14.93
X-66.691 Y-14.928
X-67.391 Y-14.871
X-67.423 Y-14.868
X-68.145 Y-14.786
X-68.177 Y-14.781
X-68.921 Y-14.672
X-68.951 Y-14.667
X-69.716 Y-14.529
X-69.745 Y-14.524
X-70.526 Y-14.359
X-70.555 Y-14.352
X-71.348 Y-14.16
X-71.376 Y-14.152
X-72.176 Y-13.933
X-72.204 Y-13.925
X-73.002 Y-13.68
X-73.031 Y-13.67
X-73.821 Y-13.4
X-73.851 Y-13.389
X-74.624 Y-13.096
X-74.656 Y-13.083
X-75.404 Y-12.769
X-75.439 Y-12.753
X-76.152 Y-12.419
X-76.192 Y-12.399
X-76.86 Y-12.048
X-76.894 Y-12.03
X-77.209 Y-11.848
X-77.233 Y-11.834
X-77.534 Y-11.649
X-77.56 Y-11.632
X-77.846 Y-11.444
X-77.874 Y-11.424
X-78.143 Y-11.233
X-78.173 Y-11.211
X-78.425 Y-11.017
X-78.458 Y-10.99
X-78.692 Y-10.794
X-78.727 Y-10.763
X-78.941 Y-10.564
X-78.979 Y-10.527
X-79.173 Y-10.326
X-79.213 Y-10.283
X-79.386 Y-10.08
X-79.428 Y-10.028
X-79.579 Y-9.824
X-79.622 Y-9.762
X-79.751 Y-9.557
X-79.793 Y-9.485
X-79.899 Y-9.279
X-79.938 Y-9.196
X-80.021 Y-8.989
X-80.054 Y-8.894
X-80.114 Y-8.687
X-80.138 Y-8.582
X-80.174 Y-8.374
X-80.187 Y-8.265
X-80.199 Y-8.057
Y-7.943
X-80.187 Y-7.735
X-80.174 Y-7.626
X-80.138 Y-7.418
X-80.114 Y-7.313
X-80.054 Y-7.106
X-80.021 Y-7.011
X-79.938 Y-6.804
X-79.899 Y-6.721
X-79.793 Y-6.515
X-79.751 Y-6.443
X-79.622 Y-6.238
X-79.579 Y-6.176
X-79.428 Y-5.972
X-79.386 Y-5.92
X-79.213 Y-5.717
X-79.173 Y-5.674
X-78.979 Y-5.473
X-78.941 Y-5.436
X-78.727 Y-5.238
X-78.691 Y-5.206
X-78.458 Y-5.01
X-78.425 Y-4.984
X-78.173 Y-4.789
X-78.143 Y-4.767
X-77.874 Y-4.576
X-77.846 Y-4.556
X-77.56 Y-4.368
X-77.534 Y-4.351
X-77.233 Y-4.166
X-77.209 Y-4.152
X-76.894 Y-3.97
X-76.86 Y-3.952
X-76.192 Y-3.601
X-76.152 Y-3.581
X-75.439 Y-3.247
X-75.404 Y-3.231
X-74.657 Y-2.917
X-74.624 Y-2.904
X-73.851 Y-2.611
X-73.821 Y-2.6
X-73.031 Y-2.33
X-73.002 Y-2.32
X-72.204 Y-2.075
X-72.176 Y-2.067
X-71.376 Y-1.848
X-71.348 Y-1.84
X-70.555 Y-1.648
X-70.526 Y-1.641
X-69.745 Y-1.476
X-69.716 Y-1.471
X-68.951 Y-1.333
X-68.921 Y-1.328
X-68.177 Y-1.219
X-68.146 Y-1.214
X-67.423 Y-1.132
X-67.391 Y-1.129
X-66.691 Y-1.072
X-66.659 Y-1.07
X-65.977 Y-1.037
X-65.946 Y-1.036
X-65.278 Y-1.025
X-65.25
X-64.59 Y-1.033
X-64.566 Y-1.034
X-63.907 Y-1.058
X-63.887 Y-1.059
X-63.225 Y-1.097
X-63.203 Y-1.098
X-61.851 Y-1.205
X-61.832 Y-1.207
X-60.434 Y-1.345
X-60.422 Y-1.347
X-58.986 Y-1.507
X-58.976 Y-1.508
X-57.519 Y-1.686
X-57.51 Y-1.687
X-56.056 Y-1.877
X-56.046 Y-1.878
X-54.623 Y-2.08
X-54.611 Y-2.081
X-53.244 Y-2.293
X-53.23 Y-2.295
X-51.933 Y-2.515
X-51.922 Y-2.517
X-50.692 Y-2.74
X-50.689
X-49.506 Y-2.959
X-48.676 Y-3.103
Z-2.7
X-48.329 Y-3.163
X-47.733 Y-3.255
X-47.116 Y-3.34
X-46.472 Y-3.416
X-45.797 Y-3.483
X-45.087 Y-3.539
X-44.34 Y-3.586
X-44.253 Y-3.59
Z-3.2 F508
X-43.556 Y-3.622 F2540
X-42.736 Y-3.647
X-41.883 Y-3.662
X-41.002 Y-3.668
X-39.155 Y-3.652
X-37.233 Y-3.605
X-35.269 Y-3.532
X-33.299 Y-3.443
X-31.361 Y-3.345
X-29.488 Y-3.248
X-29.486
X-27.704 Y-3.159
X-27.698 Y-3.158
X-26.015 Y-3.084
X-26.005
X-24.412 Y-3.03
X-24.399 Y-3.029
X-22.877 Y-2.998
X-22.861
X-21.383 Y-2.991
X-21.368
X-19.908 Y-3.007
X-19.895 Y-3.008
X-18.435 Y-3.044
X-18.424 Y-3.045
X-16.954 Y-3.098
X-16.946
X-15.463 Y-3.163
X-15.458
X-13.963 Y-3.235
X-12.46 Y-3.309
X-10.957 Y-3.379
X-9.462 Y-3.439
X-7.981 Y-3.485
X-6.521 Y-3.515
X-5.079 Y-3.525
G2 X-4.396 Y-3.811 I-0.007 J-0.975
G1 X-1.603 Y-6.603
G2 X-1.603 Y-9.397 I-1.397 J-1.397
G1 X-4.396 Y-12.189
G2 X-5.079 Y-12.475 I-0.689 J0.689
G1 X-6.521 Y-12.485
X-7.981 Y-12.515
X-9.462 Y-12.561
X-10.957 Y-12.621
X-12.46 Y-12.691
X-13.962 Y-12.765
X-15.458 Y-12.837
X-15.463
X-16.946 Y-12.902
X-16.954
X-18.424 Y-12.955
X-18.435 Y-12.956
X-19.895 Y-12.992
X-19.908 Y-12.993
X-21.368 Y-13.009
X-21.383
X-22.861 Y-13.002
X-22.877
X-22.92 Y-13.001
X-24.399 Y-12.971 Z-3.252 F1016
X-24.412 Y-12.97
X-25.782 Y-12.924 Z-3.3
X-26.005 Y-12.916 F2540
X-26.015
X-27.698 Y-12.842
X-27.704 Y-12.841
X-29.486 Y-12.752
X-29.488
X-31.361 Y-12.655
X-33.299 Y-12.557
X-35.269 Y-12.468
X-37.233 Y-12.395
X-39.155 Y-12.348
X-41.002 Y-12.332
X-41.883 Y-12.338
X-42.736 Y-12.353
X-43.556 Y-12.379
X-44.253 Y-12.41
Z-2.7
X-44.34 Y-12.414
X-45.087 Y-12.461
X-45.797 Y-12.517
X-46.472 Y-12.584
X-47.116 Y-12.66
X-47.733 Y-12.745
X-48.329 Y-12.837
X-48.676 Y-12.897
Z-3.3 F508
X-49.506 Y-13.041 F2540
X-50.689 Y-13.26
X-50.692
X-51.922 Y-13.483
X-51.933 Y-13.485
X-53.23 Y-13.705
X-53.244 Y-13.707
X-54.611 Y-13.919
X-54.623 Y-13.92
X-56.046 Y-14.122
X-56.056 Y-14.123
X-57.51 Y-14.313
X-57.519 Y-14.314
X-58.976 Y-14.492
X-58.986 Y-14.493
X-60.422 Y-14.653
X-60.434 Y-14.655
X-61.832 Y-14.793
X-61.851 Y-14.795
X-63.203 Y-14.902
X-63.225 Y-14.903
X-63.887 Y-14.941
X-63.907 Y-14.942
X-64.566 Y-14.966
X-64.59 Y-14.967
X-65.25 Y-14.975
X-65.278
X-65.946 Y-14.964
X-65.977 Y-14.963
X-66.659 Y-14.93
X-66.691 Y-14.928
X-67.391 Y-14.871
X-67.423 Y-14.868
X-68.145 Y-14.786
X-68.177 Y-14.781
X-68.921 Y-14.672
X-68.951 Y-14.667
X-69.716 Y-14.529
X-69.745 Y-14.524
X-70.526 Y-14.359
X-70.555 Y-14.352
X-71.348 Y-14.16
X-71.376 Y-14.152
X-72.176 Y-13.933
X-72.204 Y-13.925
X-73.002 Y-13.68
X-73.031 Y-13.67
X-73.821 Y-13.4
X-73.851 Y-13.389
X-74.624 Y-13.096
X-74.656 Y-13.083
X-75.404 Y-12.769
X-75.439 Y-12.753
X-76.152 Y-12.419
X-76.192 Y-12.399
X-76.86 Y-12.048
X-76.894 Y-12.03
X-77.209 Y-11.848
X-77.233 Y-11.834
X-77.534 Y-11.649
X-77.56 Y-11.632
X-77.846 Y-11.444
X-77.874 Y-11.424
X-78.143 Y-11.233
X-78.173 Y-11.211
X-78.425 Y-11.017
X-78.458 Y-10.99
X-78.692 Y-10.794
X-78.727 Y-10.763
X-78.941 Y-10.564
X-78.979 Y-10.527
X-79.173 Y-10.326
X-79.213 Y-10.283
X-79.386 Y-10.08
X-79.428 Y-10.028
X-79.579 Y-9.824
X-79.622 Y-9.762
X-79.751 Y-9.557
X-79.793 Y-9.485
X-79.899 Y-9.279
X-79.938 Y-9.196
X-80.021 Y-8.989
X-80.054 Y-8.894
X-80.114 Y-8.687
X-80.138 Y-8.582
X-80.174 Y-8.374
X-80.187 Y-8.265
X-80.199 Y-8.057
Y-7.943
X-80.187 Y-7.735
X-80.174 Y-7.626
X-80.138 Y-7.418
X-80.114 Y-7.313
X-80.054 Y-7.106
X-80.021 Y-7.011
X-79.938 Y-6.804
X-79.899 Y-6.721
X-79.793 Y-6.515
X-79.751 Y-6.443
X-79.622 Y-6.238
X-79.579 Y-6.176
X-79.428 Y-5.972
X-79.386 Y-5.92
X-79.213 Y-5.717
X-79.173 Y-5.674
X-78.979 Y-5.473
X-78.941 Y-5.436
X-78.727 Y-5.238
X-78.691 Y-5.206
X-78.458 Y-5.01
X-78.425 Y-4.984
X-78.173 Y-4.789
X-78.143 Y-4.767
X-77.874 Y-4.576
X-77.846 Y-4.556
X-77.56 Y-4.368
X-77.534 Y-4.351
X-77.233 Y-4.166
X-77.209 Y-4.152
X-76.894 Y-3.97
X-76.86 Y-3.952
X-76.192 Y-3.601
X-76.152 Y-3.581
X-75.439 Y-3.247
X-75.404 Y-3.231
X-74.657 Y-2.917
X-74.624 Y-2.904
X-73.851 Y-2.611
X-73.821 Y-2.6
X-73.031 Y-2.33
X-73.002 Y-2.32
X-72.204 Y-2.075
X-72.176 Y-2.067
X-71.376 Y-1.848
X-71.348 Y-1.84
X-70.555 Y-1.648
X-70.526 Y-1.641
X-69.745 Y-1.476
X-69.716 Y-1.471
X-68.951 Y-1.333
X-68.921 Y-1.328
X-68.177 Y-1.219
X-68.146 Y-1.214
X-67.423 Y-1.132
X-67.391 Y-1.129
X-66.691 Y-1.072
X-66.659 Y-1.07
X-65.977 Y-1.037
X-65.946 Y-1.036
X-65.278 Y-1.025
X-65.25
X-64.59 Y-1.033
X-64.566 Y-1.034
X-63.907 Y-1.058
X-63.887 Y-1.059
X-63.225 Y-1.097
X-63.203 Y-1.098
X-61.851 Y-1.205
X-61.832 Y-1.207
X-60.434 Y-1.345
X-60.422 Y-1.347
X-58.986 Y-1.507
X-58.976 Y-1.508
X-57.519 Y-1.686
X-57.51 Y-1.687
X-56.056 Y-1.877
X-56.046 Y-1.878
X-54.623 Y-2.08
X-54.611 Y-2.081
X-53.244 Y-2.293
X-53.23 Y-2.295
X-51.933 Y-2.515
X-51.922 Y-2.517
X-50.692 Y-2.74
X-50.689
X-49.506 Y-2.959
X-48.676 Y-3.103
Z-2.7
X-48.329 Y-3.163
X-47.733 Y-3.255
X-47.116 Y-3.34
X-46.472 Y-3.416
X-45.797 Y-3.483
X-45.087 Y-3.539
X-44.34 Y-3.586
X-44.253 Y-3.59
Z-3.3 F508
X-43.556 Y-3.622 F2540
X-42.736 Y-3.647
X-41.883 Y-3.662
X-41.002 Y-3.668
X-39.155 Y-3.652
X-37.233 Y-3.605
X-35.269 Y-3.532
X-33.299 Y-3.443
X-31.361 Y-3.345
X-29.488 Y-3.248
X-29.486
X-27.704 Y-3.159
X-27.698 Y-3.158
X-26.015 Y-3.084
X-26.005
X-24.412 Y-3.03
X-24.399 Y-3.029
X-22.877 Y-2.998
X-22.861
X-21.383 Y-2.991
X-21.368
X-19.908 Y-3.007
X-19.895 Y-3.008
X-18.435 Y-3.044
X-18.424 Y-3.045
X-16.954 Y-3.098
X-16.946
X-15.463 Y-3.163
X-15.458
X-13.963 Y-3.235
X-12.46 Y-3.309
X-10.957 Y-3.379
X-9.462 Y-3.439
X-7.981 Y-3.485
X-6.521 Y-3.515
X-5.079 Y-3.525
G2 X-4.396 Y-3.811 I-0.007 J-0.975
G1 X-1.603 Y-6.603
G2 X-1.603 Y-9.397 I-1.397 J-1.397
G1 X-4.396 Y-12.189
G2 X-5.079 Y-12.475 I-0.689 J0.689
G1 X-6.521 Y-12.485
X-7.981 Y-12.515
X-9.462 Y-12.561
X-10.957 Y-12.621
X-12.46 Y-12.691
X-13.962 Y-12.765
X-15.458 Y-12.837
X-15.463
X-16.946 Y-12.902
X-16.954
X-18.424 Y-12.955
X-18.435 Y-12.956
X-19.895 Y-12.992
X-19.908 Y-12.993
X-21.368 Y-13.009
X-21.383
X-22.861 Y-13.002
X-22.877
X-24.399 Y-12.971
X-24.412 Y-12.97
X-25.782 Y-12.924
G0 Z15
G28 G91 Z0
G90
G28 G91 X0 Y0
G90
M5
M30
