(arme)
(Bearbeiten)
(  Hersteller: ChinaCnc)
(  model: 3040T)
(  description: Generic 3-axis)
(T5 D=3.175 CR=0 - ZMIN=-8.3 - Schaftfrser)
G90 G94
G17
G21
(-Attention- Property Safe Retracts is set to Clearance Height.)
(Ensure the clearance height will clear the part and or fixtures.)
(Raise the Z-axis to a safe height before starting the program.)
(When using Fusion for Personal Use, the feedrate of rapid)
(moves is reduced to match the feedrate of cutting moves,)
(which can increase machining time. Unrestricted rapid moves)
(are available with a Fusion Subscription.)

(Bohrfrsen3)
M0
(MANUAL TOOL CHANGE TO T5)
S6000 M3
G17 G90 G94
G54
G0 X-11.58 Y-99.329
Z15
G1 Z1.683 F1000
Z0
X-11.455 Y-99.232
X-11.434 Y-99.208
X-11.424 Y-99.178
X-11.426 Y-99.146
X-11.441 Y-99.118
G3 X-11.697 Y-99.317 Z-0.061 I-0.128 J-0.1
X-11.441 Y-99.118 Z-0.122 I0.128 J0.1
X-11.697 Y-99.317 Z-0.183 I-0.128 J-0.1
X-11.441 Y-99.118 Z-0.244 I0.128 J0.1
X-11.697 Y-99.317 Z-0.306 I-0.128 J-0.1
X-11.441 Y-99.118 Z-0.367 I0.128 J0.1
X-11.697 Y-99.317 Z-0.428 I-0.128 J-0.1
X-11.441 Y-99.118 Z-0.489 I0.128 J0.1
X-11.697 Y-99.317 Z-0.55 I-0.128 J-0.1
X-11.441 Y-99.118 Z-0.611 I0.128 J0.1
X-11.697 Y-99.317 Z-0.672 I-0.128 J-0.1
X-11.441 Y-99.118 Z-0.733 I0.128 J0.1
X-11.697 Y-99.317 Z-0.794 I-0.128 J-0.1
X-11.441 Y-99.118 Z-0.856 I0.128 J0.1
X-11.697 Y-99.317 Z-0.917 I-0.128 J-0.1
X-11.441 Y-99.118 Z-0.978 I0.128 J0.1
X-11.697 Y-99.317 Z-1.039 I-0.128 J-0.1
X-11.441 Y-99.118 Z-1.1 I0.128 J0.1
X-11.697 Y-99.317 Z-1.161 I-0.128 J-0.1
X-11.441 Y-99.118 Z-1.222 I0.128 J0.1
X-11.697 Y-99.317 Z-1.283 I-0.128 J-0.1
X-11.441 Y-99.118 Z-1.344 I0.128 J0.1
X-11.697 Y-99.317 Z-1.406 I-0.128 J-0.1
X-11.441 Y-99.118 Z-1.467 I0.128 J0.1
X-11.697 Y-99.317 Z-1.528 I-0.128 J-0.1
X-11.441 Y-99.118 Z-1.589 I0.128 J0.1
X-11.697 Y-99.317 Z-1.65 I-0.128 J-0.1
X-11.441 Y-99.118 Z-1.711 I0.128 J0.1
X-11.697 Y-99.317 Z-1.772 I-0.128 J-0.1
X-11.441 Y-99.118 Z-1.833 I0.128 J0.1
X-11.697 Y-99.317 Z-1.894 I-0.128 J-0.1
X-11.441 Y-99.118 Z-1.956 I0.128 J0.1
X-11.697 Y-99.317 Z-2.017 I-0.128 J-0.1
X-11.441 Y-99.118 Z-2.078 I0.128 J0.1
X-11.697 Y-99.317 Z-2.139 I-0.128 J-0.1
X-11.441 Y-99.118 Z-2.2 I0.128 J0.1
X-11.697 Y-99.317 Z-2.261 I-0.128 J-0.1
X-11.441 Y-99.118 Z-2.322 I0.128 J0.1
X-11.697 Y-99.317 Z-2.383 I-0.128 J-0.1
X-11.441 Y-99.118 Z-2.444 I0.128 J0.1
X-11.697 Y-99.317 Z-2.506 I-0.128 J-0.1
X-11.441 Y-99.118 Z-2.567 I0.128 J0.1
X-11.697 Y-99.317 Z-2.628 I-0.128 J-0.1
X-11.441 Y-99.118 Z-2.689 I0.128 J0.1
X-11.697 Y-99.317 Z-2.75 I-0.128 J-0.1
X-11.441 Y-99.118 Z-2.811 I0.128 J0.1
X-11.697 Y-99.317 Z-2.872 I-0.128 J-0.1
X-11.441 Y-99.118 Z-2.933 I0.128 J0.1
X-11.697 Y-99.317 Z-2.994 I-0.128 J-0.1
X-11.441 Y-99.118 Z-3.056 I0.128 J0.1
X-11.697 Y-99.317 Z-3.117 I-0.128 J-0.1
X-11.441 Y-99.118 Z-3.178 I0.128 J0.1
X-11.697 Y-99.317 Z-3.239 I-0.128 J-0.1
X-11.441 Y-99.118 Z-3.3 I0.128 J0.1
X-11.697 Y-99.317 Z-3.361 I-0.128 J-0.1
X-11.441 Y-99.118 Z-3.422 I0.128 J0.1
X-11.697 Y-99.317 Z-3.483 I-0.128 J-0.1
X-11.441 Y-99.118 Z-3.544 I0.128 J0.1
X-11.697 Y-99.317 Z-3.606 I-0.128 J-0.1
X-11.441 Y-99.118 Z-3.667 I0.128 J0.1
X-11.697 Y-99.317 Z-3.728 I-0.128 J-0.1
X-11.441 Y-99.118 Z-3.789 I0.128 J0.1
X-11.697 Y-99.317 Z-3.85 I-0.128 J-0.1
X-11.441 Y-99.118 Z-3.911 I0.128 J0.1
X-11.697 Y-99.317 Z-3.972 I-0.128 J-0.1
X-11.441 Y-99.118 Z-4.033 I0.128 J0.1
X-11.697 Y-99.317 Z-4.094 I-0.128 J-0.1
X-11.441 Y-99.118 Z-4.156 I0.128 J0.1
X-11.697 Y-99.317 Z-4.217 I-0.128 J-0.1
X-11.441 Y-99.118 Z-4.278 I0.128 J0.1
X-11.697 Y-99.317 Z-4.339 I-0.128 J-0.1
X-11.441 Y-99.118 Z-4.4 I0.128 J0.1
X-11.697 Y-99.317 Z-4.461 I-0.128 J-0.1
X-11.441 Y-99.118 Z-4.522 I0.128 J0.1
X-11.697 Y-99.317 Z-4.583 I-0.128 J-0.1
X-11.441 Y-99.118 Z-4.644 I0.128 J0.1
X-11.697 Y-99.317 Z-4.706 I-0.128 J-0.1
X-11.441 Y-99.118 Z-4.767 I0.128 J0.1
X-11.697 Y-99.317 Z-4.828 I-0.128 J-0.1
X-11.441 Y-99.118 Z-4.889 I0.128 J0.1
X-11.697 Y-99.317 Z-4.95 I-0.128 J-0.1
X-11.441 Y-99.118 Z-5.011 I0.128 J0.1
X-11.697 Y-99.317 Z-5.072 I-0.128 J-0.1
X-11.441 Y-99.118 Z-5.133 I0.128 J0.1
X-11.697 Y-99.317 Z-5.194 I-0.128 J-0.1
X-11.441 Y-99.118 Z-5.256 I0.128 J0.1
X-11.697 Y-99.317 Z-5.317 I-0.128 J-0.1
X-11.441 Y-99.118 Z-5.378 I0.128 J0.1
X-11.697 Y-99.317 Z-5.439 I-0.128 J-0.1
X-11.441 Y-99.118 Z-5.5 I0.128 J0.1
X-11.697 Y-99.317 Z-5.561 I-0.128 J-0.1
X-11.441 Y-99.118 Z-5.622 I0.128 J0.1
X-11.697 Y-99.317 Z-5.683 I-0.128 J-0.1
X-11.441 Y-99.118 Z-5.744 I0.128 J0.1
X-11.697 Y-99.317 Z-5.806 I-0.128 J-0.1
X-11.441 Y-99.118 Z-5.867 I0.128 J0.1
X-11.697 Y-99.317 Z-5.928 I-0.128 J-0.1
X-11.441 Y-99.118 Z-5.989 I0.128 J0.1
X-11.697 Y-99.317 Z-6.05 I-0.128 J-0.1
X-11.441 Y-99.118 Z-6.111 I0.128 J0.1
X-11.697 Y-99.317 Z-6.172 I-0.128 J-0.1
X-11.441 Y-99.118 Z-6.233 I0.128 J0.1
X-11.697 Y-99.317 Z-6.294 I-0.128 J-0.1
X-11.441 Y-99.118 Z-6.356 I0.128 J0.1
X-11.697 Y-99.317 Z-6.417 I-0.128 J-0.1
X-11.441 Y-99.118 Z-6.478 I0.128 J0.1
X-11.697 Y-99.317 Z-6.539 I-0.128 J-0.1
X-11.441 Y-99.118 Z-6.6 I0.128 J0.1
X-11.697 Y-99.317 Z-6.661 I-0.128 J-0.1
X-11.441 Y-99.118 Z-6.722 I0.128 J0.1
X-11.697 Y-99.317 Z-6.783 I-0.128 J-0.1
X-11.441 Y-99.118 Z-6.844 I0.128 J0.1
X-11.697 Y-99.317 Z-6.906 I-0.128 J-0.1
X-11.441 Y-99.118 Z-6.967 I0.128 J0.1
X-11.697 Y-99.317 Z-7.028 I-0.128 J-0.1
X-11.441 Y-99.118 Z-7.089 I0.128 J0.1
X-11.697 Y-99.317 Z-7.15 I-0.128 J-0.1
X-11.441 Y-99.118 Z-7.211 I0.128 J0.1
X-11.697 Y-99.317 Z-7.272 I-0.128 J-0.1
X-11.441 Y-99.118 Z-7.333 I0.128 J0.1
X-11.697 Y-99.317 Z-7.394 I-0.128 J-0.1
X-11.441 Y-99.118 Z-7.456 I0.128 J0.1
X-11.697 Y-99.317 Z-7.517 I-0.128 J-0.1
X-11.441 Y-99.118 Z-7.578 I0.128 J0.1
X-11.697 Y-99.317 Z-7.639 I-0.128 J-0.1
X-11.441 Y-99.118 Z-7.7 I0.128 J0.1
X-11.697 Y-99.317 Z-7.761 I-0.128 J-0.1
X-11.441 Y-99.118 Z-7.822 I0.128 J0.1
X-11.697 Y-99.317 Z-7.883 I-0.128 J-0.1
X-11.441 Y-99.118 Z-7.944 I0.128 J0.1
X-11.697 Y-99.317 Z-8.006 I-0.128 J-0.1
X-11.441 Y-99.118 Z-8.067 I0.128 J0.1
X-11.697 Y-99.317 Z-8.128 I-0.128 J-0.1
X-11.441 Y-99.118 Z-8.189 I0.128 J0.1
X-11.697 Y-99.317 Z-8.25 I-0.128 J-0.1
X-11.407 Y-99.203 Z-8.3 I0.128 J0.1
X-11.731 Y-99.232 I-0.162 J-0.014
X-11.407 Y-99.203 I0.162 J0.014
G1 X-11.416 Y-99.173
X-11.436 Y-99.148
X-11.464 Y-99.133
X-11.495 Y-99.129
X-11.653 Y-99.143
Z5
X-32.596 Y-98.475
Z2
Z0.317
X-32.59 Y-98.47 Z0.247
X-32.571 Y-98.456 Z0.18
X-32.541 Y-98.433 Z0.12
X-32.502 Y-98.402 Z0.069
X-32.454 Y-98.365 Z0.031
X-32.401 Y-98.324 Z0.008
X-32.345 Y-98.28 Z0
X-32.22 Y-98.183
G3 X-32.164 Y-97.737 I-0.195 J0.251
X-35.974 Y-100.698 Z-0.14 I-1.905 J-1.48
X-32.164 Y-97.737 Z-0.279 I1.905 J1.48
X-35.974 Y-100.698 Z-0.419 I-1.905 J-1.48
X-32.164 Y-97.737 Z-0.559 I1.905 J1.48
X-35.974 Y-100.698 Z-0.698 I-1.905 J-1.48
X-32.164 Y-97.737 Z-0.838 I1.905 J1.48
X-35.974 Y-100.698 Z-0.978 I-1.905 J-1.48
X-32.164 Y-97.737 Z-1.117 I1.905 J1.48
X-35.974 Y-100.698 Z-1.257 I-1.905 J-1.48
X-32.164 Y-97.737 Z-1.397 I1.905 J1.48
X-35.974 Y-100.698 Z-1.537 I-1.905 J-1.48
X-32.164 Y-97.737 Z-1.676 I1.905 J1.48
X-35.974 Y-100.698 Z-1.816 I-1.905 J-1.48
X-32.164 Y-97.737 Z-1.956 I1.905 J1.48
X-35.974 Y-100.698 Z-2.095 I-1.905 J-1.48
X-32.164 Y-97.737 Z-2.235 I1.905 J1.48
X-35.974 Y-100.698 Z-2.375 I-1.905 J-1.48
X-32.164 Y-97.737 Z-2.514 I1.905 J1.48
X-35.974 Y-100.698 Z-2.654 I-1.905 J-1.48
X-32.164 Y-97.737 Z-2.794 I1.905 J1.48
X-35.974 Y-100.698 Z-2.933 I-1.905 J-1.48
X-32.164 Y-97.737 Z-3.073 I1.905 J1.48
X-35.974 Y-100.698 Z-3.213 I-1.905 J-1.48
X-32.164 Y-97.737 Z-3.352 I1.905 J1.48
X-35.974 Y-100.698 Z-3.492 I-1.905 J-1.48
X-32.164 Y-97.737 Z-3.632 I1.905 J1.48
X-35.974 Y-100.698 Z-3.771 I-1.905 J-1.48
X-32.164 Y-97.737 Z-3.911 I1.905 J1.48
X-35.974 Y-100.698 Z-4.051 I-1.905 J-1.48
X-32.164 Y-97.737 Z-4.19 I1.905 J1.48
X-35.974 Y-100.698 Z-4.33 I-1.905 J-1.48
X-32.164 Y-97.737 Z-4.47 I1.905 J1.48
X-35.974 Y-100.698 Z-4.61 I-1.905 J-1.48
X-32.164 Y-97.737 Z-4.749 I1.905 J1.48
X-35.974 Y-100.698 Z-4.889 I-1.905 J-1.48
X-32.164 Y-97.737 Z-5.029 I1.905 J1.48
X-35.974 Y-100.698 Z-5.168 I-1.905 J-1.48
X-32.164 Y-97.737 Z-5.308 I1.905 J1.48
X-35.974 Y-100.698 Z-5.448 I-1.905 J-1.48
X-32.164 Y-97.737 Z-5.587 I1.905 J1.48
X-35.974 Y-100.698 Z-5.727 I-1.905 J-1.48
X-32.164 Y-97.737 Z-5.867 I1.905 J1.48
X-35.974 Y-100.698 Z-6.006 I-1.905 J-1.48
X-32.164 Y-97.737 Z-6.146 I1.905 J1.48
X-35.974 Y-100.698 Z-6.286 I-1.905 J-1.48
X-32.164 Y-97.737 Z-6.425 I1.905 J1.48
X-35.974 Y-100.698 Z-6.565 I-1.905 J-1.48
X-32.164 Y-97.737 Z-6.705 I1.905 J1.48
X-35.974 Y-100.698 Z-6.844 I-1.905 J-1.48
X-32.164 Y-97.737 Z-6.984 I1.905 J1.48
X-35.974 Y-100.698 Z-7.124 I-1.905 J-1.48
X-32.164 Y-97.737 Z-7.264 I1.905 J1.48
X-35.974 Y-100.698 Z-7.403 I-1.905 J-1.48
X-32.164 Y-97.737 Z-7.543 I1.905 J1.48
X-35.974 Y-100.698 Z-7.683 I-1.905 J-1.48
X-32.164 Y-97.737 Z-7.822 I1.905 J1.48
X-35.974 Y-100.698 Z-7.962 I-1.905 J-1.48
X-32.164 Y-97.737 Z-8.102 I1.905 J1.48
X-35.974 Y-100.698 Z-8.241 I-1.905 J-1.48
X-33.108 Y-101.43 Z-8.3 I1.905 J1.48
X-35.03 Y-97.005 I-0.961 J2.213
X-33.108 Y-101.43 I0.961 J-2.213
X-32.943 Y-101.012 I-0.127 J0.291
G1 X-33.006 Y-100.867
X-33.034 Y-100.802 Z-8.292
X-33.061 Y-100.741 Z-8.269
X-33.085 Y-100.685 Z-8.231
X-33.105 Y-100.639 Z-8.18
X-33.12 Y-100.604 Z-8.12
X-33.13 Y-100.583 Z-8.053
X-33.133 Y-100.576 Z-7.983
Z5
X-56.58 Y-99.329
Z1.683
Z0
X-56.455 Y-99.232
X-56.434 Y-99.208
X-56.424 Y-99.178
X-56.426 Y-99.146
X-56.441 Y-99.118
G3 X-56.697 Y-99.317 Z-0.061 I-0.128 J-0.1
X-56.441 Y-99.118 Z-0.122 I0.128 J0.1
X-56.697 Y-99.317 Z-0.183 I-0.128 J-0.1
X-56.441 Y-99.118 Z-0.244 I0.128 J0.1
X-56.697 Y-99.317 Z-0.306 I-0.128 J-0.1
X-56.441 Y-99.118 Z-0.367 I0.128 J0.1
X-56.697 Y-99.317 Z-0.428 I-0.128 J-0.1
X-56.441 Y-99.118 Z-0.489 I0.128 J0.1
X-56.697 Y-99.317 Z-0.55 I-0.128 J-0.1
X-56.441 Y-99.118 Z-0.611 I0.128 J0.1
X-56.697 Y-99.317 Z-0.672 I-0.128 J-0.1
X-56.441 Y-99.118 Z-0.733 I0.128 J0.1
X-56.697 Y-99.317 Z-0.794 I-0.128 J-0.1
X-56.441 Y-99.118 Z-0.856 I0.128 J0.1
X-56.697 Y-99.317 Z-0.917 I-0.128 J-0.1
X-56.441 Y-99.118 Z-0.978 I0.128 J0.1
X-56.697 Y-99.317 Z-1.039 I-0.128 J-0.1
X-56.441 Y-99.118 Z-1.1 I0.128 J0.1
X-56.697 Y-99.317 Z-1.161 I-0.128 J-0.1
X-56.441 Y-99.118 Z-1.222 I0.128 J0.1
X-56.697 Y-99.317 Z-1.283 I-0.128 J-0.1
X-56.441 Y-99.118 Z-1.344 I0.128 J0.1
X-56.697 Y-99.317 Z-1.406 I-0.128 J-0.1
X-56.441 Y-99.118 Z-1.467 I0.128 J0.1
X-56.697 Y-99.317 Z-1.528 I-0.128 J-0.1
X-56.441 Y-99.118 Z-1.589 I0.128 J0.1
X-56.697 Y-99.317 Z-1.65 I-0.128 J-0.1
X-56.441 Y-99.118 Z-1.711 I0.128 J0.1
X-56.697 Y-99.317 Z-1.772 I-0.128 J-0.1
X-56.441 Y-99.118 Z-1.833 I0.128 J0.1
X-56.697 Y-99.317 Z-1.894 I-0.128 J-0.1
X-56.441 Y-99.118 Z-1.956 I0.128 J0.1
X-56.697 Y-99.317 Z-2.017 I-0.128 J-0.1
X-56.441 Y-99.118 Z-2.078 I0.128 J0.1
X-56.697 Y-99.317 Z-2.139 I-0.128 J-0.1
X-56.441 Y-99.118 Z-2.2 I0.128 J0.1
X-56.697 Y-99.317 Z-2.261 I-0.128 J-0.1
X-56.441 Y-99.118 Z-2.322 I0.128 J0.1
X-56.697 Y-99.317 Z-2.383 I-0.128 J-0.1
X-56.441 Y-99.118 Z-2.444 I0.128 J0.1
X-56.697 Y-99.317 Z-2.506 I-0.128 J-0.1
X-56.441 Y-99.118 Z-2.567 I0.128 J0.1
X-56.697 Y-99.317 Z-2.628 I-0.128 J-0.1
X-56.441 Y-99.118 Z-2.689 I0.128 J0.1
X-56.697 Y-99.317 Z-2.75 I-0.128 J-0.1
X-56.441 Y-99.118 Z-2.811 I0.128 J0.1
X-56.697 Y-99.317 Z-2.872 I-0.128 J-0.1
X-56.441 Y-99.118 Z-2.933 I0.128 J0.1
X-56.697 Y-99.317 Z-2.994 I-0.128 J-0.1
X-56.441 Y-99.118 Z-3.056 I0.128 J0.1
X-56.697 Y-99.317 Z-3.117 I-0.128 J-0.1
X-56.441 Y-99.118 Z-3.178 I0.128 J0.1
X-56.697 Y-99.317 Z-3.239 I-0.128 J-0.1
X-56.441 Y-99.118 Z-3.3 I0.128 J0.1
X-56.697 Y-99.317 Z-3.361 I-0.128 J-0.1
X-56.441 Y-99.118 Z-3.422 I0.128 J0.1
X-56.697 Y-99.317 Z-3.483 I-0.128 J-0.1
X-56.441 Y-99.118 Z-3.544 I0.128 J0.1
X-56.697 Y-99.317 Z-3.606 I-0.128 J-0.1
X-56.441 Y-99.118 Z-3.667 I0.128 J0.1
X-56.697 Y-99.317 Z-3.728 I-0.128 J-0.1
X-56.441 Y-99.118 Z-3.789 I0.128 J0.1
X-56.697 Y-99.317 Z-3.85 I-0.128 J-0.1
X-56.441 Y-99.118 Z-3.911 I0.128 J0.1
X-56.697 Y-99.317 Z-3.972 I-0.128 J-0.1
X-56.441 Y-99.118 Z-4.033 I0.128 J0.1
X-56.697 Y-99.317 Z-4.094 I-0.128 J-0.1
X-56.441 Y-99.118 Z-4.156 I0.128 J0.1
X-56.697 Y-99.317 Z-4.217 I-0.128 J-0.1
X-56.441 Y-99.118 Z-4.278 I0.128 J0.1
X-56.697 Y-99.317 Z-4.339 I-0.128 J-0.1
X-56.441 Y-99.118 Z-4.4 I0.128 J0.1
X-56.697 Y-99.317 Z-4.461 I-0.128 J-0.1
X-56.441 Y-99.118 Z-4.522 I0.128 J0.1
X-56.697 Y-99.317 Z-4.583 I-0.128 J-0.1
X-56.441 Y-99.118 Z-4.644 I0.128 J0.1
X-56.697 Y-99.317 Z-4.706 I-0.128 J-0.1
X-56.441 Y-99.118 Z-4.767 I0.128 J0.1
X-56.697 Y-99.317 Z-4.828 I-0.128 J-0.1
X-56.441 Y-99.118 Z-4.889 I0.128 J0.1
X-56.697 Y-99.317 Z-4.95 I-0.128 J-0.1
X-56.441 Y-99.118 Z-5.011 I0.128 J0.1
X-56.697 Y-99.317 Z-5.072 I-0.128 J-0.1
X-56.441 Y-99.118 Z-5.133 I0.128 J0.1
X-56.697 Y-99.317 Z-5.194 I-0.128 J-0.1
X-56.441 Y-99.118 Z-5.256 I0.128 J0.1
X-56.697 Y-99.317 Z-5.317 I-0.128 J-0.1
X-56.441 Y-99.118 Z-5.378 I0.128 J0.1
X-56.697 Y-99.317 Z-5.439 I-0.128 J-0.1
X-56.441 Y-99.118 Z-5.5 I0.128 J0.1
X-56.697 Y-99.317 Z-5.561 I-0.128 J-0.1
X-56.441 Y-99.118 Z-5.622 I0.128 J0.1
X-56.697 Y-99.317 Z-5.683 I-0.128 J-0.1
X-56.441 Y-99.118 Z-5.744 I0.128 J0.1
X-56.697 Y-99.317 Z-5.806 I-0.128 J-0.1
X-56.441 Y-99.118 Z-5.867 I0.128 J0.1
X-56.697 Y-99.317 Z-5.928 I-0.128 J-0.1
X-56.441 Y-99.118 Z-5.989 I0.128 J0.1
X-56.697 Y-99.317 Z-6.05 I-0.128 J-0.1
X-56.441 Y-99.118 Z-6.111 I0.128 J0.1
X-56.697 Y-99.317 Z-6.172 I-0.128 J-0.1
X-56.441 Y-99.118 Z-6.233 I0.128 J0.1
X-56.697 Y-99.317 Z-6.294 I-0.128 J-0.1
X-56.441 Y-99.118 Z-6.356 I0.128 J0.1
X-56.697 Y-99.317 Z-6.417 I-0.128 J-0.1
X-56.441 Y-99.118 Z-6.478 I0.128 J0.1
X-56.697 Y-99.317 Z-6.539 I-0.128 J-0.1
X-56.441 Y-99.118 Z-6.6 I0.128 J0.1
X-56.697 Y-99.317 Z-6.661 I-0.128 J-0.1
X-56.441 Y-99.118 Z-6.722 I0.128 J0.1
X-56.697 Y-99.317 Z-6.783 I-0.128 J-0.1
X-56.441 Y-99.118 Z-6.844 I0.128 J0.1
X-56.697 Y-99.317 Z-6.906 I-0.128 J-0.1
X-56.441 Y-99.118 Z-6.967 I0.128 J0.1
X-56.697 Y-99.317 Z-7.028 I-0.128 J-0.1
X-56.441 Y-99.118 Z-7.089 I0.128 J0.1
X-56.697 Y-99.317 Z-7.15 I-0.128 J-0.1
X-56.441 Y-99.118 Z-7.211 I0.128 J0.1
X-56.697 Y-99.317 Z-7.272 I-0.128 J-0.1
X-56.441 Y-99.118 Z-7.333 I0.128 J0.1
X-56.697 Y-99.317 Z-7.394 I-0.128 J-0.1
X-56.441 Y-99.118 Z-7.456 I0.128 J0.1
X-56.697 Y-99.317 Z-7.517 I-0.128 J-0.1
X-56.441 Y-99.118 Z-7.578 I0.128 J0.1
X-56.697 Y-99.317 Z-7.639 I-0.128 J-0.1
X-56.441 Y-99.118 Z-7.7 I0.128 J0.1
X-56.697 Y-99.317 Z-7.761 I-0.128 J-0.1
X-56.441 Y-99.118 Z-7.822 I0.128 J0.1
X-56.697 Y-99.317 Z-7.883 I-0.128 J-0.1
X-56.441 Y-99.118 Z-7.944 I0.128 J0.1
X-56.697 Y-99.317 Z-8.006 I-0.128 J-0.1
X-56.441 Y-99.118 Z-8.067 I0.128 J0.1
X-56.697 Y-99.317 Z-8.128 I-0.128 J-0.1
X-56.441 Y-99.118 Z-8.189 I0.128 J0.1
X-56.697 Y-99.317 Z-8.25 I-0.128 J-0.1
X-56.407 Y-99.203 Z-8.3 I0.128 J0.1
X-56.731 Y-99.232 I-0.162 J-0.014
X-56.407 Y-99.203 I0.162 J0.014
G1 X-56.416 Y-99.173
X-56.436 Y-99.148
X-56.464 Y-99.133
X-56.495 Y-99.129
X-56.653 Y-99.143
Z5
X-66.602 Y-72.208
Z1.683
Z0
X-66.72 Y-72.103
X-66.748 Y-72.087
X-66.779 Y-72.082
X-66.81 Y-72.09
X-66.835 Y-72.11
G3 X-66.592 Y-72.325 Z-0.061 I0.121 J-0.108
X-66.835 Y-72.11 Z-0.122 I-0.121 J0.108
X-66.592 Y-72.325 Z-0.183 I0.121 J-0.108
X-66.835 Y-72.11 Z-0.244 I-0.121 J0.108
X-66.592 Y-72.325 Z-0.306 I0.121 J-0.108
X-66.835 Y-72.11 Z-0.367 I-0.121 J0.108
X-66.592 Y-72.325 Z-0.428 I0.121 J-0.108
X-66.835 Y-72.11 Z-0.489 I-0.121 J0.108
X-66.592 Y-72.325 Z-0.55 I0.121 J-0.108
X-66.835 Y-72.11 Z-0.611 I-0.121 J0.108
X-66.592 Y-72.325 Z-0.672 I0.121 J-0.108
X-66.835 Y-72.11 Z-0.733 I-0.121 J0.108
X-66.592 Y-72.325 Z-0.794 I0.121 J-0.108
X-66.835 Y-72.11 Z-0.856 I-0.121 J0.108
X-66.592 Y-72.325 Z-0.917 I0.121 J-0.108
X-66.835 Y-72.11 Z-0.978 I-0.121 J0.108
X-66.592 Y-72.325 Z-1.039 I0.121 J-0.108
X-66.835 Y-72.11 Z-1.1 I-0.121 J0.108
X-66.592 Y-72.325 Z-1.161 I0.121 J-0.108
X-66.835 Y-72.11 Z-1.222 I-0.121 J0.108
X-66.592 Y-72.325 Z-1.283 I0.121 J-0.108
X-66.835 Y-72.11 Z-1.344 I-0.121 J0.108
X-66.592 Y-72.325 Z-1.406 I0.121 J-0.108
X-66.835 Y-72.11 Z-1.467 I-0.121 J0.108
X-66.592 Y-72.325 Z-1.528 I0.121 J-0.108
X-66.835 Y-72.11 Z-1.589 I-0.121 J0.108
X-66.592 Y-72.325 Z-1.65 I0.121 J-0.108
X-66.835 Y-72.11 Z-1.711 I-0.121 J0.108
X-66.592 Y-72.325 Z-1.772 I0.121 J-0.108
X-66.835 Y-72.11 Z-1.833 I-0.121 J0.108
X-66.592 Y-72.325 Z-1.894 I0.121 J-0.108
X-66.835 Y-72.11 Z-1.956 I-0.121 J0.108
X-66.592 Y-72.325 Z-2.017 I0.121 J-0.108
X-66.835 Y-72.11 Z-2.078 I-0.121 J0.108
X-66.592 Y-72.325 Z-2.139 I0.121 J-0.108
X-66.835 Y-72.11 Z-2.2 I-0.121 J0.108
X-66.592 Y-72.325 Z-2.261 I0.121 J-0.108
X-66.835 Y-72.11 Z-2.322 I-0.121 J0.108
X-66.592 Y-72.325 Z-2.383 I0.121 J-0.108
X-66.835 Y-72.11 Z-2.444 I-0.121 J0.108
X-66.592 Y-72.325 Z-2.506 I0.121 J-0.108
X-66.835 Y-72.11 Z-2.567 I-0.121 J0.108
X-66.592 Y-72.325 Z-2.628 I0.121 J-0.108
X-66.835 Y-72.11 Z-2.689 I-0.121 J0.108
X-66.592 Y-72.325 Z-2.75 I0.121 J-0.108
X-66.835 Y-72.11 Z-2.811 I-0.121 J0.108
X-66.592 Y-72.325 Z-2.872 I0.121 J-0.108
X-66.835 Y-72.11 Z-2.933 I-0.121 J0.108
X-66.592 Y-72.325 Z-2.994 I0.121 J-0.108
X-66.835 Y-72.11 Z-3.056 I-0.121 J0.108
X-66.592 Y-72.325 Z-3.117 I0.121 J-0.108
X-66.835 Y-72.11 Z-3.178 I-0.121 J0.108
X-66.592 Y-72.325 Z-3.239 I0.121 J-0.108
X-66.835 Y-72.11 Z-3.3 I-0.121 J0.108
X-66.592 Y-72.325 Z-3.361 I0.121 J-0.108
X-66.835 Y-72.11 Z-3.422 I-0.121 J0.108
X-66.592 Y-72.325 Z-3.483 I0.121 J-0.108
X-66.835 Y-72.11 Z-3.544 I-0.121 J0.108
X-66.592 Y-72.325 Z-3.606 I0.121 J-0.108
X-66.835 Y-72.11 Z-3.667 I-0.121 J0.108
X-66.592 Y-72.325 Z-3.728 I0.121 J-0.108
X-66.835 Y-72.11 Z-3.789 I-0.121 J0.108
X-66.592 Y-72.325 Z-3.85 I0.121 J-0.108
X-66.835 Y-72.11 Z-3.911 I-0.121 J0.108
X-66.592 Y-72.325 Z-3.972 I0.121 J-0.108
X-66.835 Y-72.11 Z-4.033 I-0.121 J0.108
X-66.592 Y-72.325 Z-4.094 I0.121 J-0.108
X-66.835 Y-72.11 Z-4.156 I-0.121 J0.108
X-66.592 Y-72.325 Z-4.217 I0.121 J-0.108
X-66.835 Y-72.11 Z-4.278 I-0.121 J0.108
X-66.592 Y-72.325 Z-4.339 I0.121 J-0.108
X-66.835 Y-72.11 Z-4.4 I-0.121 J0.108
X-66.592 Y-72.325 Z-4.461 I0.121 J-0.108
X-66.835 Y-72.11 Z-4.522 I-0.121 J0.108
X-66.592 Y-72.325 Z-4.583 I0.121 J-0.108
X-66.835 Y-72.11 Z-4.644 I-0.121 J0.108
X-66.592 Y-72.325 Z-4.706 I0.121 J-0.108
X-66.835 Y-72.11 Z-4.767 I-0.121 J0.108
X-66.592 Y-72.325 Z-4.828 I0.121 J-0.108
X-66.835 Y-72.11 Z-4.889 I-0.121 J0.108
X-66.592 Y-72.325 Z-4.95 I0.121 J-0.108
X-66.835 Y-72.11 Z-5.011 I-0.121 J0.108
X-66.592 Y-72.325 Z-5.072 I0.121 J-0.108
X-66.835 Y-72.11 Z-5.133 I-0.121 J0.108
X-66.592 Y-72.325 Z-5.194 I0.121 J-0.108
X-66.835 Y-72.11 Z-5.256 I-0.121 J0.108
X-66.592 Y-72.325 Z-5.317 I0.121 J-0.108
X-66.835 Y-72.11 Z-5.378 I-0.121 J0.108
X-66.592 Y-72.325 Z-5.439 I0.121 J-0.108
X-66.835 Y-72.11 Z-5.5 I-0.121 J0.108
X-66.592 Y-72.325 Z-5.561 I0.121 J-0.108
X-66.835 Y-72.11 Z-5.622 I-0.121 J0.108
X-66.592 Y-72.325 Z-5.683 I0.121 J-0.108
X-66.835 Y-72.11 Z-5.744 I-0.121 J0.108
X-66.592 Y-72.325 Z-5.806 I0.121 J-0.108
X-66.835 Y-72.11 Z-5.867 I-0.121 J0.108
X-66.592 Y-72.325 Z-5.928 I0.121 J-0.108
X-66.835 Y-72.11 Z-5.989 I-0.121 J0.108
X-66.592 Y-72.325 Z-6.05 I0.121 J-0.108
X-66.835 Y-72.11 Z-6.111 I-0.121 J0.108
X-66.592 Y-72.325 Z-6.172 I0.121 J-0.108
X-66.835 Y-72.11 Z-6.233 I-0.121 J0.108
X-66.592 Y-72.325 Z-6.294 I0.121 J-0.108
X-66.835 Y-72.11 Z-6.356 I-0.121 J0.108
X-66.592 Y-72.325 Z-6.417 I0.121 J-0.108
X-66.835 Y-72.11 Z-6.478 I-0.121 J0.108
X-66.592 Y-72.325 Z-6.539 I0.121 J-0.108
X-66.835 Y-72.11 Z-6.6 I-0.121 J0.108
X-66.592 Y-72.325 Z-6.661 I0.121 J-0.108
X-66.835 Y-72.11 Z-6.722 I-0.121 J0.108
X-66.592 Y-72.325 Z-6.783 I0.121 J-0.108
X-66.835 Y-72.11 Z-6.844 I-0.121 J0.108
X-66.592 Y-72.325 Z-6.906 I0.121 J-0.108
X-66.835 Y-72.11 Z-6.967 I-0.121 J0.108
X-66.592 Y-72.325 Z-7.028 I0.121 J-0.108
X-66.835 Y-72.11 Z-7.089 I-0.121 J0.108
X-66.592 Y-72.325 Z-7.15 I0.121 J-0.108
X-66.835 Y-72.11 Z-7.211 I-0.121 J0.108
X-66.592 Y-72.325 Z-7.272 I0.121 J-0.108
X-66.835 Y-72.11 Z-7.333 I-0.121 J0.108
X-66.592 Y-72.325 Z-7.394 I0.121 J-0.108
X-66.835 Y-72.11 Z-7.456 I-0.121 J0.108
X-66.592 Y-72.325 Z-7.517 I0.121 J-0.108
X-66.835 Y-72.11 Z-7.578 I-0.121 J0.108
X-66.592 Y-72.325 Z-7.639 I0.121 J-0.108
X-66.835 Y-72.11 Z-7.7 I-0.121 J0.108
X-66.592 Y-72.325 Z-7.761 I0.121 J-0.108
X-66.835 Y-72.11 Z-7.822 I-0.121 J0.108
X-66.592 Y-72.325 Z-7.883 I0.121 J-0.108
X-66.835 Y-72.11 Z-7.944 I-0.121 J0.108
X-66.592 Y-72.325 Z-8.006 I0.121 J-0.108
X-66.835 Y-72.11 Z-8.067 I-0.121 J0.108
X-66.592 Y-72.325 Z-8.128 I0.121 J-0.108
X-66.835 Y-72.11 Z-8.189 I-0.121 J0.108
X-66.592 Y-72.325 Z-8.25 I0.121 J-0.108
X-66.757 Y-72.061 Z-8.3 I-0.121 J0.108
X-66.67 Y-72.374 I0.044 J-0.157
X-66.757 Y-72.061 I-0.044 J0.157
G1 X-66.785 Y-72.075
X-66.806 Y-72.099
X-66.816 Y-72.129
X-66.814 Y-72.161
X-66.771 Y-72.314
Z5
X-39.307 Y-73.481
Z1.683
Z0
X-39.426 Y-73.375
X-39.454 Y-73.359
X-39.485 Y-73.355
X-39.516 Y-73.363
X-39.541 Y-73.382
G3 X-39.298 Y-73.598 Z-0.061 I0.121 J-0.108
X-39.541 Y-73.382 Z-0.122 I-0.121 J0.108
X-39.298 Y-73.598 Z-0.183 I0.121 J-0.108
X-39.541 Y-73.382 Z-0.244 I-0.121 J0.108
X-39.298 Y-73.598 Z-0.306 I0.121 J-0.108
X-39.541 Y-73.382 Z-0.367 I-0.121 J0.108
X-39.298 Y-73.598 Z-0.428 I0.121 J-0.108
X-39.541 Y-73.382 Z-0.489 I-0.121 J0.108
X-39.298 Y-73.598 Z-0.55 I0.121 J-0.108
X-39.541 Y-73.382 Z-0.611 I-0.121 J0.108
X-39.298 Y-73.598 Z-0.672 I0.121 J-0.108
X-39.541 Y-73.382 Z-0.733 I-0.121 J0.108
X-39.298 Y-73.598 Z-0.794 I0.121 J-0.108
X-39.541 Y-73.382 Z-0.856 I-0.121 J0.108
X-39.298 Y-73.598 Z-0.917 I0.121 J-0.108
X-39.541 Y-73.382 Z-0.978 I-0.121 J0.108
X-39.298 Y-73.598 Z-1.039 I0.121 J-0.108
X-39.541 Y-73.382 Z-1.1 I-0.121 J0.108
X-39.298 Y-73.598 Z-1.161 I0.121 J-0.108
X-39.541 Y-73.382 Z-1.222 I-0.121 J0.108
X-39.298 Y-73.598 Z-1.283 I0.121 J-0.108
X-39.541 Y-73.382 Z-1.344 I-0.121 J0.108
X-39.298 Y-73.598 Z-1.406 I0.121 J-0.108
X-39.541 Y-73.382 Z-1.467 I-0.121 J0.108
X-39.298 Y-73.598 Z-1.528 I0.121 J-0.108
X-39.541 Y-73.382 Z-1.589 I-0.121 J0.108
X-39.298 Y-73.598 Z-1.65 I0.121 J-0.108
X-39.541 Y-73.382 Z-1.711 I-0.121 J0.108
X-39.298 Y-73.598 Z-1.772 I0.121 J-0.108
X-39.541 Y-73.382 Z-1.833 I-0.121 J0.108
X-39.298 Y-73.598 Z-1.894 I0.121 J-0.108
X-39.541 Y-73.382 Z-1.956 I-0.121 J0.108
X-39.298 Y-73.598 Z-2.017 I0.121 J-0.108
X-39.541 Y-73.382 Z-2.078 I-0.121 J0.108
X-39.298 Y-73.598 Z-2.139 I0.121 J-0.108
X-39.541 Y-73.382 Z-2.2 I-0.121 J0.108
X-39.298 Y-73.598 Z-2.261 I0.121 J-0.108
X-39.541 Y-73.382 Z-2.322 I-0.121 J0.108
X-39.298 Y-73.598 Z-2.383 I0.121 J-0.108
X-39.541 Y-73.382 Z-2.444 I-0.121 J0.108
X-39.298 Y-73.598 Z-2.506 I0.121 J-0.108
X-39.541 Y-73.382 Z-2.567 I-0.121 J0.108
X-39.298 Y-73.598 Z-2.628 I0.121 J-0.108
X-39.541 Y-73.382 Z-2.689 I-0.121 J0.108
X-39.298 Y-73.598 Z-2.75 I0.121 J-0.108
X-39.541 Y-73.382 Z-2.811 I-0.121 J0.108
X-39.298 Y-73.598 Z-2.872 I0.121 J-0.108
X-39.541 Y-73.382 Z-2.933 I-0.121 J0.108
X-39.298 Y-73.598 Z-2.994 I0.121 J-0.108
X-39.541 Y-73.382 Z-3.056 I-0.121 J0.108
X-39.298 Y-73.598 Z-3.117 I0.121 J-0.108
X-39.541 Y-73.382 Z-3.178 I-0.121 J0.108
X-39.298 Y-73.598 Z-3.239 I0.121 J-0.108
X-39.541 Y-73.382 Z-3.3 I-0.121 J0.108
X-39.298 Y-73.598 Z-3.361 I0.121 J-0.108
X-39.541 Y-73.382 Z-3.422 I-0.121 J0.108
X-39.298 Y-73.598 Z-3.483 I0.121 J-0.108
X-39.541 Y-73.382 Z-3.544 I-0.121 J0.108
X-39.298 Y-73.598 Z-3.606 I0.121 J-0.108
X-39.541 Y-73.382 Z-3.667 I-0.121 J0.108
X-39.298 Y-73.598 Z-3.728 I0.121 J-0.108
X-39.541 Y-73.382 Z-3.789 I-0.121 J0.108
X-39.298 Y-73.598 Z-3.85 I0.121 J-0.108
X-39.541 Y-73.382 Z-3.911 I-0.121 J0.108
X-39.298 Y-73.598 Z-3.972 I0.121 J-0.108
X-39.541 Y-73.382 Z-4.033 I-0.121 J0.108
X-39.298 Y-73.598 Z-4.094 I0.121 J-0.108
X-39.541 Y-73.382 Z-4.156 I-0.121 J0.108
X-39.298 Y-73.598 Z-4.217 I0.121 J-0.108
X-39.541 Y-73.382 Z-4.278 I-0.121 J0.108
X-39.298 Y-73.598 Z-4.339 I0.121 J-0.108
X-39.541 Y-73.382 Z-4.4 I-0.121 J0.108
X-39.298 Y-73.598 Z-4.461 I0.121 J-0.108
X-39.541 Y-73.382 Z-4.522 I-0.121 J0.108
X-39.298 Y-73.598 Z-4.583 I0.121 J-0.108
X-39.541 Y-73.382 Z-4.644 I-0.121 J0.108
X-39.298 Y-73.598 Z-4.706 I0.121 J-0.108
X-39.541 Y-73.382 Z-4.767 I-0.121 J0.108
X-39.298 Y-73.598 Z-4.828 I0.121 J-0.108
X-39.541 Y-73.382 Z-4.889 I-0.121 J0.108
X-39.298 Y-73.598 Z-4.95 I0.121 J-0.108
X-39.541 Y-73.382 Z-5.011 I-0.121 J0.108
X-39.298 Y-73.598 Z-5.072 I0.121 J-0.108
X-39.541 Y-73.382 Z-5.133 I-0.121 J0.108
X-39.298 Y-73.598 Z-5.194 I0.121 J-0.108
X-39.541 Y-73.382 Z-5.256 I-0.121 J0.108
X-39.298 Y-73.598 Z-5.317 I0.121 J-0.108
X-39.541 Y-73.382 Z-5.378 I-0.121 J0.108
X-39.298 Y-73.598 Z-5.439 I0.121 J-0.108
X-39.541 Y-73.382 Z-5.5 I-0.121 J0.108
X-39.298 Y-73.598 Z-5.561 I0.121 J-0.108
X-39.541 Y-73.382 Z-5.622 I-0.121 J0.108
X-39.298 Y-73.598 Z-5.683 I0.121 J-0.108
X-39.541 Y-73.382 Z-5.744 I-0.121 J0.108
X-39.298 Y-73.598 Z-5.806 I0.121 J-0.108
X-39.541 Y-73.382 Z-5.867 I-0.121 J0.108
X-39.298 Y-73.598 Z-5.928 I0.121 J-0.108
X-39.541 Y-73.382 Z-5.989 I-0.121 J0.108
X-39.298 Y-73.598 Z-6.05 I0.121 J-0.108
X-39.541 Y-73.382 Z-6.111 I-0.121 J0.108
X-39.298 Y-73.598 Z-6.172 I0.121 J-0.108
X-39.541 Y-73.382 Z-6.233 I-0.121 J0.108
X-39.298 Y-73.598 Z-6.294 I0.121 J-0.108
X-39.541 Y-73.382 Z-6.356 I-0.121 J0.108
X-39.298 Y-73.598 Z-6.417 I0.121 J-0.108
X-39.541 Y-73.382 Z-6.478 I-0.121 J0.108
X-39.298 Y-73.598 Z-6.539 I0.121 J-0.108
X-39.541 Y-73.382 Z-6.6 I-0.121 J0.108
X-39.298 Y-73.598 Z-6.661 I0.121 J-0.108
X-39.541 Y-73.382 Z-6.722 I-0.121 J0.108
X-39.298 Y-73.598 Z-6.783 I0.121 J-0.108
X-39.541 Y-73.382 Z-6.844 I-0.121 J0.108
X-39.298 Y-73.598 Z-6.906 I0.121 J-0.108
X-39.541 Y-73.382 Z-6.967 I-0.121 J0.108
X-39.298 Y-73.598 Z-7.028 I0.121 J-0.108
X-39.541 Y-73.382 Z-7.089 I-0.121 J0.108
X-39.298 Y-73.598 Z-7.15 I0.121 J-0.108
X-39.541 Y-73.382 Z-7.211 I-0.121 J0.108
X-39.298 Y-73.598 Z-7.272 I0.121 J-0.108
X-39.541 Y-73.382 Z-7.333 I-0.121 J0.108
X-39.298 Y-73.598 Z-7.394 I0.121 J-0.108
X-39.541 Y-73.382 Z-7.456 I-0.121 J0.108
X-39.298 Y-73.598 Z-7.517 I0.121 J-0.108
X-39.541 Y-73.382 Z-7.578 I-0.121 J0.108
X-39.298 Y-73.598 Z-7.639 I0.121 J-0.108
X-39.541 Y-73.382 Z-7.7 I-0.121 J0.108
X-39.298 Y-73.598 Z-7.761 I0.121 J-0.108
X-39.541 Y-73.382 Z-7.822 I-0.121 J0.108
X-39.298 Y-73.598 Z-7.883 I0.121 J-0.108
X-39.541 Y-73.382 Z-7.944 I-0.121 J0.108
X-39.298 Y-73.598 Z-8.006 I0.121 J-0.108
X-39.541 Y-73.382 Z-8.067 I-0.121 J0.108
X-39.298 Y-73.598 Z-8.128 I0.121 J-0.108
X-39.541 Y-73.382 Z-8.189 I-0.121 J0.108
X-39.298 Y-73.598 Z-8.25 I0.121 J-0.108
X-39.463 Y-73.333 Z-8.3 I-0.121 J0.108
X-39.376 Y-73.646 I0.044 J-0.157
X-39.463 Y-73.333 I-0.044 J0.157
G1 X-39.491 Y-73.348
X-39.512 Y-73.372
X-39.522 Y-73.402
X-39.519 Y-73.433
X-39.477 Y-73.586
Z5
X-10.761 Y-45.329
Z1.683
Z0
X-10.636 Y-45.232
X-10.615 Y-45.208
X-10.605 Y-45.178
X-10.607 Y-45.146
X-10.622 Y-45.118
G3 X-10.878 Y-45.317 Z-0.061 I-0.128 J-0.1
X-10.622 Y-45.118 Z-0.122 I0.128 J0.1
X-10.878 Y-45.317 Z-0.183 I-0.128 J-0.1
X-10.622 Y-45.118 Z-0.244 I0.128 J0.1
X-10.878 Y-45.317 Z-0.306 I-0.128 J-0.1
X-10.622 Y-45.118 Z-0.367 I0.128 J0.1
X-10.878 Y-45.317 Z-0.428 I-0.128 J-0.1
X-10.622 Y-45.118 Z-0.489 I0.128 J0.1
X-10.878 Y-45.317 Z-0.55 I-0.128 J-0.1
X-10.622 Y-45.118 Z-0.611 I0.128 J0.1
X-10.878 Y-45.317 Z-0.672 I-0.128 J-0.1
X-10.622 Y-45.118 Z-0.733 I0.128 J0.1
X-10.878 Y-45.317 Z-0.794 I-0.128 J-0.1
X-10.622 Y-45.118 Z-0.856 I0.128 J0.1
X-10.878 Y-45.317 Z-0.917 I-0.128 J-0.1
X-10.622 Y-45.118 Z-0.978 I0.128 J0.1
X-10.878 Y-45.317 Z-1.039 I-0.128 J-0.1
X-10.622 Y-45.118 Z-1.1 I0.128 J0.1
X-10.878 Y-45.317 Z-1.161 I-0.128 J-0.1
X-10.622 Y-45.118 Z-1.222 I0.128 J0.1
X-10.878 Y-45.317 Z-1.283 I-0.128 J-0.1
X-10.622 Y-45.118 Z-1.344 I0.128 J0.1
X-10.878 Y-45.317 Z-1.406 I-0.128 J-0.1
X-10.622 Y-45.118 Z-1.467 I0.128 J0.1
X-10.878 Y-45.317 Z-1.528 I-0.128 J-0.1
X-10.622 Y-45.118 Z-1.589 I0.128 J0.1
X-10.878 Y-45.317 Z-1.65 I-0.128 J-0.1
X-10.622 Y-45.118 Z-1.711 I0.128 J0.1
X-10.878 Y-45.317 Z-1.772 I-0.128 J-0.1
X-10.622 Y-45.118 Z-1.833 I0.128 J0.1
X-10.878 Y-45.317 Z-1.894 I-0.128 J-0.1
X-10.622 Y-45.118 Z-1.956 I0.128 J0.1
X-10.878 Y-45.317 Z-2.017 I-0.128 J-0.1
X-10.622 Y-45.118 Z-2.078 I0.128 J0.1
X-10.878 Y-45.317 Z-2.139 I-0.128 J-0.1
X-10.622 Y-45.118 Z-2.2 I0.128 J0.1
X-10.878 Y-45.317 Z-2.261 I-0.128 J-0.1
X-10.622 Y-45.118 Z-2.322 I0.128 J0.1
X-10.878 Y-45.317 Z-2.383 I-0.128 J-0.1
X-10.622 Y-45.118 Z-2.444 I0.128 J0.1
X-10.878 Y-45.317 Z-2.506 I-0.128 J-0.1
X-10.622 Y-45.118 Z-2.567 I0.128 J0.1
X-10.878 Y-45.317 Z-2.628 I-0.128 J-0.1
X-10.622 Y-45.118 Z-2.689 I0.128 J0.1
X-10.878 Y-45.317 Z-2.75 I-0.128 J-0.1
X-10.622 Y-45.118 Z-2.811 I0.128 J0.1
X-10.878 Y-45.317 Z-2.872 I-0.128 J-0.1
X-10.622 Y-45.118 Z-2.933 I0.128 J0.1
X-10.878 Y-45.317 Z-2.994 I-0.128 J-0.1
X-10.622 Y-45.118 Z-3.056 I0.128 J0.1
X-10.878 Y-45.317 Z-3.117 I-0.128 J-0.1
X-10.622 Y-45.118 Z-3.178 I0.128 J0.1
X-10.878 Y-45.317 Z-3.239 I-0.128 J-0.1
X-10.622 Y-45.118 Z-3.3 I0.128 J0.1
X-10.878 Y-45.317 Z-3.361 I-0.128 J-0.1
X-10.622 Y-45.118 Z-3.422 I0.128 J0.1
X-10.878 Y-45.317 Z-3.483 I-0.128 J-0.1
X-10.622 Y-45.118 Z-3.544 I0.128 J0.1
X-10.878 Y-45.317 Z-3.606 I-0.128 J-0.1
X-10.622 Y-45.118 Z-3.667 I0.128 J0.1
X-10.878 Y-45.317 Z-3.728 I-0.128 J-0.1
X-10.622 Y-45.118 Z-3.789 I0.128 J0.1
X-10.878 Y-45.317 Z-3.85 I-0.128 J-0.1
X-10.622 Y-45.118 Z-3.911 I0.128 J0.1
X-10.878 Y-45.317 Z-3.972 I-0.128 J-0.1
X-10.622 Y-45.118 Z-4.033 I0.128 J0.1
X-10.878 Y-45.317 Z-4.094 I-0.128 J-0.1
X-10.622 Y-45.118 Z-4.156 I0.128 J0.1
X-10.878 Y-45.317 Z-4.217 I-0.128 J-0.1
X-10.622 Y-45.118 Z-4.278 I0.128 J0.1
X-10.878 Y-45.317 Z-4.339 I-0.128 J-0.1
X-10.622 Y-45.118 Z-4.4 I0.128 J0.1
X-10.878 Y-45.317 Z-4.461 I-0.128 J-0.1
X-10.622 Y-45.118 Z-4.522 I0.128 J0.1
X-10.878 Y-45.317 Z-4.583 I-0.128 J-0.1
X-10.622 Y-45.118 Z-4.644 I0.128 J0.1
X-10.878 Y-45.317 Z-4.706 I-0.128 J-0.1
X-10.622 Y-45.118 Z-4.767 I0.128 J0.1
X-10.878 Y-45.317 Z-4.828 I-0.128 J-0.1
X-10.622 Y-45.118 Z-4.889 I0.128 J0.1
X-10.878 Y-45.317 Z-4.95 I-0.128 J-0.1
X-10.622 Y-45.118 Z-5.011 I0.128 J0.1
X-10.878 Y-45.317 Z-5.072 I-0.128 J-0.1
X-10.622 Y-45.118 Z-5.133 I0.128 J0.1
X-10.878 Y-45.317 Z-5.194 I-0.128 J-0.1
X-10.622 Y-45.118 Z-5.256 I0.128 J0.1
X-10.878 Y-45.317 Z-5.317 I-0.128 J-0.1
X-10.622 Y-45.118 Z-5.378 I0.128 J0.1
X-10.878 Y-45.317 Z-5.439 I-0.128 J-0.1
X-10.622 Y-45.118 Z-5.5 I0.128 J0.1
X-10.878 Y-45.317 Z-5.561 I-0.128 J-0.1
X-10.622 Y-45.118 Z-5.622 I0.128 J0.1
X-10.878 Y-45.317 Z-5.683 I-0.128 J-0.1
X-10.622 Y-45.118 Z-5.744 I0.128 J0.1
X-10.878 Y-45.317 Z-5.806 I-0.128 J-0.1
X-10.622 Y-45.118 Z-5.867 I0.128 J0.1
X-10.878 Y-45.317 Z-5.928 I-0.128 J-0.1
X-10.622 Y-45.118 Z-5.989 I0.128 J0.1
X-10.878 Y-45.317 Z-6.05 I-0.128 J-0.1
X-10.622 Y-45.118 Z-6.111 I0.128 J0.1
X-10.878 Y-45.317 Z-6.172 I-0.128 J-0.1
X-10.622 Y-45.118 Z-6.233 I0.128 J0.1
X-10.878 Y-45.317 Z-6.294 I-0.128 J-0.1
X-10.622 Y-45.118 Z-6.356 I0.128 J0.1
X-10.878 Y-45.317 Z-6.417 I-0.128 J-0.1
X-10.622 Y-45.118 Z-6.478 I0.128 J0.1
X-10.878 Y-45.317 Z-6.539 I-0.128 J-0.1
X-10.622 Y-45.118 Z-6.6 I0.128 J0.1
X-10.878 Y-45.317 Z-6.661 I-0.128 J-0.1
X-10.622 Y-45.118 Z-6.722 I0.128 J0.1
X-10.878 Y-45.317 Z-6.783 I-0.128 J-0.1
X-10.622 Y-45.118 Z-6.844 I0.128 J0.1
X-10.878 Y-45.317 Z-6.906 I-0.128 J-0.1
X-10.622 Y-45.118 Z-6.967 I0.128 J0.1
X-10.878 Y-45.317 Z-7.028 I-0.128 J-0.1
X-10.622 Y-45.118 Z-7.089 I0.128 J0.1
X-10.878 Y-45.317 Z-7.15 I-0.128 J-0.1
X-10.622 Y-45.118 Z-7.211 I0.128 J0.1
X-10.878 Y-45.317 Z-7.272 I-0.128 J-0.1
X-10.622 Y-45.118 Z-7.333 I0.128 J0.1
X-10.878 Y-45.317 Z-7.394 I-0.128 J-0.1
X-10.622 Y-45.118 Z-7.456 I0.128 J0.1
X-10.878 Y-45.317 Z-7.517 I-0.128 J-0.1
X-10.622 Y-45.118 Z-7.578 I0.128 J0.1
X-10.878 Y-45.317 Z-7.639 I-0.128 J-0.1
X-10.622 Y-45.118 Z-7.7 I0.128 J0.1
X-10.878 Y-45.317 Z-7.761 I-0.128 J-0.1
X-10.622 Y-45.118 Z-7.822 I0.128 J0.1
X-10.878 Y-45.317 Z-7.883 I-0.128 J-0.1
X-10.622 Y-45.118 Z-7.944 I0.128 J0.1
X-10.878 Y-45.317 Z-8.006 I-0.128 J-0.1
X-10.622 Y-45.118 Z-8.067 I0.128 J0.1
X-10.878 Y-45.317 Z-8.128 I-0.128 J-0.1
X-10.622 Y-45.118 Z-8.189 I0.128 J0.1
X-10.878 Y-45.317 Z-8.25 I-0.128 J-0.1
X-10.588 Y-45.203 Z-8.3 I0.128 J0.1
X-10.912 Y-45.232 I-0.162 J-0.014
X-10.588 Y-45.203 I0.162 J0.014
G1 X-10.597 Y-45.173
X-10.617 Y-45.148
X-10.645 Y-45.133
X-10.676 Y-45.129
X-10.834 Y-45.143
Z5
X-31.777 Y-44.475
Z2
Z0.317
X-31.771 Y-44.47 Z0.247
X-31.752 Y-44.456 Z0.18
X-31.722 Y-44.433 Z0.12
X-31.683 Y-44.402 Z0.069
X-31.635 Y-44.365 Z0.031
X-31.582 Y-44.324 Z0.008
X-31.526 Y-44.28 Z0
X-31.401 Y-44.183
G3 X-31.345 Y-43.737 I-0.195 J0.251
X-35.155 Y-46.698 Z-0.14 I-1.905 J-1.48
X-31.345 Y-43.737 Z-0.279 I1.905 J1.48
X-35.155 Y-46.698 Z-0.419 I-1.905 J-1.48
X-31.345 Y-43.737 Z-0.559 I1.905 J1.48
X-35.155 Y-46.698 Z-0.698 I-1.905 J-1.48
X-31.345 Y-43.737 Z-0.838 I1.905 J1.48
X-35.155 Y-46.698 Z-0.978 I-1.905 J-1.48
X-31.345 Y-43.737 Z-1.117 I1.905 J1.48
X-35.155 Y-46.698 Z-1.257 I-1.905 J-1.48
X-31.345 Y-43.737 Z-1.397 I1.905 J1.48
X-35.155 Y-46.698 Z-1.537 I-1.905 J-1.48
X-31.345 Y-43.737 Z-1.676 I1.905 J1.48
X-35.155 Y-46.698 Z-1.816 I-1.905 J-1.48
X-31.345 Y-43.737 Z-1.956 I1.905 J1.48
X-35.155 Y-46.698 Z-2.095 I-1.905 J-1.48
X-31.345 Y-43.737 Z-2.235 I1.905 J1.48
X-35.155 Y-46.698 Z-2.375 I-1.905 J-1.48
X-31.345 Y-43.737 Z-2.514 I1.905 J1.48
X-35.155 Y-46.698 Z-2.654 I-1.905 J-1.48
X-31.345 Y-43.737 Z-2.794 I1.905 J1.48
X-35.155 Y-46.698 Z-2.933 I-1.905 J-1.48
X-31.345 Y-43.737 Z-3.073 I1.905 J1.48
X-35.155 Y-46.698 Z-3.213 I-1.905 J-1.48
X-31.345 Y-43.737 Z-3.352 I1.905 J1.48
X-35.155 Y-46.698 Z-3.492 I-1.905 J-1.48
X-31.345 Y-43.737 Z-3.632 I1.905 J1.48
X-35.155 Y-46.698 Z-3.771 I-1.905 J-1.48
X-31.345 Y-43.737 Z-3.911 I1.905 J1.48
X-35.155 Y-46.698 Z-4.051 I-1.905 J-1.48
X-31.345 Y-43.737 Z-4.19 I1.905 J1.48
X-35.155 Y-46.698 Z-4.33 I-1.905 J-1.48
X-31.345 Y-43.737 Z-4.47 I1.905 J1.48
X-35.155 Y-46.698 Z-4.61 I-1.905 J-1.48
X-31.345 Y-43.737 Z-4.749 I1.905 J1.48
X-35.155 Y-46.698 Z-4.889 I-1.905 J-1.48
X-31.345 Y-43.737 Z-5.029 I1.905 J1.48
X-35.155 Y-46.698 Z-5.168 I-1.905 J-1.48
X-31.345 Y-43.737 Z-5.308 I1.905 J1.48
X-35.155 Y-46.698 Z-5.448 I-1.905 J-1.48
X-31.345 Y-43.737 Z-5.587 I1.905 J1.48
X-35.155 Y-46.698 Z-5.727 I-1.905 J-1.48
X-31.345 Y-43.737 Z-5.867 I1.905 J1.48
X-35.155 Y-46.698 Z-6.006 I-1.905 J-1.48
X-31.345 Y-43.737 Z-6.146 I1.905 J1.48
X-35.155 Y-46.698 Z-6.286 I-1.905 J-1.48
X-31.345 Y-43.737 Z-6.425 I1.905 J1.48
X-35.155 Y-46.698 Z-6.565 I-1.905 J-1.48
X-31.345 Y-43.737 Z-6.705 I1.905 J1.48
X-35.155 Y-46.698 Z-6.844 I-1.905 J-1.48
X-31.345 Y-43.737 Z-6.984 I1.905 J1.48
X-35.155 Y-46.698 Z-7.124 I-1.905 J-1.48
X-31.345 Y-43.737 Z-7.264 I1.905 J1.48
X-35.155 Y-46.698 Z-7.403 I-1.905 J-1.48
X-31.345 Y-43.737 Z-7.543 I1.905 J1.48
X-35.155 Y-46.698 Z-7.683 I-1.905 J-1.48
X-31.345 Y-43.737 Z-7.822 I1.905 J1.48
X-35.155 Y-46.698 Z-7.962 I-1.905 J-1.48
X-31.345 Y-43.737 Z-8.102 I1.905 J1.48
X-35.155 Y-46.698 Z-8.241 I-1.905 J-1.48
X-32.289 Y-47.43 Z-8.3 I1.905 J1.48
X-34.211 Y-43.005 I-0.961 J2.213
X-32.289 Y-47.43 I0.961 J-2.213
X-32.124 Y-47.012 I-0.127 J0.291
G1 X-32.187 Y-46.867
X-32.215 Y-46.802 Z-8.292
X-32.242 Y-46.741 Z-8.269
X-32.266 Y-46.685 Z-8.231
X-32.286 Y-46.639 Z-8.18
X-32.301 Y-46.604 Z-8.12
X-32.311 Y-46.583 Z-8.053
X-32.314 Y-46.576 Z-7.983
Z5
X-55.761 Y-45.329
Z1.683
Z0
X-55.636 Y-45.232
X-55.615 Y-45.208
X-55.605 Y-45.178
X-55.607 Y-45.146
X-55.622 Y-45.118
G3 X-55.878 Y-45.317 Z-0.061 I-0.128 J-0.1
X-55.622 Y-45.118 Z-0.122 I0.128 J0.1
X-55.878 Y-45.317 Z-0.183 I-0.128 J-0.1
X-55.622 Y-45.118 Z-0.244 I0.128 J0.1
X-55.878 Y-45.317 Z-0.306 I-0.128 J-0.1
X-55.622 Y-45.118 Z-0.367 I0.128 J0.1
X-55.878 Y-45.317 Z-0.428 I-0.128 J-0.1
X-55.622 Y-45.118 Z-0.489 I0.128 J0.1
X-55.878 Y-45.317 Z-0.55 I-0.128 J-0.1
X-55.622 Y-45.118 Z-0.611 I0.128 J0.1
X-55.878 Y-45.317 Z-0.672 I-0.128 J-0.1
X-55.622 Y-45.118 Z-0.733 I0.128 J0.1
X-55.878 Y-45.317 Z-0.794 I-0.128 J-0.1
X-55.622 Y-45.118 Z-0.856 I0.128 J0.1
X-55.878 Y-45.317 Z-0.917 I-0.128 J-0.1
X-55.622 Y-45.118 Z-0.978 I0.128 J0.1
X-55.878 Y-45.317 Z-1.039 I-0.128 J-0.1
X-55.622 Y-45.118 Z-1.1 I0.128 J0.1
X-55.878 Y-45.317 Z-1.161 I-0.128 J-0.1
X-55.622 Y-45.118 Z-1.222 I0.128 J0.1
X-55.878 Y-45.317 Z-1.283 I-0.128 J-0.1
X-55.622 Y-45.118 Z-1.344 I0.128 J0.1
X-55.878 Y-45.317 Z-1.406 I-0.128 J-0.1
X-55.622 Y-45.118 Z-1.467 I0.128 J0.1
X-55.878 Y-45.317 Z-1.528 I-0.128 J-0.1
X-55.622 Y-45.118 Z-1.589 I0.128 J0.1
X-55.878 Y-45.317 Z-1.65 I-0.128 J-0.1
X-55.622 Y-45.118 Z-1.711 I0.128 J0.1
X-55.878 Y-45.317 Z-1.772 I-0.128 J-0.1
X-55.622 Y-45.118 Z-1.833 I0.128 J0.1
X-55.878 Y-45.317 Z-1.894 I-0.128 J-0.1
X-55.622 Y-45.118 Z-1.956 I0.128 J0.1
X-55.878 Y-45.317 Z-2.017 I-0.128 J-0.1
X-55.622 Y-45.118 Z-2.078 I0.128 J0.1
X-55.878 Y-45.317 Z-2.139 I-0.128 J-0.1
X-55.622 Y-45.118 Z-2.2 I0.128 J0.1
X-55.878 Y-45.317 Z-2.261 I-0.128 J-0.1
X-55.622 Y-45.118 Z-2.322 I0.128 J0.1
X-55.878 Y-45.317 Z-2.383 I-0.128 J-0.1
X-55.622 Y-45.118 Z-2.444 I0.128 J0.1
X-55.878 Y-45.317 Z-2.506 I-0.128 J-0.1
X-55.622 Y-45.118 Z-2.567 I0.128 J0.1
X-55.878 Y-45.317 Z-2.628 I-0.128 J-0.1
X-55.622 Y-45.118 Z-2.689 I0.128 J0.1
X-55.878 Y-45.317 Z-2.75 I-0.128 J-0.1
X-55.622 Y-45.118 Z-2.811 I0.128 J0.1
X-55.878 Y-45.317 Z-2.872 I-0.128 J-0.1
X-55.622 Y-45.118 Z-2.933 I0.128 J0.1
X-55.878 Y-45.317 Z-2.994 I-0.128 J-0.1
X-55.622 Y-45.118 Z-3.056 I0.128 J0.1
X-55.878 Y-45.317 Z-3.117 I-0.128 J-0.1
X-55.622 Y-45.118 Z-3.178 I0.128 J0.1
X-55.878 Y-45.317 Z-3.239 I-0.128 J-0.1
X-55.622 Y-45.118 Z-3.3 I0.128 J0.1
X-55.878 Y-45.317 Z-3.361 I-0.128 J-0.1
X-55.622 Y-45.118 Z-3.422 I0.128 J0.1
X-55.878 Y-45.317 Z-3.483 I-0.128 J-0.1
X-55.622 Y-45.118 Z-3.544 I0.128 J0.1
X-55.878 Y-45.317 Z-3.606 I-0.128 J-0.1
X-55.622 Y-45.118 Z-3.667 I0.128 J0.1
X-55.878 Y-45.317 Z-3.728 I-0.128 J-0.1
X-55.622 Y-45.118 Z-3.789 I0.128 J0.1
X-55.878 Y-45.317 Z-3.85 I-0.128 J-0.1
X-55.622 Y-45.118 Z-3.911 I0.128 J0.1
X-55.878 Y-45.317 Z-3.972 I-0.128 J-0.1
X-55.622 Y-45.118 Z-4.033 I0.128 J0.1
X-55.878 Y-45.317 Z-4.094 I-0.128 J-0.1
X-55.622 Y-45.118 Z-4.156 I0.128 J0.1
X-55.878 Y-45.317 Z-4.217 I-0.128 J-0.1
X-55.622 Y-45.118 Z-4.278 I0.128 J0.1
X-55.878 Y-45.317 Z-4.339 I-0.128 J-0.1
X-55.622 Y-45.118 Z-4.4 I0.128 J0.1
X-55.878 Y-45.317 Z-4.461 I-0.128 J-0.1
X-55.622 Y-45.118 Z-4.522 I0.128 J0.1
X-55.878 Y-45.317 Z-4.583 I-0.128 J-0.1
X-55.622 Y-45.118 Z-4.644 I0.128 J0.1
X-55.878 Y-45.317 Z-4.706 I-0.128 J-0.1
X-55.622 Y-45.118 Z-4.767 I0.128 J0.1
X-55.878 Y-45.317 Z-4.828 I-0.128 J-0.1
X-55.622 Y-45.118 Z-4.889 I0.128 J0.1
X-55.878 Y-45.317 Z-4.95 I-0.128 J-0.1
X-55.622 Y-45.118 Z-5.011 I0.128 J0.1
X-55.878 Y-45.317 Z-5.072 I-0.128 J-0.1
X-55.622 Y-45.118 Z-5.133 I0.128 J0.1
X-55.878 Y-45.317 Z-5.194 I-0.128 J-0.1
X-55.622 Y-45.118 Z-5.256 I0.128 J0.1
X-55.878 Y-45.317 Z-5.317 I-0.128 J-0.1
X-55.622 Y-45.118 Z-5.378 I0.128 J0.1
X-55.878 Y-45.317 Z-5.439 I-0.128 J-0.1
X-55.622 Y-45.118 Z-5.5 I0.128 J0.1
X-55.878 Y-45.317 Z-5.561 I-0.128 J-0.1
X-55.622 Y-45.118 Z-5.622 I0.128 J0.1
X-55.878 Y-45.317 Z-5.683 I-0.128 J-0.1
X-55.622 Y-45.118 Z-5.744 I0.128 J0.1
X-55.878 Y-45.317 Z-5.806 I-0.128 J-0.1
X-55.622 Y-45.118 Z-5.867 I0.128 J0.1
X-55.878 Y-45.317 Z-5.928 I-0.128 J-0.1
X-55.622 Y-45.118 Z-5.989 I0.128 J0.1
X-55.878 Y-45.317 Z-6.05 I-0.128 J-0.1
X-55.622 Y-45.118 Z-6.111 I0.128 J0.1
X-55.878 Y-45.317 Z-6.172 I-0.128 J-0.1
X-55.622 Y-45.118 Z-6.233 I0.128 J0.1
X-55.878 Y-45.317 Z-6.294 I-0.128 J-0.1
X-55.622 Y-45.118 Z-6.356 I0.128 J0.1
X-55.878 Y-45.317 Z-6.417 I-0.128 J-0.1
X-55.622 Y-45.118 Z-6.478 I0.128 J0.1
X-55.878 Y-45.317 Z-6.539 I-0.128 J-0.1
X-55.622 Y-45.118 Z-6.6 I0.128 J0.1
X-55.878 Y-45.317 Z-6.661 I-0.128 J-0.1
X-55.622 Y-45.118 Z-6.722 I0.128 J0.1
X-55.878 Y-45.317 Z-6.783 I-0.128 J-0.1
X-55.622 Y-45.118 Z-6.844 I0.128 J0.1
X-55.878 Y-45.317 Z-6.906 I-0.128 J-0.1
X-55.622 Y-45.118 Z-6.967 I0.128 J0.1
X-55.878 Y-45.317 Z-7.028 I-0.128 J-0.1
X-55.622 Y-45.118 Z-7.089 I0.128 J0.1
X-55.878 Y-45.317 Z-7.15 I-0.128 J-0.1
X-55.622 Y-45.118 Z-7.211 I0.128 J0.1
X-55.878 Y-45.317 Z-7.272 I-0.128 J-0.1
X-55.622 Y-45.118 Z-7.333 I0.128 J0.1
X-55.878 Y-45.317 Z-7.394 I-0.128 J-0.1
X-55.622 Y-45.118 Z-7.456 I0.128 J0.1
X-55.878 Y-45.317 Z-7.517 I-0.128 J-0.1
X-55.622 Y-45.118 Z-7.578 I0.128 J0.1
X-55.878 Y-45.317 Z-7.639 I-0.128 J-0.1
X-55.622 Y-45.118 Z-7.7 I0.128 J0.1
X-55.878 Y-45.317 Z-7.761 I-0.128 J-0.1
X-55.622 Y-45.118 Z-7.822 I0.128 J0.1
X-55.878 Y-45.317 Z-7.883 I-0.128 J-0.1
X-55.622 Y-45.118 Z-7.944 I0.128 J0.1
X-55.878 Y-45.317 Z-8.006 I-0.128 J-0.1
X-55.622 Y-45.118 Z-8.067 I0.128 J0.1
X-55.878 Y-45.317 Z-8.128 I-0.128 J-0.1
X-55.622 Y-45.118 Z-8.189 I0.128 J0.1
X-55.878 Y-45.317 Z-8.25 I-0.128 J-0.1
X-55.588 Y-45.203 Z-8.3 I0.128 J0.1
X-55.912 Y-45.232 I-0.162 J-0.014
X-55.588 Y-45.203 I0.162 J0.014
G1 X-55.597 Y-45.173
X-55.617 Y-45.148
X-55.645 Y-45.133
X-55.676 Y-45.129
X-55.834 Y-45.143
Z5
X-65.783 Y-18.208
Z1.683
Z0
X-65.901 Y-18.103
X-65.929 Y-18.087
X-65.96 Y-18.082
X-65.991 Y-18.09
X-66.016 Y-18.11
G3 X-65.773 Y-18.325 Z-0.061 I0.121 J-0.108
X-66.016 Y-18.11 Z-0.122 I-0.121 J0.108
X-65.773 Y-18.325 Z-0.183 I0.121 J-0.108
X-66.016 Y-18.11 Z-0.244 I-0.121 J0.108
X-65.773 Y-18.325 Z-0.306 I0.121 J-0.108
X-66.016 Y-18.11 Z-0.367 I-0.121 J0.108
X-65.773 Y-18.325 Z-0.428 I0.121 J-0.108
X-66.016 Y-18.11 Z-0.489 I-0.121 J0.108
X-65.773 Y-18.325 Z-0.55 I0.121 J-0.108
X-66.016 Y-18.11 Z-0.611 I-0.121 J0.108
X-65.773 Y-18.325 Z-0.672 I0.121 J-0.108
X-66.016 Y-18.11 Z-0.733 I-0.121 J0.108
X-65.773 Y-18.325 Z-0.794 I0.121 J-0.108
X-66.016 Y-18.11 Z-0.856 I-0.121 J0.108
X-65.773 Y-18.325 Z-0.917 I0.121 J-0.108
X-66.016 Y-18.11 Z-0.978 I-0.121 J0.108
X-65.773 Y-18.325 Z-1.039 I0.121 J-0.108
X-66.016 Y-18.11 Z-1.1 I-0.121 J0.108
X-65.773 Y-18.325 Z-1.161 I0.121 J-0.108
X-66.016 Y-18.11 Z-1.222 I-0.121 J0.108
X-65.773 Y-18.325 Z-1.283 I0.121 J-0.108
X-66.016 Y-18.11 Z-1.344 I-0.121 J0.108
X-65.773 Y-18.325 Z-1.406 I0.121 J-0.108
X-66.016 Y-18.11 Z-1.467 I-0.121 J0.108
X-65.773 Y-18.325 Z-1.528 I0.121 J-0.108
X-66.016 Y-18.11 Z-1.589 I-0.121 J0.108
X-65.773 Y-18.325 Z-1.65 I0.121 J-0.108
X-66.016 Y-18.11 Z-1.711 I-0.121 J0.108
X-65.773 Y-18.325 Z-1.772 I0.121 J-0.108
X-66.016 Y-18.11 Z-1.833 I-0.121 J0.108
X-65.773 Y-18.325 Z-1.894 I0.121 J-0.108
X-66.016 Y-18.11 Z-1.956 I-0.121 J0.108
X-65.773 Y-18.325 Z-2.017 I0.121 J-0.108
X-66.016 Y-18.11 Z-2.078 I-0.121 J0.108
X-65.773 Y-18.325 Z-2.139 I0.121 J-0.108
X-66.016 Y-18.11 Z-2.2 I-0.121 J0.108
X-65.773 Y-18.325 Z-2.261 I0.121 J-0.108
X-66.016 Y-18.11 Z-2.322 I-0.121 J0.108
X-65.773 Y-18.325 Z-2.383 I0.121 J-0.108
X-66.016 Y-18.11 Z-2.444 I-0.121 J0.108
X-65.773 Y-18.325 Z-2.506 I0.121 J-0.108
X-66.016 Y-18.11 Z-2.567 I-0.121 J0.108
X-65.773 Y-18.325 Z-2.628 I0.121 J-0.108
X-66.016 Y-18.11 Z-2.689 I-0.121 J0.108
X-65.773 Y-18.325 Z-2.75 I0.121 J-0.108
X-66.016 Y-18.11 Z-2.811 I-0.121 J0.108
X-65.773 Y-18.325 Z-2.872 I0.121 J-0.108
X-66.016 Y-18.11 Z-2.933 I-0.121 J0.108
X-65.773 Y-18.325 Z-2.994 I0.121 J-0.108
X-66.016 Y-18.11 Z-3.056 I-0.121 J0.108
X-65.773 Y-18.325 Z-3.117 I0.121 J-0.108
X-66.016 Y-18.11 Z-3.178 I-0.121 J0.108
X-65.773 Y-18.325 Z-3.239 I0.121 J-0.108
X-66.016 Y-18.11 Z-3.3 I-0.121 J0.108
X-65.773 Y-18.325 Z-3.361 I0.121 J-0.108
X-66.016 Y-18.11 Z-3.422 I-0.121 J0.108
X-65.773 Y-18.325 Z-3.483 I0.121 J-0.108
X-66.016 Y-18.11 Z-3.544 I-0.121 J0.108
X-65.773 Y-18.325 Z-3.606 I0.121 J-0.108
X-66.016 Y-18.11 Z-3.667 I-0.121 J0.108
X-65.773 Y-18.325 Z-3.728 I0.121 J-0.108
X-66.016 Y-18.11 Z-3.789 I-0.121 J0.108
X-65.773 Y-18.325 Z-3.85 I0.121 J-0.108
X-66.016 Y-18.11 Z-3.911 I-0.121 J0.108
X-65.773 Y-18.325 Z-3.972 I0.121 J-0.108
X-66.016 Y-18.11 Z-4.033 I-0.121 J0.108
X-65.773 Y-18.325 Z-4.094 I0.121 J-0.108
X-66.016 Y-18.11 Z-4.156 I-0.121 J0.108
X-65.773 Y-18.325 Z-4.217 I0.121 J-0.108
X-66.016 Y-18.11 Z-4.278 I-0.121 J0.108
X-65.773 Y-18.325 Z-4.339 I0.121 J-0.108
X-66.016 Y-18.11 Z-4.4 I-0.121 J0.108
X-65.773 Y-18.325 Z-4.461 I0.121 J-0.108
X-66.016 Y-18.11 Z-4.522 I-0.121 J0.108
X-65.773 Y-18.325 Z-4.583 I0.121 J-0.108
X-66.016 Y-18.11 Z-4.644 I-0.121 J0.108
X-65.773 Y-18.325 Z-4.706 I0.121 J-0.108
X-66.016 Y-18.11 Z-4.767 I-0.121 J0.108
X-65.773 Y-18.325 Z-4.828 I0.121 J-0.108
X-66.016 Y-18.11 Z-4.889 I-0.121 J0.108
X-65.773 Y-18.325 Z-4.95 I0.121 J-0.108
X-66.016 Y-18.11 Z-5.011 I-0.121 J0.108
X-65.773 Y-18.325 Z-5.072 I0.121 J-0.108
X-66.016 Y-18.11 Z-5.133 I-0.121 J0.108
X-65.773 Y-18.325 Z-5.194 I0.121 J-0.108
X-66.016 Y-18.11 Z-5.256 I-0.121 J0.108
X-65.773 Y-18.325 Z-5.317 I0.121 J-0.108
X-66.016 Y-18.11 Z-5.378 I-0.121 J0.108
X-65.773 Y-18.325 Z-5.439 I0.121 J-0.108
X-66.016 Y-18.11 Z-5.5 I-0.121 J0.108
X-65.773 Y-18.325 Z-5.561 I0.121 J-0.108
X-66.016 Y-18.11 Z-5.622 I-0.121 J0.108
X-65.773 Y-18.325 Z-5.683 I0.121 J-0.108
X-66.016 Y-18.11 Z-5.744 I-0.121 J0.108
X-65.773 Y-18.325 Z-5.806 I0.121 J-0.108
X-66.016 Y-18.11 Z-5.867 I-0.121 J0.108
X-65.773 Y-18.325 Z-5.928 I0.121 J-0.108
X-66.016 Y-18.11 Z-5.989 I-0.121 J0.108
X-65.773 Y-18.325 Z-6.05 I0.121 J-0.108
X-66.016 Y-18.11 Z-6.111 I-0.121 J0.108
X-65.773 Y-18.325 Z-6.172 I0.121 J-0.108
X-66.016 Y-18.11 Z-6.233 I-0.121 J0.108
X-65.773 Y-18.325 Z-6.294 I0.121 J-0.108
X-66.016 Y-18.11 Z-6.356 I-0.121 J0.108
X-65.773 Y-18.325 Z-6.417 I0.121 J-0.108
X-66.016 Y-18.11 Z-6.478 I-0.121 J0.108
X-65.773 Y-18.325 Z-6.539 I0.121 J-0.108
X-66.016 Y-18.11 Z-6.6 I-0.121 J0.108
X-65.773 Y-18.325 Z-6.661 I0.121 J-0.108
X-66.016 Y-18.11 Z-6.722 I-0.121 J0.108
X-65.773 Y-18.325 Z-6.783 I0.121 J-0.108
X-66.016 Y-18.11 Z-6.844 I-0.121 J0.108
X-65.773 Y-18.325 Z-6.906 I0.121 J-0.108
X-66.016 Y-18.11 Z-6.967 I-0.121 J0.108
X-65.773 Y-18.325 Z-7.028 I0.121 J-0.108
X-66.016 Y-18.11 Z-7.089 I-0.121 J0.108
X-65.773 Y-18.325 Z-7.15 I0.121 J-0.108
X-66.016 Y-18.11 Z-7.211 I-0.121 J0.108
X-65.773 Y-18.325 Z-7.272 I0.121 J-0.108
X-66.016 Y-18.11 Z-7.333 I-0.121 J0.108
X-65.773 Y-18.325 Z-7.394 I0.121 J-0.108
X-66.016 Y-18.11 Z-7.456 I-0.121 J0.108
X-65.773 Y-18.325 Z-7.517 I0.121 J-0.108
X-66.016 Y-18.11 Z-7.578 I-0.121 J0.108
X-65.773 Y-18.325 Z-7.639 I0.121 J-0.108
X-66.016 Y-18.11 Z-7.7 I-0.121 J0.108
X-65.773 Y-18.325 Z-7.761 I0.121 J-0.108
X-66.016 Y-18.11 Z-7.822 I-0.121 J0.108
X-65.773 Y-18.325 Z-7.883 I0.121 J-0.108
X-66.016 Y-18.11 Z-7.944 I-0.121 J0.108
X-65.773 Y-18.325 Z-8.006 I0.121 J-0.108
X-66.016 Y-18.11 Z-8.067 I-0.121 J0.108
X-65.773 Y-18.325 Z-8.128 I0.121 J-0.108
X-66.016 Y-18.11 Z-8.189 I-0.121 J0.108
X-65.773 Y-18.325 Z-8.25 I0.121 J-0.108
X-65.938 Y-18.061 Z-8.3 I-0.121 J0.108
X-65.851 Y-18.374 I0.044 J-0.157
X-65.938 Y-18.061 I-0.044 J0.157
G1 X-65.966 Y-18.075
X-65.987 Y-18.099
X-65.997 Y-18.129
X-65.995 Y-18.161
X-65.952 Y-18.314
Z5
X-38.488 Y-19.481
Z1.683
Z0
X-38.607 Y-19.375
X-38.635 Y-19.359
X-38.666 Y-19.355
X-38.697 Y-19.363
X-38.722 Y-19.382
G3 X-38.479 Y-19.598 Z-0.061 I0.121 J-0.108
X-38.722 Y-19.382 Z-0.122 I-0.121 J0.108
X-38.479 Y-19.598 Z-0.183 I0.121 J-0.108
X-38.722 Y-19.382 Z-0.244 I-0.121 J0.108
X-38.479 Y-19.598 Z-0.306 I0.121 J-0.108
X-38.722 Y-19.382 Z-0.367 I-0.121 J0.108
X-38.479 Y-19.598 Z-0.428 I0.121 J-0.108
X-38.722 Y-19.382 Z-0.489 I-0.121 J0.108
X-38.479 Y-19.598 Z-0.55 I0.121 J-0.108
X-38.722 Y-19.382 Z-0.611 I-0.121 J0.108
X-38.479 Y-19.598 Z-0.672 I0.121 J-0.108
X-38.722 Y-19.382 Z-0.733 I-0.121 J0.108
X-38.479 Y-19.598 Z-0.794 I0.121 J-0.108
X-38.722 Y-19.382 Z-0.856 I-0.121 J0.108
X-38.479 Y-19.598 Z-0.917 I0.121 J-0.108
X-38.722 Y-19.382 Z-0.978 I-0.121 J0.108
X-38.479 Y-19.598 Z-1.039 I0.121 J-0.108
X-38.722 Y-19.382 Z-1.1 I-0.121 J0.108
X-38.479 Y-19.598 Z-1.161 I0.121 J-0.108
X-38.722 Y-19.382 Z-1.222 I-0.121 J0.108
X-38.479 Y-19.598 Z-1.283 I0.121 J-0.108
X-38.722 Y-19.382 Z-1.344 I-0.121 J0.108
X-38.479 Y-19.598 Z-1.406 I0.121 J-0.108
X-38.722 Y-19.382 Z-1.467 I-0.121 J0.108
X-38.479 Y-19.598 Z-1.528 I0.121 J-0.108
X-38.722 Y-19.382 Z-1.589 I-0.121 J0.108
X-38.479 Y-19.598 Z-1.65 I0.121 J-0.108
X-38.722 Y-19.382 Z-1.711 I-0.121 J0.108
X-38.479 Y-19.598 Z-1.772 I0.121 J-0.108
X-38.722 Y-19.382 Z-1.833 I-0.121 J0.108
X-38.479 Y-19.598 Z-1.894 I0.121 J-0.108
X-38.722 Y-19.382 Z-1.956 I-0.121 J0.108
X-38.479 Y-19.598 Z-2.017 I0.121 J-0.108
X-38.722 Y-19.382 Z-2.078 I-0.121 J0.108
X-38.479 Y-19.598 Z-2.139 I0.121 J-0.108
X-38.722 Y-19.382 Z-2.2 I-0.121 J0.108
X-38.479 Y-19.598 Z-2.261 I0.121 J-0.108
X-38.722 Y-19.382 Z-2.322 I-0.121 J0.108
X-38.479 Y-19.598 Z-2.383 I0.121 J-0.108
X-38.722 Y-19.382 Z-2.444 I-0.121 J0.108
X-38.479 Y-19.598 Z-2.506 I0.121 J-0.108
X-38.722 Y-19.382 Z-2.567 I-0.121 J0.108
X-38.479 Y-19.598 Z-2.628 I0.121 J-0.108
X-38.722 Y-19.382 Z-2.689 I-0.121 J0.108
X-38.479 Y-19.598 Z-2.75 I0.121 J-0.108
X-38.722 Y-19.382 Z-2.811 I-0.121 J0.108
X-38.479 Y-19.598 Z-2.872 I0.121 J-0.108
X-38.722 Y-19.382 Z-2.933 I-0.121 J0.108
X-38.479 Y-19.598 Z-2.994 I0.121 J-0.108
X-38.722 Y-19.382 Z-3.056 I-0.121 J0.108
X-38.479 Y-19.598 Z-3.117 I0.121 J-0.108
X-38.722 Y-19.382 Z-3.178 I-0.121 J0.108
X-38.479 Y-19.598 Z-3.239 I0.121 J-0.108
X-38.722 Y-19.382 Z-3.3 I-0.121 J0.108
X-38.479 Y-19.598 Z-3.361 I0.121 J-0.108
X-38.722 Y-19.382 Z-3.422 I-0.121 J0.108
X-38.479 Y-19.598 Z-3.483 I0.121 J-0.108
X-38.722 Y-19.382 Z-3.544 I-0.121 J0.108
X-38.479 Y-19.598 Z-3.606 I0.121 J-0.108
X-38.722 Y-19.382 Z-3.667 I-0.121 J0.108
X-38.479 Y-19.598 Z-3.728 I0.121 J-0.108
X-38.722 Y-19.382 Z-3.789 I-0.121 J0.108
X-38.479 Y-19.598 Z-3.85 I0.121 J-0.108
X-38.722 Y-19.382 Z-3.911 I-0.121 J0.108
X-38.479 Y-19.598 Z-3.972 I0.121 J-0.108
X-38.722 Y-19.382 Z-4.033 I-0.121 J0.108
X-38.479 Y-19.598 Z-4.094 I0.121 J-0.108
X-38.722 Y-19.382 Z-4.156 I-0.121 J0.108
X-38.479 Y-19.598 Z-4.217 I0.121 J-0.108
X-38.722 Y-19.382 Z-4.278 I-0.121 J0.108
X-38.479 Y-19.598 Z-4.339 I0.121 J-0.108
X-38.722 Y-19.382 Z-4.4 I-0.121 J0.108
X-38.479 Y-19.598 Z-4.461 I0.121 J-0.108
X-38.722 Y-19.382 Z-4.522 I-0.121 J0.108
X-38.479 Y-19.598 Z-4.583 I0.121 J-0.108
X-38.722 Y-19.382 Z-4.644 I-0.121 J0.108
X-38.479 Y-19.598 Z-4.706 I0.121 J-0.108
X-38.722 Y-19.382 Z-4.767 I-0.121 J0.108
X-38.479 Y-19.598 Z-4.828 I0.121 J-0.108
X-38.722 Y-19.382 Z-4.889 I-0.121 J0.108
X-38.479 Y-19.598 Z-4.95 I0.121 J-0.108
X-38.722 Y-19.382 Z-5.011 I-0.121 J0.108
X-38.479 Y-19.598 Z-5.072 I0.121 J-0.108
X-38.722 Y-19.382 Z-5.133 I-0.121 J0.108
X-38.479 Y-19.598 Z-5.194 I0.121 J-0.108
X-38.722 Y-19.382 Z-5.256 I-0.121 J0.108
X-38.479 Y-19.598 Z-5.317 I0.121 J-0.108
X-38.722 Y-19.382 Z-5.378 I-0.121 J0.108
X-38.479 Y-19.598 Z-5.439 I0.121 J-0.108
X-38.722 Y-19.382 Z-5.5 I-0.121 J0.108
X-38.479 Y-19.598 Z-5.561 I0.121 J-0.108
X-38.722 Y-19.382 Z-5.622 I-0.121 J0.108
X-38.479 Y-19.598 Z-5.683 I0.121 J-0.108
X-38.722 Y-19.382 Z-5.744 I-0.121 J0.108
X-38.479 Y-19.598 Z-5.806 I0.121 J-0.108
X-38.722 Y-19.382 Z-5.867 I-0.121 J0.108
X-38.479 Y-19.598 Z-5.928 I0.121 J-0.108
X-38.722 Y-19.382 Z-5.989 I-0.121 J0.108
X-38.479 Y-19.598 Z-6.05 I0.121 J-0.108
X-38.722 Y-19.382 Z-6.111 I-0.121 J0.108
X-38.479 Y-19.598 Z-6.172 I0.121 J-0.108
X-38.722 Y-19.382 Z-6.233 I-0.121 J0.108
X-38.479 Y-19.598 Z-6.294 I0.121 J-0.108
X-38.722 Y-19.382 Z-6.356 I-0.121 J0.108
X-38.479 Y-19.598 Z-6.417 I0.121 J-0.108
X-38.722 Y-19.382 Z-6.478 I-0.121 J0.108
X-38.479 Y-19.598 Z-6.539 I0.121 J-0.108
X-38.722 Y-19.382 Z-6.6 I-0.121 J0.108
X-38.479 Y-19.598 Z-6.661 I0.121 J-0.108
X-38.722 Y-19.382 Z-6.722 I-0.121 J0.108
X-38.479 Y-19.598 Z-6.783 I0.121 J-0.108
X-38.722 Y-19.382 Z-6.844 I-0.121 J0.108
X-38.479 Y-19.598 Z-6.906 I0.121 J-0.108
X-38.722 Y-19.382 Z-6.967 I-0.121 J0.108
X-38.479 Y-19.598 Z-7.028 I0.121 J-0.108
X-38.722 Y-19.382 Z-7.089 I-0.121 J0.108
X-38.479 Y-19.598 Z-7.15 I0.121 J-0.108
X-38.722 Y-19.382 Z-7.211 I-0.121 J0.108
X-38.479 Y-19.598 Z-7.272 I0.121 J-0.108
X-38.722 Y-19.382 Z-7.333 I-0.121 J0.108
X-38.479 Y-19.598 Z-7.394 I0.121 J-0.108
X-38.722 Y-19.382 Z-7.456 I-0.121 J0.108
X-38.479 Y-19.598 Z-7.517 I0.121 J-0.108
X-38.722 Y-19.382 Z-7.578 I-0.121 J0.108
X-38.479 Y-19.598 Z-7.639 I0.121 J-0.108
X-38.722 Y-19.382 Z-7.7 I-0.121 J0.108
X-38.479 Y-19.598 Z-7.761 I0.121 J-0.108
X-38.722 Y-19.382 Z-7.822 I-0.121 J0.108
X-38.479 Y-19.598 Z-7.883 I0.121 J-0.108
X-38.722 Y-19.382 Z-7.944 I-0.121 J0.108
X-38.479 Y-19.598 Z-8.006 I0.121 J-0.108
X-38.722 Y-19.382 Z-8.067 I-0.121 J0.108
X-38.479 Y-19.598 Z-8.128 I0.121 J-0.108
X-38.722 Y-19.382 Z-8.189 I-0.121 J0.108
X-38.479 Y-19.598 Z-8.25 I0.121 J-0.108
X-38.644 Y-19.333 Z-8.3 I-0.121 J0.108
X-38.557 Y-19.646 I0.044 J-0.157
X-38.644 Y-19.333 I-0.044 J0.157
G1 X-38.672 Y-19.348
X-38.693 Y-19.372
X-38.703 Y-19.402
X-38.7 Y-19.433
X-38.658 Y-19.586
Z5
X-249.199 Y-18.208
Z1.683
Z0
X-249.318 Y-18.103
X-249.345 Y-18.087
X-249.376 Y-18.082
X-249.407 Y-18.09
X-249.432 Y-18.11
G3 X-249.189 Y-18.325 Z-0.061 I0.121 J-0.108
X-249.432 Y-18.11 Z-0.122 I-0.121 J0.108
X-249.189 Y-18.325 Z-0.183 I0.121 J-0.108
X-249.432 Y-18.11 Z-0.244 I-0.121 J0.108
X-249.189 Y-18.325 Z-0.306 I0.121 J-0.108
X-249.432 Y-18.11 Z-0.367 I-0.121 J0.108
X-249.189 Y-18.325 Z-0.428 I0.121 J-0.108
X-249.432 Y-18.11 Z-0.489 I-0.121 J0.108
X-249.189 Y-18.325 Z-0.55 I0.121 J-0.108
X-249.432 Y-18.11 Z-0.611 I-0.121 J0.108
X-249.189 Y-18.325 Z-0.672 I0.121 J-0.108
X-249.432 Y-18.11 Z-0.733 I-0.121 J0.108
X-249.189 Y-18.325 Z-0.794 I0.121 J-0.108
X-249.432 Y-18.11 Z-0.856 I-0.121 J0.108
X-249.189 Y-18.325 Z-0.917 I0.121 J-0.108
X-249.432 Y-18.11 Z-0.978 I-0.121 J0.108
X-249.189 Y-18.325 Z-1.039 I0.121 J-0.108
X-249.432 Y-18.11 Z-1.1 I-0.121 J0.108
X-249.189 Y-18.325 Z-1.161 I0.121 J-0.108
X-249.432 Y-18.11 Z-1.222 I-0.121 J0.108
X-249.189 Y-18.325 Z-1.283 I0.121 J-0.108
X-249.432 Y-18.11 Z-1.344 I-0.121 J0.108
X-249.189 Y-18.325 Z-1.406 I0.121 J-0.108
X-249.432 Y-18.11 Z-1.467 I-0.121 J0.108
X-249.189 Y-18.325 Z-1.528 I0.121 J-0.108
X-249.432 Y-18.11 Z-1.589 I-0.121 J0.108
X-249.189 Y-18.325 Z-1.65 I0.121 J-0.108
X-249.432 Y-18.11 Z-1.711 I-0.121 J0.108
X-249.189 Y-18.325 Z-1.772 I0.121 J-0.108
X-249.432 Y-18.11 Z-1.833 I-0.121 J0.108
X-249.189 Y-18.325 Z-1.894 I0.121 J-0.108
X-249.432 Y-18.11 Z-1.956 I-0.121 J0.108
X-249.189 Y-18.325 Z-2.017 I0.121 J-0.108
X-249.432 Y-18.11 Z-2.078 I-0.121 J0.108
X-249.189 Y-18.325 Z-2.139 I0.121 J-0.108
X-249.432 Y-18.11 Z-2.2 I-0.121 J0.108
X-249.189 Y-18.325 Z-2.261 I0.121 J-0.108
X-249.432 Y-18.11 Z-2.322 I-0.121 J0.108
X-249.189 Y-18.325 Z-2.383 I0.121 J-0.108
X-249.432 Y-18.11 Z-2.444 I-0.121 J0.108
X-249.189 Y-18.325 Z-2.506 I0.121 J-0.108
X-249.432 Y-18.11 Z-2.567 I-0.121 J0.108
X-249.189 Y-18.325 Z-2.628 I0.121 J-0.108
X-249.432 Y-18.11 Z-2.689 I-0.121 J0.108
X-249.189 Y-18.325 Z-2.75 I0.121 J-0.108
X-249.432 Y-18.11 Z-2.811 I-0.121 J0.108
X-249.189 Y-18.325 Z-2.872 I0.121 J-0.108
X-249.432 Y-18.11 Z-2.933 I-0.121 J0.108
X-249.189 Y-18.325 Z-2.994 I0.121 J-0.108
X-249.432 Y-18.11 Z-3.056 I-0.121 J0.108
X-249.189 Y-18.325 Z-3.117 I0.121 J-0.108
X-249.432 Y-18.11 Z-3.178 I-0.121 J0.108
X-249.189 Y-18.325 Z-3.239 I0.121 J-0.108
X-249.432 Y-18.11 Z-3.3 I-0.121 J0.108
X-249.189 Y-18.325 Z-3.361 I0.121 J-0.108
X-249.432 Y-18.11 Z-3.422 I-0.121 J0.108
X-249.189 Y-18.325 Z-3.483 I0.121 J-0.108
X-249.432 Y-18.11 Z-3.544 I-0.121 J0.108
X-249.189 Y-18.325 Z-3.606 I0.121 J-0.108
X-249.432 Y-18.11 Z-3.667 I-0.121 J0.108
X-249.189 Y-18.325 Z-3.728 I0.121 J-0.108
X-249.432 Y-18.11 Z-3.789 I-0.121 J0.108
X-249.189 Y-18.325 Z-3.85 I0.121 J-0.108
X-249.432 Y-18.11 Z-3.911 I-0.121 J0.108
X-249.189 Y-18.325 Z-3.972 I0.121 J-0.108
X-249.432 Y-18.11 Z-4.033 I-0.121 J0.108
X-249.189 Y-18.325 Z-4.094 I0.121 J-0.108
X-249.432 Y-18.11 Z-4.156 I-0.121 J0.108
X-249.189 Y-18.325 Z-4.217 I0.121 J-0.108
X-249.432 Y-18.11 Z-4.278 I-0.121 J0.108
X-249.189 Y-18.325 Z-4.339 I0.121 J-0.108
X-249.432 Y-18.11 Z-4.4 I-0.121 J0.108
X-249.189 Y-18.325 Z-4.461 I0.121 J-0.108
X-249.432 Y-18.11 Z-4.522 I-0.121 J0.108
X-249.189 Y-18.325 Z-4.583 I0.121 J-0.108
X-249.432 Y-18.11 Z-4.644 I-0.121 J0.108
X-249.189 Y-18.325 Z-4.706 I0.121 J-0.108
X-249.432 Y-18.11 Z-4.767 I-0.121 J0.108
X-249.189 Y-18.325 Z-4.828 I0.121 J-0.108
X-249.432 Y-18.11 Z-4.889 I-0.121 J0.108
X-249.189 Y-18.325 Z-4.95 I0.121 J-0.108
X-249.432 Y-18.11 Z-5.011 I-0.121 J0.108
X-249.189 Y-18.325 Z-5.072 I0.121 J-0.108
X-249.432 Y-18.11 Z-5.133 I-0.121 J0.108
X-249.189 Y-18.325 Z-5.194 I0.121 J-0.108
X-249.432 Y-18.11 Z-5.256 I-0.121 J0.108
X-249.189 Y-18.325 Z-5.317 I0.121 J-0.108
X-249.432 Y-18.11 Z-5.378 I-0.121 J0.108
X-249.189 Y-18.325 Z-5.439 I0.121 J-0.108
X-249.432 Y-18.11 Z-5.5 I-0.121 J0.108
X-249.189 Y-18.325 Z-5.561 I0.121 J-0.108
X-249.432 Y-18.11 Z-5.622 I-0.121 J0.108
X-249.189 Y-18.325 Z-5.683 I0.121 J-0.108
X-249.432 Y-18.11 Z-5.744 I-0.121 J0.108
X-249.189 Y-18.325 Z-5.806 I0.121 J-0.108
X-249.432 Y-18.11 Z-5.867 I-0.121 J0.108
X-249.189 Y-18.325 Z-5.928 I0.121 J-0.108
X-249.432 Y-18.11 Z-5.989 I-0.121 J0.108
X-249.189 Y-18.325 Z-6.05 I0.121 J-0.108
X-249.432 Y-18.11 Z-6.111 I-0.121 J0.108
X-249.189 Y-18.325 Z-6.172 I0.121 J-0.108
X-249.432 Y-18.11 Z-6.233 I-0.121 J0.108
X-249.189 Y-18.325 Z-6.294 I0.121 J-0.108
X-249.432 Y-18.11 Z-6.356 I-0.121 J0.108
X-249.189 Y-18.325 Z-6.417 I0.121 J-0.108
X-249.432 Y-18.11 Z-6.478 I-0.121 J0.108
X-249.189 Y-18.325 Z-6.539 I0.121 J-0.108
X-249.432 Y-18.11 Z-6.6 I-0.121 J0.108
X-249.189 Y-18.325 Z-6.661 I0.121 J-0.108
X-249.432 Y-18.11 Z-6.722 I-0.121 J0.108
X-249.189 Y-18.325 Z-6.783 I0.121 J-0.108
X-249.432 Y-18.11 Z-6.844 I-0.121 J0.108
X-249.189 Y-18.325 Z-6.906 I0.121 J-0.108
X-249.432 Y-18.11 Z-6.967 I-0.121 J0.108
X-249.189 Y-18.325 Z-7.028 I0.121 J-0.108
X-249.432 Y-18.11 Z-7.089 I-0.121 J0.108
X-249.189 Y-18.325 Z-7.15 I0.121 J-0.108
X-249.432 Y-18.11 Z-7.211 I-0.121 J0.108
X-249.189 Y-18.325 Z-7.272 I0.121 J-0.108
X-249.432 Y-18.11 Z-7.333 I-0.121 J0.108
X-249.189 Y-18.325 Z-7.394 I0.121 J-0.108
X-249.432 Y-18.11 Z-7.456 I-0.121 J0.108
X-249.189 Y-18.325 Z-7.517 I0.121 J-0.108
X-249.432 Y-18.11 Z-7.578 I-0.121 J0.108
X-249.189 Y-18.325 Z-7.639 I0.121 J-0.108
X-249.432 Y-18.11 Z-7.7 I-0.121 J0.108
X-249.189 Y-18.325 Z-7.761 I0.121 J-0.108
X-249.432 Y-18.11 Z-7.822 I-0.121 J0.108
X-249.189 Y-18.325 Z-7.883 I0.121 J-0.108
X-249.432 Y-18.11 Z-7.944 I-0.121 J0.108
X-249.189 Y-18.325 Z-8.006 I0.121 J-0.108
X-249.432 Y-18.11 Z-8.067 I-0.121 J0.108
X-249.189 Y-18.325 Z-8.128 I0.121 J-0.108
X-249.432 Y-18.11 Z-8.189 I-0.121 J0.108
X-249.189 Y-18.325 Z-8.25 I0.121 J-0.108
X-249.354 Y-18.061 Z-8.3 I-0.121 J0.108
X-249.267 Y-18.374 I0.044 J-0.157
X-249.354 Y-18.061 I-0.044 J0.157
G1 X-249.383 Y-18.075
X-249.403 Y-18.099
X-249.413 Y-18.129
X-249.411 Y-18.161
X-249.368 Y-18.314
Z5
X-227.81 Y-16.905
Z2
Z0.317
X-227.816 Y-16.9 Z0.247
X-227.834 Y-16.884 Z0.18
X-227.862 Y-16.859 Z0.12
X-227.9 Y-16.826 Z0.069
X-227.945 Y-16.786 Z0.031
X-227.995 Y-16.741 Z0.008
X-228.048 Y-16.694 Z0
X-228.166 Y-16.589
G3 X-228.614 Y-16.615 I-0.211 J-0.237
X-225.007 Y-19.82 Z-0.14 I1.804 J-1.602
X-228.614 Y-16.615 Z-0.279 I-1.804 J1.602
X-225.007 Y-19.82 Z-0.419 I1.804 J-1.602
X-228.614 Y-16.615 Z-0.559 I-1.804 J1.602
X-225.007 Y-19.82 Z-0.698 I1.804 J-1.602
X-228.614 Y-16.615 Z-0.838 I-1.804 J1.602
X-225.007 Y-19.82 Z-0.978 I1.804 J-1.602
X-228.614 Y-16.615 Z-1.117 I-1.804 J1.602
X-225.007 Y-19.82 Z-1.257 I1.804 J-1.602
X-228.614 Y-16.615 Z-1.397 I-1.804 J1.602
X-225.007 Y-19.82 Z-1.537 I1.804 J-1.602
X-228.614 Y-16.615 Z-1.676 I-1.804 J1.602
X-225.007 Y-19.82 Z-1.816 I1.804 J-1.602
X-228.614 Y-16.615 Z-1.956 I-1.804 J1.602
X-225.007 Y-19.82 Z-2.095 I1.804 J-1.602
X-228.614 Y-16.615 Z-2.235 I-1.804 J1.602
X-225.007 Y-19.82 Z-2.375 I1.804 J-1.602
X-228.614 Y-16.615 Z-2.514 I-1.804 J1.602
X-225.007 Y-19.82 Z-2.654 I1.804 J-1.602
X-228.614 Y-16.615 Z-2.794 I-1.804 J1.602
X-225.007 Y-19.82 Z-2.933 I1.804 J-1.602
X-228.614 Y-16.615 Z-3.073 I-1.804 J1.602
X-225.007 Y-19.82 Z-3.213 I1.804 J-1.602
X-228.614 Y-16.615 Z-3.352 I-1.804 J1.602
X-225.007 Y-19.82 Z-3.492 I1.804 J-1.602
X-228.614 Y-16.615 Z-3.632 I-1.804 J1.602
X-225.007 Y-19.82 Z-3.771 I1.804 J-1.602
X-228.614 Y-16.615 Z-3.911 I-1.804 J1.602
X-225.007 Y-19.82 Z-4.051 I1.804 J-1.602
X-228.614 Y-16.615 Z-4.19 I-1.804 J1.602
X-225.007 Y-19.82 Z-4.33 I1.804 J-1.602
X-228.614 Y-16.615 Z-4.47 I-1.804 J1.602
X-225.007 Y-19.82 Z-4.61 I1.804 J-1.602
X-228.614 Y-16.615 Z-4.749 I-1.804 J1.602
X-225.007 Y-19.82 Z-4.889 I1.804 J-1.602
X-228.614 Y-16.615 Z-5.029 I-1.804 J1.602
X-225.007 Y-19.82 Z-5.168 I1.804 J-1.602
X-228.614 Y-16.615 Z-5.308 I-1.804 J1.602
X-225.007 Y-19.82 Z-5.448 I1.804 J-1.602
X-228.614 Y-16.615 Z-5.587 I-1.804 J1.602
X-225.007 Y-19.82 Z-5.727 I1.804 J-1.602
X-228.614 Y-16.615 Z-5.867 I-1.804 J1.602
X-225.007 Y-19.82 Z-6.006 I1.804 J-1.602
X-228.614 Y-16.615 Z-6.146 I-1.804 J1.602
X-225.007 Y-19.82 Z-6.286 I1.804 J-1.602
X-228.614 Y-16.615 Z-6.425 I-1.804 J1.602
X-225.007 Y-19.82 Z-6.565 I1.804 J-1.602
X-228.614 Y-16.615 Z-6.705 I-1.804 J1.602
X-225.007 Y-19.82 Z-6.844 I1.804 J-1.602
X-228.614 Y-16.615 Z-6.984 I-1.804 J1.602
X-225.007 Y-19.82 Z-7.124 I1.804 J-1.602
X-228.614 Y-16.615 Z-7.264 I-1.804 J1.602
X-225.007 Y-19.82 Z-7.403 I1.804 J-1.602
X-228.614 Y-16.615 Z-7.543 I-1.804 J1.602
X-225.007 Y-19.82 Z-7.683 I1.804 J-1.602
X-228.614 Y-16.615 Z-7.822 I-1.804 J1.602
X-225.007 Y-19.82 Z-7.962 I1.804 J-1.602
X-228.614 Y-16.615 Z-8.102 I-1.804 J1.602
X-225.007 Y-19.82 Z-8.241 I1.804 J-1.602
X-224.811 Y-16.868 Z-8.3 I-1.804 J1.602
X-228.81 Y-19.567 I-2 J-1.35
X-224.811 Y-16.868 I2 J1.35
X-225.252 Y-16.782 I-0.263 J-0.178
G1 X-225.384 Y-16.871
X-225.442 Y-16.911 Z-8.292
X-225.498 Y-16.948 Z-8.269
X-225.548 Y-16.982 Z-8.231
X-225.589 Y-17.01 Z-8.18
X-225.621 Y-17.031 Z-8.12
X-225.64 Y-17.044 Z-8.053
X-225.647 Y-17.049 Z-7.983
Z5
X-204.199 Y-18.208
Z1.683
Z0
X-204.318 Y-18.103
X-204.345 Y-18.087
X-204.376 Y-18.082
X-204.407 Y-18.09
X-204.432 Y-18.11
G3 X-204.189 Y-18.325 Z-0.061 I0.121 J-0.108
X-204.432 Y-18.11 Z-0.122 I-0.121 J0.108
X-204.189 Y-18.325 Z-0.183 I0.121 J-0.108
X-204.432 Y-18.11 Z-0.244 I-0.121 J0.108
X-204.189 Y-18.325 Z-0.306 I0.121 J-0.108
X-204.432 Y-18.11 Z-0.367 I-0.121 J0.108
X-204.189 Y-18.325 Z-0.428 I0.121 J-0.108
X-204.432 Y-18.11 Z-0.489 I-0.121 J0.108
X-204.189 Y-18.325 Z-0.55 I0.121 J-0.108
X-204.432 Y-18.11 Z-0.611 I-0.121 J0.108
X-204.189 Y-18.325 Z-0.672 I0.121 J-0.108
X-204.432 Y-18.11 Z-0.733 I-0.121 J0.108
X-204.189 Y-18.325 Z-0.794 I0.121 J-0.108
X-204.432 Y-18.11 Z-0.856 I-0.121 J0.108
X-204.189 Y-18.325 Z-0.917 I0.121 J-0.108
X-204.432 Y-18.11 Z-0.978 I-0.121 J0.108
X-204.189 Y-18.325 Z-1.039 I0.121 J-0.108
X-204.432 Y-18.11 Z-1.1 I-0.121 J0.108
X-204.189 Y-18.325 Z-1.161 I0.121 J-0.108
X-204.432 Y-18.11 Z-1.222 I-0.121 J0.108
X-204.189 Y-18.325 Z-1.283 I0.121 J-0.108
X-204.432 Y-18.11 Z-1.344 I-0.121 J0.108
X-204.189 Y-18.325 Z-1.406 I0.121 J-0.108
X-204.432 Y-18.11 Z-1.467 I-0.121 J0.108
X-204.189 Y-18.325 Z-1.528 I0.121 J-0.108
X-204.432 Y-18.11 Z-1.589 I-0.121 J0.108
X-204.189 Y-18.325 Z-1.65 I0.121 J-0.108
X-204.432 Y-18.11 Z-1.711 I-0.121 J0.108
X-204.189 Y-18.325 Z-1.772 I0.121 J-0.108
X-204.432 Y-18.11 Z-1.833 I-0.121 J0.108
X-204.189 Y-18.325 Z-1.894 I0.121 J-0.108
X-204.432 Y-18.11 Z-1.956 I-0.121 J0.108
X-204.189 Y-18.325 Z-2.017 I0.121 J-0.108
X-204.432 Y-18.11 Z-2.078 I-0.121 J0.108
X-204.189 Y-18.325 Z-2.139 I0.121 J-0.108
X-204.432 Y-18.11 Z-2.2 I-0.121 J0.108
X-204.189 Y-18.325 Z-2.261 I0.121 J-0.108
X-204.432 Y-18.11 Z-2.322 I-0.121 J0.108
X-204.189 Y-18.325 Z-2.383 I0.121 J-0.108
X-204.432 Y-18.11 Z-2.444 I-0.121 J0.108
X-204.189 Y-18.325 Z-2.506 I0.121 J-0.108
X-204.432 Y-18.11 Z-2.567 I-0.121 J0.108
X-204.189 Y-18.325 Z-2.628 I0.121 J-0.108
X-204.432 Y-18.11 Z-2.689 I-0.121 J0.108
X-204.189 Y-18.325 Z-2.75 I0.121 J-0.108
X-204.432 Y-18.11 Z-2.811 I-0.121 J0.108
X-204.189 Y-18.325 Z-2.872 I0.121 J-0.108
X-204.432 Y-18.11 Z-2.933 I-0.121 J0.108
X-204.189 Y-18.325 Z-2.994 I0.121 J-0.108
X-204.432 Y-18.11 Z-3.056 I-0.121 J0.108
X-204.189 Y-18.325 Z-3.117 I0.121 J-0.108
X-204.432 Y-18.11 Z-3.178 I-0.121 J0.108
X-204.189 Y-18.325 Z-3.239 I0.121 J-0.108
X-204.432 Y-18.11 Z-3.3 I-0.121 J0.108
X-204.189 Y-18.325 Z-3.361 I0.121 J-0.108
X-204.432 Y-18.11 Z-3.422 I-0.121 J0.108
X-204.189 Y-18.325 Z-3.483 I0.121 J-0.108
X-204.432 Y-18.11 Z-3.544 I-0.121 J0.108
X-204.189 Y-18.325 Z-3.606 I0.121 J-0.108
X-204.432 Y-18.11 Z-3.667 I-0.121 J0.108
X-204.189 Y-18.325 Z-3.728 I0.121 J-0.108
X-204.432 Y-18.11 Z-3.789 I-0.121 J0.108
X-204.189 Y-18.325 Z-3.85 I0.121 J-0.108
X-204.432 Y-18.11 Z-3.911 I-0.121 J0.108
X-204.189 Y-18.325 Z-3.972 I0.121 J-0.108
X-204.432 Y-18.11 Z-4.033 I-0.121 J0.108
X-204.189 Y-18.325 Z-4.094 I0.121 J-0.108
X-204.432 Y-18.11 Z-4.156 I-0.121 J0.108
X-204.189 Y-18.325 Z-4.217 I0.121 J-0.108
X-204.432 Y-18.11 Z-4.278 I-0.121 J0.108
X-204.189 Y-18.325 Z-4.339 I0.121 J-0.108
X-204.432 Y-18.11 Z-4.4 I-0.121 J0.108
X-204.189 Y-18.325 Z-4.461 I0.121 J-0.108
X-204.432 Y-18.11 Z-4.522 I-0.121 J0.108
X-204.189 Y-18.325 Z-4.583 I0.121 J-0.108
X-204.432 Y-18.11 Z-4.644 I-0.121 J0.108
X-204.189 Y-18.325 Z-4.706 I0.121 J-0.108
X-204.432 Y-18.11 Z-4.767 I-0.121 J0.108
X-204.189 Y-18.325 Z-4.828 I0.121 J-0.108
X-204.432 Y-18.11 Z-4.889 I-0.121 J0.108
X-204.189 Y-18.325 Z-4.95 I0.121 J-0.108
X-204.432 Y-18.11 Z-5.011 I-0.121 J0.108
X-204.189 Y-18.325 Z-5.072 I0.121 J-0.108
X-204.432 Y-18.11 Z-5.133 I-0.121 J0.108
X-204.189 Y-18.325 Z-5.194 I0.121 J-0.108
X-204.432 Y-18.11 Z-5.256 I-0.121 J0.108
X-204.189 Y-18.325 Z-5.317 I0.121 J-0.108
X-204.432 Y-18.11 Z-5.378 I-0.121 J0.108
X-204.189 Y-18.325 Z-5.439 I0.121 J-0.108
X-204.432 Y-18.11 Z-5.5 I-0.121 J0.108
X-204.189 Y-18.325 Z-5.561 I0.121 J-0.108
X-204.432 Y-18.11 Z-5.622 I-0.121 J0.108
X-204.189 Y-18.325 Z-5.683 I0.121 J-0.108
X-204.432 Y-18.11 Z-5.744 I-0.121 J0.108
X-204.189 Y-18.325 Z-5.806 I0.121 J-0.108
X-204.432 Y-18.11 Z-5.867 I-0.121 J0.108
X-204.189 Y-18.325 Z-5.928 I0.121 J-0.108
X-204.432 Y-18.11 Z-5.989 I-0.121 J0.108
X-204.189 Y-18.325 Z-6.05 I0.121 J-0.108
X-204.432 Y-18.11 Z-6.111 I-0.121 J0.108
X-204.189 Y-18.325 Z-6.172 I0.121 J-0.108
X-204.432 Y-18.11 Z-6.233 I-0.121 J0.108
X-204.189 Y-18.325 Z-6.294 I0.121 J-0.108
X-204.432 Y-18.11 Z-6.356 I-0.121 J0.108
X-204.189 Y-18.325 Z-6.417 I0.121 J-0.108
X-204.432 Y-18.11 Z-6.478 I-0.121 J0.108
X-204.189 Y-18.325 Z-6.539 I0.121 J-0.108
X-204.432 Y-18.11 Z-6.6 I-0.121 J0.108
X-204.189 Y-18.325 Z-6.661 I0.121 J-0.108
X-204.432 Y-18.11 Z-6.722 I-0.121 J0.108
X-204.189 Y-18.325 Z-6.783 I0.121 J-0.108
X-204.432 Y-18.11 Z-6.844 I-0.121 J0.108
X-204.189 Y-18.325 Z-6.906 I0.121 J-0.108
X-204.432 Y-18.11 Z-6.967 I-0.121 J0.108
X-204.189 Y-18.325 Z-7.028 I0.121 J-0.108
X-204.432 Y-18.11 Z-7.089 I-0.121 J0.108
X-204.189 Y-18.325 Z-7.15 I0.121 J-0.108
X-204.432 Y-18.11 Z-7.211 I-0.121 J0.108
X-204.189 Y-18.325 Z-7.272 I0.121 J-0.108
X-204.432 Y-18.11 Z-7.333 I-0.121 J0.108
X-204.189 Y-18.325 Z-7.394 I0.121 J-0.108
X-204.432 Y-18.11 Z-7.456 I-0.121 J0.108
X-204.189 Y-18.325 Z-7.517 I0.121 J-0.108
X-204.432 Y-18.11 Z-7.578 I-0.121 J0.108
X-204.189 Y-18.325 Z-7.639 I0.121 J-0.108
X-204.432 Y-18.11 Z-7.7 I-0.121 J0.108
X-204.189 Y-18.325 Z-7.761 I0.121 J-0.108
X-204.432 Y-18.11 Z-7.822 I-0.121 J0.108
X-204.189 Y-18.325 Z-7.883 I0.121 J-0.108
X-204.432 Y-18.11 Z-7.944 I-0.121 J0.108
X-204.189 Y-18.325 Z-8.006 I0.121 J-0.108
X-204.432 Y-18.11 Z-8.067 I-0.121 J0.108
X-204.189 Y-18.325 Z-8.128 I0.121 J-0.108
X-204.432 Y-18.11 Z-8.189 I-0.121 J0.108
X-204.189 Y-18.325 Z-8.25 I0.121 J-0.108
X-204.354 Y-18.061 Z-8.3 I-0.121 J0.108
X-204.267 Y-18.374 I0.044 J-0.157
X-204.354 Y-18.061 I-0.044 J0.157
G1 X-204.383 Y-18.075
X-204.403 Y-18.099
X-204.413 Y-18.129
X-204.411 Y-18.161
X-204.368 Y-18.314
Z5
X-209.661 Y-45.329
Z1.683
Z0
X-209.536 Y-45.232
X-209.515 Y-45.208
X-209.505 Y-45.178
X-209.507 Y-45.146
X-209.521 Y-45.118
G3 X-209.778 Y-45.317 Z-0.061 I-0.128 J-0.1
X-209.521 Y-45.118 Z-0.122 I0.128 J0.1
X-209.778 Y-45.317 Z-0.183 I-0.128 J-0.1
X-209.521 Y-45.118 Z-0.244 I0.128 J0.1
X-209.778 Y-45.317 Z-0.306 I-0.128 J-0.1
X-209.521 Y-45.118 Z-0.367 I0.128 J0.1
X-209.778 Y-45.317 Z-0.428 I-0.128 J-0.1
X-209.521 Y-45.118 Z-0.489 I0.128 J0.1
X-209.778 Y-45.317 Z-0.55 I-0.128 J-0.1
X-209.521 Y-45.118 Z-0.611 I0.128 J0.1
X-209.778 Y-45.317 Z-0.672 I-0.128 J-0.1
X-209.521 Y-45.118 Z-0.733 I0.128 J0.1
X-209.778 Y-45.317 Z-0.794 I-0.128 J-0.1
X-209.521 Y-45.118 Z-0.856 I0.128 J0.1
X-209.778 Y-45.317 Z-0.917 I-0.128 J-0.1
X-209.521 Y-45.118 Z-0.978 I0.128 J0.1
X-209.778 Y-45.317 Z-1.039 I-0.128 J-0.1
X-209.521 Y-45.118 Z-1.1 I0.128 J0.1
X-209.778 Y-45.317 Z-1.161 I-0.128 J-0.1
X-209.521 Y-45.118 Z-1.222 I0.128 J0.1
X-209.778 Y-45.317 Z-1.283 I-0.128 J-0.1
X-209.521 Y-45.118 Z-1.344 I0.128 J0.1
X-209.778 Y-45.317 Z-1.406 I-0.128 J-0.1
X-209.521 Y-45.118 Z-1.467 I0.128 J0.1
X-209.778 Y-45.317 Z-1.528 I-0.128 J-0.1
X-209.521 Y-45.118 Z-1.589 I0.128 J0.1
X-209.778 Y-45.317 Z-1.65 I-0.128 J-0.1
X-209.521 Y-45.118 Z-1.711 I0.128 J0.1
X-209.778 Y-45.317 Z-1.772 I-0.128 J-0.1
X-209.521 Y-45.118 Z-1.833 I0.128 J0.1
X-209.778 Y-45.317 Z-1.894 I-0.128 J-0.1
X-209.521 Y-45.118 Z-1.956 I0.128 J0.1
X-209.778 Y-45.317 Z-2.017 I-0.128 J-0.1
X-209.521 Y-45.118 Z-2.078 I0.128 J0.1
X-209.778 Y-45.317 Z-2.139 I-0.128 J-0.1
X-209.521 Y-45.118 Z-2.2 I0.128 J0.1
X-209.778 Y-45.317 Z-2.261 I-0.128 J-0.1
X-209.521 Y-45.118 Z-2.322 I0.128 J0.1
X-209.778 Y-45.317 Z-2.383 I-0.128 J-0.1
X-209.521 Y-45.118 Z-2.444 I0.128 J0.1
X-209.778 Y-45.317 Z-2.506 I-0.128 J-0.1
X-209.521 Y-45.118 Z-2.567 I0.128 J0.1
X-209.778 Y-45.317 Z-2.628 I-0.128 J-0.1
X-209.521 Y-45.118 Z-2.689 I0.128 J0.1
X-209.778 Y-45.317 Z-2.75 I-0.128 J-0.1
X-209.521 Y-45.118 Z-2.811 I0.128 J0.1
X-209.778 Y-45.317 Z-2.872 I-0.128 J-0.1
X-209.521 Y-45.118 Z-2.933 I0.128 J0.1
X-209.778 Y-45.317 Z-2.994 I-0.128 J-0.1
X-209.521 Y-45.118 Z-3.056 I0.128 J0.1
X-209.778 Y-45.317 Z-3.117 I-0.128 J-0.1
X-209.521 Y-45.118 Z-3.178 I0.128 J0.1
X-209.778 Y-45.317 Z-3.239 I-0.128 J-0.1
X-209.521 Y-45.118 Z-3.3 I0.128 J0.1
X-209.778 Y-45.317 Z-3.361 I-0.128 J-0.1
X-209.521 Y-45.118 Z-3.422 I0.128 J0.1
X-209.778 Y-45.317 Z-3.483 I-0.128 J-0.1
X-209.521 Y-45.118 Z-3.544 I0.128 J0.1
X-209.778 Y-45.317 Z-3.606 I-0.128 J-0.1
X-209.521 Y-45.118 Z-3.667 I0.128 J0.1
X-209.778 Y-45.317 Z-3.728 I-0.128 J-0.1
X-209.521 Y-45.118 Z-3.789 I0.128 J0.1
X-209.778 Y-45.317 Z-3.85 I-0.128 J-0.1
X-209.521 Y-45.118 Z-3.911 I0.128 J0.1
X-209.778 Y-45.317 Z-3.972 I-0.128 J-0.1
X-209.521 Y-45.118 Z-4.033 I0.128 J0.1
X-209.778 Y-45.317 Z-4.094 I-0.128 J-0.1
X-209.521 Y-45.118 Z-4.156 I0.128 J0.1
X-209.778 Y-45.317 Z-4.217 I-0.128 J-0.1
X-209.521 Y-45.118 Z-4.278 I0.128 J0.1
X-209.778 Y-45.317 Z-4.339 I-0.128 J-0.1
X-209.521 Y-45.118 Z-4.4 I0.128 J0.1
X-209.778 Y-45.317 Z-4.461 I-0.128 J-0.1
X-209.521 Y-45.118 Z-4.522 I0.128 J0.1
X-209.778 Y-45.317 Z-4.583 I-0.128 J-0.1
X-209.521 Y-45.118 Z-4.644 I0.128 J0.1
X-209.778 Y-45.317 Z-4.706 I-0.128 J-0.1
X-209.521 Y-45.118 Z-4.767 I0.128 J0.1
X-209.778 Y-45.317 Z-4.828 I-0.128 J-0.1
X-209.521 Y-45.118 Z-4.889 I0.128 J0.1
X-209.778 Y-45.317 Z-4.95 I-0.128 J-0.1
X-209.521 Y-45.118 Z-5.011 I0.128 J0.1
X-209.778 Y-45.317 Z-5.072 I-0.128 J-0.1
X-209.521 Y-45.118 Z-5.133 I0.128 J0.1
X-209.778 Y-45.317 Z-5.194 I-0.128 J-0.1
X-209.521 Y-45.118 Z-5.256 I0.128 J0.1
X-209.778 Y-45.317 Z-5.317 I-0.128 J-0.1
X-209.521 Y-45.118 Z-5.378 I0.128 J0.1
X-209.778 Y-45.317 Z-5.439 I-0.128 J-0.1
X-209.521 Y-45.118 Z-5.5 I0.128 J0.1
X-209.778 Y-45.317 Z-5.561 I-0.128 J-0.1
X-209.521 Y-45.118 Z-5.622 I0.128 J0.1
X-209.778 Y-45.317 Z-5.683 I-0.128 J-0.1
X-209.521 Y-45.118 Z-5.744 I0.128 J0.1
X-209.778 Y-45.317 Z-5.806 I-0.128 J-0.1
X-209.521 Y-45.118 Z-5.867 I0.128 J0.1
X-209.778 Y-45.317 Z-5.928 I-0.128 J-0.1
X-209.521 Y-45.118 Z-5.989 I0.128 J0.1
X-209.778 Y-45.317 Z-6.05 I-0.128 J-0.1
X-209.521 Y-45.118 Z-6.111 I0.128 J0.1
X-209.778 Y-45.317 Z-6.172 I-0.128 J-0.1
X-209.521 Y-45.118 Z-6.233 I0.128 J0.1
X-209.778 Y-45.317 Z-6.294 I-0.128 J-0.1
X-209.521 Y-45.118 Z-6.356 I0.128 J0.1
X-209.778 Y-45.317 Z-6.417 I-0.128 J-0.1
X-209.521 Y-45.118 Z-6.478 I0.128 J0.1
X-209.778 Y-45.317 Z-6.539 I-0.128 J-0.1
X-209.521 Y-45.118 Z-6.6 I0.128 J0.1
X-209.778 Y-45.317 Z-6.661 I-0.128 J-0.1
X-209.521 Y-45.118 Z-6.722 I0.128 J0.1
X-209.778 Y-45.317 Z-6.783 I-0.128 J-0.1
X-209.521 Y-45.118 Z-6.844 I0.128 J0.1
X-209.778 Y-45.317 Z-6.906 I-0.128 J-0.1
X-209.521 Y-45.118 Z-6.967 I0.128 J0.1
X-209.778 Y-45.317 Z-7.028 I-0.128 J-0.1
X-209.521 Y-45.118 Z-7.089 I0.128 J0.1
X-209.778 Y-45.317 Z-7.15 I-0.128 J-0.1
X-209.521 Y-45.118 Z-7.211 I0.128 J0.1
X-209.778 Y-45.317 Z-7.272 I-0.128 J-0.1
X-209.521 Y-45.118 Z-7.333 I0.128 J0.1
X-209.778 Y-45.317 Z-7.394 I-0.128 J-0.1
X-209.521 Y-45.118 Z-7.456 I0.128 J0.1
X-209.778 Y-45.317 Z-7.517 I-0.128 J-0.1
X-209.521 Y-45.118 Z-7.578 I0.128 J0.1
X-209.778 Y-45.317 Z-7.639 I-0.128 J-0.1
X-209.521 Y-45.118 Z-7.7 I0.128 J0.1
X-209.778 Y-45.317 Z-7.761 I-0.128 J-0.1
X-209.521 Y-45.118 Z-7.822 I0.128 J0.1
X-209.778 Y-45.317 Z-7.883 I-0.128 J-0.1
X-209.521 Y-45.118 Z-7.944 I0.128 J0.1
X-209.778 Y-45.317 Z-8.006 I-0.128 J-0.1
X-209.521 Y-45.118 Z-8.067 I0.128 J0.1
X-209.778 Y-45.317 Z-8.128 I-0.128 J-0.1
X-209.521 Y-45.118 Z-8.189 I0.128 J0.1
X-209.778 Y-45.317 Z-8.25 I-0.128 J-0.1
X-209.488 Y-45.203 Z-8.3 I0.128 J0.1
X-209.812 Y-45.232 I-0.162 J-0.014
X-209.488 Y-45.203 I0.162 J0.014
G1 X-209.497 Y-45.173
X-209.517 Y-45.148
X-209.544 Y-45.133
X-209.576 Y-45.129
X-209.734 Y-45.143
Z5
X-238.915 Y-48.016
Z1.683
Z0
X-238.79 Y-47.918
X-238.769 Y-47.894
X-238.759 Y-47.864
X-238.762 Y-47.833
X-238.776 Y-47.804
G3 X-239.032 Y-48.004 Z-0.061 I-0.128 J-0.1
X-238.776 Y-47.804 Z-0.122 I0.128 J0.1
X-239.032 Y-48.004 Z-0.183 I-0.128 J-0.1
X-238.776 Y-47.804 Z-0.244 I0.128 J0.1
X-239.032 Y-48.004 Z-0.306 I-0.128 J-0.1
X-238.776 Y-47.804 Z-0.367 I0.128 J0.1
X-239.032 Y-48.004 Z-0.428 I-0.128 J-0.1
X-238.776 Y-47.804 Z-0.489 I0.128 J0.1
X-239.032 Y-48.004 Z-0.55 I-0.128 J-0.1
X-238.776 Y-47.804 Z-0.611 I0.128 J0.1
X-239.032 Y-48.004 Z-0.672 I-0.128 J-0.1
X-238.776 Y-47.804 Z-0.733 I0.128 J0.1
X-239.032 Y-48.004 Z-0.794 I-0.128 J-0.1
X-238.776 Y-47.804 Z-0.856 I0.128 J0.1
X-239.032 Y-48.004 Z-0.917 I-0.128 J-0.1
X-238.776 Y-47.804 Z-0.978 I0.128 J0.1
X-239.032 Y-48.004 Z-1.039 I-0.128 J-0.1
X-238.776 Y-47.804 Z-1.1 I0.128 J0.1
X-239.032 Y-48.004 Z-1.161 I-0.128 J-0.1
X-238.776 Y-47.804 Z-1.222 I0.128 J0.1
X-239.032 Y-48.004 Z-1.283 I-0.128 J-0.1
X-238.776 Y-47.804 Z-1.344 I0.128 J0.1
X-239.032 Y-48.004 Z-1.406 I-0.128 J-0.1
X-238.776 Y-47.804 Z-1.467 I0.128 J0.1
X-239.032 Y-48.004 Z-1.528 I-0.128 J-0.1
X-238.776 Y-47.804 Z-1.589 I0.128 J0.1
X-239.032 Y-48.004 Z-1.65 I-0.128 J-0.1
X-238.776 Y-47.804 Z-1.711 I0.128 J0.1
X-239.032 Y-48.004 Z-1.772 I-0.128 J-0.1
X-238.776 Y-47.804 Z-1.833 I0.128 J0.1
X-239.032 Y-48.004 Z-1.894 I-0.128 J-0.1
X-238.776 Y-47.804 Z-1.956 I0.128 J0.1
X-239.032 Y-48.004 Z-2.017 I-0.128 J-0.1
X-238.776 Y-47.804 Z-2.078 I0.128 J0.1
X-239.032 Y-48.004 Z-2.139 I-0.128 J-0.1
X-238.776 Y-47.804 Z-2.2 I0.128 J0.1
X-239.032 Y-48.004 Z-2.261 I-0.128 J-0.1
X-238.776 Y-47.804 Z-2.322 I0.128 J0.1
X-239.032 Y-48.004 Z-2.383 I-0.128 J-0.1
X-238.776 Y-47.804 Z-2.444 I0.128 J0.1
X-239.032 Y-48.004 Z-2.506 I-0.128 J-0.1
X-238.776 Y-47.804 Z-2.567 I0.128 J0.1
X-239.032 Y-48.004 Z-2.628 I-0.128 J-0.1
X-238.776 Y-47.804 Z-2.689 I0.128 J0.1
X-239.032 Y-48.004 Z-2.75 I-0.128 J-0.1
X-238.776 Y-47.804 Z-2.811 I0.128 J0.1
X-239.032 Y-48.004 Z-2.872 I-0.128 J-0.1
X-238.776 Y-47.804 Z-2.933 I0.128 J0.1
X-239.032 Y-48.004 Z-2.994 I-0.128 J-0.1
X-238.776 Y-47.804 Z-3.056 I0.128 J0.1
X-239.032 Y-48.004 Z-3.117 I-0.128 J-0.1
X-238.776 Y-47.804 Z-3.178 I0.128 J0.1
X-239.032 Y-48.004 Z-3.239 I-0.128 J-0.1
X-238.776 Y-47.804 Z-3.3 I0.128 J0.1
X-239.032 Y-48.004 Z-3.361 I-0.128 J-0.1
X-238.776 Y-47.804 Z-3.422 I0.128 J0.1
X-239.032 Y-48.004 Z-3.483 I-0.128 J-0.1
X-238.776 Y-47.804 Z-3.544 I0.128 J0.1
X-239.032 Y-48.004 Z-3.606 I-0.128 J-0.1
X-238.776 Y-47.804 Z-3.667 I0.128 J0.1
X-239.032 Y-48.004 Z-3.728 I-0.128 J-0.1
X-238.776 Y-47.804 Z-3.789 I0.128 J0.1
X-239.032 Y-48.004 Z-3.85 I-0.128 J-0.1
X-238.776 Y-47.804 Z-3.911 I0.128 J0.1
X-239.032 Y-48.004 Z-3.972 I-0.128 J-0.1
X-238.776 Y-47.804 Z-4.033 I0.128 J0.1
X-239.032 Y-48.004 Z-4.094 I-0.128 J-0.1
X-238.776 Y-47.804 Z-4.156 I0.128 J0.1
X-239.032 Y-48.004 Z-4.217 I-0.128 J-0.1
X-238.776 Y-47.804 Z-4.278 I0.128 J0.1
X-239.032 Y-48.004 Z-4.339 I-0.128 J-0.1
X-238.776 Y-47.804 Z-4.4 I0.128 J0.1
X-239.032 Y-48.004 Z-4.461 I-0.128 J-0.1
X-238.776 Y-47.804 Z-4.522 I0.128 J0.1
X-239.032 Y-48.004 Z-4.583 I-0.128 J-0.1
X-238.776 Y-47.804 Z-4.644 I0.128 J0.1
X-239.032 Y-48.004 Z-4.706 I-0.128 J-0.1
X-238.776 Y-47.804 Z-4.767 I0.128 J0.1
X-239.032 Y-48.004 Z-4.828 I-0.128 J-0.1
X-238.776 Y-47.804 Z-4.889 I0.128 J0.1
X-239.032 Y-48.004 Z-4.95 I-0.128 J-0.1
X-238.776 Y-47.804 Z-5.011 I0.128 J0.1
X-239.032 Y-48.004 Z-5.072 I-0.128 J-0.1
X-238.776 Y-47.804 Z-5.133 I0.128 J0.1
X-239.032 Y-48.004 Z-5.194 I-0.128 J-0.1
X-238.776 Y-47.804 Z-5.256 I0.128 J0.1
X-239.032 Y-48.004 Z-5.317 I-0.128 J-0.1
X-238.776 Y-47.804 Z-5.378 I0.128 J0.1
X-239.032 Y-48.004 Z-5.439 I-0.128 J-0.1
X-238.776 Y-47.804 Z-5.5 I0.128 J0.1
X-239.032 Y-48.004 Z-5.561 I-0.128 J-0.1
X-238.776 Y-47.804 Z-5.622 I0.128 J0.1
X-239.032 Y-48.004 Z-5.683 I-0.128 J-0.1
X-238.776 Y-47.804 Z-5.744 I0.128 J0.1
X-239.032 Y-48.004 Z-5.806 I-0.128 J-0.1
X-238.776 Y-47.804 Z-5.867 I0.128 J0.1
X-239.032 Y-48.004 Z-5.928 I-0.128 J-0.1
X-238.776 Y-47.804 Z-5.989 I0.128 J0.1
X-239.032 Y-48.004 Z-6.05 I-0.128 J-0.1
X-238.776 Y-47.804 Z-6.111 I0.128 J0.1
X-239.032 Y-48.004 Z-6.172 I-0.128 J-0.1
X-238.776 Y-47.804 Z-6.233 I0.128 J0.1
X-239.032 Y-48.004 Z-6.294 I-0.128 J-0.1
X-238.776 Y-47.804 Z-6.356 I0.128 J0.1
X-239.032 Y-48.004 Z-6.417 I-0.128 J-0.1
X-238.776 Y-47.804 Z-6.478 I0.128 J0.1
X-239.032 Y-48.004 Z-6.539 I-0.128 J-0.1
X-238.776 Y-47.804 Z-6.6 I0.128 J0.1
X-239.032 Y-48.004 Z-6.661 I-0.128 J-0.1
X-238.776 Y-47.804 Z-6.722 I0.128 J0.1
X-239.032 Y-48.004 Z-6.783 I-0.128 J-0.1
X-238.776 Y-47.804 Z-6.844 I0.128 J0.1
X-239.032 Y-48.004 Z-6.906 I-0.128 J-0.1
X-238.776 Y-47.804 Z-6.967 I0.128 J0.1
X-239.032 Y-48.004 Z-7.028 I-0.128 J-0.1
X-238.776 Y-47.804 Z-7.089 I0.128 J0.1
X-239.032 Y-48.004 Z-7.15 I-0.128 J-0.1
X-238.776 Y-47.804 Z-7.211 I0.128 J0.1
X-239.032 Y-48.004 Z-7.272 I-0.128 J-0.1
X-238.776 Y-47.804 Z-7.333 I0.128 J0.1
X-239.032 Y-48.004 Z-7.394 I-0.128 J-0.1
X-238.776 Y-47.804 Z-7.456 I0.128 J0.1
X-239.032 Y-48.004 Z-7.517 I-0.128 J-0.1
X-238.776 Y-47.804 Z-7.578 I0.128 J0.1
X-239.032 Y-48.004 Z-7.639 I-0.128 J-0.1
X-238.776 Y-47.804 Z-7.7 I0.128 J0.1
X-239.032 Y-48.004 Z-7.761 I-0.128 J-0.1
X-238.776 Y-47.804 Z-7.822 I0.128 J0.1
X-239.032 Y-48.004 Z-7.883 I-0.128 J-0.1
X-238.776 Y-47.804 Z-7.944 I0.128 J0.1
X-239.032 Y-48.004 Z-8.006 I-0.128 J-0.1
X-238.776 Y-47.804 Z-8.067 I0.128 J0.1
X-239.032 Y-48.004 Z-8.128 I-0.128 J-0.1
X-238.776 Y-47.804 Z-8.189 I0.128 J0.1
X-239.032 Y-48.004 Z-8.25 I-0.128 J-0.1
X-238.742 Y-47.89 Z-8.3 I0.128 J0.1
X-239.066 Y-47.918 I-0.162 J-0.014
X-238.742 Y-47.89 I0.162 J0.014
G1 X-238.751 Y-47.859
X-238.771 Y-47.835
X-238.799 Y-47.82
X-238.83 Y-47.816
X-238.988 Y-47.83
Z5
X-250.018 Y-72.208
Z1.683
Z0
X-250.137 Y-72.103
X-250.164 Y-72.087
X-250.195 Y-72.082
X-250.226 Y-72.09
X-250.251 Y-72.11
G3 X-250.008 Y-72.325 Z-0.061 I0.121 J-0.108
X-250.251 Y-72.11 Z-0.122 I-0.121 J0.108
X-250.008 Y-72.325 Z-0.183 I0.121 J-0.108
X-250.251 Y-72.11 Z-0.244 I-0.121 J0.108
X-250.008 Y-72.325 Z-0.306 I0.121 J-0.108
X-250.251 Y-72.11 Z-0.367 I-0.121 J0.108
X-250.008 Y-72.325 Z-0.428 I0.121 J-0.108
X-250.251 Y-72.11 Z-0.489 I-0.121 J0.108
X-250.008 Y-72.325 Z-0.55 I0.121 J-0.108
X-250.251 Y-72.11 Z-0.611 I-0.121 J0.108
X-250.008 Y-72.325 Z-0.672 I0.121 J-0.108
X-250.251 Y-72.11 Z-0.733 I-0.121 J0.108
X-250.008 Y-72.325 Z-0.794 I0.121 J-0.108
X-250.251 Y-72.11 Z-0.856 I-0.121 J0.108
X-250.008 Y-72.325 Z-0.917 I0.121 J-0.108
X-250.251 Y-72.11 Z-0.978 I-0.121 J0.108
X-250.008 Y-72.325 Z-1.039 I0.121 J-0.108
X-250.251 Y-72.11 Z-1.1 I-0.121 J0.108
X-250.008 Y-72.325 Z-1.161 I0.121 J-0.108
X-250.251 Y-72.11 Z-1.222 I-0.121 J0.108
X-250.008 Y-72.325 Z-1.283 I0.121 J-0.108
X-250.251 Y-72.11 Z-1.344 I-0.121 J0.108
X-250.008 Y-72.325 Z-1.406 I0.121 J-0.108
X-250.251 Y-72.11 Z-1.467 I-0.121 J0.108
X-250.008 Y-72.325 Z-1.528 I0.121 J-0.108
X-250.251 Y-72.11 Z-1.589 I-0.121 J0.108
X-250.008 Y-72.325 Z-1.65 I0.121 J-0.108
X-250.251 Y-72.11 Z-1.711 I-0.121 J0.108
X-250.008 Y-72.325 Z-1.772 I0.121 J-0.108
X-250.251 Y-72.11 Z-1.833 I-0.121 J0.108
X-250.008 Y-72.325 Z-1.894 I0.121 J-0.108
X-250.251 Y-72.11 Z-1.956 I-0.121 J0.108
X-250.008 Y-72.325 Z-2.017 I0.121 J-0.108
X-250.251 Y-72.11 Z-2.078 I-0.121 J0.108
X-250.008 Y-72.325 Z-2.139 I0.121 J-0.108
X-250.251 Y-72.11 Z-2.2 I-0.121 J0.108
X-250.008 Y-72.325 Z-2.261 I0.121 J-0.108
X-250.251 Y-72.11 Z-2.322 I-0.121 J0.108
X-250.008 Y-72.325 Z-2.383 I0.121 J-0.108
X-250.251 Y-72.11 Z-2.444 I-0.121 J0.108
X-250.008 Y-72.325 Z-2.506 I0.121 J-0.108
X-250.251 Y-72.11 Z-2.567 I-0.121 J0.108
X-250.008 Y-72.325 Z-2.628 I0.121 J-0.108
X-250.251 Y-72.11 Z-2.689 I-0.121 J0.108
X-250.008 Y-72.325 Z-2.75 I0.121 J-0.108
X-250.251 Y-72.11 Z-2.811 I-0.121 J0.108
X-250.008 Y-72.325 Z-2.872 I0.121 J-0.108
X-250.251 Y-72.11 Z-2.933 I-0.121 J0.108
X-250.008 Y-72.325 Z-2.994 I0.121 J-0.108
X-250.251 Y-72.11 Z-3.056 I-0.121 J0.108
X-250.008 Y-72.325 Z-3.117 I0.121 J-0.108
X-250.251 Y-72.11 Z-3.178 I-0.121 J0.108
X-250.008 Y-72.325 Z-3.239 I0.121 J-0.108
X-250.251 Y-72.11 Z-3.3 I-0.121 J0.108
X-250.008 Y-72.325 Z-3.361 I0.121 J-0.108
X-250.251 Y-72.11 Z-3.422 I-0.121 J0.108
X-250.008 Y-72.325 Z-3.483 I0.121 J-0.108
X-250.251 Y-72.11 Z-3.544 I-0.121 J0.108
X-250.008 Y-72.325 Z-3.606 I0.121 J-0.108
X-250.251 Y-72.11 Z-3.667 I-0.121 J0.108
X-250.008 Y-72.325 Z-3.728 I0.121 J-0.108
X-250.251 Y-72.11 Z-3.789 I-0.121 J0.108
X-250.008 Y-72.325 Z-3.85 I0.121 J-0.108
X-250.251 Y-72.11 Z-3.911 I-0.121 J0.108
X-250.008 Y-72.325 Z-3.972 I0.121 J-0.108
X-250.251 Y-72.11 Z-4.033 I-0.121 J0.108
X-250.008 Y-72.325 Z-4.094 I0.121 J-0.108
X-250.251 Y-72.11 Z-4.156 I-0.121 J0.108
X-250.008 Y-72.325 Z-4.217 I0.121 J-0.108
X-250.251 Y-72.11 Z-4.278 I-0.121 J0.108
X-250.008 Y-72.325 Z-4.339 I0.121 J-0.108
X-250.251 Y-72.11 Z-4.4 I-0.121 J0.108
X-250.008 Y-72.325 Z-4.461 I0.121 J-0.108
X-250.251 Y-72.11 Z-4.522 I-0.121 J0.108
X-250.008 Y-72.325 Z-4.583 I0.121 J-0.108
X-250.251 Y-72.11 Z-4.644 I-0.121 J0.108
X-250.008 Y-72.325 Z-4.706 I0.121 J-0.108
X-250.251 Y-72.11 Z-4.767 I-0.121 J0.108
X-250.008 Y-72.325 Z-4.828 I0.121 J-0.108
X-250.251 Y-72.11 Z-4.889 I-0.121 J0.108
X-250.008 Y-72.325 Z-4.95 I0.121 J-0.108
X-250.251 Y-72.11 Z-5.011 I-0.121 J0.108
X-250.008 Y-72.325 Z-5.072 I0.121 J-0.108
X-250.251 Y-72.11 Z-5.133 I-0.121 J0.108
X-250.008 Y-72.325 Z-5.194 I0.121 J-0.108
X-250.251 Y-72.11 Z-5.256 I-0.121 J0.108
X-250.008 Y-72.325 Z-5.317 I0.121 J-0.108
X-250.251 Y-72.11 Z-5.378 I-0.121 J0.108
X-250.008 Y-72.325 Z-5.439 I0.121 J-0.108
X-250.251 Y-72.11 Z-5.5 I-0.121 J0.108
X-250.008 Y-72.325 Z-5.561 I0.121 J-0.108
X-250.251 Y-72.11 Z-5.622 I-0.121 J0.108
X-250.008 Y-72.325 Z-5.683 I0.121 J-0.108
X-250.251 Y-72.11 Z-5.744 I-0.121 J0.108
X-250.008 Y-72.325 Z-5.806 I0.121 J-0.108
X-250.251 Y-72.11 Z-5.867 I-0.121 J0.108
X-250.008 Y-72.325 Z-5.928 I0.121 J-0.108
X-250.251 Y-72.11 Z-5.989 I-0.121 J0.108
X-250.008 Y-72.325 Z-6.05 I0.121 J-0.108
X-250.251 Y-72.11 Z-6.111 I-0.121 J0.108
X-250.008 Y-72.325 Z-6.172 I0.121 J-0.108
X-250.251 Y-72.11 Z-6.233 I-0.121 J0.108
X-250.008 Y-72.325 Z-6.294 I0.121 J-0.108
X-250.251 Y-72.11 Z-6.356 I-0.121 J0.108
X-250.008 Y-72.325 Z-6.417 I0.121 J-0.108
X-250.251 Y-72.11 Z-6.478 I-0.121 J0.108
X-250.008 Y-72.325 Z-6.539 I0.121 J-0.108
X-250.251 Y-72.11 Z-6.6 I-0.121 J0.108
X-250.008 Y-72.325 Z-6.661 I0.121 J-0.108
X-250.251 Y-72.11 Z-6.722 I-0.121 J0.108
X-250.008 Y-72.325 Z-6.783 I0.121 J-0.108
X-250.251 Y-72.11 Z-6.844 I-0.121 J0.108
X-250.008 Y-72.325 Z-6.906 I0.121 J-0.108
X-250.251 Y-72.11 Z-6.967 I-0.121 J0.108
X-250.008 Y-72.325 Z-7.028 I0.121 J-0.108
X-250.251 Y-72.11 Z-7.089 I-0.121 J0.108
X-250.008 Y-72.325 Z-7.15 I0.121 J-0.108
X-250.251 Y-72.11 Z-7.211 I-0.121 J0.108
X-250.008 Y-72.325 Z-7.272 I0.121 J-0.108
X-250.251 Y-72.11 Z-7.333 I-0.121 J0.108
X-250.008 Y-72.325 Z-7.394 I0.121 J-0.108
X-250.251 Y-72.11 Z-7.456 I-0.121 J0.108
X-250.008 Y-72.325 Z-7.517 I0.121 J-0.108
X-250.251 Y-72.11 Z-7.578 I-0.121 J0.108
X-250.008 Y-72.325 Z-7.639 I0.121 J-0.108
X-250.251 Y-72.11 Z-7.7 I-0.121 J0.108
X-250.008 Y-72.325 Z-7.761 I0.121 J-0.108
X-250.251 Y-72.11 Z-7.822 I-0.121 J0.108
X-250.008 Y-72.325 Z-7.883 I0.121 J-0.108
X-250.251 Y-72.11 Z-7.944 I-0.121 J0.108
X-250.008 Y-72.325 Z-8.006 I0.121 J-0.108
X-250.251 Y-72.11 Z-8.067 I-0.121 J0.108
X-250.008 Y-72.325 Z-8.128 I0.121 J-0.108
X-250.251 Y-72.11 Z-8.189 I-0.121 J0.108
X-250.008 Y-72.325 Z-8.25 I0.121 J-0.108
X-250.173 Y-72.061 Z-8.3 I-0.121 J0.108
X-250.086 Y-72.374 I0.044 J-0.157
X-250.173 Y-72.061 I-0.044 J0.157
G1 X-250.202 Y-72.075
X-250.222 Y-72.099
X-250.232 Y-72.129
X-250.23 Y-72.161
X-250.187 Y-72.314
Z5
X-228.629 Y-70.905
Z2
Z0.317
X-228.635 Y-70.9 Z0.247
X-228.653 Y-70.884 Z0.18
X-228.681 Y-70.859 Z0.12
X-228.719 Y-70.826 Z0.069
X-228.764 Y-70.786 Z0.031
X-228.814 Y-70.741 Z0.008
X-228.867 Y-70.694 Z0
X-228.985 Y-70.589
G3 X-229.433 Y-70.615 I-0.211 J-0.237
X-225.826 Y-73.82 Z-0.14 I1.804 J-1.602
X-229.433 Y-70.615 Z-0.279 I-1.804 J1.602
X-225.826 Y-73.82 Z-0.419 I1.804 J-1.602
X-229.433 Y-70.615 Z-0.559 I-1.804 J1.602
X-225.826 Y-73.82 Z-0.698 I1.804 J-1.602
X-229.433 Y-70.615 Z-0.838 I-1.804 J1.602
X-225.826 Y-73.82 Z-0.978 I1.804 J-1.602
X-229.433 Y-70.615 Z-1.117 I-1.804 J1.602
X-225.826 Y-73.82 Z-1.257 I1.804 J-1.602
X-229.433 Y-70.615 Z-1.397 I-1.804 J1.602
X-225.826 Y-73.82 Z-1.537 I1.804 J-1.602
X-229.433 Y-70.615 Z-1.676 I-1.804 J1.602
X-225.826 Y-73.82 Z-1.816 I1.804 J-1.602
X-229.433 Y-70.615 Z-1.956 I-1.804 J1.602
X-225.826 Y-73.82 Z-2.095 I1.804 J-1.602
X-229.433 Y-70.615 Z-2.235 I-1.804 J1.602
X-225.826 Y-73.82 Z-2.375 I1.804 J-1.602
X-229.433 Y-70.615 Z-2.514 I-1.804 J1.602
X-225.826 Y-73.82 Z-2.654 I1.804 J-1.602
X-229.433 Y-70.615 Z-2.794 I-1.804 J1.602
X-225.826 Y-73.82 Z-2.933 I1.804 J-1.602
X-229.433 Y-70.615 Z-3.073 I-1.804 J1.602
X-225.826 Y-73.82 Z-3.213 I1.804 J-1.602
X-229.433 Y-70.615 Z-3.352 I-1.804 J1.602
X-225.826 Y-73.82 Z-3.492 I1.804 J-1.602
X-229.433 Y-70.615 Z-3.632 I-1.804 J1.602
X-225.826 Y-73.82 Z-3.771 I1.804 J-1.602
X-229.433 Y-70.615 Z-3.911 I-1.804 J1.602
X-225.826 Y-73.82 Z-4.051 I1.804 J-1.602
X-229.433 Y-70.615 Z-4.19 I-1.804 J1.602
X-225.826 Y-73.82 Z-4.33 I1.804 J-1.602
X-229.433 Y-70.615 Z-4.47 I-1.804 J1.602
X-225.826 Y-73.82 Z-4.61 I1.804 J-1.602
X-229.433 Y-70.615 Z-4.749 I-1.804 J1.602
X-225.826 Y-73.82 Z-4.889 I1.804 J-1.602
X-229.433 Y-70.615 Z-5.029 I-1.804 J1.602
X-225.826 Y-73.82 Z-5.168 I1.804 J-1.602
X-229.433 Y-70.615 Z-5.308 I-1.804 J1.602
X-225.826 Y-73.82 Z-5.448 I1.804 J-1.602
X-229.433 Y-70.615 Z-5.587 I-1.804 J1.602
X-225.826 Y-73.82 Z-5.727 I1.804 J-1.602
X-229.433 Y-70.615 Z-5.867 I-1.804 J1.602
X-225.826 Y-73.82 Z-6.006 I1.804 J-1.602
X-229.433 Y-70.615 Z-6.146 I-1.804 J1.602
X-225.826 Y-73.82 Z-6.286 I1.804 J-1.602
X-229.433 Y-70.615 Z-6.425 I-1.804 J1.602
X-225.826 Y-73.82 Z-6.565 I1.804 J-1.602
X-229.433 Y-70.615 Z-6.705 I-1.804 J1.602
X-225.826 Y-73.82 Z-6.844 I1.804 J-1.602
X-229.433 Y-70.615 Z-6.984 I-1.804 J1.602
X-225.826 Y-73.82 Z-7.124 I1.804 J-1.602
X-229.433 Y-70.615 Z-7.264 I-1.804 J1.602
X-225.826 Y-73.82 Z-7.403 I1.804 J-1.602
X-229.433 Y-70.615 Z-7.543 I-1.804 J1.602
X-225.826 Y-73.82 Z-7.683 I1.804 J-1.602
X-229.433 Y-70.615 Z-7.822 I-1.804 J1.602
X-225.826 Y-73.82 Z-7.962 I1.804 J-1.602
X-229.433 Y-70.615 Z-8.102 I-1.804 J1.602
X-225.826 Y-73.82 Z-8.241 I1.804 J-1.602
X-225.63 Y-70.868 Z-8.3 I-1.804 J1.602
X-229.629 Y-73.567 I-2 J-1.35
X-225.63 Y-70.868 I2 J1.35
X-226.071 Y-70.782 I-0.263 J-0.178
G1 X-226.203 Y-70.871
X-226.261 Y-70.911 Z-8.292
X-226.317 Y-70.948 Z-8.269
X-226.367 Y-70.982 Z-8.231
X-226.408 Y-71.01 Z-8.18
X-226.44 Y-71.031 Z-8.12
X-226.459 Y-71.044 Z-8.053
X-226.466 Y-71.049 Z-7.983
Z5
X-205.018 Y-72.208
Z1.683
Z0
X-205.137 Y-72.103
X-205.164 Y-72.087
X-205.195 Y-72.082
X-205.226 Y-72.09
X-205.251 Y-72.11
G3 X-205.008 Y-72.325 Z-0.061 I0.121 J-0.108
X-205.251 Y-72.11 Z-0.122 I-0.121 J0.108
X-205.008 Y-72.325 Z-0.183 I0.121 J-0.108
X-205.251 Y-72.11 Z-0.244 I-0.121 J0.108
X-205.008 Y-72.325 Z-0.306 I0.121 J-0.108
X-205.251 Y-72.11 Z-0.367 I-0.121 J0.108
X-205.008 Y-72.325 Z-0.428 I0.121 J-0.108
X-205.251 Y-72.11 Z-0.489 I-0.121 J0.108
X-205.008 Y-72.325 Z-0.55 I0.121 J-0.108
X-205.251 Y-72.11 Z-0.611 I-0.121 J0.108
X-205.008 Y-72.325 Z-0.672 I0.121 J-0.108
X-205.251 Y-72.11 Z-0.733 I-0.121 J0.108
X-205.008 Y-72.325 Z-0.794 I0.121 J-0.108
X-205.251 Y-72.11 Z-0.856 I-0.121 J0.108
X-205.008 Y-72.325 Z-0.917 I0.121 J-0.108
X-205.251 Y-72.11 Z-0.978 I-0.121 J0.108
X-205.008 Y-72.325 Z-1.039 I0.121 J-0.108
X-205.251 Y-72.11 Z-1.1 I-0.121 J0.108
X-205.008 Y-72.325 Z-1.161 I0.121 J-0.108
X-205.251 Y-72.11 Z-1.222 I-0.121 J0.108
X-205.008 Y-72.325 Z-1.283 I0.121 J-0.108
X-205.251 Y-72.11 Z-1.344 I-0.121 J0.108
X-205.008 Y-72.325 Z-1.406 I0.121 J-0.108
X-205.251 Y-72.11 Z-1.467 I-0.121 J0.108
X-205.008 Y-72.325 Z-1.528 I0.121 J-0.108
X-205.251 Y-72.11 Z-1.589 I-0.121 J0.108
X-205.008 Y-72.325 Z-1.65 I0.121 J-0.108
X-205.251 Y-72.11 Z-1.711 I-0.121 J0.108
X-205.008 Y-72.325 Z-1.772 I0.121 J-0.108
X-205.251 Y-72.11 Z-1.833 I-0.121 J0.108
X-205.008 Y-72.325 Z-1.894 I0.121 J-0.108
X-205.251 Y-72.11 Z-1.956 I-0.121 J0.108
X-205.008 Y-72.325 Z-2.017 I0.121 J-0.108
X-205.251 Y-72.11 Z-2.078 I-0.121 J0.108
X-205.008 Y-72.325 Z-2.139 I0.121 J-0.108
X-205.251 Y-72.11 Z-2.2 I-0.121 J0.108
X-205.008 Y-72.325 Z-2.261 I0.121 J-0.108
X-205.251 Y-72.11 Z-2.322 I-0.121 J0.108
X-205.008 Y-72.325 Z-2.383 I0.121 J-0.108
X-205.251 Y-72.11 Z-2.444 I-0.121 J0.108
X-205.008 Y-72.325 Z-2.506 I0.121 J-0.108
X-205.251 Y-72.11 Z-2.567 I-0.121 J0.108
X-205.008 Y-72.325 Z-2.628 I0.121 J-0.108
X-205.251 Y-72.11 Z-2.689 I-0.121 J0.108
X-205.008 Y-72.325 Z-2.75 I0.121 J-0.108
X-205.251 Y-72.11 Z-2.811 I-0.121 J0.108
X-205.008 Y-72.325 Z-2.872 I0.121 J-0.108
X-205.251 Y-72.11 Z-2.933 I-0.121 J0.108
X-205.008 Y-72.325 Z-2.994 I0.121 J-0.108
X-205.251 Y-72.11 Z-3.056 I-0.121 J0.108
X-205.008 Y-72.325 Z-3.117 I0.121 J-0.108
X-205.251 Y-72.11 Z-3.178 I-0.121 J0.108
X-205.008 Y-72.325 Z-3.239 I0.121 J-0.108
X-205.251 Y-72.11 Z-3.3 I-0.121 J0.108
X-205.008 Y-72.325 Z-3.361 I0.121 J-0.108
X-205.251 Y-72.11 Z-3.422 I-0.121 J0.108
X-205.008 Y-72.325 Z-3.483 I0.121 J-0.108
X-205.251 Y-72.11 Z-3.544 I-0.121 J0.108
X-205.008 Y-72.325 Z-3.606 I0.121 J-0.108
X-205.251 Y-72.11 Z-3.667 I-0.121 J0.108
X-205.008 Y-72.325 Z-3.728 I0.121 J-0.108
X-205.251 Y-72.11 Z-3.789 I-0.121 J0.108
X-205.008 Y-72.325 Z-3.85 I0.121 J-0.108
X-205.251 Y-72.11 Z-3.911 I-0.121 J0.108
X-205.008 Y-72.325 Z-3.972 I0.121 J-0.108
X-205.251 Y-72.11 Z-4.033 I-0.121 J0.108
X-205.008 Y-72.325 Z-4.094 I0.121 J-0.108
X-205.251 Y-72.11 Z-4.156 I-0.121 J0.108
X-205.008 Y-72.325 Z-4.217 I0.121 J-0.108
X-205.251 Y-72.11 Z-4.278 I-0.121 J0.108
X-205.008 Y-72.325 Z-4.339 I0.121 J-0.108
X-205.251 Y-72.11 Z-4.4 I-0.121 J0.108
X-205.008 Y-72.325 Z-4.461 I0.121 J-0.108
X-205.251 Y-72.11 Z-4.522 I-0.121 J0.108
X-205.008 Y-72.325 Z-4.583 I0.121 J-0.108
X-205.251 Y-72.11 Z-4.644 I-0.121 J0.108
X-205.008 Y-72.325 Z-4.706 I0.121 J-0.108
X-205.251 Y-72.11 Z-4.767 I-0.121 J0.108
X-205.008 Y-72.325 Z-4.828 I0.121 J-0.108
X-205.251 Y-72.11 Z-4.889 I-0.121 J0.108
X-205.008 Y-72.325 Z-4.95 I0.121 J-0.108
X-205.251 Y-72.11 Z-5.011 I-0.121 J0.108
X-205.008 Y-72.325 Z-5.072 I0.121 J-0.108
X-205.251 Y-72.11 Z-5.133 I-0.121 J0.108
X-205.008 Y-72.325 Z-5.194 I0.121 J-0.108
X-205.251 Y-72.11 Z-5.256 I-0.121 J0.108
X-205.008 Y-72.325 Z-5.317 I0.121 J-0.108
X-205.251 Y-72.11 Z-5.378 I-0.121 J0.108
X-205.008 Y-72.325 Z-5.439 I0.121 J-0.108
X-205.251 Y-72.11 Z-5.5 I-0.121 J0.108
X-205.008 Y-72.325 Z-5.561 I0.121 J-0.108
X-205.251 Y-72.11 Z-5.622 I-0.121 J0.108
X-205.008 Y-72.325 Z-5.683 I0.121 J-0.108
X-205.251 Y-72.11 Z-5.744 I-0.121 J0.108
X-205.008 Y-72.325 Z-5.806 I0.121 J-0.108
X-205.251 Y-72.11 Z-5.867 I-0.121 J0.108
X-205.008 Y-72.325 Z-5.928 I0.121 J-0.108
X-205.251 Y-72.11 Z-5.989 I-0.121 J0.108
X-205.008 Y-72.325 Z-6.05 I0.121 J-0.108
X-205.251 Y-72.11 Z-6.111 I-0.121 J0.108
X-205.008 Y-72.325 Z-6.172 I0.121 J-0.108
X-205.251 Y-72.11 Z-6.233 I-0.121 J0.108
X-205.008 Y-72.325 Z-6.294 I0.121 J-0.108
X-205.251 Y-72.11 Z-6.356 I-0.121 J0.108
X-205.008 Y-72.325 Z-6.417 I0.121 J-0.108
X-205.251 Y-72.11 Z-6.478 I-0.121 J0.108
X-205.008 Y-72.325 Z-6.539 I0.121 J-0.108
X-205.251 Y-72.11 Z-6.6 I-0.121 J0.108
X-205.008 Y-72.325 Z-6.661 I0.121 J-0.108
X-205.251 Y-72.11 Z-6.722 I-0.121 J0.108
X-205.008 Y-72.325 Z-6.783 I0.121 J-0.108
X-205.251 Y-72.11 Z-6.844 I-0.121 J0.108
X-205.008 Y-72.325 Z-6.906 I0.121 J-0.108
X-205.251 Y-72.11 Z-6.967 I-0.121 J0.108
X-205.008 Y-72.325 Z-7.028 I0.121 J-0.108
X-205.251 Y-72.11 Z-7.089 I-0.121 J0.108
X-205.008 Y-72.325 Z-7.15 I0.121 J-0.108
X-205.251 Y-72.11 Z-7.211 I-0.121 J0.108
X-205.008 Y-72.325 Z-7.272 I0.121 J-0.108
X-205.251 Y-72.11 Z-7.333 I-0.121 J0.108
X-205.008 Y-72.325 Z-7.394 I0.121 J-0.108
X-205.251 Y-72.11 Z-7.456 I-0.121 J0.108
X-205.008 Y-72.325 Z-7.517 I0.121 J-0.108
X-205.251 Y-72.11 Z-7.578 I-0.121 J0.108
X-205.008 Y-72.325 Z-7.639 I0.121 J-0.108
X-205.251 Y-72.11 Z-7.7 I-0.121 J0.108
X-205.008 Y-72.325 Z-7.761 I0.121 J-0.108
X-205.251 Y-72.11 Z-7.822 I-0.121 J0.108
X-205.008 Y-72.325 Z-7.883 I0.121 J-0.108
X-205.251 Y-72.11 Z-7.944 I-0.121 J0.108
X-205.008 Y-72.325 Z-8.006 I0.121 J-0.108
X-205.251 Y-72.11 Z-8.067 I-0.121 J0.108
X-205.008 Y-72.325 Z-8.128 I0.121 J-0.108
X-205.251 Y-72.11 Z-8.189 I-0.121 J0.108
X-205.008 Y-72.325 Z-8.25 I0.121 J-0.108
X-205.173 Y-72.061 Z-8.3 I-0.121 J0.108
X-205.086 Y-72.374 I0.044 J-0.157
X-205.173 Y-72.061 I-0.044 J0.157
G1 X-205.202 Y-72.075
X-205.222 Y-72.099
X-205.232 Y-72.129
X-205.23 Y-72.161
X-205.187 Y-72.314
Z5
X-210.48 Y-99.329
Z1.683
Z0
X-210.355 Y-99.232
X-210.334 Y-99.208
X-210.324 Y-99.178
X-210.326 Y-99.146
X-210.34 Y-99.118
G3 X-210.597 Y-99.317 Z-0.061 I-0.128 J-0.1
X-210.34 Y-99.118 Z-0.122 I0.128 J0.1
X-210.597 Y-99.317 Z-0.183 I-0.128 J-0.1
X-210.34 Y-99.118 Z-0.244 I0.128 J0.1
X-210.597 Y-99.317 Z-0.306 I-0.128 J-0.1
X-210.34 Y-99.118 Z-0.367 I0.128 J0.1
X-210.597 Y-99.317 Z-0.428 I-0.128 J-0.1
X-210.34 Y-99.118 Z-0.489 I0.128 J0.1
X-210.597 Y-99.317 Z-0.55 I-0.128 J-0.1
X-210.34 Y-99.118 Z-0.611 I0.128 J0.1
X-210.597 Y-99.317 Z-0.672 I-0.128 J-0.1
X-210.34 Y-99.118 Z-0.733 I0.128 J0.1
X-210.597 Y-99.317 Z-0.794 I-0.128 J-0.1
X-210.34 Y-99.118 Z-0.856 I0.128 J0.1
X-210.597 Y-99.317 Z-0.917 I-0.128 J-0.1
X-210.34 Y-99.118 Z-0.978 I0.128 J0.1
X-210.597 Y-99.317 Z-1.039 I-0.128 J-0.1
X-210.34 Y-99.118 Z-1.1 I0.128 J0.1
X-210.597 Y-99.317 Z-1.161 I-0.128 J-0.1
X-210.34 Y-99.118 Z-1.222 I0.128 J0.1
X-210.597 Y-99.317 Z-1.283 I-0.128 J-0.1
X-210.34 Y-99.118 Z-1.344 I0.128 J0.1
X-210.597 Y-99.317 Z-1.406 I-0.128 J-0.1
X-210.34 Y-99.118 Z-1.467 I0.128 J0.1
X-210.597 Y-99.317 Z-1.528 I-0.128 J-0.1
X-210.34 Y-99.118 Z-1.589 I0.128 J0.1
X-210.597 Y-99.317 Z-1.65 I-0.128 J-0.1
X-210.34 Y-99.118 Z-1.711 I0.128 J0.1
X-210.597 Y-99.317 Z-1.772 I-0.128 J-0.1
X-210.34 Y-99.118 Z-1.833 I0.128 J0.1
X-210.597 Y-99.317 Z-1.894 I-0.128 J-0.1
X-210.34 Y-99.118 Z-1.956 I0.128 J0.1
X-210.597 Y-99.317 Z-2.017 I-0.128 J-0.1
X-210.34 Y-99.118 Z-2.078 I0.128 J0.1
X-210.597 Y-99.317 Z-2.139 I-0.128 J-0.1
X-210.34 Y-99.118 Z-2.2 I0.128 J0.1
X-210.597 Y-99.317 Z-2.261 I-0.128 J-0.1
X-210.34 Y-99.118 Z-2.322 I0.128 J0.1
X-210.597 Y-99.317 Z-2.383 I-0.128 J-0.1
X-210.34 Y-99.118 Z-2.444 I0.128 J0.1
X-210.597 Y-99.317 Z-2.506 I-0.128 J-0.1
X-210.34 Y-99.118 Z-2.567 I0.128 J0.1
X-210.597 Y-99.317 Z-2.628 I-0.128 J-0.1
X-210.34 Y-99.118 Z-2.689 I0.128 J0.1
X-210.597 Y-99.317 Z-2.75 I-0.128 J-0.1
X-210.34 Y-99.118 Z-2.811 I0.128 J0.1
X-210.597 Y-99.317 Z-2.872 I-0.128 J-0.1
X-210.34 Y-99.118 Z-2.933 I0.128 J0.1
X-210.597 Y-99.317 Z-2.994 I-0.128 J-0.1
X-210.34 Y-99.118 Z-3.056 I0.128 J0.1
X-210.597 Y-99.317 Z-3.117 I-0.128 J-0.1
X-210.34 Y-99.118 Z-3.178 I0.128 J0.1
X-210.597 Y-99.317 Z-3.239 I-0.128 J-0.1
X-210.34 Y-99.118 Z-3.3 I0.128 J0.1
X-210.597 Y-99.317 Z-3.361 I-0.128 J-0.1
X-210.34 Y-99.118 Z-3.422 I0.128 J0.1
X-210.597 Y-99.317 Z-3.483 I-0.128 J-0.1
X-210.34 Y-99.118 Z-3.544 I0.128 J0.1
X-210.597 Y-99.317 Z-3.606 I-0.128 J-0.1
X-210.34 Y-99.118 Z-3.667 I0.128 J0.1
X-210.597 Y-99.317 Z-3.728 I-0.128 J-0.1
X-210.34 Y-99.118 Z-3.789 I0.128 J0.1
X-210.597 Y-99.317 Z-3.85 I-0.128 J-0.1
X-210.34 Y-99.118 Z-3.911 I0.128 J0.1
X-210.597 Y-99.317 Z-3.972 I-0.128 J-0.1
X-210.34 Y-99.118 Z-4.033 I0.128 J0.1
X-210.597 Y-99.317 Z-4.094 I-0.128 J-0.1
X-210.34 Y-99.118 Z-4.156 I0.128 J0.1
X-210.597 Y-99.317 Z-4.217 I-0.128 J-0.1
X-210.34 Y-99.118 Z-4.278 I0.128 J0.1
X-210.597 Y-99.317 Z-4.339 I-0.128 J-0.1
X-210.34 Y-99.118 Z-4.4 I0.128 J0.1
X-210.597 Y-99.317 Z-4.461 I-0.128 J-0.1
X-210.34 Y-99.118 Z-4.522 I0.128 J0.1
X-210.597 Y-99.317 Z-4.583 I-0.128 J-0.1
X-210.34 Y-99.118 Z-4.644 I0.128 J0.1
X-210.597 Y-99.317 Z-4.706 I-0.128 J-0.1
X-210.34 Y-99.118 Z-4.767 I0.128 J0.1
X-210.597 Y-99.317 Z-4.828 I-0.128 J-0.1
X-210.34 Y-99.118 Z-4.889 I0.128 J0.1
X-210.597 Y-99.317 Z-4.95 I-0.128 J-0.1
X-210.34 Y-99.118 Z-5.011 I0.128 J0.1
X-210.597 Y-99.317 Z-5.072 I-0.128 J-0.1
X-210.34 Y-99.118 Z-5.133 I0.128 J0.1
X-210.597 Y-99.317 Z-5.194 I-0.128 J-0.1
X-210.34 Y-99.118 Z-5.256 I0.128 J0.1
X-210.597 Y-99.317 Z-5.317 I-0.128 J-0.1
X-210.34 Y-99.118 Z-5.378 I0.128 J0.1
X-210.597 Y-99.317 Z-5.439 I-0.128 J-0.1
X-210.34 Y-99.118 Z-5.5 I0.128 J0.1
X-210.597 Y-99.317 Z-5.561 I-0.128 J-0.1
X-210.34 Y-99.118 Z-5.622 I0.128 J0.1
X-210.597 Y-99.317 Z-5.683 I-0.128 J-0.1
X-210.34 Y-99.118 Z-5.744 I0.128 J0.1
X-210.597 Y-99.317 Z-5.806 I-0.128 J-0.1
X-210.34 Y-99.118 Z-5.867 I0.128 J0.1
X-210.597 Y-99.317 Z-5.928 I-0.128 J-0.1
X-210.34 Y-99.118 Z-5.989 I0.128 J0.1
X-210.597 Y-99.317 Z-6.05 I-0.128 J-0.1
X-210.34 Y-99.118 Z-6.111 I0.128 J0.1
X-210.597 Y-99.317 Z-6.172 I-0.128 J-0.1
X-210.34 Y-99.118 Z-6.233 I0.128 J0.1
X-210.597 Y-99.317 Z-6.294 I-0.128 J-0.1
X-210.34 Y-99.118 Z-6.356 I0.128 J0.1
X-210.597 Y-99.317 Z-6.417 I-0.128 J-0.1
X-210.34 Y-99.118 Z-6.478 I0.128 J0.1
X-210.597 Y-99.317 Z-6.539 I-0.128 J-0.1
X-210.34 Y-99.118 Z-6.6 I0.128 J0.1
X-210.597 Y-99.317 Z-6.661 I-0.128 J-0.1
X-210.34 Y-99.118 Z-6.722 I0.128 J0.1
X-210.597 Y-99.317 Z-6.783 I-0.128 J-0.1
X-210.34 Y-99.118 Z-6.844 I0.128 J0.1
X-210.597 Y-99.317 Z-6.906 I-0.128 J-0.1
X-210.34 Y-99.118 Z-6.967 I0.128 J0.1
X-210.597 Y-99.317 Z-7.028 I-0.128 J-0.1
X-210.34 Y-99.118 Z-7.089 I0.128 J0.1
X-210.597 Y-99.317 Z-7.15 I-0.128 J-0.1
X-210.34 Y-99.118 Z-7.211 I0.128 J0.1
X-210.597 Y-99.317 Z-7.272 I-0.128 J-0.1
X-210.34 Y-99.118 Z-7.333 I0.128 J0.1
X-210.597 Y-99.317 Z-7.394 I-0.128 J-0.1
X-210.34 Y-99.118 Z-7.456 I0.128 J0.1
X-210.597 Y-99.317 Z-7.517 I-0.128 J-0.1
X-210.34 Y-99.118 Z-7.578 I0.128 J0.1
X-210.597 Y-99.317 Z-7.639 I-0.128 J-0.1
X-210.34 Y-99.118 Z-7.7 I0.128 J0.1
X-210.597 Y-99.317 Z-7.761 I-0.128 J-0.1
X-210.34 Y-99.118 Z-7.822 I0.128 J0.1
X-210.597 Y-99.317 Z-7.883 I-0.128 J-0.1
X-210.34 Y-99.118 Z-7.944 I0.128 J0.1
X-210.597 Y-99.317 Z-8.006 I-0.128 J-0.1
X-210.34 Y-99.118 Z-8.067 I0.128 J0.1
X-210.597 Y-99.317 Z-8.128 I-0.128 J-0.1
X-210.34 Y-99.118 Z-8.189 I0.128 J0.1
X-210.597 Y-99.317 Z-8.25 I-0.128 J-0.1
X-210.307 Y-99.203 Z-8.3 I0.128 J0.1
X-210.631 Y-99.232 I-0.162 J-0.014
X-210.307 Y-99.203 I0.162 J0.014
G1 X-210.316 Y-99.173
X-210.336 Y-99.148
X-210.363 Y-99.133
X-210.395 Y-99.129
X-210.553 Y-99.143
Z5
X-239.734 Y-102.016
Z1.683
Z0
X-239.609 Y-101.918
X-239.588 Y-101.894
X-239.578 Y-101.864
X-239.581 Y-101.833
X-239.595 Y-101.804
G3 X-239.851 Y-102.004 Z-0.061 I-0.128 J-0.1
X-239.595 Y-101.804 Z-0.122 I0.128 J0.1
X-239.851 Y-102.004 Z-0.183 I-0.128 J-0.1
X-239.595 Y-101.804 Z-0.244 I0.128 J0.1
X-239.851 Y-102.004 Z-0.306 I-0.128 J-0.1
X-239.595 Y-101.804 Z-0.367 I0.128 J0.1
X-239.851 Y-102.004 Z-0.428 I-0.128 J-0.1
X-239.595 Y-101.804 Z-0.489 I0.128 J0.1
X-239.851 Y-102.004 Z-0.55 I-0.128 J-0.1
X-239.595 Y-101.804 Z-0.611 I0.128 J0.1
X-239.851 Y-102.004 Z-0.672 I-0.128 J-0.1
X-239.595 Y-101.804 Z-0.733 I0.128 J0.1
X-239.851 Y-102.004 Z-0.794 I-0.128 J-0.1
X-239.595 Y-101.804 Z-0.856 I0.128 J0.1
X-239.851 Y-102.004 Z-0.917 I-0.128 J-0.1
X-239.595 Y-101.804 Z-0.978 I0.128 J0.1
X-239.851 Y-102.004 Z-1.039 I-0.128 J-0.1
X-239.595 Y-101.804 Z-1.1 I0.128 J0.1
X-239.851 Y-102.004 Z-1.161 I-0.128 J-0.1
X-239.595 Y-101.804 Z-1.222 I0.128 J0.1
X-239.851 Y-102.004 Z-1.283 I-0.128 J-0.1
X-239.595 Y-101.804 Z-1.344 I0.128 J0.1
X-239.851 Y-102.004 Z-1.406 I-0.128 J-0.1
X-239.595 Y-101.804 Z-1.467 I0.128 J0.1
X-239.851 Y-102.004 Z-1.528 I-0.128 J-0.1
