(Arme)
(Bearbeiten)
(  Hersteller: ChinaCnc)
(  model: 3040T)
(  description: Generic 3-axis)
(T5 D=3.175 CR=0 - ZMIN=-8.3 - Schaftfrser)
G90 G94
G17
G21
(-Attention- Property Safe Retracts is set to Clearance Height.)
(Ensure the clearance height will clear the part and or fixtures.)
(Raise the Z-axis to a safe height before starting the program.)
(When using Fusion 360 for Personal Use, the feedrate of)
(rapid moves is reduced to match the feedrate of cutting)
(moves, which can increase machining time. Unrestricted rapid)
(moves are available with a Fusion 360 Subscription.)

(Bohrfrsen1)
M0
(MANUAL TOOL CHANGE TO T5)
S4000 M3
G17 G90 G94
G54
G0 X-65.046 Y-124.311
Z15
G1 Z1.683 F1000
Z0
X-65.166 Y-124.208
X-65.194 Y-124.192
X-65.225 Y-124.188
X-65.256 Y-124.197
X-65.281 Y-124.217
G3 X-65.034 Y-124.428 Z-0.061 I0.123 J-0.106
X-65.281 Y-124.217 Z-0.122 I-0.123 J0.106
X-65.034 Y-124.428 Z-0.183 I0.123 J-0.106
X-65.281 Y-124.217 Z-0.244 I-0.123 J0.106
X-65.034 Y-124.428 Z-0.306 I0.123 J-0.106
X-65.281 Y-124.217 Z-0.367 I-0.123 J0.106
X-65.034 Y-124.428 Z-0.428 I0.123 J-0.106
X-65.281 Y-124.217 Z-0.489 I-0.123 J0.106
X-65.034 Y-124.428 Z-0.55 I0.123 J-0.106
X-65.281 Y-124.217 Z-0.611 I-0.123 J0.106
X-65.034 Y-124.428 Z-0.672 I0.123 J-0.106
X-65.281 Y-124.217 Z-0.733 I-0.123 J0.106
X-65.034 Y-124.428 Z-0.794 I0.123 J-0.106
X-65.281 Y-124.217 Z-0.856 I-0.123 J0.106
X-65.034 Y-124.428 Z-0.917 I0.123 J-0.106
X-65.281 Y-124.217 Z-0.978 I-0.123 J0.106
X-65.034 Y-124.428 Z-1.039 I0.123 J-0.106
X-65.281 Y-124.217 Z-1.1 I-0.123 J0.106
X-65.034 Y-124.428 Z-1.161 I0.123 J-0.106
X-65.281 Y-124.217 Z-1.222 I-0.123 J0.106
X-65.034 Y-124.428 Z-1.283 I0.123 J-0.106
X-65.281 Y-124.217 Z-1.344 I-0.123 J0.106
X-65.034 Y-124.428 Z-1.406 I0.123 J-0.106
X-65.281 Y-124.217 Z-1.467 I-0.123 J0.106
X-65.034 Y-124.428 Z-1.528 I0.123 J-0.106
X-65.281 Y-124.217 Z-1.589 I-0.123 J0.106
X-65.034 Y-124.428 Z-1.65 I0.123 J-0.106
X-65.281 Y-124.217 Z-1.711 I-0.123 J0.106
X-65.034 Y-124.428 Z-1.772 I0.123 J-0.106
X-65.281 Y-124.217 Z-1.833 I-0.123 J0.106
X-65.034 Y-124.428 Z-1.894 I0.123 J-0.106
X-65.281 Y-124.217 Z-1.956 I-0.123 J0.106
X-65.034 Y-124.428 Z-2.017 I0.123 J-0.106
X-65.281 Y-124.217 Z-2.078 I-0.123 J0.106
X-65.034 Y-124.428 Z-2.139 I0.123 J-0.106
X-65.281 Y-124.217 Z-2.2 I-0.123 J0.106
X-65.034 Y-124.428 Z-2.261 I0.123 J-0.106
X-65.281 Y-124.217 Z-2.322 I-0.123 J0.106
X-65.034 Y-124.428 Z-2.383 I0.123 J-0.106
X-65.281 Y-124.217 Z-2.444 I-0.123 J0.106
X-65.034 Y-124.428 Z-2.506 I0.123 J-0.106
X-65.281 Y-124.217 Z-2.567 I-0.123 J0.106
X-65.034 Y-124.428 Z-2.628 I0.123 J-0.106
X-65.281 Y-124.217 Z-2.689 I-0.123 J0.106
X-65.034 Y-124.428 Z-2.75 I0.123 J-0.106
X-65.281 Y-124.217 Z-2.811 I-0.123 J0.106
X-65.034 Y-124.428 Z-2.872 I0.123 J-0.106
X-65.281 Y-124.217 Z-2.933 I-0.123 J0.106
X-65.034 Y-124.428 Z-2.994 I0.123 J-0.106
X-65.281 Y-124.217 Z-3.056 I-0.123 J0.106
X-65.034 Y-124.428 Z-3.117 I0.123 J-0.106
X-65.281 Y-124.217 Z-3.178 I-0.123 J0.106
X-65.034 Y-124.428 Z-3.239 I0.123 J-0.106
X-65.281 Y-124.217 Z-3.3 I-0.123 J0.106
X-65.034 Y-124.428 Z-3.361 I0.123 J-0.106
X-65.281 Y-124.217 Z-3.422 I-0.123 J0.106
X-65.034 Y-124.428 Z-3.483 I0.123 J-0.106
X-65.281 Y-124.217 Z-3.544 I-0.123 J0.106
X-65.034 Y-124.428 Z-3.606 I0.123 J-0.106
X-65.281 Y-124.217 Z-3.667 I-0.123 J0.106
X-65.034 Y-124.428 Z-3.728 I0.123 J-0.106
X-65.281 Y-124.217 Z-3.789 I-0.123 J0.106
X-65.034 Y-124.428 Z-3.85 I0.123 J-0.106
X-65.281 Y-124.217 Z-3.911 I-0.123 J0.106
X-65.034 Y-124.428 Z-3.972 I0.123 J-0.106
X-65.281 Y-124.217 Z-4.033 I-0.123 J0.106
X-65.034 Y-124.428 Z-4.094 I0.123 J-0.106
X-65.281 Y-124.217 Z-4.156 I-0.123 J0.106
X-65.034 Y-124.428 Z-4.217 I0.123 J-0.106
X-65.281 Y-124.217 Z-4.278 I-0.123 J0.106
X-65.034 Y-124.428 Z-4.339 I0.123 J-0.106
X-65.281 Y-124.217 Z-4.4 I-0.123 J0.106
X-65.034 Y-124.428 Z-4.461 I0.123 J-0.106
X-65.281 Y-124.217 Z-4.522 I-0.123 J0.106
X-65.034 Y-124.428 Z-4.583 I0.123 J-0.106
X-65.281 Y-124.217 Z-4.644 I-0.123 J0.106
X-65.034 Y-124.428 Z-4.706 I0.123 J-0.106
X-65.281 Y-124.217 Z-4.767 I-0.123 J0.106
X-65.034 Y-124.428 Z-4.828 I0.123 J-0.106
X-65.281 Y-124.217 Z-4.889 I-0.123 J0.106
X-65.034 Y-124.428 Z-4.95 I0.123 J-0.106
X-65.281 Y-124.217 Z-5.011 I-0.123 J0.106
X-65.034 Y-124.428 Z-5.072 I0.123 J-0.106
X-65.281 Y-124.217 Z-5.133 I-0.123 J0.106
X-65.034 Y-124.428 Z-5.194 I0.123 J-0.106
X-65.281 Y-124.217 Z-5.256 I-0.123 J0.106
X-65.034 Y-124.428 Z-5.317 I0.123 J-0.106
X-65.281 Y-124.217 Z-5.378 I-0.123 J0.106
X-65.034 Y-124.428 Z-5.439 I0.123 J-0.106
X-65.281 Y-124.217 Z-5.5 I-0.123 J0.106
X-65.034 Y-124.428 Z-5.561 I0.123 J-0.106
X-65.281 Y-124.217 Z-5.622 I-0.123 J0.106
X-65.034 Y-124.428 Z-5.683 I0.123 J-0.106
X-65.281 Y-124.217 Z-5.744 I-0.123 J0.106
X-65.034 Y-124.428 Z-5.806 I0.123 J-0.106
X-65.281 Y-124.217 Z-5.867 I-0.123 J0.106
X-65.034 Y-124.428 Z-5.928 I0.123 J-0.106
X-65.281 Y-124.217 Z-5.989 I-0.123 J0.106
X-65.034 Y-124.428 Z-6.05 I0.123 J-0.106
X-65.281 Y-124.217 Z-6.111 I-0.123 J0.106
X-65.034 Y-124.428 Z-6.172 I0.123 J-0.106
X-65.281 Y-124.217 Z-6.233 I-0.123 J0.106
X-65.034 Y-124.428 Z-6.294 I0.123 J-0.106
X-65.281 Y-124.217 Z-6.356 I-0.123 J0.106
X-65.034 Y-124.428 Z-6.417 I0.123 J-0.106
X-65.281 Y-124.217 Z-6.478 I-0.123 J0.106
X-65.034 Y-124.428 Z-6.539 I0.123 J-0.106
X-65.281 Y-124.217 Z-6.6 I-0.123 J0.106
X-65.034 Y-124.428 Z-6.661 I0.123 J-0.106
X-65.281 Y-124.217 Z-6.722 I-0.123 J0.106
X-65.034 Y-124.428 Z-6.783 I0.123 J-0.106
X-65.281 Y-124.217 Z-6.844 I-0.123 J0.106
X-65.034 Y-124.428 Z-6.906 I0.123 J-0.106
X-65.281 Y-124.217 Z-6.967 I-0.123 J0.106
X-65.034 Y-124.428 Z-7.028 I0.123 J-0.106
X-65.281 Y-124.217 Z-7.089 I-0.123 J0.106
X-65.034 Y-124.428 Z-7.15 I0.123 J-0.106
X-65.281 Y-124.217 Z-7.211 I-0.123 J0.106
X-65.034 Y-124.428 Z-7.272 I0.123 J-0.106
X-65.281 Y-124.217 Z-7.333 I-0.123 J0.106
X-65.034 Y-124.428 Z-7.394 I0.123 J-0.106
X-65.281 Y-124.217 Z-7.456 I-0.123 J0.106
X-65.034 Y-124.428 Z-7.517 I0.123 J-0.106
X-65.281 Y-124.217 Z-7.578 I-0.123 J0.106
X-65.034 Y-124.428 Z-7.639 I0.123 J-0.106
X-65.281 Y-124.217 Z-7.7 I-0.123 J0.106
X-65.034 Y-124.428 Z-7.761 I0.123 J-0.106
X-65.281 Y-124.217 Z-7.822 I-0.123 J0.106
X-65.034 Y-124.428 Z-7.883 I0.123 J-0.106
X-65.281 Y-124.217 Z-7.944 I-0.123 J0.106
X-65.034 Y-124.428 Z-8.006 I0.123 J-0.106
X-65.281 Y-124.217 Z-8.067 I-0.123 J0.106
X-65.034 Y-124.428 Z-8.128 I0.123 J-0.106
X-65.281 Y-124.217 Z-8.189 I-0.123 J0.106
X-65.034 Y-124.428 Z-8.25 I0.123 J-0.106
X-65.204 Y-124.167 Z-8.3 I-0.123 J0.106
X-65.111 Y-124.478 I0.046 J-0.156
X-65.204 Y-124.167 I-0.046 J0.156
G1 X-65.232 Y-124.181
X-65.252 Y-124.206
X-65.261 Y-124.236
X-65.258 Y-124.268
X-65.213 Y-124.42
Z5
X-40.568 Y-126.089
Z1.683
Z0
X-40.688 Y-125.986
X-40.716 Y-125.97
X-40.748 Y-125.966
X-40.778 Y-125.975
X-40.803 Y-125.995
G3 X-40.556 Y-126.206 Z-0.061 I0.123 J-0.106
X-40.803 Y-125.995 Z-0.122 I-0.123 J0.106
X-40.556 Y-126.206 Z-0.183 I0.123 J-0.106
X-40.803 Y-125.995 Z-0.244 I-0.123 J0.106
X-40.556 Y-126.206 Z-0.306 I0.123 J-0.106
X-40.803 Y-125.995 Z-0.367 I-0.123 J0.106
X-40.556 Y-126.206 Z-0.428 I0.123 J-0.106
X-40.803 Y-125.995 Z-0.489 I-0.123 J0.106
X-40.556 Y-126.206 Z-0.55 I0.123 J-0.106
X-40.803 Y-125.995 Z-0.611 I-0.123 J0.106
X-40.556 Y-126.206 Z-0.672 I0.123 J-0.106
X-40.803 Y-125.995 Z-0.733 I-0.123 J0.106
X-40.556 Y-126.206 Z-0.794 I0.123 J-0.106
X-40.803 Y-125.995 Z-0.856 I-0.123 J0.106
X-40.556 Y-126.206 Z-0.917 I0.123 J-0.106
X-40.803 Y-125.995 Z-0.978 I-0.123 J0.106
X-40.556 Y-126.206 Z-1.039 I0.123 J-0.106
X-40.803 Y-125.995 Z-1.1 I-0.123 J0.106
X-40.556 Y-126.206 Z-1.161 I0.123 J-0.106
X-40.803 Y-125.995 Z-1.222 I-0.123 J0.106
X-40.556 Y-126.206 Z-1.283 I0.123 J-0.106
X-40.803 Y-125.995 Z-1.344 I-0.123 J0.106
X-40.556 Y-126.206 Z-1.406 I0.123 J-0.106
X-40.803 Y-125.995 Z-1.467 I-0.123 J0.106
X-40.556 Y-126.206 Z-1.528 I0.123 J-0.106
X-40.803 Y-125.995 Z-1.589 I-0.123 J0.106
X-40.556 Y-126.206 Z-1.65 I0.123 J-0.106
X-40.803 Y-125.995 Z-1.711 I-0.123 J0.106
X-40.556 Y-126.206 Z-1.772 I0.123 J-0.106
X-40.803 Y-125.995 Z-1.833 I-0.123 J0.106
X-40.556 Y-126.206 Z-1.894 I0.123 J-0.106
X-40.803 Y-125.995 Z-1.956 I-0.123 J0.106
X-40.556 Y-126.206 Z-2.017 I0.123 J-0.106
X-40.803 Y-125.995 Z-2.078 I-0.123 J0.106
X-40.556 Y-126.206 Z-2.139 I0.123 J-0.106
X-40.803 Y-125.995 Z-2.2 I-0.123 J0.106
X-40.556 Y-126.206 Z-2.261 I0.123 J-0.106
X-40.803 Y-125.995 Z-2.322 I-0.123 J0.106
X-40.556 Y-126.206 Z-2.383 I0.123 J-0.106
X-40.803 Y-125.995 Z-2.444 I-0.123 J0.106
X-40.556 Y-126.206 Z-2.506 I0.123 J-0.106
X-40.803 Y-125.995 Z-2.567 I-0.123 J0.106
X-40.556 Y-126.206 Z-2.628 I0.123 J-0.106
X-40.803 Y-125.995 Z-2.689 I-0.123 J0.106
X-40.556 Y-126.206 Z-2.75 I0.123 J-0.106
X-40.803 Y-125.995 Z-2.811 I-0.123 J0.106
X-40.556 Y-126.206 Z-2.872 I0.123 J-0.106
X-40.803 Y-125.995 Z-2.933 I-0.123 J0.106
X-40.556 Y-126.206 Z-2.994 I0.123 J-0.106
X-40.803 Y-125.995 Z-3.056 I-0.123 J0.106
X-40.556 Y-126.206 Z-3.117 I0.123 J-0.106
X-40.803 Y-125.995 Z-3.178 I-0.123 J0.106
X-40.556 Y-126.206 Z-3.239 I0.123 J-0.106
X-40.803 Y-125.995 Z-3.3 I-0.123 J0.106
X-40.556 Y-126.206 Z-3.361 I0.123 J-0.106
X-40.803 Y-125.995 Z-3.422 I-0.123 J0.106
X-40.556 Y-126.206 Z-3.483 I0.123 J-0.106
X-40.803 Y-125.995 Z-3.544 I-0.123 J0.106
X-40.556 Y-126.206 Z-3.606 I0.123 J-0.106
X-40.803 Y-125.995 Z-3.667 I-0.123 J0.106
X-40.556 Y-126.206 Z-3.728 I0.123 J-0.106
X-40.803 Y-125.995 Z-3.789 I-0.123 J0.106
X-40.556 Y-126.206 Z-3.85 I0.123 J-0.106
X-40.803 Y-125.995 Z-3.911 I-0.123 J0.106
X-40.556 Y-126.206 Z-3.972 I0.123 J-0.106
X-40.803 Y-125.995 Z-4.033 I-0.123 J0.106
X-40.556 Y-126.206 Z-4.094 I0.123 J-0.106
X-40.803 Y-125.995 Z-4.156 I-0.123 J0.106
X-40.556 Y-126.206 Z-4.217 I0.123 J-0.106
X-40.803 Y-125.995 Z-4.278 I-0.123 J0.106
X-40.556 Y-126.206 Z-4.339 I0.123 J-0.106
X-40.803 Y-125.995 Z-4.4 I-0.123 J0.106
X-40.556 Y-126.206 Z-4.461 I0.123 J-0.106
X-40.803 Y-125.995 Z-4.522 I-0.123 J0.106
X-40.556 Y-126.206 Z-4.583 I0.123 J-0.106
X-40.803 Y-125.995 Z-4.644 I-0.123 J0.106
X-40.556 Y-126.206 Z-4.706 I0.123 J-0.106
X-40.803 Y-125.995 Z-4.767 I-0.123 J0.106
X-40.556 Y-126.206 Z-4.828 I0.123 J-0.106
X-40.803 Y-125.995 Z-4.889 I-0.123 J0.106
X-40.556 Y-126.206 Z-4.95 I0.123 J-0.106
X-40.803 Y-125.995 Z-5.011 I-0.123 J0.106
X-40.556 Y-126.206 Z-5.072 I0.123 J-0.106
X-40.803 Y-125.995 Z-5.133 I-0.123 J0.106
X-40.556 Y-126.206 Z-5.194 I0.123 J-0.106
X-40.803 Y-125.995 Z-5.256 I-0.123 J0.106
X-40.556 Y-126.206 Z-5.317 I0.123 J-0.106
X-40.803 Y-125.995 Z-5.378 I-0.123 J0.106
X-40.556 Y-126.206 Z-5.439 I0.123 J-0.106
X-40.803 Y-125.995 Z-5.5 I-0.123 J0.106
X-40.556 Y-126.206 Z-5.561 I0.123 J-0.106
X-40.803 Y-125.995 Z-5.622 I-0.123 J0.106
X-40.556 Y-126.206 Z-5.683 I0.123 J-0.106
X-40.803 Y-125.995 Z-5.744 I-0.123 J0.106
X-40.556 Y-126.206 Z-5.806 I0.123 J-0.106
X-40.803 Y-125.995 Z-5.867 I-0.123 J0.106
X-40.556 Y-126.206 Z-5.928 I0.123 J-0.106
X-40.803 Y-125.995 Z-5.989 I-0.123 J0.106
X-40.556 Y-126.206 Z-6.05 I0.123 J-0.106
X-40.803 Y-125.995 Z-6.111 I-0.123 J0.106
X-40.556 Y-126.206 Z-6.172 I0.123 J-0.106
X-40.803 Y-125.995 Z-6.233 I-0.123 J0.106
X-40.556 Y-126.206 Z-6.294 I0.123 J-0.106
X-40.803 Y-125.995 Z-6.356 I-0.123 J0.106
X-40.556 Y-126.206 Z-6.417 I0.123 J-0.106
X-40.803 Y-125.995 Z-6.478 I-0.123 J0.106
X-40.556 Y-126.206 Z-6.539 I0.123 J-0.106
X-40.803 Y-125.995 Z-6.6 I-0.123 J0.106
X-40.556 Y-126.206 Z-6.661 I0.123 J-0.106
X-40.803 Y-125.995 Z-6.722 I-0.123 J0.106
X-40.556 Y-126.206 Z-6.783 I0.123 J-0.106
X-40.803 Y-125.995 Z-6.844 I-0.123 J0.106
X-40.556 Y-126.206 Z-6.906 I0.123 J-0.106
X-40.803 Y-125.995 Z-6.967 I-0.123 J0.106
X-40.556 Y-126.206 Z-7.028 I0.123 J-0.106
X-40.803 Y-125.995 Z-7.089 I-0.123 J0.106
X-40.556 Y-126.206 Z-7.15 I0.123 J-0.106
X-40.803 Y-125.995 Z-7.211 I-0.123 J0.106
X-40.556 Y-126.206 Z-7.272 I0.123 J-0.106
X-40.803 Y-125.995 Z-7.333 I-0.123 J0.106
X-40.556 Y-126.206 Z-7.394 I0.123 J-0.106
X-40.803 Y-125.995 Z-7.456 I-0.123 J0.106
X-40.556 Y-126.206 Z-7.517 I0.123 J-0.106
X-40.803 Y-125.995 Z-7.578 I-0.123 J0.106
X-40.556 Y-126.206 Z-7.639 I0.123 J-0.106
X-40.803 Y-125.995 Z-7.7 I-0.123 J0.106
X-40.556 Y-126.206 Z-7.761 I0.123 J-0.106
X-40.803 Y-125.995 Z-7.822 I-0.123 J0.106
X-40.556 Y-126.206 Z-7.883 I0.123 J-0.106
X-40.803 Y-125.995 Z-7.944 I-0.123 J0.106
X-40.556 Y-126.206 Z-8.006 I0.123 J-0.106
X-40.803 Y-125.995 Z-8.067 I-0.123 J0.106
X-40.556 Y-126.206 Z-8.128 I0.123 J-0.106
X-40.803 Y-125.995 Z-8.189 I-0.123 J0.106
X-40.556 Y-126.206 Z-8.25 I0.123 J-0.106
X-40.726 Y-125.945 Z-8.3 I-0.123 J0.106
X-40.633 Y-126.256 I0.046 J-0.156
X-40.726 Y-125.945 I-0.046 J0.156
G1 X-40.754 Y-125.959
X-40.774 Y-125.984
X-40.784 Y-126.014
X-40.781 Y-126.046
X-40.735 Y-126.198
Z5
X-38.694 Y-89.345
Z2
Z0.317
X-38.688 Y-89.34 Z0.247
X-38.67 Y-89.325 Z0.18
X-38.641 Y-89.3 Z0.12
X-38.603 Y-89.268 Z0.069
X-38.557 Y-89.229 Z0.031
X-38.506 Y-89.185 Z0.008
X-38.452 Y-89.139 Z0
X-38.332 Y-89.036
G3 X-38.296 Y-88.589 I-0.206 J0.242
X-44.252 Y-93.663 Z-0.192 I-2.978 J-2.537
X-38.296 Y-88.589 Z-0.384 I2.978 J2.537
X-44.252 Y-93.663 Z-0.576 I-2.978 J-2.537
X-38.296 Y-88.589 Z-0.768 I2.978 J2.537
X-44.252 Y-93.663 Z-0.96 I-2.978 J-2.537
X-38.296 Y-88.589 Z-1.152 I2.978 J2.537
X-44.252 Y-93.663 Z-1.344 I-2.978 J-2.537
X-38.296 Y-88.589 Z-1.537 I2.978 J2.537
X-44.252 Y-93.663 Z-1.729 I-2.978 J-2.537
X-38.296 Y-88.589 Z-1.921 I2.978 J2.537
X-44.252 Y-93.663 Z-2.113 I-2.978 J-2.537
X-38.296 Y-88.589 Z-2.305 I2.978 J2.537
X-44.252 Y-93.663 Z-2.497 I-2.978 J-2.537
X-38.296 Y-88.589 Z-2.689 I2.978 J2.537
X-44.252 Y-93.663 Z-2.881 I-2.978 J-2.537
X-38.296 Y-88.589 Z-3.073 I2.978 J2.537
X-44.252 Y-93.663 Z-3.265 I-2.978 J-2.537
X-38.296 Y-88.589 Z-3.457 I2.978 J2.537
X-44.252 Y-93.663 Z-3.649 I-2.978 J-2.537
X-38.296 Y-88.589 Z-3.841 I2.978 J2.537
X-44.252 Y-93.663 Z-4.033 I-2.978 J-2.537
X-38.296 Y-88.589 Z-4.225 I2.978 J2.537
X-44.252 Y-93.663 Z-4.417 I-2.978 J-2.537
X-38.296 Y-88.589 Z-4.61 I2.978 J2.537
X-44.252 Y-93.663 Z-4.802 I-2.978 J-2.537
X-38.296 Y-88.589 Z-4.994 I2.978 J2.537
X-44.252 Y-93.663 Z-5.186 I-2.978 J-2.537
X-38.296 Y-88.589 Z-5.378 I2.978 J2.537
X-44.252 Y-93.663 Z-5.57 I-2.978 J-2.537
X-38.296 Y-88.589 Z-5.762 I2.978 J2.537
X-44.252 Y-93.663 Z-5.954 I-2.978 J-2.537
X-38.296 Y-88.589 Z-6.146 I2.978 J2.537
X-44.252 Y-93.663 Z-6.338 I-2.978 J-2.537
X-38.296 Y-88.589 Z-6.53 I2.978 J2.537
X-44.252 Y-93.663 Z-6.722 I-2.978 J-2.537
X-38.296 Y-88.589 Z-6.914 I2.978 J2.537
X-44.252 Y-93.663 Z-7.106 I-2.978 J-2.537
X-38.296 Y-88.589 Z-7.298 I2.978 J2.537
X-44.252 Y-93.663 Z-7.491 I-2.978 J-2.537
X-38.296 Y-88.589 Z-7.683 I2.978 J2.537
X-44.252 Y-93.663 Z-7.875 I-2.978 J-2.537
X-38.296 Y-88.589 Z-8.067 I2.978 J2.537
X-44.252 Y-93.663 Z-8.259 I-2.978 J-2.537
X-42.015 Y-94.968 Z-8.3 I2.978 J2.537
X-40.533 Y-87.284 I0.741 J3.842
X-42.015 Y-94.968 I-0.741 J-3.842
X-41.643 Y-94.716 I0.06 J0.312
G1 X-41.613 Y-94.56
X-41.6 Y-94.491 Z-8.292
X-41.587 Y-94.425 Z-8.269
X-41.576 Y-94.366 Z-8.231
X-41.566 Y-94.316 Z-8.18
X-41.559 Y-94.279 Z-8.12
X-41.555 Y-94.256 Z-8.053
X-41.553 Y-94.248 Z-7.983
Z5
X-40.489 Y-61.089
Z1.683
Z0
X-40.609 Y-60.986
X-40.637 Y-60.97
X-40.668 Y-60.967
X-40.699 Y-60.975
X-40.724 Y-60.995
G3 X-40.477 Y-61.206 Z-0.061 I0.123 J-0.106
X-40.724 Y-60.995 Z-0.122 I-0.123 J0.106
X-40.477 Y-61.206 Z-0.183 I0.123 J-0.106
X-40.724 Y-60.995 Z-0.244 I-0.123 J0.106
X-40.477 Y-61.206 Z-0.306 I0.123 J-0.106
X-40.724 Y-60.995 Z-0.367 I-0.123 J0.106
X-40.477 Y-61.206 Z-0.428 I0.123 J-0.106
X-40.724 Y-60.995 Z-0.489 I-0.123 J0.106
X-40.477 Y-61.206 Z-0.55 I0.123 J-0.106
X-40.724 Y-60.995 Z-0.611 I-0.123 J0.106
X-40.477 Y-61.206 Z-0.672 I0.123 J-0.106
X-40.724 Y-60.995 Z-0.733 I-0.123 J0.106
X-40.477 Y-61.206 Z-0.794 I0.123 J-0.106
X-40.724 Y-60.995 Z-0.856 I-0.123 J0.106
X-40.477 Y-61.206 Z-0.917 I0.123 J-0.106
X-40.724 Y-60.995 Z-0.978 I-0.123 J0.106
X-40.477 Y-61.206 Z-1.039 I0.123 J-0.106
X-40.724 Y-60.995 Z-1.1 I-0.123 J0.106
X-40.477 Y-61.206 Z-1.161 I0.123 J-0.106
X-40.724 Y-60.995 Z-1.222 I-0.123 J0.106
X-40.477 Y-61.206 Z-1.283 I0.123 J-0.106
X-40.724 Y-60.995 Z-1.344 I-0.123 J0.106
X-40.477 Y-61.206 Z-1.406 I0.123 J-0.106
X-40.724 Y-60.995 Z-1.467 I-0.123 J0.106
X-40.477 Y-61.206 Z-1.528 I0.123 J-0.106
X-40.724 Y-60.995 Z-1.589 I-0.123 J0.106
X-40.477 Y-61.206 Z-1.65 I0.123 J-0.106
X-40.724 Y-60.995 Z-1.711 I-0.123 J0.106
X-40.477 Y-61.206 Z-1.772 I0.123 J-0.106
X-40.724 Y-60.995 Z-1.833 I-0.123 J0.106
X-40.477 Y-61.206 Z-1.894 I0.123 J-0.106
X-40.724 Y-60.995 Z-1.956 I-0.123 J0.106
X-40.477 Y-61.206 Z-2.017 I0.123 J-0.106
X-40.724 Y-60.995 Z-2.078 I-0.123 J0.106
X-40.477 Y-61.206 Z-2.139 I0.123 J-0.106
X-40.724 Y-60.995 Z-2.2 I-0.123 J0.106
X-40.477 Y-61.206 Z-2.261 I0.123 J-0.106
X-40.724 Y-60.995 Z-2.322 I-0.123 J0.106
X-40.477 Y-61.206 Z-2.383 I0.123 J-0.106
X-40.724 Y-60.995 Z-2.444 I-0.123 J0.106
X-40.477 Y-61.206 Z-2.506 I0.123 J-0.106
X-40.724 Y-60.995 Z-2.567 I-0.123 J0.106
X-40.477 Y-61.206 Z-2.628 I0.123 J-0.106
X-40.724 Y-60.995 Z-2.689 I-0.123 J0.106
X-40.477 Y-61.206 Z-2.75 I0.123 J-0.106
X-40.724 Y-60.995 Z-2.811 I-0.123 J0.106
X-40.477 Y-61.206 Z-2.872 I0.123 J-0.106
X-40.724 Y-60.995 Z-2.933 I-0.123 J0.106
X-40.477 Y-61.206 Z-2.994 I0.123 J-0.106
X-40.724 Y-60.995 Z-3.056 I-0.123 J0.106
X-40.477 Y-61.206 Z-3.117 I0.123 J-0.106
X-40.724 Y-60.995 Z-3.178 I-0.123 J0.106
X-40.477 Y-61.206 Z-3.239 I0.123 J-0.106
X-40.724 Y-60.995 Z-3.3 I-0.123 J0.106
X-40.477 Y-61.206 Z-3.361 I0.123 J-0.106
X-40.724 Y-60.995 Z-3.422 I-0.123 J0.106
X-40.477 Y-61.206 Z-3.483 I0.123 J-0.106
X-40.724 Y-60.995 Z-3.544 I-0.123 J0.106
X-40.477 Y-61.206 Z-3.606 I0.123 J-0.106
X-40.724 Y-60.995 Z-3.667 I-0.123 J0.106
X-40.477 Y-61.206 Z-3.728 I0.123 J-0.106
X-40.724 Y-60.995 Z-3.789 I-0.123 J0.106
X-40.477 Y-61.206 Z-3.85 I0.123 J-0.106
X-40.724 Y-60.995 Z-3.911 I-0.123 J0.106
X-40.477 Y-61.206 Z-3.972 I0.123 J-0.106
X-40.724 Y-60.995 Z-4.033 I-0.123 J0.106
X-40.477 Y-61.206 Z-4.094 I0.123 J-0.106
X-40.724 Y-60.995 Z-4.156 I-0.123 J0.106
X-40.477 Y-61.206 Z-4.217 I0.123 J-0.106
X-40.724 Y-60.995 Z-4.278 I-0.123 J0.106
X-40.477 Y-61.206 Z-4.339 I0.123 J-0.106
X-40.724 Y-60.995 Z-4.4 I-0.123 J0.106
X-40.477 Y-61.206 Z-4.461 I0.123 J-0.106
X-40.724 Y-60.995 Z-4.522 I-0.123 J0.106
X-40.477 Y-61.206 Z-4.583 I0.123 J-0.106
X-40.724 Y-60.995 Z-4.644 I-0.123 J0.106
X-40.477 Y-61.206 Z-4.706 I0.123 J-0.106
X-40.724 Y-60.995 Z-4.767 I-0.123 J0.106
X-40.477 Y-61.206 Z-4.828 I0.123 J-0.106
X-40.724 Y-60.995 Z-4.889 I-0.123 J0.106
X-40.477 Y-61.206 Z-4.95 I0.123 J-0.106
X-40.724 Y-60.995 Z-5.011 I-0.123 J0.106
X-40.477 Y-61.206 Z-5.072 I0.123 J-0.106
X-40.724 Y-60.995 Z-5.133 I-0.123 J0.106
X-40.477 Y-61.206 Z-5.194 I0.123 J-0.106
X-40.724 Y-60.995 Z-5.256 I-0.123 J0.106
X-40.477 Y-61.206 Z-5.317 I0.123 J-0.106
X-40.724 Y-60.995 Z-5.378 I-0.123 J0.106
X-40.477 Y-61.206 Z-5.439 I0.123 J-0.106
X-40.724 Y-60.995 Z-5.5 I-0.123 J0.106
X-40.477 Y-61.206 Z-5.561 I0.123 J-0.106
X-40.724 Y-60.995 Z-5.622 I-0.123 J0.106
X-40.477 Y-61.206 Z-5.683 I0.123 J-0.106
X-40.724 Y-60.995 Z-5.744 I-0.123 J0.106
X-40.477 Y-61.206 Z-5.806 I0.123 J-0.106
X-40.724 Y-60.995 Z-5.867 I-0.123 J0.106
X-40.477 Y-61.206 Z-5.928 I0.123 J-0.106
X-40.724 Y-60.995 Z-5.989 I-0.123 J0.106
X-40.477 Y-61.206 Z-6.05 I0.123 J-0.106
X-40.724 Y-60.995 Z-6.111 I-0.123 J0.106
X-40.477 Y-61.206 Z-6.172 I0.123 J-0.106
X-40.724 Y-60.995 Z-6.233 I-0.123 J0.106
X-40.477 Y-61.206 Z-6.294 I0.123 J-0.106
X-40.724 Y-60.995 Z-6.356 I-0.123 J0.106
X-40.477 Y-61.206 Z-6.417 I0.123 J-0.106
X-40.724 Y-60.995 Z-6.478 I-0.123 J0.106
X-40.477 Y-61.206 Z-6.539 I0.123 J-0.106
X-40.724 Y-60.995 Z-6.6 I-0.123 J0.106
X-40.477 Y-61.206 Z-6.661 I0.123 J-0.106
X-40.724 Y-60.995 Z-6.722 I-0.123 J0.106
X-40.477 Y-61.206 Z-6.783 I0.123 J-0.106
X-40.724 Y-60.995 Z-6.844 I-0.123 J0.106
X-40.477 Y-61.206 Z-6.906 I0.123 J-0.106
X-40.724 Y-60.995 Z-6.967 I-0.123 J0.106
X-40.477 Y-61.206 Z-7.028 I0.123 J-0.106
X-40.724 Y-60.995 Z-7.089 I-0.123 J0.106
X-40.477 Y-61.206 Z-7.15 I0.123 J-0.106
X-40.724 Y-60.995 Z-7.211 I-0.123 J0.106
X-40.477 Y-61.206 Z-7.272 I0.123 J-0.106
X-40.724 Y-60.995 Z-7.333 I-0.123 J0.106
X-40.477 Y-61.206 Z-7.394 I0.123 J-0.106
X-40.724 Y-60.995 Z-7.456 I-0.123 J0.106
X-40.477 Y-61.206 Z-7.517 I0.123 J-0.106
X-40.724 Y-60.995 Z-7.578 I-0.123 J0.106
X-40.477 Y-61.206 Z-7.639 I0.123 J-0.106
X-40.724 Y-60.995 Z-7.7 I-0.123 J0.106
X-40.477 Y-61.206 Z-7.761 I0.123 J-0.106
X-40.724 Y-60.995 Z-7.822 I-0.123 J0.106
X-40.477 Y-61.206 Z-7.883 I0.123 J-0.106
X-40.724 Y-60.995 Z-7.944 I-0.123 J0.106
X-40.477 Y-61.206 Z-8.006 I0.123 J-0.106
X-40.724 Y-60.995 Z-8.067 I-0.123 J0.106
X-40.477 Y-61.206 Z-8.128 I0.123 J-0.106
X-40.724 Y-60.995 Z-8.189 I-0.123 J0.106
X-40.477 Y-61.206 Z-8.25 I0.123 J-0.106
X-40.647 Y-60.945 Z-8.3 I-0.123 J0.106
X-40.554 Y-61.256 I0.046 J-0.156
X-40.647 Y-60.945 I-0.046 J0.156
G1 X-40.675 Y-60.959
X-40.695 Y-60.984
X-40.704 Y-61.014
X-40.701 Y-61.046
X-40.656 Y-61.198
Z5
X-64.966 Y-59.311
Z1.683
Z0
X-65.087 Y-59.208
X-65.115 Y-59.192
X-65.146 Y-59.188
X-65.177 Y-59.197
X-65.202 Y-59.217
G3 X-64.955 Y-59.428 Z-0.061 I0.123 J-0.106
X-65.202 Y-59.217 Z-0.122 I-0.123 J0.106
X-64.955 Y-59.428 Z-0.183 I0.123 J-0.106
X-65.202 Y-59.217 Z-0.244 I-0.123 J0.106
X-64.955 Y-59.428 Z-0.306 I0.123 J-0.106
X-65.202 Y-59.217 Z-0.367 I-0.123 J0.106
X-64.955 Y-59.428 Z-0.428 I0.123 J-0.106
X-65.202 Y-59.217 Z-0.489 I-0.123 J0.106
X-64.955 Y-59.428 Z-0.55 I0.123 J-0.106
X-65.202 Y-59.217 Z-0.611 I-0.123 J0.106
X-64.955 Y-59.428 Z-0.672 I0.123 J-0.106
X-65.202 Y-59.217 Z-0.733 I-0.123 J0.106
X-64.955 Y-59.428 Z-0.794 I0.123 J-0.106
X-65.202 Y-59.217 Z-0.856 I-0.123 J0.106
X-64.955 Y-59.428 Z-0.917 I0.123 J-0.106
X-65.202 Y-59.217 Z-0.978 I-0.123 J0.106
X-64.955 Y-59.428 Z-1.039 I0.123 J-0.106
X-65.202 Y-59.217 Z-1.1 I-0.123 J0.106
X-64.955 Y-59.428 Z-1.161 I0.123 J-0.106
X-65.202 Y-59.217 Z-1.222 I-0.123 J0.106
X-64.955 Y-59.428 Z-1.283 I0.123 J-0.106
X-65.202 Y-59.217 Z-1.344 I-0.123 J0.106
X-64.955 Y-59.428 Z-1.406 I0.123 J-0.106
X-65.202 Y-59.217 Z-1.467 I-0.123 J0.106
X-64.955 Y-59.428 Z-1.528 I0.123 J-0.106
X-65.202 Y-59.217 Z-1.589 I-0.123 J0.106
X-64.955 Y-59.428 Z-1.65 I0.123 J-0.106
X-65.202 Y-59.217 Z-1.711 I-0.123 J0.106
X-64.955 Y-59.428 Z-1.772 I0.123 J-0.106
X-65.202 Y-59.217 Z-1.833 I-0.123 J0.106
X-64.955 Y-59.428 Z-1.894 I0.123 J-0.106
X-65.202 Y-59.217 Z-1.956 I-0.123 J0.106
X-64.955 Y-59.428 Z-2.017 I0.123 J-0.106
X-65.202 Y-59.217 Z-2.078 I-0.123 J0.106
X-64.955 Y-59.428 Z-2.139 I0.123 J-0.106
X-65.202 Y-59.217 Z-2.2 I-0.123 J0.106
X-64.955 Y-59.428 Z-2.261 I0.123 J-0.106
X-65.202 Y-59.217 Z-2.322 I-0.123 J0.106
X-64.955 Y-59.428 Z-2.383 I0.123 J-0.106
X-65.202 Y-59.217 Z-2.444 I-0.123 J0.106
X-64.955 Y-59.428 Z-2.506 I0.123 J-0.106
X-65.202 Y-59.217 Z-2.567 I-0.123 J0.106
X-64.955 Y-59.428 Z-2.628 I0.123 J-0.106
X-65.202 Y-59.217 Z-2.689 I-0.123 J0.106
X-64.955 Y-59.428 Z-2.75 I0.123 J-0.106
X-65.202 Y-59.217 Z-2.811 I-0.123 J0.106
X-64.955 Y-59.428 Z-2.872 I0.123 J-0.106
X-65.202 Y-59.217 Z-2.933 I-0.123 J0.106
X-64.955 Y-59.428 Z-2.994 I0.123 J-0.106
X-65.202 Y-59.217 Z-3.056 I-0.123 J0.106
X-64.955 Y-59.428 Z-3.117 I0.123 J-0.106
X-65.202 Y-59.217 Z-3.178 I-0.123 J0.106
X-64.955 Y-59.428 Z-3.239 I0.123 J-0.106
X-65.202 Y-59.217 Z-3.3 I-0.123 J0.106
X-64.955 Y-59.428 Z-3.361 I0.123 J-0.106
X-65.202 Y-59.217 Z-3.422 I-0.123 J0.106
X-64.955 Y-59.428 Z-3.483 I0.123 J-0.106
X-65.202 Y-59.217 Z-3.544 I-0.123 J0.106
X-64.955 Y-59.428 Z-3.606 I0.123 J-0.106
X-65.202 Y-59.217 Z-3.667 I-0.123 J0.106
X-64.955 Y-59.428 Z-3.728 I0.123 J-0.106
X-65.202 Y-59.217 Z-3.789 I-0.123 J0.106
X-64.955 Y-59.428 Z-3.85 I0.123 J-0.106
X-65.202 Y-59.217 Z-3.911 I-0.123 J0.106
X-64.955 Y-59.428 Z-3.972 I0.123 J-0.106
X-65.202 Y-59.217 Z-4.033 I-0.123 J0.106
X-64.955 Y-59.428 Z-4.094 I0.123 J-0.106
X-65.202 Y-59.217 Z-4.156 I-0.123 J0.106
X-64.955 Y-59.428 Z-4.217 I0.123 J-0.106
X-65.202 Y-59.217 Z-4.278 I-0.123 J0.106
X-64.955 Y-59.428 Z-4.339 I0.123 J-0.106
X-65.202 Y-59.217 Z-4.4 I-0.123 J0.106
X-64.955 Y-59.428 Z-4.461 I0.123 J-0.106
X-65.202 Y-59.217 Z-4.522 I-0.123 J0.106
X-64.955 Y-59.428 Z-4.583 I0.123 J-0.106
X-65.202 Y-59.217 Z-4.644 I-0.123 J0.106
X-64.955 Y-59.428 Z-4.706 I0.123 J-0.106
X-65.202 Y-59.217 Z-4.767 I-0.123 J0.106
X-64.955 Y-59.428 Z-4.828 I0.123 J-0.106
X-65.202 Y-59.217 Z-4.889 I-0.123 J0.106
X-64.955 Y-59.428 Z-4.95 I0.123 J-0.106
X-65.202 Y-59.217 Z-5.011 I-0.123 J0.106
X-64.955 Y-59.428 Z-5.072 I0.123 J-0.106
X-65.202 Y-59.217 Z-5.133 I-0.123 J0.106
X-64.955 Y-59.428 Z-5.194 I0.123 J-0.106
X-65.202 Y-59.217 Z-5.256 I-0.123 J0.106
X-64.955 Y-59.428 Z-5.317 I0.123 J-0.106
X-65.202 Y-59.217 Z-5.378 I-0.123 J0.106
X-64.955 Y-59.428 Z-5.439 I0.123 J-0.106
X-65.202 Y-59.217 Z-5.5 I-0.123 J0.106
X-64.955 Y-59.428 Z-5.561 I0.123 J-0.106
X-65.202 Y-59.217 Z-5.622 I-0.123 J0.106
X-64.955 Y-59.428 Z-5.683 I0.123 J-0.106
X-65.202 Y-59.217 Z-5.744 I-0.123 J0.106
X-64.955 Y-59.428 Z-5.806 I0.123 J-0.106
X-65.202 Y-59.217 Z-5.867 I-0.123 J0.106
X-64.955 Y-59.428 Z-5.928 I0.123 J-0.106
X-65.202 Y-59.217 Z-5.989 I-0.123 J0.106
X-64.955 Y-59.428 Z-6.05 I0.123 J-0.106
X-65.202 Y-59.217 Z-6.111 I-0.123 J0.106
X-64.955 Y-59.428 Z-6.172 I0.123 J-0.106
X-65.202 Y-59.217 Z-6.233 I-0.123 J0.106
X-64.955 Y-59.428 Z-6.294 I0.123 J-0.106
X-65.202 Y-59.217 Z-6.356 I-0.123 J0.106
X-64.955 Y-59.428 Z-6.417 I0.123 J-0.106
X-65.202 Y-59.217 Z-6.478 I-0.123 J0.106
X-64.955 Y-59.428 Z-6.539 I0.123 J-0.106
X-65.202 Y-59.217 Z-6.6 I-0.123 J0.106
X-64.955 Y-59.428 Z-6.661 I0.123 J-0.106
X-65.202 Y-59.217 Z-6.722 I-0.123 J0.106
X-64.955 Y-59.428 Z-6.783 I0.123 J-0.106
X-65.202 Y-59.217 Z-6.844 I-0.123 J0.106
X-64.955 Y-59.428 Z-6.906 I0.123 J-0.106
X-65.202 Y-59.217 Z-6.967 I-0.123 J0.106
X-64.955 Y-59.428 Z-7.028 I0.123 J-0.106
X-65.202 Y-59.217 Z-7.089 I-0.123 J0.106
X-64.955 Y-59.428 Z-7.15 I0.123 J-0.106
X-65.202 Y-59.217 Z-7.211 I-0.123 J0.106
X-64.955 Y-59.428 Z-7.272 I0.123 J-0.106
X-65.202 Y-59.217 Z-7.333 I-0.123 J0.106
X-64.955 Y-59.428 Z-7.394 I0.123 J-0.106
X-65.202 Y-59.217 Z-7.456 I-0.123 J0.106
X-64.955 Y-59.428 Z-7.517 I0.123 J-0.106
X-65.202 Y-59.217 Z-7.578 I-0.123 J0.106
X-64.955 Y-59.428 Z-7.639 I0.123 J-0.106
X-65.202 Y-59.217 Z-7.7 I-0.123 J0.106
X-64.955 Y-59.428 Z-7.761 I0.123 J-0.106
X-65.202 Y-59.217 Z-7.822 I-0.123 J0.106
X-64.955 Y-59.428 Z-7.883 I0.123 J-0.106
X-65.202 Y-59.217 Z-7.944 I-0.123 J0.106
X-64.955 Y-59.428 Z-8.006 I0.123 J-0.106
X-65.202 Y-59.217 Z-8.067 I-0.123 J0.106
X-64.955 Y-59.428 Z-8.128 I0.123 J-0.106
X-65.202 Y-59.217 Z-8.189 I-0.123 J0.106
X-64.955 Y-59.428 Z-8.25 I0.123 J-0.106
X-65.125 Y-59.167 Z-8.3 I-0.123 J0.106
X-65.032 Y-59.478 I0.046 J-0.156
X-65.125 Y-59.167 I-0.046 J0.156
G1 X-65.153 Y-59.181
X-65.173 Y-59.206
X-65.182 Y-59.236
X-65.179 Y-59.268
X-65.134 Y-59.42
Z5
X-38.615 Y-24.345
Z2
Z0.317
X-38.609 Y-24.34 Z0.247
X-38.591 Y-24.325 Z0.18
X-38.562 Y-24.3 Z0.12
X-38.524 Y-24.268 Z0.069
X-38.478 Y-24.229 Z0.031
X-38.427 Y-24.185 Z0.008
X-38.373 Y-24.139 Z0
X-38.252 Y-24.036
G3 X-38.217 Y-23.589 I-0.206 J0.242
X-44.173 Y-28.663 Z-0.192 I-2.978 J-2.537
X-38.217 Y-23.589 Z-0.384 I2.978 J2.537
X-44.173 Y-28.663 Z-0.576 I-2.978 J-2.537
X-38.217 Y-23.589 Z-0.768 I2.978 J2.537
X-44.173 Y-28.663 Z-0.96 I-2.978 J-2.537
X-38.217 Y-23.589 Z-1.152 I2.978 J2.537
X-44.173 Y-28.663 Z-1.344 I-2.978 J-2.537
X-38.217 Y-23.589 Z-1.537 I2.978 J2.537
X-44.173 Y-28.663 Z-1.729 I-2.978 J-2.537
X-38.217 Y-23.589 Z-1.921 I2.978 J2.537
X-44.173 Y-28.663 Z-2.113 I-2.978 J-2.537
X-38.217 Y-23.589 Z-2.305 I2.978 J2.537
X-44.173 Y-28.663 Z-2.497 I-2.978 J-2.537
X-38.217 Y-23.589 Z-2.689 I2.978 J2.537
X-44.173 Y-28.663 Z-2.881 I-2.978 J-2.537
X-38.217 Y-23.589 Z-3.073 I2.978 J2.537
X-44.173 Y-28.663 Z-3.265 I-2.978 J-2.537
X-38.217 Y-23.589 Z-3.457 I2.978 J2.537
X-44.173 Y-28.663 Z-3.649 I-2.978 J-2.537
X-38.217 Y-23.589 Z-3.841 I2.978 J2.537
X-44.173 Y-28.663 Z-4.033 I-2.978 J-2.537
X-38.217 Y-23.589 Z-4.225 I2.978 J2.537
X-44.173 Y-28.663 Z-4.417 I-2.978 J-2.537
X-38.217 Y-23.589 Z-4.61 I2.978 J2.537
X-44.173 Y-28.663 Z-4.802 I-2.978 J-2.537
X-38.217 Y-23.589 Z-4.994 I2.978 J2.537
X-44.173 Y-28.663 Z-5.186 I-2.978 J-2.537
X-38.217 Y-23.589 Z-5.378 I2.978 J2.537
X-44.173 Y-28.663 Z-5.57 I-2.978 J-2.537
X-38.217 Y-23.589 Z-5.762 I2.978 J2.537
X-44.173 Y-28.663 Z-5.954 I-2.978 J-2.537
X-38.217 Y-23.589 Z-6.146 I2.978 J2.537
X-44.173 Y-28.663 Z-6.338 I-2.978 J-2.537
X-38.217 Y-23.589 Z-6.53 I2.978 J2.537
X-44.173 Y-28.663 Z-6.722 I-2.978 J-2.537
X-38.217 Y-23.589 Z-6.914 I2.978 J2.537
X-44.173 Y-28.663 Z-7.106 I-2.978 J-2.537
X-38.217 Y-23.589 Z-7.298 I2.978 J2.537
X-44.173 Y-28.663 Z-7.491 I-2.978 J-2.537
X-38.217 Y-23.589 Z-7.683 I2.978 J2.537
X-44.173 Y-28.663 Z-7.875 I-2.978 J-2.537
X-38.217 Y-23.589 Z-8.067 I2.978 J2.537
X-44.173 Y-28.663 Z-8.259 I-2.978 J-2.537
X-41.936 Y-29.968 Z-8.3 I2.978 J2.537
X-40.453 Y-22.284 I0.741 J3.842
X-41.936 Y-29.968 I-0.741 J-3.842
X-41.564 Y-29.716 I0.06 J0.312
G1 X-41.534 Y-29.56
X-41.521 Y-29.491 Z-8.292
X-41.508 Y-29.425 Z-8.269
X-41.497 Y-29.366 Z-8.231
X-41.487 Y-29.317 Z-8.18
X-41.48 Y-29.279 Z-8.12
X-41.475 Y-29.256 Z-8.053
X-41.474 Y-29.249 Z-7.983
Z5
X-234.843 Y-26.238
Z1.683
Z0
X-234.722 Y-26.135
X-234.703 Y-26.11
X-234.694 Y-26.08
X-234.698 Y-26.048
X-234.713 Y-26.021
G3 X-234.961 Y-26.231 Z-0.061 I-0.124 J-0.105
X-234.713 Y-26.021 Z-0.122 I0.124 J0.105
X-234.961 Y-26.231 Z-0.183 I-0.124 J-0.105
X-234.713 Y-26.021 Z-0.244 I0.124 J0.105
X-234.961 Y-26.231 Z-0.306 I-0.124 J-0.105
X-234.713 Y-26.021 Z-0.367 I0.124 J0.105
X-234.961 Y-26.231 Z-0.428 I-0.124 J-0.105
X-234.713 Y-26.021 Z-0.489 I0.124 J0.105
X-234.961 Y-26.231 Z-0.55 I-0.124 J-0.105
X-234.713 Y-26.021 Z-0.611 I0.124 J0.105
X-234.961 Y-26.231 Z-0.672 I-0.124 J-0.105
X-234.713 Y-26.021 Z-0.733 I0.124 J0.105
X-234.961 Y-26.231 Z-0.794 I-0.124 J-0.105
X-234.713 Y-26.021 Z-0.856 I0.124 J0.105
X-234.961 Y-26.231 Z-0.917 I-0.124 J-0.105
X-234.713 Y-26.021 Z-0.978 I0.124 J0.105
X-234.961 Y-26.231 Z-1.039 I-0.124 J-0.105
X-234.713 Y-26.021 Z-1.1 I0.124 J0.105
X-234.961 Y-26.231 Z-1.161 I-0.124 J-0.105
X-234.713 Y-26.021 Z-1.222 I0.124 J0.105
X-234.961 Y-26.231 Z-1.283 I-0.124 J-0.105
X-234.713 Y-26.021 Z-1.344 I0.124 J0.105
X-234.961 Y-26.231 Z-1.406 I-0.124 J-0.105
X-234.713 Y-26.021 Z-1.467 I0.124 J0.105
X-234.961 Y-26.231 Z-1.528 I-0.124 J-0.105
X-234.713 Y-26.021 Z-1.589 I0.124 J0.105
X-234.961 Y-26.231 Z-1.65 I-0.124 J-0.105
X-234.713 Y-26.021 Z-1.711 I0.124 J0.105
X-234.961 Y-26.231 Z-1.772 I-0.124 J-0.105
X-234.713 Y-26.021 Z-1.833 I0.124 J0.105
X-234.961 Y-26.231 Z-1.894 I-0.124 J-0.105
X-234.713 Y-26.021 Z-1.956 I0.124 J0.105
X-234.961 Y-26.231 Z-2.017 I-0.124 J-0.105
X-234.713 Y-26.021 Z-2.078 I0.124 J0.105
X-234.961 Y-26.231 Z-2.139 I-0.124 J-0.105
X-234.713 Y-26.021 Z-2.2 I0.124 J0.105
X-234.961 Y-26.231 Z-2.261 I-0.124 J-0.105
X-234.713 Y-26.021 Z-2.322 I0.124 J0.105
X-234.961 Y-26.231 Z-2.383 I-0.124 J-0.105
X-234.713 Y-26.021 Z-2.444 I0.124 J0.105
X-234.961 Y-26.231 Z-2.506 I-0.124 J-0.105
X-234.713 Y-26.021 Z-2.567 I0.124 J0.105
X-234.961 Y-26.231 Z-2.628 I-0.124 J-0.105
X-234.713 Y-26.021 Z-2.689 I0.124 J0.105
X-234.961 Y-26.231 Z-2.75 I-0.124 J-0.105
X-234.713 Y-26.021 Z-2.811 I0.124 J0.105
X-234.961 Y-26.231 Z-2.872 I-0.124 J-0.105
X-234.713 Y-26.021 Z-2.933 I0.124 J0.105
X-234.961 Y-26.231 Z-2.994 I-0.124 J-0.105
X-234.713 Y-26.021 Z-3.056 I0.124 J0.105
X-234.961 Y-26.231 Z-3.117 I-0.124 J-0.105
X-234.713 Y-26.021 Z-3.178 I0.124 J0.105
X-234.961 Y-26.231 Z-3.239 I-0.124 J-0.105
X-234.713 Y-26.021 Z-3.3 I0.124 J0.105
X-234.961 Y-26.231 Z-3.361 I-0.124 J-0.105
X-234.713 Y-26.021 Z-3.422 I0.124 J0.105
X-234.961 Y-26.231 Z-3.483 I-0.124 J-0.105
X-234.713 Y-26.021 Z-3.544 I0.124 J0.105
X-234.961 Y-26.231 Z-3.606 I-0.124 J-0.105
X-234.713 Y-26.021 Z-3.667 I0.124 J0.105
X-234.961 Y-26.231 Z-3.728 I-0.124 J-0.105
X-234.713 Y-26.021 Z-3.789 I0.124 J0.105
X-234.961 Y-26.231 Z-3.85 I-0.124 J-0.105
X-234.713 Y-26.021 Z-3.911 I0.124 J0.105
X-234.961 Y-26.231 Z-3.972 I-0.124 J-0.105
X-234.713 Y-26.021 Z-4.033 I0.124 J0.105
X-234.961 Y-26.231 Z-4.094 I-0.124 J-0.105
X-234.713 Y-26.021 Z-4.156 I0.124 J0.105
X-234.961 Y-26.231 Z-4.217 I-0.124 J-0.105
X-234.713 Y-26.021 Z-4.278 I0.124 J0.105
X-234.961 Y-26.231 Z-4.339 I-0.124 J-0.105
X-234.713 Y-26.021 Z-4.4 I0.124 J0.105
X-234.961 Y-26.231 Z-4.461 I-0.124 J-0.105
X-234.713 Y-26.021 Z-4.522 I0.124 J0.105
X-234.961 Y-26.231 Z-4.583 I-0.124 J-0.105
X-234.713 Y-26.021 Z-4.644 I0.124 J0.105
X-234.961 Y-26.231 Z-4.706 I-0.124 J-0.105
X-234.713 Y-26.021 Z-4.767 I0.124 J0.105
X-234.961 Y-26.231 Z-4.828 I-0.124 J-0.105
X-234.713 Y-26.021 Z-4.889 I0.124 J0.105
X-234.961 Y-26.231 Z-4.95 I-0.124 J-0.105
X-234.713 Y-26.021 Z-5.011 I0.124 J0.105
X-234.961 Y-26.231 Z-5.072 I-0.124 J-0.105
X-234.713 Y-26.021 Z-5.133 I0.124 J0.105
X-234.961 Y-26.231 Z-5.194 I-0.124 J-0.105
X-234.713 Y-26.021 Z-5.256 I0.124 J0.105
X-234.961 Y-26.231 Z-5.317 I-0.124 J-0.105
X-234.713 Y-26.021 Z-5.378 I0.124 J0.105
X-234.961 Y-26.231 Z-5.439 I-0.124 J-0.105
X-234.713 Y-26.021 Z-5.5 I0.124 J0.105
X-234.961 Y-26.231 Z-5.561 I-0.124 J-0.105
X-234.713 Y-26.021 Z-5.622 I0.124 J0.105
X-234.961 Y-26.231 Z-5.683 I-0.124 J-0.105
X-234.713 Y-26.021 Z-5.744 I0.124 J0.105
X-234.961 Y-26.231 Z-5.806 I-0.124 J-0.105
X-234.713 Y-26.021 Z-5.867 I0.124 J0.105
X-234.961 Y-26.231 Z-5.928 I-0.124 J-0.105
X-234.713 Y-26.021 Z-5.989 I0.124 J0.105
X-234.961 Y-26.231 Z-6.05 I-0.124 J-0.105
X-234.713 Y-26.021 Z-6.111 I0.124 J0.105
X-234.961 Y-26.231 Z-6.172 I-0.124 J-0.105
X-234.713 Y-26.021 Z-6.233 I0.124 J0.105
X-234.961 Y-26.231 Z-6.294 I-0.124 J-0.105
X-234.713 Y-26.021 Z-6.356 I0.124 J0.105
X-234.961 Y-26.231 Z-6.417 I-0.124 J-0.105
X-234.713 Y-26.021 Z-6.478 I0.124 J0.105
X-234.961 Y-26.231 Z-6.539 I-0.124 J-0.105
X-234.713 Y-26.021 Z-6.6 I0.124 J0.105
X-234.961 Y-26.231 Z-6.661 I-0.124 J-0.105
X-234.713 Y-26.021 Z-6.722 I0.124 J0.105
X-234.961 Y-26.231 Z-6.783 I-0.124 J-0.105
X-234.713 Y-26.021 Z-6.844 I0.124 J0.105
X-234.961 Y-26.231 Z-6.906 I-0.124 J-0.105
X-234.713 Y-26.021 Z-6.967 I0.124 J0.105
X-234.961 Y-26.231 Z-7.028 I-0.124 J-0.105
X-234.713 Y-26.021 Z-7.089 I0.124 J0.105
X-234.961 Y-26.231 Z-7.15 I-0.124 J-0.105
X-234.713 Y-26.021 Z-7.211 I0.124 J0.105
X-234.961 Y-26.231 Z-7.272 I-0.124 J-0.105
X-234.713 Y-26.021 Z-7.333 I0.124 J0.105
X-234.961 Y-26.231 Z-7.394 I-0.124 J-0.105
X-234.713 Y-26.021 Z-7.456 I0.124 J0.105
X-234.961 Y-26.231 Z-7.517 I-0.124 J-0.105
X-234.713 Y-26.021 Z-7.578 I0.124 J0.105
X-234.961 Y-26.231 Z-7.639 I-0.124 J-0.105
X-234.713 Y-26.021 Z-7.7 I0.124 J0.105
X-234.961 Y-26.231 Z-7.761 I-0.124 J-0.105
X-234.713 Y-26.021 Z-7.822 I0.124 J0.105
X-234.961 Y-26.231 Z-7.883 I-0.124 J-0.105
X-234.713 Y-26.021 Z-7.944 I0.124 J0.105
X-234.961 Y-26.231 Z-8.006 I-0.124 J-0.105
X-234.713 Y-26.021 Z-8.067 I0.124 J0.105
X-234.961 Y-26.231 Z-8.128 I-0.124 J-0.105
X-234.713 Y-26.021 Z-8.189 I0.124 J0.105
X-234.961 Y-26.231 Z-8.25 I-0.124 J-0.105
X-234.676 Y-26.105 Z-8.3 I0.124 J0.105
X-234.998 Y-26.148 I-0.161 J-0.022
X-234.676 Y-26.105 I0.161 J0.022
G1 X-234.686 Y-26.075
X-234.707 Y-26.051
X-234.736 Y-26.037
X-234.767 Y-26.035
X-234.925 Y-26.056
Z5
X-259.325 Y-27.957
Z1.683
Z0
X-259.204 Y-27.854
X-259.185 Y-27.829
X-259.176 Y-27.798
X-259.18 Y-27.767
X-259.195 Y-27.739
G3 X-259.443 Y-27.95 Z-0.061 I-0.124 J-0.105
X-259.195 Y-27.739 Z-0.122 I0.124 J0.105
X-259.443 Y-27.95 Z-0.183 I-0.124 J-0.105
X-259.195 Y-27.739 Z-0.244 I0.124 J0.105
X-259.443 Y-27.95 Z-0.306 I-0.124 J-0.105
X-259.195 Y-27.739 Z-0.367 I0.124 J0.105
X-259.443 Y-27.95 Z-0.428 I-0.124 J-0.105
X-259.195 Y-27.739 Z-0.489 I0.124 J0.105
X-259.443 Y-27.95 Z-0.55 I-0.124 J-0.105
X-259.195 Y-27.739 Z-0.611 I0.124 J0.105
X-259.443 Y-27.95 Z-0.672 I-0.124 J-0.105
X-259.195 Y-27.739 Z-0.733 I0.124 J0.105
X-259.443 Y-27.95 Z-0.794 I-0.124 J-0.105
X-259.195 Y-27.739 Z-0.856 I0.124 J0.105
X-259.443 Y-27.95 Z-0.917 I-0.124 J-0.105
X-259.195 Y-27.739 Z-0.978 I0.124 J0.105
X-259.443 Y-27.95 Z-1.039 I-0.124 J-0.105
X-259.195 Y-27.739 Z-1.1 I0.124 J0.105
X-259.443 Y-27.95 Z-1.161 I-0.124 J-0.105
X-259.195 Y-27.739 Z-1.222 I0.124 J0.105
X-259.443 Y-27.95 Z-1.283 I-0.124 J-0.105
X-259.195 Y-27.739 Z-1.344 I0.124 J0.105
X-259.443 Y-27.95 Z-1.406 I-0.124 J-0.105
X-259.195 Y-27.739 Z-1.467 I0.124 J0.105
X-259.443 Y-27.95 Z-1.528 I-0.124 J-0.105
X-259.195 Y-27.739 Z-1.589 I0.124 J0.105
X-259.443 Y-27.95 Z-1.65 I-0.124 J-0.105
X-259.195 Y-27.739 Z-1.711 I0.124 J0.105
X-259.443 Y-27.95 Z-1.772 I-0.124 J-0.105
X-259.195 Y-27.739 Z-1.833 I0.124 J0.105
X-259.443 Y-27.95 Z-1.894 I-0.124 J-0.105
X-259.195 Y-27.739 Z-1.956 I0.124 J0.105
X-259.443 Y-27.95 Z-2.017 I-0.124 J-0.105
X-259.195 Y-27.739 Z-2.078 I0.124 J0.105
X-259.443 Y-27.95 Z-2.139 I-0.124 J-0.105
X-259.195 Y-27.739 Z-2.2 I0.124 J0.105
X-259.443 Y-27.95 Z-2.261 I-0.124 J-0.105
X-259.195 Y-27.739 Z-2.322 I0.124 J0.105
X-259.443 Y-27.95 Z-2.383 I-0.124 J-0.105
X-259.195 Y-27.739 Z-2.444 I0.124 J0.105
X-259.443 Y-27.95 Z-2.506 I-0.124 J-0.105
X-259.195 Y-27.739 Z-2.567 I0.124 J0.105
X-259.443 Y-27.95 Z-2.628 I-0.124 J-0.105
X-259.195 Y-27.739 Z-2.689 I0.124 J0.105
X-259.443 Y-27.95 Z-2.75 I-0.124 J-0.105
X-259.195 Y-27.739 Z-2.811 I0.124 J0.105
X-259.443 Y-27.95 Z-2.872 I-0.124 J-0.105
X-259.195 Y-27.739 Z-2.933 I0.124 J0.105
X-259.443 Y-27.95 Z-2.994 I-0.124 J-0.105
X-259.195 Y-27.739 Z-3.056 I0.124 J0.105
X-259.443 Y-27.95 Z-3.117 I-0.124 J-0.105
X-259.195 Y-27.739 Z-3.178 I0.124 J0.105
X-259.443 Y-27.95 Z-3.239 I-0.124 J-0.105
X-259.195 Y-27.739 Z-3.3 I0.124 J0.105
X-259.443 Y-27.95 Z-3.361 I-0.124 J-0.105
X-259.195 Y-27.739 Z-3.422 I0.124 J0.105
X-259.443 Y-27.95 Z-3.483 I-0.124 J-0.105
X-259.195 Y-27.739 Z-3.544 I0.124 J0.105
X-259.443 Y-27.95 Z-3.606 I-0.124 J-0.105
X-259.195 Y-27.739 Z-3.667 I0.124 J0.105
X-259.443 Y-27.95 Z-3.728 I-0.124 J-0.105
X-259.195 Y-27.739 Z-3.789 I0.124 J0.105
X-259.443 Y-27.95 Z-3.85 I-0.124 J-0.105
X-259.195 Y-27.739 Z-3.911 I0.124 J0.105
X-259.443 Y-27.95 Z-3.972 I-0.124 J-0.105
X-259.195 Y-27.739 Z-4.033 I0.124 J0.105
X-259.443 Y-27.95 Z-4.094 I-0.124 J-0.105
X-259.195 Y-27.739 Z-4.156 I0.124 J0.105
X-259.443 Y-27.95 Z-4.217 I-0.124 J-0.105
X-259.195 Y-27.739 Z-4.278 I0.124 J0.105
X-259.443 Y-27.95 Z-4.339 I-0.124 J-0.105
X-259.195 Y-27.739 Z-4.4 I0.124 J0.105
X-259.443 Y-27.95 Z-4.461 I-0.124 J-0.105
X-259.195 Y-27.739 Z-4.522 I0.124 J0.105
X-259.443 Y-27.95 Z-4.583 I-0.124 J-0.105
X-259.195 Y-27.739 Z-4.644 I0.124 J0.105
X-259.443 Y-27.95 Z-4.706 I-0.124 J-0.105
X-259.195 Y-27.739 Z-4.767 I0.124 J0.105
X-259.443 Y-27.95 Z-4.828 I-0.124 J-0.105
X-259.195 Y-27.739 Z-4.889 I0.124 J0.105
X-259.443 Y-27.95 Z-4.95 I-0.124 J-0.105
X-259.195 Y-27.739 Z-5.011 I0.124 J0.105
X-259.443 Y-27.95 Z-5.072 I-0.124 J-0.105
X-259.195 Y-27.739 Z-5.133 I0.124 J0.105
X-259.443 Y-27.95 Z-5.194 I-0.124 J-0.105
X-259.195 Y-27.739 Z-5.256 I0.124 J0.105
X-259.443 Y-27.95 Z-5.317 I-0.124 J-0.105
X-259.195 Y-27.739 Z-5.378 I0.124 J0.105
X-259.443 Y-27.95 Z-5.439 I-0.124 J-0.105
X-259.195 Y-27.739 Z-5.5 I0.124 J0.105
X-259.443 Y-27.95 Z-5.561 I-0.124 J-0.105
X-259.195 Y-27.739 Z-5.622 I0.124 J0.105
X-259.443 Y-27.95 Z-5.683 I-0.124 J-0.105
X-259.195 Y-27.739 Z-5.744 I0.124 J0.105
X-259.443 Y-27.95 Z-5.806 I-0.124 J-0.105
X-259.195 Y-27.739 Z-5.867 I0.124 J0.105
X-259.443 Y-27.95 Z-5.928 I-0.124 J-0.105
X-259.195 Y-27.739 Z-5.989 I0.124 J0.105
X-259.443 Y-27.95 Z-6.05 I-0.124 J-0.105
X-259.195 Y-27.739 Z-6.111 I0.124 J0.105
X-259.443 Y-27.95 Z-6.172 I-0.124 J-0.105
X-259.195 Y-27.739 Z-6.233 I0.124 J0.105
X-259.443 Y-27.95 Z-6.294 I-0.124 J-0.105
X-259.195 Y-27.739 Z-6.356 I0.124 J0.105
X-259.443 Y-27.95 Z-6.417 I-0.124 J-0.105
X-259.195 Y-27.739 Z-6.478 I0.124 J0.105
X-259.443 Y-27.95 Z-6.539 I-0.124 J-0.105
X-259.195 Y-27.739 Z-6.6 I0.124 J0.105
X-259.443 Y-27.95 Z-6.661 I-0.124 J-0.105
X-259.195 Y-27.739 Z-6.722 I0.124 J0.105
X-259.443 Y-27.95 Z-6.783 I-0.124 J-0.105
X-259.195 Y-27.739 Z-6.844 I0.124 J0.105
X-259.443 Y-27.95 Z-6.906 I-0.124 J-0.105
X-259.195 Y-27.739 Z-6.967 I0.124 J0.105
X-259.443 Y-27.95 Z-7.028 I-0.124 J-0.105
X-259.195 Y-27.739 Z-7.089 I0.124 J0.105
X-259.443 Y-27.95 Z-7.15 I-0.124 J-0.105
X-259.195 Y-27.739 Z-7.211 I0.124 J0.105
X-259.443 Y-27.95 Z-7.272 I-0.124 J-0.105
X-259.195 Y-27.739 Z-7.333 I0.124 J0.105
X-259.443 Y-27.95 Z-7.394 I-0.124 J-0.105
X-259.195 Y-27.739 Z-7.456 I0.124 J0.105
X-259.443 Y-27.95 Z-7.517 I-0.124 J-0.105
X-259.195 Y-27.739 Z-7.578 I0.124 J0.105
X-259.443 Y-27.95 Z-7.639 I-0.124 J-0.105
X-259.195 Y-27.739 Z-7.7 I0.124 J0.105
X-259.443 Y-27.95 Z-7.761 I-0.124 J-0.105
X-259.195 Y-27.739 Z-7.822 I0.124 J0.105
X-259.443 Y-27.95 Z-7.883 I-0.124 J-0.105
X-259.195 Y-27.739 Z-7.944 I0.124 J0.105
X-259.443 Y-27.95 Z-8.006 I-0.124 J-0.105
X-259.195 Y-27.739 Z-8.067 I0.124 J0.105
X-259.443 Y-27.95 Z-8.128 I-0.124 J-0.105
X-259.195 Y-27.739 Z-8.189 I0.124 J0.105
X-259.443 Y-27.95 Z-8.25 I-0.124 J-0.105
X-259.158 Y-27.823 Z-8.3 I0.124 J0.105
X-259.48 Y-27.866 I-0.161 J-0.022
X-259.158 Y-27.823 I0.161 J0.022
G1 X-259.168 Y-27.793
X-259.189 Y-27.769
X-259.218 Y-27.755
X-259.249 Y-27.753
X-259.407 Y-27.774
Z5
X-260.882 Y-56.58
Z2
Z0.317
X-260.888 Y-56.575 Z0.247
X-260.906 Y-56.56 Z0.18
X-260.935 Y-56.535 Z0.12
X-260.973 Y-56.503 Z0.069
X-261.019 Y-56.464 Z0.031
X-261.07 Y-56.42 Z0.008
X-261.123 Y-56.374 Z0
X-261.244 Y-56.271
G3 X-261.692 Y-56.305 I-0.206 J-0.241
X-255.748 Y-61.395 Z-0.192 I2.972 J-2.545
X-261.692 Y-56.305 Z-0.384 I-2.972 J2.545
X-255.748 Y-61.395 Z-0.576 I2.972 J-2.545
X-261.692 Y-56.305 Z-0.768 I-2.972 J2.545
X-255.748 Y-61.395 Z-0.96 I2.972 J-2.545
X-261.692 Y-56.305 Z-1.152 I-2.972 J2.545
X-255.748 Y-61.395 Z-1.344 I2.972 J-2.545
X-261.692 Y-56.305 Z-1.537 I-2.972 J2.545
X-255.748 Y-61.395 Z-1.729 I2.972 J-2.545
X-261.692 Y-56.305 Z-1.921 I-2.972 J2.545
X-255.748 Y-61.395 Z-2.113 I2.972 J-2.545
X-261.692 Y-56.305 Z-2.305 I-2.972 J2.545
X-255.748 Y-61.395 Z-2.497 I2.972 J-2.545
X-261.692 Y-56.305 Z-2.689 I-2.972 J2.545
X-255.748 Y-61.395 Z-2.881 I2.972 J-2.545
X-261.692 Y-56.305 Z-3.073 I-2.972 J2.545
X-255.748 Y-61.395 Z-3.265 I2.972 J-2.545
X-261.692 Y-56.305 Z-3.457 I-2.972 J2.545
X-255.748 Y-61.395 Z-3.649 I2.972 J-2.545
X-261.692 Y-56.305 Z-3.841 I-2.972 J2.545
X-255.748 Y-61.395 Z-4.033 I2.972 J-2.545
X-261.692 Y-56.305 Z-4.225 I-2.972 J2.545
X-255.748 Y-61.395 Z-4.417 I2.972 J-2.545
X-261.692 Y-56.305 Z-4.61 I-2.972 J2.545
X-255.748 Y-61.395 Z-4.802 I2.972 J-2.545
X-261.692 Y-56.305 Z-4.994 I-2.972 J2.545
X-255.748 Y-61.395 Z-5.186 I2.972 J-2.545
X-261.692 Y-56.305 Z-5.378 I-2.972 J2.545
X-255.748 Y-61.395 Z-5.57 I2.972 J-2.545
X-261.692 Y-56.305 Z-5.762 I-2.972 J2.545
X-255.748 Y-61.395 Z-5.954 I2.972 J-2.545
X-261.692 Y-56.305 Z-6.146 I-2.972 J2.545
X-255.748 Y-61.395 Z-6.338 I2.972 J-2.545
X-261.692 Y-56.305 Z-6.53 I-2.972 J2.545
X-255.748 Y-61.395 Z-6.722 I2.972 J-2.545
X-261.692 Y-56.305 Z-6.914 I-2.972 J2.545
X-255.748 Y-61.395 Z-7.106 I2.972 J-2.545
X-261.692 Y-56.305 Z-7.298 I-2.972 J2.545
X-255.748 Y-61.395 Z-7.491 I2.972 J-2.545
X-261.692 Y-56.305 Z-7.683 I-2.972 J2.545
X-255.748 Y-61.395 Z-7.875 I2.972 J-2.545
X-261.692 Y-56.305 Z-8.067 I-2.972 J2.545
X-255.748 Y-61.395 Z-8.259 I2.972 J-2.545
X-254.809 Y-58.981 Z-8.3 I-2.972 J2.545
X-262.63 Y-58.719 I-3.91 J0.131
X-254.809 Y-58.981 I3.91 J-0.131
X-255.116 Y-58.653 I-0.317 J0.011
G1 X-255.275 Y-58.648
X-255.345 Y-58.646 Z-8.292
X-255.412 Y-58.643 Z-8.269
X-255.473 Y-58.641 Z-8.231
X-255.523 Y-58.64 Z-8.18
X-255.561 Y-58.638 Z-8.12
X-255.584 Z-8.053
X-255.592 Y-58.637 Z-7.983
Z5
X-234.923 Y-91.238
Z1.683
Z0
X-234.802 Y-91.135
X-234.782 Y-91.11
X-234.773 Y-91.08
X-234.777 Y-91.048
X-234.793 Y-91.021
G3 X-235.04 Y-91.231 Z-0.061 I-0.124 J-0.105
X-234.793 Y-91.021 Z-0.122 I0.124 J0.105
X-235.04 Y-91.231 Z-0.183 I-0.124 J-0.105
X-234.793 Y-91.021 Z-0.244 I0.124 J0.105
X-235.04 Y-91.231 Z-0.306 I-0.124 J-0.105
X-234.793 Y-91.021 Z-0.367 I0.124 J0.105
X-235.04 Y-91.231 Z-0.428 I-0.124 J-0.105
X-234.793 Y-91.021 Z-0.489 I0.124 J0.105
X-235.04 Y-91.231 Z-0.55 I-0.124 J-0.105
X-234.793 Y-91.021 Z-0.611 I0.124 J0.105
X-235.04 Y-91.231 Z-0.672 I-0.124 J-0.105
X-234.793 Y-91.021 Z-0.733 I0.124 J0.105
X-235.04 Y-91.231 Z-0.794 I-0.124 J-0.105
X-234.793 Y-91.021 Z-0.856 I0.124 J0.105
X-235.04 Y-91.231 Z-0.917 I-0.124 J-0.105
X-234.793 Y-91.021 Z-0.978 I0.124 J0.105
X-235.04 Y-91.231 Z-1.039 I-0.124 J-0.105
X-234.793 Y-91.021 Z-1.1 I0.124 J0.105
X-235.04 Y-91.231 Z-1.161 I-0.124 J-0.105
X-234.793 Y-91.021 Z-1.222 I0.124 J0.105
X-235.04 Y-91.231 Z-1.283 I-0.124 J-0.105
X-234.793 Y-91.021 Z-1.344 I0.124 J0.105
X-235.04 Y-91.231 Z-1.406 I-0.124 J-0.105
X-234.793 Y-91.021 Z-1.467 I0.124 J0.105
X-235.04 Y-91.231 Z-1.528 I-0.124 J-0.105
X-234.793 Y-91.021 Z-1.589 I0.124 J0.105
X-235.04 Y-91.231 Z-1.65 I-0.124 J-0.105
X-234.793 Y-91.021 Z-1.711 I0.124 J0.105
X-235.04 Y-91.231 Z-1.772 I-0.124 J-0.105
X-234.793 Y-91.021 Z-1.833 I0.124 J0.105
X-235.04 Y-91.231 Z-1.894 I-0.124 J-0.105
X-234.793 Y-91.021 Z-1.956 I0.124 J0.105
X-235.04 Y-91.231 Z-2.017 I-0.124 J-0.105
X-234.793 Y-91.021 Z-2.078 I0.124 J0.105
X-235.04 Y-91.231 Z-2.139 I-0.124 J-0.105
X-234.793 Y-91.021 Z-2.2 I0.124 J0.105
X-235.04 Y-91.231 Z-2.261 I-0.124 J-0.105
X-234.793 Y-91.021 Z-2.322 I0.124 J0.105
X-235.04 Y-91.231 Z-2.383 I-0.124 J-0.105
X-234.793 Y-91.021 Z-2.444 I0.124 J0.105
X-235.04 Y-91.231 Z-2.506 I-0.124 J-0.105
X-234.793 Y-91.021 Z-2.567 I0.124 J0.105
X-235.04 Y-91.231 Z-2.628 I-0.124 J-0.105
X-234.793 Y-91.021 Z-2.689 I0.124 J0.105
X-235.04 Y-91.231 Z-2.75 I-0.124 J-0.105
X-234.793 Y-91.021 Z-2.811 I0.124 J0.105
X-235.04 Y-91.231 Z-2.872 I-0.124 J-0.105
X-234.793 Y-91.021 Z-2.933 I0.124 J0.105
X-235.04 Y-91.231 Z-2.994 I-0.124 J-0.105
X-234.793 Y-91.021 Z-3.056 I0.124 J0.105
X-235.04 Y-91.231 Z-3.117 I-0.124 J-0.105
X-234.793 Y-91.021 Z-3.178 I0.124 J0.105
X-235.04 Y-91.231 Z-3.239 I-0.124 J-0.105
X-234.793 Y-91.021 Z-3.3 I0.124 J0.105
X-235.04 Y-91.231 Z-3.361 I-0.124 J-0.105
X-234.793 Y-91.021 Z-3.422 I0.124 J0.105
X-235.04 Y-91.231 Z-3.483 I-0.124 J-0.105
X-234.793 Y-91.021 Z-3.544 I0.124 J0.105
X-235.04 Y-91.231 Z-3.606 I-0.124 J-0.105
X-234.793 Y-91.021 Z-3.667 I0.124 J0.105
X-235.04 Y-91.231 Z-3.728 I-0.124 J-0.105
X-234.793 Y-91.021 Z-3.789 I0.124 J0.105
X-235.04 Y-91.231 Z-3.85 I-0.124 J-0.105
X-234.793 Y-91.021 Z-3.911 I0.124 J0.105
X-235.04 Y-91.231 Z-3.972 I-0.124 J-0.105
X-234.793 Y-91.021 Z-4.033 I0.124 J0.105
X-235.04 Y-91.231 Z-4.094 I-0.124 J-0.105
X-234.793 Y-91.021 Z-4.156 I0.124 J0.105
X-235.04 Y-91.231 Z-4.217 I-0.124 J-0.105
X-234.793 Y-91.021 Z-4.278 I0.124 J0.105
X-235.04 Y-91.231 Z-4.339 I-0.124 J-0.105
X-234.793 Y-91.021 Z-4.4 I0.124 J0.105
X-235.04 Y-91.231 Z-4.461 I-0.124 J-0.105
X-234.793 Y-91.021 Z-4.522 I0.124 J0.105
X-235.04 Y-91.231 Z-4.583 I-0.124 J-0.105
X-234.793 Y-91.021 Z-4.644 I0.124 J0.105
X-235.04 Y-91.231 Z-4.706 I-0.124 J-0.105
X-234.793 Y-91.021 Z-4.767 I0.124 J0.105
X-235.04 Y-91.231 Z-4.828 I-0.124 J-0.105
X-234.793 Y-91.021 Z-4.889 I0.124 J0.105
X-235.04 Y-91.231 Z-4.95 I-0.124 J-0.105
X-234.793 Y-91.021 Z-5.011 I0.124 J0.105
X-235.04 Y-91.231 Z-5.072 I-0.124 J-0.105
X-234.793 Y-91.021 Z-5.133 I0.124 J0.105
X-235.04 Y-91.231 Z-5.194 I-0.124 J-0.105
X-234.793 Y-91.021 Z-5.256 I0.124 J0.105
X-235.04 Y-91.231 Z-5.317 I-0.124 J-0.105
X-234.793 Y-91.021 Z-5.378 I0.124 J0.105
X-235.04 Y-91.231 Z-5.439 I-0.124 J-0.105
X-234.793 Y-91.021 Z-5.5 I0.124 J0.105
X-235.04 Y-91.231 Z-5.561 I-0.124 J-0.105
X-234.793 Y-91.021 Z-5.622 I0.124 J0.105
X-235.04 Y-91.231 Z-5.683 I-0.124 J-0.105
X-234.793 Y-91.021 Z-5.744 I0.124 J0.105
X-235.04 Y-91.231 Z-5.806 I-0.124 J-0.105
X-234.793 Y-91.021 Z-5.867 I0.124 J0.105
X-235.04 Y-91.231 Z-5.928 I-0.124 J-0.105
X-234.793 Y-91.021 Z-5.989 I0.124 J0.105
X-235.04 Y-91.231 Z-6.05 I-0.124 J-0.105
X-234.793 Y-91.021 Z-6.111 I0.124 J0.105
X-235.04 Y-91.231 Z-6.172 I-0.124 J-0.105
X-234.793 Y-91.021 Z-6.233 I0.124 J0.105
X-235.04 Y-91.231 Z-6.294 I-0.124 J-0.105
X-234.793 Y-91.021 Z-6.356 I0.124 J0.105
X-235.04 Y-91.231 Z-6.417 I-0.124 J-0.105
X-234.793 Y-91.021 Z-6.478 I0.124 J0.105
X-235.04 Y-91.231 Z-6.539 I-0.124 J-0.105
X-234.793 Y-91.021 Z-6.6 I0.124 J0.105
X-235.04 Y-91.231 Z-6.661 I-0.124 J-0.105
X-234.793 Y-91.021 Z-6.722 I0.124 J0.105
X-235.04 Y-91.231 Z-6.783 I-0.124 J-0.105
X-234.793 Y-91.021 Z-6.844 I0.124 J0.105
X-235.04 Y-91.231 Z-6.906 I-0.124 J-0.105
X-234.793 Y-91.021 Z-6.967 I0.124 J0.105
X-235.04 Y-91.231 Z-7.028 I-0.124 J-0.105
X-234.793 Y-91.021 Z-7.089 I0.124 J0.105
X-235.04 Y-91.231 Z-7.15 I-0.124 J-0.105
X-234.793 Y-91.021 Z-7.211 I0.124 J0.105
X-235.04 Y-91.231 Z-7.272 I-0.124 J-0.105
X-234.793 Y-91.021 Z-7.333 I0.124 J0.105
X-235.04 Y-91.231 Z-7.394 I-0.124 J-0.105
X-234.793 Y-91.021 Z-7.456 I0.124 J0.105
X-235.04 Y-91.231 Z-7.517 I-0.124 J-0.105
X-234.793 Y-91.021 Z-7.578 I0.124 J0.105
X-235.04 Y-91.231 Z-7.639 I-0.124 J-0.105
X-234.793 Y-91.021 Z-7.7 I0.124 J0.105
X-235.04 Y-91.231 Z-7.761 I-0.124 J-0.105
X-234.793 Y-91.021 Z-7.822 I0.124 J0.105
X-235.04 Y-91.231 Z-7.883 I-0.124 J-0.105
X-234.793 Y-91.021 Z-7.944 I0.124 J0.105
X-235.04 Y-91.231 Z-8.006 I-0.124 J-0.105
X-234.793 Y-91.021 Z-8.067 I0.124 J0.105
X-235.04 Y-91.231 Z-8.128 I-0.124 J-0.105
X-234.793 Y-91.021 Z-8.189 I0.124 J0.105
X-235.04 Y-91.231 Z-8.25 I-0.124 J-0.105
X-234.755 Y-91.105 Z-8.3 I0.124 J0.105
X-235.077 Y-91.148 I-0.161 J-0.022
X-234.755 Y-91.105 I0.161 J0.022
G1 X-234.765 Y-91.075
X-234.786 Y-91.051
X-234.815 Y-91.037
X-234.846 Y-91.035
X-235.004 Y-91.056
Z5
X-259.405 Y-92.956
Z1.683
Z0
X-259.284 Y-92.854
X-259.264 Y-92.829
X-259.255 Y-92.798
X-259.259 Y-92.767
X-259.275 Y-92.739
G3 X-259.522 Y-92.95 Z-0.061 I-0.124 J-0.105
X-259.275 Y-92.739 Z-0.122 I0.124 J0.105
X-259.522 Y-92.95 Z-0.183 I-0.124 J-0.105
X-259.275 Y-92.739 Z-0.244 I0.124 J0.105
X-259.522 Y-92.95 Z-0.306 I-0.124 J-0.105
X-259.275 Y-92.739 Z-0.367 I0.124 J0.105
X-259.522 Y-92.95 Z-0.428 I-0.124 J-0.105
X-259.275 Y-92.739 Z-0.489 I0.124 J0.105
X-259.522 Y-92.95 Z-0.55 I-0.124 J-0.105
X-259.275 Y-92.739 Z-0.611 I0.124 J0.105
X-259.522 Y-92.95 Z-0.672 I-0.124 J-0.105
X-259.275 Y-92.739 Z-0.733 I0.124 J0.105
X-259.522 Y-92.95 Z-0.794 I-0.124 J-0.105
X-259.275 Y-92.739 Z-0.856 I0.124 J0.105
X-259.522 Y-92.95 Z-0.917 I-0.124 J-0.105
X-259.275 Y-92.739 Z-0.978 I0.124 J0.105
X-259.522 Y-92.95 Z-1.039 I-0.124 J-0.105
X-259.275 Y-92.739 Z-1.1 I0.124 J0.105
X-259.522 Y-92.95 Z-1.161 I-0.124 J-0.105
X-259.275 Y-92.739 Z-1.222 I0.124 J0.105
X-259.522 Y-92.95 Z-1.283 I-0.124 J-0.105
X-259.275 Y-92.739 Z-1.344 I0.124 J0.105
X-259.522 Y-92.95 Z-1.406 I-0.124 J-0.105
X-259.275 Y-92.739 Z-1.467 I0.124 J0.105
X-259.522 Y-92.95 Z-1.528 I-0.124 J-0.105
X-259.275 Y-92.739 Z-1.589 I0.124 J0.105
X-259.522 Y-92.95 Z-1.65 I-0.124 J-0.105
X-259.275 Y-92.739 Z-1.711 I0.124 J0.105
X-259.522 Y-92.95 Z-1.772 I-0.124 J-0.105
X-259.275 Y-92.739 Z-1.833 I0.124 J0.105
X-259.522 Y-92.95 Z-1.894 I-0.124 J-0.105
X-259.275 Y-92.739 Z-1.956 I0.124 J0.105
X-259.522 Y-92.95 Z-2.017 I-0.124 J-0.105
X-259.275 Y-92.739 Z-2.078 I0.124 J0.105
X-259.522 Y-92.95 Z-2.139 I-0.124 J-0.105
X-259.275 Y-92.739 Z-2.2 I0.124 J0.105
X-259.522 Y-92.95 Z-2.261 I-0.124 J-0.105
X-259.275 Y-92.739 Z-2.322 I0.124 J0.105
X-259.522 Y-92.95 Z-2.383 I-0.124 J-0.105
X-259.275 Y-92.739 Z-2.444 I0.124 J0.105
X-259.522 Y-92.95 Z-2.506 I-0.124 J-0.105
X-259.275 Y-92.739 Z-2.567 I0.124 J0.105
X-259.522 Y-92.95 Z-2.628 I-0.124 J-0.105
X-259.275 Y-92.739 Z-2.689 I0.124 J0.105
X-259.522 Y-92.95 Z-2.75 I-0.124 J-0.105
X-259.275 Y-92.739 Z-2.811 I0.124 J0.105
X-259.522 Y-92.95 Z-2.872 I-0.124 J-0.105
X-259.275 Y-92.739 Z-2.933 I0.124 J0.105
X-259.522 Y-92.95 Z-2.994 I-0.124 J-0.105
X-259.275 Y-92.739 Z-3.056 I0.124 J0.105
X-259.522 Y-92.95 Z-3.117 I-0.124 J-0.105
X-259.275 Y-92.739 Z-3.178 I0.124 J0.105
X-259.522 Y-92.95 Z-3.239 I-0.124 J-0.105
X-259.275 Y-92.739 Z-3.3 I0.124 J0.105
X-259.522 Y-92.95 Z-3.361 I-0.124 J-0.105
X-259.275 Y-92.739 Z-3.422 I0.124 J0.105
X-259.522 Y-92.95 Z-3.483 I-0.124 J-0.105
X-259.275 Y-92.739 Z-3.544 I0.124 J0.105
X-259.522 Y-92.95 Z-3.606 I-0.124 J-0.105
X-259.275 Y-92.739 Z-3.667 I0.124 J0.105
X-259.522 Y-92.95 Z-3.728 I-0.124 J-0.105
X-259.275 Y-92.739 Z-3.789 I0.124 J0.105
X-259.522 Y-92.95 Z-3.85 I-0.124 J-0.105
X-259.275 Y-92.739 Z-3.911 I0.124 J0.105
X-259.522 Y-92.95 Z-3.972 I-0.124 J-0.105
X-259.275 Y-92.739 Z-4.033 I0.124 J0.105
X-259.522 Y-92.95 Z-4.094 I-0.124 J-0.105
X-259.275 Y-92.739 Z-4.156 I0.124 J0.105
X-259.522 Y-92.95 Z-4.217 I-0.124 J-0.105
X-259.275 Y-92.739 Z-4.278 I0.124 J0.105
X-259.522 Y-92.95 Z-4.339 I-0.124 J-0.105
X-259.275 Y-92.739 Z-4.4 I0.124 J0.105
X-259.522 Y-92.95 Z-4.461 I-0.124 J-0.105
X-259.275 Y-92.739 Z-4.522 I0.124 J0.105
X-259.522 Y-92.95 Z-4.583 I-0.124 J-0.105
X-259.275 Y-92.739 Z-4.644 I0.124 J0.105
X-259.522 Y-92.95 Z-4.706 I-0.124 J-0.105
X-259.275 Y-92.739 Z-4.767 I0.124 J0.105
X-259.522 Y-92.95 Z-4.828 I-0.124 J-0.105
X-259.275 Y-92.739 Z-4.889 I0.124 J0.105
X-259.522 Y-92.95 Z-4.95 I-0.124 J-0.105
X-259.275 Y-92.739 Z-5.011 I0.124 J0.105
X-259.522 Y-92.95 Z-5.072 I-0.124 J-0.105
X-259.275 Y-92.739 Z-5.133 I0.124 J0.105
X-259.522 Y-92.95 Z-5.194 I-0.124 J-0.105
X-259.275 Y-92.739 Z-5.256 I0.124 J0.105
X-259.522 Y-92.95 Z-5.317 I-0.124 J-0.105
X-259.275 Y-92.739 Z-5.378 I0.124 J0.105
X-259.522 Y-92.95 Z-5.439 I-0.124 J-0.105
X-259.275 Y-92.739 Z-5.5 I0.124 J0.105
X-259.522 Y-92.95 Z-5.561 I-0.124 J-0.105
X-259.275 Y-92.739 Z-5.622 I0.124 J0.105
X-259.522 Y-92.95 Z-5.683 I-0.124 J-0.105
X-259.275 Y-92.739 Z-5.744 I0.124 J0.105
X-259.522 Y-92.95 Z-5.806 I-0.124 J-0.105
X-259.275 Y-92.739 Z-5.867 I0.124 J0.105
X-259.522 Y-92.95 Z-5.928 I-0.124 J-0.105
X-259.275 Y-92.739 Z-5.989 I0.124 J0.105
X-259.522 Y-92.95 Z-6.05 I-0.124 J-0.105
X-259.275 Y-92.739 Z-6.111 I0.124 J0.105
X-259.522 Y-92.95 Z-6.172 I-0.124 J-0.105
X-259.275 Y-92.739 Z-6.233 I0.124 J0.105
X-259.522 Y-92.95 Z-6.294 I-0.124 J-0.105
X-259.275 Y-92.739 Z-6.356 I0.124 J0.105
X-259.522 Y-92.95 Z-6.417 I-0.124 J-0.105
X-259.275 Y-92.739 Z-6.478 I0.124 J0.105
X-259.522 Y-92.95 Z-6.539 I-0.124 J-0.105
X-259.275 Y-92.739 Z-6.6 I0.124 J0.105
X-259.522 Y-92.95 Z-6.661 I-0.124 J-0.105
X-259.275 Y-92.739 Z-6.722 I0.124 J0.105
X-259.522 Y-92.95 Z-6.783 I-0.124 J-0.105
X-259.275 Y-92.739 Z-6.844 I0.124 J0.105
X-259.522 Y-92.95 Z-6.906 I-0.124 J-0.105
X-259.275 Y-92.739 Z-6.967 I0.124 J0.105
X-259.522 Y-92.95 Z-7.028 I-0.124 J-0.105
X-259.275 Y-92.739 Z-7.089 I0.124 J0.105
X-259.522 Y-92.95 Z-7.15 I-0.124 J-0.105
X-259.275 Y-92.739 Z-7.211 I0.124 J0.105
X-259.522 Y-92.95 Z-7.272 I-0.124 J-0.105
X-259.275 Y-92.739 Z-7.333 I0.124 J0.105
X-259.522 Y-92.95 Z-7.394 I-0.124 J-0.105
X-259.275 Y-92.739 Z-7.456 I0.124 J0.105
X-259.522 Y-92.95 Z-7.517 I-0.124 J-0.105
X-259.275 Y-92.739 Z-7.578 I0.124 J0.105
X-259.522 Y-92.95 Z-7.639 I-0.124 J-0.105
X-259.275 Y-92.739 Z-7.7 I0.124 J0.105
X-259.522 Y-92.95 Z-7.761 I-0.124 J-0.105
X-259.275 Y-92.739 Z-7.822 I0.124 J0.105
X-259.522 Y-92.95 Z-7.883 I-0.124 J-0.105
X-259.275 Y-92.739 Z-7.944 I0.124 J0.105
X-259.522 Y-92.95 Z-8.006 I-0.124 J-0.105
X-259.275 Y-92.739 Z-8.067 I0.124 J0.105
X-259.522 Y-92.95 Z-8.128 I-0.124 J-0.105
X-259.275 Y-92.739 Z-8.189 I0.124 J0.105
X-259.522 Y-92.95 Z-8.25 I-0.124 J-0.105
X-259.237 Y-92.823 Z-8.3 I0.124 J0.105
X-259.559 Y-92.866 I-0.161 J-0.022
X-259.237 Y-92.823 I0.161 J0.022
G1 X-259.247 Y-92.793
X-259.268 Y-92.769
X-259.297 Y-92.755
X-259.328 Y-92.753
X-259.486 Y-92.774
Z5
X-260.962 Y-121.58
Z2
Z0.317
X-260.968 Y-121.575 Z0.247
X-260.985 Y-121.56 Z0.18
X-261.014 Y-121.535 Z0.12
X-261.052 Y-121.503 Z0.069
X-261.098 Y-121.464 Z0.031
X-261.149 Y-121.42 Z0.008
X-261.203 Y-121.374 Z0
X-261.323 Y-121.271
G3 X-261.771 Y-121.305 I-0.206 J-0.241
X-255.827 Y-126.395 Z-0.192 I2.972 J-2.545
X-261.771 Y-121.305 Z-0.384 I-2.972 J2.545
X-255.827 Y-126.395 Z-0.576 I2.972 J-2.545
X-261.771 Y-121.305 Z-0.768 I-2.972 J2.545
X-255.827 Y-126.395 Z-0.96 I2.972 J-2.545
X-261.771 Y-121.305 Z-1.152 I-2.972 J2.545
X-255.827 Y-126.395 Z-1.344 I2.972 J-2.545
X-261.771 Y-121.305 Z-1.537 I-2.972 J2.545
X-255.827 Y-126.395 Z-1.729 I2.972 J-2.545
X-261.771 Y-121.305 Z-1.921 I-2.972 J2.545
X-255.827 Y-126.395 Z-2.113 I2.972 J-2.545
X-261.771 Y-121.305 Z-2.305 I-2.972 J2.545
X-255.827 Y-126.395 Z-2.497 I2.972 J-2.545
X-261.771 Y-121.305 Z-2.689 I-2.972 J2.545
X-255.827 Y-126.395 Z-2.881 I2.972 J-2.545
X-261.771 Y-121.305 Z-3.073 I-2.972 J2.545
X-255.827 Y-126.395 Z-3.265 I2.972 J-2.545
X-261.771 Y-121.305 Z-3.457 I-2.972 J2.545
X-255.827 Y-126.395 Z-3.649 I2.972 J-2.545
X-261.771 Y-121.305 Z-3.841 I-2.972 J2.545
X-255.827 Y-126.395 Z-4.033 I2.972 J-2.545
X-261.771 Y-121.305 Z-4.225 I-2.972 J2.545
X-255.827 Y-126.395 Z-4.417 I2.972 J-2.545
X-261.771 Y-121.305 Z-4.61 I-2.972 J2.545
X-255.827 Y-126.395 Z-4.802 I2.972 J-2.545
X-261.771 Y-121.305 Z-4.994 I-2.972 J2.545
X-255.827 Y-126.395 Z-5.186 I2.972 J-2.545
X-261.771 Y-121.305 Z-5.378 I-2.972 J2.545
X-255.827 Y-126.395 Z-5.57 I2.972 J-2.545
X-261.771 Y-121.305 Z-5.762 I-2.972 J2.545
X-255.827 Y-126.395 Z-5.954 I2.972 J-2.545
X-261.771 Y-121.305 Z-6.146 I-2.972 J2.545
X-255.827 Y-126.395 Z-6.338 I2.972 J-2.545
X-261.771 Y-121.305 Z-6.53 I-2.972 J2.545
X-255.827 Y-126.395 Z-6.722 I2.972 J-2.545
X-261.771 Y-121.305 Z-6.914 I-2.972 J2.545
X-255.827 Y-126.395 Z-7.106 I2.972 J-2.545
X-261.771 Y-121.305 Z-7.298 I-2.972 J2.545
X-255.827 Y-126.395 Z-7.491 I2.972 J-2.545
X-261.771 Y-121.305 Z-7.683 I-2.972 J2.545
X-255.827 Y-126.395 Z-7.875 I2.972 J-2.545
X-261.771 Y-121.305 Z-8.067 I-2.972 J2.545
X-255.827 Y-126.395 Z-8.259 I2.972 J-2.545
X-254.889 Y-123.981 Z-8.3 I-2.972 J2.545
X-262.709 Y-123.719 I-3.91 J0.131
X-254.889 Y-123.981 I3.91 J-0.131
X-255.195 Y-123.653 I-0.317 J0.011
G1 X-255.354 Y-123.648
X-255.425 Y-123.646 Z-8.292
X-255.492 Y-123.643 Z-8.269
X-255.552 Y-123.641 Z-8.231
X-255.602 Y-123.64 Z-8.18
X-255.64 Y-123.638 Z-8.12
X-255.663 Z-8.053
X-255.671 Y-123.637 Z-7.983
Z15
(When using Fusion 360 for Personal Use, the feedrate of)
(rapid moves is reduced to match the feedrate of cutting)
(moves, which can increase machining time. Unrestricted rapid)
(moves are available with a Fusion 360 Subscription.)

(2D-Kontur1)
G0 X-48.966 Y-83.663
G1 Z15 F1000
Z5
Z1 F333.3
X-47.753 Y-84.877 Z0.955
G3 X-47.523 Y-84.877 Z0.948 I0.115 J0.115
X-47.523 Y-84.647 Z0.942 I-0.115 J0.115
G1 X-49.998 Y-82.172 Z0.85
G3 X-50.228 Y-82.172 Z0.843 I-0.115 J-0.115
X-50.228 Y-82.402 Z0.837 I0.115 J-0.115
G1 X-47.753 Y-84.877 Z0.745
G3 X-47.523 Y-84.877 Z0.738 I0.115 J0.115
X-47.523 Y-84.647 Z0.732 I-0.115 J0.115
G1 X-49.998 Y-82.172 Z0.64
G3 X-50.228 Y-82.172 Z0.633 I-0.115 J-0.115
X-50.228 Y-82.402 Z0.627 I0.115 J-0.115
G1 X-47.753 Y-84.877 Z0.535
G3 X-47.523 Y-84.877 Z0.528 I0.115 J0.115
X-47.523 Y-84.647 Z0.522 I-0.115 J0.115
G1 X-49.998 Y-82.172 Z0.43
G3 X-50.228 Y-82.172 Z0.423 I-0.115 J-0.115
X-50.228 Y-82.402 Z0.417 I0.115 J-0.115
G1 X-47.753 Y-84.877 Z0.325
G3 X-47.523 Y-84.877 Z0.318 I0.115 J0.115
X-47.523 Y-84.647 Z0.312 I-0.115 J0.115
G1 X-49.998 Y-82.172 Z0.22
G3 X-50.228 Y-82.172 Z0.213 I-0.115 J-0.115
X-50.228 Y-82.402 Z0.207 I0.115 J-0.115
G1 X-47.753 Y-84.877 Z0.115
G3 X-47.523 Y-84.877 Z0.108 I0.115 J0.115
X-47.523 Y-84.647 Z0.102 I-0.115 J0.115
G1 X-49.998 Y-82.172 Z0.01
G3 X-50.228 Y-82.172 Z0.003 I-0.115 J-0.115
X-50.228 Y-82.402 Z-0.003 I0.115 J-0.115
G1 X-47.753 Y-84.877 Z-0.095
G3 X-47.523 Y-84.877 Z-0.102 I0.115 J0.115
X-47.523 Y-84.647 Z-0.109 I-0.115 J0.115
G1 X-49.998 Y-82.172 Z-0.2
G3 X-50.228 Y-82.172 Z-0.207 I-0.115 J-0.115
X-50.228 Y-82.402 Z-0.214 I0.115 J-0.115
G1 X-47.753 Y-84.877 Z-0.305
G3 X-47.523 Y-84.877 Z-0.312 I0.115 J0.115
X-47.523 Y-84.647 Z-0.319 I-0.115 J0.115
G1 X-49.998 Y-82.172 Z-0.41
G3 X-50.228 Y-82.172 Z-0.417 I-0.115 J-0.115
X-50.228 Y-82.402 Z-0.424 I0.115 J-0.115
G1 X-47.753 Y-84.877 Z-0.515
G3 X-47.523 Y-84.877 Z-0.522 I0.115 J0.115
X-47.523 Y-84.647 Z-0.529 I-0.115 J0.115
G1 X-49.998 Y-82.172 Z-0.62
G3 X-50.228 Y-82.172 Z-0.627 I-0.115 J-0.115
X-50.228 Y-82.402 Z-0.634 I0.115 J-0.115
G1 X-47.753 Y-84.877 Z-0.725
G3 X-47.523 Y-84.877 Z-0.732 I0.115 J0.115
X-47.523 Y-84.647 Z-0.739 I-0.115 J0.115
G1 X-49.998 Y-82.172 Z-0.83
G3 X-50.228 Y-82.172 Z-0.837 I-0.115 J-0.115
X-50.228 Y-82.402 Z-0.844 I0.115 J-0.115
G1 X-47.753 Y-84.877 Z-0.935
G3 X-47.523 Y-84.877 Z-0.942 I0.115 J0.115
X-47.523 Y-84.647 Z-0.949 I-0.115 J0.115
G1 X-49.998 Y-82.172 Z-1.04
G3 X-50.228 Y-82.172 Z-1.047 I-0.115 J-0.115
X-50.228 Y-82.402 Z-1.054 I0.115 J-0.115
G1 X-47.753 Y-84.877 Z-1.145
G3 X-47.523 Y-84.877 Z-1.152 I0.115 J0.115
X-47.523 Y-84.647 Z-1.159 I-0.115 J0.115
G1 X-49.998 Y-82.172 Z-1.25
G3 X-50.228 Y-82.172 Z-1.257 I-0.115 J-0.115
X-50.228 Y-82.402 Z-1.264 I0.115 J-0.115
G1 X-47.753 Y-84.877 Z-1.355
G3 X-47.523 Y-84.877 Z-1.362 I0.115 J0.115
X-47.523 Y-84.647 Z-1.369 I-0.115 J0.115
G1 X-49.998 Y-82.172 Z-1.46
G3 X-50.228 Y-82.172 Z-1.467 I-0.115 J-0.115
X-50.228 Y-82.402 Z-1.474 I0.115 J-0.115
G1 X-47.753 Y-84.877 Z-1.565
G3 X-47.523 Y-84.877 Z-1.572 I0.115 J0.115
X-47.523 Y-84.647 Z-1.579 I-0.115 J0.115
G1 X-49.998 Y-82.172 Z-1.67
G3 X-50.228 Y-82.172 Z-1.677 I-0.115 J-0.115
X-50.228 Y-82.402 Z-1.684 I0.115 J-0.115
G1 X-47.753 Y-84.877 Z-1.775
G3 X-47.523 Y-84.877 Z-1.782 I0.115 J0.115
X-47.523 Y-84.647 Z-1.789 I-0.115 J0.115
G1 X-49.998 Y-82.172 Z-1.88
G3 X-50.228 Y-82.172 Z-1.887 I-0.115 J-0.115
X-50.228 Y-82.402 Z-1.894 I0.115 J-0.115
G1 X-47.753 Y-84.877 Z-1.985
G3 X-47.523 Y-84.877 Z-1.992 I0.115 J0.115
X-47.523 Y-84.647 Z-1.999 I-0.115 J0.115
G1 X-49.998 Y-82.172 Z-2.09
G3 X-50.228 Y-82.172 Z-2.097 I-0.115 J-0.115
X-50.228 Y-82.402 Z-2.104 I0.115 J-0.115
G1 X-47.753 Y-84.877 Z-2.196
G3 X-47.523 Y-84.877 Z-2.202 I0.115 J0.115
X-47.523 Y-84.647 Z-2.209 I-0.115 J0.115
G1 X-49.998 Y-82.172 Z-2.301
G3 X-50.228 Y-82.172 Z-2.307 I-0.115 J-0.115
X-50.228 Y-82.402 Z-2.314 I0.115 J-0.115
G1 X-47.753 Y-84.877 Z-2.406
G3 X-47.523 Y-84.877 Z-2.412 I0.115 J0.115
X-47.523 Y-84.647 Z-2.419 I-0.115 J0.115
G1 X-49.998 Y-82.172 Z-2.511
G3 X-50.228 Y-82.172 Z-2.517 I-0.115 J-0.115
X-50.228 Y-82.402 Z-2.524 I0.115 J-0.115
G1 X-47.753 Y-84.877 Z-2.616
G3 X-47.523 Y-84.877 Z-2.622 I0.115 J0.115
X-47.523 Y-84.647 Z-2.629 I-0.115 J0.115
G1 X-49.998 Y-82.172 Z-2.721
G3 X-50.228 Y-82.172 Z-2.727 I-0.115 J-0.115
X-50.228 Y-82.402 Z-2.734 I0.115 J-0.115
G1 X-47.753 Y-84.877 Z-2.826
G3 X-47.523 Y-84.877 Z-2.832 I0.115 J0.115
X-47.523 Y-84.647 Z-2.839 I-0.115 J0.115
G1 X-49.998 Y-82.172 Z-2.931
G3 X-50.228 Y-82.172 Z-2.937 I-0.115 J-0.115
X-50.228 Y-82.402 Z-2.944 I0.115 J-0.115
G1 X-47.753 Y-84.877 Z-3.036
G3 X-47.523 Y-84.877 Z-3.042 I0.115 J0.115
X-47.523 Y-84.647 Z-3.049 I-0.115 J0.115
G1 X-49.998 Y-82.172 Z-3.141
G3 X-50.228 Y-82.172 Z-3.147 I-0.115 J-0.115
X-50.228 Y-82.402 Z-3.154 I0.115 J-0.115
G1 X-47.753 Y-84.877 Z-3.246
G3 X-47.523 Y-84.877 Z-3.252 I0.115 J0.115
X-47.523 Y-84.647 Z-3.259 I-0.115 J0.115
G1 X-49.998 Y-82.172 Z-3.351
G3 X-50.228 Y-82.172 Z-3.357 I-0.115 J-0.115
X-50.228 Y-82.402 Z-3.364 I0.115 J-0.115
G1 X-47.753 Y-84.877 Z-3.456
G3 X-47.523 Y-84.877 Z-3.462 I0.115 J0.115
X-47.523 Y-84.647 Z-3.469 I-0.115 J0.115
G1 X-49.998 Y-82.172 Z-3.561
G3 X-50.228 Y-82.172 Z-3.567 I-0.115 J-0.115
X-50.228 Y-82.402 Z-3.574 I0.115 J-0.115
G1 X-47.753 Y-84.877 Z-3.666
G3 X-47.523 Y-84.877 Z-3.672 I0.115 J0.115
X-47.523 Y-84.647 Z-3.679 I-0.115 J0.115
G1 X-49.998 Y-82.172 Z-3.771
G3 X-50.228 Y-82.172 Z-3.777 I-0.115 J-0.115
X-50.228 Y-82.402 Z-3.784 I0.115 J-0.115
G1 X-47.753 Y-84.877 Z-3.876
G3 X-47.523 Y-84.877 Z-3.883 I0.115 J0.115
X-47.523 Y-84.647 Z-3.889 I-0.115 J0.115
G1 X-49.998 Y-82.172 Z-3.981
G3 X-50.228 Y-82.172 Z-3.988 I-0.115 J-0.115
X-50.228 Y-82.402 Z-3.994 I0.115 J-0.115
G1 X-47.753 Y-84.877 Z-4.086
G3 X-47.523 Y-84.877 Z-4.093 I0.115 J0.115
X-47.523 Y-84.647 Z-4.099 I-0.115 J0.115
G1 X-49.998 Y-82.172 Z-4.191
G3 X-50.228 Y-82.172 Z-4.198 I-0.115 J-0.115
X-50.228 Y-82.402 Z-4.204 I0.115 J-0.115
G1 X-47.753 Y-84.877 Z-4.296
G3 X-47.523 Y-84.877 Z-4.303 I0.115 J0.115
X-47.523 Y-84.647 Z-4.309 I-0.115 J0.115
G1 X-49.998 Y-82.172 Z-4.401
G3 X-50.228 Y-82.172 Z-4.408 I-0.115 J-0.115
X-50.228 Y-82.402 Z-4.414 I0.115 J-0.115
G1 X-47.753 Y-84.877 Z-4.506
G3 X-47.523 Y-84.877 Z-4.513 I0.115 J0.115
X-47.523 Y-84.647 Z-4.519 I-0.115 J0.115
G1 X-49.998 Y-82.172 Z-4.611
G3 X-50.228 Y-82.172 Z-4.618 I-0.115 J-0.115
X-50.228 Y-82.402 Z-4.624 I0.115 J-0.115
G1 X-47.753 Y-84.877 Z-4.716
G3 X-47.523 Y-84.877 Z-4.723 I0.115 J0.115
X-47.523 Y-84.647 Z-4.729 I-0.115 J0.115
G1 X-49.998 Y-82.172 Z-4.821
G3 X-50.228 Y-82.172 Z-4.828 I-0.115 J-0.115
X-50.228 Y-82.402 Z-4.834 I0.115 J-0.115
G1 X-47.753 Y-84.877 Z-4.926
G3 X-47.523 Y-84.877 Z-4.933 I0.115 J0.115
X-47.523 Y-84.647 Z-4.939 I-0.115 J0.115
G1 X-49.998 Y-82.172 Z-5.031
G3 X-50.228 Y-82.172 Z-5.038 I-0.115 J-0.115
X-50.228 Y-82.402 Z-5.044 I0.115 J-0.115
G1 X-47.753 Y-84.877 Z-5.136
G3 X-47.523 Y-84.877 Z-5.143 I0.115 J0.115
X-47.523 Y-84.647 Z-5.149 I-0.115 J0.115
G1 X-49.998 Y-82.172 Z-5.241
G3 X-50.228 Y-82.172 Z-5.248 I-0.115 J-0.115
X-50.228 Y-82.402 Z-5.254 I0.115 J-0.115
G1 X-47.753 Y-84.877 Z-5.346
G3 X-47.523 Y-84.877 Z-5.353 I0.115 J0.115
X-47.523 Y-84.647 Z-5.359 I-0.115 J0.115
G1 X-49.998 Y-82.172 Z-5.451
G3 X-50.228 Y-82.172 Z-5.458 I-0.115 J-0.115
X-50.228 Y-82.402 Z-5.464 I0.115 J-0.115
G1 X-47.753 Y-84.877 Z-5.556
G3 X-47.523 Y-84.877 Z-5.563 I0.115 J0.115
X-47.523 Y-84.647 Z-5.569 I-0.115 J0.115
G1 X-49.998 Y-82.172 Z-5.661
G3 X-50.228 Y-82.172 Z-5.668 I-0.115 J-0.115
X-50.228 Y-82.402 Z-5.675 I0.115 J-0.115
G1 X-47.753 Y-84.877 Z-5.766
G3 X-47.523 Y-84.877 Z-5.773 I0.115 J0.115
X-47.523 Y-84.647 Z-5.78 I-0.115 J0.115
G1 X-49.998 Y-82.172 Z-5.871
G3 X-50.228 Y-82.172 Z-5.878 I-0.115 J-0.115
X-50.228 Y-82.402 Z-5.885 I0.115 J-0.115
G1 X-47.753 Y-84.877 Z-5.976
G3 X-47.523 Y-84.877 Z-5.983 I0.115 J0.115
X-47.523 Y-84.647 Z-5.99 I-0.115 J0.115
G1 X-49.998 Y-82.172 Z-6.081
G3 X-50.228 Y-82.172 Z-6.088 I-0.115 J-0.115
X-50.228 Y-82.402 Z-6.095 I0.115 J-0.115
G1 X-47.753 Y-84.877 Z-6.186
G3 X-47.523 Y-84.877 Z-6.193 I0.115 J0.115
X-47.523 Y-84.647 Z-6.2 I-0.115 J0.115
G1 X-49.998 Y-82.172 Z-6.291
G3 X-50.228 Y-82.172 Z-6.298 I-0.115 J-0.115
X-50.228 Y-82.402 Z-6.305 I0.115 J-0.115
G1 X-47.753 Y-84.877 Z-6.396
G3 X-47.523 Y-84.877 Z-6.403 I0.115 J0.115
X-47.523 Y-84.647 Z-6.41 I-0.115 J0.115
G1 X-49.998 Y-82.172 Z-6.501
G3 X-50.228 Y-82.172 Z-6.508 I-0.115 J-0.115
X-50.228 Y-82.402 Z-6.515 I0.115 J-0.115
G1 X-47.753 Y-84.877 Z-6.606
G3 X-47.523 Y-84.877 Z-6.613 I0.115 J0.115
X-47.523 Y-84.647 Z-6.62 I-0.115 J0.115
G1 X-49.998 Y-82.172 Z-6.711
G3 X-50.228 Y-82.172 Z-6.718 I-0.115 J-0.115
X-50.228 Y-82.402 Z-6.725 I0.115 J-0.115
G1 X-47.753 Y-84.877 Z-6.816
G3 X-47.523 Y-84.877 Z-6.823 I0.115 J0.115
X-47.523 Y-84.647 Z-6.83 I-0.115 J0.115
G1 X-49.998 Y-82.172 Z-6.921
G3 X-50.228 Y-82.172 Z-6.928 I-0.115 J-0.115
X-50.228 Y-82.402 Z-6.935 I0.115 J-0.115
G1 X-47.753 Y-84.877 Z-7.026
G3 X-47.523 Y-84.877 Z-7.033 I0.115 J0.115
X-47.523 Y-84.647 Z-7.04 I-0.115 J0.115
G1 X-49.998 Y-82.172 Z-7.131
G3 X-50.228 Y-82.172 Z-7.138 I-0.115 J-0.115
X-50.228 Y-82.402 Z-7.145 I0.115 J-0.115
G1 X-47.753 Y-84.877 Z-7.236
G3 X-47.523 Y-84.877 Z-7.243 I0.115 J0.115
X-47.523 Y-84.647 Z-7.25 I-0.115 J0.115
G1 X-49.998 Y-82.172 Z-7.341
G3 X-50.228 Y-82.172 Z-7.348 I-0.115 J-0.115
X-50.228 Y-82.402 Z-7.355 I0.115 J-0.115
G1 X-47.753 Y-84.877 Z-7.446
G3 X-47.523 Y-84.877 Z-7.453 I0.115 J0.115
X-47.523 Y-84.647 Z-7.46 I-0.115 J0.115
G1 X-49.998 Y-82.172 Z-7.551
G3 X-50.228 Y-82.172 Z-7.558 I-0.115 J-0.115
X-50.228 Y-82.402 Z-7.565 I0.115 J-0.115
G1 X-47.753 Y-84.877 Z-7.657
G3 X-47.523 Y-84.877 Z-7.663 I0.115 J0.115
X-47.523 Y-84.647 Z-7.67 I-0.115 J0.115
G1 X-49.998 Y-82.172 Z-7.762
G3 X-50.228 Y-82.172 Z-7.768 I-0.115 J-0.115
X-50.228 Y-82.402 Z-7.775 I0.115 J-0.115
G1 X-47.753 Y-84.877 Z-7.867
G3 X-47.523 Y-84.877 Z-7.873 I0.115 J0.115
X-47.523 Y-84.647 Z-7.88 I-0.115 J0.115
G1 X-49.998 Y-82.172 Z-7.972
G3 X-50.228 Y-82.172 Z-7.978 I-0.115 J-0.115
X-50.228 Y-82.402 Z-7.985 I0.115 J-0.115
G1 X-47.753 Y-84.877 Z-8.077
G3 X-47.523 Y-84.877 Z-8.083 I0.115 J0.115
X-47.523 Y-84.647 Z-8.09 I-0.115 J0.115
G1 X-49.998 Y-82.172 Z-8.182
G3 X-50.228 Y-82.172 Z-8.188 I-0.115 J-0.115
X-50.228 Y-82.402 Z-8.195 I0.115 J-0.115
G1 X-47.753 Y-84.877 Z-8.287
G3 X-47.523 Y-84.877 Z-8.293 I0.115 J0.115
X-47.523 Y-84.647 Z-8.3 I-0.115 J0.115
G1 X-49.998 Y-82.172 F1000
G3 X-50.228 Y-82.172 I-0.115 J-0.115
X-50.228 Y-82.402 I0.115 J-0.115
G1 X-47.753 Y-84.877
G3 X-47.523 Y-84.877 I0.115 J0.115
X-47.523 Y-84.647 I-0.115 J0.115
G1 Z5
X-33.449 Y-83.071
Z1 F333.3
X-35.025 Y-84.647 Z0.942
G3 X-35.025 Y-84.877 Z0.935 I0.115 J-0.115
X-34.795 Y-84.877 Z0.928 I0.115 J0.115
G1 X-32.32 Y-82.402 Z0.837
G3 X-32.32 Y-82.172 Z0.83 I-0.115 J0.115
X-32.55 Y-82.172 Z0.823 I-0.115 J-0.115
G1 X-35.025 Y-84.647 Z0.732
G3 X-35.025 Y-84.877 Z0.725 I0.115 J-0.115
X-34.795 Y-84.877 Z0.718 I0.115 J0.115
G1 X-32.32 Y-82.402 Z0.627
G3 X-32.32 Y-82.172 Z0.62 I-0.115 J0.115
X-32.55 Y-82.172 Z0.613 I-0.115 J-0.115
G1 X-35.025 Y-84.647 Z0.522
G3 X-35.025 Y-84.877 Z0.515 I0.115 J-0.115
X-34.795 Y-84.877 Z0.508 I0.115 J0.115
G1 X-32.32 Y-82.402 Z0.417
G3 X-32.32 Y-82.172 Z0.41 I-0.115 J0.115
X-32.55 Y-82.172 Z0.403 I-0.115 J-0.115
G1 X-35.025 Y-84.647 Z0.312
G3 X-35.025 Y-84.877 Z0.305 I0.115 J-0.115
X-34.795 Y-84.877 Z0.298 I0.115 J0.115
G1 X-32.32 Y-82.402 Z0.206
G3 X-32.32 Y-82.172 Z0.2 I-0.115 J0.115
X-32.55 Y-82.172 Z0.193 I-0.115 J-0.115
G1 X-35.025 Y-84.647 Z0.101
G3 X-35.025 Y-84.877 Z0.095 I0.115 J-0.115
X-34.795 Y-84.877 Z0.088 I0.115 J0.115
G1 X-32.32 Y-82.402 Z-0.004
G3 X-32.32 Y-82.172 Z-0.01 I-0.115 J0.115
X-32.55 Y-82.172 Z-0.017 I-0.115 J-0.115
G1 X-35.025 Y-84.647 Z-0.109
G3 X-35.025 Y-84.877 Z-0.115 I0.115 J-0.115
X-34.795 Y-84.877 Z-0.122 I0.115 J0.115
G1 X-32.32 Y-82.402 Z-0.214
G3 X-32.32 Y-82.172 Z-0.22 I-0.115 J0.115
X-32.55 Y-82.172 Z-0.227 I-0.115 J-0.115
G1 X-35.025 Y-84.647 Z-0.319
G3 X-35.025 Y-84.877 Z-0.325 I0.115 J-0.115
X-34.795 Y-84.877 Z-0.332 I0.115 J0.115
G1 X-32.32 Y-82.402 Z-0.424
G3 X-32.32 Y-82.172 Z-0.43 I-0.115 J0.115
X-32.55 Y-82.172 Z-0.437 I-0.115 J-0.115
G1 X-35.025 Y-84.647 Z-0.529
G3 X-35.025 Y-84.877 Z-0.535 I0.115 J-0.115
X-34.795 Y-84.877 Z-0.542 I0.115 J0.115
G1 X-32.32 Y-82.402 Z-0.634
G3 X-32.32 Y-82.172 Z-0.64 I-0.115 J0.115
X-32.55 Y-82.172 Z-0.647 I-0.115 J-0.115
G1 X-35.025 Y-84.647 Z-0.739
G3 X-35.025 Y-84.877 Z-0.745 I0.115 J-0.115
X-34.795 Y-84.877 Z-0.752 I0.115 J0.115
G1 X-32.32 Y-82.402 Z-0.844
G3 X-32.32 Y-82.172 Z-0.85 I-0.115 J0.115
X-32.55 Y-82.172 Z-0.857 I-0.115 J-0.115
G1 X-35.025 Y-84.647 Z-0.949
G3 X-35.025 Y-84.877 Z-0.955 I0.115 J-0.115
X-34.795 Y-84.877 Z-0.962 I0.115 J0.115
G1 X-32.32 Y-82.402 Z-1.054
G3 X-32.32 Y-82.172 Z-1.06 I-0.115 J0.115
X-32.55 Y-82.172 Z-1.067 I-0.115 J-0.115
G1 X-35.025 Y-84.647 Z-1.159
G3 X-35.025 Y-84.877 Z-1.165 I0.115 J-0.115
X-34.795 Y-84.877 Z-1.172 I0.115 J0.115
G1 X-32.32 Y-82.402 Z-1.264
G3 X-32.32 Y-82.172 Z-1.27 I-0.115 J0.115
X-32.55 Y-82.172 Z-1.277 I-0.115 J-0.115
G1 X-35.025 Y-84.647 Z-1.369
G3 X-35.025 Y-84.877 Z-1.375 I0.115 J-0.115
X-34.795 Y-84.877 Z-1.382 I0.115 J0.115
G1 X-32.32 Y-82.402 Z-1.474
G3 X-32.32 Y-82.172 Z-1.48 I-0.115 J0.115
X-32.55 Y-82.172 Z-1.487 I-0.115 J-0.115
G1 X-35.025 Y-84.647 Z-1.579
G3 X-35.025 Y-84.877 Z-1.586 I0.115 J-0.115
X-34.795 Y-84.877 Z-1.592 I0.115 J0.115
G1 X-32.32 Y-82.402 Z-1.684
G3 X-32.32 Y-82.172 Z-1.691 I-0.115 J0.115
X-32.55 Y-82.172 Z-1.697 I-0.115 J-0.115
G1 X-35.025 Y-84.647 Z-1.789
G3 X-35.025 Y-84.877 Z-1.796 I0.115 J-0.115
X-34.795 Y-84.877 Z-1.802 I0.115 J0.115
G1 X-32.32 Y-82.402 Z-1.894
G3 X-32.32 Y-82.172 Z-1.901 I-0.115 J0.115
X-32.55 Y-82.172 Z-1.907 I-0.115 J-0.115
G1 X-35.025 Y-84.647 Z-1.999
G3 X-35.025 Y-84.877 Z-2.006 I0.115 J-0.115
X-34.795 Y-84.877 Z-2.012 I0.115 J0.115
G1 X-32.32 Y-82.402 Z-2.104
G3 X-32.32 Y-82.172 Z-2.111 I-0.115 J0.115
X-32.55 Y-82.172 Z-2.117 I-0.115 J-0.115
G1 X-35.025 Y-84.647 Z-2.209
G3 X-35.025 Y-84.877 Z-2.216 I0.115 J-0.115
X-34.795 Y-84.877 Z-2.222 I0.115 J0.115
G1 X-32.32 Y-82.402 Z-2.314
G3 X-32.32 Y-82.172 Z-2.321 I-0.115 J0.115
X-32.55 Y-82.172 Z-2.327 I-0.115 J-0.115
G1 X-35.025 Y-84.647 Z-2.419
G3 X-35.025 Y-84.877 Z-2.426 I0.115 J-0.115
X-34.795 Y-84.877 Z-2.432 I0.115 J0.115
G1 X-32.32 Y-82.402 Z-2.524
G3 X-32.32 Y-82.172 Z-2.531 I-0.115 J0.115
X-32.55 Y-82.172 Z-2.537 I-0.115 J-0.115
G1 X-35.025 Y-84.647 Z-2.629
G3 X-35.025 Y-84.877 Z-2.636 I0.115 J-0.115
X-34.795 Y-84.877 Z-2.642 I0.115 J0.115
G1 X-32.32 Y-82.402 Z-2.734
G3 X-32.32 Y-82.172 Z-2.741 I-0.115 J0.115
X-32.55 Y-82.172 Z-2.747 I-0.115 J-0.115
G1 X-35.025 Y-84.647 Z-2.839
G3 X-35.025 Y-84.877 Z-2.846 I0.115 J-0.115
X-34.795 Y-84.877 Z-2.852 I0.115 J0.115
G1 X-32.32 Y-82.402 Z-2.944
G3 X-32.32 Y-82.172 Z-2.951 I-0.115 J0.115
X-32.55 Y-82.172 Z-2.957 I-0.115 J-0.115
G1 X-35.025 Y-84.647 Z-3.049
G3 X-35.025 Y-84.877 Z-3.056 I0.115 J-0.115
X-34.795 Y-84.877 Z-3.062 I0.115 J0.115
G1 X-32.32 Y-82.402 Z-3.154
G3 X-32.32 Y-82.172 Z-3.161 I-0.115 J0.115
X-32.55 Y-82.172 Z-3.167 I-0.115 J-0.115
G1 X-35.025 Y-84.647 Z-3.259
G3 X-35.025 Y-84.877 Z-3.266 I0.115 J-0.115
X-34.795 Y-84.877 Z-3.272 I0.115 J0.115
G1 X-32.32 Y-82.402 Z-3.364
G3 X-32.32 Y-82.172 Z-3.371 I-0.115 J0.115
X-32.55 Y-82.172 Z-3.378 I-0.115 J-0.115
G1 X-35.025 Y-84.647 Z-3.469
G3 X-35.025 Y-84.877 Z-3.476 I0.115 J-0.115
X-34.795 Y-84.877 Z-3.483 I0.115 J0.115
G1 X-32.32 Y-82.402 Z-3.574
G3 X-32.32 Y-82.172 Z-3.581 I-0.115 J0.115
X-32.55 Y-82.172 Z-3.588 I-0.115 J-0.115
G1 X-35.025 Y-84.647 Z-3.679
G3 X-35.025 Y-84.877 Z-3.686 I0.115 J-0.115
X-34.795 Y-84.877 Z-3.693 I0.115 J0.115
G1 X-32.32 Y-82.402 Z-3.784
G3 X-32.32 Y-82.172 Z-3.791 I-0.115 J0.115
X-32.55 Y-82.172 Z-3.798 I-0.115 J-0.115
G1 X-35.025 Y-84.647 Z-3.889
G3 X-35.025 Y-84.877 Z-3.896 I0.115 J-0.115
X-34.795 Y-84.877 Z-3.903 I0.115 J0.115
G1 X-32.32 Y-82.402 Z-3.994
G3 X-32.32 Y-82.172 Z-4.001 I-0.115 J0.115
X-32.55 Y-82.172 Z-4.008 I-0.115 J-0.115
G1 X-35.025 Y-84.647 Z-4.099
G3 X-35.025 Y-84.877 Z-4.106 I0.115 J-0.115
X-34.795 Y-84.877 Z-4.113 I0.115 J0.115
G1 X-32.32 Y-82.402 Z-4.204
G3 X-32.32 Y-82.172 Z-4.211 I-0.115 J0.115
X-32.55 Y-82.172 Z-4.218 I-0.115 J-0.115
G1 X-35.025 Y-84.647 Z-4.309
G3 X-35.025 Y-84.877 Z-4.316 I0.115 J-0.115
X-34.795 Y-84.877 Z-4.323 I0.115 J0.115
G1 X-32.32 Y-82.402 Z-4.414
G3 X-32.32 Y-82.172 Z-4.421 I-0.115 J0.115
X-32.55 Y-82.172 Z-4.428 I-0.115 J-0.115
G1 X-35.025 Y-84.647 Z-4.519
G3 X-35.025 Y-84.877 Z-4.526 I0.115 J-0.115
X-34.795 Y-84.877 Z-4.533 I0.115 J0.115
G1 X-32.32 Y-82.402 Z-4.624
G3 X-32.32 Y-82.172 Z-4.631 I-0.115 J0.115
X-32.55 Y-82.172 Z-4.638 I-0.115 J-0.115
G1 X-35.025 Y-84.647 Z-4.729
G3 X-35.025 Y-84.877 Z-4.736 I0.115 J-0.115
X-34.795 Y-84.877 Z-4.743 I0.115 J0.115
G1 X-32.32 Y-82.402 Z-4.834
G3 X-32.32 Y-82.172 Z-4.841 I-0.115 J0.115
X-32.55 Y-82.172 Z-4.848 I-0.115 J-0.115
G1 X-35.025 Y-84.647 Z-4.939
G3 X-35.025 Y-84.877 Z-4.946 I0.115 J-0.115
X-34.795 Y-84.877 Z-4.953 I0.115 J0.115
G1 X-32.32 Y-82.402 Z-5.044
G3 X-32.32 Y-82.172 Z-5.051 I-0.115 J0.115
X-32.55 Y-82.172 Z-5.058 I-0.115 J-0.115
G1 X-35.025 Y-84.647 Z-5.149
G3 X-35.025 Y-84.877 Z-5.156 I0.115 J-0.115
X-34.795 Y-84.877 Z-5.163 I0.115 J0.115
G1 X-32.32 Y-82.402 Z-5.254
G3 X-32.32 Y-82.172 Z-5.261 I-0.115 J0.115
X-32.55 Y-82.172 Z-5.268 I-0.115 J-0.115
G1 X-35.025 Y-84.647 Z-5.359
G3 X-35.025 Y-84.877 Z-5.366 I0.115 J-0.115
X-34.795 Y-84.877 Z-5.373 I0.115 J0.115
G1 X-32.32 Y-82.402 Z-5.464
G3 X-32.32 Y-82.172 Z-5.471 I-0.115 J0.115
X-32.55 Y-82.172 Z-5.478 I-0.115 J-0.115
G1 X-35.025 Y-84.647 Z-5.57
G3 X-35.025 Y-84.877 Z-5.576 I0.115 J-0.115
X-34.795 Y-84.877 Z-5.583 I0.115 J0.115
G1 X-32.32 Y-82.402 Z-5.675
G3 X-32.32 Y-82.172 Z-5.681 I-0.115 J0.115
X-32.55 Y-82.172 Z-5.688 I-0.115 J-0.115
G1 X-35.025 Y-84.647 Z-5.78
G3 X-35.025 Y-84.877 Z-5.786 I0.115 J-0.115
X-34.795 Y-84.877 Z-5.793 I0.115 J0.115
G1 X-32.32 Y-82.402 Z-5.885
G3 X-32.32 Y-82.172 Z-5.891 I-0.115 J0.115
X-32.55 Y-82.172 Z-5.898 I-0.115 J-0.115
G1 X-35.025 Y-84.647 Z-5.99
G3 X-35.025 Y-84.877 Z-5.996 I0.115 J-0.115
X-34.795 Y-84.877 Z-6.003 I0.115 J0.115
G1 X-32.32 Y-82.402 Z-6.095
G3 X-32.32 Y-82.172 Z-6.101 I-0.115 J0.115
X-32.55 Y-82.172 Z-6.108 I-0.115 J-0.115
G1 X-35.025 Y-84.647 Z-6.2
G3 X-35.025 Y-84.877 Z-6.206 I0.115 J-0.115
X-34.795 Y-84.877 Z-6.213 I0.115 J0.115
G1 X-32.32 Y-82.402 Z-6.305
G3 X-32.32 Y-82.172 Z-6.311 I-0.115 J0.115
X-32.55 Y-82.172 Z-6.318 I-0.115 J-0.115
G1 X-35.025 Y-84.647 Z-6.41
G3 X-35.025 Y-84.877 Z-6.416 I0.115 J-0.115
X-34.795 Y-84.877 Z-6.423 I0.115 J0.115
G1 X-32.32 Y-82.402 Z-6.515
G3 X-32.32 Y-82.172 Z-6.521 I-0.115 J0.115
X-32.55 Y-82.172 Z-6.528 I-0.115 J-0.115
G1 X-35.025 Y-84.647 Z-6.62
G3 X-35.025 Y-84.877 Z-6.626 I0.115 J-0.115
X-34.795 Y-84.877 Z-6.633 I0.115 J0.115
G1 X-32.32 Y-82.402 Z-6.725
G3 X-32.32 Y-82.172 Z-6.731 I-0.115 J0.115
X-32.55 Y-82.172 Z-6.738 I-0.115 J-0.115
G1 X-35.025 Y-84.647 Z-6.83
G3 X-35.025 Y-84.877 Z-6.836 I0.115 J-0.115
X-34.795 Y-84.877 Z-6.843 I0.115 J0.115
G1 X-32.32 Y-82.402 Z-6.935
G3 X-32.32 Y-82.172 Z-6.941 I-0.115 J0.115
X-32.55 Y-82.172 Z-6.948 I-0.115 J-0.115
G1 X-35.025 Y-84.647 Z-7.04
G3 X-35.025 Y-84.877 Z-7.046 I0.115 J-0.115
X-34.795 Y-84.877 Z-7.053 I0.115 J0.115
G1 X-32.32 Y-82.402 Z-7.145
G3 X-32.32 Y-82.172 Z-7.151 I-0.115 J0.115
X-32.55 Y-82.172 Z-7.158 I-0.115 J-0.115
G1 X-35.025 Y-84.647 Z-7.25
G3 X-35.025 Y-84.877 Z-7.256 I0.115 J-0.115
X-34.795 Y-84.877 Z-7.263 I0.115 J0.115
G1 X-32.32 Y-82.402 Z-7.355
G3 X-32.32 Y-82.172 Z-7.362 I-0.115 J0.115
X-32.55 Y-82.172 Z-7.368 I-0.115 J-0.115
G1 X-35.025 Y-84.647 Z-7.46
G3 X-35.025 Y-84.877 Z-7.467 I0.115 J-0.115
X-34.795 Y-84.877 Z-7.473 I0.115 J0.115
G1 X-32.32 Y-82.402 Z-7.565
G3 X-32.32 Y-82.172 Z-7.572 I-0.115 J0.115
X-32.55 Y-82.172 Z-7.578 I-0.115 J-0.115
G1 X-35.025 Y-84.647 Z-7.67
G3 X-35.025 Y-84.877 Z-7.677 I0.115 J-0.115
X-34.795 Y-84.877 Z-7.683 I0.115 J0.115
G1 X-32.32 Y-82.402 Z-7.775
G3 X-32.32 Y-82.172 Z-7.782 I-0.115 J0.115
X-32.55 Y-82.172 Z-7.788 I-0.115 J-0.115
G1 X-35.025 Y-84.647 Z-7.88
G3 X-35.025 Y-84.877 Z-7.887 I0.115 J-0.115
X-34.795 Y-84.877 Z-7.893 I0.115 J0.115
G1 X-32.32 Y-82.402 Z-7.985
G3 X-32.32 Y-82.172 Z-7.992 I-0.115 J0.115
X-32.55 Y-82.172 Z-7.998 I-0.115 J-0.115
G1 X-35.025 Y-84.647 Z-8.09
G3 X-35.025 Y-84.877 Z-8.097 I0.115 J-0.115
X-34.795 Y-84.877 Z-8.103 I0.115 J0.115
G1 X-32.32 Y-82.402 Z-8.195
G3 X-32.32 Y-82.172 Z-8.202 I-0.115 J0.115
X-32.55 Y-82.172 Z-8.208 I-0.115 J-0.115
G1 X-35.025 Y-84.647 Z-8.3
G3 X-35.025 Y-84.877 I0.115 J-0.115 F1000
X-34.795 Y-84.877 I0.115 J0.115
G1 X-32.32 Y-82.402
G3 X-32.32 Y-82.172 I-0.115 J0.115
X-32.55 Y-82.172 I-0.115 J-0.115
G1 X-35.025 Y-84.647
Z5
X-33.21 Y-98.96
Z1 F333.3
X-34.795 Y-97.375 Z0.941
G3 X-35.025 Y-97.375 Z0.935 I-0.115 J-0.115
X-35.025 Y-97.605 Z0.928 I0.115 J-0.115
G1 X-32.55 Y-100.079 Z0.836
G3 X-32.32 Y-100.08 Z0.83 I0.115 J0.115
X-32.32 Y-99.85 Z0.823 I-0.115 J0.115
G1 X-34.795 Y-97.375 Z0.731
G3 X-35.025 Y-97.375 Z0.725 I-0.115 J-0.115
X-35.025 Y-97.605 Z0.718 I0.115 J-0.115
G1 X-32.55 Y-100.079 Z0.626
G3 X-32.32 Y-100.08 Z0.62 I0.115 J0.115
X-32.32 Y-99.85 Z0.613 I-0.115 J0.115
G1 X-34.795 Y-97.375 Z0.521
G3 X-35.025 Y-97.375 Z0.515 I-0.115 J-0.115
X-35.025 Y-97.605 Z0.508 I0.115 J-0.115
G1 X-32.55 Y-100.079 Z0.416
G3 X-32.32 Y-100.08 Z0.41 I0.115 J0.115
X-32.32 Y-99.85 Z0.403 I-0.115 J0.115
G1 X-34.795 Y-97.375 Z0.311
G3 X-35.025 Y-97.375 Z0.305 I-0.115 J-0.115
X-35.025 Y-97.605 Z0.298 I0.115 J-0.115
G1 X-32.55 Y-100.079 Z0.206
G3 X-32.32 Y-100.08 Z0.2 I0.115 J0.115
X-32.32 Y-99.85 Z0.193 I-0.115 J0.115
G1 X-34.795 Y-97.375 Z0.101
G3 X-35.025 Y-97.375 Z0.095 I-0.115 J-0.115
X-35.025 Y-97.605 Z0.088 I0.115 J-0.115
G1 X-32.55 Y-100.079 Z-0.004
G3 X-32.32 Y-100.08 Z-0.01 I0.115 J0.115
X-32.32 Y-99.85 Z-0.017 I-0.115 J0.115
G1 X-34.795 Y-97.375 Z-0.109
G3 X-35.025 Y-97.375 Z-0.116 I-0.115 J-0.115
X-35.025 Y-97.605 Z-0.122 I0.115 J-0.115
G1 X-32.55 Y-100.079 Z-0.214
G3 X-32.32 Y-100.08 Z-0.221 I0.115 J0.115
X-32.32 Y-99.85 Z-0.227 I-0.115 J0.115
G1 X-34.795 Y-97.375 Z-0.319
G3 X-35.025 Y-97.375 Z-0.326 I-0.115 J-0.115
X-35.025 Y-97.605 Z-0.332 I0.115 J-0.115
G1 X-32.55 Y-100.079 Z-0.424
G3 X-32.32 Y-100.08 Z-0.431 I0.115 J0.115
X-32.32 Y-99.85 Z-0.437 I-0.115 J0.115
G1 X-34.795 Y-97.375 Z-0.529
G3 X-35.025 Y-97.375 Z-0.536 I-0.115 J-0.115
X-35.025 Y-97.605 Z-0.542 I0.115 J-0.115
G1 X-32.55 Y-100.079 Z-0.634
G3 X-32.32 Y-100.08 Z-0.641 I0.115 J0.115
X-32.32 Y-99.85 Z-0.647 I-0.115 J0.115
G1 X-34.795 Y-97.375 Z-0.739
G3 X-35.025 Y-97.375 Z-0.746 I-0.115 J-0.115
X-35.025 Y-97.605 Z-0.752 I0.115 J-0.115
G1 X-32.55 Y-100.079 Z-0.844
G3 X-32.32 Y-100.08 Z-0.851 I0.115 J0.115
X-32.32 Y-99.85 Z-0.857 I-0.115 J0.115
G1 X-34.795 Y-97.375 Z-0.949
G3 X-35.025 Y-97.375 Z-0.956 I-0.115 J-0.115
X-35.025 Y-97.605 Z-0.962 I0.115 J-0.115
G1 X-32.55 Y-100.079 Z-1.054
G3 X-32.32 Y-100.08 Z-1.061 I0.115 J0.115
X-32.32 Y-99.85 Z-1.067 I-0.115 J0.115
G1 X-34.795 Y-97.375 Z-1.159
G3 X-35.025 Y-97.375 Z-1.166 I-0.115 J-0.115
X-35.025 Y-97.605 Z-1.172 I0.115 J-0.115
G1 X-32.55 Y-100.079 Z-1.264
G3 X-32.32 Y-100.08 Z-1.271 I0.115 J0.115
X-32.32 Y-99.85 Z-1.277 I-0.115 J0.115
G1 X-34.795 Y-97.375 Z-1.369
G3 X-35.025 Y-97.375 Z-1.376 I-0.115 J-0.115
X-35.025 Y-97.605 Z-1.382 I0.115 J-0.115
G1 X-32.55 Y-100.079 Z-1.474
G3 X-32.32 Y-100.08 Z-1.481 I0.115 J0.115
X-32.32 Y-99.85 Z-1.487 I-0.115 J0.115
G1 X-34.795 Y-97.375 Z-1.579
G3 X-35.025 Y-97.375 Z-1.586 I-0.115 J-0.115
X-35.025 Y-97.605 Z-1.592 I0.115 J-0.115
G1 X-32.55 Y-100.079 Z-1.684
G3 X-32.32 Y-100.08 Z-1.691 I0.115 J0.115
X-32.32 Y-99.85 Z-1.697 I-0.115 J0.115
G1 X-34.795 Y-97.375 Z-1.789
G3 X-35.025 Y-97.375 Z-1.796 I-0.115 J-0.115
X-35.025 Y-97.605 Z-1.802 I0.115 J-0.115
G1 X-32.55 Y-100.079 Z-1.894
G3 X-32.32 Y-100.08 Z-1.901 I0.115 J0.115
X-32.32 Y-99.85 Z-1.907 I-0.115 J0.115
G1 X-34.795 Y-97.375 Z-1.999
G3 X-35.025 Y-97.375 Z-2.006 I-0.115 J-0.115
X-35.025 Y-97.605 Z-2.012 I0.115 J-0.115
G1 X-32.55 Y-100.079 Z-2.104
G3 X-32.32 Y-100.08 Z-2.111 I0.115 J0.115
X-32.32 Y-99.85 Z-2.117 I-0.115 J0.115
G1 X-34.795 Y-97.375 Z-2.209
G3 X-35.025 Y-97.375 Z-2.216 I-0.115 J-0.115
X-35.025 Y-97.605 Z-2.223 I0.115 J-0.115
G1 X-32.55 Y-100.079 Z-2.314
G3 X-32.32 Y-100.08 Z-2.321 I0.115 J0.115
X-32.32 Y-99.85 Z-2.328 I-0.115 J0.115
G1 X-34.795 Y-97.375 Z-2.419
G3 X-35.025 Y-97.375 Z-2.426 I-0.115 J-0.115
X-35.025 Y-97.605 Z-2.433 I0.115 J-0.115
G1 X-32.55 Y-100.079 Z-2.524
G3 X-32.32 Y-100.08 Z-2.531 I0.115 J0.115
X-32.32 Y-99.85 Z-2.538 I-0.115 J0.115
G1 X-34.795 Y-97.375 Z-2.629
G3 X-35.025 Y-97.375 Z-2.636 I-0.115 J-0.115
X-35.025 Y-97.605 Z-2.643 I0.115 J-0.115
G1 X-32.55 Y-100.079 Z-2.734
G3 X-32.32 Y-100.08 Z-2.741 I0.115 J0.115
X-32.32 Y-99.85 Z-2.748 I-0.115 J0.115
G1 X-34.795 Y-97.375 Z-2.839
G3 X-35.025 Y-97.375 Z-2.846 I-0.115 J-0.115
X-35.025 Y-97.605 Z-2.853 I0.115 J-0.115
G1 X-32.55 Y-100.079 Z-2.944
G3 X-32.32 Y-100.08 Z-2.951 I0.115 J0.115
X-32.32 Y-99.85 Z-2.958 I-0.115 J0.115
G1 X-34.795 Y-97.375 Z-3.049
G3 X-35.025 Y-97.375 Z-3.056 I-0.115 J-0.115
X-35.025 Y-97.605 Z-3.063 I0.115 J-0.115
G1 X-32.55 Y-100.079 Z-3.154
G3 X-32.32 Y-100.08 Z-3.161 I0.115 J0.115
X-32.32 Y-99.85 Z-3.168 I-0.115 J0.115
G1 X-34.795 Y-97.375 Z-3.259
G3 X-35.025 Y-97.375 Z-3.266 I-0.115 J-0.115
X-35.025 Y-97.605 Z-3.273 I0.115 J-0.115
G1 X-32.55 Y-100.079 Z-3.364
G3 X-32.32 Y-100.08 Z-3.371 I0.115 J0.115
X-32.32 Y-99.85 Z-3.378 I-0.115 J0.115
G1 X-34.795 Y-97.375 Z-3.469
G3 X-35.025 Y-97.375 Z-3.476 I-0.115 J-0.115
X-35.025 Y-97.605 Z-3.483 I0.115 J-0.115
G1 X-32.55 Y-100.079 Z-3.574
G3 X-32.32 Y-100.08 Z-3.581 I0.115 J0.115
X-32.32 Y-99.85 Z-3.588 I-0.115 J0.115
G1 X-34.795 Y-97.375 Z-3.679
G3 X-35.025 Y-97.375 Z-3.686 I-0.115 J-0.115
X-35.025 Y-97.605 Z-3.693 I0.115 J-0.115
G1 X-32.55 Y-100.079 Z-3.784
G3 X-32.32 Y-100.08 Z-3.791 I0.115 J0.115
X-32.32 Y-99.85 Z-3.798 I-0.115 J0.115
G1 X-34.795 Y-97.375 Z-3.889
G3 X-35.025 Y-97.375 Z-3.896 I-0.115 J-0.115
X-35.025 Y-97.605 Z-3.903 I0.115 J-0.115
G1 X-32.55 Y-100.079 Z-3.994
G3 X-32.32 Y-100.08 Z-4.001 I0.115 J0.115
X-32.32 Y-99.85 Z-4.008 I-0.115 J0.115
G1 X-34.795 Y-97.375 Z-4.099
G3 X-35.025 Y-97.375 Z-4.106 I-0.115 J-0.115
X-35.025 Y-97.605 Z-4.113 I0.115 J-0.115
G1 X-32.55 Y-100.079 Z-4.204
G3 X-32.32 Y-100.08 Z-4.211 I0.115 J0.115
X-32.32 Y-99.85 Z-4.218 I-0.115 J0.115
G1 X-34.795 Y-97.375 Z-4.309
G3 X-35.025 Y-97.375 Z-4.316 I-0.115 J-0.115
X-35.025 Y-97.605 Z-4.323 I0.115 J-0.115
G1 X-32.55 Y-100.079 Z-4.414
G3 X-32.32 Y-100.08 Z-4.421 I0.115 J0.115
X-32.32 Y-99.85 Z-4.428 I-0.115 J0.115
G1 X-34.795 Y-97.375 Z-4.519
G3 X-35.025 Y-97.375 Z-4.526 I-0.115 J-0.115
X-35.025 Y-97.605 Z-4.533 I0.115 J-0.115
G1 X-32.55 Y-100.079 Z-4.624
G3 X-32.32 Y-100.08 Z-4.631 I0.115 J0.115
X-32.32 Y-99.85 Z-4.638 I-0.115 J0.115
G1 X-34.795 Y-97.375 Z-4.729
G3 X-35.025 Y-97.375 Z-4.736 I-0.115 J-0.115
X-35.025 Y-97.605 Z-4.743 I0.115 J-0.115
G1 X-32.55 Y-100.079 Z-4.835
G3 X-32.32 Y-100.08 Z-4.841 I0.115 J0.115
X-32.32 Y-99.85 Z-4.848 I-0.115 J0.115
G1 X-34.795 Y-97.375 Z-4.94
G3 X-35.025 Y-97.375 Z-4.946 I-0.115 J-0.115
X-35.025 Y-97.605 Z-4.953 I0.115 J-0.115
G1 X-32.55 Y-100.079 Z-5.045
G3 X-32.32 Y-100.08 Z-5.051 I0.115 J0.115
X-32.32 Y-99.85 Z-5.058 I-0.115 J0.115
G1 X-34.795 Y-97.375 Z-5.15
G3 X-35.025 Y-97.375 Z-5.156 I-0.115 J-0.115
X-35.025 Y-97.605 Z-5.163 I0.115 J-0.115
G1 X-32.55 Y-100.079 Z-5.255
G3 X-32.32 Y-100.08 Z-5.261 I0.115 J0.115
X-32.32 Y-99.85 Z-5.268 I-0.115 J0.115
G1 X-34.795 Y-97.375 Z-5.36
G3 X-35.025 Y-97.375 Z-5.366 I-0.115 J-0.115
X-35.025 Y-97.605 Z-5.373 I0.115 J-0.115
G1 X-32.55 Y-100.079 Z-5.465
G3 X-32.32 Y-100.08 Z-5.471 I0.115 J0.115
X-32.32 Y-99.85 Z-5.478 I-0.115 J0.115
G1 X-34.795 Y-97.375 Z-5.57
G3 X-35.025 Y-97.375 Z-5.576 I-0.115 J-0.115
X-35.025 Y-97.605 Z-5.583 I0.115 J-0.115
G1 X-32.55 Y-100.079 Z-5.675
G3 X-32.32 Y-100.08 Z-5.681 I0.115 J0.115
X-32.32 Y-99.85 Z-5.688 I-0.115 J0.115
G1 X-34.795 Y-97.375 Z-5.78
G3 X-35.025 Y-97.375 Z-5.786 I-0.115 J-0.115
X-35.025 Y-97.605 Z-5.793 I0.115 J-0.115
G1 X-32.55 Y-100.079 Z-5.885
G3 X-32.32 Y-100.08 Z-5.891 I0.115 J0.115
X-32.32 Y-99.85 Z-5.898 I-0.115 J0.115
G1 X-34.795 Y-97.375 Z-5.99
G3 X-35.025 Y-97.375 Z-5.996 I-0.115 J-0.115
X-35.025 Y-97.605 Z-6.003 I0.115 J-0.115
G1 X-32.55 Y-100.079 Z-6.095
G3 X-32.32 Y-100.08 Z-6.101 I0.115 J0.115
X-32.32 Y-99.85 Z-6.108 I-0.115 J0.115
G1 X-34.795 Y-97.375 Z-6.2
G3 X-35.025 Y-97.375 Z-6.206 I-0.115 J-0.115
X-35.025 Y-97.605 Z-6.213 I0.115 J-0.115
G1 X-32.55 Y-100.079 Z-6.305
G3 X-32.32 Y-100.08 Z-6.311 I0.115 J0.115
X-32.32 Y-99.85 Z-6.318 I-0.115 J0.115
G1 X-34.795 Y-97.375 Z-6.41
G3 X-35.025 Y-97.375 Z-6.416 I-0.115 J-0.115
X-35.025 Y-97.605 Z-6.423 I0.115 J-0.115
G1 X-32.55 Y-100.079 Z-6.515
G3 X-32.32 Y-100.08 Z-6.521 I0.115 J0.115
X-32.32 Y-99.85 Z-6.528 I-0.115 J0.115
G1 X-34.795 Y-97.375 Z-6.62
G3 X-35.025 Y-97.375 Z-6.626 I-0.115 J-0.115
X-35.025 Y-97.605 Z-6.633 I0.115 J-0.115
G1 X-32.55 Y-100.079 Z-6.725
G3 X-32.32 Y-100.08 Z-6.731 I0.115 J0.115
X-32.32 Y-99.85 Z-6.738 I-0.115 J0.115
G1 X-34.795 Y-97.375 Z-6.83
G3 X-35.025 Y-97.375 Z-6.836 I-0.115 J-0.115
X-35.025 Y-97.605 Z-6.843 I0.115 J-0.115
G1 X-32.55 Y-100.079 Z-6.935
G3 X-32.32 Y-100.08 Z-6.941 I0.115 J0.115
X-32.32 Y-99.85 Z-6.948 I-0.115 J0.115
G1 X-34.795 Y-97.375 Z-7.04
G3 X-35.025 Y-97.375 Z-7.047 I-0.115 J-0.115
X-35.025 Y-97.605 Z-7.053 I0.115 J-0.115
G1 X-32.55 Y-100.079 Z-7.145
G3 X-32.32 Y-100.08 Z-7.152 I0.115 J0.115
X-32.32 Y-99.85 Z-7.158 I-0.115 J0.115
G1 X-34.795 Y-97.375 Z-7.25
G3 X-35.025 Y-97.375 Z-7.257 I-0.115 J-0.115
X-35.025 Y-97.605 Z-7.263 I0.115 J-0.115
G1 X-32.55 Y-100.079 Z-7.355
G3 X-32.32 Y-100.08 Z-7.362 I0.115 J0.115
X-32.32 Y-99.85 Z-7.368 I-0.115 J0.115
G1 X-34.795 Y-97.375 Z-7.46
G3 X-35.025 Y-97.375 Z-7.467 I-0.115 J-0.115
X-35.025 Y-97.605 Z-7.473 I0.115 J-0.115
G1 X-32.55 Y-100.079 Z-7.565
G3 X-32.32 Y-100.08 Z-7.572 I0.115 J0.115
X-32.32 Y-99.85 Z-7.578 I-0.115 J0.115
G1 X-34.795 Y-97.375 Z-7.67
G3 X-35.025 Y-97.375 Z-7.677 I-0.115 J-0.115
X-35.025 Y-97.605 Z-7.683 I0.115 J-0.115
G1 X-32.55 Y-100.079 Z-7.775
G3 X-32.32 Y-100.08 Z-7.782 I0.115 J0.115
X-32.32 Y-99.85 Z-7.788 I-0.115 J0.115
G1 X-34.795 Y-97.375 Z-7.88
G3 X-35.025 Y-97.375 Z-7.887 I-0.115 J-0.115
X-35.025 Y-97.605 Z-7.893 I0.115 J-0.115
G1 X-32.55 Y-100.079 Z-7.985
G3 X-32.32 Y-100.08 Z-7.992 I0.115 J0.115
X-32.32 Y-99.85 Z-7.998 I-0.115 J0.115
G1 X-34.795 Y-97.375 Z-8.09
G3 X-35.025 Y-97.375 Z-8.097 I-0.115 J-0.115
X-35.025 Y-97.605 Z-8.103 I0.115 J-0.115
G1 X-32.55 Y-100.079 Z-8.195
G3 X-32.32 Y-100.08 Z-8.202 I0.115 J0.115
X-32.32 Y-99.85 Z-8.208 I-0.115 J0.115
G1 X-34.795 Y-97.375 Z-8.3
G3 X-35.025 Y-97.375 I-0.115 J-0.115 F1000
X-35.025 Y-97.605 I0.115 J-0.115
G1 X-32.55 Y-100.079
G3 X-32.32 Y-100.08 I0.115 J0.115
X-32.32 Y-99.85 I-0.115 J0.115
G1 X-34.795 Y-97.375
Z5
X-48.644 Y-98.266
Z1 F333.3
X-50.228 Y-99.85 Z0.941
G3 X-50.228 Y-100.08 Z0.935 I0.115 J-0.115
X-49.998 Y-100.08 Z0.928 I0.115 J0.115
G1 X-47.523 Y-97.605 Z0.836
G3 X-47.753 Y-97.375 Z0.823 I-0.115 J0.115
G1 X-50.228 Y-99.85 Z0.731
G3 X-50.228 Y-100.08 Z0.725 I0.115 J-0.115
X-49.998 Y-100.08 Z0.718 I0.115 J0.115
G1 X-47.523 Y-97.605 Z0.626
G3 X-47.753 Y-97.375 Z0.613 I-0.115 J0.115
G1 X-50.228 Y-99.85 Z0.521
G3 X-50.228 Y-100.08 Z0.515 I0.115 J-0.115
X-49.998 Y-100.08 Z0.508 I0.115 J0.115
G1 X-47.523 Y-97.605 Z0.416
G3 X-47.753 Y-97.375 Z0.403 I-0.115 J0.115
G1 X-50.228 Y-99.85 Z0.311
G3 X-50.228 Y-100.08 Z0.305 I0.115 J-0.115
X-49.998 Y-100.08 Z0.298 I0.115 J0.115
G1 X-47.523 Y-97.605 Z0.206
G3 X-47.753 Y-97.375 Z0.193 I-0.115 J0.115
G1 X-50.228 Y-99.85 Z0.101
G3 X-50.228 Y-100.08 Z0.095 I0.115 J-0.115
X-49.998 Y-100.08 Z0.088 I0.115 J0.115
G1 X-47.523 Y-97.605 Z-0.004
G3 X-47.753 Y-97.375 Z-0.017 I-0.115 J0.115
G1 X-50.228 Y-99.85 Z-0.109
G3 X-50.228 Y-100.08 Z-0.115 I0.115 J-0.115
X-49.998 Y-100.08 Z-0.122 I0.115 J0.115
G1 X-47.523 Y-97.605 Z-0.214
G3 X-47.753 Y-97.375 Z-0.227 I-0.115 J0.115
G1 X-50.228 Y-99.85 Z-0.319
G3 X-50.228 Y-100.08 Z-0.326 I0.115 J-0.115
X-49.998 Y-100.08 Z-0.332 I0.115 J0.115
G1 X-47.523 Y-97.605 Z-0.424
G3 X-47.753 Y-97.375 Z-0.437 I-0.115 J0.115
G1 X-50.228 Y-99.85 Z-0.529
G3 X-50.228 Y-100.08 Z-0.536 I0.115 J-0.115
X-49.998 Y-100.08 Z-0.542 I0.115 J0.115
G1 X-47.523 Y-97.605 Z-0.634
G3 X-47.753 Y-97.375 Z-0.647 I-0.115 J0.115
G1 X-50.228 Y-99.85 Z-0.739
G3 X-50.228 Y-100.08 Z-0.746 I0.115 J-0.115
X-49.998 Y-100.08 Z-0.752 I0.115 J0.115
G1 X-47.523 Y-97.605 Z-0.844
G3 X-47.753 Y-97.375 Z-0.857 I-0.115 J0.115
G1 X-50.228 Y-99.85 Z-0.949
G3 X-50.228 Y-100.08 Z-0.956 I0.115 J-0.115
X-49.998 Y-100.08 Z-0.962 I0.115 J0.115
G1 X-47.523 Y-97.605 Z-1.054
G3 X-47.753 Y-97.375 Z-1.067 I-0.115 J0.115
G1 X-50.228 Y-99.85 Z-1.159
G3 X-50.228 Y-100.08 Z-1.166 I0.115 J-0.115
X-49.998 Y-100.08 Z-1.172 I0.115 J0.115
G1 X-47.523 Y-97.605 Z-1.264
G3 X-47.753 Y-97.375 Z-1.277 I-0.115 J0.115
G1 X-50.228 Y-99.85 Z-1.369
G3 X-50.228 Y-100.08 Z-1.376 I0.115 J-0.115
X-49.998 Y-100.08 Z-1.382 I0.115 J0.115
G1 X-47.523 Y-97.605 Z-1.474
G3 X-47.753 Y-97.375 Z-1.487 I-0.115 J0.115
G1 X-50.228 Y-99.85 Z-1.579
G3 X-50.228 Y-100.08 Z-1.586 I0.115 J-0.115
X-49.998 Y-100.08 Z-1.592 I0.115 J0.115
G1 X-47.523 Y-97.605 Z-1.684
G3 X-47.753 Y-97.375 Z-1.697 I-0.115 J0.115
G1 X-50.228 Y-99.85 Z-1.789
G3 X-50.228 Y-100.08 Z-1.796 I0.115 J-0.115
X-49.998 Y-100.08 Z-1.802 I0.115 J0.115
G1 X-47.523 Y-97.605 Z-1.894
G3 X-47.753 Y-97.375 Z-1.907 I-0.115 J0.115
G1 X-50.228 Y-99.85 Z-1.999
G3 X-50.228 Y-100.08 Z-2.006 I0.115 J-0.115
X-49.998 Y-100.08 Z-2.012 I0.115 J0.115
G1 X-47.523 Y-97.605 Z-2.104
G3 X-47.753 Y-97.375 Z-2.117 I-0.115 J0.115
G1 X-50.228 Y-99.85 Z-2.209
G3 X-50.228 Y-100.08 Z-2.216 I0.115 J-0.115
X-49.998 Y-100.08 Z-2.222 I0.115 J0.115
G1 X-47.523 Y-97.605 Z-2.314
G3 X-47.753 Y-97.375 Z-2.327 I-0.115 J0.115
G1 X-50.228 Y-99.85 Z-2.419
G3 X-50.228 Y-100.08 Z-2.426 I0.115 J-0.115
X-49.998 Y-100.08 Z-2.433 I0.115 J0.115
G1 X-47.523 Y-97.605 Z-2.524
G3 X-47.753 Y-97.375 Z-2.538 I-0.115 J0.115
G1 X-50.228 Y-99.85 Z-2.629
G3 X-50.228 Y-100.08 Z-2.636 I0.115 J-0.115
X-49.998 Y-100.08 Z-2.643 I0.115 J0.115
G1 X-47.523 Y-97.605 Z-2.734
G3 X-47.753 Y-97.375 Z-2.748 I-0.115 J0.115
G1 X-50.228 Y-99.85 Z-2.839
G3 X-50.228 Y-100.08 Z-2.846 I0.115 J-0.115
X-49.998 Y-100.08 Z-2.853 I0.115 J0.115
G1 X-47.523 Y-97.605 Z-2.944
G3 X-47.753 Y-97.375 Z-2.958 I-0.115 J0.115
G1 X-50.228 Y-99.85 Z-3.049
G3 X-50.228 Y-100.08 Z-3.056 I0.115 J-0.115
X-49.998 Y-100.08 Z-3.063 I0.115 J0.115
G1 X-47.523 Y-97.605 Z-3.154
G3 X-47.753 Y-97.375 Z-3.168 I-0.115 J0.115
G1 X-50.228 Y-99.85 Z-3.259
G3 X-50.228 Y-100.08 Z-3.266 I0.115 J-0.115
X-49.998 Y-100.08 Z-3.273 I0.115 J0.115
G1 X-47.523 Y-97.605 Z-3.364
G3 X-47.753 Y-97.375 Z-3.378 I-0.115 J0.115
G1 X-50.228 Y-99.85 Z-3.469
G3 X-50.228 Y-100.08 Z-3.476 I0.115 J-0.115
X-49.998 Y-100.08 Z-3.483 I0.115 J0.115
G1 X-47.523 Y-97.605 Z-3.574
G3 X-47.753 Y-97.375 Z-3.588 I-0.115 J0.115
G1 X-50.228 Y-99.85 Z-3.679
G3 X-50.228 Y-100.08 Z-3.686 I0.115 J-0.115
X-49.998 Y-100.08 Z-3.693 I0.115 J0.115
G1 X-47.523 Y-97.605 Z-3.784
G3 X-47.753 Y-97.375 Z-3.798 I-0.115 J0.115
G1 X-50.228 Y-99.85 Z-3.889
G3 X-50.228 Y-100.08 Z-3.896 I0.115 J-0.115
X-49.998 Y-100.08 Z-3.903 I0.115 J0.115
G1 X-47.523 Y-97.605 Z-3.994
G3 X-47.753 Y-97.375 Z-4.008 I-0.115 J0.115
G1 X-50.228 Y-99.85 Z-4.099
G3 X-50.228 Y-100.08 Z-4.106 I0.115 J-0.115
X-49.998 Y-100.08 Z-4.113 I0.115 J0.115
G1 X-47.523 Y-97.605 Z-4.204
G3 X-47.753 Y-97.375 Z-4.218 I-0.115 J0.115
G1 X-50.228 Y-99.85 Z-4.309
G3 X-50.228 Y-100.08 Z-4.316 I0.115 J-0.115
X-49.998 Y-100.08 Z-4.323 I0.115 J0.115
G1 X-47.523 Y-97.605 Z-4.414
G3 X-47.753 Y-97.375 Z-4.428 I-0.115 J0.115
G1 X-50.228 Y-99.85 Z-4.519
G3 X-50.228 Y-100.08 Z-4.526 I0.115 J-0.115
X-49.998 Y-100.08 Z-4.533 I0.115 J0.115
G1 X-47.523 Y-97.605 Z-4.624
G3 X-47.753 Y-97.375 Z-4.638 I-0.115 J0.115
G1 X-50.228 Y-99.85 Z-4.729
G3 X-50.228 Y-100.08 Z-4.736 I0.115 J-0.115
X-49.998 Y-100.08 Z-4.743 I0.115 J0.115
G1 X-47.523 Y-97.605 Z-4.834
G3 X-47.753 Y-97.375 Z-4.848 I-0.115 J0.115
G1 X-50.228 Y-99.85 Z-4.94
G3 X-50.228 Y-100.08 Z-4.946 I0.115 J-0.115
X-49.998 Y-100.08 Z-4.953 I0.115 J0.115
G1 X-47.523 Y-97.605 Z-5.045
G3 X-47.753 Y-97.375 Z-5.058 I-0.115 J0.115
G1 X-50.228 Y-99.85 Z-5.15
G3 X-50.228 Y-100.08 Z-5.156 I0.115 J-0.115
X-49.998 Y-100.08 Z-5.163 I0.115 J0.115
G1 X-47.523 Y-97.605 Z-5.255
G3 X-47.753 Y-97.375 Z-5.268 I-0.115 J0.115
G1 X-50.228 Y-99.85 Z-5.36
G3 X-50.228 Y-100.08 Z-5.366 I0.115 J-0.115
X-49.998 Y-100.08 Z-5.373 I0.115 J0.115
G1 X-47.523 Y-97.605 Z-5.465
G3 X-47.753 Y-97.375 Z-5.478 I-0.115 J0.115
G1 X-50.228 Y-99.85 Z-5.57
G3 X-50.228 Y-100.08 Z-5.576 I0.115 J-0.115
X-49.998 Y-100.08 Z-5.583 I0.115 J0.115
G1 X-47.523 Y-97.605 Z-5.675
G3 X-47.753 Y-97.375 Z-5.688 I-0.115 J0.115
G1 X-50.228 Y-99.85 Z-5.78
G3 X-50.228 Y-100.08 Z-5.786 I0.115 J-0.115
X-49.998 Y-100.08 Z-5.793 I0.115 J0.115
G1 X-47.523 Y-97.605 Z-5.885
G3 X-47.753 Y-97.375 Z-5.898 I-0.115 J0.115
G1 X-50.228 Y-99.85 Z-5.99
G3 X-50.228 Y-100.08 Z-5.996 I0.115 J-0.115
X-49.998 Y-100.08 Z-6.003 I0.115 J0.115
G1 X-47.523 Y-97.605 Z-6.095
G3 X-47.753 Y-97.375 Z-6.108 I-0.115 J0.115
G1 X-50.228 Y-99.85 Z-6.2
G3 X-50.228 Y-100.08 Z-6.206 I0.115 J-0.115
X-49.998 Y-100.08 Z-6.213 I0.115 J0.115
G1 X-47.523 Y-97.605 Z-6.305
G3 X-47.753 Y-97.375 Z-6.318 I-0.115 J0.115
G1 X-50.228 Y-99.85 Z-6.41
G3 X-50.228 Y-100.08 Z-6.416 I0.115 J-0.115
X-49.998 Y-100.08 Z-6.423 I0.115 J0.115
G1 X-47.523 Y-97.605 Z-6.515
G3 X-47.753 Y-97.375 Z-6.528 I-0.115 J0.115
G1 X-50.228 Y-99.85 Z-6.62
G3 X-50.228 Y-100.08 Z-6.626 I0.115 J-0.115
X-49.998 Y-100.08 Z-6.633 I0.115 J0.115
G1 X-47.523 Y-97.605 Z-6.725
G3 X-47.753 Y-97.375 Z-6.738 I-0.115 J0.115
G1 X-50.228 Y-99.85 Z-6.83
G3 X-50.228 Y-100.08 Z-6.836 I0.115 J-0.115
X-49.998 Y-100.08 Z-6.843 I0.115 J0.115
G1 X-47.523 Y-97.605 Z-6.935
G3 X-47.753 Y-97.375 Z-6.948 I-0.115 J0.115
G1 X-50.228 Y-99.85 Z-7.04
G3 X-50.228 Y-100.08 Z-7.046 I0.115 J-0.115
X-49.998 Y-100.08 Z-7.053 I0.115 J0.115
G1 X-47.523 Y-97.605 Z-7.145
G3 X-47.753 Y-97.375 Z-7.158 I-0.115 J0.115
G1 X-50.228 Y-99.85 Z-7.25
G3 X-50.228 Y-100.08 Z-7.257 I0.115 J-0.115
X-49.998 Y-100.08 Z-7.263 I0.115 J0.115
G1 X-47.523 Y-97.605 Z-7.355
G3 X-47.753 Y-97.375 Z-7.368 I-0.115 J0.115
G1 X-50.228 Y-99.85 Z-7.46
G3 X-50.228 Y-100.08 Z-7.467 I0.115 J-0.115
X-49.998 Y-100.08 Z-7.473 I0.115 J0.115
G1 X-47.523 Y-97.605 Z-7.565
G3 X-47.753 Y-97.375 Z-7.578 I-0.115 J0.115
G1 X-50.228 Y-99.85 Z-7.67
G3 X-50.228 Y-100.08 Z-7.677 I0.115 J-0.115
X-49.998 Y-100.08 Z-7.683 I0.115 J0.115
G1 X-47.523 Y-97.605 Z-7.775
G3 X-47.753 Y-97.375 Z-7.788 I-0.115 J0.115
G1 X-50.228 Y-99.85 Z-7.88
G3 X-50.228 Y-100.08 Z-7.887 I0.115 J-0.115
X-49.998 Y-100.08 Z-7.893 I0.115 J0.115
G1 X-47.523 Y-97.605 Z-7.985
G3 X-47.753 Y-97.375 Z-7.998 I-0.115 J0.115
G1 X-50.228 Y-99.85 Z-8.09
G3 X-50.228 Y-100.08 Z-8.097 I0.115 J-0.115
X-49.998 Y-100.08 Z-8.103 I0.115 J0.115
G1 X-47.523 Y-97.605 Z-8.195
G3 X-47.753 Y-97.375 Z-8.208 I-0.115 J0.115
G1 X-50.228 Y-99.85 Z-8.3
G3 X-50.228 Y-100.08 I0.115 J-0.115 F1000
X-49.998 Y-100.08 I0.115 J0.115
G1 X-47.523 Y-97.605
G3 X-47.753 Y-97.375 I-0.115 J0.115
G1 X-50.228 Y-99.85
Z5
X-48.57 Y-33.272
Z1 F333.3
X-50.148 Y-34.85 Z0.942
G3 X-49.919 Y-35.08 Z0.928 I0.115 J-0.115
G1 X-47.444 Y-32.605 Z0.837
G3 X-47.674 Y-32.375 Z0.823 I-0.115 J0.115
G1 X-50.148 Y-34.85 Z0.732
G3 X-49.919 Y-35.08 Z0.718 I0.115 J-0.115
G1 X-47.444 Y-32.605 Z0.627
G3 X-47.674 Y-32.375 Z0.613 I-0.115 J0.115
G1 X-50.148 Y-34.85 Z0.521
G3 X-49.919 Y-35.08 Z0.508 I0.115 J-0.115
G1 X-47.444 Y-32.605 Z0.416
G3 X-47.674 Y-32.375 Z0.403 I-0.115 J0.115
G1 X-50.148 Y-34.85 Z0.311
G3 X-49.919 Y-35.08 Z0.298 I0.115 J-0.115
G1 X-47.444 Y-32.605 Z0.206
G3 X-47.674 Y-32.375 Z0.193 I-0.115 J0.115
G1 X-50.148 Y-34.85 Z0.101
G3 X-49.919 Y-35.08 Z0.088 I0.115 J-0.115
G1 X-47.444 Y-32.605 Z-0.004
G3 X-47.674 Y-32.375 Z-0.017 I-0.115 J0.115
G1 X-50.148 Y-34.85 Z-0.109
G3 X-49.919 Y-35.08 Z-0.122 I0.115 J-0.115
G1 X-47.444 Y-32.605 Z-0.214
G3 X-47.674 Y-32.375 Z-0.227 I-0.115 J0.115
G1 X-50.148 Y-34.85 Z-0.319
G3 X-49.919 Y-35.08 Z-0.332 I0.115 J-0.115
G1 X-47.444 Y-32.605 Z-0.424
G3 X-47.674 Y-32.375 Z-0.437 I-0.115 J0.115
G1 X-50.148 Y-34.85 Z-0.529
G3 X-49.919 Y-35.08 Z-0.542 I0.115 J-0.115
G1 X-47.444 Y-32.605 Z-0.634
G3 X-47.674 Y-32.375 Z-0.647 I-0.115 J0.115
G1 X-50.148 Y-34.85 Z-0.739
G3 X-49.919 Y-35.08 Z-0.752 I0.115 J-0.115
G1 X-47.444 Y-32.605 Z-0.844
G3 X-47.674 Y-32.375 Z-0.857 I-0.115 J0.115
G1 X-50.148 Y-34.85 Z-0.949
G3 X-49.919 Y-35.08 Z-0.962 I0.115 J-0.115
G1 X-47.444 Y-32.605 Z-1.054
G3 X-47.674 Y-32.375 Z-1.067 I-0.115 J0.115
G1 X-50.148 Y-34.85 Z-1.159
G3 X-49.919 Y-35.08 Z-1.172 I0.115 J-0.115
G1 X-47.444 Y-32.605 Z-1.264
G3 X-47.674 Y-32.375 Z-1.277 I-0.115 J0.115
G1 X-50.148 Y-34.85 Z-1.369
G3 X-49.919 Y-35.08 Z-1.382 I0.115 J-0.115
G1 X-47.444 Y-32.605 Z-1.474
G3 X-47.674 Y-32.375 Z-1.487 I-0.115 J0.115
G1 X-50.148 Y-34.85 Z-1.579
G3 X-49.919 Y-35.08 Z-1.592 I0.115 J-0.115
G1 X-47.444 Y-32.605 Z-1.684
G3 X-47.674 Y-32.375 Z-1.697 I-0.115 J0.115
G1 X-50.148 Y-34.85 Z-1.789
G3 X-49.919 Y-35.08 Z-1.802 I0.115 J-0.115
G1 X-47.444 Y-32.605 Z-1.894
G3 X-47.674 Y-32.375 Z-1.907 I-0.115 J0.115
G1 X-50.148 Y-34.85 Z-1.999
G3 X-49.919 Y-35.08 Z-2.012 I0.115 J-0.115
G1 X-47.444 Y-32.605 Z-2.104
G3 X-47.674 Y-32.375 Z-2.117 I-0.115 J0.115
G1 X-50.148 Y-34.85 Z-2.209
G3 X-49.919 Y-35.08 Z-2.222 I0.115 J-0.115
G1 X-47.444 Y-32.605 Z-2.314
G3 X-47.674 Y-32.375 Z-2.327 I-0.115 J0.115
G1 X-50.148 Y-34.85 Z-2.419
G3 X-49.919 Y-35.08 Z-2.432 I0.115 J-0.115
G1 X-47.444 Y-32.605 Z-2.524
G3 X-47.674 Y-32.375 Z-2.537 I-0.115 J0.115
G1 X-50.148 Y-34.85 Z-2.629
G3 X-49.919 Y-35.08 Z-2.642 I0.115 J-0.115
G1 X-47.444 Y-32.605 Z-2.734
G3 X-47.674 Y-32.375 Z-2.747 I-0.115 J0.115
G1 X-50.148 Y-34.85 Z-2.839
G3 X-49.919 Y-35.08 Z-2.852 I0.115 J-0.115
G1 X-47.444 Y-32.605 Z-2.944
G3 X-47.674 Y-32.375 Z-2.957 I-0.115 J0.115
G1 X-50.148 Y-34.85 Z-3.049
G3 X-49.919 Y-35.08 Z-3.062 I0.115 J-0.115
G1 X-47.444 Y-32.605 Z-3.154
G3 X-47.674 Y-32.375 Z-3.168 I-0.115 J0.115
G1 X-50.148 Y-34.85 Z-3.259
G3 X-49.919 Y-35.08 Z-3.273 I0.115 J-0.115
G1 X-47.444 Y-32.605 Z-3.364
G3 X-47.674 Y-32.375 Z-3.378 I-0.115 J0.115
G1 X-50.148 Y-34.85 Z-3.469
G3 X-49.919 Y-35.08 Z-3.483 I0.115 J-0.115
G1 X-47.444 Y-32.605 Z-3.574
G3 X-47.674 Y-32.375 Z-3.588 I-0.115 J0.115
G1 X-50.148 Y-34.85 Z-3.679
G3 X-49.919 Y-35.08 Z-3.693 I0.115 J-0.115
G1 X-47.444 Y-32.605 Z-3.784
G3 X-47.674 Y-32.375 Z-3.798 I-0.115 J0.115
G1 X-50.148 Y-34.85 Z-3.889
