(Arme)
(Bearbeiten)
(  Hersteller: ChinaCnc)
(  model: 3040T)
(  description: Generic 3-axis)
(T5 D=3.175 CR=0 - ZMIN=-8.3 - Schaftfrser)
G90 G94
G17
G21
(-Attention- Property Safe Retracts is set to Clearance Height.)
(Ensure the clearance height will clear the part and or fixtures.)
(Raise the Z-axis to a safe height before starting the program.)
(When using Fusion 360 for Personal Use, the feedrate of)
(rapid moves is reduced to match the feedrate of cutting)
(moves, which can increase machining time. Unrestricted rapid)
(moves are available with a Fusion 360 Subscription.)

(Bohrfrsen1)
M0
(MANUAL TOOL CHANGE TO T5)
S4000 M3
G17 G90 G94
G54
G0 X-19.495 Y-21.294
Z15
G1 Z2 F1000
Z0.317
X-19.489 Y-21.289 Z0.247
X-19.471 Y-21.274 Z0.18
X-19.442 Y-21.249 Z0.12
X-19.404 Y-21.217 Z0.069
X-19.358 Y-21.178 Z0.031
X-19.307 Y-21.134 Z0.008
X-19.253 Y-21.088 Z0
X-19.133 Y-20.985
G3 X-19.097 Y-20.538 I-0.206 J0.242
X-25.053 Y-25.612 Z-0.192 I-2.978 J-2.537
X-19.097 Y-20.538 Z-0.384 I2.978 J2.537
X-25.053 Y-25.612 Z-0.576 I-2.978 J-2.537
X-19.097 Y-20.538 Z-0.768 I2.978 J2.537
X-25.053 Y-25.612 Z-0.96 I-2.978 J-2.537
X-19.097 Y-20.538 Z-1.152 I2.978 J2.537
X-25.053 Y-25.612 Z-1.344 I-2.978 J-2.537
X-19.097 Y-20.538 Z-1.537 I2.978 J2.537
X-25.053 Y-25.612 Z-1.729 I-2.978 J-2.537
X-19.097 Y-20.538 Z-1.921 I2.978 J2.537
X-25.053 Y-25.612 Z-2.113 I-2.978 J-2.537
X-19.097 Y-20.538 Z-2.305 I2.978 J2.537
X-25.053 Y-25.612 Z-2.497 I-2.978 J-2.537
X-19.097 Y-20.538 Z-2.689 I2.978 J2.537
X-25.053 Y-25.612 Z-2.881 I-2.978 J-2.537
X-19.097 Y-20.538 Z-3.073 I2.978 J2.537
X-25.053 Y-25.612 Z-3.265 I-2.978 J-2.537
X-19.097 Y-20.538 Z-3.457 I2.978 J2.537
X-25.053 Y-25.612 Z-3.649 I-2.978 J-2.537
X-19.097 Y-20.538 Z-3.841 I2.978 J2.537
X-25.053 Y-25.612 Z-4.033 I-2.978 J-2.537
X-19.097 Y-20.538 Z-4.225 I2.978 J2.537
X-25.053 Y-25.612 Z-4.417 I-2.978 J-2.537
X-19.097 Y-20.538 Z-4.61 I2.978 J2.537
X-25.053 Y-25.612 Z-4.802 I-2.978 J-2.537
X-19.097 Y-20.538 Z-4.994 I2.978 J2.537
X-25.053 Y-25.612 Z-5.186 I-2.978 J-2.537
X-19.097 Y-20.538 Z-5.378 I2.978 J2.537
X-25.053 Y-25.612 Z-5.57 I-2.978 J-2.537
X-19.097 Y-20.538 Z-5.762 I2.978 J2.537
X-25.053 Y-25.612 Z-5.954 I-2.978 J-2.537
X-19.097 Y-20.538 Z-6.146 I2.978 J2.537
X-25.053 Y-25.612 Z-6.338 I-2.978 J-2.537
X-19.097 Y-20.538 Z-6.53 I2.978 J2.537
X-25.053 Y-25.612 Z-6.722 I-2.978 J-2.537
X-19.097 Y-20.538 Z-6.914 I2.978 J2.537
X-25.053 Y-25.612 Z-7.106 I-2.978 J-2.537
X-19.097 Y-20.538 Z-7.298 I2.978 J2.537
X-25.053 Y-25.612 Z-7.491 I-2.978 J-2.537
X-19.097 Y-20.538 Z-7.683 I2.978 J2.537
X-25.053 Y-25.612 Z-7.875 I-2.978 J-2.537
X-19.097 Y-20.538 Z-8.067 I2.978 J2.537
X-25.053 Y-25.612 Z-8.259 I-2.978 J-2.537
X-22.816 Y-26.917 Z-8.3 I2.978 J2.537
X-21.334 Y-19.233 I0.741 J3.842
X-22.816 Y-26.917 I-0.741 J-3.842
X-22.444 Y-26.665 I0.06 J0.312
G1 X-22.414 Y-26.509
X-22.401 Y-26.44 Z-8.292
X-22.388 Y-26.374 Z-8.269
X-22.377 Y-26.315 Z-8.231
X-22.367 Y-26.265 Z-8.18
X-22.36 Y-26.228 Z-8.12
X-22.356 Y-26.205 Z-8.053
X-22.354 Y-26.197 Z-7.983
Z5
X-19.552 Y-68.294
Z2
Z0.317
X-19.546 Y-68.289 Z0.247
X-19.528 Y-68.274 Z0.18
X-19.5 Y-68.249 Z0.12
X-19.461 Y-68.217 Z0.069
X-19.416 Y-68.178 Z0.031
X-19.365 Y-68.134 Z0.008
X-19.311 Y-68.088 Z0
X-19.19 Y-67.985
G3 X-19.154 Y-67.538 I-0.206 J0.242
X-25.111 Y-72.612 Z-0.192 I-2.978 J-2.537
X-19.154 Y-67.538 Z-0.384 I2.978 J2.537
X-25.111 Y-72.612 Z-0.576 I-2.978 J-2.537
X-19.154 Y-67.538 Z-0.768 I2.978 J2.537
X-25.111 Y-72.612 Z-0.96 I-2.978 J-2.537
X-19.154 Y-67.538 Z-1.152 I2.978 J2.537
X-25.111 Y-72.612 Z-1.344 I-2.978 J-2.537
X-19.154 Y-67.538 Z-1.537 I2.978 J2.537
X-25.111 Y-72.612 Z-1.729 I-2.978 J-2.537
X-19.154 Y-67.538 Z-1.921 I2.978 J2.537
X-25.111 Y-72.612 Z-2.113 I-2.978 J-2.537
X-19.154 Y-67.538 Z-2.305 I2.978 J2.537
X-25.111 Y-72.612 Z-2.497 I-2.978 J-2.537
X-19.154 Y-67.538 Z-2.689 I2.978 J2.537
X-25.111 Y-72.612 Z-2.881 I-2.978 J-2.537
X-19.154 Y-67.538 Z-3.073 I2.978 J2.537
X-25.111 Y-72.612 Z-3.265 I-2.978 J-2.537
X-19.154 Y-67.538 Z-3.457 I2.978 J2.537
X-25.111 Y-72.612 Z-3.649 I-2.978 J-2.537
X-19.154 Y-67.538 Z-3.841 I2.978 J2.537
X-25.111 Y-72.612 Z-4.033 I-2.978 J-2.537
X-19.154 Y-67.538 Z-4.225 I2.978 J2.537
X-25.111 Y-72.612 Z-4.417 I-2.978 J-2.537
X-19.154 Y-67.538 Z-4.61 I2.978 J2.537
X-25.111 Y-72.612 Z-4.802 I-2.978 J-2.537
X-19.154 Y-67.538 Z-4.994 I2.978 J2.537
X-25.111 Y-72.612 Z-5.186 I-2.978 J-2.537
X-19.154 Y-67.538 Z-5.378 I2.978 J2.537
X-25.111 Y-72.612 Z-5.57 I-2.978 J-2.537
X-19.154 Y-67.538 Z-5.762 I2.978 J2.537
X-25.111 Y-72.612 Z-5.954 I-2.978 J-2.537
X-19.154 Y-67.538 Z-6.146 I2.978 J2.537
X-25.111 Y-72.612 Z-6.338 I-2.978 J-2.537
X-19.154 Y-67.538 Z-6.53 I2.978 J2.537
X-25.111 Y-72.612 Z-6.722 I-2.978 J-2.537
X-19.154 Y-67.538 Z-6.914 I2.978 J2.537
X-25.111 Y-72.612 Z-7.106 I-2.978 J-2.537
X-19.154 Y-67.538 Z-7.298 I2.978 J2.537
X-25.111 Y-72.612 Z-7.491 I-2.978 J-2.537
X-19.154 Y-67.538 Z-7.683 I2.978 J2.537
X-25.111 Y-72.612 Z-7.875 I-2.978 J-2.537
X-19.154 Y-67.538 Z-8.067 I2.978 J2.537
X-25.111 Y-72.612 Z-8.259 I-2.978 J-2.537
X-22.874 Y-73.917 Z-8.3 I2.978 J2.537
X-21.391 Y-66.233 I0.741 J3.842
X-22.874 Y-73.917 I-0.741 J-3.842
X-22.502 Y-73.665 I0.06 J0.312
G1 X-22.472 Y-73.509
X-22.458 Y-73.44 Z-8.292
X-22.446 Y-73.374 Z-8.269
X-22.434 Y-73.315 Z-8.231
X-22.425 Y-73.265 Z-8.18
X-22.417 Y-73.228 Z-8.12
X-22.413 Y-73.205 Z-8.053
X-22.411 Y-73.197 Z-7.983
Z5
X-56.357 Y-47.995
Z1.683
Z0
X-56.477 Y-47.892
X-56.505 Y-47.876
X-56.536 Y-47.873
X-56.567 Y-47.881
X-56.592 Y-47.901
G3 X-56.345 Y-48.112 Z-0.061 I0.123 J-0.106
X-56.592 Y-47.901 Z-0.122 I-0.123 J0.106
X-56.345 Y-48.112 Z-0.183 I0.123 J-0.106
X-56.592 Y-47.901 Z-0.244 I-0.123 J0.106
X-56.345 Y-48.112 Z-0.306 I0.123 J-0.106
X-56.592 Y-47.901 Z-0.367 I-0.123 J0.106
X-56.345 Y-48.112 Z-0.428 I0.123 J-0.106
X-56.592 Y-47.901 Z-0.489 I-0.123 J0.106
X-56.345 Y-48.112 Z-0.55 I0.123 J-0.106
X-56.592 Y-47.901 Z-0.611 I-0.123 J0.106
X-56.345 Y-48.112 Z-0.672 I0.123 J-0.106
X-56.592 Y-47.901 Z-0.733 I-0.123 J0.106
X-56.345 Y-48.112 Z-0.794 I0.123 J-0.106
X-56.592 Y-47.901 Z-0.856 I-0.123 J0.106
X-56.345 Y-48.112 Z-0.917 I0.123 J-0.106
X-56.592 Y-47.901 Z-0.978 I-0.123 J0.106
X-56.345 Y-48.112 Z-1.039 I0.123 J-0.106
X-56.592 Y-47.901 Z-1.1 I-0.123 J0.106
X-56.345 Y-48.112 Z-1.161 I0.123 J-0.106
X-56.592 Y-47.901 Z-1.222 I-0.123 J0.106
X-56.345 Y-48.112 Z-1.283 I0.123 J-0.106
X-56.592 Y-47.901 Z-1.344 I-0.123 J0.106
X-56.345 Y-48.112 Z-1.406 I0.123 J-0.106
X-56.592 Y-47.901 Z-1.467 I-0.123 J0.106
X-56.345 Y-48.112 Z-1.528 I0.123 J-0.106
X-56.592 Y-47.901 Z-1.589 I-0.123 J0.106
X-56.345 Y-48.112 Z-1.65 I0.123 J-0.106
X-56.592 Y-47.901 Z-1.711 I-0.123 J0.106
X-56.345 Y-48.112 Z-1.772 I0.123 J-0.106
X-56.592 Y-47.901 Z-1.833 I-0.123 J0.106
X-56.345 Y-48.112 Z-1.894 I0.123 J-0.106
X-56.592 Y-47.901 Z-1.956 I-0.123 J0.106
X-56.345 Y-48.112 Z-2.017 I0.123 J-0.106
X-56.592 Y-47.901 Z-2.078 I-0.123 J0.106
X-56.345 Y-48.112 Z-2.139 I0.123 J-0.106
X-56.592 Y-47.901 Z-2.2 I-0.123 J0.106
X-56.345 Y-48.112 Z-2.261 I0.123 J-0.106
X-56.592 Y-47.901 Z-2.322 I-0.123 J0.106
X-56.345 Y-48.112 Z-2.383 I0.123 J-0.106
X-56.592 Y-47.901 Z-2.444 I-0.123 J0.106
X-56.345 Y-48.112 Z-2.506 I0.123 J-0.106
X-56.592 Y-47.901 Z-2.567 I-0.123 J0.106
X-56.345 Y-48.112 Z-2.628 I0.123 J-0.106
X-56.592 Y-47.901 Z-2.689 I-0.123 J0.106
X-56.345 Y-48.112 Z-2.75 I0.123 J-0.106
X-56.592 Y-47.901 Z-2.811 I-0.123 J0.106
X-56.345 Y-48.112 Z-2.872 I0.123 J-0.106
X-56.592 Y-47.901 Z-2.933 I-0.123 J0.106
X-56.345 Y-48.112 Z-2.994 I0.123 J-0.106
X-56.592 Y-47.901 Z-3.056 I-0.123 J0.106
X-56.345 Y-48.112 Z-3.117 I0.123 J-0.106
X-56.592 Y-47.901 Z-3.178 I-0.123 J0.106
X-56.345 Y-48.112 Z-3.239 I0.123 J-0.106
X-56.592 Y-47.901 Z-3.3 I-0.123 J0.106
X-56.345 Y-48.112 Z-3.361 I0.123 J-0.106
X-56.592 Y-47.901 Z-3.422 I-0.123 J0.106
X-56.345 Y-48.112 Z-3.483 I0.123 J-0.106
X-56.592 Y-47.901 Z-3.544 I-0.123 J0.106
X-56.345 Y-48.112 Z-3.606 I0.123 J-0.106
X-56.592 Y-47.901 Z-3.667 I-0.123 J0.106
X-56.345 Y-48.112 Z-3.728 I0.123 J-0.106
X-56.592 Y-47.901 Z-3.789 I-0.123 J0.106
X-56.345 Y-48.112 Z-3.85 I0.123 J-0.106
X-56.592 Y-47.901 Z-3.911 I-0.123 J0.106
X-56.345 Y-48.112 Z-3.972 I0.123 J-0.106
X-56.592 Y-47.901 Z-4.033 I-0.123 J0.106
X-56.345 Y-48.112 Z-4.094 I0.123 J-0.106
X-56.592 Y-47.901 Z-4.156 I-0.123 J0.106
X-56.345 Y-48.112 Z-4.217 I0.123 J-0.106
X-56.592 Y-47.901 Z-4.278 I-0.123 J0.106
X-56.345 Y-48.112 Z-4.339 I0.123 J-0.106
X-56.592 Y-47.901 Z-4.4 I-0.123 J0.106
X-56.345 Y-48.112 Z-4.461 I0.123 J-0.106
X-56.592 Y-47.901 Z-4.522 I-0.123 J0.106
X-56.345 Y-48.112 Z-4.583 I0.123 J-0.106
X-56.592 Y-47.901 Z-4.644 I-0.123 J0.106
X-56.345 Y-48.112 Z-4.706 I0.123 J-0.106
X-56.592 Y-47.901 Z-4.767 I-0.123 J0.106
X-56.345 Y-48.112 Z-4.828 I0.123 J-0.106
X-56.592 Y-47.901 Z-4.889 I-0.123 J0.106
X-56.345 Y-48.112 Z-4.95 I0.123 J-0.106
X-56.592 Y-47.901 Z-5.011 I-0.123 J0.106
X-56.345 Y-48.112 Z-5.072 I0.123 J-0.106
X-56.592 Y-47.901 Z-5.133 I-0.123 J0.106
X-56.345 Y-48.112 Z-5.194 I0.123 J-0.106
X-56.592 Y-47.901 Z-5.256 I-0.123 J0.106
X-56.345 Y-48.112 Z-5.317 I0.123 J-0.106
X-56.592 Y-47.901 Z-5.378 I-0.123 J0.106
X-56.345 Y-48.112 Z-5.439 I0.123 J-0.106
X-56.592 Y-47.901 Z-5.5 I-0.123 J0.106
X-56.345 Y-48.112 Z-5.561 I0.123 J-0.106
X-56.592 Y-47.901 Z-5.622 I-0.123 J0.106
X-56.345 Y-48.112 Z-5.683 I0.123 J-0.106
X-56.592 Y-47.901 Z-5.744 I-0.123 J0.106
X-56.345 Y-48.112 Z-5.806 I0.123 J-0.106
X-56.592 Y-47.901 Z-5.867 I-0.123 J0.106
X-56.345 Y-48.112 Z-5.928 I0.123 J-0.106
X-56.592 Y-47.901 Z-5.989 I-0.123 J0.106
X-56.345 Y-48.112 Z-6.05 I0.123 J-0.106
X-56.592 Y-47.901 Z-6.111 I-0.123 J0.106
X-56.345 Y-48.112 Z-6.172 I0.123 J-0.106
X-56.592 Y-47.901 Z-6.233 I-0.123 J0.106
X-56.345 Y-48.112 Z-6.294 I0.123 J-0.106
X-56.592 Y-47.901 Z-6.356 I-0.123 J0.106
X-56.345 Y-48.112 Z-6.417 I0.123 J-0.106
X-56.592 Y-47.901 Z-6.478 I-0.123 J0.106
X-56.345 Y-48.112 Z-6.539 I0.123 J-0.106
X-56.592 Y-47.901 Z-6.6 I-0.123 J0.106
X-56.345 Y-48.112 Z-6.661 I0.123 J-0.106
X-56.592 Y-47.901 Z-6.722 I-0.123 J0.106
X-56.345 Y-48.112 Z-6.783 I0.123 J-0.106
X-56.592 Y-47.901 Z-6.844 I-0.123 J0.106
X-56.345 Y-48.112 Z-6.906 I0.123 J-0.106
X-56.592 Y-47.901 Z-6.967 I-0.123 J0.106
X-56.345 Y-48.112 Z-7.028 I0.123 J-0.106
X-56.592 Y-47.901 Z-7.089 I-0.123 J0.106
X-56.345 Y-48.112 Z-7.15 I0.123 J-0.106
X-56.592 Y-47.901 Z-7.211 I-0.123 J0.106
X-56.345 Y-48.112 Z-7.272 I0.123 J-0.106
X-56.592 Y-47.901 Z-7.333 I-0.123 J0.106
X-56.345 Y-48.112 Z-7.394 I0.123 J-0.106
X-56.592 Y-47.901 Z-7.456 I-0.123 J0.106
X-56.345 Y-48.112 Z-7.517 I0.123 J-0.106
X-56.592 Y-47.901 Z-7.578 I-0.123 J0.106
X-56.345 Y-48.112 Z-7.639 I0.123 J-0.106
X-56.592 Y-47.901 Z-7.7 I-0.123 J0.106
X-56.345 Y-48.112 Z-7.761 I0.123 J-0.106
X-56.592 Y-47.901 Z-7.822 I-0.123 J0.106
X-56.345 Y-48.112 Z-7.883 I0.123 J-0.106
X-56.592 Y-47.901 Z-7.944 I-0.123 J0.106
X-56.345 Y-48.112 Z-8.006 I0.123 J-0.106
X-56.592 Y-47.901 Z-8.067 I-0.123 J0.106
X-56.345 Y-48.112 Z-8.128 I0.123 J-0.106
X-56.592 Y-47.901 Z-8.189 I-0.123 J0.106
X-56.345 Y-48.112 Z-8.25 I0.123 J-0.106
X-56.515 Y-47.851 Z-8.3 I-0.123 J0.106
X-56.422 Y-48.162 I0.046 J-0.156
X-56.515 Y-47.851 I-0.046 J0.156
G1 X-56.543 Y-47.866
X-56.563 Y-47.89
X-56.572 Y-47.92
X-56.57 Y-47.952
X-56.524 Y-48.104
Z5
X-80.834 Y-46.217
Z1.683
Z0
X-80.955 Y-46.114
X-80.983 Y-46.098
X-81.014 Y-46.095
X-81.045 Y-46.103
X-81.07 Y-46.123
G3 X-80.823 Y-46.334 Z-0.061 I0.123 J-0.106
X-81.07 Y-46.123 Z-0.122 I-0.123 J0.106
X-80.823 Y-46.334 Z-0.183 I0.123 J-0.106
X-81.07 Y-46.123 Z-0.244 I-0.123 J0.106
X-80.823 Y-46.334 Z-0.306 I0.123 J-0.106
X-81.07 Y-46.123 Z-0.367 I-0.123 J0.106
X-80.823 Y-46.334 Z-0.428 I0.123 J-0.106
X-81.07 Y-46.123 Z-0.489 I-0.123 J0.106
X-80.823 Y-46.334 Z-0.55 I0.123 J-0.106
X-81.07 Y-46.123 Z-0.611 I-0.123 J0.106
X-80.823 Y-46.334 Z-0.672 I0.123 J-0.106
X-81.07 Y-46.123 Z-0.733 I-0.123 J0.106
X-80.823 Y-46.334 Z-0.794 I0.123 J-0.106
X-81.07 Y-46.123 Z-0.856 I-0.123 J0.106
X-80.823 Y-46.334 Z-0.917 I0.123 J-0.106
X-81.07 Y-46.123 Z-0.978 I-0.123 J0.106
X-80.823 Y-46.334 Z-1.039 I0.123 J-0.106
X-81.07 Y-46.123 Z-1.1 I-0.123 J0.106
X-80.823 Y-46.334 Z-1.161 I0.123 J-0.106
X-81.07 Y-46.123 Z-1.222 I-0.123 J0.106
X-80.823 Y-46.334 Z-1.283 I0.123 J-0.106
X-81.07 Y-46.123 Z-1.344 I-0.123 J0.106
X-80.823 Y-46.334 Z-1.406 I0.123 J-0.106
X-81.07 Y-46.123 Z-1.467 I-0.123 J0.106
X-80.823 Y-46.334 Z-1.528 I0.123 J-0.106
X-81.07 Y-46.123 Z-1.589 I-0.123 J0.106
X-80.823 Y-46.334 Z-1.65 I0.123 J-0.106
X-81.07 Y-46.123 Z-1.711 I-0.123 J0.106
X-80.823 Y-46.334 Z-1.772 I0.123 J-0.106
X-81.07 Y-46.123 Z-1.833 I-0.123 J0.106
X-80.823 Y-46.334 Z-1.894 I0.123 J-0.106
X-81.07 Y-46.123 Z-1.956 I-0.123 J0.106
X-80.823 Y-46.334 Z-2.017 I0.123 J-0.106
X-81.07 Y-46.123 Z-2.078 I-0.123 J0.106
X-80.823 Y-46.334 Z-2.139 I0.123 J-0.106
X-81.07 Y-46.123 Z-2.2 I-0.123 J0.106
X-80.823 Y-46.334 Z-2.261 I0.123 J-0.106
X-81.07 Y-46.123 Z-2.322 I-0.123 J0.106
X-80.823 Y-46.334 Z-2.383 I0.123 J-0.106
X-81.07 Y-46.123 Z-2.444 I-0.123 J0.106
X-80.823 Y-46.334 Z-2.506 I0.123 J-0.106
X-81.07 Y-46.123 Z-2.567 I-0.123 J0.106
X-80.823 Y-46.334 Z-2.628 I0.123 J-0.106
X-81.07 Y-46.123 Z-2.689 I-0.123 J0.106
X-80.823 Y-46.334 Z-2.75 I0.123 J-0.106
X-81.07 Y-46.123 Z-2.811 I-0.123 J0.106
X-80.823 Y-46.334 Z-2.872 I0.123 J-0.106
X-81.07 Y-46.123 Z-2.933 I-0.123 J0.106
X-80.823 Y-46.334 Z-2.994 I0.123 J-0.106
X-81.07 Y-46.123 Z-3.056 I-0.123 J0.106
X-80.823 Y-46.334 Z-3.117 I0.123 J-0.106
X-81.07 Y-46.123 Z-3.178 I-0.123 J0.106
X-80.823 Y-46.334 Z-3.239 I0.123 J-0.106
X-81.07 Y-46.123 Z-3.3 I-0.123 J0.106
X-80.823 Y-46.334 Z-3.361 I0.123 J-0.106
X-81.07 Y-46.123 Z-3.422 I-0.123 J0.106
X-80.823 Y-46.334 Z-3.483 I0.123 J-0.106
X-81.07 Y-46.123 Z-3.544 I-0.123 J0.106
X-80.823 Y-46.334 Z-3.606 I0.123 J-0.106
X-81.07 Y-46.123 Z-3.667 I-0.123 J0.106
X-80.823 Y-46.334 Z-3.728 I0.123 J-0.106
X-81.07 Y-46.123 Z-3.789 I-0.123 J0.106
X-80.823 Y-46.334 Z-3.85 I0.123 J-0.106
X-81.07 Y-46.123 Z-3.911 I-0.123 J0.106
X-80.823 Y-46.334 Z-3.972 I0.123 J-0.106
X-81.07 Y-46.123 Z-4.033 I-0.123 J0.106
X-80.823 Y-46.334 Z-4.094 I0.123 J-0.106
X-81.07 Y-46.123 Z-4.156 I-0.123 J0.106
X-80.823 Y-46.334 Z-4.217 I0.123 J-0.106
X-81.07 Y-46.123 Z-4.278 I-0.123 J0.106
X-80.823 Y-46.334 Z-4.339 I0.123 J-0.106
X-81.07 Y-46.123 Z-4.4 I-0.123 J0.106
X-80.823 Y-46.334 Z-4.461 I0.123 J-0.106
X-81.07 Y-46.123 Z-4.522 I-0.123 J0.106
X-80.823 Y-46.334 Z-4.583 I0.123 J-0.106
X-81.07 Y-46.123 Z-4.644 I-0.123 J0.106
X-80.823 Y-46.334 Z-4.706 I0.123 J-0.106
X-81.07 Y-46.123 Z-4.767 I-0.123 J0.106
X-80.823 Y-46.334 Z-4.828 I0.123 J-0.106
X-81.07 Y-46.123 Z-4.889 I-0.123 J0.106
X-80.823 Y-46.334 Z-4.95 I0.123 J-0.106
X-81.07 Y-46.123 Z-5.011 I-0.123 J0.106
X-80.823 Y-46.334 Z-5.072 I0.123 J-0.106
X-81.07 Y-46.123 Z-5.133 I-0.123 J0.106
X-80.823 Y-46.334 Z-5.194 I0.123 J-0.106
X-81.07 Y-46.123 Z-5.256 I-0.123 J0.106
X-80.823 Y-46.334 Z-5.317 I0.123 J-0.106
X-81.07 Y-46.123 Z-5.378 I-0.123 J0.106
X-80.823 Y-46.334 Z-5.439 I0.123 J-0.106
X-81.07 Y-46.123 Z-5.5 I-0.123 J0.106
X-80.823 Y-46.334 Z-5.561 I0.123 J-0.106
X-81.07 Y-46.123 Z-5.622 I-0.123 J0.106
X-80.823 Y-46.334 Z-5.683 I0.123 J-0.106
X-81.07 Y-46.123 Z-5.744 I-0.123 J0.106
X-80.823 Y-46.334 Z-5.806 I0.123 J-0.106
X-81.07 Y-46.123 Z-5.867 I-0.123 J0.106
X-80.823 Y-46.334 Z-5.928 I0.123 J-0.106
X-81.07 Y-46.123 Z-5.989 I-0.123 J0.106
X-80.823 Y-46.334 Z-6.05 I0.123 J-0.106
X-81.07 Y-46.123 Z-6.111 I-0.123 J0.106
X-80.823 Y-46.334 Z-6.172 I0.123 J-0.106
X-81.07 Y-46.123 Z-6.233 I-0.123 J0.106
X-80.823 Y-46.334 Z-6.294 I0.123 J-0.106
X-81.07 Y-46.123 Z-6.356 I-0.123 J0.106
X-80.823 Y-46.334 Z-6.417 I0.123 J-0.106
X-81.07 Y-46.123 Z-6.478 I-0.123 J0.106
X-80.823 Y-46.334 Z-6.539 I0.123 J-0.106
X-81.07 Y-46.123 Z-6.6 I-0.123 J0.106
X-80.823 Y-46.334 Z-6.661 I0.123 J-0.106
X-81.07 Y-46.123 Z-6.722 I-0.123 J0.106
X-80.823 Y-46.334 Z-6.783 I0.123 J-0.106
X-81.07 Y-46.123 Z-6.844 I-0.123 J0.106
X-80.823 Y-46.334 Z-6.906 I0.123 J-0.106
X-81.07 Y-46.123 Z-6.967 I-0.123 J0.106
X-80.823 Y-46.334 Z-7.028 I0.123 J-0.106
X-81.07 Y-46.123 Z-7.089 I-0.123 J0.106
X-80.823 Y-46.334 Z-7.15 I0.123 J-0.106
X-81.07 Y-46.123 Z-7.211 I-0.123 J0.106
X-80.823 Y-46.334 Z-7.272 I0.123 J-0.106
X-81.07 Y-46.123 Z-7.333 I-0.123 J0.106
X-80.823 Y-46.334 Z-7.394 I0.123 J-0.106
X-81.07 Y-46.123 Z-7.456 I-0.123 J0.106
X-80.823 Y-46.334 Z-7.517 I0.123 J-0.106
X-81.07 Y-46.123 Z-7.578 I-0.123 J0.106
X-80.823 Y-46.334 Z-7.639 I0.123 J-0.106
X-81.07 Y-46.123 Z-7.7 I-0.123 J0.106
X-80.823 Y-46.334 Z-7.761 I0.123 J-0.106
X-81.07 Y-46.123 Z-7.822 I-0.123 J0.106
X-80.823 Y-46.334 Z-7.883 I0.123 J-0.106
X-81.07 Y-46.123 Z-7.944 I-0.123 J0.106
X-80.823 Y-46.334 Z-8.006 I0.123 J-0.106
X-81.07 Y-46.123 Z-8.067 I-0.123 J0.106
X-80.823 Y-46.334 Z-8.128 I0.123 J-0.106
X-81.07 Y-46.123 Z-8.189 I-0.123 J0.106
X-80.823 Y-46.334 Z-8.25 I0.123 J-0.106
X-80.993 Y-46.073 Z-8.3 I-0.123 J0.106
X-80.9 Y-46.384 I0.046 J-0.156
X-80.993 Y-46.073 I-0.046 J0.156
G1 X-81.021 Y-46.088
X-81.041 Y-46.112
X-81.05 Y-46.142
X-81.047 Y-46.174
X-81.002 Y-46.326
Z5
X-80.895 Y-96.217
Z1.683
Z0
X-81.016 Y-96.114
X-81.044 Y-96.098
X-81.075 Y-96.095
X-81.106 Y-96.103
X-81.131 Y-96.123
G3 X-80.884 Y-96.334 Z-0.061 I0.123 J-0.106
X-81.131 Y-96.123 Z-0.122 I-0.123 J0.106
X-80.884 Y-96.334 Z-0.183 I0.123 J-0.106
X-81.131 Y-96.123 Z-0.244 I-0.123 J0.106
X-80.884 Y-96.334 Z-0.306 I0.123 J-0.106
X-81.131 Y-96.123 Z-0.367 I-0.123 J0.106
X-80.884 Y-96.334 Z-0.428 I0.123 J-0.106
X-81.131 Y-96.123 Z-0.489 I-0.123 J0.106
X-80.884 Y-96.334 Z-0.55 I0.123 J-0.106
X-81.131 Y-96.123 Z-0.611 I-0.123 J0.106
X-80.884 Y-96.334 Z-0.672 I0.123 J-0.106
X-81.131 Y-96.123 Z-0.733 I-0.123 J0.106
X-80.884 Y-96.334 Z-0.794 I0.123 J-0.106
X-81.131 Y-96.123 Z-0.856 I-0.123 J0.106
X-80.884 Y-96.334 Z-0.917 I0.123 J-0.106
X-81.131 Y-96.123 Z-0.978 I-0.123 J0.106
X-80.884 Y-96.334 Z-1.039 I0.123 J-0.106
X-81.131 Y-96.123 Z-1.1 I-0.123 J0.106
X-80.884 Y-96.334 Z-1.161 I0.123 J-0.106
X-81.131 Y-96.123 Z-1.222 I-0.123 J0.106
X-80.884 Y-96.334 Z-1.283 I0.123 J-0.106
X-81.131 Y-96.123 Z-1.344 I-0.123 J0.106
X-80.884 Y-96.334 Z-1.406 I0.123 J-0.106
X-81.131 Y-96.123 Z-1.467 I-0.123 J0.106
X-80.884 Y-96.334 Z-1.528 I0.123 J-0.106
X-81.131 Y-96.123 Z-1.589 I-0.123 J0.106
X-80.884 Y-96.334 Z-1.65 I0.123 J-0.106
X-81.131 Y-96.123 Z-1.711 I-0.123 J0.106
X-80.884 Y-96.334 Z-1.772 I0.123 J-0.106
X-81.131 Y-96.123 Z-1.833 I-0.123 J0.106
X-80.884 Y-96.334 Z-1.894 I0.123 J-0.106
X-81.131 Y-96.123 Z-1.956 I-0.123 J0.106
X-80.884 Y-96.334 Z-2.017 I0.123 J-0.106
X-81.131 Y-96.123 Z-2.078 I-0.123 J0.106
X-80.884 Y-96.334 Z-2.139 I0.123 J-0.106
X-81.131 Y-96.123 Z-2.2 I-0.123 J0.106
X-80.884 Y-96.334 Z-2.261 I0.123 J-0.106
X-81.131 Y-96.123 Z-2.322 I-0.123 J0.106
X-80.884 Y-96.334 Z-2.383 I0.123 J-0.106
X-81.131 Y-96.123 Z-2.444 I-0.123 J0.106
X-80.884 Y-96.334 Z-2.506 I0.123 J-0.106
X-81.131 Y-96.123 Z-2.567 I-0.123 J0.106
X-80.884 Y-96.334 Z-2.628 I0.123 J-0.106
X-81.131 Y-96.123 Z-2.689 I-0.123 J0.106
X-80.884 Y-96.334 Z-2.75 I0.123 J-0.106
X-81.131 Y-96.123 Z-2.811 I-0.123 J0.106
X-80.884 Y-96.334 Z-2.872 I0.123 J-0.106
X-81.131 Y-96.123 Z-2.933 I-0.123 J0.106
X-80.884 Y-96.334 Z-2.994 I0.123 J-0.106
X-81.131 Y-96.123 Z-3.056 I-0.123 J0.106
X-80.884 Y-96.334 Z-3.117 I0.123 J-0.106
X-81.131 Y-96.123 Z-3.178 I-0.123 J0.106
X-80.884 Y-96.334 Z-3.239 I0.123 J-0.106
X-81.131 Y-96.123 Z-3.3 I-0.123 J0.106
X-80.884 Y-96.334 Z-3.361 I0.123 J-0.106
X-81.131 Y-96.123 Z-3.422 I-0.123 J0.106
X-80.884 Y-96.334 Z-3.483 I0.123 J-0.106
X-81.131 Y-96.123 Z-3.544 I-0.123 J0.106
X-80.884 Y-96.334 Z-3.606 I0.123 J-0.106
X-81.131 Y-96.123 Z-3.667 I-0.123 J0.106
X-80.884 Y-96.334 Z-3.728 I0.123 J-0.106
X-81.131 Y-96.123 Z-3.789 I-0.123 J0.106
X-80.884 Y-96.334 Z-3.85 I0.123 J-0.106
X-81.131 Y-96.123 Z-3.911 I-0.123 J0.106
X-80.884 Y-96.334 Z-3.972 I0.123 J-0.106
X-81.131 Y-96.123 Z-4.033 I-0.123 J0.106
X-80.884 Y-96.334 Z-4.094 I0.123 J-0.106
X-81.131 Y-96.123 Z-4.156 I-0.123 J0.106
X-80.884 Y-96.334 Z-4.217 I0.123 J-0.106
X-81.131 Y-96.123 Z-4.278 I-0.123 J0.106
X-80.884 Y-96.334 Z-4.339 I0.123 J-0.106
X-81.131 Y-96.123 Z-4.4 I-0.123 J0.106
X-80.884 Y-96.334 Z-4.461 I0.123 J-0.106
X-81.131 Y-96.123 Z-4.522 I-0.123 J0.106
X-80.884 Y-96.334 Z-4.583 I0.123 J-0.106
X-81.131 Y-96.123 Z-4.644 I-0.123 J0.106
X-80.884 Y-96.334 Z-4.706 I0.123 J-0.106
X-81.131 Y-96.123 Z-4.767 I-0.123 J0.106
X-80.884 Y-96.334 Z-4.828 I0.123 J-0.106
X-81.131 Y-96.123 Z-4.889 I-0.123 J0.106
X-80.884 Y-96.334 Z-4.95 I0.123 J-0.106
X-81.131 Y-96.123 Z-5.011 I-0.123 J0.106
X-80.884 Y-96.334 Z-5.072 I0.123 J-0.106
X-81.131 Y-96.123 Z-5.133 I-0.123 J0.106
X-80.884 Y-96.334 Z-5.194 I0.123 J-0.106
X-81.131 Y-96.123 Z-5.256 I-0.123 J0.106
X-80.884 Y-96.334 Z-5.317 I0.123 J-0.106
X-81.131 Y-96.123 Z-5.378 I-0.123 J0.106
X-80.884 Y-96.334 Z-5.439 I0.123 J-0.106
X-81.131 Y-96.123 Z-5.5 I-0.123 J0.106
X-80.884 Y-96.334 Z-5.561 I0.123 J-0.106
X-81.131 Y-96.123 Z-5.622 I-0.123 J0.106
X-80.884 Y-96.334 Z-5.683 I0.123 J-0.106
X-81.131 Y-96.123 Z-5.744 I-0.123 J0.106
X-80.884 Y-96.334 Z-5.806 I0.123 J-0.106
X-81.131 Y-96.123 Z-5.867 I-0.123 J0.106
X-80.884 Y-96.334 Z-5.928 I0.123 J-0.106
X-81.131 Y-96.123 Z-5.989 I-0.123 J0.106
X-80.884 Y-96.334 Z-6.05 I0.123 J-0.106
X-81.131 Y-96.123 Z-6.111 I-0.123 J0.106
X-80.884 Y-96.334 Z-6.172 I0.123 J-0.106
X-81.131 Y-96.123 Z-6.233 I-0.123 J0.106
X-80.884 Y-96.334 Z-6.294 I0.123 J-0.106
X-81.131 Y-96.123 Z-6.356 I-0.123 J0.106
X-80.884 Y-96.334 Z-6.417 I0.123 J-0.106
X-81.131 Y-96.123 Z-6.478 I-0.123 J0.106
X-80.884 Y-96.334 Z-6.539 I0.123 J-0.106
X-81.131 Y-96.123 Z-6.6 I-0.123 J0.106
X-80.884 Y-96.334 Z-6.661 I0.123 J-0.106
X-81.131 Y-96.123 Z-6.722 I-0.123 J0.106
X-80.884 Y-96.334 Z-6.783 I0.123 J-0.106
X-81.131 Y-96.123 Z-6.844 I-0.123 J0.106
X-80.884 Y-96.334 Z-6.906 I0.123 J-0.106
X-81.131 Y-96.123 Z-6.967 I-0.123 J0.106
X-80.884 Y-96.334 Z-7.028 I0.123 J-0.106
X-81.131 Y-96.123 Z-7.089 I-0.123 J0.106
X-80.884 Y-96.334 Z-7.15 I0.123 J-0.106
X-81.131 Y-96.123 Z-7.211 I-0.123 J0.106
X-80.884 Y-96.334 Z-7.272 I0.123 J-0.106
X-81.131 Y-96.123 Z-7.333 I-0.123 J0.106
X-80.884 Y-96.334 Z-7.394 I0.123 J-0.106
X-81.131 Y-96.123 Z-7.456 I-0.123 J0.106
X-80.884 Y-96.334 Z-7.517 I0.123 J-0.106
X-81.131 Y-96.123 Z-7.578 I-0.123 J0.106
X-80.884 Y-96.334 Z-7.639 I0.123 J-0.106
X-81.131 Y-96.123 Z-7.7 I-0.123 J0.106
X-80.884 Y-96.334 Z-7.761 I0.123 J-0.106
X-81.131 Y-96.123 Z-7.822 I-0.123 J0.106
X-80.884 Y-96.334 Z-7.883 I0.123 J-0.106
X-81.131 Y-96.123 Z-7.944 I-0.123 J0.106
X-80.884 Y-96.334 Z-8.006 I0.123 J-0.106
X-81.131 Y-96.123 Z-8.067 I-0.123 J0.106
X-80.884 Y-96.334 Z-8.128 I0.123 J-0.106
X-81.131 Y-96.123 Z-8.189 I-0.123 J0.106
X-80.884 Y-96.334 Z-8.25 I0.123 J-0.106
X-81.054 Y-96.073 Z-8.3 I-0.123 J0.106
X-80.961 Y-96.384 I0.046 J-0.156
X-81.054 Y-96.073 I-0.046 J0.156
G1 X-81.082 Y-96.088
X-81.102 Y-96.112
X-81.111 Y-96.142
X-81.108 Y-96.174
X-81.063 Y-96.326
Z5
X-56.418 Y-97.995
Z1.683
Z0
X-56.538 Y-97.892
X-56.566 Y-97.876
X-56.597 Y-97.873
X-56.628 Y-97.881
X-56.653 Y-97.901
G3 X-56.406 Y-98.112 Z-0.061 I0.123 J-0.106
X-56.653 Y-97.901 Z-0.122 I-0.123 J0.106
X-56.406 Y-98.112 Z-0.183 I0.123 J-0.106
X-56.653 Y-97.901 Z-0.244 I-0.123 J0.106
X-56.406 Y-98.112 Z-0.306 I0.123 J-0.106
X-56.653 Y-97.901 Z-0.367 I-0.123 J0.106
X-56.406 Y-98.112 Z-0.428 I0.123 J-0.106
X-56.653 Y-97.901 Z-0.489 I-0.123 J0.106
X-56.406 Y-98.112 Z-0.55 I0.123 J-0.106
X-56.653 Y-97.901 Z-0.611 I-0.123 J0.106
X-56.406 Y-98.112 Z-0.672 I0.123 J-0.106
X-56.653 Y-97.901 Z-0.733 I-0.123 J0.106
X-56.406 Y-98.112 Z-0.794 I0.123 J-0.106
X-56.653 Y-97.901 Z-0.856 I-0.123 J0.106
X-56.406 Y-98.112 Z-0.917 I0.123 J-0.106
X-56.653 Y-97.901 Z-0.978 I-0.123 J0.106
X-56.406 Y-98.112 Z-1.039 I0.123 J-0.106
X-56.653 Y-97.901 Z-1.1 I-0.123 J0.106
X-56.406 Y-98.112 Z-1.161 I0.123 J-0.106
X-56.653 Y-97.901 Z-1.222 I-0.123 J0.106
X-56.406 Y-98.112 Z-1.283 I0.123 J-0.106
X-56.653 Y-97.901 Z-1.344 I-0.123 J0.106
X-56.406 Y-98.112 Z-1.406 I0.123 J-0.106
X-56.653 Y-97.901 Z-1.467 I-0.123 J0.106
X-56.406 Y-98.112 Z-1.528 I0.123 J-0.106
X-56.653 Y-97.901 Z-1.589 I-0.123 J0.106
X-56.406 Y-98.112 Z-1.65 I0.123 J-0.106
X-56.653 Y-97.901 Z-1.711 I-0.123 J0.106
X-56.406 Y-98.112 Z-1.772 I0.123 J-0.106
X-56.653 Y-97.901 Z-1.833 I-0.123 J0.106
X-56.406 Y-98.112 Z-1.894 I0.123 J-0.106
X-56.653 Y-97.901 Z-1.956 I-0.123 J0.106
X-56.406 Y-98.112 Z-2.017 I0.123 J-0.106
X-56.653 Y-97.901 Z-2.078 I-0.123 J0.106
X-56.406 Y-98.112 Z-2.139 I0.123 J-0.106
X-56.653 Y-97.901 Z-2.2 I-0.123 J0.106
X-56.406 Y-98.112 Z-2.261 I0.123 J-0.106
X-56.653 Y-97.901 Z-2.322 I-0.123 J0.106
X-56.406 Y-98.112 Z-2.383 I0.123 J-0.106
X-56.653 Y-97.901 Z-2.444 I-0.123 J0.106
X-56.406 Y-98.112 Z-2.506 I0.123 J-0.106
X-56.653 Y-97.901 Z-2.567 I-0.123 J0.106
X-56.406 Y-98.112 Z-2.628 I0.123 J-0.106
X-56.653 Y-97.901 Z-2.689 I-0.123 J0.106
X-56.406 Y-98.112 Z-2.75 I0.123 J-0.106
X-56.653 Y-97.901 Z-2.811 I-0.123 J0.106
X-56.406 Y-98.112 Z-2.872 I0.123 J-0.106
X-56.653 Y-97.901 Z-2.933 I-0.123 J0.106
X-56.406 Y-98.112 Z-2.994 I0.123 J-0.106
X-56.653 Y-97.901 Z-3.056 I-0.123 J0.106
X-56.406 Y-98.112 Z-3.117 I0.123 J-0.106
X-56.653 Y-97.901 Z-3.178 I-0.123 J0.106
X-56.406 Y-98.112 Z-3.239 I0.123 J-0.106
X-56.653 Y-97.901 Z-3.3 I-0.123 J0.106
X-56.406 Y-98.112 Z-3.361 I0.123 J-0.106
X-56.653 Y-97.901 Z-3.422 I-0.123 J0.106
X-56.406 Y-98.112 Z-3.483 I0.123 J-0.106
X-56.653 Y-97.901 Z-3.544 I-0.123 J0.106
X-56.406 Y-98.112 Z-3.606 I0.123 J-0.106
X-56.653 Y-97.901 Z-3.667 I-0.123 J0.106
X-56.406 Y-98.112 Z-3.728 I0.123 J-0.106
X-56.653 Y-97.901 Z-3.789 I-0.123 J0.106
X-56.406 Y-98.112 Z-3.85 I0.123 J-0.106
X-56.653 Y-97.901 Z-3.911 I-0.123 J0.106
X-56.406 Y-98.112 Z-3.972 I0.123 J-0.106
X-56.653 Y-97.901 Z-4.033 I-0.123 J0.106
X-56.406 Y-98.112 Z-4.094 I0.123 J-0.106
X-56.653 Y-97.901 Z-4.156 I-0.123 J0.106
X-56.406 Y-98.112 Z-4.217 I0.123 J-0.106
X-56.653 Y-97.901 Z-4.278 I-0.123 J0.106
X-56.406 Y-98.112 Z-4.339 I0.123 J-0.106
X-56.653 Y-97.901 Z-4.4 I-0.123 J0.106
X-56.406 Y-98.112 Z-4.461 I0.123 J-0.106
X-56.653 Y-97.901 Z-4.522 I-0.123 J0.106
X-56.406 Y-98.112 Z-4.583 I0.123 J-0.106
X-56.653 Y-97.901 Z-4.644 I-0.123 J0.106
X-56.406 Y-98.112 Z-4.706 I0.123 J-0.106
X-56.653 Y-97.901 Z-4.767 I-0.123 J0.106
X-56.406 Y-98.112 Z-4.828 I0.123 J-0.106
X-56.653 Y-97.901 Z-4.889 I-0.123 J0.106
X-56.406 Y-98.112 Z-4.95 I0.123 J-0.106
X-56.653 Y-97.901 Z-5.011 I-0.123 J0.106
X-56.406 Y-98.112 Z-5.072 I0.123 J-0.106
X-56.653 Y-97.901 Z-5.133 I-0.123 J0.106
X-56.406 Y-98.112 Z-5.194 I0.123 J-0.106
X-56.653 Y-97.901 Z-5.256 I-0.123 J0.106
X-56.406 Y-98.112 Z-5.317 I0.123 J-0.106
X-56.653 Y-97.901 Z-5.378 I-0.123 J0.106
X-56.406 Y-98.112 Z-5.439 I0.123 J-0.106
X-56.653 Y-97.901 Z-5.5 I-0.123 J0.106
X-56.406 Y-98.112 Z-5.561 I0.123 J-0.106
X-56.653 Y-97.901 Z-5.622 I-0.123 J0.106
X-56.406 Y-98.112 Z-5.683 I0.123 J-0.106
X-56.653 Y-97.901 Z-5.744 I-0.123 J0.106
X-56.406 Y-98.112 Z-5.806 I0.123 J-0.106
X-56.653 Y-97.901 Z-5.867 I-0.123 J0.106
X-56.406 Y-98.112 Z-5.928 I0.123 J-0.106
X-56.653 Y-97.901 Z-5.989 I-0.123 J0.106
X-56.406 Y-98.112 Z-6.05 I0.123 J-0.106
X-56.653 Y-97.901 Z-6.111 I-0.123 J0.106
X-56.406 Y-98.112 Z-6.172 I0.123 J-0.106
X-56.653 Y-97.901 Z-6.233 I-0.123 J0.106
X-56.406 Y-98.112 Z-6.294 I0.123 J-0.106
X-56.653 Y-97.901 Z-6.356 I-0.123 J0.106
X-56.406 Y-98.112 Z-6.417 I0.123 J-0.106
X-56.653 Y-97.901 Z-6.478 I-0.123 J0.106
X-56.406 Y-98.112 Z-6.539 I0.123 J-0.106
X-56.653 Y-97.901 Z-6.6 I-0.123 J0.106
X-56.406 Y-98.112 Z-6.661 I0.123 J-0.106
X-56.653 Y-97.901 Z-6.722 I-0.123 J0.106
X-56.406 Y-98.112 Z-6.783 I0.123 J-0.106
X-56.653 Y-97.901 Z-6.844 I-0.123 J0.106
X-56.406 Y-98.112 Z-6.906 I0.123 J-0.106
X-56.653 Y-97.901 Z-6.967 I-0.123 J0.106
X-56.406 Y-98.112 Z-7.028 I0.123 J-0.106
X-56.653 Y-97.901 Z-7.089 I-0.123 J0.106
X-56.406 Y-98.112 Z-7.15 I0.123 J-0.106
X-56.653 Y-97.901 Z-7.211 I-0.123 J0.106
X-56.406 Y-98.112 Z-7.272 I0.123 J-0.106
X-56.653 Y-97.901 Z-7.333 I-0.123 J0.106
X-56.406 Y-98.112 Z-7.394 I0.123 J-0.106
X-56.653 Y-97.901 Z-7.456 I-0.123 J0.106
X-56.406 Y-98.112 Z-7.517 I0.123 J-0.106
X-56.653 Y-97.901 Z-7.578 I-0.123 J0.106
X-56.406 Y-98.112 Z-7.639 I0.123 J-0.106
X-56.653 Y-97.901 Z-7.7 I-0.123 J0.106
X-56.406 Y-98.112 Z-7.761 I0.123 J-0.106
X-56.653 Y-97.901 Z-7.822 I-0.123 J0.106
X-56.406 Y-98.112 Z-7.883 I0.123 J-0.106
X-56.653 Y-97.901 Z-7.944 I-0.123 J0.106
X-56.406 Y-98.112 Z-8.006 I0.123 J-0.106
X-56.653 Y-97.901 Z-8.067 I-0.123 J0.106
X-56.406 Y-98.112 Z-8.128 I0.123 J-0.106
X-56.653 Y-97.901 Z-8.189 I-0.123 J0.106
X-56.406 Y-98.112 Z-8.25 I0.123 J-0.106
X-56.576 Y-97.851 Z-8.3 I-0.123 J0.106
X-56.483 Y-98.162 I0.046 J-0.156
X-56.576 Y-97.851 I-0.046 J0.156
G1 X-56.604 Y-97.866
X-56.624 Y-97.89
X-56.633 Y-97.92
X-56.63 Y-97.952
X-56.585 Y-98.104
Z5
X-19.618 Y-122.294
Z2
Z0.317
X-19.612 Y-122.289 Z0.247
X-19.594 Y-122.274 Z0.18
X-19.566 Y-122.249 Z0.12
X-19.527 Y-122.217 Z0.069
X-19.481 Y-122.177 Z0.031
X-19.43 Y-122.134 Z0.008
X-19.377 Y-122.088 Z0
X-19.256 Y-121.985
G3 X-19.22 Y-121.538 I-0.206 J0.242
X-25.176 Y-126.612 Z-0.192 I-2.978 J-2.537
X-19.22 Y-121.538 Z-0.384 I2.978 J2.537
X-25.176 Y-126.612 Z-0.576 I-2.978 J-2.537
X-19.22 Y-121.538 Z-0.768 I2.978 J2.537
X-25.176 Y-126.612 Z-0.96 I-2.978 J-2.537
X-19.22 Y-121.538 Z-1.152 I2.978 J2.537
X-25.176 Y-126.612 Z-1.344 I-2.978 J-2.537
X-19.22 Y-121.538 Z-1.537 I2.978 J2.537
X-25.176 Y-126.612 Z-1.729 I-2.978 J-2.537
X-19.22 Y-121.538 Z-1.921 I2.978 J2.537
X-25.176 Y-126.612 Z-2.113 I-2.978 J-2.537
X-19.22 Y-121.538 Z-2.305 I2.978 J2.537
X-25.176 Y-126.612 Z-2.497 I-2.978 J-2.537
X-19.22 Y-121.538 Z-2.689 I2.978 J2.537
X-25.176 Y-126.612 Z-2.881 I-2.978 J-2.537
X-19.22 Y-121.538 Z-3.073 I2.978 J2.537
X-25.176 Y-126.612 Z-3.265 I-2.978 J-2.537
X-19.22 Y-121.538 Z-3.457 I2.978 J2.537
X-25.176 Y-126.612 Z-3.649 I-2.978 J-2.537
X-19.22 Y-121.538 Z-3.841 I2.978 J2.537
X-25.176 Y-126.612 Z-4.033 I-2.978 J-2.537
X-19.22 Y-121.538 Z-4.225 I2.978 J2.537
X-25.176 Y-126.612 Z-4.417 I-2.978 J-2.537
X-19.22 Y-121.538 Z-4.61 I2.978 J2.537
X-25.176 Y-126.612 Z-4.802 I-2.978 J-2.537
X-19.22 Y-121.538 Z-4.994 I2.978 J2.537
X-25.176 Y-126.612 Z-5.186 I-2.978 J-2.537
X-19.22 Y-121.538 Z-5.378 I2.978 J2.537
X-25.176 Y-126.612 Z-5.57 I-2.978 J-2.537
X-19.22 Y-121.538 Z-5.762 I2.978 J2.537
X-25.176 Y-126.612 Z-5.954 I-2.978 J-2.537
X-19.22 Y-121.538 Z-6.146 I2.978 J2.537
X-25.176 Y-126.612 Z-6.338 I-2.978 J-2.537
X-19.22 Y-121.538 Z-6.53 I2.978 J2.537
X-25.176 Y-126.612 Z-6.722 I-2.978 J-2.537
X-19.22 Y-121.538 Z-6.914 I2.978 J2.537
X-25.176 Y-126.612 Z-7.106 I-2.978 J-2.537
X-19.22 Y-121.538 Z-7.298 I2.978 J2.537
X-25.176 Y-126.612 Z-7.491 I-2.978 J-2.537
X-19.22 Y-121.538 Z-7.683 I2.978 J2.537
X-25.176 Y-126.612 Z-7.875 I-2.978 J-2.537
X-19.22 Y-121.538 Z-8.067 I2.978 J2.537
X-25.176 Y-126.612 Z-8.259 I-2.978 J-2.537
X-22.939 Y-127.917 Z-8.3 I2.978 J2.537
X-21.457 Y-120.233 I0.741 J3.842
X-22.939 Y-127.917 I-0.741 J-3.842
X-22.568 Y-127.665 I0.06 J0.312
G1 X-22.538 Y-127.509
X-22.524 Y-127.44 Z-8.292
X-22.511 Y-127.374 Z-8.269
X-22.5 Y-127.315 Z-8.231
X-22.49 Y-127.265 Z-8.18
X-22.483 Y-127.228 Z-8.12
X-22.479 Y-127.205 Z-8.053
X-22.477 Y-127.197 Z-7.983
Z5
X-215.847 Y-124.187
Z1.683
Z0
X-215.726 Y-124.084
X-215.706 Y-124.059
X-215.698 Y-124.029
X-215.701 Y-123.997
X-215.717 Y-123.97
G3 X-215.964 Y-124.18 Z-0.061 I-0.124 J-0.105
X-215.717 Y-123.97 Z-0.122 I0.124 J0.105
X-215.964 Y-124.18 Z-0.183 I-0.124 J-0.105
X-215.717 Y-123.97 Z-0.244 I0.124 J0.105
X-215.964 Y-124.18 Z-0.306 I-0.124 J-0.105
X-215.717 Y-123.97 Z-0.367 I0.124 J0.105
X-215.964 Y-124.18 Z-0.428 I-0.124 J-0.105
X-215.717 Y-123.97 Z-0.489 I0.124 J0.105
X-215.964 Y-124.18 Z-0.55 I-0.124 J-0.105
X-215.717 Y-123.97 Z-0.611 I0.124 J0.105
X-215.964 Y-124.18 Z-0.672 I-0.124 J-0.105
X-215.717 Y-123.97 Z-0.733 I0.124 J0.105
X-215.964 Y-124.18 Z-0.794 I-0.124 J-0.105
X-215.717 Y-123.97 Z-0.856 I0.124 J0.105
X-215.964 Y-124.18 Z-0.917 I-0.124 J-0.105
X-215.717 Y-123.97 Z-0.978 I0.124 J0.105
X-215.964 Y-124.18 Z-1.039 I-0.124 J-0.105
X-215.717 Y-123.97 Z-1.1 I0.124 J0.105
X-215.964 Y-124.18 Z-1.161 I-0.124 J-0.105
X-215.717 Y-123.97 Z-1.222 I0.124 J0.105
X-215.964 Y-124.18 Z-1.283 I-0.124 J-0.105
X-215.717 Y-123.97 Z-1.344 I0.124 J0.105
X-215.964 Y-124.18 Z-1.406 I-0.124 J-0.105
X-215.717 Y-123.97 Z-1.467 I0.124 J0.105
X-215.964 Y-124.18 Z-1.528 I-0.124 J-0.105
X-215.717 Y-123.97 Z-1.589 I0.124 J0.105
X-215.964 Y-124.18 Z-1.65 I-0.124 J-0.105
X-215.717 Y-123.97 Z-1.711 I0.124 J0.105
X-215.964 Y-124.18 Z-1.772 I-0.124 J-0.105
X-215.717 Y-123.97 Z-1.833 I0.124 J0.105
X-215.964 Y-124.18 Z-1.894 I-0.124 J-0.105
X-215.717 Y-123.97 Z-1.956 I0.124 J0.105
X-215.964 Y-124.18 Z-2.017 I-0.124 J-0.105
X-215.717 Y-123.97 Z-2.078 I0.124 J0.105
X-215.964 Y-124.18 Z-2.139 I-0.124 J-0.105
X-215.717 Y-123.97 Z-2.2 I0.124 J0.105
X-215.964 Y-124.18 Z-2.261 I-0.124 J-0.105
X-215.717 Y-123.97 Z-2.322 I0.124 J0.105
X-215.964 Y-124.18 Z-2.383 I-0.124 J-0.105
X-215.717 Y-123.97 Z-2.444 I0.124 J0.105
X-215.964 Y-124.18 Z-2.506 I-0.124 J-0.105
X-215.717 Y-123.97 Z-2.567 I0.124 J0.105
X-215.964 Y-124.18 Z-2.628 I-0.124 J-0.105
X-215.717 Y-123.97 Z-2.689 I0.124 J0.105
X-215.964 Y-124.18 Z-2.75 I-0.124 J-0.105
X-215.717 Y-123.97 Z-2.811 I0.124 J0.105
X-215.964 Y-124.18 Z-2.872 I-0.124 J-0.105
X-215.717 Y-123.97 Z-2.933 I0.124 J0.105
X-215.964 Y-124.18 Z-2.994 I-0.124 J-0.105
X-215.717 Y-123.97 Z-3.056 I0.124 J0.105
X-215.964 Y-124.18 Z-3.117 I-0.124 J-0.105
X-215.717 Y-123.97 Z-3.178 I0.124 J0.105
X-215.964 Y-124.18 Z-3.239 I-0.124 J-0.105
X-215.717 Y-123.97 Z-3.3 I0.124 J0.105
X-215.964 Y-124.18 Z-3.361 I-0.124 J-0.105
X-215.717 Y-123.97 Z-3.422 I0.124 J0.105
X-215.964 Y-124.18 Z-3.483 I-0.124 J-0.105
X-215.717 Y-123.97 Z-3.544 I0.124 J0.105
X-215.964 Y-124.18 Z-3.606 I-0.124 J-0.105
X-215.717 Y-123.97 Z-3.667 I0.124 J0.105
X-215.964 Y-124.18 Z-3.728 I-0.124 J-0.105
X-215.717 Y-123.97 Z-3.789 I0.124 J0.105
X-215.964 Y-124.18 Z-3.85 I-0.124 J-0.105
X-215.717 Y-123.97 Z-3.911 I0.124 J0.105
X-215.964 Y-124.18 Z-3.972 I-0.124 J-0.105
X-215.717 Y-123.97 Z-4.033 I0.124 J0.105
X-215.964 Y-124.18 Z-4.094 I-0.124 J-0.105
X-215.717 Y-123.97 Z-4.156 I0.124 J0.105
X-215.964 Y-124.18 Z-4.217 I-0.124 J-0.105
X-215.717 Y-123.97 Z-4.278 I0.124 J0.105
X-215.964 Y-124.18 Z-4.339 I-0.124 J-0.105
X-215.717 Y-123.97 Z-4.4 I0.124 J0.105
X-215.964 Y-124.18 Z-4.461 I-0.124 J-0.105
X-215.717 Y-123.97 Z-4.522 I0.124 J0.105
X-215.964 Y-124.18 Z-4.583 I-0.124 J-0.105
X-215.717 Y-123.97 Z-4.644 I0.124 J0.105
X-215.964 Y-124.18 Z-4.706 I-0.124 J-0.105
X-215.717 Y-123.97 Z-4.767 I0.124 J0.105
X-215.964 Y-124.18 Z-4.828 I-0.124 J-0.105
X-215.717 Y-123.97 Z-4.889 I0.124 J0.105
X-215.964 Y-124.18 Z-4.95 I-0.124 J-0.105
X-215.717 Y-123.97 Z-5.011 I0.124 J0.105
X-215.964 Y-124.18 Z-5.072 I-0.124 J-0.105
X-215.717 Y-123.97 Z-5.133 I0.124 J0.105
X-215.964 Y-124.18 Z-5.194 I-0.124 J-0.105
X-215.717 Y-123.97 Z-5.256 I0.124 J0.105
X-215.964 Y-124.18 Z-5.317 I-0.124 J-0.105
X-215.717 Y-123.97 Z-5.378 I0.124 J0.105
X-215.964 Y-124.18 Z-5.439 I-0.124 J-0.105
X-215.717 Y-123.97 Z-5.5 I0.124 J0.105
X-215.964 Y-124.18 Z-5.561 I-0.124 J-0.105
X-215.717 Y-123.97 Z-5.622 I0.124 J0.105
X-215.964 Y-124.18 Z-5.683 I-0.124 J-0.105
X-215.717 Y-123.97 Z-5.744 I0.124 J0.105
X-215.964 Y-124.18 Z-5.806 I-0.124 J-0.105
X-215.717 Y-123.97 Z-5.867 I0.124 J0.105
X-215.964 Y-124.18 Z-5.928 I-0.124 J-0.105
X-215.717 Y-123.97 Z-5.989 I0.124 J0.105
X-215.964 Y-124.18 Z-6.05 I-0.124 J-0.105
X-215.717 Y-123.97 Z-6.111 I0.124 J0.105
X-215.964 Y-124.18 Z-6.172 I-0.124 J-0.105
X-215.717 Y-123.97 Z-6.233 I0.124 J0.105
X-215.964 Y-124.18 Z-6.294 I-0.124 J-0.105
X-215.717 Y-123.97 Z-6.356 I0.124 J0.105
X-215.964 Y-124.18 Z-6.417 I-0.124 J-0.105
X-215.717 Y-123.97 Z-6.478 I0.124 J0.105
X-215.964 Y-124.18 Z-6.539 I-0.124 J-0.105
X-215.717 Y-123.97 Z-6.6 I0.124 J0.105
X-215.964 Y-124.18 Z-6.661 I-0.124 J-0.105
X-215.717 Y-123.97 Z-6.722 I0.124 J0.105
X-215.964 Y-124.18 Z-6.783 I-0.124 J-0.105
X-215.717 Y-123.97 Z-6.844 I0.124 J0.105
X-215.964 Y-124.18 Z-6.906 I-0.124 J-0.105
X-215.717 Y-123.97 Z-6.967 I0.124 J0.105
X-215.964 Y-124.18 Z-7.028 I-0.124 J-0.105
X-215.717 Y-123.97 Z-7.089 I0.124 J0.105
X-215.964 Y-124.18 Z-7.15 I-0.124 J-0.105
X-215.717 Y-123.97 Z-7.211 I0.124 J0.105
X-215.964 Y-124.18 Z-7.272 I-0.124 J-0.105
X-215.717 Y-123.97 Z-7.333 I0.124 J0.105
X-215.964 Y-124.18 Z-7.394 I-0.124 J-0.105
X-215.717 Y-123.97 Z-7.456 I0.124 J0.105
X-215.964 Y-124.18 Z-7.517 I-0.124 J-0.105
X-215.717 Y-123.97 Z-7.578 I0.124 J0.105
X-215.964 Y-124.18 Z-7.639 I-0.124 J-0.105
X-215.717 Y-123.97 Z-7.7 I0.124 J0.105
X-215.964 Y-124.18 Z-7.761 I-0.124 J-0.105
X-215.717 Y-123.97 Z-7.822 I0.124 J0.105
X-215.964 Y-124.18 Z-7.883 I-0.124 J-0.105
X-215.717 Y-123.97 Z-7.944 I0.124 J0.105
X-215.964 Y-124.18 Z-8.006 I-0.124 J-0.105
X-215.717 Y-123.97 Z-8.067 I0.124 J0.105
X-215.964 Y-124.18 Z-8.128 I-0.124 J-0.105
X-215.717 Y-123.97 Z-8.189 I0.124 J0.105
X-215.964 Y-124.18 Z-8.25 I-0.124 J-0.105
X-215.679 Y-124.053 Z-8.3 I0.124 J0.105
X-216.001 Y-124.096 I-0.161 J-0.022
X-215.679 Y-124.053 I0.161 J0.022
G1 X-215.69 Y-124.023
X-215.711 Y-124
X-215.739 Y-123.986
X-215.771 Y-123.984
X-215.928 Y-124.005
Z5
X-240.329 Y-125.905
Z1.683
Z0
X-240.208 Y-125.802
X-240.188 Y-125.778
X-240.18 Y-125.747
X-240.183 Y-125.716
X-240.199 Y-125.688
G3 X-240.446 Y-125.899 Z-0.061 I-0.124 J-0.105
X-240.199 Y-125.688 Z-0.122 I0.124 J0.105
X-240.446 Y-125.899 Z-0.183 I-0.124 J-0.105
X-240.199 Y-125.688 Z-0.244 I0.124 J0.105
X-240.446 Y-125.899 Z-0.306 I-0.124 J-0.105
X-240.199 Y-125.688 Z-0.367 I0.124 J0.105
X-240.446 Y-125.899 Z-0.428 I-0.124 J-0.105
X-240.199 Y-125.688 Z-0.489 I0.124 J0.105
X-240.446 Y-125.899 Z-0.55 I-0.124 J-0.105
X-240.199 Y-125.688 Z-0.611 I0.124 J0.105
X-240.446 Y-125.899 Z-0.672 I-0.124 J-0.105
X-240.199 Y-125.688 Z-0.733 I0.124 J0.105
X-240.446 Y-125.899 Z-0.794 I-0.124 J-0.105
X-240.199 Y-125.688 Z-0.856 I0.124 J0.105
X-240.446 Y-125.899 Z-0.917 I-0.124 J-0.105
X-240.199 Y-125.688 Z-0.978 I0.124 J0.105
X-240.446 Y-125.899 Z-1.039 I-0.124 J-0.105
X-240.199 Y-125.688 Z-1.1 I0.124 J0.105
X-240.446 Y-125.899 Z-1.161 I-0.124 J-0.105
X-240.199 Y-125.688 Z-1.222 I0.124 J0.105
X-240.446 Y-125.899 Z-1.283 I-0.124 J-0.105
X-240.199 Y-125.688 Z-1.344 I0.124 J0.105
X-240.446 Y-125.899 Z-1.406 I-0.124 J-0.105
X-240.199 Y-125.688 Z-1.467 I0.124 J0.105
X-240.446 Y-125.899 Z-1.528 I-0.124 J-0.105
X-240.199 Y-125.688 Z-1.589 I0.124 J0.105
X-240.446 Y-125.899 Z-1.65 I-0.124 J-0.105
X-240.199 Y-125.688 Z-1.711 I0.124 J0.105
X-240.446 Y-125.899 Z-1.772 I-0.124 J-0.105
X-240.199 Y-125.688 Z-1.833 I0.124 J0.105
X-240.446 Y-125.899 Z-1.894 I-0.124 J-0.105
X-240.199 Y-125.688 Z-1.956 I0.124 J0.105
X-240.446 Y-125.899 Z-2.017 I-0.124 J-0.105
X-240.199 Y-125.688 Z-2.078 I0.124 J0.105
X-240.446 Y-125.899 Z-2.139 I-0.124 J-0.105
X-240.199 Y-125.688 Z-2.2 I0.124 J0.105
X-240.446 Y-125.899 Z-2.261 I-0.124 J-0.105
X-240.199 Y-125.688 Z-2.322 I0.124 J0.105
X-240.446 Y-125.899 Z-2.383 I-0.124 J-0.105
X-240.199 Y-125.688 Z-2.444 I0.124 J0.105
X-240.446 Y-125.899 Z-2.506 I-0.124 J-0.105
X-240.199 Y-125.688 Z-2.567 I0.124 J0.105
X-240.446 Y-125.899 Z-2.628 I-0.124 J-0.105
X-240.199 Y-125.688 Z-2.689 I0.124 J0.105
X-240.446 Y-125.899 Z-2.75 I-0.124 J-0.105
X-240.199 Y-125.688 Z-2.811 I0.124 J0.105
X-240.446 Y-125.899 Z-2.872 I-0.124 J-0.105
X-240.199 Y-125.688 Z-2.933 I0.124 J0.105
X-240.446 Y-125.899 Z-2.994 I-0.124 J-0.105
X-240.199 Y-125.688 Z-3.056 I0.124 J0.105
X-240.446 Y-125.899 Z-3.117 I-0.124 J-0.105
X-240.199 Y-125.688 Z-3.178 I0.124 J0.105
X-240.446 Y-125.899 Z-3.239 I-0.124 J-0.105
X-240.199 Y-125.688 Z-3.3 I0.124 J0.105
X-240.446 Y-125.899 Z-3.361 I-0.124 J-0.105
X-240.199 Y-125.688 Z-3.422 I0.124 J0.105
X-240.446 Y-125.899 Z-3.483 I-0.124 J-0.105
X-240.199 Y-125.688 Z-3.544 I0.124 J0.105
X-240.446 Y-125.899 Z-3.606 I-0.124 J-0.105
X-240.199 Y-125.688 Z-3.667 I0.124 J0.105
X-240.446 Y-125.899 Z-3.728 I-0.124 J-0.105
X-240.199 Y-125.688 Z-3.789 I0.124 J0.105
X-240.446 Y-125.899 Z-3.85 I-0.124 J-0.105
X-240.199 Y-125.688 Z-3.911 I0.124 J0.105
X-240.446 Y-125.899 Z-3.972 I-0.124 J-0.105
X-240.199 Y-125.688 Z-4.033 I0.124 J0.105
X-240.446 Y-125.899 Z-4.094 I-0.124 J-0.105
X-240.199 Y-125.688 Z-4.156 I0.124 J0.105
X-240.446 Y-125.899 Z-4.217 I-0.124 J-0.105
X-240.199 Y-125.688 Z-4.278 I0.124 J0.105
X-240.446 Y-125.899 Z-4.339 I-0.124 J-0.105
X-240.199 Y-125.688 Z-4.4 I0.124 J0.105
X-240.446 Y-125.899 Z-4.461 I-0.124 J-0.105
X-240.199 Y-125.688 Z-4.522 I0.124 J0.105
X-240.446 Y-125.899 Z-4.583 I-0.124 J-0.105
X-240.199 Y-125.688 Z-4.644 I0.124 J0.105
X-240.446 Y-125.899 Z-4.706 I-0.124 J-0.105
X-240.199 Y-125.688 Z-4.767 I0.124 J0.105
X-240.446 Y-125.899 Z-4.828 I-0.124 J-0.105
X-240.199 Y-125.688 Z-4.889 I0.124 J0.105
X-240.446 Y-125.899 Z-4.95 I-0.124 J-0.105
X-240.199 Y-125.688 Z-5.011 I0.124 J0.105
X-240.446 Y-125.899 Z-5.072 I-0.124 J-0.105
X-240.199 Y-125.688 Z-5.133 I0.124 J0.105
X-240.446 Y-125.899 Z-5.194 I-0.124 J-0.105
X-240.199 Y-125.688 Z-5.256 I0.124 J0.105
X-240.446 Y-125.899 Z-5.317 I-0.124 J-0.105
X-240.199 Y-125.688 Z-5.378 I0.124 J0.105
X-240.446 Y-125.899 Z-5.439 I-0.124 J-0.105
X-240.199 Y-125.688 Z-5.5 I0.124 J0.105
X-240.446 Y-125.899 Z-5.561 I-0.124 J-0.105
X-240.199 Y-125.688 Z-5.622 I0.124 J0.105
X-240.446 Y-125.899 Z-5.683 I-0.124 J-0.105
X-240.199 Y-125.688 Z-5.744 I0.124 J0.105
X-240.446 Y-125.899 Z-5.806 I-0.124 J-0.105
X-240.199 Y-125.688 Z-5.867 I0.124 J0.105
X-240.446 Y-125.899 Z-5.928 I-0.124 J-0.105
X-240.199 Y-125.688 Z-5.989 I0.124 J0.105
X-240.446 Y-125.899 Z-6.05 I-0.124 J-0.105
X-240.199 Y-125.688 Z-6.111 I0.124 J0.105
X-240.446 Y-125.899 Z-6.172 I-0.124 J-0.105
X-240.199 Y-125.688 Z-6.233 I0.124 J0.105
X-240.446 Y-125.899 Z-6.294 I-0.124 J-0.105
X-240.199 Y-125.688 Z-6.356 I0.124 J0.105
X-240.446 Y-125.899 Z-6.417 I-0.124 J-0.105
X-240.199 Y-125.688 Z-6.478 I0.124 J0.105
X-240.446 Y-125.899 Z-6.539 I-0.124 J-0.105
X-240.199 Y-125.688 Z-6.6 I0.124 J0.105
X-240.446 Y-125.899 Z-6.661 I-0.124 J-0.105
X-240.199 Y-125.688 Z-6.722 I0.124 J0.105
X-240.446 Y-125.899 Z-6.783 I-0.124 J-0.105
X-240.199 Y-125.688 Z-6.844 I0.124 J0.105
X-240.446 Y-125.899 Z-6.906 I-0.124 J-0.105
X-240.199 Y-125.688 Z-6.967 I0.124 J0.105
X-240.446 Y-125.899 Z-7.028 I-0.124 J-0.105
X-240.199 Y-125.688 Z-7.089 I0.124 J0.105
X-240.446 Y-125.899 Z-7.15 I-0.124 J-0.105
X-240.199 Y-125.688 Z-7.211 I0.124 J0.105
X-240.446 Y-125.899 Z-7.272 I-0.124 J-0.105
X-240.199 Y-125.688 Z-7.333 I0.124 J0.105
X-240.446 Y-125.899 Z-7.394 I-0.124 J-0.105
X-240.199 Y-125.688 Z-7.456 I0.124 J0.105
X-240.446 Y-125.899 Z-7.517 I-0.124 J-0.105
X-240.199 Y-125.688 Z-7.578 I0.124 J0.105
X-240.446 Y-125.899 Z-7.639 I-0.124 J-0.105
X-240.199 Y-125.688 Z-7.7 I0.124 J0.105
X-240.446 Y-125.899 Z-7.761 I-0.124 J-0.105
X-240.199 Y-125.688 Z-7.822 I0.124 J0.105
X-240.446 Y-125.899 Z-7.883 I-0.124 J-0.105
X-240.199 Y-125.688 Z-7.944 I0.124 J0.105
X-240.446 Y-125.899 Z-8.006 I-0.124 J-0.105
X-240.199 Y-125.688 Z-8.067 I0.124 J0.105
X-240.446 Y-125.899 Z-8.128 I-0.124 J-0.105
X-240.199 Y-125.688 Z-8.189 I0.124 J0.105
X-240.446 Y-125.899 Z-8.25 I-0.124 J-0.105
X-240.161 Y-125.772 Z-8.3 I0.124 J0.105
X-240.484 Y-125.815 I-0.161 J-0.022
X-240.161 Y-125.772 I0.161 J0.022
G1 X-240.172 Y-125.742
X-240.193 Y-125.718
X-240.221 Y-125.704
X-240.253 Y-125.702
X-240.41 Y-125.723
Z5
X-276.811 Y-93.487
Z2
Z0.317
X-276.817 Y-93.481 Z0.247
X-276.835 Y-93.466 Z0.18
X-276.864 Y-93.442 Z0.12
X-276.902 Y-93.409 Z0.069
X-276.948 Y-93.37 Z0.031
X-276.999 Y-93.326 Z0.008
X-277.053 Y-93.28 Z0
X-277.173 Y-93.177
G3 X-277.621 Y-93.212 I-0.206 J-0.241
X-271.677 Y-98.301 Z-0.192 I2.972 J-2.545
X-277.621 Y-93.212 Z-0.384 I-2.972 J2.545
X-271.677 Y-98.301 Z-0.576 I2.972 J-2.545
X-277.621 Y-93.212 Z-0.768 I-2.972 J2.545
X-271.677 Y-98.301 Z-0.96 I2.972 J-2.545
X-277.621 Y-93.212 Z-1.152 I-2.972 J2.545
X-271.677 Y-98.301 Z-1.344 I2.972 J-2.545
X-277.621 Y-93.212 Z-1.537 I-2.972 J2.545
X-271.677 Y-98.301 Z-1.729 I2.972 J-2.545
X-277.621 Y-93.212 Z-1.921 I-2.972 J2.545
X-271.677 Y-98.301 Z-2.113 I2.972 J-2.545
X-277.621 Y-93.212 Z-2.305 I-2.972 J2.545
X-271.677 Y-98.301 Z-2.497 I2.972 J-2.545
X-277.621 Y-93.212 Z-2.689 I-2.972 J2.545
X-271.677 Y-98.301 Z-2.881 I2.972 J-2.545
X-277.621 Y-93.212 Z-3.073 I-2.972 J2.545
X-271.677 Y-98.301 Z-3.265 I2.972 J-2.545
X-277.621 Y-93.212 Z-3.457 I-2.972 J2.545
X-271.677 Y-98.301 Z-3.649 I2.972 J-2.545
X-277.621 Y-93.212 Z-3.841 I-2.972 J2.545
X-271.677 Y-98.301 Z-4.033 I2.972 J-2.545
X-277.621 Y-93.212 Z-4.225 I-2.972 J2.545
X-271.677 Y-98.301 Z-4.417 I2.972 J-2.545
X-277.621 Y-93.212 Z-4.61 I-2.972 J2.545
X-271.677 Y-98.301 Z-4.802 I2.972 J-2.545
X-277.621 Y-93.212 Z-4.994 I-2.972 J2.545
X-271.677 Y-98.301 Z-5.186 I2.972 J-2.545
X-277.621 Y-93.212 Z-5.378 I-2.972 J2.545
X-271.677 Y-98.301 Z-5.57 I2.972 J-2.545
X-277.621 Y-93.212 Z-5.762 I-2.972 J2.545
X-271.677 Y-98.301 Z-5.954 I2.972 J-2.545
X-277.621 Y-93.212 Z-6.146 I-2.972 J2.545
X-271.677 Y-98.301 Z-6.338 I2.972 J-2.545
X-277.621 Y-93.212 Z-6.53 I-2.972 J2.545
X-271.677 Y-98.301 Z-6.722 I2.972 J-2.545
X-277.621 Y-93.212 Z-6.914 I-2.972 J2.545
X-271.677 Y-98.301 Z-7.106 I2.972 J-2.545
X-277.621 Y-93.212 Z-7.298 I-2.972 J2.545
X-271.677 Y-98.301 Z-7.491 I2.972 J-2.545
X-277.621 Y-93.212 Z-7.683 I-2.972 J2.545
X-271.677 Y-98.301 Z-7.875 I2.972 J-2.545
X-277.621 Y-93.212 Z-8.067 I-2.972 J2.545
X-271.677 Y-98.301 Z-8.259 I2.972 J-2.545
X-270.739 Y-95.887 Z-8.3 I-2.972 J2.545
X-278.559 Y-95.625 I-3.91 J0.131
X-270.739 Y-95.887 I3.91 J-0.131
X-271.045 Y-95.559 I-0.317 J0.011
G1 X-271.204 Y-95.554
X-271.274 Y-95.552 Z-8.292
X-271.342 Y-95.549 Z-8.269
X-271.402 Y-95.547 Z-8.231
X-271.452 Y-95.546 Z-8.18
X-271.49 Y-95.545 Z-8.12
X-271.513 Y-95.544 Z-8.053
X-271.521 Y-95.543 Z-7.983
Z5
X-240.263 Y-71.905
Z1.683
Z0
X-240.142 Y-71.802
X-240.122 Y-71.778
X-240.114 Y-71.747
X-240.117 Y-71.716
X-240.133 Y-71.688
G3 X-240.38 Y-71.899 Z-0.061 I-0.124 J-0.105
X-240.133 Y-71.688 Z-0.122 I0.124 J0.105
X-240.38 Y-71.899 Z-0.183 I-0.124 J-0.105
X-240.133 Y-71.688 Z-0.244 I0.124 J0.105
X-240.38 Y-71.899 Z-0.306 I-0.124 J-0.105
X-240.133 Y-71.688 Z-0.367 I0.124 J0.105
X-240.38 Y-71.899 Z-0.428 I-0.124 J-0.105
X-240.133 Y-71.688 Z-0.489 I0.124 J0.105
X-240.38 Y-71.899 Z-0.55 I-0.124 J-0.105
X-240.133 Y-71.688 Z-0.611 I0.124 J0.105
X-240.38 Y-71.899 Z-0.672 I-0.124 J-0.105
X-240.133 Y-71.688 Z-0.733 I0.124 J0.105
X-240.38 Y-71.899 Z-0.794 I-0.124 J-0.105
X-240.133 Y-71.688 Z-0.856 I0.124 J0.105
X-240.38 Y-71.899 Z-0.917 I-0.124 J-0.105
X-240.133 Y-71.688 Z-0.978 I0.124 J0.105
X-240.38 Y-71.899 Z-1.039 I-0.124 J-0.105
X-240.133 Y-71.688 Z-1.1 I0.124 J0.105
X-240.38 Y-71.899 Z-1.161 I-0.124 J-0.105
X-240.133 Y-71.688 Z-1.222 I0.124 J0.105
X-240.38 Y-71.899 Z-1.283 I-0.124 J-0.105
X-240.133 Y-71.688 Z-1.344 I0.124 J0.105
X-240.38 Y-71.899 Z-1.406 I-0.124 J-0.105
X-240.133 Y-71.688 Z-1.467 I0.124 J0.105
X-240.38 Y-71.899 Z-1.528 I-0.124 J-0.105
X-240.133 Y-71.688 Z-1.589 I0.124 J0.105
X-240.38 Y-71.899 Z-1.65 I-0.124 J-0.105
X-240.133 Y-71.688 Z-1.711 I0.124 J0.105
X-240.38 Y-71.899 Z-1.772 I-0.124 J-0.105
X-240.133 Y-71.688 Z-1.833 I0.124 J0.105
X-240.38 Y-71.899 Z-1.894 I-0.124 J-0.105
X-240.133 Y-71.688 Z-1.956 I0.124 J0.105
X-240.38 Y-71.899 Z-2.017 I-0.124 J-0.105
X-240.133 Y-71.688 Z-2.078 I0.124 J0.105
X-240.38 Y-71.899 Z-2.139 I-0.124 J-0.105
X-240.133 Y-71.688 Z-2.2 I0.124 J0.105
X-240.38 Y-71.899 Z-2.261 I-0.124 J-0.105
X-240.133 Y-71.688 Z-2.322 I0.124 J0.105
X-240.38 Y-71.899 Z-2.383 I-0.124 J-0.105
X-240.133 Y-71.688 Z-2.444 I0.124 J0.105
X-240.38 Y-71.899 Z-2.506 I-0.124 J-0.105
X-240.133 Y-71.688 Z-2.567 I0.124 J0.105
X-240.38 Y-71.899 Z-2.628 I-0.124 J-0.105
X-240.133 Y-71.688 Z-2.689 I0.124 J0.105
X-240.38 Y-71.899 Z-2.75 I-0.124 J-0.105
X-240.133 Y-71.688 Z-2.811 I0.124 J0.105
X-240.38 Y-71.899 Z-2.872 I-0.124 J-0.105
X-240.133 Y-71.688 Z-2.933 I0.124 J0.105
X-240.38 Y-71.899 Z-2.994 I-0.124 J-0.105
X-240.133 Y-71.688 Z-3.056 I0.124 J0.105
X-240.38 Y-71.899 Z-3.117 I-0.124 J-0.105
X-240.133 Y-71.688 Z-3.178 I0.124 J0.105
X-240.38 Y-71.899 Z-3.239 I-0.124 J-0.105
X-240.133 Y-71.688 Z-3.3 I0.124 J0.105
X-240.38 Y-71.899 Z-3.361 I-0.124 J-0.105
X-240.133 Y-71.688 Z-3.422 I0.124 J0.105
X-240.38 Y-71.899 Z-3.483 I-0.124 J-0.105
X-240.133 Y-71.688 Z-3.544 I0.124 J0.105
X-240.38 Y-71.899 Z-3.606 I-0.124 J-0.105
X-240.133 Y-71.688 Z-3.667 I0.124 J0.105
X-240.38 Y-71.899 Z-3.728 I-0.124 J-0.105
X-240.133 Y-71.688 Z-3.789 I0.124 J0.105
X-240.38 Y-71.899 Z-3.85 I-0.124 J-0.105
X-240.133 Y-71.688 Z-3.911 I0.124 J0.105
X-240.38 Y-71.899 Z-3.972 I-0.124 J-0.105
X-240.133 Y-71.688 Z-4.033 I0.124 J0.105
X-240.38 Y-71.899 Z-4.094 I-0.124 J-0.105
X-240.133 Y-71.688 Z-4.156 I0.124 J0.105
X-240.38 Y-71.899 Z-4.217 I-0.124 J-0.105
X-240.133 Y-71.688 Z-4.278 I0.124 J0.105
X-240.38 Y-71.899 Z-4.339 I-0.124 J-0.105
X-240.133 Y-71.688 Z-4.4 I0.124 J0.105
X-240.38 Y-71.899 Z-4.461 I-0.124 J-0.105
X-240.133 Y-71.688 Z-4.522 I0.124 J0.105
X-240.38 Y-71.899 Z-4.583 I-0.124 J-0.105
X-240.133 Y-71.688 Z-4.644 I0.124 J0.105
X-240.38 Y-71.899 Z-4.706 I-0.124 J-0.105
X-240.133 Y-71.688 Z-4.767 I0.124 J0.105
X-240.38 Y-71.899 Z-4.828 I-0.124 J-0.105
X-240.133 Y-71.688 Z-4.889 I0.124 J0.105
X-240.38 Y-71.899 Z-4.95 I-0.124 J-0.105
X-240.133 Y-71.688 Z-5.011 I0.124 J0.105
X-240.38 Y-71.899 Z-5.072 I-0.124 J-0.105
X-240.133 Y-71.688 Z-5.133 I0.124 J0.105
X-240.38 Y-71.899 Z-5.194 I-0.124 J-0.105
X-240.133 Y-71.688 Z-5.256 I0.124 J0.105
X-240.38 Y-71.899 Z-5.317 I-0.124 J-0.105
X-240.133 Y-71.688 Z-5.378 I0.124 J0.105
X-240.38 Y-71.899 Z-5.439 I-0.124 J-0.105
X-240.133 Y-71.688 Z-5.5 I0.124 J0.105
X-240.38 Y-71.899 Z-5.561 I-0.124 J-0.105
X-240.133 Y-71.688 Z-5.622 I0.124 J0.105
X-240.38 Y-71.899 Z-5.683 I-0.124 J-0.105
X-240.133 Y-71.688 Z-5.744 I0.124 J0.105
X-240.38 Y-71.899 Z-5.806 I-0.124 J-0.105
X-240.133 Y-71.688 Z-5.867 I0.124 J0.105
X-240.38 Y-71.899 Z-5.928 I-0.124 J-0.105
X-240.133 Y-71.688 Z-5.989 I0.124 J0.105
X-240.38 Y-71.899 Z-6.05 I-0.124 J-0.105
X-240.133 Y-71.688 Z-6.111 I0.124 J0.105
X-240.38 Y-71.899 Z-6.172 I-0.124 J-0.105
X-240.133 Y-71.688 Z-6.233 I0.124 J0.105
X-240.38 Y-71.899 Z-6.294 I-0.124 J-0.105
X-240.133 Y-71.688 Z-6.356 I0.124 J0.105
X-240.38 Y-71.899 Z-6.417 I-0.124 J-0.105
X-240.133 Y-71.688 Z-6.478 I0.124 J0.105
X-240.38 Y-71.899 Z-6.539 I-0.124 J-0.105
X-240.133 Y-71.688 Z-6.6 I0.124 J0.105
X-240.38 Y-71.899 Z-6.661 I-0.124 J-0.105
X-240.133 Y-71.688 Z-6.722 I0.124 J0.105
X-240.38 Y-71.899 Z-6.783 I-0.124 J-0.105
X-240.133 Y-71.688 Z-6.844 I0.124 J0.105
X-240.38 Y-71.899 Z-6.906 I-0.124 J-0.105
X-240.133 Y-71.688 Z-6.967 I0.124 J0.105
X-240.38 Y-71.899 Z-7.028 I-0.124 J-0.105
X-240.133 Y-71.688 Z-7.089 I0.124 J0.105
X-240.38 Y-71.899 Z-7.15 I-0.124 J-0.105
X-240.133 Y-71.688 Z-7.211 I0.124 J0.105
X-240.38 Y-71.899 Z-7.272 I-0.124 J-0.105
X-240.133 Y-71.688 Z-7.333 I0.124 J0.105
X-240.38 Y-71.899 Z-7.394 I-0.124 J-0.105
X-240.133 Y-71.688 Z-7.456 I0.124 J0.105
X-240.38 Y-71.899 Z-7.517 I-0.124 J-0.105
X-240.133 Y-71.688 Z-7.578 I0.124 J0.105
X-240.38 Y-71.899 Z-7.639 I-0.124 J-0.105
X-240.133 Y-71.688 Z-7.7 I0.124 J0.105
X-240.38 Y-71.899 Z-7.761 I-0.124 J-0.105
X-240.133 Y-71.688 Z-7.822 I0.124 J0.105
X-240.38 Y-71.899 Z-7.883 I-0.124 J-0.105
X-240.133 Y-71.688 Z-7.944 I0.124 J0.105
X-240.38 Y-71.899 Z-8.006 I-0.124 J-0.105
X-240.133 Y-71.688 Z-8.067 I0.124 J0.105
X-240.38 Y-71.899 Z-8.128 I-0.124 J-0.105
X-240.133 Y-71.688 Z-8.189 I0.124 J0.105
X-240.38 Y-71.899 Z-8.25 I-0.124 J-0.105
X-240.096 Y-71.772 Z-8.3 I0.124 J0.105
X-240.418 Y-71.815 I-0.161 J-0.022
X-240.096 Y-71.772 I0.161 J0.022
G1 X-240.106 Y-71.742
X-240.127 Y-71.718
X-240.155 Y-71.704
X-240.187 Y-71.702
X-240.344 Y-71.723
Z5
X-215.781 Y-70.187
Z1.683
Z0
X-215.66 Y-70.084
X-215.64 Y-70.059
X-215.632 Y-70.029
X-215.635 Y-69.997
X-215.651 Y-69.97
G3 X-215.898 Y-70.18 Z-0.061 I-0.124 J-0.105
X-215.651 Y-69.97 Z-0.122 I0.124 J0.105
X-215.898 Y-70.18 Z-0.183 I-0.124 J-0.105
X-215.651 Y-69.97 Z-0.244 I0.124 J0.105
X-215.898 Y-70.18 Z-0.306 I-0.124 J-0.105
X-215.651 Y-69.97 Z-0.367 I0.124 J0.105
X-215.898 Y-70.18 Z-0.428 I-0.124 J-0.105
X-215.651 Y-69.97 Z-0.489 I0.124 J0.105
X-215.898 Y-70.18 Z-0.55 I-0.124 J-0.105
X-215.651 Y-69.97 Z-0.611 I0.124 J0.105
X-215.898 Y-70.18 Z-0.672 I-0.124 J-0.105
X-215.651 Y-69.97 Z-0.733 I0.124 J0.105
X-215.898 Y-70.18 Z-0.794 I-0.124 J-0.105
X-215.651 Y-69.97 Z-0.856 I0.124 J0.105
X-215.898 Y-70.18 Z-0.917 I-0.124 J-0.105
X-215.651 Y-69.97 Z-0.978 I0.124 J0.105
X-215.898 Y-70.18 Z-1.039 I-0.124 J-0.105
X-215.651 Y-69.97 Z-1.1 I0.124 J0.105
X-215.898 Y-70.18 Z-1.161 I-0.124 J-0.105
X-215.651 Y-69.97 Z-1.222 I0.124 J0.105
X-215.898 Y-70.18 Z-1.283 I-0.124 J-0.105
X-215.651 Y-69.97 Z-1.344 I0.124 J0.105
X-215.898 Y-70.18 Z-1.406 I-0.124 J-0.105
X-215.651 Y-69.97 Z-1.467 I0.124 J0.105
X-215.898 Y-70.18 Z-1.528 I-0.124 J-0.105
X-215.651 Y-69.97 Z-1.589 I0.124 J0.105
X-215.898 Y-70.18 Z-1.65 I-0.124 J-0.105
X-215.651 Y-69.97 Z-1.711 I0.124 J0.105
X-215.898 Y-70.18 Z-1.772 I-0.124 J-0.105
X-215.651 Y-69.97 Z-1.833 I0.124 J0.105
X-215.898 Y-70.18 Z-1.894 I-0.124 J-0.105
X-215.651 Y-69.97 Z-1.956 I0.124 J0.105
X-215.898 Y-70.18 Z-2.017 I-0.124 J-0.105
X-215.651 Y-69.97 Z-2.078 I0.124 J0.105
X-215.898 Y-70.18 Z-2.139 I-0.124 J-0.105
X-215.651 Y-69.97 Z-2.2 I0.124 J0.105
X-215.898 Y-70.18 Z-2.261 I-0.124 J-0.105
X-215.651 Y-69.97 Z-2.322 I0.124 J0.105
X-215.898 Y-70.18 Z-2.383 I-0.124 J-0.105
X-215.651 Y-69.97 Z-2.444 I0.124 J0.105
X-215.898 Y-70.18 Z-2.506 I-0.124 J-0.105
X-215.651 Y-69.97 Z-2.567 I0.124 J0.105
X-215.898 Y-70.18 Z-2.628 I-0.124 J-0.105
X-215.651 Y-69.97 Z-2.689 I0.124 J0.105
X-215.898 Y-70.18 Z-2.75 I-0.124 J-0.105
X-215.651 Y-69.97 Z-2.811 I0.124 J0.105
X-215.898 Y-70.18 Z-2.872 I-0.124 J-0.105
X-215.651 Y-69.97 Z-2.933 I0.124 J0.105
X-215.898 Y-70.18 Z-2.994 I-0.124 J-0.105
X-215.651 Y-69.97 Z-3.056 I0.124 J0.105
X-215.898 Y-70.18 Z-3.117 I-0.124 J-0.105
X-215.651 Y-69.97 Z-3.178 I0.124 J0.105
X-215.898 Y-70.18 Z-3.239 I-0.124 J-0.105
X-215.651 Y-69.97 Z-3.3 I0.124 J0.105
X-215.898 Y-70.18 Z-3.361 I-0.124 J-0.105
X-215.651 Y-69.97 Z-3.422 I0.124 J0.105
X-215.898 Y-70.18 Z-3.483 I-0.124 J-0.105
X-215.651 Y-69.97 Z-3.544 I0.124 J0.105
X-215.898 Y-70.18 Z-3.606 I-0.124 J-0.105
X-215.651 Y-69.97 Z-3.667 I0.124 J0.105
X-215.898 Y-70.18 Z-3.728 I-0.124 J-0.105
X-215.651 Y-69.97 Z-3.789 I0.124 J0.105
X-215.898 Y-70.18 Z-3.85 I-0.124 J-0.105
X-215.651 Y-69.97 Z-3.911 I0.124 J0.105
X-215.898 Y-70.18 Z-3.972 I-0.124 J-0.105
X-215.651 Y-69.97 Z-4.033 I0.124 J0.105
X-215.898 Y-70.18 Z-4.094 I-0.124 J-0.105
X-215.651 Y-69.97 Z-4.156 I0.124 J0.105
X-215.898 Y-70.18 Z-4.217 I-0.124 J-0.105
X-215.651 Y-69.97 Z-4.278 I0.124 J0.105
X-215.898 Y-70.18 Z-4.339 I-0.124 J-0.105
X-215.651 Y-69.97 Z-4.4 I0.124 J0.105
X-215.898 Y-70.18 Z-4.461 I-0.124 J-0.105
X-215.651 Y-69.97 Z-4.522 I0.124 J0.105
X-215.898 Y-70.18 Z-4.583 I-0.124 J-0.105
X-215.651 Y-69.97 Z-4.644 I0.124 J0.105
X-215.898 Y-70.18 Z-4.706 I-0.124 J-0.105
X-215.651 Y-69.97 Z-4.767 I0.124 J0.105
X-215.898 Y-70.18 Z-4.828 I-0.124 J-0.105
X-215.651 Y-69.97 Z-4.889 I0.124 J0.105
X-215.898 Y-70.18 Z-4.95 I-0.124 J-0.105
X-215.651 Y-69.97 Z-5.011 I0.124 J0.105
X-215.898 Y-70.18 Z-5.072 I-0.124 J-0.105
X-215.651 Y-69.97 Z-5.133 I0.124 J0.105
X-215.898 Y-70.18 Z-5.194 I-0.124 J-0.105
X-215.651 Y-69.97 Z-5.256 I0.124 J0.105
X-215.898 Y-70.18 Z-5.317 I-0.124 J-0.105
X-215.651 Y-69.97 Z-5.378 I0.124 J0.105
X-215.898 Y-70.18 Z-5.439 I-0.124 J-0.105
X-215.651 Y-69.97 Z-5.5 I0.124 J0.105
X-215.898 Y-70.18 Z-5.561 I-0.124 J-0.105
X-215.651 Y-69.97 Z-5.622 I0.124 J0.105
X-215.898 Y-70.18 Z-5.683 I-0.124 J-0.105
X-215.651 Y-69.97 Z-5.744 I0.124 J0.105
X-215.898 Y-70.18 Z-5.806 I-0.124 J-0.105
X-215.651 Y-69.97 Z-5.867 I0.124 J0.105
X-215.898 Y-70.18 Z-5.928 I-0.124 J-0.105
X-215.651 Y-69.97 Z-5.989 I0.124 J0.105
X-215.898 Y-70.18 Z-6.05 I-0.124 J-0.105
X-215.651 Y-69.97 Z-6.111 I0.124 J0.105
X-215.898 Y-70.18 Z-6.172 I-0.124 J-0.105
X-215.651 Y-69.97 Z-6.233 I0.124 J0.105
X-215.898 Y-70.18 Z-6.294 I-0.124 J-0.105
X-215.651 Y-69.97 Z-6.356 I0.124 J0.105
X-215.898 Y-70.18 Z-6.417 I-0.124 J-0.105
X-215.651 Y-69.97 Z-6.478 I0.124 J0.105
X-215.898 Y-70.18 Z-6.539 I-0.124 J-0.105
X-215.651 Y-69.97 Z-6.6 I0.124 J0.105
X-215.898 Y-70.18 Z-6.661 I-0.124 J-0.105
X-215.651 Y-69.97 Z-6.722 I0.124 J0.105
X-215.898 Y-70.18 Z-6.783 I-0.124 J-0.105
X-215.651 Y-69.97 Z-6.844 I0.124 J0.105
X-215.898 Y-70.18 Z-6.906 I-0.124 J-0.105
X-215.651 Y-69.97 Z-6.967 I0.124 J0.105
X-215.898 Y-70.18 Z-7.028 I-0.124 J-0.105
X-215.651 Y-69.97 Z-7.089 I0.124 J0.105
X-215.898 Y-70.18 Z-7.15 I-0.124 J-0.105
X-215.651 Y-69.97 Z-7.211 I0.124 J0.105
X-215.898 Y-70.18 Z-7.272 I-0.124 J-0.105
X-215.651 Y-69.97 Z-7.333 I0.124 J0.105
X-215.898 Y-70.18 Z-7.394 I-0.124 J-0.105
X-215.651 Y-69.97 Z-7.456 I0.124 J0.105
X-215.898 Y-70.18 Z-7.517 I-0.124 J-0.105
X-215.651 Y-69.97 Z-7.578 I0.124 J0.105
X-215.898 Y-70.18 Z-7.639 I-0.124 J-0.105
X-215.651 Y-69.97 Z-7.7 I0.124 J0.105
X-215.898 Y-70.18 Z-7.761 I-0.124 J-0.105
X-215.651 Y-69.97 Z-7.822 I0.124 J0.105
X-215.898 Y-70.18 Z-7.883 I-0.124 J-0.105
X-215.651 Y-69.97 Z-7.944 I0.124 J0.105
X-215.898 Y-70.18 Z-8.006 I-0.124 J-0.105
X-215.651 Y-69.97 Z-8.067 I0.124 J0.105
X-215.898 Y-70.18 Z-8.128 I-0.124 J-0.105
X-215.651 Y-69.97 Z-8.189 I0.124 J0.105
X-215.898 Y-70.18 Z-8.25 I-0.124 J-0.105
X-215.614 Y-70.053 Z-8.3 I0.124 J0.105
X-215.936 Y-70.096 I-0.161 J-0.022
X-215.614 Y-70.053 I0.161 J0.022
G1 X-215.624 Y-70.023
X-215.645 Y-70
X-215.673 Y-69.986
X-215.705 Y-69.984
X-215.862 Y-70.005
Z5
X-215.724 Y-23.187
Z1.683
Z0
X-215.603 Y-23.084
X-215.583 Y-23.059
X-215.574 Y-23.029
X-215.578 Y-22.997
X-215.594 Y-22.97
G3 X-215.841 Y-23.18 Z-0.061 I-0.124 J-0.105
X-215.594 Y-22.97 Z-0.122 I0.124 J0.105
X-215.841 Y-23.18 Z-0.183 I-0.124 J-0.105
X-215.594 Y-22.97 Z-0.244 I0.124 J0.105
X-215.841 Y-23.18 Z-0.306 I-0.124 J-0.105
X-215.594 Y-22.97 Z-0.367 I0.124 J0.105
X-215.841 Y-23.18 Z-0.428 I-0.124 J-0.105
X-215.594 Y-22.97 Z-0.489 I0.124 J0.105
X-215.841 Y-23.18 Z-0.55 I-0.124 J-0.105
X-215.594 Y-22.97 Z-0.611 I0.124 J0.105
X-215.841 Y-23.18 Z-0.672 I-0.124 J-0.105
X-215.594 Y-22.97 Z-0.733 I0.124 J0.105
X-215.841 Y-23.18 Z-0.794 I-0.124 J-0.105
X-215.594 Y-22.97 Z-0.856 I0.124 J0.105
X-215.841 Y-23.18 Z-0.917 I-0.124 J-0.105
X-215.594 Y-22.97 Z-0.978 I0.124 J0.105
X-215.841 Y-23.18 Z-1.039 I-0.124 J-0.105
X-215.594 Y-22.97 Z-1.1 I0.124 J0.105
X-215.841 Y-23.18 Z-1.161 I-0.124 J-0.105
X-215.594 Y-22.97 Z-1.222 I0.124 J0.105
X-215.841 Y-23.18 Z-1.283 I-0.124 J-0.105
X-215.594 Y-22.97 Z-1.344 I0.124 J0.105
X-215.841 Y-23.18 Z-1.406 I-0.124 J-0.105
X-215.594 Y-22.97 Z-1.467 I0.124 J0.105
X-215.841 Y-23.18 Z-1.528 I-0.124 J-0.105
X-215.594 Y-22.97 Z-1.589 I0.124 J0.105
X-215.841 Y-23.18 Z-1.65 I-0.124 J-0.105
X-215.594 Y-22.97 Z-1.711 I0.124 J0.105
X-215.841 Y-23.18 Z-1.772 I-0.124 J-0.105
X-215.594 Y-22.97 Z-1.833 I0.124 J0.105
X-215.841 Y-23.18 Z-1.894 I-0.124 J-0.105
X-215.594 Y-22.97 Z-1.956 I0.124 J0.105
X-215.841 Y-23.18 Z-2.017 I-0.124 J-0.105
X-215.594 Y-22.97 Z-2.078 I0.124 J0.105
X-215.841 Y-23.18 Z-2.139 I-0.124 J-0.105
X-215.594 Y-22.97 Z-2.2 I0.124 J0.105
X-215.841 Y-23.18 Z-2.261 I-0.124 J-0.105
X-215.594 Y-22.97 Z-2.322 I0.124 J0.105
X-215.841 Y-23.18 Z-2.383 I-0.124 J-0.105
X-215.594 Y-22.97 Z-2.444 I0.124 J0.105
X-215.841 Y-23.18 Z-2.506 I-0.124 J-0.105
X-215.594 Y-22.97 Z-2.567 I0.124 J0.105
X-215.841 Y-23.18 Z-2.628 I-0.124 J-0.105
X-215.594 Y-22.97 Z-2.689 I0.124 J0.105
X-215.841 Y-23.18 Z-2.75 I-0.124 J-0.105
X-215.594 Y-22.97 Z-2.811 I0.124 J0.105
X-215.841 Y-23.18 Z-2.872 I-0.124 J-0.105
X-215.594 Y-22.97 Z-2.933 I0.124 J0.105
X-215.841 Y-23.18 Z-2.994 I-0.124 J-0.105
X-215.594 Y-22.97 Z-3.056 I0.124 J0.105
X-215.841 Y-23.18 Z-3.117 I-0.124 J-0.105
X-215.594 Y-22.97 Z-3.178 I0.124 J0.105
X-215.841 Y-23.18 Z-3.239 I-0.124 J-0.105
X-215.594 Y-22.97 Z-3.3 I0.124 J0.105
X-215.841 Y-23.18 Z-3.361 I-0.124 J-0.105
X-215.594 Y-22.97 Z-3.422 I0.124 J0.105
X-215.841 Y-23.18 Z-3.483 I-0.124 J-0.105
X-215.594 Y-22.97 Z-3.544 I0.124 J0.105
X-215.841 Y-23.18 Z-3.606 I-0.124 J-0.105
X-215.594 Y-22.97 Z-3.667 I0.124 J0.105
X-215.841 Y-23.18 Z-3.728 I-0.124 J-0.105
X-215.594 Y-22.97 Z-3.789 I0.124 J0.105
X-215.841 Y-23.18 Z-3.85 I-0.124 J-0.105
X-215.594 Y-22.97 Z-3.911 I0.124 J0.105
X-215.841 Y-23.18 Z-3.972 I-0.124 J-0.105
X-215.594 Y-22.97 Z-4.033 I0.124 J0.105
X-215.841 Y-23.18 Z-4.094 I-0.124 J-0.105
X-215.594 Y-22.97 Z-4.156 I0.124 J0.105
X-215.841 Y-23.18 Z-4.217 I-0.124 J-0.105
X-215.594 Y-22.97 Z-4.278 I0.124 J0.105
X-215.841 Y-23.18 Z-4.339 I-0.124 J-0.105
X-215.594 Y-22.97 Z-4.4 I0.124 J0.105
X-215.841 Y-23.18 Z-4.461 I-0.124 J-0.105
X-215.594 Y-22.97 Z-4.522 I0.124 J0.105
X-215.841 Y-23.18 Z-4.583 I-0.124 J-0.105
X-215.594 Y-22.97 Z-4.644 I0.124 J0.105
X-215.841 Y-23.18 Z-4.706 I-0.124 J-0.105
X-215.594 Y-22.97 Z-4.767 I0.124 J0.105
X-215.841 Y-23.18 Z-4.828 I-0.124 J-0.105
X-215.594 Y-22.97 Z-4.889 I0.124 J0.105
X-215.841 Y-23.18 Z-4.95 I-0.124 J-0.105
X-215.594 Y-22.97 Z-5.011 I0.124 J0.105
X-215.841 Y-23.18 Z-5.072 I-0.124 J-0.105
X-215.594 Y-22.97 Z-5.133 I0.124 J0.105
X-215.841 Y-23.18 Z-5.194 I-0.124 J-0.105
X-215.594 Y-22.97 Z-5.256 I0.124 J0.105
X-215.841 Y-23.18 Z-5.317 I-0.124 J-0.105
X-215.594 Y-22.97 Z-5.378 I0.124 J0.105
X-215.841 Y-23.18 Z-5.439 I-0.124 J-0.105
X-215.594 Y-22.97 Z-5.5 I0.124 J0.105
X-215.841 Y-23.18 Z-5.561 I-0.124 J-0.105
X-215.594 Y-22.97 Z-5.622 I0.124 J0.105
X-215.841 Y-23.18 Z-5.683 I-0.124 J-0.105
X-215.594 Y-22.97 Z-5.744 I0.124 J0.105
X-215.841 Y-23.18 Z-5.806 I-0.124 J-0.105
X-215.594 Y-22.97 Z-5.867 I0.124 J0.105
X-215.841 Y-23.18 Z-5.928 I-0.124 J-0.105
X-215.594 Y-22.97 Z-5.989 I0.124 J0.105
X-215.841 Y-23.18 Z-6.05 I-0.124 J-0.105
X-215.594 Y-22.97 Z-6.111 I0.124 J0.105
X-215.841 Y-23.18 Z-6.172 I-0.124 J-0.105
X-215.594 Y-22.97 Z-6.233 I0.124 J0.105
X-215.841 Y-23.18 Z-6.294 I-0.124 J-0.105
X-215.594 Y-22.97 Z-6.356 I0.124 J0.105
X-215.841 Y-23.18 Z-6.417 I-0.124 J-0.105
X-215.594 Y-22.97 Z-6.478 I0.124 J0.105
X-215.841 Y-23.18 Z-6.539 I-0.124 J-0.105
X-215.594 Y-22.97 Z-6.6 I0.124 J0.105
X-215.841 Y-23.18 Z-6.661 I-0.124 J-0.105
X-215.594 Y-22.97 Z-6.722 I0.124 J0.105
X-215.841 Y-23.18 Z-6.783 I-0.124 J-0.105
X-215.594 Y-22.97 Z-6.844 I0.124 J0.105
X-215.841 Y-23.18 Z-6.906 I-0.124 J-0.105
X-215.594 Y-22.97 Z-6.967 I0.124 J0.105
X-215.841 Y-23.18 Z-7.028 I-0.124 J-0.105
X-215.594 Y-22.97 Z-7.089 I0.124 J0.105
X-215.841 Y-23.18 Z-7.15 I-0.124 J-0.105
X-215.594 Y-22.97 Z-7.211 I0.124 J0.105
X-215.841 Y-23.18 Z-7.272 I-0.124 J-0.105
X-215.594 Y-22.97 Z-7.333 I0.124 J0.105
X-215.841 Y-23.18 Z-7.394 I-0.124 J-0.105
X-215.594 Y-22.97 Z-7.456 I0.124 J0.105
X-215.841 Y-23.18 Z-7.517 I-0.124 J-0.105
X-215.594 Y-22.97 Z-7.578 I0.124 J0.105
X-215.841 Y-23.18 Z-7.639 I-0.124 J-0.105
X-215.594 Y-22.97 Z-7.7 I0.124 J0.105
X-215.841 Y-23.18 Z-7.761 I-0.124 J-0.105
X-215.594 Y-22.97 Z-7.822 I0.124 J0.105
X-215.841 Y-23.18 Z-7.883 I-0.124 J-0.105
X-215.594 Y-22.97 Z-7.944 I0.124 J0.105
X-215.841 Y-23.18 Z-8.006 I-0.124 J-0.105
X-215.594 Y-22.97 Z-8.067 I0.124 J0.105
X-215.841 Y-23.18 Z-8.128 I-0.124 J-0.105
X-215.594 Y-22.97 Z-8.189 I0.124 J0.105
X-215.841 Y-23.18 Z-8.25 I-0.124 J-0.105
X-215.556 Y-23.053 Z-8.3 I0.124 J0.105
X-215.878 Y-23.097 I-0.161 J-0.022
X-215.556 Y-23.053 I0.161 J0.022
G1 X-215.566 Y-23.023
X-215.587 Y-23
X-215.616 Y-22.986
X-215.647 Y-22.984
X-215.805 Y-23.005
Z5
X-240.206 Y-24.905
Z1.683
Z0
X-240.085 Y-24.802
X-240.065 Y-24.778
X-240.056 Y-24.747
X-240.06 Y-24.716
X-240.076 Y-24.688
G3 X-240.323 Y-24.899 Z-0.061 I-0.124 J-0.105
X-240.076 Y-24.688 Z-0.122 I0.124 J0.105
X-240.323 Y-24.899 Z-0.183 I-0.124 J-0.105
X-240.076 Y-24.688 Z-0.244 I0.124 J0.105
X-240.323 Y-24.899 Z-0.306 I-0.124 J-0.105
X-240.076 Y-24.688 Z-0.367 I0.124 J0.105
X-240.323 Y-24.899 Z-0.428 I-0.124 J-0.105
X-240.076 Y-24.688 Z-0.489 I0.124 J0.105
X-240.323 Y-24.899 Z-0.55 I-0.124 J-0.105
X-240.076 Y-24.688 Z-0.611 I0.124 J0.105
X-240.323 Y-24.899 Z-0.672 I-0.124 J-0.105
X-240.076 Y-24.688 Z-0.733 I0.124 J0.105
X-240.323 Y-24.899 Z-0.794 I-0.124 J-0.105
X-240.076 Y-24.688 Z-0.856 I0.124 J0.105
X-240.323 Y-24.899 Z-0.917 I-0.124 J-0.105
X-240.076 Y-24.688 Z-0.978 I0.124 J0.105
X-240.323 Y-24.899 Z-1.039 I-0.124 J-0.105
X-240.076 Y-24.688 Z-1.1 I0.124 J0.105
X-240.323 Y-24.899 Z-1.161 I-0.124 J-0.105
X-240.076 Y-24.688 Z-1.222 I0.124 J0.105
X-240.323 Y-24.899 Z-1.283 I-0.124 J-0.105
X-240.076 Y-24.688 Z-1.344 I0.124 J0.105
X-240.323 Y-24.899 Z-1.406 I-0.124 J-0.105
X-240.076 Y-24.688 Z-1.467 I0.124 J0.105
X-240.323 Y-24.899 Z-1.528 I-0.124 J-0.105
X-240.076 Y-24.688 Z-1.589 I0.124 J0.105
X-240.323 Y-24.899 Z-1.65 I-0.124 J-0.105
X-240.076 Y-24.688 Z-1.711 I0.124 J0.105
X-240.323 Y-24.899 Z-1.772 I-0.124 J-0.105
X-240.076 Y-24.688 Z-1.833 I0.124 J0.105
X-240.323 Y-24.899 Z-1.894 I-0.124 J-0.105
X-240.076 Y-24.688 Z-1.956 I0.124 J0.105
X-240.323 Y-24.899 Z-2.017 I-0.124 J-0.105
X-240.076 Y-24.688 Z-2.078 I0.124 J0.105
X-240.323 Y-24.899 Z-2.139 I-0.124 J-0.105
X-240.076 Y-24.688 Z-2.2 I0.124 J0.105
X-240.323 Y-24.899 Z-2.261 I-0.124 J-0.105
X-240.076 Y-24.688 Z-2.322 I0.124 J0.105
X-240.323 Y-24.899 Z-2.383 I-0.124 J-0.105
X-240.076 Y-24.688 Z-2.444 I0.124 J0.105
X-240.323 Y-24.899 Z-2.506 I-0.124 J-0.105
X-240.076 Y-24.688 Z-2.567 I0.124 J0.105
X-240.323 Y-24.899 Z-2.628 I-0.124 J-0.105
X-240.076 Y-24.688 Z-2.689 I0.124 J0.105
X-240.323 Y-24.899 Z-2.75 I-0.124 J-0.105
X-240.076 Y-24.688 Z-2.811 I0.124 J0.105
X-240.323 Y-24.899 Z-2.872 I-0.124 J-0.105
X-240.076 Y-24.688 Z-2.933 I0.124 J0.105
X-240.323 Y-24.899 Z-2.994 I-0.124 J-0.105
X-240.076 Y-24.688 Z-3.056 I0.124 J0.105
X-240.323 Y-24.899 Z-3.117 I-0.124 J-0.105
X-240.076 Y-24.688 Z-3.178 I0.124 J0.105
X-240.323 Y-24.899 Z-3.239 I-0.124 J-0.105
X-240.076 Y-24.688 Z-3.3 I0.124 J0.105
X-240.323 Y-24.899 Z-3.361 I-0.124 J-0.105
X-240.076 Y-24.688 Z-3.422 I0.124 J0.105
X-240.323 Y-24.899 Z-3.483 I-0.124 J-0.105
X-240.076 Y-24.688 Z-3.544 I0.124 J0.105
X-240.323 Y-24.899 Z-3.606 I-0.124 J-0.105
X-240.076 Y-24.688 Z-3.667 I0.124 J0.105
X-240.323 Y-24.899 Z-3.728 I-0.124 J-0.105
X-240.076 Y-24.688 Z-3.789 I0.124 J0.105
X-240.323 Y-24.899 Z-3.85 I-0.124 J-0.105
X-240.076 Y-24.688 Z-3.911 I0.124 J0.105
X-240.323 Y-24.899 Z-3.972 I-0.124 J-0.105
X-240.076 Y-24.688 Z-4.033 I0.124 J0.105
X-240.323 Y-24.899 Z-4.094 I-0.124 J-0.105
X-240.076 Y-24.688 Z-4.156 I0.124 J0.105
X-240.323 Y-24.899 Z-4.217 I-0.124 J-0.105
X-240.076 Y-24.688 Z-4.278 I0.124 J0.105
X-240.323 Y-24.899 Z-4.339 I-0.124 J-0.105
X-240.076 Y-24.688 Z-4.4 I0.124 J0.105
X-240.323 Y-24.899 Z-4.461 I-0.124 J-0.105
X-240.076 Y-24.688 Z-4.522 I0.124 J0.105
X-240.323 Y-24.899 Z-4.583 I-0.124 J-0.105
X-240.076 Y-24.688 Z-4.644 I0.124 J0.105
X-240.323 Y-24.899 Z-4.706 I-0.124 J-0.105
X-240.076 Y-24.688 Z-4.767 I0.124 J0.105
X-240.323 Y-24.899 Z-4.828 I-0.124 J-0.105
X-240.076 Y-24.688 Z-4.889 I0.124 J0.105
X-240.323 Y-24.899 Z-4.95 I-0.124 J-0.105
X-240.076 Y-24.688 Z-5.011 I0.124 J0.105
X-240.323 Y-24.899 Z-5.072 I-0.124 J-0.105
X-240.076 Y-24.688 Z-5.133 I0.124 J0.105
X-240.323 Y-24.899 Z-5.194 I-0.124 J-0.105
X-240.076 Y-24.688 Z-5.256 I0.124 J0.105
X-240.323 Y-24.899 Z-5.317 I-0.124 J-0.105
X-240.076 Y-24.688 Z-5.378 I0.124 J0.105
X-240.323 Y-24.899 Z-5.439 I-0.124 J-0.105
X-240.076 Y-24.688 Z-5.5 I0.124 J0.105
X-240.323 Y-24.899 Z-5.561 I-0.124 J-0.105
X-240.076 Y-24.688 Z-5.622 I0.124 J0.105
X-240.323 Y-24.899 Z-5.683 I-0.124 J-0.105
X-240.076 Y-24.688 Z-5.744 I0.124 J0.105
X-240.323 Y-24.899 Z-5.806 I-0.124 J-0.105
X-240.076 Y-24.688 Z-5.867 I0.124 J0.105
X-240.323 Y-24.899 Z-5.928 I-0.124 J-0.105
X-240.076 Y-24.688 Z-5.989 I0.124 J0.105
X-240.323 Y-24.899 Z-6.05 I-0.124 J-0.105
X-240.076 Y-24.688 Z-6.111 I0.124 J0.105
X-240.323 Y-24.899 Z-6.172 I-0.124 J-0.105
X-240.076 Y-24.688 Z-6.233 I0.124 J0.105
X-240.323 Y-24.899 Z-6.294 I-0.124 J-0.105
X-240.076 Y-24.688 Z-6.356 I0.124 J0.105
X-240.323 Y-24.899 Z-6.417 I-0.124 J-0.105
X-240.076 Y-24.688 Z-6.478 I0.124 J0.105
X-240.323 Y-24.899 Z-6.539 I-0.124 J-0.105
X-240.076 Y-24.688 Z-6.6 I0.124 J0.105
X-240.323 Y-24.899 Z-6.661 I-0.124 J-0.105
X-240.076 Y-24.688 Z-6.722 I0.124 J0.105
X-240.323 Y-24.899 Z-6.783 I-0.124 J-0.105
X-240.076 Y-24.688 Z-6.844 I0.124 J0.105
X-240.323 Y-24.899 Z-6.906 I-0.124 J-0.105
X-240.076 Y-24.688 Z-6.967 I0.124 J0.105
X-240.323 Y-24.899 Z-7.028 I-0.124 J-0.105
X-240.076 Y-24.688 Z-7.089 I0.124 J0.105
X-240.323 Y-24.899 Z-7.15 I-0.124 J-0.105
X-240.076 Y-24.688 Z-7.211 I0.124 J0.105
X-240.323 Y-24.899 Z-7.272 I-0.124 J-0.105
X-240.076 Y-24.688 Z-7.333 I0.124 J0.105
X-240.323 Y-24.899 Z-7.394 I-0.124 J-0.105
X-240.076 Y-24.688 Z-7.456 I0.124 J0.105
X-240.323 Y-24.899 Z-7.517 I-0.124 J-0.105
X-240.076 Y-24.688 Z-7.578 I0.124 J0.105
X-240.323 Y-24.899 Z-7.639 I-0.124 J-0.105
X-240.076 Y-24.688 Z-7.7 I0.124 J0.105
X-240.323 Y-24.899 Z-7.761 I-0.124 J-0.105
X-240.076 Y-24.688 Z-7.822 I0.124 J0.105
X-240.323 Y-24.899 Z-7.883 I-0.124 J-0.105
X-240.076 Y-24.688 Z-7.944 I0.124 J0.105
X-240.323 Y-24.899 Z-8.006 I-0.124 J-0.105
X-240.076 Y-24.688 Z-8.067 I0.124 J0.105
X-240.323 Y-24.899 Z-8.128 I-0.124 J-0.105
X-240.076 Y-24.688 Z-8.189 I0.124 J0.105
X-240.323 Y-24.899 Z-8.25 I-0.124 J-0.105
X-240.038 Y-24.772 Z-8.3 I0.124 J0.105
X-240.36 Y-24.815 I-0.161 J-0.022
X-240.038 Y-24.772 I0.161 J0.022
G1 X-240.048 Y-24.742
X-240.069 Y-24.718
X-240.098 Y-24.704
X-240.129 Y-24.702
X-240.287 Y-24.723
Z5
X-276.75 Y-43.487
Z2
Z0.317
X-276.756 Y-43.482 Z0.247
X-276.774 Y-43.466 Z0.18
X-276.803 Y-43.442 Z0.12
X-276.841 Y-43.409 Z0.069
X-276.887 Y-43.37 Z0.031
X-276.938 Y-43.326 Z0.008
X-276.992 Y-43.28 Z0
X-277.112 Y-43.177
G3 X-277.56 Y-43.212 I-0.207 J-0.241
X-271.616 Y-48.301 Z-0.192 I2.972 J-2.545
X-277.56 Y-43.212 Z-0.384 I-2.972 J2.545
X-271.616 Y-48.301 Z-0.576 I2.972 J-2.545
X-277.56 Y-43.212 Z-0.768 I-2.972 J2.545
X-271.616 Y-48.301 Z-0.96 I2.972 J-2.545
X-277.56 Y-43.212 Z-1.152 I-2.972 J2.545
X-271.616 Y-48.301 Z-1.344 I2.972 J-2.545
X-277.56 Y-43.212 Z-1.537 I-2.972 J2.545
X-271.616 Y-48.301 Z-1.729 I2.972 J-2.545
X-277.56 Y-43.212 Z-1.921 I-2.972 J2.545
X-271.616 Y-48.301 Z-2.113 I2.972 J-2.545
X-277.56 Y-43.212 Z-2.305 I-2.972 J2.545
X-271.616 Y-48.301 Z-2.497 I2.972 J-2.545
X-277.56 Y-43.212 Z-2.689 I-2.972 J2.545
X-271.616 Y-48.301 Z-2.881 I2.972 J-2.545
X-277.56 Y-43.212 Z-3.073 I-2.972 J2.545
X-271.616 Y-48.301 Z-3.265 I2.972 J-2.545
X-277.56 Y-43.212 Z-3.457 I-2.972 J2.545
X-271.616 Y-48.301 Z-3.649 I2.972 J-2.545
X-277.56 Y-43.212 Z-3.841 I-2.972 J2.545
X-271.616 Y-48.301 Z-4.033 I2.972 J-2.545
X-277.56 Y-43.212 Z-4.225 I-2.972 J2.545
X-271.616 Y-48.301 Z-4.417 I2.972 J-2.545
X-277.56 Y-43.212 Z-4.61 I-2.972 J2.545
X-271.616 Y-48.301 Z-4.802 I2.972 J-2.545
X-277.56 Y-43.212 Z-4.994 I-2.972 J2.545
X-271.616 Y-48.301 Z-5.186 I2.972 J-2.545
X-277.56 Y-43.212 Z-5.378 I-2.972 J2.545
X-271.616 Y-48.301 Z-5.57 I2.972 J-2.545
X-277.56 Y-43.212 Z-5.762 I-2.972 J2.545
X-271.616 Y-48.301 Z-5.954 I2.972 J-2.545
X-277.56 Y-43.212 Z-6.146 I-2.972 J2.545
X-271.616 Y-48.301 Z-6.338 I2.972 J-2.545
X-277.56 Y-43.212 Z-6.53 I-2.972 J2.545
X-271.616 Y-48.301 Z-6.722 I2.972 J-2.545
X-277.56 Y-43.212 Z-6.914 I-2.972 J2.545
X-271.616 Y-48.301 Z-7.106 I2.972 J-2.545
X-277.56 Y-43.212 Z-7.298 I-2.972 J2.545
X-271.616 Y-48.301 Z-7.491 I2.972 J-2.545
X-277.56 Y-43.212 Z-7.683 I-2.972 J2.545
X-271.616 Y-48.301 Z-7.875 I2.972 J-2.545
X-277.56 Y-43.212 Z-8.067 I-2.972 J2.545
X-271.616 Y-48.301 Z-8.259 I2.972 J-2.545
X-270.678 Y-45.887 Z-8.3 I-2.972 J2.545
X-278.498 Y-45.625 I-3.91 J0.131
X-270.678 Y-45.887 I3.91 J-0.131
X-270.984 Y-45.559 I-0.317 J0.011
G1 X-271.143 Y-45.554
X-271.213 Y-45.552 Z-8.292
X-271.281 Y-45.55 Z-8.269
X-271.341 Y-45.548 Z-8.231
X-271.391 Y-45.546 Z-8.18
X-271.429 Y-45.545 Z-8.12
X-271.452 Y-45.544 Z-8.053
X-271.46 Z-7.983
Z15
(When using Fusion 360 for Personal Use, the feedrate of)
(rapid moves is reduced to match the feedrate of cutting)
(moves, which can increase machining time. Unrestricted rapid)
(moves are available with a Fusion 360 Subscription.)

(2D-Kontur1)
G0 X-29.519 Y-77.231
G1 Z15 F1000
Z5
Z1 F333.3
X-31.086 Y-78.799 Z0.942
G3 X-31.086 Y-79.029 Z0.935 I0.115 J-0.115
X-30.856 Y-79.029 Z0.929 I0.115 J0.115
G1 X-28.381 Y-76.554 Z0.837
G3 X-28.381 Y-76.324 Z0.83 I-0.115 J0.115
X-28.611 Y-76.324 Z0.824 I-0.115 J-0.115
G1 X-31.086 Y-78.799 Z0.732
G3 X-31.086 Y-79.029 Z0.725 I0.115 J-0.115
X-30.856 Y-79.029 Z0.719 I0.115 J0.115
G1 X-28.381 Y-76.554 Z0.627
G3 X-28.381 Y-76.324 Z0.62 I-0.115 J0.115
X-28.611 Y-76.324 Z0.614 I-0.115 J-0.115
G1 X-31.086 Y-78.799 Z0.522
G3 X-31.086 Y-79.029 Z0.515 I0.115 J-0.115
X-30.856 Y-79.029 Z0.508 I0.115 J0.115
G1 X-28.381 Y-76.554 Z0.417
G3 X-28.381 Y-76.324 Z0.41 I-0.115 J0.115
X-28.611 Y-76.324 Z0.403 I-0.115 J-0.115
G1 X-31.086 Y-78.799 Z0.312
G3 X-31.086 Y-79.029 Z0.305 I0.115 J-0.115
X-30.856 Y-79.029 Z0.298 I0.115 J0.115
G1 X-28.381 Y-76.554 Z0.207
G3 X-28.381 Y-76.324 Z0.2 I-0.115 J0.115
X-28.611 Y-76.324 Z0.193 I-0.115 J-0.115
G1 X-31.086 Y-78.799 Z0.102
G3 X-31.086 Y-79.029 Z0.095 I0.115 J-0.115
X-30.856 Y-79.029 Z0.088 I0.115 J0.115
G1 X-28.381 Y-76.554 Z-0.003
G3 X-28.381 Y-76.324 Z-0.01 I-0.115 J0.115
X-28.611 Y-76.324 Z-0.017 I-0.115 J-0.115
G1 X-31.086 Y-78.799 Z-0.108
G3 X-31.086 Y-79.029 Z-0.115 I0.115 J-0.115
X-30.856 Y-79.029 Z-0.122 I0.115 J0.115
G1 X-28.381 Y-76.554 Z-0.213
G3 X-28.381 Y-76.324 Z-0.22 I-0.115 J0.115
X-28.611 Y-76.324 Z-0.227 I-0.115 J-0.115
G1 X-31.086 Y-78.799 Z-0.318
G3 X-31.086 Y-79.029 Z-0.325 I0.115 J-0.115
X-30.856 Y-79.029 Z-0.332 I0.115 J0.115
G1 X-28.381 Y-76.554 Z-0.423
G3 X-28.381 Y-76.324 Z-0.43 I-0.115 J0.115
X-28.611 Y-76.324 Z-0.437 I-0.115 J-0.115
G1 X-31.086 Y-78.799 Z-0.528
G3 X-31.086 Y-79.029 Z-0.535 I0.115 J-0.115
X-30.856 Y-79.029 Z-0.542 I0.115 J0.115
G1 X-28.381 Y-76.554 Z-0.633
G3 X-28.381 Y-76.324 Z-0.64 I-0.115 J0.115
X-28.611 Y-76.324 Z-0.647 I-0.115 J-0.115
G1 X-31.086 Y-78.799 Z-0.738
G3 X-31.086 Y-79.029 Z-0.745 I0.115 J-0.115
X-30.856 Y-79.029 Z-0.752 I0.115 J0.115
G1 X-28.381 Y-76.554 Z-0.843
G3 X-28.381 Y-76.324 Z-0.85 I-0.115 J0.115
X-28.611 Y-76.324 Z-0.857 I-0.115 J-0.115
G1 X-31.086 Y-78.799 Z-0.948
G3 X-31.086 Y-79.029 Z-0.955 I0.115 J-0.115
X-30.856 Y-79.029 Z-0.962 I0.115 J0.115
G1 X-28.381 Y-76.554 Z-1.053
G3 X-28.381 Y-76.324 Z-1.06 I-0.115 J0.115
X-28.611 Y-76.324 Z-1.067 I-0.115 J-0.115
G1 X-31.086 Y-78.799 Z-1.158
G3 X-31.086 Y-79.029 Z-1.165 I0.115 J-0.115
X-30.856 Y-79.029 Z-1.172 I0.115 J0.115
G1 X-28.381 Y-76.554 Z-1.264
G3 X-28.381 Y-76.324 Z-1.27 I-0.115 J0.115
X-28.611 Y-76.324 Z-1.277 I-0.115 J-0.115
G1 X-31.086 Y-78.799 Z-1.369
G3 X-31.086 Y-79.029 Z-1.375 I0.115 J-0.115
X-30.856 Y-79.029 Z-1.382 I0.115 J0.115
G1 X-28.381 Y-76.554 Z-1.474
G3 X-28.381 Y-76.324 Z-1.48 I-0.115 J0.115
X-28.611 Y-76.324 Z-1.487 I-0.115 J-0.115
G1 X-31.086 Y-78.799 Z-1.579
G3 X-31.086 Y-79.029 Z-1.585 I0.115 J-0.115
X-30.856 Y-79.029 Z-1.592 I0.115 J0.115
G1 X-28.381 Y-76.554 Z-1.684
G3 X-28.381 Y-76.324 Z-1.69 I-0.115 J0.115
X-28.611 Y-76.324 Z-1.697 I-0.115 J-0.115
G1 X-31.086 Y-78.799 Z-1.789
G3 X-31.086 Y-79.029 Z-1.795 I0.115 J-0.115
X-30.856 Y-79.029 Z-1.802 I0.115 J0.115
G1 X-28.381 Y-76.554 Z-1.894
G3 X-28.381 Y-76.324 Z-1.9 I-0.115 J0.115
X-28.611 Y-76.324 Z-1.907 I-0.115 J-0.115
G1 X-31.086 Y-78.799 Z-1.999
G3 X-31.086 Y-79.029 Z-2.005 I0.115 J-0.115
X-30.856 Y-79.029 Z-2.012 I0.115 J0.115
G1 X-28.381 Y-76.554 Z-2.104
G3 X-28.381 Y-76.324 Z-2.11 I-0.115 J0.115
X-28.611 Y-76.324 Z-2.117 I-0.115 J-0.115
G1 X-31.086 Y-78.799 Z-2.209
G3 X-31.086 Y-79.029 Z-2.215 I0.115 J-0.115
X-30.856 Y-79.029 Z-2.222 I0.115 J0.115
G1 X-28.381 Y-76.554 Z-2.314
G3 X-28.381 Y-76.324 Z-2.32 I-0.115 J0.115
X-28.611 Y-76.324 Z-2.327 I-0.115 J-0.115
G1 X-31.086 Y-78.799 Z-2.419
G3 X-31.086 Y-79.029 Z-2.425 I0.115 J-0.115
X-30.856 Y-79.029 Z-2.432 I0.115 J0.115
G1 X-28.381 Y-76.554 Z-2.524
G3 X-28.381 Y-76.324 Z-2.53 I-0.115 J0.115
X-28.611 Y-76.324 Z-2.537 I-0.115 J-0.115
G1 X-31.086 Y-78.799 Z-2.629
G3 X-31.086 Y-79.029 Z-2.635 I0.115 J-0.115
X-30.856 Y-79.029 Z-2.642 I0.115 J0.115
G1 X-28.381 Y-76.554 Z-2.734
G3 X-28.381 Y-76.324 Z-2.741 I-0.115 J0.115
X-28.611 Y-76.324 Z-2.747 I-0.115 J-0.115
G1 X-31.086 Y-78.799 Z-2.839
G3 X-31.086 Y-79.029 Z-2.846 I0.115 J-0.115
X-30.856 Y-79.029 Z-2.852 I0.115 J0.115
G1 X-28.381 Y-76.554 Z-2.944
G3 X-28.381 Y-76.324 Z-2.951 I-0.115 J0.115
X-28.611 Y-76.324 Z-2.957 I-0.115 J-0.115
G1 X-31.086 Y-78.799 Z-3.049
G3 X-31.086 Y-79.029 Z-3.056 I0.115 J-0.115
X-30.856 Y-79.029 Z-3.062 I0.115 J0.115
G1 X-28.381 Y-76.554 Z-3.154
G3 X-28.381 Y-76.324 Z-3.161 I-0.115 J0.115
X-28.611 Y-76.324 Z-3.167 I-0.115 J-0.115
G1 X-31.086 Y-78.799 Z-3.259
G3 X-31.086 Y-79.029 Z-3.266 I0.115 J-0.115
X-30.856 Y-79.029 Z-3.272 I0.115 J0.115
G1 X-28.381 Y-76.554 Z-3.364
G3 X-28.381 Y-76.324 Z-3.371 I-0.115 J0.115
X-28.611 Y-76.324 Z-3.377 I-0.115 J-0.115
G1 X-31.086 Y-78.799 Z-3.469
G3 X-31.086 Y-79.029 Z-3.476 I0.115 J-0.115
X-30.856 Y-79.029 Z-3.482 I0.115 J0.115
G1 X-28.381 Y-76.554 Z-3.574
G3 X-28.381 Y-76.324 Z-3.581 I-0.115 J0.115
X-28.611 Y-76.324 Z-3.587 I-0.115 J-0.115
G1 X-31.086 Y-78.799 Z-3.679
G3 X-31.086 Y-79.029 Z-3.686 I0.115 J-0.115
X-30.856 Y-79.029 Z-3.692 I0.115 J0.115
G1 X-28.381 Y-76.554 Z-3.784
G3 X-28.381 Y-76.324 Z-3.791 I-0.115 J0.115
X-28.611 Y-76.324 Z-3.797 I-0.115 J-0.115
G1 X-31.086 Y-78.799 Z-3.889
G3 X-31.086 Y-79.029 Z-3.896 I0.115 J-0.115
X-30.856 Y-79.029 Z-3.902 I0.115 J0.115
G1 X-28.381 Y-76.554 Z-3.994
G3 X-28.381 Y-76.324 Z-4.001 I-0.115 J0.115
X-28.611 Y-76.324 Z-4.007 I-0.115 J-0.115
G1 X-31.086 Y-78.799 Z-4.099
G3 X-31.086 Y-79.029 Z-4.106 I0.115 J-0.115
X-30.856 Y-79.029 Z-4.112 I0.115 J0.115
G1 X-28.381 Y-76.554 Z-4.204
G3 X-28.381 Y-76.324 Z-4.211 I-0.115 J0.115
X-28.611 Y-76.324 Z-4.218 I-0.115 J-0.115
G1 X-31.086 Y-78.799 Z-4.309
G3 X-31.086 Y-79.029 Z-4.316 I0.115 J-0.115
X-30.856 Y-79.029 Z-4.323 I0.115 J0.115
G1 X-28.381 Y-76.554 Z-4.414
G3 X-28.381 Y-76.324 Z-4.421 I-0.115 J0.115
X-28.611 Y-76.324 Z-4.428 I-0.115 J-0.115
G1 X-31.086 Y-78.799 Z-4.519
G3 X-31.086 Y-79.029 Z-4.526 I0.115 J-0.115
X-30.856 Y-79.029 Z-4.533 I0.115 J0.115
G1 X-28.381 Y-76.554 Z-4.624
G3 X-28.381 Y-76.324 Z-4.631 I-0.115 J0.115
X-28.611 Y-76.324 Z-4.638 I-0.115 J-0.115
G1 X-31.086 Y-78.799 Z-4.729
G3 X-31.086 Y-79.029 Z-4.736 I0.115 J-0.115
X-30.856 Y-79.029 Z-4.743 I0.115 J0.115
G1 X-28.381 Y-76.554 Z-4.834
G3 X-28.381 Y-76.324 Z-4.841 I-0.115 J0.115
X-28.611 Y-76.324 Z-4.848 I-0.115 J-0.115
G1 X-31.086 Y-78.799 Z-4.939
G3 X-31.086 Y-79.029 Z-4.946 I0.115 J-0.115
X-30.856 Y-79.029 Z-4.953 I0.115 J0.115
G1 X-28.381 Y-76.554 Z-5.044
G3 X-28.381 Y-76.324 Z-5.051 I-0.115 J0.115
X-28.611 Y-76.324 Z-5.058 I-0.115 J-0.115
G1 X-31.086 Y-78.799 Z-5.149
G3 X-31.086 Y-79.029 Z-5.156 I0.115 J-0.115
X-30.856 Y-79.029 Z-5.163 I0.115 J0.115
G1 X-28.381 Y-76.554 Z-5.254
G3 X-28.381 Y-76.324 Z-5.261 I-0.115 J0.115
X-28.611 Y-76.324 Z-5.268 I-0.115 J-0.115
G1 X-31.086 Y-78.799 Z-5.359
G3 X-31.086 Y-79.029 Z-5.366 I0.115 J-0.115
X-30.856 Y-79.029 Z-5.373 I0.115 J0.115
G1 X-28.381 Y-76.554 Z-5.464
G3 X-28.381 Y-76.324 Z-5.471 I-0.115 J0.115
X-28.611 Y-76.324 Z-5.478 I-0.115 J-0.115
G1 X-31.086 Y-78.799 Z-5.569
G3 X-31.086 Y-79.029 Z-5.576 I0.115 J-0.115
X-30.856 Y-79.029 Z-5.583 I0.115 J0.115
G1 X-28.381 Y-76.554 Z-5.674
G3 X-28.381 Y-76.324 Z-5.681 I-0.115 J0.115
X-28.611 Y-76.324 Z-5.688 I-0.115 J-0.115
G1 X-31.086 Y-78.799 Z-5.779
G3 X-31.086 Y-79.029 Z-5.786 I0.115 J-0.115
X-30.856 Y-79.029 Z-5.793 I0.115 J0.115
G1 X-28.381 Y-76.554 Z-5.884
G3 X-28.381 Y-76.324 Z-5.891 I-0.115 J0.115
X-28.611 Y-76.324 Z-5.898 I-0.115 J-0.115
G1 X-31.086 Y-78.799 Z-5.99
G3 X-31.086 Y-79.029 Z-5.996 I0.115 J-0.115
X-30.856 Y-79.029 Z-6.003 I0.115 J0.115
G1 X-28.381 Y-76.554 Z-6.095
G3 X-28.381 Y-76.324 Z-6.101 I-0.115 J0.115
X-28.611 Y-76.324 Z-6.108 I-0.115 J-0.115
G1 X-31.086 Y-78.799 Z-6.2
G3 X-31.086 Y-79.029 Z-6.206 I0.115 J-0.115
X-30.856 Y-79.029 Z-6.213 I0.115 J0.115
G1 X-28.381 Y-76.554 Z-6.305
G3 X-28.381 Y-76.324 Z-6.311 I-0.115 J0.115
X-28.611 Y-76.324 Z-6.318 I-0.115 J-0.115
G1 X-31.086 Y-78.799 Z-6.41
G3 X-31.086 Y-79.029 Z-6.416 I0.115 J-0.115
X-30.856 Y-79.029 Z-6.423 I0.115 J0.115
G1 X-28.381 Y-76.554 Z-6.515
G3 X-28.381 Y-76.324 Z-6.521 I-0.115 J0.115
X-28.611 Y-76.324 Z-6.528 I-0.115 J-0.115
G1 X-31.086 Y-78.799 Z-6.62
G3 X-31.086 Y-79.029 Z-6.626 I0.115 J-0.115
X-30.856 Y-79.029 Z-6.633 I0.115 J0.115
G1 X-28.381 Y-76.554 Z-6.725
G3 X-28.381 Y-76.324 Z-6.731 I-0.115 J0.115
X-28.611 Y-76.324 Z-6.738 I-0.115 J-0.115
G1 X-31.086 Y-78.799 Z-6.83
G3 X-31.086 Y-79.029 Z-6.836 I0.115 J-0.115
X-30.856 Y-79.029 Z-6.843 I0.115 J0.115
G1 X-28.381 Y-76.554 Z-6.935
G3 X-28.381 Y-76.324 Z-6.941 I-0.115 J0.115
X-28.611 Y-76.324 Z-6.948 I-0.115 J-0.115
G1 X-31.086 Y-78.799 Z-7.04
G3 X-31.086 Y-79.029 Z-7.046 I0.115 J-0.115
X-30.856 Y-79.029 Z-7.053 I0.115 J0.115
G1 X-28.381 Y-76.554 Z-7.145
G3 X-28.381 Y-76.324 Z-7.151 I-0.115 J0.115
X-28.611 Y-76.324 Z-7.158 I-0.115 J-0.115
G1 X-31.086 Y-78.799 Z-7.25
G3 X-31.086 Y-79.029 Z-7.256 I0.115 J-0.115
X-30.856 Y-79.029 Z-7.263 I0.115 J0.115
G1 X-28.381 Y-76.554 Z-7.355
G3 X-28.381 Y-76.324 Z-7.361 I-0.115 J0.115
X-28.611 Y-76.324 Z-7.368 I-0.115 J-0.115
G1 X-31.086 Y-78.799 Z-7.46
G3 X-31.086 Y-79.029 Z-7.467 I0.115 J-0.115
X-30.856 Y-79.029 Z-7.473 I0.115 J0.115
G1 X-28.381 Y-76.554 Z-7.565
G3 X-28.381 Y-76.324 Z-7.572 I-0.115 J0.115
X-28.611 Y-76.324 Z-7.578 I-0.115 J-0.115
G1 X-31.086 Y-78.799 Z-7.67
G3 X-31.086 Y-79.029 Z-7.677 I0.115 J-0.115
X-30.856 Y-79.029 Z-7.683 I0.115 J0.115
G1 X-28.381 Y-76.554 Z-7.775
G3 X-28.381 Y-76.324 Z-7.782 I-0.115 J0.115
X-28.611 Y-76.324 Z-7.788 I-0.115 J-0.115
G1 X-31.086 Y-78.799 Z-7.88
G3 X-31.086 Y-79.029 Z-7.887 I0.115 J-0.115
X-30.856 Y-79.029 Z-7.893 I0.115 J0.115
G1 X-28.381 Y-76.554 Z-7.985
G3 X-28.381 Y-76.324 Z-7.992 I-0.115 J0.115
X-28.611 Y-76.324 Z-7.998 I-0.115 J-0.115
G1 X-31.086 Y-78.799 Z-8.09
G3 X-31.086 Y-79.029 Z-8.097 I0.115 J-0.115
X-30.856 Y-79.029 Z-8.103 I0.115 J0.115
G1 X-28.381 Y-76.554 Z-8.195
G3 X-28.381 Y-76.324 Z-8.202 I-0.115 J0.115
X-28.611 Y-76.324 Z-8.208 I-0.115 J-0.115
G1 X-31.086 Y-78.799 Z-8.3
G3 X-31.086 Y-79.029 I0.115 J-0.115 F1000
X-30.856 Y-79.029 I0.115 J0.115
G1 X-28.381 Y-76.554
G3 X-28.381 Y-76.324 I-0.115 J0.115
X-28.611 Y-76.324 I-0.115 J-0.115
G1 X-31.086 Y-78.799
Z5
X-29.282 Y-62.695
Z1 F333.3
X-30.856 Y-61.121 Z0.942
G3 X-31.086 Y-61.121 Z0.935 I-0.115 J-0.115
X-31.086 Y-61.351 Z0.928 I0.115 J-0.115
G1 X-28.611 Y-63.826 Z0.837
G3 X-28.381 Y-63.596 Z0.823 I0.115 J0.115
G1 X-30.856 Y-61.121 Z0.732
G3 X-31.086 Y-61.121 Z0.725 I-0.115 J-0.115
X-31.086 Y-61.351 Z0.718 I0.115 J-0.115
G1 X-28.611 Y-63.826 Z0.627
G3 X-28.381 Y-63.596 Z0.613 I0.115 J0.115
G1 X-30.856 Y-61.121 Z0.522
G3 X-31.086 Y-61.121 Z0.515 I-0.115 J-0.115
X-31.086 Y-61.351 Z0.508 I0.115 J-0.115
G1 X-28.611 Y-63.826 Z0.417
G3 X-28.381 Y-63.596 Z0.403 I0.115 J0.115
G1 X-30.856 Y-61.121 Z0.312
G3 X-31.086 Y-61.121 Z0.305 I-0.115 J-0.115
X-31.086 Y-61.351 Z0.298 I0.115 J-0.115
G1 X-28.611 Y-63.826 Z0.207
G3 X-28.381 Y-63.596 Z0.193 I0.115 J0.115
G1 X-30.856 Y-61.121 Z0.102
G3 X-31.086 Y-61.121 Z0.095 I-0.115 J-0.115
X-31.086 Y-61.351 Z0.088 I0.115 J-0.115
G1 X-28.611 Y-63.826 Z-0.003
G3 X-28.381 Y-63.596 Z-0.017 I0.115 J0.115
G1 X-30.856 Y-61.121 Z-0.108
G3 X-31.086 Y-61.121 Z-0.115 I-0.115 J-0.115
X-31.086 Y-61.351 Z-0.122 I0.115 J-0.115
G1 X-28.611 Y-63.826 Z-0.213
G3 X-28.381 Y-63.596 Z-0.227 I0.115 J0.115
G1 X-30.856 Y-61.121 Z-0.319
G3 X-31.086 Y-61.121 Z-0.325 I-0.115 J-0.115
X-31.086 Y-61.351 Z-0.332 I0.115 J-0.115
G1 X-28.611 Y-63.826 Z-0.424
G3 X-28.381 Y-63.596 Z-0.437 I0.115 J0.115
G1 X-30.856 Y-61.121 Z-0.529
G3 X-31.086 Y-61.121 Z-0.535 I-0.115 J-0.115
X-31.086 Y-61.351 Z-0.542 I0.115 J-0.115
G1 X-28.611 Y-63.826 Z-0.634
G3 X-28.381 Y-63.596 Z-0.647 I0.115 J0.115
G1 X-30.856 Y-61.121 Z-0.739
G3 X-31.086 Y-61.121 Z-0.745 I-0.115 J-0.115
X-31.086 Y-61.351 Z-0.752 I0.115 J-0.115
G1 X-28.611 Y-63.826 Z-0.844
G3 X-28.381 Y-63.596 Z-0.857 I0.115 J0.115
G1 X-30.856 Y-61.121 Z-0.949
G3 X-31.086 Y-61.121 Z-0.955 I-0.115 J-0.115
X-31.086 Y-61.351 Z-0.962 I0.115 J-0.115
G1 X-28.611 Y-63.826 Z-1.054
G3 X-28.381 Y-63.596 Z-1.067 I0.115 J0.115
G1 X-30.856 Y-61.121 Z-1.159
G3 X-31.086 Y-61.121 Z-1.165 I-0.115 J-0.115
X-31.086 Y-61.351 Z-1.172 I0.115 J-0.115
G1 X-28.611 Y-63.826 Z-1.264
G3 X-28.381 Y-63.596 Z-1.277 I0.115 J0.115
G1 X-30.856 Y-61.121 Z-1.369
G3 X-31.086 Y-61.121 Z-1.375 I-0.115 J-0.115
X-31.086 Y-61.351 Z-1.382 I0.115 J-0.115
G1 X-28.611 Y-63.826 Z-1.474
G3 X-28.381 Y-63.596 Z-1.487 I0.115 J0.115
G1 X-30.856 Y-61.121 Z-1.579
G3 X-31.086 Y-61.121 Z-1.585 I-0.115 J-0.115
X-31.086 Y-61.351 Z-1.592 I0.115 J-0.115
G1 X-28.611 Y-63.826 Z-1.684
G3 X-28.381 Y-63.596 Z-1.697 I0.115 J0.115
G1 X-30.856 Y-61.121 Z-1.789
G3 X-31.086 Y-61.121 Z-1.795 I-0.115 J-0.115
X-31.086 Y-61.351 Z-1.802 I0.115 J-0.115
G1 X-28.611 Y-63.826 Z-1.894
G3 X-28.381 Y-63.596 Z-1.907 I0.115 J0.115
G1 X-30.856 Y-61.121 Z-1.999
G3 X-31.086 Y-61.121 Z-2.006 I-0.115 J-0.115
X-31.086 Y-61.351 Z-2.012 I0.115 J-0.115
G1 X-28.611 Y-63.826 Z-2.104
G3 X-28.381 Y-63.596 Z-2.117 I0.115 J0.115
G1 X-30.856 Y-61.121 Z-2.209
G3 X-31.086 Y-61.121 Z-2.216 I-0.115 J-0.115
X-31.086 Y-61.351 Z-2.222 I0.115 J-0.115
G1 X-28.611 Y-63.826 Z-2.314
G3 X-28.381 Y-63.596 Z-2.327 I0.115 J0.115
G1 X-30.856 Y-61.121 Z-2.419
G3 X-31.086 Y-61.121 Z-2.426 I-0.115 J-0.115
X-31.086 Y-61.351 Z-2.432 I0.115 J-0.115
G1 X-28.611 Y-63.826 Z-2.524
G3 X-28.381 Y-63.596 Z-2.537 I0.115 J0.115
G1 X-30.856 Y-61.121 Z-2.629
G3 X-31.086 Y-61.121 Z-2.636 I-0.115 J-0.115
X-31.086 Y-61.351 Z-2.642 I0.115 J-0.115
G1 X-28.611 Y-63.826 Z-2.734
G3 X-28.381 Y-63.596 Z-2.747 I0.115 J0.115
G1 X-30.856 Y-61.121 Z-2.839
G3 X-31.086 Y-61.121 Z-2.846 I-0.115 J-0.115
X-31.086 Y-61.351 Z-2.852 I0.115 J-0.115
G1 X-28.611 Y-63.826 Z-2.944
G3 X-28.381 Y-63.596 Z-2.957 I0.115 J0.115
G1 X-30.856 Y-61.121 Z-3.049
G3 X-31.086 Y-61.121 Z-3.056 I-0.115 J-0.115
X-31.086 Y-61.351 Z-3.062 I0.115 J-0.115
G1 X-28.611 Y-63.826 Z-3.154
G3 X-28.381 Y-63.596 Z-3.167 I0.115 J0.115
G1 X-30.856 Y-61.121 Z-3.259
G3 X-31.086 Y-61.121 Z-3.266 I-0.115 J-0.115
X-31.086 Y-61.351 Z-3.272 I0.115 J-0.115
G1 X-28.611 Y-63.826 Z-3.364
G3 X-28.381 Y-63.596 Z-3.377 I0.115 J0.115
G1 X-30.856 Y-61.121 Z-3.469
G3 X-31.086 Y-61.121 Z-3.476 I-0.115 J-0.115
X-31.086 Y-61.351 Z-3.482 I0.115 J-0.115
G1 X-28.611 Y-63.826 Z-3.574
G3 X-28.381 Y-63.596 Z-3.587 I0.115 J0.115
G1 X-30.856 Y-61.121 Z-3.679
G3 X-31.086 Y-61.121 Z-3.686 I-0.115 J-0.115
X-31.086 Y-61.351 Z-3.693 I0.115 J-0.115
G1 X-28.611 Y-63.826 Z-3.784
G3 X-28.381 Y-63.596 Z-3.798 I0.115 J0.115
G1 X-30.856 Y-61.121 Z-3.889
G3 X-31.086 Y-61.121 Z-3.896 I-0.115 J-0.115
X-31.086 Y-61.351 Z-3.903 I0.115 J-0.115
G1 X-28.611 Y-63.826 Z-3.994
G3 X-28.381 Y-63.596 Z-4.008 I0.115 J0.115
G1 X-30.856 Y-61.121 Z-4.099
G3 X-31.086 Y-61.121 Z-4.106 I-0.115 J-0.115
X-31.086 Y-61.351 Z-4.113 I0.115 J-0.115
G1 X-28.611 Y-63.826 Z-4.204
G3 X-28.381 Y-63.596 Z-4.218 I0.115 J0.115
G1 X-30.856 Y-61.121 Z-4.309
G3 X-31.086 Y-61.121 Z-4.316 I-0.115 J-0.115
X-31.086 Y-61.351 Z-4.323 I0.115 J-0.115
G1 X-28.611 Y-63.826 Z-4.414
G3 X-28.381 Y-63.596 Z-4.428 I0.115 J0.115
G1 X-30.856 Y-61.121 Z-4.519
G3 X-31.086 Y-61.121 Z-4.526 I-0.115 J-0.115
X-31.086 Y-61.351 Z-4.533 I0.115 J-0.115
G1 X-28.611 Y-63.826 Z-4.624
G3 X-28.381 Y-63.596 Z-4.638 I0.115 J0.115
G1 X-30.856 Y-61.121 Z-4.729
G3 X-31.086 Y-61.121 Z-4.736 I-0.115 J-0.115
X-31.086 Y-61.351 Z-4.743 I0.115 J-0.115
G1 X-28.611 Y-63.826 Z-4.834
G3 X-28.381 Y-63.596 Z-4.848 I0.115 J0.115
G1 X-30.856 Y-61.121 Z-4.939
G3 X-31.086 Y-61.121 Z-4.946 I-0.115 J-0.115
X-31.086 Y-61.351 Z-4.953 I0.115 J-0.115
G1 X-28.611 Y-63.826 Z-5.044
G3 X-28.381 Y-63.596 Z-5.058 I0.115 J0.115
G1 X-30.856 Y-61.121 Z-5.149
G3 X-31.086 Y-61.121 Z-5.156 I-0.115 J-0.115
X-31.086 Y-61.351 Z-5.163 I0.115 J-0.115
G1 X-28.611 Y-63.826 Z-5.254
G3 X-28.381 Y-63.596 Z-5.268 I0.115 J0.115
G1 X-30.856 Y-61.121 Z-5.359
G3 X-31.086 Y-61.121 Z-5.366 I-0.115 J-0.115
X-31.086 Y-61.351 Z-5.373 I0.115 J-0.115
G1 X-28.611 Y-63.826 Z-5.464
G3 X-28.381 Y-63.596 Z-5.478 I0.115 J0.115
G1 X-30.856 Y-61.121 Z-5.569
G3 X-31.086 Y-61.121 Z-5.576 I-0.115 J-0.115
X-31.086 Y-61.351 Z-5.583 I0.115 J-0.115
G1 X-28.611 Y-63.826 Z-5.675
G3 X-28.381 Y-63.596 Z-5.688 I0.115 J0.115
G1 X-30.856 Y-61.121 Z-5.78
G3 X-31.086 Y-61.121 Z-5.786 I-0.115 J-0.115
X-31.086 Y-61.351 Z-5.793 I0.115 J-0.115
G1 X-28.611 Y-63.826 Z-5.885
G3 X-28.381 Y-63.596 Z-5.898 I0.115 J0.115
G1 X-30.856 Y-61.121 Z-5.99
G3 X-31.086 Y-61.121 Z-5.996 I-0.115 J-0.115
X-31.086 Y-61.351 Z-6.003 I0.115 J-0.115
G1 X-28.611 Y-63.826 Z-6.095
G3 X-28.381 Y-63.596 Z-6.108 I0.115 J0.115
G1 X-30.856 Y-61.121 Z-6.2
G3 X-31.086 Y-61.121 Z-6.206 I-0.115 J-0.115
X-31.086 Y-61.351 Z-6.213 I0.115 J-0.115
G1 X-28.611 Y-63.826 Z-6.305
G3 X-28.381 Y-63.596 Z-6.318 I0.115 J0.115
G1 X-30.856 Y-61.121 Z-6.41
G3 X-31.086 Y-61.121 Z-6.416 I-0.115 J-0.115
X-31.086 Y-61.351 Z-6.423 I0.115 J-0.115
G1 X-28.611 Y-63.826 Z-6.515
G3 X-28.381 Y-63.596 Z-6.528 I0.115 J0.115
G1 X-30.856 Y-61.121 Z-6.62
G3 X-31.086 Y-61.121 Z-6.626 I-0.115 J-0.115
X-31.086 Y-61.351 Z-6.633 I0.115 J-0.115
G1 X-28.611 Y-63.826 Z-6.725
G3 X-28.381 Y-63.596 Z-6.738 I0.115 J0.115
G1 X-30.856 Y-61.121 Z-6.83
G3 X-31.086 Y-61.121 Z-6.836 I-0.115 J-0.115
X-31.086 Y-61.351 Z-6.843 I0.115 J-0.115
G1 X-28.611 Y-63.826 Z-6.935
G3 X-28.381 Y-63.596 Z-6.948 I0.115 J0.115
G1 X-30.856 Y-61.121 Z-7.04
G3 X-31.086 Y-61.121 Z-7.046 I-0.115 J-0.115
X-31.086 Y-61.351 Z-7.053 I0.115 J-0.115
G1 X-28.611 Y-63.826 Z-7.145
G3 X-28.381 Y-63.596 Z-7.158 I0.115 J0.115
G1 X-30.856 Y-61.121 Z-7.25
G3 X-31.086 Y-61.121 Z-7.256 I-0.115 J-0.115
X-31.086 Y-61.351 Z-7.263 I0.115 J-0.115
G1 X-28.611 Y-63.826 Z-7.355
G3 X-28.381 Y-63.596 Z-7.368 I0.115 J0.115
G1 X-30.856 Y-61.121 Z-7.46
G3 X-31.086 Y-61.121 Z-7.467 I-0.115 J-0.115
X-31.086 Y-61.351 Z-7.473 I0.115 J-0.115
G1 X-28.611 Y-63.826 Z-7.565
G3 X-28.381 Y-63.596 Z-7.578 I0.115 J0.115
G1 X-30.856 Y-61.121 Z-7.67
G3 X-31.086 Y-61.121 Z-7.677 I-0.115 J-0.115
X-31.086 Y-61.351 Z-7.683 I0.115 J-0.115
G1 X-28.611 Y-63.826 Z-7.775
G3 X-28.381 Y-63.596 Z-7.788 I0.115 J0.115
G1 X-30.856 Y-61.121 Z-7.88
G3 X-31.086 Y-61.121 Z-7.887 I-0.115 J-0.115
X-31.086 Y-61.351 Z-7.893 I0.115 J-0.115
G1 X-28.611 Y-63.826 Z-7.985
G3 X-28.381 Y-63.596 Z-7.998 I0.115 J0.115
G1 X-30.856 Y-61.121 Z-8.09
G3 X-31.086 Y-61.121 Z-8.097 I-0.115 J-0.115
X-31.086 Y-61.351 Z-8.103 I0.115 J-0.115
G1 X-28.611 Y-63.826 Z-8.195
G3 X-28.381 Y-63.596 Z-8.208 I0.115 J0.115
G1 X-30.856 Y-61.121 Z-8.3
G3 X-31.086 Y-61.121 I-0.115 J-0.115 F1000
X-31.086 Y-61.351 I0.115 J-0.115
G1 X-28.611 Y-63.826
G3 X-28.381 Y-63.596 I0.115 J0.115
G1 X-30.856 Y-61.121
Z5
X-14.307 Y-62.02
Z1 F333.3
X-15.883 Y-63.596 Z0.942
G3 X-15.883 Y-63.826 Z0.935 I0.115 J-0.115
X-15.653 Y-63.826 Z0.928 I0.115 J0.115
G1 X-13.179 Y-61.351 Z0.837
G3 X-13.408 Y-61.121 Z0.823 I-0.115 J0.115
G1 X-15.883 Y-63.596 Z0.732
G3 X-15.883 Y-63.826 Z0.725 I0.115 J-0.115
X-15.653 Y-63.826 Z0.718 I0.115 J0.115
G1 X-13.179 Y-61.351 Z0.627
G3 X-13.408 Y-61.121 Z0.613 I-0.115 J0.115
G1 X-15.883 Y-63.596 Z0.522
G3 X-15.883 Y-63.826 Z0.515 I0.115 J-0.115
X-15.653 Y-63.826 Z0.508 I0.115 J0.115
G1 X-13.179 Y-61.351 Z0.417
G3 X-13.408 Y-61.121 Z0.403 I-0.115 J0.115
G1 X-15.883 Y-63.596 Z0.312
G3 X-15.883 Y-63.826 Z0.305 I0.115 J-0.115
X-15.653 Y-63.826 Z0.298 I0.115 J0.115
G1 X-13.179 Y-61.351 Z0.206
G3 X-13.408 Y-61.121 Z0.193 I-0.115 J0.115
G1 X-15.883 Y-63.596 Z0.101
G3 X-15.883 Y-63.826 Z0.095 I0.115 J-0.115
X-15.653 Y-63.826 Z0.088 I0.115 J0.115
G1 X-13.179 Y-61.351 Z-0.004
G3 X-13.408 Y-61.121 Z-0.017 I-0.115 J0.115
G1 X-15.883 Y-63.596 Z-0.109
G3 X-15.883 Y-63.826 Z-0.115 I0.115 J-0.115
X-15.653 Y-63.826 Z-0.122 I0.115 J0.115
G1 X-13.179 Y-61.351 Z-0.214
G3 X-13.408 Y-61.121 Z-0.227 I-0.115 J0.115
G1 X-15.883 Y-63.596 Z-0.319
G3 X-15.883 Y-63.826 Z-0.325 I0.115 J-0.115
X-15.653 Y-63.826 Z-0.332 I0.115 J0.115
G1 X-13.179 Y-61.351 Z-0.424
G3 X-13.408 Y-61.121 Z-0.437 I-0.115 J0.115
G1 X-15.883 Y-63.596 Z-0.529
G3 X-15.883 Y-63.826 Z-0.535 I0.115 J-0.115
X-15.653 Y-63.826 Z-0.542 I0.115 J0.115
G1 X-13.179 Y-61.351 Z-0.634
G3 X-13.408 Y-61.121 Z-0.647 I-0.115 J0.115
G1 X-15.883 Y-63.596 Z-0.739
G3 X-15.883 Y-63.826 Z-0.745 I0.115 J-0.115
X-15.653 Y-63.826 Z-0.752 I0.115 J0.115
G1 X-13.179 Y-61.351 Z-0.844
G3 X-13.408 Y-61.121 Z-0.857 I-0.115 J0.115
G1 X-15.883 Y-63.596 Z-0.949
G3 X-15.883 Y-63.826 Z-0.955 I0.115 J-0.115
X-15.653 Y-63.826 Z-0.962 I0.115 J0.115
G1 X-13.179 Y-61.351 Z-1.054
G3 X-13.408 Y-61.121 Z-1.067 I-0.115 J0.115
G1 X-15.883 Y-63.596 Z-1.159
G3 X-15.883 Y-63.826 Z-1.165 I0.115 J-0.115
X-15.653 Y-63.826 Z-1.172 I0.115 J0.115
G1 X-13.179 Y-61.351 Z-1.264
G3 X-13.408 Y-61.121 Z-1.277 I-0.115 J0.115
G1 X-15.883 Y-63.596 Z-1.369
G3 X-15.883 Y-63.826 Z-1.375 I0.115 J-0.115
X-15.653 Y-63.826 Z-1.382 I0.115 J0.115
G1 X-13.179 Y-61.351 Z-1.474
G3 X-13.408 Y-61.121 Z-1.487 I-0.115 J0.115
G1 X-15.883 Y-63.596 Z-1.579
G3 X-15.883 Y-63.826 Z-1.586 I0.115 J-0.115
X-15.653 Y-63.826 Z-1.592 I0.115 J0.115
G1 X-13.179 Y-61.351 Z-1.684
G3 X-13.408 Y-61.121 Z-1.697 I-0.115 J0.115
G1 X-15.883 Y-63.596 Z-1.789
G3 X-15.883 Y-63.826 Z-1.796 I0.115 J-0.115
X-15.653 Y-63.826 Z-1.802 I0.115 J0.115
G1 X-13.179 Y-61.351 Z-1.894
G3 X-13.408 Y-61.121 Z-1.907 I-0.115 J0.115
G1 X-15.883 Y-63.596 Z-1.999
G3 X-15.883 Y-63.826 Z-2.006 I0.115 J-0.115
X-15.653 Y-63.826 Z-2.012 I0.115 J0.115
G1 X-13.179 Y-61.351 Z-2.104
G3 X-13.408 Y-61.121 Z-2.117 I-0.115 J0.115
G1 X-15.883 Y-63.596 Z-2.209
G3 X-15.883 Y-63.826 Z-2.216 I0.115 J-0.115
X-15.653 Y-63.826 Z-2.222 I0.115 J0.115
G1 X-13.179 Y-61.351 Z-2.314
G3 X-13.408 Y-61.121 Z-2.327 I-0.115 J0.115
G1 X-15.883 Y-63.596 Z-2.419
G3 X-15.883 Y-63.826 Z-2.426 I0.115 J-0.115
X-15.653 Y-63.826 Z-2.432 I0.115 J0.115
G1 X-13.179 Y-61.351 Z-2.524
G3 X-13.408 Y-61.121 Z-2.537 I-0.115 J0.115
G1 X-15.883 Y-63.596 Z-2.629
G3 X-15.883 Y-63.826 Z-2.636 I0.115 J-0.115
X-15.653 Y-63.826 Z-2.642 I0.115 J0.115
G1 X-13.179 Y-61.351 Z-2.734
G3 X-13.408 Y-61.121 Z-2.747 I-0.115 J0.115
G1 X-15.883 Y-63.596 Z-2.839
G3 X-15.883 Y-63.826 Z-2.846 I0.115 J-0.115
X-15.653 Y-63.826 Z-2.852 I0.115 J0.115
G1 X-13.179 Y-61.351 Z-2.944
G3 X-13.408 Y-61.121 Z-2.957 I-0.115 J0.115
G1 X-15.883 Y-63.596 Z-3.049
G3 X-15.883 Y-63.826 Z-3.056 I0.115 J-0.115
X-15.653 Y-63.826 Z-3.062 I0.115 J0.115
G1 X-13.179 Y-61.351 Z-3.154
G3 X-13.408 Y-61.121 Z-3.167 I-0.115 J0.115
G1 X-15.883 Y-63.596 Z-3.259
G3 X-15.883 Y-63.826 Z-3.266 I0.115 J-0.115
X-15.653 Y-63.826 Z-3.272 I0.115 J0.115
G1 X-13.179 Y-61.351 Z-3.364
G3 X-13.408 Y-61.121 Z-3.378 I-0.115 J0.115
G1 X-15.883 Y-63.596 Z-3.469
G3 X-15.883 Y-63.826 Z-3.476 I0.115 J-0.115
X-15.653 Y-63.826 Z-3.483 I0.115 J0.115
G1 X-13.179 Y-61.351 Z-3.574
G3 X-13.408 Y-61.121 Z-3.588 I-0.115 J0.115
G1 X-15.883 Y-63.596 Z-3.679
G3 X-15.883 Y-63.826 Z-3.686 I0.115 J-0.115
X-15.653 Y-63.826 Z-3.693 I0.115 J0.115
G1 X-13.179 Y-61.351 Z-3.784
G3 X-13.408 Y-61.121 Z-3.798 I-0.115 J0.115
G1 X-15.883 Y-63.596 Z-3.889
G3 X-15.883 Y-63.826 Z-3.896 I0.115 J-0.115
X-15.653 Y-63.826 Z-3.903 I0.115 J0.115
G1 X-13.179 Y-61.351 Z-3.994
G3 X-13.408 Y-61.121 Z-4.008 I-0.115 J0.115
G1 X-15.883 Y-63.596 Z-4.099
G3 X-15.883 Y-63.826 Z-4.106 I0.115 J-0.115
X-15.653 Y-63.826 Z-4.113 I0.115 J0.115
G1 X-13.179 Y-61.351 Z-4.204
G3 X-13.408 Y-61.121 Z-4.218 I-0.115 J0.115
G1 X-15.883 Y-63.596 Z-4.309
G3 X-15.883 Y-63.826 Z-4.316 I0.115 J-0.115
X-15.653 Y-63.826 Z-4.323 I0.115 J0.115
G1 X-13.179 Y-61.351 Z-4.414
G3 X-13.408 Y-61.121 Z-4.428 I-0.115 J0.115
G1 X-15.883 Y-63.596 Z-4.519
G3 X-15.883 Y-63.826 Z-4.526 I0.115 J-0.115
X-15.653 Y-63.826 Z-4.533 I0.115 J0.115
G1 X-13.179 Y-61.351 Z-4.624
G3 X-13.408 Y-61.121 Z-4.638 I-0.115 J0.115
G1 X-15.883 Y-63.596 Z-4.729
G3 X-15.883 Y-63.826 Z-4.736 I0.115 J-0.115
X-15.653 Y-63.826 Z-4.743 I0.115 J0.115
G1 X-13.179 Y-61.351 Z-4.834
G3 X-13.408 Y-61.121 Z-4.848 I-0.115 J0.115
G1 X-15.883 Y-63.596 Z-4.939
G3 X-15.883 Y-63.826 Z-4.946 I0.115 J-0.115
X-15.653 Y-63.826 Z-4.953 I0.115 J0.115
G1 X-13.179 Y-61.351 Z-5.044
G3 X-13.408 Y-61.121 Z-5.058 I-0.115 J0.115
G1 X-15.883 Y-63.596 Z-5.149
G3 X-15.883 Y-63.826 Z-5.156 I0.115 J-0.115
X-15.653 Y-63.826 Z-5.163 I0.115 J0.115
G1 X-13.179 Y-61.351 Z-5.254
G3 X-13.408 Y-61.121 Z-5.268 I-0.115 J0.115
G1 X-15.883 Y-63.596 Z-5.359
G3 X-15.883 Y-63.826 Z-5.366 I0.115 J-0.115
X-15.653 Y-63.826 Z-5.373 I0.115 J0.115
G1 X-13.179 Y-61.351 Z-5.465
G3 X-13.408 Y-61.121 Z-5.478 I-0.115 J0.115
G1 X-15.883 Y-63.596 Z-5.57
G3 X-15.883 Y-63.826 Z-5.576 I0.115 J-0.115
X-15.653 Y-63.826 Z-5.583 I0.115 J0.115
G1 X-13.179 Y-61.351 Z-5.675
G3 X-13.408 Y-61.121 Z-5.688 I-0.115 J0.115
G1 X-15.883 Y-63.596 Z-5.78
G3 X-15.883 Y-63.826 Z-5.786 I0.115 J-0.115
X-15.653 Y-63.826 Z-5.793 I0.115 J0.115
G1 X-13.179 Y-61.351 Z-5.885
G3 X-13.408 Y-61.121 Z-5.898 I-0.115 J0.115
G1 X-15.883 Y-63.596 Z-5.99
G3 X-15.883 Y-63.826 Z-5.996 I0.115 J-0.115
X-15.653 Y-63.826 Z-6.003 I0.115 J0.115
G1 X-13.179 Y-61.351 Z-6.095
G3 X-13.408 Y-61.121 Z-6.108 I-0.115 J0.115
G1 X-15.883 Y-63.596 Z-6.2
G3 X-15.883 Y-63.826 Z-6.206 I0.115 J-0.115
X-15.653 Y-63.826 Z-6.213 I0.115 J0.115
G1 X-13.179 Y-61.351 Z-6.305
G3 X-13.408 Y-61.121 Z-6.318 I-0.115 J0.115
G1 X-15.883 Y-63.596 Z-6.41
G3 X-15.883 Y-63.826 Z-6.416 I0.115 J-0.115
X-15.653 Y-63.826 Z-6.423 I0.115 J0.115
G1 X-13.179 Y-61.351 Z-6.515
G3 X-13.408 Y-61.121 Z-6.528 I-0.115 J0.115
G1 X-15.883 Y-63.596 Z-6.62
G3 X-15.883 Y-63.826 Z-6.626 I0.115 J-0.115
X-15.653 Y-63.826 Z-6.633 I0.115 J0.115
G1 X-13.179 Y-61.351 Z-6.725
G3 X-13.408 Y-61.121 Z-6.738 I-0.115 J0.115
G1 X-15.883 Y-63.596 Z-6.83
G3 X-15.883 Y-63.826 Z-6.836 I0.115 J-0.115
X-15.653 Y-63.826 Z-6.843 I0.115 J0.115
G1 X-13.179 Y-61.351 Z-6.935
G3 X-13.408 Y-61.121 Z-6.948 I-0.115 J0.115
G1 X-15.883 Y-63.596 Z-7.04
G3 X-15.883 Y-63.826 Z-7.046 I0.115 J-0.115
X-15.653 Y-63.826 Z-7.053 I0.115 J0.115
G1 X-13.179 Y-61.351 Z-7.145
G3 X-13.408 Y-61.121 Z-7.158 I-0.115 J0.115
G1 X-15.883 Y-63.596 Z-7.25
G3 X-15.883 Y-63.826 Z-7.257 I0.115 J-0.115
X-15.653 Y-63.826 Z-7.263 I0.115 J0.115
G1 X-13.179 Y-61.351 Z-7.355
G3 X-13.408 Y-61.121 Z-7.368 I-0.115 J0.115
G1 X-15.883 Y-63.596 Z-7.46
G3 X-15.883 Y-63.826 Z-7.467 I0.115 J-0.115
X-15.653 Y-63.826 Z-7.473 I0.115 J0.115
G1 X-13.179 Y-61.351 Z-7.565
G3 X-13.408 Y-61.121 Z-7.578 I-0.115 J0.115
G1 X-15.883 Y-63.596 Z-7.67
G3 X-15.883 Y-63.826 Z-7.677 I0.115 J-0.115
X-15.653 Y-63.826 Z-7.683 I0.115 J0.115
G1 X-13.179 Y-61.351 Z-7.775
G3 X-13.408 Y-61.121 Z-7.788 I-0.115 J0.115
G1 X-15.883 Y-63.596 Z-7.88
G3 X-15.883 Y-63.826 Z-7.887 I0.115 J-0.115
X-15.653 Y-63.826 Z-7.893 I0.115 J0.115
G1 X-13.179 Y-61.351 Z-7.985
G3 X-13.408 Y-61.121 Z-7.998 I-0.115 J0.115
G1 X-15.883 Y-63.596 Z-8.09
G3 X-15.883 Y-63.826 Z-8.097 I0.115 J-0.115
X-15.653 Y-63.826 Z-8.103 I0.115 J0.115
G1 X-13.179 Y-61.351 Z-8.195
G3 X-13.408 Y-61.121 Z-8.208 I-0.115 J0.115
G1 X-15.883 Y-63.596 Z-8.3
G3 X-15.883 Y-63.826 I0.115 J-0.115 F1000
X-15.653 Y-63.826 I0.115 J0.115
G1 X-13.179 Y-61.351
G3 X-13.408 Y-61.121 I-0.115 J0.115
G1 X-15.883 Y-63.596
Z5
X-14.08 Y-77.898
Z1 F333.3
X-15.653 Y-76.324 Z0.942
G3 X-15.883 Y-76.324 Z0.935 I-0.115 J-0.115
X-15.883 Y-76.554 Z0.928 I0.115 J-0.115
G1 X-13.408 Y-79.029 Z0.837
G3 X-13.179 Y-78.799 Z0.823 I0.115 J0.115
G1 X-15.653 Y-76.324 Z0.732
G3 X-15.883 Y-76.324 Z0.725 I-0.115 J-0.115
X-15.883 Y-76.554 Z0.718 I0.115 J-0.115
G1 X-13.408 Y-79.029 Z0.627
G3 X-13.179 Y-78.799 Z0.613 I0.115 J0.115
G1 X-15.653 Y-76.324 Z0.522
G3 X-15.883 Y-76.324 Z0.515 I-0.115 J-0.115
X-15.883 Y-76.554 Z0.508 I0.115 J-0.115
G1 X-13.408 Y-79.029 Z0.417
G3 X-13.179 Y-78.799 Z0.403 I0.115 J0.115
G1 X-15.653 Y-76.324 Z0.312
G3 X-15.883 Y-76.324 Z0.305 I-0.115 J-0.115
X-15.883 Y-76.554 Z0.298 I0.115 J-0.115
G1 X-13.408 Y-79.029 Z0.207
G3 X-13.179 Y-78.799 Z0.193 I0.115 J0.115
G1 X-15.653 Y-76.324 Z0.102
G3 X-15.883 Y-76.324 Z0.095 I-0.115 J-0.115
X-15.883 Y-76.554 Z0.088 I0.115 J-0.115
G1 X-13.408 Y-79.029 Z-0.003
G3 X-13.179 Y-78.799 Z-0.017 I0.115 J0.115
G1 X-15.653 Y-76.324 Z-0.108
G3 X-15.883 Y-76.324 Z-0.115 I-0.115 J-0.115
X-15.883 Y-76.554 Z-0.122 I0.115 J-0.115
G1 X-13.408 Y-79.029 Z-0.213
G3 X-13.179 Y-78.799 Z-0.227 I0.115 J0.115
G1 X-15.653 Y-76.324 Z-0.319
G3 X-15.883 Y-76.324 Z-0.325 I-0.115 J-0.115
X-15.883 Y-76.554 Z-0.332 I0.115 J-0.115
