(arme)
(Bearbeiten)
(  Hersteller: ChinaCnc)
(  model: 3040T)
(  description: Generic 3-axis)
(T5 D=3.175 CR=0 - ZMIN=-8.3 - Schaftfrser)
G90 G94
G17
G21
(-Attention- Property Safe Retracts is set to Clearance Height.)
(Ensure the clearance height will clear the part and or fixtures.)
(Raise the Z-axis to a safe height before starting the program.)
(When using Fusion for Personal Use, the feedrate of rapid)
(moves is reduced to match the feedrate of cutting moves,)
(which can increase machining time. Unrestricted rapid moves)
(are available with a Fusion Subscription.)

(Bohrfrsen3)
M0
(MANUAL TOOL CHANGE TO T5)
S6000 M3
G17 G90 G94
G54
G0 X-16.267 Y-127.606
Z15
G1 Z1.683 F1000
Z0
X-16.148 Y-127.501
X-16.129 Y-127.475
X-16.121 Y-127.445
X-16.125 Y-127.413
X-16.141 Y-127.386
G3 X-16.384 Y-127.602 Z-0.061 I-0.121 J-0.108
X-16.141 Y-127.386 Z-0.122 I0.121 J0.108
X-16.384 Y-127.602 Z-0.183 I-0.121 J-0.108
X-16.141 Y-127.386 Z-0.244 I0.121 J0.108
X-16.384 Y-127.602 Z-0.306 I-0.121 J-0.108
X-16.141 Y-127.386 Z-0.367 I0.121 J0.108
X-16.384 Y-127.602 Z-0.428 I-0.121 J-0.108
X-16.141 Y-127.386 Z-0.489 I0.121 J0.108
X-16.384 Y-127.602 Z-0.55 I-0.121 J-0.108
X-16.141 Y-127.386 Z-0.611 I0.121 J0.108
X-16.384 Y-127.602 Z-0.672 I-0.121 J-0.108
X-16.141 Y-127.386 Z-0.733 I0.121 J0.108
X-16.384 Y-127.602 Z-0.794 I-0.121 J-0.108
X-16.141 Y-127.386 Z-0.856 I0.121 J0.108
X-16.384 Y-127.602 Z-0.917 I-0.121 J-0.108
X-16.141 Y-127.386 Z-0.978 I0.121 J0.108
X-16.384 Y-127.602 Z-1.039 I-0.121 J-0.108
X-16.141 Y-127.386 Z-1.1 I0.121 J0.108
X-16.384 Y-127.602 Z-1.161 I-0.121 J-0.108
X-16.141 Y-127.386 Z-1.222 I0.121 J0.108
X-16.384 Y-127.602 Z-1.283 I-0.121 J-0.108
X-16.141 Y-127.386 Z-1.344 I0.121 J0.108
X-16.384 Y-127.602 Z-1.406 I-0.121 J-0.108
X-16.141 Y-127.386 Z-1.467 I0.121 J0.108
X-16.384 Y-127.602 Z-1.528 I-0.121 J-0.108
X-16.141 Y-127.386 Z-1.589 I0.121 J0.108
X-16.384 Y-127.602 Z-1.65 I-0.121 J-0.108
X-16.141 Y-127.386 Z-1.711 I0.121 J0.108
X-16.384 Y-127.602 Z-1.772 I-0.121 J-0.108
X-16.141 Y-127.386 Z-1.833 I0.121 J0.108
X-16.384 Y-127.602 Z-1.894 I-0.121 J-0.108
X-16.141 Y-127.386 Z-1.956 I0.121 J0.108
X-16.384 Y-127.602 Z-2.017 I-0.121 J-0.108
X-16.141 Y-127.386 Z-2.078 I0.121 J0.108
X-16.384 Y-127.602 Z-2.139 I-0.121 J-0.108
X-16.141 Y-127.386 Z-2.2 I0.121 J0.108
X-16.384 Y-127.602 Z-2.261 I-0.121 J-0.108
X-16.141 Y-127.386 Z-2.322 I0.121 J0.108
X-16.384 Y-127.602 Z-2.383 I-0.121 J-0.108
X-16.141 Y-127.386 Z-2.444 I0.121 J0.108
X-16.384 Y-127.602 Z-2.506 I-0.121 J-0.108
X-16.141 Y-127.386 Z-2.567 I0.121 J0.108
X-16.384 Y-127.602 Z-2.628 I-0.121 J-0.108
X-16.141 Y-127.386 Z-2.689 I0.121 J0.108
X-16.384 Y-127.602 Z-2.75 I-0.121 J-0.108
X-16.141 Y-127.386 Z-2.811 I0.121 J0.108
X-16.384 Y-127.602 Z-2.872 I-0.121 J-0.108
X-16.141 Y-127.386 Z-2.933 I0.121 J0.108
X-16.384 Y-127.602 Z-2.994 I-0.121 J-0.108
X-16.141 Y-127.386 Z-3.056 I0.121 J0.108
X-16.384 Y-127.602 Z-3.117 I-0.121 J-0.108
X-16.141 Y-127.386 Z-3.178 I0.121 J0.108
X-16.384 Y-127.602 Z-3.239 I-0.121 J-0.108
X-16.141 Y-127.386 Z-3.3 I0.121 J0.108
X-16.384 Y-127.602 Z-3.361 I-0.121 J-0.108
X-16.141 Y-127.386 Z-3.422 I0.121 J0.108
X-16.384 Y-127.602 Z-3.483 I-0.121 J-0.108
X-16.141 Y-127.386 Z-3.544 I0.121 J0.108
X-16.384 Y-127.602 Z-3.606 I-0.121 J-0.108
X-16.141 Y-127.386 Z-3.667 I0.121 J0.108
X-16.384 Y-127.602 Z-3.728 I-0.121 J-0.108
X-16.141 Y-127.386 Z-3.789 I0.121 J0.108
X-16.384 Y-127.602 Z-3.85 I-0.121 J-0.108
X-16.141 Y-127.386 Z-3.911 I0.121 J0.108
X-16.384 Y-127.602 Z-3.972 I-0.121 J-0.108
X-16.141 Y-127.386 Z-4.033 I0.121 J0.108
X-16.384 Y-127.602 Z-4.094 I-0.121 J-0.108
X-16.141 Y-127.386 Z-4.156 I0.121 J0.108
X-16.384 Y-127.602 Z-4.217 I-0.121 J-0.108
X-16.141 Y-127.386 Z-4.278 I0.121 J0.108
X-16.384 Y-127.602 Z-4.339 I-0.121 J-0.108
X-16.141 Y-127.386 Z-4.4 I0.121 J0.108
X-16.384 Y-127.602 Z-4.461 I-0.121 J-0.108
X-16.141 Y-127.386 Z-4.522 I0.121 J0.108
X-16.384 Y-127.602 Z-4.583 I-0.121 J-0.108
X-16.141 Y-127.386 Z-4.644 I0.121 J0.108
X-16.384 Y-127.602 Z-4.706 I-0.121 J-0.108
X-16.141 Y-127.386 Z-4.767 I0.121 J0.108
X-16.384 Y-127.602 Z-4.828 I-0.121 J-0.108
X-16.141 Y-127.386 Z-4.889 I0.121 J0.108
X-16.384 Y-127.602 Z-4.95 I-0.121 J-0.108
X-16.141 Y-127.386 Z-5.011 I0.121 J0.108
X-16.384 Y-127.602 Z-5.072 I-0.121 J-0.108
X-16.141 Y-127.386 Z-5.133 I0.121 J0.108
X-16.384 Y-127.602 Z-5.194 I-0.121 J-0.108
X-16.141 Y-127.386 Z-5.256 I0.121 J0.108
X-16.384 Y-127.602 Z-5.317 I-0.121 J-0.108
X-16.141 Y-127.386 Z-5.378 I0.121 J0.108
X-16.384 Y-127.602 Z-5.439 I-0.121 J-0.108
X-16.141 Y-127.386 Z-5.5 I0.121 J0.108
X-16.384 Y-127.602 Z-5.561 I-0.121 J-0.108
X-16.141 Y-127.386 Z-5.622 I0.121 J0.108
X-16.384 Y-127.602 Z-5.683 I-0.121 J-0.108
X-16.141 Y-127.386 Z-5.744 I0.121 J0.108
X-16.384 Y-127.602 Z-5.806 I-0.121 J-0.108
X-16.141 Y-127.386 Z-5.867 I0.121 J0.108
X-16.384 Y-127.602 Z-5.928 I-0.121 J-0.108
X-16.141 Y-127.386 Z-5.989 I0.121 J0.108
X-16.384 Y-127.602 Z-6.05 I-0.121 J-0.108
X-16.141 Y-127.386 Z-6.111 I0.121 J0.108
X-16.384 Y-127.602 Z-6.172 I-0.121 J-0.108
X-16.141 Y-127.386 Z-6.233 I0.121 J0.108
X-16.384 Y-127.602 Z-6.294 I-0.121 J-0.108
X-16.141 Y-127.386 Z-6.356 I0.121 J0.108
X-16.384 Y-127.602 Z-6.417 I-0.121 J-0.108
X-16.141 Y-127.386 Z-6.478 I0.121 J0.108
X-16.384 Y-127.602 Z-6.539 I-0.121 J-0.108
X-16.141 Y-127.386 Z-6.6 I0.121 J0.108
X-16.384 Y-127.602 Z-6.661 I-0.121 J-0.108
X-16.141 Y-127.386 Z-6.722 I0.121 J0.108
X-16.384 Y-127.602 Z-6.783 I-0.121 J-0.108
X-16.141 Y-127.386 Z-6.844 I0.121 J0.108
X-16.384 Y-127.602 Z-6.906 I-0.121 J-0.108
X-16.141 Y-127.386 Z-6.967 I0.121 J0.108
X-16.384 Y-127.602 Z-7.028 I-0.121 J-0.108
X-16.141 Y-127.386 Z-7.089 I0.121 J0.108
X-16.384 Y-127.602 Z-7.15 I-0.121 J-0.108
X-16.141 Y-127.386 Z-7.211 I0.121 J0.108
X-16.384 Y-127.602 Z-7.272 I-0.121 J-0.108
X-16.141 Y-127.386 Z-7.333 I0.121 J0.108
X-16.384 Y-127.602 Z-7.394 I-0.121 J-0.108
X-16.141 Y-127.386 Z-7.456 I0.121 J0.108
X-16.384 Y-127.602 Z-7.517 I-0.121 J-0.108
X-16.141 Y-127.386 Z-7.578 I0.121 J0.108
X-16.384 Y-127.602 Z-7.639 I-0.121 J-0.108
X-16.141 Y-127.386 Z-7.7 I0.121 J0.108
X-16.384 Y-127.602 Z-7.761 I-0.121 J-0.108
X-16.141 Y-127.386 Z-7.822 I0.121 J0.108
X-16.384 Y-127.602 Z-7.883 I-0.121 J-0.108
X-16.141 Y-127.386 Z-7.944 I0.121 J0.108
X-16.384 Y-127.602 Z-8.006 I-0.121 J-0.108
X-16.141 Y-127.386 Z-8.067 I0.121 J0.108
X-16.384 Y-127.602 Z-8.128 I-0.121 J-0.108
X-16.141 Y-127.386 Z-8.189 I0.121 J0.108
X-16.384 Y-127.602 Z-8.25 I-0.121 J-0.108
X-16.102 Y-127.469 Z-8.3 I0.121 J0.108
X-16.424 Y-127.519 I-0.161 J-0.025
X-16.102 Y-127.469 I0.161 J0.025
G1 X-16.113 Y-127.439
X-16.135 Y-127.416
X-16.163 Y-127.403
X-16.195 Y-127.401
X-16.352 Y-127.425
Z5
X-37.342 Y-126.656
Z2
Z0.317
X-37.336 Y-126.651 Z0.247
X-37.318 Y-126.635 Z0.18
X-37.29 Y-126.61 Z0.12
X-37.253 Y-126.577 Z0.069
X-37.208 Y-126.537 Z0.031
X-37.157 Y-126.492 Z0.008
X-37.105 Y-126.445 Z0
X-36.986 Y-126.34
G3 X-36.959 Y-125.892 I-0.211 J0.237
X-40.567 Y-129.096 Z-0.14 I-1.804 J-1.602
X-36.959 Y-125.892 Z-0.279 I1.804 J1.602
X-40.567 Y-129.096 Z-0.419 I-1.804 J-1.602
X-36.959 Y-125.892 Z-0.559 I1.804 J1.602
X-40.567 Y-129.096 Z-0.698 I-1.804 J-1.602
X-36.959 Y-125.892 Z-0.838 I1.804 J1.602
X-40.567 Y-129.096 Z-0.978 I-1.804 J-1.602
X-36.959 Y-125.892 Z-1.117 I1.804 J1.602
X-40.567 Y-129.096 Z-1.257 I-1.804 J-1.602
X-36.959 Y-125.892 Z-1.397 I1.804 J1.602
X-40.567 Y-129.096 Z-1.537 I-1.804 J-1.602
X-36.959 Y-125.892 Z-1.676 I1.804 J1.602
X-40.567 Y-129.096 Z-1.816 I-1.804 J-1.602
X-36.959 Y-125.892 Z-1.956 I1.804 J1.602
X-40.567 Y-129.096 Z-2.095 I-1.804 J-1.602
X-36.959 Y-125.892 Z-2.235 I1.804 J1.602
X-40.567 Y-129.096 Z-2.375 I-1.804 J-1.602
X-36.959 Y-125.892 Z-2.514 I1.804 J1.602
X-40.567 Y-129.096 Z-2.654 I-1.804 J-1.602
X-36.959 Y-125.892 Z-2.794 I1.804 J1.602
X-40.567 Y-129.096 Z-2.933 I-1.804 J-1.602
X-36.959 Y-125.892 Z-3.073 I1.804 J1.602
X-40.567 Y-129.096 Z-3.213 I-1.804 J-1.602
X-36.959 Y-125.892 Z-3.352 I1.804 J1.602
X-40.567 Y-129.096 Z-3.492 I-1.804 J-1.602
X-36.959 Y-125.892 Z-3.632 I1.804 J1.602
X-40.567 Y-129.096 Z-3.771 I-1.804 J-1.602
X-36.959 Y-125.892 Z-3.911 I1.804 J1.602
X-40.567 Y-129.096 Z-4.051 I-1.804 J-1.602
X-36.959 Y-125.892 Z-4.19 I1.804 J1.602
X-40.567 Y-129.096 Z-4.33 I-1.804 J-1.602
X-36.959 Y-125.892 Z-4.47 I1.804 J1.602
X-40.567 Y-129.096 Z-4.61 I-1.804 J-1.602
X-36.959 Y-125.892 Z-4.749 I1.804 J1.602
X-40.567 Y-129.096 Z-4.889 I-1.804 J-1.602
X-36.959 Y-125.892 Z-5.029 I1.804 J1.602
X-40.567 Y-129.096 Z-5.168 I-1.804 J-1.602
X-36.959 Y-125.892 Z-5.308 I1.804 J1.602
X-40.567 Y-129.096 Z-5.448 I-1.804 J-1.602
X-36.959 Y-125.892 Z-5.587 I1.804 J1.602
X-40.567 Y-129.096 Z-5.727 I-1.804 J-1.602
X-36.959 Y-125.892 Z-5.867 I1.804 J1.602
X-40.567 Y-129.096 Z-6.006 I-1.804 J-1.602
X-36.959 Y-125.892 Z-6.146 I1.804 J1.602
X-40.567 Y-129.096 Z-6.286 I-1.804 J-1.602
X-36.959 Y-125.892 Z-6.425 I1.804 J1.602
X-40.567 Y-129.096 Z-6.565 I-1.804 J-1.602
X-36.959 Y-125.892 Z-6.705 I1.804 J1.602
X-40.566 Y-129.096 Z-6.844 I-1.804 J-1.602
X-36.959 Y-125.892 Z-6.984 I1.804 J1.602
X-40.566 Y-129.096 Z-7.124 I-1.804 J-1.602
X-36.959 Y-125.892 Z-7.264 I1.804 J1.602
X-40.566 Y-129.096 Z-7.403 I-1.804 J-1.602
X-36.959 Y-125.892 Z-7.543 I1.804 J1.602
X-40.566 Y-129.096 Z-7.683 I-1.804 J-1.602
X-36.959 Y-125.892 Z-7.822 I1.804 J1.602
X-40.566 Y-129.096 Z-7.962 I-1.804 J-1.602
X-36.959 Y-125.892 Z-8.102 I1.804 J1.602
X-40.566 Y-129.096 Z-8.241 I-1.804 J-1.602
X-37.658 Y-129.639 Z-8.3 I1.804 J1.602
X-39.868 Y-125.349 I-1.105 J2.145
X-37.658 Y-129.639 I1.105 J-2.145
X-37.521 Y-129.211 I-0.145 J0.282
G1 X-37.594 Y-129.07
X-37.626 Y-129.007 Z-8.292
X-37.657 Y-128.947 Z-8.269
X-37.685 Y-128.894 Z-8.231
X-37.708 Y-128.849 Z-8.18
X-37.725 Y-128.815 Z-8.12
X-37.736 Y-128.795 Z-8.053
X-37.739 Y-128.787 Z-7.983
Z5
X-61.267 Y-127.606
Z1.683
Z0
X-61.148 Y-127.501
X-61.129 Y-127.475
X-61.121 Y-127.445
X-61.125 Y-127.413
X-61.141 Y-127.386
G3 X-61.384 Y-127.602 Z-0.061 I-0.121 J-0.108
X-61.141 Y-127.386 Z-0.122 I0.121 J0.108
X-61.384 Y-127.602 Z-0.183 I-0.121 J-0.108
X-61.141 Y-127.386 Z-0.244 I0.121 J0.108
X-61.384 Y-127.602 Z-0.306 I-0.121 J-0.108
X-61.141 Y-127.386 Z-0.367 I0.121 J0.108
X-61.384 Y-127.602 Z-0.428 I-0.121 J-0.108
X-61.141 Y-127.386 Z-0.489 I0.121 J0.108
X-61.384 Y-127.602 Z-0.55 I-0.121 J-0.108
X-61.141 Y-127.386 Z-0.611 I0.121 J0.108
X-61.384 Y-127.602 Z-0.672 I-0.121 J-0.108
X-61.141 Y-127.386 Z-0.733 I0.121 J0.108
X-61.384 Y-127.602 Z-0.794 I-0.121 J-0.108
X-61.141 Y-127.386 Z-0.856 I0.121 J0.108
X-61.384 Y-127.602 Z-0.917 I-0.121 J-0.108
X-61.141 Y-127.386 Z-0.978 I0.121 J0.108
X-61.384 Y-127.602 Z-1.039 I-0.121 J-0.108
X-61.141 Y-127.386 Z-1.1 I0.121 J0.108
X-61.384 Y-127.602 Z-1.161 I-0.121 J-0.108
X-61.141 Y-127.386 Z-1.222 I0.121 J0.108
X-61.384 Y-127.602 Z-1.283 I-0.121 J-0.108
X-61.141 Y-127.386 Z-1.344 I0.121 J0.108
X-61.384 Y-127.602 Z-1.406 I-0.121 J-0.108
X-61.141 Y-127.386 Z-1.467 I0.121 J0.108
X-61.384 Y-127.602 Z-1.528 I-0.121 J-0.108
X-61.141 Y-127.386 Z-1.589 I0.121 J0.108
X-61.384 Y-127.602 Z-1.65 I-0.121 J-0.108
X-61.141 Y-127.386 Z-1.711 I0.121 J0.108
X-61.384 Y-127.602 Z-1.772 I-0.121 J-0.108
X-61.141 Y-127.386 Z-1.833 I0.121 J0.108
X-61.384 Y-127.602 Z-1.894 I-0.121 J-0.108
X-61.141 Y-127.386 Z-1.956 I0.121 J0.108
X-61.384 Y-127.602 Z-2.017 I-0.121 J-0.108
X-61.141 Y-127.386 Z-2.078 I0.121 J0.108
X-61.384 Y-127.602 Z-2.139 I-0.121 J-0.108
X-61.141 Y-127.386 Z-2.2 I0.121 J0.108
X-61.384 Y-127.602 Z-2.261 I-0.121 J-0.108
X-61.141 Y-127.386 Z-2.322 I0.121 J0.108
X-61.384 Y-127.602 Z-2.383 I-0.121 J-0.108
X-61.141 Y-127.386 Z-2.444 I0.121 J0.108
X-61.384 Y-127.602 Z-2.506 I-0.121 J-0.108
X-61.141 Y-127.386 Z-2.567 I0.121 J0.108
X-61.384 Y-127.602 Z-2.628 I-0.121 J-0.108
X-61.141 Y-127.386 Z-2.689 I0.121 J0.108
X-61.384 Y-127.602 Z-2.75 I-0.121 J-0.108
X-61.141 Y-127.386 Z-2.811 I0.121 J0.108
X-61.384 Y-127.602 Z-2.872 I-0.121 J-0.108
X-61.141 Y-127.386 Z-2.933 I0.121 J0.108
X-61.384 Y-127.602 Z-2.994 I-0.121 J-0.108
X-61.141 Y-127.386 Z-3.056 I0.121 J0.108
X-61.384 Y-127.602 Z-3.117 I-0.121 J-0.108
X-61.141 Y-127.386 Z-3.178 I0.121 J0.108
X-61.384 Y-127.602 Z-3.239 I-0.121 J-0.108
X-61.141 Y-127.386 Z-3.3 I0.121 J0.108
X-61.384 Y-127.602 Z-3.361 I-0.121 J-0.108
X-61.141 Y-127.386 Z-3.422 I0.121 J0.108
X-61.384 Y-127.602 Z-3.483 I-0.121 J-0.108
X-61.141 Y-127.386 Z-3.544 I0.121 J0.108
X-61.384 Y-127.602 Z-3.606 I-0.121 J-0.108
X-61.141 Y-127.386 Z-3.667 I0.121 J0.108
X-61.384 Y-127.602 Z-3.728 I-0.121 J-0.108
X-61.141 Y-127.386 Z-3.789 I0.121 J0.108
X-61.384 Y-127.602 Z-3.85 I-0.121 J-0.108
X-61.141 Y-127.386 Z-3.911 I0.121 J0.108
X-61.384 Y-127.602 Z-3.972 I-0.121 J-0.108
X-61.141 Y-127.386 Z-4.033 I0.121 J0.108
X-61.384 Y-127.602 Z-4.094 I-0.121 J-0.108
X-61.141 Y-127.386 Z-4.156 I0.121 J0.108
X-61.384 Y-127.602 Z-4.217 I-0.121 J-0.108
X-61.141 Y-127.386 Z-4.278 I0.121 J0.108
X-61.384 Y-127.602 Z-4.339 I-0.121 J-0.108
X-61.141 Y-127.386 Z-4.4 I0.121 J0.108
X-61.384 Y-127.602 Z-4.461 I-0.121 J-0.108
X-61.141 Y-127.386 Z-4.522 I0.121 J0.108
X-61.384 Y-127.602 Z-4.583 I-0.121 J-0.108
X-61.141 Y-127.386 Z-4.644 I0.121 J0.108
X-61.384 Y-127.602 Z-4.706 I-0.121 J-0.108
X-61.141 Y-127.386 Z-4.767 I0.121 J0.108
X-61.384 Y-127.602 Z-4.828 I-0.121 J-0.108
X-61.141 Y-127.386 Z-4.889 I0.121 J0.108
X-61.384 Y-127.602 Z-4.95 I-0.121 J-0.108
X-61.141 Y-127.386 Z-5.011 I0.121 J0.108
X-61.384 Y-127.602 Z-5.072 I-0.121 J-0.108
X-61.141 Y-127.386 Z-5.133 I0.121 J0.108
X-61.384 Y-127.602 Z-5.194 I-0.121 J-0.108
X-61.141 Y-127.386 Z-5.256 I0.121 J0.108
X-61.384 Y-127.602 Z-5.317 I-0.121 J-0.108
X-61.141 Y-127.386 Z-5.378 I0.121 J0.108
X-61.384 Y-127.602 Z-5.439 I-0.121 J-0.108
X-61.141 Y-127.386 Z-5.5 I0.121 J0.108
X-61.384 Y-127.602 Z-5.561 I-0.121 J-0.108
X-61.141 Y-127.386 Z-5.622 I0.121 J0.108
X-61.384 Y-127.602 Z-5.683 I-0.121 J-0.108
X-61.141 Y-127.386 Z-5.744 I0.121 J0.108
X-61.384 Y-127.602 Z-5.806 I-0.121 J-0.108
X-61.141 Y-127.386 Z-5.867 I0.121 J0.108
X-61.384 Y-127.602 Z-5.928 I-0.121 J-0.108
X-61.141 Y-127.386 Z-5.989 I0.121 J0.108
X-61.384 Y-127.602 Z-6.05 I-0.121 J-0.108
X-61.141 Y-127.386 Z-6.111 I0.121 J0.108
X-61.384 Y-127.602 Z-6.172 I-0.121 J-0.108
X-61.141 Y-127.386 Z-6.233 I0.121 J0.108
X-61.384 Y-127.602 Z-6.294 I-0.121 J-0.108
X-61.141 Y-127.386 Z-6.356 I0.121 J0.108
X-61.384 Y-127.602 Z-6.417 I-0.121 J-0.108
X-61.141 Y-127.386 Z-6.478 I0.121 J0.108
X-61.384 Y-127.602 Z-6.539 I-0.121 J-0.108
X-61.141 Y-127.386 Z-6.6 I0.121 J0.108
X-61.384 Y-127.602 Z-6.661 I-0.121 J-0.108
X-61.141 Y-127.386 Z-6.722 I0.121 J0.108
X-61.384 Y-127.602 Z-6.783 I-0.121 J-0.108
X-61.141 Y-127.386 Z-6.844 I0.121 J0.108
X-61.384 Y-127.602 Z-6.906 I-0.121 J-0.108
X-61.141 Y-127.386 Z-6.967 I0.121 J0.108
X-61.384 Y-127.602 Z-7.028 I-0.121 J-0.108
X-61.141 Y-127.386 Z-7.089 I0.121 J0.108
X-61.384 Y-127.602 Z-7.15 I-0.121 J-0.108
X-61.141 Y-127.386 Z-7.211 I0.121 J0.108
X-61.384 Y-127.602 Z-7.272 I-0.121 J-0.108
X-61.141 Y-127.386 Z-7.333 I0.121 J0.108
X-61.384 Y-127.602 Z-7.394 I-0.121 J-0.108
X-61.141 Y-127.386 Z-7.456 I0.121 J0.108
X-61.384 Y-127.602 Z-7.517 I-0.121 J-0.108
X-61.141 Y-127.386 Z-7.578 I0.121 J0.108
X-61.384 Y-127.602 Z-7.639 I-0.121 J-0.108
X-61.141 Y-127.386 Z-7.7 I0.121 J0.108
X-61.384 Y-127.602 Z-7.761 I-0.121 J-0.108
X-61.141 Y-127.386 Z-7.822 I0.121 J0.108
X-61.384 Y-127.602 Z-7.883 I-0.121 J-0.108
X-61.141 Y-127.386 Z-7.944 I0.121 J0.108
X-61.384 Y-127.602 Z-8.006 I-0.121 J-0.108
X-61.141 Y-127.386 Z-8.067 I0.121 J0.108
X-61.384 Y-127.602 Z-8.128 I-0.121 J-0.108
X-61.141 Y-127.386 Z-8.189 I0.121 J0.108
X-61.384 Y-127.602 Z-8.25 I-0.121 J-0.108
X-61.102 Y-127.469 Z-8.3 I0.121 J0.108
X-61.424 Y-127.519 I-0.161 J-0.025
X-61.102 Y-127.469 I0.161 J0.025
G1 X-61.113 Y-127.439
X-61.135 Y-127.416
X-61.163 Y-127.403
X-61.195 Y-127.401
X-61.352 Y-127.425
Z5
X-60.159 Y-101.082
Z1.683
Z0
X-60.277 Y-101.187
X-60.297 Y-101.212
X-60.305 Y-101.243
X-60.3 Y-101.275
X-60.284 Y-101.302
G3 X-60.041 Y-101.086 Z-0.061 I0.121 J0.108
X-60.284 Y-101.302 Z-0.122 I-0.121 J-0.108
X-60.041 Y-101.086 Z-0.183 I0.121 J0.108
X-60.284 Y-101.302 Z-0.244 I-0.121 J-0.108
X-60.041 Y-101.086 Z-0.306 I0.121 J0.108
X-60.284 Y-101.302 Z-0.367 I-0.121 J-0.108
X-60.041 Y-101.086 Z-0.428 I0.121 J0.108
X-60.284 Y-101.302 Z-0.489 I-0.121 J-0.108
X-60.041 Y-101.086 Z-0.55 I0.121 J0.108
X-60.284 Y-101.302 Z-0.611 I-0.121 J-0.108
X-60.041 Y-101.086 Z-0.672 I0.121 J0.108
X-60.284 Y-101.302 Z-0.733 I-0.121 J-0.108
X-60.041 Y-101.086 Z-0.794 I0.121 J0.108
X-60.284 Y-101.302 Z-0.856 I-0.121 J-0.108
X-60.041 Y-101.086 Z-0.917 I0.121 J0.108
X-60.284 Y-101.302 Z-0.978 I-0.121 J-0.108
X-60.041 Y-101.086 Z-1.039 I0.121 J0.108
X-60.284 Y-101.302 Z-1.1 I-0.121 J-0.108
X-60.041 Y-101.086 Z-1.161 I0.121 J0.108
X-60.284 Y-101.302 Z-1.222 I-0.121 J-0.108
X-60.041 Y-101.086 Z-1.283 I0.121 J0.108
X-60.284 Y-101.302 Z-1.344 I-0.121 J-0.108
X-60.041 Y-101.086 Z-1.406 I0.121 J0.108
X-60.284 Y-101.302 Z-1.467 I-0.121 J-0.108
X-60.041 Y-101.086 Z-1.528 I0.121 J0.108
X-60.284 Y-101.302 Z-1.589 I-0.121 J-0.108
X-60.041 Y-101.086 Z-1.65 I0.121 J0.108
X-60.284 Y-101.302 Z-1.711 I-0.121 J-0.108
X-60.041 Y-101.086 Z-1.772 I0.121 J0.108
X-60.284 Y-101.302 Z-1.833 I-0.121 J-0.108
X-60.041 Y-101.086 Z-1.894 I0.121 J0.108
X-60.284 Y-101.302 Z-1.956 I-0.121 J-0.108
X-60.041 Y-101.086 Z-2.017 I0.121 J0.108
X-60.284 Y-101.302 Z-2.078 I-0.121 J-0.108
X-60.041 Y-101.086 Z-2.139 I0.121 J0.108
X-60.284 Y-101.302 Z-2.2 I-0.121 J-0.108
X-60.041 Y-101.086 Z-2.261 I0.121 J0.108
X-60.284 Y-101.302 Z-2.322 I-0.121 J-0.108
X-60.041 Y-101.086 Z-2.383 I0.121 J0.108
X-60.284 Y-101.302 Z-2.444 I-0.121 J-0.108
X-60.041 Y-101.086 Z-2.506 I0.121 J0.108
X-60.284 Y-101.302 Z-2.567 I-0.121 J-0.108
X-60.041 Y-101.086 Z-2.628 I0.121 J0.108
X-60.284 Y-101.302 Z-2.689 I-0.121 J-0.108
X-60.041 Y-101.086 Z-2.75 I0.121 J0.108
X-60.284 Y-101.302 Z-2.811 I-0.121 J-0.108
X-60.041 Y-101.086 Z-2.872 I0.121 J0.108
X-60.284 Y-101.302 Z-2.933 I-0.121 J-0.108
X-60.041 Y-101.086 Z-2.994 I0.121 J0.108
X-60.284 Y-101.302 Z-3.056 I-0.121 J-0.108
X-60.041 Y-101.086 Z-3.117 I0.121 J0.108
X-60.284 Y-101.302 Z-3.178 I-0.121 J-0.108
X-60.041 Y-101.086 Z-3.239 I0.121 J0.108
X-60.284 Y-101.302 Z-3.3 I-0.121 J-0.108
X-60.041 Y-101.086 Z-3.361 I0.121 J0.108
X-60.284 Y-101.302 Z-3.422 I-0.121 J-0.108
X-60.041 Y-101.086 Z-3.483 I0.121 J0.108
X-60.284 Y-101.302 Z-3.544 I-0.121 J-0.108
X-60.041 Y-101.086 Z-3.606 I0.121 J0.108
X-60.284 Y-101.302 Z-3.667 I-0.121 J-0.108
X-60.041 Y-101.086 Z-3.728 I0.121 J0.108
X-60.284 Y-101.302 Z-3.789 I-0.121 J-0.108
X-60.041 Y-101.086 Z-3.85 I0.121 J0.108
X-60.284 Y-101.302 Z-3.911 I-0.121 J-0.108
X-60.041 Y-101.086 Z-3.972 I0.121 J0.108
X-60.284 Y-101.302 Z-4.033 I-0.121 J-0.108
X-60.041 Y-101.086 Z-4.094 I0.121 J0.108
X-60.284 Y-101.302 Z-4.156 I-0.121 J-0.108
X-60.041 Y-101.086 Z-4.217 I0.121 J0.108
X-60.284 Y-101.302 Z-4.278 I-0.121 J-0.108
X-60.041 Y-101.086 Z-4.339 I0.121 J0.108
X-60.284 Y-101.302 Z-4.4 I-0.121 J-0.108
X-60.041 Y-101.086 Z-4.461 I0.121 J0.108
X-60.284 Y-101.302 Z-4.522 I-0.121 J-0.108
X-60.041 Y-101.086 Z-4.583 I0.121 J0.108
X-60.284 Y-101.302 Z-4.644 I-0.121 J-0.108
X-60.041 Y-101.086 Z-4.706 I0.121 J0.108
X-60.284 Y-101.302 Z-4.767 I-0.121 J-0.108
X-60.041 Y-101.086 Z-4.828 I0.121 J0.108
X-60.284 Y-101.302 Z-4.889 I-0.121 J-0.108
X-60.041 Y-101.086 Z-4.95 I0.121 J0.108
X-60.284 Y-101.302 Z-5.011 I-0.121 J-0.108
X-60.041 Y-101.086 Z-5.072 I0.121 J0.108
X-60.284 Y-101.302 Z-5.133 I-0.121 J-0.108
X-60.041 Y-101.086 Z-5.194 I0.121 J0.108
X-60.284 Y-101.302 Z-5.256 I-0.121 J-0.108
X-60.041 Y-101.086 Z-5.317 I0.121 J0.108
X-60.284 Y-101.302 Z-5.378 I-0.121 J-0.108
X-60.041 Y-101.086 Z-5.439 I0.121 J0.108
X-60.284 Y-101.302 Z-5.5 I-0.121 J-0.108
X-60.041 Y-101.086 Z-5.561 I0.121 J0.108
X-60.284 Y-101.302 Z-5.622 I-0.121 J-0.108
X-60.041 Y-101.086 Z-5.683 I0.121 J0.108
X-60.284 Y-101.302 Z-5.744 I-0.121 J-0.108
X-60.041 Y-101.086 Z-5.806 I0.121 J0.108
X-60.284 Y-101.302 Z-5.867 I-0.121 J-0.108
X-60.041 Y-101.086 Z-5.928 I0.121 J0.108
X-60.284 Y-101.302 Z-5.989 I-0.121 J-0.108
X-60.041 Y-101.086 Z-6.05 I0.121 J0.108
X-60.284 Y-101.302 Z-6.111 I-0.121 J-0.108
X-60.041 Y-101.086 Z-6.172 I0.121 J0.108
X-60.284 Y-101.302 Z-6.233 I-0.121 J-0.108
X-60.041 Y-101.086 Z-6.294 I0.121 J0.108
X-60.284 Y-101.302 Z-6.356 I-0.121 J-0.108
X-60.041 Y-101.086 Z-6.417 I0.121 J0.108
X-60.284 Y-101.302 Z-6.478 I-0.121 J-0.108
X-60.041 Y-101.086 Z-6.539 I0.121 J0.108
X-60.284 Y-101.302 Z-6.6 I-0.121 J-0.108
X-60.041 Y-101.086 Z-6.661 I0.121 J0.108
X-60.284 Y-101.302 Z-6.722 I-0.121 J-0.108
X-60.041 Y-101.086 Z-6.783 I0.121 J0.108
X-60.284 Y-101.302 Z-6.844 I-0.121 J-0.108
X-60.041 Y-101.086 Z-6.906 I0.121 J0.108
X-60.284 Y-101.302 Z-6.967 I-0.121 J-0.108
X-60.041 Y-101.086 Z-7.028 I0.121 J0.108
X-60.284 Y-101.302 Z-7.089 I-0.121 J-0.108
X-60.041 Y-101.086 Z-7.15 I0.121 J0.108
X-60.284 Y-101.302 Z-7.211 I-0.121 J-0.108
X-60.041 Y-101.086 Z-7.272 I0.121 J0.108
X-60.284 Y-101.302 Z-7.333 I-0.121 J-0.108
X-60.041 Y-101.086 Z-7.394 I0.121 J0.108
X-60.284 Y-101.302 Z-7.456 I-0.121 J-0.108
X-60.041 Y-101.086 Z-7.517 I0.121 J0.108
X-60.284 Y-101.302 Z-7.578 I-0.121 J-0.108
X-60.041 Y-101.086 Z-7.639 I0.121 J0.108
X-60.284 Y-101.302 Z-7.7 I-0.121 J-0.108
X-60.041 Y-101.086 Z-7.761 I0.121 J0.108
X-60.284 Y-101.302 Z-7.822 I-0.121 J-0.108
X-60.041 Y-101.086 Z-7.883 I0.121 J0.108
X-60.284 Y-101.302 Z-7.944 I-0.121 J-0.108
X-60.041 Y-101.086 Z-8.006 I0.121 J0.108
X-60.284 Y-101.302 Z-8.067 I-0.121 J-0.108
X-60.041 Y-101.086 Z-8.128 I0.121 J0.108
X-60.284 Y-101.302 Z-8.189 I-0.121 J-0.108
X-60.041 Y-101.086 Z-8.25 I0.121 J0.108
X-60.323 Y-101.219 Z-8.3 I-0.121 J-0.108
X-60.002 Y-101.169 I0.161 J0.025
X-60.323 Y-101.219 I-0.161 J-0.025
G1 X-60.312 Y-101.249
X-60.291 Y-101.272
X-60.262 Y-101.285
X-60.231 Y-101.287
X-60.074 Y-101.262
Z5
X-32.865 Y-99.809
Z1.683
Z0
X-32.983 Y-99.915
X-33.002 Y-99.94
X-33.01 Y-99.971
X-33.006 Y-100.002
X-32.99 Y-100.029
G3 X-32.747 Y-99.814 Z-0.061 I0.121 J0.108
X-32.99 Y-100.029 Z-0.122 I-0.121 J-0.108
X-32.747 Y-99.814 Z-0.183 I0.121 J0.108
X-32.99 Y-100.029 Z-0.244 I-0.121 J-0.108
X-32.747 Y-99.814 Z-0.306 I0.121 J0.108
X-32.99 Y-100.029 Z-0.367 I-0.121 J-0.108
X-32.747 Y-99.814 Z-0.428 I0.121 J0.108
X-32.99 Y-100.029 Z-0.489 I-0.121 J-0.108
X-32.747 Y-99.814 Z-0.55 I0.121 J0.108
X-32.99 Y-100.029 Z-0.611 I-0.121 J-0.108
X-32.747 Y-99.814 Z-0.672 I0.121 J0.108
X-32.99 Y-100.029 Z-0.733 I-0.121 J-0.108
X-32.747 Y-99.814 Z-0.794 I0.121 J0.108
X-32.99 Y-100.029 Z-0.856 I-0.121 J-0.108
X-32.747 Y-99.814 Z-0.917 I0.121 J0.108
X-32.99 Y-100.029 Z-0.978 I-0.121 J-0.108
X-32.747 Y-99.814 Z-1.039 I0.121 J0.108
X-32.99 Y-100.029 Z-1.1 I-0.121 J-0.108
X-32.747 Y-99.814 Z-1.161 I0.121 J0.108
X-32.99 Y-100.029 Z-1.222 I-0.121 J-0.108
X-32.747 Y-99.814 Z-1.283 I0.121 J0.108
X-32.99 Y-100.029 Z-1.344 I-0.121 J-0.108
X-32.747 Y-99.814 Z-1.406 I0.121 J0.108
X-32.99 Y-100.029 Z-1.467 I-0.121 J-0.108
X-32.747 Y-99.814 Z-1.528 I0.121 J0.108
X-32.99 Y-100.029 Z-1.589 I-0.121 J-0.108
X-32.747 Y-99.814 Z-1.65 I0.121 J0.108
X-32.99 Y-100.029 Z-1.711 I-0.121 J-0.108
X-32.747 Y-99.814 Z-1.772 I0.121 J0.108
X-32.99 Y-100.029 Z-1.833 I-0.121 J-0.108
X-32.747 Y-99.814 Z-1.894 I0.121 J0.108
X-32.99 Y-100.029 Z-1.956 I-0.121 J-0.108
X-32.747 Y-99.814 Z-2.017 I0.121 J0.108
X-32.99 Y-100.029 Z-2.078 I-0.121 J-0.108
X-32.747 Y-99.814 Z-2.139 I0.121 J0.108
X-32.99 Y-100.029 Z-2.2 I-0.121 J-0.108
X-32.747 Y-99.814 Z-2.261 I0.121 J0.108
X-32.99 Y-100.029 Z-2.322 I-0.121 J-0.108
X-32.747 Y-99.814 Z-2.383 I0.121 J0.108
X-32.99 Y-100.029 Z-2.444 I-0.121 J-0.108
X-32.747 Y-99.814 Z-2.506 I0.121 J0.108
X-32.99 Y-100.029 Z-2.567 I-0.121 J-0.108
X-32.747 Y-99.814 Z-2.628 I0.121 J0.108
X-32.99 Y-100.029 Z-2.689 I-0.121 J-0.108
X-32.747 Y-99.814 Z-2.75 I0.121 J0.108
X-32.99 Y-100.029 Z-2.811 I-0.121 J-0.108
X-32.747 Y-99.814 Z-2.872 I0.121 J0.108
X-32.99 Y-100.029 Z-2.933 I-0.121 J-0.108
X-32.747 Y-99.814 Z-2.994 I0.121 J0.108
X-32.99 Y-100.029 Z-3.056 I-0.121 J-0.108
X-32.747 Y-99.814 Z-3.117 I0.121 J0.108
X-32.99 Y-100.029 Z-3.178 I-0.121 J-0.108
X-32.747 Y-99.814 Z-3.239 I0.121 J0.108
X-32.99 Y-100.029 Z-3.3 I-0.121 J-0.108
X-32.747 Y-99.814 Z-3.361 I0.121 J0.108
X-32.99 Y-100.029 Z-3.422 I-0.121 J-0.108
X-32.747 Y-99.814 Z-3.483 I0.121 J0.108
X-32.99 Y-100.029 Z-3.544 I-0.121 J-0.108
X-32.747 Y-99.814 Z-3.606 I0.121 J0.108
X-32.99 Y-100.029 Z-3.667 I-0.121 J-0.108
X-32.747 Y-99.814 Z-3.728 I0.121 J0.108
X-32.99 Y-100.029 Z-3.789 I-0.121 J-0.108
X-32.747 Y-99.814 Z-3.85 I0.121 J0.108
X-32.99 Y-100.029 Z-3.911 I-0.121 J-0.108
X-32.747 Y-99.814 Z-3.972 I0.121 J0.108
X-32.99 Y-100.029 Z-4.033 I-0.121 J-0.108
X-32.747 Y-99.814 Z-4.094 I0.121 J0.108
X-32.99 Y-100.029 Z-4.156 I-0.121 J-0.108
X-32.747 Y-99.814 Z-4.217 I0.121 J0.108
X-32.99 Y-100.029 Z-4.278 I-0.121 J-0.108
X-32.747 Y-99.814 Z-4.339 I0.121 J0.108
X-32.99 Y-100.029 Z-4.4 I-0.121 J-0.108
X-32.747 Y-99.814 Z-4.461 I0.121 J0.108
X-32.99 Y-100.029 Z-4.522 I-0.121 J-0.108
X-32.747 Y-99.814 Z-4.583 I0.121 J0.108
X-32.99 Y-100.029 Z-4.644 I-0.121 J-0.108
X-32.747 Y-99.814 Z-4.706 I0.121 J0.108
X-32.99 Y-100.029 Z-4.767 I-0.121 J-0.108
X-32.747 Y-99.814 Z-4.828 I0.121 J0.108
X-32.99 Y-100.029 Z-4.889 I-0.121 J-0.108
X-32.747 Y-99.814 Z-4.95 I0.121 J0.108
X-32.99 Y-100.029 Z-5.011 I-0.121 J-0.108
X-32.747 Y-99.814 Z-5.072 I0.121 J0.108
X-32.99 Y-100.029 Z-5.133 I-0.121 J-0.108
X-32.747 Y-99.814 Z-5.194 I0.121 J0.108
X-32.99 Y-100.029 Z-5.256 I-0.121 J-0.108
X-32.747 Y-99.814 Z-5.317 I0.121 J0.108
X-32.99 Y-100.029 Z-5.378 I-0.121 J-0.108
X-32.747 Y-99.814 Z-5.439 I0.121 J0.108
X-32.99 Y-100.029 Z-5.5 I-0.121 J-0.108
X-32.747 Y-99.814 Z-5.561 I0.121 J0.108
X-32.99 Y-100.029 Z-5.622 I-0.121 J-0.108
X-32.747 Y-99.814 Z-5.683 I0.121 J0.108
X-32.99 Y-100.029 Z-5.744 I-0.121 J-0.108
X-32.747 Y-99.814 Z-5.806 I0.121 J0.108
X-32.99 Y-100.029 Z-5.867 I-0.121 J-0.108
X-32.747 Y-99.814 Z-5.928 I0.121 J0.108
X-32.99 Y-100.029 Z-5.989 I-0.121 J-0.108
X-32.747 Y-99.814 Z-6.05 I0.121 J0.108
X-32.99 Y-100.029 Z-6.111 I-0.121 J-0.108
X-32.747 Y-99.814 Z-6.172 I0.121 J0.108
X-32.99 Y-100.029 Z-6.233 I-0.121 J-0.108
X-32.747 Y-99.814 Z-6.294 I0.121 J0.108
X-32.99 Y-100.029 Z-6.356 I-0.121 J-0.108
X-32.747 Y-99.814 Z-6.417 I0.121 J0.108
X-32.99 Y-100.029 Z-6.478 I-0.121 J-0.108
X-32.747 Y-99.814 Z-6.539 I0.121 J0.108
X-32.99 Y-100.029 Z-6.6 I-0.121 J-0.108
X-32.747 Y-99.814 Z-6.661 I0.121 J0.108
X-32.99 Y-100.029 Z-6.722 I-0.121 J-0.108
X-32.747 Y-99.814 Z-6.783 I0.121 J0.108
X-32.99 Y-100.029 Z-6.844 I-0.121 J-0.108
X-32.747 Y-99.814 Z-6.906 I0.121 J0.108
X-32.99 Y-100.029 Z-6.967 I-0.121 J-0.108
X-32.747 Y-99.814 Z-7.028 I0.121 J0.108
X-32.99 Y-100.029 Z-7.089 I-0.121 J-0.108
X-32.747 Y-99.814 Z-7.15 I0.121 J0.108
X-32.99 Y-100.029 Z-7.211 I-0.121 J-0.108
X-32.747 Y-99.814 Z-7.272 I0.121 J0.108
X-32.99 Y-100.029 Z-7.333 I-0.121 J-0.108
X-32.747 Y-99.814 Z-7.394 I0.121 J0.108
X-32.99 Y-100.029 Z-7.456 I-0.121 J-0.108
X-32.747 Y-99.814 Z-7.517 I0.121 J0.108
X-32.99 Y-100.029 Z-7.578 I-0.121 J-0.108
X-32.747 Y-99.814 Z-7.639 I0.121 J0.108
X-32.99 Y-100.029 Z-7.7 I-0.121 J-0.108
X-32.747 Y-99.814 Z-7.761 I0.121 J0.108
X-32.99 Y-100.029 Z-7.822 I-0.121 J-0.108
X-32.747 Y-99.814 Z-7.883 I0.121 J0.108
X-32.99 Y-100.029 Z-7.944 I-0.121 J-0.108
X-32.747 Y-99.814 Z-8.006 I0.121 J0.108
X-32.99 Y-100.029 Z-8.067 I-0.121 J-0.108
X-32.747 Y-99.814 Z-8.128 I0.121 J0.108
X-32.99 Y-100.029 Z-8.189 I-0.121 J-0.108
X-32.747 Y-99.814 Z-8.25 I0.121 J0.108
X-33.029 Y-99.946 Z-8.3 I-0.121 J-0.108
X-32.708 Y-99.897 I0.161 J0.025
X-33.029 Y-99.946 I-0.161 J-0.025
G1 X-33.018 Y-99.976
X-32.997 Y-100
X-32.968 Y-100.013
X-32.936 Y-100.014
X-32.78 Y-99.99
Z5
X-15.989 Y-74.514
Z1.683
Z0
X-15.87 Y-74.409
X-15.851 Y-74.383
X-15.843 Y-74.353
X-15.847 Y-74.321
X-15.863 Y-74.294
G3 X-16.106 Y-74.51 Z-0.061 I-0.121 J-0.108
X-15.863 Y-74.294 Z-0.122 I0.121 J0.108
X-16.106 Y-74.51 Z-0.183 I-0.121 J-0.108
X-15.863 Y-74.294 Z-0.244 I0.121 J0.108
X-16.106 Y-74.51 Z-0.306 I-0.121 J-0.108
X-15.863 Y-74.294 Z-0.367 I0.121 J0.108
X-16.106 Y-74.51 Z-0.428 I-0.121 J-0.108
X-15.863 Y-74.294 Z-0.489 I0.121 J0.108
X-16.106 Y-74.51 Z-0.55 I-0.121 J-0.108
X-15.863 Y-74.294 Z-0.611 I0.121 J0.108
X-16.106 Y-74.51 Z-0.672 I-0.121 J-0.108
X-15.863 Y-74.294 Z-0.733 I0.121 J0.108
X-16.106 Y-74.51 Z-0.794 I-0.121 J-0.108
X-15.863 Y-74.294 Z-0.856 I0.121 J0.108
X-16.106 Y-74.51 Z-0.917 I-0.121 J-0.108
X-15.863 Y-74.294 Z-0.978 I0.121 J0.108
X-16.106 Y-74.51 Z-1.039 I-0.121 J-0.108
X-15.863 Y-74.294 Z-1.1 I0.121 J0.108
X-16.106 Y-74.51 Z-1.161 I-0.121 J-0.108
X-15.863 Y-74.294 Z-1.222 I0.121 J0.108
X-16.106 Y-74.51 Z-1.283 I-0.121 J-0.108
X-15.863 Y-74.294 Z-1.344 I0.121 J0.108
X-16.106 Y-74.51 Z-1.406 I-0.121 J-0.108
X-15.863 Y-74.294 Z-1.467 I0.121 J0.108
X-16.106 Y-74.51 Z-1.528 I-0.121 J-0.108
X-15.863 Y-74.294 Z-1.589 I0.121 J0.108
X-16.106 Y-74.51 Z-1.65 I-0.121 J-0.108
X-15.863 Y-74.294 Z-1.711 I0.121 J0.108
X-16.106 Y-74.51 Z-1.772 I-0.121 J-0.108
X-15.863 Y-74.294 Z-1.833 I0.121 J0.108
X-16.106 Y-74.51 Z-1.894 I-0.121 J-0.108
X-15.863 Y-74.294 Z-1.956 I0.121 J0.108
X-16.106 Y-74.51 Z-2.017 I-0.121 J-0.108
X-15.863 Y-74.294 Z-2.078 I0.121 J0.108
X-16.106 Y-74.51 Z-2.139 I-0.121 J-0.108
X-15.863 Y-74.294 Z-2.2 I0.121 J0.108
X-16.106 Y-74.51 Z-2.261 I-0.121 J-0.108
X-15.863 Y-74.294 Z-2.322 I0.121 J0.108
X-16.106 Y-74.51 Z-2.383 I-0.121 J-0.108
X-15.863 Y-74.294 Z-2.444 I0.121 J0.108
X-16.106 Y-74.51 Z-2.506 I-0.121 J-0.108
X-15.863 Y-74.294 Z-2.567 I0.121 J0.108
X-16.106 Y-74.51 Z-2.628 I-0.121 J-0.108
X-15.863 Y-74.294 Z-2.689 I0.121 J0.108
X-16.106 Y-74.51 Z-2.75 I-0.121 J-0.108
X-15.863 Y-74.294 Z-2.811 I0.121 J0.108
X-16.106 Y-74.51 Z-2.872 I-0.121 J-0.108
X-15.863 Y-74.294 Z-2.933 I0.121 J0.108
X-16.106 Y-74.51 Z-2.994 I-0.121 J-0.108
X-15.863 Y-74.294 Z-3.056 I0.121 J0.108
X-16.106 Y-74.51 Z-3.117 I-0.121 J-0.108
X-15.863 Y-74.294 Z-3.178 I0.121 J0.108
X-16.106 Y-74.51 Z-3.239 I-0.121 J-0.108
X-15.863 Y-74.294 Z-3.3 I0.121 J0.108
X-16.106 Y-74.51 Z-3.361 I-0.121 J-0.108
X-15.863 Y-74.294 Z-3.422 I0.121 J0.108
X-16.106 Y-74.51 Z-3.483 I-0.121 J-0.108
X-15.863 Y-74.294 Z-3.544 I0.121 J0.108
X-16.106 Y-74.51 Z-3.606 I-0.121 J-0.108
X-15.863 Y-74.294 Z-3.667 I0.121 J0.108
X-16.106 Y-74.51 Z-3.728 I-0.121 J-0.108
X-15.863 Y-74.294 Z-3.789 I0.121 J0.108
X-16.106 Y-74.51 Z-3.85 I-0.121 J-0.108
X-15.863 Y-74.294 Z-3.911 I0.121 J0.108
X-16.106 Y-74.51 Z-3.972 I-0.121 J-0.108
X-15.863 Y-74.294 Z-4.033 I0.121 J0.108
X-16.106 Y-74.51 Z-4.094 I-0.121 J-0.108
X-15.863 Y-74.294 Z-4.156 I0.121 J0.108
X-16.106 Y-74.51 Z-4.217 I-0.121 J-0.108
X-15.863 Y-74.294 Z-4.278 I0.121 J0.108
X-16.106 Y-74.51 Z-4.339 I-0.121 J-0.108
X-15.863 Y-74.294 Z-4.4 I0.121 J0.108
X-16.106 Y-74.51 Z-4.461 I-0.121 J-0.108
X-15.863 Y-74.294 Z-4.522 I0.121 J0.108
X-16.106 Y-74.51 Z-4.583 I-0.121 J-0.108
X-15.863 Y-74.294 Z-4.644 I0.121 J0.108
X-16.106 Y-74.51 Z-4.706 I-0.121 J-0.108
X-15.863 Y-74.294 Z-4.767 I0.121 J0.108
X-16.106 Y-74.51 Z-4.828 I-0.121 J-0.108
X-15.863 Y-74.294 Z-4.889 I0.121 J0.108
X-16.106 Y-74.51 Z-4.95 I-0.121 J-0.108
X-15.863 Y-74.294 Z-5.011 I0.121 J0.108
X-16.106 Y-74.51 Z-5.072 I-0.121 J-0.108
X-15.863 Y-74.294 Z-5.133 I0.121 J0.108
X-16.106 Y-74.51 Z-5.194 I-0.121 J-0.108
X-15.863 Y-74.294 Z-5.256 I0.121 J0.108
X-16.106 Y-74.51 Z-5.317 I-0.121 J-0.108
X-15.863 Y-74.294 Z-5.378 I0.121 J0.108
X-16.106 Y-74.51 Z-5.439 I-0.121 J-0.108
X-15.863 Y-74.294 Z-5.5 I0.121 J0.108
X-16.106 Y-74.51 Z-5.561 I-0.121 J-0.108
X-15.863 Y-74.294 Z-5.622 I0.121 J0.108
X-16.106 Y-74.51 Z-5.683 I-0.121 J-0.108
X-15.863 Y-74.294 Z-5.744 I0.121 J0.108
X-16.106 Y-74.51 Z-5.806 I-0.121 J-0.108
X-15.863 Y-74.294 Z-5.867 I0.121 J0.108
X-16.106 Y-74.51 Z-5.928 I-0.121 J-0.108
X-15.863 Y-74.294 Z-5.989 I0.121 J0.108
X-16.106 Y-74.51 Z-6.05 I-0.121 J-0.108
X-15.863 Y-74.294 Z-6.111 I0.121 J0.108
X-16.106 Y-74.51 Z-6.172 I-0.121 J-0.108
X-15.863 Y-74.294 Z-6.233 I0.121 J0.108
X-16.106 Y-74.51 Z-6.294 I-0.121 J-0.108
X-15.863 Y-74.294 Z-6.356 I0.121 J0.108
X-16.106 Y-74.51 Z-6.417 I-0.121 J-0.108
X-15.863 Y-74.294 Z-6.478 I0.121 J0.108
X-16.106 Y-74.51 Z-6.539 I-0.121 J-0.108
X-15.863 Y-74.294 Z-6.6 I0.121 J0.108
X-16.106 Y-74.51 Z-6.661 I-0.121 J-0.108
X-15.863 Y-74.294 Z-6.722 I0.121 J0.108
X-16.106 Y-74.51 Z-6.783 I-0.121 J-0.108
X-15.863 Y-74.294 Z-6.844 I0.121 J0.108
X-16.106 Y-74.51 Z-6.906 I-0.121 J-0.108
X-15.863 Y-74.294 Z-6.967 I0.121 J0.108
X-16.106 Y-74.51 Z-7.028 I-0.121 J-0.108
X-15.863 Y-74.294 Z-7.089 I0.121 J0.108
X-16.106 Y-74.51 Z-7.15 I-0.121 J-0.108
X-15.863 Y-74.294 Z-7.211 I0.121 J0.108
X-16.106 Y-74.51 Z-7.272 I-0.121 J-0.108
X-15.863 Y-74.294 Z-7.333 I0.121 J0.108
X-16.106 Y-74.51 Z-7.394 I-0.121 J-0.108
X-15.863 Y-74.294 Z-7.456 I0.121 J0.108
X-16.106 Y-74.51 Z-7.517 I-0.121 J-0.108
X-15.863 Y-74.294 Z-7.578 I0.121 J0.108
X-16.106 Y-74.51 Z-7.639 I-0.121 J-0.108
X-15.863 Y-74.294 Z-7.7 I0.121 J0.108
X-16.106 Y-74.51 Z-7.761 I-0.121 J-0.108
X-15.863 Y-74.294 Z-7.822 I0.121 J0.108
X-16.106 Y-74.51 Z-7.883 I-0.121 J-0.108
X-15.863 Y-74.294 Z-7.944 I0.121 J0.108
X-16.106 Y-74.51 Z-8.006 I-0.121 J-0.108
X-15.863 Y-74.294 Z-8.067 I0.121 J0.108
X-16.106 Y-74.51 Z-8.128 I-0.121 J-0.108
X-15.863 Y-74.294 Z-8.189 I0.121 J0.108
X-16.106 Y-74.51 Z-8.25 I-0.121 J-0.108
X-15.824 Y-74.377 Z-8.3 I0.121 J0.108
X-16.146 Y-74.427 I-0.161 J-0.025
X-15.824 Y-74.377 I0.161 J0.025
G1 X-15.835 Y-74.347
X-15.857 Y-74.324
X-15.885 Y-74.31
X-15.917 Y-74.309
X-16.074 Y-74.333
Z5
X-37.064 Y-73.564
Z2
Z0.317
X-37.058 Y-73.559 Z0.247
X-37.04 Y-73.543 Z0.18
X-37.012 Y-73.518 Z0.12
X-36.975 Y-73.485 Z0.069
X-36.93 Y-73.445 Z0.031
X-36.879 Y-73.4 Z0.008
X-36.827 Y-73.353 Z0
X-36.708 Y-73.248
G3 X-36.681 Y-72.8 I-0.211 J0.237
X-40.289 Y-76.004 Z-0.14 I-1.804 J-1.602
X-36.681 Y-72.8 Z-0.279 I1.804 J1.602
X-40.289 Y-76.004 Z-0.419 I-1.804 J-1.602
X-36.681 Y-72.8 Z-0.559 I1.804 J1.602
X-40.289 Y-76.004 Z-0.698 I-1.804 J-1.602
X-36.681 Y-72.8 Z-0.838 I1.804 J1.602
X-40.289 Y-76.004 Z-0.978 I-1.804 J-1.602
X-36.681 Y-72.8 Z-1.117 I1.804 J1.602
X-40.289 Y-76.004 Z-1.257 I-1.804 J-1.602
X-36.681 Y-72.8 Z-1.397 I1.804 J1.602
X-40.289 Y-76.004 Z-1.537 I-1.804 J-1.602
X-36.681 Y-72.8 Z-1.676 I1.804 J1.602
X-40.289 Y-76.004 Z-1.816 I-1.804 J-1.602
X-36.681 Y-72.8 Z-1.956 I1.804 J1.602
X-40.289 Y-76.004 Z-2.095 I-1.804 J-1.602
X-36.681 Y-72.8 Z-2.235 I1.804 J1.602
X-40.289 Y-76.004 Z-2.375 I-1.804 J-1.602
X-36.681 Y-72.8 Z-2.514 I1.804 J1.602
X-40.289 Y-76.004 Z-2.654 I-1.804 J-1.602
X-36.681 Y-72.8 Z-2.794 I1.804 J1.602
X-40.289 Y-76.004 Z-2.933 I-1.804 J-1.602
X-36.681 Y-72.8 Z-3.073 I1.804 J1.602
X-40.289 Y-76.004 Z-3.213 I-1.804 J-1.602
X-36.681 Y-72.8 Z-3.352 I1.804 J1.602
X-40.289 Y-76.004 Z-3.492 I-1.804 J-1.602
X-36.681 Y-72.8 Z-3.632 I1.804 J1.602
X-40.289 Y-76.004 Z-3.771 I-1.804 J-1.602
X-36.681 Y-72.8 Z-3.911 I1.804 J1.602
X-40.289 Y-76.004 Z-4.051 I-1.804 J-1.602
X-36.681 Y-72.8 Z-4.19 I1.804 J1.602
X-40.289 Y-76.004 Z-4.33 I-1.804 J-1.602
X-36.681 Y-72.8 Z-4.47 I1.804 J1.602
X-40.289 Y-76.004 Z-4.61 I-1.804 J-1.602
X-36.681 Y-72.8 Z-4.749 I1.804 J1.602
X-40.289 Y-76.004 Z-4.889 I-1.804 J-1.602
X-36.681 Y-72.8 Z-5.029 I1.804 J1.602
X-40.289 Y-76.004 Z-5.168 I-1.804 J-1.602
X-36.681 Y-72.8 Z-5.308 I1.804 J1.602
X-40.289 Y-76.004 Z-5.448 I-1.804 J-1.602
X-36.681 Y-72.8 Z-5.587 I1.804 J1.602
X-40.289 Y-76.004 Z-5.727 I-1.804 J-1.602
X-36.681 Y-72.8 Z-5.867 I1.804 J1.602
X-40.289 Y-76.004 Z-6.006 I-1.804 J-1.602
X-36.681 Y-72.8 Z-6.146 I1.804 J1.602
X-40.289 Y-76.004 Z-6.286 I-1.804 J-1.602
X-36.681 Y-72.8 Z-6.425 I1.804 J1.602
X-40.289 Y-76.004 Z-6.565 I-1.804 J-1.602
X-36.681 Y-72.8 Z-6.705 I1.804 J1.602
X-40.289 Y-76.004 Z-6.844 I-1.804 J-1.602
X-36.681 Y-72.8 Z-6.984 I1.804 J1.602
X-40.289 Y-76.004 Z-7.124 I-1.804 J-1.602
X-36.681 Y-72.8 Z-7.264 I1.804 J1.602
X-40.289 Y-76.004 Z-7.403 I-1.804 J-1.602
X-36.681 Y-72.8 Z-7.543 I1.804 J1.602
X-40.289 Y-76.004 Z-7.683 I-1.804 J-1.602
X-36.681 Y-72.8 Z-7.822 I1.804 J1.602
X-40.289 Y-76.004 Z-7.962 I-1.804 J-1.602
X-36.681 Y-72.8 Z-8.102 I1.804 J1.602
X-40.289 Y-76.004 Z-8.241 I-1.804 J-1.602
X-37.38 Y-76.546 Z-8.3 I1.804 J1.602
X-39.59 Y-72.257 I-1.105 J2.145
X-37.38 Y-76.546 I1.105 J-2.145
X-37.243 Y-76.119 I-0.145 J0.282
G1 X-37.316 Y-75.978
X-37.348 Y-75.915 Z-8.292
X-37.379 Y-75.855 Z-8.269
X-37.407 Y-75.802 Z-8.231
X-37.43 Y-75.757 Z-8.18
X-37.447 Y-75.723 Z-8.12
X-37.458 Y-75.702 Z-8.053
X-37.461 Y-75.695 Z-7.983
Z5
X-60.989 Y-74.514
Z1.683
Z0
X-60.87 Y-74.409
X-60.851 Y-74.383
X-60.843 Y-74.353
X-60.847 Y-74.321
X-60.863 Y-74.294
G3 X-61.106 Y-74.51 Z-0.061 I-0.121 J-0.108
X-60.863 Y-74.294 Z-0.122 I0.121 J0.108
X-61.106 Y-74.51 Z-0.183 I-0.121 J-0.108
X-60.863 Y-74.294 Z-0.244 I0.121 J0.108
X-61.106 Y-74.51 Z-0.306 I-0.121 J-0.108
X-60.863 Y-74.294 Z-0.367 I0.121 J0.108
X-61.106 Y-74.51 Z-0.428 I-0.121 J-0.108
X-60.863 Y-74.294 Z-0.489 I0.121 J0.108
X-61.106 Y-74.51 Z-0.55 I-0.121 J-0.108
X-60.863 Y-74.294 Z-0.611 I0.121 J0.108
X-61.106 Y-74.51 Z-0.672 I-0.121 J-0.108
X-60.863 Y-74.294 Z-0.733 I0.121 J0.108
X-61.106 Y-74.51 Z-0.794 I-0.121 J-0.108
X-60.863 Y-74.294 Z-0.856 I0.121 J0.108
X-61.106 Y-74.51 Z-0.917 I-0.121 J-0.108
X-60.863 Y-74.294 Z-0.978 I0.121 J0.108
X-61.106 Y-74.51 Z-1.039 I-0.121 J-0.108
X-60.863 Y-74.294 Z-1.1 I0.121 J0.108
X-61.106 Y-74.51 Z-1.161 I-0.121 J-0.108
X-60.863 Y-74.294 Z-1.222 I0.121 J0.108
X-61.106 Y-74.51 Z-1.283 I-0.121 J-0.108
X-60.863 Y-74.294 Z-1.344 I0.121 J0.108
X-61.106 Y-74.51 Z-1.406 I-0.121 J-0.108
X-60.863 Y-74.294 Z-1.467 I0.121 J0.108
X-61.106 Y-74.51 Z-1.528 I-0.121 J-0.108
X-60.863 Y-74.294 Z-1.589 I0.121 J0.108
X-61.106 Y-74.51 Z-1.65 I-0.121 J-0.108
X-60.863 Y-74.294 Z-1.711 I0.121 J0.108
X-61.106 Y-74.51 Z-1.772 I-0.121 J-0.108
X-60.863 Y-74.294 Z-1.833 I0.121 J0.108
X-61.106 Y-74.51 Z-1.894 I-0.121 J-0.108
X-60.863 Y-74.294 Z-1.956 I0.121 J0.108
X-61.106 Y-74.51 Z-2.017 I-0.121 J-0.108
X-60.863 Y-74.294 Z-2.078 I0.121 J0.108
X-61.106 Y-74.51 Z-2.139 I-0.121 J-0.108
X-60.863 Y-74.294 Z-2.2 I0.121 J0.108
X-61.106 Y-74.51 Z-2.261 I-0.121 J-0.108
X-60.863 Y-74.294 Z-2.322 I0.121 J0.108
X-61.106 Y-74.51 Z-2.383 I-0.121 J-0.108
X-60.863 Y-74.294 Z-2.444 I0.121 J0.108
X-61.106 Y-74.51 Z-2.506 I-0.121 J-0.108
X-60.863 Y-74.294 Z-2.567 I0.121 J0.108
X-61.106 Y-74.51 Z-2.628 I-0.121 J-0.108
X-60.863 Y-74.294 Z-2.689 I0.121 J0.108
X-61.106 Y-74.51 Z-2.75 I-0.121 J-0.108
X-60.863 Y-74.294 Z-2.811 I0.121 J0.108
X-61.106 Y-74.51 Z-2.872 I-0.121 J-0.108
X-60.863 Y-74.294 Z-2.933 I0.121 J0.108
X-61.106 Y-74.51 Z-2.994 I-0.121 J-0.108
X-60.863 Y-74.294 Z-3.056 I0.121 J0.108
X-61.106 Y-74.51 Z-3.117 I-0.121 J-0.108
X-60.863 Y-74.294 Z-3.178 I0.121 J0.108
X-61.106 Y-74.51 Z-3.239 I-0.121 J-0.108
X-60.863 Y-74.294 Z-3.3 I0.121 J0.108
X-61.106 Y-74.51 Z-3.361 I-0.121 J-0.108
X-60.863 Y-74.294 Z-3.422 I0.121 J0.108
X-61.106 Y-74.51 Z-3.483 I-0.121 J-0.108
X-60.863 Y-74.294 Z-3.544 I0.121 J0.108
X-61.106 Y-74.51 Z-3.606 I-0.121 J-0.108
X-60.863 Y-74.294 Z-3.667 I0.121 J0.108
X-61.106 Y-74.51 Z-3.728 I-0.121 J-0.108
X-60.863 Y-74.294 Z-3.789 I0.121 J0.108
X-61.106 Y-74.51 Z-3.85 I-0.121 J-0.108
X-60.863 Y-74.294 Z-3.911 I0.121 J0.108
X-61.106 Y-74.51 Z-3.972 I-0.121 J-0.108
X-60.863 Y-74.294 Z-4.033 I0.121 J0.108
X-61.106 Y-74.51 Z-4.094 I-0.121 J-0.108
X-60.863 Y-74.294 Z-4.156 I0.121 J0.108
X-61.106 Y-74.51 Z-4.217 I-0.121 J-0.108
X-60.863 Y-74.294 Z-4.278 I0.121 J0.108
X-61.106 Y-74.51 Z-4.339 I-0.121 J-0.108
X-60.863 Y-74.294 Z-4.4 I0.121 J0.108
X-61.106 Y-74.51 Z-4.461 I-0.121 J-0.108
X-60.863 Y-74.294 Z-4.522 I0.121 J0.108
X-61.106 Y-74.51 Z-4.583 I-0.121 J-0.108
X-60.863 Y-74.294 Z-4.644 I0.121 J0.108
X-61.106 Y-74.51 Z-4.706 I-0.121 J-0.108
X-60.863 Y-74.294 Z-4.767 I0.121 J0.108
X-61.106 Y-74.51 Z-4.828 I-0.121 J-0.108
X-60.863 Y-74.294 Z-4.889 I0.121 J0.108
X-61.106 Y-74.51 Z-4.95 I-0.121 J-0.108
X-60.863 Y-74.294 Z-5.011 I0.121 J0.108
X-61.106 Y-74.51 Z-5.072 I-0.121 J-0.108
X-60.863 Y-74.294 Z-5.133 I0.121 J0.108
X-61.106 Y-74.51 Z-5.194 I-0.121 J-0.108
X-60.863 Y-74.294 Z-5.256 I0.121 J0.108
X-61.106 Y-74.51 Z-5.317 I-0.121 J-0.108
X-60.863 Y-74.294 Z-5.378 I0.121 J0.108
X-61.106 Y-74.51 Z-5.439 I-0.121 J-0.108
X-60.863 Y-74.294 Z-5.5 I0.121 J0.108
X-61.106 Y-74.51 Z-5.561 I-0.121 J-0.108
X-60.863 Y-74.294 Z-5.622 I0.121 J0.108
X-61.106 Y-74.51 Z-5.683 I-0.121 J-0.108
X-60.863 Y-74.294 Z-5.744 I0.121 J0.108
X-61.106 Y-74.51 Z-5.806 I-0.121 J-0.108
X-60.863 Y-74.294 Z-5.867 I0.121 J0.108
X-61.106 Y-74.51 Z-5.928 I-0.121 J-0.108
X-60.863 Y-74.294 Z-5.989 I0.121 J0.108
X-61.106 Y-74.51 Z-6.05 I-0.121 J-0.108
X-60.863 Y-74.294 Z-6.111 I0.121 J0.108
X-61.106 Y-74.51 Z-6.172 I-0.121 J-0.108
X-60.863 Y-74.294 Z-6.233 I0.121 J0.108
X-61.106 Y-74.51 Z-6.294 I-0.121 J-0.108
X-60.863 Y-74.294 Z-6.356 I0.121 J0.108
X-61.106 Y-74.51 Z-6.417 I-0.121 J-0.108
X-60.863 Y-74.294 Z-6.478 I0.121 J0.108
X-61.106 Y-74.51 Z-6.539 I-0.121 J-0.108
X-60.863 Y-74.294 Z-6.6 I0.121 J0.108
X-61.106 Y-74.51 Z-6.661 I-0.121 J-0.108
X-60.863 Y-74.294 Z-6.722 I0.121 J0.108
X-61.106 Y-74.51 Z-6.783 I-0.121 J-0.108
X-60.863 Y-74.294 Z-6.844 I0.121 J0.108
X-61.106 Y-74.51 Z-6.906 I-0.121 J-0.108
X-60.863 Y-74.294 Z-6.967 I0.121 J0.108
X-61.106 Y-74.51 Z-7.028 I-0.121 J-0.108
X-60.863 Y-74.294 Z-7.089 I0.121 J0.108
X-61.106 Y-74.51 Z-7.15 I-0.121 J-0.108
X-60.863 Y-74.294 Z-7.211 I0.121 J0.108
X-61.106 Y-74.51 Z-7.272 I-0.121 J-0.108
X-60.863 Y-74.294 Z-7.333 I0.121 J0.108
X-61.106 Y-74.51 Z-7.394 I-0.121 J-0.108
X-60.863 Y-74.294 Z-7.456 I0.121 J0.108
X-61.106 Y-74.51 Z-7.517 I-0.121 J-0.108
X-60.863 Y-74.294 Z-7.578 I0.121 J0.108
X-61.106 Y-74.51 Z-7.639 I-0.121 J-0.108
X-60.863 Y-74.294 Z-7.7 I0.121 J0.108
X-61.106 Y-74.51 Z-7.761 I-0.121 J-0.108
X-60.863 Y-74.294 Z-7.822 I0.121 J0.108
X-61.106 Y-74.51 Z-7.883 I-0.121 J-0.108
X-60.863 Y-74.294 Z-7.944 I0.121 J0.108
X-61.106 Y-74.51 Z-8.006 I-0.121 J-0.108
X-60.863 Y-74.294 Z-8.067 I0.121 J0.108
X-61.106 Y-74.51 Z-8.128 I-0.121 J-0.108
X-60.863 Y-74.294 Z-8.189 I0.121 J0.108
X-61.106 Y-74.51 Z-8.25 I-0.121 J-0.108
X-60.824 Y-74.377 Z-8.3 I0.121 J0.108
X-61.146 Y-74.427 I-0.161 J-0.025
X-60.824 Y-74.377 I0.161 J0.025
G1 X-60.835 Y-74.347
X-60.857 Y-74.324
X-60.885 Y-74.31
X-60.917 Y-74.309
X-61.074 Y-74.333
Z5
X-31.158 Y-46.558
Z1.683
Z0
X-31.277 Y-46.664
X-31.296 Y-46.689
X-31.304 Y-46.72
X-31.299 Y-46.751
X-31.283 Y-46.778
G3 X-31.04 Y-46.563 Z-0.061 I0.121 J0.108
X-31.283 Y-46.778 Z-0.122 I-0.121 J-0.108
X-31.04 Y-46.563 Z-0.183 I0.121 J0.108
X-31.283 Y-46.778 Z-0.244 I-0.121 J-0.108
X-31.04 Y-46.563 Z-0.306 I0.121 J0.108
X-31.283 Y-46.778 Z-0.367 I-0.121 J-0.108
X-31.04 Y-46.563 Z-0.428 I0.121 J0.108
X-31.283 Y-46.778 Z-0.489 I-0.121 J-0.108
X-31.04 Y-46.563 Z-0.55 I0.121 J0.108
X-31.283 Y-46.778 Z-0.611 I-0.121 J-0.108
X-31.04 Y-46.563 Z-0.672 I0.121 J0.108
X-31.283 Y-46.778 Z-0.733 I-0.121 J-0.108
X-31.04 Y-46.563 Z-0.794 I0.121 J0.108
X-31.283 Y-46.778 Z-0.856 I-0.121 J-0.108
X-31.04 Y-46.563 Z-0.917 I0.121 J0.108
X-31.283 Y-46.778 Z-0.978 I-0.121 J-0.108
X-31.04 Y-46.563 Z-1.039 I0.121 J0.108
X-31.283 Y-46.778 Z-1.1 I-0.121 J-0.108
X-31.04 Y-46.563 Z-1.161 I0.121 J0.108
X-31.283 Y-46.778 Z-1.222 I-0.121 J-0.108
X-31.04 Y-46.563 Z-1.283 I0.121 J0.108
X-31.283 Y-46.778 Z-1.344 I-0.121 J-0.108
X-31.04 Y-46.563 Z-1.406 I0.121 J0.108
X-31.283 Y-46.778 Z-1.467 I-0.121 J-0.108
X-31.04 Y-46.563 Z-1.528 I0.121 J0.108
X-31.283 Y-46.778 Z-1.589 I-0.121 J-0.108
X-31.04 Y-46.563 Z-1.65 I0.121 J0.108
X-31.283 Y-46.778 Z-1.711 I-0.121 J-0.108
X-31.04 Y-46.563 Z-1.772 I0.121 J0.108
X-31.283 Y-46.778 Z-1.833 I-0.121 J-0.108
X-31.04 Y-46.563 Z-1.894 I0.121 J0.108
X-31.283 Y-46.778 Z-1.956 I-0.121 J-0.108
X-31.04 Y-46.563 Z-2.017 I0.121 J0.108
X-31.283 Y-46.778 Z-2.078 I-0.121 J-0.108
X-31.04 Y-46.563 Z-2.139 I0.121 J0.108
X-31.283 Y-46.778 Z-2.2 I-0.121 J-0.108
X-31.04 Y-46.563 Z-2.261 I0.121 J0.108
X-31.283 Y-46.778 Z-2.322 I-0.121 J-0.108
X-31.04 Y-46.563 Z-2.383 I0.121 J0.108
X-31.283 Y-46.778 Z-2.444 I-0.121 J-0.108
X-31.04 Y-46.563 Z-2.506 I0.121 J0.108
X-31.283 Y-46.778 Z-2.567 I-0.121 J-0.108
X-31.04 Y-46.563 Z-2.628 I0.121 J0.108
X-31.283 Y-46.778 Z-2.689 I-0.121 J-0.108
X-31.04 Y-46.563 Z-2.75 I0.121 J0.108
X-31.283 Y-46.778 Z-2.811 I-0.121 J-0.108
X-31.04 Y-46.563 Z-2.872 I0.121 J0.108
X-31.283 Y-46.778 Z-2.933 I-0.121 J-0.108
X-31.04 Y-46.563 Z-2.994 I0.121 J0.108
X-31.283 Y-46.778 Z-3.056 I-0.121 J-0.108
X-31.04 Y-46.563 Z-3.117 I0.121 J0.108
X-31.283 Y-46.778 Z-3.178 I-0.121 J-0.108
X-31.04 Y-46.563 Z-3.239 I0.121 J0.108
X-31.283 Y-46.778 Z-3.3 I-0.121 J-0.108
X-31.04 Y-46.563 Z-3.361 I0.121 J0.108
X-31.283 Y-46.778 Z-3.422 I-0.121 J-0.108
X-31.04 Y-46.563 Z-3.483 I0.121 J0.108
X-31.283 Y-46.778 Z-3.544 I-0.121 J-0.108
X-31.04 Y-46.563 Z-3.606 I0.121 J0.108
X-31.283 Y-46.778 Z-3.667 I-0.121 J-0.108
X-31.04 Y-46.563 Z-3.728 I0.121 J0.108
X-31.283 Y-46.778 Z-3.789 I-0.121 J-0.108
X-31.04 Y-46.563 Z-3.85 I0.121 J0.108
X-31.283 Y-46.778 Z-3.911 I-0.121 J-0.108
X-31.04 Y-46.563 Z-3.972 I0.121 J0.108
X-31.283 Y-46.778 Z-4.033 I-0.121 J-0.108
X-31.04 Y-46.563 Z-4.094 I0.121 J0.108
X-31.283 Y-46.778 Z-4.156 I-0.121 J-0.108
X-31.04 Y-46.563 Z-4.217 I0.121 J0.108
X-31.283 Y-46.778 Z-4.278 I-0.121 J-0.108
X-31.04 Y-46.563 Z-4.339 I0.121 J0.108
X-31.283 Y-46.778 Z-4.4 I-0.121 J-0.108
X-31.04 Y-46.563 Z-4.461 I0.121 J0.108
X-31.283 Y-46.778 Z-4.522 I-0.121 J-0.108
X-31.04 Y-46.563 Z-4.583 I0.121 J0.108
X-31.283 Y-46.778 Z-4.644 I-0.121 J-0.108
X-31.04 Y-46.563 Z-4.706 I0.121 J0.108
X-31.283 Y-46.778 Z-4.767 I-0.121 J-0.108
X-31.04 Y-46.563 Z-4.828 I0.121 J0.108
X-31.283 Y-46.778 Z-4.889 I-0.121 J-0.108
X-31.04 Y-46.563 Z-4.95 I0.121 J0.108
X-31.283 Y-46.778 Z-5.011 I-0.121 J-0.108
X-31.04 Y-46.563 Z-5.072 I0.121 J0.108
X-31.283 Y-46.778 Z-5.133 I-0.121 J-0.108
X-31.04 Y-46.563 Z-5.194 I0.121 J0.108
X-31.283 Y-46.778 Z-5.256 I-0.121 J-0.108
X-31.04 Y-46.563 Z-5.317 I0.121 J0.108
X-31.283 Y-46.778 Z-5.378 I-0.121 J-0.108
X-31.04 Y-46.563 Z-5.439 I0.121 J0.108
X-31.283 Y-46.778 Z-5.5 I-0.121 J-0.108
X-31.04 Y-46.563 Z-5.561 I0.121 J0.108
X-31.283 Y-46.778 Z-5.622 I-0.121 J-0.108
X-31.04 Y-46.563 Z-5.683 I0.121 J0.108
X-31.283 Y-46.778 Z-5.744 I-0.121 J-0.108
X-31.04 Y-46.563 Z-5.806 I0.121 J0.108
X-31.283 Y-46.778 Z-5.867 I-0.121 J-0.108
X-31.04 Y-46.563 Z-5.928 I0.121 J0.108
X-31.283 Y-46.778 Z-5.989 I-0.121 J-0.108
X-31.04 Y-46.563 Z-6.05 I0.121 J0.108
X-31.283 Y-46.778 Z-6.111 I-0.121 J-0.108
X-31.04 Y-46.563 Z-6.172 I0.121 J0.108
X-31.283 Y-46.778 Z-6.233 I-0.121 J-0.108
X-31.04 Y-46.563 Z-6.294 I0.121 J0.108
X-31.283 Y-46.778 Z-6.356 I-0.121 J-0.108
X-31.04 Y-46.563 Z-6.417 I0.121 J0.108
X-31.283 Y-46.778 Z-6.478 I-0.121 J-0.108
X-31.04 Y-46.563 Z-6.539 I0.121 J0.108
X-31.283 Y-46.778 Z-6.6 I-0.121 J-0.108
X-31.04 Y-46.563 Z-6.661 I0.121 J0.108
X-31.283 Y-46.778 Z-6.722 I-0.121 J-0.108
X-31.04 Y-46.563 Z-6.783 I0.121 J0.108
X-31.283 Y-46.778 Z-6.844 I-0.121 J-0.108
X-31.04 Y-46.563 Z-6.906 I0.121 J0.108
X-31.283 Y-46.778 Z-6.967 I-0.121 J-0.108
X-31.04 Y-46.563 Z-7.028 I0.121 J0.108
X-31.283 Y-46.778 Z-7.089 I-0.121 J-0.108
X-31.04 Y-46.563 Z-7.15 I0.121 J0.108
X-31.283 Y-46.778 Z-7.211 I-0.121 J-0.108
X-31.04 Y-46.563 Z-7.272 I0.121 J0.108
X-31.283 Y-46.778 Z-7.333 I-0.121 J-0.108
X-31.04 Y-46.563 Z-7.394 I0.121 J0.108
X-31.283 Y-46.778 Z-7.456 I-0.121 J-0.108
X-31.04 Y-46.563 Z-7.517 I0.121 J0.108
X-31.283 Y-46.778 Z-7.578 I-0.121 J-0.108
X-31.04 Y-46.563 Z-7.639 I0.121 J0.108
X-31.283 Y-46.778 Z-7.7 I-0.121 J-0.108
X-31.04 Y-46.563 Z-7.761 I0.121 J0.108
X-31.283 Y-46.778 Z-7.822 I-0.121 J-0.108
X-31.04 Y-46.563 Z-7.883 I0.121 J0.108
X-31.283 Y-46.778 Z-7.944 I-0.121 J-0.108
X-31.04 Y-46.563 Z-8.006 I0.121 J0.108
X-31.283 Y-46.778 Z-8.067 I-0.121 J-0.108
X-31.04 Y-46.563 Z-8.128 I0.121 J0.108
X-31.283 Y-46.778 Z-8.189 I-0.121 J-0.108
X-31.04 Y-46.563 Z-8.25 I0.121 J0.108
X-31.322 Y-46.695 Z-8.3 I-0.121 J-0.108
X-31.001 Y-46.646 I0.161 J0.025
X-31.322 Y-46.695 I-0.161 J-0.025
G1 X-31.312 Y-46.725
X-31.29 Y-46.748
X-31.261 Y-46.762
X-31.23 Y-46.763
X-31.073 Y-46.739
Z5
X-58.452 Y-47.831
Z1.683
Z0
X-58.571 Y-47.936
X-58.59 Y-47.961
X-58.598 Y-47.992
X-58.593 Y-48.023
X-58.577 Y-48.051
G3 X-58.334 Y-47.835 Z-0.061 I0.121 J0.108
X-58.577 Y-48.051 Z-0.122 I-0.121 J-0.108
X-58.334 Y-47.835 Z-0.183 I0.121 J0.108
X-58.577 Y-48.051 Z-0.244 I-0.121 J-0.108
X-58.334 Y-47.835 Z-0.306 I0.121 J0.108
X-58.577 Y-48.051 Z-0.367 I-0.121 J-0.108
X-58.334 Y-47.835 Z-0.428 I0.121 J0.108
X-58.577 Y-48.051 Z-0.489 I-0.121 J-0.108
X-58.334 Y-47.835 Z-0.55 I0.121 J0.108
X-58.577 Y-48.051 Z-0.611 I-0.121 J-0.108
X-58.334 Y-47.835 Z-0.672 I0.121 J0.108
X-58.577 Y-48.051 Z-0.733 I-0.121 J-0.108
X-58.334 Y-47.835 Z-0.794 I0.121 J0.108
X-58.577 Y-48.051 Z-0.856 I-0.121 J-0.108
X-58.334 Y-47.835 Z-0.917 I0.121 J0.108
X-58.577 Y-48.051 Z-0.978 I-0.121 J-0.108
X-58.334 Y-47.835 Z-1.039 I0.121 J0.108
X-58.577 Y-48.051 Z-1.1 I-0.121 J-0.108
X-58.334 Y-47.835 Z-1.161 I0.121 J0.108
X-58.577 Y-48.051 Z-1.222 I-0.121 J-0.108
X-58.334 Y-47.835 Z-1.283 I0.121 J0.108
X-58.577 Y-48.051 Z-1.344 I-0.121 J-0.108
X-58.334 Y-47.835 Z-1.406 I0.121 J0.108
X-58.577 Y-48.051 Z-1.467 I-0.121 J-0.108
X-58.334 Y-47.835 Z-1.528 I0.121 J0.108
X-58.577 Y-48.051 Z-1.589 I-0.121 J-0.108
X-58.334 Y-47.835 Z-1.65 I0.121 J0.108
X-58.577 Y-48.051 Z-1.711 I-0.121 J-0.108
X-58.334 Y-47.835 Z-1.772 I0.121 J0.108
X-58.577 Y-48.051 Z-1.833 I-0.121 J-0.108
X-58.334 Y-47.835 Z-1.894 I0.121 J0.108
X-58.577 Y-48.051 Z-1.956 I-0.121 J-0.108
X-58.334 Y-47.835 Z-2.017 I0.121 J0.108
X-58.577 Y-48.051 Z-2.078 I-0.121 J-0.108
X-58.334 Y-47.835 Z-2.139 I0.121 J0.108
X-58.577 Y-48.051 Z-2.2 I-0.121 J-0.108
X-58.334 Y-47.835 Z-2.261 I0.121 J0.108
X-58.577 Y-48.051 Z-2.322 I-0.121 J-0.108
X-58.334 Y-47.835 Z-2.383 I0.121 J0.108
X-58.577 Y-48.051 Z-2.444 I-0.121 J-0.108
X-58.334 Y-47.835 Z-2.506 I0.121 J0.108
X-58.577 Y-48.051 Z-2.567 I-0.121 J-0.108
X-58.334 Y-47.835 Z-2.628 I0.121 J0.108
X-58.577 Y-48.051 Z-2.689 I-0.121 J-0.108
X-58.334 Y-47.835 Z-2.75 I0.121 J0.108
X-58.577 Y-48.051 Z-2.811 I-0.121 J-0.108
X-58.334 Y-47.835 Z-2.872 I0.121 J0.108
X-58.577 Y-48.051 Z-2.933 I-0.121 J-0.108
X-58.334 Y-47.835 Z-2.994 I0.121 J0.108
X-58.577 Y-48.051 Z-3.056 I-0.121 J-0.108
X-58.334 Y-47.835 Z-3.117 I0.121 J0.108
X-58.577 Y-48.051 Z-3.178 I-0.121 J-0.108
X-58.334 Y-47.835 Z-3.239 I0.121 J0.108
X-58.577 Y-48.051 Z-3.3 I-0.121 J-0.108
X-58.334 Y-47.835 Z-3.361 I0.121 J0.108
X-58.577 Y-48.051 Z-3.422 I-0.121 J-0.108
X-58.334 Y-47.835 Z-3.483 I0.121 J0.108
X-58.577 Y-48.051 Z-3.544 I-0.121 J-0.108
X-58.334 Y-47.835 Z-3.606 I0.121 J0.108
X-58.577 Y-48.051 Z-3.667 I-0.121 J-0.108
X-58.334 Y-47.835 Z-3.728 I0.121 J0.108
X-58.577 Y-48.051 Z-3.789 I-0.121 J-0.108
X-58.334 Y-47.835 Z-3.85 I0.121 J0.108
X-58.577 Y-48.051 Z-3.911 I-0.121 J-0.108
X-58.334 Y-47.835 Z-3.972 I0.121 J0.108
X-58.577 Y-48.051 Z-4.033 I-0.121 J-0.108
X-58.334 Y-47.835 Z-4.094 I0.121 J0.108
X-58.577 Y-48.051 Z-4.156 I-0.121 J-0.108
X-58.334 Y-47.835 Z-4.217 I0.121 J0.108
X-58.577 Y-48.051 Z-4.278 I-0.121 J-0.108
X-58.334 Y-47.835 Z-4.339 I0.121 J0.108
X-58.577 Y-48.051 Z-4.4 I-0.121 J-0.108
X-58.334 Y-47.835 Z-4.461 I0.121 J0.108
X-58.577 Y-48.051 Z-4.522 I-0.121 J-0.108
X-58.334 Y-47.835 Z-4.583 I0.121 J0.108
X-58.577 Y-48.051 Z-4.644 I-0.121 J-0.108
X-58.334 Y-47.835 Z-4.706 I0.121 J0.108
X-58.577 Y-48.051 Z-4.767 I-0.121 J-0.108
X-58.334 Y-47.835 Z-4.828 I0.121 J0.108
X-58.577 Y-48.051 Z-4.889 I-0.121 J-0.108
X-58.334 Y-47.835 Z-4.95 I0.121 J0.108
X-58.577 Y-48.051 Z-5.011 I-0.121 J-0.108
X-58.334 Y-47.835 Z-5.072 I0.121 J0.108
X-58.577 Y-48.051 Z-5.133 I-0.121 J-0.108
X-58.334 Y-47.835 Z-5.194 I0.121 J0.108
X-58.577 Y-48.051 Z-5.256 I-0.121 J-0.108
X-58.334 Y-47.835 Z-5.317 I0.121 J0.108
X-58.577 Y-48.051 Z-5.378 I-0.121 J-0.108
X-58.334 Y-47.835 Z-5.439 I0.121 J0.108
X-58.577 Y-48.051 Z-5.5 I-0.121 J-0.108
X-58.334 Y-47.835 Z-5.561 I0.121 J0.108
X-58.577 Y-48.051 Z-5.622 I-0.121 J-0.108
X-58.334 Y-47.835 Z-5.683 I0.121 J0.108
X-58.577 Y-48.051 Z-5.744 I-0.121 J-0.108
X-58.334 Y-47.835 Z-5.806 I0.121 J0.108
X-58.577 Y-48.051 Z-5.867 I-0.121 J-0.108
X-58.334 Y-47.835 Z-5.928 I0.121 J0.108
X-58.577 Y-48.051 Z-5.989 I-0.121 J-0.108
X-58.334 Y-47.835 Z-6.05 I0.121 J0.108
X-58.577 Y-48.051 Z-6.111 I-0.121 J-0.108
X-58.334 Y-47.835 Z-6.172 I0.121 J0.108
X-58.577 Y-48.051 Z-6.233 I-0.121 J-0.108
X-58.334 Y-47.835 Z-6.294 I0.121 J0.108
X-58.577 Y-48.051 Z-6.356 I-0.121 J-0.108
X-58.334 Y-47.835 Z-6.417 I0.121 J0.108
X-58.577 Y-48.051 Z-6.478 I-0.121 J-0.108
X-58.334 Y-47.835 Z-6.539 I0.121 J0.108
X-58.577 Y-48.051 Z-6.6 I-0.121 J-0.108
X-58.334 Y-47.835 Z-6.661 I0.121 J0.108
X-58.577 Y-48.051 Z-6.722 I-0.121 J-0.108
X-58.334 Y-47.835 Z-6.783 I0.121 J0.108
X-58.577 Y-48.051 Z-6.844 I-0.121 J-0.108
X-58.334 Y-47.835 Z-6.906 I0.121 J0.108
X-58.577 Y-48.051 Z-6.967 I-0.121 J-0.108
X-58.334 Y-47.835 Z-7.028 I0.121 J0.108
X-58.577 Y-48.051 Z-7.089 I-0.121 J-0.108
X-58.334 Y-47.835 Z-7.15 I0.121 J0.108
X-58.577 Y-48.051 Z-7.211 I-0.121 J-0.108
X-58.334 Y-47.835 Z-7.272 I0.121 J0.108
X-58.577 Y-48.051 Z-7.333 I-0.121 J-0.108
X-58.334 Y-47.835 Z-7.394 I0.121 J0.108
X-58.577 Y-48.051 Z-7.456 I-0.121 J-0.108
X-58.334 Y-47.835 Z-7.517 I0.121 J0.108
X-58.577 Y-48.051 Z-7.578 I-0.121 J-0.108
X-58.334 Y-47.835 Z-7.639 I0.121 J0.108
X-58.577 Y-48.051 Z-7.7 I-0.121 J-0.108
X-58.334 Y-47.835 Z-7.761 I0.121 J0.108
X-58.577 Y-48.051 Z-7.822 I-0.121 J-0.108
X-58.334 Y-47.835 Z-7.883 I0.121 J0.108
X-58.577 Y-48.051 Z-7.944 I-0.121 J-0.108
X-58.334 Y-47.835 Z-8.006 I0.121 J0.108
X-58.577 Y-48.051 Z-8.067 I-0.121 J-0.108
X-58.334 Y-47.835 Z-8.128 I0.121 J0.108
X-58.577 Y-48.051 Z-8.189 I-0.121 J-0.108
X-58.334 Y-47.835 Z-8.25 I0.121 J0.108
X-58.617 Y-47.968 Z-8.3 I-0.121 J-0.108
X-58.295 Y-47.918 I0.161 J0.025
X-58.617 Y-47.968 I-0.161 J-0.025
G1 X-58.606 Y-47.998
X-58.584 Y-48.021
X-58.556 Y-48.034
X-58.524 Y-48.036
X-58.367 Y-48.011
Z5
X-59.754 Y-22.618
Z1.683
Z0
X-59.635 Y-22.513
X-59.616 Y-22.488
X-59.608 Y-22.457
X-59.612 Y-22.426
X-59.629 Y-22.398
G3 X-59.871 Y-22.614 Z-0.061 I-0.121 J-0.108
X-59.629 Y-22.398 Z-0.122 I0.121 J0.108
X-59.871 Y-22.614 Z-0.183 I-0.121 J-0.108
X-59.629 Y-22.398 Z-0.244 I0.121 J0.108
X-59.871 Y-22.614 Z-0.306 I-0.121 J-0.108
X-59.629 Y-22.398 Z-0.367 I0.121 J0.108
X-59.871 Y-22.614 Z-0.428 I-0.121 J-0.108
X-59.629 Y-22.398 Z-0.489 I0.121 J0.108
X-59.871 Y-22.614 Z-0.55 I-0.121 J-0.108
X-59.629 Y-22.398 Z-0.611 I0.121 J0.108
X-59.871 Y-22.614 Z-0.672 I-0.121 J-0.108
X-59.629 Y-22.398 Z-0.733 I0.121 J0.108
X-59.871 Y-22.614 Z-0.794 I-0.121 J-0.108
X-59.629 Y-22.398 Z-0.856 I0.121 J0.108
X-59.871 Y-22.614 Z-0.917 I-0.121 J-0.108
X-59.629 Y-22.398 Z-0.978 I0.121 J0.108
X-59.871 Y-22.614 Z-1.039 I-0.121 J-0.108
X-59.629 Y-22.398 Z-1.1 I0.121 J0.108
X-59.871 Y-22.614 Z-1.161 I-0.121 J-0.108
X-59.629 Y-22.398 Z-1.222 I0.121 J0.108
X-59.871 Y-22.614 Z-1.283 I-0.121 J-0.108
X-59.629 Y-22.398 Z-1.344 I0.121 J0.108
X-59.871 Y-22.614 Z-1.406 I-0.121 J-0.108
X-59.629 Y-22.398 Z-1.467 I0.121 J0.108
X-59.871 Y-22.614 Z-1.528 I-0.121 J-0.108
X-59.629 Y-22.398 Z-1.589 I0.121 J0.108
X-59.871 Y-22.614 Z-1.65 I-0.121 J-0.108
X-59.629 Y-22.398 Z-1.711 I0.121 J0.108
X-59.871 Y-22.614 Z-1.772 I-0.121 J-0.108
X-59.629 Y-22.398 Z-1.833 I0.121 J0.108
X-59.871 Y-22.614 Z-1.894 I-0.121 J-0.108
X-59.629 Y-22.398 Z-1.956 I0.121 J0.108
X-59.871 Y-22.614 Z-2.017 I-0.121 J-0.108
X-59.629 Y-22.398 Z-2.078 I0.121 J0.108
X-59.871 Y-22.614 Z-2.139 I-0.121 J-0.108
X-59.629 Y-22.398 Z-2.2 I0.121 J0.108
X-59.871 Y-22.614 Z-2.261 I-0.121 J-0.108
X-59.629 Y-22.398 Z-2.322 I0.121 J0.108
X-59.871 Y-22.614 Z-2.383 I-0.121 J-0.108
X-59.629 Y-22.398 Z-2.444 I0.121 J0.108
X-59.871 Y-22.614 Z-2.506 I-0.121 J-0.108
X-59.629 Y-22.398 Z-2.567 I0.121 J0.108
X-59.871 Y-22.614 Z-2.628 I-0.121 J-0.108
X-59.629 Y-22.398 Z-2.689 I0.121 J0.108
X-59.871 Y-22.614 Z-2.75 I-0.121 J-0.108
X-59.629 Y-22.398 Z-2.811 I0.121 J0.108
X-59.871 Y-22.614 Z-2.872 I-0.121 J-0.108
X-59.629 Y-22.398 Z-2.933 I0.121 J0.108
X-59.871 Y-22.614 Z-2.994 I-0.121 J-0.108
X-59.629 Y-22.398 Z-3.056 I0.121 J0.108
X-59.871 Y-22.614 Z-3.117 I-0.121 J-0.108
X-59.629 Y-22.398 Z-3.178 I0.121 J0.108
X-59.871 Y-22.614 Z-3.239 I-0.121 J-0.108
X-59.629 Y-22.398 Z-3.3 I0.121 J0.108
X-59.871 Y-22.614 Z-3.361 I-0.121 J-0.108
X-59.629 Y-22.398 Z-3.422 I0.121 J0.108
X-59.871 Y-22.614 Z-3.483 I-0.121 J-0.108
X-59.629 Y-22.398 Z-3.544 I0.121 J0.108
X-59.871 Y-22.614 Z-3.606 I-0.121 J-0.108
X-59.629 Y-22.398 Z-3.667 I0.121 J0.108
X-59.871 Y-22.614 Z-3.728 I-0.121 J-0.108
X-59.629 Y-22.398 Z-3.789 I0.121 J0.108
X-59.871 Y-22.614 Z-3.85 I-0.121 J-0.108
X-59.629 Y-22.398 Z-3.911 I0.121 J0.108
X-59.871 Y-22.614 Z-3.972 I-0.121 J-0.108
X-59.629 Y-22.398 Z-4.033 I0.121 J0.108
X-59.871 Y-22.614 Z-4.094 I-0.121 J-0.108
X-59.629 Y-22.398 Z-4.156 I0.121 J0.108
X-59.871 Y-22.614 Z-4.217 I-0.121 J-0.108
X-59.629 Y-22.398 Z-4.278 I0.121 J0.108
X-59.871 Y-22.614 Z-4.339 I-0.121 J-0.108
X-59.629 Y-22.398 Z-4.4 I0.121 J0.108
X-59.871 Y-22.614 Z-4.461 I-0.121 J-0.108
X-59.629 Y-22.398 Z-4.522 I0.121 J0.108
X-59.871 Y-22.614 Z-4.583 I-0.121 J-0.108
X-59.629 Y-22.398 Z-4.644 I0.121 J0.108
X-59.871 Y-22.614 Z-4.706 I-0.121 J-0.108
X-59.629 Y-22.398 Z-4.767 I0.121 J0.108
X-59.871 Y-22.614 Z-4.828 I-0.121 J-0.108
X-59.629 Y-22.398 Z-4.889 I0.121 J0.108
X-59.871 Y-22.614 Z-4.95 I-0.121 J-0.108
X-59.629 Y-22.398 Z-5.011 I0.121 J0.108
X-59.871 Y-22.614 Z-5.072 I-0.121 J-0.108
X-59.629 Y-22.398 Z-5.133 I0.121 J0.108
X-59.871 Y-22.614 Z-5.194 I-0.121 J-0.108
X-59.629 Y-22.398 Z-5.256 I0.121 J0.108
X-59.871 Y-22.614 Z-5.317 I-0.121 J-0.108
X-59.629 Y-22.398 Z-5.378 I0.121 J0.108
X-59.871 Y-22.614 Z-5.439 I-0.121 J-0.108
X-59.629 Y-22.398 Z-5.5 I0.121 J0.108
X-59.871 Y-22.614 Z-5.561 I-0.121 J-0.108
X-59.629 Y-22.398 Z-5.622 I0.121 J0.108
X-59.871 Y-22.614 Z-5.683 I-0.121 J-0.108
X-59.629 Y-22.398 Z-5.744 I0.121 J0.108
X-59.871 Y-22.614 Z-5.806 I-0.121 J-0.108
X-59.629 Y-22.398 Z-5.867 I0.121 J0.108
X-59.871 Y-22.614 Z-5.928 I-0.121 J-0.108
X-59.629 Y-22.398 Z-5.989 I0.121 J0.108
X-59.871 Y-22.614 Z-6.05 I-0.121 J-0.108
X-59.629 Y-22.398 Z-6.111 I0.121 J0.108
X-59.871 Y-22.614 Z-6.172 I-0.121 J-0.108
X-59.629 Y-22.398 Z-6.233 I0.121 J0.108
X-59.871 Y-22.614 Z-6.294 I-0.121 J-0.108
X-59.629 Y-22.398 Z-6.356 I0.121 J0.108
X-59.871 Y-22.614 Z-6.417 I-0.121 J-0.108
X-59.629 Y-22.398 Z-6.478 I0.121 J0.108
X-59.871 Y-22.614 Z-6.539 I-0.121 J-0.108
X-59.629 Y-22.398 Z-6.6 I0.121 J0.108
X-59.871 Y-22.614 Z-6.661 I-0.121 J-0.108
X-59.629 Y-22.398 Z-6.722 I0.121 J0.108
X-59.871 Y-22.614 Z-6.783 I-0.121 J-0.108
X-59.629 Y-22.398 Z-6.844 I0.121 J0.108
X-59.871 Y-22.614 Z-6.906 I-0.121 J-0.108
X-59.629 Y-22.398 Z-6.967 I0.121 J0.108
X-59.871 Y-22.614 Z-7.028 I-0.121 J-0.108
X-59.629 Y-22.398 Z-7.089 I0.121 J0.108
X-59.871 Y-22.614 Z-7.15 I-0.121 J-0.108
X-59.629 Y-22.398 Z-7.211 I0.121 J0.108
X-59.871 Y-22.614 Z-7.272 I-0.121 J-0.108
X-59.629 Y-22.398 Z-7.333 I0.121 J0.108
X-59.871 Y-22.614 Z-7.394 I-0.121 J-0.108
X-59.629 Y-22.398 Z-7.456 I0.121 J0.108
X-59.871 Y-22.614 Z-7.517 I-0.121 J-0.108
X-59.629 Y-22.398 Z-7.578 I0.121 J0.108
X-59.871 Y-22.614 Z-7.639 I-0.121 J-0.108
X-59.629 Y-22.398 Z-7.7 I0.121 J0.108
X-59.871 Y-22.614 Z-7.761 I-0.121 J-0.108
X-59.629 Y-22.398 Z-7.822 I0.121 J0.108
X-59.871 Y-22.614 Z-7.883 I-0.121 J-0.108
X-59.629 Y-22.398 Z-7.944 I0.121 J0.108
X-59.871 Y-22.614 Z-8.006 I-0.121 J-0.108
X-59.629 Y-22.398 Z-8.067 I0.121 J0.108
X-59.871 Y-22.614 Z-8.128 I-0.121 J-0.108
X-59.629 Y-22.398 Z-8.189 I0.121 J0.108
X-59.871 Y-22.614 Z-8.25 I-0.121 J-0.108
X-59.589 Y-22.481 Z-8.3 I0.121 J0.108
X-59.911 Y-22.531 I-0.161 J-0.025
X-59.589 Y-22.481 I0.161 J0.025
G1 X-59.6 Y-22.451
X-59.622 Y-22.428
X-59.65 Y-22.415
X-59.682 Y-22.413
X-59.839 Y-22.438
Z5
X-35.829 Y-21.668
Z2
Z0.317
X-35.823 Y-21.663 Z0.247
X-35.805 Y-21.647 Z0.18
X-35.777 Y-21.622 Z0.12
X-35.74 Y-21.589 Z0.069
X-35.695 Y-21.549 Z0.031
X-35.644 Y-21.504 Z0.008
X-35.592 Y-21.457 Z0
X-35.473 Y-21.352
G3 X-35.446 Y-20.904 I-0.211 J0.237
X-39.054 Y-24.108 Z-0.14 I-1.804 J-1.602
X-35.446 Y-20.904 Z-0.279 I1.804 J1.602
X-39.054 Y-24.108 Z-0.419 I-1.804 J-1.602
X-35.446 Y-20.904 Z-0.559 I1.804 J1.602
X-39.054 Y-24.108 Z-0.698 I-1.804 J-1.602
X-35.446 Y-20.904 Z-0.838 I1.804 J1.602
X-39.054 Y-24.108 Z-0.978 I-1.804 J-1.602
X-35.446 Y-20.904 Z-1.117 I1.804 J1.602
X-39.054 Y-24.108 Z-1.257 I-1.804 J-1.602
X-35.446 Y-20.904 Z-1.397 I1.804 J1.602
X-39.054 Y-24.108 Z-1.537 I-1.804 J-1.602
X-35.446 Y-20.904 Z-1.676 I1.804 J1.602
X-39.054 Y-24.108 Z-1.816 I-1.804 J-1.602
X-35.446 Y-20.904 Z-1.956 I1.804 J1.602
X-39.054 Y-24.108 Z-2.095 I-1.804 J-1.602
X-35.446 Y-20.904 Z-2.235 I1.804 J1.602
X-39.054 Y-24.108 Z-2.375 I-1.804 J-1.602
X-35.446 Y-20.904 Z-2.514 I1.804 J1.602
X-39.054 Y-24.108 Z-2.654 I-1.804 J-1.602
X-35.446 Y-20.904 Z-2.794 I1.804 J1.602
X-39.054 Y-24.108 Z-2.933 I-1.804 J-1.602
X-35.446 Y-20.904 Z-3.073 I1.804 J1.602
X-39.054 Y-24.108 Z-3.213 I-1.804 J-1.602
X-35.446 Y-20.904 Z-3.352 I1.804 J1.602
X-39.054 Y-24.108 Z-3.492 I-1.804 J-1.602
X-35.446 Y-20.904 Z-3.632 I1.804 J1.602
X-39.054 Y-24.108 Z-3.771 I-1.804 J-1.602
X-35.446 Y-20.904 Z-3.911 I1.804 J1.602
X-39.054 Y-24.108 Z-4.051 I-1.804 J-1.602
X-35.446 Y-20.904 Z-4.19 I1.804 J1.602
X-39.054 Y-24.108 Z-4.33 I-1.804 J-1.602
X-35.446 Y-20.904 Z-4.47 I1.804 J1.602
X-39.054 Y-24.108 Z-4.61 I-1.804 J-1.602
X-35.446 Y-20.904 Z-4.749 I1.804 J1.602
X-39.054 Y-24.108 Z-4.889 I-1.804 J-1.602
X-35.446 Y-20.904 Z-5.029 I1.804 J1.602
X-39.054 Y-24.108 Z-5.168 I-1.804 J-1.602
X-35.446 Y-20.904 Z-5.308 I1.804 J1.602
X-39.054 Y-24.108 Z-5.448 I-1.804 J-1.602
X-35.446 Y-20.904 Z-5.587 I1.804 J1.602
X-39.054 Y-24.108 Z-5.727 I-1.804 J-1.602
X-35.446 Y-20.904 Z-5.867 I1.804 J1.602
X-39.054 Y-24.108 Z-6.006 I-1.804 J-1.602
X-35.446 Y-20.904 Z-6.146 I1.804 J1.602
X-39.054 Y-24.108 Z-6.286 I-1.804 J-1.602
X-35.446 Y-20.904 Z-6.425 I1.804 J1.602
X-39.054 Y-24.108 Z-6.565 I-1.804 J-1.602
X-35.446 Y-20.904 Z-6.705 I1.804 J1.602
X-39.054 Y-24.108 Z-6.844 I-1.804 J-1.602
X-35.446 Y-20.904 Z-6.984 I1.804 J1.602
X-39.054 Y-24.108 Z-7.124 I-1.804 J-1.602
X-35.446 Y-20.904 Z-7.264 I1.804 J1.602
X-39.054 Y-24.108 Z-7.403 I-1.804 J-1.602
X-35.446 Y-20.904 Z-7.543 I1.804 J1.602
X-39.054 Y-24.108 Z-7.683 I-1.804 J-1.602
X-35.446 Y-20.904 Z-7.822 I1.804 J1.602
X-39.054 Y-24.108 Z-7.962 I-1.804 J-1.602
X-35.446 Y-20.904 Z-8.102 I1.804 J1.602
X-39.054 Y-24.108 Z-8.241 I-1.804 J-1.602
X-36.145 Y-24.651 Z-8.3 I1.804 J1.602
X-38.355 Y-20.361 I-1.105 J2.145
X-36.145 Y-24.651 I1.105 J-2.145
X-36.008 Y-24.223 I-0.145 J0.282
G1 X-36.081 Y-24.082
X-36.113 Y-24.019 Z-8.292
X-36.144 Y-23.959 Z-8.269
X-36.172 Y-23.906 Z-8.231
X-36.195 Y-23.861 Z-8.18
X-36.212 Y-23.828 Z-8.12
X-36.223 Y-23.807 Z-8.053
X-36.226 Y-23.8 Z-7.983
Z5
X-14.754 Y-22.618
Z1.683
Z0
X-14.635 Y-22.513
X-14.616 Y-22.488
X-14.608 Y-22.457
X-14.612 Y-22.426
X-14.629 Y-22.398
G3 X-14.871 Y-22.614 Z-0.061 I-0.121 J-0.108
X-14.629 Y-22.398 Z-0.122 I0.121 J0.108
X-14.871 Y-22.614 Z-0.183 I-0.121 J-0.108
X-14.629 Y-22.398 Z-0.244 I0.121 J0.108
X-14.871 Y-22.614 Z-0.306 I-0.121 J-0.108
X-14.629 Y-22.398 Z-0.367 I0.121 J0.108
X-14.871 Y-22.614 Z-0.428 I-0.121 J-0.108
X-14.629 Y-22.398 Z-0.489 I0.121 J0.108
X-14.871 Y-22.614 Z-0.55 I-0.121 J-0.108
X-14.629 Y-22.398 Z-0.611 I0.121 J0.108
X-14.871 Y-22.614 Z-0.672 I-0.121 J-0.108
X-14.629 Y-22.398 Z-0.733 I0.121 J0.108
X-14.871 Y-22.614 Z-0.794 I-0.121 J-0.108
X-14.629 Y-22.398 Z-0.856 I0.121 J0.108
X-14.871 Y-22.614 Z-0.917 I-0.121 J-0.108
X-14.629 Y-22.398 Z-0.978 I0.121 J0.108
X-14.871 Y-22.614 Z-1.039 I-0.121 J-0.108
X-14.629 Y-22.398 Z-1.1 I0.121 J0.108
X-14.871 Y-22.614 Z-1.161 I-0.121 J-0.108
X-14.629 Y-22.398 Z-1.222 I0.121 J0.108
X-14.871 Y-22.614 Z-1.283 I-0.121 J-0.108
X-14.629 Y-22.398 Z-1.344 I0.121 J0.108
X-14.871 Y-22.614 Z-1.406 I-0.121 J-0.108
X-14.629 Y-22.398 Z-1.467 I0.121 J0.108
X-14.871 Y-22.614 Z-1.528 I-0.121 J-0.108
X-14.629 Y-22.398 Z-1.589 I0.121 J0.108
X-14.871 Y-22.614 Z-1.65 I-0.121 J-0.108
X-14.629 Y-22.398 Z-1.711 I0.121 J0.108
X-14.871 Y-22.614 Z-1.772 I-0.121 J-0.108
X-14.629 Y-22.398 Z-1.833 I0.121 J0.108
X-14.871 Y-22.614 Z-1.894 I-0.121 J-0.108
X-14.629 Y-22.398 Z-1.956 I0.121 J0.108
X-14.871 Y-22.614 Z-2.017 I-0.121 J-0.108
X-14.629 Y-22.398 Z-2.078 I0.121 J0.108
X-14.871 Y-22.614 Z-2.139 I-0.121 J-0.108
X-14.629 Y-22.398 Z-2.2 I0.121 J0.108
X-14.871 Y-22.614 Z-2.261 I-0.121 J-0.108
X-14.629 Y-22.398 Z-2.322 I0.121 J0.108
X-14.871 Y-22.614 Z-2.383 I-0.121 J-0.108
X-14.629 Y-22.398 Z-2.444 I0.121 J0.108
X-14.871 Y-22.614 Z-2.506 I-0.121 J-0.108
X-14.629 Y-22.398 Z-2.567 I0.121 J0.108
X-14.871 Y-22.614 Z-2.628 I-0.121 J-0.108
X-14.629 Y-22.398 Z-2.689 I0.121 J0.108
X-14.871 Y-22.614 Z-2.75 I-0.121 J-0.108
X-14.629 Y-22.398 Z-2.811 I0.121 J0.108
X-14.871 Y-22.614 Z-2.872 I-0.121 J-0.108
X-14.629 Y-22.398 Z-2.933 I0.121 J0.108
X-14.871 Y-22.614 Z-2.994 I-0.121 J-0.108
X-14.629 Y-22.398 Z-3.056 I0.121 J0.108
X-14.871 Y-22.614 Z-3.117 I-0.121 J-0.108
X-14.629 Y-22.398 Z-3.178 I0.121 J0.108
X-14.871 Y-22.614 Z-3.239 I-0.121 J-0.108
X-14.629 Y-22.398 Z-3.3 I0.121 J0.108
X-14.871 Y-22.614 Z-3.361 I-0.121 J-0.108
X-14.629 Y-22.398 Z-3.422 I0.121 J0.108
X-14.871 Y-22.614 Z-3.483 I-0.121 J-0.108
X-14.629 Y-22.398 Z-3.544 I0.121 J0.108
X-14.871 Y-22.614 Z-3.606 I-0.121 J-0.108
X-14.629 Y-22.398 Z-3.667 I0.121 J0.108
X-14.871 Y-22.614 Z-3.728 I-0.121 J-0.108
X-14.629 Y-22.398 Z-3.789 I0.121 J0.108
X-14.871 Y-22.614 Z-3.85 I-0.121 J-0.108
X-14.629 Y-22.398 Z-3.911 I0.121 J0.108
X-14.871 Y-22.614 Z-3.972 I-0.121 J-0.108
X-14.629 Y-22.398 Z-4.033 I0.121 J0.108
X-14.871 Y-22.614 Z-4.094 I-0.121 J-0.108
X-14.629 Y-22.398 Z-4.156 I0.121 J0.108
X-14.871 Y-22.614 Z-4.217 I-0.121 J-0.108
X-14.629 Y-22.398 Z-4.278 I0.121 J0.108
X-14.871 Y-22.614 Z-4.339 I-0.121 J-0.108
X-14.629 Y-22.398 Z-4.4 I0.121 J0.108
X-14.871 Y-22.614 Z-4.461 I-0.121 J-0.108
X-14.629 Y-22.398 Z-4.522 I0.121 J0.108
X-14.871 Y-22.614 Z-4.583 I-0.121 J-0.108
X-14.629 Y-22.398 Z-4.644 I0.121 J0.108
X-14.871 Y-22.614 Z-4.706 I-0.121 J-0.108
X-14.629 Y-22.398 Z-4.767 I0.121 J0.108
X-14.871 Y-22.614 Z-4.828 I-0.121 J-0.108
X-14.629 Y-22.398 Z-4.889 I0.121 J0.108
X-14.871 Y-22.614 Z-4.95 I-0.121 J-0.108
X-14.629 Y-22.398 Z-5.011 I0.121 J0.108
X-14.871 Y-22.614 Z-5.072 I-0.121 J-0.108
X-14.629 Y-22.398 Z-5.133 I0.121 J0.108
X-14.871 Y-22.614 Z-5.194 I-0.121 J-0.108
X-14.629 Y-22.398 Z-5.256 I0.121 J0.108
X-14.871 Y-22.614 Z-5.317 I-0.121 J-0.108
X-14.629 Y-22.398 Z-5.378 I0.121 J0.108
X-14.871 Y-22.614 Z-5.439 I-0.121 J-0.108
X-14.629 Y-22.398 Z-5.5 I0.121 J0.108
X-14.871 Y-22.614 Z-5.561 I-0.121 J-0.108
X-14.629 Y-22.398 Z-5.622 I0.121 J0.108
X-14.871 Y-22.614 Z-5.683 I-0.121 J-0.108
X-14.629 Y-22.398 Z-5.744 I0.121 J0.108
X-14.871 Y-22.614 Z-5.806 I-0.121 J-0.108
X-14.629 Y-22.398 Z-5.867 I0.121 J0.108
X-14.871 Y-22.614 Z-5.928 I-0.121 J-0.108
X-14.629 Y-22.398 Z-5.989 I0.121 J0.108
X-14.871 Y-22.614 Z-6.05 I-0.121 J-0.108
X-14.629 Y-22.398 Z-6.111 I0.121 J0.108
X-14.871 Y-22.614 Z-6.172 I-0.121 J-0.108
X-14.629 Y-22.398 Z-6.233 I0.121 J0.108
X-14.871 Y-22.614 Z-6.294 I-0.121 J-0.108
X-14.629 Y-22.398 Z-6.356 I0.121 J0.108
X-14.871 Y-22.614 Z-6.417 I-0.121 J-0.108
X-14.629 Y-22.398 Z-6.478 I0.121 J0.108
X-14.871 Y-22.614 Z-6.539 I-0.121 J-0.108
X-14.629 Y-22.398 Z-6.6 I0.121 J0.108
X-14.871 Y-22.614 Z-6.661 I-0.121 J-0.108
X-14.629 Y-22.398 Z-6.722 I0.121 J0.108
X-14.871 Y-22.614 Z-6.783 I-0.121 J-0.108
X-14.629 Y-22.398 Z-6.844 I0.121 J0.108
X-14.871 Y-22.614 Z-6.906 I-0.121 J-0.108
X-14.629 Y-22.398 Z-6.967 I0.121 J0.108
X-14.871 Y-22.614 Z-7.028 I-0.121 J-0.108
X-14.629 Y-22.398 Z-7.089 I0.121 J0.108
X-14.871 Y-22.614 Z-7.15 I-0.121 J-0.108
X-14.629 Y-22.398 Z-7.211 I0.121 J0.108
X-14.871 Y-22.614 Z-7.272 I-0.121 J-0.108
X-14.629 Y-22.398 Z-7.333 I0.121 J0.108
X-14.871 Y-22.614 Z-7.394 I-0.121 J-0.108
X-14.629 Y-22.398 Z-7.456 I0.121 J0.108
X-14.871 Y-22.614 Z-7.517 I-0.121 J-0.108
X-14.629 Y-22.398 Z-7.578 I0.121 J0.108
X-14.871 Y-22.614 Z-7.639 I-0.121 J-0.108
X-14.629 Y-22.398 Z-7.7 I0.121 J0.108
X-14.871 Y-22.614 Z-7.761 I-0.121 J-0.108
X-14.629 Y-22.398 Z-7.822 I0.121 J0.108
X-14.871 Y-22.614 Z-7.883 I-0.121 J-0.108
X-14.629 Y-22.398 Z-7.944 I0.121 J0.108
X-14.871 Y-22.614 Z-8.006 I-0.121 J-0.108
X-14.629 Y-22.398 Z-8.067 I0.121 J0.108
X-14.871 Y-22.614 Z-8.128 I-0.121 J-0.108
X-14.629 Y-22.398 Z-8.189 I0.121 J0.108
X-14.871 Y-22.614 Z-8.25 I-0.121 J-0.108
X-14.589 Y-22.481 Z-8.3 I0.121 J0.108
X-14.911 Y-22.531 I-0.161 J-0.025
X-14.589 Y-22.481 I0.161 J0.025
G1 X-14.6 Y-22.451
X-14.622 Y-22.428
X-14.65 Y-22.415
X-14.682 Y-22.413
X-14.839 Y-22.438
Z5
X-225.464 Y-23.891
Z1.683
Z0
X-225.346 Y-23.785
X-225.327 Y-23.76
X-225.319 Y-23.729
X-225.323 Y-23.698
X-225.339 Y-23.671
G3 X-225.582 Y-23.886 Z-0.061 I-0.121 J-0.108
X-225.339 Y-23.671 Z-0.122 I0.121 J0.108
X-225.582 Y-23.886 Z-0.183 I-0.121 J-0.108
X-225.339 Y-23.671 Z-0.244 I0.121 J0.108
X-225.582 Y-23.886 Z-0.306 I-0.121 J-0.108
X-225.339 Y-23.671 Z-0.367 I0.121 J0.108
X-225.582 Y-23.886 Z-0.428 I-0.121 J-0.108
X-225.339 Y-23.671 Z-0.489 I0.121 J0.108
X-225.582 Y-23.886 Z-0.55 I-0.121 J-0.108
X-225.339 Y-23.671 Z-0.611 I0.121 J0.108
X-225.582 Y-23.886 Z-0.672 I-0.121 J-0.108
X-225.339 Y-23.671 Z-0.733 I0.121 J0.108
X-225.582 Y-23.886 Z-0.794 I-0.121 J-0.108
X-225.339 Y-23.671 Z-0.856 I0.121 J0.108
X-225.582 Y-23.886 Z-0.917 I-0.121 J-0.108
X-225.339 Y-23.671 Z-0.978 I0.121 J0.108
X-225.582 Y-23.886 Z-1.039 I-0.121 J-0.108
X-225.339 Y-23.671 Z-1.1 I0.121 J0.108
X-225.582 Y-23.886 Z-1.161 I-0.121 J-0.108
X-225.339 Y-23.671 Z-1.222 I0.121 J0.108
X-225.582 Y-23.886 Z-1.283 I-0.121 J-0.108
X-225.339 Y-23.671 Z-1.344 I0.121 J0.108
X-225.582 Y-23.886 Z-1.406 I-0.121 J-0.108
X-225.339 Y-23.671 Z-1.467 I0.121 J0.108
X-225.582 Y-23.886 Z-1.528 I-0.121 J-0.108
X-225.339 Y-23.671 Z-1.589 I0.121 J0.108
X-225.582 Y-23.886 Z-1.65 I-0.121 J-0.108
X-225.339 Y-23.671 Z-1.711 I0.121 J0.108
X-225.582 Y-23.886 Z-1.772 I-0.121 J-0.108
X-225.339 Y-23.671 Z-1.833 I0.121 J0.108
X-225.582 Y-23.886 Z-1.894 I-0.121 J-0.108
X-225.339 Y-23.671 Z-1.956 I0.121 J0.108
X-225.582 Y-23.886 Z-2.017 I-0.121 J-0.108
X-225.339 Y-23.671 Z-2.078 I0.121 J0.108
X-225.582 Y-23.886 Z-2.139 I-0.121 J-0.108
X-225.339 Y-23.671 Z-2.2 I0.121 J0.108
X-225.582 Y-23.886 Z-2.261 I-0.121 J-0.108
X-225.339 Y-23.671 Z-2.322 I0.121 J0.108
X-225.582 Y-23.886 Z-2.383 I-0.121 J-0.108
X-225.339 Y-23.671 Z-2.444 I0.121 J0.108
X-225.582 Y-23.886 Z-2.506 I-0.121 J-0.108
X-225.339 Y-23.671 Z-2.567 I0.121 J0.108
X-225.582 Y-23.886 Z-2.628 I-0.121 J-0.108
X-225.339 Y-23.671 Z-2.689 I0.121 J0.108
X-225.582 Y-23.886 Z-2.75 I-0.121 J-0.108
X-225.339 Y-23.671 Z-2.811 I0.121 J0.108
X-225.582 Y-23.886 Z-2.872 I-0.121 J-0.108
X-225.339 Y-23.671 Z-2.933 I0.121 J0.108
X-225.582 Y-23.886 Z-2.994 I-0.121 J-0.108
X-225.339 Y-23.671 Z-3.056 I0.121 J0.108
X-225.582 Y-23.886 Z-3.117 I-0.121 J-0.108
X-225.339 Y-23.671 Z-3.178 I0.121 J0.108
X-225.582 Y-23.886 Z-3.239 I-0.121 J-0.108
X-225.339 Y-23.671 Z-3.3 I0.121 J0.108
X-225.582 Y-23.886 Z-3.361 I-0.121 J-0.108
X-225.339 Y-23.671 Z-3.422 I0.121 J0.108
X-225.582 Y-23.886 Z-3.483 I-0.121 J-0.108
X-225.339 Y-23.671 Z-3.544 I0.121 J0.108
X-225.582 Y-23.886 Z-3.606 I-0.121 J-0.108
X-225.339 Y-23.671 Z-3.667 I0.121 J0.108
X-225.582 Y-23.886 Z-3.728 I-0.121 J-0.108
X-225.339 Y-23.671 Z-3.789 I0.121 J0.108
X-225.582 Y-23.886 Z-3.85 I-0.121 J-0.108
X-225.339 Y-23.671 Z-3.911 I0.121 J0.108
X-225.582 Y-23.886 Z-3.972 I-0.121 J-0.108
X-225.339 Y-23.671 Z-4.033 I0.121 J0.108
X-225.582 Y-23.886 Z-4.094 I-0.121 J-0.108
X-225.339 Y-23.671 Z-4.156 I0.121 J0.108
X-225.582 Y-23.886 Z-4.217 I-0.121 J-0.108
X-225.339 Y-23.671 Z-4.278 I0.121 J0.108
X-225.582 Y-23.886 Z-4.339 I-0.121 J-0.108
X-225.339 Y-23.671 Z-4.4 I0.121 J0.108
X-225.582 Y-23.886 Z-4.461 I-0.121 J-0.108
X-225.339 Y-23.671 Z-4.522 I0.121 J0.108
X-225.582 Y-23.886 Z-4.583 I-0.121 J-0.108
X-225.339 Y-23.671 Z-4.644 I0.121 J0.108
X-225.582 Y-23.886 Z-4.706 I-0.121 J-0.108
X-225.339 Y-23.671 Z-4.767 I0.121 J0.108
X-225.582 Y-23.886 Z-4.828 I-0.121 J-0.108
X-225.339 Y-23.671 Z-4.889 I0.121 J0.108
X-225.582 Y-23.886 Z-4.95 I-0.121 J-0.108
X-225.339 Y-23.671 Z-5.011 I0.121 J0.108
X-225.582 Y-23.886 Z-5.072 I-0.121 J-0.108
X-225.339 Y-23.671 Z-5.133 I0.121 J0.108
X-225.582 Y-23.886 Z-5.194 I-0.121 J-0.108
X-225.339 Y-23.671 Z-5.256 I0.121 J0.108
X-225.582 Y-23.886 Z-5.317 I-0.121 J-0.108
X-225.339 Y-23.671 Z-5.378 I0.121 J0.108
X-225.582 Y-23.886 Z-5.439 I-0.121 J-0.108
X-225.339 Y-23.671 Z-5.5 I0.121 J0.108
X-225.582 Y-23.886 Z-5.561 I-0.121 J-0.108
X-225.339 Y-23.671 Z-5.622 I0.121 J0.108
X-225.582 Y-23.886 Z-5.683 I-0.121 J-0.108
X-225.339 Y-23.671 Z-5.744 I0.121 J0.108
X-225.582 Y-23.886 Z-5.806 I-0.121 J-0.108
X-225.339 Y-23.671 Z-5.867 I0.121 J0.108
X-225.582 Y-23.886 Z-5.928 I-0.121 J-0.108
X-225.339 Y-23.671 Z-5.989 I0.121 J0.108
X-225.582 Y-23.886 Z-6.05 I-0.121 J-0.108
X-225.339 Y-23.671 Z-6.111 I0.121 J0.108
X-225.582 Y-23.886 Z-6.172 I-0.121 J-0.108
X-225.339 Y-23.671 Z-6.233 I0.121 J0.108
X-225.582 Y-23.886 Z-6.294 I-0.121 J-0.108
X-225.339 Y-23.671 Z-6.356 I0.121 J0.108
X-225.582 Y-23.886 Z-6.417 I-0.121 J-0.108
X-225.339 Y-23.671 Z-6.478 I0.121 J0.108
X-225.582 Y-23.886 Z-6.539 I-0.121 J-0.108
X-225.339 Y-23.671 Z-6.6 I0.121 J0.108
X-225.582 Y-23.886 Z-6.661 I-0.121 J-0.108
X-225.339 Y-23.671 Z-6.722 I0.121 J0.108
X-225.582 Y-23.886 Z-6.783 I-0.121 J-0.108
X-225.339 Y-23.671 Z-6.844 I0.121 J0.108
X-225.582 Y-23.886 Z-6.906 I-0.121 J-0.108
X-225.339 Y-23.671 Z-6.967 I0.121 J0.108
X-225.582 Y-23.886 Z-7.028 I-0.121 J-0.108
X-225.339 Y-23.671 Z-7.089 I0.121 J0.108
X-225.582 Y-23.886 Z-7.15 I-0.121 J-0.108
X-225.339 Y-23.671 Z-7.211 I0.121 J0.108
X-225.582 Y-23.886 Z-7.272 I-0.121 J-0.108
X-225.339 Y-23.671 Z-7.333 I0.121 J0.108
X-225.582 Y-23.886 Z-7.394 I-0.121 J-0.108
X-225.339 Y-23.671 Z-7.456 I0.121 J0.108
X-225.582 Y-23.886 Z-7.517 I-0.121 J-0.108
X-225.339 Y-23.671 Z-7.578 I0.121 J0.108
X-225.582 Y-23.886 Z-7.639 I-0.121 J-0.108
X-225.339 Y-23.671 Z-7.7 I0.121 J0.108
X-225.582 Y-23.886 Z-7.761 I-0.121 J-0.108
X-225.339 Y-23.671 Z-7.822 I0.121 J0.108
X-225.582 Y-23.886 Z-7.883 I-0.121 J-0.108
X-225.339 Y-23.671 Z-7.944 I0.121 J0.108
X-225.582 Y-23.886 Z-8.006 I-0.121 J-0.108
X-225.339 Y-23.671 Z-8.067 I0.121 J0.108
X-225.582 Y-23.886 Z-8.128 I-0.121 J-0.108
X-225.339 Y-23.671 Z-8.189 I0.121 J0.108
X-225.582 Y-23.886 Z-8.25 I-0.121 J-0.108
X-225.3 Y-23.754 Z-8.3 I0.121 J0.108
X-225.621 Y-23.803 I-0.161 J-0.025
X-225.3 Y-23.754 I0.161 J0.025
G1 X-225.311 Y-23.724
X-225.332 Y-23.701
X-225.361 Y-23.687
X-225.393 Y-23.686
X-225.549 Y-23.71
Z5
X-198.17 Y-22.618
Z1.683
Z0
X-198.052 Y-22.513
X-198.033 Y-22.488
X-198.024 Y-22.457
X-198.029 Y-22.426
X-198.045 Y-22.398
G3 X-198.288 Y-22.614 Z-0.061 I-0.121 J-0.108
X-198.045 Y-22.398 Z-0.122 I0.121 J0.108
X-198.288 Y-22.614 Z-0.183 I-0.121 J-0.108
X-198.045 Y-22.398 Z-0.244 I0.121 J0.108
X-198.288 Y-22.614 Z-0.306 I-0.121 J-0.108
X-198.045 Y-22.398 Z-0.367 I0.121 J0.108
X-198.288 Y-22.614 Z-0.428 I-0.121 J-0.108
X-198.045 Y-22.398 Z-0.489 I0.121 J0.108
X-198.288 Y-22.614 Z-0.55 I-0.121 J-0.108
X-198.045 Y-22.398 Z-0.611 I0.121 J0.108
X-198.288 Y-22.614 Z-0.672 I-0.121 J-0.108
X-198.045 Y-22.398 Z-0.733 I0.121 J0.108
X-198.288 Y-22.614 Z-0.794 I-0.121 J-0.108
X-198.045 Y-22.398 Z-0.856 I0.121 J0.108
X-198.288 Y-22.614 Z-0.917 I-0.121 J-0.108
X-198.045 Y-22.398 Z-0.978 I0.121 J0.108
X-198.288 Y-22.614 Z-1.039 I-0.121 J-0.108
X-198.045 Y-22.398 Z-1.1 I0.121 J0.108
X-198.288 Y-22.614 Z-1.161 I-0.121 J-0.108
X-198.045 Y-22.398 Z-1.222 I0.121 J0.108
X-198.288 Y-22.614 Z-1.283 I-0.121 J-0.108
X-198.045 Y-22.398 Z-1.344 I0.121 J0.108
X-198.288 Y-22.614 Z-1.406 I-0.121 J-0.108
X-198.045 Y-22.398 Z-1.467 I0.121 J0.108
X-198.288 Y-22.614 Z-1.528 I-0.121 J-0.108
X-198.045 Y-22.398 Z-1.589 I0.121 J0.108
X-198.288 Y-22.614 Z-1.65 I-0.121 J-0.108
X-198.045 Y-22.398 Z-1.711 I0.121 J0.108
X-198.288 Y-22.614 Z-1.772 I-0.121 J-0.108
X-198.045 Y-22.398 Z-1.833 I0.121 J0.108
X-198.288 Y-22.614 Z-1.894 I-0.121 J-0.108
X-198.045 Y-22.398 Z-1.956 I0.121 J0.108
X-198.288 Y-22.614 Z-2.017 I-0.121 J-0.108
X-198.045 Y-22.398 Z-2.078 I0.121 J0.108
X-198.288 Y-22.614 Z-2.139 I-0.121 J-0.108
X-198.045 Y-22.398 Z-2.2 I0.121 J0.108
X-198.288 Y-22.614 Z-2.261 I-0.121 J-0.108
X-198.045 Y-22.398 Z-2.322 I0.121 J0.108
X-198.288 Y-22.614 Z-2.383 I-0.121 J-0.108
X-198.045 Y-22.398 Z-2.444 I0.121 J0.108
X-198.288 Y-22.614 Z-2.506 I-0.121 J-0.108
X-198.045 Y-22.398 Z-2.567 I0.121 J0.108
X-198.288 Y-22.614 Z-2.628 I-0.121 J-0.108
X-198.045 Y-22.398 Z-2.689 I0.121 J0.108
X-198.288 Y-22.614 Z-2.75 I-0.121 J-0.108
X-198.045 Y-22.398 Z-2.811 I0.121 J0.108
X-198.288 Y-22.614 Z-2.872 I-0.121 J-0.108
X-198.045 Y-22.398 Z-2.933 I0.121 J0.108
X-198.288 Y-22.614 Z-2.994 I-0.121 J-0.108
X-198.045 Y-22.398 Z-3.056 I0.121 J0.108
X-198.288 Y-22.614 Z-3.117 I-0.121 J-0.108
X-198.045 Y-22.398 Z-3.178 I0.121 J0.108
X-198.288 Y-22.614 Z-3.239 I-0.121 J-0.108
X-198.045 Y-22.398 Z-3.3 I0.121 J0.108
X-198.288 Y-22.614 Z-3.361 I-0.121 J-0.108
X-198.045 Y-22.398 Z-3.422 I0.121 J0.108
X-198.288 Y-22.614 Z-3.483 I-0.121 J-0.108
X-198.045 Y-22.398 Z-3.544 I0.121 J0.108
X-198.288 Y-22.614 Z-3.606 I-0.121 J-0.108
X-198.045 Y-22.398 Z-3.667 I0.121 J0.108
X-198.288 Y-22.614 Z-3.728 I-0.121 J-0.108
X-198.045 Y-22.398 Z-3.789 I0.121 J0.108
X-198.288 Y-22.614 Z-3.85 I-0.121 J-0.108
X-198.045 Y-22.398 Z-3.911 I0.121 J0.108
X-198.288 Y-22.614 Z-3.972 I-0.121 J-0.108
X-198.045 Y-22.398 Z-4.033 I0.121 J0.108
X-198.288 Y-22.614 Z-4.094 I-0.121 J-0.108
X-198.045 Y-22.398 Z-4.156 I0.121 J0.108
X-198.288 Y-22.614 Z-4.217 I-0.121 J-0.108
X-198.045 Y-22.398 Z-4.278 I0.121 J0.108
X-198.288 Y-22.614 Z-4.339 I-0.121 J-0.108
X-198.045 Y-22.398 Z-4.4 I0.121 J0.108
X-198.288 Y-22.614 Z-4.461 I-0.121 J-0.108
X-198.045 Y-22.398 Z-4.522 I0.121 J0.108
X-198.288 Y-22.614 Z-4.583 I-0.121 J-0.108
X-198.045 Y-22.398 Z-4.644 I0.121 J0.108
X-198.288 Y-22.614 Z-4.706 I-0.121 J-0.108
X-198.045 Y-22.398 Z-4.767 I0.121 J0.108
X-198.288 Y-22.614 Z-4.828 I-0.121 J-0.108
X-198.045 Y-22.398 Z-4.889 I0.121 J0.108
X-198.288 Y-22.614 Z-4.95 I-0.121 J-0.108
X-198.045 Y-22.398 Z-5.011 I0.121 J0.108
X-198.288 Y-22.614 Z-5.072 I-0.121 J-0.108
X-198.045 Y-22.398 Z-5.133 I0.121 J0.108
X-198.288 Y-22.614 Z-5.194 I-0.121 J-0.108
X-198.045 Y-22.398 Z-5.256 I0.121 J0.108
X-198.288 Y-22.614 Z-5.317 I-0.121 J-0.108
X-198.045 Y-22.398 Z-5.378 I0.121 J0.108
X-198.288 Y-22.614 Z-5.439 I-0.121 J-0.108
X-198.045 Y-22.398 Z-5.5 I0.121 J0.108
X-198.288 Y-22.614 Z-5.561 I-0.121 J-0.108
X-198.045 Y-22.398 Z-5.622 I0.121 J0.108
X-198.288 Y-22.614 Z-5.683 I-0.121 J-0.108
X-198.045 Y-22.398 Z-5.744 I0.121 J0.108
X-198.288 Y-22.614 Z-5.806 I-0.121 J-0.108
X-198.045 Y-22.398 Z-5.867 I0.121 J0.108
X-198.288 Y-22.614 Z-5.928 I-0.121 J-0.108
X-198.045 Y-22.398 Z-5.989 I0.121 J0.108
X-198.288 Y-22.614 Z-6.05 I-0.121 J-0.108
X-198.045 Y-22.398 Z-6.111 I0.121 J0.108
X-198.288 Y-22.614 Z-6.172 I-0.121 J-0.108
X-198.045 Y-22.398 Z-6.233 I0.121 J0.108
X-198.288 Y-22.614 Z-6.294 I-0.121 J-0.108
X-198.045 Y-22.398 Z-6.356 I0.121 J0.108
X-198.288 Y-22.614 Z-6.417 I-0.121 J-0.108
X-198.045 Y-22.398 Z-6.478 I0.121 J0.108
X-198.288 Y-22.614 Z-6.539 I-0.121 J-0.108
X-198.045 Y-22.398 Z-6.6 I0.121 J0.108
X-198.288 Y-22.614 Z-6.661 I-0.121 J-0.108
X-198.045 Y-22.398 Z-6.722 I0.121 J0.108
X-198.288 Y-22.614 Z-6.783 I-0.121 J-0.108
X-198.045 Y-22.398 Z-6.844 I0.121 J0.108
X-198.288 Y-22.614 Z-6.906 I-0.121 J-0.108
X-198.045 Y-22.398 Z-6.967 I0.121 J0.108
X-198.288 Y-22.614 Z-7.028 I-0.121 J-0.108
X-198.045 Y-22.398 Z-7.089 I0.121 J0.108
X-198.288 Y-22.614 Z-7.15 I-0.121 J-0.108
X-198.045 Y-22.398 Z-7.211 I0.121 J0.108
X-198.288 Y-22.614 Z-7.272 I-0.121 J-0.108
X-198.045 Y-22.398 Z-7.333 I0.121 J0.108
X-198.288 Y-22.614 Z-7.394 I-0.121 J-0.108
X-198.045 Y-22.398 Z-7.456 I0.121 J0.108
X-198.288 Y-22.614 Z-7.517 I-0.121 J-0.108
X-198.045 Y-22.398 Z-7.578 I0.121 J0.108
X-198.288 Y-22.614 Z-7.639 I-0.121 J-0.108
X-198.045 Y-22.398 Z-7.7 I0.121 J0.108
X-198.288 Y-22.614 Z-7.761 I-0.121 J-0.108
X-198.045 Y-22.398 Z-7.822 I0.121 J0.108
X-198.288 Y-22.614 Z-7.883 I-0.121 J-0.108
X-198.045 Y-22.398 Z-7.944 I0.121 J0.108
X-198.288 Y-22.614 Z-8.006 I-0.121 J-0.108
X-198.045 Y-22.398 Z-8.067 I0.121 J0.108
X-198.288 Y-22.614 Z-8.128 I-0.121 J-0.108
X-198.045 Y-22.398 Z-8.189 I0.121 J0.108
X-198.288 Y-22.614 Z-8.25 I-0.121 J-0.108
X-198.006 Y-22.481 Z-8.3 I0.121 J0.108
X-198.327 Y-22.531 I-0.161 J-0.025
X-198.006 Y-22.481 I0.161 J0.025
G1 X-198.017 Y-22.451
X-198.038 Y-22.428
X-198.067 Y-22.415
X-198.098 Y-22.413
X-198.255 Y-22.438
Z5
X-196.868 Y-47.831
Z1.683
Z0
X-196.987 Y-47.936
X-197.006 Y-47.961
X-197.014 Y-47.992
X-197.01 Y-48.023
X-196.994 Y-48.051
G3 X-196.751 Y-47.835 Z-0.061 I0.121 J0.108
X-196.994 Y-48.051 Z-0.122 I-0.121 J-0.108
X-196.751 Y-47.835 Z-0.183 I0.121 J0.108
X-196.994 Y-48.051 Z-0.244 I-0.121 J-0.108
X-196.751 Y-47.835 Z-0.306 I0.121 J0.108
X-196.994 Y-48.051 Z-0.367 I-0.121 J-0.108
X-196.751 Y-47.835 Z-0.428 I0.121 J0.108
X-196.994 Y-48.051 Z-0.489 I-0.121 J-0.108
X-196.751 Y-47.835 Z-0.55 I0.121 J0.108
X-196.994 Y-48.051 Z-0.611 I-0.121 J-0.108
X-196.751 Y-47.835 Z-0.672 I0.121 J0.108
X-196.994 Y-48.051 Z-0.733 I-0.121 J-0.108
X-196.751 Y-47.835 Z-0.794 I0.121 J0.108
X-196.994 Y-48.051 Z-0.856 I-0.121 J-0.108
X-196.751 Y-47.835 Z-0.917 I0.121 J0.108
X-196.994 Y-48.051 Z-0.978 I-0.121 J-0.108
X-196.751 Y-47.835 Z-1.039 I0.121 J0.108
X-196.994 Y-48.051 Z-1.1 I-0.121 J-0.108
X-196.751 Y-47.835 Z-1.161 I0.121 J0.108
X-196.994 Y-48.051 Z-1.222 I-0.121 J-0.108
X-196.751 Y-47.835 Z-1.283 I0.121 J0.108
X-196.994 Y-48.051 Z-1.344 I-0.121 J-0.108
X-196.751 Y-47.835 Z-1.406 I0.121 J0.108
X-196.994 Y-48.051 Z-1.467 I-0.121 J-0.108
X-196.751 Y-47.835 Z-1.528 I0.121 J0.108
X-196.994 Y-48.051 Z-1.589 I-0.121 J-0.108
X-196.751 Y-47.835 Z-1.65 I0.121 J0.108
X-196.994 Y-48.051 Z-1.711 I-0.121 J-0.108
X-196.751 Y-47.835 Z-1.772 I0.121 J0.108
X-196.994 Y-48.051 Z-1.833 I-0.121 J-0.108
X-196.751 Y-47.835 Z-1.894 I0.121 J0.108
X-196.994 Y-48.051 Z-1.956 I-0.121 J-0.108
X-196.751 Y-47.835 Z-2.017 I0.121 J0.108
X-196.994 Y-48.051 Z-2.078 I-0.121 J-0.108
X-196.751 Y-47.835 Z-2.139 I0.121 J0.108
X-196.994 Y-48.051 Z-2.2 I-0.121 J-0.108
X-196.751 Y-47.835 Z-2.261 I0.121 J0.108
X-196.994 Y-48.051 Z-2.322 I-0.121 J-0.108
X-196.751 Y-47.835 Z-2.383 I0.121 J0.108
X-196.994 Y-48.051 Z-2.444 I-0.121 J-0.108
X-196.751 Y-47.835 Z-2.506 I0.121 J0.108
X-196.994 Y-48.051 Z-2.567 I-0.121 J-0.108
X-196.751 Y-47.835 Z-2.628 I0.121 J0.108
X-196.994 Y-48.051 Z-2.689 I-0.121 J-0.108
X-196.751 Y-47.835 Z-2.75 I0.121 J0.108
X-196.994 Y-48.051 Z-2.811 I-0.121 J-0.108
X-196.751 Y-47.835 Z-2.872 I0.121 J0.108
X-196.994 Y-48.051 Z-2.933 I-0.121 J-0.108
X-196.751 Y-47.835 Z-2.994 I0.121 J0.108
X-196.994 Y-48.051 Z-3.056 I-0.121 J-0.108
X-196.751 Y-47.835 Z-3.117 I0.121 J0.108
X-196.994 Y-48.051 Z-3.178 I-0.121 J-0.108
X-196.751 Y-47.835 Z-3.239 I0.121 J0.108
X-196.994 Y-48.051 Z-3.3 I-0.121 J-0.108
X-196.751 Y-47.835 Z-3.361 I0.121 J0.108
X-196.994 Y-48.051 Z-3.422 I-0.121 J-0.108
X-196.751 Y-47.835 Z-3.483 I0.121 J0.108
X-196.994 Y-48.051 Z-3.544 I-0.121 J-0.108
X-196.751 Y-47.835 Z-3.606 I0.121 J0.108
X-196.994 Y-48.051 Z-3.667 I-0.121 J-0.108
X-196.751 Y-47.835 Z-3.728 I0.121 J0.108
X-196.994 Y-48.051 Z-3.789 I-0.121 J-0.108
X-196.751 Y-47.835 Z-3.85 I0.121 J0.108
X-196.994 Y-48.051 Z-3.911 I-0.121 J-0.108
X-196.751 Y-47.835 Z-3.972 I0.121 J0.108
X-196.994 Y-48.051 Z-4.033 I-0.121 J-0.108
X-196.751 Y-47.835 Z-4.094 I0.121 J0.108
X-196.994 Y-48.051 Z-4.156 I-0.121 J-0.108
X-196.751 Y-47.835 Z-4.217 I0.121 J0.108
X-196.994 Y-48.051 Z-4.278 I-0.121 J-0.108
X-196.751 Y-47.835 Z-4.339 I0.121 J0.108
X-196.994 Y-48.051 Z-4.4 I-0.121 J-0.108
X-196.751 Y-47.835 Z-4.461 I0.121 J0.108
X-196.994 Y-48.051 Z-4.522 I-0.121 J-0.108
X-196.751 Y-47.835 Z-4.583 I0.121 J0.108
X-196.994 Y-48.051 Z-4.644 I-0.121 J-0.108
X-196.751 Y-47.835 Z-4.706 I0.121 J0.108
X-196.994 Y-48.051 Z-4.767 I-0.121 J-0.108
X-196.751 Y-47.835 Z-4.828 I0.121 J0.108
X-196.994 Y-48.051 Z-4.889 I-0.121 J-0.108
X-196.751 Y-47.835 Z-4.95 I0.121 J0.108
X-196.994 Y-48.051 Z-5.011 I-0.121 J-0.108
X-196.751 Y-47.835 Z-5.072 I0.121 J0.108
X-196.994 Y-48.051 Z-5.133 I-0.121 J-0.108
X-196.751 Y-47.835 Z-5.194 I0.121 J0.108
X-196.994 Y-48.051 Z-5.256 I-0.121 J-0.108
X-196.751 Y-47.835 Z-5.317 I0.121 J0.108
X-196.994 Y-48.051 Z-5.378 I-0.121 J-0.108
X-196.751 Y-47.835 Z-5.439 I0.121 J0.108
X-196.994 Y-48.051 Z-5.5 I-0.121 J-0.108
X-196.751 Y-47.835 Z-5.561 I0.121 J0.108
X-196.994 Y-48.051 Z-5.622 I-0.121 J-0.108
X-196.751 Y-47.835 Z-5.683 I0.121 J0.108
X-196.994 Y-48.051 Z-5.744 I-0.121 J-0.108
X-196.751 Y-47.835 Z-5.806 I0.121 J0.108
X-196.994 Y-48.051 Z-5.867 I-0.121 J-0.108
X-196.751 Y-47.835 Z-5.928 I0.121 J0.108
X-196.994 Y-48.051 Z-5.989 I-0.121 J-0.108
X-196.751 Y-47.835 Z-6.05 I0.121 J0.108
X-196.994 Y-48.051 Z-6.111 I-0.121 J-0.108
X-196.751 Y-47.835 Z-6.172 I0.121 J0.108
X-196.994 Y-48.051 Z-6.233 I-0.121 J-0.108
X-196.751 Y-47.835 Z-6.294 I0.121 J0.108
X-196.994 Y-48.051 Z-6.356 I-0.121 J-0.108
X-196.751 Y-47.835 Z-6.417 I0.121 J0.108
X-196.994 Y-48.051 Z-6.478 I-0.121 J-0.108
X-196.751 Y-47.835 Z-6.539 I0.121 J0.108
X-196.994 Y-48.051 Z-6.6 I-0.121 J-0.108
X-196.751 Y-47.835 Z-6.661 I0.121 J0.108
X-196.994 Y-48.051 Z-6.722 I-0.121 J-0.108
X-196.751 Y-47.835 Z-6.783 I0.121 J0.108
X-196.994 Y-48.051 Z-6.844 I-0.121 J-0.108
X-196.751 Y-47.835 Z-6.906 I0.121 J0.108
X-196.994 Y-48.051 Z-6.967 I-0.121 J-0.108
X-196.751 Y-47.835 Z-7.028 I0.121 J0.108
X-196.994 Y-48.051 Z-7.089 I-0.121 J-0.108
X-196.751 Y-47.835 Z-7.15 I0.121 J0.108
X-196.994 Y-48.051 Z-7.211 I-0.121 J-0.108
X-196.751 Y-47.835 Z-7.272 I0.121 J0.108
X-196.994 Y-48.051 Z-7.333 I-0.121 J-0.108
X-196.751 Y-47.835 Z-7.394 I0.121 J0.108
X-196.994 Y-48.051 Z-7.456 I-0.121 J-0.108
X-196.751 Y-47.835 Z-7.517 I0.121 J0.108
X-196.994 Y-48.051 Z-7.578 I-0.121 J-0.108
X-196.751 Y-47.835 Z-7.639 I0.121 J0.108
X-196.994 Y-48.051 Z-7.7 I-0.121 J-0.108
X-196.751 Y-47.835 Z-7.761 I0.121 J0.108
X-196.994 Y-48.051 Z-7.822 I-0.121 J-0.108
X-196.751 Y-47.835 Z-7.883 I0.121 J0.108
X-196.994 Y-48.051 Z-7.944 I-0.121 J-0.108
X-196.751 Y-47.835 Z-8.006 I0.121 J0.108
X-196.994 Y-48.051 Z-8.067 I-0.121 J-0.108
X-196.751 Y-47.835 Z-8.128 I0.121 J0.108
X-196.994 Y-48.051 Z-8.189 I-0.121 J-0.108
X-196.751 Y-47.835 Z-8.25 I0.121 J0.108
X-197.033 Y-47.968 Z-8.3 I-0.121 J-0.108
X-196.712 Y-47.918 I0.161 J0.025
X-197.033 Y-47.968 I-0.161 J-0.025
G1 X-197.022 Y-47.998
X-197.001 Y-48.021
X-196.972 Y-48.034
X-196.94 Y-48.036
X-196.783 Y-48.011
Z5
X-220.793 Y-48.781
Z2
Z0.317
X-220.799 Y-48.786 Z0.247
X-220.817 Y-48.802 Z0.18
X-220.845 Y-48.827 Z0.12
X-220.883 Y-48.86 Z0.069
X-220.928 Y-48.9 Z0.031
X-220.978 Y-48.945 Z0.008
X-221.031 Y-48.992 Z0
X-221.149 Y-49.097
G3 X-221.176 Y-49.545 I0.211 J-0.237
X-217.569 Y-46.341 Z-0.14 I1.804 J1.602
X-221.176 Y-49.545 Z-0.279 I-1.804 J-1.602
X-217.569 Y-46.341 Z-0.419 I1.804 J1.602
X-221.176 Y-49.545 Z-0.559 I-1.804 J-1.602
X-217.569 Y-46.341 Z-0.698 I1.804 J1.602
X-221.176 Y-49.545 Z-0.838 I-1.804 J-1.602
X-217.569 Y-46.341 Z-0.978 I1.804 J1.602
X-221.176 Y-49.545 Z-1.117 I-1.804 J-1.602
X-217.569 Y-46.341 Z-1.257 I1.804 J1.602
X-221.176 Y-49.545 Z-1.397 I-1.804 J-1.602
X-217.569 Y-46.341 Z-1.537 I1.804 J1.602
X-221.176 Y-49.545 Z-1.676 I-1.804 J-1.602
X-217.569 Y-46.341 Z-1.816 I1.804 J1.602
X-221.176 Y-49.545 Z-1.956 I-1.804 J-1.602
X-217.569 Y-46.341 Z-2.095 I1.804 J1.602
X-221.176 Y-49.545 Z-2.235 I-1.804 J-1.602
X-217.569 Y-46.341 Z-2.375 I1.804 J1.602
X-221.176 Y-49.545 Z-2.514 I-1.804 J-1.602
X-217.569 Y-46.341 Z-2.654 I1.804 J1.602
X-221.176 Y-49.545 Z-2.794 I-1.804 J-1.602
X-217.569 Y-46.341 Z-2.933 I1.804 J1.602
X-221.176 Y-49.545 Z-3.073 I-1.804 J-1.602
X-217.569 Y-46.341 Z-3.213 I1.804 J1.602
X-221.176 Y-49.545 Z-3.352 I-1.804 J-1.602
X-217.569 Y-46.341 Z-3.492 I1.804 J1.602
X-221.176 Y-49.545 Z-3.632 I-1.804 J-1.602
X-217.569 Y-46.341 Z-3.771 I1.804 J1.602
X-221.176 Y-49.545 Z-3.911 I-1.804 J-1.602
X-217.569 Y-46.341 Z-4.051 I1.804 J1.602
X-221.176 Y-49.545 Z-4.19 I-1.804 J-1.602
X-217.569 Y-46.341 Z-4.33 I1.804 J1.602
X-221.176 Y-49.545 Z-4.47 I-1.804 J-1.602
X-217.569 Y-46.341 Z-4.61 I1.804 J1.602
X-221.176 Y-49.545 Z-4.749 I-1.804 J-1.602
X-217.569 Y-46.341 Z-4.889 I1.804 J1.602
X-221.176 Y-49.545 Z-5.029 I-1.804 J-1.602
X-217.569 Y-46.341 Z-5.168 I1.804 J1.602
X-221.176 Y-49.545 Z-5.308 I-1.804 J-1.602
X-217.569 Y-46.341 Z-5.448 I1.804 J1.602
X-221.176 Y-49.545 Z-5.587 I-1.804 J-1.602
X-217.569 Y-46.341 Z-5.727 I1.804 J1.602
X-221.176 Y-49.545 Z-5.867 I-1.804 J-1.602
X-217.569 Y-46.341 Z-6.006 I1.804 J1.602
X-221.176 Y-49.545 Z-6.146 I-1.804 J-1.602
X-217.569 Y-46.341 Z-6.286 I1.804 J1.602
X-221.176 Y-49.545 Z-6.425 I-1.804 J-1.602
X-217.569 Y-46.341 Z-6.565 I1.804 J1.602
X-221.176 Y-49.545 Z-6.705 I-1.804 J-1.602
X-217.569 Y-46.341 Z-6.844 I1.804 J1.602
X-221.176 Y-49.545 Z-6.984 I-1.804 J-1.602
X-217.569 Y-46.341 Z-7.124 I1.804 J1.602
X-221.176 Y-49.545 Z-7.264 I-1.804 J-1.602
X-217.569 Y-46.341 Z-7.403 I1.804 J1.602
X-221.176 Y-49.545 Z-7.543 I-1.804 J-1.602
X-217.569 Y-46.341 Z-7.683 I1.804 J1.602
X-221.176 Y-49.545 Z-7.822 I-1.804 J-1.602
X-217.569 Y-46.341 Z-7.962 I1.804 J1.602
X-221.176 Y-49.545 Z-8.102 I-1.804 J-1.602
X-217.569 Y-46.341 Z-8.241 I1.804 J1.602
X-220.477 Y-45.798 Z-8.3 I-1.804 J-1.602
X-218.267 Y-50.088 I1.105 J-2.145
X-220.477 Y-45.798 I-1.105 J2.145
X-220.614 Y-46.226 I0.145 J-0.282
G1 X-220.541 Y-46.367
X-220.509 Y-46.43 Z-8.292
X-220.478 Y-46.49 Z-8.269
X-220.451 Y-46.543 Z-8.231
X-220.428 Y-46.588 Z-8.18
X-220.41 Y-46.621 Z-8.12
X-220.4 Y-46.642 Z-8.053
X-220.396 Y-46.649 Z-7.983
Z5
X-241.868 Y-47.831
Z1.683
Z0
X-241.987 Y-47.936
X-242.006 Y-47.961
X-242.014 Y-47.992
X-242.01 Y-48.023
X-241.994 Y-48.051
G3 X-241.751 Y-47.835 Z-0.061 I0.121 J0.108
X-241.994 Y-48.051 Z-0.122 I-0.121 J-0.108
X-241.751 Y-47.835 Z-0.183 I0.121 J0.108
X-241.994 Y-48.051 Z-0.244 I-0.121 J-0.108
X-241.751 Y-47.835 Z-0.306 I0.121 J0.108
X-241.994 Y-48.051 Z-0.367 I-0.121 J-0.108
X-241.751 Y-47.835 Z-0.428 I0.121 J0.108
X-241.994 Y-48.051 Z-0.489 I-0.121 J-0.108
X-241.751 Y-47.835 Z-0.55 I0.121 J0.108
X-241.994 Y-48.051 Z-0.611 I-0.121 J-0.108
X-241.751 Y-47.835 Z-0.672 I0.121 J0.108
X-241.994 Y-48.051 Z-0.733 I-0.121 J-0.108
X-241.751 Y-47.835 Z-0.794 I0.121 J0.108
X-241.994 Y-48.051 Z-0.856 I-0.121 J-0.108
X-241.751 Y-47.835 Z-0.917 I0.121 J0.108
X-241.994 Y-48.051 Z-0.978 I-0.121 J-0.108
X-241.751 Y-47.835 Z-1.039 I0.121 J0.108
X-241.994 Y-48.051 Z-1.1 I-0.121 J-0.108
X-241.751 Y-47.835 Z-1.161 I0.121 J0.108
X-241.994 Y-48.051 Z-1.222 I-0.121 J-0.108
X-241.751 Y-47.835 Z-1.283 I0.121 J0.108
X-241.994 Y-48.051 Z-1.344 I-0.121 J-0.108
X-241.751 Y-47.835 Z-1.406 I0.121 J0.108
X-241.994 Y-48.051 Z-1.467 I-0.121 J-0.108
X-241.751 Y-47.835 Z-1.528 I0.121 J0.108
X-241.994 Y-48.051 Z-1.589 I-0.121 J-0.108
X-241.751 Y-47.835 Z-1.65 I0.121 J0.108
X-241.994 Y-48.051 Z-1.711 I-0.121 J-0.108
X-241.751 Y-47.835 Z-1.772 I0.121 J0.108
X-241.994 Y-48.051 Z-1.833 I-0.121 J-0.108
X-241.751 Y-47.835 Z-1.894 I0.121 J0.108
X-241.994 Y-48.051 Z-1.956 I-0.121 J-0.108
X-241.751 Y-47.835 Z-2.017 I0.121 J0.108
X-241.994 Y-48.051 Z-2.078 I-0.121 J-0.108
X-241.751 Y-47.835 Z-2.139 I0.121 J0.108
X-241.994 Y-48.051 Z-2.2 I-0.121 J-0.108
X-241.751 Y-47.835 Z-2.261 I0.121 J0.108
X-241.994 Y-48.051 Z-2.322 I-0.121 J-0.108
X-241.751 Y-47.835 Z-2.383 I0.121 J0.108
X-241.994 Y-48.051 Z-2.444 I-0.121 J-0.108
X-241.751 Y-47.835 Z-2.506 I0.121 J0.108
X-241.994 Y-48.051 Z-2.567 I-0.121 J-0.108
X-241.751 Y-47.835 Z-2.628 I0.121 J0.108
X-241.994 Y-48.051 Z-2.689 I-0.121 J-0.108
X-241.751 Y-47.835 Z-2.75 I0.121 J0.108
X-241.994 Y-48.051 Z-2.811 I-0.121 J-0.108
X-241.751 Y-47.835 Z-2.872 I0.121 J0.108
X-241.994 Y-48.051 Z-2.933 I-0.121 J-0.108
X-241.751 Y-47.835 Z-2.994 I0.121 J0.108
X-241.994 Y-48.051 Z-3.056 I-0.121 J-0.108
X-241.751 Y-47.835 Z-3.117 I0.121 J0.108
X-241.994 Y-48.051 Z-3.178 I-0.121 J-0.108
X-241.751 Y-47.835 Z-3.239 I0.121 J0.108
X-241.994 Y-48.051 Z-3.3 I-0.121 J-0.108
X-241.751 Y-47.835 Z-3.361 I0.121 J0.108
X-241.994 Y-48.051 Z-3.422 I-0.121 J-0.108
X-241.751 Y-47.835 Z-3.483 I0.121 J0.108
X-241.994 Y-48.051 Z-3.544 I-0.121 J-0.108
X-241.751 Y-47.835 Z-3.606 I0.121 J0.108
X-241.994 Y-48.051 Z-3.667 I-0.121 J-0.108
X-241.751 Y-47.835 Z-3.728 I0.121 J0.108
X-241.994 Y-48.051 Z-3.789 I-0.121 J-0.108
X-241.751 Y-47.835 Z-3.85 I0.121 J0.108
X-241.994 Y-48.051 Z-3.911 I-0.121 J-0.108
X-241.751 Y-47.835 Z-3.972 I0.121 J0.108
X-241.994 Y-48.051 Z-4.033 I-0.121 J-0.108
X-241.751 Y-47.835 Z-4.094 I0.121 J0.108
X-241.994 Y-48.051 Z-4.156 I-0.121 J-0.108
X-241.751 Y-47.835 Z-4.217 I0.121 J0.108
X-241.994 Y-48.051 Z-4.278 I-0.121 J-0.108
X-241.751 Y-47.835 Z-4.339 I0.121 J0.108
X-241.994 Y-48.051 Z-4.4 I-0.121 J-0.108
X-241.751 Y-47.835 Z-4.461 I0.121 J0.108
X-241.994 Y-48.051 Z-4.522 I-0.121 J-0.108
X-241.751 Y-47.835 Z-4.583 I0.121 J0.108
X-241.994 Y-48.051 Z-4.644 I-0.121 J-0.108
X-241.751 Y-47.835 Z-4.706 I0.121 J0.108
X-241.994 Y-48.051 Z-4.767 I-0.121 J-0.108
X-241.751 Y-47.835 Z-4.828 I0.121 J0.108
X-241.994 Y-48.051 Z-4.889 I-0.121 J-0.108
X-241.751 Y-47.835 Z-4.95 I0.121 J0.108
X-241.994 Y-48.051 Z-5.011 I-0.121 J-0.108
X-241.751 Y-47.835 Z-5.072 I0.121 J0.108
X-241.994 Y-48.051 Z-5.133 I-0.121 J-0.108
X-241.751 Y-47.835 Z-5.194 I0.121 J0.108
X-241.994 Y-48.051 Z-5.256 I-0.121 J-0.108
X-241.751 Y-47.835 Z-5.317 I0.121 J0.108
X-241.994 Y-48.051 Z-5.378 I-0.121 J-0.108
X-241.751 Y-47.835 Z-5.439 I0.121 J0.108
X-241.994 Y-48.051 Z-5.5 I-0.121 J-0.108
X-241.751 Y-47.835 Z-5.561 I0.121 J0.108
X-241.994 Y-48.051 Z-5.622 I-0.121 J-0.108
X-241.751 Y-47.835 Z-5.683 I0.121 J0.108
X-241.994 Y-48.051 Z-5.744 I-0.121 J-0.108
X-241.751 Y-47.835 Z-5.806 I0.121 J0.108
X-241.994 Y-48.051 Z-5.867 I-0.121 J-0.108
X-241.751 Y-47.835 Z-5.928 I0.121 J0.108
X-241.994 Y-48.051 Z-5.989 I-0.121 J-0.108
X-241.751 Y-47.835 Z-6.05 I0.121 J0.108
X-241.994 Y-48.051 Z-6.111 I-0.121 J-0.108
X-241.751 Y-47.835 Z-6.172 I0.121 J0.108
X-241.994 Y-48.051 Z-6.233 I-0.121 J-0.108
X-241.751 Y-47.835 Z-6.294 I0.121 J0.108
X-241.994 Y-48.051 Z-6.356 I-0.121 J-0.108
X-241.751 Y-47.835 Z-6.417 I0.121 J0.108
X-241.994 Y-48.051 Z-6.478 I-0.121 J-0.108
X-241.751 Y-47.835 Z-6.539 I0.121 J0.108
X-241.994 Y-48.051 Z-6.6 I-0.121 J-0.108
X-241.751 Y-47.835 Z-6.661 I0.121 J0.108
X-241.994 Y-48.051 Z-6.722 I-0.121 J-0.108
X-241.751 Y-47.835 Z-6.783 I0.121 J0.108
X-241.994 Y-48.051 Z-6.844 I-0.121 J-0.108
X-241.751 Y-47.835 Z-6.906 I0.121 J0.108
X-241.994 Y-48.051 Z-6.967 I-0.121 J-0.108
X-241.751 Y-47.835 Z-7.028 I0.121 J0.108
X-241.994 Y-48.051 Z-7.089 I-0.121 J-0.108
X-241.751 Y-47.835 Z-7.15 I0.121 J0.108
X-241.994 Y-48.051 Z-7.211 I-0.121 J-0.108
X-241.751 Y-47.835 Z-7.272 I0.121 J0.108
X-241.994 Y-48.051 Z-7.333 I-0.121 J-0.108
X-241.751 Y-47.835 Z-7.394 I0.121 J0.108
X-241.994 Y-48.051 Z-7.456 I-0.121 J-0.108
X-241.751 Y-47.835 Z-7.517 I0.121 J0.108
X-241.994 Y-48.051 Z-7.578 I-0.121 J-0.108
X-241.751 Y-47.835 Z-7.639 I0.121 J0.108
X-241.994 Y-48.051 Z-7.7 I-0.121 J-0.108
X-241.751 Y-47.835 Z-7.761 I0.121 J0.108
X-241.994 Y-48.051 Z-7.822 I-0.121 J-0.108
X-241.751 Y-47.835 Z-7.883 I0.121 J0.108
X-241.994 Y-48.051 Z-7.944 I-0.121 J-0.108
X-241.751 Y-47.835 Z-8.006 I0.121 J0.108
X-241.994 Y-48.051 Z-8.067 I-0.121 J-0.108
X-241.751 Y-47.835 Z-8.128 I0.121 J0.108
X-241.994 Y-48.051 Z-8.189 I-0.121 J-0.108
X-241.751 Y-47.835 Z-8.25 I0.121 J0.108
X-242.033 Y-47.968 Z-8.3 I-0.121 J-0.108
X-241.712 Y-47.918 I0.161 J0.025
X-242.033 Y-47.968 I-0.161 J-0.025
G1 X-242.022 Y-47.998
X-242.001 Y-48.021
X-241.972 Y-48.034
X-241.94 Y-48.036
X-241.783 Y-48.011
Z5
X-199.405 Y-74.514
Z1.683
Z0
X-199.287 Y-74.409
X-199.267 Y-74.383
X-199.259 Y-74.353
X-199.264 Y-74.321
X-199.28 Y-74.294
G3 X-199.523 Y-74.51 Z-0.061 I-0.121 J-0.108
X-199.28 Y-74.294 Z-0.122 I0.121 J0.108
X-199.523 Y-74.51 Z-0.183 I-0.121 J-0.108
X-199.28 Y-74.294 Z-0.244 I0.121 J0.108
X-199.523 Y-74.51 Z-0.306 I-0.121 J-0.108
X-199.28 Y-74.294 Z-0.367 I0.121 J0.108
X-199.523 Y-74.51 Z-0.428 I-0.121 J-0.108
X-199.28 Y-74.294 Z-0.489 I0.121 J0.108
X-199.523 Y-74.51 Z-0.55 I-0.121 J-0.108
X-199.28 Y-74.294 Z-0.611 I0.121 J0.108
X-199.523 Y-74.51 Z-0.672 I-0.121 J-0.108
X-199.28 Y-74.294 Z-0.733 I0.121 J0.108
X-199.523 Y-74.51 Z-0.794 I-0.121 J-0.108
X-199.28 Y-74.294 Z-0.856 I0.121 J0.108
X-199.523 Y-74.51 Z-0.917 I-0.121 J-0.108
X-199.28 Y-74.294 Z-0.978 I0.121 J0.108
X-199.523 Y-74.51 Z-1.039 I-0.121 J-0.108
X-199.28 Y-74.294 Z-1.1 I0.121 J0.108
X-199.523 Y-74.51 Z-1.161 I-0.121 J-0.108
X-199.28 Y-74.294 Z-1.222 I0.121 J0.108
X-199.523 Y-74.51 Z-1.283 I-0.121 J-0.108
X-199.28 Y-74.294 Z-1.344 I0.121 J0.108
X-199.523 Y-74.51 Z-1.406 I-0.121 J-0.108
X-199.28 Y-74.294 Z-1.467 I0.121 J0.108
X-199.523 Y-74.51 Z-1.528 I-0.121 J-0.108
X-199.28 Y-74.294 Z-1.589 I0.121 J0.108
X-199.523 Y-74.51 Z-1.65 I-0.121 J-0.108
X-199.28 Y-74.294 Z-1.711 I0.121 J0.108
X-199.523 Y-74.51 Z-1.772 I-0.121 J-0.108
X-199.28 Y-74.294 Z-1.833 I0.121 J0.108
X-199.523 Y-74.51 Z-1.894 I-0.121 J-0.108
X-199.28 Y-74.294 Z-1.956 I0.121 J0.108
X-199.523 Y-74.51 Z-2.017 I-0.121 J-0.108
X-199.28 Y-74.294 Z-2.078 I0.121 J0.108
X-199.523 Y-74.51 Z-2.139 I-0.121 J-0.108
X-199.28 Y-74.294 Z-2.2 I0.121 J0.108
X-199.523 Y-74.51 Z-2.261 I-0.121 J-0.108
X-199.28 Y-74.294 Z-2.322 I0.121 J0.108
X-199.523 Y-74.51 Z-2.383 I-0.121 J-0.108
X-199.28 Y-74.294 Z-2.444 I0.121 J0.108
X-199.523 Y-74.51 Z-2.506 I-0.121 J-0.108
X-199.28 Y-74.294 Z-2.567 I0.121 J0.108
X-199.523 Y-74.51 Z-2.628 I-0.121 J-0.108
X-199.28 Y-74.294 Z-2.689 I0.121 J0.108
X-199.523 Y-74.51 Z-2.75 I-0.121 J-0.108
X-199.28 Y-74.294 Z-2.811 I0.121 J0.108
X-199.523 Y-74.51 Z-2.872 I-0.121 J-0.108
X-199.28 Y-74.294 Z-2.933 I0.121 J0.108
X-199.523 Y-74.51 Z-2.994 I-0.121 J-0.108
X-199.28 Y-74.294 Z-3.056 I0.121 J0.108
X-199.523 Y-74.51 Z-3.117 I-0.121 J-0.108
X-199.28 Y-74.294 Z-3.178 I0.121 J0.108
X-199.523 Y-74.51 Z-3.239 I-0.121 J-0.108
X-199.28 Y-74.294 Z-3.3 I0.121 J0.108
X-199.523 Y-74.51 Z-3.361 I-0.121 J-0.108
X-199.28 Y-74.294 Z-3.422 I0.121 J0.108
X-199.523 Y-74.51 Z-3.483 I-0.121 J-0.108
X-199.28 Y-74.294 Z-3.544 I0.121 J0.108
X-199.523 Y-74.51 Z-3.606 I-0.121 J-0.108
X-199.28 Y-74.294 Z-3.667 I0.121 J0.108
X-199.523 Y-74.51 Z-3.728 I-0.121 J-0.108
X-199.28 Y-74.294 Z-3.789 I0.121 J0.108
X-199.523 Y-74.51 Z-3.85 I-0.121 J-0.108
X-199.28 Y-74.294 Z-3.911 I0.121 J0.108
X-199.523 Y-74.51 Z-3.972 I-0.121 J-0.108
X-199.28 Y-74.294 Z-4.033 I0.121 J0.108
X-199.523 Y-74.51 Z-4.094 I-0.121 J-0.108
X-199.28 Y-74.294 Z-4.156 I0.121 J0.108
X-199.523 Y-74.51 Z-4.217 I-0.121 J-0.108
X-199.28 Y-74.294 Z-4.278 I0.121 J0.108
X-199.523 Y-74.51 Z-4.339 I-0.121 J-0.108
X-199.28 Y-74.294 Z-4.4 I0.121 J0.108
X-199.523 Y-74.51 Z-4.461 I-0.121 J-0.108
X-199.28 Y-74.294 Z-4.522 I0.121 J0.108
X-199.523 Y-74.51 Z-4.583 I-0.121 J-0.108
X-199.28 Y-74.294 Z-4.644 I0.121 J0.108
X-199.523 Y-74.51 Z-4.706 I-0.121 J-0.108
X-199.28 Y-74.294 Z-4.767 I0.121 J0.108
X-199.523 Y-74.51 Z-4.828 I-0.121 J-0.108
X-199.28 Y-74.294 Z-4.889 I0.121 J0.108
X-199.523 Y-74.51 Z-4.95 I-0.121 J-0.108
X-199.28 Y-74.294 Z-5.011 I0.121 J0.108
X-199.523 Y-74.51 Z-5.072 I-0.121 J-0.108
X-199.28 Y-74.294 Z-5.133 I0.121 J0.108
X-199.523 Y-74.51 Z-5.194 I-0.121 J-0.108
X-199.28 Y-74.294 Z-5.256 I0.121 J0.108
X-199.523 Y-74.51 Z-5.317 I-0.121 J-0.108
X-199.28 Y-74.294 Z-5.378 I0.121 J0.108
X-199.523 Y-74.51 Z-5.439 I-0.121 J-0.108
X-199.28 Y-74.294 Z-5.5 I0.121 J0.108
X-199.523 Y-74.51 Z-5.561 I-0.121 J-0.108
X-199.28 Y-74.294 Z-5.622 I0.121 J0.108
X-199.523 Y-74.51 Z-5.683 I-0.121 J-0.108
X-199.28 Y-74.294 Z-5.744 I0.121 J0.108
X-199.523 Y-74.51 Z-5.806 I-0.121 J-0.108
X-199.28 Y-74.294 Z-5.867 I0.121 J0.108
X-199.523 Y-74.51 Z-5.928 I-0.121 J-0.108
X-199.28 Y-74.294 Z-5.989 I0.121 J0.108
X-199.523 Y-74.51 Z-6.05 I-0.121 J-0.108
X-199.28 Y-74.294 Z-6.111 I0.121 J0.108
X-199.523 Y-74.51 Z-6.172 I-0.121 J-0.108
X-199.28 Y-74.294 Z-6.233 I0.121 J0.108
X-199.523 Y-74.51 Z-6.294 I-0.121 J-0.108
X-199.28 Y-74.294 Z-6.356 I0.121 J0.108
X-199.523 Y-74.51 Z-6.417 I-0.121 J-0.108
X-199.28 Y-74.294 Z-6.478 I0.121 J0.108
X-199.523 Y-74.51 Z-6.539 I-0.121 J-0.108
X-199.28 Y-74.294 Z-6.6 I0.121 J0.108
X-199.523 Y-74.51 Z-6.661 I-0.121 J-0.108
X-199.28 Y-74.294 Z-6.722 I0.121 J0.108
X-199.523 Y-74.51 Z-6.783 I-0.121 J-0.108
X-199.28 Y-74.294 Z-6.844 I0.121 J0.108
