(1001)
(Bearbeiten)
(  Hersteller: ChinaCnc)
(  model: 3040T)
(  description: Generic 3-axis)
(T5  D=3.175 CR=0 - ZMIN=-3 - Schaftfraser)
G90 G94
G17
G21
(When using Fusion 360 for Personal Use, the feedrate of)
(rapid moves is reduced to match the feedrate of cutting)
(moves, which can increase machining time. Unrestricted rapid)
(moves are available with a Fusion 360 Subscription.)

(Bohrfrasen1)
T5
S6000 M3
G54
G0 X-10 Y0
Z15
G1 Z1.683 F1000
Z0
X-9.994 Y0.006
X-10 Y0.013
X-10.011 Y0.005 Z-0.02
X-10.009 Y-0.008 Z-0.041
X-9.997 Y-0.012 Z-0.061
X-9.988 Y-0.002 Z-0.081
X-9.993 Y0.01 Z-0.101
X-10.007 Y0.011 Z-0.122
X-10.012 Y-0.002 Z-0.142
X-10.004 Y-0.012 Z-0.162
X-9.991 Y-0.008 Z-0.182
X-9.988 Y0.005 Z-0.203
X-10 Y0.012 Z-0.223
X-10.011 Y0.006 Z-0.243
X-10.01 Y-0.008 Z-0.264
X-9.997 Y-0.012 Z-0.284
X-9.988 Y-0.002 Z-0.304
X-9.993 Y0.01 Z-0.324
X-10.006 Y0.011 Z-0.345
X-10.012 Y-0.001 Z-0.365
X-10.004 Y-0.012 Z-0.385
X-9.991 Y-0.009 Z-0.405
X-9.988 Y0.005 Z-0.426
X-9.999 Y0.012 Z-0.446
X-10.011 Y0.006 Z-0.466
X-10.01 Y-0.008 Z-0.486
X-9.997 Y-0.012 Z-0.507
X-9.988 Y-0.003 Z-0.527
X-9.993 Y0.01 Z-0.547
X-10.006 Y0.011 Z-0.568
X-10.012 Y-0.001 Z-0.588
X-10.004 Y-0.012 Z-0.608
X-9.991 Y-0.009 Z-0.628
X-9.988 Y0.004 Z-0.649
X-9.999 Y0.012 Z-0.669
X-10.011 Y0.006 Z-0.689
X-10.01 Y-0.007 Z-0.709
X-9.998 Y-0.012 Z-0.73
X-9.988 Y-0.003 Z-0.75
X-9.992 Y0.01 Z-0.77
X-10.006 Y0.011 Z-0.791
X-10.012 Y0 Z-0.811
X-10.005 Y-0.012 Z-0.831
X-9.992 Y-0.009 Z-0.851
X-9.988 Y0.004 Z-0.872
X-9.999 Y0.012 Z-0.892
X-10.011 Y0.007 Z-0.912
X-10.01 Y-0.007 Z-0.932
X-9.998 Y-0.012 Z-0.953
X-9.988 Y-0.003 Z-0.973
X-9.992 Y0.01 Z-0.993
X-10.005 Y0.011 Z-1.014
X-10.012 Y0 Z-1.034
X-10.005 Y-0.011 Z-1.054
X-9.992 Y-0.009 Z-1.074
X-9.988 Y0.004 Z-1.095
X-9.998 Y0.012 Z-1.115
X-10.01 Y0.007 Z-1.135
X-10.011 Y-0.007 Z-1.155
X-9.998 Y-0.012 Z-1.176
X-9.988 Y-0.004 Z-1.196
X-9.992 Y0.009 Z-1.216
X-10.005 Y0.011 Z-1.236
X-10.012 Y0 Z-1.257
X-10.005 Y-0.011 Z-1.277
X-9.992 Y-0.01 Z-1.297
X-9.988 Y0.003 Z-1.318
X-9.998 Y0.012 Z-1.338
X-10.01 Y0.007 Z-1.358
X-10.011 Y-0.006 Z-1.378
X-9.999 Y-0.012 Z-1.399
X-9.988 Y-0.004 Z-1.419
X-9.991 Y0.009 Z-1.439
X-10.005 Y0.012 Z-1.459
X-10.012 Y0.001 Z-1.48
X-10.006 Y-0.011 Z-1.5
X-9.992 Y-0.01 Z-1.52
X-9.988 Y0.003 Z-1.541
X-9.997 Y0.012 Z-1.561
X-10.01 Y0.007 Z-1.581
X-10.011 Y-0.006 Z-1.601
X-9.999 Y-0.012 Z-1.622
X-9.988 Y-0.004 Z-1.642
X-9.991 Y0.009 Z-1.662
X-10.004 Y0.012 Z-1.682
X-10.012 Y0.001 Z-1.703
X-10.006 Y-0.011 Z-1.723
X-9.993 Y-0.01 Z-1.743
X-9.988 Y0.002 Z-1.764
X-9.997 Y0.012 Z-1.784
X-10.01 Y0.008 Z-1.804
X-10.011 Y-0.006 Z-1.824
X-9.999 Y-0.012 Z-1.845
X-9.988 Y-0.005 Z-1.865
X-9.991 Y0.009 Z-1.885
X-10.004 Y0.012 Z-1.905
X-10.012 Y0.001 Z-1.926
X-10.006 Y-0.011 Z-1.946
X-9.993 Y-0.01 Z-1.966
X-9.988 Y0.002 Z-1.986
X-9.997 Y0.012 Z-2.007
X-10.01 Y0.008 Z-2.027
X-10.011 Y-0.005 Z-2.047
X-10 Y-0.012 Z-2.068
X-9.989 Y-0.005 Z-2.088
X-9.991 Y0.008 Z-2.108
X-10.004 Y0.012 Z-2.128
X-10.012 Y0.002 Z-2.149
X-10.007 Y-0.011 Z-2.169
X-9.993 Z-2.189
X-9.988 Y0.002 Z-2.209
X-9.996 Y0.012 Z-2.23
X-10.009 Y0.008 Z-2.25
X-10.011 Y-0.005 Z-2.27
X-10 Y-0.012 Z-2.291
X-9.989 Y-0.005 Z-2.311
X-9.99 Y0.008 Z-2.331
X-10.003 Y0.012 Z-2.351
X-10.012 Y0.002 Z-2.372
X-10.007 Y-0.01 Z-2.392
X-9.994 Y-0.011 Z-2.412
X-9.988 Y0.001 Z-2.432
X-9.996 Y0.012 Z-2.453
X-10.009 Y0.009 Z-2.473
X-10.012 Y-0.005 Z-2.493
X-10.001 Y-0.012 Z-2.514
X-9.989 Y-0.006 Z-2.534
X-9.99 Y0.008 Z-2.554
X-10.003 Y0.012 Z-2.574
X-10.012 Y0.002 Z-2.595
X-10.007 Y-0.01 Z-2.615
X-9.994 Y-0.011 Z-2.635
X-9.988 Y0.001 Z-2.655
X-9.996 Y0.012 Z-2.676
X-10.009 Y0.009 Z-2.696
X-10.012 Y-0.004 Z-2.716
X-10.001 Y-0.012 Z-2.736
X-9.989 Y-0.006 Z-2.757
X-9.99 Y0.007 Z-2.777
X-10.003 Y0.012 Z-2.797
X-10.012 Y0.003 Z-2.818
X-10.008 Y-0.01 Z-2.838
X-9.994 Y-0.011 Z-2.858
X-9.988 Y0.001 Z-2.878
X-9.995 Y0.012 Z-2.899
X-10.009 Y0.009 Z-2.919
X-10.012 Y-0.004 Z-2.939
X-10.001 Y-0.012 Z-2.959
X-9.989 Y-0.006 Z-2.98
X-9.99 Y0.007 Z-3
G3 X-10.01 Y-0.007 I-0.01 J-0.007
X-9.99 Y0.007 I0.01 J0.007
G1 X-9.998 Y0.009
X-10 Y0
Z5
X-32.682 Y0.119
Z2
Z0.317
G19 G3 Y0.436 Z0 J0.318 K0
G1 Y0.595
G17 G3 X-33 Y0.913 I-0.318 J0
X-33 Y-0.913 Z-0.087 I0 J-0.913
X-33 Y0.913 Z-0.175 I0 J0.913
X-33 Y-0.913 Z-0.262 I0 J-0.913
X-33 Y0.913 Z-0.349 I0 J0.913
X-33 Y-0.913 Z-0.437 I0 J-0.913
X-33 Y0.913 Z-0.524 I0 J0.913
X-33 Y-0.913 Z-0.611 I0 J-0.913
X-33 Y0.913 Z-0.698 I0 J0.913
X-33 Y-0.913 Z-0.786 I0 J-0.913
X-33 Y0.913 Z-0.873 I0 J0.913
X-33 Y-0.913 Z-0.96 I0 J-0.913
X-33 Y0.913 Z-1.048 I0 J0.913
X-33 Y-0.913 Z-1.135 I0 J-0.913
X-33 Y0.913 Z-1.222 I0 J0.913
X-33 Y-0.913 Z-1.31 I0 J-0.913
X-33 Y0.913 Z-1.397 I0 J0.913
X-33 Y-0.913 Z-1.484 I0 J-0.913
X-33 Y0.913 Z-1.571 I0 J0.913
X-33 Y-0.913 Z-1.659 I0 J-0.913
X-33 Y0.913 Z-1.746 I0 J0.913
X-33 Y-0.913 Z-1.833 I0 J-0.913
X-33 Y0.913 Z-1.921 I0 J0.913
X-33 Y-0.913 Z-2.008 I0 J-0.913
X-33 Y0.913 Z-2.095 I0 J0.913
X-33 Y-0.913 Z-2.183 I0 J-0.913
X-33 Y0.913 Z-2.27 I0 J0.913
X-33 Y-0.913 Z-2.357 I0 J-0.913
X-33 Y0.913 Z-2.444 I0 J0.913
X-33 Y-0.913 Z-2.532 I0 J-0.913
X-33 Y0.913 Z-2.619 I0 J0.913
X-33 Y-0.913 Z-2.706 I0 J-0.913
X-33 Y0.913 Z-2.794 I0 J0.913
X-33 Y-0.913 Z-2.881 I0 J-0.913
X-33 Y0.913 Z-2.968 I0 J0.913
X-33.83 Y0.379 Z-3 I0 J-0.913
X-32.17 Y-0.379 I0.83 J-0.379
X-33.83 Y0.379 I-0.83 J0.379
X-33.673 Y-0.041 I0.289 J-0.132
G1 X-33.529 Y-0.107
X-33.465 Y-0.137 Z-2.992
X-33.403 Y-0.165 Z-2.969
X-33.349 Y-0.19 Z-2.931
X-33.303 Y-0.211 Z-2.88
X-33.269 Y-0.226 Z-2.82
X-33.247 Y-0.236 Z-2.753
X-33.24 Y-0.239 Z-2.682
Z5
X-82.683 Y0.119
Z2
Z0.317
G19 G3 Y0.436 Z0 J0.318 K0
G1 Y0.595
G17 G3 X-83 Y0.913 I-0.317 J0
X-83 Y-0.912 Z-0.087 I0 J-0.913
X-83 Y0.912 Z-0.175 I0 J0.912
X-83 Y-0.912 Z-0.262 I0 J-0.912
X-83 Y0.912 Z-0.349 I0 J0.912
X-83 Y-0.912 Z-0.437 I0 J-0.912
X-83 Y0.912 Z-0.524 I0 J0.912
X-83 Y-0.912 Z-0.611 I0 J-0.912
X-83 Y0.912 Z-0.698 I0 J0.912
X-83 Y-0.912 Z-0.786 I0 J-0.912
X-83 Y0.912 Z-0.873 I0 J0.912
X-83 Y-0.912 Z-0.96 I0 J-0.912
X-83 Y0.912 Z-1.048 I0 J0.912
X-83 Y-0.912 Z-1.135 I0 J-0.912
X-83 Y0.912 Z-1.222 I0 J0.912
X-83 Y-0.912 Z-1.31 I0 J-0.912
X-83 Y0.912 Z-1.397 I0 J0.912
X-83 Y-0.912 Z-1.484 I0 J-0.912
X-83 Y0.912 Z-1.571 I0 J0.912
X-83 Y-0.912 Z-1.659 I0 J-0.912
X-83 Y0.912 Z-1.746 I0 J0.912
X-83 Y-0.912 Z-1.833 I0 J-0.912
X-83 Y0.912 Z-1.921 I0 J0.912
X-83 Y-0.912 Z-2.008 I0 J-0.912
X-83 Y0.912 Z-2.095 I0 J0.912
X-83 Y-0.912 Z-2.183 I0 J-0.912
X-83 Y0.912 Z-2.27 I0 J0.912
X-83 Y-0.912 Z-2.357 I0 J-0.912
X-83 Y0.912 Z-2.444 I0 J0.912
X-83 Y-0.912 Z-2.532 I0 J-0.912
X-83 Y0.912 Z-2.619 I0 J0.912
X-83 Y-0.912 Z-2.706 I0 J-0.912
X-83 Y0.912 Z-2.794 I0 J0.912
X-83 Y-0.912 Z-2.881 I0 J-0.912
X-83 Y0.912 Z-2.968 I0 J0.912
X-83.83 Y0.379 Z-3 I0 J-0.912
X-82.17 Y-0.379 I0.83 J-0.379
X-83.83 Y0.379 I-0.83 J0.379
X-83.673 Y-0.041 I0.289 J-0.132
G1 X-83.529 Y-0.107
X-83.465 Y-0.137 Z-2.992
X-83.403 Y-0.165 Z-2.969
X-83.349 Y-0.19 Z-2.931
X-83.303 Y-0.211 Z-2.88
X-83.269 Y-0.226 Z-2.82
X-83.247 Y-0.236 Z-2.753
X-83.24 Y-0.239 Z-2.682
Z5
X-242.682 Y0.119
Z2
Z0.317
G19 G3 Y0.436 Z0 J0.318 K0
G1 Y0.595
G17 G3 X-243 Y0.913 I-0.318 J0
X-243 Y-0.912 Z-0.087 I0 J-0.913
X-243 Y0.912 Z-0.175 I0 J0.912
X-243 Y-0.912 Z-0.262 I0 J-0.912
X-243 Y0.912 Z-0.349 I0 J0.912
X-243 Y-0.912 Z-0.437 I0 J-0.912
X-243 Y0.912 Z-0.524 I0 J0.912
X-243 Y-0.912 Z-0.611 I0 J-0.912
X-243 Y0.912 Z-0.698 I0 J0.912
X-243 Y-0.912 Z-0.786 I0 J-0.912
X-243 Y0.912 Z-0.873 I0 J0.912
X-243 Y-0.912 Z-0.96 I0 J-0.912
X-243 Y0.912 Z-1.048 I0 J0.912
X-243 Y-0.912 Z-1.135 I0 J-0.912
X-243 Y0.912 Z-1.222 I0 J0.912
X-243 Y-0.912 Z-1.31 I0 J-0.912
X-243 Y0.912 Z-1.397 I0 J0.912
X-243 Y-0.912 Z-1.484 I0 J-0.912
X-243 Y0.912 Z-1.571 I0 J0.912
X-243 Y-0.912 Z-1.659 I0 J-0.912
X-243 Y0.912 Z-1.746 I0 J0.912
X-243 Y-0.912 Z-1.833 I0 J-0.912
X-243 Y0.912 Z-1.921 I0 J0.912
X-243 Y-0.912 Z-2.008 I0 J-0.912
X-243 Y0.912 Z-2.095 I0 J0.912
X-243 Y-0.912 Z-2.183 I0 J-0.912
X-243 Y0.912 Z-2.27 I0 J0.912
X-243 Y-0.912 Z-2.357 I0 J-0.912
X-243 Y0.912 Z-2.444 I0 J0.912
X-243 Y-0.912 Z-2.532 I0 J-0.912
X-243 Y0.912 Z-2.619 I0 J0.912
X-243 Y-0.912 Z-2.706 I0 J-0.912
X-243 Y0.912 Z-2.794 I0 J0.912
X-243 Y-0.912 Z-2.881 I0 J-0.912
X-243 Y0.912 Z-2.968 I0 J0.912
X-243.83 Y0.379 Z-3 I0 J-0.912
X-242.17 Y-0.379 I0.83 J-0.379
X-243.83 Y0.379 I-0.83 J0.379
X-243.673 Y-0.041 I0.289 J-0.132
G1 X-243.529 Y-0.107
X-243.465 Y-0.137 Z-2.992
X-243.403 Y-0.165 Z-2.969
X-243.349 Y-0.19 Z-2.931
X-243.303 Y-0.211 Z-2.88
X-243.269 Y-0.226 Z-2.82
X-243.247 Y-0.236 Z-2.753
X-243.24 Y-0.239 Z-2.682
Z15
M5
M30
