(1001)
G90 G94
G17
G21
(When using Fusion 360 for Personal Use, the feedrate of)
(rapid moves is reduced to match the feedrate of cutting)
(moves, which can increase machining time. Unrestricted rapid)
(moves are available with a Fusion 360 Subscription.)

(Bohrfrasen1)
S6000 M3
G54
G0 X-9.2 Y-69.05
Z15
G1 Z1.683 F1000
Z0
X-9.231 Y-69.019
X-9.247 Y-69.023
X-9.258 Y-69.034
X-9.262 Y-69.05
X-9.255 Y-69.08 Z-0.08
X-9.233 Y-69.103 Z-0.16
X-9.204 Y-69.112 Z-0.24
X-9.173 Y-69.107 Z-0.32
X-9.149 Y-69.087 Z-0.4
X-9.138 Y-69.058 Z-0.48
X-9.142 Y-69.027 Z-0.56
X-9.16 Y-69.002 Z-0.64
X-9.188 Y-68.989 Z-0.72
X-9.219 Y-68.991 Z-0.8
X-9.246 Y-69.007 Z-0.88
X-9.261 Y-69.034 Z-0.96
Y-69.066 Z-1.04
X-9.246 Y-69.093 Z-1.12
X-9.219 Y-69.109 Z-1.2
X-9.188 Y-69.111 Z-1.28
X-9.16 Y-69.098 Z-1.36
X-9.142 Y-69.073 Z-1.44
X-9.138 Y-69.042 Z-1.52
X-9.149 Y-69.013 Z-1.6
X-9.173 Y-68.993 Z-1.68
X-9.204 Y-68.988 Z-1.76
X-9.233 Y-68.997 Z-1.84
X-9.255 Y-69.02 Z-1.92
X-9.263 Y-69.05 Z-2
X-9.255 Y-69.08 Z-2.08
X-9.233 Y-69.103 Z-2.16
X-9.204 Y-69.112 Z-2.24
X-9.173 Y-69.107 Z-2.32
X-9.149 Y-69.087 Z-2.4
X-9.138 Y-69.058 Z-2.48
X-9.142 Y-69.027 Z-2.56
X-9.16 Y-69.002 Z-2.64
X-9.188 Y-68.989 Z-2.72
X-9.219 Y-68.991 Z-2.8
X-9.246 Y-69.007 Z-2.88
X-9.261 Y-69.034 Z-2.96
Y-69.066 Z-3.04
X-9.246 Y-69.093 Z-3.12
X-9.219 Y-69.109 Z-3.2
G3 X-9.181 Y-68.991 I0.019 J0.059
X-9.219 Y-69.109 I-0.019 J-0.059
G1 X-9.203 Y-69.11
X-9.189 Y-69.103
X-9.18 Y-69.089
X-9.2 Y-69.05
Z5
X-9.37 Y-21.65
Z1.683
Z0
X-9.401 Y-21.619
X-9.417 Y-21.623
X-9.428 Y-21.634
X-9.432 Y-21.65
X-9.425 Y-21.68 Z-0.08
X-9.403 Y-21.703 Z-0.16
X-9.374 Y-21.712 Z-0.24
X-9.343 Y-21.707 Z-0.32
X-9.319 Y-21.687 Z-0.4
X-9.308 Y-21.658 Z-0.48
X-9.312 Y-21.627 Z-0.56
X-9.33 Y-21.602 Z-0.64
X-9.358 Y-21.589 Z-0.72
X-9.389 Y-21.591 Z-0.8
X-9.416 Y-21.607 Z-0.88
X-9.431 Y-21.634 Z-0.96
Y-21.666 Z-1.04
X-9.416 Y-21.693 Z-1.12
X-9.389 Y-21.709 Z-1.2
X-9.358 Y-21.711 Z-1.28
X-9.33 Y-21.698 Z-1.36
X-9.312 Y-21.673 Z-1.44
X-9.308 Y-21.642 Z-1.52
X-9.319 Y-21.613 Z-1.6
X-9.343 Y-21.593 Z-1.68
X-9.374 Y-21.588 Z-1.76
X-9.403 Y-21.597 Z-1.84
X-9.425 Y-21.62 Z-1.92
X-9.432 Y-21.65 Z-2
X-9.425 Y-21.68 Z-2.08
X-9.403 Y-21.703 Z-2.16
X-9.374 Y-21.712 Z-2.24
X-9.343 Y-21.707 Z-2.32
X-9.319 Y-21.687 Z-2.4
X-9.308 Y-21.658 Z-2.48
X-9.312 Y-21.627 Z-2.56
X-9.33 Y-21.602 Z-2.64
X-9.358 Y-21.589 Z-2.72
X-9.389 Y-21.591 Z-2.8
X-9.416 Y-21.607 Z-2.88
X-9.431 Y-21.634 Z-2.96
Y-21.666 Z-3.04
X-9.416 Y-21.693 Z-3.12
X-9.389 Y-21.709 Z-3.2
G3 X-9.351 Y-21.591 I0.019 J0.059
X-9.389 Y-21.709 I-0.019 J-0.059
G1 X-9.373 Y-21.71
X-9.359 Y-21.703
X-9.35 Y-21.689
X-9.37 Y-21.65
Z5
X-119.41 Y-6.69
Z1.683
Z0
X-119.441 Y-6.659
X-119.457 Y-6.663
X-119.468 Y-6.674
X-119.473 Y-6.69
X-119.465 Y-6.72 Z-0.08
X-119.443 Y-6.743 Z-0.16
X-119.414 Y-6.752 Z-0.24
X-119.383 Y-6.747 Z-0.32
X-119.359 Y-6.727 Z-0.4
X-119.348 Y-6.698 Z-0.48
X-119.352 Y-6.667 Z-0.56
X-119.37 Y-6.642 Z-0.64
X-119.398 Y-6.629 Z-0.72
X-119.429 Y-6.631 Z-0.8
X-119.456 Y-6.647 Z-0.88
X-119.471 Y-6.674 Z-0.96
Y-6.706 Z-1.04
X-119.456 Y-6.733 Z-1.12
X-119.429 Y-6.749 Z-1.2
X-119.398 Y-6.751 Z-1.28
X-119.37 Y-6.738 Z-1.36
X-119.352 Y-6.713 Z-1.44
X-119.348 Y-6.682 Z-1.52
X-119.359 Y-6.653 Z-1.6
X-119.383 Y-6.633 Z-1.68
X-119.414 Y-6.628 Z-1.76
X-119.443 Y-6.637 Z-1.84
X-119.465 Y-6.66 Z-1.92
X-119.472 Y-6.69 Z-2
X-119.465 Y-6.72 Z-2.08
X-119.443 Y-6.743 Z-2.16
X-119.414 Y-6.752 Z-2.24
X-119.383 Y-6.747 Z-2.32
X-119.359 Y-6.727 Z-2.4
X-119.348 Y-6.698 Z-2.48
X-119.352 Y-6.667 Z-2.56
X-119.37 Y-6.642 Z-2.64
X-119.398 Y-6.629 Z-2.72
X-119.429 Y-6.631 Z-2.8
X-119.456 Y-6.647 Z-2.88
X-119.471 Y-6.674 Z-2.96
Y-6.706 Z-3.04
X-119.456 Y-6.733 Z-3.12
X-119.429 Y-6.749 Z-3.2
G3 X-119.391 Y-6.631 I0.019 J0.059
X-119.429 Y-6.749 I-0.019 J-0.059
G1 X-119.413 Y-6.75
X-119.399 Y-6.743
X-119.39 Y-6.729
X-119.41 Y-6.69
Z5
X-131.28 Y-69.4
Z1.683
Z0
X-131.311 Y-69.369
X-131.327 Y-69.373
X-131.338 Y-69.384
X-131.342 Y-69.4
X-131.335 Y-69.43 Z-0.08
X-131.313 Y-69.453 Z-0.16
X-131.284 Y-69.462 Z-0.24
X-131.253 Y-69.457 Z-0.32
X-131.229 Y-69.437 Z-0.4
X-131.218 Y-69.408 Z-0.48
X-131.222 Y-69.377 Z-0.56
X-131.24 Y-69.352 Z-0.64
X-131.268 Y-69.339 Z-0.72
X-131.299 Y-69.341 Z-0.8
X-131.326 Y-69.357 Z-0.88
X-131.341 Y-69.384 Z-0.96
Y-69.416 Z-1.04
X-131.326 Y-69.443 Z-1.12
X-131.299 Y-69.459 Z-1.2
X-131.268 Y-69.461 Z-1.28
X-131.24 Y-69.448 Z-1.36
X-131.222 Y-69.423 Z-1.44
X-131.218 Y-69.392 Z-1.52
X-131.229 Y-69.363 Z-1.6
X-131.253 Y-69.343 Z-1.68
X-131.284 Y-69.338 Z-1.76
X-131.313 Y-69.347 Z-1.84
X-131.335 Y-69.37 Z-1.92
X-131.342 Y-69.4 Z-2
X-131.335 Y-69.43 Z-2.08
X-131.313 Y-69.453 Z-2.16
X-131.284 Y-69.462 Z-2.24
X-131.253 Y-69.457 Z-2.32
X-131.229 Y-69.437 Z-2.4
X-131.218 Y-69.408 Z-2.48
X-131.222 Y-69.377 Z-2.56
X-131.24 Y-69.352 Z-2.64
X-131.268 Y-69.339 Z-2.72
X-131.299 Y-69.341 Z-2.8
X-131.326 Y-69.357 Z-2.88
X-131.341 Y-69.384 Z-2.96
Y-69.416 Z-3.04
X-131.326 Y-69.443 Z-3.12
X-131.299 Y-69.459 Z-3.2
G3 X-131.261 Y-69.341 I0.019 J0.059
X-131.299 Y-69.459 I-0.019 J-0.059
G1 X-131.283 Y-69.46
X-131.269 Y-69.453
X-131.26 Y-69.439
X-131.28 Y-69.4
Z15
(When using Fusion 360 for Personal Use, the feedrate of)
(rapid moves is reduced to match the feedrate of cutting)
(moves, which can increase machining time. Unrestricted rapid)
(moves are available with a Fusion 360 Subscription.)

(2D-Kontur1)
G0 X-70.839 Y-54.063
G1 Z15 F1000
Z5
Z1.3 F333.3
Z1
S5000
X-60.287 Z0.632
Y-52.737 Z0.585
X-82.113 Z-0.177
Y-53.4 Z-0.2
S6000
Y-54.063 F1000
X-60.287
Y-52.737
X-82.113
Y-53.4
Z5
X-100.216 Y-44.961
Z1.3 F333.3
Z1
S5000
X-92.787 Y-49.25 Z0.7
Y-48.917 Z0.689
X-114.613 Y-36.316 Z-0.191
Y-36.566 Z-0.2
S6000
Y-36.65 F1000
X-92.787 Y-49.25
Y-48.917
X-114.613 Y-36.316
Y-36.566
Z5
X-100.216 Y-35.561
Z1.3 F333.3
Z1
S5000
X-92.787 Y-39.85 Z0.7
Y-39.517 Z0.689
X-114.613 Y-26.916 Z-0.191
Y-27.166 Z-0.2
S6000
Y-27.25 F1000
X-92.787 Y-39.85
Y-39.517
X-114.613 Y-26.916
Y-27.166
Z5
X-106.75 Y-22.055
Z1.3 F333.3
Z1
S5000
X-114.613 Y-17.516 Z0.683
Y-17.85 Z0.671
X-93.004 Y-30.325 Z-0.2
S6000
X-92.787 Y-30.45 F1000
Y-30.117
X-114.613 Y-17.516
Y-17.85
X-93.004 Y-30.325
Z5
X-107.184 Y-12.405
Z1.3 F333.3
Z1
S5000
X-114.613 Y-8.116 Z0.7
Y-8.45 Z0.689
X-92.787 Y-21.05 Z-0.191
Y-20.8 Z-0.2
S6000
Y-20.717 F1000
X-114.613 Y-8.116
Y-8.45
X-92.787 Y-21.05
Y-20.8
Z5
X-70.236 Y-6.238
Z1.3 F333.3
Z1
S5000
X-82.113 Z0.585
Y-7.563 Z0.539
X-60.95 Z-0.2
S6000
X-60.287 F1000
Y-6.238
X-82.113
Y-7.563
X-60.95
Z5
X-35.505 Y-12.906
Z1.3 F333.3
Z1
S5000
X-27.788 Y-8.45 Z0.689
Y-8.116 Z0.677
X-49.54 Y-20.675 Z-0.2
S6000
X-49.612 Y-20.717 F1000
Y-21.05
X-27.788 Y-8.45
Y-8.116
X-49.54 Y-20.675
Z5
X-35.505 Y-22.306
Z1.3 F333.3
Z1
S5000
X-27.788 Y-17.85 Z0.689
Y-17.516 Z0.677
X-49.54 Y-30.075 Z-0.2
S6000
X-49.612 Y-30.117 F1000
Y-30.45
X-27.788 Y-17.85
Y-17.516
X-49.54 Y-30.075
Z5
X-35.361 Y-31.622
Z1.3 F333.3
Z1
S5000
X-27.788 Y-27.25 Z0.695
Y-26.916 Z0.683
X-49.612 Y-39.517 Z-0.197
Y-39.6 Z-0.2
S6000
Y-39.85 F1000
X-27.788 Y-27.25
Y-26.916
X-49.612 Y-39.517
Y-39.6
Z5
X-42.473 Y-44.794
Z1.3 F333.3
Z1
S5000
X-49.612 Y-48.917 Z0.712
Y-49.25 Z0.7
X-27.788 Y-36.65 Z-0.18
Y-36.316 Z-0.191
X-28.004 Y-36.441 Z-0.2
S6000
X-49.612 Y-48.917 F1000
Y-49.25
X-27.788 Y-36.65
Y-36.316
X-28.004 Y-36.441
Z5
X-42.473 Y-54.194
Z1.3 F333.3
Z1
S5000
X-49.612 Y-58.317 Z0.712
Y-58.65 Z0.7
X-27.788 Y-46.05 Z-0.18
Y-45.716 Z-0.191
X-28.004 Y-45.841 Z-0.2
S6000
X-49.612 Y-58.317 F1000
Y-58.65
X-27.788 Y-46.05
Y-45.716
X-28.004 Y-45.841
Z5
X-35.361 Y-59.822
Z1.3 F333.3
Z1
S5000
X-27.788 Y-55.45 Z0.695
Y-55.116 Z0.683
X-49.612 Y-67.717 Z-0.197
Y-67.8 Z-0.2
S6000
Y-68.05 F1000
X-27.788 Y-55.45
Y-55.116
X-49.612 Y-67.717
Y-67.8
Z5
X-16.183 Y-51.888
Z1.3 F333.3
Z1
S5000
X-19.612 Z0.88
Y-63.142 Z0.487
X-18.542 Y-64.213 Z0.434
X-15.658 Z0.334
X-14.587 Y-63.142 Z0.281
Y-51.888 Z-0.112
X-17.1 Z-0.2
S6000
X-19.612 F1000
Y-63.142
X-18.542 Y-64.213
X-15.658
X-14.587 Y-63.142
Y-51.888
X-17.1
Z5
X-100.216 Y-54.361
Z1.3 F333.3
Z1
S5000
X-92.787 Y-58.65 Z0.7
Y-58.317 Z0.689
X-114.613 Y-45.716 Z-0.191
Y-45.966 Z-0.2
S6000
Y-46.05 F1000
X-92.787 Y-58.65
Y-58.317
X-114.613 Y-45.716
Y-45.966
Z5
X-100.65 Y-63.511
Z1.3 F333.3
Z1
S5000
X-92.787 Y-68.05 Z0.683
Y-67.717 Z0.671
X-114.396 Y-55.241 Z-0.2
S6000
X-114.613 Y-55.116 F1000
Y-55.45
X-92.787 Y-68.05
Y-67.717
X-114.396 Y-55.241
Z15
(When using Fusion 360 for Personal Use, the feedrate of)
(rapid moves is reduced to match the feedrate of cutting)
(moves, which can increase machining time. Unrestricted rapid)
(moves are available with a Fusion 360 Subscription.)

(2D-Kontur2)
G0 X-142.988 Y-7.427
G1 Z15 F1000
Z5
Z2.5 F333.3
S5000
Y-5.2 Z2.422
G2 X-137.2 Y0.587 Z2.105 I5.788 J0
G1 X-75.287 Z-0.057
Z0.6
X-71.2
S6000
X-67.113 F1000
Z-0.2 F333.3
X-5.2 F1000
G2 X0.587 Y-5.2 I0 J-5.787
G1 Y-71.6
G2 X-5.2 Y-77.387 I-5.787 J0
G1 X-67.113
Z0.6
X-75.287
Z-0.2 F333.3
X-137.2 F1000
G2 X-142.988 Y-71.6 I0 J5.787
G1 Y-5.2
G2 X-137.2 Y0.587 I5.788 J0
G1 X-75.287
Z0.6
X-71.2
Z15
M5
M30
