(1001)
(T14  D=1.5 CR=0 - ZMIN=-2.2 - Schaftfraser)
G90 G94
G17
G21
G28 G91 Z0
G90

(Bohrfrasen1)
T14
S6000 M3
G54
G0 X-9.125 Y-7.6
Z15
Z2
G1 Z0.15 F400
X-9.132 Z0.104
X-9.154 Z0.062
X-9.187 Z0.029
X-9.229 Z0.007
X-9.275 Z0
X-9.35
X-9.396 Y-7.607
X-9.438 Y-7.629
X-9.471 Y-7.662
X-9.493 Y-7.704
X-9.5 Y-7.75
G3 X-8.9 Y-7.75 Z-0.5 I0.3 J0 F600
X-9.5 Y-7.75 Z-1 I-0.3 J0
X-8.9 Y-7.75 Z-1.5 I0.3 J0
X-9.5 Y-7.75 Z-2 I-0.3 J0
X-9.293 Y-8.035 Z-2.2 I0.3 J0
X-9.107 Y-7.465 I0.093 J0.285
X-9.293 Y-8.035 I-0.093 J-0.285
G1 X-9.246 Y-8.043
X-9.2 Y-8.035
X-9.158 Y-8.014
X-9.125 Y-7.981
X-9.104 Y-7.939
X-9.081 Y-7.868
X-9.066 Y-7.824 Z-2.193
X-9.053 Y-7.784 Z-2.171
X-9.043 Y-7.752 Z-2.138
X-9.036 Y-7.732 Z-2.096
X-9.034 Y-7.725 Z-2.05
G0 Z5
X-9.295 Y-55
Z2
G1 Z0.15 F400
X-9.302 Z0.104
X-9.324 Z0.062
X-9.357 Z0.029
X-9.399 Z0.007
X-9.445 Z0
X-9.52
X-9.566 Y-55.007
X-9.608 Y-55.029
X-9.641 Y-55.062
X-9.663 Y-55.104
X-9.67 Y-55.15
G3 X-9.07 Y-55.15 Z-0.5 I0.3 J0 F600
X-9.67 Y-55.15 Z-1 I-0.3 J0
X-9.07 Y-55.15 Z-1.5 I0.3 J0
X-9.67 Y-55.15 Z-2 I-0.3 J0
X-9.463 Y-55.435 Z-2.2 I0.3 J0
X-9.277 Y-54.865 I0.093 J0.285
X-9.463 Y-55.435 I-0.093 J-0.285
G1 X-9.416 Y-55.443
X-9.37 Y-55.435
X-9.328 Y-55.414
X-9.295 Y-55.381
X-9.274 Y-55.339
X-9.251 Y-55.268
X-9.236 Y-55.224 Z-2.193
X-9.223 Y-55.184 Z-2.171
X-9.213 Y-55.152 Z-2.138
X-9.206 Y-55.132 Z-2.096
X-9.204 Y-55.125 Z-2.05
G0 Z5
X-119.335 Y-69.96
Z2
G1 Z0.15 F400
X-119.342 Z0.104
X-119.364 Z0.062
X-119.397 Z0.029
X-119.439 Z0.007
X-119.485 Z0
X-119.56
X-119.606 Y-69.967
X-119.648 Y-69.989
X-119.681 Y-70.022
X-119.703 Y-70.064
X-119.71 Y-70.11
G3 X-119.11 Y-70.11 Z-0.5 I0.3 J0 F600
X-119.71 Y-70.11 Z-1 I-0.3 J0
X-119.11 Y-70.11 Z-1.5 I0.3 J0
X-119.71 Y-70.11 Z-2 I-0.3 J0
X-119.503 Y-70.395 Z-2.2 I0.3 J0
X-119.317 Y-69.825 I0.093 J0.285
X-119.503 Y-70.395 I-0.093 J-0.285
G1 X-119.456 Y-70.403
X-119.41 Y-70.395
X-119.368 Y-70.374
X-119.335 Y-70.341
X-119.314 Y-70.299
X-119.291 Y-70.228
X-119.276 Y-70.184 Z-2.193
X-119.263 Y-70.144 Z-2.171
X-119.253 Y-70.112 Z-2.138
X-119.246 Y-70.092 Z-2.096
X-119.244 Y-70.085 Z-2.05
G0 Z5
X-131.205 Y-7.25
Z2
G1 Z0.15 F400
X-131.212 Z0.104
X-131.234 Z0.062
X-131.267 Z0.029
X-131.309 Z0.007
X-131.355 Z0
X-131.43
X-131.476 Y-7.257
X-131.518 Y-7.279
X-131.551 Y-7.312
X-131.573 Y-7.354
X-131.58 Y-7.4
G3 X-130.98 Y-7.4 Z-0.5 I0.3 J0 F600
X-131.58 Y-7.4 Z-1 I-0.3 J0
X-130.98 Y-7.4 Z-1.5 I0.3 J0
X-131.58 Y-7.4 Z-2 I-0.3 J0
X-131.373 Y-7.685 Z-2.2 I0.3 J0
X-131.187 Y-7.115 I0.093 J0.285
X-131.373 Y-7.685 I-0.093 J-0.285
G1 X-131.326 Y-7.693
X-131.28 Y-7.685
X-131.238 Y-7.664
X-131.205 Y-7.631
X-131.184 Y-7.589
X-131.161 Y-7.518
X-131.146 Y-7.474 Z-2.193
X-131.133 Y-7.434 Z-2.171
X-131.123 Y-7.402 Z-2.138
X-131.116 Y-7.382 Z-2.096
X-131.114 Y-7.375 Z-2.05
G0 Z15

(2D-Kontur1)
X-27.4 Y-50.534
Z15
Z5
G1 Z1.8 F300
Z-0.65
X-27.393 Z-0.696 F400
X-27.371 Z-0.738
X-27.338 Z-0.771
X-27.296 Z-0.793
X-27.25 Z-0.8
X-27.1
X-27.054 Y-50.526
X-27.012 Y-50.505
X-26.979 Y-50.472
X-26.957 Y-50.43
X-26.95 Y-50.384
Y-50.067 F600
X-50.45 Y-36.499
Y-37.767
X-26.95 Y-51.335
Y-50.384
X-26.957 Y-50.337
X-26.979 Y-50.296
X-27.012 Y-50.262
X-27.054 Y-50.241
X-27.1 Y-50.234
X-27.25
X-27.296 Z-0.793
X-27.338 Z-0.771
X-27.371 Z-0.738
X-27.393 Z-0.696
X-27.4 Z-0.65
G0 Z5
Y-50.534
G1 Z1 F300
Z-1.45
X-27.393 Z-1.496 F400
X-27.371 Z-1.538
X-27.338 Z-1.571
X-27.296 Z-1.593
X-27.25 Z-1.6
X-27.1
X-27.054 Y-50.526
X-27.012 Y-50.505
X-26.979 Y-50.472
X-26.957 Y-50.43
X-26.95 Y-50.384
Y-50.067 F600
X-50.45 Y-36.499
Y-37.767
X-26.95 Y-51.335
Y-50.384
X-26.957 Y-50.337
X-26.979 Y-50.296
X-27.012 Y-50.262
X-27.054 Y-50.241
X-27.1 Y-50.234
X-27.25
X-27.296 Z-1.593
X-27.338 Z-1.571
X-27.371 Z-1.538
X-27.393 Z-1.496
X-27.4 Z-1.45
G0 Z5
Y-50.534
G1 Z0.2 F300
Z-2.05
X-27.393 Z-2.096 F400
X-27.371 Z-2.138
X-27.338 Z-2.171
X-27.296 Z-2.193
X-27.25 Z-2.2
X-27.1
X-27.054 Y-50.526
X-27.012 Y-50.505
X-26.979 Y-50.472
X-26.957 Y-50.43
X-26.95 Y-50.384
Y-50.067 F600
X-50.45 Y-36.499
Y-37.767
X-26.95 Y-51.335
Y-50.384
X-26.957 Y-50.337
X-26.979 Y-50.296
X-27.012 Y-50.262
X-27.054 Y-50.241
X-27.1 Y-50.234
X-27.25
X-27.296 Z-2.193
X-27.338 Z-2.171
X-27.371 Z-2.138
X-27.393 Z-2.096
X-27.4 Z-2.05
G0 Z5
X-49.722 Y-46.839
G1 Z1.8 F300
Z-0.65
X-49.718 Y-46.833 Z-0.696 F400
X-49.707 Y-46.814 Z-0.738
X-49.691 Y-46.786 Z-0.771
X-49.67 Y-46.749 Z-0.793
X-49.647 Y-46.709 Z-0.8
X-49.572 Y-46.579
X-49.555 Y-46.536
X-49.552 Y-46.489
X-49.564 Y-46.443
X-49.59 Y-46.404
X-49.626 Y-46.375
X-50.45 Y-45.899 F600
Y-47.167
X-26.95 Y-60.735
Y-59.467
X-49.626 Y-46.375
X-49.67 Y-46.358
X-49.717 Y-46.355
X-49.762 Y-46.367
X-49.802 Y-46.393
X-49.831 Y-46.429
X-49.906 Y-46.559
X-49.93 Y-46.599 Z-0.793
X-49.95 Y-46.636 Z-0.771
X-49.967 Y-46.664 Z-0.738
X-49.978 Y-46.683 Z-0.696
X-49.981 Y-46.689 Z-0.65
G0 Z5
X-49.722 Y-46.839
G1 Z1 F300
Z-1.45
X-49.718 Y-46.833 Z-1.496 F400
X-49.707 Y-46.814 Z-1.538
X-49.691 Y-46.786 Z-1.571
X-49.67 Y-46.749 Z-1.593
X-49.647 Y-46.709 Z-1.6
X-49.572 Y-46.579
X-49.555 Y-46.536
X-49.552 Y-46.489
X-49.564 Y-46.443
X-49.59 Y-46.404
X-49.626 Y-46.375
X-50.45 Y-45.899 F600
Y-47.167
X-26.95 Y-60.735
Y-59.467
X-49.626 Y-46.375
X-49.67 Y-46.358
X-49.717 Y-46.355
X-49.762 Y-46.367
X-49.802 Y-46.393
X-49.831 Y-46.429
X-49.906 Y-46.559
X-49.93 Y-46.599 Z-1.593
X-49.95 Y-46.636 Z-1.571
X-49.967 Y-46.664 Z-1.538
X-49.978 Y-46.683 Z-1.496
X-49.981 Y-46.689 Z-1.45
G0 Z5
X-49.722 Y-46.839
G1 Z0.2 F300
Z-2.05
X-49.718 Y-46.833 Z-2.096 F400
X-49.707 Y-46.814 Z-2.138
X-49.691 Y-46.786 Z-2.171
X-49.67 Y-46.749 Z-2.193
X-49.647 Y-46.709 Z-2.2
X-49.572 Y-46.579
X-49.555 Y-46.536
X-49.552 Y-46.489
X-49.564 Y-46.443
X-49.59 Y-46.404
X-49.626 Y-46.375
X-50.45 Y-45.899 F600
Y-47.167
X-26.95 Y-60.735
Y-59.467
X-49.626 Y-46.375
X-49.67 Y-46.358
X-49.717 Y-46.355
X-49.762 Y-46.367
X-49.802 Y-46.393
X-49.831 Y-46.429
X-49.906 Y-46.559
X-49.93 Y-46.599 Z-2.193
X-49.95 Y-46.636 Z-2.171
X-49.967 Y-46.664 Z-2.138
X-49.978 Y-46.683 Z-2.096
X-49.981 Y-46.689 Z-2.05
G0 Z5
X-27.4 Y-69.334
G1 Z1.8 F300
Z-0.65
X-27.393 Z-0.696 F400
X-27.371 Z-0.738
X-27.338 Z-0.771
X-27.296 Z-0.793
X-27.25 Z-0.8
X-27.1
X-27.054 Y-69.326
X-27.012 Y-69.305
X-26.979 Y-69.272
X-26.957 Y-69.23
X-26.95 Y-69.184
Y-68.867 F600
X-50.45 Y-55.299
Y-56.567
X-26.95 Y-70.135
Y-69.184
X-26.957 Y-69.137
X-26.979 Y-69.096
X-27.012 Y-69.062
X-27.054 Y-69.041
X-27.1 Y-69.034
X-27.25
X-27.296 Z-0.793
X-27.338 Z-0.771
X-27.371 Z-0.738
X-27.393 Z-0.696
X-27.4 Z-0.65
G0 Z5
Y-69.334
G1 Z1 F300
Z-1.45
X-27.393 Z-1.496 F400
X-27.371 Z-1.538
X-27.338 Z-1.571
X-27.296 Z-1.593
X-27.25 Z-1.6
X-27.1
X-27.054 Y-69.326
X-27.012 Y-69.305
X-26.979 Y-69.272
X-26.957 Y-69.23
X-26.95 Y-69.184
Y-68.867 F600
X-50.45 Y-55.299
Y-56.567
X-26.95 Y-70.135
Y-69.184
X-26.957 Y-69.137
X-26.979 Y-69.096
X-27.012 Y-69.062
X-27.054 Y-69.041
X-27.1 Y-69.034
X-27.25
X-27.296 Z-1.593
X-27.338 Z-1.571
X-27.371 Z-1.538
X-27.393 Z-1.496
X-27.4 Z-1.45
G0 Z5
Y-69.334
G1 Z0.2 F300
Z-2.05
X-27.393 Z-2.096 F400
X-27.371 Z-2.138
X-27.338 Z-2.171
X-27.296 Z-2.193
X-27.25 Z-2.2
X-27.1
X-27.054 Y-69.326
X-27.012 Y-69.305
X-26.979 Y-69.272
X-26.957 Y-69.23
X-26.95 Y-69.184
Y-68.867 F600
X-50.45 Y-55.299
Y-56.567
X-26.95 Y-70.135
Y-69.184
X-26.957 Y-69.137
X-26.979 Y-69.096
X-27.012 Y-69.062
X-27.054 Y-69.041
X-27.1 Y-69.034
X-27.25
X-27.296 Z-2.193
X-27.338 Z-2.171
X-27.371 Z-2.138
X-27.393 Z-2.096
X-27.4 Z-2.05
G0 Z5
Y-41.134
G1 Z1.8 F300
Z-0.65
X-27.393 Z-0.696 F400
X-27.371 Z-0.738
X-27.338 Z-0.771
X-27.296 Z-0.793
X-27.25 Z-0.8
X-27.1
X-27.054 Y-41.126
X-27.012 Y-41.105
X-26.979 Y-41.072
X-26.957 Y-41.03
X-26.95 Y-40.984
Y-40.667 F600
X-50.45 Y-27.099
Y-28.367
X-26.95 Y-41.935
Y-40.984
X-26.957 Y-40.937
X-26.979 Y-40.896
X-27.012 Y-40.862
X-27.054 Y-40.841
X-27.1 Y-40.834
X-27.25
X-27.296 Z-0.793
X-27.338 Z-0.771
X-27.371 Z-0.738
X-27.393 Z-0.696
X-27.4 Z-0.65
G0 Z5
Y-41.134
G1 Z1 F300
Z-1.45
X-27.393 Z-1.496 F400
X-27.371 Z-1.538
X-27.338 Z-1.571
X-27.296 Z-1.593
X-27.25 Z-1.6
X-27.1
X-27.054 Y-41.126
X-27.012 Y-41.105
X-26.979 Y-41.072
X-26.957 Y-41.03
X-26.95 Y-40.984
Y-40.667 F600
X-50.45 Y-27.099
Y-28.367
X-26.95 Y-41.935
Y-40.984
X-26.957 Y-40.937
X-26.979 Y-40.896
X-27.012 Y-40.862
X-27.054 Y-40.841
X-27.1 Y-40.834
X-27.25
X-27.296 Z-1.593
X-27.338 Z-1.571
X-27.371 Z-1.538
X-27.393 Z-1.496
X-27.4 Z-1.45
G0 Z5
Y-41.134
G1 Z0.2 F300
Z-2.05
X-27.393 Z-2.096 F400
X-27.371 Z-2.138
X-27.338 Z-2.171
X-27.296 Z-2.193
X-27.25 Z-2.2
X-27.1
X-27.054 Y-41.126
X-27.012 Y-41.105
X-26.979 Y-41.072
X-26.957 Y-41.03
X-26.95 Y-40.984
Y-40.667 F600
X-50.45 Y-27.099
Y-28.367
X-26.95 Y-41.935
Y-40.984
X-26.957 Y-40.937
X-26.979 Y-40.896
X-27.012 Y-40.862
X-27.054 Y-40.841
X-27.1 Y-40.834
X-27.25
X-27.296 Z-2.193
X-27.338 Z-2.171
X-27.371 Z-2.138
X-27.393 Z-2.096
X-27.4 Z-2.05
G0 Z5
X-49.722 Y-18.639
G1 Z1.8 F300
Z-0.65
X-49.718 Y-18.633 Z-0.696 F400
X-49.707 Y-18.614 Z-0.738
X-49.691 Y-18.586 Z-0.771
X-49.67 Y-18.549 Z-0.793
X-49.647 Y-18.509 Z-0.8
X-49.572 Y-18.379
X-49.555 Y-18.336
X-49.552 Y-18.289
X-49.564 Y-18.243
X-49.59 Y-18.204
X-49.626 Y-18.175
X-50.45 Y-17.699 F600
Y-18.967
X-26.95 Y-32.535
Y-31.267
X-49.626 Y-18.175
X-49.67 Y-18.158
X-49.717 Y-18.155
X-49.762 Y-18.167
X-49.802 Y-18.193
X-49.831 Y-18.229
X-49.906 Y-18.359
X-49.93 Y-18.399 Z-0.793
X-49.95 Y-18.436 Z-0.771
X-49.967 Y-18.464 Z-0.738
X-49.978 Y-18.483 Z-0.696
X-49.981 Y-18.489 Z-0.65
G0 Z5
X-49.722 Y-18.639
G1 Z1 F300
Z-1.45
X-49.718 Y-18.633 Z-1.496 F400
X-49.707 Y-18.614 Z-1.538
X-49.691 Y-18.586 Z-1.571
X-49.67 Y-18.549 Z-1.593
X-49.647 Y-18.509 Z-1.6
X-49.572 Y-18.379
X-49.555 Y-18.336
X-49.552 Y-18.289
X-49.564 Y-18.243
X-49.59 Y-18.204
X-49.626 Y-18.175
X-50.45 Y-17.699 F600
Y-18.967
X-26.95 Y-32.535
Y-31.267
X-49.626 Y-18.175
X-49.67 Y-18.158
X-49.717 Y-18.155
X-49.762 Y-18.167
X-49.802 Y-18.193
X-49.831 Y-18.229
X-49.906 Y-18.359
X-49.93 Y-18.399 Z-1.593
X-49.95 Y-18.436 Z-1.571
X-49.967 Y-18.464 Z-1.538
X-49.978 Y-18.483 Z-1.496
X-49.981 Y-18.489 Z-1.45
G0 Z5
X-49.722 Y-18.639
G1 Z0.2 F300
Z-2.05
X-49.718 Y-18.633 Z-2.096 F400
X-49.707 Y-18.614 Z-2.138
X-49.691 Y-18.586 Z-2.171
X-49.67 Y-18.549 Z-2.193
X-49.647 Y-18.509 Z-2.2
X-49.572 Y-18.379
X-49.555 Y-18.336
X-49.552 Y-18.289
X-49.564 Y-18.243
X-49.59 Y-18.204
X-49.626 Y-18.175
X-50.45 Y-17.699 F600
Y-18.967
X-26.95 Y-32.535
Y-31.267
X-49.626 Y-18.175
X-49.67 Y-18.158
X-49.717 Y-18.155
X-49.762 Y-18.167
X-49.802 Y-18.193
X-49.831 Y-18.229
X-49.906 Y-18.359
X-49.93 Y-18.399 Z-2.193
X-49.95 Y-18.436 Z-2.171
X-49.967 Y-18.464 Z-2.138
X-49.978 Y-18.483 Z-2.096
X-49.981 Y-18.489 Z-2.05
G0 Z5
X-27.4 Y-22.334
G1 Z1.8 F300
Z-0.65
X-27.393 Z-0.696 F400
X-27.371 Z-0.738
X-27.338 Z-0.771
X-27.296 Z-0.793
X-27.25 Z-0.8
X-27.1
X-27.054 Y-22.326
X-27.012 Y-22.305
X-26.979 Y-22.272
X-26.957 Y-22.23
X-26.95 Y-22.184
Y-21.867 F600
X-50.45 Y-8.299
Y-9.567
X-26.95 Y-23.135
Y-22.184
X-26.957 Y-22.137
X-26.979 Y-22.096
X-27.012 Y-22.062
X-27.054 Y-22.041
X-27.1 Y-22.034
X-27.25
X-27.296 Z-0.793
X-27.338 Z-0.771
X-27.371 Z-0.738
X-27.393 Z-0.696
X-27.4 Z-0.65
G0 Z5
Y-22.334
G1 Z1 F300
Z-1.45
X-27.393 Z-1.496 F400
X-27.371 Z-1.538
X-27.338 Z-1.571
X-27.296 Z-1.593
X-27.25 Z-1.6
X-27.1
X-27.054 Y-22.326
X-27.012 Y-22.305
X-26.979 Y-22.272
X-26.957 Y-22.23
X-26.95 Y-22.184
Y-21.867 F600
X-50.45 Y-8.299
Y-9.567
X-26.95 Y-23.135
Y-22.184
X-26.957 Y-22.137
X-26.979 Y-22.096
X-27.012 Y-22.062
X-27.054 Y-22.041
X-27.1 Y-22.034
X-27.25
X-27.296 Z-1.593
X-27.338 Z-1.571
X-27.371 Z-1.538
X-27.393 Z-1.496
X-27.4 Z-1.45
G0 Z5
Y-22.334
G1 Z0.2 F300
Z-2.05
X-27.393 Z-2.096 F400
X-27.371 Z-2.138
X-27.338 Z-2.171
X-27.296 Z-2.193
X-27.25 Z-2.2
X-27.1
X-27.054 Y-22.326
X-27.012 Y-22.305
X-26.979 Y-22.272
X-26.957 Y-22.23
X-26.95 Y-22.184
Y-21.867 F600
X-50.45 Y-8.299
Y-9.567
X-26.95 Y-23.135
Y-22.184
X-26.957 Y-22.137
X-26.979 Y-22.096
X-27.012 Y-22.062
X-27.054 Y-22.041
X-27.1 Y-22.034
X-27.25
X-27.296 Z-2.193
X-27.338 Z-2.171
X-27.371 Z-2.138
X-27.393 Z-2.096
X-27.4 Z-2.05
G0 Z5
X-14.2 Y-22.55
G1 Z1.8 F300
Z-0.65
X-14.193 Z-0.696 F400
X-14.171 Z-0.738
X-14.138 Z-0.771
X-14.096 Z-0.793
X-14.05 Z-0.8
X-13.9
X-13.854 Y-22.543
X-13.812 Y-22.521
X-13.779 Y-22.488
X-13.757 Y-22.446
X-13.75 Y-22.4
Y-13.311 F600
X-15.311 Y-11.75
X-18.889
X-20.45 Y-13.311
Y-25.75
X-13.75
Y-22.4
X-13.757 Y-22.354
X-13.779 Y-22.312
X-13.812 Y-22.279
X-13.854 Y-22.257
X-13.9 Y-22.25
X-14.05
X-14.096 Z-0.793
X-14.138 Z-0.771
X-14.171 Z-0.738
X-14.193 Z-0.696
X-14.2 Z-0.65
G0 Z5
Y-22.55
G1 Z1 F300
Z-1.45
X-14.193 Z-1.496 F400
X-14.171 Z-1.538
X-14.138 Z-1.571
X-14.096 Z-1.593
X-14.05 Z-1.6
X-13.9
X-13.854 Y-22.543
X-13.812 Y-22.521
X-13.779 Y-22.488
X-13.757 Y-22.446
X-13.75 Y-22.4
Y-13.311 F600
X-15.311 Y-11.75
X-18.889
X-20.45 Y-13.311
Y-25.75
X-13.75
Y-22.4
X-13.757 Y-22.354
X-13.779 Y-22.312
X-13.812 Y-22.279
X-13.854 Y-22.257
X-13.9 Y-22.25
X-14.05
X-14.096 Z-1.593
X-14.138 Z-1.571
X-14.171 Z-1.538
X-14.193 Z-1.496
X-14.2 Z-1.45
G0 Z5
Y-22.55
G1 Z0.2 F300
Z-2.05
X-14.193 Z-2.096 F400
X-14.171 Z-2.138
X-14.138 Z-2.171
X-14.096 Z-2.193
X-14.05 Z-2.2
X-13.9
X-13.854 Y-22.543
X-13.812 Y-22.521
X-13.779 Y-22.488
X-13.757 Y-22.446
X-13.75 Y-22.4
Y-13.311 F600
X-15.311 Y-11.75
X-18.889
X-20.45 Y-13.311
Y-25.75
X-13.75
Y-22.4
X-13.757 Y-22.354
X-13.779 Y-22.312
X-13.812 Y-22.279
X-13.854 Y-22.257
X-13.9 Y-22.25
X-14.05
X-14.096 Z-2.193
X-14.138 Z-2.171
X-14.171 Z-2.138
X-14.193 Z-2.096
X-14.2 Z-2.05
G0 Z5
X-81.55 Y-22.6
G1 Z1.8 F300
Z-0.65
Y-22.593 Z-0.696 F400
Y-22.571 Z-0.738
Y-22.538 Z-0.771
Y-22.496 Z-0.793
Y-22.45 Z-0.8
Y-22.3
X-81.557 Y-22.254
X-81.579 Y-22.212
X-81.612 Y-22.179
X-81.654 Y-22.157
X-81.7 Y-22.15
X-82.95 F600
Y-24.65
X-59.45
Y-22.15
X-81.7
X-81.746 Y-22.157
X-81.788 Y-22.179
X-81.821 Y-22.212
X-81.843 Y-22.254
X-81.85 Y-22.3
Y-22.45
Y-22.496 Z-0.793
Y-22.538 Z-0.771
Y-22.571 Z-0.738
Y-22.593 Z-0.696
Y-22.6 Z-0.65
G0 Z5
X-81.55
G1 Z1 F300
Z-1.45
Y-22.593 Z-1.496 F400
Y-22.571 Z-1.538
Y-22.538 Z-1.571
Y-22.496 Z-1.593
Y-22.45 Z-1.6
Y-22.3
X-81.557 Y-22.254
X-81.579 Y-22.212
X-81.612 Y-22.179
X-81.654 Y-22.157
X-81.7 Y-22.15
X-82.95 F600
Y-24.65
X-59.45
Y-22.15
X-81.7
X-81.746 Y-22.157
X-81.788 Y-22.179
X-81.821 Y-22.212
X-81.843 Y-22.254
X-81.85 Y-22.3
Y-22.45
Y-22.496 Z-1.593
Y-22.538 Z-1.571
Y-22.571 Z-1.538
Y-22.593 Z-1.496
Y-22.6 Z-1.45
G0 Z5
X-81.55
G1 Z0.2 F300
Z-2.05
Y-22.593 Z-2.096 F400
Y-22.571 Z-2.138
Y-22.538 Z-2.171
Y-22.496 Z-2.193
Y-22.45 Z-2.2
Y-22.3
X-81.557 Y-22.254
X-81.579 Y-22.212
X-81.612 Y-22.179
X-81.654 Y-22.157
X-81.7 Y-22.15
X-82.95 F600
Y-24.65
X-59.45
Y-22.15
X-81.7
X-81.746 Y-22.157
X-81.788 Y-22.179
X-81.821 Y-22.212
X-81.843 Y-22.254
X-81.85 Y-22.3
Y-22.45
Y-22.496 Z-2.193
Y-22.538 Z-2.171
Y-22.571 Z-2.138
Y-22.593 Z-2.096
Y-22.6 Z-2.05
G0 Z5
X-92.4 Y-18.8
G1 Z1.8 F300
Z-0.65
X-92.393 Z-0.696 F400
X-92.371 Z-0.738
X-92.338 Z-0.771
X-92.296 Z-0.793
X-92.25 Z-0.8
X-92.1
X-92.054 Y-18.793
X-92.012 Y-18.771
X-91.979 Y-18.738
X-91.957 Y-18.696
X-91.95 Y-18.65
Y-17.699 F600
X-115.45 Y-31.267
Y-32.535
X-91.95 Y-18.967
Y-18.65
X-91.957 Y-18.604
X-91.979 Y-18.562
X-92.012 Y-18.529
X-92.054 Y-18.507
X-92.1 Y-18.5
X-92.25
X-92.296 Z-0.793
X-92.338 Z-0.771
X-92.371 Z-0.738
X-92.393 Z-0.696
X-92.4 Z-0.65
G0 Z5
Y-18.8
G1 Z1 F300
Z-1.45
X-92.393 Z-1.496 F400
X-92.371 Z-1.538
X-92.338 Z-1.571
X-92.296 Z-1.593
X-92.25 Z-1.6
X-92.1
X-92.054 Y-18.793
X-92.012 Y-18.771
X-91.979 Y-18.738
X-91.957 Y-18.696
X-91.95 Y-18.65
Y-17.699 F600
X-115.45 Y-31.267
Y-32.535
X-91.95 Y-18.967
Y-18.65
X-91.957 Y-18.604
X-91.979 Y-18.562
X-92.012 Y-18.529
X-92.054 Y-18.507
X-92.1 Y-18.5
X-92.25
X-92.296 Z-1.593
X-92.338 Z-1.571
X-92.371 Z-1.538
X-92.393 Z-1.496
X-92.4 Z-1.45
G0 Z5
Y-18.8
G1 Z0.2 F300
Z-2.05
X-92.393 Z-2.096 F400
X-92.371 Z-2.138
X-92.338 Z-2.171
X-92.296 Z-2.193
X-92.25 Z-2.2
X-92.1
X-92.054 Y-18.793
X-92.012 Y-18.771
X-91.979 Y-18.738
X-91.957 Y-18.696
X-91.95 Y-18.65
Y-17.699 F600
X-115.45 Y-31.267
Y-32.535
X-91.95 Y-18.967
Y-18.65
X-91.957 Y-18.604
X-91.979 Y-18.562
X-92.012 Y-18.529
X-92.054 Y-18.507
X-92.1 Y-18.5
X-92.25
X-92.296 Z-2.193
X-92.338 Z-2.171
X-92.371 Z-2.138
X-92.393 Z-2.096
X-92.4 Z-2.05
G0 Z5
X-114.981 Y-22.345
G1 Z1.8 F300
Z-0.65
X-114.978 Y-22.351 Z-0.696 F400
X-114.967 Y-22.369 Z-0.738
X-114.95 Y-22.398 Z-0.771
X-114.93 Y-22.434 Z-0.793
X-114.906 Y-22.474 Z-0.8
X-114.831 Y-22.604
X-114.802 Y-22.641
X-114.762 Y-22.666
X-114.717 Y-22.679
X-114.67 Y-22.676
X-114.626 Y-22.659
X-91.95 Y-9.567 F600
Y-8.299
X-115.45 Y-21.867
Y-23.135
X-114.626 Y-22.659
X-114.59 Y-22.63
X-114.564 Y-22.59
X-114.552 Y-22.545
X-114.555 Y-22.498
X-114.572 Y-22.454
X-114.647 Y-22.324
X-114.67 Y-22.284 Z-0.793
X-114.691 Y-22.248 Z-0.771
X-114.707 Y-22.219 Z-0.738
X-114.718 Y-22.201 Z-0.696
X-114.722 Y-22.195 Z-0.65
G0 Z5
X-114.981 Y-22.345
G1 Z1 F300
Z-1.45
X-114.978 Y-22.351 Z-1.496 F400
X-114.967 Y-22.369 Z-1.538
X-114.95 Y-22.398 Z-1.571
X-114.93 Y-22.434 Z-1.593
X-114.906 Y-22.474 Z-1.6
X-114.831 Y-22.604
X-114.802 Y-22.641
X-114.762 Y-22.666
X-114.717 Y-22.679
X-114.67 Y-22.676
X-114.626 Y-22.659
X-91.95 Y-9.567 F600
Y-8.299
X-115.45 Y-21.867
Y-23.135
X-114.626 Y-22.659
X-114.59 Y-22.63
X-114.564 Y-22.59
X-114.552 Y-22.545
X-114.555 Y-22.498
X-114.572 Y-22.454
X-114.647 Y-22.324
X-114.67 Y-22.284 Z-1.593
X-114.691 Y-22.248 Z-1.571
X-114.707 Y-22.219 Z-1.538
X-114.718 Y-22.201 Z-1.496
X-114.722 Y-22.195 Z-1.45
G0 Z5
X-114.981 Y-22.345
G1 Z0.2 F300
Z-2.05
X-114.978 Y-22.351 Z-2.096 F400
X-114.967 Y-22.369 Z-2.138
X-114.95 Y-22.398 Z-2.171
X-114.93 Y-22.434 Z-2.193
X-114.906 Y-22.474 Z-2.2
X-114.831 Y-22.604
X-114.802 Y-22.641
X-114.762 Y-22.666
X-114.717 Y-22.679
X-114.67 Y-22.676
X-114.626 Y-22.659
X-91.95 Y-9.567 F600
Y-8.299
X-115.45 Y-21.867
Y-23.135
X-114.626 Y-22.659
X-114.59 Y-22.63
X-114.564 Y-22.59
X-114.552 Y-22.545
X-114.555 Y-22.498
X-114.572 Y-22.454
X-114.647 Y-22.324
X-114.67 Y-22.284 Z-2.193
X-114.691 Y-22.248 Z-2.171
X-114.707 Y-22.219 Z-2.138
X-114.718 Y-22.201 Z-2.096
X-114.722 Y-22.195 Z-2.05
G0 Z5
X-114.981 Y-41.145
G1 Z1.8 F300
Z-0.65
X-114.978 Y-41.151 Z-0.696 F400
X-114.967 Y-41.169 Z-0.738
X-114.95 Y-41.198 Z-0.771
X-114.93 Y-41.234 Z-0.793
X-114.906 Y-41.274 Z-0.8
X-114.831 Y-41.404
X-114.802 Y-41.441
X-114.762 Y-41.466
X-114.717 Y-41.479
X-114.67 Y-41.476
X-114.626 Y-41.459
X-91.95 Y-28.367 F600
Y-27.099
X-115.45 Y-40.667
Y-41.935
X-114.626 Y-41.459
X-114.59 Y-41.43
X-114.564 Y-41.39
X-114.552 Y-41.345
X-114.555 Y-41.298
X-114.572 Y-41.254
X-114.647 Y-41.124
X-114.67 Y-41.084 Z-0.793
X-114.691 Y-41.048 Z-0.771
X-114.707 Y-41.019 Z-0.738
X-114.718 Y-41.001 Z-0.696
X-114.722 Y-40.995 Z-0.65
G0 Z5
X-114.981 Y-41.145
G1 Z1 F300
Z-1.45
X-114.978 Y-41.151 Z-1.496 F400
X-114.967 Y-41.169 Z-1.538
X-114.95 Y-41.198 Z-1.571
X-114.93 Y-41.234 Z-1.593
X-114.906 Y-41.274 Z-1.6
X-114.831 Y-41.404
X-114.802 Y-41.441
X-114.762 Y-41.466
X-114.717 Y-41.479
X-114.67 Y-41.476
X-114.626 Y-41.459
X-91.95 Y-28.367 F600
Y-27.099
X-115.45 Y-40.667
Y-41.935
X-114.626 Y-41.459
X-114.59 Y-41.43
X-114.564 Y-41.39
X-114.552 Y-41.345
X-114.555 Y-41.298
X-114.572 Y-41.254
X-114.647 Y-41.124
X-114.67 Y-41.084 Z-1.593
X-114.691 Y-41.048 Z-1.571
X-114.707 Y-41.019 Z-1.538
X-114.718 Y-41.001 Z-1.496
X-114.722 Y-40.995 Z-1.45
G0 Z5
X-114.981 Y-41.145
G1 Z0.2 F300
Z-2.05
X-114.978 Y-41.151 Z-2.096 F400
X-114.967 Y-41.169 Z-2.138
X-114.95 Y-41.198 Z-2.171
X-114.93 Y-41.234 Z-2.193
X-114.906 Y-41.274 Z-2.2
X-114.831 Y-41.404
X-114.802 Y-41.441
X-114.762 Y-41.466
X-114.717 Y-41.479
X-114.67 Y-41.476
X-114.626 Y-41.459
X-91.95 Y-28.367 F600
Y-27.099
X-115.45 Y-40.667
Y-41.935
X-114.626 Y-41.459
X-114.59 Y-41.43
X-114.564 Y-41.39
X-114.552 Y-41.345
X-114.555 Y-41.298
X-114.572 Y-41.254
X-114.647 Y-41.124
X-114.67 Y-41.084 Z-2.193
X-114.691 Y-41.048 Z-2.171
X-114.707 Y-41.019 Z-2.138
X-114.718 Y-41.001 Z-2.096
X-114.722 Y-40.995 Z-2.05
G0 Z5
X-114.981 Y-50.545
G1 Z1.8 F300
Z-0.65
X-114.978 Y-50.551 Z-0.696 F400
X-114.967 Y-50.569 Z-0.738
X-114.95 Y-50.598 Z-0.771
X-114.93 Y-50.634 Z-0.793
X-114.906 Y-50.674 Z-0.8
X-114.831 Y-50.804
X-114.802 Y-50.841
X-114.762 Y-50.866
X-114.717 Y-50.879
X-114.67 Y-50.876
X-114.626 Y-50.859
X-91.95 Y-37.767 F600
Y-36.499
X-115.45 Y-50.067
Y-51.335
X-114.626 Y-50.859
X-114.59 Y-50.83
X-114.564 Y-50.79
X-114.552 Y-50.745
X-114.555 Y-50.698
X-114.572 Y-50.654
X-114.647 Y-50.524
X-114.67 Y-50.484 Z-0.793
X-114.691 Y-50.448 Z-0.771
X-114.707 Y-50.419 Z-0.738
X-114.718 Y-50.401 Z-0.696
X-114.722 Y-50.395 Z-0.65
G0 Z5
X-114.981 Y-50.545
G1 Z1 F300
Z-1.45
X-114.978 Y-50.551 Z-1.496 F400
X-114.967 Y-50.569 Z-1.538
X-114.95 Y-50.598 Z-1.571
X-114.93 Y-50.634 Z-1.593
X-114.906 Y-50.674 Z-1.6
X-114.831 Y-50.804
X-114.802 Y-50.841
X-114.762 Y-50.866
X-114.717 Y-50.879
X-114.67 Y-50.876
X-114.626 Y-50.859
X-91.95 Y-37.767 F600
Y-36.499
X-115.45 Y-50.067
Y-51.335
X-114.626 Y-50.859
X-114.59 Y-50.83
X-114.564 Y-50.79
X-114.552 Y-50.745
X-114.555 Y-50.698
X-114.572 Y-50.654
X-114.647 Y-50.524
X-114.67 Y-50.484 Z-1.593
X-114.691 Y-50.448 Z-1.571
X-114.707 Y-50.419 Z-1.538
X-114.718 Y-50.401 Z-1.496
X-114.722 Y-50.395 Z-1.45
G0 Z5
X-114.981 Y-50.545
G1 Z0.2 F300
Z-2.05
X-114.978 Y-50.551 Z-2.096 F400
X-114.967 Y-50.569 Z-2.138
X-114.95 Y-50.598 Z-2.171
X-114.93 Y-50.634 Z-2.193
X-114.906 Y-50.674 Z-2.2
X-114.831 Y-50.804
X-114.802 Y-50.841
X-114.762 Y-50.866
X-114.717 Y-50.879
X-114.67 Y-50.876
X-114.626 Y-50.859
X-91.95 Y-37.767 F600
Y-36.499
X-115.45 Y-50.067
Y-51.335
X-114.626 Y-50.859
X-114.59 Y-50.83
X-114.564 Y-50.79
X-114.552 Y-50.745
X-114.555 Y-50.698
X-114.572 Y-50.654
X-114.647 Y-50.524
X-114.67 Y-50.484 Z-2.193
X-114.691 Y-50.448 Z-2.171
X-114.707 Y-50.419 Z-2.138
X-114.718 Y-50.401 Z-2.096
X-114.722 Y-50.395 Z-2.05
G0 Z5
X-92.4 Y-47
G1 Z1.8 F300
Z-0.65
X-92.393 Z-0.696 F400
X-92.371 Z-0.738
X-92.338 Z-0.771
X-92.296 Z-0.793
X-92.25 Z-0.8
X-92.1
X-92.054 Y-46.993
X-92.012 Y-46.971
X-91.979 Y-46.938
X-91.957 Y-46.896
X-91.95 Y-46.85
Y-45.899 F600
X-115.45 Y-59.467
Y-60.735
X-91.95 Y-47.167
Y-46.85
X-91.957 Y-46.804
X-91.979 Y-46.762
X-92.012 Y-46.729
X-92.054 Y-46.707
X-92.1 Y-46.7
X-92.25
X-92.296 Z-0.793
X-92.338 Z-0.771
X-92.371 Z-0.738
X-92.393 Z-0.696
X-92.4 Z-0.65
G0 Z5
Y-47
G1 Z1 F300
Z-1.45
X-92.393 Z-1.496 F400
X-92.371 Z-1.538
X-92.338 Z-1.571
X-92.296 Z-1.593
X-92.25 Z-1.6
X-92.1
X-92.054 Y-46.993
X-92.012 Y-46.971
X-91.979 Y-46.938
X-91.957 Y-46.896
X-91.95 Y-46.85
Y-45.899 F600
X-115.45 Y-59.467
Y-60.735
X-91.95 Y-47.167
Y-46.85
X-91.957 Y-46.804
X-91.979 Y-46.762
X-92.012 Y-46.729
X-92.054 Y-46.707
X-92.1 Y-46.7
X-92.25
X-92.296 Z-1.593
X-92.338 Z-1.571
X-92.371 Z-1.538
X-92.393 Z-1.496
X-92.4 Z-1.45
G0 Z5
Y-47
G1 Z0.2 F300
Z-2.05
X-92.393 Z-2.096 F400
X-92.371 Z-2.138
X-92.338 Z-2.171
X-92.296 Z-2.193
X-92.25 Z-2.2
X-92.1
X-92.054 Y-46.993
X-92.012 Y-46.971
X-91.979 Y-46.938
X-91.957 Y-46.896
X-91.95 Y-46.85
Y-45.899 F600
X-115.45 Y-59.467
Y-60.735
X-91.95 Y-47.167
Y-46.85
X-91.957 Y-46.804
X-91.979 Y-46.762
X-92.012 Y-46.729
X-92.054 Y-46.707
X-92.1 Y-46.7
X-92.25
X-92.296 Z-2.193
X-92.338 Z-2.171
X-92.371 Z-2.138
X-92.393 Z-2.096
X-92.4 Z-2.05
G0 Z5
X-114.981 Y-69.345
G1 Z1.8 F300
Z-0.65
X-114.978 Y-69.351 Z-0.696 F400
X-114.967 Y-69.369 Z-0.738
X-114.95 Y-69.398 Z-0.771
X-114.93 Y-69.434 Z-0.793
X-114.906 Y-69.474 Z-0.8
X-114.831 Y-69.604
X-114.802 Y-69.641
X-114.762 Y-69.666
X-114.717 Y-69.679
X-114.67 Y-69.676
X-114.626 Y-69.659
X-91.95 Y-56.567 F600
Y-55.299
X-115.45 Y-68.867
Y-70.135
X-114.626 Y-69.659
X-114.59 Y-69.63
X-114.564 Y-69.59
X-114.552 Y-69.545
X-114.555 Y-69.498
X-114.572 Y-69.454
X-114.647 Y-69.324
X-114.67 Y-69.284 Z-0.793
X-114.691 Y-69.248 Z-0.771
X-114.707 Y-69.219 Z-0.738
X-114.718 Y-69.201 Z-0.696
X-114.722 Y-69.195 Z-0.65
G0 Z5
X-114.981 Y-69.345
G1 Z1 F300
Z-1.45
X-114.978 Y-69.351 Z-1.496 F400
X-114.967 Y-69.369 Z-1.538
X-114.95 Y-69.398 Z-1.571
X-114.93 Y-69.434 Z-1.593
X-114.906 Y-69.474 Z-1.6
X-114.831 Y-69.604
X-114.802 Y-69.641
X-114.762 Y-69.666
X-114.717 Y-69.679
X-114.67 Y-69.676
X-114.626 Y-69.659
X-91.95 Y-56.567 F600
Y-55.299
X-115.45 Y-68.867
Y-70.135
X-114.626 Y-69.659
X-114.59 Y-69.63
X-114.564 Y-69.59
X-114.552 Y-69.545
X-114.555 Y-69.498
X-114.572 Y-69.454
X-114.647 Y-69.324
X-114.67 Y-69.284 Z-1.593
X-114.691 Y-69.248 Z-1.571
X-114.707 Y-69.219 Z-1.538
X-114.718 Y-69.201 Z-1.496
X-114.722 Y-69.195 Z-1.45
G0 Z5
X-114.981 Y-69.345
G1 Z0.2 F300
Z-2.05
X-114.978 Y-69.351 Z-2.096 F400
X-114.967 Y-69.369 Z-2.138
X-114.95 Y-69.398 Z-2.171
X-114.93 Y-69.434 Z-2.193
X-114.906 Y-69.474 Z-2.2
X-114.831 Y-69.604
X-114.802 Y-69.641
X-114.762 Y-69.666
X-114.717 Y-69.679
X-114.67 Y-69.676
X-114.626 Y-69.659
X-91.95 Y-56.567 F600
Y-55.299
X-115.45 Y-68.867
Y-70.135
X-114.626 Y-69.659
X-114.59 Y-69.63
X-114.564 Y-69.59
X-114.552 Y-69.545
X-114.555 Y-69.498
X-114.572 Y-69.454
X-114.647 Y-69.324
X-114.67 Y-69.284 Z-2.193
X-114.691 Y-69.248 Z-2.171
X-114.707 Y-69.219 Z-2.138
X-114.718 Y-69.201 Z-2.096
X-114.722 Y-69.195 Z-2.05
G0 Z5
X-59.9 Y-69.55
G1 Z1.8 F300
Z-0.65
X-59.893 Z-0.696 F400
X-59.871 Z-0.738
X-59.838 Z-0.771
X-59.796 Z-0.793
X-59.75 Z-0.8
X-59.6
X-59.554 Y-69.543
X-59.512 Y-69.521
X-59.479 Y-69.488
X-59.457 Y-69.446
X-59.45 Y-69.4
Y-68.15 F600
X-82.95
Y-70.65
X-59.45
Y-69.4
X-59.457 Y-69.354
X-59.479 Y-69.312
X-59.512 Y-69.279
X-59.554 Y-69.257
X-59.6 Y-69.25
X-59.75
X-59.796 Z-0.793
X-59.838 Z-0.771
X-59.871 Z-0.738
X-59.893 Z-0.696
X-59.9 Z-0.65
G0 Z5
Y-69.55
G1 Z1 F300
Z-1.45
X-59.893 Z-1.496 F400
X-59.871 Z-1.538
X-59.838 Z-1.571
X-59.796 Z-1.593
X-59.75 Z-1.6
X-59.6
X-59.554 Y-69.543
X-59.512 Y-69.521
X-59.479 Y-69.488
X-59.457 Y-69.446
X-59.45 Y-69.4
Y-68.15 F600
X-82.95
Y-70.65
X-59.45
Y-69.4
X-59.457 Y-69.354
X-59.479 Y-69.312
X-59.512 Y-69.279
X-59.554 Y-69.257
X-59.6 Y-69.25
X-59.75
X-59.796 Z-1.593
X-59.838 Z-1.571
X-59.871 Z-1.538
X-59.893 Z-1.496
X-59.9 Z-1.45
G0 Z5
Y-69.55
G1 Z0.2 F300
Z-2.05
X-59.893 Z-2.096 F400
X-59.871 Z-2.138
X-59.838 Z-2.171
X-59.796 Z-2.193
X-59.75 Z-2.2
X-59.6
X-59.554 Y-69.543
X-59.512 Y-69.521
X-59.479 Y-69.488
X-59.457 Y-69.446
X-59.45 Y-69.4
Y-68.15 F600
X-82.95
Y-70.65
X-59.45
Y-69.4
X-59.457 Y-69.354
X-59.479 Y-69.312
X-59.512 Y-69.279
X-59.554 Y-69.257
X-59.6 Y-69.25
X-59.75
X-59.796 Z-2.193
X-59.838 Z-2.171
X-59.871 Z-2.138
X-59.893 Z-2.096
X-59.9 Z-2.05
G0 Z15

(2D-Kontur2)
X-137.35 Y0.2
Z15
Z5
G1 Z1.8 F300
Z-0.65
Y0.193 Z-0.696 F400
Y0.171 Z-0.738
Y0.138 Z-0.771
Y0.096 Z-0.793
Y0.05 Z-0.8
Y-0.1
X-137.343 Y-0.146
X-137.321 Y-0.188
X-137.288 Y-0.221
X-137.246 Y-0.243
X-137.2 Y-0.25
X-5.2 F600
G2 X-0.25 Y-5.2 I0 J-4.95
G1 Y-71.6
G2 X-5.2 Y-76.55 I-4.95 J0
G1 X-137.2
G2 X-142.15 Y-71.6 I0 J4.95
G1 Y-5.2
G2 X-137.2 Y-0.25 I4.95 J0
G1 X-137.154 Y-0.243
X-137.112 Y-0.221
X-137.079 Y-0.188
X-137.057 Y-0.146
X-137.05 Y-0.1
Y0.05
Y0.096 Z-0.793
Y0.138 Z-0.771
Y0.171 Z-0.738
Y0.193 Z-0.696
Y0.2 Z-0.65
G0 Z5
X-137.35
G1 Z1 F300
Z-1.45
Y0.193 Z-1.496 F400
Y0.171 Z-1.538
Y0.138 Z-1.571
Y0.096 Z-1.593
Y0.05 Z-1.6
Y-0.1
X-137.343 Y-0.146
X-137.321 Y-0.188
X-137.288 Y-0.221
X-137.246 Y-0.243
X-137.2 Y-0.25
X-74.45 F600
Z-1.4
X-67.95
Z-1.6 F300
X-5.2 F600
G2 X-0.25 Y-5.2 I0 J-4.95
G1 Y-71.6
G2 X-5.2 Y-76.55 I-4.95 J0
G1 X-67.95
Z-1.4
X-74.45
Z-1.6 F300
X-137.2 F600
G2 X-142.15 Y-71.6 I0 J4.95
G1 Y-5.2
G2 X-137.2 Y-0.25 I4.95 J0
G1 X-137.154 Y-0.243
X-137.112 Y-0.221
X-137.079 Y-0.188
X-137.057 Y-0.146
X-137.05 Y-0.1
Y0.05
Y0.096 Z-1.593
Y0.138 Z-1.571
Y0.171 Z-1.538
Y0.193 Z-1.496
Y0.2 Z-1.45
G0 Z5
X-137.35
G1 Z0.2 F300
Z-2.05
Y0.193 Z-2.096 F400
Y0.171 Z-2.138
Y0.138 Z-2.171
Y0.096 Z-2.193
Y0.05 Z-2.2
Y-0.1
X-137.343 Y-0.146
X-137.321 Y-0.188
X-137.288 Y-0.221
X-137.246 Y-0.243
X-137.2 Y-0.25
X-74.45 F600
Z-1.4
X-67.95
Z-2.2 F300
X-5.2 F600
G2 X-0.25 Y-5.2 I0 J-4.95
G1 Y-71.6
G2 X-5.2 Y-76.55 I-4.95 J0
G1 X-67.95
Z-1.4
X-74.45
Z-2.2 F300
X-137.2 F600
G2 X-142.15 Y-71.6 I0 J4.95
G1 Y-5.2
G2 X-137.2 Y-0.25 I4.95 J0
G1 X-137.154 Y-0.243
X-137.112 Y-0.221
X-137.079 Y-0.188
X-137.057 Y-0.146
X-137.05 Y-0.1
Y0.05
Y0.096 Z-2.193
Y0.138 Z-2.171
Y0.171 Z-2.138
Y0.193 Z-2.096
Y0.2 Z-2.05
G0 Z15
G28 G91 Z0
G90
G28 G91 X0 Y0
G90
M5
M30
