(blende)
(Bearbeiten)
(  Hersteller: ChinaCnc)
(  model: 3040T)
(  description: Generic 3-axis)
(T14 D=1.5 CR=0 - ZMIN=-4.3 - Schaftfrser)
G90 G94
G17
G21
(-Attention- Property Safe Retracts is set to Clearance Height.)
(Ensure the clearance height will clear the part and or fixtures.)
(Raise the Z-axis to a safe height before starting the program.)
(When using Fusion 360 for Personal Use, the feedrate of)
(rapid moves is reduced to match the feedrate of cutting)
(moves, which can increase machining time. Unrestricted rapid)
(moves are available with a Fusion 360 Subscription.)

(2D-Kontur3)
M0
(MANUAL TOOL CHANGE TO T14)
S6000 M3
G17 G90 G94
G54
G0 X-71.2 Y-191.05
Z15
G1 Z5 F600
Z0.3 F300
Z-1.85
X-71.193 Z-1.896 F400
X-71.171 Z-1.938
X-71.138 Z-1.971
X-71.096 Z-1.993
X-71.05 Z-2
X-70.9
X-70.854 Y-191.043
X-70.812 Y-191.021
X-70.779 Y-190.988
X-70.757 Y-190.946
X-70.75 Y-190.9
Y-19.1 F600
G2 X-70 Y-18.35 I0.75 J0
G1 X-60
G2 X-59.25 Y-19.1 I0 J-0.75
G1 Y-190.9
G2 X-60 Y-191.65 I-0.75 J0
G1 X-70
G2 X-70.75 Y-190.9 I0 J0.75
G1 X-70.757 Y-190.854
X-70.779 Y-190.812
X-70.812 Y-190.779
X-70.854 Y-190.757
X-70.9 Y-190.75
X-71.05
X-71.096 Z-1.993
X-71.138 Z-1.971
X-71.171 Z-1.938
X-71.193 Z-1.896
X-71.2 Z-1.85
Z5
Y-191.05
Z-1.7 F300
Z-3
X-71.193 Z-3.046 F400
X-71.171 Z-3.088
X-71.138 Z-3.121
X-71.096 Z-3.143
X-71.05 Z-3.15
X-70.9
X-70.854 Y-191.043
X-70.812 Y-191.021
X-70.779 Y-190.988
X-70.757 Y-190.946
X-70.75 Y-190.9
Y-19.1 F600
G2 X-70 Y-18.35 I0.75 J0
G1 X-60
G2 X-59.25 Y-19.1 I0 J-0.75
G1 Y-190.9
G2 X-60 Y-191.65 I-0.75 J0
G1 X-70
G2 X-70.75 Y-190.9 I0 J0.75
G1 X-70.757 Y-190.854
X-70.779 Y-190.812
X-70.812 Y-190.779
X-70.854 Y-190.757
X-70.9 Y-190.75
X-71.05
X-71.096 Z-3.143
X-71.138 Z-3.121
X-71.171 Z-3.088
X-71.193 Z-3.046
X-71.2 Z-3
Z5
Y-191.05
Z-2.85 F300
Z-4.15
X-71.193 Z-4.196 F400
X-71.171 Z-4.238
X-71.138 Z-4.271
X-71.096 Z-4.293
X-71.05 Z-4.3
X-70.9
X-70.854 Y-191.043
X-70.812 Y-191.021
X-70.779 Y-190.988
X-70.757 Y-190.946
X-70.75 Y-190.9
Y-19.1 F600
G2 X-70 Y-18.35 I0.75 J0
G1 X-60
G2 X-59.25 Y-19.1 I0 J-0.75
G1 Y-190.9
G2 X-60 Y-191.65 I-0.75 J0
G1 X-70
G2 X-70.75 Y-190.9 I0 J0.75
G1 X-70.757 Y-190.854
X-70.779 Y-190.812
X-70.812 Y-190.779
X-70.854 Y-190.757
X-70.9 Y-190.75
X-71.05
X-71.096 Z-4.293
X-71.138 Z-4.271
X-71.171 Z-4.238
X-71.193 Z-4.196
X-71.2 Z-4.15
Z15
(When using Fusion 360 for Personal Use, the feedrate of)
(rapid moves is reduced to match the feedrate of cutting)
(moves, which can increase machining time. Unrestricted rapid)
(moves are available with a Fusion 360 Subscription.)

(2D-Kontur3)
G0 X-86.2 Y-191.05
G1 Z15 F600
Z5
Z0.3 F300
Z-1.85
X-86.193 Z-1.896 F400
X-86.171 Z-1.938
X-86.138 Z-1.971
X-86.096 Z-1.993
X-86.05 Z-2
X-85.9
X-85.854 Y-191.043
X-85.812 Y-191.021
X-85.779 Y-190.988
X-85.757 Y-190.946
X-85.75 Y-190.9
Y-19.1 F600
G2 X-85 Y-18.35 I0.75 J0
G1 X-75
G2 X-74.25 Y-19.1 I0 J-0.75
G1 Y-190.9
G2 X-75 Y-191.65 I-0.75 J0
G1 X-85
G2 X-85.75 Y-190.9 I0 J0.75
G1 X-85.757 Y-190.854
X-85.779 Y-190.812
X-85.812 Y-190.779
X-85.854 Y-190.757
X-85.9 Y-190.75
X-86.05
X-86.096 Z-1.993
X-86.138 Z-1.971
X-86.171 Z-1.938
X-86.193 Z-1.896
X-86.2 Z-1.85
Z5
Y-191.05
Z-1.7 F300
Z-3
X-86.193 Z-3.046 F400
X-86.171 Z-3.088
X-86.138 Z-3.121
X-86.096 Z-3.143
X-86.05 Z-3.15
X-85.9
X-85.854 Y-191.043
X-85.812 Y-191.021
X-85.779 Y-190.988
X-85.757 Y-190.946
X-85.75 Y-190.9
Y-19.1 F600
G2 X-85 Y-18.35 I0.75 J0
G1 X-75
G2 X-74.25 Y-19.1 I0 J-0.75
G1 Y-190.9
G2 X-75 Y-191.65 I-0.75 J0
G1 X-85
G2 X-85.75 Y-190.9 I0 J0.75
G1 X-85.757 Y-190.854
X-85.779 Y-190.812
X-85.812 Y-190.779
X-85.854 Y-190.757
X-85.9 Y-190.75
X-86.05
X-86.096 Z-3.143
X-86.138 Z-3.121
X-86.171 Z-3.088
X-86.193 Z-3.046
X-86.2 Z-3
Z5
Y-191.05
Z-2.85 F300
Z-4.15
X-86.193 Z-4.196 F400
X-86.171 Z-4.238
X-86.138 Z-4.271
X-86.096 Z-4.293
X-86.05 Z-4.3
X-85.9
X-85.854 Y-191.043
X-85.812 Y-191.021
X-85.779 Y-190.988
X-85.757 Y-190.946
X-85.75 Y-190.9
Y-19.1 F600
G2 X-85 Y-18.35 I0.75 J0
G1 X-75
G2 X-74.25 Y-19.1 I0 J-0.75
G1 Y-190.9
G2 X-75 Y-191.65 I-0.75 J0
G1 X-85
G2 X-85.75 Y-190.9 I0 J0.75
G1 X-85.757 Y-190.854
X-85.779 Y-190.812
X-85.812 Y-190.779
X-85.854 Y-190.757
X-85.9 Y-190.75
X-86.05
X-86.096 Z-4.293
X-86.138 Z-4.271
X-86.171 Z-4.238
X-86.193 Z-4.196
X-86.2 Z-4.15
Z15
M5
M30
