(1001)
G90 G94
G17
G21
(When using Fusion 360 for Personal Use, the feedrate of)
(rapid moves is reduced to match the feedrate of cutting)
(moves, which can increase machining time. Unrestricted rapid)
(moves are available with a Fusion 360 Subscription.)

(Bohrfrasen6)
S4000 M3
G54
G0 X-6.15 Y-5.6
Z15
G1 Z2 F600
Z0.15
X-6.157 Z0.104
X-6.178 Z0.062
X-6.212 Z0.029
X-6.253 Z0.007
X-6.3 Z0
X-6.375
X-6.421 Y-5.607
X-6.463 Y-5.628
X-6.496 Y-5.662
X-6.517 Y-5.703
X-6.525 Y-5.75
G3 X-4.975 Y-5.75 Z-0.15 I0.775 J0
X-6.525 Y-5.75 Z-0.3 I-0.775 J0
X-4.975 Y-5.75 Z-0.45 I0.775 J0
X-6.525 Y-5.75 Z-0.6 I-0.775 J0
X-4.975 Y-5.75 Z-0.75 I0.775 J0
X-6.525 Y-5.75 Z-0.9 I-0.775 J0
X-4.975 Y-5.75 Z-1.05 I0.775 J0
X-6.525 Y-5.75 Z-1.2 I-0.775 J0
X-4.975 Y-5.75 Z-1.35 I0.775 J0
X-6.525 Y-5.75 Z-1.5 I-0.775 J0
X-4.975 Y-5.75 Z-1.65 I0.775 J0
X-6.525 Y-5.75 Z-1.8 I-0.775 J0
X-5.362 Y-6.421 Z-1.9 I0.775 J0
X-6.137 Y-5.079 I-0.388 J0.671
X-5.362 Y-6.421 I0.388 J-0.671
G1 X-5.326 Y-6.391
X-5.3 Y-6.352
X-5.288 Y-6.307
X-5.29 Y-6.26
X-5.307 Y-6.216
X-5.345 Y-6.151
X-5.368 Y-6.111 Z-1.893
X-5.389 Y-6.075 Z-1.871
X-5.405 Y-6.046 Z-1.838
X-5.416 Y-6.027 Z-1.796
X-5.42 Y-6.021 Z-1.75
Z5
X-13.693 Y-13.643
Z2
Z0.15
X-13.701 Z0.104
X-13.722 Z0.062
X-13.755 Z0.029
X-13.797 Z0.007
X-13.843 Z0
X-13.918
X-13.961 Y-13.65
X-13.999 Y-13.67
X-14.03 Y-13.7
X-14.049 Y-13.738
X-14.056 Y-13.781
G3 X-13.506 Y-13.781 Z-0.15 I0.275 J0
X-14.056 Y-13.781 Z-0.3 I-0.275 J0
X-13.506 Y-13.781 Z-0.45 I0.275 J0
X-14.056 Y-13.781 Z-0.6 I-0.275 J0
X-13.506 Y-13.781 Z-0.75 I0.275 J0
X-14.056 Y-13.781 Z-0.9 I-0.275 J0
X-13.506 Y-13.781 Z-1.05 I0.275 J0
X-14.056 Y-13.781 Z-1.2 I-0.275 J0
X-13.506 Y-13.781 Z-1.35 I0.275 J0
X-14.056 Y-13.781 Z-1.5 I-0.275 J0
X-13.506 Y-13.781 Z-1.65 I0.275 J0
X-14.056 Y-13.781 Z-1.8 I-0.275 J0
X-13.643 Y-14.019 Z-1.9 I0.275 J0
X-13.918 Y-13.543 I-0.137 J0.238
X-13.643 Y-14.019 I0.137 J-0.238
G1 X-13.61 Y-13.992
X-13.587 Y-13.956
X-13.575 Y-13.914
X-13.578 Y-13.871
X-13.593 Y-13.831
X-13.631 Y-13.766
X-13.654 Y-13.726 Z-1.893
X-13.675 Y-13.69 Z-1.871
X-13.691 Y-13.661 Z-1.838
X-13.702 Y-13.643 Z-1.796
X-13.706 Y-13.636 Z-1.75
Z5
X-33.693 Y-13.643
Z2
Z0.15
X-33.701 Z0.104
X-33.722 Z0.062
X-33.755 Z0.029
X-33.797 Z0.007
X-33.843 Z0
X-33.918
X-33.961 Y-13.65
X-33.999 Y-13.67
X-34.03 Y-13.7
X-34.049 Y-13.738
X-34.056 Y-13.781
G3 X-33.506 Y-13.781 Z-0.15 I0.275 J0
X-34.056 Y-13.781 Z-0.3 I-0.275 J0
X-33.506 Y-13.781 Z-0.45 I0.275 J0
X-34.056 Y-13.781 Z-0.6 I-0.275 J0
X-33.506 Y-13.781 Z-0.75 I0.275 J0
X-34.056 Y-13.781 Z-0.9 I-0.275 J0
X-33.506 Y-13.781 Z-1.05 I0.275 J0
X-34.056 Y-13.781 Z-1.2 I-0.275 J0
X-33.506 Y-13.781 Z-1.35 I0.275 J0
X-34.056 Y-13.781 Z-1.5 I-0.275 J0
X-33.506 Y-13.781 Z-1.65 I0.275 J0
X-34.056 Y-13.781 Z-1.8 I-0.275 J0
X-33.643 Y-14.019 Z-1.9 I0.275 J0
X-33.918 Y-13.543 I-0.138 J0.238
X-33.643 Y-14.019 I0.138 J-0.238
G1 X-33.61 Y-13.992
X-33.587 Y-13.956
X-33.575 Y-13.914
X-33.578 Y-13.871
X-33.593 Y-13.831
X-33.631 Y-13.766
X-33.654 Y-13.726 Z-1.893
X-33.675 Y-13.69 Z-1.871
X-33.691 Y-13.661 Z-1.838
X-33.702 Y-13.643 Z-1.796
X-33.706 Y-13.636 Z-1.75
Z5
X-42.212 Y-5.6
Z2
Z0.15
X-42.22 Z0.104
X-42.241 Z0.062
X-42.274 Z0.029
X-42.316 Z0.007
X-42.362 Z0
X-42.437
X-42.484 Y-5.607
X-42.525 Y-5.628
X-42.559 Y-5.662
X-42.58 Y-5.703
X-42.587 Y-5.75
G3 X-41.037 Y-5.75 Z-0.15 I0.775 J0
X-42.587 Y-5.75 Z-0.3 I-0.775 J0
X-41.037 Y-5.75 Z-0.45 I0.775 J0
X-42.587 Y-5.75 Z-0.6 I-0.775 J0
X-41.037 Y-5.75 Z-0.75 I0.775 J0
X-42.587 Y-5.75 Z-0.9 I-0.775 J0
X-41.037 Y-5.75 Z-1.05 I0.775 J0
X-42.587 Y-5.75 Z-1.2 I-0.775 J0
X-41.037 Y-5.75 Z-1.35 I0.775 J0
X-42.587 Y-5.75 Z-1.5 I-0.775 J0
X-41.037 Y-5.75 Z-1.65 I0.775 J0
X-42.587 Y-5.75 Z-1.8 I-0.775 J0
X-41.425 Y-6.421 Z-1.9 I0.775 J0
X-42.2 Y-5.079 I-0.388 J0.671
X-41.425 Y-6.421 I0.388 J-0.671
G1 X-41.388 Y-6.391
X-41.363 Y-6.352
X-41.35 Y-6.307
X-41.353 Y-6.26
X-41.37 Y-6.216
X-41.407 Y-6.151
X-41.43 Y-6.111 Z-1.893
X-41.451 Y-6.075 Z-1.871
X-41.468 Y-6.046 Z-1.838
X-41.479 Y-6.027 Z-1.796
X-41.482 Y-6.021 Z-1.75
Z5
X-42.212 Y-41.662
Z2
Z0.15
X-42.22 Z0.104
X-42.241 Z0.062
X-42.274 Z0.029
X-42.316 Z0.007
X-42.362 Z0
X-42.437
X-42.484 Y-41.67
X-42.525 Y-41.691
X-42.559 Y-41.724
X-42.58 Y-41.766
X-42.587 Y-41.812
G3 X-41.037 Y-41.812 Z-0.15 I0.775 J0
X-42.587 Y-41.812 Z-0.3 I-0.775 J0
X-41.037 Y-41.812 Z-0.45 I0.775 J0
X-42.587 Y-41.812 Z-0.6 I-0.775 J0
X-41.037 Y-41.812 Z-0.75 I0.775 J0
X-42.587 Y-41.812 Z-0.9 I-0.775 J0
X-41.037 Y-41.812 Z-1.05 I0.775 J0
X-42.587 Y-41.812 Z-1.2 I-0.775 J0
X-41.037 Y-41.812 Z-1.35 I0.775 J0
X-42.587 Y-41.812 Z-1.5 I-0.775 J0
X-41.037 Y-41.812 Z-1.65 I0.775 J0
X-42.587 Y-41.812 Z-1.8 I-0.775 J0
X-41.425 Y-42.483 Z-1.9 I0.775 J0
X-42.2 Y-41.141 I-0.388 J0.671
X-41.425 Y-42.483 I0.388 J-0.671
G1 X-41.388 Y-42.454
X-41.363 Y-42.414
X-41.35 Y-42.369
X-41.353 Y-42.322
X-41.37 Y-42.278
X-41.407 Y-42.213
X-41.43 Y-42.173 Z-1.893
X-41.451 Y-42.137 Z-1.871
X-41.468 Y-42.108 Z-1.838
X-41.479 Y-42.09 Z-1.796
X-41.482 Y-42.084 Z-1.75
Z5
X-33.693 Y-33.643
Z2
Z0.15
X-33.701 Z0.104
X-33.722 Z0.062
X-33.755 Z0.029
X-33.797 Z0.007
X-33.843 Z0
X-33.918
X-33.961 Y-33.65
X-33.999 Y-33.67
X-34.03 Y-33.7
X-34.049 Y-33.738
X-34.056 Y-33.781
G3 X-33.506 Y-33.781 Z-0.15 I0.275 J0
X-34.056 Y-33.781 Z-0.3 I-0.275 J0
X-33.506 Y-33.781 Z-0.45 I0.275 J0
X-34.056 Y-33.781 Z-0.6 I-0.275 J0
X-33.506 Y-33.781 Z-0.75 I0.275 J0
X-34.056 Y-33.781 Z-0.9 I-0.275 J0
X-33.506 Y-33.781 Z-1.05 I0.275 J0
X-34.056 Y-33.781 Z-1.2 I-0.275 J0
X-33.506 Y-33.781 Z-1.35 I0.275 J0
X-34.056 Y-33.781 Z-1.5 I-0.275 J0
X-33.506 Y-33.781 Z-1.65 I0.275 J0
X-34.056 Y-33.781 Z-1.8 I-0.275 J0
X-33.643 Y-34.019 Z-1.9 I0.275 J0
X-33.918 Y-33.543 I-0.138 J0.238
X-33.643 Y-34.019 I0.138 J-0.238
G1 X-33.61 Y-33.992
X-33.587 Y-33.956
X-33.575 Y-33.914
X-33.578 Y-33.871
X-33.593 Y-33.831
X-33.631 Y-33.766
X-33.654 Y-33.726 Z-1.893
X-33.675 Y-33.69 Z-1.871
X-33.691 Y-33.661 Z-1.838
X-33.702 Y-33.643 Z-1.796
X-33.706 Y-33.636 Z-1.75
Z5
X-13.693 Y-33.643
Z2
Z0.15
X-13.701 Z0.104
X-13.722 Z0.062
X-13.755 Z0.029
X-13.797 Z0.007
X-13.843 Z0
X-13.918
X-13.961 Y-33.65
X-13.999 Y-33.67
X-14.03 Y-33.7
X-14.049 Y-33.738
X-14.056 Y-33.781
G3 X-13.506 Y-33.781 Z-0.15 I0.275 J0
X-14.056 Y-33.781 Z-0.3 I-0.275 J0
X-13.506 Y-33.781 Z-0.45 I0.275 J0
X-14.056 Y-33.781 Z-0.6 I-0.275 J0
X-13.506 Y-33.781 Z-0.75 I0.275 J0
X-14.056 Y-33.781 Z-0.9 I-0.275 J0
X-13.506 Y-33.781 Z-1.05 I0.275 J0
X-14.056 Y-33.781 Z-1.2 I-0.275 J0
X-13.506 Y-33.781 Z-1.35 I0.275 J0
X-14.056 Y-33.781 Z-1.5 I-0.275 J0
X-13.506 Y-33.781 Z-1.65 I0.275 J0
X-14.056 Y-33.781 Z-1.8 I-0.275 J0
X-13.643 Y-34.019 Z-1.9 I0.275 J0
X-13.918 Y-33.543 I-0.137 J0.238
X-13.643 Y-34.019 I0.137 J-0.238
G1 X-13.61 Y-33.992
X-13.587 Y-33.956
X-13.575 Y-33.914
X-13.578 Y-33.871
X-13.593 Y-33.831
X-13.631 Y-33.766
X-13.654 Y-33.726 Z-1.893
X-13.675 Y-33.69 Z-1.871
X-13.691 Y-33.661 Z-1.838
X-13.702 Y-33.643 Z-1.796
X-13.706 Y-33.636 Z-1.75
Z5
X-6.15 Y-41.662
Z2
Z0.15
X-6.157 Z0.104
X-6.178 Z0.062
X-6.212 Z0.029
X-6.253 Z0.007
X-6.3 Z0
X-6.375
X-6.421 Y-41.67
X-6.463 Y-41.691
X-6.496 Y-41.724
X-6.517 Y-41.766
X-6.525 Y-41.812
G3 X-4.975 Y-41.812 Z-0.15 I0.775 J0
X-6.525 Y-41.812 Z-0.3 I-0.775 J0
X-4.975 Y-41.812 Z-0.45 I0.775 J0
X-6.525 Y-41.812 Z-0.6 I-0.775 J0
X-4.975 Y-41.812 Z-0.75 I0.775 J0
X-6.525 Y-41.812 Z-0.9 I-0.775 J0
X-4.975 Y-41.812 Z-1.05 I0.775 J0
X-6.525 Y-41.812 Z-1.2 I-0.775 J0
X-4.975 Y-41.812 Z-1.35 I0.775 J0
X-6.525 Y-41.812 Z-1.5 I-0.775 J0
X-4.975 Y-41.812 Z-1.65 I0.775 J0
X-6.525 Y-41.812 Z-1.8 I-0.775 J0
X-5.362 Y-42.483 Z-1.9 I0.775 J0
X-6.137 Y-41.141 I-0.388 J0.671
X-5.362 Y-42.483 I0.388 J-0.671
G1 X-5.326 Y-42.454
X-5.3 Y-42.414
X-5.288 Y-42.369
X-5.29 Y-42.322
X-5.307 Y-42.278
X-5.345 Y-42.213
X-5.368 Y-42.173 Z-1.893
X-5.389 Y-42.137 Z-1.871
X-5.405 Y-42.108 Z-1.838
X-5.416 Y-42.09 Z-1.796
X-5.42 Y-42.084 Z-1.75
Z15
(When using Fusion 360 for Personal Use, the feedrate of)
(rapid moves is reduced to match the feedrate of cutting)
(moves, which can increase machining time. Unrestricted rapid)
(moves are available with a Fusion 360 Subscription.)

(2D-Kontur6)
G0 X-29.838 Y-11.553
G1 Z15 F600
Z5
Z2.65 F200
Y-11.56 Z2.604 F600
X-29.84 Y-11.581 Z2.562
X-29.842 Y-11.615 Z2.529
X-29.844 Y-11.656 Z2.507
X-29.847 Y-11.703 Z2.5
X-29.856 Y-11.852
X-29.852 Y-11.899
X-29.833 Y-11.942
X-29.802 Y-11.977
X-29.762 Y-12.001
X-29.716 Y-12.011
G3 X-29.281 Y-12.025 Z2.485 I0.435 J7.042 F333.3
G1 X-18.281 Z2.101
G3 X-11.239 Y-5.408 Z1.729 I0 J7.056
G2 X-0.261 Y-6.092 Z1.126 I5.489 J-0.342
X-3.034 Y-10.532 Z0.935 I-5.489 J0.342
G3 X-9 Y-20.781 Z0.501 I5.82 J-10.249
G1 Y-26.781 Z0.292
G3 X-3.034 Y-37.03 Z-0.142 I11.786 J0
G2 X-0.399 Y-40.541 Z-0.3 I-2.716 J-4.782
X-4.94 Y-47.252 I-5.351 J-1.272 F600
X-11.239 Y-42.154 I-0.81 J5.44
G3 X-18.281 Y-35.537 I-7.042 J-0.439
G1 X-29.281
G3 X-36.323 Y-42.154 I0 J-7.056
G2 X-47.301 Y-41.47 I-5.489 J0.342
X-44.528 Y-37.03 I5.489 J-0.342
G3 X-38.562 Y-26.781 I-5.82 J10.249
G1 Y-20.781
G3 X-44.528 Y-10.532 I-11.786 J0
G2 X-39.096 Y-0.967 I2.716 J4.782
X-36.323 Y-5.408 I-2.716 J-4.782
G3 X-29.281 Y-12.025 I7.042 J0.439
G1 X-18.281
G3 X-11.239 Y-5.408 I0 J7.056
G2 X-0.261 Y-6.092 I5.489 J-0.342
X-3.034 Y-10.532 I-5.489 J0.342
G3 X-9 Y-20.781 I5.82 J-10.249
G1 Y-26.781
G3 X-3.034 Y-37.03 I11.786 J0
G2 X-0.399 Y-40.541 I-2.716 J-4.782
X-4.431 Y-47.152 Z-0.6 I-5.351 J-1.272 F333.3
X-11.239 Y-42.154 I-1.318 J5.339 F600
G3 X-18.281 Y-35.537 I-7.042 J-0.439
G1 X-29.281
G3 X-36.323 Y-42.154 I0 J-7.056
G2 X-47.301 Y-41.47 I-5.489 J0.342
X-44.528 Y-37.03 I5.489 J-0.342
G3 X-38.562 Y-26.781 I-5.82 J10.249
G1 Y-20.781
G3 X-44.528 Y-10.532 I-11.786 J0
G2 X-39.096 Y-0.967 I2.716 J4.782
X-36.323 Y-5.408 I-2.716 J-4.782
G3 X-29.281 Y-12.025 I7.042 J0.439
G1 X-18.281
G3 X-11.239 Y-5.408 I0 J7.056
G2 X-0.261 Y-6.092 I5.489 J-0.342
X-3.034 Y-10.532 I-5.489 J0.342
G3 X-9 Y-20.781 I5.82 J-10.249
G1 Y-26.781
G3 X-3.034 Y-37.03 I11.786 J0
G2 X-4.431 Y-47.152 I-2.716 J-4.782
X-11.077 Y-43.177 Z-0.9 I-1.318 J5.339 F333.3
X-11.239 Y-42.154 I5.328 J1.365 F600
G3 X-18.281 Y-35.537 I-7.042 J-0.439
G1 X-29.281
G3 X-36.323 Y-42.154 I0 J-7.056
G2 X-47.301 Y-41.47 I-5.489 J0.342
X-44.528 Y-37.03 I5.489 J-0.342
G3 X-38.562 Y-26.781 I-5.82 J10.249
G1 Y-20.781
G3 X-44.528 Y-10.532 I-11.786 J0
G2 X-39.096 Y-0.967 I2.716 J4.782
X-36.323 Y-5.408 I-2.716 J-4.782
G3 X-29.281 Y-12.025 I7.042 J0.439
G1 X-18.281
G3 X-11.239 Y-5.408 I0 J7.056
G2 X-0.261 Y-6.092 I5.489 J-0.342
X-3.034 Y-10.532 I-5.489 J0.342
G3 X-9 Y-20.781 I5.82 J-10.249
G1 Y-26.781
G3 X-3.034 Y-37.03 I11.786 J0
G2 X-8.466 Y-46.595 I-2.716 J-4.782
X-11.077 Y-43.177 I2.716 J4.782
X-11.239 Y-42.154 Z-0.936 I5.328 J1.365 F333.3
G3 X-15.288 Y-36.203 Z-1.2 I-7.042 J-0.439
X-18.281 Y-35.537 I-2.992 J-6.39 F600
G1 X-29.281
G3 X-36.323 Y-42.154 I0 J-7.056
G2 X-47.301 Y-41.47 I-5.489 J0.342
X-44.528 Y-37.03 I5.489 J-0.342
G3 X-38.562 Y-26.781 I-5.82 J10.249
G1 Y-20.781
G3 X-44.528 Y-10.532 I-11.786 J0
G2 X-39.096 Y-0.967 I2.716 J4.782
X-36.323 Y-5.408 I-2.716 J-4.782
G3 X-29.281 Y-12.025 I7.042 J0.439
G1 X-18.281
G3 X-11.239 Y-5.408 I0 J7.056
G2 X-0.261 Y-6.092 I5.489 J-0.342
X-3.034 Y-10.532 I-5.489 J0.342
G3 X-9 Y-20.781 I5.82 J-10.249
G1 Y-26.781
G3 X-3.034 Y-37.03 I11.786 J0
G2 X-8.466 Y-46.595 I-2.716 J-4.782
X-11.239 Y-42.154 I2.716 J4.782
G3 X-15.288 Y-36.203 I-7.042 J-0.439
X-18.281 Y-35.537 Z-1.308 I-2.992 J-6.39 F333.3
G1 X-23.781 Z-1.5
X-29.281 F600
G3 X-36.323 Y-42.154 I0 J-7.056
G2 X-47.301 Y-41.47 I-5.489 J0.342
X-44.528 Y-37.03 I5.489 J-0.342
G3 X-38.562 Y-26.781 I-5.82 J10.249
G1 Y-20.781
G3 X-44.528 Y-10.532 I-11.786 J0
G2 X-39.096 Y-0.967 I2.716 J4.782
X-36.323 Y-5.408 I-2.716 J-4.782
G3 X-29.281 Y-12.025 I7.042 J0.439
G1 X-18.281
G3 X-11.239 Y-5.408 I0 J7.056
G2 X-0.261 Y-6.092 I5.489 J-0.342
X-3.034 Y-10.532 I-5.489 J0.342
G3 X-9 Y-20.781 I5.82 J-10.249
G1 Y-26.781
G3 X-3.034 Y-37.03 I11.786 J0
G2 X-8.466 Y-46.595 I-2.716 J-4.782
X-11.239 Y-42.154 I2.716 J4.782
G3 X-18.281 Y-35.537 I-7.042 J-0.439
G1 X-23.781
X-29.281 Z-1.692 F333.3
G3 X-32.274 Y-36.204 Z-1.8 I0 J-7.056
X-36.323 Y-42.154 I2.993 J-6.389 F600
G2 X-47.301 Y-41.47 I-5.489 J0.342
X-44.528 Y-37.03 I5.489 J-0.342
G3 X-38.562 Y-26.781 I-5.82 J10.249
G1 Y-20.781
G3 X-44.528 Y-10.532 I-11.786 J0
G2 X-39.096 Y-0.967 I2.716 J4.782
X-36.323 Y-5.408 I-2.716 J-4.782
G3 X-32.031 Y-11.467 I7.042 J0.439
G1 Z-1.525
G3 X-29.281 Y-12.025 I2.75 J6.498
G1 X-26.531
Z-1.8 F200
X-18.281 F600
G3 X-11.239 Y-5.408 I0 J7.056
G2 X-0.261 Y-6.092 I5.489 J-0.342
X-3.034 Y-10.532 I-5.489 J0.342
G3 X-9 Y-20.781 I5.82 J-10.249
G1 Y-26.781
G3 X-3.034 Y-37.03 I11.786 J0
G2 X-8.466 Y-46.595 I-2.716 J-4.782
X-11.239 Y-42.154 I2.716 J4.782
G3 X-15.531 Y-36.095 I-7.042 J-0.439
G1 Z-1.525
G3 X-18.281 Y-35.537 I-2.75 J-6.498
G1 X-21.031
Z-1.8 F200
X-29.281 F600
G3 X-32.274 Y-36.204 I0 J-7.056
X-34.554 Y-37.905 Z-1.9 I2.993 J-6.389 F333.3
X-36.323 Y-42.154 I5.273 J-4.688 F600
G2 X-47.301 Y-41.47 I-5.489 J0.342
X-44.528 Y-37.03 I5.489 J-0.342
G3 X-38.562 Y-26.781 I-5.82 J10.249
G1 Y-20.781
G3 X-44.528 Y-10.532 I-11.786 J0
G2 X-39.096 Y-0.967 I2.716 J4.782
X-36.323 Y-5.408 I-2.716 J-4.782
G3 X-32.031 Y-11.467 I7.042 J0.439
G1 Z-1.525
G3 X-29.281 Y-12.025 I2.75 J6.498
G1 X-26.531
Z-1.9 F200
X-18.281 F600
G3 X-11.239 Y-5.408 I0 J7.056
G2 X-0.261 Y-6.092 I5.489 J-0.342
X-3.034 Y-10.532 I-5.489 J0.342
G3 X-9 Y-20.781 I5.82 J-10.249
G1 Y-26.781
G3 X-3.034 Y-37.03 I11.786 J0
G2 X-8.466 Y-46.595 I-2.716 J-4.782
X-11.239 Y-42.154 I2.716 J4.782
G3 X-15.531 Y-36.095 I-7.042 J-0.439
G1 Z-1.525
G3 X-18.281 Y-35.537 I-2.75 J-6.498
G1 X-21.031
Z-1.9 F200
X-29.281 F600
G3 X-34.554 Y-37.905 I0 J-7.056
G1 X-34.579 Y-37.944
X-34.591 Y-37.989
X-34.588 Y-38.036
X-34.571 Y-38.08
X-34.541 Y-38.116
X-34.429 Y-38.216
X-34.395 Y-38.247 Z-1.893
X-34.363 Y-38.275 Z-1.871
X-34.339 Y-38.297 Z-1.838
X-34.323 Y-38.311 Z-1.796
X-34.317 Y-38.316 Z-1.75
Z15
M5
M30
