(Body_175)
(Bearbeiten)
(  Hersteller: ChinaCnc)
(  model: 3040T)
(  description: Generic 3-axis)
(T14 D=1.5 CR=0 - ZMIN=-2.3 - Schaftfrser)
G90 G94
G17
G21
(-Attention- Property Safe Retracts is set to Clearance Height.)
(Ensure the clearance height will clear the part and or fixtures.)
(Raise the Z-axis to a safe height before starting the program.)
(When using Fusion for Personal Use, the feedrate of rapid)
(moves is reduced to match the feedrate of cutting moves,)
(which can increase machining time. Unrestricted rapid moves)
(are available with a Fusion Subscription.)

(Bohrfrsen6)
M0
(MANUAL TOOL CHANGE TO T14)
S6000 M3
G17 G90 G94
G54
G0 X-81.239 Y-35.775
Z15
G1 Z2 F600
Z0.15 F400
Y-35.782 Z0.104
Y-35.804 Z0.062
Y-35.837 Z0.029
Y-35.879 Z0.007
Y-35.925 Z0
Y-36
X-81.232 Y-36.046
X-81.21 Y-36.088
X-81.177 Y-36.121
X-81.135 Y-36.143
X-81.089 Y-36.15
G3 X-81.089 Y-35.35 Z-0.04 I0 J0.4 F600
X-81.089 Y-36.15 Z-0.08 I0 J-0.4
X-81.089 Y-35.35 Z-0.12 I0 J0.4
X-81.089 Y-36.15 Z-0.161 I0 J-0.4
X-81.089 Y-35.35 Z-0.201 I0 J0.4
X-81.089 Y-36.15 Z-0.241 I0 J-0.4
X-81.089 Y-35.35 Z-0.281 I0 J0.4
X-81.089 Y-36.15 Z-0.321 I0 J-0.4
X-81.089 Y-35.35 Z-0.361 I0 J0.4
X-81.089 Y-36.15 Z-0.402 I0 J-0.4
X-81.089 Y-35.35 Z-0.442 I0 J0.4
X-81.089 Y-36.15 Z-0.482 I0 J-0.4
X-81.089 Y-35.35 Z-0.522 I0 J0.4
X-81.089 Y-36.15 Z-0.562 I0 J-0.4
X-81.089 Y-35.35 Z-0.602 I0 J0.4
X-81.089 Y-36.15 Z-0.643 I0 J-0.4
X-81.089 Y-35.35 Z-0.683 I0 J0.4
X-81.089 Y-36.15 Z-0.723 I0 J-0.4
X-81.089 Y-35.35 Z-0.763 I0 J0.4
X-81.089 Y-36.15 Z-0.803 I0 J-0.4
X-81.089 Y-35.35 Z-0.843 I0 J0.4
X-81.089 Y-36.15 Z-0.883 I0 J-0.4
X-81.089 Y-35.35 Z-0.924 I0 J0.4
X-81.089 Y-36.15 Z-0.964 I0 J-0.4
X-81.089 Y-35.35 Z-1.004 I0 J0.4
X-81.089 Y-36.15 Z-1.044 I0 J-0.4
X-81.089 Y-35.35 Z-1.084 I0 J0.4
X-81.089 Y-36.15 Z-1.124 I0 J-0.4
X-81.089 Y-35.35 Z-1.165 I0 J0.4
X-81.089 Y-36.15 Z-1.205 I0 J-0.4
X-81.089 Y-35.35 Z-1.245 I0 J0.4
X-81.089 Y-36.15 Z-1.285 I0 J-0.4
X-81.089 Y-35.35 Z-1.325 I0 J0.4
X-81.089 Y-36.15 Z-1.365 I0 J-0.4
X-81.089 Y-35.35 Z-1.406 I0 J0.4
X-81.089 Y-36.15 Z-1.446 I0 J-0.4
X-81.089 Y-35.35 Z-1.486 I0 J0.4
X-81.089 Y-36.15 Z-1.526 I0 J-0.4
X-81.089 Y-35.35 Z-1.566 I0 J0.4
X-81.089 Y-36.15 Z-1.606 I0 J-0.4
X-81.089 Y-35.35 Z-1.647 I0 J0.4
X-81.089 Y-36.15 Z-1.687 I0 J-0.4
X-81.089 Y-35.35 Z-1.727 I0 J0.4
X-81.089 Y-36.15 Z-1.767 I0 J-0.4
X-81.089 Y-35.35 Z-1.807 I0 J0.4
X-81.089 Y-36.15 Z-1.847 I0 J-0.4
X-81.089 Y-35.35 Z-1.887 I0 J0.4
X-81.089 Y-36.15 Z-1.928 I0 J-0.4
X-81.089 Y-35.35 Z-1.968 I0 J0.4
X-81.089 Y-36.15 Z-2.008 I0 J-0.4
X-81.089 Y-35.35 Z-2.048 I0 J0.4
X-81.089 Y-36.15 Z-2.088 I0 J-0.4
X-81.089 Y-35.35 Z-2.128 I0 J0.4
X-81.089 Y-36.15 Z-2.169 I0 J-0.4
X-81.089 Y-35.35 Z-2.209 I0 J0.4
X-81.089 Y-36.15 Z-2.249 I0 J-0.4
X-81.089 Y-35.35 Z-2.289 I0 J0.4
X-81.391 Y-35.488 Z-2.3 I0 J-0.4
X-80.787 Y-36.012 I0.302 J-0.262
X-81.391 Y-35.488 I-0.302 J0.262
G1 X-81.416 Y-35.528
X-81.427 Y-35.573
X-81.424 Y-35.62
X-81.406 Y-35.664
X-81.376 Y-35.699
X-81.32 Y-35.749
X-81.285 Y-35.779 Z-2.293
X-81.253 Y-35.806 Z-2.271
X-81.228 Y-35.828 Z-2.238
X-81.212 Y-35.842 Z-2.196
X-81.206 Y-35.847 Z-2.15
Z5
X-106.739 Y-35.775
Z2
Z0.15 F400
Y-35.782 Z0.104
Y-35.804 Z0.062
Y-35.837 Z0.029
Y-35.879 Z0.007
Y-35.925 Z0
Y-36
X-106.732 Y-36.046
X-106.71 Y-36.088
X-106.677 Y-36.121
X-106.635 Y-36.143
X-106.589 Y-36.15
G3 X-106.589 Y-35.35 Z-0.04 I0 J0.4 F600
X-106.589 Y-36.15 Z-0.08 I0 J-0.4
X-106.589 Y-35.35 Z-0.12 I0 J0.4
X-106.589 Y-36.15 Z-0.161 I0 J-0.4
X-106.589 Y-35.35 Z-0.201 I0 J0.4
X-106.589 Y-36.15 Z-0.241 I0 J-0.4
X-106.589 Y-35.35 Z-0.281 I0 J0.4
X-106.589 Y-36.15 Z-0.321 I0 J-0.4
X-106.589 Y-35.35 Z-0.361 I0 J0.4
X-106.589 Y-36.15 Z-0.402 I0 J-0.4
X-106.589 Y-35.35 Z-0.442 I0 J0.4
X-106.589 Y-36.15 Z-0.482 I0 J-0.4
X-106.589 Y-35.35 Z-0.522 I0 J0.4
X-106.589 Y-36.15 Z-0.562 I0 J-0.4
X-106.589 Y-35.35 Z-0.602 I0 J0.4
X-106.589 Y-36.15 Z-0.643 I0 J-0.4
X-106.589 Y-35.35 Z-0.683 I0 J0.4
X-106.589 Y-36.15 Z-0.723 I0 J-0.4
X-106.589 Y-35.35 Z-0.763 I0 J0.4
X-106.589 Y-36.15 Z-0.803 I0 J-0.4
X-106.589 Y-35.35 Z-0.843 I0 J0.4
X-106.589 Y-36.15 Z-0.883 I0 J-0.4
X-106.589 Y-35.35 Z-0.924 I0 J0.4
X-106.589 Y-36.15 Z-0.964 I0 J-0.4
X-106.589 Y-35.35 Z-1.004 I0 J0.4
X-106.589 Y-36.15 Z-1.044 I0 J-0.4
X-106.589 Y-35.35 Z-1.084 I0 J0.4
X-106.589 Y-36.15 Z-1.124 I0 J-0.4
X-106.589 Y-35.35 Z-1.165 I0 J0.4
X-106.589 Y-36.15 Z-1.205 I0 J-0.4
X-106.589 Y-35.35 Z-1.245 I0 J0.4
X-106.589 Y-36.15 Z-1.285 I0 J-0.4
X-106.589 Y-35.35 Z-1.325 I0 J0.4
X-106.589 Y-36.15 Z-1.365 I0 J-0.4
X-106.589 Y-35.35 Z-1.406 I0 J0.4
X-106.589 Y-36.15 Z-1.446 I0 J-0.4
X-106.589 Y-35.35 Z-1.486 I0 J0.4
X-106.589 Y-36.15 Z-1.526 I0 J-0.4
X-106.589 Y-35.35 Z-1.566 I0 J0.4
X-106.589 Y-36.15 Z-1.606 I0 J-0.4
X-106.589 Y-35.35 Z-1.647 I0 J0.4
X-106.589 Y-36.15 Z-1.687 I0 J-0.4
X-106.589 Y-35.35 Z-1.727 I0 J0.4
X-106.589 Y-36.15 Z-1.767 I0 J-0.4
X-106.589 Y-35.35 Z-1.807 I0 J0.4
X-106.589 Y-36.15 Z-1.847 I0 J-0.4
X-106.589 Y-35.35 Z-1.887 I0 J0.4
X-106.589 Y-36.15 Z-1.928 I0 J-0.4
X-106.589 Y-35.35 Z-1.968 I0 J0.4
X-106.589 Y-36.15 Z-2.008 I0 J-0.4
X-106.589 Y-35.35 Z-2.048 I0 J0.4
X-106.589 Y-36.15 Z-2.088 I0 J-0.4
X-106.589 Y-35.35 Z-2.128 I0 J0.4
X-106.589 Y-36.15 Z-2.169 I0 J-0.4
X-106.589 Y-35.35 Z-2.209 I0 J0.4
X-106.589 Y-36.15 Z-2.249 I0 J-0.4
X-106.589 Y-35.35 Z-2.289 I0 J0.4
X-106.891 Y-35.488 Z-2.3 I0 J-0.4
X-106.287 Y-36.012 I0.302 J-0.262
X-106.891 Y-35.488 I-0.302 J0.262
G1 X-106.916 Y-35.528
X-106.927 Y-35.573
X-106.924 Y-35.62
X-106.906 Y-35.664
X-106.876 Y-35.699
X-106.82 Y-35.749
X-106.785 Y-35.779 Z-2.293
X-106.753 Y-35.806 Z-2.271
X-106.728 Y-35.828 Z-2.238
X-106.712 Y-35.842 Z-2.196
X-106.706 Y-35.847 Z-2.15
Z5
X-106.739 Y-61.275
Z2
Z0.15 F400
Y-61.282 Z0.104
Y-61.304 Z0.062
Y-61.337 Z0.029
Y-61.379 Z0.007
Y-61.425 Z0
Y-61.5
X-106.732 Y-61.546
X-106.71 Y-61.588
X-106.677 Y-61.621
X-106.635 Y-61.643
X-106.589 Y-61.65
G3 X-106.589 Y-60.85 Z-0.04 I0 J0.4 F600
X-106.589 Y-61.65 Z-0.08 I0 J-0.4
X-106.589 Y-60.85 Z-0.12 I0 J0.4
X-106.589 Y-61.65 Z-0.161 I0 J-0.4
X-106.589 Y-60.85 Z-0.201 I0 J0.4
X-106.589 Y-61.65 Z-0.241 I0 J-0.4
X-106.589 Y-60.85 Z-0.281 I0 J0.4
X-106.589 Y-61.65 Z-0.321 I0 J-0.4
X-106.589 Y-60.85 Z-0.361 I0 J0.4
X-106.589 Y-61.65 Z-0.402 I0 J-0.4
X-106.589 Y-60.85 Z-0.442 I0 J0.4
X-106.589 Y-61.65 Z-0.482 I0 J-0.4
X-106.589 Y-60.85 Z-0.522 I0 J0.4
X-106.589 Y-61.65 Z-0.562 I0 J-0.4
X-106.589 Y-60.85 Z-0.602 I0 J0.4
X-106.589 Y-61.65 Z-0.643 I0 J-0.4
X-106.589 Y-60.85 Z-0.683 I0 J0.4
X-106.589 Y-61.65 Z-0.723 I0 J-0.4
X-106.589 Y-60.85 Z-0.763 I0 J0.4
X-106.589 Y-61.65 Z-0.803 I0 J-0.4
X-106.589 Y-60.85 Z-0.843 I0 J0.4
X-106.589 Y-61.65 Z-0.883 I0 J-0.4
X-106.589 Y-60.85 Z-0.924 I0 J0.4
X-106.589 Y-61.65 Z-0.964 I0 J-0.4
X-106.589 Y-60.85 Z-1.004 I0 J0.4
X-106.589 Y-61.65 Z-1.044 I0 J-0.4
X-106.589 Y-60.85 Z-1.084 I0 J0.4
X-106.589 Y-61.65 Z-1.124 I0 J-0.4
X-106.589 Y-60.85 Z-1.165 I0 J0.4
X-106.589 Y-61.65 Z-1.205 I0 J-0.4
X-106.589 Y-60.85 Z-1.245 I0 J0.4
X-106.589 Y-61.65 Z-1.285 I0 J-0.4
X-106.589 Y-60.85 Z-1.325 I0 J0.4
X-106.589 Y-61.65 Z-1.365 I0 J-0.4
X-106.589 Y-60.85 Z-1.406 I0 J0.4
X-106.589 Y-61.65 Z-1.446 I0 J-0.4
X-106.589 Y-60.85 Z-1.486 I0 J0.4
X-106.589 Y-61.65 Z-1.526 I0 J-0.4
X-106.589 Y-60.85 Z-1.566 I0 J0.4
X-106.589 Y-61.65 Z-1.606 I0 J-0.4
X-106.589 Y-60.85 Z-1.647 I0 J0.4
X-106.589 Y-61.65 Z-1.687 I0 J-0.4
X-106.589 Y-60.85 Z-1.727 I0 J0.4
X-106.589 Y-61.65 Z-1.767 I0 J-0.4
X-106.589 Y-60.85 Z-1.807 I0 J0.4
X-106.589 Y-61.65 Z-1.847 I0 J-0.4
X-106.589 Y-60.85 Z-1.887 I0 J0.4
X-106.589 Y-61.65 Z-1.928 I0 J-0.4
X-106.589 Y-60.85 Z-1.968 I0 J0.4
X-106.589 Y-61.65 Z-2.008 I0 J-0.4
X-106.589 Y-60.85 Z-2.048 I0 J0.4
X-106.589 Y-61.65 Z-2.088 I0 J-0.4
X-106.589 Y-60.85 Z-2.128 I0 J0.4
X-106.589 Y-61.65 Z-2.169 I0 J-0.4
X-106.589 Y-60.85 Z-2.209 I0 J0.4
X-106.589 Y-61.65 Z-2.249 I0 J-0.4
X-106.589 Y-60.85 Z-2.289 I0 J0.4
X-106.891 Y-60.988 Z-2.3 I0 J-0.4
X-106.287 Y-61.512 I0.302 J-0.262
X-106.891 Y-60.988 I-0.302 J0.262
G1 X-106.916 Y-61.028
X-106.927 Y-61.073
X-106.924 Y-61.12
X-106.906 Y-61.164
X-106.876 Y-61.199
X-106.82 Y-61.249
X-106.785 Y-61.279 Z-2.293
X-106.753 Y-61.306 Z-2.271
X-106.728 Y-61.328 Z-2.238
X-106.712 Y-61.342 Z-2.196
X-106.706 Y-61.347 Z-2.15
Z5
X-81.239 Y-61.275
Z2
Z0.15 F400
Y-61.282 Z0.104
Y-61.304 Z0.062
Y-61.337 Z0.029
Y-61.379 Z0.007
Y-61.425 Z0
Y-61.5
X-81.232 Y-61.546
X-81.21 Y-61.588
X-81.177 Y-61.621
X-81.135 Y-61.643
X-81.089 Y-61.65
G3 X-81.089 Y-60.85 Z-0.04 I0 J0.4 F600
X-81.089 Y-61.65 Z-0.08 I0 J-0.4
X-81.089 Y-60.85 Z-0.12 I0 J0.4
X-81.089 Y-61.65 Z-0.161 I0 J-0.4
X-81.089 Y-60.85 Z-0.201 I0 J0.4
X-81.089 Y-61.65 Z-0.241 I0 J-0.4
X-81.089 Y-60.85 Z-0.281 I0 J0.4
X-81.089 Y-61.65 Z-0.321 I0 J-0.4
X-81.089 Y-60.85 Z-0.361 I0 J0.4
X-81.089 Y-61.65 Z-0.402 I0 J-0.4
X-81.089 Y-60.85 Z-0.442 I0 J0.4
X-81.089 Y-61.65 Z-0.482 I0 J-0.4
X-81.089 Y-60.85 Z-0.522 I0 J0.4
X-81.089 Y-61.65 Z-0.562 I0 J-0.4
X-81.089 Y-60.85 Z-0.602 I0 J0.4
X-81.089 Y-61.65 Z-0.643 I0 J-0.4
X-81.089 Y-60.85 Z-0.683 I0 J0.4
X-81.089 Y-61.65 Z-0.723 I0 J-0.4
X-81.089 Y-60.85 Z-0.763 I0 J0.4
X-81.089 Y-61.65 Z-0.803 I0 J-0.4
X-81.089 Y-60.85 Z-0.843 I0 J0.4
X-81.089 Y-61.65 Z-0.883 I0 J-0.4
X-81.089 Y-60.85 Z-0.924 I0 J0.4
X-81.089 Y-61.65 Z-0.964 I0 J-0.4
X-81.089 Y-60.85 Z-1.004 I0 J0.4
X-81.089 Y-61.65 Z-1.044 I0 J-0.4
X-81.089 Y-60.85 Z-1.084 I0 J0.4
X-81.089 Y-61.65 Z-1.124 I0 J-0.4
X-81.089 Y-60.85 Z-1.165 I0 J0.4
X-81.089 Y-61.65 Z-1.205 I0 J-0.4
X-81.089 Y-60.85 Z-1.245 I0 J0.4
X-81.089 Y-61.65 Z-1.285 I0 J-0.4
X-81.089 Y-60.85 Z-1.325 I0 J0.4
X-81.089 Y-61.65 Z-1.365 I0 J-0.4
X-81.089 Y-60.85 Z-1.406 I0 J0.4
X-81.089 Y-61.65 Z-1.446 I0 J-0.4
X-81.089 Y-60.85 Z-1.486 I0 J0.4
X-81.089 Y-61.65 Z-1.526 I0 J-0.4
X-81.089 Y-60.85 Z-1.566 I0 J0.4
X-81.089 Y-61.65 Z-1.606 I0 J-0.4
X-81.089 Y-60.85 Z-1.647 I0 J0.4
X-81.089 Y-61.65 Z-1.687 I0 J-0.4
X-81.089 Y-60.85 Z-1.727 I0 J0.4
X-81.089 Y-61.65 Z-1.767 I0 J-0.4
X-81.089 Y-60.85 Z-1.807 I0 J0.4
X-81.089 Y-61.65 Z-1.847 I0 J-0.4
X-81.089 Y-60.85 Z-1.887 I0 J0.4
X-81.089 Y-61.65 Z-1.928 I0 J-0.4
X-81.089 Y-60.85 Z-1.968 I0 J0.4
X-81.089 Y-61.65 Z-2.008 I0 J-0.4
X-81.089 Y-60.85 Z-2.048 I0 J0.4
X-81.089 Y-61.65 Z-2.088 I0 J-0.4
X-81.089 Y-60.85 Z-2.128 I0 J0.4
X-81.089 Y-61.65 Z-2.169 I0 J-0.4
X-81.089 Y-60.85 Z-2.209 I0 J0.4
X-81.089 Y-61.65 Z-2.249 I0 J-0.4
X-81.089 Y-60.85 Z-2.289 I0 J0.4
X-81.391 Y-60.988 Z-2.3 I0 J-0.4
X-80.787 Y-61.512 I0.302 J-0.262
X-81.391 Y-60.988 I-0.302 J0.262
G1 X-81.416 Y-61.028
X-81.427 Y-61.073
X-81.424 Y-61.12
X-81.406 Y-61.164
X-81.376 Y-61.199
X-81.32 Y-61.249
X-81.285 Y-61.279 Z-2.293
X-81.253 Y-61.306 Z-2.271
X-81.228 Y-61.328 Z-2.238
X-81.212 Y-61.342 Z-2.196
X-81.206 Y-61.347 Z-2.15
Z15

M5
M30
