(Body_375)
(Bearbeiten)
(  Hersteller: ChinaCnc)
(  model: 3040T)
(  description: Generic 3-axis)
(T5 D=3.175 CR=0 - ZMIN=-2.3 - Schaftfrser)
G90 G94
G17
G21
(-Attention- Property Safe Retracts is set to Clearance Height.)
(Ensure the clearance height will clear the part and or fixtures.)
(Raise the Z-axis to a safe height before starting the program.)
(When using Fusion for Personal Use, the feedrate of rapid)
(moves is reduced to match the feedrate of cutting moves,)
(which can increase machining time. Unrestricted rapid moves)
(are available with a Fusion Subscription.)

(Bohrfrsen6 2)
M0
(MANUAL TOOL CHANGE TO T5)
S6000 M3
G17 G90 G94
G54
G0 X-235.919 Y-21.979
Z15
G1 Z1.683 F1000
Z0
Y-21.82
X-235.925 Y-21.789
X-235.943 Y-21.763
X-235.969 Y-21.745
X-236 Y-21.739
G3 X-236 Y-22.064 Z-0.061 I0 J-0.163
X-236 Y-21.739 Z-0.122 I0 J0.163
X-236 Y-22.064 Z-0.183 I0 J-0.163
X-236 Y-21.739 Z-0.244 I0 J0.163
X-236 Y-22.064 Z-0.306 I0 J-0.163
X-236 Y-21.739 Z-0.367 I0 J0.162
X-236 Y-22.064 Z-0.428 I0 J-0.162
X-236 Y-21.739 Z-0.489 I0 J0.162
X-236 Y-22.064 Z-0.55 I0 J-0.162
X-236 Y-21.739 Z-0.611 I0 J0.162
X-236 Y-22.064 Z-0.672 I0 J-0.162
X-236 Y-21.739 Z-0.733 I0 J0.162
X-236 Y-22.064 Z-0.794 I0 J-0.162
X-236 Y-21.739 Z-0.856 I0 J0.162
X-236 Y-22.064 Z-0.917 I0 J-0.162
X-236 Y-21.739 Z-0.978 I0 J0.162
X-236 Y-22.064 Z-1.039 I0 J-0.162
X-236 Y-21.739 Z-1.1 I0 J0.162
X-236 Y-22.064 Z-1.161 I0 J-0.162
X-236 Y-21.739 Z-1.222 I0 J0.162
X-236 Y-22.064 Z-1.283 I0 J-0.162
X-236 Y-21.739 Z-1.344 I0 J0.162
X-236 Y-22.064 Z-1.406 I0 J-0.162
X-236 Y-21.739 Z-1.467 I0 J0.162
X-236 Y-22.064 Z-1.528 I0 J-0.162
X-236 Y-21.739 Z-1.589 I0 J0.162
X-236 Y-22.064 Z-1.65 I0 J-0.162
X-236 Y-21.739 Z-1.711 I0 J0.162
X-236 Y-22.064 Z-1.772 I0 J-0.162
X-236 Y-21.739 Z-1.833 I0 J0.162
X-236 Y-22.064 Z-1.894 I0 J-0.162
X-236 Y-21.739 Z-1.956 I0 J0.162
X-236 Y-22.064 Z-2.017 I0 J-0.162
X-236 Y-21.739 Z-2.078 I0 J0.162
X-236 Y-22.064 Z-2.139 I0 J-0.162
X-236 Y-21.739 Z-2.2 I0 J0.162
X-236 Y-22.064 Z-2.261 I0 J-0.162
X-235.852 Y-21.834 Z-2.3 I0 J0.162
X-236.148 Y-21.969 I-0.148 J-0.067
X-235.852 Y-21.834 I0.148 J0.067
G1 X-235.871 Y-21.808
X-235.898 Y-21.792
X-235.929 Y-21.786
X-235.96 Y-21.794
X-236.104 Y-21.86
Z5
X-195.919 Y-21.979
Z1.683
Z0
Y-21.82
X-195.925 Y-21.789
X-195.943 Y-21.763
X-195.969 Y-21.745
X-196 Y-21.739
G3 X-196 Y-22.064 Z-0.061 I0 J-0.163
X-196 Y-21.739 Z-0.122 I0 J0.163
X-196 Y-22.064 Z-0.183 I0 J-0.163
X-196 Y-21.739 Z-0.244 I0 J0.163
X-196 Y-22.064 Z-0.306 I0 J-0.163
X-196 Y-21.739 Z-0.367 I0 J0.162
X-196 Y-22.064 Z-0.428 I0 J-0.162
X-196 Y-21.739 Z-0.489 I0 J0.162
X-196 Y-22.064 Z-0.55 I0 J-0.162
X-196 Y-21.739 Z-0.611 I0 J0.162
X-196 Y-22.064 Z-0.672 I0 J-0.162
X-196 Y-21.739 Z-0.733 I0 J0.162
X-196 Y-22.064 Z-0.794 I0 J-0.162
X-196 Y-21.739 Z-0.856 I0 J0.162
X-196 Y-22.064 Z-0.917 I0 J-0.162
X-196 Y-21.739 Z-0.978 I0 J0.162
X-196 Y-22.064 Z-1.039 I0 J-0.162
X-196 Y-21.739 Z-1.1 I0 J0.162
X-196 Y-22.064 Z-1.161 I0 J-0.162
X-196 Y-21.739 Z-1.222 I0 J0.162
X-196 Y-22.064 Z-1.283 I0 J-0.162
X-196 Y-21.739 Z-1.344 I0 J0.162
X-196 Y-22.064 Z-1.406 I0 J-0.162
X-196 Y-21.739 Z-1.467 I0 J0.162
X-196 Y-22.064 Z-1.528 I0 J-0.162
X-196 Y-21.739 Z-1.589 I0 J0.162
X-196 Y-22.064 Z-1.65 I0 J-0.162
X-196 Y-21.739 Z-1.711 I0 J0.162
X-196 Y-22.064 Z-1.772 I0 J-0.162
X-196 Y-21.739 Z-1.833 I0 J0.162
X-196 Y-22.064 Z-1.894 I0 J-0.162
X-196 Y-21.739 Z-1.956 I0 J0.162
X-196 Y-22.064 Z-2.017 I0 J-0.162
X-196 Y-21.739 Z-2.078 I0 J0.162
X-196 Y-22.064 Z-2.139 I0 J-0.162
X-196 Y-21.739 Z-2.2 I0 J0.162
X-196 Y-22.064 Z-2.261 I0 J-0.162
X-195.852 Y-21.834 Z-2.3 I0 J0.162
X-196.148 Y-21.969 I-0.148 J-0.067
X-195.852 Y-21.834 I0.148 J0.067
G1 X-195.871 Y-21.808
X-195.898 Y-21.792
X-195.929 Y-21.786
X-195.96 Y-21.794
X-196.104 Y-21.86
Z5
X-176.295 Y-12.078
Z1.683
Z0
Y-11.919
X-176.301 Y-11.888
X-176.319 Y-11.861
X-176.345 Y-11.844
X-176.376 Y-11.837
G3 X-176.376 Y-12.163 Z-0.061 I0 J-0.163
X-176.376 Y-11.837 Z-0.122 I0 J0.163
X-176.376 Y-12.163 Z-0.183 I0 J-0.163
X-176.376 Y-11.838 Z-0.244 I0 J0.163
X-176.376 Y-12.162 Z-0.306 I0 J-0.162
X-176.376 Y-11.838 Z-0.367 I0 J0.162
X-176.376 Y-12.162 Z-0.428 I0 J-0.162
X-176.376 Y-11.838 Z-0.489 I0 J0.162
X-176.376 Y-12.162 Z-0.55 I0 J-0.162
X-176.376 Y-11.838 Z-0.611 I0 J0.162
X-176.376 Y-12.162 Z-0.672 I0 J-0.162
X-176.376 Y-11.838 Z-0.733 I0 J0.162
X-176.376 Y-12.162 Z-0.794 I0 J-0.162
X-176.376 Y-11.838 Z-0.856 I0 J0.162
X-176.376 Y-12.162 Z-0.917 I0 J-0.162
X-176.376 Y-11.838 Z-0.978 I0 J0.162
X-176.376 Y-12.162 Z-1.039 I0 J-0.162
X-176.376 Y-11.838 Z-1.1 I0 J0.162
X-176.376 Y-12.162 Z-1.161 I0 J-0.162
X-176.376 Y-11.838 Z-1.222 I0 J0.162
X-176.376 Y-12.162 Z-1.283 I0 J-0.162
X-176.376 Y-11.838 Z-1.344 I0 J0.162
X-176.376 Y-12.162 Z-1.406 I0 J-0.162
X-176.376 Y-11.838 Z-1.467 I0 J0.162
X-176.376 Y-12.162 Z-1.528 I0 J-0.162
X-176.376 Y-11.838 Z-1.589 I0 J0.162
X-176.376 Y-12.162 Z-1.65 I0 J-0.162
X-176.376 Y-11.838 Z-1.711 I0 J0.162
X-176.376 Y-12.162 Z-1.772 I0 J-0.162
X-176.376 Y-11.838 Z-1.833 I0 J0.162
X-176.376 Y-12.162 Z-1.894 I0 J-0.162
X-176.376 Y-11.838 Z-1.956 I0 J0.162
X-176.376 Y-12.162 Z-2.017 I0 J-0.162
X-176.376 Y-11.838 Z-2.078 I0 J0.162
X-176.376 Y-12.162 Z-2.139 I0 J-0.162
X-176.376 Y-11.838 Z-2.2 I0 J0.162
X-176.376 Y-12.162 Z-2.261 I0 J-0.162
X-176.229 Y-11.933 Z-2.3 I0 J0.162
X-176.524 Y-12.067 I-0.148 J-0.067
X-176.229 Y-11.933 I0.148 J0.067
G1 X-176.247 Y-11.907
X-176.274 Y-11.89
X-176.305 Y-11.885
X-176.336 Y-11.892
X-176.481 Y-11.958
Z5
X-160.469 Y-36.827
Z1.683
Z0
Y-36.669
X-160.475 Y-36.638
X-160.493 Y-36.611
X-160.519 Y-36.594
X-160.55 Y-36.588
G3 X-160.55 Y-36.912 Z-0.061 I0 J-0.162
X-160.55 Y-36.588 Z-0.122 I0 J0.162
X-160.55 Y-36.912 Z-0.183 I0 J-0.162
X-160.55 Y-36.588 Z-0.244 I0 J0.162
X-160.55 Y-36.912 Z-0.306 I0 J-0.162
X-160.55 Y-36.588 Z-0.367 I0 J0.162
X-160.55 Y-36.912 Z-0.428 I0 J-0.162
X-160.55 Y-36.588 Z-0.489 I0 J0.162
X-160.55 Y-36.912 Z-0.55 I0 J-0.162
X-160.55 Y-36.588 Z-0.611 I0 J0.162
X-160.55 Y-36.912 Z-0.672 I0 J-0.162
X-160.55 Y-36.588 Z-0.733 I0 J0.162
X-160.55 Y-36.912 Z-0.794 I0 J-0.162
X-160.55 Y-36.588 Z-0.856 I0 J0.162
X-160.55 Y-36.912 Z-0.917 I0 J-0.162
X-160.55 Y-36.588 Z-0.978 I0 J0.162
X-160.55 Y-36.912 Z-1.039 I0 J-0.162
X-160.55 Y-36.588 Z-1.1 I0 J0.162
X-160.55 Y-36.912 Z-1.161 I0 J-0.162
X-160.55 Y-36.588 Z-1.222 I0 J0.162
X-160.55 Y-36.912 Z-1.283 I0 J-0.162
X-160.55 Y-36.588 Z-1.344 I0 J0.162
X-160.55 Y-36.912 Z-1.406 I0 J-0.162
X-160.55 Y-36.588 Z-1.467 I0 J0.162
X-160.55 Y-36.912 Z-1.528 I0 J-0.162
X-160.55 Y-36.588 Z-1.589 I0 J0.162
X-160.55 Y-36.912 Z-1.65 I0 J-0.162
X-160.55 Y-36.588 Z-1.711 I0 J0.162
X-160.55 Y-36.912 Z-1.772 I0 J-0.162
X-160.55 Y-36.588 Z-1.833 I0 J0.162
X-160.55 Y-36.912 Z-1.894 I0 J-0.162
X-160.55 Y-36.588 Z-1.956 I0 J0.162
X-160.55 Y-36.912 Z-2.017 I0 J-0.162
X-160.55 Y-36.588 Z-2.078 I0 J0.162
X-160.55 Y-36.912 Z-2.139 I0 J-0.162
X-160.55 Y-36.588 Z-2.2 I0 J0.162
X-160.55 Y-36.912 Z-2.261 I0 J-0.162
X-160.402 Y-36.683 Z-2.3 I0 J0.162
X-160.698 Y-36.817 I-0.148 J-0.067
X-160.402 Y-36.683 I0.148 J0.067
G1 X-160.421 Y-36.657
X-160.448 Y-36.64
X-160.479 Y-36.635
X-160.51 Y-36.642
X-160.654 Y-36.708
Z5
X-145.219 Y-24.077
Z1.683
Z0
Y-23.919
X-145.225 Y-23.888
X-145.243 Y-23.861
X-145.269 Y-23.844
X-145.3 Y-23.837
G3 X-145.3 Y-24.163 Z-0.061 I0 J-0.163
X-145.3 Y-23.837 Z-0.122 I0 J0.163
X-145.3 Y-24.163 Z-0.183 I0 J-0.163
X-145.3 Y-23.837 Z-0.244 I0 J0.163
X-145.3 Y-24.162 Z-0.306 I0 J-0.163
X-145.3 Y-23.838 Z-0.367 I0 J0.162
X-145.3 Y-24.162 Z-0.428 I0 J-0.162
X-145.3 Y-23.838 Z-0.489 I0 J0.162
X-145.3 Y-24.162 Z-0.55 I0 J-0.162
X-145.3 Y-23.838 Z-0.611 I0 J0.162
X-145.3 Y-24.162 Z-0.672 I0 J-0.162
X-145.3 Y-23.838 Z-0.733 I0 J0.162
X-145.3 Y-24.162 Z-0.794 I0 J-0.162
X-145.3 Y-23.838 Z-0.856 I0 J0.162
X-145.3 Y-24.162 Z-0.917 I0 J-0.162
X-145.3 Y-23.838 Z-0.978 I0 J0.162
X-145.3 Y-24.162 Z-1.039 I0 J-0.162
X-145.3 Y-23.838 Z-1.1 I0 J0.162
X-145.3 Y-24.162 Z-1.161 I0 J-0.162
X-145.3 Y-23.838 Z-1.222 I0 J0.162
X-145.3 Y-24.162 Z-1.283 I0 J-0.162
X-145.3 Y-23.838 Z-1.344 I0 J0.162
X-145.3 Y-24.162 Z-1.406 I0 J-0.162
X-145.3 Y-23.838 Z-1.467 I0 J0.162
X-145.3 Y-24.162 Z-1.528 I0 J-0.162
X-145.3 Y-23.838 Z-1.589 I0 J0.162
X-145.3 Y-24.162 Z-1.65 I0 J-0.162
X-145.3 Y-23.838 Z-1.711 I0 J0.162
X-145.3 Y-24.162 Z-1.772 I0 J-0.162
X-145.3 Y-23.838 Z-1.833 I0 J0.162
X-145.3 Y-24.162 Z-1.894 I0 J-0.162
X-145.3 Y-23.838 Z-1.956 I0 J0.162
X-145.3 Y-24.162 Z-2.017 I0 J-0.162
X-145.3 Y-23.838 Z-2.078 I0 J0.162
X-145.3 Y-24.162 Z-2.139 I0 J-0.162
X-145.3 Y-23.838 Z-2.2 I0 J0.162
X-145.3 Y-24.162 Z-2.261 I0 J-0.162
X-145.152 Y-23.933 Z-2.3 I0 J0.162
X-145.448 Y-24.067 I-0.148 J-0.067
X-145.152 Y-23.933 I0.148 J0.067
G1 X-145.171 Y-23.907
X-145.198 Y-23.89
X-145.229 Y-23.885
X-145.26 Y-23.892
X-145.404 Y-23.958
Z5
X-129.969 Y-36.827
Z1.683
Z0
Y-36.669
X-129.975 Y-36.638
X-129.993 Y-36.611
X-130.019 Y-36.594
X-130.05 Y-36.588
G3 X-130.05 Y-36.912 Z-0.061 I0 J-0.162
X-130.05 Y-36.588 Z-0.122 I0 J0.162
X-130.05 Y-36.912 Z-0.183 I0 J-0.162
X-130.05 Y-36.588 Z-0.244 I0 J0.162
X-130.05 Y-36.912 Z-0.306 I0 J-0.162
X-130.05 Y-36.588 Z-0.367 I0 J0.162
X-130.05 Y-36.912 Z-0.428 I0 J-0.162
X-130.05 Y-36.588 Z-0.489 I0 J0.162
X-130.05 Y-36.912 Z-0.55 I0 J-0.162
X-130.05 Y-36.588 Z-0.611 I0 J0.162
X-130.05 Y-36.912 Z-0.672 I0 J-0.162
X-130.05 Y-36.588 Z-0.733 I0 J0.162
X-130.05 Y-36.912 Z-0.794 I0 J-0.162
X-130.05 Y-36.588 Z-0.856 I0 J0.162
X-130.05 Y-36.912 Z-0.917 I0 J-0.162
X-130.05 Y-36.588 Z-0.978 I0 J0.162
X-130.05 Y-36.912 Z-1.039 I0 J-0.162
X-130.05 Y-36.588 Z-1.1 I0 J0.162
X-130.05 Y-36.912 Z-1.161 I0 J-0.162
X-130.05 Y-36.588 Z-1.222 I0 J0.162
X-130.05 Y-36.912 Z-1.283 I0 J-0.162
X-130.05 Y-36.588 Z-1.344 I0 J0.162
X-130.05 Y-36.912 Z-1.406 I0 J-0.162
X-130.05 Y-36.588 Z-1.467 I0 J0.162
X-130.05 Y-36.912 Z-1.528 I0 J-0.162
X-130.05 Y-36.588 Z-1.589 I0 J0.162
X-130.05 Y-36.912 Z-1.65 I0 J-0.162
X-130.05 Y-36.588 Z-1.711 I0 J0.162
X-130.05 Y-36.912 Z-1.772 I0 J-0.162
X-130.05 Y-36.588 Z-1.833 I0 J0.162
X-130.05 Y-36.912 Z-1.894 I0 J-0.162
X-130.05 Y-36.588 Z-1.956 I0 J0.162
X-130.05 Y-36.912 Z-2.017 I0 J-0.162
X-130.05 Y-36.588 Z-2.078 I0 J0.162
X-130.05 Y-36.912 Z-2.139 I0 J-0.162
X-130.05 Y-36.588 Z-2.2 I0 J0.162
X-130.05 Y-36.912 Z-2.261 I0 J-0.162
X-129.902 Y-36.683 Z-2.3 I0 J0.162
X-130.198 Y-36.817 I-0.148 J-0.067
X-129.902 Y-36.683 I0.148 J0.067
G1 X-129.921 Y-36.657
X-129.948 Y-36.64
X-129.979 Y-36.635
X-130.01 Y-36.642
X-130.154 Y-36.708
Z5
X-114.142 Y-12.078
Z1.683
Z0
Y-11.919
X-114.149 Y-11.888
X-114.166 Y-11.861
X-114.193 Y-11.844
X-114.224 Y-11.837
G3 X-114.224 Y-12.163 Z-0.061 I0 J-0.163
X-114.224 Y-11.837 Z-0.122 I0 J0.163
X-114.224 Y-12.163 Z-0.183 I0 J-0.163
X-114.224 Y-11.837 Z-0.244 I0 J0.163
X-114.224 Y-12.163 Z-0.306 I0 J-0.163
X-114.224 Y-11.837 Z-0.367 I0 J0.163
X-114.224 Y-12.163 Z-0.428 I0 J-0.163
X-114.224 Y-11.837 Z-0.489 I0 J0.163
X-114.224 Y-12.163 Z-0.55 I0 J-0.163
X-114.224 Y-11.837 Z-0.611 I0 J0.163
X-114.224 Y-12.163 Z-0.672 I0 J-0.163
X-114.224 Y-11.837 Z-0.733 I0 J0.163
X-114.224 Y-12.163 Z-0.794 I0 J-0.163
X-114.224 Y-11.837 Z-0.856 I0 J0.163
X-114.224 Y-12.163 Z-0.917 I0 J-0.163
X-114.224 Y-11.837 Z-0.978 I0 J0.163
X-114.224 Y-12.163 Z-1.039 I0 J-0.163
X-114.224 Y-11.837 Z-1.1 I0 J0.163
X-114.224 Y-12.163 Z-1.161 I0 J-0.163
X-114.224 Y-11.837 Z-1.222 I0 J0.163
X-114.224 Y-12.163 Z-1.283 I0 J-0.163
X-114.224 Y-11.837 Z-1.344 I0 J0.163
X-114.224 Y-12.163 Z-1.406 I0 J-0.163
X-114.224 Y-11.837 Z-1.467 I0 J0.163
X-114.224 Y-12.163 Z-1.528 I0 J-0.163
X-114.224 Y-11.837 Z-1.589 I0 J0.163
X-114.224 Y-12.163 Z-1.65 I0 J-0.163
X-114.224 Y-11.837 Z-1.711 I0 J0.163
X-114.224 Y-12.163 Z-1.772 I0 J-0.163
X-114.224 Y-11.837 Z-1.833 I0 J0.163
X-114.224 Y-12.163 Z-1.894 I0 J-0.163
X-114.224 Y-11.837 Z-1.956 I0 J0.163
X-114.224 Y-12.163 Z-2.017 I0 J-0.163
X-114.224 Y-11.837 Z-2.078 I0 J0.163
X-114.224 Y-12.163 Z-2.139 I0 J-0.163
X-114.224 Y-11.837 Z-2.2 I0 J0.163
X-114.224 Y-12.163 Z-2.261 I0 J-0.163
X-114.076 Y-11.933 Z-2.3 I0 J0.163
X-114.371 Y-12.067 I-0.148 J-0.067
X-114.076 Y-11.933 I0.148 J0.067
G1 X-114.094 Y-11.907
X-114.121 Y-11.89
X-114.153 Y-11.885
X-114.183 Y-11.892
X-114.328 Y-11.958
Z5
X-76.919 Y-28.077
Z1.683
Z0
Y-27.919
X-76.925 Y-27.888
X-76.943 Y-27.861
X-76.969 Y-27.844
X-77 Y-27.837
G3 X-77 Y-28.163 Z-0.061 I0 J-0.163
X-77 Y-27.837 Z-0.122 I0 J0.163
X-77 Y-28.163 Z-0.183 I0 J-0.163
X-77 Y-27.837 Z-0.244 I0 J0.163
X-77 Y-28.162 Z-0.306 I0 J-0.163
X-77 Y-27.838 Z-0.367 I0 J0.162
X-77 Y-28.162 Z-0.428 I0 J-0.162
X-77 Y-27.838 Z-0.489 I0 J0.162
X-77 Y-28.162 Z-0.55 I0 J-0.162
X-77 Y-27.838 Z-0.611 I0 J0.162
X-77 Y-28.162 Z-0.672 I0 J-0.162
X-77 Y-27.838 Z-0.733 I0 J0.162
X-77 Y-28.162 Z-0.794 I0 J-0.162
X-77 Y-27.838 Z-0.856 I0 J0.162
X-77 Y-28.162 Z-0.917 I0 J-0.162
X-77 Y-27.838 Z-0.978 I0 J0.162
X-77 Y-28.162 Z-1.039 I0 J-0.162
X-77 Y-27.838 Z-1.1 I0 J0.162
X-77 Y-28.162 Z-1.161 I0 J-0.162
X-77 Y-27.838 Z-1.222 I0 J0.162
X-77 Y-28.162 Z-1.283 I0 J-0.162
X-77 Y-27.838 Z-1.344 I0 J0.162
X-77 Y-28.162 Z-1.406 I0 J-0.162
X-77 Y-27.838 Z-1.467 I0 J0.162
X-77 Y-28.162 Z-1.528 I0 J-0.162
X-77 Y-27.838 Z-1.589 I0 J0.162
X-77 Y-28.162 Z-1.65 I0 J-0.162
X-77 Y-27.838 Z-1.711 I0 J0.162
X-77 Y-28.162 Z-1.772 I0 J-0.162
X-77 Y-27.838 Z-1.833 I0 J0.162
X-77 Y-28.162 Z-1.894 I0 J-0.162
X-77 Y-27.838 Z-1.956 I0 J0.162
X-77 Y-28.162 Z-2.017 I0 J-0.162
X-77 Y-27.838 Z-2.078 I0 J0.162
X-77 Y-28.162 Z-2.139 I0 J-0.162
X-77 Y-27.838 Z-2.2 I0 J0.162
X-77 Y-28.162 Z-2.261 I0 J-0.162
X-76.852 Y-27.933 Z-2.3 I0 J0.162
X-77.148 Y-28.067 I-0.148 J-0.067
X-76.852 Y-27.933 I0.148 J0.067
G1 X-76.871 Y-27.907
X-76.898 Y-27.89
X-76.929 Y-27.885
X-76.96 Y-27.892
X-77.104 Y-27.958
Z5
X-76.919 Y-76.077
Z1.683
Z0
Y-75.919
X-76.925 Y-75.888
X-76.943 Y-75.861
X-76.969 Y-75.844
X-77 Y-75.838
G3 X-77 Y-76.162 Z-0.061 I0 J-0.162
X-77 Y-75.838 Z-0.122 I0 J0.162
X-77 Y-76.162 Z-0.183 I0 J-0.162
X-77 Y-75.838 Z-0.244 I0 J0.162
X-77 Y-76.162 Z-0.306 I0 J-0.162
X-77 Y-75.838 Z-0.367 I0 J0.162
X-77 Y-76.162 Z-0.428 I0 J-0.162
X-77 Y-75.838 Z-0.489 I0 J0.162
X-77 Y-76.162 Z-0.55 I0 J-0.162
X-77 Y-75.838 Z-0.611 I0 J0.162
X-77 Y-76.162 Z-0.672 I0 J-0.162
X-77 Y-75.838 Z-0.733 I0 J0.162
X-77 Y-76.162 Z-0.794 I0 J-0.162
X-77 Y-75.838 Z-0.856 I0 J0.162
X-77 Y-76.162 Z-0.917 I0 J-0.162
X-77 Y-75.838 Z-0.978 I0 J0.162
X-77 Y-76.162 Z-1.039 I0 J-0.162
X-77 Y-75.838 Z-1.1 I0 J0.162
X-77 Y-76.162 Z-1.161 I0 J-0.162
X-77 Y-75.838 Z-1.222 I0 J0.162
X-77 Y-76.162 Z-1.283 I0 J-0.162
X-77 Y-75.838 Z-1.344 I0 J0.162
X-77 Y-76.162 Z-1.406 I0 J-0.162
X-77 Y-75.838 Z-1.467 I0 J0.162
X-77 Y-76.162 Z-1.528 I0 J-0.162
X-77 Y-75.838 Z-1.589 I0 J0.162
X-77 Y-76.162 Z-1.65 I0 J-0.162
X-77 Y-75.838 Z-1.711 I0 J0.162
X-77 Y-76.162 Z-1.772 I0 J-0.162
X-77 Y-75.838 Z-1.833 I0 J0.162
X-77 Y-76.162 Z-1.894 I0 J-0.162
X-77 Y-75.838 Z-1.956 I0 J0.162
X-77 Y-76.162 Z-2.017 I0 J-0.162
X-77 Y-75.838 Z-2.078 I0 J0.162
X-77 Y-76.162 Z-2.139 I0 J-0.162
X-77 Y-75.838 Z-2.2 I0 J0.162
X-77 Y-76.162 Z-2.261 I0 J-0.162
X-76.852 Y-75.933 Z-2.3 I0 J0.162
X-77.148 Y-76.067 I-0.148 J-0.067
X-76.852 Y-75.933 I0.148 J0.067
G1 X-76.871 Y-75.907
X-76.898 Y-75.89
X-76.929 Y-75.885
X-76.96 Y-75.892
X-77.104 Y-75.958
Z5
X-66.708 Y-107.827
Z1.683
Z0
Y-107.668
X-66.715 Y-107.637
X-66.732 Y-107.611
X-66.758 Y-107.593
X-66.79 Y-107.587
G3 X-66.79 Y-107.912 Z-0.061 I0 J-0.163
X-66.79 Y-107.587 Z-0.122 I0 J0.163
X-66.79 Y-107.912 Z-0.183 I0 J-0.163
X-66.79 Y-107.587 Z-0.244 I0 J0.163
X-66.79 Y-107.912 Z-0.306 I0 J-0.163
X-66.79 Y-107.587 Z-0.367 I0 J0.163
X-66.79 Y-107.912 Z-0.428 I0 J-0.163
X-66.79 Y-107.587 Z-0.489 I0 J0.163
X-66.79 Y-107.912 Z-0.55 I0 J-0.163
X-66.79 Y-107.587 Z-0.611 I0 J0.163
X-66.79 Y-107.912 Z-0.672 I0 J-0.163
X-66.79 Y-107.587 Z-0.733 I0 J0.163
X-66.79 Y-107.912 Z-0.794 I0 J-0.163
X-66.79 Y-107.587 Z-0.856 I0 J0.163
X-66.79 Y-107.912 Z-0.917 I0 J-0.163
X-66.79 Y-107.587 Z-0.978 I0 J0.163
X-66.79 Y-107.912 Z-1.039 I0 J-0.163
X-66.79 Y-107.587 Z-1.1 I0 J0.163
X-66.79 Y-107.912 Z-1.161 I0 J-0.163
X-66.79 Y-107.587 Z-1.222 I0 J0.163
X-66.79 Y-107.912 Z-1.283 I0 J-0.163
X-66.79 Y-107.587 Z-1.344 I0 J0.163
X-66.79 Y-107.912 Z-1.406 I0 J-0.163
X-66.79 Y-107.587 Z-1.467 I0 J0.163
X-66.79 Y-107.912 Z-1.528 I0 J-0.163
X-66.79 Y-107.587 Z-1.589 I0 J0.163
X-66.79 Y-107.912 Z-1.65 I0 J-0.163
X-66.79 Y-107.587 Z-1.711 I0 J0.163
X-66.79 Y-107.912 Z-1.772 I0 J-0.163
X-66.79 Y-107.587 Z-1.833 I0 J0.163
X-66.79 Y-107.912 Z-1.894 I0 J-0.163
X-66.79 Y-107.587 Z-1.956 I0 J0.163
X-66.79 Y-107.912 Z-2.017 I0 J-0.163
X-66.79 Y-107.587 Z-2.078 I0 J0.163
X-66.79 Y-107.912 Z-2.139 I0 J-0.163
X-66.79 Y-107.587 Z-2.2 I0 J0.163
X-66.79 Y-107.912 Z-2.261 I0 J-0.163
X-66.642 Y-107.682 Z-2.3 I0 J0.163
X-66.937 Y-107.817 I-0.148 J-0.067
X-66.642 Y-107.682 I0.148 J0.067
G1 X-66.66 Y-107.656
X-66.687 Y-107.639
X-66.719 Y-107.634
X-66.749 Y-107.642
X-66.894 Y-107.708
Z5
X-76.571 Y-108.672
Z1.683
Z0
Y-108.831
X-76.565 Y-108.862
X-76.547 Y-108.888
X-76.521 Y-108.906
X-76.49 Y-108.912
G3 X-76.49 Y-108.587 Z-0.061 I0 J0.162
X-76.49 Y-108.912 Z-0.122 I0 J-0.162
X-76.49 Y-108.587 Z-0.183 I0 J0.162
X-76.49 Y-108.912 Z-0.244 I0 J-0.162
X-76.49 Y-108.587 Z-0.306 I0 J0.162
X-76.49 Y-108.912 Z-0.367 I0 J-0.162
X-76.49 Y-108.587 Z-0.428 I0 J0.162
X-76.49 Y-108.912 Z-0.489 I0 J-0.162
X-76.49 Y-108.587 Z-0.55 I0 J0.162
X-76.49 Y-108.912 Z-0.611 I0 J-0.162
X-76.49 Y-108.587 Z-0.672 I0 J0.162
X-76.49 Y-108.912 Z-0.733 I0 J-0.162
X-76.49 Y-108.587 Z-0.794 I0 J0.162
X-76.49 Y-108.912 Z-0.856 I0 J-0.163
X-76.49 Y-108.587 Z-0.917 I0 J0.163
X-76.49 Y-108.912 Z-0.978 I0 J-0.163
X-76.49 Y-108.587 Z-1.039 I0 J0.163
X-76.49 Y-108.912 Z-1.1 I0 J-0.163
X-76.49 Y-108.587 Z-1.161 I0 J0.163
X-76.49 Y-108.912 Z-1.222 I0 J-0.163
X-76.49 Y-108.587 Z-1.283 I0 J0.163
X-76.49 Y-108.912 Z-1.344 I0 J-0.163
X-76.49 Y-108.587 Z-1.406 I0 J0.163
X-76.49 Y-108.912 Z-1.467 I0 J-0.163
X-76.49 Y-108.587 Z-1.528 I0 J0.163
X-76.49 Y-108.912 Z-1.589 I0 J-0.163
X-76.49 Y-108.587 Z-1.65 I0 J0.163
X-76.49 Y-108.912 Z-1.711 I0 J-0.163
X-76.49 Y-108.587 Z-1.772 I0 J0.163
X-76.49 Y-108.912 Z-1.833 I0 J-0.163
X-76.49 Y-108.587 Z-1.894 I0 J0.163
X-76.49 Y-108.912 Z-1.956 I0 J-0.163
X-76.49 Y-108.587 Z-2.017 I0 J0.163
X-76.49 Y-108.912 Z-2.078 I0 J-0.163
X-76.49 Y-108.587 Z-2.139 I0 J0.163
X-76.49 Y-108.912 Z-2.2 I0 J-0.163
X-76.49 Y-108.587 Z-2.261 I0 J0.163
X-76.637 Y-108.817 Z-2.3 I0 J-0.163
X-76.342 Y-108.682 I0.148 J0.067
X-76.637 Y-108.817 I-0.148 J-0.067
G1 X-76.619 Y-108.842
X-76.592 Y-108.859
X-76.561 Y-108.864
X-76.53 Y-108.857
X-76.385 Y-108.791
Z5
X-82.807 Y-109.868
Z2
Z0.317
G19 G2 Y-110.186 Z0 J-0.318 K0
G1 Y-110.344
G17 G3 X-82.49 Y-110.662 I0.318 J0
X-82.49 Y-106.837 Z-0.122 I0 J1.912
X-82.49 Y-110.662 Z-0.244 I0 J-1.912
X-82.49 Y-106.837 Z-0.367 I0 J1.912
X-82.49 Y-110.662 Z-0.489 I0 J-1.912
X-82.49 Y-106.837 Z-0.611 I0 J1.912
X-82.49 Y-110.662 Z-0.733 I0 J-1.912
X-82.49 Y-106.837 Z-0.856 I0 J1.912
X-82.49 Y-110.662 Z-0.978 I0 J-1.912
X-82.49 Y-106.837 Z-1.1 I0 J1.912
X-82.49 Y-110.662 Z-1.222 I0 J-1.913
X-82.49 Y-106.837 Z-1.344 I0 J1.913
X-82.49 Y-110.662 Z-1.467 I0 J-1.913
X-82.49 Y-106.837 Z-1.589 I0 J1.913
X-82.49 Y-110.662 Z-1.711 I0 J-1.913
X-82.49 Y-106.837 Z-1.833 I0 J1.913
X-82.49 Y-110.662 Z-1.956 I0 J-1.913
X-82.49 Y-106.837 Z-2.078 I0 J1.913
X-82.49 Y-110.662 Z-2.2 I0 J-1.913
X-81.455 Y-107.141 Z-2.3 I0 J1.913
X-83.524 Y-110.358 I-1.034 J-1.609
X-81.455 Y-107.141 I1.034 J1.609
X-81.894 Y-107.236 I-0.172 J-0.267
G1 X-81.98 Y-107.37
X-82.018 Y-107.429 Z-2.292
X-82.054 Y-107.485 Z-2.269
X-82.087 Y-107.536 Z-2.231
X-82.114 Y-107.578 Z-2.18
X-82.135 Y-107.61 Z-2.12
X-82.147 Y-107.63 Z-2.053
X-82.152 Y-107.637 Z-1.982
Z5
X-88.571 Y-108.672
Z1.683
Z0
Y-108.831
X-88.565 Y-108.862
X-88.547 Y-108.888
X-88.521 Y-108.906
X-88.49 Y-108.912
G3 X-88.49 Y-108.587 Z-0.061 I0 J0.162
X-88.49 Y-108.912 Z-0.122 I0 J-0.162
X-88.49 Y-108.587 Z-0.183 I0 J0.162
X-88.49 Y-108.912 Z-0.244 I0 J-0.162
X-88.49 Y-108.587 Z-0.306 I0 J0.162
X-88.49 Y-108.912 Z-0.367 I0 J-0.162
X-88.49 Y-108.587 Z-0.428 I0 J0.162
X-88.49 Y-108.912 Z-0.489 I0 J-0.162
X-88.49 Y-108.587 Z-0.55 I0 J0.162
X-88.49 Y-108.912 Z-0.611 I0 J-0.162
X-88.49 Y-108.587 Z-0.672 I0 J0.162
X-88.49 Y-108.912 Z-0.733 I0 J-0.162
X-88.49 Y-108.587 Z-0.794 I0 J0.162
X-88.49 Y-108.912 Z-0.856 I0 J-0.163
X-88.49 Y-108.587 Z-0.917 I0 J0.163
X-88.49 Y-108.912 Z-0.978 I0 J-0.163
X-88.49 Y-108.587 Z-1.039 I0 J0.163
X-88.49 Y-108.912 Z-1.1 I0 J-0.163
X-88.49 Y-108.587 Z-1.161 I0 J0.163
X-88.49 Y-108.912 Z-1.222 I0 J-0.163
X-88.49 Y-108.587 Z-1.283 I0 J0.163
X-88.49 Y-108.912 Z-1.344 I0 J-0.163
X-88.49 Y-108.587 Z-1.406 I0 J0.163
X-88.49 Y-108.912 Z-1.467 I0 J-0.163
X-88.49 Y-108.587 Z-1.528 I0 J0.163
X-88.49 Y-108.912 Z-1.589 I0 J-0.163
X-88.49 Y-108.587 Z-1.65 I0 J0.163
X-88.49 Y-108.912 Z-1.711 I0 J-0.163
X-88.49 Y-108.587 Z-1.772 I0 J0.163
X-88.49 Y-108.912 Z-1.833 I0 J-0.163
X-88.49 Y-108.587 Z-1.894 I0 J0.163
X-88.49 Y-108.912 Z-1.956 I0 J-0.163
X-88.49 Y-108.587 Z-2.017 I0 J0.163
X-88.49 Y-108.912 Z-2.078 I0 J-0.163
X-88.49 Y-108.587 Z-2.139 I0 J0.163
X-88.49 Y-108.912 Z-2.2 I0 J-0.163
X-88.49 Y-108.587 Z-2.261 I0 J0.163
X-88.637 Y-108.817 Z-2.3 I0 J-0.163
X-88.342 Y-108.682 I0.148 J0.067
X-88.637 Y-108.817 I-0.148 J-0.067
G1 X-88.619 Y-108.842
X-88.592 Y-108.859
X-88.561 Y-108.864
X-88.53 Y-108.857
X-88.385 Y-108.791
Z5
X-117.408 Y-109.925
Z1.683
Z0
Y-109.767
X-117.415 Y-109.736
X-117.432 Y-109.709
X-117.458 Y-109.692
X-117.49 Y-109.685
G3 X-117.49 Y-110.01 Z-0.061 I0 J-0.162
X-117.49 Y-109.685 Z-0.122 I0 J0.162
X-117.49 Y-110.01 Z-0.183 I0 J-0.162
X-117.49 Y-109.685 Z-0.244 I0 J0.162
X-117.49 Y-110.01 Z-0.306 I0 J-0.162
X-117.49 Y-109.685 Z-0.367 I0 J0.162
X-117.49 Y-110.01 Z-0.428 I0 J-0.162
X-117.49 Y-109.685 Z-0.489 I0 J0.162
X-117.49 Y-110.01 Z-0.55 I0 J-0.162
X-117.49 Y-109.685 Z-0.611 I0 J0.162
X-117.49 Y-110.01 Z-0.672 I0 J-0.162
X-117.49 Y-109.685 Z-0.733 I0 J0.162
X-117.49 Y-110.01 Z-0.794 I0 J-0.162
X-117.49 Y-109.685 Z-0.856 I0 J0.162
X-117.49 Y-110.01 Z-0.917 I0 J-0.162
X-117.49 Y-109.685 Z-0.978 I0 J0.162
X-117.49 Y-110.01 Z-1.039 I0 J-0.162
X-117.49 Y-109.685 Z-1.1 I0 J0.162
X-117.49 Y-110.01 Z-1.161 I0 J-0.162
X-117.49 Y-109.685 Z-1.222 I0 J0.162
X-117.49 Y-110.01 Z-1.283 I0 J-0.162
X-117.49 Y-109.685 Z-1.344 I0 J0.162
X-117.49 Y-110.01 Z-1.406 I0 J-0.162
X-117.49 Y-109.685 Z-1.467 I0 J0.162
X-117.49 Y-110.01 Z-1.528 I0 J-0.162
X-117.49 Y-109.685 Z-1.589 I0 J0.162
X-117.49 Y-110.01 Z-1.65 I0 J-0.162
X-117.49 Y-109.685 Z-1.711 I0 J0.162
X-117.49 Y-110.01 Z-1.772 I0 J-0.162
X-117.49 Y-109.685 Z-1.833 I0 J0.162
X-117.49 Y-110.01 Z-1.894 I0 J-0.162
X-117.49 Y-109.685 Z-1.956 I0 J0.162
X-117.49 Y-110.01 Z-2.017 I0 J-0.162
X-117.49 Y-109.685 Z-2.078 I0 J0.162
X-117.49 Y-110.01 Z-2.139 I0 J-0.162
X-117.49 Y-109.685 Z-2.2 I0 J0.162
X-117.49 Y-110.01 Z-2.261 I0 J-0.162
X-117.342 Y-109.781 Z-2.3 I0 J0.162
X-117.637 Y-109.915 I-0.148 J-0.067
X-117.342 Y-109.781 I0.148 J0.067
G1 X-117.36 Y-109.755
X-117.387 Y-109.738
X-117.419 Y-109.733
X-117.449 Y-109.74
X-117.594 Y-109.806
Z5
X-114.142 Y-92.077
Z1.683
Z0
Y-91.919
X-114.149 Y-91.888
X-114.166 Y-91.861
X-114.193 Y-91.844
X-114.224 Y-91.838
G3 X-114.224 Y-92.162 Z-0.061 I0 J-0.162
X-114.224 Y-91.838 Z-0.122 I0 J0.162
X-114.224 Y-92.162 Z-0.183 I0 J-0.162
X-114.224 Y-91.838 Z-0.244 I0 J0.162
X-114.224 Y-92.162 Z-0.306 I0 J-0.162
X-114.224 Y-91.838 Z-0.367 I0 J0.162
X-114.224 Y-92.162 Z-0.428 I0 J-0.162
X-114.224 Y-91.838 Z-0.489 I0 J0.162
X-114.224 Y-92.162 Z-0.55 I0 J-0.162
X-114.224 Y-91.838 Z-0.611 I0 J0.162
X-114.224 Y-92.162 Z-0.672 I0 J-0.162
X-114.224 Y-91.838 Z-0.733 I0 J0.162
X-114.224 Y-92.163 Z-0.794 I0 J-0.162
X-114.224 Y-91.837 Z-0.856 I0 J0.163
X-114.224 Y-92.163 Z-0.917 I0 J-0.163
X-114.224 Y-91.837 Z-0.978 I0 J0.163
X-114.224 Y-92.163 Z-1.039 I0 J-0.163
X-114.224 Y-91.837 Z-1.1 I0 J0.163
X-114.224 Y-92.163 Z-1.161 I0 J-0.163
X-114.224 Y-91.837 Z-1.222 I0 J0.163
X-114.224 Y-92.163 Z-1.283 I0 J-0.163
X-114.224 Y-91.837 Z-1.344 I0 J0.163
X-114.224 Y-92.163 Z-1.406 I0 J-0.163
X-114.224 Y-91.837 Z-1.467 I0 J0.163
X-114.224 Y-92.163 Z-1.528 I0 J-0.163
X-114.224 Y-91.837 Z-1.589 I0 J0.163
X-114.224 Y-92.163 Z-1.65 I0 J-0.163
X-114.224 Y-91.837 Z-1.711 I0 J0.163
X-114.224 Y-92.163 Z-1.772 I0 J-0.163
X-114.224 Y-91.837 Z-1.833 I0 J0.163
X-114.224 Y-92.163 Z-1.894 I0 J-0.163
X-114.224 Y-91.837 Z-1.956 I0 J0.163
X-114.224 Y-92.163 Z-2.017 I0 J-0.163
X-114.224 Y-91.837 Z-2.078 I0 J0.163
X-114.224 Y-92.163 Z-2.139 I0 J-0.163
X-114.224 Y-91.837 Z-2.2 I0 J0.163
X-114.224 Y-92.163 Z-2.261 I0 J-0.163
X-114.076 Y-91.933 Z-2.3 I0 J0.163
X-114.371 Y-92.067 I-0.148 J-0.067
X-114.076 Y-91.933 I0.148 J0.067
G1 X-114.094 Y-91.907
X-114.121 Y-91.89
X-114.153 Y-91.885
X-114.183 Y-91.892
X-114.328 Y-91.958
Z5
X-129.969 Y-67.327
Z1.683
Z0
Y-67.169
X-129.975 Y-67.138
X-129.993 Y-67.111
X-130.019 Y-67.094
X-130.05 Y-67.088
G3 X-130.05 Y-67.412 Z-0.061 I0 J-0.162
X-130.05 Y-67.088 Z-0.122 I0 J0.162
X-130.05 Y-67.412 Z-0.183 I0 J-0.162
X-130.05 Y-67.088 Z-0.244 I0 J0.162
X-130.05 Y-67.412 Z-0.306 I0 J-0.162
X-130.05 Y-67.088 Z-0.367 I0 J0.162
X-130.05 Y-67.412 Z-0.428 I0 J-0.162
X-130.05 Y-67.088 Z-0.489 I0 J0.162
X-130.05 Y-67.412 Z-0.55 I0 J-0.162
X-130.05 Y-67.088 Z-0.611 I0 J0.162
X-130.05 Y-67.412 Z-0.672 I0 J-0.162
X-130.05 Y-67.088 Z-0.733 I0 J0.162
X-130.05 Y-67.412 Z-0.794 I0 J-0.162
X-130.05 Y-67.088 Z-0.856 I0 J0.162
X-130.05 Y-67.412 Z-0.917 I0 J-0.162
X-130.05 Y-67.088 Z-0.978 I0 J0.162
X-130.05 Y-67.412 Z-1.039 I0 J-0.162
X-130.05 Y-67.088 Z-1.1 I0 J0.162
X-130.05 Y-67.412 Z-1.161 I0 J-0.162
X-130.05 Y-67.088 Z-1.222 I0 J0.162
X-130.05 Y-67.412 Z-1.283 I0 J-0.162
X-130.05 Y-67.088 Z-1.344 I0 J0.162
X-130.05 Y-67.412 Z-1.406 I0 J-0.162
X-130.05 Y-67.088 Z-1.467 I0 J0.162
X-130.05 Y-67.412 Z-1.528 I0 J-0.162
X-130.05 Y-67.088 Z-1.589 I0 J0.162
X-130.05 Y-67.412 Z-1.65 I0 J-0.162
X-130.05 Y-67.088 Z-1.711 I0 J0.162
X-130.05 Y-67.412 Z-1.772 I0 J-0.162
X-130.05 Y-67.088 Z-1.833 I0 J0.162
X-130.05 Y-67.412 Z-1.894 I0 J-0.162
X-130.05 Y-67.088 Z-1.956 I0 J0.162
X-130.05 Y-67.412 Z-2.017 I0 J-0.162
X-130.05 Y-67.088 Z-2.078 I0 J0.162
X-130.05 Y-67.412 Z-2.139 I0 J-0.162
X-130.05 Y-67.088 Z-2.2 I0 J0.162
X-130.05 Y-67.412 Z-2.261 I0 J-0.162
X-129.902 Y-67.183 Z-2.3 I0 J0.162
X-130.198 Y-67.317 I-0.148 J-0.067
X-129.902 Y-67.183 I0.148 J0.067
G1 X-129.921 Y-67.157
X-129.948 Y-67.14
X-129.979 Y-67.135
X-130.01 Y-67.142
X-130.154 Y-67.208
Z5
X-145.219 Y-80.077
Z1.683
Z0
Y-79.919
X-145.225 Y-79.888
X-145.243 Y-79.861
X-145.269 Y-79.844
X-145.3 Y-79.838
G3 X-145.3 Y-80.162 Z-0.061 I0 J-0.162
X-145.3 Y-79.838 Z-0.122 I0 J0.162
X-145.3 Y-80.162 Z-0.183 I0 J-0.162
X-145.3 Y-79.838 Z-0.244 I0 J0.162
X-145.3 Y-80.162 Z-0.306 I0 J-0.162
X-145.3 Y-79.838 Z-0.367 I0 J0.162
X-145.3 Y-80.162 Z-0.428 I0 J-0.162
X-145.3 Y-79.838 Z-0.489 I0 J0.162
X-145.3 Y-80.162 Z-0.55 I0 J-0.162
X-145.3 Y-79.838 Z-0.611 I0 J0.162
X-145.3 Y-80.162 Z-0.672 I0 J-0.162
X-145.3 Y-79.838 Z-0.733 I0 J0.162
X-145.3 Y-80.162 Z-0.794 I0 J-0.162
X-145.3 Y-79.838 Z-0.856 I0 J0.162
X-145.3 Y-80.162 Z-0.917 I0 J-0.162
X-145.3 Y-79.838 Z-0.978 I0 J0.162
X-145.3 Y-80.162 Z-1.039 I0 J-0.162
X-145.3 Y-79.838 Z-1.1 I0 J0.162
X-145.3 Y-80.162 Z-1.161 I0 J-0.162
X-145.3 Y-79.838 Z-1.222 I0 J0.162
X-145.3 Y-80.162 Z-1.283 I0 J-0.162
X-145.3 Y-79.838 Z-1.344 I0 J0.162
X-145.3 Y-80.162 Z-1.406 I0 J-0.162
X-145.3 Y-79.838 Z-1.467 I0 J0.162
X-145.3 Y-80.162 Z-1.528 I0 J-0.162
X-145.3 Y-79.838 Z-1.589 I0 J0.162
X-145.3 Y-80.162 Z-1.65 I0 J-0.162
X-145.3 Y-79.838 Z-1.711 I0 J0.162
X-145.3 Y-80.162 Z-1.772 I0 J-0.162
X-145.3 Y-79.838 Z-1.833 I0 J0.162
X-145.3 Y-80.162 Z-1.894 I0 J-0.162
X-145.3 Y-79.838 Z-1.956 I0 J0.162
X-145.3 Y-80.162 Z-2.017 I0 J-0.162
X-145.3 Y-79.838 Z-2.078 I0 J0.162
X-145.3 Y-80.162 Z-2.139 I0 J-0.162
X-145.3 Y-79.838 Z-2.2 I0 J0.162
X-145.3 Y-80.162 Z-2.261 I0 J-0.162
X-145.152 Y-79.933 Z-2.3 I0 J0.162
X-145.448 Y-80.067 I-0.148 J-0.067
X-145.152 Y-79.933 I0.148 J0.067
G1 X-145.171 Y-79.907
X-145.198 Y-79.89
X-145.229 Y-79.885
X-145.26 Y-79.892
X-145.404 Y-79.958
Z5
X-160.469 Y-67.327
Z1.683
Z0
Y-67.169
X-160.475 Y-67.138
X-160.493 Y-67.111
X-160.519 Y-67.094
X-160.55 Y-67.088
G3 X-160.55 Y-67.412 Z-0.061 I0 J-0.162
X-160.55 Y-67.088 Z-0.122 I0 J0.162
X-160.55 Y-67.412 Z-0.183 I0 J-0.162
X-160.55 Y-67.088 Z-0.244 I0 J0.162
X-160.55 Y-67.412 Z-0.306 I0 J-0.162
X-160.55 Y-67.088 Z-0.367 I0 J0.162
X-160.55 Y-67.412 Z-0.428 I0 J-0.162
X-160.55 Y-67.088 Z-0.489 I0 J0.162
X-160.55 Y-67.412 Z-0.55 I0 J-0.162
X-160.55 Y-67.088 Z-0.611 I0 J0.162
X-160.55 Y-67.412 Z-0.672 I0 J-0.162
X-160.55 Y-67.088 Z-0.733 I0 J0.162
X-160.55 Y-67.412 Z-0.794 I0 J-0.162
X-160.55 Y-67.088 Z-0.856 I0 J0.162
X-160.55 Y-67.412 Z-0.917 I0 J-0.162
X-160.55 Y-67.088 Z-0.978 I0 J0.162
X-160.55 Y-67.412 Z-1.039 I0 J-0.162
X-160.55 Y-67.088 Z-1.1 I0 J0.162
X-160.55 Y-67.412 Z-1.161 I0 J-0.162
X-160.55 Y-67.088 Z-1.222 I0 J0.162
X-160.55 Y-67.412 Z-1.283 I0 J-0.162
X-160.55 Y-67.088 Z-1.344 I0 J0.162
X-160.55 Y-67.412 Z-1.406 I0 J-0.162
X-160.55 Y-67.088 Z-1.467 I0 J0.162
X-160.55 Y-67.412 Z-1.528 I0 J-0.162
X-160.55 Y-67.088 Z-1.589 I0 J0.162
X-160.55 Y-67.412 Z-1.65 I0 J-0.162
X-160.55 Y-67.088 Z-1.711 I0 J0.162
X-160.55 Y-67.412 Z-1.772 I0 J-0.162
X-160.55 Y-67.088 Z-1.833 I0 J0.162
X-160.55 Y-67.412 Z-1.894 I0 J-0.162
X-160.55 Y-67.088 Z-1.956 I0 J0.162
X-160.55 Y-67.412 Z-2.017 I0 J-0.162
X-160.55 Y-67.088 Z-2.078 I0 J0.162
X-160.55 Y-67.412 Z-2.139 I0 J-0.162
X-160.55 Y-67.088 Z-2.2 I0 J0.162
X-160.55 Y-67.412 Z-2.261 I0 J-0.162
X-160.402 Y-67.183 Z-2.3 I0 J0.162
X-160.698 Y-67.317 I-0.148 J-0.067
X-160.402 Y-67.183 I0.148 J0.067
G1 X-160.421 Y-67.157
X-160.448 Y-67.14
X-160.479 Y-67.135
X-160.51 Y-67.142
X-160.654 Y-67.208
Z5
X-195.919 Y-82.176
Z1.683
Z0
Y-82.017
X-195.925 Y-81.986
X-195.943 Y-81.96
X-195.969 Y-81.942
X-196 Y-81.936
G3 X-196 Y-82.261 Z-0.061 I0 J-0.162
X-196 Y-81.936 Z-0.122 I0 J0.162
X-196 Y-82.261 Z-0.183 I0 J-0.162
X-196 Y-81.936 Z-0.244 I0 J0.162
X-196 Y-82.261 Z-0.306 I0 J-0.162
X-196 Y-81.936 Z-0.367 I0 J0.162
X-196 Y-82.261 Z-0.428 I0 J-0.162
X-196 Y-81.936 Z-0.489 I0 J0.162
X-196 Y-82.261 Z-0.55 I0 J-0.162
X-196 Y-81.936 Z-0.611 I0 J0.162
X-196 Y-82.261 Z-0.672 I0 J-0.162
X-196 Y-81.936 Z-0.733 I0 J0.162
X-196 Y-82.261 Z-0.794 I0 J-0.162
X-196 Y-81.936 Z-0.856 I0 J0.162
X-196 Y-82.261 Z-0.917 I0 J-0.162
X-196 Y-81.936 Z-0.978 I0 J0.162
X-196 Y-82.261 Z-1.039 I0 J-0.162
X-196 Y-81.936 Z-1.1 I0 J0.162
X-196 Y-82.261 Z-1.161 I0 J-0.162
X-196 Y-81.936 Z-1.222 I0 J0.162
X-196 Y-82.261 Z-1.283 I0 J-0.162
X-196 Y-81.936 Z-1.344 I0 J0.162
X-196 Y-82.261 Z-1.406 I0 J-0.162
X-196 Y-81.936 Z-1.467 I0 J0.162
X-196 Y-82.261 Z-1.528 I0 J-0.162
X-196 Y-81.936 Z-1.589 I0 J0.162
X-196 Y-82.261 Z-1.65 I0 J-0.162
X-196 Y-81.936 Z-1.711 I0 J0.162
X-196 Y-82.261 Z-1.772 I0 J-0.162
X-196 Y-81.936 Z-1.833 I0 J0.162
X-196 Y-82.261 Z-1.894 I0 J-0.162
X-196 Y-81.936 Z-1.956 I0 J0.162
X-196 Y-82.261 Z-2.017 I0 J-0.162
X-196 Y-81.936 Z-2.078 I0 J0.162
X-196 Y-82.261 Z-2.139 I0 J-0.162
X-196 Y-81.936 Z-2.2 I0 J0.162
X-196 Y-82.261 Z-2.261 I0 J-0.162
X-195.852 Y-82.031 Z-2.3 I0 J0.162
X-196.148 Y-82.166 I-0.148 J-0.067
X-195.852 Y-82.031 I0.148 J0.067
G1 X-195.871 Y-82.006
X-195.898 Y-81.989
X-195.929 Y-81.984
X-195.96 Y-81.991
X-196.104 Y-82.057
Z5
X-176.295 Y-92.077
Z1.683
Z0
Y-91.919
X-176.301 Y-91.888
X-176.319 Y-91.861
X-176.345 Y-91.844
X-176.376 Y-91.838
G3 X-176.376 Y-92.162 Z-0.061 I0 J-0.162
X-176.376 Y-91.838 Z-0.122 I0 J0.162
X-176.376 Y-92.162 Z-0.183 I0 J-0.162
X-176.376 Y-91.838 Z-0.244 I0 J0.162
X-176.376 Y-92.162 Z-0.306 I0 J-0.162
X-176.376 Y-91.838 Z-0.367 I0 J0.162
X-176.376 Y-92.162 Z-0.428 I0 J-0.162
X-176.376 Y-91.838 Z-0.489 I0 J0.162
X-176.376 Y-92.162 Z-0.55 I0 J-0.162
X-176.376 Y-91.838 Z-0.611 I0 J0.162
X-176.376 Y-92.162 Z-0.672 I0 J-0.162
X-176.376 Y-91.838 Z-0.733 I0 J0.162
X-176.376 Y-92.162 Z-0.794 I0 J-0.162
X-176.376 Y-91.838 Z-0.856 I0 J0.162
X-176.376 Y-92.162 Z-0.917 I0 J-0.162
X-176.376 Y-91.838 Z-0.978 I0 J0.162
X-176.376 Y-92.162 Z-1.039 I0 J-0.162
X-176.376 Y-91.838 Z-1.1 I0 J0.162
X-176.376 Y-92.162 Z-1.161 I0 J-0.162
X-176.376 Y-91.838 Z-1.222 I0 J0.162
X-176.376 Y-92.162 Z-1.283 I0 J-0.162
X-176.376 Y-91.838 Z-1.344 I0 J0.162
X-176.376 Y-92.162 Z-1.406 I0 J-0.162
X-176.376 Y-91.838 Z-1.467 I0 J0.162
X-176.376 Y-92.162 Z-1.528 I0 J-0.162
X-176.376 Y-91.838 Z-1.589 I0 J0.162
X-176.376 Y-92.162 Z-1.65 I0 J-0.162
X-176.376 Y-91.838 Z-1.711 I0 J0.162
X-176.376 Y-92.162 Z-1.772 I0 J-0.162
X-176.376 Y-91.838 Z-1.833 I0 J0.162
X-176.376 Y-92.162 Z-1.894 I0 J-0.162
X-176.376 Y-91.838 Z-1.956 I0 J0.162
X-176.376 Y-92.162 Z-2.017 I0 J-0.162
X-176.376 Y-91.838 Z-2.078 I0 J0.162
X-176.376 Y-92.162 Z-2.139 I0 J-0.162
X-176.376 Y-91.838 Z-2.2 I0 J0.162
X-176.376 Y-92.162 Z-2.261 I0 J-0.162
X-176.229 Y-91.933 Z-2.3 I0 J0.162
X-176.524 Y-92.067 I-0.148 J-0.067
X-176.229 Y-91.933 I0.148 J0.067
G1 X-176.247 Y-91.907
X-176.274 Y-91.89
X-176.305 Y-91.885
X-176.336 Y-91.892
X-176.481 Y-91.958
Z5
X-185.708 Y-113.925
Z1.683
Z0
Y-113.767
X-185.715 Y-113.736
X-185.732 Y-113.709
X-185.758 Y-113.692
X-185.79 Y-113.685
G3 X-185.79 Y-114.01 Z-0.061 I0 J-0.162
X-185.79 Y-113.685 Z-0.122 I0 J0.162
X-185.79 Y-114.01 Z-0.183 I0 J-0.162
X-185.79 Y-113.685 Z-0.244 I0 J0.162
X-185.79 Y-114.01 Z-0.306 I0 J-0.162
X-185.79 Y-113.685 Z-0.367 I0 J0.162
X-185.79 Y-114.01 Z-0.428 I0 J-0.162
X-185.79 Y-113.685 Z-0.489 I0 J0.162
X-185.79 Y-114.01 Z-0.55 I0 J-0.162
X-185.79 Y-113.685 Z-0.611 I0 J0.162
X-185.79 Y-114.01 Z-0.672 I0 J-0.162
X-185.79 Y-113.685 Z-0.733 I0 J0.162
X-185.79 Y-114.01 Z-0.794 I0 J-0.162
X-185.79 Y-113.685 Z-0.856 I0 J0.162
X-185.79 Y-114.01 Z-0.917 I0 J-0.162
X-185.79 Y-113.685 Z-0.978 I0 J0.162
X-185.79 Y-114.01 Z-1.039 I0 J-0.162
X-185.79 Y-113.685 Z-1.1 I0 J0.162
X-185.79 Y-114.01 Z-1.161 I0 J-0.162
X-185.79 Y-113.685 Z-1.222 I0 J0.162
X-185.79 Y-114.01 Z-1.283 I0 J-0.162
X-185.79 Y-113.685 Z-1.344 I0 J0.162
X-185.79 Y-114.01 Z-1.406 I0 J-0.162
X-185.79 Y-113.685 Z-1.467 I0 J0.162
X-185.79 Y-114.01 Z-1.528 I0 J-0.162
X-185.79 Y-113.685 Z-1.589 I0 J0.162
X-185.79 Y-114.01 Z-1.65 I0 J-0.162
X-185.79 Y-113.685 Z-1.711 I0 J0.162
X-185.79 Y-114.01 Z-1.772 I0 J-0.162
X-185.79 Y-113.685 Z-1.833 I0 J0.162
X-185.79 Y-114.01 Z-1.894 I0 J-0.162
X-185.79 Y-113.685 Z-1.956 I0 J0.162
X-185.79 Y-114.01 Z-2.017 I0 J-0.162
X-185.79 Y-113.685 Z-2.078 I0 J0.162
X-185.79 Y-114.01 Z-2.139 I0 J-0.162
X-185.79 Y-113.685 Z-2.2 I0 J0.162
X-185.79 Y-114.01 Z-2.261 I0 J-0.162
X-185.642 Y-113.781 Z-2.3 I0 J0.162
X-185.937 Y-113.915 I-0.148 J-0.067
X-185.642 Y-113.781 I0.148 J0.067
G1 X-185.66 Y-113.755
X-185.687 Y-113.738
X-185.719 Y-113.733
X-185.749 Y-113.74
X-185.894 Y-113.806
Z5
X-185.871 Y-161.77
Z1.683
Z0
Y-161.929
X-185.865 Y-161.96
X-185.847 Y-161.987
X-185.821 Y-162.004
X-185.79 Y-162.01
G3 X-185.79 Y-161.685 Z-0.061 I0 J0.162
X-185.79 Y-162.01 Z-0.122 I0 J-0.162
X-185.79 Y-161.685 Z-0.183 I0 J0.162
X-185.79 Y-162.01 Z-0.244 I0 J-0.162
X-185.79 Y-161.685 Z-0.306 I0 J0.162
X-185.79 Y-162.01 Z-0.367 I0 J-0.162
X-185.79 Y-161.685 Z-0.428 I0 J0.162
X-185.79 Y-162.01 Z-0.489 I0 J-0.162
X-185.79 Y-161.685 Z-0.55 I0 J0.162
X-185.79 Y-162.01 Z-0.611 I0 J-0.162
X-185.79 Y-161.685 Z-0.672 I0 J0.162
X-185.79 Y-162.01 Z-0.733 I0 J-0.162
X-185.79 Y-161.685 Z-0.794 I0 J0.162
X-185.79 Y-162.01 Z-0.856 I0 J-0.162
X-185.79 Y-161.685 Z-0.917 I0 J0.162
X-185.79 Y-162.01 Z-0.978 I0 J-0.162
X-185.79 Y-161.685 Z-1.039 I0 J0.162
X-185.79 Y-162.01 Z-1.1 I0 J-0.162
X-185.79 Y-161.685 Z-1.161 I0 J0.162
X-185.79 Y-162.01 Z-1.222 I0 J-0.162
X-185.79 Y-161.685 Z-1.283 I0 J0.162
X-185.79 Y-162.01 Z-1.344 I0 J-0.162
X-185.79 Y-161.685 Z-1.406 I0 J0.163
X-185.79 Y-162.01 Z-1.467 I0 J-0.163
X-185.79 Y-161.685 Z-1.528 I0 J0.163
X-185.79 Y-162.01 Z-1.589 I0 J-0.163
X-185.79 Y-161.685 Z-1.65 I0 J0.163
X-185.79 Y-162.01 Z-1.711 I0 J-0.163
X-185.79 Y-161.685 Z-1.772 I0 J0.163
X-185.79 Y-162.01 Z-1.833 I0 J-0.163
X-185.79 Y-161.685 Z-1.894 I0 J0.163
X-185.79 Y-162.01 Z-1.956 I0 J-0.163
X-185.79 Y-161.685 Z-2.017 I0 J0.163
X-185.79 Y-162.01 Z-2.078 I0 J-0.163
X-185.79 Y-161.685 Z-2.139 I0 J0.163
X-185.79 Y-162.01 Z-2.2 I0 J-0.163
X-185.79 Y-161.685 Z-2.261 I0 J0.163
X-185.937 Y-161.915 Z-2.3 I0 J-0.163
X-185.642 Y-161.781 I0.148 J0.067
X-185.937 Y-161.915 I-0.148 J-0.067
G1 X-185.919 Y-161.941
X-185.892 Y-161.958
X-185.861 Y-161.963
X-185.83 Y-161.956
X-185.685 Y-161.89
Z5
X-250.871 Y-161.77
Z1.683
Z0
Y-161.929
X-250.865 Y-161.96
X-250.847 Y-161.987
X-250.821 Y-162.004
X-250.79 Y-162.01
G3 X-250.79 Y-161.685 Z-0.061 I0 J0.162
X-250.79 Y-162.01 Z-0.122 I0 J-0.162
X-250.79 Y-161.685 Z-0.183 I0 J0.162
X-250.79 Y-162.01 Z-0.244 I0 J-0.162
X-250.79 Y-161.685 Z-0.306 I0 J0.162
X-250.79 Y-162.01 Z-0.367 I0 J-0.162
X-250.79 Y-161.685 Z-0.428 I0 J0.162
X-250.79 Y-162.01 Z-0.489 I0 J-0.162
X-250.79 Y-161.685 Z-0.55 I0 J0.162
X-250.79 Y-162.01 Z-0.611 I0 J-0.162
X-250.79 Y-161.685 Z-0.672 I0 J0.162
X-250.79 Y-162.01 Z-0.733 I0 J-0.162
X-250.79 Y-161.685 Z-0.794 I0 J0.162
X-250.79 Y-162.01 Z-0.856 I0 J-0.162
X-250.79 Y-161.685 Z-0.917 I0 J0.162
X-250.79 Y-162.01 Z-0.978 I0 J-0.162
X-250.79 Y-161.685 Z-1.039 I0 J0.162
X-250.79 Y-162.01 Z-1.1 I0 J-0.162
X-250.79 Y-161.685 Z-1.161 I0 J0.162
X-250.79 Y-162.01 Z-1.222 I0 J-0.162
X-250.79 Y-161.685 Z-1.283 I0 J0.162
X-250.79 Y-162.01 Z-1.344 I0 J-0.162
X-250.79 Y-161.685 Z-1.406 I0 J0.163
X-250.79 Y-162.01 Z-1.467 I0 J-0.163
X-250.79 Y-161.685 Z-1.528 I0 J0.163
X-250.79 Y-162.01 Z-1.589 I0 J-0.163
X-250.79 Y-161.685 Z-1.65 I0 J0.163
X-250.79 Y-162.01 Z-1.711 I0 J-0.163
X-250.79 Y-161.685 Z-1.772 I0 J0.163
X-250.79 Y-162.01 Z-1.833 I0 J-0.163
X-250.79 Y-161.685 Z-1.894 I0 J0.163
X-250.79 Y-162.01 Z-1.956 I0 J-0.163
X-250.79 Y-161.685 Z-2.017 I0 J0.163
X-250.79 Y-162.01 Z-2.078 I0 J-0.163
X-250.79 Y-161.685 Z-2.139 I0 J0.163
X-250.79 Y-162.01 Z-2.2 I0 J-0.163
X-250.79 Y-161.685 Z-2.261 I0 J0.163
X-250.937 Y-161.915 Z-2.3 I0 J-0.163
X-250.642 Y-161.781 I0.148 J0.067
X-250.937 Y-161.915 I-0.148 J-0.067
G1 X-250.919 Y-161.941
X-250.892 Y-161.958
X-250.861 Y-161.963
X-250.83 Y-161.956
X-250.685 Y-161.89
Z5
X-250.708 Y-113.925
Z1.683
Z0
Y-113.767
X-250.715 Y-113.736
X-250.732 Y-113.709
X-250.758 Y-113.692
X-250.79 Y-113.685
G3 X-250.79 Y-114.01 Z-0.061 I0 J-0.162
X-250.79 Y-113.685 Z-0.122 I0 J0.162
X-250.79 Y-114.01 Z-0.183 I0 J-0.162
X-250.79 Y-113.685 Z-0.244 I0 J0.162
X-250.79 Y-114.01 Z-0.306 I0 J-0.162
X-250.79 Y-113.685 Z-0.367 I0 J0.162
X-250.79 Y-114.01 Z-0.428 I0 J-0.162
X-250.79 Y-113.685 Z-0.489 I0 J0.162
X-250.79 Y-114.01 Z-0.55 I0 J-0.162
X-250.79 Y-113.685 Z-0.611 I0 J0.162
X-250.79 Y-114.01 Z-0.672 I0 J-0.162
X-250.79 Y-113.685 Z-0.733 I0 J0.162
X-250.79 Y-114.01 Z-0.794 I0 J-0.162
X-250.79 Y-113.685 Z-0.856 I0 J0.162
X-250.79 Y-114.01 Z-0.917 I0 J-0.162
X-250.79 Y-113.685 Z-0.978 I0 J0.162
X-250.79 Y-114.01 Z-1.039 I0 J-0.162
X-250.79 Y-113.685 Z-1.1 I0 J0.162
X-250.79 Y-114.01 Z-1.161 I0 J-0.162
X-250.79 Y-113.685 Z-1.222 I0 J0.162
X-250.79 Y-114.01 Z-1.283 I0 J-0.162
X-250.79 Y-113.685 Z-1.344 I0 J0.162
X-250.79 Y-114.01 Z-1.406 I0 J-0.162
X-250.79 Y-113.685 Z-1.467 I0 J0.162
X-250.79 Y-114.01 Z-1.528 I0 J-0.162
X-250.79 Y-113.685 Z-1.589 I0 J0.162
X-250.79 Y-114.01 Z-1.65 I0 J-0.162
X-250.79 Y-113.685 Z-1.711 I0 J0.162
X-250.79 Y-114.01 Z-1.772 I0 J-0.162
X-250.79 Y-113.685 Z-1.833 I0 J0.162
X-250.79 Y-114.01 Z-1.894 I0 J-0.162
X-250.79 Y-113.685 Z-1.956 I0 J0.162
X-250.79 Y-114.01 Z-2.017 I0 J-0.162
X-250.79 Y-113.685 Z-2.078 I0 J0.162
X-250.79 Y-114.01 Z-2.139 I0 J-0.162
X-250.79 Y-113.685 Z-2.2 I0 J0.162
X-250.79 Y-114.01 Z-2.261 I0 J-0.162
X-250.642 Y-113.781 Z-2.3 I0 J0.162
X-250.937 Y-113.915 I-0.148 J-0.067
X-250.642 Y-113.781 I0.148 J0.067
G1 X-250.66 Y-113.755
X-250.687 Y-113.738
X-250.719 Y-113.733
X-250.749 Y-113.74
X-250.894 Y-113.806
Z5
X-235.919 Y-82.176
Z1.683
Z0
Y-82.017
X-235.925 Y-81.986
X-235.943 Y-81.96
X-235.969 Y-81.942
X-236 Y-81.936
G3 X-236 Y-82.261 Z-0.061 I0 J-0.162
X-236 Y-81.936 Z-0.122 I0 J0.162
X-236 Y-82.261 Z-0.183 I0 J-0.162
X-236 Y-81.936 Z-0.244 I0 J0.162
X-236 Y-82.261 Z-0.306 I0 J-0.162
X-236 Y-81.936 Z-0.367 I0 J0.162
X-236 Y-82.261 Z-0.428 I0 J-0.162
X-236 Y-81.936 Z-0.489 I0 J0.162
X-236 Y-82.261 Z-0.55 I0 J-0.162
X-236 Y-81.936 Z-0.611 I0 J0.162
X-236 Y-82.261 Z-0.672 I0 J-0.162
X-236 Y-81.936 Z-0.733 I0 J0.162
X-236 Y-82.261 Z-0.794 I0 J-0.162
X-236 Y-81.936 Z-0.856 I0 J0.162
X-236 Y-82.261 Z-0.917 I0 J-0.162
X-236 Y-81.936 Z-0.978 I0 J0.162
X-236 Y-82.261 Z-1.039 I0 J-0.162
X-236 Y-81.936 Z-1.1 I0 J0.162
X-236 Y-82.261 Z-1.161 I0 J-0.162
X-236 Y-81.936 Z-1.222 I0 J0.162
X-236 Y-82.261 Z-1.283 I0 J-0.162
X-236 Y-81.936 Z-1.344 I0 J0.162
X-236 Y-82.261 Z-1.406 I0 J-0.162
X-236 Y-81.936 Z-1.467 I0 J0.162
X-236 Y-82.261 Z-1.528 I0 J-0.162
X-236 Y-81.936 Z-1.589 I0 J0.162
X-236 Y-82.261 Z-1.65 I0 J-0.162
X-236 Y-81.936 Z-1.711 I0 J0.162
X-236 Y-82.261 Z-1.772 I0 J-0.162
X-236 Y-81.936 Z-1.833 I0 J0.162
X-236 Y-82.261 Z-1.894 I0 J-0.162
X-236 Y-81.936 Z-1.956 I0 J0.162
X-236 Y-82.261 Z-2.017 I0 J-0.162
X-236 Y-81.936 Z-2.078 I0 J0.162
X-236 Y-82.261 Z-2.139 I0 J-0.162
X-236 Y-81.936 Z-2.2 I0 J0.162
X-236 Y-82.261 Z-2.261 I0 J-0.162
X-235.852 Y-82.031 Z-2.3 I0 J0.162
X-236.148 Y-82.166 I-0.148 J-0.067
X-235.852 Y-82.031 I0.148 J0.067
G1 X-235.871 Y-82.006
X-235.898 Y-81.989
X-235.929 Y-81.984
X-235.96 Y-81.991
X-236.104 Y-82.057
Z5
X-117.571 Y-165.77
Z1.683
Z0
Y-165.929
X-117.565 Y-165.96
X-117.547 Y-165.987
X-117.521 Y-166.004
X-117.49 Y-166.01
G3 X-117.49 Y-165.685 Z-0.061 I0 J0.162
X-117.49 Y-166.01 Z-0.122 I0 J-0.162
X-117.49 Y-165.685 Z-0.183 I0 J0.162
X-117.49 Y-166.01 Z-0.244 I0 J-0.162
X-117.49 Y-165.685 Z-0.306 I0 J0.162
X-117.49 Y-166.01 Z-0.367 I0 J-0.162
X-117.49 Y-165.685 Z-0.428 I0 J0.162
X-117.49 Y-166.01 Z-0.489 I0 J-0.162
X-117.49 Y-165.685 Z-0.55 I0 J0.162
X-117.49 Y-166.01 Z-0.611 I0 J-0.162
X-117.49 Y-165.685 Z-0.672 I0 J0.162
X-117.49 Y-166.01 Z-0.733 I0 J-0.162
X-117.49 Y-165.685 Z-0.794 I0 J0.162
X-117.49 Y-166.01 Z-0.856 I0 J-0.162
X-117.49 Y-165.685 Z-0.917 I0 J0.162
X-117.49 Y-166.01 Z-0.978 I0 J-0.162
X-117.49 Y-165.685 Z-1.039 I0 J0.162
X-117.49 Y-166.01 Z-1.1 I0 J-0.162
X-117.49 Y-165.685 Z-1.161 I0 J0.162
X-117.49 Y-166.01 Z-1.222 I0 J-0.162
X-117.49 Y-165.685 Z-1.283 I0 J0.162
X-117.49 Y-166.01 Z-1.344 I0 J-0.162
X-117.49 Y-165.685 Z-1.406 I0 J0.162
X-117.49 Y-166.01 Z-1.467 I0 J-0.162
X-117.49 Y-165.685 Z-1.528 I0 J0.162
X-117.49 Y-166.01 Z-1.589 I0 J-0.162
X-117.49 Y-165.685 Z-1.65 I0 J0.162
X-117.49 Y-166.01 Z-1.711 I0 J-0.162
X-117.49 Y-165.685 Z-1.772 I0 J0.162
X-117.49 Y-166.01 Z-1.833 I0 J-0.162
X-117.49 Y-165.685 Z-1.894 I0 J0.162
X-117.49 Y-166.01 Z-1.956 I0 J-0.162
X-117.49 Y-165.685 Z-2.017 I0 J0.162
X-117.49 Y-166.01 Z-2.078 I0 J-0.162
X-117.49 Y-165.685 Z-2.139 I0 J0.162
X-117.49 Y-166.01 Z-2.2 I0 J-0.162
X-117.49 Y-165.685 Z-2.261 I0 J0.162
X-117.637 Y-165.915 Z-2.3 I0 J-0.162
X-117.342 Y-165.781 I0.148 J0.067
X-117.637 Y-165.915 I-0.148 J-0.067
G1 X-117.619 Y-165.941
X-117.592 Y-165.958
X-117.561 Y-165.963
X-117.53 Y-165.956
X-117.385 Y-165.89
Z5
X-88.571 Y-166.869
Z1.683
Z0
Y-167.028
X-88.565 Y-167.059
X-88.547 Y-167.085
X-88.521 Y-167.103
X-88.49 Y-167.109
G3 X-88.49 Y-166.784 Z-0.061 I0 J0.163
X-88.49 Y-167.109 Z-0.122 I0 J-0.163
X-88.49 Y-166.784 Z-0.183 I0 J0.163
X-88.49 Y-167.109 Z-0.244 I0 J-0.163
X-88.49 Y-166.784 Z-0.306 I0 J0.163
X-88.49 Y-167.109 Z-0.367 I0 J-0.163
X-88.49 Y-166.784 Z-0.428 I0 J0.163
X-88.49 Y-167.109 Z-0.489 I0 J-0.163
X-88.49 Y-166.784 Z-0.55 I0 J0.163
X-88.49 Y-167.109 Z-0.611 I0 J-0.163
X-88.49 Y-166.784 Z-0.672 I0 J0.163
X-88.49 Y-167.109 Z-0.733 I0 J-0.163
X-88.49 Y-166.784 Z-0.794 I0 J0.163
X-88.49 Y-167.109 Z-0.856 I0 J-0.163
X-88.49 Y-166.784 Z-0.917 I0 J0.163
X-88.49 Y-167.109 Z-0.978 I0 J-0.163
X-88.49 Y-166.784 Z-1.039 I0 J0.163
X-88.49 Y-167.109 Z-1.1 I0 J-0.163
X-88.49 Y-166.784 Z-1.161 I0 J0.163
X-88.49 Y-167.109 Z-1.222 I0 J-0.163
X-88.49 Y-166.784 Z-1.283 I0 J0.163
X-88.49 Y-167.109 Z-1.344 I0 J-0.163
X-88.49 Y-166.784 Z-1.406 I0 J0.163
X-88.49 Y-167.109 Z-1.467 I0 J-0.163
X-88.49 Y-166.784 Z-1.528 I0 J0.163
X-88.49 Y-167.109 Z-1.589 I0 J-0.163
X-88.49 Y-166.784 Z-1.65 I0 J0.163
X-88.49 Y-167.109 Z-1.711 I0 J-0.163
X-88.49 Y-166.784 Z-1.772 I0 J0.163
X-88.49 Y-167.109 Z-1.833 I0 J-0.163
X-88.49 Y-166.784 Z-1.894 I0 J0.163
X-88.49 Y-167.109 Z-1.956 I0 J-0.163
X-88.49 Y-166.784 Z-2.017 I0 J0.163
X-88.49 Y-167.109 Z-2.078 I0 J-0.163
X-88.49 Y-166.784 Z-2.139 I0 J0.163
X-88.49 Y-167.109 Z-2.2 I0 J-0.163
X-88.49 Y-166.784 Z-2.261 I0 J0.163
X-88.637 Y-167.014 Z-2.3 I0 J-0.163
X-88.342 Y-166.879 I0.148 J0.067
X-88.637 Y-167.014 I-0.148 J-0.067
G1 X-88.619 Y-167.04
X-88.592 Y-167.056
X-88.561 Y-167.062
X-88.53 Y-167.054
X-88.385 Y-166.988
Z5
X-82.807 Y-168.065
Z2
Z0.317
G19 G2 Y-168.383 Z0 J-0.318 K0
G1 Y-168.542
G17 G3 X-82.49 Y-168.859 I0.318 J0
X-82.49 Y-165.034 Z-0.122 I0 J1.913
X-82.49 Y-168.859 Z-0.244 I0 J-1.913
X-82.49 Y-165.034 Z-0.367 I0 J1.913
X-82.49 Y-168.859 Z-0.489 I0 J-1.913
X-82.49 Y-165.034 Z-0.611 I0 J1.913
X-82.49 Y-168.859 Z-0.733 I0 J-1.913
X-82.49 Y-165.034 Z-0.856 I0 J1.913
X-82.49 Y-168.859 Z-0.978 I0 J-1.913
X-82.49 Y-165.034 Z-1.1 I0 J1.913
X-82.49 Y-168.859 Z-1.222 I0 J-1.913
X-82.49 Y-165.034 Z-1.344 I0 J1.913
X-82.49 Y-168.859 Z-1.467 I0 J-1.912
X-82.49 Y-165.034 Z-1.589 I0 J1.912
X-82.49 Y-168.859 Z-1.711 I0 J-1.912
X-82.49 Y-165.034 Z-1.833 I0 J1.912
X-82.49 Y-168.859 Z-1.956 I0 J-1.912
X-82.49 Y-165.034 Z-2.078 I0 J1.912
X-82.49 Y-168.859 Z-2.2 I0 J-1.912
X-81.455 Y-165.338 Z-2.3 I0 J1.912
X-83.524 Y-168.555 I-1.034 J-1.609
X-81.455 Y-165.338 I1.034 J1.609
X-81.894 Y-165.433 I-0.172 J-0.267
G1 X-81.98 Y-165.567
X-82.018 Y-165.626 Z-2.292
X-82.054 Y-165.683 Z-2.269
X-82.087 Y-165.733 Z-2.231
X-82.114 Y-165.776 Z-2.18
X-82.135 Y-165.807 Z-2.12
X-82.147 Y-165.827 Z-2.053
X-82.152 Y-165.834 Z-1.982
Z5
X-76.571 Y-166.869
Z1.683
Z0
Y-167.028
X-76.565 Y-167.059
X-76.547 Y-167.085
X-76.521 Y-167.103
X-76.49 Y-167.109
G3 X-76.49 Y-166.784 Z-0.061 I0 J0.163
X-76.49 Y-167.109 Z-0.122 I0 J-0.163
X-76.49 Y-166.784 Z-0.183 I0 J0.163
X-76.49 Y-167.109 Z-0.244 I0 J-0.163
X-76.49 Y-166.784 Z-0.306 I0 J0.163
X-76.49 Y-167.109 Z-0.367 I0 J-0.163
X-76.49 Y-166.784 Z-0.428 I0 J0.163
X-76.49 Y-167.109 Z-0.489 I0 J-0.163
X-76.49 Y-166.784 Z-0.55 I0 J0.163
X-76.49 Y-167.109 Z-0.611 I0 J-0.163
X-76.49 Y-166.784 Z-0.672 I0 J0.163
X-76.49 Y-167.109 Z-0.733 I0 J-0.163
X-76.49 Y-166.784 Z-0.794 I0 J0.163
X-76.49 Y-167.109 Z-0.856 I0 J-0.163
X-76.49 Y-166.784 Z-0.917 I0 J0.163
X-76.49 Y-167.109 Z-0.978 I0 J-0.163
X-76.49 Y-166.784 Z-1.039 I0 J0.163
X-76.49 Y-167.109 Z-1.1 I0 J-0.163
X-76.49 Y-166.784 Z-1.161 I0 J0.163
X-76.49 Y-167.109 Z-1.222 I0 J-0.163
X-76.49 Y-166.784 Z-1.283 I0 J0.163
X-76.49 Y-167.109 Z-1.344 I0 J-0.163
X-76.49 Y-166.784 Z-1.406 I0 J0.163
X-76.49 Y-167.109 Z-1.467 I0 J-0.163
X-76.49 Y-166.784 Z-1.528 I0 J0.163
X-76.49 Y-167.109 Z-1.589 I0 J-0.163
X-76.49 Y-166.784 Z-1.65 I0 J0.163
X-76.49 Y-167.109 Z-1.711 I0 J-0.163
X-76.49 Y-166.784 Z-1.772 I0 J0.163
X-76.49 Y-167.109 Z-1.833 I0 J-0.163
X-76.49 Y-166.784 Z-1.894 I0 J0.163
X-76.49 Y-167.109 Z-1.956 I0 J-0.163
X-76.49 Y-166.784 Z-2.017 I0 J0.163
X-76.49 Y-167.109 Z-2.078 I0 J-0.163
X-76.49 Y-166.784 Z-2.139 I0 J0.163
X-76.49 Y-167.109 Z-2.2 I0 J-0.163
X-76.49 Y-166.784 Z-2.261 I0 J0.163
X-76.637 Y-167.014 Z-2.3 I0 J-0.163
X-76.342 Y-166.879 I0.148 J0.067
X-76.637 Y-167.014 I-0.148 J-0.067
G1 X-76.619 Y-167.04
X-76.592 Y-167.056
X-76.561 Y-167.062
X-76.53 Y-167.054
X-76.385 Y-166.988
Z5
X-66.871 Y-167.869
Z1.683
Z0
Y-168.028
X-66.865 Y-168.059
X-66.847 Y-168.085
X-66.821 Y-168.103
X-66.79 Y-168.109
G3 X-66.79 Y-167.784 Z-0.061 I0 J0.163
X-66.79 Y-168.109 Z-0.122 I0 J-0.163
X-66.79 Y-167.784 Z-0.183 I0 J0.163
X-66.79 Y-168.109 Z-0.244 I0 J-0.163
X-66.79 Y-167.784 Z-0.306 I0 J0.163
X-66.79 Y-168.109 Z-0.367 I0 J-0.163
X-66.79 Y-167.784 Z-0.428 I0 J0.163
X-66.79 Y-168.109 Z-0.489 I0 J-0.163
X-66.79 Y-167.784 Z-0.55 I0 J0.163
X-66.79 Y-168.109 Z-0.611 I0 J-0.163
X-66.79 Y-167.784 Z-0.672 I0 J0.163
X-66.79 Y-168.109 Z-0.733 I0 J-0.163
X-66.79 Y-167.784 Z-0.794 I0 J0.163
X-66.79 Y-168.109 Z-0.856 I0 J-0.163
X-66.79 Y-167.784 Z-0.917 I0 J0.163
X-66.79 Y-168.109 Z-0.978 I0 J-0.163
X-66.79 Y-167.784 Z-1.039 I0 J0.163
X-66.79 Y-168.109 Z-1.1 I0 J-0.163
X-66.79 Y-167.784 Z-1.161 I0 J0.163
X-66.79 Y-168.109 Z-1.222 I0 J-0.163
X-66.79 Y-167.784 Z-1.283 I0 J0.163
X-66.79 Y-168.109 Z-1.344 I0 J-0.163
X-66.79 Y-167.784 Z-1.406 I0 J0.163
X-66.79 Y-168.109 Z-1.467 I0 J-0.163
X-66.79 Y-167.784 Z-1.528 I0 J0.163
X-66.79 Y-168.109 Z-1.589 I0 J-0.163
X-66.79 Y-167.784 Z-1.65 I0 J0.163
X-66.79 Y-168.109 Z-1.711 I0 J-0.163
X-66.79 Y-167.784 Z-1.772 I0 J0.163
X-66.79 Y-168.109 Z-1.833 I0 J-0.163
X-66.79 Y-167.784 Z-1.894 I0 J0.163
X-66.79 Y-168.109 Z-1.956 I0 J-0.163
X-66.79 Y-167.784 Z-2.017 I0 J0.163
X-66.79 Y-168.109 Z-2.078 I0 J-0.163
X-66.79 Y-167.784 Z-2.139 I0 J0.163
X-66.79 Y-168.109 Z-2.2 I0 J-0.162
X-66.79 Y-167.784 Z-2.261 I0 J0.162
X-66.937 Y-168.014 Z-2.3 I0 J-0.162
X-66.642 Y-167.879 I0.148 J0.067
X-66.937 Y-168.014 I-0.148 J-0.067
G1 X-66.919 Y-168.04
X-66.892 Y-168.056
X-66.861 Y-168.062
X-66.83 Y-168.054
X-66.685 Y-167.988
Z5
X-26.871 Y-167.869
Z1.683
Z0
Y-168.028
X-26.865 Y-168.059
X-26.847 Y-168.085
X-26.821 Y-168.103
X-26.79 Y-168.109
G3 X-26.79 Y-167.784 Z-0.061 I0 J0.163
X-26.79 Y-168.109 Z-0.122 I0 J-0.163
X-26.79 Y-167.784 Z-0.183 I0 J0.163
X-26.79 Y-168.109 Z-0.244 I0 J-0.163
X-26.79 Y-167.784 Z-0.306 I0 J0.163
X-26.79 Y-168.109 Z-0.367 I0 J-0.163
X-26.79 Y-167.784 Z-0.428 I0 J0.163
X-26.79 Y-168.109 Z-0.489 I0 J-0.163
X-26.79 Y-167.784 Z-0.55 I0 J0.163
X-26.79 Y-168.109 Z-0.611 I0 J-0.163
X-26.79 Y-167.784 Z-0.672 I0 J0.163
X-26.79 Y-168.109 Z-0.733 I0 J-0.163
X-26.79 Y-167.784 Z-0.794 I0 J0.163
X-26.79 Y-168.109 Z-0.856 I0 J-0.163
X-26.79 Y-167.784 Z-0.917 I0 J0.163
X-26.79 Y-168.109 Z-0.978 I0 J-0.163
X-26.79 Y-167.784 Z-1.039 I0 J0.163
X-26.79 Y-168.109 Z-1.1 I0 J-0.163
X-26.79 Y-167.784 Z-1.161 I0 J0.163
X-26.79 Y-168.109 Z-1.222 I0 J-0.163
X-26.79 Y-167.784 Z-1.283 I0 J0.163
X-26.79 Y-168.109 Z-1.344 I0 J-0.163
X-26.79 Y-167.784 Z-1.406 I0 J0.163
X-26.79 Y-168.109 Z-1.467 I0 J-0.163
X-26.79 Y-167.784 Z-1.528 I0 J0.163
X-26.79 Y-168.109 Z-1.589 I0 J-0.163
X-26.79 Y-167.784 Z-1.65 I0 J0.163
X-26.79 Y-168.109 Z-1.711 I0 J-0.163
X-26.79 Y-167.784 Z-1.772 I0 J0.163
X-26.79 Y-168.109 Z-1.833 I0 J-0.163
X-26.79 Y-167.784 Z-1.894 I0 J0.163
X-26.79 Y-168.109 Z-1.956 I0 J-0.163
X-26.79 Y-167.784 Z-2.017 I0 J0.163
X-26.79 Y-168.109 Z-2.078 I0 J-0.163
X-26.79 Y-167.784 Z-2.139 I0 J0.163
X-26.79 Y-168.109 Z-2.2 I0 J-0.163
X-26.79 Y-167.784 Z-2.261 I0 J0.163
X-26.937 Y-168.014 Z-2.3 I0 J-0.163
X-26.642 Y-167.879 I0.148 J0.067
X-26.937 Y-168.014 I-0.148 J-0.067
G1 X-26.919 Y-168.04
X-26.892 Y-168.056
X-26.861 Y-168.062
X-26.83 Y-168.054
X-26.685 Y-167.988
Z5
X-26.708 Y-107.827
Z1.683
Z0
Y-107.668
X-26.715 Y-107.637
X-26.732 Y-107.611
X-26.758 Y-107.593
X-26.79 Y-107.587
G3 X-26.79 Y-107.912 Z-0.061 I0 J-0.163
X-26.79 Y-107.587 Z-0.122 I0 J0.163
X-26.79 Y-107.912 Z-0.183 I0 J-0.163
X-26.79 Y-107.587 Z-0.244 I0 J0.163
X-26.79 Y-107.912 Z-0.306 I0 J-0.163
X-26.79 Y-107.587 Z-0.367 I0 J0.163
X-26.79 Y-107.912 Z-0.428 I0 J-0.163
X-26.79 Y-107.587 Z-0.489 I0 J0.163
X-26.79 Y-107.912 Z-0.55 I0 J-0.163
X-26.79 Y-107.587 Z-0.611 I0 J0.163
X-26.79 Y-107.912 Z-0.672 I0 J-0.163
X-26.79 Y-107.587 Z-0.733 I0 J0.163
X-26.79 Y-107.912 Z-0.794 I0 J-0.163
X-26.79 Y-107.587 Z-0.856 I0 J0.163
X-26.79 Y-107.912 Z-0.917 I0 J-0.163
X-26.79 Y-107.587 Z-0.978 I0 J0.163
X-26.79 Y-107.912 Z-1.039 I0 J-0.163
X-26.79 Y-107.587 Z-1.1 I0 J0.163
X-26.79 Y-107.912 Z-1.161 I0 J-0.163
X-26.79 Y-107.587 Z-1.222 I0 J0.163
X-26.79 Y-107.912 Z-1.283 I0 J-0.163
X-26.79 Y-107.587 Z-1.344 I0 J0.163
X-26.79 Y-107.912 Z-1.406 I0 J-0.163
X-26.79 Y-107.587 Z-1.467 I0 J0.163
X-26.79 Y-107.912 Z-1.528 I0 J-0.163
X-26.79 Y-107.587 Z-1.589 I0 J0.163
X-26.79 Y-107.912 Z-1.65 I0 J-0.163
X-26.79 Y-107.587 Z-1.711 I0 J0.163
X-26.79 Y-107.912 Z-1.772 I0 J-0.163
X-26.79 Y-107.587 Z-1.833 I0 J0.163
X-26.79 Y-107.912 Z-1.894 I0 J-0.163
X-26.79 Y-107.587 Z-1.956 I0 J0.163
X-26.79 Y-107.912 Z-2.017 I0 J-0.163
X-26.79 Y-107.587 Z-2.078 I0 J0.163
X-26.79 Y-107.912 Z-2.139 I0 J-0.163
X-26.79 Y-107.587 Z-2.2 I0 J0.163
X-26.79 Y-107.912 Z-2.261 I0 J-0.163
X-26.642 Y-107.682 Z-2.3 I0 J0.163
X-26.937 Y-107.817 I-0.148 J-0.067
X-26.642 Y-107.682 I0.148 J0.067
G1 X-26.66 Y-107.656
X-26.687 Y-107.639
X-26.719 Y-107.634
X-26.749 Y-107.642
X-26.894 Y-107.708
Z5
X-11.919 Y-76.077
Z1.683
Z0
Y-75.919
X-11.925 Y-75.888
X-11.943 Y-75.861
X-11.969 Y-75.844
X-12 Y-75.838
G3 X-12 Y-76.162 Z-0.061 I0 J-0.162
X-12 Y-75.838 Z-0.122 I0 J0.162
X-12 Y-76.162 Z-0.183 I0 J-0.162
X-12 Y-75.838 Z-0.244 I0 J0.162
X-12 Y-76.162 Z-0.306 I0 J-0.162
X-12 Y-75.838 Z-0.367 I0 J0.162
X-12 Y-76.162 Z-0.428 I0 J-0.162
X-12 Y-75.838 Z-0.489 I0 J0.162
X-12 Y-76.162 Z-0.55 I0 J-0.162
X-12 Y-75.838 Z-0.611 I0 J0.162
X-12 Y-76.162 Z-0.672 I0 J-0.162
X-12 Y-75.838 Z-0.733 I0 J0.162
X-12 Y-76.162 Z-0.794 I0 J-0.162
X-12 Y-75.838 Z-0.856 I0 J0.162
X-12 Y-76.162 Z-0.917 I0 J-0.162
X-12 Y-75.838 Z-0.978 I0 J0.162
X-12 Y-76.162 Z-1.039 I0 J-0.162
X-12 Y-75.838 Z-1.1 I0 J0.162
X-12 Y-76.162 Z-1.161 I0 J-0.162
X-12 Y-75.838 Z-1.222 I0 J0.162
X-12 Y-76.162 Z-1.283 I0 J-0.162
X-12 Y-75.838 Z-1.344 I0 J0.162
X-12 Y-76.162 Z-1.406 I0 J-0.162
X-12 Y-75.838 Z-1.467 I0 J0.162
X-12 Y-76.162 Z-1.528 I0 J-0.162
X-12 Y-75.838 Z-1.589 I0 J0.162
X-12 Y-76.162 Z-1.65 I0 J-0.162
X-12 Y-75.838 Z-1.711 I0 J0.162
X-12 Y-76.162 Z-1.772 I0 J-0.162
X-12 Y-75.838 Z-1.833 I0 J0.162
X-12 Y-76.162 Z-1.894 I0 J-0.162
X-12 Y-75.838 Z-1.956 I0 J0.162
X-12 Y-76.162 Z-2.017 I0 J-0.162
X-12 Y-75.838 Z-2.078 I0 J0.162
X-12 Y-76.162 Z-2.139 I0 J-0.162
X-12 Y-75.838 Z-2.2 I0 J0.162
X-12 Y-76.162 Z-2.261 I0 J-0.162
X-11.852 Y-75.933 Z-2.3 I0 J0.162
X-12.148 Y-76.067 I-0.148 J-0.067
X-11.852 Y-75.933 I0.148 J0.067
G1 X-11.871 Y-75.907
X-11.898 Y-75.89
X-11.929 Y-75.885
X-11.96 Y-75.892
X-12.104 Y-75.958
Z5
X-11.919 Y-28.077
Z1.683
Z0
Y-27.919
X-11.925 Y-27.888
X-11.943 Y-27.861
X-11.969 Y-27.844
X-12 Y-27.837
G3 X-12 Y-28.163 Z-0.061 I0 J-0.163
X-12 Y-27.837 Z-0.122 I0 J0.163
X-12 Y-28.163 Z-0.183 I0 J-0.163
X-12 Y-27.837 Z-0.244 I0 J0.163
X-12 Y-28.163 Z-0.306 I0 J-0.163
X-12 Y-27.837 Z-0.367 I0 J0.163
X-12 Y-28.163 Z-0.428 I0 J-0.163
X-12 Y-27.837 Z-0.489 I0 J0.163
X-12 Y-28.163 Z-0.55 I0 J-0.163
X-12 Y-27.837 Z-0.611 I0 J0.163
X-12 Y-28.163 Z-0.672 I0 J-0.163
X-12 Y-27.837 Z-0.733 I0 J0.163
X-12 Y-28.163 Z-0.794 I0 J-0.163
X-12 Y-27.837 Z-0.856 I0 J0.163
X-12 Y-28.163 Z-0.917 I0 J-0.163
X-12 Y-27.837 Z-0.978 I0 J0.163
X-12 Y-28.163 Z-1.039 I0 J-0.163
X-12 Y-27.837 Z-1.1 I0 J0.163
X-12 Y-28.163 Z-1.161 I0 J-0.163
X-12 Y-27.837 Z-1.222 I0 J0.163
X-12 Y-28.163 Z-1.283 I0 J-0.163
X-12 Y-27.837 Z-1.344 I0 J0.163
X-12 Y-28.163 Z-1.406 I0 J-0.163
X-12 Y-27.837 Z-1.467 I0 J0.163
X-12 Y-28.163 Z-1.528 I0 J-0.163
X-12 Y-27.837 Z-1.589 I0 J0.163
X-12 Y-28.163 Z-1.65 I0 J-0.163
X-12 Y-27.837 Z-1.711 I0 J0.163
X-12 Y-28.163 Z-1.772 I0 J-0.163
X-12 Y-27.837 Z-1.833 I0 J0.163
X-12 Y-28.163 Z-1.894 I0 J-0.163
X-12 Y-27.837 Z-1.956 I0 J0.163
X-12 Y-28.163 Z-2.017 I0 J-0.163
X-12 Y-27.837 Z-2.078 I0 J0.163
X-12 Y-28.163 Z-2.139 I0 J-0.163
X-12 Y-27.837 Z-2.2 I0 J0.163
X-12 Y-28.163 Z-2.261 I0 J-0.163
X-11.852 Y-27.933 Z-2.3 I0 J0.163
X-12.148 Y-28.067 I-0.148 J-0.067
X-11.852 Y-27.933 I0.148 J0.067
G1 X-11.871 Y-27.907
X-11.898 Y-27.89
X-11.929 Y-27.885
X-11.96 Y-27.892
X-12.104 Y-27.958
Z15
(When using Fusion for Personal Use, the feedrate of rapid)
(moves is reduced to match the feedrate of cutting moves,)
(which can increase machining time. Unrestricted rapid moves)
(are available with a Fusion Subscription.)

(2D-Kontur2)
G0 X-154.588 Y-163.291
G1 Z15 F1000
Z5
Z2.5 F333.3
S5000
G3 X-153.79 Y-163.76 Z2.475 I0.798 J0.443
G1 X-125.79 Z1.741
G3 X-125.79 Y-161.936 Z1.666 I0 J0.912
G1 X-153.79 Z0.933
G3 X-153.79 Y-163.76 Z0.858 I0 J-0.913
G1 X-125.79 Z0.125
G3 X-125.79 Y-161.936 Z0.05 I0 J0.912
G1 X-153.79 Z-0.683
G3 X-153.79 Y-163.76 Z-0.759 I0 J-0.913
G1 X-125.79 Z-1.492
G3 X-125.79 Y-161.936 Z-1.567 I0 J0.912
G1 X-153.79 Z-2.3
S6000
G3 X-153.79 Y-163.76 I0 J-0.913 F1000
G1 X-125.79
G3 X-125.79 Y-161.936 I0 J0.912
G1 X-153.79
G3 X-154.107 Y-162.253 I0 J-0.318
G1 Y-162.57
G19 G2 Y-162.888 Z-1.983 J0 K0.317
G1 Z5
X-154.588 Y-113.291
Z2.5 F333.3
S5000
G17 G3 X-153.79 Y-113.76 Z2.475 I0.798 J0.443
G1 X-125.79 Z1.741
G3 X-125.79 Y-111.936 Z1.666 I0 J0.912
G1 X-153.79 Z0.933
G3 X-153.79 Y-113.76 Z0.858 I0 J-0.912
G1 X-125.79 Z0.125
G3 X-125.79 Y-111.936 Z0.05 I0 J0.912
G1 X-153.79 Z-0.683
G3 X-153.79 Y-113.76 Z-0.759 I0 J-0.912
G1 X-125.79 Z-1.492
G3 X-125.79 Y-111.936 Z-1.567 I0 J0.912
G1 X-153.79 Z-2.3
S6000
G3 X-153.79 Y-113.76 I0 J-0.912 F1000
G1 X-125.79
G3 X-125.79 Y-111.936 I0 J0.912
G1 X-153.79
G3 X-154.107 Y-112.253 I0 J-0.317
G1 Y-112.571
G19 G2 Y-112.888 Z-1.983 J0 K0.317
G1 Z5
X-237.588 Y-113.291
Z2.5 F333.3
S5000
G17 G3 X-236.79 Y-113.76 Z2.475 I0.798 J0.443
G1 X-208.79 Z1.741
G3 X-208.79 Y-111.936 Z1.666 I0 J0.912
G1 X-236.79 Z0.933
G3 X-236.79 Y-113.76 Z0.858 I0 J-0.912
G1 X-208.79 Z0.125
G3 X-208.79 Y-111.936 Z0.05 I0 J0.912
G1 X-236.79 Z-0.683
G3 X-236.79 Y-113.76 Z-0.759 I0 J-0.912
G1 X-208.79 Z-1.492
G3 X-208.79 Y-111.936 Z-1.567 I0 J0.912
G1 X-236.79 Z-2.3
S6000
G3 X-236.79 Y-113.76 I0 J-0.912 F1000
G1 X-208.79
G3 X-208.79 Y-111.936 I0 J0.912
G1 X-236.79
G3 X-237.107 Y-112.253 I0 J-0.317
G1 Y-112.571
G19 G2 Y-112.888 Z-1.983 J0 K0.317
G1 Z5
X-210.686 Y-161.936
Z2.5 F333.3
S5000
X-236.79 Z1.816
G17 G3 X-236.79 Y-163.76 Z1.741 I0 J-0.913
G1 X-208.79 Z1.008
G3 X-208.79 Y-161.936 Z0.933 I0 J0.912
G1 X-236.79 Z0.2
G3 X-236.79 Y-163.76 Z0.125 I0 J-0.913
G1 X-208.79 Z-0.608
G3 X-208.79 Y-161.936 Z-0.683 I0 J0.912
G1 X-236.79 Z-1.417
G3 X-236.79 Y-163.76 Z-1.492 I0 J-0.913
G1 X-208.79 Z-2.225
G3 X-208.79 Y-161.936 Z-2.3 I0 J0.912
S6000
G1 X-236.79 F1000
G3 X-236.79 Y-163.76 I0 J-0.913
G1 X-208.79
G3 X-208.79 Y-161.936 I0 J0.912
X-209.107 Y-162.253 I0 J-0.318
G1 Y-162.57
G19 G2 Y-162.888 Z-1.983 J0 K0.317
G1 Z5
X-57.794 Y-124.587
Z2.5 F333.3
S5000
G17 G3 X-60.202 Y-127.848 Z2.386 I1.004 J-3.261
G1 Y-147.848 Z1.863
G3 X-53.377 Y-147.848 Z1.582 I3.412 J0
G1 Y-127.848 Z1.058
G3 X-60.202 Y-127.848 Z0.777 I-3.412 J0
G1 Y-147.848 Z0.254
G3 X-53.377 Y-147.848 Z-0.027 I3.412 J0
G1 Y-127.848 Z-0.551
G3 X-60.202 Y-127.848 Z-0.831 I-3.412 J0
G1 Y-147.848 Z-1.355
G3 X-53.377 Y-147.848 Z-1.636 I3.412 J0
G1 Y-127.848 Z-2.16
G3 X-56.79 Y-124.436 Z-2.3 I-3.412 J0
S6000
X-60.202 Y-127.848 I0 J-3.412 F1000
G1 Y-147.848
G3 X-53.377 Y-147.848 I3.412 J0
G1 Y-127.848
G3 X-56.79 Y-124.436 I-3.412 J0
X-57.107 Y-124.753 I0 J-0.317
G1 Y-125.071
G19 G2 Y-125.388 Z-1.983 J0 K0.317
G1 Z15
G17
(When using Fusion for Personal Use, the feedrate of rapid)
(moves is reduced to match the feedrate of cutting moves,)
(which can increase machining time. Unrestricted rapid moves)
(are available with a Fusion Subscription.)

(2D-Kontur3)
G0 X-120.03 Y-138.165
G1 Z15 F1000
Z5
Z0.635 F333.3
Z-0.683
G18 G2 X-119.713 Z-1 I0.317 K0 F1000
G1 X-119.395
G17 G3 X-119.077 Y-137.848 I0 J0.317
G1 Y-124.866
X-132.059 Y-137.848
X-119.077 Y-150.83
Y-137.848
G3 X-119.395 Y-137.531 I-0.317 J0
G1 X-119.713
G18 G3 X-120.03 Z-0.683 I0 K0.317
G1 Z5
Y-138.165
Z-0.365 F333.3
Z-1.683
G2 X-119.713 Z-2 I0.317 K0 F1000
G1 X-119.395
G17 G3 X-119.077 Y-137.848 I0 J0.317
G1 Y-124.866
X-132.059 Y-137.848
X-119.077 Y-150.83
Y-137.848
G3 X-119.395 Y-137.531 I-0.317 J0
G1 X-119.713
G18 G3 X-120.03 Z-1.683 I0 K0.317
G1 Z5
Y-138.165
Z-1.365 F333.3
Z-1.983
G2 X-119.713 Z-2.3 I0.317 K0 F1000
G1 X-119.395
G17 G3 X-119.077 Y-137.848 I0 J0.317
G1 Y-124.866
X-132.059 Y-137.848
X-119.077 Y-150.83
Y-137.848
G3 X-119.395 Y-137.531 I-0.317 J0
G1 X-119.713
G18 G3 X-120.03 Z-1.983 I0 K0.317
G1 Z5
X-94.808 Y-133.128
Z0.635 F333.3
Z-0.683
X-94.803 Y-133.122 Z-0.753 F1000
X-94.789 Y-133.103 Z-0.82
X-94.766 Y-133.073 Z-0.88
X-94.736 Y-133.033 Z-0.931
X-94.7 Y-132.985 Z-0.969
X-94.659 Y-132.932 Z-0.992
X-94.616 Y-132.875 Z-1
X-94.424 Y-132.623
G17 G3 X-94.486 Y-132.178 I-0.253 J0.192
G1 X-105.902 Y-123.518
Y-152.177
X-87.009 Y-137.848
X-94.486 Y-132.178
G3 X-94.93 Y-132.239 I-0.192 J-0.253
G1 X-95.122 Y-132.492
X-95.165 Y-132.548 Z-0.992
X-95.205 Y-132.602 Z-0.969
X-95.242 Y-132.649 Z-0.931
X-95.272 Y-132.69 Z-0.88
X-95.295 Y-132.72 Z-0.82
X-95.309 Y-132.738 Z-0.753
X-95.314 Y-132.745 Z-0.683
Z5
X-94.808 Y-133.128
Z-0.365 F333.3
Z-1.683
X-94.803 Y-133.122 Z-1.753 F1000
X-94.789 Y-133.103 Z-1.82
X-94.766 Y-133.073 Z-1.88
X-94.736 Y-133.033 Z-1.931
X-94.7 Y-132.985 Z-1.969
X-94.659 Y-132.932 Z-1.992
X-94.616 Y-132.875 Z-2
X-94.424 Y-132.623
G3 X-94.486 Y-132.178 I-0.253 J0.192
G1 X-105.902 Y-123.518
Y-152.177
X-87.009 Y-137.848
X-94.486 Y-132.178
G3 X-94.93 Y-132.239 I-0.192 J-0.253
G1 X-95.122 Y-132.492
X-95.165 Y-132.548 Z-1.992
X-95.205 Y-132.602 Z-1.969
X-95.242 Y-132.649 Z-1.931
X-95.272 Y-132.69 Z-1.88
X-95.295 Y-132.72 Z-1.82
X-95.309 Y-132.738 Z-1.753
X-95.314 Y-132.745 Z-1.683
Z5
X-94.808 Y-133.128
Z-1.365 F333.3
Z-1.983
X-94.803 Y-133.122 Z-2.053 F1000
X-94.789 Y-133.103 Z-2.12
X-94.766 Y-133.073 Z-2.18
X-94.736 Y-133.033 Z-2.231
X-94.7 Y-132.985 Z-2.269
X-94.659 Y-132.932 Z-2.292
X-94.616 Y-132.875 Z-2.3
X-94.424 Y-132.623
G3 X-94.486 Y-132.178 I-0.253 J0.192
G1 X-105.902 Y-123.518
Y-152.177
X-87.009 Y-137.848
X-94.486 Y-132.178
G3 X-94.93 Y-132.239 I-0.192 J-0.253
G1 X-95.122 Y-132.492
X-95.165 Y-132.548 Z-2.292
X-95.205 Y-132.602 Z-2.269
X-95.242 Y-132.649 Z-2.231
X-95.272 Y-132.69 Z-2.18
X-95.295 Y-132.72 Z-2.12
X-95.309 Y-132.738 Z-2.053
X-95.314 Y-132.745 Z-1.983
Z5
X-74.33 Y-123.072
Z0.635 F333.3
Z-0.683
G18 G2 X-74.012 Z-1 I0.317 K0 F1000
G1 X-73.695
G17 G3 X-73.377 Y-122.755 I0 J0.317
G1 Y-118.337
X-90.933
X-73.377 Y-131.651
Y-122.755
G3 X-73.695 Y-122.437 I-0.318 J0
G1 X-74.012
G18 G3 X-74.33 Z-0.683 I0 K0.317
G1 Z5
Y-123.072
Z-0.365 F333.3
Z-1.683
G2 X-74.012 Z-2 I0.317 K0 F1000
G1 X-73.695
G17 G3 X-73.377 Y-122.755 I0 J0.317
G1 Y-118.337
X-90.933
X-73.377 Y-131.651
Y-122.755
G3 X-73.695 Y-122.437 I-0.318 J0
G1 X-74.012
G18 G3 X-74.33 Z-1.683 I0 K0.317
G1 Z5
Y-123.072
Z-1.365 F333.3
Z-1.983
G2 X-74.012 Z-2.3 I0.317 K0 F1000
G1 X-73.695
G17 G3 X-73.377 Y-122.755 I0 J0.317
G1 Y-118.337
X-90.933
X-73.377 Y-131.651
Y-122.755
G3 X-73.695 Y-122.437 I-0.318 J0
G1 X-74.012
G18 G3 X-74.33 Z-1.983 I0 K0.317
G1 Z5
Y-153.259
Z0.635 F333.3
Z-0.683
G2 X-74.012 Z-1 I0.317 K0 F1000
G1 X-73.695
G17 G3 X-73.377 Y-152.941 I0 J0.318
G1 Y-144.045
X-90.933 Y-157.359
X-73.377
Y-152.941
G3 X-73.695 Y-152.624 I-0.318 J0
G1 X-74.012
G18 G3 X-74.33 Z-0.683 I0 K0.317
G1 Z5
Y-153.259
Z-0.365 F333.3
Z-1.683
G2 X-74.012 Z-2 I0.317 K0 F1000
G1 X-73.695
G17 G3 X-73.377 Y-152.941 I0 J0.318
G1 Y-144.045
X-90.933 Y-157.359
X-73.377
Y-152.941
G3 X-73.695 Y-152.624 I-0.318 J0
G1 X-74.012
G18 G3 X-74.33 Z-1.683 I0 K0.317
G1 Z5
Y-153.259
Z-1.365 F333.3
Z-1.983
G2 X-74.012 Z-2.3 I0.317 K0 F1000
G1 X-73.695
G17 G3 X-73.377 Y-152.941 I0 J0.318
G1 Y-144.045
X-90.933 Y-157.359
X-73.377
Y-152.941
G3 X-73.695 Y-152.624 I-0.318 J0
G1 X-74.012
G18 G3 X-74.33 Z-1.983 I0 K0.317
G1 Z5
X-23.085 Y-147.498
Z0.635 F333.3
Z-0.683
X-23.081 Y-147.505 Z-0.753 F1000
X-23.069 Y-147.525 Z-0.82
X-23.05 Y-147.558 Z-0.88
X-23.025 Y-147.602 Z-0.931
X-22.995 Y-147.654 Z-0.969
X-22.961 Y-147.712 Z-0.992
X-22.926 Y-147.773 Z-1
X-22.767 Y-148.048
G17 G3 X-22.334 Y-148.164 I0.275 J0.159
G1 X-16.377 Y-144.725
Y-130.971
X-28.29 Y-124.093
X-40.202 Y-130.971
Y-144.725
X-28.29 Y-151.603
X-22.334 Y-148.164
G3 X-22.217 Y-147.731 I-0.159 J0.275
G1 X-22.376 Y-147.456
X-22.411 Y-147.394 Z-0.992
X-22.445 Y-147.336 Z-0.969
X-22.475 Y-147.284 Z-0.931
X-22.5 Y-147.241 Z-0.88
X-22.519 Y-147.208 Z-0.82
X-22.531 Y-147.188 Z-0.753
X-22.535 Y-147.181 Z-0.683
Z5
X-23.085 Y-147.498
Z-0.365 F333.3
Z-1.683
X-23.081 Y-147.505 Z-1.753 F1000
X-23.069 Y-147.525 Z-1.82
X-23.05 Y-147.558 Z-1.88
X-23.025 Y-147.602 Z-1.931
X-22.995 Y-147.654 Z-1.969
X-22.961 Y-147.712 Z-1.992
X-22.926 Y-147.773 Z-2
X-22.767 Y-148.048
G3 X-22.334 Y-148.164 I0.275 J0.159
G1 X-16.377 Y-144.725
Y-130.971
X-28.29 Y-124.093
X-40.202 Y-130.971
Y-144.725
X-28.29 Y-151.603
X-22.334 Y-148.164
G3 X-22.217 Y-147.731 I-0.159 J0.275
G1 X-22.376 Y-147.456
X-22.411 Y-147.394 Z-1.992
X-22.445 Y-147.336 Z-1.969
X-22.475 Y-147.284 Z-1.931
X-22.5 Y-147.241 Z-1.88
X-22.519 Y-147.208 Z-1.82
X-22.531 Y-147.188 Z-1.753
X-22.535 Y-147.181 Z-1.683
Z5
X-23.085 Y-147.498
Z-1.365 F333.3
Z-1.983
X-23.081 Y-147.505 Z-2.053 F1000
X-23.069 Y-147.525 Z-2.12
X-23.05 Y-147.558 Z-2.18
X-23.025 Y-147.602 Z-2.231
X-22.995 Y-147.654 Z-2.269
X-22.961 Y-147.712 Z-2.292
X-22.926 Y-147.773 Z-2.3
X-22.767 Y-148.048
G3 X-22.334 Y-148.164 I0.275 J0.159
G1 X-16.377 Y-144.725
Y-130.971
X-28.29 Y-124.093
X-40.202 Y-130.971
Y-144.725
X-28.29 Y-151.603
X-22.334 Y-148.164
G3 X-22.217 Y-147.731 I-0.159 J0.275
G1 X-22.376 Y-147.456
X-22.411 Y-147.394 Z-2.292
X-22.445 Y-147.336 Z-2.269
X-22.475 Y-147.284 Z-2.231
X-22.5 Y-147.241 Z-2.18
X-22.519 Y-147.208 Z-2.12
X-22.531 Y-147.188 Z-2.053
X-22.535 Y-147.181 Z-1.983
Z5
X-137.993 Y-146.237
Z0.635 F333.3
Z-0.683
X-137.988 Y-146.231 Z-0.753 F1000
X-137.971 Y-146.215 Z-0.82
X-137.944 Y-146.188 Z-0.88
X-137.909 Y-146.152 Z-0.931
X-137.866 Y-146.11 Z-0.969
X-137.819 Y-146.062 Z-0.992
X-137.769 Y-146.012 Z-1
X-137.544 Y-145.788
G3 X-137.544 Y-145.339 I-0.225 J0.225
G1 X-139.79 Y-143.093
X-147.457 Y-150.76
X-132.123
X-137.544 Y-145.339
G3 X-137.993 Y-145.339 I-0.225 J-0.225
G1 X-138.218 Y-145.563
X-138.268 Y-145.613 Z-0.992
X-138.315 Y-145.661 Z-0.969
X-138.358 Y-145.703 Z-0.931
X-138.393 Y-145.739 Z-0.88
X-138.42 Y-145.766 Z-0.82
X-138.437 Y-145.782 Z-0.753
X-138.442 Y-145.788 Z-0.683
Z5
X-137.993 Y-146.237
Z-0.365 F333.3
Z-1.683
X-137.988 Y-146.231 Z-1.753 F1000
X-137.971 Y-146.215 Z-1.82
X-137.944 Y-146.188 Z-1.88
X-137.909 Y-146.152 Z-1.931
X-137.866 Y-146.11 Z-1.969
X-137.819 Y-146.062 Z-1.992
X-137.769 Y-146.012 Z-2
X-137.544 Y-145.788
G3 X-137.544 Y-145.339 I-0.225 J0.225
G1 X-139.79 Y-143.093
X-147.457 Y-150.76
X-132.123
X-137.544 Y-145.339
G3 X-137.993 Y-145.339 I-0.225 J-0.225
G1 X-138.218 Y-145.563
X-138.268 Y-145.613 Z-1.992
X-138.315 Y-145.661 Z-1.969
X-138.358 Y-145.703 Z-1.931
X-138.393 Y-145.739 Z-1.88
X-138.42 Y-145.766 Z-1.82
X-138.437 Y-145.782 Z-1.753
X-138.442 Y-145.788 Z-1.683
Z5
X-137.993 Y-146.237
Z-1.365 F333.3
Z-1.983
X-137.988 Y-146.231 Z-2.053 F1000
X-137.971 Y-146.215 Z-2.12
X-137.944 Y-146.188 Z-2.18
X-137.909 Y-146.152 Z-2.231
X-137.866 Y-146.11 Z-2.269
X-137.819 Y-146.062 Z-2.292
X-137.769 Y-146.012 Z-2.3
X-137.544 Y-145.788
G3 X-137.544 Y-145.339 I-0.225 J0.225
G1 X-139.79 Y-143.093
X-147.457 Y-150.76
X-132.123
X-137.544 Y-145.339
G3 X-137.993 Y-145.339 I-0.225 J-0.225
G1 X-138.218 Y-145.563
X-138.268 Y-145.613 Z-2.292
X-138.315 Y-145.661 Z-2.269
X-138.358 Y-145.703 Z-2.231
X-138.393 Y-145.739 Z-2.18
X-138.42 Y-145.766 Z-2.12
X-138.437 Y-145.782 Z-2.053
X-138.442 Y-145.788 Z-1.983
Z5
X-151.979 Y-134.736
Z0.635 F333.3
Z-0.683
X-151.974 Y-134.73 Z-0.753 F1000
X-151.957 Y-134.713 Z-0.82
X-151.93 Y-134.687 Z-0.88
X-151.895 Y-134.651 Z-0.931
X-151.852 Y-134.608 Z-0.969
X-151.805 Y-134.561 Z-0.992
X-151.755 Y-134.511 Z-1
X-151.53 Y-134.287
G3 X-151.53 Y-133.838 I-0.225 J0.225
G1 X-161.212 Y-124.155
Y-151.54
X-147.52 Y-137.848
X-151.53 Y-133.838
G3 X-151.979 Y-133.837 I-0.225 J-0.224
G1 X-152.204 Y-134.062
X-152.254 Y-134.112 Z-0.992
X-152.301 Y-134.159 Z-0.969
X-152.344 Y-134.202 Z-0.931
X-152.379 Y-134.238 Z-0.88
X-152.406 Y-134.264 Z-0.82
X-152.423 Y-134.281 Z-0.753
X-152.428 Y-134.286 Z-0.683
Z5
X-151.979 Y-134.736
Z-0.365 F333.3
Z-1.683
X-151.974 Y-134.73 Z-1.753 F1000
X-151.957 Y-134.713 Z-1.82
X-151.93 Y-134.687 Z-1.88
X-151.895 Y-134.651 Z-1.931
X-151.852 Y-134.608 Z-1.969
X-151.805 Y-134.561 Z-1.992
X-151.755 Y-134.511 Z-2
X-151.53 Y-134.287
G3 X-151.53 Y-133.838 I-0.225 J0.225
G1 X-161.212 Y-124.155
Y-151.54
X-147.52 Y-137.848
X-151.53 Y-133.838
G3 X-151.979 Y-133.837 I-0.225 J-0.224
G1 X-152.204 Y-134.062
X-152.254 Y-134.112 Z-1.992
X-152.301 Y-134.159 Z-1.969
X-152.344 Y-134.202 Z-1.931
X-152.379 Y-134.238 Z-1.88
X-152.406 Y-134.264 Z-1.82
X-152.423 Y-134.281 Z-1.753
X-152.428 Y-134.286 Z-1.683
Z5
X-151.979 Y-134.736
Z-1.365 F333.3
Z-1.983
X-151.974 Y-134.73 Z-2.053 F1000
X-151.957 Y-134.713 Z-2.12
X-151.93 Y-134.687 Z-2.18
X-151.895 Y-134.651 Z-2.231
X-151.852 Y-134.608 Z-2.269
X-151.805 Y-134.561 Z-2.292
X-151.755 Y-134.511 Z-2.3
X-151.53 Y-134.287
G3 X-151.53 Y-133.838 I-0.225 J0.225
G1 X-161.212 Y-124.155
Y-151.54
X-147.52 Y-137.848
X-151.53 Y-133.838
G3 X-151.979 Y-133.837 I-0.225 J-0.224
G1 X-152.204 Y-134.062
X-152.254 Y-134.112 Z-2.292
X-152.301 Y-134.159 Z-2.269
X-152.344 Y-134.202 Z-2.231
X-152.379 Y-134.238 Z-2.18
X-152.406 Y-134.264 Z-2.12
X-152.423 Y-134.281 Z-2.053
X-152.428 Y-134.286 Z-1.983
Z5
X-138.442 Y-129.908
Z0.635 F333.3
Z-0.683
X-138.437 Y-129.914 Z-0.753 F1000
X-138.42 Y-129.93 Z-0.82
X-138.393 Y-129.957 Z-0.88
X-138.358 Y-129.993 Z-0.931
X-138.315 Y-130.035 Z-0.969
X-138.268 Y-130.083 Z-0.992
X-138.218 Y-130.133 Z-1
X-137.993 Y-130.357
G3 X-137.544 Y-130.357 I0.225 J0.225
G1 X-132.123 Y-124.936
X-147.457
X-139.79 Y-132.603
X-137.544 Y-130.357
G3 X-137.544 Y-129.908 I-0.225 J0.225
G1 X-137.769 Y-129.684
X-137.819 Y-129.634 Z-0.992
X-137.866 Y-129.586 Z-0.969
X-137.909 Y-129.544 Z-0.931
X-137.944 Y-129.508 Z-0.88
X-137.971 Y-129.481 Z-0.82
X-137.988 Y-129.465 Z-0.753
X-137.993 Y-129.459 Z-0.683
Z5
X-138.442 Y-129.908
Z-0.365 F333.3
Z-1.683
X-138.437 Y-129.914 Z-1.753 F1000
X-138.42 Y-129.93 Z-1.82
X-138.393 Y-129.957 Z-1.88
X-138.358 Y-129.993 Z-1.931
X-138.315 Y-130.035 Z-1.969
X-138.268 Y-130.083 Z-1.992
X-138.218 Y-130.133 Z-2
X-137.993 Y-130.357
G3 X-137.544 Y-130.357 I0.225 J0.225
G1 X-132.123 Y-124.936
X-147.457
X-139.79 Y-132.603
X-137.544 Y-130.357
G3 X-137.544 Y-129.908 I-0.225 J0.225
G1 X-137.769 Y-129.684
X-137.819 Y-129.634 Z-1.992
X-137.866 Y-129.586 Z-1.969
X-137.909 Y-129.544 Z-1.931
X-137.944 Y-129.508 Z-1.88
X-137.971 Y-129.481 Z-1.82
X-137.988 Y-129.465 Z-1.753
X-137.993 Y-129.459 Z-1.683
Z5
X-138.442 Y-129.908
Z-1.365 F333.3
Z-1.983
X-138.437 Y-129.914 Z-2.053 F1000
X-138.42 Y-129.93 Z-2.12
X-138.393 Y-129.957 Z-2.18
X-138.358 Y-129.993 Z-2.231
X-138.315 Y-130.035 Z-2.269
X-138.268 Y-130.083 Z-2.292
X-138.218 Y-130.133 Z-2.3
X-137.993 Y-130.357
G3 X-137.544 Y-130.357 I0.225 J0.225
G1 X-132.123 Y-124.936
X-147.457
X-139.79 Y-132.603
X-137.544 Y-130.357
G3 X-137.544 Y-129.908 I-0.225 J0.225
G1 X-137.769 Y-129.684
X-137.819 Y-129.634 Z-2.292
X-137.866 Y-129.586 Z-2.269
X-137.909 Y-129.544 Z-2.231
X-137.944 Y-129.508 Z-2.18
X-137.971 Y-129.481 Z-2.12
X-137.988 Y-129.465 Z-2.053
X-137.993 Y-129.459 Z-1.983
Z5
X-171.34 Y-138.165
Z0.635 F333.3
Z-0.683
G18 G2 X-171.023 Z-1 I0.317 K0 F1000
G1 X-170.705
G17 G3 X-170.387 Y-137.848 I0 J0.318
G1 Y-121.91
X-172.993
X-188.932 Y-137.848
X-172.993 Y-153.786
X-170.387
Y-137.848
G3 X-170.705 Y-137.53 I-0.318 J0
G1 X-171.023
G18 G3 X-171.34 Z-0.683 I0 K0.317
G1 Z5
Y-138.165
Z-0.365 F333.3
Z-1.683
G2 X-171.023 Z-2 I0.317 K0 F1000
G1 X-170.705
G17 G3 X-170.387 Y-137.848 I0 J0.318
G1 Y-121.91
X-172.993
X-188.932 Y-137.848
X-172.993 Y-153.786
X-170.387
Y-137.848
G3 X-170.705 Y-137.53 I-0.318 J0
G1 X-171.023
G18 G3 X-171.34 Z-1.683 I0 K0.317
G1 Z5
Y-138.165
Z-1.365 F333.3
Z-1.983
G2 X-171.023 Z-2.3 I0.317 K0 F1000
G1 X-170.705
G17 G3 X-170.387 Y-137.848 I0 J0.318
G1 Y-121.91
X-172.993
X-188.932 Y-137.848
X-172.993 Y-153.786
X-170.387
Y-137.848
G3 X-170.705 Y-137.53 I-0.318 J0
G1 X-171.023
G18 G3 X-171.34 Z-1.983 I0 K0.317
G1 Z5
X-197.057 Y-125.993
Z0.635 F333.3
Z-0.683
X-197.051 Y-125.999 Z-0.753 F1000
X-197.035 Y-126.016 Z-0.82
X-197.008 Y-126.042 Z-0.88
X-196.972 Y-126.078 Z-0.931
X-196.93 Y-126.12 Z-0.969
X-196.882 Y-126.168 Z-0.992
X-196.832 Y-126.218 Z-1
X-196.608 Y-126.442
G17 G3 X-196.159 Y-126.442 I0.224 J0.225
G1 X-191.626 Y-121.91
X-199.136
X-210.487 Y-133.26
X-202.977
X-196.159 Y-126.442
G3 X-196.159 Y-125.993 I-0.225 J0.224
G1 X-196.383 Y-125.769
X-196.433 Y-125.719 Z-0.992
X-196.481 Y-125.671 Z-0.969
X-196.523 Y-125.629 Z-0.931
X-196.559 Y-125.593 Z-0.88
X-196.586 Y-125.567 Z-0.82
X-196.602 Y-125.55 Z-0.753
X-196.608 Y-125.544 Z-0.683
Z5
X-197.057 Y-125.993
Z-0.365 F333.3
Z-1.683
X-197.051 Y-125.999 Z-1.753 F1000
X-197.035 Y-126.016 Z-1.82
X-197.008 Y-126.042 Z-1.88
X-196.972 Y-126.078 Z-1.931
X-196.93 Y-126.12 Z-1.969
X-196.882 Y-126.168 Z-1.992
X-196.832 Y-126.218 Z-2
X-196.608 Y-126.442
G3 X-196.159 Y-126.442 I0.224 J0.225
G1 X-191.626 Y-121.91
X-199.136
X-210.487 Y-133.26
X-202.977
X-196.159 Y-126.442
G3 X-196.159 Y-125.993 I-0.225 J0.224
G1 X-196.383 Y-125.769
X-196.433 Y-125.719 Z-1.992
X-196.481 Y-125.671 Z-1.969
X-196.523 Y-125.629 Z-1.931
X-196.559 Y-125.593 Z-1.88
X-196.586 Y-125.567 Z-1.82
X-196.602 Y-125.55 Z-1.753
X-196.608 Y-125.544 Z-1.683
Z5
X-197.057 Y-125.993
Z-1.365 F333.3
Z-1.983
X-197.051 Y-125.999 Z-2.053 F1000
X-197.035 Y-126.016 Z-2.12
X-197.008 Y-126.042 Z-2.18
X-196.972 Y-126.078 Z-2.231
X-196.93 Y-126.12 Z-2.269
X-196.882 Y-126.168 Z-2.292
X-196.832 Y-126.218 Z-2.3
X-196.608 Y-126.442
G3 X-196.159 Y-126.442 I0.224 J0.225
G1 X-191.626 Y-121.91
X-199.136
X-210.487 Y-133.26
X-202.977
X-196.159 Y-126.442
G3 X-196.159 Y-125.993 I-0.225 J0.224
G1 X-196.383 Y-125.769
X-196.433 Y-125.719 Z-2.292
X-196.481 Y-125.671 Z-2.269
X-196.523 Y-125.629 Z-2.231
X-196.559 Y-125.593 Z-2.18
X-196.586 Y-125.567 Z-2.12
X-196.602 Y-125.55 Z-2.053
X-196.608 Y-125.544 Z-1.983
Z5
X-202.648 Y-144.111
Z0.635 F333.3
Z-0.683
X-202.642 Y-144.106 Z-0.753 F1000
X-202.626 Y-144.089 Z-0.82
X-202.599 Y-144.062 Z-0.88
X-202.563 Y-144.027 Z-0.931
X-202.521 Y-143.984 Z-0.969
X-202.473 Y-143.937 Z-0.992
X-202.423 Y-143.887 Z-1
X-202.199 Y-143.662
G3 X-202.199 Y-143.213 I-0.225 J0.225
G1 X-202.977 Y-142.436
X-210.486
X-199.136 Y-153.786
X-191.627
X-202.199 Y-143.213
G3 X-202.648 Y-143.213 I-0.225 J-0.225
G1 X-202.872 Y-143.438
X-202.922 Y-143.488 Z-0.992
X-202.97 Y-143.535 Z-0.969
X-203.012 Y-143.578 Z-0.931
X-203.048 Y-143.613 Z-0.88
X-203.075 Y-143.64 Z-0.82
X-203.091 Y-143.657 Z-0.753
X-203.097 Y-143.662 Z-0.683
Z5
X-202.648 Y-144.111
Z-0.365 F333.3
Z-1.683
X-202.642 Y-144.106 Z-1.753 F1000
X-202.626 Y-144.089 Z-1.82
X-202.599 Y-144.062 Z-1.88
X-202.563 Y-144.027 Z-1.931
X-202.521 Y-143.984 Z-1.969
X-202.473 Y-143.937 Z-1.992
X-202.423 Y-143.887 Z-2
X-202.199 Y-143.662
G3 X-202.199 Y-143.213 I-0.225 J0.225
G1 X-202.977 Y-142.436
X-210.486
X-199.136 Y-153.786
X-191.627
X-202.199 Y-143.213
G3 X-202.648 Y-143.213 I-0.225 J-0.225
G1 X-202.872 Y-143.438
X-202.922 Y-143.488 Z-1.992
X-202.97 Y-143.535 Z-1.969
X-203.012 Y-143.578 Z-1.931
X-203.048 Y-143.613 Z-1.88
X-203.075 Y-143.64 Z-1.82
X-203.091 Y-143.657 Z-1.753
X-203.097 Y-143.662 Z-1.683
Z5
X-202.648 Y-144.111
Z-1.365 F333.3
Z-1.983
X-202.642 Y-144.106 Z-2.053 F1000
X-202.626 Y-144.089 Z-2.12
X-202.599 Y-144.062 Z-2.18
X-202.563 Y-144.027 Z-2.231
X-202.521 Y-143.984 Z-2.269
X-202.473 Y-143.937 Z-2.292
X-202.423 Y-143.887 Z-2.3
X-202.199 Y-143.662
G3 X-202.199 Y-143.213 I-0.225 J0.225
G1 X-202.977 Y-142.436
X-210.486
X-199.136 Y-153.786
X-191.627
X-202.199 Y-143.213
G3 X-202.648 Y-143.213 I-0.225 J-0.225
G1 X-202.872 Y-143.438
X-202.922 Y-143.488 Z-2.292
X-202.97 Y-143.535 Z-2.269
X-203.012 Y-143.578 Z-2.231
X-203.048 Y-143.613 Z-2.18
X-203.075 Y-143.64 Z-2.12
X-203.091 Y-143.657 Z-2.053
X-203.097 Y-143.662 Z-1.983
Z5
X-221.007 Y-146.237
Z0.635 F333.3
Z-0.683
X-221.002 Y-146.231 Z-0.753 F1000
X-220.985 Y-146.215 Z-0.82
X-220.958 Y-146.188 Z-0.88
X-220.923 Y-146.152 Z-0.931
X-220.88 Y-146.11 Z-0.969
X-220.833 Y-146.062 Z-0.992
X-220.783 Y-146.012 Z-1
X-220.558 Y-145.788
G3 X-220.558 Y-145.339 I-0.225 J0.225
G1 X-222.804 Y-143.093
X-230.471 Y-150.76
X-215.137
X-220.558 Y-145.339
G3 X-221.007 Y-145.339 I-0.225 J-0.225
G1 X-221.232 Y-145.563
X-221.282 Y-145.613 Z-0.992
X-221.329 Y-145.661 Z-0.969
X-221.372 Y-145.703 Z-0.931
X-221.407 Y-145.739 Z-0.88
X-221.434 Y-145.766 Z-0.82
X-221.451 Y-145.782 Z-0.753
X-221.456 Y-145.788 Z-0.683
Z5
X-221.007 Y-146.237
Z-0.365 F333.3
Z-1.683
X-221.002 Y-146.231 Z-1.753 F1000
X-220.985 Y-146.215 Z-1.82
X-220.958 Y-146.188 Z-1.88
X-220.923 Y-146.152 Z-1.931
X-220.88 Y-146.11 Z-1.969
X-220.833 Y-146.062 Z-1.992
X-220.783 Y-146.012 Z-2
X-220.558 Y-145.788
G3 X-220.558 Y-145.339 I-0.225 J0.225
G1 X-222.804 Y-143.093
X-230.471 Y-150.76
X-215.137
X-220.558 Y-145.339
G3 X-221.007 Y-145.339 I-0.225 J-0.225
G1 X-221.232 Y-145.563
X-221.282 Y-145.613 Z-1.992
X-221.329 Y-145.661 Z-1.969
X-221.372 Y-145.703 Z-1.931
X-221.407 Y-145.739 Z-1.88
X-221.434 Y-145.766 Z-1.82
X-221.451 Y-145.782 Z-1.753
X-221.456 Y-145.788 Z-1.683
Z5
X-221.007 Y-146.237
Z-1.365 F333.3
Z-1.983
X-221.002 Y-146.231 Z-2.053 F1000
X-220.985 Y-146.215 Z-2.12
X-220.958 Y-146.188 Z-2.18
X-220.923 Y-146.152 Z-2.231
X-220.88 Y-146.11 Z-2.269
X-220.833 Y-146.062 Z-2.292
X-220.783 Y-146.012 Z-2.3
X-220.558 Y-145.788
G3 X-220.558 Y-145.339 I-0.225 J0.225
G1 X-222.804 Y-143.093
X-230.471 Y-150.76
X-215.137
X-220.558 Y-145.339
G3 X-221.007 Y-145.339 I-0.225 J-0.225
G1 X-221.232 Y-145.563
X-221.282 Y-145.613 Z-2.292
X-221.329 Y-145.661 Z-2.269
X-221.372 Y-145.703 Z-2.231
X-221.407 Y-145.739 Z-2.18
X-221.434 Y-145.766 Z-2.12
X-221.451 Y-145.782 Z-2.053
X-221.456 Y-145.788 Z-1.983
Z5
X-234.558 Y-140.523
Z0.635 F333.3
Z-0.683
X-234.552 Y-140.529 Z-0.753 F1000
X-234.535 Y-140.546 Z-0.82
X-234.509 Y-140.572 Z-0.88
X-234.473 Y-140.608 Z-0.931
X-234.43 Y-140.651 Z-0.969
X-234.383 Y-140.698 Z-0.992
X-234.333 Y-140.748 Z-1
X-234.108 Y-140.972
G3 X-233.659 Y-140.972 I0.225 J0.225
G1 X-230.535 Y-137.848
X-241.202 Y-127.181
Y-148.515
X-233.659 Y-140.972
G3 X-233.659 Y-140.523 I-0.225 J0.225
G1 X-233.884 Y-140.299
X-233.934 Y-140.249 Z-0.992
X-233.981 Y-140.201 Z-0.969
X-234.024 Y-140.159 Z-0.931
X-234.06 Y-140.123 Z-0.88
X-234.086 Y-140.097 Z-0.82
X-234.103 Y-140.08 Z-0.753
X-234.108 Y-140.074 Z-0.683
Z5
X-234.558 Y-140.523
Z-0.365 F333.3
Z-1.683
X-234.552 Y-140.529 Z-1.753 F1000
X-234.535 Y-140.546 Z-1.82
X-234.509 Y-140.572 Z-1.88
X-234.473 Y-140.608 Z-1.931
X-234.43 Y-140.651 Z-1.969
X-234.383 Y-140.698 Z-1.992
X-234.333 Y-140.748 Z-2
X-234.108 Y-140.972
G3 X-233.659 Y-140.972 I0.225 J0.225
G1 X-230.535 Y-137.848
X-241.202 Y-127.181
Y-148.515
X-233.659 Y-140.972
G3 X-233.659 Y-140.523 I-0.225 J0.225
G1 X-233.884 Y-140.299
X-233.934 Y-140.249 Z-1.992
X-233.981 Y-140.201 Z-1.969
X-234.024 Y-140.159 Z-1.931
X-234.06 Y-140.123 Z-1.88
X-234.086 Y-140.097 Z-1.82
X-234.103 Y-140.08 Z-1.753
X-234.108 Y-140.074 Z-1.683
Z5
X-234.558 Y-140.523
Z-1.365 F333.3
Z-1.983
X-234.552 Y-140.529 Z-2.053 F1000
X-234.535 Y-140.546 Z-2.12
X-234.509 Y-140.572 Z-2.18
X-234.473 Y-140.608 Z-2.231
X-234.43 Y-140.651 Z-2.269
X-234.383 Y-140.698 Z-2.292
X-234.333 Y-140.748 Z-2.3
X-234.108 Y-140.972
G3 X-233.659 Y-140.972 I0.225 J0.225
G1 X-230.535 Y-137.848
X-241.202 Y-127.181
Y-148.515
X-233.659 Y-140.972
G3 X-233.659 Y-140.523 I-0.225 J0.225
G1 X-233.884 Y-140.299
X-233.934 Y-140.249 Z-2.292
X-233.981 Y-140.201 Z-2.269
X-234.024 Y-140.159 Z-2.231
X-234.06 Y-140.123 Z-2.18
X-234.086 Y-140.097 Z-2.12
X-234.103 Y-140.08 Z-2.053
X-234.108 Y-140.074 Z-1.983
Z5
X-221.456 Y-129.908
Z0.635 F333.3
Z-0.683
X-221.451 Y-129.914 Z-0.753 F1000
X-221.434 Y-129.93 Z-0.82
X-221.407 Y-129.957 Z-0.88
X-221.372 Y-129.993 Z-0.931
X-221.329 Y-130.035 Z-0.969
X-221.282 Y-130.083 Z-0.992
X-221.232 Y-130.133 Z-1
X-221.007 Y-130.357
G3 X-220.558 Y-130.357 I0.225 J0.225
G1 X-215.137 Y-124.936
X-230.471
X-222.804 Y-132.603
X-220.558 Y-130.357
G3 X-220.558 Y-129.908 I-0.225 J0.225
G1 X-220.783 Y-129.684
X-220.833 Y-129.634 Z-0.992
X-220.88 Y-129.586 Z-0.969
X-220.923 Y-129.544 Z-0.931
X-220.958 Y-129.508 Z-0.88
X-220.985 Y-129.481 Z-0.82
X-221.002 Y-129.465 Z-0.753
X-221.007 Y-129.459 Z-0.683
Z5
X-221.456 Y-129.908
Z-0.365 F333.3
Z-1.683
X-221.451 Y-129.914 Z-1.753 F1000
X-221.434 Y-129.93 Z-1.82
X-221.407 Y-129.957 Z-1.88
X-221.372 Y-129.993 Z-1.931
X-221.329 Y-130.035 Z-1.969
X-221.282 Y-130.083 Z-1.992
X-221.232 Y-130.133 Z-2
X-221.007 Y-130.357
G3 X-220.558 Y-130.357 I0.225 J0.225
G1 X-215.137 Y-124.936
X-230.471
X-222.804 Y-132.603
X-220.558 Y-130.357
G3 X-220.558 Y-129.908 I-0.225 J0.225
G1 X-220.783 Y-129.684
X-220.833 Y-129.634 Z-1.992
X-220.88 Y-129.586 Z-1.969
X-220.923 Y-129.544 Z-1.931
X-220.958 Y-129.508 Z-1.88
X-220.985 Y-129.481 Z-1.82
X-221.002 Y-129.465 Z-1.753
X-221.007 Y-129.459 Z-1.683
Z5
X-221.456 Y-129.908
Z-1.365 F333.3
Z-1.983
X-221.451 Y-129.914 Z-2.053 F1000
X-221.434 Y-129.93 Z-2.12
X-221.407 Y-129.957 Z-2.18
X-221.372 Y-129.993 Z-2.231
X-221.329 Y-130.035 Z-2.269
X-221.282 Y-130.083 Z-2.292
X-221.232 Y-130.133 Z-2.3
X-221.007 Y-130.357
G3 X-220.558 Y-130.357 I0.225 J0.225
G1 X-215.137 Y-124.936
X-230.471
X-222.804 Y-132.603
X-220.558 Y-130.357
G3 X-220.558 Y-129.908 I-0.225 J0.225
G1 X-220.783 Y-129.684
X-220.833 Y-129.634 Z-2.292
X-220.88 Y-129.586 Z-2.269
X-220.923 Y-129.544 Z-2.231
X-220.958 Y-129.508 Z-2.18
X-220.985 Y-129.481 Z-2.12
X-221.002 Y-129.465 Z-2.053
X-221.007 Y-129.459 Z-1.983
Z15
(When using Fusion for Personal Use, the feedrate of rapid)
(moves is reduced to match the feedrate of cutting moves,)
(which can increase machining time. Unrestricted rapid moves)
(are available with a Fusion Subscription.)

(2D-Kontur4)
G0 X-132.59 Y-52.318
G1 Z15 F1000
Z5
Z0.635 F333.3
Z-0.683
G18 G2 X-132.273 Z-1 I0.317 K0 F1000
G1 X-131.955
G17 G3 X-131.637 Y-52 I0 J0.318
G1 Y-44.468
X-139.505 Y-52
X-131.637 Y-59.532
Y-52
G3 X-131.955 Y-51.682 I-0.318 J0
G1 X-132.273
G18 G3 X-132.59 Z-0.683 I0 K0.317
G1 Z5
Y-52.318
Z-0.365 F333.3
Z-1.683
G2 X-132.273 Z-2 I0.317 K0 F1000
G1 X-131.955
G17 G3 X-131.637 Y-52 I0 J0.318
G1 Y-44.468
X-139.505 Y-52
X-131.637 Y-59.532
Y-52
G3 X-131.955 Y-51.682 I-0.318 J0
G1 X-132.273
G18 G3 X-132.59 Z-1.683 I0 K0.317
G1 Z5
Y-52.318
Z-1.365 F333.3
Z-1.983
G2 X-132.273 Z-2.3 I0.317 K0 F1000
G1 X-131.955
G17 G3 X-131.637 Y-52 I0 J0.318
G1 Y-44.468
X-139.505 Y-52
X-131.637 Y-59.532
Y-52
G3 X-131.955 Y-51.682 I-0.318 J0
G1 X-132.273
G18 G3 X-132.59 Z-1.983 I0 K0.317
G1 Z5
X-144.268 Y-42.771
Z0.635 F333.3
Z-0.683
X-144.263 Y-42.776 Z-0.753 F1000
X-144.246 Y-42.793 Z-0.82
X-144.218 Y-42.819 Z-0.88
X-144.182 Y-42.854 Z-0.931
X-144.138 Y-42.895 Z-0.969
X-144.09 Y-42.942 Z-0.992
X-144.039 Y-42.991 Z-1
X-143.81 Y-43.21
G17 G3 X-143.361 Y-43.2 I0.22 J0.229
G1 X-138.705 Y-38.338
X-152.596
X-145.349 Y-45.277
X-143.361 Y-43.2
G3 X-143.37 Y-42.751 I-0.229 J0.22
G1 X-143.6 Y-42.532
X-143.651 Y-42.483 Z-0.992
X-143.699 Y-42.437 Z-0.969
X-143.743 Y-42.395 Z-0.931
X-143.779 Y-42.36 Z-0.88
X-143.806 Y-42.334 Z-0.82
X-143.823 Y-42.318 Z-0.753
X-143.829 Y-42.312 Z-0.683
Z5
X-144.268 Y-42.771
Z-0.365 F333.3
Z-1.683
X-144.263 Y-42.776 Z-1.753 F1000
X-144.246 Y-42.793 Z-1.82
X-144.218 Y-42.819 Z-1.88
X-144.182 Y-42.854 Z-1.931
X-144.138 Y-42.895 Z-1.969
X-144.09 Y-42.942 Z-1.992
X-144.039 Y-42.991 Z-2
X-143.81 Y-43.21
G3 X-143.361 Y-43.2 I0.22 J0.229
G1 X-138.705 Y-38.338
X-152.596
X-145.349 Y-45.277
X-143.361 Y-43.2
G3 X-143.37 Y-42.751 I-0.229 J0.22
G1 X-143.6 Y-42.532
X-143.651 Y-42.483 Z-1.992
X-143.699 Y-42.437 Z-1.969
X-143.743 Y-42.395 Z-1.931
X-143.779 Y-42.36 Z-1.88
X-143.806 Y-42.334 Z-1.82
X-143.823 Y-42.318 Z-1.753
X-143.829 Y-42.312 Z-1.683
Z5
X-144.268 Y-42.771
Z-1.365 F333.3
Z-1.983
X-144.263 Y-42.776 Z-2.053 F1000
X-144.246 Y-42.793 Z-2.12
X-144.218 Y-42.819 Z-2.18
X-144.182 Y-42.854 Z-2.231
X-144.138 Y-42.895 Z-2.269
X-144.09 Y-42.942 Z-2.292
X-144.039 Y-42.991 Z-2.3
X-143.81 Y-43.21
G3 X-143.361 Y-43.2 I0.22 J0.229
G1 X-138.705 Y-38.338
X-152.596
X-145.349 Y-45.277
X-143.361 Y-43.2
G3 X-143.37 Y-42.751 I-0.229 J0.22
G1 X-143.6 Y-42.532
X-143.651 Y-42.483 Z-2.292
X-143.699 Y-42.437 Z-2.269
X-143.743 Y-42.395 Z-2.231
X-143.779 Y-42.36 Z-2.18
X-143.806 Y-42.334 Z-2.12
X-143.823 Y-42.318 Z-2.053
X-143.829 Y-42.312 Z-1.983
Z5
X-154.41 Y-53.855
Z0.635 F333.3
Z-0.683
X-154.404 Y-53.86 Z-0.753 F1000
X-154.388 Y-53.877 Z-0.82
X-154.362 Y-53.905 Z-0.88
X-154.327 Y-53.941 Z-0.931
X-154.286 Y-53.985 Z-0.969
X-154.239 Y-54.033 Z-0.992
X-154.19 Y-54.084 Z-1
X-153.971 Y-54.313
G3 X-153.522 Y-54.323 I0.229 J0.22
G1 X-151.095 Y-52
X-158.962 Y-44.468
Y-59.532
X-153.522 Y-54.323
G3 X-153.512 Y-53.874 I-0.22 J0.229
G1 X-153.732 Y-53.645
X-153.781 Y-53.594 Z-0.992
X-153.827 Y-53.545 Z-0.969
X-153.869 Y-53.502 Z-0.931
X-153.903 Y-53.466 Z-0.88
X-153.93 Y-53.438 Z-0.82
X-153.946 Y-53.421 Z-0.753
X-153.951 Y-53.416 Z-0.683
Z5
X-154.41 Y-53.855
Z-0.365 F333.3
Z-1.683
X-154.404 Y-53.86 Z-1.753 F1000
X-154.388 Y-53.877 Z-1.82
X-154.362 Y-53.905 Z-1.88
X-154.327 Y-53.941 Z-1.931
X-154.286 Y-53.985 Z-1.969
X-154.239 Y-54.033 Z-1.992
X-154.19 Y-54.084 Z-2
X-153.971 Y-54.313
G3 X-153.522 Y-54.323 I0.229 J0.22
G1 X-151.095 Y-52
X-158.962 Y-44.468
Y-59.532
X-153.522 Y-54.323
G3 X-153.512 Y-53.874 I-0.22 J0.229
G1 X-153.732 Y-53.645
X-153.781 Y-53.594 Z-1.992
X-153.827 Y-53.545 Z-1.969
X-153.869 Y-53.502 Z-1.931
X-153.903 Y-53.466 Z-1.88
X-153.93 Y-53.438 Z-1.82
X-153.946 Y-53.421 Z-1.753
X-153.951 Y-53.416 Z-1.683
Z5
X-154.41 Y-53.855
Z-1.365 F333.3
Z-1.983
X-154.404 Y-53.86 Z-2.053 F1000
X-154.388 Y-53.877 Z-2.12
X-154.362 Y-53.905 Z-2.18
X-154.327 Y-53.941 Z-2.231
X-154.286 Y-53.985 Z-2.269
X-154.239 Y-54.033 Z-2.292
X-154.19 Y-54.084 Z-2.3
X-153.971 Y-54.313
G3 X-153.522 Y-54.323 I0.229 J0.22
G1 X-151.095 Y-52
X-158.962 Y-44.468
Y-59.532
X-153.522 Y-54.323
G3 X-153.512 Y-53.874 I-0.22 J0.229
G1 X-153.732 Y-53.645
X-153.781 Y-53.594 Z-2.292
X-153.827 Y-53.545 Z-2.269
X-153.869 Y-53.502 Z-2.231
X-153.903 Y-53.466 Z-2.18
X-153.93 Y-53.438 Z-2.12
X-153.946 Y-53.421 Z-2.053
X-153.951 Y-53.416 Z-1.983
Z5
X-143.829 Y-61.688
Z0.635 F333.3
Z-0.683
X-143.823 Y-61.682 Z-0.753 F1000
X-143.806 Y-61.666 Z-0.82
X-143.779 Y-61.64 Z-0.88
X-143.743 Y-61.605 Z-0.931
X-143.699 Y-61.563 Z-0.969
X-143.651 Y-61.517 Z-0.992
X-143.6 Y-61.468 Z-1
X-143.37 Y-61.249
G3 X-143.361 Y-60.8 I-0.22 J0.229
G1 X-145.349 Y-58.723
X-152.596 Y-65.662
X-138.705
X-143.361 Y-60.8
G3 X-143.81 Y-60.79 I-0.229 J-0.22
G1 X-144.039 Y-61.009
X-144.09 Y-61.058 Z-0.992
X-144.138 Y-61.105 Z-0.969
X-144.182 Y-61.146 Z-0.931
X-144.218 Y-61.181 Z-0.88
X-144.246 Y-61.207 Z-0.82
X-144.263 Y-61.224 Z-0.753
X-144.268 Y-61.229 Z-0.683
Z5
X-143.829 Y-61.688
Z-0.365 F333.3
Z-1.683
X-143.823 Y-61.682 Z-1.753 F1000
X-143.806 Y-61.666 Z-1.82
X-143.779 Y-61.64 Z-1.88
X-143.743 Y-61.605 Z-1.931
X-143.699 Y-61.563 Z-1.969
X-143.651 Y-61.517 Z-1.992
X-143.6 Y-61.468 Z-2
X-143.37 Y-61.249
G3 X-143.361 Y-60.8 I-0.22 J0.229
G1 X-145.349 Y-58.723
X-152.596 Y-65.662
X-138.705
X-143.361 Y-60.8
G3 X-143.81 Y-60.79 I-0.229 J-0.22
G1 X-144.039 Y-61.009
X-144.09 Y-61.058 Z-1.992
X-144.138 Y-61.105 Z-1.969
X-144.182 Y-61.146 Z-1.931
X-144.218 Y-61.181 Z-1.88
X-144.246 Y-61.207 Z-1.82
X-144.263 Y-61.224 Z-1.753
X-144.268 Y-61.229 Z-1.683
Z5
X-143.829 Y-61.688
Z-1.365 F333.3
Z-1.983
X-143.823 Y-61.682 Z-2.053 F1000
X-143.806 Y-61.666 Z-2.12
X-143.779 Y-61.64 Z-2.18
X-143.743 Y-61.605 Z-2.231
X-143.699 Y-61.563 Z-2.269
X-143.651 Y-61.517 Z-2.292
X-143.6 Y-61.468 Z-2.3
X-143.37 Y-61.249
G3 X-143.361 Y-60.8 I-0.22 J0.229
G1 X-145.349 Y-58.723
X-152.596 Y-65.662
X-138.705
X-143.361 Y-60.8
G3 X-143.81 Y-60.79 I-0.229 J-0.22
G1 X-144.039 Y-61.009
X-144.09 Y-61.058 Z-2.292
X-144.138 Y-61.105 Z-2.269
X-144.182 Y-61.146 Z-2.231
X-144.218 Y-61.181 Z-2.18
X-144.246 Y-61.207 Z-2.12
X-144.263 Y-61.224 Z-2.053
X-144.268 Y-61.229 Z-1.983
Z5
X-169.09 Y-59.511
Z0.635 F333.3
Z-0.683
G18 G2 X-168.773 Z-1 I0.317 K0 F1000
G1 X-168.455
G17 G3 X-168.137 Y-59.193 I0 J0.318
G1 Y-56.588
X-173.348
Y-68.578
X-168.137 Y-67.66
Y-59.193
G3 X-168.455 Y-58.875 I-0.318 J0
G1 X-168.773
G18 G3 X-169.09 Z-0.683 I0 K0.317
G1 Z5
Y-59.511
Z-0.365 F333.3
Z-1.683
G2 X-168.773 Z-2 I0.317 K0 F1000
G1 X-168.455
G17 G3 X-168.137 Y-59.193 I0 J0.318
G1 Y-56.588
X-173.348
Y-68.578
X-168.137 Y-67.66
Y-59.193
G3 X-168.455 Y-58.875 I-0.318 J0
G1 X-168.773
G18 G3 X-169.09 Z-1.683 I0 K0.317
G1 Z5
Y-59.511
Z-1.365 F333.3
Z-1.983
G2 X-168.773 Z-2.3 I0.317 K0 F1000
G1 X-168.455
G17 G3 X-168.137 Y-59.193 I0 J0.318
G1 Y-56.588
X-173.348
Y-68.578
X-168.137 Y-67.66
Y-59.193
G3 X-168.455 Y-58.875 I-0.318 J0
G1 X-168.773
G18 G3 X-169.09 Z-1.983 I0 K0.317
G1 Z5
Y-45.125
Z0.635 F333.3
Z-0.683
G2 X-168.773 Z-1 I0.317 K0 F1000
G1 X-168.455
G17 G3 X-168.137 Y-44.807 I0 J0.318
G1 Y-36.34
X-173.348 Y-35.422
Y-47.412
X-168.137
Y-44.807
G3 X-168.455 Y-44.489 I-0.318 J0
G1 X-168.773
G18 G3 X-169.09 Z-0.683 I0 K0.317
G1 Z5
Y-45.125
Z-0.365 F333.3
Z-1.683
G2 X-168.773 Z-2 I0.317 K0 F1000
G1 X-168.455
G17 G3 X-168.137 Y-44.807 I0 J0.318
G1 Y-36.34
X-173.348 Y-35.422
Y-47.412
X-168.137
Y-44.807
G3 X-168.455 Y-44.489 I-0.318 J0
G1 X-168.773
G18 G3 X-169.09 Z-1.683 I0 K0.317
G1 Z5
Y-45.125
Z-1.365 F333.3
Z-1.983
G2 X-168.773 Z-2.3 I0.317 K0 F1000
G1 X-168.455
G17 G3 X-168.137 Y-44.807 I0 J0.318
G1 Y-36.34
X-173.348 Y-35.422
Y-47.412
X-168.137
Y-44.807
G3 X-168.455 Y-44.489 I-0.318 J0
G1 X-168.773
G18 G3 X-169.09 Z-1.983 I0 K0.317
G1 Z5
X-183.476 Y-44.513
Z0.635 F333.3
Z-0.683
G2 X-183.158 Z-1 I0.318 K0 F1000
G1 X-182.841
G17 G3 X-182.523 Y-44.195 I0 J0.318
G1 Y-36.345
X-193.427 Y-47.412
X-182.523
Y-44.195
G3 X-182.841 Y-43.878 I-0.318 J0
G1 X-183.158
G18 G3 X-183.476 Z-0.683 I0 K0.317
G1 Z5
Y-44.513
Z-0.365 F333.3
Z-1.683
G2 X-183.158 Z-2 I0.318 K0 F1000
G1 X-182.841
G17 G3 X-182.523 Y-44.195 I0 J0.318
G1 Y-36.345
X-193.427 Y-47.412
X-182.523
Y-44.195
G3 X-182.841 Y-43.878 I-0.318 J0
G1 X-183.158
G18 G3 X-183.476 Z-1.683 I0 K0.317
G1 Z5
Y-44.513
Z-1.365 F333.3
Z-1.983
G2 X-183.158 Z-2.3 I0.318 K0 F1000
G1 X-182.841
G17 G3 X-182.523 Y-44.195 I0 J0.318
G1 Y-36.345
X-193.427 Y-47.412
X-182.523
Y-44.195
G3 X-182.841 Y-43.878 I-0.318 J0
G1 X-183.158
G18 G3 X-183.476 Z-1.983 I0 K0.317
G1 Z5
Y-60.122
Z0.635 F333.3
Z-0.683
G2 X-183.158 Z-1 I0.318 K0 F1000
G1 X-182.841
G17 G3 X-182.523 Y-59.805 I0 J0.318
G1 Y-56.588
X-193.427
X-182.523 Y-67.655
Y-59.805
G3 X-182.841 Y-59.487 I-0.318 J0
G1 X-183.158
G18 G3 X-183.476 Z-0.683 I0 K0.317
G1 Z5
Y-60.122
Z-0.365 F333.3
Z-1.683
G2 X-183.158 Z-2 I0.318 K0 F1000
G1 X-182.841
G17 G3 X-182.523 Y-59.805 I0 J0.318
G1 Y-56.588
X-193.427
X-182.523 Y-67.655
Y-59.805
G3 X-182.841 Y-59.487 I-0.318 J0
G1 X-183.158
G18 G3 X-183.476 Z-1.683 I0 K0.317
G1 Z5
Y-60.122
Z-1.365 F333.3
Z-1.983
G2 X-183.158 Z-2.3 I0.318 K0 F1000
G1 X-182.841
G17 G3 X-182.523 Y-59.805 I0 J0.318
G1 Y-56.588
X-193.427
X-182.523 Y-67.655
Y-59.805
G3 X-182.841 Y-59.487 I-0.318 J0
G1 X-183.158
G18 G3 X-183.476 Z-1.983 I0 K0.317
G1 Z5
X-200.167 Y-64.176
Z0.635 F333.3
Z-0.683
X-200.162 Y-64.171 Z-0.753 F1000
X-200.145 Y-64.154 Z-0.82
X-200.118 Y-64.128 Z-0.88
X-200.082 Y-64.092 Z-0.931
X-200.039 Y-64.05 Z-0.969
X-199.991 Y-64.003 Z-0.992
X-199.941 Y-63.953 Z-1
X-199.715 Y-63.731
G17 G3 X-199.712 Y-63.282 I-0.223 J0.226
G1 X-206.307 Y-56.588
X-223.85
X-206.31 Y-74.391
X-191.364 Y-71.755
X-199.712 Y-63.282
G3 X-200.161 Y-63.278 I-0.226 J-0.223
G1 X-200.387 Y-63.501
X-200.437 Y-63.551 Z-0.992
X-200.485 Y-63.598 Z-0.969
X-200.528 Y-63.64 Z-0.931
X-200.564 Y-63.675 Z-0.88
X-200.591 Y-63.702 Z-0.82
X-200.607 Y-63.718 Z-0.753
X-200.613 Y-63.724 Z-0.683
Z5
X-200.167 Y-64.176
Z-0.365 F333.3
Z-1.683
X-200.162 Y-64.171 Z-1.753 F1000
X-200.145 Y-64.154 Z-1.82
X-200.118 Y-64.128 Z-1.88
X-200.082 Y-64.092 Z-1.931
X-200.039 Y-64.05 Z-1.969
X-199.991 Y-64.003 Z-1.992
X-199.941 Y-63.953 Z-2
X-199.715 Y-63.731
G3 X-199.712 Y-63.282 I-0.223 J0.226
G1 X-206.307 Y-56.588
X-223.85
X-206.31 Y-74.391
X-191.364 Y-71.755
X-199.712 Y-63.282
G3 X-200.161 Y-63.278 I-0.226 J-0.223
G1 X-200.387 Y-63.501
X-200.437 Y-63.551 Z-1.992
X-200.485 Y-63.598 Z-1.969
X-200.528 Y-63.64 Z-1.931
X-200.564 Y-63.675 Z-1.88
X-200.591 Y-63.702 Z-1.82
X-200.607 Y-63.718 Z-1.753
X-200.613 Y-63.724 Z-1.683
Z5
X-200.167 Y-64.176
Z-1.365 F333.3
Z-1.983
X-200.162 Y-64.171 Z-2.053 F1000
X-200.145 Y-64.154 Z-2.12
X-200.118 Y-64.128 Z-2.18
X-200.082 Y-64.092 Z-2.231
X-200.039 Y-64.05 Z-2.269
X-199.991 Y-64.003 Z-2.292
X-199.941 Y-63.953 Z-2.3
X-199.715 Y-63.731
G3 X-199.712 Y-63.282 I-0.223 J0.226
G1 X-206.307 Y-56.588
X-223.85
X-206.31 Y-74.391
X-191.364 Y-71.755
X-199.712 Y-63.282
G3 X-200.161 Y-63.278 I-0.226 J-0.223
G1 X-200.387 Y-63.501
X-200.437 Y-63.551 Z-2.292
X-200.485 Y-63.598 Z-2.269
X-200.528 Y-63.64 Z-2.231
X-200.564 Y-63.675 Z-2.18
X-200.591 Y-63.702 Z-2.12
X-200.607 Y-63.718 Z-2.053
X-200.613 Y-63.724 Z-1.983
Z5
Y-40.276
Z0.635 F333.3
Z-0.683
X-200.607 Y-40.282 Z-0.753 F1000
X-200.591 Y-40.298 Z-0.82
X-200.564 Y-40.325 Z-0.88
X-200.528 Y-40.36 Z-0.931
X-200.485 Y-40.402 Z-0.969
X-200.437 Y-40.449 Z-0.992
X-200.387 Y-40.499 Z-1
X-200.161 Y-40.722
G3 X-199.712 Y-40.718 I0.223 J0.226
G1 X-191.364 Y-32.245
X-206.31 Y-29.609
X-223.85 Y-47.412
X-206.307
X-199.712 Y-40.718
G3 X-199.715 Y-40.269 I-0.226 J0.223
G1 X-199.941 Y-40.047
X-199.991 Y-39.997 Z-0.992
X-200.039 Y-39.95 Z-0.969
X-200.082 Y-39.908 Z-0.931
X-200.118 Y-39.872 Z-0.88
X-200.145 Y-39.846 Z-0.82
X-200.162 Y-39.829 Z-0.753
X-200.167 Y-39.824 Z-0.683
Z5
X-200.613 Y-40.276
Z-0.365 F333.3
Z-1.683
X-200.607 Y-40.282 Z-1.753 F1000
X-200.591 Y-40.298 Z-1.82
X-200.564 Y-40.325 Z-1.88
X-200.528 Y-40.36 Z-1.931
X-200.485 Y-40.402 Z-1.969
X-200.437 Y-40.449 Z-1.992
X-200.387 Y-40.499 Z-2
X-200.161 Y-40.722
G3 X-199.712 Y-40.718 I0.223 J0.226
G1 X-191.364 Y-32.245
X-206.31 Y-29.609
X-223.85 Y-47.412
X-206.307
X-199.712 Y-40.718
G3 X-199.715 Y-40.269 I-0.226 J0.223
G1 X-199.941 Y-40.047
X-199.991 Y-39.997 Z-1.992
X-200.039 Y-39.95 Z-1.969
X-200.082 Y-39.908 Z-1.931
X-200.118 Y-39.872 Z-1.88
X-200.145 Y-39.846 Z-1.82
X-200.162 Y-39.829 Z-1.753
X-200.167 Y-39.824 Z-1.683
Z5
X-200.613 Y-40.276
Z-1.365 F333.3
Z-1.983
X-200.607 Y-40.282 Z-2.053 F1000
X-200.591 Y-40.298 Z-2.12
X-200.564 Y-40.325 Z-2.18
X-200.528 Y-40.36 Z-2.231
X-200.485 Y-40.402 Z-2.269
X-200.437 Y-40.449 Z-2.292
X-200.387 Y-40.499 Z-2.3
X-200.161 Y-40.722
G3 X-199.712 Y-40.718 I0.223 J0.226
G1 X-191.364 Y-32.245
X-206.31 Y-29.609
X-223.85 Y-47.412
X-206.307
X-199.712 Y-40.718
G3 X-199.715 Y-40.269 I-0.226 J0.223
G1 X-199.941 Y-40.047
X-199.991 Y-39.997 Z-2.292
X-200.039 Y-39.95 Z-2.269
X-200.082 Y-39.908 Z-2.231
X-200.118 Y-39.872 Z-2.18
X-200.145 Y-39.846 Z-2.12
X-200.162 Y-39.829 Z-2.053
X-200.167 Y-39.824 Z-1.983
Z5
X-228.551 Y-37.754
Z0.635 F333.3
Z-0.683
X-228.545 Y-37.759 Z-0.753 F1000
X-228.528 Y-37.776 Z-0.82
X-228.501 Y-37.802 Z-0.88
X-228.465 Y-37.838 Z-0.931
X-228.423 Y-37.88 Z-0.969
X-228.375 Y-37.927 Z-0.992
X-228.324 Y-37.977 Z-1
X-228.098 Y-38.2
G3 X-227.649 Y-38.196 I0.223 J0.226
G1 X-219.071 Y-29.489
X-238.044
G2 X-234.72 Y-45.373 I-67.956 J-22.512
G1 X-227.649 Y-38.196
G3 X-227.653 Y-37.747 I-0.226 J0.223
G1 X-227.879 Y-37.524
X-227.929 Y-37.475 Z-0.992
X-227.977 Y-37.428 Z-0.969
X-228.02 Y-37.385 Z-0.931
X-228.056 Y-37.35 Z-0.88
X-228.083 Y-37.324 Z-0.82
X-228.099 Y-37.307 Z-0.753
X-228.105 Y-37.302 Z-0.683
Z5
X-228.551 Y-37.754
Z-0.365 F333.3
Z-1.683
X-228.545 Y-37.759 Z-1.753 F1000
X-228.528 Y-37.776 Z-1.82
X-228.501 Y-37.802 Z-1.88
X-228.465 Y-37.838 Z-1.931
X-228.423 Y-37.88 Z-1.969
X-228.375 Y-37.927 Z-1.992
X-228.324 Y-37.977 Z-2
X-228.098 Y-38.2
G3 X-227.649 Y-38.196 I0.223 J0.226
G1 X-219.071 Y-29.489
X-238.044
G2 X-234.72 Y-45.373 I-67.956 J-22.512
G1 X-227.649 Y-38.196
G3 X-227.653 Y-37.747 I-0.226 J0.223
G1 X-227.879 Y-37.524
X-227.929 Y-37.475 Z-1.992
X-227.977 Y-37.428 Z-1.969
X-228.02 Y-37.385 Z-1.931
X-228.056 Y-37.35 Z-1.88
X-228.083 Y-37.324 Z-1.82
X-228.099 Y-37.307 Z-1.753
X-228.105 Y-37.302 Z-1.683
Z5
X-228.551 Y-37.754
Z-1.365 F333.3
Z-1.983
X-228.545 Y-37.759 Z-2.053 F1000
X-228.528 Y-37.776 Z-2.12
X-228.501 Y-37.802 Z-2.18
X-228.465 Y-37.838 Z-2.231
X-228.423 Y-37.88 Z-2.269
X-228.375 Y-37.927 Z-2.292
X-228.324 Y-37.977 Z-2.3
X-228.098 Y-38.2
G3 X-227.649 Y-38.196 I0.223 J0.226
G1 X-219.071 Y-29.489
X-238.044
G2 X-234.72 Y-45.373 I-67.956 J-22.512
G1 X-227.649 Y-38.196
G3 X-227.653 Y-37.747 I-0.226 J0.223
G1 X-227.879 Y-37.524
X-227.929 Y-37.475 Z-2.292
X-227.977 Y-37.428 Z-2.269
X-228.02 Y-37.385 Z-2.231
X-228.056 Y-37.35 Z-2.18
X-228.083 Y-37.324 Z-2.12
X-228.099 Y-37.307 Z-2.053
X-228.105 Y-37.302 Z-1.983
Z5
Y-66.698
Z0.635 F333.3
Z-0.683
X-228.099 Y-66.693 Z-0.753 F1000
X-228.083 Y-66.676 Z-0.82
X-228.056 Y-66.65 Z-0.88
X-228.02 Y-66.615 Z-0.931
X-227.977 Y-66.572 Z-0.969
X-227.929 Y-66.525 Z-0.992
X-227.879 Y-66.476 Z-1
X-227.653 Y-66.253
G3 X-227.649 Y-65.804 I-0.223 J0.226
G1 X-234.72 Y-58.627
G2 X-238.044 Y-74.511 I-71.28 J6.628
G1 X-219.071
X-227.649 Y-65.804
G3 X-228.098 Y-65.8 I-0.226 J-0.223
G1 X-228.324 Y-66.023
X-228.375 Y-66.073 Z-0.992
X-228.423 Y-66.12 Z-0.969
X-228.465 Y-66.162 Z-0.931
X-228.501 Y-66.198 Z-0.88
X-228.528 Y-66.224 Z-0.82
X-228.545 Y-66.241 Z-0.753
X-228.551 Y-66.246 Z-0.683
Z5
X-228.105 Y-66.698
Z-0.365 F333.3
Z-1.683
X-228.099 Y-66.693 Z-1.753 F1000
X-228.083 Y-66.676 Z-1.82
X-228.056 Y-66.65 Z-1.88
X-228.02 Y-66.615 Z-1.931
X-227.977 Y-66.572 Z-1.969
X-227.929 Y-66.525 Z-1.992
X-227.879 Y-66.476 Z-2
X-227.653 Y-66.253
G3 X-227.649 Y-65.804 I-0.223 J0.226
G1 X-234.72 Y-58.627
G2 X-238.044 Y-74.511 I-71.28 J6.628
G1 X-219.071
X-227.649 Y-65.804
G3 X-228.098 Y-65.8 I-0.226 J-0.223
G1 X-228.324 Y-66.023
X-228.375 Y-66.073 Z-1.992
X-228.423 Y-66.12 Z-1.969
X-228.465 Y-66.162 Z-1.931
X-228.501 Y-66.198 Z-1.88
X-228.528 Y-66.224 Z-1.82
X-228.545 Y-66.241 Z-1.753
X-228.551 Y-66.246 Z-1.683
Z5
X-228.105 Y-66.698
Z-1.365 F333.3
Z-1.983
X-228.099 Y-66.693 Z-2.053 F1000
X-228.083 Y-66.676 Z-2.12
X-228.056 Y-66.65 Z-2.18
X-228.02 Y-66.615 Z-2.231
X-227.977 Y-66.572 Z-2.269
X-227.929 Y-66.525 Z-2.292
X-227.879 Y-66.476 Z-2.3
X-227.653 Y-66.253
G3 X-227.649 Y-65.804 I-0.223 J0.226
G1 X-234.72 Y-58.627
G2 X-238.044 Y-74.511 I-71.28 J6.628
G1 X-219.071
X-227.649 Y-65.804
G3 X-228.098 Y-65.8 I-0.226 J-0.223
G1 X-228.324 Y-66.023
X-228.375 Y-66.073 Z-2.292
X-228.423 Y-66.12 Z-2.269
X-228.465 Y-66.162 Z-2.231
X-228.501 Y-66.198 Z-2.18
X-228.528 Y-66.224 Z-2.12
X-228.545 Y-66.241 Z-2.053
X-228.551 Y-66.246 Z-1.983
Z5
X-100.78 Y-53.138
Z0.635 F333.3
Z-0.683
X-100.774 Y-53.143 Z-0.753 F1000
X-100.758 Y-53.16 Z-0.82
X-100.731 Y-53.187 Z-0.88
X-100.695 Y-53.222 Z-0.931
X-100.653 Y-53.265 Z-0.969
X-100.605 Y-53.312 Z-0.992
X-100.555 Y-53.362 Z-1
X-100.331 Y-53.587
G3 X-99.882 Y-53.587 I0.225 J0.225
G1 X-98.295 Y-52
X-103.713 Y-46.583
Y-57.417
X-99.882 Y-53.587
G3 X-99.882 Y-53.138 I-0.225 J0.225
G1 X-100.106 Y-52.913
X-100.156 Y-52.863 Z-0.992
X-100.204 Y-52.816 Z-0.969
X-100.246 Y-52.773 Z-0.931
X-100.282 Y-52.738 Z-0.88
X-100.309 Y-52.711 Z-0.82
X-100.325 Y-52.694 Z-0.753
X-100.331 Y-52.689 Z-0.683
Z5
X-100.78 Y-53.138
Z-0.365 F333.3
Z-1.683
X-100.774 Y-53.143 Z-1.753 F1000
X-100.758 Y-53.16 Z-1.82
X-100.731 Y-53.187 Z-1.88
X-100.695 Y-53.222 Z-1.931
X-100.653 Y-53.265 Z-1.969
X-100.605 Y-53.312 Z-1.992
X-100.555 Y-53.362 Z-2
X-100.331 Y-53.587
G3 X-99.882 Y-53.587 I0.225 J0.225
G1 X-98.295 Y-52
X-103.713 Y-46.583
Y-57.417
X-99.882 Y-53.587
G3 X-99.882 Y-53.138 I-0.225 J0.225
G1 X-100.106 Y-52.913
X-100.156 Y-52.863 Z-1.992
X-100.204 Y-52.816 Z-1.969
X-100.246 Y-52.773 Z-1.931
X-100.282 Y-52.738 Z-1.88
X-100.309 Y-52.711 Z-1.82
X-100.325 Y-52.694 Z-1.753
X-100.331 Y-52.689 Z-1.683
Z5
X-100.78 Y-53.138
Z-1.365 F333.3
Z-1.983
X-100.774 Y-53.143 Z-2.053 F1000
X-100.758 Y-53.16 Z-2.12
X-100.731 Y-53.187 Z-2.18
X-100.695 Y-53.222 Z-2.231
X-100.653 Y-53.265 Z-2.269
X-100.605 Y-53.312 Z-2.292
X-100.555 Y-53.362 Z-2.3
X-100.331 Y-53.587
G3 X-99.882 Y-53.587 I0.225 J0.225
G1 X-98.295 Y-52
X-103.713 Y-46.583
Y-57.417
X-99.882 Y-53.587
G3 X-99.882 Y-53.138 I-0.225 J0.225
G1 X-100.106 Y-52.913
X-100.156 Y-52.863 Z-2.292
X-100.204 Y-52.816 Z-2.269
X-100.246 Y-52.773 Z-2.231
X-100.282 Y-52.738 Z-2.18
X-100.309 Y-52.711 Z-2.12
X-100.325 Y-52.694 Z-2.053
X-100.331 Y-52.689 Z-1.983
Z5
X-91.226 Y-59.78
Z0.635 F333.3
Z-0.683
X-91.22 Y-59.774 Z-0.753 F1000
X-91.204 Y-59.758 Z-0.82
X-91.177 Y-59.731 Z-0.88
X-91.141 Y-59.696 Z-0.931
X-91.099 Y-59.653 Z-0.969
X-91.051 Y-59.606 Z-0.992
X-91.001 Y-59.556 Z-1
X-90.777 Y-59.331
G3 X-90.777 Y-58.882 I-0.225 J0.225
G1 X-92.55 Y-57.109
X-98.603 Y-63.162
X-86.497
X-90.777 Y-58.882
G3 X-91.226 Y-58.882 I-0.225 J-0.225
G1 X-91.451 Y-59.107
X-91.5 Y-59.157 Z-0.992
X-91.548 Y-59.204 Z-0.969
X-91.59 Y-59.247 Z-0.931
X-91.626 Y-59.282 Z-0.88
X-91.653 Y-59.309 Z-0.82
X-91.669 Y-59.325 Z-0.753
