(Body_375)
(Bearbeiten)
(  Hersteller: ChinaCnc)
(  model: 3040T)
(  description: Generic 3-axis)
(T5 D=3.175 CR=0 - ZMIN=-2.3 - Schaftfrser)
G90 G94
G17
G21
(-Attention- Property Safe Retracts is set to Clearance Height.)
(Ensure the clearance height will clear the part and or fixtures.)
(Raise the Z-axis to a safe height before starting the program.)
(When using Fusion for Personal Use, the feedrate of rapid)
(moves is reduced to match the feedrate of cutting moves,)
(which can increase machining time. Unrestricted rapid moves)
(are available with a Fusion Subscription.)

(Bohrfrsen6 2)
M0
(MANUAL TOOL CHANGE TO T5)
S6000 M3
G17 G90 G94
G54
G0 X-237.208 Y-18.479
Z15
G1 Z1.683 F1000
Z0
Y-18.32
X-237.214 Y-18.289
X-237.232 Y-18.263
X-237.258 Y-18.245
X-237.289 Y-18.239
G3 X-237.289 Y-18.564 Z-0.061 I0 J-0.163
X-237.289 Y-18.239 Z-0.122 I0 J0.163
X-237.289 Y-18.564 Z-0.183 I0 J-0.163
X-237.289 Y-18.239 Z-0.244 I0 J0.163
X-237.289 Y-18.564 Z-0.306 I0 J-0.163
X-237.289 Y-18.239 Z-0.367 I0 J0.162
X-237.289 Y-18.564 Z-0.428 I0 J-0.162
X-237.289 Y-18.239 Z-0.489 I0 J0.162
X-237.289 Y-18.564 Z-0.55 I0 J-0.162
X-237.289 Y-18.239 Z-0.611 I0 J0.162
X-237.289 Y-18.564 Z-0.672 I0 J-0.162
X-237.289 Y-18.239 Z-0.733 I0 J0.162
X-237.289 Y-18.564 Z-0.794 I0 J-0.162
X-237.289 Y-18.239 Z-0.856 I0 J0.162
X-237.289 Y-18.564 Z-0.917 I0 J-0.162
X-237.289 Y-18.239 Z-0.978 I0 J0.162
X-237.289 Y-18.564 Z-1.039 I0 J-0.162
X-237.289 Y-18.239 Z-1.1 I0 J0.162
X-237.289 Y-18.564 Z-1.161 I0 J-0.162
X-237.289 Y-18.239 Z-1.222 I0 J0.162
X-237.289 Y-18.564 Z-1.283 I0 J-0.162
X-237.289 Y-18.239 Z-1.344 I0 J0.162
X-237.289 Y-18.564 Z-1.406 I0 J-0.162
X-237.289 Y-18.239 Z-1.467 I0 J0.162
X-237.289 Y-18.564 Z-1.528 I0 J-0.162
X-237.289 Y-18.239 Z-1.589 I0 J0.162
X-237.289 Y-18.564 Z-1.65 I0 J-0.162
X-237.289 Y-18.239 Z-1.711 I0 J0.162
X-237.289 Y-18.564 Z-1.772 I0 J-0.162
X-237.289 Y-18.239 Z-1.833 I0 J0.162
X-237.289 Y-18.564 Z-1.894 I0 J-0.162
X-237.289 Y-18.239 Z-1.956 I0 J0.162
X-237.289 Y-18.564 Z-2.017 I0 J-0.162
X-237.289 Y-18.239 Z-2.078 I0 J0.162
X-237.289 Y-18.564 Z-2.139 I0 J-0.162
X-237.289 Y-18.239 Z-2.2 I0 J0.162
X-237.289 Y-18.564 Z-2.261 I0 J-0.162
X-237.141 Y-18.334 Z-2.3 I0 J0.162
X-237.437 Y-18.469 I-0.148 J-0.067
X-237.141 Y-18.334 I0.148 J0.067
G1 X-237.16 Y-18.308
X-237.187 Y-18.292
X-237.218 Y-18.286
X-237.249 Y-18.294
X-237.393 Y-18.36
Z5
X-197.208 Y-18.479
Z1.683
Z0
Y-18.32
X-197.214 Y-18.289
X-197.232 Y-18.263
X-197.258 Y-18.245
X-197.289 Y-18.239
G3 X-197.289 Y-18.564 Z-0.061 I0 J-0.163
X-197.289 Y-18.239 Z-0.122 I0 J0.163
X-197.289 Y-18.564 Z-0.183 I0 J-0.163
X-197.289 Y-18.239 Z-0.244 I0 J0.163
X-197.289 Y-18.564 Z-0.306 I0 J-0.163
X-197.289 Y-18.239 Z-0.367 I0 J0.162
X-197.289 Y-18.564 Z-0.428 I0 J-0.162
X-197.289 Y-18.239 Z-0.489 I0 J0.162
X-197.289 Y-18.564 Z-0.55 I0 J-0.162
X-197.289 Y-18.239 Z-0.611 I0 J0.162
X-197.289 Y-18.564 Z-0.672 I0 J-0.162
X-197.289 Y-18.239 Z-0.733 I0 J0.162
X-197.289 Y-18.564 Z-0.794 I0 J-0.162
X-197.289 Y-18.239 Z-0.856 I0 J0.162
X-197.289 Y-18.564 Z-0.917 I0 J-0.162
X-197.289 Y-18.239 Z-0.978 I0 J0.162
X-197.289 Y-18.564 Z-1.039 I0 J-0.162
X-197.289 Y-18.239 Z-1.1 I0 J0.162
X-197.289 Y-18.564 Z-1.161 I0 J-0.162
X-197.289 Y-18.239 Z-1.222 I0 J0.162
X-197.289 Y-18.564 Z-1.283 I0 J-0.162
X-197.289 Y-18.239 Z-1.344 I0 J0.162
X-197.289 Y-18.564 Z-1.406 I0 J-0.162
X-197.289 Y-18.239 Z-1.467 I0 J0.162
X-197.289 Y-18.564 Z-1.528 I0 J-0.162
X-197.289 Y-18.239 Z-1.589 I0 J0.162
X-197.289 Y-18.564 Z-1.65 I0 J-0.162
X-197.289 Y-18.239 Z-1.711 I0 J0.162
X-197.289 Y-18.564 Z-1.772 I0 J-0.162
X-197.289 Y-18.239 Z-1.833 I0 J0.162
X-197.289 Y-18.564 Z-1.894 I0 J-0.162
X-197.289 Y-18.239 Z-1.956 I0 J0.162
X-197.289 Y-18.564 Z-2.017 I0 J-0.162
X-197.289 Y-18.239 Z-2.078 I0 J0.162
X-197.289 Y-18.564 Z-2.139 I0 J-0.162
X-197.289 Y-18.239 Z-2.2 I0 J0.162
X-197.289 Y-18.564 Z-2.261 I0 J-0.162
X-197.141 Y-18.334 Z-2.3 I0 J0.162
X-197.437 Y-18.469 I-0.148 J-0.067
X-197.141 Y-18.334 I0.148 J0.067
G1 X-197.16 Y-18.308
X-197.187 Y-18.292
X-197.218 Y-18.286
X-197.249 Y-18.294
X-197.393 Y-18.36
Z5
X-178.934 Y-12.078
Z1.683
Z0
Y-11.919
X-178.94 Y-11.888
X-178.958 Y-11.861
X-178.984 Y-11.844
X-179.015 Y-11.837
G3 X-179.015 Y-12.163 Z-0.061 I0 J-0.163
X-179.015 Y-11.837 Z-0.122 I0 J0.163
X-179.015 Y-12.163 Z-0.183 I0 J-0.163
X-179.015 Y-11.837 Z-0.244 I0 J0.163
X-179.015 Y-12.163 Z-0.306 I0 J-0.163
X-179.015 Y-11.837 Z-0.367 I0 J0.163
X-179.015 Y-12.163 Z-0.428 I0 J-0.163
X-179.015 Y-11.837 Z-0.489 I0 J0.163
X-179.015 Y-12.163 Z-0.55 I0 J-0.163
X-179.015 Y-11.837 Z-0.611 I0 J0.163
X-179.015 Y-12.163 Z-0.672 I0 J-0.163
X-179.015 Y-11.837 Z-0.733 I0 J0.163
X-179.015 Y-12.163 Z-0.794 I0 J-0.163
X-179.015 Y-11.837 Z-0.856 I0 J0.163
X-179.015 Y-12.163 Z-0.917 I0 J-0.163
X-179.015 Y-11.837 Z-0.978 I0 J0.163
X-179.015 Y-12.163 Z-1.039 I0 J-0.163
X-179.015 Y-11.837 Z-1.1 I0 J0.163
X-179.015 Y-12.163 Z-1.161 I0 J-0.163
X-179.015 Y-11.837 Z-1.222 I0 J0.163
X-179.015 Y-12.163 Z-1.283 I0 J-0.163
X-179.015 Y-11.837 Z-1.344 I0 J0.163
X-179.015 Y-12.163 Z-1.406 I0 J-0.163
X-179.015 Y-11.837 Z-1.467 I0 J0.163
X-179.015 Y-12.163 Z-1.528 I0 J-0.163
X-179.015 Y-11.837 Z-1.589 I0 J0.163
X-179.015 Y-12.163 Z-1.65 I0 J-0.163
X-179.015 Y-11.837 Z-1.711 I0 J0.163
X-179.015 Y-12.163 Z-1.772 I0 J-0.163
X-179.015 Y-11.837 Z-1.833 I0 J0.163
X-179.015 Y-12.163 Z-1.894 I0 J-0.163
X-179.015 Y-11.837 Z-1.956 I0 J0.163
X-179.015 Y-12.163 Z-2.017 I0 J-0.163
X-179.015 Y-11.837 Z-2.078 I0 J0.163
X-179.015 Y-12.163 Z-2.139 I0 J-0.163
X-179.015 Y-11.837 Z-2.2 I0 J0.163
X-179.015 Y-12.163 Z-2.261 I0 J-0.163
X-178.868 Y-11.933 Z-2.3 I0 J0.163
X-179.163 Y-12.067 I-0.148 J-0.067
X-178.868 Y-11.933 I0.148 J0.067
G1 X-178.886 Y-11.907
X-178.913 Y-11.89
X-178.944 Y-11.885
X-178.975 Y-11.892
X-179.12 Y-11.958
Z5
X-161.758 Y-33.327
Z1.683
Z0
Y-33.169
X-161.764 Y-33.138
X-161.782 Y-33.111
X-161.808 Y-33.094
X-161.839 Y-33.088
G3 X-161.839 Y-33.412 Z-0.061 I0 J-0.162
X-161.839 Y-33.088 Z-0.122 I0 J0.162
X-161.839 Y-33.412 Z-0.183 I0 J-0.162
X-161.839 Y-33.088 Z-0.244 I0 J0.162
X-161.839 Y-33.412 Z-0.306 I0 J-0.162
X-161.839 Y-33.088 Z-0.367 I0 J0.162
X-161.839 Y-33.412 Z-0.428 I0 J-0.162
X-161.839 Y-33.088 Z-0.489 I0 J0.162
X-161.839 Y-33.412 Z-0.55 I0 J-0.162
X-161.839 Y-33.088 Z-0.611 I0 J0.162
X-161.839 Y-33.412 Z-0.672 I0 J-0.162
X-161.839 Y-33.088 Z-0.733 I0 J0.162
X-161.839 Y-33.412 Z-0.794 I0 J-0.162
X-161.839 Y-33.088 Z-0.856 I0 J0.162
X-161.839 Y-33.412 Z-0.917 I0 J-0.162
X-161.839 Y-33.088 Z-0.978 I0 J0.162
X-161.839 Y-33.412 Z-1.039 I0 J-0.162
X-161.839 Y-33.088 Z-1.1 I0 J0.162
X-161.839 Y-33.412 Z-1.161 I0 J-0.162
X-161.839 Y-33.088 Z-1.222 I0 J0.162
X-161.839 Y-33.412 Z-1.283 I0 J-0.162
X-161.839 Y-33.088 Z-1.344 I0 J0.162
X-161.839 Y-33.412 Z-1.406 I0 J-0.162
X-161.839 Y-33.088 Z-1.467 I0 J0.162
X-161.839 Y-33.412 Z-1.528 I0 J-0.162
X-161.839 Y-33.088 Z-1.589 I0 J0.162
X-161.839 Y-33.412 Z-1.65 I0 J-0.162
X-161.839 Y-33.088 Z-1.711 I0 J0.162
X-161.839 Y-33.412 Z-1.772 I0 J-0.162
X-161.839 Y-33.088 Z-1.833 I0 J0.162
X-161.839 Y-33.412 Z-1.894 I0 J-0.162
X-161.839 Y-33.088 Z-1.956 I0 J0.162
X-161.839 Y-33.412 Z-2.017 I0 J-0.162
X-161.839 Y-33.088 Z-2.078 I0 J0.162
X-161.839 Y-33.412 Z-2.139 I0 J-0.162
X-161.839 Y-33.088 Z-2.2 I0 J0.162
X-161.839 Y-33.412 Z-2.261 I0 J-0.162
X-161.691 Y-33.183 Z-2.3 I0 J0.162
X-161.987 Y-33.317 I-0.148 J-0.067
X-161.691 Y-33.183 I0.148 J0.067
G1 X-161.71 Y-33.157
X-161.737 Y-33.14
X-161.768 Y-33.135
X-161.799 Y-33.142
X-161.943 Y-33.208
Z5
X-146.508 Y-20.577
Z1.683
Z0
Y-20.419
X-146.514 Y-20.388
X-146.532 Y-20.361
X-146.558 Y-20.344
X-146.589 Y-20.337
G3 X-146.589 Y-20.663 Z-0.061 I0 J-0.163
X-146.589 Y-20.337 Z-0.122 I0 J0.163
X-146.589 Y-20.663 Z-0.183 I0 J-0.163
X-146.589 Y-20.337 Z-0.244 I0 J0.163
X-146.589 Y-20.662 Z-0.306 I0 J-0.163
X-146.589 Y-20.338 Z-0.367 I0 J0.162
X-146.589 Y-20.662 Z-0.428 I0 J-0.162
X-146.589 Y-20.338 Z-0.489 I0 J0.162
X-146.589 Y-20.662 Z-0.55 I0 J-0.162
X-146.589 Y-20.338 Z-0.611 I0 J0.162
X-146.589 Y-20.662 Z-0.672 I0 J-0.162
X-146.589 Y-20.338 Z-0.733 I0 J0.162
X-146.589 Y-20.662 Z-0.794 I0 J-0.162
X-146.589 Y-20.338 Z-0.856 I0 J0.162
X-146.589 Y-20.662 Z-0.917 I0 J-0.162
X-146.589 Y-20.338 Z-0.978 I0 J0.162
X-146.589 Y-20.662 Z-1.039 I0 J-0.162
X-146.589 Y-20.338 Z-1.1 I0 J0.162
X-146.589 Y-20.662 Z-1.161 I0 J-0.162
X-146.589 Y-20.338 Z-1.222 I0 J0.162
X-146.589 Y-20.662 Z-1.283 I0 J-0.162
X-146.589 Y-20.338 Z-1.344 I0 J0.162
X-146.589 Y-20.662 Z-1.406 I0 J-0.162
X-146.589 Y-20.338 Z-1.467 I0 J0.162
X-146.589 Y-20.662 Z-1.528 I0 J-0.162
X-146.589 Y-20.338 Z-1.589 I0 J0.162
X-146.589 Y-20.662 Z-1.65 I0 J-0.162
X-146.589 Y-20.338 Z-1.711 I0 J0.162
X-146.589 Y-20.662 Z-1.772 I0 J-0.162
X-146.589 Y-20.338 Z-1.833 I0 J0.162
X-146.589 Y-20.662 Z-1.894 I0 J-0.162
X-146.589 Y-20.338 Z-1.956 I0 J0.162
X-146.589 Y-20.662 Z-2.017 I0 J-0.162
X-146.589 Y-20.338 Z-2.078 I0 J0.162
X-146.589 Y-20.662 Z-2.139 I0 J-0.162
X-146.589 Y-20.338 Z-2.2 I0 J0.162
X-146.589 Y-20.662 Z-2.261 I0 J-0.162
X-146.441 Y-20.433 Z-2.3 I0 J0.162
X-146.737 Y-20.567 I-0.148 J-0.067
X-146.441 Y-20.433 I0.148 J0.067
G1 X-146.46 Y-20.407
X-146.487 Y-20.39
X-146.518 Y-20.385
X-146.549 Y-20.392
X-146.693 Y-20.458
Z5
X-131.258 Y-33.327
Z1.683
Z0
Y-33.169
X-131.264 Y-33.138
X-131.282 Y-33.111
X-131.308 Y-33.094
X-131.339 Y-33.088
G3 X-131.339 Y-33.412 Z-0.061 I0 J-0.162
X-131.339 Y-33.088 Z-0.122 I0 J0.162
X-131.339 Y-33.412 Z-0.183 I0 J-0.162
X-131.339 Y-33.088 Z-0.244 I0 J0.162
X-131.339 Y-33.412 Z-0.306 I0 J-0.162
X-131.339 Y-33.088 Z-0.367 I0 J0.162
X-131.339 Y-33.412 Z-0.428 I0 J-0.162
X-131.339 Y-33.088 Z-0.489 I0 J0.162
X-131.339 Y-33.412 Z-0.55 I0 J-0.162
X-131.339 Y-33.088 Z-0.611 I0 J0.162
X-131.339 Y-33.412 Z-0.672 I0 J-0.162
X-131.339 Y-33.088 Z-0.733 I0 J0.162
X-131.339 Y-33.412 Z-0.794 I0 J-0.162
X-131.339 Y-33.088 Z-0.856 I0 J0.162
X-131.339 Y-33.412 Z-0.917 I0 J-0.162
X-131.339 Y-33.088 Z-0.978 I0 J0.162
X-131.339 Y-33.412 Z-1.039 I0 J-0.162
X-131.339 Y-33.088 Z-1.1 I0 J0.162
X-131.339 Y-33.412 Z-1.161 I0 J-0.162
X-131.339 Y-33.088 Z-1.222 I0 J0.162
X-131.339 Y-33.412 Z-1.283 I0 J-0.162
X-131.339 Y-33.088 Z-1.344 I0 J0.162
X-131.339 Y-33.412 Z-1.406 I0 J-0.162
X-131.339 Y-33.088 Z-1.467 I0 J0.162
X-131.339 Y-33.412 Z-1.528 I0 J-0.162
X-131.339 Y-33.088 Z-1.589 I0 J0.162
X-131.339 Y-33.412 Z-1.65 I0 J-0.162
X-131.339 Y-33.088 Z-1.711 I0 J0.162
X-131.339 Y-33.412 Z-1.772 I0 J-0.162
X-131.339 Y-33.088 Z-1.833 I0 J0.162
X-131.339 Y-33.412 Z-1.894 I0 J-0.162
X-131.339 Y-33.088 Z-1.956 I0 J0.162
X-131.339 Y-33.412 Z-2.017 I0 J-0.162
X-131.339 Y-33.088 Z-2.078 I0 J0.162
X-131.339 Y-33.412 Z-2.139 I0 J-0.162
X-131.339 Y-33.088 Z-2.2 I0 J0.162
X-131.339 Y-33.412 Z-2.261 I0 J-0.162
X-131.191 Y-33.183 Z-2.3 I0 J0.162
X-131.487 Y-33.317 I-0.148 J-0.067
X-131.191 Y-33.183 I0.148 J0.067
G1 X-131.21 Y-33.157
X-131.237 Y-33.14
X-131.268 Y-33.135
X-131.299 Y-33.142
X-131.443 Y-33.208
Z5
X-114.082 Y-12.078
Z1.683
Z0
Y-11.919
X-114.088 Y-11.888
X-114.105 Y-11.861
X-114.132 Y-11.844
X-114.163 Y-11.837
G3 X-114.163 Y-12.163 Z-0.061 I0 J-0.163
X-114.163 Y-11.837 Z-0.122 I0 J0.163
X-114.163 Y-12.163 Z-0.183 I0 J-0.163
X-114.163 Y-11.837 Z-0.244 I0 J0.163
X-114.163 Y-12.163 Z-0.306 I0 J-0.163
X-114.163 Y-11.837 Z-0.367 I0 J0.163
X-114.163 Y-12.163 Z-0.428 I0 J-0.163
X-114.163 Y-11.837 Z-0.489 I0 J0.163
X-114.163 Y-12.163 Z-0.55 I0 J-0.163
X-114.163 Y-11.837 Z-0.611 I0 J0.163
X-114.163 Y-12.163 Z-0.672 I0 J-0.163
X-114.163 Y-11.837 Z-0.733 I0 J0.163
X-114.163 Y-12.163 Z-0.794 I0 J-0.163
X-114.163 Y-11.837 Z-0.856 I0 J0.163
X-114.163 Y-12.163 Z-0.917 I0 J-0.163
X-114.163 Y-11.837 Z-0.978 I0 J0.163
X-114.163 Y-12.163 Z-1.039 I0 J-0.163
X-114.163 Y-11.837 Z-1.1 I0 J0.163
X-114.163 Y-12.163 Z-1.161 I0 J-0.163
X-114.163 Y-11.837 Z-1.222 I0 J0.163
X-114.163 Y-12.163 Z-1.283 I0 J-0.163
X-114.163 Y-11.837 Z-1.344 I0 J0.163
X-114.163 Y-12.163 Z-1.406 I0 J-0.163
X-114.163 Y-11.837 Z-1.467 I0 J0.163
X-114.163 Y-12.163 Z-1.528 I0 J-0.163
X-114.163 Y-11.837 Z-1.589 I0 J0.163
X-114.163 Y-12.163 Z-1.65 I0 J-0.163
X-114.163 Y-11.837 Z-1.711 I0 J0.163
X-114.163 Y-12.163 Z-1.772 I0 J-0.163
X-114.163 Y-11.837 Z-1.833 I0 J0.163
X-114.163 Y-12.163 Z-1.894 I0 J-0.163
X-114.163 Y-11.837 Z-1.956 I0 J0.163
X-114.163 Y-12.163 Z-2.017 I0 J-0.163
X-114.163 Y-11.837 Z-2.078 I0 J0.163
X-114.163 Y-12.163 Z-2.139 I0 J-0.163
X-114.163 Y-11.837 Z-2.2 I0 J0.163
X-114.163 Y-12.163 Z-2.261 I0 J-0.163
X-114.015 Y-11.933 Z-2.3 I0 J0.163
X-114.311 Y-12.067 I-0.148 J-0.067
X-114.015 Y-11.933 I0.148 J0.067
G1 X-114.033 Y-11.907
X-114.06 Y-11.89
X-114.092 Y-11.885
X-114.123 Y-11.892
X-114.267 Y-11.958
Z5
X-78.208 Y-24.577
Z1.683
Z0
Y-24.419
X-78.214 Y-24.388
X-78.232 Y-24.361
X-78.258 Y-24.344
X-78.289 Y-24.337
G3 X-78.289 Y-24.663 Z-0.061 I0 J-0.163
X-78.289 Y-24.337 Z-0.122 I0 J0.163
X-78.289 Y-24.663 Z-0.183 I0 J-0.163
X-78.289 Y-24.337 Z-0.244 I0 J0.163
X-78.289 Y-24.662 Z-0.306 I0 J-0.163
X-78.289 Y-24.338 Z-0.367 I0 J0.162
X-78.289 Y-24.662 Z-0.428 I0 J-0.162
X-78.289 Y-24.338 Z-0.489 I0 J0.162
X-78.289 Y-24.662 Z-0.55 I0 J-0.162
X-78.289 Y-24.338 Z-0.611 I0 J0.162
X-78.289 Y-24.662 Z-0.672 I0 J-0.162
X-78.289 Y-24.338 Z-0.733 I0 J0.162
X-78.289 Y-24.662 Z-0.794 I0 J-0.162
X-78.289 Y-24.338 Z-0.856 I0 J0.162
X-78.289 Y-24.662 Z-0.917 I0 J-0.162
X-78.289 Y-24.338 Z-0.978 I0 J0.162
X-78.289 Y-24.662 Z-1.039 I0 J-0.162
X-78.289 Y-24.338 Z-1.1 I0 J0.162
X-78.289 Y-24.662 Z-1.161 I0 J-0.162
X-78.289 Y-24.338 Z-1.222 I0 J0.162
X-78.289 Y-24.662 Z-1.283 I0 J-0.162
X-78.289 Y-24.338 Z-1.344 I0 J0.162
X-78.289 Y-24.662 Z-1.406 I0 J-0.162
X-78.289 Y-24.338 Z-1.467 I0 J0.162
X-78.289 Y-24.662 Z-1.528 I0 J-0.162
X-78.289 Y-24.338 Z-1.589 I0 J0.162
X-78.289 Y-24.662 Z-1.65 I0 J-0.162
X-78.289 Y-24.338 Z-1.711 I0 J0.162
X-78.289 Y-24.662 Z-1.772 I0 J-0.162
X-78.289 Y-24.338 Z-1.833 I0 J0.162
X-78.289 Y-24.662 Z-1.894 I0 J-0.162
X-78.289 Y-24.338 Z-1.956 I0 J0.162
X-78.289 Y-24.662 Z-2.017 I0 J-0.162
X-78.289 Y-24.338 Z-2.078 I0 J0.162
X-78.289 Y-24.662 Z-2.139 I0 J-0.162
X-78.289 Y-24.338 Z-2.2 I0 J0.162
X-78.289 Y-24.662 Z-2.261 I0 J-0.162
X-78.141 Y-24.433 Z-2.3 I0 J0.162
X-78.437 Y-24.567 I-0.148 J-0.067
X-78.141 Y-24.433 I0.148 J0.067
G1 X-78.16 Y-24.407
X-78.187 Y-24.39
X-78.218 Y-24.385
X-78.249 Y-24.392
X-78.393 Y-24.458
Z5
X-78.208 Y-72.577
Z1.683
Z0
Y-72.419
X-78.214 Y-72.388
X-78.232 Y-72.361
X-78.258 Y-72.344
X-78.289 Y-72.338
G3 X-78.289 Y-72.662 Z-0.061 I0 J-0.162
X-78.289 Y-72.338 Z-0.122 I0 J0.162
X-78.289 Y-72.662 Z-0.183 I0 J-0.162
X-78.289 Y-72.338 Z-0.244 I0 J0.162
X-78.289 Y-72.662 Z-0.306 I0 J-0.162
X-78.289 Y-72.338 Z-0.367 I0 J0.162
X-78.289 Y-72.662 Z-0.428 I0 J-0.162
X-78.289 Y-72.338 Z-0.489 I0 J0.162
X-78.289 Y-72.662 Z-0.55 I0 J-0.162
X-78.289 Y-72.338 Z-0.611 I0 J0.162
X-78.289 Y-72.662 Z-0.672 I0 J-0.162
X-78.289 Y-72.338 Z-0.733 I0 J0.162
X-78.289 Y-72.662 Z-0.794 I0 J-0.162
X-78.289 Y-72.338 Z-0.856 I0 J0.162
X-78.289 Y-72.662 Z-0.917 I0 J-0.162
X-78.289 Y-72.338 Z-0.978 I0 J0.162
X-78.289 Y-72.662 Z-1.039 I0 J-0.162
X-78.289 Y-72.338 Z-1.1 I0 J0.162
X-78.289 Y-72.662 Z-1.161 I0 J-0.162
X-78.289 Y-72.338 Z-1.222 I0 J0.162
X-78.289 Y-72.662 Z-1.283 I0 J-0.162
X-78.289 Y-72.338 Z-1.344 I0 J0.162
X-78.289 Y-72.662 Z-1.406 I0 J-0.162
X-78.289 Y-72.338 Z-1.467 I0 J0.162
X-78.289 Y-72.662 Z-1.528 I0 J-0.162
X-78.289 Y-72.338 Z-1.589 I0 J0.162
X-78.289 Y-72.662 Z-1.65 I0 J-0.162
X-78.289 Y-72.338 Z-1.711 I0 J0.162
X-78.289 Y-72.662 Z-1.772 I0 J-0.162
X-78.289 Y-72.338 Z-1.833 I0 J0.162
X-78.289 Y-72.662 Z-1.894 I0 J-0.162
X-78.289 Y-72.338 Z-1.956 I0 J0.162
X-78.289 Y-72.662 Z-2.017 I0 J-0.162
X-78.289 Y-72.338 Z-2.078 I0 J0.162
X-78.289 Y-72.662 Z-2.139 I0 J-0.162
X-78.289 Y-72.338 Z-2.2 I0 J0.162
X-78.289 Y-72.662 Z-2.261 I0 J-0.162
X-78.141 Y-72.433 Z-2.3 I0 J0.162
X-78.437 Y-72.567 I-0.148 J-0.067
X-78.141 Y-72.433 I0.148 J0.067
G1 X-78.16 Y-72.407
X-78.187 Y-72.39
X-78.218 Y-72.385
X-78.249 Y-72.392
X-78.393 Y-72.458
Z5
X-65.919 Y-103.377
Z1.683
Z0
Y-103.218
X-65.925 Y-103.187
X-65.943 Y-103.16
X-65.969 Y-103.143
X-66 Y-103.137
G3 X-66 Y-103.462 Z-0.061 I0 J-0.162
X-66 Y-103.137 Z-0.122 I0 J0.162
X-66 Y-103.462 Z-0.183 I0 J-0.162
X-66 Y-103.137 Z-0.244 I0 J0.162
X-66 Y-103.462 Z-0.306 I0 J-0.162
X-66 Y-103.137 Z-0.367 I0 J0.162
X-66 Y-103.462 Z-0.428 I0 J-0.162
X-66 Y-103.137 Z-0.489 I0 J0.162
X-66 Y-103.462 Z-0.55 I0 J-0.162
X-66 Y-103.137 Z-0.611 I0 J0.162
X-66 Y-103.462 Z-0.672 I0 J-0.162
X-66 Y-103.137 Z-0.733 I0 J0.162
X-66 Y-103.462 Z-0.794 I0 J-0.162
X-66 Y-103.137 Z-0.856 I0 J0.162
X-66 Y-103.462 Z-0.917 I0 J-0.162
X-66 Y-103.137 Z-0.978 I0 J0.162
X-66 Y-103.462 Z-1.039 I0 J-0.162
X-66 Y-103.137 Z-1.1 I0 J0.162
X-66 Y-103.462 Z-1.161 I0 J-0.162
X-66 Y-103.137 Z-1.222 I0 J0.162
X-66 Y-103.462 Z-1.283 I0 J-0.162
X-66 Y-103.137 Z-1.344 I0 J0.162
X-66 Y-103.462 Z-1.406 I0 J-0.162
X-66 Y-103.137 Z-1.467 I0 J0.162
X-66 Y-103.462 Z-1.528 I0 J-0.162
X-66 Y-103.137 Z-1.589 I0 J0.162
X-66 Y-103.462 Z-1.65 I0 J-0.162
X-66 Y-103.137 Z-1.711 I0 J0.162
X-66 Y-103.462 Z-1.772 I0 J-0.162
X-66 Y-103.137 Z-1.833 I0 J0.162
X-66 Y-103.462 Z-1.894 I0 J-0.162
X-66 Y-103.137 Z-1.956 I0 J0.162
X-66 Y-103.462 Z-2.017 I0 J-0.162
X-66 Y-103.137 Z-2.078 I0 J0.162
X-66 Y-103.461 Z-2.139 I0 J-0.162
X-66 Y-103.137 Z-2.2 I0 J0.162
X-66 Y-103.461 Z-2.261 I0 J-0.162
X-65.852 Y-103.232 Z-2.3 I0 J0.162
X-66.148 Y-103.366 I-0.148 J-0.067
X-65.852 Y-103.232 I0.148 J0.067
G1 X-65.871 Y-103.206
X-65.898 Y-103.189
X-65.929 Y-103.184
X-65.96 Y-103.191
X-66.104 Y-103.257
Z5
X-75.781 Y-104.222
Z1.683
Z0
Y-104.38
X-75.775 Y-104.411
X-75.757 Y-104.438
X-75.731 Y-104.455
X-75.7 Y-104.462
G3 X-75.7 Y-104.136 Z-0.061 I0 J0.163
X-75.7 Y-104.462 Z-0.122 I0 J-0.163
X-75.7 Y-104.136 Z-0.183 I0 J0.163
X-75.7 Y-104.462 Z-0.244 I0 J-0.163
X-75.7 Y-104.136 Z-0.306 I0 J0.163
X-75.7 Y-104.462 Z-0.367 I0 J-0.163
X-75.7 Y-104.136 Z-0.428 I0 J0.163
X-75.7 Y-104.462 Z-0.489 I0 J-0.163
X-75.7 Y-104.136 Z-0.55 I0 J0.163
X-75.7 Y-104.462 Z-0.611 I0 J-0.163
X-75.7 Y-104.136 Z-0.672 I0 J0.163
X-75.7 Y-104.462 Z-0.733 I0 J-0.163
X-75.7 Y-104.136 Z-0.794 I0 J0.163
X-75.7 Y-104.462 Z-0.856 I0 J-0.163
X-75.7 Y-104.136 Z-0.917 I0 J0.163
X-75.7 Y-104.462 Z-0.978 I0 J-0.163
X-75.7 Y-104.136 Z-1.039 I0 J0.163
X-75.7 Y-104.462 Z-1.1 I0 J-0.163
X-75.7 Y-104.136 Z-1.161 I0 J0.163
X-75.7 Y-104.462 Z-1.222 I0 J-0.163
X-75.7 Y-104.136 Z-1.283 I0 J0.163
X-75.7 Y-104.462 Z-1.344 I0 J-0.163
X-75.7 Y-104.136 Z-1.406 I0 J0.163
X-75.7 Y-104.462 Z-1.467 I0 J-0.163
X-75.7 Y-104.136 Z-1.528 I0 J0.163
X-75.7 Y-104.462 Z-1.589 I0 J-0.163
X-75.7 Y-104.136 Z-1.65 I0 J0.163
X-75.7 Y-104.462 Z-1.711 I0 J-0.163
X-75.7 Y-104.136 Z-1.772 I0 J0.163
X-75.7 Y-104.462 Z-1.833 I0 J-0.163
X-75.7 Y-104.136 Z-1.894 I0 J0.163
X-75.7 Y-104.462 Z-1.956 I0 J-0.163
X-75.7 Y-104.137 Z-2.017 I0 J0.163
X-75.7 Y-104.462 Z-2.078 I0 J-0.163
X-75.7 Y-104.137 Z-2.139 I0 J0.163
X-75.7 Y-104.462 Z-2.2 I0 J-0.163
X-75.7 Y-104.137 Z-2.261 I0 J0.163
X-75.848 Y-104.366 Z-2.3 I0 J-0.163
X-75.552 Y-104.232 I0.148 J0.067
X-75.848 Y-104.366 I-0.148 J-0.067
G1 X-75.829 Y-104.392
X-75.802 Y-104.409
X-75.771 Y-104.414
X-75.74 Y-104.407
X-75.596 Y-104.341
Z5
X-82.018 Y-105.418
Z2
Z0.317
G19 G2 Y-105.735 Z0 J-0.317 K0
G1 Y-105.894
G17 G3 X-81.7 Y-106.212 I0.318 J0
X-81.7 Y-102.386 Z-0.122 I0 J1.913
X-81.7 Y-106.212 Z-0.244 I0 J-1.913
X-81.7 Y-102.386 Z-0.367 I0 J1.913
X-81.7 Y-106.212 Z-0.489 I0 J-1.913
X-81.7 Y-102.387 Z-0.611 I0 J1.913
X-81.7 Y-106.212 Z-0.733 I0 J-1.913
X-81.7 Y-102.387 Z-0.856 I0 J1.913
X-81.7 Y-106.212 Z-0.978 I0 J-1.913
X-81.7 Y-102.387 Z-1.1 I0 J1.913
X-81.7 Y-106.212 Z-1.222 I0 J-1.913
X-81.7 Y-102.387 Z-1.344 I0 J1.913
X-81.7 Y-106.212 Z-1.467 I0 J-1.912
X-81.7 Y-102.387 Z-1.589 I0 J1.912
X-81.7 Y-106.212 Z-1.711 I0 J-1.912
X-81.7 Y-102.387 Z-1.833 I0 J1.912
X-81.7 Y-106.212 Z-1.956 I0 J-1.912
X-81.7 Y-102.387 Z-2.078 I0 J1.912
X-81.7 Y-106.211 Z-2.2 I0 J-1.912
X-80.666 Y-102.69 Z-2.3 I0 J1.912
X-82.734 Y-105.908 I-1.034 J-1.609
X-80.666 Y-102.69 I1.034 J1.609
X-81.104 Y-102.786 I-0.172 J-0.267
G1 X-81.19 Y-102.919
X-81.228 Y-102.979 Z-2.292
X-81.265 Y-103.035 Z-2.269
X-81.297 Y-103.086 Z-2.231
X-81.325 Y-103.128 Z-2.18
X-81.345 Y-103.16 Z-2.12
X-81.358 Y-103.18 Z-2.053
X-81.362 Y-103.186 Z-1.982
Z5
X-87.781 Y-104.222
Z1.683
Z0
Y-104.38
X-87.775 Y-104.411
X-87.757 Y-104.438
X-87.731 Y-104.455
X-87.7 Y-104.462
G3 X-87.7 Y-104.136 Z-0.061 I0 J0.163
X-87.7 Y-104.462 Z-0.122 I0 J-0.163
X-87.7 Y-104.136 Z-0.183 I0 J0.163
X-87.7 Y-104.462 Z-0.244 I0 J-0.163
X-87.7 Y-104.136 Z-0.306 I0 J0.163
X-87.7 Y-104.462 Z-0.367 I0 J-0.163
X-87.7 Y-104.136 Z-0.428 I0 J0.163
X-87.7 Y-104.462 Z-0.489 I0 J-0.163
X-87.7 Y-104.136 Z-0.55 I0 J0.163
X-87.7 Y-104.462 Z-0.611 I0 J-0.163
X-87.7 Y-104.136 Z-0.672 I0 J0.163
X-87.7 Y-104.462 Z-0.733 I0 J-0.163
X-87.7 Y-104.136 Z-0.794 I0 J0.163
X-87.7 Y-104.462 Z-0.856 I0 J-0.163
X-87.7 Y-104.136 Z-0.917 I0 J0.163
X-87.7 Y-104.462 Z-0.978 I0 J-0.163
X-87.7 Y-104.136 Z-1.039 I0 J0.163
X-87.7 Y-104.462 Z-1.1 I0 J-0.163
X-87.7 Y-104.136 Z-1.161 I0 J0.163
X-87.7 Y-104.462 Z-1.222 I0 J-0.163
X-87.7 Y-104.136 Z-1.283 I0 J0.163
X-87.7 Y-104.462 Z-1.344 I0 J-0.163
X-87.7 Y-104.136 Z-1.406 I0 J0.163
X-87.7 Y-104.462 Z-1.467 I0 J-0.163
X-87.7 Y-104.136 Z-1.528 I0 J0.163
X-87.7 Y-104.462 Z-1.589 I0 J-0.163
X-87.7 Y-104.136 Z-1.65 I0 J0.163
X-87.7 Y-104.462 Z-1.711 I0 J-0.163
X-87.7 Y-104.136 Z-1.772 I0 J0.163
X-87.7 Y-104.462 Z-1.833 I0 J-0.163
X-87.7 Y-104.136 Z-1.894 I0 J0.163
X-87.7 Y-104.462 Z-1.956 I0 J-0.163
X-87.7 Y-104.137 Z-2.017 I0 J0.163
X-87.7 Y-104.462 Z-2.078 I0 J-0.163
X-87.7 Y-104.137 Z-2.139 I0 J0.163
X-87.7 Y-104.462 Z-2.2 I0 J-0.163
X-87.7 Y-104.137 Z-2.261 I0 J0.163
X-87.848 Y-104.366 Z-2.3 I0 J-0.163
X-87.552 Y-104.232 I0.148 J0.067
X-87.848 Y-104.366 I-0.148 J-0.067
G1 X-87.829 Y-104.392
X-87.802 Y-104.409
X-87.771 Y-104.414
X-87.74 Y-104.407
X-87.596 Y-104.341
Z5
X-116.619 Y-105.475
Z1.683
Z0
Y-105.316
X-116.625 Y-105.285
X-116.643 Y-105.259
X-116.669 Y-105.241
X-116.7 Y-105.235
G3 X-116.7 Y-105.56 Z-0.061 I0 J-0.163
X-116.7 Y-105.235 Z-0.122 I0 J0.163
X-116.7 Y-105.56 Z-0.183 I0 J-0.163
X-116.7 Y-105.235 Z-0.244 I0 J0.163
X-116.7 Y-105.56 Z-0.306 I0 J-0.163
X-116.7 Y-105.235 Z-0.367 I0 J0.163
X-116.7 Y-105.56 Z-0.428 I0 J-0.163
X-116.7 Y-105.235 Z-0.489 I0 J0.163
X-116.7 Y-105.56 Z-0.55 I0 J-0.163
X-116.7 Y-105.235 Z-0.611 I0 J0.163
X-116.7 Y-105.56 Z-0.672 I0 J-0.163
X-116.7 Y-105.235 Z-0.733 I0 J0.163
X-116.7 Y-105.56 Z-0.794 I0 J-0.163
X-116.7 Y-105.235 Z-0.856 I0 J0.163
X-116.7 Y-105.56 Z-0.917 I0 J-0.163
X-116.7 Y-105.235 Z-0.978 I0 J0.163
X-116.7 Y-105.56 Z-1.039 I0 J-0.163
X-116.7 Y-105.235 Z-1.1 I0 J0.163
X-116.7 Y-105.56 Z-1.161 I0 J-0.163
X-116.7 Y-105.235 Z-1.222 I0 J0.163
X-116.7 Y-105.56 Z-1.283 I0 J-0.163
X-116.7 Y-105.235 Z-1.344 I0 J0.163
X-116.7 Y-105.56 Z-1.406 I0 J-0.163
X-116.7 Y-105.235 Z-1.467 I0 J0.163
X-116.7 Y-105.56 Z-1.528 I0 J-0.163
X-116.7 Y-105.235 Z-1.589 I0 J0.163
X-116.7 Y-105.56 Z-1.65 I0 J-0.163
X-116.7 Y-105.235 Z-1.711 I0 J0.163
X-116.7 Y-105.56 Z-1.772 I0 J-0.163
X-116.7 Y-105.235 Z-1.833 I0 J0.163
X-116.7 Y-105.56 Z-1.894 I0 J-0.163
X-116.7 Y-105.235 Z-1.956 I0 J0.163
X-116.7 Y-105.56 Z-2.017 I0 J-0.163
X-116.7 Y-105.235 Z-2.078 I0 J0.163
X-116.7 Y-105.56 Z-2.139 I0 J-0.163
X-116.7 Y-105.235 Z-2.2 I0 J0.162
X-116.7 Y-105.56 Z-2.261 I0 J-0.162
X-116.552 Y-105.33 Z-2.3 I0 J0.162
X-116.848 Y-105.465 I-0.148 J-0.067
X-116.552 Y-105.33 I0.148 J0.067
G1 X-116.571 Y-105.305
X-116.598 Y-105.288
X-116.629 Y-105.283
X-116.66 Y-105.29
X-116.804 Y-105.356
Z5
X-114.082 Y-85.077
Z1.683
Z0
Y-84.919
X-114.088 Y-84.888
X-114.105 Y-84.861
X-114.132 Y-84.844
X-114.163 Y-84.838
G3 X-114.163 Y-85.162 Z-0.061 I0 J-0.162
X-114.163 Y-84.838 Z-0.122 I0 J0.162
X-114.163 Y-85.162 Z-0.183 I0 J-0.162
X-114.163 Y-84.838 Z-0.244 I0 J0.162
X-114.163 Y-85.162 Z-0.306 I0 J-0.162
X-114.163 Y-84.838 Z-0.367 I0 J0.162
X-114.163 Y-85.162 Z-0.428 I0 J-0.162
X-114.163 Y-84.838 Z-0.489 I0 J0.162
X-114.163 Y-85.162 Z-0.55 I0 J-0.162
X-114.163 Y-84.838 Z-0.611 I0 J0.162
X-114.163 Y-85.162 Z-0.672 I0 J-0.162
X-114.163 Y-84.838 Z-0.733 I0 J0.162
X-114.163 Y-85.163 Z-0.794 I0 J-0.162
X-114.163 Y-84.837 Z-0.856 I0 J0.163
X-114.163 Y-85.163 Z-0.917 I0 J-0.163
X-114.163 Y-84.837 Z-0.978 I0 J0.163
X-114.163 Y-85.163 Z-1.039 I0 J-0.163
X-114.163 Y-84.837 Z-1.1 I0 J0.163
X-114.163 Y-85.163 Z-1.161 I0 J-0.163
X-114.163 Y-84.837 Z-1.222 I0 J0.163
X-114.163 Y-85.163 Z-1.283 I0 J-0.163
X-114.163 Y-84.837 Z-1.344 I0 J0.163
X-114.163 Y-85.163 Z-1.406 I0 J-0.163
X-114.163 Y-84.837 Z-1.467 I0 J0.163
X-114.163 Y-85.163 Z-1.528 I0 J-0.163
X-114.163 Y-84.837 Z-1.589 I0 J0.163
X-114.163 Y-85.163 Z-1.65 I0 J-0.163
X-114.163 Y-84.837 Z-1.711 I0 J0.163
X-114.163 Y-85.163 Z-1.772 I0 J-0.163
X-114.163 Y-84.837 Z-1.833 I0 J0.163
X-114.163 Y-85.163 Z-1.894 I0 J-0.163
X-114.163 Y-84.837 Z-1.956 I0 J0.163
X-114.163 Y-85.163 Z-2.017 I0 J-0.163
X-114.163 Y-84.837 Z-2.078 I0 J0.163
X-114.163 Y-85.163 Z-2.139 I0 J-0.163
X-114.163 Y-84.837 Z-2.2 I0 J0.163
X-114.163 Y-85.163 Z-2.261 I0 J-0.163
X-114.015 Y-84.933 Z-2.3 I0 J0.163
X-114.311 Y-85.067 I-0.148 J-0.067
X-114.015 Y-84.933 I0.148 J0.067
G1 X-114.033 Y-84.907
X-114.06 Y-84.89
X-114.092 Y-84.885
X-114.123 Y-84.892
X-114.267 Y-84.958
Z5
X-131.258 Y-63.827
Z1.683
Z0
Y-63.669
X-131.264 Y-63.638
X-131.282 Y-63.611
X-131.308 Y-63.594
X-131.339 Y-63.588
G3 X-131.339 Y-63.912 Z-0.061 I0 J-0.162
X-131.339 Y-63.588 Z-0.122 I0 J0.162
X-131.339 Y-63.912 Z-0.183 I0 J-0.162
X-131.339 Y-63.588 Z-0.244 I0 J0.162
X-131.339 Y-63.912 Z-0.306 I0 J-0.162
X-131.339 Y-63.588 Z-0.367 I0 J0.162
X-131.339 Y-63.912 Z-0.428 I0 J-0.162
X-131.339 Y-63.588 Z-0.489 I0 J0.162
X-131.339 Y-63.912 Z-0.55 I0 J-0.162
X-131.339 Y-63.588 Z-0.611 I0 J0.162
X-131.339 Y-63.912 Z-0.672 I0 J-0.162
X-131.339 Y-63.588 Z-0.733 I0 J0.162
X-131.339 Y-63.912 Z-0.794 I0 J-0.162
X-131.339 Y-63.588 Z-0.856 I0 J0.162
X-131.339 Y-63.912 Z-0.917 I0 J-0.162
X-131.339 Y-63.588 Z-0.978 I0 J0.162
X-131.339 Y-63.912 Z-1.039 I0 J-0.162
X-131.339 Y-63.588 Z-1.1 I0 J0.162
X-131.339 Y-63.912 Z-1.161 I0 J-0.162
X-131.339 Y-63.588 Z-1.222 I0 J0.162
X-131.339 Y-63.912 Z-1.283 I0 J-0.162
X-131.339 Y-63.588 Z-1.344 I0 J0.162
X-131.339 Y-63.912 Z-1.406 I0 J-0.162
X-131.339 Y-63.588 Z-1.467 I0 J0.162
X-131.339 Y-63.912 Z-1.528 I0 J-0.162
X-131.339 Y-63.588 Z-1.589 I0 J0.162
X-131.339 Y-63.912 Z-1.65 I0 J-0.162
X-131.339 Y-63.588 Z-1.711 I0 J0.162
X-131.339 Y-63.912 Z-1.772 I0 J-0.162
X-131.339 Y-63.588 Z-1.833 I0 J0.162
X-131.339 Y-63.912 Z-1.894 I0 J-0.162
X-131.339 Y-63.588 Z-1.956 I0 J0.162
X-131.339 Y-63.912 Z-2.017 I0 J-0.162
X-131.339 Y-63.588 Z-2.078 I0 J0.162
X-131.339 Y-63.912 Z-2.139 I0 J-0.162
X-131.339 Y-63.588 Z-2.2 I0 J0.162
X-131.339 Y-63.912 Z-2.261 I0 J-0.162
X-131.191 Y-63.683 Z-2.3 I0 J0.162
X-131.487 Y-63.817 I-0.148 J-0.067
X-131.191 Y-63.683 I0.148 J0.067
G1 X-131.21 Y-63.657
X-131.237 Y-63.64
X-131.268 Y-63.635
X-131.299 Y-63.642
X-131.443 Y-63.708
Z5
X-146.508 Y-76.577
Z1.683
Z0
Y-76.419
X-146.514 Y-76.388
X-146.532 Y-76.361
X-146.558 Y-76.344
X-146.589 Y-76.338
G3 X-146.589 Y-76.662 Z-0.061 I0 J-0.162
X-146.589 Y-76.338 Z-0.122 I0 J0.162
X-146.589 Y-76.662 Z-0.183 I0 J-0.162
X-146.589 Y-76.338 Z-0.244 I0 J0.162
X-146.589 Y-76.662 Z-0.306 I0 J-0.162
X-146.589 Y-76.338 Z-0.367 I0 J0.162
X-146.589 Y-76.662 Z-0.428 I0 J-0.162
X-146.589 Y-76.338 Z-0.489 I0 J0.162
X-146.589 Y-76.662 Z-0.55 I0 J-0.162
X-146.589 Y-76.338 Z-0.611 I0 J0.162
X-146.589 Y-76.662 Z-0.672 I0 J-0.162
X-146.589 Y-76.338 Z-0.733 I0 J0.162
X-146.589 Y-76.662 Z-0.794 I0 J-0.162
X-146.589 Y-76.338 Z-0.856 I0 J0.162
X-146.589 Y-76.662 Z-0.917 I0 J-0.162
X-146.589 Y-76.338 Z-0.978 I0 J0.162
X-146.589 Y-76.662 Z-1.039 I0 J-0.162
X-146.589 Y-76.338 Z-1.1 I0 J0.162
X-146.589 Y-76.662 Z-1.161 I0 J-0.162
X-146.589 Y-76.338 Z-1.222 I0 J0.162
X-146.589 Y-76.662 Z-1.283 I0 J-0.162
X-146.589 Y-76.338 Z-1.344 I0 J0.162
X-146.589 Y-76.662 Z-1.406 I0 J-0.162
X-146.589 Y-76.338 Z-1.467 I0 J0.162
X-146.589 Y-76.662 Z-1.528 I0 J-0.162
X-146.589 Y-76.338 Z-1.589 I0 J0.162
X-146.589 Y-76.662 Z-1.65 I0 J-0.162
X-146.589 Y-76.338 Z-1.711 I0 J0.162
X-146.589 Y-76.662 Z-1.772 I0 J-0.162
X-146.589 Y-76.338 Z-1.833 I0 J0.162
X-146.589 Y-76.662 Z-1.894 I0 J-0.162
X-146.589 Y-76.338 Z-1.956 I0 J0.162
X-146.589 Y-76.662 Z-2.017 I0 J-0.162
X-146.589 Y-76.338 Z-2.078 I0 J0.162
X-146.589 Y-76.662 Z-2.139 I0 J-0.162
X-146.589 Y-76.338 Z-2.2 I0 J0.162
X-146.589 Y-76.662 Z-2.261 I0 J-0.162
X-146.441 Y-76.433 Z-2.3 I0 J0.162
X-146.737 Y-76.567 I-0.148 J-0.067
X-146.441 Y-76.433 I0.148 J0.067
G1 X-146.46 Y-76.407
X-146.487 Y-76.39
X-146.518 Y-76.385
X-146.549 Y-76.392
X-146.693 Y-76.458
Z5
X-161.758 Y-63.827
Z1.683
Z0
Y-63.669
X-161.764 Y-63.638
X-161.782 Y-63.611
X-161.808 Y-63.594
X-161.839 Y-63.588
G3 X-161.839 Y-63.912 Z-0.061 I0 J-0.162
X-161.839 Y-63.588 Z-0.122 I0 J0.162
X-161.839 Y-63.912 Z-0.183 I0 J-0.162
X-161.839 Y-63.588 Z-0.244 I0 J0.162
X-161.839 Y-63.912 Z-0.306 I0 J-0.162
X-161.839 Y-63.588 Z-0.367 I0 J0.162
X-161.839 Y-63.912 Z-0.428 I0 J-0.162
X-161.839 Y-63.588 Z-0.489 I0 J0.162
X-161.839 Y-63.912 Z-0.55 I0 J-0.162
X-161.839 Y-63.588 Z-0.611 I0 J0.162
X-161.839 Y-63.912 Z-0.672 I0 J-0.162
X-161.839 Y-63.588 Z-0.733 I0 J0.162
X-161.839 Y-63.912 Z-0.794 I0 J-0.162
X-161.839 Y-63.588 Z-0.856 I0 J0.162
X-161.839 Y-63.912 Z-0.917 I0 J-0.162
X-161.839 Y-63.588 Z-0.978 I0 J0.162
X-161.839 Y-63.912 Z-1.039 I0 J-0.162
X-161.839 Y-63.588 Z-1.1 I0 J0.162
X-161.839 Y-63.912 Z-1.161 I0 J-0.162
X-161.839 Y-63.588 Z-1.222 I0 J0.162
X-161.839 Y-63.912 Z-1.283 I0 J-0.162
X-161.839 Y-63.588 Z-1.344 I0 J0.162
X-161.839 Y-63.912 Z-1.406 I0 J-0.162
X-161.839 Y-63.588 Z-1.467 I0 J0.162
X-161.839 Y-63.912 Z-1.528 I0 J-0.162
X-161.839 Y-63.588 Z-1.589 I0 J0.162
X-161.839 Y-63.912 Z-1.65 I0 J-0.162
X-161.839 Y-63.588 Z-1.711 I0 J0.162
X-161.839 Y-63.912 Z-1.772 I0 J-0.162
X-161.839 Y-63.588 Z-1.833 I0 J0.162
X-161.839 Y-63.912 Z-1.894 I0 J-0.162
X-161.839 Y-63.588 Z-1.956 I0 J0.162
X-161.839 Y-63.912 Z-2.017 I0 J-0.162
X-161.839 Y-63.588 Z-2.078 I0 J0.162
X-161.839 Y-63.912 Z-2.139 I0 J-0.162
X-161.839 Y-63.588 Z-2.2 I0 J0.162
X-161.839 Y-63.912 Z-2.261 I0 J-0.162
X-161.691 Y-63.683 Z-2.3 I0 J0.162
X-161.987 Y-63.817 I-0.148 J-0.067
X-161.691 Y-63.683 I0.148 J0.067
G1 X-161.71 Y-63.657
X-161.737 Y-63.64
X-161.768 Y-63.635
X-161.799 Y-63.642
X-161.943 Y-63.708
Z5
X-197.208 Y-78.676
Z1.683
Z0
Y-78.517
X-197.214 Y-78.486
X-197.232 Y-78.46
X-197.258 Y-78.442
X-197.289 Y-78.436
G3 X-197.289 Y-78.761 Z-0.061 I0 J-0.162
X-197.289 Y-78.436 Z-0.122 I0 J0.162
X-197.289 Y-78.761 Z-0.183 I0 J-0.162
X-197.289 Y-78.436 Z-0.244 I0 J0.162
X-197.289 Y-78.761 Z-0.306 I0 J-0.162
X-197.289 Y-78.436 Z-0.367 I0 J0.162
X-197.289 Y-78.761 Z-0.428 I0 J-0.162
X-197.289 Y-78.436 Z-0.489 I0 J0.162
X-197.289 Y-78.761 Z-0.55 I0 J-0.162
X-197.289 Y-78.436 Z-0.611 I0 J0.162
X-197.289 Y-78.761 Z-0.672 I0 J-0.162
X-197.289 Y-78.436 Z-0.733 I0 J0.162
X-197.289 Y-78.761 Z-0.794 I0 J-0.162
X-197.289 Y-78.436 Z-0.856 I0 J0.162
X-197.289 Y-78.761 Z-0.917 I0 J-0.162
X-197.289 Y-78.436 Z-0.978 I0 J0.162
X-197.289 Y-78.761 Z-1.039 I0 J-0.162
X-197.289 Y-78.436 Z-1.1 I0 J0.162
X-197.289 Y-78.761 Z-1.161 I0 J-0.162
X-197.289 Y-78.436 Z-1.222 I0 J0.162
X-197.289 Y-78.761 Z-1.283 I0 J-0.162
X-197.289 Y-78.436 Z-1.344 I0 J0.162
X-197.289 Y-78.761 Z-1.406 I0 J-0.162
X-197.289 Y-78.436 Z-1.467 I0 J0.162
X-197.289 Y-78.761 Z-1.528 I0 J-0.162
X-197.289 Y-78.436 Z-1.589 I0 J0.162
X-197.289 Y-78.761 Z-1.65 I0 J-0.162
X-197.289 Y-78.436 Z-1.711 I0 J0.162
X-197.289 Y-78.761 Z-1.772 I0 J-0.162
X-197.289 Y-78.436 Z-1.833 I0 J0.162
X-197.289 Y-78.761 Z-1.894 I0 J-0.162
X-197.289 Y-78.436 Z-1.956 I0 J0.162
X-197.289 Y-78.761 Z-2.017 I0 J-0.162
X-197.289 Y-78.436 Z-2.078 I0 J0.162
X-197.289 Y-78.761 Z-2.139 I0 J-0.162
X-197.289 Y-78.436 Z-2.2 I0 J0.162
X-197.289 Y-78.761 Z-2.261 I0 J-0.162
X-197.141 Y-78.531 Z-2.3 I0 J0.162
X-197.437 Y-78.666 I-0.148 J-0.067
X-197.141 Y-78.531 I0.148 J0.067
G1 X-197.16 Y-78.506
X-197.187 Y-78.489
X-197.218 Y-78.484
X-197.249 Y-78.491
X-197.393 Y-78.557
Z5
X-178.934 Y-85.077
Z1.683
Z0
Y-84.919
X-178.94 Y-84.888
X-178.958 Y-84.861
X-178.984 Y-84.844
X-179.015 Y-84.838
G3 X-179.015 Y-85.162 Z-0.061 I0 J-0.162
X-179.015 Y-84.838 Z-0.122 I0 J0.162
X-179.015 Y-85.162 Z-0.183 I0 J-0.162
X-179.015 Y-84.838 Z-0.244 I0 J0.162
X-179.015 Y-85.163 Z-0.306 I0 J-0.162
X-179.015 Y-84.837 Z-0.367 I0 J0.163
X-179.015 Y-85.163 Z-0.428 I0 J-0.163
X-179.015 Y-84.837 Z-0.489 I0 J0.163
X-179.015 Y-85.163 Z-0.55 I0 J-0.163
X-179.015 Y-84.837 Z-0.611 I0 J0.163
X-179.015 Y-85.163 Z-0.672 I0 J-0.163
X-179.015 Y-84.837 Z-0.733 I0 J0.163
X-179.015 Y-85.163 Z-0.794 I0 J-0.163
X-179.015 Y-84.837 Z-0.856 I0 J0.163
X-179.015 Y-85.163 Z-0.917 I0 J-0.163
X-179.015 Y-84.837 Z-0.978 I0 J0.163
X-179.015 Y-85.163 Z-1.039 I0 J-0.163
X-179.015 Y-84.837 Z-1.1 I0 J0.163
X-179.015 Y-85.163 Z-1.161 I0 J-0.163
X-179.015 Y-84.837 Z-1.222 I0 J0.163
X-179.015 Y-85.163 Z-1.283 I0 J-0.163
X-179.015 Y-84.837 Z-1.344 I0 J0.163
X-179.015 Y-85.163 Z-1.406 I0 J-0.163
X-179.015 Y-84.837 Z-1.467 I0 J0.163
X-179.015 Y-85.163 Z-1.528 I0 J-0.163
X-179.015 Y-84.837 Z-1.589 I0 J0.163
X-179.015 Y-85.163 Z-1.65 I0 J-0.163
X-179.015 Y-84.837 Z-1.711 I0 J0.163
X-179.015 Y-85.163 Z-1.772 I0 J-0.163
X-179.015 Y-84.837 Z-1.833 I0 J0.163
X-179.015 Y-85.163 Z-1.894 I0 J-0.163
X-179.015 Y-84.837 Z-1.956 I0 J0.163
X-179.015 Y-85.163 Z-2.017 I0 J-0.163
X-179.015 Y-84.837 Z-2.078 I0 J0.163
X-179.015 Y-85.163 Z-2.139 I0 J-0.163
X-179.015 Y-84.837 Z-2.2 I0 J0.163
X-179.015 Y-85.163 Z-2.261 I0 J-0.163
X-178.868 Y-84.933 Z-2.3 I0 J0.163
X-179.163 Y-85.067 I-0.148 J-0.067
X-178.868 Y-84.933 I0.148 J0.067
G1 X-178.886 Y-84.907
X-178.913 Y-84.89
X-178.944 Y-84.885
X-178.975 Y-84.892
X-179.12 Y-84.958
Z5
X-184.919 Y-109.475
Z1.683
Z0
Y-109.316
X-184.925 Y-109.285
X-184.943 Y-109.259
X-184.969 Y-109.241
X-185 Y-109.235
G3 X-185 Y-109.56 Z-0.061 I0 J-0.163
X-185 Y-109.235 Z-0.122 I0 J0.163
X-185 Y-109.56 Z-0.183 I0 J-0.163
X-185 Y-109.235 Z-0.244 I0 J0.163
X-185 Y-109.56 Z-0.306 I0 J-0.163
X-185 Y-109.235 Z-0.367 I0 J0.163
X-185 Y-109.56 Z-0.428 I0 J-0.163
X-185 Y-109.235 Z-0.489 I0 J0.163
X-185 Y-109.56 Z-0.55 I0 J-0.163
X-185 Y-109.235 Z-0.611 I0 J0.163
X-185 Y-109.56 Z-0.672 I0 J-0.163
X-185 Y-109.235 Z-0.733 I0 J0.163
X-185 Y-109.56 Z-0.794 I0 J-0.163
X-185 Y-109.235 Z-0.856 I0 J0.163
X-185 Y-109.56 Z-0.917 I0 J-0.163
X-185 Y-109.235 Z-0.978 I0 J0.163
X-185 Y-109.56 Z-1.039 I0 J-0.163
X-185 Y-109.235 Z-1.1 I0 J0.163
X-185 Y-109.56 Z-1.161 I0 J-0.163
X-185 Y-109.235 Z-1.222 I0 J0.163
X-185 Y-109.56 Z-1.283 I0 J-0.163
X-185 Y-109.235 Z-1.344 I0 J0.163
X-185 Y-109.56 Z-1.406 I0 J-0.163
X-185 Y-109.235 Z-1.467 I0 J0.163
X-185 Y-109.56 Z-1.528 I0 J-0.163
X-185 Y-109.235 Z-1.589 I0 J0.163
X-185 Y-109.56 Z-1.65 I0 J-0.163
X-185 Y-109.235 Z-1.711 I0 J0.163
X-185 Y-109.56 Z-1.772 I0 J-0.163
X-185 Y-109.235 Z-1.833 I0 J0.163
X-185 Y-109.56 Z-1.894 I0 J-0.163
X-185 Y-109.235 Z-1.956 I0 J0.163
X-185 Y-109.56 Z-2.017 I0 J-0.163
X-185 Y-109.235 Z-2.078 I0 J0.163
X-185 Y-109.56 Z-2.139 I0 J-0.163
X-185 Y-109.235 Z-2.2 I0 J0.162
X-185 Y-109.56 Z-2.261 I0 J-0.162
X-184.852 Y-109.33 Z-2.3 I0 J0.162
X-185.148 Y-109.465 I-0.148 J-0.067
X-184.852 Y-109.33 I0.148 J0.067
G1 X-184.871 Y-109.305
X-184.898 Y-109.288
X-184.929 Y-109.283
X-184.96 Y-109.29
X-185.104 Y-109.356
Z5
X-185.081 Y-157.32
Z1.683
Z0
Y-157.479
X-185.075 Y-157.51
X-185.057 Y-157.536
X-185.031 Y-157.554
X-185 Y-157.56
G3 X-185 Y-157.235 Z-0.061 I0 J0.162
X-185 Y-157.56 Z-0.122 I0 J-0.162
X-185 Y-157.235 Z-0.183 I0 J0.162
X-185 Y-157.56 Z-0.244 I0 J-0.162
X-185 Y-157.235 Z-0.306 I0 J0.162
X-185 Y-157.56 Z-0.367 I0 J-0.162
X-185 Y-157.235 Z-0.428 I0 J0.162
X-185 Y-157.56 Z-0.489 I0 J-0.162
X-185 Y-157.235 Z-0.55 I0 J0.162
X-185 Y-157.56 Z-0.611 I0 J-0.162
X-185 Y-157.235 Z-0.672 I0 J0.162
X-185 Y-157.56 Z-0.733 I0 J-0.162
X-185 Y-157.235 Z-0.794 I0 J0.162
X-185 Y-157.56 Z-0.856 I0 J-0.162
X-185 Y-157.235 Z-0.917 I0 J0.162
X-185 Y-157.56 Z-0.978 I0 J-0.162
X-185 Y-157.235 Z-1.039 I0 J0.162
X-185 Y-157.56 Z-1.1 I0 J-0.162
X-185 Y-157.235 Z-1.161 I0 J0.162
X-185 Y-157.56 Z-1.222 I0 J-0.162
X-185 Y-157.235 Z-1.283 I0 J0.162
X-185 Y-157.56 Z-1.344 I0 J-0.162
X-185 Y-157.235 Z-1.406 I0 J0.162
X-185 Y-157.56 Z-1.467 I0 J-0.162
X-185 Y-157.235 Z-1.528 I0 J0.162
X-185 Y-157.56 Z-1.589 I0 J-0.162
X-185 Y-157.235 Z-1.65 I0 J0.162
X-185 Y-157.56 Z-1.711 I0 J-0.162
X-185 Y-157.235 Z-1.772 I0 J0.162
X-185 Y-157.56 Z-1.833 I0 J-0.162
X-185 Y-157.235 Z-1.894 I0 J0.162
X-185 Y-157.56 Z-1.956 I0 J-0.162
X-185 Y-157.235 Z-2.017 I0 J0.162
X-185 Y-157.56 Z-2.078 I0 J-0.162
X-185 Y-157.235 Z-2.139 I0 J0.162
X-185 Y-157.56 Z-2.2 I0 J-0.162
X-185 Y-157.235 Z-2.261 I0 J0.162
X-185.148 Y-157.465 Z-2.3 I0 J-0.162
X-184.852 Y-157.33 I0.148 J0.067
X-185.148 Y-157.465 I-0.148 J-0.067
G1 X-185.129 Y-157.491
X-185.102 Y-157.508
X-185.071 Y-157.513
X-185.04 Y-157.505
X-184.896 Y-157.439
Z5
X-250.081 Y-157.32
Z1.683
Z0
Y-157.479
X-250.075 Y-157.51
X-250.057 Y-157.536
X-250.031 Y-157.554
X-250 Y-157.56
G3 X-250 Y-157.235 Z-0.061 I0 J0.162
X-250 Y-157.56 Z-0.122 I0 J-0.162
X-250 Y-157.235 Z-0.183 I0 J0.162
X-250 Y-157.56 Z-0.244 I0 J-0.162
X-250 Y-157.235 Z-0.306 I0 J0.162
X-250 Y-157.56 Z-0.367 I0 J-0.162
X-250 Y-157.235 Z-0.428 I0 J0.162
X-250 Y-157.56 Z-0.489 I0 J-0.162
X-250 Y-157.235 Z-0.55 I0 J0.162
X-250 Y-157.56 Z-0.611 I0 J-0.162
X-250 Y-157.235 Z-0.672 I0 J0.162
X-250 Y-157.56 Z-0.733 I0 J-0.162
X-250 Y-157.235 Z-0.794 I0 J0.162
X-250 Y-157.56 Z-0.856 I0 J-0.162
X-250 Y-157.235 Z-0.917 I0 J0.162
X-250 Y-157.56 Z-0.978 I0 J-0.162
X-250 Y-157.235 Z-1.039 I0 J0.162
X-250 Y-157.56 Z-1.1 I0 J-0.162
X-250 Y-157.235 Z-1.161 I0 J0.162
X-250 Y-157.56 Z-1.222 I0 J-0.162
X-250 Y-157.235 Z-1.283 I0 J0.162
X-250 Y-157.56 Z-1.344 I0 J-0.162
X-250 Y-157.235 Z-1.406 I0 J0.162
X-250 Y-157.56 Z-1.467 I0 J-0.162
X-250 Y-157.235 Z-1.528 I0 J0.162
X-250 Y-157.56 Z-1.589 I0 J-0.162
X-250 Y-157.235 Z-1.65 I0 J0.162
X-250 Y-157.56 Z-1.711 I0 J-0.162
X-250 Y-157.235 Z-1.772 I0 J0.162
X-250 Y-157.56 Z-1.833 I0 J-0.162
X-250 Y-157.235 Z-1.894 I0 J0.162
X-250 Y-157.56 Z-1.956 I0 J-0.162
X-250 Y-157.235 Z-2.017 I0 J0.162
X-250 Y-157.56 Z-2.078 I0 J-0.162
X-250 Y-157.235 Z-2.139 I0 J0.162
X-250 Y-157.56 Z-2.2 I0 J-0.162
X-250 Y-157.235 Z-2.261 I0 J0.162
X-250.148 Y-157.465 Z-2.3 I0 J-0.162
X-249.852 Y-157.33 I0.148 J0.067
X-250.148 Y-157.465 I-0.148 J-0.067
G1 X-250.129 Y-157.491
X-250.102 Y-157.508
X-250.071 Y-157.513
X-250.04 Y-157.505
X-249.896 Y-157.439
Z5
X-249.919 Y-109.475
Z1.683
Z0
Y-109.316
X-249.925 Y-109.285
X-249.943 Y-109.259
X-249.969 Y-109.241
X-250 Y-109.235
G3 X-250 Y-109.56 Z-0.061 I0 J-0.163
X-250 Y-109.235 Z-0.122 I0 J0.163
X-250 Y-109.56 Z-0.183 I0 J-0.163
X-250 Y-109.235 Z-0.244 I0 J0.163
X-250 Y-109.56 Z-0.306 I0 J-0.163
X-250 Y-109.235 Z-0.367 I0 J0.163
X-250 Y-109.56 Z-0.428 I0 J-0.163
X-250 Y-109.235 Z-0.489 I0 J0.163
X-250 Y-109.56 Z-0.55 I0 J-0.163
X-250 Y-109.235 Z-0.611 I0 J0.163
X-250 Y-109.56 Z-0.672 I0 J-0.163
X-250 Y-109.235 Z-0.733 I0 J0.163
X-250 Y-109.56 Z-0.794 I0 J-0.163
X-250 Y-109.235 Z-0.856 I0 J0.163
X-250 Y-109.56 Z-0.917 I0 J-0.163
X-250 Y-109.235 Z-0.978 I0 J0.163
X-250 Y-109.56 Z-1.039 I0 J-0.163
X-250 Y-109.235 Z-1.1 I0 J0.163
X-250 Y-109.56 Z-1.161 I0 J-0.163
X-250 Y-109.235 Z-1.222 I0 J0.163
X-250 Y-109.56 Z-1.283 I0 J-0.163
X-250 Y-109.235 Z-1.344 I0 J0.163
X-250 Y-109.56 Z-1.406 I0 J-0.163
X-250 Y-109.235 Z-1.467 I0 J0.163
X-250 Y-109.56 Z-1.528 I0 J-0.163
X-250 Y-109.235 Z-1.589 I0 J0.163
X-250 Y-109.56 Z-1.65 I0 J-0.163
X-250 Y-109.235 Z-1.711 I0 J0.163
X-250 Y-109.56 Z-1.772 I0 J-0.163
X-250 Y-109.235 Z-1.833 I0 J0.163
X-250 Y-109.56 Z-1.894 I0 J-0.163
X-250 Y-109.235 Z-1.956 I0 J0.163
X-250 Y-109.56 Z-2.017 I0 J-0.163
X-250 Y-109.235 Z-2.078 I0 J0.163
X-250 Y-109.56 Z-2.139 I0 J-0.163
X-250 Y-109.235 Z-2.2 I0 J0.162
X-250 Y-109.56 Z-2.261 I0 J-0.162
X-249.852 Y-109.33 Z-2.3 I0 J0.162
X-250.148 Y-109.465 I-0.148 J-0.067
X-249.852 Y-109.33 I0.148 J0.067
G1 X-249.871 Y-109.305
X-249.898 Y-109.288
X-249.929 Y-109.283
X-249.96 Y-109.29
X-250.104 Y-109.356
Z5
X-237.208 Y-78.676
Z1.683
Z0
Y-78.517
X-237.214 Y-78.486
X-237.232 Y-78.46
X-237.258 Y-78.442
X-237.289 Y-78.436
G3 X-237.289 Y-78.761 Z-0.061 I0 J-0.162
X-237.289 Y-78.436 Z-0.122 I0 J0.162
X-237.289 Y-78.761 Z-0.183 I0 J-0.162
X-237.289 Y-78.436 Z-0.244 I0 J0.162
X-237.289 Y-78.761 Z-0.306 I0 J-0.162
X-237.289 Y-78.436 Z-0.367 I0 J0.162
X-237.289 Y-78.761 Z-0.428 I0 J-0.162
X-237.289 Y-78.436 Z-0.489 I0 J0.162
X-237.289 Y-78.761 Z-0.55 I0 J-0.162
X-237.289 Y-78.436 Z-0.611 I0 J0.162
X-237.289 Y-78.761 Z-0.672 I0 J-0.162
X-237.289 Y-78.436 Z-0.733 I0 J0.162
X-237.289 Y-78.761 Z-0.794 I0 J-0.162
X-237.289 Y-78.436 Z-0.856 I0 J0.162
X-237.289 Y-78.761 Z-0.917 I0 J-0.162
X-237.289 Y-78.436 Z-0.978 I0 J0.162
X-237.289 Y-78.761 Z-1.039 I0 J-0.162
X-237.289 Y-78.436 Z-1.1 I0 J0.162
X-237.289 Y-78.761 Z-1.161 I0 J-0.162
X-237.289 Y-78.436 Z-1.222 I0 J0.162
X-237.289 Y-78.761 Z-1.283 I0 J-0.162
X-237.289 Y-78.436 Z-1.344 I0 J0.162
X-237.289 Y-78.761 Z-1.406 I0 J-0.162
X-237.289 Y-78.436 Z-1.467 I0 J0.162
X-237.289 Y-78.761 Z-1.528 I0 J-0.162
X-237.289 Y-78.436 Z-1.589 I0 J0.162
X-237.289 Y-78.761 Z-1.65 I0 J-0.162
X-237.289 Y-78.436 Z-1.711 I0 J0.162
X-237.289 Y-78.761 Z-1.772 I0 J-0.162
X-237.289 Y-78.436 Z-1.833 I0 J0.162
X-237.289 Y-78.761 Z-1.894 I0 J-0.162
X-237.289 Y-78.436 Z-1.956 I0 J0.162
X-237.289 Y-78.761 Z-2.017 I0 J-0.162
X-237.289 Y-78.436 Z-2.078 I0 J0.162
X-237.289 Y-78.761 Z-2.139 I0 J-0.162
X-237.289 Y-78.436 Z-2.2 I0 J0.162
X-237.289 Y-78.761 Z-2.261 I0 J-0.162
X-237.141 Y-78.531 Z-2.3 I0 J0.162
X-237.437 Y-78.666 I-0.148 J-0.067
X-237.141 Y-78.531 I0.148 J0.067
G1 X-237.16 Y-78.506
X-237.187 Y-78.489
X-237.218 Y-78.484
X-237.249 Y-78.491
X-237.393 Y-78.557
Z5
X-116.781 Y-161.32
Z1.683
Z0
Y-161.479
X-116.775 Y-161.51
X-116.757 Y-161.536
X-116.731 Y-161.554
X-116.7 Y-161.56
G3 X-116.7 Y-161.235 Z-0.061 I0 J0.162
X-116.7 Y-161.56 Z-0.122 I0 J-0.162
X-116.7 Y-161.235 Z-0.183 I0 J0.162
X-116.7 Y-161.56 Z-0.244 I0 J-0.162
X-116.7 Y-161.235 Z-0.306 I0 J0.162
X-116.7 Y-161.56 Z-0.367 I0 J-0.162
X-116.7 Y-161.235 Z-0.428 I0 J0.162
X-116.7 Y-161.56 Z-0.489 I0 J-0.162
X-116.7 Y-161.235 Z-0.55 I0 J0.162
X-116.7 Y-161.56 Z-0.611 I0 J-0.162
X-116.7 Y-161.235 Z-0.672 I0 J0.162
X-116.7 Y-161.56 Z-0.733 I0 J-0.162
X-116.7 Y-161.235 Z-0.794 I0 J0.162
X-116.7 Y-161.56 Z-0.856 I0 J-0.162
X-116.7 Y-161.235 Z-0.917 I0 J0.162
X-116.7 Y-161.56 Z-0.978 I0 J-0.162
X-116.7 Y-161.235 Z-1.039 I0 J0.162
X-116.7 Y-161.56 Z-1.1 I0 J-0.162
X-116.7 Y-161.235 Z-1.161 I0 J0.162
X-116.7 Y-161.56 Z-1.222 I0 J-0.162
X-116.7 Y-161.235 Z-1.283 I0 J0.162
X-116.7 Y-161.56 Z-1.344 I0 J-0.162
X-116.7 Y-161.235 Z-1.406 I0 J0.162
X-116.7 Y-161.56 Z-1.467 I0 J-0.162
X-116.7 Y-161.235 Z-1.528 I0 J0.162
X-116.7 Y-161.56 Z-1.589 I0 J-0.162
X-116.7 Y-161.235 Z-1.65 I0 J0.162
X-116.7 Y-161.56 Z-1.711 I0 J-0.162
X-116.7 Y-161.235 Z-1.772 I0 J0.162
X-116.7 Y-161.56 Z-1.833 I0 J-0.162
X-116.7 Y-161.235 Z-1.894 I0 J0.162
X-116.7 Y-161.56 Z-1.956 I0 J-0.162
X-116.7 Y-161.235 Z-2.017 I0 J0.162
X-116.7 Y-161.56 Z-2.078 I0 J-0.162
X-116.7 Y-161.235 Z-2.139 I0 J0.162
X-116.7 Y-161.56 Z-2.2 I0 J-0.162
X-116.7 Y-161.235 Z-2.261 I0 J0.162
X-116.848 Y-161.465 Z-2.3 I0 J-0.162
X-116.552 Y-161.33 I0.148 J0.067
X-116.848 Y-161.465 I-0.148 J-0.067
G1 X-116.829 Y-161.491
X-116.802 Y-161.508
X-116.771 Y-161.513
X-116.74 Y-161.505
X-116.596 Y-161.439
Z5
X-87.781 Y-162.419
Z1.683
Z0
Y-162.578
X-87.775 Y-162.609
X-87.757 Y-162.635
X-87.731 Y-162.653
X-87.7 Y-162.659
G3 X-87.7 Y-162.334 Z-0.061 I0 J0.162
X-87.7 Y-162.659 Z-0.122 I0 J-0.162
X-87.7 Y-162.334 Z-0.183 I0 J0.162
X-87.7 Y-162.659 Z-0.244 I0 J-0.162
X-87.7 Y-162.334 Z-0.306 I0 J0.162
X-87.7 Y-162.659 Z-0.367 I0 J-0.162
X-87.7 Y-162.334 Z-0.428 I0 J0.162
X-87.7 Y-162.659 Z-0.489 I0 J-0.162
X-87.7 Y-162.334 Z-0.55 I0 J0.162
X-87.7 Y-162.659 Z-0.611 I0 J-0.162
X-87.7 Y-162.334 Z-0.672 I0 J0.162
X-87.7 Y-162.659 Z-0.733 I0 J-0.162
X-87.7 Y-162.334 Z-0.794 I0 J0.162
X-87.7 Y-162.659 Z-0.856 I0 J-0.162
X-87.7 Y-162.334 Z-0.917 I0 J0.162
X-87.7 Y-162.659 Z-0.978 I0 J-0.162
X-87.7 Y-162.334 Z-1.039 I0 J0.162
X-87.7 Y-162.659 Z-1.1 I0 J-0.162
X-87.7 Y-162.334 Z-1.161 I0 J0.162
X-87.7 Y-162.659 Z-1.222 I0 J-0.162
X-87.7 Y-162.334 Z-1.283 I0 J0.162
X-87.7 Y-162.659 Z-1.344 I0 J-0.162
X-87.7 Y-162.334 Z-1.406 I0 J0.162
X-87.7 Y-162.659 Z-1.467 I0 J-0.162
X-87.7 Y-162.334 Z-1.528 I0 J0.162
X-87.7 Y-162.659 Z-1.589 I0 J-0.162
X-87.7 Y-162.334 Z-1.65 I0 J0.162
X-87.7 Y-162.659 Z-1.711 I0 J-0.162
X-87.7 Y-162.334 Z-1.772 I0 J0.162
X-87.7 Y-162.659 Z-1.833 I0 J-0.162
X-87.7 Y-162.334 Z-1.894 I0 J0.162
X-87.7 Y-162.659 Z-1.956 I0 J-0.162
X-87.7 Y-162.334 Z-2.017 I0 J0.162
X-87.7 Y-162.659 Z-2.078 I0 J-0.162
X-87.7 Y-162.334 Z-2.139 I0 J0.162
X-87.7 Y-162.659 Z-2.2 I0 J-0.162
X-87.7 Y-162.334 Z-2.261 I0 J0.162
X-87.848 Y-162.564 Z-2.3 I0 J-0.162
X-87.552 Y-162.429 I0.148 J0.067
X-87.848 Y-162.564 I-0.148 J-0.067
G1 X-87.829 Y-162.589
X-87.802 Y-162.606
X-87.771 Y-162.611
X-87.74 Y-162.604
X-87.596 Y-162.538
Z5
X-82.018 Y-163.615
Z2
Z0.317
G19 G2 Y-163.933 Z0 J-0.318 K0
G1 Y-164.091
G17 G3 X-81.7 Y-164.409 I0.318 J0
X-81.7 Y-160.584 Z-0.122 I0 J1.912
X-81.7 Y-164.409 Z-0.244 I0 J-1.912
X-81.7 Y-160.584 Z-0.367 I0 J1.912
X-81.7 Y-164.409 Z-0.489 I0 J-1.912
X-81.7 Y-160.584 Z-0.611 I0 J1.912
X-81.7 Y-164.409 Z-0.733 I0 J-1.912
X-81.7 Y-160.584 Z-0.856 I0 J1.912
X-81.7 Y-164.409 Z-0.978 I0 J-1.912
X-81.7 Y-160.584 Z-1.1 I0 J1.912
X-81.7 Y-164.409 Z-1.222 I0 J-1.912
X-81.7 Y-160.584 Z-1.344 I0 J1.912
X-81.7 Y-164.409 Z-1.467 I0 J-1.912
X-81.7 Y-160.584 Z-1.589 I0 J1.912
X-81.7 Y-164.409 Z-1.711 I0 J-1.912
X-81.7 Y-160.584 Z-1.833 I0 J1.912
X-81.7 Y-164.409 Z-1.956 I0 J-1.912
X-81.7 Y-160.584 Z-2.078 I0 J1.912
X-81.7 Y-164.409 Z-2.2 I0 J-1.912
X-80.666 Y-160.888 Z-2.3 I0 J1.912
X-82.734 Y-164.105 I-1.034 J-1.609
X-80.666 Y-160.888 I1.034 J1.609
X-81.104 Y-160.983 I-0.172 J-0.267
G1 X-81.19 Y-161.117
X-81.228 Y-161.176 Z-2.292
X-81.265 Y-161.232 Z-2.269
X-81.297 Y-161.283 Z-2.231
X-81.325 Y-161.325 Z-2.18
X-81.345 Y-161.357 Z-2.12
X-81.358 Y-161.377 Z-2.053
X-81.362 Y-161.384 Z-1.982
Z5
X-75.781 Y-162.419
Z1.683
Z0
Y-162.578
X-75.775 Y-162.609
X-75.757 Y-162.635
X-75.731 Y-162.653
X-75.7 Y-162.659
G3 X-75.7 Y-162.334 Z-0.061 I0 J0.162
X-75.7 Y-162.659 Z-0.122 I0 J-0.162
X-75.7 Y-162.334 Z-0.183 I0 J0.162
X-75.7 Y-162.659 Z-0.244 I0 J-0.162
X-75.7 Y-162.334 Z-0.306 I0 J0.162
X-75.7 Y-162.659 Z-0.367 I0 J-0.162
X-75.7 Y-162.334 Z-0.428 I0 J0.162
X-75.7 Y-162.659 Z-0.489 I0 J-0.162
X-75.7 Y-162.334 Z-0.55 I0 J0.162
X-75.7 Y-162.659 Z-0.611 I0 J-0.162
X-75.7 Y-162.334 Z-0.672 I0 J0.162
X-75.7 Y-162.659 Z-0.733 I0 J-0.162
X-75.7 Y-162.334 Z-0.794 I0 J0.162
X-75.7 Y-162.659 Z-0.856 I0 J-0.162
X-75.7 Y-162.334 Z-0.917 I0 J0.162
X-75.7 Y-162.659 Z-0.978 I0 J-0.162
X-75.7 Y-162.334 Z-1.039 I0 J0.162
X-75.7 Y-162.659 Z-1.1 I0 J-0.162
X-75.7 Y-162.334 Z-1.161 I0 J0.162
X-75.7 Y-162.659 Z-1.222 I0 J-0.162
X-75.7 Y-162.334 Z-1.283 I0 J0.162
X-75.7 Y-162.659 Z-1.344 I0 J-0.162
X-75.7 Y-162.334 Z-1.406 I0 J0.162
X-75.7 Y-162.659 Z-1.467 I0 J-0.162
X-75.7 Y-162.334 Z-1.528 I0 J0.162
X-75.7 Y-162.659 Z-1.589 I0 J-0.162
X-75.7 Y-162.334 Z-1.65 I0 J0.162
X-75.7 Y-162.659 Z-1.711 I0 J-0.162
X-75.7 Y-162.334 Z-1.772 I0 J0.162
X-75.7 Y-162.659 Z-1.833 I0 J-0.162
X-75.7 Y-162.334 Z-1.894 I0 J0.162
X-75.7 Y-162.659 Z-1.956 I0 J-0.162
X-75.7 Y-162.334 Z-2.017 I0 J0.162
X-75.7 Y-162.659 Z-2.078 I0 J-0.162
X-75.7 Y-162.334 Z-2.139 I0 J0.162
X-75.7 Y-162.659 Z-2.2 I0 J-0.162
X-75.7 Y-162.334 Z-2.261 I0 J0.162
X-75.848 Y-162.564 Z-2.3 I0 J-0.162
X-75.552 Y-162.429 I0.148 J0.067
X-75.848 Y-162.564 I-0.148 J-0.067
G1 X-75.829 Y-162.589
X-75.802 Y-162.606
X-75.771 Y-162.611
X-75.74 Y-162.604
X-75.596 Y-162.538
Z5
X-66.081 Y-163.419
Z1.683
Z0
Y-163.578
X-66.075 Y-163.609
X-66.057 Y-163.635
X-66.031 Y-163.653
X-66 Y-163.659
G3 X-66 Y-163.334 Z-0.061 I0 J0.162
X-66 Y-163.659 Z-0.122 I0 J-0.162
X-66 Y-163.334 Z-0.183 I0 J0.162
X-66 Y-163.659 Z-0.244 I0 J-0.162
X-66 Y-163.334 Z-0.306 I0 J0.162
X-66 Y-163.659 Z-0.367 I0 J-0.162
X-66 Y-163.334 Z-0.428 I0 J0.162
X-66 Y-163.659 Z-0.489 I0 J-0.162
X-66 Y-163.334 Z-0.55 I0 J0.162
X-66 Y-163.659 Z-0.611 I0 J-0.162
X-66 Y-163.334 Z-0.672 I0 J0.162
X-66 Y-163.659 Z-0.733 I0 J-0.162
X-66 Y-163.334 Z-0.794 I0 J0.162
X-66 Y-163.659 Z-0.856 I0 J-0.162
X-66 Y-163.334 Z-0.917 I0 J0.162
X-66 Y-163.659 Z-0.978 I0 J-0.162
X-66 Y-163.334 Z-1.039 I0 J0.162
X-66 Y-163.659 Z-1.1 I0 J-0.162
X-66 Y-163.334 Z-1.161 I0 J0.162
X-66 Y-163.659 Z-1.222 I0 J-0.162
X-66 Y-163.334 Z-1.283 I0 J0.162
X-66 Y-163.659 Z-1.344 I0 J-0.162
X-66 Y-163.334 Z-1.406 I0 J0.162
X-66 Y-163.659 Z-1.467 I0 J-0.162
X-66 Y-163.334 Z-1.528 I0 J0.162
X-66 Y-163.659 Z-1.589 I0 J-0.162
X-66 Y-163.334 Z-1.65 I0 J0.162
X-66 Y-163.659 Z-1.711 I0 J-0.162
X-66 Y-163.334 Z-1.772 I0 J0.162
X-66 Y-163.659 Z-1.833 I0 J-0.162
X-66 Y-163.334 Z-1.894 I0 J0.162
X-66 Y-163.659 Z-1.956 I0 J-0.162
X-66 Y-163.334 Z-2.017 I0 J0.162
X-66 Y-163.659 Z-2.078 I0 J-0.162
X-66 Y-163.334 Z-2.139 I0 J0.162
X-66 Y-163.659 Z-2.2 I0 J-0.162
X-66 Y-163.334 Z-2.261 I0 J0.162
X-66.148 Y-163.564 Z-2.3 I0 J-0.162
X-65.852 Y-163.429 I0.148 J0.067
X-66.148 Y-163.564 I-0.148 J-0.067
G1 X-66.129 Y-163.589
X-66.102 Y-163.606
X-66.071 Y-163.611
X-66.04 Y-163.604
X-65.896 Y-163.538
Z5
X-26.081 Y-163.419
Z1.683
Z0
Y-163.578
X-26.075 Y-163.609
X-26.057 Y-163.635
X-26.031 Y-163.653
X-26 Y-163.659
G3 X-26 Y-163.334 Z-0.061 I0 J0.162
X-26 Y-163.659 Z-0.122 I0 J-0.162
X-26 Y-163.334 Z-0.183 I0 J0.162
X-26 Y-163.659 Z-0.244 I0 J-0.162
X-26 Y-163.334 Z-0.306 I0 J0.162
X-26 Y-163.659 Z-0.367 I0 J-0.162
X-26 Y-163.334 Z-0.428 I0 J0.162
X-26 Y-163.659 Z-0.489 I0 J-0.162
X-26 Y-163.334 Z-0.55 I0 J0.162
X-26 Y-163.659 Z-0.611 I0 J-0.162
X-26 Y-163.334 Z-0.672 I0 J0.162
X-26 Y-163.659 Z-0.733 I0 J-0.162
X-26 Y-163.334 Z-0.794 I0 J0.162
X-26 Y-163.659 Z-0.856 I0 J-0.162
X-26 Y-163.334 Z-0.917 I0 J0.162
X-26 Y-163.659 Z-0.978 I0 J-0.162
X-26 Y-163.334 Z-1.039 I0 J0.162
X-26 Y-163.659 Z-1.1 I0 J-0.162
X-26 Y-163.334 Z-1.161 I0 J0.162
X-26 Y-163.659 Z-1.222 I0 J-0.162
X-26 Y-163.334 Z-1.283 I0 J0.162
X-26 Y-163.659 Z-1.344 I0 J-0.162
X-26 Y-163.334 Z-1.406 I0 J0.162
X-26 Y-163.659 Z-1.467 I0 J-0.162
X-26 Y-163.334 Z-1.528 I0 J0.162
X-26 Y-163.659 Z-1.589 I0 J-0.162
X-26 Y-163.334 Z-1.65 I0 J0.162
X-26 Y-163.659 Z-1.711 I0 J-0.162
X-26 Y-163.334 Z-1.772 I0 J0.162
X-26 Y-163.659 Z-1.833 I0 J-0.162
X-26 Y-163.334 Z-1.894 I0 J0.162
X-26 Y-163.659 Z-1.956 I0 J-0.162
X-26 Y-163.334 Z-2.017 I0 J0.162
X-26 Y-163.659 Z-2.078 I0 J-0.162
X-26 Y-163.334 Z-2.139 I0 J0.162
X-26 Y-163.659 Z-2.2 I0 J-0.162
X-26 Y-163.334 Z-2.261 I0 J0.162
X-26.148 Y-163.564 Z-2.3 I0 J-0.162
X-25.852 Y-163.429 I0.148 J0.067
X-26.148 Y-163.564 I-0.148 J-0.067
G1 X-26.129 Y-163.589
X-26.102 Y-163.606
X-26.071 Y-163.611
X-26.04 Y-163.604
X-25.896 Y-163.538
Z5
X-25.683 Y-122.779
Z2
Z0.317
G19 G3 Y-122.461 Z0 J0.318 K0
G1 Y-122.303
G17 G3 X-26 Y-121.985 I-0.317 J0
X-26 Y-144.81 Z-0.454 I0 J-11.413
X-26 Y-121.985 Z-0.908 I0 J11.413
X-26 Y-144.81 Z-1.362 I0 J-11.412
X-26 Y-121.985 Z-1.816 I0 J11.412
X-37.35 Y-134.586 Z-2.058 I0 J-11.412
X-23.636 Y-144.563 Z-2.3 I11.35 J1.188
X-28.364 Y-122.233 I-2.364 J11.165
X-23.636 Y-144.563 I2.364 J-11.165
X-23.391 Y-144.186 I-0.066 J0.311
G1 X-23.424 Y-144.031
X-23.439 Y-143.962 Z-2.292
X-23.453 Y-143.896 Z-2.269
X-23.465 Y-143.837 Z-2.231
X-23.476 Y-143.788 Z-2.18
X-23.483 Y-143.751 Z-2.12
X-23.488 Y-143.728 Z-2.053
X-23.49 Y-143.72 Z-1.982
Z5
X-25.919 Y-103.377
Z1.683
Z0
Y-103.218
X-25.925 Y-103.187
X-25.943 Y-103.16
X-25.969 Y-103.143
X-26 Y-103.137
G3 X-26 Y-103.462 Z-0.061 I0 J-0.162
X-26 Y-103.137 Z-0.122 I0 J0.162
X-26 Y-103.462 Z-0.183 I0 J-0.162
X-26 Y-103.137 Z-0.244 I0 J0.162
X-26 Y-103.462 Z-0.306 I0 J-0.162
X-26 Y-103.137 Z-0.367 I0 J0.162
X-26 Y-103.462 Z-0.428 I0 J-0.162
X-26 Y-103.137 Z-0.489 I0 J0.162
X-26 Y-103.462 Z-0.55 I0 J-0.162
X-26 Y-103.137 Z-0.611 I0 J0.162
X-26 Y-103.462 Z-0.672 I0 J-0.162
X-26 Y-103.137 Z-0.733 I0 J0.162
X-26 Y-103.462 Z-0.794 I0 J-0.162
X-26 Y-103.137 Z-0.856 I0 J0.162
X-26 Y-103.462 Z-0.917 I0 J-0.162
X-26 Y-103.137 Z-0.978 I0 J0.162
X-26 Y-103.462 Z-1.039 I0 J-0.162
X-26 Y-103.137 Z-1.1 I0 J0.162
X-26 Y-103.462 Z-1.161 I0 J-0.162
X-26 Y-103.137 Z-1.222 I0 J0.162
X-26 Y-103.462 Z-1.283 I0 J-0.162
X-26 Y-103.137 Z-1.344 I0 J0.162
X-26 Y-103.462 Z-1.406 I0 J-0.162
X-26 Y-103.137 Z-1.467 I0 J0.162
X-26 Y-103.462 Z-1.528 I0 J-0.162
X-26 Y-103.137 Z-1.589 I0 J0.162
X-26 Y-103.462 Z-1.65 I0 J-0.162
X-26 Y-103.137 Z-1.711 I0 J0.162
X-26 Y-103.462 Z-1.772 I0 J-0.162
X-26 Y-103.137 Z-1.833 I0 J0.162
X-26 Y-103.462 Z-1.894 I0 J-0.162
X-26 Y-103.137 Z-1.956 I0 J0.162
X-26 Y-103.462 Z-2.017 I0 J-0.162
X-26 Y-103.137 Z-2.078 I0 J0.162
X-26 Y-103.462 Z-2.139 I0 J-0.162
X-26 Y-103.137 Z-2.2 I0 J0.162
X-26 Y-103.462 Z-2.261 I0 J-0.162
X-25.852 Y-103.232 Z-2.3 I0 J0.162
X-26.148 Y-103.366 I-0.148 J-0.067
X-25.852 Y-103.232 I0.148 J0.067
G1 X-25.871 Y-103.206
X-25.898 Y-103.189
X-25.929 Y-103.184
X-25.96 Y-103.191
X-26.104 Y-103.257
Z5
X-13.208 Y-72.577
Z1.683
Z0
Y-72.419
X-13.214 Y-72.388
X-13.232 Y-72.361
X-13.258 Y-72.344
X-13.289 Y-72.338
G3 X-13.289 Y-72.662 Z-0.061 I0 J-0.162
X-13.289 Y-72.338 Z-0.122 I0 J0.162
X-13.289 Y-72.662 Z-0.183 I0 J-0.162
X-13.289 Y-72.338 Z-0.244 I0 J0.162
X-13.289 Y-72.662 Z-0.306 I0 J-0.162
X-13.289 Y-72.338 Z-0.367 I0 J0.162
X-13.289 Y-72.662 Z-0.428 I0 J-0.162
X-13.289 Y-72.338 Z-0.489 I0 J0.162
X-13.289 Y-72.662 Z-0.55 I0 J-0.162
X-13.289 Y-72.338 Z-0.611 I0 J0.162
X-13.289 Y-72.662 Z-0.672 I0 J-0.162
X-13.289 Y-72.338 Z-0.733 I0 J0.162
X-13.289 Y-72.662 Z-0.794 I0 J-0.162
X-13.289 Y-72.338 Z-0.856 I0 J0.162
X-13.289 Y-72.662 Z-0.917 I0 J-0.162
X-13.289 Y-72.338 Z-0.978 I0 J0.162
X-13.289 Y-72.662 Z-1.039 I0 J-0.162
X-13.289 Y-72.338 Z-1.1 I0 J0.162
X-13.289 Y-72.662 Z-1.161 I0 J-0.162
X-13.289 Y-72.338 Z-1.222 I0 J0.162
X-13.289 Y-72.662 Z-1.283 I0 J-0.162
X-13.289 Y-72.338 Z-1.344 I0 J0.162
X-13.289 Y-72.662 Z-1.406 I0 J-0.162
X-13.289 Y-72.338 Z-1.467 I0 J0.162
X-13.289 Y-72.662 Z-1.528 I0 J-0.162
X-13.289 Y-72.338 Z-1.589 I0 J0.162
X-13.289 Y-72.662 Z-1.65 I0 J-0.162
X-13.289 Y-72.338 Z-1.711 I0 J0.162
X-13.289 Y-72.662 Z-1.772 I0 J-0.162
X-13.289 Y-72.338 Z-1.833 I0 J0.162
X-13.289 Y-72.662 Z-1.894 I0 J-0.162
X-13.289 Y-72.338 Z-1.956 I0 J0.162
X-13.289 Y-72.662 Z-2.017 I0 J-0.162
X-13.289 Y-72.338 Z-2.078 I0 J0.162
X-13.289 Y-72.662 Z-2.139 I0 J-0.162
X-13.289 Y-72.338 Z-2.2 I0 J0.162
X-13.289 Y-72.662 Z-2.261 I0 J-0.162
X-13.141 Y-72.433 Z-2.3 I0 J0.162
X-13.437 Y-72.567 I-0.148 J-0.067
X-13.141 Y-72.433 I0.148 J0.067
G1 X-13.16 Y-72.407
X-13.187 Y-72.39
X-13.218 Y-72.385
X-13.249 Y-72.392
X-13.393 Y-72.458
Z5
X-13.208 Y-24.577
Z1.683
Z0
Y-24.419
X-13.214 Y-24.388
X-13.232 Y-24.361
X-13.258 Y-24.344
X-13.289 Y-24.337
G3 X-13.289 Y-24.663 Z-0.061 I0 J-0.163
X-13.289 Y-24.337 Z-0.122 I0 J0.163
X-13.289 Y-24.663 Z-0.183 I0 J-0.163
X-13.289 Y-24.337 Z-0.244 I0 J0.163
X-13.289 Y-24.663 Z-0.306 I0 J-0.163
X-13.289 Y-24.337 Z-0.367 I0 J0.163
X-13.289 Y-24.663 Z-0.428 I0 J-0.163
X-13.289 Y-24.337 Z-0.489 I0 J0.163
X-13.289 Y-24.663 Z-0.55 I0 J-0.163
X-13.289 Y-24.337 Z-0.611 I0 J0.163
X-13.289 Y-24.663 Z-0.672 I0 J-0.163
X-13.289 Y-24.337 Z-0.733 I0 J0.163
X-13.289 Y-24.663 Z-0.794 I0 J-0.163
X-13.289 Y-24.337 Z-0.856 I0 J0.163
X-13.289 Y-24.663 Z-0.917 I0 J-0.163
X-13.289 Y-24.337 Z-0.978 I0 J0.163
X-13.289 Y-24.663 Z-1.039 I0 J-0.163
X-13.289 Y-24.337 Z-1.1 I0 J0.163
X-13.289 Y-24.663 Z-1.161 I0 J-0.163
X-13.289 Y-24.337 Z-1.222 I0 J0.163
X-13.289 Y-24.663 Z-1.283 I0 J-0.163
X-13.289 Y-24.337 Z-1.344 I0 J0.163
X-13.289 Y-24.663 Z-1.406 I0 J-0.163
X-13.289 Y-24.337 Z-1.467 I0 J0.163
X-13.289 Y-24.663 Z-1.528 I0 J-0.163
X-13.289 Y-24.337 Z-1.589 I0 J0.163
X-13.289 Y-24.663 Z-1.65 I0 J-0.163
X-13.289 Y-24.337 Z-1.711 I0 J0.163
X-13.289 Y-24.663 Z-1.772 I0 J-0.163
X-13.289 Y-24.337 Z-1.833 I0 J0.163
X-13.289 Y-24.663 Z-1.894 I0 J-0.163
X-13.289 Y-24.337 Z-1.956 I0 J0.163
X-13.289 Y-24.663 Z-2.017 I0 J-0.163
X-13.289 Y-24.337 Z-2.078 I0 J0.163
X-13.289 Y-24.663 Z-2.139 I0 J-0.163
X-13.289 Y-24.337 Z-2.2 I0 J0.163
X-13.289 Y-24.663 Z-2.261 I0 J-0.163
X-13.141 Y-24.433 Z-2.3 I0 J0.163
X-13.437 Y-24.567 I-0.148 J-0.067
X-13.141 Y-24.433 I0.148 J0.067
G1 X-13.16 Y-24.407
X-13.187 Y-24.39
X-13.218 Y-24.385
X-13.249 Y-24.392
X-13.393 Y-24.458
Z15
(When using Fusion for Personal Use, the feedrate of rapid)
(moves is reduced to match the feedrate of cutting moves,)
(which can increase machining time. Unrestricted rapid moves)
(are available with a Fusion Subscription.)

(2D-Kontur2)
G0 X-153.798 Y-108.841
G1 Z15 F1000
Z5
Z2.5 F333.3
S5000
G3 X-153 Y-109.311 Z2.475 I0.798 J0.443
G1 X-125 Z1.741
G3 X-125 Y-107.485 Z1.666 I0 J0.912
G1 X-153 Z0.933
G3 X-153 Y-109.311 Z0.858 I0 J-0.913
G1 X-125 Z0.125
G3 X-125 Y-107.485 Z0.05 I0 J0.912
G1 X-153 Z-0.683
G3 X-153 Y-109.311 Z-0.759 I0 J-0.913
G1 X-125 Z-1.492
G3 X-125 Y-107.485 Z-1.567 I0 J0.912
G1 X-153 Z-2.3
S6000
G3 X-153 Y-109.311 I0 J-0.913 F1000
G1 X-125
G3 X-125 Y-107.485 I0 J0.912
G1 X-153
G3 X-153.318 Y-107.803 I0 J-0.318
G1 Y-108.12
G19 G2 Y-108.438 Z-1.983 J0 K0.317
G1 Z5
X-153.798 Y-158.841
Z2.5 F333.3
S5000
G17 G3 X-153 Y-159.311 Z2.475 I0.798 J0.443
G1 X-125 Z1.741
G3 X-125 Y-157.486 Z1.666 I0 J0.913
G1 X-153 Z0.933
G3 X-153 Y-159.311 Z0.858 I0 J-0.912
G1 X-125 Z0.125
G3 X-125 Y-157.486 Z0.05 I0 J0.913
G1 X-153 Z-0.683
G3 X-153 Y-159.311 Z-0.759 I0 J-0.912
G1 X-125 Z-1.492
G3 X-125 Y-157.486 Z-1.567 I0 J0.913
G1 X-153 Z-2.3
S6000
G3 X-153 Y-159.311 I0 J-0.912 F1000
G1 X-125
G3 X-125 Y-157.486 I0 J0.913
G1 X-153
G3 X-153.318 Y-157.803 I0 J-0.317
G1 Y-158.12
G19 G2 Y-158.438 Z-1.983 J0 K0.317
G1 Z5
X-209.896 Y-157.486
Z2.5 F333.3
S5000
X-236 Z1.816
G17 G3 X-236 Y-159.311 Z1.741 I0 J-0.912
G1 X-208 Z1.008
G3 X-208 Y-157.486 Z0.933 I0 J0.913
G1 X-236 Z0.2
G3 X-236 Y-159.311 Z0.125 I0 J-0.912
G1 X-208 Z-0.608
G3 X-208 Y-157.486 Z-0.683 I0 J0.913
G1 X-236 Z-1.417
G3 X-236 Y-159.311 Z-1.492 I0 J-0.912
G1 X-208 Z-2.225
G3 X-208 Y-157.486 Z-2.3 I0 J0.913
S6000
G1 X-236 F1000
G3 X-236 Y-159.311 I0 J-0.912
G1 X-208
G3 X-208 Y-157.486 I0 J0.913
X-208.318 Y-157.803 I0 J-0.317
G1 Y-158.12
G19 G2 Y-158.438 Z-1.983 J0 K0.317
G1 Z5
X-236.798 Y-108.841
Z2.5 F333.3
S5000
G17 G3 X-236 Y-109.311 Z2.475 I0.798 J0.443
G1 X-208 Z1.741
G3 X-208 Y-107.485 Z1.666 I0 J0.912
G1 X-236 Z0.933
G3 X-236 Y-109.311 Z0.858 I0 J-0.913
G1 X-208 Z0.125
G3 X-208 Y-107.485 Z0.05 I0 J0.912
G1 X-236 Z-0.683
G3 X-236 Y-109.311 Z-0.759 I0 J-0.913
G1 X-208 Z-1.492
G3 X-208 Y-107.485 Z-1.567 I0 J0.912
G1 X-236 Z-2.3
S6000
G3 X-236 Y-109.311 I0 J-0.913 F1000
G1 X-208
G3 X-208 Y-107.485 I0 J0.912
G1 X-236
G3 X-236.318 Y-107.803 I0 J-0.318
G1 Y-108.12
G19 G2 Y-108.438 Z-1.983 J0 K0.317
G1 Z5
X-57.004 Y-120.137
Z2.5 F333.3
S5000
G17 G3 X-59.412 Y-123.398 Z2.386 I1.004 J-3.261
G1 Y-143.398 Z1.863
G3 X-52.588 Y-143.398 Z1.582 I3.412 J0
G1 Y-123.398 Z1.058
G3 X-59.412 Y-123.398 Z0.777 I-3.412 J0
G1 Y-143.398 Z0.254
G3 X-52.588 Y-143.398 Z-0.027 I3.412 J0
G1 Y-123.398 Z-0.551
G3 X-59.412 Y-123.398 Z-0.831 I-3.412 J0
G1 Y-143.398 Z-1.355
G3 X-52.588 Y-143.398 Z-1.636 I3.412 J0
G1 Y-123.398 Z-2.16
G3 X-56 Y-119.985 Z-2.3 I-3.412 J0
S6000
X-59.412 Y-123.398 I0 J-3.413 F1000
G1 Y-143.398
G3 X-52.588 Y-143.398 I3.412 J0
G1 Y-123.398
G3 X-56 Y-119.985 I-3.412 J0
X-56.318 Y-120.303 I0 J-0.318
G1 Y-120.62
G19 G2 Y-120.938 Z-1.983 J0 K0.317
G1 Z15
G17
(When using Fusion for Personal Use, the feedrate of rapid)
(moves is reduced to match the feedrate of cutting moves,)
(which can increase machining time. Unrestricted rapid moves)
(are available with a Fusion Subscription.)

(2D-Kontur3)
G0 X-151.245 Y-134.821
G1 Z15 F1000
Z5
Z0.635 F333.3
Z-0.683
X-151.241 Y-134.827 Z-0.753 F1000
X-151.229 Y-134.848 Z-0.82
X-151.21 Y-134.881 Z-0.88
X-151.185 Y-134.924 Z-0.931
X-151.155 Y-134.976 Z-0.969
X-151.122 Y-135.034 Z-0.992
X-151.086 Y-135.096 Z-1
X-150.928 Y-135.371
G3 X-150.494 Y-135.487 I0.275 J0.159
G1 X-149.288 Y-134.79
Y-132.005
X-151.7 Y-130.612
X-154.113 Y-132.005
Y-134.79
X-151.7 Y-136.183
X-150.494 Y-135.487
G3 X-150.378 Y-135.053 I-0.159 J0.275
G1 X-150.536 Y-134.778
X-150.572 Y-134.717 Z-0.992
X-150.605 Y-134.659 Z-0.969
X-150.635 Y-134.607 Z-0.931
X-150.661 Y-134.563 Z-0.88
X-150.679 Y-134.53 Z-0.82
X-150.691 Y-134.51 Z-0.753
X-150.695 Y-134.503 Z-0.683
Z5
X-151.245 Y-134.821
Z-0.365 F333.3
Z-1.683
X-151.241 Y-134.827 Z-1.753 F1000
X-151.229 Y-134.848 Z-1.82
X-151.21 Y-134.881 Z-1.88
X-151.185 Y-134.924 Z-1.931
X-151.155 Y-134.976 Z-1.969
X-151.122 Y-135.034 Z-1.992
X-151.086 Y-135.096 Z-2
X-150.928 Y-135.371
G3 X-150.494 Y-135.487 I0.275 J0.159
G1 X-149.288 Y-134.79
Y-132.005
X-151.7 Y-130.612
X-154.113 Y-132.005
Y-134.79
X-151.7 Y-136.183
X-150.494 Y-135.487
G3 X-150.378 Y-135.053 I-0.159 J0.275
G1 X-150.536 Y-134.778
X-150.572 Y-134.717 Z-1.992
X-150.605 Y-134.659 Z-1.969
X-150.635 Y-134.607 Z-1.931
X-150.661 Y-134.563 Z-1.88
X-150.679 Y-134.53 Z-1.82
X-150.691 Y-134.51 Z-1.753
X-150.695 Y-134.503 Z-1.683
Z5
X-151.245 Y-134.821
Z-1.365 F333.3
Z-1.983
X-151.241 Y-134.827 Z-2.053 F1000
X-151.229 Y-134.848 Z-2.12
X-151.21 Y-134.881 Z-2.18
X-151.185 Y-134.924 Z-2.231
X-151.155 Y-134.976 Z-2.269
X-151.122 Y-135.034 Z-2.292
X-151.086 Y-135.096 Z-2.3
X-150.928 Y-135.371
G3 X-150.494 Y-135.487 I0.275 J0.159
G1 X-149.288 Y-134.79
Y-132.005
X-151.7 Y-130.612
X-154.113 Y-132.005
Y-134.79
X-151.7 Y-136.183
X-150.494 Y-135.487
G3 X-150.378 Y-135.053 I-0.159 J0.275
G1 X-150.536 Y-134.778
X-150.572 Y-134.717 Z-2.292
X-150.605 Y-134.659 Z-2.269
X-150.635 Y-134.607 Z-2.231
X-150.661 Y-134.563 Z-2.18
X-150.679 Y-134.53 Z-2.12
X-150.691 Y-134.51 Z-2.053
X-150.695 Y-134.503 Z-1.983
Z5
Y-146.292
Z0.635 F333.3
Z-0.683
X-150.691 Y-146.285 Z-0.753 F1000
X-150.679 Y-146.265 Z-0.82
X-150.661 Y-146.232 Z-0.88
X-150.635 Y-146.188 Z-0.931
X-150.605 Y-146.136 Z-0.969
X-150.572 Y-146.078 Z-0.992
X-150.536 Y-146.017 Z-1
X-150.378 Y-145.742
G3 X-150.494 Y-145.308 I-0.275 J0.159
G1 X-151.7 Y-144.612
X-154.113 Y-146.005
Y-148.79
X-151.7 Y-150.183
X-149.288 Y-148.79
Y-146.005
X-150.494 Y-145.308
G3 X-150.928 Y-145.424 I-0.159 J-0.275
G1 X-151.086 Y-145.699
X-151.122 Y-145.761 Z-0.992
X-151.155 Y-145.819 Z-0.969
X-151.185 Y-145.871 Z-0.931
X-151.21 Y-145.914 Z-0.88
X-151.229 Y-145.947 Z-0.82
X-151.241 Y-145.968 Z-0.753
X-151.245 Y-145.974 Z-0.683
Z5
X-150.695 Y-146.292
Z-0.365 F333.3
Z-1.683
X-150.691 Y-146.285 Z-1.753 F1000
X-150.679 Y-146.265 Z-1.82
X-150.661 Y-146.232 Z-1.88
X-150.635 Y-146.188 Z-1.931
X-150.605 Y-146.136 Z-1.969
X-150.572 Y-146.078 Z-1.992
X-150.536 Y-146.017 Z-2
X-150.378 Y-145.742
G3 X-150.494 Y-145.308 I-0.275 J0.159
G1 X-151.7 Y-144.612
X-154.113 Y-146.005
Y-148.79
X-151.7 Y-150.183
X-149.288 Y-148.79
Y-146.005
X-150.494 Y-145.308
G3 X-150.928 Y-145.424 I-0.159 J-0.275
G1 X-151.086 Y-145.699
X-151.122 Y-145.761 Z-1.992
X-151.155 Y-145.819 Z-1.969
X-151.185 Y-145.871 Z-1.931
X-151.21 Y-145.914 Z-1.88
X-151.229 Y-145.947 Z-1.82
X-151.241 Y-145.968 Z-1.753
X-151.245 Y-145.974 Z-1.683
Z5
X-150.695 Y-146.292
Z-1.365 F333.3
Z-1.983
X-150.691 Y-146.285 Z-2.053 F1000
X-150.679 Y-146.265 Z-2.12
X-150.661 Y-146.232 Z-2.18
X-150.635 Y-146.188 Z-2.231
X-150.605 Y-146.136 Z-2.269
X-150.572 Y-146.078 Z-2.292
X-150.536 Y-146.017 Z-2.3
X-150.378 Y-145.742
G3 X-150.494 Y-145.308 I-0.275 J0.159
G1 X-151.7 Y-144.612
X-154.113 Y-146.005
Y-148.79
X-151.7 Y-150.183
X-149.288 Y-148.79
Y-146.005
X-150.494 Y-145.308
G3 X-150.928 Y-145.424 I-0.159 J-0.275
G1 X-151.086 Y-145.699
X-151.122 Y-145.761 Z-2.292
X-151.155 Y-145.819 Z-2.269
X-151.185 Y-145.871 Z-2.231
X-151.21 Y-145.914 Z-2.18
X-151.229 Y-145.947 Z-2.12
X-151.241 Y-145.968 Z-2.053
X-151.245 Y-145.974 Z-1.983
Z5
X-135.695 Y-146.292
Z0.635 F333.3
Z-0.683
X-135.691 Y-146.285 Z-0.753 F1000
X-135.679 Y-146.265 Z-0.82
X-135.661 Y-146.232 Z-0.88
X-135.635 Y-146.188 Z-0.931
X-135.605 Y-146.136 Z-0.969
X-135.572 Y-146.078 Z-0.992
X-135.536 Y-146.017 Z-1
X-135.378 Y-145.742
G3 X-135.494 Y-145.308 I-0.275 J0.159
G1 X-136.7 Y-144.612
X-139.113 Y-146.005
Y-148.79
X-136.7 Y-150.183
X-134.288 Y-148.79
Y-146.005
X-135.494 Y-145.308
G3 X-135.928 Y-145.424 I-0.159 J-0.275
G1 X-136.086 Y-145.699
X-136.122 Y-145.761 Z-0.992
X-136.155 Y-145.819 Z-0.969
X-136.185 Y-145.871 Z-0.931
X-136.21 Y-145.914 Z-0.88
X-136.229 Y-145.947 Z-0.82
X-136.241 Y-145.968 Z-0.753
X-136.245 Y-145.974 Z-0.683
Z5
X-135.695 Y-146.292
Z-0.365 F333.3
Z-1.683
X-135.691 Y-146.285 Z-1.753 F1000
X-135.679 Y-146.265 Z-1.82
X-135.661 Y-146.232 Z-1.88
X-135.635 Y-146.188 Z-1.931
X-135.605 Y-146.136 Z-1.969
X-135.572 Y-146.078 Z-1.992
X-135.536 Y-146.017 Z-2
X-135.378 Y-145.742
G3 X-135.494 Y-145.308 I-0.275 J0.159
G1 X-136.7 Y-144.612
X-139.113 Y-146.005
Y-148.79
X-136.7 Y-150.183
X-134.288 Y-148.79
Y-146.005
X-135.494 Y-145.308
G3 X-135.928 Y-145.424 I-0.159 J-0.275
G1 X-136.086 Y-145.699
X-136.122 Y-145.761 Z-1.992
X-136.155 Y-145.819 Z-1.969
X-136.185 Y-145.871 Z-1.931
X-136.21 Y-145.914 Z-1.88
X-136.229 Y-145.947 Z-1.82
X-136.241 Y-145.968 Z-1.753
X-136.245 Y-145.974 Z-1.683
Z5
X-135.695 Y-146.292
Z-1.365 F333.3
Z-1.983
X-135.691 Y-146.285 Z-2.053 F1000
X-135.679 Y-146.265 Z-2.12
X-135.661 Y-146.232 Z-2.18
X-135.635 Y-146.188 Z-2.231
X-135.605 Y-146.136 Z-2.269
X-135.572 Y-146.078 Z-2.292
X-135.536 Y-146.017 Z-2.3
X-135.378 Y-145.742
G3 X-135.494 Y-145.308 I-0.275 J0.159
G1 X-136.7 Y-144.612
X-139.113 Y-146.005
Y-148.79
X-136.7 Y-150.183
X-134.288 Y-148.79
Y-146.005
X-135.494 Y-145.308
G3 X-135.928 Y-145.424 I-0.159 J-0.275
G1 X-136.086 Y-145.699
X-136.122 Y-145.761 Z-2.292
X-136.155 Y-145.819 Z-2.269
X-136.185 Y-145.871 Z-2.231
X-136.21 Y-145.914 Z-2.18
X-136.229 Y-145.947 Z-2.12
X-136.241 Y-145.968 Z-2.053
X-136.245 Y-145.974 Z-1.983
Z5
Y-134.821
Z0.635 F333.3
Z-0.683
X-136.241 Y-134.827 Z-0.753 F1000
X-136.229 Y-134.848 Z-0.82
X-136.21 Y-134.881 Z-0.88
X-136.185 Y-134.924 Z-0.931
X-136.155 Y-134.976 Z-0.969
X-136.122 Y-135.034 Z-0.992
X-136.086 Y-135.096 Z-1
X-135.928 Y-135.371
G3 X-135.494 Y-135.487 I0.275 J0.159
G1 X-134.288 Y-134.79
Y-132.005
X-136.7 Y-130.612
X-139.113 Y-132.005
Y-134.79
X-136.7 Y-136.183
X-135.494 Y-135.487
G3 X-135.378 Y-135.053 I-0.159 J0.275
G1 X-135.536 Y-134.778
X-135.572 Y-134.717 Z-0.992
X-135.605 Y-134.659 Z-0.969
X-135.635 Y-134.607 Z-0.931
X-135.661 Y-134.563 Z-0.88
X-135.679 Y-134.53 Z-0.82
X-135.691 Y-134.51 Z-0.753
X-135.695 Y-134.503 Z-0.683
Z5
X-136.245 Y-134.821
Z-0.365 F333.3
Z-1.683
X-136.241 Y-134.827 Z-1.753 F1000
X-136.229 Y-134.848 Z-1.82
X-136.21 Y-134.881 Z-1.88
X-136.185 Y-134.924 Z-1.931
X-136.155 Y-134.976 Z-1.969
X-136.122 Y-135.034 Z-1.992
X-136.086 Y-135.096 Z-2
X-135.928 Y-135.371
G3 X-135.494 Y-135.487 I0.275 J0.159
G1 X-134.288 Y-134.79
Y-132.005
X-136.7 Y-130.612
X-139.113 Y-132.005
Y-134.79
X-136.7 Y-136.183
X-135.494 Y-135.487
G3 X-135.378 Y-135.053 I-0.159 J0.275
G1 X-135.536 Y-134.778
X-135.572 Y-134.717 Z-1.992
X-135.605 Y-134.659 Z-1.969
X-135.635 Y-134.607 Z-1.931
X-135.661 Y-134.563 Z-1.88
X-135.679 Y-134.53 Z-1.82
X-135.691 Y-134.51 Z-1.753
X-135.695 Y-134.503 Z-1.683
Z5
X-136.245 Y-134.821
Z-1.365 F333.3
Z-1.983
X-136.241 Y-134.827 Z-2.053 F1000
X-136.229 Y-134.848 Z-2.12
X-136.21 Y-134.881 Z-2.18
X-136.185 Y-134.924 Z-2.231
X-136.155 Y-134.976 Z-2.269
X-136.122 Y-135.034 Z-2.292
X-136.086 Y-135.096 Z-2.3
X-135.928 Y-135.371
G3 X-135.494 Y-135.487 I0.275 J0.159
G1 X-134.288 Y-134.79
Y-132.005
X-136.7 Y-130.612
X-139.113 Y-132.005
Y-134.79
X-136.7 Y-136.183
X-135.494 Y-135.487
G3 X-135.378 Y-135.053 I-0.159 J0.275
G1 X-135.536 Y-134.778
X-135.572 Y-134.717 Z-2.292
X-135.605 Y-134.659 Z-2.269
X-135.635 Y-134.607 Z-2.231
X-135.661 Y-134.563 Z-2.18
X-135.679 Y-134.53 Z-2.12
X-135.691 Y-134.51 Z-2.053
X-135.695 Y-134.503 Z-1.983
Z5
X-121.245 Y-134.821
Z0.635 F333.3
Z-0.683
X-121.241 Y-134.827 Z-0.753 F1000
X-121.229 Y-134.848 Z-0.82
X-121.21 Y-134.881 Z-0.88
X-121.185 Y-134.924 Z-0.931
X-121.155 Y-134.976 Z-0.969
X-121.122 Y-135.034 Z-0.992
X-121.086 Y-135.096 Z-1
X-120.928 Y-135.371
G3 X-120.494 Y-135.487 I0.275 J0.159
G1 X-119.287 Y-134.79
Y-132.005
X-121.7 Y-130.612
X-124.113 Y-132.005
Y-134.79
X-121.7 Y-136.183
X-120.494 Y-135.487
G3 X-120.378 Y-135.053 I-0.159 J0.275
G1 X-120.536 Y-134.778
X-120.572 Y-134.717 Z-0.992
X-120.605 Y-134.659 Z-0.969
X-120.635 Y-134.607 Z-0.931
X-120.661 Y-134.563 Z-0.88
X-120.679 Y-134.53 Z-0.82
X-120.691 Y-134.51 Z-0.753
X-120.695 Y-134.503 Z-0.683
Z5
X-121.245 Y-134.821
Z-0.365 F333.3
Z-1.683
X-121.241 Y-134.827 Z-1.753 F1000
X-121.229 Y-134.848 Z-1.82
X-121.21 Y-134.881 Z-1.88
X-121.185 Y-134.924 Z-1.931
X-121.155 Y-134.976 Z-1.969
X-121.122 Y-135.034 Z-1.992
X-121.086 Y-135.096 Z-2
X-120.928 Y-135.371
G3 X-120.494 Y-135.487 I0.275 J0.159
G1 X-119.287 Y-134.79
Y-132.005
X-121.7 Y-130.612
X-124.113 Y-132.005
Y-134.79
X-121.7 Y-136.183
X-120.494 Y-135.487
G3 X-120.378 Y-135.053 I-0.159 J0.275
G1 X-120.536 Y-134.778
X-120.572 Y-134.717 Z-1.992
X-120.605 Y-134.659 Z-1.969
X-120.635 Y-134.607 Z-1.931
X-120.661 Y-134.563 Z-1.88
X-120.679 Y-134.53 Z-1.82
X-120.691 Y-134.51 Z-1.753
X-120.695 Y-134.503 Z-1.683
Z5
X-121.245 Y-134.821
Z-1.365 F333.3
Z-1.983
X-121.241 Y-134.827 Z-2.053 F1000
X-121.229 Y-134.848 Z-2.12
X-121.21 Y-134.881 Z-2.18
X-121.185 Y-134.924 Z-2.231
X-121.155 Y-134.976 Z-2.269
X-121.122 Y-135.034 Z-2.292
X-121.086 Y-135.096 Z-2.3
X-120.928 Y-135.371
G3 X-120.494 Y-135.487 I0.275 J0.159
G1 X-119.287 Y-134.79
Y-132.005
X-121.7 Y-130.612
X-124.113 Y-132.005
Y-134.79
X-121.7 Y-136.183
X-120.494 Y-135.487
G3 X-120.378 Y-135.053 I-0.159 J0.275
G1 X-120.536 Y-134.778
X-120.572 Y-134.717 Z-2.292
X-120.605 Y-134.659 Z-2.269
X-120.635 Y-134.607 Z-2.231
X-120.661 Y-134.563 Z-2.18
X-120.679 Y-134.53 Z-2.12
X-120.691 Y-134.51 Z-2.053
X-120.695 Y-134.503 Z-1.983
Z5
Y-146.292
Z0.635 F333.3
Z-0.683
X-120.691 Y-146.285 Z-0.753 F1000
X-120.679 Y-146.265 Z-0.82
X-120.661 Y-146.232 Z-0.88
X-120.635 Y-146.188 Z-0.931
X-120.605 Y-146.136 Z-0.969
X-120.572 Y-146.078 Z-0.992
X-120.536 Y-146.017 Z-1
X-120.378 Y-145.742
G3 X-120.494 Y-145.308 I-0.275 J0.159
G1 X-121.7 Y-144.612
X-124.113 Y-146.005
Y-148.79
X-121.7 Y-150.183
X-119.287 Y-148.79
Y-146.005
X-120.494 Y-145.308
G3 X-120.928 Y-145.424 I-0.159 J-0.275
G1 X-121.086 Y-145.699
X-121.122 Y-145.761 Z-0.992
X-121.155 Y-145.819 Z-0.969
X-121.185 Y-145.871 Z-0.931
X-121.21 Y-145.914 Z-0.88
X-121.229 Y-145.947 Z-0.82
X-121.241 Y-145.968 Z-0.753
X-121.245 Y-145.974 Z-0.683
Z5
X-120.695 Y-146.292
Z-0.365 F333.3
Z-1.683
X-120.691 Y-146.285 Z-1.753 F1000
X-120.679 Y-146.265 Z-1.82
X-120.661 Y-146.232 Z-1.88
X-120.635 Y-146.188 Z-1.931
X-120.605 Y-146.136 Z-1.969
X-120.572 Y-146.078 Z-1.992
X-120.536 Y-146.017 Z-2
X-120.378 Y-145.742
G3 X-120.494 Y-145.308 I-0.275 J0.159
G1 X-121.7 Y-144.612
X-124.113 Y-146.005
Y-148.79
X-121.7 Y-150.183
X-119.287 Y-148.79
Y-146.005
X-120.494 Y-145.308
G3 X-120.928 Y-145.424 I-0.159 J-0.275
G1 X-121.086 Y-145.699
X-121.122 Y-145.761 Z-1.992
X-121.155 Y-145.819 Z-1.969
X-121.185 Y-145.871 Z-1.931
X-121.21 Y-145.914 Z-1.88
X-121.229 Y-145.947 Z-1.82
X-121.241 Y-145.968 Z-1.753
X-121.245 Y-145.974 Z-1.683
Z5
X-120.695 Y-146.292
Z-1.365 F333.3
Z-1.983
X-120.691 Y-146.285 Z-2.053 F1000
X-120.679 Y-146.265 Z-2.12
X-120.661 Y-146.232 Z-2.18
X-120.635 Y-146.188 Z-2.231
X-120.605 Y-146.136 Z-2.269
X-120.572 Y-146.078 Z-2.292
X-120.536 Y-146.017 Z-2.3
X-120.378 Y-145.742
G3 X-120.494 Y-145.308 I-0.275 J0.159
G1 X-121.7 Y-144.612
X-124.113 Y-146.005
Y-148.79
X-121.7 Y-150.183
X-119.287 Y-148.79
Y-146.005
X-120.494 Y-145.308
G3 X-120.928 Y-145.424 I-0.159 J-0.275
G1 X-121.086 Y-145.699
X-121.122 Y-145.761 Z-2.292
X-121.155 Y-145.819 Z-2.269
X-121.185 Y-145.871 Z-2.231
X-121.21 Y-145.914 Z-2.18
X-121.229 Y-145.947 Z-2.12
X-121.241 Y-145.968 Z-2.053
X-121.245 Y-145.974 Z-1.983
Z5
X-105.695 Y-146.292
Z0.635 F333.3
Z-0.683
X-105.691 Y-146.285 Z-0.753 F1000
X-105.679 Y-146.265 Z-0.82
X-105.661 Y-146.232 Z-0.88
X-105.635 Y-146.188 Z-0.931
X-105.605 Y-146.136 Z-0.969
X-105.572 Y-146.078 Z-0.992
X-105.536 Y-146.017 Z-1
X-105.378 Y-145.742
G3 X-105.494 Y-145.308 I-0.275 J0.159
G1 X-106.7 Y-144.612
X-109.113 Y-146.005
Y-148.79
X-106.7 Y-150.183
X-104.287 Y-148.79
Y-146.005
X-105.494 Y-145.308
G3 X-105.928 Y-145.424 I-0.159 J-0.275
G1 X-106.086 Y-145.699
X-106.122 Y-145.761 Z-0.992
X-106.155 Y-145.819 Z-0.969
X-106.185 Y-145.871 Z-0.931
X-106.21 Y-145.914 Z-0.88
X-106.229 Y-145.947 Z-0.82
X-106.241 Y-145.968 Z-0.753
X-106.245 Y-145.974 Z-0.683
Z5
X-105.695 Y-146.292
Z-0.365 F333.3
Z-1.683
X-105.691 Y-146.285 Z-1.753 F1000
X-105.679 Y-146.265 Z-1.82
X-105.661 Y-146.232 Z-1.88
X-105.635 Y-146.188 Z-1.931
X-105.605 Y-146.136 Z-1.969
X-105.572 Y-146.078 Z-1.992
X-105.536 Y-146.017 Z-2
X-105.378 Y-145.742
G3 X-105.494 Y-145.308 I-0.275 J0.159
G1 X-106.7 Y-144.612
X-109.113 Y-146.005
Y-148.79
X-106.7 Y-150.183
X-104.287 Y-148.79
Y-146.005
X-105.494 Y-145.308
G3 X-105.928 Y-145.424 I-0.159 J-0.275
G1 X-106.086 Y-145.699
X-106.122 Y-145.761 Z-1.992
X-106.155 Y-145.819 Z-1.969
X-106.185 Y-145.871 Z-1.931
X-106.21 Y-145.914 Z-1.88
X-106.229 Y-145.947 Z-1.82
X-106.241 Y-145.968 Z-1.753
X-106.245 Y-145.974 Z-1.683
Z5
X-105.695 Y-146.292
Z-1.365 F333.3
Z-1.983
X-105.691 Y-146.285 Z-2.053 F1000
X-105.679 Y-146.265 Z-2.12
X-105.661 Y-146.232 Z-2.18
X-105.635 Y-146.188 Z-2.231
X-105.605 Y-146.136 Z-2.269
X-105.572 Y-146.078 Z-2.292
X-105.536 Y-146.017 Z-2.3
X-105.378 Y-145.742
G3 X-105.494 Y-145.308 I-0.275 J0.159
G1 X-106.7 Y-144.612
X-109.113 Y-146.005
Y-148.79
X-106.7 Y-150.183
X-104.287 Y-148.79
Y-146.005
X-105.494 Y-145.308
G3 X-105.928 Y-145.424 I-0.159 J-0.275
G1 X-106.086 Y-145.699
X-106.122 Y-145.761 Z-2.292
X-106.155 Y-145.819 Z-2.269
X-106.185 Y-145.871 Z-2.231
X-106.21 Y-145.914 Z-2.18
X-106.229 Y-145.947 Z-2.12
X-106.241 Y-145.968 Z-2.053
X-106.245 Y-145.974 Z-1.983
Z5
Y-134.821
Z0.635 F333.3
Z-0.683
X-106.241 Y-134.827 Z-0.753 F1000
X-106.229 Y-134.848 Z-0.82
X-106.21 Y-134.881 Z-0.88
X-106.185 Y-134.924 Z-0.931
X-106.155 Y-134.976 Z-0.969
X-106.122 Y-135.034 Z-0.992
X-106.086 Y-135.096 Z-1
X-105.928 Y-135.371
G3 X-105.494 Y-135.487 I0.275 J0.159
G1 X-104.287 Y-134.79
Y-132.005
X-106.7 Y-130.612
X-109.113 Y-132.005
Y-134.79
X-106.7 Y-136.183
X-105.494 Y-135.487
G3 X-105.378 Y-135.053 I-0.159 J0.275
G1 X-105.536 Y-134.778
X-105.572 Y-134.717 Z-0.992
X-105.605 Y-134.659 Z-0.969
X-105.635 Y-134.607 Z-0.931
X-105.661 Y-134.563 Z-0.88
X-105.679 Y-134.53 Z-0.82
X-105.691 Y-134.51 Z-0.753
X-105.695 Y-134.503 Z-0.683
Z5
X-106.245 Y-134.821
Z-0.365 F333.3
Z-1.683
X-106.241 Y-134.827 Z-1.753 F1000
X-106.229 Y-134.848 Z-1.82
X-106.21 Y-134.881 Z-1.88
X-106.185 Y-134.924 Z-1.931
X-106.155 Y-134.976 Z-1.969
X-106.122 Y-135.034 Z-1.992
X-106.086 Y-135.096 Z-2
X-105.928 Y-135.371
G3 X-105.494 Y-135.487 I0.275 J0.159
G1 X-104.287 Y-134.79
Y-132.005
X-106.7 Y-130.612
X-109.113 Y-132.005
Y-134.79
X-106.7 Y-136.183
X-105.494 Y-135.487
G3 X-105.378 Y-135.053 I-0.159 J0.275
G1 X-105.536 Y-134.778
X-105.572 Y-134.717 Z-1.992
X-105.605 Y-134.659 Z-1.969
X-105.635 Y-134.607 Z-1.931
X-105.661 Y-134.563 Z-1.88
X-105.679 Y-134.53 Z-1.82
X-105.691 Y-134.51 Z-1.753
X-105.695 Y-134.503 Z-1.683
Z5
X-106.245 Y-134.821
Z-1.365 F333.3
Z-1.983
X-106.241 Y-134.827 Z-2.053 F1000
X-106.229 Y-134.848 Z-2.12
X-106.21 Y-134.881 Z-2.18
X-106.185 Y-134.924 Z-2.231
X-106.155 Y-134.976 Z-2.269
X-106.122 Y-135.034 Z-2.292
X-106.086 Y-135.096 Z-2.3
X-105.928 Y-135.371
G3 X-105.494 Y-135.487 I0.275 J0.159
G1 X-104.287 Y-134.79
Y-132.005
X-106.7 Y-130.612
X-109.113 Y-132.005
Y-134.79
X-106.7 Y-136.183
X-105.494 Y-135.487
G3 X-105.378 Y-135.053 I-0.159 J0.275
G1 X-105.536 Y-134.778
X-105.572 Y-134.717 Z-2.292
X-105.605 Y-134.659 Z-2.269
X-105.635 Y-134.607 Z-2.231
X-105.661 Y-134.563 Z-2.18
X-105.679 Y-134.53 Z-2.12
X-105.691 Y-134.51 Z-2.053
X-105.695 Y-134.503 Z-1.983
Z5
X-91.245 Y-134.821
Z0.635 F333.3
Z-0.683
X-91.241 Y-134.827 Z-0.753 F1000
X-91.229 Y-134.848 Z-0.82
X-91.21 Y-134.881 Z-0.88
X-91.185 Y-134.924 Z-0.931
X-91.155 Y-134.976 Z-0.969
X-91.122 Y-135.034 Z-0.992
X-91.086 Y-135.096 Z-1
X-90.928 Y-135.371
G3 X-90.494 Y-135.487 I0.275 J0.159
G1 X-89.287 Y-134.79
Y-132.005
X-91.7 Y-130.612
X-94.113 Y-132.005
Y-134.79
X-91.7 Y-136.183
X-90.494 Y-135.487
G3 X-90.378 Y-135.053 I-0.159 J0.275
G1 X-90.536 Y-134.778
X-90.572 Y-134.717 Z-0.992
X-90.605 Y-134.659 Z-0.969
X-90.635 Y-134.607 Z-0.931
X-90.661 Y-134.563 Z-0.88
X-90.679 Y-134.53 Z-0.82
X-90.691 Y-134.51 Z-0.753
X-90.695 Y-134.503 Z-0.683
Z5
X-91.245 Y-134.821
Z-0.365 F333.3
Z-1.683
X-91.241 Y-134.827 Z-1.753 F1000
X-91.229 Y-134.848 Z-1.82
X-91.21 Y-134.881 Z-1.88
X-91.185 Y-134.924 Z-1.931
X-91.155 Y-134.976 Z-1.969
X-91.122 Y-135.034 Z-1.992
X-91.086 Y-135.096 Z-2
X-90.928 Y-135.371
G3 X-90.494 Y-135.487 I0.275 J0.159
G1 X-89.287 Y-134.79
Y-132.005
X-91.7 Y-130.612
X-94.113 Y-132.005
Y-134.79
X-91.7 Y-136.183
X-90.494 Y-135.487
G3 X-90.378 Y-135.053 I-0.159 J0.275
G1 X-90.536 Y-134.778
X-90.572 Y-134.717 Z-1.992
X-90.605 Y-134.659 Z-1.969
X-90.635 Y-134.607 Z-1.931
X-90.661 Y-134.563 Z-1.88
X-90.679 Y-134.53 Z-1.82
X-90.691 Y-134.51 Z-1.753
X-90.695 Y-134.503 Z-1.683
Z5
X-91.245 Y-134.821
Z-1.365 F333.3
Z-1.983
X-91.241 Y-134.827 Z-2.053 F1000
X-91.229 Y-134.848 Z-2.12
X-91.21 Y-134.881 Z-2.18
X-91.185 Y-134.924 Z-2.231
X-91.155 Y-134.976 Z-2.269
X-91.122 Y-135.034 Z-2.292
X-91.086 Y-135.096 Z-2.3
X-90.928 Y-135.371
G3 X-90.494 Y-135.487 I0.275 J0.159
G1 X-89.287 Y-134.79
Y-132.005
X-91.7 Y-130.612
X-94.113 Y-132.005
Y-134.79
X-91.7 Y-136.183
X-90.494 Y-135.487
G3 X-90.378 Y-135.053 I-0.159 J0.275
G1 X-90.536 Y-134.778
X-90.572 Y-134.717 Z-2.292
X-90.605 Y-134.659 Z-2.269
X-90.635 Y-134.607 Z-2.231
X-90.661 Y-134.563 Z-2.18
X-90.679 Y-134.53 Z-2.12
X-90.691 Y-134.51 Z-2.053
X-90.695 Y-134.503 Z-1.983
Z5
X-91.245 Y-148.821
Z0.635 F333.3
Z-0.683
X-91.241 Y-148.827 Z-0.753 F1000
X-91.229 Y-148.848 Z-0.82
X-91.21 Y-148.881 Z-0.88
X-91.185 Y-148.924 Z-0.931
X-91.155 Y-148.976 Z-0.969
X-91.122 Y-149.034 Z-0.992
X-91.086 Y-149.096 Z-1
X-90.928 Y-149.371
G3 X-90.494 Y-149.487 I0.275 J0.159
G1 X-89.287 Y-148.79
Y-146.005
X-91.7 Y-144.612
X-94.113 Y-146.005
Y-148.79
X-91.7 Y-150.183
X-90.494 Y-149.487
G3 X-90.378 Y-149.053 I-0.159 J0.275
G1 X-90.536 Y-148.778
X-90.572 Y-148.717 Z-0.992
X-90.605 Y-148.659 Z-0.969
X-90.635 Y-148.607 Z-0.931
X-90.661 Y-148.563 Z-0.88
X-90.679 Y-148.53 Z-0.82
X-90.691 Y-148.51 Z-0.753
X-90.695 Y-148.503 Z-0.683
Z5
X-91.245 Y-148.821
Z-0.365 F333.3
Z-1.683
X-91.241 Y-148.827 Z-1.753 F1000
X-91.229 Y-148.848 Z-1.82
X-91.21 Y-148.881 Z-1.88
X-91.185 Y-148.924 Z-1.931
X-91.155 Y-148.976 Z-1.969
X-91.122 Y-149.034 Z-1.992
X-91.086 Y-149.096 Z-2
X-90.928 Y-149.371
G3 X-90.494 Y-149.487 I0.275 J0.159
G1 X-89.287 Y-148.79
Y-146.005
X-91.7 Y-144.612
X-94.113 Y-146.005
Y-148.79
X-91.7 Y-150.183
X-90.494 Y-149.487
G3 X-90.378 Y-149.053 I-0.159 J0.275
G1 X-90.536 Y-148.778
X-90.572 Y-148.717 Z-1.992
X-90.605 Y-148.659 Z-1.969
X-90.635 Y-148.607 Z-1.931
X-90.661 Y-148.563 Z-1.88
X-90.679 Y-148.53 Z-1.82
X-90.691 Y-148.51 Z-1.753
X-90.695 Y-148.503 Z-1.683
Z5
X-91.245 Y-148.821
Z-1.365 F333.3
Z-1.983
X-91.241 Y-148.827 Z-2.053 F1000
X-91.229 Y-148.848 Z-2.12
X-91.21 Y-148.881 Z-2.18
X-91.185 Y-148.924 Z-2.231
X-91.155 Y-148.976 Z-2.269
X-91.122 Y-149.034 Z-2.292
X-91.086 Y-149.096 Z-2.3
X-90.928 Y-149.371
G3 X-90.494 Y-149.487 I0.275 J0.159
G1 X-89.287 Y-148.79
Y-146.005
X-91.7 Y-144.612
X-94.113 Y-146.005
Y-148.79
X-91.7 Y-150.183
X-90.494 Y-149.487
G3 X-90.378 Y-149.053 I-0.159 J0.275
G1 X-90.536 Y-148.778
X-90.572 Y-148.717 Z-2.292
X-90.605 Y-148.659 Z-2.269
X-90.635 Y-148.607 Z-2.231
X-90.661 Y-148.563 Z-2.18
X-90.679 Y-148.53 Z-2.12
X-90.691 Y-148.51 Z-2.053
X-90.695 Y-148.503 Z-1.983
Z5
X-75.695 Y-146.292
Z0.635 F333.3
Z-0.683
X-75.691 Y-146.285 Z-0.753 F1000
X-75.679 Y-146.265 Z-0.82
X-75.661 Y-146.232 Z-0.88
X-75.635 Y-146.188 Z-0.931
X-75.605 Y-146.136 Z-0.969
X-75.572 Y-146.078 Z-0.992
X-75.536 Y-146.017 Z-1
X-75.378 Y-145.742
G3 X-75.494 Y-145.308 I-0.275 J0.159
G1 X-76.7 Y-144.612
X-79.113 Y-146.005
Y-148.79
X-76.7 Y-150.183
X-74.287 Y-148.79
Y-146.005
X-75.494 Y-145.308
G3 X-75.928 Y-145.424 I-0.159 J-0.275
G1 X-76.086 Y-145.699
X-76.122 Y-145.761 Z-0.992
X-76.155 Y-145.819 Z-0.969
X-76.185 Y-145.871 Z-0.931
X-76.21 Y-145.914 Z-0.88
X-76.229 Y-145.947 Z-0.82
X-76.241 Y-145.968 Z-0.753
X-76.245 Y-145.974 Z-0.683
Z5
X-75.695 Y-146.292
Z-0.365 F333.3
Z-1.683
X-75.691 Y-146.285 Z-1.753 F1000
X-75.679 Y-146.265 Z-1.82
X-75.661 Y-146.232 Z-1.88
X-75.635 Y-146.188 Z-1.931
X-75.605 Y-146.136 Z-1.969
X-75.572 Y-146.078 Z-1.992
X-75.536 Y-146.017 Z-2
X-75.378 Y-145.742
G3 X-75.494 Y-145.308 I-0.275 J0.159
G1 X-76.7 Y-144.612
X-79.113 Y-146.005
Y-148.79
X-76.7 Y-150.183
X-74.287 Y-148.79
Y-146.005
X-75.494 Y-145.308
G3 X-75.928 Y-145.424 I-0.159 J-0.275
G1 X-76.086 Y-145.699
X-76.122 Y-145.761 Z-1.992
X-76.155 Y-145.819 Z-1.969
X-76.185 Y-145.871 Z-1.931
X-76.21 Y-145.914 Z-1.88
X-76.229 Y-145.947 Z-1.82
X-76.241 Y-145.968 Z-1.753
X-76.245 Y-145.974 Z-1.683
Z5
X-75.695 Y-146.292
Z-1.365 F333.3
Z-1.983
X-75.691 Y-146.285 Z-2.053 F1000
X-75.679 Y-146.265 Z-2.12
X-75.661 Y-146.232 Z-2.18
X-75.635 Y-146.188 Z-2.231
X-75.605 Y-146.136 Z-2.269
X-75.572 Y-146.078 Z-2.292
X-75.536 Y-146.017 Z-2.3
X-75.378 Y-145.742
G3 X-75.494 Y-145.308 I-0.275 J0.159
G1 X-76.7 Y-144.612
X-79.113 Y-146.005
Y-148.79
X-76.7 Y-150.183
X-74.287 Y-148.79
Y-146.005
X-75.494 Y-145.308
G3 X-75.928 Y-145.424 I-0.159 J-0.275
G1 X-76.086 Y-145.699
X-76.122 Y-145.761 Z-2.292
X-76.155 Y-145.819 Z-2.269
X-76.185 Y-145.871 Z-2.231
X-76.21 Y-145.914 Z-2.18
X-76.229 Y-145.947 Z-2.12
X-76.241 Y-145.968 Z-2.053
X-76.245 Y-145.974 Z-1.983
Z5
Y-134.821
Z0.635 F333.3
Z-0.683
X-76.241 Y-134.827 Z-0.753 F1000
X-76.229 Y-134.848 Z-0.82
X-76.21 Y-134.881 Z-0.88
X-76.185 Y-134.924 Z-0.931
X-76.155 Y-134.976 Z-0.969
X-76.122 Y-135.034 Z-0.992
X-76.086 Y-135.096 Z-1
X-75.928 Y-135.371
G3 X-75.494 Y-135.487 I0.275 J0.159
G1 X-74.287 Y-134.79
Y-132.005
X-76.7 Y-130.612
X-79.113 Y-132.005
Y-134.79
X-76.7 Y-136.183
X-75.494 Y-135.487
G3 X-75.378 Y-135.053 I-0.159 J0.275
G1 X-75.536 Y-134.778
X-75.572 Y-134.717 Z-0.992
X-75.605 Y-134.659 Z-0.969
X-75.635 Y-134.607 Z-0.931
X-75.661 Y-134.563 Z-0.88
X-75.679 Y-134.53 Z-0.82
X-75.691 Y-134.51 Z-0.753
X-75.695 Y-134.503 Z-0.683
Z5
X-76.245 Y-134.821
Z-0.365 F333.3
Z-1.683
X-76.241 Y-134.827 Z-1.753 F1000
X-76.229 Y-134.848 Z-1.82
X-76.21 Y-134.881 Z-1.88
X-76.185 Y-134.924 Z-1.931
X-76.155 Y-134.976 Z-1.969
X-76.122 Y-135.034 Z-1.992
X-76.086 Y-135.096 Z-2
X-75.928 Y-135.371
G3 X-75.494 Y-135.487 I0.275 J0.159
G1 X-74.287 Y-134.79
Y-132.005
X-76.7 Y-130.612
X-79.113 Y-132.005
Y-134.79
X-76.7 Y-136.183
X-75.494 Y-135.487
G3 X-75.378 Y-135.053 I-0.159 J0.275
G1 X-75.536 Y-134.778
X-75.572 Y-134.717 Z-1.992
X-75.605 Y-134.659 Z-1.969
X-75.635 Y-134.607 Z-1.931
X-75.661 Y-134.563 Z-1.88
X-75.679 Y-134.53 Z-1.82
X-75.691 Y-134.51 Z-1.753
X-75.695 Y-134.503 Z-1.683
Z5
X-76.245 Y-134.821
Z-1.365 F333.3
Z-1.983
X-76.241 Y-134.827 Z-2.053 F1000
X-76.229 Y-134.848 Z-2.12
X-76.21 Y-134.881 Z-2.18
X-76.185 Y-134.924 Z-2.231
X-76.155 Y-134.976 Z-2.269
X-76.122 Y-135.034 Z-2.292
X-76.086 Y-135.096 Z-2.3
X-75.928 Y-135.371
G3 X-75.494 Y-135.487 I0.275 J0.159
G1 X-74.287 Y-134.79
Y-132.005
X-76.7 Y-130.612
X-79.113 Y-132.005
Y-134.79
X-76.7 Y-136.183
X-75.494 Y-135.487
G3 X-75.378 Y-135.053 I-0.159 J0.275
G1 X-75.536 Y-134.778
X-75.572 Y-134.717 Z-2.292
X-75.605 Y-134.659 Z-2.269
X-75.635 Y-134.607 Z-2.231
X-75.661 Y-134.563 Z-2.18
X-75.679 Y-134.53 Z-2.12
X-75.691 Y-134.51 Z-2.053
X-75.695 Y-134.503 Z-1.983
Z5
Y-118.292
Z0.635 F333.3
Z-0.683
X-75.691 Y-118.285 Z-0.753 F1000
X-75.679 Y-118.265 Z-0.82
X-75.661 Y-118.232 Z-0.88
X-75.635 Y-118.188 Z-0.931
X-75.605 Y-118.136 Z-0.969
X-75.572 Y-118.078 Z-0.992
X-75.536 Y-118.017 Z-1
X-75.378 Y-117.742
G3 X-75.494 Y-117.308 I-0.275 J0.159
G1 X-76.7 Y-116.612
X-79.113 Y-118.005
Y-120.79
X-76.7 Y-122.183
X-74.287 Y-120.79
Y-118.005
X-75.494 Y-117.308
G3 X-75.928 Y-117.424 I-0.159 J-0.275
G1 X-76.086 Y-117.699
X-76.122 Y-117.761 Z-0.992
X-76.155 Y-117.819 Z-0.969
X-76.185 Y-117.871 Z-0.931
X-76.21 Y-117.914 Z-0.88
X-76.229 Y-117.947 Z-0.82
X-76.241 Y-117.968 Z-0.753
X-76.245 Y-117.974 Z-0.683
Z5
X-75.695 Y-118.292
Z-0.365 F333.3
Z-1.683
X-75.691 Y-118.285 Z-1.753 F1000
X-75.679 Y-118.265 Z-1.82
X-75.661 Y-118.232 Z-1.88
X-75.635 Y-118.188 Z-1.931
X-75.605 Y-118.136 Z-1.969
X-75.572 Y-118.078 Z-1.992
X-75.536 Y-118.017 Z-2
X-75.378 Y-117.742
G3 X-75.494 Y-117.308 I-0.275 J0.159
G1 X-76.7 Y-116.612
X-79.113 Y-118.005
Y-120.79
X-76.7 Y-122.183
X-74.287 Y-120.79
Y-118.005
X-75.494 Y-117.308
G3 X-75.928 Y-117.424 I-0.159 J-0.275
G1 X-76.086 Y-117.699
X-76.122 Y-117.761 Z-1.992
X-76.155 Y-117.819 Z-1.969
X-76.185 Y-117.871 Z-1.931
X-76.21 Y-117.914 Z-1.88
X-76.229 Y-117.947 Z-1.82
X-76.241 Y-117.968 Z-1.753
X-76.245 Y-117.974 Z-1.683
Z5
X-75.695 Y-118.292
Z-1.365 F333.3
Z-1.983
X-75.691 Y-118.285 Z-2.053 F1000
X-75.679 Y-118.265 Z-2.12
X-75.661 Y-118.232 Z-2.18
X-75.635 Y-118.188 Z-2.231
X-75.605 Y-118.136 Z-2.269
X-75.572 Y-118.078 Z-2.292
X-75.536 Y-118.017 Z-2.3
X-75.378 Y-117.742
G3 X-75.494 Y-117.308 I-0.275 J0.159
G1 X-76.7 Y-116.612
X-79.113 Y-118.005
Y-120.79
X-76.7 Y-122.183
X-74.287 Y-120.79
Y-118.005
X-75.494 Y-117.308
G3 X-75.928 Y-117.424 I-0.159 J-0.275
G1 X-76.086 Y-117.699
X-76.122 Y-117.761 Z-2.292
X-76.155 Y-117.819 Z-2.269
X-76.185 Y-117.871 Z-2.231
X-76.21 Y-117.914 Z-2.18
X-76.229 Y-117.947 Z-2.12
X-76.241 Y-117.968 Z-2.053
X-76.245 Y-117.974 Z-1.983
Z5
X-91.245 Y-120.821
Z0.635 F333.3
Z-0.683
X-91.241 Y-120.827 Z-0.753 F1000
X-91.229 Y-120.848 Z-0.82
X-91.21 Y-120.881 Z-0.88
X-91.185 Y-120.924 Z-0.931
X-91.155 Y-120.976 Z-0.969
X-91.122 Y-121.034 Z-0.992
X-91.086 Y-121.096 Z-1
X-90.928 Y-121.371
G3 X-90.494 Y-121.487 I0.275 J0.159
G1 X-89.287 Y-120.79
Y-118.005
X-91.7 Y-116.612
X-94.113 Y-118.005
Y-120.79
X-91.7 Y-122.183
X-90.494 Y-121.487
G3 X-90.378 Y-121.053 I-0.159 J0.275
G1 X-90.536 Y-120.778
X-90.572 Y-120.717 Z-0.992
X-90.605 Y-120.659 Z-0.969
X-90.635 Y-120.607 Z-0.931
X-90.661 Y-120.563 Z-0.88
X-90.679 Y-120.53 Z-0.82
X-90.691 Y-120.51 Z-0.753
X-90.695 Y-120.503 Z-0.683
Z5
X-91.245 Y-120.821
Z-0.365 F333.3
Z-1.683
X-91.241 Y-120.827 Z-1.753 F1000
X-91.229 Y-120.848 Z-1.82
X-91.21 Y-120.881 Z-1.88
X-91.185 Y-120.924 Z-1.931
X-91.155 Y-120.976 Z-1.969
X-91.122 Y-121.034 Z-1.992
X-91.086 Y-121.096 Z-2
X-90.928 Y-121.371
G3 X-90.494 Y-121.487 I0.275 J0.159
G1 X-89.287 Y-120.79
Y-118.005
X-91.7 Y-116.612
X-94.113 Y-118.005
Y-120.79
X-91.7 Y-122.183
X-90.494 Y-121.487
G3 X-90.378 Y-121.053 I-0.159 J0.275
G1 X-90.536 Y-120.778
X-90.572 Y-120.717 Z-1.992
X-90.605 Y-120.659 Z-1.969
X-90.635 Y-120.607 Z-1.931
X-90.661 Y-120.563 Z-1.88
X-90.679 Y-120.53 Z-1.82
X-90.691 Y-120.51 Z-1.753
X-90.695 Y-120.503 Z-1.683
Z5
X-91.245 Y-120.821
Z-1.365 F333.3
Z-1.983
X-91.241 Y-120.827 Z-2.053 F1000
X-91.229 Y-120.848 Z-2.12
X-91.21 Y-120.881 Z-2.18
X-91.185 Y-120.924 Z-2.231
X-91.155 Y-120.976 Z-2.269
X-91.122 Y-121.034 Z-2.292
X-91.086 Y-121.096 Z-2.3
X-90.928 Y-121.371
G3 X-90.494 Y-121.487 I0.275 J0.159
G1 X-89.287 Y-120.79
Y-118.005
X-91.7 Y-116.612
X-94.113 Y-118.005
Y-120.79
X-91.7 Y-122.183
X-90.494 Y-121.487
G3 X-90.378 Y-121.053 I-0.159 J0.275
G1 X-90.536 Y-120.778
X-90.572 Y-120.717 Z-2.292
X-90.605 Y-120.659 Z-2.269
X-90.635 Y-120.607 Z-2.231
X-90.661 Y-120.563 Z-2.18
X-90.679 Y-120.53 Z-2.12
X-90.691 Y-120.51 Z-2.053
X-90.695 Y-120.503 Z-1.983
Z5
X-105.695 Y-118.292
Z0.635 F333.3
Z-0.683
X-105.691 Y-118.285 Z-0.753 F1000
X-105.679 Y-118.265 Z-0.82
X-105.661 Y-118.232 Z-0.88
X-105.635 Y-118.188 Z-0.931
X-105.605 Y-118.136 Z-0.969
X-105.572 Y-118.078 Z-0.992
X-105.536 Y-118.017 Z-1
X-105.378 Y-117.742
G3 X-105.494 Y-117.308 I-0.275 J0.159
G1 X-106.7 Y-116.612
X-109.113 Y-118.005
Y-120.79
X-106.7 Y-122.183
X-104.287 Y-120.79
Y-118.005
X-105.494 Y-117.308
G3 X-105.928 Y-117.424 I-0.159 J-0.275
G1 X-106.086 Y-117.699
X-106.122 Y-117.761 Z-0.992
X-106.155 Y-117.819 Z-0.969
X-106.185 Y-117.871 Z-0.931
X-106.21 Y-117.914 Z-0.88
X-106.229 Y-117.947 Z-0.82
X-106.241 Y-117.968 Z-0.753
X-106.245 Y-117.974 Z-0.683
Z5
X-105.695 Y-118.292
Z-0.365 F333.3
Z-1.683
X-105.691 Y-118.285 Z-1.753 F1000
X-105.679 Y-118.265 Z-1.82
X-105.661 Y-118.232 Z-1.88
X-105.635 Y-118.188 Z-1.931
X-105.605 Y-118.136 Z-1.969
X-105.572 Y-118.078 Z-1.992
X-105.536 Y-118.017 Z-2
X-105.378 Y-117.742
G3 X-105.494 Y-117.308 I-0.275 J0.159
G1 X-106.7 Y-116.612
X-109.113 Y-118.005
Y-120.79
X-106.7 Y-122.183
X-104.287 Y-120.79
Y-118.005
X-105.494 Y-117.308
G3 X-105.928 Y-117.424 I-0.159 J-0.275
G1 X-106.086 Y-117.699
X-106.122 Y-117.761 Z-1.992
X-106.155 Y-117.819 Z-1.969
X-106.185 Y-117.871 Z-1.931
X-106.21 Y-117.914 Z-1.88
X-106.229 Y-117.947 Z-1.82
X-106.241 Y-117.968 Z-1.753
X-106.245 Y-117.974 Z-1.683
Z5
X-105.695 Y-118.292
Z-1.365 F333.3
Z-1.983
X-105.691 Y-118.285 Z-2.053 F1000
X-105.679 Y-118.265 Z-2.12
X-105.661 Y-118.232 Z-2.18
X-105.635 Y-118.188 Z-2.231
X-105.605 Y-118.136 Z-2.269
X-105.572 Y-118.078 Z-2.292
X-105.536 Y-118.017 Z-2.3
X-105.378 Y-117.742
G3 X-105.494 Y-117.308 I-0.275 J0.159
G1 X-106.7 Y-116.612
X-109.113 Y-118.005
Y-120.79
X-106.7 Y-122.183
X-104.287 Y-120.79
Y-118.005
X-105.494 Y-117.308
G3 X-105.928 Y-117.424 I-0.159 J-0.275
G1 X-106.086 Y-117.699
X-106.122 Y-117.761 Z-2.292
X-106.155 Y-117.819 Z-2.269
X-106.185 Y-117.871 Z-2.231
X-106.21 Y-117.914 Z-2.18
X-106.229 Y-117.947 Z-2.12
X-106.241 Y-117.968 Z-2.053
X-106.245 Y-117.974 Z-1.983
Z5
X-120.695 Y-118.292
Z0.635 F333.3
Z-0.683
X-120.691 Y-118.285 Z-0.753 F1000
X-120.679 Y-118.265 Z-0.82
X-120.661 Y-118.232 Z-0.88
X-120.635 Y-118.188 Z-0.931
X-120.605 Y-118.136 Z-0.969
X-120.572 Y-118.078 Z-0.992
X-120.536 Y-118.017 Z-1
X-120.378 Y-117.742
G3 X-120.494 Y-117.308 I-0.275 J0.159
G1 X-121.7 Y-116.612
X-124.113 Y-118.005
Y-120.79
X-121.7 Y-122.183
X-119.287 Y-120.79
Y-118.005
X-120.494 Y-117.308
G3 X-120.928 Y-117.424 I-0.159 J-0.275
G1 X-121.086 Y-117.699
X-121.122 Y-117.761 Z-0.992
X-121.155 Y-117.819 Z-0.969
X-121.185 Y-117.871 Z-0.931
X-121.21 Y-117.914 Z-0.88
X-121.229 Y-117.947 Z-0.82
X-121.241 Y-117.968 Z-0.753
X-121.245 Y-117.974 Z-0.683
Z5
X-120.695 Y-118.292
Z-0.365 F333.3
Z-1.683
X-120.691 Y-118.285 Z-1.753 F1000
X-120.679 Y-118.265 Z-1.82
X-120.661 Y-118.232 Z-1.88
X-120.635 Y-118.188 Z-1.931
X-120.605 Y-118.136 Z-1.969
X-120.572 Y-118.078 Z-1.992
X-120.536 Y-118.017 Z-2
X-120.378 Y-117.742
G3 X-120.494 Y-117.308 I-0.275 J0.159
G1 X-121.7 Y-116.612
X-124.113 Y-118.005
Y-120.79
X-121.7 Y-122.183
X-119.287 Y-120.79
Y-118.005
X-120.494 Y-117.308
G3 X-120.928 Y-117.424 I-0.159 J-0.275
G1 X-121.086 Y-117.699
X-121.122 Y-117.761 Z-1.992
X-121.155 Y-117.819 Z-1.969
X-121.185 Y-117.871 Z-1.931
X-121.21 Y-117.914 Z-1.88
X-121.229 Y-117.947 Z-1.82
X-121.241 Y-117.968 Z-1.753
X-121.245 Y-117.974 Z-1.683
Z5
X-120.695 Y-118.292
Z-1.365 F333.3
Z-1.983
X-120.691 Y-118.285 Z-2.053 F1000
X-120.679 Y-118.265 Z-2.12
X-120.661 Y-118.232 Z-2.18
X-120.635 Y-118.188 Z-2.231
X-120.605 Y-118.136 Z-2.269
X-120.572 Y-118.078 Z-2.292
X-120.536 Y-118.017 Z-2.3
X-120.378 Y-117.742
G3 X-120.494 Y-117.308 I-0.275 J0.159
G1 X-121.7 Y-116.612
X-124.113 Y-118.005
Y-120.79
X-121.7 Y-122.183
X-119.287 Y-120.79
Y-118.005
X-120.494 Y-117.308
G3 X-120.928 Y-117.424 I-0.159 J-0.275
G1 X-121.086 Y-117.699
X-121.122 Y-117.761 Z-2.292
X-121.155 Y-117.819 Z-2.269
X-121.185 Y-117.871 Z-2.231
X-121.21 Y-117.914 Z-2.18
X-121.229 Y-117.947 Z-2.12
X-121.241 Y-117.968 Z-2.053
X-121.245 Y-117.974 Z-1.983
Z5
X-135.695 Y-118.292
Z0.635 F333.3
Z-0.683
X-135.691 Y-118.285 Z-0.753 F1000
X-135.679 Y-118.265 Z-0.82
X-135.661 Y-118.232 Z-0.88
X-135.635 Y-118.188 Z-0.931
X-135.605 Y-118.136 Z-0.969
X-135.572 Y-118.078 Z-0.992
X-135.536 Y-118.017 Z-1
X-135.378 Y-117.742
G3 X-135.494 Y-117.308 I-0.275 J0.159
G1 X-136.7 Y-116.612
X-139.113 Y-118.005
Y-120.79
X-136.7 Y-122.183
X-134.288 Y-120.79
Y-118.005
X-135.494 Y-117.308
G3 X-135.928 Y-117.424 I-0.159 J-0.275
G1 X-136.086 Y-117.699
X-136.122 Y-117.761 Z-0.992
X-136.155 Y-117.819 Z-0.969
X-136.185 Y-117.871 Z-0.931
X-136.21 Y-117.914 Z-0.88
X-136.229 Y-117.947 Z-0.82
X-136.241 Y-117.968 Z-0.753
X-136.245 Y-117.974 Z-0.683
Z5
X-135.695 Y-118.292
Z-0.365 F333.3
Z-1.683
X-135.691 Y-118.285 Z-1.753 F1000
X-135.679 Y-118.265 Z-1.82
X-135.661 Y-118.232 Z-1.88
X-135.635 Y-118.188 Z-1.931
X-135.605 Y-118.136 Z-1.969
X-135.572 Y-118.078 Z-1.992
X-135.536 Y-118.017 Z-2
X-135.378 Y-117.742
G3 X-135.494 Y-117.308 I-0.275 J0.159
G1 X-136.7 Y-116.612
X-139.113 Y-118.005
Y-120.79
X-136.7 Y-122.183
X-134.288 Y-120.79
Y-118.005
X-135.494 Y-117.308
G3 X-135.928 Y-117.424 I-0.159 J-0.275
G1 X-136.086 Y-117.699
X-136.122 Y-117.761 Z-1.992
X-136.155 Y-117.819 Z-1.969
X-136.185 Y-117.871 Z-1.931
X-136.21 Y-117.914 Z-1.88
X-136.229 Y-117.947 Z-1.82
X-136.241 Y-117.968 Z-1.753
X-136.245 Y-117.974 Z-1.683
Z5
X-135.695 Y-118.292
Z-1.365 F333.3
Z-1.983
X-135.691 Y-118.285 Z-2.053 F1000
X-135.679 Y-118.265 Z-2.12
X-135.661 Y-118.232 Z-2.18
X-135.635 Y-118.188 Z-2.231
X-135.605 Y-118.136 Z-2.269
X-135.572 Y-118.078 Z-2.292
X-135.536 Y-118.017 Z-2.3
X-135.378 Y-117.742
G3 X-135.494 Y-117.308 I-0.275 J0.159
G1 X-136.7 Y-116.612
X-139.113 Y-118.005
Y-120.79
X-136.7 Y-122.183
X-134.288 Y-120.79
Y-118.005
X-135.494 Y-117.308
G3 X-135.928 Y-117.424 I-0.159 J-0.275
G1 X-136.086 Y-117.699
X-136.122 Y-117.761 Z-2.292
X-136.155 Y-117.819 Z-2.269
X-136.185 Y-117.871 Z-2.231
X-136.21 Y-117.914 Z-2.18
X-136.229 Y-117.947 Z-2.12
X-136.241 Y-117.968 Z-2.053
X-136.245 Y-117.974 Z-1.983
Z5
X-150.695 Y-118.292
Z0.635 F333.3
Z-0.683
X-150.691 Y-118.285 Z-0.753 F1000
X-150.679 Y-118.265 Z-0.82
X-150.661 Y-118.232 Z-0.88
X-150.635 Y-118.188 Z-0.931
X-150.605 Y-118.136 Z-0.969
X-150.572 Y-118.078 Z-0.992
X-150.536 Y-118.017 Z-1
X-150.378 Y-117.742
G3 X-150.494 Y-117.308 I-0.275 J0.159
G1 X-151.7 Y-116.612
X-154.113 Y-118.005
Y-120.79
X-151.7 Y-122.183
X-149.288 Y-120.79
Y-118.005
X-150.494 Y-117.308
G3 X-150.928 Y-117.424 I-0.159 J-0.275
G1 X-151.086 Y-117.699
X-151.122 Y-117.761 Z-0.992
X-151.155 Y-117.819 Z-0.969
X-151.185 Y-117.871 Z-0.931
X-151.21 Y-117.914 Z-0.88
X-151.229 Y-117.947 Z-0.82
X-151.241 Y-117.968 Z-0.753
X-151.245 Y-117.974 Z-0.683
Z5
X-150.695 Y-118.292
Z-0.365 F333.3
Z-1.683
X-150.691 Y-118.285 Z-1.753 F1000
X-150.679 Y-118.265 Z-1.82
X-150.661 Y-118.232 Z-1.88
X-150.635 Y-118.188 Z-1.931
X-150.605 Y-118.136 Z-1.969
X-150.572 Y-118.078 Z-1.992
X-150.536 Y-118.017 Z-2
X-150.378 Y-117.742
G3 X-150.494 Y-117.308 I-0.275 J0.159
G1 X-151.7 Y-116.612
X-154.113 Y-118.005
Y-120.79
X-151.7 Y-122.183
X-149.288 Y-120.79
Y-118.005
X-150.494 Y-117.308
G3 X-150.928 Y-117.424 I-0.159 J-0.275
G1 X-151.086 Y-117.699
X-151.122 Y-117.761 Z-1.992
X-151.155 Y-117.819 Z-1.969
X-151.185 Y-117.871 Z-1.931
X-151.21 Y-117.914 Z-1.88
X-151.229 Y-117.947 Z-1.82
X-151.241 Y-117.968 Z-1.753
X-151.245 Y-117.974 Z-1.683
Z5
X-150.695 Y-118.292
Z-1.365 F333.3
Z-1.983
X-150.691 Y-118.285 Z-2.053 F1000
X-150.679 Y-118.265 Z-2.12
X-150.661 Y-118.232 Z-2.18
X-150.635 Y-118.188 Z-2.231
X-150.605 Y-118.136 Z-2.269
X-150.572 Y-118.078 Z-2.292
X-150.536 Y-118.017 Z-2.3
X-150.378 Y-117.742
G3 X-150.494 Y-117.308 I-0.275 J0.159
G1 X-151.7 Y-116.612
X-154.113 Y-118.005
Y-120.79
X-151.7 Y-122.183
X-149.288 Y-120.79
Y-118.005
X-150.494 Y-117.308
G3 X-150.928 Y-117.424 I-0.159 J-0.275
G1 X-151.086 Y-117.699
X-151.122 Y-117.761 Z-2.292
X-151.155 Y-117.819 Z-2.269
X-151.185 Y-117.871 Z-2.231
X-151.21 Y-117.914 Z-2.18
X-151.229 Y-117.947 Z-2.12
X-151.241 Y-117.968 Z-2.053
X-151.245 Y-117.974 Z-1.983
Z5
X-165.695 Y-118.292
Z0.635 F333.3
Z-0.683
X-165.691 Y-118.285 Z-0.753 F1000
X-165.679 Y-118.265 Z-0.82
X-165.661 Y-118.232 Z-0.88
X-165.635 Y-118.188 Z-0.931
X-165.605 Y-118.136 Z-0.969
X-165.572 Y-118.078 Z-0.992
X-165.536 Y-118.017 Z-1
X-165.378 Y-117.742
G3 X-165.494 Y-117.308 I-0.275 J0.159
G1 X-166.7 Y-116.612
X-169.113 Y-118.005
Y-120.79
X-166.7 Y-122.183
X-164.288 Y-120.79
Y-118.005
X-165.494 Y-117.308
G3 X-165.928 Y-117.424 I-0.159 J-0.275
G1 X-166.086 Y-117.699
X-166.122 Y-117.761 Z-0.992
X-166.155 Y-117.819 Z-0.969
X-166.185 Y-117.871 Z-0.931
X-166.21 Y-117.914 Z-0.88
X-166.229 Y-117.947 Z-0.82
X-166.241 Y-117.968 Z-0.753
X-166.245 Y-117.974 Z-0.683
Z5
X-165.695 Y-118.292
Z-0.365 F333.3
Z-1.683
X-165.691 Y-118.285 Z-1.753 F1000
X-165.679 Y-118.265 Z-1.82
X-165.661 Y-118.232 Z-1.88
X-165.635 Y-118.188 Z-1.931
X-165.605 Y-118.136 Z-1.969
X-165.572 Y-118.078 Z-1.992
X-165.536 Y-118.017 Z-2
X-165.378 Y-117.742
G3 X-165.494 Y-117.308 I-0.275 J0.159
G1 X-166.7 Y-116.612
X-169.113 Y-118.005
Y-120.79
X-166.7 Y-122.183
X-164.288 Y-120.79
Y-118.005
X-165.494 Y-117.308
G3 X-165.928 Y-117.424 I-0.159 J-0.275
G1 X-166.086 Y-117.699
X-166.122 Y-117.761 Z-1.992
X-166.155 Y-117.819 Z-1.969
X-166.185 Y-117.871 Z-1.931
X-166.21 Y-117.914 Z-1.88
X-166.229 Y-117.947 Z-1.82
X-166.241 Y-117.968 Z-1.753
X-166.245 Y-117.974 Z-1.683
Z5
X-165.695 Y-118.292
Z-1.365 F333.3
Z-1.983
X-165.691 Y-118.285 Z-2.053 F1000
X-165.679 Y-118.265 Z-2.12
X-165.661 Y-118.232 Z-2.18
X-165.635 Y-118.188 Z-2.231
X-165.605 Y-118.136 Z-2.269
X-165.572 Y-118.078 Z-2.292
X-165.536 Y-118.017 Z-2.3
X-165.378 Y-117.742
G3 X-165.494 Y-117.308 I-0.275 J0.159
G1 X-166.7 Y-116.612
X-169.113 Y-118.005
Y-120.79
X-166.7 Y-122.183
X-164.288 Y-120.79
Y-118.005
X-165.494 Y-117.308
G3 X-165.928 Y-117.424 I-0.159 J-0.275
G1 X-166.086 Y-117.699
X-166.122 Y-117.761 Z-2.292
X-166.155 Y-117.819 Z-2.269
X-166.185 Y-117.871 Z-2.231
X-166.21 Y-117.914 Z-2.18
X-166.229 Y-117.947 Z-2.12
X-166.241 Y-117.968 Z-2.053
X-166.245 Y-117.974 Z-1.983
Z5
X-165.695 Y-132.292
Z0.635 F333.3
Z-0.683
X-165.691 Y-132.285 Z-0.753 F1000
X-165.679 Y-132.265 Z-0.82
X-165.661 Y-132.232 Z-0.88
X-165.635 Y-132.188 Z-0.931
X-165.605 Y-132.136 Z-0.969
X-165.572 Y-132.078 Z-0.992
X-165.536 Y-132.017 Z-1
X-165.378 Y-131.742
G3 X-165.494 Y-131.308 I-0.275 J0.159
G1 X-166.7 Y-130.612
X-169.113 Y-132.005
Y-134.79
X-166.7 Y-136.183
X-164.288 Y-134.79
Y-132.005
X-165.494 Y-131.308
G3 X-165.928 Y-131.424 I-0.159 J-0.275
G1 X-166.086 Y-131.699
X-166.122 Y-131.761 Z-0.992
X-166.155 Y-131.819 Z-0.969
X-166.185 Y-131.871 Z-0.931
X-166.21 Y-131.914 Z-0.88
X-166.229 Y-131.947 Z-0.82
X-166.241 Y-131.968 Z-0.753
X-166.245 Y-131.974 Z-0.683
Z5
X-165.695 Y-132.292
Z-0.365 F333.3
Z-1.683
X-165.691 Y-132.285 Z-1.753 F1000
X-165.679 Y-132.265 Z-1.82
X-165.661 Y-132.232 Z-1.88
X-165.635 Y-132.188 Z-1.931
X-165.605 Y-132.136 Z-1.969
X-165.572 Y-132.078 Z-1.992
X-165.536 Y-132.017 Z-2
X-165.378 Y-131.742
G3 X-165.494 Y-131.308 I-0.275 J0.159
G1 X-166.7 Y-130.612
X-169.113 Y-132.005
Y-134.79
X-166.7 Y-136.183
X-164.288 Y-134.79
Y-132.005
X-165.494 Y-131.308
G3 X-165.928 Y-131.424 I-0.159 J-0.275
G1 X-166.086 Y-131.699
X-166.122 Y-131.761 Z-1.992
X-166.155 Y-131.819 Z-1.969
X-166.185 Y-131.871 Z-1.931
X-166.21 Y-131.914 Z-1.88
X-166.229 Y-131.947 Z-1.82
X-166.241 Y-131.968 Z-1.753
X-166.245 Y-131.974 Z-1.683
Z5
X-165.695 Y-132.292
Z-1.365 F333.3
Z-1.983
X-165.691 Y-132.285 Z-2.053 F1000
X-165.679 Y-132.265 Z-2.12
X-165.661 Y-132.232 Z-2.18
X-165.635 Y-132.188 Z-2.231
X-165.605 Y-132.136 Z-2.269
X-165.572 Y-132.078 Z-2.292
X-165.536 Y-132.017 Z-2.3
X-165.378 Y-131.742
G3 X-165.494 Y-131.308 I-0.275 J0.159
G1 X-166.7 Y-130.612
X-169.113 Y-132.005
Y-134.79
X-166.7 Y-136.183
X-164.288 Y-134.79
Y-132.005
X-165.494 Y-131.308
G3 X-165.928 Y-131.424 I-0.159 J-0.275
G1 X-166.086 Y-131.699
X-166.122 Y-131.761 Z-2.292
X-166.155 Y-131.819 Z-2.269
X-166.185 Y-131.871 Z-2.231
X-166.21 Y-131.914 Z-2.18
X-166.229 Y-131.947 Z-2.12
X-166.241 Y-131.968 Z-2.053
X-166.245 Y-131.974 Z-1.983
Z5
X-165.695 Y-146.292
Z0.635 F333.3
Z-0.683
X-165.691 Y-146.285 Z-0.753 F1000
X-165.679 Y-146.265 Z-0.82
X-165.661 Y-146.232 Z-0.88
X-165.635 Y-146.188 Z-0.931
X-165.605 Y-146.136 Z-0.969
X-165.572 Y-146.078 Z-0.992
X-165.536 Y-146.017 Z-1
X-165.378 Y-145.742
G3 X-165.494 Y-145.308 I-0.275 J0.159
G1 X-166.7 Y-144.612
X-169.113 Y-146.005
Y-148.79
X-166.7 Y-150.183
X-164.288 Y-148.79
Y-146.005
X-165.494 Y-145.308
G3 X-165.928 Y-145.424 I-0.159 J-0.275
G1 X-166.086 Y-145.699
X-166.122 Y-145.761 Z-0.992
X-166.155 Y-145.819 Z-0.969
X-166.185 Y-145.871 Z-0.931
X-166.21 Y-145.914 Z-0.88
X-166.229 Y-145.947 Z-0.82
X-166.241 Y-145.968 Z-0.753
X-166.245 Y-145.974 Z-0.683
Z5
X-165.695 Y-146.292
Z-0.365 F333.3
