(1001)
(Bearbeiten)
(  Hersteller: ChinaCnc)
(  model: 3040T)
(  description: Generic 3-axis)
(T5  D=3.175 CR=0 - ZMIN=-4.3 - Schaftfraser)
G90 G94
G17
G21
(When using Fusion 360 for Personal Use, the feedrate of)
(rapid moves is reduced to match the feedrate of cutting)
(moves, which can increase machining time. Unrestricted rapid)
(moves are available with a Fusion 360 Subscription.)

(Bohrfrasen7)
T5
S6000 M3
G54
G0 X-29.424 Y-160.645
Z15
G1 Z1.683 F1000
Z0
X-29.265
X-29.234 Y-160.639
X-29.208 Y-160.621
X-29.19 Y-160.595
X-29.184 Y-160.563
G3 X-29.509 Y-160.563 Z-0.061 I-0.163 J0
X-29.184 Y-160.563 Z-0.122 I0.163 J0
X-29.509 Y-160.563 Z-0.183 I-0.163 J0
X-29.184 Y-160.563 Z-0.244 I0.163 J0
X-29.509 Y-160.563 Z-0.306 I-0.163 J0
X-29.184 Y-160.563 Z-0.367 I0.162 J0
X-29.509 Y-160.563 Z-0.428 I-0.162 J0
X-29.184 Y-160.563 Z-0.489 I0.162 J0
X-29.509 Y-160.563 Z-0.55 I-0.162 J0
X-29.184 Y-160.563 Z-0.611 I0.162 J0
X-29.509 Y-160.563 Z-0.672 I-0.162 J0
X-29.184 Y-160.563 Z-0.733 I0.162 J0
X-29.509 Y-160.563 Z-0.794 I-0.162 J0
X-29.184 Y-160.563 Z-0.856 I0.162 J0
X-29.509 Y-160.563 Z-0.917 I-0.162 J0
X-29.184 Y-160.563 Z-0.978 I0.162 J0
X-29.509 Y-160.563 Z-1.039 I-0.162 J0
X-29.184 Y-160.563 Z-1.1 I0.162 J0
X-29.509 Y-160.563 Z-1.161 I-0.162 J0
X-29.184 Y-160.563 Z-1.222 I0.162 J0
X-29.509 Y-160.563 Z-1.283 I-0.162 J0
X-29.184 Y-160.563 Z-1.344 I0.162 J0
X-29.509 Y-160.563 Z-1.406 I-0.162 J0
X-29.184 Y-160.563 Z-1.467 I0.162 J0
X-29.509 Y-160.563 Z-1.528 I-0.162 J0
X-29.184 Y-160.563 Z-1.589 I0.162 J0
X-29.509 Y-160.563 Z-1.65 I-0.162 J0
X-29.184 Y-160.563 Z-1.711 I0.162 J0
X-29.509 Y-160.563 Z-1.772 I-0.162 J0
X-29.184 Y-160.563 Z-1.833 I0.162 J0
X-29.509 Y-160.563 Z-1.894 I-0.162 J0
X-29.184 Y-160.563 Z-1.956 I0.162 J0
X-29.509 Y-160.563 Z-2.017 I-0.162 J0
X-29.184 Y-160.563 Z-2.078 I0.162 J0
X-29.509 Y-160.563 Z-2.139 I-0.162 J0
X-29.184 Y-160.563 Z-2.2 I0.162 J0
X-29.509 Y-160.563 Z-2.261 I-0.162 J0
X-29.184 Y-160.563 Z-2.322 I0.162 J0
X-29.509 Y-160.563 Z-2.383 I-0.162 J0
X-29.184 Y-160.563 Z-2.444 I0.162 J0
X-29.509 Y-160.563 Z-2.506 I-0.162 J0
X-29.184 Y-160.563 Z-2.567 I0.162 J0
X-29.509 Y-160.563 Z-2.628 I-0.162 J0
X-29.184 Y-160.563 Z-2.689 I0.162 J0
X-29.509 Y-160.563 Z-2.75 I-0.162 J0
X-29.184 Y-160.563 Z-2.811 I0.162 J0
X-29.509 Y-160.563 Z-2.872 I-0.162 J0
X-29.184 Y-160.563 Z-2.933 I0.162 J0
X-29.509 Y-160.563 Z-2.994 I-0.162 J0
X-29.184 Y-160.563 Z-3.056 I0.162 J0
X-29.509 Y-160.563 Z-3.117 I-0.162 J0
X-29.184 Y-160.563 Z-3.178 I0.162 J0
X-29.509 Y-160.563 Z-3.239 I-0.162 J0
X-29.184 Y-160.563 Z-3.3 I0.162 J0
X-29.509 Y-160.563 Z-3.361 I-0.162 J0
X-29.184 Y-160.563 Z-3.422 I0.162 J0
X-29.509 Y-160.563 Z-3.483 I-0.162 J0
X-29.184 Y-160.563 Z-3.544 I0.162 J0
X-29.509 Y-160.563 Z-3.606 I-0.162 J0
X-29.184 Y-160.563 Z-3.667 I0.162 J0
X-29.509 Y-160.563 Z-3.728 I-0.162 J0
X-29.184 Y-160.563 Z-3.789 I0.162 J0
X-29.509 Y-160.563 Z-3.85 I-0.162 J0
X-29.184 Y-160.563 Z-3.911 I0.162 J0
X-29.509 Y-160.563 Z-3.972 I-0.162 J0
X-29.184 Y-160.563 Z-4.033 I0.162 J0
X-29.509 Y-160.563 Z-4.094 I-0.162 J0
X-29.184 Y-160.563 Z-4.156 I0.162 J0
X-29.509 Y-160.563 Z-4.217 I-0.162 J0
X-29.184 Y-160.563 Z-4.278 I0.162 J0
X-29.279 Y-160.416 Z-4.3 I-0.162 J0
X-29.414 Y-160.711 I-0.068 J-0.148
X-29.279 Y-160.416 I0.068 J0.148
G1 X-29.31 Y-160.408
X-29.341 Y-160.413
X-29.368 Y-160.43
X-29.387 Y-160.456
X-29.453 Y-160.6
Z5
X-43.394 Y-182.573
Z1.683
Z0
X-43.235
X-43.204 Y-182.567
X-43.178 Y-182.549
X-43.16 Y-182.523
X-43.154 Y-182.492
G3 X-43.479 Y-182.492 Z-0.061 I-0.163 J0
X-43.154 Y-182.492 Z-0.122 I0.163 J0
X-43.479 Y-182.492 Z-0.183 I-0.163 J0
X-43.154 Y-182.492 Z-0.244 I0.163 J0
X-43.479 Y-182.492 Z-0.306 I-0.163 J0
X-43.154 Y-182.492 Z-0.367 I0.163 J0
X-43.479 Y-182.492 Z-0.428 I-0.163 J0
X-43.154 Y-182.492 Z-0.489 I0.163 J0
X-43.479 Y-182.492 Z-0.55 I-0.163 J0
X-43.154 Y-182.492 Z-0.611 I0.163 J0
X-43.479 Y-182.492 Z-0.672 I-0.163 J0
X-43.154 Y-182.492 Z-0.733 I0.163 J0
X-43.479 Y-182.492 Z-0.794 I-0.163 J0
X-43.154 Y-182.492 Z-0.856 I0.163 J0
X-43.479 Y-182.492 Z-0.917 I-0.163 J0
X-43.154 Y-182.492 Z-0.978 I0.163 J0
X-43.479 Y-182.492 Z-1.039 I-0.163 J0
X-43.154 Y-182.492 Z-1.1 I0.163 J0
X-43.479 Y-182.492 Z-1.161 I-0.163 J0
X-43.154 Y-182.492 Z-1.222 I0.162 J0
X-43.479 Y-182.492 Z-1.283 I-0.162 J0
X-43.154 Y-182.492 Z-1.344 I0.162 J0
X-43.479 Y-182.492 Z-1.406 I-0.162 J0
X-43.154 Y-182.492 Z-1.467 I0.162 J0
X-43.479 Y-182.492 Z-1.528 I-0.162 J0
X-43.154 Y-182.492 Z-1.589 I0.162 J0
X-43.479 Y-182.492 Z-1.65 I-0.162 J0
X-43.154 Y-182.492 Z-1.711 I0.162 J0
X-43.479 Y-182.492 Z-1.772 I-0.162 J0
X-43.154 Y-182.492 Z-1.833 I0.162 J0
X-43.479 Y-182.492 Z-1.894 I-0.162 J0
X-43.154 Y-182.492 Z-1.956 I0.162 J0
X-43.479 Y-182.492 Z-2.017 I-0.162 J0
X-43.154 Y-182.492 Z-2.078 I0.162 J0
X-43.479 Y-182.492 Z-2.139 I-0.162 J0
X-43.154 Y-182.492 Z-2.2 I0.162 J0
X-43.479 Y-182.492 Z-2.261 I-0.162 J0
X-43.154 Y-182.492 Z-2.322 I0.162 J0
X-43.479 Y-182.492 Z-2.383 I-0.162 J0
X-43.154 Y-182.492 Z-2.444 I0.162 J0
X-43.479 Y-182.492 Z-2.506 I-0.162 J0
X-43.154 Y-182.492 Z-2.567 I0.162 J0
X-43.479 Y-182.492 Z-2.628 I-0.162 J0
X-43.154 Y-182.492 Z-2.689 I0.162 J0
X-43.479 Y-182.492 Z-2.75 I-0.162 J0
X-43.154 Y-182.492 Z-2.811 I0.162 J0
X-43.479 Y-182.492 Z-2.872 I-0.162 J0
X-43.154 Y-182.492 Z-2.933 I0.162 J0
X-43.479 Y-182.492 Z-2.994 I-0.162 J0
X-43.154 Y-182.492 Z-3.056 I0.162 J0
X-43.479 Y-182.492 Z-3.117 I-0.162 J0
X-43.154 Y-182.492 Z-3.178 I0.162 J0
X-43.479 Y-182.492 Z-3.239 I-0.162 J0
X-43.154 Y-182.492 Z-3.3 I0.162 J0
X-43.479 Y-182.492 Z-3.361 I-0.162 J0
X-43.154 Y-182.492 Z-3.422 I0.162 J0
X-43.479 Y-182.492 Z-3.483 I-0.162 J0
X-43.154 Y-182.492 Z-3.544 I0.162 J0
X-43.479 Y-182.492 Z-3.606 I-0.162 J0
X-43.154 Y-182.492 Z-3.667 I0.162 J0
X-43.479 Y-182.492 Z-3.728 I-0.162 J0
X-43.154 Y-182.492 Z-3.789 I0.162 J0
X-43.479 Y-182.492 Z-3.85 I-0.162 J0
X-43.154 Y-182.492 Z-3.911 I0.162 J0
X-43.479 Y-182.492 Z-3.972 I-0.162 J0
X-43.154 Y-182.492 Z-4.033 I0.162 J0
X-43.479 Y-182.492 Z-4.094 I-0.162 J0
X-43.154 Y-182.492 Z-4.156 I0.162 J0
X-43.479 Y-182.492 Z-4.217 I-0.162 J0
X-43.154 Y-182.492 Z-4.278 I0.162 J0
X-43.249 Y-182.344 Z-4.3 I-0.162 J0
X-43.384 Y-182.639 I-0.068 J-0.148
X-43.249 Y-182.344 I0.068 J0.148
G1 X-43.28 Y-182.337
X-43.311 Y-182.342
X-43.338 Y-182.358
X-43.356 Y-182.384
X-43.423 Y-182.528
Z5
X-57.201 Y-175.081
Z1.683
Z0
X-57.042
X-57.011 Y-175.075
X-56.984 Y-175.057
X-56.967 Y-175.031
X-56.961 Y-175
G3 X-57.286 Y-175 Z-0.061 I-0.163 J0
X-56.961 Y-175 Z-0.122 I0.163 J0
X-57.286 Y-175 Z-0.183 I-0.163 J0
X-56.961 Y-175 Z-0.244 I0.163 J0
X-57.286 Y-175 Z-0.306 I-0.163 J0
X-56.961 Y-175 Z-0.367 I0.163 J0
X-57.286 Y-175 Z-0.428 I-0.163 J0
X-56.961 Y-175 Z-0.489 I0.163 J0
X-57.286 Y-175 Z-0.55 I-0.163 J0
X-56.961 Y-175 Z-0.611 I0.163 J0
X-57.286 Y-175 Z-0.672 I-0.163 J0
X-56.961 Y-175 Z-0.733 I0.163 J0
X-57.286 Y-175 Z-0.794 I-0.163 J0
X-56.961 Y-175 Z-0.856 I0.163 J0
X-57.286 Y-175 Z-0.917 I-0.163 J0
X-56.961 Y-175 Z-0.978 I0.163 J0
X-57.286 Y-175 Z-1.039 I-0.163 J0
X-56.961 Y-175 Z-1.1 I0.163 J0
X-57.286 Y-175 Z-1.161 I-0.163 J0
X-56.961 Y-175 Z-1.222 I0.162 J0
X-57.286 Y-175 Z-1.283 I-0.162 J0
X-56.961 Y-175 Z-1.344 I0.162 J0
X-57.286 Y-175 Z-1.406 I-0.162 J0
X-56.961 Y-175 Z-1.467 I0.162 J0
X-57.286 Y-175 Z-1.528 I-0.162 J0
X-56.961 Y-175 Z-1.589 I0.162 J0
X-57.286 Y-175 Z-1.65 I-0.162 J0
X-56.961 Y-175 Z-1.711 I0.162 J0
X-57.286 Y-175 Z-1.772 I-0.162 J0
X-56.961 Y-175 Z-1.833 I0.162 J0
X-57.286 Y-175 Z-1.894 I-0.162 J0
X-56.961 Y-175 Z-1.956 I0.162 J0
X-57.286 Y-175 Z-2.017 I-0.162 J0
X-56.961 Y-175 Z-2.078 I0.162 J0
X-57.286 Y-175 Z-2.139 I-0.162 J0
X-56.961 Y-175 Z-2.2 I0.162 J0
X-57.286 Y-175 Z-2.261 I-0.162 J0
X-56.961 Y-175 Z-2.322 I0.162 J0
X-57.286 Y-175 Z-2.383 I-0.162 J0
X-56.961 Y-175 Z-2.444 I0.162 J0
X-57.286 Y-175 Z-2.506 I-0.162 J0
X-56.961 Y-175 Z-2.567 I0.162 J0
X-57.286 Y-175 Z-2.628 I-0.162 J0
X-56.961 Y-175 Z-2.689 I0.162 J0
X-57.286 Y-175 Z-2.75 I-0.162 J0
X-56.961 Y-175 Z-2.811 I0.162 J0
X-57.286 Y-175 Z-2.872 I-0.162 J0
X-56.961 Y-175 Z-2.933 I0.162 J0
X-57.286 Y-175 Z-2.994 I-0.162 J0
X-56.961 Y-175 Z-3.056 I0.162 J0
X-57.286 Y-175 Z-3.117 I-0.162 J0
X-56.961 Y-175 Z-3.178 I0.162 J0
X-57.286 Y-175 Z-3.239 I-0.162 J0
X-56.961 Y-175 Z-3.3 I0.162 J0
X-57.286 Y-175 Z-3.361 I-0.162 J0
X-56.961 Y-175 Z-3.422 I0.162 J0
X-57.286 Y-175 Z-3.483 I-0.162 J0
X-56.961 Y-175 Z-3.544 I0.162 J0
X-57.286 Y-175 Z-3.606 I-0.162 J0
X-56.961 Y-175 Z-3.667 I0.162 J0
X-57.286 Y-175 Z-3.728 I-0.162 J0
X-56.961 Y-175 Z-3.789 I0.162 J0
X-57.286 Y-175 Z-3.85 I-0.162 J0
X-56.961 Y-175 Z-3.911 I0.162 J0
X-57.286 Y-175 Z-3.972 I-0.162 J0
X-56.961 Y-175 Z-4.033 I0.162 J0
X-57.286 Y-175 Z-4.094 I-0.162 J0
X-56.961 Y-175 Z-4.156 I0.162 J0
X-57.286 Y-175 Z-4.217 I-0.162 J0
X-56.961 Y-175 Z-4.278 I0.162 J0
X-57.055 Y-174.852 Z-4.3 I-0.162 J0
X-57.191 Y-175.148 I-0.068 J-0.148
X-57.055 Y-174.852 I0.068 J0.148
G1 X-57.086 Y-174.845
X-57.118 Y-174.85
X-57.145 Y-174.867
X-57.163 Y-174.892
X-57.229 Y-175.037
Z5
X-83.201 Y-175.081
Z1.683
Z0
X-83.042
X-83.011 Y-175.075
X-82.984 Y-175.057
X-82.967 Y-175.031
X-82.961 Y-175
G3 X-83.286 Y-175 Z-0.061 I-0.162 J0
X-82.961 Y-175 Z-0.122 I0.162 J0
X-83.286 Y-175 Z-0.183 I-0.162 J0
X-82.961 Y-175 Z-0.244 I0.162 J0
X-83.286 Y-175 Z-0.306 I-0.162 J0
X-82.961 Y-175 Z-0.367 I0.162 J0
X-83.286 Y-175 Z-0.428 I-0.162 J0
X-82.961 Y-175 Z-0.489 I0.162 J0
X-83.286 Y-175 Z-0.55 I-0.162 J0
X-82.961 Y-175 Z-0.611 I0.162 J0
X-83.286 Y-175 Z-0.672 I-0.162 J0
X-82.961 Y-175 Z-0.733 I0.162 J0
X-83.286 Y-175 Z-0.794 I-0.162 J0
X-82.961 Y-175 Z-0.856 I0.162 J0
X-83.286 Y-175 Z-0.917 I-0.162 J0
X-82.961 Y-175 Z-0.978 I0.162 J0
X-83.286 Y-175 Z-1.039 I-0.162 J0
X-82.961 Y-175 Z-1.1 I0.162 J0
X-83.286 Y-175 Z-1.161 I-0.162 J0
X-82.961 Y-175 Z-1.222 I0.162 J0
X-83.286 Y-175 Z-1.283 I-0.162 J0
X-82.961 Y-175 Z-1.344 I0.162 J0
X-83.286 Y-175 Z-1.406 I-0.162 J0
X-82.961 Y-175 Z-1.467 I0.162 J0
X-83.286 Y-175 Z-1.528 I-0.162 J0
X-82.961 Y-175 Z-1.589 I0.162 J0
X-83.286 Y-175 Z-1.65 I-0.162 J0
X-82.961 Y-175 Z-1.711 I0.162 J0
X-83.286 Y-175 Z-1.772 I-0.162 J0
X-82.961 Y-175 Z-1.833 I0.162 J0
X-83.286 Y-175 Z-1.894 I-0.162 J0
X-82.961 Y-175 Z-1.956 I0.162 J0
X-83.286 Y-175 Z-2.017 I-0.162 J0
X-82.961 Y-175 Z-2.078 I0.162 J0
X-83.286 Y-175 Z-2.139 I-0.162 J0
X-82.961 Y-175 Z-2.2 I0.162 J0
X-83.286 Y-175 Z-2.261 I-0.162 J0
X-82.961 Y-175 Z-2.322 I0.162 J0
X-83.286 Y-175 Z-2.383 I-0.162 J0
X-82.961 Y-175 Z-2.444 I0.162 J0
X-83.286 Y-175 Z-2.506 I-0.162 J0
X-82.961 Y-175 Z-2.567 I0.162 J0
X-83.286 Y-175 Z-2.628 I-0.162 J0
X-82.961 Y-175 Z-2.689 I0.162 J0
X-83.286 Y-175 Z-2.75 I-0.162 J0
X-82.961 Y-175 Z-2.811 I0.162 J0
X-83.286 Y-175 Z-2.872 I-0.162 J0
X-82.961 Y-175 Z-2.933 I0.162 J0
X-83.286 Y-175 Z-2.994 I-0.162 J0
X-82.961 Y-175 Z-3.056 I0.162 J0
X-83.286 Y-175 Z-3.117 I-0.162 J0
X-82.961 Y-175 Z-3.178 I0.162 J0
X-83.286 Y-175 Z-3.239 I-0.162 J0
X-82.961 Y-175 Z-3.3 I0.162 J0
X-83.286 Y-175 Z-3.361 I-0.162 J0
X-82.961 Y-175 Z-3.422 I0.162 J0
X-83.286 Y-175 Z-3.483 I-0.162 J0
X-82.961 Y-175 Z-3.544 I0.162 J0
X-83.286 Y-175 Z-3.606 I-0.162 J0
X-82.961 Y-175 Z-3.667 I0.162 J0
X-83.286 Y-175 Z-3.728 I-0.162 J0
X-82.961 Y-175 Z-3.789 I0.162 J0
X-83.286 Y-175 Z-3.85 I-0.162 J0
X-82.961 Y-175 Z-3.911 I0.162 J0
X-83.286 Y-175 Z-3.972 I-0.162 J0
X-82.961 Y-175 Z-4.033 I0.162 J0
X-83.286 Y-175 Z-4.094 I-0.162 J0
X-82.961 Y-175 Z-4.156 I0.162 J0
X-83.286 Y-175 Z-4.217 I-0.162 J0
X-82.961 Y-175 Z-4.278 I0.162 J0
X-83.055 Y-174.852 Z-4.3 I-0.162 J0
X-83.191 Y-175.148 I-0.068 J-0.148
X-83.055 Y-174.852 I0.068 J0.148
G1 X-83.086 Y-174.845
X-83.118 Y-174.85
X-83.145 Y-174.867
X-83.163 Y-174.892
X-83.229 Y-175.037
Z5
X-97.007 Y-182.573
Z1.683
Z0
X-96.848
X-96.817 Y-182.567
X-96.791 Y-182.549
X-96.773 Y-182.523
X-96.767 Y-182.492
G3 X-97.092 Y-182.492 Z-0.061 I-0.163 J0
X-96.767 Y-182.492 Z-0.122 I0.163 J0
X-97.092 Y-182.492 Z-0.183 I-0.163 J0
X-96.767 Y-182.492 Z-0.244 I0.163 J0
X-97.092 Y-182.492 Z-0.306 I-0.163 J0
X-96.767 Y-182.492 Z-0.367 I0.163 J0
X-97.092 Y-182.492 Z-0.428 I-0.163 J0
X-96.767 Y-182.492 Z-0.489 I0.163 J0
X-97.092 Y-182.492 Z-0.55 I-0.163 J0
X-96.767 Y-182.492 Z-0.611 I0.163 J0
X-97.092 Y-182.492 Z-0.672 I-0.163 J0
X-96.767 Y-182.492 Z-0.733 I0.163 J0
X-97.092 Y-182.492 Z-0.794 I-0.163 J0
X-96.767 Y-182.492 Z-0.856 I0.163 J0
X-97.092 Y-182.492 Z-0.917 I-0.163 J0
X-96.767 Y-182.492 Z-0.978 I0.163 J0
X-97.092 Y-182.492 Z-1.039 I-0.163 J0
X-96.767 Y-182.492 Z-1.1 I0.163 J0
X-97.092 Y-182.492 Z-1.161 I-0.163 J0
X-96.767 Y-182.492 Z-1.222 I0.163 J0
X-97.092 Y-182.492 Z-1.283 I-0.163 J0
X-96.767 Y-182.492 Z-1.344 I0.163 J0
X-97.092 Y-182.492 Z-1.406 I-0.163 J0
X-96.767 Y-182.492 Z-1.467 I0.163 J0
X-97.092 Y-182.492 Z-1.528 I-0.163 J0
X-96.767 Y-182.492 Z-1.589 I0.163 J0
X-97.092 Y-182.492 Z-1.65 I-0.163 J0
X-96.767 Y-182.492 Z-1.711 I0.163 J0
X-97.092 Y-182.492 Z-1.772 I-0.163 J0
X-96.767 Y-182.492 Z-1.833 I0.163 J0
X-97.092 Y-182.492 Z-1.894 I-0.163 J0
X-96.767 Y-182.492 Z-1.956 I0.163 J0
X-97.092 Y-182.492 Z-2.017 I-0.163 J0
X-96.767 Y-182.492 Z-2.078 I0.163 J0
X-97.092 Y-182.492 Z-2.139 I-0.163 J0
X-96.767 Y-182.492 Z-2.2 I0.163 J0
X-97.092 Y-182.492 Z-2.261 I-0.163 J0
X-96.767 Y-182.492 Z-2.322 I0.163 J0
X-97.092 Y-182.492 Z-2.383 I-0.163 J0
X-96.767 Y-182.492 Z-2.444 I0.163 J0
X-97.092 Y-182.492 Z-2.506 I-0.163 J0
X-96.767 Y-182.492 Z-2.567 I0.162 J0
X-97.092 Y-182.492 Z-2.628 I-0.162 J0
X-96.767 Y-182.492 Z-2.689 I0.162 J0
X-97.092 Y-182.492 Z-2.75 I-0.162 J0
X-96.767 Y-182.492 Z-2.811 I0.162 J0
X-97.092 Y-182.492 Z-2.872 I-0.162 J0
X-96.767 Y-182.492 Z-2.933 I0.162 J0
X-97.092 Y-182.492 Z-2.994 I-0.162 J0
X-96.767 Y-182.492 Z-3.056 I0.162 J0
X-97.092 Y-182.492 Z-3.117 I-0.162 J0
X-96.767 Y-182.492 Z-3.178 I0.162 J0
X-97.092 Y-182.492 Z-3.239 I-0.162 J0
X-96.767 Y-182.492 Z-3.3 I0.162 J0
X-97.092 Y-182.492 Z-3.361 I-0.162 J0
X-96.767 Y-182.492 Z-3.422 I0.162 J0
X-97.092 Y-182.492 Z-3.483 I-0.162 J0
X-96.767 Y-182.492 Z-3.544 I0.162 J0
X-97.092 Y-182.492 Z-3.606 I-0.162 J0
X-96.767 Y-182.492 Z-3.667 I0.162 J0
X-97.092 Y-182.492 Z-3.728 I-0.162 J0
X-96.767 Y-182.492 Z-3.789 I0.162 J0
X-97.092 Y-182.492 Z-3.85 I-0.162 J0
X-96.767 Y-182.492 Z-3.911 I0.162 J0
X-97.092 Y-182.492 Z-3.972 I-0.162 J0
X-96.767 Y-182.492 Z-4.033 I0.162 J0
X-97.092 Y-182.492 Z-4.094 I-0.162 J0
X-96.767 Y-182.492 Z-4.156 I0.162 J0
X-97.092 Y-182.492 Z-4.217 I-0.162 J0
X-96.767 Y-182.492 Z-4.278 I0.162 J0
X-96.862 Y-182.344 Z-4.3 I-0.162 J0
X-96.997 Y-182.639 I-0.068 J-0.148
X-96.862 Y-182.344 I0.068 J0.148
G1 X-96.893 Y-182.337
X-96.924 Y-182.342
X-96.951 Y-182.358
X-96.97 Y-182.384
X-97.036 Y-182.528
Z5
X-110.977 Y-160.645
Z1.683
Z0
X-110.818
X-110.787 Y-160.639
X-110.761 Y-160.621
X-110.743 Y-160.595
X-110.737 Y-160.563
G3 X-111.062 Y-160.563 Z-0.061 I-0.162 J0
X-110.737 Y-160.563 Z-0.122 I0.162 J0
X-111.062 Y-160.563 Z-0.183 I-0.162 J0
X-110.737 Y-160.563 Z-0.244 I0.162 J0
X-111.062 Y-160.563 Z-0.306 I-0.162 J0
X-110.737 Y-160.563 Z-0.367 I0.162 J0
X-111.062 Y-160.563 Z-0.428 I-0.162 J0
X-110.737 Y-160.563 Z-0.489 I0.162 J0
X-111.062 Y-160.563 Z-0.55 I-0.162 J0
X-110.737 Y-160.563 Z-0.611 I0.162 J0
X-111.062 Y-160.563 Z-0.672 I-0.162 J0
X-110.737 Y-160.563 Z-0.733 I0.162 J0
X-111.062 Y-160.563 Z-0.794 I-0.162 J0
X-110.737 Y-160.563 Z-0.856 I0.162 J0
X-111.062 Y-160.563 Z-0.917 I-0.162 J0
X-110.737 Y-160.563 Z-0.978 I0.162 J0
X-111.062 Y-160.563 Z-1.039 I-0.162 J0
X-110.737 Y-160.563 Z-1.1 I0.162 J0
X-111.062 Y-160.563 Z-1.161 I-0.162 J0
X-110.737 Y-160.563 Z-1.222 I0.162 J0
X-111.062 Y-160.563 Z-1.283 I-0.162 J0
X-110.737 Y-160.563 Z-1.344 I0.162 J0
X-111.062 Y-160.563 Z-1.406 I-0.162 J0
X-110.737 Y-160.563 Z-1.467 I0.162 J0
X-111.062 Y-160.563 Z-1.528 I-0.162 J0
X-110.737 Y-160.563 Z-1.589 I0.162 J0
X-111.062 Y-160.563 Z-1.65 I-0.162 J0
X-110.737 Y-160.563 Z-1.711 I0.162 J0
X-111.062 Y-160.563 Z-1.772 I-0.162 J0
X-110.737 Y-160.563 Z-1.833 I0.162 J0
X-111.062 Y-160.563 Z-1.894 I-0.162 J0
X-110.737 Y-160.563 Z-1.956 I0.162 J0
X-111.062 Y-160.563 Z-2.017 I-0.162 J0
X-110.737 Y-160.563 Z-2.078 I0.162 J0
X-111.062 Y-160.563 Z-2.139 I-0.162 J0
X-110.737 Y-160.563 Z-2.2 I0.162 J0
X-111.062 Y-160.563 Z-2.261 I-0.162 J0
X-110.737 Y-160.563 Z-2.322 I0.162 J0
X-111.062 Y-160.563 Z-2.383 I-0.162 J0
X-110.737 Y-160.563 Z-2.444 I0.162 J0
X-111.062 Y-160.563 Z-2.506 I-0.162 J0
X-110.737 Y-160.563 Z-2.567 I0.162 J0
X-111.062 Y-160.563 Z-2.628 I-0.162 J0
X-110.737 Y-160.563 Z-2.689 I0.162 J0
X-111.062 Y-160.563 Z-2.75 I-0.162 J0
X-110.737 Y-160.563 Z-2.811 I0.162 J0
X-111.062 Y-160.563 Z-2.872 I-0.162 J0
X-110.737 Y-160.563 Z-2.933 I0.162 J0
X-111.062 Y-160.563 Z-2.994 I-0.162 J0
X-110.737 Y-160.563 Z-3.056 I0.162 J0
X-111.062 Y-160.563 Z-3.117 I-0.162 J0
X-110.737 Y-160.563 Z-3.178 I0.162 J0
X-111.062 Y-160.563 Z-3.239 I-0.162 J0
X-110.737 Y-160.563 Z-3.3 I0.162 J0
X-111.062 Y-160.563 Z-3.361 I-0.162 J0
X-110.737 Y-160.563 Z-3.422 I0.162 J0
X-111.062 Y-160.563 Z-3.483 I-0.162 J0
X-110.737 Y-160.563 Z-3.544 I0.162 J0
X-111.062 Y-160.563 Z-3.606 I-0.162 J0
X-110.737 Y-160.563 Z-3.667 I0.162 J0
X-111.062 Y-160.563 Z-3.728 I-0.162 J0
X-110.737 Y-160.563 Z-3.789 I0.162 J0
X-111.062 Y-160.563 Z-3.85 I-0.162 J0
X-110.737 Y-160.563 Z-3.911 I0.162 J0
X-111.062 Y-160.563 Z-3.972 I-0.162 J0
X-110.737 Y-160.563 Z-4.033 I0.162 J0
X-111.062 Y-160.563 Z-4.094 I-0.162 J0
X-110.737 Y-160.563 Z-4.156 I0.162 J0
X-111.062 Y-160.563 Z-4.217 I-0.162 J0
X-110.737 Y-160.563 Z-4.278 I0.162 J0
X-110.832 Y-160.416 Z-4.3 I-0.162 J0
X-110.967 Y-160.711 I-0.068 J-0.148
X-110.832 Y-160.416 I0.068 J0.148
G1 X-110.863 Y-160.408
X-110.894 Y-160.413
X-110.921 Y-160.43
X-110.94 Y-160.456
X-111.006 Y-160.6
Z5
X-92.701 Y-126.081
Z1.683
Z0
X-92.542
X-92.511 Y-126.075
X-92.484 Y-126.057
X-92.467 Y-126.031
X-92.461 Y-126
G3 X-92.786 Y-126 Z-0.061 I-0.162 J0
X-92.461 Y-126 Z-0.122 I0.162 J0
X-92.786 Y-126 Z-0.183 I-0.162 J0
X-92.461 Y-126 Z-0.244 I0.162 J0
X-92.786 Y-126 Z-0.306 I-0.162 J0
X-92.461 Y-126 Z-0.367 I0.162 J0
X-92.786 Y-126 Z-0.428 I-0.162 J0
X-92.461 Y-126 Z-0.489 I0.162 J0
X-92.786 Y-126 Z-0.55 I-0.162 J0
X-92.461 Y-126 Z-0.611 I0.162 J0
X-92.786 Y-126 Z-0.672 I-0.162 J0
X-92.461 Y-126 Z-0.733 I0.162 J0
X-92.786 Y-126 Z-0.794 I-0.162 J0
X-92.461 Y-126 Z-0.856 I0.162 J0
X-92.786 Y-126 Z-0.917 I-0.162 J0
X-92.461 Y-126 Z-0.978 I0.162 J0
X-92.786 Y-126 Z-1.039 I-0.162 J0
X-92.461 Y-126 Z-1.1 I0.162 J0
X-92.786 Y-126 Z-1.161 I-0.162 J0
X-92.461 Y-126 Z-1.222 I0.162 J0
X-92.786 Y-126 Z-1.283 I-0.162 J0
X-92.461 Y-126 Z-1.344 I0.162 J0
X-92.786 Y-126 Z-1.406 I-0.162 J0
X-92.461 Y-126 Z-1.467 I0.162 J0
X-92.786 Y-126 Z-1.528 I-0.162 J0
X-92.461 Y-126 Z-1.589 I0.162 J0
X-92.786 Y-126 Z-1.65 I-0.162 J0
X-92.461 Y-126 Z-1.711 I0.162 J0
X-92.786 Y-126 Z-1.772 I-0.162 J0
X-92.461 Y-126 Z-1.833 I0.162 J0
X-92.786 Y-126 Z-1.894 I-0.162 J0
X-92.461 Y-126 Z-1.956 I0.162 J0
X-92.786 Y-126 Z-2.017 I-0.162 J0
X-92.461 Y-126 Z-2.078 I0.162 J0
X-92.786 Y-126 Z-2.139 I-0.162 J0
X-92.461 Y-126 Z-2.2 I0.162 J0
X-92.786 Y-126 Z-2.261 I-0.162 J0
X-92.461 Y-126 Z-2.322 I0.162 J0
X-92.786 Y-126 Z-2.383 I-0.162 J0
X-92.461 Y-126 Z-2.444 I0.162 J0
X-92.786 Y-126 Z-2.506 I-0.162 J0
X-92.461 Y-126 Z-2.567 I0.162 J0
X-92.786 Y-126 Z-2.628 I-0.162 J0
X-92.461 Y-126 Z-2.689 I0.162 J0
X-92.786 Y-126 Z-2.75 I-0.162 J0
X-92.461 Y-126 Z-2.811 I0.162 J0
X-92.786 Y-126 Z-2.872 I-0.162 J0
X-92.461 Y-126 Z-2.933 I0.162 J0
X-92.786 Y-126 Z-2.994 I-0.162 J0
X-92.461 Y-126 Z-3.056 I0.162 J0
X-92.786 Y-126 Z-3.117 I-0.162 J0
X-92.461 Y-126 Z-3.178 I0.162 J0
X-92.786 Y-126 Z-3.239 I-0.162 J0
X-92.461 Y-126 Z-3.3 I0.162 J0
X-92.786 Y-126 Z-3.361 I-0.162 J0
X-92.461 Y-126 Z-3.422 I0.162 J0
X-92.786 Y-126 Z-3.483 I-0.162 J0
X-92.461 Y-126 Z-3.544 I0.162 J0
X-92.786 Y-126 Z-3.606 I-0.162 J0
X-92.461 Y-126 Z-3.667 I0.162 J0
X-92.786 Y-126 Z-3.728 I-0.162 J0
X-92.461 Y-126 Z-3.789 I0.162 J0
X-92.786 Y-126 Z-3.85 I-0.162 J0
X-92.461 Y-126 Z-3.911 I0.162 J0
X-92.786 Y-126 Z-3.972 I-0.162 J0
X-92.461 Y-126 Z-4.033 I0.162 J0
X-92.786 Y-126 Z-4.094 I-0.162 J0
X-92.461 Y-126 Z-4.156 I0.162 J0
X-92.786 Y-126 Z-4.217 I-0.162 J0
X-92.461 Y-126 Z-4.278 I0.162 J0
X-92.555 Y-125.852 Z-4.3 I-0.162 J0
X-92.691 Y-126.148 I-0.068 J-0.148
X-92.555 Y-125.852 I0.068 J0.148
G1 X-92.586 Y-125.845
X-92.618 Y-125.85
X-92.645 Y-125.867
X-92.663 Y-125.892
X-92.729 Y-126.037
Z5
X-85.451 Y-115.331
Z1.683
Z0
X-85.292
X-85.261 Y-115.325
X-85.234 Y-115.307
X-85.217 Y-115.281
X-85.211 Y-115.25
G3 X-85.536 Y-115.25 Z-0.061 I-0.162 J0
X-85.211 Y-115.25 Z-0.122 I0.162 J0
X-85.536 Y-115.25 Z-0.183 I-0.162 J0
X-85.211 Y-115.25 Z-0.244 I0.162 J0
X-85.536 Y-115.25 Z-0.306 I-0.162 J0
X-85.211 Y-115.25 Z-0.367 I0.162 J0
X-85.536 Y-115.25 Z-0.428 I-0.162 J0
X-85.211 Y-115.25 Z-0.489 I0.162 J0
X-85.536 Y-115.25 Z-0.55 I-0.162 J0
X-85.211 Y-115.25 Z-0.611 I0.162 J0
X-85.536 Y-115.25 Z-0.672 I-0.162 J0
X-85.211 Y-115.25 Z-0.733 I0.162 J0
X-85.536 Y-115.25 Z-0.794 I-0.162 J0
X-85.211 Y-115.25 Z-0.856 I0.162 J0
X-85.536 Y-115.25 Z-0.917 I-0.162 J0
X-85.211 Y-115.25 Z-0.978 I0.162 J0
X-85.536 Y-115.25 Z-1.039 I-0.162 J0
X-85.211 Y-115.25 Z-1.1 I0.162 J0
X-85.536 Y-115.25 Z-1.161 I-0.162 J0
X-85.211 Y-115.25 Z-1.222 I0.162 J0
X-85.536 Y-115.25 Z-1.283 I-0.162 J0
X-85.211 Y-115.25 Z-1.344 I0.162 J0
X-85.536 Y-115.25 Z-1.406 I-0.162 J0
X-85.211 Y-115.25 Z-1.467 I0.162 J0
X-85.536 Y-115.25 Z-1.528 I-0.162 J0
X-85.211 Y-115.25 Z-1.589 I0.162 J0
X-85.536 Y-115.25 Z-1.65 I-0.162 J0
X-85.211 Y-115.25 Z-1.711 I0.162 J0
X-85.536 Y-115.25 Z-1.772 I-0.162 J0
X-85.211 Y-115.25 Z-1.833 I0.162 J0
X-85.536 Y-115.25 Z-1.894 I-0.162 J0
X-85.211 Y-115.25 Z-1.956 I0.162 J0
X-85.536 Y-115.25 Z-2.017 I-0.162 J0
X-85.211 Y-115.25 Z-2.078 I0.162 J0
X-85.536 Y-115.25 Z-2.139 I-0.162 J0
X-85.211 Y-115.25 Z-2.2 I0.162 J0
X-85.536 Y-115.25 Z-2.261 I-0.162 J0
X-85.211 Y-115.25 Z-2.322 I0.162 J0
X-85.536 Y-115.25 Z-2.383 I-0.162 J0
X-85.211 Y-115.25 Z-2.444 I0.162 J0
X-85.536 Y-115.25 Z-2.506 I-0.162 J0
X-85.211 Y-115.25 Z-2.567 I0.162 J0
X-85.536 Y-115.25 Z-2.628 I-0.162 J0
X-85.211 Y-115.25 Z-2.689 I0.162 J0
X-85.536 Y-115.25 Z-2.75 I-0.162 J0
X-85.211 Y-115.25 Z-2.811 I0.162 J0
X-85.536 Y-115.25 Z-2.872 I-0.162 J0
X-85.211 Y-115.25 Z-2.933 I0.162 J0
X-85.536 Y-115.25 Z-2.994 I-0.162 J0
X-85.211 Y-115.25 Z-3.056 I0.162 J0
X-85.536 Y-115.25 Z-3.117 I-0.162 J0
X-85.211 Y-115.25 Z-3.178 I0.162 J0
X-85.536 Y-115.25 Z-3.239 I-0.162 J0
X-85.211 Y-115.25 Z-3.3 I0.162 J0
X-85.536 Y-115.25 Z-3.361 I-0.162 J0
X-85.211 Y-115.25 Z-3.422 I0.162 J0
X-85.536 Y-115.25 Z-3.483 I-0.162 J0
X-85.211 Y-115.25 Z-3.544 I0.162 J0
X-85.536 Y-115.25 Z-3.606 I-0.162 J0
X-85.211 Y-115.25 Z-3.667 I0.162 J0
X-85.536 Y-115.25 Z-3.728 I-0.162 J0
X-85.211 Y-115.25 Z-3.789 I0.162 J0
X-85.536 Y-115.25 Z-3.85 I-0.162 J0
X-85.211 Y-115.25 Z-3.911 I0.162 J0
X-85.536 Y-115.25 Z-3.972 I-0.162 J0
X-85.211 Y-115.25 Z-4.033 I0.162 J0
X-85.536 Y-115.25 Z-4.094 I-0.162 J0
X-85.211 Y-115.25 Z-4.156 I0.162 J0
X-85.536 Y-115.25 Z-4.217 I-0.162 J0
X-85.211 Y-115.25 Z-4.278 I0.162 J0
X-85.305 Y-115.102 Z-4.3 I-0.162 J0
X-85.441 Y-115.398 I-0.068 J-0.148
X-85.305 Y-115.102 I0.068 J0.148
G1 X-85.336 Y-115.095
X-85.368 Y-115.1
X-85.395 Y-115.117
X-85.413 Y-115.142
X-85.479 Y-115.287
Z5
X-54.951 Y-115.331
Z1.683
Z0
X-54.792
X-54.761 Y-115.325
X-54.734 Y-115.307
X-54.717 Y-115.281
X-54.711 Y-115.25
G3 X-55.036 Y-115.25 Z-0.061 I-0.163 J0
X-54.711 Y-115.25 Z-0.122 I0.163 J0
X-55.036 Y-115.25 Z-0.183 I-0.163 J0
X-54.711 Y-115.25 Z-0.244 I0.163 J0
X-55.036 Y-115.25 Z-0.306 I-0.163 J0
X-54.711 Y-115.25 Z-0.367 I0.163 J0
X-55.036 Y-115.25 Z-0.428 I-0.163 J0
X-54.711 Y-115.25 Z-0.489 I0.163 J0
X-55.036 Y-115.25 Z-0.55 I-0.163 J0
X-54.711 Y-115.25 Z-0.611 I0.163 J0
X-55.036 Y-115.25 Z-0.672 I-0.163 J0
X-54.711 Y-115.25 Z-0.733 I0.163 J0
X-55.036 Y-115.25 Z-0.794 I-0.163 J0
X-54.711 Y-115.25 Z-0.856 I0.163 J0
X-55.036 Y-115.25 Z-0.917 I-0.163 J0
X-54.711 Y-115.25 Z-0.978 I0.163 J0
X-55.036 Y-115.25 Z-1.039 I-0.163 J0
X-54.711 Y-115.25 Z-1.1 I0.163 J0
X-55.036 Y-115.25 Z-1.161 I-0.163 J0
X-54.711 Y-115.25 Z-1.222 I0.163 J0
X-55.036 Y-115.25 Z-1.283 I-0.163 J0
X-54.711 Y-115.25 Z-1.344 I0.163 J0
X-55.036 Y-115.25 Z-1.406 I-0.163 J0
X-54.711 Y-115.25 Z-1.467 I0.163 J0
X-55.036 Y-115.25 Z-1.528 I-0.163 J0
X-54.711 Y-115.25 Z-1.589 I0.163 J0
X-55.036 Y-115.25 Z-1.65 I-0.163 J0
X-54.711 Y-115.25 Z-1.711 I0.163 J0
X-55.036 Y-115.25 Z-1.772 I-0.163 J0
X-54.711 Y-115.25 Z-1.833 I0.163 J0
X-55.036 Y-115.25 Z-1.894 I-0.163 J0
X-54.711 Y-115.25 Z-1.956 I0.163 J0
X-55.036 Y-115.25 Z-2.017 I-0.163 J0
X-54.711 Y-115.25 Z-2.078 I0.163 J0
X-55.036 Y-115.25 Z-2.139 I-0.163 J0
X-54.711 Y-115.25 Z-2.2 I0.163 J0
X-55.036 Y-115.25 Z-2.261 I-0.163 J0
X-54.711 Y-115.25 Z-2.322 I0.163 J0
X-55.036 Y-115.25 Z-2.383 I-0.163 J0
X-54.711 Y-115.25 Z-2.444 I0.163 J0
X-55.036 Y-115.25 Z-2.506 I-0.163 J0
X-54.711 Y-115.25 Z-2.567 I0.163 J0
X-55.036 Y-115.25 Z-2.628 I-0.163 J0
X-54.711 Y-115.25 Z-2.689 I0.163 J0
X-55.036 Y-115.25 Z-2.75 I-0.163 J0
X-54.711 Y-115.25 Z-2.811 I0.163 J0
X-55.036 Y-115.25 Z-2.872 I-0.163 J0
X-54.711 Y-115.25 Z-2.933 I0.163 J0
X-55.036 Y-115.25 Z-2.994 I-0.163 J0
X-54.711 Y-115.25 Z-3.056 I0.163 J0
X-55.036 Y-115.25 Z-3.117 I-0.163 J0
X-54.711 Y-115.25 Z-3.178 I0.163 J0
X-55.036 Y-115.25 Z-3.239 I-0.163 J0
X-54.711 Y-115.25 Z-3.3 I0.163 J0
X-55.036 Y-115.25 Z-3.361 I-0.163 J0
X-54.711 Y-115.25 Z-3.422 I0.163 J0
X-55.036 Y-115.25 Z-3.483 I-0.163 J0
X-54.711 Y-115.25 Z-3.544 I0.163 J0
X-55.036 Y-115.25 Z-3.606 I-0.163 J0
X-54.711 Y-115.25 Z-3.667 I0.163 J0
X-55.036 Y-115.25 Z-3.728 I-0.163 J0
X-54.711 Y-115.25 Z-3.789 I0.163 J0
X-55.036 Y-115.25 Z-3.85 I-0.163 J0
X-54.711 Y-115.25 Z-3.911 I0.163 J0
X-55.036 Y-115.25 Z-3.972 I-0.163 J0
X-54.711 Y-115.25 Z-4.033 I0.163 J0
X-55.036 Y-115.25 Z-4.094 I-0.163 J0
X-54.711 Y-115.25 Z-4.156 I0.163 J0
X-55.036 Y-115.25 Z-4.217 I-0.163 J0
X-54.711 Y-115.25 Z-4.278 I0.163 J0
X-54.805 Y-115.102 Z-4.3 I-0.163 J0
X-54.941 Y-115.398 I-0.068 J-0.148
X-54.805 Y-115.102 I0.068 J0.148
G1 X-54.836 Y-115.095
X-54.868 Y-115.1
X-54.895 Y-115.117
X-54.913 Y-115.142
X-54.979 Y-115.287
Z5
X-47.701 Y-126.081
Z1.683
Z0
X-47.542
X-47.511 Y-126.075
X-47.484 Y-126.057
X-47.467 Y-126.031
X-47.461 Y-126
G3 X-47.786 Y-126 Z-0.061 I-0.163 J0
X-47.461 Y-126 Z-0.122 I0.163 J0
X-47.786 Y-126 Z-0.183 I-0.163 J0
X-47.461 Y-126 Z-0.244 I0.163 J0
X-47.786 Y-126 Z-0.306 I-0.163 J0
X-47.461 Y-126 Z-0.367 I0.163 J0
X-47.786 Y-126 Z-0.428 I-0.163 J0
X-47.461 Y-126 Z-0.489 I0.163 J0
X-47.786 Y-126 Z-0.55 I-0.163 J0
X-47.461 Y-126 Z-0.611 I0.163 J0
X-47.786 Y-126 Z-0.672 I-0.163 J0
X-47.461 Y-126 Z-0.733 I0.163 J0
X-47.786 Y-126 Z-0.794 I-0.163 J0
X-47.461 Y-126 Z-0.856 I0.163 J0
X-47.786 Y-126 Z-0.917 I-0.163 J0
X-47.461 Y-126 Z-0.978 I0.163 J0
X-47.786 Y-126 Z-1.039 I-0.163 J0
X-47.461 Y-126 Z-1.1 I0.163 J0
X-47.786 Y-126 Z-1.161 I-0.163 J0
X-47.461 Y-126 Z-1.222 I0.163 J0
X-47.786 Y-126 Z-1.283 I-0.163 J0
X-47.461 Y-126 Z-1.344 I0.163 J0
X-47.786 Y-126 Z-1.406 I-0.163 J0
X-47.461 Y-126 Z-1.467 I0.163 J0
X-47.786 Y-126 Z-1.528 I-0.163 J0
X-47.461 Y-126 Z-1.589 I0.163 J0
X-47.786 Y-126 Z-1.65 I-0.163 J0
X-47.461 Y-126 Z-1.711 I0.163 J0
X-47.786 Y-126 Z-1.772 I-0.163 J0
X-47.461 Y-126 Z-1.833 I0.163 J0
X-47.786 Y-126 Z-1.894 I-0.163 J0
X-47.461 Y-126 Z-1.956 I0.163 J0
X-47.786 Y-126 Z-2.017 I-0.163 J0
X-47.461 Y-126 Z-2.078 I0.163 J0
X-47.786 Y-126 Z-2.139 I-0.163 J0
X-47.461 Y-126 Z-2.2 I0.163 J0
X-47.786 Y-126 Z-2.261 I-0.163 J0
X-47.461 Y-126 Z-2.322 I0.163 J0
X-47.786 Y-126 Z-2.383 I-0.163 J0
X-47.461 Y-126 Z-2.444 I0.163 J0
X-47.786 Y-126 Z-2.506 I-0.163 J0
X-47.461 Y-126 Z-2.567 I0.163 J0
X-47.786 Y-126 Z-2.628 I-0.163 J0
X-47.461 Y-126 Z-2.689 I0.163 J0
X-47.786 Y-126 Z-2.75 I-0.163 J0
X-47.461 Y-126 Z-2.811 I0.163 J0
X-47.786 Y-126 Z-2.872 I-0.163 J0
X-47.461 Y-126 Z-2.933 I0.163 J0
X-47.786 Y-126 Z-2.994 I-0.163 J0
X-47.461 Y-126 Z-3.056 I0.163 J0
X-47.786 Y-126 Z-3.117 I-0.163 J0
X-47.461 Y-126 Z-3.178 I0.163 J0
X-47.786 Y-126 Z-3.239 I-0.163 J0
X-47.461 Y-126 Z-3.3 I0.163 J0
X-47.786 Y-126 Z-3.361 I-0.163 J0
X-47.461 Y-126 Z-3.422 I0.163 J0
X-47.786 Y-126 Z-3.483 I-0.163 J0
X-47.461 Y-126 Z-3.544 I0.163 J0
X-47.786 Y-126 Z-3.606 I-0.163 J0
X-47.461 Y-126 Z-3.667 I0.163 J0
X-47.786 Y-126 Z-3.728 I-0.163 J0
X-47.461 Y-126 Z-3.789 I0.163 J0
X-47.786 Y-126 Z-3.85 I-0.163 J0
X-47.461 Y-126 Z-3.911 I0.163 J0
X-47.786 Y-126 Z-3.972 I-0.163 J0
X-47.461 Y-126 Z-4.033 I0.163 J0
X-47.786 Y-126 Z-4.094 I-0.163 J0
X-47.461 Y-126 Z-4.156 I0.163 J0
X-47.786 Y-126 Z-4.217 I-0.163 J0
X-47.461 Y-126 Z-4.278 I0.163 J0
X-47.555 Y-125.852 Z-4.3 I-0.163 J0
X-47.691 Y-126.148 I-0.068 J-0.148
X-47.555 Y-125.852 I0.068 J0.148
G1 X-47.586 Y-125.845
X-47.618 Y-125.85
X-47.645 Y-125.867
X-47.663 Y-125.892
X-47.729 Y-126.037
Z5
X-47.701 Y-74.081
Z1.683
Z0
X-47.542
X-47.511 Y-74.075
X-47.484 Y-74.057
X-47.467 Y-74.031
X-47.461 Y-74
G3 X-47.786 Y-74 Z-0.061 I-0.163 J0
X-47.461 Y-74 Z-0.122 I0.163 J0
X-47.786 Y-74 Z-0.183 I-0.163 J0
X-47.461 Y-74 Z-0.244 I0.163 J0
X-47.786 Y-74 Z-0.306 I-0.163 J0
X-47.461 Y-74 Z-0.367 I0.163 J0
X-47.786 Y-74 Z-0.428 I-0.163 J0
X-47.461 Y-74 Z-0.489 I0.163 J0
X-47.786 Y-74 Z-0.55 I-0.163 J0
X-47.461 Y-74 Z-0.611 I0.163 J0
X-47.786 Y-74 Z-0.672 I-0.163 J0
X-47.461 Y-74 Z-0.733 I0.163 J0
X-47.786 Y-74 Z-0.794 I-0.163 J0
X-47.461 Y-74 Z-0.856 I0.163 J0
X-47.786 Y-74 Z-0.917 I-0.163 J0
X-47.461 Y-74 Z-0.978 I0.163 J0
X-47.786 Y-74 Z-1.039 I-0.163 J0
X-47.461 Y-74 Z-1.1 I0.163 J0
X-47.786 Y-74 Z-1.161 I-0.163 J0
X-47.461 Y-74 Z-1.222 I0.163 J0
X-47.786 Y-74 Z-1.283 I-0.163 J0
X-47.461 Y-74 Z-1.344 I0.163 J0
X-47.786 Y-74 Z-1.406 I-0.163 J0
X-47.461 Y-74 Z-1.467 I0.163 J0
X-47.786 Y-74 Z-1.528 I-0.163 J0
X-47.461 Y-74 Z-1.589 I0.163 J0
X-47.786 Y-74 Z-1.65 I-0.163 J0
X-47.461 Y-74 Z-1.711 I0.163 J0
X-47.786 Y-74 Z-1.772 I-0.163 J0
X-47.461 Y-74 Z-1.833 I0.163 J0
X-47.786 Y-74 Z-1.894 I-0.163 J0
X-47.461 Y-74 Z-1.956 I0.163 J0
X-47.786 Y-74 Z-2.017 I-0.163 J0
X-47.461 Y-74 Z-2.078 I0.163 J0
X-47.786 Y-74 Z-2.139 I-0.163 J0
X-47.461 Y-74 Z-2.2 I0.163 J0
X-47.786 Y-74 Z-2.261 I-0.163 J0
X-47.461 Y-74 Z-2.322 I0.163 J0
X-47.786 Y-74 Z-2.383 I-0.163 J0
X-47.461 Y-74 Z-2.444 I0.163 J0
X-47.786 Y-74 Z-2.506 I-0.163 J0
X-47.461 Y-74 Z-2.567 I0.163 J0
X-47.786 Y-74 Z-2.628 I-0.163 J0
X-47.461 Y-74 Z-2.689 I0.163 J0
X-47.786 Y-74 Z-2.75 I-0.163 J0
X-47.461 Y-74 Z-2.811 I0.163 J0
X-47.786 Y-74 Z-2.872 I-0.163 J0
X-47.461 Y-74 Z-2.933 I0.163 J0
X-47.786 Y-74 Z-2.994 I-0.163 J0
X-47.461 Y-74 Z-3.056 I0.163 J0
X-47.786 Y-74 Z-3.117 I-0.163 J0
X-47.461 Y-74 Z-3.178 I0.163 J0
X-47.786 Y-74 Z-3.239 I-0.163 J0
X-47.461 Y-74 Z-3.3 I0.163 J0
X-47.786 Y-74 Z-3.361 I-0.163 J0
X-47.461 Y-74 Z-3.422 I0.163 J0
X-47.786 Y-74 Z-3.483 I-0.163 J0
X-47.461 Y-74 Z-3.544 I0.163 J0
X-47.786 Y-74 Z-3.606 I-0.163 J0
X-47.461 Y-74 Z-3.667 I0.163 J0
X-47.786 Y-74 Z-3.728 I-0.163 J0
X-47.461 Y-74 Z-3.789 I0.163 J0
X-47.786 Y-74 Z-3.85 I-0.163 J0
X-47.461 Y-74 Z-3.911 I0.163 J0
X-47.786 Y-74 Z-3.972 I-0.163 J0
X-47.461 Y-74 Z-4.033 I0.163 J0
X-47.786 Y-74 Z-4.094 I-0.163 J0
X-47.461 Y-74 Z-4.156 I0.163 J0
X-47.786 Y-74 Z-4.217 I-0.163 J0
X-47.461 Y-74 Z-4.278 I0.163 J0
X-47.555 Y-73.852 Z-4.3 I-0.163 J0
X-47.691 Y-74.148 I-0.068 J-0.148
X-47.555 Y-73.852 I0.068 J0.148
G1 X-47.586 Y-73.845
X-47.618 Y-73.85
X-47.645 Y-73.867
X-47.663 Y-73.892
X-47.729 Y-74.037
Z5
X-54.951 Y-84.831
Z1.683
Z0
X-54.792
X-54.761 Y-84.825
X-54.734 Y-84.807
X-54.717 Y-84.781
X-54.711 Y-84.75
G3 X-55.036 Y-84.75 Z-0.061 I-0.163 J0
X-54.711 Y-84.75 Z-0.122 I0.163 J0
X-55.036 Y-84.75 Z-0.183 I-0.163 J0
X-54.711 Y-84.75 Z-0.244 I0.163 J0
X-55.036 Y-84.75 Z-0.306 I-0.163 J0
X-54.711 Y-84.75 Z-0.367 I0.163 J0
X-55.036 Y-84.75 Z-0.428 I-0.163 J0
X-54.711 Y-84.75 Z-0.489 I0.163 J0
X-55.036 Y-84.75 Z-0.55 I-0.163 J0
X-54.711 Y-84.75 Z-0.611 I0.163 J0
X-55.036 Y-84.75 Z-0.672 I-0.163 J0
X-54.711 Y-84.75 Z-0.733 I0.163 J0
X-55.036 Y-84.75 Z-0.794 I-0.163 J0
X-54.711 Y-84.75 Z-0.856 I0.163 J0
X-55.036 Y-84.75 Z-0.917 I-0.163 J0
X-54.711 Y-84.75 Z-0.978 I0.163 J0
X-55.036 Y-84.75 Z-1.039 I-0.163 J0
X-54.711 Y-84.75 Z-1.1 I0.163 J0
X-55.036 Y-84.75 Z-1.161 I-0.163 J0
X-54.711 Y-84.75 Z-1.222 I0.163 J0
X-55.036 Y-84.75 Z-1.283 I-0.163 J0
X-54.711 Y-84.75 Z-1.344 I0.163 J0
X-55.036 Y-84.75 Z-1.406 I-0.163 J0
X-54.711 Y-84.75 Z-1.467 I0.163 J0
X-55.036 Y-84.75 Z-1.528 I-0.163 J0
X-54.711 Y-84.75 Z-1.589 I0.163 J0
X-55.036 Y-84.75 Z-1.65 I-0.163 J0
X-54.711 Y-84.75 Z-1.711 I0.163 J0
X-55.036 Y-84.75 Z-1.772 I-0.163 J0
X-54.711 Y-84.75 Z-1.833 I0.163 J0
X-55.036 Y-84.75 Z-1.894 I-0.163 J0
X-54.711 Y-84.75 Z-1.956 I0.163 J0
X-55.036 Y-84.75 Z-2.017 I-0.163 J0
X-54.711 Y-84.75 Z-2.078 I0.163 J0
X-55.036 Y-84.75 Z-2.139 I-0.163 J0
X-54.711 Y-84.75 Z-2.2 I0.163 J0
X-55.036 Y-84.75 Z-2.261 I-0.163 J0
X-54.711 Y-84.75 Z-2.322 I0.163 J0
X-55.036 Y-84.75 Z-2.383 I-0.163 J0
X-54.711 Y-84.75 Z-2.444 I0.163 J0
X-55.036 Y-84.75 Z-2.506 I-0.163 J0
X-54.711 Y-84.75 Z-2.567 I0.163 J0
X-55.036 Y-84.75 Z-2.628 I-0.163 J0
X-54.711 Y-84.75 Z-2.689 I0.163 J0
X-55.036 Y-84.75 Z-2.75 I-0.163 J0
X-54.711 Y-84.75 Z-2.811 I0.163 J0
X-55.036 Y-84.75 Z-2.872 I-0.163 J0
X-54.711 Y-84.75 Z-2.933 I0.163 J0
X-55.036 Y-84.75 Z-2.994 I-0.163 J0
X-54.711 Y-84.75 Z-3.056 I0.163 J0
X-55.036 Y-84.75 Z-3.117 I-0.163 J0
X-54.711 Y-84.75 Z-3.178 I0.163 J0
X-55.036 Y-84.75 Z-3.239 I-0.163 J0
X-54.711 Y-84.75 Z-3.3 I0.163 J0
X-55.036 Y-84.75 Z-3.361 I-0.163 J0
X-54.711 Y-84.75 Z-3.422 I0.163 J0
X-55.036 Y-84.75 Z-3.483 I-0.163 J0
X-54.711 Y-84.75 Z-3.544 I0.163 J0
X-55.036 Y-84.75 Z-3.606 I-0.163 J0
X-54.711 Y-84.75 Z-3.667 I0.163 J0
X-55.036 Y-84.75 Z-3.728 I-0.163 J0
X-54.711 Y-84.75 Z-3.789 I0.163 J0
X-55.036 Y-84.75 Z-3.85 I-0.163 J0
X-54.711 Y-84.75 Z-3.911 I0.163 J0
X-55.036 Y-84.75 Z-3.972 I-0.163 J0
X-54.711 Y-84.75 Z-4.033 I0.163 J0
X-55.036 Y-84.75 Z-4.094 I-0.163 J0
X-54.711 Y-84.75 Z-4.156 I0.163 J0
X-55.036 Y-84.75 Z-4.217 I-0.163 J0
X-54.711 Y-84.75 Z-4.278 I0.163 J0
X-54.805 Y-84.602 Z-4.3 I-0.163 J0
X-54.941 Y-84.898 I-0.068 J-0.148
X-54.805 Y-84.602 I0.068 J0.148
G1 X-54.836 Y-84.595
X-54.868 Y-84.6
X-54.895 Y-84.617
X-54.913 Y-84.642
X-54.979 Y-84.787
Z5
X-85.451 Y-84.831
Z1.683
Z0
X-85.292
X-85.261 Y-84.825
X-85.234 Y-84.807
X-85.217 Y-84.781
X-85.211 Y-84.75
G3 X-85.536 Y-84.75 Z-0.061 I-0.162 J0
X-85.211 Y-84.75 Z-0.122 I0.162 J0
X-85.536 Y-84.75 Z-0.183 I-0.162 J0
X-85.211 Y-84.75 Z-0.244 I0.162 J0
X-85.536 Y-84.75 Z-0.306 I-0.162 J0
X-85.211 Y-84.75 Z-0.367 I0.162 J0
X-85.536 Y-84.75 Z-0.428 I-0.162 J0
X-85.211 Y-84.75 Z-0.489 I0.162 J0
X-85.536 Y-84.75 Z-0.55 I-0.162 J0
X-85.211 Y-84.75 Z-0.611 I0.162 J0
X-85.536 Y-84.75 Z-0.672 I-0.162 J0
X-85.211 Y-84.75 Z-0.733 I0.162 J0
X-85.536 Y-84.75 Z-0.794 I-0.162 J0
X-85.211 Y-84.75 Z-0.856 I0.162 J0
X-85.536 Y-84.75 Z-0.917 I-0.162 J0
X-85.211 Y-84.75 Z-0.978 I0.162 J0
X-85.536 Y-84.75 Z-1.039 I-0.162 J0
X-85.211 Y-84.75 Z-1.1 I0.162 J0
X-85.536 Y-84.75 Z-1.161 I-0.162 J0
X-85.211 Y-84.75 Z-1.222 I0.162 J0
X-85.536 Y-84.75 Z-1.283 I-0.162 J0
X-85.211 Y-84.75 Z-1.344 I0.162 J0
X-85.536 Y-84.75 Z-1.406 I-0.162 J0
X-85.211 Y-84.75 Z-1.467 I0.162 J0
X-85.536 Y-84.75 Z-1.528 I-0.162 J0
X-85.211 Y-84.75 Z-1.589 I0.162 J0
X-85.536 Y-84.75 Z-1.65 I-0.162 J0
X-85.211 Y-84.75 Z-1.711 I0.162 J0
X-85.536 Y-84.75 Z-1.772 I-0.162 J0
X-85.211 Y-84.75 Z-1.833 I0.162 J0
X-85.536 Y-84.75 Z-1.894 I-0.162 J0
X-85.211 Y-84.75 Z-1.956 I0.162 J0
X-85.536 Y-84.75 Z-2.017 I-0.162 J0
X-85.211 Y-84.75 Z-2.078 I0.162 J0
X-85.536 Y-84.75 Z-2.139 I-0.162 J0
X-85.211 Y-84.75 Z-2.2 I0.162 J0
X-85.536 Y-84.75 Z-2.261 I-0.162 J0
X-85.211 Y-84.75 Z-2.322 I0.162 J0
X-85.536 Y-84.75 Z-2.383 I-0.162 J0
X-85.211 Y-84.75 Z-2.444 I0.162 J0
X-85.536 Y-84.75 Z-2.506 I-0.162 J0
X-85.211 Y-84.75 Z-2.567 I0.162 J0
X-85.536 Y-84.75 Z-2.628 I-0.162 J0
X-85.211 Y-84.75 Z-2.689 I0.162 J0
X-85.536 Y-84.75 Z-2.75 I-0.162 J0
X-85.211 Y-84.75 Z-2.811 I0.162 J0
X-85.536 Y-84.75 Z-2.872 I-0.162 J0
X-85.211 Y-84.75 Z-2.933 I0.162 J0
X-85.536 Y-84.75 Z-2.994 I-0.162 J0
X-85.211 Y-84.75 Z-3.056 I0.162 J0
X-85.536 Y-84.75 Z-3.117 I-0.162 J0
X-85.211 Y-84.75 Z-3.178 I0.162 J0
X-85.536 Y-84.75 Z-3.239 I-0.162 J0
X-85.211 Y-84.75 Z-3.3 I0.162 J0
X-85.536 Y-84.75 Z-3.361 I-0.162 J0
X-85.211 Y-84.75 Z-3.422 I0.162 J0
X-85.536 Y-84.75 Z-3.483 I-0.162 J0
X-85.211 Y-84.75 Z-3.544 I0.162 J0
X-85.536 Y-84.75 Z-3.606 I-0.162 J0
X-85.211 Y-84.75 Z-3.667 I0.162 J0
X-85.536 Y-84.75 Z-3.728 I-0.162 J0
X-85.211 Y-84.75 Z-3.789 I0.162 J0
X-85.536 Y-84.75 Z-3.85 I-0.162 J0
X-85.211 Y-84.75 Z-3.911 I0.162 J0
X-85.536 Y-84.75 Z-3.972 I-0.162 J0
X-85.211 Y-84.75 Z-4.033 I0.162 J0
X-85.536 Y-84.75 Z-4.094 I-0.162 J0
X-85.211 Y-84.75 Z-4.156 I0.162 J0
X-85.536 Y-84.75 Z-4.217 I-0.162 J0
X-85.211 Y-84.75 Z-4.278 I0.162 J0
X-85.305 Y-84.602 Z-4.3 I-0.162 J0
X-85.441 Y-84.898 I-0.068 J-0.148
X-85.305 Y-84.602 I0.068 J0.148
G1 X-85.336 Y-84.595
X-85.368 Y-84.6
X-85.395 Y-84.617
X-85.413 Y-84.642
X-85.479 Y-84.787
Z5
X-92.701 Y-74.081
Z1.683
Z0
X-92.542
X-92.511 Y-74.075
X-92.484 Y-74.057
X-92.467 Y-74.031
X-92.461 Y-74
G3 X-92.786 Y-74 Z-0.061 I-0.162 J0
X-92.461 Y-74 Z-0.122 I0.162 J0
X-92.786 Y-74 Z-0.183 I-0.162 J0
X-92.461 Y-74 Z-0.244 I0.162 J0
X-92.786 Y-74 Z-0.306 I-0.162 J0
X-92.461 Y-74 Z-0.367 I0.162 J0
X-92.786 Y-74 Z-0.428 I-0.162 J0
X-92.461 Y-74 Z-0.489 I0.162 J0
X-92.786 Y-74 Z-0.55 I-0.162 J0
X-92.461 Y-74 Z-0.611 I0.162 J0
X-92.786 Y-74 Z-0.672 I-0.162 J0
X-92.461 Y-74 Z-0.733 I0.162 J0
X-92.786 Y-74 Z-0.794 I-0.162 J0
X-92.461 Y-74 Z-0.856 I0.162 J0
X-92.786 Y-74 Z-0.917 I-0.162 J0
X-92.461 Y-74 Z-0.978 I0.162 J0
X-92.786 Y-74 Z-1.039 I-0.162 J0
X-92.461 Y-74 Z-1.1 I0.162 J0
X-92.786 Y-74 Z-1.161 I-0.162 J0
X-92.461 Y-74 Z-1.222 I0.162 J0
X-92.786 Y-74 Z-1.283 I-0.162 J0
X-92.461 Y-74 Z-1.344 I0.162 J0
X-92.786 Y-74 Z-1.406 I-0.162 J0
X-92.461 Y-74 Z-1.467 I0.162 J0
X-92.786 Y-74 Z-1.528 I-0.162 J0
X-92.461 Y-74 Z-1.589 I0.162 J0
X-92.786 Y-74 Z-1.65 I-0.162 J0
X-92.461 Y-74 Z-1.711 I0.162 J0
X-92.786 Y-74 Z-1.772 I-0.162 J0
X-92.461 Y-74 Z-1.833 I0.162 J0
X-92.786 Y-74 Z-1.894 I-0.162 J0
X-92.461 Y-74 Z-1.956 I0.162 J0
X-92.786 Y-74 Z-2.017 I-0.162 J0
X-92.461 Y-74 Z-2.078 I0.162 J0
X-92.786 Y-74 Z-2.139 I-0.162 J0
X-92.461 Y-74 Z-2.2 I0.162 J0
X-92.786 Y-74 Z-2.261 I-0.162 J0
X-92.461 Y-74 Z-2.322 I0.162 J0
X-92.786 Y-74 Z-2.383 I-0.162 J0
X-92.461 Y-74 Z-2.444 I0.162 J0
X-92.786 Y-74 Z-2.506 I-0.162 J0
X-92.461 Y-74 Z-2.567 I0.162 J0
X-92.786 Y-74 Z-2.628 I-0.162 J0
X-92.461 Y-74 Z-2.689 I0.162 J0
X-92.786 Y-74 Z-2.75 I-0.162 J0
X-92.461 Y-74 Z-2.811 I0.162 J0
X-92.786 Y-74 Z-2.872 I-0.162 J0
X-92.461 Y-74 Z-2.933 I0.162 J0
X-92.786 Y-74 Z-2.994 I-0.162 J0
X-92.461 Y-74 Z-3.056 I0.162 J0
X-92.786 Y-74 Z-3.117 I-0.162 J0
X-92.461 Y-74 Z-3.178 I0.162 J0
X-92.786 Y-74 Z-3.239 I-0.162 J0
X-92.461 Y-74 Z-3.3 I0.162 J0
X-92.786 Y-74 Z-3.361 I-0.162 J0
X-92.461 Y-74 Z-3.422 I0.162 J0
X-92.786 Y-74 Z-3.483 I-0.162 J0
X-92.461 Y-74 Z-3.544 I0.162 J0
X-92.786 Y-74 Z-3.606 I-0.162 J0
X-92.461 Y-74 Z-3.667 I0.162 J0
X-92.786 Y-74 Z-3.728 I-0.162 J0
X-92.461 Y-74 Z-3.789 I0.162 J0
X-92.786 Y-74 Z-3.85 I-0.162 J0
X-92.461 Y-74 Z-3.911 I0.162 J0
X-92.786 Y-74 Z-3.972 I-0.162 J0
X-92.461 Y-74 Z-4.033 I0.162 J0
X-92.786 Y-74 Z-4.094 I-0.162 J0
X-92.461 Y-74 Z-4.156 I0.162 J0
X-92.786 Y-74 Z-4.217 I-0.162 J0
X-92.461 Y-74 Z-4.278 I0.162 J0
X-92.555 Y-73.852 Z-4.3 I-0.162 J0
X-92.691 Y-74.148 I-0.068 J-0.148
X-92.555 Y-73.852 I0.068 J0.148
G1 X-92.586 Y-73.845
X-92.618 Y-73.85
X-92.645 Y-73.867
X-92.663 Y-73.892
X-92.729 Y-74.037
Z5
X-110.977 Y-39.518
Z1.683
Z0
X-110.818
X-110.787 Y-39.512
X-110.761 Y-39.494
X-110.743 Y-39.468
X-110.737 Y-39.437
G3 X-111.062 Y-39.437 Z-0.061 I-0.162 J0
X-110.737 Y-39.437 Z-0.122 I0.162 J0
X-111.062 Y-39.437 Z-0.183 I-0.162 J0
X-110.737 Y-39.437 Z-0.244 I0.162 J0
X-111.062 Y-39.437 Z-0.306 I-0.162 J0
X-110.737 Y-39.437 Z-0.367 I0.162 J0
X-111.062 Y-39.437 Z-0.428 I-0.162 J0
X-110.737 Y-39.437 Z-0.489 I0.162 J0
X-111.062 Y-39.437 Z-0.55 I-0.162 J0
X-110.737 Y-39.437 Z-0.611 I0.162 J0
X-111.062 Y-39.437 Z-0.672 I-0.162 J0
X-110.737 Y-39.437 Z-0.733 I0.162 J0
X-111.062 Y-39.437 Z-0.794 I-0.162 J0
X-110.737 Y-39.437 Z-0.856 I0.162 J0
X-111.062 Y-39.437 Z-0.917 I-0.162 J0
X-110.737 Y-39.437 Z-0.978 I0.162 J0
X-111.062 Y-39.437 Z-1.039 I-0.162 J0
X-110.737 Y-39.437 Z-1.1 I0.162 J0
X-111.062 Y-39.437 Z-1.161 I-0.162 J0
X-110.737 Y-39.437 Z-1.222 I0.162 J0
X-111.062 Y-39.437 Z-1.283 I-0.162 J0
X-110.737 Y-39.437 Z-1.344 I0.162 J0
X-111.062 Y-39.437 Z-1.406 I-0.162 J0
X-110.737 Y-39.437 Z-1.467 I0.162 J0
X-111.062 Y-39.437 Z-1.528 I-0.162 J0
X-110.737 Y-39.437 Z-1.589 I0.162 J0
X-111.062 Y-39.437 Z-1.65 I-0.162 J0
X-110.737 Y-39.437 Z-1.711 I0.162 J0
X-111.062 Y-39.437 Z-1.772 I-0.162 J0
X-110.737 Y-39.437 Z-1.833 I0.162 J0
X-111.062 Y-39.437 Z-1.894 I-0.162 J0
X-110.737 Y-39.437 Z-1.956 I0.162 J0
X-111.062 Y-39.437 Z-2.017 I-0.162 J0
X-110.737 Y-39.437 Z-2.078 I0.162 J0
X-111.062 Y-39.437 Z-2.139 I-0.162 J0
X-110.737 Y-39.437 Z-2.2 I0.162 J0
X-111.062 Y-39.437 Z-2.261 I-0.162 J0
X-110.737 Y-39.437 Z-2.322 I0.162 J0
X-111.062 Y-39.437 Z-2.383 I-0.162 J0
X-110.737 Y-39.437 Z-2.444 I0.162 J0
X-111.062 Y-39.437 Z-2.506 I-0.162 J0
X-110.737 Y-39.437 Z-2.567 I0.162 J0
X-111.062 Y-39.437 Z-2.628 I-0.162 J0
X-110.737 Y-39.437 Z-2.689 I0.162 J0
X-111.062 Y-39.437 Z-2.75 I-0.162 J0
X-110.737 Y-39.437 Z-2.811 I0.162 J0
X-111.062 Y-39.437 Z-2.872 I-0.162 J0
X-110.737 Y-39.437 Z-2.933 I0.162 J0
X-111.062 Y-39.437 Z-2.994 I-0.162 J0
X-110.737 Y-39.437 Z-3.056 I0.162 J0
X-111.062 Y-39.437 Z-3.117 I-0.162 J0
X-110.737 Y-39.437 Z-3.178 I0.162 J0
X-111.062 Y-39.437 Z-3.239 I-0.162 J0
X-110.737 Y-39.437 Z-3.3 I0.162 J0
X-111.062 Y-39.437 Z-3.361 I-0.162 J0
X-110.737 Y-39.437 Z-3.422 I0.162 J0
X-111.062 Y-39.437 Z-3.483 I-0.162 J0
X-110.737 Y-39.437 Z-3.544 I0.162 J0
X-111.062 Y-39.437 Z-3.606 I-0.162 J0
X-110.737 Y-39.437 Z-3.667 I0.162 J0
X-111.062 Y-39.437 Z-3.728 I-0.162 J0
X-110.737 Y-39.437 Z-3.789 I0.162 J0
X-111.062 Y-39.437 Z-3.85 I-0.162 J0
X-110.737 Y-39.437 Z-3.911 I0.162 J0
X-111.062 Y-39.437 Z-3.972 I-0.162 J0
X-110.737 Y-39.437 Z-4.033 I0.162 J0
X-111.062 Y-39.437 Z-4.094 I-0.162 J0
X-110.737 Y-39.437 Z-4.156 I0.162 J0
X-111.062 Y-39.437 Z-4.217 I-0.162 J0
X-110.737 Y-39.437 Z-4.278 I0.162 J0
X-110.832 Y-39.289 Z-4.3 I-0.162 J0
X-110.967 Y-39.584 I-0.068 J-0.148
X-110.832 Y-39.289 I0.068 J0.148
G1 X-110.863 Y-39.281
X-110.894 Y-39.286
X-110.921 Y-39.303
X-110.94 Y-39.329
X-111.006 Y-39.473
Z5
X-97.007 Y-17.59
Z1.683
Z0
X-96.848
X-96.817 Y-17.583
X-96.791 Y-17.566
X-96.773 Y-17.539
X-96.767 Y-17.508
G3 X-97.092 Y-17.508 Z-0.061 I-0.163 J0
X-96.767 Y-17.508 Z-0.122 I0.163 J0
X-97.092 Y-17.508 Z-0.183 I-0.163 J0
X-96.767 Y-17.508 Z-0.244 I0.163 J0
X-97.092 Y-17.508 Z-0.306 I-0.163 J0
X-96.767 Y-17.508 Z-0.367 I0.163 J0
X-97.092 Y-17.508 Z-0.428 I-0.163 J0
X-96.767 Y-17.508 Z-0.489 I0.163 J0
X-97.092 Y-17.508 Z-0.55 I-0.163 J0
X-96.767 Y-17.508 Z-0.611 I0.163 J0
X-97.092 Y-17.508 Z-0.672 I-0.163 J0
X-96.767 Y-17.508 Z-0.733 I0.163 J0
X-97.092 Y-17.508 Z-0.794 I-0.163 J0
X-96.767 Y-17.508 Z-0.856 I0.163 J0
X-97.092 Y-17.508 Z-0.917 I-0.163 J0
X-96.767 Y-17.508 Z-0.978 I0.163 J0
X-97.092 Y-17.508 Z-1.039 I-0.163 J0
X-96.767 Y-17.508 Z-1.1 I0.163 J0
X-97.092 Y-17.508 Z-1.161 I-0.163 J0
X-96.767 Y-17.508 Z-1.222 I0.163 J0
X-97.092 Y-17.508 Z-1.283 I-0.163 J0
X-96.767 Y-17.508 Z-1.344 I0.163 J0
X-97.092 Y-17.508 Z-1.406 I-0.163 J0
X-96.767 Y-17.508 Z-1.467 I0.163 J0
X-97.092 Y-17.508 Z-1.528 I-0.163 J0
X-96.767 Y-17.508 Z-1.589 I0.163 J0
X-97.092 Y-17.508 Z-1.65 I-0.163 J0
X-96.767 Y-17.508 Z-1.711 I0.163 J0
X-97.092 Y-17.508 Z-1.772 I-0.163 J0
X-96.767 Y-17.508 Z-1.833 I0.163 J0
X-97.092 Y-17.508 Z-1.894 I-0.163 J0
X-96.767 Y-17.508 Z-1.956 I0.163 J0
X-97.092 Y-17.508 Z-2.017 I-0.163 J0
X-96.767 Y-17.508 Z-2.078 I0.163 J0
X-97.092 Y-17.508 Z-2.139 I-0.163 J0
X-96.767 Y-17.508 Z-2.2 I0.163 J0
X-97.092 Y-17.508 Z-2.261 I-0.163 J0
X-96.767 Y-17.508 Z-2.322 I0.163 J0
X-97.092 Y-17.508 Z-2.383 I-0.163 J0
X-96.767 Y-17.508 Z-2.444 I0.163 J0
X-97.092 Y-17.508 Z-2.506 I-0.163 J0
X-96.767 Y-17.508 Z-2.567 I0.163 J0
X-97.092 Y-17.508 Z-2.628 I-0.163 J0
X-96.767 Y-17.508 Z-2.689 I0.163 J0
X-97.092 Y-17.508 Z-2.75 I-0.163 J0
X-96.767 Y-17.508 Z-2.811 I0.163 J0
X-97.092 Y-17.508 Z-2.872 I-0.163 J0
X-96.767 Y-17.508 Z-2.933 I0.163 J0
X-97.092 Y-17.508 Z-2.994 I-0.163 J0
X-96.767 Y-17.508 Z-3.056 I0.163 J0
X-97.092 Y-17.508 Z-3.117 I-0.163 J0
X-96.767 Y-17.508 Z-3.178 I0.163 J0
X-97.092 Y-17.508 Z-3.239 I-0.163 J0
X-96.767 Y-17.508 Z-3.3 I0.163 J0
X-97.092 Y-17.508 Z-3.361 I-0.163 J0
X-96.767 Y-17.508 Z-3.422 I0.163 J0
X-97.092 Y-17.508 Z-3.483 I-0.163 J0
X-96.767 Y-17.508 Z-3.544 I0.163 J0
X-97.092 Y-17.508 Z-3.606 I-0.163 J0
X-96.767 Y-17.508 Z-3.667 I0.163 J0
X-97.092 Y-17.508 Z-3.728 I-0.163 J0
X-96.767 Y-17.508 Z-3.789 I0.163 J0
X-97.092 Y-17.508 Z-3.85 I-0.163 J0
X-96.767 Y-17.508 Z-3.911 I0.163 J0
X-97.092 Y-17.508 Z-3.972 I-0.163 J0
X-96.767 Y-17.508 Z-4.033 I0.163 J0
X-97.092 Y-17.508 Z-4.094 I-0.163 J0
X-96.767 Y-17.508 Z-4.156 I0.163 J0
X-97.092 Y-17.508 Z-4.217 I-0.163 J0
X-96.767 Y-17.508 Z-4.278 I0.163 J0
X-96.862 Y-17.361 Z-4.3 I-0.163 J0
X-96.997 Y-17.656 I-0.068 J-0.148
X-96.862 Y-17.361 I0.068 J0.148
G1 X-96.893 Y-17.353
X-96.924 Y-17.358
X-96.951 Y-17.375
X-96.97 Y-17.401
X-97.036 Y-17.545
Z5
X-83.201 Y-25.081
Z1.683
Z0
X-83.042
X-83.011 Y-25.075
X-82.984 Y-25.057
X-82.967 Y-25.031
X-82.961 Y-25
G3 X-83.286 Y-25 Z-0.061 I-0.162 J0
X-82.961 Y-25 Z-0.122 I0.162 J0
X-83.286 Y-25 Z-0.183 I-0.162 J0
X-82.961 Y-25 Z-0.244 I0.162 J0
X-83.286 Y-25 Z-0.306 I-0.162 J0
X-82.961 Y-25 Z-0.367 I0.162 J0
X-83.286 Y-25 Z-0.428 I-0.162 J0
X-82.961 Y-25 Z-0.489 I0.162 J0
X-83.286 Y-25 Z-0.55 I-0.162 J0
X-82.961 Y-25 Z-0.611 I0.162 J0
X-83.286 Y-25 Z-0.672 I-0.162 J0
X-82.961 Y-25 Z-0.733 I0.162 J0
X-83.286 Y-25 Z-0.794 I-0.162 J0
X-82.961 Y-25 Z-0.856 I0.162 J0
X-83.286 Y-25 Z-0.917 I-0.162 J0
X-82.961 Y-25 Z-0.978 I0.162 J0
X-83.286 Y-25 Z-1.039 I-0.162 J0
X-82.961 Y-25 Z-1.1 I0.162 J0
X-83.286 Y-25 Z-1.161 I-0.162 J0
X-82.961 Y-25 Z-1.222 I0.162 J0
X-83.286 Y-25 Z-1.283 I-0.162 J0
X-82.961 Y-25 Z-1.344 I0.162 J0
X-83.286 Y-25 Z-1.406 I-0.162 J0
X-82.961 Y-25 Z-1.467 I0.162 J0
X-83.286 Y-25 Z-1.528 I-0.162 J0
X-82.961 Y-25 Z-1.589 I0.162 J0
X-83.286 Y-25 Z-1.65 I-0.162 J0
X-82.961 Y-25 Z-1.711 I0.162 J0
X-83.286 Y-25 Z-1.772 I-0.162 J0
X-82.961 Y-25 Z-1.833 I0.162 J0
X-83.286 Y-25 Z-1.894 I-0.162 J0
X-82.961 Y-25 Z-1.956 I0.162 J0
X-83.286 Y-25 Z-2.017 I-0.162 J0
X-82.961 Y-25 Z-2.078 I0.162 J0
X-83.286 Y-25 Z-2.139 I-0.162 J0
X-82.961 Y-25 Z-2.2 I0.162 J0
X-83.286 Y-25 Z-2.261 I-0.162 J0
X-82.961 Y-25 Z-2.322 I0.162 J0
X-83.286 Y-25 Z-2.383 I-0.162 J0
X-82.961 Y-25 Z-2.444 I0.162 J0
X-83.286 Y-25 Z-2.506 I-0.162 J0
X-82.961 Y-25 Z-2.567 I0.162 J0
X-83.286 Y-25 Z-2.628 I-0.162 J0
X-82.961 Y-25 Z-2.689 I0.162 J0
X-83.286 Y-25 Z-2.75 I-0.162 J0
X-82.961 Y-25 Z-2.811 I0.162 J0
X-83.286 Y-25 Z-2.872 I-0.162 J0
X-82.961 Y-25 Z-2.933 I0.162 J0
X-83.286 Y-25 Z-2.994 I-0.162 J0
X-82.961 Y-25 Z-3.056 I0.162 J0
X-83.286 Y-25 Z-3.117 I-0.162 J0
X-82.961 Y-25 Z-3.178 I0.162 J0
X-83.286 Y-25 Z-3.239 I-0.162 J0
X-82.961 Y-25 Z-3.3 I0.162 J0
X-83.286 Y-25 Z-3.361 I-0.162 J0
X-82.961 Y-25 Z-3.422 I0.162 J0
X-83.286 Y-25 Z-3.483 I-0.162 J0
X-82.961 Y-25 Z-3.544 I0.162 J0
X-83.286 Y-25 Z-3.606 I-0.162 J0
X-82.961 Y-25 Z-3.667 I0.162 J0
X-83.286 Y-25 Z-3.728 I-0.162 J0
X-82.961 Y-25 Z-3.789 I0.162 J0
X-83.286 Y-25 Z-3.85 I-0.162 J0
X-82.961 Y-25 Z-3.911 I0.162 J0
X-83.286 Y-25 Z-3.972 I-0.162 J0
X-82.961 Y-25 Z-4.033 I0.162 J0
X-83.286 Y-25 Z-4.094 I-0.162 J0
X-82.961 Y-25 Z-4.156 I0.162 J0
X-83.286 Y-25 Z-4.217 I-0.162 J0
X-82.961 Y-25 Z-4.278 I0.162 J0
X-83.055 Y-24.852 Z-4.3 I-0.162 J0
X-83.191 Y-25.148 I-0.068 J-0.148
X-83.055 Y-24.852 I0.068 J0.148
G1 X-83.086 Y-24.845
X-83.118 Y-24.85
X-83.145 Y-24.867
X-83.163 Y-24.892
X-83.229 Y-25.037
Z5
X-57.201 Y-25.081
Z1.683
Z0
X-57.042
X-57.011 Y-25.075
X-56.984 Y-25.057
X-56.967 Y-25.031
X-56.961 Y-25
G3 X-57.286 Y-25 Z-0.061 I-0.163 J0
X-56.961 Y-25 Z-0.122 I0.163 J0
X-57.286 Y-25 Z-0.183 I-0.163 J0
X-56.961 Y-25 Z-0.244 I0.163 J0
X-57.286 Y-25 Z-0.306 I-0.163 J0
X-56.961 Y-25 Z-0.367 I0.163 J0
X-57.286 Y-25 Z-0.428 I-0.163 J0
X-56.961 Y-25 Z-0.489 I0.163 J0
X-57.286 Y-25 Z-0.55 I-0.163 J0
X-56.961 Y-25 Z-0.611 I0.163 J0
X-57.286 Y-25 Z-0.672 I-0.163 J0
X-56.961 Y-25 Z-0.733 I0.163 J0
X-57.286 Y-25 Z-0.794 I-0.163 J0
X-56.961 Y-25 Z-0.856 I0.163 J0
X-57.286 Y-25 Z-0.917 I-0.163 J0
X-56.961 Y-25 Z-0.978 I0.163 J0
X-57.286 Y-25 Z-1.039 I-0.163 J0
X-56.961 Y-25 Z-1.1 I0.163 J0
X-57.286 Y-25 Z-1.161 I-0.163 J0
X-56.961 Y-25 Z-1.222 I0.163 J0
X-57.286 Y-25 Z-1.283 I-0.163 J0
X-56.961 Y-25 Z-1.344 I0.163 J0
X-57.286 Y-25 Z-1.406 I-0.163 J0
X-56.961 Y-25 Z-1.467 I0.163 J0
X-57.286 Y-25 Z-1.528 I-0.163 J0
X-56.961 Y-25 Z-1.589 I0.163 J0
X-57.286 Y-25 Z-1.65 I-0.163 J0
X-56.961 Y-25 Z-1.711 I0.163 J0
X-57.286 Y-25 Z-1.772 I-0.163 J0
X-56.961 Y-25 Z-1.833 I0.163 J0
X-57.286 Y-25 Z-1.894 I-0.163 J0
X-56.961 Y-25 Z-1.956 I0.163 J0
X-57.286 Y-25 Z-2.017 I-0.163 J0
X-56.961 Y-25 Z-2.078 I0.163 J0
X-57.286 Y-25 Z-2.139 I-0.163 J0
X-56.961 Y-25 Z-2.2 I0.163 J0
X-57.286 Y-25 Z-2.261 I-0.163 J0
X-56.961 Y-25 Z-2.322 I0.163 J0
X-57.286 Y-25 Z-2.383 I-0.163 J0
X-56.961 Y-25 Z-2.444 I0.163 J0
X-57.286 Y-25 Z-2.506 I-0.163 J0
X-56.961 Y-25 Z-2.567 I0.163 J0
X-57.286 Y-25 Z-2.628 I-0.163 J0
X-56.961 Y-25 Z-2.689 I0.163 J0
X-57.286 Y-25 Z-2.75 I-0.163 J0
X-56.961 Y-25 Z-2.811 I0.163 J0
X-57.286 Y-25 Z-2.872 I-0.163 J0
X-56.961 Y-25 Z-2.933 I0.163 J0
X-57.286 Y-25 Z-2.994 I-0.163 J0
X-56.961 Y-25 Z-3.056 I0.163 J0
X-57.286 Y-25 Z-3.117 I-0.163 J0
X-56.961 Y-25 Z-3.178 I0.163 J0
X-57.286 Y-25 Z-3.239 I-0.163 J0
X-56.961 Y-25 Z-3.3 I0.163 J0
X-57.286 Y-25 Z-3.361 I-0.163 J0
X-56.961 Y-25 Z-3.422 I0.163 J0
X-57.286 Y-25 Z-3.483 I-0.163 J0
X-56.961 Y-25 Z-3.544 I0.163 J0
X-57.286 Y-25 Z-3.606 I-0.163 J0
X-56.961 Y-25 Z-3.667 I0.163 J0
X-57.286 Y-25 Z-3.728 I-0.163 J0
X-56.961 Y-25 Z-3.789 I0.163 J0
X-57.286 Y-25 Z-3.85 I-0.163 J0
X-56.961 Y-25 Z-3.911 I0.163 J0
X-57.286 Y-25 Z-3.972 I-0.163 J0
X-56.961 Y-25 Z-4.033 I0.163 J0
X-57.286 Y-25 Z-4.094 I-0.163 J0
X-56.961 Y-25 Z-4.156 I0.163 J0
X-57.286 Y-25 Z-4.217 I-0.163 J0
X-56.961 Y-25 Z-4.278 I0.163 J0
X-57.055 Y-24.852 Z-4.3 I-0.163 J0
X-57.191 Y-25.148 I-0.068 J-0.148
X-57.055 Y-24.852 I0.068 J0.148
G1 X-57.086 Y-24.845
X-57.118 Y-24.85
X-57.145 Y-24.867
X-57.163 Y-24.892
X-57.229 Y-25.037
Z5
X-43.394 Y-17.59
Z1.683
Z0
X-43.235
X-43.204 Y-17.583
X-43.178 Y-17.566
X-43.16 Y-17.539
X-43.154 Y-17.508
G3 X-43.479 Y-17.508 Z-0.061 I-0.163 J0
X-43.154 Y-17.508 Z-0.122 I0.163 J0
X-43.479 Y-17.508 Z-0.183 I-0.163 J0
X-43.154 Y-17.508 Z-0.244 I0.163 J0
X-43.479 Y-17.508 Z-0.306 I-0.163 J0
X-43.154 Y-17.508 Z-0.367 I0.163 J0
X-43.479 Y-17.508 Z-0.428 I-0.163 J0
X-43.154 Y-17.508 Z-0.489 I0.163 J0
X-43.479 Y-17.508 Z-0.55 I-0.163 J0
X-43.154 Y-17.508 Z-0.611 I0.163 J0
X-43.479 Y-17.508 Z-0.672 I-0.163 J0
X-43.154 Y-17.508 Z-0.733 I0.163 J0
X-43.479 Y-17.508 Z-0.794 I-0.163 J0
X-43.154 Y-17.508 Z-0.856 I0.163 J0
X-43.479 Y-17.508 Z-0.917 I-0.163 J0
X-43.154 Y-17.508 Z-0.978 I0.163 J0
X-43.479 Y-17.508 Z-1.039 I-0.163 J0
X-43.154 Y-17.508 Z-1.1 I0.163 J0
X-43.479 Y-17.508 Z-1.161 I-0.163 J0
X-43.154 Y-17.508 Z-1.222 I0.163 J0
X-43.479 Y-17.508 Z-1.283 I-0.163 J0
X-43.154 Y-17.508 Z-1.344 I0.163 J0
X-43.479 Y-17.508 Z-1.406 I-0.163 J0
X-43.154 Y-17.508 Z-1.467 I0.163 J0
X-43.479 Y-17.508 Z-1.528 I-0.163 J0
X-43.154 Y-17.508 Z-1.589 I0.163 J0
X-43.479 Y-17.508 Z-1.65 I-0.163 J0
X-43.154 Y-17.508 Z-1.711 I0.163 J0
X-43.479 Y-17.508 Z-1.772 I-0.163 J0
X-43.154 Y-17.508 Z-1.833 I0.163 J0
X-43.479 Y-17.508 Z-1.894 I-0.163 J0
X-43.154 Y-17.508 Z-1.956 I0.163 J0
X-43.479 Y-17.508 Z-2.017 I-0.163 J0
X-43.154 Y-17.508 Z-2.078 I0.163 J0
X-43.479 Y-17.508 Z-2.139 I-0.163 J0
X-43.154 Y-17.508 Z-2.2 I0.163 J0
X-43.479 Y-17.508 Z-2.261 I-0.163 J0
X-43.154 Y-17.508 Z-2.322 I0.163 J0
X-43.479 Y-17.508 Z-2.383 I-0.163 J0
X-43.154 Y-17.508 Z-2.444 I0.163 J0
X-43.479 Y-17.508 Z-2.506 I-0.163 J0
X-43.154 Y-17.508 Z-2.567 I0.163 J0
X-43.479 Y-17.508 Z-2.628 I-0.163 J0
X-43.154 Y-17.508 Z-2.689 I0.163 J0
X-43.479 Y-17.508 Z-2.75 I-0.163 J0
X-43.154 Y-17.508 Z-2.811 I0.163 J0
X-43.479 Y-17.508 Z-2.872 I-0.163 J0
X-43.154 Y-17.508 Z-2.933 I0.163 J0
X-43.479 Y-17.508 Z-2.994 I-0.163 J0
X-43.154 Y-17.508 Z-3.056 I0.163 J0
X-43.479 Y-17.508 Z-3.117 I-0.162 J0
X-43.154 Y-17.508 Z-3.178 I0.162 J0
X-43.479 Y-17.508 Z-3.239 I-0.162 J0
X-43.154 Y-17.508 Z-3.3 I0.162 J0
X-43.479 Y-17.508 Z-3.361 I-0.162 J0
X-43.154 Y-17.508 Z-3.422 I0.162 J0
X-43.479 Y-17.508 Z-3.483 I-0.162 J0
X-43.154 Y-17.508 Z-3.544 I0.162 J0
X-43.479 Y-17.508 Z-3.606 I-0.162 J0
X-43.154 Y-17.508 Z-3.667 I0.162 J0
X-43.479 Y-17.508 Z-3.728 I-0.162 J0
X-43.154 Y-17.508 Z-3.789 I0.162 J0
X-43.479 Y-17.508 Z-3.85 I-0.162 J0
X-43.154 Y-17.508 Z-3.911 I0.162 J0
X-43.479 Y-17.508 Z-3.972 I-0.162 J0
X-43.154 Y-17.508 Z-4.033 I0.162 J0
X-43.479 Y-17.508 Z-4.094 I-0.162 J0
X-43.154 Y-17.508 Z-4.156 I0.162 J0
X-43.479 Y-17.508 Z-4.217 I-0.162 J0
X-43.154 Y-17.508 Z-4.278 I0.162 J0
X-43.249 Y-17.361 Z-4.3 I-0.162 J0
X-43.384 Y-17.656 I-0.068 J-0.148
X-43.249 Y-17.361 I0.068 J0.148
G1 X-43.28 Y-17.353
X-43.311 Y-17.358
X-43.338 Y-17.375
X-43.356 Y-17.401
X-43.423 Y-17.545
Z5
X-29.424 Y-39.518
Z1.683
Z0
X-29.265
X-29.234 Y-39.512
X-29.208 Y-39.494
X-29.19 Y-39.468
X-29.184 Y-39.437
G3 X-29.509 Y-39.437 Z-0.061 I-0.163 J0
X-29.184 Y-39.437 Z-0.122 I0.163 J0
X-29.509 Y-39.437 Z-0.183 I-0.163 J0
X-29.184 Y-39.437 Z-0.244 I0.163 J0
X-29.509 Y-39.437 Z-0.306 I-0.163 J0
X-29.184 Y-39.437 Z-0.367 I0.163 J0
X-29.509 Y-39.437 Z-0.428 I-0.163 J0
X-29.184 Y-39.437 Z-0.489 I0.163 J0
X-29.509 Y-39.437 Z-0.55 I-0.163 J0
X-29.184 Y-39.437 Z-0.611 I0.162 J0
X-29.509 Y-39.437 Z-0.672 I-0.162 J0
X-29.184 Y-39.437 Z-0.733 I0.162 J0
X-29.509 Y-39.437 Z-0.794 I-0.162 J0
X-29.184 Y-39.437 Z-0.856 I0.162 J0
X-29.509 Y-39.437 Z-0.917 I-0.162 J0
X-29.184 Y-39.437 Z-0.978 I0.162 J0
X-29.509 Y-39.437 Z-1.039 I-0.162 J0
X-29.184 Y-39.437 Z-1.1 I0.162 J0
X-29.509 Y-39.437 Z-1.161 I-0.162 J0
X-29.184 Y-39.437 Z-1.222 I0.162 J0
X-29.509 Y-39.437 Z-1.283 I-0.162 J0
X-29.184 Y-39.437 Z-1.344 I0.162 J0
X-29.509 Y-39.437 Z-1.406 I-0.162 J0
X-29.184 Y-39.437 Z-1.467 I0.162 J0
X-29.509 Y-39.437 Z-1.528 I-0.162 J0
X-29.184 Y-39.437 Z-1.589 I0.162 J0
X-29.509 Y-39.437 Z-1.65 I-0.162 J0
X-29.184 Y-39.437 Z-1.711 I0.162 J0
X-29.509 Y-39.437 Z-1.772 I-0.162 J0
X-29.184 Y-39.437 Z-1.833 I0.162 J0
X-29.509 Y-39.437 Z-1.894 I-0.162 J0
X-29.184 Y-39.437 Z-1.956 I0.162 J0
X-29.509 Y-39.437 Z-2.017 I-0.162 J0
X-29.184 Y-39.437 Z-2.078 I0.162 J0
X-29.509 Y-39.437 Z-2.139 I-0.162 J0
X-29.184 Y-39.437 Z-2.2 I0.162 J0
X-29.509 Y-39.437 Z-2.261 I-0.162 J0
X-29.184 Y-39.437 Z-2.322 I0.162 J0
X-29.509 Y-39.437 Z-2.383 I-0.162 J0
X-29.184 Y-39.437 Z-2.444 I0.162 J0
X-29.509 Y-39.437 Z-2.506 I-0.162 J0
X-29.184 Y-39.437 Z-2.567 I0.162 J0
X-29.509 Y-39.437 Z-2.628 I-0.162 J0
X-29.184 Y-39.437 Z-2.689 I0.162 J0
X-29.509 Y-39.437 Z-2.75 I-0.162 J0
X-29.184 Y-39.437 Z-2.811 I0.162 J0
X-29.509 Y-39.437 Z-2.872 I-0.162 J0
X-29.184 Y-39.437 Z-2.933 I0.162 J0
X-29.509 Y-39.437 Z-2.994 I-0.162 J0
X-29.184 Y-39.437 Z-3.056 I0.162 J0
X-29.509 Y-39.437 Z-3.117 I-0.162 J0
X-29.184 Y-39.437 Z-3.178 I0.162 J0
X-29.509 Y-39.437 Z-3.239 I-0.162 J0
X-29.184 Y-39.437 Z-3.3 I0.162 J0
X-29.509 Y-39.437 Z-3.361 I-0.162 J0
X-29.184 Y-39.437 Z-3.422 I0.162 J0
X-29.509 Y-39.437 Z-3.483 I-0.162 J0
X-29.184 Y-39.437 Z-3.544 I0.162 J0
X-29.509 Y-39.437 Z-3.606 I-0.162 J0
X-29.184 Y-39.437 Z-3.667 I0.162 J0
X-29.509 Y-39.437 Z-3.728 I-0.162 J0
X-29.184 Y-39.437 Z-3.789 I0.162 J0
X-29.509 Y-39.437 Z-3.85 I-0.162 J0
X-29.184 Y-39.437 Z-3.911 I0.162 J0
X-29.509 Y-39.437 Z-3.972 I-0.162 J0
X-29.184 Y-39.437 Z-4.033 I0.162 J0
X-29.509 Y-39.437 Z-4.094 I-0.162 J0
X-29.184 Y-39.437 Z-4.156 I0.162 J0
X-29.509 Y-39.437 Z-4.217 I-0.162 J0
X-29.184 Y-39.437 Z-4.278 I0.162 J0
X-29.279 Y-39.289 Z-4.3 I-0.162 J0
X-29.414 Y-39.584 I-0.068 J-0.148
X-29.279 Y-39.289 I0.068 J0.148
G1 X-29.31 Y-39.281
X-29.341 Y-39.286
X-29.368 Y-39.303
X-29.387 Y-39.329
X-29.453 Y-39.473
Z15
(When using Fusion 360 for Personal Use, the feedrate of)
(rapid moves is reduced to match the feedrate of cutting)
(moves, which can increase machining time. Unrestricted rapid)
(moves are available with a Fusion 360 Subscription.)

(2D-Kontur7)
G0 X-11.03 Y-187.807
G1 Z15 F1000
Z5
Z2 F333.3
Z1
S5000
X-11.028
X-11.009 Y-187.806 Z0.999
X-10.994 Y-187.803
X-10.984 Y-187.8 Z0.998
X-10.967 Y-187.794
X-10.948 Y-187.784 Z0.997
X-10.938 Y-187.778
X-10.928 Y-187.771 Z0.996
X-10.912 Y-187.755 Z0.995
X-10.901 Y-187.742
X-10.895 Y-187.734 Z0.994
X-10.888 Y-187.722
X-10.881 Y-187.705 Z0.993
X-10.875 Y-187.689
X-10.872 Y-187.674 Z0.992
X-10.87 Y-187.66
Y-187.642 Z0.991
X-10.871 Y-187.624 Z0.99
X-10.873 Y-187.612
X-10.876 Y-187.6
X-10.883 Y-187.583 Z0.989
X-10.89 Y-187.568 Z0.988
X-10.898 Y-187.555
X-10.907 Y-187.543 Z0.987
X-10.919 Y-187.531
X-10.933 Y-187.519 Z0.986
X-10.943 Y-187.512
X-10.954 Y-187.506 Z0.985
X-10.972 Y-187.497 Z0.984
X-10.99 Y-187.491
X-11 Y-187.489 Z0.983
X-11.014 Y-187.487
X-11.036 Z0.982
X-11.055 Y-187.488
X-11.065 Y-187.49 Z0.981
X-11.076 Y-187.493
X-11.092 Y-187.499 Z0.98
X-11.111 Y-187.509 Z0.979
X-11.122 Y-187.515
X-11.131 Y-187.522
X-11.148 Y-187.538 Z0.978
X-11.159 Y-187.551 Z0.977
X-11.165 Y-187.559
X-11.171 Y-187.57 Z0.976
X-11.179 Y-187.588
X-11.185 Y-187.605 Z0.975
X-11.188 Y-187.619
X-11.189 Y-187.633 Z0.974
X-11.19 Y-187.651 Z0.973
X-11.189 Y-187.669
X-11.187 Y-187.681 Z0.972
X-11.183 Y-187.693
X-11.177 Y-187.71 Z0.971
X-11.169 Y-187.725
X-11.161 Y-187.738 Z0.97
X-11.152 Y-187.75
X-11.14 Y-187.762 Z0.969
X-11.124 Y-187.776 Z0.968
X-11.113 Y-187.784
X-11.106 Y-187.788
X-11.091 Y-187.795 Z0.967
X-11.073 Y-187.801 Z0.966
X-11.055 Y-187.805
X-11.041 Y-187.807 Z0.965
X-11.028
X-11.009 Y-187.806 Z0.964
X-10.994 Y-187.803
X-10.984 Y-187.8 Z0.963
X-10.967 Y-187.794
X-10.948 Y-187.784 Z0.962
X-10.938 Y-187.778 Z0.961
X-10.928 Y-187.771
X-10.912 Y-187.755 Z0.96
X-10.901 Y-187.742
X-10.895 Y-187.734 Z0.959
X-10.888 Y-187.722
X-10.881 Y-187.705 Z0.958
X-10.875 Y-187.689
X-10.872 Y-187.674 Z0.957
X-10.87 Y-187.66
Y-187.642 Z0.956
X-10.871 Y-187.624 Z0.955
X-10.873 Y-187.612
X-10.876 Y-187.6 Z0.954
X-10.883 Y-187.583
X-10.89 Y-187.568 Z0.953
X-10.898 Y-187.555
X-10.907 Y-187.543 Z0.952
X-10.919 Y-187.531
X-10.933 Y-187.519 Z0.951
X-10.943 Y-187.512 Z0.95
X-10.954 Y-187.506
X-10.972 Y-187.497 Z0.949
X-10.99 Y-187.491
X-11 Y-187.489 Z0.948
X-11.014 Y-187.487
X-11.036 Z0.947
X-11.055 Y-187.488 Z0.946
X-11.065 Y-187.49
X-11.076 Y-187.493
X-11.092 Y-187.499 Z0.945
X-11.111 Y-187.509 Z0.944
X-11.122 Y-187.515
X-11.131 Y-187.522 Z0.943
X-11.148 Y-187.538
X-11.159 Y-187.551 Z0.942
X-11.165 Y-187.559
X-11.171 Y-187.57 Z0.941
X-11.179 Y-187.588
X-11.185 Y-187.605 Z0.94
X-11.188 Y-187.619 Z0.939
X-11.189 Y-187.633
X-11.19 Y-187.651 Z0.938
X-11.189 Y-187.669
X-11.187 Y-187.681 Z0.937
X-11.183 Y-187.693
X-11.177 Y-187.71 Z0.936
X-11.169 Y-187.725
X-11.161 Y-187.738 Z0.935
X-11.152 Y-187.75
X-11.14 Y-187.762 Z0.934
X-11.124 Y-187.776 Z0.933
X-11.113 Y-187.784
X-11.106 Y-187.788 Z0.932
X-11.091 Y-187.795
X-11.073 Y-187.801 Z0.931
X-11.055 Y-187.805
X-11.041 Y-187.807 Z0.93
X-11.028
X-11.009 Y-187.806 Z0.929
X-10.994 Y-187.803 Z0.928
X-10.984 Y-187.8
X-10.967 Y-187.794 Z0.927
X-10.948 Y-187.784
X-10.938 Y-187.778 Z0.926
X-10.928 Y-187.771
X-10.912 Y-187.755 Z0.925
X-10.901 Y-187.742 Z0.924
X-10.895 Y-187.734
X-10.888 Y-187.722
X-10.881 Y-187.705 Z0.923
X-10.875 Y-187.689 Z0.922
X-10.872 Y-187.674
X-10.87 Y-187.66 Z0.921
Y-187.642
X-10.871 Y-187.624 Z0.92
X-10.873 Y-187.612
X-10.876 Y-187.6 Z0.919
X-10.883 Y-187.583
X-10.89 Y-187.568 Z0.918
X-10.898 Y-187.555 Z0.917
X-10.907 Y-187.543
X-10.919 Y-187.531 Z0.916
X-10.933 Y-187.519
X-10.943 Y-187.512 Z0.915
X-10.954 Y-187.506
X-10.972 Y-187.497 Z0.914
X-10.99 Y-187.491 Z0.913
X-11 Y-187.489
X-11.014 Y-187.487
X-11.036 Z0.912
X-11.055 Y-187.488 Z0.911
X-11.065 Y-187.49
X-11.076 Y-187.493 Z0.91
X-11.092 Y-187.499
X-11.111 Y-187.509 Z0.909
X-11.122 Y-187.515
X-11.131 Y-187.522 Z0.908
X-11.148 Y-187.538 Z0.907
X-11.159 Y-187.551
X-11.165 Y-187.559
X-11.171 Y-187.57 Z0.906
X-11.179 Y-187.588 Z0.905
X-11.185 Y-187.605
X-11.188 Y-187.619 Z0.904
X-11.189 Y-187.633
X-11.19 Y-187.651 Z0.903
X-11.189 Y-187.669
X-11.187 Y-187.681 Z0.902
X-11.183 Y-187.693
X-11.177 Y-187.71 Z0.901
X-11.169 Y-187.725 Z0.9
X-11.161 Y-187.738
X-11.152 Y-187.75 Z0.899
X-11.14 Y-187.762
X-11.124 Y-187.776 Z0.898
X-11.113 Y-187.784
X-11.106 Y-187.788 Z0.897
X-11.091 Y-187.795
X-11.073 Y-187.801 Z0.896
X-11.055 Y-187.805 Z0.895
X-11.041 Y-187.807
X-11.028 Z0.894
X-11.009 Y-187.806
X-10.994 Y-187.803 Z0.893
X-10.984 Y-187.8
X-10.967 Y-187.794 Z0.892
X-10.948 Y-187.784
X-10.938 Y-187.778 Z0.891
X-10.928 Y-187.771
X-10.912 Y-187.755 Z0.89
X-10.901 Y-187.742 Z0.889
X-10.895 Y-187.734
X-10.888 Y-187.722 Z0.888
X-10.881 Y-187.705
X-10.875 Y-187.689 Z0.887
X-10.872 Y-187.674
X-10.87 Y-187.66 Z0.886
Y-187.642
X-10.871 Y-187.624 Z0.885
X-10.873 Y-187.612
X-10.876 Y-187.6 Z0.884
X-10.883 Y-187.583 Z0.883
X-10.89 Y-187.568
X-10.898 Y-187.555 Z0.882
X-10.907 Y-187.543
X-10.919 Y-187.531 Z0.881
X-10.933 Y-187.519
X-10.943 Y-187.512 Z0.88
X-10.954 Y-187.506
X-10.972 Y-187.497 Z0.879
X-10.99 Y-187.491 Z0.878
X-11 Y-187.489
X-11.014 Y-187.487 Z0.877
X-11.036
X-11.055 Y-187.488 Z0.876
X-11.065 Y-187.49
X-11.076 Y-187.493 Z0.875
X-11.092 Y-187.499
X-11.111 Y-187.509 Z0.874
X-11.122 Y-187.515
X-11.131 Y-187.522 Z0.873
X-11.148 Y-187.538 Z0.872
X-11.159 Y-187.551
X-11.165 Y-187.559 Z0.871
X-11.171 Y-187.57
X-11.179 Y-187.588 Z0.87
X-11.185 Y-187.605
X-11.188 Y-187.619 Z0.869
X-11.189 Y-187.633
X-11.19 Y-187.651 Z0.868
X-11.189 Y-187.669 Z0.867
X-11.187 Y-187.681
X-11.183 Y-187.693 Z0.866
X-11.177 Y-187.71
X-11.169 Y-187.725 Z0.865
X-11.161 Y-187.738
X-11.152 Y-187.75 Z0.864
X-11.14 Y-187.762
X-11.124 Y-187.776 Z0.863
X-11.113 Y-187.784 Z0.862
X-11.106 Y-187.788
X-11.091 Y-187.795
X-11.073 Y-187.801 Z0.861
X-11.055 Y-187.805 Z0.86
X-11.041 Y-187.807
X-11.028 Z0.859
X-11.009 Y-187.806
X-10.994 Y-187.803 Z0.858
X-10.984 Y-187.8
X-10.967 Y-187.794 Z0.857
X-10.948 Y-187.784 Z0.856
X-10.938 Y-187.778
X-10.928 Y-187.771
X-10.912 Y-187.755 Z0.855
X-10.901 Y-187.742 Z0.854
X-10.895 Y-187.734
X-10.888 Y-187.722 Z0.853
X-10.881 Y-187.705
X-10.875 Y-187.689 Z0.852
X-10.872 Y-187.674
X-10.87 Y-187.66 Z0.851
Y-187.642 Z0.85
X-10.871 Y-187.624
X-10.873 Y-187.612 Z0.849
X-10.876 Y-187.6
X-10.883 Y-187.583 Z0.848
X-10.89 Y-187.568
X-10.898 Y-187.555 Z0.847
X-10.907 Y-187.543
X-10.919 Y-187.531 Z0.846
X-10.933 Y-187.519 Z0.845
X-10.943 Y-187.512
X-10.954 Y-187.506
X-10.972 Y-187.497 Z0.844
X-10.99 Y-187.491 Z0.843
X-11 Y-187.489
X-11.014 Y-187.487 Z0.842
X-11.036
X-11.055 Y-187.488 Z0.841
X-11.065 Y-187.49
X-11.076 Y-187.493 Z0.84
X-11.092 Y-187.499
X-11.111 Y-187.509 Z0.839
X-11.122 Y-187.515 Z0.838
X-11.131 Y-187.522
X-11.148 Y-187.538 Z0.837
X-11.159 Y-187.551
X-11.165 Y-187.559 Z0.836
X-11.171 Y-187.57
X-11.179 Y-187.588 Z0.835
X-11.185 Y-187.605 Z0.834
X-11.188 Y-187.619
X-11.189 Y-187.633 Z0.833
X-11.19 Y-187.651
X-11.189 Y-187.669 Z0.832
X-11.187 Y-187.681
X-11.183 Y-187.693 Z0.831
X-11.177 Y-187.71
X-11.169 Y-187.725 Z0.83
X-11.161 Y-187.738
X-11.152 Y-187.75 Z0.829
X-11.14 Y-187.762 Z0.828
X-11.124 Y-187.776
X-11.113 Y-187.784 Z0.827
X-11.106 Y-187.788
X-11.091 Y-187.795 Z0.826
X-11.073 Y-187.801
X-11.055 Y-187.805 Z0.825
X-11.041 Y-187.807
X-11.028 Z0.824
X-11.009 Y-187.806 Z0.823
X-10.994 Y-187.803
X-10.984 Y-187.8
X-10.967 Y-187.794 Z0.822
X-10.948 Y-187.784 Z0.821
X-10.938 Y-187.778
X-10.928 Y-187.771 Z0.82
X-10.912 Y-187.755
X-10.901 Y-187.742 Z0.819
X-10.895 Y-187.734
X-10.888 Y-187.722 Z0.818
X-10.881 Y-187.705
X-10.875 Y-187.689 Z0.817
X-10.872 Y-187.674 Z0.816
X-10.87 Y-187.66
Y-187.642 Z0.815
X-10.871 Y-187.624
X-10.873 Y-187.612 Z0.814
X-10.876 Y-187.6
X-10.883 Y-187.583 Z0.813
X-10.89 Y-187.568
X-10.898 Y-187.555 Z0.812
X-10.907 Y-187.543 Z0.811
X-10.919 Y-187.531
X-10.933 Y-187.519 Z0.81
X-10.943 Y-187.512
X-10.954 Y-187.506 Z0.809
X-10.972 Y-187.497
X-10.99 Y-187.491 Z0.808
X-11 Y-187.489
X-11.014 Y-187.487 Z0.807
X-11.036 Z0.806
X-11.055 Y-187.488
X-11.065 Y-187.49 Z0.805
X-11.076 Y-187.493
X-11.092 Y-187.499 Z0.804
X-11.111 Y-187.509
X-11.122 Y-187.515 Z0.803
X-11.131 Y-187.522
X-11.148 Y-187.538 Z0.802
X-11.159 Y-187.551 Z0.801
X-11.165 Y-187.559
X-11.171 Y-187.57
X-11.179 Y-187.588 Z0.8
X-11.185 Y-187.605 Z0.799
X-11.188 Y-187.619
X-11.189 Y-187.633 Z0.798
X-11.19 Y-187.651
X-11.189 Y-187.669 Z0.797
X-11.187 Y-187.681
X-11.183 Y-187.693 Z0.796
X-11.177 Y-187.71
X-11.169 Y-187.725 Z0.795
X-11.161 Y-187.738 Z0.794
X-11.152 Y-187.75
X-11.14 Y-187.762 Z0.793
X-11.124 Y-187.776
X-11.113 Y-187.784 Z0.792
X-11.106 Y-187.788
X-11.091 Y-187.795 Z0.791
X-11.073 Y-187.801
X-11.055 Y-187.805 Z0.79
X-11.041 Y-187.807 Z0.789
X-11.028
X-11.009 Y-187.806 Z0.788
X-10.994 Y-187.803
X-10.984 Y-187.8 Z0.787
X-10.967 Y-187.794
X-10.948 Y-187.784 Z0.786
X-10.938 Y-187.778
X-10.928 Y-187.771 Z0.785
X-10.912 Y-187.755 Z0.784
X-10.901 Y-187.742
X-10.895 Y-187.734 Z0.783
X-10.888 Y-187.722
X-10.881 Y-187.705 Z0.782
X-10.875 Y-187.689
X-10.872 Y-187.674 Z0.781
X-10.87 Y-187.66
Y-187.642 Z0.78
X-10.871 Y-187.624 Z0.779
X-10.873 Y-187.612
X-10.876 Y-187.6
X-10.883 Y-187.583 Z0.778
X-10.89 Y-187.568 Z0.777
X-10.898 Y-187.555
X-10.907 Y-187.543 Z0.776
X-10.919 Y-187.531
X-10.933 Y-187.519 Z0.775
X-10.943 Y-187.512
X-10.954 Y-187.506 Z0.774
X-10.972 Y-187.497
X-10.99 Y-187.491 Z0.773
X-11 Y-187.489
X-11.014 Y-187.487 Z0.772
X-11.036 Z0.771
X-11.055 Y-187.488
X-11.065 Y-187.49 Z0.77
X-11.076 Y-187.493
X-11.092 Y-187.499 Z0.769
X-11.111 Y-187.509 Z0.768
X-11.122 Y-187.515
X-11.131 Y-187.522
X-11.148 Y-187.538 Z0.767
X-11.159 Y-187.551 Z0.766
X-11.165 Y-187.559
X-11.171 Y-187.57 Z0.765
X-11.179 Y-187.588
X-11.185 Y-187.605 Z0.764
X-11.188 Y-187.619
X-11.189 Y-187.633 Z0.763
X-11.19 Y-187.651
X-11.189 Y-187.669 Z0.762
X-11.187 Y-187.681 Z0.761
X-11.183 Y-187.693
X-11.177 Y-187.71 Z0.76
X-11.169 Y-187.725
X-11.161 Y-187.738 Z0.759
X-11.152 Y-187.75
X-11.14 Y-187.762 Z0.758
X-11.124 Y-187.776 Z0.757
X-11.113 Y-187.784
X-11.106 Y-187.788
X-11.091 Y-187.795 Z0.756
X-11.073 Y-187.801 Z0.755
X-11.055 Y-187.805
X-11.041 Y-187.807 Z0.754
X-11.028
X-11.009 Y-187.806 Z0.753
X-10.994 Y-187.803
X-10.984 Y-187.8 Z0.752
X-10.967 Y-187.794
X-10.948 Y-187.784 Z0.751
X-10.938 Y-187.778 Z0.75
X-10.928 Y-187.771
X-10.912 Y-187.755 Z0.749
X-10.901 Y-187.742
X-10.895 Y-187.734 Z0.748
X-10.888 Y-187.722
X-10.881 Y-187.705 Z0.747
X-10.875 Y-187.689
X-10.872 Y-187.674 Z0.746
X-10.87 Y-187.66
Y-187.642 Z0.745
X-10.871 Y-187.624 Z0.744
X-10.873 Y-187.612
X-10.876 Y-187.6 Z0.743
X-10.883 Y-187.583
X-10.89 Y-187.568 Z0.742
X-10.898 Y-187.555
X-10.907 Y-187.543 Z0.741
X-10.919 Y-187.531
X-10.933 Y-187.519 Z0.74
X-10.943 Y-187.512 Z0.739
X-10.954 Y-187.506
X-10.972 Y-187.497 Z0.738
X-10.99 Y-187.491
X-11 Y-187.489 Z0.737
X-11.014 Y-187.487
X-11.036 Z0.736
X-11.055 Y-187.488 Z0.735
X-11.065 Y-187.49
X-11.076 Y-187.493
X-11.092 Y-187.499 Z0.734
X-11.111 Y-187.509 Z0.733
X-11.122 Y-187.515
X-11.131 Y-187.522 Z0.732
X-11.148 Y-187.538
X-11.159 Y-187.551 Z0.731
X-11.165 Y-187.559
X-11.171 Y-187.57 Z0.73
X-11.179 Y-187.588
X-11.185 Y-187.605 Z0.729
X-11.188 Y-187.619
X-11.189 Y-187.633 Z0.728
X-11.19 Y-187.651 Z0.727
X-11.189 Y-187.669
X-11.187 Y-187.681 Z0.726
X-11.183 Y-187.693
X-11.177 Y-187.71 Z0.725
X-11.169 Y-187.725
X-11.161 Y-187.738 Z0.724
X-11.152 Y-187.75
X-11.14 Y-187.762 Z0.723
X-11.124 Y-187.776 Z0.722
X-11.113 Y-187.784
X-11.106 Y-187.788 Z0.721
X-11.091 Y-187.795
X-11.073 Y-187.801 Z0.72
X-11.055 Y-187.805
X-11.041 Y-187.807 Z0.719
X-11.028
X-11.009 Y-187.806 Z0.718
X-10.994 Y-187.803 Z0.717
X-10.984 Y-187.8
X-10.967 Y-187.794 Z0.716
X-10.948 Y-187.784
X-10.938 Y-187.778 Z0.715
X-10.928 Y-187.771
X-10.912 Y-187.755 Z0.714
X-10.901 Y-187.742 Z0.713
X-10.895 Y-187.734
X-10.888 Y-187.722
X-10.881 Y-187.705 Z0.712
X-10.875 Y-187.689 Z0.711
X-10.872 Y-187.674
X-10.87 Y-187.66 Z0.71
Y-187.642
X-10.871 Y-187.624 Z0.709
X-10.873 Y-187.612
X-10.876 Y-187.6 Z0.708
X-10.883 Y-187.583
X-10.89 Y-187.568 Z0.707
X-10.898 Y-187.555
X-10.907 Y-187.543 Z0.706
X-10.919 Y-187.531 Z0.705
X-10.933 Y-187.519
X-10.943 Y-187.512 Z0.704
X-10.954 Y-187.506
X-10.972 Y-187.497 Z0.703
X-10.99 Y-187.491
X-11 Y-187.489 Z0.702
X-11.014 Y-187.487
X-11.036 Z0.701
X-11.055 Y-187.488 Z0.7
X-11.065 Y-187.49
X-11.076 Y-187.493
X-11.092 Y-187.499 Z0.699
X-11.111 Y-187.509 Z0.698
X-11.122 Y-187.515
X-11.131 Y-187.522 Z0.697
X-11.148 Y-187.538
X-11.159 Y-187.551 Z0.696
X-11.165 Y-187.559
X-11.171 Y-187.57 Z0.695
X-11.179 Y-187.588 Z0.694
X-11.185 Y-187.605
X-11.188 Y-187.619 Z0.693
X-11.189 Y-187.633
X-11.19 Y-187.651 Z0.692
X-11.189 Y-187.669
X-11.187 Y-187.681 Z0.691
X-11.183 Y-187.693
X-11.177 Y-187.71 Z0.69
X-11.169 Y-187.725 Z0.689
X-11.161 Y-187.738
X-11.152 Y-187.75 Z0.688
X-11.14 Y-187.762
X-11.124 Y-187.776 Z0.687
X-11.113 Y-187.784
X-11.106 Y-187.788 Z0.686
X-11.091 Y-187.795
X-11.073 Y-187.801 Z0.685
X-11.055 Y-187.805 Z0.684
X-11.041 Y-187.807
X-11.028
X-11.009 Y-187.806 Z0.683
X-10.994 Y-187.803 Z0.682
X-10.984 Y-187.8
X-10.967 Y-187.794 Z0.681
X-10.948 Y-187.784
X-10.938 Y-187.778 Z0.68
X-10.928 Y-187.771
X-10.912 Y-187.755 Z0.679
X-10.901 Y-187.742 Z0.678
X-10.895 Y-187.734
X-10.888 Y-187.722
X-10.881 Y-187.705 Z0.677
X-10.875 Y-187.689 Z0.676
X-10.872 Y-187.674
X-10.87 Y-187.66 Z0.675
Y-187.642
X-10.871 Y-187.624 Z0.674
X-10.873 Y-187.612
X-10.876 Y-187.6 Z0.673
X-10.883 Y-187.583
X-10.89 Y-187.568 Z0.672
X-10.898 Y-187.555 Z0.671
X-10.907 Y-187.543
X-10.919 Y-187.531 Z0.67
X-10.933 Y-187.519
X-10.943 Y-187.512 Z0.669
X-10.954 Y-187.506
X-10.972 Y-187.497 Z0.668
X-10.99 Y-187.491 Z0.667
X-11 Y-187.489
X-11.014 Y-187.487
X-11.036 Z0.666
X-11.055 Y-187.488 Z0.665
X-11.065 Y-187.49
X-11.076 Y-187.493 Z0.664
X-11.092 Y-187.499
X-11.111 Y-187.509 Z0.663
X-11.122 Y-187.515
X-11.131 Y-187.522 Z0.662
X-11.148 Y-187.538 Z0.661
X-11.159 Y-187.551
X-11.165 Y-187.559 Z0.66
X-11.171 Y-187.57
X-11.179 Y-187.588 Z0.659
X-11.185 Y-187.605
X-11.188 Y-187.619 Z0.658
X-11.189 Y-187.633
X-11.19 Y-187.651 Z0.657
X-11.189 Y-187.669 Z0.656
X-11.187 Y-187.681
X-11.183 Y-187.693
X-11.177 Y-187.71 Z0.655
X-11.169 Y-187.725 Z0.654
X-11.161 Y-187.738
X-11.152 Y-187.75 Z0.653
X-11.14 Y-187.762
X-11.124 Y-187.776 Z0.652
X-11.113 Y-187.784 Z0.651
X-11.106 Y-187.788
X-11.091 Y-187.795
X-11.073 Y-187.801 Z0.65
X-11.055 Y-187.805 Z0.649
X-11.041 Y-187.807
X-11.028 Z0.648
X-11.009 Y-187.806
X-10.994 Y-187.803 Z0.647
X-10.984 Y-187.8
X-10.967 Y-187.794 Z0.646
X-10.948 Y-187.784 Z0.645
X-10.938 Y-187.778
X-10.928 Y-187.771
X-10.912 Y-187.755 Z0.644
X-10.901 Y-187.742 Z0.643
X-10.895 Y-187.734
X-10.888 Y-187.722 Z0.642
X-10.881 Y-187.705
X-10.875 Y-187.689 Z0.641
X-10.872 Y-187.674
X-10.87 Y-187.66 Z0.64
Y-187.642 Z0.639
X-10.871 Y-187.624
X-10.873 Y-187.612 Z0.638
X-10.876 Y-187.6
X-10.883 Y-187.583 Z0.637
X-10.89 Y-187.568
X-10.898 Y-187.555 Z0.636
X-10.907 Y-187.543
X-10.919 Y-187.531 Z0.635
X-10.933 Y-187.519 Z0.634
X-10.943 Y-187.512
X-10.954 Y-187.506
X-10.972 Y-187.497 Z0.633
X-10.99 Y-187.491 Z0.632
X-11 Y-187.489
X-11.014 Y-187.487 Z0.631
X-11.036
X-11.055 Y-187.488 Z0.63
X-11.065 Y-187.49
X-11.076 Y-187.493 Z0.629
X-11.092 Y-187.499
X-11.111 Y-187.509 Z0.628
X-11.122 Y-187.515 Z0.627
X-11.131 Y-187.522
X-11.148 Y-187.538 Z0.626
X-11.159 Y-187.551
X-11.165 Y-187.559 Z0.625
X-11.171 Y-187.57
X-11.179 Y-187.588 Z0.624
X-11.185 Y-187.605 Z0.623
X-11.188 Y-187.619
X-11.189 Y-187.633
X-11.19 Y-187.651 Z0.622
X-11.189 Y-187.669 Z0.621
X-11.187 Y-187.681
X-11.183 Y-187.693 Z0.62
X-11.177 Y-187.71
X-11.169 Y-187.725 Z0.619
X-11.161 Y-187.738
X-11.152 Y-187.75 Z0.618
X-11.14 Y-187.762
X-11.124 Y-187.776 Z0.617
X-11.113 Y-187.784 Z0.616
X-11.106 Y-187.788
X-11.091 Y-187.795 Z0.615
X-11.073 Y-187.801
X-11.055 Y-187.805 Z0.614
X-11.041 Y-187.807
X-11.028 Z0.613
X-11.009 Y-187.806
X-10.994 Y-187.803 Z0.612
X-10.984 Y-187.8
X-10.967 Y-187.794 Z0.611
X-10.948 Y-187.784 Z0.61
X-10.938 Y-187.778
X-10.928 Y-187.771 Z0.609
X-10.912 Y-187.755
X-10.901 Y-187.742 Z0.608
X-10.895 Y-187.734
X-10.888 Y-187.722 Z0.607
X-10.881 Y-187.705
X-10.875 Y-187.689 Z0.606
X-10.872 Y-187.674 Z0.605
X-10.87 Y-187.66
Y-187.642 Z0.604
X-10.871 Y-187.624
X-10.873 Y-187.612 Z0.603
X-10.876 Y-187.6
X-10.883 Y-187.583 Z0.602
X-10.89 Y-187.568
X-10.898 Y-187.555 Z0.601
X-10.907 Y-187.543
X-10.919 Y-187.531 Z0.6
X-10.933 Y-187.519 Z0.599
X-10.943 Y-187.512
X-10.954 Y-187.506 Z0.598
X-10.972 Y-187.497
X-10.99 Y-187.491 Z0.597
X-11 Y-187.489
X-11.014 Y-187.487 Z0.596
X-11.036 Z0.595
X-11.055 Y-187.488
X-11.065 Y-187.49 Z0.594
X-11.076 Y-187.493
X-11.092 Y-187.499 Z0.593
X-11.111 Y-187.509
X-11.122 Y-187.515 Z0.592
X-11.131 Y-187.522
X-11.148 Y-187.538 Z0.591
X-11.159 Y-187.551 Z0.59
X-11.165 Y-187.559
X-11.171 Y-187.57
X-11.179 Y-187.588 Z0.589
X-11.185 Y-187.605 Z0.588
X-11.188 Y-187.619
X-11.189 Y-187.633 Z0.587
X-11.19 Y-187.651
X-11.189 Y-187.669 Z0.586
X-11.187 Y-187.681
X-11.183 Y-187.693 Z0.585
X-11.177 Y-187.71
X-11.169 Y-187.725 Z0.584
X-11.161 Y-187.738 Z0.583
X-11.152 Y-187.75
X-11.14 Y-187.762 Z0.582
X-11.124 Y-187.776
X-11.113 Y-187.784 Z0.581
X-11.106 Y-187.788
X-11.091 Y-187.795 Z0.58
X-11.073 Y-187.801
X-11.055 Y-187.805 Z0.579
X-11.041 Y-187.807 Z0.578
X-11.028
X-11.009 Y-187.806 Z0.577
X-10.994 Y-187.803
X-10.984 Y-187.8 Z0.576
X-10.967 Y-187.794
X-10.948 Y-187.784 Z0.575
X-10.938 Y-187.778
X-10.928 Y-187.771 Z0.574
X-10.912 Y-187.755 Z0.573
X-10.901 Y-187.742
X-10.895 Y-187.734
X-10.888 Y-187.722 Z0.572
X-10.881 Y-187.705 Z0.571
X-10.875 Y-187.689
X-10.872 Y-187.674 Z0.57
X-10.87 Y-187.66
Y-187.642 Z0.569
X-10.871 Y-187.624
X-10.873 Y-187.612 Z0.568
X-10.876 Y-187.6
X-10.883 Y-187.583 Z0.567
X-10.89 Y-187.568 Z0.566
X-10.898 Y-187.555
X-10.907 Y-187.543 Z0.565
X-10.919 Y-187.531
X-10.933 Y-187.519 Z0.564
X-10.943 Y-187.512
X-10.954 Y-187.506 Z0.563
X-10.972 Y-187.497
X-10.99 Y-187.491 Z0.562
X-11 Y-187.489
X-11.014 Y-187.487 Z0.561
X-11.036 Z0.56
X-11.055 Y-187.488
X-11.065 Y-187.49 Z0.559
X-11.076 Y-187.493
X-11.092 Y-187.499 Z0.558
X-11.111 Y-187.509
X-11.122 Y-187.515 Z0.557
X-11.131 Y-187.522
X-11.148 Y-187.538 Z0.556
X-11.159 Y-187.551 Z0.555
X-11.165 Y-187.559
X-11.171 Y-187.57
X-11.179 Y-187.588 Z0.554
X-11.185 Y-187.605 Z0.553
X-11.188 Y-187.619
X-11.189 Y-187.633 Z0.552
X-11.19 Y-187.651
X-11.189 Y-187.669 Z0.551
X-11.187 Y-187.681
X-11.183 Y-187.693 Z0.55
X-11.177 Y-187.71 Z0.549
X-11.169 Y-187.725
X-11.161 Y-187.738 Z0.548
X-11.152 Y-187.75
X-11.14 Y-187.762 Z0.547
X-11.124 Y-187.776 Z0.546
X-11.113 Y-187.784
X-11.106 Y-187.788
X-11.091 Y-187.795 Z0.545
X-11.073 Y-187.801 Z0.544
X-11.055 Y-187.805
X-11.041 Y-187.807 Z0.543
X-11.028
X-11.009 Y-187.806 Z0.542
X-10.994 Y-187.803
X-10.984 Y-187.8 Z0.541
X-10.967 Y-187.794
X-10.948 Y-187.784 Z0.54
X-10.938 Y-187.778
X-10.928 Y-187.771 Z0.539
X-10.912 Y-187.755 Z0.538
X-10.901 Y-187.742
X-10.895 Y-187.734 Z0.537
X-10.888 Y-187.722
X-10.881 Y-187.705 Z0.536
X-10.875 Y-187.689
X-10.872 Y-187.674 Z0.535
X-10.87 Y-187.66
Y-187.642 Z0.534
X-10.871 Y-187.624 Z0.533
X-10.873 Y-187.612
X-10.876 Y-187.6 Z0.532
X-10.883 Y-187.583
X-10.89 Y-187.568 Z0.531
X-10.898 Y-187.555
X-10.907 Y-187.543 Z0.53
X-10.919 Y-187.531
X-10.933 Y-187.519 Z0.529
X-10.943 Y-187.512
X-10.954 Y-187.506 Z0.528
X-10.972 Y-187.497 Z0.527
X-10.99 Y-187.491
X-11 Y-187.489 Z0.526
X-11.014 Y-187.487
X-11.036 Z0.525
X-11.055 Y-187.488 Z0.524
X-11.065 Y-187.49
X-11.076 Y-187.493
X-11.092 Y-187.499 Z0.523
X-11.111 Y-187.509 Z0.522
X-11.122 Y-187.515
X-11.131 Y-187.522
X-11.148 Y-187.538 Z0.521
X-11.159 Y-187.551 Z0.52
X-11.165 Y-187.559
X-11.171 Y-187.57 Z0.519
X-11.179 Y-187.588
X-11.185 Y-187.605 Z0.518
X-11.188 Y-187.619
X-11.189 Y-187.633 Z0.517
X-11.19 Y-187.651 Z0.516
X-11.189 Y-187.669
X-11.187 Y-187.681 Z0.515
X-11.183 Y-187.693
X-11.177 Y-187.71 Z0.514
X-11.169 Y-187.725
X-11.161 Y-187.738 Z0.513
X-11.152 Y-187.75
X-11.14 Y-187.762 Z0.512
X-11.124 Y-187.776 Z0.511
X-11.113 Y-187.784
X-11.106 Y-187.788
X-11.091 Y-187.795 Z0.51
X-11.073 Y-187.801 Z0.509
X-11.055 Y-187.805
X-11.041 Y-187.807 Z0.508
X-11.028
X-11.009 Y-187.806 Z0.507
X-10.994 Y-187.803
X-10.984 Y-187.8 Z0.506
X-10.967 Y-187.794
X-10.948 Y-187.784 Z0.505
X-10.938 Y-187.778 Z0.504
X-10.928 Y-187.771
X-10.912 Y-187.755 Z0.503
X-10.901 Y-187.742
X-10.895 Y-187.734 Z0.502
X-10.888 Y-187.722
X-10.881 Y-187.705 Z0.501
X-10.875 Y-187.689 Z0.5
X-10.872 Y-187.674
X-10.87 Y-187.66 Z0.499
Y-187.642
X-10.871 Y-187.624 Z0.498
X-10.873 Y-187.612
X-10.876 Y-187.6 Z0.497
X-10.883 Y-187.583
X-10.89 Y-187.568 Z0.496
X-10.898 Y-187.555
X-10.907 Y-187.543 Z0.495
X-10.919 Y-187.531 Z0.494
X-10.933 Y-187.519
X-10.943 Y-187.512 Z0.493
X-10.954 Y-187.506
X-10.972 Y-187.497 Z0.492
X-10.99 Y-187.491
X-11 Y-187.489 Z0.491
X-11.014 Y-187.487
X-11.036 Z0.49
X-11.055 Y-187.488 Z0.489
X-11.065 Y-187.49
X-11.076 Y-187.493
X-11.092 Y-187.499 Z0.488
X-11.111 Y-187.509 Z0.487
X-11.122 Y-187.515
X-11.131 Y-187.522 Z0.486
X-11.148 Y-187.538
X-11.159 Y-187.551 Z0.485
X-11.165 Y-187.559
X-11.171 Y-187.57 Z0.484
X-11.179 Y-187.588
X-11.185 Y-187.605 Z0.483
X-11.188 Y-187.619 Z0.482
X-11.189 Y-187.633
X-11.19 Y-187.651 Z0.481
X-11.189 Y-187.669
X-11.187 Y-187.681 Z0.48
X-11.183 Y-187.693
X-11.177 Y-187.71 Z0.479
X-11.169 Y-187.725
X-11.161 Y-187.738 Z0.478
X-11.152 Y-187.75
X-11.14 Y-187.762 Z0.477
X-11.124 Y-187.776 Z0.476
X-11.113 Y-187.784
X-11.106 Y-187.788 Z0.475
X-11.091 Y-187.795
X-11.073 Y-187.801 Z0.474
X-11.055 Y-187.805
X-11.041 Y-187.807 Z0.473
X-11.028
X-11.009 Y-187.806 Z0.472
X-10.994 Y-187.803 Z0.471
X-10.984 Y-187.8
X-10.967 Y-187.794 Z0.47
X-10.948 Y-187.784
X-10.938 Y-187.778 Z0.469
X-10.928 Y-187.771
X-10.912 Y-187.755 Z0.468
X-10.901 Y-187.742 Z0.467
X-10.895 Y-187.734
X-10.888 Y-187.722
X-10.881 Y-187.705 Z0.466
X-10.875 Y-187.689 Z0.465
X-10.872 Y-187.674
X-10.87 Y-187.66 Z0.464
Y-187.642
X-10.871 Y-187.624 Z0.463
X-10.873 Y-187.612
X-10.876 Y-187.6 Z0.462
X-10.883 Y-187.583
X-10.89 Y-187.568 Z0.461
X-10.898 Y-187.555 Z0.46
X-10.907 Y-187.543
X-10.919 Y-187.531 Z0.459
X-10.933 Y-187.519
X-10.943 Y-187.512 Z0.458
X-10.954 Y-187.506
X-10.972 Y-187.497 Z0.457
X-10.99 Y-187.491 Z0.456
X-11 Y-187.489
X-11.014 Y-187.487
X-11.036 Z0.455
X-11.055 Y-187.488 Z0.454
X-11.065 Y-187.49
X-11.076 Y-187.493 Z0.453
X-11.092 Y-187.499
X-11.111 Y-187.509 Z0.452
X-11.122 Y-187.515
X-11.131 Y-187.522 Z0.451
X-11.148 Y-187.538 Z0.45
X-11.159 Y-187.551
X-11.165 Y-187.559 Z0.449
X-11.171 Y-187.57
X-11.179 Y-187.588 Z0.448
X-11.185 Y-187.605
X-11.188 Y-187.619 Z0.447
X-11.189 Y-187.633
X-11.19 Y-187.651 Z0.446
X-11.189 Y-187.669 Z0.445
X-11.187 Y-187.681
X-11.183 Y-187.693
X-11.177 Y-187.71 Z0.444
X-11.169 Y-187.725 Z0.443
X-11.161 Y-187.738
X-11.152 Y-187.75 Z0.442
X-11.14 Y-187.762
X-11.124 Y-187.776 Z0.441
X-11.113 Y-187.784 Z0.44
X-11.106 Y-187.788
X-11.091 Y-187.795
X-11.073 Y-187.801 Z0.439
X-11.055 Y-187.805 Z0.438
X-11.041 Y-187.807
X-11.028 Z0.437
X-11.009 Y-187.806
X-10.994 Y-187.803 Z0.436
X-10.984 Y-187.8
X-10.967 Y-187.794 Z0.435
X-10.948 Y-187.784 Z0.434
X-10.938 Y-187.778
X-10.928 Y-187.771
X-10.912 Y-187.755 Z0.433
X-10.901 Y-187.742 Z0.432
X-10.895 Y-187.734
X-10.888 Y-187.722 Z0.431
X-10.881 Y-187.705
X-10.875 Y-187.689 Z0.43
X-10.872 Y-187.674
X-10.87 Y-187.66 Z0.429
Y-187.642
X-10.871 Y-187.624 Z0.428
X-10.873 Y-187.612 Z0.427
X-10.876 Y-187.6
X-10.883 Y-187.583 Z0.426
X-10.89 Y-187.568
X-10.898 Y-187.555 Z0.425
X-10.907 Y-187.543
X-10.919 Y-187.531 Z0.424
X-10.933 Y-187.519
X-10.943 Y-187.512 Z0.423
X-10.954 Y-187.506
X-10.972 Y-187.497 Z0.422
X-10.99 Y-187.491 Z0.421
X-11 Y-187.489
X-11.014 Y-187.487 Z0.42
X-11.036
X-11.055 Y-187.488 Z0.419
X-11.065 Y-187.49
X-11.076 Y-187.493 Z0.418
X-11.092 Y-187.499
X-11.111 Y-187.509 Z0.417
X-11.122 Y-187.515 Z0.416
X-11.131 Y-187.522
X-11.148 Y-187.538 Z0.415
X-11.159 Y-187.551
X-11.165 Y-187.559 Z0.414
X-11.171 Y-187.57
X-11.179 Y-187.588 Z0.413
X-11.185 Y-187.605
X-11.188 Y-187.619 Z0.412
X-11.189 Y-187.633
X-11.19 Y-187.651 Z0.411
X-11.189 Y-187.669 Z0.41
X-11.187 Y-187.681
X-11.183 Y-187.693 Z0.409
X-11.177 Y-187.71
X-11.169 Y-187.725 Z0.408
X-11.161 Y-187.738
X-11.152 Y-187.75 Z0.407
X-11.14 Y-187.762
X-11.124 Y-187.776 Z0.406
X-11.113 Y-187.784 Z0.405
X-11.106 Y-187.788
X-11.091 Y-187.795
X-11.073 Y-187.801 Z0.404
X-11.055 Y-187.805 Z0.403
X-11.041 Y-187.807
X-11.028 Z0.402
X-11.009 Y-187.806
X-10.994 Y-187.803 Z0.401
X-10.984 Y-187.8
X-10.967 Y-187.794 Z0.4
X-10.948 Y-187.784 Z0.399
X-10.938 Y-187.778
X-10.928 Y-187.771 Z0.398
X-10.912 Y-187.755
X-10.901 Y-187.742 Z0.397
X-10.895 Y-187.734
X-10.888 Y-187.722 Z0.396
X-10.881 Y-187.705
X-10.875 Y-187.689 Z0.395
X-10.872 Y-187.674 Z0.394
X-10.87 Y-187.66
Y-187.642 Z0.393
X-10.871 Y-187.624
X-10.873 Y-187.612 Z0.392
X-10.876 Y-187.6
X-10.883 Y-187.583 Z0.391
X-10.89 Y-187.568
X-10.898 Y-187.555 Z0.39
X-10.907 Y-187.543
X-10.919 Y-187.531 Z0.389
X-10.933 Y-187.519 Z0.388
X-10.943 Y-187.512
X-10.954 Y-187.506
X-10.972 Y-187.497 Z0.387
X-10.99 Y-187.491 Z0.386
X-11 Y-187.489
X-11.014 Y-187.487 Z0.385
X-11.036
X-11.055 Y-187.488 Z0.384
X-11.065 Y-187.49 Z0.383
X-11.076 Y-187.493
X-11.092 Y-187.499
X-11.111 Y-187.509 Z0.382
X-11.122 Y-187.515 Z0.381
X-11.131 Y-187.522
X-11.148 Y-187.538 Z0.38
X-11.159 Y-187.551
X-11.165 Y-187.559 Z0.379
X-11.171 Y-187.57
X-11.179 Y-187.588 Z0.378
X-11.185 Y-187.605 Z0.377
X-11.188 Y-187.619
X-11.189 Y-187.633 Z0.376
X-11.19 Y-187.651
X-11.189 Y-187.669 Z0.375
X-11.187 Y-187.681
X-11.183 Y-187.693 Z0.374
X-11.177 Y-187.71
X-11.169 Y-187.725 Z0.373
X-11.161 Y-187.738
X-11.152 Y-187.75 Z0.372
X-11.14 Y-187.762 Z0.371
X-11.124 Y-187.776
X-11.113 Y-187.784 Z0.37
X-11.106 Y-187.788
X-11.091 Y-187.795 Z0.369
X-11.073 Y-187.801
X-11.055 Y-187.805 Z0.368
X-11.041 Y-187.807
X-11.028 Z0.367
X-11.009 Y-187.806 Z0.366
X-10.994 Y-187.803
X-10.984 Y-187.8
X-10.967 Y-187.794 Z0.365
X-10.948 Y-187.784 Z0.364
X-10.938 Y-187.778
X-10.928 Y-187.771 Z0.363
X-10.912 Y-187.755
X-10.901 Y-187.742 Z0.362
X-10.895 Y-187.734
X-10.888 Y-187.722 Z0.361
X-10.881 Y-187.705 Z0.36
X-10.875 Y-187.689
X-10.872 Y-187.674 Z0.359
X-10.87 Y-187.66
Y-187.642 Z0.358
X-10.871 Y-187.624
X-10.873 Y-187.612 Z0.357
X-10.876 Y-187.6
X-10.883 Y-187.583 Z0.356
X-10.89 Y-187.568 Z0.355
X-10.898 Y-187.555
X-10.907 Y-187.543 Z0.354
X-10.919 Y-187.531
X-10.933 Y-187.519 Z0.353
X-10.943 Y-187.512
X-10.954 Y-187.506 Z0.352
X-10.972 Y-187.497
X-10.99 Y-187.491 Z0.351
X-11 Y-187.489
X-11.014 Y-187.487 Z0.35
X-11.036 Z0.349
X-11.055 Y-187.488
X-11.065 Y-187.49 Z0.348
X-11.076 Y-187.493
X-11.092 Y-187.499 Z0.347
X-11.111 Y-187.509
X-11.122 Y-187.515 Z0.346
X-11.131 Y-187.522
X-11.148 Y-187.538 Z0.345
X-11.159 Y-187.551 Z0.344
X-11.165 Y-187.559
X-11.171 Y-187.57
X-11.179 Y-187.588 Z0.343
X-11.185 Y-187.605 Z0.342
X-11.188 Y-187.619
X-11.189 Y-187.633 Z0.341
X-11.19 Y-187.651
X-11.189 Y-187.669 Z0.34
X-11.187 Y-187.681
X-11.183 Y-187.693 Z0.339
X-11.177 Y-187.71
X-11.169 Y-187.725 Z0.338
X-11.161 Y-187.738 Z0.337
X-11.152 Y-187.75
X-11.14 Y-187.762 Z0.336
X-11.124 Y-187.776
X-11.113 Y-187.784 Z0.335
X-11.106 Y-187.788
X-11.091 Y-187.795 Z0.334
X-11.073 Y-187.801
X-11.055 Y-187.805 Z0.333
X-11.041 Y-187.807 Z0.332
X-11.028
X-11.009 Y-187.806 Z0.331
X-10.994 Y-187.803
X-10.984 Y-187.8 Z0.33
X-10.967 Y-187.794
X-10.948 Y-187.784 Z0.329
X-10.938 Y-187.778
X-10.928 Y-187.771 Z0.328
X-10.912 Y-187.755 Z0.327
X-10.901 Y-187.742
X-10.895 Y-187.734 Z0.326
X-10.888 Y-187.722
X-10.881 Y-187.705 Z0.325
X-10.875 Y-187.689
X-10.872 Y-187.674 Z0.324
X-10.87 Y-187.66
Y-187.642 Z0.323
X-10.871 Y-187.624 Z0.322
X-10.873 Y-187.612
X-10.876 Y-187.6
X-10.883 Y-187.583 Z0.321
X-10.89 Y-187.568 Z0.32
X-10.898 Y-187.555
X-10.907 Y-187.543 Z0.319
X-10.919 Y-187.531
X-10.933 Y-187.519 Z0.318
X-10.943 Y-187.512
X-10.954 Y-187.506 Z0.317
X-10.972 Y-187.497 Z0.316
X-10.99 Y-187.491
X-11 Y-187.489 Z0.315
X-11.014 Y-187.487
X-11.036 Z0.314
X-11.055 Y-187.488
X-11.065 Y-187.49 Z0.313
X-11.076 Y-187.493
X-11.092 Y-187.499 Z0.312
X-11.111 Y-187.509 Z0.311
X-11.122 Y-187.515
X-11.131 Y-187.522
X-11.148 Y-187.538 Z0.31
X-11.159 Y-187.551 Z0.309
X-11.165 Y-187.559
X-11.171 Y-187.57 Z0.308
X-11.179 Y-187.588
X-11.185 Y-187.605 Z0.307
X-11.188 Y-187.619
X-11.189 Y-187.633 Z0.306
X-11.19 Y-187.651 Z0.305
X-11.189 Y-187.669
X-11.187 Y-187.681 Z0.304
X-11.183 Y-187.693
X-11.177 Y-187.71 Z0.303
X-11.169 Y-187.725
X-11.161 Y-187.738 Z0.302
X-11.152 Y-187.75
X-11.14 Y-187.762 Z0.301
X-11.124 Y-187.776 Z0.3
X-11.113 Y-187.784
X-11.106 Y-187.788
X-11.091 Y-187.795 Z0.299
X-11.073 Y-187.801 Z0.298
X-11.055 Y-187.805
X-11.041 Y-187.807 Z0.297
X-11.028
X-11.009 Y-187.806 Z0.296
X-10.994 Y-187.803
X-10.984 Y-187.8 Z0.295
X-10.967 Y-187.794
X-10.948 Y-187.784 Z0.294
X-10.938 Y-187.778 Z0.293
X-10.928 Y-187.771
X-10.912 Y-187.755 Z0.292
X-10.901 Y-187.742
X-10.895 Y-187.734 Z0.291
X-10.888 Y-187.722
X-10.881 Y-187.705 Z0.29
X-10.875 Y-187.689
X-10.872 Y-187.674 Z0.289
X-10.87 Y-187.66
Y-187.642 Z0.288
X-10.871 Y-187.624 Z0.287
X-10.873 Y-187.612
X-10.876 Y-187.6 Z0.286
X-10.883 Y-187.583
X-10.89 Y-187.568 Z0.285
X-10.898 Y-187.555
X-10.907 Y-187.543 Z0.284
X-10.919 Y-187.531
X-10.933 Y-187.519 Z0.283
X-10.943 Y-187.512 Z0.282
X-10.954 Y-187.506
X-10.972 Y-187.497 Z0.281
X-10.99 Y-187.491
X-11 Y-187.489 Z0.28
X-11.014 Y-187.487
X-11.036 Z0.279
X-11.055 Y-187.488 Z0.278
X-11.065 Y-187.49
X-11.076 Y-187.493
X-11.092 Y-187.499 Z0.277
X-11.111 Y-187.509 Z0.276
X-11.122 Y-187.515
X-11.131 Y-187.522 Z0.275
X-11.148 Y-187.538
X-11.159 Y-187.551 Z0.274
X-11.165 Y-187.559
X-11.171 Y-187.57 Z0.273
X-11.179 Y-187.588
X-11.185 Y-187.605 Z0.272
X-11.188 Y-187.619 Z0.271
X-11.189 Y-187.633
X-11.19 Y-187.651 Z0.27
X-11.189 Y-187.669
X-11.187 Y-187.681 Z0.269
X-11.183 Y-187.693
X-11.177 Y-187.71 Z0.268
X-11.169 Y-187.725
X-11.161 Y-187.738 Z0.267
X-11.152 Y-187.75
X-11.14 Y-187.762 Z0.266
X-11.124 Y-187.776 Z0.265
X-11.113 Y-187.784
X-11.106 Y-187.788 Z0.264
X-11.091 Y-187.795
X-11.073 Y-187.801 Z0.263
X-11.055 Y-187.805
X-11.041 Y-187.807 Z0.262
X-11.028
X-11.009 Y-187.806 Z0.261
X-10.994 Y-187.803 Z0.26
X-10.984 Y-187.8
X-10.967 Y-187.794 Z0.259
X-10.948 Y-187.784
X-10.938 Y-187.778 Z0.258
X-10.928 Y-187.771
X-10.912 Y-187.755 Z0.257
X-10.901 Y-187.742 Z0.256
X-10.895 Y-187.734
X-10.888 Y-187.722
X-10.881 Y-187.705 Z0.255
X-10.875 Y-187.689 Z0.254
X-10.872 Y-187.674
X-10.87 Y-187.66 Z0.253
Y-187.642
X-10.871 Y-187.624 Z0.252
X-10.873 Y-187.612
X-10.876 Y-187.6 Z0.251
X-10.883 Y-187.583
X-10.89 Y-187.568 Z0.25
X-10.898 Y-187.555 Z0.249
X-10.907 Y-187.543
X-10.919 Y-187.531 Z0.248
X-10.933 Y-187.519
X-10.943 Y-187.512 Z0.247
X-10.954 Y-187.506
X-10.972 Y-187.497 Z0.246
X-10.99 Y-187.491 Z0.245
X-11 Y-187.489
X-11.014 Y-187.487
X-11.036 Z0.244
X-11.055 Y-187.488 Z0.243
X-11.065 Y-187.49
X-11.076 Y-187.493 Z0.242
X-11.092 Y-187.499
X-11.111 Y-187.509 Z0.241
X-11.122 Y-187.515
X-11.131 Y-187.522 Z0.24
X-11.148 Y-187.538 Z0.239
X-11.159 Y-187.551
X-11.165 Y-187.559
X-11.171 Y-187.57 Z0.238
X-11.179 Y-187.588 Z0.237
X-11.185 Y-187.605
X-11.188 Y-187.619 Z0.236
X-11.189 Y-187.633
X-11.19 Y-187.651 Z0.235
X-11.189 Y-187.669
X-11.187 Y-187.681 Z0.234
X-11.183 Y-187.693
X-11.177 Y-187.71 Z0.233
X-11.169 Y-187.725 Z0.232
X-11.161 Y-187.738
X-11.152 Y-187.75 Z0.231
X-11.14 Y-187.762
X-11.124 Y-187.776 Z0.23
X-11.113 Y-187.784
X-11.106 Y-187.788 Z0.229
X-11.091 Y-187.795
X-11.073 Y-187.801 Z0.228
X-11.055 Y-187.805 Z0.227
X-11.041 Y-187.807
X-11.028 Z0.226
X-11.009 Y-187.806
X-10.994 Y-187.803 Z0.225
X-10.984 Y-187.8
X-10.967 Y-187.794 Z0.224
X-10.948 Y-187.784
X-10.938 Y-187.778 Z0.223
X-10.928 Y-187.771
X-10.912 Y-187.755 Z0.222
X-10.901 Y-187.742 Z0.221
X-10.895 Y-187.734
X-10.888 Y-187.722 Z0.22
X-10.881 Y-187.705
X-10.875 Y-187.689 Z0.219
X-10.872 Y-187.674
X-10.87 Y-187.66 Z0.218
Y-187.642
X-10.871 Y-187.624 Z0.217
X-10.873 Y-187.612
X-10.876 Y-187.6 Z0.216
X-10.883 Y-187.583 Z0.215
X-10.89 Y-187.568
X-10.898 Y-187.555 Z0.214
X-10.907 Y-187.543
X-10.919 Y-187.531 Z0.213
X-10.933 Y-187.519
X-10.943 Y-187.512 Z0.212
X-10.954 Y-187.506
X-10.972 Y-187.497 Z0.211
X-10.99 Y-187.491 Z0.21
X-11 Y-187.489
X-11.014 Y-187.487 Z0.209
X-11.036
X-11.055 Y-187.488 Z0.208
X-11.065 Y-187.49
X-11.076 Y-187.493 Z0.207
X-11.092 Y-187.499
X-11.111 Y-187.509 Z0.206
X-11.122 Y-187.515
X-11.131 Y-187.522 Z0.205
X-11.148 Y-187.538 Z0.204
X-11.159 Y-187.551
X-11.165 Y-187.559 Z0.203
X-11.171 Y-187.57
X-11.179 Y-187.588 Z0.202
X-11.185 Y-187.605
X-11.188 Y-187.619 Z0.201
X-11.189 Y-187.633
X-11.19 Y-187.651 Z0.2
X-11.189 Y-187.669 Z0.199
X-11.187 Y-187.681
X-11.183 Y-187.693
X-11.177 Y-187.71 Z0.198
X-11.169 Y-187.725 Z0.197
X-11.161 Y-187.738
X-11.152 Y-187.75 Z0.196
X-11.14 Y-187.762
X-11.124 Y-187.776 Z0.195
X-11.113 Y-187.784 Z0.194
X-11.106 Y-187.788
X-11.091 Y-187.795
X-11.073 Y-187.801 Z0.193
X-11.055 Y-187.805 Z0.192
X-11.041 Y-187.807
X-11.028 Z0.191
X-11.009 Y-187.806
X-10.994 Y-187.803 Z0.19
X-10.984 Y-187.8
X-10.967 Y-187.794 Z0.189
X-10.948 Y-187.784 Z0.188
X-10.938 Y-187.778
X-10.928 Y-187.771
X-10.912 Y-187.755 Z0.187
X-10.901 Y-187.742 Z0.186
X-10.895 Y-187.734
X-10.888 Y-187.722 Z0.185
X-10.881 Y-187.705
X-10.875 Y-187.689 Z0.184
X-10.872 Y-187.674
X-10.87 Y-187.66 Z0.183
Y-187.642 Z0.182
X-10.871 Y-187.624
X-10.873 Y-187.612 Z0.181
X-10.876 Y-187.6
X-10.883 Y-187.583 Z0.18
X-10.89 Y-187.568
X-10.898 Y-187.555 Z0.179
X-10.907 Y-187.543
X-10.919 Y-187.531 Z0.178
X-10.933 Y-187.519 Z0.177
X-10.943 Y-187.512
X-10.954 Y-187.506
X-10.972 Y-187.497 Z0.176
X-10.99 Y-187.491 Z0.175
X-11 Y-187.489
X-11.014 Y-187.487 Z0.174
X-11.036
X-11.055 Y-187.488 Z0.173
X-11.065 Y-187.49
X-11.076 Y-187.493 Z0.172
X-11.092 Y-187.499
X-11.111 Y-187.509 Z0.171
X-11.122 Y-187.515 Z0.17
X-11.131 Y-187.522
X-11.148 Y-187.538 Z0.169
X-11.159 Y-187.551
X-11.165 Y-187.559 Z0.168
X-11.171 Y-187.57
X-11.179 Y-187.588 Z0.167
X-11.185 Y-187.605 Z0.166
X-11.188 Y-187.619
X-11.189 Y-187.633 Z0.165
X-11.19 Y-187.651
X-11.189 Y-187.669 Z0.164
X-11.187 Y-187.681
X-11.183 Y-187.693 Z0.163
X-11.177 Y-187.71
X-11.169 Y-187.725 Z0.162
X-11.161 Y-187.738
X-11.152 Y-187.75 Z0.161
X-11.14 Y-187.762 Z0.16
X-11.124 Y-187.776
X-11.113 Y-187.784 Z0.159
X-11.106 Y-187.788
X-11.091 Y-187.795 Z0.158
X-11.073 Y-187.801
X-11.055 Y-187.805 Z0.157
X-11.041 Y-187.807
X-11.028 Z0.156
X-11.009 Y-187.806 Z0.155
X-10.994 Y-187.803
X-10.984 Y-187.8
X-10.967 Y-187.794 Z0.154
X-10.948 Y-187.784 Z0.153
X-10.938 Y-187.778
X-10.928 Y-187.771 Z0.152
X-10.912 Y-187.755
X-10.901 Y-187.742 Z0.151
X-10.895 Y-187.734
X-10.888 Y-187.722 Z0.15
X-10.881 Y-187.705
X-10.875 Y-187.689 Z0.149
X-10.872 Y-187.674 Z0.148
X-10.87 Y-187.66
Y-187.642 Z0.147
X-10.871 Y-187.624
X-10.873 Y-187.612 Z0.146
X-10.876 Y-187.6
X-10.883 Y-187.583 Z0.145
X-10.89 Y-187.568
X-10.898 Y-187.555 Z0.144
X-10.907 Y-187.543 Z0.143
X-10.919 Y-187.531
X-10.933 Y-187.519 Z0.142
X-10.943 Y-187.512
X-10.954 Y-187.506 Z0.141
X-10.972 Y-187.497
X-10.99 Y-187.491 Z0.14
X-11 Y-187.489
X-11.014 Y-187.487 Z0.139
X-11.036 Z0.138
X-11.055 Y-187.488
X-11.065 Y-187.49 Z0.137
X-11.076 Y-187.493
X-11.092 Y-187.499 Z0.136
X-11.111 Y-187.509
X-11.122 Y-187.515 Z0.135
X-11.131 Y-187.522
X-11.148 Y-187.538 Z0.134
X-11.159 Y-187.551 Z0.133
X-11.165 Y-187.559
X-11.171 Y-187.57
X-11.179 Y-187.588 Z0.132
X-11.185 Y-187.605 Z0.131
X-11.188 Y-187.619
X-11.189 Y-187.633 Z0.13
X-11.19 Y-187.651
X-11.189 Y-187.669 Z0.129
X-11.187 Y-187.681
X-11.183 Y-187.693 Z0.128
X-11.177 Y-187.71
X-11.169 Y-187.725 Z0.127
X-11.161 Y-187.738 Z0.126
X-11.152 Y-187.75
X-11.14 Y-187.762 Z0.125
X-11.124 Y-187.776
X-11.113 Y-187.784 Z0.124
X-11.106 Y-187.788
X-11.091 Y-187.795 Z0.123
X-11.073 Y-187.801
X-11.055 Y-187.805 Z0.122
X-11.041 Y-187.807 Z0.121
X-11.028
X-11.009 Y-187.806 Z0.12
X-10.994 Y-187.803
X-10.984 Y-187.8 Z0.119
X-10.967 Y-187.794
X-10.948 Y-187.784 Z0.118
X-10.938 Y-187.778
X-10.928 Y-187.771 Z0.117
X-10.912 Y-187.755 Z0.116
X-10.901 Y-187.742
X-10.895 Y-187.734 Z0.115
X-10.888 Y-187.722
X-10.881 Y-187.705 Z0.114
X-10.875 Y-187.689
X-10.872 Y-187.674 Z0.113
X-10.87 Y-187.66
Y-187.642 Z0.112
X-10.871 Y-187.624 Z0.111
X-10.873 Y-187.612
X-10.876 Y-187.6
X-10.883 Y-187.583 Z0.11
X-10.89 Y-187.568 Z0.109
X-10.898 Y-187.555
X-10.907 Y-187.543 Z0.108
X-10.919 Y-187.531
X-10.933 Y-187.519 Z0.107
X-10.943 Y-187.512
X-10.954 Y-187.506 Z0.106
X-10.972 Y-187.497
X-10.99 Y-187.491 Z0.105
X-11 Y-187.489
X-11.014 Y-187.487 Z0.104
X-11.036 Z0.103
X-11.055 Y-187.488
X-11.065 Y-187.49 Z0.102
X-11.076 Y-187.493
X-11.092 Y-187.499 Z0.101
X-11.111 Y-187.509 Z0.1
X-11.122 Y-187.515
X-11.131 Y-187.522
X-11.148 Y-187.538 Z0.099
X-11.159 Y-187.551 Z0.098
X-11.165 Y-187.559
X-11.171 Y-187.57 Z0.097
X-11.179 Y-187.588
X-11.185 Y-187.605 Z0.096
X-11.188 Y-187.619
X-11.189 Y-187.633 Z0.095
X-11.19 Y-187.651
X-11.189 Y-187.669 Z0.094
X-11.187 Y-187.681 Z0.093
X-11.183 Y-187.693
X-11.177 Y-187.71 Z0.092
X-11.169 Y-187.725
X-11.161 Y-187.738 Z0.091
X-11.152 Y-187.75
X-11.14 Y-187.762 Z0.09
X-11.124 Y-187.776 Z0.089
X-11.113 Y-187.784
X-11.106 Y-187.788
X-11.091 Y-187.795 Z0.088
X-11.073 Y-187.801 Z0.087
X-11.055 Y-187.805
X-11.041 Y-187.807 Z0.086
X-11.028
X-11.009 Y-187.806 Z0.085
X-10.994 Y-187.803
X-10.984 Y-187.8 Z0.084
X-10.967 Y-187.794
X-10.948 Y-187.784 Z0.083
X-10.938 Y-187.778 Z0.082
X-10.928 Y-187.771
X-10.912 Y-187.755 Z0.081
X-10.901 Y-187.742
X-10.895 Y-187.734 Z0.08
X-10.888 Y-187.722
X-10.881 Y-187.705 Z0.079
X-10.875 Y-187.689
X-10.872 Y-187.674 Z0.078
X-10.87 Y-187.66
Y-187.642 Z0.077
X-10.871 Y-187.624 Z0.076
X-10.873 Y-187.612
X-10.876 Y-187.6 Z0.075
X-10.883 Y-187.583
X-10.89 Y-187.568 Z0.074
X-10.898 Y-187.555
X-10.907 Y-187.543 Z0.073
X-10.919 Y-187.531
X-10.933 Y-187.519 Z0.072
X-10.943 Y-187.512 Z0.071
X-10.954 Y-187.506
X-10.972 Y-187.497 Z0.07
X-10.99 Y-187.491
X-11 Y-187.489 Z0.069
X-11.014 Y-187.487
X-11.036 Z0.068
X-11.055 Y-187.488 Z0.067
X-11.065 Y-187.49
X-11.076 Y-187.493
X-11.092 Y-187.499 Z0.066
X-11.111 Y-187.509 Z0.065
X-11.122 Y-187.515
X-11.131 Y-187.522 Z0.064
X-11.148 Y-187.538
X-11.159 Y-187.551 Z0.063
X-11.165 Y-187.559
X-11.171 Y-187.57 Z0.062
X-11.179 Y-187.588
X-11.185 Y-187.605 Z0.061
X-11.188 Y-187.619
X-11.189 Y-187.633 Z0.06
X-11.19 Y-187.651 Z0.059
X-11.189 Y-187.669
X-11.187 Y-187.681 Z0.058
X-11.183 Y-187.693
X-11.177 Y-187.71 Z0.057
X-11.169 Y-187.725
X-11.161 Y-187.738 Z0.056
X-11.152 Y-187.75
X-11.14 Y-187.762 Z0.055
X-11.124 Y-187.776 Z0.054
X-11.113 Y-187.784
X-11.106 Y-187.788 Z0.053
X-11.091 Y-187.795
X-11.073 Y-187.801 Z0.052
X-11.055 Y-187.805
X-11.041 Y-187.807 Z0.051
X-11.028
X-11.009 Y-187.806 Z0.05
X-10.994 Y-187.803 Z0.049
X-10.984 Y-187.8
X-10.967 Y-187.794 Z0.048
X-10.948 Y-187.784
X-10.938 Y-187.778 Z0.047
X-10.928 Y-187.771
X-10.912 Y-187.755 Z0.046
X-10.901 Y-187.742
X-10.895 Y-187.734 Z0.045
X-10.888 Y-187.722
X-10.881 Y-187.705 Z0.044
X-10.875 Y-187.689 Z0.043
X-10.872 Y-187.674
X-10.87 Y-187.66 Z0.042
Y-187.642
X-10.871 Y-187.624 Z0.041
X-10.873 Y-187.612
X-10.876 Y-187.6 Z0.04
X-10.883 Y-187.583
X-10.89 Y-187.568 Z0.039
X-10.898 Y-187.555
X-10.907 Y-187.543 Z0.038
X-10.919 Y-187.531 Z0.037
X-10.933 Y-187.519
X-10.943 Y-187.512 Z0.036
X-10.954 Y-187.506
X-10.972 Y-187.497 Z0.035
X-10.99 Y-187.491
X-11 Y-187.489 Z0.034
X-11.014 Y-187.487
X-11.036 Z0.033
X-11.055 Y-187.488 Z0.032
X-11.065 Y-187.49
X-11.076 Y-187.493
X-11.092 Y-187.499 Z0.031
X-11.111 Y-187.509 Z0.03
X-11.122 Y-187.515
X-11.131 Y-187.522 Z0.029
X-11.148 Y-187.538
X-11.159 Y-187.551 Z0.028
X-11.165 Y-187.559
X-11.171 Y-187.57 Z0.027
X-11.179 Y-187.588 Z0.026
X-11.185 Y-187.605
X-11.188 Y-187.619 Z0.025
X-11.189 Y-187.633
X-11.19 Y-187.651 Z0.024
X-11.189 Y-187.669
X-11.187 Y-187.681 Z0.023
X-11.183 Y-187.693
X-11.177 Y-187.71 Z0.022
X-11.169 Y-187.725 Z0.021
X-11.161 Y-187.738
X-11.152 Y-187.75 Z0.02
X-11.14 Y-187.762
X-11.124 Y-187.776 Z0.019
X-11.113 Y-187.784
X-11.106 Y-187.788 Z0.018
X-11.091 Y-187.795
X-11.073 Y-187.801 Z0.017
X-11.055 Y-187.805 Z0.016
X-11.041 Y-187.807
X-11.028
X-11.009 Y-187.806 Z0.015
X-10.994 Y-187.803 Z0.014
X-10.984 Y-187.8
X-10.967 Y-187.794 Z0.013
X-10.948 Y-187.784
X-10.938 Y-187.778 Z0.012
X-10.928 Y-187.771
X-10.912 Y-187.755 Z0.011
X-10.901 Y-187.742 Z0.01
X-10.895 Y-187.734
X-10.888 Y-187.722
X-10.881 Y-187.705 Z0.009
X-10.875 Y-187.689 Z0.008
X-10.872 Y-187.674
X-10.87 Y-187.66 Z0.007
Y-187.642
X-10.871 Y-187.624 Z0.006
X-10.873 Y-187.612
X-10.876 Y-187.6 Z0.005
X-10.883 Y-187.583
X-10.89 Y-187.568 Z0.004
X-10.898 Y-187.555 Z0.003
X-10.907 Y-187.543
X-10.919 Y-187.531 Z0.002
X-10.933 Y-187.519
X-10.943 Y-187.512 Z0.001
X-10.954 Y-187.506
X-10.972 Y-187.497 Z0
X-10.99 Y-187.491 Z-0.001
X-11 Y-187.489
X-11.014 Y-187.487
X-11.036 Z-0.002
X-11.055 Y-187.488 Z-0.003
X-11.065 Y-187.49
X-11.076 Y-187.493 Z-0.004
X-11.092 Y-187.499
X-11.111 Y-187.509 Z-0.005
X-11.122 Y-187.515
X-11.131 Y-187.522 Z-0.006
X-11.148 Y-187.538 Z-0.007
X-11.159 Y-187.551
X-11.165 Y-187.559 Z-0.008
X-11.171 Y-187.57
X-11.179 Y-187.588 Z-0.009
X-11.185 Y-187.605
X-11.188 Y-187.619 Z-0.01
X-11.189 Y-187.633
X-11.19 Y-187.651 Z-0.011
X-11.189 Y-187.669 Z-0.012
X-11.187 Y-187.681
X-11.183 Y-187.693
X-11.177 Y-187.71 Z-0.013
X-11.169 Y-187.725 Z-0.014
X-11.161 Y-187.738
X-11.152 Y-187.75 Z-0.015
X-11.14 Y-187.762
X-11.124 Y-187.776 Z-0.016
X-11.113 Y-187.784 Z-0.017
X-11.106 Y-187.788
X-11.091 Y-187.795
X-11.073 Y-187.801 Z-0.018
X-11.055 Y-187.805 Z-0.019
X-11.041 Y-187.807
X-11.028 Z-0.02
X-11.009 Y-187.806
X-10.994 Y-187.803 Z-0.021
X-10.984 Y-187.8
X-10.967 Y-187.794 Z-0.022
X-10.948 Y-187.784 Z-0.023
X-10.938 Y-187.778
X-10.928 Y-187.771
X-10.912 Y-187.755 Z-0.024
X-10.901 Y-187.742 Z-0.025
X-10.895 Y-187.734
X-10.888 Y-187.722 Z-0.026
X-10.881 Y-187.705
X-10.875 Y-187.689 Z-0.027
X-10.872 Y-187.674
X-10.87 Y-187.66 Z-0.028
Y-187.642 Z-0.029
X-10.871 Y-187.624
X-10.873 Y-187.612 Z-0.03
X-10.876 Y-187.6
X-10.883 Y-187.583 Z-0.031
X-10.89 Y-187.568
X-10.898 Y-187.555 Z-0.032
X-10.907 Y-187.543
X-10.919 Y-187.531 Z-0.033
X-10.933 Y-187.519 Z-0.034
X-10.943 Y-187.512
X-10.954 Y-187.506
X-10.972 Y-187.497 Z-0.035
X-10.99 Y-187.491 Z-0.036
X-11 Y-187.489
X-11.014 Y-187.487 Z-0.037
X-11.036
X-11.055 Y-187.488 Z-0.038
X-11.065 Y-187.49
X-11.076 Y-187.493 Z-0.039
X-11.092 Y-187.499
X-11.111 Y-187.509 Z-0.04
X-11.122 Y-187.515 Z-0.041
X-11.131 Y-187.522
X-11.148 Y-187.538 Z-0.042
X-11.159 Y-187.551
X-11.165 Y-187.559 Z-0.043
X-11.171 Y-187.57
X-11.179 Y-187.588 Z-0.044
X-11.185 Y-187.605
X-11.188 Y-187.619 Z-0.045
X-11.189 Y-187.633
X-11.19 Y-187.651 Z-0.046
X-11.189 Y-187.669 Z-0.047
X-11.187 Y-187.681
X-11.183 Y-187.693 Z-0.048
X-11.177 Y-187.71
X-11.169 Y-187.725 Z-0.049
X-11.161 Y-187.738
X-11.152 Y-187.75 Z-0.05
X-11.14 Y-187.762
X-11.124 Y-187.776 Z-0.051
X-11.113 Y-187.784 Z-0.052
X-11.106 Y-187.788
X-11.091 Y-187.795 Z-0.053
X-11.073 Y-187.801
X-11.055 Y-187.805 Z-0.054
X-11.041 Y-187.807
X-11.028 Z-0.055
X-11.009 Y-187.806
X-10.994 Y-187.803 Z-0.056
X-10.984 Y-187.8
X-10.967 Y-187.794 Z-0.057
X-10.948 Y-187.784 Z-0.058
X-10.938 Y-187.778
X-10.928 Y-187.771 Z-0.059
X-10.912 Y-187.755
X-10.901 Y-187.742 Z-0.06
X-10.895 Y-187.734
X-10.888 Y-187.722 Z-0.061
X-10.881 Y-187.705
X-10.875 Y-187.689 Z-0.062
X-10.872 Y-187.674 Z-0.063
X-10.87 Y-187.66
Y-187.642 Z-0.064
X-10.871 Y-187.624
X-10.873 Y-187.612 Z-0.065
X-10.876 Y-187.6
X-10.883 Y-187.583 Z-0.066
X-10.89 Y-187.568
X-10.898 Y-187.555 Z-0.067
X-10.907 Y-187.543
X-10.919 Y-187.531 Z-0.068
X-10.933 Y-187.519 Z-0.069
X-10.943 Y-187.512
X-10.954 Y-187.506 Z-0.07
X-10.972 Y-187.497
X-10.99 Y-187.491 Z-0.071
X-11 Y-187.489
X-11.014 Y-187.487 Z-0.072
X-11.036 Z-0.073
X-11.055 Y-187.488
X-11.065 Y-187.49 Z-0.074
X-11.076 Y-187.493
X-11.092 Y-187.499 Z-0.075
X-11.111 Y-187.509
X-11.122 Y-187.515 Z-0.076
X-11.131 Y-187.522
X-11.148 Y-187.538 Z-0.077
X-11.159 Y-187.551 Z-0.078
X-11.165 Y-187.559
X-11.171 Y-187.57
X-11.179 Y-187.588 Z-0.079
X-11.185 Y-187.605 Z-0.08
X-11.188 Y-187.619
X-11.189 Y-187.633 Z-0.081
X-11.19 Y-187.651
X-11.189 Y-187.669 Z-0.082
X-11.187 Y-187.681
X-11.183 Y-187.693 Z-0.083
X-11.177 Y-187.71
X-11.169 Y-187.725 Z-0.084
X-11.161 Y-187.738 Z-0.085
X-11.152 Y-187.75
X-11.14 Y-187.762 Z-0.086
X-11.124 Y-187.776
X-11.113 Y-187.784 Z-0.087
X-11.106 Y-187.788
X-11.091 Y-187.795 Z-0.088
