(Bottom_Bohren_3-175)
(T5  D=3.175 CR=0 - ZMIN=-2.2 - Schaftfraser)
G90 G94
G17
G21

(Bohrfrasen8)
T5
S6000 M3
G54
G0 X-15.919 Y-89.077
Z15
Z1.883
G1 Z0.2 F1000
Y-88.919
X-15.925 Y-88.888
X-15.943 Y-88.861
X-15.969 Y-88.844
X-16 Y-88.838
G3 X-16 Y-89.162 Z0.169 I0 J-0.162
X-16 Y-88.838 Z0.139 I0 J0.162
X-16 Y-89.162 Z0.108 I0 J-0.162
X-16 Y-88.838 Z0.078 I0 J0.162
X-16 Y-89.162 Z0.047 I0 J-0.162
X-16 Y-88.838 Z0.017 I0 J0.162
X-16 Y-89.162 Z-0.014 I0 J-0.162
X-16 Y-88.838 Z-0.044 I0 J0.162
X-16 Y-89.162 Z-0.075 I0 J-0.162
X-16 Y-88.838 Z-0.105 I0 J0.162
X-16 Y-89.162 Z-0.136 I0 J-0.162
X-16 Y-88.838 Z-0.167 I0 J0.162
X-16 Y-89.162 Z-0.197 I0 J-0.162
X-16 Y-88.838 Z-0.228 I0 J0.162
X-16 Y-89.162 Z-0.258 I0 J-0.162
X-16 Y-88.838 Z-0.289 I0 J0.162
X-16 Y-89.162 Z-0.319 I0 J-0.162
X-16 Y-88.838 Z-0.35 I0 J0.162
X-16 Y-89.162 Z-0.38 I0 J-0.162
X-16 Y-88.838 Z-0.411 I0 J0.162
X-16 Y-89.162 Z-0.441 I0 J-0.162
X-16 Y-88.838 Z-0.472 I0 J0.162
X-16 Y-89.162 Z-0.503 I0 J-0.162
X-16 Y-88.838 Z-0.533 I0 J0.162
X-16 Y-89.162 Z-0.564 I0 J-0.162
X-16 Y-88.838 Z-0.594 I0 J0.162
X-16 Y-89.162 Z-0.625 I0 J-0.162
X-16 Y-88.838 Z-0.655 I0 J0.162
X-16 Y-89.162 Z-0.686 I0 J-0.162
X-16 Y-88.838 Z-0.716 I0 J0.162
X-16 Y-89.162 Z-0.747 I0 J-0.162
X-16 Y-88.838 Z-0.777 I0 J0.162
X-16 Y-89.162 Z-0.808 I0 J-0.162
X-16 Y-88.838 Z-0.839 I0 J0.162
X-16 Y-89.162 Z-0.869 I0 J-0.162
X-16 Y-88.838 Z-0.9 I0 J0.162
X-16 Y-89.162 Z-0.93 I0 J-0.162
X-16 Y-88.838 Z-0.961 I0 J0.162
X-16 Y-89.162 Z-0.991 I0 J-0.162
X-16 Y-88.838 Z-1.022 I0 J0.162
X-16 Y-89.162 Z-1.052 I0 J-0.162
X-16 Y-88.838 Z-1.083 I0 J0.162
X-16 Y-89.162 Z-1.113 I0 J-0.162
X-16 Y-88.838 Z-1.144 I0 J0.162
X-16 Y-89.162 Z-1.175 I0 J-0.162
X-16 Y-88.838 Z-1.205 I0 J0.162
X-16 Y-89.162 Z-1.236 I0 J-0.162
X-16 Y-88.838 Z-1.266 I0 J0.162
X-16 Y-89.162 Z-1.297 I0 J-0.162
X-16 Y-88.838 Z-1.327 I0 J0.162
X-16 Y-89.162 Z-1.358 I0 J-0.162
X-16 Y-88.838 Z-1.388 I0 J0.162
X-16 Y-89.162 Z-1.419 I0 J-0.162
X-16 Y-88.838 Z-1.45 I0 J0.162
X-16 Y-89.163 Z-1.48 I0 J-0.162
X-16 Y-88.837 Z-1.511 I0 J0.163
X-16 Y-89.163 Z-1.541 I0 J-0.163
X-16 Y-88.837 Z-1.572 I0 J0.163
X-16 Y-89.163 Z-1.602 I0 J-0.163
X-16 Y-88.837 Z-1.633 I0 J0.163
X-16 Y-89.163 Z-1.663 I0 J-0.163
X-16 Y-88.837 Z-1.694 I0 J0.163
X-16 Y-89.163 Z-1.724 I0 J-0.163
X-16 Y-88.837 Z-1.755 I0 J0.163
X-16 Y-89.163 Z-1.786 I0 J-0.163
X-16 Y-88.837 Z-1.816 I0 J0.163
X-16 Y-89.163 Z-1.847 I0 J-0.163
X-16 Y-88.837 Z-1.877 I0 J0.163
X-16 Y-89.163 Z-1.908 I0 J-0.163
X-16 Y-88.837 Z-1.938 I0 J0.163
X-16 Y-89.163 Z-1.969 I0 J-0.163
X-16 Y-88.837 Z-1.999 I0 J0.163
X-16 Y-89.163 Z-2.03 I0 J-0.163
X-16 Y-88.837 Z-2.06 I0 J0.163
X-16 Y-89.163 Z-2.091 I0 J-0.163
X-16 Y-88.837 Z-2.122 I0 J0.163
X-16 Y-89.163 Z-2.152 I0 J-0.163
X-16 Y-88.837 Z-2.183 I0 J0.163
X-16.159 Y-89.035 Z-2.2 I0 J-0.163
X-15.841 Y-88.965 I0.159 J0.035
X-16.159 Y-89.035 I-0.159 J-0.035
G1 X-16.146 Y-89.064
X-16.123 Y-89.086
X-16.094 Y-89.097
X-16.062
X-15.907 Y-89.063
G0 Z5
X-15.919 Y-51.077
Z1.883
G1 Z0.2 F1000
Y-50.919
X-15.925 Y-50.888
X-15.943 Y-50.861
X-15.969 Y-50.844
X-16 Y-50.838
G3 X-16 Y-51.162 Z0.169 I0 J-0.162
X-16 Y-50.838 Z0.139 I0 J0.162
X-16 Y-51.162 Z0.108 I0 J-0.162
X-16 Y-50.838 Z0.078 I0 J0.162
X-16 Y-51.162 Z0.047 I0 J-0.162
X-16 Y-50.838 Z0.017 I0 J0.162
X-16 Y-51.162 Z-0.014 I0 J-0.162
X-16 Y-50.838 Z-0.044 I0 J0.162
X-16 Y-51.162 Z-0.075 I0 J-0.162
X-16 Y-50.838 Z-0.105 I0 J0.162
X-16 Y-51.162 Z-0.136 I0 J-0.162
X-16 Y-50.838 Z-0.167 I0 J0.162
X-16 Y-51.162 Z-0.197 I0 J-0.162
X-16 Y-50.838 Z-0.228 I0 J0.162
X-16 Y-51.162 Z-0.258 I0 J-0.162
X-16 Y-50.838 Z-0.289 I0 J0.162
X-16 Y-51.162 Z-0.319 I0 J-0.162
X-16 Y-50.838 Z-0.35 I0 J0.162
X-16 Y-51.162 Z-0.38 I0 J-0.162
X-16 Y-50.838 Z-0.411 I0 J0.162
X-16 Y-51.162 Z-0.441 I0 J-0.162
X-16 Y-50.838 Z-0.472 I0 J0.162
X-16 Y-51.162 Z-0.503 I0 J-0.162
X-16 Y-50.838 Z-0.533 I0 J0.162
X-16 Y-51.162 Z-0.564 I0 J-0.162
X-16 Y-50.838 Z-0.594 I0 J0.162
X-16 Y-51.162 Z-0.625 I0 J-0.162
X-16 Y-50.838 Z-0.655 I0 J0.162
X-16 Y-51.162 Z-0.686 I0 J-0.162
X-16 Y-50.838 Z-0.716 I0 J0.162
X-16 Y-51.162 Z-0.747 I0 J-0.162
X-16 Y-50.838 Z-0.777 I0 J0.162
X-16 Y-51.162 Z-0.808 I0 J-0.162
X-16 Y-50.838 Z-0.839 I0 J0.162
X-16 Y-51.162 Z-0.869 I0 J-0.162
X-16 Y-50.838 Z-0.9 I0 J0.162
X-16 Y-51.162 Z-0.93 I0 J-0.162
X-16 Y-50.838 Z-0.961 I0 J0.162
X-16 Y-51.162 Z-0.991 I0 J-0.162
X-16 Y-50.838 Z-1.022 I0 J0.162
X-16 Y-51.162 Z-1.052 I0 J-0.162
X-16 Y-50.838 Z-1.083 I0 J0.162
X-16 Y-51.162 Z-1.113 I0 J-0.162
X-16 Y-50.838 Z-1.144 I0 J0.162
X-16 Y-51.162 Z-1.175 I0 J-0.162
X-16 Y-50.838 Z-1.205 I0 J0.162
X-16 Y-51.162 Z-1.236 I0 J-0.162
X-16 Y-50.838 Z-1.266 I0 J0.162
X-16 Y-51.162 Z-1.297 I0 J-0.162
X-16 Y-50.838 Z-1.327 I0 J0.162
X-16 Y-51.162 Z-1.358 I0 J-0.162
X-16 Y-50.838 Z-1.388 I0 J0.162
X-16 Y-51.162 Z-1.419 I0 J-0.162
X-16 Y-50.838 Z-1.45 I0 J0.162
X-16 Y-51.163 Z-1.48 I0 J-0.162
X-16 Y-50.837 Z-1.511 I0 J0.163
X-16 Y-51.163 Z-1.541 I0 J-0.163
X-16 Y-50.837 Z-1.572 I0 J0.163
X-16 Y-51.163 Z-1.602 I0 J-0.163
X-16 Y-50.837 Z-1.633 I0 J0.163
X-16 Y-51.163 Z-1.663 I0 J-0.163
X-16 Y-50.837 Z-1.694 I0 J0.163
X-16 Y-51.163 Z-1.724 I0 J-0.163
X-16 Y-50.837 Z-1.755 I0 J0.163
X-16 Y-51.163 Z-1.786 I0 J-0.163
X-16 Y-50.837 Z-1.816 I0 J0.163
X-16 Y-51.163 Z-1.847 I0 J-0.163
X-16 Y-50.837 Z-1.877 I0 J0.163
X-16 Y-51.163 Z-1.908 I0 J-0.163
X-16 Y-50.837 Z-1.938 I0 J0.163
X-16 Y-51.163 Z-1.969 I0 J-0.163
X-16 Y-50.837 Z-1.999 I0 J0.163
X-16 Y-51.163 Z-2.03 I0 J-0.163
X-16 Y-50.837 Z-2.06 I0 J0.163
X-16 Y-51.163 Z-2.091 I0 J-0.163
X-16 Y-50.837 Z-2.122 I0 J0.163
X-16 Y-51.163 Z-2.152 I0 J-0.163
X-16 Y-50.837 Z-2.183 I0 J0.163
X-16.159 Y-51.035 Z-2.2 I0 J-0.163
X-15.841 Y-50.965 I0.159 J0.035
X-16.159 Y-51.035 I-0.159 J-0.035
G1 X-16.146 Y-51.064
X-16.123 Y-51.086
X-16.094 Y-51.097
X-16.062
X-15.907 Y-51.063
G0 Z5
X-114.919 Y-35.077
Z1.883
G1 Z0.2 F1000
Y-34.919
X-114.925 Y-34.888
X-114.943 Y-34.861
X-114.969 Y-34.844
X-115 Y-34.838
G3 X-115 Y-35.162 Z0.169 I0 J-0.162
X-115 Y-34.838 Z0.139 I0 J0.162
X-115 Y-35.162 Z0.108 I0 J-0.162
X-115 Y-34.838 Z0.078 I0 J0.162
X-115 Y-35.162 Z0.047 I0 J-0.162
X-115 Y-34.838 Z0.017 I0 J0.162
X-115 Y-35.162 Z-0.014 I0 J-0.162
X-115 Y-34.838 Z-0.044 I0 J0.162
X-115 Y-35.162 Z-0.075 I0 J-0.162
X-115 Y-34.838 Z-0.105 I0 J0.162
X-115 Y-35.162 Z-0.136 I0 J-0.162
X-115 Y-34.838 Z-0.167 I0 J0.162
X-115 Y-35.162 Z-0.197 I0 J-0.162
X-115 Y-34.838 Z-0.228 I0 J0.162
X-115 Y-35.162 Z-0.258 I0 J-0.162
X-115 Y-34.838 Z-0.289 I0 J0.162
X-115 Y-35.162 Z-0.319 I0 J-0.162
X-115 Y-34.838 Z-0.35 I0 J0.162
X-115 Y-35.162 Z-0.38 I0 J-0.162
X-115 Y-34.838 Z-0.411 I0 J0.162
X-115 Y-35.162 Z-0.441 I0 J-0.162
X-115 Y-34.838 Z-0.472 I0 J0.162
X-115 Y-35.162 Z-0.503 I0 J-0.162
X-115 Y-34.838 Z-0.533 I0 J0.162
X-115 Y-35.162 Z-0.564 I0 J-0.162
X-115 Y-34.838 Z-0.594 I0 J0.162
X-115 Y-35.162 Z-0.625 I0 J-0.162
X-115 Y-34.838 Z-0.655 I0 J0.162
X-115 Y-35.162 Z-0.686 I0 J-0.162
X-115 Y-34.838 Z-0.716 I0 J0.162
X-115 Y-35.162 Z-0.747 I0 J-0.162
X-115 Y-34.838 Z-0.777 I0 J0.162
X-115 Y-35.162 Z-0.808 I0 J-0.162
X-115 Y-34.838 Z-0.839 I0 J0.162
X-115 Y-35.162 Z-0.869 I0 J-0.162
X-115 Y-34.838 Z-0.9 I0 J0.162
X-115 Y-35.162 Z-0.93 I0 J-0.162
X-115 Y-34.838 Z-0.961 I0 J0.162
X-115 Y-35.162 Z-0.991 I0 J-0.162
X-115 Y-34.838 Z-1.022 I0 J0.162
X-115 Y-35.162 Z-1.052 I0 J-0.162
X-115 Y-34.838 Z-1.083 I0 J0.162
X-115 Y-35.162 Z-1.113 I0 J-0.162
X-115 Y-34.838 Z-1.144 I0 J0.162
X-115 Y-35.162 Z-1.175 I0 J-0.162
X-115 Y-34.838 Z-1.205 I0 J0.162
X-115 Y-35.162 Z-1.236 I0 J-0.162
X-115 Y-34.838 Z-1.266 I0 J0.162
X-115 Y-35.162 Z-1.297 I0 J-0.162
X-115 Y-34.838 Z-1.327 I0 J0.162
X-115 Y-35.162 Z-1.358 I0 J-0.162
X-115 Y-34.838 Z-1.388 I0 J0.162
X-115 Y-35.162 Z-1.419 I0 J-0.162
X-115 Y-34.838 Z-1.45 I0 J0.162
X-115 Y-35.162 Z-1.48 I0 J-0.162
X-115 Y-34.838 Z-1.511 I0 J0.162
X-115 Y-35.162 Z-1.541 I0 J-0.162
X-115 Y-34.838 Z-1.572 I0 J0.162
X-115 Y-35.162 Z-1.602 I0 J-0.162
X-115 Y-34.838 Z-1.633 I0 J0.162
X-115 Y-35.162 Z-1.663 I0 J-0.162
X-115 Y-34.838 Z-1.694 I0 J0.162
X-115 Y-35.162 Z-1.724 I0 J-0.162
X-115 Y-34.838 Z-1.755 I0 J0.162
X-115 Y-35.162 Z-1.786 I0 J-0.162
X-115 Y-34.838 Z-1.816 I0 J0.162
X-115 Y-35.162 Z-1.847 I0 J-0.162
X-115 Y-34.838 Z-1.877 I0 J0.162
X-115 Y-35.162 Z-1.908 I0 J-0.162
X-115 Y-34.838 Z-1.938 I0 J0.162
X-115 Y-35.162 Z-1.969 I0 J-0.162
X-115 Y-34.838 Z-1.999 I0 J0.162
X-115 Y-35.162 Z-2.03 I0 J-0.162
X-115 Y-34.838 Z-2.06 I0 J0.162
X-115 Y-35.162 Z-2.091 I0 J-0.162
X-115 Y-34.838 Z-2.122 I0 J0.162
X-115 Y-35.162 Z-2.152 I0 J-0.162
X-115 Y-34.838 Z-2.183 I0 J0.162
X-115.159 Y-35.035 Z-2.2 I0 J-0.162
X-114.841 Y-34.965 I0.159 J0.035
X-115.159 Y-35.035 I-0.159 J-0.035
G1 X-115.146 Y-35.064
X-115.123 Y-35.086
X-115.094 Y-35.097
X-115.062
X-114.907 Y-35.063
G0 Z5
X-115.205 Y-52.163
Z1.883
G1 Z0.2 F1000
Y-52.004
X-115.212 Y-51.973
X-115.229 Y-51.947
X-115.255 Y-51.929
X-115.287 Y-51.923
G3 X-115.287 Y-52.248 Z0.169 I0 J-0.163
X-115.287 Y-51.923 Z0.139 I0 J0.163
X-115.287 Y-52.248 Z0.108 I0 J-0.163
X-115.287 Y-51.923 Z0.078 I0 J0.163
X-115.287 Y-52.248 Z0.047 I0 J-0.163
X-115.287 Y-51.923 Z0.017 I0 J0.163
X-115.287 Y-52.248 Z-0.014 I0 J-0.163
X-115.287 Y-51.923 Z-0.044 I0 J0.163
X-115.287 Y-52.248 Z-0.075 I0 J-0.163
X-115.287 Y-51.923 Z-0.105 I0 J0.163
X-115.287 Y-52.248 Z-0.136 I0 J-0.163
X-115.287 Y-51.923 Z-0.167 I0 J0.163
X-115.287 Y-52.248 Z-0.197 I0 J-0.163
X-115.287 Y-51.923 Z-0.228 I0 J0.163
X-115.287 Y-52.248 Z-0.258 I0 J-0.163
X-115.287 Y-51.923 Z-0.289 I0 J0.163
X-115.287 Y-52.248 Z-0.319 I0 J-0.163
X-115.287 Y-51.923 Z-0.35 I0 J0.163
X-115.287 Y-52.248 Z-0.38 I0 J-0.163
X-115.287 Y-51.923 Z-0.411 I0 J0.163
X-115.287 Y-52.248 Z-0.441 I0 J-0.163
X-115.287 Y-51.923 Z-0.472 I0 J0.163
X-115.287 Y-52.248 Z-0.503 I0 J-0.163
X-115.287 Y-51.923 Z-0.533 I0 J0.163
X-115.287 Y-52.248 Z-0.564 I0 J-0.163
X-115.287 Y-51.923 Z-0.594 I0 J0.163
X-115.287 Y-52.248 Z-0.625 I0 J-0.163
X-115.287 Y-51.923 Z-0.655 I0 J0.163
X-115.287 Y-52.248 Z-0.686 I0 J-0.163
X-115.287 Y-51.923 Z-0.716 I0 J0.163
X-115.287 Y-52.248 Z-0.747 I0 J-0.162
X-115.287 Y-51.923 Z-0.777 I0 J0.162
X-115.287 Y-52.248 Z-0.808 I0 J-0.162
X-115.287 Y-51.923 Z-0.839 I0 J0.162
X-115.287 Y-52.248 Z-0.869 I0 J-0.162
X-115.287 Y-51.923 Z-0.9 I0 J0.162
X-115.287 Y-52.248 Z-0.93 I0 J-0.162
X-115.287 Y-51.923 Z-0.961 I0 J0.162
X-115.287 Y-52.248 Z-0.991 I0 J-0.162
X-115.287 Y-51.923 Z-1.022 I0 J0.162
X-115.287 Y-52.248 Z-1.052 I0 J-0.162
X-115.287 Y-51.923 Z-1.083 I0 J0.162
X-115.287 Y-52.248 Z-1.113 I0 J-0.162
X-115.287 Y-51.923 Z-1.144 I0 J0.162
X-115.287 Y-52.248 Z-1.175 I0 J-0.162
X-115.287 Y-51.923 Z-1.205 I0 J0.162
X-115.287 Y-52.248 Z-1.236 I0 J-0.162
X-115.287 Y-51.923 Z-1.266 I0 J0.162
X-115.287 Y-52.248 Z-1.297 I0 J-0.162
X-115.287 Y-51.923 Z-1.327 I0 J0.162
X-115.287 Y-52.248 Z-1.358 I0 J-0.162
X-115.287 Y-51.923 Z-1.388 I0 J0.162
X-115.287 Y-52.248 Z-1.419 I0 J-0.162
X-115.287 Y-51.923 Z-1.45 I0 J0.162
X-115.287 Y-52.248 Z-1.48 I0 J-0.162
X-115.287 Y-51.923 Z-1.511 I0 J0.162
X-115.287 Y-52.248 Z-1.541 I0 J-0.162
X-115.287 Y-51.923 Z-1.572 I0 J0.162
X-115.287 Y-52.248 Z-1.602 I0 J-0.162
X-115.287 Y-51.923 Z-1.633 I0 J0.162
X-115.287 Y-52.248 Z-1.663 I0 J-0.162
X-115.287 Y-51.923 Z-1.694 I0 J0.162
X-115.287 Y-52.248 Z-1.724 I0 J-0.162
X-115.287 Y-51.923 Z-1.755 I0 J0.162
X-115.287 Y-52.248 Z-1.786 I0 J-0.162
X-115.287 Y-51.923 Z-1.816 I0 J0.162
X-115.287 Y-52.248 Z-1.847 I0 J-0.162
X-115.287 Y-51.923 Z-1.877 I0 J0.162
X-115.287 Y-52.248 Z-1.908 I0 J-0.162
X-115.287 Y-51.923 Z-1.938 I0 J0.162
X-115.287 Y-52.248 Z-1.969 I0 J-0.162
X-115.287 Y-51.923 Z-1.999 I0 J0.162
X-115.287 Y-52.248 Z-2.03 I0 J-0.162
X-115.287 Y-51.923 Z-2.06 I0 J0.162
X-115.287 Y-52.248 Z-2.091 I0 J-0.162
X-115.287 Y-51.923 Z-2.122 I0 J0.162
X-115.287 Y-52.248 Z-2.152 I0 J-0.162
X-115.287 Y-51.923 Z-2.183 I0 J0.162
X-115.445 Y-52.12 Z-2.2 I0 J-0.162
X-115.128 Y-52.05 I0.159 J0.035
X-115.445 Y-52.12 I-0.159 J-0.035
G1 X-115.433 Y-52.149
X-115.41 Y-52.171
X-115.38 Y-52.183
X-115.348 Y-52.182
X-115.193 Y-52.148
G0 Z5
X-134.669 Y-54.827
Z1.883
G1 Z0.2 F1000
Y-54.669
X-134.675 Y-54.638
X-134.693 Y-54.611
X-134.719 Y-54.594
X-134.75 Y-54.588
G3 X-134.75 Y-54.912 Z0.169 I0 J-0.162
X-134.75 Y-54.588 Z0.139 I0 J0.162
X-134.75 Y-54.912 Z0.108 I0 J-0.162
X-134.75 Y-54.588 Z0.078 I0 J0.162
X-134.75 Y-54.912 Z0.047 I0 J-0.162
X-134.75 Y-54.588 Z0.017 I0 J0.162
X-134.75 Y-54.912 Z-0.014 I0 J-0.162
X-134.75 Y-54.588 Z-0.044 I0 J0.162
X-134.75 Y-54.912 Z-0.075 I0 J-0.162
X-134.75 Y-54.588 Z-0.105 I0 J0.162
X-134.75 Y-54.912 Z-0.136 I0 J-0.162
X-134.75 Y-54.588 Z-0.167 I0 J0.162
X-134.75 Y-54.912 Z-0.197 I0 J-0.162
X-134.75 Y-54.588 Z-0.228 I0 J0.162
X-134.75 Y-54.912 Z-0.258 I0 J-0.162
X-134.75 Y-54.588 Z-0.289 I0 J0.162
X-134.75 Y-54.912 Z-0.319 I0 J-0.162
X-134.75 Y-54.588 Z-0.35 I0 J0.162
X-134.75 Y-54.912 Z-0.38 I0 J-0.162
X-134.75 Y-54.588 Z-0.411 I0 J0.162
X-134.75 Y-54.913 Z-0.441 I0 J-0.162
X-134.75 Y-54.587 Z-0.472 I0 J0.163
X-134.75 Y-54.913 Z-0.503 I0 J-0.163
X-134.75 Y-54.587 Z-0.533 I0 J0.163
X-134.75 Y-54.913 Z-0.564 I0 J-0.163
X-134.75 Y-54.587 Z-0.594 I0 J0.163
X-134.75 Y-54.913 Z-0.625 I0 J-0.163
X-134.75 Y-54.587 Z-0.655 I0 J0.163
X-134.75 Y-54.913 Z-0.686 I0 J-0.163
X-134.75 Y-54.587 Z-0.716 I0 J0.163
X-134.75 Y-54.913 Z-0.747 I0 J-0.163
X-134.75 Y-54.587 Z-0.777 I0 J0.163
X-134.75 Y-54.913 Z-0.808 I0 J-0.163
X-134.75 Y-54.587 Z-0.839 I0 J0.163
X-134.75 Y-54.913 Z-0.869 I0 J-0.163
X-134.75 Y-54.587 Z-0.9 I0 J0.163
X-134.75 Y-54.913 Z-0.93 I0 J-0.163
X-134.75 Y-54.587 Z-0.961 I0 J0.163
X-134.75 Y-54.913 Z-0.991 I0 J-0.163
X-134.75 Y-54.587 Z-1.022 I0 J0.163
X-134.75 Y-54.913 Z-1.052 I0 J-0.163
X-134.75 Y-54.587 Z-1.083 I0 J0.163
X-134.75 Y-54.913 Z-1.113 I0 J-0.163
X-134.75 Y-54.587 Z-1.144 I0 J0.163
X-134.75 Y-54.913 Z-1.175 I0 J-0.163
X-134.75 Y-54.587 Z-1.205 I0 J0.163
X-134.75 Y-54.913 Z-1.236 I0 J-0.163
X-134.75 Y-54.587 Z-1.266 I0 J0.163
X-134.75 Y-54.913 Z-1.297 I0 J-0.163
X-134.75 Y-54.587 Z-1.327 I0 J0.163
X-134.75 Y-54.913 Z-1.358 I0 J-0.163
X-134.75 Y-54.587 Z-1.388 I0 J0.163
X-134.75 Y-54.913 Z-1.419 I0 J-0.163
X-134.75 Y-54.587 Z-1.45 I0 J0.163
X-134.75 Y-54.913 Z-1.48 I0 J-0.163
X-134.75 Y-54.587 Z-1.511 I0 J0.163
X-134.75 Y-54.913 Z-1.541 I0 J-0.163
X-134.75 Y-54.587 Z-1.572 I0 J0.163
X-134.75 Y-54.913 Z-1.602 I0 J-0.163
X-134.75 Y-54.587 Z-1.633 I0 J0.163
X-134.75 Y-54.913 Z-1.663 I0 J-0.163
X-134.75 Y-54.587 Z-1.694 I0 J0.163
X-134.75 Y-54.913 Z-1.724 I0 J-0.163
X-134.75 Y-54.587 Z-1.755 I0 J0.163
X-134.75 Y-54.913 Z-1.786 I0 J-0.163
X-134.75 Y-54.587 Z-1.816 I0 J0.163
X-134.75 Y-54.913 Z-1.847 I0 J-0.163
X-134.75 Y-54.587 Z-1.877 I0 J0.163
X-134.75 Y-54.913 Z-1.908 I0 J-0.163
X-134.75 Y-54.587 Z-1.938 I0 J0.163
X-134.75 Y-54.913 Z-1.969 I0 J-0.163
X-134.75 Y-54.587 Z-1.999 I0 J0.163
X-134.75 Y-54.913 Z-2.03 I0 J-0.163
X-134.75 Y-54.587 Z-2.06 I0 J0.163
X-134.75 Y-54.913 Z-2.091 I0 J-0.163
X-134.75 Y-54.587 Z-2.122 I0 J0.163
X-134.75 Y-54.913 Z-2.152 I0 J-0.163
X-134.75 Y-54.587 Z-2.183 I0 J0.163
X-134.909 Y-54.785 Z-2.2 I0 J-0.163
X-134.591 Y-54.715 I0.159 J0.035
X-134.909 Y-54.785 I-0.159 J-0.035
G1 X-134.896 Y-54.814
X-134.873 Y-54.836
X-134.844 Y-54.847
X-134.812
X-134.657 Y-54.813
G0 Z5
X-165.169 Y-54.827
Z1.883
G1 Z0.2 F1000
Y-54.669
X-165.175 Y-54.638
X-165.193 Y-54.611
X-165.219 Y-54.594
X-165.25 Y-54.588
G3 X-165.25 Y-54.912 Z0.169 I0 J-0.162
X-165.25 Y-54.588 Z0.139 I0 J0.162
X-165.25 Y-54.912 Z0.108 I0 J-0.162
X-165.25 Y-54.588 Z0.078 I0 J0.162
X-165.25 Y-54.912 Z0.047 I0 J-0.162
X-165.25 Y-54.588 Z0.017 I0 J0.162
X-165.25 Y-54.912 Z-0.014 I0 J-0.162
X-165.25 Y-54.588 Z-0.044 I0 J0.162
X-165.25 Y-54.912 Z-0.075 I0 J-0.162
X-165.25 Y-54.588 Z-0.105 I0 J0.162
X-165.25 Y-54.912 Z-0.136 I0 J-0.162
X-165.25 Y-54.588 Z-0.167 I0 J0.162
X-165.25 Y-54.912 Z-0.197 I0 J-0.162
X-165.25 Y-54.588 Z-0.228 I0 J0.162
X-165.25 Y-54.912 Z-0.258 I0 J-0.162
X-165.25 Y-54.588 Z-0.289 I0 J0.162
X-165.25 Y-54.912 Z-0.319 I0 J-0.162
X-165.25 Y-54.588 Z-0.35 I0 J0.162
X-165.25 Y-54.912 Z-0.38 I0 J-0.162
X-165.25 Y-54.588 Z-0.411 I0 J0.162
X-165.25 Y-54.913 Z-0.441 I0 J-0.162
X-165.25 Y-54.587 Z-0.472 I0 J0.163
X-165.25 Y-54.913 Z-0.503 I0 J-0.163
X-165.25 Y-54.587 Z-0.533 I0 J0.163
X-165.25 Y-54.913 Z-0.564 I0 J-0.163
X-165.25 Y-54.587 Z-0.594 I0 J0.163
X-165.25 Y-54.913 Z-0.625 I0 J-0.163
X-165.25 Y-54.587 Z-0.655 I0 J0.163
X-165.25 Y-54.913 Z-0.686 I0 J-0.163
X-165.25 Y-54.587 Z-0.716 I0 J0.163
X-165.25 Y-54.913 Z-0.747 I0 J-0.163
X-165.25 Y-54.587 Z-0.777 I0 J0.163
X-165.25 Y-54.913 Z-0.808 I0 J-0.163
X-165.25 Y-54.587 Z-0.839 I0 J0.163
X-165.25 Y-54.913 Z-0.869 I0 J-0.163
X-165.25 Y-54.587 Z-0.9 I0 J0.163
X-165.25 Y-54.913 Z-0.93 I0 J-0.163
X-165.25 Y-54.587 Z-0.961 I0 J0.163
X-165.25 Y-54.913 Z-0.991 I0 J-0.163
X-165.25 Y-54.587 Z-1.022 I0 J0.163
X-165.25 Y-54.913 Z-1.052 I0 J-0.163
X-165.25 Y-54.587 Z-1.083 I0 J0.163
X-165.25 Y-54.913 Z-1.113 I0 J-0.163
X-165.25 Y-54.587 Z-1.144 I0 J0.163
X-165.25 Y-54.913 Z-1.175 I0 J-0.163
X-165.25 Y-54.587 Z-1.205 I0 J0.163
X-165.25 Y-54.913 Z-1.236 I0 J-0.163
X-165.25 Y-54.587 Z-1.266 I0 J0.163
X-165.25 Y-54.913 Z-1.297 I0 J-0.163
X-165.25 Y-54.587 Z-1.327 I0 J0.163
X-165.25 Y-54.913 Z-1.358 I0 J-0.163
X-165.25 Y-54.587 Z-1.388 I0 J0.163
X-165.25 Y-54.913 Z-1.419 I0 J-0.163
X-165.25 Y-54.587 Z-1.45 I0 J0.163
X-165.25 Y-54.913 Z-1.48 I0 J-0.163
X-165.25 Y-54.587 Z-1.511 I0 J0.163
X-165.25 Y-54.913 Z-1.541 I0 J-0.163
X-165.25 Y-54.587 Z-1.572 I0 J0.163
X-165.25 Y-54.913 Z-1.602 I0 J-0.163
X-165.25 Y-54.587 Z-1.633 I0 J0.163
X-165.25 Y-54.913 Z-1.663 I0 J-0.163
X-165.25 Y-54.587 Z-1.694 I0 J0.163
X-165.25 Y-54.913 Z-1.724 I0 J-0.163
X-165.25 Y-54.587 Z-1.755 I0 J0.163
X-165.25 Y-54.913 Z-1.786 I0 J-0.163
X-165.25 Y-54.587 Z-1.816 I0 J0.163
X-165.25 Y-54.913 Z-1.847 I0 J-0.163
X-165.25 Y-54.587 Z-1.877 I0 J0.163
X-165.25 Y-54.913 Z-1.908 I0 J-0.163
X-165.25 Y-54.587 Z-1.938 I0 J0.163
X-165.25 Y-54.913 Z-1.969 I0 J-0.163
X-165.25 Y-54.587 Z-1.999 I0 J0.163
X-165.25 Y-54.913 Z-2.03 I0 J-0.163
X-165.25 Y-54.587 Z-2.06 I0 J0.163
X-165.25 Y-54.913 Z-2.091 I0 J-0.163
X-165.25 Y-54.587 Z-2.122 I0 J0.163
X-165.25 Y-54.913 Z-2.152 I0 J-0.163
X-165.25 Y-54.587 Z-2.183 I0 J0.163
X-165.409 Y-54.785 Z-2.2 I0 J-0.163
X-165.091 Y-54.715 I0.159 J0.035
X-165.409 Y-54.785 I-0.159 J-0.035
G1 X-165.396 Y-54.814
X-165.373 Y-54.836
X-165.344 Y-54.847
X-165.312
X-165.157 Y-54.813
G0 Z5
X-165.61 Y-27.163
Z1.883
G1 Z0.2 F1000
Y-27.004
X-165.616 Y-26.973
X-165.634 Y-26.947
X-165.66 Y-26.929
X-165.691 Y-26.923
G3 X-165.691 Y-27.248 Z0.169 I0 J-0.163
X-165.691 Y-26.923 Z0.139 I0 J0.163
X-165.691 Y-27.248 Z0.108 I0 J-0.163
X-165.691 Y-26.923 Z0.078 I0 J0.163
X-165.691 Y-27.248 Z0.047 I0 J-0.163
X-165.691 Y-26.923 Z0.017 I0 J0.163
X-165.691 Y-27.248 Z-0.014 I0 J-0.163
X-165.691 Y-26.923 Z-0.044 I0 J0.163
X-165.691 Y-27.248 Z-0.075 I0 J-0.163
X-165.691 Y-26.923 Z-0.105 I0 J0.163
X-165.691 Y-27.248 Z-0.136 I0 J-0.163
X-165.691 Y-26.923 Z-0.167 I0 J0.163
X-165.691 Y-27.248 Z-0.197 I0 J-0.163
X-165.691 Y-26.923 Z-0.228 I0 J0.163
X-165.691 Y-27.248 Z-0.258 I0 J-0.163
X-165.691 Y-26.923 Z-0.289 I0 J0.163
X-165.691 Y-27.248 Z-0.319 I0 J-0.163
X-165.691 Y-26.923 Z-0.35 I0 J0.163
X-165.691 Y-27.248 Z-0.38 I0 J-0.163
X-165.691 Y-26.923 Z-0.411 I0 J0.163
X-165.691 Y-27.248 Z-0.441 I0 J-0.163
X-165.691 Y-26.923 Z-0.472 I0 J0.163
X-165.691 Y-27.248 Z-0.503 I0 J-0.163
X-165.691 Y-26.923 Z-0.533 I0 J0.163
X-165.691 Y-27.248 Z-0.564 I0 J-0.163
X-165.691 Y-26.923 Z-0.594 I0 J0.163
X-165.691 Y-27.248 Z-0.625 I0 J-0.163
X-165.691 Y-26.923 Z-0.655 I0 J0.163
X-165.691 Y-27.248 Z-0.686 I0 J-0.163
X-165.691 Y-26.923 Z-0.716 I0 J0.163
X-165.691 Y-27.248 Z-0.747 I0 J-0.163
X-165.691 Y-26.923 Z-0.777 I0 J0.163
X-165.691 Y-27.248 Z-0.808 I0 J-0.163
X-165.691 Y-26.923 Z-0.839 I0 J0.163
X-165.691 Y-27.248 Z-0.869 I0 J-0.163
X-165.691 Y-26.923 Z-0.9 I0 J0.163
X-165.691 Y-27.248 Z-0.93 I0 J-0.163
X-165.691 Y-26.923 Z-0.961 I0 J0.163
X-165.691 Y-27.248 Z-0.991 I0 J-0.163
X-165.691 Y-26.923 Z-1.022 I0 J0.163
X-165.691 Y-27.248 Z-1.052 I0 J-0.163
X-165.691 Y-26.923 Z-1.083 I0 J0.163
X-165.691 Y-27.248 Z-1.113 I0 J-0.163
X-165.691 Y-26.923 Z-1.144 I0 J0.163
X-165.691 Y-27.248 Z-1.175 I0 J-0.163
X-165.691 Y-26.923 Z-1.205 I0 J0.163
X-165.691 Y-27.248 Z-1.236 I0 J-0.163
X-165.691 Y-26.923 Z-1.266 I0 J0.163
X-165.691 Y-27.248 Z-1.297 I0 J-0.163
X-165.691 Y-26.923 Z-1.327 I0 J0.163
X-165.691 Y-27.248 Z-1.358 I0 J-0.163
X-165.691 Y-26.923 Z-1.388 I0 J0.163
X-165.691 Y-27.248 Z-1.419 I0 J-0.163
X-165.691 Y-26.923 Z-1.45 I0 J0.163
X-165.691 Y-27.248 Z-1.48 I0 J-0.163
X-165.691 Y-26.923 Z-1.511 I0 J0.163
X-165.691 Y-27.248 Z-1.541 I0 J-0.163
X-165.691 Y-26.923 Z-1.572 I0 J0.163
X-165.691 Y-27.248 Z-1.602 I0 J-0.163
X-165.691 Y-26.923 Z-1.633 I0 J0.163
X-165.691 Y-27.248 Z-1.663 I0 J-0.163
X-165.691 Y-26.923 Z-1.694 I0 J0.163
X-165.691 Y-27.248 Z-1.724 I0 J-0.163
X-165.691 Y-26.923 Z-1.755 I0 J0.163
X-165.691 Y-27.248 Z-1.786 I0 J-0.163
X-165.691 Y-26.923 Z-1.816 I0 J0.163
X-165.691 Y-27.248 Z-1.847 I0 J-0.163
X-165.691 Y-26.923 Z-1.877 I0 J0.163
X-165.691 Y-27.248 Z-1.908 I0 J-0.163
X-165.691 Y-26.923 Z-1.938 I0 J0.163
X-165.691 Y-27.248 Z-1.969 I0 J-0.163
X-165.691 Y-26.923 Z-1.999 I0 J0.163
X-165.691 Y-27.248 Z-2.03 I0 J-0.163
X-165.691 Y-26.923 Z-2.06 I0 J0.163
X-165.691 Y-27.248 Z-2.091 I0 J-0.163
X-165.691 Y-26.923 Z-2.122 I0 J0.163
X-165.691 Y-27.248 Z-2.152 I0 J-0.163
X-165.691 Y-26.923 Z-2.183 I0 J0.163
X-165.85 Y-27.12 Z-2.2 I0 J-0.163
X-165.533 Y-27.05 I0.159 J0.035
X-165.85 Y-27.12 I-0.159 J-0.035
G1 X-165.837 Y-27.149
X-165.815 Y-27.171
X-165.785 Y-27.183
X-165.753 Y-27.182
X-165.598 Y-27.148
G0 Z5
X-184.919 Y-20.077
Z1.883
G1 Z0.2 F1000
Y-19.919
X-184.925 Y-19.888
X-184.943 Y-19.861
X-184.969 Y-19.844
X-185 Y-19.837
G3 X-185 Y-20.163 Z0.169 I0 J-0.163
X-185 Y-19.837 Z0.139 I0 J0.163
X-185 Y-20.163 Z0.108 I0 J-0.163
X-185 Y-19.837 Z0.078 I0 J0.163
X-185 Y-20.163 Z0.047 I0 J-0.163
X-185 Y-19.837 Z0.017 I0 J0.163
X-185 Y-20.163 Z-0.014 I0 J-0.163
X-185 Y-19.837 Z-0.044 I0 J0.163
X-185 Y-20.163 Z-0.075 I0 J-0.163
X-185 Y-19.837 Z-0.105 I0 J0.163
X-185 Y-20.163 Z-0.136 I0 J-0.163
X-185 Y-19.837 Z-0.167 I0 J0.163
X-185 Y-20.163 Z-0.197 I0 J-0.163
X-185 Y-19.837 Z-0.228 I0 J0.163
X-185 Y-20.163 Z-0.258 I0 J-0.163
X-185 Y-19.837 Z-0.289 I0 J0.163
X-185 Y-20.163 Z-0.319 I0 J-0.163
X-185 Y-19.837 Z-0.35 I0 J0.163
X-185 Y-20.163 Z-0.38 I0 J-0.163
X-185 Y-19.837 Z-0.411 I0 J0.163
X-185 Y-20.163 Z-0.441 I0 J-0.163
X-185 Y-19.837 Z-0.472 I0 J0.163
X-185 Y-20.163 Z-0.503 I0 J-0.163
X-185 Y-19.837 Z-0.533 I0 J0.163
X-185 Y-20.163 Z-0.564 I0 J-0.163
X-185 Y-19.837 Z-0.594 I0 J0.163
X-185 Y-20.163 Z-0.625 I0 J-0.163
X-185 Y-19.837 Z-0.655 I0 J0.163
X-185 Y-20.163 Z-0.686 I0 J-0.163
X-185 Y-19.837 Z-0.716 I0 J0.163
X-185 Y-20.163 Z-0.747 I0 J-0.163
X-185 Y-19.837 Z-0.777 I0 J0.163
X-185 Y-20.163 Z-0.808 I0 J-0.163
X-185 Y-19.837 Z-0.839 I0 J0.163
X-185 Y-20.163 Z-0.869 I0 J-0.163
X-185 Y-19.837 Z-0.9 I0 J0.163
X-185 Y-20.163 Z-0.93 I0 J-0.163
X-185 Y-19.837 Z-0.961 I0 J0.163
X-185 Y-20.163 Z-0.991 I0 J-0.163
X-185 Y-19.837 Z-1.022 I0 J0.163
X-185 Y-20.163 Z-1.052 I0 J-0.163
X-185 Y-19.837 Z-1.083 I0 J0.163
X-185 Y-20.163 Z-1.113 I0 J-0.163
X-185 Y-19.837 Z-1.144 I0 J0.163
X-185 Y-20.163 Z-1.175 I0 J-0.163
X-185 Y-19.837 Z-1.205 I0 J0.163
X-185 Y-20.163 Z-1.236 I0 J-0.163
X-185 Y-19.837 Z-1.266 I0 J0.163
X-185 Y-20.163 Z-1.297 I0 J-0.163
X-185 Y-19.837 Z-1.327 I0 J0.163
X-185 Y-20.163 Z-1.358 I0 J-0.163
X-185 Y-19.837 Z-1.388 I0 J0.163
X-185 Y-20.163 Z-1.419 I0 J-0.163
X-185 Y-19.837 Z-1.45 I0 J0.163
X-185 Y-20.163 Z-1.48 I0 J-0.163
X-185 Y-19.837 Z-1.511 I0 J0.163
X-185 Y-20.163 Z-1.541 I0 J-0.163
X-185 Y-19.837 Z-1.572 I0 J0.163
X-185 Y-20.163 Z-1.602 I0 J-0.163
X-185 Y-19.837 Z-1.633 I0 J0.163
X-185 Y-20.163 Z-1.663 I0 J-0.163
X-185 Y-19.837 Z-1.694 I0 J0.163
X-185 Y-20.163 Z-1.724 I0 J-0.163
X-185 Y-19.837 Z-1.755 I0 J0.163
X-185 Y-20.163 Z-1.786 I0 J-0.163
X-185 Y-19.837 Z-1.816 I0 J0.163
X-185 Y-20.163 Z-1.847 I0 J-0.163
X-185 Y-19.837 Z-1.877 I0 J0.163
X-185 Y-20.163 Z-1.908 I0 J-0.163
X-185 Y-19.837 Z-1.938 I0 J0.163
X-185 Y-20.163 Z-1.969 I0 J-0.163
X-185 Y-19.837 Z-1.999 I0 J0.163
X-185 Y-20.163 Z-2.03 I0 J-0.163
X-185 Y-19.837 Z-2.06 I0 J0.163
X-185 Y-20.163 Z-2.091 I0 J-0.163
X-185 Y-19.837 Z-2.122 I0 J0.163
X-185 Y-20.163 Z-2.152 I0 J-0.163
X-185 Y-19.837 Z-2.183 I0 J0.163
X-185.159 Y-20.035 Z-2.2 I0 J-0.163
X-184.841 Y-19.965 I0.159 J0.035
X-185.159 Y-20.035 I-0.159 J-0.035
G1 X-185.146 Y-20.064
X-185.123 Y-20.086
X-185.094 Y-20.097
X-185.062
X-184.907 Y-20.063
G0 Z5
X-244.919 Y-35.077
Z1.883
G1 Z0.2 F1000
Y-34.919
X-244.925 Y-34.888
X-244.943 Y-34.861
X-244.969 Y-34.844
X-245 Y-34.838
G3 X-245 Y-35.162 Z0.169 I0 J-0.162
X-245 Y-34.838 Z0.139 I0 J0.162
X-245 Y-35.162 Z0.108 I0 J-0.162
X-245 Y-34.838 Z0.078 I0 J0.162
X-245 Y-35.162 Z0.047 I0 J-0.162
X-245 Y-34.838 Z0.017 I0 J0.162
X-245 Y-35.162 Z-0.014 I0 J-0.162
X-245 Y-34.838 Z-0.044 I0 J0.162
X-245 Y-35.162 Z-0.075 I0 J-0.162
X-245 Y-34.838 Z-0.105 I0 J0.162
X-245 Y-35.162 Z-0.136 I0 J-0.162
X-245 Y-34.838 Z-0.167 I0 J0.162
X-245 Y-35.162 Z-0.197 I0 J-0.162
X-245 Y-34.838 Z-0.228 I0 J0.162
X-245 Y-35.162 Z-0.258 I0 J-0.162
X-245 Y-34.838 Z-0.289 I0 J0.162
X-245 Y-35.162 Z-0.319 I0 J-0.162
X-245 Y-34.838 Z-0.35 I0 J0.162
X-245 Y-35.162 Z-0.38 I0 J-0.162
X-245 Y-34.838 Z-0.411 I0 J0.162
X-245 Y-35.163 Z-0.441 I0 J-0.162
X-245 Y-34.837 Z-0.472 I0 J0.163
X-245 Y-35.163 Z-0.503 I0 J-0.163
X-245 Y-34.837 Z-0.533 I0 J0.163
X-245 Y-35.163 Z-0.564 I0 J-0.163
X-245 Y-34.837 Z-0.594 I0 J0.163
X-245 Y-35.163 Z-0.625 I0 J-0.163
X-245 Y-34.837 Z-0.655 I0 J0.163
X-245 Y-35.163 Z-0.686 I0 J-0.163
X-245 Y-34.837 Z-0.716 I0 J0.163
X-245 Y-35.163 Z-0.747 I0 J-0.163
X-245 Y-34.837 Z-0.777 I0 J0.163
X-245 Y-35.163 Z-0.808 I0 J-0.163
X-245 Y-34.837 Z-0.839 I0 J0.163
X-245 Y-35.163 Z-0.869 I0 J-0.163
X-245 Y-34.837 Z-0.9 I0 J0.163
X-245 Y-35.163 Z-0.93 I0 J-0.163
X-245 Y-34.837 Z-0.961 I0 J0.163
X-245 Y-35.163 Z-0.991 I0 J-0.163
X-245 Y-34.837 Z-1.022 I0 J0.163
X-245 Y-35.163 Z-1.052 I0 J-0.163
X-245 Y-34.837 Z-1.083 I0 J0.163
X-245 Y-35.163 Z-1.113 I0 J-0.163
X-245 Y-34.837 Z-1.144 I0 J0.163
X-245 Y-35.163 Z-1.175 I0 J-0.163
X-245 Y-34.837 Z-1.205 I0 J0.163
X-245 Y-35.163 Z-1.236 I0 J-0.163
X-245 Y-34.837 Z-1.266 I0 J0.163
X-245 Y-35.163 Z-1.297 I0 J-0.163
X-245 Y-34.837 Z-1.327 I0 J0.163
X-245 Y-35.163 Z-1.358 I0 J-0.163
X-245 Y-34.837 Z-1.388 I0 J0.163
X-245 Y-35.163 Z-1.419 I0 J-0.163
X-245 Y-34.837 Z-1.45 I0 J0.163
X-245 Y-35.163 Z-1.48 I0 J-0.163
X-245 Y-34.837 Z-1.511 I0 J0.163
X-245 Y-35.163 Z-1.541 I0 J-0.163
X-245 Y-34.837 Z-1.572 I0 J0.163
X-245 Y-35.163 Z-1.602 I0 J-0.163
X-245 Y-34.837 Z-1.633 I0 J0.163
X-245 Y-35.163 Z-1.663 I0 J-0.163
X-245 Y-34.837 Z-1.694 I0 J0.163
X-245 Y-35.163 Z-1.724 I0 J-0.163
X-245 Y-34.837 Z-1.755 I0 J0.163
X-245 Y-35.163 Z-1.786 I0 J-0.163
X-245 Y-34.837 Z-1.816 I0 J0.163
X-245 Y-35.163 Z-1.847 I0 J-0.163
X-245 Y-34.837 Z-1.877 I0 J0.163
X-245 Y-35.163 Z-1.908 I0 J-0.163
X-245 Y-34.837 Z-1.938 I0 J0.163
X-245 Y-35.163 Z-1.969 I0 J-0.163
X-245 Y-34.837 Z-1.999 I0 J0.163
X-245 Y-35.163 Z-2.03 I0 J-0.163
X-245 Y-34.837 Z-2.06 I0 J0.163
X-245 Y-35.163 Z-2.091 I0 J-0.163
X-245 Y-34.837 Z-2.122 I0 J0.163
X-245 Y-35.163 Z-2.152 I0 J-0.163
X-245 Y-34.837 Z-2.183 I0 J0.163
X-245.159 Y-35.035 Z-2.2 I0 J-0.163
X-244.841 Y-34.965 I0.159 J0.035
X-245.159 Y-35.035 I-0.159 J-0.035
G1 X-245.146 Y-35.064
X-245.123 Y-35.086
X-245.094 Y-35.097
X-245.062
X-244.907 Y-35.063
G0 Z5
X-269.919 Y-40.077
Z1.883
G1 Z0.2 F1000
Y-39.919
X-269.925 Y-39.888
X-269.943 Y-39.861
X-269.969 Y-39.844
X-270 Y-39.838
G3 X-270 Y-40.162 Z0.169 I0 J-0.162
X-270 Y-39.838 Z0.139 I0 J0.162
X-270 Y-40.162 Z0.108 I0 J-0.162
X-270 Y-39.838 Z0.078 I0 J0.162
X-270 Y-40.162 Z0.047 I0 J-0.162
X-270 Y-39.838 Z0.017 I0 J0.162
X-270 Y-40.162 Z-0.014 I0 J-0.162
X-270 Y-39.838 Z-0.044 I0 J0.162
X-270 Y-40.162 Z-0.075 I0 J-0.162
X-270 Y-39.838 Z-0.105 I0 J0.162
X-270 Y-40.162 Z-0.136 I0 J-0.162
X-270 Y-39.838 Z-0.167 I0 J0.162
X-270 Y-40.162 Z-0.197 I0 J-0.162
X-270 Y-39.838 Z-0.228 I0 J0.162
X-270 Y-40.162 Z-0.258 I0 J-0.162
X-270 Y-39.838 Z-0.289 I0 J0.162
X-270 Y-40.162 Z-0.319 I0 J-0.162
X-270 Y-39.838 Z-0.35 I0 J0.162
X-270 Y-40.162 Z-0.38 I0 J-0.162
X-270 Y-39.838 Z-0.411 I0 J0.162
X-270 Y-40.163 Z-0.441 I0 J-0.162
X-270 Y-39.837 Z-0.472 I0 J0.163
X-270 Y-40.163 Z-0.503 I0 J-0.163
X-270 Y-39.837 Z-0.533 I0 J0.163
X-270 Y-40.163 Z-0.564 I0 J-0.163
X-270 Y-39.837 Z-0.594 I0 J0.163
X-270 Y-40.163 Z-0.625 I0 J-0.163
X-270 Y-39.837 Z-0.655 I0 J0.163
X-270 Y-40.163 Z-0.686 I0 J-0.163
X-270 Y-39.837 Z-0.716 I0 J0.163
X-270 Y-40.163 Z-0.747 I0 J-0.163
X-270 Y-39.837 Z-0.777 I0 J0.163
X-270 Y-40.163 Z-0.808 I0 J-0.163
X-270 Y-39.837 Z-0.839 I0 J0.163
X-270 Y-40.163 Z-0.869 I0 J-0.163
X-270 Y-39.837 Z-0.9 I0 J0.163
X-270 Y-40.163 Z-0.93 I0 J-0.163
X-270 Y-39.837 Z-0.961 I0 J0.163
X-270 Y-40.163 Z-0.991 I0 J-0.163
X-270 Y-39.837 Z-1.022 I0 J0.163
X-270 Y-40.163 Z-1.052 I0 J-0.163
X-270 Y-39.837 Z-1.083 I0 J0.163
X-270 Y-40.163 Z-1.113 I0 J-0.163
X-270 Y-39.837 Z-1.144 I0 J0.163
X-270 Y-40.163 Z-1.175 I0 J-0.163
X-270 Y-39.837 Z-1.205 I0 J0.163
X-270 Y-40.163 Z-1.236 I0 J-0.163
X-270 Y-39.837 Z-1.266 I0 J0.163
X-270 Y-40.163 Z-1.297 I0 J-0.163
X-270 Y-39.837 Z-1.327 I0 J0.163
X-270 Y-40.163 Z-1.358 I0 J-0.163
X-270 Y-39.837 Z-1.388 I0 J0.163
X-270 Y-40.163 Z-1.419 I0 J-0.163
X-270 Y-39.837 Z-1.45 I0 J0.163
X-270 Y-40.163 Z-1.48 I0 J-0.163
X-270 Y-39.837 Z-1.511 I0 J0.163
X-270 Y-40.163 Z-1.541 I0 J-0.163
X-270 Y-39.837 Z-1.572 I0 J0.163
X-270 Y-40.163 Z-1.602 I0 J-0.163
X-270 Y-39.837 Z-1.633 I0 J0.163
X-270 Y-40.163 Z-1.663 I0 J-0.163
X-270 Y-39.837 Z-1.694 I0 J0.163
X-270 Y-40.163 Z-1.724 I0 J-0.163
X-270 Y-39.837 Z-1.755 I0 J0.163
X-270 Y-40.163 Z-1.786 I0 J-0.163
X-270 Y-39.837 Z-1.816 I0 J0.163
X-270 Y-40.163 Z-1.847 I0 J-0.163
X-270 Y-39.837 Z-1.877 I0 J0.163
X-270 Y-40.163 Z-1.908 I0 J-0.163
X-270 Y-39.837 Z-1.938 I0 J0.163
X-270 Y-40.163 Z-1.969 I0 J-0.163
X-270 Y-39.837 Z-1.999 I0 J0.163
X-270 Y-40.163 Z-2.03 I0 J-0.163
X-270 Y-39.837 Z-2.06 I0 J0.163
X-270 Y-40.163 Z-2.091 I0 J-0.163
X-270 Y-39.837 Z-2.122 I0 J0.163
X-270 Y-40.163 Z-2.152 I0 J-0.163
X-270 Y-39.837 Z-2.183 I0 J0.163
X-270.159 Y-40.035 Z-2.2 I0 J-0.163
X-269.841 Y-39.965 I0.159 J0.035
X-270.159 Y-40.035 I-0.159 J-0.035
G1 X-270.146 Y-40.064
X-270.123 Y-40.086
X-270.094 Y-40.097
X-270.062
X-269.907 Y-40.063
G0 Z5
X-269.919 Y-100.077
Z1.883
G1 Z0.2 F1000
Y-99.919
X-269.925 Y-99.888
X-269.943 Y-99.861
X-269.969 Y-99.844
X-270 Y-99.838
G3 X-270 Y-100.162 Z0.169 I0 J-0.162
X-270 Y-99.838 Z0.139 I0 J0.162
X-270 Y-100.162 Z0.108 I0 J-0.162
X-270 Y-99.838 Z0.078 I0 J0.162
X-270 Y-100.162 Z0.047 I0 J-0.162
X-270 Y-99.838 Z0.017 I0 J0.162
X-270 Y-100.162 Z-0.014 I0 J-0.162
X-270 Y-99.838 Z-0.044 I0 J0.162
X-270 Y-100.162 Z-0.075 I0 J-0.162
X-270 Y-99.838 Z-0.105 I0 J0.162
X-270 Y-100.162 Z-0.136 I0 J-0.162
X-270 Y-99.838 Z-0.167 I0 J0.162
X-270 Y-100.162 Z-0.197 I0 J-0.162
X-270 Y-99.838 Z-0.228 I0 J0.162
X-270 Y-100.162 Z-0.258 I0 J-0.162
X-270 Y-99.838 Z-0.289 I0 J0.162
X-270 Y-100.162 Z-0.319 I0 J-0.162
X-270 Y-99.838 Z-0.35 I0 J0.162
X-270 Y-100.162 Z-0.38 I0 J-0.162
X-270 Y-99.838 Z-0.411 I0 J0.162
X-270 Y-100.163 Z-0.441 I0 J-0.162
X-270 Y-99.837 Z-0.472 I0 J0.163
X-270 Y-100.163 Z-0.503 I0 J-0.163
X-270 Y-99.837 Z-0.533 I0 J0.163
X-270 Y-100.163 Z-0.564 I0 J-0.163
X-270 Y-99.837 Z-0.594 I0 J0.163
X-270 Y-100.163 Z-0.625 I0 J-0.163
X-270 Y-99.837 Z-0.655 I0 J0.163
X-270 Y-100.163 Z-0.686 I0 J-0.163
X-270 Y-99.837 Z-0.716 I0 J0.163
X-270 Y-100.163 Z-0.747 I0 J-0.163
X-270 Y-99.837 Z-0.777 I0 J0.163
X-270 Y-100.163 Z-0.808 I0 J-0.163
X-270 Y-99.837 Z-0.839 I0 J0.163
X-270 Y-100.163 Z-0.869 I0 J-0.163
X-270 Y-99.837 Z-0.9 I0 J0.163
X-270 Y-100.163 Z-0.93 I0 J-0.163
X-270 Y-99.837 Z-0.961 I0 J0.163
X-270 Y-100.163 Z-0.991 I0 J-0.163
X-270 Y-99.837 Z-1.022 I0 J0.163
X-270 Y-100.163 Z-1.052 I0 J-0.163
X-270 Y-99.837 Z-1.083 I0 J0.163
X-270 Y-100.163 Z-1.113 I0 J-0.163
X-270 Y-99.837 Z-1.144 I0 J0.163
X-270 Y-100.163 Z-1.175 I0 J-0.163
X-270 Y-99.837 Z-1.205 I0 J0.163
X-270 Y-100.163 Z-1.236 I0 J-0.163
X-270 Y-99.837 Z-1.266 I0 J0.163
X-270 Y-100.163 Z-1.297 I0 J-0.163
X-270 Y-99.837 Z-1.327 I0 J0.163
X-270 Y-100.163 Z-1.358 I0 J-0.163
X-270 Y-99.837 Z-1.388 I0 J0.163
X-270 Y-100.163 Z-1.419 I0 J-0.163
X-270 Y-99.837 Z-1.45 I0 J0.163
X-270 Y-100.163 Z-1.48 I0 J-0.163
X-270 Y-99.837 Z-1.511 I0 J0.163
X-270 Y-100.163 Z-1.541 I0 J-0.163
X-270 Y-99.837 Z-1.572 I0 J0.163
X-270 Y-100.163 Z-1.602 I0 J-0.163
X-270 Y-99.837 Z-1.633 I0 J0.163
X-270 Y-100.163 Z-1.663 I0 J-0.163
X-270 Y-99.837 Z-1.694 I0 J0.163
X-270 Y-100.163 Z-1.724 I0 J-0.163
X-270 Y-99.837 Z-1.755 I0 J0.163
X-270 Y-100.163 Z-1.786 I0 J-0.163
X-270 Y-99.837 Z-1.816 I0 J0.163
X-270 Y-100.163 Z-1.847 I0 J-0.163
X-270 Y-99.837 Z-1.877 I0 J0.163
X-270 Y-100.163 Z-1.908 I0 J-0.163
X-270 Y-99.837 Z-1.938 I0 J0.163
X-270 Y-100.163 Z-1.969 I0 J-0.163
X-270 Y-99.837 Z-1.999 I0 J0.163
X-270 Y-100.163 Z-2.03 I0 J-0.163
X-270 Y-99.837 Z-2.06 I0 J0.163
X-270 Y-100.163 Z-2.091 I0 J-0.163
X-270 Y-99.837 Z-2.122 I0 J0.163
X-270 Y-100.163 Z-2.152 I0 J-0.163
X-270 Y-99.837 Z-2.183 I0 J0.163
X-270.159 Y-100.035 Z-2.2 I0 J-0.163
X-269.841 Y-99.965 I0.159 J0.035
X-270.159 Y-100.035 I-0.159 J-0.035
G1 X-270.146 Y-100.064
X-270.123 Y-100.086
X-270.094 Y-100.097
X-270.062
X-269.907 Y-100.063
G0 Z5
X-244.919 Y-105.077
Z1.883
G1 Z0.2 F1000
Y-104.919
X-244.925 Y-104.888
X-244.943 Y-104.861
X-244.969 Y-104.844
X-245 Y-104.838
G3 X-245 Y-105.162 Z0.169 I0 J-0.162
X-245 Y-104.838 Z0.139 I0 J0.162
X-245 Y-105.162 Z0.108 I0 J-0.162
X-245 Y-104.838 Z0.078 I0 J0.162
X-245 Y-105.162 Z0.047 I0 J-0.162
X-245 Y-104.838 Z0.017 I0 J0.162
X-245 Y-105.162 Z-0.014 I0 J-0.162
X-245 Y-104.838 Z-0.044 I0 J0.162
X-245 Y-105.162 Z-0.075 I0 J-0.162
X-245 Y-104.838 Z-0.105 I0 J0.162
X-245 Y-105.162 Z-0.136 I0 J-0.162
X-245 Y-104.838 Z-0.167 I0 J0.162
X-245 Y-105.162 Z-0.197 I0 J-0.162
X-245 Y-104.838 Z-0.228 I0 J0.162
X-245 Y-105.162 Z-0.258 I0 J-0.162
X-245 Y-104.838 Z-0.289 I0 J0.162
X-245 Y-105.162 Z-0.319 I0 J-0.162
X-245 Y-104.838 Z-0.35 I0 J0.162
X-245 Y-105.162 Z-0.38 I0 J-0.162
X-245 Y-104.838 Z-0.411 I0 J0.162
X-245 Y-105.163 Z-0.441 I0 J-0.162
X-245 Y-104.837 Z-0.472 I0 J0.163
X-245 Y-105.163 Z-0.503 I0 J-0.163
X-245 Y-104.837 Z-0.533 I0 J0.163
X-245 Y-105.163 Z-0.564 I0 J-0.163
X-245 Y-104.837 Z-0.594 I0 J0.163
X-245 Y-105.163 Z-0.625 I0 J-0.163
X-245 Y-104.837 Z-0.655 I0 J0.163
X-245 Y-105.163 Z-0.686 I0 J-0.163
X-245 Y-104.837 Z-0.716 I0 J0.163
X-245 Y-105.163 Z-0.747 I0 J-0.163
X-245 Y-104.837 Z-0.777 I0 J0.163
X-245 Y-105.163 Z-0.808 I0 J-0.163
X-245 Y-104.837 Z-0.839 I0 J0.163
X-245 Y-105.163 Z-0.869 I0 J-0.163
X-245 Y-104.837 Z-0.9 I0 J0.163
X-245 Y-105.163 Z-0.93 I0 J-0.163
X-245 Y-104.837 Z-0.961 I0 J0.163
X-245 Y-105.163 Z-0.991 I0 J-0.163
X-245 Y-104.837 Z-1.022 I0 J0.163
X-245 Y-105.163 Z-1.052 I0 J-0.163
X-245 Y-104.837 Z-1.083 I0 J0.163
X-245 Y-105.163 Z-1.113 I0 J-0.163
X-245 Y-104.837 Z-1.144 I0 J0.163
X-245 Y-105.163 Z-1.175 I0 J-0.163
X-245 Y-104.837 Z-1.205 I0 J0.163
X-245 Y-105.163 Z-1.236 I0 J-0.163
X-245 Y-104.837 Z-1.266 I0 J0.163
X-245 Y-105.163 Z-1.297 I0 J-0.163
X-245 Y-104.837 Z-1.327 I0 J0.163
X-245 Y-105.163 Z-1.358 I0 J-0.163
X-245 Y-104.837 Z-1.388 I0 J0.163
X-245 Y-105.163 Z-1.419 I0 J-0.163
X-245 Y-104.837 Z-1.45 I0 J0.163
X-245 Y-105.163 Z-1.48 I0 J-0.163
X-245 Y-104.837 Z-1.511 I0 J0.163
X-245 Y-105.163 Z-1.541 I0 J-0.163
X-245 Y-104.837 Z-1.572 I0 J0.163
X-245 Y-105.163 Z-1.602 I0 J-0.163
X-245 Y-104.837 Z-1.633 I0 J0.163
X-245 Y-105.163 Z-1.663 I0 J-0.163
X-245 Y-104.837 Z-1.694 I0 J0.163
X-245 Y-105.163 Z-1.724 I0 J-0.163
X-245 Y-104.837 Z-1.755 I0 J0.163
X-245 Y-105.163 Z-1.786 I0 J-0.163
X-245 Y-104.837 Z-1.816 I0 J0.163
X-245 Y-105.163 Z-1.847 I0 J-0.163
X-245 Y-104.837 Z-1.877 I0 J0.163
X-245 Y-105.163 Z-1.908 I0 J-0.163
X-245 Y-104.837 Z-1.938 I0 J0.163
X-245 Y-105.163 Z-1.969 I0 J-0.163
X-245 Y-104.837 Z-1.999 I0 J0.163
X-245 Y-105.163 Z-2.03 I0 J-0.163
X-245 Y-104.837 Z-2.06 I0 J0.163
X-245 Y-105.163 Z-2.091 I0 J-0.163
X-245 Y-104.837 Z-2.122 I0 J0.163
X-245 Y-105.163 Z-2.152 I0 J-0.163
X-245 Y-104.837 Z-2.183 I0 J0.163
X-245.159 Y-105.035 Z-2.2 I0 J-0.163
X-244.841 Y-104.965 I0.159 J0.035
X-245.159 Y-105.035 I-0.159 J-0.035
G1 X-245.146 Y-105.064
X-245.123 Y-105.086
X-245.094 Y-105.097
X-245.062
X-244.907 Y-105.063
G0 Z5
X-184.919 Y-120.077
Z1.883
G1 Z0.2 F1000
Y-119.919
X-184.925 Y-119.888
X-184.943 Y-119.861
X-184.969 Y-119.844
X-185 Y-119.838
G3 X-185 Y-120.162 Z0.169 I0 J-0.162
X-185 Y-119.838 Z0.139 I0 J0.162
X-185 Y-120.162 Z0.108 I0 J-0.162
X-185 Y-119.838 Z0.078 I0 J0.162
X-185 Y-120.162 Z0.047 I0 J-0.162
X-185 Y-119.838 Z0.017 I0 J0.162
X-185 Y-120.162 Z-0.014 I0 J-0.162
X-185 Y-119.838 Z-0.044 I0 J0.162
X-185 Y-120.162 Z-0.075 I0 J-0.162
X-185 Y-119.838 Z-0.105 I0 J0.162
X-185 Y-120.162 Z-0.136 I0 J-0.162
X-185 Y-119.838 Z-0.167 I0 J0.162
X-185 Y-120.162 Z-0.197 I0 J-0.162
X-185 Y-119.838 Z-0.228 I0 J0.162
X-185 Y-120.162 Z-0.258 I0 J-0.162
X-185 Y-119.838 Z-0.289 I0 J0.162
X-185 Y-120.162 Z-0.319 I0 J-0.162
X-185 Y-119.838 Z-0.35 I0 J0.162
X-185 Y-120.162 Z-0.38 I0 J-0.162
X-185 Y-119.838 Z-0.411 I0 J0.162
X-185 Y-120.163 Z-0.441 I0 J-0.162
X-185 Y-119.837 Z-0.472 I0 J0.163
X-185 Y-120.163 Z-0.503 I0 J-0.163
X-185 Y-119.837 Z-0.533 I0 J0.163
X-185 Y-120.163 Z-0.564 I0 J-0.163
X-185 Y-119.837 Z-0.594 I0 J0.163
X-185 Y-120.163 Z-0.625 I0 J-0.163
X-185 Y-119.837 Z-0.655 I0 J0.163
X-185 Y-120.163 Z-0.686 I0 J-0.163
X-185 Y-119.837 Z-0.716 I0 J0.163
X-185 Y-120.163 Z-0.747 I0 J-0.163
X-185 Y-119.837 Z-0.777 I0 J0.163
X-185 Y-120.163 Z-0.808 I0 J-0.163
X-185 Y-119.837 Z-0.839 I0 J0.163
X-185 Y-120.163 Z-0.869 I0 J-0.163
X-185 Y-119.837 Z-0.9 I0 J0.163
X-185 Y-120.163 Z-0.93 I0 J-0.163
X-185 Y-119.837 Z-0.961 I0 J0.163
X-185 Y-120.163 Z-0.991 I0 J-0.163
X-185 Y-119.837 Z-1.022 I0 J0.163
X-185 Y-120.163 Z-1.052 I0 J-0.163
X-185 Y-119.837 Z-1.083 I0 J0.163
X-185 Y-120.163 Z-1.113 I0 J-0.163
X-185 Y-119.837 Z-1.144 I0 J0.163
X-185 Y-120.163 Z-1.175 I0 J-0.163
X-185 Y-119.837 Z-1.205 I0 J0.163
X-185 Y-120.163 Z-1.236 I0 J-0.163
X-185 Y-119.837 Z-1.266 I0 J0.163
X-185 Y-120.163 Z-1.297 I0 J-0.163
X-185 Y-119.837 Z-1.327 I0 J0.163
X-185 Y-120.163 Z-1.358 I0 J-0.163
X-185 Y-119.837 Z-1.388 I0 J0.163
X-185 Y-120.163 Z-1.419 I0 J-0.163
X-185 Y-119.837 Z-1.45 I0 J0.163
X-185 Y-120.163 Z-1.48 I0 J-0.163
X-185 Y-119.837 Z-1.511 I0 J0.163
X-185 Y-120.163 Z-1.541 I0 J-0.163
X-185 Y-119.837 Z-1.572 I0 J0.163
X-185 Y-120.163 Z-1.602 I0 J-0.163
X-185 Y-119.837 Z-1.633 I0 J0.163
X-185 Y-120.163 Z-1.663 I0 J-0.163
X-185 Y-119.837 Z-1.694 I0 J0.163
X-185 Y-120.163 Z-1.724 I0 J-0.163
X-185 Y-119.837 Z-1.755 I0 J0.163
X-185 Y-120.163 Z-1.786 I0 J-0.163
X-185 Y-119.837 Z-1.816 I0 J0.163
X-185 Y-120.163 Z-1.847 I0 J-0.163
X-185 Y-119.837 Z-1.877 I0 J0.163
X-185 Y-120.163 Z-1.908 I0 J-0.163
X-185 Y-119.837 Z-1.938 I0 J0.163
X-185 Y-120.163 Z-1.969 I0 J-0.163
X-185 Y-119.837 Z-1.999 I0 J0.163
X-185 Y-120.163 Z-2.03 I0 J-0.163
X-185 Y-119.837 Z-2.06 I0 J0.163
X-185 Y-120.163 Z-2.091 I0 J-0.163
X-185 Y-119.837 Z-2.122 I0 J0.163
X-185 Y-120.163 Z-2.152 I0 J-0.163
X-185 Y-119.837 Z-2.183 I0 J0.163
X-185.159 Y-120.035 Z-2.2 I0 J-0.163
X-184.841 Y-119.965 I0.159 J0.035
X-185.159 Y-120.035 I-0.159 J-0.035
G1 X-185.146 Y-120.064
X-185.123 Y-120.086
X-185.094 Y-120.097
X-185.062
X-184.907 Y-120.063
G0 Z5
X-165.61 Y-112.992
Z1.883
G1 Z0.2 F1000
Y-112.833
X-165.616 Y-112.802
X-165.634 Y-112.776
X-165.66 Y-112.758
X-165.691 Y-112.752
G3 X-165.691 Y-113.077 Z0.169 I0 J-0.162
X-165.691 Y-112.752 Z0.139 I0 J0.162
X-165.691 Y-113.077 Z0.108 I0 J-0.162
X-165.691 Y-112.752 Z0.078 I0 J0.162
X-165.691 Y-113.077 Z0.047 I0 J-0.162
X-165.691 Y-112.752 Z0.017 I0 J0.162
X-165.691 Y-113.077 Z-0.014 I0 J-0.162
X-165.691 Y-112.752 Z-0.044 I0 J0.162
X-165.691 Y-113.077 Z-0.075 I0 J-0.162
X-165.691 Y-112.752 Z-0.105 I0 J0.162
X-165.691 Y-113.077 Z-0.136 I0 J-0.162
X-165.691 Y-112.752 Z-0.167 I0 J0.162
X-165.691 Y-113.077 Z-0.197 I0 J-0.162
X-165.691 Y-112.752 Z-0.228 I0 J0.162
X-165.691 Y-113.077 Z-0.258 I0 J-0.162
X-165.691 Y-112.752 Z-0.289 I0 J0.162
X-165.691 Y-113.077 Z-0.319 I0 J-0.162
X-165.691 Y-112.752 Z-0.35 I0 J0.162
X-165.691 Y-113.077 Z-0.38 I0 J-0.162
X-165.691 Y-112.752 Z-0.411 I0 J0.162
X-165.691 Y-113.077 Z-0.441 I0 J-0.162
X-165.691 Y-112.752 Z-0.472 I0 J0.163
X-165.691 Y-113.077 Z-0.503 I0 J-0.163
X-165.691 Y-112.752 Z-0.533 I0 J0.163
X-165.691 Y-113.077 Z-0.564 I0 J-0.163
X-165.691 Y-112.752 Z-0.594 I0 J0.163
X-165.691 Y-113.077 Z-0.625 I0 J-0.163
X-165.691 Y-112.752 Z-0.655 I0 J0.163
X-165.691 Y-113.077 Z-0.686 I0 J-0.163
X-165.691 Y-112.752 Z-0.716 I0 J0.163
X-165.691 Y-113.077 Z-0.747 I0 J-0.163
X-165.691 Y-112.752 Z-0.777 I0 J0.163
X-165.691 Y-113.077 Z-0.808 I0 J-0.163
X-165.691 Y-112.752 Z-0.839 I0 J0.163
X-165.691 Y-113.077 Z-0.869 I0 J-0.163
X-165.691 Y-112.752 Z-0.9 I0 J0.163
X-165.691 Y-113.077 Z-0.93 I0 J-0.163
X-165.691 Y-112.752 Z-0.961 I0 J0.163
X-165.691 Y-113.077 Z-0.991 I0 J-0.163
X-165.691 Y-112.752 Z-1.022 I0 J0.163
X-165.691 Y-113.077 Z-1.052 I0 J-0.163
X-165.691 Y-112.752 Z-1.083 I0 J0.163
X-165.691 Y-113.077 Z-1.113 I0 J-0.163
X-165.691 Y-112.752 Z-1.144 I0 J0.163
X-165.691 Y-113.077 Z-1.175 I0 J-0.163
X-165.691 Y-112.752 Z-1.205 I0 J0.163
X-165.691 Y-113.077 Z-1.236 I0 J-0.163
X-165.691 Y-112.752 Z-1.266 I0 J0.163
X-165.691 Y-113.077 Z-1.297 I0 J-0.163
X-165.691 Y-112.752 Z-1.327 I0 J0.163
X-165.691 Y-113.077 Z-1.358 I0 J-0.163
X-165.691 Y-112.752 Z-1.388 I0 J0.163
X-165.691 Y-113.077 Z-1.419 I0 J-0.163
X-165.691 Y-112.752 Z-1.45 I0 J0.163
X-165.691 Y-113.077 Z-1.48 I0 J-0.163
X-165.691 Y-112.752 Z-1.511 I0 J0.163
X-165.691 Y-113.077 Z-1.541 I0 J-0.163
X-165.691 Y-112.752 Z-1.572 I0 J0.163
X-165.691 Y-113.077 Z-1.602 I0 J-0.163
X-165.691 Y-112.752 Z-1.633 I0 J0.163
X-165.691 Y-113.077 Z-1.663 I0 J-0.163
X-165.691 Y-112.752 Z-1.694 I0 J0.163
X-165.691 Y-113.077 Z-1.724 I0 J-0.163
X-165.691 Y-112.752 Z-1.755 I0 J0.163
X-165.691 Y-113.077 Z-1.786 I0 J-0.163
X-165.691 Y-112.752 Z-1.816 I0 J0.163
X-165.691 Y-113.077 Z-1.847 I0 J-0.163
X-165.691 Y-112.752 Z-1.877 I0 J0.163
X-165.691 Y-113.077 Z-1.908 I0 J-0.163
X-165.691 Y-112.752 Z-1.938 I0 J0.163
X-165.691 Y-113.077 Z-1.969 I0 J-0.163
X-165.691 Y-112.752 Z-1.999 I0 J0.163
X-165.691 Y-113.077 Z-2.03 I0 J-0.163
X-165.691 Y-112.752 Z-2.06 I0 J0.163
X-165.691 Y-113.077 Z-2.091 I0 J-0.163
X-165.691 Y-112.752 Z-2.122 I0 J0.163
X-165.691 Y-113.077 Z-2.152 I0 J-0.163
X-165.691 Y-112.752 Z-2.183 I0 J0.163
X-165.85 Y-112.95 Z-2.2 I0 J-0.163
X-165.533 Y-112.88 I0.159 J0.035
X-165.85 Y-112.95 I-0.159 J-0.035
G1 X-165.837 Y-112.979
X-165.815 Y-113.001
X-165.785 Y-113.012
X-165.753
X-165.598 Y-112.977
G0 Z5
X-165.169 Y-85.327
Z1.883
G1 Z0.2 F1000
Y-85.169
X-165.175 Y-85.138
X-165.193 Y-85.111
X-165.219 Y-85.094
X-165.25 Y-85.088
G3 X-165.25 Y-85.412 Z0.169 I0 J-0.162
X-165.25 Y-85.088 Z0.139 I0 J0.162
X-165.25 Y-85.412 Z0.108 I0 J-0.162
X-165.25 Y-85.088 Z0.078 I0 J0.162
X-165.25 Y-85.412 Z0.047 I0 J-0.162
X-165.25 Y-85.088 Z0.017 I0 J0.162
X-165.25 Y-85.412 Z-0.014 I0 J-0.162
X-165.25 Y-85.088 Z-0.044 I0 J0.162
X-165.25 Y-85.412 Z-0.075 I0 J-0.162
X-165.25 Y-85.088 Z-0.105 I0 J0.162
X-165.25 Y-85.412 Z-0.136 I0 J-0.162
X-165.25 Y-85.088 Z-0.167 I0 J0.162
X-165.25 Y-85.412 Z-0.197 I0 J-0.162
X-165.25 Y-85.088 Z-0.228 I0 J0.162
X-165.25 Y-85.412 Z-0.258 I0 J-0.162
X-165.25 Y-85.088 Z-0.289 I0 J0.162
X-165.25 Y-85.412 Z-0.319 I0 J-0.162
X-165.25 Y-85.088 Z-0.35 I0 J0.162
X-165.25 Y-85.412 Z-0.38 I0 J-0.162
X-165.25 Y-85.088 Z-0.411 I0 J0.162
X-165.25 Y-85.413 Z-0.441 I0 J-0.162
X-165.25 Y-85.087 Z-0.472 I0 J0.163
X-165.25 Y-85.413 Z-0.503 I0 J-0.163
X-165.25 Y-85.087 Z-0.533 I0 J0.163
X-165.25 Y-85.413 Z-0.564 I0 J-0.163
X-165.25 Y-85.087 Z-0.594 I0 J0.163
X-165.25 Y-85.413 Z-0.625 I0 J-0.163
X-165.25 Y-85.087 Z-0.655 I0 J0.163
X-165.25 Y-85.413 Z-0.686 I0 J-0.163
X-165.25 Y-85.087 Z-0.716 I0 J0.163
X-165.25 Y-85.413 Z-0.747 I0 J-0.163
X-165.25 Y-85.087 Z-0.777 I0 J0.163
X-165.25 Y-85.413 Z-0.808 I0 J-0.163
X-165.25 Y-85.087 Z-0.839 I0 J0.163
X-165.25 Y-85.413 Z-0.869 I0 J-0.163
X-165.25 Y-85.087 Z-0.9 I0 J0.163
X-165.25 Y-85.413 Z-0.93 I0 J-0.163
X-165.25 Y-85.087 Z-0.961 I0 J0.163
X-165.25 Y-85.413 Z-0.991 I0 J-0.163
X-165.25 Y-85.087 Z-1.022 I0 J0.163
X-165.25 Y-85.413 Z-1.052 I0 J-0.163
X-165.25 Y-85.087 Z-1.083 I0 J0.163
X-165.25 Y-85.413 Z-1.113 I0 J-0.163
X-165.25 Y-85.087 Z-1.144 I0 J0.163
X-165.25 Y-85.413 Z-1.175 I0 J-0.163
X-165.25 Y-85.087 Z-1.205 I0 J0.163
X-165.25 Y-85.413 Z-1.236 I0 J-0.163
X-165.25 Y-85.087 Z-1.266 I0 J0.163
X-165.25 Y-85.413 Z-1.297 I0 J-0.163
X-165.25 Y-85.087 Z-1.327 I0 J0.163
X-165.25 Y-85.413 Z-1.358 I0 J-0.163
X-165.25 Y-85.087 Z-1.388 I0 J0.163
X-165.25 Y-85.413 Z-1.419 I0 J-0.163
X-165.25 Y-85.087 Z-1.45 I0 J0.163
X-165.25 Y-85.413 Z-1.48 I0 J-0.163
X-165.25 Y-85.087 Z-1.511 I0 J0.163
X-165.25 Y-85.413 Z-1.541 I0 J-0.163
X-165.25 Y-85.087 Z-1.572 I0 J0.163
X-165.25 Y-85.413 Z-1.602 I0 J-0.163
X-165.25 Y-85.087 Z-1.633 I0 J0.163
X-165.25 Y-85.413 Z-1.663 I0 J-0.163
X-165.25 Y-85.087 Z-1.694 I0 J0.163
X-165.25 Y-85.413 Z-1.724 I0 J-0.163
X-165.25 Y-85.087 Z-1.755 I0 J0.163
X-165.25 Y-85.413 Z-1.786 I0 J-0.163
X-165.25 Y-85.087 Z-1.816 I0 J0.163
X-165.25 Y-85.413 Z-1.847 I0 J-0.163
X-165.25 Y-85.087 Z-1.877 I0 J0.163
X-165.25 Y-85.413 Z-1.908 I0 J-0.163
X-165.25 Y-85.087 Z-1.938 I0 J0.163
X-165.25 Y-85.413 Z-1.969 I0 J-0.163
X-165.25 Y-85.087 Z-1.999 I0 J0.163
X-165.25 Y-85.413 Z-2.03 I0 J-0.163
X-165.25 Y-85.087 Z-2.06 I0 J0.163
X-165.25 Y-85.413 Z-2.091 I0 J-0.163
X-165.25 Y-85.087 Z-2.122 I0 J0.163
X-165.25 Y-85.413 Z-2.152 I0 J-0.163
X-165.25 Y-85.087 Z-2.183 I0 J0.163
X-165.409 Y-85.285 Z-2.2 I0 J-0.163
X-165.091 Y-85.215 I0.159 J0.035
X-165.409 Y-85.285 I-0.159 J-0.035
G1 X-165.396 Y-85.314
X-165.373 Y-85.336
X-165.344 Y-85.347
X-165.312
X-165.157 Y-85.313
G0 Z5
X-134.669 Y-85.327
Z1.883
G1 Z0.2 F1000
Y-85.169
X-134.675 Y-85.138
X-134.693 Y-85.111
X-134.719 Y-85.094
X-134.75 Y-85.088
G3 X-134.75 Y-85.412 Z0.169 I0 J-0.162
X-134.75 Y-85.088 Z0.139 I0 J0.162
X-134.75 Y-85.412 Z0.108 I0 J-0.162
X-134.75 Y-85.088 Z0.078 I0 J0.162
X-134.75 Y-85.412 Z0.047 I0 J-0.162
X-134.75 Y-85.088 Z0.017 I0 J0.162
X-134.75 Y-85.412 Z-0.014 I0 J-0.162
X-134.75 Y-85.088 Z-0.044 I0 J0.162
X-134.75 Y-85.412 Z-0.075 I0 J-0.162
X-134.75 Y-85.088 Z-0.105 I0 J0.162
X-134.75 Y-85.412 Z-0.136 I0 J-0.162
X-134.75 Y-85.088 Z-0.167 I0 J0.162
X-134.75 Y-85.412 Z-0.197 I0 J-0.162
X-134.75 Y-85.088 Z-0.228 I0 J0.162
X-134.75 Y-85.412 Z-0.258 I0 J-0.162
X-134.75 Y-85.088 Z-0.289 I0 J0.162
X-134.75 Y-85.412 Z-0.319 I0 J-0.162
X-134.75 Y-85.088 Z-0.35 I0 J0.162
X-134.75 Y-85.412 Z-0.38 I0 J-0.162
X-134.75 Y-85.088 Z-0.411 I0 J0.162
X-134.75 Y-85.413 Z-0.441 I0 J-0.162
X-134.75 Y-85.087 Z-0.472 I0 J0.163
X-134.75 Y-85.413 Z-0.503 I0 J-0.163
X-134.75 Y-85.087 Z-0.533 I0 J0.163
X-134.75 Y-85.413 Z-0.564 I0 J-0.163
X-134.75 Y-85.087 Z-0.594 I0 J0.163
X-134.75 Y-85.413 Z-0.625 I0 J-0.163
X-134.75 Y-85.087 Z-0.655 I0 J0.163
X-134.75 Y-85.413 Z-0.686 I0 J-0.163
X-134.75 Y-85.087 Z-0.716 I0 J0.163
X-134.75 Y-85.413 Z-0.747 I0 J-0.163
X-134.75 Y-85.087 Z-0.777 I0 J0.163
X-134.75 Y-85.413 Z-0.808 I0 J-0.163
X-134.75 Y-85.087 Z-0.839 I0 J0.163
X-134.75 Y-85.413 Z-0.869 I0 J-0.163
X-134.75 Y-85.087 Z-0.9 I0 J0.163
X-134.75 Y-85.413 Z-0.93 I0 J-0.163
X-134.75 Y-85.087 Z-0.961 I0 J0.163
X-134.75 Y-85.413 Z-0.991 I0 J-0.163
X-134.75 Y-85.087 Z-1.022 I0 J0.163
X-134.75 Y-85.413 Z-1.052 I0 J-0.163
X-134.75 Y-85.087 Z-1.083 I0 J0.163
X-134.75 Y-85.413 Z-1.113 I0 J-0.163
X-134.75 Y-85.087 Z-1.144 I0 J0.163
X-134.75 Y-85.413 Z-1.175 I0 J-0.163
X-134.75 Y-85.087 Z-1.205 I0 J0.163
X-134.75 Y-85.413 Z-1.236 I0 J-0.163
X-134.75 Y-85.087 Z-1.266 I0 J0.163
X-134.75 Y-85.413 Z-1.297 I0 J-0.163
X-134.75 Y-85.087 Z-1.327 I0 J0.163
X-134.75 Y-85.413 Z-1.358 I0 J-0.163
X-134.75 Y-85.087 Z-1.388 I0 J0.163
X-134.75 Y-85.413 Z-1.419 I0 J-0.163
X-134.75 Y-85.087 Z-1.45 I0 J0.163
X-134.75 Y-85.413 Z-1.48 I0 J-0.163
X-134.75 Y-85.087 Z-1.511 I0 J0.163
X-134.75 Y-85.413 Z-1.541 I0 J-0.163
X-134.75 Y-85.087 Z-1.572 I0 J0.163
X-134.75 Y-85.413 Z-1.602 I0 J-0.163
X-134.75 Y-85.087 Z-1.633 I0 J0.163
X-134.75 Y-85.413 Z-1.663 I0 J-0.163
X-134.75 Y-85.087 Z-1.694 I0 J0.163
X-134.75 Y-85.413 Z-1.724 I0 J-0.163
X-134.75 Y-85.087 Z-1.755 I0 J0.163
X-134.75 Y-85.413 Z-1.786 I0 J-0.163
X-134.75 Y-85.087 Z-1.816 I0 J0.163
X-134.75 Y-85.413 Z-1.847 I0 J-0.163
X-134.75 Y-85.087 Z-1.877 I0 J0.163
X-134.75 Y-85.413 Z-1.908 I0 J-0.163
X-134.75 Y-85.087 Z-1.938 I0 J0.163
X-134.75 Y-85.413 Z-1.969 I0 J-0.163
X-134.75 Y-85.087 Z-1.999 I0 J0.163
X-134.75 Y-85.413 Z-2.03 I0 J-0.163
X-134.75 Y-85.087 Z-2.06 I0 J0.163
X-134.75 Y-85.413 Z-2.091 I0 J-0.163
X-134.75 Y-85.087 Z-2.122 I0 J0.163
X-134.75 Y-85.413 Z-2.152 I0 J-0.163
X-134.75 Y-85.087 Z-2.183 I0 J0.163
X-134.909 Y-85.285 Z-2.2 I0 J-0.163
X-134.591 Y-85.215 I0.159 J0.035
X-134.909 Y-85.285 I-0.159 J-0.035
G1 X-134.896 Y-85.314
X-134.873 Y-85.336
X-134.844 Y-85.347
X-134.812
X-134.657 Y-85.313
G0 Z5
X-115.205 Y-87.992
Z1.883
G1 Z0.2 F1000
Y-87.833
X-115.212 Y-87.802
X-115.229 Y-87.776
X-115.255 Y-87.758
X-115.287 Y-87.752
G3 X-115.287 Y-88.077 Z0.169 I0 J-0.162
X-115.287 Y-87.752 Z0.139 I0 J0.162
X-115.287 Y-88.077 Z0.108 I0 J-0.162
X-115.287 Y-87.752 Z0.078 I0 J0.162
X-115.287 Y-88.077 Z0.047 I0 J-0.162
X-115.287 Y-87.752 Z0.017 I0 J0.162
X-115.287 Y-88.077 Z-0.014 I0 J-0.162
X-115.287 Y-87.752 Z-0.044 I0 J0.162
X-115.287 Y-88.077 Z-0.075 I0 J-0.162
X-115.287 Y-87.752 Z-0.105 I0 J0.162
X-115.287 Y-88.077 Z-0.136 I0 J-0.162
X-115.287 Y-87.752 Z-0.167 I0 J0.162
X-115.287 Y-88.077 Z-0.197 I0 J-0.162
X-115.287 Y-87.752 Z-0.228 I0 J0.162
X-115.287 Y-88.077 Z-0.258 I0 J-0.162
X-115.287 Y-87.752 Z-0.289 I0 J0.162
X-115.287 Y-88.077 Z-0.319 I0 J-0.162
X-115.287 Y-87.752 Z-0.35 I0 J0.162
X-115.287 Y-88.077 Z-0.38 I0 J-0.162
X-115.287 Y-87.752 Z-0.411 I0 J0.162
X-115.287 Y-88.077 Z-0.441 I0 J-0.162
X-115.287 Y-87.752 Z-0.472 I0 J0.162
X-115.287 Y-88.077 Z-0.503 I0 J-0.162
X-115.287 Y-87.752 Z-0.533 I0 J0.162
X-115.287 Y-88.077 Z-0.564 I0 J-0.162
X-115.287 Y-87.752 Z-0.594 I0 J0.162
X-115.287 Y-88.077 Z-0.625 I0 J-0.162
X-115.287 Y-87.752 Z-0.655 I0 J0.162
X-115.287 Y-88.077 Z-0.686 I0 J-0.162
X-115.287 Y-87.752 Z-0.716 I0 J0.162
X-115.287 Y-88.077 Z-0.747 I0 J-0.162
X-115.287 Y-87.752 Z-0.777 I0 J0.162
X-115.287 Y-88.077 Z-0.808 I0 J-0.162
X-115.287 Y-87.752 Z-0.839 I0 J0.162
X-115.287 Y-88.077 Z-0.869 I0 J-0.162
X-115.287 Y-87.752 Z-0.9 I0 J0.162
X-115.287 Y-88.077 Z-0.93 I0 J-0.162
X-115.287 Y-87.752 Z-0.961 I0 J0.162
X-115.287 Y-88.077 Z-0.991 I0 J-0.162
X-115.287 Y-87.752 Z-1.022 I0 J0.162
X-115.287 Y-88.077 Z-1.052 I0 J-0.162
X-115.287 Y-87.752 Z-1.083 I0 J0.162
X-115.287 Y-88.077 Z-1.113 I0 J-0.162
X-115.287 Y-87.752 Z-1.144 I0 J0.162
X-115.287 Y-88.077 Z-1.175 I0 J-0.162
X-115.287 Y-87.752 Z-1.205 I0 J0.162
X-115.287 Y-88.077 Z-1.236 I0 J-0.162
X-115.287 Y-87.752 Z-1.266 I0 J0.162
X-115.287 Y-88.077 Z-1.297 I0 J-0.162
X-115.287 Y-87.752 Z-1.327 I0 J0.162
X-115.287 Y-88.077 Z-1.358 I0 J-0.162
X-115.287 Y-87.752 Z-1.388 I0 J0.162
X-115.287 Y-88.077 Z-1.419 I0 J-0.162
X-115.287 Y-87.752 Z-1.45 I0 J0.162
X-115.287 Y-88.077 Z-1.48 I0 J-0.162
X-115.287 Y-87.752 Z-1.511 I0 J0.162
X-115.287 Y-88.077 Z-1.541 I0 J-0.162
X-115.287 Y-87.752 Z-1.572 I0 J0.162
X-115.287 Y-88.077 Z-1.602 I0 J-0.162
X-115.287 Y-87.752 Z-1.633 I0 J0.162
X-115.287 Y-88.077 Z-1.663 I0 J-0.162
X-115.287 Y-87.752 Z-1.694 I0 J0.162
X-115.287 Y-88.077 Z-1.724 I0 J-0.162
X-115.287 Y-87.752 Z-1.755 I0 J0.162
X-115.287 Y-88.077 Z-1.786 I0 J-0.162
X-115.287 Y-87.752 Z-1.816 I0 J0.162
X-115.287 Y-88.077 Z-1.847 I0 J-0.162
X-115.287 Y-87.752 Z-1.877 I0 J0.162
X-115.287 Y-88.077 Z-1.908 I0 J-0.162
X-115.287 Y-87.752 Z-1.938 I0 J0.162
X-115.287 Y-88.077 Z-1.969 I0 J-0.162
X-115.287 Y-87.752 Z-1.999 I0 J0.162
X-115.287 Y-88.077 Z-2.03 I0 J-0.162
X-115.287 Y-87.752 Z-2.06 I0 J0.162
X-115.287 Y-88.077 Z-2.091 I0 J-0.162
X-115.287 Y-87.752 Z-2.122 I0 J0.162
X-115.287 Y-88.077 Z-2.152 I0 J-0.162
X-115.287 Y-87.752 Z-2.183 I0 J0.162
X-115.445 Y-87.95 Z-2.2 I0 J-0.162
X-115.128 Y-87.88 I0.159 J0.035
X-115.445 Y-87.95 I-0.159 J-0.035
G1 X-115.433 Y-87.979
X-115.41 Y-88.001
X-115.38 Y-88.012
X-115.348
X-115.193 Y-87.977
G0 Z5
X-114.919 Y-105.077
Z1.883
G1 Z0.2 F1000
Y-104.919
X-114.925 Y-104.888
X-114.943 Y-104.861
X-114.969 Y-104.844
X-115 Y-104.838
G3 X-115 Y-105.162 Z0.169 I0 J-0.162
X-115 Y-104.838 Z0.139 I0 J0.162
X-115 Y-105.162 Z0.108 I0 J-0.162
X-115 Y-104.838 Z0.078 I0 J0.162
X-115 Y-105.162 Z0.047 I0 J-0.162
X-115 Y-104.838 Z0.017 I0 J0.162
X-115 Y-105.162 Z-0.014 I0 J-0.162
X-115 Y-104.838 Z-0.044 I0 J0.162
X-115 Y-105.162 Z-0.075 I0 J-0.162
X-115 Y-104.838 Z-0.105 I0 J0.162
X-115 Y-105.162 Z-0.136 I0 J-0.162
X-115 Y-104.838 Z-0.167 I0 J0.162
X-115 Y-105.162 Z-0.197 I0 J-0.162
X-115 Y-104.838 Z-0.228 I0 J0.162
X-115 Y-105.162 Z-0.258 I0 J-0.162
X-115 Y-104.838 Z-0.289 I0 J0.162
X-115 Y-105.162 Z-0.319 I0 J-0.162
X-115 Y-104.838 Z-0.35 I0 J0.162
X-115 Y-105.162 Z-0.38 I0 J-0.162
X-115 Y-104.838 Z-0.411 I0 J0.162
X-115 Y-105.162 Z-0.441 I0 J-0.162
X-115 Y-104.838 Z-0.472 I0 J0.162
X-115 Y-105.162 Z-0.503 I0 J-0.162
X-115 Y-104.838 Z-0.533 I0 J0.162
X-115 Y-105.162 Z-0.564 I0 J-0.162
X-115 Y-104.838 Z-0.594 I0 J0.162
X-115 Y-105.162 Z-0.625 I0 J-0.162
X-115 Y-104.838 Z-0.655 I0 J0.162
X-115 Y-105.162 Z-0.686 I0 J-0.162
X-115 Y-104.838 Z-0.716 I0 J0.162
X-115 Y-105.162 Z-0.747 I0 J-0.162
X-115 Y-104.838 Z-0.777 I0 J0.162
X-115 Y-105.162 Z-0.808 I0 J-0.162
X-115 Y-104.838 Z-0.839 I0 J0.162
X-115 Y-105.162 Z-0.869 I0 J-0.162
X-115 Y-104.838 Z-0.9 I0 J0.162
X-115 Y-105.162 Z-0.93 I0 J-0.162
X-115 Y-104.838 Z-0.961 I0 J0.162
X-115 Y-105.162 Z-0.991 I0 J-0.162
X-115 Y-104.838 Z-1.022 I0 J0.162
X-115 Y-105.162 Z-1.052 I0 J-0.162
X-115 Y-104.838 Z-1.083 I0 J0.162
X-115 Y-105.162 Z-1.113 I0 J-0.162
X-115 Y-104.838 Z-1.144 I0 J0.162
X-115 Y-105.162 Z-1.175 I0 J-0.162
X-115 Y-104.838 Z-1.205 I0 J0.162
X-115 Y-105.162 Z-1.236 I0 J-0.162
X-115 Y-104.838 Z-1.266 I0 J0.162
X-115 Y-105.162 Z-1.297 I0 J-0.162
X-115 Y-104.838 Z-1.327 I0 J0.162
X-115 Y-105.162 Z-1.358 I0 J-0.162
X-115 Y-104.838 Z-1.388 I0 J0.162
X-115 Y-105.162 Z-1.419 I0 J-0.162
X-115 Y-104.838 Z-1.45 I0 J0.162
X-115 Y-105.162 Z-1.48 I0 J-0.162
X-115 Y-104.838 Z-1.511 I0 J0.162
X-115 Y-105.162 Z-1.541 I0 J-0.162
X-115 Y-104.838 Z-1.572 I0 J0.162
X-115 Y-105.162 Z-1.602 I0 J-0.162
X-115 Y-104.838 Z-1.633 I0 J0.162
X-115 Y-105.162 Z-1.663 I0 J-0.162
X-115 Y-104.838 Z-1.694 I0 J0.162
X-115 Y-105.162 Z-1.724 I0 J-0.162
X-115 Y-104.838 Z-1.755 I0 J0.162
X-115 Y-105.162 Z-1.786 I0 J-0.162
X-115 Y-104.838 Z-1.816 I0 J0.162
X-115 Y-105.162 Z-1.847 I0 J-0.162
X-115 Y-104.838 Z-1.877 I0 J0.162
X-115 Y-105.162 Z-1.908 I0 J-0.162
X-115 Y-104.838 Z-1.938 I0 J0.162
X-115 Y-105.162 Z-1.969 I0 J-0.162
X-115 Y-104.838 Z-1.999 I0 J0.162
X-115 Y-105.162 Z-2.03 I0 J-0.162
X-115 Y-104.838 Z-2.06 I0 J0.162
X-115 Y-105.162 Z-2.091 I0 J-0.162
X-115 Y-104.838 Z-2.122 I0 J0.162
X-115 Y-105.162 Z-2.152 I0 J-0.162
X-115 Y-104.838 Z-2.183 I0 J0.162
X-115.159 Y-105.035 Z-2.2 I0 J-0.162
X-114.841 Y-104.965 I0.159 J0.035
X-115.159 Y-105.035 I-0.159 J-0.035
G1 X-115.146 Y-105.064
X-115.123 Y-105.086
X-115.094 Y-105.097
X-115.062
X-114.907 Y-105.063
G0 Z15
M5
M30
