(Bottom_Bohren_1-5)
(T14  D=1.5 CR=0 - ZMIN=-2.2 - Schaftfraser)
G90 G94
G17
G21

(Bohrfrasen8)
T14
S4000 M3
G54
G0 X-15.85 Y-88.375
Z15
Z2.2
G1 Z0.35 F400
Y-88.368 Z0.304
Y-88.346 Z0.262
Y-88.313 Z0.229
Y-88.271 Z0.207
Y-88.225 Z0.2
Y-88.15
X-15.857 Y-88.104
X-15.879 Y-88.062
X-15.912 Y-88.029
X-15.954 Y-88.007
X-16 Y-88
G3 X-16 Y-90 Z0.169 I0 J-1 F600
X-16 Y-88 Z0.139 I0 J1
X-16 Y-90 Z0.108 I0 J-1
X-16 Y-88 Z0.078 I0 J1
X-16 Y-90 Z0.047 I0 J-1
X-16 Y-88 Z0.017 I0 J1
X-16 Y-90 Z-0.014 I0 J-1
X-16 Y-88 Z-0.044 I0 J1
X-16 Y-90 Z-0.075 I0 J-1
X-16 Y-88 Z-0.105 I0 J1
X-16 Y-90 Z-0.136 I0 J-1
X-16 Y-88 Z-0.167 I0 J1
X-16 Y-90 Z-0.197 I0 J-1
X-16 Y-88 Z-0.228 I0 J1
X-16 Y-90 Z-0.258 I0 J-1
X-16 Y-88 Z-0.289 I0 J1
X-16 Y-90 Z-0.319 I0 J-1
X-16 Y-88 Z-0.35 I0 J1
X-16 Y-90 Z-0.38 I0 J-1
X-16 Y-88 Z-0.411 I0 J1
X-16 Y-90 Z-0.441 I0 J-1
X-16 Y-88 Z-0.472 I0 J1
X-16 Y-90 Z-0.503 I0 J-1
X-16 Y-88 Z-0.533 I0 J1
X-16 Y-90 Z-0.564 I0 J-1
X-16 Y-88 Z-0.594 I0 J1
X-16 Y-90 Z-0.625 I0 J-1
X-16 Y-88 Z-0.655 I0 J1
X-16 Y-90 Z-0.686 I0 J-1
X-16 Y-88 Z-0.716 I0 J1
X-16 Y-90 Z-0.747 I0 J-1
X-16 Y-88 Z-0.777 I0 J1
X-16 Y-90 Z-0.808 I0 J-1
X-16 Y-88 Z-0.839 I0 J1
X-16 Y-90 Z-0.869 I0 J-1
X-16 Y-88 Z-0.9 I0 J1
X-16 Y-90 Z-0.93 I0 J-1
X-16 Y-88 Z-0.961 I0 J1
X-16 Y-90 Z-0.991 I0 J-1
X-16 Y-88 Z-1.022 I0 J1
X-16 Y-90 Z-1.052 I0 J-1
X-16 Y-88 Z-1.083 I0 J1
X-16 Y-90 Z-1.113 I0 J-1
X-16 Y-88 Z-1.144 I0 J1
X-16 Y-90 Z-1.175 I0 J-1
X-16 Y-88 Z-1.205 I0 J1
X-16 Y-90 Z-1.236 I0 J-1
X-16 Y-88 Z-1.266 I0 J1
X-16 Y-90 Z-1.297 I0 J-1
X-16 Y-88 Z-1.327 I0 J1
X-16 Y-90 Z-1.358 I0 J-1
X-16 Y-88 Z-1.388 I0 J1
X-16 Y-90 Z-1.419 I0 J-1
X-16 Y-88 Z-1.45 I0 J1
X-16 Y-90 Z-1.48 I0 J-1
X-16 Y-88 Z-1.511 I0 J1
X-16 Y-90 Z-1.541 I0 J-1
X-16 Y-88 Z-1.572 I0 J1
X-16 Y-90 Z-1.602 I0 J-1
X-16 Y-88 Z-1.633 I0 J1
X-16 Y-90 Z-1.663 I0 J-1
X-16 Y-88 Z-1.694 I0 J1
X-16 Y-90 Z-1.724 I0 J-1
X-16 Y-88 Z-1.755 I0 J1
X-16 Y-90 Z-1.786 I0 J-1
X-16 Y-88 Z-1.816 I0 J1
X-16 Y-90 Z-1.847 I0 J-1
X-16 Y-88 Z-1.877 I0 J1
X-16 Y-90 Z-1.908 I0 J-1
X-16 Y-88 Z-1.938 I0 J1
X-16 Y-90 Z-1.969 I0 J-1
X-16 Y-88 Z-1.999 I0 J1
X-16 Y-90 Z-2.03 I0 J-1
X-16 Y-88 Z-2.06 I0 J1
X-16 Y-90 Z-2.091 I0 J-1
X-16 Y-88 Z-2.122 I0 J1
X-16 Y-90 Z-2.152 I0 J-1
X-16 Y-88 Z-2.183 I0 J1
X-16.977 Y-89.215 Z-2.2 I0 J-1
X-15.023 Y-88.785 I0.977 J0.215
X-16.977 Y-89.215 I-0.977 J-0.215
G1 X-16.959 Y-89.259
X-16.93 Y-89.295
X-16.89 Y-89.321
X-16.845 Y-89.332
X-16.798 Y-89.33
X-16.725 Y-89.313
X-16.679 Y-89.303 Z-2.193
X-16.638 Y-89.294 Z-2.171
X-16.606 Y-89.287 Z-2.138
X-16.585 Y-89.283 Z-2.096
X-16.578 Y-89.281 Z-2.05
G0 Z5
X-15.85 Y-50.375
Z2.2
G1 Z0.35 F400
Y-50.368 Z0.304
Y-50.346 Z0.262
Y-50.313 Z0.229
Y-50.271 Z0.207
Y-50.225 Z0.2
Y-50.15
X-15.857 Y-50.104
X-15.879 Y-50.062
X-15.912 Y-50.029
X-15.954 Y-50.007
X-16 Y-50
G3 X-16 Y-52 Z0.169 I0 J-1 F600
X-16 Y-50 Z0.139 I0 J1
X-16 Y-52 Z0.108 I0 J-1
X-16 Y-50 Z0.078 I0 J1
X-16 Y-52 Z0.047 I0 J-1
X-16 Y-50 Z0.017 I0 J1
X-16 Y-52 Z-0.014 I0 J-1
X-16 Y-50 Z-0.044 I0 J1
X-16 Y-52 Z-0.075 I0 J-1
X-16 Y-50 Z-0.105 I0 J1
X-16 Y-52 Z-0.136 I0 J-1
X-16 Y-50 Z-0.167 I0 J1
X-16 Y-52 Z-0.197 I0 J-1
X-16 Y-50 Z-0.228 I0 J1
X-16 Y-52 Z-0.258 I0 J-1
X-16 Y-50 Z-0.289 I0 J1
X-16 Y-52 Z-0.319 I0 J-1
X-16 Y-50 Z-0.35 I0 J1
X-16 Y-52 Z-0.38 I0 J-1
X-16 Y-50 Z-0.411 I0 J1
X-16 Y-52 Z-0.441 I0 J-1
X-16 Y-50 Z-0.472 I0 J1
X-16 Y-52 Z-0.503 I0 J-1
X-16 Y-50 Z-0.533 I0 J1
X-16 Y-52 Z-0.564 I0 J-1
X-16 Y-50 Z-0.594 I0 J1
X-16 Y-52 Z-0.625 I0 J-1
X-16 Y-50 Z-0.655 I0 J1
X-16 Y-52 Z-0.686 I0 J-1
X-16 Y-50 Z-0.716 I0 J1
X-16 Y-52 Z-0.747 I0 J-1
X-16 Y-50 Z-0.777 I0 J1
X-16 Y-52 Z-0.808 I0 J-1
X-16 Y-50 Z-0.839 I0 J1
X-16 Y-52 Z-0.869 I0 J-1
X-16 Y-50 Z-0.9 I0 J1
X-16 Y-52 Z-0.93 I0 J-1
X-16 Y-50 Z-0.961 I0 J1
X-16 Y-52 Z-0.991 I0 J-1
X-16 Y-50 Z-1.022 I0 J1
X-16 Y-52 Z-1.052 I0 J-1
X-16 Y-50 Z-1.083 I0 J1
X-16 Y-52 Z-1.113 I0 J-1
X-16 Y-50 Z-1.144 I0 J1
X-16 Y-52 Z-1.175 I0 J-1
X-16 Y-50 Z-1.205 I0 J1
X-16 Y-52 Z-1.236 I0 J-1
X-16 Y-50 Z-1.266 I0 J1
X-16 Y-52 Z-1.297 I0 J-1
X-16 Y-50 Z-1.327 I0 J1
X-16 Y-52 Z-1.358 I0 J-1
X-16 Y-50 Z-1.388 I0 J1
X-16 Y-52 Z-1.419 I0 J-1
X-16 Y-50 Z-1.45 I0 J1
X-16 Y-52 Z-1.48 I0 J-1
X-16 Y-50 Z-1.511 I0 J1
X-16 Y-52 Z-1.541 I0 J-1
X-16 Y-50 Z-1.572 I0 J1
X-16 Y-52 Z-1.602 I0 J-1
X-16 Y-50 Z-1.633 I0 J1
X-16 Y-52 Z-1.663 I0 J-1
X-16 Y-50 Z-1.694 I0 J1
X-16 Y-52 Z-1.724 I0 J-1
X-16 Y-50 Z-1.755 I0 J1
X-16 Y-52 Z-1.786 I0 J-1
X-16 Y-50 Z-1.816 I0 J1
X-16 Y-52 Z-1.847 I0 J-1
X-16 Y-50 Z-1.877 I0 J1
X-16 Y-52 Z-1.908 I0 J-1
X-16 Y-50 Z-1.938 I0 J1
X-16 Y-52 Z-1.969 I0 J-1
X-16 Y-50 Z-1.999 I0 J1
X-16 Y-52 Z-2.03 I0 J-1
X-16 Y-50 Z-2.06 I0 J1
X-16 Y-52 Z-2.091 I0 J-1
X-16 Y-50 Z-2.122 I0 J1
X-16 Y-52 Z-2.152 I0 J-1
X-16 Y-50 Z-2.183 I0 J1
X-16.977 Y-51.215 Z-2.2 I0 J-1
X-15.023 Y-50.785 I0.977 J0.215
X-16.977 Y-51.215 I-0.977 J-0.215
G1 X-16.959 Y-51.259
X-16.93 Y-51.295
X-16.89 Y-51.321
X-16.845 Y-51.332
X-16.798 Y-51.33
X-16.725 Y-51.313
X-16.679 Y-51.303 Z-2.193
X-16.638 Y-51.294 Z-2.171
X-16.606 Y-51.287 Z-2.138
X-16.585 Y-51.283 Z-2.096
X-16.578 Y-51.281 Z-2.05
G0 Z5
X-114.85 Y-34.375
Z2.2
G1 Z0.35 F400
Y-34.368 Z0.304
Y-34.346 Z0.262
Y-34.313 Z0.229
Y-34.271 Z0.207
Y-34.225 Z0.2
Y-34.15
X-114.857 Y-34.104
X-114.879 Y-34.062
X-114.912 Y-34.029
X-114.954 Y-34.007
X-115 Y-34
G3 X-115 Y-36 Z0.169 I0 J-1 F600
X-115 Y-34 Z0.139 I0 J1
X-115 Y-36 Z0.108 I0 J-1
X-115 Y-34 Z0.078 I0 J1
X-115 Y-36 Z0.047 I0 J-1
X-115 Y-34 Z0.017 I0 J1
X-115 Y-36 Z-0.014 I0 J-1
X-115 Y-34 Z-0.044 I0 J1
X-115 Y-36 Z-0.075 I0 J-1
X-115 Y-34 Z-0.105 I0 J1
X-115 Y-36 Z-0.136 I0 J-1
X-115 Y-34 Z-0.167 I0 J1
X-115 Y-36 Z-0.197 I0 J-1
X-115 Y-34 Z-0.228 I0 J1
X-115 Y-36 Z-0.258 I0 J-1
X-115 Y-34 Z-0.289 I0 J1
X-115 Y-36 Z-0.319 I0 J-1
X-115 Y-34 Z-0.35 I0 J1
X-115 Y-36 Z-0.38 I0 J-1
X-115 Y-34 Z-0.411 I0 J1
X-115 Y-36 Z-0.441 I0 J-1
X-115 Y-34 Z-0.472 I0 J1
X-115 Y-36 Z-0.503 I0 J-1
X-115 Y-34 Z-0.533 I0 J1
X-115 Y-36 Z-0.564 I0 J-1
X-115 Y-34 Z-0.594 I0 J1
X-115 Y-36 Z-0.625 I0 J-1
X-115 Y-34 Z-0.655 I0 J1
X-115 Y-36 Z-0.686 I0 J-1
X-115 Y-34 Z-0.716 I0 J1
X-115 Y-36 Z-0.747 I0 J-1
X-115 Y-34 Z-0.777 I0 J1
X-115 Y-36 Z-0.808 I0 J-1
X-115 Y-34 Z-0.839 I0 J1
X-115 Y-36 Z-0.869 I0 J-1
X-115 Y-34 Z-0.9 I0 J1
X-115 Y-36 Z-0.93 I0 J-1
X-115 Y-34 Z-0.961 I0 J1
X-115 Y-36 Z-0.991 I0 J-1
X-115 Y-34 Z-1.022 I0 J1
X-115 Y-36 Z-1.052 I0 J-1
X-115 Y-34 Z-1.083 I0 J1
X-115 Y-36 Z-1.113 I0 J-1
X-115 Y-34 Z-1.144 I0 J1
X-115 Y-36 Z-1.175 I0 J-1
X-115 Y-34 Z-1.205 I0 J1
X-115 Y-36 Z-1.236 I0 J-1
X-115 Y-34 Z-1.266 I0 J1
X-115 Y-36 Z-1.297 I0 J-1
X-115 Y-34 Z-1.327 I0 J1
X-115 Y-36 Z-1.358 I0 J-1
X-115 Y-34 Z-1.388 I0 J1
X-115 Y-36 Z-1.419 I0 J-1
X-115 Y-34 Z-1.45 I0 J1
X-115 Y-36 Z-1.48 I0 J-1
X-115 Y-34 Z-1.511 I0 J1
X-115 Y-36 Z-1.541 I0 J-1
X-115 Y-34 Z-1.572 I0 J1
X-115 Y-36 Z-1.602 I0 J-1
X-115 Y-34 Z-1.633 I0 J1
X-115 Y-36 Z-1.663 I0 J-1
X-115 Y-34 Z-1.694 I0 J1
X-115 Y-36 Z-1.724 I0 J-1
X-115 Y-34 Z-1.755 I0 J1
X-115 Y-36 Z-1.786 I0 J-1
X-115 Y-34 Z-1.816 I0 J1
X-115 Y-36 Z-1.847 I0 J-1
X-115 Y-34 Z-1.877 I0 J1
X-115 Y-36 Z-1.908 I0 J-1
X-115 Y-34 Z-1.938 I0 J1
X-115 Y-36 Z-1.969 I0 J-1
X-115 Y-34 Z-1.999 I0 J1
X-115 Y-36 Z-2.03 I0 J-1
X-115 Y-34 Z-2.06 I0 J1
X-115 Y-36 Z-2.091 I0 J-1
X-115 Y-34 Z-2.122 I0 J1
X-115 Y-36 Z-2.152 I0 J-1
X-115 Y-34 Z-2.183 I0 J1
X-115.977 Y-35.215 Z-2.2 I0 J-1
X-114.023 Y-34.785 I0.977 J0.215
X-115.977 Y-35.215 I-0.977 J-0.215
G1 X-115.959 Y-35.259
X-115.93 Y-35.295
X-115.89 Y-35.321
X-115.845 Y-35.332
X-115.798 Y-35.33
X-115.725 Y-35.313
X-115.679 Y-35.303 Z-2.193
X-115.638 Y-35.294 Z-2.171
X-115.606 Y-35.287 Z-2.138
X-115.585 Y-35.283 Z-2.096
X-115.578 Y-35.281 Z-2.05
G0 Z5
X-115.137 Y-51.46
Z2.2
G1 Z0.35 F400
Y-51.453 Z0.304
Y-51.432 Z0.262
Y-51.398 Z0.229
Y-51.357 Z0.207
Y-51.31 Z0.2
Y-51.235
X-115.144 Y-51.189
X-115.165 Y-51.147
X-115.198 Y-51.114
X-115.24 Y-51.093
X-115.287 Y-51.085
G3 X-115.287 Y-53.085 Z0.169 I0 J-1 F600
X-115.287 Y-51.085 Z0.139 I0 J1
X-115.287 Y-53.085 Z0.108 I0 J-1
X-115.287 Y-51.085 Z0.078 I0 J1
X-115.287 Y-53.085 Z0.047 I0 J-1
X-115.287 Y-51.085 Z0.017 I0 J1
X-115.287 Y-53.085 Z-0.014 I0 J-1
X-115.287 Y-51.085 Z-0.044 I0 J1
X-115.287 Y-53.085 Z-0.075 I0 J-1
X-115.287 Y-51.085 Z-0.105 I0 J1
X-115.287 Y-53.085 Z-0.136 I0 J-1
X-115.287 Y-51.085 Z-0.167 I0 J1
X-115.287 Y-53.085 Z-0.197 I0 J-1
X-115.287 Y-51.085 Z-0.228 I0 J1
X-115.287 Y-53.085 Z-0.258 I0 J-1
X-115.287 Y-51.085 Z-0.289 I0 J1
X-115.287 Y-53.085 Z-0.319 I0 J-1
X-115.287 Y-51.085 Z-0.35 I0 J1
X-115.287 Y-53.085 Z-0.38 I0 J-1
X-115.287 Y-51.085 Z-0.411 I0 J1
X-115.287 Y-53.085 Z-0.441 I0 J-1
X-115.287 Y-51.085 Z-0.472 I0 J1
X-115.287 Y-53.085 Z-0.503 I0 J-1
X-115.287 Y-51.085 Z-0.533 I0 J1
X-115.287 Y-53.085 Z-0.564 I0 J-1
X-115.287 Y-51.085 Z-0.594 I0 J1
X-115.287 Y-53.085 Z-0.625 I0 J-1
X-115.287 Y-51.085 Z-0.655 I0 J1
X-115.287 Y-53.085 Z-0.686 I0 J-1
X-115.287 Y-51.085 Z-0.716 I0 J1
X-115.287 Y-53.085 Z-0.747 I0 J-1
X-115.287 Y-51.085 Z-0.777 I0 J1
X-115.287 Y-53.085 Z-0.808 I0 J-1
X-115.287 Y-51.085 Z-0.839 I0 J1
X-115.287 Y-53.085 Z-0.869 I0 J-1
X-115.287 Y-51.085 Z-0.9 I0 J1
X-115.287 Y-53.085 Z-0.93 I0 J-1
X-115.287 Y-51.085 Z-0.961 I0 J1
X-115.287 Y-53.085 Z-0.991 I0 J-1
X-115.287 Y-51.085 Z-1.022 I0 J1
X-115.287 Y-53.085 Z-1.052 I0 J-1
X-115.287 Y-51.085 Z-1.083 I0 J1
X-115.287 Y-53.085 Z-1.113 I0 J-1
X-115.287 Y-51.085 Z-1.144 I0 J1
X-115.287 Y-53.085 Z-1.175 I0 J-1
X-115.287 Y-51.085 Z-1.205 I0 J1
X-115.287 Y-53.085 Z-1.236 I0 J-1
X-115.287 Y-51.085 Z-1.266 I0 J1
X-115.287 Y-53.085 Z-1.297 I0 J-1
X-115.287 Y-51.085 Z-1.327 I0 J1
X-115.287 Y-53.085 Z-1.358 I0 J-1
X-115.287 Y-51.085 Z-1.388 I0 J1
X-115.287 Y-53.085 Z-1.419 I0 J-1
X-115.287 Y-51.085 Z-1.45 I0 J1
X-115.287 Y-53.085 Z-1.48 I0 J-1
X-115.287 Y-51.085 Z-1.511 I0 J1
X-115.287 Y-53.085 Z-1.541 I0 J-1
X-115.287 Y-51.085 Z-1.572 I0 J1
X-115.287 Y-53.085 Z-1.602 I0 J-1
X-115.287 Y-51.085 Z-1.633 I0 J1
X-115.287 Y-53.085 Z-1.663 I0 J-1
X-115.287 Y-51.085 Z-1.694 I0 J1
X-115.287 Y-53.085 Z-1.724 I0 J-1
X-115.287 Y-51.085 Z-1.755 I0 J1
X-115.287 Y-53.085 Z-1.786 I0 J-1
X-115.287 Y-51.085 Z-1.816 I0 J1
X-115.287 Y-53.085 Z-1.847 I0 J-1
X-115.287 Y-51.085 Z-1.877 I0 J1
X-115.287 Y-53.085 Z-1.908 I0 J-1
X-115.287 Y-51.085 Z-1.938 I0 J1
X-115.287 Y-53.085 Z-1.969 I0 J-1
X-115.287 Y-51.085 Z-1.999 I0 J1
X-115.287 Y-53.085 Z-2.03 I0 J-1
X-115.287 Y-51.085 Z-2.06 I0 J1
X-115.287 Y-53.085 Z-2.091 I0 J-1
X-115.287 Y-51.085 Z-2.122 I0 J1
X-115.287 Y-53.085 Z-2.152 I0 J-1
X-115.287 Y-51.085 Z-2.183 I0 J1
X-116.263 Y-52.301 Z-2.2 I0 J-1
X-114.31 Y-51.87 I0.977 J0.215
X-116.263 Y-52.301 I-0.977 J-0.215
G1 X-116.246 Y-52.344
X-116.216 Y-52.381
X-116.177 Y-52.406
X-116.131 Y-52.418
X-116.084 Y-52.415
X-116.011 Y-52.399
X-115.966 Y-52.389 Z-2.193
X-115.925 Y-52.38 Z-2.171
X-115.893 Y-52.373 Z-2.138
X-115.872 Y-52.368 Z-2.096
X-115.865 Y-52.366 Z-2.05
G0 Z5
X-134.6 Y-54.125
Z2.2
G1 Z0.35 F400
Y-54.118 Z0.304
Y-54.096 Z0.262
Y-54.063 Z0.229
Y-54.021 Z0.207
Y-53.975 Z0.2
Y-53.9
X-134.607 Y-53.854
X-134.629 Y-53.812
X-134.662 Y-53.779
X-134.704 Y-53.757
X-134.75 Y-53.75
G3 X-134.75 Y-55.75 Z0.169 I0 J-1 F600
X-134.75 Y-53.75 Z0.139 I0 J1
X-134.75 Y-55.75 Z0.108 I0 J-1
X-134.75 Y-53.75 Z0.078 I0 J1
X-134.75 Y-55.75 Z0.047 I0 J-1
X-134.75 Y-53.75 Z0.017 I0 J1
X-134.75 Y-55.75 Z-0.014 I0 J-1
X-134.75 Y-53.75 Z-0.044 I0 J1
X-134.75 Y-55.75 Z-0.075 I0 J-1
X-134.75 Y-53.75 Z-0.105 I0 J1
X-134.75 Y-55.75 Z-0.136 I0 J-1
X-134.75 Y-53.75 Z-0.167 I0 J1
X-134.75 Y-55.75 Z-0.197 I0 J-1
X-134.75 Y-53.75 Z-0.228 I0 J1
X-134.75 Y-55.75 Z-0.258 I0 J-1
X-134.75 Y-53.75 Z-0.289 I0 J1
X-134.75 Y-55.75 Z-0.319 I0 J-1
X-134.75 Y-53.75 Z-0.35 I0 J1
X-134.75 Y-55.75 Z-0.38 I0 J-1
X-134.75 Y-53.75 Z-0.411 I0 J1
X-134.75 Y-55.75 Z-0.441 I0 J-1
X-134.75 Y-53.75 Z-0.472 I0 J1
X-134.75 Y-55.75 Z-0.503 I0 J-1
X-134.75 Y-53.75 Z-0.533 I0 J1
X-134.75 Y-55.75 Z-0.564 I0 J-1
X-134.75 Y-53.75 Z-0.594 I0 J1
X-134.75 Y-55.75 Z-0.625 I0 J-1
X-134.75 Y-53.75 Z-0.655 I0 J1
X-134.75 Y-55.75 Z-0.686 I0 J-1
X-134.75 Y-53.75 Z-0.716 I0 J1
X-134.75 Y-55.75 Z-0.747 I0 J-1
X-134.75 Y-53.75 Z-0.777 I0 J1
X-134.75 Y-55.75 Z-0.808 I0 J-1
X-134.75 Y-53.75 Z-0.839 I0 J1
X-134.75 Y-55.75 Z-0.869 I0 J-1
X-134.75 Y-53.75 Z-0.9 I0 J1
X-134.75 Y-55.75 Z-0.93 I0 J-1
X-134.75 Y-53.75 Z-0.961 I0 J1
X-134.75 Y-55.75 Z-0.991 I0 J-1
X-134.75 Y-53.75 Z-1.022 I0 J1
X-134.75 Y-55.75 Z-1.052 I0 J-1
X-134.75 Y-53.75 Z-1.083 I0 J1
X-134.75 Y-55.75 Z-1.113 I0 J-1
X-134.75 Y-53.75 Z-1.144 I0 J1
X-134.75 Y-55.75 Z-1.175 I0 J-1
X-134.75 Y-53.75 Z-1.205 I0 J1
X-134.75 Y-55.75 Z-1.236 I0 J-1
X-134.75 Y-53.75 Z-1.266 I0 J1
X-134.75 Y-55.75 Z-1.297 I0 J-1
X-134.75 Y-53.75 Z-1.327 I0 J1
X-134.75 Y-55.75 Z-1.358 I0 J-1
X-134.75 Y-53.75 Z-1.388 I0 J1
X-134.75 Y-55.75 Z-1.419 I0 J-1
X-134.75 Y-53.75 Z-1.45 I0 J1
X-134.75 Y-55.75 Z-1.48 I0 J-1
X-134.75 Y-53.75 Z-1.511 I0 J1
X-134.75 Y-55.75 Z-1.541 I0 J-1
X-134.75 Y-53.75 Z-1.572 I0 J1
X-134.75 Y-55.75 Z-1.602 I0 J-1
X-134.75 Y-53.75 Z-1.633 I0 J1
X-134.75 Y-55.75 Z-1.663 I0 J-1
X-134.75 Y-53.75 Z-1.694 I0 J1
X-134.75 Y-55.75 Z-1.724 I0 J-1
X-134.75 Y-53.75 Z-1.755 I0 J1
X-134.75 Y-55.75 Z-1.786 I0 J-1
X-134.75 Y-53.75 Z-1.816 I0 J1
X-134.75 Y-55.75 Z-1.847 I0 J-1
X-134.75 Y-53.75 Z-1.877 I0 J1
X-134.75 Y-55.75 Z-1.908 I0 J-1
X-134.75 Y-53.75 Z-1.938 I0 J1
X-134.75 Y-55.75 Z-1.969 I0 J-1
X-134.75 Y-53.75 Z-1.999 I0 J1
X-134.75 Y-55.75 Z-2.03 I0 J-1
X-134.75 Y-53.75 Z-2.06 I0 J1
X-134.75 Y-55.75 Z-2.091 I0 J-1
X-134.75 Y-53.75 Z-2.122 I0 J1
X-134.75 Y-55.75 Z-2.152 I0 J-1
X-134.75 Y-53.75 Z-2.183 I0 J1
X-135.727 Y-54.965 Z-2.2 I0 J-1
X-133.773 Y-54.535 I0.977 J0.215
X-135.727 Y-54.965 I-0.977 J-0.215
G1 X-135.709 Y-55.009
X-135.68 Y-55.045
X-135.64 Y-55.071
X-135.595 Y-55.082
X-135.548 Y-55.08
X-135.475 Y-55.063
X-135.429 Y-55.053 Z-2.193
X-135.388 Y-55.044 Z-2.171
X-135.356 Y-55.037 Z-2.138
X-135.335 Y-55.033 Z-2.096
X-135.328 Y-55.031 Z-2.05
G0 Z5
X-165.1 Y-54.125
Z2.2
G1 Z0.35 F400
Y-54.118 Z0.304
Y-54.096 Z0.262
Y-54.063 Z0.229
Y-54.021 Z0.207
Y-53.975 Z0.2
Y-53.9
X-165.107 Y-53.854
X-165.129 Y-53.812
X-165.162 Y-53.779
X-165.204 Y-53.757
X-165.25 Y-53.75
G3 X-165.25 Y-55.75 Z0.169 I0 J-1 F600
X-165.25 Y-53.75 Z0.139 I0 J1
X-165.25 Y-55.75 Z0.108 I0 J-1
X-165.25 Y-53.75 Z0.078 I0 J1
X-165.25 Y-55.75 Z0.047 I0 J-1
X-165.25 Y-53.75 Z0.017 I0 J1
X-165.25 Y-55.75 Z-0.014 I0 J-1
X-165.25 Y-53.75 Z-0.044 I0 J1
X-165.25 Y-55.75 Z-0.075 I0 J-1
X-165.25 Y-53.75 Z-0.105 I0 J1
X-165.25 Y-55.75 Z-0.136 I0 J-1
X-165.25 Y-53.75 Z-0.167 I0 J1
X-165.25 Y-55.75 Z-0.197 I0 J-1
X-165.25 Y-53.75 Z-0.228 I0 J1
X-165.25 Y-55.75 Z-0.258 I0 J-1
X-165.25 Y-53.75 Z-0.289 I0 J1
X-165.25 Y-55.75 Z-0.319 I0 J-1
X-165.25 Y-53.75 Z-0.35 I0 J1
X-165.25 Y-55.75 Z-0.38 I0 J-1
X-165.25 Y-53.75 Z-0.411 I0 J1
X-165.25 Y-55.75 Z-0.441 I0 J-1
X-165.25 Y-53.75 Z-0.472 I0 J1
X-165.25 Y-55.75 Z-0.503 I0 J-1
X-165.25 Y-53.75 Z-0.533 I0 J1
X-165.25 Y-55.75 Z-0.564 I0 J-1
X-165.25 Y-53.75 Z-0.594 I0 J1
X-165.25 Y-55.75 Z-0.625 I0 J-1
X-165.25 Y-53.75 Z-0.655 I0 J1
X-165.25 Y-55.75 Z-0.686 I0 J-1
X-165.25 Y-53.75 Z-0.716 I0 J1
X-165.25 Y-55.75 Z-0.747 I0 J-1
X-165.25 Y-53.75 Z-0.777 I0 J1
X-165.25 Y-55.75 Z-0.808 I0 J-1
X-165.25 Y-53.75 Z-0.839 I0 J1
X-165.25 Y-55.75 Z-0.869 I0 J-1
X-165.25 Y-53.75 Z-0.9 I0 J1
X-165.25 Y-55.75 Z-0.93 I0 J-1
X-165.25 Y-53.75 Z-0.961 I0 J1
X-165.25 Y-55.75 Z-0.991 I0 J-1
X-165.25 Y-53.75 Z-1.022 I0 J1
X-165.25 Y-55.75 Z-1.052 I0 J-1
X-165.25 Y-53.75 Z-1.083 I0 J1
X-165.25 Y-55.75 Z-1.113 I0 J-1
X-165.25 Y-53.75 Z-1.144 I0 J1
X-165.25 Y-55.75 Z-1.175 I0 J-1
X-165.25 Y-53.75 Z-1.205 I0 J1
X-165.25 Y-55.75 Z-1.236 I0 J-1
X-165.25 Y-53.75 Z-1.266 I0 J1
X-165.25 Y-55.75 Z-1.297 I0 J-1
X-165.25 Y-53.75 Z-1.327 I0 J1
X-165.25 Y-55.75 Z-1.358 I0 J-1
X-165.25 Y-53.75 Z-1.388 I0 J1
X-165.25 Y-55.75 Z-1.419 I0 J-1
X-165.25 Y-53.75 Z-1.45 I0 J1
X-165.25 Y-55.75 Z-1.48 I0 J-1
X-165.25 Y-53.75 Z-1.511 I0 J1
X-165.25 Y-55.75 Z-1.541 I0 J-1
X-165.25 Y-53.75 Z-1.572 I0 J1
X-165.25 Y-55.75 Z-1.602 I0 J-1
X-165.25 Y-53.75 Z-1.633 I0 J1
X-165.25 Y-55.75 Z-1.663 I0 J-1
X-165.25 Y-53.75 Z-1.694 I0 J1
X-165.25 Y-55.75 Z-1.724 I0 J-1
X-165.25 Y-53.75 Z-1.755 I0 J1
X-165.25 Y-55.75 Z-1.786 I0 J-1
X-165.25 Y-53.75 Z-1.816 I0 J1
X-165.25 Y-55.75 Z-1.847 I0 J-1
X-165.25 Y-53.75 Z-1.877 I0 J1
X-165.25 Y-55.75 Z-1.908 I0 J-1
X-165.25 Y-53.75 Z-1.938 I0 J1
X-165.25 Y-55.75 Z-1.969 I0 J-1
X-165.25 Y-53.75 Z-1.999 I0 J1
X-165.25 Y-55.75 Z-2.03 I0 J-1
X-165.25 Y-53.75 Z-2.06 I0 J1
X-165.25 Y-55.75 Z-2.091 I0 J-1
X-165.25 Y-53.75 Z-2.122 I0 J1
X-165.25 Y-55.75 Z-2.152 I0 J-1
X-165.25 Y-53.75 Z-2.183 I0 J1
X-166.227 Y-54.965 Z-2.2 I0 J-1
X-164.273 Y-54.535 I0.977 J0.215
X-166.227 Y-54.965 I-0.977 J-0.215
G1 X-166.209 Y-55.009
X-166.18 Y-55.045
X-166.14 Y-55.071
X-166.095 Y-55.082
X-166.048 Y-55.08
X-165.975 Y-55.063
X-165.929 Y-55.053 Z-2.193
X-165.888 Y-55.044 Z-2.171
X-165.856 Y-55.037 Z-2.138
X-165.835 Y-55.033 Z-2.096
X-165.828 Y-55.031 Z-2.05
G0 Z5
X-165.541 Y-26.46
Z2.2
G1 Z0.35 F400
Y-26.453 Z0.304
Y-26.432 Z0.262
Y-26.398 Z0.229
Y-26.357 Z0.207
Y-26.31 Z0.2
Y-26.235
X-165.549 Y-26.189
X-165.57 Y-26.147
X-165.603 Y-26.114
X-165.645 Y-26.093
X-165.691 Y-26.085
G3 X-165.691 Y-28.085 Z0.169 I0 J-1 F600
X-165.691 Y-26.085 Z0.139 I0 J1
X-165.691 Y-28.085 Z0.108 I0 J-1
X-165.691 Y-26.085 Z0.078 I0 J1
X-165.691 Y-28.085 Z0.047 I0 J-1
X-165.691 Y-26.085 Z0.017 I0 J1
X-165.691 Y-28.085 Z-0.014 I0 J-1
X-165.691 Y-26.085 Z-0.044 I0 J1
X-165.691 Y-28.085 Z-0.075 I0 J-1
X-165.691 Y-26.085 Z-0.105 I0 J1
X-165.691 Y-28.085 Z-0.136 I0 J-1
X-165.691 Y-26.085 Z-0.167 I0 J1
X-165.691 Y-28.085 Z-0.197 I0 J-1
X-165.691 Y-26.085 Z-0.228 I0 J1
X-165.691 Y-28.085 Z-0.258 I0 J-1
X-165.691 Y-26.085 Z-0.289 I0 J1
X-165.691 Y-28.085 Z-0.319 I0 J-1
X-165.691 Y-26.085 Z-0.35 I0 J1
X-165.691 Y-28.085 Z-0.38 I0 J-1
X-165.691 Y-26.085 Z-0.411 I0 J1
X-165.691 Y-28.085 Z-0.441 I0 J-1
X-165.691 Y-26.085 Z-0.472 I0 J1
X-165.691 Y-28.085 Z-0.503 I0 J-1
X-165.691 Y-26.085 Z-0.533 I0 J1
X-165.691 Y-28.085 Z-0.564 I0 J-1
X-165.691 Y-26.085 Z-0.594 I0 J1
X-165.691 Y-28.085 Z-0.625 I0 J-1
X-165.691 Y-26.085 Z-0.655 I0 J1
X-165.691 Y-28.085 Z-0.686 I0 J-1
X-165.691 Y-26.085 Z-0.716 I0 J1
X-165.691 Y-28.085 Z-0.747 I0 J-1
X-165.691 Y-26.085 Z-0.777 I0 J1
X-165.691 Y-28.085 Z-0.808 I0 J-1
X-165.691 Y-26.085 Z-0.839 I0 J1
X-165.691 Y-28.085 Z-0.869 I0 J-1
X-165.691 Y-26.085 Z-0.9 I0 J1
X-165.691 Y-28.085 Z-0.93 I0 J-1
X-165.691 Y-26.085 Z-0.961 I0 J1
X-165.691 Y-28.085 Z-0.991 I0 J-1
X-165.691 Y-26.085 Z-1.022 I0 J1
X-165.691 Y-28.085 Z-1.052 I0 J-1
X-165.691 Y-26.085 Z-1.083 I0 J1
X-165.691 Y-28.085 Z-1.113 I0 J-1
X-165.691 Y-26.085 Z-1.144 I0 J1
X-165.691 Y-28.085 Z-1.175 I0 J-1
X-165.691 Y-26.085 Z-1.205 I0 J1
X-165.691 Y-28.085 Z-1.236 I0 J-1
X-165.691 Y-26.085 Z-1.266 I0 J1
X-165.691 Y-28.085 Z-1.297 I0 J-1
X-165.691 Y-26.085 Z-1.327 I0 J1
X-165.691 Y-28.085 Z-1.358 I0 J-1
X-165.691 Y-26.085 Z-1.388 I0 J1
X-165.691 Y-28.085 Z-1.419 I0 J-1
X-165.691 Y-26.085 Z-1.45 I0 J1
X-165.691 Y-28.085 Z-1.48 I0 J-1
X-165.691 Y-26.085 Z-1.511 I0 J1
X-165.691 Y-28.085 Z-1.541 I0 J-1
X-165.691 Y-26.085 Z-1.572 I0 J1
X-165.691 Y-28.085 Z-1.602 I0 J-1
X-165.691 Y-26.085 Z-1.633 I0 J1
X-165.691 Y-28.085 Z-1.663 I0 J-1
X-165.691 Y-26.085 Z-1.694 I0 J1
X-165.691 Y-28.085 Z-1.724 I0 J-1
X-165.691 Y-26.085 Z-1.755 I0 J1
X-165.691 Y-28.085 Z-1.786 I0 J-1
X-165.691 Y-26.085 Z-1.816 I0 J1
X-165.691 Y-28.085 Z-1.847 I0 J-1
X-165.691 Y-26.085 Z-1.877 I0 J1
X-165.691 Y-28.085 Z-1.908 I0 J-1
X-165.691 Y-26.085 Z-1.938 I0 J1
X-165.691 Y-28.085 Z-1.969 I0 J-1
X-165.691 Y-26.085 Z-1.999 I0 J1
X-165.691 Y-28.085 Z-2.03 I0 J-1
X-165.691 Y-26.085 Z-2.06 I0 J1
X-165.691 Y-28.085 Z-2.091 I0 J-1
X-165.691 Y-26.085 Z-2.122 I0 J1
X-165.691 Y-28.085 Z-2.152 I0 J-1
X-165.691 Y-26.085 Z-2.183 I0 J1
X-166.668 Y-27.301 Z-2.2 I0 J-1
X-164.715 Y-26.87 I0.977 J0.215
X-166.668 Y-27.301 I-0.977 J-0.215
G1 X-166.651 Y-27.344
X-166.621 Y-27.381
X-166.582 Y-27.406
X-166.536 Y-27.418
X-166.489 Y-27.415
X-166.416 Y-27.399
X-166.371 Y-27.389 Z-2.193
X-166.33 Y-27.38 Z-2.171
X-166.297 Y-27.373 Z-2.138
X-166.277 Y-27.368 Z-2.096
X-166.27 Y-27.366 Z-2.05
G0 Z5
X-184.85 Y-19.375
Z2.2
G1 Z0.35 F400
Y-19.368 Z0.304
Y-19.346 Z0.262
Y-19.313 Z0.229
Y-19.271 Z0.207
Y-19.225 Z0.2
Y-19.15
X-184.857 Y-19.104
X-184.879 Y-19.062
X-184.912 Y-19.029
X-184.954 Y-19.007
X-185 Y-19
G3 X-185 Y-21 Z0.169 I0 J-1 F600
X-185 Y-19 Z0.139 I0 J1
X-185 Y-21 Z0.108 I0 J-1
X-185 Y-19 Z0.078 I0 J1
X-185 Y-21 Z0.047 I0 J-1
X-185 Y-19 Z0.017 I0 J1
X-185 Y-21 Z-0.014 I0 J-1
X-185 Y-19 Z-0.044 I0 J1
X-185 Y-21 Z-0.075 I0 J-1
X-185 Y-19 Z-0.105 I0 J1
X-185 Y-21 Z-0.136 I0 J-1
X-185 Y-19 Z-0.167 I0 J1
X-185 Y-21 Z-0.197 I0 J-1
X-185 Y-19 Z-0.228 I0 J1
X-185 Y-21 Z-0.258 I0 J-1
X-185 Y-19 Z-0.289 I0 J1
X-185 Y-21 Z-0.319 I0 J-1
X-185 Y-19 Z-0.35 I0 J1
X-185 Y-21 Z-0.38 I0 J-1
X-185 Y-19 Z-0.411 I0 J1
X-185 Y-21 Z-0.441 I0 J-1
X-185 Y-19 Z-0.472 I0 J1
X-185 Y-21 Z-0.503 I0 J-1
X-185 Y-19 Z-0.533 I0 J1
X-185 Y-21 Z-0.564 I0 J-1
X-185 Y-19 Z-0.594 I0 J1
X-185 Y-21 Z-0.625 I0 J-1
X-185 Y-19 Z-0.655 I0 J1
X-185 Y-21 Z-0.686 I0 J-1
X-185 Y-19 Z-0.716 I0 J1
X-185 Y-21 Z-0.747 I0 J-1
X-185 Y-19 Z-0.777 I0 J1
X-185 Y-21 Z-0.808 I0 J-1
X-185 Y-19 Z-0.839 I0 J1
X-185 Y-21 Z-0.869 I0 J-1
X-185 Y-19 Z-0.9 I0 J1
X-185 Y-21 Z-0.93 I0 J-1
X-185 Y-19 Z-0.961 I0 J1
X-185 Y-21 Z-0.991 I0 J-1
X-185 Y-19 Z-1.022 I0 J1
X-185 Y-21 Z-1.052 I0 J-1
X-185 Y-19 Z-1.083 I0 J1
X-185 Y-21 Z-1.113 I0 J-1
X-185 Y-19 Z-1.144 I0 J1
X-185 Y-21 Z-1.175 I0 J-1
X-185 Y-19 Z-1.205 I0 J1
X-185 Y-21 Z-1.236 I0 J-1
X-185 Y-19 Z-1.266 I0 J1
X-185 Y-21 Z-1.297 I0 J-1
X-185 Y-19 Z-1.327 I0 J1
X-185 Y-21 Z-1.358 I0 J-1
X-185 Y-19 Z-1.388 I0 J1
X-185 Y-21 Z-1.419 I0 J-1
X-185 Y-19 Z-1.45 I0 J1
X-185 Y-21 Z-1.48 I0 J-1
X-185 Y-19 Z-1.511 I0 J1
X-185 Y-21 Z-1.541 I0 J-1
X-185 Y-19 Z-1.572 I0 J1
X-185 Y-21 Z-1.602 I0 J-1
X-185 Y-19 Z-1.633 I0 J1
X-185 Y-21 Z-1.663 I0 J-1
X-185 Y-19 Z-1.694 I0 J1
X-185 Y-21 Z-1.724 I0 J-1
X-185 Y-19 Z-1.755 I0 J1
X-185 Y-21 Z-1.786 I0 J-1
X-185 Y-19 Z-1.816 I0 J1
X-185 Y-21 Z-1.847 I0 J-1
X-185 Y-19 Z-1.877 I0 J1
X-185 Y-21 Z-1.908 I0 J-1
X-185 Y-19 Z-1.938 I0 J1
X-185 Y-21 Z-1.969 I0 J-1
X-185 Y-19 Z-1.999 I0 J1
X-185 Y-21 Z-2.03 I0 J-1
X-185 Y-19 Z-2.06 I0 J1
X-185 Y-21 Z-2.091 I0 J-1
X-185 Y-19 Z-2.122 I0 J1
X-185 Y-21 Z-2.152 I0 J-1
X-185 Y-19 Z-2.183 I0 J1
X-185.977 Y-20.215 Z-2.2 I0 J-1
X-184.023 Y-19.785 I0.977 J0.215
X-185.977 Y-20.215 I-0.977 J-0.215
G1 X-185.959 Y-20.259
X-185.93 Y-20.295
X-185.89 Y-20.321
X-185.845 Y-20.332
X-185.798 Y-20.33
X-185.725 Y-20.313
X-185.679 Y-20.303 Z-2.193
X-185.638 Y-20.294 Z-2.171
X-185.606 Y-20.287 Z-2.138
X-185.585 Y-20.283 Z-2.096
X-185.578 Y-20.281 Z-2.05
G0 Z5
X-244.85 Y-34.375
Z2.2
G1 Z0.35 F400
Y-34.368 Z0.304
Y-34.346 Z0.262
Y-34.313 Z0.229
Y-34.271 Z0.207
Y-34.225 Z0.2
Y-34.15
X-244.857 Y-34.104
X-244.879 Y-34.062
X-244.912 Y-34.029
X-244.954 Y-34.007
X-245 Y-34
G3 X-245 Y-36 Z0.169 I0 J-1 F600
X-245 Y-34 Z0.139 I0 J1
X-245 Y-36 Z0.108 I0 J-1
X-245 Y-34 Z0.078 I0 J1
X-245 Y-36 Z0.047 I0 J-1
X-245 Y-34 Z0.017 I0 J1
X-245 Y-36 Z-0.014 I0 J-1
X-245 Y-34 Z-0.044 I0 J1
X-245 Y-36 Z-0.075 I0 J-1
X-245 Y-34 Z-0.105 I0 J1
X-245 Y-36 Z-0.136 I0 J-1
X-245 Y-34 Z-0.167 I0 J1
X-245 Y-36 Z-0.197 I0 J-1
X-245 Y-34 Z-0.228 I0 J1
X-245 Y-36 Z-0.258 I0 J-1
X-245 Y-34 Z-0.289 I0 J1
X-245 Y-36 Z-0.319 I0 J-1
X-245 Y-34 Z-0.35 I0 J1
X-245 Y-36 Z-0.38 I0 J-1
X-245 Y-34 Z-0.411 I0 J1
X-245 Y-36 Z-0.441 I0 J-1
X-245 Y-34 Z-0.472 I0 J1
X-245 Y-36 Z-0.503 I0 J-1
X-245 Y-34 Z-0.533 I0 J1
X-245 Y-36 Z-0.564 I0 J-1
X-245 Y-34 Z-0.594 I0 J1
X-245 Y-36 Z-0.625 I0 J-1
X-245 Y-34 Z-0.655 I0 J1
X-245 Y-36 Z-0.686 I0 J-1
X-245 Y-34 Z-0.716 I0 J1
X-245 Y-36 Z-0.747 I0 J-1
X-245 Y-34 Z-0.777 I0 J1
X-245 Y-36 Z-0.808 I0 J-1
X-245 Y-34 Z-0.839 I0 J1
X-245 Y-36 Z-0.869 I0 J-1
X-245 Y-34 Z-0.9 I0 J1
X-245 Y-36 Z-0.93 I0 J-1
X-245 Y-34 Z-0.961 I0 J1
X-245 Y-36 Z-0.991 I0 J-1
X-245 Y-34 Z-1.022 I0 J1
X-245 Y-36 Z-1.052 I0 J-1
X-245 Y-34 Z-1.083 I0 J1
X-245 Y-36 Z-1.113 I0 J-1
X-245 Y-34 Z-1.144 I0 J1
X-245 Y-36 Z-1.175 I0 J-1
X-245 Y-34 Z-1.205 I0 J1
X-245 Y-36 Z-1.236 I0 J-1
X-245 Y-34 Z-1.266 I0 J1
X-245 Y-36 Z-1.297 I0 J-1
X-245 Y-34 Z-1.327 I0 J1
X-245 Y-36 Z-1.358 I0 J-1
X-245 Y-34 Z-1.388 I0 J1
X-245 Y-36 Z-1.419 I0 J-1
X-245 Y-34 Z-1.45 I0 J1
X-245 Y-36 Z-1.48 I0 J-1
X-245 Y-34 Z-1.511 I0 J1
X-245 Y-36 Z-1.541 I0 J-1
X-245 Y-34 Z-1.572 I0 J1
X-245 Y-36 Z-1.602 I0 J-1
X-245 Y-34 Z-1.633 I0 J1
X-245 Y-36 Z-1.663 I0 J-1
X-245 Y-34 Z-1.694 I0 J1
X-245 Y-36 Z-1.724 I0 J-1
X-245 Y-34 Z-1.755 I0 J1
X-245 Y-36 Z-1.786 I0 J-1
X-245 Y-34 Z-1.816 I0 J1
X-245 Y-36 Z-1.847 I0 J-1
X-245 Y-34 Z-1.877 I0 J1
X-245 Y-36 Z-1.908 I0 J-1
X-245 Y-34 Z-1.938 I0 J1
X-245 Y-36 Z-1.969 I0 J-1
X-245 Y-34 Z-1.999 I0 J1
X-245 Y-36 Z-2.03 I0 J-1
X-245 Y-34 Z-2.06 I0 J1
X-245 Y-36 Z-2.091 I0 J-1
X-245 Y-34 Z-2.122 I0 J1
X-245 Y-36 Z-2.152 I0 J-1
X-245 Y-34 Z-2.183 I0 J1
X-245.977 Y-35.215 Z-2.2 I0 J-1
X-244.023 Y-34.785 I0.977 J0.215
X-245.977 Y-35.215 I-0.977 J-0.215
G1 X-245.959 Y-35.259
X-245.93 Y-35.295
X-245.89 Y-35.321
X-245.845 Y-35.332
X-245.798 Y-35.33
X-245.725 Y-35.313
X-245.679 Y-35.303 Z-2.193
X-245.638 Y-35.294 Z-2.171
X-245.606 Y-35.287 Z-2.138
X-245.585 Y-35.283 Z-2.096
X-245.578 Y-35.281 Z-2.05
G0 Z5
X-269.85 Y-39.375
Z2.2
G1 Z0.35 F400
Y-39.368 Z0.304
Y-39.346 Z0.262
Y-39.313 Z0.229
Y-39.271 Z0.207
Y-39.225 Z0.2
Y-39.15
X-269.857 Y-39.104
X-269.879 Y-39.062
X-269.912 Y-39.029
X-269.954 Y-39.007
X-270 Y-39
G3 X-270 Y-41 Z0.169 I0 J-1 F600
X-270 Y-39 Z0.139 I0 J1
X-270 Y-41 Z0.108 I0 J-1
X-270 Y-39 Z0.078 I0 J1
X-270 Y-41 Z0.047 I0 J-1
X-270 Y-39 Z0.017 I0 J1
X-270 Y-41 Z-0.014 I0 J-1
X-270 Y-39 Z-0.044 I0 J1
X-270 Y-41 Z-0.075 I0 J-1
X-270 Y-39 Z-0.105 I0 J1
X-270 Y-41 Z-0.136 I0 J-1
X-270 Y-39 Z-0.167 I0 J1
X-270 Y-41 Z-0.197 I0 J-1
X-270 Y-39 Z-0.228 I0 J1
X-270 Y-41 Z-0.258 I0 J-1
X-270 Y-39 Z-0.289 I0 J1
X-270 Y-41 Z-0.319 I0 J-1
X-270 Y-39 Z-0.35 I0 J1
X-270 Y-41 Z-0.38 I0 J-1
X-270 Y-39 Z-0.411 I0 J1
X-270 Y-41 Z-0.441 I0 J-1
X-270 Y-39 Z-0.472 I0 J1
X-270 Y-41 Z-0.503 I0 J-1
X-270 Y-39 Z-0.533 I0 J1
X-270 Y-41 Z-0.564 I0 J-1
X-270 Y-39 Z-0.594 I0 J1
X-270 Y-41 Z-0.625 I0 J-1
X-270 Y-39 Z-0.655 I0 J1
X-270 Y-41 Z-0.686 I0 J-1
X-270 Y-39 Z-0.716 I0 J1
X-270 Y-41 Z-0.747 I0 J-1
X-270 Y-39 Z-0.777 I0 J1
X-270 Y-41 Z-0.808 I0 J-1
X-270 Y-39 Z-0.839 I0 J1
X-270 Y-41 Z-0.869 I0 J-1
X-270 Y-39 Z-0.9 I0 J1
X-270 Y-41 Z-0.93 I0 J-1
X-270 Y-39 Z-0.961 I0 J1
X-270 Y-41 Z-0.991 I0 J-1
X-270 Y-39 Z-1.022 I0 J1
X-270 Y-41 Z-1.052 I0 J-1
X-270 Y-39 Z-1.083 I0 J1
X-270 Y-41 Z-1.113 I0 J-1
X-270 Y-39 Z-1.144 I0 J1
X-270 Y-41 Z-1.175 I0 J-1
X-270 Y-39 Z-1.205 I0 J1
X-270 Y-41 Z-1.236 I0 J-1
X-270 Y-39 Z-1.266 I0 J1
X-270 Y-41 Z-1.297 I0 J-1
X-270 Y-39 Z-1.327 I0 J1
X-270 Y-41 Z-1.358 I0 J-1
X-270 Y-39 Z-1.388 I0 J1
X-270 Y-41 Z-1.419 I0 J-1
X-270 Y-39 Z-1.45 I0 J1
X-270 Y-41 Z-1.48 I0 J-1
X-270 Y-39 Z-1.511 I0 J1
X-270 Y-41 Z-1.541 I0 J-1
X-270 Y-39 Z-1.572 I0 J1
X-270 Y-41 Z-1.602 I0 J-1
X-270 Y-39 Z-1.633 I0 J1
X-270 Y-41 Z-1.663 I0 J-1
X-270 Y-39 Z-1.694 I0 J1
X-270 Y-41 Z-1.724 I0 J-1
X-270 Y-39 Z-1.755 I0 J1
X-270 Y-41 Z-1.786 I0 J-1
X-270 Y-39 Z-1.816 I0 J1
X-270 Y-41 Z-1.847 I0 J-1
X-270 Y-39 Z-1.877 I0 J1
X-270 Y-41 Z-1.908 I0 J-1
X-270 Y-39 Z-1.938 I0 J1
X-270 Y-41 Z-1.969 I0 J-1
X-270 Y-39 Z-1.999 I0 J1
X-270 Y-41 Z-2.03 I0 J-1
X-270 Y-39 Z-2.06 I0 J1
X-270 Y-41 Z-2.091 I0 J-1
X-270 Y-39 Z-2.122 I0 J1
X-270 Y-41 Z-2.152 I0 J-1
X-270 Y-39 Z-2.183 I0 J1
X-270.977 Y-40.215 Z-2.2 I0 J-1
X-269.023 Y-39.785 I0.977 J0.215
X-270.977 Y-40.215 I-0.977 J-0.215
G1 X-270.959 Y-40.259
X-270.93 Y-40.295
X-270.89 Y-40.321
X-270.845 Y-40.332
X-270.798 Y-40.33
X-270.725 Y-40.313
X-270.679 Y-40.303 Z-2.193
X-270.638 Y-40.294 Z-2.171
X-270.606 Y-40.287 Z-2.138
X-270.585 Y-40.283 Z-2.096
X-270.578 Y-40.281 Z-2.05
G0 Z5
X-269.85 Y-99.375
Z2.2
G1 Z0.35 F400
Y-99.368 Z0.304
Y-99.346 Z0.262
Y-99.313 Z0.229
Y-99.271 Z0.207
Y-99.225 Z0.2
Y-99.15
X-269.857 Y-99.104
X-269.879 Y-99.062
X-269.912 Y-99.029
X-269.954 Y-99.007
X-270 Y-99
G3 X-270 Y-101 Z0.169 I0 J-1 F600
X-270 Y-99 Z0.139 I0 J1
X-270 Y-101 Z0.108 I0 J-1
X-270 Y-99 Z0.078 I0 J1
X-270 Y-101 Z0.047 I0 J-1
X-270 Y-99 Z0.017 I0 J1
X-270 Y-101 Z-0.014 I0 J-1
X-270 Y-99 Z-0.044 I0 J1
X-270 Y-101 Z-0.075 I0 J-1
X-270 Y-99 Z-0.105 I0 J1
X-270 Y-101 Z-0.136 I0 J-1
X-270 Y-99 Z-0.167 I0 J1
X-270 Y-101 Z-0.197 I0 J-1
X-270 Y-99 Z-0.228 I0 J1
X-270 Y-101 Z-0.258 I0 J-1
X-270 Y-99 Z-0.289 I0 J1
X-270 Y-101 Z-0.319 I0 J-1
X-270 Y-99 Z-0.35 I0 J1
X-270 Y-101 Z-0.38 I0 J-1
X-270 Y-99 Z-0.411 I0 J1
X-270 Y-101 Z-0.441 I0 J-1
X-270 Y-99 Z-0.472 I0 J1
X-270 Y-101 Z-0.503 I0 J-1
X-270 Y-99 Z-0.533 I0 J1
X-270 Y-101 Z-0.564 I0 J-1
X-270 Y-99 Z-0.594 I0 J1
X-270 Y-101 Z-0.625 I0 J-1
X-270 Y-99 Z-0.655 I0 J1
X-270 Y-101 Z-0.686 I0 J-1
X-270 Y-99 Z-0.716 I0 J1
X-270 Y-101 Z-0.747 I0 J-1
X-270 Y-99 Z-0.777 I0 J1
X-270 Y-101 Z-0.808 I0 J-1
X-270 Y-99 Z-0.839 I0 J1
X-270 Y-101 Z-0.869 I0 J-1
X-270 Y-99 Z-0.9 I0 J1
X-270 Y-101 Z-0.93 I0 J-1
X-270 Y-99 Z-0.961 I0 J1
X-270 Y-101 Z-0.991 I0 J-1
X-270 Y-99 Z-1.022 I0 J1
X-270 Y-101 Z-1.052 I0 J-1
X-270 Y-99 Z-1.083 I0 J1
X-270 Y-101 Z-1.113 I0 J-1
X-270 Y-99 Z-1.144 I0 J1
X-270 Y-101 Z-1.175 I0 J-1
X-270 Y-99 Z-1.205 I0 J1
X-270 Y-101 Z-1.236 I0 J-1
X-270 Y-99 Z-1.266 I0 J1
X-270 Y-101 Z-1.297 I0 J-1
X-270 Y-99 Z-1.327 I0 J1
X-270 Y-101 Z-1.358 I0 J-1
X-270 Y-99 Z-1.388 I0 J1
X-270 Y-101 Z-1.419 I0 J-1
X-270 Y-99 Z-1.45 I0 J1
X-270 Y-101 Z-1.48 I0 J-1
X-270 Y-99 Z-1.511 I0 J1
X-270 Y-101 Z-1.541 I0 J-1
X-270 Y-99 Z-1.572 I0 J1
X-270 Y-101 Z-1.602 I0 J-1
X-270 Y-99 Z-1.633 I0 J1
X-270 Y-101 Z-1.663 I0 J-1
X-270 Y-99 Z-1.694 I0 J1
X-270 Y-101 Z-1.724 I0 J-1
X-270 Y-99 Z-1.755 I0 J1
X-270 Y-101 Z-1.786 I0 J-1
X-270 Y-99 Z-1.816 I0 J1
X-270 Y-101 Z-1.847 I0 J-1
X-270 Y-99 Z-1.877 I0 J1
X-270 Y-101 Z-1.908 I0 J-1
X-270 Y-99 Z-1.938 I0 J1
X-270 Y-101 Z-1.969 I0 J-1
X-270 Y-99 Z-1.999 I0 J1
X-270 Y-101 Z-2.03 I0 J-1
X-270 Y-99 Z-2.06 I0 J1
X-270 Y-101 Z-2.091 I0 J-1
X-270 Y-99 Z-2.122 I0 J1
X-270 Y-101 Z-2.152 I0 J-1
X-270 Y-99 Z-2.183 I0 J1
X-270.977 Y-100.215 Z-2.2 I0 J-1
X-269.023 Y-99.785 I0.977 J0.215
X-270.977 Y-100.215 I-0.977 J-0.215
G1 X-270.959 Y-100.259
X-270.93 Y-100.295
X-270.89 Y-100.321
X-270.845 Y-100.332
X-270.798 Y-100.33
X-270.725 Y-100.313
X-270.679 Y-100.303 Z-2.193
X-270.638 Y-100.294 Z-2.171
X-270.606 Y-100.287 Z-2.138
X-270.585 Y-100.283 Z-2.096
X-270.578 Y-100.281 Z-2.05
G0 Z5
X-244.85 Y-104.375
Z2.2
G1 Z0.35 F400
Y-104.368 Z0.304
Y-104.346 Z0.262
Y-104.313 Z0.229
Y-104.271 Z0.207
Y-104.225 Z0.2
Y-104.15
X-244.857 Y-104.104
X-244.879 Y-104.062
X-244.912 Y-104.029
X-244.954 Y-104.007
X-245 Y-104
G3 X-245 Y-106 Z0.169 I0 J-1 F600
X-245 Y-104 Z0.139 I0 J1
X-245 Y-106 Z0.108 I0 J-1
X-245 Y-104 Z0.078 I0 J1
X-245 Y-106 Z0.047 I0 J-1
X-245 Y-104 Z0.017 I0 J1
X-245 Y-106 Z-0.014 I0 J-1
X-245 Y-104 Z-0.044 I0 J1
X-245 Y-106 Z-0.075 I0 J-1
X-245 Y-104 Z-0.105 I0 J1
X-245 Y-106 Z-0.136 I0 J-1
X-245 Y-104 Z-0.167 I0 J1
X-245 Y-106 Z-0.197 I0 J-1
X-245 Y-104 Z-0.228 I0 J1
X-245 Y-106 Z-0.258 I0 J-1
X-245 Y-104 Z-0.289 I0 J1
X-245 Y-106 Z-0.319 I0 J-1
X-245 Y-104 Z-0.35 I0 J1
X-245 Y-106 Z-0.38 I0 J-1
X-245 Y-104 Z-0.411 I0 J1
X-245 Y-106 Z-0.441 I0 J-1
X-245 Y-104 Z-0.472 I0 J1
X-245 Y-106 Z-0.503 I0 J-1
X-245 Y-104 Z-0.533 I0 J1
X-245 Y-106 Z-0.564 I0 J-1
X-245 Y-104 Z-0.594 I0 J1
X-245 Y-106 Z-0.625 I0 J-1
X-245 Y-104 Z-0.655 I0 J1
X-245 Y-106 Z-0.686 I0 J-1
X-245 Y-104 Z-0.716 I0 J1
X-245 Y-106 Z-0.747 I0 J-1
X-245 Y-104 Z-0.777 I0 J1
X-245 Y-106 Z-0.808 I0 J-1
X-245 Y-104 Z-0.839 I0 J1
X-245 Y-106 Z-0.869 I0 J-1
X-245 Y-104 Z-0.9 I0 J1
X-245 Y-106 Z-0.93 I0 J-1
X-245 Y-104 Z-0.961 I0 J1
X-245 Y-106 Z-0.991 I0 J-1
X-245 Y-104 Z-1.022 I0 J1
X-245 Y-106 Z-1.052 I0 J-1
X-245 Y-104 Z-1.083 I0 J1
X-245 Y-106 Z-1.113 I0 J-1
X-245 Y-104 Z-1.144 I0 J1
X-245 Y-106 Z-1.175 I0 J-1
X-245 Y-104 Z-1.205 I0 J1
X-245 Y-106 Z-1.236 I0 J-1
X-245 Y-104 Z-1.266 I0 J1
X-245 Y-106 Z-1.297 I0 J-1
X-245 Y-104 Z-1.327 I0 J1
X-245 Y-106 Z-1.358 I0 J-1
X-245 Y-104 Z-1.388 I0 J1
X-245 Y-106 Z-1.419 I0 J-1
X-245 Y-104 Z-1.45 I0 J1
X-245 Y-106 Z-1.48 I0 J-1
X-245 Y-104 Z-1.511 I0 J1
X-245 Y-106 Z-1.541 I0 J-1
X-245 Y-104 Z-1.572 I0 J1
X-245 Y-106 Z-1.602 I0 J-1
X-245 Y-104 Z-1.633 I0 J1
X-245 Y-106 Z-1.663 I0 J-1
X-245 Y-104 Z-1.694 I0 J1
X-245 Y-106 Z-1.724 I0 J-1
X-245 Y-104 Z-1.755 I0 J1
X-245 Y-106 Z-1.786 I0 J-1
X-245 Y-104 Z-1.816 I0 J1
X-245 Y-106 Z-1.847 I0 J-1
X-245 Y-104 Z-1.877 I0 J1
X-245 Y-106 Z-1.908 I0 J-1
X-245 Y-104 Z-1.938 I0 J1
X-245 Y-106 Z-1.969 I0 J-1
X-245 Y-104 Z-1.999 I0 J1
X-245 Y-106 Z-2.03 I0 J-1
X-245 Y-104 Z-2.06 I0 J1
X-245 Y-106 Z-2.091 I0 J-1
X-245 Y-104 Z-2.122 I0 J1
X-245 Y-106 Z-2.152 I0 J-1
X-245 Y-104 Z-2.183 I0 J1
X-245.977 Y-105.215 Z-2.2 I0 J-1
X-244.023 Y-104.785 I0.977 J0.215
X-245.977 Y-105.215 I-0.977 J-0.215
G1 X-245.959 Y-105.259
X-245.93 Y-105.295
X-245.89 Y-105.321
X-245.845 Y-105.332
X-245.798 Y-105.33
X-245.725 Y-105.313
X-245.679 Y-105.303 Z-2.193
X-245.638 Y-105.294 Z-2.171
X-245.606 Y-105.287 Z-2.138
X-245.585 Y-105.283 Z-2.096
X-245.578 Y-105.281 Z-2.05
G0 Z5
X-184.85 Y-119.375
Z2.2
G1 Z0.35 F400
Y-119.368 Z0.304
Y-119.346 Z0.262
Y-119.313 Z0.229
Y-119.271 Z0.207
Y-119.225 Z0.2
Y-119.15
X-184.857 Y-119.104
X-184.879 Y-119.062
X-184.912 Y-119.029
X-184.954 Y-119.007
X-185 Y-119
G3 X-185 Y-121 Z0.169 I0 J-1 F600
X-185 Y-119 Z0.139 I0 J1
X-185 Y-121 Z0.108 I0 J-1
X-185 Y-119 Z0.078 I0 J1
X-185 Y-121 Z0.047 I0 J-1
X-185 Y-119 Z0.017 I0 J1
X-185 Y-121 Z-0.014 I0 J-1
X-185 Y-119 Z-0.044 I0 J1
X-185 Y-121 Z-0.075 I0 J-1
X-185 Y-119 Z-0.105 I0 J1
X-185 Y-121 Z-0.136 I0 J-1
X-185 Y-119 Z-0.167 I0 J1
X-185 Y-121 Z-0.197 I0 J-1
X-185 Y-119 Z-0.228 I0 J1
X-185 Y-121 Z-0.258 I0 J-1
X-185 Y-119 Z-0.289 I0 J1
X-185 Y-121 Z-0.319 I0 J-1
X-185 Y-119 Z-0.35 I0 J1
X-185 Y-121 Z-0.38 I0 J-1
X-185 Y-119 Z-0.411 I0 J1
X-185 Y-121 Z-0.441 I0 J-1
X-185 Y-119 Z-0.472 I0 J1
X-185 Y-121 Z-0.503 I0 J-1
X-185 Y-119 Z-0.533 I0 J1
X-185 Y-121 Z-0.564 I0 J-1
X-185 Y-119 Z-0.594 I0 J1
X-185 Y-121 Z-0.625 I0 J-1
X-185 Y-119 Z-0.655 I0 J1
X-185 Y-121 Z-0.686 I0 J-1
X-185 Y-119 Z-0.716 I0 J1
X-185 Y-121 Z-0.747 I0 J-1
X-185 Y-119 Z-0.777 I0 J1
X-185 Y-121 Z-0.808 I0 J-1
X-185 Y-119 Z-0.839 I0 J1
X-185 Y-121 Z-0.869 I0 J-1
X-185 Y-119 Z-0.9 I0 J1
X-185 Y-121 Z-0.93 I0 J-1
X-185 Y-119 Z-0.961 I0 J1
X-185 Y-121 Z-0.991 I0 J-1
X-185 Y-119 Z-1.022 I0 J1
X-185 Y-121 Z-1.052 I0 J-1
X-185 Y-119 Z-1.083 I0 J1
X-185 Y-121 Z-1.113 I0 J-1
X-185 Y-119 Z-1.144 I0 J1
X-185 Y-121 Z-1.175 I0 J-1
X-185 Y-119 Z-1.205 I0 J1
X-185 Y-121 Z-1.236 I0 J-1
X-185 Y-119 Z-1.266 I0 J1
X-185 Y-121 Z-1.297 I0 J-1
X-185 Y-119 Z-1.327 I0 J1
X-185 Y-121 Z-1.358 I0 J-1
X-185 Y-119 Z-1.388 I0 J1
X-185 Y-121 Z-1.419 I0 J-1
X-185 Y-119 Z-1.45 I0 J1
X-185 Y-121 Z-1.48 I0 J-1
X-185 Y-119 Z-1.511 I0 J1
X-185 Y-121 Z-1.541 I0 J-1
X-185 Y-119 Z-1.572 I0 J1
X-185 Y-121 Z-1.602 I0 J-1
X-185 Y-119 Z-1.633 I0 J1
X-185 Y-121 Z-1.663 I0 J-1
X-185 Y-119 Z-1.694 I0 J1
X-185 Y-121 Z-1.724 I0 J-1
X-185 Y-119 Z-1.755 I0 J1
X-185 Y-121 Z-1.786 I0 J-1
X-185 Y-119 Z-1.816 I0 J1
X-185 Y-121 Z-1.847 I0 J-1
X-185 Y-119 Z-1.877 I0 J1
X-185 Y-121 Z-1.908 I0 J-1
X-185 Y-119 Z-1.938 I0 J1
X-185 Y-121 Z-1.969 I0 J-1
X-185 Y-119 Z-1.999 I0 J1
X-185 Y-121 Z-2.03 I0 J-1
X-185 Y-119 Z-2.06 I0 J1
X-185 Y-121 Z-2.091 I0 J-1
X-185 Y-119 Z-2.122 I0 J1
X-185 Y-121 Z-2.152 I0 J-1
X-185 Y-119 Z-2.183 I0 J1
X-185.977 Y-120.215 Z-2.2 I0 J-1
X-184.023 Y-119.785 I0.977 J0.215
X-185.977 Y-120.215 I-0.977 J-0.215
G1 X-185.959 Y-120.259
X-185.93 Y-120.295
X-185.89 Y-120.321
X-185.845 Y-120.332
X-185.798 Y-120.33
X-185.725 Y-120.313
X-185.679 Y-120.303 Z-2.193
X-185.638 Y-120.294 Z-2.171
X-185.606 Y-120.287 Z-2.138
X-185.585 Y-120.283 Z-2.096
X-185.578 Y-120.281 Z-2.05
G0 Z5
X-165.541 Y-112.29
Z2.2
G1 Z0.35 F400
Y-112.282 Z0.304
Y-112.261 Z0.262
Y-112.228 Z0.229
Y-112.186 Z0.207
Y-112.14 Z0.2
Y-112.065
X-165.549 Y-112.018
X-165.57 Y-111.977
X-165.603 Y-111.943
X-165.645 Y-111.922
X-165.691 Y-111.915
G3 X-165.691 Y-113.915 Z0.169 I0 J-1 F600
X-165.691 Y-111.915 Z0.139 I0 J1
X-165.691 Y-113.915 Z0.108 I0 J-1
X-165.691 Y-111.915 Z0.078 I0 J1
X-165.691 Y-113.915 Z0.047 I0 J-1
X-165.691 Y-111.915 Z0.017 I0 J1
X-165.691 Y-113.915 Z-0.014 I0 J-1
X-165.691 Y-111.915 Z-0.044 I0 J1
X-165.691 Y-113.915 Z-0.075 I0 J-1
X-165.691 Y-111.915 Z-0.105 I0 J1
X-165.691 Y-113.915 Z-0.136 I0 J-1
X-165.691 Y-111.915 Z-0.167 I0 J1
X-165.691 Y-113.915 Z-0.197 I0 J-1
X-165.691 Y-111.915 Z-0.228 I0 J1
X-165.691 Y-113.915 Z-0.258 I0 J-1
X-165.691 Y-111.915 Z-0.289 I0 J1
X-165.691 Y-113.915 Z-0.319 I0 J-1
X-165.691 Y-111.915 Z-0.35 I0 J1
X-165.691 Y-113.915 Z-0.38 I0 J-1
X-165.691 Y-111.915 Z-0.411 I0 J1
X-165.691 Y-113.915 Z-0.441 I0 J-1
X-165.691 Y-111.915 Z-0.472 I0 J1
X-165.691 Y-113.915 Z-0.503 I0 J-1
X-165.691 Y-111.915 Z-0.533 I0 J1
X-165.691 Y-113.915 Z-0.564 I0 J-1
X-165.691 Y-111.915 Z-0.594 I0 J1
X-165.691 Y-113.915 Z-0.625 I0 J-1
X-165.691 Y-111.915 Z-0.655 I0 J1
X-165.691 Y-113.915 Z-0.686 I0 J-1
X-165.691 Y-111.915 Z-0.716 I0 J1
X-165.691 Y-113.915 Z-0.747 I0 J-1
X-165.691 Y-111.915 Z-0.777 I0 J1
X-165.691 Y-113.915 Z-0.808 I0 J-1
X-165.691 Y-111.915 Z-0.839 I0 J1
X-165.691 Y-113.915 Z-0.869 I0 J-1
X-165.691 Y-111.915 Z-0.9 I0 J1
X-165.691 Y-113.915 Z-0.93 I0 J-1
X-165.691 Y-111.915 Z-0.961 I0 J1
X-165.691 Y-113.915 Z-0.991 I0 J-1
X-165.691 Y-111.915 Z-1.022 I0 J1
X-165.691 Y-113.915 Z-1.052 I0 J-1
X-165.691 Y-111.915 Z-1.083 I0 J1
X-165.691 Y-113.915 Z-1.113 I0 J-1
X-165.691 Y-111.915 Z-1.144 I0 J1
X-165.691 Y-113.915 Z-1.175 I0 J-1
X-165.691 Y-111.915 Z-1.205 I0 J1
X-165.691 Y-113.915 Z-1.236 I0 J-1
X-165.691 Y-111.915 Z-1.266 I0 J1
X-165.691 Y-113.915 Z-1.297 I0 J-1
X-165.691 Y-111.915 Z-1.327 I0 J1
X-165.691 Y-113.915 Z-1.358 I0 J-1
X-165.691 Y-111.915 Z-1.388 I0 J1
X-165.691 Y-113.915 Z-1.419 I0 J-1
X-165.691 Y-111.915 Z-1.45 I0 J1
X-165.691 Y-113.915 Z-1.48 I0 J-1
X-165.691 Y-111.915 Z-1.511 I0 J1
X-165.691 Y-113.915 Z-1.541 I0 J-1
X-165.691 Y-111.915 Z-1.572 I0 J1
X-165.691 Y-113.915 Z-1.602 I0 J-1
X-165.691 Y-111.915 Z-1.633 I0 J1
X-165.691 Y-113.915 Z-1.663 I0 J-1
X-165.691 Y-111.915 Z-1.694 I0 J1
X-165.691 Y-113.915 Z-1.724 I0 J-1
X-165.691 Y-111.915 Z-1.755 I0 J1
X-165.691 Y-113.915 Z-1.786 I0 J-1
X-165.691 Y-111.915 Z-1.816 I0 J1
X-165.691 Y-113.915 Z-1.847 I0 J-1
X-165.691 Y-111.915 Z-1.877 I0 J1
X-165.691 Y-113.915 Z-1.908 I0 J-1
X-165.691 Y-111.915 Z-1.938 I0 J1
X-165.691 Y-113.915 Z-1.969 I0 J-1
X-165.691 Y-111.915 Z-1.999 I0 J1
X-165.691 Y-113.915 Z-2.03 I0 J-1
X-165.691 Y-111.915 Z-2.06 I0 J1
X-165.691 Y-113.915 Z-2.091 I0 J-1
X-165.691 Y-111.915 Z-2.122 I0 J1
X-165.691 Y-113.915 Z-2.152 I0 J-1
X-165.691 Y-111.915 Z-2.183 I0 J1
X-166.668 Y-113.13 Z-2.2 I0 J-1
X-164.715 Y-112.699 I0.977 J0.215
X-166.668 Y-113.13 I-0.977 J-0.215
G1 X-166.651 Y-113.174
X-166.621 Y-113.21
X-166.582 Y-113.235
X-166.536 Y-113.247
X-166.489 Y-113.244
X-166.416 Y-113.228
X-166.371 Y-113.218 Z-2.193
X-166.33 Y-113.209 Z-2.171
X-166.297 Y-113.202 Z-2.138
X-166.277 Y-113.197 Z-2.096
X-166.27 Y-113.196 Z-2.05
G0 Z5
X-165.1 Y-84.625
Z2.2
G1 Z0.35 F400
Y-84.618 Z0.304
Y-84.596 Z0.262
Y-84.563 Z0.229
Y-84.521 Z0.207
Y-84.475 Z0.2
Y-84.4
X-165.107 Y-84.354
X-165.129 Y-84.312
X-165.162 Y-84.279
X-165.204 Y-84.257
X-165.25 Y-84.25
G3 X-165.25 Y-86.25 Z0.169 I0 J-1 F600
X-165.25 Y-84.25 Z0.139 I0 J1
X-165.25 Y-86.25 Z0.108 I0 J-1
X-165.25 Y-84.25 Z0.078 I0 J1
X-165.25 Y-86.25 Z0.047 I0 J-1
X-165.25 Y-84.25 Z0.017 I0 J1
X-165.25 Y-86.25 Z-0.014 I0 J-1
X-165.25 Y-84.25 Z-0.044 I0 J1
X-165.25 Y-86.25 Z-0.075 I0 J-1
X-165.25 Y-84.25 Z-0.105 I0 J1
X-165.25 Y-86.25 Z-0.136 I0 J-1
X-165.25 Y-84.25 Z-0.167 I0 J1
X-165.25 Y-86.25 Z-0.197 I0 J-1
X-165.25 Y-84.25 Z-0.228 I0 J1
X-165.25 Y-86.25 Z-0.258 I0 J-1
X-165.25 Y-84.25 Z-0.289 I0 J1
X-165.25 Y-86.25 Z-0.319 I0 J-1
X-165.25 Y-84.25 Z-0.35 I0 J1
X-165.25 Y-86.25 Z-0.38 I0 J-1
X-165.25 Y-84.25 Z-0.411 I0 J1
X-165.25 Y-86.25 Z-0.441 I0 J-1
X-165.25 Y-84.25 Z-0.472 I0 J1
X-165.25 Y-86.25 Z-0.503 I0 J-1
X-165.25 Y-84.25 Z-0.533 I0 J1
X-165.25 Y-86.25 Z-0.564 I0 J-1
X-165.25 Y-84.25 Z-0.594 I0 J1
X-165.25 Y-86.25 Z-0.625 I0 J-1
X-165.25 Y-84.25 Z-0.655 I0 J1
X-165.25 Y-86.25 Z-0.686 I0 J-1
X-165.25 Y-84.25 Z-0.716 I0 J1
X-165.25 Y-86.25 Z-0.747 I0 J-1
X-165.25 Y-84.25 Z-0.777 I0 J1
X-165.25 Y-86.25 Z-0.808 I0 J-1
X-165.25 Y-84.25 Z-0.839 I0 J1
X-165.25 Y-86.25 Z-0.869 I0 J-1
X-165.25 Y-84.25 Z-0.9 I0 J1
X-165.25 Y-86.25 Z-0.93 I0 J-1
X-165.25 Y-84.25 Z-0.961 I0 J1
X-165.25 Y-86.25 Z-0.991 I0 J-1
X-165.25 Y-84.25 Z-1.022 I0 J1
X-165.25 Y-86.25 Z-1.052 I0 J-1
X-165.25 Y-84.25 Z-1.083 I0 J1
X-165.25 Y-86.25 Z-1.113 I0 J-1
X-165.25 Y-84.25 Z-1.144 I0 J1
X-165.25 Y-86.25 Z-1.175 I0 J-1
X-165.25 Y-84.25 Z-1.205 I0 J1
X-165.25 Y-86.25 Z-1.236 I0 J-1
X-165.25 Y-84.25 Z-1.266 I0 J1
X-165.25 Y-86.25 Z-1.297 I0 J-1
X-165.25 Y-84.25 Z-1.327 I0 J1
X-165.25 Y-86.25 Z-1.358 I0 J-1
X-165.25 Y-84.25 Z-1.388 I0 J1
X-165.25 Y-86.25 Z-1.419 I0 J-1
X-165.25 Y-84.25 Z-1.45 I0 J1
X-165.25 Y-86.25 Z-1.48 I0 J-1
X-165.25 Y-84.25 Z-1.511 I0 J1
X-165.25 Y-86.25 Z-1.541 I0 J-1
X-165.25 Y-84.25 Z-1.572 I0 J1
X-165.25 Y-86.25 Z-1.602 I0 J-1
X-165.25 Y-84.25 Z-1.633 I0 J1
X-165.25 Y-86.25 Z-1.663 I0 J-1
X-165.25 Y-84.25 Z-1.694 I0 J1
X-165.25 Y-86.25 Z-1.724 I0 J-1
X-165.25 Y-84.25 Z-1.755 I0 J1
X-165.25 Y-86.25 Z-1.786 I0 J-1
X-165.25 Y-84.25 Z-1.816 I0 J1
X-165.25 Y-86.25 Z-1.847 I0 J-1
X-165.25 Y-84.25 Z-1.877 I0 J1
X-165.25 Y-86.25 Z-1.908 I0 J-1
X-165.25 Y-84.25 Z-1.938 I0 J1
X-165.25 Y-86.25 Z-1.969 I0 J-1
X-165.25 Y-84.25 Z-1.999 I0 J1
X-165.25 Y-86.25 Z-2.03 I0 J-1
X-165.25 Y-84.25 Z-2.06 I0 J1
X-165.25 Y-86.25 Z-2.091 I0 J-1
X-165.25 Y-84.25 Z-2.122 I0 J1
X-165.25 Y-86.25 Z-2.152 I0 J-1
X-165.25 Y-84.25 Z-2.183 I0 J1
X-166.227 Y-85.465 Z-2.2 I0 J-1
X-164.273 Y-85.035 I0.977 J0.215
X-166.227 Y-85.465 I-0.977 J-0.215
G1 X-166.209 Y-85.509
X-166.18 Y-85.545
X-166.14 Y-85.571
X-166.095 Y-85.582
X-166.048 Y-85.58
X-165.975 Y-85.563
X-165.929 Y-85.553 Z-2.193
X-165.888 Y-85.544 Z-2.171
X-165.856 Y-85.537 Z-2.138
X-165.835 Y-85.533 Z-2.096
X-165.828 Y-85.531 Z-2.05
G0 Z5
X-134.6 Y-84.625
Z2.2
G1 Z0.35 F400
Y-84.618 Z0.304
Y-84.596 Z0.262
Y-84.563 Z0.229
Y-84.521 Z0.207
Y-84.475 Z0.2
Y-84.4
X-134.607 Y-84.354
X-134.629 Y-84.312
X-134.662 Y-84.279
X-134.704 Y-84.257
X-134.75 Y-84.25
G3 X-134.75 Y-86.25 Z0.169 I0 J-1 F600
X-134.75 Y-84.25 Z0.139 I0 J1
X-134.75 Y-86.25 Z0.108 I0 J-1
X-134.75 Y-84.25 Z0.078 I0 J1
X-134.75 Y-86.25 Z0.047 I0 J-1
X-134.75 Y-84.25 Z0.017 I0 J1
X-134.75 Y-86.25 Z-0.014 I0 J-1
X-134.75 Y-84.25 Z-0.044 I0 J1
X-134.75 Y-86.25 Z-0.075 I0 J-1
X-134.75 Y-84.25 Z-0.105 I0 J1
X-134.75 Y-86.25 Z-0.136 I0 J-1
X-134.75 Y-84.25 Z-0.167 I0 J1
X-134.75 Y-86.25 Z-0.197 I0 J-1
X-134.75 Y-84.25 Z-0.228 I0 J1
X-134.75 Y-86.25 Z-0.258 I0 J-1
X-134.75 Y-84.25 Z-0.289 I0 J1
X-134.75 Y-86.25 Z-0.319 I0 J-1
X-134.75 Y-84.25 Z-0.35 I0 J1
X-134.75 Y-86.25 Z-0.38 I0 J-1
X-134.75 Y-84.25 Z-0.411 I0 J1
X-134.75 Y-86.25 Z-0.441 I0 J-1
X-134.75 Y-84.25 Z-0.472 I0 J1
X-134.75 Y-86.25 Z-0.503 I0 J-1
X-134.75 Y-84.25 Z-0.533 I0 J1
X-134.75 Y-86.25 Z-0.564 I0 J-1
X-134.75 Y-84.25 Z-0.594 I0 J1
X-134.75 Y-86.25 Z-0.625 I0 J-1
X-134.75 Y-84.25 Z-0.655 I0 J1
X-134.75 Y-86.25 Z-0.686 I0 J-1
X-134.75 Y-84.25 Z-0.716 I0 J1
X-134.75 Y-86.25 Z-0.747 I0 J-1
X-134.75 Y-84.25 Z-0.777 I0 J1
X-134.75 Y-86.25 Z-0.808 I0 J-1
X-134.75 Y-84.25 Z-0.839 I0 J1
X-134.75 Y-86.25 Z-0.869 I0 J-1
X-134.75 Y-84.25 Z-0.9 I0 J1
X-134.75 Y-86.25 Z-0.93 I0 J-1
X-134.75 Y-84.25 Z-0.961 I0 J1
X-134.75 Y-86.25 Z-0.991 I0 J-1
X-134.75 Y-84.25 Z-1.022 I0 J1
X-134.75 Y-86.25 Z-1.052 I0 J-1
X-134.75 Y-84.25 Z-1.083 I0 J1
X-134.75 Y-86.25 Z-1.113 I0 J-1
X-134.75 Y-84.25 Z-1.144 I0 J1
X-134.75 Y-86.25 Z-1.175 I0 J-1
X-134.75 Y-84.25 Z-1.205 I0 J1
X-134.75 Y-86.25 Z-1.236 I0 J-1
X-134.75 Y-84.25 Z-1.266 I0 J1
X-134.75 Y-86.25 Z-1.297 I0 J-1
X-134.75 Y-84.25 Z-1.327 I0 J1
X-134.75 Y-86.25 Z-1.358 I0 J-1
X-134.75 Y-84.25 Z-1.388 I0 J1
X-134.75 Y-86.25 Z-1.419 I0 J-1
X-134.75 Y-84.25 Z-1.45 I0 J1
X-134.75 Y-86.25 Z-1.48 I0 J-1
X-134.75 Y-84.25 Z-1.511 I0 J1
X-134.75 Y-86.25 Z-1.541 I0 J-1
X-134.75 Y-84.25 Z-1.572 I0 J1
X-134.75 Y-86.25 Z-1.602 I0 J-1
X-134.75 Y-84.25 Z-1.633 I0 J1
X-134.75 Y-86.25 Z-1.663 I0 J-1
X-134.75 Y-84.25 Z-1.694 I0 J1
X-134.75 Y-86.25 Z-1.724 I0 J-1
X-134.75 Y-84.25 Z-1.755 I0 J1
X-134.75 Y-86.25 Z-1.786 I0 J-1
X-134.75 Y-84.25 Z-1.816 I0 J1
X-134.75 Y-86.25 Z-1.847 I0 J-1
X-134.75 Y-84.25 Z-1.877 I0 J1
X-134.75 Y-86.25 Z-1.908 I0 J-1
X-134.75 Y-84.25 Z-1.938 I0 J1
X-134.75 Y-86.25 Z-1.969 I0 J-1
X-134.75 Y-84.25 Z-1.999 I0 J1
X-134.75 Y-86.25 Z-2.03 I0 J-1
X-134.75 Y-84.25 Z-2.06 I0 J1
X-134.75 Y-86.25 Z-2.091 I0 J-1
X-134.75 Y-84.25 Z-2.122 I0 J1
X-134.75 Y-86.25 Z-2.152 I0 J-1
X-134.75 Y-84.25 Z-2.183 I0 J1
X-135.727 Y-85.465 Z-2.2 I0 J-1
X-133.773 Y-85.035 I0.977 J0.215
X-135.727 Y-85.465 I-0.977 J-0.215
G1 X-135.709 Y-85.509
X-135.68 Y-85.545
X-135.64 Y-85.571
X-135.595 Y-85.582
X-135.548 Y-85.58
X-135.475 Y-85.563
X-135.429 Y-85.553 Z-2.193
X-135.388 Y-85.544 Z-2.171
X-135.356 Y-85.537 Z-2.138
X-135.335 Y-85.533 Z-2.096
X-135.328 Y-85.531 Z-2.05
G0 Z5
X-115.137 Y-87.29
Z2.2
G1 Z0.35 F400
Y-87.282 Z0.304
Y-87.261 Z0.262
Y-87.228 Z0.229
Y-87.186 Z0.207
Y-87.14 Z0.2
Y-87.065
X-115.144 Y-87.018
X-115.165 Y-86.977
X-115.198 Y-86.943
X-115.24 Y-86.922
X-115.287 Y-86.915
G3 X-115.287 Y-88.915 Z0.169 I0 J-1 F600
X-115.287 Y-86.915 Z0.139 I0 J1
X-115.287 Y-88.915 Z0.108 I0 J-1
X-115.287 Y-86.915 Z0.078 I0 J1
X-115.287 Y-88.915 Z0.047 I0 J-1
X-115.287 Y-86.915 Z0.017 I0 J1
X-115.287 Y-88.915 Z-0.014 I0 J-1
X-115.287 Y-86.915 Z-0.044 I0 J1
X-115.287 Y-88.915 Z-0.075 I0 J-1
X-115.287 Y-86.915 Z-0.105 I0 J1
X-115.287 Y-88.915 Z-0.136 I0 J-1
X-115.287 Y-86.915 Z-0.167 I0 J1
X-115.287 Y-88.915 Z-0.197 I0 J-1
X-115.287 Y-86.915 Z-0.228 I0 J1
X-115.287 Y-88.915 Z-0.258 I0 J-1
X-115.287 Y-86.915 Z-0.289 I0 J1
X-115.287 Y-88.915 Z-0.319 I0 J-1
X-115.287 Y-86.915 Z-0.35 I0 J1
X-115.287 Y-88.915 Z-0.38 I0 J-1
X-115.287 Y-86.915 Z-0.411 I0 J1
X-115.287 Y-88.915 Z-0.441 I0 J-1
X-115.287 Y-86.915 Z-0.472 I0 J1
X-115.287 Y-88.915 Z-0.503 I0 J-1
X-115.287 Y-86.915 Z-0.533 I0 J1
X-115.287 Y-88.915 Z-0.564 I0 J-1
X-115.287 Y-86.915 Z-0.594 I0 J1
X-115.287 Y-88.915 Z-0.625 I0 J-1
X-115.287 Y-86.915 Z-0.655 I0 J1
X-115.287 Y-88.915 Z-0.686 I0 J-1
X-115.287 Y-86.915 Z-0.716 I0 J1
X-115.287 Y-88.915 Z-0.747 I0 J-1
X-115.287 Y-86.915 Z-0.777 I0 J1
X-115.287 Y-88.915 Z-0.808 I0 J-1
X-115.287 Y-86.915 Z-0.839 I0 J1
X-115.287 Y-88.915 Z-0.869 I0 J-1
X-115.287 Y-86.915 Z-0.9 I0 J1
X-115.287 Y-88.915 Z-0.93 I0 J-1
X-115.287 Y-86.915 Z-0.961 I0 J1
X-115.287 Y-88.915 Z-0.991 I0 J-1
X-115.287 Y-86.915 Z-1.022 I0 J1
X-115.287 Y-88.915 Z-1.052 I0 J-1
X-115.287 Y-86.915 Z-1.083 I0 J1
X-115.287 Y-88.915 Z-1.113 I0 J-1
X-115.287 Y-86.915 Z-1.144 I0 J1
X-115.287 Y-88.915 Z-1.175 I0 J-1
X-115.287 Y-86.915 Z-1.205 I0 J1
X-115.287 Y-88.915 Z-1.236 I0 J-1
X-115.287 Y-86.915 Z-1.266 I0 J1
X-115.287 Y-88.915 Z-1.297 I0 J-1
X-115.287 Y-86.915 Z-1.327 I0 J1
X-115.287 Y-88.915 Z-1.358 I0 J-1
X-115.287 Y-86.915 Z-1.388 I0 J1
X-115.287 Y-88.915 Z-1.419 I0 J-1
X-115.287 Y-86.915 Z-1.45 I0 J1
X-115.287 Y-88.915 Z-1.48 I0 J-1
X-115.287 Y-86.915 Z-1.511 I0 J1
X-115.287 Y-88.915 Z-1.541 I0 J-1
X-115.287 Y-86.915 Z-1.572 I0 J1
X-115.287 Y-88.915 Z-1.602 I0 J-1
X-115.287 Y-86.915 Z-1.633 I0 J1
X-115.287 Y-88.915 Z-1.663 I0 J-1
X-115.287 Y-86.915 Z-1.694 I0 J1
X-115.287 Y-88.915 Z-1.724 I0 J-1
X-115.287 Y-86.915 Z-1.755 I0 J1
X-115.287 Y-88.915 Z-1.786 I0 J-1
X-115.287 Y-86.915 Z-1.816 I0 J1
X-115.287 Y-88.915 Z-1.847 I0 J-1
X-115.287 Y-86.915 Z-1.877 I0 J1
X-115.287 Y-88.915 Z-1.908 I0 J-1
X-115.287 Y-86.915 Z-1.938 I0 J1
X-115.287 Y-88.915 Z-1.969 I0 J-1
X-115.287 Y-86.915 Z-1.999 I0 J1
X-115.287 Y-88.915 Z-2.03 I0 J-1
X-115.287 Y-86.915 Z-2.06 I0 J1
X-115.287 Y-88.915 Z-2.091 I0 J-1
X-115.287 Y-86.915 Z-2.122 I0 J1
X-115.287 Y-88.915 Z-2.152 I0 J-1
X-115.287 Y-86.915 Z-2.183 I0 J1
X-116.263 Y-88.13 Z-2.2 I0 J-1
X-114.31 Y-87.699 I0.977 J0.215
X-116.263 Y-88.13 I-0.977 J-0.215
G1 X-116.246 Y-88.174
X-116.216 Y-88.21
X-116.177 Y-88.235
X-116.131 Y-88.247
X-116.084 Y-88.244
X-116.011 Y-88.228
X-115.966 Y-88.218 Z-2.193
X-115.925 Y-88.209 Z-2.171
X-115.893 Y-88.202 Z-2.138
X-115.872 Y-88.197 Z-2.096
X-115.865 Y-88.196 Z-2.05
G0 Z5
X-114.85 Y-104.375
Z2.2
G1 Z0.35 F400
Y-104.368 Z0.304
Y-104.346 Z0.262
Y-104.313 Z0.229
Y-104.271 Z0.207
Y-104.225 Z0.2
Y-104.15
X-114.857 Y-104.104
X-114.879 Y-104.062
X-114.912 Y-104.029
X-114.954 Y-104.007
X-115 Y-104
G3 X-115 Y-106 Z0.169 I0 J-1 F600
X-115 Y-104 Z0.139 I0 J1
X-115 Y-106 Z0.108 I0 J-1
X-115 Y-104 Z0.078 I0 J1
X-115 Y-106 Z0.047 I0 J-1
X-115 Y-104 Z0.017 I0 J1
X-115 Y-106 Z-0.014 I0 J-1
X-115 Y-104 Z-0.044 I0 J1
X-115 Y-106 Z-0.075 I0 J-1
X-115 Y-104 Z-0.105 I0 J1
X-115 Y-106 Z-0.136 I0 J-1
X-115 Y-104 Z-0.167 I0 J1
X-115 Y-106 Z-0.197 I0 J-1
X-115 Y-104 Z-0.228 I0 J1
X-115 Y-106 Z-0.258 I0 J-1
X-115 Y-104 Z-0.289 I0 J1
X-115 Y-106 Z-0.319 I0 J-1
X-115 Y-104 Z-0.35 I0 J1
X-115 Y-106 Z-0.38 I0 J-1
X-115 Y-104 Z-0.411 I0 J1
X-115 Y-106 Z-0.441 I0 J-1
X-115 Y-104 Z-0.472 I0 J1
X-115 Y-106 Z-0.503 I0 J-1
X-115 Y-104 Z-0.533 I0 J1
X-115 Y-106 Z-0.564 I0 J-1
X-115 Y-104 Z-0.594 I0 J1
X-115 Y-106 Z-0.625 I0 J-1
X-115 Y-104 Z-0.655 I0 J1
X-115 Y-106 Z-0.686 I0 J-1
X-115 Y-104 Z-0.716 I0 J1
X-115 Y-106 Z-0.747 I0 J-1
X-115 Y-104 Z-0.777 I0 J1
X-115 Y-106 Z-0.808 I0 J-1
X-115 Y-104 Z-0.839 I0 J1
X-115 Y-106 Z-0.869 I0 J-1
X-115 Y-104 Z-0.9 I0 J1
X-115 Y-106 Z-0.93 I0 J-1
X-115 Y-104 Z-0.961 I0 J1
X-115 Y-106 Z-0.991 I0 J-1
X-115 Y-104 Z-1.022 I0 J1
X-115 Y-106 Z-1.052 I0 J-1
X-115 Y-104 Z-1.083 I0 J1
X-115 Y-106 Z-1.113 I0 J-1
X-115 Y-104 Z-1.144 I0 J1
X-115 Y-106 Z-1.175 I0 J-1
X-115 Y-104 Z-1.205 I0 J1
X-115 Y-106 Z-1.236 I0 J-1
X-115 Y-104 Z-1.266 I0 J1
X-115 Y-106 Z-1.297 I0 J-1
X-115 Y-104 Z-1.327 I0 J1
X-115 Y-106 Z-1.358 I0 J-1
X-115 Y-104 Z-1.388 I0 J1
X-115 Y-106 Z-1.419 I0 J-1
X-115 Y-104 Z-1.45 I0 J1
X-115 Y-106 Z-1.48 I0 J-1
X-115 Y-104 Z-1.511 I0 J1
X-115 Y-106 Z-1.541 I0 J-1
X-115 Y-104 Z-1.572 I0 J1
X-115 Y-106 Z-1.602 I0 J-1
X-115 Y-104 Z-1.633 I0 J1
X-115 Y-106 Z-1.663 I0 J-1
X-115 Y-104 Z-1.694 I0 J1
X-115 Y-106 Z-1.724 I0 J-1
X-115 Y-104 Z-1.755 I0 J1
X-115 Y-106 Z-1.786 I0 J-1
X-115 Y-104 Z-1.816 I0 J1
X-115 Y-106 Z-1.847 I0 J-1
X-115 Y-104 Z-1.877 I0 J1
X-115 Y-106 Z-1.908 I0 J-1
X-115 Y-104 Z-1.938 I0 J1
X-115 Y-106 Z-1.969 I0 J-1
X-115 Y-104 Z-1.999 I0 J1
X-115 Y-106 Z-2.03 I0 J-1
X-115 Y-104 Z-2.06 I0 J1
X-115 Y-106 Z-2.091 I0 J-1
X-115 Y-104 Z-2.122 I0 J1
X-115 Y-106 Z-2.152 I0 J-1
X-115 Y-104 Z-2.183 I0 J1
X-115.977 Y-105.215 Z-2.2 I0 J-1
X-114.023 Y-104.785 I0.977 J0.215
X-115.977 Y-105.215 I-0.977 J-0.215
G1 X-115.959 Y-105.259
X-115.93 Y-105.295
X-115.89 Y-105.321
X-115.845 Y-105.332
X-115.798 Y-105.33
X-115.725 Y-105.313
X-115.679 Y-105.303 Z-2.193
X-115.638 Y-105.294 Z-2.171
X-115.606 Y-105.287 Z-2.138
X-115.585 Y-105.283 Z-2.096
X-115.578 Y-105.281 Z-2.05
G0 Z15
M5
M30
