(BTC)
(Bearbeiten)
(  Hersteller: ChinaCnc)
(  model: 3040T)
(  description: Generic 3-axis)
(T11 D=25 CR=0 TAPER=45deg - ZMIN=-1.5 - Fasenfrser)
G90 G94
G17
G21
(When using Fusion for Personal Use, the feedrate of rapid)
(moves is reduced to match the feedrate of cutting moves,)
(which can increase machining time. Unrestricted rapid moves)
(are available with a Fusion Subscription.)
G28 G91 Z0
G90

(Gravieren2)
T11
S5000 M4
G17 G90 G94
G54
G0 X-23.548 Y5.81
Z15
G1 Z5 F600
Z-0.001 F150
X-24.578 Y4.78 Z-1.031 F600
X-24.696 Y4.656 Z-1.156
X-24.6 Y4.573 Z-1.073
X-24.504 Y4.498 Z-0.998
X-24.409 Y4.43 Z-0.93
X-24.313 Y4.369 Z-0.869
X-24.217 Y4.315 Z-0.816
X-24.121 Y4.269 Z-0.769
X-24.074 Y4.249 Z-0.748
X-24.026 Y4.229 Z-0.73
X-23.978 Y4.213 Z-0.712
X-23.93 Y4.197 Z-0.697
X-23.882 Y4.185 Z-0.683
X-23.834 Y4.172 Z-0.672
X-23.786 Y4.163 Z-0.662
X-23.738 Y4.154 Z-0.654
X-23.691 Y4.149 Z-0.647
X-23.643 Y4.144 Z-0.644
X-23.595 Y4.142 Z-0.64
X-15.625 Y4.14
X-15.35 Y4.414 Z-0.366
X-15.302 Y4.467 Z-0.317
X-15.261 Y4.519 Z-0.276
X-15.227 Y4.571 Z-0.243
X-15.214 Y4.597 Z-0.228
X-15.201 Y4.623 Z-0.216
X-15.192 Y4.649 Z-0.205
X-15.182 Y4.676 Z-0.198
X-15.177 Y4.702 Z-0.19
X-15.171 Y4.728 Z-0.187
X-15.169 Y4.754 Z-0.183
X-15.167 Y7.859
X-14.986 Y8.04 Z-0.001
X-15.167 Y7.859 Z-0.183
X-15.35 Y8.041 Z-0.001
X-15.167 Y7.859 Z-0.183
X-15.169 Y4.754
X-15.171 Y4.728 Z-0.187
X-15.177 Y4.702 Z-0.19
X-15.182 Y4.676 Z-0.198
X-15.192 Y4.649 Z-0.205
X-15.201 Y4.623 Z-0.216
X-15.214 Y4.597 Z-0.228
X-15.227 Y4.571 Z-0.243
X-15.261 Y4.519 Z-0.276
X-15.302 Y4.467 Z-0.317
X-15.35 Y4.414 Z-0.366
X-15.625 Y4.14 Z-0.64
X-14.985 Y3.501 Z-0.001
X-15.625 Y4.14 Z-0.64
X-23.595 Y4.142
X-23.643 Y4.144 Z-0.644
X-23.691 Y4.149 Z-0.647
X-23.738 Y4.154 Z-0.654
X-23.786 Y4.163 Z-0.662
X-23.834 Y4.172 Z-0.672
X-23.882 Y4.185 Z-0.683
X-23.93 Y4.197 Z-0.697
X-23.978 Y4.213 Z-0.712
X-24.026 Y4.229 Z-0.73
X-24.074 Y4.249 Z-0.748
X-24.121 Y4.269 Z-0.769
X-24.217 Y4.315 Z-0.816
X-24.313 Y4.369 Z-0.869
X-24.409 Y4.43 Z-0.93
X-24.504 Y4.498 Z-0.998
X-24.6 Y4.573 Z-1.073
X-24.696 Y4.656 Z-1.156
X-26.863
X-26.912 Y4.655
X-27.046 Y4.65 Z-1.165
X-27.136 Y4.646 Z-1.178
X-27.233 Y4.642 Z-1.2
X-27.341 Y4.637 Z-1.234
X-27.403 Y4.535 Z-1.168
X-27.459 Y4.433 Z-1.108
X-27.509 Y4.332 Z-1.053
X-27.553 Y4.23 Z-1.005
X-27.574 Y4.173 Z-0.979
X-27.594 Y4.116 Z-0.956
X-27.611 Y4.059 Z-0.934
X-27.627 Y4.002 Z-0.915
X-27.64 Y3.946 Z-0.896
X-27.653 Y3.889 Z-0.881
X-27.663 Y3.833 Z-0.866
X-27.672 Y3.777 Z-0.855
X-27.677 Y3.721 Z-0.844
X-27.683 Y3.665 Z-0.836
X-27.684 Y3.609 Z-0.829
X-27.686 Y3.553 Z-0.825
X-27.684 Y3.498 Z-0.821
X-27.682 Y3.442
X-27.603 Y2.653 Z-0.822
X-27.582 Y2.471 Z-0.82
X-27.503 Y1.879 Z-0.823
X-27.449 Y1.508 Z-0.82
X-27.384 Y1.112 Z-0.823
X-27.284 Y0.556 Z-0.82
X-27.244 Y0.352 Z-0.822
X-27.087 Y-0.385 Z-0.821
X-26.908 Y-1.123 Z-0.82
X-26.71 Y-1.849
X-26.654 Y-2.042 Z-0.822
X-26.493 Y-2.568 Z-0.82
X-26.404 Y-2.846 Z-0.822
X-26.257 Y-3.278 Z-0.82
X-26.13 Y-3.641 Z-0.822
X-26.004 Y-3.98 Z-0.82
X-25.833 Y-4.424 Z-0.822
X-25.732 Y-4.673 Z-0.82
X-25.513 Y-5.195 Z-0.822
X-25.442 Y-5.357 Z-0.82
X-25.171 Y-5.955 Z-0.822
X-24.811 Y-6.696 Z-0.821
X-24.469 Y-7.35
X-24.11 Y-7.994 Z-0.82
X-24.014 Y-8.159 Z-0.822
X-23.735 Y-8.627 Z-0.82
X-23.587 Y-8.867 Z-0.823
X-23.343 Y-9.249 Z-0.82
X-23.139 Y-9.561 Z-0.823
X-22.936 Y-9.86 Z-0.82
X-22.671 Y-10.241 Z-0.823
X-22.514 Y-10.46 Z-0.82
X-22.287 Y-10.768 Z-0.822
X-21.42 Y-10.557 Z-0.001
X-22.287 Y-10.768 Z-0.822
X-22.243 Y-10.951 Z-0.749
X-22.02 Y-11.831 Z-0.384
X-21.779 Y-12.723 Z0
X-22.02 Y-11.831 Z-0.384
X-22.243 Y-10.951 Z-0.749
X-22.287 Y-10.768 Z-0.822
X-22.514 Y-10.46 Z-0.82
X-22.671 Y-10.241 Z-0.823
X-22.936 Y-9.86 Z-0.82
X-23.139 Y-9.561 Z-0.823
X-23.343 Y-9.249 Z-0.82
X-23.587 Y-8.867 Z-0.823
X-23.735 Y-8.627 Z-0.82
X-24.014 Y-8.159 Z-0.822
X-24.11 Y-7.994 Z-0.82
X-24.469 Y-7.35 Z-0.821
X-24.811 Y-6.696
X-25.171 Y-5.955 Z-0.822
X-25.442 Y-5.357 Z-0.82
X-25.513 Y-5.195 Z-0.822
X-25.732 Y-4.673 Z-0.82
X-25.833 Y-4.424 Z-0.822
X-26.004 Y-3.98 Z-0.82
X-26.13 Y-3.641 Z-0.822
X-26.257 Y-3.278 Z-0.82
X-26.404 Y-2.846 Z-0.822
X-26.493 Y-2.568 Z-0.82
X-26.654 Y-2.042 Z-0.822
X-26.71 Y-1.849 Z-0.82
X-26.908 Y-1.123
X-27.087 Y-0.385 Z-0.821
X-27.244 Y0.352 Z-0.822
X-27.284 Y0.556 Z-0.82
X-27.384 Y1.112 Z-0.823
X-27.449 Y1.508 Z-0.82
X-27.503 Y1.879 Z-0.823
X-27.582 Y2.471 Z-0.82
X-27.603 Y2.653 Z-0.822
X-27.682 Y3.442 Z-0.821
X-27.684 Y3.498
X-27.686 Y3.553 Z-0.825
X-27.684 Y3.609 Z-0.829
X-27.683 Y3.665 Z-0.836
X-27.677 Y3.721 Z-0.844
X-27.672 Y3.777 Z-0.855
X-27.663 Y3.833 Z-0.866
X-27.653 Y3.889 Z-0.881
X-27.64 Y3.946 Z-0.896
X-27.627 Y4.002 Z-0.915
X-27.611 Y4.059 Z-0.934
X-27.594 Y4.116 Z-0.956
X-27.574 Y4.173 Z-0.979
X-27.553 Y4.23 Z-1.005
X-27.509 Y4.332 Z-1.053
X-27.459 Y4.433 Z-1.108
X-27.403 Y4.535 Z-1.168
X-27.341 Y4.637 Z-1.234
X-27.41 Y4.732 Z-1.169
X-27.474 Y4.827 Z-1.11
X-27.531 Y4.923 Z-1.056
X-27.583 Y5.018 Z-1.008
X-27.609 Y5.074 Z-0.982
X-27.634 Y5.129 Z-0.959
X-27.656 Y5.185 Z-0.936
X-27.678 Y5.241 Z-0.917
X-27.696 Y5.297 Z-0.898
X-27.714 Y5.352 Z-0.882
X-27.728 Y5.408 Z-0.867
X-27.742 Y5.464 Z-0.855
X-27.753 Y5.52 Z-0.844
X-27.763 Y5.576 Z-0.836
X-27.77 Y5.632 Z-0.829
X-27.776 Y5.688 Z-0.825
X-27.779 Y5.744 Z-0.821
X-27.782 Y5.8
X-27.776 Y6.358
X-27.76 Y6.911 Z-0.82
X-27.733 Y7.46
X-27.719 Y7.684 Z-0.822
X-27.695 Y8.007 Z-0.82
X-27.671 Y8.301 Z-0.822
X-27.647 Y8.551 Z-0.82
X-27.61 Y8.913 Z-0.822
X-27.535 Y9.522
X-27.448 Y10.127 Z-0.821
X-27.353 Y10.696
X-27.254 Y11.224
X-27.145 Y11.748 Z-0.82
X-27.026 Y12.269
X-26.97 Y12.501 Z-0.822
X-26.898 Y12.786 Z-0.82
X-26.819 Y13.083 Z-0.822
X-26.759 Y13.299 Z-0.82
X-26.655 Y13.659 Z-0.823
X-26.481 Y14.231 Z-0.822
X-26.293 Y14.797 Z-0.824
X-26.116 Y15.303 Z-0.821
X-25.884 Y15.913 Z-0.823
X-25.738 Y16.283 Z-0.82
X-25.726 Y16.312 Z-0.821
X-25.43 Y17.006 Z-0.823
X-25.325 Y17.245 Z-0.82
X-25.186 Y17.544 Z-0.823
X-24.932 Y18.076 Z-0.822
X-24.877 Y18.188 Z-0.821
X-24.665 Y18.6 Z-0.823
X-24.395 Y19.111 Z-0.821
X-24.101 Y19.631 Z-0.823
X-23.879 Y20.012 Z-0.82
X-23.495 Y20.635 Z-0.823
X-23.331 Y20.892 Z-0.82
X-23.177 Y21.126 Z-0.823
X-22.895 Y21.543 Z-0.822
X-22.073 Y21.291 Z-0.001
X-22.895 Y21.543 Z-0.822
X-22.87 Y21.625 Z-0.797
X-22.683 Y22.212 Z-0.61
X-22.488 Y22.802 Z-0.415
X-22.285 Y23.397 Z-0.212
X-22.074 Y23.995 Z0
Z5
X-22.125 Y-14.803
Z-0.001 F150
X-22.999 Y-15.059 Z-0.821 F600
X-22.943 Y-15.244 Z-0.736
X-22.927 Y-15.292 Z-0.717
X-22.909 Y-15.337 Z-0.699
X-22.891 Y-15.382 Z-0.683
X-22.871 Y-15.425 Z-0.668
X-22.85 Y-15.468 Z-0.656
X-22.827 Y-15.509 Z-0.644
X-22.804 Y-15.55 Z-0.635
X-22.756 Y-15.619 Z-0.621
X-22.731 Y-15.652 Z-0.616
X-22.705 Y-15.684 Z-0.613
X-22.677 Y-15.715 Z-0.61
X-22.649 Y-15.746
X-22.618 Y-15.775
X-22.588 Y-15.805 Z-0.613
X-22.554 Y-15.833 Z-0.616
X-22.521 Y-15.861 Z-0.622
X-22.486 Y-15.886 Z-0.628
X-22.451 Y-15.912 Z-0.637
X-22.413 Y-15.935 Z-0.646
X-22.376 Y-15.959 Z-0.658
X-22.297 Y-16.002 Z-0.686
X-22.213 Y-16.04 Z-0.719
X-21.968 Y-16.144 Z-0.821
X-21.684 Y-16.423 Z-0.819
X-21.322 Y-16.771 Z-0.822
X-21.136 Y-16.945 Z-0.819
X-20.62 Y-17.415 Z-0.821
X-20.002 Y-17.948 Z-0.82
X-19.987 Y-17.961
X-19.417 Y-18.428 Z-0.819
X-19.155 Y-18.636 Z-0.822
X-18.819 Y-18.895 Z-0.819
X-18.395 Y-19.214 Z-0.822
X-18.211 Y-19.348 Z-0.819
X-17.618 Y-19.768 Z-0.821
X-16.96 Y-20.208 Z-0.82
X-16.822 Y-20.298 Z-0.821
X-16.318 Y-20.615 Z-0.819
X-16.009 Y-20.804 Z-0.822
X-15.666 Y-21.007 Z-0.819
X-15.18 Y-21.286 Z-0.822
X-15.003 Y-21.384 Z-0.819
X-14.336 Y-21.744 Z-0.821
X-13.648 Y-22.09 Z-0.819
X-13.475 Y-22.174 Z-0.821
X-12.956 Y-22.417 Z-0.819
X-12.743 Y-22.514 Z-0.821
X-12.641 Y-22.673 Z-0.719
X-12.554 Y-22.806 Z-0.631
X-12.497 Y-22.885 Z-0.58
X-12.467 Y-22.921 Z-0.557
X-12.438 Y-22.957 Z-0.537
X-12.406 Y-22.99 Z-0.518
X-12.375 Y-23.022 Z-0.502
X-12.342 Y-23.051 Z-0.486
X-12.31 Y-23.08 Z-0.474
X-12.275 Y-23.105 Z-0.463
X-12.241 Y-23.13 Z-0.455
X-12.205 Y-23.152 Z-0.447
X-12.169 Y-23.173 Z-0.443
X-12.132 Y-23.192 Z-0.439
X-12.094 Y-23.21
X-12.066 Y-23.22
X-11.981 Y-23.249 Z-0.447
X-11.923 Y-23.263 Z-0.457
X-11.609 Y-23.323 Z-0.517
X-11.093 Y-24.077 Z-0.001
X-11.609 Y-23.323 Z-0.517
X-11.093 Y-22.806 Z-0.001
X-11.609 Y-23.323 Z-0.517
X-11.923 Y-23.263 Z-0.457
X-11.981 Y-23.249 Z-0.447
X-12.066 Y-23.22 Z-0.439
X-12.094 Y-23.21
X-12.132 Y-23.192
X-12.169 Y-23.173 Z-0.443
X-12.205 Y-23.152 Z-0.447
X-12.241 Y-23.13 Z-0.455
X-12.275 Y-23.105 Z-0.463
X-12.31 Y-23.08 Z-0.474
X-12.342 Y-23.051 Z-0.486
X-12.375 Y-23.022 Z-0.502
X-12.406 Y-22.99 Z-0.518
X-12.438 Y-22.957 Z-0.537
X-12.467 Y-22.921 Z-0.557
X-12.497 Y-22.885 Z-0.58
X-12.554 Y-22.806 Z-0.631
X-12.641 Y-22.673 Z-0.719
X-12.743 Y-22.514 Z-0.821
X-11.923 Y-21.98 Z-0.001
X-12.743 Y-22.514 Z-0.821
X-12.956 Y-22.417 Z-0.819
X-13.475 Y-22.174 Z-0.821
X-13.648 Y-22.09 Z-0.819
X-14.336 Y-21.744 Z-0.821
X-15.003 Y-21.384 Z-0.819
X-15.18 Y-21.286 Z-0.822
X-15.666 Y-21.007 Z-0.819
X-16.009 Y-20.804 Z-0.822
X-16.318 Y-20.615 Z-0.819
X-16.822 Y-20.298 Z-0.821
X-16.96 Y-20.208 Z-0.82
X-17.618 Y-19.768 Z-0.821
X-18.211 Y-19.348 Z-0.819
X-18.395 Y-19.214 Z-0.822
X-18.819 Y-18.895 Z-0.819
X-19.155 Y-18.636 Z-0.822
X-19.417 Y-18.428 Z-0.819
X-19.987 Y-17.961 Z-0.82
X-20.002 Y-17.948
X-20.62 Y-17.415 Z-0.821
X-21.136 Y-16.945 Z-0.819
X-21.322 Y-16.771 Z-0.822
X-21.684 Y-16.423 Z-0.819
X-21.968 Y-16.144 Z-0.821
X-21.628 Y-15.324 Z-0.001
X-21.968 Y-16.144 Z-0.821
X-22.213 Y-16.04 Z-0.719
X-22.297 Y-16.002 Z-0.686
X-22.376 Y-15.959 Z-0.658
X-22.413 Y-15.935 Z-0.646
X-22.451 Y-15.912 Z-0.637
X-22.486 Y-15.886 Z-0.628
X-22.521 Y-15.861 Z-0.622
X-22.554 Y-15.833 Z-0.616
X-22.588 Y-15.805 Z-0.613
X-22.618 Y-15.775 Z-0.61
X-22.649 Y-15.746
X-22.677 Y-15.715
X-22.705 Y-15.684 Z-0.613
X-22.731 Y-15.652 Z-0.616
X-22.756 Y-15.619 Z-0.621
X-22.804 Y-15.55 Z-0.635
X-22.827 Y-15.509 Z-0.644
X-22.85 Y-15.468 Z-0.656
X-22.871 Y-15.425 Z-0.668
X-22.891 Y-15.382 Z-0.683
X-22.909 Y-15.337 Z-0.699
X-22.927 Y-15.292 Z-0.717
X-22.943 Y-15.244 Z-0.736
X-22.999 Y-15.059 Z-0.821
X-23.39 Y-14.625 Z-0.82
X-23.408 Y-14.605
X-23.928 Y-13.993 Z-0.822
X-24.058 Y-13.835 Z-0.82
X-24.526 Y-13.249 Z-0.822
X-24.683 Y-13.045 Z-0.819
X-25.1 Y-12.487 Z-0.822
X-25.284 Y-12.234 Z-0.819
X-25.652 Y-11.707 Z-0.823
X-25.858 Y-11.403 Z-0.819
X-26.18 Y-10.91 Z-0.823
X-26.406 Y-10.553 Z-0.819
X-26.684 Y-10.096 Z-0.823
X-26.926 Y-9.684 Z-0.819
X-27.163 Y-9.265 Z-0.823
X-27.419 Y-8.797 Z-0.819
X-27.617 Y-8.419 Z-0.823
X-27.883 Y-7.892 Z-0.819
X-28.046 Y-7.557 Z-0.823
X-28.319 Y-6.971 Z-0.819
X-28.448 Y-6.681 Z-0.823
X-28.724 Y-6.034 Z-0.819
X-28.824 Y-5.79 Z-0.823
X-29.1 Y-5.08 Z-0.82
X-29.173 Y-4.885 Z-0.822
X-29.445 Y-4.112 Z-0.82
X-29.493 Y-3.967 Z-0.822
X-29.786 Y-3.035
X-30.05 Y-2.092 Z-0.821
X-30.288 Y-1.124
X-30.468 Y-0.282
X-30.625 Y0.568
X-30.758 Y1.426
X-30.868 Y2.292
X-30.954 Y3.165
X-31.016 Y4.045
X-31.054 Y4.931
X-31.066 Y5.821
X-31.056 Y6.553
X-31.04 Y7.058 Z-0.823
X-31.03 Y7.283 Z-0.821
X-31.008 Y7.676 Z-0.824
X-30.986 Y8.013 Z-0.823
X-30.964 Y8.291 Z-0.825
X-30.925 Y8.741 Z-0.824
X-30.909 Y8.903 Z-0.826
X-30.842 Y9.511 Z-0.827
X-30.752 Y10.191 Z-0.828
X-30.641 Y10.901 Z-0.83
X-30.568 Y11.313 Z-0.833
X-30.509 Y11.63 Z-0.832
X-30.455 Y11.906 Z-0.834
X-30.33 Y12.494 Z-0.835
X-30.195 Y13.079 Z-0.836
X-30.02 Y13.764 Z-0.837
X-29.891 Y14.235 Z-0.84
X-29.824 Y14.467 Z-0.838
X-29.723 Y14.806 Z-0.841
X-29.611 Y15.166 Z-0.84
X-29.545 Y15.372 Z-0.841
X-29.356 Y15.934 Z-0.842
X-29.137 Y16.547
X-28.876 Y17.228
X-28.729 Y17.591 Z-0.843
X-28.599 Y17.904 Z-0.842
X-28.501 Y18.133 Z-0.843
X-28.262 Y18.67
X-27.999 Y19.235 Z-0.842
X-27.675 Y19.889 Z-0.84
X-27.489 Y20.248 Z-0.841
X-27.337 Y20.536 Z-0.839
X-27.213 Y20.763 Z-0.84
X-26.927 Y21.273 Z-0.839
X-26.616 Y21.805 Z-0.837
X-26.232 Y22.426 Z-0.835
X-26.015 Y22.764 Z-0.836
X-25.835 Y23.039 Z-0.833
X-25.693 Y23.249 Z-0.834
X-25.363 Y23.728 Z-0.832
X-24.999 Y24.235 Z-0.83
X-24.559 Y24.818 Z-0.828
X-24.319 Y25.124 Z-0.829
X-24.107 Y25.39 Z-0.826
X-23.955 Y25.576 Z-0.827
X-23.582 Y26.021 Z-0.825
X-23.161 Y26.503 Z-0.824
X-22.897 Y26.794
X-22.075 Y26.476 Z-0.001
X-22.897 Y26.794 Z-0.824
X-22.848 Y26.922 Z-0.774
X-22.595 Y27.553 Z-0.523
X-22.579 Y27.59 Z-0.51
X-22.56 Y27.624 Z-0.498
X-22.541 Y27.659 Z-0.489
X-22.52 Y27.691 Z-0.48
X-22.5 Y27.723 Z-0.473
X-22.477 Y27.753 Z-0.467
X-22.454 Y27.783 Z-0.464
X-22.428 Y27.811 Z-0.461
X-22.379 Y27.862
X-22.33 Y27.906 Z-0.466
X-22.277 Y27.947 Z-0.475
X-22.249 Y27.966 Z-0.482
X-22.194 Y28 Z-0.498
X-22.135 Y28.03 Z-0.517
X-22.074 Y28.057 Z-0.541
X-21.678 Y28.219 Z-0.703
X-21.382 Y28.338 Z-0.821
X-21.054 Y27.518 Z-0.001
X-21.382 Y28.338 Z-0.821
X-21.172 Y28.537
X-20.632 Y29.027 Z-0.82
X-20.311 Y29.308 Z-0.822
X-20.082 Y29.504 Z-0.82
X-19.868 Y29.683 Z-0.822
X-19.418 Y30.051
X-18.95 Y30.419
X-18.368 Y30.856
X-18.027 Y31.101 Z-0.823
X-17.776 Y31.279 Z-0.822
X-17.55 Y31.434 Z-0.824
X-17.067 Y31.759 Z-0.823
X-16.565 Y32.083
X-15.945 Y32.463
X-15.579 Y32.678 Z-0.824
X-15.317 Y32.829 Z-0.823
X-15.071 Y32.967 Z-0.825
X-14.557 Y33.246 Z-0.824
X-14.037 Y33.517
X-13.385 Y33.837 Z-0.823
X-12.982 Y34.026 Z-0.825
X-12.725 Y34.143 Z-0.823
X-12.446 Y34.266 Z-0.825
X-12.059 Y34.433 Z-0.823
X-11.916 Y34.492 Z-0.824
X-11.093 Y33.939 Z-0.001
X-11.916 Y34.492 Z-0.824
X-11.908 Y34.505 Z-0.815
X-11.507 Y35.099 Z-0.415
X-11.093 Y35.7 Z-0.001
Z5
X-22.034 Y5.812
Z-0.001 F150
X-21.542 Y6.299 Z-0.487 F600
X-21.169 Y6.659 Z-0.847
X-21.17 Y6.742 Z-0.844
Y6.767 Z-0.843
X-21.157 Y7.242 Z-0.83
X-21.138 Y7.715 Z-0.812
X-21.115 Y8.186 Z-0.788
X-21.086 Y8.656 Z-0.76
X-21.056 Y9.045 Z-0.732
X-21.046 Y9.124
X-21.037 Y9.17
X-21.027 Y9.215 Z-0.736
X-21.015 Y9.26 Z-0.739
X-21.002 Y9.306 Z-0.745
X-20.987 Y9.35 Z-0.751
X-20.972 Y9.395 Z-0.761
X-20.953 Y9.439 Z-0.77
X-20.935 Y9.484 Z-0.782
X-20.893 Y9.571 Z-0.81
X-20.845 Y9.653 Z-0.84
X-20.793 Y9.735 Z-0.877
X-20.735 Y9.815 Z-0.919
X-20.672 Y9.894 Z-0.966
X-20.563 Y9.77 Z-0.813
X-20.474 Y9.668 Z-0.692
X-20.397 Y9.58 Z-0.592
X-20.326 Y9.499 Z-0.507
X-20.263 Y9.432 Z-0.439
X-19.825 Y8.993 Z0
X-20.263 Y9.432 Z-0.439
X-20.326 Y9.499 Z-0.507
X-20.397 Y9.58 Z-0.592
X-20.474 Y9.668 Z-0.692
X-20.563 Y9.77 Z-0.813
X-20.672 Y9.894 Z-0.966
X-20.634 Y9.992 Z-0.985
X-20.609 Y10.045 Z-0.996
X-20.584 Y10.098 Z-1.011
X-20.556 Y10.151 Z-1.026
X-20.528 Y10.203 Z-1.044
X-20.497 Y10.255 Z-1.063
X-20.465 Y10.306 Z-1.084
X-20.43 Y10.357 Z-1.107
X-20.395 Y10.408 Z-1.131
X-20.319 Y10.506 Z-1.183
X-20.236 Y10.603 Z-1.241
X-20.147 Y10.697 Z-1.306
X-20.052 Y10.791 Z-1.378
X-19.99 Y10.844 Z-1.422
X-19.929 Y10.898 Z-1.47
X-19.959 Y11.229 Z-1.358
X-19.962 Y11.432 Z-1.3
X-19.958 Y11.551 Z-1.271
X-19.948 Y11.691 Z-1.242
X-19.927 Y11.862 Z-1.213
X-19.9 Y12.02 Z-1.193
X-19.874 Y12.137 Z-1.183
X-19.804 Y12.378 Z-1.173
X-19.737 Y12.563 Z-1.179
X-19.723 Y12.598 Z-1.181
X-19.537 Z-1.017
X-19.352 Z-0.86
X-19.167 Z-0.71
X-19.074 Z-0.639
X-18.982 Z-0.571
X-18.889 Z-0.508
X-18.796 Z-0.449
X-18.704 Z-0.396
X-18.611 Z-0.351
X-18.565 Z-0.331
X-18.472 Z-0.298
X-18.38 Z-0.276
X-18.333 Z-0.269
X-18.287 Z-0.264
X-18.241 Z-0.263
X-18.167 Z-0.267
X-18.093 Z-0.278
X-18.019 Z-0.295
X-17.945 Z-0.32
X-17.872 Z-0.35
X-17.798 Z-0.386
X-17.724 Z-0.426
X-17.65 Z-0.47
X-17.627 Y12.491 Z-0.404
X-17.619 Y12.456 Z-0.386
X-17.605 Y12.406 Z-0.362
X-17.576 Y12.313 Z-0.33
X-17.553 Y12.23 Z-0.306
X-17.535 Y12.147 Z-0.288
X-17.521 Y12.063 Z-0.274
X-17.512 Y11.978 Z-0.265
X-17.507 Y11.862 Z-0.26
X-17.512 Y11.744 Z-0.265
X-17.521 Y11.658 Z-0.274
X-17.535 Y11.574 Z-0.288
X-17.549 Y11.509 Z-0.302
X-17.569 Y11.425 Z-0.326
X-17.584 Y11.345 Z-0.361
X-17.59 Y11.311 Z-0.379
X-17.596 Y11.254 Z-0.412
X-17.604 Y11.153 Z-0.479
X-17.608 Y11.062 Z-0.546
X-17.609 Y10.937 Z-0.646
X-17.607 Y10.78 Z-0.78
X-17.6 Y10.593 Z-0.947
X-17.589 Y10.377 Z-1.148
X-17.695 Y10.386 Z-1.099
X-17.822 Y10.396 Z-1.051
X-17.901 Y10.4 Z-1.027
X-17.951 Y10.403 Z-1.013
X-18.061 Y10.406 Z-0.991
X-18.121 Y10.407 Z-0.983
X-18.181 Y10.409 Z-0.979
X-18.241 Y10.41 Z-0.978
X-18.477 Y10.419 Z-0.988
X-18.53 Y10.424 Z-0.993
X-18.65 Y10.438 Z-1.007
X-18.769 Y10.458 Z-1.026
X-18.865 Y10.477 Z-1.045
X-18.968 Y10.501 Z-1.069
X-19.075 Y10.53 Z-1.098
X-19.185 Y10.563 Z-1.132
X-19.296 Y10.602 Z-1.17
X-19.409 Y10.645 Z-1.213
X-19.523 Y10.693 Z-1.261
X-19.637 Y10.746 Z-1.314
X-19.752 Y10.803 Z-1.372
X-19.929 Y10.898 Z-1.47
X-19.752 Y10.803 Z-1.372
X-19.637 Y10.746 Z-1.314
X-19.523 Y10.693 Z-1.261
X-19.409 Y10.645 Z-1.213
X-19.296 Y10.602 Z-1.17
X-19.185 Y10.563 Z-1.132
X-19.075 Y10.53 Z-1.098
X-18.968 Y10.501 Z-1.069
X-18.865 Y10.477 Z-1.045
X-18.769 Y10.458 Z-1.026
X-18.65 Y10.438 Z-1.007
X-18.53 Y10.424 Z-0.993
X-18.477 Y10.419 Z-0.988
X-18.241 Y10.41 Z-0.978
X-18.181 Y10.409 Z-0.979
X-18.121 Y10.407 Z-0.983
X-18.061 Y10.406 Z-0.991
X-17.951 Y10.403 Z-1.013
X-17.901 Y10.4 Z-1.027
X-17.822 Y10.396 Z-1.051
X-17.695 Y10.386 Z-1.099
X-17.589 Y10.377 Z-1.148
X-17.527 Y10.346 Z-1.16
X-17.462 Y10.315 Z-1.177
X-17.391 Y10.28 Z-1.201
X-17.312 Y10.242 Z-1.232
X-17.323 Y10.118 Z-1.145
X-17.334 Y10.003 Z-1.072
X-17.344 Y9.896 Z-1.01
X-17.353 Y9.796 Z-0.959
X-17.362 Y9.7 Z-0.919
X-17.37 Y9.609 Z-0.888
X-17.378 Y9.52 Z-0.867
X-17.386 Y9.432 Z-0.854
X-17.392 Y9.354 Z-0.849
X-17.394 Y9.276 Z-0.847
X-17.396 Y7.124
X-17.398 Y7.066 Z-0.851
X-17.403 Y7.008 Z-0.855
X-17.409 Y6.951 Z-0.863
X-17.419 Y6.893 Z-0.87
X-17.429 Y6.836 Z-0.882
X-17.443 Y6.778 Z-0.894
X-17.456 Y6.721 Z-0.909
X-17.547 Y6.672 Z-0.861
X-17.638 Y6.629 Z-0.818
X-17.729 Y6.592 Z-0.781
X-17.819 Y6.561 Z-0.75
X-17.865 Y6.548 Z-0.736
X-17.91 Y6.536 Z-0.725
X-17.955 Y6.527 Z-0.714
X-18.001 Y6.517 Z-0.706
X-18.046 Y6.511 Z-0.698
X-18.092 Y6.504 Z-0.693
X-18.173 Y6.451 Z-0.64
X-18.254 Y6.405 Z-0.593
X-18.336 Y6.366 Z-0.554
X-18.376 Y6.35 Z-0.537
X-18.417 Y6.334 Z-0.522
X-18.458 Y6.321 Z-0.508
X-18.499 Y6.309 Z-0.497
X-18.539 Y6.3 Z-0.487
X-18.58 Y6.291 Z-0.48
X-18.621 Y6.286 Z-0.473
X-18.661 Y6.28 Z-0.469
X-18.702 Y6.278 Z-0.465
X-18.743 Y6.277
X-20.368 Y6.279
X-20.411 Y6.28 Z-0.469
X-20.453 Y6.286 Z-0.473
X-20.495 Y6.292 Z-0.481
X-20.537 Y6.301 Z-0.488
X-20.579 Y6.311 Z-0.5
X-20.621 Y6.324 Z-0.511
X-20.664 Y6.338 Z-0.526
X-20.706 Y6.355 Z-0.542
X-20.748 Y6.372 Z-0.561
X-20.79 Y6.393 Z-0.58
X-20.832 Y6.414 Z-0.603
X-20.916 Y6.464 Z-0.652
X-21.001 Y6.521 Z-0.71
X-21.085 Y6.586 Z-0.775
X-21.169 Y6.659 Z-0.847
X-21.085 Y6.586 Z-0.775
X-21.001 Y6.521 Z-0.71
X-20.916 Y6.464 Z-0.652
X-20.832 Y6.414 Z-0.603
X-20.79 Y6.393 Z-0.58
X-20.748 Y6.372 Z-0.561
X-20.706 Y6.355 Z-0.542
X-20.664 Y6.338 Z-0.526
X-20.621 Y6.324 Z-0.511
X-20.579 Y6.311 Z-0.5
X-20.537 Y6.301 Z-0.488
X-20.495 Y6.292 Z-0.481
X-20.453 Y6.286 Z-0.473
X-20.411 Y6.28 Z-0.469
X-20.368 Y6.279 Z-0.465
X-18.743 Y6.277
X-18.702 Y6.278
X-18.661 Y6.28 Z-0.469
X-18.621 Y6.286 Z-0.473
X-18.58 Y6.291 Z-0.48
X-18.539 Y6.3 Z-0.487
X-18.499 Y6.309 Z-0.497
X-18.458 Y6.321 Z-0.508
X-18.417 Y6.334 Z-0.522
X-18.376 Y6.35 Z-0.537
X-18.336 Y6.366 Z-0.554
X-18.254 Y6.405 Z-0.593
X-18.173 Y6.451 Z-0.64
X-18.092 Y6.504 Z-0.693
X-18.177 Y6.602 Z-0.583
X-18.241 Y6.675 Z-0.507
X-18.304 Y6.742 Z-0.439
X-18.742 Y7.181 Z0
X-18.304 Y6.742 Z-0.439
X-18.241 Y6.675 Z-0.507
X-18.177 Y6.602 Z-0.583
X-18.092 Y6.504 Z-0.693
X-18.046 Y6.511 Z-0.698
X-18.001 Y6.517 Z-0.706
X-17.955 Y6.527 Z-0.714
X-17.91 Y6.536 Z-0.725
X-17.865 Y6.548 Z-0.736
X-17.819 Y6.561 Z-0.75
X-17.729 Y6.592 Z-0.781
X-17.638 Y6.629 Z-0.818
X-17.547 Y6.672 Z-0.861
X-17.456 Y6.721 Z-0.909
X-16.547 Y5.812 Z-0.001
X-17.456 Y6.721 Z-0.909
X-17.443 Y6.778 Z-0.894
X-17.429 Y6.836 Z-0.882
X-17.419 Y6.893 Z-0.87
X-17.409 Y6.951 Z-0.863
X-17.403 Y7.008 Z-0.855
X-17.398 Y7.066 Z-0.851
X-17.396 Y7.124 Z-0.847
X-17.394 Y9.276
X-17.392 Y9.354 Z-0.849
X-17.386 Y9.432 Z-0.854
X-17.378 Y9.52 Z-0.867
X-17.37 Y9.609 Z-0.888
X-17.362 Y9.7 Z-0.919
X-17.353 Y9.796 Z-0.959
X-17.344 Y9.896 Z-1.01
X-17.334 Y10.003 Z-1.072
X-17.323 Y10.118 Z-1.145
X-17.312 Y10.242 Z-1.232
X-17.188 Y10.279 Z-1.191
X-17.13 Y10.296 Z-1.176
X-17.072 Y10.31 Z-1.16
X-17.013 Y10.324 Z-1.148
X-16.955 Y10.335 Z-1.135
X-16.897 Y10.346 Z-1.126
X-16.838 Y10.354 Z-1.117
X-16.78 Y10.362 Z-1.111
X-16.722 Y10.366 Z-1.104
X-16.663 Y10.371 Z-1.101
X-16.605 Y10.372 Z-1.098
X-16.083 Y10.374
X-14.985 Y9.277 Z-0.001
X-16.083 Y10.374 Z-1.098
X-14.992 Y11.466 Z-0.007
X-14.991 Y11.472 Z-0.006
X-14.992 Y12.362 Z-0.007
X-14.996 Y12.367 Z-0.011
X-15.257 Y12.628 Z-0.272
X-17.281 Z-0.274
X-17.317 Z-0.281
X-17.355 Z-0.293
X-17.397 Z-0.31
X-17.443 Z-0.335
X-17.495 Z-0.368
X-17.554 Z-0.411
X-17.624 Z-0.465
X-17.65 Y12.598 Z-0.47
X-17.624 Y12.628 Z-0.465
X-17.616 Y12.684 Z-0.427
X-17.601 Y12.774 Z-0.376
X-17.595 Y12.808 Z-0.36
X-17.583 Y12.854 Z-0.339
X-17.558 Y12.949 Z-0.311
X-17.539 Y13.027 Z-0.292
X-17.525 Y13.102 Z-0.279
X-17.516 Y13.17 Z-0.269
X-17.507 Y13.335 Z-0.26
X-17.511 Y13.451 Z-0.265
X-17.521 Y13.535 Z-0.274
X-17.534 Y13.619 Z-0.288
X-17.553 Y13.701 Z-0.306
X-17.575 Y13.783 Z-0.329
X-17.587 Y13.829 Z-0.344
X-17.606 Y13.908 Z-0.381
X-17.613 Y13.943 Z-0.4
X-17.622 Y13.999 Z-0.433
X-17.631 Y14.056 Z-0.471
X-17.56 Z-0.415
X-17.499 Z-0.371
X-17.446 Z-0.338
X-17.399 Z-0.312
X-17.357 Z-0.294
X-17.319 Z-0.282
X-17.282 Z-0.275
X-17.247 Z-0.272
X-15.258
X-14.992 Y14.323 Z-0.007
X-14.991 Y14.328 Z-0.005
X-14.992 Y15.218 Z-0.007
X-14.996 Y15.223 Z-0.011
X-16.485 Y16.712 Z-1.499
X-14.996 Y15.223 Z-0.011
X-14.992 Y15.218 Z-0.007
X-14.991 Y14.328 Z-0.005
X-14.992 Y14.323 Z-0.007
X-15.258 Y14.056 Z-0.272
X-14.992 Y13.789 Z-0.007
X-14.991 Y13.784 Z-0.005
X-14.992 Y12.894 Z-0.007
X-14.996 Y12.889 Z-0.011
X-15.257 Y12.628 Z-0.272
X-14.996 Y12.889 Z-0.011
X-14.992 Y12.894 Z-0.007
X-14.991 Y13.784 Z-0.005
X-14.992 Y13.789 Z-0.007
X-15.258 Y14.056 Z-0.272
X-17.247
X-17.282 Z-0.275
X-17.319 Z-0.282
X-17.357 Z-0.294
X-17.399 Z-0.312
X-17.446 Z-0.338
X-17.499 Z-0.371
X-17.56 Z-0.415
X-17.631 Z-0.471
X-17.651 Y14.078 Z-0.475
X-17.64 Y14.131 Z-0.44
X-17.629 Y14.184 Z-0.409
X-17.614 Y14.247 Z-0.376
X-17.602 Y14.288 Z-0.357
X-17.576 Y14.371 Z-0.329
X-17.553 Y14.454 Z-0.306
X-17.534 Y14.536 Z-0.288
X-17.521 Y14.62 Z-0.274
X-17.511 Y14.705 Z-0.265
X-17.507 Y14.821 Z-0.26
X-17.512 Y14.939 Z-0.265
X-17.521 Y15.025 Z-0.274
X-17.535 Y15.11 Z-0.289
X-17.55 Y15.175 Z-0.303
X-17.57 Y15.26 Z-0.326
X-17.58 Y15.307 Z-0.347
X-17.586 Y15.342 Z-0.363
X-17.598 Y15.435 Z-0.416
X-17.605 Y15.538 Z-0.484
X-17.609 Y15.63 Z-0.553
X-17.61 Y15.759 Z-0.657
X-17.609 Y15.88 Z-0.76
X-17.604 Y16.035 Z-0.898
X-17.595 Y16.26 Z-1.104
X-17.576 Y16.587 Z-1.414
X-17.828 Y16.491 Z-1.247
X-17.96 Y16.434 Z-1.164
X-18.097 Y16.368 Z-1.081
X-18.249 Y16.287 Z-0.993
X-18.34 Y16.231 Z-0.94
X-18.435 Y16.167 Z-0.887
X-18.535 Y16.095 Z-0.834
X-18.643 Y16.009 Z-0.781
X-18.7 Y15.96 Z-0.755
X-18.761 Y15.904 Z-0.728
X-18.826 Y15.84 Z-0.702
X-18.999 Y15.643 Z-0.644
X-19.047 Y15.576 Z-0.631
X-19.087 Y15.518 Z-0.622
X-19.11 Y15.481 Z-0.618
X-19.207 Y15.311 Z-0.609
X-19.223 Y15.278 Z-0.61
X-19.277 Y15.154 Z-0.615
X-19.314 Y15.052 Z-0.625
X-19.347 Y14.95 Z-0.64
X-19.374 Y14.846 Z-0.66
X-19.38 Y14.821 Z-0.665
X-19.401 Y14.708 Z-0.692
X-19.416 Y14.613 Z-0.719
X-19.425 Y14.527 Z-0.746
X-19.434 Y14.376 Z-0.8
X-19.435 Y14.269 Z-0.842
X-19.426 Y14.078 Z-0.925
X-19.505 Y13.915 Z-0.917
X-19.53 Y13.855 Z-0.916
X-19.605 Y13.646 Z-0.925
X-19.619 Y13.597 Z-0.93
X-19.641 Y13.521 Z-0.939
X-19.682 Y13.335 Z-0.967
X-19.713 Y13.121 Z-1.014
X-19.721 Y13.034 Z-1.037
X-19.727 Y12.908 Z-1.073
X-19.729 Y12.796 Z-1.109
X-19.723 Y12.598 Z-1.181
X-19.729 Y12.796 Z-1.109
X-19.727 Y12.908 Z-1.073
X-19.721 Y13.034 Z-1.037
X-19.713 Y13.121 Z-1.014
X-19.682 Y13.335 Z-0.967
X-19.641 Y13.521 Z-0.939
X-19.619 Y13.597 Z-0.93
X-19.605 Y13.646 Z-0.925
X-19.53 Y13.855 Z-0.916
X-19.505 Y13.915 Z-0.917
X-19.426 Y14.078 Z-0.925
X-19.278 Z-0.802
X-19.13 Z-0.685
X-18.982 Z-0.575
X-18.833 Z-0.477
X-18.759 Z-0.432
X-18.685 Z-0.392
X-18.611 Z-0.356
X-18.537 Z-0.326
X-18.463 Z-0.302
X-18.389 Z-0.284
X-18.315 Z-0.273
X-18.241 Z-0.269
X-18.167 Z-0.273
X-18.093 Z-0.284
X-18.019 Z-0.302
X-17.946 Z-0.326
X-17.872 Z-0.356
X-17.798 Z-0.391
X-17.724 Z-0.431
X-17.651 Z-0.475
X-17.724 Z-0.431
X-17.798 Z-0.391
X-17.872 Z-0.356
X-17.946 Z-0.326
X-18.019 Z-0.302
X-18.093 Z-0.284
X-18.167 Z-0.273
X-18.241 Z-0.269
X-18.315 Z-0.273
X-18.389 Z-0.284
X-18.463 Z-0.302
X-18.537 Z-0.326
X-18.611 Z-0.356
X-18.685 Z-0.392
X-18.759 Z-0.432
X-18.833 Z-0.477
X-18.982 Z-0.575
X-19.13 Z-0.685
X-19.278 Z-0.802
X-19.426 Z-0.925
X-19.435 Y14.269 Z-0.842
X-19.434 Y14.376 Z-0.8
X-19.425 Y14.527 Z-0.746
X-19.416 Y14.613 Z-0.719
X-19.401 Y14.708 Z-0.692
X-19.38 Y14.821 Z-0.665
X-19.374 Y14.846 Z-0.66
X-19.347 Y14.95 Z-0.64
X-19.314 Y15.052 Z-0.625
X-19.277 Y15.154 Z-0.615
X-19.223 Y15.278 Z-0.61
X-19.207 Y15.311 Z-0.609
X-19.11 Y15.481 Z-0.618
X-19.087 Y15.518 Z-0.622
X-19.047 Y15.576 Z-0.631
X-18.999 Y15.643 Z-0.644
X-18.826 Y15.84 Z-0.702
X-18.761 Y15.904 Z-0.728
X-18.7 Y15.96 Z-0.755
X-18.643 Y16.009 Z-0.781
X-18.535 Y16.095 Z-0.834
X-18.435 Y16.167 Z-0.887
X-18.34 Y16.231 Z-0.94
X-18.249 Y16.287 Z-0.993
X-18.097 Y16.368 Z-1.081
X-17.96 Y16.434 Z-1.164
X-17.828 Y16.491 Z-1.247
X-17.576 Y16.587 Z-1.414
X-17.492 Y16.646 Z-1.455
X-17.404 Y16.704 Z-1.5
X-17.361 Y16.776
X-16.882 Y17.498
X-16.504 Y18.019
X-16.503 Y18.017
X-16.486 Y17.962
Y16.712
X-17.247
X-17.326 Y16.71
X-17.404 Y16.704
X-17.326 Y16.71
X-17.247 Y16.712
X-16.486
Y17.962
X-16.503 Y18.017
X-16.504 Y18.019
X-16.494 Y18.092 Z-1.465
X-16.489 Y18.154 Z-1.432
X-16.487 Y18.249 Z-1.378
X-16.492 Y18.336 Z-1.321
X-16.499 Y18.391 Z-1.281
X-16.512 Y18.466 Z-1.225
X-16.535 Y18.569 Z-1.143
X-16.572 Y18.709 Z-1.027
X-16.63 Y18.897 Z-0.865
X-16.715 Y19.141 Z-0.647
X-16.834 Y19.45 Z-0.362
X-16.993 Y19.83 Z-0.001
Z5
X-21.481 Y0.885
Z-0.001 F150
X-20.909 Y0.436 Z-0.45 F600
X-20.35 Y0.008 Z-0.878
X-19.804 Y-0.399 Z-1.285
X-19.507 Y-0.614 Z-1.5
X-19.286
X-19.183 Y-0.61
X-19.08 Y-0.6
X-18.989 Y-0.49 Z-1.408
X-18.904 Y-0.381 Z-1.324
X-18.826 Y-0.272 Z-1.246
X-18.786 Y-0.213 Z-1.207
X-18.744 Y-0.151 Z-1.17
X-18.699 Y-0.084 Z-1.134
X-18.648 Y-0.01 Z-1.1
X-18.61 Y0.093 Z-1.042
X-18.578 Y0.179 Z-1.001
X-18.549 Y0.252 Z-0.969
X-18.115 Y1.296 Z-0.536
X-18.098 Y1.334 Z-0.523
X-18.079 Y1.37 Z-0.51
X-18.059 Y1.405 Z-0.501
X-18.037 Y1.439 Z-0.491
X-18.015 Y1.472 Z-0.484
X-17.991 Y1.503 Z-0.478
X-17.967 Y1.534 Z-0.475
X-17.94 Y1.563 Z-0.471
X-17.914 Y1.592
X-17.885 Y1.618
X-17.856 Y1.645 Z-0.475
X-17.825 Y1.669 Z-0.478
X-17.794 Y1.693 Z-0.484
X-17.761 Y1.715 Z-0.491
X-17.727 Y1.737 Z-0.501
X-17.692 Y1.756 Z-0.51
X-17.656 Y1.776 Z-0.523
X-17.618 Y1.793 Z-0.536
X-17.58 Y1.811 Z-0.552
X-17.2 Y1.968 Z-0.71
X-17.494 Y2.677 Z-0.001
X-17.2 Y1.968 Z-0.71
X-15.695
X-14.985 Y2.677 Z-0.001
X-15.695 Y1.968 Z-0.71
X-15.33 Y1.604 Z-0.345
X-15.284 Y1.554 Z-0.3
X-15.245 Y1.505 Z-0.261
X-15.214 Y1.456 Z-0.229
X-15.189 Y1.406 Z-0.204
X-15.18 Y1.382 Z-0.194
X-15.171 Y1.357 Z-0.187
X-15.166 Y1.332 Z-0.18
X-15.161 Y1.308 Z-0.176
X-15.159 Y1.283 Z-0.173
X-15.157 Y1.258
X-15.159 Y0.226
X-15.161 Y0.2 Z-0.177
X-15.167 Y0.174 Z-0.181
X-15.173 Y0.148 Z-0.189
X-15.183 Y0.121 Z-0.197
X-15.193 Y0.095 Z-0.209
X-15.207 Y0.069 Z-0.221
X-15.221 Y0.043 Z-0.236
X-15.257 Y-0.01 Z-0.272
X-15.301 Z-0.264
X-15.33 Z-0.262
X-17.605 Z-0.263
X-17.629 Z-0.267
X-17.678 Z-0.28
X-17.728 Z-0.301
X-17.779 Z-0.329
X-17.832 Z-0.363
X-17.886 Z-0.403
X-18.003 Z-0.497
X-18.133 Z-0.612
X-18.281 Z-0.748
X-18.648 Z-1.1
X-18.281 Z-0.748
X-18.133 Z-0.612
X-18.003 Z-0.497
X-17.886 Z-0.403
X-17.832 Z-0.363
X-17.779 Z-0.329
X-17.728 Z-0.301
X-17.678 Z-0.28
X-17.629 Z-0.267
X-17.605 Z-0.263
X-15.33 Z-0.262
X-15.301 Z-0.264
X-15.257 Z-0.272
X-15.221 Y-0.062 Z-0.236
X-15.207 Y-0.088 Z-0.221
X-15.193 Y-0.115 Z-0.209
X-15.183 Y-0.141 Z-0.197
X-15.173 Y-0.167 Z-0.189
X-15.167 Y-0.193 Z-0.181
X-15.161 Y-0.22 Z-0.177
X-15.159 Y-0.246 Z-0.173
X-15.157 Y-0.272
X-15.159 Y-1.304
X-15.161 Y-1.33 Z-0.177
X-15.167 Y-1.357 Z-0.181
X-15.173 Y-1.383 Z-0.189
X-15.183 Y-1.409 Z-0.197
X-15.193 Y-1.435 Z-0.209
X-15.207 Y-1.461 Z-0.221
X-15.221 Y-1.488 Z-0.236
X-15.257 Y-1.54 Z-0.272
X-15.221 Y-1.593 Z-0.236
X-15.207 Y-1.619 Z-0.221
X-15.193 Y-1.645 Z-0.209
X-15.183 Y-1.671 Z-0.197
X-15.173 Y-1.697 Z-0.189
X-15.167 Y-1.724 Z-0.181
X-15.161 Y-1.75 Z-0.177
X-15.159 Y-1.776 Z-0.173
X-15.157 Y-2.808
X-15.159 Y-2.834
X-15.161 Y-2.861 Z-0.177
X-15.167 Y-2.887 Z-0.181
X-15.173 Y-2.913 Z-0.189
X-15.183 Y-2.939 Z-0.197
X-15.193 Y-2.966 Z-0.209
X-15.207 Y-2.992 Z-0.221
X-15.221 Y-3.018 Z-0.236
X-15.257 Y-3.07 Z-0.272
X-15.301 Z-0.264
X-15.33 Z-0.262
X-17.608 Z-0.264
X-17.636 Z-0.268
X-17.692 Z-0.285
X-17.749 Z-0.312
X-17.807 Z-0.346
X-17.867 Z-0.388
X-17.929 Z-0.436
X-18.062 Z-0.549
X-18.211 Z-0.683
X-18.379 Z-0.841
X-18.798 Z-1.246
X-18.825 Y-2.988 Z-1.257
X-18.849 Y-2.905 Z-1.272
X-18.964 Y-2.372 Z-1.384
X-19.071 Y-1.841 Z-1.49
X-19.08 Y-1.79 Z-1.5
G2 X-19.057 Y-1.54 I1.5 J-0.013
X-19.08 Y-1.278 I1.477 J0.262
G1 Y-0.6
Y-1.278
G3 X-19.057 Y-1.54 I1.5 J0
G1 X-18.549 Z-1.004
X-18.345 Z-0.808
X-18.165 Z-0.641
X-18.003 Z-0.498
X-17.928 Z-0.435
X-17.855 Z-0.38
X-17.75 Z-0.312
X-17.716 Z-0.295
X-17.682 Z-0.281
X-17.648 Z-0.271
X-17.614 Z-0.264
X-17.58 Z-0.262
X-15.301 Z-0.264
X-15.257 Z-0.272
X-15.301 Z-0.264
X-17.58 Z-0.262
X-17.614 Z-0.264
X-17.648 Z-0.271
X-17.682 Z-0.281
X-17.716 Z-0.295
X-17.75 Z-0.312
X-17.855 Z-0.38
X-17.928 Z-0.435
X-18.003 Z-0.498
X-18.165 Z-0.641
X-18.345 Z-0.808
X-18.549 Z-1.004
X-19.057 Z-1.5
G3 X-19.08 Y-1.79 I1.477 J-0.262
G1 X-19.253 Y-1.342
X-19.433 Y-0.841
X-19.507 Y-0.614
X-19.433 Y-0.841
X-19.253 Y-1.342
X-19.08 Y-1.79
X-19.071 Y-1.841 Z-1.49
X-18.964 Y-2.372 Z-1.384
X-18.849 Y-2.905 Z-1.272
X-18.825 Y-2.988 Z-1.257
X-18.798 Y-3.07 Z-1.246
X-18.789 Y-3.137 Z-1.224
X-18.779 Y-3.203 Z-1.206
X-18.766 Y-3.268 Z-1.187
X-18.753 Y-3.333 Z-1.173
X-18.729 Y-3.44 Z-1.148
X-18.599 Y-3.978 Z-1.019
X-18.495 Y-4.383 Z-0.916
X-18.468 Y-4.47 Z-0.897
X-18.454 Y-4.513 Z-0.891
X-18.418 Y-4.601 Z-0.878
X-18.406 Y-4.691 Z-0.843
X-18.398 Y-4.734 Z-0.827
X-18.379 Y-4.821 Z-0.8
X-18.316 Y-5.061 Z-0.736
X-18.162 Y-5.607 Z-0.582
X-18.084 Y-5.869 Z-0.504
X-18.062 Y-5.936 Z-0.486
X-18.035 Y-6.001 Z-0.474
X-18.004 Y-6.062 Z-0.466
X-17.969 Y-6.121 Z-0.463
X-17.938 Y-6.164 Z-0.464
X-17.913 Y-6.197 Z-0.467
X-17.886 Y-6.227 Z-0.471
X-17.859 Y-6.258 Z-0.478
X-17.828 Y-6.286 Z-0.485
X-17.798 Y-6.314 Z-0.496
X-17.765 Y-6.341 Z-0.507
X-17.731 Y-6.367 Z-0.521
X-17.695 Y-6.392 Z-0.535
X-17.659 Y-6.416 Z-0.553
X-17.58 Y-6.461 Z-0.592
X-17.335 Y-6.587 Z-0.719
X-17.701 Y-7.306 Z-0.001
X-17.335 Y-6.587 Z-0.719
X-16.285 Y-6.586 Z-0.718
X-16.146 Y-6.584 Z-0.715
X-16.034 Y-6.576 Z-0.707
X-15.903 Y-6.557 Z-0.688
X-15.836 Y-6.537 Z-0.669
X-15.801 Y-6.524 Z-0.655
X-15.758 Y-6.505 Z-0.636
X-15.704 Y-6.476 Z-0.607
X-15.633 Y-6.433 Z-0.565
X-15.54 Y-6.371 Z-0.502
X-15.421 Y-6.282 Z-0.413
X-15.295 Y-6.177 Z-0.31
X-15.253 Y-6.126 Z-0.268
X-15.218 Y-6.074 Z-0.234
X-15.192 Y-6.023 Z-0.207
X-15.182 Y-5.997 Z-0.196
X-15.173 Y-5.972 Z-0.188
X-15.167 Y-5.946 Z-0.18
X-15.161 Y-5.92 Z-0.177
X-15.159 Y-5.895 Z-0.173
X-15.157 Y-5.869
X-15.159 Y-4.837
X-15.161 Y-4.811 Z-0.177
X-15.167 Y-4.784 Z-0.181
X-15.173 Y-4.758 Z-0.189
X-15.183 Y-4.732 Z-0.197
X-15.193 Y-4.706 Z-0.209
X-15.207 Y-4.68 Z-0.221
X-15.221 Y-4.653 Z-0.236
X-15.257 Y-4.601 Z-0.272
X-15.221 Y-4.548 Z-0.236
X-15.207 Y-4.522 Z-0.221
X-15.193 Y-4.496 Z-0.209
X-15.183 Y-4.47 Z-0.197
X-15.173 Y-4.443 Z-0.189
X-15.167 Y-4.417 Z-0.181
X-15.161 Y-4.391 Z-0.177
X-15.159 Y-4.365 Z-0.173
X-15.157 Y-4.339
X-15.159 Y-3.307
X-15.161 Y-3.28 Z-0.177
X-15.167 Y-3.254 Z-0.181
X-15.173 Y-3.228 Z-0.189
X-15.183 Y-3.202 Z-0.197
X-15.193 Y-3.175 Z-0.209
X-15.207 Y-3.149 Z-0.221
X-15.221 Y-3.123 Z-0.236
X-15.257 Y-3.07 Z-0.272
X-15.221 Y-3.123 Z-0.236
X-15.207 Y-3.149 Z-0.221
X-15.193 Y-3.175 Z-0.209
X-15.183 Y-3.202 Z-0.197
X-15.173 Y-3.228 Z-0.189
X-15.167 Y-3.254 Z-0.181
X-15.161 Y-3.28 Z-0.177
X-15.159 Y-3.307 Z-0.173
X-15.157 Y-4.339
X-15.159 Y-4.365
X-15.161 Y-4.391 Z-0.177
X-15.167 Y-4.417 Z-0.181
X-15.173 Y-4.443 Z-0.189
X-15.183 Y-4.47 Z-0.197
X-15.193 Y-4.496 Z-0.209
X-15.207 Y-4.522 Z-0.221
X-15.221 Y-4.548 Z-0.236
X-15.257 Y-4.601 Z-0.272
X-15.301 Z-0.264
X-15.33 Z-0.262
X-17.58
X-17.619 Z-0.265
X-17.657 Z-0.273
X-17.696 Z-0.287
X-17.736 Z-0.305
X-17.777 Z-0.328
X-17.865 Z-0.387
X-17.912 Z-0.423
X-18.014 Z-0.507
X-18.13 Z-0.609
X-18.263 Z-0.731
X-18.418 Z-0.878
Z5
X-21.311 Y26.754
Z-0.001 F150
X-19.811 Y25.255 Z-1.5 F600
X-10.331
G3 X-8.831 Y26.755 I0 J1.5
G1 X-8.83 Y33.866
X-10.329 Y35.366 Z-0.001
X-8.83 Y33.866 Z-1.5
X-6.388
X-4.889 Y35.365 Z-0.001
X-6.388 Y33.866 Z-1.5
X-6.389 Y26.758
G3 X-4.889 Y25.257 I1.5 J0
G1 X-0.542
G3 X0.958 Y26.757 I0 J1.5
G1 X0.959 Y33.868
X-0.54 Y35.367 Z-0.001
X0.959 Y33.868 Z-1.5
X3.406
X3.407 Y26.757
G3 X4.907 Y25.257 I1.5 J0
G1 X4.921
X6.566 Y25.247
X7.353 Y25.224
X8.126 Y25.179
X8.891 Y25.106
X9.254 Y25.059
X9.622 Y25.001
X9.986 Y24.934
X10.346 Y24.856
X10.703 Y24.767
X11.049 Y24.668
X11.09 Y24.654
X11.544 Y24.493
X11.966 Y24.319
X12.376 Y24.125
X12.724 Y23.936
X13.1 Y23.666
X13.53 Y23.342
X13.952 Y23.007
X14.302 Y22.715
X14.512 Y22.485
X14.749 Y22.197
X14.972 Y21.893
X15.182 Y21.575
X15.379 Y21.244
X15.562 Y20.901
X15.731 Y20.547
X15.887 Y20.183
X16.029 Y19.81
X16.157 Y19.429
X16.271 Y19.042
X16.371 Y18.651
X16.457 Y18.256
X16.53 Y17.859
X16.589 Y17.461
X16.634 Y17.061
X16.663 Y16.719
X16.682 Y16.384
X16.692 Y16.059
X16.693 Y15.744
X16.684 Y15.438
X16.666 Y15.142
X16.64 Y14.854
X16.606 Y14.576
X16.564 Y14.307
X16.514 Y14.046
X16.456 Y13.794
X16.392 Y13.549
X16.32 Y13.313
X16.241 Y13.084
X16.155 Y12.862
X16.063 Y12.647
X15.964 Y12.439
X15.859 Y12.237
X15.748 Y12.041
X15.63 Y11.851
X15.506 Y11.666
X15.383 Y11.497
X15.094 Y11.142
X14.788 Y10.817
X14.455 Y10.508
X14.097 Y10.217
X13.712 Y9.942
X13.332 Y9.702
X12.896 Y9.458
G3 X13.066 Y6.759 I0.732 J-1.309
G1 X13.49 Y6.588
X13.901 Y6.401
X14.287 Y6.207
X14.662 Y6
X15.027 Y5.778
X15.382 Y5.543
X15.726 Y5.295
X16.059 Y5.034
X16.38 Y4.761
X16.686 Y4.479
X17.058 Y4.103
X17.37 Y3.757
X17.666 Y3.398
X17.945 Y3.027
X18.206 Y2.643
X18.449 Y2.249
X18.674 Y1.844
X18.88 Y1.428
X19.066 Y1.003
X19.232 Y0.569
X19.377 Y0.125
X19.502 Y-0.327
X19.605 Y-0.786
X19.686 Y-1.253
X19.745 Y-1.728
X19.781 Y-2.209
X19.793 Y-2.705
X19.79 Y-2.945
X19.777 Y-3.242
X19.756 Y-3.536
X19.727 Y-3.827
X19.689 Y-4.115
X19.642 Y-4.401
X19.59 Y-4.673
X19.454 Y-5.241
X19.289 Y-5.786
X19.093 Y-6.318
X18.867 Y-6.836
X18.643 Y-7.279
X18.528 Y-7.497
X18.524 Y-7.504
X18.402 Y-7.717
X18.251 Y-7.963
X18.066 Y-8.24
X17.873 Y-8.505
X17.67 Y-8.759
X17.459 Y-9.005
X17.238 Y-9.241
X17.007 Y-9.468
X16.767 Y-9.686
X16.521 Y-9.893
X16.128 Y-10.194
X15.719 Y-10.474
X15.287 Y-10.738
X14.832 Y-10.987
X14.354 Y-11.221
X13.853 Y-11.44
X13.329 Y-11.645
X12.782 Y-11.835
X12.214 Y-12.011
X11.624 Y-12.174
X11.012 Y-12.323
X10.38 Y-12.458
X9.727 Y-12.581
X9.055 Y-12.692
X8.363 Y-12.791
X7.653 Y-12.879
X6.969 Y-12.951
X6.269 Y-13.014
X5.555 Y-13.068
X4.817 Y-13.115
G3 X3.411 Y-14.611 I0.094 J-1.497
G1 X3.408 Y-22.136
X4.907 Y-23.635 Z-0.001
X3.408 Y-22.136 Z-1.5
X0.962
X0.963 Y-14.734
G3 X-0.537 Y-13.233 I-1.5 J0
G1 X-0.726
X-1.739 Y-13.231
X-2.764 Y-13.224
X-3.803 Y-13.211
X-4.863 Y-13.192
G3 X-6.389 Y-14.692 I-0.027 J-1.5
G1 X-6.388 Y-22.136
X-4.889 Y-23.635 Z-0.001
X-6.388 Y-22.136 Z-1.5
X-8.83 Y-22.135
X-10.328 Y-23.634 Z-0.001
X-8.83 Y-22.135 Z-1.5
X-8.834 Y-14.594
G3 X-10.329 Y-13.095 I-1.5 J-0.001
G1 X-19.541 Y-13.069
X-21.31 Y-14.563 Z-0.001
X-19.541 Y-13.069 Z-1.5
X-18.963 Y-9.584
X-19.795 Y-8.589 Z-0.516
X-20.23 Y-8.067 Z-0.001
X-19.795 Y-8.589 Z-0.516
X-18.963 Y-9.584 Z-1.5
X-18.592 Y-9.588
X-18.589
X-18.225 Y-9.591
X-18.222
X-17.878 Y-9.593
X-17.875
X-17.551 Y-9.595
X-17.547
X-17.244
X-17.239
X-17.031
X-17.025
X-16.835 Y-9.594
X-16.827
X-16.659 Y-9.592
X-16.646
X-16.502 Y-9.589
X-16.482
X-16.366 Y-9.585
X-16.329 Y-9.583
X-16.244 Y-9.578
X-16.148 Y-9.57
X-16.098 Y-9.564
X-16.067 Y-9.559
X-15.922 Y-9.553
X-15.775 Y-9.538
X-15.524 Y-9.502
X-15.446 Y-9.488
X-15.369 Y-9.47
X-15.142 Y-9.412
X-15.062 Y-9.389
X-14.982 Y-9.361
X-14.779 Y-9.284
X-14.699 Y-9.251
X-14.621 Y-9.213
X-14.439 Y-9.119
X-14.363 Y-9.077
X-14.289 Y-9.03
X-14.128 Y-8.921
X-14.059 Y-8.871
X-13.993 Y-8.818
X-13.851 Y-8.696
X-13.79 Y-8.641
X-13.733 Y-8.583
X-13.609 Y-8.451
X-13.51 Y-8.334
X-13.403 Y-8.194
X-13.324 Y-8.08
X-13.233 Y-7.934
X-13.17 Y-7.823
X-13.093 Y-7.673
X-13.045 Y-7.569
X-12.981 Y-7.418
X-12.945 Y-7.323
X-12.894 Y-7.173
X-12.867 Y-7.084
X-12.827 Y-6.937
X-12.807 Y-6.857
X-12.777 Y-6.715
X-12.763 Y-6.641
X-12.741 Y-6.507
X-12.726 Y-6.386
X-12.721 Y-6.265
Y8.038
X-12.723 Y18.221
G3 X-12.756 Y18.537 I-1.5 J0
G1 X-12.801 Y18.745
X-12.822 Y18.831
X-12.881 Y19.041
X-12.91 Y19.133
X-12.983 Y19.344
X-13.022 Y19.444
X-13.112 Y19.652
X-13.162 Y19.758
X-13.269 Y19.961
X-13.334 Y20.072
X-13.46 Y20.269
X-13.54 Y20.382
X-13.687 Y20.571
X-13.783 Y20.682
X-13.952 Y20.86
X-14.063 Y20.965
X-14.256 Y21.13
X-14.317 Y21.18
X-14.38 Y21.226
X-14.598 Y21.376
X-14.663 Y21.419
X-14.731 Y21.458
X-14.975 Y21.591
X-15.114 Y21.658
X-15.385 Y21.771
X-15.525 Y21.822
X-15.825 Y21.914
X-15.961 Y21.948
X-16.292 Y22.017
X-16.388 Y22.034
X-16.566 Y22.058
X-16.628 Y22.066
X-16.813 Y22.084
X-16.872 Y22.088
X-17.066 Y22.099
X-17.124 Y22.101
X-17.181 Y22.103
X-17.209 Y22.106
X-17.315 Y22.117
X-17.398 Y22.123
X-17.443 Y22.125
X-17.558 Y22.129
X-17.579 Y22.13
X-17.721 Y22.133
X-17.735
X-17.901 Y22.136
X-17.911
X-18.098 Y22.137
X-18.104
X-18.309
X-18.315
X-18.618
X-18.622
X-18.946 Y22.135
X-18.95
X-19.294 Y22.132
X-19.298
X-19.662 Y22.129
X-19.666
X-19.811 Y22.127
X-20.872 Y21.05 Z-0.439
X-21.31 Y20.604 Z-0.001
X-20.872 Y21.05 Z-0.439
X-19.811 Y22.127 Z-1.5
Y25.255
Z5
X-6.774 Y39.475
Z-0.82 F150
X-6.867 Y39.456 F600
X-7.302 Y39.365 Z-0.822
X-7.611 Y39.297 Z-0.82
X-8.047 Y39.196 Z-0.822
X-8.349 Y39.122 Z-0.82
X-8.786 Y39.01 Z-0.822
X-9.08 Y38.931 Z-0.82
X-9.518 Y38.808 Z-0.822
X-9.806 Y38.724 Z-0.82
X-10.244 Y38.591 Z-0.822
X-10.524 Y38.502 Z-0.82
X-10.963 Y38.359 Z-0.822
X-11.236 Y38.265 Z-0.82
X-11.674 Y38.111 Z-0.822
X-11.941 Y38.013 Z-0.82
X-12.379 Y37.848 Z-0.822
X-12.638 Y37.746 Z-0.82
X-13.076 Y37.57 Z-0.822
X-13.328 Y37.465 Z-0.82
X-13.766 Y37.277 Z-0.822
X-14.011 Y37.168 Z-0.82
X-14.448 Y36.97 Z-0.822
X-14.686 Y36.858 Z-0.82
X-15.121 Y36.648 Z-0.822
X-15.352 Y36.534 Z-0.82
X-15.787 Y36.313 Z-0.822
X-16.011 Y36.195 Z-0.82
X-16.444 Y35.963 Z-0.822
X-16.661 Y35.844 Z-0.82
X-17.093 Y35.6 Z-0.822
X-17.303 Y35.478 Z-0.82
X-17.733 Y35.223 Z-0.822
X-17.936 Y35.099 Z-0.82
X-18.364 Y34.833 Z-0.822
X-18.56 Y34.708 Z-0.82
X-18.986 Y34.429 Z-0.822
X-19.175 Y34.303 Z-0.82
X-19.599 Y34.013 Z-0.822
X-19.781 Y33.885 Z-0.82
X-20.202 Y33.584 Z-0.822
X-20.377 Y33.455 Z-0.82
X-20.795 Y33.142 Z-0.822
X-20.964 Y33.013 Z-0.82
X-21.379 Y32.688 Z-0.822
X-21.54 Y32.559 Z-0.82
X-21.952 Y32.222 Z-0.822
X-22.107 Y32.092 Z-0.82
X-22.65 Y31.626
X-22.663 Y31.614
X-23.196 Y31.136
X-23.209 Y31.124
X-23.732 Y30.635
X-23.745 Y30.623
X-24.266 Y30.113
X-24.66 Y29.714 Z-0.821
X-24.783 Y29.587 Z-0.82
X-25.285 Y29.053
X-25.776 Y28.508
X-26.255 Y27.953
X-26.723 Y27.387
X-27.179 Y26.811
X-27.622 Y26.226
X-28.053 Y25.631
X-28.472 Y25.026
X-28.878 Y24.412
X-29.271 Y23.789 Z-0.821
X-29.651 Y23.156
X-30.018 Y22.516
X-30.372 Y21.866
X-30.711 Y21.208
X-31.037 Y20.542
X-31.349 Y19.868
X-31.646 Y19.186
X-31.929 Y18.497
X-32.198 Y17.8
X-32.452 Y17.096
X-32.69 Y16.385
X-32.914 Y15.667
X-33.122 Y14.943
X-33.314 Y14.212
X-33.491 Y13.475
X-33.652 Y12.731
X-33.797 Y11.982
X-33.925 Y11.227
X-34.037 Y10.467
X-34.132 Y9.702
X-34.21 Y8.931
X-34.271 Y8.156
X-34.315 Y7.375
X-34.341 Y6.591
X-34.35 Y5.8
X-34.336 Y4.813
X-34.294 Y3.833
X-34.225 Y2.861
X-34.129 Y1.895
X-34.007 Y0.938
X-33.858 Y-0.011
X-33.684 Y-0.951
X-33.485 Y-1.88
X-33.314 Y-2.591
X-33.129 Y-3.297
X-32.928 Y-3.997
X-32.714 Y-4.691
X-32.485 Y-5.379
X-32.242 Y-6.059
X-31.986 Y-6.734
X-31.715 Y-7.401
X-31.432 Y-8.061
X-31.134 Y-8.714
X-30.824 Y-9.36
X-30.501 Y-9.998
X-30.165 Y-10.628
X-29.816 Y-11.251
X-29.455 Y-11.865
X-29.082 Y-12.471
X-28.696 Y-13.069
X-28.299 Y-13.658
X-27.89 Y-14.238
X-27.469 Y-14.81
X-27.036 Y-15.372
X-26.593 Y-15.925
X-26.138 Y-16.469
X-25.673 Y-17.003
X-25.196 Y-17.527
X-24.71 Y-18.041
X-24.212 Y-18.545
X-23.705 Y-19.039
X-23.187 Y-19.523
X-22.66 Y-19.995
X-22.123 Y-20.457
X-21.576 Y-20.908
X-21.02 Y-21.348
X-20.455 Y-21.777
X-19.88 Y-22.194
X-19.297 Y-22.599
X-18.705 Y-22.993
X-18.104 Y-23.374
X-17.495 Y-23.744
X-16.878 Y-24.1
X-16.253 Y-24.445
X-15.62 Y-24.777
X-14.98 Y-25.096
X-14.332 Y-25.402
X-13.676 Y-25.694
X-13.013 Y-25.974
X-12.344 Y-26.24
X-11.667 Y-26.492
X-10.984 Y-26.73
X-10.294 Y-26.954
X-9.599 Y-27.164
X-8.897 Y-27.359
X-8.188 Y-27.54
X-7.475 Y-27.706
X-6.755 Y-27.857
X-6.031 Y-27.993
X-5.301 Y-28.114
X-4.566 Y-28.219
X-3.826 Y-28.309
X-3.081 Y-28.383
X-2.332 Y-28.441
X-1.578 Y-28.483
X-0.881 Y-28.506
X-0.836 Y-28.571 Z-0.758
X-0.763 Y-28.666 Z-0.664
X-0.689 Y-28.752 Z-0.579
X-0.615 Y-28.827 Z-0.505
X-0.075 Y-29.338 Z-0.001
X-0.615 Y-28.827 Z-0.505
X-0.689 Y-28.752 Z-0.579
X-0.763 Y-28.666 Z-0.664
X-0.836 Y-28.571 Z-0.758
X-0.881 Y-28.506 Z-0.821
X-0.82 Y-28.467 Z-0.78
X-0.763 Y-28.432 Z-0.744
X-0.606 Y-28.47 Z-0.59
X-0.366 Y-28.533 Z-0.364
X-0.256 Y-28.561 Z-0.273
X-0.21 Y-28.573 Z-0.24
X-0.166 Y-28.584 Z-0.215
X-0.125 Y-28.595 Z-0.198
X-0.064 Y-28.606 Z-0.182
X-0.025 Y-28.607 Z-0.178
X-0.005
X4.111 Y-28.327
X4.151 Y-28.329 Z-0.182
X4.171 Y-28.33 Z-0.187
X4.211 Y-28.339 Z-0.198
X4.25 Y-28.349 Z-0.214
X4.291 Y-28.36 Z-0.237
X4.335 Y-28.371 Z-0.268
X4.384 Y-28.384 Z-0.306
X4.503 Y-28.415 Z-0.41
X4.667 Y-28.458 Z-0.565
X4.659 Y-28.466 Z-0.558
X4.144 Y-29.093 Z-0.001
X4.659 Y-28.466 Z-0.558
X4.667 Y-28.458 Z-0.565
X4.724 Y-28.42 Z-0.595
X4.799 Y-28.363 Z-0.641
X4.873 Y-28.299 Z-0.694
X4.946 Y-28.227 Z-0.754
X5.018 Y-28.149 Z-0.821
X4.858 Y-28.018 Z-0.668
X4.844 Y-28.007 Z-0.655
X4.15 Y-27.44 Z-0.001
X4.844 Y-28.007 Z-0.655
X4.858 Y-28.018 Z-0.668
X5.018 Y-28.149 Z-0.821
X5.501 Y-28.075
X6.117 Y-27.97
X6.73 Y-27.853
X7.338 Y-27.726
X7.942 Y-27.589
X8.543 Y-27.44
X9.139 Y-27.281
X9.731 Y-27.112
X10.32 Y-26.932
X10.922 Y-26.736
X11.52 Y-26.529 Z-0.822
X12.113 Y-26.311
X12.7 Y-26.083
X13.282 Y-25.844
X13.859 Y-25.595
X14.43 Y-25.336
X14.996 Y-25.066
X15.556 Y-24.787
X16.11 Y-24.498
X16.459 Y-24.309 Z-0.821
X16.658 Y-24.199 Z-0.822
X16.986 Y-24.014 Z-0.821
X17.2 Y-23.891 Z-0.822
X17.506 Y-23.711 Z-0.821
X17.736 Y-23.573 Z-0.822
X18.021 Y-23.398 Z-0.821
X18.265 Y-23.246 Z-0.822
X18.53 Y-23.077 Z-0.821
X18.788 Y-22.909 Z-0.822
X19.032 Y-22.748 Z-0.821
X19.305 Y-22.564 Z-0.822
X19.529 Y-22.409 Z-0.821
X19.815 Y-22.209 Z-0.822
X20.019 Y-22.063 Z-0.82
X20.318 Y-21.845 Z-0.822
X20.503 Y-21.708 Z-0.821
X20.98 Y-21.345
X21.451 Y-20.974
X21.915 Y-20.595
X22.373 Y-20.207
X22.823 Y-19.813
X23.266 Y-19.41
X23.703 Y-19
X24.132 Y-18.583
X24.554 Y-18.158
X24.968 Y-17.726
X25.375 Y-17.286
X25.786 Y-16.826
X26.191 Y-16.357
X26.587 Y-15.88
X26.974 Y-15.396
X27.353 Y-14.905 Z-0.822
X27.724 Y-14.407
X28.085 Y-13.903
X28.438 Y-13.391
X28.781 Y-12.873
X29.116 Y-12.348
X29.324 Y-12.01 Z-0.821
X29.441 Y-11.817 Z-0.822
X29.633 Y-11.493 Z-0.82
X29.756 Y-11.28 Z-0.822
X29.932 Y-10.969 Z-0.82
X30.062 Y-10.736 Z-0.822
X30.223 Y-10.441 Z-0.82
X30.359 Y-10.187 Z-0.822
X30.505 Y-9.906 Z-0.82
X30.645 Y-9.631 Z-0.822
X30.778 Y-9.366 Z-0.82
X30.922 Y-9.07 Z-0.822
X31.041 Y-8.821 Z-0.82
X31.189 Y-8.503 Z-0.822
X31.295 Y-8.27 Z-0.82
X31.446 Y-7.931 Z-0.822
X31.539 Y-7.715 Z-0.821
X31.768 Y-7.167
X31.774 Y-7.154
X31.999 Y-6.588
X32.214 Y-6.017
X32.431 Y-5.409
X32.227 Y-5.183 Z-0.555
X32.128 Y-5.062 Z-0.423
X32.031 Y-4.933 Z-0.29
X31.979 Y-4.859 Z-0.217
X31.929 Y-4.782 Z-0.145
X31.833 Y-4.614 Z-0.001
X31.929 Y-4.782 Z-0.145
X31.979 Y-4.859 Z-0.217
X32.031 Y-4.933 Z-0.29
X32.128 Y-5.062 Z-0.423
X32.227 Y-5.183 Z-0.555
X32.431 Y-5.409 Z-0.821
X32.585 Y-5.252 Z-0.725
X32.668 Y-5.158 Z-0.677
X32.781 Y-5.015 Z-0.616
X32.831 Y-4.942 Z-0.59
X32.886 Y-4.858 Z-0.564
X32.947 Y-4.753 Z-0.538
X32.981 Y-4.688 Z-0.525
X33.076 Y-4.48 Z-0.499
X33.131 Y-4.317 Z-0.492
X33.167 Y-4.184 Z-0.496
X33.188 Y-4.085 Z-0.505
X33.204 Y-3.987 Z-0.517
X33.219 Y-3.867 Z-0.538
X33.224 Y-3.742 Z-0.561
X33.223 Y-3.641 Z-0.584
X33.219 Y-3.553 Z-0.608
X33.212 Y-3.474 Z-0.631
X33.196 Y-3.336 Z-0.678
X33.176 Y-3.213 Z-0.725
X33.099 Y-3.19 Z-0.676
X33.021 Y-3.167 Z-0.629
X32.944 Y-3.144 Z-0.586
X32.867 Y-3.12 Z-0.548
X32.658 Y-3.18 Z-0.365
X32.552 Y-3.216 Z-0.274
X32.444 Y-3.256 Z-0.183
X32.334 Y-3.303 Z-0.091
X32.223 Y-3.358 Z-0.001
X32.334 Y-3.303 Z-0.091
X32.444 Y-3.256 Z-0.183
X32.552 Y-3.216 Z-0.274
X32.658 Y-3.18 Z-0.365
X32.867 Y-3.12 Z-0.548
X32.722 Y-2.949 Z-0.359
X32.652 Y-2.858 Z-0.265
X32.524 Y-2.67 Z-0.088
X32.464 Y-2.565 Z-0.001
X32.524 Y-2.67 Z-0.088
X32.652 Y-2.858 Z-0.265
X32.722 Y-2.949 Z-0.359
X32.867 Y-3.12 Z-0.548
X32.944 Y-3.144 Z-0.586
X33.021 Y-3.167 Z-0.629
X33.099 Y-3.19 Z-0.676
X33.176 Y-3.213 Z-0.725
X33.304 Y-3.05 Z-0.636
X33.342 Y-3 Z-0.613
X33.365 Y-2.97 Z-0.602
X33.428 Y-2.893 Z-0.579
X33.473 Y-2.845 Z-0.569
X33.517 Y-2.796 Z-0.567
X33.664 Y-2.631 Z-0.577
X33.695 Y-2.593 Z-0.582
X33.741 Y-2.532 Z-0.591
X33.794 Y-2.457 Z-0.605
X33.847 Y-2.375 Z-0.624
X33.9 Y-2.287 Z-0.648
X33.951 Y-2.194 Z-0.677
X33.999 Y-2.096 Z-0.71
X34.044 Y-1.995 Z-0.748
X34.112 Y-1.82 Z-0.821
X34.184 Y-1.592 Z-0.928
X33.999 Y-1.549 Z-0.759
X33.808 Y-1.511 Z-0.591
X33.612 Y-1.481 Z-0.422
X33.51 Y-1.469 Z-0.337
X33.407 Y-1.46 Z-0.253
X33.3 Y-1.455 Z-0.169
X33.189 Y-1.454 Z-0.084
X33.075 Y-1.459 Z-0.001
X33.189 Y-1.454 Z-0.084
X33.3 Y-1.455 Z-0.169
X33.407 Y-1.46 Z-0.253
X33.51 Y-1.469 Z-0.337
X33.612 Y-1.481 Z-0.422
X33.808 Y-1.511 Z-0.591
X33.999 Y-1.549 Z-0.759
X34.184 Y-1.592 Z-0.928
X35.501 Y-0.155 Z-0.985
X35.738 Y-0.054 Z-0.885
X35.791 Y-0.034 Z-0.863
X35.844 Y-0.013 Z-0.844
X35.897 Y0.003 Z-0.825
X35.95 Y0.02 Z-0.81
X36.003 Y0.033 Z-0.795
X36.056 Y0.046 Z-0.784
X36.109 Y0.056 Z-0.773
X36.161 Y0.065 Z-0.765
X36.214 Y0.07 Z-0.758
X36.267 Y0.076 Z-0.754
X36.32 Y0.078 Z-0.751
X45.013 Y0.08
X45.271 Y0.207 Z-0.623
X45.38 Y0.381 Z-0.449
X45.439 Y0.468 Z-0.363
X45.502 Y0.555 Z-0.276
X45.57 Y0.641 Z-0.189
X45.643 Y0.728 Z-0.102
X45.74 Y0.83 Z-0.001
X45.643 Y0.728 Z-0.102
X45.57 Y0.641 Z-0.189
X45.502 Y0.555 Z-0.276
X45.439 Y0.468 Z-0.363
X45.38 Y0.381 Z-0.449
X45.271 Y0.207 Z-0.623
X45.47 Y0.182 Z-0.466
X45.57 Y0.169 Z-0.393
X45.669 Y0.156 Z-0.325
X45.769 Y0.143 Z-0.263
X45.868 Y0.13 Z-0.209
X45.968 Y0.118 Z-0.162
X46.067 Y0.105 Z-0.126
X46.204 Y0.187 Z-0.001
Z5
X-5.965 Y38.794
Z-0.001 F150
X-6.359 Y39.081 Z-0.357 F600
X-6.408 Y39.119 Z-0.403
X-6.553 Y39.246 Z-0.555
X-6.625 Y39.314 Z-0.635
X-6.698 Y39.39 Z-0.724
X-6.774 Y39.475 Z-0.82
X-6.728 Y39.512 Z-0.791
X-6.683 Y39.549 Z-0.766
X-6.573 Y39.632 Z-0.707
X-6.51 Y39.673 Z-0.677
X-6.446 Y39.711 Z-0.652
X-6.361 Y39.753 Z-0.625
X-6.321 Y39.853 Z-0.533
X-6.28 Y39.944 Z-0.452
X-6.236 Y40.024 Z-0.381
X-6.155 Y40.158 Z-0.262
X-6.134 Y40.19 Z-0.236
X-5.932 Y40.465 Z-0.001
X-6.134 Y40.19 Z-0.236
X-6.155 Y40.158 Z-0.262
X-6.236 Y40.024 Z-0.381
X-6.28 Y39.944 Z-0.452
X-6.321 Y39.853 Z-0.533
X-6.361 Y39.753 Z-0.625
X-6.224 Y39.743 Z-0.528
X-6.121 Y39.732 Z-0.464
X-6.047 Y39.724 Z-0.428
X-5.934 Y39.714 Z-0.384
X-5.883 Y39.709 Z-0.369
X-5.835 Y39.705 Z-0.359
X-5.787 Z-0.353
X-5.675 Y39.709 Z-0.341
X-5.641 Y39.712
X-5.385 Y39.744
X-5.301 Y39.609 Z-0.197
X-5.262 Y39.557 Z-0.141
X-5.152 Y39.43 Z-0.001
X-5.262 Y39.557 Z-0.141
X-5.301 Y39.609 Z-0.197
X-5.385 Y39.744 Z-0.341
X-5.331 Y39.776 Z-0.316
X-5.283 Y39.802 Z-0.296
X-5.235 Y39.823 Z-0.281
X-5.132 Y39.863 Z-0.255
X-5.108 Y39.943 Z-0.179
X-5.026 Y40.132 Z-0.001
X-5.108 Y39.943 Z-0.179
X-5.132 Y39.863 Z-0.255
X-5.091 Y39.859 Z-0.233
X-5.018 Y39.847 Z-0.199
X-4.952 Y39.842 Z-0.177
X-4.881 Y39.835 Z-0.16
X-4.774 Y39.834 Z-0.151
X-1.294 Y40.122 Z-0.15
X-1.17 Z-0.16
X-1.147 Y40.12 Z-0.162
X-1.124 Y40.118 Z-0.167
X-1.013 Y40.106 Z-0.204
X-0.982 Y40.102 Z-0.216
X-0.936 Y40.097 Z-0.241
X-0.828 Y40.083 Z-0.308
X-0.875 Y39.974 Z-0.2
X-0.908 Y39.915 Z-0.142
X-0.998 Y39.771 Z-0.001
X-0.908 Y39.915 Z-0.142
X-0.875 Y39.974 Z-0.2
X-0.828 Y40.083 Z-0.308
X-0.786 Y40.097 Z-0.321
X-0.716 Y40.127 Z-0.349
X-0.796 Y40.299 Z-0.175
X-0.822 Y40.344 Z-0.129
X-0.903 Y40.47 Z-0.001
X-0.822 Y40.344 Z-0.129
X-0.796 Y40.299 Z-0.175
X-0.716 Y40.127 Z-0.349
X-0.199 Y40.14
X-0.123 Y40.138 Z-0.356
X-0.048 Y40.137 Z-0.372
X0.027 Y40.133 Z-0.395
X0.075 Y40.129 Z-0.415
X0.119 Y40.128 Z-0.436
X0.226 Y40.125 Z-0.496
X0.273 Y40.124 Z-0.526
X0.345 Y40.119 Z-0.575
X0.441 Y40.113 Z-0.646
X0.631 Y40.108 Z-0.799
X0.56 Y39.988 Z-0.677
X0.49 Y39.88 Z-0.569
X0.42 Y39.786 Z-0.474
X0.341 Y39.688 Z-0.375
X0.306 Y39.647 Z-0.333
X-0.016 Y39.318 Z-0.001
X0.306 Y39.647 Z-0.333
X0.341 Y39.688 Z-0.375
X0.42 Y39.786 Z-0.474
X0.49 Y39.88 Z-0.569
X0.56 Y39.988 Z-0.677
X0.631 Y40.108 Z-0.799
X0.673 Y40.131 Z-0.822
X0.572 Y40.314 Z-0.64
X0.52 Y40.398 Z-0.557
X0.467 Y40.474 Z-0.481
X0.414 Y40.542 Z-0.414
X0.31 Y40.667 Z-0.29
X0.281 Y40.698 Z-0.26
X0.014 Y40.96 Z-0.001
X0.281 Y40.698 Z-0.26
X0.31 Y40.667 Z-0.29
X0.414 Y40.542 Z-0.414
X0.467 Y40.474 Z-0.481
X0.52 Y40.398 Z-0.557
X0.572 Y40.314 Z-0.64
X0.673 Y40.131 Z-0.822
X0.855 Y40.128 Z-0.821
X1.71 Y40.096
X2.541 Y40.045
X2.56 Y40.043
X3.156 Y39.994 Z-0.823
X3.405 Y39.97 Z-0.821
X3.929 Y39.914 Z-0.823
X4.244 Y39.876 Z-0.821
X4.698 Y39.817 Z-0.823
X5.076 Y39.763 Z-0.821
X5.461 Y39.703 Z-0.823
X5.902 Y39.629 Z-0.82
X6.219 Y39.573 Z-0.823
X6.72 Y39.477 Z-0.821
X6.889 Y39.443 Z-0.822
X7.366 Y39.342 Z-0.821
X7.555 Y39.3 Z-0.822
X8.007 Y39.195 Z-0.821
X8.216 Y39.144 Z-0.822
X8.644 Y39.036 Z-0.821
X8.873 Y38.976 Z-0.822
X9.276 Y38.865 Z-0.821
X9.524 Y38.794 Z-0.822
X9.903 Y38.682 Z-0.821
X10.17 Y38.601 Z-0.822
X10.525 Y38.488 Z-0.821
X10.81 Y38.395 Z-0.822
X11.142 Y38.283 Z-0.821
X11.445 Y38.177 Z-0.822
X11.754 Y38.066 Z-0.821
X12.074 Y37.947 Z-0.822
X12.361 Y37.838 Z-0.821
X12.698 Y37.705 Z-0.822
X12.961 Y37.599 Z-0.821
X13.315 Y37.452 Z-0.822
X13.557 Y37.349 Z-0.821
X13.927 Y37.187 Z-0.822
X14.146 Y37.088 Z-0.821
X14.532 Y36.91 Z-0.822
X14.73 Y36.817 Z-0.821
X15.304 Y36.537
X15.876 Y36.244
X16.444 Y35.94
X17.003 Y35.627
X17.555 Y35.304
X18.101 Y34.971
X18.64 Y34.629
X19.172 Y34.276
X19.697 Y33.915
X20.215 Y33.543
X20.741 Y33.152
X21.261 Y32.748 Z-0.822
X21.772 Y32.335
X22.276 Y31.913
X22.772 Y31.48
X23.259 Y31.039
X23.738 Y30.589
X24.208 Y30.129
X24.669 Y29.661
X24.976 Y29.339 Z-0.821
X25.121 Y29.184 Z-0.822
X25.407 Y28.872 Z-0.821
X25.564 Y28.698 Z-0.822
X25.83 Y28.397 Z-0.82
X25.998 Y28.205 Z-0.822
X26.244 Y27.915 Z-0.82
X26.422 Y27.702 Z-0.822
X26.65 Y27.424 Z-0.82
X26.837 Y27.192 Z-0.822
X27.046 Y26.926 Z-0.82
X27.242 Y26.673 Z-0.822
X27.434 Y26.421 Z-0.82
X27.638 Y26.147 Z-0.822
X27.812 Y25.908 Z-0.82
X28.023 Y25.613 Z-0.822
X28.18 Y25.389 Z-0.82
X28.399 Y25.071 Z-0.822
X28.54 Y24.862 Z-0.82
X28.764 Y24.522 Z-0.822
X28.89 Y24.328 Z-0.821
X29.222 Y23.8
X29.23 Y23.787
X29.56 Y23.239
X29.88 Y22.685
X30.19 Y22.125
X30.49 Y21.558
X30.78 Y20.985
X31.059 Y20.406
X31.328 Y19.821
X31.586 Y19.23
X31.833 Y18.633
X32.07 Y18.028
X32.302 Y17.399
X32.523 Y16.765
X32.731 Y16.126 Z-0.822
X32.926 Y15.481
X33.11 Y14.831
X33.281 Y14.176
X33.439 Y13.516
X33.585 Y12.851
X33.68 Y12.378 Z-0.82
X33.717 Y12.18 Z-0.822
X33.803 Y11.702 Z-0.821
X33.834 Y11.505 Z-0.825
X33.93 Y10.841 Z-0.833
X34.087 Y9.504 Z-0.811
X34.094 Y9.457 Z-0.814
X34.115 Y9.365 Z-0.822
X34.141 Y9.274 Z-0.835
X34.172 Y9.184 Z-0.854
X34.208 Y9.094 Z-0.879
X34.386 Y8.689 Z-1.002
X33.439 Y8.221 Z-0.001
X34.386 Y8.689 Z-1.002
X35.728 Y7.223 Z-0.914
X35.774 Y7.178 Z-0.915
X35.395 Y6.264 Z-0.001
X35.774 Y7.178 Z-0.915
X35.874 Y7.144 Z-0.881
X35.924 Y7.13 Z-0.865
X35.974 Y7.116 Z-0.853
X36.024 Y7.105 Z-0.84
X36.074 Y7.094 Z-0.831
X36.124 Y7.086 Z-0.821
X36.174 Y7.079 Z-0.815
X36.224 Y7.074 Z-0.809
X36.274 Y7.069 Z-0.806
X36.324 Y7.068 Z-0.803
X36.374 Y7.066
X45.179 Y7.065 Z-0.802
X45.279 Y7.244 Z-0.624
X45.389 Y7.422 Z-0.446
X45.449 Y7.511 Z-0.356
X45.513 Y7.6 Z-0.267
X45.582 Y7.689 Z-0.178
X45.657 Y7.778 Z-0.089
X45.74 Y7.867 Z-0.001
X45.657 Y7.778 Z-0.089
X45.582 Y7.689 Z-0.178
X45.513 Y7.6 Z-0.267
X45.449 Y7.511 Z-0.356
X45.389 Y7.422 Z-0.446
X45.279 Y7.244 Z-0.624
X45.179 Y7.065 Z-0.802
X45.233 Y7.037 Z-0.773
X45.337 Y6.843 Z-0.58
X45.393 Y6.747 Z-0.483
X45.453 Y6.65 Z-0.387
X45.516 Y6.553 Z-0.29
X45.585 Y6.457 Z-0.193
X45.66 Y6.36 Z-0.097
X45.742 Y6.264 Z-0.001
X45.66 Y6.36 Z-0.097
X45.585 Y6.457 Z-0.193
X45.516 Y6.553 Z-0.29
X45.453 Y6.65 Z-0.387
X45.393 Y6.747 Z-0.483
X45.337 Y6.843 Z-0.58
X45.233 Y7.037 Z-0.773
X45.373 Z-0.662
X45.513 Z-0.556
X45.654 Z-0.458
X45.794 Z-0.37
X45.864 Z-0.33
X45.934 Z-0.294
X46.004 Z-0.262
X46.074 Z-0.235
X46.144 Z-0.212
X46.214 Z-0.194
X46.284 Z-0.182
X46.354 Z-0.175
X46.397 Y7.08 Z-0.131
X46.461 Y7.151 Z-0.062
X46.524 Y7.223 Z-0.001
X46.461 Y7.151 Z-0.062
X46.397 Y7.08 Z-0.131
X46.354 Y7.037 Z-0.175
X46.397 Y6.996 Z-0.133
X46.533 Y6.849 Z-0.001
Z5
X11.809 Y-0.945
Z-1.5 F150
X11.811 Y-0.956 F600
X11.86 Y-1.181
X11.873 Y-1.249
X11.911 Y-1.475
X11.921 Y-1.544
X11.949 Y-1.772
X11.956 Y-1.845
X11.973 Y-2.074
X11.976 Y-2.15
X11.981 Y-2.379
Y-2.462
X11.972 Y-2.721
X11.967 Y-2.808
X11.943 Y-3.066
X11.933 Y-3.148
X11.895 Y-3.405
X11.881 Y-3.482
X11.83 Y-3.737
X11.814 Y-3.807
X11.75 Y-4.059
X11.731 Y-4.129
X11.655 Y-4.378
X11.633 Y-4.444
X11.545 Y-4.69
X11.522 Y-4.75
X11.424 Y-4.992
X11.399 Y-5.049
X11.294 Y-5.282
X11.267 Y-5.337
X11.151 Y-5.565
X11.123 Y-5.619
X10.998 Y-5.842
X10.967 Y-5.895
X10.833 Y-6.113
X10.8 Y-6.164
X10.658 Y-6.376
X10.623 Y-6.426
X10.472 Y-6.632
X10.435 Y-6.68
X10.276 Y-6.88
X10.237 Y-6.927
X10.07 Y-7.12
X10.016 Y-7.179
X9.718 Y-7.488
X9.644 Y-7.56
X9.325 Y-7.849
X9.246 Y-7.915
X8.908 Y-8.181
X8.825 Y-8.242
X8.469 Y-8.484
X8.386 Y-8.537
X8.137 Y-8.684
X8.065 Y-8.723
X7.811 Y-8.854
X7.74 Y-8.889
X7.481 Y-9.006
X7.412 Y-9.035
X7.149 Y-9.139
X7.082 Y-9.163
X6.814 Y-9.254
X6.751 Y-9.274
X6.479 Y-9.353
X6.419 Y-9.369
X6.144 Y-9.436
X6.088 Y-9.449
X5.81 Y-9.506
X5.735 Y-9.52
X5.17 Y-9.606
X5.084 Y-9.617
X4.511 Y-9.671
X4.442 Y-9.676
X3.863 Y-9.704
X3.811 Y-9.705
X3.229 Y-9.713
X3.182
X1.886 Y-9.69
X1.875
X1.246 Y-9.675
X0.637 Y-9.668
X-4.742
G2 X-6.162 Y-8.652 I0 J1.5
X-6.262 Y-8.112 I1.399 J0.54
G1 Y-6.138
X-6.26 Y3.121
G2 X-6.239 Y3.37 I1.5 J0
X-4.742 Y4.773 I1.497 J-0.097
G1 X4.402
X4.459 Y4.771
X4.924 Y4.754
X5.038 Y4.745
X5.498 Y4.692
X5.609 Y4.675
X6.062 Y4.589
X6.17 Y4.564
X6.614 Y4.444
X6.719 Y4.412
X7.152 Y4.261
X7.254 Y4.221
X7.674 Y4.039
X7.772 Y3.993
X8.178 Y3.781
X8.273 Y3.727
X8.662 Y3.487
X8.753 Y3.426
X9.123 Y3.158
X9.21 Y3.09
X9.56 Y2.796
X9.643 Y2.721
X9.969 Y2.401
X10.048 Y2.318
X10.35 Y1.974
X10.423 Y1.884
X10.698 Y1.516
X10.765 Y1.419
X11.012 Y1.029
X11.072 Y0.924
X11.288 Y0.513
X11.34 Y0.402
X11.523 Y-0.029
X11.567 Y-0.144
X11.711 Y-0.581
X11.738 Y-0.671
X11.796 Y-0.893
X11.809 Y-0.945
Z5
X0.601 Y1.011
Z-1.5 F150
X0.855 F600
X0.837 Y1.005
X0.723 Y0.97
X0.601 Y0.925
X0.723 Y0.97
X0.837 Y1.005
X0.855 Y1.011
X0.925 Y1.019 Z-1.49
X0.995 Y1.028 Z-1.483
X1.065 Y1.033 Z-1.476
X1.135 Y1.038 Z-1.472
X1.332 Y1.046 Z-1.462
X1.406 Y1.048
X3.84 Y1.046
X3.914 Y1.044 Z-1.466
X4.107 Y1.033 Z-1.476
X4.177 Y1.028 Z-1.483
X4.247 Y1.019 Z-1.49
X4.317 Y1.011 Z-1.5
X4.335 Y1.005
X4.448 Y0.97
G2 X4.719 Y0.855 I-0.447 J-1.432
G1 X4.822 Y0.799
G2 X5.06 Y0.638 I-0.718 J-1.317
G1 X5.15 Y0.564
G2 X5.351 Y0.362 I-0.956 J-1.156
G1 X5.425 Y0.272
G2 X5.586 Y0.034 I-1.157 J-0.954
G1 X5.642 Y-0.069
G2 X5.756 Y-0.339 I-1.318 J-0.716
G1 X5.791 Y-0.452
G2 X5.852 Y-0.747 I-1.432 J-0.446
G1 X5.864 Y-0.869
X5.872 Y-1.02
Y-1.873
G2 X6.303 Y-2.347 I-0.868 J-1.224
G1 X7.099 Y-3.727
X7.468 Y-4.365
X7.652 Y-4.103
X7.816 Y-3.823
X7.962 Y-3.519
X8.018 Y-3.378
X8.073 Y-3.225
X8.118 Y-3.078
X8.154 Y-2.935
X8.183 Y-2.791
X8.203 Y-2.655
X8.215 Y-2.525
X8.218 Y-2.418
X8.207 Y-2.176
X8.172 Y-1.934
X8.112 Y-1.679
X8.024 Y-1.412
X7.916 Y-1.159
X7.788 Y-0.915
X7.639 Y-0.68
X7.47 Y-0.455
X7.283 Y-0.241
X7.078 Y-0.04
X6.857 Y0.147
X6.622 Y0.319
X6.373 Y0.474
X6.112 Y0.612
X5.842 Y0.73
X5.564 Y0.829
X5.279 Y0.907
X4.99 Y0.964
X4.697 Y0.998
X4.373 Y1.011
X4.317
Z5
X-4 Y-7.346
Z-0.001 F150
X-3.98 Y-7.327 Z-0.02 F600
X-3.958 Y-7.311 Z-0.042
X-3.923 Y-7.295 Z-0.077
X-3.876 Y-7.279 Z-0.124
X-3.9 Y-7.318 Z-0.085
X-3.924 Y-7.347 Z-0.056
X-3.979 Y-7.402 Z-0.001
X-3.924 Y-7.347 Z-0.056
X-3.9 Y-7.318 Z-0.085
X-3.876 Y-7.279 Z-0.124
X-2.5 Y-5.903 Z-1.5
X0.645
X0.672
X1.912 Y-5.926
X1.944 Y-5.957 Z-1.469
X2.049 Y-6.053 Z-1.375
X2.154 Y-6.142 Z-1.288
X2.259 Y-6.224 Z-1.208
X2.364 Y-6.299 Z-1.135
X2.47 Y-6.366 Z-1.069
X2.575 Y-6.427 Z-1.011
X2.681 Y-6.48 Z-0.959
X2.734 Y-6.503 Z-0.935
X2.786 Y-6.527 Z-0.915
X2.839 Y-6.546 Z-0.894
X2.892 Y-6.566 Z-0.877
X2.945 Y-6.582 Z-0.861
X2.998 Y-6.598 Z-0.847
X3.051 Y-6.61 Z-0.834
X3.104 Y-6.623 Z-0.824
X3.158 Y-6.632 Z-0.814
X3.211 Y-6.641 Z-0.808
X3.261 Y-6.645 Z-0.802
X3.31 Y-6.649 Z-0.798
X3.36 Y-6.651 Z-0.795
X3.41 Y-6.652 Z-0.794
X3.686 Y-6.65 Z-0.793
X4.17 Y-6.64 Z-0.783
X4.652 Y-6.62 Z-0.762
X5.13 Y-6.586 Z-0.729
X5.61 Y-6.537 Z-0.679
X5.837 Y-6.506 Z-0.649
X6.069 Y-6.47 Z-0.612
X6.301 Y-6.427 Z-0.57
X6.598 Y-6.363 Z-0.506
X6.639 Y-6.351 Z-0.496
X6.681 Y-6.34 Z-0.489
X6.721 Y-6.324 Z-0.483
X6.761 Y-6.309 Z-0.48
X6.8 Y-6.289 Z-0.476
X6.838 Y-6.269
X6.869 Y-6.249
X6.9 Y-6.229 Z-0.479
X6.929 Y-6.207 Z-0.482
X6.959 Y-6.185 Z-0.487
X6.99 Y-6.156 Z-0.493
X7.021 Y-6.126 Z-0.501
X7.05 Y-6.093 Z-0.51
X7.079 Y-6.061 Z-0.523
X7.106 Y-6.025 Z-0.535
X7.134 Y-5.989 Z-0.552
X7.158 Y-5.95 Z-0.568
X7.183 Y-5.911 Z-0.588
X7.224 Y-5.83 Z-0.627
X7.261 Y-5.743 Z-0.673
X7.293 Y-5.65 Z-0.725
X7.321 Y-5.553 Z-0.785
X7.345 Y-5.426 Z-0.863
X7.387 Y-5.156 Z-1.034
X7.432 Y-4.787 Z-1.258
X7.468 Y-4.367 Z-1.499
X7.432 Y-4.787 Z-1.258
X7.387 Y-5.156 Z-1.034
X7.345 Y-5.426 Z-0.863
X7.321 Y-5.553 Z-0.785
X7.293 Y-5.65 Z-0.725
X7.261 Y-5.743 Z-0.673
X7.224 Y-5.83 Z-0.627
X7.183 Y-5.911 Z-0.588
X7.158 Y-5.95 Z-0.568
X7.134 Y-5.989 Z-0.552
X7.106 Y-6.025 Z-0.535
X7.079 Y-6.061 Z-0.523
X7.05 Y-6.093 Z-0.51
X7.021 Y-6.126 Z-0.501
X6.99 Y-6.156 Z-0.493
X6.959 Y-6.185 Z-0.487
X6.929 Y-6.207 Z-0.482
X6.9 Y-6.229 Z-0.479
X6.869 Y-6.249 Z-0.476
X6.838 Y-6.269
X6.8 Y-6.289
X6.761 Y-6.309 Z-0.48
X6.721 Y-6.324 Z-0.483
X6.681 Y-6.34 Z-0.489
X6.639 Y-6.351 Z-0.496
X6.598 Y-6.363 Z-0.506
X6.301 Y-6.427 Z-0.57
X6.069 Y-6.47 Z-0.612
X5.837 Y-6.506 Z-0.649
X5.61 Y-6.537 Z-0.679
X5.13 Y-6.586 Z-0.729
X4.652 Y-6.62 Z-0.762
X4.17 Y-6.64 Z-0.783
X3.686 Y-6.65 Z-0.793
X3.41 Y-6.652 Z-0.794
X3.36 Y-6.651 Z-0.795
X3.31 Y-6.649 Z-0.798
X3.261 Y-6.645 Z-0.802
X3.211 Y-6.641 Z-0.808
X3.158 Y-6.632 Z-0.814
X3.104 Y-6.623 Z-0.824
X3.051 Y-6.61 Z-0.834
X2.998 Y-6.598 Z-0.847
X2.945 Y-6.582 Z-0.861
X2.892 Y-6.566 Z-0.877
X2.839 Y-6.546 Z-0.894
X2.786 Y-6.527 Z-0.915
X2.734 Y-6.503 Z-0.935
X2.681 Y-6.48 Z-0.959
X2.575 Y-6.427 Z-1.011
X2.47 Y-6.366 Z-1.069
X2.364 Y-6.299 Z-1.135
X2.259 Y-6.224 Z-1.208
X2.154 Y-6.142 Z-1.288
X2.049 Y-6.053 Z-1.375
X1.944 Y-5.957 Z-1.469
X1.912 Y-5.926 Z-1.5
G2 X1.957 Y-5.486 I1.498 J0.068
G1 X2.081 Y-5.393 Z-1.408
X2.205 Y-5.309 Z-1.324
X2.329 Y-5.234 Z-1.248
X3.806 Y-4.379 Z-0.396
X3.95 Y-4.284 Z-0.317
X3.978 Y-4.264 Z-0.304
X4.097 Y-4.167 Z-0.249
X4.116 Y-4.15 Z-0.242
X4.231 Y-4.036 Z-0.2
X4.328 Y-3.918 Z-0.174
X4.411 Y-3.796 Z-0.163
X4.483 Y-3.665 Z-0.167
X4.544 Y-3.52 Z-0.186
X4.589 Y-3.38 Z-0.218
X4.722 Y-2.892 Z-0.349
X4.733 Y-2.857 Z-0.362
X4.748 Y-2.822 Z-0.375
X4.764 Y-2.786 Z-0.392
X4.783 Y-2.751 Z-0.41
X4.802 Y-2.716 Z-0.431
X4.848 Y-2.646 Z-0.477
X4.902 Y-2.576 Z-0.531
X4.964 Y-2.505 Z-0.593
X5.034 Y-2.435 Z-0.662
X5.111 Y-2.365 Z-0.74
X5.196 Y-2.294 Z-0.825
X5.289 Y-2.224 Z-0.918
X5.39 Y-2.154 Z-1.019
X5.499 Y-2.084 Z-1.127
X5.615 Y-2.013 Z-1.244
X5.739 Y-1.943 Z-1.368
X5.871 Y-1.873 Z-1.499
X5.739 Y-1.943 Z-1.368
X5.615 Y-2.013 Z-1.244
X5.499 Y-2.084 Z-1.127
X5.39 Y-2.154 Z-1.019
X5.289 Y-2.224 Z-0.918
X5.196 Y-2.294 Z-0.825
X5.111 Y-2.365 Z-0.74
X5.034 Y-2.435 Z-0.662
X4.964 Y-2.505 Z-0.593
X4.902 Y-2.576 Z-0.531
X4.848 Y-2.646 Z-0.477
X4.802 Y-2.716 Z-0.431
X4.783 Y-2.751 Z-0.41
X4.764 Y-2.786 Z-0.392
X4.748 Y-2.822 Z-0.375
X4.733 Y-2.857 Z-0.362
X4.722 Y-2.892 Z-0.349
X4.589 Y-3.38 Z-0.218
X4.544 Y-3.52 Z-0.186
X4.483 Y-3.665 Z-0.167
X4.411 Y-3.796 Z-0.163
X4.328 Y-3.918 Z-0.174
X4.231 Y-4.036 Z-0.2
X4.116 Y-4.15 Z-0.242
X4.097 Y-4.167 Z-0.249
X3.978 Y-4.264 Z-0.304
X3.95 Y-4.284 Z-0.317
X3.806 Y-4.379 Z-0.396
X2.329 Y-5.234 Z-1.248
X2.205 Y-5.309 Z-1.324
X2.081 Y-5.393 Z-1.408
X1.957 Y-5.486 Z-1.5
X1.406
X1.254 Y-5.478
X1.132 Y-5.465
G2 X0.837 Y-5.405 I0.152 J1.492
G1 X0.723 Y-5.369
G2 X0.453 Y-5.255 I0.448 J1.432
G1 X0.35 Y-5.199
G2 X0.113 Y-5.038 I0.718 J1.317
G1 X0.023 Y-4.964
G2 X-0.178 Y-4.763 I0.955 J1.156
G1 X-0.252 Y-4.673
X-0.326 Y-4.577
X-0.29 Y-4.456 Z-1.405
X-0.239 Y-4.274 Z-1.269
X-0.199 Y-4.119 Z-1.162
X-0.167 Y-3.988 Z-1.082
X-0.139 Y-3.861 Z-1.014
X-0.114 Y-3.735 Z-0.956
X-0.105 Y-3.684 Z-0.935
X-0.088 Y-3.593 Z-0.905
X-0.078 Y-3.531 Z-0.889
X-0.064 Y-3.42 Z-0.866
X-0.056 Y-3.332 Z-0.855
X-0.051 Y-3.238 Z-0.85
X-0.049 Y-3.19
X-0.048 Y-0.977
X-0.047 Y-0.934 Z-0.852
X-0.038 Y-0.768 Z-0.86
X-0.029 Y-0.681 Z-0.869
X-0.023 Y-0.637 Z-0.876
X0.003 Y-0.474 Z-0.901
X0.021 Y-0.384 Z-0.919
X0.031 Y-0.34 Z-0.93
X0.074 Y-0.175 Z-0.972
X0.103 Y-0.081 Z-1.001
X0.119 Y-0.034 Z-1.018
X0.181 Y0.135 Z-1.079
X0.202 Y0.187 Z-1.101
X0.248 Y0.292 Z-1.147
X0.333 Y0.469 Z-1.231
X0.363 Y0.529 Z-1.262
X0.431 Y0.65 Z-1.33
X0.549 Y0.846 Z-1.448
X0.601 Y0.925 Z-1.5
Y1.011
X-0.03 Y1.642 Z-0.869
X-0.109 Y1.717 Z-0.793
X-0.188 Y1.785 Z-0.725
X-0.267 Y1.846 Z-0.664
X-0.346 Y1.9 Z-0.61
X-0.425 Y1.947 Z-0.564
X-0.504 Y1.986 Z-0.524
X-0.544 Y2.003 Z-0.506
X-0.583 Y2.019 Z-0.492
X-0.623 Y2.031 Z-0.478
X-0.662 Y2.044 Z-0.467
X-0.702 Y2.053 Z-0.456
X-0.741 Y2.062 Z-0.449
X-0.781 Y2.067 Z-0.442
X-0.82 Y2.073 Z-0.438
X-0.86 Y2.074 Z-0.434
X-1.256 Y2.076
X-1.297 Y2.074
X-1.338 Y2.072 Z-0.438
X-1.379 Y2.067 Z-0.442
X-1.42 Y2.061 Z-0.45
X-1.461 Y2.051 Z-0.458
X-1.502 Y2.041 Z-0.469
X-1.543 Y2.051 Z-0.458
X-1.584 Y2.061 Z-0.45
X-1.624 Y2.067 Z-0.442
X-1.665 Y2.072 Z-0.438
X-1.706 Y2.074 Z-0.434
X-1.747 Y2.076
X-2.145 Y2.074
X-2.186 Y2.072 Z-0.438
X-2.227 Y2.066 Z-0.442
X-2.268 Y2.061 Z-0.45
X-2.31 Y2.051 Z-0.458
X-2.351 Y2.041 Z-0.469
Y1.967 Z-0.408
Y1.903 Z-0.359
Y1.847 Z-0.321
Y1.799 Z-0.292
Y1.755 Z-0.271
Y1.715 Z-0.257
Y1.678 Z-0.249
Y-3.19 Z-0.246
Y-3.224 Z-0.249
Y-3.257 Z-0.255
Y-3.291 Z-0.266
Y-3.324 Z-0.28
Y-3.358 Z-0.298
Y-3.463 Z-0.367
Y-3.535 Z-0.423
Y-3.61 Z-0.486
Y-3.771 Z-0.631
Y-3.951 Z-0.8
Y-4.67 Z-1.5
X-2.228 Y-4.685
X-2.104 Y-4.69
X-1.747
X-1.624 Y-4.685
X-1.502 Y-4.67
X-1.379 Y-4.685
X-1.256 Y-4.69
X-0.899
G3 X-0.326 Y-4.577 I0 J1.5
G2 X-0.899 Y-4.69 I-0.573 J1.386
G1 X-1.256
X-1.379 Y-4.685
X-1.502 Y-4.67
Y-4.156 Z-0.997
Y-3.951 Z-0.799
Y-3.771 Z-0.63
Y-3.61 Z-0.486
Y-3.535 Z-0.423
Y-3.463 Z-0.367
Y-3.393 Z-0.318
Y-3.324 Z-0.28
Y-3.291 Z-0.265
Y-3.257 Z-0.255
Y-3.224 Z-0.248
Y1.642 Z-0.246
Y1.678 Z-0.248
Y1.715 Z-0.256
Y1.755 Z-0.271
Y1.799 Z-0.291
Y1.847 Z-0.32
Y1.903 Z-0.358
Y1.967 Z-0.407
Y2.041 Z-0.469
Y1.967 Z-0.407
Y1.903 Z-0.358
Y1.847 Z-0.32
Y1.799 Z-0.291
Y1.755 Z-0.271
Y1.715 Z-0.256
Y1.678 Z-0.248
Y1.642 Z-0.246
Y-3.224 Z-0.248
Y-3.257 Z-0.255
Y-3.291 Z-0.265
Y-3.324 Z-0.28
Y-3.393 Z-0.318
Y-3.463 Z-0.367
Y-3.535 Z-0.423
Y-3.61 Z-0.486
Y-3.771 Z-0.63
Y-3.951 Z-0.799
Y-4.156 Z-0.997
Y-4.67 Z-1.5
X-1.624 Y-4.685
X-1.747 Y-4.69
X-2.104
X-2.228 Y-4.685
X-2.351 Y-4.67
X-2.5 Y-4.687
Y-5.903
Y-4.687
X-2.597 Y-4.593 Z-1.403
X-2.954 Y-4.236 Z-1.046
X-3.037 Y-4.149 Z-0.962
X-3.114 Y-4.062 Z-0.886
X-3.183 Y-3.975 Z-0.817
X-3.244 Y-3.888 Z-0.755
X-3.299 Y-3.801 Z-0.701
X-3.346 Y-3.713 Z-0.654
X-3.366 Y-3.67 Z-0.632
X-3.386 Y-3.626 Z-0.614
X-3.402 Y-3.583 Z-0.596
X-3.419 Y-3.539 Z-0.581
X-3.431 Y-3.496 Z-0.567
X-3.444 Y-3.452 Z-0.556
X-3.453 Y-3.408 Z-0.545
X-3.462 Y-3.365 Z-0.537
X-3.468 Y-3.321 Z-0.53
X-3.473 Y-3.278 Z-0.526
X-3.475 Y-3.234 Z-0.523
X-3.477 Y-3.19
X-3.475 Y1.68 Z-0.522
X-3.473 Y1.718 Z-0.525
X-3.469 Y1.755 Z-0.528
X-3.465 Y1.793 Z-0.533
X-3.451 Y1.869 Z-0.547
X-3.432 Y1.945 Z-0.566
X-3.352 Y1.985 Z-0.526
X-3.312 Y2.001 Z-0.508
X-3.273 Y2.018 Z-0.493
X-3.233 Y2.031 Z-0.478
X-3.193 Y2.043 Z-0.467
X-3.153 Y2.052 Z-0.456
X-3.113 Y2.062 Z-0.449
X-3.073 Y2.067 Z-0.442
X-3.034 Y2.073 Z-0.438
X-2.994 Y2.074 Z-0.434
X-2.597 Y2.076
X-2.556 Y2.074
X-2.515 Y2.072 Z-0.438
X-2.474 Y2.066 Z-0.442
X-2.433 Y2.061 Z-0.45
X-2.392 Y2.051 Z-0.458
X-2.351 Y2.041 Z-0.469
X-2.392 Y2.051 Z-0.458
X-2.433 Y2.061 Z-0.45
X-2.474 Y2.066 Z-0.442
X-2.515 Y2.072 Z-0.438
X-2.556 Y2.074 Z-0.434
X-2.597 Y2.076
X-2.994 Y2.074
X-3.034 Y2.073 Z-0.438
X-3.073 Y2.067 Z-0.442
X-3.113 Y2.062 Z-0.449
X-3.153 Y2.052 Z-0.456
X-3.193 Y2.043 Z-0.467
X-3.233 Y2.031 Z-0.478
X-3.273 Y2.018 Z-0.493
X-3.312 Y2.001 Z-0.508
X-3.352 Y1.985 Z-0.526
X-3.432 Y1.945 Z-0.566
X-3.757 Y2.27 Z-0.241
X-3.882 Y2.299 Z-0.116
X-3.927 Y2.314 Z-0.071
X-3.959 Y2.328 Z-0.038
X-3.98 Y2.343 Z-0.018
X-3.997 Y2.36 Z0
X-3.98 Y2.343 Z-0.018
X-3.959 Y2.328 Z-0.038
X-3.927 Y2.314 Z-0.071
X-3.882 Y2.299 Z-0.116
X-3.757 Y2.27 Z-0.241
X-3.794 Y2.32 Z-0.191
X-3.83 Y2.361 Z-0.15
X-3.979 Y2.51 Z-0.001
Z5
X5.667 Y30.466
Z-0.001 F150
X6.204 Y29.781 Z-0.538 F600
X6.487 Y29.41 Z-0.821
X5.667 Y28.78 Z-0.001
X6.487 Y29.41 Z-0.821
X6.783 Y29.329 Z-0.82
X6.908 Y29.292 Z-0.822
X7.714 Y29.04 Z-0.82
X8.425 Y28.79 Z-0.822
X8.628 Y28.714 Z-0.819
X9.166 Y28.503 Z-0.823
X9.525 Y28.355 Z-0.819
X9.896 Y28.193 Z-0.823
X10.286 Y28.015 Z-0.82
X10.634 Y27.904 Z-0.775
X11.053 Y27.755 Z-0.719
X11.48 Y27.595 Z-0.667
X11.91 Y27.419 Z-0.617
X12.12 Y27.326 Z-0.597
X12.575 Y27.113 Z-0.55
X12.839 Y26.982 Z-0.53
X13.096 Y26.849 Z-0.505
X13.598 Y26.572 Z-0.469
X14.079 Y26.281 Z-0.441
X14.221 Y26.19 Z-0.437
X14.541 Y25.977 Z-0.421
X14.967 Y25.675 Z-0.413
X14.986 Y25.661 Z-0.412
X15.413 Y25.331
X15.507 Y25.254 Z-0.416
X15.823 Y24.986 Z-0.421
X16.105 Y24.732 Z-0.437
X16.257 Y24.59 Z-0.443
X16.674 Y24.177 Z-0.477
X17.053 Y23.767 Z-0.517
X17.207 Y23.59 Z-0.54
X17.418 Y23.34 Z-0.568
X17.762 Y22.907 Z-0.628
X18.086 Y22.466 Z-0.693
X18.177 Y22.337 Z-0.716
X18.39 Y22.021 Z-0.764
X18.596 Y21.701 Z-0.821
X18.615 Y21.679
X18.916 Y21.317 Z-0.819
X19.112 Y21.076 Z-0.821
X19.3 Y20.837 Z-0.819
X19.66 Y20.365 Z-0.82
X19.672 Y20.348
X20.05 Y19.823 Z-0.821
X20.378 Y19.341 Z-0.819
X20.489 Y19.173 Z-0.821
X20.712 Y18.823 Z-0.819
X20.907 Y18.509 Z-0.821
X21.034 Y18.298 Z-0.819
X21.343 Y17.763 Z-0.82
X21.681 Y17.14 Z-0.821
X21.92 Y16.668 Z-0.819
X22.035 Y16.435 Z-0.821
X22.189 Y16.108 Z-0.819
X22.367 Y15.718 Z-0.821
X22.444 Y15.541 Z-0.819
X22.685 Y14.967 Z-0.82
X22.911 Y14.385
X22.962 Y14.246 Z-0.821
X23.152 Y13.708 Z-0.82
X22.958 Y13.511 Z-0.574
X22.89 Y13.439 Z-0.486
X22.83 Y13.369 Z-0.408
X22.691 Y13.196 Z-0.221
X22.652 Y13.142 Z-0.167
X22.536 Y12.963 Z-0.001
X22.652 Y13.142 Z-0.167
X22.691 Y13.196 Z-0.221
X22.83 Y13.369 Z-0.408
X22.89 Y13.439 Z-0.486
X22.958 Y13.511 Z-0.574
X23.152 Y13.708 Z-0.82
X23.207 Y13.651 Z-0.786
X23.259 Y13.593 Z-0.756
X23.341 Y13.497 Z-0.71
X23.384 Y13.442 Z-0.685
X23.424 Y13.386 Z-0.664
X23.525 Y13.234 Z-0.612
X23.777 Y13.162 Z-0.393
X23.833 Y13.145 Z-0.345
X23.884 Y13.126 Z-0.301
X24.097 Y13.04 Z-0.124
X24.25 Y12.962 Z-0.001
X24.097 Y13.04 Z-0.124
X23.884 Y13.126 Z-0.301
X23.833 Y13.145 Z-0.345
X23.777 Y13.162 Z-0.393
X23.525 Y13.234 Z-0.612
X23.524 Y13.123 Z-0.537
X23.525 Y12.973 Z-0.443
X23.524 Y12.881 Z-0.393
X23.525 Y12.749 Z-0.331
X23.524 Y12.684 Z-0.307
Y12.534 Z-0.264
X23.525 Y12.509 Z-0.26
X23.533 Y12.365 Z-0.238
X23.535 Y12.341 Z-0.237
X23.557 Y12.197 Z-0.231
X24.053 Y9.715
X24.072 Y9.581 Z-0.237
X24.074 Y9.559 Z-0.24
X24.081 Y9.424 Z-0.259
Y9.371 Z-0.272
X24.082 Y9.242 Z-0.309
X24.081 Y9.201 Z-0.324
X24.082 Y9.073 Z-0.382
X24.08 Y8.984 Z-0.43
X24.083 Y8.845 Z-0.515
X24.08 Y8.693 Z-0.618
X23.907 Y8.755 Z-0.453
X23.639 Y8.874 Z-0.201
X23.587 Y8.899 Z-0.152
X23.424 Y8.992 Z-0.001
X23.587 Y8.899 Z-0.152
X23.639 Y8.874 Z-0.201
X23.907 Y8.755 Z-0.453
X24.08 Y8.693 Z-0.618
X24.107 Y8.642 Z-0.639
X24.206 Y8.466 Z-0.716
X24.247 Y8.402 Z-0.75
X24.332 Y8.277 Z-0.82
X24.432 Y8.349 Z-0.711
X24.523 Y8.42 Z-0.613
X24.74 Y8.601 Z-0.378
X24.784 Y8.643 Z-0.33
X24.953 Y8.815 Z-0.144
X25.079 Y8.973 Z-0.001
X24.953 Y8.815 Z-0.144
X24.784 Y8.643 Z-0.33
X24.74 Y8.601 Z-0.378
X24.523 Y8.42 Z-0.613
X24.432 Y8.349 Z-0.711
X24.332 Y8.277 Z-0.82
X24.347 Y8.117 Z-0.822
X24.398 Y7.484 Z-0.82
X24.4 Y7.457
X24.44 Y6.658
X24.455 Y5.825
X24.449 Y5.278 Z-0.821
X24.432 Y4.747
X24.404 Y4.219
X24.364 Y3.695
X24.349 Y3.517 Z-0.82
X24.314 Y3.173 Z-0.821
X24.289 Y2.95 Z-0.82
X24.253 Y2.655 Z-0.821
X24.217 Y2.387 Z-0.82
X24.181 Y2.14 Z-0.821
X24.132 Y1.828 Z-0.82
X24.099 Y1.629 Z-0.821
X24.035 Y1.273 Z-0.82
X23.925 Y0.723
X23.803 Y0.177
X23.669 Y-0.365 Z-0.821
X23.532 Y-0.871
X23.388 Y-1.359
X23.234 Y-1.843
X23.071 Y-2.322
X23.014 Y-2.481 Z-0.82
X22.898 Y-2.797 Z-0.821
X22.873 Y-2.863
X22.844 Y-3.012 Z-0.794
X22.785 Y-3.294 Z-0.747
X22.678 Y-3.76 Z-0.669
X22.583 Y-4.127 Z-0.61
X22.481 Y-4.488 Z-0.555
X22.392 Y-4.78 Z-0.513
X22.256 Y-5.196 Z-0.454
X22.132 Y-5.542 Z-0.408
X22.055 Y-5.748 Z-0.383
X22.002 Y-5.884 Z-0.365
X21.866 Y-6.221 Z-0.325
X21.721 Y-6.554 Z-0.288
X21.57 Y-6.882 Z-0.253
X21.439 Y-7.155 Z-0.228
X21.248 Y-7.528 Z-0.194
X21.075 Y-7.846 Z-0.167
X20.956 Y-8.058 Z-0.153
X20.711 Y-8.47 Z-0.124
X20.625 Y-8.61 Z-0.114
X20.466 Y-8.861 Z-0.099
X20.391 Y-8.981 Z-0.089
X20.383 Y-8.994
X20.362 Y-9.018 Z-0.091
X20.224 Y-9.222 Z-0.081
X19.981 Y-9.563 Z-0.069
X19.83 Y-9.766 Z-0.065
X19.729 Y-9.897 Z-0.061
X19.513 Y-10.168 Z-0.06
X19.198 Y-10.542 Z-0.062
X18.918 Y-10.853 Z-0.07
X18.628 Y-11.157 Z-0.083
X18.483 Y-11.302 Z-0.092
X18.328 Y-11.455 Z-0.1
X18.115 Y-11.656 Z-0.117
X18.018 Y-11.746 Z-0.123
X17.756 Y-11.98 Z-0.146
X17.486 Y-12.21 Z-0.171
X17.208 Y-12.437 Z-0.199
X16.946 Y-12.642 Z-0.229
X16.626 Y-12.881 Z-0.266
X16.321 Y-13.098 Z-0.303
X16.119 Y-13.237 Z-0.331
X15.694 Y-13.516 Z-0.388
X15.347 Y-13.731 Z-0.436
X15.001 Y-13.936 Z-0.485
X14.824 Y-14.038 Z-0.512
X14.644 Y-14.138 Z-0.538
X14.38 Y-14.282 Z-0.578
X13.931 Y-14.514 Z-0.646
X13.505 Y-14.723 Z-0.711
X13.101 Y-14.911 Z-0.772
X12.785 Y-15.05 Z-0.821
X12.576 Y-15.177 Z-0.822
X12.137 Y-15.437 Z-0.821
X11.711 Y-15.674 Z-0.822
X11.377 Y-15.854 Z-0.82
X11.271 Y-15.91 Z-0.822
X10.824 Y-16.136
X10.603 Y-16.245 Z-0.82
X10.373 Y-16.353 Z-0.822
X9.812 Y-16.609 Z-0.82
X9.455 Y-16.761 Z-0.822
X8.99 Y-16.953 Z-0.821
X8.519 Y-17.132 Z-0.822
X8.187 Y-17.254 Z-0.82
X8.044 Y-17.304 Z-0.822
X7.564 Y-17.466
X7.354 Y-17.534 Z-0.82
X7.124 Y-17.604 Z-0.822
X7.076 Y-17.567 Z-0.773
X6.304 Y-16.991 Z-0.001
X7.076 Y-17.567 Z-0.773
X7.124 Y-17.604 Z-0.822
X7.089 Y-17.649 Z-0.79
X7.008 Y-17.74 Z-0.725
X6.952 Y-17.83 Z-0.654
X6.894 Y-17.912 Z-0.591
X6.704 Y-18.166 Z-0.401
X6.304 Y-18.688 Z-0.001
X6.704 Y-18.166 Z-0.401
X6.894 Y-17.912 Z-0.591
X6.952 Y-17.83 Z-0.654
X7.008 Y-17.74 Z-0.725
X6.75 Z-0.479
X6.651 Z-0.388
X6.566 Z-0.314
X6.457 Z-0.231
X6.424 Z-0.211
X6.393 Z-0.195
X6.363 Z-0.183
X6.333 Z-0.175
X6.303 Z-0.173
X5.844
X5.672 Y-17.568 Z-0.001
X5.844 Y-17.74 Z-0.173
X5.672 Y-17.912 Z-0.001
Z5
X5.667 Y33.826
Z-0.001 F150
X6.222 Y33.139 Z-0.556 F600
X6.487 Y32.803 Z-0.821
X5.667 Y32.15 Z-0.001
X6.487 Y32.803 Z-0.821
X6.621 Y32.772
X7.19 Y32.626
X7.751 Y32.469
X8.307 Y32.3
X8.859 Y32.121
X9.405 Y31.93
X9.946 Y31.728
X10.481 Y31.516
X11.011 Y31.292
X11.536 Y31.058
X11.7 Y30.982 Z-0.822
X12.059 Y30.812 Z-0.82
X12.567 Y30.559
X12.582 Y30.552
X13.073 Y30.295
X13.251 Y30.199 Z-0.822
X13.574 Y30.02 Z-0.82
X13.756 Y29.917 Z-0.822
X14.068 Y29.735 Z-0.82
X14.254 Y29.624 Z-0.822
X14.555 Y29.44 Z-0.82
X14.745 Y29.322 Z-0.822
X15.036 Y29.136 Z-0.82
X15.229 Y29.01 Z-0.822
X15.51 Y28.823 Z-0.82
X15.707 Y28.689 Z-0.822
X15.978 Y28.499 Z-0.82
X16.177 Y28.357 Z-0.822
X16.438 Y28.167 Z-0.82
X16.64 Y28.017 Z-0.822
X16.891 Y27.826 Z-0.82
X17.096 Y27.667 Z-0.822
X17.337 Y27.475 Z-0.82
X17.544 Y27.307 Z-0.822
X17.776 Y27.116 Z-0.82
X17.985 Y26.939 Z-0.822
X18.206 Y26.748 Z-0.82
X18.418 Y26.562 Z-0.822
X18.63 Y26.372 Z-0.82
X18.843 Y26.176 Z-0.822
X19.045 Y25.987 Z-0.82
X19.26 Y25.782 Z-0.822
X19.453 Y25.594 Z-0.82
X19.668 Y25.379 Z-0.822
X19.852 Y25.192 Z-0.82
X20.069 Y24.968 Z-0.822
X20.244 Y24.783 Z-0.82
X20.46 Y24.549 Z-0.822
X20.626 Y24.366 Z-0.82
X20.844 Y24.121 Z-0.822
X21.001 Y23.941 Z-0.82
X21.218 Y23.686 Z-0.822
X21.367 Y23.508 Z-0.82
X21.583 Y23.243 Z-0.822
X21.724 Y23.068 Z-0.82
X21.94 Y22.793 Z-0.822
X22.072 Y22.62 Z-0.82
X22.287 Y22.335 Z-0.822
X22.412 Y22.165 Z-0.82
X22.625 Y21.869 Z-0.822
X22.742 Y21.703 Z-0.82
X22.953 Y21.397 Z-0.822
X23.063 Y21.235 Z-0.82
X23.272 Y20.917 Z-0.822
X23.374 Y20.759 Z-0.82
X23.581 Y20.431 Z-0.822
X23.676 Y20.276 Z-0.821
X23.88 Y19.937 Z-0.822
X24.169 Y19.437
X24.448 Y18.931
X24.717 Y18.418
X24.975 Y17.899
X25.223 Y17.374
X25.46 Y16.844
X25.686 Y16.307
X25.901 Y15.765
X26.104 Y15.217
X26.297 Y14.663
X26.478 Y14.105
X26.648 Y13.541
X26.806 Y12.973
X26.952 Y12.399
X27.086 Y11.821
X27.208 Y11.239 Z-0.821
X27.318 Y10.652
X27.415 Y10.06
X27.5 Y9.465
X27.573 Y8.865
X27.632 Y8.262
X27.679 Y7.654
X27.712 Y7.043
X27.732 Y6.429
X27.739 Y5.82
X27.732 Y5.209
X27.713 Y4.6
X27.68 Y3.995
X27.635 Y3.393
X27.577 Y2.795
X27.506 Y2.201
X27.423 Y1.611
X27.327 Y1.024
X27.22 Y0.442
X27.1 Y-0.136
X26.968 Y-0.71
X26.825 Y-1.279
X26.67 Y-1.843
X26.503 Y-2.403
X26.325 Y-2.957
X26.136 Y-3.506
X25.936 Y-4.051
X25.724 Y-4.589
X25.502 Y-5.122
X25.269 Y-5.65
X25.026 Y-6.171
X24.772 Y-6.687
X24.508 Y-7.196
X24.234 Y-7.7
X23.95 Y-8.197
X23.656 Y-8.687
X23.352 Y-9.171 Z-0.82
X23.039 Y-9.648
X22.716 Y-10.118
X22.384 Y-10.581
X22.374 Y-10.595
X22.039 Y-11.041
X21.692 Y-11.486
X21.681 Y-11.499
X21.333 Y-11.927
X21.322 Y-11.94
X20.964 Y-12.36
X20.83 Y-12.515 Z-0.822
X20.588 Y-12.786 Z-0.82
X20.446 Y-12.942 Z-0.822
X20.202 Y-13.204 Z-0.82
X20.053 Y-13.362 Z-0.822
X19.809 Y-13.614 Z-0.82
X19.652 Y-13.773 Z-0.822
X19.407 Y-14.016 Z-0.82
X19.243 Y-14.176 Z-0.822
X18.997 Y-14.41 Z-0.82
X18.825 Y-14.57 Z-0.822
X18.579 Y-14.795 Z-0.82
X18.399 Y-14.956 Z-0.822
X18.153 Y-15.172 Z-0.82
X17.965 Y-15.333 Z-0.822
X17.719 Y-15.54 Z-0.82
X17.524 Y-15.701 Z-0.822
X17.278 Y-15.9 Z-0.82
X17.075 Y-16.061 Z-0.822
X16.83 Y-16.25 Z-0.82
X16.618 Y-16.41 Z-0.822
X16.374 Y-16.592 Z-0.82
X16.154 Y-16.751 Z-0.822
X15.911 Y-16.924 Z-0.82
X15.683 Y-17.082 Z-0.822
X15.441 Y-17.247 Z-0.82
X15.204 Y-17.404 Z-0.822
X14.964 Y-17.56 Z-0.82
X14.719 Y-17.716 Z-0.822
X14.48 Y-17.864 Z-0.82
X14.227 Y-18.017 Z-0.822
X13.99 Y-18.158 Z-0.82
X13.728 Y-18.309 Z-0.822
X13.493 Y-18.442 Z-0.82
X13.223 Y-18.591 Z-0.822
X12.99 Y-18.716 Z-0.82
X12.711 Y-18.863 Z-0.822
X12.48 Y-18.98 Z-0.82
X12.193 Y-19.124 Z-0.822
X11.965 Y-19.234 Z-0.82
X11.669 Y-19.374 Z-0.822
X11.443 Y-19.478 Z-0.82
X11.139 Y-19.614 Z-0.822
X10.916 Y-19.711 Z-0.821
X10.603 Y-19.842 Z-0.822
X10.383 Y-19.933 Z-0.821
X10.061 Y-20.06 Z-0.822
X9.844 Y-20.144 Z-0.821
X9.514 Y-20.267 Z-0.822
X9.3 Y-20.344 Z-0.82
X8.962 Y-20.463 Z-0.822
X8.751 Y-20.534 Z-0.821
X8.404 Y-20.647 Z-0.822
X8.196 Y-20.712 Z-0.821
X7.841 Y-20.819 Z-0.822
X7.637 Y-20.878 Z-0.821
X7.273 Y-20.98 Z-0.822
X7.124 Y-21.02 Z-0.821
X6.304 Y-20.382 Z-0.001
X7.124 Y-21.02 Z-0.821
X7.028 Y-21.145 Z-0.724
X6.977 Y-21.206 Z-0.677
X6.926 Y-21.264 Z-0.634
X6.874 Y-21.317 Z-0.596
X6.829 Y-21.392 Z-0.535
X6.76 Y-21.49 Z-0.457
X6.304 Y-22.067 Z-0.001
X6.76 Y-21.49 Z-0.457
X6.829 Y-21.392 Z-0.535
X6.874 Y-21.317 Z-0.596
X6.665 Z-0.401
X6.585 Z-0.33
X6.516 Z-0.274
X6.455 Z-0.23
X6.401 Z-0.199
X6.351 Z-0.179
X6.327 Z-0.174
X6.303 Z-0.173
X5.842
X5.67 Y-21.145 Z-0.001
X5.842 Y-21.317 Z-0.173
X5.67 Y-21.489 Z-0.001
Z5
X15.25 Y8.261
Z0 F150
X15.8 Y8.303 Z-0.299 F600
X16.378 Y8.35 Z-0.632
X16.883 Y8.395 Z-0.94
X16.963 Y8.304 Z-0.907
X17.033 Y8.226 Z-0.883
X17.092 Y8.165 Z-0.865
X17.164 Y8.096 Z-0.849
X17.184 Y7.971 Z-0.757
X17.218 Y7.816 Z-0.65
X17.256 Y7.65 Z-0.539
X17.275 Y7.587 Z-0.5
X17.337 Y7.4 Z-0.387
X17.354 Y7.358 Z-0.364
X17.425 Y7.198 Z-0.278
X17.438 Y7.17 Z-0.266
X17.503 Y7.05 Z-0.213
X17.526 Y7.013 Z-0.198
X17.617 Y6.882 Z-0.153
X17.695 Y6.788 Z-0.13
X17.711 Y6.769 Z-0.127
X17.811 Y6.669 Z-0.116
X17.921 Y6.578 Z-0.118
X18.042 Y6.495 Z-0.136
X18.181 Y6.416 Z-0.173
X18.324 Y6.353 Z-0.223
X18.445 Y6.305 Z-0.271
X18.779 Y6.168 Z-0.408
X19.08 Y6.042 Z-0.537
X19.113 Y6.029 Z-0.552
X19.28 Y5.966 Z-0.635
X19.352 Y5.945 Z-0.675
X19.492 Y5.906 Z-0.753
X19.585 Y5.883 Z-0.807
X19.682 Y5.864 Z-0.867
X19.924 Y5.824 Z-1.02
X20.001 Y5.814 Z-1.072
X20.101 Y5.801 Z-1.143
X20.4 Y5.773 Z-1.358
X20.534 Y5.766 Z-1.458
X20.668 Y5.372 Z-1.319
X20.712 Y5.23 Z-1.273
X20.892 Y4.619 Z-1.067
X21.067 Y3.923 Z-0.842
X21.077 Y3.875 Z-0.827
X21.166 Y3.45 Z-0.697
X21.226 Y3.143 Z-0.601
X21.275 Y2.846 Z-0.515
X21.339 Y2.422 Z-0.388
X21.362 Y2.239 Z-0.338
X21.42 Y1.712 Z-0.188
X21.427 Y1.627 Z-0.166
X21.468 Y1.016 Z0
X21.427 Y1.627 Z-0.166
X21.42 Y1.712 Z-0.188
X21.362 Y2.239 Z-0.338
X21.339 Y2.422 Z-0.388
X21.275 Y2.846 Z-0.515
X21.226 Y3.143 Z-0.601
X21.166 Y3.45 Z-0.697
X21.077 Y3.875 Z-0.827
X21.067 Y3.923 Z-0.842
X20.892 Y4.619 Z-1.067
X20.712 Y5.23 Z-1.273
X20.668 Y5.372 Z-1.319
X20.534 Y5.766 Z-1.458
X20.607 Y5.97 Z-1.383
X20.628 Y6.035 Z-1.359
X20.649 Y6.099 Z-1.339
X20.667 Y6.164 Z-1.318
X20.714 Y6.349 Z-1.27
X20.735 Y6.443 Z-1.247
X20.752 Y6.537 Z-1.228
X20.776 Y6.717 Z-1.195
X20.782 Y6.777 Z-1.184
X20.788 Y6.838 Z-1.177
X20.791 Y6.898 Z-1.169
X20.797 Y7.083 Z-1.155
Y7.17 Z-1.15
X20.794 Y7.256 Z-1.149
X20.778 Y7.438 Z-1.15
X20.771 Y7.496
X20.764 Y7.553 Z-1.154
X20.755 Y7.611 Z-1.157
X20.721 Y7.788 Z-1.176
X20.701 Y7.88 Z-1.188
X20.678 Y7.971 Z-1.204
X20.639 Y8.095 Z-1.228
X20.364 Y8.096 Z-0.992
X20.21 Z-0.868
X20.023 Z-0.723
X19.922 Z-0.649
X19.69 Z-0.499
X19.628 Z-0.461
X19.445 Z-0.372
X19.4 Z-0.353
X19.242 Z-0.305
X19.205 Z-0.296
X19.054 Z-0.28
X18.324 Z-0.278
X18.169 Z-0.292
X18.145 Z-0.296
X17.981 Z-0.343
X17.949 Z-0.353
X17.768 Z-0.438
X17.722 Z-0.461
X17.505 Z-0.597
X17.428 Z-0.649
X17.164 Z-0.849
X17.428 Z-0.649
X17.505 Z-0.597
X17.722 Z-0.461
X17.768 Z-0.438
X17.949 Z-0.353
X17.981 Z-0.343
X18.145 Z-0.296
X18.169 Z-0.292
X18.324 Z-0.278
X19.054 Z-0.28
X19.205 Z-0.296
X19.242 Z-0.305
X19.4 Z-0.353
X19.445 Z-0.372
X19.628 Z-0.461
X19.69 Z-0.499
X19.922 Z-0.649
X20.023 Z-0.723
X20.21 Z-0.868
X20.364 Z-0.992
X20.639 Y8.095 Z-1.228
X20.664 Y8.238 Z-1.184
X20.674 Y8.298 Z-1.169
X20.681 Y8.356 Z-1.153
X20.699 Y8.539 Z-1.115
X20.705 Y8.616 Z-1.1
X20.708 Y8.692 Z-1.088
X20.704 Y8.891 Z-1.062
X20.701 Y8.944 Z-1.055
X20.693 Y9.049 Z-1.047
X20.671 Y9.226 Z-1.042
X20.652 Y9.341
X20.641 Y9.402 Z-1.045
X20.604 Y9.55 Z-1.054
X20.59 Y9.601 Z-1.057
X20.56 Y9.701 Z-1.068
X20.493 Y9.891 Z-1.1
X20.336 Z-0.966
X20.206 Z-0.863
X19.92 Z-0.645
X19.843 Z-0.593
X19.626 Z-0.458
X19.58 Z-0.434
X19.399 Z-0.35
X19.368 Z-0.339
X19.216 Z-0.295
X19.18 Z-0.289
X19.026 Z-0.275
X18.296 Z-0.276
X18.145 Z-0.293
X18.109 Z-0.301
X17.951 Z-0.35
X17.906 Z-0.369
X17.724 Z-0.458
X17.64 Z-0.508
X17.623 Y9.873 Z-0.505
X17.536 Y9.783 Z-0.493
X17.431 Y9.654 Z-0.49
X17.4 Y9.611
X17.34 Y9.523 Z-0.499
X17.28 Y9.435 Z-0.512
X17.193 Y9.283 Z-0.547
X17.166 Y9.232 Z-0.56
X17.104 Y9.092 Z-0.605
X17.061 Y8.994 Z-0.642
X16.99 Y8.797 Z-0.729
X16.964 Y8.714 Z-0.768
X16.929 Y8.58 Z-0.837
X16.883 Y8.395 Z-0.94
X16.929 Y8.58 Z-0.837
X16.964 Y8.714 Z-0.768
X16.99 Y8.797 Z-0.729
X17.061 Y8.994 Z-0.642
X17.104 Y9.092 Z-0.605
X17.166 Y9.232 Z-0.56
X17.193 Y9.283 Z-0.547
X17.28 Y9.435 Z-0.512
X17.34 Y9.523 Z-0.499
X17.4 Y9.611 Z-0.49
X17.431 Y9.654
X17.536 Y9.783 Z-0.493
X17.623 Y9.873 Z-0.505
X17.64 Y9.891 Z-0.508
X17.616 Y10.078 Z-0.381
X17.613 Y10.124 Z-0.352
X17.608 Y10.274 Z-0.261
Y10.331 Z-0.229
X17.618 Y10.504 Z-0.14
X17.638 Y10.655 Z-0.077
X17.671 Y10.791 Z-0.032
X17.719 Y10.929 Z0
X17.671 Y10.791 Z-0.032
X17.638 Y10.655 Z-0.077
X17.618 Y10.504 Z-0.14
X17.608 Y10.331 Z-0.229
Y10.274 Z-0.261
X17.613 Y10.124 Z-0.352
X17.616 Y10.078 Z-0.381
X17.64 Y9.891 Z-0.508
X17.724 Z-0.458
X17.906 Z-0.369
X17.951 Z-0.35
X18.109 Z-0.301
X18.145 Z-0.293
X18.296 Z-0.276
X19.026 Z-0.275
X19.18 Z-0.289
X19.216 Z-0.295
X19.368 Z-0.339
X19.399 Z-0.35
X19.58 Z-0.434
X19.626 Z-0.458
X19.843 Z-0.593
X19.92 Z-0.645
X20.206 Z-0.863
X20.336 Z-0.966
X20.493 Z-1.1
X20.526 Y10.101 Z-1.029
X20.533 Y10.178 Z-1.004
X20.537 Y10.254 Z-0.983
X20.543 Y10.429 Z-0.938
X20.542 Y10.525 Z-0.918
X20.541 Y10.573 Z-0.91
X20.528 Y10.762 Z-0.881
X20.512 Y10.875 Z-0.87
X20.477 Y11.064 Z-0.856
X20.451 Y11.167 Z-0.855
X20.405 Y11.324 Z-0.859
X20.377 Y11.405 Z-0.865
X20.338 Y11.508 Z-0.879
X20.3 Y11.596 Z-0.889
X20.282 Y11.636 Z-0.895
X20.243 Y11.713 Z-0.911
X20.163 Y11.862 Z-0.944
X20.115 Y11.943 Z-0.968
X20.089 Y11.983 Z-0.981
X19.987 Y12.135 Z-1.036
X19.941 Y12.196 Z-1.06
X19.893 Y12.256 Z-1.087
X19.753 Y12.421 Z-1.167
X19.693 Y12.486 Z-1.204
X19.605 Y12.442 Z-1.134
X19.452 Y12.362 Z-1.012
X19.35 Y12.305 Z-0.931
X19.217 Y12.224 Z-0.831
X19.102 Y12.151 Z-0.746
X19.026 Y12.101 Z-0.692
X18.832 Y11.964 Z-0.556
X18.469 Y11.72 Z-0.312
X18.303 Y11.613 Z-0.206
X18.163 Y11.511 Z-0.121
X18.062 Y11.424 Z-0.068
X18.052 Y11.415 Z-0.064
X17.961 Y11.32 Z-0.025
X17.885 Y11.226 Z0
X17.961 Y11.32 Z-0.025
X18.052 Y11.415 Z-0.064
X18.062 Y11.424 Z-0.068
X18.163 Y11.511 Z-0.121
X18.303 Y11.613 Z-0.206
X18.469 Y11.72 Z-0.312
X18.832 Y11.964 Z-0.556
X19.026 Y12.101 Z-0.692
X19.102 Y12.151 Z-0.746
X19.217 Y12.224 Z-0.831
X19.35 Y12.305 Z-0.931
X19.452 Y12.362 Z-1.012
X19.605 Y12.442 Z-1.134
X19.693 Y12.486 Z-1.204
X19.692 Y12.53 Z-1.191
X19.685 Y12.766 Z-1.122
X19.677 Y12.949 Z-1.067
X19.65 Y13.364 Z-0.947
X19.639 Y13.49 Z-0.913
X19.611 Y13.777 Z-0.831
X19.559 Y14.212 Z-0.713
X19.5 Y14.599 Z-0.609
X19.429 Y15.008 Z-0.504
X19.345 Y15.417 Z-0.399
X19.294 Y15.647 Z-0.343
X19.251 Y15.827 Z-0.297
X19.114 Y16.357 Z-0.169
X19.03 Y16.649 Z-0.097
X18.905 Y17.062 Z0
Z5
X10.006 Y15.781
Z-1.5 F150
X10.013 Y15.731 F600
X10.052 Y15.374
X10.059 Y15.281
X10.076 Y14.922
X10.077 Y14.828
X10.071 Y14.469
X10.066 Y14.374
X10.038 Y14.016
X10.027 Y13.92
X9.975 Y13.566
X9.957 Y13.468
X9.882 Y13.118
X9.857 Y13.02
X9.759 Y12.675
X9.726 Y12.577
X9.604 Y12.24
X9.562 Y12.135
X9.382 Y11.736
X9.326 Y11.626
X9.114 Y11.243
X9.051 Y11.139
X8.808 Y10.774
X8.737 Y10.676
X8.466 Y10.332
X8.386 Y10.239
X8.088 Y9.919
X8 Y9.832
X7.677 Y9.537
X7.581 Y9.456
X7.234 Y9.19
X7.128 Y9.116
X6.76 Y8.88
X6.645 Y8.813
X6.241 Y8.603
X6.127 Y8.549
X5.709 Y8.374
X5.6 Y8.333
X5.17 Y8.192
X5.067 Y8.162
X4.628 Y8.051
X4.533 Y8.03
X4.087 Y7.948
X3.999 Y7.934
X3.548 Y7.879
X3.469 Y7.871
X3.016 Y7.839
X2.944 Y7.836
X2.491 Y7.826
X2.446 Y7.825
X2.283 Y7.827
X2.274
X0.774 Y7.848
X-0.722 Y7.858
X-4.742
G2 X-6.242 Y9.358 I0 J1.5
G1 Y20.28
G2 X-4.742 Y21.78 I1.5 J0
G1 X0.77
X1.652 Y21.798
X2.559 Y21.816
X2.62
X3.165 Y21.804
X3.245 Y21.8
X3.691 Y21.767
X3.789 Y21.757
X4.229 Y21.695
X4.318 Y21.679
X4.566 Y21.629
X4.632 Y21.614
X4.877 Y21.553
X4.942 Y21.535
X5.184 Y21.463
X5.248 Y21.442
X5.487 Y21.359
X5.548 Y21.337
X5.784 Y21.243
X5.845 Y21.217
X6.076 Y21.114
X6.136 Y21.085
X6.362 Y20.971
X6.421 Y20.94
X6.642 Y20.816
X6.7 Y20.782
X6.915 Y20.649
X6.971 Y20.612
X7.18 Y20.469
X7.236 Y20.429
X7.438 Y20.277
X7.492 Y20.234
X7.687 Y20.073
X7.74 Y20.027
X7.927 Y19.857
X7.978 Y19.808
X8.157 Y19.629
X8.207 Y19.576
X8.377 Y19.389
X8.425 Y19.333
X8.586 Y19.137
X8.641 Y19.066
X8.852 Y18.776
X8.91 Y18.69
X9.1 Y18.387
X9.15 Y18.299
X9.32 Y17.983
X9.363 Y17.895
X9.511 Y17.568
X9.549 Y17.479
X9.675 Y17.143
X9.706 Y17.053
X9.811 Y16.71
X9.836 Y16.619
X9.919 Y16.27
X9.938 Y16.178
X10 Y15.824
X10.006 Y15.781
Z5
X-3.981 Y11.102
Z-0.001 F150
X-3.815 Y10.936 Z-0.166 F600
X-3.77 Y10.896 Z-0.211
X-3.716 Y10.856 Z-0.265
X-3.653 Y10.816 Z-0.329
X-3.58 Y10.777 Z-0.402
X-3.497 Y10.737 Z-0.484
X-3.405 Y10.697 Z-0.577
X-3.981 Y10.121 Z-0.001
X-3.405 Y10.697 Z-0.577
X-3.323 Y10.734 Z-0.614
X-3.241 Y10.779 Z-0.658
X-3.16 Y10.83 Z-0.709
X-3.078 Y10.888 Z-0.767
X-2.997 Y10.952 Z-0.832
X-2.915 Y11.024 Z-0.903
X-2.833 Y11.102 Z-0.982
X-2.567 Y11.369 Z-1.248
X-2.458 Y11.482 Z-1.361
X-2.984 Z-0.839
X-3.338 Z-0.49
X-3.475 Z-0.358
X-3.595 Z-0.248
X-3.65 Z-0.2
X-3.703 Z-0.159
X-3.73 Z-0.142
X-3.755 Z-0.128
X-3.781 Z-0.118
X-3.807 Z-0.113
X-3.815 Y11.474 Z-0.105
X-3.92 Y11.37 Z-0.001
X-3.815 Y11.474 Z-0.105
X-3.807 Y11.482 Z-0.113
X-3.815 Y11.49 Z-0.105
X-3.92 Y11.594 Z-0.001
X-3.815 Y11.49 Z-0.105
X-3.807 Y11.482 Z-0.113
X-3.781 Z-0.118
X-3.755 Z-0.128
X-3.73 Z-0.142
X-3.703 Z-0.159
X-3.65 Z-0.2
X-3.595 Z-0.248
X-3.475 Z-0.358
X-3.338 Z-0.49
X-2.984 Z-0.839
X-2.458 Z-1.361
X-2.34 Y11.595 Z-1.474
X-2.315 Y11.62 Z-1.5
Y11.862
X-2.319 Y11.975
X-2.899 Z-0.923
X-3.29 Z-0.537
X-3.441 Z-0.391
X-3.573 Z-0.267
X-3.634 Z-0.213
X-3.693 Z-0.166
X-3.722 Z-0.147
X-3.75 Z-0.13
X-3.779 Z-0.119
X-3.807 Z-0.113
X-3.815 Y11.982 Z-0.105
X-3.92 Y12.087 Z-0.001
X-3.815 Y11.982 Z-0.105
X-3.807 Y11.975 Z-0.113
X-3.92 Y11.862 Z-0.001
X-3.807 Y11.975 Z-0.113
X-3.779 Z-0.119
X-3.75 Z-0.13
X-3.722 Z-0.147
X-3.693 Z-0.166
X-3.634 Z-0.213
X-3.573 Z-0.267
X-3.441 Z-0.391
X-3.29 Z-0.537
X-2.899 Z-0.923
X-2.319 Z-1.5
X-2.315 Y12.088
Y12.354
X-2.319 Y12.468
X-2.898 Z-0.924
X-3.289 Z-0.538
X-3.44 Z-0.392
X-3.572 Z-0.268
X-3.633 Z-0.215
X-3.692 Z-0.167
X-3.721 Z-0.148
X-3.749 Z-0.131
X-3.778 Z-0.12
X-3.806 Z-0.114
X-3.815 Y12.476 Z-0.105
X-3.92 Y12.581 Z-0.001
X-3.815 Y12.476 Z-0.105
X-3.806 Y12.468 Z-0.114
X-3.815 Y12.46 Z-0.105
X-3.92 Y12.355 Z-0.001
X-3.815 Y12.46 Z-0.105
X-3.806 Y12.468 Z-0.114
X-3.778 Z-0.12
X-3.749 Z-0.131
X-3.721 Z-0.148
X-3.692 Z-0.167
X-3.633 Z-0.215
X-3.572 Z-0.268
X-3.44 Z-0.392
X-3.289 Z-0.538
X-2.898 Z-0.924
X-2.319 Z-1.5
X-2.315 Y12.582
Y12.848
X-2.319 Y12.961
X-2.899 Z-0.923
X-3.29 Z-0.537
X-3.44 Z-0.391
X-3.573 Z-0.267
X-3.634 Z-0.214
X-3.693 Z-0.166
X-3.722 Z-0.147
X-3.75 Z-0.13
X-3.779 Z-0.119
X-3.807 Z-0.113
X-3.815 Y12.969 Z-0.105
X-3.92 Y13.074 Z-0.001
X-3.815 Y12.969 Z-0.105
X-3.807 Y12.961 Z-0.113
X-3.815 Y12.954 Z-0.105
X-3.92 Y12.849 Z-0.001
X-3.815 Y12.954 Z-0.105
X-3.807 Y12.961 Z-0.113
X-3.779 Z-0.119
X-3.75 Z-0.13
X-3.722 Z-0.147
X-3.693 Z-0.166
X-3.634 Z-0.214
X-3.573 Z-0.267
X-3.44 Z-0.391
X-3.29 Z-0.537
X-2.899 Z-0.923
X-2.319 Z-1.5
X-2.315 Y13.074
Y13.341
X-2.319 Y13.454
X-2.899 Z-0.923
X-3.29 Z-0.537
X-3.44 Z-0.391
X-3.573 Z-0.267
X-3.634 Z-0.214
X-3.693 Z-0.166
X-3.722 Z-0.147
X-3.75 Z-0.13
X-3.779 Z-0.119
X-3.807 Z-0.113
X-3.815 Y13.446 Z-0.105
X-3.92 Y13.342 Z-0.001
X-3.815 Y13.446 Z-0.105
X-3.807 Y13.454 Z-0.113
X-3.815 Y13.462 Z-0.105
X-3.92 Y13.566 Z-0.001
X-3.815 Y13.462 Z-0.105
X-3.807 Y13.454 Z-0.113
X-3.779 Z-0.119
X-3.75 Z-0.13
X-3.722 Z-0.147
X-3.693 Z-0.166
X-3.634 Z-0.214
X-3.573 Z-0.267
X-3.44 Z-0.391
X-3.29 Z-0.537
X-2.899 Z-0.923
X-2.319 Z-1.5
X-2.315 Y13.567
Y13.834
X-2.319 Y13.948
X-2.898 Z-0.924
X-3.289 Z-0.538
X-3.44 Z-0.392
X-3.572 Z-0.268
X-3.633 Z-0.215
X-3.692 Z-0.167
X-3.721 Z-0.148
X-3.749 Z-0.131
X-3.778 Z-0.12
X-3.806 Z-0.114
X-3.815 Y13.939 Z-0.105
X-3.92 Y13.835 Z-0.001
X-3.815 Y13.939 Z-0.105
X-3.806 Y13.948 Z-0.114
X-3.92 Y14.06 Z-0.001
X-3.806 Y13.948 Z-0.114
X-3.778 Z-0.12
X-3.749 Z-0.131
X-3.721 Z-0.148
X-3.692 Z-0.167
X-3.633 Z-0.215
X-3.572 Z-0.268
X-3.44 Z-0.392
X-3.289 Z-0.538
X-2.898 Z-0.924
X-2.319 Z-1.5
X-2.315 Y14.061
Y14.328
X-2.319 Y14.441
X-2.899 Z-0.923
X-3.29 Z-0.537
X-3.44 Z-0.391
X-3.573 Z-0.267
X-3.634 Z-0.214
X-3.693 Z-0.166
X-3.722 Z-0.147
X-3.75 Z-0.13
X-3.779 Z-0.119
X-3.807 Z-0.113
X-3.815 Y14.433 Z-0.105
X-3.92 Y14.329 Z-0.001
X-3.815 Y14.433 Z-0.105
X-3.807 Y14.441 Z-0.113
X-3.92 Y14.553 Z-0.001
X-3.807 Y14.441 Z-0.113
X-3.779 Z-0.119
X-3.75 Z-0.13
X-3.722 Z-0.147
X-3.693 Z-0.166
X-3.634 Z-0.214
X-3.573 Z-0.267
X-3.44 Z-0.391
X-3.29 Z-0.537
X-2.899 Z-0.923
X-2.319 Z-1.5
X-2.315 Y14.554
Y14.821
X-2.319 Y14.934
X-2.899 Z-0.923
X-3.29 Z-0.537
X-3.441 Z-0.391
X-3.573 Z-0.267
X-3.634 Z-0.213
X-3.693 Z-0.166
X-3.722 Z-0.147
X-3.75 Z-0.13
X-3.779 Z-0.119
X-3.807 Z-0.113
X-3.815 Y14.941 Z-0.105
X-3.92 Y15.046 Z-0.001
X-3.815 Y14.941 Z-0.105
X-3.807 Y14.934 Z-0.113
X-3.815 Y14.926 Z-0.105
X-3.92 Y14.821 Z-0.001
X-3.815 Y14.926 Z-0.105
X-3.807 Y14.934 Z-0.113
X-3.779 Z-0.119
X-3.75 Z-0.13
X-3.722 Z-0.147
X-3.693 Z-0.166
X-3.634 Z-0.213
X-3.573 Z-0.267
X-3.441 Z-0.391
X-3.29 Z-0.537
X-2.899 Z-0.923
X-2.319 Z-1.5
X-2.315 Y15.047
Y15.313
G3 X-2.481 Y16 I-1.5 J0
G1 X-2.655 Y15.957 Z-1.327
X-2.817 Y15.913 Z-1.165
X-2.967 Y15.87 Z-1.014
X-3.107 Y15.827 Z-0.875
X-3.235 Y15.783 Z-0.747
X-3.351 Y15.74 Z-0.63
X-3.457 Y15.697 Z-0.524
X-3.551 Y15.653 Z-0.43
X-3.634 Y15.61 Z-0.347
X-3.706 Y15.566 Z-0.276
X-3.766 Y15.523 Z-0.215
X-3.815 Y15.48 Z-0.166
X-3.981 Y15.314 Z-0.001
X-3.815 Y15.48 Z-0.166
X-3.766 Y15.523 Z-0.215
X-3.706 Y15.566 Z-0.276
X-3.634 Y15.61 Z-0.347
X-3.551 Y15.653 Z-0.43
X-3.457 Y15.697 Z-0.524
X-3.351 Y15.74 Z-0.63
X-3.235 Y15.783 Z-0.747
X-3.107 Y15.827 Z-0.875
X-2.967 Y15.87 Z-1.014
X-2.817 Y15.913 Z-1.165
X-2.655 Y15.957 Z-1.327
X-2.481 Y16 Z-1.5
Y18.018
X0.785
X0.814 Y18.019
X1.727 Y18.036
X1.728
X2.594 Y18.054
X2.819 Y18.051
X3.024 Y18.044
X3.195 Y18.034
X3.337 Y18.021
X3.631 Y17.98
X3.77 Y17.951
X3.904 Y17.918
X4.213 Y17.818
X4.495 Y17.697
X4.765 Y17.554
X5.017 Y17.388
X5.263 Y17.193
X5.358 Y17.107
X5.459 Y17.005
X5.555 Y16.9
X5.639 Y16.798
X5.761 Y16.629
X5.869 Y16.457
X5.966 Y16.274
X6.052 Y16.082
X6.127 Y15.882
X6.19 Y15.676
X6.24 Y15.465
X6.277 Y15.25
X6.301 Y15.034
X6.311 Y14.817
X6.308 Y14.602
X6.291 Y14.39
X6.261 Y14.182
X6.218 Y13.98
X6.163 Y13.786
X6.096 Y13.601
X5.988 Y13.362
X5.865 Y13.139
X5.724 Y12.927
X5.568 Y12.73
X5.398 Y12.547
X5.215 Y12.381
X5.021 Y12.232
X4.814 Y12.101
X4.605 Y11.991
X4.373 Y11.891
X4.117 Y11.804
X3.835 Y11.729
X3.528 Y11.669
X3.196 Y11.625
X2.838 Y11.597
X2.444 Y11.588
X2.324
X2.11 Y11.592
X2.105
X0.711 Y11.612
X0.7
X-0.709 Y11.62
X-0.719
X-2.315
Z5
X-0.987 Y12.968
Z-1.5 F150
G3 X0.066 Y12.536 I1.053 J1.068 F600
G1 X1.235
G3 X2.533 Y13.285 I0 J1.5
G1 X3.118 Y14.296
G3 X3.118 Y15.797 I-1.299 J0.751
G1 X2.533 Y16.808
G3 X1.235 Y17.558 I-1.299 J-0.751
G1 X0.066
G3 X-1.233 Y16.808 I0 J-1.5
G1 X-1.817 Y15.797
G3 X-1.817 Y14.296 I1.299 J-0.751
G1 X-1.233 Y13.285
G3 X-0.987 Y12.968 I1.299 J0.751
G1 Z5
X-3.981 Y19.518
Z-0.001 F150
X-2.482 Y18.019 Z-1.499 F600
Z5
X-4.127 Y27.52
Z-0.001 F150
X-2.716 Y28.931 Z-1.412 F600
X-1.305 Y27.52 Z-0.001
X-2.716 Y28.931 Z-1.412
X-2.715 Y34.481
X-2.823 Y34.578 Z-1.304
X-3.668 Y35.328 Z-0.458
X-4.125 Y35.729 Z-0.001
X-3.668 Y35.328 Z-0.458
X-2.823 Y34.578 Z-1.304
X-2.715 Y34.481 Z-1.412
X-2.181 Y35.071 Z-0.879
X-1.882 Y35.396 Z-0.579
X-1.59 Y35.711 Z-0.287
X-1.304 Y36.015 Z-0.001
Z5
X3.406 Y33.868
Z-1.5 F150
X4.905 Y35.367 Z-0.001 F600
Z5
X35.05 Y0.829
Z-0.001 F150
X35.501 Y-0.155 Z-0.985 F600
Z5
X45.013 Y0.08
Z-0.751 F150
X45.121 Y-0.107 Z-0.564 F600
X45.18 Y-0.2 Z-0.471
X45.242 Y-0.293 Z-0.378
X45.308 Y-0.386 Z-0.285
X45.379 Y-0.479 Z-0.191
X45.457 Y-0.573 Z-0.098
X45.545 Y-0.666 Z-0.005
X45.549 Y-0.67 Z-0.001
Z5
X46.067 Y0.105
Z-0.126 F150
X46.18 Y-0.009 Z-0.001 F600
Z5
X-10.193 Y-24.396
Z0 F150
X-9.563 Y-24.496 Z-0.1 F600
X-8.932 Y-24.59 Z-0.194
X-8.301 Y-24.677 Z-0.281
X-7.67 Y-24.758 Z-0.362
X-7.039 Y-24.832 Z-0.436
X-6.408 Y-24.9 Z-0.504
X-5.776 Y-24.962 Z-0.565
X-5.143 Y-25.017 Z-0.62
X-4.51 Y-25.065 Z-0.668
X-4.127 Y-25.091 Z-0.694
X-4.043 Y-25.094 Z-0.702
X-3.957 Y-25.092 Z-0.715
X-3.872 Y-25.085 Z-0.734
X-3.783 Y-25.071 Z-0.757
X-3.694 Y-25.052 Z-0.786
X-3.604 Y-25.028 Z-0.82
X-3.642 Y-24.906 Z-0.703
X-3.681 Y-24.794 Z-0.598
X-3.722 Y-24.693 Z-0.502
X-3.764 Y-24.603 Z-0.418
X-3.807 Y-24.524 Z-0.345
X-3.852 Y-24.455 Z-0.282
X-3.898 Y-24.397 Z-0.23
X-4.126 Y-24.138 Z-0.001
X-3.898 Y-24.397 Z-0.23
X-3.852 Y-24.455 Z-0.282
X-3.807 Y-24.524 Z-0.345
X-3.764 Y-24.603 Z-0.418
X-3.722 Y-24.693 Z-0.502
X-3.681 Y-24.794 Z-0.598
X-3.642 Y-24.906 Z-0.703
X-3.604 Y-25.028 Z-0.82
X-3.23 Y-25.069 Z-0.821
X-2.806 Y-25.11 Z-0.82
X-2.595 Y-25.128 Z-0.821
X-2.078 Y-25.166 Z-0.82
X-1.465 Y-25.2
X-1.404 Y-25.206 Z-0.817
X-1.343 Y-25.21 Z-0.816
X-1.075 Y-25.215 Z-0.82
X-0.67 Y-25.225 Z-0.823
X-0.035 Y-25.234 Z-0.82
X0.683 Y-25.224 Z-0.822
X1.032 Y-25.215 Z-0.82
X1.385 Y-25.209 Z-0.814
X2.083 Y-25.19 Z-0.794
X2.779 Y-25.163 Z-0.767
X3.472 Y-25.128 Z-0.732
X4.163 Y-25.086 Z-0.69
X4.853 Y-25.036 Z-0.64
X5.541 Y-24.979 Z-0.583
X5.668 Y-24.967 Z-0.571
X5.721 Y-24.96 Z-0.567
X5.774 Y-24.951 Z-0.566
X5.818 Y-24.941
X5.862 Y-24.931 Z-0.569
X5.906 Y-24.917 Z-0.573
X5.949 Y-24.903 Z-0.58
X5.992 Y-24.886 Z-0.587
X6.034 Y-24.869 Z-0.598
X6.076 Y-24.848 Z-0.609
X6.118 Y-24.827 Z-0.623
X6.16 Y-24.803 Z-0.638
X6.201 Y-24.778 Z-0.656
X6.236 Y-24.754 Z-0.671
X6.339 Y-24.676 Z-0.727
X6.407 Y-24.617 Z-0.771
X6.473 Y-24.552 Z-0.82
X6.412 Y-24.495 Z-0.751
X6.299 Y-24.396 Z-0.631
X5.669 Y-23.879 Z-0.001
X6.299 Y-24.396 Z-0.631
X6.412 Y-24.495 Z-0.751
X6.473 Y-24.552 Z-0.82
X6.832 Y-24.474 Z-0.821
X7.034 Y-24.428 Z-0.82
X7.491 Y-24.318 Z-0.821
X8.144 Y-24.148
X8.791 Y-23.965
X9.421 Y-23.772
X10.005 Y-23.579 Z-0.82
X10.585 Y-23.374
X11.158 Y-23.159
X11.727 Y-22.933
X11.937 Y-22.846 Z-0.821
X12.289 Y-22.696 Z-0.82
X12.547 Y-22.583 Z-0.821
X12.846 Y-22.449 Z-0.82
X13.151 Y-22.308 Z-0.821
X13.398 Y-22.191 Z-0.82
X13.747 Y-22.021 Z-0.821
X13.943 Y-21.923 Z-0.82
X14.336 Y-21.721 Z-0.821
X14.918 Y-21.409
X15.492 Y-21.085
X16.059 Y-20.75
X16.576 Y-20.429 Z-0.82
X17.083 Y-20.101
X17.582 Y-19.763
X18.075 Y-19.416
X18.246 Y-19.293 Z-0.821
X18.561 Y-19.059 Z-0.82
X18.772 Y-18.901 Z-0.821
X19.04 Y-18.694 Z-0.82
X19.289 Y-18.498 Z-0.821
X19.511 Y-18.319 Z-0.82
X19.798 Y-18.084 Z-0.821
X19.975 Y-17.936 Z-0.82
X20.297 Y-17.661 Z-0.821
X20.788 Y-17.227
X21.269 Y-16.783
X21.741 Y-16.329
X22.177 Y-15.891
X22.593 Y-15.457 Z-0.82
X23.001 Y-15.015
X23.4 Y-14.565
X23.411 Y-14.553
X23.791 Y-14.108
X23.951 Y-13.914 Z-0.821
X24.173 Y-13.643 Z-0.82
X24.363 Y-13.404 Z-0.821
X24.546 Y-13.17 Z-0.82
X24.764 Y-12.885 Z-0.821
X24.91 Y-12.69 Z-0.82
X25.154 Y-12.358 Z-0.821
X25.533 Y-11.822
X25.901 Y-11.277
X26.257 Y-10.725
X26.59 Y-10.185
X26.897 Y-9.664
X27.194 Y-9.136 Z-0.82
X27.481 Y-8.602
X27.488 Y-8.588
X27.758 Y-8.062
X27.864 Y-7.847 Z-0.822
X28.024 Y-7.516 Z-0.82
X28.15 Y-7.25 Z-0.822
X28.281 Y-6.963 Z-0.82
X28.422 Y-6.645 Z-0.822
X28.526 Y-6.405 Z-0.82
X28.683 Y-6.034 Z-0.822
X28.761 Y-5.841 Z-0.82
X28.93 Y-5.416 Z-0.822
X29.165 Y-4.792 Z-0.821
X29.386 Y-4.161
X29.592 Y-3.532
X29.772 Y-2.942
X29.939 Y-2.347 Z-0.82
X30.096 Y-1.747
X30.24 Y-1.142
X30.291 Y-0.92 Z-0.822
X30.373 Y-0.533 Z-0.82
X30.432 Y-0.246 Z-0.822
X30.444 Y-0.192
X30.457 Y-0.138 Z-0.826
X30.474 Y-0.085 Z-0.83
X30.49 Y-0.032 Z-0.838
X30.51 Y0.021 Z-0.846
X30.531 Y0.073 Z-0.857
X30.563 Y0.146 Z-0.876
X30.821 Y0.66 Z-1.041
X31.115 Y1.255 Z-1.24
X31.184 Y1.399 Z-1.289
X29.972 Y2.054 Z-0.001
X31.184 Y1.399 Z-1.289
X33.092 Y3.213 Z-1.163
X33.134 Y3.251
X33.206 Y3.311 Z-1.165
X32.773 Y4.474 Z-0.001
X33.206 Y3.311 Z-1.165
X33.263 Y3.328 Z-1.146
X33.321 Y3.345 Z-1.13
X33.378 Y3.359 Z-1.115
X33.435 Y3.373 Z-1.102
X33.493 Y3.384 Z-1.09
X33.55 Y3.395 Z-1.08
X33.607 Y3.403 Z-1.071
X33.665 Y3.411 Z-1.065
X33.722 Y3.415 Z-1.058
X33.779 Y3.42 Z-1.055
X33.837 Y3.421 Z-1.052
X44.924 Y3.423
X45.039 Y3.616 Z-0.86
X45.1 Y3.712 Z-0.763
X45.164 Y3.808 Z-0.667
X45.232 Y3.905 Z-0.571
X45.304 Y4.001 Z-0.474
X45.381 Y4.097 Z-0.378
X45.464 Y4.194 Z-0.282
X45.555 Y4.29 Z-0.185
X45.619 Y4.352 Z-0.124
X45.766 Y4.475 Z-0.001
X45.619 Y4.352 Z-0.124
X45.555 Y4.29 Z-0.185
X45.464 Y4.194 Z-0.282
X45.381 Y4.097 Z-0.378
X45.304 Y4.001 Z-0.474
X45.232 Y3.905 Z-0.571
X45.164 Y3.808 Z-0.667
X45.1 Y3.712 Z-0.763
X45.039 Y3.616 Z-0.86
X44.924 Y3.423 Z-1.052
X45.109 Y3.324 Z-0.953
X45.199 Y3.151 Z-0.78
X45.296 Y2.977 Z-0.607
X45.403 Y2.804 Z-0.433
X45.46 Y2.717 Z-0.347
X45.522 Y2.631 Z-0.26
X45.588 Y2.544 Z-0.173
X45.661 Y2.457 Z-0.087
X45.74 Y2.372 Z-0.001
X45.661 Y2.457 Z-0.087
X45.588 Y2.544 Z-0.173
X45.522 Y2.631 Z-0.26
X45.46 Y2.717 Z-0.347
X45.403 Y2.804 Z-0.433
X45.296 Y2.977 Z-0.607
X45.199 Y3.151 Z-0.78
X45.109 Y3.324 Z-0.953
X45.237 Z-0.853
X45.366 Z-0.757
X45.494 Z-0.666
X45.622 Z-0.582
X45.75 Z-0.506
X45.814 Z-0.472
X45.942 Z-0.411
X46.006 Z-0.385
X46.07 Z-0.363
X46.134 Z-0.344
X46.31 Y3.17 Z-0.16
X46.397 Y3.083 Z-0.068
X46.461 Y3.012 Z-0.001
X46.397 Y3.083 Z-0.068
X46.31 Y3.17 Z-0.16
X46.134 Y3.324 Z-0.344
X46.309 Y3.461 Z-0.177
X46.397 Y3.54 Z-0.093
X46.446 Y3.59 Z-0.045
X46.494 Y3.64 Z-0.001
Z5
X-0.538 Y-23.635
Z-0.001 F150
X0.962 Y-22.136 Z-1.5 F600
Z5
X-0.763 Y-28.432
Z-0.744 F150
X-0.068 Y-27.697 Z-0.001 F600
Z15
(When using Fusion for Personal Use, the feedrate of rapid)
(moves is reduced to match the feedrate of cutting moves,)
(which can increase machining time. Unrestricted rapid moves)
(are available with a Fusion Subscription.)

(Gravieren3)
G0 X-45.601 Y5.986
G1 Z15 F600
Z5
Z-0.001 F150
X-45.181 Y6.386 Z-0.411 F600
X-45.582 Y6.806 Z-0.001
X-45.181 Y6.386 Z-0.411
X-42.619 Y6.325
X-42.583 Y6.326
X-42.546 Y6.327 Z-0.414
X-42.509 Y6.331 Z-0.417
X-42.472 Y6.335 Z-0.424
X-42.435 Y6.342 Z-0.431
X-42.398 Y6.349 Z-0.44
X-42.361 Y6.36 Z-0.45
X-42.324 Y6.371 Z-0.463
X-41.872 Y5.897 Z-0.001
X-42.324 Y6.371 Z-0.463
X-42.292 Y6.442 Z-0.433
X-42.279 Y6.477 Z-0.42
X-42.267 Y6.513 Z-0.409
X-42.257 Y6.548 Z-0.399
X-42.248 Y6.584 Z-0.392
X-42.242 Y6.62 Z-0.385
X-42.236 Y6.655 Z-0.382
X-42.234 Y6.691 Z-0.379
X-42.231 Y6.727
X-42.213 Y7.481
X-41.827 Y7.849 Z-0.001
X-42.213 Y7.481 Z-0.379
X-42.582 Y7.868 Z-0.001
Z5
X-38.213 Y26.217
Z-0.436 F150
X-38.126 Y26.197 Z-0.434 F600
X-38.066 Y26.187 Z-0.436
X-37.965 Y26.179 Z-0.439
X-37.862 Y26.173 Z-0.438
X-37.783 Y26.177 Z-0.437
X-37.682 Y26.186 Z-0.44
X-37.555 Y26.206 Z-0.437
X-37.504 Y26.217 Z-0.439
X-37.358 Y26.259 Z-0.44
X-37.221 Y26.313 Z-0.439
X-37.083 Y26.385 Z-0.438
X-36.975 Y26.456 Z-0.436
X-36.863 Y26.548 Z-0.433
X-36.838 Y26.572 Z-0.432
X-36.757 Y26.653 Z-0.43
X-36.732 Y26.683 Z-0.429
X-36.659 Y26.775 Z-0.427
X-36.639 Y26.804 Z-0.426
X-36.561 Y26.928
X-36.494 Y27.063
X-36.44 Y27.203 Z-0.425
X-36.402 Y27.346 Z-0.424
X-36.379 Y27.492
X-36.371 Y27.64
X-36.378 Y27.785 Z-0.425
X-36.401 Y27.93
X-36.438 Y28.073 Z-0.426
X-36.488 Y28.215 Z-0.427
X-36.552 Y28.351 Z-0.428
X-36.629 Y28.478 Z-0.429
X-36.717 Y28.594
X-36.817 Y28.704
X-36.929 Y28.803
X-37.052 Y28.895
X-37.181 Y28.975 Z-0.428
X-37.314 Y29.041 Z-0.427
X-37.451 Y29.093 Z-0.426
X-37.561 Y29.125
X-37.693 Y29.149 Z-0.425
X-37.735 Y29.154 Z-0.424
X-37.878 Y29.163
X-38.023 Y29.156
X-38.166 Y29.137
X-38.304 Y29.105 Z-0.425
X-38.443 Y29.059
X-38.576 Y29 Z-0.424
X-38.701 Y28.93
X-38.819 Y28.847
X-38.927 Y28.754 Z-0.425
X-39.025 Y28.65 Z-0.426
X-39.113 Y28.536 Z-0.427
X-39.189 Y28.414
X-39.255 Y28.281
X-39.267 Y28.256 Z-0.428
X-39.309 Y28.143 Z-0.426
X-39.329 Y28.083 Z-0.428
X-39.349 Y28.002 Z-0.427
X-39.37 Y27.901 Z-0.428
X-39.375 Y27.858
X-39.387 Y27.712 Z-0.429
X-39.384 Y27.567
X-39.382 Y27.547 Z-0.43
X-39.365 Y27.421 Z-0.429
X-39.356 Y27.37 Z-0.431
X-39.333 Y27.28 Z-0.429
X-39.302 Y27.177 Z-0.43
X-39.287 Y27.139 Z-0.429
X-39.229 Y27.003 Z-0.43
X-39.165 Y26.887 Z-0.429
X-39.101 Y26.793
X-39.062 Y26.743
X-38.977 Y26.647
X-38.884 Y26.559
X-38.826 Y26.512 Z-0.43
X-38.756 Y26.461
X-38.731 Y26.444
X-38.63 Y26.381 Z-0.431
X-38.49 Y26.313 Z-0.434
X-38.402 Y26.275 Z-0.432
X-38.348 Y26.255 Z-0.434
X-38.213 Y26.217 Z-0.436
Z5
X-30.778 Y-23.948
Z-0.428 F150
X-30.925 Y-23.976 Z-0.429 F600
X-31.067 Y-24.019
X-31.203 Y-24.075
X-31.304 Y-24.128
X-31.336 Y-24.147
X-31.458 Y-24.229 Z-0.428
X-31.55 Y-24.301 Z-0.429
X-31.577 Y-24.325 Z-0.428
X-31.688 Y-24.432
X-31.784 Y-24.544 Z-0.427
X-31.867 Y-24.662 Z-0.426
X-31.938 Y-24.788 Z-0.425
X-31.986 Y-24.891
X-32.03 Y-25.018 Z-0.424
X-32.041 Y-25.057 Z-0.423
X-32.072 Y-25.197
X-32.089 Y-25.339
X-32.093 Y-25.485
X-32.083 Y-25.63
X-32.06 Y-25.773 Z-0.422
X-32.023 Y-25.912
X-31.973 Y-26.045 Z-0.423
X-31.91 Y-26.173 Z-0.424
X-31.833 Y-26.295
X-31.745 Y-26.409 Z-0.425
X-31.646 Y-26.512
X-31.534 Y-26.61
X-31.511 Y-26.629 Z-0.426
X-31.415 Y-26.696 Z-0.425
X-31.357 Y-26.733 Z-0.427
X-31.289 Y-26.77 Z-0.426
X-31.196 Y-26.816 Z-0.428
X-31.157 Y-26.831 Z-0.427
X-31.02 Y-26.88 Z-0.429
X-30.895 Y-26.91
X-30.818 Y-26.923 Z-0.43
X-30.734 Y-26.932
X-30.713 Y-26.934 Z-0.431
X-30.583 Y-26.937 Z-0.43
X-30.435 Y-26.928
X-30.291 Y-26.905
X-30.163 Y-26.872
X-30.054 Y-26.832
X-29.994 Y-26.807 Z-0.431
X-29.883 Y-26.751
X-29.772 Y-26.681 Z-0.43
X-29.678 Y-26.609 Z-0.431
X-29.622 Y-26.562 Z-0.432
X-29.537 Y-26.479
X-29.435 Y-26.361 Z-0.435
X-29.377 Y-26.288 Z-0.433
X-29.346 Y-26.242 Z-0.435
X-29.271 Y-26.118 Z-0.436
X-29.21 Y-25.99 Z-0.438
X-29.164 Y-25.857 Z-0.441
X-29.138 Y-25.767 Z-0.439
X-29.126 Y-25.712 Z-0.44
X-29.107 Y-25.579 Z-0.442
X-29.098 Y-25.479 Z-0.439
X-29.096 Y-25.433 Z-0.441
X-29.1 Y-25.279
X-29.118 Y-25.133
X-29.155 Y-24.981 Z-0.439
X-29.206 Y-24.837 Z-0.437
X-29.255 Y-24.729 Z-0.435
X-29.273 Y-24.698 Z-0.433
X-29.331 Y-24.6 Z-0.431
X-29.354 Y-24.567 Z-0.43
X-29.424 Y-24.474 Z-0.429
X-29.448 Y-24.447 Z-0.428
X-29.548 Y-24.341 Z-0.427
X-29.657 Y-24.246
X-29.772 Y-24.163 Z-0.426
X-29.895 Y-24.092
X-30.031 Y-24.03
X-30.172 Y-23.986 Z-0.428
X-30.259 Y-23.964 Z-0.425
X-30.315 Y-23.953 Z-0.427
X-30.463 Y-23.938 Z-0.429
X-30.551 Y-23.934 Z-0.426
X-30.628 Y-23.935 Z-0.427
X-30.778 Y-23.948 Z-0.428
Z5
X-1.319 Y-37.22
Z-0.43 F150
