(BTC_2)
(Bearbeiten)
(  Hersteller: ChinaCnc)
(  model: 3040T)
(  description: Generic 3-axis)
(T18 D=2 CR=0 - ZMIN=-4.3 - Schaftfrser)
G90 G94
G17
G21
(When using Fusion for Personal Use, the feedrate of rapid)
(moves is reduced to match the feedrate of cutting moves,)
(which can increase machining time. Unrestricted rapid moves)
(are available with a Fusion Subscription.)
G28 G91 Z0
G90

(2D Adaptive4 2)
T18
S3000 M3
G17 G90 G94
G54
G0 X14.812 Y-3.508
Z15
G1 Z5 F1000
Z2.5
G3 X16.358 Y-4.238 Z2.429 I1.008 J0.133 F333.3
X16.384 Y-2.531 Z2.358 I-0.537 J0.862
X14.82 Y-3.212 Z2.287 I-0.562 J-0.844
X16.086 Y-4.353 Z2.216 I1 J-0.163
X16.601 Y-2.731 Z2.145 I-0.265 J0.977
X14.913 Y-2.932 Z2.075 I-0.779 J-0.644
X15.792 Y-4.384 Z2.004 I0.907 J-0.443
X16.75 Y-2.985 Z1.933 I0.028 J1.008
X15.083 Y-2.691 Z1.862 I-0.928 J-0.39
X15.504 Y-4.329 Z1.791 I0.738 J-0.683
X16.819 Y-3.27 Z1.72 I0.317 J0.953
X15.313 Y-2.511 Z1.649 I-0.998 J-0.105
X15.244 Y-4.194 Z1.578 I0.508 J-0.864
X16.804 Y-3.562 Z1.507 I0.576 J0.818
X15.586 Y-2.404 Z1.436 I-0.982 J0.186
X15.035 Y-3.99 Z1.365 I0.236 J-0.97
X16.705 Y-3.836 Z1.295 I0.785 J0.615
X15.876 Y-2.381 Z1.224 I-0.883 J0.46
X14.895 Y-3.736 Z1.153 I-0.054 J-0.993
X16.531 Y-4.069 Z1.082 I0.926 J0.361
X16.159 Y-2.443 Z1.011 I-0.71 J0.693
X14.834 Y-3.453 Z0.94 I-0.337 J-0.932
X16.299 Y-4.241 Z0.869 I0.987 J0.078
X16.411 Y-2.583 Z0.798 I-0.478 J0.865
X14.857 Y-3.165 Z0.727 I-0.589 J-0.792
X16.028 Y-4.339 Z0.656 I0.964 J-0.209
X16.612 Y-2.789 Z0.585 I-0.207 J0.963
X14.962 Y-2.898 Z0.515 I-0.79 J-0.586
X15.742 Y-4.354 Z0.444 I0.859 J-0.477
X16.744 Y-3.044 Z0.373 I0.079 J0.978
X15.139 Y-2.673 Z0.302 I-0.922 J-0.332
X15.464 Y-4.286 Z0.231 I0.682 J-0.702
X16.796 Y-3.324 Z0.16 I0.357 J0.91
X15.372 Y-2.509 Z0.089 I-0.975 J-0.051
X15.219 Y-4.141 Z0.018 I0.449 J-0.865
X16.766 Y-3.607 Z-0.053 I0.602 J0.765
X15.642 Y-2.42 Z-0.124 I-0.944 J0.231
X15.026 Y-3.932 Z-0.195 I0.179 J-0.954
X16.656 Y-3.868 Z-0.265 I0.794 J0.557
X15.925 Y-2.413 Z-0.336 I-0.834 J0.492
X14.903 Y-3.678 Z-0.407 I-0.103 J-0.962
X16.475 Y-4.085 Z-0.478 I0.917 J0.303
X16.197 Y-2.487 Z-0.549 I-0.654 J0.709
X14.858 Y-3.4 Z-0.62 I-0.375 J-0.888
X16.241 Y-4.241 Z-0.691 I0.962 J0.025
X16.435 Y-2.636 Z-0.762 I-0.42 J0.865
X14.896 Y-3.122 Z-0.833 I-0.613 J-0.739
X15.973 Y-4.321 Z-0.904 I0.925 J-0.252
X16.619 Y-2.847 Z-0.975 I-0.152 J0.945
X15.011 Y-2.868 Z-1.045 I-0.797 J-0.528
X15.694 Y-4.321 Z-1.116 I0.81 J-0.507
X16.734 Y-3.101 Z-1.187 I0.127 J0.945
X15.195 Y-2.659 Z-1.258 I-0.912 J-0.275
X15.428 Y-4.241 Z-1.329 I0.626 J-0.716
X16.771 Y-3.376 Z-1.4 I0.393 J0.865
X14.87 Y-3.376 I-0.95 J0
X16.771 Y-3.376 I0.95 J0
G1 X16.8 Y-2.808 F1000
X16.801 Y-2.666
X16.765 Y-2.52
X16.699 Y-2.385
X16.609 Y-2.265
X16.502 Y-2.16
X16.38 Y-2.073
X16.248 Y-2.003
X16.107 Y-1.95
X15.961 Y-1.915
X15.812 Y-1.897
X15.662
X15.513 Y-1.913
X15.367 Y-1.945
X15.224 Y-1.993
X15.088 Y-2.055
X14.959 Y-2.132
X14.838 Y-2.221
X14.727 Y-2.322
X14.627 Y-2.434
X14.539 Y-2.555
X14.463 Y-2.684
X14.401 Y-2.821
X14.352 Y-2.963
X14.318 Y-3.109
X14.299 Y-3.257
X14.294 Y-3.407
X14.304 Y-3.557
X14.329 Y-3.705
X14.368 Y-3.85
X14.421 Y-3.99
X14.488 Y-4.124
X14.568 Y-4.251
X14.659 Y-4.37
X14.762 Y-4.479
X14.876 Y-4.578
X14.998 Y-4.664
X15.128 Y-4.739
X15.265 Y-4.8
X15.407 Y-4.848
X15.553 Y-4.881
X15.702 Y-4.9
X15.852 Y-4.905
X16.002 Y-4.894
X16.15 Y-4.869
X16.294 Y-4.83
X16.435 Y-4.776
X16.569 Y-4.709
X16.696 Y-4.63
X16.814 Y-4.538
X16.924 Y-4.435
X17.022 Y-4.322
X17.109 Y-4.199
X17.183 Y-4.069
X17.261 Y-3.903
X17.342 Y-3.683
X17.407 Y-3.453
X17.44 Y-3.285
X17.459 Y-3.116
X17.464 Y-2.966
X17.456 Y-2.816
X17.436 Y-2.667
X17.402 Y-2.521
X17.355 Y-2.379
X17.296 Y-2.241
X17.224 Y-2.11
X17.14 Y-1.985
X17.045 Y-1.869
X16.94 Y-1.762
X16.826 Y-1.665
X16.704 Y-1.577
X16.575 Y-1.501
X16.439 Y-1.436
X16.299 Y-1.383
X16.155 Y-1.341
X16.004 Y-1.31
X15.852 Y-1.292
X15.702 Y-1.286
X15.545 Y-1.293
X15.385 Y-1.312
X15.23 Y-1.344
X15.079 Y-1.388
X14.927 Y-1.445
X14.777 Y-1.517
X14.634 Y-1.599
X14.5 Y-1.691
X14.372 Y-1.796
X14.25 Y-1.913
X14.136 Y-2.04
X14.035 Y-2.174
X13.946 Y-2.315
X13.867 Y-2.465
X13.799 Y-2.623
X13.744 Y-2.788
X13.703 Y-2.953
X13.675 Y-3.12
X13.661 Y-3.29
X13.66 Y-3.464
X13.674 Y-3.639
X13.701 Y-3.809
X13.741 Y-3.974
X13.795 Y-4.138
X13.862 Y-4.298
X13.943 Y-4.454
X14.036 Y-4.602
X14.138 Y-4.74
X14.251 Y-4.868
X14.376 Y-4.989
X14.511 Y-5.101
X14.655 Y-5.202
X14.805 Y-5.289
X14.959 Y-5.364
X15.12 Y-5.426
X15.288 Y-5.476
X15.46 Y-5.512
X15.634 Y-5.535
X15.806 Y-5.543
X15.977 Y-5.537
X16.15 Y-5.517
X16.323 Y-5.484
X16.492 Y-5.436
X16.655 Y-5.376
X16.81 Y-5.304
X16.961 Y-5.218
X17.106 Y-5.12
X17.244 Y-5.01
X17.377 Y-4.884
X17.503 Y-4.744
X17.63 Y-4.579
X17.753 Y-4.389
X17.86 Y-4.191
X17.95 Y-3.984
X18.022 Y-3.775
X18.076 Y-3.567
X18.112 Y-3.359
X18.131 Y-3.155
X18.133 Y-2.954
X18.119 Y-2.756
X18.091 Y-2.565
X18.047 Y-2.378
X17.989 Y-2.197
X17.918 Y-2.023
X17.833 Y-1.856
X17.734 Y-1.695
X17.622 Y-1.542
X17.498 Y-1.398
X17.361 Y-1.264
X17.213 Y-1.139
X17.055 Y-1.027
X16.886 Y-0.926
X16.709 Y-0.839
X16.523 Y-0.765
X16.331 Y-0.707
X16.132 Y-0.663
X15.928 Y-0.635
X15.722 Y-0.623
X15.514 Y-0.629
X15.305 Y-0.651
X15.097 Y-0.69
X14.892 Y-0.746
X14.69 Y-0.818
X14.494 Y-0.907
X14.304 Y-1.013
X14.122 Y-1.134
X13.95 Y-1.269
X13.789 Y-1.419
X13.64 Y-1.581
X13.503 Y-1.757
X13.38 Y-1.943
X13.272 Y-2.14
X13.181 Y-2.344
X13.106 Y-2.555
X13.048 Y-2.772
X13.007 Y-2.995
X12.985 Y-3.22
X12.98 Y-3.446
X12.994 Y-3.672
X13.026 Y-3.896
X13.076 Y-4.118
X13.144 Y-4.336
X13.228 Y-4.547
X13.33 Y-4.751
X13.447 Y-4.945
X13.58 Y-5.13
X13.728 Y-5.305
X13.89 Y-5.467
X14.063 Y-5.615
X14.247 Y-5.748
X14.442 Y-5.867
X14.647 Y-5.969
X14.859 Y-6.055
X15.077 Y-6.124
X15.299 Y-6.175
X15.525 Y-6.208
X15.753 Y-6.222
X15.982 Y-6.218
X16.21 Y-6.196
X16.435 Y-6.156
X16.655 Y-6.098
X16.871 Y-6.022
X17.08 Y-5.929
X17.284 Y-5.819
X17.48 Y-5.691
X17.67 Y-5.543
X17.856 Y-5.374
X18.032 Y-5.185
X18.196 Y-4.978
X18.344 Y-4.757
X18.475 Y-4.523
X18.587 Y-4.279
X18.678 Y-4.029
X18.748 Y-3.774
X18.797 Y-3.517
X18.825 Y-3.26
X18.832 Y-3.003
X18.819 Y-2.75
X18.786 Y-2.501
X18.733 Y-2.257
X18.661 Y-2.02
X18.571 Y-1.79
X18.463 Y-1.568
X18.337 Y-1.355
X18.194 Y-1.153
X18.035 Y-0.963
X17.861 Y-0.785
X17.672 Y-0.621
X17.47 Y-0.472
X17.255 Y-0.339
X17.029 Y-0.223
X16.792 Y-0.125
X16.548 Y-0.046
X16.296 Y0.014
X16.038 Y0.054
X15.776 Y0.072
X15.512 Y0.07
X15.247 Y0.047
X14.984 Y0.002
X14.724 Y-0.064
X14.468 Y-0.152
X14.219 Y-0.26
X13.979 Y-0.388
X13.748 Y-0.536
X13.53 Y-0.703
X13.324 Y-0.887
X13.133 Y-1.088
X12.959 Y-1.305
X12.802 Y-1.535
X12.663 Y-1.778
X12.544 Y-2.032
X12.446 Y-2.295
X12.369 Y-2.566
X12.314 Y-2.842
X12.281 Y-3.123
X12.271 Y-3.405
X12.283 Y-3.688
X12.319 Y-3.97
X12.376 Y-4.248
X12.456 Y-4.52
X12.558 Y-4.786
X12.681 Y-5.042
X12.824 Y-5.289
X12.986 Y-5.523
X13.167 Y-5.743
X13.365 Y-5.948
X13.578 Y-6.137
X13.807 Y-6.308
X14.048 Y-6.46
X14.301 Y-6.592
X14.564 Y-6.704
X14.834 Y-6.794
X15.112 Y-6.862
X15.394 Y-6.908
X15.679 Y-6.931
X15.964
X16.249 Y-6.908
X16.531 Y-6.862
X16.809 Y-6.794
X17.081 Y-6.703
X17.347 Y-6.59
X17.606 Y-6.455
X17.857 Y-6.297
X18.098 Y-6.116
X18.329 Y-5.912
X18.547 Y-5.687
X18.748 Y-5.441
X18.93 Y-5.179
X19.092 Y-4.901
X19.23 Y-4.611
X19.345 Y-4.311
X19.435 Y-4.004
X19.5 Y-3.693
X19.539 Y-3.379
X19.553 Y-3.066
X19.542 Y-2.754
X19.506 Y-2.447
X19.446 Y-2.144
X19.362 Y-1.849
X19.254 Y-1.562
X19.125 Y-1.285
X18.973 Y-1.019
X18.801 Y-0.766
X18.608 Y-0.527
X18.397 Y-0.304
X18.167 Y-0.099
X17.921 Y0.089
X17.66 Y0.257
X17.385 Y0.404
X17.097 Y0.529
X16.799 Y0.631
X16.492 Y0.709
X16.178 Y0.762
X15.859 Y0.791
X15.538 Y0.793
X15.215 Y0.77
X14.894 Y0.721
X14.577 Y0.646
X14.265 Y0.545
X13.961 Y0.418
X13.667 Y0.268
X13.385 Y0.093
X13.117 Y-0.104
X12.865 Y-0.323
X12.631 Y-0.562
X12.415 Y-0.82
X12.221 Y-1.095
X12.049 Y-1.385
X11.901 Y-1.689
X11.777 Y-2.005
X11.742 Y-2.119
X11.729 Y-2.176
X11.723 Y-2.234
X11.724 Y-2.292
X11.727 Y-2.325
Y-2.454
X11.72 Y-2.583
X11.643 Y-3.229
X11.618 Y-3.594
X11.622 Y-3.859
X11.647 Y-4.129
X11.696 Y-4.412
X11.772 Y-4.705
X11.875 Y-5.002
X12.005 Y-5.298
X12.161 Y-5.588
X12.342 Y-5.868
X12.547 Y-6.134
X12.774 Y-6.385
X13.022 Y-6.618
X13.288 Y-6.831
X13.572 Y-7.023
X13.87 Y-7.191
X14.181 Y-7.335
X14.503 Y-7.454
X14.834 Y-7.547
X15.171 Y-7.613
X15.513 Y-7.651
X15.857 Y-7.662
X16.201 Y-7.646
X16.542 Y-7.601
X16.88 Y-7.53
X17.213 Y-7.431
X17.539 Y-7.304
X17.856 Y-7.151
X18.164 Y-6.97
X18.46 Y-6.763
X18.742 Y-6.53
X19.007 Y-6.272
X19.253 Y-5.992
X19.477 Y-5.69
X19.62 Y-5.461
X19.64 Y-5.425
X19.657 Y-5.389
X19.67 Y-5.351
X19.697 Y-5.264
X19.723 Y-5.167
X19.884 Y-4.392
X19.906 Y-4.262
X19.955 Y-3.9
X20.025 Y-3.1
X20.032 Y-2.971
X20.036 Y-2.583
X20.01 Y-2.067
X19.985 Y-1.812
X19.947 Y-1.602
X19.884 Y-1.366
X19.793 Y-1.108
X19.675 Y-0.846
X19.532 Y-0.585
X19.357 Y-0.319
X19.152 Y-0.056
X18.92 Y0.197
X18.662 Y0.436
X18.38 Y0.658
X18.079 Y0.859
X17.759 Y1.037
X17.423 Y1.189
X17.073 Y1.316
X16.712 Y1.414
X16.342 Y1.483
X15.966 Y1.523
X15.586 Y1.533
X15.205 Y1.511
X14.825 Y1.46
X14.449 Y1.377
X14.079 Y1.264
X13.719 Y1.121
X13.369 Y0.949
X13.034 Y0.749
X12.714 Y0.522
X12.413 Y0.27
X12.133 Y-0.007
X11.875 Y-0.306
X11.641 Y-0.625
X11.614 Y-0.67
X11.563 Y-0.786
X11.545 Y-0.912
X11.561 Y-1.038
X11.596 Y-1.162
X11.626 Y-1.292
X11.641 Y-1.421
X11.692 Y-1.937
X11.716 Y-2.196
X11.724 Y-2.292
G3 X11.928 Y-2.469 Z-1.212 I0.199 J0.023
G1 X11.946 Y-2.468 Z-1.2
X12.359 Y-2.458
X19.401 Y-2.28
X19.814 Y-2.27
X19.816 Y-2.269 Z-1.201
G3 X20.01 Y-2.067 Z-1.4 I-0.005 J0.2
G1 X19.998 Y-1.808
X19.989 Y-1.679
X19.874 Y-0.904
X19.851 Y-0.775
X19.762 Y-0.387
X19.679 Y-0.058
X19.636 Y0.086
X19.577 Y0.23
X19.505 Y0.373
X19.4 Y0.544
X19.279 Y0.711
X19.113 Y0.905
X18.922 Y1.094
X18.693 Y1.287
X18.418 Y1.484
X18.105 Y1.672
X17.761 Y1.842
X17.397 Y1.987
X17.011 Y2.107
X16.602 Y2.198
X16.179 Y2.257
X15.747 Y2.282
X15.309 Y2.272
X14.871 Y2.227
X14.435 Y2.147
X14.005 Y2.031
X13.583 Y1.88
X13.174 Y1.696
X12.78 Y1.478
X12.404 Y1.229
X12.047 Y0.95
X11.714 Y0.642
X11.45 Y0.357
X11.377 Y0.264
X11.304 Y0.13
X11.278 Y-0.02
X11.301 Y-0.17
X11.373 Y-0.387
X11.414 Y-0.517
X11.524 Y-0.904
X11.561 Y-1.038
G3 X11.775 Y-1.177 Z-1.224 I0.191 J0.06
G1 X11.812 Y-1.173 Z-1.2
X12.223 Y-1.126
X19.115 Y-0.343
X19.506 Y-0.298
X19.526 Y-0.295
G3 X19.679 Y-0.058 Z-1.4 I-0.042 J0.196
G1 X19.665 Y0
X19.627 Y0.129
X19.502 Y0.517
X19.365 Y0.904
X19.309 Y1.052
X19.257 Y1.162
X19.085 Y1.492
X19.009 Y1.621
X18.922 Y1.744
X18.812 Y1.874
X18.677 Y2.009
X18.51 Y2.152
X18.309 Y2.298
X18.055 Y2.453
X17.783 Y2.59
X17.452 Y2.725
X17.071 Y2.845
X16.651 Y2.941
X16.206 Y3.007
X15.747 Y3.037
X15.274 Y3.029
X14.787 Y2.983
X14.298 Y2.896
X13.812 Y2.768
X13.334 Y2.601
X12.869 Y2.395
X12.42 Y2.152
X11.991 Y1.872
X11.585 Y1.558
X11.304 Y1.302
X11.132 Y1.118
X11.028 Y0.988
X11.023 Y0.98
X10.958 Y0.833
X10.946 Y0.674
X10.988 Y0.52
X11.234 Y0
X11.288 Y-0.129
X11.301 Y-0.17
G3 X11.529 Y-0.297 Z-1.219 I0.188 J0.069
G1 X11.558 Y-0.291 Z-1.2
X11.963 Y-0.209
X18.588 Y1.137
X18.944 Y1.209
X18.991 Y1.225
G3 X19.085 Y1.492 Z-1.4 I-0.087 J0.18
G1 X18.535 Y2.542
X18.458 Y2.672
X18.367 Y2.791
X18.265 Y2.901
X18.145 Y3.009
X17.991 Y3.126
X17.817 Y3.238
X17.589 Y3.36
X17.334 Y3.471
X17.023 Y3.578
X16.649 Y3.673
X16.245 Y3.743
X15.806 Y3.782
X15.319 Y3.787
X14.802 Y3.75
X14.27 Y3.669
X13.734 Y3.542
X13.201 Y3.37
X12.679 Y3.154
X12.173 Y2.895
X11.689 Y2.597
X11.275 Y2.292
X10.993 Y2.049
X10.839 Y1.893
X10.713 Y1.741
X10.651 Y1.654
X10.587 Y1.527
X10.565 Y1.387
X10.585 Y1.247
X10.647 Y1.12
X10.785 Y0.918
X10.867 Y0.775
X10.988 Y0.52
X11.019 Y0.476 Z-1.366
X11.06 Y0.442 Z-1.331
X11.109 Y0.42 Z-1.297
X11.162 Y0.412 Z-1.263
X11.216 Y0.418 Z-1.229
X11.259 Y0.429 Z-1.2
X11.659 Y0.532
X18.042 Y2.169
X18.404 Y2.262
X18.441 Y2.276
G3 X18.535 Y2.542 Z-1.4 I-0.087 J0.18
G1 X18.445 Y2.712
X18.405 Y2.785
X17.695 Y3.688
X17.597 Y3.801
X17.487 Y3.903
X17.367 Y3.994
X17.218 Y4.088
X17.049 Y4.178
X16.838 Y4.268
X16.592 Y4.352
X16.284 Y4.429
X15.95 Y4.484
X15.531 Y4.519
X15.05 Y4.521
X14.557 Y4.484
X14.021 Y4.399
X13.468 Y4.265
X12.928 Y4.089
X12.402 Y3.873
X11.893 Y3.62
X11.403 Y3.33
X10.982 Y3.035
X10.697 Y2.8
X10.506 Y2.615
X10.367 Y2.455
X10.277 Y2.334
X10.215 Y2.235
X10.15 Y2.061
X10.157 Y1.877
X10.236 Y1.709
X10.268 Y1.665
X10.351 Y1.55
X10.647 Y1.12
X10.682 Y1.083 Z-1.368
X10.725 Y1.057 Z-1.335
X10.773 Y1.042 Z-1.303
X10.824 Y1.039 Z-1.271
X10.873 Y1.05 Z-1.239
X10.93 Y1.069 Z-1.2
X11.321 Y1.205
X17.265 Y3.265
X17.599 Y3.381
X17.627 Y3.392
X17.652 Y3.408
G3 X17.695 Y3.688 Z-1.4 I-0.118 J0.161
G1 X17.446 Y4.004
X17.114 Y4.402
X16.985 Y4.523
X16.855 Y4.64
X16.71 Y4.76
X16.586 Y4.845
X16.445 Y4.924
X16.287 Y4.997
X16.092 Y5.068
X15.849 Y5.135
X15.575 Y5.187
X15.242 Y5.223
X14.832 Y5.234
X14.411 Y5.212
X13.902 Y5.144
X13.346 Y5.024
X12.802 Y4.86
X12.271 Y4.658
X11.754 Y4.42
X11.255 Y4.148
X10.809 Y3.862
X10.455 Y3.592
X10.206 Y3.37
X10.038 Y3.192
X9.903 Y3.026
X9.812 Y2.891
X9.738 Y2.761
X9.713 Y2.706
X9.672 Y2.528
X9.702 Y2.348
X9.799 Y2.193
X10.162 Y1.808
X10.236 Y1.709
X10.273 Y1.673 Z-1.367
X10.318 Y1.648 Z-1.334
X10.368 Y1.635 Z-1.301
X10.42 Y1.636 Z-1.268
X10.469 Y1.65 Z-1.235
X10.52 Y1.671 Z-1.2
X10.901 Y1.831
X16.487 Y4.183
X16.794 Y4.313
X16.829 Y4.332
X16.86 Y4.358
G3 X16.855 Y4.64 Z-1.4 I-0.144 J0.139
G1 X16.702 Y4.779
X16.597 Y4.868
X15.822 Y5.501
X15.701 Y5.589
X15.569 Y5.66
X15.431 Y5.72
X15.254 Y5.779
X15.065 Y5.827
X14.822 Y5.867
X14.54 Y5.89
X14.193 Y5.892
X13.805 Y5.862
X13.327 Y5.786
X12.785 Y5.655
X12.245 Y5.477
X11.719 Y5.261
X11.208 Y5.012
X10.715 Y4.729
X10.303 Y4.448
X9.972 Y4.181
X9.727 Y3.948
X9.538 Y3.738
X9.421 Y3.585
X9.317 Y3.422
X9.247 Y3.29
X9.206 Y3.196
X9.169 Y3.051
X9.18 Y2.902
X9.237 Y2.764
X9.336 Y2.651
X9.364 Y2.628
X9.493 Y2.512
X9.552 Y2.454
X9.799 Y2.193
X9.839 Y2.163 Z-1.368
X9.886 Y2.143 Z-1.336
X9.935 Y2.136 Z-1.304
X9.985 Y2.141 Z-1.272
X10.032 Y2.159 Z-1.239
X10.087 Y2.187 Z-1.2
X10.453 Y2.379
X15.483 Y5.016
X15.783 Y5.173
X15.814 Y5.193
X15.841 Y5.219
G3 X15.822 Y5.501 Z-1.4 I-0.151 J0.132
G1 X15.564 Y5.708
X15.435 Y5.796
X14.66 Y6.246
X14.526 Y6.314
X14.386 Y6.368
X14.233 Y6.411
X14.042 Y6.449
X13.839 Y6.472
X13.565 Y6.481
X13.272 Y6.466
X12.882 Y6.416
X12.468 Y6.328
X11.957 Y6.176
X11.426 Y5.971
X10.912 Y5.728
X10.416 Y5.45
X9.963 Y5.15
X9.601 Y4.866
X9.331 Y4.616
X9.109 Y4.375
X8.95 Y4.172
X8.834 Y3.998
X8.754 Y3.852
X8.692 Y3.715
X8.643 Y3.573
X8.638 Y3.554
X8.628 Y3.376
X8.686 Y3.206
X8.803 Y3.071
X9.262 Y2.712
X9.336 Y2.651
X9.378 Y2.626 Z-1.369
X9.425 Y2.612 Z-1.337
X9.474 Y2.61 Z-1.306
X9.522 Y2.62 Z-1.275
X9.566 Y2.641 Z-1.243
X9.623 Y2.678 Z-1.2
X9.971 Y2.901
X14.388 Y5.732
X14.661 Y5.908
X14.696 Y5.935
X14.723 Y5.97
G3 X14.66 Y6.246 Z-1.4 I-0.17 J0.106
G1 X14.014 Y6.62
X13.885 Y6.678
X13.497 Y6.846
X13.357 Y6.898
X13.212 Y6.937
X13.06 Y6.965
X12.882 Y6.984
X12.648 Y6.989
X12.407 Y6.975
X12.085 Y6.929
X11.737 Y6.852
X11.295 Y6.715
X10.79 Y6.513
X10.281 Y6.261
X9.804 Y5.976
X9.392 Y5.682
X9.04 Y5.386
X8.758 Y5.108
X8.55 Y4.866
X8.383 Y4.637
X8.266 Y4.447
X8.188 Y4.294
X8.123 Y4.134
X8.077 Y3.992
X8.061 Y3.919
X8.053 Y3.772
X8.091 Y3.629
X8.171 Y3.506
X8.286 Y3.414
X8.46 Y3.314
X8.594 Y3.229
X8.718 Y3.137
X8.803 Y3.071
X8.848 Y3.047 Z-1.367
X8.897 Y3.034 Z-1.335
X8.948 Y3.035 Z-1.302
X8.998 Y3.048 Z-1.269
X9.042 Y3.074 Z-1.237
X9.088 Y3.109 Z-1.2
X9.416 Y3.36
X13.281 Y6.313
X13.534 Y6.506
X13.568 Y6.539
X13.593 Y6.58
G3 X13.497 Y6.846 Z-1.4 I-0.181 J0.085
G1 X13.196 Y6.975
X13.11 Y7.015
X12.981 Y7.083
X12.946 Y7.104
X12.851 Y7.173
X12.813 Y7.206
X12.694 Y7.298
X12.559 Y7.364
X12.417 Y7.412
X12.271 Y7.446
X12.112 Y7.466
X11.916 Y7.476
X11.712 Y7.47
X11.439 Y7.44
X11.151 Y7.384
X10.774 Y7.279
X10.391 Y7.138
X9.948 Y6.934
X9.493 Y6.678
X9.061 Y6.387
X8.675 Y6.079
X8.355 Y5.779
X8.107 Y5.506
X7.908 Y5.248
X7.751 Y5.006
X7.643 Y4.806
X7.564 Y4.629
X7.512 Y4.479
X7.474 Y4.334
X7.457 Y4.228
X7.456 Y4.079
X7.502 Y3.938
X7.59 Y3.819
X7.712 Y3.733
X7.814 Y3.682
X8.286 Y3.414
X8.329 Y3.397 Z-1.37
X8.375 Y3.391 Z-1.341
X8.422 Y3.396 Z-1.311
X8.465 Y3.411 Z-1.282
X8.505 Y3.435 Z-1.252
X8.568 Y3.487 Z-1.2
X8.89 Y3.746
X12.506 Y6.663
X12.803 Y6.903
X12.826 Y6.924
G3 X12.813 Y7.206 Z-1.4 I-0.148 J0.135
G1 X12.781 Y7.233
X12.722 Y7.291
X12.66 Y7.362
X12.593 Y7.454
X12.549 Y7.531
X12.468 Y7.657
X12.359 Y7.76
X12.234 Y7.843
X12.099 Y7.908
X11.957 Y7.957
X11.811 Y7.993
X11.653 Y8.018
X11.451 Y8.034
X11.244
X10.98 Y8.012
X10.709 Y7.967
X10.373 Y7.884
X9.993 Y7.756
X9.603 Y7.59
X9.169 Y7.362
X8.731 Y7.084
X8.323 Y6.778
X7.966 Y6.462
X7.666 Y6.149
X7.432 Y5.863
X7.243 Y5.59
X7.097 Y5.337
X6.993 Y5.119
X6.923 Y4.933
X6.876 Y4.772
X6.846 Y4.625
X6.829 Y4.476
X6.828 Y4.434
X6.846 Y4.293
X6.905 Y4.163
X7.001 Y4.058
X7.124 Y3.987
X7.427 Y3.869
X7.685 Y3.746
X7.712 Y3.733
X7.763 Y3.718 Z-1.366
X7.817 Y3.717 Z-1.331
X7.869 Y3.73 Z-1.297
X7.915 Y3.757 Z-1.263
X7.993 Y3.817 Z-1.2
X8.321 Y4.069
X12.139 Y7.006
X12.467 Y7.258
X12.494 Y7.279 Z-1.222
G3 X12.549 Y7.531 Z-1.4 I-0.122 J0.159
G1 X12.498 Y7.621
X12.447 Y7.75
X12.412 Y7.879
X12.405 Y7.918
X12.371 Y8.064
X12.284 Y8.187
X12.177 Y8.292
X12.056 Y8.38
X11.926 Y8.454
X11.788 Y8.513
X11.645 Y8.56
X11.476 Y8.601
X11.298 Y8.63
X11.075 Y8.647
X10.846 Y8.646
X10.563 Y8.623
X10.257 Y8.572
X9.925 Y8.49
X9.535 Y8.359
X9.106 Y8.175
X8.681 Y7.951
X8.247 Y7.676
X7.827 Y7.359
X7.45 Y7.026
X7.14 Y6.702
X6.878 Y6.38
X6.664 Y6.071
X6.5 Y5.787
X6.382 Y5.537
X6.293 Y5.304
X6.241 Y5.126
X6.206 Y4.952
X6.187 Y4.804
X6.183 Y4.675
X6.204 Y4.521
X6.273 Y4.383
X6.383 Y4.274
X6.523 Y4.206
X6.652 Y4.168
X6.781 Y4.12
X7.124 Y3.987
X7.172 Y3.976 Z-1.369
X7.22 Y3.978 Z-1.338
X7.267 Y3.991 Z-1.307
X7.31 Y4.015 Z-1.276
X7.405 Y4.086 Z-1.2
X7.737 Y4.331
X11.915 Y7.424
X12.247 Y7.67
X12.326 Y7.728 Z-1.263
X12.365 Y7.766 Z-1.297
X12.392 Y7.812 Z-1.331
X12.406 Y7.864 Z-1.366
X12.405 Y7.918 Z-1.4
X12.389 Y8.008
X12.381 Y8.137
X12.386 Y8.24
Y8.39
X12.342 Y8.534
X12.268 Y8.664
X12.173 Y8.781
X12.064 Y8.883
X11.943 Y8.972
X11.814 Y9.048
X11.675 Y9.113
X11.526 Y9.17
X11.343 Y9.222
X11.15 Y9.261
X10.923 Y9.289
X10.663 Y9.299
X10.394 Y9.288
X10.07 Y9.248
X9.705 Y9.173
X9.333 Y9.065
X8.914 Y8.907
X8.464 Y8.693
X8.001 Y8.426
X7.552 Y8.116
X7.139 Y7.78
X6.771 Y7.428
X6.452 Y7.068
X6.185 Y6.714
X5.974 Y6.381
X5.819 Y6.086
X5.699 Y5.807
X5.615 Y5.556
X5.565 Y5.358
X5.534 Y5.171
X5.522 Y5.022
Y4.872
X5.532 Y4.768
X5.567 Y4.627
X5.645 Y4.503
X5.757 Y4.409
X5.892 Y4.355
X6.135 Y4.299
X6.523 Y4.206
X6.576 Y4.203 Z-1.366
X6.628 Y4.213 Z-1.332
X6.676 Y4.237 Z-1.298
X6.802 Y4.324 Z-1.2
X7.143 Y4.558
X11.846 Y7.781
X12.187 Y8.015
X12.3 Y8.092 Z-1.287
X12.333 Y8.121 Z-1.315
X12.36 Y8.157 Z-1.344
X12.378 Y8.197 Z-1.372
X12.386 Y8.24 Z-1.4
X12.387 Y8.267
X12.406 Y8.396
X12.436 Y8.525
X12.452 Y8.562
X12.501 Y8.704
X12.494 Y8.853
X12.453 Y8.998
X12.388 Y9.133
X12.304 Y9.257
X12.206 Y9.37
X12.096 Y9.472
X11.976 Y9.563
X11.846 Y9.645
X11.699 Y9.723
X11.522 Y9.798
X11.336 Y9.86
X11.12 Y9.914
X10.868 Y9.955
X10.607 Y9.977
X10.301
X9.956 Y9.95
X9.59 Y9.891
X9.201 Y9.796
X8.761 Y9.651
X8.287 Y9.45
X7.798 Y9.195
X7.316 Y8.893
X6.861 Y8.553
X6.441 Y8.184
X6.067 Y7.798
X5.746 Y7.408
X5.482 Y7.03
X5.269 Y6.665
X5.114 Y6.341
X4.999 Y6.045
X4.92 Y5.775
X4.87 Y5.537
X4.845 Y5.342
X4.837 Y5.17
X4.842 Y5.02
X4.861 Y4.871
X4.87 Y4.826
X4.924 Y4.688
X5.018 Y4.573
X5.143 Y4.494
X5.286 Y4.458
X5.36 Y4.452
X5.748 Y4.387
X5.892 Y4.355
X5.943 Y4.352 Z-1.368
X5.993 Y4.361 Z-1.335
X6.038 Y4.383 Z-1.303
X6.174 Y4.471 Z-1.2
X6.521 Y4.695
X11.863 Y8.144
X12.21 Y8.368
X12.378 Y8.476 Z-1.327
X12.408 Y8.5 Z-1.351
X12.433 Y8.529 Z-1.376
X12.452 Y8.562 Z-1.4
X12.49 Y8.654
X12.553 Y8.783
X12.593 Y8.847
X12.618 Y8.883
X12.698 Y9.01
X12.718 Y9.159
X12.705 Y9.308
X12.667 Y9.453
X12.609 Y9.591
X12.534 Y9.721
X12.445 Y9.843
X12.345 Y9.954
X12.232 Y10.06
X12.107 Y10.16
X11.96 Y10.259
X11.785 Y10.357
X11.599 Y10.443
X11.385 Y10.522
X11.136 Y10.591
X10.866 Y10.643
X10.571 Y10.676
X10.234 Y10.686
X9.861 Y10.667
X9.463 Y10.615
X9.046 Y10.526
X8.578 Y10.385
X8.072 Y10.189
X7.964 Y10.136
X7.919 Y10.111
X7.878 Y10.082
X7.839 Y10.048
X7.606 Y9.817
X7.556 Y9.771
X7.427 Y9.658
X7.293 Y9.558
X6.781 Y9.198
X6.652 Y9.113
X6.539 Y9.042
X6.523 Y9.034
X6.364 Y8.948
X6.128 Y8.794
X5.864 Y8.591
X5.594 Y8.346
X5.306 Y8.039
X5.03 Y7.692
X4.787 Y7.332
X4.584 Y6.971
X4.422 Y6.619
X4.302 Y6.293
X4.222 Y6.004
X4.17 Y5.738
X4.144 Y5.504
X4.139 Y5.323
X4.147 Y5.154
X4.167 Y5.005
X4.2 Y4.859
X4.209 Y4.831
X4.298 Y4.672
X4.442 Y4.559
X4.618 Y4.51
X5.261 Y4.46
X5.286 Y4.458
X5.339 Y4.462 Z-1.366
X5.388 Y4.48 Z-1.333
X5.432 Y4.51 Z-1.299
X5.466 Y4.551 Z-1.265
X5.488 Y4.598 Z-1.232
X5.502 Y4.646 Z-1.2
X5.625 Y5.04
X6.713 Y8.533
X6.793 Y8.791
X6.802 Y8.838
X6.8 Y8.885
X6.786 Y8.931
G3 X6.523 Y9.034 Z-1.4 I-0.183 J-0.08
G1 X6.135 Y8.849
X5.72 Y8.654
X5.356 Y8.525
X5.231 Y8.485
X5.089 Y8.436
X4.957 Y8.365
X4.816 Y8.273
X4.677 Y8.165
X4.51 Y8.012
X4.352 Y7.842
X4.176 Y7.619
X4.002 Y7.36
X3.847 Y7.081
X3.71 Y6.781
X3.599 Y6.474
X3.52 Y6.184
X3.468 Y5.91
X3.441 Y5.656
X3.435 Y5.432
X3.444 Y5.269
X3.467 Y5.097
X3.499 Y4.95
X3.544 Y4.807
X3.546 Y4.803
X3.648 Y4.655
X3.797 Y4.557
X3.973 Y4.523
X4.198 Y4.521
X4.456 Y4.519
X4.585 Y4.512
X4.618 Y4.51
G3 X4.823 Y4.674 Z-1.218 I0.008 J0.2
G1 X4.828 Y4.701 Z-1.2
X4.902 Y5.107
X5.418 Y7.934
X5.477 Y8.256
X5.48 Y8.298
X5.474 Y8.341
G3 X5.231 Y8.485 Z-1.4 I-0.194 J-0.049
G1 X4.844 Y8.373
X4.585 Y8.304
X4.456 Y8.272
X4.428 Y8.269
X4.28 Y8.245
X4.139 Y8.194
X4.006 Y8.125
X3.881 Y8.043
X3.76 Y7.948
X3.63 Y7.827
X3.498 Y7.682
X3.356 Y7.501
X3.226 Y7.303
X3.098 Y7.07
X2.982 Y6.81
X2.885 Y6.536
X2.811 Y6.256
X2.762 Y5.99
X2.737 Y5.731
X2.732 Y5.489
X2.744 Y5.293
X2.765 Y5.143
X2.801 Y4.983
X2.846 Y4.84
X2.859 Y4.808
X2.961 Y4.658
X3.112 Y4.558
X3.29 Y4.523
X3.973
G3 X4.164 Y4.694 Z-1.222 I-0.007 J0.2
G1 X4.169 Y4.729 Z-1.2
X4.228 Y5.138
X4.589 Y7.675
X4.641 Y8.041
X4.642 Y8.084
G3 X4.428 Y8.269 Z-1.4 I-0.199 J-0.015
G1 X4.069 Y8.23
X3.681 Y8.191
X3.533 Y8.169
X3.389 Y8.125
X3.253 Y8.062
X3.126 Y7.983
X3.006 Y7.893
X2.882 Y7.782
X2.764 Y7.657
X2.636 Y7.496
X2.515 Y7.319
X2.399 Y7.113
X2.29 Y6.879
X2.195 Y6.623
X2.119 Y6.355
X2.066 Y6.087
X2.037 Y5.832
X2.029 Y5.584
X2.039 Y5.358
X2.06 Y5.196
X2.095 Y5.027
X2.138 Y4.884
X2.164 Y4.819
X2.264 Y4.663
X2.417 Y4.559
X2.598 Y4.523
X3.29
G3 X3.481 Y4.697 Z-1.22 I-0.007 J0.2
G1 X3.485 Y4.729 Z-1.2
X3.537 Y5.139
X3.846 Y7.595
X3.892 Y7.967
X3.894 Y8.005
G3 X3.681 Y8.191 Z-1.4 I-0.2 J-0.013
G1 X2.906 Y8.114
X2.758 Y8.092
X2.615 Y8.047
X2.479 Y7.983
X2.352 Y7.903
X2.234 Y7.811
X2.124 Y7.709
X2.003 Y7.577
X1.89 Y7.433
X1.774 Y7.257
X1.662 Y7.052
X1.564 Y6.833
X1.478 Y6.592
X1.409 Y6.333
X1.36 Y6.065
X1.334 Y5.808
X1.329 Y5.56
X1.342 Y5.346
X1.365 Y5.181
X1.404 Y5.008
X1.449 Y4.865
X1.471 Y4.811
X1.572 Y4.659
X1.724 Y4.558
X1.902 Y4.523
X2.598
G3 X2.79 Y4.702 Z-1.217 I-0.007 J0.2
G1 X2.793 Y4.729 Z-1.2
X2.835 Y5.14
X3.079 Y7.516
X3.118 Y7.894
X3.119 Y7.927
G3 X2.906 Y8.114 Z-1.4 I-0.2 J-0.013
G1 X2.777 Y8.101
X2.389 Y8.078
X2.26 Y8.077
X2.11 Y8.071
X1.964 Y8.039
X1.824 Y7.985
X1.693 Y7.912
X1.57 Y7.826
X1.456 Y7.729
X1.346 Y7.619
X1.232 Y7.483
X1.117 Y7.323
X1.011 Y7.146
X0.908 Y6.938
X0.815 Y6.705
X0.738 Y6.456
X0.68 Y6.198
X0.644 Y5.941
X0.629 Y5.691
X0.635 Y5.452
X0.654 Y5.262
X0.685 Y5.094
X0.726 Y4.94
X0.777 Y4.799
X0.781 Y4.789
X0.884 Y4.648
X1.032 Y4.555
X1.203 Y4.523
X1.902
G3 X2.094 Y4.7 Z-1.219 I-0.007 J0.2
G1 X2.097 Y4.729 Z-1.2
X2.144 Y5.14
X2.405 Y7.458
X2.45 Y7.855
X2.451 Y7.868
G3 X2.26 Y8.077 Z-1.4 I-0.2 J0.009
G1 X1.543 Y8.084
X1.394 Y8.079
X1.248 Y8.042
X1.11 Y7.984
X0.98 Y7.909
X0.858 Y7.821
X0.745 Y7.723
X0.629 Y7.604
X0.515 Y7.465
X0.404 Y7.306
X0.293 Y7.116
X0.191 Y6.904
X0.104 Y6.679
X0.031 Y6.432
X-0.024 Y6.17
X-0.058 Y5.91
X-0.07 Y5.657
X-0.062 Y5.417
X-0.04 Y5.229
X-0.01 Y5.074
X0.034 Y4.92
X0.068 Y4.827
X0.137 Y4.704
X0.239 Y4.606
X0.366 Y4.544
X0.506 Y4.523
X1.203
G3 X1.395 Y4.701 Z-1.218 I-0.007 J0.2
G1 X1.398 Y4.729 Z-1.2
X1.442 Y5.14
X1.691 Y7.465
X1.733 Y7.863
X1.734 Y7.876
G3 X1.543 Y8.084 Z-1.4 I-0.2 J0.009
G1 X0.84 Y8.092
X0.69 Y8.086
X0.545 Y8.048
X0.406 Y7.989
X0.277 Y7.914
X0.156 Y7.826
X0.043 Y7.727
X-0.075 Y7.606
X-0.186 Y7.47
X-0.298 Y7.309
X-0.41 Y7.117
X-0.508 Y6.912
X-0.596 Y6.682
X-0.67 Y6.432
X-0.725 Y6.167
X-0.758 Y5.905
X-0.769 Y5.654
X-0.761 Y5.418
X-0.739 Y5.23
X-0.705 Y5.058
X-0.664 Y4.914
X-0.628 Y4.822
X-0.559 Y4.7
X-0.457 Y4.605
X-0.331 Y4.544
X-0.193 Y4.523
X0.506
G3 X0.698 Y4.702 Z-1.218 I-0.007 J0.2
G1 X0.701 Y4.729 Z-1.2
X0.744 Y5.14
X0.988 Y7.472
X1.029 Y7.871
X1.03 Y7.883
G3 X0.84 Y8.092 Z-1.4 I-0.2 J0.009
G1 X0.155 Y8.099
X0.005 Y8.093
X-0.141 Y8.058
X-0.28 Y8.001
X-0.41 Y7.928
X-0.533 Y7.841
X-0.646 Y7.743
X-0.764 Y7.623
X-0.873 Y7.491
X-0.987 Y7.33
X-1.099 Y7.142
X-1.197 Y6.94
X-1.287 Y6.71
X-1.363 Y6.459
X-1.42 Y6.196
X-1.455 Y5.934
X-1.468 Y5.679
X-1.462 Y5.44
X-1.441 Y5.25
X-1.407 Y5.072
X-1.367 Y4.928
X-1.329 Y4.825
X-1.26 Y4.702
X-1.158 Y4.606
X-1.031 Y4.544
X-0.892 Y4.523
X-0.193
G3 X-0.001 Y4.701 Z-1.218 I-0.007 J0.2
G1 X0.002 Y4.729 Z-1.2
X0.047 Y5.14
X0.301 Y7.48
X0.344 Y7.878
X0.345 Y7.89
G3 X0.155 Y8.099 Z-1.4 I-0.2 J0.009
G1 X-0.523 Y8.106
X-0.673 Y8.1
X-0.82 Y8.069
X-0.96 Y8.015
X-1.092 Y7.944
X-1.215 Y7.858
X-1.33 Y7.762
X-1.447 Y7.645
X-1.557 Y7.516
X-1.671 Y7.358
X-1.783 Y7.174
X-1.883 Y6.975
X-1.975 Y6.748
X-2.053 Y6.498
X-2.113 Y6.235
X-2.151 Y5.974
X-2.167 Y5.717
X-2.163 Y5.475
X-2.144 Y5.277
X-2.111 Y5.094
X-2.073 Y4.949
X-2.022 Y4.808
X-2.016 Y4.794
X-1.913 Y4.651
X-1.765 Y4.556
X-1.592 Y4.523
X-0.892
G3 X-0.7 Y4.7 Z-1.219 I-0.007 J0.2
G1 X-0.697 Y4.729 Z-1.2
X-0.649 Y5.14
X-0.379 Y7.487
X-0.333 Y7.884
X-0.332 Y7.898
G3 X-0.523 Y8.106 Z-1.4 I-0.2 J0.009
G1 X-0.84 Y8.108
X-1.227
X-1.377 Y8.101
X-1.523 Y8.069
X-1.663 Y8.015
X-1.795 Y7.944
X-1.918 Y7.858
X-2.033 Y7.761
X-2.148 Y7.646
X-2.261 Y7.513
X-2.373 Y7.358
X-2.485 Y7.172
X-2.587 Y6.969
X-2.677 Y6.744
X-2.754 Y6.496
X-2.814 Y6.234
X-2.851 Y5.97
X-2.867 Y5.711
X-2.863 Y5.468
X-2.842 Y5.264
X-2.814 Y5.108
X-2.771 Y4.947
X-2.721 Y4.805
X-2.715 Y4.792
X-2.612 Y4.65
X-2.464 Y4.556
X-2.292 Y4.523
X-1.592
G3 X-1.4 Y4.7 Z-1.219 I-0.007 J0.2
G1 X-1.397 Y4.729 Z-1.2
X-1.35 Y5.14
X-1.08 Y7.491
X-1.035 Y7.886
X-1.034 Y7.902
G3 X-1.227 Y8.108 Z-1.4 I-0.2 J0.007
G1 X-1.944
X-2.094 Y8.101
X-2.24 Y8.066
X-2.379 Y8.01
X-2.51 Y7.937
X-2.632 Y7.85
X-2.746 Y7.752
X-2.86 Y7.636
X-2.974 Y7.499
X-3.084 Y7.343
X-3.196 Y7.155
X-3.298 Y6.946
X-3.386 Y6.721
X-3.461 Y6.472
X-3.519 Y6.207
X-3.554 Y5.941
X-3.568 Y5.687
X-3.561 Y5.442
X-3.54 Y5.247
X-3.51 Y5.09
X-3.467 Y4.932
X-3.414 Y4.788
X-3.311 Y4.648
X-3.164 Y4.555
X-2.993 Y4.523
X-2.292
G3 X-2.1 Y4.701 Z-1.218 I-0.007 J0.2
G1 X-2.097 Y4.729 Z-1.2
X-2.052 Y5.14
X-1.795 Y7.491
X-1.752 Y7.887
X-1.751 Y7.902
G3 X-1.944 Y8.108 Z-1.4 I-0.2 J0.007
G1 X-2.648
X-2.798 Y8.101
X-2.943 Y8.066
X-3.082 Y8.009
X-3.213 Y7.936
X-3.335 Y7.848
X-3.449 Y7.75
X-3.564 Y7.632
X-3.676 Y7.498
X-3.788 Y7.339
X-3.9 Y7.149
X-3.999 Y6.945
X-4.088 Y6.716
X-4.163 Y6.466
X-4.22 Y6.2
X-4.255 Y5.935
X-4.268 Y5.682
X-4.261 Y5.437
X-4.239 Y5.239
X-4.209 Y5.085
X-4.166 Y4.928
X-4.114 Y4.787
X-4.011 Y4.647
X-3.864 Y4.555
X-3.694 Y4.523
X-2.993
G3 X-2.801 Y4.701 Z-1.218 I-0.007 J0.2
G1 X-2.798 Y4.729 Z-1.2
X-2.753 Y5.14
X-2.499 Y7.491
X-2.456 Y7.887
X-2.455 Y7.902
G3 X-2.648 Y8.108 Z-1.4 I-0.2 J0.007
G1 X-3.365
X-3.514 Y8.101
X-3.66 Y8.063
X-3.798 Y8.004
X-3.927 Y7.929
X-4.048 Y7.84
X-4.161 Y7.741
X-4.276 Y7.621
X-4.389 Y7.482
X-4.5 Y7.322
X-4.611 Y7.13
X-4.711 Y6.92
X-4.798 Y6.69
X-4.871 Y6.439
X-4.926 Y6.172
X-4.958 Y5.906
X-4.969 Y5.653
X-4.959 Y5.41
X-4.937 Y5.222
X-4.906 Y5.066
X-4.862 Y4.913
X-4.828 Y4.825
X-4.759 Y4.702
X-4.657 Y4.605
X-4.531 Y4.544
X-4.392 Y4.523
X-3.694
G3 X-3.502 Y4.702 Z-1.217 I-0.007 J0.2
G1 X-3.499 Y4.729 Z-1.2
X-3.456 Y5.14
X-3.214 Y7.491
X-3.173 Y7.888
X-3.172 Y7.902
G3 X-3.365 Y8.108 Z-1.4 I-0.2 J0.007
G1 X-4.069
X-4.218 Y8.101
X-4.363 Y8.063
X-4.501 Y8.003
X-4.631 Y7.928
X-4.751 Y7.839
X-4.864 Y7.739
X-4.981 Y7.617
X-5.091 Y7.481
X-5.203 Y7.318
X-5.314 Y7.125
X-5.412 Y6.919
X-5.5 Y6.686
X-5.573 Y6.432
X-5.627 Y6.165
X-5.659 Y5.901
X-5.669 Y5.648
X-5.66 Y5.411
X-5.637 Y5.223
X-5.602 Y5.052
X-5.56 Y4.908
X-5.506 Y4.768
X-5.495 Y4.746
X-5.404 Y4.62
X-5.278 Y4.531
X-5.129 Y4.489
X-4.975 Y4.497
X-4.924 Y4.508
X-4.908 Y4.51
X-4.563 Y4.521
X-4.421 Y4.523
X-4.392
G3 X-4.2 Y4.702 Z-1.217 I-0.007 J0.2
G1 X-4.197 Y4.729 Z-1.2
X-4.155 Y5.14
X-3.917 Y7.491
X-3.877 Y7.888
X-3.876 Y7.902
G3 X-4.069 Y8.108 Z-1.4 I-0.2 J0.007
G1 X-4.456
X-4.585 Y8.111
X-4.714 Y8.115
X-4.864 Y8.112
X-5.011 Y8.083
X-5.152 Y8.03
X-5.284 Y7.959
X-5.408 Y7.875
X-5.524 Y7.779
X-5.637 Y7.667
X-5.749 Y7.538
X-5.866 Y7.378
X-5.973 Y7.205
X-6.076 Y7.002
X-6.17 Y6.772
X-6.251 Y6.522
X-6.312 Y6.261
X-6.351 Y5.998
X-6.369 Y5.742
X-6.367 Y5.499
X-6.346 Y5.272
X-6.317 Y5.105
X-6.274 Y4.938
X-6.225 Y4.796
X-6.164 Y4.66
X-6.089 Y4.53
X-6.002 Y4.408
X-5.998 Y4.404
X-5.871 Y4.306
X-5.717 Y4.257
X-5.556 Y4.264
X-5.407 Y4.324
X-5.36 Y4.354
X-5.295 Y4.392
X-5.231 Y4.419
X-5.102 Y4.469
X-4.975 Y4.497
X-4.93 Y4.515 Z-1.369
X-4.89 Y4.543 Z-1.338
X-4.858 Y4.58 Z-1.306
X-4.836 Y4.624 Z-1.275
X-4.826 Y4.672 Z-1.244
X-4.82 Y4.741 Z-1.2
X-4.782 Y5.152
X-4.566 Y7.491
X-4.528 Y7.897
Y7.902
G3 X-4.714 Y8.115 Z-1.4 I-0.2 J0.013
G1 X-4.908 Y8.121
X-4.924 Y8.123
X-5.102 Y8.162
X-5.141 Y8.177
X-5.283 Y8.224
X-5.433 Y8.23
X-5.581 Y8.207
X-5.724 Y8.162
X-5.861 Y8.099
X-5.989 Y8.021
X-6.109 Y7.932
X-6.223 Y7.832
X-6.346 Y7.704
X-6.465 Y7.56
X-6.582 Y7.392
X-6.698 Y7.193
X-6.804 Y6.972
X-6.895 Y6.737
X-6.971 Y6.48
X-7.027 Y6.209
X-7.063 Y5.932
X-7.075 Y5.668
X-7.066 Y5.418
X-7.04 Y5.189
X-6.997 Y4.976
X-6.941 Y4.777
X-6.882 Y4.618
X-6.819 Y4.482
X-6.744 Y4.352
X-6.659 Y4.228
X-6.561 Y4.114
X-6.453 Y4.011
X-6.333 Y3.92
X-6.325 Y3.916
X-6.169 Y3.861
X-6.005 Y3.863
X-5.851 Y3.923
X-5.728 Y4.032
X-5.648 Y4.133
X-5.618 Y4.163
X-5.503 Y4.262
X-5.489 Y4.273
X-5.407 Y4.324
X-5.373 Y4.353 Z-1.372
X-5.347 Y4.389 Z-1.343
X-5.328 Y4.429 Z-1.315
X-5.32 Y4.473 Z-1.286
X-5.308 Y4.608 Z-1.2
X-5.273 Y5.02
X-5.061 Y7.502
X-5.025 Y7.913
X-5.02 Y7.976 Z-1.24
X-5.022 Y8.026 Z-1.272
X-5.036 Y8.074 Z-1.304
X-5.062 Y8.117 Z-1.336
X-5.098 Y8.152 Z-1.368
X-5.141 Y8.177 Z-1.4
X-5.231 Y8.212
X-5.342 Y8.267
X-5.36 Y8.277
X-5.489 Y8.358
X-5.616 Y8.438
X-5.762 Y8.474
X-5.912 Y8.48
X-6.061 Y8.462
X-6.206 Y8.424
X-6.345 Y8.369
X-6.479 Y8.301
X-6.606 Y8.22
X-6.739 Y8.12
X-6.871 Y8.002
X-7.003 Y7.864
X-7.139 Y7.697
X-7.269 Y7.508
X-7.388 Y7.3
X-7.501 Y7.063
X-7.601 Y6.799
X-7.681 Y6.519
X-7.74 Y6.229
X-7.776 Y5.937
X-7.787 Y5.648
X-7.776 Y5.366
X-7.744 Y5.1
X-7.694 Y4.855
X-7.628 Y4.628
X-7.552 Y4.426
X-7.465 Y4.242
X-7.368 Y4.075
X-7.263 Y3.922
X-7.169 Y3.806
X-7.064 Y3.698
X-6.951 Y3.599
X-6.829 Y3.512
X-6.698 Y3.439
X-6.56 Y3.381
X-6.496 Y3.362
X-6.322 Y3.347
X-6.155 Y3.396
X-6.017 Y3.503
X-5.929 Y3.653
X-5.885 Y3.772
X-5.877 Y3.794
X-5.832 Y3.875
X-5.748 Y4.007
X-5.728 Y4.032
X-5.701 Y4.082 Z-1.364
X-5.689 Y4.137 Z-1.328
X-5.676 Y4.338 Z-1.2
X-5.648 Y4.75
X-5.454 Y7.654
X-5.426 Y8.066
X-5.418 Y8.191 Z-1.28
X-5.42 Y8.238 Z-1.31
X-5.433 Y8.283 Z-1.34
X-5.457 Y8.324 Z-1.37
X-5.489 Y8.358 Z-1.4
X-5.538 Y8.396
X-5.618 Y8.47
X-5.672 Y8.525
X-5.713 Y8.576
X-5.814 Y8.687
X-5.943 Y8.764
X-6.086 Y8.809
X-6.235 Y8.829
X-6.385 Y8.826
X-6.533 Y8.805
X-6.678 Y8.767
X-6.819 Y8.715
X-6.956 Y8.651
X-7.096 Y8.571
X-7.248 Y8.467
X-7.397 Y8.347
X-7.546 Y8.205
X-7.7 Y8.033
X-7.852 Y7.833
X-7.991 Y7.616
X-8.123 Y7.369
X-8.242 Y7.093
X-8.344 Y6.795
X-8.423 Y6.481
X-8.478 Y6.157
X-8.507 Y5.831
X-8.509 Y5.509
X-8.486 Y5.195
X-8.44 Y4.895
X-8.372 Y4.612
X-8.286 Y4.346
X-8.184 Y4.102
X-8.074 Y3.887
X-7.953 Y3.693
X-7.824 Y3.518
X-7.692 Y3.366
X-7.555 Y3.232
X-7.419 Y3.119
X-7.296 Y3.032
X-7.165 Y2.955
X-7.03 Y2.89
X-6.889 Y2.837
X-6.744 Y2.8
X-6.595 Y2.778
X-6.446 Y2.774
X-6.413 Y2.777
X-6.257 Y2.822
X-6.126 Y2.918
X-6.035 Y3.053
X-5.997 Y3.211
X-5.987 Y3.358
X-5.969 Y3.487
X-5.942 Y3.617
X-5.929 Y3.653
X-5.92 Y3.704 Z-1.367
X-5.906 Y3.966 Z-1.2
X-5.884 Y4.378
X-5.703 Y7.859
X-5.682 Y8.271
X-5.673 Y8.444 Z-1.31
X-5.676 Y8.491 Z-1.34
X-5.689 Y8.536 Z-1.37
X-5.713 Y8.576 Z-1.4
X-5.748 Y8.618
X-5.773 Y8.654
X-5.846 Y8.783
X-5.877 Y8.844
X-5.894 Y8.881
X-5.961 Y9.015
X-6.074 Y9.114
X-6.206 Y9.186
X-6.348 Y9.234
X-6.496 Y9.26
X-6.646 Y9.269
X-6.795 Y9.26
X-6.944 Y9.237
X-7.091 Y9.2
X-7.241 Y9.149
X-7.397 Y9.082
X-7.566 Y8.992
X-7.737 Y8.883
X-7.908 Y8.753
X-8.086 Y8.595
X-8.265 Y8.407
X-8.436 Y8.197
X-8.598 Y7.961
X-8.753 Y7.691
X-8.894 Y7.39
X-9.017 Y7.064
X-9.117 Y6.718
X-9.189 Y6.359
X-9.233 Y5.993
X-9.247 Y5.627
X-9.232 Y5.265
X-9.189 Y4.913
X-9.12 Y4.574
X-9.028 Y4.256
X-8.914 Y3.958
X-8.783 Y3.682
X-8.638 Y3.429
X-8.482 Y3.204
X-8.322 Y3.007
X-8.155 Y2.833
X-7.982 Y2.679
X-7.809 Y2.549
X-7.637 Y2.44
X-7.463 Y2.349
X-7.293 Y2.276
X-7.138 Y2.224
X-6.993 Y2.187
X-6.844 Y2.164
X-6.695 Y2.154
X-6.545 Y2.159
X-6.396 Y2.18
X-6.36 Y2.19
X-6.22 Y2.252
X-6.108 Y2.356
X-6.035 Y2.491
X-6.01 Y2.642
Y2.971
X-6.006 Y3.064
X-5.997 Y3.211
X-5.99 Y3.525 Z-1.2
X-5.981 Y3.938
X-5.893 Y8.156
X-5.884 Y8.569
X-5.879 Y8.802 Z-1.348
X-5.882 Y8.843 Z-1.374
X-5.894 Y8.881 Z-1.4
X-5.907 Y8.912
X-5.948 Y9.042
X-5.974 Y9.171
X-6.003 Y9.318
X-6.083 Y9.444
X-6.191 Y9.548
X-6.317 Y9.631
X-6.453 Y9.693
X-6.597 Y9.737
X-6.744 Y9.764
X-6.894 Y9.775
X-7.044 Y9.773
X-7.194 Y9.758
X-7.359 Y9.727
X-7.535 Y9.68
X-7.711 Y9.618
X-7.901 Y9.532
X-8.104 Y9.421
X-8.302 Y9.29
X-8.503 Y9.133
X-8.707 Y8.945
X-8.913 Y8.724
X-9.113 Y8.469
X-9.297 Y8.192
X-9.468 Y7.884
X-9.623 Y7.541
X-9.757 Y7.171
X-9.863 Y6.779
X-9.939 Y6.373
X-9.982 Y5.959
X-9.992 Y5.543
X-9.969 Y5.132
X-9.914 Y4.731
X-9.829 Y4.345
X-9.716 Y3.977
X-9.579 Y3.631
X-9.42 Y3.31
X-9.247 Y3.021
X-9.062 Y2.76
X-8.865 Y2.526
X-8.658 Y2.316
X-8.443 Y2.131
X-8.223 Y1.971
X-8.003 Y1.836
X-7.792 Y1.729
X-7.583 Y1.643
X-7.382 Y1.578
X-7.191 Y1.534
X-7.01 Y1.507
X-6.86 Y1.497
X-6.705 Y1.499
X-6.556 Y1.513
X-6.408 Y1.541
X-6.34 Y1.562
X-6.207 Y1.627
X-6.102 Y1.731
X-6.034 Y1.862
X-6.01 Y2.008
Y2.642
X-6.017 Y2.693 Z-1.367
X-6.037 Y2.742 Z-1.333
X-6.068 Y2.783 Z-1.3
X-6.11 Y2.815 Z-1.267
X-6.158 Y2.835 Z-1.233
X-6.206 Y2.855 Z-1.2
X-6.249 Y2.888
X-6.281 Y2.931
X-6.301 Y2.981
X-6.306 Y3.035
X-6.299 Y3.231
X-6.124 Y8.322
X-6.119 Y8.36
X-6.107 Y8.397
G3 X-5.98 Y8.857 I-1.444 J0.647
X-5.974 Y9.171 Z-1.4 I-1.572 J0.186
G1 X-5.989 Y9.3
X-5.991 Y9.429
X-5.992 Y9.532
X-6 Y9.682
X-6.059 Y9.82
X-6.147 Y9.941
X-6.255 Y10.045
X-6.377 Y10.132
X-6.51 Y10.202
X-6.65 Y10.257
X-6.794 Y10.297
X-6.942 Y10.323
X-7.098 Y10.337
X-7.26 Y10.339
X-7.438 Y10.327
X-7.633 Y10.298
X-7.831 Y10.251
X-8.04 Y10.185
X-8.262 Y10.093
X-8.494 Y9.975
X-8.725 Y9.833
X-8.957 Y9.664
X-9.196 Y9.458
X-9.434 Y9.217
X-9.665 Y8.942
X-9.886 Y8.631
X-10.088 Y8.292
X-10.268 Y7.927
X-10.427 Y7.526
X-10.558 Y7.096
X-10.657 Y6.646
X-10.721 Y6.183
X-10.747 Y5.715
X-10.736 Y5.247
X-10.687 Y4.787
X-10.603 Y4.339
X-10.486 Y3.909
X-10.339 Y3.5
X-10.166 Y3.119
X-9.973 Y2.772
X-9.762 Y2.454
X-9.535 Y2.166
X-9.292 Y1.904
X-9.038 Y1.67
X-8.778 Y1.467
X-8.513 Y1.293
X-8.248 Y1.148
X-7.987 Y1.03
X-7.739 Y0.943
X-7.502 Y0.879
X-7.272 Y0.837
X-7.056 Y0.815
X-6.876 Y0.812
X-6.705 Y0.822
X-6.556 Y0.843
X-6.41 Y0.877
X-6.328 Y0.905
X-6.199 Y0.972
X-6.098 Y1.075
X-6.033 Y1.204
X-6.01 Y1.347
Y2.008
X-6.017 Y2.06 Z-1.367
X-6.037 Y2.108 Z-1.333
X-6.069 Y2.15 Z-1.3
X-6.11 Y2.182 Z-1.267
X-6.158 Y2.202 Z-1.233
X-6.206 Y2.222 Z-1.2
X-6.248 Y2.254
X-6.28 Y2.296
X-6.3 Y2.345
X-6.306 Y2.397
X-6.304 Y2.598
X-6.237 Y8.678
X-6.229 Y8.73
X-6.209 Y8.777
G3 X-6.032 Y9.221 I-1.365 J0.802
X-5.992 Y9.532 Z-1.4 I-1.542 J0.358
G1 Y9.985
X-6 Y10.135
X-6.048 Y10.276
X-6.125 Y10.405
X-6.223 Y10.519
X-6.335 Y10.618
X-6.459 Y10.703
X-6.592 Y10.773
X-6.731 Y10.83
X-6.874 Y10.875
X-7.028 Y10.91
X-7.201 Y10.934
X-7.39 Y10.946
X-7.584 Y10.942
X-7.798 Y10.921
X-8.031 Y10.879
X-8.274 Y10.814
X-8.517 Y10.728
X-8.775 Y10.613
X-9.044 Y10.465
X-9.321 Y10.283
X-9.6 Y10.066
X-9.867 Y9.822
X-10.13 Y9.538
X-10.386 Y9.214
X-10.626 Y8.853
X-10.848 Y8.455
X-11.045 Y8.021
X-11.213 Y7.557
X-11.347 Y7.067
X-11.442 Y6.56
X-11.497 Y6.042
X-11.511 Y5.52
X-11.482 Y5.001
X-11.413 Y4.49
X-11.304 Y3.994
X-11.159 Y3.519
X-10.982 Y3.071
X-10.776 Y2.652
X-10.545 Y2.263
X-10.291 Y1.906
X-10.018 Y1.579
X-9.728 Y1.286
X-9.427 Y1.025
X-9.117 Y0.798
X-8.807 Y0.607
X-8.503 Y0.452
X-8.202 Y0.328
X-7.904 Y0.233
X-7.621 Y0.166
X-7.352 Y0.125
X-7.106 Y0.108
X-6.895 Y0.11
X-6.715 Y0.127
X-6.557 Y0.154
X-6.412 Y0.192
X-6.319 Y0.225
X-6.194 Y0.293
X-6.095 Y0.396
X-6.032 Y0.523
X-6.01 Y0.664
Y1.347
X-6.017 Y1.399 Z-1.367
X-6.037 Y1.447 Z-1.333
X-6.069 Y1.488 Z-1.3
X-6.11 Y1.52 Z-1.267
X-6.158 Y1.54 Z-1.233
X-6.207 Y1.56 Z-1.2
X-6.248 Y1.592
X-6.28 Y1.634
X-6.3 Y1.683
X-6.307 Y1.735
X-6.305 Y1.937
X-6.241 Y9.131
X-6.234 Y9.183
X-6.213 Y9.231
G3 X-6.034 Y9.674 I-1.36 J0.809
X-5.992 Y9.985 Z-1.4 I-1.54 J0.366
G1 Y10.501
X-6 Y10.651
X-6.045 Y10.794
X-6.116 Y10.926
X-6.208 Y11.045
X-6.315 Y11.15
X-6.433 Y11.242
X-6.56 Y11.322
X-6.694 Y11.39
X-6.84 Y11.45
X-7.005 Y11.501
X-7.178 Y11.541
X-7.375 Y11.569
X-7.595 Y11.583
X-7.82 Y11.579
X-8.062 Y11.556
X-8.325 Y11.509
X-8.607 Y11.434
X-8.897 Y11.332
X-9.188 Y11.203
X-9.496 Y11.035
X-9.808 Y10.831
X-10.122 Y10.587
X-10.434 Y10.302
X-10.739 Y9.976
X-11.028 Y9.611
X-11.293 Y9.215
X-11.538 Y8.777
X-11.758 Y8.297
X-11.945 Y7.781
X-12.094 Y7.239
X-12.201 Y6.68
X-12.262 Y6.115
X-12.279 Y5.546
X-12.251 Y4.978
X-12.179 Y4.414
X-12.063 Y3.861
X-11.905 Y3.329
X-11.71 Y2.823
X-11.481 Y2.347
X-11.221 Y1.903
X-10.934 Y1.491
X-10.623 Y1.115
X-10.294 Y0.775
X-9.953 Y0.475
X-9.605 Y0.216
X-9.251 Y-0.005
X-8.895 Y-0.191
X-8.539 Y-0.341
X-8.19 Y-0.456
X-7.852 Y-0.538
X-7.539 Y-0.588
X-7.261 Y-0.61
X-7.005 Y-0.609
X-6.797 Y-0.592
X-6.609 Y-0.561
X-6.463 Y-0.525
X-6.321 Y-0.476
X-6.289 Y-0.462
X-6.143 Y-0.36
X-6.045 Y-0.21
X-6.011 Y-0.035
X-6.01 Y0.664
X-6.017 Y0.716 Z-1.367
X-6.037 Y0.764 Z-1.333
X-6.069 Y0.805 Z-1.3
X-6.11 Y0.837 Z-1.267
X-6.159 Y0.857 Z-1.233
X-6.207 Y0.877 Z-1.2
X-6.248 Y0.909
X-6.28 Y0.951
X-6.3 Y1
X-6.307 Y1.052
X-6.305 Y1.254
X-6.241 Y9.647
X-6.234 Y9.699
X-6.213 Y9.748
G3 X-6.034 Y10.191 I-1.36 J0.809
X-5.992 Y10.501 Z-1.4 I-1.54 J0.366
G1 Y11.05
X-6 Y11.2
X-6.041 Y11.344
X-6.108 Y11.478
X-6.194 Y11.601
X-6.296 Y11.711
X-6.409 Y11.809
X-6.532 Y11.896
X-6.661 Y11.972
X-6.81 Y12.044
X-6.98 Y12.109
X-7.16 Y12.162
X-7.365 Y12.205
X-7.595 Y12.234
X-7.835 Y12.246
X-8.097 Y12.237
X-8.384 Y12.204
X-8.691 Y12.143
X-9.012 Y12.052
X-9.332 Y11.934
X-9.669 Y11.776
X-10.019 Y11.578
X-10.376 Y11.335
X-10.734 Y11.048
X-11.085 Y10.716
X-11.422 Y10.343
X-11.74 Y9.927
X-12.031 Y9.475
X-12.293 Y8.986
X-12.521 Y8.465
X-12.707 Y7.927
X-12.853 Y7.378
X-12.959 Y6.819
X-12.97 Y6.719
X-12.971 Y6.683
Y5.167
X-12.943 Y4.599
X-12.891 Y4.157
X-12.791 Y3.65
X-12.639 Y3.114
X-12.44 Y2.581
X-12.2 Y2.066
X-11.92 Y1.572
X-11.605 Y1.109
X-11.262 Y0.681
X-10.896 Y0.294
X-10.513 Y-0.052
X-10.118 Y-0.354
X-9.713 Y-0.616
X-9.304 Y-0.835
X-8.899 Y-1.012
X-8.504 Y-1.148
X-8.126 Y-1.245
X-7.765 Y-1.308
X-7.431 Y-1.338
X-7.137 Y-1.341
X-6.879 Y-1.323
X-6.694 Y-1.295
X-6.516 Y-1.254
X-6.372 Y-1.207
X-6.3 Y-1.178
X-6.148 Y-1.077
X-6.046 Y-0.925
X-6.011 Y-0.746
Y-0.035
X-6.017 Y0.008 Z-1.372
X-6.032 Y0.048 Z-1.345
X-6.056 Y0.084 Z-1.317
X-6.086 Y0.115 Z-1.29
X-6.197 Y0.202 Z-1.2
X-6.52 Y0.459
X-12.423 Y5.139
X-12.647 Y5.316
X-12.683 Y5.339
X-12.723 Y5.354
X-12.765 Y5.359
G3 X-12.971 Y5.167 Z-1.4 I-0.007 J-0.2
G1 Y2.712
X-12.961 Y2.503
X-12.937 Y2.322
X-12.887 Y2.089
X-12.814 Y1.845
X-12.693 Y1.534
X-12.538 Y1.214
X-12.311 Y0.829
X-12.024 Y0.42
X-11.689 Y0.016
X-11.315 Y-0.366
X-10.906 Y-0.723
X-10.472 Y-1.045
X-10.024 Y-1.324
X-9.573 Y-1.556
X-9.124 Y-1.744
X-8.682 Y-1.888
X-8.254 Y-1.991
X-7.849 Y-2.054
X-7.479 Y-2.082
X-7.17 Y-2.08
X-6.892 Y-2.056
X-6.696 Y-2.023
X-6.506 Y-1.975
X-6.363 Y-1.927
X-6.293 Y-1.896
X-6.145 Y-1.795
X-6.046 Y-1.644
X-6.011 Y-1.468
Y-0.746
X-6.02 Y-0.695 Z-1.367
X-6.041 Y-0.647 Z-1.333
X-6.075 Y-0.607 Z-1.3
X-6.117 Y-0.576 Z-1.266
X-6.209 Y-0.528 Z-1.2
X-6.575 Y-0.335
X-12.393 Y2.732
X-12.678 Y2.882
X-12.72 Y2.899
X-12.765 Y2.905
G3 X-12.971 Y2.712 Z-1.4 I-0.007 J-0.2
G1 Y1.292
X-12.962 Y1.115
X-12.943 Y0.966
X-12.906 Y0.797
X-12.853 Y0.627
X-12.768 Y0.413
X-12.652 Y0.176
X-12.488 Y-0.097
X-12.281 Y-0.389
X-11.996 Y-0.728
X-11.65 Y-1.078
X-11.268 Y-1.407
X-10.829 Y-1.728
X-10.354 Y-2.019
X-9.861 Y-2.269
X-9.363 Y-2.474
X-8.873 Y-2.63
X-8.407 Y-2.739
X-7.974 Y-2.804
X-7.572 Y-2.831
X-7.221 Y-2.827
X-6.928 Y-2.8
X-6.709 Y-2.761
X-6.517 Y-2.712
X-6.365 Y-2.659
X-6.29 Y-2.626
X-6.143 Y-2.524
X-6.046 Y-2.375
X-6.011 Y-2.199
Y-1.468
X-6.018 Y-1.423 Z-1.371
X-6.034 Y-1.381 Z-1.342
X-6.06 Y-1.343 Z-1.313
X-6.094 Y-1.313 Z-1.284
X-6.133 Y-1.291 Z-1.255
X-6.213 Y-1.257 Z-1.2
X-6.594 Y-1.097
X-12.38 Y1.337
X-12.694 Y1.469
X-12.729 Y1.48
X-12.765 Y1.485
G3 X-12.971 Y1.292 Z-1.4 I-0.007 J-0.2
G1 Y0.058
X-12.964 Y-0.092
X-12.939 Y-0.24
X-12.897 Y-0.392
X-12.841 Y-0.547
X-12.758 Y-0.731
X-12.639 Y-0.944
X-12.489 Y-1.169
X-12.285 Y-1.428
X-12.016 Y-1.718
X-11.708 Y-2
X-11.313 Y-2.308
X-10.854 Y-2.61
X-10.356 Y-2.883
X-9.837 Y-3.115
X-9.311 Y-3.302
X-8.795 Y-3.44
X-8.299 Y-3.531
X-7.835 Y-3.578
X-7.438 Y-3.586
X-7.101 Y-3.566
X-6.814 Y-3.525
X-6.62 Y-3.482
X-6.433 Y-3.424
X-6.294 Y-3.368
X-6.268 Y-3.355
X-6.132 Y-3.251
X-6.043 Y-3.106
X-6.011 Y-2.938
Y-2.199
X-6.019 Y-2.152 Z-1.369
X-6.037 Y-2.107 Z-1.339
X-6.066 Y-2.069 Z-1.308
X-6.103 Y-2.038 Z-1.277
X-6.146 Y-2.017 Z-1.247
X-6.215 Y-1.993 Z-1.2
X-6.606 Y-1.859
X-12.372 Y0.125
X-12.706 Y0.24
X-12.735 Y0.248
X-12.765 Y0.251
G3 X-12.971 Y0.058 Z-1.4 I-0.007 J-0.2
G1 Y-0.975
X-12.964 Y-1.125
X-12.94 Y-1.273
X-12.899 Y-1.417
X-12.846 Y-1.558
X-12.77 Y-1.721
X-12.665 Y-1.903
X-12.532 Y-2.098
X-12.347 Y-2.327
X-12.12 Y-2.565
X-11.827 Y-2.827
X-11.447 Y-3.115
X-11.008 Y-3.396
X-10.531 Y-3.649
X-10.009 Y-3.875
X-9.471 Y-4.059
X-8.92 Y-4.201
X-8.382 Y-4.295
X-7.911 Y-4.339
X-7.486 Y-4.345
X-7.12 Y-4.32
X-6.82 Y-4.275
X-6.619 Y-4.229
X-6.434 Y-4.17
X-6.294 Y-4.113
X-6.267 Y-4.099
X-6.132 Y-3.995
X-6.043 Y-3.85
X-6.012 Y-3.683
X-6.011 Y-2.938
X-6.019 Y-2.889 Z-1.368
X-6.039 Y-2.843 Z-1.337
X-6.069 Y-2.804 Z-1.305
X-6.109 Y-2.773 Z-1.273
X-6.154 Y-2.753 Z-1.241
X-6.216 Y-2.735 Z-1.2
X-6.612 Y-2.616
X-12.367 Y-0.894
X-12.714 Y-0.791
X-12.765 Y-0.782
G3 X-12.971 Y-0.975 Z-1.4 I-0.007 J-0.2
G1 Y-1.937
X-12.964 Y-2.087
X-12.94 Y-2.235
X-12.899 Y-2.38
X-12.844 Y-2.519
X-12.766 Y-2.677
X-12.671 Y-2.835
X-12.532 Y-3.031
X-12.369 Y-3.225
X-12.133 Y-3.464
X-11.872 Y-3.688
X-11.521 Y-3.944
X-11.09 Y-4.208
X-10.601 Y-4.456
X-10.075 Y-4.672
X-9.533 Y-4.845
X-8.98 Y-4.978
X-8.426 Y-5.067
X-7.932 Y-5.107
X-7.488 Y-5.106
X-7.11 Y-5.076
X-6.805 Y-5.026
X-6.605 Y-4.977
X-6.417 Y-4.914
X-6.279 Y-4.856
X-6.262 Y-4.846
X-6.129 Y-4.743
X-6.042 Y-4.599
X-6.012 Y-4.433
Y-3.683
X-6.02 Y-3.633 Z-1.367
X-6.041 Y-3.586 Z-1.335
X-6.072 Y-3.546 Z-1.302
X-6.113 Y-3.516 Z-1.27
X-6.16 Y-3.496 Z-1.237
X-6.217 Y-3.481 Z-1.2
X-6.616 Y-3.375
X-12.364 Y-1.846
X-12.72 Y-1.751
X-12.765 Y-1.745
X-12.771 Y-1.744 Z-1.204
G3 X-12.971 Y-1.937 Z-1.4 I0 J-0.2
G1 Y-2.913
X-12.964 Y-3.062
X-12.931 Y-3.209
X-12.883 Y-3.351
X-12.819 Y-3.494
X-12.74 Y-3.638
X-12.629 Y-3.804
X-12.488 Y-3.985
X-12.307 Y-4.182
X-12.074 Y-4.397
X-11.769 Y-4.635
X-11.429 Y-4.861
X-10.991 Y-5.102
X-10.482 Y-5.332
X-9.947 Y-5.524
X-9.399 Y-5.676
X-8.842 Y-5.789
X-8.296 Y-5.856
X-7.79 Y-5.877
X-7.34 Y-5.86
X-6.993 Y-5.818
X-6.712 Y-5.762
X-6.527 Y-5.708
X-6.353 Y-5.643
X-6.28 Y-5.609
X-6.139 Y-5.506
X-6.045 Y-5.358
X-6.012 Y-5.187
Y-4.433
X-6.02 Y-4.382 Z-1.367
X-6.042 Y-4.334 Z-1.333
X-6.075 Y-4.294 Z-1.3
X-6.118 Y-4.264 Z-1.267
X-6.167 Y-4.245 Z-1.233
X-6.218 Y-4.234 Z-1.2
X-6.62 Y-4.14
X-12.362 Y-2.809
X-12.726 Y-2.725
X-12.765 Y-2.72
G3 X-12.971 Y-2.913 Z-1.4 I-0.007 J-0.2
G1 Y-3.746
X-12.964 Y-3.896
X-12.94 Y-4.044
X-12.897 Y-4.187
X-12.84 Y-4.326
X-12.763 Y-4.472
X-12.668 Y-4.621
X-12.541 Y-4.79
X-12.383 Y-4.968
X-12.177 Y-5.165
X-11.927 Y-5.369
X-11.586 Y-5.604
X-11.218 Y-5.817
X-10.75 Y-6.039
X-10.218 Y-6.241
X-9.673 Y-6.401
X-9.117 Y-6.523
X-8.555 Y-6.605
X-8.004 Y-6.642
X-7.514 Y-6.635
X-7.126 Y-6.599
X-6.806 Y-6.543
X-6.598 Y-6.489
X-6.406 Y-6.422
X-6.268 Y-6.361
X-6.256 Y-6.355
X-6.127 Y-6.251
X-6.042 Y-6.108
X-6.012 Y-5.945
Y-5.187
X-6.021 Y-5.135 Z-1.366
X-6.043 Y-5.087 Z-1.333
X-6.076 Y-5.046 Z-1.299
X-6.12 Y-5.016 Z-1.265
X-6.169 Y-4.998 Z-1.232
X-6.218 Y-4.988 Z-1.2
X-6.621 Y-4.899
X-12.361 Y-3.638
X-12.729 Y-3.557
X-12.765 Y-3.553
G3 X-12.971 Y-3.746 Z-1.4 I-0.007 J-0.2
G1 Y-4.65
X-12.964 Y-4.8
X-12.933 Y-4.947
X-12.886 Y-5.089
X-12.823 Y-5.225
X-12.749 Y-5.356
X-12.644 Y-5.513
X-12.515 Y-5.675
X-12.344 Y-5.856
X-12.143 Y-6.039
X-11.865 Y-6.253
X-11.564 Y-6.449
X-11.157 Y-6.668
X-10.668 Y-6.884
X-10.131 Y-7.071
X-9.581 Y-7.217
X-9.023 Y-7.325
X-8.459 Y-7.392
X-7.918 Y-7.416
X-7.445 Y-7.399
X-7.05 Y-7.352
X-6.743 Y-7.291
X-6.55 Y-7.236
X-6.368 Y-7.168
X-6.281 Y-7.127
X-6.139 Y-7.024
X-6.045 Y-6.877
X-6.012 Y-6.704
Y-5.945
X-6.021 Y-5.892 Z-1.366
X-6.044 Y-5.844 Z-1.332
X-6.079 Y-5.803 Z-1.297
X-6.123 Y-5.773 Z-1.263
X-6.173 Y-5.755 Z-1.229
X-6.218 Y-5.747 Z-1.2
X-6.624 Y-5.667
X-12.359 Y-4.534
X-12.733 Y-4.461
X-12.765 Y-4.457
G3 X-12.971 Y-4.65 Z-1.4 I-0.007 J-0.2
G1 Y-5.496
X-12.964 Y-5.646
X-12.934 Y-5.793
X-12.885 Y-5.935
X-12.822 Y-6.071
X-12.744 Y-6.206
X-12.644 Y-6.353
X-12.514 Y-6.512
X-12.354 Y-6.68
X-12.146 Y-6.866
X-11.889 Y-7.06
X-11.574 Y-7.261
X-11.165 Y-7.478
X-10.685 Y-7.684
X-10.147 Y-7.867
X-9.595 Y-8.006
X-9.035 Y-8.106
X-8.47 Y-8.167
X-7.902 Y-8.187
X-7.429 Y-8.166
X-7.041 Y-8.117
X-6.74 Y-8.054
X-6.533 Y-7.994
X-6.358 Y-7.926
X-6.278 Y-7.888
X-6.137 Y-7.785
X-6.045 Y-7.638
X-6.012 Y-7.467
Y-6.704
G3 X-6.176 Y-6.515 Z-1.228 I-0.2 J-0.007
G1 X-6.219 Y-6.507 Z-1.2
X-6.625 Y-6.432
X-12.358 Y-5.376
X-12.735 Y-5.306
X-12.765 Y-5.303
G3 X-12.971 Y-5.496 Z-1.4 I-0.007 J-0.2
G1 Y-5.942
X-12.973 Y-6.071
X-12.98 Y-6.329
X-12.977 Y-6.479
X-12.944 Y-6.626
X-12.894 Y-6.767
X-12.83 Y-6.902
X-12.752 Y-7.034
X-12.649 Y-7.181
X-12.519 Y-7.338
X-12.355 Y-7.505
X-12.145 Y-7.689
X-11.884 Y-7.882
X-11.571 Y-8.077
X-11.162 Y-8.288
X-10.688 Y-8.486
X-10.156 Y-8.66
X-9.603 Y-8.793
X-9.042 Y-8.886
X-8.476 Y-8.942
X-7.908 Y-8.958
X-7.429 Y-8.934
X-7.038 Y-8.883
X-6.733 Y-8.819
X-6.528 Y-8.757
X-6.352 Y-8.689
X-6.269 Y-8.648
X-6.121 Y-8.536
X-6.029 Y-8.375
X-6.007 Y-8.191
X-6.011 Y-8.137
X-6.012 Y-7.467
G3 X-6.178 Y-7.277 Z-1.226 I-0.2 J-0.007
G1 X-6.219 Y-7.27 Z-1.2
X-6.626 Y-7.2
X-12.361 Y-6.211
X-12.746 Y-6.144
X-12.768 Y-6.142
G3 X-12.98 Y-6.329 Z-1.4 I-0.012 J-0.2
G1 X-12.982 Y-6.42
X-12.984 Y-6.433
X-13.078 Y-6.846
X-13.109 Y-6.993
X-13.106 Y-7.142
X-13.08 Y-7.29
X-13.036 Y-7.433
X-12.977 Y-7.571
X-12.904 Y-7.708
X-12.808 Y-7.857
X-12.688 Y-8.013
X-12.535 Y-8.183
X-12.345 Y-8.363
X-12.11 Y-8.552
X-11.799 Y-8.762
X-11.465 Y-8.952
X-11.033 Y-9.153
X-10.523 Y-9.343
X-9.976 Y-9.497
X-9.419 Y-9.611
X-8.855 Y-9.688
X-8.288 Y-9.729
X-7.753 Y-9.728
X-7.283 Y-9.689
X-6.91 Y-9.628
X-6.654 Y-9.564
X-6.45 Y-9.496
X-6.292 Y-9.429
X-6.159 Y-9.359
X-6.034 Y-9.277
X-5.996 Y-9.248
X-5.892 Y-9.132
X-5.834 Y-8.988
X-5.829 Y-8.832
X-5.877 Y-8.685
X-5.941 Y-8.525
X-5.976 Y-8.396
X-5.999 Y-8.267
X-6.007 Y-8.191
X-6.019 Y-8.142 Z-1.368
X-6.043 Y-8.098 Z-1.336
X-6.077 Y-8.061 Z-1.304
X-6.119 Y-8.034 Z-1.271
X-6.167 Y-8.018 Z-1.239
X-6.227 Y-8.006 Z-1.2
X-6.633 Y-7.926
X-12.424 Y-6.79
X-12.829 Y-6.711
X-12.848 Y-6.707 Z-1.212
G3 X-13.078 Y-6.846 Z-1.4 I-0.039 J-0.196
G1 X-13.181 Y-7.233
X-13.204 Y-7.298
X-13.231 Y-7.362
X-13.289 Y-7.501
X-13.309 Y-7.649
X-13.303 Y-7.799
X-13.276 Y-7.947
X-13.233 Y-8.091
X-13.177 Y-8.229
X-13.102 Y-8.376
X-13.009 Y-8.527
X-12.884 Y-8.697
X-12.733 Y-8.87
X-12.534 Y-9.066
X-12.314 Y-9.249
X-12.023 Y-9.456
X-11.659 Y-9.672
X-11.264 Y-9.865
X-10.765 Y-10.061
X-10.221 Y-10.226
X-9.666 Y-10.35
X-9.105 Y-10.438
X-8.538 Y-10.491
X-7.97 Y-10.506
X-7.453 Y-10.478
X-7.044 Y-10.423
X-6.718 Y-10.352
X-6.447 Y-10.27
X-6.24 Y-10.189
X-6.075 Y-10.108
X-5.936 Y-10.025
X-5.814 Y-9.939
X-5.7 Y-9.841
X-5.596 Y-9.733
X-5.557 Y-9.682
X-5.479 Y-9.528
X-5.463 Y-9.357
X-5.512 Y-9.192
X-5.618 Y-9.057
X-5.659 Y-9.028 Z-1.368
X-5.706 Y-9.011 Z-1.337
X-5.914 Y-8.961 Z-1.2
X-6.316 Y-8.865
X-12.556 Y-7.372
X-12.958 Y-7.276
X-13.009 Y-7.264 Z-1.234
X-13.061 Y-7.258 Z-1.267
X-13.112 Y-7.266 Z-1.3
X-13.16 Y-7.288 Z-1.333
X-13.201 Y-7.32 Z-1.367
X-13.231 Y-7.362 Z-1.4
X-13.299 Y-7.492
X-13.475 Y-7.797
X-13.543 Y-7.931
X-13.583 Y-8.075
X-13.597 Y-8.225
X-13.589 Y-8.374
X-13.563 Y-8.522
X-13.523 Y-8.667
X-13.467 Y-8.816
X-13.396 Y-8.965
X-13.297 Y-9.136
X-13.182 Y-9.304
X-13.026 Y-9.494
X-12.837 Y-9.691
X-12.607 Y-9.896
X-12.315 Y-10.115
X-11.979 Y-10.328
X-11.582 Y-10.538
X-11.092 Y-10.747
X-10.553 Y-10.929
X-10.002 Y-11.069
X-9.443 Y-11.173
X-8.879 Y-11.244
X-8.311 Y-11.279
X-7.761 Y-11.274
X-7.274 Y-11.231
X-6.85 Y-11.158
X-6.519 Y-11.073
X-6.233 Y-10.976
X-5.991 Y-10.87
X-5.781 Y-10.758
X-5.61 Y-10.648
X-5.482 Y-10.551
X-5.356 Y-10.438
X-5.253 Y-10.329
X-5.16 Y-10.211
X-5.081 Y-10.084
X-5.014 Y-9.949
X-4.994 Y-9.891
X-4.967 Y-9.714
X-5.01 Y-9.541
X-5.114 Y-9.396
X-5.266 Y-9.3
X-5.574 Y-9.239 Z-1.2
X-5.979 Y-9.158
X-12.79 Y-7.802
X-13.195 Y-7.721
X-13.266 Y-7.707 Z-1.246
X-13.314 Y-7.703 Z-1.277
X-13.362 Y-7.711 Z-1.308
X-13.406 Y-7.73 Z-1.338
X-13.445 Y-7.76 Z-1.369
X-13.475 Y-7.797 Z-1.4
X-13.626 Y-8.06
X-13.677 Y-8.137
X-13.756 Y-8.232
X-13.848 Y-8.35
X-13.903 Y-8.49
X-13.932 Y-8.637
X-13.94 Y-8.787
X-13.929 Y-8.936
X-13.903 Y-9.084
X-13.863 Y-9.229
X-13.807 Y-9.385
X-13.732 Y-9.55
X-13.628 Y-9.736
X-13.507 Y-9.917
X-13.342 Y-10.126
X-13.144 Y-10.338
X-12.909 Y-10.553
X-12.611 Y-10.785
X-12.247 Y-11.023
X-11.851 Y-11.239
X-11.355 Y-11.46
X-10.819 Y-11.649
X-10.27 Y-11.799
X-9.713 Y-11.914
X-9.151 Y-11.995
X-8.584 Y-12.044
X-8.015 Y-12.056
X-7.469 Y-12.026
X-6.985 Y-11.961
X-6.561 Y-11.869
X-6.208 Y-11.761
X-5.899 Y-11.64
X-5.631 Y-11.508
X-5.399 Y-11.37
X-5.202 Y-11.231
X-5.033 Y-11.089
X-4.883 Y-10.942
X-4.764 Y-10.805
X-4.676 Y-10.684
X-4.591 Y-10.548
X-4.523 Y-10.414
X-4.468 Y-10.274
X-4.429 Y-10.13
X-4.404 Y-9.982
X-4.401 Y-9.894
X-4.429 Y-9.713
X-4.524 Y-9.556
X-4.673 Y-9.449
X-4.852 Y-9.407
X-4.855 Z-1.398
G2 X-5.163 Y-9.454 Z-1.2 I-2.482 J15.317
X-6.2 Y-9.565 I-2.175 J15.364
G1 X-6.241 Y-9.564
X-12.436 Y-8.741
X-12.476 Y-8.731
G2 X-13.467 Y-8.345 I5.139 J14.641
X-13.733 Y-8.228 Z-1.385 I6.129 J14.255
G1 X-13.756 Y-8.232 Z-1.4
X-13.785 Y-8.267
X-13.885 Y-8.365
X-13.921 Y-8.396
X-14.014 Y-8.471
X-14.054 Y-8.5
X-14.169 Y-8.596
X-14.252 Y-8.721
X-14.309 Y-8.86
X-14.344 Y-9.006
X-14.36 Y-9.155
X-14.358 Y-9.305
X-14.342 Y-9.454
X-14.313 Y-9.603
X-14.265 Y-9.773
X-14.203 Y-9.943
X-14.112 Y-10.137
X-13.999 Y-10.338
X-13.859 Y-10.546
X-13.672 Y-10.779
X-13.454 Y-11.01
X-13.188 Y-11.251
X-12.862 Y-11.501
X-12.462 Y-11.76
X-12.027 Y-11.995
X-11.506 Y-12.223
X-10.969 Y-12.41
X-10.42 Y-12.559
X-9.864 Y-12.675
X-9.301 Y-12.759
X-8.735 Y-12.812
X-8.167 Y-12.83
X-7.599 Y-12.811
X-7.057 Y-12.75
X-6.571 Y-12.656
X-6.142 Y-12.537
X-5.776 Y-12.403
X-5.45 Y-12.252
X-5.158 Y-12.088
X-4.897 Y-11.912
X-4.678 Y-11.737
X-4.491 Y-11.562
X-4.329 Y-11.384
X-4.193 Y-11.207
X-4.08 Y-11.033
X-3.985 Y-10.856
X-3.913 Y-10.695
X-3.864 Y-10.553
X-3.824 Y-10.398
X-3.798 Y-10.25
X-3.787 Y-10.101
X-3.792 Y-9.951
X-3.812 Y-9.802
X-3.822 Y-9.767
X-3.884 Y-9.627
X-3.988 Y-9.515
X-4.123 Y-9.443
X-4.273 Y-9.418
X-4.456
X-4.585 Y-9.415
X-4.852 Y-9.407
X-4.855 Z-1.398
G2 X-5.163 Y-9.454 Z-1.2 I-2.877 J17.755
X-6.414 Y-9.59 I-2.57 J17.802
G1 X-6.448
X-12.509 Y-8.99
X-12.543 Y-8.983
G2 X-13.758 Y-8.599 I4.811 J17.331
X-14.035 Y-8.498 Z-1.388 I6.025 J16.947
G1 X-14.054 Y-8.5 Z-1.4
X-14.485 Y-8.825
X-14.601 Y-8.921
X-14.688 Y-9.043
X-14.751 Y-9.179
X-14.794 Y-9.323
X-14.819 Y-9.47
X-14.827 Y-9.62
X-14.823 Y-9.77
X-14.804 Y-9.929
X-14.769 Y-10.103
X-14.717 Y-10.282
X-14.64 Y-10.489
X-14.542 Y-10.697
X-14.414 Y-10.921
X-14.245 Y-11.167
X-14.045 Y-11.414
X-13.803 Y-11.668
X-13.494 Y-11.944
X-13.126 Y-12.223
X-12.709 Y-12.49
X-12.238 Y-12.74
X-11.716 Y-12.966
X-11.179 Y-13.153
X-10.631 Y-13.305
X-10.465 Y-13.341
X-10.44 Y-13.346
X-10.414 Y-13.349
X-10.389 Y-13.351
X-10.123 Y-13.364
X-10.107 Y-13.368
X-9.549 Y-13.477
X-8.986 Y-13.559
X-8.419 Y-13.598
X-7.85 Y-13.599
X-7.283 Y-13.56
X-6.738 Y-13.479
X-6.24 Y-13.364
X-5.786 Y-13.221
X-5.375 Y-13.053
X-5.002 Y-12.865
X-4.679 Y-12.667
X-4.399 Y-12.464
X-4.152 Y-12.252
X-3.934 Y-12.033
X-3.744 Y-11.808
X-3.584 Y-11.584
X-3.456 Y-11.37
X-3.35 Y-11.158
X-3.267 Y-10.951
X-3.207 Y-10.754
X-3.163 Y-10.56
X-3.14 Y-10.39
X-3.131 Y-10.24
X-3.134 Y-10.089
X-3.15 Y-9.94
X-3.181 Y-9.793
X-3.198 Y-9.742
X-3.264 Y-9.611
X-3.367 Y-9.507
X-3.497 Y-9.441
X-3.642 Y-9.418
X-4.273
X-4.324 Y-9.426 Z-1.367
X-4.371 Y-9.447 Z-1.334
X-4.551 Y-9.558 Z-1.2
X-4.902 Y-9.774
X-9.931 Y-12.867
X-10.157 Y-13.005
X-10.195 Y-13.036
X-10.225 Y-13.075
X-10.244 Y-13.121
G3 X-10.107 Y-13.368 Z-1.4 I0.192 J-0.055
G1 X-10.01 Y-13.392
X-9.881 Y-13.435
X-9.752 Y-13.489
X-9.723 Y-13.505
X-9.622 Y-13.573
X-9.493 Y-13.671
X-9.47 Y-13.691
X-9.412 Y-13.756
X-9.306 Y-13.862
X-9.183 Y-13.948
X-9.052 Y-14.02
X-8.898 Y-14.088
X-8.698 Y-14.158
X-8.481 Y-14.214
X-8.178 Y-14.267
X-7.853 Y-14.298
X-7.431 Y-14.303
X-6.961 Y-14.271
X-6.484 Y-14.2
X-6.159 Y-14.125
X-6.053 Y-14.087
X-5.96 Y-14.024
X-5.884 Y-13.941
X-5.877 Y-13.931
X-5.784 Y-13.821
X-5.748 Y-13.784
X-5.633 Y-13.691
X-5.489 Y-13.596
X-5.36 Y-13.537
X-5.231 Y-13.493
X-5.102 Y-13.461
X-5.063 Y-13.457
X-4.915 Y-13.433
X-4.726 Y-13.378
X-4.532 Y-13.304
X-4.318 Y-13.202
X-4.087 Y-13.068
X-3.856 Y-12.909
X-3.633 Y-12.726
X-3.415 Y-12.516
X-3.214 Y-12.289
X-3.033 Y-12.048
X-2.876 Y-11.8
X-2.746 Y-11.551
X-2.641 Y-11.305
X-2.561 Y-11.067
X-2.504 Y-10.835
X-2.468 Y-10.613
X-2.451 Y-10.403
Y-10.237
X-2.464 Y-10.07
X-2.488 Y-9.922
X-2.525 Y-9.777
X-2.544 Y-9.725
X-2.612 Y-9.6
X-2.715 Y-9.502
X-2.842 Y-9.439
X-2.982 Y-9.418
X-3.642
X-3.688 Y-9.425 Z-1.37
X-3.731 Y-9.442 Z-1.341
X-3.768 Y-9.468 Z-1.311
X-3.799 Y-9.503 Z-1.282
X-3.821 Y-9.544 Z-1.252
X-3.851 Y-9.62 Z-1.2
X-4.004 Y-10.004
X-5.145 Y-12.884
X-5.263 Y-13.184
X-5.275 Y-13.228
X-5.277 Y-13.273
G3 X-5.063 Y-13.457 Z-1.4 I0.199 J0.015
G1 X-4.973 Y-13.447
X-4.844 Y-13.443
X-4.198 Y-13.448
X-4.127 Y-13.449
X-3.977 Y-13.443
X-3.829 Y-13.419
X-3.685 Y-13.378
X-3.545 Y-13.324
X-3.387 Y-13.247
X-3.232 Y-13.156
X-3.057 Y-13.033
X-2.879 Y-12.886
X-2.704 Y-12.716
X-2.528 Y-12.513
X-2.36 Y-12.286
X-2.207 Y-12.041
X-2.073 Y-11.782
X-1.962 Y-11.516
X-1.874 Y-11.247
X-1.811 Y-10.986
X-1.772 Y-10.733
X-1.754 Y-10.497
X-1.755 Y-10.291
X-1.77 Y-10.12
X-1.796 Y-9.962
X-1.833 Y-9.817
X-1.865 Y-9.727
X-1.933 Y-9.602
X-2.036 Y-9.503
X-2.163 Y-9.439
X-2.304 Y-9.418
X-2.982
X-3.031 Y-9.425 Z-1.369
X-3.076 Y-9.445 Z-1.337
X-3.115 Y-9.474 Z-1.306
X-3.146 Y-9.513 Z-1.275
X-3.166 Y-9.557 Z-1.243
X-3.187 Y-9.622 Z-1.2
X-3.311 Y-10.016
X-4.2 Y-12.845
X-4.308 Y-13.189
X-4.317 Y-13.241
G3 X-4.127 Y-13.449 Z-1.4 I0.2 J-0.009
G1 X-3.164 Y-13.459
X-3.015 Y-13.453
X-2.868 Y-13.421
X-2.726 Y-13.372
X-2.59 Y-13.309
X-2.447 Y-13.227
X-2.308 Y-13.132
X-2.153 Y-13.006
X-1.996 Y-12.856
X-1.842 Y-12.684
X-1.685 Y-12.478
X-1.535 Y-12.243
X-1.4 Y-11.988
X-1.283 Y-11.718
X-1.188 Y-11.437
X-1.117 Y-11.156
X-1.072 Y-10.886
X-1.05 Y-10.628
X-1.048 Y-10.387
X-1.063 Y-10.194
X-1.091 Y-10.012
X-1.126 Y-9.866
X-1.174 Y-9.724
X-1.185 Y-9.698
X-1.287 Y-9.55
X-1.437 Y-9.452
X-1.613 Y-9.418
X-2.304
X-2.356 Y-9.426 Z-1.367
X-2.403 Y-9.448 Z-1.334
X-2.443 Y-9.481 Z-1.3
X-2.474 Y-9.523 Z-1.267
X-2.492 Y-9.572 Z-1.234
X-2.504 Y-9.623 Z-1.2
X-2.599 Y-10.025
X-3.264 Y-12.848
X-3.35 Y-13.213
X-3.355 Y-13.25
G3 X-3.164 Y-13.459 Z-1.4 I0.2 J-0.009
G1 X-2.318 Y-13.467
X-2.169 Y-13.461
X-2.023 Y-13.427
X-1.882 Y-13.375
X-1.748 Y-13.308
X-1.619 Y-13.228
X-1.485 Y-13.131
X-1.34 Y-13.005
X-1.201 Y-12.863
X-1.053 Y-12.685
X-0.906 Y-12.478
X-0.773 Y-12.254
X-0.649 Y-12
X-0.54 Y-11.723
X-0.452 Y-11.434
X-0.388 Y-11.14
X-0.35 Y-10.855
X-0.336 Y-10.584
X-0.342 Y-10.34
X-0.363 Y-10.148
X-0.394 Y-9.984
X-0.437 Y-9.829
X-0.488 Y-9.688
X-0.491 Y-9.682
X-0.594 Y-9.542
X-0.741 Y-9.45
X-0.911 Y-9.418
X-1.613
X-1.666 Y-9.427 Z-1.366
X-1.714 Y-9.449 Z-1.331
X-1.755 Y-9.484 Z-1.297
X-1.785 Y-9.529 Z-1.263
X-1.802 Y-9.58 Z-1.229
X-1.811 Y-9.624 Z-1.2
X-1.889 Y-10.029
X-2.433 Y-12.853
X-2.506 Y-13.23
X-2.509 Y-13.259
G3 X-2.318 Y-13.467 Z-1.4 I0.2 J-0.009
G1 X-1.543 Y-13.475
X-1.394 Y-13.469
X-1.247 Y-13.437
X-1.106 Y-13.386
X-0.972 Y-13.319
X-0.845 Y-13.24
X-0.717 Y-13.144
X-0.583 Y-13.025
X-0.45 Y-12.887
X-0.307 Y-12.713
X-0.174 Y-12.52
X-0.045 Y-12.297
X0.077 Y-12.041
X0.184 Y-11.761
X0.27 Y-11.466
X0.332 Y-11.167
X0.367 Y-10.878
X0.379 Y-10.605
X0.369 Y-10.346
X0.345 Y-10.138
X0.313 Y-9.98
X0.267 Y-9.82
X0.214 Y-9.679
X0.111 Y-9.541
X-0.035 Y-9.449
X-0.205 Y-9.418
X-0.911
G3 X-1.102 Y-9.584 Z-1.226 I0.007 J-0.2
G1 X-1.108 Y-9.624 Z-1.2
X-1.179 Y-10.031
X-1.666 Y-12.859
X-1.732 Y-13.241
X-1.734 Y-13.267
G3 X-1.543 Y-13.475 Z-1.4 I0.2 J-0.009
G1 X-0.769 Y-13.482
X-0.619 Y-13.476
X-0.472 Y-13.442
X-0.332 Y-13.389
X-0.199 Y-13.32
X-0.073 Y-13.238
X0.046 Y-13.145
X0.18 Y-13.023
X0.307 Y-12.886
X0.443 Y-12.714
X0.576 Y-12.514
X0.699 Y-12.293
X0.816 Y-12.036
X0.918 Y-11.755
X0.999 Y-11.457
X1.056 Y-11.152
X1.088 Y-10.855
X1.095 Y-10.578
X1.081 Y-10.316
X1.053 Y-10.114
X1.018 Y-9.954
X0.971 Y-9.798
X0.937 Y-9.713
X0.837 Y-9.558
X0.684 Y-9.454
X0.504 Y-9.418
X-0.205
G3 X-0.395 Y-9.587 Z-1.224 I0.007 J-0.2
G1 X-0.401 Y-9.624 Z-1.2
X-0.464 Y-10.032
X-0.898 Y-12.866
X-0.958 Y-13.252
X-0.96 Y-13.274
G3 X-0.769 Y-13.482 Z-1.4 I0.2 J-0.008
G1 X-0.581 Y-13.485
X-0.452 Y-13.487
X-0.258 Y-13.515
X-0.226 Y-13.523
X-0.081 Y-13.56
X0.069 Y-13.552
X0.215 Y-13.519
X0.356 Y-13.467
X0.49 Y-13.399
X0.616 Y-13.319
X0.746 Y-13.22
X0.872 Y-13.106
X1.006 Y-12.964
X1.143 Y-12.793
X1.272 Y-12.603
X1.401 Y-12.375
X1.522 Y-12.114
X1.626 Y-11.834
X1.709 Y-11.538
X1.77 Y-11.228
X1.806 Y-10.915
X1.815 Y-10.632
X1.803 Y-10.367
X1.776 Y-10.159
X1.737 Y-9.973
X1.692 Y-9.819
X1.656 Y-9.727
X1.558 Y-9.572
X1.408 Y-9.467
X1.229 Y-9.428
X0.71 Y-9.419
X0.504 Y-9.418
G3 X0.314 Y-9.582 Z-1.227 I0.007 J-0.2
G1 X0.306 Y-9.624 Z-1.2
X0.233 Y-10.031
X-0.273 Y-12.858
X-0.346 Y-13.265
X-0.353 Y-13.301 Z-1.223
G3 X-0.226 Y-13.523 Z-1.4 I0.197 J-0.035
G1 X-0.065 Y-13.577
X0.065 Y-13.642
X0.111 Y-13.669
X0.243 Y-13.739
X0.389 Y-13.775
X0.539 Y-13.78
X0.688 Y-13.761
X0.833 Y-13.722
X0.972 Y-13.667
X1.106 Y-13.599
X1.24 Y-13.515
X1.373 Y-13.416
X1.514 Y-13.293
X1.663 Y-13.139
X1.802 Y-12.97
X1.946 Y-12.764
X2.086 Y-12.524
X2.212 Y-12.261
X2.322 Y-11.978
X2.415 Y-11.665
X2.483 Y-11.341
X2.524 Y-11.016
X2.539 Y-10.711
X2.53 Y-10.436
X2.503 Y-10.208
X2.467 Y-10.021
X2.42 Y-9.856
X2.368 Y-9.715
X2.363 Y-9.704
X2.262 Y-9.567
X2.118 Y-9.475
X1.951 Y-9.441
X1.229 Y-9.428
X1.178 Y-9.436 Z-1.367
X1.13 Y-9.456 Z-1.334
X1.089 Y-9.488 Z-1.301
X1.058 Y-9.53 Z-1.268
X1.039 Y-9.578 Z-1.235
X1.025 Y-9.63 Z-1.2
X0.92 Y-10.03
X0.146 Y-12.99
X0.041 Y-13.389
X0.025 Y-13.45 Z-1.24
X0.019 Y-13.5 Z-1.272
X0.025 Y-13.55 Z-1.304
X0.043 Y-13.596 Z-1.336
X0.072 Y-13.637 Z-1.368
X0.111 Y-13.669 Z-1.4
X0.148 Y-13.691
X0.194 Y-13.723
X0.311 Y-13.821
X0.323 Y-13.832
X0.384 Y-13.897
X0.492 Y-14.001
X0.626 Y-14.069
X0.771 Y-14.106
X0.92 Y-14.119
X1.07 Y-14.11
X1.218 Y-14.084
X1.362 Y-14.043
X1.501 Y-13.988
X1.647 Y-13.916
X1.79 Y-13.83
X1.947 Y-13.719
X2.107 Y-13.584
X2.265 Y-13.428
X2.429 Y-13.238
X2.591 Y-13.014
X2.74 Y-12.772
X2.879 Y-12.497
X3.006 Y-12.189
X3.112 Y-11.856
X3.192 Y-11.511
X3.244 Y-11.167
X3.266 Y-10.839
X3.262 Y-10.538
X3.237 Y-10.274
X3.205 Y-10.09
X3.16 Y-9.916
X3.111 Y-9.774
X3.093 Y-9.733
X2.993 Y-9.588
X2.846 Y-9.49
X2.674 Y-9.454
X1.951 Y-9.441
X1.903 Y-9.448 Z-1.369
X1.858 Y-9.466 Z-1.338
X1.818 Y-9.495 Z-1.307
X1.787 Y-9.532 Z-1.275
X1.766 Y-9.576 Z-1.244
X1.743 Y-9.642 Z-1.2
X1.608 Y-10.032
X0.513 Y-13.211
X0.379 Y-13.602
X0.345 Y-13.7 Z-1.266
X0.335 Y-13.751 Z-1.3
X0.338 Y-13.804 Z-1.333
X0.355 Y-13.853 Z-1.367
X0.384 Y-13.897 Z-1.4
X0.434 Y-13.95
X0.452 Y-13.973
X0.525 Y-14.079
X0.581 Y-14.18
X0.655 Y-14.311
X0.77 Y-14.406
X0.904 Y-14.474
X1.047 Y-14.518
X1.196 Y-14.541
X1.346 Y-14.545
X1.495 Y-14.533
X1.643 Y-14.506
X1.794 Y-14.465
X1.944 Y-14.411
X2.107 Y-14.337
X2.283 Y-14.239
X2.453 Y-14.126
X2.636 Y-13.982
X2.824 Y-13.807
X3.007 Y-13.608
X3.182 Y-13.383
X3.356 Y-13.118
X3.521 Y-12.817
X3.67 Y-12.485
X3.796 Y-12.13
X3.894 Y-11.762
X3.961 Y-11.394
X3.996 Y-11.036
X4.003 Y-10.71
X3.985 Y-10.413
X3.953 Y-10.189
X3.912 Y-10.008
X3.861 Y-9.846
X3.823 Y-9.751
X3.751 Y-9.629
X3.646 Y-9.534
X3.517 Y-9.476
X3.376 Y-9.459
X3.294 Y-9.461
X3.164 Y-9.462
X2.674 Y-9.454
X2.629 Y-9.46 Z-1.371
X2.586 Y-9.476 Z-1.342
X2.548 Y-9.502 Z-1.312
X2.517 Y-9.535 Z-1.283
X2.494 Y-9.575 Z-1.254
X2.46 Y-9.653 Z-1.2
X2.297 Y-10.032
X0.804 Y-13.503
X0.641 Y-13.882
X0.581 Y-14.022 Z-1.297
X0.567 Y-14.074 Z-1.331
Y-14.128 Z-1.366
X0.581 Y-14.18 Z-1.4
X0.595 Y-14.208
X0.644 Y-14.337
X0.682 Y-14.466
X0.688 Y-14.506
X0.719 Y-14.652
X0.813 Y-14.769
X0.93 Y-14.863
X1.061 Y-14.936
X1.201 Y-14.989
X1.347 Y-15.025
X1.496 Y-15.044
X1.646 Y-15.048
X1.797 Y-15.039
X1.952 Y-15.017
X2.121 Y-14.978
X2.304 Y-14.921
X2.487 Y-14.847
X2.683 Y-14.749
X2.891 Y-14.623
X3.101 Y-14.473
X3.304 Y-14.299
X3.514 Y-14.089
X3.726 Y-13.841
X3.934 Y-13.553
X4.125 Y-13.237
X4.296 Y-12.897
X4.447 Y-12.522
X4.571 Y-12.126
X4.664 Y-11.719
X4.722 Y-11.318
X4.745 Y-10.95
X4.739 Y-10.628
X4.711 Y-10.337
X4.672 Y-10.124
X4.624 Y-9.943
X4.574 Y-9.801
X4.534 Y-9.711
X4.427 Y-9.562
X4.271 Y-9.466
X4.091 Y-9.437
X3.376 Y-9.459
X3.326 Y-9.468 Z-1.367
X3.28 Y-9.491 Z-1.335
X3.241 Y-9.524 Z-1.302
X3.212 Y-9.566 Z-1.269
X3.162 Y-9.662 Z-1.2
X2.971 Y-10.029
X0.989 Y-13.85
X0.799 Y-14.217
X0.709 Y-14.39 Z-1.324
X0.695 Y-14.427 Z-1.349
X0.688 Y-14.466 Z-1.375
Y-14.506 Z-1.4
X0.702 Y-14.596
X0.71 Y-14.725
Y-14.803
X0.719 Y-14.953
X0.774 Y-15.093
X0.86 Y-15.216
X0.967 Y-15.32
X1.09 Y-15.406
X1.223 Y-15.476
X1.363 Y-15.529
X1.508 Y-15.567
X1.656 Y-15.592
X1.806 Y-15.604
X1.973
X2.154 Y-15.59
X2.339 Y-15.56
X2.542 Y-15.51
X2.762 Y-15.438
X2.983 Y-15.344
X3.207 Y-15.227
X3.444 Y-15.078
X3.474 Y-15.055
X3.574 Y-14.955
X3.638 Y-14.829
X3.662 Y-14.689
X3.663 Y-14.596
X3.672 Y-14.466
X3.681 Y-14.404
X3.696 Y-14.337
X3.73 Y-14.208
X3.783 Y-14.079
X3.81 Y-14.024
X3.853 Y-13.95
X3.945 Y-13.821
X4.002 Y-13.756
X4.069 Y-13.691
X4.198 Y-13.586
X4.327 Y-13.507
X4.455 Y-13.429
X4.572 Y-13.335
X4.679 Y-13.23
X4.791 Y-13.098
X4.897 Y-12.951
X5.014 Y-12.758
X5.123 Y-12.54
X5.235 Y-12.264
X5.328 Y-11.968
X5.403 Y-11.639
X5.453 Y-11.29
X5.475 Y-10.939
X5.47 Y-10.621
X5.442 Y-10.345
X5.403 Y-10.126
X5.354 Y-9.939
X5.299 Y-9.783
X5.238 Y-9.646
X5.223 Y-9.621
X5.105 Y-9.484
X4.942 Y-9.402
X4.761 Y-9.388
X4.585 Y-9.41
X4.456 Y-9.423
X4.091 Y-9.437
G3 X3.905 Y-9.644 Z-1.204 I0.015 J-0.199
G1 Y-9.65 Z-1.2
X3.922 Y-10.063
X4.036 Y-12.99
X4.049 Y-13.331
X4.054 Y-13.366
X4.065 Y-13.401
G3 X4.327 Y-13.507 Z-1.4 I0.184 J0.078
G1 X4.391 Y-13.477
X4.456 Y-13.448
X4.5 Y-13.433
X4.585 Y-13.407
X4.714 Y-13.38
X4.785 Y-13.371
X4.933 Y-13.345
X5.073 Y-13.291
X5.203 Y-13.217
X5.323 Y-13.126
X5.432 Y-13.024
X5.54 Y-12.902
X5.641 Y-12.769
X5.752 Y-12.594
X5.851 Y-12.407
X5.952 Y-12.172
X6.042 Y-11.904
X6.113 Y-11.618
X6.166 Y-11.302
X6.193 Y-10.979
X6.194 Y-10.668
X6.172 Y-10.385
X6.132 Y-10.132
X6.088 Y-9.952
X6.034 Y-9.785
X5.974 Y-9.642
X5.904 Y-9.509
X5.784 Y-9.384
X5.626 Y-9.312
X5.453 Y-9.302
X5.231 Y-9.331
X4.761 Y-9.388
G3 X4.592 Y-9.585 Z-1.221 I0.031 J-0.198
G1 Y-9.617 Z-1.2
X4.589 Y-10.03
X4.57 Y-12.777
X4.567 Y-13.171
X4.568 Y-13.19
G3 X4.785 Y-13.371 Z-1.4 I0.199 J0.018
G1 X4.844 Y-13.364
X5.102 Y-13.341
X5.431 Y-13.314
X5.58 Y-13.294
X5.722 Y-13.246
X5.855 Y-13.177
X5.979 Y-13.092
X6.093 Y-12.994
X6.199 Y-12.885
X6.305 Y-12.756
X6.416 Y-12.598
X6.518 Y-12.424
X6.623 Y-12.208
X6.716 Y-11.969
X6.794 Y-11.706
X6.857 Y-11.411
X6.897 Y-11.101
X6.912 Y-10.788
X6.903 Y-10.495
X6.872 Y-10.223
X6.825 Y-9.978
X6.776 Y-9.804
X6.719 Y-9.648
X6.655 Y-9.509
X6.581 Y-9.379
X6.568 Y-9.361
X6.47 Y-9.26
X6.347 Y-9.192
X6.209 Y-9.165
X6.069 Y-9.18
X5.748 Y-9.263
X5.453 Y-9.302
G3 X5.286 Y-9.496 Z-1.223 I0.033 J-0.197
G1 Y-9.533 Z-1.2
X5.278 Y-9.946
X5.229 Y-12.711
X5.222 Y-13.111
Y-13.124
G3 X5.431 Y-13.314 Z-1.4 I0.2 J0.01
G1 X6.135 Y-13.255
X6.284 Y-13.235
X6.426 Y-13.187
X6.559 Y-13.118
X6.683 Y-13.034
X6.798 Y-12.937
X6.904 Y-12.829
X7.014 Y-12.699
X7.12 Y-12.55
X7.231 Y-12.364
X7.329 Y-12.165
X7.422 Y-11.929
X7.505 Y-11.659
X7.569 Y-11.369
X7.61 Y-11.069
X7.628 Y-10.76
X7.621 Y-10.461
X7.592 Y-10.19
X7.545 Y-9.937
X7.485 Y-9.716
X7.427 Y-9.555
X7.359 Y-9.405
X7.286 Y-9.274
X7.228 Y-9.189
X7.129 Y-9.084
X7.002 Y-9.015
X6.861 Y-8.987
X6.717 Y-9.004
X6.523 Y-9.058
X6.069 Y-9.18
X6.022 Y-9.2 Z-1.367
X5.982 Y-9.232 Z-1.335
X5.952 Y-9.273 Z-1.302
X5.933 Y-9.32 Z-1.27
X5.926 Y-9.371 Z-1.237
Y-9.429 Z-1.2
Y-9.842
Y-12.652
X5.925 Y-13.056
X5.926 Y-13.065
G3 X6.135 Y-13.255 Z-1.4 I0.2 J0.01
G1 X6.852 Y-13.196
X7.001 Y-13.176
X7.142 Y-13.126
X7.275 Y-13.057
X7.399 Y-12.972
X7.513 Y-12.875
X7.619 Y-12.768
X7.731 Y-12.635
X7.836 Y-12.486
X7.947 Y-12.3
X8.047 Y-12.098
X8.139 Y-11.865
X8.221 Y-11.598
X8.285 Y-11.306
X8.326 Y-11.003
X8.343 Y-10.695
X8.336 Y-10.39
X8.306 Y-10.107
X8.256 Y-9.843
X8.192 Y-9.605
X8.125 Y-9.421
X8.048 Y-9.253
X7.976 Y-9.121
X7.892 Y-8.997
X7.838 Y-8.931
X7.722 Y-8.829
X7.578 Y-8.77
X7.423 Y-8.762
X7.274 Y-8.805
X7.168 Y-8.855
X7.036 Y-8.912
X6.91 Y-8.95
X6.717 Y-9.004
X6.671 Y-9.026 Z-1.367
X6.632 Y-9.058 Z-1.335
X6.602 Y-9.1 Z-1.302
X6.584 Y-9.147 Z-1.27
X6.578 Y-9.198 Z-1.237
X6.579 Y-9.256 Z-1.2
X6.586 Y-9.669
X6.635 Y-12.593
X6.642 Y-12.999
X6.643 Y-13.006
G3 X6.852 Y-13.196 Z-1.4 I0.2 J0.01
G1 X7.427 Y-13.148
X7.556 Y-13.136
X7.704 Y-13.11
X7.846 Y-13.064
X7.98 Y-12.996
X8.105 Y-12.913
X8.22 Y-12.817
X8.327 Y-12.711
X8.437 Y-12.582
X8.543 Y-12.435
X8.654 Y-12.252
X8.753 Y-12.055
X8.847 Y-11.823
X8.93 Y-11.557
X8.996 Y-11.268
X9.039 Y-10.968
X9.059 Y-10.656
X9.053 Y-10.339
X9.023 Y-10.033
X8.973 Y-9.754
X8.906 Y-9.501
X8.826 Y-9.272
X8.748 Y-9.098
X8.66 Y-8.935
X8.578 Y-8.81
X8.485 Y-8.692
X8.381 Y-8.583
X8.224 Y-8.493
X8.045 Y-8.469
X7.871 Y-8.515
X7.274 Y-8.805
X7.237 Y-8.83 Z-1.371
X7.206 Y-8.863 Z-1.342
X7.183 Y-8.902 Z-1.313
X7.17 Y-8.946 Z-1.284
X7.167 Y-8.991 Z-1.256
X7.171 Y-9.078 Z-1.2
X7.189 Y-9.491
X7.327 Y-12.535
X7.345 Y-12.945
Y-12.947
G3 X7.556 Y-13.136 Z-1.4 I0.2 J0.011
G1 X7.814 Y-13.104
X7.943 Y-13.086
X8.331 Y-13.026
X8.478 Y-12.996
X8.618 Y-12.943
X8.75 Y-12.871
X8.872 Y-12.784
X8.984 Y-12.685
X9.088 Y-12.576
X9.196 Y-12.442
X9.302 Y-12.286
X9.405 Y-12.105
X9.507 Y-11.888
X9.594 Y-11.654
X9.668 Y-11.391
X9.727 Y-11.096
X9.764 Y-10.779
X9.776 Y-10.454
X9.761 Y-10.131
X9.722 Y-9.816
X9.661 Y-9.524
X9.581 Y-9.253
X9.49 Y-9.015
X9.389 Y-8.805
X9.299 Y-8.649
X9.21 Y-8.521
X9.11 Y-8.399
X9.005 Y-8.291
X8.961 Y-8.254
X8.829 Y-8.175
X8.678 Y-8.144
X8.526 Y-8.163
X8.388 Y-8.23
X8.331 Y-8.271
X8.202 Y-8.35
X8.073 Y-8.416
X7.871 Y-8.515
X7.832 Y-8.541 Z-1.37
X7.801 Y-8.576 Z-1.341
X7.779 Y-8.617 Z-1.311
X7.766 Y-8.662 Z-1.281
X7.765 Y-8.708 Z-1.251
X7.772 Y-8.789 Z-1.2
X7.806 Y-9.2
X8.074 Y-12.439
X8.108 Y-12.844
X8.109 Y-12.851
G3 X8.331 Y-13.026 Z-1.4 I0.199 J0.024
G1 X9.106 Y-12.906
X9.253 Y-12.876
X9.391 Y-12.817
X9.519 Y-12.74
X9.638 Y-12.648
X9.747 Y-12.545
X9.847 Y-12.433
X9.955 Y-12.291
X10.057 Y-12.132
X10.158 Y-11.943
X10.256 Y-11.716
X10.337 Y-11.477
X10.407 Y-11.201
X10.459 Y-10.894
X10.488 Y-10.566
X10.491 Y-10.229
X10.466 Y-9.892
X10.415 Y-9.564
X10.341 Y-9.253
X10.249 Y-8.97
X10.144 Y-8.717
X10.029 Y-8.494
X9.921 Y-8.319
X9.816 Y-8.177
X9.711 Y-8.057
X9.604 Y-7.952
X9.487 Y-7.858
X9.451 Y-7.834
X9.323 Y-7.774
X9.182 Y-7.756
X9.042 Y-7.781
X8.916 Y-7.847
X8.698 Y-8.008
X8.388 Y-8.23
X8.351 Y-8.267 Z-1.367
X8.325 Y-8.313 Z-1.333
X8.311 Y-8.363 Z-1.3
Y-8.415 Z-1.267
X8.325 Y-8.519 Z-1.2
X8.379 Y-8.928
X8.829 Y-12.322
X8.884 Y-12.731
Y-12.734 Z-1.202
G3 X9.106 Y-12.906 Z-1.4 I0.198 J0.026
G1 X9.821 Y-12.796
X9.968 Y-12.766
X10.107 Y-12.709
X10.236 Y-12.633
X10.355 Y-12.543
X10.465 Y-12.44
X10.568 Y-12.326
X10.673 Y-12.189
X10.773 Y-12.031
X10.878 Y-11.836
X10.968 Y-11.629
X11.053 Y-11.38
X11.126 Y-11.093
X11.178 Y-10.789
X11.207 Y-10.465
X11.21 Y-10.118
X11.184 Y-9.761
X11.13 Y-9.408
X11.05 Y-9.069
X10.947 Y-8.751
X10.833 Y-8.476
X10.709 Y-8.234
X10.577 Y-8.021
X10.443 Y-7.84
X10.33 Y-7.708
X10.21 Y-7.591
X10.095 Y-7.495
X9.971 Y-7.41
X9.925 Y-7.384
X9.785 Y-7.333
X9.637 Y-7.329
X9.494 Y-7.371
X9.372 Y-7.456
X9.235 Y-7.589
X9.106 Y-7.707
X8.916 Y-7.847
X8.879 Y-7.885 Z-1.366
X8.854 Y-7.932 Z-1.332
X8.841 Y-7.983 Z-1.298
X8.843 Y-8.036 Z-1.265
X8.86 Y-8.136 Z-1.2
X8.927 Y-8.544
X9.531 Y-12.214
X9.599 Y-12.621
X9.6 Y-12.63 Z-1.206
G3 X9.821 Y-12.796 Z-1.4 I0.197 J0.033
G1 X10.139 Y-12.747
X10.527 Y-12.673
X10.596 Y-12.658
X10.739 Y-12.613
X10.876 Y-12.551
X11.003 Y-12.471
X11.12 Y-12.377
X11.226 Y-12.272
X11.324 Y-12.157
X11.43 Y-12.01
X11.528 Y-11.849
X11.626 Y-11.652
X11.719 Y-11.423
X11.796 Y-11.178
X11.862 Y-10.888
X11.909 Y-10.562
X11.931 Y-10.215
X11.925 Y-9.858
X11.889 Y-9.486
X11.821 Y-9.11
X11.726 Y-8.751
X11.61 Y-8.421
X11.477 Y-8.123
X11.334 Y-7.86
X11.181 Y-7.626
X11.028 Y-7.429
X10.886 Y-7.274
X10.757 Y-7.154
X10.632 Y-7.054
X10.507 Y-6.971
X10.375 Y-6.9
X10.352 Y-6.89
X10.215 Y-6.855
X10.074 Y-6.863
X9.942 Y-6.912
X9.83 Y-6.998
X9.73 Y-7.104
X9.622 Y-7.214
X9.372 Y-7.456
X9.343 Y-7.495 Z-1.369
X9.324 Y-7.54 Z-1.338
X9.316 Y-7.588 Z-1.307
X9.321 Y-7.637 Z-1.275
X9.346 Y-7.753 Z-1.2
X9.432 Y-8.157
X10.277 Y-12.094
X10.364 Y-12.498
X10.365 Y-12.503 Z-1.204
G3 X10.596 Y-12.658 Z-1.4 I0.196 J0.042
G1 X11.373 Y-12.457
X11.516 Y-12.412
X11.655 Y-12.357
X11.785 Y-12.282
X11.904 Y-12.191
X12.013 Y-12.087
X12.112 Y-11.975
X12.201 Y-11.854
X12.282 Y-11.728
X12.354 Y-11.596
X12.418 Y-11.46
X12.474 Y-11.321
X12.523 Y-11.179
X12.566 Y-11.036
X12.602 Y-10.89
X12.632 Y-10.743
X12.657 Y-10.595
X12.676 Y-10.446
X12.689 Y-10.297
X12.698 Y-10.147
X12.701 Y-9.997
X12.699 Y-9.847
X12.693 Y-9.697
X12.682 Y-9.548
X12.666 Y-9.399
X12.647 Y-9.25
X12.622 Y-9.102
X12.593 Y-8.955
X12.56 Y-8.809
X12.523 Y-8.663
X12.481 Y-8.519
X12.435 Y-8.376
X12.384 Y-8.235
X12.329 Y-8.096
X12.27 Y-7.958
X12.206 Y-7.822
X12.073 Y-7.562
X11.995 Y-7.434
X11.913 Y-7.308
X11.826 Y-7.186
X11.734 Y-7.067
X11.638 Y-6.953
X11.536 Y-6.843
X11.429 Y-6.737
X11.317 Y-6.638
X11.199 Y-6.545
X11.075 Y-6.461
X10.945 Y-6.387
X10.808 Y-6.325
X10.78 Y-6.315
X10.636 Y-6.288
X10.491 Y-6.308
X10.36 Y-6.371
X10.254 Y-6.472
X9.968 Y-6.846
X9.881 Y-6.945
X9.83 Y-6.998
X9.803 Y-7.039 Z-1.369
X9.786 Y-7.084 Z-1.337
X9.78 Y-7.133 Z-1.306
X9.787 Y-7.182 Z-1.275
X9.817 Y-7.295 Z-1.2
X9.922 Y-7.695
X11.029 Y-11.905
X11.134 Y-12.305
X11.136 Y-12.312 Z-1.205
G3 X11.373 Y-12.457 Z-1.4 I0.193 J0.051
G1 X12.206 Y-12.24
X12.349 Y-12.195
X12.481 Y-12.125
X12.603 Y-12.038
X12.714 Y-11.937
X12.814 Y-11.825
X12.91 Y-11.699
X13.006 Y-11.547
X13.1 Y-11.371
X13.187 Y-11.167
X13.268 Y-10.927
X13.337 Y-10.655
X13.388 Y-10.345
X13.418 Y-9.998
X13.419 Y-9.619
X13.389 Y-9.214
X13.366 Y-9.073
X13.341 Y-8.933
X13.359 Y-8.792
X13.418 Y-8.663
X13.514 Y-8.558
X13.637 Y-8.486
X14.191 Y-8.361
X14.759 Y-8.394
X15.326 Y-8.432
X15.825 Y-8.436
X16.288 Y-8.403
X16.725 Y-8.336
X17.144 Y-8.237
X17.547 Y-8.106
X17.936 Y-7.945
X18.311 Y-7.753
X18.671 Y-7.531
X18.768 Y-7.459
X18.826 Y-7.409
X18.875 Y-7.349
X18.914 Y-7.282
X19.24 Y-6.587
X19.3 Y-6.458
X19.439 Y-6.067
X19.568 Y-5.682
X19.67 Y-5.351
G3 X19.53 Y-5.105 Z-1.2 I-0.193 J0.052
G1 X19.529
X19.13 Y-4.999
X12.271 Y-3.167
X11.893 Y-3.066
X11.871 Y-3.062
X11.842 Y-3.06 Z-1.219
X11.841
G3 X11.643 Y-3.229 Z-1.4 I0 J-0.2
G1 X11.613 Y-3.487
X11.596 Y-3.617
X11.569 Y-3.746
X11.56 Y-3.782
X11.532 Y-3.875
X11.277 Y-4.65
X11.233 Y-4.779
X11.186 Y-4.908
X11.124 Y-5.037
X11.043 Y-5.193
X10.713 Y-5.812
X10.656 Y-5.919
X10.363 Y-6.329
X10.254 Y-6.472
X10.232 Y-6.512 Z-1.37
X10.22 Y-6.557 Z-1.341
X10.218 Y-6.603 Z-1.311
X10.227 Y-6.648 Z-1.282
X10.266 Y-6.771 Z-1.2
X10.392 Y-7.164
X11.84 Y-11.695
X11.966 Y-12.089
X11.972 Y-12.106 Z-1.211
G3 X12.206 Y-12.24 Z-1.4 I0.191 J0.061
G1 X12.722 Y-12.106
X12.981 Y-12.021
X13.12 Y-11.966
X13.25 Y-11.891
X13.369 Y-11.799
X13.477 Y-11.695
X13.573 Y-11.58
X13.664 Y-11.453
X13.761 Y-11.292
X13.848 Y-11.116
X13.937 Y-10.893
X14.011 Y-10.656
X14.074 Y-10.371
X14.094 Y-10.23
X14.145 Y-10.098
X14.306 Y-9.863
X14.532 Y-9.69
X15.041 Y-9.437
X15.596 Y-9.316
X16.158 Y-9.231
X16.719 Y-9.134
X17.272 Y-9.003
X17.773 Y-8.84
X17.831 Y-8.816
X17.903 Y-8.779
X17.968 Y-8.729
X18.023 Y-8.668
G3 X17.696 Y-8.437 I-0.163 J0.116
X17.663 Y-8.586 I0.163 J-0.116
G1 X17.671 Y-8.637 Z-1.393
X17.679 Y-8.685 Z-1.373
X17.686 Y-8.726 Z-1.341
X17.692 Y-8.757 Z-1.3
X17.695 Y-8.777 Z-1.252
X17.696 Y-8.784 Z-1.2
Z5
X12 Y-12.005
Z-1
Z-1.2
X12.007 Y-12.006 Z-1.252
X12.027 Y-12.011 Z-1.3
X12.058 Y-12.017 Z-1.341
X12.098 Y-12.026 Z-1.373
X12.145 Y-12.037 Z-1.393
X12.196 Y-12.048 Z-1.4
G3 X12.981 Y-12.021 I0.339 J1.546
G1 X13.11 Y-11.978
X13.239 Y-11.932
X13.626 Y-11.789
X13.756 Y-11.739
X13.892 Y-11.677
X14.021 Y-11.6
X14.137 Y-11.505
X14.243 Y-11.398
X14.337 Y-11.281
X14.655 Y-10.811
X15.098 Y-10.453
X15.621 Y-10.231
X16.17 Y-10.081
X16.729 Y-9.952
X16.804 Y-9.926
X16.874 Y-9.887
X16.936 Y-9.838
G3 X16.944 Y-9.555 Z-1.2 I-0.138 J0.145
G1 X16.904 Y-9.523
X16.858 Y-9.502
X16.807 Y-9.493
X16.757 Y-9.497
X16.708 Y-9.514
X16.568 Y-9.585
X12.916 Y-11.429
G3 X12.973 Y-11.805 I0.09 J-0.179
X13.451 Y-11.812 I0.261 J1.561
X13.756 Y-11.739 Z-1.4 I-0.217 J1.568
G1 X14.014 Y-11.638
X14.046 Y-11.625
X14.883 Y-11.237
X14.918 Y-11.22
X15.342 Y-10.979
X15.788 Y-10.721
X16.08 Y-10.517
X16.21 Y-10.425
X16.597 Y-10.144
X16.686 Y-10.075
X17.504 Y-9.3
X17.638 Y-9.171
X17.76 Y-9.014
X18.405 Y-8.166
X18.426 Y-8.137
X18.595 Y-7.879
X18.669 Y-7.75
X18.809 Y-7.492
X18.876 Y-7.362
X18.914 Y-7.282
X18.926 Y-7.244
X18.93 Y-7.204
Y-7.203
G3 X18.567 Y-7.087 I-0.2 J0
G1 X18.554 Y-7.126 Z-1.395
X18.541 Y-7.163 Z-1.383
X18.53 Y-7.197 Z-1.362
Y-7.203 Z-1.357
X18.536 Y-7.235 Z-1.325
X18.54 Y-7.258 Z-1.287
X18.543 Y-7.273 Z-1.245
X18.544 Y-7.278 Z-1.2
Z5
X1.024 Y-13.874
Z-1
Z-1.2
X1.021 Y-13.88 Z-1.252
X1.011 Y-13.898 Z-1.3
X0.995 Y-13.925 Z-1.341
X0.974 Y-13.961 Z-1.373
X0.95 Y-14.003 Z-1.393
X0.924 Y-14.047 Z-1.4
G3 X0.71 Y-14.803 I1.368 J-0.795
G1 X0.713 Y-15.112
Y-15.281
X0.72 Y-15.43
X0.774 Y-15.57
X0.855 Y-15.697
X0.956 Y-15.808
X1.071 Y-15.904
X1.197 Y-15.985
X1.331 Y-16.053
X1.471 Y-16.107
X1.618 Y-16.149
X1.772 Y-16.18
X1.946 Y-16.201
X2.139 Y-16.209
X2.338 Y-16.201
X2.553 Y-16.175
X2.785 Y-16.127
X3.033 Y-16.055
X3.231 Y-15.98
X3.403 Y-15.899
X3.427 Y-15.885
X3.552 Y-15.781
X3.633 Y-15.64
X3.661 Y-15.481
Y-14.725
X3.662 Y-14.689
G3 X3.458 Y-14.493 Z-1.2 I-0.2 J-0.004
G1 X3.416 Y-14.498
X3.055 Y-14.582
X1.321 Y-14.987
X0.919 Y-15.081
X0.867 Y-15.093 Z-1.234
X0.819 Y-15.111 Z-1.267
X0.776 Y-15.141 Z-1.3
X0.743 Y-15.182 Z-1.333
X0.721 Y-15.229 Z-1.367
X0.713 Y-15.281 Z-1.4
Y-15.758
X0.72 Y-15.908
X0.762 Y-16.052
X0.832 Y-16.185
X0.922 Y-16.305
X1.028 Y-16.411
X1.146 Y-16.504
X1.272 Y-16.584
X1.406 Y-16.652
X1.553 Y-16.712
X1.709 Y-16.761
X1.884 Y-16.801
X2.083 Y-16.83
X2.291 Y-16.843
X2.517 Y-16.839
X2.751 Y-16.817
X2.98 Y-16.776
X3.145 Y-16.732
X3.31 Y-16.674
X3.383 Y-16.641
X3.529 Y-16.539
X3.627 Y-16.39
X3.661 Y-16.215
Y-15.481
G3 X3.454 Y-15.288 Z-1.2 I-0.2 J-0.007
G1 X3.439 Y-15.289
X3.044 Y-15.332
X1.33 Y-15.518
X0.919 Y-15.563
X0.891 Y-15.566 Z-1.218
G3 X0.713 Y-15.758 Z-1.4 I0.022 J-0.199
G1 Y-16.314
X0.72 Y-16.464
X0.761 Y-16.608
X0.828 Y-16.742
X0.914 Y-16.865
X1.016 Y-16.975
X1.129 Y-17.073
X1.252 Y-17.16
X1.381 Y-17.235
X1.528 Y-17.305
X1.697 Y-17.37
X1.876 Y-17.422
X2.076 Y-17.464
X2.297 Y-17.491
X2.52 Y-17.501
X2.744 Y-17.493
X2.937 Y-17.47
X3.102 Y-17.437
X3.258 Y-17.393
X3.4 Y-17.34
X3.537 Y-17.237
X3.628 Y-17.09
X3.66 Y-16.921
X3.661 Y-16.215
G3 X3.454 Y-16.022 Z-1.2 I-0.2 J-0.007
G1 X3.453
X3.041 Y-16.038
X1.332 Y-16.104
X0.919 Y-16.12
X0.905 Y-16.121 Z-1.209
G3 X0.713 Y-16.314 Z-1.4 I0.008 J-0.2
G1 Y-16.921
X0.72 Y-17.07
X0.765 Y-17.214
X0.833 Y-17.347
X0.919 Y-17.47
X1.019 Y-17.581
X1.131 Y-17.682
X1.251 Y-17.772
X1.386 Y-17.855
X1.535 Y-17.933
X1.709 Y-18.005
X1.9 Y-18.068
X2.101 Y-18.116
X2.314 Y-18.149
X2.531 Y-18.166
X2.748 Y-18.164
X2.937 Y-18.148
X3.085 Y-18.123
X3.238 Y-18.085
X3.38 Y-18.036
X3.387 Y-18.033
X3.531 Y-17.931
X3.626 Y-17.782
X3.66 Y-17.609
Y-16.921
G3 X3.46 Y-16.728 Z-1.204 I-0.2 J-0.007
G1 X3.454 Z-1.2
X3.041
X1.332
X0.919
X0.913 Z-1.204
G3 X0.713 Y-16.921 Z-1.4 I0 J-0.2
G1 Y-17.508
X0.72 Y-17.658
X0.759 Y-17.803
X0.822 Y-17.939
X0.903 Y-18.065
X0.999 Y-18.181
X1.106 Y-18.285
X1.223 Y-18.38
X1.35 Y-18.467
X1.499 Y-18.552
X1.67 Y-18.633
X1.852 Y-18.702
X2.051 Y-18.759
X2.261 Y-18.801
X2.472 Y-18.827
X2.683 Y-18.835
X2.878 Y-18.827
X3.027 Y-18.808
X3.182 Y-18.776
X3.326 Y-18.734
X3.366 Y-18.718
X3.52 Y-18.618
X3.623 Y-18.465
X3.66 Y-18.285
Y-17.609
G3 X3.468 Y-17.416 Z-1.209 I-0.2 J-0.007
G1 X3.453 Y-17.415 Z-1.2
X3.041 Y-17.399
X1.332 Y-17.332
X0.92 Y-17.315
X0.919
G3 X0.713 Y-17.508 Z-1.4 I-0.007 J-0.2
G1 X0.712 Y-18.154
X0.72 Y-18.304
X0.761 Y-18.448
X0.825 Y-18.584
X0.907 Y-18.709
X1.003 Y-18.825
X1.109 Y-18.931
X1.225 Y-19.026
X1.362 Y-19.122
X1.509 Y-19.208
X1.678 Y-19.289
X1.867 Y-19.362
X2.069 Y-19.423
X2.275 Y-19.466
X2.483 Y-19.493
X2.691 Y-19.503
X2.869 Y-19.497
X3.018 Y-19.48
X3.175 Y-19.449
X3.319 Y-19.408
X3.363 Y-19.391
X3.518 Y-19.291
X3.623 Y-19.138
X3.659 Y-18.957
X3.66 Y-18.285
G3 X3.47 Y-18.092 Z-1.211 I-0.2 J-0.007
G1 X3.453 Y-18.091 Z-1.2
X3.041 Y-18.07
X1.332 Y-17.982
X0.923 Y-17.961
X0.919
G3 X0.712 Y-18.154 Z-1.4 I-0.007 J-0.2
G1 Y-18.8
X0.72 Y-18.95
X0.761 Y-19.094
X0.825 Y-19.23
X0.906 Y-19.356
X1 Y-19.472
X1.106 Y-19.579
X1.222 Y-19.677
X1.358 Y-19.774
X1.506 Y-19.863
X1.675 Y-19.947
X1.864 Y-20.022
X2.063 Y-20.083
X2.266 Y-20.128
X2.472 Y-20.157
X2.679 Y-20.169
X2.856 Y-20.165
X3.006 Y-20.15
X3.163 Y-20.12
X3.308 Y-20.081
X3.358 Y-20.062
X3.48 Y-19.993
X3.576 Y-19.891
X3.638 Y-19.765
X3.659 Y-19.626
Y-18.957
G3 X3.472 Y-18.764 Z-1.212 I-0.2 J-0.007
G1 X3.453 Y-18.763 Z-1.2
X3.041 Y-18.738
X1.331 Y-18.632
X0.925 Y-18.607
X0.919
G3 X0.712 Y-18.8 Z-1.4 I-0.007 J-0.2
G1 Y-19.446
X0.72 Y-19.596
X0.759 Y-19.74
X0.821 Y-19.877
X0.901 Y-20.004
X0.994 Y-20.121
X1.098 Y-20.229
X1.213 Y-20.328
X1.348 Y-20.427
X1.494 Y-20.517
X1.661 Y-20.602
X1.848 Y-20.679
X2.046 Y-20.742
X2.248 Y-20.789
X2.453 Y-20.82
X2.66 Y-20.835
X2.838 Y-20.833
X3.001 Y-20.818
X3.148 Y-20.792
X3.294 Y-20.754
X3.355 Y-20.732
X3.478 Y-20.663
X3.575 Y-20.561
X3.637 Y-20.434
X3.659 Y-20.294
Y-19.626
G3 X3.473 Y-19.433 Z-1.213 I-0.2 J-0.007
G1 X3.453 Y-19.432 Z-1.2
X3.04 Y-19.403
X1.331 Y-19.282
X0.926 Y-19.253
X0.919
G3 X0.712 Y-19.446 Z-1.4 I-0.007 J-0.2
G1 Y-20.092
X0.72 Y-20.241
X0.756 Y-20.387
X0.816 Y-20.524
X0.894 Y-20.653
X0.986 Y-20.771
X1.089 Y-20.88
X1.202 Y-20.98
X1.335 Y-21.079
X1.479 Y-21.17
X1.644 Y-21.256
X1.828 Y-21.335
X2.025 Y-21.4
X2.228 Y-21.45
X2.433 Y-21.484
X2.638 Y-21.5
X2.819
X2.981 Y-21.487
X3.129 Y-21.463
X3.274 Y-21.427
X3.348 Y-21.401
X3.474 Y-21.333
X3.573 Y-21.23
X3.637 Y-21.103
X3.659 Y-20.962
Y-20.294
G3 X3.475 Y-20.102 Z-1.214 I-0.2 J-0.007
G1 X3.452 Y-20.1 Z-1.2
X3.04 Y-20.067
X1.331 Y-19.931
X0.928 Y-19.899
X0.919
G3 X0.712 Y-20.092 Z-1.4 I-0.007 J-0.2
G1 Y-20.737
X0.72 Y-20.887
X0.753 Y-21.033
X0.811 Y-21.172
X0.887 Y-21.301
X0.977 Y-21.421
X1.079 Y-21.531
X1.19 Y-21.632
X1.321 Y-21.733
X1.464 Y-21.825
X1.627 Y-21.912
X1.809 Y-21.992
X2.004 Y-22.059
X2.206 Y-22.111
X2.41 Y-22.146
X2.616 Y-22.165
X2.799 Y-22.167
X2.962 Y-22.155
X3.112 Y-22.133
X3.258 Y-22.098
X3.343 Y-22.069
X3.471 Y-22.002
X3.571 Y-21.899
X3.636 Y-21.77
X3.658 Y-21.628
X3.659 Y-20.962
G3 X3.476 Y-20.769 Z-1.215 I-0.2 J-0.007
G1 X3.452 Y-20.767 Z-1.2
X3.041 Y-20.731
X1.33 Y-20.58
X0.93 Y-20.545
X0.919
G3 X0.712 Y-20.737 Z-1.4 I-0.007 J-0.2
G1 Y-21.415
X0.719 Y-21.565
X0.756 Y-21.71
X0.816 Y-21.848
X0.893 Y-21.977
X0.985 Y-22.095
X1.087 Y-22.205
X1.158 Y-22.268
X1.251 Y-22.332
X1.356 Y-22.372
X1.469 Y-22.386
G3 X1.661 Y-22.18 Z-1.2 I-0.007 J0.2
G1 X1.656 Y-22.141
X1.644 Y-22.103
X1.624 Y-22.07
X1.452 Y-21.83
X1.209 Y-21.493
X1.074 Y-21.305
X1.044 Y-21.272
X1.006 Y-21.246
X0.964 Y-21.229
X0.919 Y-21.222
G3 X0.712 Y-21.415 Z-1.4 I-0.007 J-0.2
G1 Y-22.087
Y-22.123
Y-22.152
X0.716 Y-22.207
X0.717 Y-22.216
X0.74 Y-22.259 Z-1.369
X0.772 Y-22.294 Z-1.339
X0.812 Y-22.32 Z-1.308
X0.858 Y-22.334 Z-1.278
X0.906 Y-22.336 Z-1.247
X0.942 Y-22.33 Z-1.224
X0.976 Y-22.315 Z-1.2
G3 X0.93 Y-21.983 I-0.085 J0.157
X0.712 Y-22.152 Z-1.4 I-0.039 J-0.175
G1 Y-22.184
X0.717 Y-22.216
X0.728 Y-22.249
X0.745 Y-22.281
X0.768 Y-22.313
X0.784 Y-22.331
X0.801 Y-22.345
X0.82 Y-22.358
X0.84 Y-22.368
X0.872 Y-22.38
X0.904 Y-22.385
X0.969 Y-22.386
X3.365
X3.397
X3.423
X3.479 Y-22.382
X3.487 Y-22.381
X3.531 Y-22.359 Z-1.368
X3.568 Y-22.326 Z-1.337
X3.595 Y-22.284 Z-1.305
X3.61 Y-22.237 Z-1.274
X3.613 Y-22.188 Z-1.242
X3.608 Y-22.155 Z-1.221
X3.596 Y-22.124 Z-1.2
G3 X3.247 Y-22.171 I-0.167 J-0.078
X3.423 Y-22.386 Z-1.4 I0.182 J-0.031
G1 X3.455
X3.487 Y-22.381
X3.52 Y-22.371
X3.536 Y-22.364
X3.552 Y-22.354
X3.564 Y-22.345
X3.581 Y-22.331
X3.598 Y-22.313
X3.625 Y-22.281
X3.634 Y-22.265
X3.642 Y-22.249
X3.653 Y-22.216
X3.658 Y-22.184
Y-21.628
G3 X3.259 Y-21.642 I-0.2 J-0.007
X3.322 Y-21.781 I0.2 J0.007
G1 X3.36 Y-21.816 Z-1.393
X3.395 Y-21.849 Z-1.373
X3.425 Y-21.878 Z-1.341
X3.449 Y-21.899 Z-1.3
X3.463 Y-21.913 Z-1.252
X3.468 Y-21.918 Z-1.2
Z5
X-9.795 Y-12.853
Z-1
Z-1.2
X-9.793 Y-12.86 Z-1.252
X-9.789 Y-12.879 Z-1.3
X-9.783 Y-12.911 Z-1.341
X-9.775 Y-12.951 Z-1.373
X-9.765 Y-12.998 Z-1.393
X-9.755 Y-13.049 Z-1.4
G3 X-9.412 Y-13.756 I1.551 J0.316
G1 X-9.364 Y-13.809
X-9.355 Y-13.821
X-9.269 Y-13.95
X-9.235 Y-14.009
X-9.198 Y-14.079
X-9.171 Y-14.15
X-9.11 Y-14.287
X-9.021 Y-14.408
X-8.913 Y-14.512
X-8.794 Y-14.603
X-8.666 Y-14.681
X-8.53 Y-14.748
X-8.352 Y-14.82
X-8.154 Y-14.882
X-7.906 Y-14.938
X-7.624 Y-14.978
X-7.27 Y-15
X-6.907 Y-14.993
X-6.613 Y-14.963
X-6.506 Y-14.944
X-6.367 Y-14.895
X-6.25 Y-14.805
X-6.167 Y-14.684
X-6.126 Y-14.542
X-6.117 Y-14.466
X-6.084 Y-14.337
X-6.065 Y-14.273
X-6.055 Y-14.24
X-6.041 Y-14.208
X-5.976 Y-14.079
X-5.884 Y-13.941
G3 X-5.94 Y-13.664 Z-1.2 I-0.167 J0.11
G1 X-5.98 Y-13.644
X-6.023 Y-13.633
X-6.068 Y-13.632
X-6.346 Y-13.656
X-8.635 Y-13.855
X-8.999 Y-13.886
X-9.046 Y-13.896
G3 X-9.171 Y-14.15 Z-1.4 I0.064 J-0.189
G1 X-9.149 Y-14.208
X-9.115 Y-14.337
X-9.106 Y-14.381
X-9.093 Y-14.466
X-9.089 Y-14.537
X-9.073 Y-14.687
X-9.019 Y-14.827
X-8.941 Y-14.955
X-8.844 Y-15.069
X-8.734 Y-15.171
X-8.615 Y-15.262
X-8.478 Y-15.347
X-8.33 Y-15.424
X-8.138 Y-15.505
X-7.934 Y-15.571
X-7.683 Y-15.632
X-7.405 Y-15.675
X-7.161 Y-15.694
X-6.954 Y-15.693
X-6.794 Y-15.679
X-6.646 Y-15.655
X-6.501 Y-15.617
X-6.45 Y-15.599
X-6.324 Y-15.531
X-6.225 Y-15.428
X-6.161 Y-15.3
X-6.139 Y-15.159
X-6.138 Y-14.725
X-6.135 Y-14.613
X-6.126 Y-14.542
G3 X-6.308 Y-14.325 Z-1.2 I-0.199 J0.018
G1 X-6.326
X-6.721 Y-14.326
X-8.481 Y-14.332
X-8.89 Y-14.333
X-8.894
G3 X-9.089 Y-14.537 Z-1.4 I0.005 J-0.2
G1 X-9.086 Y-14.596
X-9.084 Y-14.725
Y-15.054
X-9.076 Y-15.204
X-9.035 Y-15.348
X-8.969 Y-15.483
X-8.884 Y-15.606
X-8.785 Y-15.719
X-8.675 Y-15.822
X-8.551 Y-15.917
X-8.414 Y-16.007
X-8.248 Y-16.097
X-8.057 Y-16.181
X-7.856 Y-16.251
X-7.641 Y-16.308
X-7.424 Y-16.346
X-7.212 Y-16.366
X-7.017 Y-16.369
X-6.853 Y-16.359
X-6.698 Y-16.336
X-6.552 Y-16.302
X-6.457 Y-16.27
X-6.328 Y-16.203
X-6.227 Y-16.1
X-6.162 Y-15.971
X-6.139 Y-15.828
Y-15.159
G3 X-6.331 Y-14.966 Z-1.21 I-0.2 J-0.007
G1 X-6.346 Z-1.2
X-6.759 Y-14.949
X-8.464 Y-14.878
X-8.875 Y-14.861
X-8.877
G3 X-9.084 Y-15.054 Z-1.4 I-0.007 J-0.2
G1 X-9.083 Y-15.668
X-9.076 Y-15.818
X-9.035 Y-15.962
X-8.972 Y-16.098
X-8.89 Y-16.224
X-8.796 Y-16.341
X-8.69 Y-16.447
X-8.571 Y-16.546
X-8.44 Y-16.639
X-8.284 Y-16.732
X-8.109 Y-16.818
X-7.924 Y-16.892
X-7.724 Y-16.952
X-7.519 Y-16.998
X-7.31 Y-17.026
X-7.108 Y-17.037
X-6.937 Y-17.033
X-6.767 Y-17.015
X-6.62 Y-16.988
X-6.476 Y-16.947
X-6.436 Y-16.931
X-6.28 Y-16.831
X-6.176 Y-16.678
X-6.139 Y-16.496
Y-15.828
G3 X-6.326 Y-15.635 Z-1.212 I-0.2 J-0.007
G1 X-6.346 Y-15.634 Z-1.2
X-6.758 Y-15.608
X-8.464 Y-15.501
X-8.871 Y-15.475
X-8.877
G3 X-9.083 Y-15.668 Z-1.4 I-0.007 J-0.2
G1 Y-16.314
X-9.075 Y-16.464
X-9.036 Y-16.608
X-8.973 Y-16.745
X-8.893 Y-16.872
X-8.8 Y-16.989
X-8.696 Y-17.097
X-8.58 Y-17.197
X-8.446 Y-17.295
X-8.299 Y-17.385
X-8.13 Y-17.471
X-7.943 Y-17.548
X-7.746 Y-17.611
X-7.542 Y-17.658
X-7.335 Y-17.689
X-7.132 Y-17.703
X-6.954 Y-17.701
X-6.805 Y-17.688
X-6.647 Y-17.66
X-6.502 Y-17.622
X-6.445 Y-17.601
X-6.321 Y-17.533
X-6.223 Y-17.43
X-6.16 Y-17.303
X-6.139 Y-17.163
Y-16.496
G3 X-6.325 Y-16.304 Z-1.213 I-0.2 J-0.007
G1 X-6.346 Y-16.302 Z-1.2
X-6.758 Y-16.273
X-8.464 Y-16.15
X-8.869 Y-16.121
X-8.876
G3 X-9.083 Y-16.314 Z-1.4 I-0.007 J-0.2
G1 X-9.082 Y-16.96
X-9.075 Y-17.109
X-9.038 Y-17.255
X-8.978 Y-17.392
X-8.9 Y-17.52
X-8.808 Y-17.639
X-8.705 Y-17.748
X-8.592 Y-17.848
X-8.459 Y-17.947
X-8.315 Y-18.038
X-8.149 Y-18.125
X-7.964 Y-18.204
X-7.768 Y-18.269
X-7.568 Y-18.318
X-7.364 Y-18.351
X-7.158 Y-18.368
X-6.978
X-6.815 Y-18.355
X-6.667 Y-18.331
X-6.522 Y-18.295
X-6.449 Y-18.269
X-6.323 Y-18.201
X-6.224 Y-18.098
X-6.161 Y-17.97
X-6.139 Y-17.829
Y-17.163
G3 X-6.323 Y-16.97 Z-1.215 I-0.2 J-0.007
G1 X-6.346 Y-16.969 Z-1.2
X-6.757 Y-16.936
X-8.464 Y-16.799
X-8.867 Y-16.767
X-8.876
G3 X-9.082 Y-16.96 Z-1.4 I-0.007 J-0.2
G1 Y-17.637
X-9.074 Y-17.787
X-9.034 Y-17.932
X-8.972 Y-18.068
X-8.893 Y-18.196
X-8.8 Y-18.313
X-8.696 Y-18.421
X-8.583 Y-18.52
X-8.448 Y-18.619
X-8.298 Y-18.713
X-8.134 Y-18.797
X-7.95 Y-18.874
X-7.753 Y-18.938
X-7.55 Y-18.987
X-7.345 Y-19.019
X-7.141 Y-19.034
X-6.964 Y-19.033
X-6.799 Y-19.018
X-6.651 Y-18.994
X-6.506 Y-18.956
X-6.444 Y-18.934
X-6.32 Y-18.865
X-6.223 Y-18.763
X-6.16 Y-18.635
X-6.139 Y-18.495
Y-17.829
G3 X-6.324 Y-17.637 Z-1.214 I-0.2 J-0.007
G1 X-6.346 Y-17.635 Z-1.2
X-6.758 Y-17.604
X-8.464 Y-17.475
X-8.867 Y-17.445
X-8.875 Y-17.444
G3 X-9.082 Y-17.637 Z-1.4 I-0.007 J-0.2
G1 Y-18.283
X-9.074 Y-18.433
X-9.038 Y-18.579
X-8.978 Y-18.716
X-8.901 Y-18.845
X-8.81 Y-18.964
X-8.707 Y-19.073
X-8.595 Y-19.173
X-8.462 Y-19.273
X-8.319 Y-19.365
X-8.154 Y-19.452
X-7.97 Y-19.531
X-7.775 Y-19.597
X-7.572 Y-19.647
X-7.367 Y-19.682
X-7.163 Y-19.699
X-6.982 Y-19.7
X-6.821 Y-19.687
X-6.673 Y-19.664
X-6.527 Y-19.629
X-6.451 Y-19.602
X-6.324 Y-19.534
X-6.225 Y-19.431
X-6.161 Y-19.303
X-6.139 Y-19.161
Y-18.495
G3 X-6.322 Y-18.303 Z-1.215 I-0.2 J-0.007
G1 X-6.345 Y-18.301 Z-1.2
X-6.757 Y-18.267
X-8.463 Y-18.124
X-8.865 Y-18.091
X-8.875 Y-18.09
G3 X-9.082 Y-18.283 Z-1.4 I-0.007 J-0.2
G1 X-9.081 Y-18.929
X-9.074 Y-19.079
X-9.041 Y-19.225
X-8.984 Y-19.364
X-8.909 Y-19.494
X-8.819 Y-19.614
X-8.718 Y-19.725
X-8.607 Y-19.826
X-8.477 Y-19.927
X-8.334 Y-20.019
X-8.173 Y-20.107
X-7.991 Y-20.187
X-7.797 Y-20.255
X-7.596 Y-20.308
X-7.392 Y-20.344
X-7.187 Y-20.363
X-7.003 Y-20.366
X-6.84 Y-20.355
X-6.69 Y-20.333
X-6.544 Y-20.299
X-6.455 Y-20.269
X-6.327 Y-20.202
X-6.226 Y-20.099
X-6.161 Y-19.97
X-6.139 Y-19.827
Y-19.161
G3 X-6.32 Y-18.969 Z-1.216 I-0.2 J-0.007
G1 X-6.345 Y-18.967 Z-1.2
X-6.757 Y-18.929
X-8.463 Y-18.773
X-8.863 Y-18.737
X-8.875 Y-18.736
G3 X-9.081 Y-18.929 Z-1.4 I-0.007 J-0.2
G1 Y-19.633
X-9.073 Y-19.783
X-9.033 Y-19.927
X-8.97 Y-20.064
X-8.891 Y-20.191
X-8.797 Y-20.308
X-8.693 Y-20.416
X-8.58 Y-20.515
X-8.447 Y-20.613
X-8.294 Y-20.709
X-8.129 Y-20.794
X-7.946 Y-20.87
X-7.75 Y-20.934
X-7.548 Y-20.983
X-7.343 Y-21.015
X-7.14 Y-21.03
X-6.965 Y-21.029
X-6.796 Y-21.015
X-6.648 Y-20.99
X-6.503 Y-20.952
X-6.444 Y-20.93
X-6.32 Y-20.862
X-6.222 Y-20.759
X-6.16 Y-20.632
X-6.139 Y-20.492
Y-19.827
G3 X-6.323 Y-19.635 Z-1.214 I-0.2 J-0.007
G1 X-6.345 Y-19.633 Z-1.2
X-6.757 Y-19.601
X-8.462 Y-19.471
X-8.866 Y-19.44
X-8.874
G3 X-9.081 Y-19.633 Z-1.4 I-0.007 J-0.2
G1 Y-20.279
X-9.073 Y-20.429
X-9.036 Y-20.574
X-8.977 Y-20.712
X-8.899 Y-20.84
X-8.808 Y-20.959
X-8.706 Y-21.069
X-8.594 Y-21.169
X-8.461 Y-21.269
X-8.317 Y-21.361
X-8.152 Y-21.448
X-7.969 Y-21.527
X-7.774 Y-21.593
X-7.571 Y-21.643
X-7.366 Y-21.678
X-7.162 Y-21.695
X-6.982 Y-21.696
X-6.821 Y-21.684
X-6.673 Y-21.66
X-6.527 Y-21.625
X-6.45 Y-21.598
X-6.324 Y-21.531
X-6.224 Y-21.428
X-6.16 Y-21.299
X-6.138 Y-21.158
X-6.139 Y-20.492
G3 X-6.322 Y-20.3 Z-1.215 I-0.2 J-0.007
G1 X-6.345 Y-20.298 Z-1.2
X-6.757 Y-20.264
X-8.462 Y-20.12
X-8.864 Y-20.086
X-8.874
G3 X-9.081 Y-20.279 Z-1.4 I-0.007 J-0.2
G1 X-9.08 Y-20.925
X-9.073 Y-21.074
X-9.04 Y-21.221
X-8.983 Y-21.36
X-8.908 Y-21.49
X-8.818 Y-21.61
X-8.717 Y-21.721
X-8.606 Y-21.822
X-8.475 Y-21.923
X-8.333 Y-22.015
X-8.171 Y-22.103
X-7.99 Y-22.183
X-7.796 Y-22.251
X-7.595 Y-22.304
X-7.391 Y-22.34
X-7.187 Y-22.359
X-7.003 Y-22.362
X-6.84 Y-22.351
X-6.69 Y-22.329
X-6.544 Y-22.295
X-6.455 Y-22.265
X-6.327 Y-22.198
X-6.226 Y-22.095
X-6.161 Y-21.966
X-6.138 Y-21.823
Y-21.158
G3 X-6.32 Y-20.966 Z-1.216 I-0.2 J-0.007
G1 X-6.345 Y-20.963 Z-1.2
X-6.756 Y-20.926
X-8.462 Y-20.769
X-8.862 Y-20.732
X-8.874
G3 X-9.08 Y-20.925 Z-1.4 I-0.007 J-0.2
G1 Y-21.61
X-9.072 Y-21.759
X-9.035 Y-21.905
X-8.976 Y-22.042
X-8.898 Y-22.171
X-8.873 Y-22.204
X-8.771 Y-22.301
X-8.644 Y-22.364
X-8.504 Y-22.385
G3 X-8.311 Y-22.179 Z-1.2 I-0.007 J0.2
G1 X-8.32 Y-22.126
X-8.343 Y-22.077
X-8.509 Y-21.821
X-8.592 Y-21.693
X-8.712 Y-21.508
X-8.743 Y-21.471
X-8.782 Y-21.442
X-8.826 Y-21.424
X-8.873 Y-21.417
G3 X-9.08 Y-21.61 Z-1.4 I-0.007 J-0.2
G1 X-9.079 Y-22.184
X-9.074 Y-22.216
X-9.063 Y-22.249
X-9.055 Y-22.265
X-9.046 Y-22.281
X-9.031 Y-22.3
X-9.013 Y-22.318
X-8.977 Y-22.348
X-8.96 Y-22.359
X-8.944 Y-22.367
X-8.912 Y-22.379
X-8.88 Y-22.384
X-8.847 Y-22.385
X-6.393 Y-22.386
X-6.329 Y-22.384
X-6.297 Y-22.376
X-6.28 Y-22.37
X-6.264 Y-22.362
X-6.238 Y-22.345
X-6.205 Y-22.319
X-6.186 Y-22.3
X-6.172 Y-22.281
X-6.162 Y-22.265
X-6.154 Y-22.249
X-6.144 Y-22.216
X-6.139 Y-22.184
X-6.138 Y-21.823
G3 X-6.538 Y-21.837 I-0.2 J-0.007
X-6.475 Y-21.977 I0.2 J0.007
G1 X-6.437 Y-22.012 Z-1.393
X-6.401 Y-22.045 Z-1.373
X-6.371 Y-22.073 Z-1.341
X-6.348 Y-22.095 Z-1.3
X-6.333 Y-22.108 Z-1.252
X-6.328 Y-22.113 Z-1.2
Z5
X-13.551 Y-8.528
Z-1
Z-1.2
X-13.558 Z-1.252
X-13.578 Y-8.531 Z-1.3
X-13.609 Y-8.534 Z-1.341
X-13.65 Y-8.538 Z-1.373
X-13.698 Y-8.544 Z-1.393
X-13.75 Y-8.549 Z-1.4
G3 X-14.485 Y-8.825 I0.17 J-1.573
G1 X-14.531 Y-8.859
X-14.66 Y-8.943
X-14.789 Y-9.013
X-14.852 Y-9.042
X-14.989 Y-9.103
X-15.096 Y-9.208
X-15.18 Y-9.332
X-15.245 Y-9.468
X-15.292 Y-9.61
X-15.323 Y-9.757
X-15.338 Y-9.906
X-15.342 Y-10.056
X-15.331 Y-10.225
X-15.306 Y-10.409
X-15.263 Y-10.601
X-15.194 Y-10.821
X-15.104 Y-11.047
X-14.986 Y-11.284
X-14.829 Y-11.544
X-14.63 Y-11.822
X-14.402 Y-12.091
X-14.11 Y-12.385
X-13.756 Y-12.688
X-13.34 Y-12.989
X-12.87 Y-13.276
X-12.844 Y-13.289
X-12.778 Y-13.316
X-12.708 Y-13.333
X-12.636 Y-13.338
X-10.527 Y-13.345
X-10.389 Y-13.351
G3 X-10.186 Y-13.154 Z-1.2 I0.003 J0.2
G1 X-10.19 Y-13.111
X-10.203 Y-13.071
X-10.224 Y-13.034
X-10.253 Y-13.002
X-10.433 Y-12.841
X-14.269 Y-9.423
X-14.578 Y-9.148
X-14.653 Y-9.081 Z-1.264
X-14.697 Y-9.051 Z-1.298
X-14.747 Y-9.034 Z-1.332
X-14.8 Y-9.031 Z-1.366
X-14.852 Y-9.042 Z-1.4
X-14.918 Y-9.067
X-15.243 Y-9.171
X-15.383 Y-9.223
X-15.508 Y-9.306
X-15.613 Y-9.413
X-15.7 Y-9.536
X-15.769 Y-9.669
X-15.821 Y-9.81
X-15.859 Y-9.955
X-15.885 Y-10.103
X-15.898 Y-10.264
X-15.899 Y-10.446
X-15.885 Y-10.633
X-15.851 Y-10.845
X-15.795 Y-11.077
X-15.718 Y-11.312
X-15.607 Y-11.576
X-15.46 Y-11.86
X-15.283 Y-12.143
X-15.063 Y-12.44
X-14.782 Y-12.761
X-14.439 Y-13.094
X-14.278 Y-13.227
X-14.189 Y-13.286
X-14.088 Y-13.322
X-13.982 Y-13.335
X-12.636 Y-13.338
G3 X-12.442 Y-13.132 Z-1.2 I-0.006 J0.2
G1 X-12.452 Y-13.077
X-12.476 Y-13.027
X-12.645 Y-12.777
X-14.756 Y-9.647
X-14.988 Y-9.304
X-15.023 Y-9.251 Z-1.241
X-15.056 Y-9.214 Z-1.273
X-15.097 Y-9.186 Z-1.304
X-15.144 Y-9.168 Z-1.336
X-15.194 Y-9.163 Z-1.368
X-15.243 Y-9.171 Z-1.4
X-15.305 Y-9.191
X-15.435 Y-9.227
X-15.564 Y-9.252
X-15.667 Y-9.265
X-15.815 Y-9.291
X-15.95 Y-9.357
X-16.068 Y-9.448
X-16.17 Y-9.558
X-16.257 Y-9.681
X-16.328 Y-9.813
X-16.385 Y-9.951
X-16.43 Y-10.095
X-16.463 Y-10.246
X-16.488 Y-10.423
X-16.499 Y-10.611
X-16.495 Y-10.814
X-16.471 Y-11.047
X-16.426 Y-11.29
X-16.356 Y-11.549
X-16.255 Y-11.834
X-16.116 Y-12.141
X-15.947 Y-12.447
X-15.734 Y-12.77
X-15.46 Y-13.12
X-15.403 Y-13.181
X-15.305 Y-13.262
X-15.188 Y-13.314
X-15.062 Y-13.331
X-13.982 Y-13.335
G3 X-13.789 Y-13.128 Z-1.2 I-0.006 J0.2
G1 X-13.794 Y-13.089
X-13.806 Y-13.052
X-13.944 Y-12.748
X-15.269 Y-9.819
X-15.439 Y-9.443
X-15.467 Y-9.382 Z-1.243
X-15.492 Y-9.34 Z-1.274
X-15.528 Y-9.305 Z-1.306
X-15.57 Y-9.281 Z-1.337
X-15.618 Y-9.267 Z-1.369
X-15.667 Y-9.265 Z-1.4
X-16.08 Y-9.31
X-16.151 Y-9.315
X-16.3 Y-9.334
X-16.44 Y-9.389
X-16.566 Y-9.47
X-16.677 Y-9.571
X-16.775 Y-9.685
X-16.858 Y-9.809
X-16.929 Y-9.941
X-16.988 Y-10.08
X-17.039 Y-10.235
X-17.081 Y-10.403
X-17.112 Y-10.598
X-17.129 Y-10.807
Y-11.031
X-17.108 Y-11.287
X-17.062 Y-11.565
X-16.993 Y-11.848
X-16.889 Y-12.158
X-16.747 Y-12.492
X-16.558 Y-12.852
X-16.398 Y-13.106
X-16.371 Y-13.142
X-16.268 Y-13.242
X-16.14 Y-13.306
X-15.999 Y-13.329
X-15.062 Y-13.331
G3 X-14.868 Y-13.125 Z-1.2 I-0.006 J0.2
G1 X-14.876 Y-13.075
X-14.979 Y-12.728
X-15.82 Y-9.901
X-15.938 Y-9.505
X-15.952 Y-9.458 Z-1.232
X-15.973 Y-9.41 Z-1.265
X-16.007 Y-9.369 Z-1.299
X-16.05 Y-9.338 Z-1.333
X-16.099 Y-9.32 Z-1.366
X-16.151 Y-9.315 Z-1.4
X-16.21 Y-9.319
X-16.468 Y-9.335
X-16.597 Y-9.34
X-16.668 Y-9.341
X-16.818 Y-9.349
X-16.96 Y-9.397
X-17.091 Y-9.47
X-17.209 Y-9.562
X-17.315 Y-9.669
X-17.408 Y-9.786
X-17.489 Y-9.912
X-17.56 Y-10.047
X-17.627 Y-10.203
X-17.682 Y-10.369
X-17.731 Y-10.563
X-17.767 Y-10.783
X-17.785 Y-11.011
X-17.786 Y-11.269
X-17.763 Y-11.558
X-17.715 Y-11.86
X-17.638 Y-12.179
X-17.52 Y-12.533
X-17.384 Y-12.855
X-17.279 Y-13.058
X-17.248 Y-13.108
X-17.144 Y-13.224
X-17.007 Y-13.3
X-16.854 Y-13.326
X-15.999 Y-13.329
G3 X-15.805 Y-13.123 Z-1.2 I-0.006 J0.2
G1 X-15.809 Y-13.092
X-15.879 Y-12.716
X-16.394 Y-9.951
X-16.469 Y-9.545
X-16.477 Y-9.504 Z-1.227
G3 X-16.668 Y-9.341 Z-1.4 I-0.197 J-0.037
G1 X-17.114 Y-9.343
X-17.243 Y-9.344
X-17.393 Y-9.352
X-17.535 Y-9.399
X-17.667 Y-9.47
X-17.788 Y-9.558
X-17.898 Y-9.661
X-17.996 Y-9.775
X-18.083 Y-9.897
X-18.161 Y-10.029
X-18.239 Y-10.188
X-18.309 Y-10.363
X-18.368 Y-10.558
X-18.418 Y-10.786
X-18.452 Y-11.033
X-18.466 Y-11.298
X-18.459 Y-11.596
X-18.424 Y-11.928
X-18.359 Y-12.273
X-18.269 Y-12.603
X-18.185 Y-12.835
X-18.097 Y-13.029
X-18.066 Y-13.084
X-17.962 Y-13.211
X-17.821 Y-13.295
X-17.66 Y-13.324
X-16.854 Y-13.326
G3 X-16.66 Y-13.12 Z-1.2 I-0.006 J0.2
G1 X-16.661 Y-13.105
X-16.704 Y-12.709
X-17.003 Y-9.961
X-17.047 Y-9.55
X-17.05 Y-9.522 Z-1.218
G3 X-17.243 Y-9.344 Z-1.4 I-0.199 J-0.022
G1 X-17.501
X-17.831 Y-9.342
X-17.98 Y-9.349
X-18.124 Y-9.392
X-18.258 Y-9.459
X-18.382 Y-9.544
X-18.495 Y-9.642
X-18.598 Y-9.752
X-18.692 Y-9.872
X-18.779 Y-10.005
X-18.868 Y-10.167
X-18.947 Y-10.344
X-19.018 Y-10.545
X-19.081 Y-10.78
X-19.127 Y-11.034
X-19.155 Y-11.314
X-19.161 Y-11.632
X-19.14 Y-11.972
X-19.093 Y-12.3
X-19.024 Y-12.604
X-18.961 Y-12.807
X-18.886 Y-12.992
X-18.851 Y-13.064
X-18.748 Y-13.2
X-18.602 Y-13.29
X-18.434 Y-13.322
X-17.66 Y-13.324
G3 X-17.466 Y-13.118 Z-1.2 I-0.006 J0.2
G1 Y-13.114
X-17.486 Y-12.705
X-17.618 Y-9.962
X-17.638 Y-9.55
X-17.639 Y-9.532 Z-1.211
G3 X-17.831 Y-9.342 Z-1.4 I-0.2 J-0.01
G1 X-18.405 Y-9.339
X-18.555 Y-9.345
X-18.702 Y-9.378
X-18.84 Y-9.436
X-18.969 Y-9.513
X-19.088 Y-9.604
X-19.132 Y-9.647
X-19.196 Y-9.723
X-19.243 Y-9.811
X-19.27 Y-9.908
G3 X-19.097 Y-10.132 Z-1.2 I0.198 J-0.026
G1 X-19.053 Y-10.133
X-19.009 Y-10.124
X-18.968 Y-10.105
X-18.729 Y-9.961
X-18.495 Y-9.821
X-18.311 Y-9.71
X-18.272 Y-9.679
X-18.242 Y-9.641
X-18.222 Y-9.595
X-18.214 Y-9.547
Y-9.539 Z-1.205
Y-9.538
G3 X-18.405 Y-9.339 Z-1.4 I-0.2 J0
G1 X-18.793 Y-9.335
X-18.987 Y-9.333
X-19.019 Y-9.334
X-19.051 Y-9.341
X-19.081 Y-9.352
X-19.111 Y-9.37
X-19.14 Y-9.395
X-19.157 Y-9.412
X-19.17 Y-9.429
X-19.18 Y-9.445
X-19.194 Y-9.473
X-19.202 Y-9.502
X-19.619 Y-12.012
X-19.645 Y-12.233
X-19.651 Y-12.399
X-19.643 Y-12.564
X-19.624 Y-12.713
X-19.592 Y-12.862
X-19.549 Y-13.005
X-19.539 Y-13.03
X-19.438 Y-13.182
X-19.287 Y-13.284
X-19.108 Y-13.32
G3 X-18.915 Y-13.114 Z-1.2 I-0.006 J0.2
G1 X-18.922 Y-13.064
X-19.023 Y-12.716
X-19.177 Y-12.184
X-19.231 Y-11.996
X-19.253 Y-11.947
X-19.288 Y-11.905
X-19.333 Y-11.874
X-19.384 Y-11.856
G3 X-19.619 Y-12.012 Z-1.4 I-0.039 J-0.196
G1 X-19.781 Y-12.988
X-19.787 Y-13.019
X-19.791 Y-13.046
X-19.796 Y-13.098
Y-13.12
X-19.795 Y-13.143
X-19.772 Y-13.191 Z-1.366
X-19.739 Y-13.232 Z-1.332
X-19.697 Y-13.264 Z-1.298
X-19.648 Y-13.285 Z-1.264
X-19.596 Y-13.293 Z-1.231
X-19.548 Y-13.29 Z-1.2
G3 X-19.558 Y-12.882 I-0.04 J0.203
X-19.791 Y-13.046 Z-1.4 I-0.03 J-0.205
G1 X-19.796 Y-13.078
X-19.798 Y-13.11
X-19.795 Y-13.143
X-19.786 Y-13.175
X-19.773 Y-13.202
X-19.755 Y-13.229
X-19.726 Y-13.259
X-19.697 Y-13.283
X-19.678 Y-13.295
X-19.658 Y-13.304
X-19.636 Y-13.312
X-19.613 Y-13.316
X-19.568 Y-13.318
X-18.434 Y-13.322
G3 X-18.405 Y-12.925 I-0.006 J0.2
G1 X-18.441 Y-12.922 Z-1.397
X-18.442 Z-1.396
X-18.487 Y-12.936 Z-1.381
X-18.526 Y-12.949 Z-1.354
X-18.558 Y-12.96 Z-1.317
X-18.574 Y-12.974 Z-1.281
X-18.584 Y-12.982 Z-1.241
X-18.587 Y-12.985 Z-1.2
Z5
X-6.316 Y10.125
Z-1
Z-1.2
X-6.312 Y10.13 Z-1.252
X-6.302 Y10.148 Z-1.3
X-6.286 Y10.175 Z-1.341
X-6.264 Y10.211 Z-1.373
X-6.24 Y10.252 Z-1.393
X-6.213 Y10.296 Z-1.4
G3 X-5.992 Y11.05 I-1.36 J0.809
G1 Y11.625
X-6 Y11.775
X-6.037 Y11.92
X-6.1 Y12.056
X-6.183 Y12.181
X-6.28 Y12.296
X-6.389 Y12.399
X-6.507 Y12.491
X-6.633 Y12.573
X-6.783 Y12.655
X-6.956 Y12.732
X-7.14 Y12.796
X-7.353 Y12.852
X-7.595 Y12.896
X-7.847 Y12.92
X-8.127 Y12.925
X-8.437 Y12.905
X-8.769 Y12.857
X-9.116 Y12.777
X-9.464 Y12.668
X-9.836 Y12.517
X-10.225 Y12.321
X-10.625 Y12.078
X-11.027 Y11.787
X-11.425 Y11.448
X-11.81 Y11.061
X-12.177 Y10.629
X-12.509 Y10.167
X-12.803 Y9.681
X-12.921 Y9.447
X-12.949 Y9.38
X-12.966 Y9.309
X-12.971 Y9.237
Y6.683
G3 X-12.765 Y6.49 Z-1.2 I0.2 J0.007
G1 X-12.724 Y6.495
X-12.686 Y6.509
X-12.651 Y6.53
X-12.419 Y6.705
X-6.511 Y11.142
X-6.18 Y11.39
X-6.072 Y11.472 Z-1.286
X-6.039 Y11.502 Z-1.315
X-6.015 Y11.539 Z-1.343
X-5.998 Y11.581 Z-1.372
X-5.992 Y11.625 Z-1.4
Y12.271
X-6 Y12.42
X-6.043 Y12.564
X-6.11 Y12.698
X-6.194 Y12.822
X-6.292 Y12.936
X-6.401 Y13.04
X-6.519 Y13.133
X-6.658 Y13.227
X-6.812 Y13.313
X-6.996 Y13.397
X-7.2 Y13.471
X-7.422 Y13.533
X-7.682 Y13.582
X-7.972 Y13.614
X-8.27 Y13.622
X-8.603 Y13.605
X-8.962 Y13.557
X-9.347 Y13.473
X-9.755 Y13.35
X-10.168 Y13.188
X-10.587 Y12.984
X-11.025 Y12.724
X-11.469 Y12.41
X-11.906 Y12.046
X-12.312 Y11.649
X-12.687 Y11.222
X-12.877 Y10.972
X-12.929 Y10.885
X-12.961 Y10.79
X-12.972 Y10.69
X-12.971 Y9.237
G3 X-12.765 Y9.044 Z-1.2 I0.2 J0.007
G1 X-12.725 Y9.049
X-12.688 Y9.062
X-12.385 Y9.202
X-6.568 Y11.884
X-6.193 Y12.057
X-6.108 Y12.096 Z-1.259
X-6.062 Y12.126 Z-1.295
X-6.025 Y12.167 Z-1.33
X-6.001 Y12.216 Z-1.365
X-5.992 Y12.271 Z-1.4
Y12.858
X-6 Y13.008
X-6.034 Y13.154
X-6.092 Y13.292
X-6.169 Y13.421
X-6.261 Y13.54
X-6.364 Y13.648
X-6.478 Y13.748
X-6.606 Y13.844
X-6.765 Y13.943
X-6.936 Y14.032
X-7.141 Y14.118
X-7.378 Y14.196
X-7.625 Y14.256
X-7.912 Y14.302
X-8.237 Y14.327
X-8.593 Y14.326
X-8.957 Y14.296
X-9.361 Y14.229
X-9.793 Y14.122
X-10.244 Y13.97
X-10.716 Y13.768
X-11.2 Y13.513
X-11.681 Y13.209
X-12.135 Y12.867
X-12.563 Y12.492
X-12.838 Y12.213
X-12.911 Y12.116
X-12.956 Y12.005
X-12.972 Y11.885
Y10.69
G3 X-12.765 Y10.497 Z-1.2 I0.2 J0.007
G1 X-12.737 Y10.5
X-12.709 Y10.507
X-12.371 Y10.618
X-6.589 Y12.524
X-6.196 Y12.653
X-6.129 Y12.675 Z-1.245
X-6.085 Y12.696 Z-1.276
X-6.048 Y12.727 Z-1.307
X-6.019 Y12.766 Z-1.338
X-6 Y12.81 Z-1.369
X-5.992 Y12.858 Z-1.4
Y13.504
X-6 Y13.654
X-6.033 Y13.8
X-6.09 Y13.939
X-6.165 Y14.069
X-6.255 Y14.189
X-6.357 Y14.299
X-6.474 Y14.407
X-6.605 Y14.507
X-6.761 Y14.61
X-6.947 Y14.711
X-7.147 Y14.799
X-7.391 Y14.885
X-7.667 Y14.957
X-7.96 Y15.01
X-8.296 Y15.042
X-8.673 Y15.048
X-9.088 Y15.021
X-9.51 Y14.96
X-9.966 Y14.855
X-10.457 Y14.7
X-10.974 Y14.491
X-11.482 Y14.235
X-11.969 Y13.942
X-12.434 Y13.614
X-12.8 Y13.314
X-12.893 Y13.213
X-12.952 Y13.089
X-12.972 Y12.953
Y11.885
G3 X-12.765 Y11.692 Z-1.2 I0.2 J0.007
G1 X-12.724 Y11.698
X-12.363 Y11.787
X-6.599 Y13.205
X-6.198 Y13.304
X-6.144 Y13.317 Z-1.235
X-6.096 Y13.336 Z-1.268
X-6.054 Y13.366 Z-1.301
X-6.022 Y13.406 Z-1.334
X-6 Y13.453 Z-1.367
X-5.992 Y13.504 Z-1.4
Y14.208
X-6 Y14.358
X-6.04 Y14.502
X-6.102 Y14.639
X-6.181 Y14.766
X-6.274 Y14.885
X-6.376 Y14.994
X-6.499 Y15.104
X-6.64 Y15.212
X-6.807 Y15.319
X-7.008 Y15.427
X-7.222 Y15.52
X-7.479 Y15.608
X-7.783 Y15.685
X-8.099 Y15.739
X-8.465 Y15.772
X-8.873 Y15.775
X-9.322 Y15.743
X-9.807 Y15.668
X-10.297 Y15.553
X-10.825 Y15.382
X-11.35 Y15.164
X-11.858 Y14.907
