(1001)
(Bearbeiten)
(  Hersteller: ChinaCnc)
(  model: 3040T)
(  description: Generic 3-axis)
(T13  D=1.8 CR=0 - ZMIN=-1.8 - Schaftfraser)
G90 G94
G17
G21
G28 G91 Z0
G90

(Bohrfrasen13)
T13
S4000 M3
G54
G0 X-6 Y-6
Z15
Z2
G1 Z0 F1000
X-6.18 Y-6.445
G3 X-6 Y-6.625 I0.18 J0
X-6 Y-5.375 Z-0.15 I0 J0.625
X-6 Y-6.625 Z-0.3 I0 J-0.625
X-6 Y-5.375 Z-0.45 I0 J0.625
X-6 Y-6.625 Z-0.6 I0 J-0.625
X-6 Y-5.375 Z-0.75 I0 J0.625
X-6 Y-6.625 Z-0.9 I0 J-0.625
X-6 Y-5.375 Z-1.05 I0 J0.625
X-6 Y-6.625 Z-1.2 I0 J-0.625
X-6 Y-5.375 Z-1.35 I0 J0.625
X-6 Y-6.625 Z-1.5 I0 J-0.625
X-6 Y-5.375 Z-1.65 I0 J0.625
X-6 Y-6.625 Z-1.8 I0 J-0.625
X-6 Y-5.375 I0 J0.625
X-6 Y-6.625 I0 J-0.625
X-5.82 Y-6.445 I0 J0.18
G1 X-6 Y-6
G0 Z5
X-42.062
Z2
G1 Z0 F1000
X-42.242 Y-6.445
G3 X-42.062 Y-6.625 I0.18 J0
X-42.062 Y-5.375 Z-0.15 I0 J0.625
X-42.062 Y-6.625 Z-0.3 I0 J-0.625
X-42.062 Y-5.375 Z-0.45 I0 J0.625
X-42.062 Y-6.625 Z-0.6 I0 J-0.625
X-42.062 Y-5.375 Z-0.75 I0 J0.625
X-42.062 Y-6.625 Z-0.9 I0 J-0.625
X-42.062 Y-5.375 Z-1.05 I0 J0.625
X-42.062 Y-6.625 Z-1.2 I0 J-0.625
X-42.062 Y-5.375 Z-1.35 I0 J0.625
X-42.062 Y-6.625 Z-1.5 I0 J-0.625
X-42.062 Y-5.375 Z-1.65 I0 J0.625
X-42.062 Y-6.625 Z-1.8 I0 J-0.625
X-42.062 Y-5.375 I0 J0.625
X-42.062 Y-6.625 I0 J-0.625
X-41.882 Y-6.445 I0 J0.18
G1 X-42.062 Y-6
G0 Z5
Y-42.062
Z2
G1 Z0 F1000
X-41.882 Y-41.617
G3 X-42.062 Y-41.437 I-0.18 J0
X-42.062 Y-42.687 Z-0.15 I0 J-0.625
X-42.062 Y-41.437 Z-0.3 I0 J0.625
X-42.062 Y-42.687 Z-0.45 I0 J-0.625
X-42.062 Y-41.437 Z-0.6 I0 J0.625
X-42.062 Y-42.687 Z-0.75 I0 J-0.625
X-42.062 Y-41.437 Z-0.9 I0 J0.625
X-42.062 Y-42.687 Z-1.05 I0 J-0.625
X-42.062 Y-41.437 Z-1.2 I0 J0.625
X-42.062 Y-42.687 Z-1.35 I0 J-0.625
X-42.062 Y-41.437 Z-1.5 I0 J0.625
X-42.062 Y-42.687 Z-1.65 I0 J-0.625
X-42.062 Y-41.437 Z-1.8 I0 J0.625
X-42.062 Y-42.687 I0 J-0.625
X-42.062 Y-41.437 I0 J0.625
X-42.242 Y-41.617 I0 J-0.18
G1 X-42.062 Y-42.062
G0 Z5
X-6
Z2
G1 Z0 F1000
X-5.82 Y-41.617
G3 X-6 Y-41.437 I-0.18 J0
X-6 Y-42.687 Z-0.15 I0 J-0.625
X-6 Y-41.437 Z-0.3 I0 J0.625
X-6 Y-42.687 Z-0.45 I0 J-0.625
X-6 Y-41.437 Z-0.6 I0 J0.625
X-6 Y-42.687 Z-0.75 I0 J-0.625
X-6 Y-41.437 Z-0.9 I0 J0.625
X-6 Y-42.687 Z-1.05 I0 J-0.625
X-6 Y-41.437 Z-1.2 I0 J0.625
X-6 Y-42.687 Z-1.35 I0 J-0.625
X-6 Y-41.437 Z-1.5 I0 J0.625
X-6 Y-42.687 Z-1.65 I0 J-0.625
X-6 Y-41.437 Z-1.8 I0 J0.625
X-6 Y-42.687 I0 J-0.625
X-6 Y-41.437 I0 J0.625
X-6.18 Y-41.617 I0 J-0.18
G1 X-6 Y-42.062
G0 Z15

(Bohrfrasen16)
X-6 Y-24.031
Z15
Z2
G1 Z0 F1000
X-6.063 Y-24.094
X-6.058 Y-24.118
X-6.044 Y-24.138
X-6.024 Y-24.151
X-6 Y-24.156
G3 X-6 Y-23.906 Z-0.15 I0 J0.125
X-6 Y-24.156 Z-0.3 I0 J-0.125
X-6 Y-23.906 Z-0.45 I0 J0.125
X-6 Y-24.156 Z-0.6 I0 J-0.125
X-6 Y-23.906 Z-0.75 I0 J0.125
X-6 Y-24.156 Z-0.9 I0 J-0.125
X-6 Y-23.906 Z-1.05 I0 J0.125
X-6 Y-24.156 Z-1.2 I0 J-0.125
X-6 Y-23.906 Z-1.35 I0 J0.125
X-6 Y-24.156 Z-1.5 I0 J-0.125
X-6 Y-23.906 Z-1.65 I0 J0.125
X-6 Y-24.156 Z-1.8 I0 J-0.125
X-6 Y-23.906 I0 J0.125
X-6 Y-24.156 I0 J-0.125
G1 X-5.976 Y-24.151
X-5.956 Y-24.138
X-5.942 Y-24.118
X-5.938 Y-24.094
X-6 Y-24.031
G0 Z5
X-14.031 Y-34.031
Z2
G1 Z0 F1000
X-13.969 Y-33.969
X-13.973 Y-33.945
X-13.987 Y-33.925
X-14.007 Y-33.911
X-14.031 Y-33.906
G3 X-14.031 Y-34.156 Z-0.15 I0 J-0.125
X-14.031 Y-33.906 Z-0.3 I0 J0.125
X-14.031 Y-34.156 Z-0.45 I0 J-0.125
X-14.031 Y-33.906 Z-0.6 I0 J0.125
X-14.031 Y-34.156 Z-0.75 I0 J-0.125
X-14.031 Y-33.906 Z-0.9 I0 J0.125
X-14.031 Y-34.156 Z-1.05 I0 J-0.125
X-14.031 Y-33.906 Z-1.2 I0 J0.125
X-14.031 Y-34.156 Z-1.35 I0 J-0.125
X-14.031 Y-33.906 Z-1.5 I0 J0.125
X-14.031 Y-34.156 Z-1.65 I0 J-0.125
X-14.031 Y-33.906 Z-1.8 I0 J0.125
X-14.031 Y-34.156 I0 J-0.125
X-14.031 Y-33.906 I0 J0.125
G1 X-14.055 Y-33.911
X-14.075 Y-33.925
X-14.089 Y-33.945
X-14.094 Y-33.969
X-14.031 Y-34.031
G0 Z5
X-24.031 Y-42.062
Z2
G1 Z0 F1000
X-23.969 Y-42
X-23.973 Y-41.976
X-23.987 Y-41.956
X-24.007 Y-41.942
X-24.031 Y-41.937
G3 X-24.031 Y-42.187 Z-0.15 I0 J-0.125
X-24.031 Y-41.937 Z-0.3 I0 J0.125
X-24.031 Y-42.187 Z-0.45 I0 J-0.125
X-24.031 Y-41.937 Z-0.6 I0 J0.125
X-24.031 Y-42.187 Z-0.75 I0 J-0.125
X-24.031 Y-41.937 Z-0.9 I0 J0.125
X-24.031 Y-42.187 Z-1.05 I0 J-0.125
X-24.031 Y-41.937 Z-1.2 I0 J0.125
X-24.031 Y-42.187 Z-1.35 I0 J-0.125
X-24.031 Y-41.937 Z-1.5 I0 J0.125
X-24.031 Y-42.187 Z-1.65 I0 J-0.125
X-24.031 Y-41.937 Z-1.8 I0 J0.125
X-24.031 Y-42.187 I0 J-0.125
X-24.031 Y-41.937 I0 J0.125
G1 X-24.055 Y-41.942
X-24.075 Y-41.956
X-24.089 Y-41.976
X-24.094 Y-42
X-24.031 Y-42.062
G0 Z5
X-34.031 Y-34.031
Z2
G1 Z0 F1000
X-33.969 Y-33.969
X-33.973 Y-33.945
X-33.987 Y-33.925
X-34.007 Y-33.911
X-34.031 Y-33.906
G3 X-34.031 Y-34.156 Z-0.15 I0 J-0.125
X-34.031 Y-33.906 Z-0.3 I0 J0.125
X-34.031 Y-34.156 Z-0.45 I0 J-0.125
X-34.031 Y-33.906 Z-0.6 I0 J0.125
X-34.031 Y-34.156 Z-0.75 I0 J-0.125
X-34.031 Y-33.906 Z-0.9 I0 J0.125
X-34.031 Y-34.156 Z-1.05 I0 J-0.125
X-34.031 Y-33.906 Z-1.2 I0 J0.125
X-34.031 Y-34.156 Z-1.35 I0 J-0.125
X-34.031 Y-33.906 Z-1.5 I0 J0.125
X-34.031 Y-34.156 Z-1.65 I0 J-0.125
X-34.031 Y-33.906 Z-1.8 I0 J0.125
X-34.031 Y-34.156 I0 J-0.125
X-34.031 Y-33.906 I0 J0.125
G1 X-34.055 Y-33.911
X-34.075 Y-33.925
X-34.089 Y-33.945
X-34.094 Y-33.969
X-34.031 Y-34.031
G0 Z5
X-42.062 Y-24.031
Z2
G1 Z0 F1000
X-42 Y-23.969
X-42.005 Y-23.945
X-42.018 Y-23.925
X-42.039 Y-23.911
X-42.062 Y-23.906
G3 X-42.062 Y-24.156 Z-0.15 I0 J-0.125
X-42.062 Y-23.906 Z-0.3 I0 J0.125
X-42.062 Y-24.156 Z-0.45 I0 J-0.125
X-42.062 Y-23.906 Z-0.6 I0 J0.125
X-42.062 Y-24.156 Z-0.75 I0 J-0.125
X-42.062 Y-23.906 Z-0.9 I0 J0.125
X-42.062 Y-24.156 Z-1.05 I0 J-0.125
X-42.062 Y-23.906 Z-1.2 I0 J0.125
X-42.062 Y-24.156 Z-1.35 I0 J-0.125
X-42.062 Y-23.906 Z-1.5 I0 J0.125
X-42.062 Y-24.156 Z-1.65 I0 J-0.125
X-42.062 Y-23.906 Z-1.8 I0 J0.125
X-42.062 Y-24.156 I0 J-0.125
X-42.062 Y-23.906 I0 J0.125
G1 X-42.086 Y-23.911
X-42.107 Y-23.925
X-42.12 Y-23.945
X-42.125 Y-23.969
X-42.062 Y-24.031
G0 Z5
X-34.031 Y-14.031
Z2
G1 Z0 F1000
X-34.094 Y-14.094
X-34.089 Y-14.118
X-34.075 Y-14.138
X-34.055 Y-14.151
X-34.031 Y-14.156
G3 X-34.031 Y-13.906 Z-0.15 I0 J0.125
X-34.031 Y-14.156 Z-0.3 I0 J-0.125
X-34.031 Y-13.906 Z-0.45 I0 J0.125
X-34.031 Y-14.156 Z-0.6 I0 J-0.125
X-34.031 Y-13.906 Z-0.75 I0 J0.125
X-34.031 Y-14.156 Z-0.9 I0 J-0.125
X-34.031 Y-13.906 Z-1.05 I0 J0.125
X-34.031 Y-14.156 Z-1.2 I0 J-0.125
X-34.031 Y-13.906 Z-1.35 I0 J0.125
X-34.031 Y-14.156 Z-1.5 I0 J-0.125
X-34.031 Y-13.906 Z-1.65 I0 J0.125
X-34.031 Y-14.156 Z-1.8 I0 J-0.125
X-34.031 Y-13.906 I0 J0.125
X-34.031 Y-14.156 I0 J-0.125
G1 X-34.007 Y-14.151
X-33.987 Y-14.138
X-33.973 Y-14.118
X-33.969 Y-14.094
X-34.031 Y-14.031
G0 Z5
X-24.031 Y-6
Z2
G1 Z0 F1000
X-24.094 Y-6.063
X-24.089 Y-6.086
X-24.075 Y-6.107
X-24.055 Y-6.12
X-24.031 Y-6.125
G3 X-24.031 Y-5.875 Z-0.15 I0 J0.125
X-24.031 Y-6.125 Z-0.3 I0 J-0.125
X-24.031 Y-5.875 Z-0.45 I0 J0.125
X-24.031 Y-6.125 Z-0.6 I0 J-0.125
X-24.031 Y-5.875 Z-0.75 I0 J0.125
X-24.031 Y-6.125 Z-0.9 I0 J-0.125
X-24.031 Y-5.875 Z-1.05 I0 J0.125
X-24.031 Y-6.125 Z-1.2 I0 J-0.125
X-24.031 Y-5.875 Z-1.35 I0 J0.125
X-24.031 Y-6.125 Z-1.5 I0 J-0.125
X-24.031 Y-5.875 Z-1.65 I0 J0.125
X-24.031 Y-6.125 Z-1.8 I0 J-0.125
X-24.031 Y-5.875 I0 J0.125
X-24.031 Y-6.125 I0 J-0.125
G1 X-24.007 Y-6.12
X-23.987 Y-6.107
X-23.973 Y-6.086
X-23.969 Y-6.063
X-24.031 Y-6
G0 Z5
X-14.031 Y-14.031
Z2
G1 Z0 F1000
X-14.094 Y-14.094
X-14.089 Y-14.118
X-14.075 Y-14.138
X-14.055 Y-14.151
X-14.031 Y-14.156
G3 X-14.031 Y-13.906 Z-0.15 I0 J0.125
X-14.031 Y-14.156 Z-0.3 I0 J-0.125
X-14.031 Y-13.906 Z-0.45 I0 J0.125
X-14.031 Y-14.156 Z-0.6 I0 J-0.125
X-14.031 Y-13.906 Z-0.75 I0 J0.125
X-14.031 Y-14.156 Z-0.9 I0 J-0.125
X-14.031 Y-13.906 Z-1.05 I0 J0.125
X-14.031 Y-14.156 Z-1.2 I0 J-0.125
X-14.031 Y-13.906 Z-1.35 I0 J0.125
X-14.031 Y-14.156 Z-1.5 I0 J-0.125
X-14.031 Y-13.906 Z-1.65 I0 J0.125
X-14.031 Y-14.156 Z-1.8 I0 J-0.125
X-14.031 Y-13.906 I0 J0.125
X-14.031 Y-14.156 I0 J-0.125
G1 X-14.007 Y-14.151
X-13.987 Y-14.138
X-13.973 Y-14.118
X-13.969 Y-14.094
X-14.031 Y-14.031
G0 Z15

(2D-Kontur4)
X-20.66 Y-27.631
Z15
Z5
G1 Z1.2 F200
Z0.5
S5000
X-11.5 Z0.18 F333.3
G3 X-10.9 Y-27.031 Z0.147 I0 J0.6
G1 Y-21.031 Z-0.062
G3 X-11.5 Y-20.431 Z-0.095 I-0.6 J0
G1 X-14.5 Z-0.2
S4000
X-36.562 F1000
G3 X-37.162 Y-21.031 I0 J-0.6
G1 Y-27.031
G3 X-36.562 Y-27.631 I0.6 J0
G1 X-11.5
G3 X-10.9 Y-27.031 I0 J0.6
G1 Y-21.031
G3 X-11.5 Y-20.431 I-0.6 J0
G1 X-14.5
S5000
X-20.227 Z-0.4 F333.3
S4000
X-36.562 F1000
G3 X-37.162 Y-21.031 I0 J-0.6
G1 Y-27.031
G3 X-36.562 Y-27.631 I0.6 J0
G1 X-11.5
G3 X-10.9 Y-27.031 I0 J0.6
G1 Y-21.031
G3 X-11.5 Y-20.431 I-0.6 J0
G1 X-20.227
S5000
X-25.955 Z-0.6 F333.3
S4000
X-36.562 F1000
G3 X-37.162 Y-21.031 I0 J-0.6
G1 Y-27.031
G3 X-36.562 Y-27.631 I0.6 J0
G1 X-11.5
G3 X-10.9 Y-27.031 I0 J0.6
G1 Y-21.031
G3 X-11.5 Y-20.431 I-0.6 J0
G1 X-20.227
X-25.955
S5000
X-31.682 Z-0.8 F333.3
S4000
X-36.562 F1000
G3 X-37.162 Y-21.031 I0 J-0.6
G1 Y-27.031
G3 X-36.562 Y-27.631 I0.6 J0
G1 X-11.5
G3 X-10.9 Y-27.031 I0 J0.6
G1 Y-21.031
G3 X-11.5 Y-20.431 I-0.6 J0
G1 X-25.955
X-31.682
S5000
X-36.562 Z-0.97 F333.3
G3 X-37.155 Y-20.936 Z-1 I0 J-0.6
S4000
G1 X-37.162 Y-21.031 F1000
Y-27.031
G3 X-36.562 Y-27.631 I0.6 J0
G1 X-11.5
G3 X-10.9 Y-27.031 I0 J0.6
G1 Y-21.031
G3 X-11.5 Y-20.431 I-0.6 J0
G1 X-31.682
X-36.562
G3 X-37.155 Y-20.936 I0 J-0.6
S5000
G1 X-37.162 Y-21.031 Z-1.003 F333.3
Y-26.663 Z-1.2
S4000
Y-27.031 F1000
G3 X-36.562 Y-27.631 I0.6 J0
G1 X-11.5
G3 X-10.9 Y-27.031 I0 J0.6
G1 Y-21.031
G3 X-11.5 Y-20.431 I-0.6 J0
G1 X-36.562
G3 X-37.162 Y-21.031 I0 J-0.6
G1 Y-26.663
S5000
Y-27.031 Z-1.213 F333.3
G3 X-36.562 Y-27.631 Z-1.246 I0.6 J0
G1 X-32.146 Z-1.4
S4000
X-11.5 F1000
G3 X-10.9 Y-27.031 I0 J0.6
G1 Y-21.031
G3 X-11.5 Y-20.431 I-0.6 J0
G1 X-36.562
G3 X-37.162 Y-21.031 I0 J-0.6
G1 Y-26.663
Y-27.031
G3 X-36.562 Y-27.631 I0.6 J0
G1 X-32.146
S5000
X-26.419 Z-1.6 F333.3
S4000
X-11.5 F1000
G3 X-10.9 Y-27.031 I0 J0.6
G1 Y-21.031
G3 X-11.5 Y-20.431 I-0.6 J0
G1 X-36.562
G3 X-37.162 Y-21.031 I0 J-0.6
G1 Y-27.031
G3 X-36.562 Y-27.631 I0.6 J0
G1 X-26.419
S5000
X-20.692 Z-1.8 F333.3
S4000
X-11.5 F1000
G3 X-10.9 Y-27.031 I0 J0.6
G1 Y-21.031
G3 X-11.5 Y-20.431 I-0.6 J0
G1 X-36.562
G3 X-37.162 Y-21.031 I0 J-0.6
G1 Y-27.031
G3 X-36.562 Y-27.631 I0.6 J0
G1 X-26.419
X-20.692
G0 Z5
X-25.506 Y-35.937
G1 Z1.2 F200
Z0.5
S5000
X-29.531 Z0.359 F333.3
G3 X-30.131 Y-36.537 Z0.327 I0 J-0.6
G1 Y-37.037 Z0.309
G3 X-29.531 Y-37.637 Z0.276 I0.6 J0
G1 X-18.531 Z-0.108
G3 X-17.931 Y-37.037 Z-0.141 I0 J0.6
G1 Y-36.537 Z-0.158
G3 X-18.531 Y-35.937 Z-0.191 I-0.6 J0
G1 X-18.781 Z-0.2
S4000
X-29.531 F1000
G3 X-30.131 Y-36.537 I0 J-0.6
G1 Y-37.037
G3 X-29.531 Y-37.637 I0.6 J0
G1 X-18.531
G3 X-17.931 Y-37.037 I0 J0.6
G1 Y-36.537
G3 X-18.531 Y-35.937 I-0.6 J0
G1 X-18.781
S5000
X-24.508 Z-0.4 F333.3
S4000
X-29.531 F1000
G3 X-30.131 Y-36.537 I0 J-0.6
G1 Y-37.037
G3 X-29.531 Y-37.637 I0.6 J0
G1 X-18.531
G3 X-17.931 Y-37.037 I0 J0.6
G1 Y-36.537
G3 X-18.531 Y-35.937 I-0.6 J0
G1 X-24.508
S5000
X-29.531 Z-0.575 F333.3
G3 X-30.085 Y-36.306 Z-0.6 I0 J-0.6
S4000
G1 X-30.11 Y-36.381 F1000
X-30.126 Y-36.458
X-30.131 Y-36.537
Y-37.037
G3 X-29.531 Y-37.637 I0.6 J0
G1 X-18.531
G3 X-17.931 Y-37.037 I0 J0.6
G1 Y-36.537
G3 X-18.531 Y-35.937 I-0.6 J0
G1 X-24.508
X-29.531
G3 X-30.085 Y-36.306 I0 J-0.6
S5000
G1 X-30.11 Y-36.381 Z-0.603 F333.3
X-30.126 Y-36.458 Z-0.606
X-30.131 Y-36.537 Z-0.608
Y-37.037 Z-0.626
G3 X-29.531 Y-37.637 Z-0.659 I0.6 J0
G1 X-25.484 Z-0.8
S4000
X-18.531 F1000
G3 X-17.931 Y-37.037 I0 J0.6
G1 Y-36.537
G3 X-18.531 Y-35.937 I-0.6 J0
G1 X-29.531
G3 X-30.131 Y-36.537 I0 J-0.6
G1 Y-37.037
G3 X-29.531 Y-37.637 I0.6 J0
G1 X-25.484
S5000
X-19.757 Z-1 F333.3
S4000
X-18.531 F1000
G3 X-17.931 Y-37.037 I0 J0.6
G1 Y-36.537
G3 X-18.531 Y-35.937 I-0.6 J0
G1 X-29.531
G3 X-30.131 Y-36.537 I0 J-0.6
G1 Y-37.037
G3 X-29.531 Y-37.637 I0.6 J0
G1 X-19.757
S5000
X-18.531 Z-1.043 F333.3
G3 X-17.931 Y-37.037 Z-1.076 I0 J0.6
G1 Y-36.537 Z-1.093
G3 X-18.531 Y-35.937 Z-1.126 I-0.6 J0
G1 X-20.648 Z-1.2
S4000
X-29.531 F1000
G3 X-30.131 Y-36.537 I0 J-0.6
G1 Y-37.037
G3 X-29.531 Y-37.637 I0.6 J0
G1 X-19.757
X-18.531
G3 X-17.931 Y-37.037 I0 J0.6
G1 Y-36.537
G3 X-18.531 Y-35.937 I-0.6 J0
G1 X-20.648
S5000
X-26.375 Z-1.4 F333.3
S4000
X-29.531 F1000
G3 X-30.131 Y-36.537 I0 J-0.6
G1 Y-37.037
G3 X-29.531 Y-37.637 I0.6 J0
G1 X-18.531
G3 X-17.931 Y-37.037 I0 J0.6
G1 Y-36.537
G3 X-18.531 Y-35.937 I-0.6 J0
G1 X-26.375
S5000
X-29.531 Z-1.51 F333.3
G3 X-30.131 Y-36.537 Z-1.543 I0 J-0.6
G1 Y-37.037 Z-1.561
G3 X-29.531 Y-37.637 Z-1.594 I0.6 J0
G1 X-29.345 Z-1.6
S4000
X-18.531 F1000
G3 X-17.931 Y-37.037 I0 J0.6
G1 Y-36.537
G3 X-18.531 Y-35.937 I-0.6 J0
G1 X-26.375
X-29.531
G3 X-30.131 Y-36.537 I0 J-0.6
G1 Y-37.037
G3 X-29.531 Y-37.637 I0.6 J0
G1 X-29.345
S5000
X-23.618 Z-1.8 F333.3
S4000
X-18.531 F1000
G3 X-17.931 Y-37.037 I0 J0.6
G1 Y-36.537
G3 X-18.531 Y-35.937 I-0.6 J0
G1 X-29.531
G3 X-30.131 Y-36.537 I0 J-0.6
G1 Y-37.037
G3 X-29.531 Y-37.637 I0.6 J0
G1 X-23.618
G0 Z5
X-23.999 Y-12.125
G1 Z1.2 F200
Z0.5
S5000
X-18.531 Z0.309 F333.3
G3 X-17.931 Y-11.525 Z0.276 I0 J0.6
G1 Y-11.025 Z0.259
G3 X-18.531 Y-10.425 Z0.226 I-0.6 J0
G1 X-29.531 Z-0.158
G3 X-30.131 Y-11.025 Z-0.191 I0 J-0.6
G1 Y-11.275 Z-0.2
S4000
Y-11.525 F1000
G3 X-29.531 Y-12.125 I0.6 J0
G1 X-18.531
G3 X-17.931 Y-11.525 I0 J0.6
G1 Y-11.025
G3 X-18.531 Y-10.425 I-0.6 J0
G1 X-29.531
G3 X-30.131 Y-11.025 I0 J-0.6
G1 Y-11.275
S5000
Y-11.525 Z-0.209 F333.3
G3 X-29.531 Y-12.125 Z-0.242 I0.6 J0
G1 X-24.996 Z-0.4
S4000
X-18.531 F1000
G3 X-17.931 Y-11.525 I0 J0.6
G1 Y-11.025
G3 X-18.531 Y-10.425 I-0.6 J0
G1 X-29.531
G3 X-30.131 Y-11.025 I0 J-0.6
G1 Y-11.525
G3 X-29.531 Y-12.125 I0.6 J0
G1 X-24.996
S5000
X-19.269 Z-0.6 F333.3
S4000
X-18.531 F1000
G3 X-17.931 Y-11.525 I0 J0.6
G1 Y-11.025
G3 X-18.531 Y-10.425 I-0.6 J0
G1 X-29.531
G3 X-30.131 Y-11.025 I0 J-0.6
G1 Y-11.525
G3 X-29.531 Y-12.125 I0.6 J0
G1 X-19.269
S5000
X-18.531 Z-0.626 F333.3
G3 X-17.931 Y-11.525 Z-0.659 I0 J0.6
G1 Y-11.025 Z-0.676
G3 X-18.531 Y-10.425 Z-0.709 I-0.6 J0
G1 X-21.136 Z-0.8
S4000
X-29.531 F1000
G3 X-30.131 Y-11.025 I0 J-0.6
G1 Y-11.525
G3 X-29.531 Y-12.125 I0.6 J0
G1 X-19.269
X-18.531
G3 X-17.931 Y-11.525 I0 J0.6
G1 Y-11.025
G3 X-18.531 Y-10.425 I-0.6 J0
G1 X-21.136
S5000
X-26.863 Z-1 F333.3
S4000
X-29.531 F1000
G3 X-30.131 Y-11.025 I0 J-0.6
G1 Y-11.525
G3 X-29.531 Y-12.125 I0.6 J0
G1 X-18.531
G3 X-17.931 Y-11.525 I0 J0.6
G1 Y-11.025
G3 X-18.531 Y-10.425 I-0.6 J0
G1 X-26.863
S5000
X-29.531 Z-1.093 F333.3
G3 X-30.131 Y-11.025 Z-1.126 I0 J-0.6
G1 Y-11.525 Z-1.144
G3 X-29.531 Y-12.125 Z-1.176 I0.6 J0
G1 X-28.857 Z-1.2
S4000
X-18.531 F1000
G3 X-17.931 Y-11.525 I0 J0.6
G1 Y-11.025
G3 X-18.531 Y-10.425 I-0.6 J0
G1 X-26.863
X-29.531
G3 X-30.131 Y-11.025 I0 J-0.6
G1 Y-11.525
G3 X-29.531 Y-12.125 I0.6 J0
G1 X-28.857
S5000
X-23.13 Z-1.4 F333.3
S4000
X-18.531 F1000
G3 X-17.931 Y-11.525 I0 J0.6
G1 Y-11.025
G3 X-18.531 Y-10.425 I-0.6 J0
G1 X-29.531
G3 X-30.131 Y-11.025 I0 J-0.6
G1 Y-11.525
G3 X-29.531 Y-12.125 I0.6 J0
G1 X-23.13
S5000
X-18.531 Z-1.561 F333.3
G3 X-17.931 Y-11.525 Z-1.594 I0 J0.6
G1 Y-11.339 Z-1.6
S4000
Y-11.025 F1000
G3 X-18.531 Y-10.425 I-0.6 J0
G1 X-29.531
G3 X-30.131 Y-11.025 I0 J-0.6
G1 Y-11.525
G3 X-29.531 Y-12.125 I0.6 J0
G1 X-23.13
X-18.531
G3 X-17.931 Y-11.525 I0 J0.6
G1 Y-11.339
S5000
Y-11.025 Z-1.611 F333.3
G3 X-18.531 Y-10.425 Z-1.644 I-0.6 J0
G1 X-23.002 Z-1.8
S4000
X-29.531 F1000
G3 X-30.131 Y-11.025 I0 J-0.6
G1 Y-11.525
G3 X-29.531 Y-12.125 I0.6 J0
G1 X-18.531
G3 X-17.931 Y-11.525 I0 J0.6
G1 Y-11.025
G3 X-18.531 Y-10.425 I-0.6 J0
G1 X-23.002
G0 Z15

(2D-Kontur5)
X-45.544 Y-10.943
Z15
Z5
G1 Z1.2 F200
Z1
S5000
X-45.847 Y-10.582 Z0.984 F333.3
X-46.243 Y-10.163 Z0.963
G2 X-46.234 Y-1.828 Z0.64 I4.181 J4.163
X-37.898 Y-1.82 Z0.317 I4.172 J-4.172
G1 X-37.443 Y-2.254 Z0.295
X-37.011 Y-2.623 Z0.275
X-36.597 Y-2.936 Z0.257
X-36.2 Y-3.195 Z0.24
X-35.811 Y-3.408 Z0.225
X-35.635 Y-3.491 Z0.218
X-35.455 Y-3.567 Z0.211
X-35.278 Y-3.632 Z0.205
X-35.114 Y-3.685 Z0.199
X-34.764 Y-3.772 Z0.186
X-34.43 Y-3.823 Z0.174
X-34.098 Y-3.844 Z0.163
X-33.765 Y-3.838 Z0.151
X-33.427 Y-3.806 Z0.139
X-33.082 Y-3.749 Z0.127
X-32.728 Y-3.67 Z0.114
X-32.364 Y-3.571 Z0.101
X-31.99 Y-3.454 Z0.088
X-31.604 Y-3.322 Z0.073
X-31.206 Y-3.177 Z0.058
X-30.796 Y-3.023 Z0.043
X-30.375 Y-2.864 Z0.027
X-30.37 Y-2.862
X-29.94 Y-2.702 Z0.011
X-29.93 Y-2.699
X-29.49 Y-2.541 Z-0.005
X-29.475 Y-2.536 Z-0.006
X-29.025 Y-2.384 Z-0.023
X-29.005 Y-2.378
X-28.542 Y-2.233 Z-0.04
X-28.518 Y-2.226 Z-0.041
X-28.043 Y-2.092 Z-0.058
X-28.016 Y-2.085 Z-0.059
X-27.526 Y-1.964 Z-0.077
X-27.496 Y-1.957 Z-0.078
X-26.992 Y-1.85 Z-0.096
X-26.959 Y-1.844 Z-0.097
X-26.439 Y-1.754 Z-0.116
X-26.405 Y-1.749 Z-0.117
X-25.868 Y-1.677 Z-0.136
X-25.833 Y-1.673 Z-0.137
X-25.279 Y-1.621 Z-0.156
X-25.244 Y-1.619 Z-0.158
X-24.672 Y-1.587 Z-0.178
X-24.638 Y-1.586 Z-0.179
X-24.047 Y-1.575 Z-0.199
X-24.031 Z-0.2
S4000
X-24.015 F1000
X-23.424 Y-1.586
X-23.391 Y-1.587
X-22.818 Y-1.619
X-22.784 Y-1.621
X-22.229 Y-1.673
X-22.195 Y-1.677
X-21.658 Y-1.749
X-21.624 Y-1.754
X-21.103 Y-1.844
X-21.071 Y-1.85
X-20.566 Y-1.957
X-20.536 Y-1.964
X-20.047 Y-2.085
X-20.019 Y-2.092
X-19.544 Y-2.226
X-19.52 Y-2.233
X-19.058 Y-2.378
X-19.038 Y-2.384
X-18.588 Y-2.536
X-18.572 Y-2.541
X-18.133 Y-2.699
X-18.122 Y-2.702
X-17.692 Y-2.862
X-17.688 Y-2.864
X-17.266 Y-3.023
X-16.856 Y-3.177
X-16.458 Y-3.322
X-16.073 Y-3.454
X-15.698 Y-3.571
X-15.334 Y-3.67
X-14.981 Y-3.749
X-14.635 Y-3.806
X-14.298 Y-3.838
X-13.964 Y-3.844
X-13.633 Y-3.823
X-13.299 Y-3.772
X-12.948 Y-3.685
X-12.784 Y-3.632
X-12.608 Y-3.567
X-12.427 Y-3.491
X-12.251 Y-3.408
X-11.863 Y-3.195
X-11.466 Y-2.936
X-11.051 Y-2.623
X-10.62 Y-2.254
X-10.164 Y-1.82
G2 X-1.828 Y-1.828 I4.164 J-4.18
X-1.819 Y-10.163 I-4.172 J-4.172
G1 X-2.216 Y-10.582
X-2.551 Y-10.981
X-2.835 Y-11.37
X-3.07 Y-11.748
X-3.261 Y-12.115
X-3.411 Y-12.474
X-3.524 Y-12.826
X-3.603 Y-13.175
X-3.651 Y-13.524
X-3.671 Y-13.875
X-3.665 Y-14.232
X-3.635 Y-14.595
X-3.581 Y-14.967
X-3.507 Y-15.348
X-3.414 Y-15.738
X-3.304 Y-16.138
X-3.181 Y-16.547
X-3.047 Y-16.967
X-2.905 Y-17.397
X-2.759 Y-17.836
X-2.758 Y-17.838
X-2.61 Y-18.284
X-2.608 Y-18.292
X-2.462 Y-18.744
X-2.458 Y-18.756
X-2.318 Y-19.216
X-2.313 Y-19.232
X-2.18 Y-19.7
X-2.174 Y-19.72
X-2.051 Y-20.196
X-2.045 Y-20.219
X-1.933 Y-20.704
X-1.927 Y-20.731
X-1.829 Y-21.225
X-1.823 Y-21.255
X-1.74 Y-21.759
X-1.736 Y-21.79
X-1.67 Y-22.305
X-1.666 Y-22.338
X-1.618 Y-22.863
X-1.615 Y-22.897
X-1.586 Y-23.434
X-1.585 Y-23.467
X-1.575 Y-24.015
Y-24.047
X-1.585 Y-24.596
X-1.586 Y-24.629
X-1.615 Y-25.166
X-1.618 Y-25.199
X-1.666 Y-25.725
X-1.67 Y-25.757
X-1.736 Y-26.272
X-1.74 Y-26.304
X-1.823 Y-26.808
X-1.829 Y-26.837
X-1.927 Y-27.331
X-1.933 Y-27.358
X-2.045 Y-27.843
X-2.051 Y-27.867
X-2.174 Y-28.342
X-2.18 Y-28.363
X-2.313 Y-28.83
X-2.318 Y-28.847
X-2.458 Y-29.306
X-2.462 Y-29.318
X-2.608 Y-29.771
X-2.61 Y-29.778
X-2.758 Y-30.224
X-2.759 Y-30.227
X-2.905 Y-30.666
X-3.047 Y-31.096
X-3.181 Y-31.515
X-3.304 Y-31.925
X-3.414 Y-32.325
X-3.507 Y-32.715
X-3.581 Y-33.096
X-3.635 Y-33.467
X-3.665 Y-33.831
X-3.671 Y-34.187
X-3.651 Y-34.539
X-3.603 Y-34.887
X-3.524 Y-35.236
X-3.411 Y-35.589
X-3.261 Y-35.948
X-3.07 Y-36.315
X-2.835 Y-36.693
X-2.551 Y-37.081
X-2.216 Y-37.481
X-1.819 Y-37.899
G2 X-1.828 Y-46.234 I-4.181 J-4.163
X-10.164 Y-46.242 I-4.172 J4.172
G1 X-10.62 Y-45.808
X-11.051 Y-45.439
X-11.466 Y-45.127
X-11.863 Y-44.868
X-12.251 Y-44.655
X-12.427 Y-44.572
X-12.607 Y-44.496
X-12.784 Y-44.43
X-12.949 Y-44.377
X-13.299 Y-44.291
X-13.633 Y-44.239
X-13.964 Y-44.218
X-14.297 Y-44.224
X-14.635 Y-44.257
X-14.981 Y-44.313
X-15.334 Y-44.392
X-15.698 Y-44.491
X-16.073 Y-44.608
X-16.458 Y-44.741
X-16.856 Y-44.886
X-17.266 Y-45.039
X-17.688 Y-45.198
X-17.692 Y-45.2
X-18.122 Y-45.36
X-18.132 Y-45.364
X-18.572 Y-45.521
X-18.588 Y-45.526
X-19.038 Y-45.678
X-19.058 Y-45.685
X-19.52 Y-45.829
X-19.544 Y-45.836
X-20.019 Y-45.97
X-20.047 Y-45.977
X-20.536 Y-46.099
X-20.566 Y-46.106
X-21.071 Y-46.212
X-21.103 Y-46.218
X-21.624 Y-46.308
X-21.658 Y-46.313
X-22.195 Y-46.385
X-22.229 Y-46.389
X-22.784 Y-46.441
X-22.818 Y-46.444
X-23.391 Y-46.475
X-23.424 Y-46.477
X-24.015 Y-46.487
X-24.047
X-24.638 Y-46.477
X-24.672 Y-46.475
X-25.244 Y-46.444
X-25.279 Y-46.441
X-25.833 Y-46.389
X-25.868 Y-46.385
X-26.405 Y-46.313
X-26.439 Y-46.308
X-26.959 Y-46.218
X-26.992 Y-46.212
X-27.496 Y-46.106
X-27.527 Y-46.099
X-28.016 Y-45.977
X-28.043 Y-45.97
X-28.518 Y-45.836
X-28.542 Y-45.829
X-29.005 Y-45.685
X-29.025 Y-45.678
X-29.475 Y-45.526
X-29.49 Y-45.521
X-29.93 Y-45.364
X-29.94 Y-45.36
X-30.37 Y-45.2
X-30.375 Y-45.198
X-30.796 Y-45.039
X-31.206 Y-44.886
X-31.604 Y-44.741
X-31.99 Y-44.608
X-32.364 Y-44.491
X-32.728 Y-44.392
X-33.082 Y-44.313
X-33.427 Y-44.257
X-33.765 Y-44.224
X-34.098 Y-44.218
X-34.43 Y-44.239
X-34.764 Y-44.291
X-35.114 Y-44.377
X-35.278 Y-44.43
X-35.455 Y-44.496
X-35.635 Y-44.572
X-35.811 Y-44.654
X-36.199 Y-44.868
X-36.597 Y-45.127
X-37.011 Y-45.439
X-37.443 Y-45.808
X-37.898 Y-46.242
G2 X-46.234 Y-46.234 I-4.164 J4.18
X-46.243 Y-37.899 I4.172 J4.172
G1 X-45.847 Y-37.481
X-45.512 Y-37.081
X-45.228 Y-36.692
X-44.992 Y-36.315
X-44.801 Y-35.948
X-44.652 Y-35.589
X-44.539 Y-35.236
X-44.46 Y-34.887
X-44.411 Y-34.539
X-44.391 Y-34.187
X-44.397 Y-33.831
X-44.428 Y-33.467
X-44.481 Y-33.096
X-44.556 Y-32.715
X-44.649 Y-32.325
X-44.758 Y-31.925
X-44.881 Y-31.515
X-45.015 Y-31.096
X-45.157 Y-30.666
X-45.304 Y-30.227
X-45.305 Y-30.224
X-45.452 Y-29.778
X-45.455 Y-29.771
X-45.6 Y-29.318
X-45.604 Y-29.306
X-45.745 Y-28.847
X-45.749 Y-28.83
X-45.883 Y-28.363
X-45.888 Y-28.342
X-46.012 Y-27.867
X-46.018 Y-27.843
X-46.13 Y-27.358
X-46.135 Y-27.331
X-46.234 Y-26.837
X-46.239 Y-26.808
X-46.322 Y-26.304
X-46.327 Y-26.272
X-46.393 Y-25.757
X-46.396 Y-25.725
X-46.445 Y-25.199
X-46.447 Y-25.166
X-46.476 Y-24.629
X-46.477 Y-24.596
X-46.487 Y-24.047
Y-24.015
X-46.477 Y-23.467
X-46.476 Y-23.434
X-46.447 Y-22.897
X-46.445 Y-22.863
X-46.396 Y-22.338
X-46.393 Y-22.305
X-46.327 Y-21.79
X-46.322 Y-21.759
X-46.239 Y-21.255
X-46.234 Y-21.225
X-46.135 Y-20.731
X-46.13 Y-20.704
X-46.018 Y-20.219
X-46.012 Y-20.196
X-45.888 Y-19.72
X-45.883 Y-19.7
X-45.749 Y-19.232
X-45.745 Y-19.216
X-45.604 Y-18.756
X-45.6 Y-18.744
X-45.455 Y-18.292
X-45.452 Y-18.284
X-45.305 Y-17.838
X-45.304 Y-17.836
X-45.157 Y-17.397
X-45.015 Y-16.967
X-44.881 Y-16.547
X-44.758 Y-16.138
X-44.649 Y-15.738
X-44.556 Y-15.348
X-44.481 Y-14.967
X-44.428 Y-14.595
X-44.397 Y-14.232
X-44.391 Y-13.875
X-44.411 Y-13.524
X-44.46 Y-13.175
X-44.539 Y-12.826
X-44.652 Y-12.474
X-44.801 Y-12.115
X-44.992 Y-11.748
X-45.228 Y-11.37
X-45.512 Y-10.981
X-45.847 Y-10.582
X-46.243 Y-10.163
G2 X-46.234 Y-1.828 I4.181 J4.163
X-37.898 Y-1.82 I4.172 J-4.172
G1 X-37.443 Y-2.254
X-37.011 Y-2.623
X-36.597 Y-2.936
X-36.2 Y-3.195
X-35.811 Y-3.408
X-35.635 Y-3.491
X-35.455 Y-3.567
X-35.278 Y-3.632
X-35.114 Y-3.685
X-34.764 Y-3.772
X-34.43 Y-3.823
X-34.098 Y-3.844
X-33.765 Y-3.838
X-33.427 Y-3.806
X-33.082 Y-3.749
X-32.728 Y-3.67
X-32.364 Y-3.571
X-31.99 Y-3.454
X-31.604 Y-3.322
X-31.206 Y-3.177
X-30.796 Y-3.023
X-30.375 Y-2.864
X-30.37 Y-2.862
X-29.94 Y-2.702
X-29.93 Y-2.699
X-29.49 Y-2.541
X-29.475 Y-2.536
X-29.025 Y-2.384
X-29.005 Y-2.378
X-28.542 Y-2.233
X-28.518 Y-2.226
X-28.043 Y-2.092
X-28.016 Y-2.085
X-27.526 Y-1.964
X-27.496 Y-1.957
X-26.992 Y-1.85
X-26.959 Y-1.844
X-26.439 Y-1.754
X-26.405 Y-1.749
X-25.868 Y-1.677
X-25.833 Y-1.673
X-25.279 Y-1.621
X-25.244 Y-1.619
X-24.672 Y-1.587
X-24.638 Y-1.586
X-24.047 Y-1.575
X-24.031
S5000
X-24.015 Z-0.201 F333.3
X-23.424 Y-1.586 Z-0.221
X-23.391 Y-1.587 Z-0.222
X-22.818 Y-1.619 Z-0.242
X-22.784 Y-1.621 Z-0.244
X-22.229 Y-1.673 Z-0.263
X-22.195 Y-1.677 Z-0.264
X-21.658 Y-1.749 Z-0.283
X-21.624 Y-1.754 Z-0.284
X-21.103 Y-1.844 Z-0.303
X-21.071 Y-1.85 Z-0.304
X-20.566 Y-1.957 Z-0.322
X-20.536 Y-1.964 Z-0.323
X-20.047 Y-2.085 Z-0.341
X-20.019 Y-2.092 Z-0.342
X-19.544 Y-2.226 Z-0.359
X-19.52 Y-2.233 Z-0.36
X-19.058 Y-2.378 Z-0.377
X-19.038 Y-2.384
X-18.588 Y-2.536 Z-0.394
X-18.572 Y-2.541 Z-0.395
X-18.426 Y-2.594 Z-0.4
S4000
X-18.133 Y-2.699 F1000
X-18.122 Y-2.702
X-17.692 Y-2.862
X-17.688 Y-2.864
X-17.266 Y-3.023
X-16.856 Y-3.177
X-16.458 Y-3.322
X-16.073 Y-3.454
X-15.698 Y-3.571
X-15.334 Y-3.67
X-14.981 Y-3.749
X-14.635 Y-3.806
X-14.298 Y-3.838
X-13.964 Y-3.844
X-13.633 Y-3.823
X-13.299 Y-3.772
X-12.948 Y-3.685
X-12.784 Y-3.632
X-12.608 Y-3.567
X-12.427 Y-3.491
X-12.251 Y-3.408
X-11.863 Y-3.195
X-11.466 Y-2.936
X-11.051 Y-2.623
X-10.62 Y-2.254
X-10.164 Y-1.82
G2 X-1.828 Y-1.828 I4.164 J-4.18
X-1.819 Y-10.163 I-4.172 J-4.172
G1 X-2.216 Y-10.582
X-2.551 Y-10.981
X-2.835 Y-11.37
X-3.07 Y-11.748
X-3.261 Y-12.115
X-3.411 Y-12.474
X-3.524 Y-12.826
X-3.603 Y-13.175
X-3.651 Y-13.524
X-3.671 Y-13.875
X-3.665 Y-14.232
X-3.635 Y-14.595
X-3.581 Y-14.967
X-3.507 Y-15.348
X-3.414 Y-15.738
X-3.304 Y-16.138
X-3.181 Y-16.547
X-3.047 Y-16.967
X-2.905 Y-17.397
X-2.759 Y-17.836
X-2.758 Y-17.838
X-2.61 Y-18.284
X-2.608 Y-18.292
X-2.462 Y-18.744
X-2.458 Y-18.756
X-2.318 Y-19.216
X-2.313 Y-19.232
X-2.18 Y-19.7
X-2.174 Y-19.72
X-2.051 Y-20.196
X-2.045 Y-20.219
X-1.933 Y-20.704
X-1.927 Y-20.731
X-1.829 Y-21.225
X-1.823 Y-21.255
X-1.74 Y-21.759
X-1.736 Y-21.79
X-1.67 Y-22.305
X-1.666 Y-22.338
X-1.618 Y-22.863
X-1.615 Y-22.897
X-1.586 Y-23.434
X-1.585 Y-23.467
X-1.575 Y-24.015
Y-24.047
X-1.585 Y-24.596
X-1.586 Y-24.629
X-1.615 Y-25.166
X-1.618 Y-25.199
X-1.666 Y-25.725
X-1.67 Y-25.757
X-1.736 Y-26.272
X-1.74 Y-26.304
X-1.823 Y-26.808
X-1.829 Y-26.837
X-1.927 Y-27.331
X-1.933 Y-27.358
X-2.045 Y-27.843
X-2.051 Y-27.867
X-2.174 Y-28.342
X-2.18 Y-28.363
X-2.313 Y-28.83
X-2.318 Y-28.847
X-2.458 Y-29.306
X-2.462 Y-29.318
X-2.608 Y-29.771
X-2.61 Y-29.778
X-2.758 Y-30.224
X-2.759 Y-30.227
X-2.905 Y-30.666
X-3.047 Y-31.096
X-3.181 Y-31.515
X-3.304 Y-31.925
X-3.414 Y-32.325
X-3.507 Y-32.715
X-3.581 Y-33.096
X-3.635 Y-33.467
X-3.665 Y-33.831
X-3.671 Y-34.187
X-3.651 Y-34.539
X-3.603 Y-34.887
X-3.524 Y-35.236
X-3.411 Y-35.589
X-3.261 Y-35.948
X-3.07 Y-36.315
X-2.835 Y-36.693
X-2.551 Y-37.081
X-2.216 Y-37.481
X-1.819 Y-37.899
G2 X-1.828 Y-46.234 I-4.181 J-4.163
X-10.164 Y-46.242 I-4.172 J4.172
G1 X-10.62 Y-45.808
X-11.051 Y-45.439
X-11.466 Y-45.127
X-11.863 Y-44.868
X-12.251 Y-44.655
X-12.427 Y-44.572
X-12.607 Y-44.496
X-12.784 Y-44.43
X-12.949 Y-44.377
X-13.299 Y-44.291
X-13.633 Y-44.239
X-13.964 Y-44.218
X-14.297 Y-44.224
X-14.635 Y-44.257
X-14.981 Y-44.313
X-15.334 Y-44.392
X-15.698 Y-44.491
X-16.073 Y-44.608
X-16.458 Y-44.741
X-16.856 Y-44.886
X-17.266 Y-45.039
X-17.688 Y-45.198
X-17.692 Y-45.2
X-18.122 Y-45.36
X-18.132 Y-45.364
X-18.572 Y-45.521
X-18.588 Y-45.526
X-19.038 Y-45.678
X-19.058 Y-45.685
X-19.52 Y-45.829
X-19.544 Y-45.836
X-20.019 Y-45.97
X-20.047 Y-45.977
X-20.536 Y-46.099
X-20.566 Y-46.106
X-21.071 Y-46.212
X-21.103 Y-46.218
X-21.624 Y-46.308
X-21.658 Y-46.313
X-22.195 Y-46.385
X-22.229 Y-46.389
X-22.784 Y-46.441
X-22.818 Y-46.444
X-23.391 Y-46.475
X-23.424 Y-46.477
X-24.015 Y-46.487
X-24.047
X-24.638 Y-46.477
X-24.672 Y-46.475
X-25.244 Y-46.444
X-25.279 Y-46.441
X-25.833 Y-46.389
X-25.868 Y-46.385
X-26.405 Y-46.313
X-26.439 Y-46.308
X-26.959 Y-46.218
X-26.992 Y-46.212
X-27.496 Y-46.106
X-27.527 Y-46.099
X-28.016 Y-45.977
X-28.043 Y-45.97
X-28.518 Y-45.836
X-28.542 Y-45.829
X-29.005 Y-45.685
X-29.025 Y-45.678
X-29.475 Y-45.526
X-29.49 Y-45.521
X-29.93 Y-45.364
X-29.94 Y-45.36
X-30.37 Y-45.2
X-30.375 Y-45.198
X-30.796 Y-45.039
X-31.206 Y-44.886
X-31.604 Y-44.741
X-31.99 Y-44.608
X-32.364 Y-44.491
X-32.728 Y-44.392
X-33.082 Y-44.313
X-33.427 Y-44.257
X-33.765 Y-44.224
X-34.098 Y-44.218
X-34.43 Y-44.239
X-34.764 Y-44.291
X-35.114 Y-44.377
X-35.278 Y-44.43
X-35.455 Y-44.496
X-35.635 Y-44.572
X-35.811 Y-44.654
X-36.199 Y-44.868
X-36.597 Y-45.127
X-37.011 Y-45.439
X-37.443 Y-45.808
X-37.898 Y-46.242
G2 X-46.234 Y-46.234 I-4.164 J4.18
X-46.243 Y-37.899 I4.172 J4.172
G1 X-45.847 Y-37.481
X-45.512 Y-37.081
X-45.228 Y-36.692
X-44.992 Y-36.315
X-44.801 Y-35.948
X-44.652 Y-35.589
X-44.539 Y-35.236
X-44.46 Y-34.887
X-44.411 Y-34.539
X-44.391 Y-34.187
X-44.397 Y-33.831
X-44.428 Y-33.467
X-44.481 Y-33.096
X-44.556 Y-32.715
X-44.649 Y-32.325
X-44.758 Y-31.925
X-44.881 Y-31.515
X-45.015 Y-31.096
X-45.157 Y-30.666
X-45.304 Y-30.227
X-45.305 Y-30.224
X-45.452 Y-29.778
X-45.455 Y-29.771
X-45.6 Y-29.318
X-45.604 Y-29.306
X-45.745 Y-28.847
X-45.749 Y-28.83
X-45.883 Y-28.363
X-45.888 Y-28.342
X-46.012 Y-27.867
X-46.018 Y-27.843
X-46.13 Y-27.358
X-46.135 Y-27.331
X-46.234 Y-26.837
X-46.239 Y-26.808
X-46.322 Y-26.304
X-46.327 Y-26.272
X-46.393 Y-25.757
X-46.396 Y-25.725
X-46.445 Y-25.199
X-46.447 Y-25.166
X-46.476 Y-24.629
X-46.477 Y-24.596
X-46.487 Y-24.047
Y-24.015
X-46.477 Y-23.467
X-46.476 Y-23.434
X-46.447 Y-22.897
X-46.445 Y-22.863
X-46.396 Y-22.338
X-46.393 Y-22.305
X-46.327 Y-21.79
X-46.322 Y-21.759
X-46.239 Y-21.255
X-46.234 Y-21.225
X-46.135 Y-20.731
X-46.13 Y-20.704
X-46.018 Y-20.219
X-46.012 Y-20.196
X-45.888 Y-19.72
X-45.883 Y-19.7
X-45.749 Y-19.232
X-45.745 Y-19.216
X-45.604 Y-18.756
X-45.6 Y-18.744
X-45.455 Y-18.292
X-45.452 Y-18.284
X-45.305 Y-17.838
X-45.304 Y-17.836
X-45.157 Y-17.397
X-45.015 Y-16.967
X-44.881 Y-16.547
X-44.758 Y-16.138
X-44.649 Y-15.738
X-44.556 Y-15.348
X-44.481 Y-14.967
X-44.428 Y-14.595
X-44.397 Y-14.232
X-44.391 Y-13.875
X-44.411 Y-13.524
X-44.46 Y-13.175
X-44.539 Y-12.826
X-44.652 Y-12.474
X-44.801 Y-12.115
X-44.992 Y-11.748
X-45.228 Y-11.37
X-45.512 Y-10.981
X-45.847 Y-10.582
X-46.243 Y-10.163
G2 X-46.234 Y-1.828 I4.181 J4.163
X-37.898 Y-1.82 I4.172 J-4.172
G1 X-37.443 Y-2.254
X-37.011 Y-2.623
X-36.597 Y-2.936
X-36.2 Y-3.195
X-35.811 Y-3.408
X-35.635 Y-3.491
X-35.455 Y-3.567
X-35.278 Y-3.632
X-35.114 Y-3.685
X-34.764 Y-3.772
X-34.43 Y-3.823
X-34.098 Y-3.844
X-33.765 Y-3.838
X-33.427 Y-3.806
X-33.082 Y-3.749
X-32.728 Y-3.67
X-32.364 Y-3.571
X-31.99 Y-3.454
X-31.604 Y-3.322
X-31.206 Y-3.177
X-30.796 Y-3.023
X-30.375 Y-2.864
X-30.37 Y-2.862
X-29.94 Y-2.702
X-29.93 Y-2.699
X-29.49 Y-2.541
X-29.475 Y-2.536
X-29.025 Y-2.384
X-29.005 Y-2.378
X-28.542 Y-2.233
X-28.518 Y-2.226
X-28.043 Y-2.092
X-28.016 Y-2.085
X-27.526 Y-1.964
X-27.496 Y-1.957
X-26.992 Y-1.85
X-26.959 Y-1.844
X-26.439 Y-1.754
X-26.405 Y-1.749
X-25.868 Y-1.677
X-25.833 Y-1.673
X-25.279 Y-1.621
X-25.244 Y-1.619
X-24.672 Y-1.587
X-24.638 Y-1.586
X-24.047 Y-1.575
X-24.015
X-23.424 Y-1.586
X-23.391 Y-1.587
X-22.818 Y-1.619
X-22.784 Y-1.621
X-22.229 Y-1.673
X-22.195 Y-1.677
X-21.658 Y-1.749
X-21.624 Y-1.754
X-21.103 Y-1.844
X-21.071 Y-1.85
X-20.566 Y-1.957
X-20.536 Y-1.964
X-20.047 Y-2.085
X-20.019 Y-2.092
X-19.544 Y-2.226
X-19.52 Y-2.233
X-19.058 Y-2.378
X-19.038 Y-2.384
X-18.588 Y-2.536
X-18.572 Y-2.541
X-18.426 Y-2.594
S5000
X-18.133 Y-2.699 Z-0.411 F333.3
X-18.122 Y-2.702
X-17.692 Y-2.862 Z-0.427
X-17.688 Y-2.864
X-17.266 Y-3.023 Z-0.443
X-16.856 Y-3.177 Z-0.458
X-16.458 Y-3.322 Z-0.473
X-16.073 Y-3.454 Z-0.488
X-15.698 Y-3.571 Z-0.501
X-15.334 Y-3.67 Z-0.514
X-14.981 Y-3.749 Z-0.527
X-14.635 Y-3.806 Z-0.539
X-14.298 Y-3.838 Z-0.551
X-13.964 Y-3.844 Z-0.563
X-13.633 Y-3.823 Z-0.574
X-13.299 Y-3.772 Z-0.586
X-12.948 Y-3.685 Z-0.599
X-12.914 Y-3.674 Z-0.6
S4000
X-12.784 Y-3.632 F1000
X-12.608 Y-3.567
X-12.427 Y-3.491
X-12.251 Y-3.408
X-11.863 Y-3.195
X-11.466 Y-2.936
X-11.051 Y-2.623
X-10.62 Y-2.254
X-10.164 Y-1.82
G2 X-1.828 Y-1.828 I4.164 J-4.18
X-1.819 Y-10.163 I-4.172 J-4.172
G1 X-2.216 Y-10.582
X-2.551 Y-10.981
X-2.835 Y-11.37
X-3.07 Y-11.748
X-3.261 Y-12.115
X-3.411 Y-12.474
X-3.524 Y-12.826
X-3.603 Y-13.175
X-3.651 Y-13.524
X-3.671 Y-13.875
X-3.665 Y-14.232
X-3.635 Y-14.595
X-3.581 Y-14.967
X-3.507 Y-15.348
X-3.414 Y-15.738
X-3.304 Y-16.138
X-3.181 Y-16.547
X-3.047 Y-16.967
X-2.905 Y-17.397
X-2.759 Y-17.836
X-2.758 Y-17.838
X-2.61 Y-18.284
X-2.608 Y-18.292
X-2.462 Y-18.744
X-2.458 Y-18.756
X-2.318 Y-19.216
X-2.313 Y-19.232
X-2.18 Y-19.7
X-2.174 Y-19.72
X-2.051 Y-20.196
X-2.045 Y-20.219
X-1.933 Y-20.704
X-1.927 Y-20.731
X-1.829 Y-21.225
X-1.823 Y-21.255
X-1.74 Y-21.759
X-1.736 Y-21.79
X-1.67 Y-22.305
X-1.666 Y-22.338
X-1.618 Y-22.863
X-1.615 Y-22.897
X-1.586 Y-23.434
X-1.585 Y-23.467
X-1.575 Y-24.015
Y-24.047
X-1.585 Y-24.596
X-1.586 Y-24.629
X-1.615 Y-25.166
X-1.618 Y-25.199
X-1.666 Y-25.725
X-1.67 Y-25.757
X-1.736 Y-26.272
X-1.74 Y-26.304
X-1.823 Y-26.808
X-1.829 Y-26.837
X-1.927 Y-27.331
X-1.933 Y-27.358
X-2.045 Y-27.843
X-2.051 Y-27.867
X-2.174 Y-28.342
X-2.18 Y-28.363
X-2.313 Y-28.83
X-2.318 Y-28.847
X-2.458 Y-29.306
X-2.462 Y-29.318
X-2.608 Y-29.771
X-2.61 Y-29.778
X-2.758 Y-30.224
X-2.759 Y-30.227
X-2.905 Y-30.666
X-3.047 Y-31.096
X-3.181 Y-31.515
X-3.304 Y-31.925
X-3.414 Y-32.325
X-3.507 Y-32.715
X-3.581 Y-33.096
X-3.635 Y-33.467
X-3.665 Y-33.831
X-3.671 Y-34.187
X-3.651 Y-34.539
X-3.603 Y-34.887
X-3.524 Y-35.236
X-3.411 Y-35.589
X-3.261 Y-35.948
X-3.07 Y-36.315
X-2.835 Y-36.693
X-2.551 Y-37.081
X-2.216 Y-37.481
X-1.819 Y-37.899
G2 X-1.828 Y-46.234 I-4.181 J-4.163
X-10.164 Y-46.242 I-4.172 J4.172
G1 X-10.62 Y-45.808
X-11.051 Y-45.439
X-11.466 Y-45.127
X-11.863 Y-44.868
X-12.251 Y-44.655
X-12.427 Y-44.572
X-12.607 Y-44.496
X-12.784 Y-44.43
X-12.949 Y-44.377
X-13.299 Y-44.291
X-13.633 Y-44.239
X-13.964 Y-44.218
X-14.297 Y-44.224
X-14.635 Y-44.257
X-14.981 Y-44.313
X-15.334 Y-44.392
X-15.698 Y-44.491
X-16.073 Y-44.608
X-16.458 Y-44.741
X-16.856 Y-44.886
X-17.266 Y-45.039
X-17.688 Y-45.198
X-17.692 Y-45.2
X-18.122 Y-45.36
X-18.132 Y-45.364
X-18.572 Y-45.521
X-18.588 Y-45.526
X-19.038 Y-45.678
X-19.058 Y-45.685
X-19.52 Y-45.829
X-19.544 Y-45.836
X-20.019 Y-45.97
X-20.047 Y-45.977
X-20.536 Y-46.099
X-20.566 Y-46.106
X-21.071 Y-46.212
X-21.103 Y-46.218
X-21.624 Y-46.308
X-21.658 Y-46.313
X-22.195 Y-46.385
X-22.229 Y-46.389
X-22.784 Y-46.441
X-22.818 Y-46.444
X-23.391 Y-46.475
X-23.424 Y-46.477
X-24.015 Y-46.487
X-24.047
X-24.638 Y-46.477
X-24.672 Y-46.475
X-25.244 Y-46.444
X-25.279 Y-46.441
X-25.833 Y-46.389
X-25.868 Y-46.385
X-26.405 Y-46.313
X-26.439 Y-46.308
X-26.959 Y-46.218
X-26.992 Y-46.212
X-27.496 Y-46.106
X-27.527 Y-46.099
X-28.016 Y-45.977
X-28.043 Y-45.97
X-28.518 Y-45.836
X-28.542 Y-45.829
X-29.005 Y-45.685
X-29.025 Y-45.678
X-29.475 Y-45.526
X-29.49 Y-45.521
X-29.93 Y-45.364
X-29.94 Y-45.36
X-30.37 Y-45.2
X-30.375 Y-45.198
X-30.796 Y-45.039
X-31.206 Y-44.886
X-31.604 Y-44.741
X-31.99 Y-44.608
X-32.364 Y-44.491
X-32.728 Y-44.392
X-33.082 Y-44.313
X-33.427 Y-44.257
X-33.765 Y-44.224
X-34.098 Y-44.218
X-34.43 Y-44.239
X-34.764 Y-44.291
X-35.114 Y-44.377
X-35.278 Y-44.43
X-35.455 Y-44.496
X-35.635 Y-44.572
X-35.811 Y-44.654
X-36.199 Y-44.868
X-36.597 Y-45.127
X-37.011 Y-45.439
X-37.443 Y-45.808
X-37.898 Y-46.242
G2 X-46.234 Y-46.234 I-4.164 J4.18
X-46.243 Y-37.899 I4.172 J4.172
G1 X-45.847 Y-37.481
X-45.512 Y-37.081
X-45.228 Y-36.692
X-44.992 Y-36.315
X-44.801 Y-35.948
X-44.652 Y-35.589
X-44.539 Y-35.236
X-44.46 Y-34.887
X-44.411 Y-34.539
X-44.391 Y-34.187
X-44.397 Y-33.831
X-44.428 Y-33.467
X-44.481 Y-33.096
X-44.556 Y-32.715
X-44.649 Y-32.325
X-44.758 Y-31.925
X-44.881 Y-31.515
X-45.015 Y-31.096
X-45.157 Y-30.666
X-45.304 Y-30.227
X-45.305 Y-30.224
X-45.452 Y-29.778
X-45.455 Y-29.771
X-45.6 Y-29.318
X-45.604 Y-29.306
X-45.745 Y-28.847
X-45.749 Y-28.83
X-45.883 Y-28.363
X-45.888 Y-28.342
X-46.012 Y-27.867
X-46.018 Y-27.843
X-46.13 Y-27.358
X-46.135 Y-27.331
X-46.234 Y-26.837
X-46.239 Y-26.808
X-46.322 Y-26.304
X-46.327 Y-26.272
X-46.393 Y-25.757
X-46.396 Y-25.725
X-46.445 Y-25.199
X-46.447 Y-25.166
X-46.476 Y-24.629
X-46.477 Y-24.596
X-46.487 Y-24.047
Y-24.015
X-46.477 Y-23.467
X-46.476 Y-23.434
X-46.447 Y-22.897
X-46.445 Y-22.863
X-46.396 Y-22.338
X-46.393 Y-22.305
X-46.327 Y-21.79
X-46.322 Y-21.759
X-46.239 Y-21.255
X-46.234 Y-21.225
X-46.135 Y-20.731
X-46.13 Y-20.704
X-46.018 Y-20.219
X-46.012 Y-20.196
X-45.888 Y-19.72
X-45.883 Y-19.7
X-45.749 Y-19.232
X-45.745 Y-19.216
X-45.604 Y-18.756
X-45.6 Y-18.744
X-45.455 Y-18.292
X-45.452 Y-18.284
X-45.305 Y-17.838
X-45.304 Y-17.836
X-45.157 Y-17.397
X-45.015 Y-16.967
X-44.881 Y-16.547
X-44.758 Y-16.138
X-44.649 Y-15.738
X-44.556 Y-15.348
X-44.481 Y-14.967
X-44.428 Y-14.595
X-44.397 Y-14.232
X-44.391 Y-13.875
X-44.411 Y-13.524
X-44.46 Y-13.175
X-44.539 Y-12.826
X-44.652 Y-12.474
X-44.801 Y-12.115
X-44.992 Y-11.748
X-45.228 Y-11.37
X-45.512 Y-10.981
X-45.847 Y-10.582
X-46.243 Y-10.163
G2 X-46.234 Y-1.828 I4.181 J4.163
X-37.898 Y-1.82 I4.172 J-4.172
G1 X-37.443 Y-2.254
X-37.011 Y-2.623
X-36.597 Y-2.936
X-36.2 Y-3.195
X-35.811 Y-3.408
X-35.635 Y-3.491
X-35.455 Y-3.567
X-35.278 Y-3.632
X-35.114 Y-3.685
X-34.764 Y-3.772
X-34.43 Y-3.823
X-34.098 Y-3.844
X-33.765 Y-3.838
X-33.427 Y-3.806
X-33.082 Y-3.749
X-32.728 Y-3.67
X-32.364 Y-3.571
X-31.99 Y-3.454
X-31.604 Y-3.322
X-31.206 Y-3.177
X-30.796 Y-3.023
X-30.375 Y-2.864
X-30.37 Y-2.862
X-29.94 Y-2.702
X-29.93 Y-2.699
X-29.49 Y-2.541
X-29.475 Y-2.536
X-29.025 Y-2.384
X-29.005 Y-2.378
X-28.542 Y-2.233
X-28.518 Y-2.226
X-28.043 Y-2.092
X-28.016 Y-2.085
X-27.526 Y-1.964
X-27.496 Y-1.957
X-26.992 Y-1.85
X-26.959 Y-1.844
X-26.439 Y-1.754
X-26.405 Y-1.749
X-25.868 Y-1.677
X-25.833 Y-1.673
X-25.279 Y-1.621
X-25.244 Y-1.619
X-24.672 Y-1.587
X-24.638 Y-1.586
X-24.047 Y-1.575
X-24.015
X-23.424 Y-1.586
X-23.391 Y-1.587
X-22.818 Y-1.619
X-22.784 Y-1.621
X-22.229 Y-1.673
X-22.195 Y-1.677
X-21.658 Y-1.749
X-21.624 Y-1.754
X-21.103 Y-1.844
X-21.071 Y-1.85
X-20.566 Y-1.957
X-20.536 Y-1.964
X-20.047 Y-2.085
X-20.019 Y-2.092
X-19.544 Y-2.226
X-19.52 Y-2.233
X-19.058 Y-2.378
X-19.038 Y-2.384
X-18.588 Y-2.536
X-18.572 Y-2.541
X-18.133 Y-2.699
X-18.122 Y-2.702
X-17.692 Y-2.862
X-17.688 Y-2.864
X-17.266 Y-3.023
X-16.856 Y-3.177
X-16.458 Y-3.322
X-16.073 Y-3.454
X-15.698 Y-3.571
X-15.334 Y-3.67
X-14.981 Y-3.749
X-14.635 Y-3.806
X-14.298 Y-3.838
X-13.964 Y-3.844
X-13.633 Y-3.823
X-13.299 Y-3.772
X-12.948 Y-3.685
X-12.914 Y-3.674
S5000
X-12.784 Y-3.632 Z-0.605 F333.3
X-12.608 Y-3.567 Z-0.611
X-12.427 Y-3.491 Z-0.618
X-12.251 Y-3.408 Z-0.625
X-11.863 Y-3.195 Z-0.64
X-11.466 Y-2.936 Z-0.657
X-11.051 Y-2.623 Z-0.675
X-10.62 Y-2.254 Z-0.695
X-10.164 Y-1.82 Z-0.717
G2 X-8.191 Y-0.522 Z-0.8 I4.164 J-4.18
S4000
X-1.828 Y-1.828 I2.191 J-5.478 F1000
X-1.819 Y-10.163 I-4.172 J-4.172
G1 X-2.216 Y-10.582
X-2.551 Y-10.981
X-2.835 Y-11.37
X-3.07 Y-11.748
X-3.261 Y-12.115
X-3.411 Y-12.474
X-3.524 Y-12.826
X-3.603 Y-13.175
X-3.651 Y-13.524
X-3.671 Y-13.875
X-3.665 Y-14.232
X-3.635 Y-14.595
X-3.581 Y-14.967
X-3.507 Y-15.348
X-3.414 Y-15.738
X-3.304 Y-16.138
X-3.181 Y-16.547
X-3.047 Y-16.967
X-2.905 Y-17.397
X-2.759 Y-17.836
X-2.758 Y-17.838
X-2.61 Y-18.284
X-2.608 Y-18.292
X-2.462 Y-18.744
X-2.458 Y-18.756
X-2.318 Y-19.216
X-2.313 Y-19.232
X-2.18 Y-19.7
X-2.174 Y-19.72
X-2.051 Y-20.196
X-2.045 Y-20.219
X-1.933 Y-20.704
X-1.927 Y-20.731
X-1.829 Y-21.225
X-1.823 Y-21.255
X-1.74 Y-21.759
X-1.736 Y-21.79
X-1.67 Y-22.305
X-1.666 Y-22.338
X-1.618 Y-22.863
X-1.615 Y-22.897
X-1.586 Y-23.434
X-1.585 Y-23.467
X-1.575 Y-24.015
Y-24.047
X-1.585 Y-24.596
X-1.586 Y-24.629
X-1.615 Y-25.166
X-1.618 Y-25.199
X-1.666 Y-25.725
X-1.67 Y-25.757
X-1.736 Y-26.272
X-1.74 Y-26.304
X-1.823 Y-26.808
X-1.829 Y-26.837
X-1.927 Y-27.331
X-1.933 Y-27.358
X-2.045 Y-27.843
X-2.051 Y-27.867
X-2.174 Y-28.342
X-2.18 Y-28.363
X-2.313 Y-28.83
X-2.318 Y-28.847
X-2.458 Y-29.306
X-2.462 Y-29.318
X-2.608 Y-29.771
X-2.61 Y-29.778
X-2.758 Y-30.224
X-2.759 Y-30.227
X-2.905 Y-30.666
X-3.047 Y-31.096
X-3.181 Y-31.515
X-3.304 Y-31.925
X-3.414 Y-32.325
X-3.507 Y-32.715
X-3.581 Y-33.096
X-3.635 Y-33.467
X-3.665 Y-33.831
X-3.671 Y-34.187
X-3.651 Y-34.539
X-3.603 Y-34.887
X-3.524 Y-35.236
X-3.411 Y-35.589
X-3.261 Y-35.948
X-3.07 Y-36.315
X-2.835 Y-36.693
X-2.551 Y-37.081
X-2.216 Y-37.481
X-1.819 Y-37.899
G2 X-1.828 Y-46.234 I-4.181 J-4.163
X-10.164 Y-46.242 I-4.172 J4.172
G1 X-10.62 Y-45.808
X-11.051 Y-45.439
X-11.466 Y-45.127
X-11.863 Y-44.868
X-12.251 Y-44.655
X-12.427 Y-44.572
X-12.607 Y-44.496
X-12.784 Y-44.43
X-12.949 Y-44.377
X-13.299 Y-44.291
X-13.633 Y-44.239
X-13.964 Y-44.218
X-14.297 Y-44.224
X-14.635 Y-44.257
X-14.981 Y-44.313
X-15.334 Y-44.392
X-15.698 Y-44.491
X-16.073 Y-44.608
X-16.458 Y-44.741
X-16.856 Y-44.886
X-17.266 Y-45.039
X-17.688 Y-45.198
X-17.692 Y-45.2
X-18.122 Y-45.36
X-18.132 Y-45.364
X-18.572 Y-45.521
X-18.588 Y-45.526
X-19.038 Y-45.678
X-19.058 Y-45.685
X-19.52 Y-45.829
X-19.544 Y-45.836
X-20.019 Y-45.97
X-20.047 Y-45.977
X-20.536 Y-46.099
X-20.566 Y-46.106
X-21.071 Y-46.212
X-21.103 Y-46.218
X-21.624 Y-46.308
X-21.658 Y-46.313
X-22.195 Y-46.385
X-22.229 Y-46.389
X-22.784 Y-46.441
X-22.818 Y-46.444
X-23.391 Y-46.475
X-23.424 Y-46.477
X-24.015 Y-46.487
X-24.047
X-24.638 Y-46.477
X-24.672 Y-46.475
X-25.244 Y-46.444
X-25.279 Y-46.441
X-25.833 Y-46.389
X-25.868 Y-46.385
X-26.405 Y-46.313
X-26.439 Y-46.308
X-26.959 Y-46.218
X-26.992 Y-46.212
X-27.496 Y-46.106
X-27.527 Y-46.099
X-28.016 Y-45.977
X-28.043 Y-45.97
X-28.518 Y-45.836
X-28.542 Y-45.829
X-29.005 Y-45.685
X-29.025 Y-45.678
X-29.475 Y-45.526
X-29.49 Y-45.521
X-29.93 Y-45.364
X-29.94 Y-45.36
X-30.37 Y-45.2
X-30.375 Y-45.198
X-30.796 Y-45.039
X-31.206 Y-44.886
X-31.604 Y-44.741
X-31.99 Y-44.608
X-32.364 Y-44.491
X-32.728 Y-44.392
X-33.082 Y-44.313
X-33.427 Y-44.257
X-33.765 Y-44.224
X-34.098 Y-44.218
X-34.43 Y-44.239
X-34.764 Y-44.291
X-35.114 Y-44.377
X-35.278 Y-44.43
X-35.455 Y-44.496
X-35.635 Y-44.572
X-35.811 Y-44.654
X-36.199 Y-44.868
X-36.597 Y-45.127
X-37.011 Y-45.439
X-37.443 Y-45.808
X-37.898 Y-46.242
G2 X-46.234 Y-46.234 I-4.164 J4.18
X-46.243 Y-37.899 I4.172 J4.172
G1 X-45.847 Y-37.481
X-45.512 Y-37.081
X-45.228 Y-36.692
X-44.992 Y-36.315
X-44.801 Y-35.948
X-44.652 Y-35.589
X-44.539 Y-35.236
X-44.46 Y-34.887
X-44.411 Y-34.539
X-44.391 Y-34.187
X-44.397 Y-33.831
X-44.428 Y-33.467
X-44.481 Y-33.096
X-44.556 Y-32.715
X-44.649 Y-32.325
X-44.758 Y-31.925
X-44.881 Y-31.515
X-45.015 Y-31.096
X-45.157 Y-30.666
X-45.304 Y-30.227
X-45.305 Y-30.224
X-45.452 Y-29.778
X-45.455 Y-29.771
X-45.6 Y-29.318
X-45.604 Y-29.306
X-45.745 Y-28.847
X-45.749 Y-28.83
X-45.883 Y-28.363
X-45.888 Y-28.342
X-46.012 Y-27.867
X-46.018 Y-27.843
X-46.13 Y-27.358
X-46.135 Y-27.331
X-46.234 Y-26.837
X-46.239 Y-26.808
X-46.322 Y-26.304
X-46.327 Y-26.272
X-46.393 Y-25.757
X-46.396 Y-25.725
X-46.445 Y-25.199
X-46.447 Y-25.166
X-46.476 Y-24.629
X-46.477 Y-24.596
X-46.487 Y-24.047
Y-24.015
X-46.477 Y-23.467
X-46.476 Y-23.434
X-46.447 Y-22.897
X-46.445 Y-22.863
X-46.396 Y-22.338
X-46.393 Y-22.305
X-46.327 Y-21.79
X-46.322 Y-21.759
X-46.239 Y-21.255
X-46.234 Y-21.225
X-46.135 Y-20.731
X-46.13 Y-20.704
X-46.018 Y-20.219
X-46.012 Y-20.196
X-45.888 Y-19.72
X-45.883 Y-19.7
X-45.749 Y-19.232
X-45.745 Y-19.216
X-45.604 Y-18.756
X-45.6 Y-18.744
X-45.455 Y-18.292
X-45.452 Y-18.284
X-45.305 Y-17.838
X-45.304 Y-17.836
X-45.157 Y-17.397
X-45.015 Y-16.967
X-44.881 Y-16.547
X-44.758 Y-16.138
X-44.649 Y-15.738
X-44.556 Y-15.348
X-44.481 Y-14.967
X-44.428 Y-14.595
X-44.397 Y-14.232
X-44.391 Y-13.875
X-44.411 Y-13.524
X-44.46 Y-13.175
X-44.539 Y-12.826
X-44.652 Y-12.474
X-44.801 Y-12.115
X-44.992 Y-11.748
X-45.228 Y-11.37
X-45.512 Y-10.981
X-45.847 Y-10.582
X-46.243 Y-10.163
G2 X-46.234 Y-1.828 I4.181 J4.163
X-37.898 Y-1.82 I4.172 J-4.172
G1 X-37.443 Y-2.254
X-37.011 Y-2.623
X-36.597 Y-2.936
X-36.2 Y-3.195
X-35.811 Y-3.408
X-35.635 Y-3.491
X-35.455 Y-3.567
X-35.278 Y-3.632
X-35.114 Y-3.685
X-34.764 Y-3.772
X-34.43 Y-3.823
X-34.098 Y-3.844
X-33.765 Y-3.838
X-33.427 Y-3.806
X-33.082 Y-3.749
X-32.728 Y-3.67
X-32.364 Y-3.571
X-31.99 Y-3.454
X-31.604 Y-3.322
X-31.206 Y-3.177
X-30.796 Y-3.023
X-30.375 Y-2.864
X-30.37 Y-2.862
X-29.94 Y-2.702
X-29.93 Y-2.699
X-29.49 Y-2.541
X-29.475 Y-2.536
X-29.025 Y-2.384
X-29.005 Y-2.378
X-28.542 Y-2.233
X-28.518 Y-2.226
X-28.043 Y-2.092
X-28.016 Y-2.085
X-27.526 Y-1.964
X-27.496 Y-1.957
X-26.992 Y-1.85
X-26.959 Y-1.844
X-26.439 Y-1.754
X-26.405 Y-1.749
X-25.868 Y-1.677
X-25.833 Y-1.673
X-25.279 Y-1.621
X-25.244 Y-1.619
X-24.672 Y-1.587
X-24.638 Y-1.586
X-24.047 Y-1.575
X-24.015
X-23.424 Y-1.586
X-23.391 Y-1.587
X-22.818 Y-1.619
X-22.784 Y-1.621
X-22.229 Y-1.673
X-22.195 Y-1.677
X-21.658 Y-1.749
X-21.624 Y-1.754
X-21.103 Y-1.844
X-21.071 Y-1.85
X-20.566 Y-1.957
X-20.536 Y-1.964
X-20.047 Y-2.085
X-20.019 Y-2.092
X-19.544 Y-2.226
X-19.52 Y-2.233
X-19.058 Y-2.378
X-19.038 Y-2.384
X-18.588 Y-2.536
X-18.572 Y-2.541
X-18.133 Y-2.699
X-18.122 Y-2.702
X-17.692 Y-2.862
X-17.688 Y-2.864
X-17.266 Y-3.023
X-16.856 Y-3.177
X-16.458 Y-3.322
X-16.073 Y-3.454
X-15.698 Y-3.571
X-15.334 Y-3.67
X-14.981 Y-3.749
X-14.635 Y-3.806
X-14.298 Y-3.838
X-13.964 Y-3.844
X-13.633 Y-3.823
X-13.299 Y-3.772
X-12.948 Y-3.685
X-12.784 Y-3.632
X-12.608 Y-3.567
X-12.427 Y-3.491
X-12.251 Y-3.408
X-11.863 Y-3.195
X-11.466 Y-2.936
X-11.051 Y-2.623
X-10.62 Y-2.254
X-10.164 Y-1.82
G2 X-8.191 Y-0.522 I4.164 J-4.18
S5000
X-2.716 Y-1.099 Z-1 I2.191 J-5.478 F333.3
S4000
X-1.828 Y-1.828 I-3.284 J-4.901 F1000
X-1.819 Y-10.163 I-4.172 J-4.172
G1 X-2.216 Y-10.582
X-2.551 Y-10.981
X-2.835 Y-11.37
X-3.07 Y-11.748
X-3.261 Y-12.115
X-3.411 Y-12.474
X-3.524 Y-12.826
X-3.603 Y-13.175
X-3.651 Y-13.524
X-3.671 Y-13.875
X-3.665 Y-14.232
X-3.635 Y-14.595
X-3.581 Y-14.967
X-3.507 Y-15.348
X-3.414 Y-15.738
X-3.304 Y-16.138
X-3.181 Y-16.547
X-3.047 Y-16.967
X-2.905 Y-17.397
X-2.759 Y-17.836
X-2.758 Y-17.838
X-2.61 Y-18.284
X-2.608 Y-18.292
X-2.462 Y-18.744
X-2.458 Y-18.756
X-2.318 Y-19.216
X-2.313 Y-19.232
X-2.18 Y-19.7
X-2.174 Y-19.72
X-2.051 Y-20.196
X-2.045 Y-20.219
X-1.933 Y-20.704
X-1.927 Y-20.731
X-1.829 Y-21.225
X-1.823 Y-21.255
X-1.74 Y-21.759
X-1.736 Y-21.79
X-1.67 Y-22.305
X-1.666 Y-22.338
X-1.618 Y-22.863
X-1.615 Y-22.897
X-1.586 Y-23.434
X-1.585 Y-23.467
X-1.575 Y-24.015
Y-24.047
X-1.585 Y-24.596
X-1.586 Y-24.629
X-1.615 Y-25.166
X-1.618 Y-25.199
X-1.666 Y-25.725
X-1.67 Y-25.757
X-1.736 Y-26.272
X-1.74 Y-26.304
X-1.823 Y-26.808
X-1.829 Y-26.837
X-1.927 Y-27.331
X-1.933 Y-27.358
X-2.045 Y-27.843
X-2.051 Y-27.867
X-2.174 Y-28.342
X-2.18 Y-28.363
X-2.313 Y-28.83
X-2.318 Y-28.847
X-2.458 Y-29.306
X-2.462 Y-29.318
X-2.608 Y-29.771
X-2.61 Y-29.778
X-2.758 Y-30.224
X-2.759 Y-30.227
X-2.905 Y-30.666
X-3.047 Y-31.096
X-3.181 Y-31.515
X-3.304 Y-31.925
X-3.414 Y-32.325
X-3.507 Y-32.715
X-3.581 Y-33.096
X-3.635 Y-33.467
X-3.665 Y-33.831
X-3.671 Y-34.187
X-3.651 Y-34.539
X-3.603 Y-34.887
X-3.524 Y-35.236
X-3.411 Y-35.589
X-3.261 Y-35.948
X-3.07 Y-36.315
X-2.835 Y-36.693
X-2.551 Y-37.081
X-2.216 Y-37.481
X-1.819 Y-37.899
G2 X-1.828 Y-46.234 I-4.181 J-4.163
X-10.164 Y-46.242 I-4.172 J4.172
G1 X-10.62 Y-45.808
X-11.051 Y-45.439
X-11.466 Y-45.127
X-11.863 Y-44.868
X-12.251 Y-44.655
X-12.427 Y-44.572
X-12.607 Y-44.496
X-12.784 Y-44.43
X-12.949 Y-44.377
X-13.299 Y-44.291
X-13.633 Y-44.239
X-13.964 Y-44.218
X-14.297 Y-44.224
X-14.635 Y-44.257
X-14.981 Y-44.313
X-15.334 Y-44.392
X-15.698 Y-44.491
X-16.073 Y-44.608
X-16.458 Y-44.741
X-16.856 Y-44.886
X-17.266 Y-45.039
X-17.688 Y-45.198
X-17.692 Y-45.2
X-18.122 Y-45.36
X-18.132 Y-45.364
X-18.572 Y-45.521
X-18.588 Y-45.526
X-19.038 Y-45.678
X-19.058 Y-45.685
X-19.52 Y-45.829
X-19.544 Y-45.836
X-20.019 Y-45.97
X-20.047 Y-45.977
X-20.536 Y-46.099
X-20.566 Y-46.106
X-21.071 Y-46.212
X-21.103 Y-46.218
X-21.624 Y-46.308
X-21.658 Y-46.313
X-22.195 Y-46.385
X-22.229 Y-46.389
X-22.784 Y-46.441
X-22.818 Y-46.444
X-23.391 Y-46.475
X-23.424 Y-46.477
X-24.015 Y-46.487
X-24.047
X-24.638 Y-46.477
X-24.672 Y-46.475
X-25.244 Y-46.444
X-25.279 Y-46.441
X-25.833 Y-46.389
X-25.868 Y-46.385
X-26.405 Y-46.313
X-26.439 Y-46.308
X-26.959 Y-46.218
X-26.992 Y-46.212
X-27.496 Y-46.106
X-27.527 Y-46.099
X-28.016 Y-45.977
X-28.043 Y-45.97
X-28.518 Y-45.836
X-28.542 Y-45.829
X-29.005 Y-45.685
X-29.025 Y-45.678
X-29.475 Y-45.526
X-29.49 Y-45.521
X-29.93 Y-45.364
X-29.94 Y-45.36
X-30.37 Y-45.2
X-30.375 Y-45.198
X-30.796 Y-45.039
X-31.206 Y-44.886
X-31.604 Y-44.741
X-31.99 Y-44.608
X-32.364 Y-44.491
X-32.728 Y-44.392
X-33.082 Y-44.313
X-33.427 Y-44.257
X-33.765 Y-44.224
X-34.098 Y-44.218
X-34.43 Y-44.239
X-34.764 Y-44.291
X-35.114 Y-44.377
X-35.278 Y-44.43
X-35.455 Y-44.496
X-35.635 Y-44.572
X-35.811 Y-44.654
X-36.199 Y-44.868
X-36.597 Y-45.127
X-37.011 Y-45.439
X-37.443 Y-45.808
X-37.898 Y-46.242
G2 X-46.234 Y-46.234 I-4.164 J4.18
X-46.243 Y-37.899 I4.172 J4.172
G1 X-45.847 Y-37.481
X-45.512 Y-37.081
X-45.228 Y-36.692
X-44.992 Y-36.315
X-44.801 Y-35.948
X-44.652 Y-35.589
X-44.539 Y-35.236
X-44.46 Y-34.887
X-44.411 Y-34.539
X-44.391 Y-34.187
X-44.397 Y-33.831
X-44.428 Y-33.467
X-44.481 Y-33.096
X-44.556 Y-32.715
X-44.649 Y-32.325
X-44.758 Y-31.925
X-44.881 Y-31.515
X-45.015 Y-31.096
X-45.157 Y-30.666
X-45.304 Y-30.227
X-45.305 Y-30.224
X-45.452 Y-29.778
X-45.455 Y-29.771
X-45.6 Y-29.318
X-45.604 Y-29.306
X-45.745 Y-28.847
X-45.749 Y-28.83
X-45.883 Y-28.363
X-45.888 Y-28.342
X-46.012 Y-27.867
X-46.018 Y-27.843
X-46.13 Y-27.358
X-46.135 Y-27.331
X-46.234 Y-26.837
X-46.239 Y-26.808
X-46.322 Y-26.304
X-46.327 Y-26.272
X-46.393 Y-25.757
X-46.396 Y-25.725
X-46.445 Y-25.199
X-46.447 Y-25.166
X-46.476 Y-24.629
X-46.477 Y-24.596
X-46.487 Y-24.047
Y-24.015
X-46.477 Y-23.467
X-46.476 Y-23.434
X-46.447 Y-22.897
X-46.445 Y-22.863
X-46.396 Y-22.338
X-46.393 Y-22.305
X-46.327 Y-21.79
X-46.322 Y-21.759
X-46.239 Y-21.255
X-46.234 Y-21.225
X-46.135 Y-20.731
X-46.13 Y-20.704
X-46.018 Y-20.219
X-46.012 Y-20.196
X-45.888 Y-19.72
X-45.883 Y-19.7
X-45.749 Y-19.232
X-45.745 Y-19.216
X-45.604 Y-18.756
X-45.6 Y-18.744
X-45.455 Y-18.292
X-45.452 Y-18.284
X-45.305 Y-17.838
X-45.304 Y-17.836
X-45.157 Y-17.397
X-45.015 Y-16.967
X-44.881 Y-16.547
X-44.758 Y-16.138
X-44.649 Y-15.738
X-44.556 Y-15.348
X-44.481 Y-14.967
X-44.428 Y-14.595
X-44.397 Y-14.232
X-44.391 Y-13.875
X-44.411 Y-13.524
X-44.46 Y-13.175
X-44.539 Y-12.826
X-44.652 Y-12.474
X-44.801 Y-12.115
X-44.992 Y-11.748
X-45.228 Y-11.37
X-45.512 Y-10.981
X-45.847 Y-10.582
X-46.243 Y-10.163
G2 X-46.234 Y-1.828 I4.181 J4.163
X-37.898 Y-1.82 I4.172 J-4.172
G1 X-37.443 Y-2.254
X-37.011 Y-2.623
X-36.597 Y-2.936
X-36.2 Y-3.195
X-35.811 Y-3.408
X-35.635 Y-3.491
X-35.455 Y-3.567
X-35.278 Y-3.632
X-35.114 Y-3.685
X-34.764 Y-3.772
X-34.43 Y-3.823
X-34.098 Y-3.844
X-33.765 Y-3.838
X-33.427 Y-3.806
X-33.082 Y-3.749
X-32.728 Y-3.67
X-32.364 Y-3.571
X-31.99 Y-3.454
X-31.604 Y-3.322
X-31.206 Y-3.177
X-30.796 Y-3.023
X-30.375 Y-2.864
X-30.37 Y-2.862
X-29.94 Y-2.702
X-29.93 Y-2.699
X-29.49 Y-2.541
X-29.475 Y-2.536
X-29.025 Y-2.384
X-29.005 Y-2.378
X-28.542 Y-2.233
X-28.518 Y-2.226
X-28.043 Y-2.092
X-28.016 Y-2.085
X-27.526 Y-1.964
X-27.496 Y-1.957
X-26.992 Y-1.85
X-26.959 Y-1.844
X-26.439 Y-1.754
X-26.405 Y-1.749
X-25.868 Y-1.677
X-25.833 Y-1.673
X-25.279 Y-1.621
X-25.244 Y-1.619
X-24.672 Y-1.587
X-24.638 Y-1.586
X-24.047 Y-1.575
X-24.015
X-23.424 Y-1.586
X-23.391 Y-1.587
X-22.818 Y-1.619
X-22.784 Y-1.621
X-22.229 Y-1.673
X-22.195 Y-1.677
X-21.658 Y-1.749
X-21.624 Y-1.754
X-21.103 Y-1.844
X-21.071 Y-1.85
X-20.566 Y-1.957
X-20.536 Y-1.964
X-20.047 Y-2.085
X-20.019 Y-2.092
X-19.544 Y-2.226
X-19.52 Y-2.233
X-19.058 Y-2.378
X-19.038 Y-2.384
X-18.588 Y-2.536
X-18.572 Y-2.541
X-18.133 Y-2.699
X-18.122 Y-2.702
X-17.692 Y-2.862
X-17.688 Y-2.864
X-17.266 Y-3.023
X-16.856 Y-3.177
X-16.458 Y-3.322
X-16.073 Y-3.454
X-15.698 Y-3.571
X-15.334 Y-3.67
X-14.981 Y-3.749
X-14.635 Y-3.806
X-14.298 Y-3.838
X-13.964 Y-3.844
X-13.633 Y-3.823
X-13.299 Y-3.772
X-12.948 Y-3.685
X-12.784 Y-3.632
X-12.608 Y-3.567
X-12.427 Y-3.491
X-12.251 Y-3.408
X-11.863 Y-3.195
X-11.466 Y-2.936
X-11.051 Y-2.623
X-10.62 Y-2.254
X-10.164 Y-1.82
G2 X-2.716 Y-1.099 I4.164 J-4.18
S5000
X-1.828 Y-1.828 Z-1.04 I-3.284 J-4.901 F333.3
X-0.1 Y-5.943 Z-1.2 I-4.172 J-4.172
S4000
X-1.819 Y-10.163 I-5.9 J-0.057 F1000
G1 X-2.216 Y-10.582
X-2.551 Y-10.981
X-2.835 Y-11.37
X-3.07 Y-11.748
X-3.261 Y-12.115
X-3.411 Y-12.474
X-3.524 Y-12.826
X-3.603 Y-13.175
X-3.651 Y-13.524
X-3.671 Y-13.875
X-3.665 Y-14.232
X-3.635 Y-14.595
X-3.581 Y-14.967
X-3.507 Y-15.348
X-3.414 Y-15.738
X-3.304 Y-16.138
X-3.181 Y-16.547
X-3.047 Y-16.967
X-2.905 Y-17.397
X-2.759 Y-17.836
X-2.758 Y-17.838
X-2.61 Y-18.284
X-2.608 Y-18.292
X-2.462 Y-18.744
X-2.458 Y-18.756
X-2.318 Y-19.216
X-2.313 Y-19.232
X-2.18 Y-19.7
X-2.174 Y-19.72
X-2.051 Y-20.196
X-2.045 Y-20.219
X-1.933 Y-20.704
X-1.927 Y-20.731
X-1.829 Y-21.225
X-1.823 Y-21.255
X-1.74 Y-21.759
X-1.736 Y-21.79
X-1.67 Y-22.305
X-1.666 Y-22.338
X-1.618 Y-22.863
X-1.615 Y-22.897
X-1.586 Y-23.434
X-1.585 Y-23.467
X-1.575 Y-24.015
Y-24.047
X-1.585 Y-24.596
X-1.586 Y-24.629
X-1.615 Y-25.166
X-1.618 Y-25.199
X-1.666 Y-25.725
X-1.67 Y-25.757
X-1.736 Y-26.272
X-1.74 Y-26.304
X-1.823 Y-26.808
X-1.829 Y-26.837
X-1.927 Y-27.331
X-1.933 Y-27.358
X-2.045 Y-27.843
X-2.051 Y-27.867
X-2.174 Y-28.342
X-2.18 Y-28.363
X-2.313 Y-28.83
X-2.318 Y-28.847
X-2.458 Y-29.306
X-2.462 Y-29.318
X-2.608 Y-29.771
X-2.61 Y-29.778
X-2.758 Y-30.224
X-2.759 Y-30.227
X-2.905 Y-30.666
X-3.047 Y-31.096
X-3.181 Y-31.515
X-3.304 Y-31.925
X-3.414 Y-32.325
X-3.507 Y-32.715
X-3.581 Y-33.096
X-3.635 Y-33.467
X-3.665 Y-33.831
X-3.671 Y-34.187
X-3.651 Y-34.539
X-3.603 Y-34.887
X-3.524 Y-35.236
X-3.411 Y-35.589
X-3.261 Y-35.948
X-3.07 Y-36.315
X-2.835 Y-36.693
X-2.551 Y-37.081
X-2.216 Y-37.481
X-1.819 Y-37.899
G2 X-1.828 Y-46.234 I-4.181 J-4.163
X-10.164 Y-46.242 I-4.172 J4.172
G1 X-10.62 Y-45.808
X-11.051 Y-45.439
X-11.466 Y-45.127
X-11.863 Y-44.868
X-12.251 Y-44.655
X-12.427 Y-44.572
X-12.607 Y-44.496
X-12.784 Y-44.43
X-12.949 Y-44.377
X-13.299 Y-44.291
X-13.633 Y-44.239
X-13.964 Y-44.218
X-14.297 Y-44.224
X-14.635 Y-44.257
X-14.981 Y-44.313
X-15.334 Y-44.392
X-15.698 Y-44.491
X-16.073 Y-44.608
X-16.458 Y-44.741
X-16.856 Y-44.886
X-17.266 Y-45.039
X-17.688 Y-45.198
X-17.692 Y-45.2
X-18.122 Y-45.36
X-18.132 Y-45.364
X-18.572 Y-45.521
X-18.588 Y-45.526
X-19.038 Y-45.678
X-19.058 Y-45.685
X-19.52 Y-45.829
X-19.544 Y-45.836
X-20.019 Y-45.97
X-20.047 Y-45.977
X-20.536 Y-46.099
X-20.566 Y-46.106
X-21.071 Y-46.212
X-21.103 Y-46.218
X-21.624 Y-46.308
X-21.658 Y-46.313
X-22.195 Y-46.385
X-22.229 Y-46.389
X-22.784 Y-46.441
X-22.818 Y-46.444
X-23.391 Y-46.475
X-23.424 Y-46.477
X-24.015 Y-46.487
X-24.047
X-24.638 Y-46.477
X-24.672 Y-46.475
X-25.244 Y-46.444
X-25.279 Y-46.441
X-25.833 Y-46.389
X-25.868 Y-46.385
X-26.405 Y-46.313
X-26.439 Y-46.308
X-26.959 Y-46.218
X-26.992 Y-46.212
X-27.496 Y-46.106
X-27.527 Y-46.099
X-28.016 Y-45.977
X-28.043 Y-45.97
X-28.518 Y-45.836
X-28.542 Y-45.829
X-29.005 Y-45.685
X-29.025 Y-45.678
X-29.475 Y-45.526
X-29.49 Y-45.521
X-29.93 Y-45.364
X-29.94 Y-45.36
X-30.37 Y-45.2
X-30.375 Y-45.198
X-30.796 Y-45.039
X-31.206 Y-44.886
X-31.604 Y-44.741
X-31.99 Y-44.608
X-32.364 Y-44.491
X-32.728 Y-44.392
X-33.082 Y-44.313
X-33.427 Y-44.257
X-33.765 Y-44.224
X-34.098 Y-44.218
X-34.43 Y-44.239
X-34.764 Y-44.291
X-35.114 Y-44.377
X-35.278 Y-44.43
X-35.455 Y-44.496
X-35.635 Y-44.572
X-35.811 Y-44.654
X-36.199 Y-44.868
X-36.597 Y-45.127
X-37.011 Y-45.439
X-37.443 Y-45.808
X-37.898 Y-46.242
G2 X-46.234 Y-46.234 I-4.164 J4.18
X-46.243 Y-37.899 I4.172 J4.172
G1 X-45.847 Y-37.481
X-45.512 Y-37.081
X-45.228 Y-36.692
X-44.992 Y-36.315
X-44.801 Y-35.948
X-44.652 Y-35.589
X-44.539 Y-35.236
X-44.46 Y-34.887
X-44.411 Y-34.539
X-44.391 Y-34.187
X-44.397 Y-33.831
X-44.428 Y-33.467
X-44.481 Y-33.096
X-44.556 Y-32.715
X-44.649 Y-32.325
X-44.758 Y-31.925
X-44.881 Y-31.515
X-45.015 Y-31.096
X-45.157 Y-30.666
X-45.304 Y-30.227
X-45.305 Y-30.224
X-45.452 Y-29.778
X-45.455 Y-29.771
X-45.6 Y-29.318
X-45.604 Y-29.306
X-45.745 Y-28.847
X-45.749 Y-28.83
X-45.883 Y-28.363
X-45.888 Y-28.342
X-46.012 Y-27.867
X-46.018 Y-27.843
X-46.13 Y-27.358
X-46.135 Y-27.331
X-46.234 Y-26.837
X-46.239 Y-26.808
X-46.322 Y-26.304
X-46.327 Y-26.272
X-46.393 Y-25.757
X-46.396 Y-25.725
X-46.445 Y-25.199
X-46.447 Y-25.166
X-46.476 Y-24.629
X-46.477 Y-24.596
X-46.487 Y-24.047
Y-24.015
X-46.477 Y-23.467
X-46.476 Y-23.434
X-46.447 Y-22.897
X-46.445 Y-22.863
X-46.396 Y-22.338
X-46.393 Y-22.305
X-46.327 Y-21.79
X-46.322 Y-21.759
X-46.239 Y-21.255
X-46.234 Y-21.225
X-46.135 Y-20.731
X-46.13 Y-20.704
X-46.018 Y-20.219
X-46.012 Y-20.196
X-45.888 Y-19.72
X-45.883 Y-19.7
X-45.749 Y-19.232
X-45.745 Y-19.216
X-45.604 Y-18.756
X-45.6 Y-18.744
X-45.455 Y-18.292
X-45.452 Y-18.284
X-45.305 Y-17.838
X-45.304 Y-17.836
X-45.157 Y-17.397
X-45.015 Y-16.967
X-44.881 Y-16.547
X-44.758 Y-16.138
X-44.649 Y-15.738
X-44.556 Y-15.348
X-44.481 Y-14.967
X-44.428 Y-14.595
X-44.397 Y-14.232
X-44.391 Y-13.875
X-44.411 Y-13.524
X-44.46 Y-13.175
X-44.539 Y-12.826
X-44.652 Y-12.474
X-44.801 Y-12.115
X-44.992 Y-11.748
X-45.228 Y-11.37
X-45.512 Y-10.981
X-45.847 Y-10.582
X-46.243 Y-10.163
G2 X-46.234 Y-1.828 I4.181 J4.163
X-37.898 Y-1.82 I4.172 J-4.172
G1 X-37.443 Y-2.254
X-37.011 Y-2.623
X-36.597 Y-2.936
X-36.2 Y-3.195
X-35.811 Y-3.408
X-35.635 Y-3.491
X-35.455 Y-3.567
X-35.278 Y-3.632
X-35.114 Y-3.685
X-34.764 Y-3.772
X-34.43 Y-3.823
X-34.098 Y-3.844
X-33.765 Y-3.838
X-33.427 Y-3.806
X-33.082 Y-3.749
X-32.728 Y-3.67
X-32.364 Y-3.571
X-31.99 Y-3.454
X-31.604 Y-3.322
X-31.206 Y-3.177
X-30.796 Y-3.023
X-30.375 Y-2.864
X-30.37 Y-2.862
X-29.94 Y-2.702
X-29.93 Y-2.699
X-29.49 Y-2.541
X-29.475 Y-2.536
X-29.025 Y-2.384
X-29.005 Y-2.378
X-28.542 Y-2.233
X-28.518 Y-2.226
X-28.043 Y-2.092
X-28.016 Y-2.085
X-27.526 Y-1.964
X-27.496 Y-1.957
X-26.992 Y-1.85
X-26.959 Y-1.844
X-26.439 Y-1.754
X-26.405 Y-1.749
X-25.868 Y-1.677
X-25.833 Y-1.673
X-25.279 Y-1.621
X-25.244 Y-1.619
X-24.672 Y-1.587
X-24.638 Y-1.586
X-24.047 Y-1.575
X-24.015
X-23.424 Y-1.586
X-23.391 Y-1.587
X-22.818 Y-1.619
X-22.784 Y-1.621
X-22.229 Y-1.673
X-22.195 Y-1.677
X-21.658 Y-1.749
X-21.624 Y-1.754
X-21.103 Y-1.844
X-21.071 Y-1.85
X-20.566 Y-1.957
X-20.536 Y-1.964
X-20.047 Y-2.085
X-20.019 Y-2.092
X-19.544 Y-2.226
X-19.52 Y-2.233
X-19.058 Y-2.378
X-19.038 Y-2.384
X-18.588 Y-2.536
X-18.572 Y-2.541
X-18.133 Y-2.699
X-18.122 Y-2.702
X-17.692 Y-2.862
X-17.688 Y-2.864
X-17.266 Y-3.023
X-16.856 Y-3.177
X-16.458 Y-3.322
X-16.073 Y-3.454
X-15.698 Y-3.571
X-15.334 Y-3.67
X-14.981 Y-3.749
X-14.635 Y-3.806
X-14.298 Y-3.838
X-13.964 Y-3.844
X-13.633 Y-3.823
X-13.299 Y-3.772
X-12.948 Y-3.685
X-12.784 Y-3.632
X-12.608 Y-3.567
X-12.427 Y-3.491
X-12.251 Y-3.408
X-11.863 Y-3.195
X-11.466 Y-2.936
X-11.051 Y-2.623
X-10.62 Y-2.254
X-10.164 Y-1.82
G2 X-1.828 Y-1.828 I4.164 J-4.18
X-0.1 Y-5.943 I-4.172 J-4.172
S5000
X-1.819 Y-10.163 Z-1.363 I-5.9 J-0.057 F333.3
G1 X-2.216 Y-10.582 Z-1.384
X-2.519 Y-10.943 Z-1.4
S4000
X-2.551 Y-10.981 F1000
X-2.835 Y-11.37
X-3.07 Y-11.748
X-3.261 Y-12.115
X-3.411 Y-12.474
X-3.524 Y-12.826
X-3.603 Y-13.175
X-3.651 Y-13.524
X-3.671 Y-13.875
X-3.665 Y-14.232
X-3.635 Y-14.595
X-3.581 Y-14.967
X-3.507 Y-15.348
X-3.414 Y-15.738
X-3.304 Y-16.138
X-3.181 Y-16.547
X-3.047 Y-16.967
X-2.905 Y-17.397
X-2.759 Y-17.836
X-2.758 Y-17.838
X-2.61 Y-18.284
X-2.608 Y-18.292
X-2.462 Y-18.744
X-2.458 Y-18.756
X-2.318 Y-19.216
X-2.313 Y-19.232
X-2.18 Y-19.7
X-2.174 Y-19.72
X-2.051 Y-20.196
X-2.045 Y-20.219
X-1.933 Y-20.704
X-1.927 Y-20.731
X-1.829 Y-21.225
X-1.823 Y-21.255
X-1.74 Y-21.759
X-1.736 Y-21.79
X-1.726 Y-21.867
Z-1.2
X-1.67 Y-22.305
X-1.666 Y-22.338
X-1.618 Y-22.863
X-1.615 Y-22.897
X-1.586 Y-23.434
X-1.585 Y-23.467
X-1.575 Y-24.015
Y-24.047
X-1.585 Y-24.596
X-1.586 Y-24.629
X-1.615 Y-25.166
X-1.618 Y-25.199
X-1.666 Y-25.725
X-1.67 Y-25.757
X-1.722 Y-26.168
Z-1.4 F200
X-1.736 Y-26.272 F1000
X-1.74 Y-26.304
X-1.823 Y-26.808
X-1.829 Y-26.837
X-1.927 Y-27.331
X-1.933 Y-27.358
X-2.045 Y-27.843
X-2.051 Y-27.867
X-2.174 Y-28.342
X-2.18 Y-28.363
X-2.313 Y-28.83
X-2.318 Y-28.847
X-2.458 Y-29.306
X-2.462 Y-29.318
X-2.608 Y-29.771
X-2.61 Y-29.778
X-2.758 Y-30.224
X-2.759 Y-30.227
X-2.905 Y-30.666
X-3.047 Y-31.096
X-3.181 Y-31.515
X-3.304 Y-31.925
X-3.414 Y-32.325
X-3.507 Y-32.715
X-3.581 Y-33.096
X-3.635 Y-33.467
X-3.665 Y-33.831
X-3.671 Y-34.187
X-3.651 Y-34.539
X-3.603 Y-34.887
X-3.524 Y-35.236
X-3.411 Y-35.589
X-3.261 Y-35.948
X-3.07 Y-36.315
X-2.835 Y-36.693
X-2.551 Y-37.081
X-2.216 Y-37.481
X-1.819 Y-37.899
G2 X-1.828 Y-46.234 I-4.181 J-4.163
X-10.164 Y-46.242 I-4.172 J4.172
G1 X-10.62 Y-45.808
X-11.051 Y-45.439
X-11.466 Y-45.127
X-11.863 Y-44.868
X-12.251 Y-44.655
X-12.427 Y-44.572
X-12.607 Y-44.496
X-12.784 Y-44.43
X-12.949 Y-44.377
X-13.299 Y-44.291
X-13.633 Y-44.239
X-13.964 Y-44.218
X-14.297 Y-44.224
X-14.635 Y-44.257
X-14.981 Y-44.313
X-15.334 Y-44.392
X-15.698 Y-44.491
X-16.073 Y-44.608
X-16.458 Y-44.741
X-16.856 Y-44.886
X-17.266 Y-45.039
X-17.688 Y-45.198
X-17.692 Y-45.2
X-18.122 Y-45.36
X-18.132 Y-45.364
X-18.572 Y-45.521
X-18.588 Y-45.526
X-19.038 Y-45.678
X-19.058 Y-45.685
X-19.52 Y-45.829
X-19.544 Y-45.836
X-20.019 Y-45.97
X-20.047 Y-45.977
X-20.536 Y-46.099
X-20.566 Y-46.106
X-21.071 Y-46.212
X-21.103 Y-46.218
X-21.624 Y-46.308
X-21.658 Y-46.313
X-22.195 Y-46.385
X-22.229 Y-46.389
X-22.784 Y-46.441
X-22.818 Y-46.444
X-23.391 Y-46.475
X-23.424 Y-46.477
X-24.015 Y-46.487
X-24.047
X-24.638 Y-46.477
X-24.672 Y-46.475
X-25.244 Y-46.444
X-25.279 Y-46.441
X-25.833 Y-46.389
X-25.868 Y-46.385
X-26.405 Y-46.313
X-26.439 Y-46.308
X-26.959 Y-46.218
X-26.992 Y-46.212
X-27.496 Y-46.106
X-27.527 Y-46.099
X-28.016 Y-45.977
X-28.043 Y-45.97
X-28.518 Y-45.836
X-28.542 Y-45.829
X-29.005 Y-45.685
X-29.025 Y-45.678
X-29.475 Y-45.526
X-29.49 Y-45.521
X-29.93 Y-45.364
X-29.94 Y-45.36
X-30.37 Y-45.2
X-30.375 Y-45.198
X-30.796 Y-45.039
X-31.206 Y-44.886
X-31.604 Y-44.741
X-31.99 Y-44.608
X-32.364 Y-44.491
X-32.728 Y-44.392
X-33.082 Y-44.313
X-33.427 Y-44.257
X-33.765 Y-44.224
X-34.098 Y-44.218
X-34.43 Y-44.239
X-34.764 Y-44.291
X-35.114 Y-44.377
X-35.278 Y-44.43
X-35.455 Y-44.496
X-35.635 Y-44.572
X-35.811 Y-44.654
X-36.199 Y-44.868
X-36.597 Y-45.127
X-37.011 Y-45.439
X-37.443 Y-45.808
X-37.898 Y-46.242
G2 X-46.234 Y-46.234 I-4.164 J4.18
X-46.243 Y-37.899 I4.172 J4.172
G1 X-45.847 Y-37.481
X-45.512 Y-37.081
X-45.228 Y-36.692
X-44.992 Y-36.315
X-44.801 Y-35.948
X-44.652 Y-35.589
X-44.539 Y-35.236
X-44.46 Y-34.887
X-44.411 Y-34.539
X-44.391 Y-34.187
X-44.397 Y-33.831
X-44.428 Y-33.467
X-44.481 Y-33.096
X-44.556 Y-32.715
X-44.649 Y-32.325
X-44.758 Y-31.925
X-44.881 Y-31.515
X-45.015 Y-31.096
X-45.157 Y-30.666
X-45.304 Y-30.227
X-45.305 Y-30.224
X-45.452 Y-29.778
X-45.455 Y-29.771
X-45.6 Y-29.318
X-45.604 Y-29.306
X-45.745 Y-28.847
X-45.749 Y-28.83
X-45.883 Y-28.363
X-45.888 Y-28.342
X-46.012 Y-27.867
X-46.018 Y-27.843
X-46.13 Y-27.358
X-46.135 Y-27.331
X-46.234 Y-26.837
X-46.239 Y-26.808
X-46.322 Y-26.304
X-46.327 Y-26.272
X-46.337 Y-26.195
Z-1.2
X-46.393 Y-25.757
X-46.396 Y-25.725
X-46.445 Y-25.199
X-46.447 Y-25.166
X-46.476 Y-24.629
X-46.477 Y-24.596
X-46.487 Y-24.047
Y-24.015
X-46.477 Y-23.467
X-46.476 Y-23.434
X-46.447 Y-22.897
X-46.445 Y-22.863
X-46.396 Y-22.338
X-46.393 Y-22.305
X-46.34 Y-21.894
Z-1.4 F200
X-46.327 Y-21.79 F1000
X-46.322 Y-21.759
X-46.239 Y-21.255
X-46.234 Y-21.225
X-46.135 Y-20.731
X-46.13 Y-20.704
X-46.018 Y-20.219
X-46.012 Y-20.196
X-45.888 Y-19.72
X-45.883 Y-19.7
X-45.749 Y-19.232
X-45.745 Y-19.216
X-45.604 Y-18.756
X-45.6 Y-18.744
X-45.455 Y-18.292
X-45.452 Y-18.284
X-45.305 Y-17.838
X-45.304 Y-17.836
X-45.157 Y-17.397
X-45.015 Y-16.967
X-44.881 Y-16.547
X-44.758 Y-16.138
X-44.649 Y-15.738
X-44.556 Y-15.348
X-44.481 Y-14.967
X-44.428 Y-14.595
X-44.397 Y-14.232
X-44.391 Y-13.875
X-44.411 Y-13.524
X-44.46 Y-13.175
X-44.539 Y-12.826
X-44.652 Y-12.474
X-44.801 Y-12.115
X-44.992 Y-11.748
X-45.228 Y-11.37
X-45.512 Y-10.981
X-45.847 Y-10.582
X-46.243 Y-10.163
G2 X-46.234 Y-1.828 I4.181 J4.163
X-37.898 Y-1.82 I4.172 J-4.172
G1 X-37.443 Y-2.254
X-37.011 Y-2.623
X-36.597 Y-2.936
X-36.2 Y-3.195
X-35.811 Y-3.408
X-35.635 Y-3.491
X-35.455 Y-3.567
X-35.278 Y-3.632
X-35.114 Y-3.685
X-34.764 Y-3.772
X-34.43 Y-3.823
X-34.098 Y-3.844
X-33.765 Y-3.838
X-33.427 Y-3.806
X-33.082 Y-3.749
X-32.728 Y-3.67
X-32.364 Y-3.571
X-31.99 Y-3.454
X-31.604 Y-3.322
X-31.206 Y-3.177
X-30.796 Y-3.023
X-30.375 Y-2.864
X-30.37 Y-2.862
X-29.94 Y-2.702
X-29.93 Y-2.699
X-29.49 Y-2.541
X-29.475 Y-2.536
X-29.025 Y-2.384
X-29.005 Y-2.378
X-28.542 Y-2.233
X-28.518 Y-2.226
X-28.043 Y-2.092
X-28.016 Y-2.085
X-27.526 Y-1.964
X-27.496 Y-1.957
X-26.992 Y-1.85
X-26.959 Y-1.844
X-26.439 Y-1.754
X-26.405 Y-1.749
X-26.168 Y-1.717
Z-1.2
X-25.868 Y-1.677
X-25.833 Y-1.673
X-25.279 Y-1.621
X-25.244 Y-1.619
X-24.672 Y-1.587
X-24.638 Y-1.586
X-24.047 Y-1.575
X-24.015
X-23.424 Y-1.586
X-23.391 Y-1.587
X-22.818 Y-1.619
X-22.784 Y-1.621
X-22.229 Y-1.673
X-22.195 Y-1.677
X-21.867 Y-1.721
Z-1.4 F200
X-21.658 Y-1.749 F1000
X-21.624 Y-1.754
X-21.103 Y-1.844
X-21.071 Y-1.85
X-20.566 Y-1.957
X-20.536 Y-1.964
X-20.047 Y-2.085
X-20.019 Y-2.092
X-19.544 Y-2.226
X-19.52 Y-2.233
X-19.058 Y-2.378
X-19.038 Y-2.384
X-18.588 Y-2.536
X-18.572 Y-2.541
X-18.133 Y-2.699
X-18.122 Y-2.702
X-17.692 Y-2.862
X-17.688 Y-2.864
X-17.266 Y-3.023
X-16.856 Y-3.177
X-16.458 Y-3.322
X-16.073 Y-3.454
X-15.698 Y-3.571
X-15.334 Y-3.67
X-14.981 Y-3.749
X-14.635 Y-3.806
X-14.298 Y-3.838
X-13.964 Y-3.844
X-13.633 Y-3.823
X-13.299 Y-3.772
X-12.948 Y-3.685
X-12.784 Y-3.632
X-12.608 Y-3.567
X-12.427 Y-3.491
X-12.251 Y-3.408
X-11.863 Y-3.195
X-11.466 Y-2.936
X-11.051 Y-2.623
X-10.62 Y-2.254
X-10.164 Y-1.82
G2 X-1.828 Y-1.828 I4.164 J-4.18
X-1.819 Y-10.163 I-4.172 J-4.172
G1 X-2.216 Y-10.582
X-2.519 Y-10.943
S5000
X-2.551 Y-10.981 Z-1.402 F333.3
X-2.835 Y-11.37 Z-1.419
X-3.07 Y-11.748 Z-1.434
X-3.261 Y-12.115 Z-1.449
X-3.411 Y-12.474 Z-1.462
X-3.524 Y-12.826 Z-1.475
X-3.603 Y-13.175 Z-1.488
X-3.651 Y-13.524 Z-1.5
X-3.671 Y-13.875 Z-1.512
X-3.665 Y-14.232 Z-1.525
X-3.635 Y-14.595 Z-1.537
X-3.581 Y-14.967 Z-1.55
X-3.507 Y-15.348 Z-1.564
X-3.414 Y-15.738 Z-1.578
X-3.304 Y-16.138 Z-1.592
X-3.242 Y-16.345 Z-1.6
S4000
X-3.181 Y-16.547 F1000
X-3.047 Y-16.967
X-2.905 Y-17.397
X-2.759 Y-17.836
X-2.758 Y-17.838
X-2.61 Y-18.284
X-2.608 Y-18.292
X-2.462 Y-18.744
X-2.458 Y-18.756
X-2.318 Y-19.216
X-2.313 Y-19.232
X-2.18 Y-19.7
X-2.174 Y-19.72
X-2.051 Y-20.196
X-2.045 Y-20.219
X-1.933 Y-20.704
X-1.927 Y-20.731
X-1.829 Y-21.225
X-1.823 Y-21.255
X-1.74 Y-21.759
X-1.736 Y-21.79
X-1.726 Y-21.867
Z-1.2
X-1.67 Y-22.305
X-1.666 Y-22.338
X-1.618 Y-22.863
X-1.615 Y-22.897
X-1.586 Y-23.434
X-1.585 Y-23.467
X-1.575 Y-24.015
Y-24.047
X-1.585 Y-24.596
X-1.586 Y-24.629
X-1.615 Y-25.166
X-1.618 Y-25.199
X-1.666 Y-25.725
X-1.67 Y-25.757
X-1.722 Y-26.168
Z-1.6 F200
X-1.736 Y-26.272 F1000
X-1.74 Y-26.304
X-1.823 Y-26.808
X-1.829 Y-26.837
X-1.927 Y-27.331
X-1.933 Y-27.358
X-2.045 Y-27.843
X-2.051 Y-27.867
X-2.174 Y-28.342
X-2.18 Y-28.363
X-2.313 Y-28.83
X-2.318 Y-28.847
X-2.458 Y-29.306
X-2.462 Y-29.318
X-2.608 Y-29.771
X-2.61 Y-29.778
X-2.758 Y-30.224
X-2.759 Y-30.227
X-2.905 Y-30.666
X-3.047 Y-31.096
X-3.181 Y-31.515
X-3.304 Y-31.925
X-3.414 Y-32.325
X-3.507 Y-32.715
X-3.581 Y-33.096
X-3.635 Y-33.467
X-3.665 Y-33.831
X-3.671 Y-34.187
X-3.651 Y-34.539
X-3.603 Y-34.887
X-3.524 Y-35.236
X-3.411 Y-35.589
X-3.261 Y-35.948
X-3.07 Y-36.315
X-2.835 Y-36.693
X-2.551 Y-37.081
X-2.216 Y-37.481
X-1.819 Y-37.899
G2 X-1.828 Y-46.234 I-4.181 J-4.163
X-10.164 Y-46.242 I-4.172 J4.172
G1 X-10.62 Y-45.808
X-11.051 Y-45.439
X-11.466 Y-45.127
X-11.863 Y-44.868
X-12.251 Y-44.655
X-12.427 Y-44.572
X-12.607 Y-44.496
X-12.784 Y-44.43
X-12.949 Y-44.377
X-13.299 Y-44.291
X-13.633 Y-44.239
X-13.964 Y-44.218
X-14.297 Y-44.224
X-14.635 Y-44.257
X-14.981 Y-44.313
X-15.334 Y-44.392
X-15.698 Y-44.491
X-16.073 Y-44.608
X-16.458 Y-44.741
X-16.856 Y-44.886
X-17.266 Y-45.039
X-17.688 Y-45.198
X-17.692 Y-45.2
X-18.122 Y-45.36
X-18.132 Y-45.364
X-18.572 Y-45.521
X-18.588 Y-45.526
X-19.038 Y-45.678
X-19.058 Y-45.685
X-19.52 Y-45.829
X-19.544 Y-45.836
X-20.019 Y-45.97
X-20.047 Y-45.977
X-20.536 Y-46.099
X-20.566 Y-46.106
X-21.071 Y-46.212
X-21.103 Y-46.218
X-21.624 Y-46.308
X-21.658 Y-46.313
X-22.195 Y-46.385
X-22.229 Y-46.389
X-22.784 Y-46.441
X-22.818 Y-46.444
X-23.391 Y-46.475
X-23.424 Y-46.477
X-24.015 Y-46.487
X-24.047
X-24.638 Y-46.477
X-24.672 Y-46.475
X-25.244 Y-46.444
X-25.279 Y-46.441
X-25.833 Y-46.389
X-25.868 Y-46.385
X-26.405 Y-46.313
X-26.439 Y-46.308
X-26.959 Y-46.218
X-26.992 Y-46.212
X-27.496 Y-46.106
X-27.527 Y-46.099
X-28.016 Y-45.977
X-28.043 Y-45.97
X-28.518 Y-45.836
X-28.542 Y-45.829
X-29.005 Y-45.685
X-29.025 Y-45.678
X-29.475 Y-45.526
X-29.49 Y-45.521
X-29.93 Y-45.364
X-29.94 Y-45.36
X-30.37 Y-45.2
X-30.375 Y-45.198
X-30.796 Y-45.039
X-31.206 Y-44.886
X-31.604 Y-44.741
X-31.99 Y-44.608
X-32.364 Y-44.491
X-32.728 Y-44.392
X-33.082 Y-44.313
X-33.427 Y-44.257
X-33.765 Y-44.224
X-34.098 Y-44.218
X-34.43 Y-44.239
X-34.764 Y-44.291
X-35.114 Y-44.377
X-35.278 Y-44.43
X-35.455 Y-44.496
X-35.635 Y-44.572
X-35.811 Y-44.654
X-36.199 Y-44.868
X-36.597 Y-45.127
X-37.011 Y-45.439
X-37.443 Y-45.808
X-37.898 Y-46.242
G2 X-46.234 Y-46.234 I-4.164 J4.18
X-46.243 Y-37.899 I4.172 J4.172
G1 X-45.847 Y-37.481
X-45.512 Y-37.081
X-45.228 Y-36.692
X-44.992 Y-36.315
X-44.801 Y-35.948
X-44.652 Y-35.589
X-44.539 Y-35.236
X-44.46 Y-34.887
X-44.411 Y-34.539
X-44.391 Y-34.187
X-44.397 Y-33.831
X-44.428 Y-33.467
X-44.481 Y-33.096
X-44.556 Y-32.715
X-44.649 Y-32.325
X-44.758 Y-31.925
X-44.881 Y-31.515
X-45.015 Y-31.096
X-45.157 Y-30.666
X-45.304 Y-30.227
X-45.305 Y-30.224
X-45.452 Y-29.778
X-45.455 Y-29.771
X-45.6 Y-29.318
X-45.604 Y-29.306
X-45.745 Y-28.847
X-45.749 Y-28.83
X-45.883 Y-28.363
X-45.888 Y-28.342
X-46.012 Y-27.867
X-46.018 Y-27.843
X-46.13 Y-27.358
X-46.135 Y-27.331
X-46.234 Y-26.837
X-46.239 Y-26.808
X-46.322 Y-26.304
X-46.327 Y-26.272
X-46.337 Y-26.195
Z-1.2
X-46.393 Y-25.757
X-46.396 Y-25.725
X-46.445 Y-25.199
X-46.447 Y-25.166
X-46.476 Y-24.629
X-46.477 Y-24.596
X-46.487 Y-24.047
Y-24.015
X-46.477 Y-23.467
X-46.476 Y-23.434
X-46.447 Y-22.897
X-46.445 Y-22.863
X-46.396 Y-22.338
X-46.393 Y-22.305
X-46.34 Y-21.894
Z-1.6 F200
X-46.327 Y-21.79 F1000
X-46.322 Y-21.759
X-46.239 Y-21.255
X-46.234 Y-21.225
X-46.135 Y-20.731
X-46.13 Y-20.704
X-46.018 Y-20.219
X-46.012 Y-20.196
X-45.888 Y-19.72
X-45.883 Y-19.7
X-45.749 Y-19.232
X-45.745 Y-19.216
X-45.604 Y-18.756
X-45.6 Y-18.744
X-45.455 Y-18.292
X-45.452 Y-18.284
X-45.305 Y-17.838
X-45.304 Y-17.836
X-45.157 Y-17.397
X-45.015 Y-16.967
X-44.881 Y-16.547
X-44.758 Y-16.138
X-44.649 Y-15.738
X-44.556 Y-15.348
X-44.481 Y-14.967
X-44.428 Y-14.595
X-44.397 Y-14.232
X-44.391 Y-13.875
X-44.411 Y-13.524
X-44.46 Y-13.175
X-44.539 Y-12.826
X-44.652 Y-12.474
X-44.801 Y-12.115
X-44.992 Y-11.748
X-45.228 Y-11.37
X-45.512 Y-10.981
X-45.847 Y-10.582
X-46.243 Y-10.163
G2 X-46.234 Y-1.828 I4.181 J4.163
X-37.898 Y-1.82 I4.172 J-4.172
G1 X-37.443 Y-2.254
X-37.011 Y-2.623
X-36.597 Y-2.936
X-36.2 Y-3.195
X-35.811 Y-3.408
X-35.635 Y-3.491
X-35.455 Y-3.567
X-35.278 Y-3.632
X-35.114 Y-3.685
X-34.764 Y-3.772
X-34.43 Y-3.823
X-34.098 Y-3.844
X-33.765 Y-3.838
X-33.427 Y-3.806
X-33.082 Y-3.749
X-32.728 Y-3.67
X-32.364 Y-3.571
X-31.99 Y-3.454
X-31.604 Y-3.322
X-31.206 Y-3.177
X-30.796 Y-3.023
X-30.375 Y-2.864
X-30.37 Y-2.862
X-29.94 Y-2.702
X-29.93 Y-2.699
X-29.49 Y-2.541
X-29.475 Y-2.536
X-29.025 Y-2.384
X-29.005 Y-2.378
X-28.542 Y-2.233
X-28.518 Y-2.226
X-28.043 Y-2.092
X-28.016 Y-2.085
X-27.526 Y-1.964
X-27.496 Y-1.957
X-26.992 Y-1.85
X-26.959 Y-1.844
X-26.439 Y-1.754
X-26.405 Y-1.749
X-26.168 Y-1.717
Z-1.2
X-25.868 Y-1.677
X-25.833 Y-1.673
X-25.279 Y-1.621
X-25.244 Y-1.619
X-24.672 Y-1.587
X-24.638 Y-1.586
X-24.047 Y-1.575
X-24.015
X-23.424 Y-1.586
X-23.391 Y-1.587
X-22.818 Y-1.619
X-22.784 Y-1.621
X-22.229 Y-1.673
X-22.195 Y-1.677
X-21.867 Y-1.721
Z-1.6 F200
X-21.658 Y-1.749 F1000
X-21.624 Y-1.754
X-21.103 Y-1.844
X-21.071 Y-1.85
X-20.566 Y-1.957
X-20.536 Y-1.964
X-20.047 Y-2.085
X-20.019 Y-2.092
X-19.544 Y-2.226
X-19.52 Y-2.233
X-19.058 Y-2.378
X-19.038 Y-2.384
X-18.588 Y-2.536
X-18.572 Y-2.541
X-18.133 Y-2.699
X-18.122 Y-2.702
X-17.692 Y-2.862
X-17.688 Y-2.864
X-17.266 Y-3.023
X-16.856 Y-3.177
X-16.458 Y-3.322
X-16.073 Y-3.454
X-15.698 Y-3.571
X-15.334 Y-3.67
X-14.981 Y-3.749
X-14.635 Y-3.806
X-14.298 Y-3.838
X-13.964 Y-3.844
X-13.633 Y-3.823
X-13.299 Y-3.772
X-12.948 Y-3.685
X-12.784 Y-3.632
X-12.608 Y-3.567
X-12.427 Y-3.491
X-12.251 Y-3.408
X-11.863 Y-3.195
X-11.466 Y-2.936
X-11.051 Y-2.623
X-10.62 Y-2.254
X-10.164 Y-1.82
G2 X-1.828 Y-1.828 I4.164 J-4.18
X-1.819 Y-10.163 I-4.172 J-4.172
G1 X-2.216 Y-10.582
X-2.551 Y-10.981
X-2.835 Y-11.37
X-3.07 Y-11.748
X-3.261 Y-12.115
X-3.411 Y-12.474
X-3.524 Y-12.826
X-3.603 Y-13.175
X-3.651 Y-13.524
X-3.671 Y-13.875
X-3.665 Y-14.232
X-3.635 Y-14.595
X-3.581 Y-14.967
X-3.507 Y-15.348
X-3.414 Y-15.738
X-3.304 Y-16.138
X-3.242 Y-16.345
S5000
X-3.181 Y-16.547 Z-1.607 F333.3
X-3.047 Y-16.967 Z-1.623
X-2.905 Y-17.397 Z-1.639
X-2.759 Y-17.836 Z-1.655
X-2.758 Y-17.838
X-2.61 Y-18.284 Z-1.671
X-2.608 Y-18.292 Z-1.672
X-2.462 Y-18.744 Z-1.688
X-2.458 Y-18.756 Z-1.689
X-2.318 Y-19.216 Z-1.705
X-2.313 Y-19.232 Z-1.706
X-2.18 Y-19.7 Z-1.723
X-2.174 Y-19.72 Z-1.724
X-2.051 Y-20.196 Z-1.741
X-2.045 Y-20.219 Z-1.742
X-1.933 Y-20.704 Z-1.759
X-1.927 Y-20.731 Z-1.76
X-1.829 Y-21.225 Z-1.778
X-1.823 Y-21.255 Z-1.779
X-1.74 Y-21.759 Z-1.796
X-1.736 Y-21.79 Z-1.798
X-1.727 Y-21.859 Z-1.8
S4000
X-1.726 Y-21.867 F1000
Z-1.2
X-1.67 Y-22.305
X-1.666 Y-22.338
X-1.618 Y-22.863
X-1.615 Y-22.897
X-1.586 Y-23.434
X-1.585 Y-23.467
X-1.575 Y-24.015
Y-24.047
X-1.585 Y-24.596
X-1.586 Y-24.629
X-1.615 Y-25.166
X-1.618 Y-25.199
X-1.666 Y-25.725
X-1.67 Y-25.757
X-1.722 Y-26.168
Z-1.8 F200
X-1.736 Y-26.272 F1000
X-1.74 Y-26.304
X-1.823 Y-26.808
X-1.829 Y-26.837
X-1.927 Y-27.331
X-1.933 Y-27.358
X-2.045 Y-27.843
X-2.051 Y-27.867
X-2.174 Y-28.342
X-2.18 Y-28.363
X-2.313 Y-28.83
X-2.318 Y-28.847
X-2.458 Y-29.306
X-2.462 Y-29.318
X-2.608 Y-29.771
X-2.61 Y-29.778
X-2.758 Y-30.224
X-2.759 Y-30.227
X-2.905 Y-30.666
X-3.047 Y-31.096
X-3.181 Y-31.515
X-3.304 Y-31.925
X-3.414 Y-32.325
X-3.507 Y-32.715
X-3.581 Y-33.096
X-3.635 Y-33.467
X-3.665 Y-33.831
X-3.671 Y-34.187
X-3.651 Y-34.539
X-3.603 Y-34.887
X-3.524 Y-35.236
X-3.411 Y-35.589
X-3.261 Y-35.948
X-3.07 Y-36.315
X-2.835 Y-36.693
X-2.551 Y-37.081
X-2.216 Y-37.481
X-1.819 Y-37.899
G2 X-1.828 Y-46.234 I-4.181 J-4.163
X-10.164 Y-46.242 I-4.172 J4.172
G1 X-10.62 Y-45.808
X-11.051 Y-45.439
X-11.466 Y-45.127
X-11.863 Y-44.868
X-12.251 Y-44.655
X-12.427 Y-44.572
X-12.607 Y-44.496
X-12.784 Y-44.43
X-12.949 Y-44.377
X-13.299 Y-44.291
X-13.633 Y-44.239
X-13.964 Y-44.218
X-14.297 Y-44.224
X-14.635 Y-44.257
X-14.981 Y-44.313
X-15.334 Y-44.392
X-15.698 Y-44.491
X-16.073 Y-44.608
X-16.458 Y-44.741
X-16.856 Y-44.886
X-17.266 Y-45.039
X-17.688 Y-45.198
X-17.692 Y-45.2
X-18.122 Y-45.36
X-18.132 Y-45.364
X-18.572 Y-45.521
X-18.588 Y-45.526
X-19.038 Y-45.678
X-19.058 Y-45.685
X-19.52 Y-45.829
X-19.544 Y-45.836
X-20.019 Y-45.97
X-20.047 Y-45.977
X-20.536 Y-46.099
X-20.566 Y-46.106
X-21.071 Y-46.212
X-21.103 Y-46.218
X-21.624 Y-46.308
X-21.658 Y-46.313
X-22.195 Y-46.385
X-22.229 Y-46.389
X-22.784 Y-46.441
X-22.818 Y-46.444
X-23.391 Y-46.475
X-23.424 Y-46.477
X-24.015 Y-46.487
X-24.047
X-24.638 Y-46.477
X-24.672 Y-46.475
X-25.244 Y-46.444
X-25.279 Y-46.441
X-25.833 Y-46.389
X-25.868 Y-46.385
X-26.405 Y-46.313
X-26.439 Y-46.308
X-26.959 Y-46.218
X-26.992 Y-46.212
X-27.496 Y-46.106
X-27.527 Y-46.099
X-28.016 Y-45.977
X-28.043 Y-45.97
X-28.518 Y-45.836
X-28.542 Y-45.829
X-29.005 Y-45.685
X-29.025 Y-45.678
X-29.475 Y-45.526
X-29.49 Y-45.521
X-29.93 Y-45.364
X-29.94 Y-45.36
X-30.37 Y-45.2
X-30.375 Y-45.198
X-30.796 Y-45.039
X-31.206 Y-44.886
X-31.604 Y-44.741
X-31.99 Y-44.608
X-32.364 Y-44.491
X-32.728 Y-44.392
X-33.082 Y-44.313
X-33.427 Y-44.257
X-33.765 Y-44.224
X-34.098 Y-44.218
X-34.43 Y-44.239
X-34.764 Y-44.291
X-35.114 Y-44.377
X-35.278 Y-44.43
X-35.455 Y-44.496
X-35.635 Y-44.572
X-35.811 Y-44.654
X-36.199 Y-44.868
X-36.597 Y-45.127
X-37.011 Y-45.439
X-37.443 Y-45.808
X-37.898 Y-46.242
G2 X-46.234 Y-46.234 I-4.164 J4.18
X-46.243 Y-37.899 I4.172 J4.172
G1 X-45.847 Y-37.481
X-45.512 Y-37.081
X-45.228 Y-36.692
X-44.992 Y-36.315
X-44.801 Y-35.948
X-44.652 Y-35.589
X-44.539 Y-35.236
X-44.46 Y-34.887
X-44.411 Y-34.539
X-44.391 Y-34.187
X-44.397 Y-33.831
X-44.428 Y-33.467
X-44.481 Y-33.096
X-44.556 Y-32.715
X-44.649 Y-32.325
X-44.758 Y-31.925
X-44.881 Y-31.515
X-45.015 Y-31.096
X-45.157 Y-30.666
X-45.304 Y-30.227
X-45.305 Y-30.224
X-45.452 Y-29.778
X-45.455 Y-29.771
X-45.6 Y-29.318
X-45.604 Y-29.306
X-45.745 Y-28.847
X-45.749 Y-28.83
X-45.883 Y-28.363
X-45.888 Y-28.342
X-46.012 Y-27.867
X-46.018 Y-27.843
X-46.13 Y-27.358
X-46.135 Y-27.331
X-46.234 Y-26.837
X-46.239 Y-26.808
X-46.322 Y-26.304
X-46.327 Y-26.272
X-46.337 Y-26.195
Z-1.2
X-46.393 Y-25.757
X-46.396 Y-25.725
X-46.445 Y-25.199
X-46.447 Y-25.166
X-46.476 Y-24.629
X-46.477 Y-24.596
X-46.487 Y-24.047
Y-24.015
X-46.477 Y-23.467
X-46.476 Y-23.434
X-46.447 Y-22.897
X-46.445 Y-22.863
X-46.396 Y-22.338
X-46.393 Y-22.305
X-46.34 Y-21.894
Z-1.8 F200
X-46.327 Y-21.79 F1000
X-46.322 Y-21.759
X-46.239 Y-21.255
X-46.234 Y-21.225
X-46.135 Y-20.731
X-46.13 Y-20.704
X-46.018 Y-20.219
X-46.012 Y-20.196
X-45.888 Y-19.72
X-45.883 Y-19.7
X-45.749 Y-19.232
X-45.745 Y-19.216
X-45.604 Y-18.756
X-45.6 Y-18.744
X-45.455 Y-18.292
X-45.452 Y-18.284
X-45.305 Y-17.838
X-45.304 Y-17.836
X-45.157 Y-17.397
X-45.015 Y-16.967
X-44.881 Y-16.547
X-44.758 Y-16.138
X-44.649 Y-15.738
X-44.556 Y-15.348
X-44.481 Y-14.967
X-44.428 Y-14.595
X-44.397 Y-14.232
X-44.391 Y-13.875
X-44.411 Y-13.524
X-44.46 Y-13.175
X-44.539 Y-12.826
X-44.652 Y-12.474
X-44.801 Y-12.115
X-44.992 Y-11.748
X-45.228 Y-11.37
X-45.512 Y-10.981
X-45.847 Y-10.582
X-46.243 Y-10.163
G2 X-46.234 Y-1.828 I4.181 J4.163
X-37.898 Y-1.82 I4.172 J-4.172
G1 X-37.443 Y-2.254
X-37.011 Y-2.623
X-36.597 Y-2.936
X-36.2 Y-3.195
X-35.811 Y-3.408
X-35.635 Y-3.491
X-35.455 Y-3.567
X-35.278 Y-3.632
X-35.114 Y-3.685
X-34.764 Y-3.772
X-34.43 Y-3.823
X-34.098 Y-3.844
X-33.765 Y-3.838
X-33.427 Y-3.806
X-33.082 Y-3.749
X-32.728 Y-3.67
X-32.364 Y-3.571
X-31.99 Y-3.454
X-31.604 Y-3.322
X-31.206 Y-3.177
X-30.796 Y-3.023
X-30.375 Y-2.864
X-30.37 Y-2.862
X-29.94 Y-2.702
X-29.93 Y-2.699
X-29.49 Y-2.541
X-29.475 Y-2.536
X-29.025 Y-2.384
X-29.005 Y-2.378
X-28.542 Y-2.233
X-28.518 Y-2.226
X-28.043 Y-2.092
X-28.016 Y-2.085
X-27.526 Y-1.964
X-27.496 Y-1.957
X-26.992 Y-1.85
X-26.959 Y-1.844
X-26.439 Y-1.754
X-26.405 Y-1.749
X-26.168 Y-1.717
Z-1.2
X-25.868 Y-1.677
X-25.833 Y-1.673
X-25.279 Y-1.621
X-25.244 Y-1.619
X-24.672 Y-1.587
X-24.638 Y-1.586
X-24.047 Y-1.575
X-24.015
X-23.424 Y-1.586
X-23.391 Y-1.587
X-22.818 Y-1.619
X-22.784 Y-1.621
X-22.229 Y-1.673
X-22.195 Y-1.677
X-21.867 Y-1.721
Z-1.8 F200
X-21.658 Y-1.749 F1000
X-21.624 Y-1.754
X-21.103 Y-1.844
X-21.071 Y-1.85
X-20.566 Y-1.957
X-20.536 Y-1.964
X-20.047 Y-2.085
X-20.019 Y-2.092
X-19.544 Y-2.226
X-19.52 Y-2.233
X-19.058 Y-2.378
X-19.038 Y-2.384
X-18.588 Y-2.536
X-18.572 Y-2.541
X-18.133 Y-2.699
X-18.122 Y-2.702
X-17.692 Y-2.862
X-17.688 Y-2.864
X-17.266 Y-3.023
X-16.856 Y-3.177
X-16.458 Y-3.322
X-16.073 Y-3.454
X-15.698 Y-3.571
X-15.334 Y-3.67
X-14.981 Y-3.749
X-14.635 Y-3.806
X-14.298 Y-3.838
X-13.964 Y-3.844
X-13.633 Y-3.823
X-13.299 Y-3.772
X-12.948 Y-3.685
X-12.784 Y-3.632
X-12.608 Y-3.567
X-12.427 Y-3.491
X-12.251 Y-3.408
X-11.863 Y-3.195
X-11.466 Y-2.936
X-11.051 Y-2.623
X-10.62 Y-2.254
X-10.164 Y-1.82
G2 X-1.828 Y-1.828 I4.164 J-4.18
X-1.819 Y-10.163 I-4.172 J-4.172
G1 X-2.216 Y-10.582
X-2.551 Y-10.981
X-2.835 Y-11.37
X-3.07 Y-11.748
X-3.261 Y-12.115
X-3.411 Y-12.474
X-3.524 Y-12.826
X-3.603 Y-13.175
X-3.651 Y-13.524
X-3.671 Y-13.875
X-3.665 Y-14.232
X-3.635 Y-14.595
X-3.581 Y-14.967
X-3.507 Y-15.348
X-3.414 Y-15.738
X-3.304 Y-16.138
X-3.181 Y-16.547
X-3.047 Y-16.967
X-2.905 Y-17.397
X-2.759 Y-17.836
X-2.758 Y-17.838
X-2.61 Y-18.284
X-2.608 Y-18.292
X-2.462 Y-18.744
X-2.458 Y-18.756
X-2.318 Y-19.216
X-2.313 Y-19.232
X-2.18 Y-19.7
X-2.174 Y-19.72
X-2.051 Y-20.196
X-2.045 Y-20.219
X-1.933 Y-20.704
X-1.927 Y-20.731
X-1.829 Y-21.225
X-1.823 Y-21.255
X-1.74 Y-21.759
X-1.736 Y-21.79
X-1.727 Y-21.859
G0 Z15
G28 G91 Z0
G90
G28 G91 X0 Y0
G90
M5
M30
