(1001)
(Bearbeiten)
(  Hersteller: ChinaCnc)
(  model: 3040T)
(  description: Generic 3-axis)
(T13  D=1.2 CR=0 - ZMIN=-1.8 - Schaftfraser)
G90 G94
G17
G21
G28 G91 Z0
G90

(Bohrfrasen13)
T13
S4000 M3
G54
G0 X-6 Y-6
Z15
Z2
G1 Z0 F1000
X-6.12 Y-6.805
X-6.114 Y-6.842
X-6.097 Y-6.876
X-6.071 Y-6.902
X-6.037 Y-6.919
X-6 Y-6.925
G3 X-6 Y-5.075 Z-0.15 I0 J0.925
X-6 Y-6.925 Z-0.3 I0 J-0.925
X-6 Y-5.075 Z-0.45 I0 J0.925
X-6 Y-6.925 Z-0.6 I0 J-0.925
X-6 Y-5.075 Z-0.75 I0 J0.925
X-6 Y-6.925 Z-0.9 I0 J-0.925
X-6 Y-5.075 Z-1.05 I0 J0.925
X-6 Y-6.925 Z-1.2 I0 J-0.925
X-6 Y-5.075 Z-1.35 I0 J0.925
X-6 Y-6.925 Z-1.5 I0 J-0.925
X-6 Y-5.075 Z-1.65 I0 J0.925
X-6 Y-6.925 Z-1.8 I0 J-0.925
X-6 Y-5.075 I0 J0.925
X-6 Y-6.925 I0 J-0.925
G1 X-5.963 Y-6.919
X-5.929 Y-6.902
X-5.903 Y-6.876
X-5.886 Y-6.842
X-5.88 Y-6.805
X-6 Y-6
G0 Z5
X-42.062
Z2
G1 Z0 F1000
X-42.182 Y-6.805
X-42.177 Y-6.842
X-42.16 Y-6.876
X-42.133 Y-6.902
X-42.1 Y-6.919
X-42.062 Y-6.925
G3 X-42.062 Y-5.075 Z-0.15 I0 J0.925
X-42.062 Y-6.925 Z-0.3 I0 J-0.925
X-42.062 Y-5.075 Z-0.45 I0 J0.925
X-42.062 Y-6.925 Z-0.6 I0 J-0.925
X-42.062 Y-5.075 Z-0.75 I0 J0.925
X-42.062 Y-6.925 Z-0.9 I0 J-0.925
X-42.062 Y-5.075 Z-1.05 I0 J0.925
X-42.062 Y-6.925 Z-1.2 I0 J-0.925
X-42.062 Y-5.075 Z-1.35 I0 J0.925
X-42.062 Y-6.925 Z-1.5 I0 J-0.925
X-42.062 Y-5.075 Z-1.65 I0 J0.925
X-42.062 Y-6.925 Z-1.8 I0 J-0.925
X-42.062 Y-5.075 I0 J0.925
X-42.062 Y-6.925 I0 J-0.925
G1 X-42.025 Y-6.919
X-41.992 Y-6.902
X-41.965 Y-6.876
X-41.948 Y-6.842
X-41.942 Y-6.805
X-42.062 Y-6
G0 Z5
Y-42.062
Z2
G1 Z0 F1000
X-41.942 Y-41.257
X-41.948 Y-41.22
X-41.965 Y-41.187
X-41.992 Y-41.16
X-42.025 Y-41.143
X-42.062 Y-41.137
G3 X-42.062 Y-42.987 Z-0.15 I0 J-0.925
X-42.062 Y-41.137 Z-0.3 I0 J0.925
X-42.062 Y-42.987 Z-0.45 I0 J-0.925
X-42.062 Y-41.137 Z-0.6 I0 J0.925
X-42.062 Y-42.987 Z-0.75 I0 J-0.925
X-42.062 Y-41.137 Z-0.9 I0 J0.925
X-42.062 Y-42.987 Z-1.05 I0 J-0.925
X-42.062 Y-41.137 Z-1.2 I0 J0.925
X-42.062 Y-42.987 Z-1.35 I0 J-0.925
X-42.062 Y-41.137 Z-1.5 I0 J0.925
X-42.062 Y-42.987 Z-1.65 I0 J-0.925
X-42.062 Y-41.137 Z-1.8 I0 J0.925
X-42.062 Y-42.987 I0 J-0.925
X-42.062 Y-41.137 I0 J0.925
G1 X-42.1 Y-41.143
X-42.133 Y-41.16
X-42.16 Y-41.187
X-42.177 Y-41.22
X-42.182 Y-41.257
X-42.062 Y-42.062
G0 Z5
X-6
Z2
G1 Z0 F1000
X-5.88 Y-41.257
X-5.886 Y-41.22
X-5.903 Y-41.187
X-5.929 Y-41.16
X-5.963 Y-41.143
X-6 Y-41.137
G3 X-6 Y-42.987 Z-0.15 I0 J-0.925
X-6 Y-41.137 Z-0.3 I0 J0.925
X-6 Y-42.987 Z-0.45 I0 J-0.925
X-6 Y-41.137 Z-0.6 I0 J0.925
X-6 Y-42.987 Z-0.75 I0 J-0.925
X-6 Y-41.137 Z-0.9 I0 J0.925
X-6 Y-42.987 Z-1.05 I0 J-0.925
X-6 Y-41.137 Z-1.2 I0 J0.925
X-6 Y-42.987 Z-1.35 I0 J-0.925
X-6 Y-41.137 Z-1.5 I0 J0.925
X-6 Y-42.987 Z-1.65 I0 J-0.925
X-6 Y-41.137 Z-1.8 I0 J0.925
X-6 Y-42.987 I0 J-0.925
X-6 Y-41.137 I0 J0.925
G1 X-6.037 Y-41.143
X-6.071 Y-41.16
X-6.097 Y-41.187
X-6.114 Y-41.22
X-6.12 Y-41.257
X-6 Y-42.062
G0 Z15

(Bohrfrasen16)
X-6 Y-24.031
Z15
Z2
G1 Z0 F1000
X-6.12 Y-24.336
X-6.114 Y-24.373
X-6.097 Y-24.407
X-6.071 Y-24.433
X-6.037 Y-24.45
X-6 Y-24.456
G3 X-6 Y-23.606 Z-0.15 I0 J0.425
X-6 Y-24.456 Z-0.3 I0 J-0.425
X-6 Y-23.606 Z-0.45 I0 J0.425
X-6 Y-24.456 Z-0.6 I0 J-0.425
X-6 Y-23.606 Z-0.75 I0 J0.425
X-6 Y-24.456 Z-0.9 I0 J-0.425
X-6 Y-23.606 Z-1.05 I0 J0.425
X-6 Y-24.456 Z-1.2 I0 J-0.425
X-6 Y-23.606 Z-1.35 I0 J0.425
X-6 Y-24.456 Z-1.5 I0 J-0.425
X-6 Y-23.606 Z-1.65 I0 J0.425
X-6 Y-24.456 Z-1.8 I0 J-0.425
X-6 Y-23.606 I0 J0.425
X-6 Y-24.456 I0 J-0.425
G1 X-5.963 Y-24.45
X-5.929 Y-24.433
X-5.903 Y-24.407
X-5.886 Y-24.373
X-5.88 Y-24.336
X-6 Y-24.031
G0 Z5
X-14.031 Y-34.031
Z2
G1 Z0 F1000
X-13.911 Y-33.726
X-13.917 Y-33.689
X-13.934 Y-33.656
X-13.961 Y-33.629
X-13.994 Y-33.612
X-14.031 Y-33.606
G3 X-14.031 Y-34.456 Z-0.15 I0 J-0.425
X-14.031 Y-33.606 Z-0.3 I0 J0.425
X-14.031 Y-34.456 Z-0.45 I0 J-0.425
X-14.031 Y-33.606 Z-0.6 I0 J0.425
X-14.031 Y-34.456 Z-0.75 I0 J-0.425
X-14.031 Y-33.606 Z-0.9 I0 J0.425
X-14.031 Y-34.456 Z-1.05 I0 J-0.425
X-14.031 Y-33.606 Z-1.2 I0 J0.425
X-14.031 Y-34.456 Z-1.35 I0 J-0.425
X-14.031 Y-33.606 Z-1.5 I0 J0.425
X-14.031 Y-34.456 Z-1.65 I0 J-0.425
X-14.031 Y-33.606 Z-1.8 I0 J0.425
X-14.031 Y-34.456 I0 J-0.425
X-14.031 Y-33.606 I0 J0.425
G1 X-14.068 Y-33.612
X-14.102 Y-33.629
X-14.128 Y-33.656
X-14.145 Y-33.689
X-14.151 Y-33.726
X-14.031 Y-34.031
G0 Z5
X-24.031 Y-42.062
Z2
G1 Z0 F1000
X-23.911 Y-41.757
X-23.917 Y-41.72
X-23.934 Y-41.687
X-23.961 Y-41.66
X-23.994 Y-41.643
X-24.031 Y-41.637
G3 X-24.031 Y-42.487 Z-0.15 I0 J-0.425
X-24.031 Y-41.637 Z-0.3 I0 J0.425
X-24.031 Y-42.487 Z-0.45 I0 J-0.425
X-24.031 Y-41.637 Z-0.6 I0 J0.425
X-24.031 Y-42.487 Z-0.75 I0 J-0.425
X-24.031 Y-41.637 Z-0.9 I0 J0.425
X-24.031 Y-42.487 Z-1.05 I0 J-0.425
X-24.031 Y-41.637 Z-1.2 I0 J0.425
X-24.031 Y-42.487 Z-1.35 I0 J-0.425
X-24.031 Y-41.637 Z-1.5 I0 J0.425
X-24.031 Y-42.487 Z-1.65 I0 J-0.425
X-24.031 Y-41.637 Z-1.8 I0 J0.425
X-24.031 Y-42.487 I0 J-0.425
X-24.031 Y-41.637 I0 J0.425
G1 X-24.068 Y-41.643
X-24.102 Y-41.66
X-24.128 Y-41.687
X-24.145 Y-41.72
X-24.151 Y-41.757
X-24.031 Y-42.062
G0 Z5
X-34.031 Y-34.031
Z2
G1 Z0 F1000
X-33.911 Y-33.726
X-33.917 Y-33.689
X-33.934 Y-33.656
X-33.961 Y-33.629
X-33.994 Y-33.612
X-34.031 Y-33.606
G3 X-34.031 Y-34.456 Z-0.15 I0 J-0.425
X-34.031 Y-33.606 Z-0.3 I0 J0.425
X-34.031 Y-34.456 Z-0.45 I0 J-0.425
X-34.031 Y-33.606 Z-0.6 I0 J0.425
X-34.031 Y-34.456 Z-0.75 I0 J-0.425
X-34.031 Y-33.606 Z-0.9 I0 J0.425
X-34.031 Y-34.456 Z-1.05 I0 J-0.425
X-34.031 Y-33.606 Z-1.2 I0 J0.425
X-34.031 Y-34.456 Z-1.35 I0 J-0.425
X-34.031 Y-33.606 Z-1.5 I0 J0.425
X-34.031 Y-34.456 Z-1.65 I0 J-0.425
X-34.031 Y-33.606 Z-1.8 I0 J0.425
X-34.031 Y-34.456 I0 J-0.425
X-34.031 Y-33.606 I0 J0.425
G1 X-34.068 Y-33.612
X-34.102 Y-33.629
X-34.128 Y-33.656
X-34.145 Y-33.689
X-34.151 Y-33.726
X-34.031 Y-34.031
G0 Z5
X-42.062 Y-24.031
Z2
G1 Z0 F1000
X-41.942 Y-23.726
X-41.948 Y-23.689
X-41.965 Y-23.656
X-41.992 Y-23.629
X-42.025 Y-23.612
X-42.062 Y-23.606
G3 X-42.062 Y-24.456 Z-0.15 I0 J-0.425
X-42.062 Y-23.606 Z-0.3 I0 J0.425
X-42.062 Y-24.456 Z-0.45 I0 J-0.425
X-42.062 Y-23.606 Z-0.6 I0 J0.425
X-42.062 Y-24.456 Z-0.75 I0 J-0.425
X-42.062 Y-23.606 Z-0.9 I0 J0.425
X-42.062 Y-24.456 Z-1.05 I0 J-0.425
X-42.062 Y-23.606 Z-1.2 I0 J0.425
X-42.062 Y-24.456 Z-1.35 I0 J-0.425
X-42.062 Y-23.606 Z-1.5 I0 J0.425
X-42.062 Y-24.456 Z-1.65 I0 J-0.425
X-42.062 Y-23.606 Z-1.8 I0 J0.425
X-42.062 Y-24.456 I0 J-0.425
X-42.062 Y-23.606 I0 J0.425
G1 X-42.1 Y-23.612
X-42.133 Y-23.629
X-42.16 Y-23.656
X-42.177 Y-23.689
X-42.182 Y-23.726
X-42.062 Y-24.031
G0 Z5
X-34.031 Y-14.031
Z2
G1 Z0 F1000
X-34.151 Y-14.336
X-34.145 Y-14.373
X-34.128 Y-14.407
X-34.102 Y-14.433
X-34.068 Y-14.45
X-34.031 Y-14.456
G3 X-34.031 Y-13.606 Z-0.15 I0 J0.425
X-34.031 Y-14.456 Z-0.3 I0 J-0.425
X-34.031 Y-13.606 Z-0.45 I0 J0.425
X-34.031 Y-14.456 Z-0.6 I0 J-0.425
X-34.031 Y-13.606 Z-0.75 I0 J0.425
X-34.031 Y-14.456 Z-0.9 I0 J-0.425
X-34.031 Y-13.606 Z-1.05 I0 J0.425
X-34.031 Y-14.456 Z-1.2 I0 J-0.425
X-34.031 Y-13.606 Z-1.35 I0 J0.425
X-34.031 Y-14.456 Z-1.5 I0 J-0.425
X-34.031 Y-13.606 Z-1.65 I0 J0.425
X-34.031 Y-14.456 Z-1.8 I0 J-0.425
X-34.031 Y-13.606 I0 J0.425
X-34.031 Y-14.456 I0 J-0.425
G1 X-33.994 Y-14.45
X-33.961 Y-14.433
X-33.934 Y-14.407
X-33.917 Y-14.373
X-33.911 Y-14.336
X-34.031 Y-14.031
G0 Z5
X-24.031 Y-6
Z2
G1 Z0 F1000
X-24.151 Y-6.305
X-24.145 Y-6.342
X-24.128 Y-6.376
X-24.102 Y-6.402
X-24.068 Y-6.419
X-24.031 Y-6.425
G3 X-24.031 Y-5.575 Z-0.15 I0 J0.425
X-24.031 Y-6.425 Z-0.3 I0 J-0.425
X-24.031 Y-5.575 Z-0.45 I0 J0.425
X-24.031 Y-6.425 Z-0.6 I0 J-0.425
X-24.031 Y-5.575 Z-0.75 I0 J0.425
X-24.031 Y-6.425 Z-0.9 I0 J-0.425
X-24.031 Y-5.575 Z-1.05 I0 J0.425
X-24.031 Y-6.425 Z-1.2 I0 J-0.425
X-24.031 Y-5.575 Z-1.35 I0 J0.425
X-24.031 Y-6.425 Z-1.5 I0 J-0.425
X-24.031 Y-5.575 Z-1.65 I0 J0.425
X-24.031 Y-6.425 Z-1.8 I0 J-0.425
X-24.031 Y-5.575 I0 J0.425
X-24.031 Y-6.425 I0 J-0.425
G1 X-23.994 Y-6.419
X-23.961 Y-6.402
X-23.934 Y-6.376
X-23.917 Y-6.342
X-23.911 Y-6.305
X-24.031 Y-6
G0 Z5
X-14.031 Y-14.031
Z2
G1 Z0 F1000
X-14.151 Y-14.336
X-14.145 Y-14.373
X-14.128 Y-14.407
X-14.102 Y-14.433
X-14.068 Y-14.45
X-14.031 Y-14.456
G3 X-14.031 Y-13.606 Z-0.15 I0 J0.425
X-14.031 Y-14.456 Z-0.3 I0 J-0.425
X-14.031 Y-13.606 Z-0.45 I0 J0.425
X-14.031 Y-14.456 Z-0.6 I0 J-0.425
X-14.031 Y-13.606 Z-0.75 I0 J0.425
X-14.031 Y-14.456 Z-0.9 I0 J-0.425
X-14.031 Y-13.606 Z-1.05 I0 J0.425
X-14.031 Y-14.456 Z-1.2 I0 J-0.425
X-14.031 Y-13.606 Z-1.35 I0 J0.425
X-14.031 Y-14.456 Z-1.5 I0 J-0.425
X-14.031 Y-13.606 Z-1.65 I0 J0.425
X-14.031 Y-14.456 Z-1.8 I0 J-0.425
X-14.031 Y-13.606 I0 J0.425
X-14.031 Y-14.456 I0 J-0.425
G1 X-13.994 Y-14.45
X-13.961 Y-14.433
X-13.934 Y-14.407
X-13.917 Y-14.373
X-13.911 Y-14.336
X-14.031 Y-14.031
G0 Z15

(2D-Kontur4)
X-19.718 Y-27.931
Z15
Z5
G1 Z1.2 F200
Z0.5
S5000
X-11.5 Z0.213 F333.3
G3 X-10.6 Y-27.031 Z0.164 I0 J0.9
G1 Y-21.031 Z-0.046
G3 X-11.5 Y-20.131 Z-0.095 I-0.9 J0
G1 X-14.5 Z-0.2
S4000
X-36.562 F1000
G3 X-37.462 Y-21.031 I0 J-0.9
G1 Y-27.031
G3 X-36.562 Y-27.931 I0.9 J0
G1 X-11.5
G3 X-10.6 Y-27.031 I0 J0.9
G1 Y-21.031
G3 X-11.5 Y-20.131 I-0.9 J0
G1 X-14.5
S5000
X-20.227 Z-0.4 F333.3
S4000
X-36.562 F1000
G3 X-37.462 Y-21.031 I0 J-0.9
G1 Y-27.031
G3 X-36.562 Y-27.931 I0.9 J0
G1 X-11.5
G3 X-10.6 Y-27.031 I0 J0.9
G1 Y-21.031
G3 X-11.5 Y-20.131 I-0.9 J0
G1 X-20.227
S5000
X-25.955 Z-0.6 F333.3
S4000
X-36.562 F1000
G3 X-37.462 Y-21.031 I0 J-0.9
G1 Y-27.031
G3 X-36.562 Y-27.931 I0.9 J0
G1 X-11.5
G3 X-10.6 Y-27.031 I0 J0.9
G1 Y-21.031
G3 X-11.5 Y-20.131 I-0.9 J0
G1 X-20.227
X-25.955
S5000
X-31.682 Z-0.8 F333.3
S4000
X-36.562 F1000
G3 X-37.462 Y-21.031 I0 J-0.9
G1 Y-27.031
G3 X-36.562 Y-27.931 I0.9 J0
G1 X-11.5
G3 X-10.6 Y-27.031 I0 J0.9
G1 Y-21.031
G3 X-11.5 Y-20.131 I-0.9 J0
G1 X-25.955
X-31.682
S5000
X-36.562 Z-0.97 F333.3
G3 X-37.29 Y-20.501 Z-1 I0 J-0.9
S4000
X-37.462 Y-21.031 I0.727 J-0.53 F1000
G1 Y-27.031
G3 X-36.562 Y-27.931 I0.9 J0
G1 X-11.5
G3 X-10.6 Y-27.031 I0 J0.9
G1 Y-21.031
G3 X-11.5 Y-20.131 I-0.9 J0
G1 X-31.682
X-36.562
G3 X-37.29 Y-20.501 I0 J-0.9
S5000
X-37.462 Y-21.031 Z-1.02 I0.727 J-0.53 F333.3
G1 Y-26.191 Z-1.2
S4000
Y-27.031 F1000
G3 X-36.562 Y-27.931 I0.9 J0
G1 X-11.5
G3 X-10.6 Y-27.031 I0 J0.9
G1 Y-21.031
G3 X-11.5 Y-20.131 I-0.9 J0
G1 X-36.562
G3 X-37.462 Y-21.031 I0 J-0.9
G1 Y-26.191
S5000
Y-27.031 Z-1.229 F333.3
G3 X-36.562 Y-27.931 Z-1.279 I0.9 J0
G1 X-33.089 Z-1.4
S4000
X-11.5 F1000
G3 X-10.6 Y-27.031 I0 J0.9
G1 Y-21.031
G3 X-11.5 Y-20.131 I-0.9 J0
G1 X-36.562
G3 X-37.462 Y-21.031 I0 J-0.9
G1 Y-26.191
Y-27.031
G3 X-36.562 Y-27.931 I0.9 J0
G1 X-33.089
S5000
X-27.361 Z-1.6 F333.3
S4000
X-11.5 F1000
G3 X-10.6 Y-27.031 I0 J0.9
G1 Y-21.031
G3 X-11.5 Y-20.131 I-0.9 J0
G1 X-36.562
G3 X-37.462 Y-21.031 I0 J-0.9
G1 Y-27.031
G3 X-36.562 Y-27.931 I0.9 J0
G1 X-27.361
S5000
X-21.634 Z-1.8 F333.3
S4000
X-11.5 F1000
G3 X-10.6 Y-27.031 I0 J0.9
G1 Y-21.031
G3 X-11.5 Y-20.131 I-0.9 J0
G1 X-36.562
G3 X-37.462 Y-21.031 I0 J-0.9
G1 Y-27.031
G3 X-36.562 Y-27.931 I0.9 J0
G1 X-27.361
X-21.634
G0 Z5
X-27.391 Y-35.637
G1 Z1.2 F200
Z0.5
S5000
X-29.531 Z0.425 F333.3
G3 X-30.431 Y-36.537 Z0.376 I0 J-0.9
G1 Y-37.037 Z0.358
G3 X-29.531 Y-37.937 Z0.309 I0.9 J0
G1 X-18.531 Z-0.075
G3 X-17.631 Y-37.037 Z-0.124 I0 J0.9
G1 Y-36.537 Z-0.142
G3 X-18.531 Y-35.637 Z-0.191 I-0.9 J0
G1 X-18.781 Z-0.2
S4000
X-29.531 F1000
G3 X-30.431 Y-36.537 I0 J-0.9
G1 Y-37.037
G3 X-29.531 Y-37.937 I0.9 J0
G1 X-18.531
G3 X-17.631 Y-37.037 I0 J0.9
G1 Y-36.537
G3 X-18.531 Y-35.637 I-0.9 J0
G1 X-18.781
S5000
X-24.508 Z-0.4 F333.3
S4000
X-29.531 F1000
G3 X-30.431 Y-36.537 I0 J-0.9
G1 Y-37.037
G3 X-29.531 Y-37.937 I0.9 J0
G1 X-18.531
G3 X-17.631 Y-37.037 I0 J0.9
G1 Y-36.537
G3 X-18.531 Y-35.637 I-0.9 J0
G1 X-24.508
S5000
X-29.531 Z-0.575 F333.3
G3 X-30.166 Y-35.899 Z-0.6 I0 J-0.9
S4000
X-30.431 Y-36.537 I0.635 J-0.638 F1000
G1 Y-37.037
G3 X-29.531 Y-37.937 I0.9 J0
G1 X-18.531
G3 X-17.631 Y-37.037 I0 J0.9
G1 Y-36.537
G3 X-18.531 Y-35.637 I-0.9 J0
G1 X-24.508
X-29.531
G3 X-30.166 Y-35.899 I0 J-0.9
S5000
X-30.431 Y-36.537 Z-0.625 I0.635 J-0.638 F333.3
G1 Y-37.037 Z-0.642
G3 X-29.531 Y-37.937 Z-0.692 I0.9 J0
G1 X-26.427 Z-0.8
S4000
X-18.531 F1000
G3 X-17.631 Y-37.037 I0 J0.9
G1 Y-36.537
G3 X-18.531 Y-35.637 I-0.9 J0
G1 X-29.531
G3 X-30.431 Y-36.537 I0 J-0.9
G1 Y-37.037
G3 X-29.531 Y-37.937 I0.9 J0
G1 X-26.427
S5000
X-20.7 Z-1 F333.3
S4000
X-18.531 F1000
G3 X-17.631 Y-37.037 I0 J0.9
G1 Y-36.537
G3 X-18.531 Y-35.637 I-0.9 J0
G1 X-29.531
G3 X-30.431 Y-36.537 I0 J-0.9
G1 Y-37.037
G3 X-29.531 Y-37.937 I0.9 J0
G1 X-20.7
S5000
X-18.531 Z-1.076 F333.3
G3 X-17.631 Y-37.037 Z-1.125 I0 J0.9
G1 Y-36.537 Z-1.143
G3 X-18.531 Y-35.637 Z-1.192 I-0.9 J0
G1 X-18.763 Z-1.2
S4000
X-29.531 F1000
G3 X-30.431 Y-36.537 I0 J-0.9
G1 Y-37.037
G3 X-29.531 Y-37.937 I0.9 J0
G1 X-20.7
X-18.531
G3 X-17.631 Y-37.037 I0 J0.9
G1 Y-36.537
G3 X-18.531 Y-35.637 I-0.9 J0
G1 X-18.763
S5000
X-24.49 Z-1.4 F333.3
S4000
X-29.531 F1000
G3 X-30.431 Y-36.537 I0 J-0.9
G1 Y-37.037
G3 X-29.531 Y-37.937 I0.9 J0
G1 X-18.531
G3 X-17.631 Y-37.037 I0 J0.9
G1 Y-36.537
G3 X-18.531 Y-35.637 I-0.9 J0
G1 X-24.49
S5000
X-29.531 Z-1.576 F333.3
G3 X-30.153 Y-35.886 Z-1.6 I0 J-0.9
S4000
X-30.431 Y-36.537 I0.621 J-0.651 F1000
G1 Y-37.037
G3 X-29.531 Y-37.937 I0.9 J0
G1 X-18.531
G3 X-17.631 Y-37.037 I0 J0.9
G1 Y-36.537
G3 X-18.531 Y-35.637 I-0.9 J0
G1 X-24.49
X-29.531
G3 X-30.153 Y-35.886 I0 J-0.9
S5000
X-30.431 Y-36.537 Z-1.625 I0.621 J-0.651 F333.3
G1 Y-37.037 Z-1.643
G3 X-29.531 Y-37.937 Z-1.692 I0.9 J0
G1 X-26.445 Z-1.8
S4000
X-18.531 F1000
G3 X-17.631 Y-37.037 I0 J0.9
G1 Y-36.537
G3 X-18.531 Y-35.637 I-0.9 J0
G1 X-29.531
G3 X-30.431 Y-36.537 I0 J-0.9
G1 Y-37.037
G3 X-29.531 Y-37.937 I0.9 J0
G1 X-26.445
G0 Z5
X-22.585 Y-12.425
G1 Z1.2 F200
Z0.5
S5000
X-18.531 Z0.358 F333.3
G3 X-17.631 Y-11.525 Z0.309 I0 J0.9
G1 Y-11.025 Z0.292
G3 X-18.531 Y-10.125 Z0.242 I-0.9 J0
G1 X-29.531 Z-0.142
G3 X-30.431 Y-11.025 Z-0.191 I0 J-0.9
G1 Y-11.275 Z-0.2
S4000
Y-11.525 F1000
G3 X-29.531 Y-12.425 I0.9 J0
G1 X-18.531
G3 X-17.631 Y-11.525 I0 J0.9
G1 Y-11.025
G3 X-18.531 Y-10.125 I-0.9 J0
G1 X-29.531
G3 X-30.431 Y-11.025 I0 J-0.9
G1 Y-11.275
S5000
Y-11.525 Z-0.209 F333.3
G3 X-29.531 Y-12.425 Z-0.258 I0.9 J0
G1 X-25.468 Z-0.4
S4000
X-18.531 F1000
G3 X-17.631 Y-11.525 I0 J0.9
G1 Y-11.025
G3 X-18.531 Y-10.125 I-0.9 J0
G1 X-29.531
G3 X-30.431 Y-11.025 I0 J-0.9
G1 Y-11.525
G3 X-29.531 Y-12.425 I0.9 J0
G1 X-25.468
S5000
X-19.74 Z-0.6 F333.3
S4000
X-18.531 F1000
G3 X-17.631 Y-11.525 I0 J0.9
G1 Y-11.025
G3 X-18.531 Y-10.125 I-0.9 J0
G1 X-29.531
G3 X-30.431 Y-11.025 I0 J-0.9
G1 Y-11.525
G3 X-29.531 Y-12.425 I0.9 J0
G1 X-19.74
S5000
X-18.531 Z-0.642 F333.3
G3 X-17.631 Y-11.525 Z-0.692 I0 J0.9
G1 Y-11.025 Z-0.709
G3 X-18.531 Y-10.125 Z-0.758 I-0.9 J0
G1 X-19.722 Z-0.8
S4000
X-29.531 F1000
G3 X-30.431 Y-11.025 I0 J-0.9
G1 Y-11.525
G3 X-29.531 Y-12.425 I0.9 J0
G1 X-19.74
X-18.531
G3 X-17.631 Y-11.525 I0 J0.9
G1 Y-11.025
G3 X-18.531 Y-10.125 I-0.9 J0
G1 X-19.722
S5000
X-25.449 Z-1 F333.3
S4000
X-29.531 F1000
G3 X-30.431 Y-11.025 I0 J-0.9
G1 Y-11.525
G3 X-29.531 Y-12.425 I0.9 J0
G1 X-18.531
G3 X-17.631 Y-11.525 I0 J0.9
G1 Y-11.025
G3 X-18.531 Y-10.125 I-0.9 J0
G1 X-25.449
S5000
X-29.531 Z-1.143 F333.3
G3 X-30.431 Y-11.025 Z-1.192 I0 J-0.9
G1 Y-11.256 Z-1.2
S4000
Y-11.525 F1000
G3 X-29.531 Y-12.425 I0.9 J0
G1 X-18.531
G3 X-17.631 Y-11.525 I0 J0.9
G1 Y-11.025
G3 X-18.531 Y-10.125 I-0.9 J0
G1 X-25.449
X-29.531
G3 X-30.431 Y-11.025 I0 J-0.9
G1 Y-11.256
S5000
Y-11.525 Z-1.209 F333.3
G3 X-29.531 Y-12.425 Z-1.259 I0.9 J0
G1 X-25.486 Z-1.4
S4000
X-18.531 F1000
G3 X-17.631 Y-11.525 I0 J0.9
G1 Y-11.025
G3 X-18.531 Y-10.125 I-0.9 J0
G1 X-29.531
G3 X-30.431 Y-11.025 I0 J-0.9
G1 Y-11.525
G3 X-29.531 Y-12.425 I0.9 J0
G1 X-25.486
S5000
X-19.759 Z-1.6 F333.3
S4000
X-18.531 F1000
G3 X-17.631 Y-11.525 I0 J0.9
G1 Y-11.025
G3 X-18.531 Y-10.125 I-0.9 J0
G1 X-29.531
G3 X-30.431 Y-11.025 I0 J-0.9
G1 Y-11.525
G3 X-29.531 Y-12.425 I0.9 J0
G1 X-19.759
S5000
X-18.531 Z-1.643 F333.3
G3 X-17.631 Y-11.525 Z-1.692 I0 J0.9
G1 Y-11.025 Z-1.71
G3 X-18.531 Y-10.125 Z-1.759 I-0.9 J0
G1 X-19.703 Z-1.8
S4000
X-29.531 F1000
G3 X-30.431 Y-11.025 I0 J-0.9
G1 Y-11.525
G3 X-29.531 Y-12.425 I0.9 J0
G1 X-19.759
X-18.531
G3 X-17.631 Y-11.525 I0 J0.9
G1 Y-11.025
G3 X-18.531 Y-10.125 I-0.9 J0
G1 X-19.703
G0 Z15

(2D-Kontur5)
X-44.916 Y-11.302
Z15
Z5
G1 Z1.2 F200
Z1
S5000
X-44.979 Y-11.202 Z0.996 F333.3
X-45.275 Y-10.796 Z0.978
X-45.623 Y-10.382 Z0.959
X-46.028 Y-9.954 Z0.939
G2 X-38.108 Y-2.035 Z0.325 I3.966 J3.954
G1 X-37.644 Y-2.477 Z0.303
X-37.199 Y-2.857 Z0.282
X-36.769 Y-3.181 Z0.263
X-36.354 Y-3.452 Z0.246
X-35.948 Y-3.675 Z0.23
X-35.758 Y-3.765 Z0.223
X-35.565 Y-3.846 Z0.215
X-35.376 Y-3.916 Z0.208
X-35.196 Y-3.974 Z0.202
X-34.823 Y-4.066 Z0.188
X-34.462 Y-4.122 Z0.175
X-34.105 Y-4.145 Z0.163
X-33.748 Y-4.138 Z0.151
X-33.388 Y-4.103 Z0.138
X-33.025 Y-4.044 Z0.125
X-32.656 Y-3.962 Z0.112
X-32.28 Y-3.859 Z0.098
X-31.896 Y-3.739 Z0.084
X-31.504 Y-3.605 Z0.07
X-31.102 Y-3.458 Z0.055
X-30.69 Y-3.304 Z0.039
X-30.269 Y-3.145 Z0.024
X-30.266 Y-3.144
X-29.836 Y-2.984 Z0.008
X-29.829 Y-2.981 Z0.007
X-29.389 Y-2.824 Z-0.009
X-29.379 Y-2.82
X-28.929 Y-2.668 Z-0.026
X-28.915 Y-2.664
X-28.453 Y-2.52 Z-0.043
X-28.437 Y-2.515 Z-0.044
X-27.962 Y-2.381 Z-0.061
X-27.944 Y-2.376 Z-0.062
X-27.454 Y-2.255 Z-0.079
X-27.434 Y-2.25 Z-0.08
X-26.93 Y-2.144 Z-0.098
X-26.908 Y-2.14 Z-0.099
X-26.388 Y-2.05 Z-0.117
X-26.365 Y-2.046 Z-0.118
X-25.828 Y-1.975 Z-0.137
X-25.805 Y-1.972 Z-0.138
X-25.25 Y-1.92 Z-0.157
X-25.227 Y-1.918 Z-0.158
X-24.655 Y-1.887 Z-0.178
X-24.633 Y-1.886 Z-0.179
X-24.042 Y-1.875 Z-0.2
X-24.031
S4000
X-24.02 F1000
X-23.43 Y-1.886
X-23.407 Y-1.887
X-22.835 Y-1.918
X-22.812 Y-1.92
X-22.257 Y-1.972
X-22.234 Y-1.975
X-21.697 Y-2.046
X-21.675 Y-2.05
X-21.154 Y-2.14
X-21.133 Y-2.144
X-20.628 Y-2.25
X-20.608 Y-2.255
X-20.119 Y-2.376
X-20.101 Y-2.381
X-19.625 Y-2.515
X-19.609 Y-2.52
X-19.147 Y-2.664
X-19.134 Y-2.668
X-18.684 Y-2.82
X-18.673 Y-2.824
X-18.234 Y-2.981
X-18.227 Y-2.984
X-17.797 Y-3.144
X-17.794 Y-3.145
X-17.372 Y-3.304
X-16.96 Y-3.458
X-16.558 Y-3.605
X-16.166 Y-3.739
X-15.782 Y-3.859
X-15.406 Y-3.962
X-15.037 Y-4.044
X-14.674 Y-4.103
X-14.315 Y-4.138
X-13.958 Y-4.145
X-13.6 Y-4.122
X-13.24 Y-4.066
X-12.866 Y-3.974
X-12.686 Y-3.916
X-12.497 Y-3.846
X-12.305 Y-3.765
X-12.115 Y-3.675
X-11.709 Y-3.452
X-11.293 Y-3.181
X-10.863 Y-2.857
X-10.419 Y-2.477
X-9.955 Y-2.035
G2 X-2.034 Y-9.954 I3.955 J-3.965
G1 X-2.44 Y-10.382
X-2.787 Y-10.796
X-3.083 Y-11.202
X-3.331 Y-11.599
X-3.533 Y-11.988
X-3.693 Y-12.37
X-3.813 Y-12.747
X-3.898 Y-13.121
X-3.95 Y-13.495
X-3.971 Y-13.869
X-3.965 Y-14.247
X-3.933 Y-14.629
X-3.877 Y-15.017
X-3.8 Y-15.411
X-3.704 Y-15.812
X-3.593 Y-16.22
X-3.468 Y-16.636
X-3.333 Y-17.06
X-3.19 Y-17.491
X-3.043 Y-17.931
Y-17.932
X-2.895 Y-18.379
X-2.893 Y-18.384
X-2.748 Y-18.836
X-2.745 Y-18.844
X-2.605 Y-19.304
X-2.602 Y-19.315
X-2.468 Y-19.782
X-2.465 Y-19.795
X-2.341 Y-20.271
X-2.337 Y-20.287
X-2.225 Y-20.772
X-2.221 Y-20.79
X-2.123 Y-21.284
X-2.119 Y-21.303
X-2.036 Y-21.808
X-2.033 Y-21.828
X-1.967 Y-22.343
X-1.965 Y-22.365
X-1.917 Y-22.891
X-1.915 Y-22.913
X-1.886 Y-23.45
X-1.885 Y-23.472
X-1.875 Y-24.02
Y-24.042
X-1.885 Y-24.59
X-1.886 Y-24.612
X-1.915 Y-25.149
X-1.917 Y-25.172
X-1.965 Y-25.697
X-1.967 Y-25.719
X-2.033 Y-26.234
X-2.036 Y-26.255
X-2.119 Y-26.759
X-2.123 Y-26.779
X-2.221 Y-27.273
X-2.225 Y-27.291
X-2.337 Y-27.775
X-2.341 Y-27.791
X-2.465 Y-28.267
X-2.468 Y-28.28
X-2.602 Y-28.748
X-2.605 Y-28.759
X-2.745 Y-29.218
X-2.748 Y-29.226
X-2.893 Y-29.679
X-2.895 Y-29.684
X-3.043 Y-30.13
Y-30.132
X-3.19 Y-30.571
X-3.333 Y-31.003
X-3.468 Y-31.426
X-3.593 Y-31.842
X-3.704 Y-32.25
X-3.8 Y-32.651
X-3.877 Y-33.045
X-3.933 Y-33.433
X-3.965 Y-33.816
X-3.971 Y-34.193
X-3.95 Y-34.568
X-3.898 Y-34.941
X-3.813 Y-35.315
X-3.693 Y-35.692
X-3.533 Y-36.075
X-3.331 Y-36.464
X-3.083 Y-36.861
X-2.787 Y-37.266
X-2.44 Y-37.68
X-2.034 Y-38.108
G2 X-9.955 Y-46.027 I-3.966 J-3.954
G1 X-10.419 Y-45.585
X-10.863 Y-45.205
X-11.293 Y-44.881
X-11.709 Y-44.61
X-12.115 Y-44.387
X-12.305 Y-44.298
X-12.497 Y-44.217
X-12.686 Y-44.146
X-12.867 Y-44.089
X-13.24 Y-43.996
X-13.6 Y-43.941
X-13.958 Y-43.918
X-14.315 Y-43.925
X-14.674 Y-43.959
X-15.037 Y-44.018
X-15.407 Y-44.101
X-15.783 Y-44.203
X-16.166 Y-44.323
X-16.558 Y-44.458
X-16.96 Y-44.604
X-17.372 Y-44.759
X-17.794 Y-44.918
X-17.797 Y-44.919
X-18.227 Y-45.079
X-18.234 Y-45.081
X-18.673 Y-45.239
X-18.684 Y-45.242
X-19.134 Y-45.394
X-19.147 Y-45.399
X-19.609 Y-45.543
X-19.625 Y-45.548
X-20.101 Y-45.681
X-20.119 Y-45.686
X-20.608 Y-45.807
X-20.628 Y-45.812
X-21.132 Y-45.919
X-21.154 Y-45.923
X-21.675 Y-46.013
X-21.697 Y-46.016
X-22.234 Y-46.088
X-22.257 Y-46.09
X-22.812 Y-46.142
X-22.835 Y-46.144
X-23.407 Y-46.176
X-23.43 Y-46.177
X-24.02 Y-46.187
X-24.042
X-24.633 Y-46.177
X-24.655 Y-46.176
X-25.227 Y-46.144
X-25.251 Y-46.142
X-25.805 Y-46.09
X-25.828 Y-46.088
X-26.365 Y-46.016
X-26.388 Y-46.013
X-26.908 Y-45.923
X-26.93 Y-45.919
X-27.434 Y-45.812
X-27.454 Y-45.807
X-27.944 Y-45.686
X-27.962 Y-45.681
X-28.437 Y-45.548
X-28.453 Y-45.543
X-28.915 Y-45.399
X-28.929 Y-45.394
X-29.379 Y-45.242
X-29.389 Y-45.239
X-29.829 Y-45.081
X-29.836 Y-45.079
X-30.266 Y-44.919
X-30.269 Y-44.918
X-30.69 Y-44.759
X-31.102 Y-44.604
X-31.504 Y-44.458
X-31.896 Y-44.323
X-32.28 Y-44.203
X-32.656 Y-44.101
X-33.025 Y-44.018
X-33.389 Y-43.959
X-33.748 Y-43.925
X-34.105 Y-43.918
X-34.462 Y-43.941
X-34.823 Y-43.996
X-35.196 Y-44.089
X-35.376 Y-44.146
X-35.566 Y-44.217
X-35.758 Y-44.298
X-35.948 Y-44.387
X-36.354 Y-44.61
X-36.769 Y-44.881
X-37.199 Y-45.205
X-37.644 Y-45.585
X-38.108 Y-46.027
G2 X-46.028 Y-38.108 I-3.955 J3.965
G1 X-45.623 Y-37.68
X-45.275 Y-37.266
X-44.979 Y-36.861
X-44.731 Y-36.464
X-44.529 Y-36.075
X-44.37 Y-35.692
X-44.249 Y-35.315
X-44.164 Y-34.941
X-44.113 Y-34.568
X-44.091 Y-34.193
X-44.098 Y-33.816
X-44.13 Y-33.433
X-44.185 Y-33.045
X-44.262 Y-32.651
X-44.358 Y-32.25
X-44.47 Y-31.842
X-44.595 Y-31.426
X-44.73 Y-31.003
X-44.872 Y-30.571
X-45.019 Y-30.132
X-45.02 Y-30.13
X-45.168 Y-29.684
X-45.169 Y-29.679
X-45.315 Y-29.226
X-45.317 Y-29.218
X-45.458 Y-28.759
X-45.461 Y-28.748
X-45.594 Y-28.28
X-45.598 Y-28.267
X-45.721 Y-27.791
X-45.725 Y-27.776
X-45.837 Y-27.291
X-45.841 Y-27.273
X-45.939 Y-26.779
X-45.943 Y-26.759
X-46.026 Y-26.255
X-46.029 Y-26.234
X-46.095 Y-25.719
X-46.098 Y-25.697
X-46.146 Y-25.172
X-46.147 Y-25.149
X-46.177 Y-24.612
X-46.178 Y-24.59
X-46.187 Y-24.042
Y-24.02
X-46.178 Y-23.472
X-46.177 Y-23.45
X-46.147 Y-22.913
X-46.146 Y-22.891
X-46.098 Y-22.365
X-46.095 Y-22.343
X-46.029 Y-21.829
X-46.026 Y-21.808
X-45.943 Y-21.303
X-45.939 Y-21.284
X-45.841 Y-20.79
X-45.837 Y-20.771
X-45.725 Y-20.287
X-45.721 Y-20.271
X-45.598 Y-19.795
X-45.594 Y-19.782
X-45.461 Y-19.315
X-45.458 Y-19.304
X-45.317 Y-18.844
X-45.315 Y-18.836
X-45.169 Y-18.384
X-45.168 Y-18.379
X-45.02 Y-17.933
X-45.019 Y-17.931
X-44.872 Y-17.491
X-44.73 Y-17.06
X-44.595 Y-16.636
X-44.47 Y-16.22
X-44.358 Y-15.812
X-44.262 Y-15.411
X-44.185 Y-15.017
X-44.13 Y-14.629
X-44.098 Y-14.247
X-44.091 Y-13.869
X-44.113 Y-13.495
X-44.164 Y-13.121
X-44.249 Y-12.747
X-44.37 Y-12.37
X-44.529 Y-11.988
X-44.731 Y-11.599
X-44.979 Y-11.202
X-45.275 Y-10.796
X-45.623 Y-10.382
X-46.028 Y-9.954
G2 X-38.108 Y-2.035 I3.966 J3.954
G1 X-37.644 Y-2.477
X-37.199 Y-2.857
X-36.769 Y-3.181
X-36.354 Y-3.452
X-35.948 Y-3.675
X-35.758 Y-3.765
X-35.565 Y-3.846
X-35.376 Y-3.916
X-35.196 Y-3.974
X-34.823 Y-4.066
X-34.462 Y-4.122
X-34.105 Y-4.145
X-33.748 Y-4.138
X-33.388 Y-4.103
X-33.025 Y-4.044
X-32.656 Y-3.962
X-32.28 Y-3.859
X-31.896 Y-3.739
X-31.504 Y-3.605
X-31.102 Y-3.458
X-30.69 Y-3.304
X-30.269 Y-3.145
X-30.266 Y-3.144
X-29.836 Y-2.984
X-29.829 Y-2.981
X-29.389 Y-2.824
X-29.379 Y-2.82
X-28.929 Y-2.668
X-28.915 Y-2.664
X-28.453 Y-2.52
X-28.437 Y-2.515
X-27.962 Y-2.381
X-27.944 Y-2.376
X-27.454 Y-2.255
X-27.434 Y-2.25
X-26.93 Y-2.144
X-26.908 Y-2.14
X-26.388 Y-2.05
X-26.365 Y-2.046
X-25.828 Y-1.975
X-25.805 Y-1.972
X-25.25 Y-1.92
X-25.227 Y-1.918
X-24.655 Y-1.887
X-24.633 Y-1.886
X-24.042 Y-1.875
X-24.031
S5000
X-24.02 F333.3
X-23.43 Y-1.886 Z-0.221
X-23.407 Y-1.887 Z-0.222
X-22.835 Y-1.918 Z-0.242
X-22.812 Y-1.92 Z-0.243
X-22.257 Y-1.972 Z-0.262
X-22.234 Y-1.975 Z-0.263
X-21.697 Y-2.046 Z-0.282
X-21.675 Y-2.05 Z-0.283
X-21.154 Y-2.14 Z-0.301
X-21.133 Y-2.144 Z-0.302
X-20.628 Y-2.25 Z-0.32
X-20.608 Y-2.255 Z-0.321
X-20.119 Y-2.376 Z-0.338
X-20.101 Y-2.381 Z-0.339
X-19.625 Y-2.515 Z-0.356
X-19.609 Y-2.52 Z-0.357
X-19.147 Y-2.664 Z-0.374
X-19.134 Y-2.668
X-18.684 Y-2.82 Z-0.391
X-18.673 Y-2.824
X-18.43 Y-2.911 Z-0.4
S4000
X-18.234 Y-2.981 F1000
X-18.227 Y-2.984
X-17.797 Y-3.144
X-17.794 Y-3.145
X-17.372 Y-3.304
X-16.96 Y-3.458
X-16.558 Y-3.605
X-16.166 Y-3.739
X-15.782 Y-3.859
X-15.406 Y-3.962
X-15.037 Y-4.044
X-14.674 Y-4.103
X-14.315 Y-4.138
X-13.958 Y-4.145
X-13.6 Y-4.122
X-13.24 Y-4.066
X-12.866 Y-3.974
X-12.686 Y-3.916
X-12.497 Y-3.846
X-12.305 Y-3.765
X-12.115 Y-3.675
X-11.709 Y-3.452
X-11.293 Y-3.181
X-10.863 Y-2.857
X-10.419 Y-2.477
X-9.955 Y-2.035
G2 X-2.034 Y-9.954 I3.955 J-3.965
G1 X-2.44 Y-10.382
X-2.787 Y-10.796
X-3.083 Y-11.202
X-3.331 Y-11.599
X-3.533 Y-11.988
X-3.693 Y-12.37
X-3.813 Y-12.747
X-3.898 Y-13.121
X-3.95 Y-13.495
X-3.971 Y-13.869
X-3.965 Y-14.247
X-3.933 Y-14.629
X-3.877 Y-15.017
X-3.8 Y-15.411
X-3.704 Y-15.812
X-3.593 Y-16.22
X-3.468 Y-16.636
X-3.333 Y-17.06
X-3.19 Y-17.491
X-3.043 Y-17.931
Y-17.932
X-2.895 Y-18.379
X-2.893 Y-18.384
X-2.748 Y-18.836
X-2.745 Y-18.844
X-2.605 Y-19.304
X-2.602 Y-19.315
X-2.468 Y-19.782
X-2.465 Y-19.795
X-2.341 Y-20.271
X-2.337 Y-20.287
X-2.225 Y-20.772
X-2.221 Y-20.79
X-2.123 Y-21.284
X-2.119 Y-21.303
X-2.036 Y-21.808
X-2.033 Y-21.828
X-1.967 Y-22.343
X-1.965 Y-22.365
X-1.917 Y-22.891
X-1.915 Y-22.913
X-1.886 Y-23.45
X-1.885 Y-23.472
X-1.875 Y-24.02
Y-24.042
X-1.885 Y-24.59
X-1.886 Y-24.612
X-1.915 Y-25.149
X-1.917 Y-25.172
X-1.965 Y-25.697
X-1.967 Y-25.719
X-2.033 Y-26.234
X-2.036 Y-26.255
X-2.119 Y-26.759
X-2.123 Y-26.779
X-2.221 Y-27.273
X-2.225 Y-27.291
X-2.337 Y-27.775
X-2.341 Y-27.791
X-2.465 Y-28.267
X-2.468 Y-28.28
X-2.602 Y-28.748
X-2.605 Y-28.759
X-2.745 Y-29.218
X-2.748 Y-29.226
X-2.893 Y-29.679
X-2.895 Y-29.684
X-3.043 Y-30.13
Y-30.132
X-3.19 Y-30.571
X-3.333 Y-31.003
X-3.468 Y-31.426
X-3.593 Y-31.842
X-3.704 Y-32.25
X-3.8 Y-32.651
X-3.877 Y-33.045
X-3.933 Y-33.433
X-3.965 Y-33.816
X-3.971 Y-34.193
X-3.95 Y-34.568
X-3.898 Y-34.941
X-3.813 Y-35.315
X-3.693 Y-35.692
X-3.533 Y-36.075
X-3.331 Y-36.464
X-3.083 Y-36.861
X-2.787 Y-37.266
X-2.44 Y-37.68
X-2.034 Y-38.108
G2 X-9.955 Y-46.027 I-3.966 J-3.954
G1 X-10.419 Y-45.585
X-10.863 Y-45.205
X-11.293 Y-44.881
X-11.709 Y-44.61
X-12.115 Y-44.387
X-12.305 Y-44.298
X-12.497 Y-44.217
X-12.686 Y-44.146
X-12.867 Y-44.089
X-13.24 Y-43.996
X-13.6 Y-43.941
X-13.958 Y-43.918
X-14.315 Y-43.925
X-14.674 Y-43.959
X-15.037 Y-44.018
X-15.407 Y-44.101
X-15.783 Y-44.203
X-16.166 Y-44.323
X-16.558 Y-44.458
X-16.96 Y-44.604
X-17.372 Y-44.759
X-17.794 Y-44.918
X-17.797 Y-44.919
X-18.227 Y-45.079
X-18.234 Y-45.081
X-18.673 Y-45.239
X-18.684 Y-45.242
X-19.134 Y-45.394
X-19.147 Y-45.399
X-19.609 Y-45.543
X-19.625 Y-45.548
X-20.101 Y-45.681
X-20.119 Y-45.686
X-20.608 Y-45.807
X-20.628 Y-45.812
X-21.132 Y-45.919
X-21.154 Y-45.923
X-21.675 Y-46.013
X-21.697 Y-46.016
X-22.234 Y-46.088
X-22.257 Y-46.09
X-22.812 Y-46.142
X-22.835 Y-46.144
X-23.407 Y-46.176
X-23.43 Y-46.177
X-24.02 Y-46.187
X-24.042
X-24.633 Y-46.177
X-24.655 Y-46.176
X-25.227 Y-46.144
X-25.251 Y-46.142
X-25.805 Y-46.09
X-25.828 Y-46.088
X-26.365 Y-46.016
X-26.388 Y-46.013
X-26.908 Y-45.923
X-26.93 Y-45.919
X-27.434 Y-45.812
X-27.454 Y-45.807
X-27.944 Y-45.686
X-27.962 Y-45.681
X-28.437 Y-45.548
X-28.453 Y-45.543
X-28.915 Y-45.399
X-28.929 Y-45.394
X-29.379 Y-45.242
X-29.389 Y-45.239
X-29.829 Y-45.081
X-29.836 Y-45.079
X-30.266 Y-44.919
X-30.269 Y-44.918
X-30.69 Y-44.759
X-31.102 Y-44.604
X-31.504 Y-44.458
X-31.896 Y-44.323
X-32.28 Y-44.203
X-32.656 Y-44.101
X-33.025 Y-44.018
X-33.389 Y-43.959
X-33.748 Y-43.925
X-34.105 Y-43.918
X-34.462 Y-43.941
X-34.823 Y-43.996
X-35.196 Y-44.089
X-35.376 Y-44.146
X-35.566 Y-44.217
X-35.758 Y-44.298
X-35.948 Y-44.387
X-36.354 Y-44.61
X-36.769 Y-44.881
X-37.199 Y-45.205
X-37.644 Y-45.585
X-38.108 Y-46.027
G2 X-46.028 Y-38.108 I-3.955 J3.965
G1 X-45.623 Y-37.68
X-45.275 Y-37.266
X-44.979 Y-36.861
X-44.731 Y-36.464
X-44.529 Y-36.075
X-44.37 Y-35.692
X-44.249 Y-35.315
X-44.164 Y-34.941
X-44.113 Y-34.568
X-44.091 Y-34.193
X-44.098 Y-33.816
X-44.13 Y-33.433
X-44.185 Y-33.045
X-44.262 Y-32.651
X-44.358 Y-32.25
X-44.47 Y-31.842
X-44.595 Y-31.426
X-44.73 Y-31.003
X-44.872 Y-30.571
X-45.019 Y-30.132
X-45.02 Y-30.13
X-45.168 Y-29.684
X-45.169 Y-29.679
X-45.315 Y-29.226
X-45.317 Y-29.218
X-45.458 Y-28.759
X-45.461 Y-28.748
X-45.594 Y-28.28
X-45.598 Y-28.267
X-45.721 Y-27.791
X-45.725 Y-27.776
X-45.837 Y-27.291
X-45.841 Y-27.273
X-45.939 Y-26.779
X-45.943 Y-26.759
X-46.026 Y-26.255
X-46.029 Y-26.234
X-46.095 Y-25.719
X-46.098 Y-25.697
X-46.146 Y-25.172
X-46.147 Y-25.149
X-46.177 Y-24.612
X-46.178 Y-24.59
X-46.187 Y-24.042
Y-24.02
X-46.178 Y-23.472
X-46.177 Y-23.45
X-46.147 Y-22.913
X-46.146 Y-22.891
X-46.098 Y-22.365
X-46.095 Y-22.343
X-46.029 Y-21.829
X-46.026 Y-21.808
X-45.943 Y-21.303
X-45.939 Y-21.284
X-45.841 Y-20.79
X-45.837 Y-20.771
X-45.725 Y-20.287
X-45.721 Y-20.271
X-45.598 Y-19.795
X-45.594 Y-19.782
X-45.461 Y-19.315
X-45.458 Y-19.304
X-45.317 Y-18.844
X-45.315 Y-18.836
X-45.169 Y-18.384
X-45.168 Y-18.379
X-45.02 Y-17.933
X-45.019 Y-17.931
X-44.872 Y-17.491
X-44.73 Y-17.06
X-44.595 Y-16.636
X-44.47 Y-16.22
X-44.358 Y-15.812
X-44.262 Y-15.411
X-44.185 Y-15.017
X-44.13 Y-14.629
X-44.098 Y-14.247
X-44.091 Y-13.869
X-44.113 Y-13.495
X-44.164 Y-13.121
X-44.249 Y-12.747
X-44.37 Y-12.37
X-44.529 Y-11.988
X-44.731 Y-11.599
X-44.979 Y-11.202
X-45.275 Y-10.796
X-45.623 Y-10.382
X-46.028 Y-9.954
G2 X-38.108 Y-2.035 I3.966 J3.954
G1 X-37.644 Y-2.477
X-37.199 Y-2.857
X-36.769 Y-3.181
X-36.354 Y-3.452
X-35.948 Y-3.675
X-35.758 Y-3.765
X-35.565 Y-3.846
X-35.376 Y-3.916
X-35.196 Y-3.974
X-34.823 Y-4.066
X-34.462 Y-4.122
X-34.105 Y-4.145
X-33.748 Y-4.138
X-33.388 Y-4.103
X-33.025 Y-4.044
X-32.656 Y-3.962
X-32.28 Y-3.859
X-31.896 Y-3.739
X-31.504 Y-3.605
X-31.102 Y-3.458
X-30.69 Y-3.304
X-30.269 Y-3.145
X-30.266 Y-3.144
X-29.836 Y-2.984
X-29.829 Y-2.981
X-29.389 Y-2.824
X-29.379 Y-2.82
X-28.929 Y-2.668
X-28.915 Y-2.664
X-28.453 Y-2.52
X-28.437 Y-2.515
X-27.962 Y-2.381
X-27.944 Y-2.376
X-27.454 Y-2.255
X-27.434 Y-2.25
X-26.93 Y-2.144
X-26.908 Y-2.14
X-26.388 Y-2.05
X-26.365 Y-2.046
X-25.828 Y-1.975
X-25.805 Y-1.972
X-25.25 Y-1.92
X-25.227 Y-1.918
X-24.655 Y-1.887
X-24.633 Y-1.886
X-24.042 Y-1.875
X-24.02
X-23.43 Y-1.886
X-23.407 Y-1.887
X-22.835 Y-1.918
X-22.812 Y-1.92
X-22.257 Y-1.972
X-22.234 Y-1.975
X-21.697 Y-2.046
X-21.675 Y-2.05
X-21.154 Y-2.14
X-21.133 Y-2.144
X-20.628 Y-2.25
X-20.608 Y-2.255
X-20.119 Y-2.376
X-20.101 Y-2.381
X-19.625 Y-2.515
X-19.609 Y-2.52
X-19.147 Y-2.664
X-19.134 Y-2.668
X-18.684 Y-2.82
X-18.673 Y-2.824
X-18.43 Y-2.911
S5000
X-18.234 Y-2.981 Z-0.407 F333.3
X-18.227 Y-2.984 Z-0.408
X-17.797 Y-3.144 Z-0.424
X-17.794 Y-3.145
X-17.372 Y-3.304 Z-0.439
X-16.96 Y-3.458 Z-0.455
X-16.558 Y-3.605 Z-0.47
X-16.166 Y-3.739 Z-0.484
X-15.782 Y-3.859 Z-0.498
X-15.406 Y-3.962 Z-0.512
X-15.037 Y-4.044 Z-0.525
X-14.674 Y-4.103 Z-0.538
X-14.315 Y-4.138 Z-0.551
X-13.958 Y-4.145 Z-0.563
X-13.6 Y-4.122 Z-0.575
X-13.24 Y-4.066 Z-0.588
X-12.912 Y-3.985 Z-0.6
S4000
X-12.866 Y-3.974 F1000
X-12.686 Y-3.916
X-12.497 Y-3.846
X-12.305 Y-3.765
X-12.115 Y-3.675
X-11.709 Y-3.452
X-11.293 Y-3.181
X-10.863 Y-2.857
X-10.419 Y-2.477
X-9.955 Y-2.035
G2 X-2.034 Y-9.954 I3.955 J-3.965
G1 X-2.44 Y-10.382
X-2.787 Y-10.796
X-3.083 Y-11.202
X-3.331 Y-11.599
X-3.533 Y-11.988
X-3.693 Y-12.37
X-3.813 Y-12.747
X-3.898 Y-13.121
X-3.95 Y-13.495
X-3.971 Y-13.869
X-3.965 Y-14.247
X-3.933 Y-14.629
X-3.877 Y-15.017
X-3.8 Y-15.411
X-3.704 Y-15.812
X-3.593 Y-16.22
X-3.468 Y-16.636
X-3.333 Y-17.06
X-3.19 Y-17.491
X-3.043 Y-17.931
Y-17.932
X-2.895 Y-18.379
X-2.893 Y-18.384
X-2.748 Y-18.836
X-2.745 Y-18.844
X-2.605 Y-19.304
X-2.602 Y-19.315
X-2.468 Y-19.782
X-2.465 Y-19.795
X-2.341 Y-20.271
X-2.337 Y-20.287
X-2.225 Y-20.772
X-2.221 Y-20.79
X-2.123 Y-21.284
X-2.119 Y-21.303
X-2.036 Y-21.808
X-2.033 Y-21.828
X-1.967 Y-22.343
X-1.965 Y-22.365
X-1.917 Y-22.891
X-1.915 Y-22.913
X-1.886 Y-23.45
X-1.885 Y-23.472
X-1.875 Y-24.02
Y-24.042
X-1.885 Y-24.59
X-1.886 Y-24.612
X-1.915 Y-25.149
X-1.917 Y-25.172
X-1.965 Y-25.697
X-1.967 Y-25.719
X-2.033 Y-26.234
X-2.036 Y-26.255
X-2.119 Y-26.759
X-2.123 Y-26.779
X-2.221 Y-27.273
X-2.225 Y-27.291
X-2.337 Y-27.775
X-2.341 Y-27.791
X-2.465 Y-28.267
X-2.468 Y-28.28
X-2.602 Y-28.748
X-2.605 Y-28.759
X-2.745 Y-29.218
X-2.748 Y-29.226
X-2.893 Y-29.679
X-2.895 Y-29.684
X-3.043 Y-30.13
Y-30.132
X-3.19 Y-30.571
X-3.333 Y-31.003
X-3.468 Y-31.426
X-3.593 Y-31.842
X-3.704 Y-32.25
X-3.8 Y-32.651
X-3.877 Y-33.045
X-3.933 Y-33.433
X-3.965 Y-33.816
X-3.971 Y-34.193
X-3.95 Y-34.568
X-3.898 Y-34.941
X-3.813 Y-35.315
X-3.693 Y-35.692
X-3.533 Y-36.075
X-3.331 Y-36.464
X-3.083 Y-36.861
X-2.787 Y-37.266
X-2.44 Y-37.68
X-2.034 Y-38.108
G2 X-9.955 Y-46.027 I-3.966 J-3.954
G1 X-10.419 Y-45.585
X-10.863 Y-45.205
X-11.293 Y-44.881
X-11.709 Y-44.61
X-12.115 Y-44.387
X-12.305 Y-44.298
X-12.497 Y-44.217
X-12.686 Y-44.146
X-12.867 Y-44.089
X-13.24 Y-43.996
X-13.6 Y-43.941
X-13.958 Y-43.918
X-14.315 Y-43.925
X-14.674 Y-43.959
X-15.037 Y-44.018
X-15.407 Y-44.101
X-15.783 Y-44.203
X-16.166 Y-44.323
X-16.558 Y-44.458
X-16.96 Y-44.604
X-17.372 Y-44.759
X-17.794 Y-44.918
X-17.797 Y-44.919
X-18.227 Y-45.079
X-18.234 Y-45.081
X-18.673 Y-45.239
X-18.684 Y-45.242
X-19.134 Y-45.394
X-19.147 Y-45.399
X-19.609 Y-45.543
X-19.625 Y-45.548
X-20.101 Y-45.681
X-20.119 Y-45.686
X-20.608 Y-45.807
X-20.628 Y-45.812
X-21.132 Y-45.919
X-21.154 Y-45.923
X-21.675 Y-46.013
X-21.697 Y-46.016
X-22.234 Y-46.088
X-22.257 Y-46.09
X-22.812 Y-46.142
X-22.835 Y-46.144
X-23.407 Y-46.176
X-23.43 Y-46.177
X-24.02 Y-46.187
X-24.042
X-24.633 Y-46.177
X-24.655 Y-46.176
X-25.227 Y-46.144
X-25.251 Y-46.142
X-25.805 Y-46.09
X-25.828 Y-46.088
X-26.365 Y-46.016
X-26.388 Y-46.013
X-26.908 Y-45.923
X-26.93 Y-45.919
X-27.434 Y-45.812
X-27.454 Y-45.807
X-27.944 Y-45.686
X-27.962 Y-45.681
X-28.437 Y-45.548
X-28.453 Y-45.543
X-28.915 Y-45.399
X-28.929 Y-45.394
X-29.379 Y-45.242
X-29.389 Y-45.239
X-29.829 Y-45.081
X-29.836 Y-45.079
X-30.266 Y-44.919
X-30.269 Y-44.918
X-30.69 Y-44.759
X-31.102 Y-44.604
X-31.504 Y-44.458
X-31.896 Y-44.323
X-32.28 Y-44.203
X-32.656 Y-44.101
X-33.025 Y-44.018
X-33.389 Y-43.959
X-33.748 Y-43.925
X-34.105 Y-43.918
X-34.462 Y-43.941
X-34.823 Y-43.996
X-35.196 Y-44.089
X-35.376 Y-44.146
X-35.566 Y-44.217
X-35.758 Y-44.298
X-35.948 Y-44.387
X-36.354 Y-44.61
X-36.769 Y-44.881
X-37.199 Y-45.205
X-37.644 Y-45.585
X-38.108 Y-46.027
G2 X-46.028 Y-38.108 I-3.955 J3.965
G1 X-45.623 Y-37.68
X-45.275 Y-37.266
X-44.979 Y-36.861
X-44.731 Y-36.464
X-44.529 Y-36.075
X-44.37 Y-35.692
X-44.249 Y-35.315
X-44.164 Y-34.941
X-44.113 Y-34.568
X-44.091 Y-34.193
X-44.098 Y-33.816
X-44.13 Y-33.433
X-44.185 Y-33.045
X-44.262 Y-32.651
X-44.358 Y-32.25
X-44.47 Y-31.842
X-44.595 Y-31.426
X-44.73 Y-31.003
X-44.872 Y-30.571
X-45.019 Y-30.132
X-45.02 Y-30.13
X-45.168 Y-29.684
X-45.169 Y-29.679
X-45.315 Y-29.226
X-45.317 Y-29.218
X-45.458 Y-28.759
X-45.461 Y-28.748
X-45.594 Y-28.28
X-45.598 Y-28.267
X-45.721 Y-27.791
X-45.725 Y-27.776
X-45.837 Y-27.291
X-45.841 Y-27.273
X-45.939 Y-26.779
X-45.943 Y-26.759
X-46.026 Y-26.255
X-46.029 Y-26.234
X-46.095 Y-25.719
X-46.098 Y-25.697
X-46.146 Y-25.172
X-46.147 Y-25.149
X-46.177 Y-24.612
X-46.178 Y-24.59
X-46.187 Y-24.042
Y-24.02
X-46.178 Y-23.472
X-46.177 Y-23.45
X-46.147 Y-22.913
X-46.146 Y-22.891
X-46.098 Y-22.365
X-46.095 Y-22.343
X-46.029 Y-21.829
X-46.026 Y-21.808
X-45.943 Y-21.303
X-45.939 Y-21.284
X-45.841 Y-20.79
X-45.837 Y-20.771
X-45.725 Y-20.287
X-45.721 Y-20.271
X-45.598 Y-19.795
X-45.594 Y-19.782
X-45.461 Y-19.315
X-45.458 Y-19.304
X-45.317 Y-18.844
X-45.315 Y-18.836
X-45.169 Y-18.384
X-45.168 Y-18.379
X-45.02 Y-17.933
X-45.019 Y-17.931
X-44.872 Y-17.491
X-44.73 Y-17.06
X-44.595 Y-16.636
X-44.47 Y-16.22
X-44.358 Y-15.812
X-44.262 Y-15.411
X-44.185 Y-15.017
X-44.13 Y-14.629
X-44.098 Y-14.247
X-44.091 Y-13.869
X-44.113 Y-13.495
X-44.164 Y-13.121
X-44.249 Y-12.747
X-44.37 Y-12.37
X-44.529 Y-11.988
X-44.731 Y-11.599
X-44.979 Y-11.202
X-45.275 Y-10.796
X-45.623 Y-10.382
X-46.028 Y-9.954
G2 X-38.108 Y-2.035 I3.966 J3.954
G1 X-37.644 Y-2.477
X-37.199 Y-2.857
X-36.769 Y-3.181
X-36.354 Y-3.452
X-35.948 Y-3.675
X-35.758 Y-3.765
X-35.565 Y-3.846
X-35.376 Y-3.916
X-35.196 Y-3.974
X-34.823 Y-4.066
X-34.462 Y-4.122
X-34.105 Y-4.145
X-33.748 Y-4.138
X-33.388 Y-4.103
X-33.025 Y-4.044
X-32.656 Y-3.962
X-32.28 Y-3.859
X-31.896 Y-3.739
X-31.504 Y-3.605
X-31.102 Y-3.458
X-30.69 Y-3.304
X-30.269 Y-3.145
X-30.266 Y-3.144
X-29.836 Y-2.984
X-29.829 Y-2.981
X-29.389 Y-2.824
X-29.379 Y-2.82
X-28.929 Y-2.668
X-28.915 Y-2.664
X-28.453 Y-2.52
X-28.437 Y-2.515
X-27.962 Y-2.381
X-27.944 Y-2.376
X-27.454 Y-2.255
X-27.434 Y-2.25
X-26.93 Y-2.144
X-26.908 Y-2.14
X-26.388 Y-2.05
X-26.365 Y-2.046
X-25.828 Y-1.975
X-25.805 Y-1.972
X-25.25 Y-1.92
X-25.227 Y-1.918
X-24.655 Y-1.887
X-24.633 Y-1.886
X-24.042 Y-1.875
X-24.02
X-23.43 Y-1.886
X-23.407 Y-1.887
X-22.835 Y-1.918
X-22.812 Y-1.92
X-22.257 Y-1.972
X-22.234 Y-1.975
X-21.697 Y-2.046
X-21.675 Y-2.05
X-21.154 Y-2.14
X-21.133 Y-2.144
X-20.628 Y-2.25
X-20.608 Y-2.255
X-20.119 Y-2.376
X-20.101 Y-2.381
X-19.625 Y-2.515
X-19.609 Y-2.52
X-19.147 Y-2.664
X-19.134 Y-2.668
X-18.684 Y-2.82
X-18.673 Y-2.824
X-18.43 Y-2.911
X-18.234 Y-2.981
X-18.227 Y-2.984
X-17.797 Y-3.144
X-17.794 Y-3.145
X-17.372 Y-3.304
X-16.96 Y-3.458
X-16.558 Y-3.605
X-16.166 Y-3.739
X-15.782 Y-3.859
X-15.406 Y-3.962
X-15.037 Y-4.044
X-14.674 Y-4.103
X-14.315 Y-4.138
X-13.958 Y-4.145
X-13.6 Y-4.122
X-13.24 Y-4.066
X-12.912 Y-3.985
S5000
X-12.866 Y-3.974 Z-0.602 F333.3
X-12.686 Y-3.916 Z-0.608
X-12.497 Y-3.846 Z-0.615
X-12.305 Y-3.765 Z-0.623
X-12.115 Y-3.675 Z-0.63
X-11.709 Y-3.452 Z-0.646
X-11.293 Y-3.181 Z-0.663
X-10.863 Y-2.857 Z-0.682
X-10.419 Y-2.477 Z-0.703
X-9.955 Y-2.035 Z-0.725
G2 X-8.185 Y-0.844 Z-0.8 I3.955 J-3.965
S4000
X-2.034 Y-9.954 I2.185 J-5.156 F1000
G1 X-2.44 Y-10.382
X-2.787 Y-10.796
X-3.083 Y-11.202
X-3.331 Y-11.599
X-3.533 Y-11.988
X-3.693 Y-12.37
X-3.813 Y-12.747
X-3.898 Y-13.121
X-3.95 Y-13.495
X-3.971 Y-13.869
X-3.965 Y-14.247
X-3.933 Y-14.629
X-3.877 Y-15.017
X-3.8 Y-15.411
X-3.704 Y-15.812
X-3.593 Y-16.22
X-3.468 Y-16.636
X-3.333 Y-17.06
X-3.19 Y-17.491
X-3.043 Y-17.931
Y-17.932
X-2.895 Y-18.379
X-2.893 Y-18.384
X-2.748 Y-18.836
X-2.745 Y-18.844
X-2.605 Y-19.304
X-2.602 Y-19.315
X-2.468 Y-19.782
X-2.465 Y-19.795
X-2.341 Y-20.271
X-2.337 Y-20.287
X-2.225 Y-20.772
X-2.221 Y-20.79
X-2.123 Y-21.284
X-2.119 Y-21.303
X-2.036 Y-21.808
X-2.033 Y-21.828
X-1.967 Y-22.343
X-1.965 Y-22.365
X-1.917 Y-22.891
X-1.915 Y-22.913
X-1.886 Y-23.45
X-1.885 Y-23.472
X-1.875 Y-24.02
Y-24.042
X-1.885 Y-24.59
X-1.886 Y-24.612
X-1.915 Y-25.149
X-1.917 Y-25.172
X-1.965 Y-25.697
X-1.967 Y-25.719
X-2.033 Y-26.234
X-2.036 Y-26.255
X-2.119 Y-26.759
X-2.123 Y-26.779
X-2.221 Y-27.273
X-2.225 Y-27.291
X-2.337 Y-27.775
X-2.341 Y-27.791
X-2.465 Y-28.267
X-2.468 Y-28.28
X-2.602 Y-28.748
X-2.605 Y-28.759
X-2.745 Y-29.218
X-2.748 Y-29.226
X-2.893 Y-29.679
X-2.895 Y-29.684
X-3.043 Y-30.13
Y-30.132
X-3.19 Y-30.571
X-3.333 Y-31.003
X-3.468 Y-31.426
X-3.593 Y-31.842
X-3.704 Y-32.25
X-3.8 Y-32.651
X-3.877 Y-33.045
X-3.933 Y-33.433
X-3.965 Y-33.816
X-3.971 Y-34.193
X-3.95 Y-34.568
X-3.898 Y-34.941
X-3.813 Y-35.315
X-3.693 Y-35.692
X-3.533 Y-36.075
X-3.331 Y-36.464
X-3.083 Y-36.861
X-2.787 Y-37.266
X-2.44 Y-37.68
X-2.034 Y-38.108
G2 X-9.955 Y-46.027 I-3.966 J-3.954
G1 X-10.419 Y-45.585
X-10.863 Y-45.205
X-11.293 Y-44.881
X-11.709 Y-44.61
X-12.115 Y-44.387
X-12.305 Y-44.298
X-12.497 Y-44.217
X-12.686 Y-44.146
X-12.867 Y-44.089
X-13.24 Y-43.996
X-13.6 Y-43.941
X-13.958 Y-43.918
X-14.315 Y-43.925
X-14.674 Y-43.959
X-15.037 Y-44.018
X-15.407 Y-44.101
X-15.783 Y-44.203
X-16.166 Y-44.323
X-16.558 Y-44.458
X-16.96 Y-44.604
X-17.372 Y-44.759
X-17.794 Y-44.918
X-17.797 Y-44.919
X-18.227 Y-45.079
X-18.234 Y-45.081
X-18.673 Y-45.239
X-18.684 Y-45.242
X-19.134 Y-45.394
X-19.147 Y-45.399
X-19.609 Y-45.543
X-19.625 Y-45.548
X-20.101 Y-45.681
X-20.119 Y-45.686
X-20.608 Y-45.807
X-20.628 Y-45.812
X-21.132 Y-45.919
X-21.154 Y-45.923
X-21.675 Y-46.013
X-21.697 Y-46.016
X-22.234 Y-46.088
X-22.257 Y-46.09
X-22.812 Y-46.142
X-22.835 Y-46.144
X-23.407 Y-46.176
X-23.43 Y-46.177
X-24.02 Y-46.187
X-24.042
X-24.633 Y-46.177
X-24.655 Y-46.176
X-25.227 Y-46.144
X-25.251 Y-46.142
X-25.805 Y-46.09
X-25.828 Y-46.088
X-26.365 Y-46.016
X-26.388 Y-46.013
X-26.908 Y-45.923
X-26.93 Y-45.919
X-27.434 Y-45.812
X-27.454 Y-45.807
X-27.944 Y-45.686
X-27.962 Y-45.681
X-28.437 Y-45.548
X-28.453 Y-45.543
X-28.915 Y-45.399
X-28.929 Y-45.394
X-29.379 Y-45.242
X-29.389 Y-45.239
X-29.829 Y-45.081
X-29.836 Y-45.079
X-30.266 Y-44.919
X-30.269 Y-44.918
X-30.69 Y-44.759
X-31.102 Y-44.604
X-31.504 Y-44.458
X-31.896 Y-44.323
X-32.28 Y-44.203
X-32.656 Y-44.101
X-33.025 Y-44.018
X-33.389 Y-43.959
X-33.748 Y-43.925
X-34.105 Y-43.918
X-34.462 Y-43.941
X-34.823 Y-43.996
X-35.196 Y-44.089
X-35.376 Y-44.146
X-35.566 Y-44.217
X-35.758 Y-44.298
X-35.948 Y-44.387
X-36.354 Y-44.61
X-36.769 Y-44.881
X-37.199 Y-45.205
X-37.644 Y-45.585
X-38.108 Y-46.027
G2 X-46.028 Y-38.108 I-3.955 J3.965
G1 X-45.623 Y-37.68
X-45.275 Y-37.266
X-44.979 Y-36.861
X-44.731 Y-36.464
X-44.529 Y-36.075
X-44.37 Y-35.692
X-44.249 Y-35.315
X-44.164 Y-34.941
X-44.113 Y-34.568
X-44.091 Y-34.193
X-44.098 Y-33.816
X-44.13 Y-33.433
X-44.185 Y-33.045
X-44.262 Y-32.651
X-44.358 Y-32.25
X-44.47 Y-31.842
X-44.595 Y-31.426
X-44.73 Y-31.003
X-44.872 Y-30.571
X-45.019 Y-30.132
X-45.02 Y-30.13
X-45.168 Y-29.684
X-45.169 Y-29.679
X-45.315 Y-29.226
X-45.317 Y-29.218
X-45.458 Y-28.759
X-45.461 Y-28.748
X-45.594 Y-28.28
X-45.598 Y-28.267
X-45.721 Y-27.791
X-45.725 Y-27.776
X-45.837 Y-27.291
X-45.841 Y-27.273
X-45.939 Y-26.779
X-45.943 Y-26.759
X-46.026 Y-26.255
X-46.029 Y-26.234
X-46.095 Y-25.719
X-46.098 Y-25.697
X-46.146 Y-25.172
X-46.147 Y-25.149
X-46.177 Y-24.612
X-46.178 Y-24.59
X-46.187 Y-24.042
Y-24.02
X-46.178 Y-23.472
X-46.177 Y-23.45
X-46.147 Y-22.913
X-46.146 Y-22.891
X-46.098 Y-22.365
X-46.095 Y-22.343
X-46.029 Y-21.829
X-46.026 Y-21.808
X-45.943 Y-21.303
X-45.939 Y-21.284
X-45.841 Y-20.79
X-45.837 Y-20.771
X-45.725 Y-20.287
X-45.721 Y-20.271
X-45.598 Y-19.795
X-45.594 Y-19.782
X-45.461 Y-19.315
X-45.458 Y-19.304
X-45.317 Y-18.844
X-45.315 Y-18.836
X-45.169 Y-18.384
X-45.168 Y-18.379
X-45.02 Y-17.933
X-45.019 Y-17.931
X-44.872 Y-17.491
X-44.73 Y-17.06
X-44.595 Y-16.636
X-44.47 Y-16.22
X-44.358 Y-15.812
X-44.262 Y-15.411
X-44.185 Y-15.017
X-44.13 Y-14.629
X-44.098 Y-14.247
X-44.091 Y-13.869
X-44.113 Y-13.495
X-44.164 Y-13.121
X-44.249 Y-12.747
X-44.37 Y-12.37
X-44.529 Y-11.988
X-44.731 Y-11.599
X-44.979 Y-11.202
X-45.275 Y-10.796
X-45.623 Y-10.382
X-46.028 Y-9.954
G2 X-38.108 Y-2.035 I3.966 J3.954
G1 X-37.644 Y-2.477
X-37.199 Y-2.857
X-36.769 Y-3.181
X-36.354 Y-3.452
X-35.948 Y-3.675
X-35.758 Y-3.765
X-35.565 Y-3.846
X-35.376 Y-3.916
X-35.196 Y-3.974
X-34.823 Y-4.066
X-34.462 Y-4.122
X-34.105 Y-4.145
X-33.748 Y-4.138
X-33.388 Y-4.103
X-33.025 Y-4.044
X-32.656 Y-3.962
X-32.28 Y-3.859
X-31.896 Y-3.739
X-31.504 Y-3.605
X-31.102 Y-3.458
X-30.69 Y-3.304
X-30.269 Y-3.145
X-30.266 Y-3.144
X-29.836 Y-2.984
X-29.829 Y-2.981
X-29.389 Y-2.824
X-29.379 Y-2.82
X-28.929 Y-2.668
X-28.915 Y-2.664
X-28.453 Y-2.52
X-28.437 Y-2.515
X-27.962 Y-2.381
X-27.944 Y-2.376
X-27.454 Y-2.255
X-27.434 Y-2.25
X-26.93 Y-2.144
X-26.908 Y-2.14
X-26.388 Y-2.05
X-26.365 Y-2.046
X-25.828 Y-1.975
X-25.805 Y-1.972
X-25.25 Y-1.92
X-25.227 Y-1.918
X-24.655 Y-1.887
X-24.633 Y-1.886
X-24.042 Y-1.875
X-24.02
X-23.43 Y-1.886
X-23.407 Y-1.887
X-22.835 Y-1.918
X-22.812 Y-1.92
X-22.257 Y-1.972
X-22.234 Y-1.975
X-21.697 Y-2.046
X-21.675 Y-2.05
X-21.154 Y-2.14
X-21.133 Y-2.144
X-20.628 Y-2.25
X-20.608 Y-2.255
X-20.119 Y-2.376
X-20.101 Y-2.381
X-19.625 Y-2.515
X-19.609 Y-2.52
X-19.147 Y-2.664
X-19.134 Y-2.668
X-18.684 Y-2.82
X-18.673 Y-2.824
X-18.234 Y-2.981
X-18.227 Y-2.984
X-17.797 Y-3.144
X-17.794 Y-3.145
X-17.372 Y-3.304
X-16.96 Y-3.458
X-16.558 Y-3.605
X-16.166 Y-3.739
X-15.782 Y-3.859
X-15.406 Y-3.962
X-15.037 Y-4.044
X-14.674 Y-4.103
X-14.315 Y-4.138
X-13.958 Y-4.145
X-13.6 Y-4.122
X-13.24 Y-4.066
X-12.912 Y-3.985
X-12.866 Y-3.974
X-12.686 Y-3.916
X-12.497 Y-3.846
X-12.305 Y-3.765
X-12.115 Y-3.675
X-11.709 Y-3.452
X-11.293 Y-3.181
X-10.863 Y-2.857
X-10.419 Y-2.477
X-9.955 Y-2.035
G2 X-8.185 Y-0.844 I3.955 J-3.965
S5000
X-2.737 Y-1.449 Z-1 I2.185 J-5.156 F333.3
S4000
X-2.034 Y-9.954 I-3.263 J-4.551 F1000
G1 X-2.44 Y-10.382
X-2.787 Y-10.796
X-3.083 Y-11.202
X-3.331 Y-11.599
X-3.533 Y-11.988
X-3.693 Y-12.37
X-3.813 Y-12.747
X-3.898 Y-13.121
X-3.95 Y-13.495
X-3.971 Y-13.869
X-3.965 Y-14.247
X-3.933 Y-14.629
X-3.877 Y-15.017
X-3.8 Y-15.411
X-3.704 Y-15.812
X-3.593 Y-16.22
X-3.468 Y-16.636
X-3.333 Y-17.06
X-3.19 Y-17.491
X-3.043 Y-17.931
Y-17.932
X-2.895 Y-18.379
X-2.893 Y-18.384
X-2.748 Y-18.836
X-2.745 Y-18.844
X-2.605 Y-19.304
X-2.602 Y-19.315
X-2.468 Y-19.782
X-2.465 Y-19.795
X-2.341 Y-20.271
X-2.337 Y-20.287
X-2.225 Y-20.772
X-2.221 Y-20.79
X-2.123 Y-21.284
X-2.119 Y-21.303
X-2.036 Y-21.808
X-2.033 Y-21.828
X-1.967 Y-22.343
X-1.965 Y-22.365
X-1.917 Y-22.891
X-1.915 Y-22.913
X-1.886 Y-23.45
X-1.885 Y-23.472
X-1.875 Y-24.02
Y-24.042
X-1.885 Y-24.59
X-1.886 Y-24.612
X-1.915 Y-25.149
X-1.917 Y-25.172
X-1.965 Y-25.697
X-1.967 Y-25.719
X-2.033 Y-26.234
X-2.036 Y-26.255
X-2.119 Y-26.759
X-2.123 Y-26.779
X-2.221 Y-27.273
X-2.225 Y-27.291
X-2.337 Y-27.775
X-2.341 Y-27.791
X-2.465 Y-28.267
X-2.468 Y-28.28
X-2.602 Y-28.748
X-2.605 Y-28.759
X-2.745 Y-29.218
X-2.748 Y-29.226
X-2.893 Y-29.679
X-2.895 Y-29.684
X-3.043 Y-30.13
Y-30.132
X-3.19 Y-30.571
X-3.333 Y-31.003
X-3.468 Y-31.426
X-3.593 Y-31.842
X-3.704 Y-32.25
X-3.8 Y-32.651
X-3.877 Y-33.045
X-3.933 Y-33.433
X-3.965 Y-33.816
X-3.971 Y-34.193
X-3.95 Y-34.568
X-3.898 Y-34.941
X-3.813 Y-35.315
X-3.693 Y-35.692
X-3.533 Y-36.075
X-3.331 Y-36.464
X-3.083 Y-36.861
X-2.787 Y-37.266
X-2.44 Y-37.68
X-2.034 Y-38.108
G2 X-9.955 Y-46.027 I-3.966 J-3.954
G1 X-10.419 Y-45.585
X-10.863 Y-45.205
X-11.293 Y-44.881
X-11.709 Y-44.61
X-12.115 Y-44.387
X-12.305 Y-44.298
X-12.497 Y-44.217
X-12.686 Y-44.146
X-12.867 Y-44.089
X-13.24 Y-43.996
X-13.6 Y-43.941
X-13.958 Y-43.918
X-14.315 Y-43.925
X-14.674 Y-43.959
X-15.037 Y-44.018
X-15.407 Y-44.101
X-15.783 Y-44.203
X-16.166 Y-44.323
X-16.558 Y-44.458
X-16.96 Y-44.604
X-17.372 Y-44.759
X-17.794 Y-44.918
X-17.797 Y-44.919
X-18.227 Y-45.079
X-18.234 Y-45.081
X-18.673 Y-45.239
X-18.684 Y-45.242
X-19.134 Y-45.394
X-19.147 Y-45.399
X-19.609 Y-45.543
X-19.625 Y-45.548
X-20.101 Y-45.681
X-20.119 Y-45.686
X-20.608 Y-45.807
X-20.628 Y-45.812
X-21.132 Y-45.919
X-21.154 Y-45.923
X-21.675 Y-46.013
X-21.697 Y-46.016
X-22.234 Y-46.088
X-22.257 Y-46.09
X-22.812 Y-46.142
X-22.835 Y-46.144
X-23.407 Y-46.176
X-23.43 Y-46.177
X-24.02 Y-46.187
X-24.042
X-24.633 Y-46.177
X-24.655 Y-46.176
X-25.227 Y-46.144
X-25.251 Y-46.142
X-25.805 Y-46.09
X-25.828 Y-46.088
X-26.365 Y-46.016
X-26.388 Y-46.013
X-26.908 Y-45.923
X-26.93 Y-45.919
X-27.434 Y-45.812
X-27.454 Y-45.807
X-27.944 Y-45.686
X-27.962 Y-45.681
X-28.437 Y-45.548
X-28.453 Y-45.543
X-28.915 Y-45.399
X-28.929 Y-45.394
X-29.379 Y-45.242
X-29.389 Y-45.239
X-29.829 Y-45.081
X-29.836 Y-45.079
X-30.266 Y-44.919
X-30.269 Y-44.918
X-30.69 Y-44.759
X-31.102 Y-44.604
X-31.504 Y-44.458
X-31.896 Y-44.323
X-32.28 Y-44.203
X-32.656 Y-44.101
X-33.025 Y-44.018
X-33.389 Y-43.959
X-33.748 Y-43.925
X-34.105 Y-43.918
X-34.462 Y-43.941
X-34.823 Y-43.996
X-35.196 Y-44.089
X-35.376 Y-44.146
X-35.566 Y-44.217
X-35.758 Y-44.298
X-35.948 Y-44.387
X-36.354 Y-44.61
X-36.769 Y-44.881
X-37.199 Y-45.205
X-37.644 Y-45.585
X-38.108 Y-46.027
G2 X-46.028 Y-38.108 I-3.955 J3.965
G1 X-45.623 Y-37.68
X-45.275 Y-37.266
X-44.979 Y-36.861
X-44.731 Y-36.464
X-44.529 Y-36.075
X-44.37 Y-35.692
X-44.249 Y-35.315
X-44.164 Y-34.941
X-44.113 Y-34.568
X-44.091 Y-34.193
X-44.098 Y-33.816
X-44.13 Y-33.433
X-44.185 Y-33.045
X-44.262 Y-32.651
X-44.358 Y-32.25
X-44.47 Y-31.842
X-44.595 Y-31.426
X-44.73 Y-31.003
X-44.872 Y-30.571
X-45.019 Y-30.132
X-45.02 Y-30.13
X-45.168 Y-29.684
X-45.169 Y-29.679
X-45.315 Y-29.226
X-45.317 Y-29.218
X-45.458 Y-28.759
X-45.461 Y-28.748
X-45.594 Y-28.28
X-45.598 Y-28.267
X-45.721 Y-27.791
X-45.725 Y-27.776
X-45.837 Y-27.291
X-45.841 Y-27.273
X-45.939 Y-26.779
X-45.943 Y-26.759
X-46.026 Y-26.255
X-46.029 Y-26.234
X-46.095 Y-25.719
X-46.098 Y-25.697
X-46.146 Y-25.172
X-46.147 Y-25.149
X-46.177 Y-24.612
X-46.178 Y-24.59
X-46.187 Y-24.042
Y-24.02
X-46.178 Y-23.472
X-46.177 Y-23.45
X-46.147 Y-22.913
X-46.146 Y-22.891
X-46.098 Y-22.365
X-46.095 Y-22.343
X-46.029 Y-21.829
X-46.026 Y-21.808
X-45.943 Y-21.303
X-45.939 Y-21.284
X-45.841 Y-20.79
X-45.837 Y-20.771
X-45.725 Y-20.287
X-45.721 Y-20.271
X-45.598 Y-19.795
X-45.594 Y-19.782
X-45.461 Y-19.315
X-45.458 Y-19.304
X-45.317 Y-18.844
X-45.315 Y-18.836
X-45.169 Y-18.384
X-45.168 Y-18.379
X-45.02 Y-17.933
X-45.019 Y-17.931
X-44.872 Y-17.491
X-44.73 Y-17.06
X-44.595 Y-16.636
X-44.47 Y-16.22
X-44.358 Y-15.812
X-44.262 Y-15.411
X-44.185 Y-15.017
X-44.13 Y-14.629
X-44.098 Y-14.247
X-44.091 Y-13.869
X-44.113 Y-13.495
X-44.164 Y-13.121
X-44.249 Y-12.747
X-44.37 Y-12.37
X-44.529 Y-11.988
X-44.731 Y-11.599
X-44.979 Y-11.202
X-45.275 Y-10.796
X-45.623 Y-10.382
X-46.028 Y-9.954
G2 X-38.108 Y-2.035 I3.966 J3.954
G1 X-37.644 Y-2.477
X-37.199 Y-2.857
X-36.769 Y-3.181
X-36.354 Y-3.452
X-35.948 Y-3.675
X-35.758 Y-3.765
X-35.565 Y-3.846
X-35.376 Y-3.916
X-35.196 Y-3.974
X-34.823 Y-4.066
X-34.462 Y-4.122
X-34.105 Y-4.145
X-33.748 Y-4.138
X-33.388 Y-4.103
X-33.025 Y-4.044
X-32.656 Y-3.962
X-32.28 Y-3.859
X-31.896 Y-3.739
X-31.504 Y-3.605
X-31.102 Y-3.458
X-30.69 Y-3.304
X-30.269 Y-3.145
X-30.266 Y-3.144
X-29.836 Y-2.984
X-29.829 Y-2.981
X-29.389 Y-2.824
X-29.379 Y-2.82
X-28.929 Y-2.668
X-28.915 Y-2.664
X-28.453 Y-2.52
X-28.437 Y-2.515
X-27.962 Y-2.381
X-27.944 Y-2.376
X-27.454 Y-2.255
X-27.434 Y-2.25
X-26.93 Y-2.144
X-26.908 Y-2.14
X-26.388 Y-2.05
X-26.365 Y-2.046
X-25.828 Y-1.975
X-25.805 Y-1.972
X-25.25 Y-1.92
X-25.227 Y-1.918
X-24.655 Y-1.887
X-24.633 Y-1.886
X-24.042 Y-1.875
X-24.02
X-23.43 Y-1.886
X-23.407 Y-1.887
X-22.835 Y-1.918
X-22.812 Y-1.92
X-22.257 Y-1.972
X-22.234 Y-1.975
X-21.697 Y-2.046
X-21.675 Y-2.05
X-21.154 Y-2.14
X-21.133 Y-2.144
X-20.628 Y-2.25
X-20.608 Y-2.255
X-20.119 Y-2.376
X-20.101 Y-2.381
X-19.625 Y-2.515
X-19.609 Y-2.52
X-19.147 Y-2.664
X-19.134 Y-2.668
X-18.684 Y-2.82
X-18.673 Y-2.824
X-18.234 Y-2.981
X-18.227 Y-2.984
X-17.797 Y-3.144
X-17.794 Y-3.145
X-17.372 Y-3.304
X-16.96 Y-3.458
X-16.558 Y-3.605
X-16.166 Y-3.739
X-15.782 Y-3.859
X-15.406 Y-3.962
X-15.037 Y-4.044
X-14.674 Y-4.103
X-14.315 Y-4.138
X-13.958 Y-4.145
X-13.6 Y-4.122
X-13.24 Y-4.066
X-12.866 Y-3.974
X-12.686 Y-3.916
X-12.497 Y-3.846
X-12.305 Y-3.765
X-12.115 Y-3.675
X-11.709 Y-3.452
X-11.293 Y-3.181
X-10.863 Y-2.857
X-10.419 Y-2.477
X-9.955 Y-2.035
G2 X-2.737 Y-1.449 I3.955 J-3.965
S5000
X-0.415 Y-6.413 Z-1.2 I-3.263 J-4.551 F333.3
S4000
X-2.034 Y-9.954 I-5.585 J0.413 F1000
G1 X-2.44 Y-10.382
X-2.787 Y-10.796
X-3.083 Y-11.202
X-3.331 Y-11.599
X-3.533 Y-11.988
X-3.693 Y-12.37
X-3.813 Y-12.747
X-3.898 Y-13.121
X-3.95 Y-13.495
X-3.971 Y-13.869
X-3.965 Y-14.247
X-3.933 Y-14.629
X-3.877 Y-15.017
X-3.8 Y-15.411
X-3.704 Y-15.812
X-3.593 Y-16.22
X-3.468 Y-16.636
X-3.333 Y-17.06
X-3.19 Y-17.491
X-3.043 Y-17.931
Y-17.932
X-2.895 Y-18.379
X-2.893 Y-18.384
X-2.748 Y-18.836
X-2.745 Y-18.844
X-2.605 Y-19.304
X-2.602 Y-19.315
X-2.468 Y-19.782
X-2.465 Y-19.795
X-2.341 Y-20.271
X-2.337 Y-20.287
X-2.225 Y-20.772
X-2.221 Y-20.79
X-2.123 Y-21.284
X-2.119 Y-21.303
X-2.036 Y-21.808
X-2.033 Y-21.828
X-1.967 Y-22.343
X-1.965 Y-22.365
X-1.917 Y-22.891
X-1.915 Y-22.913
X-1.886 Y-23.45
X-1.885 Y-23.472
X-1.875 Y-24.02
Y-24.042
X-1.885 Y-24.59
X-1.886 Y-24.612
X-1.915 Y-25.149
X-1.917 Y-25.172
X-1.965 Y-25.697
X-1.967 Y-25.719
X-2.033 Y-26.234
X-2.036 Y-26.255
X-2.119 Y-26.759
X-2.123 Y-26.779
X-2.221 Y-27.273
X-2.225 Y-27.291
X-2.337 Y-27.775
X-2.341 Y-27.791
X-2.465 Y-28.267
X-2.468 Y-28.28
X-2.602 Y-28.748
X-2.605 Y-28.759
X-2.745 Y-29.218
X-2.748 Y-29.226
X-2.893 Y-29.679
X-2.895 Y-29.684
X-3.043 Y-30.13
Y-30.132
X-3.19 Y-30.571
X-3.333 Y-31.003
X-3.468 Y-31.426
X-3.593 Y-31.842
X-3.704 Y-32.25
X-3.8 Y-32.651
X-3.877 Y-33.045
X-3.933 Y-33.433
X-3.965 Y-33.816
X-3.971 Y-34.193
X-3.95 Y-34.568
X-3.898 Y-34.941
X-3.813 Y-35.315
X-3.693 Y-35.692
X-3.533 Y-36.075
X-3.331 Y-36.464
X-3.083 Y-36.861
X-2.787 Y-37.266
X-2.44 Y-37.68
X-2.034 Y-38.108
G2 X-9.955 Y-46.027 I-3.966 J-3.954
G1 X-10.419 Y-45.585
X-10.863 Y-45.205
X-11.293 Y-44.881
X-11.709 Y-44.61
X-12.115 Y-44.387
X-12.305 Y-44.298
X-12.497 Y-44.217
X-12.686 Y-44.146
X-12.867 Y-44.089
X-13.24 Y-43.996
X-13.6 Y-43.941
X-13.958 Y-43.918
X-14.315 Y-43.925
X-14.674 Y-43.959
X-15.037 Y-44.018
X-15.407 Y-44.101
X-15.783 Y-44.203
X-16.166 Y-44.323
X-16.558 Y-44.458
X-16.96 Y-44.604
X-17.372 Y-44.759
X-17.794 Y-44.918
X-17.797 Y-44.919
X-18.227 Y-45.079
X-18.234 Y-45.081
X-18.673 Y-45.239
X-18.684 Y-45.242
X-19.134 Y-45.394
X-19.147 Y-45.399
X-19.609 Y-45.543
X-19.625 Y-45.548
X-20.101 Y-45.681
X-20.119 Y-45.686
X-20.608 Y-45.807
X-20.628 Y-45.812
X-21.132 Y-45.919
X-21.154 Y-45.923
X-21.675 Y-46.013
X-21.697 Y-46.016
X-22.234 Y-46.088
X-22.257 Y-46.09
X-22.812 Y-46.142
X-22.835 Y-46.144
X-23.407 Y-46.176
X-23.43 Y-46.177
X-24.02 Y-46.187
X-24.042
X-24.633 Y-46.177
X-24.655 Y-46.176
X-25.227 Y-46.144
X-25.251 Y-46.142
X-25.805 Y-46.09
X-25.828 Y-46.088
X-26.365 Y-46.016
X-26.388 Y-46.013
X-26.908 Y-45.923
X-26.93 Y-45.919
X-27.434 Y-45.812
X-27.454 Y-45.807
X-27.944 Y-45.686
X-27.962 Y-45.681
X-28.437 Y-45.548
X-28.453 Y-45.543
X-28.915 Y-45.399
X-28.929 Y-45.394
X-29.379 Y-45.242
X-29.389 Y-45.239
X-29.829 Y-45.081
X-29.836 Y-45.079
X-30.266 Y-44.919
X-30.269 Y-44.918
X-30.69 Y-44.759
X-31.102 Y-44.604
X-31.504 Y-44.458
X-31.896 Y-44.323
X-32.28 Y-44.203
X-32.656 Y-44.101
X-33.025 Y-44.018
X-33.389 Y-43.959
X-33.748 Y-43.925
X-34.105 Y-43.918
X-34.462 Y-43.941
X-34.823 Y-43.996
X-35.196 Y-44.089
X-35.376 Y-44.146
X-35.566 Y-44.217
X-35.758 Y-44.298
X-35.948 Y-44.387
X-36.354 Y-44.61
X-36.769 Y-44.881
X-37.199 Y-45.205
X-37.644 Y-45.585
X-38.108 Y-46.027
G2 X-46.028 Y-38.108 I-3.955 J3.965
G1 X-45.623 Y-37.68
X-45.275 Y-37.266
X-44.979 Y-36.861
X-44.731 Y-36.464
X-44.529 Y-36.075
X-44.37 Y-35.692
X-44.249 Y-35.315
X-44.164 Y-34.941
X-44.113 Y-34.568
X-44.091 Y-34.193
X-44.098 Y-33.816
X-44.13 Y-33.433
X-44.185 Y-33.045
X-44.262 Y-32.651
X-44.358 Y-32.25
X-44.47 Y-31.842
X-44.595 Y-31.426
X-44.73 Y-31.003
X-44.872 Y-30.571
X-45.019 Y-30.132
X-45.02 Y-30.13
X-45.168 Y-29.684
X-45.169 Y-29.679
X-45.315 Y-29.226
X-45.317 Y-29.218
X-45.458 Y-28.759
X-45.461 Y-28.748
X-45.594 Y-28.28
X-45.598 Y-28.267
X-45.721 Y-27.791
X-45.725 Y-27.776
X-45.837 Y-27.291
X-45.841 Y-27.273
X-45.939 Y-26.779
X-45.943 Y-26.759
X-46.026 Y-26.255
X-46.029 Y-26.234
X-46.095 Y-25.719
X-46.098 Y-25.697
X-46.146 Y-25.172
X-46.147 Y-25.149
X-46.177 Y-24.612
X-46.178 Y-24.59
X-46.187 Y-24.042
Y-24.02
X-46.178 Y-23.472
X-46.177 Y-23.45
X-46.147 Y-22.913
X-46.146 Y-22.891
X-46.098 Y-22.365
X-46.095 Y-22.343
X-46.029 Y-21.829
X-46.026 Y-21.808
X-45.943 Y-21.303
X-45.939 Y-21.284
X-45.841 Y-20.79
X-45.837 Y-20.771
X-45.725 Y-20.287
X-45.721 Y-20.271
X-45.598 Y-19.795
X-45.594 Y-19.782
X-45.461 Y-19.315
X-45.458 Y-19.304
X-45.317 Y-18.844
X-45.315 Y-18.836
X-45.169 Y-18.384
X-45.168 Y-18.379
X-45.02 Y-17.933
X-45.019 Y-17.931
X-44.872 Y-17.491
X-44.73 Y-17.06
X-44.595 Y-16.636
X-44.47 Y-16.22
X-44.358 Y-15.812
X-44.262 Y-15.411
X-44.185 Y-15.017
X-44.13 Y-14.629
X-44.098 Y-14.247
X-44.091 Y-13.869
X-44.113 Y-13.495
X-44.164 Y-13.121
X-44.249 Y-12.747
X-44.37 Y-12.37
X-44.529 Y-11.988
X-44.731 Y-11.599
X-44.979 Y-11.202
X-45.275 Y-10.796
X-45.623 Y-10.382
X-46.028 Y-9.954
G2 X-38.108 Y-2.035 I3.966 J3.954
G1 X-37.644 Y-2.477
X-37.199 Y-2.857
X-36.769 Y-3.181
X-36.354 Y-3.452
X-35.948 Y-3.675
X-35.758 Y-3.765
X-35.565 Y-3.846
X-35.376 Y-3.916
X-35.196 Y-3.974
X-34.823 Y-4.066
X-34.462 Y-4.122
X-34.105 Y-4.145
X-33.748 Y-4.138
X-33.388 Y-4.103
X-33.025 Y-4.044
X-32.656 Y-3.962
X-32.28 Y-3.859
X-31.896 Y-3.739
X-31.504 Y-3.605
X-31.102 Y-3.458
X-30.69 Y-3.304
X-30.269 Y-3.145
X-30.266 Y-3.144
X-29.836 Y-2.984
X-29.829 Y-2.981
X-29.389 Y-2.824
X-29.379 Y-2.82
X-28.929 Y-2.668
X-28.915 Y-2.664
X-28.453 Y-2.52
X-28.437 Y-2.515
X-27.962 Y-2.381
X-27.944 Y-2.376
X-27.454 Y-2.255
X-27.434 Y-2.25
X-26.93 Y-2.144
X-26.908 Y-2.14
X-26.388 Y-2.05
X-26.365 Y-2.046
X-25.828 Y-1.975
X-25.805 Y-1.972
X-25.25 Y-1.92
X-25.227 Y-1.918
X-24.655 Y-1.887
X-24.633 Y-1.886
X-24.042 Y-1.875
X-24.02
X-23.43 Y-1.886
X-23.407 Y-1.887
X-22.835 Y-1.918
X-22.812 Y-1.92
X-22.257 Y-1.972
X-22.234 Y-1.975
X-21.697 Y-2.046
X-21.675 Y-2.05
X-21.154 Y-2.14
X-21.133 Y-2.144
X-20.628 Y-2.25
X-20.608 Y-2.255
X-20.119 Y-2.376
X-20.101 Y-2.381
X-19.625 Y-2.515
X-19.609 Y-2.52
X-19.147 Y-2.664
X-19.134 Y-2.668
X-18.684 Y-2.82
X-18.673 Y-2.824
X-18.234 Y-2.981
X-18.227 Y-2.984
X-17.797 Y-3.144
X-17.794 Y-3.145
X-17.372 Y-3.304
X-16.96 Y-3.458
X-16.558 Y-3.605
X-16.166 Y-3.739
X-15.782 Y-3.859
X-15.406 Y-3.962
X-15.037 Y-4.044
X-14.674 Y-4.103
X-14.315 Y-4.138
X-13.958 Y-4.145
X-13.6 Y-4.122
X-13.24 Y-4.066
X-12.866 Y-3.974
X-12.686 Y-3.916
X-12.497 Y-3.846
X-12.305 Y-3.765
X-12.115 Y-3.675
X-11.709 Y-3.452
X-11.293 Y-3.181
X-10.863 Y-2.857
X-10.419 Y-2.477
X-9.955 Y-2.035
G2 X-0.415 Y-6.413 I3.955 J-3.965
S5000
X-2.034 Y-9.954 Z-1.339 I-5.585 J0.413 F333.3
G1 X-2.44 Y-10.382 Z-1.359
X-2.787 Y-10.796 Z-1.378
X-3.083 Y-11.202 Z-1.396
X-3.146 Y-11.302 Z-1.4
S4000
X-3.331 Y-11.599 F1000
X-3.533 Y-11.988
X-3.693 Y-12.37
X-3.813 Y-12.747
X-3.898 Y-13.121
X-3.95 Y-13.495
X-3.971 Y-13.869
X-3.965 Y-14.247
X-3.933 Y-14.629
X-3.877 Y-15.017
X-3.8 Y-15.411
X-3.704 Y-15.812
X-3.593 Y-16.22
X-3.468 Y-16.636
X-3.333 Y-17.06
X-3.19 Y-17.491
X-3.043 Y-17.931
Y-17.932
X-2.895 Y-18.379
X-2.893 Y-18.384
X-2.748 Y-18.836
X-2.745 Y-18.844
X-2.605 Y-19.304
X-2.602 Y-19.315
X-2.468 Y-19.782
X-2.465 Y-19.795
X-2.341 Y-20.271
X-2.337 Y-20.287
X-2.225 Y-20.772
X-2.221 Y-20.79
X-2.123 Y-21.284
X-2.119 Y-21.303
X-2.036 Y-21.808
X-2.033 Y-21.828
X-1.989 Y-22.172
Z-1.2
X-1.967 Y-22.343
X-1.965 Y-22.365
X-1.917 Y-22.891
X-1.915 Y-22.913
X-1.886 Y-23.45
X-1.885 Y-23.472
X-1.875 Y-24.02
Y-24.042
X-1.885 Y-24.59
X-1.886 Y-24.612
X-1.915 Y-25.149
X-1.917 Y-25.172
X-1.965 Y-25.697
X-1.967 Y-25.719
X-1.987 Y-25.873
Z-1.4 F200
X-2.033 Y-26.234 F1000
X-2.036 Y-26.255
X-2.119 Y-26.759
X-2.123 Y-26.779
X-2.221 Y-27.273
X-2.225 Y-27.291
X-2.337 Y-27.775
X-2.341 Y-27.791
X-2.465 Y-28.267
X-2.468 Y-28.28
X-2.602 Y-28.748
X-2.605 Y-28.759
X-2.745 Y-29.218
X-2.748 Y-29.226
X-2.893 Y-29.679
X-2.895 Y-29.684
X-3.043 Y-30.13
Y-30.132
X-3.19 Y-30.571
X-3.333 Y-31.003
X-3.468 Y-31.426
X-3.593 Y-31.842
X-3.704 Y-32.25
X-3.8 Y-32.651
X-3.877 Y-33.045
X-3.933 Y-33.433
X-3.965 Y-33.816
X-3.971 Y-34.193
X-3.95 Y-34.568
X-3.898 Y-34.941
X-3.813 Y-35.315
X-3.693 Y-35.692
X-3.533 Y-36.075
X-3.331 Y-36.464
X-3.083 Y-36.861
X-2.787 Y-37.266
X-2.44 Y-37.68
X-2.034 Y-38.108
G2 X-9.955 Y-46.027 I-3.966 J-3.954
G1 X-10.419 Y-45.585
X-10.863 Y-45.205
X-11.293 Y-44.881
X-11.709 Y-44.61
X-12.115 Y-44.387
X-12.305 Y-44.298
X-12.497 Y-44.217
X-12.686 Y-44.146
X-12.867 Y-44.089
X-13.24 Y-43.996
X-13.6 Y-43.941
X-13.958 Y-43.918
X-14.315 Y-43.925
X-14.674 Y-43.959
X-15.037 Y-44.018
X-15.407 Y-44.101
X-15.783 Y-44.203
X-16.166 Y-44.323
X-16.558 Y-44.458
X-16.96 Y-44.604
X-17.372 Y-44.759
X-17.794 Y-44.918
X-17.797 Y-44.919
X-18.227 Y-45.079
X-18.234 Y-45.081
X-18.673 Y-45.239
X-18.684 Y-45.242
X-19.134 Y-45.394
X-19.147 Y-45.399
X-19.609 Y-45.543
X-19.625 Y-45.548
X-20.101 Y-45.681
X-20.119 Y-45.686
X-20.608 Y-45.807
X-20.628 Y-45.812
X-21.132 Y-45.919
X-21.154 Y-45.923
X-21.675 Y-46.013
X-21.697 Y-46.016
X-22.234 Y-46.088
X-22.257 Y-46.09
X-22.812 Y-46.142
X-22.835 Y-46.144
X-23.407 Y-46.176
X-23.43 Y-46.177
X-24.02 Y-46.187
X-24.042
X-24.633 Y-46.177
X-24.655 Y-46.176
X-25.227 Y-46.144
X-25.251 Y-46.142
X-25.805 Y-46.09
X-25.828 Y-46.088
X-26.365 Y-46.016
X-26.388 Y-46.013
X-26.908 Y-45.923
X-26.93 Y-45.919
X-27.434 Y-45.812
X-27.454 Y-45.807
X-27.944 Y-45.686
X-27.962 Y-45.681
X-28.437 Y-45.548
X-28.453 Y-45.543
X-28.915 Y-45.399
X-28.929 Y-45.394
X-29.379 Y-45.242
X-29.389 Y-45.239
X-29.829 Y-45.081
X-29.836 Y-45.079
X-30.266 Y-44.919
X-30.269 Y-44.918
X-30.69 Y-44.759
X-31.102 Y-44.604
X-31.504 Y-44.458
X-31.896 Y-44.323
X-32.28 Y-44.203
X-32.656 Y-44.101
X-33.025 Y-44.018
X-33.389 Y-43.959
X-33.748 Y-43.925
X-34.105 Y-43.918
X-34.462 Y-43.941
X-34.823 Y-43.996
X-35.196 Y-44.089
X-35.376 Y-44.146
X-35.566 Y-44.217
X-35.758 Y-44.298
X-35.948 Y-44.387
X-36.354 Y-44.61
X-36.769 Y-44.881
X-37.199 Y-45.205
X-37.644 Y-45.585
X-38.108 Y-46.027
G2 X-46.028 Y-38.108 I-3.955 J3.965
G1 X-45.623 Y-37.68
X-45.275 Y-37.266
X-44.979 Y-36.861
X-44.731 Y-36.464
X-44.529 Y-36.075
X-44.37 Y-35.692
X-44.249 Y-35.315
X-44.164 Y-34.941
X-44.113 Y-34.568
X-44.091 Y-34.193
X-44.098 Y-33.816
X-44.13 Y-33.433
X-44.185 Y-33.045
X-44.262 Y-32.651
X-44.358 Y-32.25
X-44.47 Y-31.842
X-44.595 Y-31.426
X-44.73 Y-31.003
X-44.872 Y-30.571
X-45.019 Y-30.132
X-45.02 Y-30.13
X-45.168 Y-29.684
X-45.169 Y-29.679
X-45.315 Y-29.226
X-45.317 Y-29.218
X-45.458 Y-28.759
X-45.461 Y-28.748
X-45.594 Y-28.28
X-45.598 Y-28.267
X-45.721 Y-27.791
X-45.725 Y-27.776
X-45.837 Y-27.291
X-45.841 Y-27.273
X-45.939 Y-26.779
X-45.943 Y-26.759
X-46.026 Y-26.255
X-46.029 Y-26.234
X-46.073 Y-25.89
Z-1.2
X-46.095 Y-25.719
X-46.098 Y-25.697
X-46.146 Y-25.172
X-46.147 Y-25.149
X-46.177 Y-24.612
X-46.178 Y-24.59
X-46.187 Y-24.042
Y-24.02
X-46.178 Y-23.472
X-46.177 Y-23.45
X-46.147 Y-22.913
X-46.146 Y-22.891
X-46.098 Y-22.365
X-46.095 Y-22.343
X-46.075 Y-22.19
Z-1.4 F200
X-46.029 Y-21.829 F1000
X-46.026 Y-21.808
X-45.943 Y-21.303
X-45.939 Y-21.284
X-45.841 Y-20.79
X-45.837 Y-20.771
X-45.725 Y-20.287
X-45.721 Y-20.271
X-45.598 Y-19.795
X-45.594 Y-19.782
X-45.461 Y-19.315
X-45.458 Y-19.304
X-45.317 Y-18.844
X-45.315 Y-18.836
X-45.169 Y-18.384
X-45.168 Y-18.379
X-45.02 Y-17.933
X-45.019 Y-17.931
X-44.872 Y-17.491
X-44.73 Y-17.06
X-44.595 Y-16.636
X-44.47 Y-16.22
X-44.358 Y-15.812
X-44.262 Y-15.411
X-44.185 Y-15.017
X-44.13 Y-14.629
X-44.098 Y-14.247
X-44.091 Y-13.869
X-44.113 Y-13.495
X-44.164 Y-13.121
X-44.249 Y-12.747
X-44.37 Y-12.37
X-44.529 Y-11.988
X-44.731 Y-11.599
X-44.979 Y-11.202
X-45.275 Y-10.796
X-45.623 Y-10.382
X-46.028 Y-9.954
G2 X-38.108 Y-2.035 I3.966 J3.954
G1 X-37.644 Y-2.477
X-37.199 Y-2.857
X-36.769 Y-3.181
X-36.354 Y-3.452
X-35.948 Y-3.675
X-35.758 Y-3.765
X-35.565 Y-3.846
X-35.376 Y-3.916
X-35.196 Y-3.974
X-34.823 Y-4.066
X-34.462 Y-4.122
X-34.105 Y-4.145
X-33.748 Y-4.138
X-33.388 Y-4.103
X-33.025 Y-4.044
X-32.656 Y-3.962
X-32.28 Y-3.859
X-31.896 Y-3.739
X-31.504 Y-3.605
X-31.102 Y-3.458
X-30.69 Y-3.304
X-30.269 Y-3.145
X-30.266 Y-3.144
X-29.836 Y-2.984
X-29.829 Y-2.981
X-29.389 Y-2.824
X-29.379 Y-2.82
X-28.929 Y-2.668
X-28.915 Y-2.664
X-28.453 Y-2.52
X-28.437 Y-2.515
X-27.962 Y-2.381
X-27.944 Y-2.376
X-27.454 Y-2.255
X-27.434 Y-2.25
X-26.93 Y-2.144
X-26.908 Y-2.14
X-26.388 Y-2.05
X-26.365 Y-2.046
X-25.873 Y-1.981
Z-1.2
X-25.828 Y-1.975
X-25.805 Y-1.972
X-25.25 Y-1.92
X-25.227 Y-1.918
X-24.655 Y-1.887
X-24.633 Y-1.886
X-24.042 Y-1.875
X-24.02
X-23.43 Y-1.886
X-23.407 Y-1.887
X-22.835 Y-1.918
X-22.812 Y-1.92
X-22.257 Y-1.972
X-22.234 Y-1.975
X-22.172 Y-1.983
Z-1.4 F200
X-21.697 Y-2.046 F1000
X-21.675 Y-2.05
X-21.154 Y-2.14
X-21.133 Y-2.144
X-20.628 Y-2.25
X-20.608 Y-2.255
X-20.119 Y-2.376
X-20.101 Y-2.381
X-19.625 Y-2.515
X-19.609 Y-2.52
X-19.147 Y-2.664
X-19.134 Y-2.668
X-18.684 Y-2.82
X-18.673 Y-2.824
X-18.234 Y-2.981
X-18.227 Y-2.984
X-17.797 Y-3.144
X-17.794 Y-3.145
X-17.372 Y-3.304
X-16.96 Y-3.458
X-16.558 Y-3.605
X-16.166 Y-3.739
X-15.782 Y-3.859
X-15.406 Y-3.962
X-15.037 Y-4.044
X-14.674 Y-4.103
X-14.315 Y-4.138
X-13.958 Y-4.145
X-13.6 Y-4.122
X-13.24 Y-4.066
X-12.866 Y-3.974
X-12.686 Y-3.916
X-12.497 Y-3.846
X-12.305 Y-3.765
X-12.115 Y-3.675
X-11.709 Y-3.452
X-11.293 Y-3.181
X-10.863 Y-2.857
X-10.419 Y-2.477
X-9.955 Y-2.035
G2 X-2.034 Y-9.954 I3.955 J-3.965
G1 X-2.44 Y-10.382
X-2.787 Y-10.796
X-3.083 Y-11.202
X-3.146 Y-11.302
S5000
X-3.331 Y-11.599 Z-1.412 F333.3
X-3.533 Y-11.988 Z-1.428
X-3.693 Y-12.37 Z-1.442
X-3.813 Y-12.747 Z-1.456
X-3.898 Y-13.121 Z-1.469
X-3.95 Y-13.495 Z-1.482
X-3.971 Y-13.869 Z-1.495
X-3.965 Y-14.247 Z-1.509
X-3.933 Y-14.629 Z-1.522
X-3.877 Y-15.017 Z-1.536
X-3.8 Y-15.411 Z-1.55
X-3.704 Y-15.812 Z-1.564
X-3.593 Y-16.22 Z-1.579
X-3.468 Y-16.636 Z-1.594
X-3.416 Y-16.797 Z-1.6
S4000
X-3.333 Y-17.06 F1000
X-3.19 Y-17.491
X-3.043 Y-17.931
Y-17.932
X-2.895 Y-18.379
X-2.893 Y-18.384
X-2.748 Y-18.836
X-2.745 Y-18.844
X-2.605 Y-19.304
X-2.602 Y-19.315
X-2.468 Y-19.782
X-2.465 Y-19.795
X-2.341 Y-20.271
X-2.337 Y-20.287
X-2.225 Y-20.772
X-2.221 Y-20.79
X-2.123 Y-21.284
X-2.119 Y-21.303
X-2.036 Y-21.808
X-2.033 Y-21.828
X-1.989 Y-22.172
Z-1.2
X-1.967 Y-22.343
X-1.965 Y-22.365
X-1.917 Y-22.891
X-1.915 Y-22.913
X-1.886 Y-23.45
X-1.885 Y-23.472
X-1.875 Y-24.02
Y-24.042
X-1.885 Y-24.59
X-1.886 Y-24.612
X-1.915 Y-25.149
X-1.917 Y-25.172
X-1.965 Y-25.697
X-1.967 Y-25.719
X-1.987 Y-25.873
Z-1.6 F200
X-2.033 Y-26.234 F1000
X-2.036 Y-26.255
X-2.119 Y-26.759
X-2.123 Y-26.779
X-2.221 Y-27.273
X-2.225 Y-27.291
X-2.337 Y-27.775
X-2.341 Y-27.791
X-2.465 Y-28.267
X-2.468 Y-28.28
X-2.602 Y-28.748
X-2.605 Y-28.759
X-2.745 Y-29.218
X-2.748 Y-29.226
X-2.893 Y-29.679
X-2.895 Y-29.684
X-3.043 Y-30.13
Y-30.132
X-3.19 Y-30.571
X-3.333 Y-31.003
X-3.468 Y-31.426
X-3.593 Y-31.842
X-3.704 Y-32.25
X-3.8 Y-32.651
X-3.877 Y-33.045
X-3.933 Y-33.433
X-3.965 Y-33.816
X-3.971 Y-34.193
X-3.95 Y-34.568
X-3.898 Y-34.941
X-3.813 Y-35.315
X-3.693 Y-35.692
X-3.533 Y-36.075
X-3.331 Y-36.464
X-3.083 Y-36.861
X-2.787 Y-37.266
X-2.44 Y-37.68
X-2.034 Y-38.108
G2 X-9.955 Y-46.027 I-3.966 J-3.954
G1 X-10.419 Y-45.585
X-10.863 Y-45.205
X-11.293 Y-44.881
X-11.709 Y-44.61
X-12.115 Y-44.387
X-12.305 Y-44.298
X-12.497 Y-44.217
X-12.686 Y-44.146
X-12.867 Y-44.089
X-13.24 Y-43.996
X-13.6 Y-43.941
X-13.958 Y-43.918
X-14.315 Y-43.925
X-14.674 Y-43.959
X-15.037 Y-44.018
X-15.407 Y-44.101
X-15.783 Y-44.203
X-16.166 Y-44.323
X-16.558 Y-44.458
X-16.96 Y-44.604
X-17.372 Y-44.759
X-17.794 Y-44.918
X-17.797 Y-44.919
X-18.227 Y-45.079
X-18.234 Y-45.081
X-18.673 Y-45.239
X-18.684 Y-45.242
X-19.134 Y-45.394
X-19.147 Y-45.399
X-19.609 Y-45.543
X-19.625 Y-45.548
X-20.101 Y-45.681
X-20.119 Y-45.686
X-20.608 Y-45.807
X-20.628 Y-45.812
X-21.132 Y-45.919
X-21.154 Y-45.923
X-21.675 Y-46.013
X-21.697 Y-46.016
X-22.234 Y-46.088
X-22.257 Y-46.09
X-22.812 Y-46.142
X-22.835 Y-46.144
X-23.407 Y-46.176
X-23.43 Y-46.177
X-24.02 Y-46.187
X-24.042
X-24.633 Y-46.177
X-24.655 Y-46.176
X-25.227 Y-46.144
X-25.251 Y-46.142
X-25.805 Y-46.09
X-25.828 Y-46.088
X-26.365 Y-46.016
X-26.388 Y-46.013
X-26.908 Y-45.923
X-26.93 Y-45.919
X-27.434 Y-45.812
X-27.454 Y-45.807
X-27.944 Y-45.686
X-27.962 Y-45.681
X-28.437 Y-45.548
X-28.453 Y-45.543
X-28.915 Y-45.399
X-28.929 Y-45.394
X-29.379 Y-45.242
X-29.389 Y-45.239
X-29.829 Y-45.081
X-29.836 Y-45.079
X-30.266 Y-44.919
X-30.269 Y-44.918
X-30.69 Y-44.759
X-31.102 Y-44.604
X-31.504 Y-44.458
X-31.896 Y-44.323
X-32.28 Y-44.203
X-32.656 Y-44.101
X-33.025 Y-44.018
X-33.389 Y-43.959
X-33.748 Y-43.925
X-34.105 Y-43.918
X-34.462 Y-43.941
X-34.823 Y-43.996
X-35.196 Y-44.089
X-35.376 Y-44.146
X-35.566 Y-44.217
X-35.758 Y-44.298
X-35.948 Y-44.387
X-36.354 Y-44.61
X-36.769 Y-44.881
X-37.199 Y-45.205
X-37.644 Y-45.585
X-38.108 Y-46.027
G2 X-46.028 Y-38.108 I-3.955 J3.965
G1 X-45.623 Y-37.68
X-45.275 Y-37.266
X-44.979 Y-36.861
X-44.731 Y-36.464
X-44.529 Y-36.075
X-44.37 Y-35.692
X-44.249 Y-35.315
X-44.164 Y-34.941
X-44.113 Y-34.568
X-44.091 Y-34.193
X-44.098 Y-33.816
X-44.13 Y-33.433
X-44.185 Y-33.045
X-44.262 Y-32.651
X-44.358 Y-32.25
X-44.47 Y-31.842
X-44.595 Y-31.426
X-44.73 Y-31.003
X-44.872 Y-30.571
X-45.019 Y-30.132
X-45.02 Y-30.13
X-45.168 Y-29.684
X-45.169 Y-29.679
X-45.315 Y-29.226
X-45.317 Y-29.218
X-45.458 Y-28.759
X-45.461 Y-28.748
X-45.594 Y-28.28
X-45.598 Y-28.267
X-45.721 Y-27.791
X-45.725 Y-27.776
X-45.837 Y-27.291
X-45.841 Y-27.273
X-45.939 Y-26.779
X-45.943 Y-26.759
X-46.026 Y-26.255
X-46.029 Y-26.234
X-46.073 Y-25.89
Z-1.2
X-46.095 Y-25.719
X-46.098 Y-25.697
X-46.146 Y-25.172
X-46.147 Y-25.149
X-46.177 Y-24.612
X-46.178 Y-24.59
X-46.187 Y-24.042
Y-24.02
X-46.178 Y-23.472
X-46.177 Y-23.45
X-46.147 Y-22.913
X-46.146 Y-22.891
X-46.098 Y-22.365
X-46.095 Y-22.343
X-46.075 Y-22.19
Z-1.6 F200
X-46.029 Y-21.829 F1000
X-46.026 Y-21.808
X-45.943 Y-21.303
X-45.939 Y-21.284
X-45.841 Y-20.79
X-45.837 Y-20.771
X-45.725 Y-20.287
X-45.721 Y-20.271
X-45.598 Y-19.795
X-45.594 Y-19.782
X-45.461 Y-19.315
X-45.458 Y-19.304
X-45.317 Y-18.844
X-45.315 Y-18.836
X-45.169 Y-18.384
X-45.168 Y-18.379
X-45.02 Y-17.933
X-45.019 Y-17.931
X-44.872 Y-17.491
X-44.73 Y-17.06
X-44.595 Y-16.636
X-44.47 Y-16.22
X-44.358 Y-15.812
X-44.262 Y-15.411
X-44.185 Y-15.017
X-44.13 Y-14.629
X-44.098 Y-14.247
X-44.091 Y-13.869
X-44.113 Y-13.495
X-44.164 Y-13.121
X-44.249 Y-12.747
X-44.37 Y-12.37
X-44.529 Y-11.988
X-44.731 Y-11.599
X-44.979 Y-11.202
X-45.275 Y-10.796
X-45.623 Y-10.382
X-46.028 Y-9.954
G2 X-38.108 Y-2.035 I3.966 J3.954
G1 X-37.644 Y-2.477
X-37.199 Y-2.857
X-36.769 Y-3.181
X-36.354 Y-3.452
X-35.948 Y-3.675
X-35.758 Y-3.765
X-35.565 Y-3.846
X-35.376 Y-3.916
X-35.196 Y-3.974
X-34.823 Y-4.066
X-34.462 Y-4.122
X-34.105 Y-4.145
X-33.748 Y-4.138
X-33.388 Y-4.103
X-33.025 Y-4.044
X-32.656 Y-3.962
X-32.28 Y-3.859
X-31.896 Y-3.739
X-31.504 Y-3.605
X-31.102 Y-3.458
X-30.69 Y-3.304
X-30.269 Y-3.145
X-30.266 Y-3.144
X-29.836 Y-2.984
X-29.829 Y-2.981
X-29.389 Y-2.824
X-29.379 Y-2.82
X-28.929 Y-2.668
X-28.915 Y-2.664
X-28.453 Y-2.52
X-28.437 Y-2.515
X-27.962 Y-2.381
X-27.944 Y-2.376
X-27.454 Y-2.255
X-27.434 Y-2.25
X-26.93 Y-2.144
X-26.908 Y-2.14
X-26.388 Y-2.05
X-26.365 Y-2.046
X-25.873 Y-1.981
Z-1.2
X-25.828 Y-1.975
X-25.805 Y-1.972
X-25.25 Y-1.92
X-25.227 Y-1.918
X-24.655 Y-1.887
X-24.633 Y-1.886
X-24.042 Y-1.875
X-24.02
X-23.43 Y-1.886
X-23.407 Y-1.887
X-22.835 Y-1.918
X-22.812 Y-1.92
X-22.257 Y-1.972
X-22.234 Y-1.975
X-22.172 Y-1.983
Z-1.6 F200
X-21.697 Y-2.046 F1000
X-21.675 Y-2.05
X-21.154 Y-2.14
X-21.133 Y-2.144
X-20.628 Y-2.25
X-20.608 Y-2.255
X-20.119 Y-2.376
X-20.101 Y-2.381
X-19.625 Y-2.515
X-19.609 Y-2.52
X-19.147 Y-2.664
X-19.134 Y-2.668
X-18.684 Y-2.82
X-18.673 Y-2.824
X-18.234 Y-2.981
X-18.227 Y-2.984
X-17.797 Y-3.144
X-17.794 Y-3.145
X-17.372 Y-3.304
X-16.96 Y-3.458
X-16.558 Y-3.605
X-16.166 Y-3.739
X-15.782 Y-3.859
X-15.406 Y-3.962
X-15.037 Y-4.044
X-14.674 Y-4.103
X-14.315 Y-4.138
X-13.958 Y-4.145
X-13.6 Y-4.122
X-13.24 Y-4.066
X-12.866 Y-3.974
X-12.686 Y-3.916
X-12.497 Y-3.846
X-12.305 Y-3.765
X-12.115 Y-3.675
X-11.709 Y-3.452
X-11.293 Y-3.181
X-10.863 Y-2.857
X-10.419 Y-2.477
X-9.955 Y-2.035
G2 X-2.034 Y-9.954 I3.955 J-3.965
G1 X-2.44 Y-10.382
X-2.787 Y-10.796
X-3.083 Y-11.202
X-3.331 Y-11.599
X-3.533 Y-11.988
X-3.693 Y-12.37
X-3.813 Y-12.747
X-3.898 Y-13.121
X-3.95 Y-13.495
X-3.971 Y-13.869
X-3.965 Y-14.247
X-3.933 Y-14.629
X-3.877 Y-15.017
X-3.8 Y-15.411
X-3.704 Y-15.812
X-3.593 Y-16.22
X-3.468 Y-16.636
X-3.416 Y-16.797
S5000
X-3.333 Y-17.06 Z-1.61 F333.3
X-3.19 Y-17.491 Z-1.625
X-3.043 Y-17.931 Z-1.642
Y-17.932
X-2.895 Y-18.379 Z-1.658
X-2.893 Y-18.384
X-2.748 Y-18.836 Z-1.675
X-2.745 Y-18.844
X-2.605 Y-19.304 Z-1.692
X-2.602 Y-19.315
X-2.468 Y-19.782 Z-1.709
X-2.465 Y-19.795 Z-1.71
X-2.341 Y-20.271 Z-1.727
X-2.337 Y-20.287 Z-1.728
X-2.225 Y-20.772 Z-1.745
X-2.221 Y-20.79 Z-1.746
X-2.123 Y-21.284 Z-1.763
X-2.119 Y-21.303 Z-1.764
X-2.036 Y-21.808 Z-1.782
X-2.033 Y-21.828
X-1.989 Y-22.172 Z-1.795
Z-1.2
X-1.969 Y-22.326
S4000
X-1.967 Y-22.343 F1000
X-1.965 Y-22.365
X-1.917 Y-22.891
X-1.915 Y-22.913
X-1.886 Y-23.45
X-1.885 Y-23.472
X-1.875 Y-24.02
Y-24.042
X-1.885 Y-24.59
X-1.886 Y-24.612
X-1.915 Y-25.149
X-1.917 Y-25.172
X-1.965 Y-25.697
X-1.967 Y-25.719
X-1.987 Y-25.873
Z-1.8 F200
X-2.033 Y-26.234 F1000
X-2.036 Y-26.255
X-2.119 Y-26.759
X-2.123 Y-26.779
X-2.221 Y-27.273
X-2.225 Y-27.291
X-2.337 Y-27.775
X-2.341 Y-27.791
X-2.465 Y-28.267
X-2.468 Y-28.28
X-2.602 Y-28.748
X-2.605 Y-28.759
X-2.745 Y-29.218
X-2.748 Y-29.226
X-2.893 Y-29.679
X-2.895 Y-29.684
X-3.043 Y-30.13
Y-30.132
X-3.19 Y-30.571
X-3.333 Y-31.003
X-3.468 Y-31.426
X-3.593 Y-31.842
X-3.704 Y-32.25
X-3.8 Y-32.651
X-3.877 Y-33.045
X-3.933 Y-33.433
X-3.965 Y-33.816
X-3.971 Y-34.193
X-3.95 Y-34.568
X-3.898 Y-34.941
X-3.813 Y-35.315
X-3.693 Y-35.692
X-3.533 Y-36.075
X-3.331 Y-36.464
X-3.083 Y-36.861
X-2.787 Y-37.266
X-2.44 Y-37.68
X-2.034 Y-38.108
G2 X-9.955 Y-46.027 I-3.966 J-3.954
G1 X-10.419 Y-45.585
X-10.863 Y-45.205
X-11.293 Y-44.881
X-11.709 Y-44.61
X-12.115 Y-44.387
X-12.305 Y-44.298
X-12.497 Y-44.217
X-12.686 Y-44.146
X-12.867 Y-44.089
X-13.24 Y-43.996
X-13.6 Y-43.941
X-13.958 Y-43.918
X-14.315 Y-43.925
X-14.674 Y-43.959
X-15.037 Y-44.018
X-15.407 Y-44.101
X-15.783 Y-44.203
X-16.166 Y-44.323
X-16.558 Y-44.458
X-16.96 Y-44.604
X-17.372 Y-44.759
X-17.794 Y-44.918
X-17.797 Y-44.919
X-18.227 Y-45.079
X-18.234 Y-45.081
X-18.673 Y-45.239
X-18.684 Y-45.242
X-19.134 Y-45.394
X-19.147 Y-45.399
X-19.609 Y-45.543
X-19.625 Y-45.548
X-20.101 Y-45.681
X-20.119 Y-45.686
X-20.608 Y-45.807
X-20.628 Y-45.812
X-21.132 Y-45.919
X-21.154 Y-45.923
X-21.675 Y-46.013
X-21.697 Y-46.016
X-22.234 Y-46.088
X-22.257 Y-46.09
X-22.812 Y-46.142
X-22.835 Y-46.144
X-23.407 Y-46.176
X-23.43 Y-46.177
X-24.02 Y-46.187
X-24.042
X-24.633 Y-46.177
X-24.655 Y-46.176
X-25.227 Y-46.144
X-25.251 Y-46.142
X-25.805 Y-46.09
X-25.828 Y-46.088
X-26.365 Y-46.016
X-26.388 Y-46.013
X-26.908 Y-45.923
X-26.93 Y-45.919
X-27.434 Y-45.812
X-27.454 Y-45.807
X-27.944 Y-45.686
X-27.962 Y-45.681
X-28.437 Y-45.548
X-28.453 Y-45.543
X-28.915 Y-45.399
X-28.929 Y-45.394
X-29.379 Y-45.242
X-29.389 Y-45.239
X-29.829 Y-45.081
X-29.836 Y-45.079
X-30.266 Y-44.919
X-30.269 Y-44.918
X-30.69 Y-44.759
X-31.102 Y-44.604
X-31.504 Y-44.458
X-31.896 Y-44.323
X-32.28 Y-44.203
X-32.656 Y-44.101
X-33.025 Y-44.018
X-33.389 Y-43.959
X-33.748 Y-43.925
X-34.105 Y-43.918
X-34.462 Y-43.941
X-34.823 Y-43.996
X-35.196 Y-44.089
X-35.376 Y-44.146
X-35.566 Y-44.217
X-35.758 Y-44.298
X-35.948 Y-44.387
X-36.354 Y-44.61
X-36.769 Y-44.881
X-37.199 Y-45.205
X-37.644 Y-45.585
X-38.108 Y-46.027
G2 X-46.028 Y-38.108 I-3.955 J3.965
G1 X-45.623 Y-37.68
X-45.275 Y-37.266
X-44.979 Y-36.861
X-44.731 Y-36.464
X-44.529 Y-36.075
X-44.37 Y-35.692
X-44.249 Y-35.315
X-44.164 Y-34.941
X-44.113 Y-34.568
X-44.091 Y-34.193
X-44.098 Y-33.816
X-44.13 Y-33.433
X-44.185 Y-33.045
X-44.262 Y-32.651
X-44.358 Y-32.25
X-44.47 Y-31.842
X-44.595 Y-31.426
X-44.73 Y-31.003
X-44.872 Y-30.571
X-45.019 Y-30.132
X-45.02 Y-30.13
X-45.168 Y-29.684
X-45.169 Y-29.679
X-45.315 Y-29.226
X-45.317 Y-29.218
X-45.458 Y-28.759
X-45.461 Y-28.748
X-45.594 Y-28.28
X-45.598 Y-28.267
X-45.721 Y-27.791
X-45.725 Y-27.776
X-45.837 Y-27.291
X-45.841 Y-27.273
X-45.939 Y-26.779
X-45.943 Y-26.759
X-46.026 Y-26.255
X-46.029 Y-26.234
X-46.073 Y-25.89
Z-1.2
X-46.095 Y-25.719
X-46.098 Y-25.697
X-46.146 Y-25.172
X-46.147 Y-25.149
X-46.177 Y-24.612
X-46.178 Y-24.59
X-46.187 Y-24.042
Y-24.02
X-46.178 Y-23.472
X-46.177 Y-23.45
X-46.147 Y-22.913
X-46.146 Y-22.891
X-46.098 Y-22.365
X-46.095 Y-22.343
X-46.075 Y-22.19
Z-1.8 F200
X-46.029 Y-21.829 F1000
X-46.026 Y-21.808
X-45.943 Y-21.303
X-45.939 Y-21.284
X-45.841 Y-20.79
X-45.837 Y-20.771
X-45.725 Y-20.287
X-45.721 Y-20.271
X-45.598 Y-19.795
X-45.594 Y-19.782
X-45.461 Y-19.315
X-45.458 Y-19.304
X-45.317 Y-18.844
X-45.315 Y-18.836
X-45.169 Y-18.384
X-45.168 Y-18.379
X-45.02 Y-17.933
X-45.019 Y-17.931
X-44.872 Y-17.491
X-44.73 Y-17.06
X-44.595 Y-16.636
X-44.47 Y-16.22
X-44.358 Y-15.812
X-44.262 Y-15.411
X-44.185 Y-15.017
X-44.13 Y-14.629
X-44.098 Y-14.247
X-44.091 Y-13.869
X-44.113 Y-13.495
X-44.164 Y-13.121
X-44.249 Y-12.747
X-44.37 Y-12.37
X-44.529 Y-11.988
X-44.731 Y-11.599
X-44.979 Y-11.202
X-45.275 Y-10.796
X-45.623 Y-10.382
X-46.028 Y-9.954
G2 X-38.108 Y-2.035 I3.966 J3.954
G1 X-37.644 Y-2.477
X-37.199 Y-2.857
X-36.769 Y-3.181
X-36.354 Y-3.452
X-35.948 Y-3.675
X-35.758 Y-3.765
X-35.565 Y-3.846
X-35.376 Y-3.916
X-35.196 Y-3.974
X-34.823 Y-4.066
X-34.462 Y-4.122
X-34.105 Y-4.145
X-33.748 Y-4.138
X-33.388 Y-4.103
X-33.025 Y-4.044
X-32.656 Y-3.962
X-32.28 Y-3.859
X-31.896 Y-3.739
X-31.504 Y-3.605
X-31.102 Y-3.458
X-30.69 Y-3.304
X-30.269 Y-3.145
X-30.266 Y-3.144
X-29.836 Y-2.984
X-29.829 Y-2.981
X-29.389 Y-2.824
X-29.379 Y-2.82
X-28.929 Y-2.668
X-28.915 Y-2.664
X-28.453 Y-2.52
X-28.437 Y-2.515
X-27.962 Y-2.381
X-27.944 Y-2.376
X-27.454 Y-2.255
X-27.434 Y-2.25
X-26.93 Y-2.144
X-26.908 Y-2.14
X-26.388 Y-2.05
X-26.365 Y-2.046
X-25.873 Y-1.981
Z-1.2
X-25.828 Y-1.975
X-25.805 Y-1.972
X-25.25 Y-1.92
X-25.227 Y-1.918
X-24.655 Y-1.887
X-24.633 Y-1.886
X-24.042 Y-1.875
X-24.02
X-23.43 Y-1.886
X-23.407 Y-1.887
X-22.835 Y-1.918
X-22.812 Y-1.92
X-22.257 Y-1.972
X-22.234 Y-1.975
X-22.172 Y-1.983
Z-1.8 F200
X-21.697 Y-2.046 F1000
X-21.675 Y-2.05
X-21.154 Y-2.14
X-21.133 Y-2.144
X-20.628 Y-2.25
X-20.608 Y-2.255
X-20.119 Y-2.376
X-20.101 Y-2.381
X-19.625 Y-2.515
X-19.609 Y-2.52
X-19.147 Y-2.664
X-19.134 Y-2.668
X-18.684 Y-2.82
X-18.673 Y-2.824
X-18.234 Y-2.981
X-18.227 Y-2.984
X-17.797 Y-3.144
X-17.794 Y-3.145
X-17.372 Y-3.304
X-16.96 Y-3.458
X-16.558 Y-3.605
X-16.166 Y-3.739
X-15.782 Y-3.859
X-15.406 Y-3.962
X-15.037 Y-4.044
X-14.674 Y-4.103
X-14.315 Y-4.138
X-13.958 Y-4.145
X-13.6 Y-4.122
X-13.24 Y-4.066
X-12.866 Y-3.974
X-12.686 Y-3.916
X-12.497 Y-3.846
X-12.305 Y-3.765
X-12.115 Y-3.675
X-11.709 Y-3.452
X-11.293 Y-3.181
X-10.863 Y-2.857
X-10.419 Y-2.477
X-9.955 Y-2.035
G2 X-2.034 Y-9.954 I3.955 J-3.965
G1 X-2.44 Y-10.382
X-2.787 Y-10.796
X-3.083 Y-11.202
X-3.331 Y-11.599
X-3.533 Y-11.988
X-3.693 Y-12.37
X-3.813 Y-12.747
X-3.898 Y-13.121
X-3.95 Y-13.495
X-3.971 Y-13.869
X-3.965 Y-14.247
X-3.933 Y-14.629
X-3.877 Y-15.017
X-3.8 Y-15.411
X-3.704 Y-15.812
X-3.593 Y-16.22
X-3.468 Y-16.636
X-3.333 Y-17.06
X-3.19 Y-17.491
X-3.043 Y-17.931
Y-17.932
X-2.895 Y-18.379
X-2.893 Y-18.384
X-2.748 Y-18.836
X-2.745 Y-18.844
X-2.605 Y-19.304
X-2.602 Y-19.315
X-2.468 Y-19.782
X-2.465 Y-19.795
X-2.341 Y-20.271
X-2.337 Y-20.287
X-2.225 Y-20.772
X-2.221 Y-20.79
X-2.123 Y-21.284
X-2.119 Y-21.303
X-2.036 Y-21.808
X-2.033 Y-21.828
X-1.989 Y-22.172
Z-1.2
X-1.969 Y-22.326
G0 Z15
G28 G91 Z0
G90
G28 G91 X0 Y0
G90
M5
M30
