(1001)
G90 G94
G17
G21
(When using Fusion 360 for Personal Use, the feedrate of)
(rapid moves is reduced to match the feedrate of cutting)
(moves, which can increase machining time. Unrestricted rapid)
(moves are available with a Fusion 360 Subscription.)

(Bohrfrasen13)
S6000 M3
G54
G0 X-6 Y-6
Z15
G1 Z2 F600
Z0 F400
X-6.15 Y-6.625
X-6.143 Y-6.671
X-6.121 Y-6.713
X-6.088 Y-6.746
X-6.046 Y-6.768
X-6 Y-6.775
G3 X-6 Y-5.225 Z-0.15 I0 J0.775 F600
X-6 Y-6.775 Z-0.3 I0 J-0.775
X-6 Y-5.225 Z-0.45 I0 J0.775
X-6 Y-6.775 Z-0.6 I0 J-0.775
X-6 Y-5.225 Z-0.75 I0 J0.775
X-6 Y-6.775 Z-0.9 I0 J-0.775
X-6 Y-5.225 Z-1.05 I0 J0.775
X-6 Y-6.775 Z-1.2 I0 J-0.775
X-6 Y-5.225 Z-1.35 I0 J0.775
X-6 Y-6.775 Z-1.5 I0 J-0.775
X-6 Y-5.225 Z-1.65 I0 J0.775
X-6 Y-6.775 Z-1.8 I0 J-0.775
X-6 Y-5.225 Z-1.95 I0 J0.775
X-6.671 Y-5.613 Z-2 I0 J-0.775
X-5.329 Y-6.387 I0.671 J-0.387
X-6.671 Y-5.613 I-0.671 J0.387
G1 X-6.688 Y-5.656
X-6.69 Y-5.703
X-6.678 Y-5.749
X-6.653 Y-5.788
X-6.616 Y-5.817
X-6 Y-6
Z5
X-42.062
Z2
Z0 F400
X-42.212 Y-6.625
X-42.205 Y-6.671
X-42.184 Y-6.713
X-42.151 Y-6.746
X-42.109 Y-6.768
X-42.062 Y-6.775
G3 X-42.062 Y-5.225 Z-0.15 I0 J0.775 F600
X-42.062 Y-6.775 Z-0.3 I0 J-0.775
X-42.062 Y-5.225 Z-0.45 I0 J0.775
X-42.062 Y-6.775 Z-0.6 I0 J-0.775
X-42.062 Y-5.225 Z-0.75 I0 J0.775
X-42.062 Y-6.775 Z-0.9 I0 J-0.775
X-42.062 Y-5.225 Z-1.05 I0 J0.775
X-42.062 Y-6.775 Z-1.2 I0 J-0.775
X-42.062 Y-5.225 Z-1.35 I0 J0.775
X-42.062 Y-6.775 Z-1.5 I0 J-0.775
X-42.062 Y-5.225 Z-1.65 I0 J0.775
X-42.062 Y-6.775 Z-1.8 I0 J-0.775
X-42.062 Y-5.225 Z-1.95 I0 J0.775
X-42.734 Y-5.613 Z-2 I0 J-0.775
X-41.391 Y-6.387 I0.671 J-0.387
X-42.734 Y-5.613 I-0.671 J0.387
G1 X-42.75 Y-5.656
X-42.753 Y-5.703
X-42.741 Y-5.749
X-42.715 Y-5.788
X-42.679 Y-5.817
X-42.062 Y-6
Z5
Y-42.062
Z2
Z0 F400
X-41.912 Y-41.437
X-41.92 Y-41.391
X-41.941 Y-41.349
X-41.974 Y-41.316
X-42.016 Y-41.295
X-42.062 Y-41.287
G3 X-42.062 Y-42.837 Z-0.15 I0 J-0.775 F600
X-42.062 Y-41.287 Z-0.3 I0 J0.775
X-42.062 Y-42.837 Z-0.45 I0 J-0.775
X-42.062 Y-41.287 Z-0.6 I0 J0.775
X-42.062 Y-42.837 Z-0.75 I0 J-0.775
X-42.062 Y-41.287 Z-0.9 I0 J0.775
X-42.062 Y-42.837 Z-1.05 I0 J-0.775
X-42.062 Y-41.287 Z-1.2 I0 J0.775
X-42.062 Y-42.837 Z-1.35 I0 J-0.775
X-42.062 Y-41.287 Z-1.5 I0 J0.775
X-42.062 Y-42.837 Z-1.65 I0 J-0.775
X-42.062 Y-41.287 Z-1.8 I0 J0.775
X-42.062 Y-42.837 Z-1.95 I0 J-0.775
X-41.391 Y-42.45 Z-2 I0 J0.775
X-42.734 Y-41.675 I-0.671 J0.388
X-41.391 Y-42.45 I0.671 J-0.388
G1 X-41.374 Y-42.406
X-41.372 Y-42.359
X-41.384 Y-42.314
X-41.41 Y-42.275
X-41.446 Y-42.245
X-42.062 Y-42.062
Z5
X-6
Z2
Z0 F400
X-5.85 Y-41.437
X-5.857 Y-41.391
X-5.879 Y-41.349
X-5.912 Y-41.316
X-5.954 Y-41.295
X-6 Y-41.287
G3 X-6 Y-42.837 Z-0.15 I0 J-0.775 F600
X-6 Y-41.287 Z-0.3 I0 J0.775
X-6 Y-42.837 Z-0.45 I0 J-0.775
X-6 Y-41.287 Z-0.6 I0 J0.775
X-6 Y-42.837 Z-0.75 I0 J-0.775
X-6 Y-41.287 Z-0.9 I0 J0.775
X-6 Y-42.837 Z-1.05 I0 J-0.775
X-6 Y-41.287 Z-1.2 I0 J0.775
X-6 Y-42.837 Z-1.35 I0 J-0.775
X-6 Y-41.287 Z-1.5 I0 J0.775
X-6 Y-42.837 Z-1.65 I0 J-0.775
X-6 Y-41.287 Z-1.8 I0 J0.775
X-6 Y-42.837 Z-1.95 I0 J-0.775
X-5.329 Y-42.45 Z-2 I0 J0.775
X-6.671 Y-41.675 I-0.671 J0.388
X-5.329 Y-42.45 I0.671 J-0.388
G1 X-5.312 Y-42.406
X-5.31 Y-42.359
X-5.322 Y-42.314
X-5.347 Y-42.275
X-5.384 Y-42.245
X-6 Y-42.062
Z15
(When using Fusion 360 for Personal Use, the feedrate of)
(rapid moves is reduced to match the feedrate of cutting)
(moves, which can increase machining time. Unrestricted rapid)
(moves are available with a Fusion 360 Subscription.)

(Bohrfrasen16)
G0 X-6 Y-24.031
G1 Z15 F600
Z2
Z0 F400
X-6.137 Y-24.169
X-6.131 Y-24.211
X-6.111 Y-24.25
X-6.081 Y-24.28
X-6.042 Y-24.299
X-6 Y-24.306
G3 X-6 Y-23.756 Z-0.15 I0 J0.275 F600
X-6 Y-24.306 Z-0.3 I0 J-0.275
X-6 Y-23.756 Z-0.45 I0 J0.275
X-6 Y-24.306 Z-0.6 I0 J-0.275
X-6 Y-23.756 Z-0.75 I0 J0.275
X-6 Y-24.306 Z-0.9 I0 J-0.275
X-6 Y-23.756 Z-1.05 I0 J0.275
X-6 Y-24.306 Z-1.2 I0 J-0.275
X-6 Y-23.756 Z-1.35 I0 J0.275
X-6 Y-24.306 Z-1.5 I0 J-0.275
X-6 Y-23.756 Z-1.65 I0 J0.275
X-6 Y-24.306 Z-1.8 I0 J-0.275
X-6 Y-23.756 Z-1.95 I0 J0.275
X-6.238 Y-23.894 Z-2 I0 J-0.275
X-5.762 Y-24.169 I0.238 J-0.138
X-6.238 Y-23.894 I-0.238 J0.138
G1 X-6.254 Y-23.934
X-6.256 Y-23.977
X-6.245 Y-24.018
X-6.221 Y-24.054
X-6.188 Y-24.082
X-6 Y-24.031
Z5
X-14.031 Y-34.031
Z2
Z0 F400
X-13.894 Y-33.894
X-13.9 Y-33.851
X-13.92 Y-33.813
X-13.95 Y-33.782
X-13.989 Y-33.763
X-14.031 Y-33.756
G3 X-14.031 Y-34.306 Z-0.15 I0 J-0.275 F600
X-14.031 Y-33.756 Z-0.3 I0 J0.275
X-14.031 Y-34.306 Z-0.45 I0 J-0.275
X-14.031 Y-33.756 Z-0.6 I0 J0.275
X-14.031 Y-34.306 Z-0.75 I0 J-0.275
X-14.031 Y-33.756 Z-0.9 I0 J0.275
X-14.031 Y-34.306 Z-1.05 I0 J-0.275
X-14.031 Y-33.756 Z-1.2 I0 J0.275
X-14.031 Y-34.306 Z-1.35 I0 J-0.275
X-14.031 Y-33.756 Z-1.5 I0 J0.275
X-14.031 Y-34.306 Z-1.65 I0 J-0.275
X-14.031 Y-33.756 Z-1.8 I0 J0.275
X-14.031 Y-34.306 Z-1.95 I0 J-0.275
X-13.793 Y-34.169 Z-2 I0 J0.275
X-14.269 Y-33.894 I-0.238 J0.138
X-13.793 Y-34.169 I0.238 J-0.138
G1 X-13.778 Y-34.129
X-13.775 Y-34.086
X-13.787 Y-34.044
X-13.81 Y-34.008
X-13.843 Y-33.981
X-14.031 Y-34.031
Z5
X-24.031 Y-42.062
Z2
Z0 F400
X-23.894 Y-41.925
X-23.9 Y-41.882
X-23.92 Y-41.844
X-23.95 Y-41.814
X-23.989 Y-41.794
X-24.031 Y-41.787
G3 X-24.031 Y-42.337 Z-0.15 I0 J-0.275 F600
X-24.031 Y-41.787 Z-0.3 I0 J0.275
X-24.031 Y-42.337 Z-0.45 I0 J-0.275
X-24.031 Y-41.787 Z-0.6 I0 J0.275
X-24.031 Y-42.337 Z-0.75 I0 J-0.275
X-24.031 Y-41.787 Z-0.9 I0 J0.275
X-24.031 Y-42.337 Z-1.05 I0 J-0.275
X-24.031 Y-41.787 Z-1.2 I0 J0.275
X-24.031 Y-42.337 Z-1.35 I0 J-0.275
X-24.031 Y-41.787 Z-1.5 I0 J0.275
X-24.031 Y-42.337 Z-1.65 I0 J-0.275
X-24.031 Y-41.787 Z-1.8 I0 J0.275
X-24.031 Y-42.337 Z-1.95 I0 J-0.275
X-23.793 Y-42.2 Z-2 I0 J0.275
X-24.269 Y-41.925 I-0.238 J0.138
X-23.793 Y-42.2 I0.238 J-0.138
G1 X-23.778 Y-42.16
X-23.775 Y-42.117
X-23.787 Y-42.075
X-23.81 Y-42.039
X-23.843 Y-42.012
X-24.031 Y-42.062
Z5
X-34.031 Y-34.031
Z2
Z0 F400
X-33.894 Y-33.894
X-33.9 Y-33.851
X-33.92 Y-33.813
X-33.95 Y-33.782
X-33.989 Y-33.763
X-34.031 Y-33.756
G3 X-34.031 Y-34.306 Z-0.15 I0 J-0.275 F600
X-34.031 Y-33.756 Z-0.3 I0 J0.275
X-34.031 Y-34.306 Z-0.45 I0 J-0.275
X-34.031 Y-33.756 Z-0.6 I0 J0.275
X-34.031 Y-34.306 Z-0.75 I0 J-0.275
X-34.031 Y-33.756 Z-0.9 I0 J0.275
X-34.031 Y-34.306 Z-1.05 I0 J-0.275
X-34.031 Y-33.756 Z-1.2 I0 J0.275
X-34.031 Y-34.306 Z-1.35 I0 J-0.275
X-34.031 Y-33.756 Z-1.5 I0 J0.275
X-34.031 Y-34.306 Z-1.65 I0 J-0.275
X-34.031 Y-33.756 Z-1.8 I0 J0.275
X-34.031 Y-34.306 Z-1.95 I0 J-0.275
X-33.793 Y-34.169 Z-2 I0 J0.275
X-34.269 Y-33.894 I-0.238 J0.138
X-33.793 Y-34.169 I0.238 J-0.138
G1 X-33.778 Y-34.129
X-33.775 Y-34.086
X-33.787 Y-34.044
X-33.81 Y-34.008
X-33.843 Y-33.981
X-34.031 Y-34.031
Z5
X-42.062 Y-24.031
Z2
Z0 F400
X-41.925 Y-23.894
X-41.932 Y-23.851
X-41.951 Y-23.813
X-41.982 Y-23.782
X-42.02 Y-23.763
X-42.062 Y-23.756
G3 X-42.062 Y-24.306 Z-0.15 I0 J-0.275 F600
X-42.062 Y-23.756 Z-0.3 I0 J0.275
X-42.062 Y-24.306 Z-0.45 I0 J-0.275
X-42.062 Y-23.756 Z-0.6 I0 J0.275
X-42.062 Y-24.306 Z-0.75 I0 J-0.275
X-42.062 Y-23.756 Z-0.9 I0 J0.275
X-42.062 Y-24.306 Z-1.05 I0 J-0.275
X-42.062 Y-23.756 Z-1.2 I0 J0.275
X-42.062 Y-24.306 Z-1.35 I0 J-0.275
X-42.062 Y-23.756 Z-1.5 I0 J0.275
X-42.062 Y-24.306 Z-1.65 I0 J-0.275
X-42.062 Y-23.756 Z-1.8 I0 J0.275
X-42.062 Y-24.306 Z-1.95 I0 J-0.275
X-41.824 Y-24.169 Z-2 I0 J0.275
X-42.301 Y-23.894 I-0.238 J0.137
X-41.824 Y-24.169 I0.238 J-0.137
G1 X-41.809 Y-24.129
X-41.807 Y-24.086
X-41.818 Y-24.044
X-41.841 Y-24.008
X-41.875 Y-23.981
X-42.062 Y-24.031
Z5
X-34.031 Y-14.031
Z2
Z0 F400
X-34.169 Y-14.169
X-34.162 Y-14.211
X-34.142 Y-14.25
X-34.112 Y-14.28
X-34.074 Y-14.299
X-34.031 Y-14.306
G3 X-34.031 Y-13.756 Z-0.15 I0 J0.275 F600
X-34.031 Y-14.306 Z-0.3 I0 J-0.275
X-34.031 Y-13.756 Z-0.45 I0 J0.275
X-34.031 Y-14.306 Z-0.6 I0 J-0.275
X-34.031 Y-13.756 Z-0.75 I0 J0.275
X-34.031 Y-14.306 Z-0.9 I0 J-0.275
X-34.031 Y-13.756 Z-1.05 I0 J0.275
X-34.031 Y-14.306 Z-1.2 I0 J-0.275
X-34.031 Y-13.756 Z-1.35 I0 J0.275
X-34.031 Y-14.306 Z-1.5 I0 J-0.275
X-34.031 Y-13.756 Z-1.65 I0 J0.275
X-34.031 Y-14.306 Z-1.8 I0 J-0.275
X-34.031 Y-13.756 Z-1.95 I0 J0.275
X-34.269 Y-13.894 Z-2 I0 J-0.275
X-33.793 Y-14.169 I0.238 J-0.138
X-34.269 Y-13.894 I-0.238 J0.138
G1 X-34.285 Y-13.934
X-34.287 Y-13.977
X-34.276 Y-14.018
X-34.252 Y-14.054
X-34.219 Y-14.082
X-34.031 Y-14.031
Z5
X-24.031 Y-6
Z2
Z0 F400
X-24.169 Y-6.137
X-24.162 Y-6.18
X-24.142 Y-6.218
X-24.112 Y-6.249
X-24.074 Y-6.268
X-24.031 Y-6.275
G3 X-24.031 Y-5.725 Z-0.15 I0 J0.275 F600
X-24.031 Y-6.275 Z-0.3 I0 J-0.275
X-24.031 Y-5.725 Z-0.45 I0 J0.275
X-24.031 Y-6.275 Z-0.6 I0 J-0.275
X-24.031 Y-5.725 Z-0.75 I0 J0.275
X-24.031 Y-6.275 Z-0.9 I0 J-0.275
X-24.031 Y-5.725 Z-1.05 I0 J0.275
X-24.031 Y-6.275 Z-1.2 I0 J-0.275
X-24.031 Y-5.725 Z-1.35 I0 J0.275
X-24.031 Y-6.275 Z-1.5 I0 J-0.275
X-24.031 Y-5.725 Z-1.65 I0 J0.275
X-24.031 Y-6.275 Z-1.8 I0 J-0.275
X-24.031 Y-5.725 Z-1.95 I0 J0.275
X-24.269 Y-5.863 Z-2 I0 J-0.275
X-23.793 Y-6.137 I0.238 J-0.137
X-24.269 Y-5.863 I-0.238 J0.137
G1 X-24.285 Y-5.903
X-24.287 Y-5.946
X-24.276 Y-5.987
X-24.252 Y-6.023
X-24.219 Y-6.05
X-24.031 Y-6
Z5
X-14.031 Y-14.031
Z2
Z0 F400
X-14.169 Y-14.169
X-14.162 Y-14.211
X-14.142 Y-14.25
X-14.112 Y-14.28
X-14.074 Y-14.299
X-14.031 Y-14.306
G3 X-14.031 Y-13.756 Z-0.15 I0 J0.275 F600
X-14.031 Y-14.306 Z-0.3 I0 J-0.275
X-14.031 Y-13.756 Z-0.45 I0 J0.275
X-14.031 Y-14.306 Z-0.6 I0 J-0.275
X-14.031 Y-13.756 Z-0.75 I0 J0.275
X-14.031 Y-14.306 Z-0.9 I0 J-0.275
X-14.031 Y-13.756 Z-1.05 I0 J0.275
X-14.031 Y-14.306 Z-1.2 I0 J-0.275
X-14.031 Y-13.756 Z-1.35 I0 J0.275
X-14.031 Y-14.306 Z-1.5 I0 J-0.275
X-14.031 Y-13.756 Z-1.65 I0 J0.275
X-14.031 Y-14.306 Z-1.8 I0 J-0.275
X-14.031 Y-13.756 Z-1.95 I0 J0.275
X-14.269 Y-13.894 Z-2 I0 J-0.275
X-13.793 Y-14.169 I0.238 J-0.138
X-14.269 Y-13.894 I-0.238 J0.138
G1 X-14.285 Y-13.934
X-14.287 Y-13.977
X-14.276 Y-14.018
X-14.252 Y-14.054
X-14.219 Y-14.082
X-14.031 Y-14.031
Z15
(When using Fusion 360 for Personal Use, the feedrate of)
(rapid moves is reduced to match the feedrate of cutting)
(moves, which can increase machining time. Unrestricted rapid)
(moves are available with a Fusion 360 Subscription.)

(2D-Kontur4)
G0 X-21.621 Y-27.781
G1 Z15 F600
Z5
Z1.25 F300
Z0.5
X-11.5 Z0.147 F1016
G3 X-10.75 Y-27.031 Z0.105 I0 J0.75
G1 Y-21.031 Z-0.104
G3 X-11.5 Y-20.281 Z-0.145 I-0.75 J0
G1 X-14.5 Z-0.25
X-36.562 F600
G3 X-37.312 Y-21.031 I0 J-0.75
G1 Y-27.031
G3 X-36.562 Y-27.781 I0.75 J0
G1 X-11.5
G3 X-10.75 Y-27.031 I0 J0.75
G1 Y-21.031
G3 X-11.5 Y-20.281 I-0.75 J0
G1 X-14.5
X-21.659 Z-0.5 F1016
X-36.562 F600
G3 X-37.312 Y-21.031 I0 J-0.75
G1 Y-27.031
G3 X-36.562 Y-27.781 I0.75 J0
G1 X-11.5
G3 X-10.75 Y-27.031 I0 J0.75
G1 Y-21.031
G3 X-11.5 Y-20.281 I-0.75 J0
G1 X-21.659
X-28.818 Z-0.75 F1016
X-36.562 F600
G3 X-37.312 Y-21.031 I0 J-0.75
G1 Y-27.031
G3 X-36.562 Y-27.781 I0.75 J0
G1 X-11.5
G3 X-10.75 Y-27.031 I0 J0.75
G1 Y-21.031
G3 X-11.5 Y-20.281 I-0.75 J0
G1 X-21.659
X-28.818
X-35.977 Z-1 F1016
X-36.562 F600
G3 X-37.312 Y-21.031 I0 J-0.75
G1 Y-27.031
G3 X-36.562 Y-27.781 I0.75 J0
G1 X-11.5
G3 X-10.75 Y-27.031 I0 J0.75
G1 Y-21.031
G3 X-11.5 Y-20.281 I-0.75 J0
G1 X-28.818
X-35.977
X-36.562 Z-1.02 F1016
G3 X-37.312 Y-21.031 Z-1.062 I0 J-0.75
G1 Y-26.427 Z-1.25
Y-27.031 F600
G3 X-36.562 Y-27.781 I0.75 J0
G1 X-11.5
G3 X-10.75 Y-27.031 I0 J0.75
G1 Y-21.031
G3 X-11.5 Y-20.281 I-0.75 J0
G1 X-35.977
X-36.562
G3 X-37.312 Y-21.031 I0 J-0.75
G1 Y-26.427
Y-27.031 Z-1.271 F1016
G3 X-36.562 Y-27.781 Z-1.312 I0.75 J0
G1 X-31.186 Z-1.5
X-11.5 F600
G3 X-10.75 Y-27.031 I0 J0.75
G1 Y-21.031
G3 X-11.5 Y-20.281 I-0.75 J0
G1 X-36.562
G3 X-37.312 Y-21.031 I0 J-0.75
G1 Y-26.427
Y-27.031
G3 X-36.562 Y-27.781 I0.75 J0
G1 X-31.186
X-24.027 Z-1.75 F1016
X-11.5 F600
G3 X-10.75 Y-27.031 I0 J0.75
G1 Y-21.031
G3 X-11.5 Y-20.281 I-0.75 J0
G1 X-36.562
G3 X-37.312 Y-21.031 I0 J-0.75
G1 Y-27.031
G3 X-36.562 Y-27.781 I0.75 J0
G1 X-24.027
X-16.868 Z-2 F1016
X-11.5 F600
G3 X-10.75 Y-27.031 I0 J0.75
G1 Y-21.031
G3 X-11.5 Y-20.281 I-0.75 J0
G1 X-36.562
G3 X-37.312 Y-21.031 I0 J-0.75
G1 Y-27.031
G3 X-36.562 Y-27.781 I0.75 J0
G1 X-24.027
X-16.868
Z5
X-25.016 Y-35.787
Z1.25 F300
Z0.5
X-29.531 Z0.342 F1016
G3 X-30.281 Y-36.537 Z0.301 I0 J-0.75
G1 Y-37.037 Z0.284
G3 X-29.531 Y-37.787 Z0.243 I0.75 J0
G1 X-18.531 Z-0.142
G3 X-17.781 Y-37.037 Z-0.183 I0 J0.75
G1 Y-36.537 Z-0.2
G3 X-18.531 Y-35.787 Z-0.241 I-0.75 J0
G1 X-18.781 Z-0.25
X-29.531 F600
G3 X-30.281 Y-36.537 I0 J-0.75
G1 Y-37.037
G3 X-29.531 Y-37.787 I0.75 J0
G1 X-18.531
G3 X-17.781 Y-37.037 I0 J0.75
G1 Y-36.537
G3 X-18.531 Y-35.787 I-0.75 J0
G1 X-18.781
X-25.94 Z-0.5 F1016
X-29.531 F600
G3 X-30.281 Y-36.537 I0 J-0.75
G1 Y-37.037
G3 X-29.531 Y-37.787 I0.75 J0
G1 X-18.531
G3 X-17.781 Y-37.037 I0 J0.75
G1 Y-36.537
G3 X-18.531 Y-35.787 I-0.75 J0
G1 X-25.94
X-29.531 Z-0.625 F1016
G3 X-30.281 Y-36.537 Z-0.667 I0 J-0.75
G1 Y-37.037 Z-0.684
G3 X-29.531 Y-37.787 Z-0.725 I0.75 J0
G1 X-28.819 Z-0.75
X-18.531 F600
G3 X-17.781 Y-37.037 I0 J0.75
G1 Y-36.537
G3 X-18.531 Y-35.787 I-0.75 J0
G1 X-25.94
X-29.531
G3 X-30.281 Y-36.537 I0 J-0.75
G1 Y-37.037
G3 X-29.531 Y-37.787 I0.75 J0
G1 X-28.819
X-21.66 Z-1 F1016
X-18.531 F600
G3 X-17.781 Y-37.037 I0 J0.75
G1 Y-36.537
G3 X-18.531 Y-35.787 I-0.75 J0
G1 X-29.531
G3 X-30.281 Y-36.537 I0 J-0.75
G1 Y-37.037
G3 X-29.531 Y-37.787 I0.75 J0
G1 X-21.66
X-18.531 Z-1.109 F1016
G3 X-17.781 Y-37.037 Z-1.15 I0 J0.75
G1 Y-36.537 Z-1.168
G3 X-18.531 Y-35.787 Z-1.209 I-0.75 J0
G1 X-19.705 Z-1.25
X-29.531 F600
G3 X-30.281 Y-36.537 I0 J-0.75
G1 Y-37.037
G3 X-29.531 Y-37.787 I0.75 J0
G1 X-21.66
X-18.531
G3 X-17.781 Y-37.037 I0 J0.75
G1 Y-36.537
G3 X-18.531 Y-35.787 I-0.75 J0
G1 X-19.705
X-26.864 Z-1.5 F1016
X-29.531 F600
G3 X-30.281 Y-36.537 I0 J-0.75
G1 Y-37.037
G3 X-29.531 Y-37.787 I0.75 J0
G1 X-18.531
G3 X-17.781 Y-37.037 I0 J0.75
G1 Y-36.537
G3 X-18.531 Y-35.787 I-0.75 J0
G1 X-26.864
X-29.531 Z-1.593 F1016
G3 X-30.281 Y-36.537 Z-1.634 I0 J-0.75
G1 Y-37.037 Z-1.652
G3 X-29.531 Y-37.787 Z-1.693 I0.75 J0
G1 X-27.895 Z-1.75
X-18.531 F600
G3 X-17.781 Y-37.037 I0 J0.75
G1 Y-36.537
G3 X-18.531 Y-35.787 I-0.75 J0
G1 X-26.864
X-29.531
G3 X-30.281 Y-36.537 I0 J-0.75
G1 Y-37.037
G3 X-29.531 Y-37.787 I0.75 J0
G1 X-27.895
X-20.736 Z-2 F1016
X-18.531 F600
G3 X-17.781 Y-37.037 I0 J0.75
G1 Y-36.537
G3 X-18.531 Y-35.787 I-0.75 J0
G1 X-29.531
G3 X-30.281 Y-36.537 I0 J-0.75
G1 Y-37.037
G3 X-29.531 Y-37.787 I0.75 J0
G1 X-20.736
Z5
X-24.724 Y-12.275
Z1.25 F300
Z0.5
X-18.531 Z0.284 F1016
G3 X-17.781 Y-11.525 Z0.243 I0 J0.75
G1 Y-11.025 Z0.225
G3 X-18.531 Y-10.275 Z0.184 I-0.75 J0
G1 X-29.531 Z-0.2
G3 X-30.281 Y-11.025 Z-0.241 I0 J-0.75
G1 Y-11.275 Z-0.25
Y-11.525 F600
G3 X-29.531 Y-12.275 I0.75 J0
G1 X-18.531
G3 X-17.781 Y-11.525 I0 J0.75
G1 Y-11.025
G3 X-18.531 Y-10.275 I-0.75 J0
G1 X-29.531
G3 X-30.281 Y-11.025 I0 J-0.75
G1 Y-11.275
Y-11.525 Z-0.259 F1016
G3 X-29.531 Y-12.275 Z-0.3 I0.75 J0
G1 X-23.8 Z-0.5
X-18.531 F600
G3 X-17.781 Y-11.525 I0 J0.75
G1 Y-11.025
G3 X-18.531 Y-10.275 I-0.75 J0
G1 X-29.531
G3 X-30.281 Y-11.025 I0 J-0.75
G1 Y-11.525
G3 X-29.531 Y-12.275 I0.75 J0
G1 X-23.8
X-18.531 Z-0.684 F1016
G3 X-17.781 Y-11.525 Z-0.725 I0 J0.75
G1 Y-11.025 Z-0.743
X-17.789 Y-10.919 Z-0.746
X-17.811 Y-10.816 Z-0.75
G3 X-18.531 Y-10.275 I-0.72 J-0.209 F600
G1 X-29.531
G3 X-30.281 Y-11.025 I0 J-0.75
G1 Y-11.525
G3 X-29.531 Y-12.275 I0.75 J0
G1 X-23.8
X-18.531
G3 X-17.781 Y-11.525 I0 J0.75
G1 Y-11.025
X-17.789 Y-10.919
X-17.811 Y-10.816
G3 X-18.531 Y-10.275 Z-0.784 I-0.72 J-0.209 F1016
G1 X-24.724 Z-1
X-29.531 F600
G3 X-30.281 Y-11.025 I0 J-0.75
G1 Y-11.525
G3 X-29.531 Y-12.275 I0.75 J0
G1 X-18.531
G3 X-17.781 Y-11.525 I0 J0.75
G1 Y-11.025
G3 X-18.531 Y-10.275 I-0.75 J0
G1 X-24.724
X-29.531 Z-1.168 F1016
G3 X-30.281 Y-11.025 Z-1.209 I0 J-0.75
G1 Y-11.525 Z-1.226
G3 X-29.998 Y-12.112 Z-1.25 I0.75 J0
X-29.531 Y-12.275 I0.467 J0.587 F600
G1 X-18.531
G3 X-17.781 Y-11.525 I0 J0.75
G1 Y-11.025
G3 X-18.531 Y-10.275 I-0.75 J0
G1 X-24.724
X-29.531
G3 X-30.281 Y-11.025 I0 J-0.75
G1 Y-11.525
G3 X-29.998 Y-12.112 I0.75 J0
X-29.531 Y-12.275 Z-1.268 I0.467 J0.587 F1016
G1 X-22.876 Z-1.5
X-18.531 F600
G3 X-17.781 Y-11.525 I0 J0.75
G1 Y-11.025
G3 X-18.531 Y-10.275 I-0.75 J0
G1 X-29.531
G3 X-30.281 Y-11.025 I0 J-0.75
G1 Y-11.525
G3 X-29.531 Y-12.275 I0.75 J0
G1 X-22.876
X-18.531 Z-1.652 F1016
G3 X-17.781 Y-11.525 Z-1.693 I0 J0.75
G1 Y-11.025 Z-1.71
G3 X-18.489 Y-10.276 Z-1.75 I-0.75 J0
G1 X-18.531 Y-10.275 F600
X-29.531
G3 X-30.281 Y-11.025 I0 J-0.75
G1 Y-11.525
G3 X-29.531 Y-12.275 I0.75 J0
G1 X-22.876
X-18.531
G3 X-17.781 Y-11.525 I0 J0.75
G1 Y-11.025
G3 X-18.489 Y-10.276 I-0.75 J0
G1 X-18.531 Y-10.275 Z-1.751 F1016
X-25.648 Z-2
X-29.531 F600
G3 X-30.281 Y-11.025 I0 J-0.75
G1 Y-11.525
G3 X-29.531 Y-12.275 I0.75 J0
G1 X-18.531
G3 X-17.781 Y-11.525 I0 J0.75
G1 Y-11.025
G3 X-18.531 Y-10.275 I-0.75 J0
G1 X-25.648
Z15
(When using Fusion 360 for Personal Use, the feedrate of)
(rapid moves is reduced to match the feedrate of cutting)
(moves, which can increase machining time. Unrestricted rapid)
(moves are available with a Fusion 360 Subscription.)

(2D-Kontur5)
G0 X-44.533 Y-12.368
G1 Z15 F600
Z5
Z1.25 F300
Z1
X-44.665 Y-12.051 Z0.988 F1016
X-44.862 Y-11.673 Z0.973
X-45.103 Y-11.286 Z0.957
X-45.394 Y-10.889 Z0.94
X-45.735 Y-10.482 Z0.921
X-46.136 Y-10.059 Z0.901
G2 X-46.128 Y-1.934 Z0.586 I4.073 J4.059
X-38.003 Y-1.928 Z0.271 I4.066 J-4.066
G1 X-37.543 Y-2.366 Z0.249
X-37.105 Y-2.74 Z0.229
X-36.683 Y-3.058 Z0.21
X-36.277 Y-3.323 Z0.193
X-35.879 Y-3.542 Z0.177
X-35.696 Y-3.628 Z0.17
X-35.51 Y-3.706 Z0.163
X-35.327 Y-3.774 Z0.157
X-35.155 Y-3.829 Z0.15
X-34.793 Y-3.919 Z0.137
X-34.446 Y-3.972 Z0.125
X-34.101 Y-3.994 Z0.113
X-33.756 Y-3.988 Z0.101
X-33.408 Y-3.955 Z0.089
X-33.053 Y-3.897 Z0.076
X-32.692 Y-3.816 Z0.063
X-32.322 Y-3.715 Z0.05
X-31.943 Y-3.597 Z0.036
X-31.554 Y-3.463 Z0.021
X-31.154 Y-3.318 Z0.007
X-30.743 Y-3.163 Z-0.009
X-30.322 Y-3.004 Z-0.024
X-30.318 Y-3.003 Z-0.025
X-29.888 Y-2.843 Z-0.041
X-29.879 Y-2.84
X-29.44 Y-2.683 Z-0.057
X-29.427 Y-2.678 Z-0.058
X-28.977 Y-2.526 Z-0.074
X-28.96 Y-2.521 Z-0.075
X-28.498 Y-2.376 Z-0.092
X-28.478 Y-2.371 Z-0.093
X-28.003 Y-2.237 Z-0.11
X-27.98 Y-2.231 Z-0.111
X-27.49 Y-2.109 Z-0.128
X-27.465 Y-2.104 Z-0.129
X-26.961 Y-1.997 Z-0.147
X-26.934 Y-1.992 Z-0.148
X-26.413 Y-1.902 Z-0.167
X-26.385 Y-1.898 Z-0.168
X-25.848 Y-1.826 Z-0.186
X-25.819 Y-1.823 Z-0.187
X-25.265 Y-1.771 Z-0.207
X-25.236 Y-1.768 Z-0.208
X-24.663 Y-1.737 Z-0.228
X-24.635 Y-1.736 Z-0.229
X-24.045 Y-1.725 Z-0.25
X-24.031
X-24.018 F600
X-23.427 Y-1.736
X-23.399 Y-1.737
X-22.827 Y-1.768
X-22.798 Y-1.771
X-22.243 Y-1.823
X-22.215 Y-1.826
X-21.678 Y-1.898
X-21.649 Y-1.902
X-21.129 Y-1.992
X-21.102 Y-1.997
X-20.597 Y-2.104
X-20.572 Y-2.109
X-20.083 Y-2.231
X-20.06 Y-2.237
X-19.585 Y-2.371
X-19.565 Y-2.376
X-19.102 Y-2.521
X-19.086 Y-2.526
X-18.636 Y-2.678
X-18.623 Y-2.683
X-18.183 Y-2.84
X-18.175 Y-2.843
X-17.744 Y-3.003
X-17.741 Y-3.004
X-17.319 Y-3.163
X-16.908 Y-3.318
X-16.508 Y-3.463
X-16.119 Y-3.597
X-15.74 Y-3.715
X-15.37 Y-3.816
X-15.009 Y-3.897
X-14.655 Y-3.955
X-14.306 Y-3.988
X-13.961 Y-3.994
X-13.617 Y-3.972
X-13.269 Y-3.919
X-12.907 Y-3.829
X-12.735 Y-3.774
X-12.552 Y-3.706
X-12.366 Y-3.628
X-12.183 Y-3.542
X-11.786 Y-3.323
X-11.38 Y-3.058
X-10.957 Y-2.74
X-10.519 Y-2.366
X-10.059 Y-1.928
G2 X-1.927 Y-10.059 I4.059 J-4.072
G1 X-2.328 Y-10.482
X-2.669 Y-10.889
X-2.959 Y-11.286
X-3.201 Y-11.673
X-3.397 Y-12.051
X-3.552 Y-12.422
X-3.668 Y-12.787
X-3.75 Y-13.148
X-3.8 Y-13.509
X-3.821 Y-13.872
X-3.815 Y-14.239
X-3.784 Y-14.612
X-3.729 Y-14.992
X-3.653 Y-15.379
X-3.559 Y-15.775
X-3.449 Y-16.179
X-3.325 Y-16.592
X-3.19 Y-17.013
X-3.048 Y-17.444
X-2.901 Y-17.883
X-2.9 Y-17.885
X-2.752 Y-18.331
X-2.75 Y-18.338
X-2.605 Y-18.79
X-2.602 Y-18.8
X-2.461 Y-19.26
X-2.457 Y-19.274
X-2.324 Y-19.741
X-2.319 Y-19.758
X-2.196 Y-20.233
X-2.191 Y-20.253
X-2.079 Y-20.738
X-2.074 Y-20.76
X-1.976 Y-21.254
X-1.971 Y-21.279
X-1.888 Y-21.783
X-1.885 Y-21.809
X-1.818 Y-22.324
X-1.815 Y-22.351
X-1.767 Y-22.877
X-1.765 Y-22.905
X-1.736 Y-23.442
X-1.735 Y-23.469
X-1.725 Y-24.018
Y-24.045
X-1.735 Y-24.593
X-1.736 Y-24.621
X-1.765 Y-25.158
X-1.767 Y-25.185
X-1.815 Y-25.711
X-1.818 Y-25.738
X-1.885 Y-26.253
X-1.888 Y-26.279
X-1.971 Y-26.783
X-1.976 Y-26.808
X-2.074 Y-27.302
X-2.079 Y-27.325
X-2.191 Y-27.809
X-2.196 Y-27.829
X-2.319 Y-28.305
X-2.324 Y-28.322
X-2.457 Y-28.789
X-2.461 Y-28.803
X-2.602 Y-29.262
X-2.605 Y-29.272
X-2.75 Y-29.725
X-2.752 Y-29.731
X-2.9 Y-30.177
X-2.901 Y-30.179
X-3.048 Y-30.618
X-3.19 Y-31.049
X-3.325 Y-31.471
X-3.449 Y-31.883
X-3.559 Y-32.287
X-3.653 Y-32.683
X-3.729 Y-33.07
X-3.784 Y-33.45
X-3.815 Y-33.823
X-3.821 Y-34.19
X-3.8 Y-34.553
X-3.75 Y-34.914
X-3.668 Y-35.276
X-3.552 Y-35.641
X-3.397 Y-36.011
X-3.201 Y-36.389
X-2.959 Y-36.777
X-2.669 Y-37.174
X-2.328 Y-37.58
X-1.927 Y-38.004
G2 X-10.059 Y-46.135 I-4.073 J-4.059
G1 X-10.519 Y-45.697
X-10.957 Y-45.322
X-11.38 Y-45.004
X-11.786 Y-44.739
X-12.183 Y-44.521
X-12.366 Y-44.435
X-12.552 Y-44.356
X-12.735 Y-44.288
X-12.908 Y-44.233
X-13.269 Y-44.143
X-13.617 Y-44.09
X-13.961 Y-44.068
X-14.306 Y-44.075
X-14.655 Y-44.108
X-15.009 Y-44.166
X-15.37 Y-44.246
X-15.74 Y-44.347
X-16.119 Y-44.466
X-16.508 Y-44.599
X-16.908 Y-44.745
X-17.319 Y-44.899
X-17.741 Y-45.058
X-17.744 Y-45.059
X-18.175 Y-45.219
X-18.183 Y-45.222
X-18.623 Y-45.38
X-18.636 Y-45.384
X-19.086 Y-45.536
X-19.103 Y-45.542
X-19.565 Y-45.686
X-19.585 Y-45.692
X-20.06 Y-45.826
X-20.083 Y-45.832
X-20.572 Y-45.953
X-20.597 Y-45.959
X-21.102 Y-46.065
X-21.129 Y-46.071
X-21.649 Y-46.16
X-21.678 Y-46.165
X-22.215 Y-46.236
X-22.243 Y-46.24
X-22.798 Y-46.292
X-22.827 Y-46.294
X-23.399 Y-46.326
X-23.427 Y-46.327
X-24.018 Y-46.337
X-24.045
X-24.635 Y-46.327
X-24.663 Y-46.326
X-25.236 Y-46.294
X-25.265 Y-46.292
X-25.819 Y-46.24
X-25.848 Y-46.236
X-26.385 Y-46.165
X-26.413 Y-46.16
X-26.933 Y-46.071
X-26.961 Y-46.065
X-27.465 Y-45.959
X-27.49 Y-45.953
X-27.98 Y-45.832
X-28.003 Y-45.826
X-28.478 Y-45.692
X-28.498 Y-45.686
X-28.96 Y-45.542
X-28.977 Y-45.536
X-29.427 Y-45.384
X-29.44 Y-45.38
X-29.879 Y-45.222
X-29.888 Y-45.219
X-30.318 Y-45.059
X-30.322 Y-45.058
X-30.743 Y-44.899
X-31.154 Y-44.745
X-31.554 Y-44.599
X-31.943 Y-44.466
X-32.322 Y-44.347
X-32.692 Y-44.246
X-33.053 Y-44.166
X-33.408 Y-44.108
X-33.756 Y-44.075
X-34.101 Y-44.068
X-34.446 Y-44.09
X-34.793 Y-44.143
X-35.155 Y-44.233
X-35.327 Y-44.288
X-35.51 Y-44.356
X-35.696 Y-44.435
X-35.879 Y-44.521
X-36.277 Y-44.739
X-36.683 Y-45.004
X-37.105 Y-45.322
X-37.543 Y-45.697
X-38.003 Y-46.135
G2 X-46.128 Y-46.128 I-4.059 J4.072
X-46.136 Y-38.004 I4.066 J4.066
G1 X-45.735 Y-37.58
X-45.394 Y-37.174
X-45.103 Y-36.777
X-44.862 Y-36.389
X-44.665 Y-36.011
X-44.511 Y-35.641
X-44.394 Y-35.276
X-44.312 Y-34.914
X-44.262 Y-34.553
X-44.241 Y-34.19
X-44.247 Y-33.823
X-44.279 Y-33.45
X-44.333 Y-33.07
X-44.409 Y-32.683
X-44.503 Y-32.287
X-44.614 Y-31.883
X-44.738 Y-31.471
X-44.873 Y-31.049
X-45.015 Y-30.618
X-45.162 Y-30.179
Y-30.177
X-45.31 Y-29.731
X-45.312 Y-29.725
X-45.457 Y-29.272
X-45.46 Y-29.262
X-45.601 Y-28.803
X-45.605 Y-28.789
X-45.738 Y-28.322
X-45.743 Y-28.305
X-45.867 Y-27.829
X-45.871 Y-27.809
X-45.983 Y-27.325
X-45.988 Y-27.302
X-46.087 Y-26.808
X-46.091 Y-26.784
X-46.174 Y-26.279
X-46.178 Y-26.253
X-46.244 Y-25.738
X-46.247 Y-25.711
X-46.295 Y-25.185
X-46.297 Y-25.158
X-46.326 Y-24.621
X-46.327 Y-24.593
X-46.337 Y-24.045
Y-24.018
X-46.327 Y-23.469
X-46.326 Y-23.442
X-46.297 Y-22.905
X-46.295 Y-22.877
X-46.247 Y-22.351
X-46.244 Y-22.324
X-46.178 Y-21.809
X-46.174 Y-21.783
X-46.091 Y-21.279
X-46.087 Y-21.254
X-45.988 Y-20.76
X-45.983 Y-20.738
X-45.871 Y-20.253
X-45.867 Y-20.233
X-45.743 Y-19.758
X-45.738 Y-19.741
X-45.605 Y-19.274
X-45.601 Y-19.26
X-45.46 Y-18.8
X-45.457 Y-18.79
X-45.312 Y-18.338
X-45.31 Y-18.332
X-45.162 Y-17.885
Y-17.883
X-45.015 Y-17.444
X-44.873 Y-17.013
X-44.738 Y-16.592
X-44.614 Y-16.179
X-44.503 Y-15.775
X-44.409 Y-15.379
X-44.333 Y-14.992
X-44.279 Y-14.612
X-44.247 Y-14.239
X-44.241 Y-13.872
X-44.262 Y-13.509
X-44.312 Y-13.148
X-44.394 Y-12.787
X-44.511 Y-12.422
X-44.665 Y-12.051
X-44.862 Y-11.673
X-45.103 Y-11.286
X-45.394 Y-10.889
X-45.735 Y-10.482
X-46.136 Y-10.059
G2 X-46.128 Y-1.934 I4.073 J4.059
X-38.003 Y-1.928 I4.066 J-4.066
G1 X-37.543 Y-2.366
X-37.105 Y-2.74
X-36.683 Y-3.058
X-36.277 Y-3.323
X-35.879 Y-3.542
X-35.696 Y-3.628
X-35.51 Y-3.706
X-35.327 Y-3.774
X-35.155 Y-3.829
X-34.793 Y-3.919
X-34.446 Y-3.972
X-34.101 Y-3.994
X-33.756 Y-3.988
X-33.408 Y-3.955
X-33.053 Y-3.897
X-32.692 Y-3.816
X-32.322 Y-3.715
X-31.943 Y-3.597
X-31.554 Y-3.463
X-31.154 Y-3.318
X-30.743 Y-3.163
X-30.322 Y-3.004
X-30.318 Y-3.003
X-29.888 Y-2.843
X-29.879 Y-2.84
X-29.44 Y-2.683
X-29.427 Y-2.678
X-28.977 Y-2.526
X-28.96 Y-2.521
X-28.498 Y-2.376
X-28.478 Y-2.371
X-28.003 Y-2.237
X-27.98 Y-2.231
X-27.49 Y-2.109
X-27.465 Y-2.104
X-26.961 Y-1.997
X-26.934 Y-1.992
X-26.413 Y-1.902
X-26.385 Y-1.898
X-25.848 Y-1.826
X-25.819 Y-1.823
X-25.265 Y-1.771
X-25.236 Y-1.768
X-24.663 Y-1.737
X-24.635 Y-1.736
X-24.045 Y-1.725
X-24.031
X-24.018 F1016
X-23.427 Y-1.736 Z-0.271
X-23.399 Y-1.737 Z-0.272
X-22.827 Y-1.768 Z-0.292
X-22.798 Y-1.771 Z-0.293
X-22.243 Y-1.823 Z-0.313
X-22.215 Y-1.826 Z-0.314
X-21.678 Y-1.898 Z-0.332
X-21.649 Y-1.902 Z-0.333
X-21.129 Y-1.992 Z-0.352
X-21.102 Y-1.997 Z-0.353
X-20.597 Y-2.104 Z-0.371
X-20.572 Y-2.109 Z-0.372
X-20.083 Y-2.231 Z-0.389
X-20.06 Y-2.237 Z-0.39
X-19.585 Y-2.371 Z-0.407
X-19.565 Y-2.376 Z-0.408
X-19.102 Y-2.521 Z-0.425
X-19.086 Y-2.526 Z-0.426
X-18.636 Y-2.678 Z-0.442
X-18.623 Y-2.683 Z-0.443
X-18.183 Y-2.84 Z-0.459
X-18.175 Y-2.843
X-17.744 Y-3.003 Z-0.475
X-17.741 Y-3.004 Z-0.476
X-17.319 Y-3.163 Z-0.491
X-17.086 Y-3.251 Z-0.5
X-16.908 Y-3.318 F600
X-16.508 Y-3.463
X-16.119 Y-3.597
X-15.74 Y-3.715
X-15.37 Y-3.816
X-15.009 Y-3.897
X-14.655 Y-3.955
X-14.306 Y-3.988
X-13.961 Y-3.994
X-13.617 Y-3.972
X-13.269 Y-3.919
X-12.907 Y-3.829
X-12.735 Y-3.774
X-12.552 Y-3.706
X-12.366 Y-3.628
X-12.183 Y-3.542
X-11.786 Y-3.323
X-11.38 Y-3.058
X-10.957 Y-2.74
X-10.519 Y-2.366
X-10.059 Y-1.928
G2 X-1.927 Y-10.059 I4.059 J-4.072
G1 X-2.328 Y-10.482
X-2.669 Y-10.889
X-2.959 Y-11.286
X-3.201 Y-11.673
X-3.397 Y-12.051
X-3.552 Y-12.422
X-3.668 Y-12.787
X-3.75 Y-13.148
X-3.8 Y-13.509
X-3.821 Y-13.872
X-3.815 Y-14.239
X-3.784 Y-14.612
X-3.729 Y-14.992
X-3.653 Y-15.379
X-3.559 Y-15.775
X-3.449 Y-16.179
X-3.325 Y-16.592
X-3.19 Y-17.013
X-3.048 Y-17.444
X-2.901 Y-17.883
X-2.9 Y-17.885
X-2.752 Y-18.331
X-2.75 Y-18.338
X-2.605 Y-18.79
X-2.602 Y-18.8
X-2.461 Y-19.26
X-2.457 Y-19.274
X-2.324 Y-19.741
X-2.319 Y-19.758
X-2.196 Y-20.233
X-2.191 Y-20.253
X-2.079 Y-20.738
X-2.074 Y-20.76
X-1.976 Y-21.254
X-1.971 Y-21.279
X-1.888 Y-21.783
X-1.885 Y-21.809
X-1.818 Y-22.324
X-1.815 Y-22.351
X-1.767 Y-22.877
X-1.765 Y-22.905
X-1.736 Y-23.442
X-1.735 Y-23.469
X-1.725 Y-24.018
Y-24.045
X-1.735 Y-24.593
X-1.736 Y-24.621
X-1.765 Y-25.158
X-1.767 Y-25.185
X-1.815 Y-25.711
X-1.818 Y-25.738
X-1.885 Y-26.253
X-1.888 Y-26.279
X-1.971 Y-26.783
X-1.976 Y-26.808
X-2.074 Y-27.302
X-2.079 Y-27.325
X-2.191 Y-27.809
X-2.196 Y-27.829
X-2.319 Y-28.305
X-2.324 Y-28.322
X-2.457 Y-28.789
X-2.461 Y-28.803
X-2.602 Y-29.262
X-2.605 Y-29.272
X-2.75 Y-29.725
X-2.752 Y-29.731
X-2.9 Y-30.177
X-2.901 Y-30.179
X-3.048 Y-30.618
X-3.19 Y-31.049
X-3.325 Y-31.471
X-3.449 Y-31.883
X-3.559 Y-32.287
X-3.653 Y-32.683
X-3.729 Y-33.07
X-3.784 Y-33.45
X-3.815 Y-33.823
X-3.821 Y-34.19
X-3.8 Y-34.553
X-3.75 Y-34.914
X-3.668 Y-35.276
X-3.552 Y-35.641
X-3.397 Y-36.011
X-3.201 Y-36.389
X-2.959 Y-36.777
X-2.669 Y-37.174
X-2.328 Y-37.58
X-1.927 Y-38.004
G2 X-10.059 Y-46.135 I-4.073 J-4.059
G1 X-10.519 Y-45.697
X-10.957 Y-45.322
X-11.38 Y-45.004
X-11.786 Y-44.739
X-12.183 Y-44.521
X-12.366 Y-44.435
X-12.552 Y-44.356
X-12.735 Y-44.288
X-12.908 Y-44.233
X-13.269 Y-44.143
X-13.617 Y-44.09
X-13.961 Y-44.068
X-14.306 Y-44.075
X-14.655 Y-44.108
X-15.009 Y-44.166
X-15.37 Y-44.246
X-15.74 Y-44.347
X-16.119 Y-44.466
X-16.508 Y-44.599
X-16.908 Y-44.745
X-17.319 Y-44.899
X-17.741 Y-45.058
X-17.744 Y-45.059
X-18.175 Y-45.219
X-18.183 Y-45.222
X-18.623 Y-45.38
X-18.636 Y-45.384
X-19.086 Y-45.536
X-19.103 Y-45.542
X-19.565 Y-45.686
X-19.585 Y-45.692
X-20.06 Y-45.826
X-20.083 Y-45.832
X-20.572 Y-45.953
X-20.597 Y-45.959
X-21.102 Y-46.065
X-21.129 Y-46.071
X-21.649 Y-46.16
X-21.678 Y-46.165
X-22.215 Y-46.236
X-22.243 Y-46.24
X-22.798 Y-46.292
X-22.827 Y-46.294
X-23.399 Y-46.326
X-23.427 Y-46.327
X-24.018 Y-46.337
X-24.045
X-24.635 Y-46.327
X-24.663 Y-46.326
X-25.236 Y-46.294
X-25.265 Y-46.292
X-25.819 Y-46.24
X-25.848 Y-46.236
X-26.385 Y-46.165
X-26.413 Y-46.16
X-26.933 Y-46.071
X-26.961 Y-46.065
X-27.465 Y-45.959
X-27.49 Y-45.953
X-27.98 Y-45.832
X-28.003 Y-45.826
X-28.478 Y-45.692
X-28.498 Y-45.686
X-28.96 Y-45.542
X-28.977 Y-45.536
X-29.427 Y-45.384
X-29.44 Y-45.38
X-29.879 Y-45.222
X-29.888 Y-45.219
X-30.318 Y-45.059
X-30.322 Y-45.058
X-30.743 Y-44.899
X-31.154 Y-44.745
X-31.554 Y-44.599
X-31.943 Y-44.466
X-32.322 Y-44.347
X-32.692 Y-44.246
X-33.053 Y-44.166
X-33.408 Y-44.108
X-33.756 Y-44.075
X-34.101 Y-44.068
X-34.446 Y-44.09
X-34.793 Y-44.143
X-35.155 Y-44.233
X-35.327 Y-44.288
X-35.51 Y-44.356
X-35.696 Y-44.435
X-35.879 Y-44.521
X-36.277 Y-44.739
X-36.683 Y-45.004
X-37.105 Y-45.322
X-37.543 Y-45.697
X-38.003 Y-46.135
G2 X-46.128 Y-46.128 I-4.059 J4.072
X-46.136 Y-38.004 I4.066 J4.066
G1 X-45.735 Y-37.58
X-45.394 Y-37.174
X-45.103 Y-36.777
X-44.862 Y-36.389
X-44.665 Y-36.011
X-44.511 Y-35.641
X-44.394 Y-35.276
X-44.312 Y-34.914
X-44.262 Y-34.553
X-44.241 Y-34.19
X-44.247 Y-33.823
X-44.279 Y-33.45
X-44.333 Y-33.07
X-44.409 Y-32.683
X-44.503 Y-32.287
X-44.614 Y-31.883
X-44.738 Y-31.471
X-44.873 Y-31.049
X-45.015 Y-30.618
X-45.162 Y-30.179
Y-30.177
X-45.31 Y-29.731
X-45.312 Y-29.725
X-45.457 Y-29.272
X-45.46 Y-29.262
X-45.601 Y-28.803
X-45.605 Y-28.789
X-45.738 Y-28.322
X-45.743 Y-28.305
X-45.867 Y-27.829
X-45.871 Y-27.809
X-45.983 Y-27.325
X-45.988 Y-27.302
X-46.087 Y-26.808
X-46.091 Y-26.784
X-46.174 Y-26.279
X-46.178 Y-26.253
X-46.244 Y-25.738
X-46.247 Y-25.711
X-46.295 Y-25.185
X-46.297 Y-25.158
X-46.326 Y-24.621
X-46.327 Y-24.593
X-46.337 Y-24.045
Y-24.018
X-46.327 Y-23.469
X-46.326 Y-23.442
X-46.297 Y-22.905
X-46.295 Y-22.877
X-46.247 Y-22.351
X-46.244 Y-22.324
X-46.178 Y-21.809
X-46.174 Y-21.783
X-46.091 Y-21.279
X-46.087 Y-21.254
X-45.988 Y-20.76
X-45.983 Y-20.738
X-45.871 Y-20.253
X-45.867 Y-20.233
X-45.743 Y-19.758
X-45.738 Y-19.741
X-45.605 Y-19.274
X-45.601 Y-19.26
X-45.46 Y-18.8
X-45.457 Y-18.79
X-45.312 Y-18.338
X-45.31 Y-18.332
X-45.162 Y-17.885
Y-17.883
X-45.015 Y-17.444
X-44.873 Y-17.013
X-44.738 Y-16.592
X-44.614 Y-16.179
X-44.503 Y-15.775
X-44.409 Y-15.379
X-44.333 Y-14.992
X-44.279 Y-14.612
X-44.247 Y-14.239
X-44.241 Y-13.872
X-44.262 Y-13.509
X-44.312 Y-13.148
X-44.394 Y-12.787
X-44.511 Y-12.422
X-44.665 Y-12.051
X-44.862 Y-11.673
X-45.103 Y-11.286
X-45.394 Y-10.889
X-45.735 Y-10.482
X-46.136 Y-10.059
G2 X-46.128 Y-1.934 I4.073 J4.059
X-38.003 Y-1.928 I4.066 J-4.066
G1 X-37.543 Y-2.366
X-37.105 Y-2.74
X-36.683 Y-3.058
X-36.277 Y-3.323
X-35.879 Y-3.542
X-35.696 Y-3.628
X-35.51 Y-3.706
X-35.327 Y-3.774
X-35.155 Y-3.829
X-34.793 Y-3.919
X-34.446 Y-3.972
X-34.101 Y-3.994
X-33.756 Y-3.988
X-33.408 Y-3.955
X-33.053 Y-3.897
X-32.692 Y-3.816
X-32.322 Y-3.715
X-31.943 Y-3.597
X-31.554 Y-3.463
X-31.154 Y-3.318
X-30.743 Y-3.163
X-30.322 Y-3.004
X-30.318 Y-3.003
X-29.888 Y-2.843
X-29.879 Y-2.84
X-29.44 Y-2.683
X-29.427 Y-2.678
X-28.977 Y-2.526
X-28.96 Y-2.521
X-28.498 Y-2.376
X-28.478 Y-2.371
X-28.003 Y-2.237
X-27.98 Y-2.231
X-27.49 Y-2.109
X-27.465 Y-2.104
X-26.961 Y-1.997
X-26.934 Y-1.992
X-26.413 Y-1.902
X-26.385 Y-1.898
X-25.848 Y-1.826
X-25.819 Y-1.823
X-25.265 Y-1.771
X-25.236 Y-1.768
X-24.663 Y-1.737
X-24.635 Y-1.736
X-24.045 Y-1.725
X-24.018
X-23.427 Y-1.736
X-23.399 Y-1.737
X-22.827 Y-1.768
X-22.798 Y-1.771
X-22.243 Y-1.823
X-22.215 Y-1.826
X-21.678 Y-1.898
X-21.649 Y-1.902
X-21.129 Y-1.992
X-21.102 Y-1.997
X-20.597 Y-2.104
X-20.572 Y-2.109
X-20.083 Y-2.231
X-20.06 Y-2.237
X-19.585 Y-2.371
X-19.565 Y-2.376
X-19.102 Y-2.521
X-19.086 Y-2.526
X-18.636 Y-2.678
X-18.623 Y-2.683
X-18.183 Y-2.84
X-18.175 Y-2.843
X-17.744 Y-3.003
X-17.741 Y-3.004
X-17.319 Y-3.163
X-17.086 Y-3.251
X-16.908 Y-3.318 Z-0.507 F1016
X-16.508 Y-3.463 Z-0.521
X-16.119 Y-3.597 Z-0.536
X-15.74 Y-3.715 Z-0.55
X-15.37 Y-3.816 Z-0.563
X-15.009 Y-3.897 Z-0.576
X-14.655 Y-3.955 Z-0.589
X-14.306 Y-3.988 Z-0.601
X-13.961 Y-3.994 Z-0.613
X-13.617 Y-3.972 Z-0.625
X-13.269 Y-3.919 Z-0.637
X-12.907 Y-3.829 Z-0.65
X-12.735 Y-3.774 Z-0.657
X-12.552 Y-3.706 Z-0.663
X-12.366 Y-3.628 Z-0.67
X-12.183 Y-3.542 Z-0.677
X-11.786 Y-3.323 Z-0.693
X-11.38 Y-3.058 Z-0.71
X-10.957 Y-2.74 Z-0.729
X-10.519 Y-2.366 Z-0.749
X-10.495 Y-2.342 Z-0.75
X-10.059 Y-1.928 F600
G2 X-1.927 Y-10.059 I4.059 J-4.072
G1 X-2.328 Y-10.482
X-2.669 Y-10.889
X-2.959 Y-11.286
X-3.201 Y-11.673
X-3.397 Y-12.051
X-3.552 Y-12.422
X-3.668 Y-12.787
X-3.75 Y-13.148
X-3.8 Y-13.509
X-3.821 Y-13.872
X-3.815 Y-14.239
X-3.784 Y-14.612
X-3.729 Y-14.992
X-3.653 Y-15.379
X-3.559 Y-15.775
X-3.449 Y-16.179
X-3.325 Y-16.592
X-3.19 Y-17.013
X-3.048 Y-17.444
X-2.901 Y-17.883
X-2.9 Y-17.885
X-2.752 Y-18.331
X-2.75 Y-18.338
X-2.605 Y-18.79
X-2.602 Y-18.8
X-2.461 Y-19.26
X-2.457 Y-19.274
X-2.324 Y-19.741
X-2.319 Y-19.758
X-2.196 Y-20.233
X-2.191 Y-20.253
X-2.079 Y-20.738
X-2.074 Y-20.76
X-1.976 Y-21.254
X-1.971 Y-21.279
X-1.888 Y-21.783
X-1.885 Y-21.809
X-1.818 Y-22.324
X-1.815 Y-22.351
X-1.767 Y-22.877
X-1.765 Y-22.905
X-1.736 Y-23.442
X-1.735 Y-23.469
X-1.725 Y-24.018
Y-24.045
X-1.735 Y-24.593
X-1.736 Y-24.621
X-1.765 Y-25.158
X-1.767 Y-25.185
X-1.815 Y-25.711
X-1.818 Y-25.738
X-1.885 Y-26.253
X-1.888 Y-26.279
X-1.971 Y-26.783
X-1.976 Y-26.808
X-2.074 Y-27.302
X-2.079 Y-27.325
X-2.191 Y-27.809
X-2.196 Y-27.829
X-2.319 Y-28.305
X-2.324 Y-28.322
X-2.457 Y-28.789
X-2.461 Y-28.803
X-2.602 Y-29.262
X-2.605 Y-29.272
X-2.75 Y-29.725
X-2.752 Y-29.731
X-2.9 Y-30.177
X-2.901 Y-30.179
X-3.048 Y-30.618
X-3.19 Y-31.049
X-3.325 Y-31.471
X-3.449 Y-31.883
X-3.559 Y-32.287
X-3.653 Y-32.683
X-3.729 Y-33.07
X-3.784 Y-33.45
X-3.815 Y-33.823
X-3.821 Y-34.19
X-3.8 Y-34.553
X-3.75 Y-34.914
X-3.668 Y-35.276
X-3.552 Y-35.641
X-3.397 Y-36.011
X-3.201 Y-36.389
X-2.959 Y-36.777
X-2.669 Y-37.174
X-2.328 Y-37.58
X-1.927 Y-38.004
G2 X-10.059 Y-46.135 I-4.073 J-4.059
G1 X-10.519 Y-45.697
X-10.957 Y-45.322
X-11.38 Y-45.004
X-11.786 Y-44.739
X-12.183 Y-44.521
X-12.366 Y-44.435
X-12.552 Y-44.356
X-12.735 Y-44.288
X-12.908 Y-44.233
X-13.269 Y-44.143
X-13.617 Y-44.09
X-13.961 Y-44.068
X-14.306 Y-44.075
X-14.655 Y-44.108
X-15.009 Y-44.166
X-15.37 Y-44.246
X-15.74 Y-44.347
X-16.119 Y-44.466
X-16.508 Y-44.599
X-16.908 Y-44.745
X-17.319 Y-44.899
X-17.741 Y-45.058
X-17.744 Y-45.059
X-18.175 Y-45.219
X-18.183 Y-45.222
X-18.623 Y-45.38
X-18.636 Y-45.384
X-19.086 Y-45.536
X-19.103 Y-45.542
X-19.565 Y-45.686
X-19.585 Y-45.692
X-20.06 Y-45.826
X-20.083 Y-45.832
X-20.572 Y-45.953
X-20.597 Y-45.959
X-21.102 Y-46.065
X-21.129 Y-46.071
X-21.649 Y-46.16
X-21.678 Y-46.165
X-22.215 Y-46.236
X-22.243 Y-46.24
X-22.798 Y-46.292
X-22.827 Y-46.294
X-23.399 Y-46.326
X-23.427 Y-46.327
X-24.018 Y-46.337
X-24.045
X-24.635 Y-46.327
X-24.663 Y-46.326
X-25.236 Y-46.294
X-25.265 Y-46.292
X-25.819 Y-46.24
X-25.848 Y-46.236
X-26.385 Y-46.165
X-26.413 Y-46.16
X-26.933 Y-46.071
X-26.961 Y-46.065
X-27.465 Y-45.959
X-27.49 Y-45.953
X-27.98 Y-45.832
X-28.003 Y-45.826
X-28.478 Y-45.692
X-28.498 Y-45.686
X-28.96 Y-45.542
X-28.977 Y-45.536
X-29.427 Y-45.384
X-29.44 Y-45.38
X-29.879 Y-45.222
X-29.888 Y-45.219
X-30.318 Y-45.059
X-30.322 Y-45.058
X-30.743 Y-44.899
X-31.154 Y-44.745
X-31.554 Y-44.599
X-31.943 Y-44.466
X-32.322 Y-44.347
X-32.692 Y-44.246
X-33.053 Y-44.166
X-33.408 Y-44.108
X-33.756 Y-44.075
X-34.101 Y-44.068
X-34.446 Y-44.09
X-34.793 Y-44.143
X-35.155 Y-44.233
X-35.327 Y-44.288
X-35.51 Y-44.356
X-35.696 Y-44.435
X-35.879 Y-44.521
X-36.277 Y-44.739
X-36.683 Y-45.004
X-37.105 Y-45.322
X-37.543 Y-45.697
X-38.003 Y-46.135
G2 X-46.128 Y-46.128 I-4.059 J4.072
X-46.136 Y-38.004 I4.066 J4.066
G1 X-45.735 Y-37.58
X-45.394 Y-37.174
X-45.103 Y-36.777
X-44.862 Y-36.389
X-44.665 Y-36.011
X-44.511 Y-35.641
X-44.394 Y-35.276
X-44.312 Y-34.914
X-44.262 Y-34.553
X-44.241 Y-34.19
X-44.247 Y-33.823
X-44.279 Y-33.45
X-44.333 Y-33.07
X-44.409 Y-32.683
X-44.503 Y-32.287
X-44.614 Y-31.883
X-44.738 Y-31.471
X-44.873 Y-31.049
X-45.015 Y-30.618
X-45.162 Y-30.179
Y-30.177
X-45.31 Y-29.731
X-45.312 Y-29.725
X-45.457 Y-29.272
X-45.46 Y-29.262
X-45.601 Y-28.803
X-45.605 Y-28.789
X-45.738 Y-28.322
X-45.743 Y-28.305
X-45.867 Y-27.829
X-45.871 Y-27.809
X-45.983 Y-27.325
X-45.988 Y-27.302
X-46.087 Y-26.808
X-46.091 Y-26.784
X-46.174 Y-26.279
X-46.178 Y-26.253
X-46.244 Y-25.738
X-46.247 Y-25.711
X-46.295 Y-25.185
X-46.297 Y-25.158
X-46.326 Y-24.621
X-46.327 Y-24.593
X-46.337 Y-24.045
Y-24.018
X-46.327 Y-23.469
X-46.326 Y-23.442
X-46.297 Y-22.905
X-46.295 Y-22.877
X-46.247 Y-22.351
X-46.244 Y-22.324
X-46.178 Y-21.809
X-46.174 Y-21.783
X-46.091 Y-21.279
X-46.087 Y-21.254
X-45.988 Y-20.76
X-45.983 Y-20.738
X-45.871 Y-20.253
X-45.867 Y-20.233
X-45.743 Y-19.758
X-45.738 Y-19.741
X-45.605 Y-19.274
X-45.601 Y-19.26
X-45.46 Y-18.8
X-45.457 Y-18.79
X-45.312 Y-18.338
X-45.31 Y-18.332
X-45.162 Y-17.885
Y-17.883
X-45.015 Y-17.444
X-44.873 Y-17.013
X-44.738 Y-16.592
X-44.614 Y-16.179
X-44.503 Y-15.775
X-44.409 Y-15.379
X-44.333 Y-14.992
X-44.279 Y-14.612
X-44.247 Y-14.239
X-44.241 Y-13.872
X-44.262 Y-13.509
X-44.312 Y-13.148
X-44.394 Y-12.787
X-44.511 Y-12.422
X-44.665 Y-12.051
X-44.862 Y-11.673
X-45.103 Y-11.286
X-45.394 Y-10.889
X-45.735 Y-10.482
X-46.136 Y-10.059
G2 X-46.128 Y-1.934 I4.073 J4.059
X-38.003 Y-1.928 I4.066 J-4.066
G1 X-37.543 Y-2.366
X-37.105 Y-2.74
X-36.683 Y-3.058
X-36.277 Y-3.323
X-35.879 Y-3.542
X-35.696 Y-3.628
X-35.51 Y-3.706
X-35.327 Y-3.774
X-35.155 Y-3.829
X-34.793 Y-3.919
X-34.446 Y-3.972
X-34.101 Y-3.994
X-33.756 Y-3.988
X-33.408 Y-3.955
X-33.053 Y-3.897
X-32.692 Y-3.816
X-32.322 Y-3.715
X-31.943 Y-3.597
X-31.554 Y-3.463
X-31.154 Y-3.318
X-30.743 Y-3.163
X-30.322 Y-3.004
X-30.318 Y-3.003
X-29.888 Y-2.843
X-29.879 Y-2.84
X-29.44 Y-2.683
X-29.427 Y-2.678
X-28.977 Y-2.526
X-28.96 Y-2.521
X-28.498 Y-2.376
X-28.478 Y-2.371
X-28.003 Y-2.237
X-27.98 Y-2.231
X-27.49 Y-2.109
X-27.465 Y-2.104
X-26.961 Y-1.997
X-26.934 Y-1.992
X-26.413 Y-1.902
X-26.385 Y-1.898
X-25.848 Y-1.826
X-25.819 Y-1.823
X-25.265 Y-1.771
X-25.236 Y-1.768
X-24.663 Y-1.737
X-24.635 Y-1.736
X-24.045 Y-1.725
X-24.018
X-23.427 Y-1.736
X-23.399 Y-1.737
X-22.827 Y-1.768
X-22.798 Y-1.771
X-22.243 Y-1.823
X-22.215 Y-1.826
X-21.678 Y-1.898
X-21.649 Y-1.902
X-21.129 Y-1.992
X-21.102 Y-1.997
X-20.597 Y-2.104
X-20.572 Y-2.109
X-20.083 Y-2.231
X-20.06 Y-2.237
X-19.585 Y-2.371
X-19.565 Y-2.376
X-19.102 Y-2.521
X-19.086 Y-2.526
X-18.636 Y-2.678
X-18.623 Y-2.683
X-18.183 Y-2.84
X-18.175 Y-2.843
X-17.744 Y-3.003
X-17.741 Y-3.004
X-17.319 Y-3.163
X-17.086 Y-3.251
X-16.908 Y-3.318
X-16.508 Y-3.463
X-16.119 Y-3.597
X-15.74 Y-3.715
X-15.37 Y-3.816
X-15.009 Y-3.897
X-14.655 Y-3.955
X-14.306 Y-3.988
X-13.961 Y-3.994
X-13.617 Y-3.972
X-13.269 Y-3.919
X-12.907 Y-3.829
X-12.735 Y-3.774
X-12.552 Y-3.706
X-12.366 Y-3.628
X-12.183 Y-3.542
X-11.786 Y-3.323
X-11.38 Y-3.058
X-10.957 Y-2.74
X-10.519 Y-2.366
X-10.495 Y-2.342
X-10.059 Y-1.928 Z-0.771 F1016
G2 X-3.992 Y-0.612 Z-1 I4.059 J-4.072
X-1.927 Y-10.059 I-2.008 J-5.388 F600
G1 X-2.328 Y-10.482
X-2.669 Y-10.889
X-2.959 Y-11.286
X-3.201 Y-11.673
X-3.397 Y-12.051
X-3.552 Y-12.422
X-3.668 Y-12.787
X-3.75 Y-13.148
X-3.8 Y-13.509
X-3.821 Y-13.872
X-3.815 Y-14.239
X-3.784 Y-14.612
X-3.729 Y-14.992
X-3.653 Y-15.379
X-3.559 Y-15.775
X-3.449 Y-16.179
X-3.325 Y-16.592
X-3.19 Y-17.013
X-3.048 Y-17.444
X-2.901 Y-17.883
X-2.9 Y-17.885
X-2.752 Y-18.331
X-2.75 Y-18.338
X-2.605 Y-18.79
X-2.602 Y-18.8
X-2.461 Y-19.26
X-2.457 Y-19.274
X-2.324 Y-19.741
X-2.319 Y-19.758
X-2.196 Y-20.233
X-2.191 Y-20.253
X-2.079 Y-20.738
X-2.074 Y-20.76
X-1.976 Y-21.254
X-1.971 Y-21.279
X-1.888 Y-21.783
X-1.885 Y-21.809
X-1.818 Y-22.324
X-1.815 Y-22.351
X-1.767 Y-22.877
X-1.765 Y-22.905
X-1.736 Y-23.442
X-1.735 Y-23.469
X-1.725 Y-24.018
Y-24.045
X-1.735 Y-24.593
X-1.736 Y-24.621
X-1.765 Y-25.158
X-1.767 Y-25.185
X-1.815 Y-25.711
X-1.818 Y-25.738
X-1.885 Y-26.253
X-1.888 Y-26.279
X-1.971 Y-26.783
X-1.976 Y-26.808
X-2.074 Y-27.302
X-2.079 Y-27.325
X-2.191 Y-27.809
X-2.196 Y-27.829
X-2.319 Y-28.305
X-2.324 Y-28.322
X-2.457 Y-28.789
X-2.461 Y-28.803
X-2.602 Y-29.262
X-2.605 Y-29.272
X-2.75 Y-29.725
X-2.752 Y-29.731
X-2.9 Y-30.177
X-2.901 Y-30.179
X-3.048 Y-30.618
X-3.19 Y-31.049
X-3.325 Y-31.471
X-3.449 Y-31.883
X-3.559 Y-32.287
X-3.653 Y-32.683
X-3.729 Y-33.07
X-3.784 Y-33.45
X-3.815 Y-33.823
X-3.821 Y-34.19
X-3.8 Y-34.553
X-3.75 Y-34.914
X-3.668 Y-35.276
X-3.552 Y-35.641
X-3.397 Y-36.011
X-3.201 Y-36.389
X-2.959 Y-36.777
X-2.669 Y-37.174
X-2.328 Y-37.58
X-1.927 Y-38.004
G2 X-10.059 Y-46.135 I-4.073 J-4.059
G1 X-10.519 Y-45.697
X-10.957 Y-45.322
X-11.38 Y-45.004
X-11.786 Y-44.739
X-12.183 Y-44.521
X-12.366 Y-44.435
X-12.552 Y-44.356
X-12.735 Y-44.288
X-12.908 Y-44.233
X-13.269 Y-44.143
X-13.617 Y-44.09
X-13.961 Y-44.068
X-14.306 Y-44.075
X-14.655 Y-44.108
X-15.009 Y-44.166
X-15.37 Y-44.246
X-15.74 Y-44.347
X-16.119 Y-44.466
X-16.508 Y-44.599
X-16.908 Y-44.745
X-17.319 Y-44.899
X-17.741 Y-45.058
X-17.744 Y-45.059
X-18.175 Y-45.219
X-18.183 Y-45.222
X-18.623 Y-45.38
X-18.636 Y-45.384
X-19.086 Y-45.536
X-19.103 Y-45.542
X-19.565 Y-45.686
X-19.585 Y-45.692
X-20.06 Y-45.826
X-20.083 Y-45.832
X-20.572 Y-45.953
X-20.597 Y-45.959
X-21.102 Y-46.065
X-21.129 Y-46.071
X-21.649 Y-46.16
X-21.678 Y-46.165
X-22.215 Y-46.236
X-22.243 Y-46.24
X-22.798 Y-46.292
X-22.827 Y-46.294
X-23.399 Y-46.326
X-23.427 Y-46.327
X-24.018 Y-46.337
X-24.045
X-24.635 Y-46.327
X-24.663 Y-46.326
X-25.236 Y-46.294
X-25.265 Y-46.292
X-25.819 Y-46.24
X-25.848 Y-46.236
X-26.385 Y-46.165
X-26.413 Y-46.16
X-26.933 Y-46.071
X-26.961 Y-46.065
X-27.465 Y-45.959
X-27.49 Y-45.953
X-27.98 Y-45.832
X-28.003 Y-45.826
X-28.478 Y-45.692
X-28.498 Y-45.686
X-28.96 Y-45.542
X-28.977 Y-45.536
X-29.427 Y-45.384
X-29.44 Y-45.38
X-29.879 Y-45.222
X-29.888 Y-45.219
X-30.318 Y-45.059
X-30.322 Y-45.058
X-30.743 Y-44.899
X-31.154 Y-44.745
X-31.554 Y-44.599
X-31.943 Y-44.466
X-32.322 Y-44.347
X-32.692 Y-44.246
X-33.053 Y-44.166
X-33.408 Y-44.108
X-33.756 Y-44.075
X-34.101 Y-44.068
X-34.446 Y-44.09
X-34.793 Y-44.143
X-35.155 Y-44.233
X-35.327 Y-44.288
X-35.51 Y-44.356
X-35.696 Y-44.435
X-35.879 Y-44.521
X-36.277 Y-44.739
X-36.683 Y-45.004
X-37.105 Y-45.322
X-37.543 Y-45.697
X-38.003 Y-46.135
G2 X-46.128 Y-46.128 I-4.059 J4.072
X-46.136 Y-38.004 I4.066 J4.066
G1 X-45.735 Y-37.58
X-45.394 Y-37.174
X-45.103 Y-36.777
X-44.862 Y-36.389
X-44.665 Y-36.011
X-44.511 Y-35.641
X-44.394 Y-35.276
X-44.312 Y-34.914
X-44.262 Y-34.553
X-44.241 Y-34.19
X-44.247 Y-33.823
X-44.279 Y-33.45
X-44.333 Y-33.07
X-44.409 Y-32.683
X-44.503 Y-32.287
X-44.614 Y-31.883
X-44.738 Y-31.471
X-44.873 Y-31.049
X-45.015 Y-30.618
X-45.162 Y-30.179
Y-30.177
X-45.31 Y-29.731
X-45.312 Y-29.725
X-45.457 Y-29.272
X-45.46 Y-29.262
X-45.601 Y-28.803
X-45.605 Y-28.789
X-45.738 Y-28.322
X-45.743 Y-28.305
X-45.867 Y-27.829
X-45.871 Y-27.809
X-45.983 Y-27.325
X-45.988 Y-27.302
X-46.087 Y-26.808
X-46.091 Y-26.784
X-46.174 Y-26.279
X-46.178 Y-26.253
X-46.244 Y-25.738
X-46.247 Y-25.711
X-46.295 Y-25.185
X-46.297 Y-25.158
X-46.326 Y-24.621
X-46.327 Y-24.593
X-46.337 Y-24.045
Y-24.018
X-46.327 Y-23.469
X-46.326 Y-23.442
X-46.297 Y-22.905
X-46.295 Y-22.877
X-46.247 Y-22.351
X-46.244 Y-22.324
X-46.178 Y-21.809
X-46.174 Y-21.783
X-46.091 Y-21.279
X-46.087 Y-21.254
X-45.988 Y-20.76
X-45.983 Y-20.738
X-45.871 Y-20.253
X-45.867 Y-20.233
X-45.743 Y-19.758
X-45.738 Y-19.741
X-45.605 Y-19.274
X-45.601 Y-19.26
X-45.46 Y-18.8
X-45.457 Y-18.79
X-45.312 Y-18.338
X-45.31 Y-18.332
X-45.162 Y-17.885
Y-17.883
X-45.015 Y-17.444
X-44.873 Y-17.013
X-44.738 Y-16.592
X-44.614 Y-16.179
X-44.503 Y-15.775
X-44.409 Y-15.379
X-44.333 Y-14.992
X-44.279 Y-14.612
X-44.247 Y-14.239
X-44.241 Y-13.872
X-44.262 Y-13.509
X-44.312 Y-13.148
X-44.394 Y-12.787
X-44.511 Y-12.422
X-44.665 Y-12.051
X-44.862 Y-11.673
X-45.103 Y-11.286
X-45.394 Y-10.889
X-45.735 Y-10.482
X-46.136 Y-10.059
G2 X-46.128 Y-1.934 I4.073 J4.059
X-38.003 Y-1.928 I4.066 J-4.066
G1 X-37.543 Y-2.366
X-37.105 Y-2.74
X-36.683 Y-3.058
X-36.277 Y-3.323
X-35.879 Y-3.542
X-35.696 Y-3.628
X-35.51 Y-3.706
X-35.327 Y-3.774
X-35.155 Y-3.829
X-34.793 Y-3.919
X-34.446 Y-3.972
X-34.101 Y-3.994
X-33.756 Y-3.988
X-33.408 Y-3.955
X-33.053 Y-3.897
X-32.692 Y-3.816
X-32.322 Y-3.715
X-31.943 Y-3.597
X-31.554 Y-3.463
X-31.154 Y-3.318
X-30.743 Y-3.163
X-30.322 Y-3.004
X-30.318 Y-3.003
X-29.888 Y-2.843
X-29.879 Y-2.84
X-29.44 Y-2.683
X-29.427 Y-2.678
X-28.977 Y-2.526
X-28.96 Y-2.521
X-28.498 Y-2.376
X-28.478 Y-2.371
X-28.003 Y-2.237
X-27.98 Y-2.231
X-27.49 Y-2.109
X-27.465 Y-2.104
X-26.961 Y-1.997
X-26.934 Y-1.992
X-26.413 Y-1.902
X-26.385 Y-1.898
X-25.848 Y-1.826
X-25.819 Y-1.823
X-25.265 Y-1.771
X-25.236 Y-1.768
X-24.663 Y-1.737
X-24.635 Y-1.736
X-24.045 Y-1.725
X-24.018
X-23.427 Y-1.736
X-23.399 Y-1.737
X-22.827 Y-1.768
X-22.798 Y-1.771
X-22.243 Y-1.823
X-22.215 Y-1.826
X-21.678 Y-1.898
X-21.649 Y-1.902
X-21.129 Y-1.992
X-21.102 Y-1.997
X-20.597 Y-2.104
X-20.572 Y-2.109
X-20.083 Y-2.231
X-20.06 Y-2.237
X-19.585 Y-2.371
X-19.565 Y-2.376
X-19.102 Y-2.521
X-19.086 Y-2.526
X-18.636 Y-2.678
X-18.623 Y-2.683
X-18.183 Y-2.84
X-18.175 Y-2.843
X-17.744 Y-3.003
X-17.741 Y-3.004
X-17.319 Y-3.163
X-16.908 Y-3.318
X-16.508 Y-3.463
X-16.119 Y-3.597
X-15.74 Y-3.715
X-15.37 Y-3.816
X-15.009 Y-3.897
X-14.655 Y-3.955
X-14.306 Y-3.988
X-13.961 Y-3.994
X-13.617 Y-3.972
X-13.269 Y-3.919
X-12.907 Y-3.829
X-12.735 Y-3.774
X-12.552 Y-3.706
X-12.366 Y-3.628
X-12.183 Y-3.542
X-11.786 Y-3.323
X-11.38 Y-3.058
X-10.957 Y-2.74
X-10.519 Y-2.366
X-10.059 Y-1.928
G2 X-3.992 Y-0.612 I4.059 J-4.072
X-0.253 Y-6.178 Z-1.25 I-2.008 J-5.388 F1016
X-1.927 Y-10.059 I-5.747 J0.178 F600
G1 X-2.328 Y-10.482
X-2.669 Y-10.889
X-2.959 Y-11.286
X-3.201 Y-11.673
X-3.397 Y-12.051
X-3.552 Y-12.422
X-3.668 Y-12.787
X-3.75 Y-13.148
X-3.8 Y-13.509
X-3.821 Y-13.872
X-3.815 Y-14.239
X-3.784 Y-14.612
X-3.729 Y-14.992
X-3.653 Y-15.379
X-3.559 Y-15.775
X-3.449 Y-16.179
X-3.325 Y-16.592
X-3.19 Y-17.013
X-3.048 Y-17.444
X-2.901 Y-17.883
X-2.9 Y-17.885
X-2.752 Y-18.331
X-2.75 Y-18.338
X-2.605 Y-18.79
X-2.602 Y-18.8
X-2.461 Y-19.26
X-2.457 Y-19.274
X-2.324 Y-19.741
X-2.319 Y-19.758
X-2.196 Y-20.233
X-2.191 Y-20.253
X-2.079 Y-20.738
X-2.074 Y-20.76
X-1.976 Y-21.254
X-1.971 Y-21.279
X-1.888 Y-21.783
X-1.885 Y-21.809
X-1.818 Y-22.324
X-1.815 Y-22.351
X-1.767 Y-22.877
X-1.765 Y-22.905
X-1.736 Y-23.442
X-1.735 Y-23.469
X-1.725 Y-24.018
Y-24.045
X-1.735 Y-24.593
X-1.736 Y-24.621
X-1.765 Y-25.158
X-1.767 Y-25.185
X-1.815 Y-25.711
X-1.818 Y-25.738
X-1.885 Y-26.253
X-1.888 Y-26.279
X-1.971 Y-26.783
X-1.976 Y-26.808
X-2.074 Y-27.302
X-2.079 Y-27.325
X-2.191 Y-27.809
X-2.196 Y-27.829
X-2.319 Y-28.305
X-2.324 Y-28.322
X-2.457 Y-28.789
X-2.461 Y-28.803
X-2.602 Y-29.262
X-2.605 Y-29.272
X-2.75 Y-29.725
X-2.752 Y-29.731
X-2.9 Y-30.177
X-2.901 Y-30.179
X-3.048 Y-30.618
X-3.19 Y-31.049
X-3.325 Y-31.471
X-3.449 Y-31.883
X-3.559 Y-32.287
X-3.653 Y-32.683
X-3.729 Y-33.07
X-3.784 Y-33.45
X-3.815 Y-33.823
X-3.821 Y-34.19
X-3.8 Y-34.553
X-3.75 Y-34.914
X-3.668 Y-35.276
X-3.552 Y-35.641
X-3.397 Y-36.011
X-3.201 Y-36.389
X-2.959 Y-36.777
X-2.669 Y-37.174
X-2.328 Y-37.58
X-1.927 Y-38.004
G2 X-10.059 Y-46.135 I-4.073 J-4.059
G1 X-10.519 Y-45.697
X-10.957 Y-45.322
X-11.38 Y-45.004
X-11.786 Y-44.739
X-12.183 Y-44.521
X-12.366 Y-44.435
X-12.552 Y-44.356
X-12.735 Y-44.288
X-12.908 Y-44.233
X-13.269 Y-44.143
X-13.617 Y-44.09
X-13.961 Y-44.068
X-14.306 Y-44.075
X-14.655 Y-44.108
X-15.009 Y-44.166
X-15.37 Y-44.246
X-15.74 Y-44.347
X-16.119 Y-44.466
X-16.508 Y-44.599
X-16.908 Y-44.745
X-17.319 Y-44.899
X-17.741 Y-45.058
X-17.744 Y-45.059
X-18.175 Y-45.219
X-18.183 Y-45.222
X-18.623 Y-45.38
X-18.636 Y-45.384
X-19.086 Y-45.536
X-19.103 Y-45.542
X-19.565 Y-45.686
X-19.585 Y-45.692
X-20.06 Y-45.826
X-20.083 Y-45.832
X-20.572 Y-45.953
X-20.597 Y-45.959
X-21.102 Y-46.065
X-21.129 Y-46.071
X-21.649 Y-46.16
X-21.678 Y-46.165
X-22.215 Y-46.236
X-22.243 Y-46.24
X-22.798 Y-46.292
X-22.827 Y-46.294
X-23.399 Y-46.326
X-23.427 Y-46.327
X-24.018 Y-46.337
X-24.045
X-24.635 Y-46.327
X-24.663 Y-46.326
X-25.236 Y-46.294
X-25.265 Y-46.292
X-25.819 Y-46.24
X-25.848 Y-46.236
X-26.385 Y-46.165
X-26.413 Y-46.16
X-26.933 Y-46.071
X-26.961 Y-46.065
X-27.465 Y-45.959
X-27.49 Y-45.953
X-27.98 Y-45.832
X-28.003 Y-45.826
X-28.478 Y-45.692
X-28.498 Y-45.686
X-28.96 Y-45.542
X-28.977 Y-45.536
X-29.427 Y-45.384
X-29.44 Y-45.38
X-29.879 Y-45.222
X-29.888 Y-45.219
X-30.318 Y-45.059
X-30.322 Y-45.058
X-30.743 Y-44.899
X-31.154 Y-44.745
X-31.554 Y-44.599
X-31.943 Y-44.466
X-32.322 Y-44.347
X-32.692 Y-44.246
X-33.053 Y-44.166
X-33.408 Y-44.108
X-33.756 Y-44.075
X-34.101 Y-44.068
X-34.446 Y-44.09
X-34.793 Y-44.143
X-35.155 Y-44.233
X-35.327 Y-44.288
X-35.51 Y-44.356
X-35.696 Y-44.435
X-35.879 Y-44.521
X-36.277 Y-44.739
X-36.683 Y-45.004
X-37.105 Y-45.322
X-37.543 Y-45.697
X-38.003 Y-46.135
G2 X-46.128 Y-46.128 I-4.059 J4.072
X-46.136 Y-38.004 I4.066 J4.066
G1 X-45.735 Y-37.58
X-45.394 Y-37.174
X-45.103 Y-36.777
X-44.862 Y-36.389
X-44.665 Y-36.011
X-44.511 Y-35.641
X-44.394 Y-35.276
X-44.312 Y-34.914
X-44.262 Y-34.553
X-44.241 Y-34.19
X-44.247 Y-33.823
X-44.279 Y-33.45
X-44.333 Y-33.07
X-44.409 Y-32.683
X-44.503 Y-32.287
X-44.614 Y-31.883
X-44.738 Y-31.471
X-44.873 Y-31.049
X-45.015 Y-30.618
X-45.162 Y-30.179
Y-30.177
X-45.31 Y-29.731
X-45.312 Y-29.725
X-45.457 Y-29.272
X-45.46 Y-29.262
X-45.601 Y-28.803
X-45.605 Y-28.789
X-45.738 Y-28.322
X-45.743 Y-28.305
X-45.867 Y-27.829
X-45.871 Y-27.809
X-45.983 Y-27.325
X-45.988 Y-27.302
X-46.087 Y-26.808
X-46.091 Y-26.784
X-46.174 Y-26.279
X-46.178 Y-26.253
X-46.244 Y-25.738
X-46.247 Y-25.711
X-46.295 Y-25.185
X-46.297 Y-25.158
X-46.326 Y-24.621
X-46.327 Y-24.593
X-46.337 Y-24.045
Y-24.018
X-46.327 Y-23.469
X-46.326 Y-23.442
X-46.297 Y-22.905
X-46.295 Y-22.877
X-46.247 Y-22.351
X-46.244 Y-22.324
X-46.178 Y-21.809
X-46.174 Y-21.783
X-46.091 Y-21.279
X-46.087 Y-21.254
X-45.988 Y-20.76
X-45.983 Y-20.738
X-45.871 Y-20.253
X-45.867 Y-20.233
X-45.743 Y-19.758
X-45.738 Y-19.741
X-45.605 Y-19.274
X-45.601 Y-19.26
X-45.46 Y-18.8
X-45.457 Y-18.79
X-45.312 Y-18.338
X-45.31 Y-18.332
X-45.162 Y-17.885
Y-17.883
X-45.015 Y-17.444
X-44.873 Y-17.013
X-44.738 Y-16.592
X-44.614 Y-16.179
X-44.503 Y-15.775
X-44.409 Y-15.379
X-44.333 Y-14.992
X-44.279 Y-14.612
X-44.247 Y-14.239
X-44.241 Y-13.872
X-44.262 Y-13.509
X-44.312 Y-13.148
X-44.394 Y-12.787
X-44.511 Y-12.422
X-44.665 Y-12.051
X-44.862 Y-11.673
X-45.103 Y-11.286
X-45.394 Y-10.889
X-45.735 Y-10.482
X-46.136 Y-10.059
G2 X-46.128 Y-1.934 I4.073 J4.059
X-38.003 Y-1.928 I4.066 J-4.066
G1 X-37.543 Y-2.366
X-37.105 Y-2.74
X-36.683 Y-3.058
X-36.277 Y-3.323
X-35.879 Y-3.542
X-35.696 Y-3.628
X-35.51 Y-3.706
X-35.327 Y-3.774
X-35.155 Y-3.829
X-34.793 Y-3.919
X-34.446 Y-3.972
X-34.101 Y-3.994
X-33.756 Y-3.988
X-33.408 Y-3.955
X-33.053 Y-3.897
X-32.692 Y-3.816
X-32.322 Y-3.715
X-31.943 Y-3.597
X-31.554 Y-3.463
X-31.154 Y-3.318
X-30.743 Y-3.163
X-30.322 Y-3.004
X-30.318 Y-3.003
X-29.888 Y-2.843
X-29.879 Y-2.84
X-29.44 Y-2.683
X-29.427 Y-2.678
X-28.977 Y-2.526
X-28.96 Y-2.521
X-28.498 Y-2.376
X-28.478 Y-2.371
X-28.003 Y-2.237
X-27.98 Y-2.231
X-27.49 Y-2.109
X-27.465 Y-2.104
X-26.961 Y-1.997
X-26.934 Y-1.992
X-26.413 Y-1.902
X-26.385 Y-1.898
X-25.848 Y-1.826
X-25.819 Y-1.823
X-25.265 Y-1.771
X-25.236 Y-1.768
X-24.663 Y-1.737
X-24.635 Y-1.736
X-24.045 Y-1.725
X-24.018
X-23.427 Y-1.736
X-23.399 Y-1.737
X-22.827 Y-1.768
X-22.798 Y-1.771
X-22.243 Y-1.823
X-22.215 Y-1.826
X-21.678 Y-1.898
X-21.649 Y-1.902
X-21.129 Y-1.992
X-21.102 Y-1.997
X-20.597 Y-2.104
X-20.572 Y-2.109
X-20.083 Y-2.231
X-20.06 Y-2.237
X-19.585 Y-2.371
X-19.565 Y-2.376
X-19.102 Y-2.521
X-19.086 Y-2.526
X-18.636 Y-2.678
X-18.623 Y-2.683
X-18.183 Y-2.84
X-18.175 Y-2.843
X-17.744 Y-3.003
X-17.741 Y-3.004
X-17.319 Y-3.163
X-16.908 Y-3.318
X-16.508 Y-3.463
X-16.119 Y-3.597
X-15.74 Y-3.715
X-15.37 Y-3.816
X-15.009 Y-3.897
X-14.655 Y-3.955
X-14.306 Y-3.988
X-13.961 Y-3.994
X-13.617 Y-3.972
X-13.269 Y-3.919
X-12.907 Y-3.829
X-12.735 Y-3.774
X-12.552 Y-3.706
X-12.366 Y-3.628
X-12.183 Y-3.542
X-11.786 Y-3.323
X-11.38 Y-3.058
X-10.957 Y-2.74
X-10.519 Y-2.366
X-10.059 Y-1.928
G2 X-0.253 Y-6.178 I4.059 J-4.072
X-1.927 Y-10.059 Z-1.401 I-5.747 J0.178 F1016
G1 X-2.328 Y-10.482 Z-1.421
X-2.669 Y-10.889 Z-1.44
X-2.959 Y-11.286 Z-1.457
X-3.201 Y-11.673 Z-1.473
X-3.397 Y-12.051 Z-1.488
X-3.529 Y-12.368 Z-1.5
X-3.552 Y-12.422 F600
X-3.668 Y-12.787
X-3.75 Y-13.148
X-3.8 Y-13.509
X-3.821 Y-13.872
X-3.815 Y-14.239
X-3.784 Y-14.612
X-3.729 Y-14.992
X-3.653 Y-15.379
X-3.559 Y-15.775
X-3.449 Y-16.179
X-3.325 Y-16.592
X-3.19 Y-17.013
X-3.048 Y-17.444
X-2.901 Y-17.883
X-2.9 Y-17.885
X-2.752 Y-18.331
X-2.75 Y-18.338
X-2.605 Y-18.79
X-2.602 Y-18.8
X-2.461 Y-19.26
X-2.457 Y-19.274
X-2.324 Y-19.741
X-2.319 Y-19.758
X-2.196 Y-20.233
X-2.191 Y-20.253
X-2.079 Y-20.738
X-2.074 Y-20.76
X-1.976 Y-21.254
X-1.971 Y-21.279
X-1.888 Y-21.783
X-1.885 Y-21.809
X-1.858 Y-22.02
Z-1.3
X-1.818 Y-22.324
X-1.815 Y-22.351
X-1.767 Y-22.877
X-1.765 Y-22.905
X-1.736 Y-23.442
X-1.735 Y-23.469
X-1.725 Y-24.018
Y-24.045
X-1.735 Y-24.593
X-1.736 Y-24.621
X-1.765 Y-25.158
X-1.767 Y-25.185
X-1.815 Y-25.711
X-1.818 Y-25.738
X-1.855 Y-26.02
Z-1.5 F300
X-1.885 Y-26.253 F600
X-1.888 Y-26.279
X-1.971 Y-26.783
X-1.976 Y-26.808
X-2.074 Y-27.302
X-2.079 Y-27.325
X-2.191 Y-27.809
X-2.196 Y-27.829
X-2.319 Y-28.305
X-2.324 Y-28.322
X-2.457 Y-28.789
X-2.461 Y-28.803
X-2.602 Y-29.262
X-2.605 Y-29.272
X-2.75 Y-29.725
X-2.752 Y-29.731
X-2.9 Y-30.177
X-2.901 Y-30.179
X-3.048 Y-30.618
X-3.19 Y-31.049
X-3.325 Y-31.471
X-3.449 Y-31.883
X-3.559 Y-32.287
X-3.653 Y-32.683
X-3.729 Y-33.07
X-3.784 Y-33.45
X-3.815 Y-33.823
X-3.821 Y-34.19
X-3.8 Y-34.553
X-3.75 Y-34.914
X-3.668 Y-35.276
X-3.552 Y-35.641
X-3.397 Y-36.011
X-3.201 Y-36.389
X-2.959 Y-36.777
X-2.669 Y-37.174
X-2.328 Y-37.58
X-1.927 Y-38.004
G2 X-10.059 Y-46.135 I-4.073 J-4.059
G1 X-10.519 Y-45.697
X-10.957 Y-45.322
X-11.38 Y-45.004
X-11.786 Y-44.739
X-12.183 Y-44.521
X-12.366 Y-44.435
X-12.552 Y-44.356
X-12.735 Y-44.288
X-12.908 Y-44.233
X-13.269 Y-44.143
X-13.617 Y-44.09
X-13.961 Y-44.068
X-14.306 Y-44.075
X-14.655 Y-44.108
X-15.009 Y-44.166
X-15.37 Y-44.246
X-15.74 Y-44.347
X-16.119 Y-44.466
X-16.508 Y-44.599
X-16.908 Y-44.745
X-17.319 Y-44.899
X-17.741 Y-45.058
X-17.744 Y-45.059
X-18.175 Y-45.219
X-18.183 Y-45.222
X-18.623 Y-45.38
X-18.636 Y-45.384
X-19.086 Y-45.536
X-19.103 Y-45.542
X-19.565 Y-45.686
X-19.585 Y-45.692
X-20.06 Y-45.826
X-20.083 Y-45.832
X-20.572 Y-45.953
X-20.597 Y-45.959
X-21.102 Y-46.065
X-21.129 Y-46.071
X-21.649 Y-46.16
X-21.678 Y-46.165
X-22.215 Y-46.236
X-22.243 Y-46.24
X-22.798 Y-46.292
X-22.827 Y-46.294
X-23.399 Y-46.326
X-23.427 Y-46.327
X-24.018 Y-46.337
X-24.045
X-24.635 Y-46.327
X-24.663 Y-46.326
X-25.236 Y-46.294
X-25.265 Y-46.292
X-25.819 Y-46.24
X-25.848 Y-46.236
X-26.385 Y-46.165
X-26.413 Y-46.16
X-26.933 Y-46.071
X-26.961 Y-46.065
X-27.465 Y-45.959
X-27.49 Y-45.953
X-27.98 Y-45.832
X-28.003 Y-45.826
X-28.478 Y-45.692
X-28.498 Y-45.686
X-28.96 Y-45.542
X-28.977 Y-45.536
X-29.427 Y-45.384
X-29.44 Y-45.38
X-29.879 Y-45.222
X-29.888 Y-45.219
X-30.318 Y-45.059
X-30.322 Y-45.058
X-30.743 Y-44.899
X-31.154 Y-44.745
X-31.554 Y-44.599
X-31.943 Y-44.466
X-32.322 Y-44.347
X-32.692 Y-44.246
X-33.053 Y-44.166
X-33.408 Y-44.108
X-33.756 Y-44.075
X-34.101 Y-44.068
X-34.446 Y-44.09
X-34.793 Y-44.143
X-35.155 Y-44.233
X-35.327 Y-44.288
X-35.51 Y-44.356
X-35.696 Y-44.435
X-35.879 Y-44.521
X-36.277 Y-44.739
X-36.683 Y-45.004
X-37.105 Y-45.322
X-37.543 Y-45.697
X-38.003 Y-46.135
G2 X-46.128 Y-46.128 I-4.059 J4.072
X-46.136 Y-38.004 I4.066 J4.066
G1 X-45.735 Y-37.58
X-45.394 Y-37.174
X-45.103 Y-36.777
X-44.862 Y-36.389
X-44.665 Y-36.011
X-44.511 Y-35.641
X-44.394 Y-35.276
X-44.312 Y-34.914
X-44.262 Y-34.553
X-44.241 Y-34.19
X-44.247 Y-33.823
X-44.279 Y-33.45
X-44.333 Y-33.07
X-44.409 Y-32.683
X-44.503 Y-32.287
X-44.614 Y-31.883
X-44.738 Y-31.471
X-44.873 Y-31.049
X-45.015 Y-30.618
X-45.162 Y-30.179
Y-30.177
X-45.31 Y-29.731
X-45.312 Y-29.725
X-45.457 Y-29.272
X-45.46 Y-29.262
X-45.601 Y-28.803
X-45.605 Y-28.789
X-45.738 Y-28.322
X-45.743 Y-28.305
X-45.867 Y-27.829
X-45.871 Y-27.809
X-45.983 Y-27.325
X-45.988 Y-27.302
X-46.087 Y-26.808
X-46.091 Y-26.784
X-46.174 Y-26.279
X-46.178 Y-26.253
X-46.205 Y-26.043
Z-1.3
X-46.244 Y-25.738
X-46.247 Y-25.711
X-46.295 Y-25.185
X-46.297 Y-25.158
X-46.326 Y-24.621
X-46.327 Y-24.593
X-46.337 Y-24.045
Y-24.018
X-46.327 Y-23.469
X-46.326 Y-23.442
X-46.297 Y-22.905
X-46.295 Y-22.877
X-46.247 Y-22.351
X-46.244 Y-22.324
X-46.208 Y-22.042
Z-1.5 F300
X-46.178 Y-21.809 F600
X-46.174 Y-21.783
X-46.091 Y-21.279
X-46.087 Y-21.254
X-45.988 Y-20.76
X-45.983 Y-20.738
X-45.871 Y-20.253
X-45.867 Y-20.233
X-45.743 Y-19.758
X-45.738 Y-19.741
X-45.605 Y-19.274
X-45.601 Y-19.26
X-45.46 Y-18.8
X-45.457 Y-18.79
X-45.312 Y-18.338
X-45.31 Y-18.332
X-45.162 Y-17.885
Y-17.883
X-45.015 Y-17.444
X-44.873 Y-17.013
X-44.738 Y-16.592
X-44.614 Y-16.179
X-44.503 Y-15.775
X-44.409 Y-15.379
X-44.333 Y-14.992
X-44.279 Y-14.612
X-44.247 Y-14.239
X-44.241 Y-13.872
X-44.262 Y-13.509
X-44.312 Y-13.148
X-44.394 Y-12.787
X-44.511 Y-12.422
X-44.665 Y-12.051
X-44.862 Y-11.673
X-45.103 Y-11.286
X-45.394 Y-10.889
X-45.735 Y-10.482
X-46.136 Y-10.059
G2 X-46.128 Y-1.934 I4.073 J4.059
X-38.003 Y-1.928 I4.066 J-4.066
G1 X-37.543 Y-2.366
X-37.105 Y-2.74
X-36.683 Y-3.058
X-36.277 Y-3.323
X-35.879 Y-3.542
X-35.696 Y-3.628
X-35.51 Y-3.706
X-35.327 Y-3.774
X-35.155 Y-3.829
X-34.793 Y-3.919
X-34.446 Y-3.972
X-34.101 Y-3.994
X-33.756 Y-3.988
X-33.408 Y-3.955
X-33.053 Y-3.897
X-32.692 Y-3.816
X-32.322 Y-3.715
X-31.943 Y-3.597
X-31.554 Y-3.463
X-31.154 Y-3.318
X-30.743 Y-3.163
X-30.322 Y-3.004
X-30.318 Y-3.003
X-29.888 Y-2.843
X-29.879 Y-2.84
X-29.44 Y-2.683
X-29.427 Y-2.678
X-28.977 Y-2.526
X-28.96 Y-2.521
X-28.498 Y-2.376
X-28.478 Y-2.371
X-28.003 Y-2.237
X-27.98 Y-2.231
X-27.49 Y-2.109
X-27.465 Y-2.104
X-26.961 Y-1.997
X-26.934 Y-1.992
X-26.413 Y-1.902
X-26.385 Y-1.898
X-26.02 Y-1.849
Z-1.3
X-25.848 Y-1.826
X-25.819 Y-1.823
X-25.265 Y-1.771
X-25.236 Y-1.768
X-24.663 Y-1.737
X-24.635 Y-1.736
X-24.045 Y-1.725
X-24.018
X-23.427 Y-1.736
X-23.399 Y-1.737
X-22.827 Y-1.768
X-22.798 Y-1.771
X-22.243 Y-1.823
X-22.215 Y-1.826
X-22.02 Y-1.852
Z-1.5 F300
X-21.678 Y-1.898 F600
X-21.649 Y-1.902
X-21.129 Y-1.992
X-21.102 Y-1.997
X-20.597 Y-2.104
X-20.572 Y-2.109
X-20.083 Y-2.231
X-20.06 Y-2.237
X-19.585 Y-2.371
X-19.565 Y-2.376
X-19.102 Y-2.521
X-19.086 Y-2.526
X-18.636 Y-2.678
X-18.623 Y-2.683
X-18.183 Y-2.84
X-18.175 Y-2.843
X-17.744 Y-3.003
X-17.741 Y-3.004
X-17.319 Y-3.163
X-16.908 Y-3.318
X-16.508 Y-3.463
X-16.119 Y-3.597
X-15.74 Y-3.715
X-15.37 Y-3.816
X-15.009 Y-3.897
X-14.655 Y-3.955
X-14.306 Y-3.988
X-13.961 Y-3.994
X-13.617 Y-3.972
X-13.269 Y-3.919
X-12.907 Y-3.829
X-12.735 Y-3.774
X-12.552 Y-3.706
X-12.366 Y-3.628
X-12.183 Y-3.542
X-11.786 Y-3.323
X-11.38 Y-3.058
X-10.957 Y-2.74
X-10.519 Y-2.366
X-10.059 Y-1.928
G2 X-1.927 Y-10.059 I4.059 J-4.072
G1 X-2.328 Y-10.482
X-2.669 Y-10.889
X-2.959 Y-11.286
X-3.201 Y-11.673
X-3.397 Y-12.051
X-3.529 Y-12.368
X-3.552 Y-12.422 Z-1.502 F1016
X-3.668 Y-12.787 Z-1.515
X-3.75 Y-13.148 Z-1.528
X-3.8 Y-13.509 Z-1.541
X-3.821 Y-13.872 Z-1.554
X-3.815 Y-14.239 Z-1.567
X-3.784 Y-14.612 Z-1.58
X-3.729 Y-14.992 Z-1.593
X-3.653 Y-15.379 Z-1.607
X-3.559 Y-15.775 Z-1.621
X-3.449 Y-16.179 Z-1.636
X-3.325 Y-16.592 Z-1.651
X-3.19 Y-17.013 Z-1.666
X-3.048 Y-17.444 Z-1.682
X-2.901 Y-17.883 Z-1.698
X-2.9 Y-17.885
X-2.752 Y-18.331 Z-1.715
X-2.75 Y-18.338
X-2.605 Y-18.79 Z-1.732
X-2.602 Y-18.8
X-2.461 Y-19.26 Z-1.749
X-2.457 Y-19.274
X-2.451 Y-19.296 Z-1.75
X-2.324 Y-19.741 F600
X-2.319 Y-19.758
X-2.196 Y-20.233
X-2.191 Y-20.253
X-2.079 Y-20.738
X-2.074 Y-20.76
X-1.976 Y-21.254
X-1.971 Y-21.279
X-1.888 Y-21.783
X-1.885 Y-21.809
X-1.858 Y-22.02
Z-1.3
X-1.818 Y-22.324
X-1.815 Y-22.351
X-1.767 Y-22.877
X-1.765 Y-22.905
X-1.736 Y-23.442
X-1.735 Y-23.469
X-1.725 Y-24.018
Y-24.045
X-1.735 Y-24.593
X-1.736 Y-24.621
X-1.765 Y-25.158
X-1.767 Y-25.185
X-1.815 Y-25.711
X-1.818 Y-25.738
X-1.855 Y-26.02
Z-1.75 F300
X-1.885 Y-26.253 F600
X-1.888 Y-26.279
X-1.971 Y-26.783
X-1.976 Y-26.808
X-2.074 Y-27.302
X-2.079 Y-27.325
X-2.191 Y-27.809
X-2.196 Y-27.829
X-2.319 Y-28.305
X-2.324 Y-28.322
X-2.457 Y-28.789
X-2.461 Y-28.803
X-2.602 Y-29.262
X-2.605 Y-29.272
X-2.75 Y-29.725
X-2.752 Y-29.731
X-2.9 Y-30.177
X-2.901 Y-30.179
X-3.048 Y-30.618
X-3.19 Y-31.049
X-3.325 Y-31.471
X-3.449 Y-31.883
X-3.559 Y-32.287
X-3.653 Y-32.683
X-3.729 Y-33.07
X-3.784 Y-33.45
X-3.815 Y-33.823
X-3.821 Y-34.19
X-3.8 Y-34.553
X-3.75 Y-34.914
X-3.668 Y-35.276
X-3.552 Y-35.641
X-3.397 Y-36.011
X-3.201 Y-36.389
X-2.959 Y-36.777
X-2.669 Y-37.174
X-2.328 Y-37.58
X-1.927 Y-38.004
G2 X-10.059 Y-46.135 I-4.073 J-4.059
G1 X-10.519 Y-45.697
X-10.957 Y-45.322
X-11.38 Y-45.004
X-11.786 Y-44.739
X-12.183 Y-44.521
X-12.366 Y-44.435
X-12.552 Y-44.356
X-12.735 Y-44.288
X-12.908 Y-44.233
X-13.269 Y-44.143
X-13.617 Y-44.09
X-13.961 Y-44.068
X-14.306 Y-44.075
X-14.655 Y-44.108
X-15.009 Y-44.166
X-15.37 Y-44.246
X-15.74 Y-44.347
X-16.119 Y-44.466
X-16.508 Y-44.599
X-16.908 Y-44.745
X-17.319 Y-44.899
X-17.741 Y-45.058
X-17.744 Y-45.059
X-18.175 Y-45.219
X-18.183 Y-45.222
X-18.623 Y-45.38
X-18.636 Y-45.384
X-19.086 Y-45.536
X-19.103 Y-45.542
X-19.565 Y-45.686
X-19.585 Y-45.692
X-20.06 Y-45.826
X-20.083 Y-45.832
X-20.572 Y-45.953
X-20.597 Y-45.959
X-21.102 Y-46.065
X-21.129 Y-46.071
X-21.649 Y-46.16
X-21.678 Y-46.165
X-22.215 Y-46.236
X-22.243 Y-46.24
X-22.798 Y-46.292
X-22.827 Y-46.294
X-23.399 Y-46.326
X-23.427 Y-46.327
X-24.018 Y-46.337
X-24.045
X-24.635 Y-46.327
X-24.663 Y-46.326
X-25.236 Y-46.294
X-25.265 Y-46.292
X-25.819 Y-46.24
X-25.848 Y-46.236
X-26.385 Y-46.165
X-26.413 Y-46.16
X-26.933 Y-46.071
X-26.961 Y-46.065
X-27.465 Y-45.959
X-27.49 Y-45.953
X-27.98 Y-45.832
X-28.003 Y-45.826
X-28.478 Y-45.692
X-28.498 Y-45.686
X-28.96 Y-45.542
X-28.977 Y-45.536
X-29.427 Y-45.384
X-29.44 Y-45.38
X-29.879 Y-45.222
X-29.888 Y-45.219
X-30.318 Y-45.059
X-30.322 Y-45.058
X-30.743 Y-44.899
X-31.154 Y-44.745
X-31.554 Y-44.599
X-31.943 Y-44.466
X-32.322 Y-44.347
X-32.692 Y-44.246
X-33.053 Y-44.166
X-33.408 Y-44.108
X-33.756 Y-44.075
X-34.101 Y-44.068
X-34.446 Y-44.09
X-34.793 Y-44.143
X-35.155 Y-44.233
X-35.327 Y-44.288
X-35.51 Y-44.356
X-35.696 Y-44.435
X-35.879 Y-44.521
X-36.277 Y-44.739
X-36.683 Y-45.004
X-37.105 Y-45.322
X-37.543 Y-45.697
X-38.003 Y-46.135
G2 X-46.128 Y-46.128 I-4.059 J4.072
X-46.136 Y-38.004 I4.066 J4.066
G1 X-45.735 Y-37.58
X-45.394 Y-37.174
X-45.103 Y-36.777
X-44.862 Y-36.389
X-44.665 Y-36.011
X-44.511 Y-35.641
X-44.394 Y-35.276
X-44.312 Y-34.914
X-44.262 Y-34.553
X-44.241 Y-34.19
X-44.247 Y-33.823
X-44.279 Y-33.45
X-44.333 Y-33.07
X-44.409 Y-32.683
X-44.503 Y-32.287
X-44.614 Y-31.883
X-44.738 Y-31.471
X-44.873 Y-31.049
X-45.015 Y-30.618
X-45.162 Y-30.179
Y-30.177
X-45.31 Y-29.731
X-45.312 Y-29.725
X-45.457 Y-29.272
X-45.46 Y-29.262
X-45.601 Y-28.803
X-45.605 Y-28.789
X-45.738 Y-28.322
X-45.743 Y-28.305
X-45.867 Y-27.829
X-45.871 Y-27.809
X-45.983 Y-27.325
X-45.988 Y-27.302
X-46.087 Y-26.808
X-46.091 Y-26.784
X-46.174 Y-26.279
X-46.178 Y-26.253
X-46.205 Y-26.043
Z-1.3
X-46.244 Y-25.738
X-46.247 Y-25.711
X-46.295 Y-25.185
X-46.297 Y-25.158
X-46.326 Y-24.621
X-46.327 Y-24.593
X-46.337 Y-24.045
Y-24.018
X-46.327 Y-23.469
X-46.326 Y-23.442
X-46.297 Y-22.905
X-46.295 Y-22.877
X-46.247 Y-22.351
X-46.244 Y-22.324
X-46.208 Y-22.042
Z-1.75 F300
X-46.178 Y-21.809 F600
X-46.174 Y-21.783
X-46.091 Y-21.279
X-46.087 Y-21.254
X-45.988 Y-20.76
X-45.983 Y-20.738
X-45.871 Y-20.253
X-45.867 Y-20.233
X-45.743 Y-19.758
X-45.738 Y-19.741
X-45.605 Y-19.274
X-45.601 Y-19.26
X-45.46 Y-18.8
X-45.457 Y-18.79
X-45.312 Y-18.338
X-45.31 Y-18.332
X-45.162 Y-17.885
Y-17.883
X-45.015 Y-17.444
X-44.873 Y-17.013
X-44.738 Y-16.592
X-44.614 Y-16.179
X-44.503 Y-15.775
X-44.409 Y-15.379
X-44.333 Y-14.992
X-44.279 Y-14.612
X-44.247 Y-14.239
X-44.241 Y-13.872
X-44.262 Y-13.509
X-44.312 Y-13.148
X-44.394 Y-12.787
X-44.511 Y-12.422
X-44.665 Y-12.051
X-44.862 Y-11.673
X-45.103 Y-11.286
X-45.394 Y-10.889
X-45.735 Y-10.482
X-46.136 Y-10.059
G2 X-46.128 Y-1.934 I4.073 J4.059
X-38.003 Y-1.928 I4.066 J-4.066
G1 X-37.543 Y-2.366
X-37.105 Y-2.74
X-36.683 Y-3.058
X-36.277 Y-3.323
X-35.879 Y-3.542
X-35.696 Y-3.628
X-35.51 Y-3.706
X-35.327 Y-3.774
X-35.155 Y-3.829
X-34.793 Y-3.919
X-34.446 Y-3.972
X-34.101 Y-3.994
X-33.756 Y-3.988
X-33.408 Y-3.955
X-33.053 Y-3.897
X-32.692 Y-3.816
X-32.322 Y-3.715
X-31.943 Y-3.597
X-31.554 Y-3.463
X-31.154 Y-3.318
X-30.743 Y-3.163
X-30.322 Y-3.004
X-30.318 Y-3.003
X-29.888 Y-2.843
X-29.879 Y-2.84
X-29.44 Y-2.683
X-29.427 Y-2.678
X-28.977 Y-2.526
X-28.96 Y-2.521
X-28.498 Y-2.376
X-28.478 Y-2.371
X-28.003 Y-2.237
X-27.98 Y-2.231
X-27.49 Y-2.109
X-27.465 Y-2.104
X-26.961 Y-1.997
X-26.934 Y-1.992
X-26.413 Y-1.902
X-26.385 Y-1.898
X-26.02 Y-1.849
Z-1.3
X-25.848 Y-1.826
X-25.819 Y-1.823
X-25.265 Y-1.771
X-25.236 Y-1.768
X-24.663 Y-1.737
X-24.635 Y-1.736
X-24.045 Y-1.725
X-24.018
X-23.427 Y-1.736
X-23.399 Y-1.737
X-22.827 Y-1.768
X-22.798 Y-1.771
X-22.243 Y-1.823
X-22.215 Y-1.826
X-22.02 Y-1.852
Z-1.75 F300
X-21.678 Y-1.898 F600
X-21.649 Y-1.902
X-21.129 Y-1.992
X-21.102 Y-1.997
X-20.597 Y-2.104
X-20.572 Y-2.109
X-20.083 Y-2.231
X-20.06 Y-2.237
X-19.585 Y-2.371
X-19.565 Y-2.376
X-19.102 Y-2.521
X-19.086 Y-2.526
X-18.636 Y-2.678
X-18.623 Y-2.683
X-18.183 Y-2.84
X-18.175 Y-2.843
X-17.744 Y-3.003
X-17.741 Y-3.004
X-17.319 Y-3.163
X-16.908 Y-3.318
X-16.508 Y-3.463
X-16.119 Y-3.597
X-15.74 Y-3.715
X-15.37 Y-3.816
X-15.009 Y-3.897
X-14.655 Y-3.955
X-14.306 Y-3.988
X-13.961 Y-3.994
X-13.617 Y-3.972
X-13.269 Y-3.919
X-12.907 Y-3.829
X-12.735 Y-3.774
X-12.552 Y-3.706
X-12.366 Y-3.628
X-12.183 Y-3.542
X-11.786 Y-3.323
X-11.38 Y-3.058
X-10.957 Y-2.74
X-10.519 Y-2.366
X-10.059 Y-1.928
G2 X-1.927 Y-10.059 I4.059 J-4.072
G1 X-2.328 Y-10.482
X-2.669 Y-10.889
X-2.959 Y-11.286
X-3.201 Y-11.673
X-3.397 Y-12.051
X-3.552 Y-12.422
X-3.668 Y-12.787
X-3.75 Y-13.148
X-3.8 Y-13.509
X-3.821 Y-13.872
X-3.815 Y-14.239
X-3.784 Y-14.612
X-3.729 Y-14.992
X-3.653 Y-15.379
X-3.559 Y-15.775
X-3.449 Y-16.179
X-3.325 Y-16.592
X-3.19 Y-17.013
X-3.048 Y-17.444
X-2.901 Y-17.883
X-2.9 Y-17.885
X-2.752 Y-18.331
X-2.75 Y-18.338
X-2.605 Y-18.79
X-2.602 Y-18.8
X-2.461 Y-19.26
X-2.457 Y-19.274
X-2.451 Y-19.296
X-2.324 Y-19.741 Z-1.766 F1016
X-2.319 Y-19.758 Z-1.767
X-2.196 Y-20.233 Z-1.784
X-2.191 Y-20.253 Z-1.785
X-2.079 Y-20.738 Z-1.802
X-2.074 Y-20.76 Z-1.803
X-1.976 Y-21.254 Z-1.82
X-1.971 Y-21.279 Z-1.821
X-1.888 Y-21.783 Z-1.839
X-1.885 Y-21.809 Z-1.84
X-1.858 Y-22.02 Z-1.847
Z-1.3
X-1.818 Y-22.324
X-1.815 Y-22.351
X-1.767 Y-22.877
X-1.765 Y-22.905
X-1.736 Y-23.442
X-1.735 Y-23.469
X-1.734 Y-23.519
X-1.725 Y-24.018 F600
Y-24.045
X-1.735 Y-24.593
X-1.736 Y-24.621
X-1.765 Y-25.158
X-1.767 Y-25.185
X-1.815 Y-25.711
X-1.818 Y-25.738
X-1.855 Y-26.02
Z-1.9 F300
X-1.885 Y-26.253 F600
X-1.888 Y-26.279
X-1.971 Y-26.783
X-1.976 Y-26.808
X-2.074 Y-27.302
X-2.079 Y-27.325
X-2.191 Y-27.809
X-2.196 Y-27.829
X-2.319 Y-28.305
X-2.324 Y-28.322
X-2.457 Y-28.789
X-2.461 Y-28.803
X-2.602 Y-29.262
X-2.605 Y-29.272
X-2.75 Y-29.725
X-2.752 Y-29.731
X-2.9 Y-30.177
X-2.901 Y-30.179
X-3.048 Y-30.618
X-3.19 Y-31.049
X-3.325 Y-31.471
X-3.449 Y-31.883
X-3.559 Y-32.287
X-3.653 Y-32.683
X-3.729 Y-33.07
X-3.784 Y-33.45
X-3.815 Y-33.823
X-3.821 Y-34.19
X-3.8 Y-34.553
X-3.75 Y-34.914
X-3.668 Y-35.276
X-3.552 Y-35.641
X-3.397 Y-36.011
X-3.201 Y-36.389
X-2.959 Y-36.777
X-2.669 Y-37.174
X-2.328 Y-37.58
X-1.927 Y-38.004
G2 X-10.059 Y-46.135 I-4.073 J-4.059
G1 X-10.519 Y-45.697
X-10.957 Y-45.322
X-11.38 Y-45.004
X-11.786 Y-44.739
X-12.183 Y-44.521
X-12.366 Y-44.435
X-12.552 Y-44.356
X-12.735 Y-44.288
X-12.908 Y-44.233
X-13.269 Y-44.143
X-13.617 Y-44.09
X-13.961 Y-44.068
X-14.306 Y-44.075
X-14.655 Y-44.108
X-15.009 Y-44.166
X-15.37 Y-44.246
X-15.74 Y-44.347
X-16.119 Y-44.466
X-16.508 Y-44.599
X-16.908 Y-44.745
X-17.319 Y-44.899
X-17.741 Y-45.058
X-17.744 Y-45.059
X-18.175 Y-45.219
X-18.183 Y-45.222
X-18.623 Y-45.38
X-18.636 Y-45.384
X-19.086 Y-45.536
X-19.103 Y-45.542
X-19.565 Y-45.686
X-19.585 Y-45.692
X-20.06 Y-45.826
X-20.083 Y-45.832
X-20.572 Y-45.953
X-20.597 Y-45.959
X-21.102 Y-46.065
X-21.129 Y-46.071
X-21.649 Y-46.16
X-21.678 Y-46.165
X-22.215 Y-46.236
X-22.243 Y-46.24
X-22.798 Y-46.292
X-22.827 Y-46.294
X-23.399 Y-46.326
X-23.427 Y-46.327
X-24.018 Y-46.337
X-24.045
X-24.635 Y-46.327
X-24.663 Y-46.326
X-25.236 Y-46.294
X-25.265 Y-46.292
X-25.819 Y-46.24
X-25.848 Y-46.236
X-26.385 Y-46.165
X-26.413 Y-46.16
X-26.933 Y-46.071
X-26.961 Y-46.065
X-27.465 Y-45.959
X-27.49 Y-45.953
X-27.98 Y-45.832
X-28.003 Y-45.826
X-28.478 Y-45.692
X-28.498 Y-45.686
X-28.96 Y-45.542
X-28.977 Y-45.536
X-29.427 Y-45.384
X-29.44 Y-45.38
X-29.879 Y-45.222
X-29.888 Y-45.219
X-30.318 Y-45.059
X-30.322 Y-45.058
X-30.743 Y-44.899
X-31.154 Y-44.745
X-31.554 Y-44.599
X-31.943 Y-44.466
X-32.322 Y-44.347
X-32.692 Y-44.246
X-33.053 Y-44.166
X-33.408 Y-44.108
X-33.756 Y-44.075
X-34.101 Y-44.068
X-34.446 Y-44.09
X-34.793 Y-44.143
X-35.155 Y-44.233
X-35.327 Y-44.288
X-35.51 Y-44.356
X-35.696 Y-44.435
X-35.879 Y-44.521
X-36.277 Y-44.739
X-36.683 Y-45.004
X-37.105 Y-45.322
X-37.543 Y-45.697
X-38.003 Y-46.135
G2 X-46.128 Y-46.128 I-4.059 J4.072
X-46.136 Y-38.004 I4.066 J4.066
G1 X-45.735 Y-37.58
X-45.394 Y-37.174
X-45.103 Y-36.777
X-44.862 Y-36.389
X-44.665 Y-36.011
X-44.511 Y-35.641
X-44.394 Y-35.276
X-44.312 Y-34.914
X-44.262 Y-34.553
X-44.241 Y-34.19
X-44.247 Y-33.823
X-44.279 Y-33.45
X-44.333 Y-33.07
X-44.409 Y-32.683
X-44.503 Y-32.287
X-44.614 Y-31.883
X-44.738 Y-31.471
X-44.873 Y-31.049
X-45.015 Y-30.618
X-45.162 Y-30.179
Y-30.177
X-45.31 Y-29.731
X-45.312 Y-29.725
X-45.457 Y-29.272
X-45.46 Y-29.262
X-45.601 Y-28.803
X-45.605 Y-28.789
X-45.738 Y-28.322
X-45.743 Y-28.305
X-45.867 Y-27.829
X-45.871 Y-27.809
X-45.983 Y-27.325
X-45.988 Y-27.302
X-46.087 Y-26.808
X-46.091 Y-26.784
X-46.174 Y-26.279
X-46.178 Y-26.253
X-46.205 Y-26.043
Z-1.3
X-46.244 Y-25.738
X-46.247 Y-25.711
X-46.295 Y-25.185
X-46.297 Y-25.158
X-46.326 Y-24.621
X-46.327 Y-24.593
X-46.337 Y-24.045
Y-24.018
X-46.327 Y-23.469
X-46.326 Y-23.442
X-46.297 Y-22.905
X-46.295 Y-22.877
X-46.247 Y-22.351
X-46.244 Y-22.324
X-46.208 Y-22.042
Z-1.9 F300
X-46.178 Y-21.809 F600
X-46.174 Y-21.783
X-46.091 Y-21.279
X-46.087 Y-21.254
X-45.988 Y-20.76
X-45.983 Y-20.738
X-45.871 Y-20.253
X-45.867 Y-20.233
X-45.743 Y-19.758
X-45.738 Y-19.741
X-45.605 Y-19.274
X-45.601 Y-19.26
X-45.46 Y-18.8
X-45.457 Y-18.79
X-45.312 Y-18.338
X-45.31 Y-18.332
X-45.162 Y-17.885
Y-17.883
X-45.015 Y-17.444
X-44.873 Y-17.013
X-44.738 Y-16.592
X-44.614 Y-16.179
X-44.503 Y-15.775
X-44.409 Y-15.379
X-44.333 Y-14.992
X-44.279 Y-14.612
X-44.247 Y-14.239
X-44.241 Y-13.872
X-44.262 Y-13.509
X-44.312 Y-13.148
X-44.394 Y-12.787
X-44.511 Y-12.422
X-44.665 Y-12.051
X-44.862 Y-11.673
X-45.103 Y-11.286
X-45.394 Y-10.889
X-45.735 Y-10.482
X-46.136 Y-10.059
G2 X-46.128 Y-1.934 I4.073 J4.059
X-38.003 Y-1.928 I4.066 J-4.066
G1 X-37.543 Y-2.366
X-37.105 Y-2.74
X-36.683 Y-3.058
X-36.277 Y-3.323
X-35.879 Y-3.542
X-35.696 Y-3.628
X-35.51 Y-3.706
X-35.327 Y-3.774
X-35.155 Y-3.829
X-34.793 Y-3.919
X-34.446 Y-3.972
X-34.101 Y-3.994
X-33.756 Y-3.988
X-33.408 Y-3.955
X-33.053 Y-3.897
X-32.692 Y-3.816
X-32.322 Y-3.715
X-31.943 Y-3.597
X-31.554 Y-3.463
X-31.154 Y-3.318
X-30.743 Y-3.163
X-30.322 Y-3.004
X-30.318 Y-3.003
X-29.888 Y-2.843
X-29.879 Y-2.84
X-29.44 Y-2.683
X-29.427 Y-2.678
X-28.977 Y-2.526
X-28.96 Y-2.521
X-28.498 Y-2.376
X-28.478 Y-2.371
X-28.003 Y-2.237
X-27.98 Y-2.231
X-27.49 Y-2.109
X-27.465 Y-2.104
X-26.961 Y-1.997
X-26.934 Y-1.992
X-26.413 Y-1.902
X-26.385 Y-1.898
X-26.02 Y-1.849
Z-1.3
X-25.848 Y-1.826
X-25.819 Y-1.823
X-25.265 Y-1.771
X-25.236 Y-1.768
X-24.663 Y-1.737
X-24.635 Y-1.736
X-24.045 Y-1.725
X-24.018
X-23.427 Y-1.736
X-23.399 Y-1.737
X-22.827 Y-1.768
X-22.798 Y-1.771
X-22.243 Y-1.823
X-22.215 Y-1.826
X-22.02 Y-1.852
Z-1.9 F300
X-21.678 Y-1.898 F600
X-21.649 Y-1.902
X-21.129 Y-1.992
X-21.102 Y-1.997
X-20.597 Y-2.104
X-20.572 Y-2.109
X-20.083 Y-2.231
X-20.06 Y-2.237
X-19.585 Y-2.371
X-19.565 Y-2.376
X-19.102 Y-2.521
X-19.086 Y-2.526
X-18.636 Y-2.678
X-18.623 Y-2.683
X-18.183 Y-2.84
X-18.175 Y-2.843
X-17.744 Y-3.003
X-17.741 Y-3.004
X-17.319 Y-3.163
X-16.908 Y-3.318
X-16.508 Y-3.463
X-16.119 Y-3.597
X-15.74 Y-3.715
X-15.37 Y-3.816
X-15.009 Y-3.897
X-14.655 Y-3.955
X-14.306 Y-3.988
X-13.961 Y-3.994
X-13.617 Y-3.972
X-13.269 Y-3.919
X-12.907 Y-3.829
X-12.735 Y-3.774
X-12.552 Y-3.706
X-12.366 Y-3.628
X-12.183 Y-3.542
X-11.786 Y-3.323
X-11.38 Y-3.058
X-10.957 Y-2.74
X-10.519 Y-2.366
X-10.059 Y-1.928
G2 X-1.927 Y-10.059 I4.059 J-4.072
G1 X-2.328 Y-10.482
X-2.669 Y-10.889
X-2.959 Y-11.286
X-3.201 Y-11.673
X-3.397 Y-12.051
X-3.552 Y-12.422
X-3.668 Y-12.787
X-3.75 Y-13.148
X-3.8 Y-13.509
X-3.821 Y-13.872
X-3.815 Y-14.239
X-3.784 Y-14.612
X-3.729 Y-14.992
X-3.653 Y-15.379
X-3.559 Y-15.775
X-3.449 Y-16.179
X-3.325 Y-16.592
X-3.19 Y-17.013
X-3.048 Y-17.444
X-2.901 Y-17.883
X-2.9 Y-17.885
X-2.752 Y-18.331
X-2.75 Y-18.338
X-2.605 Y-18.79
X-2.602 Y-18.8
X-2.461 Y-19.26
X-2.457 Y-19.274
X-2.324 Y-19.741
X-2.319 Y-19.758
X-2.196 Y-20.233
X-2.191 Y-20.253
X-2.079 Y-20.738
X-2.074 Y-20.76
X-1.976 Y-21.254
X-1.971 Y-21.279
X-1.888 Y-21.783
X-1.885 Y-21.809
X-1.858 Y-22.02
Z-1.3
X-1.818 Y-22.324
X-1.815 Y-22.351
X-1.767 Y-22.877
X-1.765 Y-22.905
X-1.736 Y-23.442
X-1.735 Y-23.469
X-1.734 Y-23.519
Z15
M5
M30
