(1001)
(Bearbeiten)
(  Hersteller: ChinaCnc)
(  model: 3040T)
(  description: Generic 3-axis)
(T14  D=1.95 CR=0 - ZMIN=-1.8 - Schaftfraser)
G90 G94
G17
G21
G28 G91 Z0
G90

(Bohrfrasen13)
T14
S4000 M3
G54
G0 X-6 Y-6
Z15
Z2
G1 Z0 F1016
X-6.195 Y-6.355
G3 X-6 Y-6.55 I0.195 J0
X-6 Y-5.45 Z-0.15 I0 J0.55 F2540
X-6 Y-6.55 Z-0.3 I0 J-0.55
X-6 Y-5.45 Z-0.45 I0 J0.55
X-6 Y-6.55 Z-0.6 I0 J-0.55
X-6 Y-5.45 Z-0.75 I0 J0.55
X-6 Y-6.55 Z-0.9 I0 J-0.55
X-6 Y-5.45 Z-1.05 I0 J0.55
X-6 Y-6.55 Z-1.2 I0 J-0.55
X-6 Y-5.45 Z-1.35 I0 J0.55
X-6 Y-6.55 Z-1.5 I0 J-0.55
X-6 Y-5.45 Z-1.65 I0 J0.55
X-6 Y-6.55 Z-1.8 I0 J-0.55
X-6 Y-5.45 I0 J0.55
X-6 Y-6.55 I0 J-0.55
X-5.805 Y-6.355 I0 J0.195 F1016
G1 X-6 Y-6
G0 Z5
X-42.062
Z2
G1 Z0 F1016
X-42.257 Y-6.355
G3 X-42.062 Y-6.55 I0.195 J0
X-42.062 Y-5.45 Z-0.15 I0 J0.55 F2540
X-42.062 Y-6.55 Z-0.3 I0 J-0.55
X-42.062 Y-5.45 Z-0.45 I0 J0.55
X-42.062 Y-6.55 Z-0.6 I0 J-0.55
X-42.062 Y-5.45 Z-0.75 I0 J0.55
X-42.062 Y-6.55 Z-0.9 I0 J-0.55
X-42.062 Y-5.45 Z-1.05 I0 J0.55
X-42.062 Y-6.55 Z-1.2 I0 J-0.55
X-42.062 Y-5.45 Z-1.35 I0 J0.55
X-42.062 Y-6.55 Z-1.5 I0 J-0.55
X-42.062 Y-5.45 Z-1.65 I0 J0.55
X-42.062 Y-6.55 Z-1.8 I0 J-0.55
X-42.062 Y-5.45 I0 J0.55
X-42.062 Y-6.55 I0 J-0.55
X-41.867 Y-6.355 I0 J0.195 F1016
G1 X-42.062 Y-6
G0 Z5
Y-42.062
Z2
G1 Z0 F1016
X-41.867 Y-41.707
G3 X-42.062 Y-41.512 I-0.195 J0
X-42.062 Y-42.612 Z-0.15 I0 J-0.55 F2540
X-42.062 Y-41.512 Z-0.3 I0 J0.55
X-42.062 Y-42.612 Z-0.45 I0 J-0.55
X-42.062 Y-41.512 Z-0.6 I0 J0.55
X-42.062 Y-42.612 Z-0.75 I0 J-0.55
X-42.062 Y-41.512 Z-0.9 I0 J0.55
X-42.062 Y-42.612 Z-1.05 I0 J-0.55
X-42.062 Y-41.512 Z-1.2 I0 J0.55
X-42.062 Y-42.612 Z-1.35 I0 J-0.55
X-42.062 Y-41.512 Z-1.5 I0 J0.55
X-42.062 Y-42.612 Z-1.65 I0 J-0.55
X-42.062 Y-41.512 Z-1.8 I0 J0.55
X-42.062 Y-42.612 I0 J-0.55
X-42.062 Y-41.512 I0 J0.55
X-42.257 Y-41.707 I0 J-0.195 F1016
G1 X-42.062 Y-42.062
G0 Z5
X-6
Z2
G1 Z0 F1016
X-5.805 Y-41.707
G3 X-6 Y-41.512 I-0.195 J0
X-6 Y-42.612 Z-0.15 I0 J-0.55 F2540
X-6 Y-41.512 Z-0.3 I0 J0.55
X-6 Y-42.612 Z-0.45 I0 J-0.55
X-6 Y-41.512 Z-0.6 I0 J0.55
X-6 Y-42.612 Z-0.75 I0 J-0.55
X-6 Y-41.512 Z-0.9 I0 J0.55
X-6 Y-42.612 Z-1.05 I0 J-0.55
X-6 Y-41.512 Z-1.2 I0 J0.55
X-6 Y-42.612 Z-1.35 I0 J-0.55
X-6 Y-41.512 Z-1.5 I0 J0.55
X-6 Y-42.612 Z-1.65 I0 J-0.55
X-6 Y-41.512 Z-1.8 I0 J0.55
X-6 Y-42.612 I0 J-0.55
X-6 Y-41.512 I0 J0.55
X-6.195 Y-41.707 I0 J-0.195 F1016
G1 X-6 Y-42.062
G0 Z15

(Bohrfrasen16)
X-6 Y-24.031
Z15
Z2
G1 Z0 F1016
X-6.025 Y-24.056
X-6.018 Y-24.074
X-6 Y-24.081
X-5.973 Y-24.074 Z-0.027 F2540
X-5.955 Y-24.053 Z-0.054
X-5.95 Y-24.025 Z-0.081
X-5.961 Y-24 Z-0.107
X-5.984 Y-23.984 Z-0.134
X-6.012 Y-23.983 Z-0.161
X-6.036 Y-23.996 Z-0.188
X-6.049 Y-24.021 Z-0.215
X-6.047 Y-24.048 Z-0.242
X-6.031 Y-24.071 Z-0.269
X-6.005 Y-24.081 Z-0.296
X-5.977 Y-24.076 Z-0.322
X-5.957 Y-24.057 Z-0.349
X-5.95 Y-24.03 Z-0.376
X-5.958 Y-24.004 Z-0.403
X-5.98 Y-23.986 Z-0.43
X-6.007 Y-23.982 Z-0.457
X-6.032 Y-23.993 Z-0.484
X-6.048 Y-24.016 Z-0.51
Y-24.044 Z-0.537
X-6.034 Y-24.068 Z-0.564
X-6.009 Y-24.08 Z-0.591
X-5.982 Y-24.078 Z-0.618
X-5.96 Y-24.061 Z-0.645
X-5.95 Y-24.035 Z-0.672
X-5.956 Y-24.008 Z-0.699
X-5.975 Y-23.988 Z-0.725
X-6.002 Y-23.981 Z-0.752
X-6.029 Y-23.99 Z-0.779
X-6.046 Y-24.012 Z-0.806
X-6.049 Y-24.039 Z-0.833
X-6.037 Y-24.064 Z-0.86
X-6.014 Y-24.079 Z-0.887
X-5.986 Z-0.913
X-5.963 Y-24.064 Z-0.94
X-5.951 Y-24.039 Z-0.967
X-5.954 Y-24.012 Z-0.994
X-5.971 Y-23.99 Z-1.021
X-5.998 Y-23.981 Z-1.048
X-6.025 Y-23.988 Z-1.075
X-6.044 Y-24.008 Z-1.101
X-6.05 Y-24.035 Z-1.128
X-6.04 Y-24.061 Z-1.155
X-6.018 Y-24.078 Z-1.182
X-5.991 Y-24.08 Z-1.209
X-5.966 Y-24.068 Z-1.236
X-5.952 Y-24.044 Z-1.263
Y-24.016 Z-1.29
X-5.968 Y-23.993 Z-1.316
X-5.993 Y-23.982 Z-1.343
X-6.02 Y-23.986 Z-1.37
X-6.042 Y-24.004 Z-1.397
X-6.05 Y-24.03 Z-1.424
X-6.043 Y-24.057 Z-1.451
X-6.023 Y-24.076 Z-1.478
X-5.995 Y-24.081 Z-1.504
X-5.969 Y-24.071 Z-1.531
X-5.953 Y-24.048 Z-1.558
X-5.951 Y-24.021 Z-1.585
X-5.964 Y-23.996 Z-1.612
X-5.988 Y-23.983 Z-1.639
X-6.016 Y-23.984 Z-1.666
X-6.039 Y-24 Z-1.693
X-6.05 Y-24.025 Z-1.719
X-6.045 Y-24.053 Z-1.746
X-6.027 Y-24.074 Z-1.773
X-6 Y-24.081 Z-1.8
G3 X-6 Y-23.981 I0 J0.05
X-6 Y-24.081 I0 J-0.05
G1 X-5.982 Y-24.074 F1016
X-5.975 Y-24.056
X-6 Y-24.031
G0 Z5
X-14.031 Y-34.031
Z2
G1 Z0 F1016
X-14.006 Y-34.006
X-14.014 Y-33.989
X-14.031 Y-33.981
X-14.058 Y-33.989 Z-0.027 F2540
X-14.076 Y-34.01 Z-0.054
X-14.081 Y-34.037 Z-0.081
X-14.07 Y-34.063 Z-0.107
X-14.047 Y-34.079 Z-0.134
X-14.02 Y-34.08 Z-0.161
X-13.995 Y-34.066 Z-0.188
X-13.982 Y-34.042 Z-0.215
X-13.984 Y-34.014 Z-0.242
X-14.001 Y-33.992 Z-0.269
X-14.027 Y-33.981 Z-0.296
X-14.054 Y-33.987 Z-0.322
X-14.074 Y-34.006 Z-0.349
X-14.081 Y-34.032 Z-0.376
X-14.073 Y-34.059 Z-0.403
X-14.052 Y-34.077 Z-0.43
X-14.024 Y-34.081 Z-0.457
X-13.999 Y-34.069 Z-0.484
X-13.984 Y-34.046 Z-0.51
X-13.983 Y-34.018 Z-0.537
X-13.997 Y-33.995 Z-0.564
X-14.022 Y-33.982 Z-0.591
X-14.05 Y-33.985 Z-0.618
X-14.072 Y-34.002 Z-0.645
X-14.081 Y-34.028 Z-0.672
X-14.075 Y-34.055 Z-0.699
X-14.056 Y-34.075 Z-0.725
X-14.029 Y-34.081 Z-0.752
X-14.003 Y-34.072 Z-0.779
X-13.985 Y-34.051 Z-0.806
X-13.982 Y-34.023 Z-0.833
X-13.994 Y-33.998 Z-0.86
X-14.017 Y-33.983 Z-0.887
X-14.045 Z-0.913
X-14.069 Y-33.998 Z-0.94
X-14.081 Y-34.023 Z-0.967
X-14.077 Y-34.051 Z-0.994
X-14.06 Y-34.072 Z-1.021
X-14.034 Y-34.081 Z-1.048
X-14.007 Y-34.075 Z-1.075
X-13.987 Y-34.055 Z-1.101
X-13.981 Y-34.028 Z-1.128
X-13.991 Y-34.002 Z-1.155
X-14.013 Y-33.985 Z-1.182
X-14.041 Y-33.982 Z-1.209
X-14.065 Y-33.995 Z-1.236
X-14.08 Y-34.018 Z-1.263
X-14.079 Y-34.046 Z-1.29
X-14.064 Y-34.069 Z-1.316
X-14.038 Y-34.081 Z-1.343
X-14.011 Y-34.077 Z-1.37
X-13.99 Y-34.059 Z-1.397
X-13.981 Y-34.032 Z-1.424
X-13.988 Y-34.006 Z-1.451
X-14.009 Y-33.987 Z-1.478
X-14.036 Y-33.981 Z-1.504
X-14.062 Y-33.992 Z-1.531
X-14.078 Y-34.014 Z-1.558
X-14.08 Y-34.042 Z-1.585
X-14.067 Y-34.066 Z-1.612
X-14.043 Y-34.08 Z-1.639
X-14.015 Y-34.079 Z-1.666
X-13.992 Y-34.063 Z-1.693
X-13.982 Y-34.037 Z-1.719
X-13.986 Y-34.01 Z-1.746
X-14.005 Y-33.989 Z-1.773
X-14.031 Y-33.981 Z-1.8
G3 X-14.031 Y-34.081 I0 J-0.05
X-14.031 Y-33.981 I0 J0.05
G1 X-14.049 Y-33.989 F1016
X-14.056 Y-34.006
X-14.031 Y-34.031
G0 Z5
X-24.031 Y-42.062
Z2
G1 Z0 F1016
X-24.006 Y-42.037
X-24.014 Y-42.02
X-24.031 Y-42.012
X-24.058 Y-42.02 Z-0.027 F2540
X-24.076 Y-42.041 Z-0.054
X-24.081 Y-42.068 Z-0.081
X-24.07 Y-42.094 Z-0.107
X-24.047 Y-42.11 Z-0.134
X-24.02 Y-42.111 Z-0.161
X-23.995 Y-42.097 Z-0.188
X-23.982 Y-42.073 Z-0.215
X-23.984 Y-42.045 Z-0.242
X-24.001 Y-42.023 Z-0.269
X-24.027 Y-42.013 Z-0.296
X-24.054 Y-42.018 Z-0.322
X-24.074 Y-42.037 Z-0.349
X-24.081 Y-42.064 Z-0.376
X-24.073 Y-42.09 Z-0.403
X-24.052 Y-42.108 Z-0.43
X-24.024 Y-42.112 Z-0.457
X-23.999 Y-42.101 Z-0.484
X-23.984 Y-42.077 Z-0.51
X-23.983 Y-42.05 Z-0.537
X-23.997 Y-42.026 Z-0.564
X-24.022 Y-42.013 Z-0.591
X-24.05 Y-42.016 Z-0.618
X-24.072 Y-42.033 Z-0.645
X-24.081 Y-42.059 Z-0.672
X-24.075 Y-42.086 Z-0.699
X-24.056 Y-42.106 Z-0.725
X-24.029 Y-42.112 Z-0.752
X-24.003 Y-42.103 Z-0.779
X-23.985 Y-42.082 Z-0.806
X-23.982 Y-42.054 Z-0.833
X-23.994 Y-42.029 Z-0.86
X-24.017 Y-42.014 Z-0.887
X-24.045 Z-0.913
X-24.069 Y-42.029 Z-0.94
X-24.081 Y-42.054 Z-0.967
X-24.077 Y-42.082 Z-0.994
X-24.06 Y-42.103 Z-1.021
X-24.034 Y-42.112 Z-1.048
X-24.007 Y-42.106 Z-1.075
X-23.987 Y-42.086 Z-1.101
X-23.981 Y-42.059 Z-1.128
X-23.991 Y-42.033 Z-1.155
X-24.013 Y-42.016 Z-1.182
X-24.041 Y-42.013 Z-1.209
X-24.065 Y-42.026 Z-1.236
X-24.08 Y-42.05 Z-1.263
X-24.079 Y-42.077 Z-1.29
X-24.064 Y-42.101 Z-1.316
X-24.038 Y-42.112 Z-1.343
X-24.011 Y-42.108 Z-1.37
X-23.99 Y-42.09 Z-1.397
X-23.981 Y-42.064 Z-1.424
X-23.988 Y-42.037 Z-1.451
X-24.009 Y-42.018 Z-1.478
X-24.036 Y-42.013 Z-1.504
X-24.062 Y-42.023 Z-1.531
X-24.078 Y-42.045 Z-1.558
X-24.08 Y-42.073 Z-1.585
X-24.067 Y-42.097 Z-1.612
X-24.043 Y-42.111 Z-1.639
X-24.015 Y-42.11 Z-1.666
X-23.992 Y-42.094 Z-1.693
X-23.982 Y-42.068 Z-1.719
X-23.986 Y-42.041 Z-1.746
X-24.005 Y-42.02 Z-1.773
X-24.031 Y-42.012 Z-1.8
G3 X-24.031 Y-42.112 I0 J-0.05
X-24.031 Y-42.012 I0 J0.05
G1 X-24.049 Y-42.02 F1016
X-24.056 Y-42.037
X-24.031 Y-42.062
G0 Z5
X-34.031 Y-34.031
Z2
G1 Z0 F1016
X-34.006 Y-34.006
X-34.014 Y-33.989
X-34.031 Y-33.981
X-34.058 Y-33.989 Z-0.027 F2540
X-34.076 Y-34.01 Z-0.054
X-34.081 Y-34.037 Z-0.081
X-34.07 Y-34.063 Z-0.107
X-34.047 Y-34.079 Z-0.134
X-34.02 Y-34.08 Z-0.161
X-33.995 Y-34.066 Z-0.188
X-33.982 Y-34.042 Z-0.215
X-33.984 Y-34.014 Z-0.242
X-34.001 Y-33.992 Z-0.269
X-34.027 Y-33.981 Z-0.296
X-34.054 Y-33.987 Z-0.322
X-34.074 Y-34.006 Z-0.349
X-34.081 Y-34.032 Z-0.376
X-34.073 Y-34.059 Z-0.403
X-34.052 Y-34.077 Z-0.43
X-34.024 Y-34.081 Z-0.457
X-33.999 Y-34.069 Z-0.484
X-33.984 Y-34.046 Z-0.51
X-33.983 Y-34.018 Z-0.537
X-33.997 Y-33.995 Z-0.564
X-34.022 Y-33.982 Z-0.591
X-34.05 Y-33.985 Z-0.618
X-34.072 Y-34.002 Z-0.645
X-34.081 Y-34.028 Z-0.672
X-34.075 Y-34.055 Z-0.699
X-34.056 Y-34.075 Z-0.725
X-34.029 Y-34.081 Z-0.752
X-34.003 Y-34.072 Z-0.779
X-33.985 Y-34.051 Z-0.806
X-33.982 Y-34.023 Z-0.833
X-33.994 Y-33.998 Z-0.86
X-34.017 Y-33.983 Z-0.887
X-34.045 Z-0.913
X-34.069 Y-33.998 Z-0.94
X-34.081 Y-34.023 Z-0.967
X-34.077 Y-34.051 Z-0.994
X-34.06 Y-34.072 Z-1.021
X-34.034 Y-34.081 Z-1.048
X-34.007 Y-34.075 Z-1.075
X-33.987 Y-34.055 Z-1.101
X-33.981 Y-34.028 Z-1.128
X-33.991 Y-34.002 Z-1.155
X-34.013 Y-33.985 Z-1.182
X-34.041 Y-33.982 Z-1.209
X-34.065 Y-33.995 Z-1.236
X-34.08 Y-34.018 Z-1.263
X-34.079 Y-34.046 Z-1.29
X-34.064 Y-34.069 Z-1.316
X-34.038 Y-34.081 Z-1.343
X-34.011 Y-34.077 Z-1.37
X-33.99 Y-34.059 Z-1.397
X-33.981 Y-34.032 Z-1.424
X-33.988 Y-34.006 Z-1.451
X-34.009 Y-33.987 Z-1.478
X-34.036 Y-33.981 Z-1.504
X-34.062 Y-33.992 Z-1.531
X-34.078 Y-34.014 Z-1.558
X-34.08 Y-34.042 Z-1.585
X-34.067 Y-34.066 Z-1.612
X-34.043 Y-34.08 Z-1.639
X-34.015 Y-34.079 Z-1.666
X-33.992 Y-34.063 Z-1.693
X-33.982 Y-34.037 Z-1.719
X-33.986 Y-34.01 Z-1.746
X-34.005 Y-33.989 Z-1.773
X-34.031 Y-33.981 Z-1.8
G3 X-34.031 Y-34.081 I0 J-0.05
X-34.031 Y-33.981 I0 J0.05
G1 X-34.049 Y-33.989 F1016
X-34.056 Y-34.006
X-34.031 Y-34.031
G0 Z5
X-42.062 Y-24.031
Z2
G1 Z0 F1016
X-42.037 Y-24.006
X-42.045 Y-23.989
X-42.062 Y-23.981
X-42.089 Y-23.989 Z-0.027 F2540
X-42.108 Y-24.01 Z-0.054
X-42.112 Y-24.037 Z-0.081
X-42.101 Y-24.063 Z-0.107
X-42.079 Y-24.079 Z-0.134
X-42.051 Y-24.08 Z-0.161
X-42.027 Y-24.066 Z-0.188
X-42.014 Y-24.042 Z-0.215
X-42.016 Y-24.014 Z-0.242
X-42.032 Y-23.992 Z-0.269
X-42.058 Y-23.981 Z-0.296
X-42.085 Y-23.987 Z-0.322
X-42.105 Y-24.006 Z-0.349
X-42.112 Y-24.032 Z-0.376
X-42.104 Y-24.059 Z-0.403
X-42.083 Y-24.077 Z-0.43
X-42.055 Y-24.081 Z-0.457
X-42.03 Y-24.069 Z-0.484
X-42.015 Y-24.046 Z-0.51
X-42.014 Y-24.018 Z-0.537
X-42.028 Y-23.995 Z-0.564
X-42.053 Y-23.982 Z-0.591
X-42.081 Y-23.985 Z-0.618
X-42.103 Y-24.002 Z-0.645
X-42.112 Y-24.028 Z-0.672
X-42.107 Y-24.055 Z-0.699
X-42.087 Y-24.075 Z-0.725
X-42.06 Y-24.081 Z-0.752
X-42.034 Y-24.072 Z-0.779
X-42.016 Y-24.051 Z-0.806
X-42.013 Y-24.023 Z-0.833
X-42.025 Y-23.998 Z-0.86
X-42.049 Y-23.983 Z-0.887
X-42.076 Z-0.913
X-42.1 Y-23.998 Z-0.94
X-42.112 Y-24.023 Z-0.967
X-42.109 Y-24.051 Z-0.994
X-42.091 Y-24.072 Z-1.021
X-42.065 Y-24.081 Z-1.048
X-42.038 Y-24.075 Z-1.075
X-42.018 Y-24.055 Z-1.101
X-42.013 Y-24.028 Z-1.128
X-42.022 Y-24.002 Z-1.155
X-42.044 Y-23.985 Z-1.182
X-42.072 Y-23.982 Z-1.209
X-42.097 Y-23.995 Z-1.236
X-42.111 Y-24.018 Z-1.263
X-42.11 Y-24.046 Z-1.29
X-42.095 Y-24.069 Z-1.316
X-42.069 Y-24.081 Z-1.343
X-42.042 Y-24.077 Z-1.37
X-42.021 Y-24.059 Z-1.397
X-42.012 Y-24.032 Z-1.424
X-42.02 Y-24.006 Z-1.451
X-42.04 Y-23.987 Z-1.478
X-42.067 Y-23.981 Z-1.504
X-42.093 Y-23.992 Z-1.531
X-42.109 Y-24.014 Z-1.558
X-42.111 Y-24.042 Z-1.585
X-42.098 Y-24.066 Z-1.612
X-42.074 Y-24.08 Z-1.639
X-42.046 Y-24.079 Z-1.666
X-42.024 Y-24.063 Z-1.693
X-42.013 Y-24.037 Z-1.719
X-42.017 Y-24.01 Z-1.746
X-42.036 Y-23.989 Z-1.773
X-42.062 Y-23.981 Z-1.8
G3 X-42.062 Y-24.081 I0 J-0.05
X-42.062 Y-23.981 I0 J0.05
G1 X-42.08 Y-23.989 F1016
X-42.087 Y-24.006
X-42.062 Y-24.031
G0 Z5
X-34.031 Y-14.031
Z2
G1 Z0 F1016
X-34.056 Y-14.056
X-34.049 Y-14.074
X-34.031 Y-14.081
X-34.005 Y-14.074 Z-0.027 F2540
X-33.986 Y-14.053 Z-0.054
X-33.982 Y-14.025 Z-0.081
X-33.992 Y-14 Z-0.107
X-34.015 Y-13.984 Z-0.134
X-34.043 Y-13.983 Z-0.161
X-34.067 Y-13.996 Z-0.188
X-34.08 Y-14.021 Z-0.215
X-34.078 Y-14.048 Z-0.242
X-34.062 Y-14.071 Z-0.269
X-34.036 Y-14.081 Z-0.296
X-34.009 Y-14.076 Z-0.322
X-33.988 Y-14.057 Z-0.349
X-33.981 Y-14.03 Z-0.376
X-33.99 Y-14.004 Z-0.403
X-34.011 Y-13.986 Z-0.43
X-34.038 Y-13.982 Z-0.457
X-34.064 Y-13.993 Z-0.484
X-34.079 Y-14.016 Z-0.51
X-34.08 Y-14.044 Z-0.537
X-34.065 Y-14.068 Z-0.564
X-34.041 Y-14.08 Z-0.591
X-34.013 Y-14.078 Z-0.618
X-33.991 Y-14.061 Z-0.645
X-33.981 Y-14.035 Z-0.672
X-33.987 Y-14.008 Z-0.699
X-34.007 Y-13.988 Z-0.725
X-34.034 Y-13.981 Z-0.752
X-34.06 Y-13.99 Z-0.779
X-34.077 Y-14.012 Z-0.806
X-34.081 Y-14.039 Z-0.833
X-34.069 Y-14.064 Z-0.86
X-34.045 Y-14.079 Z-0.887
X-34.017 Z-0.913
X-33.994 Y-14.064 Z-0.94
X-33.982 Y-14.039 Z-0.967
X-33.985 Y-14.012 Z-0.994
X-34.003 Y-13.99 Z-1.021
X-34.029 Y-13.981 Z-1.048
X-34.056 Y-13.988 Z-1.075
X-34.075 Y-14.008 Z-1.101
X-34.081 Y-14.035 Z-1.128
X-34.072 Y-14.061 Z-1.155
X-34.05 Y-14.078 Z-1.182
X-34.022 Y-14.08 Z-1.209
X-33.997 Y-14.068 Z-1.236
X-33.983 Y-14.044 Z-1.263
X-33.984 Y-14.016 Z-1.29
X-33.999 Y-13.993 Z-1.316
X-34.024 Y-13.982 Z-1.343
X-34.052 Y-13.986 Z-1.37
X-34.073 Y-14.004 Z-1.397
X-34.081 Y-14.03 Z-1.424
X-34.074 Y-14.057 Z-1.451
X-34.054 Y-14.076 Z-1.478
X-34.027 Y-14.081 Z-1.504
X-34.001 Y-14.071 Z-1.531
X-33.984 Y-14.048 Z-1.558
X-33.982 Y-14.021 Z-1.585
X-33.995 Y-13.996 Z-1.612
X-34.02 Y-13.983 Z-1.639
X-34.047 Y-13.984 Z-1.666
X-34.07 Y-14 Z-1.693
X-34.081 Y-14.025 Z-1.719
X-34.076 Y-14.053 Z-1.746
X-34.058 Y-14.074 Z-1.773
X-34.031 Y-14.081 Z-1.8
G3 X-34.031 Y-13.981 I0 J0.05
X-34.031 Y-14.081 I0 J-0.05
G1 X-34.014 Y-14.074 F1016
X-34.006 Y-14.056
X-34.031 Y-14.031
G0 Z5
X-24.031 Y-6
Z2
G1 Z0 F1016
X-24.056 Y-6.025
X-24.049 Y-6.043
X-24.031 Y-6.05
X-24.005 Y-6.042 Z-0.027 F2540
X-23.986 Y-6.022 Z-0.054
X-23.982 Y-5.994 Z-0.081
X-23.992 Y-5.969 Z-0.107
X-24.015 Y-5.953 Z-0.134
X-24.043 Y-5.951 Z-0.161
X-24.067 Y-5.965 Z-0.188
X-24.08 Y-5.99 Z-0.215
X-24.078 Y-6.017 Z-0.242
X-24.062 Y-6.04 Z-0.269
X-24.036 Y-6.05 Z-0.296
X-24.009 Y-6.045 Z-0.322
X-23.988 Y-6.026 Z-0.349
X-23.981 Y-5.999 Z-0.376
X-23.99 Y-5.972 Z-0.403
X-24.011 Y-5.954 Z-0.43
X-24.038 Y-5.95 Z-0.457
X-24.064 Y-5.962 Z-0.484
X-24.079 Y-5.985 Z-0.51
X-24.08 Y-6.013 Z-0.537
X-24.065 Y-6.037 Z-0.564
X-24.041 Y-6.049 Z-0.591
X-24.013 Y-6.047 Z-0.618
X-23.991 Y-6.03 Z-0.645
X-23.981 Y-6.004 Z-0.672
X-23.987 Y-5.976 Z-0.699
X-24.007 Y-5.957 Z-0.725
X-24.034 Y-5.95 Z-0.752
X-24.06 Y-5.959 Z-0.779
X-24.077 Y-5.981 Z-0.806
X-24.081 Y-6.008 Z-0.833
X-24.069 Y-6.033 Z-0.86
X-24.045 Y-6.048 Z-0.887
X-24.017 Z-0.913
X-23.994 Y-6.033 Z-0.94
X-23.982 Y-6.008 Z-0.967
X-23.985 Y-5.981 Z-0.994
X-24.003 Y-5.959 Z-1.021
X-24.029 Y-5.95 Z-1.048
X-24.056 Y-5.957 Z-1.075
X-24.075 Y-5.976 Z-1.101
X-24.081 Y-6.004 Z-1.128
X-24.072 Y-6.03 Z-1.155
X-24.05 Y-6.047 Z-1.182
X-24.022 Y-6.049 Z-1.209
X-23.997 Y-6.037 Z-1.236
X-23.983 Y-6.013 Z-1.263
X-23.984 Y-5.985 Z-1.29
X-23.999 Y-5.962 Z-1.316
X-24.024 Y-5.95 Z-1.343
X-24.052 Y-5.954 Z-1.37
X-24.073 Y-5.972 Z-1.397
X-24.081 Y-5.999 Z-1.424
X-24.074 Y-6.026 Z-1.451
X-24.054 Y-6.045 Z-1.478
X-24.027 Y-6.05 Z-1.504
X-24.001 Y-6.04 Z-1.531
X-23.984 Y-6.017 Z-1.558
X-23.982 Y-5.99 Z-1.585
X-23.995 Y-5.965 Z-1.612
X-24.02 Y-5.951 Z-1.639
X-24.047 Y-5.953 Z-1.666
X-24.07 Y-5.969 Z-1.693
X-24.081 Y-5.994 Z-1.719
X-24.076 Y-6.022 Z-1.746
X-24.058 Y-6.042 Z-1.773
X-24.031 Y-6.05 Z-1.8
G3 X-24.031 Y-5.95 I0 J0.05
X-24.031 Y-6.05 I0 J-0.05
G1 X-24.014 Y-6.043 F1016
X-24.006 Y-6.025
X-24.031 Y-6
G0 Z5
X-14.031 Y-14.031
Z2
G1 Z0 F1016
X-14.056 Y-14.056
X-14.049 Y-14.074
X-14.031 Y-14.081
X-14.005 Y-14.074 Z-0.027 F2540
X-13.986 Y-14.053 Z-0.054
X-13.982 Y-14.025 Z-0.081
X-13.992 Y-14 Z-0.107
X-14.015 Y-13.984 Z-0.134
X-14.043 Y-13.983 Z-0.161
X-14.067 Y-13.996 Z-0.188
X-14.08 Y-14.021 Z-0.215
X-14.078 Y-14.048 Z-0.242
X-14.062 Y-14.071 Z-0.269
X-14.036 Y-14.081 Z-0.296
X-14.009 Y-14.076 Z-0.322
X-13.988 Y-14.057 Z-0.349
X-13.981 Y-14.03 Z-0.376
X-13.99 Y-14.004 Z-0.403
X-14.011 Y-13.986 Z-0.43
X-14.038 Y-13.982 Z-0.457
X-14.064 Y-13.993 Z-0.484
X-14.079 Y-14.016 Z-0.51
X-14.08 Y-14.044 Z-0.537
X-14.065 Y-14.068 Z-0.564
X-14.041 Y-14.08 Z-0.591
X-14.013 Y-14.078 Z-0.618
X-13.991 Y-14.061 Z-0.645
X-13.981 Y-14.035 Z-0.672
X-13.987 Y-14.008 Z-0.699
X-14.007 Y-13.988 Z-0.725
X-14.034 Y-13.981 Z-0.752
X-14.06 Y-13.99 Z-0.779
X-14.077 Y-14.012 Z-0.806
X-14.081 Y-14.039 Z-0.833
X-14.069 Y-14.064 Z-0.86
X-14.045 Y-14.079 Z-0.887
X-14.017 Z-0.913
X-13.994 Y-14.064 Z-0.94
X-13.982 Y-14.039 Z-0.967
X-13.985 Y-14.012 Z-0.994
X-14.003 Y-13.99 Z-1.021
X-14.029 Y-13.981 Z-1.048
X-14.056 Y-13.988 Z-1.075
X-14.075 Y-14.008 Z-1.101
X-14.081 Y-14.035 Z-1.128
X-14.072 Y-14.061 Z-1.155
X-14.05 Y-14.078 Z-1.182
X-14.022 Y-14.08 Z-1.209
X-13.997 Y-14.068 Z-1.236
X-13.983 Y-14.044 Z-1.263
X-13.984 Y-14.016 Z-1.29
X-13.999 Y-13.993 Z-1.316
X-14.024 Y-13.982 Z-1.343
X-14.052 Y-13.986 Z-1.37
X-14.073 Y-14.004 Z-1.397
X-14.081 Y-14.03 Z-1.424
X-14.074 Y-14.057 Z-1.451
X-14.054 Y-14.076 Z-1.478
X-14.027 Y-14.081 Z-1.504
X-14.001 Y-14.071 Z-1.531
X-13.984 Y-14.048 Z-1.558
X-13.982 Y-14.021 Z-1.585
X-13.995 Y-13.996 Z-1.612
X-14.02 Y-13.983 Z-1.639
X-14.047 Y-13.984 Z-1.666
X-14.07 Y-14 Z-1.693
X-14.081 Y-14.025 Z-1.719
X-14.076 Y-14.053 Z-1.746
X-14.058 Y-14.074 Z-1.773
X-14.031 Y-14.081 Z-1.8
G3 X-14.031 Y-13.981 I0 J0.05
X-14.031 Y-14.081 I0 J-0.05
G1 X-14.014 Y-14.074 F1016
X-14.006 Y-14.056
X-14.031 Y-14.031
G0 Z15

(2D-Kontur4)
X-20.896 Y-27.556
Z15
Z5
G1 Z1.2 F508
Z0.5
X-11.5 Z0.172 F1016
G3 X-10.975 Y-27.031 Z0.143 I0 J0.525
G1 Y-21.031 Z-0.066
G3 X-11.5 Y-20.506 Z-0.095 I-0.525 J0
G1 X-14.5 Z-0.2
X-36.562 F2540
G3 X-37.087 Y-21.031 I0 J-0.525
G1 Y-27.031
G3 X-36.562 Y-27.556 I0.525 J0
G1 X-11.5
G3 X-10.975 Y-27.031 I0 J0.525
G1 Y-21.031
G3 X-11.5 Y-20.506 I-0.525 J0
G1 X-14.5
X-20.227 Z-0.4 F1016
X-36.562 F2540
G3 X-37.087 Y-21.031 I0 J-0.525
G1 Y-27.031
G3 X-36.562 Y-27.556 I0.525 J0
G1 X-11.5
G3 X-10.975 Y-27.031 I0 J0.525
G1 Y-21.031
G3 X-11.5 Y-20.506 I-0.525 J0
G1 X-20.227
X-25.955 Z-0.6 F1016
X-36.562 F2540
G3 X-37.087 Y-21.031 I0 J-0.525
G1 Y-27.031
G3 X-36.562 Y-27.556 I0.525 J0
G1 X-11.5
G3 X-10.975 Y-27.031 I0 J0.525
G1 Y-21.031
G3 X-11.5 Y-20.506 I-0.525 J0
G1 X-20.227
X-25.955
X-31.682 Z-0.8 F1016
X-36.562 F2540
G3 X-37.087 Y-21.031 I0 J-0.525
G1 Y-27.031
G3 X-36.562 Y-27.556 I0.525 J0
G1 X-11.5
G3 X-10.975 Y-27.031 I0 J0.525
G1 Y-21.031
G3 X-11.5 Y-20.506 I-0.525 J0
G1 X-25.955
X-31.682
X-36.562 Z-0.97 F1016
G3 X-37.087 Y-21.031 Z-0.999 I0 J-0.525
G1 Y-21.053 Z-1
Y-27.031 F2540
G3 X-36.562 Y-27.556 I0.525 J0
G1 X-11.5
G3 X-10.975 Y-27.031 I0 J0.525
G1 Y-21.031
G3 X-11.5 Y-20.506 I-0.525 J0
G1 X-31.682
X-36.562
G3 X-37.087 Y-21.031 I0 J-0.525
G1 Y-21.053
Y-26.78 Z-1.2 F1016
Y-27.031 F2540
G3 X-36.562 Y-27.556 I0.525 J0
G1 X-11.5
G3 X-10.975 Y-27.031 I0 J0.525
G1 Y-21.031
G3 X-11.5 Y-20.506 I-0.525 J0
G1 X-36.562
G3 X-37.087 Y-21.031 I0 J-0.525
G1 Y-26.78
Y-27.031 Z-1.209 F1016
G3 X-36.562 Y-27.556 Z-1.238 I0.525 J0
G1 X-31.911 Z-1.4
X-11.5 F2540
G3 X-10.975 Y-27.031 I0 J0.525
G1 Y-21.031
G3 X-11.5 Y-20.506 I-0.525 J0
G1 X-36.562
G3 X-37.087 Y-21.031 I0 J-0.525
G1 Y-26.78
Y-27.031
G3 X-36.562 Y-27.556 I0.525 J0
G1 X-31.911
X-26.183 Z-1.6 F1016
X-11.5 F2540
G3 X-10.975 Y-27.031 I0 J0.525
G1 Y-21.031
G3 X-11.5 Y-20.506 I-0.525 J0
G1 X-36.562
G3 X-37.087 Y-21.031 I0 J-0.525
G1 Y-27.031
G3 X-36.562 Y-27.556 I0.525 J0
G1 X-26.183
X-20.456 Z-1.8 F1016
X-11.5 F2540
G3 X-10.975 Y-27.031 I0 J0.525
G1 Y-21.031
G3 X-11.5 Y-20.506 I-0.525 J0
G1 X-36.562
G3 X-37.087 Y-21.031 I0 J-0.525
G1 Y-27.031
G3 X-36.562 Y-27.556 I0.525 J0
G1 X-26.183
X-20.456
G0 Z5
X-25.034 Y-36.012
G1 Z1.2 F508
Z0.5
X-29.531 Z0.343 F1016
G3 X-30.056 Y-36.537 Z0.314 I0 J-0.525
G1 Y-37.037 Z0.297
G3 X-29.531 Y-37.562 Z0.268 I0.525 J0
G1 X-18.531 Z-0.116
G3 X-18.006 Y-37.037 Z-0.145 I0 J0.525
G1 Y-36.537 Z-0.162
G3 X-18.531 Y-36.012 Z-0.191 I-0.525 J0
G1 X-18.781 Z-0.2
X-29.531 F2540
G3 X-30.056 Y-36.537 I0 J-0.525
G1 Y-37.037
G3 X-29.531 Y-37.562 I0.525 J0
G1 X-18.531
G3 X-18.006 Y-37.037 I0 J0.525
G1 Y-36.537
G3 X-18.531 Y-36.012 I-0.525 J0
G1 X-18.781
X-24.508 Z-0.4 F1016
X-29.531 F2540
G3 X-30.056 Y-36.537 I0 J-0.525
G1 Y-37.037
G3 X-29.531 Y-37.562 I0.525 J0
G1 X-18.531
G3 X-18.006 Y-37.037 I0 J0.525
G1 Y-36.537
G3 X-18.531 Y-36.012 I-0.525 J0
G1 X-24.508
X-29.531 Z-0.575 F1016
G3 X-30.043 Y-36.418 Z-0.6 I0 J-0.525
G1 X-30.053 Y-36.477 F2540
X-30.056 Y-36.537
Y-37.037
G3 X-29.531 Y-37.562 I0.525 J0
G1 X-18.531
G3 X-18.006 Y-37.037 I0 J0.525
G1 Y-36.537
G3 X-18.531 Y-36.012 I-0.525 J0
G1 X-24.508
X-29.531
G3 X-30.043 Y-36.418 I0 J-0.525
G1 X-30.053 Y-36.477 Z-0.602 F1016
X-30.056 Y-36.537 Z-0.604
Y-37.037 Z-0.622
G3 X-29.531 Y-37.562 Z-0.65 I0.525 J0
G1 X-25.249 Z-0.8
X-18.531 F2540
G3 X-18.006 Y-37.037 I0 J0.525
G1 Y-36.537
G3 X-18.531 Y-36.012 I-0.525 J0
G1 X-29.531
G3 X-30.056 Y-36.537 I0 J-0.525
G1 Y-37.037
G3 X-29.531 Y-37.562 I0.525 J0
G1 X-25.249
X-19.522 Z-1 F1016
X-18.531 F2540
G3 X-18.006 Y-37.037 I0 J0.525
G1 Y-36.537
G3 X-18.531 Y-36.012 I-0.525 J0
G1 X-29.531
G3 X-30.056 Y-36.537 I0 J-0.525
G1 Y-37.037
G3 X-29.531 Y-37.562 I0.525 J0
G1 X-19.522
X-18.531 Z-1.035 F1016
G3 X-18.006 Y-37.037 Z-1.063 I0 J0.525
G1 Y-36.537 Z-1.081
G3 X-18.531 Y-36.012 Z-1.11 I-0.525 J0
G1 X-21.119 Z-1.2
X-29.531 F2540
G3 X-30.056 Y-36.537 I0 J-0.525
G1 Y-37.037
G3 X-29.531 Y-37.562 I0.525 J0
G1 X-19.522
X-18.531
G3 X-18.006 Y-37.037 I0 J0.525
G1 Y-36.537
G3 X-18.531 Y-36.012 I-0.525 J0
G1 X-21.119
X-26.846 Z-1.4 F1016
X-29.531 F2540
G3 X-30.056 Y-36.537 I0 J-0.525
G1 Y-37.037
G3 X-29.531 Y-37.562 I0.525 J0
G1 X-18.531
G3 X-18.006 Y-37.037 I0 J0.525
G1 Y-36.537
G3 X-18.531 Y-36.012 I-0.525 J0
G1 X-26.846
X-29.531 Z-1.494 F1016
G3 X-30.056 Y-36.537 Z-1.523 I0 J-0.525
G1 Y-37.037 Z-1.54
G3 X-29.531 Y-37.562 Z-1.569 I0.525 J0
G1 X-28.638 Z-1.6
X-18.531 F2540
G3 X-18.006 Y-37.037 I0 J0.525
G1 Y-36.537
G3 X-18.531 Y-36.012 I-0.525 J0
G1 X-26.846
X-29.531
G3 X-30.056 Y-36.537 I0 J-0.525
G1 Y-37.037
G3 X-29.531 Y-37.562 I0.525 J0
G1 X-28.638
X-22.911 Z-1.8 F1016
X-18.531 F2540
G3 X-18.006 Y-37.037 I0 J0.525
G1 Y-36.537
G3 X-18.531 Y-36.012 I-0.525 J0
G1 X-29.531
G3 X-30.056 Y-36.537 I0 J-0.525
G1 Y-37.037
G3 X-29.531 Y-37.562 I0.525 J0
G1 X-22.911
G0 Z5
X-24.353 Y-12.05
G1 Z1.2 F508
Z0.5
X-18.531 Z0.297 F1016
G3 X-18.006 Y-11.525 Z0.268 I0 J0.525
G1 Y-11.025 Z0.25
G3 X-18.531 Y-10.5 Z0.222 I-0.525 J0
G1 X-29.531 Z-0.162
G3 X-30.056 Y-11.025 Z-0.191 I0 J-0.525
G1 Y-11.275 Z-0.2
Y-11.525 F2540
G3 X-29.531 Y-12.05 I0.525 J0
G1 X-18.531
G3 X-18.006 Y-11.525 I0 J0.525
G1 Y-11.025
G3 X-18.531 Y-10.5 I-0.525 J0
G1 X-29.531
G3 X-30.056 Y-11.025 I0 J-0.525
G1 Y-11.275
Y-11.525 Z-0.209 F1016
G3 X-29.531 Y-12.05 Z-0.238 I0.525 J0
G1 X-24.879 Z-0.4
X-18.531 F2540
G3 X-18.006 Y-11.525 I0 J0.525
G1 Y-11.025
G3 X-18.531 Y-10.5 I-0.525 J0
G1 X-29.531
G3 X-30.056 Y-11.025 I0 J-0.525
G1 Y-11.525
G3 X-29.531 Y-12.05 I0.525 J0
G1 X-24.879
X-19.151 Z-0.6 F1016
X-18.531 F2540
G3 X-18.006 Y-11.525 I0 J0.525
G1 Y-11.025
G3 X-18.531 Y-10.5 I-0.525 J0
G1 X-29.531
G3 X-30.056 Y-11.025 I0 J-0.525
G1 Y-11.525
G3 X-29.531 Y-12.05 I0.525 J0
G1 X-19.151
X-18.531 Z-0.622 F1016
G3 X-18.006 Y-11.525 Z-0.65 I0 J0.525
G1 Y-11.025 Z-0.668
G3 X-18.531 Y-10.5 Z-0.697 I-0.525 J0
G1 X-21.489 Z-0.8
X-29.531 F2540
G3 X-30.056 Y-11.025 I0 J-0.525
G1 Y-11.525
G3 X-29.531 Y-12.05 I0.525 J0
G1 X-19.151
X-18.531
G3 X-18.006 Y-11.525 I0 J0.525
G1 Y-11.025
G3 X-18.531 Y-10.5 I-0.525 J0
G1 X-21.489
X-27.216 Z-1 F1016
X-29.531 F2540
G3 X-30.056 Y-11.025 I0 J-0.525
G1 Y-11.525
G3 X-29.531 Y-12.05 I0.525 J0
G1 X-18.531
G3 X-18.006 Y-11.525 I0 J0.525
G1 Y-11.025
G3 X-18.531 Y-10.5 I-0.525 J0
G1 X-27.216
X-29.531 Z-1.081 F1016
G3 X-30.056 Y-11.025 Z-1.11 I0 J-0.525
G1 Y-11.525 Z-1.127
G3 X-29.531 Y-12.05 Z-1.156 I0.525 J0
G1 X-28.268 Z-1.2
X-18.531 F2540
G3 X-18.006 Y-11.525 I0 J0.525
G1 Y-11.025
G3 X-18.531 Y-10.5 I-0.525 J0
G1 X-27.216
X-29.531
G3 X-30.056 Y-11.025 I0 J-0.525
G1 Y-11.525
G3 X-29.531 Y-12.05 I0.525 J0
G1 X-28.268
X-22.541 Z-1.4 F1016
X-18.531 F2540
G3 X-18.006 Y-11.525 I0 J0.525
G1 Y-11.025
G3 X-18.531 Y-10.5 I-0.525 J0
G1 X-29.531
G3 X-30.056 Y-11.025 I0 J-0.525
G1 Y-11.525
G3 X-29.531 Y-12.05 I0.525 J0
G1 X-22.541
X-18.531 Z-1.54 F1016
G3 X-18.006 Y-11.525 Z-1.569 I0 J0.525
G1 Y-11.025 Z-1.586
G3 X-18.146 Y-10.668 Z-1.6 I-0.525 J0
X-18.531 Y-10.5 I-0.385 J-0.357 F2540
G1 X-29.531
G3 X-30.056 Y-11.025 I0 J-0.525
G1 Y-11.525
G3 X-29.531 Y-12.05 I0.525 J0
G1 X-22.541
X-18.531
G3 X-18.006 Y-11.525 I0 J0.525
G1 Y-11.025
G3 X-18.146 Y-10.668 I-0.525 J0
X-18.531 Y-10.5 Z-1.615 I-0.385 J-0.357 F1016
G1 X-23.827 Z-1.8
X-29.531 F2540
G3 X-30.056 Y-11.025 I0 J-0.525
G1 Y-11.525
G3 X-29.531 Y-12.05 I0.525 J0
G1 X-18.531
G3 X-18.006 Y-11.525 I0 J0.525
G1 Y-11.025
G3 X-18.531 Y-10.5 I-0.525 J0
G1 X-23.827
G0 Z15

(2D-Kontur5)
X-45.71 Y-10.861
Z15
Z5
G1 Z1.2 F508
Z1
X-45.903 Y-10.632 Z0.99 F1016
X-46.297 Y-10.216 Z0.97
G2 X-46.287 Y-1.775 Z0.642 I4.234 J4.215
X-37.846 Y-1.767 Z0.315 I4.225 J-4.225
G1 X-37.392 Y-2.199 Z0.293
X-36.964 Y-2.565 Z0.273
X-36.554 Y-2.874 Z0.255
X-36.161 Y-3.13 Z0.239
X-35.777 Y-3.341 Z0.224
X-35.605 Y-3.422 Z0.217
X-35.427 Y-3.497 Z0.21
X-35.254 Y-3.562 Z0.204
X-35.093 Y-3.613 Z0.198
X-34.749 Y-3.698 Z0.186
X-34.422 Y-3.748 Z0.174
X-34.096 Y-3.769 Z0.163
X-33.769 Y-3.763 Z0.151
X-33.437 Y-3.731 Z0.14
X-33.096 Y-3.676 Z0.128
X-32.746 Y-3.598 Z0.115
X-32.385 Y-3.499 Z0.102
X-32.013 Y-3.383 Z0.088
X-31.629 Y-3.251 Z0.074
X-31.232 Y-3.107 Z0.059
X-30.823 Y-2.953 Z0.044
X-30.401 Y-2.794 Z0.028
X-30.396 Y-2.792
X-29.966 Y-2.632 Z0.012
X-29.955 Y-2.628
X-29.515 Y-2.471 Z-0.005
X-29.499 Y-2.465
X-29.049 Y-2.313 Z-0.022
X-29.027 Y-2.306 Z-0.023
X-28.565 Y-2.162 Z-0.039
X-28.539 Y-2.154 Z-0.04
X-28.064 Y-2.02 Z-0.058
X-28.034 Y-2.012 Z-0.059
X-27.545 Y-1.891 Z-0.076
X-27.511 Y-1.883 Z-0.077
X-27.007 Y-1.777 Z-0.095
X-26.972 Y-1.77 Z-0.097
X-26.452 Y-1.68 Z-0.115
X-26.415 Y-1.675 Z-0.116
X-25.878 Y-1.603 Z-0.135
X-25.84 Y-1.599 Z-0.137
X-25.286 Y-1.547 Z-0.156
X-25.248 Y-1.544 Z-0.157
X-24.676 Y-1.512 Z-0.177
X-24.639 Y-1.511 Z-0.179
X-24.049 Y-1.5 Z-0.199
X-24.031 Z-0.2
X-24.014 F2540
X-23.423 Y-1.511
X-23.387 Y-1.512
X-22.814 Y-1.544
X-22.777 Y-1.547
X-22.222 Y-1.599
X-22.185 Y-1.603
X-21.648 Y-1.675
X-21.611 Y-1.68
X-21.091 Y-1.77
X-21.055 Y-1.777
X-20.551 Y-1.883
X-20.518 Y-1.891
X-20.029 Y-2.012
X-19.999 Y-2.02
X-19.524 Y-2.154
X-19.498 Y-2.162
X-19.035 Y-2.306
X-19.014 Y-2.313
X-18.564 Y-2.465
X-18.547 Y-2.471
X-18.107 Y-2.628
X-18.096 Y-2.632
X-17.666 Y-2.792
X-17.661 Y-2.794
X-17.24 Y-2.953
X-16.83 Y-3.107
X-16.433 Y-3.251
X-16.049 Y-3.383
X-15.677 Y-3.499
X-15.316 Y-3.598
X-14.966 Y-3.676
X-14.626 Y-3.731
X-14.293 Y-3.763
X-13.966 Y-3.769
X-13.641 Y-3.748
X-13.314 Y-3.698
X-12.969 Y-3.613
X-12.809 Y-3.562
X-12.635 Y-3.497
X-12.458 Y-3.422
X-12.285 Y-3.341
X-11.901 Y-3.13
X-11.509 Y-2.874
X-11.098 Y-2.565
X-10.67 Y-2.199
X-10.217 Y-1.767
G2 X-1.775 Y-1.775 I4.217 J-4.233
X-1.766 Y-10.215 I-4.225 J-4.225
G1 X-2.16 Y-10.632
X-2.492 Y-11.028
X-2.773 Y-11.412
X-3.005 Y-11.785
X-3.193 Y-12.147
X-3.341 Y-12.5
X-3.451 Y-12.846
X-3.529 Y-13.189
X-3.576 Y-13.531
X-3.596 Y-13.877
X-3.59 Y-14.228
X-3.56 Y-14.587
X-3.507 Y-14.954
X-3.433 Y-15.332
X-3.341 Y-15.719
X-3.232 Y-16.117
X-3.11 Y-16.525
X-2.976 Y-16.944
X-2.834 Y-17.373
X-2.687 Y-17.812
Y-17.815
X-2.539 Y-18.261
X-2.536 Y-18.269
X-2.391 Y-18.721
X-2.387 Y-18.735
X-2.246 Y-19.194
X-2.241 Y-19.212
X-2.108 Y-19.679
X-2.102 Y-19.701
X-1.978 Y-20.177
X-1.972 Y-20.203
X-1.86 Y-20.687
X-1.854 Y-20.716
X-1.755 Y-21.211
X-1.749 Y-21.242
X-1.666 Y-21.747
X-1.661 Y-21.781
X-1.595 Y-22.295
X-1.591 Y-22.331
X-1.543 Y-22.857
X-1.541 Y-22.893
X-1.511 Y-23.43
X-1.51 Y-23.465
X-1.5 Y-24.014
Y-24.049
X-1.51 Y-24.597
X-1.511 Y-24.633
X-1.541 Y-25.17
X-1.543 Y-25.206
X-1.591 Y-25.732
X-1.595 Y-25.767
X-1.661 Y-26.282
X-1.666 Y-26.316
X-1.749 Y-26.82
X-1.755 Y-26.852
X-1.854 Y-27.346
X-1.86 Y-27.375
X-1.972 Y-27.86
X-1.978 Y-27.886
X-2.102 Y-28.361
X-2.108 Y-28.383
X-2.241 Y-28.851
X-2.246 Y-28.868
X-2.387 Y-29.328
X-2.391 Y-29.341
X-2.536 Y-29.794
X-2.539 Y-29.802
X-2.687 Y-30.248
Y-30.25
X-2.834 Y-30.689
X-2.976 Y-31.119
X-3.11 Y-31.537
X-3.232 Y-31.945
X-3.341 Y-32.343
X-3.433 Y-32.731
X-3.507 Y-33.108
X-3.56 Y-33.476
X-3.59 Y-33.835
X-3.596 Y-34.186
X-3.576 Y-34.531
X-3.529 Y-34.874
X-3.451 Y-35.217
X-3.341 Y-35.563
X-3.193 Y-35.916
X-3.005 Y-36.278
X-2.773 Y-36.65
X-2.492 Y-37.035
X-2.16 Y-37.431
X-1.766 Y-37.847
G2 X-1.775 Y-46.287 I-4.234 J-4.215
X-10.217 Y-46.296 I-4.225 J4.225
G1 X-10.67 Y-45.864
X-11.098 Y-45.498
X-11.509 Y-45.188
X-11.901 Y-44.932
X-12.285 Y-44.721
X-12.458 Y-44.64
X-12.635 Y-44.565
X-12.809 Y-44.501
X-12.969 Y-44.45
X-13.314 Y-44.364
X-13.641 Y-44.314
X-13.966 Y-44.293
X-14.293 Y-44.299
X-14.626 Y-44.331
X-14.966 Y-44.387
X-15.316 Y-44.465
X-15.677 Y-44.563
X-16.049 Y-44.68
X-16.433 Y-44.811
X-16.83 Y-44.956
X-17.24 Y-45.11
X-17.661 Y-45.269
X-17.666 Y-45.27
X-18.096 Y-45.43
X-18.107 Y-45.434
X-18.547 Y-45.592
X-18.564 Y-45.597
X-19.014 Y-45.75
X-19.036 Y-45.757
X-19.498 Y-45.901
X-19.524 Y-45.908
X-19.999 Y-46.042
X-20.029 Y-46.05
X-20.518 Y-46.171
X-20.551 Y-46.179
X-21.055 Y-46.285
X-21.091 Y-46.292
X-21.611 Y-46.382
X-21.648 Y-46.388
X-22.185 Y-46.459
X-22.222 Y-46.464
X-22.777 Y-46.516
X-22.814 Y-46.519
X-23.387 Y-46.55
X-23.423 Y-46.552
X-24.014 Y-46.562
X-24.049
X-24.639 Y-46.552
X-24.676 Y-46.55
X-25.248 Y-46.519
X-25.286 Y-46.516
X-25.84 Y-46.464
X-25.878 Y-46.459
X-26.415 Y-46.388
X-26.452 Y-46.382
X-26.972 Y-46.292
X-27.007 Y-46.285
X-27.512 Y-46.179
X-27.545 Y-46.171
X-28.034 Y-46.05
X-28.064 Y-46.042
X-28.539 Y-45.908
X-28.565 Y-45.901
X-29.027 Y-45.757
X-29.049 Y-45.75
X-29.499 Y-45.597
X-29.516 Y-45.592
X-29.955 Y-45.434
X-29.966 Y-45.43
X-30.397 Y-45.27
X-30.401 Y-45.269
X-30.822 Y-45.11
X-31.232 Y-44.956
X-31.629 Y-44.811
X-32.013 Y-44.68
X-32.385 Y-44.563
X-32.746 Y-44.465
X-33.096 Y-44.387
X-33.437 Y-44.331
X-33.769 Y-44.299
X-34.096 Y-44.293
X-34.422 Y-44.314
X-34.749 Y-44.364
X-35.093 Y-44.45
X-35.254 Y-44.501
X-35.428 Y-44.565
X-35.605 Y-44.64
X-35.777 Y-44.721
X-36.161 Y-44.932
X-36.554 Y-45.188
X-36.964 Y-45.498
X-37.392 Y-45.864
X-37.846 Y-46.296
G2 X-46.287 Y-46.287 I-4.217 J4.233
X-46.297 Y-37.847 I4.225 J4.225
G1 X-45.903 Y-37.431
X-45.571 Y-37.035
X-45.29 Y-36.65
X-45.057 Y-36.278
X-44.869 Y-35.916
X-44.722 Y-35.563
X-44.611 Y-35.217
X-44.534 Y-34.874
X-44.486 Y-34.531
X-44.466 Y-34.186
X-44.472 Y-33.835
X-44.502 Y-33.476
X-44.555 Y-33.108
X-44.629 Y-32.731
X-44.721 Y-32.343
X-44.83 Y-31.946
X-44.953 Y-31.537
X-45.087 Y-31.119
X-45.228 Y-30.689
X-45.375 Y-30.25
X-45.376 Y-30.248
X-45.524 Y-29.802
X-45.526 Y-29.794
X-45.672 Y-29.341
X-45.676 Y-29.328
X-45.816 Y-28.869
X-45.822 Y-28.851
X-45.955 Y-28.383
X-45.961 Y-28.361
X-46.084 Y-27.886
X-46.091 Y-27.86
X-46.203 Y-27.375
X-46.209 Y-27.346
X-46.307 Y-26.852
X-46.313 Y-26.82
X-46.396 Y-26.316
X-46.401 Y-26.282
X-46.467 Y-25.767
X-46.471 Y-25.732
X-46.519 Y-25.206
X-46.522 Y-25.17
X-46.551 Y-24.633
X-46.552 Y-24.597
X-46.562 Y-24.049
Y-24.014
X-46.552 Y-23.465
X-46.551 Y-23.43
X-46.522 Y-22.892
X-46.519 Y-22.857
X-46.471 Y-22.331
X-46.467 Y-22.296
X-46.401 Y-21.781
X-46.396 Y-21.747
X-46.313 Y-21.242
X-46.307 Y-21.211
X-46.209 Y-20.716
X-46.203 Y-20.687
X-46.091 Y-20.202
X-46.084 Y-20.177
X-45.961 Y-19.701
X-45.955 Y-19.679
X-45.822 Y-19.212
X-45.816 Y-19.194
X-45.676 Y-18.734
X-45.672 Y-18.721
X-45.526 Y-18.269
X-45.524 Y-18.261
X-45.376 Y-17.815
X-45.375 Y-17.812
X-45.228 Y-17.373
X-45.087 Y-16.944
X-44.953 Y-16.525
X-44.83 Y-16.117
X-44.721 Y-15.719
X-44.629 Y-15.332
X-44.555 Y-14.954
X-44.502 Y-14.587
X-44.472 Y-14.228
X-44.466 Y-13.877
X-44.486 Y-13.531
X-44.534 Y-13.189
X-44.611 Y-12.846
X-44.722 Y-12.5
X-44.869 Y-12.147
X-45.057 Y-11.785
X-45.29 Y-11.412
X-45.571 Y-11.028
X-45.903 Y-10.632
X-46.297 Y-10.216
G2 X-46.287 Y-1.775 I4.234 J4.215
X-37.846 Y-1.767 I4.225 J-4.225
G1 X-37.392 Y-2.199
X-36.964 Y-2.565
X-36.554 Y-2.874
X-36.161 Y-3.13
X-35.777 Y-3.341
X-35.605 Y-3.422
X-35.427 Y-3.497
X-35.254 Y-3.562
X-35.093 Y-3.613
X-34.749 Y-3.698
X-34.422 Y-3.748
X-34.096 Y-3.769
X-33.769 Y-3.763
X-33.437 Y-3.731
X-33.096 Y-3.676
X-32.746 Y-3.598
X-32.385 Y-3.499
X-32.013 Y-3.383
X-31.629 Y-3.251
X-31.232 Y-3.107
X-30.823 Y-2.953
X-30.401 Y-2.794
X-30.396 Y-2.792
X-29.966 Y-2.632
X-29.955 Y-2.628
X-29.515 Y-2.471
X-29.499 Y-2.465
X-29.049 Y-2.313
X-29.027 Y-2.306
X-28.565 Y-2.162
X-28.539 Y-2.154
X-28.064 Y-2.02
X-28.034 Y-2.012
X-27.545 Y-1.891
X-27.511 Y-1.883
X-27.007 Y-1.777
X-26.972 Y-1.77
X-26.452 Y-1.68
X-26.415 Y-1.675
X-25.878 Y-1.603
X-25.84 Y-1.599
X-25.286 Y-1.547
X-25.248 Y-1.544
X-24.676 Y-1.512
X-24.639 Y-1.511
X-24.049 Y-1.5
X-24.031
X-24.014 Z-0.201 F1016
X-23.423 Y-1.511 Z-0.221
X-23.387 Y-1.512 Z-0.222
X-22.814 Y-1.544 Z-0.241
X-22.777 Y-1.547 Z-0.242
X-22.222 Y-1.599 Z-0.261
X-22.185 Y-1.603 Z-0.262
X-21.648 Y-1.675 Z-0.281
X-21.611 Y-1.68 Z-0.282
X-21.091 Y-1.77 Z-0.3
X-21.055 Y-1.777 Z-0.301
X-20.551 Y-1.883 Z-0.319
X-20.518 Y-1.891 Z-0.32
X-20.029 Y-2.012 Z-0.337
X-19.999 Y-2.02 Z-0.338
X-19.524 Y-2.154 Z-0.354
X-19.498 Y-2.162 Z-0.355
X-19.035 Y-2.306 Z-0.372
X-19.014 Y-2.313
X-18.564 Y-2.465 Z-0.388
X-18.547 Y-2.471 Z-0.389
X-18.242 Y-2.58 Z-0.4
X-18.107 Y-2.628 F2540
X-18.096 Y-2.632
X-17.666 Y-2.792
X-17.661 Y-2.794
X-17.24 Y-2.953
X-16.83 Y-3.107
X-16.433 Y-3.251
X-16.049 Y-3.383
X-15.677 Y-3.499
X-15.316 Y-3.598
X-14.966 Y-3.676
X-14.626 Y-3.731
X-14.293 Y-3.763
X-13.966 Y-3.769
X-13.641 Y-3.748
X-13.314 Y-3.698
X-12.969 Y-3.613
X-12.809 Y-3.562
X-12.635 Y-3.497
X-12.458 Y-3.422
X-12.285 Y-3.341
X-11.901 Y-3.13
X-11.509 Y-2.874
X-11.098 Y-2.565
X-10.67 Y-2.199
X-10.217 Y-1.767
G2 X-1.775 Y-1.775 I4.217 J-4.233
X-1.766 Y-10.215 I-4.225 J-4.225
G1 X-2.16 Y-10.632
X-2.492 Y-11.028
X-2.773 Y-11.412
X-3.005 Y-11.785
X-3.193 Y-12.147
X-3.341 Y-12.5
X-3.451 Y-12.846
X-3.529 Y-13.189
X-3.576 Y-13.531
X-3.596 Y-13.877
X-3.59 Y-14.228
X-3.56 Y-14.587
X-3.507 Y-14.954
X-3.433 Y-15.332
X-3.341 Y-15.719
X-3.232 Y-16.117
X-3.11 Y-16.525
X-2.976 Y-16.944
X-2.834 Y-17.373
X-2.687 Y-17.812
Y-17.815
X-2.539 Y-18.261
X-2.536 Y-18.269
X-2.391 Y-18.721
X-2.387 Y-18.735
X-2.246 Y-19.194
X-2.241 Y-19.212
X-2.108 Y-19.679
X-2.102 Y-19.701
X-1.978 Y-20.177
X-1.972 Y-20.203
X-1.86 Y-20.687
X-1.854 Y-20.716
X-1.755 Y-21.211
X-1.749 Y-21.242
X-1.666 Y-21.747
X-1.661 Y-21.781
X-1.595 Y-22.295
X-1.591 Y-22.331
X-1.543 Y-22.857
X-1.541 Y-22.893
X-1.511 Y-23.43
X-1.51 Y-23.465
X-1.5 Y-24.014
Y-24.049
X-1.51 Y-24.597
X-1.511 Y-24.633
X-1.541 Y-25.17
X-1.543 Y-25.206
X-1.591 Y-25.732
X-1.595 Y-25.767
X-1.661 Y-26.282
X-1.666 Y-26.316
X-1.749 Y-26.82
X-1.755 Y-26.852
X-1.854 Y-27.346
X-1.86 Y-27.375
X-1.972 Y-27.86
X-1.978 Y-27.886
X-2.102 Y-28.361
X-2.108 Y-28.383
X-2.241 Y-28.851
X-2.246 Y-28.868
X-2.387 Y-29.328
X-2.391 Y-29.341
X-2.536 Y-29.794
X-2.539 Y-29.802
X-2.687 Y-30.248
Y-30.25
X-2.834 Y-30.689
X-2.976 Y-31.119
X-3.11 Y-31.537
X-3.232 Y-31.945
X-3.341 Y-32.343
X-3.433 Y-32.731
X-3.507 Y-33.108
X-3.56 Y-33.476
X-3.59 Y-33.835
X-3.596 Y-34.186
X-3.576 Y-34.531
X-3.529 Y-34.874
X-3.451 Y-35.217
X-3.341 Y-35.563
X-3.193 Y-35.916
X-3.005 Y-36.278
X-2.773 Y-36.65
X-2.492 Y-37.035
X-2.16 Y-37.431
X-1.766 Y-37.847
G2 X-1.775 Y-46.287 I-4.234 J-4.215
X-10.217 Y-46.296 I-4.225 J4.225
G1 X-10.67 Y-45.864
X-11.098 Y-45.498
X-11.509 Y-45.188
X-11.901 Y-44.932
X-12.285 Y-44.721
X-12.458 Y-44.64
X-12.635 Y-44.565
X-12.809 Y-44.501
X-12.969 Y-44.45
X-13.314 Y-44.364
X-13.641 Y-44.314
X-13.966 Y-44.293
X-14.293 Y-44.299
X-14.626 Y-44.331
X-14.966 Y-44.387
X-15.316 Y-44.465
X-15.677 Y-44.563
X-16.049 Y-44.68
X-16.433 Y-44.811
X-16.83 Y-44.956
X-17.24 Y-45.11
X-17.661 Y-45.269
X-17.666 Y-45.27
X-18.096 Y-45.43
X-18.107 Y-45.434
X-18.547 Y-45.592
X-18.564 Y-45.597
X-19.014 Y-45.75
X-19.036 Y-45.757
X-19.498 Y-45.901
X-19.524 Y-45.908
X-19.999 Y-46.042
X-20.029 Y-46.05
X-20.518 Y-46.171
X-20.551 Y-46.179
X-21.055 Y-46.285
X-21.091 Y-46.292
X-21.611 Y-46.382
X-21.648 Y-46.388
X-22.185 Y-46.459
X-22.222 Y-46.464
X-22.777 Y-46.516
X-22.814 Y-46.519
X-23.387 Y-46.55
X-23.423 Y-46.552
X-24.014 Y-46.562
X-24.049
X-24.639 Y-46.552
X-24.676 Y-46.55
X-25.248 Y-46.519
X-25.286 Y-46.516
X-25.84 Y-46.464
X-25.878 Y-46.459
X-26.415 Y-46.388
X-26.452 Y-46.382
X-26.972 Y-46.292
X-27.007 Y-46.285
X-27.512 Y-46.179
X-27.545 Y-46.171
X-28.034 Y-46.05
X-28.064 Y-46.042
X-28.539 Y-45.908
X-28.565 Y-45.901
X-29.027 Y-45.757
X-29.049 Y-45.75
X-29.499 Y-45.597
X-29.516 Y-45.592
X-29.955 Y-45.434
X-29.966 Y-45.43
X-30.397 Y-45.27
X-30.401 Y-45.269
X-30.822 Y-45.11
X-31.232 Y-44.956
X-31.629 Y-44.811
X-32.013 Y-44.68
X-32.385 Y-44.563
X-32.746 Y-44.465
X-33.096 Y-44.387
X-33.437 Y-44.331
X-33.769 Y-44.299
X-34.096 Y-44.293
X-34.422 Y-44.314
X-34.749 Y-44.364
X-35.093 Y-44.45
X-35.254 Y-44.501
X-35.428 Y-44.565
X-35.605 Y-44.64
X-35.777 Y-44.721
X-36.161 Y-44.932
X-36.554 Y-45.188
X-36.964 Y-45.498
X-37.392 Y-45.864
X-37.846 Y-46.296
G2 X-46.287 Y-46.287 I-4.217 J4.233
X-46.297 Y-37.847 I4.225 J4.225
G1 X-45.903 Y-37.431
X-45.571 Y-37.035
X-45.29 Y-36.65
X-45.057 Y-36.278
X-44.869 Y-35.916
X-44.722 Y-35.563
X-44.611 Y-35.217
X-44.534 Y-34.874
X-44.486 Y-34.531
X-44.466 Y-34.186
X-44.472 Y-33.835
X-44.502 Y-33.476
X-44.555 Y-33.108
X-44.629 Y-32.731
X-44.721 Y-32.343
X-44.83 Y-31.946
X-44.953 Y-31.537
X-45.087 Y-31.119
X-45.228 Y-30.689
X-45.375 Y-30.25
X-45.376 Y-30.248
X-45.524 Y-29.802
X-45.526 Y-29.794
X-45.672 Y-29.341
X-45.676 Y-29.328
X-45.816 Y-28.869
X-45.822 Y-28.851
X-45.955 Y-28.383
X-45.961 Y-28.361
X-46.084 Y-27.886
X-46.091 Y-27.86
X-46.203 Y-27.375
X-46.209 Y-27.346
X-46.307 Y-26.852
X-46.313 Y-26.82
X-46.396 Y-26.316
X-46.401 Y-26.282
X-46.467 Y-25.767
X-46.471 Y-25.732
X-46.519 Y-25.206
X-46.522 Y-25.17
X-46.551 Y-24.633
X-46.552 Y-24.597
X-46.562 Y-24.049
Y-24.014
X-46.552 Y-23.465
X-46.551 Y-23.43
X-46.522 Y-22.892
X-46.519 Y-22.857
X-46.471 Y-22.331
X-46.467 Y-22.296
X-46.401 Y-21.781
X-46.396 Y-21.747
X-46.313 Y-21.242
X-46.307 Y-21.211
X-46.209 Y-20.716
X-46.203 Y-20.687
X-46.091 Y-20.202
X-46.084 Y-20.177
X-45.961 Y-19.701
X-45.955 Y-19.679
X-45.822 Y-19.212
X-45.816 Y-19.194
X-45.676 Y-18.734
X-45.672 Y-18.721
X-45.526 Y-18.269
X-45.524 Y-18.261
X-45.376 Y-17.815
X-45.375 Y-17.812
X-45.228 Y-17.373
X-45.087 Y-16.944
X-44.953 Y-16.525
X-44.83 Y-16.117
X-44.721 Y-15.719
X-44.629 Y-15.332
X-44.555 Y-14.954
X-44.502 Y-14.587
X-44.472 Y-14.228
X-44.466 Y-13.877
X-44.486 Y-13.531
X-44.534 Y-13.189
X-44.611 Y-12.846
X-44.722 Y-12.5
X-44.869 Y-12.147
X-45.057 Y-11.785
X-45.29 Y-11.412
X-45.571 Y-11.028
X-45.903 Y-10.632
X-46.297 Y-10.216
G2 X-46.287 Y-1.775 I4.234 J4.215
X-37.846 Y-1.767 I4.225 J-4.225
G1 X-37.392 Y-2.199
X-36.964 Y-2.565
X-36.554 Y-2.874
X-36.161 Y-3.13
X-35.777 Y-3.341
X-35.605 Y-3.422
X-35.427 Y-3.497
X-35.254 Y-3.562
X-35.093 Y-3.613
X-34.749 Y-3.698
X-34.422 Y-3.748
X-34.096 Y-3.769
X-33.769 Y-3.763
X-33.437 Y-3.731
X-33.096 Y-3.676
X-32.746 Y-3.598
X-32.385 Y-3.499
X-32.013 Y-3.383
X-31.629 Y-3.251
X-31.232 Y-3.107
X-30.823 Y-2.953
X-30.401 Y-2.794
X-30.396 Y-2.792
X-29.966 Y-2.632
X-29.955 Y-2.628
X-29.515 Y-2.471
X-29.499 Y-2.465
X-29.049 Y-2.313
X-29.027 Y-2.306
X-28.565 Y-2.162
X-28.539 Y-2.154
X-28.064 Y-2.02
X-28.034 Y-2.012
X-27.545 Y-1.891
X-27.511 Y-1.883
X-27.007 Y-1.777
X-26.972 Y-1.77
X-26.452 Y-1.68
X-26.415 Y-1.675
X-25.878 Y-1.603
X-25.84 Y-1.599
X-25.286 Y-1.547
X-25.248 Y-1.544
X-24.676 Y-1.512
X-24.639 Y-1.511
X-24.049 Y-1.5
X-24.014
X-23.423 Y-1.511
X-23.387 Y-1.512
X-22.814 Y-1.544
X-22.777 Y-1.547
X-22.222 Y-1.599
X-22.185 Y-1.603
X-21.648 Y-1.675
X-21.611 Y-1.68
X-21.091 Y-1.77
X-21.055 Y-1.777
X-20.551 Y-1.883
X-20.518 Y-1.891
X-20.029 Y-2.012
X-19.999 Y-2.02
X-19.524 Y-2.154
X-19.498 Y-2.162
X-19.035 Y-2.306
X-19.014 Y-2.313
X-18.564 Y-2.465
X-18.547 Y-2.471
X-18.242 Y-2.58
X-18.107 Y-2.628 Z-0.405 F1016
X-18.096 Y-2.632
X-17.666 Y-2.792 Z-0.421
X-17.661 Y-2.794
X-17.24 Y-2.953 Z-0.436
X-16.83 Y-3.107 Z-0.451
X-16.433 Y-3.251 Z-0.465
X-16.049 Y-3.383 Z-0.479
X-15.677 Y-3.499 Z-0.492
X-15.316 Y-3.598 Z-0.505
X-14.966 Y-3.676 Z-0.517
X-14.626 Y-3.731 Z-0.528
X-14.293 Y-3.763 Z-0.54
X-13.966 Y-3.769 Z-0.551
X-13.641 Y-3.748 Z-0.562
X-13.314 Y-3.698 Z-0.573
X-12.969 Y-3.613 Z-0.585
X-12.809 Y-3.562 Z-0.591
X-12.635 Y-3.497 Z-0.597
X-12.55 Y-3.461 Z-0.6
X-12.458 Y-3.422 F2540
X-12.285 Y-3.341
X-11.901 Y-3.13
X-11.509 Y-2.874
X-11.098 Y-2.565
X-10.67 Y-2.199
X-10.217 Y-1.767
G2 X-1.775 Y-1.775 I4.217 J-4.233
X-1.766 Y-10.215 I-4.225 J-4.225
G1 X-2.16 Y-10.632
X-2.492 Y-11.028
X-2.773 Y-11.412
X-3.005 Y-11.785
X-3.193 Y-12.147
X-3.341 Y-12.5
X-3.451 Y-12.846
X-3.529 Y-13.189
X-3.576 Y-13.531
X-3.596 Y-13.877
X-3.59 Y-14.228
X-3.56 Y-14.587
X-3.507 Y-14.954
X-3.433 Y-15.332
X-3.341 Y-15.719
X-3.232 Y-16.117
X-3.11 Y-16.525
X-2.976 Y-16.944
X-2.834 Y-17.373
X-2.687 Y-17.812
Y-17.815
X-2.539 Y-18.261
X-2.536 Y-18.269
X-2.391 Y-18.721
X-2.387 Y-18.735
X-2.246 Y-19.194
X-2.241 Y-19.212
X-2.108 Y-19.679
X-2.102 Y-19.701
X-1.978 Y-20.177
X-1.972 Y-20.203
X-1.86 Y-20.687
X-1.854 Y-20.716
X-1.755 Y-21.211
X-1.749 Y-21.242
X-1.666 Y-21.747
X-1.661 Y-21.781
X-1.595 Y-22.295
X-1.591 Y-22.331
X-1.543 Y-22.857
X-1.541 Y-22.893
X-1.511 Y-23.43
X-1.51 Y-23.465
X-1.5 Y-24.014
Y-24.049
X-1.51 Y-24.597
X-1.511 Y-24.633
X-1.541 Y-25.17
X-1.543 Y-25.206
X-1.591 Y-25.732
X-1.595 Y-25.767
X-1.661 Y-26.282
X-1.666 Y-26.316
X-1.749 Y-26.82
X-1.755 Y-26.852
X-1.854 Y-27.346
X-1.86 Y-27.375
X-1.972 Y-27.86
X-1.978 Y-27.886
X-2.102 Y-28.361
X-2.108 Y-28.383
X-2.241 Y-28.851
X-2.246 Y-28.868
X-2.387 Y-29.328
X-2.391 Y-29.341
X-2.536 Y-29.794
X-2.539 Y-29.802
X-2.687 Y-30.248
Y-30.25
X-2.834 Y-30.689
X-2.976 Y-31.119
X-3.11 Y-31.537
X-3.232 Y-31.945
X-3.341 Y-32.343
X-3.433 Y-32.731
X-3.507 Y-33.108
X-3.56 Y-33.476
X-3.59 Y-33.835
X-3.596 Y-34.186
X-3.576 Y-34.531
X-3.529 Y-34.874
X-3.451 Y-35.217
X-3.341 Y-35.563
X-3.193 Y-35.916
X-3.005 Y-36.278
X-2.773 Y-36.65
X-2.492 Y-37.035
X-2.16 Y-37.431
X-1.766 Y-37.847
G2 X-1.775 Y-46.287 I-4.234 J-4.215
X-10.217 Y-46.296 I-4.225 J4.225
G1 X-10.67 Y-45.864
X-11.098 Y-45.498
X-11.509 Y-45.188
X-11.901 Y-44.932
X-12.285 Y-44.721
X-12.458 Y-44.64
X-12.635 Y-44.565
X-12.809 Y-44.501
X-12.969 Y-44.45
X-13.314 Y-44.364
X-13.641 Y-44.314
X-13.966 Y-44.293
X-14.293 Y-44.299
X-14.626 Y-44.331
X-14.966 Y-44.387
X-15.316 Y-44.465
X-15.677 Y-44.563
X-16.049 Y-44.68
X-16.433 Y-44.811
X-16.83 Y-44.956
X-17.24 Y-45.11
X-17.661 Y-45.269
X-17.666 Y-45.27
X-18.096 Y-45.43
X-18.107 Y-45.434
X-18.547 Y-45.592
X-18.564 Y-45.597
X-19.014 Y-45.75
X-19.036 Y-45.757
X-19.498 Y-45.901
X-19.524 Y-45.908
X-19.999 Y-46.042
X-20.029 Y-46.05
X-20.518 Y-46.171
X-20.551 Y-46.179
X-21.055 Y-46.285
X-21.091 Y-46.292
X-21.611 Y-46.382
X-21.648 Y-46.388
X-22.185 Y-46.459
X-22.222 Y-46.464
X-22.777 Y-46.516
X-22.814 Y-46.519
X-23.387 Y-46.55
X-23.423 Y-46.552
X-24.014 Y-46.562
X-24.049
X-24.639 Y-46.552
X-24.676 Y-46.55
X-25.248 Y-46.519
X-25.286 Y-46.516
X-25.84 Y-46.464
X-25.878 Y-46.459
X-26.415 Y-46.388
X-26.452 Y-46.382
X-26.972 Y-46.292
X-27.007 Y-46.285
X-27.512 Y-46.179
X-27.545 Y-46.171
X-28.034 Y-46.05
X-28.064 Y-46.042
X-28.539 Y-45.908
X-28.565 Y-45.901
X-29.027 Y-45.757
X-29.049 Y-45.75
X-29.499 Y-45.597
X-29.516 Y-45.592
X-29.955 Y-45.434
X-29.966 Y-45.43
X-30.397 Y-45.27
X-30.401 Y-45.269
X-30.822 Y-45.11
X-31.232 Y-44.956
X-31.629 Y-44.811
X-32.013 Y-44.68
X-32.385 Y-44.563
X-32.746 Y-44.465
X-33.096 Y-44.387
X-33.437 Y-44.331
X-33.769 Y-44.299
X-34.096 Y-44.293
X-34.422 Y-44.314
X-34.749 Y-44.364
X-35.093 Y-44.45
X-35.254 Y-44.501
X-35.428 Y-44.565
X-35.605 Y-44.64
X-35.777 Y-44.721
X-36.161 Y-44.932
X-36.554 Y-45.188
X-36.964 Y-45.498
X-37.392 Y-45.864
X-37.846 Y-46.296
G2 X-46.287 Y-46.287 I-4.217 J4.233
X-46.297 Y-37.847 I4.225 J4.225
G1 X-45.903 Y-37.431
X-45.571 Y-37.035
X-45.29 Y-36.65
X-45.057 Y-36.278
X-44.869 Y-35.916
X-44.722 Y-35.563
X-44.611 Y-35.217
X-44.534 Y-34.874
X-44.486 Y-34.531
X-44.466 Y-34.186
X-44.472 Y-33.835
X-44.502 Y-33.476
X-44.555 Y-33.108
X-44.629 Y-32.731
X-44.721 Y-32.343
X-44.83 Y-31.946
X-44.953 Y-31.537
X-45.087 Y-31.119
X-45.228 Y-30.689
X-45.375 Y-30.25
X-45.376 Y-30.248
X-45.524 Y-29.802
X-45.526 Y-29.794
X-45.672 Y-29.341
X-45.676 Y-29.328
X-45.816 Y-28.869
X-45.822 Y-28.851
X-45.955 Y-28.383
X-45.961 Y-28.361
X-46.084 Y-27.886
X-46.091 Y-27.86
X-46.203 Y-27.375
X-46.209 Y-27.346
X-46.307 Y-26.852
X-46.313 Y-26.82
X-46.396 Y-26.316
X-46.401 Y-26.282
X-46.467 Y-25.767
X-46.471 Y-25.732
X-46.519 Y-25.206
X-46.522 Y-25.17
X-46.551 Y-24.633
X-46.552 Y-24.597
X-46.562 Y-24.049
Y-24.014
X-46.552 Y-23.465
X-46.551 Y-23.43
X-46.522 Y-22.892
X-46.519 Y-22.857
X-46.471 Y-22.331
X-46.467 Y-22.296
X-46.401 Y-21.781
X-46.396 Y-21.747
X-46.313 Y-21.242
X-46.307 Y-21.211
X-46.209 Y-20.716
X-46.203 Y-20.687
X-46.091 Y-20.202
X-46.084 Y-20.177
X-45.961 Y-19.701
X-45.955 Y-19.679
X-45.822 Y-19.212
X-45.816 Y-19.194
X-45.676 Y-18.734
X-45.672 Y-18.721
X-45.526 Y-18.269
X-45.524 Y-18.261
X-45.376 Y-17.815
X-45.375 Y-17.812
X-45.228 Y-17.373
X-45.087 Y-16.944
X-44.953 Y-16.525
X-44.83 Y-16.117
X-44.721 Y-15.719
X-44.629 Y-15.332
X-44.555 Y-14.954
X-44.502 Y-14.587
X-44.472 Y-14.228
X-44.466 Y-13.877
X-44.486 Y-13.531
X-44.534 Y-13.189
X-44.611 Y-12.846
X-44.722 Y-12.5
X-44.869 Y-12.147
X-45.057 Y-11.785
X-45.29 Y-11.412
X-45.571 Y-11.028
X-45.903 Y-10.632
X-46.297 Y-10.216
G2 X-46.287 Y-1.775 I4.234 J4.215
X-37.846 Y-1.767 I4.225 J-4.225
G1 X-37.392 Y-2.199
X-36.964 Y-2.565
X-36.554 Y-2.874
X-36.161 Y-3.13
X-35.777 Y-3.341
X-35.605 Y-3.422
X-35.427 Y-3.497
X-35.254 Y-3.562
X-35.093 Y-3.613
X-34.749 Y-3.698
X-34.422 Y-3.748
X-34.096 Y-3.769
X-33.769 Y-3.763
X-33.437 Y-3.731
X-33.096 Y-3.676
X-32.746 Y-3.598
X-32.385 Y-3.499
X-32.013 Y-3.383
X-31.629 Y-3.251
X-31.232 Y-3.107
X-30.823 Y-2.953
X-30.401 Y-2.794
X-30.396 Y-2.792
X-29.966 Y-2.632
X-29.955 Y-2.628
X-29.515 Y-2.471
X-29.499 Y-2.465
X-29.049 Y-2.313
X-29.027 Y-2.306
X-28.565 Y-2.162
X-28.539 Y-2.154
X-28.064 Y-2.02
X-28.034 Y-2.012
X-27.545 Y-1.891
X-27.511 Y-1.883
X-27.007 Y-1.777
X-26.972 Y-1.77
X-26.452 Y-1.68
X-26.415 Y-1.675
X-25.878 Y-1.603
X-25.84 Y-1.599
X-25.286 Y-1.547
X-25.248 Y-1.544
X-24.676 Y-1.512
X-24.639 Y-1.511
X-24.049 Y-1.5
X-24.014
X-23.423 Y-1.511
X-23.387 Y-1.512
X-22.814 Y-1.544
X-22.777 Y-1.547
X-22.222 Y-1.599
X-22.185 Y-1.603
X-21.648 Y-1.675
X-21.611 Y-1.68
X-21.091 Y-1.77
X-21.055 Y-1.777
X-20.551 Y-1.883
X-20.518 Y-1.891
X-20.029 Y-2.012
X-19.999 Y-2.02
X-19.524 Y-2.154
X-19.498 Y-2.162
X-19.035 Y-2.306
X-19.014 Y-2.313
X-18.564 Y-2.465
X-18.547 Y-2.471
X-18.242 Y-2.58
X-18.107 Y-2.628
X-18.096 Y-2.632
X-17.666 Y-2.792
X-17.661 Y-2.794
X-17.24 Y-2.953
X-16.83 Y-3.107
X-16.433 Y-3.251
X-16.049 Y-3.383
X-15.677 Y-3.499
X-15.316 Y-3.598
X-14.966 Y-3.676
X-14.626 Y-3.731
X-14.293 Y-3.763
X-13.966 Y-3.769
X-13.641 Y-3.748
X-13.314 Y-3.698
X-12.969 Y-3.613
X-12.809 Y-3.562
X-12.635 Y-3.497
X-12.55 Y-3.461
X-12.458 Y-3.422 Z-0.603 F1016
X-12.285 Y-3.341 Z-0.61
X-11.901 Y-3.13 Z-0.625
X-11.509 Y-2.874 Z-0.64
X-11.098 Y-2.565 Z-0.658
X-10.67 Y-2.199 Z-0.677
X-10.217 Y-1.767 Z-0.698
G2 X-7.639 Y-0.254 Z-0.8 I4.217 J-4.233
X-1.775 Y-1.775 I1.639 J-5.746 F2540
X-1.766 Y-10.215 I-4.225 J-4.225
G1 X-2.16 Y-10.632
X-2.492 Y-11.028
X-2.773 Y-11.412
X-3.005 Y-11.785
X-3.193 Y-12.147
X-3.341 Y-12.5
X-3.451 Y-12.846
X-3.529 Y-13.189
X-3.576 Y-13.531
X-3.596 Y-13.877
X-3.59 Y-14.228
X-3.56 Y-14.587
X-3.507 Y-14.954
X-3.433 Y-15.332
X-3.341 Y-15.719
X-3.232 Y-16.117
X-3.11 Y-16.525
X-2.976 Y-16.944
X-2.834 Y-17.373
X-2.687 Y-17.812
Y-17.815
X-2.539 Y-18.261
X-2.536 Y-18.269
X-2.391 Y-18.721
X-2.387 Y-18.735
X-2.246 Y-19.194
X-2.241 Y-19.212
X-2.108 Y-19.679
X-2.102 Y-19.701
X-1.978 Y-20.177
X-1.972 Y-20.203
X-1.86 Y-20.687
X-1.854 Y-20.716
X-1.755 Y-21.211
X-1.749 Y-21.242
X-1.666 Y-21.747
X-1.661 Y-21.781
X-1.595 Y-22.295
X-1.591 Y-22.331
X-1.543 Y-22.857
X-1.541 Y-22.893
X-1.511 Y-23.43
X-1.51 Y-23.465
X-1.5 Y-24.014
Y-24.049
X-1.51 Y-24.597
X-1.511 Y-24.633
X-1.541 Y-25.17
X-1.543 Y-25.206
X-1.591 Y-25.732
X-1.595 Y-25.767
X-1.661 Y-26.282
X-1.666 Y-26.316
X-1.749 Y-26.82
X-1.755 Y-26.852
X-1.854 Y-27.346
X-1.86 Y-27.375
X-1.972 Y-27.86
X-1.978 Y-27.886
X-2.102 Y-28.361
X-2.108 Y-28.383
X-2.241 Y-28.851
X-2.246 Y-28.868
X-2.387 Y-29.328
X-2.391 Y-29.341
X-2.536 Y-29.794
X-2.539 Y-29.802
X-2.687 Y-30.248
Y-30.25
X-2.834 Y-30.689
X-2.976 Y-31.119
X-3.11 Y-31.537
X-3.232 Y-31.945
X-3.341 Y-32.343
X-3.433 Y-32.731
X-3.507 Y-33.108
X-3.56 Y-33.476
X-3.59 Y-33.835
X-3.596 Y-34.186
X-3.576 Y-34.531
X-3.529 Y-34.874
X-3.451 Y-35.217
X-3.341 Y-35.563
X-3.193 Y-35.916
X-3.005 Y-36.278
X-2.773 Y-36.65
X-2.492 Y-37.035
X-2.16 Y-37.431
X-1.766 Y-37.847
G2 X-1.775 Y-46.287 I-4.234 J-4.215
X-10.217 Y-46.296 I-4.225 J4.225
G1 X-10.67 Y-45.864
X-11.098 Y-45.498
X-11.509 Y-45.188
X-11.901 Y-44.932
X-12.285 Y-44.721
X-12.458 Y-44.64
X-12.635 Y-44.565
X-12.809 Y-44.501
X-12.969 Y-44.45
X-13.314 Y-44.364
X-13.641 Y-44.314
X-13.966 Y-44.293
X-14.293 Y-44.299
X-14.626 Y-44.331
X-14.966 Y-44.387
X-15.316 Y-44.465
X-15.677 Y-44.563
X-16.049 Y-44.68
X-16.433 Y-44.811
X-16.83 Y-44.956
X-17.24 Y-45.11
X-17.661 Y-45.269
X-17.666 Y-45.27
X-18.096 Y-45.43
X-18.107 Y-45.434
X-18.547 Y-45.592
X-18.564 Y-45.597
X-19.014 Y-45.75
X-19.036 Y-45.757
X-19.498 Y-45.901
X-19.524 Y-45.908
X-19.999 Y-46.042
X-20.029 Y-46.05
X-20.518 Y-46.171
X-20.551 Y-46.179
X-21.055 Y-46.285
X-21.091 Y-46.292
X-21.611 Y-46.382
X-21.648 Y-46.388
X-22.185 Y-46.459
X-22.222 Y-46.464
X-22.777 Y-46.516
X-22.814 Y-46.519
X-23.387 Y-46.55
X-23.423 Y-46.552
X-24.014 Y-46.562
X-24.049
X-24.639 Y-46.552
X-24.676 Y-46.55
X-25.248 Y-46.519
X-25.286 Y-46.516
X-25.84 Y-46.464
X-25.878 Y-46.459
X-26.415 Y-46.388
X-26.452 Y-46.382
X-26.972 Y-46.292
X-27.007 Y-46.285
X-27.512 Y-46.179
X-27.545 Y-46.171
X-28.034 Y-46.05
X-28.064 Y-46.042
X-28.539 Y-45.908
X-28.565 Y-45.901
X-29.027 Y-45.757
X-29.049 Y-45.75
X-29.499 Y-45.597
X-29.516 Y-45.592
X-29.955 Y-45.434
X-29.966 Y-45.43
X-30.397 Y-45.27
X-30.401 Y-45.269
X-30.822 Y-45.11
X-31.232 Y-44.956
X-31.629 Y-44.811
X-32.013 Y-44.68
X-32.385 Y-44.563
X-32.746 Y-44.465
X-33.096 Y-44.387
X-33.437 Y-44.331
X-33.769 Y-44.299
X-34.096 Y-44.293
X-34.422 Y-44.314
X-34.749 Y-44.364
X-35.093 Y-44.45
X-35.254 Y-44.501
X-35.428 Y-44.565
X-35.605 Y-44.64
X-35.777 Y-44.721
X-36.161 Y-44.932
X-36.554 Y-45.188
X-36.964 Y-45.498
X-37.392 Y-45.864
X-37.846 Y-46.296
G2 X-46.287 Y-46.287 I-4.217 J4.233
X-46.297 Y-37.847 I4.225 J4.225
G1 X-45.903 Y-37.431
X-45.571 Y-37.035
X-45.29 Y-36.65
X-45.057 Y-36.278
X-44.869 Y-35.916
X-44.722 Y-35.563
X-44.611 Y-35.217
X-44.534 Y-34.874
X-44.486 Y-34.531
X-44.466 Y-34.186
X-44.472 Y-33.835
X-44.502 Y-33.476
X-44.555 Y-33.108
X-44.629 Y-32.731
X-44.721 Y-32.343
X-44.83 Y-31.946
X-44.953 Y-31.537
X-45.087 Y-31.119
X-45.228 Y-30.689
X-45.375 Y-30.25
X-45.376 Y-30.248
X-45.524 Y-29.802
X-45.526 Y-29.794
X-45.672 Y-29.341
X-45.676 Y-29.328
X-45.816 Y-28.869
X-45.822 Y-28.851
X-45.955 Y-28.383
X-45.961 Y-28.361
X-46.084 Y-27.886
X-46.091 Y-27.86
X-46.203 Y-27.375
X-46.209 Y-27.346
X-46.307 Y-26.852
X-46.313 Y-26.82
X-46.396 Y-26.316
X-46.401 Y-26.282
X-46.467 Y-25.767
X-46.471 Y-25.732
X-46.519 Y-25.206
X-46.522 Y-25.17
X-46.551 Y-24.633
X-46.552 Y-24.597
X-46.562 Y-24.049
Y-24.014
X-46.552 Y-23.465
X-46.551 Y-23.43
X-46.522 Y-22.892
X-46.519 Y-22.857
X-46.471 Y-22.331
X-46.467 Y-22.296
X-46.401 Y-21.781
X-46.396 Y-21.747
X-46.313 Y-21.242
X-46.307 Y-21.211
X-46.209 Y-20.716
X-46.203 Y-20.687
X-46.091 Y-20.202
X-46.084 Y-20.177
X-45.961 Y-19.701
X-45.955 Y-19.679
X-45.822 Y-19.212
X-45.816 Y-19.194
X-45.676 Y-18.734
X-45.672 Y-18.721
X-45.526 Y-18.269
X-45.524 Y-18.261
X-45.376 Y-17.815
X-45.375 Y-17.812
X-45.228 Y-17.373
X-45.087 Y-16.944
X-44.953 Y-16.525
X-44.83 Y-16.117
X-44.721 Y-15.719
X-44.629 Y-15.332
X-44.555 Y-14.954
X-44.502 Y-14.587
X-44.472 Y-14.228
X-44.466 Y-13.877
X-44.486 Y-13.531
X-44.534 Y-13.189
X-44.611 Y-12.846
X-44.722 Y-12.5
X-44.869 Y-12.147
X-45.057 Y-11.785
X-45.29 Y-11.412
X-45.571 Y-11.028
X-45.903 Y-10.632
X-46.297 Y-10.216
G2 X-46.287 Y-1.775 I4.234 J4.215
X-37.846 Y-1.767 I4.225 J-4.225
G1 X-37.392 Y-2.199
X-36.964 Y-2.565
X-36.554 Y-2.874
X-36.161 Y-3.13
X-35.777 Y-3.341
X-35.605 Y-3.422
X-35.427 Y-3.497
X-35.254 Y-3.562
X-35.093 Y-3.613
X-34.749 Y-3.698
X-34.422 Y-3.748
X-34.096 Y-3.769
X-33.769 Y-3.763
X-33.437 Y-3.731
X-33.096 Y-3.676
X-32.746 Y-3.598
X-32.385 Y-3.499
X-32.013 Y-3.383
X-31.629 Y-3.251
X-31.232 Y-3.107
X-30.823 Y-2.953
X-30.401 Y-2.794
X-30.396 Y-2.792
X-29.966 Y-2.632
X-29.955 Y-2.628
X-29.515 Y-2.471
X-29.499 Y-2.465
X-29.049 Y-2.313
X-29.027 Y-2.306
X-28.565 Y-2.162
X-28.539 Y-2.154
X-28.064 Y-2.02
X-28.034 Y-2.012
X-27.545 Y-1.891
X-27.511 Y-1.883
X-27.007 Y-1.777
X-26.972 Y-1.77
X-26.452 Y-1.68
X-26.415 Y-1.675
X-25.878 Y-1.603
X-25.84 Y-1.599
X-25.286 Y-1.547
X-25.248 Y-1.544
X-24.676 Y-1.512
X-24.639 Y-1.511
X-24.049 Y-1.5
X-24.014
X-23.423 Y-1.511
X-23.387 Y-1.512
X-22.814 Y-1.544
X-22.777 Y-1.547
X-22.222 Y-1.599
X-22.185 Y-1.603
X-21.648 Y-1.675
X-21.611 Y-1.68
X-21.091 Y-1.77
X-21.055 Y-1.777
X-20.551 Y-1.883
X-20.518 Y-1.891
X-20.029 Y-2.012
X-19.999 Y-2.02
X-19.524 Y-2.154
X-19.498 Y-2.162
X-19.035 Y-2.306
X-19.014 Y-2.313
X-18.564 Y-2.465
X-18.547 Y-2.471
X-18.107 Y-2.628
X-18.096 Y-2.632
X-17.666 Y-2.792
X-17.661 Y-2.794
X-17.24 Y-2.953
X-16.83 Y-3.107
X-16.433 Y-3.251
X-16.049 Y-3.383
X-15.677 Y-3.499
X-15.316 Y-3.598
X-14.966 Y-3.676
X-14.626 Y-3.731
X-14.293 Y-3.763
X-13.966 Y-3.769
X-13.641 Y-3.748
X-13.314 Y-3.698
X-12.969 Y-3.613
X-12.809 Y-3.562
X-12.635 Y-3.497
X-12.458 Y-3.422
X-12.285 Y-3.341
X-11.901 Y-3.13
X-11.509 Y-2.874
X-11.098 Y-2.565
X-10.67 Y-2.199
X-10.217 Y-1.767
G2 X-7.639 Y-0.254 I4.217 J-4.233
X-2.091 Y-1.481 Z-1 I1.639 J-5.746 F1016
X-1.775 Y-1.775 I-3.909 J-4.519 F2540
X-1.766 Y-10.215 I-4.225 J-4.225
G1 X-2.16 Y-10.632
X-2.492 Y-11.028
X-2.773 Y-11.412
X-3.005 Y-11.785
X-3.193 Y-12.147
X-3.341 Y-12.5
X-3.451 Y-12.846
X-3.529 Y-13.189
X-3.576 Y-13.531
X-3.596 Y-13.877
X-3.59 Y-14.228
X-3.56 Y-14.587
X-3.507 Y-14.954
X-3.433 Y-15.332
X-3.341 Y-15.719
X-3.232 Y-16.117
X-3.11 Y-16.525
X-2.976 Y-16.944
X-2.834 Y-17.373
X-2.687 Y-17.812
Y-17.815
X-2.539 Y-18.261
X-2.536 Y-18.269
X-2.391 Y-18.721
X-2.387 Y-18.735
X-2.246 Y-19.194
X-2.241 Y-19.212
X-2.108 Y-19.679
X-2.102 Y-19.701
X-1.978 Y-20.177
X-1.972 Y-20.203
X-1.86 Y-20.687
X-1.854 Y-20.716
X-1.755 Y-21.211
X-1.749 Y-21.242
X-1.666 Y-21.747
X-1.661 Y-21.781
X-1.595 Y-22.295
X-1.591 Y-22.331
X-1.543 Y-22.857
X-1.541 Y-22.893
X-1.511 Y-23.43
X-1.51 Y-23.465
X-1.5 Y-24.014
Y-24.049
X-1.51 Y-24.597
X-1.511 Y-24.633
X-1.541 Y-25.17
X-1.543 Y-25.206
X-1.591 Y-25.732
X-1.595 Y-25.767
X-1.661 Y-26.282
X-1.666 Y-26.316
X-1.749 Y-26.82
X-1.755 Y-26.852
X-1.854 Y-27.346
X-1.86 Y-27.375
X-1.972 Y-27.86
X-1.978 Y-27.886
X-2.102 Y-28.361
X-2.108 Y-28.383
X-2.241 Y-28.851
X-2.246 Y-28.868
X-2.387 Y-29.328
X-2.391 Y-29.341
X-2.536 Y-29.794
X-2.539 Y-29.802
X-2.687 Y-30.248
Y-30.25
X-2.834 Y-30.689
X-2.976 Y-31.119
X-3.11 Y-31.537
X-3.232 Y-31.945
X-3.341 Y-32.343
X-3.433 Y-32.731
X-3.507 Y-33.108
X-3.56 Y-33.476
X-3.59 Y-33.835
X-3.596 Y-34.186
X-3.576 Y-34.531
X-3.529 Y-34.874
X-3.451 Y-35.217
X-3.341 Y-35.563
X-3.193 Y-35.916
X-3.005 Y-36.278
X-2.773 Y-36.65
X-2.492 Y-37.035
X-2.16 Y-37.431
X-1.766 Y-37.847
G2 X-1.775 Y-46.287 I-4.234 J-4.215
X-10.217 Y-46.296 I-4.225 J4.225
G1 X-10.67 Y-45.864
X-11.098 Y-45.498
X-11.509 Y-45.188
X-11.901 Y-44.932
X-12.285 Y-44.721
X-12.458 Y-44.64
X-12.635 Y-44.565
X-12.809 Y-44.501
X-12.969 Y-44.45
X-13.314 Y-44.364
X-13.641 Y-44.314
X-13.966 Y-44.293
X-14.293 Y-44.299
X-14.626 Y-44.331
X-14.966 Y-44.387
X-15.316 Y-44.465
X-15.677 Y-44.563
X-16.049 Y-44.68
X-16.433 Y-44.811
X-16.83 Y-44.956
X-17.24 Y-45.11
X-17.661 Y-45.269
X-17.666 Y-45.27
X-18.096 Y-45.43
X-18.107 Y-45.434
X-18.547 Y-45.592
X-18.564 Y-45.597
X-19.014 Y-45.75
X-19.036 Y-45.757
X-19.498 Y-45.901
X-19.524 Y-45.908
X-19.999 Y-46.042
X-20.029 Y-46.05
X-20.518 Y-46.171
X-20.551 Y-46.179
X-21.055 Y-46.285
X-21.091 Y-46.292
X-21.611 Y-46.382
X-21.648 Y-46.388
X-22.185 Y-46.459
X-22.222 Y-46.464
X-22.777 Y-46.516
X-22.814 Y-46.519
X-23.387 Y-46.55
X-23.423 Y-46.552
X-24.014 Y-46.562
X-24.049
X-24.639 Y-46.552
X-24.676 Y-46.55
X-25.248 Y-46.519
X-25.286 Y-46.516
X-25.84 Y-46.464
X-25.878 Y-46.459
X-26.415 Y-46.388
X-26.452 Y-46.382
X-26.972 Y-46.292
X-27.007 Y-46.285
X-27.512 Y-46.179
X-27.545 Y-46.171
X-28.034 Y-46.05
X-28.064 Y-46.042
X-28.539 Y-45.908
X-28.565 Y-45.901
X-29.027 Y-45.757
X-29.049 Y-45.75
X-29.499 Y-45.597
X-29.516 Y-45.592
X-29.955 Y-45.434
X-29.966 Y-45.43
X-30.397 Y-45.27
X-30.401 Y-45.269
X-30.822 Y-45.11
X-31.232 Y-44.956
X-31.629 Y-44.811
X-32.013 Y-44.68
X-32.385 Y-44.563
X-32.746 Y-44.465
X-33.096 Y-44.387
X-33.437 Y-44.331
X-33.769 Y-44.299
X-34.096 Y-44.293
X-34.422 Y-44.314
X-34.749 Y-44.364
X-35.093 Y-44.45
X-35.254 Y-44.501
X-35.428 Y-44.565
X-35.605 Y-44.64
X-35.777 Y-44.721
X-36.161 Y-44.932
X-36.554 Y-45.188
X-36.964 Y-45.498
X-37.392 Y-45.864
X-37.846 Y-46.296
G2 X-46.287 Y-46.287 I-4.217 J4.233
X-46.297 Y-37.847 I4.225 J4.225
G1 X-45.903 Y-37.431
X-45.571 Y-37.035
X-45.29 Y-36.65
X-45.057 Y-36.278
X-44.869 Y-35.916
X-44.722 Y-35.563
X-44.611 Y-35.217
X-44.534 Y-34.874
X-44.486 Y-34.531
X-44.466 Y-34.186
X-44.472 Y-33.835
X-44.502 Y-33.476
X-44.555 Y-33.108
X-44.629 Y-32.731
X-44.721 Y-32.343
X-44.83 Y-31.946
X-44.953 Y-31.537
X-45.087 Y-31.119
X-45.228 Y-30.689
X-45.375 Y-30.25
X-45.376 Y-30.248
X-45.524 Y-29.802
X-45.526 Y-29.794
X-45.672 Y-29.341
X-45.676 Y-29.328
X-45.816 Y-28.869
X-45.822 Y-28.851
X-45.955 Y-28.383
X-45.961 Y-28.361
X-46.084 Y-27.886
X-46.091 Y-27.86
X-46.203 Y-27.375
X-46.209 Y-27.346
X-46.307 Y-26.852
X-46.313 Y-26.82
X-46.396 Y-26.316
X-46.401 Y-26.282
X-46.467 Y-25.767
X-46.471 Y-25.732
X-46.519 Y-25.206
X-46.522 Y-25.17
X-46.551 Y-24.633
X-46.552 Y-24.597
X-46.562 Y-24.049
Y-24.014
X-46.552 Y-23.465
X-46.551 Y-23.43
X-46.522 Y-22.892
X-46.519 Y-22.857
X-46.471 Y-22.331
X-46.467 Y-22.296
X-46.401 Y-21.781
X-46.396 Y-21.747
X-46.313 Y-21.242
X-46.307 Y-21.211
X-46.209 Y-20.716
X-46.203 Y-20.687
X-46.091 Y-20.202
X-46.084 Y-20.177
X-45.961 Y-19.701
X-45.955 Y-19.679
X-45.822 Y-19.212
X-45.816 Y-19.194
X-45.676 Y-18.734
X-45.672 Y-18.721
X-45.526 Y-18.269
X-45.524 Y-18.261
X-45.376 Y-17.815
X-45.375 Y-17.812
X-45.228 Y-17.373
X-45.087 Y-16.944
X-44.953 Y-16.525
X-44.83 Y-16.117
X-44.721 Y-15.719
X-44.629 Y-15.332
X-44.555 Y-14.954
X-44.502 Y-14.587
X-44.472 Y-14.228
X-44.466 Y-13.877
X-44.486 Y-13.531
X-44.534 Y-13.189
X-44.611 Y-12.846
X-44.722 Y-12.5
X-44.869 Y-12.147
X-45.057 Y-11.785
X-45.29 Y-11.412
X-45.571 Y-11.028
X-45.903 Y-10.632
X-46.297 Y-10.216
G2 X-46.287 Y-1.775 I4.234 J4.215
X-37.846 Y-1.767 I4.225 J-4.225
G1 X-37.392 Y-2.199
X-36.964 Y-2.565
X-36.554 Y-2.874
X-36.161 Y-3.13
X-35.777 Y-3.341
X-35.605 Y-3.422
X-35.427 Y-3.497
X-35.254 Y-3.562
X-35.093 Y-3.613
X-34.749 Y-3.698
X-34.422 Y-3.748
X-34.096 Y-3.769
X-33.769 Y-3.763
X-33.437 Y-3.731
X-33.096 Y-3.676
X-32.746 Y-3.598
X-32.385 Y-3.499
X-32.013 Y-3.383
X-31.629 Y-3.251
X-31.232 Y-3.107
X-30.823 Y-2.953
X-30.401 Y-2.794
X-30.396 Y-2.792
X-29.966 Y-2.632
X-29.955 Y-2.628
X-29.515 Y-2.471
X-29.499 Y-2.465
X-29.049 Y-2.313
X-29.027 Y-2.306
X-28.565 Y-2.162
X-28.539 Y-2.154
X-28.064 Y-2.02
X-28.034 Y-2.012
X-27.545 Y-1.891
X-27.511 Y-1.883
X-27.007 Y-1.777
X-26.972 Y-1.77
X-26.452 Y-1.68
X-26.415 Y-1.675
X-25.878 Y-1.603
X-25.84 Y-1.599
X-25.286 Y-1.547
X-25.248 Y-1.544
X-24.676 Y-1.512
X-24.639 Y-1.511
X-24.049 Y-1.5
X-24.014
X-23.423 Y-1.511
X-23.387 Y-1.512
X-22.814 Y-1.544
X-22.777 Y-1.547
X-22.222 Y-1.599
X-22.185 Y-1.603
X-21.648 Y-1.675
X-21.611 Y-1.68
X-21.091 Y-1.77
X-21.055 Y-1.777
X-20.551 Y-1.883
X-20.518 Y-1.891
X-20.029 Y-2.012
X-19.999 Y-2.02
X-19.524 Y-2.154
X-19.498 Y-2.162
X-19.035 Y-2.306
X-19.014 Y-2.313
X-18.564 Y-2.465
X-18.547 Y-2.471
X-18.107 Y-2.628
X-18.096 Y-2.632
X-17.666 Y-2.792
X-17.661 Y-2.794
X-17.24 Y-2.953
X-16.83 Y-3.107
X-16.433 Y-3.251
X-16.049 Y-3.383
X-15.677 Y-3.499
X-15.316 Y-3.598
X-14.966 Y-3.676
X-14.626 Y-3.731
X-14.293 Y-3.763
X-13.966 Y-3.769
X-13.641 Y-3.748
X-13.314 Y-3.698
X-12.969 Y-3.613
X-12.809 Y-3.562
X-12.635 Y-3.497
X-12.458 Y-3.422
X-12.285 Y-3.341
X-11.901 Y-3.13
X-11.509 Y-2.874
X-11.098 Y-2.565
X-10.67 Y-2.199
X-10.217 Y-1.767
G2 X-2.091 Y-1.481 I4.217 J-4.233
X-1.775 Y-1.775 Z-1.015 I-3.909 J-4.519 F1016
X-0.078 Y-6.795 Z-1.2 I-4.225 J-4.225
X-1.766 Y-10.215 I-5.922 J0.795 F2540
G1 X-2.16 Y-10.632
X-2.492 Y-11.028
X-2.773 Y-11.412
X-3.005 Y-11.785
X-3.193 Y-12.147
X-3.341 Y-12.5
X-3.451 Y-12.846
X-3.529 Y-13.189
X-3.576 Y-13.531
X-3.596 Y-13.877
X-3.59 Y-14.228
X-3.56 Y-14.587
X-3.507 Y-14.954
X-3.433 Y-15.332
X-3.341 Y-15.719
X-3.232 Y-16.117
X-3.11 Y-16.525
X-2.976 Y-16.944
X-2.834 Y-17.373
X-2.687 Y-17.812
Y-17.815
X-2.539 Y-18.261
X-2.536 Y-18.269
X-2.391 Y-18.721
X-2.387 Y-18.735
X-2.246 Y-19.194
X-2.241 Y-19.212
X-2.108 Y-19.679
X-2.102 Y-19.701
X-1.978 Y-20.177
X-1.972 Y-20.203
X-1.86 Y-20.687
X-1.854 Y-20.716
X-1.755 Y-21.211
X-1.749 Y-21.242
X-1.666 Y-21.747
X-1.661 Y-21.781
X-1.595 Y-22.295
X-1.591 Y-22.331
X-1.543 Y-22.857
X-1.541 Y-22.893
X-1.511 Y-23.43
X-1.51 Y-23.465
X-1.5 Y-24.014
Y-24.049
X-1.51 Y-24.597
X-1.511 Y-24.633
X-1.541 Y-25.17
X-1.543 Y-25.206
X-1.591 Y-25.732
X-1.595 Y-25.767
X-1.661 Y-26.282
X-1.666 Y-26.316
X-1.749 Y-26.82
X-1.755 Y-26.852
X-1.854 Y-27.346
X-1.86 Y-27.375
X-1.972 Y-27.86
X-1.978 Y-27.886
X-2.102 Y-28.361
X-2.108 Y-28.383
X-2.241 Y-28.851
X-2.246 Y-28.868
X-2.387 Y-29.328
X-2.391 Y-29.341
X-2.536 Y-29.794
X-2.539 Y-29.802
X-2.687 Y-30.248
Y-30.25
X-2.834 Y-30.689
X-2.976 Y-31.119
X-3.11 Y-31.537
X-3.232 Y-31.945
X-3.341 Y-32.343
X-3.433 Y-32.731
X-3.507 Y-33.108
X-3.56 Y-33.476
X-3.59 Y-33.835
X-3.596 Y-34.186
X-3.576 Y-34.531
X-3.529 Y-34.874
X-3.451 Y-35.217
X-3.341 Y-35.563
X-3.193 Y-35.916
X-3.005 Y-36.278
X-2.773 Y-36.65
X-2.492 Y-37.035
X-2.16 Y-37.431
X-1.766 Y-37.847
G2 X-1.775 Y-46.287 I-4.234 J-4.215
X-10.217 Y-46.296 I-4.225 J4.225
G1 X-10.67 Y-45.864
X-11.098 Y-45.498
X-11.509 Y-45.188
X-11.901 Y-44.932
X-12.285 Y-44.721
X-12.458 Y-44.64
X-12.635 Y-44.565
X-12.809 Y-44.501
X-12.969 Y-44.45
X-13.314 Y-44.364
X-13.641 Y-44.314
X-13.966 Y-44.293
X-14.293 Y-44.299
X-14.626 Y-44.331
X-14.966 Y-44.387
X-15.316 Y-44.465
X-15.677 Y-44.563
X-16.049 Y-44.68
X-16.433 Y-44.811
X-16.83 Y-44.956
X-17.24 Y-45.11
X-17.661 Y-45.269
X-17.666 Y-45.27
X-18.096 Y-45.43
X-18.107 Y-45.434
X-18.547 Y-45.592
X-18.564 Y-45.597
X-19.014 Y-45.75
X-19.036 Y-45.757
X-19.498 Y-45.901
X-19.524 Y-45.908
X-19.999 Y-46.042
X-20.029 Y-46.05
X-20.518 Y-46.171
X-20.551 Y-46.179
X-21.055 Y-46.285
X-21.091 Y-46.292
X-21.611 Y-46.382
X-21.648 Y-46.388
X-22.185 Y-46.459
X-22.222 Y-46.464
X-22.777 Y-46.516
X-22.814 Y-46.519
X-23.387 Y-46.55
X-23.423 Y-46.552
X-24.014 Y-46.562
X-24.049
X-24.639 Y-46.552
X-24.676 Y-46.55
X-25.248 Y-46.519
X-25.286 Y-46.516
X-25.84 Y-46.464
X-25.878 Y-46.459
X-26.415 Y-46.388
X-26.452 Y-46.382
X-26.972 Y-46.292
X-27.007 Y-46.285
X-27.512 Y-46.179
X-27.545 Y-46.171
X-28.034 Y-46.05
X-28.064 Y-46.042
X-28.539 Y-45.908
X-28.565 Y-45.901
X-29.027 Y-45.757
X-29.049 Y-45.75
X-29.499 Y-45.597
X-29.516 Y-45.592
X-29.955 Y-45.434
X-29.966 Y-45.43
X-30.397 Y-45.27
X-30.401 Y-45.269
X-30.822 Y-45.11
X-31.232 Y-44.956
X-31.629 Y-44.811
X-32.013 Y-44.68
X-32.385 Y-44.563
X-32.746 Y-44.465
X-33.096 Y-44.387
X-33.437 Y-44.331
X-33.769 Y-44.299
X-34.096 Y-44.293
X-34.422 Y-44.314
X-34.749 Y-44.364
X-35.093 Y-44.45
X-35.254 Y-44.501
X-35.428 Y-44.565
X-35.605 Y-44.64
X-35.777 Y-44.721
X-36.161 Y-44.932
X-36.554 Y-45.188
X-36.964 Y-45.498
X-37.392 Y-45.864
X-37.846 Y-46.296
G2 X-46.287 Y-46.287 I-4.217 J4.233
X-46.297 Y-37.847 I4.225 J4.225
G1 X-45.903 Y-37.431
X-45.571 Y-37.035
X-45.29 Y-36.65
X-45.057 Y-36.278
X-44.869 Y-35.916
X-44.722 Y-35.563
X-44.611 Y-35.217
X-44.534 Y-34.874
X-44.486 Y-34.531
X-44.466 Y-34.186
X-44.472 Y-33.835
X-44.502 Y-33.476
X-44.555 Y-33.108
X-44.629 Y-32.731
X-44.721 Y-32.343
X-44.83 Y-31.946
X-44.953 Y-31.537
X-45.087 Y-31.119
X-45.228 Y-30.689
X-45.375 Y-30.25
X-45.376 Y-30.248
X-45.524 Y-29.802
X-45.526 Y-29.794
X-45.672 Y-29.341
X-45.676 Y-29.328
X-45.816 Y-28.869
X-45.822 Y-28.851
X-45.955 Y-28.383
X-45.961 Y-28.361
X-46.084 Y-27.886
X-46.091 Y-27.86
X-46.203 Y-27.375
X-46.209 Y-27.346
X-46.307 Y-26.852
X-46.313 Y-26.82
X-46.396 Y-26.316
X-46.401 Y-26.282
X-46.467 Y-25.767
X-46.471 Y-25.732
X-46.519 Y-25.206
X-46.522 Y-25.17
X-46.551 Y-24.633
X-46.552 Y-24.597
X-46.562 Y-24.049
Y-24.014
X-46.552 Y-23.465
X-46.551 Y-23.43
X-46.522 Y-22.892
X-46.519 Y-22.857
X-46.471 Y-22.331
X-46.467 Y-22.296
X-46.401 Y-21.781
X-46.396 Y-21.747
X-46.313 Y-21.242
X-46.307 Y-21.211
X-46.209 Y-20.716
X-46.203 Y-20.687
X-46.091 Y-20.202
X-46.084 Y-20.177
X-45.961 Y-19.701
X-45.955 Y-19.679
X-45.822 Y-19.212
X-45.816 Y-19.194
X-45.676 Y-18.734
X-45.672 Y-18.721
X-45.526 Y-18.269
X-45.524 Y-18.261
X-45.376 Y-17.815
X-45.375 Y-17.812
X-45.228 Y-17.373
X-45.087 Y-16.944
X-44.953 Y-16.525
X-44.83 Y-16.117
X-44.721 Y-15.719
X-44.629 Y-15.332
X-44.555 Y-14.954
X-44.502 Y-14.587
X-44.472 Y-14.228
X-44.466 Y-13.877
X-44.486 Y-13.531
X-44.534 Y-13.189
X-44.611 Y-12.846
X-44.722 Y-12.5
X-44.869 Y-12.147
X-45.057 Y-11.785
X-45.29 Y-11.412
X-45.571 Y-11.028
X-45.903 Y-10.632
X-46.297 Y-10.216
G2 X-46.287 Y-1.775 I4.234 J4.215
X-37.846 Y-1.767 I4.225 J-4.225
G1 X-37.392 Y-2.199
X-36.964 Y-2.565
X-36.554 Y-2.874
X-36.161 Y-3.13
X-35.777 Y-3.341
X-35.605 Y-3.422
X-35.427 Y-3.497
X-35.254 Y-3.562
X-35.093 Y-3.613
X-34.749 Y-3.698
X-34.422 Y-3.748
X-34.096 Y-3.769
X-33.769 Y-3.763
X-33.437 Y-3.731
X-33.096 Y-3.676
X-32.746 Y-3.598
X-32.385 Y-3.499
X-32.013 Y-3.383
X-31.629 Y-3.251
X-31.232 Y-3.107
X-30.823 Y-2.953
X-30.401 Y-2.794
X-30.396 Y-2.792
X-29.966 Y-2.632
X-29.955 Y-2.628
X-29.515 Y-2.471
X-29.499 Y-2.465
X-29.049 Y-2.313
X-29.027 Y-2.306
X-28.565 Y-2.162
X-28.539 Y-2.154
X-28.064 Y-2.02
X-28.034 Y-2.012
X-27.545 Y-1.891
X-27.511 Y-1.883
X-27.007 Y-1.777
X-26.972 Y-1.77
X-26.452 Y-1.68
X-26.415 Y-1.675
X-25.878 Y-1.603
X-25.84 Y-1.599
X-25.286 Y-1.547
X-25.248 Y-1.544
X-24.676 Y-1.512
X-24.639 Y-1.511
X-24.049 Y-1.5
X-24.014
X-23.423 Y-1.511
X-23.387 Y-1.512
X-22.814 Y-1.544
X-22.777 Y-1.547
X-22.222 Y-1.599
X-22.185 Y-1.603
X-21.648 Y-1.675
X-21.611 Y-1.68
X-21.091 Y-1.77
X-21.055 Y-1.777
X-20.551 Y-1.883
X-20.518 Y-1.891
X-20.029 Y-2.012
X-19.999 Y-2.02
X-19.524 Y-2.154
X-19.498 Y-2.162
X-19.035 Y-2.306
X-19.014 Y-2.313
X-18.564 Y-2.465
X-18.547 Y-2.471
X-18.107 Y-2.628
X-18.096 Y-2.632
X-17.666 Y-2.792
X-17.661 Y-2.794
X-17.24 Y-2.953
X-16.83 Y-3.107
X-16.433 Y-3.251
X-16.049 Y-3.383
X-15.677 Y-3.499
X-15.316 Y-3.598
X-14.966 Y-3.676
X-14.626 Y-3.731
X-14.293 Y-3.763
X-13.966 Y-3.769
X-13.641 Y-3.748
X-13.314 Y-3.698
X-12.969 Y-3.613
X-12.809 Y-3.562
X-12.635 Y-3.497
X-12.458 Y-3.422
X-12.285 Y-3.341
X-11.901 Y-3.13
X-11.509 Y-2.874
X-11.098 Y-2.565
X-10.67 Y-2.199
X-10.217 Y-1.767
G2 X-1.775 Y-1.775 I4.217 J-4.233
X-0.078 Y-6.795 I-4.225 J-4.225
X-1.766 Y-10.215 Z-1.331 I-5.922 J0.795 F1016
G1 X-2.16 Y-10.632 Z-1.35
X-2.492 Y-11.028 Z-1.368
X-2.773 Y-11.412 Z-1.384
X-3.005 Y-11.785 Z-1.399
X-3.021 Y-11.816 Z-1.4
X-3.193 Y-12.147 F2540
X-3.341 Y-12.5
X-3.451 Y-12.846
X-3.529 Y-13.189
X-3.576 Y-13.531
X-3.596 Y-13.877
X-3.59 Y-14.228
X-3.56 Y-14.587
X-3.507 Y-14.954
X-3.433 Y-15.332
X-3.341 Y-15.719
X-3.232 Y-16.117
X-3.11 Y-16.525
X-2.976 Y-16.944
X-2.834 Y-17.373
X-2.687 Y-17.812
Y-17.815
X-2.539 Y-18.261
X-2.536 Y-18.269
X-2.391 Y-18.721
X-2.387 Y-18.735
X-2.246 Y-19.194
X-2.241 Y-19.212
X-2.108 Y-19.679
X-2.102 Y-19.701
X-1.978 Y-20.177
X-1.972 Y-20.203
X-1.86 Y-20.687
X-1.854 Y-20.716
X-1.755 Y-21.211
X-1.749 Y-21.242
X-1.666 Y-21.747
X-1.661 Y-21.781
X-1.66 Y-21.791
Z-1.2
X-1.595 Y-22.295
X-1.591 Y-22.331
X-1.543 Y-22.857
X-1.541 Y-22.893
X-1.511 Y-23.43
X-1.51 Y-23.465
X-1.5 Y-24.014
Y-24.049
X-1.51 Y-24.597
X-1.511 Y-24.633
X-1.541 Y-25.17
X-1.543 Y-25.206
X-1.591 Y-25.732
X-1.595 Y-25.767
X-1.656 Y-26.242
Z-1.4 F508
X-1.661 Y-26.282 F2540
X-1.666 Y-26.316
X-1.749 Y-26.82
X-1.755 Y-26.852
X-1.854 Y-27.346
X-1.86 Y-27.375
X-1.972 Y-27.86
X-1.978 Y-27.886
X-2.102 Y-28.361
X-2.108 Y-28.383
X-2.241 Y-28.851
X-2.246 Y-28.868
X-2.387 Y-29.328
X-2.391 Y-29.341
X-2.536 Y-29.794
X-2.539 Y-29.802
X-2.687 Y-30.248
Y-30.25
X-2.834 Y-30.689
X-2.976 Y-31.119
X-3.11 Y-31.537
X-3.232 Y-31.945
X-3.341 Y-32.343
X-3.433 Y-32.731
X-3.507 Y-33.108
X-3.56 Y-33.476
X-3.59 Y-33.835
X-3.596 Y-34.186
X-3.576 Y-34.531
X-3.529 Y-34.874
X-3.451 Y-35.217
X-3.341 Y-35.563
X-3.193 Y-35.916
X-3.005 Y-36.278
X-2.773 Y-36.65
X-2.492 Y-37.035
X-2.16 Y-37.431
X-1.766 Y-37.847
G2 X-1.775 Y-46.287 I-4.234 J-4.215
X-10.217 Y-46.296 I-4.225 J4.225
G1 X-10.67 Y-45.864
X-11.098 Y-45.498
X-11.509 Y-45.188
X-11.901 Y-44.932
X-12.285 Y-44.721
X-12.458 Y-44.64
X-12.635 Y-44.565
X-12.809 Y-44.501
X-12.969 Y-44.45
X-13.314 Y-44.364
X-13.641 Y-44.314
X-13.966 Y-44.293
X-14.293 Y-44.299
X-14.626 Y-44.331
X-14.966 Y-44.387
X-15.316 Y-44.465
X-15.677 Y-44.563
X-16.049 Y-44.68
X-16.433 Y-44.811
X-16.83 Y-44.956
X-17.24 Y-45.11
X-17.661 Y-45.269
X-17.666 Y-45.27
X-18.096 Y-45.43
X-18.107 Y-45.434
X-18.547 Y-45.592
X-18.564 Y-45.597
X-19.014 Y-45.75
X-19.036 Y-45.757
X-19.498 Y-45.901
X-19.524 Y-45.908
X-19.999 Y-46.042
X-20.029 Y-46.05
X-20.518 Y-46.171
X-20.551 Y-46.179
X-21.055 Y-46.285
X-21.091 Y-46.292
X-21.611 Y-46.382
X-21.648 Y-46.388
X-22.185 Y-46.459
X-22.222 Y-46.464
X-22.777 Y-46.516
X-22.814 Y-46.519
X-23.387 Y-46.55
X-23.423 Y-46.552
X-24.014 Y-46.562
X-24.049
X-24.639 Y-46.552
X-24.676 Y-46.55
X-25.248 Y-46.519
X-25.286 Y-46.516
X-25.84 Y-46.464
X-25.878 Y-46.459
X-26.415 Y-46.388
X-26.452 Y-46.382
X-26.972 Y-46.292
X-27.007 Y-46.285
X-27.512 Y-46.179
X-27.545 Y-46.171
X-28.034 Y-46.05
X-28.064 Y-46.042
X-28.539 Y-45.908
X-28.565 Y-45.901
X-29.027 Y-45.757
X-29.049 Y-45.75
X-29.499 Y-45.597
X-29.516 Y-45.592
X-29.955 Y-45.434
X-29.966 Y-45.43
X-30.397 Y-45.27
X-30.401 Y-45.269
X-30.822 Y-45.11
X-31.232 Y-44.956
X-31.629 Y-44.811
X-32.013 Y-44.68
X-32.385 Y-44.563
X-32.746 Y-44.465
X-33.096 Y-44.387
X-33.437 Y-44.331
X-33.769 Y-44.299
X-34.096 Y-44.293
X-34.422 Y-44.314
X-34.749 Y-44.364
X-35.093 Y-44.45
X-35.254 Y-44.501
X-35.428 Y-44.565
X-35.605 Y-44.64
X-35.777 Y-44.721
X-36.161 Y-44.932
X-36.554 Y-45.188
X-36.964 Y-45.498
X-37.392 Y-45.864
X-37.846 Y-46.296
G2 X-46.287 Y-46.287 I-4.217 J4.233
X-46.297 Y-37.847 I4.225 J4.225
G1 X-45.903 Y-37.431
X-45.571 Y-37.035
X-45.29 Y-36.65
X-45.057 Y-36.278
X-44.869 Y-35.916
X-44.722 Y-35.563
X-44.611 Y-35.217
X-44.534 Y-34.874
X-44.486 Y-34.531
X-44.466 Y-34.186
X-44.472 Y-33.835
X-44.502 Y-33.476
X-44.555 Y-33.108
X-44.629 Y-32.731
X-44.721 Y-32.343
X-44.83 Y-31.946
X-44.953 Y-31.537
X-45.087 Y-31.119
X-45.228 Y-30.689
X-45.375 Y-30.25
X-45.376 Y-30.248
X-45.524 Y-29.802
X-45.526 Y-29.794
X-45.672 Y-29.341
X-45.676 Y-29.328
X-45.816 Y-28.869
X-45.822 Y-28.851
X-45.955 Y-28.383
X-45.961 Y-28.361
X-46.084 Y-27.886
X-46.091 Y-27.86
X-46.203 Y-27.375
X-46.209 Y-27.346
X-46.307 Y-26.852
X-46.313 Y-26.82
X-46.396 Y-26.316
X-46.401 Y-26.282
X-46.402 Y-26.271
Z-1.2
X-46.467 Y-25.767
X-46.471 Y-25.732
X-46.519 Y-25.206
X-46.522 Y-25.17
X-46.551 Y-24.633
X-46.552 Y-24.597
X-46.562 Y-24.049
Y-24.014
X-46.552 Y-23.465
X-46.551 Y-23.43
X-46.522 Y-22.892
X-46.519 Y-22.857
X-46.471 Y-22.331
X-46.467 Y-22.296
X-46.406 Y-21.821
Z-1.4 F508
X-46.401 Y-21.781 F2540
X-46.396 Y-21.747
X-46.313 Y-21.242
X-46.307 Y-21.211
X-46.209 Y-20.716
X-46.203 Y-20.687
X-46.091 Y-20.202
X-46.084 Y-20.177
X-45.961 Y-19.701
X-45.955 Y-19.679
X-45.822 Y-19.212
X-45.816 Y-19.194
X-45.676 Y-18.734
X-45.672 Y-18.721
X-45.526 Y-18.269
X-45.524 Y-18.261
X-45.376 Y-17.815
X-45.375 Y-17.812
X-45.228 Y-17.373
X-45.087 Y-16.944
X-44.953 Y-16.525
X-44.83 Y-16.117
X-44.721 Y-15.719
X-44.629 Y-15.332
X-44.555 Y-14.954
X-44.502 Y-14.587
X-44.472 Y-14.228
X-44.466 Y-13.877
X-44.486 Y-13.531
X-44.534 Y-13.189
X-44.611 Y-12.846
X-44.722 Y-12.5
X-44.869 Y-12.147
X-45.057 Y-11.785
X-45.29 Y-11.412
X-45.571 Y-11.028
X-45.903 Y-10.632
X-46.297 Y-10.216
G2 X-46.287 Y-1.775 I4.234 J4.215
X-37.846 Y-1.767 I4.225 J-4.225
G1 X-37.392 Y-2.199
X-36.964 Y-2.565
X-36.554 Y-2.874
X-36.161 Y-3.13
X-35.777 Y-3.341
X-35.605 Y-3.422
X-35.427 Y-3.497
X-35.254 Y-3.562
X-35.093 Y-3.613
X-34.749 Y-3.698
X-34.422 Y-3.748
X-34.096 Y-3.769
X-33.769 Y-3.763
X-33.437 Y-3.731
X-33.096 Y-3.676
X-32.746 Y-3.598
X-32.385 Y-3.499
X-32.013 Y-3.383
X-31.629 Y-3.251
X-31.232 Y-3.107
X-30.823 Y-2.953
X-30.401 Y-2.794
X-30.396 Y-2.792
X-29.966 Y-2.632
X-29.955 Y-2.628
X-29.515 Y-2.471
X-29.499 Y-2.465
X-29.049 Y-2.313
X-29.027 Y-2.306
X-28.565 Y-2.162
X-28.539 Y-2.154
X-28.064 Y-2.02
X-28.034 Y-2.012
X-27.545 Y-1.891
X-27.511 Y-1.883
X-27.007 Y-1.777
X-26.972 Y-1.77
X-26.452 Y-1.68
X-26.415 Y-1.675
X-26.242 Y-1.652
Z-1.2
X-25.878 Y-1.603
X-25.84 Y-1.599
X-25.286 Y-1.547
X-25.248 Y-1.544
X-24.676 Y-1.512
X-24.639 Y-1.511
X-24.049 Y-1.5
X-24.014
X-23.423 Y-1.511
X-23.387 Y-1.512
X-22.814 Y-1.544
X-22.777 Y-1.547
X-22.222 Y-1.599
X-22.185 Y-1.603
X-21.791 Y-1.656
Z-1.4 F508
X-21.648 Y-1.675 F2540
X-21.611 Y-1.68
X-21.091 Y-1.77
X-21.055 Y-1.777
X-20.551 Y-1.883
X-20.518 Y-1.891
X-20.029 Y-2.012
X-19.999 Y-2.02
X-19.524 Y-2.154
X-19.498 Y-2.162
X-19.035 Y-2.306
X-19.014 Y-2.313
X-18.564 Y-2.465
X-18.547 Y-2.471
X-18.107 Y-2.628
X-18.096 Y-2.632
X-17.666 Y-2.792
X-17.661 Y-2.794
X-17.24 Y-2.953
X-16.83 Y-3.107
X-16.433 Y-3.251
X-16.049 Y-3.383
X-15.677 Y-3.499
X-15.316 Y-3.598
X-14.966 Y-3.676
X-14.626 Y-3.731
X-14.293 Y-3.763
X-13.966 Y-3.769
X-13.641 Y-3.748
X-13.314 Y-3.698
X-12.969 Y-3.613
X-12.809 Y-3.562
X-12.635 Y-3.497
X-12.458 Y-3.422
X-12.285 Y-3.341
X-11.901 Y-3.13
X-11.509 Y-2.874
X-11.098 Y-2.565
X-10.67 Y-2.199
X-10.217 Y-1.767
G2 X-1.775 Y-1.775 I4.217 J-4.233
X-1.766 Y-10.215 I-4.225 J-4.225
G1 X-2.16 Y-10.632
X-2.492 Y-11.028
X-2.773 Y-11.412
X-3.005 Y-11.785
X-3.021 Y-11.816
X-3.193 Y-12.147 Z-1.413 F1016
X-3.341 Y-12.5 Z-1.426
X-3.451 Y-12.846 Z-1.438
X-3.529 Y-13.189 Z-1.45
X-3.576 Y-13.531 Z-1.461
X-3.596 Y-13.877 Z-1.473
X-3.59 Y-14.228 Z-1.485
X-3.56 Y-14.587 Z-1.497
X-3.507 Y-14.954 Z-1.51
X-3.433 Y-15.332 Z-1.523
X-3.341 Y-15.719 Z-1.536
X-3.232 Y-16.117 Z-1.55
X-3.11 Y-16.525 Z-1.564
X-2.976 Y-16.944 Z-1.579
X-2.834 Y-17.373 Z-1.594
X-2.782 Y-17.529 Z-1.6
X-2.687 Y-17.812 F2540
Y-17.815
X-2.539 Y-18.261
X-2.536 Y-18.269
X-2.391 Y-18.721
X-2.387 Y-18.735
X-2.246 Y-19.194
X-2.241 Y-19.212
X-2.108 Y-19.679
X-2.102 Y-19.701
X-1.978 Y-20.177
X-1.972 Y-20.203
X-1.86 Y-20.687
X-1.854 Y-20.716
X-1.755 Y-21.211
X-1.749 Y-21.242
X-1.666 Y-21.747
X-1.661 Y-21.781
X-1.66 Y-21.791
Z-1.2
X-1.595 Y-22.295
X-1.591 Y-22.331
X-1.543 Y-22.857
X-1.541 Y-22.893
X-1.511 Y-23.43
X-1.51 Y-23.465
X-1.5 Y-24.014
Y-24.049
X-1.51 Y-24.597
X-1.511 Y-24.633
X-1.541 Y-25.17
X-1.543 Y-25.206
X-1.591 Y-25.732
X-1.595 Y-25.767
X-1.656 Y-26.242
Z-1.6 F508
X-1.661 Y-26.282 F2540
X-1.666 Y-26.316
X-1.749 Y-26.82
X-1.755 Y-26.852
X-1.854 Y-27.346
X-1.86 Y-27.375
X-1.972 Y-27.86
X-1.978 Y-27.886
X-2.102 Y-28.361
X-2.108 Y-28.383
X-2.241 Y-28.851
X-2.246 Y-28.868
X-2.387 Y-29.328
X-2.391 Y-29.341
X-2.536 Y-29.794
X-2.539 Y-29.802
X-2.687 Y-30.248
Y-30.25
X-2.834 Y-30.689
X-2.976 Y-31.119
X-3.11 Y-31.537
X-3.232 Y-31.945
X-3.341 Y-32.343
X-3.433 Y-32.731
X-3.507 Y-33.108
X-3.56 Y-33.476
X-3.59 Y-33.835
X-3.596 Y-34.186
X-3.576 Y-34.531
X-3.529 Y-34.874
X-3.451 Y-35.217
X-3.341 Y-35.563
X-3.193 Y-35.916
X-3.005 Y-36.278
X-2.773 Y-36.65
X-2.492 Y-37.035
X-2.16 Y-37.431
X-1.766 Y-37.847
G2 X-1.775 Y-46.287 I-4.234 J-4.215
X-10.217 Y-46.296 I-4.225 J4.225
G1 X-10.67 Y-45.864
X-11.098 Y-45.498
X-11.509 Y-45.188
X-11.901 Y-44.932
X-12.285 Y-44.721
X-12.458 Y-44.64
X-12.635 Y-44.565
X-12.809 Y-44.501
X-12.969 Y-44.45
X-13.314 Y-44.364
X-13.641 Y-44.314
X-13.966 Y-44.293
X-14.293 Y-44.299
X-14.626 Y-44.331
X-14.966 Y-44.387
X-15.316 Y-44.465
X-15.677 Y-44.563
X-16.049 Y-44.68
X-16.433 Y-44.811
X-16.83 Y-44.956
X-17.24 Y-45.11
X-17.661 Y-45.269
X-17.666 Y-45.27
X-18.096 Y-45.43
X-18.107 Y-45.434
X-18.547 Y-45.592
X-18.564 Y-45.597
X-19.014 Y-45.75
X-19.036 Y-45.757
X-19.498 Y-45.901
X-19.524 Y-45.908
X-19.999 Y-46.042
X-20.029 Y-46.05
X-20.518 Y-46.171
X-20.551 Y-46.179
X-21.055 Y-46.285
X-21.091 Y-46.292
X-21.611 Y-46.382
X-21.648 Y-46.388
X-22.185 Y-46.459
X-22.222 Y-46.464
X-22.777 Y-46.516
X-22.814 Y-46.519
X-23.387 Y-46.55
X-23.423 Y-46.552
X-24.014 Y-46.562
X-24.049
X-24.639 Y-46.552
X-24.676 Y-46.55
X-25.248 Y-46.519
X-25.286 Y-46.516
X-25.84 Y-46.464
X-25.878 Y-46.459
X-26.415 Y-46.388
X-26.452 Y-46.382
X-26.972 Y-46.292
X-27.007 Y-46.285
X-27.512 Y-46.179
X-27.545 Y-46.171
X-28.034 Y-46.05
X-28.064 Y-46.042
X-28.539 Y-45.908
X-28.565 Y-45.901
X-29.027 Y-45.757
X-29.049 Y-45.75
X-29.499 Y-45.597
X-29.516 Y-45.592
X-29.955 Y-45.434
X-29.966 Y-45.43
X-30.397 Y-45.27
X-30.401 Y-45.269
X-30.822 Y-45.11
X-31.232 Y-44.956
X-31.629 Y-44.811
X-32.013 Y-44.68
X-32.385 Y-44.563
X-32.746 Y-44.465
X-33.096 Y-44.387
X-33.437 Y-44.331
X-33.769 Y-44.299
X-34.096 Y-44.293
X-34.422 Y-44.314
X-34.749 Y-44.364
X-35.093 Y-44.45
X-35.254 Y-44.501
X-35.428 Y-44.565
X-35.605 Y-44.64
X-35.777 Y-44.721
X-36.161 Y-44.932
X-36.554 Y-45.188
X-36.964 Y-45.498
X-37.392 Y-45.864
X-37.846 Y-46.296
G2 X-46.287 Y-46.287 I-4.217 J4.233
X-46.297 Y-37.847 I4.225 J4.225
G1 X-45.903 Y-37.431
X-45.571 Y-37.035
X-45.29 Y-36.65
X-45.057 Y-36.278
X-44.869 Y-35.916
X-44.722 Y-35.563
X-44.611 Y-35.217
X-44.534 Y-34.874
X-44.486 Y-34.531
X-44.466 Y-34.186
X-44.472 Y-33.835
X-44.502 Y-33.476
X-44.555 Y-33.108
X-44.629 Y-32.731
X-44.721 Y-32.343
X-44.83 Y-31.946
X-44.953 Y-31.537
X-45.087 Y-31.119
X-45.228 Y-30.689
X-45.375 Y-30.25
X-45.376 Y-30.248
X-45.524 Y-29.802
X-45.526 Y-29.794
X-45.672 Y-29.341
X-45.676 Y-29.328
X-45.816 Y-28.869
X-45.822 Y-28.851
X-45.955 Y-28.383
X-45.961 Y-28.361
X-46.084 Y-27.886
X-46.091 Y-27.86
X-46.203 Y-27.375
X-46.209 Y-27.346
X-46.307 Y-26.852
X-46.313 Y-26.82
X-46.396 Y-26.316
X-46.401 Y-26.282
X-46.402 Y-26.271
Z-1.2
X-46.467 Y-25.767
X-46.471 Y-25.732
X-46.519 Y-25.206
X-46.522 Y-25.17
X-46.551 Y-24.633
X-46.552 Y-24.597
X-46.562 Y-24.049
Y-24.014
X-46.552 Y-23.465
X-46.551 Y-23.43
X-46.522 Y-22.892
X-46.519 Y-22.857
X-46.471 Y-22.331
X-46.467 Y-22.296
X-46.406 Y-21.821
Z-1.6 F508
X-46.401 Y-21.781 F2540
X-46.396 Y-21.747
X-46.313 Y-21.242
X-46.307 Y-21.211
X-46.209 Y-20.716
X-46.203 Y-20.687
X-46.091 Y-20.202
X-46.084 Y-20.177
X-45.961 Y-19.701
X-45.955 Y-19.679
X-45.822 Y-19.212
X-45.816 Y-19.194
X-45.676 Y-18.734
X-45.672 Y-18.721
X-45.526 Y-18.269
X-45.524 Y-18.261
X-45.376 Y-17.815
X-45.375 Y-17.812
X-45.228 Y-17.373
X-45.087 Y-16.944
X-44.953 Y-16.525
X-44.83 Y-16.117
X-44.721 Y-15.719
X-44.629 Y-15.332
X-44.555 Y-14.954
X-44.502 Y-14.587
X-44.472 Y-14.228
X-44.466 Y-13.877
X-44.486 Y-13.531
X-44.534 Y-13.189
X-44.611 Y-12.846
X-44.722 Y-12.5
X-44.869 Y-12.147
X-45.057 Y-11.785
X-45.29 Y-11.412
X-45.571 Y-11.028
X-45.903 Y-10.632
X-46.297 Y-10.216
G2 X-46.287 Y-1.775 I4.234 J4.215
X-37.846 Y-1.767 I4.225 J-4.225
G1 X-37.392 Y-2.199
X-36.964 Y-2.565
X-36.554 Y-2.874
X-36.161 Y-3.13
X-35.777 Y-3.341
X-35.605 Y-3.422
X-35.427 Y-3.497
X-35.254 Y-3.562
X-35.093 Y-3.613
X-34.749 Y-3.698
X-34.422 Y-3.748
X-34.096 Y-3.769
X-33.769 Y-3.763
X-33.437 Y-3.731
X-33.096 Y-3.676
X-32.746 Y-3.598
X-32.385 Y-3.499
X-32.013 Y-3.383
X-31.629 Y-3.251
X-31.232 Y-3.107
X-30.823 Y-2.953
X-30.401 Y-2.794
X-30.396 Y-2.792
X-29.966 Y-2.632
X-29.955 Y-2.628
X-29.515 Y-2.471
X-29.499 Y-2.465
X-29.049 Y-2.313
X-29.027 Y-2.306
X-28.565 Y-2.162
X-28.539 Y-2.154
X-28.064 Y-2.02
X-28.034 Y-2.012
X-27.545 Y-1.891
X-27.511 Y-1.883
X-27.007 Y-1.777
X-26.972 Y-1.77
X-26.452 Y-1.68
X-26.415 Y-1.675
X-26.242 Y-1.652
Z-1.2
X-25.878 Y-1.603
X-25.84 Y-1.599
X-25.286 Y-1.547
X-25.248 Y-1.544
X-24.676 Y-1.512
X-24.639 Y-1.511
X-24.049 Y-1.5
X-24.014
X-23.423 Y-1.511
X-23.387 Y-1.512
X-22.814 Y-1.544
X-22.777 Y-1.547
X-22.222 Y-1.599
X-22.185 Y-1.603
X-21.791 Y-1.656
Z-1.6 F508
X-21.648 Y-1.675 F2540
X-21.611 Y-1.68
X-21.091 Y-1.77
X-21.055 Y-1.777
X-20.551 Y-1.883
X-20.518 Y-1.891
X-20.029 Y-2.012
X-19.999 Y-2.02
X-19.524 Y-2.154
X-19.498 Y-2.162
X-19.035 Y-2.306
X-19.014 Y-2.313
X-18.564 Y-2.465
X-18.547 Y-2.471
X-18.107 Y-2.628
X-18.096 Y-2.632
X-17.666 Y-2.792
X-17.661 Y-2.794
X-17.24 Y-2.953
X-16.83 Y-3.107
X-16.433 Y-3.251
X-16.049 Y-3.383
X-15.677 Y-3.499
X-15.316 Y-3.598
X-14.966 Y-3.676
X-14.626 Y-3.731
X-14.293 Y-3.763
X-13.966 Y-3.769
X-13.641 Y-3.748
X-13.314 Y-3.698
X-12.969 Y-3.613
X-12.809 Y-3.562
X-12.635 Y-3.497
X-12.458 Y-3.422
X-12.285 Y-3.341
X-11.901 Y-3.13
X-11.509 Y-2.874
X-11.098 Y-2.565
X-10.67 Y-2.199
X-10.217 Y-1.767
G2 X-1.775 Y-1.775 I4.217 J-4.233
X-1.766 Y-10.215 I-4.225 J-4.225
G1 X-2.16 Y-10.632
X-2.492 Y-11.028
X-2.773 Y-11.412
X-3.005 Y-11.785
X-3.193 Y-12.147
X-3.341 Y-12.5
X-3.451 Y-12.846
X-3.529 Y-13.189
X-3.576 Y-13.531
X-3.596 Y-13.877
X-3.59 Y-14.228
X-3.56 Y-14.587
X-3.507 Y-14.954
X-3.433 Y-15.332
X-3.341 Y-15.719
X-3.232 Y-16.117
X-3.11 Y-16.525
X-2.976 Y-16.944
X-2.834 Y-17.373
X-2.782 Y-17.529
X-2.687 Y-17.812 Z-1.61 F1016
Y-17.815
X-2.539 Y-18.261 Z-1.626
X-2.536 Y-18.269
X-2.391 Y-18.721 Z-1.642
X-2.387 Y-18.735 Z-1.643
X-2.246 Y-19.194 Z-1.659
X-2.241 Y-19.212 Z-1.66
X-2.108 Y-19.679 Z-1.676
X-2.102 Y-19.701 Z-1.677
X-1.978 Y-20.177 Z-1.693
X-1.972 Y-20.203 Z-1.694
X-1.86 Y-20.687 Z-1.711
X-1.854 Y-20.716 Z-1.712
X-1.755 Y-21.211 Z-1.729
X-1.749 Y-21.242 Z-1.73
X-1.666 Y-21.747 Z-1.748
X-1.661 Y-21.781 Z-1.749
X-1.66 Y-21.791
Z-1.2
X-1.595 Y-22.295
X-1.591 Y-22.331
X-1.543 Y-22.857
X-1.541 Y-22.893
X-1.519 Y-23.291
X-1.511 Y-23.43 F2540
X-1.51 Y-23.465
X-1.5 Y-24.014
Y-24.049
X-1.51 Y-24.597
X-1.511 Y-24.633
X-1.541 Y-25.17
X-1.543 Y-25.206
X-1.591 Y-25.732
X-1.595 Y-25.767
X-1.656 Y-26.242
Z-1.8 F508
X-1.661 Y-26.282 F2540
X-1.666 Y-26.316
X-1.749 Y-26.82
X-1.755 Y-26.852
X-1.854 Y-27.346
X-1.86 Y-27.375
X-1.972 Y-27.86
X-1.978 Y-27.886
X-2.102 Y-28.361
X-2.108 Y-28.383
X-2.241 Y-28.851
X-2.246 Y-28.868
X-2.387 Y-29.328
X-2.391 Y-29.341
X-2.536 Y-29.794
X-2.539 Y-29.802
X-2.687 Y-30.248
Y-30.25
X-2.834 Y-30.689
X-2.976 Y-31.119
X-3.11 Y-31.537
X-3.232 Y-31.945
X-3.341 Y-32.343
X-3.433 Y-32.731
X-3.507 Y-33.108
X-3.56 Y-33.476
X-3.59 Y-33.835
X-3.596 Y-34.186
X-3.576 Y-34.531
X-3.529 Y-34.874
X-3.451 Y-35.217
X-3.341 Y-35.563
X-3.193 Y-35.916
X-3.005 Y-36.278
X-2.773 Y-36.65
X-2.492 Y-37.035
X-2.16 Y-37.431
X-1.766 Y-37.847
G2 X-1.775 Y-46.287 I-4.234 J-4.215
X-10.217 Y-46.296 I-4.225 J4.225
G1 X-10.67 Y-45.864
X-11.098 Y-45.498
X-11.509 Y-45.188
X-11.901 Y-44.932
X-12.285 Y-44.721
X-12.458 Y-44.64
X-12.635 Y-44.565
X-12.809 Y-44.501
X-12.969 Y-44.45
X-13.314 Y-44.364
X-13.641 Y-44.314
X-13.966 Y-44.293
X-14.293 Y-44.299
X-14.626 Y-44.331
X-14.966 Y-44.387
X-15.316 Y-44.465
X-15.677 Y-44.563
X-16.049 Y-44.68
X-16.433 Y-44.811
X-16.83 Y-44.956
X-17.24 Y-45.11
X-17.661 Y-45.269
X-17.666 Y-45.27
X-18.096 Y-45.43
X-18.107 Y-45.434
X-18.547 Y-45.592
X-18.564 Y-45.597
X-19.014 Y-45.75
X-19.036 Y-45.757
X-19.498 Y-45.901
X-19.524 Y-45.908
X-19.999 Y-46.042
X-20.029 Y-46.05
X-20.518 Y-46.171
X-20.551 Y-46.179
X-21.055 Y-46.285
X-21.091 Y-46.292
X-21.611 Y-46.382
X-21.648 Y-46.388
X-22.185 Y-46.459
X-22.222 Y-46.464
X-22.777 Y-46.516
X-22.814 Y-46.519
X-23.387 Y-46.55
X-23.423 Y-46.552
X-24.014 Y-46.562
X-24.049
X-24.639 Y-46.552
X-24.676 Y-46.55
X-25.248 Y-46.519
X-25.286 Y-46.516
X-25.84 Y-46.464
X-25.878 Y-46.459
X-26.415 Y-46.388
X-26.452 Y-46.382
X-26.972 Y-46.292
X-27.007 Y-46.285
X-27.512 Y-46.179
X-27.545 Y-46.171
X-28.034 Y-46.05
X-28.064 Y-46.042
X-28.539 Y-45.908
X-28.565 Y-45.901
X-29.027 Y-45.757
X-29.049 Y-45.75
X-29.499 Y-45.597
X-29.516 Y-45.592
X-29.955 Y-45.434
X-29.966 Y-45.43
X-30.397 Y-45.27
X-30.401 Y-45.269
X-30.822 Y-45.11
X-31.232 Y-44.956
X-31.629 Y-44.811
X-32.013 Y-44.68
X-32.385 Y-44.563
X-32.746 Y-44.465
X-33.096 Y-44.387
X-33.437 Y-44.331
X-33.769 Y-44.299
X-34.096 Y-44.293
X-34.422 Y-44.314
X-34.749 Y-44.364
X-35.093 Y-44.45
X-35.254 Y-44.501
X-35.428 Y-44.565
X-35.605 Y-44.64
X-35.777 Y-44.721
X-36.161 Y-44.932
X-36.554 Y-45.188
X-36.964 Y-45.498
X-37.392 Y-45.864
X-37.846 Y-46.296
G2 X-46.287 Y-46.287 I-4.217 J4.233
X-46.297 Y-37.847 I4.225 J4.225
G1 X-45.903 Y-37.431
X-45.571 Y-37.035
X-45.29 Y-36.65
X-45.057 Y-36.278
X-44.869 Y-35.916
X-44.722 Y-35.563
X-44.611 Y-35.217
X-44.534 Y-34.874
X-44.486 Y-34.531
X-44.466 Y-34.186
X-44.472 Y-33.835
X-44.502 Y-33.476
X-44.555 Y-33.108
X-44.629 Y-32.731
X-44.721 Y-32.343
X-44.83 Y-31.946
X-44.953 Y-31.537
X-45.087 Y-31.119
X-45.228 Y-30.689
X-45.375 Y-30.25
X-45.376 Y-30.248
X-45.524 Y-29.802
X-45.526 Y-29.794
X-45.672 Y-29.341
X-45.676 Y-29.328
X-45.816 Y-28.869
X-45.822 Y-28.851
X-45.955 Y-28.383
X-45.961 Y-28.361
X-46.084 Y-27.886
X-46.091 Y-27.86
X-46.203 Y-27.375
X-46.209 Y-27.346
X-46.307 Y-26.852
X-46.313 Y-26.82
X-46.396 Y-26.316
X-46.401 Y-26.282
X-46.402 Y-26.271
Z-1.2
X-46.467 Y-25.767
X-46.471 Y-25.732
X-46.519 Y-25.206
X-46.522 Y-25.17
X-46.551 Y-24.633
X-46.552 Y-24.597
X-46.562 Y-24.049
Y-24.014
X-46.552 Y-23.465
X-46.551 Y-23.43
X-46.522 Y-22.892
X-46.519 Y-22.857
X-46.471 Y-22.331
X-46.467 Y-22.296
X-46.406 Y-21.821
Z-1.8 F508
X-46.401 Y-21.781 F2540
X-46.396 Y-21.747
X-46.313 Y-21.242
X-46.307 Y-21.211
X-46.209 Y-20.716
X-46.203 Y-20.687
X-46.091 Y-20.202
X-46.084 Y-20.177
X-45.961 Y-19.701
X-45.955 Y-19.679
X-45.822 Y-19.212
X-45.816 Y-19.194
X-45.676 Y-18.734
X-45.672 Y-18.721
X-45.526 Y-18.269
X-45.524 Y-18.261
X-45.376 Y-17.815
X-45.375 Y-17.812
X-45.228 Y-17.373
X-45.087 Y-16.944
X-44.953 Y-16.525
X-44.83 Y-16.117
X-44.721 Y-15.719
X-44.629 Y-15.332
X-44.555 Y-14.954
X-44.502 Y-14.587
X-44.472 Y-14.228
X-44.466 Y-13.877
X-44.486 Y-13.531
X-44.534 Y-13.189
X-44.611 Y-12.846
X-44.722 Y-12.5
X-44.869 Y-12.147
X-45.057 Y-11.785
X-45.29 Y-11.412
X-45.571 Y-11.028
X-45.903 Y-10.632
X-46.297 Y-10.216
G2 X-46.287 Y-1.775 I4.234 J4.215
X-37.846 Y-1.767 I4.225 J-4.225
G1 X-37.392 Y-2.199
X-36.964 Y-2.565
X-36.554 Y-2.874
X-36.161 Y-3.13
X-35.777 Y-3.341
X-35.605 Y-3.422
X-35.427 Y-3.497
X-35.254 Y-3.562
X-35.093 Y-3.613
X-34.749 Y-3.698
X-34.422 Y-3.748
X-34.096 Y-3.769
X-33.769 Y-3.763
X-33.437 Y-3.731
X-33.096 Y-3.676
X-32.746 Y-3.598
X-32.385 Y-3.499
X-32.013 Y-3.383
X-31.629 Y-3.251
X-31.232 Y-3.107
X-30.823 Y-2.953
X-30.401 Y-2.794
X-30.396 Y-2.792
X-29.966 Y-2.632
X-29.955 Y-2.628
X-29.515 Y-2.471
X-29.499 Y-2.465
X-29.049 Y-2.313
X-29.027 Y-2.306
X-28.565 Y-2.162
X-28.539 Y-2.154
X-28.064 Y-2.02
X-28.034 Y-2.012
X-27.545 Y-1.891
X-27.511 Y-1.883
X-27.007 Y-1.777
X-26.972 Y-1.77
X-26.452 Y-1.68
X-26.415 Y-1.675
X-26.242 Y-1.652
Z-1.2
X-25.878 Y-1.603
X-25.84 Y-1.599
X-25.286 Y-1.547
X-25.248 Y-1.544
X-24.676 Y-1.512
X-24.639 Y-1.511
X-24.049 Y-1.5
X-24.014
X-23.423 Y-1.511
X-23.387 Y-1.512
X-22.814 Y-1.544
X-22.777 Y-1.547
X-22.222 Y-1.599
X-22.185 Y-1.603
X-21.791 Y-1.656
Z-1.8 F508
X-21.648 Y-1.675 F2540
X-21.611 Y-1.68
X-21.091 Y-1.77
X-21.055 Y-1.777
X-20.551 Y-1.883
X-20.518 Y-1.891
X-20.029 Y-2.012
X-19.999 Y-2.02
X-19.524 Y-2.154
X-19.498 Y-2.162
X-19.035 Y-2.306
X-19.014 Y-2.313
X-18.564 Y-2.465
X-18.547 Y-2.471
X-18.107 Y-2.628
X-18.096 Y-2.632
X-17.666 Y-2.792
X-17.661 Y-2.794
X-17.24 Y-2.953
X-16.83 Y-3.107
X-16.433 Y-3.251
X-16.049 Y-3.383
X-15.677 Y-3.499
X-15.316 Y-3.598
X-14.966 Y-3.676
X-14.626 Y-3.731
X-14.293 Y-3.763
X-13.966 Y-3.769
X-13.641 Y-3.748
X-13.314 Y-3.698
X-12.969 Y-3.613
X-12.809 Y-3.562
X-12.635 Y-3.497
X-12.458 Y-3.422
X-12.285 Y-3.341
X-11.901 Y-3.13
X-11.509 Y-2.874
X-11.098 Y-2.565
X-10.67 Y-2.199
X-10.217 Y-1.767
G2 X-1.775 Y-1.775 I4.217 J-4.233
X-1.766 Y-10.215 I-4.225 J-4.225
G1 X-2.16 Y-10.632
X-2.492 Y-11.028
X-2.773 Y-11.412
X-3.005 Y-11.785
X-3.193 Y-12.147
X-3.341 Y-12.5
X-3.451 Y-12.846
X-3.529 Y-13.189
X-3.576 Y-13.531
X-3.596 Y-13.877
X-3.59 Y-14.228
X-3.56 Y-14.587
X-3.507 Y-14.954
X-3.433 Y-15.332
X-3.341 Y-15.719
X-3.232 Y-16.117
X-3.11 Y-16.525
X-2.976 Y-16.944
X-2.834 Y-17.373
X-2.687 Y-17.812
Y-17.815
X-2.539 Y-18.261
X-2.536 Y-18.269
X-2.391 Y-18.721
X-2.387 Y-18.735
X-2.246 Y-19.194
X-2.241 Y-19.212
X-2.108 Y-19.679
X-2.102 Y-19.701
X-1.978 Y-20.177
X-1.972 Y-20.203
X-1.86 Y-20.687
X-1.854 Y-20.716
X-1.755 Y-21.211
X-1.749 Y-21.242
X-1.666 Y-21.747
X-1.661 Y-21.781
X-1.66 Y-21.791
Z-1.2
X-1.595 Y-22.295
X-1.591 Y-22.331
X-1.543 Y-22.857
X-1.541 Y-22.893
X-1.519 Y-23.291
G0 Z15
G28 G91 Z0
G90
G28 G91 X0 Y0
G90
M5
M30
