(CFK)
(Bearbeiten)
(  Hersteller: ChinaCnc)
(  model: 3040T)
(  description: Generic 3-axis)
(T14 D=1.5 CR=0 - ZMIN=-1.4 - Schaftfrser)
G90 G94
G17
G21
(-Attention- Property Safe Retracts is set to Clearance Height.)
(Ensure the clearance height will clear the part and or fixtures.)
(Raise the Z-axis to a safe height before starting the program.)
(When using Fusion 360 for Personal Use, the feedrate of)
(rapid moves is reduced to match the feedrate of cutting)
(moves, which can increase machining time. Unrestricted rapid)
(moves are available with a Fusion 360 Subscription.)

(Bohrfrsen2)
M0
(MANUAL TOOL CHANGE TO T14)
S3000 M3
G17 G90 G94
G54
G0 X-19 Y-8.275
Z15
G1 Z1.85 F600
Z0 F400
X-18.987 Y-8.288
X-18.979 Y-8.284
X-18.975 Y-8.275
X-18.983 Y-8.257 Z-0.007 F600
X-19.001 Y-8.25 Z-0.014
X-19.019 Y-8.258 Z-0.021
X-19.025 Y-8.277 Z-0.028
X-19.016 Y-8.294 Z-0.035
X-18.997 Y-8.3 Z-0.042
X-18.98 Y-8.29 Z-0.049
X-18.975 Y-8.271 Z-0.055
X-18.986 Y-8.255 Z-0.062
X-19.005 Y-8.25 Z-0.069
X-19.021 Y-8.261 Z-0.076
X-19.024 Y-8.281 Z-0.083
X-19.013 Y-8.296 Z-0.09
X-18.993 Y-8.299 Z-0.097
X-18.978 Y-8.287 Z-0.104
X-18.976 Y-8.267 Z-0.111
X-18.989 Y-8.253 Z-0.118
X-19.008 Y-8.251 Z-0.125
X-19.023 Y-8.265 Z-0.132
Y-8.284 Z-0.139
X-19.009 Y-8.298 Z-0.146
X-18.99 Z-0.152
X-18.976 Y-8.283 Z-0.159
X-18.978 Y-8.264 Z-0.166
X-18.992 Y-8.251 Z-0.173
X-19.012 Y-8.253 Z-0.18
X-19.024 Y-8.268 Z-0.187
X-19.021 Y-8.288 Z-0.194
X-19.006 Y-8.299 Z-0.201
X-18.986 Y-8.296 Z-0.208
X-18.975 Y-8.28 Z-0.215
X-18.98 Y-8.261 Z-0.222
X-18.996 Y-8.25 Z-0.229
X-19.015 Y-8.255 Z-0.236
X-19.025 Y-8.272 Z-0.243
X-19.019 Y-8.291 Z-0.25
X-19.002 Y-8.3 Z-0.256
X-18.983 Y-8.294 Z-0.263
X-18.975 Y-8.276 Z-0.27
X-18.982 Y-8.258 Z-0.277
X-19 Y-8.25 Z-0.284
X-19.018 Y-8.258 Z-0.291
X-19.025 Y-8.276 Z-0.298
X-19.017 Y-8.294 Z-0.305
X-18.998 Y-8.3 Z-0.312
X-18.981 Y-8.291 Z-0.319
X-18.975 Y-8.272 Z-0.326
X-18.985 Y-8.255 Z-0.333
X-19.004 Y-8.25 Z-0.34
X-19.02 Y-8.261 Z-0.347
X-19.025 Y-8.28 Z-0.353
X-19.014 Y-8.296 Z-0.36
X-18.994 Y-8.299 Z-0.367
X-18.979 Y-8.288 Z-0.374
X-18.976 Y-8.268 Z-0.381
X-18.988 Y-8.253 Z-0.388
X-19.008 Y-8.251 Z-0.395
X-19.022 Y-8.264 Z-0.402
X-19.024 Y-8.283 Z-0.409
X-19.01 Y-8.298 Z-0.416
X-18.991 Z-0.423
X-18.977 Y-8.284 Z-0.43
Y-8.265 Z-0.437
X-18.992 Y-8.251 Z-0.444
X-19.011 Y-8.253 Z-0.45
X-19.024 Y-8.267 Z-0.457
X-19.022 Y-8.287 Z-0.464
X-19.007 Y-8.299 Z-0.471
X-18.987 Y-8.297 Z-0.478
X-18.976 Y-8.281 Z-0.485
X-18.979 Y-8.261 Z-0.492
X-18.995 Y-8.25 Z-0.499
X-19.014 Y-8.255 Z-0.506
X-19.025 Y-8.271 Z-0.513
X-19.02 Y-8.29 Z-0.52
X-19.003 Y-8.3 Z-0.527
X-18.984 Y-8.294 Z-0.534
X-18.975 Y-8.277 Z-0.541
X-18.981 Y-8.258 Z-0.548
X-18.999 Y-8.25 Z-0.554
X-19.017 Y-8.257 Z-0.561
X-19.025 Y-8.275 Z-0.568
X-19.017 Y-8.293 Z-0.575
X-18.999 Y-8.3 Z-0.582
X-18.981 Y-8.292 Z-0.589
X-18.975 Y-8.273 Z-0.596
X-18.984 Y-8.256 Z-0.603
X-19.003 Y-8.25 Z-0.61
X-19.02 Y-8.26 Z-0.617
X-19.025 Y-8.279 Z-0.624
X-19.014 Y-8.295 Z-0.631
X-18.995 Y-8.3 Z-0.638
X-18.979 Y-8.289 Z-0.645
X-18.976 Y-8.269 Z-0.651
X-18.987 Y-8.254 Z-0.658
X-19.007 Y-8.251 Z-0.665
X-19.022 Y-8.263 Z-0.672
X-19.024 Y-8.282 Z-0.679
X-19.011 Y-8.297 Z-0.686
X-18.992 Y-8.299 Z-0.693
X-18.977 Y-8.285 Z-0.7
Y-8.266 Z-0.707
X-18.991 Y-8.252 Z-0.714
X-19.01 Z-0.721
X-19.024 Y-8.266 Z-0.728
X-19.022 Y-8.286 Z-0.735
X-19.008 Y-8.299 Z-0.742
X-18.988 Y-8.297 Z-0.749
X-18.976 Y-8.282 Z-0.755
X-18.978 Y-8.262 Z-0.762
X-18.994 Y-8.251 Z-0.769
X-19.014 Y-8.254 Z-0.776
X-19.025 Y-8.27 Z-0.783
X-19.02 Y-8.289 Z-0.79
X-19.004 Y-8.3 Z-0.797
X-18.985 Y-8.295 Z-0.804
X-18.975 Y-8.278 Z-0.811
X-18.981 Y-8.259 Z-0.818
X-18.998 Y-8.25 Z-0.825
X-19.017 Y-8.256 Z-0.832
X-19.025 Y-8.274 Z-0.839
X-19.018 Y-8.292 Z-0.846
X-19 Y-8.3 Z-0.852
X-18.982 Y-8.292 Z-0.859
X-18.975 Y-8.274 Z-0.866
X-18.983 Y-8.256 Z-0.873
X-19.002 Y-8.25 Z-0.88
X-19.019 Y-8.259 Z-0.887
X-19.025 Y-8.278 Z-0.894
X-19.015 Y-8.295 Z-0.901
X-18.996 Y-8.3 Z-0.908
X-18.98 Y-8.289 Z-0.915
X-18.975 Y-8.27 Z-0.922
X-18.986 Y-8.254 Z-0.929
X-19.006 Y-8.251 Z-0.936
X-19.021 Y-8.262 Z-0.943
X-19.024 Y-8.282 Z-0.95
X-19.012 Y-8.297 Z-0.956
X-18.993 Y-8.299 Z-0.963
X-18.978 Y-8.286 Z-0.97
X-18.976 Y-8.267 Z-0.977
X-18.99 Y-8.252 Z-0.984
X-19.009 Z-0.991
X-19.023 Y-8.266 Z-0.998
Y-8.285 Z-1.005
X-19.009 Y-8.298 Z-1.012
X-18.989 Y-8.297 Z-1.019
X-18.976 Y-8.283 Z-1.026
X-18.978 Y-8.263 Z-1.033
X-18.993 Y-8.251 Z-1.04
X-19.013 Y-8.253 Z-1.047
X-19.024 Y-8.269 Z-1.053
X-19.021 Y-8.289 Z-1.06
X-19.005 Y-8.3 Z-1.067
X-18.986 Y-8.296 Z-1.074
X-18.975 Y-8.279 Z-1.081
X-18.98 Y-8.26 Z-1.088
X-18.997 Y-8.25 Z-1.095
X-19.016 Y-8.256 Z-1.102
X-19.025 Y-8.273 Z-1.109
X-19.019 Y-8.292 Z-1.116
X-19.001 Y-8.3 Z-1.123
X-18.983 Y-8.293 Z-1.13
X-18.975 Y-8.275 Z-1.137
X-18.983 Y-8.257 Z-1.144
X-19.001 Y-8.25 Z-1.15
X-19.019 Y-8.258 Z-1.157
X-19.025 Y-8.277 Z-1.164
X-19.016 Y-8.294 Z-1.171
X-18.997 Y-8.3 Z-1.178
X-18.98 Y-8.29 Z-1.185
X-18.975 Y-8.271 Z-1.192
X-18.986 Y-8.255 Z-1.199
X-19.005 Y-8.25 Z-1.206
X-19.021 Y-8.261 Z-1.213
X-19.024 Y-8.281 Z-1.22
X-19.013 Y-8.296 Z-1.227
X-18.993 Y-8.299 Z-1.234
X-18.978 Y-8.287 Z-1.241
X-18.976 Y-8.268 Z-1.248
X-18.989 Y-8.253 Z-1.254
X-19.008 Y-8.251 Z-1.261
X-19.023 Y-8.265 Z-1.268
Y-8.284 Z-1.275
X-19.009 Y-8.298 Z-1.282
X-18.99 Z-1.289
X-18.977 Y-8.284 Z-1.296
X-18.978 Y-8.264 Z-1.303
X-18.992 Y-8.251 Z-1.31
X-19.012 Y-8.253 Z-1.317
X-19.024 Y-8.268 Z-1.324
X-19.022 Y-8.288 Z-1.331
X-19.006 Y-8.299 Z-1.338
X-18.987 Y-8.296 Z-1.345
X-18.975 Y-8.28 Z-1.351
X-18.979 Y-8.261 Z-1.358
X-18.996 Y-8.25 Z-1.365
X-19.015 Y-8.255 Z-1.372
X-19.025 Y-8.272 Z-1.379
X-19.019 Y-8.291 Z-1.386
X-19.002 Y-8.3 Z-1.393
X-18.983 Y-8.294 Z-1.4
G3 X-19.017 Y-8.256 I-0.017 J0.019
X-18.983 Y-8.294 I0.017 J-0.019
G1 X-18.979 Y-8.285
X-18.982 Y-8.276
X-19 Y-8.275
Z5
X-60
Z1.85
Z0 F400
X-59.987 Y-8.288
X-59.979 Y-8.284
X-59.975 Y-8.275
X-59.983 Y-8.257 Z-0.007 F600
X-60.001 Y-8.25 Z-0.014
X-60.019 Y-8.258 Z-0.021
X-60.025 Y-8.277 Z-0.028
X-60.016 Y-8.294 Z-0.035
X-59.997 Y-8.3 Z-0.042
X-59.98 Y-8.29 Z-0.049
X-59.975 Y-8.271 Z-0.055
X-59.986 Y-8.255 Z-0.062
X-60.005 Y-8.25 Z-0.069
X-60.021 Y-8.261 Z-0.076
X-60.024 Y-8.281 Z-0.083
X-60.013 Y-8.296 Z-0.09
X-59.993 Y-8.299 Z-0.097
X-59.978 Y-8.287 Z-0.104
X-59.976 Y-8.267 Z-0.111
X-59.989 Y-8.253 Z-0.118
X-60.008 Y-8.251 Z-0.125
X-60.023 Y-8.265 Z-0.132
Y-8.284 Z-0.139
X-60.009 Y-8.298 Z-0.146
X-59.99 Z-0.152
X-59.976 Y-8.283 Z-0.159
X-59.978 Y-8.264 Z-0.166
X-59.992 Y-8.251 Z-0.173
X-60.012 Y-8.253 Z-0.18
X-60.024 Y-8.268 Z-0.187
X-60.021 Y-8.288 Z-0.194
X-60.006 Y-8.299 Z-0.201
X-59.986 Y-8.296 Z-0.208
X-59.975 Y-8.28 Z-0.215
X-59.98 Y-8.261 Z-0.222
X-59.996 Y-8.25 Z-0.229
X-60.015 Y-8.255 Z-0.236
X-60.025 Y-8.272 Z-0.243
X-60.019 Y-8.291 Z-0.25
X-60.002 Y-8.3 Z-0.256
X-59.983 Y-8.294 Z-0.263
X-59.975 Y-8.276 Z-0.27
X-59.982 Y-8.258 Z-0.277
X-60 Y-8.25 Z-0.284
X-60.018 Y-8.258 Z-0.291
X-60.025 Y-8.276 Z-0.298
X-60.017 Y-8.294 Z-0.305
X-59.998 Y-8.3 Z-0.312
X-59.981 Y-8.291 Z-0.319
X-59.975 Y-8.272 Z-0.326
X-59.985 Y-8.255 Z-0.333
X-60.004 Y-8.25 Z-0.34
X-60.02 Y-8.261 Z-0.347
X-60.025 Y-8.28 Z-0.353
X-60.014 Y-8.296 Z-0.36
X-59.994 Y-8.299 Z-0.367
X-59.979 Y-8.288 Z-0.374
X-59.976 Y-8.268 Z-0.381
X-59.988 Y-8.253 Z-0.388
X-60.008 Y-8.251 Z-0.395
X-60.022 Y-8.264 Z-0.402
X-60.024 Y-8.283 Z-0.409
X-60.01 Y-8.298 Z-0.416
X-59.991 Z-0.423
X-59.977 Y-8.284 Z-0.43
Y-8.265 Z-0.437
X-59.992 Y-8.251 Z-0.444
X-60.011 Y-8.253 Z-0.45
X-60.024 Y-8.267 Z-0.457
X-60.022 Y-8.287 Z-0.464
X-60.007 Y-8.299 Z-0.471
X-59.987 Y-8.297 Z-0.478
X-59.976 Y-8.281 Z-0.485
X-59.979 Y-8.261 Z-0.492
X-59.995 Y-8.25 Z-0.499
X-60.014 Y-8.255 Z-0.506
X-60.025 Y-8.271 Z-0.513
X-60.02 Y-8.29 Z-0.52
X-60.003 Y-8.3 Z-0.527
X-59.984 Y-8.294 Z-0.534
X-59.975 Y-8.277 Z-0.541
X-59.981 Y-8.258 Z-0.548
X-59.999 Y-8.25 Z-0.554
X-60.017 Y-8.257 Z-0.561
X-60.025 Y-8.275 Z-0.568
X-60.017 Y-8.293 Z-0.575
X-59.999 Y-8.3 Z-0.582
X-59.981 Y-8.292 Z-0.589
X-59.975 Y-8.273 Z-0.596
X-59.984 Y-8.256 Z-0.603
X-60.003 Y-8.25 Z-0.61
X-60.02 Y-8.26 Z-0.617
X-60.025 Y-8.279 Z-0.624
X-60.014 Y-8.295 Z-0.631
X-59.995 Y-8.3 Z-0.638
X-59.979 Y-8.289 Z-0.645
X-59.976 Y-8.269 Z-0.651
X-59.987 Y-8.254 Z-0.658
X-60.007 Y-8.251 Z-0.665
X-60.022 Y-8.263 Z-0.672
X-60.024 Y-8.282 Z-0.679
X-60.011 Y-8.297 Z-0.686
X-59.992 Y-8.299 Z-0.693
X-59.977 Y-8.285 Z-0.7
Y-8.266 Z-0.707
X-59.991 Y-8.252 Z-0.714
X-60.01 Z-0.721
X-60.024 Y-8.266 Z-0.728
X-60.022 Y-8.286 Z-0.735
X-60.008 Y-8.299 Z-0.742
X-59.988 Y-8.297 Z-0.749
X-59.976 Y-8.282 Z-0.755
X-59.978 Y-8.262 Z-0.762
X-59.994 Y-8.251 Z-0.769
X-60.014 Y-8.254 Z-0.776
X-60.025 Y-8.27 Z-0.783
X-60.02 Y-8.289 Z-0.79
X-60.004 Y-8.3 Z-0.797
X-59.985 Y-8.295 Z-0.804
X-59.975 Y-8.278 Z-0.811
X-59.981 Y-8.259 Z-0.818
X-59.998 Y-8.25 Z-0.825
X-60.017 Y-8.256 Z-0.832
X-60.025 Y-8.274 Z-0.839
X-60.018 Y-8.292 Z-0.846
X-60 Y-8.3 Z-0.852
X-59.982 Y-8.292 Z-0.859
X-59.975 Y-8.274 Z-0.866
X-59.983 Y-8.256 Z-0.873
X-60.002 Y-8.25 Z-0.88
X-60.019 Y-8.259 Z-0.887
X-60.025 Y-8.278 Z-0.894
X-60.015 Y-8.295 Z-0.901
X-59.996 Y-8.3 Z-0.908
X-59.98 Y-8.289 Z-0.915
X-59.975 Y-8.27 Z-0.922
X-59.986 Y-8.254 Z-0.929
X-60.006 Y-8.251 Z-0.936
X-60.021 Y-8.262 Z-0.943
X-60.024 Y-8.282 Z-0.95
X-60.012 Y-8.297 Z-0.956
X-59.993 Y-8.299 Z-0.963
X-59.978 Y-8.286 Z-0.97
X-59.976 Y-8.267 Z-0.977
X-59.99 Y-8.252 Z-0.984
X-60.009 Z-0.991
X-60.023 Y-8.266 Z-0.998
Y-8.285 Z-1.005
X-60.009 Y-8.298 Z-1.012
X-59.989 Y-8.297 Z-1.019
X-59.976 Y-8.283 Z-1.026
X-59.978 Y-8.263 Z-1.033
X-59.993 Y-8.251 Z-1.04
X-60.013 Y-8.253 Z-1.047
X-60.024 Y-8.269 Z-1.053
X-60.021 Y-8.289 Z-1.06
X-60.005 Y-8.3 Z-1.067
X-59.986 Y-8.296 Z-1.074
X-59.975 Y-8.279 Z-1.081
X-59.98 Y-8.26 Z-1.088
X-59.997 Y-8.25 Z-1.095
X-60.016 Y-8.256 Z-1.102
X-60.025 Y-8.273 Z-1.109
X-60.019 Y-8.292 Z-1.116
X-60.001 Y-8.3 Z-1.123
X-59.983 Y-8.293 Z-1.13
X-59.975 Y-8.275 Z-1.137
X-59.983 Y-8.257 Z-1.144
X-60.001 Y-8.25 Z-1.15
X-60.019 Y-8.258 Z-1.157
X-60.025 Y-8.277 Z-1.164
X-60.016 Y-8.294 Z-1.171
X-59.997 Y-8.3 Z-1.178
X-59.98 Y-8.29 Z-1.185
X-59.975 Y-8.271 Z-1.192
X-59.986 Y-8.255 Z-1.199
X-60.005 Y-8.25 Z-1.206
X-60.021 Y-8.261 Z-1.213
X-60.024 Y-8.281 Z-1.22
X-60.013 Y-8.296 Z-1.227
X-59.993 Y-8.299 Z-1.234
X-59.978 Y-8.287 Z-1.241
X-59.976 Y-8.268 Z-1.248
X-59.989 Y-8.253 Z-1.254
X-60.008 Y-8.251 Z-1.261
X-60.023 Y-8.265 Z-1.268
Y-8.284 Z-1.275
X-60.009 Y-8.298 Z-1.282
X-59.99 Z-1.289
X-59.977 Y-8.284 Z-1.296
X-59.978 Y-8.264 Z-1.303
X-59.992 Y-8.251 Z-1.31
X-60.012 Y-8.253 Z-1.317
X-60.024 Y-8.268 Z-1.324
X-60.022 Y-8.288 Z-1.331
X-60.006 Y-8.299 Z-1.338
X-59.987 Y-8.296 Z-1.345
X-59.975 Y-8.28 Z-1.351
X-59.979 Y-8.261 Z-1.358
X-59.996 Y-8.25 Z-1.365
X-60.015 Y-8.255 Z-1.372
X-60.025 Y-8.272 Z-1.379
X-60.019 Y-8.291 Z-1.386
X-60.002 Y-8.3 Z-1.393
X-59.983 Y-8.294 Z-1.4
G3 X-60.017 Y-8.256 I-0.017 J0.019
X-59.983 Y-8.294 I0.017 J-0.019
G1 X-59.979 Y-8.285
X-59.982 Y-8.276
X-60 Y-8.275
Z15
(When using Fusion 360 for Personal Use, the feedrate of)
(rapid moves is reduced to match the feedrate of cutting)
(moves, which can increase machining time. Unrestricted rapid)
(moves are available with a Fusion 360 Subscription.)

(2D-Kontur4)
G0 X-14.556 Y-8.82
G1 Z15 F600
Z5
Z1 F300
Z-1.25
X-14.563 Y-8.819 Z-1.296 F400
X-14.584 Y-8.816 Z-1.338
X-14.617 Y-8.811 Z-1.371
X-14.658 Y-8.804 Z-1.393
X-14.704 Y-8.797 Z-1.4
X-14.852 Y-8.774
X-14.899
X-14.944 Y-8.788
X-14.982 Y-8.816
X-15.009 Y-8.854
X-15.024 Y-8.899
G2 X-16.112 Y-11.079 I-3.976 J0.624 F600
G1 X-28.25 Y-23.579
Y-28.275
G2 X-29 Y-29.025 I-0.75 J0
G1 X-32.58
Z-0.9
X-40.08
Z-1.4 F300
X-44 F600
G2 X-44.75 Y-28.275 I0 J0.75
G1 Y-23.275
G2 X-44.456 Y-22.679 I0.75 J0
G1 X-21.445 Y-5.078
G2 X-15.024 Y-8.899 I2.445 J-3.197
G1 Y-8.946
X-15.009 Y-8.99
X-14.981 Y-9.028
X-14.943 Y-9.056
X-14.899 Y-9.07
X-14.75 Y-9.093
X-14.705 Y-9.1 Z-1.393
X-14.663 Y-9.107 Z-1.371
X-14.631 Y-9.112 Z-1.338
X-14.61 Y-9.115 Z-1.296
X-14.602 Y-9.117 Z-1.25
Z5
X-86.209 Y-23.266
Z1 F300
Z-1.25
X-86.202 Y-23.267 Z-1.296 F400
X-86.181 Y-23.27 Z-1.338
X-86.148 Y-23.275 Z-1.371
X-86.107 Y-23.28 Z-1.393
X-86.061 Y-23.286 Z-1.4
X-85.912 Y-23.306
X-85.865 Y-23.305
X-85.821 Y-23.289
X-85.783 Y-23.26
X-85.757 Y-23.222
X-85.744 Y-23.177
G2 X-85.456 Y-22.679 I0.744 J-0.098 F600
G1 X-62.445 Y-5.078
G2 X-57.112 Y-11.079 I2.445 J-3.197
G1 X-69.25 Y-23.579
Y-28.275
G2 X-70 Y-29.025 I-0.75 J0
G1 X-73.753
Z-0.9
X-81.253
Z-1.4 F300
X-85 F600
G2 X-85.75 Y-28.275 I0 J0.75
G1 Y-23.275
X-85.744 Y-23.177
X-85.745 Y-23.13
X-85.76 Y-23.086
X-85.789 Y-23.048
X-85.828 Y-23.022
X-85.873 Y-23.008
X-86.021 Y-22.989
X-86.067 Y-22.983 Z-1.393
X-86.109 Y-22.977 Z-1.371
X-86.142 Y-22.973 Z-1.338
X-86.163 Y-22.97 Z-1.296
X-86.17 Y-22.969 Z-1.25
Z15
(When using Fusion 360 for Personal Use, the feedrate of)
(rapid moves is reduced to match the feedrate of cutting)
(moves, which can increase machining time. Unrestricted rapid)
(moves are available with a Fusion 360 Subscription.)

(2D-Kontur5)
G0 X-45.843 Y-54.06
G1 Z15 F600
Z5
Z1 F300
Z-0.9
Z5 F600
Z-0.9 F300
X-45.693 F400
X-45.543
X-45.497 Y-54.053
X-45.455 Y-54.032
X-45.422 Y-53.998
X-45.4 Y-53.957
X-45.393 Y-53.91
Y-51.148 F600
Z-1.4 F300
Y-50.275 F600
G3 X-47.569 Y-47.207 I-3.25 J0
G2 X-50.75 Y-42.724 I1.569 J4.483
G1 Y-38.275
G2 X-48 Y-35.525 I2.75 J0
G1 X-7
G2 X-4.25 Y-38.275 I0 J-2.75
G1 Y-42.724
G2 X-7.431 Y-47.207 I-4.75 J0
G3 X-9.607 Y-50.275 I1.074 J-3.067
G1 Y-51.129
Z-0.9
Y-56.629
Z-1.4 F300
Y-100.67 F600
Z-0.9
Y-106.17
Z-1.4 F300
Y-106.275 F600
G3 X-7.431 Y-109.342 I3.25 J0
G2 X-4.25 Y-113.826 I-1.569 J-4.484
G1 Y-118.275
G2 X-7 Y-121.025 I-2.75 J0
G1 X-48
G2 X-50.75 Y-118.275 I0 J2.75
G1 Y-113.826
G2 X-47.569 Y-109.342 I4.75 J0
G3 X-45.393 Y-106.275 I-1.074 J3.067
G1 Y-104.746
Z-0.9
Y-99.246
Z-1.4 F300
Y-56.648 F600
Z-0.9
Y-53.91
X-45.4 Y-53.864
X-45.422 Y-53.822
X-45.455 Y-53.789
X-45.497 Y-53.767
X-45.543 Y-53.76
X-45.843
Z5
X-60.623 Y-46.682
Z1 F300
Z-1.25
X-60.628 Y-46.676 Z-1.296 F400
X-60.641 Y-46.659 Z-1.338
X-60.662 Y-46.633 Z-1.371
X-60.688 Y-46.601 Z-1.393
X-60.717 Y-46.565 Z-1.4
X-60.811 Y-46.448
X-60.846 Y-46.416
X-60.889 Y-46.397
X-60.936 Y-46.392
X-60.982 Y-46.402
X-61.022 Y-46.425
G2 X-62.431 Y-47.207 I-2.978 J3.701 F600
G3 X-64.607 Y-50.275 I1.074 J-3.068
G1 Y-52.266
Z-0.9
Y-57.766
Z-1.4 F300
Y-98.762 F600
Z-0.9
Y-104.262
Z-1.4 F300
Y-106.275 F600
G3 X-62.431 Y-109.342 I3.25 J0
G2 X-59.25 Y-113.826 I-1.569 J-4.484
G1 Y-118.275
G2 X-62 Y-121.025 I-2.75 J0
G1 X-103
G2 X-105.75 Y-118.275 I0 J2.75
G1 Y-113.826
G2 X-102.569 Y-109.342 I4.75 J0
G3 X-100.466 Y-106.958 I-1.074 J3.067
G1 Z-0.9
G3 X-100.393 Y-106.275 I-3.177 J0.683
G1 Y-101.458
Z-1.4 F300
Y-56.323 F600
Z-0.9
Y-50.823
Z-1.4 F300
Y-50.275 F600
G3 X-102.569 Y-47.207 I-3.25 J0
G2 X-105.75 Y-42.724 I1.569 J4.483
G1 Y-38.275
G2 X-103 Y-35.525 I2.75 J0
G1 X-62
G2 X-59.25 Y-38.275 I0 J-2.75
G1 Y-42.724
G2 X-61.022 Y-46.425 I-4.75 J0
G1 X-61.054 Y-46.46
X-61.073 Y-46.503
X-61.078 Y-46.549
X-61.069 Y-46.595
X-61.045 Y-46.636
X-60.951 Y-46.753
X-60.922 Y-46.789 Z-1.393
X-60.896 Y-46.821 Z-1.371
X-60.875 Y-46.847 Z-1.338
X-60.862 Y-46.864 Z-1.296
X-60.857 Y-46.87 Z-1.25
Z15
M5
M30
