(cont)
(T14  D=1.5 CR=0 - ZMIN=-2.5 - Schaftfraser)
G90 G94
G17
G21
(When using Fusion 360 for Personal Use, the feedrate of)
(rapid moves is reduced to match the feedrate of cutting)
(moves, which can increase machining time. Unrestricted rapid)
(moves are available with a Fusion 360 Subscription.)

(2D-Kontur2)
T14
S3000 M3
G54
G0 X-39.8 Y-7.15
Z15
G1 Z5 F600
Z1.5 F300
Z-0.35
X-39.807 Z-0.396 F400
X-39.829 Z-0.438
X-39.862 Z-0.471
X-39.904 Z-0.493
X-39.95 Z-0.5
X-40.1
X-40.146 Y-7.157
X-40.188 Y-7.179
X-40.221 Y-7.212
X-40.243 Y-7.254
X-40.25 Y-7.3
Y-23.3 F600
G2 X-43 Y-26.05 I-2.75 J0
G1 X-50.453
G3 X-51.089 Y-26.224 I0 J-1.25
G1 X-66.582 Y-35.388
G2 X-72.532 Y-28.124 I-2.418 J4.088
G1 X-52.154 Y-5.461
G2 X-50.109 Y-4.55 I2.045 J-1.839
G1 X-43
G2 X-40.25 Y-7.3 I0 J-2.75
G1 X-40.243 Y-7.346
X-40.221 Y-7.388
X-40.188 Y-7.421
X-40.146 Y-7.443
X-40.1 Y-7.45
X-39.95
X-39.904 Z-0.493
X-39.862 Z-0.471
X-39.829 Z-0.438
X-39.807 Z-0.396
X-39.8 Z-0.35
Z5
Y-7.15
Z1 F300
Z-0.85
X-39.807 Z-0.896 F400
X-39.829 Z-0.938
X-39.862 Z-0.971
X-39.904 Z-0.993
X-39.95 Z-1
X-40.1
X-40.146 Y-7.157
X-40.188 Y-7.179
X-40.221 Y-7.212
X-40.243 Y-7.254
X-40.25 Y-7.3
Y-23.3 F600
G2 X-43 Y-26.05 I-2.75 J0
G1 X-50.453
G3 X-51.089 Y-26.224 I0 J-1.25
G1 X-66.582 Y-35.388
G2 X-72.532 Y-28.124 I-2.418 J4.088
G1 X-52.154 Y-5.461
G2 X-50.109 Y-4.55 I2.045 J-1.839
G1 X-43
G2 X-40.25 Y-7.3 I0 J-2.75
G1 X-40.243 Y-7.346
X-40.221 Y-7.388
X-40.188 Y-7.421
X-40.146 Y-7.443
X-40.1 Y-7.45
X-39.95
X-39.904 Z-0.993
X-39.862 Z-0.971
X-39.829 Z-0.938
X-39.807 Z-0.896
X-39.8 Z-0.85
Z5
Y-7.15
Z0.5 F300
Z-1.35
X-39.807 Z-1.396 F400
X-39.829 Z-1.438
X-39.862 Z-1.471
X-39.904 Z-1.493
X-39.95 Z-1.5
X-40.1
X-40.146 Y-7.157
X-40.188 Y-7.179
X-40.221 Y-7.212
X-40.243 Y-7.254
X-40.25 Y-7.3
Y-23.3 F600
G2 X-43 Y-26.05 I-2.75 J0
G1 X-50.453
G3 X-51.089 Y-26.224 I0 J-1.25
G1 X-66.582 Y-35.388
G2 X-72.532 Y-28.124 I-2.418 J4.088
G1 X-52.154 Y-5.461
G2 X-50.109 Y-4.55 I2.045 J-1.839
G1 X-43
G2 X-40.25 Y-7.3 I0 J-2.75
G1 X-40.243 Y-7.346
X-40.221 Y-7.388
X-40.188 Y-7.421
X-40.146 Y-7.443
X-40.1 Y-7.45
X-39.95
X-39.904 Z-1.493
X-39.862 Z-1.471
X-39.829 Z-1.438
X-39.807 Z-1.396
X-39.8 Z-1.35
Z5
Y-7.15
Z0 F300
Z-1.85
X-39.807 Z-1.896 F400
X-39.829 Z-1.938
X-39.862 Z-1.971
X-39.904 Z-1.993
X-39.95 Z-2
X-40.1
X-40.146 Y-7.157
X-40.188 Y-7.179
X-40.221 Y-7.212
X-40.243 Y-7.254
X-40.25 Y-7.3
Y-23.3 F600
G2 X-43 Y-26.05 I-2.75 J0
G1 X-50.453
G3 X-51.089 Y-26.224 I0 J-1.25
G1 X-66.582 Y-35.388
G2 X-72.532 Y-28.124 I-2.418 J4.088
G1 X-52.154 Y-5.461
G2 X-50.109 Y-4.55 I2.045 J-1.839
G1 X-43
G2 X-40.25 Y-7.3 I0 J-2.75
G1 X-40.243 Y-7.346
X-40.221 Y-7.388
X-40.188 Y-7.421
X-40.146 Y-7.443
X-40.1 Y-7.45
X-39.95
X-39.904 Z-1.993
X-39.862 Z-1.971
X-39.829 Z-1.938
X-39.807 Z-1.896
X-39.8 Z-1.85
Z5
Y-7.15
Z-0.5 F300
Z-2.35
X-39.807 Z-2.396 F400
X-39.829 Z-2.438
X-39.862 Z-2.471
X-39.904 Z-2.493
X-39.95 Z-2.5
X-40.1
X-40.146 Y-7.157
X-40.188 Y-7.179
X-40.221 Y-7.212
X-40.243 Y-7.254
X-40.25 Y-7.3
Y-23.3 F600
G2 X-43 Y-26.05 I-2.75 J0
G1 X-50.453
G3 X-51.089 Y-26.224 I0 J-1.25
G1 X-66.582 Y-35.388
G2 X-72.532 Y-28.124 I-2.418 J4.088
G1 X-64.182 Y-18.837
Z-2
X-60.504 Y-14.748
Z-2.5 F300
X-52.154 Y-5.461 F600
G2 X-50.109 Y-4.55 I2.045 J-1.839
G1 X-43
G2 X-40.25 Y-7.3 I0 J-2.75
G1 X-40.243 Y-7.346
X-40.221 Y-7.388
X-40.188 Y-7.421
X-40.146 Y-7.443
X-40.1 Y-7.45
X-39.95
X-39.904 Z-2.493
X-39.862 Z-2.471
X-39.829 Z-2.438
X-39.807 Z-2.396
X-39.8 Z-2.35
Z5
X-32.2 Y-3.15
Z1.5 F300
Z-0.35
X-32.193 Z-0.396 F400
X-32.171 Z-0.438
X-32.138 Z-0.471
X-32.096 Z-0.493
X-32.05 Z-0.5
X-31.9
X-31.854 Y-3.143
X-31.812 Y-3.121
X-31.779 Y-3.088
X-31.757 Y-3.046
X-31.75 Y-3
G2 X-29 Y-0.25 I2.75 J0 F600
G1 X-3
G2 X-0.25 Y-3 I0 J-2.75
G1 Y-27.6
G2 X-3 Y-30.35 I-2.75 J0
G1 X-29
G2 X-31.75 Y-27.6 I0 J2.75
G1 Y-3
X-31.757 Y-2.954
X-31.779 Y-2.912
X-31.812 Y-2.879
X-31.854 Y-2.857
X-31.9 Y-2.85
X-32.05
X-32.096 Z-0.493
X-32.138 Z-0.471
X-32.171 Z-0.438
X-32.193 Z-0.396
X-32.2 Z-0.35
Z5
Y-3.15
Z1 F300
Z-0.85
X-32.193 Z-0.896 F400
X-32.171 Z-0.938
X-32.138 Z-0.971
X-32.096 Z-0.993
X-32.05 Z-1
X-31.9
X-31.854 Y-3.143
X-31.812 Y-3.121
X-31.779 Y-3.088
X-31.757 Y-3.046
X-31.75 Y-3
G2 X-29 Y-0.25 I2.75 J0 F600
G1 X-3
G2 X-0.25 Y-3 I0 J-2.75
G1 Y-27.6
G2 X-3 Y-30.35 I-2.75 J0
G1 X-29
G2 X-31.75 Y-27.6 I0 J2.75
G1 Y-3
X-31.757 Y-2.954
X-31.779 Y-2.912
X-31.812 Y-2.879
X-31.854 Y-2.857
X-31.9 Y-2.85
X-32.05
X-32.096 Z-0.993
X-32.138 Z-0.971
X-32.171 Z-0.938
X-32.193 Z-0.896
X-32.2 Z-0.85
Z5
Y-3.15
Z0.5 F300
Z-1.35
X-32.193 Z-1.396 F400
X-32.171 Z-1.438
X-32.138 Z-1.471
X-32.096 Z-1.493
X-32.05 Z-1.5
X-31.9
X-31.854 Y-3.143
X-31.812 Y-3.121
X-31.779 Y-3.088
X-31.757 Y-3.046
X-31.75 Y-3
G2 X-29 Y-0.25 I2.75 J0 F600
G1 X-3
G2 X-0.25 Y-3 I0 J-2.75
G1 Y-27.6
G2 X-3 Y-30.35 I-2.75 J0
G1 X-29
G2 X-31.75 Y-27.6 I0 J2.75
G1 Y-3
X-31.757 Y-2.954
X-31.779 Y-2.912
X-31.812 Y-2.879
X-31.854 Y-2.857
X-31.9 Y-2.85
X-32.05
X-32.096 Z-1.493
X-32.138 Z-1.471
X-32.171 Z-1.438
X-32.193 Z-1.396
X-32.2 Z-1.35
Z5
Y-3.15
Z0 F300
Z-1.85
X-32.193 Z-1.896 F400
X-32.171 Z-1.938
X-32.138 Z-1.971
X-32.096 Z-1.993
X-32.05 Z-2
X-31.9
X-31.854 Y-3.143
X-31.812 Y-3.121
X-31.779 Y-3.088
X-31.757 Y-3.046
X-31.75 Y-3
G2 X-29 Y-0.25 I2.75 J0 F600
G1 X-3
G2 X-0.25 Y-3 I0 J-2.75
G1 Y-27.6
G2 X-3 Y-30.35 I-2.75 J0
G1 X-29
G2 X-31.75 Y-27.6 I0 J2.75
G1 Y-3
X-31.757 Y-2.954
X-31.779 Y-2.912
X-31.812 Y-2.879
X-31.854 Y-2.857
X-31.9 Y-2.85
X-32.05
X-32.096 Z-1.993
X-32.138 Z-1.971
X-32.171 Z-1.938
X-32.193 Z-1.896
X-32.2 Z-1.85
Z5
Y-3.15
Z-0.5 F300
Z-2.35
X-32.193 Z-2.396 F400
X-32.171 Z-2.438
X-32.138 Z-2.471
X-32.096 Z-2.493
X-32.05 Z-2.5
X-31.9
X-31.854 Y-3.143
X-31.812 Y-3.121
X-31.779 Y-3.088
X-31.757 Y-3.046
X-31.75 Y-3
G2 X-29 Y-0.25 I2.75 J0 F600
G1 X-18.75
Z-2
X-13.25
Z-2.5 F300
X-3 F600
G2 X-0.25 Y-3 I0 J-2.75
G1 Y-27.6
G2 X-3 Y-30.35 I-2.75 J0
G1 X-13.25
Z-2
X-18.75
Z-2.5 F300
X-29 F600
G2 X-31.75 Y-27.6 I0 J2.75
G1 Y-3
X-31.757 Y-2.954
X-31.779 Y-2.912
X-31.812 Y-2.879
X-31.854 Y-2.857
X-31.9 Y-2.85
X-32.05
X-32.096 Z-2.493
X-32.138 Z-2.471
X-32.171 Z-2.438
X-32.193 Z-2.396
X-32.2 Z-2.35
Z15
M5
M30
