(1001)
(Bearbeiten)
(  Hersteller: ChinaCnc)
(  model: 3040T)
(  description: Generic 3-axis)
(T5  D=3.175 CR=0 - ZMIN=-1.2 - Schaftfraser)
G90 G94
G17
G21
G28 G91 Z0
G90

(Bohrfrasen4)
T5
S6000 M3
G54
G0 X-46.206 Y-5.73
Z15
Z2
G1 Z0.317 F1000
G19 G2 Y-6.048 Z0 J-0.318 K0
G1 Y-6.206
G17 G3 X-46 Y-6.412 I0.206 J0
X-46 Y-5.587 Z-0.5 I0 J0.412
X-46 Y-6.413 Z-1 I0 J-0.413
X-45.608 Y-6.127 Z-1.2 I0 J0.413
X-46.392 Y-5.873 I-0.392 J0.127
X-45.608 Y-6.127 I0.392 J-0.127
X-45.74 Y-5.868 I-0.196 J0.064
G1 X-45.891 Y-5.819
X-45.958 Y-5.797 Z-1.192
X-46.022 Y-5.776 Z-1.169
X-46.079 Y-5.757 Z-1.131
X-46.127 Y-5.742 Z-1.08
X-46.163 Y-5.73 Z-1.02
X-46.185 Y-5.723 Z-0.953
X-46.193 Y-5.72 Z-0.882
G0 Z5
X-6.206 Y-5.73
Z2
G1 Z0.317 F1000
G19 G2 Y-6.048 Z0 J-0.318 K0
G1 Y-6.206
G17 G3 X-6 Y-6.412 I0.206 J0
X-6 Y-5.588 Z-0.5 I0 J0.412
X-6 Y-6.412 Z-1 I0 J-0.412
X-5.608 Y-6.127 Z-1.2 I0 J0.412
X-6.392 Y-5.873 I-0.392 J0.127
X-5.608 Y-6.127 I0.392 J-0.127
X-5.74 Y-5.868 I-0.196 J0.064
G1 X-5.891 Y-5.819
X-5.958 Y-5.797 Z-1.192
X-6.022 Y-5.776 Z-1.169
X-6.079 Y-5.757 Z-1.131
X-6.127 Y-5.742 Z-1.08
X-6.163 Y-5.73 Z-1.02
X-6.185 Y-5.723 Z-0.953
X-6.193 Y-5.72 Z-0.882
G0 Z15

(2D-Kontur22)
X-11.257 Y-33.765
Z15
Z5
G1 Z1 F333.3
Z-0.883
X-11.25 Y-33.768 Z-0.953 F1000
X-11.228 Y-33.777 Z-1.02
X-11.193 Y-33.791 Z-1.08
X-11.146 Y-33.81 Z-1.131
X-11.091 Y-33.833 Z-1.169
X-11.028 Y-33.858 Z-1.192
X-10.963 Y-33.885 Z-1.2
X-10.669 Y-34.005
G3 X-10.255 Y-33.832 I0.12 J0.294
G1 X-10.196 Y-33.687
X-10.109 Y-33.453
X-9.943 Y-32.932
X-9.807 Y-32.4
X-9.699 Y-31.845
X-9.617 Y-31.265
X-9.564 Y-30.662
X-9.538 Y-30.019
Y-29.992
G3 X-10.462 Y-30 I-0.462 J-0.008
G1 X-10.468 Y-30.132
X-10.514 Y-30.679
X-10.521 Y-30.752
X-10.59 Y-31.281
X-10.602 Y-31.358
X-10.694 Y-31.869
X-10.711 Y-31.951
X-10.827 Y-32.444
X-10.849 Y-32.529
X-10.989 Y-33.004
X-11.018 Y-33.094
X-11.182 Y-33.55
X-11.219 Y-33.642
X-11.408 Y-34.08
X-11.452 Y-34.174
X-11.667 Y-34.592
X-11.72 Y-34.688
X-11.96 Y-35.086
X-12.022 Y-35.182
X-12.289 Y-35.56
X-12.359 Y-35.652
X-12.653 Y-36.009
X-12.731 Y-36.098
X-13.052 Y-36.434
X-13.136 Y-36.516
X-13.485 Y-36.831
X-13.573 Y-36.905
X-13.95 Y-37.199
X-14.04 Y-37.264
X-14.444 Y-37.537
X-14.534 Y-37.592
X-14.966 Y-37.843
X-15.053 Y-37.891
X-15.513 Y-38.121
X-15.597 Y-38.159
X-16.084 Y-38.368
X-16.162 Y-38.4
X-16.676 Y-38.589
X-16.749 Y-38.614
X-17.288 Y-38.783
X-17.355 Y-38.802
X-17.919 Y-38.953
X-17.982 Y-38.968
X-18.57 Y-39.099
X-18.627 Y-39.111
X-19.239 Y-39.224
X-19.292 Y-39.233
X-19.927 Y-39.329
X-19.974 Y-39.335
X-20.632 Y-39.415
X-20.676 Y-39.419
X-21.355 Y-39.482
X-21.395 Y-39.485
X-22.095 Y-39.531
X-22.132 Y-39.533
X-22.853 Y-39.564
X-22.888 Y-39.565
X-23.628 Y-39.581
X-23.66
X-24.42 Y-39.582
X-24.451 Y-39.581
X-25.231 Y-39.567
X-25.259 Y-39.566
X-26 Y-39.539
X-26.741 Y-39.566
X-26.769 Y-39.567
X-27.549 Y-39.581
X-27.58 Y-39.582
X-28.34 Y-39.581
X-28.372
X-29.112 Y-39.565
X-29.147 Y-39.564
X-29.868 Y-39.533
X-29.905 Y-39.531
X-30.605 Y-39.485
X-30.645 Y-39.482
X-31.324 Y-39.419
X-31.368 Y-39.415
X-32.026 Y-39.335
X-32.073 Y-39.329
X-32.708 Y-39.233
X-32.761 Y-39.224
X-33.373 Y-39.111
X-33.43 Y-39.099
X-34.018 Y-38.968
X-34.081 Y-38.953
X-34.645 Y-38.802
X-34.712 Y-38.783
X-35.251 Y-38.614
X-35.324 Y-38.589
X-35.838 Y-38.4
X-35.916 Y-38.368
X-36.403 Y-38.159
X-36.487 Y-38.121
X-36.947 Y-37.891
X-37.034 Y-37.843
X-37.466 Y-37.592
X-37.556 Y-37.537
X-37.96 Y-37.264
X-38.05 Y-37.199
X-38.427 Y-36.905
X-38.515 Y-36.831
X-38.864 Y-36.516
X-38.948 Y-36.434
X-39.269 Y-36.098
X-39.347 Y-36.009
X-39.641 Y-35.652
X-39.711 Y-35.56
X-39.978 Y-35.182
X-40.04 Y-35.086
X-40.28 Y-34.688
X-40.333 Y-34.592
X-40.548 Y-34.174
X-40.592 Y-34.08
X-40.781 Y-33.642
X-40.818 Y-33.55
X-40.982 Y-33.094
X-41.011 Y-33.004
X-41.151 Y-32.529
X-41.173 Y-32.444
X-41.289 Y-31.951
X-41.306 Y-31.869
X-41.398 Y-31.358
X-41.41 Y-31.281
X-41.479 Y-30.752
X-41.486 Y-30.679
X-41.532 Y-30.132
X-41.537 Y-30
G3 X-42.462 Y-29.992 I-0.463 J0
G1 Y-30.018
X-42.436 Y-30.662
X-42.383 Y-31.265
X-42.301 Y-31.845
X-42.193 Y-32.4
X-42.057 Y-32.932
X-41.891 Y-33.453
X-41.804 Y-33.687
X-41.706 Y-33.927
X-41.601 Y-34.161
X-41.489 Y-34.39
X-41.371 Y-34.613
X-41.245 Y-34.831
X-41.112 Y-35.045
X-40.972 Y-35.253
X-40.824 Y-35.456
X-40.669 Y-35.656
X-40.505 Y-35.85
X-40.333 Y-36.041
X-40.153 Y-36.227
X-39.964 Y-36.41
X-39.766 Y-36.588
X-39.559 Y-36.763
X-39.342 Y-36.934
X-39.116 Y-37.102
X-38.879 Y-37.265
X-38.633 Y-37.425
X-38.376 Y-37.582
X-38.11 Y-37.734
X-37.833 Y-37.883
X-37.546 Y-38.028
X-37.249 Y-38.169
X-36.942 Y-38.306
X-36.625 Y-38.439
X-36.305 Y-38.566
X-35.615 Y-38.815
X-34.895 Y-39.045
X-34.139 Y-39.258
X-33.348 Y-39.456
X-32.523 Y-39.637
X-31.667 Y-39.802
X-30.779 Y-39.952
X-29.861 Y-40.085
X-28.914 Y-40.203
X-27.938 Y-40.306
X-26.934 Y-40.393
X-26 Y-40.459
X-25.066 Y-40.393
X-24.062 Y-40.306
X-23.086 Y-40.203
X-22.139 Y-40.085
X-21.221 Y-39.952
X-20.333 Y-39.802
X-19.477 Y-39.637
X-18.652 Y-39.456
X-17.861 Y-39.258
X-17.105 Y-39.045
X-16.385 Y-38.815
X-15.695 Y-38.566
X-15.375 Y-38.439
X-15.058 Y-38.306
X-14.751 Y-38.169
X-14.454 Y-38.028
X-14.167 Y-37.883
X-13.89 Y-37.734
X-13.624 Y-37.582
X-13.367 Y-37.425
X-13.121 Y-37.265
X-12.884 Y-37.102
X-12.658 Y-36.934
X-12.441 Y-36.763
X-12.234 Y-36.588
X-12.036 Y-36.41
X-11.847 Y-36.227
X-11.667 Y-36.041
X-11.495 Y-35.85
X-11.331 Y-35.656
X-11.176 Y-35.457
X-11.028 Y-35.253
X-10.888 Y-35.045
X-10.755 Y-34.831
X-10.629 Y-34.613
X-10.511 Y-34.39
X-10.399 Y-34.161
X-10.294 Y-33.927
X-10.255 Y-33.832
G3 X-10.429 Y-33.417 I-0.294 J0.12
G1 X-10.723 Y-33.297
X-10.788 Y-33.271 Z-1.192
X-10.85 Y-33.245 Z-1.169
X-10.906 Y-33.222 Z-1.131
X-10.953 Y-33.203 Z-1.08
X-10.988 Y-33.189 Z-1.02
X-11.009 Y-33.18 Z-0.953
X-11.017 Y-33.177 Z-0.883
G0 Z5
X-9.682 Y-16.49
G1 Z1 F333.3
Z-0.883
G19 G3 Y-16.173 Z-1.2 J0.317 K0 F1000
G1 Y-15.855
G17 G3 X-10 Y-15.538 I-0.318 J0
X-10.462 Y-16 I0 J-0.462
G1 X-10.464 Y-16.063
X-10.479 Y-16.445
X-10.488 Y-16.56
X-10.533 Y-16.964
X-10.548 Y-17.065
X-10.623 Y-17.487
X-10.643 Y-17.58
X-10.748 Y-18.017
X-10.771 Y-18.101
X-10.906 Y-18.551
X-10.932 Y-18.631
X-11.096 Y-19.089
X-11.126 Y-19.166
X-11.32 Y-19.628
X-11.354 Y-19.704
X-11.576 Y-20.165
X-11.616 Y-20.242
X-11.867 Y-20.696
X-11.913 Y-20.775
X-12.192 Y-21.217
X-12.246 Y-21.298
X-12.552 Y-21.724
X-12.616 Y-21.806
X-12.949 Y-22.212
X-13.023 Y-22.295
X-13.384 Y-22.676
X-13.468 Y-22.758
X-13.856 Y-23.111
X-13.925 Y-23.171
X-14.129 Y-23.336
X-14.177 Y-23.374
X-14.388 Y-23.531
X-14.438 Y-23.567
X-14.655 Y-23.716
X-14.707 Y-23.751
X-14.93 Y-23.892
X-14.983 Y-23.924
X-15.213 Y-24.057
X-15.265 Y-24.086
X-15.501 Y-24.211
X-15.555 Y-24.238
X-15.797 Y-24.354
X-15.85 Y-24.379
X-16.098 Y-24.488
X-16.175 Y-24.519
X-16.69 Y-24.713
X-16.786 Y-24.746
X-17.325 Y-24.91
X-17.414 Y-24.934
X-17.976 Y-25.071
X-18.054 Y-25.088
X-18.64 Y-25.199
X-18.707 Y-25.211
X-19.315 Y-25.299
X-19.373 Y-25.307
X-20.003 Y-25.375
X-20.05 Y-25.38
X-20.702 Y-25.431
X-20.739 Y-25.434
X-21.414 Y-25.471
X-21.442 Y-25.472
X-22.138 Y-25.499
X-22.16
X-22.877 Y-25.516
X-22.892 Y-25.517
X-23.631 Y-25.527
X-23.641
X-24.402 Y-25.534
X-24.408
X-25.19 Y-25.537
X-25.195
X-25.998
X-26.002
X-26.805
X-26.81
X-27.592 Y-25.534
X-27.598
X-28.359 Y-25.527
X-28.369
X-29.108 Y-25.517
X-29.123 Y-25.516
X-29.84 Y-25.499
X-29.862
X-30.558 Y-25.472
X-30.586 Y-25.471
X-31.261 Y-25.434
X-31.298 Y-25.431
X-31.95 Y-25.38
X-31.997 Y-25.375
X-32.627 Y-25.307
X-32.685 Y-25.299
X-33.293 Y-25.211
X-33.36 Y-25.199
X-33.946 Y-25.088
X-34.024 Y-25.071
X-34.586 Y-24.934
X-34.675 Y-24.91
X-35.214 Y-24.746
X-35.31 Y-24.713
X-35.825 Y-24.519
X-35.902 Y-24.488
X-36.15 Y-24.379
X-36.203 Y-24.354
X-36.445 Y-24.238
X-36.499 Y-24.211
X-36.735 Y-24.086
X-36.787 Y-24.057
X-37.017 Y-23.924
X-37.07 Y-23.892
X-37.293 Y-23.751
X-37.345 Y-23.716
X-37.562 Y-23.567
X-37.612 Y-23.531
X-37.823 Y-23.374
X-37.871 Y-23.336
X-38.075 Y-23.171
X-38.144 Y-23.111
X-38.532 Y-22.758
X-38.616 Y-22.676
X-38.977 Y-22.295
X-39.051 Y-22.212
X-39.384 Y-21.806
X-39.448 Y-21.724
X-39.754 Y-21.298
X-39.808 Y-21.217
X-40.087 Y-20.775
X-40.133 Y-20.696
X-40.384 Y-20.242
X-40.424 Y-20.165
X-40.646 Y-19.704
X-40.68 Y-19.628
X-40.874 Y-19.166
X-40.904 Y-19.089
X-41.068 Y-18.631
X-41.094 Y-18.551
X-41.229 Y-18.101
X-41.252 Y-18.017
X-41.357 Y-17.58
X-41.377 Y-17.487
X-41.452 Y-17.065
X-41.467 Y-16.964
X-41.512 Y-16.56
X-41.521 Y-16.445
X-41.536 Y-16.063
X-41.537 Y-16
G3 X-42.462 Y-15.991 I-0.463 J0
G1 X-42.459 Y-16.195
X-42.449 Y-16.399
X-42.432 Y-16.611
X-42.408 Y-16.832
X-42.376 Y-17.06
X-42.339 Y-17.286
X-42.236 Y-17.786
X-42.103 Y-18.297
X-41.939 Y-18.821
X-41.743 Y-19.354
X-41.515 Y-19.888
X-41.25 Y-20.429
X-41.113 Y-20.682
X-40.963 Y-20.941
X-40.805 Y-21.196
X-40.64 Y-21.447
X-40.466 Y-21.693
X-40.284 Y-21.935
X-40.094 Y-22.17
X-39.896 Y-22.4
X-39.69 Y-22.624
X-39.476 Y-22.842
X-39.253 Y-23.053
X-39.021 Y-23.258
X-38.781 Y-23.456
X-38.532 Y-23.648
X-38.274 Y-23.833
X-38.007 Y-24.012
X-37.73 Y-24.184
X-37.445 Y-24.349
X-37.149 Y-24.508
X-36.845 Y-24.66
X-36.53 Y-24.806
X-36.207 Y-24.945
X-35.874 Y-25.077
X-35.531 Y-25.203
X-35.18 Y-25.322
X-34.819 Y-25.435
X-34.45 Y-25.541
X-34.079 Y-25.639
X-33.289 Y-25.822
X-32.475 Y-25.978
X-31.63 Y-26.111
X-30.756 Y-26.221
X-29.854 Y-26.31
X-28.926 Y-26.377
X-27.974 Y-26.425
X-26.998 Y-26.453
X-26 Y-26.462
X-25.002 Y-26.453
X-24.026 Y-26.425
X-23.074 Y-26.377
X-22.146 Y-26.31
X-21.244 Y-26.221
X-20.37 Y-26.111
X-19.525 Y-25.978
X-18.711 Y-25.822
X-17.921 Y-25.639
X-17.55 Y-25.541
X-17.181 Y-25.435
X-16.82 Y-25.322
X-16.469 Y-25.203
X-16.126 Y-25.077
X-15.793 Y-24.945
X-15.47 Y-24.806
X-15.155 Y-24.66
X-14.851 Y-24.508
X-14.555 Y-24.349
X-14.27 Y-24.184
X-13.993 Y-24.012
X-13.726 Y-23.833
X-13.468 Y-23.648
X-13.219 Y-23.456
X-12.979 Y-23.258
X-12.747 Y-23.053
X-12.524 Y-22.842
X-12.31 Y-22.624
X-12.104 Y-22.4
X-11.906 Y-22.17
X-11.716 Y-21.935
X-11.534 Y-21.693
X-11.36 Y-21.447
X-11.195 Y-21.196
X-11.037 Y-20.941
X-10.887 Y-20.682
X-10.75 Y-20.429
X-10.485 Y-19.888
X-10.257 Y-19.354
X-10.061 Y-18.821
X-9.897 Y-18.297
X-9.764 Y-17.786
X-9.661 Y-17.286
X-9.624 Y-17.06
X-9.592 Y-16.832
X-9.568 Y-16.611
X-9.551 Y-16.399
X-9.541 Y-16.195
X-9.538 Y-15.991
G3 X-10 Y-15.538 I-0.462 J-0.009
X-10.317 Y-15.855 I0 J-0.317
G1 Y-16.173
G19 G2 Y-16.49 Z-0.883 J0 K0.318
G0 Z5
X-9.682 Y-44.49
G1 Z1 F333.3
Z-0.883
G3 Y-44.173 Z-1.2 J0.318 K0 F1000
G1 Y-43.855
G17 G3 X-10 Y-43.537 I-0.318 J0
X-10.462 Y-44 I0 J-0.463
G1 X-10.468 Y-44.132
X-10.514 Y-44.679
X-10.521 Y-44.752
X-10.59 Y-45.281
X-10.602 Y-45.358
X-10.694 Y-45.869
X-10.711 Y-45.951
X-10.827 Y-46.444
X-10.849 Y-46.529
X-10.989 Y-47.004
X-11.018 Y-47.094
X-11.182 Y-47.55
X-11.219 Y-47.642
X-11.408 Y-48.08
X-11.452 Y-48.174
X-11.667 Y-48.592
X-11.72 Y-48.688
X-11.96 Y-49.086
X-12.022 Y-49.182
X-12.289 Y-49.56
X-12.359 Y-49.652
X-12.653 Y-50.009
X-12.731 Y-50.098
X-13.052 Y-50.434
X-13.136 Y-50.516
X-13.485 Y-50.831
X-13.573 Y-50.905
X-13.95 Y-51.199
X-14.04 Y-51.264
X-14.444 Y-51.537
X-14.534 Y-51.592
X-14.966 Y-51.843
X-15.053 Y-51.891
X-15.513 Y-52.121
X-15.597 Y-52.159
X-16.084 Y-52.368
X-16.162 Y-52.4
X-16.676 Y-52.589
X-16.749 Y-52.614
X-17.288 Y-52.783
X-17.355 Y-52.802
X-17.919 Y-52.953
X-17.982 Y-52.968
X-18.57 Y-53.099
X-18.627 Y-53.111
X-19.239 Y-53.224
X-19.292 Y-53.233
X-19.927 Y-53.329
X-19.974 Y-53.335
X-20.632 Y-53.415
X-20.676 Y-53.419
X-21.355 Y-53.482
X-21.395 Y-53.485
X-22.095 Y-53.531
X-22.132 Y-53.533
X-22.853 Y-53.564
X-22.888 Y-53.565
X-23.628 Y-53.581
X-23.66
X-24.42 Y-53.582
X-24.451 Y-53.581
X-25.231 Y-53.567
X-25.259 Y-53.566
X-26 Y-53.539
X-26.741 Y-53.566
X-26.769 Y-53.567
X-27.549 Y-53.581
X-27.58 Y-53.582
X-28.34 Y-53.581
X-28.372
X-29.112 Y-53.565
X-29.147 Y-53.564
X-29.868 Y-53.533
X-29.905 Y-53.531
X-30.605 Y-53.485
X-30.645 Y-53.482
X-31.324 Y-53.419
X-31.368 Y-53.415
X-32.026 Y-53.335
X-32.073 Y-53.329
X-32.708 Y-53.233
X-32.761 Y-53.224
X-33.373 Y-53.111
X-33.43 Y-53.099
X-34.018 Y-52.968
X-34.081 Y-52.953
X-34.645 Y-52.802
X-34.712 Y-52.783
X-35.251 Y-52.614
X-35.324 Y-52.589
X-35.838 Y-52.4
X-35.916 Y-52.368
X-36.403 Y-52.159
X-36.487 Y-52.121
X-36.947 Y-51.891
X-37.034 Y-51.843
X-37.466 Y-51.592
X-37.556 Y-51.537
X-37.96 Y-51.264
X-38.05 Y-51.199
X-38.427 Y-50.905
X-38.515 Y-50.831
X-38.864 Y-50.516
X-38.948 Y-50.434
X-39.269 Y-50.098
X-39.347 Y-50.009
X-39.641 Y-49.652
X-39.711 Y-49.56
X-39.978 Y-49.182
X-40.04 Y-49.086
X-40.28 Y-48.688
X-40.333 Y-48.592
X-40.548 Y-48.174
X-40.592 Y-48.08
X-40.781 Y-47.642
X-40.818 Y-47.55
X-40.982 Y-47.094
X-41.011 Y-47.004
X-41.151 Y-46.529
X-41.173 Y-46.444
X-41.289 Y-45.951
X-41.306 Y-45.869
X-41.398 Y-45.358
X-41.41 Y-45.281
X-41.479 Y-44.752
X-41.486 Y-44.679
X-41.532 Y-44.132
X-41.537 Y-44
G3 X-42.462 Y-43.992 I-0.463 J0
G1 Y-44.018
X-42.436 Y-44.662
X-42.383 Y-45.265
X-42.301 Y-45.845
X-42.193 Y-46.4
X-42.057 Y-46.932
X-41.891 Y-47.453
X-41.804 Y-47.687
X-41.706 Y-47.927
X-41.601 Y-48.161
X-41.489 Y-48.39
X-41.371 Y-48.613
X-41.245 Y-48.831
X-41.112 Y-49.045
X-40.972 Y-49.253
X-40.824 Y-49.456
X-40.669 Y-49.656
X-40.505 Y-49.85
X-40.333 Y-50.041
X-40.153 Y-50.227
X-39.964 Y-50.41
X-39.766 Y-50.588
X-39.559 Y-50.763
X-39.342 Y-50.934
X-39.116 Y-51.102
X-38.879 Y-51.265
X-38.633 Y-51.425
X-38.376 Y-51.582
X-38.11 Y-51.734
X-37.833 Y-51.883
X-37.546 Y-52.028
X-37.249 Y-52.169
X-36.942 Y-52.306
X-36.625 Y-52.439
X-36.305 Y-52.566
X-35.615 Y-52.815
X-34.895 Y-53.045
X-34.139 Y-53.258
X-33.348 Y-53.456
X-32.523 Y-53.637
X-31.667 Y-53.802
X-30.779 Y-53.952
X-29.861 Y-54.085
X-28.914 Y-54.203
X-27.938 Y-54.306
X-26.934 Y-54.393
X-26 Y-54.459
X-25.066 Y-54.393
X-24.062 Y-54.306
X-23.086 Y-54.203
X-22.139 Y-54.085
X-21.221 Y-53.952
X-20.333 Y-53.802
X-19.477 Y-53.637
X-18.652 Y-53.456
X-17.861 Y-53.258
X-17.105 Y-53.045
X-16.385 Y-52.815
X-15.695 Y-52.566
X-15.375 Y-52.439
X-15.058 Y-52.306
X-14.751 Y-52.169
X-14.454 Y-52.028
X-14.167 Y-51.883
X-13.89 Y-51.734
X-13.624 Y-51.582
X-13.367 Y-51.425
X-13.121 Y-51.265
X-12.884 Y-51.102
X-12.658 Y-50.934
X-12.441 Y-50.763
X-12.234 Y-50.588
X-12.036 Y-50.41
X-11.847 Y-50.227
X-11.667 Y-50.041
X-11.495 Y-49.85
X-11.331 Y-49.656
X-11.176 Y-49.457
X-11.028 Y-49.253
X-10.888 Y-49.045
X-10.755 Y-48.831
X-10.629 Y-48.613
X-10.511 Y-48.39
X-10.399 Y-48.161
X-10.294 Y-47.927
X-10.196 Y-47.687
X-10.109 Y-47.453
X-9.943 Y-46.932
X-9.807 Y-46.4
X-9.699 Y-45.845
X-9.617 Y-45.265
X-9.564 Y-44.662
X-9.538 Y-44.019
Y-43.992
G3 X-10 Y-43.537 I-0.462 J-0.008
X-10.318 Y-43.855 I0 J-0.318
G1 Y-44.173
G19 G2 X-10.317 Y-44.49 Z-0.883 J0 K0.318
G0 Z15
G17

(2D-Kontur24)
G0 X1.54 Y-1.683
Z15
Z5
G1 Z1 F333.3
Z-0.883
G18 G3 X1.222 Z-1.2 I-0.317 K0 F1000
G1 X0.905
G17 G3 X0.587 Y-2 I0 J-0.317
G1 Y-34.912
Z-0.406
Y-43.088
Z-1.2 F333.3
Y-108.912 F1000
Z-0.406
Y-117.088
Z-1.2 F333.3
Y-150 F1000
G2 X-2 Y-152.587 I-2.587 J0
G1 X-50
G2 X-52.588 Y-150 I0 J2.587
G1 Y-117.088
Z-0.406
Y-108.912
Z-1.2 F333.3
Y-43.088 F1000
Z-0.406
Y-34.912
Z-1.2 F333.3
Y-2 F1000
G2 X-50 Y0.587 I2.588 J0
G1 X-2
G2 X0.587 Y-2 I0 J-2.587
G3 X0.905 Y-2.318 I0.317 J0
G1 X1.222
G18 G2 X1.54 Z-0.883 I0 K0.318
G0 Z15
G17
G28 G91 Z0
G90
G28 G91 X0 Y0
G90
M5
M30
