(1001)
(T14  D=1.5 CR=0 - ZMIN=-1.8 - Schaftfraser)
G90 G94
G17
G21
G28 G91 Z0
G90

(2D-Kontur1)
T14
S8000 M3
G54
G0 X43.8 Y-126.881
Z15
Z5
G1 Z1.25 F300
Z-0.1
X43.807 Z-0.146 F400
X43.829 Z-0.188
X43.862 Z-0.221
X43.904 Z-0.243
X43.95 Z-0.25
X44.1
X44.146 Y-126.874
X44.188 Y-126.852
X44.221 Y-126.819
X44.243 Y-126.777
X44.25 Y-126.731
G3 X10.75 Y-126.731 I-16.75 J0 F600
X44.25 Y-126.731 I16.75 J0
G1 X44.243 Y-126.685
X44.221 Y-126.643
X44.188 Y-126.61
X44.146 Y-126.588
X44.1 Y-126.581
X43.95
X43.904 Z-0.243
X43.862 Z-0.221
X43.829 Z-0.188
X43.807 Z-0.146
X43.8 Z-0.1
G0 Z5
Y-126.881
G1 Z1 F300
Z-0.35
X43.807 Z-0.396 F400
X43.829 Z-0.438
X43.862 Z-0.471
X43.904 Z-0.493
X43.95 Z-0.5
X44.1
X44.146 Y-126.874
X44.188 Y-126.852
X44.221 Y-126.819
X44.243 Y-126.777
X44.25 Y-126.731
G3 X10.75 Y-126.731 I-16.75 J0 F600
X44.25 Y-126.731 I16.75 J0
G1 X44.243 Y-126.685
X44.221 Y-126.643
X44.188 Y-126.61
X44.146 Y-126.588
X44.1 Y-126.581
X43.95
X43.904 Z-0.493
X43.862 Z-0.471
X43.829 Z-0.438
X43.807 Z-0.396
X43.8 Z-0.35
G0 Z5
Y-126.881
G1 Z0.75 F300
Z-0.6
X43.807 Z-0.646 F400
X43.829 Z-0.688
X43.862 Z-0.721
X43.904 Z-0.743
X43.95 Z-0.75
X44.1
X44.146 Y-126.874
X44.188 Y-126.852
X44.221 Y-126.819
X44.243 Y-126.777
X44.25 Y-126.731
G3 X10.75 Y-126.731 I-16.75 J0 F600
X44.25 Y-126.731 I16.75 J0
G1 X44.243 Y-126.685
X44.221 Y-126.643
X44.188 Y-126.61
X44.146 Y-126.588
X44.1 Y-126.581
X43.95
X43.904 Z-0.743
X43.862 Z-0.721
X43.829 Z-0.688
X43.807 Z-0.646
X43.8 Z-0.6
G0 Z5
Y-126.881
G1 Z0.5 F300
Z-0.85
X43.807 Z-0.896 F400
X43.829 Z-0.938
X43.862 Z-0.971
X43.904 Z-0.993
X43.95 Z-1
X44.1
X44.146 Y-126.874
X44.188 Y-126.852
X44.221 Y-126.819
X44.243 Y-126.777
X44.25 Y-126.731
G3 X10.75 Y-126.731 I-16.75 J0 F600
X44.25 Y-126.731 I16.75 J0
G1 X44.243 Y-126.685
X44.221 Y-126.643
X44.188 Y-126.61
X44.146 Y-126.588
X44.1 Y-126.581
X43.95
X43.904 Z-0.993
X43.862 Z-0.971
X43.829 Z-0.938
X43.807 Z-0.896
X43.8 Z-0.85
G0 Z5
Y-126.881
G1 Z0.25 F300
Z-1.1
X43.807 Z-1.146 F400
X43.829 Z-1.188
X43.862 Z-1.221
X43.904 Z-1.243
X43.95 Z-1.25
X44.1
X44.146 Y-126.874
X44.188 Y-126.852
X44.221 Y-126.819
X44.243 Y-126.777
X44.25 Y-126.731
G3 X10.75 Y-126.731 I-16.75 J0 F600
X44.25 Y-126.731 I16.75 J0
G1 X44.243 Y-126.685
X44.221 Y-126.643
X44.188 Y-126.61
X44.146 Y-126.588
X44.1 Y-126.581
X43.95
X43.904 Z-1.243
X43.862 Z-1.221
X43.829 Z-1.188
X43.807 Z-1.146
X43.8 Z-1.1
G0 Z5
Y-126.881
G1 Z0 F300
Z-1.35
X43.807 Z-1.396 F400
X43.829 Z-1.438
X43.862 Z-1.471
X43.904 Z-1.493
X43.95 Z-1.5
X44.1
X44.146 Y-126.874
X44.188 Y-126.852
X44.221 Y-126.819
X44.243 Y-126.777
X44.25 Y-126.731
G3 X10.75 Y-126.731 I-16.75 J0 F600
X44.25 Y-126.731 I16.75 J0
G1 X44.243 Y-126.685
X44.221 Y-126.643
X44.188 Y-126.61
X44.146 Y-126.588
X44.1 Y-126.581
X43.95
X43.904 Z-1.493
X43.862 Z-1.471
X43.829 Z-1.438
X43.807 Z-1.396
X43.8 Z-1.35
G0 Z5
Y-126.881
G1 Z-0.25 F300
Z-1.5
X43.807 Z-1.546 F400
X43.829 Z-1.588
X43.862 Z-1.621
X43.904 Z-1.643
X43.95 Z-1.65
X44.1
X44.146 Y-126.874
X44.188 Y-126.852
X44.221 Y-126.819
X44.243 Y-126.777
X44.25 Y-126.731
G3 X10.75 Y-126.731 I-16.75 J0 F600
X44.25 Y-126.731 I16.75 J0
G1 X44.243 Y-126.685
X44.221 Y-126.643
X44.188 Y-126.61
X44.146 Y-126.588
X44.1 Y-126.581
X43.95
X43.904 Z-1.643
X43.862 Z-1.621
X43.829 Z-1.588
X43.807 Z-1.546
X43.8 Z-1.5
G0 Z5
Y-126.881
G1 Z-0.4 F300
Z-1.65
X43.807 Z-1.696 F400
X43.829 Z-1.738
X43.862 Z-1.771
X43.904 Z-1.793
X43.95 Z-1.8
X44.1
X44.146 Y-126.874
X44.188 Y-126.852
X44.221 Y-126.819
X44.243 Y-126.777
X44.25 Y-126.731
G3 X10.75 Y-126.731 I-16.75 J0 F600
X44.25 Y-126.731 I16.75 J0
G1 X44.243 Y-126.685
X44.221 Y-126.643
X44.188 Y-126.61
X44.146 Y-126.588
X44.1 Y-126.581
X43.95
X43.904 Z-1.793
X43.862 Z-1.771
X43.829 Z-1.738
X43.807 Z-1.696
X43.8 Z-1.65
G0 Z5
X33.8 Y-161.881
G1 Z1.25 F300
Z-0.1
X33.807 Z-0.146 F400
X33.829 Z-0.188
X33.862 Z-0.221
X33.904 Z-0.243
X33.95 Z-0.25
X34.1
X34.146 Y-161.874
X34.188 Y-161.852
X34.221 Y-161.819
X34.243 Y-161.777
X34.25 Y-161.731
G3 X10.75 Y-161.731 I-11.75 J0 F600
X34.25 Y-161.731 I11.75 J0
G1 X34.243 Y-161.685
X34.221 Y-161.643
X34.188 Y-161.61
X34.146 Y-161.588
X34.1 Y-161.581
X33.95
X33.904 Z-0.243
X33.862 Z-0.221
X33.829 Z-0.188
X33.807 Z-0.146
X33.8 Z-0.1
G0 Z5
Y-161.881
G1 Z1 F300
Z-0.35
X33.807 Z-0.396 F400
X33.829 Z-0.438
X33.862 Z-0.471
X33.904 Z-0.493
X33.95 Z-0.5
X34.1
X34.146 Y-161.874
X34.188 Y-161.852
X34.221 Y-161.819
X34.243 Y-161.777
X34.25 Y-161.731
G3 X10.75 Y-161.731 I-11.75 J0 F600
X34.25 Y-161.731 I11.75 J0
G1 X34.243 Y-161.685
X34.221 Y-161.643
X34.188 Y-161.61
X34.146 Y-161.588
X34.1 Y-161.581
X33.95
X33.904 Z-0.493
X33.862 Z-0.471
X33.829 Z-0.438
X33.807 Z-0.396
X33.8 Z-0.35
G0 Z5
Y-161.881
G1 Z0.75 F300
Z-0.6
X33.807 Z-0.646 F400
X33.829 Z-0.688
X33.862 Z-0.721
X33.904 Z-0.743
X33.95 Z-0.75
X34.1
X34.146 Y-161.874
X34.188 Y-161.852
X34.221 Y-161.819
X34.243 Y-161.777
X34.25 Y-161.731
G3 X10.75 Y-161.731 I-11.75 J0 F600
X34.25 Y-161.731 I11.75 J0
G1 X34.243 Y-161.685
X34.221 Y-161.643
X34.188 Y-161.61
X34.146 Y-161.588
X34.1 Y-161.581
X33.95
X33.904 Z-0.743
X33.862 Z-0.721
X33.829 Z-0.688
X33.807 Z-0.646
X33.8 Z-0.6
G0 Z5
Y-161.881
G1 Z0.5 F300
Z-0.85
X33.807 Z-0.896 F400
X33.829 Z-0.938
X33.862 Z-0.971
X33.904 Z-0.993
X33.95 Z-1
X34.1
X34.146 Y-161.874
X34.188 Y-161.852
X34.221 Y-161.819
X34.243 Y-161.777
X34.25 Y-161.731
G3 X10.75 Y-161.731 I-11.75 J0 F600
X34.25 Y-161.731 I11.75 J0
G1 X34.243 Y-161.685
X34.221 Y-161.643
X34.188 Y-161.61
X34.146 Y-161.588
X34.1 Y-161.581
X33.95
X33.904 Z-0.993
X33.862 Z-0.971
X33.829 Z-0.938
X33.807 Z-0.896
X33.8 Z-0.85
G0 Z5
Y-161.881
G1 Z0.25 F300
Z-1.1
X33.807 Z-1.146 F400
X33.829 Z-1.188
X33.862 Z-1.221
X33.904 Z-1.243
X33.95 Z-1.25
X34.1
X34.146 Y-161.874
X34.188 Y-161.852
X34.221 Y-161.819
X34.243 Y-161.777
X34.25 Y-161.731
G3 X10.75 Y-161.731 I-11.75 J0 F600
X34.25 Y-161.731 I11.75 J0
G1 X34.243 Y-161.685
X34.221 Y-161.643
X34.188 Y-161.61
X34.146 Y-161.588
X34.1 Y-161.581
X33.95
X33.904 Z-1.243
X33.862 Z-1.221
X33.829 Z-1.188
X33.807 Z-1.146
X33.8 Z-1.1
G0 Z5
Y-161.881
G1 Z0 F300
Z-1.35
X33.807 Z-1.396 F400
X33.829 Z-1.438
X33.862 Z-1.471
X33.904 Z-1.493
X33.95 Z-1.5
X34.1
X34.146 Y-161.874
X34.188 Y-161.852
X34.221 Y-161.819
X34.243 Y-161.777
X34.25 Y-161.731
G3 X10.75 Y-161.731 I-11.75 J0 F600
X34.25 Y-161.731 I11.75 J0
G1 X34.243 Y-161.685
X34.221 Y-161.643
X34.188 Y-161.61
X34.146 Y-161.588
X34.1 Y-161.581
X33.95
X33.904 Z-1.493
X33.862 Z-1.471
X33.829 Z-1.438
X33.807 Z-1.396
X33.8 Z-1.35
G0 Z5
Y-161.881
G1 Z-0.25 F300
Z-1.5
X33.807 Z-1.546 F400
X33.829 Z-1.588
X33.862 Z-1.621
X33.904 Z-1.643
X33.95 Z-1.65
X34.1
X34.146 Y-161.874
X34.188 Y-161.852
X34.221 Y-161.819
X34.243 Y-161.777
X34.25 Y-161.731
G3 X10.75 Y-161.731 I-11.75 J0 F600
X34.25 Y-161.731 I11.75 J0
G1 X34.243 Y-161.685
X34.221 Y-161.643
X34.188 Y-161.61
X34.146 Y-161.588
X34.1 Y-161.581
X33.95
X33.904 Z-1.643
X33.862 Z-1.621
X33.829 Z-1.588
X33.807 Z-1.546
X33.8 Z-1.5
G0 Z5
Y-161.881
G1 Z-0.4 F300
Z-1.65
X33.807 Z-1.696 F400
X33.829 Z-1.738
X33.862 Z-1.771
X33.904 Z-1.793
X33.95 Z-1.8
X34.1
X34.146 Y-161.874
X34.188 Y-161.852
X34.221 Y-161.819
X34.243 Y-161.777
X34.25 Y-161.731
G3 X10.75 Y-161.731 I-11.75 J0 F600
X34.25 Y-161.731 I11.75 J0
G1 X34.243 Y-161.685
X34.221 Y-161.643
X34.188 Y-161.61
X34.146 Y-161.588
X34.1 Y-161.581
X33.95
X33.904 Z-1.793
X33.862 Z-1.771
X33.829 Z-1.738
X33.807 Z-1.696
X33.8 Z-1.65
G0 Z5
X23.8 Y-186.881
G1 Z1.25 F300
Z-0.1
X23.807 Z-0.146 F400
X23.829 Z-0.188
X23.862 Z-0.221
X23.904 Z-0.243
X23.95 Z-0.25
X24.1
X24.146 Y-186.874
X24.188 Y-186.852
X24.221 Y-186.819
X24.243 Y-186.777
X24.25 Y-186.731
G3 X10.75 Y-186.731 I-6.75 J0 F600
X24.25 Y-186.731 I6.75 J0
G1 X24.243 Y-186.685
X24.221 Y-186.643
X24.188 Y-186.61
X24.146 Y-186.588
X24.1 Y-186.581
X23.95
X23.904 Z-0.243
X23.862 Z-0.221
X23.829 Z-0.188
X23.807 Z-0.146
X23.8 Z-0.1
G0 Z5
Y-186.881
G1 Z1 F300
Z-0.35
X23.807 Z-0.396 F400
X23.829 Z-0.438
X23.862 Z-0.471
X23.904 Z-0.493
X23.95 Z-0.5
X24.1
X24.146 Y-186.874
X24.188 Y-186.852
X24.221 Y-186.819
X24.243 Y-186.777
X24.25 Y-186.731
G3 X10.75 Y-186.731 I-6.75 J0 F600
X24.25 Y-186.731 I6.75 J0
G1 X24.243 Y-186.685
X24.221 Y-186.643
X24.188 Y-186.61
X24.146 Y-186.588
X24.1 Y-186.581
X23.95
X23.904 Z-0.493
X23.862 Z-0.471
X23.829 Z-0.438
X23.807 Z-0.396
X23.8 Z-0.35
G0 Z5
Y-186.881
G1 Z0.75 F300
Z-0.6
X23.807 Z-0.646 F400
X23.829 Z-0.688
X23.862 Z-0.721
X23.904 Z-0.743
X23.95 Z-0.75
X24.1
X24.146 Y-186.874
X24.188 Y-186.852
X24.221 Y-186.819
X24.243 Y-186.777
X24.25 Y-186.731
G3 X10.75 Y-186.731 I-6.75 J0 F600
X24.25 Y-186.731 I6.75 J0
G1 X24.243 Y-186.685
X24.221 Y-186.643
X24.188 Y-186.61
X24.146 Y-186.588
X24.1 Y-186.581
X23.95
X23.904 Z-0.743
X23.862 Z-0.721
X23.829 Z-0.688
X23.807 Z-0.646
X23.8 Z-0.6
G0 Z5
Y-186.881
G1 Z0.5 F300
Z-0.85
X23.807 Z-0.896 F400
X23.829 Z-0.938
X23.862 Z-0.971
X23.904 Z-0.993
X23.95 Z-1
X24.1
X24.146 Y-186.874
X24.188 Y-186.852
X24.221 Y-186.819
X24.243 Y-186.777
X24.25 Y-186.731
G3 X10.75 Y-186.731 I-6.75 J0 F600
X24.25 Y-186.731 I6.75 J0
G1 X24.243 Y-186.685
X24.221 Y-186.643
X24.188 Y-186.61
X24.146 Y-186.588
X24.1 Y-186.581
X23.95
X23.904 Z-0.993
X23.862 Z-0.971
X23.829 Z-0.938
X23.807 Z-0.896
X23.8 Z-0.85
G0 Z5
Y-186.881
G1 Z0.25 F300
Z-1.1
X23.807 Z-1.146 F400
X23.829 Z-1.188
X23.862 Z-1.221
X23.904 Z-1.243
X23.95 Z-1.25
X24.1
X24.146 Y-186.874
X24.188 Y-186.852
X24.221 Y-186.819
X24.243 Y-186.777
X24.25 Y-186.731
G3 X10.75 Y-186.731 I-6.75 J0 F600
X24.25 Y-186.731 I6.75 J0
G1 X24.243 Y-186.685
X24.221 Y-186.643
X24.188 Y-186.61
X24.146 Y-186.588
X24.1 Y-186.581
X23.95
X23.904 Z-1.243
X23.862 Z-1.221
X23.829 Z-1.188
X23.807 Z-1.146
X23.8 Z-1.1
G0 Z5
Y-186.881
G1 Z0 F300
Z-1.35
X23.807 Z-1.396 F400
X23.829 Z-1.438
X23.862 Z-1.471
X23.904 Z-1.493
X23.95 Z-1.5
X24.1
X24.146 Y-186.874
X24.188 Y-186.852
X24.221 Y-186.819
X24.243 Y-186.777
X24.25 Y-186.731
G3 X10.75 Y-186.731 I-6.75 J0 F600
X24.25 Y-186.731 I6.75 J0
G1 X24.243 Y-186.685
X24.221 Y-186.643
X24.188 Y-186.61
X24.146 Y-186.588
X24.1 Y-186.581
X23.95
X23.904 Z-1.493
X23.862 Z-1.471
X23.829 Z-1.438
X23.807 Z-1.396
X23.8 Z-1.35
G0 Z5
Y-186.881
G1 Z-0.25 F300
Z-1.5
X23.807 Z-1.546 F400
X23.829 Z-1.588
X23.862 Z-1.621
X23.904 Z-1.643
X23.95 Z-1.65
X24.1
X24.146 Y-186.874
X24.188 Y-186.852
X24.221 Y-186.819
X24.243 Y-186.777
X24.25 Y-186.731
G3 X10.75 Y-186.731 I-6.75 J0 F600
X24.25 Y-186.731 I6.75 J0
G1 X24.243 Y-186.685
X24.221 Y-186.643
X24.188 Y-186.61
X24.146 Y-186.588
X24.1 Y-186.581
X23.95
X23.904 Z-1.643
X23.862 Z-1.621
X23.829 Z-1.588
X23.807 Z-1.546
X23.8 Z-1.5
G0 Z5
Y-186.881
G1 Z-0.4 F300
Z-1.65
X23.807 Z-1.696 F400
X23.829 Z-1.738
X23.862 Z-1.771
X23.904 Z-1.793
X23.95 Z-1.8
X24.1
X24.146 Y-186.874
X24.188 Y-186.852
X24.221 Y-186.819
X24.243 Y-186.777
X24.25 Y-186.731
G3 X10.75 Y-186.731 I-6.75 J0 F600
X24.25 Y-186.731 I6.75 J0
G1 X24.243 Y-186.685
X24.221 Y-186.643
X24.188 Y-186.61
X24.146 Y-186.588
X24.1 Y-186.581
X23.95
X23.904 Z-1.793
X23.862 Z-1.771
X23.829 Z-1.738
X23.807 Z-1.696
X23.8 Z-1.65
G0 Z5
X43.799 Y-59.44
G1 Z1.25 F300
Z-0.1
X43.806 Z-0.146 F400
X43.827 Y-59.439 Z-0.188
X43.861 Y-59.438 Z-0.221
X43.902 Y-59.437 Z-0.243
X43.949 Y-59.436 Z-0.25
X44.099 Y-59.432
X44.145 Y-59.424
X44.186 Y-59.402
X44.218 Y-59.368
X44.239 Y-59.325
X44.245 Y-59.279
G3 X10.755 Y-60.101 I-16.745 J-0.411 F600
X44.245 Y-59.279 I16.745 J0.411
G1 X44.236 Y-59.233
X44.214 Y-59.191
X44.18 Y-59.159
X44.138 Y-59.139
X44.091 Y-59.133
X43.941 Y-59.136
X43.895 Y-59.137 Z-0.243
X43.853 Y-59.138 Z-0.221
X43.82 Y-59.139 Z-0.188
X43.799 Y-59.14 Z-0.146
X43.791 Z-0.1
G0 Z5
X43.799 Y-59.44
G1 Z1 F300
Z-0.35
X43.806 Z-0.396 F400
X43.827 Y-59.439 Z-0.438
X43.861 Y-59.438 Z-0.471
X43.902 Y-59.437 Z-0.493
X43.949 Y-59.436 Z-0.5
X44.099 Y-59.432
X44.145 Y-59.424
X44.186 Y-59.402
X44.218 Y-59.368
X44.239 Y-59.325
X44.245 Y-59.279
G3 X10.755 Y-60.101 I-16.745 J-0.411 F600
X44.245 Y-59.279 I16.745 J0.411
G1 X44.236 Y-59.233
X44.214 Y-59.191
X44.18 Y-59.159
X44.138 Y-59.139
X44.091 Y-59.133
X43.941 Y-59.136
X43.895 Y-59.137 Z-0.493
X43.853 Y-59.138 Z-0.471
X43.82 Y-59.139 Z-0.438
X43.799 Y-59.14 Z-0.396
X43.791 Z-0.35
G0 Z5
X43.799 Y-59.44
G1 Z0.75 F300
Z-0.6
X43.806 Z-0.646 F400
X43.827 Y-59.439 Z-0.688
X43.861 Y-59.438 Z-0.721
X43.902 Y-59.437 Z-0.743
X43.949 Y-59.436 Z-0.75
X44.099 Y-59.432
X44.145 Y-59.424
X44.186 Y-59.402
X44.218 Y-59.368
X44.239 Y-59.325
X44.245 Y-59.279
G3 X10.755 Y-60.101 I-16.745 J-0.411 F600
X44.245 Y-59.279 I16.745 J0.411
G1 X44.236 Y-59.233
X44.214 Y-59.191
X44.18 Y-59.159
X44.138 Y-59.139
X44.091 Y-59.133
X43.941 Y-59.136
X43.895 Y-59.137 Z-0.743
X43.853 Y-59.138 Z-0.721
X43.82 Y-59.139 Z-0.688
X43.799 Y-59.14 Z-0.646
X43.791 Z-0.6
G0 Z5
X43.799 Y-59.44
G1 Z0.5 F300
Z-0.85
X43.806 Z-0.896 F400
X43.827 Y-59.439 Z-0.938
X43.861 Y-59.438 Z-0.971
X43.902 Y-59.437 Z-0.993
X43.949 Y-59.436 Z-1
X44.099 Y-59.432
X44.145 Y-59.424
X44.186 Y-59.402
X44.218 Y-59.368
X44.239 Y-59.325
X44.245 Y-59.279
G3 X10.755 Y-60.101 I-16.745 J-0.411 F600
X44.245 Y-59.279 I16.745 J0.411
G1 X44.236 Y-59.233
X44.214 Y-59.191
X44.18 Y-59.159
X44.138 Y-59.139
X44.091 Y-59.133
X43.941 Y-59.136
X43.895 Y-59.137 Z-0.993
X43.853 Y-59.138 Z-0.971
X43.82 Y-59.139 Z-0.938
X43.799 Y-59.14 Z-0.896
X43.791 Z-0.85
G0 Z5
X43.799 Y-59.44
G1 Z0.25 F300
Z-1.1
X43.806 Z-1.146 F400
X43.827 Y-59.439 Z-1.188
X43.861 Y-59.438 Z-1.221
X43.902 Y-59.437 Z-1.243
X43.949 Y-59.436 Z-1.25
X44.099 Y-59.432
X44.145 Y-59.424
X44.186 Y-59.402
X44.218 Y-59.368
X44.239 Y-59.325
X44.245 Y-59.279
G3 X10.755 Y-60.101 I-16.745 J-0.411 F600
X44.245 Y-59.279 I16.745 J0.411
G1 X44.236 Y-59.233
X44.214 Y-59.191
X44.18 Y-59.159
X44.138 Y-59.139
X44.091 Y-59.133
X43.941 Y-59.136
X43.895 Y-59.137 Z-1.243
X43.853 Y-59.138 Z-1.221
X43.82 Y-59.139 Z-1.188
X43.799 Y-59.14 Z-1.146
X43.791 Z-1.1
G0 Z5
X43.799 Y-59.44
G1 Z0 F300
Z-1.35
X43.806 Z-1.396 F400
X43.827 Y-59.439 Z-1.438
X43.861 Y-59.438 Z-1.471
X43.902 Y-59.437 Z-1.493
X43.949 Y-59.436 Z-1.5
X44.099 Y-59.432
X44.145 Y-59.424
X44.186 Y-59.402
X44.218 Y-59.368
X44.239 Y-59.325
X44.245 Y-59.279
G3 X10.755 Y-60.101 I-16.745 J-0.411 F600
X44.245 Y-59.279 I16.745 J0.411
G1 X44.236 Y-59.233
X44.214 Y-59.191
X44.18 Y-59.159
X44.138 Y-59.139
X44.091 Y-59.133
X43.941 Y-59.136
X43.895 Y-59.137 Z-1.493
X43.853 Y-59.138 Z-1.471
X43.82 Y-59.139 Z-1.438
X43.799 Y-59.14 Z-1.396
X43.791 Z-1.35
G0 Z5
X43.799 Y-59.44
G1 Z-0.25 F300
Z-1.5
X43.806 Z-1.546 F400
X43.827 Y-59.439 Z-1.588
X43.861 Y-59.438 Z-1.621
X43.902 Y-59.437 Z-1.643
X43.949 Y-59.436 Z-1.65
X44.099 Y-59.432
X44.145 Y-59.424
X44.186 Y-59.402
X44.218 Y-59.368
X44.239 Y-59.325
X44.245 Y-59.279
G3 X10.755 Y-60.101 I-16.745 J-0.411 F600
X44.245 Y-59.279 I16.745 J0.411
G1 X44.236 Y-59.233
X44.214 Y-59.191
X44.18 Y-59.159
X44.138 Y-59.139
X44.091 Y-59.133
X43.941 Y-59.136
X43.895 Y-59.137 Z-1.643
X43.853 Y-59.138 Z-1.621
X43.82 Y-59.139 Z-1.588
X43.799 Y-59.14 Z-1.546
X43.791 Z-1.5
G0 Z5
X43.799 Y-59.44
G1 Z-0.4 F300
Z-1.65
X43.806 Z-1.696 F400
X43.827 Y-59.439 Z-1.738
X43.861 Y-59.438 Z-1.771
X43.902 Y-59.437 Z-1.793
X43.949 Y-59.436 Z-1.8
X44.099 Y-59.432
X44.145 Y-59.424
X44.186 Y-59.402
X44.218 Y-59.368
X44.239 Y-59.325
X44.245 Y-59.279
G3 X10.755 Y-60.101 I-16.745 J-0.411 F600
X44.245 Y-59.279 I16.745 J0.411
G1 X44.236 Y-59.233
X44.214 Y-59.191
X44.18 Y-59.159
X44.138 Y-59.139
X44.091 Y-59.133
X43.941 Y-59.136
X43.895 Y-59.137 Z-1.793
X43.853 Y-59.138 Z-1.771
X43.82 Y-59.139 Z-1.738
X43.799 Y-59.14 Z-1.696
X43.791 Z-1.65
G0 Z5
X30.801 Y-24.599
G1 Z1.25 F300
Z-0.1
X30.808 Z-0.146 F400
X30.829 Z-0.188
X30.863 Y-24.598 Z-0.221
X30.904 Y-24.597 Z-0.243
X30.951 Y-24.596 Z-0.25
X31.101 Y-24.592
X31.147 Y-24.584
X31.188 Y-24.561
X31.22 Y-24.527
X31.241 Y-24.485
X31.247 Y-24.438
G3 X10.753 Y-24.941 I-10.247 J-0.252 F600
X31.247 Y-24.438 I10.247 J0.252
G1 X31.238 Y-24.392
X31.216 Y-24.351
X31.182 Y-24.319
X31.14 Y-24.298
X31.093 Y-24.292
X30.943 Y-24.296
X30.897 Y-24.297 Z-0.243
X30.855 Y-24.298 Z-0.221
X30.822 Y-24.299 Z-0.188
X30.801 Z-0.146
X30.793 Z-0.1
G0 Z5
X30.801 Y-24.599
G1 Z1 F300
Z-0.35
X30.808 Z-0.396 F400
X30.829 Z-0.438
X30.863 Y-24.598 Z-0.471
X30.904 Y-24.597 Z-0.493
X30.951 Y-24.596 Z-0.5
X31.101 Y-24.592
X31.147 Y-24.584
X31.188 Y-24.561
X31.22 Y-24.527
X31.241 Y-24.485
X31.247 Y-24.438
G3 X10.753 Y-24.941 I-10.247 J-0.252 F600
X31.247 Y-24.438 I10.247 J0.252
G1 X31.238 Y-24.392
X31.216 Y-24.351
X31.182 Y-24.319
X31.14 Y-24.298
X31.093 Y-24.292
X30.943 Y-24.296
X30.897 Y-24.297 Z-0.493
X30.855 Y-24.298 Z-0.471
X30.822 Y-24.299 Z-0.438
X30.801 Z-0.396
X30.793 Z-0.35
G0 Z5
X30.801 Y-24.599
G1 Z0.75 F300
Z-0.6
X30.808 Z-0.646 F400
X30.829 Z-0.688
X30.863 Y-24.598 Z-0.721
X30.904 Y-24.597 Z-0.743
X30.951 Y-24.596 Z-0.75
X31.101 Y-24.592
X31.147 Y-24.584
X31.188 Y-24.561
X31.22 Y-24.527
X31.241 Y-24.485
X31.247 Y-24.438
G3 X10.753 Y-24.941 I-10.247 J-0.252 F600
X31.247 Y-24.438 I10.247 J0.252
G1 X31.238 Y-24.392
X31.216 Y-24.351
X31.182 Y-24.319
X31.14 Y-24.298
X31.093 Y-24.292
X30.943 Y-24.296
X30.897 Y-24.297 Z-0.743
X30.855 Y-24.298 Z-0.721
X30.822 Y-24.299 Z-0.688
X30.801 Z-0.646
X30.793 Z-0.6
G0 Z5
X30.801 Y-24.599
G1 Z0.5 F300
Z-0.85
X30.808 Z-0.896 F400
X30.829 Z-0.938
X30.863 Y-24.598 Z-0.971
X30.904 Y-24.597 Z-0.993
X30.951 Y-24.596 Z-1
X31.101 Y-24.592
X31.147 Y-24.584
X31.188 Y-24.561
X31.22 Y-24.527
X31.241 Y-24.485
X31.247 Y-24.438
G3 X10.753 Y-24.941 I-10.247 J-0.252 F600
X31.247 Y-24.438 I10.247 J0.252
G1 X31.238 Y-24.392
X31.216 Y-24.351
X31.182 Y-24.319
X31.14 Y-24.298
X31.093 Y-24.292
X30.943 Y-24.296
X30.897 Y-24.297 Z-0.993
X30.855 Y-24.298 Z-0.971
X30.822 Y-24.299 Z-0.938
X30.801 Z-0.896
X30.793 Z-0.85
G0 Z5
X30.801 Y-24.599
G1 Z0.25 F300
Z-1.1
X30.808 Z-1.146 F400
X30.829 Z-1.188
X30.863 Y-24.598 Z-1.221
X30.904 Y-24.597 Z-1.243
X30.951 Y-24.596 Z-1.25
X31.101 Y-24.592
X31.147 Y-24.584
X31.188 Y-24.561
X31.22 Y-24.527
X31.241 Y-24.485
X31.247 Y-24.438
G3 X10.753 Y-24.941 I-10.247 J-0.252 F600
X31.247 Y-24.438 I10.247 J0.252
G1 X31.238 Y-24.392
X31.216 Y-24.351
X31.182 Y-24.319
X31.14 Y-24.298
X31.093 Y-24.292
X30.943 Y-24.296
X30.897 Y-24.297 Z-1.243
X30.855 Y-24.298 Z-1.221
X30.822 Y-24.299 Z-1.188
X30.801 Z-1.146
X30.793 Z-1.1
G0 Z5
X30.801 Y-24.599
G1 Z0 F300
Z-1.35
X30.808 Z-1.396 F400
X30.829 Z-1.438
X30.863 Y-24.598 Z-1.471
X30.904 Y-24.597 Z-1.493
X30.951 Y-24.596 Z-1.5
X31.101 Y-24.592
X31.147 Y-24.584
X31.188 Y-24.561
X31.22 Y-24.527
X31.241 Y-24.485
X31.247 Y-24.438
G3 X10.753 Y-24.941 I-10.247 J-0.252 F600
X31.247 Y-24.438 I10.247 J0.252
G1 X31.238 Y-24.392
X31.216 Y-24.351
X31.182 Y-24.319
X31.14 Y-24.298
X31.093 Y-24.292
X30.943 Y-24.296
X30.897 Y-24.297 Z-1.493
X30.855 Y-24.298 Z-1.471
X30.822 Y-24.299 Z-1.438
X30.801 Z-1.396
X30.793 Z-1.35
G0 Z5
X30.801 Y-24.599
G1 Z-0.25 F300
Z-1.5
X30.808 Z-1.546 F400
X30.829 Z-1.588
X30.863 Y-24.598 Z-1.621
X30.904 Y-24.597 Z-1.643
X30.951 Y-24.596 Z-1.65
X31.101 Y-24.592
X31.147 Y-24.584
X31.188 Y-24.561
X31.22 Y-24.527
X31.241 Y-24.485
X31.247 Y-24.438
G3 X10.753 Y-24.941 I-10.247 J-0.252 F600
X31.247 Y-24.438 I10.247 J0.252
G1 X31.238 Y-24.392
X31.216 Y-24.351
X31.182 Y-24.319
X31.14 Y-24.298
X31.093 Y-24.292
X30.943 Y-24.296
X30.897 Y-24.297 Z-1.643
X30.855 Y-24.298 Z-1.621
X30.822 Y-24.299 Z-1.588
X30.801 Z-1.546
X30.793 Z-1.5
G0 Z5
X30.801 Y-24.599
G1 Z-0.4 F300
Z-1.65
X30.808 Z-1.696 F400
X30.829 Z-1.738
X30.863 Y-24.598 Z-1.771
X30.904 Y-24.597 Z-1.793
X30.951 Y-24.596 Z-1.8
X31.101 Y-24.592
X31.147 Y-24.584
X31.188 Y-24.561
X31.22 Y-24.527
X31.241 Y-24.485
X31.247 Y-24.438
G3 X10.753 Y-24.941 I-10.247 J-0.252 F600
X31.247 Y-24.438 I10.247 J0.252
G1 X31.238 Y-24.392
X31.216 Y-24.351
X31.182 Y-24.319
X31.14 Y-24.298
X31.093 Y-24.292
X30.943 Y-24.296
X30.897 Y-24.297 Z-1.793
X30.855 Y-24.298 Z-1.771
X30.822 Y-24.299 Z-1.738
X30.801 Z-1.696
X30.793 Z-1.65
G0 Z15

(2D-Kontur2)
X65.192 Y-89.71
Z15
Z5
G1 Z1.25 F300
Z-0.1
X65.191 Y-89.703 Z-0.146 F400
Y-89.682 Z-0.188
X65.19 Y-89.648 Z-0.221
X65.188 Y-89.607 Z-0.243
X65.187 Y-89.56 Z-0.25
X65.181 Y-89.41
X65.172 Y-89.364
X65.15 Y-89.323
X65.115 Y-89.291
X65.073 Y-89.271
X65.026 Y-89.266
X64.974 F600
X51.151 Y-88.783
X50.785 Y-99.277
X65.026 Y-99.773
G2 X65.75 Y-100.526 I-0.026 J-0.75
G1 X65.744 Y-102.06
Y-102.066
X65.724 Y-103.591
Y-103.598
X65.692 Y-105.113
Y-105.119
X65.647 Y-106.627
Y-106.634
X65.59 Y-108.132
X65.589 Y-108.138
X65.519 Y-109.628
Y-109.635
X65.436 Y-111.116
Y-111.122
X65.34 Y-112.594
Y-112.601
X65.232 Y-114.064
Y-114.071
X65.111 Y-115.526
Y-115.533
X64.978 Y-116.979
X64.977 Y-116.985
X64.832 Y-118.422
X64.831 Y-118.429
X64.674 Y-119.858
X64.673 Y-119.865
X64.504 Y-121.285
X64.503 Y-121.292
X64.322 Y-122.704
X64.321 Y-122.71
X64.127 Y-124.112
X64.126 Y-124.119
X63.921 Y-125.514
X63.92 Y-125.521
X63.703 Y-126.906
X63.702 Y-126.913
X63.473 Y-128.29
X63.472 Y-128.297
X63.232 Y-129.665
X63.231 Y-129.671
X62.98 Y-131.031
X62.978 Y-131.038
X62.716 Y-132.389
X62.714 Y-132.396
X62.441 Y-133.739
X62.439 Y-133.746
X62.154 Y-135.08
X62.153 Y-135.086
X61.857 Y-136.411
X61.856 Y-136.418
X61.55 Y-137.735
X61.548 Y-137.742
X61.231 Y-139.05
X61.23 Y-139.056
X60.902 Y-140.356
X60.901 Y-140.363
X60.563 Y-141.654
X60.561 Y-141.66
X60.214 Y-142.943
X60.212 Y-142.95
X59.854 Y-144.224
X59.853 Y-144.23
X59.485 Y-145.495
X59.483 Y-145.502
X59.106 Y-146.759
X59.104 Y-146.765
X58.718 Y-148.013
X58.715 Y-148.019
X58.319 Y-149.258
X58.317 Y-149.264
X57.912 Y-150.495
X57.91 Y-150.502
X57.496 Y-151.724
X57.494 Y-151.73
X57.071 Y-152.944
X57.069 Y-152.95
X56.637 Y-154.154
X56.635 Y-154.16
X56.194 Y-155.356
X56.192 Y-155.362
X55.743 Y-156.549
X55.741 Y-156.555
X55.284 Y-157.733
X55.281 Y-157.739
X54.816 Y-158.909
X54.814 Y-158.915
X54.341 Y-160.075
X54.338 Y-160.081
X53.857 Y-161.233
X53.855 Y-161.239
X53.366 Y-162.381
X53.364 Y-162.387
X52.868 Y-163.52
X52.866 Y-163.525
X52.362 Y-164.65
X52.36 Y-164.656
X51.849 Y-165.771
X51.847 Y-165.777
X51.33 Y-166.883
X51.327 Y-166.889
X50.803 Y-167.984
X50.8 Y-167.99
X50.27 Y-169.077
X50.265 Y-169.085
X49.185 Y-171.231
X49.179 Y-171.242
X48.074 Y-173.35
X48.068 Y-173.361
X46.94 Y-175.43
X46.934 Y-175.441
X45.783 Y-177.47
X45.777 Y-177.481
X44.605 Y-179.469
X44.599 Y-179.479
X43.407 Y-181.427
X43.401 Y-181.438
X42.191 Y-183.343
X42.184 Y-183.354
X40.956 Y-185.216
X40.949 Y-185.226
X39.706 Y-187.045
X39.698 Y-187.056
X38.439 Y-188.83
X38.432 Y-188.841
X37.159 Y-190.568
X37.151 Y-190.579
X35.865 Y-192.26
X35.856 Y-192.271
X34.559 Y-193.904
X34.549 Y-193.915
X33.241 Y-195.498
X33.234 Y-195.506
X32.576 Y-196.279
X32.571 Y-196.285
X31.91 Y-197.045
X31.905 Y-197.051
X31.242 Y-197.798
X31.237 Y-197.804
X30.572 Y-198.538
X30.567 Y-198.543
X29.9 Y-199.264
X29.894 Y-199.27
X29.225 Y-199.978
X29.22 Y-199.984
X28.549 Y-200.678
X28.543 Y-200.684
X27.87 Y-201.364
X27.864 Y-201.37
X27.19 Y-202.036
X27.184 Y-202.042
X26.509 Y-202.695
X26.502 Y-202.702
X25.825 Y-203.34
X25.818 Y-203.346
X25.14 Y-203.969
X25.134 Y-203.975
X24.454 Y-204.585
X24.446 Y-204.592
X23.766 Y-205.186
X23.759 Y-205.192
X23.077 Y-205.772
X23.069 Y-205.779
X22.386 Y-206.343
X22.379 Y-206.349
X21.696 Y-206.899
X21.687 Y-206.906
X21.003 Y-207.44
X20.994 Y-207.447
X20.31 Y-207.966
X20.3 Y-207.973
X19.615 Y-208.475
X19.606 Y-208.482
X18.92 Y-208.969
X18.91 Y-208.975
X18.224 Y-209.446
X18.214 Y-209.453
X17.527 Y-209.908
X17.517 Y-209.915
X16.83 Y-210.354
X16.819 Y-210.361
X16.132 Y-210.783
X16.12 Y-210.79
X15.433 Y-211.195
X15.421 Y-211.202
X14.734 Y-211.591
X14.722 Y-211.598
X14.034 Y-211.97
X14.021 Y-211.977
X13.333 Y-212.331
X13.321 Y-212.337
X12.634 Y-212.675
X12.62 Y-212.682
X11.933 Y-213.002
X11.918 Y-213.009
X11.231 Y-213.311
X11.217 Y-213.317
X10.53 Y-213.602
X10.515 Y-213.608
X9.829 Y-213.876
X9.812 Y-213.882
X9.126 Y-214.131
X9.11 Y-214.137
X8.424 Y-214.368
X8.409 Y-214.373
X7.724 Y-214.587
X7.705 Y-214.592
X7.021 Y-214.787
X7.003 Y-214.792
X6.319 Y-214.969
X6.3 Y-214.974
X5.616 Y-215.132
X5.598 Y-215.136
X4.915 Y-215.276
X4.896 Y-215.279
X4.214 Y-215.401
X4.194 Y-215.405
X3.512 Y-215.508
X3.492 Y-215.51
X2.811 Y-215.594
X2.791 Y-215.596
X2.111 Y-215.663
X2.089 Y-215.664
X1.409 Y-215.71
X1.39 Y-215.711
X0.711 Y-215.74
X0.689 Y-215.741
X0.01 Y-215.75
G2 X-0.75 Y-215 I-0.01 J0.75
G1 Y0
G2 X0.005 Y0.75 I0.75 J0
G1 X1.362 Y0.74
X1.373
X2.711 Y0.711
X2.722
X4.042 Y0.663
X4.053 Y0.662
X5.353 Y0.595
X5.365 Y0.594
X6.646 Y0.508
X6.658 Y0.507
X7.921 Y0.401
X7.933 Y0.4
X9.177 Y0.275
X9.19 Y0.274
X10.415 Y0.13
X10.428 Y0.128
X11.634 Y-0.034
X11.647 Y-0.036
X12.835 Y-0.217
X12.849 Y-0.219
X14.018 Y-0.419
X14.032 Y-0.422
X15.183 Y-0.64
X15.197 Y-0.643
X16.33 Y-0.88
X16.344 Y-0.883
X17.459 Y-1.138
X17.473 Y-1.141
X18.57 Y-1.414
X18.584 Y-1.418
X19.663 Y-1.709
X19.678 Y-1.713
X20.739 Y-2.021
X20.753 Y-2.025
X21.797 Y-2.352
X21.812 Y-2.356
X22.838 Y-2.7
X22.853 Y-2.705
X23.862 Y-3.065
X23.877 Y-3.071
X24.869 Y-3.448
X24.883 Y-3.454
X25.858 Y-3.848
X25.873 Y-3.854
X26.831 Y-4.265
X26.846 Y-4.271
X27.787 Y-4.698
X27.802 Y-4.705
X28.727 Y-5.148
X28.741 Y-5.155
X29.65 Y-5.614
X29.664 Y-5.621
X30.557 Y-6.095
X30.571 Y-6.103
X31.448 Y-6.593
X31.462 Y-6.6
X32.323 Y-7.105
X32.336 Y-7.113
X33.182 Y-7.633
X33.195 Y-7.641
X34.026 Y-8.176
X34.039 Y-8.184
X34.854 Y-8.733
X34.867 Y-8.742
X35.667 Y-9.304
X35.679 Y-9.313
X36.464 Y-9.89
X36.476 Y-9.899
X37.247 Y-10.489
X37.259 Y-10.498
X38.015 Y-11.102
X38.027 Y-11.111
X38.768 Y-11.728
X38.78 Y-11.737
X39.507 Y-12.366
X39.518 Y-12.376
X40.232 Y-13.017
X40.242 Y-13.027
X40.943 Y-13.681
X40.953 Y-13.691
X41.639 Y-14.356
X41.649 Y-14.366
X42.322 Y-15.044
X42.332 Y-15.053
X42.992 Y-15.742
X43.001 Y-15.752
X43.648 Y-16.452
X43.657 Y-16.461
X44.291 Y-17.172
X44.299 Y-17.182
X44.921 Y-17.903
X44.929 Y-17.912
X45.538 Y-18.644
X45.546 Y-18.653
X46.143 Y-19.395
X46.151 Y-19.404
X46.735 Y-20.155
X46.742 Y-20.165
X47.315 Y-20.925
X47.322 Y-20.934
X47.883 Y-21.704
X47.89 Y-21.713
X48.44 Y-22.491
X48.446 Y-22.5
X48.984 Y-23.287
X48.99 Y-23.296
X49.517 Y-24.091
X49.523 Y-24.1
X50.039 Y-24.902
X50.044 Y-24.911
X50.549 Y-25.722
X50.555 Y-25.73
X51.049 Y-26.548
X51.054 Y-26.557
X51.538 Y-27.382
X51.543 Y-27.39
X52.016 Y-28.222
X52.021 Y-28.23
X52.484 Y-29.068
X52.488 Y-29.077
X52.941 Y-29.921
X52.945 Y-29.929
X53.388 Y-30.78
X53.392 Y-30.788
X53.825 Y-31.644
X53.829 Y-31.652
X54.252 Y-32.513
X54.256 Y-32.521
X54.67 Y-33.388
X54.674 Y-33.395
X55.078 Y-34.267
X55.082 Y-34.274
X55.477 Y-35.15
X55.48 Y-35.158
X55.866 Y-36.038
X55.871 Y-36.049
X56.616 Y-37.822
X56.622 Y-37.836
X57.333 Y-39.623
X57.338 Y-39.636
X58.014 Y-41.436
X58.019 Y-41.448
X58.663 Y-43.258
X58.667 Y-43.27
X59.278 Y-45.088
X59.282 Y-45.1
X59.863 Y-46.924
X59.866 Y-46.935
X60.416 Y-48.763
X60.419 Y-48.774
X60.939 Y-50.604
X60.942 Y-50.615
X61.432 Y-52.445
X61.435 Y-52.456
X61.897 Y-54.285
X61.899 Y-54.295
X62.333 Y-56.121
X62.336 Y-56.131
X62.742 Y-57.953
X62.745 Y-57.962
X63.124 Y-59.777
X63.126 Y-59.787
X63.479 Y-61.593
X63.481 Y-61.603
X63.808 Y-63.4
X63.81 Y-63.41
X64.111 Y-65.196
X64.112 Y-65.205
X64.388 Y-66.978
X64.39 Y-66.988
X64.64 Y-68.748
X64.641 Y-68.757
X64.867 Y-70.502
X64.868 Y-70.511
X65.069 Y-72.24
X65.07 Y-72.249
X65.247 Y-73.96
X65.248 Y-73.97
X65.4 Y-75.663
Y-75.673
X65.528 Y-77.346
X65.529 Y-77.356
X65.632 Y-79.009
X65.633 Y-79.02
X65.712 Y-80.652
X65.713 Y-80.663
X65.768 Y-82.273
X65.769 Y-82.284
X65.8 Y-83.873
Y-83.884
X65.807 Y-85.45
Y-85.461
X65.791 Y-87.004
X65.79 Y-87.016
X65.75 Y-88.536
G2 X65.026 Y-89.266 I-0.75 J0.02
G1 X64.98 Y-89.275
X64.939 Y-89.297
X64.907 Y-89.332
X64.887 Y-89.374
X64.881 Y-89.421
X64.887 Y-89.571
X64.888 Y-89.617 Z-0.243
X64.89 Y-89.659 Z-0.221
X64.891 Y-89.692 Z-0.188
X64.892 Y-89.713 Z-0.146
Y-89.721 Z-0.1
G0 Z5
X65.192 Y-89.71
G1 Z1 F300
Z-0.35
X65.191 Y-89.703 Z-0.396 F400
Y-89.682 Z-0.438
X65.19 Y-89.648 Z-0.471
X65.188 Y-89.607 Z-0.493
X65.187 Y-89.56 Z-0.5
X65.181 Y-89.41
X65.172 Y-89.364
X65.15 Y-89.323
X65.115 Y-89.291
X65.073 Y-89.271
X65.026 Y-89.266
X64.974 F600
X51.151 Y-88.783
X50.785 Y-99.277
X65.026 Y-99.773
G2 X65.75 Y-100.526 I-0.026 J-0.75
G1 X65.744 Y-102.06
Y-102.066
X65.724 Y-103.591
Y-103.598
X65.692 Y-105.113
Y-105.119
X65.647 Y-106.627
Y-106.634
X65.59 Y-108.132
X65.589 Y-108.138
X65.519 Y-109.628
Y-109.635
X65.436 Y-111.116
Y-111.122
X65.34 Y-112.594
Y-112.601
X65.232 Y-114.064
Y-114.071
X65.111 Y-115.526
Y-115.533
X64.978 Y-116.979
X64.977 Y-116.985
X64.832 Y-118.422
X64.831 Y-118.429
X64.674 Y-119.858
X64.673 Y-119.865
X64.504 Y-121.285
X64.503 Y-121.292
X64.322 Y-122.704
X64.321 Y-122.71
X64.127 Y-124.112
X64.126 Y-124.119
X63.921 Y-125.514
X63.92 Y-125.521
X63.703 Y-126.906
X63.702 Y-126.913
X63.473 Y-128.29
X63.472 Y-128.297
X63.232 Y-129.665
X63.231 Y-129.671
X62.98 Y-131.031
X62.978 Y-131.038
X62.716 Y-132.389
X62.714 Y-132.396
X62.441 Y-133.739
X62.439 Y-133.746
X62.154 Y-135.08
X62.153 Y-135.086
X61.857 Y-136.411
X61.856 Y-136.418
X61.55 Y-137.735
X61.548 Y-137.742
X61.231 Y-139.05
X61.23 Y-139.056
X60.902 Y-140.356
X60.901 Y-140.363
X60.563 Y-141.654
X60.561 Y-141.66
X60.214 Y-142.943
X60.212 Y-142.95
X59.854 Y-144.224
X59.853 Y-144.23
X59.485 Y-145.495
X59.483 Y-145.502
X59.106 Y-146.759
X59.104 Y-146.765
X58.718 Y-148.013
X58.715 Y-148.019
X58.319 Y-149.258
X58.317 Y-149.264
X57.912 Y-150.495
X57.91 Y-150.502
X57.496 Y-151.724
X57.494 Y-151.73
X57.071 Y-152.944
X57.069 Y-152.95
X56.637 Y-154.154
X56.635 Y-154.16
X56.194 Y-155.356
X56.192 Y-155.362
X55.743 Y-156.549
X55.741 Y-156.555
X55.284 Y-157.733
X55.281 Y-157.739
X54.816 Y-158.909
X54.814 Y-158.915
X54.341 Y-160.075
X54.338 Y-160.081
X53.857 Y-161.233
X53.855 Y-161.239
X53.366 Y-162.381
X53.364 Y-162.387
X52.868 Y-163.52
X52.866 Y-163.525
X52.362 Y-164.65
X52.36 Y-164.656
X51.849 Y-165.771
X51.847 Y-165.777
X51.33 Y-166.883
X51.327 Y-166.889
X50.803 Y-167.984
X50.8 Y-167.99
X50.27 Y-169.077
X50.265 Y-169.085
X49.185 Y-171.231
X49.179 Y-171.242
X48.074 Y-173.35
X48.068 Y-173.361
X46.94 Y-175.43
X46.934 Y-175.441
X45.783 Y-177.47
X45.777 Y-177.481
X44.605 Y-179.469
X44.599 Y-179.479
X43.407 Y-181.427
X43.401 Y-181.438
X42.191 Y-183.343
X42.184 Y-183.354
X40.956 Y-185.216
X40.949 Y-185.226
X39.706 Y-187.045
X39.698 Y-187.056
X38.439 Y-188.83
X38.432 Y-188.841
X37.159 Y-190.568
X37.151 Y-190.579
X35.865 Y-192.26
X35.856 Y-192.271
X34.559 Y-193.904
X34.549 Y-193.915
X33.241 Y-195.498
X33.234 Y-195.506
X32.576 Y-196.279
X32.571 Y-196.285
X31.91 Y-197.045
X31.905 Y-197.051
X31.242 Y-197.798
X31.237 Y-197.804
X30.572 Y-198.538
X30.567 Y-198.543
X29.9 Y-199.264
X29.894 Y-199.27
X29.225 Y-199.978
X29.22 Y-199.984
X28.549 Y-200.678
X28.543 Y-200.684
X27.87 Y-201.364
X27.864 Y-201.37
X27.19 Y-202.036
X27.184 Y-202.042
X26.509 Y-202.695
X26.502 Y-202.702
X25.825 Y-203.34
X25.818 Y-203.346
X25.14 Y-203.969
X25.134 Y-203.975
X24.454 Y-204.585
X24.446 Y-204.592
X23.766 Y-205.186
X23.759 Y-205.192
X23.077 Y-205.772
X23.069 Y-205.779
X22.386 Y-206.343
X22.379 Y-206.349
X21.696 Y-206.899
X21.687 Y-206.906
X21.003 Y-207.44
X20.994 Y-207.447
X20.31 Y-207.966
X20.3 Y-207.973
X19.615 Y-208.475
X19.606 Y-208.482
X18.92 Y-208.969
X18.91 Y-208.975
X18.224 Y-209.446
X18.214 Y-209.453
X17.527 Y-209.908
X17.517 Y-209.915
X16.83 Y-210.354
X16.819 Y-210.361
X16.132 Y-210.783
X16.12 Y-210.79
X15.433 Y-211.195
X15.421 Y-211.202
X14.734 Y-211.591
X14.722 Y-211.598
X14.034 Y-211.97
X14.021 Y-211.977
X13.333 Y-212.331
X13.321 Y-212.337
X12.634 Y-212.675
X12.62 Y-212.682
X11.933 Y-213.002
X11.918 Y-213.009
X11.231 Y-213.311
X11.217 Y-213.317
X10.53 Y-213.602
X10.515 Y-213.608
X9.829 Y-213.876
X9.812 Y-213.882
X9.126 Y-214.131
X9.11 Y-214.137
X8.424 Y-214.368
X8.409 Y-214.373
X7.724 Y-214.587
X7.705 Y-214.592
X7.021 Y-214.787
X7.003 Y-214.792
X6.319 Y-214.969
X6.3 Y-214.974
X5.616 Y-215.132
X5.598 Y-215.136
X4.915 Y-215.276
X4.896 Y-215.279
X4.214 Y-215.401
X4.194 Y-215.405
X3.512 Y-215.508
X3.492 Y-215.51
X2.811 Y-215.594
X2.791 Y-215.596
X2.111 Y-215.663
X2.089 Y-215.664
X1.409 Y-215.71
X1.39 Y-215.711
X0.711 Y-215.74
X0.689 Y-215.741
X0.01 Y-215.75
G2 X-0.75 Y-215 I-0.01 J0.75
G1 Y0
G2 X0.005 Y0.75 I0.75 J0
G1 X1.362 Y0.74
X1.373
X2.711 Y0.711
X2.722
X4.042 Y0.663
X4.053 Y0.662
X5.353 Y0.595
X5.365 Y0.594
X6.646 Y0.508
X6.658 Y0.507
X7.921 Y0.401
X7.933 Y0.4
X9.177 Y0.275
X9.19 Y0.274
X10.415 Y0.13
X10.428 Y0.128
X11.634 Y-0.034
X11.647 Y-0.036
X12.835 Y-0.217
X12.849 Y-0.219
X14.018 Y-0.419
X14.032 Y-0.422
X15.183 Y-0.64
X15.197 Y-0.643
X16.33 Y-0.88
X16.344 Y-0.883
X17.459 Y-1.138
X17.473 Y-1.141
X18.57 Y-1.414
X18.584 Y-1.418
X19.663 Y-1.709
X19.678 Y-1.713
X20.739 Y-2.021
X20.753 Y-2.025
X21.797 Y-2.352
X21.812 Y-2.356
X22.838 Y-2.7
X22.853 Y-2.705
X23.862 Y-3.065
X23.877 Y-3.071
X24.869 Y-3.448
X24.883 Y-3.454
X25.858 Y-3.848
X25.873 Y-3.854
X26.831 Y-4.265
X26.846 Y-4.271
X27.787 Y-4.698
X27.802 Y-4.705
X28.727 Y-5.148
X28.741 Y-5.155
X29.65 Y-5.614
X29.664 Y-5.621
X30.557 Y-6.095
X30.571 Y-6.103
X31.448 Y-6.593
X31.462 Y-6.6
X32.323 Y-7.105
X32.336 Y-7.113
X33.182 Y-7.633
X33.195 Y-7.641
X34.026 Y-8.176
X34.039 Y-8.184
X34.854 Y-8.733
X34.867 Y-8.742
X35.667 Y-9.304
X35.679 Y-9.313
X36.464 Y-9.89
X36.476 Y-9.899
X37.247 Y-10.489
X37.259 Y-10.498
X38.015 Y-11.102
X38.027 Y-11.111
X38.768 Y-11.728
X38.78 Y-11.737
X39.507 Y-12.366
X39.518 Y-12.376
X40.232 Y-13.017
X40.242 Y-13.027
X40.943 Y-13.681
X40.953 Y-13.691
X41.639 Y-14.356
X41.649 Y-14.366
X42.322 Y-15.044
X42.332 Y-15.053
X42.992 Y-15.742
X43.001 Y-15.752
X43.648 Y-16.452
X43.657 Y-16.461
X44.291 Y-17.172
X44.299 Y-17.182
X44.921 Y-17.903
X44.929 Y-17.912
X45.538 Y-18.644
X45.546 Y-18.653
X46.143 Y-19.395
X46.151 Y-19.404
X46.735 Y-20.155
X46.742 Y-20.165
X47.315 Y-20.925
X47.322 Y-20.934
X47.883 Y-21.704
X47.89 Y-21.713
X48.44 Y-22.491
X48.446 Y-22.5
X48.984 Y-23.287
X48.99 Y-23.296
X49.517 Y-24.091
X49.523 Y-24.1
X50.039 Y-24.902
X50.044 Y-24.911
X50.549 Y-25.722
X50.555 Y-25.73
X51.049 Y-26.548
X51.054 Y-26.557
X51.538 Y-27.382
X51.543 Y-27.39
X52.016 Y-28.222
X52.021 Y-28.23
X52.484 Y-29.068
X52.488 Y-29.077
X52.941 Y-29.921
X52.945 Y-29.929
X53.388 Y-30.78
X53.392 Y-30.788
X53.825 Y-31.644
X53.829 Y-31.652
X54.252 Y-32.513
X54.256 Y-32.521
X54.67 Y-33.388
X54.674 Y-33.395
X55.078 Y-34.267
X55.082 Y-34.274
X55.477 Y-35.15
X55.48 Y-35.158
X55.866 Y-36.038
X55.871 Y-36.049
X56.616 Y-37.822
X56.622 Y-37.836
X57.333 Y-39.623
X57.338 Y-39.636
X58.014 Y-41.436
X58.019 Y-41.448
X58.663 Y-43.258
X58.667 Y-43.27
X59.278 Y-45.088
X59.282 Y-45.1
X59.863 Y-46.924
X59.866 Y-46.935
X60.416 Y-48.763
X60.419 Y-48.774
X60.939 Y-50.604
X60.942 Y-50.615
X61.432 Y-52.445
X61.435 Y-52.456
X61.897 Y-54.285
X61.899 Y-54.295
X62.333 Y-56.121
X62.336 Y-56.131
X62.742 Y-57.953
X62.745 Y-57.962
X63.124 Y-59.777
X63.126 Y-59.787
X63.479 Y-61.593
X63.481 Y-61.603
X63.808 Y-63.4
X63.81 Y-63.41
X64.111 Y-65.196
X64.112 Y-65.205
X64.388 Y-66.978
X64.39 Y-66.988
X64.64 Y-68.748
X64.641 Y-68.757
X64.867 Y-70.502
X64.868 Y-70.511
X65.069 Y-72.24
X65.07 Y-72.249
X65.247 Y-73.96
X65.248 Y-73.97
X65.4 Y-75.663
Y-75.673
X65.528 Y-77.346
X65.529 Y-77.356
X65.632 Y-79.009
X65.633 Y-79.02
X65.712 Y-80.652
X65.713 Y-80.663
X65.768 Y-82.273
X65.769 Y-82.284
X65.8 Y-83.873
Y-83.884
X65.807 Y-85.45
Y-85.461
X65.791 Y-87.004
X65.79 Y-87.016
X65.75 Y-88.536
G2 X65.026 Y-89.266 I-0.75 J0.02
G1 X64.98 Y-89.275
X64.939 Y-89.297
X64.907 Y-89.332
X64.887 Y-89.374
X64.881 Y-89.421
X64.887 Y-89.571
X64.888 Y-89.617 Z-0.493
X64.89 Y-89.659 Z-0.471
X64.891 Y-89.692 Z-0.438
X64.892 Y-89.713 Z-0.396
Y-89.721 Z-0.35
G0 Z5
X65.192 Y-89.71
G1 Z0.75 F300
Z-0.6
X65.191 Y-89.703 Z-0.646 F400
Y-89.682 Z-0.688
X65.19 Y-89.648 Z-0.721
X65.188 Y-89.607 Z-0.743
X65.187 Y-89.56 Z-0.75
X65.181 Y-89.41
X65.172 Y-89.364
X65.15 Y-89.323
X65.115 Y-89.291
X65.073 Y-89.271
X65.026 Y-89.266
X64.974 F600
X51.151 Y-88.783
X50.785 Y-99.277
X65.026 Y-99.773
G2 X65.75 Y-100.526 I-0.026 J-0.75
G1 X65.744 Y-102.06
Y-102.066
X65.724 Y-103.591
Y-103.598
X65.692 Y-105.113
Y-105.119
X65.647 Y-106.627
Y-106.634
X65.59 Y-108.132
X65.589 Y-108.138
X65.519 Y-109.628
Y-109.635
X65.436 Y-111.116
Y-111.122
X65.34 Y-112.594
Y-112.601
X65.232 Y-114.064
Y-114.071
X65.111 Y-115.526
Y-115.533
X64.978 Y-116.979
X64.977 Y-116.985
X64.832 Y-118.422
X64.831 Y-118.429
X64.674 Y-119.858
X64.673 Y-119.865
X64.504 Y-121.285
X64.503 Y-121.292
X64.322 Y-122.704
X64.321 Y-122.71
X64.127 Y-124.112
X64.126 Y-124.119
X63.921 Y-125.514
X63.92 Y-125.521
X63.703 Y-126.906
X63.702 Y-126.913
X63.473 Y-128.29
X63.472 Y-128.297
X63.232 Y-129.665
X63.231 Y-129.671
X62.98 Y-131.031
X62.978 Y-131.038
X62.716 Y-132.389
X62.714 Y-132.396
X62.441 Y-133.739
X62.439 Y-133.746
X62.154 Y-135.08
X62.153 Y-135.086
X61.857 Y-136.411
X61.856 Y-136.418
X61.55 Y-137.735
X61.548 Y-137.742
X61.231 Y-139.05
X61.23 Y-139.056
X60.902 Y-140.356
X60.901 Y-140.363
X60.563 Y-141.654
X60.561 Y-141.66
X60.214 Y-142.943
X60.212 Y-142.95
X59.854 Y-144.224
X59.853 Y-144.23
X59.485 Y-145.495
X59.483 Y-145.502
X59.106 Y-146.759
X59.104 Y-146.765
X58.718 Y-148.013
X58.715 Y-148.019
X58.319 Y-149.258
X58.317 Y-149.264
X57.912 Y-150.495
X57.91 Y-150.502
X57.496 Y-151.724
X57.494 Y-151.73
X57.071 Y-152.944
X57.069 Y-152.95
X56.637 Y-154.154
X56.635 Y-154.16
X56.194 Y-155.356
X56.192 Y-155.362
X55.743 Y-156.549
X55.741 Y-156.555
X55.284 Y-157.733
X55.281 Y-157.739
X54.816 Y-158.909
X54.814 Y-158.915
X54.341 Y-160.075
X54.338 Y-160.081
X53.857 Y-161.233
X53.855 Y-161.239
X53.366 Y-162.381
X53.364 Y-162.387
X52.868 Y-163.52
X52.866 Y-163.525
X52.362 Y-164.65
X52.36 Y-164.656
X51.849 Y-165.771
X51.847 Y-165.777
X51.33 Y-166.883
X51.327 Y-166.889
X50.803 Y-167.984
X50.8 Y-167.99
X50.27 Y-169.077
X50.265 Y-169.085
X49.185 Y-171.231
X49.179 Y-171.242
X48.074 Y-173.35
X48.068 Y-173.361
X46.94 Y-175.43
X46.934 Y-175.441
X45.783 Y-177.47
X45.777 Y-177.481
X44.605 Y-179.469
X44.599 Y-179.479
X43.407 Y-181.427
X43.401 Y-181.438
X42.191 Y-183.343
X42.184 Y-183.354
X40.956 Y-185.216
X40.949 Y-185.226
X39.706 Y-187.045
X39.698 Y-187.056
X38.439 Y-188.83
X38.432 Y-188.841
X37.159 Y-190.568
X37.151 Y-190.579
X35.865 Y-192.26
X35.856 Y-192.271
X34.559 Y-193.904
X34.549 Y-193.915
X33.241 Y-195.498
X33.234 Y-195.506
X32.576 Y-196.279
X32.571 Y-196.285
X31.91 Y-197.045
X31.905 Y-197.051
X31.242 Y-197.798
X31.237 Y-197.804
X30.572 Y-198.538
X30.567 Y-198.543
X29.9 Y-199.264
X29.894 Y-199.27
X29.225 Y-199.978
X29.22 Y-199.984
X28.549 Y-200.678
X28.543 Y-200.684
X27.87 Y-201.364
X27.864 Y-201.37
X27.19 Y-202.036
X27.184 Y-202.042
X26.509 Y-202.695
X26.502 Y-202.702
X25.825 Y-203.34
X25.818 Y-203.346
X25.14 Y-203.969
X25.134 Y-203.975
X24.454 Y-204.585
X24.446 Y-204.592
X23.766 Y-205.186
X23.759 Y-205.192
X23.077 Y-205.772
X23.069 Y-205.779
X22.386 Y-206.343
X22.379 Y-206.349
X21.696 Y-206.899
X21.687 Y-206.906
X21.003 Y-207.44
X20.994 Y-207.447
X20.31 Y-207.966
X20.3 Y-207.973
X19.615 Y-208.475
X19.606 Y-208.482
X18.92 Y-208.969
X18.91 Y-208.975
X18.224 Y-209.446
X18.214 Y-209.453
X17.527 Y-209.908
X17.517 Y-209.915
X16.83 Y-210.354
X16.819 Y-210.361
X16.132 Y-210.783
X16.12 Y-210.79
X15.433 Y-211.195
X15.421 Y-211.202
X14.734 Y-211.591
X14.722 Y-211.598
X14.034 Y-211.97
X14.021 Y-211.977
X13.333 Y-212.331
X13.321 Y-212.337
X12.634 Y-212.675
X12.62 Y-212.682
X11.933 Y-213.002
X11.918 Y-213.009
X11.231 Y-213.311
X11.217 Y-213.317
X10.53 Y-213.602
X10.515 Y-213.608
X9.829 Y-213.876
X9.812 Y-213.882
X9.126 Y-214.131
X9.11 Y-214.137
X8.424 Y-214.368
X8.409 Y-214.373
X7.724 Y-214.587
X7.705 Y-214.592
X7.021 Y-214.787
X7.003 Y-214.792
X6.319 Y-214.969
X6.3 Y-214.974
X5.616 Y-215.132
X5.598 Y-215.136
X4.915 Y-215.276
X4.896 Y-215.279
X4.214 Y-215.401
X4.194 Y-215.405
X3.512 Y-215.508
X3.492 Y-215.51
X2.811 Y-215.594
X2.791 Y-215.596
X2.111 Y-215.663
X2.089 Y-215.664
X1.409 Y-215.71
X1.39 Y-215.711
X0.711 Y-215.74
X0.689 Y-215.741
X0.01 Y-215.75
G2 X-0.75 Y-215 I-0.01 J0.75
G1 Y0
G2 X0.005 Y0.75 I0.75 J0
G1 X1.362 Y0.74
X1.373
X2.711 Y0.711
X2.722
X4.042 Y0.663
X4.053 Y0.662
X5.353 Y0.595
X5.365 Y0.594
X6.646 Y0.508
X6.658 Y0.507
X7.921 Y0.401
X7.933 Y0.4
X9.177 Y0.275
X9.19 Y0.274
X10.415 Y0.13
X10.428 Y0.128
X11.634 Y-0.034
X11.647 Y-0.036
X12.835 Y-0.217
X12.849 Y-0.219
X14.018 Y-0.419
X14.032 Y-0.422
X15.183 Y-0.64
X15.197 Y-0.643
X16.33 Y-0.88
X16.344 Y-0.883
X17.459 Y-1.138
X17.473 Y-1.141
X18.57 Y-1.414
X18.584 Y-1.418
X19.663 Y-1.709
X19.678 Y-1.713
X20.739 Y-2.021
X20.753 Y-2.025
X21.797 Y-2.352
X21.812 Y-2.356
X22.838 Y-2.7
X22.853 Y-2.705
X23.862 Y-3.065
X23.877 Y-3.071
X24.869 Y-3.448
X24.883 Y-3.454
X25.858 Y-3.848
X25.873 Y-3.854
X26.831 Y-4.265
X26.846 Y-4.271
X27.787 Y-4.698
X27.802 Y-4.705
X28.727 Y-5.148
X28.741 Y-5.155
X29.65 Y-5.614
X29.664 Y-5.621
X30.557 Y-6.095
X30.571 Y-6.103
X31.448 Y-6.593
X31.462 Y-6.6
X32.323 Y-7.105
X32.336 Y-7.113
X33.182 Y-7.633
X33.195 Y-7.641
X34.026 Y-8.176
X34.039 Y-8.184
X34.854 Y-8.733
X34.867 Y-8.742
X35.667 Y-9.304
X35.679 Y-9.313
X36.464 Y-9.89
X36.476 Y-9.899
X37.247 Y-10.489
X37.259 Y-10.498
X38.015 Y-11.102
X38.027 Y-11.111
X38.768 Y-11.728
X38.78 Y-11.737
X39.507 Y-12.366
X39.518 Y-12.376
X40.232 Y-13.017
X40.242 Y-13.027
X40.943 Y-13.681
X40.953 Y-13.691
X41.639 Y-14.356
X41.649 Y-14.366
X42.322 Y-15.044
X42.332 Y-15.053
X42.992 Y-15.742
X43.001 Y-15.752
X43.648 Y-16.452
X43.657 Y-16.461
X44.291 Y-17.172
X44.299 Y-17.182
X44.921 Y-17.903
X44.929 Y-17.912
X45.538 Y-18.644
X45.546 Y-18.653
X46.143 Y-19.395
X46.151 Y-19.404
X46.735 Y-20.155
X46.742 Y-20.165
X47.315 Y-20.925
X47.322 Y-20.934
X47.883 Y-21.704
X47.89 Y-21.713
X48.44 Y-22.491
X48.446 Y-22.5
X48.984 Y-23.287
X48.99 Y-23.296
X49.517 Y-24.091
X49.523 Y-24.1
X50.039 Y-24.902
X50.044 Y-24.911
X50.549 Y-25.722
X50.555 Y-25.73
X51.049 Y-26.548
X51.054 Y-26.557
X51.538 Y-27.382
X51.543 Y-27.39
X52.016 Y-28.222
X52.021 Y-28.23
X52.484 Y-29.068
X52.488 Y-29.077
X52.941 Y-29.921
X52.945 Y-29.929
X53.388 Y-30.78
X53.392 Y-30.788
X53.825 Y-31.644
X53.829 Y-31.652
X54.252 Y-32.513
X54.256 Y-32.521
X54.67 Y-33.388
X54.674 Y-33.395
X55.078 Y-34.267
X55.082 Y-34.274
X55.477 Y-35.15
X55.48 Y-35.158
X55.866 Y-36.038
X55.871 Y-36.049
X56.616 Y-37.822
X56.622 Y-37.836
X57.333 Y-39.623
X57.338 Y-39.636
X58.014 Y-41.436
X58.019 Y-41.448
X58.663 Y-43.258
X58.667 Y-43.27
X59.278 Y-45.088
X59.282 Y-45.1
X59.863 Y-46.924
X59.866 Y-46.935
X60.416 Y-48.763
X60.419 Y-48.774
X60.939 Y-50.604
X60.942 Y-50.615
X61.432 Y-52.445
X61.435 Y-52.456
X61.897 Y-54.285
X61.899 Y-54.295
X62.333 Y-56.121
X62.336 Y-56.131
X62.742 Y-57.953
X62.745 Y-57.962
X63.124 Y-59.777
X63.126 Y-59.787
X63.479 Y-61.593
X63.481 Y-61.603
X63.808 Y-63.4
X63.81 Y-63.41
X64.111 Y-65.196
X64.112 Y-65.205
X64.388 Y-66.978
X64.39 Y-66.988
X64.64 Y-68.748
X64.641 Y-68.757
X64.867 Y-70.502
X64.868 Y-70.511
X65.069 Y-72.24
X65.07 Y-72.249
X65.247 Y-73.96
X65.248 Y-73.97
X65.4 Y-75.663
Y-75.673
X65.528 Y-77.346
X65.529 Y-77.356
X65.632 Y-79.009
X65.633 Y-79.02
X65.712 Y-80.652
X65.713 Y-80.663
X65.768 Y-82.273
X65.769 Y-82.284
X65.8 Y-83.873
Y-83.884
X65.807 Y-85.45
Y-85.461
X65.791 Y-87.004
X65.79 Y-87.016
X65.75 Y-88.536
G2 X65.026 Y-89.266 I-0.75 J0.02
G1 X64.98 Y-89.275
X64.939 Y-89.297
X64.907 Y-89.332
X64.887 Y-89.374
X64.881 Y-89.421
X64.887 Y-89.571
X64.888 Y-89.617 Z-0.743
X64.89 Y-89.659 Z-0.721
X64.891 Y-89.692 Z-0.688
X64.892 Y-89.713 Z-0.646
Y-89.721 Z-0.6
G0 Z5
X65.192 Y-89.71
G1 Z0.5 F300
Z-0.85
X65.191 Y-89.703 Z-0.896 F400
Y-89.682 Z-0.938
X65.19 Y-89.648 Z-0.971
X65.188 Y-89.607 Z-0.993
X65.187 Y-89.56 Z-1
X65.181 Y-89.41
X65.172 Y-89.364
X65.15 Y-89.323
X65.115 Y-89.291
X65.073 Y-89.271
X65.026 Y-89.266
X64.974 F600
X51.151 Y-88.783
X50.785 Y-99.277
X65.026 Y-99.773
G2 X65.75 Y-100.526 I-0.026 J-0.75
G1 X65.744 Y-102.06
Y-102.066
X65.724 Y-103.591
Y-103.598
X65.692 Y-105.113
Y-105.119
X65.647 Y-106.627
Y-106.634
X65.59 Y-108.132
X65.589 Y-108.138
X65.519 Y-109.628
Y-109.635
X65.436 Y-111.116
Y-111.122
X65.34 Y-112.594
Y-112.601
X65.232 Y-114.064
Y-114.071
X65.111 Y-115.526
Y-115.533
X64.978 Y-116.979
X64.977 Y-116.985
X64.832 Y-118.422
X64.831 Y-118.429
X64.674 Y-119.858
X64.673 Y-119.865
X64.504 Y-121.285
X64.503 Y-121.292
X64.322 Y-122.704
X64.321 Y-122.71
X64.127 Y-124.112
X64.126 Y-124.119
X63.921 Y-125.514
X63.92 Y-125.521
X63.703 Y-126.906
X63.702 Y-126.913
X63.473 Y-128.29
X63.472 Y-128.297
X63.232 Y-129.665
X63.231 Y-129.671
X62.98 Y-131.031
X62.978 Y-131.038
X62.716 Y-132.389
X62.714 Y-132.396
X62.441 Y-133.739
X62.439 Y-133.746
X62.154 Y-135.08
X62.153 Y-135.086
X61.857 Y-136.411
X61.856 Y-136.418
X61.55 Y-137.735
X61.548 Y-137.742
X61.231 Y-139.05
X61.23 Y-139.056
X60.902 Y-140.356
X60.901 Y-140.363
X60.563 Y-141.654
X60.561 Y-141.66
X60.214 Y-142.943
X60.212 Y-142.95
X59.854 Y-144.224
X59.853 Y-144.23
X59.485 Y-145.495
X59.483 Y-145.502
X59.106 Y-146.759
X59.104 Y-146.765
X58.718 Y-148.013
X58.715 Y-148.019
X58.319 Y-149.258
X58.317 Y-149.264
X57.912 Y-150.495
X57.91 Y-150.502
X57.496 Y-151.724
X57.494 Y-151.73
X57.071 Y-152.944
X57.069 Y-152.95
X56.637 Y-154.154
X56.635 Y-154.16
X56.194 Y-155.356
X56.192 Y-155.362
X55.743 Y-156.549
X55.741 Y-156.555
X55.284 Y-157.733
X55.281 Y-157.739
X54.816 Y-158.909
X54.814 Y-158.915
X54.341 Y-160.075
X54.338 Y-160.081
X53.857 Y-161.233
X53.855 Y-161.239
X53.366 Y-162.381
X53.364 Y-162.387
X52.868 Y-163.52
X52.866 Y-163.525
X52.362 Y-164.65
X52.36 Y-164.656
X51.849 Y-165.771
X51.847 Y-165.777
X51.33 Y-166.883
X51.327 Y-166.889
X50.803 Y-167.984
X50.8 Y-167.99
X50.27 Y-169.077
X50.265 Y-169.085
X49.185 Y-171.231
X49.179 Y-171.242
X48.074 Y-173.35
X48.068 Y-173.361
X46.94 Y-175.43
X46.934 Y-175.441
X45.783 Y-177.47
X45.777 Y-177.481
X44.605 Y-179.469
X44.599 Y-179.479
X43.407 Y-181.427
X43.401 Y-181.438
X42.191 Y-183.343
X42.184 Y-183.354
X40.956 Y-185.216
X40.949 Y-185.226
X39.706 Y-187.045
X39.698 Y-187.056
X38.439 Y-188.83
X38.432 Y-188.841
X37.159 Y-190.568
X37.151 Y-190.579
X35.865 Y-192.26
X35.856 Y-192.271
X34.559 Y-193.904
X34.549 Y-193.915
X33.241 Y-195.498
X33.234 Y-195.506
X32.576 Y-196.279
X32.571 Y-196.285
X31.91 Y-197.045
X31.905 Y-197.051
X31.242 Y-197.798
X31.237 Y-197.804
X30.572 Y-198.538
X30.567 Y-198.543
X29.9 Y-199.264
X29.894 Y-199.27
X29.225 Y-199.978
X29.22 Y-199.984
X28.549 Y-200.678
X28.543 Y-200.684
X27.87 Y-201.364
X27.864 Y-201.37
X27.19 Y-202.036
X27.184 Y-202.042
X26.509 Y-202.695
X26.502 Y-202.702
X25.825 Y-203.34
X25.818 Y-203.346
X25.14 Y-203.969
X25.134 Y-203.975
X24.454 Y-204.585
X24.446 Y-204.592
X23.766 Y-205.186
X23.759 Y-205.192
X23.077 Y-205.772
X23.069 Y-205.779
X22.386 Y-206.343
X22.379 Y-206.349
X21.696 Y-206.899
X21.687 Y-206.906
X21.003 Y-207.44
X20.994 Y-207.447
X20.31 Y-207.966
X20.3 Y-207.973
X19.615 Y-208.475
X19.606 Y-208.482
X18.92 Y-208.969
X18.91 Y-208.975
X18.224 Y-209.446
X18.214 Y-209.453
X17.527 Y-209.908
X17.517 Y-209.915
X16.83 Y-210.354
X16.819 Y-210.361
X16.132 Y-210.783
X16.12 Y-210.79
X15.433 Y-211.195
X15.421 Y-211.202
X14.734 Y-211.591
X14.722 Y-211.598
X14.034 Y-211.97
X14.021 Y-211.977
X13.333 Y-212.331
X13.321 Y-212.337
X12.634 Y-212.675
X12.62 Y-212.682
X11.933 Y-213.002
X11.918 Y-213.009
X11.231 Y-213.311
X11.217 Y-213.317
X10.53 Y-213.602
X10.515 Y-213.608
X9.829 Y-213.876
X9.812 Y-213.882
X9.126 Y-214.131
X9.11 Y-214.137
X8.424 Y-214.368
X8.409 Y-214.373
X7.724 Y-214.587
X7.705 Y-214.592
X7.021 Y-214.787
X7.003 Y-214.792
X6.319 Y-214.969
X6.3 Y-214.974
X5.616 Y-215.132
X5.598 Y-215.136
X4.915 Y-215.276
X4.896 Y-215.279
X4.214 Y-215.401
X4.194 Y-215.405
X3.512 Y-215.508
X3.492 Y-215.51
X2.811 Y-215.594
X2.791 Y-215.596
X2.111 Y-215.663
X2.089 Y-215.664
X1.409 Y-215.71
X1.39 Y-215.711
X0.711 Y-215.74
X0.689 Y-215.741
X0.01 Y-215.75
G2 X-0.75 Y-215 I-0.01 J0.75
G1 Y0
G2 X0.005 Y0.75 I0.75 J0
G1 X1.362 Y0.74
X1.373
X2.711 Y0.711
X2.722
X4.042 Y0.663
X4.053 Y0.662
X5.353 Y0.595
X5.365 Y0.594
X6.646 Y0.508
X6.658 Y0.507
X7.921 Y0.401
X7.933 Y0.4
X9.177 Y0.275
X9.19 Y0.274
X10.415 Y0.13
X10.428 Y0.128
X11.634 Y-0.034
X11.647 Y-0.036
X12.835 Y-0.217
X12.849 Y-0.219
X14.018 Y-0.419
X14.032 Y-0.422
X15.183 Y-0.64
X15.197 Y-0.643
X16.33 Y-0.88
X16.344 Y-0.883
X17.459 Y-1.138
X17.473 Y-1.141
X18.57 Y-1.414
X18.584 Y-1.418
X19.663 Y-1.709
X19.678 Y-1.713
X20.739 Y-2.021
X20.753 Y-2.025
X21.797 Y-2.352
X21.812 Y-2.356
X22.838 Y-2.7
X22.853 Y-2.705
X23.862 Y-3.065
X23.877 Y-3.071
X24.869 Y-3.448
X24.883 Y-3.454
X25.858 Y-3.848
X25.873 Y-3.854
X26.831 Y-4.265
X26.846 Y-4.271
X27.787 Y-4.698
X27.802 Y-4.705
X28.727 Y-5.148
X28.741 Y-5.155
X29.65 Y-5.614
X29.664 Y-5.621
X30.557 Y-6.095
X30.571 Y-6.103
X31.448 Y-6.593
X31.462 Y-6.6
X32.323 Y-7.105
X32.336 Y-7.113
X33.182 Y-7.633
X33.195 Y-7.641
X34.026 Y-8.176
X34.039 Y-8.184
X34.854 Y-8.733
X34.867 Y-8.742
X35.667 Y-9.304
X35.679 Y-9.313
X36.464 Y-9.89
X36.476 Y-9.899
X37.247 Y-10.489
X37.259 Y-10.498
X38.015 Y-11.102
X38.027 Y-11.111
X38.768 Y-11.728
X38.78 Y-11.737
X39.507 Y-12.366
X39.518 Y-12.376
X40.232 Y-13.017
X40.242 Y-13.027
X40.943 Y-13.681
X40.953 Y-13.691
X41.639 Y-14.356
X41.649 Y-14.366
X42.322 Y-15.044
X42.332 Y-15.053
X42.992 Y-15.742
X43.001 Y-15.752
X43.648 Y-16.452
X43.657 Y-16.461
X44.291 Y-17.172
X44.299 Y-17.182
X44.921 Y-17.903
X44.929 Y-17.912
X45.538 Y-18.644
X45.546 Y-18.653
X46.143 Y-19.395
X46.151 Y-19.404
X46.735 Y-20.155
X46.742 Y-20.165
X47.315 Y-20.925
X47.322 Y-20.934
X47.883 Y-21.704
X47.89 Y-21.713
X48.44 Y-22.491
X48.446 Y-22.5
X48.984 Y-23.287
X48.99 Y-23.296
X49.517 Y-24.091
X49.523 Y-24.1
X50.039 Y-24.902
X50.044 Y-24.911
X50.549 Y-25.722
X50.555 Y-25.73
X51.049 Y-26.548
X51.054 Y-26.557
X51.538 Y-27.382
X51.543 Y-27.39
X52.016 Y-28.222
X52.021 Y-28.23
X52.484 Y-29.068
X52.488 Y-29.077
X52.941 Y-29.921
X52.945 Y-29.929
X53.388 Y-30.78
X53.392 Y-30.788
X53.825 Y-31.644
X53.829 Y-31.652
X54.252 Y-32.513
X54.256 Y-32.521
X54.67 Y-33.388
X54.674 Y-33.395
X55.078 Y-34.267
X55.082 Y-34.274
X55.477 Y-35.15
X55.48 Y-35.158
X55.866 Y-36.038
X55.871 Y-36.049
X56.616 Y-37.822
X56.622 Y-37.836
X57.333 Y-39.623
X57.338 Y-39.636
X58.014 Y-41.436
X58.019 Y-41.448
X58.663 Y-43.258
X58.667 Y-43.27
X59.278 Y-45.088
X59.282 Y-45.1
X59.863 Y-46.924
X59.866 Y-46.935
X60.416 Y-48.763
X60.419 Y-48.774
X60.939 Y-50.604
X60.942 Y-50.615
X61.432 Y-52.445
X61.435 Y-52.456
X61.897 Y-54.285
X61.899 Y-54.295
X62.333 Y-56.121
X62.336 Y-56.131
X62.742 Y-57.953
X62.745 Y-57.962
X63.124 Y-59.777
X63.126 Y-59.787
X63.479 Y-61.593
X63.481 Y-61.603
X63.808 Y-63.4
X63.81 Y-63.41
X64.111 Y-65.196
X64.112 Y-65.205
X64.388 Y-66.978
X64.39 Y-66.988
X64.64 Y-68.748
X64.641 Y-68.757
X64.867 Y-70.502
X64.868 Y-70.511
X65.069 Y-72.24
X65.07 Y-72.249
X65.247 Y-73.96
X65.248 Y-73.97
X65.4 Y-75.663
Y-75.673
X65.528 Y-77.346
X65.529 Y-77.356
X65.632 Y-79.009
X65.633 Y-79.02
X65.712 Y-80.652
X65.713 Y-80.663
X65.768 Y-82.273
X65.769 Y-82.284
X65.8 Y-83.873
Y-83.884
X65.807 Y-85.45
Y-85.461
X65.791 Y-87.004
X65.79 Y-87.016
X65.75 Y-88.536
G2 X65.026 Y-89.266 I-0.75 J0.02
G1 X64.98 Y-89.275
X64.939 Y-89.297
X64.907 Y-89.332
X64.887 Y-89.374
X64.881 Y-89.421
X64.887 Y-89.571
X64.888 Y-89.617 Z-0.993
X64.89 Y-89.659 Z-0.971
X64.891 Y-89.692 Z-0.938
X64.892 Y-89.713 Z-0.896
Y-89.721 Z-0.85
G0 Z5
X65.192 Y-89.71
G1 Z0.25 F300
Z-1.1
X65.191 Y-89.703 Z-1.146 F400
Y-89.682 Z-1.188
X65.19 Y-89.648 Z-1.221
X65.188 Y-89.607 Z-1.243
X65.187 Y-89.56 Z-1.25
X65.181 Y-89.41
X65.172 Y-89.364
X65.15 Y-89.323
X65.115 Y-89.291
X65.073 Y-89.271
X65.026 Y-89.266
X64.974 F600
X51.151 Y-88.783
X50.785 Y-99.277
X65.026 Y-99.773
G2 X65.75 Y-100.526 I-0.026 J-0.75
G1 X65.744 Y-102.06
Y-102.066
X65.724 Y-103.591
Y-103.598
X65.692 Y-105.113
Y-105.119
X65.647 Y-106.627
Y-106.634
X65.59 Y-108.132
X65.589 Y-108.138
X65.519 Y-109.628
Y-109.635
X65.436 Y-111.116
Y-111.122
X65.34 Y-112.594
Y-112.601
X65.232 Y-114.064
Y-114.071
X65.111 Y-115.526
Y-115.533
X64.978 Y-116.979
X64.977 Y-116.985
X64.832 Y-118.422
X64.831 Y-118.429
X64.674 Y-119.858
X64.673 Y-119.865
X64.504 Y-121.285
X64.503 Y-121.292
X64.322 Y-122.704
X64.321 Y-122.71
X64.127 Y-124.112
X64.126 Y-124.119
X63.921 Y-125.514
X63.92 Y-125.521
X63.703 Y-126.906
X63.702 Y-126.913
X63.473 Y-128.29
X63.472 Y-128.297
X63.232 Y-129.665
X63.231 Y-129.671
X62.98 Y-131.031
X62.978 Y-131.038
X62.716 Y-132.389
X62.714 Y-132.396
X62.441 Y-133.739
X62.439 Y-133.746
X62.154 Y-135.08
X62.153 Y-135.086
X61.857 Y-136.411
X61.856 Y-136.418
X61.55 Y-137.735
X61.548 Y-137.742
X61.231 Y-139.05
X61.23 Y-139.056
X60.902 Y-140.356
X60.901 Y-140.363
X60.563 Y-141.654
X60.561 Y-141.66
X60.214 Y-142.943
X60.212 Y-142.95
X59.854 Y-144.224
X59.853 Y-144.23
X59.485 Y-145.495
X59.483 Y-145.502
X59.106 Y-146.759
X59.104 Y-146.765
X58.718 Y-148.013
X58.715 Y-148.019
X58.319 Y-149.258
X58.317 Y-149.264
X57.912 Y-150.495
X57.91 Y-150.502
X57.496 Y-151.724
X57.494 Y-151.73
X57.071 Y-152.944
X57.069 Y-152.95
X56.637 Y-154.154
X56.635 Y-154.16
X56.194 Y-155.356
X56.192 Y-155.362
X55.743 Y-156.549
X55.741 Y-156.555
X55.284 Y-157.733
X55.281 Y-157.739
X54.816 Y-158.909
X54.814 Y-158.915
X54.341 Y-160.075
X54.338 Y-160.081
X53.857 Y-161.233
X53.855 Y-161.239
X53.366 Y-162.381
X53.364 Y-162.387
X52.868 Y-163.52
X52.866 Y-163.525
X52.362 Y-164.65
X52.36 Y-164.656
X51.849 Y-165.771
X51.847 Y-165.777
X51.33 Y-166.883
X51.327 Y-166.889
X50.803 Y-167.984
X50.8 Y-167.99
X50.27 Y-169.077
X50.265 Y-169.085
X49.185 Y-171.231
X49.179 Y-171.242
X48.074 Y-173.35
X48.068 Y-173.361
X46.94 Y-175.43
X46.934 Y-175.441
X45.783 Y-177.47
X45.777 Y-177.481
X44.605 Y-179.469
X44.599 Y-179.479
X43.407 Y-181.427
X43.401 Y-181.438
X42.191 Y-183.343
X42.184 Y-183.354
X40.956 Y-185.216
X40.949 Y-185.226
X39.706 Y-187.045
X39.698 Y-187.056
X38.439 Y-188.83
X38.432 Y-188.841
X37.159 Y-190.568
X37.151 Y-190.579
X35.865 Y-192.26
X35.856 Y-192.271
X34.559 Y-193.904
X34.549 Y-193.915
X33.241 Y-195.498
X33.234 Y-195.506
X32.576 Y-196.279
X32.571 Y-196.285
X31.91 Y-197.045
X31.905 Y-197.051
X31.242 Y-197.798
X31.237 Y-197.804
X30.572 Y-198.538
X30.567 Y-198.543
X29.9 Y-199.264
X29.894 Y-199.27
X29.225 Y-199.978
X29.22 Y-199.984
X28.549 Y-200.678
X28.543 Y-200.684
X27.87 Y-201.364
X27.864 Y-201.37
X27.19 Y-202.036
X27.184 Y-202.042
X26.509 Y-202.695
X26.502 Y-202.702
X25.825 Y-203.34
X25.818 Y-203.346
X25.14 Y-203.969
X25.134 Y-203.975
X24.454 Y-204.585
X24.446 Y-204.592
X23.766 Y-205.186
X23.759 Y-205.192
X23.077 Y-205.772
X23.069 Y-205.779
X22.386 Y-206.343
X22.379 Y-206.349
X21.696 Y-206.899
X21.687 Y-206.906
X21.003 Y-207.44
X20.994 Y-207.447
X20.31 Y-207.966
X20.3 Y-207.973
X19.615 Y-208.475
X19.606 Y-208.482
X18.92 Y-208.969
X18.91 Y-208.975
X18.224 Y-209.446
X18.214 Y-209.453
X17.527 Y-209.908
X17.517 Y-209.915
X16.83 Y-210.354
X16.819 Y-210.361
X16.132 Y-210.783
X16.12 Y-210.79
X15.433 Y-211.195
X15.421 Y-211.202
X14.734 Y-211.591
X14.722 Y-211.598
X14.034 Y-211.97
X14.021 Y-211.977
X13.333 Y-212.331
X13.321 Y-212.337
X12.634 Y-212.675
X12.62 Y-212.682
X11.933 Y-213.002
X11.918 Y-213.009
X11.231 Y-213.311
X11.217 Y-213.317
X10.53 Y-213.602
X10.515 Y-213.608
X9.829 Y-213.876
X9.812 Y-213.882
X9.126 Y-214.131
X9.11 Y-214.137
X8.424 Y-214.368
X8.409 Y-214.373
X7.724 Y-214.587
X7.705 Y-214.592
X7.021 Y-214.787
X7.003 Y-214.792
X6.319 Y-214.969
X6.3 Y-214.974
X5.616 Y-215.132
X5.598 Y-215.136
X4.915 Y-215.276
X4.896 Y-215.279
X4.214 Y-215.401
X4.194 Y-215.405
X3.512 Y-215.508
X3.492 Y-215.51
X2.811 Y-215.594
X2.791 Y-215.596
X2.111 Y-215.663
X2.089 Y-215.664
X1.409 Y-215.71
X1.39 Y-215.711
X0.711 Y-215.74
X0.689 Y-215.741
X0.01 Y-215.75
G2 X-0.75 Y-215 I-0.01 J0.75
G1 Y0
G2 X0.005 Y0.75 I0.75 J0
G1 X1.362 Y0.74
X1.373
X2.711 Y0.711
X2.722
X4.042 Y0.663
X4.053 Y0.662
X5.353 Y0.595
X5.365 Y0.594
X6.646 Y0.508
X6.658 Y0.507
X7.921 Y0.401
X7.933 Y0.4
X9.177 Y0.275
X9.19 Y0.274
X10.415 Y0.13
X10.428 Y0.128
X11.634 Y-0.034
X11.647 Y-0.036
X12.835 Y-0.217
X12.849 Y-0.219
X14.018 Y-0.419
X14.032 Y-0.422
X15.183 Y-0.64
X15.197 Y-0.643
X16.33 Y-0.88
X16.344 Y-0.883
X17.459 Y-1.138
X17.473 Y-1.141
X18.57 Y-1.414
X18.584 Y-1.418
X19.663 Y-1.709
X19.678 Y-1.713
X20.739 Y-2.021
X20.753 Y-2.025
X21.797 Y-2.352
X21.812 Y-2.356
X22.838 Y-2.7
X22.853 Y-2.705
X23.862 Y-3.065
X23.877 Y-3.071
X24.869 Y-3.448
X24.883 Y-3.454
X25.858 Y-3.848
X25.873 Y-3.854
X26.831 Y-4.265
X26.846 Y-4.271
X27.787 Y-4.698
X27.802 Y-4.705
X28.727 Y-5.148
X28.741 Y-5.155
X29.65 Y-5.614
X29.664 Y-5.621
X30.557 Y-6.095
X30.571 Y-6.103
X31.448 Y-6.593
X31.462 Y-6.6
X32.323 Y-7.105
X32.336 Y-7.113
X33.182 Y-7.633
X33.195 Y-7.641
X34.026 Y-8.176
X34.039 Y-8.184
X34.854 Y-8.733
X34.867 Y-8.742
X35.667 Y-9.304
X35.679 Y-9.313
X36.464 Y-9.89
X36.476 Y-9.899
X37.247 Y-10.489
X37.259 Y-10.498
X38.015 Y-11.102
X38.027 Y-11.111
X38.768 Y-11.728
X38.78 Y-11.737
X39.507 Y-12.366
X39.518 Y-12.376
X40.232 Y-13.017
X40.242 Y-13.027
X40.943 Y-13.681
X40.953 Y-13.691
X41.639 Y-14.356
X41.649 Y-14.366
X42.322 Y-15.044
X42.332 Y-15.053
X42.992 Y-15.742
X43.001 Y-15.752
X43.648 Y-16.452
X43.657 Y-16.461
X44.291 Y-17.172
X44.299 Y-17.182
X44.921 Y-17.903
X44.929 Y-17.912
X45.538 Y-18.644
X45.546 Y-18.653
X46.143 Y-19.395
X46.151 Y-19.404
X46.735 Y-20.155
X46.742 Y-20.165
X47.315 Y-20.925
X47.322 Y-20.934
X47.883 Y-21.704
X47.89 Y-21.713
X48.44 Y-22.491
X48.446 Y-22.5
X48.984 Y-23.287
X48.99 Y-23.296
X49.517 Y-24.091
X49.523 Y-24.1
X50.039 Y-24.902
X50.044 Y-24.911
X50.549 Y-25.722
X50.555 Y-25.73
X51.049 Y-26.548
X51.054 Y-26.557
X51.538 Y-27.382
X51.543 Y-27.39
X52.016 Y-28.222
X52.021 Y-28.23
X52.484 Y-29.068
X52.488 Y-29.077
X52.941 Y-29.921
X52.945 Y-29.929
X53.388 Y-30.78
X53.392 Y-30.788
X53.825 Y-31.644
X53.829 Y-31.652
X54.252 Y-32.513
X54.256 Y-32.521
X54.67 Y-33.388
X54.674 Y-33.395
X55.078 Y-34.267
X55.082 Y-34.274
X55.477 Y-35.15
X55.48 Y-35.158
X55.866 Y-36.038
X55.871 Y-36.049
X56.616 Y-37.822
X56.622 Y-37.836
X57.333 Y-39.623
X57.338 Y-39.636
X58.014 Y-41.436
X58.019 Y-41.448
X58.663 Y-43.258
X58.667 Y-43.27
X59.278 Y-45.088
X59.282 Y-45.1
X59.863 Y-46.924
X59.866 Y-46.935
X60.416 Y-48.763
X60.419 Y-48.774
X60.939 Y-50.604
X60.942 Y-50.615
X61.432 Y-52.445
X61.435 Y-52.456
X61.897 Y-54.285
X61.899 Y-54.295
X62.333 Y-56.121
X62.336 Y-56.131
X62.742 Y-57.953
X62.745 Y-57.962
X63.124 Y-59.777
X63.126 Y-59.787
X63.479 Y-61.593
X63.481 Y-61.603
X63.808 Y-63.4
X63.81 Y-63.41
X64.111 Y-65.196
X64.112 Y-65.205
X64.388 Y-66.978
X64.39 Y-66.988
X64.64 Y-68.748
X64.641 Y-68.757
X64.867 Y-70.502
X64.868 Y-70.511
X65.069 Y-72.24
X65.07 Y-72.249
X65.247 Y-73.96
X65.248 Y-73.97
X65.4 Y-75.663
Y-75.673
X65.528 Y-77.346
X65.529 Y-77.356
X65.632 Y-79.009
X65.633 Y-79.02
X65.712 Y-80.652
X65.713 Y-80.663
X65.768 Y-82.273
X65.769 Y-82.284
X65.8 Y-83.873
Y-83.884
X65.807 Y-85.45
Y-85.461
X65.791 Y-87.004
X65.79 Y-87.016
X65.75 Y-88.536
G2 X65.026 Y-89.266 I-0.75 J0.02
G1 X64.98 Y-89.275
X64.939 Y-89.297
X64.907 Y-89.332
X64.887 Y-89.374
X64.881 Y-89.421
X64.887 Y-89.571
X64.888 Y-89.617 Z-1.243
X64.89 Y-89.659 Z-1.221
X64.891 Y-89.692 Z-1.188
X64.892 Y-89.713 Z-1.146
Y-89.721 Z-1.1
G0 Z5
X65.192 Y-89.71
G1 Z0 F300
Z-1.35
X65.191 Y-89.703 Z-1.396 F400
Y-89.682 Z-1.438
X65.19 Y-89.648 Z-1.471
X65.188 Y-89.607 Z-1.493
X65.187 Y-89.56 Z-1.5
X65.181 Y-89.41
X65.172 Y-89.364
X65.15 Y-89.323
X65.115 Y-89.291
X65.073 Y-89.271
X65.026 Y-89.266
X64.974 F600
X51.151 Y-88.783
X50.785 Y-99.277
X54.679 Y-99.412
Z-1.3
X59.676 Y-99.587
Z-1.5 F300
X65.026 Y-99.773 F600
G2 X65.75 Y-100.526 I-0.026 J-0.75
G1 X65.744 Y-102.06
Y-102.066
X65.724 Y-103.591
Y-103.598
X65.692 Y-105.113
Y-105.119
X65.647 Y-106.627
Y-106.634
X65.59 Y-108.132
X65.589 Y-108.138
X65.519 Y-109.628
Y-109.635
X65.436 Y-111.116
Y-111.122
X65.34 Y-112.594
Y-112.601
X65.232 Y-114.064
Y-114.071
X65.111 Y-115.526
Y-115.533
X64.978 Y-116.979
X64.977 Y-116.985
X64.832 Y-118.422
X64.831 Y-118.429
X64.674 Y-119.858
X64.673 Y-119.865
X64.504 Y-121.285
X64.503 Y-121.292
X64.322 Y-122.704
X64.321 Y-122.71
X64.127 Y-124.112
X64.126 Y-124.119
X63.921 Y-125.514
X63.92 Y-125.521
X63.703 Y-126.906
X63.702 Y-126.913
X63.473 Y-128.29
X63.472 Y-128.297
X63.232 Y-129.665
X63.231 Y-129.671
X62.98 Y-131.031
X62.978 Y-131.038
X62.716 Y-132.389
X62.714 Y-132.396
X62.441 Y-133.739
X62.439 Y-133.746
X62.154 Y-135.08
X62.153 Y-135.086
X61.857 Y-136.411
X61.856 Y-136.418
X61.55 Y-137.735
X61.548 Y-137.742
X61.231 Y-139.05
X61.23 Y-139.056
X60.902 Y-140.356
X60.901 Y-140.363
X60.563 Y-141.654
X60.561 Y-141.66
X60.214 Y-142.943
X60.212 Y-142.95
X59.854 Y-144.224
X59.853 Y-144.23
X59.485 Y-145.495
X59.483 Y-145.502
X59.106 Y-146.759
X59.104 Y-146.765
X58.718 Y-148.013
X58.715 Y-148.019
X58.319 Y-149.258
X58.317 Y-149.264
X57.912 Y-150.495
X57.91 Y-150.502
X57.496 Y-151.724
X57.494 Y-151.73
X57.071 Y-152.944
X57.069 Y-152.95
X56.637 Y-154.154
X56.635 Y-154.16
X56.194 Y-155.356
X56.192 Y-155.362
X55.743 Y-156.549
X55.741 Y-156.555
X55.284 Y-157.733
X55.281 Y-157.739
X54.816 Y-158.909
X54.814 Y-158.915
X54.341 Y-160.075
X54.338 Y-160.081
X53.857 Y-161.233
X53.855 Y-161.239
X53.366 Y-162.381
X53.364 Y-162.387
X52.868 Y-163.52
X52.866 Y-163.525
X52.362 Y-164.65
X52.36 Y-164.656
X51.849 Y-165.771
X51.847 Y-165.777
X51.33 Y-166.883
X51.327 Y-166.889
X50.803 Y-167.984
X50.8 Y-167.99
X50.27 Y-169.077
X50.265 Y-169.085
X49.185 Y-171.231
X49.179 Y-171.242
X48.074 Y-173.35
X48.068 Y-173.361
X46.94 Y-175.43
X46.934 Y-175.441
X45.783 Y-177.47
X45.777 Y-177.481
X44.605 Y-179.469
X44.599 Y-179.479
X43.407 Y-181.427
X43.401 Y-181.438
X42.191 Y-183.343
X42.184 Y-183.354
X40.956 Y-185.216
X40.949 Y-185.226
X39.706 Y-187.045
X39.698 Y-187.056
X38.439 Y-188.83
X38.432 Y-188.841
X37.159 Y-190.568
X37.151 Y-190.579
X35.865 Y-192.26
X35.856 Y-192.271
X34.559 Y-193.904
X34.549 Y-193.915
X33.241 Y-195.498
X33.234 Y-195.506
X32.576 Y-196.279
X32.571 Y-196.285
X31.91 Y-197.045
X31.905 Y-197.051
X31.242 Y-197.798
X31.237 Y-197.804
X30.572 Y-198.538
X30.567 Y-198.543
X29.9 Y-199.264
X29.894 Y-199.27
X29.225 Y-199.978
X29.22 Y-199.984
X28.549 Y-200.678
X28.543 Y-200.684
X27.87 Y-201.364
X27.864 Y-201.37
X27.19 Y-202.036
X27.184 Y-202.042
X26.509 Y-202.695
X26.502 Y-202.702
X25.825 Y-203.34
X25.818 Y-203.346
X25.14 Y-203.969
X25.134 Y-203.975
X24.454 Y-204.585
X24.446 Y-204.592
X23.766 Y-205.186
X23.759 Y-205.192
X23.077 Y-205.772
X23.069 Y-205.779
X22.386 Y-206.343
X22.379 Y-206.349
X21.696 Y-206.899
X21.687 Y-206.906
X21.003 Y-207.44
X20.994 Y-207.447
X20.31 Y-207.966
X20.3 Y-207.973
X19.615 Y-208.475
X19.606 Y-208.482
X18.92 Y-208.969
X18.91 Y-208.975
X18.224 Y-209.446
X18.214 Y-209.453
X17.527 Y-209.908
X17.517 Y-209.915
X16.83 Y-210.354
X16.819 Y-210.361
X16.132 Y-210.783
X16.12 Y-210.79
X15.433 Y-211.195
X15.421 Y-211.202
X14.734 Y-211.591
X14.722 Y-211.598
X14.034 Y-211.97
X14.021 Y-211.977
X13.333 Y-212.331
X13.321 Y-212.337
X12.634 Y-212.675
X12.62 Y-212.682
X11.933 Y-213.002
X11.918 Y-213.009
X11.231 Y-213.311
X11.217 Y-213.317
X10.53 Y-213.602
X10.515 Y-213.608
X9.829 Y-213.876
X9.812 Y-213.882
X9.126 Y-214.131
X9.11 Y-214.137
X8.424 Y-214.368
X8.409 Y-214.373
X7.724 Y-214.587
X7.705 Y-214.592
X7.021 Y-214.787
X7.003 Y-214.792
X6.319 Y-214.969
X6.3 Y-214.974
X5.616 Y-215.132
X5.598 Y-215.136
X4.915 Y-215.276
X4.896 Y-215.279
X4.214 Y-215.401
X4.194 Y-215.405
X3.512 Y-215.508
X3.492 Y-215.51
X2.811 Y-215.594
X2.791 Y-215.596
X2.111 Y-215.663
X2.089 Y-215.664
X1.409 Y-215.71
X1.39 Y-215.711
X0.711 Y-215.74
X0.689 Y-215.741
X0.01 Y-215.75
G2 X-0.75 Y-215 I-0.01 J0.75
G1 Y-211.467
Z-1.3
Y-206.467
Z-1.5 F300
Y-16.814 F600
Z-1.3
Y-11.814
Z-1.5 F300
Y0 F600
G2 X0.005 Y0.75 I0.75 J0
G1 X1.362 Y0.74
X1.373
X2.711 Y0.711
X2.722
X4.042 Y0.663
X4.053 Y0.662
X5.353 Y0.595
X5.365 Y0.594
X6.646 Y0.508
X6.658 Y0.507
X7.921 Y0.401
X7.933 Y0.4
X9.177 Y0.275
X9.19 Y0.274
X10.415 Y0.13
X10.428 Y0.128
X11.634 Y-0.034
X11.647 Y-0.036
X12.835 Y-0.217
X12.849 Y-0.219
X14.018 Y-0.419
X14.032 Y-0.422
X15.183 Y-0.64
X15.197 Y-0.643
X16.33 Y-0.88
X16.344 Y-0.883
X17.459 Y-1.138
X17.473 Y-1.141
X18.57 Y-1.414
X18.584 Y-1.418
X19.663 Y-1.709
X19.678 Y-1.713
X20.739 Y-2.021
X20.753 Y-2.025
X21.797 Y-2.352
X21.812 Y-2.356
X22.838 Y-2.7
X22.853 Y-2.705
X23.862 Y-3.065
X23.877 Y-3.071
X24.869 Y-3.448
X24.883 Y-3.454
X25.858 Y-3.848
X25.873 Y-3.854
X26.831 Y-4.265
X26.846 Y-4.271
X27.787 Y-4.698
X27.802 Y-4.705
X28.727 Y-5.148
X28.741 Y-5.155
X29.65 Y-5.614
X29.664 Y-5.621
X30.557 Y-6.095
X30.571 Y-6.103
X31.448 Y-6.593
X31.462 Y-6.6
X32.323 Y-7.105
X32.336 Y-7.113
X33.182 Y-7.633
X33.195 Y-7.641
X34.026 Y-8.176
X34.039 Y-8.184
X34.854 Y-8.733
X34.867 Y-8.742
X35.667 Y-9.304
X35.679 Y-9.313
X36.464 Y-9.89
X36.476 Y-9.899
X37.247 Y-10.489
X37.259 Y-10.498
X38.015 Y-11.102
X38.027 Y-11.111
X38.768 Y-11.728
X38.78 Y-11.737
X39.507 Y-12.366
X39.518 Y-12.376
X40.232 Y-13.017
X40.242 Y-13.027
X40.943 Y-13.681
X40.953 Y-13.691
X41.639 Y-14.356
X41.649 Y-14.366
X42.322 Y-15.044
X42.332 Y-15.053
X42.992 Y-15.742
X43.001 Y-15.752
X43.648 Y-16.452
X43.657 Y-16.461
X44.291 Y-17.172
X44.299 Y-17.182
X44.921 Y-17.903
X44.929 Y-17.912
X45.538 Y-18.644
X45.546 Y-18.653
X46.143 Y-19.395
X46.151 Y-19.404
X46.735 Y-20.155
X46.742 Y-20.165
X47.315 Y-20.925
X47.322 Y-20.934
X47.883 Y-21.704
X47.89 Y-21.713
X48.44 Y-22.491
X48.446 Y-22.5
X48.984 Y-23.287
X48.99 Y-23.296
X49.517 Y-24.091
X49.523 Y-24.1
X50.039 Y-24.902
X50.044 Y-24.911
X50.549 Y-25.722
X50.555 Y-25.73
X51.049 Y-26.548
X51.054 Y-26.557
X51.538 Y-27.382
X51.543 Y-27.39
X52.016 Y-28.222
X52.021 Y-28.23
X52.484 Y-29.068
X52.488 Y-29.077
X52.941 Y-29.921
X52.945 Y-29.929
X53.388 Y-30.78
X53.392 Y-30.788
X53.825 Y-31.644
X53.829 Y-31.652
X54.252 Y-32.513
X54.256 Y-32.521
X54.67 Y-33.388
X54.674 Y-33.395
X55.078 Y-34.267
X55.082 Y-34.274
X55.477 Y-35.15
X55.48 Y-35.158
X55.866 Y-36.038
X55.871 Y-36.049
X56.616 Y-37.822
X56.622 Y-37.836
X57.333 Y-39.623
X57.338 Y-39.636
X58.014 Y-41.436
X58.019 Y-41.448
X58.663 Y-43.258
X58.667 Y-43.27
X59.278 Y-45.088
X59.282 Y-45.1
X59.863 Y-46.924
X59.866 Y-46.935
X60.416 Y-48.763
X60.419 Y-48.774
X60.939 Y-50.604
X60.942 Y-50.615
X61.432 Y-52.445
X61.435 Y-52.456
X61.897 Y-54.285
X61.899 Y-54.295
X62.333 Y-56.121
X62.336 Y-56.131
X62.742 Y-57.953
X62.745 Y-57.962
X63.124 Y-59.777
X63.126 Y-59.787
X63.479 Y-61.593
X63.481 Y-61.603
X63.808 Y-63.4
X63.81 Y-63.41
X64.111 Y-65.196
X64.112 Y-65.205
X64.388 Y-66.978
X64.39 Y-66.988
X64.64 Y-68.748
X64.641 Y-68.757
X64.867 Y-70.502
X64.868 Y-70.511
X65.069 Y-72.24
X65.07 Y-72.249
X65.247 Y-73.96
X65.248 Y-73.97
X65.4 Y-75.663
Y-75.673
X65.528 Y-77.346
X65.529 Y-77.356
X65.632 Y-79.009
X65.633 Y-79.02
X65.712 Y-80.652
X65.713 Y-80.663
X65.768 Y-82.273
X65.769 Y-82.284
X65.8 Y-83.873
Y-83.884
X65.807 Y-85.45
Y-85.461
X65.791 Y-87.004
X65.79 Y-87.016
X65.75 Y-88.536
G2 X65.026 Y-89.266 I-0.75 J0.02
G1 X64.98 Y-89.275
X64.939 Y-89.297
X64.907 Y-89.332
X64.887 Y-89.374
X64.881 Y-89.421
X64.887 Y-89.571
X64.888 Y-89.617 Z-1.493
X64.89 Y-89.659 Z-1.471
X64.891 Y-89.692 Z-1.438
X64.892 Y-89.713 Z-1.396
Y-89.721 Z-1.35
G0 Z5
X65.192 Y-89.71
G1 Z-0.25 F300
Z-1.5
X65.191 Y-89.703 Z-1.546 F400
Y-89.682 Z-1.588
X65.19 Y-89.648 Z-1.621
X65.188 Y-89.607 Z-1.643
X65.187 Y-89.56 Z-1.65
X65.181 Y-89.41
X65.172 Y-89.364
X65.15 Y-89.323
X65.115 Y-89.291
X65.073 Y-89.271
X65.026 Y-89.266
X64.974 F600
X51.151 Y-88.783
X50.785 Y-99.277
X54.679 Y-99.412
Z-1.3
X59.676 Y-99.587
Z-1.65 F300
X65.026 Y-99.773 F600
G2 X65.75 Y-100.526 I-0.026 J-0.75
G1 X65.744 Y-102.06
Y-102.066
X65.724 Y-103.591
Y-103.598
X65.692 Y-105.113
Y-105.119
X65.647 Y-106.627
Y-106.634
X65.59 Y-108.132
X65.589 Y-108.138
X65.519 Y-109.628
Y-109.635
X65.436 Y-111.116
Y-111.122
X65.34 Y-112.594
Y-112.601
X65.232 Y-114.064
Y-114.071
X65.111 Y-115.526
Y-115.533
X64.978 Y-116.979
X64.977 Y-116.985
X64.832 Y-118.422
X64.831 Y-118.429
X64.674 Y-119.858
X64.673 Y-119.865
X64.504 Y-121.285
X64.503 Y-121.292
X64.322 Y-122.704
X64.321 Y-122.71
X64.127 Y-124.112
X64.126 Y-124.119
X63.921 Y-125.514
X63.92 Y-125.521
X63.703 Y-126.906
X63.702 Y-126.913
X63.473 Y-128.29
X63.472 Y-128.297
X63.232 Y-129.665
X63.231 Y-129.671
X62.98 Y-131.031
X62.978 Y-131.038
X62.716 Y-132.389
X62.714 Y-132.396
X62.441 Y-133.739
X62.439 Y-133.746
X62.154 Y-135.08
X62.153 Y-135.086
X61.857 Y-136.411
X61.856 Y-136.418
X61.55 Y-137.735
X61.548 Y-137.742
X61.231 Y-139.05
X61.23 Y-139.056
X60.902 Y-140.356
X60.901 Y-140.363
X60.563 Y-141.654
X60.561 Y-141.66
X60.214 Y-142.943
X60.212 Y-142.95
X59.854 Y-144.224
X59.853 Y-144.23
X59.485 Y-145.495
X59.483 Y-145.502
X59.106 Y-146.759
X59.104 Y-146.765
X58.718 Y-148.013
X58.715 Y-148.019
X58.319 Y-149.258
X58.317 Y-149.264
X57.912 Y-150.495
X57.91 Y-150.502
X57.496 Y-151.724
X57.494 Y-151.73
X57.071 Y-152.944
X57.069 Y-152.95
X56.637 Y-154.154
X56.635 Y-154.16
X56.194 Y-155.356
X56.192 Y-155.362
X55.743 Y-156.549
X55.741 Y-156.555
X55.284 Y-157.733
X55.281 Y-157.739
X54.816 Y-158.909
X54.814 Y-158.915
X54.341 Y-160.075
X54.338 Y-160.081
X53.857 Y-161.233
X53.855 Y-161.239
X53.366 Y-162.381
X53.364 Y-162.387
X52.868 Y-163.52
X52.866 Y-163.525
X52.362 Y-164.65
X52.36 Y-164.656
X51.849 Y-165.771
X51.847 Y-165.777
X51.33 Y-166.883
X51.327 Y-166.889
X50.803 Y-167.984
X50.8 Y-167.99
X50.27 Y-169.077
X50.265 Y-169.085
X49.185 Y-171.231
X49.179 Y-171.242
X48.074 Y-173.35
X48.068 Y-173.361
X46.94 Y-175.43
X46.934 Y-175.441
X45.783 Y-177.47
X45.777 Y-177.481
X44.605 Y-179.469
X44.599 Y-179.479
X43.407 Y-181.427
X43.401 Y-181.438
X42.191 Y-183.343
X42.184 Y-183.354
X40.956 Y-185.216
X40.949 Y-185.226
X39.706 Y-187.045
X39.698 Y-187.056
X38.439 Y-188.83
X38.432 Y-188.841
X37.159 Y-190.568
X37.151 Y-190.579
X35.865 Y-192.26
X35.856 Y-192.271
X34.559 Y-193.904
X34.549 Y-193.915
X33.241 Y-195.498
X33.234 Y-195.506
X32.576 Y-196.279
X32.571 Y-196.285
X31.91 Y-197.045
X31.905 Y-197.051
X31.242 Y-197.798
X31.237 Y-197.804
X30.572 Y-198.538
X30.567 Y-198.543
X29.9 Y-199.264
X29.894 Y-199.27
X29.225 Y-199.978
X29.22 Y-199.984
X28.549 Y-200.678
X28.543 Y-200.684
X27.87 Y-201.364
X27.864 Y-201.37
X27.19 Y-202.036
X27.184 Y-202.042
X26.509 Y-202.695
X26.502 Y-202.702
X25.825 Y-203.34
X25.818 Y-203.346
X25.14 Y-203.969
X25.134 Y-203.975
X24.454 Y-204.585
X24.446 Y-204.592
X23.766 Y-205.186
X23.759 Y-205.192
X23.077 Y-205.772
X23.069 Y-205.779
X22.386 Y-206.343
X22.379 Y-206.349
X21.696 Y-206.899
X21.687 Y-206.906
X21.003 Y-207.44
X20.994 Y-207.447
X20.31 Y-207.966
X20.3 Y-207.973
X19.615 Y-208.475
X19.606 Y-208.482
X18.92 Y-208.969
X18.91 Y-208.975
X18.224 Y-209.446
X18.214 Y-209.453
X17.527 Y-209.908
X17.517 Y-209.915
X16.83 Y-210.354
X16.819 Y-210.361
X16.132 Y-210.783
X16.12 Y-210.79
X15.433 Y-211.195
X15.421 Y-211.202
X14.734 Y-211.591
X14.722 Y-211.598
X14.034 Y-211.97
X14.021 Y-211.977
X13.333 Y-212.331
X13.321 Y-212.337
X12.634 Y-212.675
X12.62 Y-212.682
X11.933 Y-213.002
X11.918 Y-213.009
X11.231 Y-213.311
X11.217 Y-213.317
X10.53 Y-213.602
X10.515 Y-213.608
X9.829 Y-213.876
X9.812 Y-213.882
X9.126 Y-214.131
X9.11 Y-214.137
X8.424 Y-214.368
X8.409 Y-214.373
X7.724 Y-214.587
X7.705 Y-214.592
X7.021 Y-214.787
X7.003 Y-214.792
X6.319 Y-214.969
X6.3 Y-214.974
X5.616 Y-215.132
X5.598 Y-215.136
X4.915 Y-215.276
X4.896 Y-215.279
X4.214 Y-215.401
X4.194 Y-215.405
X3.512 Y-215.508
X3.492 Y-215.51
X2.811 Y-215.594
X2.791 Y-215.596
X2.111 Y-215.663
X2.089 Y-215.664
X1.409 Y-215.71
X1.39 Y-215.711
X0.711 Y-215.74
X0.689 Y-215.741
X0.01 Y-215.75
G2 X-0.75 Y-215 I-0.01 J0.75
G1 Y-211.467
Z-1.3
Y-206.467
Z-1.65 F300
Y-16.814 F600
Z-1.3
Y-11.814
Z-1.65 F300
Y0 F600
G2 X0.005 Y0.75 I0.75 J0
G1 X1.362 Y0.74
X1.373
X2.711 Y0.711
X2.722
X4.042 Y0.663
X4.053 Y0.662
X5.353 Y0.595
X5.365 Y0.594
X6.646 Y0.508
X6.658 Y0.507
X7.921 Y0.401
X7.933 Y0.4
X9.177 Y0.275
X9.19 Y0.274
X10.415 Y0.13
X10.428 Y0.128
X11.634 Y-0.034
X11.647 Y-0.036
X12.835 Y-0.217
X12.849 Y-0.219
X14.018 Y-0.419
X14.032 Y-0.422
X15.183 Y-0.64
X15.197 Y-0.643
X16.33 Y-0.88
X16.344 Y-0.883
X17.459 Y-1.138
X17.473 Y-1.141
X18.57 Y-1.414
X18.584 Y-1.418
X19.663 Y-1.709
X19.678 Y-1.713
X20.739 Y-2.021
X20.753 Y-2.025
X21.797 Y-2.352
X21.812 Y-2.356
X22.838 Y-2.7
X22.853 Y-2.705
X23.862 Y-3.065
X23.877 Y-3.071
X24.869 Y-3.448
X24.883 Y-3.454
X25.858 Y-3.848
X25.873 Y-3.854
X26.831 Y-4.265
X26.846 Y-4.271
X27.787 Y-4.698
X27.802 Y-4.705
X28.727 Y-5.148
X28.741 Y-5.155
X29.65 Y-5.614
X29.664 Y-5.621
X30.557 Y-6.095
X30.571 Y-6.103
X31.448 Y-6.593
X31.462 Y-6.6
X32.323 Y-7.105
X32.336 Y-7.113
X33.182 Y-7.633
X33.195 Y-7.641
X34.026 Y-8.176
X34.039 Y-8.184
X34.854 Y-8.733
X34.867 Y-8.742
X35.667 Y-9.304
X35.679 Y-9.313
X36.464 Y-9.89
X36.476 Y-9.899
X37.247 Y-10.489
X37.259 Y-10.498
X38.015 Y-11.102
X38.027 Y-11.111
X38.768 Y-11.728
X38.78 Y-11.737
X39.507 Y-12.366
X39.518 Y-12.376
X40.232 Y-13.017
X40.242 Y-13.027
X40.943 Y-13.681
X40.953 Y-13.691
X41.639 Y-14.356
X41.649 Y-14.366
X42.322 Y-15.044
X42.332 Y-15.053
X42.992 Y-15.742
X43.001 Y-15.752
X43.648 Y-16.452
X43.657 Y-16.461
X44.291 Y-17.172
X44.299 Y-17.182
X44.921 Y-17.903
X44.929 Y-17.912
X45.538 Y-18.644
X45.546 Y-18.653
X46.143 Y-19.395
X46.151 Y-19.404
X46.735 Y-20.155
X46.742 Y-20.165
X47.315 Y-20.925
X47.322 Y-20.934
X47.883 Y-21.704
X47.89 Y-21.713
X48.44 Y-22.491
X48.446 Y-22.5
X48.984 Y-23.287
X48.99 Y-23.296
X49.517 Y-24.091
X49.523 Y-24.1
X50.039 Y-24.902
X50.044 Y-24.911
X50.549 Y-25.722
X50.555 Y-25.73
X51.049 Y-26.548
X51.054 Y-26.557
X51.538 Y-27.382
X51.543 Y-27.39
X52.016 Y-28.222
X52.021 Y-28.23
X52.484 Y-29.068
X52.488 Y-29.077
X52.941 Y-29.921
X52.945 Y-29.929
X53.388 Y-30.78
X53.392 Y-30.788
X53.825 Y-31.644
X53.829 Y-31.652
X54.252 Y-32.513
X54.256 Y-32.521
X54.67 Y-33.388
X54.674 Y-33.395
X55.078 Y-34.267
X55.082 Y-34.274
X55.477 Y-35.15
X55.48 Y-35.158
X55.866 Y-36.038
X55.871 Y-36.049
X56.616 Y-37.822
X56.622 Y-37.836
X57.333 Y-39.623
X57.338 Y-39.636
X58.014 Y-41.436
X58.019 Y-41.448
X58.663 Y-43.258
X58.667 Y-43.27
X59.278 Y-45.088
X59.282 Y-45.1
X59.863 Y-46.924
X59.866 Y-46.935
X60.416 Y-48.763
X60.419 Y-48.774
X60.939 Y-50.604
X60.942 Y-50.615
X61.432 Y-52.445
X61.435 Y-52.456
X61.897 Y-54.285
X61.899 Y-54.295
X62.333 Y-56.121
X62.336 Y-56.131
X62.742 Y-57.953
X62.745 Y-57.962
X63.124 Y-59.777
X63.126 Y-59.787
X63.479 Y-61.593
X63.481 Y-61.603
X63.808 Y-63.4
X63.81 Y-63.41
X64.111 Y-65.196
X64.112 Y-65.205
X64.388 Y-66.978
X64.39 Y-66.988
X64.64 Y-68.748
X64.641 Y-68.757
X64.867 Y-70.502
X64.868 Y-70.511
X65.069 Y-72.24
X65.07 Y-72.249
X65.247 Y-73.96
X65.248 Y-73.97
X65.4 Y-75.663
Y-75.673
X65.528 Y-77.346
X65.529 Y-77.356
X65.632 Y-79.009
X65.633 Y-79.02
X65.712 Y-80.652
X65.713 Y-80.663
X65.768 Y-82.273
X65.769 Y-82.284
X65.8 Y-83.873
Y-83.884
X65.807 Y-85.45
Y-85.461
X65.791 Y-87.004
X65.79 Y-87.016
X65.75 Y-88.536
G2 X65.026 Y-89.266 I-0.75 J0.02
G1 X64.98 Y-89.275
X64.939 Y-89.297
X64.907 Y-89.332
X64.887 Y-89.374
X64.881 Y-89.421
X64.887 Y-89.571
X64.888 Y-89.617 Z-1.643
X64.89 Y-89.659 Z-1.621
X64.891 Y-89.692 Z-1.588
X64.892 Y-89.713 Z-1.546
Y-89.721 Z-1.5
G0 Z5
X65.192 Y-89.71
G1 Z-0.4 F300
Z-1.65
X65.191 Y-89.703 Z-1.696 F400
Y-89.682 Z-1.738
X65.19 Y-89.648 Z-1.771
X65.188 Y-89.607 Z-1.793
X65.187 Y-89.56 Z-1.8
X65.181 Y-89.41
X65.172 Y-89.364
X65.15 Y-89.323
X65.115 Y-89.291
X65.073 Y-89.271
X65.026 Y-89.266
X64.974 F600
X51.151 Y-88.783
X50.785 Y-99.277
X54.679 Y-99.412
Z-1.3
X59.676 Y-99.587
Z-1.8 F300
X65.026 Y-99.773 F600
G2 X65.75 Y-100.526 I-0.026 J-0.75
G1 X65.744 Y-102.06
Y-102.066
X65.724 Y-103.591
Y-103.598
X65.692 Y-105.113
Y-105.119
X65.647 Y-106.627
Y-106.634
X65.59 Y-108.132
X65.589 Y-108.138
X65.519 Y-109.628
Y-109.635
X65.436 Y-111.116
Y-111.122
X65.34 Y-112.594
Y-112.601
X65.232 Y-114.064
Y-114.071
X65.111 Y-115.526
Y-115.533
X64.978 Y-116.979
X64.977 Y-116.985
X64.832 Y-118.422
X64.831 Y-118.429
X64.674 Y-119.858
X64.673 Y-119.865
X64.504 Y-121.285
X64.503 Y-121.292
X64.322 Y-122.704
X64.321 Y-122.71
X64.127 Y-124.112
X64.126 Y-124.119
X63.921 Y-125.514
X63.92 Y-125.521
X63.703 Y-126.906
X63.702 Y-126.913
X63.473 Y-128.29
X63.472 Y-128.297
X63.232 Y-129.665
X63.231 Y-129.671
X62.98 Y-131.031
X62.978 Y-131.038
X62.716 Y-132.389
X62.714 Y-132.396
X62.441 Y-133.739
X62.439 Y-133.746
X62.154 Y-135.08
X62.153 Y-135.086
X61.857 Y-136.411
X61.856 Y-136.418
X61.55 Y-137.735
X61.548 Y-137.742
X61.231 Y-139.05
X61.23 Y-139.056
X60.902 Y-140.356
X60.901 Y-140.363
X60.563 Y-141.654
X60.561 Y-141.66
X60.214 Y-142.943
X60.212 Y-142.95
X59.854 Y-144.224
X59.853 Y-144.23
X59.485 Y-145.495
X59.483 Y-145.502
X59.106 Y-146.759
X59.104 Y-146.765
X58.718 Y-148.013
X58.715 Y-148.019
X58.319 Y-149.258
X58.317 Y-149.264
X57.912 Y-150.495
X57.91 Y-150.502
X57.496 Y-151.724
X57.494 Y-151.73
X57.071 Y-152.944
X57.069 Y-152.95
X56.637 Y-154.154
X56.635 Y-154.16
X56.194 Y-155.356
X56.192 Y-155.362
X55.743 Y-156.549
X55.741 Y-156.555
X55.284 Y-157.733
X55.281 Y-157.739
X54.816 Y-158.909
X54.814 Y-158.915
X54.341 Y-160.075
X54.338 Y-160.081
X53.857 Y-161.233
X53.855 Y-161.239
X53.366 Y-162.381
X53.364 Y-162.387
X52.868 Y-163.52
X52.866 Y-163.525
X52.362 Y-164.65
X52.36 Y-164.656
X51.849 Y-165.771
X51.847 Y-165.777
X51.33 Y-166.883
X51.327 Y-166.889
X50.803 Y-167.984
X50.8 Y-167.99
X50.27 Y-169.077
X50.265 Y-169.085
X49.185 Y-171.231
X49.179 Y-171.242
X48.074 Y-173.35
X48.068 Y-173.361
X46.94 Y-175.43
X46.934 Y-175.441
X45.783 Y-177.47
X45.777 Y-177.481
X44.605 Y-179.469
X44.599 Y-179.479
X43.407 Y-181.427
X43.401 Y-181.438
X42.191 Y-183.343
X42.184 Y-183.354
X40.956 Y-185.216
X40.949 Y-185.226
X39.706 Y-187.045
X39.698 Y-187.056
X38.439 Y-188.83
X38.432 Y-188.841
X37.159 Y-190.568
X37.151 Y-190.579
X35.865 Y-192.26
X35.856 Y-192.271
X34.559 Y-193.904
X34.549 Y-193.915
X33.241 Y-195.498
X33.234 Y-195.506
X32.576 Y-196.279
X32.571 Y-196.285
X31.91 Y-197.045
X31.905 Y-197.051
X31.242 Y-197.798
X31.237 Y-197.804
X30.572 Y-198.538
X30.567 Y-198.543
X29.9 Y-199.264
X29.894 Y-199.27
X29.225 Y-199.978
X29.22 Y-199.984
X28.549 Y-200.678
X28.543 Y-200.684
X27.87 Y-201.364
X27.864 Y-201.37
X27.19 Y-202.036
X27.184 Y-202.042
X26.509 Y-202.695
X26.502 Y-202.702
X25.825 Y-203.34
X25.818 Y-203.346
X25.14 Y-203.969
X25.134 Y-203.975
X24.454 Y-204.585
X24.446 Y-204.592
X23.766 Y-205.186
X23.759 Y-205.192
X23.077 Y-205.772
X23.069 Y-205.779
X22.386 Y-206.343
X22.379 Y-206.349
X21.696 Y-206.899
X21.687 Y-206.906
X21.003 Y-207.44
X20.994 Y-207.447
X20.31 Y-207.966
X20.3 Y-207.973
X19.615 Y-208.475
X19.606 Y-208.482
X18.92 Y-208.969
X18.91 Y-208.975
X18.224 Y-209.446
X18.214 Y-209.453
X17.527 Y-209.908
X17.517 Y-209.915
X16.83 Y-210.354
X16.819 Y-210.361
X16.132 Y-210.783
X16.12 Y-210.79
X15.433 Y-211.195
X15.421 Y-211.202
X14.734 Y-211.591
X14.722 Y-211.598
X14.034 Y-211.97
X14.021 Y-211.977
X13.333 Y-212.331
X13.321 Y-212.337
X12.634 Y-212.675
X12.62 Y-212.682
X11.933 Y-213.002
X11.918 Y-213.009
X11.231 Y-213.311
X11.217 Y-213.317
X10.53 Y-213.602
X10.515 Y-213.608
X9.829 Y-213.876
X9.812 Y-213.882
X9.126 Y-214.131
X9.11 Y-214.137
X8.424 Y-214.368
X8.409 Y-214.373
X7.724 Y-214.587
X7.705 Y-214.592
X7.021 Y-214.787
X7.003 Y-214.792
X6.319 Y-214.969
X6.3 Y-214.974
X5.616 Y-215.132
X5.598 Y-215.136
X4.915 Y-215.276
X4.896 Y-215.279
X4.214 Y-215.401
X4.194 Y-215.405
X3.512 Y-215.508
X3.492 Y-215.51
X2.811 Y-215.594
X2.791 Y-215.596
X2.111 Y-215.663
X2.089 Y-215.664
X1.409 Y-215.71
X1.39 Y-215.711
X0.711 Y-215.74
X0.689 Y-215.741
X0.01 Y-215.75
G2 X-0.75 Y-215 I-0.01 J0.75
G1 Y-211.467
Z-1.3
Y-206.467
Z-1.8 F300
Y-16.814 F600
Z-1.3
Y-11.814
Z-1.8 F300
Y0 F600
G2 X0.005 Y0.75 I0.75 J0
G1 X1.362 Y0.74
X1.373
X2.711 Y0.711
X2.722
X4.042 Y0.663
X4.053 Y0.662
X5.353 Y0.595
X5.365 Y0.594
X6.646 Y0.508
X6.658 Y0.507
X7.921 Y0.401
X7.933 Y0.4
X9.177 Y0.275
X9.19 Y0.274
X10.415 Y0.13
X10.428 Y0.128
X11.634 Y-0.034
X11.647 Y-0.036
X12.835 Y-0.217
X12.849 Y-0.219
X14.018 Y-0.419
X14.032 Y-0.422
X15.183 Y-0.64
X15.197 Y-0.643
X16.33 Y-0.88
X16.344 Y-0.883
X17.459 Y-1.138
X17.473 Y-1.141
X18.57 Y-1.414
X18.584 Y-1.418
X19.663 Y-1.709
X19.678 Y-1.713
X20.739 Y-2.021
X20.753 Y-2.025
X21.797 Y-2.352
X21.812 Y-2.356
X22.838 Y-2.7
X22.853 Y-2.705
X23.862 Y-3.065
X23.877 Y-3.071
X24.869 Y-3.448
X24.883 Y-3.454
X25.858 Y-3.848
X25.873 Y-3.854
X26.831 Y-4.265
X26.846 Y-4.271
X27.787 Y-4.698
X27.802 Y-4.705
X28.727 Y-5.148
X28.741 Y-5.155
X29.65 Y-5.614
X29.664 Y-5.621
X30.557 Y-6.095
X30.571 Y-6.103
X31.448 Y-6.593
X31.462 Y-6.6
X32.323 Y-7.105
X32.336 Y-7.113
X33.182 Y-7.633
X33.195 Y-7.641
X34.026 Y-8.176
X34.039 Y-8.184
X34.854 Y-8.733
X34.867 Y-8.742
X35.667 Y-9.304
X35.679 Y-9.313
X36.464 Y-9.89
X36.476 Y-9.899
X37.247 Y-10.489
X37.259 Y-10.498
X38.015 Y-11.102
X38.027 Y-11.111
X38.768 Y-11.728
X38.78 Y-11.737
X39.507 Y-12.366
X39.518 Y-12.376
X40.232 Y-13.017
X40.242 Y-13.027
X40.943 Y-13.681
X40.953 Y-13.691
X41.639 Y-14.356
X41.649 Y-14.366
X42.322 Y-15.044
X42.332 Y-15.053
X42.992 Y-15.742
X43.001 Y-15.752
X43.648 Y-16.452
X43.657 Y-16.461
X44.291 Y-17.172
X44.299 Y-17.182
X44.921 Y-17.903
X44.929 Y-17.912
X45.538 Y-18.644
X45.546 Y-18.653
X46.143 Y-19.395
X46.151 Y-19.404
X46.735 Y-20.155
X46.742 Y-20.165
X47.315 Y-20.925
X47.322 Y-20.934
X47.883 Y-21.704
X47.89 Y-21.713
X48.44 Y-22.491
X48.446 Y-22.5
X48.984 Y-23.287
X48.99 Y-23.296
X49.517 Y-24.091
X49.523 Y-24.1
X50.039 Y-24.902
X50.044 Y-24.911
X50.549 Y-25.722
X50.555 Y-25.73
X51.049 Y-26.548
X51.054 Y-26.557
X51.538 Y-27.382
X51.543 Y-27.39
X52.016 Y-28.222
X52.021 Y-28.23
X52.484 Y-29.068
X52.488 Y-29.077
X52.941 Y-29.921
X52.945 Y-29.929
X53.388 Y-30.78
X53.392 Y-30.788
X53.825 Y-31.644
X53.829 Y-31.652
X54.252 Y-32.513
X54.256 Y-32.521
X54.67 Y-33.388
X54.674 Y-33.395
X55.078 Y-34.267
X55.082 Y-34.274
X55.477 Y-35.15
X55.48 Y-35.158
X55.866 Y-36.038
X55.871 Y-36.049
X56.616 Y-37.822
X56.622 Y-37.836
X57.333 Y-39.623
X57.338 Y-39.636
X58.014 Y-41.436
X58.019 Y-41.448
X58.663 Y-43.258
X58.667 Y-43.27
X59.278 Y-45.088
X59.282 Y-45.1
X59.863 Y-46.924
X59.866 Y-46.935
X60.416 Y-48.763
X60.419 Y-48.774
X60.939 Y-50.604
X60.942 Y-50.615
X61.432 Y-52.445
X61.435 Y-52.456
X61.897 Y-54.285
X61.899 Y-54.295
X62.333 Y-56.121
X62.336 Y-56.131
X62.742 Y-57.953
X62.745 Y-57.962
X63.124 Y-59.777
X63.126 Y-59.787
X63.479 Y-61.593
X63.481 Y-61.603
X63.808 Y-63.4
X63.81 Y-63.41
X64.111 Y-65.196
X64.112 Y-65.205
X64.388 Y-66.978
X64.39 Y-66.988
X64.64 Y-68.748
X64.641 Y-68.757
X64.867 Y-70.502
X64.868 Y-70.511
X65.069 Y-72.24
X65.07 Y-72.249
X65.247 Y-73.96
X65.248 Y-73.97
X65.4 Y-75.663
Y-75.673
X65.528 Y-77.346
X65.529 Y-77.356
X65.632 Y-79.009
X65.633 Y-79.02
X65.712 Y-80.652
X65.713 Y-80.663
X65.768 Y-82.273
X65.769 Y-82.284
X65.8 Y-83.873
Y-83.884
X65.807 Y-85.45
Y-85.461
X65.791 Y-87.004
X65.79 Y-87.016
X65.75 Y-88.536
G2 X65.026 Y-89.266 I-0.75 J0.02
G1 X64.98 Y-89.275
X64.939 Y-89.297
X64.907 Y-89.332
X64.887 Y-89.374
X64.881 Y-89.421
X64.887 Y-89.571
X64.888 Y-89.617 Z-1.793
X64.89 Y-89.659 Z-1.771
X64.891 Y-89.692 Z-1.738
X64.892 Y-89.713 Z-1.696
Y-89.721 Z-1.65
G0 Z15
G28 G91 Z0
G90
G28 G91 X0 Y0
G90
M5
M30
