(1001)
(T5  D=3.175 CR=0 - ZMIN=-7 - Schaftfraser)
G90 G94
G17
G21
G28 G91 Z0
G90

(2D-Kontur1)
T5
S6000 M3
G54
G0 X-30.317 Y-2.46
Z15
Z5
G1 Z1 F333.3
Z-6.683
G19 G2 Y-2.777 Z-7 J-0.317 K0 F1000
G1 Y-3.095
G17 G3 X-30 Y-3.412 I0.318 J0
G1 X33.412
Y3.412
X-33.412
Y-3.412
X-30
G3 X-29.682 Y-3.095 I0 J0.317
G1 Y-2.777
G19 G3 Y-2.46 Z-6.683 J0 K0.318
G0 Z15
G17
G28 G91 Z0
G90
G28 G91 X0 Y0
G90
M5
M30
