(DSLR_Trager)
(Bearbeiten)
(  Hersteller: ChinaCnc)
(  model: 3040T)
(  description: Generic 3-axis)
(T5  D=3.175 CR=0 - ZMIN=-2.5 - Schaftfraser)
G90 G94
G17
G21

(Bohrfrasen9)
T5
S6000 M3
G54
G0 X-91.805 Y-9.719
Z15
Z2
G1 Z0.317 F1000
G18 G3 X-92.122 Z0 I-0.317 K0
G1 X-92.281
G17 G3 X-92.563 Y-10 I0 J-0.281
X-91.438 Y-10 Z-0.25 I0.563 J0
X-92.563 Y-10 Z-0.5 I-0.563 J0
X-91.438 Y-10 Z-0.75 I0.563 J0
X-92.563 Y-10 Z-1 I-0.563 J0
X-91.438 Y-10 Z-1.25 I0.563 J0
X-92.563 Y-10 Z-1.5 I-0.563 J0
X-91.438 Y-10 Z-1.75 I0.563 J0
X-92.563 Y-10 Z-2 I-0.563 J0
X-91.438 Y-10 Z-2.25 I0.563 J0
X-92.563 Y-10 Z-2.5 I-0.563 J0
X-91.438 Y-10 I0.563 J0
X-92.563 Y-10 I-0.563 J0
X-92.281 Y-10.281 I0.281 J0
G1 X-92.122
G18 G2 X-91.805 Z-2.182 I0 K0.318
G0 Z5
X-75.119 Y-25.529
Z2
G1 Z0.317 F1000
G3 X-75.436 Z0 I-0.317 K0
G1 X-75.595
G17 G3 X-75.912 Y-25.846 I0 J-0.318
X-74.088 Y-25.846 Z-0.25 I0.912 J0
X-75.912 Y-25.846 Z-0.5 I-0.912 J0
X-74.088 Y-25.846 Z-0.75 I0.912 J0
X-75.912 Y-25.846 Z-1 I-0.912 J0
X-74.088 Y-25.846 Z-1.25 I0.912 J0
X-75.912 Y-25.846 Z-1.5 I-0.912 J0
X-74.088 Y-25.846 Z-1.75 I0.912 J0
X-75.912 Y-25.846 Z-2 I-0.912 J0
X-74.088 Y-25.846 Z-2.25 I0.912 J0
X-75.912 Y-25.846 Z-2.5 I-0.912 J0
X-74.088 Y-25.846 I0.912 J0
X-75.912 Y-25.846 I-0.912 J0
X-75.595 Y-26.164 I0.317 J0
G1 X-75.436
G18 G2 X-75.119 Z-2.182 I0 K0.318
G0 Z5
X-79.683 Y-30.728
Z2
G1 Z0.317 F1000
G19 G3 Y-30.41 Z0 J0.318 K0
G1 Y-30.251
G17 G3 X-80 Y-29.934 I-0.317 J0
X-80 Y-34.759 Z-0.25 I0 J-2.412
X-80 Y-29.934 Z-0.5 I0 J2.412
X-80 Y-34.759 Z-0.75 I0 J-2.412
X-80 Y-29.934 Z-1 I0 J2.412
X-80 Y-34.759 Z-1.25 I0 J-2.412
X-80 Y-29.934 Z-1.5 I0 J2.412
X-80 Y-34.759 Z-1.75 I0 J-2.412
X-80 Y-29.934 Z-2 I0 J2.412
X-80 Y-34.759 Z-2.25 I0 J-2.412
X-80 Y-29.934 Z-2.5 I0 J2.412
X-80 Y-34.759 I0 J-2.412
X-80 Y-29.934 I0 J2.412
X-80.317 Y-30.251 I0 J-0.317
G1 Y-30.41
Y-30.481 Z-2.492
Y-30.548 Z-2.469
Y-30.608 Z-2.431
Y-30.658 Z-2.38
Y-30.696 Z-2.32
Y-30.72 Z-2.253
Y-30.728 Z-2.182
G0 Z5
X-75.119 Y-37.529
Z2
G1 Z0.317 F1000
G18 G3 X-75.436 Z0 I-0.317 K0
G1 X-75.595
G17 G3 X-75.912 Y-37.846 I0 J-0.317
X-74.088 Y-37.846 Z-0.25 I0.912 J0
X-75.912 Y-37.846 Z-0.5 I-0.912 J0
X-74.088 Y-37.846 Z-0.75 I0.912 J0
X-75.912 Y-37.846 Z-1 I-0.912 J0
X-74.088 Y-37.846 Z-1.25 I0.912 J0
X-75.912 Y-37.846 Z-1.5 I-0.912 J0
X-74.088 Y-37.846 Z-1.75 I0.912 J0
X-75.912 Y-37.846 Z-2 I-0.912 J0
X-74.088 Y-37.846 Z-2.25 I0.912 J0
X-75.912 Y-37.846 Z-2.5 I-0.912 J0
X-74.088 Y-37.846 I0.912 J0
X-75.912 Y-37.846 I-0.912 J0
X-75.595 Y-38.164 I0.317 J0
G1 X-75.436
X-75.366 Z-2.492
X-75.298 Z-2.469
X-75.238 Z-2.431
X-75.188 Z-2.38
X-75.15 Z-2.32
X-75.127 Z-2.253
X-75.119 Z-2.182
G0 Z5
X-65.119 Y-37.529
Z2
G1 Z0.317 F1000
G18 G3 X-65.436 Z0 I-0.317 K0
G1 X-65.595
G17 G3 X-65.912 Y-37.846 I0 J-0.317
X-64.088 Y-37.846 Z-0.25 I0.912 J0
X-65.912 Y-37.846 Z-0.5 I-0.912 J0
X-64.088 Y-37.846 Z-0.75 I0.912 J0
X-65.912 Y-37.846 Z-1 I-0.912 J0
X-64.088 Y-37.846 Z-1.25 I0.912 J0
X-65.912 Y-37.846 Z-1.5 I-0.912 J0
X-64.088 Y-37.846 Z-1.75 I0.912 J0
X-65.912 Y-37.846 Z-2 I-0.912 J0
X-64.088 Y-37.846 Z-2.25 I0.912 J0
X-65.912 Y-37.846 Z-2.5 I-0.912 J0
X-64.088 Y-37.846 I0.912 J0
X-65.912 Y-37.846 I-0.912 J0
X-65.595 Y-38.164 I0.317 J0
G1 X-65.436
X-65.366 Z-2.492
X-65.298 Z-2.469
X-65.238 Z-2.431
X-65.188 Z-2.38
X-65.15 Z-2.32
X-65.127 Z-2.253
X-65.119 Z-2.182
G0 Z5
Y-31.529
Z2
G1 Z0.317 F1000
G18 G3 X-65.436 Z0 I-0.317 K0
G1 X-65.595
G17 G3 X-65.912 Y-31.846 I0 J-0.318
X-64.088 Y-31.846 Z-0.25 I0.912 J0
X-65.912 Y-31.846 Z-0.5 I-0.912 J0
X-64.088 Y-31.846 Z-0.75 I0.912 J0
X-65.912 Y-31.846 Z-1 I-0.912 J0
X-64.088 Y-31.846 Z-1.25 I0.912 J0
X-65.912 Y-31.846 Z-1.5 I-0.912 J0
X-64.088 Y-31.846 Z-1.75 I0.912 J0
X-65.912 Y-31.846 Z-2 I-0.912 J0
X-64.088 Y-31.846 Z-2.25 I0.912 J0
X-65.912 Y-31.846 Z-2.5 I-0.912 J0
X-64.088 Y-31.846 I0.912 J0
X-65.912 Y-31.846 I-0.912 J0
X-65.595 Y-32.164 I0.317 J0
G1 X-65.436
G18 G2 X-65.119 Z-2.182 I0 K0.318
G0 Z5
Y-25.529
Z2
G1 Z0.317 F1000
G3 X-65.436 Z0 I-0.317 K0
G1 X-65.595
G17 G3 X-65.912 Y-25.846 I0 J-0.318
X-64.088 Y-25.846 Z-0.25 I0.912 J0
X-65.912 Y-25.846 Z-0.5 I-0.912 J0
X-64.088 Y-25.846 Z-0.75 I0.912 J0
X-65.912 Y-25.846 Z-1 I-0.912 J0
X-64.088 Y-25.846 Z-1.25 I0.912 J0
X-65.912 Y-25.846 Z-1.5 I-0.912 J0
X-64.088 Y-25.846 Z-1.75 I0.912 J0
X-65.912 Y-25.846 Z-2 I-0.912 J0
X-64.088 Y-25.846 Z-2.25 I0.912 J0
X-65.912 Y-25.846 Z-2.5 I-0.912 J0
X-64.088 Y-25.846 I0.912 J0
X-65.912 Y-25.846 I-0.912 J0
X-65.595 Y-26.164 I0.317 J0
G1 X-65.436
G18 G2 X-65.119 Z-2.182 I0 K0.318
G0 Z5
X-55.119 Y-25.529
Z2
G1 Z0.317 F1000
G3 X-55.436 Z0 I-0.317 K0
G1 X-55.595
G17 G3 X-55.912 Y-25.846 I0 J-0.318
X-54.088 Y-25.846 Z-0.25 I0.912 J0
X-55.912 Y-25.846 Z-0.5 I-0.912 J0
X-54.088 Y-25.846 Z-0.75 I0.912 J0
X-55.912 Y-25.846 Z-1 I-0.912 J0
X-54.088 Y-25.846 Z-1.25 I0.912 J0
X-55.912 Y-25.846 Z-1.5 I-0.912 J0
X-54.088 Y-25.846 Z-1.75 I0.912 J0
X-55.912 Y-25.846 Z-2 I-0.912 J0
X-54.088 Y-25.846 Z-2.25 I0.912 J0
X-55.912 Y-25.846 Z-2.5 I-0.912 J0
X-54.088 Y-25.846 I0.912 J0
X-55.912 Y-25.846 I-0.912 J0
X-55.595 Y-26.164 I0.317 J0
G1 X-55.436
G18 G2 X-55.119 Z-2.182 I0 K0.318
G0 Z5
X-49.682 Y-30.728
Z2
G1 Z0.317 F1000
G19 G3 Y-30.41 Z0 J0.318 K0
G1 Y-30.251
G17 G3 X-50 Y-29.934 I-0.318 J0
X-50 Y-34.759 Z-0.25 I0 J-2.412
X-50 Y-29.934 Z-0.5 I0 J2.412
X-50 Y-34.759 Z-0.75 I0 J-2.412
X-50 Y-29.934 Z-1 I0 J2.412
X-50 Y-34.759 Z-1.25 I0 J-2.412
X-50 Y-29.934 Z-1.5 I0 J2.412
X-50 Y-34.759 Z-1.75 I0 J-2.412
X-50 Y-29.934 Z-2 I0 J2.412
X-50 Y-34.759 Z-2.25 I0 J-2.412
X-50 Y-29.934 Z-2.5 I0 J2.412
X-50 Y-34.759 I0 J-2.412
X-50 Y-29.934 I0 J2.412
X-50.318 Y-30.251 I0 J-0.317
G1 Y-30.41
Y-30.481 Z-2.492
Y-30.548 Z-2.469
Y-30.608 Z-2.431
Y-30.658 Z-2.38
Y-30.696 Z-2.32
Y-30.72 Z-2.253
Y-30.728 Z-2.182
G0 Z5
X-55.119 Y-37.529
Z2
G1 Z0.317 F1000
G18 G3 X-55.436 Z0 I-0.317 K0
G1 X-55.595
G17 G3 X-55.912 Y-37.846 I0 J-0.317
X-54.088 Y-37.846 Z-0.25 I0.912 J0
X-55.912 Y-37.846 Z-0.5 I-0.912 J0
X-54.088 Y-37.846 Z-0.75 I0.912 J0
X-55.912 Y-37.846 Z-1 I-0.912 J0
X-54.088 Y-37.846 Z-1.25 I0.912 J0
X-55.912 Y-37.846 Z-1.5 I-0.912 J0
X-54.088 Y-37.846 Z-1.75 I0.912 J0
X-55.912 Y-37.846 Z-2 I-0.912 J0
X-54.088 Y-37.846 Z-2.25 I0.912 J0
X-55.912 Y-37.846 Z-2.5 I-0.912 J0
X-54.088 Y-37.846 I0.912 J0
X-55.912 Y-37.846 I-0.912 J0
X-55.595 Y-38.164 I0.317 J0
G1 X-55.436
X-55.366 Z-2.492
X-55.298 Z-2.469
X-55.238 Z-2.431
X-55.188 Z-2.38
X-55.15 Z-2.32
X-55.127 Z-2.253
X-55.119 Z-2.182
G0 Z5
X-38.195 Y-10.281
Z2
G1 Z0.317 F1000
G18 G2 X-37.877 Z0 I0.318 K0
G1 X-37.719
G17 G3 X-37.438 Y-10 I0 J0.281
X-38.563 Y-10 Z-0.25 I-0.563 J0
X-37.438 Y-10 Z-0.5 I0.563 J0
X-38.563 Y-10 Z-0.75 I-0.563 J0
X-37.438 Y-10 Z-1 I0.563 J0
X-38.563 Y-10 Z-1.25 I-0.563 J0
X-37.438 Y-10 Z-1.5 I0.563 J0
X-38.563 Y-10 Z-1.75 I-0.563 J0
X-37.438 Y-10 Z-2 I0.563 J0
X-38.563 Y-10 Z-2.25 I-0.563 J0
X-37.438 Y-10 Z-2.5 I0.563 J0
X-38.563 Y-10 I-0.563 J0
X-37.438 Y-10 I0.563 J0
X-37.719 Y-9.719 I-0.281 J0
G1 X-37.877
G18 G3 X-38.195 Z-2.182 I0 K0.318
G0 Z5
X-40.195 Y-135.281
Z2
G1 Z0.317 F1000
G2 X-39.877 Z0 I0.318 K0
G1 X-39.719
G17 G3 X-39.438 Y-135 I0 J0.281
X-40.563 Y-135 Z-0.25 I-0.563 J0
X-39.438 Y-135 Z-0.5 I0.563 J0
X-40.563 Y-135 Z-0.75 I-0.563 J0
X-39.438 Y-135 Z-1 I0.563 J0
X-40.563 Y-135 Z-1.25 I-0.563 J0
X-39.438 Y-135 Z-1.5 I0.563 J0
X-40.563 Y-135 Z-1.75 I-0.563 J0
X-39.438 Y-135 Z-2 I0.563 J0
X-40.563 Y-135 Z-2.25 I-0.563 J0
X-39.438 Y-135 Z-2.5 I0.563 J0
X-40.563 Y-135 I-0.563 J0
X-39.438 Y-135 I0.563 J0
X-39.719 Y-134.719 I-0.281 J0
G1 X-39.877
G18 G3 X-40.195 Z-2.182 I0 K0.318
G0 Z5
X-89.805
Z2
G1 Z0.317 F1000
G3 X-90.122 Z0 I-0.317 K0
G1 X-90.281
G17 G3 X-90.563 Y-135 I0 J-0.281
X-89.438 Y-135 Z-0.25 I0.563 J0
X-90.563 Y-135 Z-0.5 I-0.563 J0
X-89.438 Y-135 Z-0.75 I0.563 J0
X-90.563 Y-135 Z-1 I-0.563 J0
X-89.438 Y-135 Z-1.25 I0.563 J0
X-90.563 Y-135 Z-1.5 I-0.563 J0
X-89.438 Y-135 Z-1.75 I0.563 J0
X-90.563 Y-135 Z-2 I-0.563 J0
X-89.438 Y-135 Z-2.25 I0.563 J0
X-90.563 Y-135 Z-2.5 I-0.563 J0
X-89.438 Y-135 I0.563 J0
X-90.563 Y-135 I-0.563 J0
X-90.281 Y-135.281 I0.281 J0
G1 X-90.122
G18 G2 X-89.805 Z-2.182 I0 K0.318
G0 Z15
G17

(2D-Kontur15)
G0 X-60.775 Y-59.489
Z15
Z5
G1 Z2.5 F333.3
S5000
X-60.881 Y-59.431 Z2.496
X-61.399 Y-59.189 Z2.476
X-61.924 Y-58.981 Z2.456
X-62.454 Y-58.807 Z2.437
X-62.988 Y-58.666 Z2.417
X-63.525 Y-58.558 Z2.398
X-64.065 Y-58.484 Z2.379
X-64.613 Y-58.443 Z2.36
X-64.993 Y-58.434 Z2.347
X-65.541 Y-58.451 Z2.328
X-66.082 Y-58.501 Z2.309
X-66.621 Y-58.584 Z2.29
X-67.156 Y-58.7 Z2.27
X-67.689 Y-58.85 Z2.251
X-68.216 Y-59.033 Z2.232
X-68.738 Y-59.25 Z2.212
X-69.252 Y-59.5 Z2.192
X-69.759 Y-59.783 Z2.172
X-70.256 Y-60.1 Z2.151
X-70.743 Y-60.45 Z2.13
X-71.217 Y-60.833 Z2.109
X-71.677 Y-61.249 Z2.087
X-72.123 Y-61.697 Z2.065
X-72.552 Y-62.176 Z2.043
X-72.962 Y-62.687 Z2.02
X-73.352 Y-63.227 Z1.997
X-73.72 Y-63.796 Z1.973
X-74.066 Y-64.394 Z1.949
X-74.386 Y-65.017 Z1.924
X-74.679 Y-65.665 Z1.899
X-74.945 Y-66.336 Z1.874
X-75.181 Y-67.028 Z1.849
X-75.386 Y-67.739 Z1.823
X-75.558 Y-68.466 Z1.797
X-75.698 Y-69.206 Z1.77
X-75.803 Y-69.958 Z1.744
X-75.873 Y-70.717 Z1.717
X-75.908 Y-71.481 Z1.691
X-75.907 Y-72.247 Z1.664
X-75.871 Y-73.011 Z1.637
X-75.799 Y-73.771 Z1.611
X-75.692 Y-74.523 Z1.584
X-75.55 Y-75.265 Z1.558
X-75.375 Y-75.993 Z1.531
X-75.168 Y-76.706 Z1.506
X-74.929 Y-77.399 Z1.48
X-74.661 Y-78.072 Z1.455
X-74.364 Y-78.721 Z1.43
X-74.04 Y-79.346 Z1.405
X-73.691 Y-79.944 Z1.381
X-73.319 Y-80.514 Z1.357
X-72.925 Y-81.054 Z1.334
X-72.511 Y-81.564 Z1.311
X-72.079 Y-82.043 Z1.288
X-71.63 Y-82.489 Z1.266
X-71.165 Y-82.903 Z1.245
X-70.688 Y-83.284 Z1.223
X-70.198 Y-83.631 Z1.202
X-69.698 Y-83.945 Z1.182
X-69.189 Y-84.226 Z1.161
X-68.672 Y-84.472 Z1.141
X-68.148 Y-84.685 Z1.122
X-67.619 Y-84.864 Z1.102
X-67.085 Y-85.01 Z1.083
X-66.548 Y-85.122 Z1.064
X-66.009 Y-85.2 Z1.045
X-65.468 Y-85.246 Z1.026
X-64.926 Y-85.258 Z1.007
X-64.385 Y-85.237 Z0.988
X-63.845 Y-85.182 Z0.969
X-63.306 Y-85.095 Z0.95
X-62.771 Y-84.974 Z0.931
X-62.239 Y-84.819 Z0.911
X-61.712 Y-84.632 Z0.892
X-61.192 Y-84.411 Z0.872
X-60.678 Y-84.156 Z0.852
X-60.173 Y-83.868 Z0.832
X-59.677 Y-83.547 Z0.811
X-59.192 Y-83.192 Z0.79
X-58.72 Y-82.805 Z0.769
X-58.261 Y-82.385 Z0.747
X-57.818 Y-81.932 Z0.725
X-57.391 Y-81.449 Z0.702
X-56.984 Y-80.934 Z0.679
X-56.597 Y-80.39 Z0.656
X-56.231 Y-79.816 Z0.632
X-55.889 Y-79.216 Z0.608
X-55.573 Y-78.589 Z0.584
X-55.283 Y-77.937 Z0.559
X-55.021 Y-77.263 Z0.534
X-54.79 Y-76.568 Z0.508
X-54.589 Y-75.855 Z0.482
X-54.421 Y-75.126 Z0.456
X-54.286 Y-74.384 Z0.43
X-54.185 Y-73.632 Z0.403
X-54.12 Y-72.872 Z0.377
X-54.09 Y-72.107 Z0.35
X-54.096 Y-71.342 Z0.323
X-54.137 Y-70.578 Z0.296
X-54.214 Y-69.819 Z0.27
X-54.326 Y-69.068 Z0.243
X-54.472 Y-68.328 Z0.217
X-54.651 Y-67.601 Z0.191
X-54.863 Y-66.891 Z0.165
X-55.106 Y-66.201 Z0.139
X-55.378 Y-65.531 Z0.114
X-55.679 Y-64.885 Z0.089
X-56.006 Y-64.264 Z0.065
X-56.358 Y-63.67 Z0.041
X-56.733 Y-63.104 Z0.017
X-57.13 Y-62.567 Z-0.007
X-57.547 Y-62.062 Z-0.029
X-57.982 Y-61.587 Z-0.052
X-58.433 Y-61.145 Z-0.074
X-58.899 Y-60.736 Z-0.096
X-59.378 Y-60.359 Z-0.117
X-59.869 Y-60.016 Z-0.138
X-60.371 Y-59.707 Z-0.158
X-60.881 Y-59.431 Z-0.179
X-61.399 Y-59.189 Z-0.199
X-61.924 Y-58.981 Z-0.218
X-62.454 Y-58.807 Z-0.238
X-62.988 Y-58.666 Z-0.257
X-63.525 Y-58.558 Z-0.276
X-64.065 Y-58.484 Z-0.295
X-64.613 Y-58.443 Z-0.314
X-64.993 Y-58.434 Z-0.328
X-65.541 Y-58.451 Z-0.347
X-66.082 Y-58.501 Z-0.366
X-66.621 Y-58.584 Z-0.385
X-67.156 Y-58.7 Z-0.404
X-67.689 Y-58.85 Z-0.423
X-68.216 Y-59.033 Z-0.443
X-68.738 Y-59.25 Z-0.463
X-69.252 Y-59.5 Z-0.482
X-69.759 Y-59.783 Z-0.503
X-70.256 Y-60.1 Z-0.523
X-70.743 Y-60.45 Z-0.544
X-71.217 Y-60.833 Z-0.566
X-71.677 Y-61.249 Z-0.587
X-72.123 Y-61.697 Z-0.609
X-72.552 Y-62.176 Z-0.632
X-72.962 Y-62.687 Z-0.655
X-73.352 Y-63.227 Z-0.678
X-73.72 Y-63.796 Z-0.702
X-74.066 Y-64.394 Z-0.726
X-74.386 Y-65.017 Z-0.75
X-74.679 Y-65.665 Z-0.775
X-74.945 Y-66.336 Z-0.8
X-75.181 Y-67.028 Z-0.826
X-75.386 Y-67.739 Z-0.852
X-75.558 Y-68.466 Z-0.878
X-75.698 Y-69.206 Z-0.904
X-75.803 Y-69.958 Z-0.93
X-75.873 Y-70.717 Z-0.957
X-75.908 Y-71.481 Z-0.984
X-75.907 Y-71.945 Z-1
S6000
Y-72.247 F1000
X-75.871 Y-73.011
X-75.799 Y-73.771
X-75.692 Y-74.523
X-75.55 Y-75.265
X-75.375 Y-75.993
X-75.168 Y-76.706
X-74.929 Y-77.399
X-74.661 Y-78.072
X-74.364 Y-78.721
X-74.04 Y-79.346
X-73.691 Y-79.944
X-73.319 Y-80.514
X-72.925 Y-81.054
X-72.511 Y-81.564
X-72.079 Y-82.043
X-71.63 Y-82.489
X-71.165 Y-82.903
X-70.688 Y-83.284
X-70.198 Y-83.631
X-69.698 Y-83.945
X-69.189 Y-84.226
X-68.672 Y-84.472
X-68.148 Y-84.685
X-67.619 Y-84.864
X-67.085 Y-85.01
X-66.548 Y-85.122
X-66.009 Y-85.2
X-65.468 Y-85.246
X-64.926 Y-85.258
X-64.385 Y-85.237
X-63.845 Y-85.182
X-63.306 Y-85.095
X-62.771 Y-84.974
X-62.239 Y-84.819
X-61.712 Y-84.632
X-61.192 Y-84.411
X-60.678 Y-84.156
X-60.173 Y-83.868
X-59.677 Y-83.547
X-59.192 Y-83.192
X-58.72 Y-82.805
X-58.261 Y-82.385
X-57.818 Y-81.932
X-57.391 Y-81.449
X-56.984 Y-80.934
X-56.597 Y-80.39
X-56.231 Y-79.816
X-55.889 Y-79.216
X-55.573 Y-78.589
X-55.283 Y-77.937
X-55.021 Y-77.263
X-54.79 Y-76.568
X-54.589 Y-75.855
X-54.421 Y-75.126
X-54.286 Y-74.384
X-54.185 Y-73.632
X-54.12 Y-72.872
X-54.09 Y-72.107
X-54.096 Y-71.342
X-54.137 Y-70.578
X-54.214 Y-69.819
X-54.326 Y-69.068
X-54.472 Y-68.328
X-54.651 Y-67.601
X-54.863 Y-66.891
X-55.106 Y-66.201
X-55.378 Y-65.531
X-55.679 Y-64.885
X-56.006 Y-64.264
X-56.358 Y-63.67
X-56.733 Y-63.104
X-57.13 Y-62.567
X-57.547 Y-62.062
X-57.982 Y-61.587
X-58.433 Y-61.145
X-58.899 Y-60.736
X-59.378 Y-60.359
X-59.869 Y-60.016
X-60.371 Y-59.707
X-60.881 Y-59.431
X-61.399 Y-59.189
X-61.924 Y-58.981
X-62.454 Y-58.807
X-62.988 Y-58.666
X-63.525 Y-58.558
X-64.065 Y-58.484
X-64.613 Y-58.443
X-64.993 Y-58.434
X-65.541 Y-58.451
X-66.082 Y-58.501
X-66.621 Y-58.584
X-67.156 Y-58.7
X-67.689 Y-58.85
X-68.216 Y-59.033
X-68.738 Y-59.25
X-69.252 Y-59.5
X-69.759 Y-59.783
X-70.256 Y-60.1
X-70.743 Y-60.45
X-71.217 Y-60.833
X-71.677 Y-61.249
X-72.123 Y-61.697
X-72.552 Y-62.176
X-72.962 Y-62.687
X-73.352 Y-63.227
X-73.72 Y-63.796
X-74.066 Y-64.394
X-74.386 Y-65.017
X-74.679 Y-65.665
X-74.945 Y-66.336
X-75.181 Y-67.028
X-75.386 Y-67.739
X-75.558 Y-68.466
X-75.698 Y-69.206
X-75.803 Y-69.958
X-75.873 Y-70.717
X-75.908 Y-71.481
X-75.907 Y-71.945
S5000
Y-72.247 Z-1.011 F333.3
X-75.871 Y-73.011 Z-1.037
X-75.799 Y-73.771 Z-1.064
X-75.692 Y-74.523 Z-1.09
X-75.55 Y-75.265 Z-1.117
X-75.375 Y-75.993 Z-1.143
X-75.168 Y-76.706 Z-1.169
X-74.929 Y-77.399 Z-1.194
X-74.661 Y-78.072 Z-1.22
X-74.364 Y-78.721 Z-1.245
X-74.04 Y-79.346 Z-1.269
X-73.691 Y-79.944 Z-1.293
X-73.319 Y-80.514 Z-1.317
X-72.925 Y-81.054 Z-1.341
X-72.511 Y-81.564 Z-1.364
X-72.079 Y-82.043 Z-1.386
X-71.63 Y-82.489 Z-1.408
X-71.165 Y-82.903 Z-1.43
X-70.688 Y-83.284 Z-1.451
X-70.198 Y-83.631 Z-1.472
X-69.698 Y-83.945 Z-1.493
X-69.189 Y-84.226 Z-1.513
X-68.672 Y-84.472 Z-1.533
X-68.148 Y-84.685 Z-1.553
X-67.619 Y-84.864 Z-1.572
X-67.085 Y-85.01 Z-1.592
X-66.548 Y-85.122 Z-1.611
X-66.009 Y-85.2 Z-1.63
X-65.468 Y-85.246 Z-1.649
X-64.926 Y-85.258 Z-1.668
X-64.385 Y-85.237 Z-1.687
X-63.845 Y-85.182 Z-1.706
X-63.306 Y-85.095 Z-1.725
X-62.771 Y-84.974 Z-1.744
X-62.239 Y-84.819 Z-1.763
X-61.712 Y-84.632 Z-1.783
X-61.192 Y-84.411 Z-1.802
X-60.678 Y-84.156 Z-1.822
X-60.173 Y-83.868 Z-1.843
X-59.677 Y-83.547 Z-1.863
X-59.192 Y-83.192 Z-1.884
X-58.72 Y-82.805 Z-1.906
X-58.261 Y-82.385 Z-1.927
X-57.818 Y-81.932 Z-1.95
X-57.391 Y-81.449 Z-1.972
X-56.984 Y-80.934 Z-1.995
X-56.9 Y-80.817 Z-2
S6000
X-56.597 Y-80.39 F1000
X-56.231 Y-79.816
X-55.889 Y-79.216
X-55.573 Y-78.589
X-55.283 Y-77.937
X-55.021 Y-77.263
X-54.79 Y-76.568
X-54.589 Y-75.855
X-54.421 Y-75.126
X-54.286 Y-74.384
X-54.185 Y-73.632
X-54.12 Y-72.872
X-54.09 Y-72.107
X-54.096 Y-71.342
X-54.137 Y-70.578
X-54.214 Y-69.819
X-54.326 Y-69.068
X-54.472 Y-68.328
X-54.651 Y-67.601
X-54.863 Y-66.891
X-55.106 Y-66.201
X-55.378 Y-65.531
X-55.679 Y-64.885
X-56.006 Y-64.264
X-56.358 Y-63.67
X-56.733 Y-63.104
X-57.13 Y-62.567
X-57.547 Y-62.062
X-57.982 Y-61.587
X-58.433 Y-61.145
X-58.899 Y-60.736
X-59.378 Y-60.359
X-59.869 Y-60.016
X-60.371 Y-59.707
X-60.881 Y-59.431
X-61.399 Y-59.189
X-61.924 Y-58.981
X-62.454 Y-58.807
X-62.988 Y-58.666
X-63.525 Y-58.558
X-64.065 Y-58.484
X-64.613 Y-58.443
X-64.993 Y-58.434
X-65.541 Y-58.451
X-66.082 Y-58.501
X-66.621 Y-58.584
X-67.156 Y-58.7
X-67.689 Y-58.85
X-68.216 Y-59.033
X-68.738 Y-59.25
X-69.252 Y-59.5
X-69.759 Y-59.783
X-70.256 Y-60.1
X-70.743 Y-60.45
X-71.217 Y-60.833
X-71.677 Y-61.249
X-72.123 Y-61.697
X-72.552 Y-62.176
X-72.962 Y-62.687
X-73.352 Y-63.227
X-73.72 Y-63.796
X-74.066 Y-64.394
X-74.386 Y-65.017
X-74.679 Y-65.665
X-74.945 Y-66.336
X-75.181 Y-67.028
X-75.386 Y-67.739
X-75.558 Y-68.466
X-75.698 Y-69.206
X-75.803 Y-69.958
X-75.873 Y-70.717
X-75.908 Y-71.481
X-75.907 Y-71.945
Y-72.247
X-75.871 Y-73.011
X-75.799 Y-73.771
X-75.692 Y-74.523
X-75.55 Y-75.265
X-75.375 Y-75.993
X-75.168 Y-76.706
X-74.929 Y-77.399
X-74.661 Y-78.072
X-74.364 Y-78.721
X-74.04 Y-79.346
X-73.691 Y-79.944
X-73.319 Y-80.514
X-72.925 Y-81.054
X-72.511 Y-81.564
X-72.079 Y-82.043
X-71.63 Y-82.489
X-71.165 Y-82.903
X-70.688 Y-83.284
X-70.198 Y-83.631
X-69.698 Y-83.945
X-69.189 Y-84.226
X-68.672 Y-84.472
X-68.148 Y-84.685
X-67.619 Y-84.864
X-67.085 Y-85.01
X-66.548 Y-85.122
X-66.009 Y-85.2
X-65.468 Y-85.246
X-64.926 Y-85.258
X-64.385 Y-85.237
X-63.845 Y-85.182
X-63.306 Y-85.095
X-62.771 Y-84.974
X-62.239 Y-84.819
X-61.712 Y-84.632
X-61.192 Y-84.411
X-60.678 Y-84.156
X-60.173 Y-83.868
X-59.677 Y-83.547
X-59.192 Y-83.192
X-58.72 Y-82.805
X-58.261 Y-82.385
X-57.818 Y-81.932
X-57.391 Y-81.449
X-56.984 Y-80.934
X-56.9 Y-80.817
S5000
X-56.597 Y-80.39 Z-2.018 F333.3
X-56.231 Y-79.816 Z-2.042
X-55.889 Y-79.216 Z-2.066
X-55.573 Y-78.589 Z-2.091
X-55.283 Y-77.937 Z-2.116
X-55.021 Y-77.263 Z-2.141
X-54.79 Y-76.568 Z-2.166
X-54.589 Y-75.855 Z-2.192
X-54.421 Y-75.126 Z-2.218
X-54.286 Y-74.384 Z-2.245
X-54.185 Y-73.632 Z-2.271
X-54.12 Y-72.872 Z-2.298
X-54.09 Y-72.107 Z-2.325
X-54.096 Y-71.342 Z-2.351
X-54.137 Y-70.578 Z-2.378
X-54.214 Y-69.819 Z-2.405
X-54.326 Y-69.068 Z-2.431
X-54.472 Y-68.328 Z-2.458
X-54.651 Y-67.601 Z-2.484
X-54.785 Y-67.154 Z-2.5
S6000
X-54.863 Y-66.891 F1000
X-55.106 Y-66.201
X-55.378 Y-65.531
X-55.679 Y-64.885
X-56.006 Y-64.264
X-56.358 Y-63.67
X-56.733 Y-63.104
X-57.13 Y-62.567
X-57.547 Y-62.062
X-57.982 Y-61.587
X-58.433 Y-61.145
X-58.899 Y-60.736
X-59.378 Y-60.359
X-59.869 Y-60.016
X-60.371 Y-59.707
X-60.881 Y-59.431
X-61.399 Y-59.189
X-61.924 Y-58.981
X-62.454 Y-58.807
X-62.988 Y-58.666
X-63.525 Y-58.558
X-64.065 Y-58.484
X-64.613 Y-58.443
X-64.993 Y-58.434
X-65.541 Y-58.451
X-66.082 Y-58.501
X-66.621 Y-58.584
X-67.156 Y-58.7
X-67.689 Y-58.85
X-68.216 Y-59.033
X-68.738 Y-59.25
X-69.252 Y-59.5
X-69.759 Y-59.783
X-70.256 Y-60.1
X-70.743 Y-60.45
X-71.217 Y-60.833
X-71.677 Y-61.249
X-72.123 Y-61.697
X-72.552 Y-62.176
X-72.962 Y-62.687
X-73.352 Y-63.227
X-73.72 Y-63.796
X-74.066 Y-64.394
X-74.386 Y-65.017
X-74.679 Y-65.665
X-74.945 Y-66.336
X-75.181 Y-67.028
X-75.386 Y-67.739
X-75.558 Y-68.466
X-75.698 Y-69.206
X-75.803 Y-69.958
X-75.873 Y-70.717
X-75.908 Y-71.481
X-75.907 Y-72.247
X-75.871 Y-73.011
X-75.799 Y-73.771
X-75.692 Y-74.523
X-75.55 Y-75.265
X-75.375 Y-75.993
X-75.168 Y-76.706
X-74.929 Y-77.399
X-74.661 Y-78.072
X-74.364 Y-78.721
X-74.04 Y-79.346
X-73.691 Y-79.944
X-73.319 Y-80.514
X-72.925 Y-81.054
X-72.511 Y-81.564
X-72.079 Y-82.043
X-71.63 Y-82.489
X-71.165 Y-82.903
X-70.688 Y-83.284
X-70.198 Y-83.631
X-69.698 Y-83.945
X-69.189 Y-84.226
X-68.672 Y-84.472
X-68.148 Y-84.685
X-67.619 Y-84.864
X-67.085 Y-85.01
X-66.548 Y-85.122
X-66.009 Y-85.2
X-65.468 Y-85.246
X-64.926 Y-85.258
X-64.385 Y-85.237
X-63.845 Y-85.182
X-63.306 Y-85.095
X-62.771 Y-84.974
X-62.239 Y-84.819
X-61.712 Y-84.632
X-61.192 Y-84.411
X-60.678 Y-84.156
X-60.173 Y-83.868
X-59.677 Y-83.547
X-59.192 Y-83.192
X-58.72 Y-82.805
X-58.261 Y-82.385
X-57.818 Y-81.932
X-57.391 Y-81.449
X-56.984 Y-80.934
X-56.597 Y-80.39
X-56.231 Y-79.816
X-55.889 Y-79.216
X-55.573 Y-78.589
X-55.283 Y-77.937
X-55.021 Y-77.263
X-54.79 Y-76.568
X-54.589 Y-75.855
X-54.421 Y-75.126
X-54.286 Y-74.384
X-54.185 Y-73.632
X-54.12 Y-72.872
X-54.09 Y-72.107
X-54.096 Y-71.342
X-54.137 Y-70.578
X-54.214 Y-69.819
X-54.326 Y-69.068
X-54.472 Y-68.328
X-54.651 Y-67.601
X-54.785 Y-67.154
G0 Z5
X-32.588 Y-72.043
G1 Z2.5 F333.3
S5000
Y-67 Z2.324
G3 X-33.412 Y-67 Z2.279 I-0.412 J0
G1 Y-97 Z1.231
G3 X-32.588 Y-97 Z1.186 I0.412 J0
G1 Y-67 Z0.138
G3 X-33.412 Y-67 Z0.093 I-0.412 J0
G1 Y-97 Z-0.955
G3 X-32.588 Y-97 Z-1 I0.412 J0
S6000
G1 Y-67 F1000
G3 X-33.412 Y-67 I-0.412 J0
G1 Y-97
G3 X-32.588 Y-97 I0.412 J0
S5000
G1 Y-68.364 Z-2 F333.3
S6000
Y-67 F1000
G3 X-33.412 Y-67 I-0.412 J0
G1 Y-97
G3 X-32.588 Y-97 I0.412 J0
G1 Y-68.364
S5000
Y-67 Z-2.048 F333.3
G3 X-33.412 Y-67 Z-2.093 I-0.412 J0
G1 Y-78.658 Z-2.5
S6000
Y-97 F1000
G3 X-32.588 Y-97 I0.412 J0
G1 Y-68.364
Y-67
G3 X-33.412 Y-67 I-0.412 J0
G1 Y-78.658
G0 Z5
X-28.844 Y-56.588
G1 Z2.5 F333.3
S5000
X-30 Z2.46
G3 X-30 Y-57.412 Z2.414 I0 J-0.412
G1 X-15 Z1.891
G3 X-15 Y-56.588 Z1.845 I0 J0.412
G1 X-30 Z1.322
G3 X-30 Y-57.412 Z1.276 I0 J-0.412
G1 X-15 Z0.752
G3 X-15 Y-56.588 Z0.707 I0 J0.412
G1 X-30 Z0.183
G3 X-30 Y-57.412 Z0.138 I0 J-0.412
G1 X-15 Z-0.386
G3 X-15 Y-56.588 Z-0.431 I0 J0.412
G1 X-30 Z-0.955
G3 X-30 Y-57.412 Z-1 I0 J-0.412
S6000
G1 X-15 F1000
G3 X-15 Y-56.588 I0 J0.412
G1 X-30
G3 X-30 Y-57.412 I0 J-0.412
S5000
G1 X-15 Z-1.524 F333.3
G3 X-15 Y-56.588 Z-1.569 I0 J0.412
G1 X-27.34 Z-2
S6000
X-30 F1000
G3 X-30 Y-57.412 I0 J-0.412
G1 X-15
G3 X-15 Y-56.588 I0 J0.412
G1 X-27.34
S5000
X-30 Z-2.093 F333.3
G3 X-30 Y-57.412 Z-2.138 I0 J-0.412
G1 X-19.637 Z-2.5
S6000
X-15 F1000
G3 X-15 Y-56.588 I0 J0.412
G1 X-27.34
X-30
G3 X-30 Y-57.412 I0 J-0.412
G1 X-19.637
G0 Z5
X-29.544 Y-40.703
G1 Z2.5 F333.3
S5000
X-29.447 Y-40.922 Z2.492
X-29.177 Y-41.455 Z2.471
X-28.896 Y-41.944 Z2.451
X-28.605 Y-42.39 Z2.432
X-28.308 Y-42.793 Z2.415
X-28.007 Y-43.154 Z2.399
X-27.703 Y-43.474 Z2.383
X-27.399 Y-43.754 Z2.369
X-27.097 Y-43.995 Z2.355
X-26.798 Y-44.199 Z2.343
X-26.502 Y-44.369 Z2.331
X-26.213 Y-44.504 Z2.32
X-25.928 Y-44.609 Z2.309
X-25.649 Y-44.685 Z2.299
X-25.373 Y-44.733 Z2.289
X-25.101 Y-44.755 Z2.28
X-24.829 Y-44.752 Z2.27
X-24.556 Y-44.723 Z2.26
X-24.28 Y-44.668 Z2.251
X-24 Y-44.585 Z2.24
X-23.715 Y-44.473 Z2.23
X-23.426 Y-44.33 Z2.218
X-23.132 Y-44.154 Z2.206
X-22.834 Y-43.943 Z2.194
X-22.533 Y-43.695 Z2.18
X-22.232 Y-43.409 Z2.166
X-21.932 Y-43.084 Z2.15
X-21.635 Y-42.719 Z2.134
X-21.342 Y-42.313 Z2.116
X-21.058 Y-41.866 Z2.098
X-20.782 Y-41.378 Z2.078
X-20.518 Y-40.848 Z2.058
X-20.269 Y-40.277 Z2.036
X-20.036 Y-39.665 Z2.013
X-19.823 Y-39.013 Z1.989
X-19.631 Y-38.323 Z1.964
X-19.464 Y-37.597 Z1.938
X-19.325 Y-36.838 Z1.911
X-19.215 Y-36.051 Z1.883
X-19.139 Y-35.241 Z1.855
X-19.096 Y-34.415 Z1.826
X-19.09 Y-33.581 Z1.797
X-19.119 Y-32.748 Z1.768
X-19.184 Y-31.925 Z1.739
X-19.284 Y-31.12 Z1.711
X-19.415 Y-30.34 Z1.683
X-19.576 Y-29.591 Z1.656
X-19.764 Y-28.878 Z1.63
X-19.975 Y-28.203 Z1.606
X-20.207 Y-27.57 Z1.582
X-20.457 Y-26.978 Z1.56
X-20.722 Y-26.43 Z1.538
X-20.999 Y-25.925 Z1.518
X-21.286 Y-25.463 Z1.499
X-21.581 Y-25.044 Z1.481
X-21.881 Y-24.667 Z1.465
X-22.184 Y-24.332 Z1.449
X-22.488 Y-24.038 Z1.434
X-22.792 Y-23.782 Z1.42
X-23.092 Y-23.564 Z1.407
X-23.389 Y-23.383 Z1.395
X-23.681 Y-23.235 Z1.384
X-23.967 Y-23.119 Z1.373
X-24.249 Y-23.032 Z1.363
X-24.525 Y-22.974 Z1.353
X-24.808 Y-22.941 Z1.343
X-24.99 Y-22.935 Z1.336
X-25.272 Y-22.948 Z1.327
X-25.546 Y-22.987 Z1.317
X-25.823 Y-23.052 Z1.307
X-26.105 Y-23.145 Z1.297
X-26.391 Y-23.268 Z1.286
X-26.682 Y-23.424 Z1.274
X-26.978 Y-23.612 Z1.262
X-27.277 Y-23.837 Z1.249
X-27.578 Y-24.099 Z1.235
X-27.879 Y-24.399 Z1.22
X-28.179 Y-24.739 Z1.204
X-28.474 Y-25.119 Z1.188
X-28.764 Y-25.54 Z1.17
X-29.046 Y-26.002 Z1.151
X-29.317 Y-26.506 Z1.131
X-29.576 Y-27.051 Z1.11
X-29.819 Y-27.638 Z1.088
X-30.045 Y-28.264 Z1.064
X-30.251 Y-28.93 Z1.04
X-30.434 Y-29.634 Z1.015
X-30.591 Y-30.373 Z0.988
X-30.719 Y-31.143 Z0.961
X-30.817 Y-31.939 Z0.933
X-30.881 Y-32.756 Z0.904
X-30.91 Y-33.585 Z0.875
X-30.904 Y-34.42 Z0.846
X-30.861 Y-35.25 Z0.817
X-30.783 Y-36.068 Z0.788
X-30.671 Y-36.864 Z0.76
X-30.528 Y-37.633 Z0.733
X-30.357 Y-38.369 Z0.707
X-30.16 Y-39.069 Z0.681
X-29.941 Y-39.728 Z0.657
X-29.702 Y-40.347 Z0.634
X-29.447 Y-40.922 Z0.612
X-29.177 Y-41.455 Z0.591
X-28.896 Y-41.944 Z0.571
X-28.605 Y-42.39 Z0.553
X-28.308 Y-42.793 Z0.535
X-28.007 Y-43.154 Z0.519
X-27.703 Y-43.474 Z0.503
X-27.399 Y-43.754 Z0.489
X-27.097 Y-43.995 Z0.475
X-26.798 Y-44.199 Z0.463
X-26.502 Y-44.369 Z0.451
X-26.213 Y-44.504 Z0.44
X-25.928 Y-44.609 Z0.429
X-25.649 Y-44.685 Z0.419
X-25.373 Y-44.733 Z0.409
X-25.101 Y-44.755 Z0.4
X-24.829 Y-44.752 Z0.39
X-24.556 Y-44.723 Z0.381
X-24.28 Y-44.668 Z0.371
X-24 Y-44.585 Z0.361
X-23.715 Y-44.473 Z0.35
X-23.426 Y-44.33 Z0.339
X-23.132 Y-44.154 Z0.327
X-22.834 Y-43.943 Z0.314
X-22.533 Y-43.695 Z0.3
X-22.232 Y-43.409 Z0.286
X-21.932 Y-43.084 Z0.27
X-21.635 Y-42.719 Z0.254
X-21.342 Y-42.313 Z0.237
X-21.058 Y-41.866 Z0.218
X-20.782 Y-41.378 Z0.198
X-20.518 Y-40.848 Z0.178
X-20.269 Y-40.277 Z0.156
X-20.036 Y-39.665 Z0.133
X-19.823 Y-39.013 Z0.109
X-19.631 Y-38.323 Z0.084
X-19.464 Y-37.597 Z0.058
X-19.325 Y-36.838 Z0.031
X-19.215 Y-36.051 Z0.003
X-19.139 Y-35.241 Z-0.025
X-19.096 Y-34.415 Z-0.054
X-19.09 Y-33.581 Z-0.083
X-19.119 Y-32.748 Z-0.112
X-19.184 Y-31.925 Z-0.141
X-19.284 Y-31.12 Z-0.169
X-19.415 Y-30.34 Z-0.197
X-19.576 Y-29.591 Z-0.224
X-19.764 Y-28.878 Z-0.249
X-19.975 Y-28.203 Z-0.274
X-20.207 Y-27.57 Z-0.298
X-20.457 Y-26.978 Z-0.32
X-20.722 Y-26.43 Z-0.341
X-20.999 Y-25.925 Z-0.361
X-21.286 Y-25.463 Z-0.38
X-21.581 Y-25.044 Z-0.398
X-21.881 Y-24.667 Z-0.415
X-22.184 Y-24.332 Z-0.431
X-22.488 Y-24.038 Z-0.446
X-22.792 Y-23.782 Z-0.46
X-23.092 Y-23.564 Z-0.472
X-23.389 Y-23.383 Z-0.485
X-23.681 Y-23.235 Z-0.496
X-23.967 Y-23.119 Z-0.507
X-24.249 Y-23.032 Z-0.517
X-24.525 Y-22.974 Z-0.527
X-24.808 Y-22.941 Z-0.537
X-24.99 Y-22.935 Z-0.543
X-25.272 Y-22.948 Z-0.553
X-25.546 Y-22.987 Z-0.563
X-25.823 Y-23.052 Z-0.573
X-26.105 Y-23.145 Z-0.583
X-26.391 Y-23.268 Z-0.594
X-26.682 Y-23.424 Z-0.606
X-26.978 Y-23.612 Z-0.618
X-27.277 Y-23.837 Z-0.631
X-27.578 Y-24.099 Z-0.645
X-27.879 Y-24.399 Z-0.66
X-28.179 Y-24.739 Z-0.675
X-28.474 Y-25.119 Z-0.692
X-28.764 Y-25.54 Z-0.71
X-29.046 Y-26.002 Z-0.729
X-29.317 Y-26.506 Z-0.749
X-29.576 Y-27.051 Z-0.77
X-29.819 Y-27.638 Z-0.792
X-30.045 Y-28.264 Z-0.815
X-30.251 Y-28.93 Z-0.84
X-30.434 Y-29.634 Z-0.865
X-30.591 Y-30.373 Z-0.892
X-30.719 Y-31.143 Z-0.919
X-30.817 Y-31.939 Z-0.947
X-30.881 Y-32.756 Z-0.975
X-30.906 Y-33.457 Z-1
S6000
X-30.91 Y-33.585 F1000
X-30.904 Y-34.42
X-30.861 Y-35.25
X-30.783 Y-36.068
X-30.671 Y-36.864
X-30.528 Y-37.633
X-30.357 Y-38.369
X-30.16 Y-39.069
X-29.941 Y-39.728
X-29.702 Y-40.347
X-29.447 Y-40.922
X-29.177 Y-41.455
X-28.896 Y-41.944
X-28.605 Y-42.39
X-28.308 Y-42.793
X-28.007 Y-43.154
X-27.703 Y-43.474
X-27.399 Y-43.754
X-27.097 Y-43.995
X-26.798 Y-44.199
X-26.502 Y-44.369
X-26.213 Y-44.504
X-25.928 Y-44.609
X-25.649 Y-44.685
X-25.373 Y-44.733
X-25.101 Y-44.755
X-24.829 Y-44.752
X-24.556 Y-44.723
X-24.28 Y-44.668
X-24 Y-44.585
X-23.715 Y-44.473
X-23.426 Y-44.33
X-23.132 Y-44.154
X-22.834 Y-43.943
X-22.533 Y-43.695
X-22.232 Y-43.409
X-21.932 Y-43.084
X-21.635 Y-42.719
X-21.342 Y-42.313
X-21.058 Y-41.866
X-20.782 Y-41.378
X-20.518 Y-40.848
X-20.269 Y-40.277
X-20.036 Y-39.665
X-19.823 Y-39.013
X-19.631 Y-38.323
X-19.464 Y-37.597
X-19.325 Y-36.838
X-19.215 Y-36.051
X-19.139 Y-35.241
X-19.096 Y-34.415
X-19.09 Y-33.581
X-19.119 Y-32.748
X-19.184 Y-31.925
X-19.284 Y-31.12
X-19.415 Y-30.34
X-19.576 Y-29.591
X-19.764 Y-28.878
X-19.975 Y-28.203
X-20.207 Y-27.57
X-20.457 Y-26.978
X-20.722 Y-26.43
X-20.999 Y-25.925
X-21.286 Y-25.463
X-21.581 Y-25.044
X-21.881 Y-24.667
X-22.184 Y-24.332
X-22.488 Y-24.038
X-22.792 Y-23.782
X-23.092 Y-23.564
X-23.389 Y-23.383
X-23.681 Y-23.235
X-23.967 Y-23.119
X-24.249 Y-23.032
X-24.525 Y-22.974
X-24.808 Y-22.941
X-24.99 Y-22.935
X-25.272 Y-22.948
X-25.546 Y-22.987
X-25.823 Y-23.052
X-26.105 Y-23.145
X-26.391 Y-23.268
X-26.682 Y-23.424
X-26.978 Y-23.612
X-27.277 Y-23.837
X-27.578 Y-24.099
X-27.879 Y-24.399
X-28.179 Y-24.739
X-28.474 Y-25.119
X-28.764 Y-25.54
X-29.046 Y-26.002
X-29.317 Y-26.506
X-29.576 Y-27.051
X-29.819 Y-27.638
X-30.045 Y-28.264
X-30.251 Y-28.93
X-30.434 Y-29.634
X-30.591 Y-30.373
X-30.719 Y-31.143
X-30.817 Y-31.939
X-30.881 Y-32.756
X-30.906 Y-33.457
S5000
X-30.91 Y-33.585 Z-1.004 F333.3
X-30.904 Y-34.42 Z-1.034
X-30.861 Y-35.25 Z-1.063
X-30.783 Y-36.068 Z-1.091
X-30.671 Y-36.864 Z-1.119
X-30.528 Y-37.633 Z-1.147
X-30.357 Y-38.369 Z-1.173
X-30.16 Y-39.069 Z-1.198
X-29.941 Y-39.728 Z-1.223
X-29.702 Y-40.347 Z-1.246
X-29.447 Y-40.922 Z-1.268
X-29.177 Y-41.455 Z-1.289
X-28.896 Y-41.944 Z-1.308
X-28.605 Y-42.39 Z-1.327
X-28.308 Y-42.793 Z-1.345
X-28.007 Y-43.154 Z-1.361
X-27.703 Y-43.474 Z-1.376
X-27.399 Y-43.754 Z-1.391
X-27.097 Y-43.995 Z-1.404
X-26.798 Y-44.199 Z-1.417
X-26.502 Y-44.369 Z-1.429
X-26.213 Y-44.504 Z-1.44
X-25.928 Y-44.609 Z-1.451
X-25.649 Y-44.685 Z-1.461
X-25.373 Y-44.733 Z-1.47
X-25.101 Y-44.755 Z-1.48
X-24.829 Y-44.752 Z-1.49
X-24.556 Y-44.723 Z-1.499
X-24.28 Y-44.668 Z-1.509
X-24 Y-44.585 Z-1.519
X-23.715 Y-44.473 Z-1.53
X-23.426 Y-44.33 Z-1.541
X-23.132 Y-44.154 Z-1.553
X-22.834 Y-43.943 Z-1.566
X-22.533 Y-43.695 Z-1.579
X-22.232 Y-43.409 Z-1.594
X-21.932 Y-43.084 Z-1.609
X-21.635 Y-42.719 Z-1.626
X-21.342 Y-42.313 Z-1.643
X-21.058 Y-41.866 Z-1.662
X-20.782 Y-41.378 Z-1.681
X-20.518 Y-40.848 Z-1.702
X-20.269 Y-40.277 Z-1.724
X-20.036 Y-39.665 Z-1.747
X-19.823 Y-39.013 Z-1.771
X-19.631 Y-38.323 Z-1.796
X-19.464 Y-37.597 Z-1.822
X-19.325 Y-36.838 Z-1.849
X-19.215 Y-36.051 Z-1.876
X-19.139 Y-35.241 Z-1.905
X-19.096 Y-34.415 Z-1.934
X-19.09 Y-33.581 Z-1.963
X-19.119 Y-32.748 Z-1.992
X-19.138 Y-32.515 Z-2
S6000
X-19.184 Y-31.925 F1000
X-19.284 Y-31.12
X-19.415 Y-30.34
X-19.576 Y-29.591
X-19.764 Y-28.878
X-19.975 Y-28.203
X-20.207 Y-27.57
X-20.457 Y-26.978
X-20.722 Y-26.43
X-20.999 Y-25.925
X-21.286 Y-25.463
X-21.581 Y-25.044
X-21.881 Y-24.667
X-22.184 Y-24.332
X-22.488 Y-24.038
X-22.792 Y-23.782
X-23.092 Y-23.564
X-23.389 Y-23.383
X-23.681 Y-23.235
X-23.967 Y-23.119
X-24.249 Y-23.032
X-24.525 Y-22.974
X-24.808 Y-22.941
X-24.99 Y-22.935
X-25.272 Y-22.948
X-25.546 Y-22.987
X-25.823 Y-23.052
X-26.105 Y-23.145
X-26.391 Y-23.268
X-26.682 Y-23.424
X-26.978 Y-23.612
X-27.277 Y-23.837
X-27.578 Y-24.099
X-27.879 Y-24.399
X-28.179 Y-24.739
X-28.474 Y-25.119
X-28.764 Y-25.54
X-29.046 Y-26.002
X-29.317 Y-26.506
X-29.576 Y-27.051
X-29.819 Y-27.638
X-30.045 Y-28.264
X-30.251 Y-28.93
X-30.434 Y-29.634
X-30.591 Y-30.373
X-30.719 Y-31.143
X-30.817 Y-31.939
X-30.881 Y-32.756
X-30.906 Y-33.457
X-30.91 Y-33.585
X-30.904 Y-34.42
X-30.861 Y-35.25
X-30.783 Y-36.068
X-30.671 Y-36.864
X-30.528 Y-37.633
X-30.357 Y-38.369
X-30.16 Y-39.069
X-29.941 Y-39.728
X-29.702 Y-40.347
X-29.447 Y-40.922
X-29.177 Y-41.455
X-28.896 Y-41.944
X-28.605 Y-42.39
X-28.308 Y-42.793
X-28.007 Y-43.154
X-27.703 Y-43.474
X-27.399 Y-43.754
X-27.097 Y-43.995
X-26.798 Y-44.199
X-26.502 Y-44.369
X-26.213 Y-44.504
X-25.928 Y-44.609
X-25.649 Y-44.685
X-25.373 Y-44.733
X-25.101 Y-44.755
X-24.829 Y-44.752
X-24.556 Y-44.723
X-24.28 Y-44.668
X-24 Y-44.585
X-23.715 Y-44.473
X-23.426 Y-44.33
X-23.132 Y-44.154
X-22.834 Y-43.943
X-22.533 Y-43.695
X-22.232 Y-43.409
X-21.932 Y-43.084
X-21.635 Y-42.719
X-21.342 Y-42.313
X-21.058 Y-41.866
X-20.782 Y-41.378
X-20.518 Y-40.848
X-20.269 Y-40.277
X-20.036 Y-39.665
X-19.823 Y-39.013
X-19.631 Y-38.323
X-19.464 Y-37.597
X-19.325 Y-36.838
X-19.215 Y-36.051
X-19.139 Y-35.241
X-19.096 Y-34.415
X-19.09 Y-33.581
X-19.119 Y-32.748
X-19.138 Y-32.515
S5000
X-19.184 Y-31.925 Z-2.021 F333.3
X-19.284 Y-31.12 Z-2.049
X-19.415 Y-30.34 Z-2.077
X-19.576 Y-29.591 Z-2.103
X-19.764 Y-28.878 Z-2.129
X-19.975 Y-28.203 Z-2.154
X-20.207 Y-27.57 Z-2.177
X-20.457 Y-26.978 Z-2.2
X-20.722 Y-26.43 Z-2.221
X-20.999 Y-25.925 Z-2.241
X-21.286 Y-25.463 Z-2.26
X-21.581 Y-25.044 Z-2.278
X-21.881 Y-24.667 Z-2.295
X-22.184 Y-24.332 Z-2.311
X-22.488 Y-24.038 Z-2.325
X-22.792 Y-23.782 Z-2.339
X-23.092 Y-23.564 Z-2.352
X-23.389 Y-23.383 Z-2.364
X-23.681 Y-23.235 Z-2.376
X-23.967 Y-23.119 Z-2.387
X-24.249 Y-23.032 Z-2.397
X-24.525 Y-22.974 Z-2.407
X-24.808 Y-22.941 Z-2.417
X-24.99 Y-22.935 Z-2.423
X-25.272 Y-22.948 Z-2.433
X-25.546 Y-22.987 Z-2.443
X-25.823 Y-23.052 Z-2.453
X-26.105 Y-23.145 Z-2.463
X-26.391 Y-23.268 Z-2.474
X-26.682 Y-23.424 Z-2.485
X-26.978 Y-23.612 Z-2.498
X-27.034 Y-23.655 Z-2.5
S6000
X-27.277 Y-23.837 F1000
X-27.578 Y-24.099
X-27.879 Y-24.399
X-28.179 Y-24.739
X-28.474 Y-25.119
X-28.764 Y-25.54
X-29.046 Y-26.002
X-29.317 Y-26.506
X-29.576 Y-27.051
X-29.819 Y-27.638
X-30.045 Y-28.264
X-30.251 Y-28.93
X-30.434 Y-29.634
X-30.591 Y-30.373
X-30.719 Y-31.143
X-30.817 Y-31.939
X-30.881 Y-32.756
X-30.91 Y-33.585
X-30.904 Y-34.42
X-30.861 Y-35.25
X-30.783 Y-36.068
X-30.671 Y-36.864
X-30.528 Y-37.633
X-30.357 Y-38.369
X-30.16 Y-39.069
X-29.941 Y-39.728
X-29.702 Y-40.347
X-29.447 Y-40.922
X-29.177 Y-41.455
X-28.896 Y-41.944
X-28.605 Y-42.39
X-28.308 Y-42.793
X-28.007 Y-43.154
X-27.703 Y-43.474
X-27.399 Y-43.754
X-27.097 Y-43.995
X-26.798 Y-44.199
X-26.502 Y-44.369
X-26.213 Y-44.504
X-25.928 Y-44.609
X-25.649 Y-44.685
X-25.373 Y-44.733
X-25.101 Y-44.755
X-24.829 Y-44.752
X-24.556 Y-44.723
X-24.28 Y-44.668
X-24 Y-44.585
X-23.715 Y-44.473
X-23.426 Y-44.33
X-23.132 Y-44.154
X-22.834 Y-43.943
X-22.533 Y-43.695
X-22.232 Y-43.409
X-21.932 Y-43.084
X-21.635 Y-42.719
X-21.342 Y-42.313
X-21.058 Y-41.866
X-20.782 Y-41.378
X-20.518 Y-40.848
X-20.269 Y-40.277
X-20.036 Y-39.665
X-19.823 Y-39.013
X-19.631 Y-38.323
X-19.464 Y-37.597
X-19.325 Y-36.838
X-19.215 Y-36.051
X-19.139 Y-35.241
X-19.096 Y-34.415
X-19.09 Y-33.581
X-19.119 Y-32.748
X-19.184 Y-31.925
X-19.284 Y-31.12
X-19.415 Y-30.34
X-19.576 Y-29.591
X-19.764 Y-28.878
X-19.975 Y-28.203
X-20.207 Y-27.57
X-20.457 Y-26.978
X-20.722 Y-26.43
X-20.999 Y-25.925
X-21.286 Y-25.463
X-21.581 Y-25.044
X-21.881 Y-24.667
X-22.184 Y-24.332
X-22.488 Y-24.038
X-22.792 Y-23.782
X-23.092 Y-23.564
X-23.389 Y-23.383
X-23.681 Y-23.235
X-23.967 Y-23.119
X-24.249 Y-23.032
X-24.525 Y-22.974
X-24.808 Y-22.941
X-24.99 Y-22.935
X-25.272 Y-22.948
X-25.546 Y-22.987
X-25.823 Y-23.052
X-26.105 Y-23.145
X-26.391 Y-23.268
X-26.682 Y-23.424
X-26.978 Y-23.612
X-27.034 Y-23.655
G0 Z5
X-17.451 Y-10.413
G1 Z2.5 F333.3
S5000
X-15 Z2.414
G3 X-15 Y-9.587 Z2.369 I0 J0.413
G1 X-30 Z1.845
G3 X-30 Y-10.413 Z1.8 I0 J-0.413
G1 X-15 Z1.276
G3 X-15 Y-9.587 Z1.231 I0 J0.413
G1 X-30 Z0.707
G3 X-30 Y-10.413 Z0.662 I0 J-0.413
G1 X-15 Z0.138
G3 X-15 Y-9.587 Z0.093 I0 J0.413
G1 X-30 Z-0.431
G3 X-30 Y-10.413 Z-0.476 I0 J-0.413
G1 X-15 Z-1
S6000
G3 X-15 Y-9.587 I0 J0.413 F1000
G1 X-30
G3 X-30 Y-10.413 I0 J-0.413
G1 X-15
S5000
G3 X-15 Y-9.587 Z-1.045 I0 J0.413 F333.3
G1 X-30 Z-1.569
G3 X-30 Y-10.413 Z-1.614 I0 J-0.413
G1 X-18.956 Z-2
S6000
X-15 F1000
G3 X-15 Y-9.587 I0 J0.413
G1 X-30
G3 X-30 Y-10.413 I0 J-0.413
G1 X-18.956
S5000
X-15 Z-2.138 F333.3
G3 X-15 Y-9.587 Z-2.183 I0 J0.413
G1 X-24.067 Z-2.5
S6000
X-30 F1000
G3 X-30 Y-10.413 I0 J-0.413
G1 X-18.956
X-15
G3 X-15 Y-9.587 I0 J0.413
G1 X-24.067
G0 Z5
X-113.844
G1 Z2.5 F333.3
S5000
X-115 Z2.46
G3 X-115 Y-10.413 Z2.414 I0 J-0.413
G1 X-100 Z1.891
G3 X-100 Y-9.587 Z1.845 I0 J0.413
G1 X-115 Z1.322
G3 X-115 Y-10.413 Z1.276 I0 J-0.413
G1 X-100 Z0.752
G3 X-100 Y-9.587 Z0.707 I0 J0.413
G1 X-115 Z0.183
G3 X-115 Y-10.413 Z0.138 I0 J-0.413
G1 X-100 Z-0.386
G3 X-100 Y-9.587 Z-0.431 I0 J0.413
G1 X-115 Z-0.955
G3 X-115 Y-10.413 Z-1 I0 J-0.413
S6000
G1 X-100 F1000
G3 X-100 Y-9.587 I0 J0.413
G1 X-115
G3 X-115 Y-10.413 I0 J-0.413
S5000
G1 X-100 Z-1.524 F333.3
G3 X-100 Y-9.587 Z-1.569 I0 J0.413
G1 X-112.34 Z-2
S6000
X-115 F1000
G3 X-115 Y-10.413 I0 J-0.413
G1 X-100
G3 X-100 Y-9.587 I0 J0.413
G1 X-112.34
S5000
X-115 Z-2.093 F333.3
G3 X-115 Y-10.413 Z-2.138 I0 J-0.413
G1 X-104.637 Z-2.5
S6000
X-100 F1000
G3 X-100 Y-9.587 I0 J0.413
G1 X-112.34
X-115
G3 X-115 Y-10.413 I0 J-0.413
G1 X-104.637
G0 Z5
X-109.439 Y-40.937
G1 Z2.5 F333.3
S5000
X-109.177 Y-41.455 Z2.48
X-108.895 Y-41.944 Z2.46
X-108.606 Y-42.39 Z2.441
X-108.309 Y-42.793 Z2.424
X-108.007 Y-43.154 Z2.408
X-107.703 Y-43.474 Z2.392
X-107.4 Y-43.754 Z2.378
X-107.096 Y-43.995 Z2.364
X-106.798 Y-44.199 Z2.352
X-106.502 Y-44.368 Z2.34
X-106.212 Y-44.505 Z2.328
X-105.928 Y-44.609 Z2.318
X-105.649 Y-44.685 Z2.308
X-105.373 Y-44.733 Z2.298
X-105.1 Y-44.755 Z2.288
X-104.828 Y-44.752 Z2.279
X-104.556 Y-44.723 Z2.269
X-104.28 Y-44.668 Z2.26
X-104 Y-44.585 Z2.249
X-103.715 Y-44.473 Z2.239
X-103.426 Y-44.331 Z2.227
X-103.132 Y-44.154 Z2.215
X-102.833 Y-43.943 Z2.203
X-102.534 Y-43.696 Z2.189
X-102.232 Y-43.409 Z2.175
X-101.931 Y-43.084 Z2.159
X-101.635 Y-42.719 Z2.143
X-101.342 Y-42.313 Z2.125
X-101.057 Y-41.866 Z2.107
X-100.782 Y-41.378 Z2.087
X-100.518 Y-40.848 Z2.066
X-100.269 Y-40.277 Z2.045
X-100.036 Y-39.665 Z2.022
X-99.823 Y-39.013 Z1.998
X-99.631 Y-38.323 Z1.973
X-99.464 Y-37.597 Z1.947
X-99.325 Y-36.838 Z1.92
X-99.215 Y-36.051 Z1.892
X-99.139 Y-35.241 Z1.864
X-99.096 Y-34.415 Z1.835
X-99.09 Y-33.581 Z1.806
X-99.119 Y-32.748 Z1.777
X-99.184 Y-31.925 Z1.748
X-99.284 Y-31.12 Z1.72
X-99.415 Y-30.34 Z1.692
X-99.576 Y-29.591 Z1.665
X-99.764 Y-28.878 Z1.639
X-99.975 Y-28.203 Z1.615
X-100.207 Y-27.57 Z1.591
X-100.457 Y-26.978 Z1.569
X-100.722 Y-26.43 Z1.547
X-100.999 Y-25.925 Z1.527
X-101.287 Y-25.463 Z1.508
X-101.581 Y-25.044 Z1.49
X-101.882 Y-24.667 Z1.474
X-102.184 Y-24.332 Z1.458
X-102.488 Y-24.038 Z1.443
X-102.792 Y-23.782 Z1.429
X-103.093 Y-23.564 Z1.416
X-103.389 Y-23.383 Z1.404
X-103.681 Y-23.235 Z1.393
X-103.968 Y-23.119 Z1.382
X-104.248 Y-23.032 Z1.372
X-104.525 Y-22.974 Z1.362
X-104.808 Y-22.941 Z1.352
X-104.99 Y-22.935 Z1.345
X-105.272 Y-22.948 Z1.336
X-105.546 Y-22.987 Z1.326
X-105.823 Y-23.052 Z1.316
X-106.105 Y-23.145 Z1.306
X-106.391 Y-23.268 Z1.295
X-106.682 Y-23.423 Z1.283
X-106.978 Y-23.613 Z1.271
X-107.278 Y-23.838 Z1.258
X-107.578 Y-24.099 Z1.244
X-107.879 Y-24.399 Z1.229
X-108.179 Y-24.739 Z1.213
X-108.475 Y-25.119 Z1.196
X-108.764 Y-25.539 Z1.179
X-109.045 Y-26.002 Z1.16
X-109.317 Y-26.506 Z1.14
X-109.576 Y-27.051 Z1.119
X-109.819 Y-27.637 Z1.097
X-110.045 Y-28.264 Z1.073
X-110.251 Y-28.931 Z1.049
X-110.434 Y-29.635 Z1.023
X-110.591 Y-30.373 Z0.997
X-110.719 Y-31.143 Z0.97
X-110.817 Y-31.939 Z0.942
X-110.881 Y-32.755 Z0.913
X-110.91 Y-33.586 Z0.884
X-110.904 Y-34.42 Z0.855
X-110.86 Y-35.25 Z0.826
X-110.783 Y-36.068 Z0.797
X-110.671 Y-36.864 Z0.769
X-110.529 Y-37.633 Z0.742
X-110.357 Y-38.369 Z0.716
X-110.161 Y-39.069 Z0.69
X-109.942 Y-39.728 Z0.666
X-109.702 Y-40.346 Z0.643
X-109.447 Y-40.922 Z0.621
X-109.177 Y-41.455 Z0.6
X-108.895 Y-41.944 Z0.58
X-108.606 Y-42.39 Z0.562
X-108.309 Y-42.793 Z0.544
X-108.007 Y-43.154 Z0.528
X-107.703 Y-43.474 Z0.512
X-107.4 Y-43.754 Z0.498
X-107.096 Y-43.995 Z0.484
X-106.798 Y-44.199 Z0.472
X-106.502 Y-44.368 Z0.46
X-106.212 Y-44.505 Z0.449
X-105.928 Y-44.609 Z0.438
X-105.649 Y-44.685 Z0.428
X-105.373 Y-44.733 Z0.418
X-105.1 Y-44.755 Z0.409
X-104.828 Y-44.752 Z0.399
X-104.556 Y-44.723 Z0.39
X-104.28 Y-44.668 Z0.38
X-104 Y-44.585 Z0.37
X-103.715 Y-44.473 Z0.359
X-103.426 Y-44.331 Z0.348
X-103.132 Y-44.154 Z0.336
X-102.833 Y-43.943 Z0.323
X-102.534 Y-43.696 Z0.309
X-102.232 Y-43.409 Z0.295
X-101.931 Y-43.084 Z0.279
X-101.635 Y-42.719 Z0.263
X-101.342 Y-42.313 Z0.245
X-101.057 Y-41.866 Z0.227
X-100.782 Y-41.378 Z0.207
X-100.518 Y-40.848 Z0.187
X-100.269 Y-40.277 Z0.165
X-100.036 Y-39.665 Z0.142
X-99.823 Y-39.013 Z0.118
X-99.631 Y-38.323 Z0.093
X-99.464 Y-37.597 Z0.067
X-99.325 Y-36.838 Z0.04
X-99.215 Y-36.051 Z0.012
X-99.139 Y-35.241 Z-0.016
X-99.096 Y-34.415 Z-0.045
X-99.09 Y-33.581 Z-0.074
X-99.119 Y-32.748 Z-0.103
X-99.184 Y-31.925 Z-0.132
X-99.284 Y-31.12 Z-0.16
X-99.415 Y-30.34 Z-0.188
X-99.576 Y-29.591 Z-0.215
X-99.764 Y-28.878 Z-0.24
X-99.975 Y-28.203 Z-0.265
X-100.207 Y-27.57 Z-0.289
X-100.457 Y-26.978 Z-0.311
X-100.722 Y-26.43 Z-0.332
X-100.999 Y-25.925 Z-0.352
X-101.287 Y-25.463 Z-0.371
X-101.581 Y-25.044 Z-0.389
X-101.882 Y-24.667 Z-0.406
X-102.184 Y-24.332 Z-0.422
X-102.488 Y-24.038 Z-0.437
X-102.792 Y-23.782 Z-0.451
X-103.093 Y-23.564 Z-0.464
X-103.389 Y-23.383 Z-0.476
X-103.681 Y-23.235 Z-0.487
X-103.968 Y-23.119 Z-0.498
X-104.248 Y-23.032 Z-0.508
X-104.525 Y-22.974 Z-0.518
X-104.808 Y-22.941 Z-0.528
X-104.99 Y-22.935 Z-0.534
X-105.272 Y-22.948 Z-0.544
X-105.546 Y-22.987 Z-0.554
X-105.823 Y-23.052 Z-0.564
X-106.105 Y-23.145 Z-0.574
X-106.391 Y-23.268 Z-0.585
X-106.682 Y-23.423 Z-0.597
X-106.978 Y-23.613 Z-0.609
X-107.278 Y-23.838 Z-0.622
X-107.578 Y-24.099 Z-0.636
X-107.879 Y-24.399 Z-0.651
X-108.179 Y-24.739 Z-0.666
X-108.475 Y-25.119 Z-0.683
X-108.764 Y-25.539 Z-0.701
X-109.045 Y-26.002 Z-0.72
X-109.317 Y-26.506 Z-0.74
X-109.576 Y-27.051 Z-0.761
X-109.819 Y-27.637 Z-0.783
X-110.045 Y-28.264 Z-0.807
X-110.251 Y-28.931 Z-0.831
X-110.434 Y-29.635 Z-0.856
X-110.591 Y-30.373 Z-0.883
X-110.719 Y-31.143 Z-0.91
X-110.817 Y-31.939 Z-0.938
X-110.881 Y-32.755 Z-0.967
X-110.91 Y-33.586 Z-0.996
X-110.909 Y-33.714 Z-1
S6000
X-110.904 Y-34.42 F1000
X-110.86 Y-35.25
X-110.783 Y-36.068
X-110.671 Y-36.864
X-110.529 Y-37.633
X-110.357 Y-38.369
X-110.161 Y-39.069
X-109.942 Y-39.728
X-109.702 Y-40.346
X-109.447 Y-40.922
X-109.177 Y-41.455
X-108.895 Y-41.944
X-108.606 Y-42.39
X-108.309 Y-42.793
X-108.007 Y-43.154
X-107.703 Y-43.474
X-107.4 Y-43.754
X-107.096 Y-43.995
X-106.798 Y-44.199
X-106.502 Y-44.368
X-106.212 Y-44.505
X-105.928 Y-44.609
X-105.649 Y-44.685
X-105.373 Y-44.733
X-105.1 Y-44.755
X-104.828 Y-44.752
X-104.556 Y-44.723
X-104.28 Y-44.668
X-104 Y-44.585
X-103.715 Y-44.473
X-103.426 Y-44.331
X-103.132 Y-44.154
X-102.833 Y-43.943
X-102.534 Y-43.696
X-102.232 Y-43.409
X-101.931 Y-43.084
X-101.635 Y-42.719
X-101.342 Y-42.313
X-101.057 Y-41.866
X-100.782 Y-41.378
X-100.518 Y-40.848
X-100.269 Y-40.277
X-100.036 Y-39.665
X-99.823 Y-39.013
X-99.631 Y-38.323
X-99.464 Y-37.597
X-99.325 Y-36.838
X-99.215 Y-36.051
X-99.139 Y-35.241
X-99.096 Y-34.415
X-99.09 Y-33.581
X-99.119 Y-32.748
X-99.184 Y-31.925
X-99.284 Y-31.12
X-99.415 Y-30.34
X-99.576 Y-29.591
X-99.764 Y-28.878
X-99.975 Y-28.203
X-100.207 Y-27.57
X-100.457 Y-26.978
X-100.722 Y-26.43
X-100.999 Y-25.925
X-101.287 Y-25.463
X-101.581 Y-25.044
X-101.882 Y-24.667
X-102.184 Y-24.332
X-102.488 Y-24.038
X-102.792 Y-23.782
X-103.093 Y-23.564
X-103.389 Y-23.383
X-103.681 Y-23.235
X-103.968 Y-23.119
X-104.248 Y-23.032
X-104.525 Y-22.974
X-104.808 Y-22.941
X-104.99 Y-22.935
X-105.272 Y-22.948
X-105.546 Y-22.987
X-105.823 Y-23.052
X-106.105 Y-23.145
X-106.391 Y-23.268
X-106.682 Y-23.423
X-106.978 Y-23.613
X-107.278 Y-23.838
X-107.578 Y-24.099
X-107.879 Y-24.399
X-108.179 Y-24.739
X-108.475 Y-25.119
X-108.764 Y-25.539
X-109.045 Y-26.002
X-109.317 Y-26.506
X-109.576 Y-27.051
X-109.819 Y-27.637
X-110.045 Y-28.264
X-110.251 Y-28.931
X-110.434 Y-29.635
X-110.591 Y-30.373
X-110.719 Y-31.143
X-110.817 Y-31.939
X-110.881 Y-32.755
X-110.91 Y-33.586
X-110.909 Y-33.714
S5000
X-110.904 Y-34.42 Z-1.025 F333.3
X-110.86 Y-35.25 Z-1.054
X-110.783 Y-36.068 Z-1.082
X-110.671 Y-36.864 Z-1.11
X-110.529 Y-37.633 Z-1.138
X-110.357 Y-38.369 Z-1.164
X-110.161 Y-39.069 Z-1.19
X-109.942 Y-39.728 Z-1.214
X-109.702 Y-40.346 Z-1.237
X-109.447 Y-40.922 Z-1.259
X-109.177 Y-41.455 Z-1.28
X-108.895 Y-41.944 Z-1.299
X-108.606 Y-42.39 Z-1.318
X-108.309 Y-42.793 Z-1.336
X-108.007 Y-43.154 Z-1.352
X-107.703 Y-43.474 Z-1.367
X-107.4 Y-43.754 Z-1.382
X-107.096 Y-43.995 Z-1.395
X-106.798 Y-44.199 Z-1.408
X-106.502 Y-44.368 Z-1.42
X-106.212 Y-44.505 Z-1.431
X-105.928 Y-44.609 Z-1.442
X-105.649 Y-44.685 Z-1.452
X-105.373 Y-44.733 Z-1.461
X-105.1 Y-44.755 Z-1.471
X-104.828 Y-44.752 Z-1.481
X-104.556 Y-44.723 Z-1.49
X-104.28 Y-44.668 Z-1.5
X-104 Y-44.585 Z-1.51
X-103.715 Y-44.473 Z-1.521
X-103.426 Y-44.331 Z-1.532
X-103.132 Y-44.154 Z-1.544
X-102.833 Y-43.943 Z-1.557
X-102.534 Y-43.696 Z-1.57
X-102.232 Y-43.409 Z-1.585
X-101.931 Y-43.084 Z-1.6
X-101.635 Y-42.719 Z-1.617
X-101.342 Y-42.313 Z-1.634
X-101.057 Y-41.866 Z-1.653
X-100.782 Y-41.378 Z-1.672
X-100.518 Y-40.848 Z-1.693
X-100.269 Y-40.277 Z-1.715
X-100.036 Y-39.665 Z-1.738
X-99.823 Y-39.013 Z-1.762
X-99.631 Y-38.323 Z-1.787
X-99.464 Y-37.597 Z-1.813
X-99.325 Y-36.838 Z-1.84
X-99.215 Y-36.051 Z-1.867
X-99.139 Y-35.241 Z-1.896
X-99.096 Y-34.415 Z-1.925
X-99.09 Y-33.581 Z-1.954
X-99.119 Y-32.748 Z-1.983
X-99.158 Y-32.259 Z-2
S6000
X-99.184 Y-31.925 F1000
X-99.284 Y-31.12
X-99.415 Y-30.34
X-99.576 Y-29.591
X-99.764 Y-28.878
X-99.975 Y-28.203
X-100.207 Y-27.57
X-100.457 Y-26.978
X-100.722 Y-26.43
X-100.999 Y-25.925
X-101.287 Y-25.463
X-101.581 Y-25.044
X-101.882 Y-24.667
X-102.184 Y-24.332
X-102.488 Y-24.038
X-102.792 Y-23.782
X-103.093 Y-23.564
X-103.389 Y-23.383
X-103.681 Y-23.235
X-103.968 Y-23.119
X-104.248 Y-23.032
X-104.525 Y-22.974
X-104.808 Y-22.941
X-104.99 Y-22.935
X-105.272 Y-22.948
X-105.546 Y-22.987
X-105.823 Y-23.052
X-106.105 Y-23.145
X-106.391 Y-23.268
X-106.682 Y-23.423
X-106.978 Y-23.613
X-107.278 Y-23.838
X-107.578 Y-24.099
X-107.879 Y-24.399
X-108.179 Y-24.739
X-108.475 Y-25.119
X-108.764 Y-25.539
X-109.045 Y-26.002
X-109.317 Y-26.506
X-109.576 Y-27.051
X-109.819 Y-27.637
X-110.045 Y-28.264
X-110.251 Y-28.931
X-110.434 Y-29.635
X-110.591 Y-30.373
X-110.719 Y-31.143
X-110.817 Y-31.939
X-110.881 Y-32.755
X-110.91 Y-33.586
X-110.904 Y-34.42
X-110.86 Y-35.25
X-110.783 Y-36.068
X-110.671 Y-36.864
X-110.529 Y-37.633
X-110.357 Y-38.369
X-110.161 Y-39.069
X-109.942 Y-39.728
X-109.702 Y-40.346
X-109.447 Y-40.922
X-109.177 Y-41.455
X-108.895 Y-41.944
X-108.606 Y-42.39
X-108.309 Y-42.793
X-108.007 Y-43.154
X-107.703 Y-43.474
X-107.4 Y-43.754
X-107.096 Y-43.995
X-106.798 Y-44.199
X-106.502 Y-44.368
X-106.212 Y-44.505
X-105.928 Y-44.609
X-105.649 Y-44.685
X-105.373 Y-44.733
X-105.1 Y-44.755
X-104.828 Y-44.752
X-104.556 Y-44.723
X-104.28 Y-44.668
X-104 Y-44.585
X-103.715 Y-44.473
X-103.426 Y-44.331
X-103.132 Y-44.154
X-102.833 Y-43.943
X-102.534 Y-43.696
X-102.232 Y-43.409
X-101.931 Y-43.084
X-101.635 Y-42.719
X-101.342 Y-42.313
X-101.057 Y-41.866
X-100.782 Y-41.378
X-100.518 Y-40.848
X-100.269 Y-40.277
X-100.036 Y-39.665
X-99.823 Y-39.013
X-99.631 Y-38.323
X-99.464 Y-37.597
X-99.325 Y-36.838
X-99.215 Y-36.051
X-99.139 Y-35.241
X-99.096 Y-34.415
X-99.09 Y-33.581
X-99.119 Y-32.748
X-99.158 Y-32.259
S5000
X-99.184 Y-31.925 Z-2.012 F333.3
X-99.284 Y-31.12 Z-2.04
X-99.415 Y-30.34 Z-2.068
X-99.576 Y-29.591 Z-2.094
X-99.764 Y-28.878 Z-2.12
X-99.975 Y-28.203 Z-2.145
X-100.207 Y-27.57 Z-2.168
X-100.457 Y-26.978 Z-2.191
X-100.722 Y-26.43 Z-2.212
X-100.999 Y-25.925 Z-2.232
X-101.287 Y-25.463 Z-2.251
X-101.581 Y-25.044 Z-2.269
X-101.882 Y-24.667 Z-2.286
X-102.184 Y-24.332 Z-2.302
X-102.488 Y-24.038 Z-2.316
X-102.792 Y-23.782 Z-2.33
X-103.093 Y-23.564 Z-2.343
X-103.389 Y-23.383 Z-2.355
X-103.681 Y-23.235 Z-2.367
X-103.968 Y-23.119 Z-2.378
X-104.248 Y-23.032 Z-2.388
X-104.525 Y-22.974 Z-2.398
X-104.808 Y-22.941 Z-2.408
X-104.99 Y-22.935 Z-2.414
X-105.272 Y-22.948 Z-2.424
X-105.546 Y-22.987 Z-2.434
X-105.823 Y-23.052 Z-2.444
X-106.105 Y-23.145 Z-2.454
X-106.391 Y-23.268 Z-2.465
X-106.682 Y-23.423 Z-2.476
X-106.978 Y-23.613 Z-2.489
X-107.24 Y-23.809 Z-2.5
S6000
X-107.278 Y-23.838 F1000
X-107.578 Y-24.099
X-107.879 Y-24.399
X-108.179 Y-24.739
X-108.475 Y-25.119
X-108.764 Y-25.539
X-109.045 Y-26.002
X-109.317 Y-26.506
X-109.576 Y-27.051
X-109.819 Y-27.637
X-110.045 Y-28.264
X-110.251 Y-28.931
X-110.434 Y-29.635
X-110.591 Y-30.373
X-110.719 Y-31.143
X-110.817 Y-31.939
X-110.881 Y-32.755
X-110.91 Y-33.586
X-110.904 Y-34.42
X-110.86 Y-35.25
X-110.783 Y-36.068
X-110.671 Y-36.864
X-110.529 Y-37.633
X-110.357 Y-38.369
X-110.161 Y-39.069
X-109.942 Y-39.728
X-109.702 Y-40.346
X-109.447 Y-40.922
X-109.177 Y-41.455
X-108.895 Y-41.944
X-108.606 Y-42.39
X-108.309 Y-42.793
X-108.007 Y-43.154
X-107.703 Y-43.474
X-107.4 Y-43.754
X-107.096 Y-43.995
X-106.798 Y-44.199
X-106.502 Y-44.368
X-106.212 Y-44.505
X-105.928 Y-44.609
X-105.649 Y-44.685
X-105.373 Y-44.733
X-105.1 Y-44.755
X-104.828 Y-44.752
X-104.556 Y-44.723
X-104.28 Y-44.668
X-104 Y-44.585
X-103.715 Y-44.473
X-103.426 Y-44.331
X-103.132 Y-44.154
X-102.833 Y-43.943
X-102.534 Y-43.696
X-102.232 Y-43.409
X-101.931 Y-43.084
X-101.635 Y-42.719
X-101.342 Y-42.313
X-101.057 Y-41.866
X-100.782 Y-41.378
X-100.518 Y-40.848
X-100.269 Y-40.277
X-100.036 Y-39.665
X-99.823 Y-39.013
X-99.631 Y-38.323
X-99.464 Y-37.597
X-99.325 Y-36.838
X-99.215 Y-36.051
X-99.139 Y-35.241
X-99.096 Y-34.415
X-99.09 Y-33.581
X-99.119 Y-32.748
X-99.158 Y-32.259
X-99.184 Y-31.925
X-99.284 Y-31.12
X-99.415 Y-30.34
X-99.576 Y-29.591
X-99.764 Y-28.878
X-99.975 Y-28.203
X-100.207 Y-27.57
X-100.457 Y-26.978
X-100.722 Y-26.43
X-100.999 Y-25.925
X-101.287 Y-25.463
X-101.581 Y-25.044
X-101.882 Y-24.667
X-102.184 Y-24.332
X-102.488 Y-24.038
X-102.792 Y-23.782
X-103.093 Y-23.564
X-103.389 Y-23.383
X-103.681 Y-23.235
X-103.968 Y-23.119
X-104.248 Y-23.032
X-104.525 Y-22.974
X-104.808 Y-22.941
X-104.99 Y-22.935
X-105.272 Y-22.948
X-105.546 Y-22.987
X-105.823 Y-23.052
X-106.105 Y-23.145
X-106.391 Y-23.268
X-106.682 Y-23.423
X-106.978 Y-23.613
X-107.24 Y-23.809
G0 Z5
X-101.156 Y-57.412
G1 Z2.5 F333.3
S5000
X-100 Z2.46
G3 X-100 Y-56.588 Z2.414 I0 J0.412
G1 X-115 Z1.891
G3 X-115 Y-57.412 Z1.845 I0 J-0.412
G1 X-100 Z1.322
G3 X-100 Y-56.588 Z1.276 I0 J0.412
G1 X-115 Z0.752
G3 X-115 Y-57.412 Z0.707 I0 J-0.412
G1 X-100 Z0.183
G3 X-100 Y-56.588 Z0.138 I0 J0.412
G1 X-115 Z-0.386
G3 X-115 Y-57.412 Z-0.431 I0 J-0.412
G1 X-100 Z-0.955
G3 X-100 Y-56.588 Z-1 I0 J0.412
S6000
G1 X-115 F1000
G3 X-115 Y-57.412 I0 J-0.412
G1 X-100
G3 X-100 Y-56.588 I0 J0.412
S5000
G1 X-115 Z-1.524 F333.3
G3 X-115 Y-57.412 Z-1.569 I0 J-0.412
G1 X-102.66 Z-2
S6000
X-100 F1000
G3 X-100 Y-56.588 I0 J0.412
G1 X-115
G3 X-115 Y-57.412 I0 J-0.412
G1 X-102.66
S5000
X-100 Z-2.093 F333.3
G3 X-100 Y-56.588 Z-2.138 I0 J0.412
G1 X-110.363 Z-2.5
S6000
X-115 F1000
G3 X-115 Y-57.412 I0 J-0.412
G1 X-102.66
X-100
G3 X-100 Y-56.588 I0 J0.412
G1 X-110.363
G0 Z5
X-97.412 Y-91.957
G1 Z2.5 F333.3
S5000
Y-97 Z2.324
G3 X-96.588 Y-97 Z2.279 I0.412 J0
G1 Y-67 Z1.231
G3 X-97.412 Y-67 Z1.186 I-0.412 J0
G1 Y-97 Z0.138
G3 X-96.588 Y-97 Z0.093 I0.412 J0
G1 Y-67 Z-0.955
G3 X-97.412 Y-67 Z-1 I-0.412 J0
S6000
G1 Y-97 F1000
G3 X-96.588 Y-97 I0.412 J0
G1 Y-67
G3 X-97.412 Y-67 I-0.412 J0
S5000
G1 Y-95.636 Z-2 F333.3
S6000
Y-97 F1000
G3 X-96.588 Y-97 I0.412 J0
G1 Y-67
G3 X-97.412 Y-67 I-0.412 J0
G1 Y-95.636
S5000
Y-97 Z-2.048 F333.3
G3 X-96.588 Y-97 Z-2.093 I0.412 J0
G1 Y-85.342 Z-2.5
S6000
Y-67 F1000
G3 X-97.412 Y-67 I-0.412 J0
G1 Y-95.636
Y-97
G3 X-96.588 Y-97 I0.412 J0
G1 Y-85.342
G0 Z5
X-60.776 Y-114.488
G1 Z2.5 F333.3
S5000
X-60.882 Y-114.431 Z2.496
X-61.399 Y-114.189 Z2.476
X-61.924 Y-113.981 Z2.456
X-62.453 Y-113.807 Z2.437
X-62.988 Y-113.666 Z2.417
X-63.526 Y-113.558 Z2.398
X-64.065 Y-113.484 Z2.379
X-64.614 Y-113.443 Z2.36
X-64.994 Y-113.434 Z2.347
X-65.541 Y-113.451 Z2.328
X-66.081 Y-113.501 Z2.309
X-66.621 Y-113.585 Z2.29
X-67.157 Y-113.7 Z2.27
X-67.688 Y-113.85 Z2.251
X-68.216 Y-114.033 Z2.232
X-68.738 Y-114.25 Z2.212
X-69.253 Y-114.5 Z2.192
X-69.759 Y-114.783 Z2.172
X-70.256 Y-115.1 Z2.151
X-70.743 Y-115.45 Z2.13
X-71.217 Y-115.832 Z2.109
X-71.677 Y-116.249 Z2.087
X-72.123 Y-116.697 Z2.065
X-72.551 Y-117.176 Z2.043
X-72.962 Y-117.687 Z2.02
X-73.352 Y-118.227 Z1.997
X-73.72 Y-118.796 Z1.973
X-74.065 Y-119.393 Z1.949
X-74.386 Y-120.018 Z1.924
X-74.679 Y-120.665 Z1.899
X-74.945 Y-121.336 Z1.874
X-75.181 Y-122.028 Z1.849
X-75.386 Y-122.739 Z1.823
X-75.558 Y-123.465 Z1.797
X-75.698 Y-124.206 Z1.77
X-75.803 Y-124.957 Z1.744
X-75.873 Y-125.716 Z1.717
X-75.908 Y-126.48 Z1.691
X-75.907 Y-127.246 Z1.664
X-75.871 Y-128.011 Z1.637
X-75.799 Y-128.771 Z1.611
X-75.692 Y-129.523 Z1.584
X-75.55 Y-130.265 Z1.558
X-75.375 Y-130.993 Z1.531
X-75.168 Y-131.706 Z1.506
X-74.929 Y-132.399 Z1.48
X-74.66 Y-133.072 Z1.455
X-74.364 Y-133.721 Z1.43
X-74.04 Y-134.345 Z1.405
X-73.691 Y-134.944 Z1.381
X-73.319 Y-135.514 Z1.357
X-72.925 Y-136.053 Z1.334
X-72.511 Y-136.564 Z1.311
X-72.079 Y-137.042 Z1.288
X-71.629 Y-137.489 Z1.266
X-71.165 Y-137.903 Z1.245
X-70.688 Y-138.284 Z1.223
X-70.199 Y-138.631 Z1.202
X-69.698 Y-138.945 Z1.182
X-69.189 Y-139.226 Z1.161
X-68.671 Y-139.472 Z1.141
X-68.148 Y-139.685 Z1.122
X-67.619 Y-139.864 Z1.102
X-67.085 Y-140.01 Z1.083
X-66.549 Y-140.122 Z1.064
X-66.009 Y-140.2 Z1.045
X-65.467 Y-140.246 Z1.026
X-64.926 Y-140.258 Z1.007
X-64.385 Y-140.237 Z0.988
X-63.844 Y-140.182 Z0.969
X-63.306 Y-140.095 Z0.95
X-62.771 Y-139.974 Z0.931
X-62.24 Y-139.82 Z0.911
X-61.712 Y-139.631 Z0.892
X-61.191 Y-139.411 Z0.872
X-60.678 Y-139.156 Z0.852
X-60.172 Y-138.868 Z0.832
X-59.677 Y-138.547 Z0.811
X-59.192 Y-138.193 Z0.79
X-58.72 Y-137.805 Z0.769
X-58.261 Y-137.385 Z0.747
X-57.817 Y-136.932 Z0.725
X-57.391 Y-136.448 Z0.702
X-56.984 Y-135.934 Z0.679
X-56.597 Y-135.39 Z0.656
X-56.231 Y-134.816 Z0.632
X-55.889 Y-134.215 Z0.608
X-55.573 Y-133.588 Z0.584
X-55.283 Y-132.937 Z0.559
X-55.021 Y-132.263 Z0.534
X-54.79 Y-131.569 Z0.508
X-54.589 Y-130.855 Z0.482
X-54.421 Y-130.127 Z0.456
X-54.286 Y-129.384 Z0.43
X-54.185 Y-128.632 Z0.403
X-54.12 Y-127.872 Z0.377
X-54.09 Y-127.108 Z0.35
X-54.096 Y-126.342 Z0.323
X-54.137 Y-125.578 Z0.296
X-54.214 Y-124.819 Z0.27
X-54.326 Y-124.068 Z0.243
X-54.472 Y-123.327 Z0.217
X-54.651 Y-122.602 Z0.191
X-54.863 Y-121.891 Z0.165
X-55.106 Y-121.201 Z0.139
X-55.378 Y-120.531 Z0.114
X-55.679 Y-119.885 Z0.089
X-56.006 Y-119.264 Z0.065
X-56.358 Y-118.67 Z0.041
X-56.733 Y-118.103 Z0.017
X-57.13 Y-117.568 Z-0.006
X-57.547 Y-117.062 Z-0.029
X-57.982 Y-116.587 Z-0.052
X-58.433 Y-116.145 Z-0.074
X-58.899 Y-115.735 Z-0.096
X-59.378 Y-115.359 Z-0.117
X-59.869 Y-115.017 Z-0.138
X-60.371 Y-114.707 Z-0.158
X-60.882 Y-114.431 Z-0.179
X-61.399 Y-114.189 Z-0.199
X-61.924 Y-113.981 Z-0.218
X-62.453 Y-113.807 Z-0.238
X-62.988 Y-113.666 Z-0.257
X-63.526 Y-113.558 Z-0.276
X-64.065 Y-113.484 Z-0.295
X-64.614 Y-113.443 Z-0.314
X-64.994 Y-113.434 Z-0.328
X-65.541 Y-113.451 Z-0.347
X-66.081 Y-113.501 Z-0.366
X-66.621 Y-113.585 Z-0.385
X-67.157 Y-113.7 Z-0.404
X-67.688 Y-113.85 Z-0.423
X-68.216 Y-114.033 Z-0.443
X-68.738 Y-114.25 Z-0.463
X-69.253 Y-114.5 Z-0.483
X-69.759 Y-114.783 Z-0.503
X-70.256 Y-115.1 Z-0.523
X-70.743 Y-115.45 Z-0.544
X-71.217 Y-115.832 Z-0.566
X-71.677 Y-116.249 Z-0.587
X-72.123 Y-116.697 Z-0.609
X-72.551 Y-117.176 Z-0.632
X-72.962 Y-117.687 Z-0.655
X-73.352 Y-118.227 Z-0.678
X-73.72 Y-118.796 Z-0.702
X-74.065 Y-119.393 Z-0.726
X-74.386 Y-120.018 Z-0.75
X-74.679 Y-120.665 Z-0.775
X-74.945 Y-121.336 Z-0.8
X-75.181 Y-122.028 Z-0.826
X-75.386 Y-122.739 Z-0.852
X-75.558 Y-123.465 Z-0.878
X-75.698 Y-124.206 Z-0.904
X-75.803 Y-124.957 Z-0.93
X-75.873 Y-125.716 Z-0.957
X-75.908 Y-126.48 Z-0.984
X-75.907 Y-126.946 Z-1
S6000
Y-127.246 F1000
X-75.871 Y-128.011
X-75.799 Y-128.771
X-75.692 Y-129.523
X-75.55 Y-130.265
X-75.375 Y-130.993
X-75.168 Y-131.706
X-74.929 Y-132.399
X-74.66 Y-133.072
X-74.364 Y-133.721
X-74.04 Y-134.345
X-73.691 Y-134.944
X-73.319 Y-135.514
X-72.925 Y-136.053
X-72.511 Y-136.564
X-72.079 Y-137.042
X-71.629 Y-137.489
X-71.165 Y-137.903
X-70.688 Y-138.284
X-70.199 Y-138.631
X-69.698 Y-138.945
X-69.189 Y-139.226
X-68.671 Y-139.472
X-68.148 Y-139.685
X-67.619 Y-139.864
X-67.085 Y-140.01
X-66.549 Y-140.122
X-66.009 Y-140.2
X-65.467 Y-140.246
X-64.926 Y-140.258
X-64.385 Y-140.237
X-63.844 Y-140.182
X-63.306 Y-140.095
X-62.771 Y-139.974
X-62.24 Y-139.82
X-61.712 Y-139.631
X-61.191 Y-139.411
X-60.678 Y-139.156
X-60.172 Y-138.868
X-59.677 Y-138.547
X-59.192 Y-138.193
X-58.72 Y-137.805
X-58.261 Y-137.385
X-57.817 Y-136.932
X-57.391 Y-136.448
X-56.984 Y-135.934
X-56.597 Y-135.39
X-56.231 Y-134.816
X-55.889 Y-134.215
X-55.573 Y-133.588
X-55.283 Y-132.937
X-55.021 Y-132.263
X-54.79 Y-131.569
X-54.589 Y-130.855
X-54.421 Y-130.127
X-54.286 Y-129.384
X-54.185 Y-128.632
X-54.12 Y-127.872
X-54.09 Y-127.108
X-54.096 Y-126.342
X-54.137 Y-125.578
X-54.214 Y-124.819
X-54.326 Y-124.068
X-54.472 Y-123.327
X-54.651 Y-122.602
X-54.863 Y-121.891
X-55.106 Y-121.201
X-55.378 Y-120.531
X-55.679 Y-119.885
X-56.006 Y-119.264
X-56.358 Y-118.67
X-56.733 Y-118.103
X-57.13 Y-117.568
X-57.547 Y-117.062
X-57.982 Y-116.587
X-58.433 Y-116.145
X-58.899 Y-115.735
X-59.378 Y-115.359
X-59.869 Y-115.017
X-60.371 Y-114.707
X-60.882 Y-114.431
X-61.399 Y-114.189
X-61.924 Y-113.981
X-62.453 Y-113.807
X-62.988 Y-113.666
X-63.526 Y-113.558
X-64.065 Y-113.484
X-64.614 Y-113.443
X-64.994 Y-113.434
X-65.541 Y-113.451
X-66.081 Y-113.501
X-66.621 Y-113.585
X-67.157 Y-113.7
X-67.688 Y-113.85
X-68.216 Y-114.033
X-68.738 Y-114.25
X-69.253 Y-114.5
X-69.759 Y-114.783
X-70.256 Y-115.1
X-70.743 Y-115.45
X-71.217 Y-115.832
X-71.677 Y-116.249
X-72.123 Y-116.697
X-72.551 Y-117.176
X-72.962 Y-117.687
X-73.352 Y-118.227
X-73.72 Y-118.796
X-74.065 Y-119.393
X-74.386 Y-120.018
X-74.679 Y-120.665
X-74.945 Y-121.336
X-75.181 Y-122.028
X-75.386 Y-122.739
X-75.558 Y-123.465
X-75.698 Y-124.206
X-75.803 Y-124.957
X-75.873 Y-125.716
X-75.908 Y-126.48
X-75.907 Y-126.946
S5000
Y-127.246 Z-1.011 F333.3
X-75.871 Y-128.011 Z-1.037
X-75.799 Y-128.771 Z-1.064
X-75.692 Y-129.523 Z-1.09
X-75.55 Y-130.265 Z-1.117
X-75.375 Y-130.993 Z-1.143
X-75.168 Y-131.706 Z-1.169
X-74.929 Y-132.399 Z-1.194
X-74.66 Y-133.072 Z-1.22
X-74.364 Y-133.721 Z-1.245
X-74.04 Y-134.345 Z-1.269
X-73.691 Y-134.944 Z-1.293
X-73.319 Y-135.514 Z-1.317
X-72.925 Y-136.053 Z-1.341
X-72.511 Y-136.564 Z-1.364
X-72.079 Y-137.042 Z-1.386
X-71.629 Y-137.489 Z-1.408
X-71.165 Y-137.903 Z-1.43
X-70.688 Y-138.284 Z-1.451
X-70.199 Y-138.631 Z-1.472
X-69.698 Y-138.945 Z-1.493
X-69.189 Y-139.226 Z-1.513
X-68.671 Y-139.472 Z-1.533
X-68.148 Y-139.685 Z-1.553
X-67.619 Y-139.864 Z-1.572
X-67.085 Y-140.01 Z-1.592
X-66.549 Y-140.122 Z-1.611
X-66.009 Y-140.2 Z-1.63
X-65.467 Y-140.246 Z-1.649
X-64.926 Y-140.258 Z-1.668
X-64.385 Y-140.237 Z-1.687
X-63.844 Y-140.182 Z-1.706
X-63.306 Y-140.095 Z-1.725
X-62.771 Y-139.974 Z-1.744
X-62.24 Y-139.82 Z-1.763
X-61.712 Y-139.631 Z-1.783
X-61.191 Y-139.411 Z-1.802
X-60.678 Y-139.156 Z-1.822
X-60.172 Y-138.868 Z-1.843
X-59.677 Y-138.547 Z-1.863
X-59.192 Y-138.193 Z-1.884
X-58.72 Y-137.805 Z-1.906
X-58.261 Y-137.385 Z-1.927
X-57.817 Y-136.932 Z-1.95
X-57.391 Y-136.448 Z-1.972
X-56.984 Y-135.934 Z-1.995
X-56.9 Y-135.817 Z-2
S6000
X-56.597 Y-135.39 F1000
X-56.231 Y-134.816
X-55.889 Y-134.215
X-55.573 Y-133.588
X-55.283 Y-132.937
X-55.021 Y-132.263
X-54.79 Y-131.569
X-54.589 Y-130.855
X-54.421 Y-130.127
X-54.286 Y-129.384
X-54.185 Y-128.632
X-54.12 Y-127.872
X-54.09 Y-127.108
X-54.096 Y-126.342
X-54.137 Y-125.578
X-54.214 Y-124.819
X-54.326 Y-124.068
X-54.472 Y-123.327
X-54.651 Y-122.602
X-54.863 Y-121.891
X-55.106 Y-121.201
X-55.378 Y-120.531
X-55.679 Y-119.885
X-56.006 Y-119.264
X-56.358 Y-118.67
X-56.733 Y-118.103
X-57.13 Y-117.568
X-57.547 Y-117.062
X-57.982 Y-116.587
X-58.433 Y-116.145
X-58.899 Y-115.735
X-59.378 Y-115.359
X-59.869 Y-115.017
X-60.371 Y-114.707
X-60.882 Y-114.431
X-61.399 Y-114.189
X-61.924 Y-113.981
X-62.453 Y-113.807
X-62.988 Y-113.666
X-63.526 Y-113.558
X-64.065 Y-113.484
X-64.614 Y-113.443
X-64.994 Y-113.434
X-65.541 Y-113.451
X-66.081 Y-113.501
X-66.621 Y-113.585
X-67.157 Y-113.7
X-67.688 Y-113.85
X-68.216 Y-114.033
X-68.738 Y-114.25
X-69.253 Y-114.5
X-69.759 Y-114.783
X-70.256 Y-115.1
X-70.743 Y-115.45
X-71.217 Y-115.832
X-71.677 Y-116.249
X-72.123 Y-116.697
X-72.551 Y-117.176
X-72.962 Y-117.687
X-73.352 Y-118.227
X-73.72 Y-118.796
X-74.065 Y-119.393
X-74.386 Y-120.018
X-74.679 Y-120.665
X-74.945 Y-121.336
X-75.181 Y-122.028
X-75.386 Y-122.739
X-75.558 Y-123.465
X-75.698 Y-124.206
X-75.803 Y-124.957
X-75.873 Y-125.716
X-75.908 Y-126.48
X-75.907 Y-126.946
Y-127.246
X-75.871 Y-128.011
X-75.799 Y-128.771
X-75.692 Y-129.523
X-75.55 Y-130.265
X-75.375 Y-130.993
X-75.168 Y-131.706
X-74.929 Y-132.399
X-74.66 Y-133.072
X-74.364 Y-133.721
X-74.04 Y-134.345
X-73.691 Y-134.944
X-73.319 Y-135.514
X-72.925 Y-136.053
X-72.511 Y-136.564
X-72.079 Y-137.042
X-71.629 Y-137.489
X-71.165 Y-137.903
X-70.688 Y-138.284
X-70.199 Y-138.631
X-69.698 Y-138.945
X-69.189 Y-139.226
X-68.671 Y-139.472
X-68.148 Y-139.685
X-67.619 Y-139.864
X-67.085 Y-140.01
X-66.549 Y-140.122
X-66.009 Y-140.2
X-65.467 Y-140.246
X-64.926 Y-140.258
X-64.385 Y-140.237
X-63.844 Y-140.182
X-63.306 Y-140.095
X-62.771 Y-139.974
X-62.24 Y-139.82
X-61.712 Y-139.631
X-61.191 Y-139.411
X-60.678 Y-139.156
X-60.172 Y-138.868
X-59.677 Y-138.547
X-59.192 Y-138.193
X-58.72 Y-137.805
X-58.261 Y-137.385
X-57.817 Y-136.932
X-57.391 Y-136.448
X-56.984 Y-135.934
X-56.9 Y-135.817
S5000
X-56.597 Y-135.39 Z-2.018 F333.3
X-56.231 Y-134.816 Z-2.042
X-55.889 Y-134.215 Z-2.066
X-55.573 Y-133.588 Z-2.091
X-55.283 Y-132.937 Z-2.116
X-55.021 Y-132.263 Z-2.141
X-54.79 Y-131.569 Z-2.166
X-54.589 Y-130.855 Z-2.192
X-54.421 Y-130.127 Z-2.218
X-54.286 Y-129.384 Z-2.245
X-54.185 Y-128.632 Z-2.271
X-54.12 Y-127.872 Z-2.298
X-54.09 Y-127.108 Z-2.325
X-54.096 Y-126.342 Z-2.351
X-54.137 Y-125.578 Z-2.378
X-54.214 Y-124.819 Z-2.405
X-54.326 Y-124.068 Z-2.431
X-54.472 Y-123.327 Z-2.458
X-54.651 Y-122.602 Z-2.484
X-54.785 Y-122.154 Z-2.5
S6000
X-54.863 Y-121.891 F1000
X-55.106 Y-121.201
X-55.378 Y-120.531
X-55.679 Y-119.885
X-56.006 Y-119.264
X-56.358 Y-118.67
X-56.733 Y-118.103
X-57.13 Y-117.568
X-57.547 Y-117.062
X-57.982 Y-116.587
X-58.433 Y-116.145
X-58.899 Y-115.735
X-59.378 Y-115.359
X-59.869 Y-115.017
X-60.371 Y-114.707
X-60.882 Y-114.431
X-61.399 Y-114.189
X-61.924 Y-113.981
X-62.453 Y-113.807
X-62.988 Y-113.666
X-63.526 Y-113.558
X-64.065 Y-113.484
X-64.614 Y-113.443
X-64.994 Y-113.434
X-65.541 Y-113.451
X-66.081 Y-113.501
X-66.621 Y-113.585
X-67.157 Y-113.7
X-67.688 Y-113.85
X-68.216 Y-114.033
X-68.738 Y-114.25
X-69.253 Y-114.5
X-69.759 Y-114.783
X-70.256 Y-115.1
X-70.743 Y-115.45
X-71.217 Y-115.832
X-71.677 Y-116.249
X-72.123 Y-116.697
X-72.551 Y-117.176
X-72.962 Y-117.687
X-73.352 Y-118.227
X-73.72 Y-118.796
X-74.065 Y-119.393
X-74.386 Y-120.018
X-74.679 Y-120.665
X-74.945 Y-121.336
X-75.181 Y-122.028
X-75.386 Y-122.739
X-75.558 Y-123.465
X-75.698 Y-124.206
X-75.803 Y-124.957
X-75.873 Y-125.716
X-75.908 Y-126.48
X-75.907 Y-127.246
X-75.871 Y-128.011
X-75.799 Y-128.771
X-75.692 Y-129.523
X-75.55 Y-130.265
X-75.375 Y-130.993
X-75.168 Y-131.706
X-74.929 Y-132.399
X-74.66 Y-133.072
X-74.364 Y-133.721
X-74.04 Y-134.345
X-73.691 Y-134.944
X-73.319 Y-135.514
X-72.925 Y-136.053
X-72.511 Y-136.564
X-72.079 Y-137.042
X-71.629 Y-137.489
X-71.165 Y-137.903
X-70.688 Y-138.284
X-70.199 Y-138.631
X-69.698 Y-138.945
X-69.189 Y-139.226
X-68.671 Y-139.472
X-68.148 Y-139.685
X-67.619 Y-139.864
X-67.085 Y-140.01
X-66.549 Y-140.122
X-66.009 Y-140.2
X-65.467 Y-140.246
X-64.926 Y-140.258
X-64.385 Y-140.237
X-63.844 Y-140.182
X-63.306 Y-140.095
X-62.771 Y-139.974
X-62.24 Y-139.82
X-61.712 Y-139.631
X-61.191 Y-139.411
X-60.678 Y-139.156
X-60.172 Y-138.868
X-59.677 Y-138.547
X-59.192 Y-138.193
X-58.72 Y-137.805
X-58.261 Y-137.385
X-57.817 Y-136.932
X-57.391 Y-136.448
X-56.984 Y-135.934
X-56.597 Y-135.39
X-56.231 Y-134.816
X-55.889 Y-134.215
X-55.573 Y-133.588
X-55.283 Y-132.937
X-55.021 Y-132.263
X-54.79 Y-131.569
X-54.589 Y-130.855
X-54.421 Y-130.127
X-54.286 Y-129.384
X-54.185 Y-128.632
X-54.12 Y-127.872
X-54.09 Y-127.108
X-54.096 Y-126.342
X-54.137 Y-125.578
X-54.214 Y-124.819
X-54.326 Y-124.068
X-54.472 Y-123.327
X-54.651 Y-122.602
X-54.785 Y-122.154
G0 Z15

(2D-Kontur16)
X-49.669 Y-3.412
Z15
Z5
G1 Z2.5 F333.3
S5000
X-8 Z1.045
G2 X-3.412 Y-8 Z0.793 I0 J-4.588
G1 Y-59 Z-0.988
G2 X-3.426 Y-59.351 Z-1 I-4.588 J0
S6000
X-8 Y-63.588 I-4.574 J0.351 F1000
G1 X-25
G3 X-26.413 Y-65 I0 J-1.412
G1 Y-100
G2 X-31 Y-104.588 I-4.587 J0
G1 X-32
G3 X-33.412 Y-106 I0 J-1.412
G1 Y-145
G2 X-45 Y-156.587 I-11.588 J0
G1 X-85
G2 X-96.588 Y-145 I0 J11.587
G1 Y-106
G3 X-98 Y-104.588 I-1.412 J0
G1 X-99
G2 X-103.588 Y-100 I0 J4.588
G1 Y-65
G3 X-105 Y-63.588 I-1.412 J0
G1 X-122
G2 X-126.588 Y-59 I0 J4.588
G1 Y-8
G2 X-122 Y-3.412 I4.588 J0
G1 X-8
G2 X-3.412 Y-8 I0 J-4.588
G1 Y-59
G2 X-3.426 Y-59.351 I-4.588 J0
S5000
X-8 Y-63.588 Z-1.208 I-4.574 J0.351 F333.3
G1 X-25 Z-1.722
G3 X-26.413 Y-65 Z-1.789 I0 J-1.412
G1 Y-71.959 Z-2
S6000
Y-100 F1000
G2 X-31 Y-104.588 I-4.587 J0
G1 X-32
G3 X-33.412 Y-106 I0 J-1.412
G1 Y-122.38
Z-1.3
Y-131.555
Z-2 F333.3
Y-145 F1000
G2 X-45 Y-156.587 I-11.588 J0
G1 X-85
G2 X-96.588 Y-145 I0 J11.587
G1 Y-135.13
Z-1.3
Y-125.955
Z-2 F333.3
Y-106 F1000
G3 X-98 Y-104.588 I-1.412 J0
G1 X-99
G2 X-103.588 Y-100 I0 J4.588
G1 Y-65
G3 X-105 Y-63.588 I-1.412 J0
G1 X-122
G2 X-126.588 Y-59 I0 J4.588
G1 Y-37.725
Z-1.3
Y-28.551
Z-2 F333.3
Y-8 F1000
G2 X-122 Y-3.412 I4.588 J0
G1 X-8
G2 X-3.412 Y-8 I0 J-4.588
G1 Y-26.814
Z-1.3
Y-35.989
Z-2 F333.3
Y-59 F1000
G2 X-8 Y-63.588 I-4.588 J0
G1 X-25
G3 X-26.413 Y-65 I0 J-1.412
G1 Y-71.959
S5000
Y-81.869 Z-2.3 F333.3
S6000
Y-100 F1000
G2 X-31 Y-104.588 I-4.587 J0
G1 X-32
G3 X-33.412 Y-106 I0 J-1.412
G1 Y-122.38
Z-1.3
Y-131.555
Z-2.3 F333.3
Y-145 F1000
G2 X-45 Y-156.587 I-11.588 J0
G1 X-85
G2 X-96.588 Y-145 I0 J11.587
G1 Y-135.13
Z-1.3
Y-125.955
Z-2.3 F333.3
Y-106 F1000
G3 X-98 Y-104.588 I-1.412 J0
G1 X-99
G2 X-103.588 Y-100 I0 J4.588
G1 Y-65
G3 X-105 Y-63.588 I-1.412 J0
G1 X-122
G2 X-126.588 Y-59 I0 J4.588
G1 Y-37.725
Z-1.3
Y-28.551
Z-2.3 F333.3
Y-8 F1000
G2 X-122 Y-3.412 I4.588 J0
G1 X-8
G2 X-3.412 Y-8 I0 J-4.588
G1 Y-26.814
Z-1.3
Y-35.989
Z-2.3 F333.3
Y-59 F1000
G2 X-8 Y-63.588 I-4.588 J0
G1 X-25
G3 X-26.413 Y-65 I0 J-1.412
G1 Y-81.869
G0 Z15
M5
M30
