(1001)
(Bearbeiten)
(  Hersteller: ChinaCnc)
(  model: 3040T)
(  description: Generic 3-axis)
(T14  D=3.175 CR=0 - ZMIN=-3.2 - Schaftfraser)
G90 G94
G17
G21
G28 G91 Z0
G90

(Planen1)
T14
S6000 M3
G54
G0 X8.854 Y-10.255
Z15
Z5
G1 Z-0.183 F1016
G18 G3 X8.536 Z-0.5 I-0.318 K0
G1 X7.702
X-7.702 F1500
X-10.065
G17 G2 X-10.065 Y-7.353 I0 J1.451
G1 X10.065
X11.237
G3 X11.237 Y-4.45 I0 J1.451
G1 X-11.237
X-11.6
G2 X-11.6 Y-1.548 I0 J1.451
G1 X11.6
G3 X11.6 Y1.355 I0 J1.451
G1 X-11.6
G2 X-11.6 Y4.257 I0 J1.451
G1 X-11.288
X11.288
G3 X11.288 Y7.159 I0 J1.451
G1 X10.169
X-10.169
G2 X-10.169 Y10.062 I0 J1.451
G1 X-7.919
X7.919
G18 G2 X8.237 Z-0.183 I0 K0.317 F1016
G0 Z15
G17

(2D-Kontur1)
G0 X-11.884 Y-5.717
Z15
Z5
G1 Z2.5 F300
S8000
G2 X11.884 Y5.717 Z1.053 I11.884 J5.717 F1016
X-11.884 Y-5.717 Z-0.394 I-11.884 J-5.717
X-13.188 Y0 Z-0.6 I11.884 J5.717
S6000
X13.188 Y0 I13.188 J0 F1500
X-13.188 Y0 I-13.188 J0
S8000
X-3.491 Y12.717 Z-1.2 I13.187 J0 F1016
S6000
X3.491 Y-12.717 I3.491 J-12.717 F1500
X-3.491 Y12.717 I-3.491 J12.717
S8000
X11.339 Y6.733 Z-1.8 I3.491 J-12.717 F1016
S6000
X-11.339 Y-6.733 I-11.339 J-6.733 F1500
X11.339 Y6.733 I11.339 J6.733
S8000
X9.494 Y-9.152 Z-2.4 I-11.339 J-6.733 F1016
S6000
X-9.494 Y9.152 I-9.494 J9.152 F1500
X9.494 Y-9.152 I9.494 J-9.152
S8000
X-6.312 Y-11.579 Z-3 I-9.494 J9.152 F1016
S6000
X6.312 Y11.579 I6.312 J11.579 F1500
X-6.312 Y-11.579 I-6.312 J-11.579
S8000
X-10.598 Y-7.848 Z-3.2 I6.312 J11.579 F1016
S6000
X10.598 Y7.848 I10.598 J7.848 F1500
X-10.598 Y-7.848 I-10.598 J-7.848
G0 Z15
G28 G91 Z0
G90
G28 G91 X0 Y0
G90
M5
M30
