(1001)
(Bearbeiten)
(  Hersteller: ChinaCnc)
(  model: 3040T)
(  description: Generic 3-axis)
(T14  D=1.5 CR=0 - ZMIN=-1.7 - Schaftfraser)
G90 G94
G17
G21
G28 G91 Z0
G90

(Bohrfrasen2)
T14
S6000 M3
G54
G0 X-37.593 Y-15.766
Z15
Z2
G1 Z0.15 F400
Y-15.759 Z0.104
Y-15.738 Z0.062
Y-15.704 Z0.029
Y-15.663 Z0.007
Y-15.616 Z0
Y-15.541
X-37.6 Y-15.495
X-37.621 Y-15.453
X-37.655 Y-15.42
X-37.696 Y-15.399
X-37.743 Y-15.391
G3 X-37.743 Y-17.091 Z-0.5 I0 J-0.85 F600
X-37.743 Y-15.391 Z-1 I0 J0.85
X-37.743 Y-17.091 Z-1.5 I0 J-0.85
X-36.934 Y-16.504 Z-1.7 I0 J0.85
X-38.551 Y-15.979 I-0.808 J0.263
X-36.934 Y-16.504 I0.808 J-0.263
G1 X-36.927 Y-16.458
X-36.934 Y-16.411
X-36.956 Y-16.369
X-36.989 Y-16.336
X-37.031 Y-16.315
X-37.102 Y-16.292
X-37.146 Y-16.277 Z-1.693
X-37.186 Y-16.265 Z-1.671
X-37.217 Y-16.254 Z-1.638
X-37.238 Y-16.248 Z-1.596
X-37.245 Y-16.245 Z-1.55
G0 Z5
X-16.026 Y-37.333
Z2
G1 Z0.15 F400
Y-37.326 Z0.104
Y-37.304 Z0.062
Y-37.271 Z0.029
Y-37.229 Z0.007
Y-37.183 Z0
Y-37.108
X-16.033 Y-37.062
X-16.055 Y-37.02
X-16.088 Y-36.987
X-16.13 Y-36.965
X-16.176 Y-36.958
G3 X-16.176 Y-38.658 Z-0.5 I0 J-0.85 F600
X-16.176 Y-36.958 Z-1 I0 J0.85
X-16.176 Y-38.658 Z-1.5 I0 J-0.85
X-15.368 Y-38.071 Z-1.7 I0 J0.85
X-16.984 Y-37.545 I-0.808 J0.263
X-15.368 Y-38.071 I0.808 J-0.263
G1 X-15.36 Y-38.024
X-15.368 Y-37.978
X-15.389 Y-37.936
X-15.422 Y-37.903
X-15.464 Y-37.882
X-15.535 Y-37.859
X-15.579 Y-37.844 Z-1.693
X-15.619 Y-37.831 Z-1.671
X-15.651 Y-37.821 Z-1.638
X-15.671 Y-37.814 Z-1.596
X-15.678 Y-37.812 Z-1.55
G0 Z5
X-37.593 Y-58.9
Z2
G1 Z0.15 F400
Y-58.892 Z0.104
Y-58.871 Z0.062
Y-58.838 Z0.029
Y-58.796 Z0.007
Y-58.75 Z0
Y-58.675
X-37.6 Y-58.628
X-37.621 Y-58.587
X-37.655 Y-58.553
X-37.696 Y-58.532
X-37.743 Y-58.525
G3 X-37.743 Y-60.225 Z-0.5 I0 J-0.85 F600
X-37.743 Y-58.525 Z-1 I0 J0.85
X-37.743 Y-60.225 Z-1.5 I0 J-0.85
X-36.934 Y-59.637 Z-1.7 I0 J0.85
X-38.551 Y-59.112 I-0.808 J0.263
X-36.934 Y-59.637 I0.808 J-0.263
G1 X-36.927 Y-59.591
X-36.934 Y-59.545
X-36.956 Y-59.503
X-36.989 Y-59.47
X-37.031 Y-59.448
X-37.102 Y-59.425
X-37.146 Y-59.411 Z-1.693
X-37.186 Y-59.398 Z-1.671
X-37.217 Y-59.388 Z-1.638
X-37.238 Y-59.381 Z-1.596
X-37.245 Y-59.379 Z-1.55
G0 Z5
X-59.159 Y-37.333
Z2
G1 Z0.15 F400
Y-37.326 Z0.104
Y-37.304 Z0.062
Y-37.271 Z0.029
Y-37.229 Z0.007
Y-37.183 Z0
Y-37.108
X-59.167 Y-37.062
X-59.188 Y-37.02
X-59.221 Y-36.987
X-59.263 Y-36.965
X-59.309 Y-36.958
G3 X-59.309 Y-38.658 Z-0.5 I0 J-0.85 F600
X-59.309 Y-36.958 Z-1 I0 J0.85
X-59.309 Y-38.658 Z-1.5 I0 J-0.85
X-58.501 Y-38.071 Z-1.7 I0 J0.85
X-60.118 Y-37.545 I-0.808 J0.263
X-58.501 Y-38.071 I0.808 J-0.263
G1 X-58.494 Y-38.024
X-58.501 Y-37.978
X-58.522 Y-37.936
X-58.556 Y-37.903
X-58.597 Y-37.882
X-58.669 Y-37.859
X-58.713 Y-37.844 Z-1.693
X-58.753 Y-37.831 Z-1.671
X-58.784 Y-37.821 Z-1.638
X-58.804 Y-37.814 Z-1.596
X-58.811 Y-37.812 Z-1.55
G0 Z15

(2D-Kontur6)
X-72.858 Y-29.567
Z15
Z5
G1 Z2.65 F300
X-72.854 Y-29.573 Z2.604 F400
X-72.842 Y-29.591 Z2.562
X-72.825 Y-29.62 Z2.529
X-72.802 Y-29.655 Z2.507
X-72.778 Y-29.694 Z2.5
X-72.698 Y-29.821
X-72.667 Y-29.856
X-72.627 Y-29.88
X-72.581 Y-29.891
X-72.534 Y-29.887
X-72.491 Y-29.868
X-72.256 Y-29.72 Z2.49 F1016
X-71.382 Y-29.133 Z2.454
X-70.472 Y-28.489 Z2.415
X-69.53 Y-27.79 Z2.374
X-68.56 Y-27.04 Z2.331
X-67.564 Y-26.243 Z2.286
X-66.546 Y-25.401 Z2.24
X-65.509 Y-24.519 Z2.193
X-64.456 Y-23.601 Z2.144
X-63.392 Y-22.649 Z2.094
X-62.32 Y-21.669 Z2.043
X-61.243 Y-20.663 Z1.992
X-60.164 Y-19.636 Z1.94
X-59.089 Y-18.59 Z1.887
X-58.019 Y-17.531 Z1.835
X-56.96 Y-16.462 Z1.782
X-55.915 Y-15.387 Z1.73
X-54.888 Y-14.308 Z1.678
X-53.882 Y-13.231 Z1.626
X-52.901 Y-12.159 Z1.576
X-51.95 Y-11.094 Z1.526
X-51.031 Y-10.042 Z1.477
X-50.15 Y-9.005 Z1.43
X-49.308 Y-7.987 Z1.383
X-48.511 Y-6.991 Z1.339
X-47.761 Y-6.021 Z1.296
X-47.062 Y-5.079 Z1.255
X-46.417 Y-4.169 Z1.216
X-45.83 Y-3.295 Z1.179
X-45.304 Y-2.458 Z1.145
X-44.834 Y-1.65 Z1.112
X-44.83 Y-1.645
X-44.773 Y-1.548 Z1.108
X-44.75 Y-1.512 Z1.107
X-44.688 Y-1.419 Z1.103
X-44.663 Y-1.384 Z1.101
X-44.595 Y-1.295 Z1.097
X-44.569 Y-1.262 Z1.096
X-44.496 Y-1.176 Z1.092
X-44.468 Y-1.145 Z1.09
X-44.39 Y-1.064 Z1.086
X-44.36 Y-1.034 Z1.085
X-44.278 Y-0.957 Z1.081
X-44.247 Y-0.929 Z1.08
X-44.161 Y-0.857 Z1.076
X-44.127 Y-0.83 Z1.074
X-44.037 Y-0.763 Z1.07
X-44.003 Y-0.739 Z1.069
X-43.909 Y-0.677 Z1.065
X-43.874 Y-0.655 Z1.063
X-43.777 Y-0.598 Z1.059
X-43.739 Y-0.578 Z1.058
X-43.639 Y-0.527 Z1.054
X-43.601 Y-0.508 Z1.053
X-43.498 Y-0.463 Z1.049
X-43.459 Y-0.447 Z1.047
X-43.354 Y-0.407 Z1.043
X-43.314 Y-0.394 Z1.042
X-43.207 Y-0.36 Z1.038
X-43.167 Y-0.349 Z1.036
X-43.058 Y-0.321 Z1.032
X-43.017 Y-0.312 Z1.031
X-42.907 Y-0.29 Z1.027
X-42.865 Y-0.284 Z1.026
X-42.754 Y-0.268 Z1.022
X-42.712 Y-0.264 Z1.02
X-42.6 Y-0.255 Z1.016
X-42.558 Y-0.253 Z1.015
X-42.445 Y-0.25 Z1.011
X-42.403 Z1.009
X-42.291 Y-0.254 Z1.005
X-42.249 Y-0.257 Z1.004
X-42.137 Y-0.267 Z1
X-42.095 Y-0.272 Z0.999
X-41.984 Y-0.288 Z0.995
X-41.943 Y-0.295 Z0.993
X-41.833 Y-0.318 Z0.989
X-41.792 Y-0.327 Z0.988
X-41.683 Y-0.356 Z0.984
X-41.643 Y-0.368 Z0.982
X-41.536 Y-0.402 Z0.979
X-41.496 Y-0.417 Z0.977
X-41.391 Y-0.457 Z0.973
X-41.352 Y-0.474 Z0.972
X-41.25 Y-0.52 Z0.968
X-41.212 Y-0.539 Z0.966
X-41.113 Y-0.591 Z0.962
X-41.076 Y-0.611 Z0.961
X-40.98 Y-0.669 Z0.957
X-40.944 Y-0.691 Z0.955
X-40.851 Y-0.754 Z0.952
X-40.817 Y-0.779 Z0.95
X-40.728 Y-0.847 Z0.946
X-40.694 Y-0.873 Z0.945
X-40.609 Y-0.947 Z0.941
X-40.593 Y-0.96 Z0.94
G3 X-34.937 Y-1 Z0.724 I2.851 J3.152
G1 X-34.921 Y-0.986 Z0.723
X-34.834 Y-0.914 Z0.719
X-34.8 Y-0.888 Z0.718
X-34.71 Y-0.821 Z0.714
X-34.675 Y-0.797 Z0.712
X-34.581 Y-0.735 Z0.708
X-34.545 Y-0.713 Z0.707
X-34.448 Y-0.657 Z0.703
X-34.41 Y-0.637 Z0.702
X-34.31 Y-0.586 Z0.698
X-34.271 Y-0.568 Z0.696
X-34.168 Y-0.523 Z0.692
X-34.129 Y-0.507 Z0.691
X-34.023 Y-0.468 Z0.687
X-33.983 Y-0.454 Z0.685
X-33.875 Y-0.421 Z0.681
X-33.834 Y-0.41 Z0.68
X-33.725 Y-0.383 Z0.676
X-33.684 Y-0.374 Z0.674
X-33.573 Y-0.353 Z0.671
X-33.531 Y-0.346 Z0.669
X-33.42 Y-0.332 Z0.665
X-33.378 Y-0.328 Z0.664
X-33.265 Y-0.319 Z0.66
X-33.223 Y-0.317 Z0.658
X-33.11 Y-0.316 Z0.654
X-33.068 Z0.653
X-32.955 Y-0.321 Z0.649
X-32.913 Y-0.323 Z0.647
X-32.801 Y-0.334 Z0.643
X-32.76 Y-0.339 Z0.642
X-32.649 Y-0.356 Z0.638
X-32.607 Y-0.364 Z0.637
X-32.497 Y-0.387 Z0.633
X-32.456 Y-0.397 Z0.631
X-32.347 Y-0.427 Z0.627
X-32.306 Y-0.439 Z0.626
X-32.199 Y-0.475 Z0.622
X-32.16 Y-0.489 Z0.62
X-32.055 Y-0.531 Z0.616
X-32.016 Y-0.547 Z0.615
X-31.914 Y-0.594 Z0.611
X-31.876 Y-0.613 Z0.61
X-31.777 Y-0.666 Z0.606
X-31.741 Y-0.687 Z0.604
X-31.644 Y-0.746 Z0.6
X-31.609 Y-0.769 Z0.599
X-31.516 Y-0.832 Z0.595
X-31.482 Y-0.857 Z0.593
X-31.393 Y-0.926 Z0.589
X-31.36 Y-0.953 Z0.588
X-31.275 Y-1.027 Z0.584
X-31.244 Y-1.056 Z0.582
X-31.163 Y-1.134 Z0.579
X-31.134 Y-1.164 Z0.577
X-31.058 Y-1.247 Z0.573
X-31.03 Y-1.28 Z0.572
X-30.959 Y-1.366 Z0.568
X-30.933 Y-1.4 Z0.566
X-30.867 Y-1.49 Z0.562
X-30.843 Y-1.525 Z0.561
X-30.782 Y-1.62 Z0.557
X-30.76 Y-1.656 Z0.555
X-30.704 Y-1.754 Z0.552
X-30.701 Y-1.759 Z0.551
X-30.24 Y-2.584 Z0.518
X-29.724 Y-3.434 Z0.484
X-29.146 Y-4.321 Z0.447
X-28.512 Y-5.241 Z0.408
X-27.822 Y-6.191 Z0.367
X-27.082 Y-7.169 Z0.324
X-26.294 Y-8.171 Z0.279
X-25.461 Y-9.193 Z0.233
X-24.588 Y-10.233 Z0.186
X-23.678 Y-11.287 Z0.137
X-22.735 Y-12.352 Z0.088
X-21.762 Y-13.424 Z0.037
X-20.763 Y-14.5 Z-0.014
X-19.741 Y-15.576 Z-0.066
X-18.702 Y-16.648 Z-0.118
X-17.648 Y-17.713 Z-0.171
X-16.583 Y-18.767 Z-0.223
X-15.511 Y-19.807 Z-0.275
X-14.435 Y-20.828 Z-0.327
X-13.359 Y-21.827 Z-0.378
X-12.287 Y-22.8 Z-0.429
X-11.222 Y-23.743 Z-0.478
X-10.168 Y-24.654 Z-0.527
X-9.128 Y-25.527 Z-0.574
X-8.105 Y-26.359 Z-0.62
X-7.104 Y-27.147 Z-0.665
X-6.126 Y-27.888 Z-0.708
X-5.175 Y-28.577 Z-0.749
X-4.255 Y-29.212 Z-0.788
X-3.369 Y-29.789 Z-0.825
X-2.518 Y-30.305 Z-0.86
X-1.694 Y-30.766 Z-0.893
X-1.689 Y-30.769
X-1.591 Y-30.825 Z-0.897
X-1.554 Y-30.847 Z-0.898
X-1.46 Y-30.908 Z-0.902
X-1.425 Y-30.932 Z-0.904
X-1.334 Y-30.999 Z-0.908
X-1.301 Y-31.024 Z-0.909
X-1.214 Y-31.096 Z-0.913
X-1.182 Y-31.123 Z-0.914
X-1.099 Y-31.2 Z-0.918
X-1.068 Y-31.229 Z-0.92
X-0.989 Y-31.31 Z-0.924
X-0.961 Y-31.341 Z-0.925
X-0.887 Y-31.426 Z-0.929
X-0.86 Y-31.459 Z-0.931
X-0.791 Y-31.548 Z-0.935
X-0.766 Y-31.582 Z-0.936
X-0.703 Y-31.675 Z-0.94
X-0.68 Y-31.711 Z-0.941
X-0.621 Y-31.807 Z-0.945
X-0.6 Y-31.844 Z-0.947
X-0.547 Y-31.943 Z-0.951
X-0.528 Y-31.981 Z-0.952
X-0.481 Y-32.084 Z-0.956
X-0.464 Y-32.122 Z-0.958
X-0.423 Y-32.227 Z-0.962
X-0.408 Y-32.267 Z-0.963
X-0.373 Y-32.374 Z-0.967
X-0.361 Y-32.414 Z-0.969
X-0.332 Y-32.522 Z-0.972
X-0.322 Y-32.564 Z-0.974
X-0.298 Y-32.674 Z-0.978
X-0.291 Y-32.715 Z-0.979
X-0.274 Y-32.826 Z-0.983
X-0.269 Y-32.868 Z-0.985
X-0.258 Y-32.981 Z-0.989
X-0.255 Y-33.023 Z-0.99
X-0.251 Y-33.136 Z-0.994
X-0.25 Y-33.178 Z-0.996
X-0.252 Y-33.29 Z-0.999
X-0.253 Y-33.305 Z-1
X-0.254 Y-33.333 F600
X-0.262 Y-33.445
X-0.267 Y-33.487
X-0.281 Y-33.598
X-0.288 Y-33.64
X-0.309 Y-33.75
X-0.318 Y-33.792
X-0.345 Y-33.901
X-0.356 Y-33.942
X-0.389 Y-34.049
X-0.403 Y-34.089
X-0.442 Y-34.195
X-0.458 Y-34.234
X-0.503 Y-34.338
X-0.521 Y-34.376
X-0.572 Y-34.476
X-0.592 Y-34.513
X-0.648 Y-34.611
X-0.67 Y-34.647
X-0.732 Y-34.741
X-0.756 Y-34.775
X-0.823 Y-34.866
X-0.849 Y-34.899
X-0.921 Y-34.986
X-0.935 Y-35.002
G3 X-1.005 Y-40.532 I3.192 J-2.806
G1 X-0.992 Y-40.548
X-0.922 Y-40.637
X-0.897 Y-40.671
X-0.832 Y-40.764
X-0.808 Y-40.8
X-0.749 Y-40.896
X-0.727 Y-40.933
X-0.673 Y-41.032
X-0.654 Y-41.07
X-0.606 Y-41.172
X-0.589 Y-41.211
X-0.546 Y-41.316
X-0.531 Y-41.356
X-0.495 Y-41.464
X-0.483 Y-41.504
X-0.452 Y-41.613
X-0.442 Y-41.655
X-0.418 Y-41.765
X-0.41 Y-41.807
X-0.392 Y-41.919
X-0.387 Y-41.961
X-0.376 Y-42.074
X-0.373 Y-42.116
X-0.368 Y-42.229
X-0.367 Y-42.272
X-0.368 Y-42.385
X-0.37 Y-42.427
X-0.378 Y-42.54
X-0.382 Y-42.582
X-0.396 Y-42.695
X-0.403 Y-42.737
X-0.423 Y-42.848
X-0.432 Y-42.889
X-0.459 Y-42.999
X-0.47 Y-43.04
X-0.503 Y-43.148
X-0.517 Y-43.189
X-0.556 Y-43.295
X-0.571 Y-43.335
X-0.616 Y-43.438
X-0.634 Y-43.477
X-0.685 Y-43.578
X-0.705 Y-43.616
X-0.762 Y-43.713
X-0.784 Y-43.749
X-0.845 Y-43.844
X-0.87 Y-43.879
X-0.937 Y-43.97
X-0.963 Y-44.004
X-1.035 Y-44.091
X-1.063 Y-44.123
X-1.14 Y-44.206
X-1.17 Y-44.236
X-1.252 Y-44.315
X-1.283 Y-44.343
X-1.369 Y-44.417
X-1.402 Y-44.444
X-1.492 Y-44.512
X-1.526 Y-44.537
X-1.619 Y-44.6
X-1.656 Y-44.623
X-1.753 Y-44.681
X-1.789 Y-44.702
X-1.89 Y-44.755
X-1.901 Y-44.761
X-2.326 Y-44.974
X-2.749 Y-45.198
X-3.63 Y-45.698
X-4.542 Y-46.256
X-5.483 Y-46.872
X-6.451 Y-47.543
X-7.444 Y-48.265
X-8.458 Y-49.035
X-9.489 Y-49.849
X-10.536 Y-50.706
X-11.594 Y-51.599
X-12.66 Y-52.527
X-13.731 Y-53.486
X-14.804 Y-54.471
X-15.875 Y-55.48
X-16.941 Y-56.508
X-17.998 Y-57.553
X-19.042 Y-58.61
X-20.071 Y-59.675
X-21.079 Y-60.746
X-22.065 Y-61.819
X-23.023 Y-62.891
X-23.951 Y-63.957
X-24.845 Y-65.015
X-25.701 Y-66.062
X-26.516 Y-67.093
X-27.286 Y-68.107
X-28.008 Y-69.099
X-28.679 Y-70.068
X-29.295 Y-71.009
X-29.853 Y-71.92
X-30.353 Y-72.802
X-30.577 Y-73.225
X-30.79 Y-73.649
X-30.796 Y-73.661
X-30.849 Y-73.761
X-30.87 Y-73.799
X-30.928 Y-73.896
X-30.95 Y-73.931
X-31.014 Y-74.025
X-31.039 Y-74.06
X-31.108 Y-74.15
X-31.135 Y-74.182
X-31.208 Y-74.268
X-31.237 Y-74.3
X-31.315 Y-74.381
X-31.346 Y-74.411
X-31.429 Y-74.488
X-31.461 Y-74.516
X-31.548 Y-74.588
X-31.582 Y-74.615
X-31.673 Y-74.682
X-31.707 Y-74.706
X-31.802 Y-74.768
X-31.838 Y-74.79
X-31.937 Y-74.846
X-31.975 Y-74.867
X-32.076 Y-74.917
X-32.114 Y-74.935
X-32.218 Y-74.98
X-32.258 Y-74.996
X-32.364 Y-75.035
X-32.404 Y-75.048
X-32.512 Y-75.081
X-32.553 Y-75.092
X-32.663 Y-75.119
X-32.705 Y-75.128
X-32.816 Y-75.148
X-32.857 Y-75.155
X-32.97 Y-75.169
X-33.013 Y-75.173
X-33.126 Y-75.181
X-33.168 Y-75.183
X-33.281 Y-75.184
X-33.323 Y-75.183
X-33.436 Y-75.178
X-33.479 Y-75.175
X-33.592 Y-75.164
X-33.633 Y-75.158
X-33.744 Y-75.14
X-33.787 Y-75.132
X-33.897 Y-75.108
X-33.938 Y-75.098
X-34.047 Y-75.068
X-34.089 Y-75.055
X-34.196 Y-75.019
X-34.235 Y-75.004
X-34.34 Y-74.962
X-34.38 Y-74.944
X-34.482 Y-74.896
X-34.519 Y-74.877
X-34.618 Y-74.823
X-34.655 Y-74.802
X-34.751 Y-74.743
X-34.787 Y-74.719
X-34.879 Y-74.654
X-34.914 Y-74.629
X-35.003 Y-74.558
X-35.019 Y-74.545
G3 X-40.549 Y-74.617 I-2.724 J-3.263
G1 X-40.566 Y-74.63
X-40.652 Y-74.703
X-40.686 Y-74.729
X-40.776 Y-74.796
X-40.81 Y-74.819
X-40.905 Y-74.881
X-40.941 Y-74.904
X-41.039 Y-74.96
X-41.075 Y-74.98
X-41.176 Y-75.031
X-41.215 Y-75.049
X-41.318 Y-75.094
X-41.357 Y-75.11
X-41.463 Y-75.149
X-41.503 Y-75.163
X-41.611 Y-75.196
X-41.651 Y-75.207
X-41.76 Y-75.234
X-41.802 Y-75.243
X-41.913 Y-75.264
X-41.954 Y-75.271
X-42.066 Y-75.285
X-42.109 Y-75.29
X-42.221 Y-75.298
X-42.263 Y-75.3
X-42.376 Y-75.301
X-42.418
X-42.531 Y-75.297
X-42.572 Y-75.294
X-42.684 Y-75.283
X-42.726 Y-75.278
X-42.837 Y-75.261
X-42.879 Y-75.253
X-42.989 Y-75.23
X-43.03 Y-75.22
X-43.139 Y-75.19
X-43.179 Y-75.178
X-43.286 Y-75.143
X-43.326 Y-75.128
X-43.431 Y-75.087
X-43.47 Y-75.07
X-43.572 Y-75.023
X-43.61 Y-75.004
X-43.709 Y-74.951
X-43.745 Y-74.93
X-43.841 Y-74.872
X-43.877 Y-74.849
X-43.97 Y-74.785
X-44.004 Y-74.76
X-44.093 Y-74.691
X-44.126 Y-74.664
X-44.211 Y-74.59
X-44.242 Y-74.562
X-44.323 Y-74.484
X-44.352 Y-74.453
X-44.428 Y-74.37
X-44.456 Y-74.338
X-44.527 Y-74.251
X-44.553 Y-74.218
X-44.619 Y-74.127
X-44.643 Y-74.093
X-44.704 Y-73.998
X-44.727 Y-73.961
X-44.782 Y-73.863
X-44.785 Y-73.859
X-45.246 Y-73.034
X-45.763 Y-72.184
X-46.34 Y-71.298
X-46.975 Y-70.378
X-47.665 Y-69.427
X-48.405 Y-68.45
X-49.193 Y-67.448
X-50.026 Y-66.426
X-50.899 Y-65.386
X-51.809 Y-64.332
X-52.753 Y-63.267
X-53.726 Y-62.195
X-54.725 Y-61.119
X-55.746 Y-60.043
X-56.786 Y-58.971
X-57.84 Y-57.906
X-58.905 Y-56.851
X-59.978 Y-55.812
X-61.053 Y-54.791
X-62.129 Y-53.792
X-63.201 Y-52.818
X-64.266 Y-51.875
X-65.32 Y-50.965
X-66.36 Y-50.091
X-67.383 Y-49.259
X-68.384 Y-48.47
X-69.362 Y-47.73
X-70.312 Y-47.04
X-71.232 Y-46.405
X-72.119 Y-45.828
X-72.969 Y-45.312
X-73.793 Y-44.85
X-73.798 Y-44.848
X-73.897 Y-44.792
X-73.933 Y-44.77
X-74.027 Y-44.709
X-74.062 Y-44.684
X-74.153 Y-44.618
X-74.186 Y-44.592
X-74.273 Y-44.521
X-74.305 Y-44.493
X-74.388 Y-44.417
X-74.419 Y-44.387
X-74.497 Y-44.306
X-74.526 Y-44.275
X-74.6 Y-44.19
X-74.627 Y-44.157
X-74.696 Y-44.068
X-74.721 Y-44.034
X-74.784 Y-43.941
X-74.807 Y-43.906
X-74.865 Y-43.81
X-74.886 Y-43.773
X-74.939 Y-43.673
X-74.958 Y-43.636
X-75.006 Y-43.533
X-75.022 Y-43.494
X-75.064 Y-43.389
X-75.078 Y-43.35
X-75.114 Y-43.243
X-75.126 Y-43.202
X-75.155 Y-43.094
X-75.165 Y-43.053
X-75.188 Y-42.943
X-75.196 Y-42.902
X-75.213 Y-42.79
X-75.218 Y-42.748
X-75.229 Y-42.636
X-75.231 Y-42.594
X-75.236 Y-42.481
Y-42.439
X-75.234 Y-42.326
X-75.232 Y-42.284
X-75.224 Y-42.172
X-75.22 Y-42.13
X-75.205 Y-42.018
X-75.198 Y-41.977
X-75.178 Y-41.866
X-75.169 Y-41.825
X-75.141 Y-41.715
X-75.13 Y-41.675
X-75.097 Y-41.567
X-75.083 Y-41.527
X-75.044 Y-41.421
X-75.028 Y-41.382
X-74.983 Y-41.279
X-74.965 Y-41.241
X-74.915 Y-41.14
X-74.895 Y-41.103
X-74.838 Y-41.006
X-74.816 Y-40.97
X-74.754 Y-40.876
X-74.73 Y-40.842
X-74.663 Y-40.751
X-74.637 Y-40.718
X-74.565 Y-40.631
X-74.551 Y-40.615
G3 X-74.59 Y-34.957 I-3.191 J2.807
G1 X-74.605 Y-34.941
X-74.678 Y-34.856
X-74.704 Y-34.823
X-74.772 Y-34.734
X-74.797 Y-34.7
X-74.86 Y-34.607
X-74.882 Y-34.571
X-74.94 Y-34.475
X-74.961 Y-34.437
X-75.013 Y-34.338
X-75.031 Y-34.301
X-75.077 Y-34.198
X-75.094 Y-34.158
X-75.135 Y-34.054
X-75.149 Y-34.014
X-75.183 Y-33.907
X-75.195 Y-33.866
X-75.224 Y-33.757
X-75.233 Y-33.717
X-75.256 Y-33.607
X-75.263 Y-33.565
X-75.279 Y-33.454
X-75.284 Y-33.412
X-75.294 Y-33.3
X-75.297 Y-33.258
X-75.3 Y-33.145
X-75.301 Y-33.103
X-75.298 Y-32.991
X-75.296 Y-32.949
X-75.287 Y-32.837
X-75.282 Y-32.796
X-75.267 Y-32.685
X-75.26 Y-32.642
X-75.239 Y-32.532
X-75.229 Y-32.492
X-75.202 Y-32.383
X-75.19 Y-32.342
X-75.156 Y-32.234
X-75.143 Y-32.194
X-75.103 Y-32.089
X-75.087 Y-32.051
X-75.042 Y-31.948
X-75.023 Y-31.909
X-74.972 Y-31.81
X-74.952 Y-31.774
X-74.896 Y-31.677
X-74.873 Y-31.64
X-74.811 Y-31.547
X-74.787 Y-31.513
X-74.72 Y-31.422
X-74.693 Y-31.389
X-74.621 Y-31.303
X-74.593 Y-31.272
X-74.516 Y-31.19
X-74.487 Y-31.16
X-74.405 Y-31.083
X-74.374 Y-31.054
X-74.288 Y-30.981
X-74.255 Y-30.955
X-74.166 Y-30.888
X-74.132 Y-30.863
X-74.039 Y-30.801
X-74.003 Y-30.778
X-73.906 Y-30.72
X-73.901 Y-30.717
X-73.092 Y-30.247
X-72.256 Y-29.72
X-71.382 Y-29.133
X-70.472 Y-28.489
X-69.53 Y-27.79
X-68.56 Y-27.04
X-67.564 Y-26.243
X-66.546 Y-25.401
X-65.509 Y-24.519
X-64.456 Y-23.601
X-63.392 Y-22.649
X-62.32 Y-21.669
X-61.243 Y-20.663
X-60.164 Y-19.636
X-59.089 Y-18.59
X-58.019 Y-17.531
X-56.96 Y-16.462
X-55.915 Y-15.387
X-54.888 Y-14.308
X-53.882 Y-13.231
X-52.901 Y-12.159
X-51.95 Y-11.094
X-51.031 Y-10.042
X-50.15 Y-9.005
X-49.308 Y-7.987
X-48.511 Y-6.991
X-47.761 Y-6.021
X-47.062 Y-5.079
X-46.417 Y-4.169
X-45.83 Y-3.295
X-45.304 Y-2.458
X-44.834 Y-1.65
X-44.83 Y-1.645
X-44.773 Y-1.548
X-44.75 Y-1.512
X-44.688 Y-1.419
X-44.663 Y-1.384
X-44.595 Y-1.295
X-44.569 Y-1.262
X-44.496 Y-1.176
X-44.468 Y-1.145
X-44.39 Y-1.064
X-44.36 Y-1.034
X-44.278 Y-0.957
X-44.247 Y-0.929
X-44.161 Y-0.857
X-44.127 Y-0.83
X-44.037 Y-0.763
X-44.003 Y-0.739
X-43.909 Y-0.677
X-43.874 Y-0.655
X-43.777 Y-0.598
X-43.739 Y-0.578
X-43.639 Y-0.527
X-43.601 Y-0.508
X-43.498 Y-0.463
X-43.459 Y-0.447
X-43.354 Y-0.407
X-43.314 Y-0.394
X-43.207 Y-0.36
X-43.167 Y-0.349
X-43.058 Y-0.321
X-43.017 Y-0.312
X-42.907 Y-0.29
X-42.865 Y-0.284
X-42.754 Y-0.268
X-42.712 Y-0.264
X-42.6 Y-0.255
X-42.558 Y-0.253
X-42.445 Y-0.25
X-42.403
X-42.291 Y-0.254
X-42.249 Y-0.257
X-42.137 Y-0.267
X-42.095 Y-0.272
X-41.984 Y-0.288
X-41.943 Y-0.295
X-41.833 Y-0.318
X-41.792 Y-0.327
X-41.683 Y-0.356
X-41.643 Y-0.368
X-41.536 Y-0.402
X-41.496 Y-0.417
X-41.391 Y-0.457
X-41.352 Y-0.474
X-41.25 Y-0.52
X-41.212 Y-0.539
X-41.113 Y-0.591
X-41.076 Y-0.611
X-40.98 Y-0.669
X-40.944 Y-0.691
X-40.851 Y-0.754
X-40.817 Y-0.779
X-40.728 Y-0.847
X-40.694 Y-0.873
X-40.609 Y-0.947
X-40.593 Y-0.96
G3 X-34.937 Y-1 I2.851 J3.152
G1 X-34.921 Y-0.986
X-34.834 Y-0.914
X-34.8 Y-0.888
X-34.71 Y-0.821
X-34.675 Y-0.797
X-34.581 Y-0.735
X-34.545 Y-0.713
X-34.448 Y-0.657
X-34.41 Y-0.637
X-34.31 Y-0.586
X-34.271 Y-0.568
X-34.168 Y-0.523
X-34.129 Y-0.507
X-34.023 Y-0.468
X-33.983 Y-0.454
X-33.875 Y-0.421
X-33.834 Y-0.41
X-33.725 Y-0.383
X-33.684 Y-0.374
X-33.573 Y-0.353
X-33.531 Y-0.346
X-33.42 Y-0.332
X-33.378 Y-0.328
X-33.265 Y-0.319
X-33.223 Y-0.317
X-33.11 Y-0.316
X-33.068
X-32.955 Y-0.321
X-32.913 Y-0.323
X-32.801 Y-0.334
X-32.76 Y-0.339
X-32.649 Y-0.356
X-32.607 Y-0.364
X-32.497 Y-0.387
X-32.456 Y-0.397
X-32.347 Y-0.427
X-32.306 Y-0.439
X-32.199 Y-0.475
X-32.16 Y-0.489
X-32.055 Y-0.531
X-32.016 Y-0.547
X-31.914 Y-0.594
X-31.876 Y-0.613
X-31.777 Y-0.666
X-31.741 Y-0.687
X-31.644 Y-0.746
X-31.609 Y-0.769
X-31.516 Y-0.832
X-31.482 Y-0.857
X-31.393 Y-0.926
X-31.36 Y-0.953
X-31.275 Y-1.027
X-31.244 Y-1.056
X-31.163 Y-1.134
X-31.134 Y-1.164
X-31.058 Y-1.247
X-31.03 Y-1.28
X-30.959 Y-1.366
X-30.933 Y-1.4
X-30.867 Y-1.49
X-30.843 Y-1.525
X-30.782 Y-1.62
X-30.76 Y-1.656
X-30.704 Y-1.754
X-30.701 Y-1.759
X-30.24 Y-2.584
X-29.724 Y-3.434
X-29.146 Y-4.321
X-28.512 Y-5.241
X-27.822 Y-6.191
X-27.082 Y-7.169
X-26.294 Y-8.171
X-25.461 Y-9.193
X-24.588 Y-10.233
X-23.678 Y-11.287
X-22.735 Y-12.352
X-21.762 Y-13.424
X-20.763 Y-14.5
X-19.741 Y-15.576
X-18.702 Y-16.648
X-17.648 Y-17.713
X-16.583 Y-18.767
X-15.511 Y-19.807
X-14.435 Y-20.828
X-13.359 Y-21.827
X-12.287 Y-22.8
X-11.222 Y-23.743
X-10.168 Y-24.654
X-9.128 Y-25.527
X-8.105 Y-26.359
X-7.104 Y-27.147
X-6.126 Y-27.888
X-5.175 Y-28.577
X-4.255 Y-29.212
X-3.369 Y-29.789
X-2.518 Y-30.305
X-1.694 Y-30.766
X-1.689 Y-30.769
X-1.591 Y-30.825
X-1.554 Y-30.847
X-1.46 Y-30.908
X-1.425 Y-30.932
X-1.334 Y-30.999
X-1.301 Y-31.024
X-1.214 Y-31.096
X-1.182 Y-31.123
X-1.099 Y-31.2
X-1.068 Y-31.229
X-0.989 Y-31.31
X-0.961 Y-31.341
X-0.887 Y-31.426
X-0.86 Y-31.459
X-0.791 Y-31.548
X-0.766 Y-31.582
X-0.703 Y-31.675
X-0.68 Y-31.711
X-0.621 Y-31.807
X-0.6 Y-31.844
X-0.547 Y-31.943
X-0.528 Y-31.981
X-0.481 Y-32.084
X-0.464 Y-32.122
X-0.423 Y-32.227
X-0.408 Y-32.267
X-0.373 Y-32.374
X-0.361 Y-32.414
X-0.332 Y-32.522
X-0.322 Y-32.564
X-0.298 Y-32.674
X-0.291 Y-32.715
X-0.274 Y-32.826
X-0.269 Y-32.868
X-0.258 Y-32.981
X-0.255 Y-33.023
X-0.251 Y-33.136
X-0.25 Y-33.178
X-0.252 Y-33.29
X-0.253 Y-33.305
X-0.254 Y-33.333 Z-1.001 F1016
X-0.262 Y-33.445 Z-1.005
X-0.267 Y-33.487 Z-1.006
X-0.281 Y-33.598 Z-1.01
X-0.288 Y-33.64 Z-1.012
X-0.309 Y-33.75 Z-1.016
X-0.318 Y-33.792 Z-1.017
X-0.345 Y-33.901 Z-1.021
X-0.356 Y-33.942 Z-1.023
X-0.389 Y-34.049 Z-1.026
X-0.403 Y-34.089 Z-1.028
X-0.442 Y-34.195 Z-1.032
X-0.458 Y-34.234 Z-1.033
X-0.503 Y-34.338 Z-1.037
X-0.521 Y-34.376 Z-1.039
X-0.572 Y-34.476 Z-1.043
X-0.592 Y-34.513 Z-1.044
X-0.648 Y-34.611 Z-1.048
X-0.67 Y-34.647 Z-1.05
X-0.732 Y-34.741 Z-1.054
X-0.756 Y-34.775 Z-1.055
X-0.823 Y-34.866 Z-1.059
X-0.849 Y-34.899 Z-1.06
X-0.921 Y-34.986 Z-1.064
X-0.935 Y-35.002 Z-1.065
G3 X-1.005 Y-40.532 Z-1.275 I3.192 J-2.806
G1 X-0.992 Y-40.548 Z-1.276
X-0.922 Y-40.637 Z-1.28
X-0.897 Y-40.671 Z-1.282
X-0.832 Y-40.764 Z-1.285
X-0.808 Y-40.8 Z-1.287
X-0.749 Y-40.896 Z-1.291
X-0.727 Y-40.933 Z-1.292
X-0.673 Y-41.032 Z-1.296
X-0.654 Y-41.07 Z-1.298
X-0.606 Y-41.172 Z-1.302
X-0.589 Y-41.211 Z-1.303
X-0.546 Y-41.316 Z-1.307
X-0.531 Y-41.356 Z-1.309
X-0.495 Y-41.464 Z-1.313
X-0.483 Y-41.504 Z-1.314
X-0.452 Y-41.613 Z-1.318
X-0.442 Y-41.655 Z-1.32
X-0.418 Y-41.765 Z-1.324
X-0.41 Y-41.807 Z-1.325
X-0.392 Y-41.919 Z-1.329
X-0.387 Y-41.961 Z-1.33
X-0.376 Y-42.074 Z-1.334
X-0.373 Y-42.116 Z-1.336
X-0.368 Y-42.229 Z-1.34
X-0.367 Y-42.272 Z-1.341
X-0.368 Y-42.385 Z-1.345
X-0.37 Y-42.427 Z-1.347
X-0.378 Y-42.54 Z-1.351
X-0.382 Y-42.582 Z-1.352
X-0.396 Y-42.695 Z-1.356
X-0.403 Y-42.737 Z-1.358
X-0.423 Y-42.848 Z-1.362
X-0.432 Y-42.889 Z-1.363
X-0.459 Y-42.999 Z-1.367
X-0.47 Y-43.04 Z-1.369
X-0.503 Y-43.148 Z-1.372
X-0.517 Y-43.189 Z-1.374
X-0.556 Y-43.295 Z-1.378
X-0.571 Y-43.335 Z-1.379
X-0.616 Y-43.438 Z-1.383
X-0.634 Y-43.477 Z-1.385
X-0.685 Y-43.578 Z-1.389
X-0.705 Y-43.616 Z-1.39
X-0.762 Y-43.713 Z-1.394
X-0.784 Y-43.749 Z-1.396
X-0.845 Y-43.844 Z-1.4
X-0.87 Y-43.879 Z-1.401
X-0.937 Y-43.97 Z-1.405
X-0.963 Y-44.004 Z-1.407
X-1.035 Y-44.091 Z-1.411
X-1.063 Y-44.123 Z-1.412
X-1.14 Y-44.206 Z-1.416
X-1.17 Y-44.236 Z-1.417
X-1.252 Y-44.315 Z-1.421
X-1.283 Y-44.343 Z-1.423
X-1.369 Y-44.417 Z-1.427
X-1.402 Y-44.444 Z-1.428
X-1.492 Y-44.512 Z-1.432
X-1.526 Y-44.537 Z-1.434
X-1.619 Y-44.6 Z-1.438
X-1.656 Y-44.623 Z-1.439
X-1.753 Y-44.681 Z-1.443
X-1.789 Y-44.702 Z-1.445
X-1.89 Y-44.755 Z-1.449
X-1.901 Y-44.761
X-2.326 Y-44.974 Z-1.466
X-2.749 Y-45.198 Z-1.482
X-3.63 Y-45.698 Z-1.518
X-4.542 Y-46.256 Z-1.555
X-5.483 Y-46.872 Z-1.594
X-6.451 Y-47.543 Z-1.635
X-7.444 Y-48.265 Z-1.678
X-7.939 Y-48.64 Z-1.7
X-8.458 Y-49.035 F600
X-9.489 Y-49.849
X-10.536 Y-50.706
X-11.594 Y-51.599
X-12.66 Y-52.527
X-13.731 Y-53.486
X-14.804 Y-54.471
X-15.875 Y-55.48
X-16.391 Y-55.978
Z-1.2
X-16.941 Y-56.508
X-17.998 Y-57.553
X-19.042 Y-58.61
X-19.573 Y-59.16
Z-1.7 F300
X-20.071 Y-59.675 F600
X-21.079 Y-60.746
X-22.065 Y-61.819
X-23.023 Y-62.891
X-23.951 Y-63.957
X-24.845 Y-65.015
X-25.701 Y-66.062
X-26.516 Y-67.093
X-27.286 Y-68.107
X-28.008 Y-69.099
X-28.679 Y-70.068
X-29.295 Y-71.009
X-29.853 Y-71.92
X-30.353 Y-72.802
X-30.577 Y-73.225
X-30.79 Y-73.649
X-30.796 Y-73.661
X-30.849 Y-73.761
X-30.87 Y-73.799
X-30.928 Y-73.896
X-30.95 Y-73.931
X-31.014 Y-74.025
X-31.039 Y-74.06
X-31.108 Y-74.15
X-31.135 Y-74.182
X-31.208 Y-74.268
X-31.237 Y-74.3
X-31.315 Y-74.381
X-31.346 Y-74.411
X-31.429 Y-74.488
X-31.461 Y-74.516
X-31.548 Y-74.588
X-31.582 Y-74.615
X-31.673 Y-74.682
X-31.707 Y-74.706
X-31.802 Y-74.768
X-31.838 Y-74.79
X-31.937 Y-74.846
X-31.975 Y-74.867
X-32.076 Y-74.917
X-32.114 Y-74.935
X-32.218 Y-74.98
X-32.258 Y-74.996
X-32.364 Y-75.035
X-32.404 Y-75.048
X-32.512 Y-75.081
X-32.553 Y-75.092
X-32.663 Y-75.119
X-32.705 Y-75.128
X-32.816 Y-75.148
X-32.857 Y-75.155
X-32.97 Y-75.169
X-33.013 Y-75.173
X-33.126 Y-75.181
X-33.168 Y-75.183
X-33.281 Y-75.184
X-33.323 Y-75.183
X-33.436 Y-75.178
X-33.479 Y-75.175
X-33.592 Y-75.164
X-33.633 Y-75.158
X-33.744 Y-75.14
X-33.787 Y-75.132
X-33.897 Y-75.108
X-33.938 Y-75.098
X-34.047 Y-75.068
X-34.089 Y-75.055
X-34.196 Y-75.019
X-34.235 Y-75.004
X-34.34 Y-74.962
X-34.38 Y-74.944
X-34.482 Y-74.896
X-34.519 Y-74.877
X-34.618 Y-74.823
X-34.655 Y-74.802
X-34.751 Y-74.743
X-34.787 Y-74.719
X-34.879 Y-74.654
X-34.914 Y-74.629
X-35.003 Y-74.558
X-35.019 Y-74.545
G3 X-40.549 Y-74.617 I-2.724 J-3.263
G1 X-40.566 Y-74.63
X-40.652 Y-74.703
X-40.686 Y-74.729
X-40.776 Y-74.796
X-40.81 Y-74.819
X-40.905 Y-74.881
X-40.941 Y-74.904
X-41.039 Y-74.96
X-41.075 Y-74.98
X-41.176 Y-75.031
X-41.215 Y-75.049
X-41.318 Y-75.094
X-41.357 Y-75.11
X-41.463 Y-75.149
X-41.503 Y-75.163
X-41.611 Y-75.196
X-41.651 Y-75.207
X-41.76 Y-75.234
X-41.802 Y-75.243
X-41.913 Y-75.264
X-41.954 Y-75.271
X-42.066 Y-75.285
X-42.109 Y-75.29
X-42.221 Y-75.298
X-42.263 Y-75.3
X-42.376 Y-75.301
X-42.418
X-42.531 Y-75.297
X-42.572 Y-75.294
X-42.684 Y-75.283
X-42.726 Y-75.278
X-42.837 Y-75.261
X-42.879 Y-75.253
X-42.989 Y-75.23
X-43.03 Y-75.22
X-43.139 Y-75.19
X-43.179 Y-75.178
X-43.286 Y-75.143
X-43.326 Y-75.128
X-43.431 Y-75.087
X-43.47 Y-75.07
X-43.572 Y-75.023
X-43.61 Y-75.004
X-43.709 Y-74.951
X-43.745 Y-74.93
X-43.841 Y-74.872
X-43.877 Y-74.849
X-43.97 Y-74.785
X-44.004 Y-74.76
X-44.093 Y-74.691
X-44.126 Y-74.664
X-44.211 Y-74.59
X-44.242 Y-74.562
X-44.323 Y-74.484
X-44.352 Y-74.453
X-44.428 Y-74.37
X-44.456 Y-74.338
X-44.527 Y-74.251
X-44.553 Y-74.218
X-44.619 Y-74.127
X-44.643 Y-74.093
X-44.704 Y-73.998
X-44.727 Y-73.961
X-44.782 Y-73.863
X-44.785 Y-73.859
X-45.246 Y-73.034
X-45.763 Y-72.184
X-46.34 Y-71.298
X-46.975 Y-70.378
X-47.665 Y-69.427
X-48.405 Y-68.45
X-49.193 Y-67.448
X-50.026 Y-66.426
X-50.899 Y-65.386
X-51.809 Y-64.332
X-52.753 Y-63.267
X-53.726 Y-62.195
X-54.725 Y-61.119
X-55.746 Y-60.043
X-56.263 Y-59.51
Z-1.2
X-56.786 Y-58.971
X-57.84 Y-57.906
X-58.905 Y-56.851
X-59.445 Y-56.328
Z-1.7 F300
X-59.978 Y-55.812 F600
X-61.053 Y-54.791
X-62.129 Y-53.792
X-63.201 Y-52.818
X-64.266 Y-51.875
X-65.32 Y-50.965
X-66.36 Y-50.091
X-67.383 Y-49.259
X-68.384 Y-48.47
X-69.362 Y-47.73
X-70.312 Y-47.04
X-71.232 Y-46.405
X-72.119 Y-45.828
X-72.969 Y-45.312
X-73.793 Y-44.85
X-73.798 Y-44.848
X-73.897 Y-44.792
X-73.933 Y-44.77
X-74.027 Y-44.709
X-74.062 Y-44.684
X-74.153 Y-44.618
X-74.186 Y-44.592
X-74.273 Y-44.521
X-74.305 Y-44.493
X-74.388 Y-44.417
X-74.419 Y-44.387
X-74.497 Y-44.306
X-74.526 Y-44.275
X-74.6 Y-44.19
X-74.627 Y-44.157
X-74.696 Y-44.068
X-74.721 Y-44.034
X-74.784 Y-43.941
X-74.807 Y-43.906
X-74.865 Y-43.81
X-74.886 Y-43.773
X-74.939 Y-43.673
X-74.958 Y-43.636
X-75.006 Y-43.533
X-75.022 Y-43.494
X-75.064 Y-43.389
X-75.078 Y-43.35
X-75.114 Y-43.243
X-75.126 Y-43.202
X-75.155 Y-43.094
X-75.165 Y-43.053
X-75.188 Y-42.943
X-75.196 Y-42.902
X-75.213 Y-42.79
X-75.218 Y-42.748
X-75.229 Y-42.636
X-75.231 Y-42.594
X-75.236 Y-42.481
Y-42.439
X-75.234 Y-42.326
X-75.232 Y-42.284
X-75.224 Y-42.172
X-75.22 Y-42.13
X-75.205 Y-42.018
X-75.198 Y-41.977
X-75.178 Y-41.866
X-75.169 Y-41.825
X-75.141 Y-41.715
X-75.13 Y-41.675
X-75.097 Y-41.567
X-75.083 Y-41.527
X-75.044 Y-41.421
X-75.028 Y-41.382
X-74.983 Y-41.279
X-74.965 Y-41.241
X-74.915 Y-41.14
X-74.895 Y-41.103
X-74.838 Y-41.006
X-74.816 Y-40.97
X-74.754 Y-40.876
X-74.73 Y-40.842
X-74.663 Y-40.751
X-74.637 Y-40.718
X-74.565 Y-40.631
X-74.551 Y-40.615
G3 X-74.59 Y-34.957 I-3.191 J2.807
G1 X-74.605 Y-34.941
X-74.678 Y-34.856
X-74.704 Y-34.823
X-74.772 Y-34.734
X-74.797 Y-34.7
X-74.86 Y-34.607
X-74.882 Y-34.571
X-74.94 Y-34.475
X-74.961 Y-34.437
X-75.013 Y-34.338
X-75.031 Y-34.301
X-75.077 Y-34.198
X-75.094 Y-34.158
X-75.135 Y-34.054
X-75.149 Y-34.014
X-75.183 Y-33.907
X-75.195 Y-33.866
X-75.224 Y-33.757
X-75.233 Y-33.717
X-75.256 Y-33.607
X-75.263 Y-33.565
X-75.279 Y-33.454
X-75.284 Y-33.412
X-75.294 Y-33.3
X-75.297 Y-33.258
X-75.3 Y-33.145
X-75.301 Y-33.103
X-75.298 Y-32.991
X-75.296 Y-32.949
X-75.287 Y-32.837
X-75.282 Y-32.796
X-75.267 Y-32.685
X-75.26 Y-32.642
X-75.239 Y-32.532
X-75.229 Y-32.492
X-75.202 Y-32.383
X-75.19 Y-32.342
X-75.156 Y-32.234
X-75.143 Y-32.194
X-75.103 Y-32.089
X-75.087 Y-32.051
X-75.042 Y-31.948
X-75.023 Y-31.909
X-74.972 Y-31.81
X-74.952 Y-31.774
X-74.896 Y-31.677
X-74.873 Y-31.64
X-74.811 Y-31.547
X-74.787 Y-31.513
X-74.72 Y-31.422
X-74.693 Y-31.389
X-74.621 Y-31.303
X-74.593 Y-31.272
X-74.516 Y-31.19
X-74.487 Y-31.16
X-74.405 Y-31.083
X-74.374 Y-31.054
X-74.288 Y-30.981
X-74.255 Y-30.955
X-74.166 Y-30.888
X-74.132 Y-30.863
X-74.039 Y-30.801
X-74.003 Y-30.778
X-73.906 Y-30.72
X-73.901 Y-30.717
X-73.092 Y-30.247
X-72.256 Y-29.72
X-71.382 Y-29.133
X-70.472 Y-28.489
X-69.53 Y-27.79
X-68.56 Y-27.04
X-67.564 Y-26.243
X-66.546 Y-25.401
X-65.509 Y-24.519
X-64.456 Y-23.601
X-63.392 Y-22.649
X-62.32 Y-21.669
X-61.243 Y-20.663
X-60.164 Y-19.636
X-59.623 Y-19.11
Z-1.2
X-59.089 Y-18.59
X-58.019 Y-17.531
X-56.96 Y-16.462
X-56.441 Y-15.928
Z-1.7 F300
X-55.915 Y-15.387 F600
X-54.888 Y-14.308
X-53.882 Y-13.231
X-52.901 Y-12.159
X-51.95 Y-11.094
X-51.031 Y-10.042
X-50.15 Y-9.005
X-49.308 Y-7.987
X-48.511 Y-6.991
X-47.761 Y-6.021
X-47.062 Y-5.079
X-46.417 Y-4.169
X-45.83 Y-3.295
X-45.304 Y-2.458
X-44.834 Y-1.65
X-44.83 Y-1.645
X-44.773 Y-1.548
X-44.75 Y-1.512
X-44.688 Y-1.419
X-44.663 Y-1.384
X-44.595 Y-1.295
X-44.569 Y-1.262
X-44.496 Y-1.176
X-44.468 Y-1.145
X-44.39 Y-1.064
X-44.36 Y-1.034
X-44.278 Y-0.957
X-44.247 Y-0.929
X-44.161 Y-0.857
X-44.127 Y-0.83
X-44.037 Y-0.763
X-44.003 Y-0.739
X-43.909 Y-0.677
X-43.874 Y-0.655
X-43.777 Y-0.598
X-43.739 Y-0.578
X-43.639 Y-0.527
X-43.601 Y-0.508
X-43.498 Y-0.463
X-43.459 Y-0.447
X-43.354 Y-0.407
X-43.314 Y-0.394
X-43.207 Y-0.36
X-43.167 Y-0.349
X-43.058 Y-0.321
X-43.017 Y-0.312
X-42.907 Y-0.29
X-42.865 Y-0.284
X-42.754 Y-0.268
X-42.712 Y-0.264
X-42.6 Y-0.255
X-42.558 Y-0.253
X-42.445 Y-0.25
X-42.403
X-42.291 Y-0.254
X-42.249 Y-0.257
X-42.137 Y-0.267
X-42.095 Y-0.272
X-41.984 Y-0.288
X-41.943 Y-0.295
X-41.833 Y-0.318
X-41.792 Y-0.327
X-41.683 Y-0.356
X-41.643 Y-0.368
X-41.536 Y-0.402
X-41.496 Y-0.417
X-41.391 Y-0.457
X-41.352 Y-0.474
X-41.25 Y-0.52
X-41.212 Y-0.539
X-41.113 Y-0.591
X-41.076 Y-0.611
X-40.98 Y-0.669
X-40.944 Y-0.691
X-40.851 Y-0.754
X-40.817 Y-0.779
X-40.728 Y-0.847
X-40.694 Y-0.873
X-40.609 Y-0.947
X-40.593 Y-0.96
G3 X-34.937 Y-1 I2.851 J3.152
G1 X-34.921 Y-0.986
X-34.834 Y-0.914
X-34.8 Y-0.888
X-34.71 Y-0.821
X-34.675 Y-0.797
X-34.581 Y-0.735
X-34.545 Y-0.713
X-34.448 Y-0.657
X-34.41 Y-0.637
X-34.31 Y-0.586
X-34.271 Y-0.568
X-34.168 Y-0.523
X-34.129 Y-0.507
X-34.023 Y-0.468
X-33.983 Y-0.454
X-33.875 Y-0.421
X-33.834 Y-0.41
X-33.725 Y-0.383
X-33.684 Y-0.374
X-33.573 Y-0.353
X-33.531 Y-0.346
X-33.42 Y-0.332
X-33.378 Y-0.328
X-33.265 Y-0.319
X-33.223 Y-0.317
X-33.11 Y-0.316
X-33.068
X-32.955 Y-0.321
X-32.913 Y-0.323
X-32.801 Y-0.334
X-32.76 Y-0.339
X-32.649 Y-0.356
X-32.607 Y-0.364
X-32.497 Y-0.387
X-32.456 Y-0.397
X-32.347 Y-0.427
X-32.306 Y-0.439
X-32.199 Y-0.475
X-32.16 Y-0.489
X-32.055 Y-0.531
X-32.016 Y-0.547
X-31.914 Y-0.594
X-31.876 Y-0.613
X-31.777 Y-0.666
X-31.741 Y-0.687
X-31.644 Y-0.746
X-31.609 Y-0.769
X-31.516 Y-0.832
X-31.482 Y-0.857
X-31.393 Y-0.926
X-31.36 Y-0.953
X-31.275 Y-1.027
X-31.244 Y-1.056
X-31.163 Y-1.134
X-31.134 Y-1.164
X-31.058 Y-1.247
X-31.03 Y-1.28
X-30.959 Y-1.366
X-30.933 Y-1.4
X-30.867 Y-1.49
X-30.843 Y-1.525
X-30.782 Y-1.62
X-30.76 Y-1.656
X-30.704 Y-1.754
X-30.701 Y-1.759
X-30.24 Y-2.584
X-29.724 Y-3.434
X-29.146 Y-4.321
X-28.512 Y-5.241
X-27.822 Y-6.191
X-27.082 Y-7.169
X-26.294 Y-8.171
X-25.461 Y-9.193
X-24.588 Y-10.233
X-23.678 Y-11.287
X-22.735 Y-12.352
X-21.762 Y-13.424
X-20.763 Y-14.5
X-19.741 Y-15.576
X-19.225 Y-16.109
Z-1.2
X-18.702 Y-16.648
X-17.648 Y-17.713
X-16.583 Y-18.767
X-16.043 Y-19.291
Z-1.7 F300
X-15.511 Y-19.807 F600
X-14.435 Y-20.828
X-13.359 Y-21.827
X-12.287 Y-22.8
X-11.222 Y-23.743
X-10.168 Y-24.654
X-9.128 Y-25.527
X-8.105 Y-26.359
X-7.104 Y-27.147
X-6.126 Y-27.888
X-5.175 Y-28.577
X-4.255 Y-29.212
X-3.369 Y-29.789
X-2.518 Y-30.305
X-1.694 Y-30.766
X-1.689 Y-30.769
X-1.591 Y-30.825
X-1.554 Y-30.847
X-1.46 Y-30.908
X-1.425 Y-30.932
X-1.334 Y-30.999
X-1.301 Y-31.024
X-1.214 Y-31.096
X-1.182 Y-31.123
X-1.099 Y-31.2
X-1.068 Y-31.229
X-0.989 Y-31.31
X-0.961 Y-31.341
X-0.887 Y-31.426
X-0.86 Y-31.459
X-0.791 Y-31.548
X-0.766 Y-31.582
X-0.703 Y-31.675
X-0.68 Y-31.711
X-0.621 Y-31.807
X-0.6 Y-31.844
X-0.547 Y-31.943
X-0.528 Y-31.981
X-0.481 Y-32.084
X-0.464 Y-32.122
X-0.423 Y-32.227
X-0.408 Y-32.267
X-0.373 Y-32.374
X-0.361 Y-32.414
X-0.332 Y-32.522
X-0.322 Y-32.564
X-0.298 Y-32.674
X-0.291 Y-32.715
X-0.274 Y-32.826
X-0.269 Y-32.868
X-0.258 Y-32.981
X-0.255 Y-33.023
X-0.251 Y-33.136
X-0.25 Y-33.178
X-0.252 Y-33.29
X-0.254 Y-33.333
X-0.262 Y-33.445
X-0.267 Y-33.487
X-0.281 Y-33.598
X-0.288 Y-33.64
X-0.309 Y-33.75
X-0.318 Y-33.792
X-0.345 Y-33.901
X-0.356 Y-33.942
X-0.389 Y-34.049
X-0.403 Y-34.089
X-0.442 Y-34.195
X-0.458 Y-34.234
X-0.503 Y-34.338
X-0.521 Y-34.376
X-0.572 Y-34.476
X-0.592 Y-34.513
X-0.648 Y-34.611
X-0.67 Y-34.647
X-0.732 Y-34.741
X-0.756 Y-34.775
X-0.823 Y-34.866
X-0.849 Y-34.899
X-0.921 Y-34.986
X-0.935 Y-35.002
G3 X-1.005 Y-40.532 I3.192 J-2.806
G1 X-0.992 Y-40.548
X-0.922 Y-40.637
X-0.897 Y-40.671
X-0.832 Y-40.764
X-0.808 Y-40.8
X-0.749 Y-40.896
X-0.727 Y-40.933
X-0.673 Y-41.032
X-0.654 Y-41.07
X-0.606 Y-41.172
X-0.589 Y-41.211
X-0.546 Y-41.316
X-0.531 Y-41.356
X-0.495 Y-41.464
X-0.483 Y-41.504
X-0.452 Y-41.613
X-0.442 Y-41.655
X-0.418 Y-41.765
X-0.41 Y-41.807
X-0.392 Y-41.919
X-0.387 Y-41.961
X-0.376 Y-42.074
X-0.373 Y-42.116
X-0.368 Y-42.229
X-0.367 Y-42.272
X-0.368 Y-42.385
X-0.37 Y-42.427
X-0.378 Y-42.54
X-0.382 Y-42.582
X-0.396 Y-42.695
X-0.403 Y-42.737
X-0.423 Y-42.848
X-0.432 Y-42.889
X-0.459 Y-42.999
X-0.47 Y-43.04
X-0.503 Y-43.148
X-0.517 Y-43.189
X-0.556 Y-43.295
X-0.571 Y-43.335
X-0.616 Y-43.438
X-0.634 Y-43.477
X-0.685 Y-43.578
X-0.705 Y-43.616
X-0.762 Y-43.713
X-0.784 Y-43.749
X-0.845 Y-43.844
X-0.87 Y-43.879
X-0.937 Y-43.97
X-0.963 Y-44.004
X-1.035 Y-44.091
X-1.063 Y-44.123
X-1.14 Y-44.206
X-1.17 Y-44.236
X-1.252 Y-44.315
X-1.283 Y-44.343
X-1.369 Y-44.417
X-1.402 Y-44.444
X-1.492 Y-44.512
X-1.526 Y-44.537
X-1.619 Y-44.6
X-1.656 Y-44.623
X-1.753 Y-44.681
X-1.789 Y-44.702
X-1.89 Y-44.755
X-1.901 Y-44.761
X-2.326 Y-44.974
X-2.749 Y-45.198
X-3.63 Y-45.698
X-4.542 Y-46.256
X-5.483 Y-46.872
X-6.451 Y-47.543
X-7.444 Y-48.265
X-7.939 Y-48.64
X-7.971 Y-48.674
X-7.992 Y-48.716
X-7.998 Y-48.763
X-7.99 Y-48.809
X-7.967 Y-48.851
X-7.877 Y-48.97
X-7.849 Y-49.007 Z-1.693
X-7.823 Y-49.04 Z-1.671
X-7.803 Y-49.067 Z-1.638
X-7.79 Y-49.084 Z-1.596
X-7.786 Y-49.089 Z-1.55
G0 Z15
G28 G91 Z0
G90
G28 G91 X0 Y0
G90
M5
M30
