(1001)
(Bearbeiten)
(  Hersteller: ChinaCnc)
(  model: 3040T)
(  description: Generic 3-axis)
(T14  D=1.5 CR=0 - ZMIN=-1.7 - Schaftfraser)
G90 G94
G17
G21
G28 G91 Z0
G90

(Bohrfrasen2)
T14
S6000 M3
G54
G0 X15.798 Y-15.052
Z15
Z2
G1 Z0.15 F400
X15.803 Y-15.047 Z0.104
X15.818 Y-15.032 Z0.062
X15.842 Y-15.009 Z0.029
X15.871 Y-14.979 Z0.007
X15.904 Y-14.946 Z0
X15.957 Y-14.893
X15.985 Y-14.855
X15.999 Y-14.811
Y-14.764
X15.985 Y-14.719
X15.957 Y-14.681
G3 X14.543 Y-16.095 Z-0.5 I-0.707 J-0.707 F600
X15.957 Y-14.681 Z-1 I0.707 J0.707
X14.543 Y-16.095 Z-1.5 I-0.707 J-0.707
X15.704 Y-16.279 Z-1.7 I0.707 J0.707
X14.796 Y-14.497 I-0.454 J0.891
X15.704 Y-16.279 I0.454 J-0.891
G1 X15.742 Y-16.252
X15.77 Y-16.214
X15.784 Y-16.169
Y-16.122
X15.77 Y-16.078
X15.735 Y-16.011
X15.714 Y-15.969 Z-1.693
X15.695 Y-15.932 Z-1.671
X15.68 Y-15.903 Z-1.638
X15.671 Y-15.884 Z-1.596
X15.667 Y-15.877 Z-1.55
G0 Z5
X-14.702 Y-15.052
Z2
G1 Z0.15 F400
X-14.697 Y-15.047 Z0.104
X-14.682 Y-15.032 Z0.062
X-14.658 Y-15.009 Z0.029
X-14.629 Y-14.979 Z0.007
X-14.596 Y-14.946 Z0
X-14.543 Y-14.893
X-14.515 Y-14.855
X-14.501 Y-14.811
Y-14.764
X-14.515 Y-14.719
X-14.543 Y-14.681
G3 X-15.957 Y-16.095 Z-0.5 I-0.707 J-0.707 F600
X-14.543 Y-14.681 Z-1 I0.707 J0.707
X-15.957 Y-16.095 Z-1.5 I-0.707 J-0.707
X-14.796 Y-16.279 Z-1.7 I0.707 J0.707
X-15.704 Y-14.497 I-0.454 J0.891
X-14.796 Y-16.279 I0.454 J-0.891
G1 X-14.758 Y-16.252
X-14.73 Y-16.214
X-14.716 Y-16.169
Y-16.122
X-14.73 Y-16.078
X-14.765 Y-16.011
X-14.786 Y-15.969 Z-1.693
X-14.805 Y-15.932 Z-1.671
X-14.82 Y-15.903 Z-1.638
X-14.829 Y-15.884 Z-1.596
X-14.833 Y-15.877 Z-1.55
G0 Z5
X-14.702 Y15.448
Z2
G1 Z0.15 F400
X-14.697 Y15.453 Z0.104
X-14.682 Y15.468 Z0.062
X-14.658 Y15.491 Z0.029
X-14.629 Y15.521 Z0.007
X-14.596 Y15.554 Z0
X-14.543 Y15.607
X-14.515 Y15.645
X-14.501 Y15.689
Y15.736
X-14.515 Y15.781
X-14.543 Y15.819
G3 X-15.957 Y14.405 Z-0.5 I-0.707 J-0.707 F600
X-14.543 Y15.819 Z-1 I0.707 J0.707
X-15.957 Y14.405 Z-1.5 I-0.707 J-0.707
X-14.796 Y14.221 Z-1.7 I0.707 J0.707
X-15.704 Y16.003 I-0.454 J0.891
X-14.796 Y14.221 I0.454 J-0.891
G1 X-14.758 Y14.248
X-14.73 Y14.286
X-14.716 Y14.331
Y14.378
X-14.73 Y14.422
X-14.765 Y14.489
X-14.786 Y14.531 Z-1.693
X-14.805 Y14.568 Z-1.671
X-14.82 Y14.597 Z-1.638
X-14.829 Y14.616 Z-1.596
X-14.833 Y14.623 Z-1.55
G0 Z5
X15.798 Y15.448
Z2
G1 Z0.15 F400
X15.803 Y15.453 Z0.104
X15.818 Y15.468 Z0.062
X15.842 Y15.491 Z0.029
X15.871 Y15.521 Z0.007
X15.904 Y15.554 Z0
X15.957 Y15.607
X15.985 Y15.645
X15.999 Y15.689
Y15.736
X15.985 Y15.781
X15.957 Y15.819
G3 X14.543 Y14.405 Z-0.5 I-0.707 J-0.707 F600
X15.957 Y15.819 Z-1 I0.707 J0.707
X14.543 Y14.405 Z-1.5 I-0.707 J-0.707
X15.704 Y14.221 Z-1.7 I0.707 J0.707
X14.796 Y16.003 I-0.454 J0.891
X15.704 Y14.221 I0.454 J-0.891
G1 X15.742 Y14.248
X15.77 Y14.286
X15.784 Y14.331
Y14.378
X15.77 Y14.422
X15.735 Y14.489
X15.714 Y14.531 Z-1.693
X15.695 Y14.568 Z-1.671
X15.68 Y14.597 Z-1.638
X15.671 Y14.616 Z-1.596
X15.667 Y14.623 Z-1.55
G0 Z15

(2D-Kontur2)
X0.776 Y20.925
Z15
Z5
G1 Z2.5 F300
X7.25 Z2.274 F1016
G3 X7.25 Y22.925 Z2.164 I0 J1
G1 X-7.25 Z1.658
G3 X-7.25 Y20.925 Z1.548 I0 J-1
G1 X7.25 Z1.042
G3 X7.25 Y22.925 Z0.932 I0 J1
G1 X-7.25 Z0.426
G3 X-7.25 Y20.925 Z0.316 I0 J-1
G1 X7.25 Z-0.19
G3 X7.25 Y22.925 Z-0.3 I0 J1
G1 X-7.25 F600
G3 X-7.25 Y20.925 I0 J-1
G1 X7.25
G3 X7.25 Y22.925 I0 J1
G1 X-1.341 Z-0.6 F1016
X-7.25 F600
G3 X-7.25 Y20.925 I0 J-1
G1 X7.25
G3 X7.25 Y22.925 I0 J1
G1 X-1.341
X-7.25 Z-0.806 F1016
G3 X-7.694 Y21.029 Z-0.9 I0 J-1
X-7.25 Y20.925 I0.444 J0.896 F600
G1 X7.25
G3 X7.25 Y22.925 I0 J1
G1 X-1.341
X-7.25
G3 X-7.694 Y21.029 I0 J-1
X-7.25 Y20.925 Z-0.916 I0.444 J0.896 F1016
G1 X0.881 Z-1.2
X7.25 F600
G3 X7.25 Y22.925 I0 J1
G1 X-7.25
G3 X-7.25 Y20.925 I0 J-1
G1 X0.881
X7.25 Z-1.422 F1016
G3 X8.045 Y22.531 Z-1.5 I0 J1
X7.25 Y22.925 I-0.795 J-0.606 F600
G1 X-7.25
G3 X-7.25 Y20.925 I0 J-1
G1 X0.881
X7.25
G3 X8.045 Y22.531 I0 J1
X7.25 Y22.925 Z-1.532 I-0.795 J-0.606 F1016
G1 X5.306 Z-1.6
X-7.25 F600
G3 X-7.25 Y20.925 I0 J-1
G1 X7.25
G3 X7.25 Y22.925 I0 J1
G1 X5.306
G0 Z5
X2.365 Y-21.202
G1 Z2.5 F300
X-7.25 Z2.164 F1016
G3 X-7.25 Y-23.202 Z2.055 I0 J-1
G1 X7.25 Z1.548
G3 X7.25 Y-21.202 Z1.438 I0 J1
G1 X-7.25 Z0.932
G3 X-7.25 Y-23.202 Z0.822 I0 J-1
G1 X7.25 Z0.316
G3 X7.25 Y-21.202 Z0.206 I0 J1
G1 X-7.25 Z-0.3
G3 X-7.25 Y-23.202 I0 J-1 F600
G1 X7.25
G3 X7.25 Y-21.202 I0 J1
G1 X-7.25
G3 X-7.25 Y-23.202 Z-0.41 I0 J-1 F1016
G1 X-1.801 Z-0.6
X7.25 F600
G3 X7.25 Y-21.202 I0 J1
G1 X-7.25
G3 X-7.25 Y-23.202 I0 J-1
G1 X-1.801
X6.79 Z-0.9 F1016
X7.25 F600
G3 X7.25 Y-21.202 I0 J1
G1 X-7.25
G3 X-7.25 Y-23.202 I0 J-1
G1 X6.79
X7.25 Z-0.916 F1016
G3 X7.25 Y-21.202 Z-1.026 I0 J1
G1 X2.261 Z-1.2
X-7.25 F600
G3 X-7.25 Y-23.202 I0 J-1
G1 X6.79
X7.25
G3 X7.25 Y-21.202 I0 J1
G1 X2.261
X-6.33 Z-1.5 F1016
X-7.25 F600
G3 X-7.25 Y-23.202 I0 J-1
G1 X7.25
G3 X7.25 Y-21.202 I0 J1
G1 X-6.33
X-7.25 Z-1.532 F1016
G3 X-8.181 Y-22.567 Z-1.6 I0 J-1
X-7.25 Y-23.202 I0.931 J0.365 F600
G1 X7.25
G3 X7.25 Y-21.202 I0 J1
G1 X-6.33
X-7.25
G3 X-8.181 Y-22.567 I0 J-1
G0 Z15

(2D-Kontur3)
X-30.46 Y-22.252
Z15
Z5
G1 Z2.5 F300
X-30.476 Y-22.204 Z2.498 F1016
X-30.499 Y-22.122 Z2.495
X-30.546 Y-21.902 Z2.487
X-30.559 Y-21.819 Z2.484
X-30.581 Y-21.595 Z2.477
X-30.585 Y-21.51 Z2.474
X-30.581 Y-21.285 Z2.466
X-30.575 Y-21.201 Z2.463
X-30.547 Y-20.978 Z2.455
X-30.532 Y-20.895 Z2.452
X-30.478 Y-20.676 Z2.444
X-30.469 Y-20.643 Z2.443
X-30.339 Y-20.198 Z2.427
X-30.214 Y-19.742 Z2.41
X-30.095 Y-19.267 Z2.393
X-29.979 Y-18.775 Z2.376
X-29.867 Y-18.266 Z2.357
X-29.76 Y-17.74 Z2.339
X-29.657 Y-17.198 Z2.319
X-29.558 Y-16.641 Z2.3
X-29.464 Y-16.068 Z2.279
X-29.374 Y-15.481 Z2.259
X-29.288 Y-14.88 Z2.237
X-29.206 Y-14.266 Z2.216
X-29.129 Y-13.639 Z2.194
X-29.055 Y-13 Z2.171
X-28.986 Y-12.35 Z2.148
X-28.921 Y-11.689 Z2.125
X-28.86 Y-11.017 Z2.102
X-28.803 Y-10.337 Z2.078
X-28.702 Y-8.947 Z2.029
X-28.616 Y-7.526 Z1.979
X-28.546 Y-6.08 Z1.929
X-28.492 Y-4.613 Z1.878
X-28.453 Y-3.13 Z1.826
X-28.43 Y-1.637 Z1.774
X-28.422 Y-0.138 Z1.721
X-28.43 Y1.36 Z1.669
X-28.453 Y2.854 Z1.617
X-28.492 Y4.336 Z1.565
X-28.546 Y5.803 Z1.514
X-28.616 Y7.25 Z1.463
X-28.702 Y8.67 Z1.413
X-28.803 Y10.06 Z1.365
X-28.86 Y10.74 Z1.341
X-28.921 Y11.412 Z1.317
X-28.986 Y12.073 Z1.294
X-29.055 Y12.724 Z1.271
X-29.129 Y13.363 Z1.249
X-29.206 Y13.989 Z1.227
X-29.288 Y14.603 Z1.205
X-29.374 Y15.204 Z1.184
X-29.464 Y15.791 Z1.163
X-29.558 Y16.364 Z1.143
X-29.657 Y16.921 Z1.123
X-29.76 Y17.463 Z1.104
X-29.867 Y17.989 Z1.085
X-29.979 Y18.499 Z1.067
X-30.095 Y18.991 Z1.049
X-30.214 Y19.465 Z1.032
X-30.339 Y19.921 Z1.016
X-30.469 Y20.366 Z1
X-30.478 Y20.4 Z0.998
X-30.532 Y20.619 Z0.991
X-30.547 Y20.702 Z0.988
X-30.575 Y20.925 Z0.98
X-30.581 Y21.009 Z0.977
X-30.584 Y21.235 Z0.969
X-30.581 Y21.319 Z0.966
X-30.559 Y21.543 Z0.958
X-30.546 Y21.627 Z0.955
X-30.498 Y21.847 Z0.947
X-30.476 Y21.929 Z0.944
X-30.404 Y22.143 Z0.936
X-30.373 Y22.221 Z0.933
X-30.277 Y22.425 Z0.926
X-30.237 Y22.499 Z0.923
X-30.12 Y22.691 Z0.915
X-30.072 Y22.76 Z0.912
X-29.933 Y22.938 Z0.904
X-29.878 Y23.001 Z0.901
X-29.72 Y23.162 Z0.893
X-29.658 Y23.219 Z0.89
X-29.484 Y23.361 Z0.882
X-29.415 Y23.411 Z0.879
X-29.226 Y23.532 Z0.872
X-29.152 Y23.574 Z0.869
X-28.95 Y23.674 Z0.861
X-28.872 Y23.707 Z0.858
X-28.661 Y23.783 Z0.85
X-28.58 Y23.807 Z0.847
X-28.361 Y23.859 Z0.839
X-28.278 Y23.874 Z0.836
X-28.054 Y23.901 Z0.828
X-28.012 Y23.905 Z0.827
G3 X-24.04 Y27.933 Z0.611 I-0.272 J4.241
G1 X-24.036 Y27.975 Z0.609
X-24.012 Y28.198 Z0.601
X-23.999 Y28.282 Z0.598
X-23.95 Y28.501 Z0.591
X-23.927 Y28.582 Z0.588
X-23.854 Y28.795 Z0.58
X-23.822 Y28.872 Z0.577
X-23.726 Y29.076 Z0.569
X-23.685 Y29.15 Z0.566
X-23.566 Y29.341 Z0.558
X-23.518 Y29.409 Z0.555
X-23.379 Y29.586 Z0.547
X-23.322 Y29.649 Z0.544
X-23.164 Y29.809 Z0.537
X-23.102 Y29.865 Z0.534
X-22.927 Y30.005 Z0.526
X-22.859 Y30.054 Z0.523
X-22.669 Y30.175 Z0.515
X-22.595 Y30.216 Z0.512
X-22.393 Y30.314 Z0.504
X-22.315 Y30.347 Z0.501
X-22.104 Y30.421 Z0.493
X-22.023 Y30.445 Z0.49
X-21.805 Y30.496 Z0.483
X-21.722 Y30.51 Z0.48
X-21.498 Y30.536 Z0.472
X-21.414 Y30.541 Z0.469
X-21.189 Y30.542 Z0.461
X-21.105 Y30.537 Z0.458
X-20.883 Y30.513 Z0.45
X-20.799 Y30.499 Z0.447
X-20.58 Y30.45 Z0.44
X-20.547 Y30.441 Z0.438
X-20.104 Y30.32 Z0.422
X-19.65 Y30.204 Z0.406
X-19.177 Y30.093 Z0.389
X-18.686 Y29.985 Z0.371
X-18.178 Y29.881 Z0.353
X-17.653 Y29.782 Z0.335
X-17.111 Y29.686 Z0.315
X-16.554 Y29.594 Z0.296
X-15.981 Y29.506 Z0.275
X-15.393 Y29.423 Z0.255
X-14.792 Y29.343 Z0.234
X-14.177 Y29.267 Z0.212
X-13.549 Y29.195 Z0.19
X-12.909 Y29.126 Z0.167
X-12.257 Y29.062 Z0.144
X-11.594 Y29.001 Z0.121
X-10.92 Y28.945 Z0.098
X-10.238 Y28.892 Z0.074
X-8.843 Y28.797 Z0.025
X-7.418 Y28.717 Z-0.025
X-5.966 Y28.652 Z-0.076
X-4.493 Y28.602 Z-0.127
X-3.005 Y28.566 Z-0.179
X-1.505 Y28.544 Z-0.232
X0 Y28.537 Z-0.284
X0.455 Y28.539 Z-0.3
X1.505 Y28.544 F600
X3.005 Y28.566
X4.493 Y28.602
X5.966 Y28.652
X7.418 Y28.717
X8.843 Y28.797
X10.238 Y28.892
X10.92 Y28.945
X11.594 Y29.001
X12.257 Y29.062
X12.909 Y29.126
X13.549 Y29.195
X14.177 Y29.267
X14.792 Y29.343
X15.393 Y29.423
X15.981 Y29.506
X16.554 Y29.594
X17.111 Y29.686
X17.653 Y29.782
X18.178 Y29.881
X18.686 Y29.985
X19.177 Y30.093
X19.65 Y30.204
X20.104 Y30.32
X20.547 Y30.441
X20.58 Y30.45
X20.8 Y30.499
X20.883 Y30.513
X21.106 Y30.537
X21.19 Y30.542
X21.415 Y30.541
X21.499 Y30.536
X21.723 Y30.51
X21.806 Y30.495
X22.025 Y30.445
X22.105 Y30.421
X22.317 Y30.346
X22.395 Y30.313
X22.597 Y30.215
X22.671 Y30.174
X22.86 Y30.054
X22.928 Y30.005
X23.103 Y29.864
X23.166 Y29.807
X23.324 Y29.648
X23.38 Y29.584
X23.519 Y29.408
X23.567 Y29.339
X23.686 Y29.149
X23.726 Y29.075
X23.822 Y28.872
X23.854 Y28.793
X23.927 Y28.581
X23.95 Y28.5
X23.999 Y28.281
X24.012 Y28.198
X24.036 Y27.975
X24.04 Y27.933
G3 X28.011 Y23.905 I4.245 J0.213
G1 X28.053 Y23.901
X28.278 Y23.874
X28.361 Y23.859
X28.58 Y23.807
X28.662 Y23.783
X28.874 Y23.706
X28.951 Y23.673
X29.153 Y23.574
X29.227 Y23.532
X29.416 Y23.41
X29.485 Y23.36
X29.659 Y23.218
X29.722 Y23.161
X29.879 Y23
X29.935 Y22.936
X30.073 Y22.759
X30.121 Y22.69
X30.238 Y22.498
X30.278 Y22.423
X30.373 Y22.219
X30.405 Y22.14
X30.476 Y21.927
X30.499 Y21.846
X30.546 Y21.626
X30.559 Y21.543
X30.581 Y21.318
X30.585 Y21.234
X30.581 Y21.009
X30.575 Y20.924
X30.547 Y20.701
X30.532 Y20.619
X30.478 Y20.4
X30.469 Y20.366
X30.339 Y19.921
X30.214 Y19.465
X30.095 Y18.991
X29.979 Y18.499
X29.867 Y17.989
X29.76 Y17.463
X29.657 Y16.921
X29.558 Y16.364
X29.464 Y15.791
X29.374 Y15.204
X29.288 Y14.603
X29.206 Y13.989
X29.129 Y13.363
X29.055 Y12.724
X28.986 Y12.073
X28.921 Y11.412
X28.86 Y10.74
X28.803 Y10.06
X28.702 Y8.67
X28.616 Y7.25
X28.546 Y5.803
X28.492 Y4.336
X28.453 Y2.854
X28.43 Y1.36
X28.422 Y-0.138
X28.43 Y-1.637
X28.453 Y-3.13
X28.492 Y-4.613
X28.546 Y-6.08
X28.616 Y-7.526
X28.702 Y-8.947
X28.803 Y-10.337
X28.86 Y-11.017
X28.921 Y-11.689
X28.986 Y-12.35
X29.055 Y-13
X29.129 Y-13.639
X29.206 Y-14.266
X29.288 Y-14.88
X29.374 Y-15.481
X29.464 Y-16.068
X29.558 Y-16.641
X29.657 Y-17.198
X29.76 Y-17.74
X29.867 Y-18.266
X29.979 Y-18.775
X30.095 Y-19.267
X30.214 Y-19.742
X30.339 Y-20.198
X30.469 Y-20.643
X30.478 Y-20.676
X30.532 Y-20.895
X30.547 Y-20.979
X30.575 Y-21.202
X30.581 Y-21.286
X30.584 Y-21.512
X30.581 Y-21.596
X30.559 Y-21.82
X30.546 Y-21.904
X30.498 Y-22.124
X30.476 Y-22.205
X30.404 Y-22.419
X30.373 Y-22.498
X30.277 Y-22.701
X30.237 Y-22.776
X30.12 Y-22.967
X30.072 Y-23.037
X29.934 Y-23.214
X29.878 Y-23.278
X29.72 Y-23.439
X29.658 Y-23.496
X29.484 Y-23.638
X29.415 Y-23.688
X29.226 Y-23.809
X29.153 Y-23.851
X28.95 Y-23.95
X28.872 Y-23.983
X28.661 Y-24.06
X28.58 Y-24.084
X28.361 Y-24.136
X28.278 Y-24.15
X28.054 Y-24.177
X28.012 Y-24.181
G3 X24.051 Y-28.041 I0.272 J-4.241
G1 X24.046 Y-28.083
X24.013 Y-28.307
X23.996 Y-28.391
X23.938 Y-28.61
X23.912 Y-28.69
X23.829 Y-28.901
X23.794 Y-28.978
X23.688 Y-29.179
X23.644 Y-29.251
X23.516 Y-29.438
X23.464 Y-29.506
X23.316 Y-29.677
X23.257 Y-29.738
X23.091 Y-29.891
X23.025 Y-29.945
X22.843 Y-30.078
X22.772 Y-30.125
X22.575 Y-30.237
X22.499 Y-30.275
X22.29 Y-30.364
X22.211 Y-30.393
X21.994 Y-30.458
X21.912 Y-30.478
X21.69 Y-30.518
X21.605 Y-30.528
X21.379 Y-30.543
X21.294 Y-30.544
X21.068 Y-30.533
X20.984 Y-30.524
X20.761 Y-30.488
X20.678 Y-30.469
X20.46 Y-30.408
X20.427 Y-30.398
X19.977 Y-30.249
X19.516 Y-30.107
X19.038 Y-29.97
X18.543 Y-29.838
X18.031 Y-29.711
X17.503 Y-29.589
X16.96 Y-29.471
X16.402 Y-29.359
X15.829 Y-29.251
X15.243 Y-29.148
X14.643 Y-29.05
X14.031 Y-28.957
X13.406 Y-28.868
X12.769 Y-28.784
X12.122 Y-28.705
X11.464 Y-28.631
X10.796 Y-28.561
X10.12 Y-28.497
X8.738 Y-28.38
X7.328 Y-28.283
X5.893 Y-28.203
X4.437 Y-28.141
X2.967 Y-28.097
X1.486 Y-28.07
X0 Y-28.062
X-1.486 Y-28.07
X-2.967 Y-28.097
X-4.437 Y-28.141
X-5.893 Y-28.203
X-7.328 Y-28.283
X-8.738 Y-28.38
X-10.12 Y-28.497
X-10.796 Y-28.561
X-11.464 Y-28.631
X-12.122 Y-28.705
X-12.769 Y-28.784
X-13.406 Y-28.868
X-14.031 Y-28.957
X-14.643 Y-29.05
X-15.243 Y-29.148
X-15.829 Y-29.251
X-16.402 Y-29.359
X-16.96 Y-29.471
X-17.503 Y-29.589
X-18.031 Y-29.711
X-18.543 Y-29.838
X-19.038 Y-29.97
X-19.516 Y-30.107
X-19.977 Y-30.249
X-20.427 Y-30.398
X-20.46 Y-30.408
X-20.678 Y-30.47
X-20.761 Y-30.488
X-20.984 Y-30.524
X-21.069 Y-30.533
X-21.295 Y-30.544
X-21.38 Y-30.543
X-21.606 Y-30.528
X-21.69 Y-30.518
X-21.913 Y-30.477
X-21.996 Y-30.457
X-22.213 Y-30.392
X-22.293 Y-30.363
X-22.5 Y-30.274
X-22.577 Y-30.236
X-22.773 Y-30.124
X-22.844 Y-30.078
X-23.026 Y-29.944
X-23.092 Y-29.89
X-23.258 Y-29.737
X-23.318 Y-29.675
X-23.465 Y-29.504
X-23.517 Y-29.437
X-23.644 Y-29.25
X-23.688 Y-29.178
X-23.794 Y-28.978
X-23.829 Y-28.9
X-23.912 Y-28.69
X-23.938 Y-28.609
X-23.996 Y-28.391
X-24.013 Y-28.307
X-24.046 Y-28.083
X-24.051 Y-28.041
G3 X-28.012 Y-24.181 I-4.233 J-0.381
G1 X-28.054 Y-24.177
X-28.278 Y-24.15
X-28.361 Y-24.136
X-28.58 Y-24.084
X-28.662 Y-24.059
X-28.874 Y-23.983
X-28.951 Y-23.95
X-29.153 Y-23.85
X-29.227 Y-23.808
X-29.416 Y-23.687
X-29.485 Y-23.637
X-29.659 Y-23.495
X-29.722 Y-23.437
X-29.879 Y-23.276
X-29.935 Y-23.213
X-30.073 Y-23.036
X-30.121 Y-22.966
X-30.238 Y-22.774
X-30.278 Y-22.7
X-30.373 Y-22.496
X-30.405 Y-22.417
X-30.476 Y-22.204
X-30.499 Y-22.122
X-30.546 Y-21.902
X-30.559 Y-21.819
X-30.581 Y-21.595
X-30.585 Y-21.51
X-30.581 Y-21.285
X-30.575 Y-21.201
X-30.547 Y-20.978
X-30.532 Y-20.895
X-30.478 Y-20.676
X-30.469 Y-20.643
X-30.339 Y-20.198
X-30.214 Y-19.742
X-30.095 Y-19.267
X-29.979 Y-18.775
X-29.867 Y-18.266
X-29.76 Y-17.74
X-29.657 Y-17.198
X-29.558 Y-16.641
X-29.464 Y-16.068
X-29.374 Y-15.481
X-29.288 Y-14.88
X-29.206 Y-14.266
X-29.129 Y-13.639
X-29.055 Y-13
X-28.986 Y-12.35
X-28.921 Y-11.689
X-28.86 Y-11.017
X-28.803 Y-10.337
X-28.702 Y-8.947
X-28.616 Y-7.526
X-28.546 Y-6.08
X-28.492 Y-4.613
X-28.453 Y-3.13
X-28.43 Y-1.637
X-28.422 Y-0.138
X-28.43 Y1.36
X-28.453 Y2.854
X-28.492 Y4.336
X-28.546 Y5.803
X-28.616 Y7.25
X-28.702 Y8.67
X-28.803 Y10.06
X-28.86 Y10.74
X-28.921 Y11.412
X-28.986 Y12.073
X-29.055 Y12.724
X-29.129 Y13.363
X-29.206 Y13.989
X-29.288 Y14.603
X-29.374 Y15.204
X-29.464 Y15.791
X-29.558 Y16.364
X-29.657 Y16.921
X-29.76 Y17.463
X-29.867 Y17.989
X-29.979 Y18.499
X-30.095 Y18.991
X-30.214 Y19.465
X-30.339 Y19.921
X-30.469 Y20.366
X-30.478 Y20.4
X-30.532 Y20.619
X-30.547 Y20.702
X-30.575 Y20.925
X-30.581 Y21.009
X-30.584 Y21.235
X-30.581 Y21.319
X-30.559 Y21.543
X-30.546 Y21.627
X-30.498 Y21.847
X-30.476 Y21.929
X-30.404 Y22.143
X-30.373 Y22.221
X-30.277 Y22.425
X-30.237 Y22.499
X-30.12 Y22.691
X-30.072 Y22.76
X-29.933 Y22.938
X-29.878 Y23.001
X-29.72 Y23.162
X-29.658 Y23.219
X-29.484 Y23.361
X-29.415 Y23.411
X-29.226 Y23.532
X-29.152 Y23.574
X-28.95 Y23.674
X-28.872 Y23.707
X-28.661 Y23.783
X-28.58 Y23.807
X-28.361 Y23.859
X-28.278 Y23.874
X-28.054 Y23.901
X-28.012 Y23.905
G3 X-24.04 Y27.933 I-0.272 J4.241
G1 X-24.036 Y27.975
X-24.012 Y28.198
X-23.999 Y28.282
X-23.95 Y28.501
X-23.927 Y28.582
X-23.854 Y28.795
X-23.822 Y28.872
X-23.726 Y29.076
X-23.685 Y29.15
X-23.566 Y29.341
X-23.518 Y29.409
X-23.379 Y29.586
X-23.322 Y29.649
X-23.164 Y29.809
X-23.102 Y29.865
X-22.927 Y30.005
X-22.859 Y30.054
X-22.669 Y30.175
X-22.595 Y30.216
X-22.393 Y30.314
X-22.315 Y30.347
X-22.104 Y30.421
X-22.023 Y30.445
X-21.805 Y30.496
X-21.722 Y30.51
X-21.498 Y30.536
X-21.414 Y30.541
X-21.189 Y30.542
X-21.105 Y30.537
X-20.883 Y30.513
X-20.799 Y30.499
X-20.58 Y30.45
X-20.547 Y30.441
X-20.104 Y30.32
X-19.65 Y30.204
X-19.177 Y30.093
X-18.686 Y29.985
X-18.178 Y29.881
X-17.653 Y29.782
X-17.111 Y29.686
X-16.554 Y29.594
X-15.981 Y29.506
X-15.393 Y29.423
X-14.792 Y29.343
X-14.177 Y29.267
X-13.549 Y29.195
X-12.909 Y29.126
X-12.257 Y29.062
X-11.594 Y29.001
X-10.92 Y28.945
X-10.238 Y28.892
X-8.843 Y28.797
X-7.418 Y28.717
X-5.966 Y28.652
X-4.493 Y28.602
X-3.005 Y28.566
X-1.505 Y28.544
X0 Y28.537
X0.455 Y28.539
X1.505 Y28.544 Z-0.337 F1016
X3.005 Y28.566 Z-0.389
X4.493 Y28.602 Z-0.441
X5.966 Y28.652 Z-0.493
X7.418 Y28.717 Z-0.543
X8.843 Y28.797 Z-0.593
X9.041 Y28.811 Z-0.6
X10.238 Y28.892 F600
X10.92 Y28.945
X11.594 Y29.001
X12.257 Y29.062
X12.909 Y29.126
X13.549 Y29.195
X14.177 Y29.267
X14.792 Y29.343
X15.393 Y29.423
X15.981 Y29.506
X16.554 Y29.594
X17.111 Y29.686
X17.653 Y29.782
X18.178 Y29.881
X18.686 Y29.985
X19.177 Y30.093
X19.65 Y30.204
X20.104 Y30.32
X20.547 Y30.441
X20.58 Y30.45
X20.8 Y30.499
X20.883 Y30.513
X21.106 Y30.537
X21.19 Y30.542
X21.415 Y30.541
X21.499 Y30.536
X21.723 Y30.51
X21.806 Y30.495
X22.025 Y30.445
X22.105 Y30.421
X22.317 Y30.346
X22.395 Y30.313
X22.597 Y30.215
X22.671 Y30.174
X22.86 Y30.054
X22.928 Y30.005
X23.103 Y29.864
X23.166 Y29.807
X23.324 Y29.648
X23.38 Y29.584
X23.519 Y29.408
X23.567 Y29.339
X23.686 Y29.149
X23.726 Y29.075
X23.822 Y28.872
X23.854 Y28.793
X23.927 Y28.581
X23.95 Y28.5
X23.999 Y28.281
X24.012 Y28.198
X24.036 Y27.975
X24.04 Y27.933
G3 X28.011 Y23.905 I4.245 J0.213
G1 X28.053 Y23.901
X28.278 Y23.874
X28.361 Y23.859
X28.58 Y23.807
X28.662 Y23.783
X28.874 Y23.706
X28.951 Y23.673
X29.153 Y23.574
X29.227 Y23.532
X29.416 Y23.41
X29.485 Y23.36
X29.659 Y23.218
X29.722 Y23.161
X29.879 Y23
X29.935 Y22.936
X30.073 Y22.759
X30.121 Y22.69
X30.238 Y22.498
X30.278 Y22.423
X30.373 Y22.219
X30.405 Y22.14
X30.476 Y21.927
X30.499 Y21.846
X30.546 Y21.626
X30.559 Y21.543
X30.581 Y21.318
X30.585 Y21.234
X30.581 Y21.009
X30.575 Y20.924
X30.547 Y20.701
X30.532 Y20.619
X30.478 Y20.4
X30.469 Y20.366
X30.339 Y19.921
X30.214 Y19.465
X30.095 Y18.991
X29.979 Y18.499
X29.867 Y17.989
X29.76 Y17.463
X29.657 Y16.921
X29.558 Y16.364
X29.464 Y15.791
X29.374 Y15.204
X29.288 Y14.603
X29.206 Y13.989
X29.129 Y13.363
X29.055 Y12.724
X28.986 Y12.073
X28.921 Y11.412
X28.86 Y10.74
X28.803 Y10.06
X28.702 Y8.67
X28.616 Y7.25
X28.546 Y5.803
X28.492 Y4.336
X28.453 Y2.854
X28.43 Y1.36
X28.422 Y-0.138
X28.43 Y-1.637
X28.453 Y-3.13
X28.492 Y-4.613
X28.546 Y-6.08
X28.616 Y-7.526
X28.702 Y-8.947
X28.803 Y-10.337
X28.86 Y-11.017
X28.921 Y-11.689
X28.986 Y-12.35
X29.055 Y-13
X29.129 Y-13.639
X29.206 Y-14.266
X29.288 Y-14.88
X29.374 Y-15.481
X29.464 Y-16.068
X29.558 Y-16.641
X29.657 Y-17.198
X29.76 Y-17.74
X29.867 Y-18.266
X29.979 Y-18.775
X30.095 Y-19.267
X30.214 Y-19.742
X30.339 Y-20.198
X30.469 Y-20.643
X30.478 Y-20.676
X30.532 Y-20.895
X30.547 Y-20.979
X30.575 Y-21.202
X30.581 Y-21.286
X30.584 Y-21.512
X30.581 Y-21.596
X30.559 Y-21.82
X30.546 Y-21.904
X30.498 Y-22.124
X30.476 Y-22.205
X30.404 Y-22.419
X30.373 Y-22.498
X30.277 Y-22.701
X30.237 Y-22.776
X30.12 Y-22.967
X30.072 Y-23.037
X29.934 Y-23.214
X29.878 Y-23.278
X29.72 Y-23.439
X29.658 Y-23.496
X29.484 Y-23.638
X29.415 Y-23.688
X29.226 Y-23.809
X29.153 Y-23.851
X28.95 Y-23.95
X28.872 Y-23.983
X28.661 Y-24.06
X28.58 Y-24.084
X28.361 Y-24.136
X28.278 Y-24.15
X28.054 Y-24.177
X28.012 Y-24.181
G3 X24.051 Y-28.041 I0.272 J-4.241
G1 X24.046 Y-28.083
X24.013 Y-28.307
X23.996 Y-28.391
X23.938 Y-28.61
X23.912 Y-28.69
X23.829 Y-28.901
X23.794 Y-28.978
X23.688 Y-29.179
X23.644 Y-29.251
X23.516 Y-29.438
X23.464 Y-29.506
X23.316 Y-29.677
X23.257 Y-29.738
X23.091 Y-29.891
X23.025 Y-29.945
X22.843 Y-30.078
X22.772 Y-30.125
X22.575 Y-30.237
X22.499 Y-30.275
X22.29 Y-30.364
X22.211 Y-30.393
X21.994 Y-30.458
X21.912 Y-30.478
X21.69 Y-30.518
X21.605 Y-30.528
X21.379 Y-30.543
X21.294 Y-30.544
X21.068 Y-30.533
X20.984 Y-30.524
X20.761 Y-30.488
X20.678 Y-30.469
X20.46 Y-30.408
X20.427 Y-30.398
X19.977 Y-30.249
X19.516 Y-30.107
X19.038 Y-29.97
X18.543 Y-29.838
X18.031 Y-29.711
X17.503 Y-29.589
X16.96 Y-29.471
X16.402 Y-29.359
X15.829 Y-29.251
X15.243 Y-29.148
X14.643 Y-29.05
X14.031 Y-28.957
X13.406 Y-28.868
X12.769 Y-28.784
X12.122 Y-28.705
X11.464 Y-28.631
X10.796 Y-28.561
X10.12 Y-28.497
X8.738 Y-28.38
X7.328 Y-28.283
X5.893 Y-28.203
X4.437 Y-28.141
X2.967 Y-28.097
X1.486 Y-28.07
X0 Y-28.062
X-1.486 Y-28.07
X-2.967 Y-28.097
X-4.437 Y-28.141
X-5.893 Y-28.203
X-7.328 Y-28.283
X-8.738 Y-28.38
X-10.12 Y-28.497
X-10.796 Y-28.561
X-11.464 Y-28.631
X-12.122 Y-28.705
X-12.769 Y-28.784
X-13.406 Y-28.868
X-14.031 Y-28.957
X-14.643 Y-29.05
X-15.243 Y-29.148
X-15.829 Y-29.251
X-16.402 Y-29.359
X-16.96 Y-29.471
X-17.503 Y-29.589
X-18.031 Y-29.711
X-18.543 Y-29.838
X-19.038 Y-29.97
X-19.516 Y-30.107
X-19.977 Y-30.249
X-20.427 Y-30.398
X-20.46 Y-30.408
X-20.678 Y-30.47
X-20.761 Y-30.488
X-20.984 Y-30.524
X-21.069 Y-30.533
X-21.295 Y-30.544
X-21.38 Y-30.543
X-21.606 Y-30.528
X-21.69 Y-30.518
X-21.913 Y-30.477
X-21.996 Y-30.457
X-22.213 Y-30.392
X-22.293 Y-30.363
X-22.5 Y-30.274
X-22.577 Y-30.236
X-22.773 Y-30.124
X-22.844 Y-30.078
X-23.026 Y-29.944
X-23.092 Y-29.89
X-23.258 Y-29.737
X-23.318 Y-29.675
X-23.465 Y-29.504
X-23.517 Y-29.437
X-23.644 Y-29.25
X-23.688 Y-29.178
X-23.794 Y-28.978
X-23.829 Y-28.9
X-23.912 Y-28.69
X-23.938 Y-28.609
X-23.996 Y-28.391
X-24.013 Y-28.307
X-24.046 Y-28.083
X-24.051 Y-28.041
G3 X-28.012 Y-24.181 I-4.233 J-0.381
G1 X-28.054 Y-24.177
X-28.278 Y-24.15
X-28.361 Y-24.136
X-28.58 Y-24.084
X-28.662 Y-24.059
X-28.874 Y-23.983
X-28.951 Y-23.95
X-29.153 Y-23.85
X-29.227 Y-23.808
X-29.416 Y-23.687
X-29.485 Y-23.637
X-29.659 Y-23.495
X-29.722 Y-23.437
X-29.879 Y-23.276
X-29.935 Y-23.213
X-30.073 Y-23.036
X-30.121 Y-22.966
X-30.238 Y-22.774
X-30.278 Y-22.7
X-30.373 Y-22.496
X-30.405 Y-22.417
X-30.476 Y-22.204
X-30.499 Y-22.122
X-30.546 Y-21.902
X-30.559 Y-21.819
X-30.581 Y-21.595
X-30.585 Y-21.51
X-30.581 Y-21.285
X-30.575 Y-21.201
X-30.547 Y-20.978
X-30.532 Y-20.895
X-30.478 Y-20.676
X-30.469 Y-20.643
X-30.339 Y-20.198
X-30.214 Y-19.742
X-30.095 Y-19.267
X-29.979 Y-18.775
X-29.867 Y-18.266
X-29.76 Y-17.74
X-29.657 Y-17.198
X-29.558 Y-16.641
X-29.464 Y-16.068
X-29.374 Y-15.481
X-29.288 Y-14.88
X-29.206 Y-14.266
X-29.129 Y-13.639
X-29.055 Y-13
X-28.986 Y-12.35
X-28.921 Y-11.689
X-28.86 Y-11.017
X-28.803 Y-10.337
X-28.702 Y-8.947
X-28.616 Y-7.526
X-28.546 Y-6.08
X-28.492 Y-4.613
X-28.453 Y-3.13
X-28.43 Y-1.637
X-28.422 Y-0.138
X-28.43 Y1.36
X-28.453 Y2.854
X-28.492 Y4.336
X-28.546 Y5.803
X-28.616 Y7.25
X-28.702 Y8.67
X-28.803 Y10.06
X-28.86 Y10.74
X-28.921 Y11.412
X-28.986 Y12.073
X-29.055 Y12.724
X-29.129 Y13.363
X-29.206 Y13.989
X-29.288 Y14.603
X-29.374 Y15.204
X-29.464 Y15.791
X-29.558 Y16.364
X-29.657 Y16.921
X-29.76 Y17.463
X-29.867 Y17.989
X-29.979 Y18.499
X-30.095 Y18.991
X-30.214 Y19.465
X-30.339 Y19.921
X-30.469 Y20.366
X-30.478 Y20.4
X-30.532 Y20.619
X-30.547 Y20.702
X-30.575 Y20.925
X-30.581 Y21.009
X-30.584 Y21.235
X-30.581 Y21.319
X-30.559 Y21.543
X-30.546 Y21.627
X-30.498 Y21.847
X-30.476 Y21.929
X-30.404 Y22.143
X-30.373 Y22.221
X-30.277 Y22.425
X-30.237 Y22.499
X-30.12 Y22.691
X-30.072 Y22.76
X-29.933 Y22.938
X-29.878 Y23.001
X-29.72 Y23.162
X-29.658 Y23.219
X-29.484 Y23.361
X-29.415 Y23.411
X-29.226 Y23.532
X-29.152 Y23.574
X-28.95 Y23.674
X-28.872 Y23.707
X-28.661 Y23.783
X-28.58 Y23.807
X-28.361 Y23.859
X-28.278 Y23.874
X-28.054 Y23.901
X-28.012 Y23.905
G3 X-24.04 Y27.933 I-0.272 J4.241
G1 X-24.036 Y27.975
X-24.012 Y28.198
X-23.999 Y28.282
X-23.95 Y28.501
X-23.927 Y28.582
X-23.854 Y28.795
X-23.822 Y28.872
X-23.726 Y29.076
X-23.685 Y29.15
X-23.566 Y29.341
X-23.518 Y29.409
X-23.379 Y29.586
X-23.322 Y29.649
X-23.164 Y29.809
X-23.102 Y29.865
X-22.927 Y30.005
X-22.859 Y30.054
X-22.669 Y30.175
X-22.595 Y30.216
X-22.393 Y30.314
X-22.315 Y30.347
X-22.104 Y30.421
X-22.023 Y30.445
X-21.805 Y30.496
X-21.722 Y30.51
X-21.498 Y30.536
X-21.414 Y30.541
X-21.189 Y30.542
X-21.105 Y30.537
X-20.883 Y30.513
X-20.799 Y30.499
X-20.58 Y30.45
X-20.547 Y30.441
X-20.104 Y30.32
X-19.65 Y30.204
X-19.177 Y30.093
X-18.686 Y29.985
X-18.178 Y29.881
X-17.653 Y29.782
X-17.111 Y29.686
X-16.554 Y29.594
X-15.981 Y29.506
X-15.393 Y29.423
X-14.792 Y29.343
X-14.177 Y29.267
X-13.549 Y29.195
X-12.909 Y29.126
X-12.257 Y29.062
X-11.594 Y29.001
X-10.92 Y28.945
X-10.238 Y28.892
X-8.843 Y28.797
X-7.418 Y28.717
X-5.966 Y28.652
X-4.493 Y28.602
X-3.005 Y28.566
X-1.505 Y28.544
X0 Y28.537
X1.505 Y28.544
X3.005 Y28.566
X4.493 Y28.602
X5.966 Y28.652
X7.418 Y28.717
X8.843 Y28.797
X9.041 Y28.811
X10.238 Y28.892 Z-0.642 F1016
X10.92 Y28.945 Z-0.666
X11.594 Y29.001 Z-0.689
X12.257 Y29.062 Z-0.713
X12.909 Y29.126 Z-0.736
X13.549 Y29.195 Z-0.758
X14.177 Y29.267 Z-0.78
X14.792 Y29.343 Z-0.802
X15.393 Y29.423 Z-0.823
X15.981 Y29.506 Z-0.844
X16.554 Y29.594 Z-0.864
X17.111 Y29.686 Z-0.884
X17.573 Y29.768 Z-0.9
X17.653 Y29.782 F600
X18.178 Y29.881
X18.686 Y29.985
X19.177 Y30.093
X19.65 Y30.204
X20.104 Y30.32
X20.547 Y30.441
X20.58 Y30.45
X20.8 Y30.499
X20.883 Y30.513
X21.106 Y30.537
X21.19 Y30.542
X21.415 Y30.541
X21.499 Y30.536
X21.723 Y30.51
X21.806 Y30.495
X22.025 Y30.445
X22.105 Y30.421
X22.317 Y30.346
X22.395 Y30.313
X22.597 Y30.215
X22.671 Y30.174
X22.86 Y30.054
X22.928 Y30.005
X23.103 Y29.864
X23.166 Y29.807
X23.324 Y29.648
X23.38 Y29.584
X23.519 Y29.408
X23.567 Y29.339
X23.686 Y29.149
X23.726 Y29.075
X23.822 Y28.872
X23.854 Y28.793
X23.927 Y28.581
X23.95 Y28.5
X23.999 Y28.281
X24.012 Y28.198
X24.036 Y27.975
X24.04 Y27.933
G3 X28.011 Y23.905 I4.245 J0.213
G1 X28.053 Y23.901
X28.278 Y23.874
X28.361 Y23.859
X28.58 Y23.807
X28.662 Y23.783
X28.874 Y23.706
X28.951 Y23.673
X29.153 Y23.574
X29.227 Y23.532
X29.416 Y23.41
X29.485 Y23.36
X29.659 Y23.218
X29.722 Y23.161
X29.879 Y23
X29.935 Y22.936
X30.073 Y22.759
X30.121 Y22.69
X30.238 Y22.498
X30.278 Y22.423
X30.373 Y22.219
X30.405 Y22.14
X30.476 Y21.927
X30.499 Y21.846
X30.546 Y21.626
X30.559 Y21.543
X30.581 Y21.318
X30.585 Y21.234
X30.581 Y21.009
X30.575 Y20.924
X30.547 Y20.701
X30.532 Y20.619
X30.478 Y20.4
X30.469 Y20.366
X30.339 Y19.921
X30.214 Y19.465
X30.095 Y18.991
X29.979 Y18.499
X29.867 Y17.989
X29.76 Y17.463
X29.657 Y16.921
X29.558 Y16.364
X29.464 Y15.791
X29.374 Y15.204
X29.288 Y14.603
X29.206 Y13.989
X29.129 Y13.363
X29.055 Y12.724
X28.986 Y12.073
X28.921 Y11.412
X28.86 Y10.74
X28.803 Y10.06
X28.702 Y8.67
X28.616 Y7.25
X28.546 Y5.803
X28.492 Y4.336
X28.453 Y2.854
X28.441 Y2.112
Z-0.6
X28.43 Y1.36
X28.422 Y-0.138
X28.43 Y-1.637
X28.441 Y-2.388
Z-0.9 F300
X28.453 Y-3.13 F600
X28.492 Y-4.613
X28.546 Y-6.08
X28.616 Y-7.526
X28.702 Y-8.947
X28.803 Y-10.337
X28.86 Y-11.017
X28.921 Y-11.689
X28.986 Y-12.35
X29.055 Y-13
X29.129 Y-13.639
X29.206 Y-14.266
X29.288 Y-14.88
X29.374 Y-15.481
X29.464 Y-16.068
X29.558 Y-16.641
X29.657 Y-17.198
X29.76 Y-17.74
X29.867 Y-18.266
X29.979 Y-18.775
X30.095 Y-19.267
X30.214 Y-19.742
X30.339 Y-20.198
X30.469 Y-20.643
X30.478 Y-20.676
X30.532 Y-20.895
X30.547 Y-20.979
X30.575 Y-21.202
X30.581 Y-21.286
X30.584 Y-21.512
X30.581 Y-21.596
X30.559 Y-21.82
X30.546 Y-21.904
X30.498 Y-22.124
X30.476 Y-22.205
X30.404 Y-22.419
X30.373 Y-22.498
X30.277 Y-22.701
X30.237 Y-22.776
X30.12 Y-22.967
X30.072 Y-23.037
X29.934 Y-23.214
X29.878 Y-23.278
X29.72 Y-23.439
X29.658 Y-23.496
X29.484 Y-23.638
X29.415 Y-23.688
X29.226 Y-23.809
X29.153 Y-23.851
X28.95 Y-23.95
X28.872 Y-23.983
X28.661 Y-24.06
X28.58 Y-24.084
X28.361 Y-24.136
X28.278 Y-24.15
X28.054 Y-24.177
X28.012 Y-24.181
G3 X24.051 Y-28.041 I0.272 J-4.241
G1 X24.046 Y-28.083
X24.013 Y-28.307
X23.996 Y-28.391
X23.938 Y-28.61
X23.912 Y-28.69
X23.829 Y-28.901
X23.794 Y-28.978
X23.688 Y-29.179
X23.644 Y-29.251
X23.516 Y-29.438
X23.464 Y-29.506
X23.316 Y-29.677
X23.257 Y-29.738
X23.091 Y-29.891
X23.025 Y-29.945
X22.843 Y-30.078
X22.772 Y-30.125
X22.575 Y-30.237
X22.499 Y-30.275
X22.29 Y-30.364
X22.211 Y-30.393
X21.994 Y-30.458
X21.912 Y-30.478
X21.69 Y-30.518
X21.605 Y-30.528
X21.379 Y-30.543
X21.294 Y-30.544
X21.068 Y-30.533
X20.984 Y-30.524
X20.761 Y-30.488
X20.678 Y-30.469
X20.46 Y-30.408
X20.427 Y-30.398
X19.977 Y-30.249
X19.516 Y-30.107
X19.038 Y-29.97
X18.543 Y-29.838
X18.031 Y-29.711
X17.503 Y-29.589
X16.96 Y-29.471
X16.402 Y-29.359
X15.829 Y-29.251
X15.243 Y-29.148
X14.643 Y-29.05
X14.031 Y-28.957
X13.406 Y-28.868
X12.769 Y-28.784
X12.122 Y-28.705
X11.464 Y-28.631
X10.796 Y-28.561
X10.12 Y-28.497
X8.738 Y-28.38
X7.328 Y-28.283
X5.893 Y-28.203
X4.437 Y-28.141
X2.967 Y-28.097
X2.25 Y-28.084
Z-0.6
X1.486 Y-28.07
X0 Y-28.062
X-1.486 Y-28.07
X-2.25 Y-28.084
Z-0.9 F300
X-2.967 Y-28.097 F600
X-4.437 Y-28.141
X-5.893 Y-28.203
X-7.328 Y-28.283
X-8.738 Y-28.38
X-10.12 Y-28.497
X-10.796 Y-28.561
X-11.464 Y-28.631
X-12.122 Y-28.705
X-12.769 Y-28.784
X-13.406 Y-28.868
X-14.031 Y-28.957
X-14.643 Y-29.05
X-15.243 Y-29.148
X-15.829 Y-29.251
X-16.402 Y-29.359
X-16.96 Y-29.471
X-17.503 Y-29.589
X-18.031 Y-29.711
X-18.543 Y-29.838
X-19.038 Y-29.97
X-19.516 Y-30.107
X-19.977 Y-30.249
X-20.427 Y-30.398
X-20.46 Y-30.408
X-20.678 Y-30.47
X-20.761 Y-30.488
X-20.984 Y-30.524
X-21.069 Y-30.533
X-21.295 Y-30.544
X-21.38 Y-30.543
X-21.606 Y-30.528
X-21.69 Y-30.518
X-21.913 Y-30.477
X-21.996 Y-30.457
X-22.213 Y-30.392
X-22.293 Y-30.363
X-22.5 Y-30.274
X-22.577 Y-30.236
X-22.773 Y-30.124
X-22.844 Y-30.078
X-23.026 Y-29.944
X-23.092 Y-29.89
X-23.258 Y-29.737
X-23.318 Y-29.675
X-23.465 Y-29.504
X-23.517 Y-29.437
X-23.644 Y-29.25
X-23.688 Y-29.178
X-23.794 Y-28.978
X-23.829 Y-28.9
X-23.912 Y-28.69
X-23.938 Y-28.609
X-23.996 Y-28.391
X-24.013 Y-28.307
X-24.046 Y-28.083
X-24.051 Y-28.041
G3 X-28.012 Y-24.181 I-4.233 J-0.381
G1 X-28.054 Y-24.177
X-28.278 Y-24.15
X-28.361 Y-24.136
X-28.58 Y-24.084
X-28.662 Y-24.059
X-28.874 Y-23.983
X-28.951 Y-23.95
X-29.153 Y-23.85
X-29.227 Y-23.808
X-29.416 Y-23.687
X-29.485 Y-23.637
X-29.659 Y-23.495
X-29.722 Y-23.437
X-29.879 Y-23.276
X-29.935 Y-23.213
X-30.073 Y-23.036
X-30.121 Y-22.966
X-30.238 Y-22.774
X-30.278 Y-22.7
X-30.373 Y-22.496
X-30.405 Y-22.417
X-30.476 Y-22.204
X-30.499 Y-22.122
X-30.546 Y-21.902
X-30.559 Y-21.819
X-30.581 Y-21.595
X-30.585 Y-21.51
X-30.581 Y-21.285
X-30.575 Y-21.201
X-30.547 Y-20.978
X-30.532 Y-20.895
X-30.478 Y-20.676
X-30.469 Y-20.643
X-30.339 Y-20.198
X-30.214 Y-19.742
X-30.095 Y-19.267
X-29.979 Y-18.775
X-29.867 Y-18.266
X-29.76 Y-17.74
X-29.657 Y-17.198
X-29.558 Y-16.641
X-29.464 Y-16.068
X-29.374 Y-15.481
X-29.288 Y-14.88
X-29.206 Y-14.266
X-29.129 Y-13.639
X-29.055 Y-13
X-28.986 Y-12.35
X-28.921 Y-11.689
X-28.86 Y-11.017
X-28.803 Y-10.337
X-28.702 Y-8.947
X-28.616 Y-7.526
X-28.546 Y-6.08
X-28.492 Y-4.613
X-28.453 Y-3.13
X-28.441 Y-2.388
Z-0.6
X-28.43 Y-1.637
X-28.422 Y-0.138
X-28.43 Y1.36
X-28.441 Y2.112
Z-0.9 F300
X-28.453 Y2.854 F600
X-28.492 Y4.336
X-28.546 Y5.803
X-28.616 Y7.25
X-28.702 Y8.67
X-28.803 Y10.06
X-28.86 Y10.74
X-28.921 Y11.412
X-28.986 Y12.073
X-29.055 Y12.724
X-29.129 Y13.363
X-29.206 Y13.989
X-29.288 Y14.603
X-29.374 Y15.204
X-29.464 Y15.791
X-29.558 Y16.364
X-29.657 Y16.921
X-29.76 Y17.463
X-29.867 Y17.989
X-29.979 Y18.499
X-30.095 Y18.991
X-30.214 Y19.465
X-30.339 Y19.921
X-30.469 Y20.366
X-30.478 Y20.4
X-30.532 Y20.619
X-30.547 Y20.702
X-30.575 Y20.925
X-30.581 Y21.009
X-30.584 Y21.235
X-30.581 Y21.319
X-30.559 Y21.543
X-30.546 Y21.627
X-30.498 Y21.847
X-30.476 Y21.929
X-30.404 Y22.143
X-30.373 Y22.221
X-30.277 Y22.425
X-30.237 Y22.499
X-30.12 Y22.691
X-30.072 Y22.76
X-29.933 Y22.938
X-29.878 Y23.001
X-29.72 Y23.162
X-29.658 Y23.219
X-29.484 Y23.361
X-29.415 Y23.411
X-29.226 Y23.532
X-29.152 Y23.574
X-28.95 Y23.674
X-28.872 Y23.707
X-28.661 Y23.783
X-28.58 Y23.807
X-28.361 Y23.859
X-28.278 Y23.874
X-28.054 Y23.901
X-28.012 Y23.905
G3 X-24.04 Y27.933 I-0.272 J4.241
G1 X-24.036 Y27.975
X-24.012 Y28.198
X-23.999 Y28.282
X-23.95 Y28.501
X-23.927 Y28.582
X-23.854 Y28.795
X-23.822 Y28.872
X-23.726 Y29.076
X-23.685 Y29.15
X-23.566 Y29.341
X-23.518 Y29.409
X-23.379 Y29.586
X-23.322 Y29.649
X-23.164 Y29.809
X-23.102 Y29.865
X-22.927 Y30.005
X-22.859 Y30.054
X-22.669 Y30.175
X-22.595 Y30.216
X-22.393 Y30.314
X-22.315 Y30.347
X-22.104 Y30.421
X-22.023 Y30.445
X-21.805 Y30.496
X-21.722 Y30.51
X-21.498 Y30.536
X-21.414 Y30.541
X-21.189 Y30.542
X-21.105 Y30.537
X-20.883 Y30.513
X-20.799 Y30.499
X-20.58 Y30.45
X-20.547 Y30.441
X-20.104 Y30.32
X-19.65 Y30.204
X-19.177 Y30.093
X-18.686 Y29.985
X-18.178 Y29.881
X-17.653 Y29.782
X-17.111 Y29.686
X-16.554 Y29.594
X-15.981 Y29.506
X-15.393 Y29.423
X-14.792 Y29.343
X-14.177 Y29.267
X-13.549 Y29.195
X-12.909 Y29.126
X-12.257 Y29.062
X-11.594 Y29.001
X-10.92 Y28.945
X-10.238 Y28.892
X-8.843 Y28.797
X-7.418 Y28.717
X-5.966 Y28.652
X-4.493 Y28.602
X-3.005 Y28.566
X-2.25 Y28.555
Z-0.6
X-1.505 Y28.544
X0 Y28.537
X1.505 Y28.544
X2.25 Y28.555
Z-0.9 F300
X3.005 Y28.566 F600
X4.493 Y28.602
X5.966 Y28.652
X7.418 Y28.717
X8.843 Y28.797
X10.238 Y28.892
X10.92 Y28.945
X11.594 Y29.001
X12.257 Y29.062
X12.909 Y29.126
X13.549 Y29.195
X14.177 Y29.267
X14.792 Y29.343
X15.393 Y29.423
X15.981 Y29.506
X16.554 Y29.594
X17.111 Y29.686
X17.573 Y29.768
X17.653 Y29.782 Z-0.903 F1016
X18.178 Y29.881 Z-0.921
X18.686 Y29.985 Z-0.94
X19.177 Y30.093 Z-0.957
X19.65 Y30.204 Z-0.974
X20.104 Y30.32 Z-0.99
X20.547 Y30.441 Z-1.007
X20.58 Y30.45 Z-1.008
X20.8 Y30.499 Z-1.016
X20.883 Y30.513 Z-1.019
X21.106 Y30.537 Z-1.026
X21.19 Y30.542 Z-1.029
X21.415 Y30.541 Z-1.037
X21.499 Y30.536 Z-1.04
X21.723 Y30.51 Z-1.048
X21.806 Y30.495 Z-1.051
X22.025 Y30.445 Z-1.059
X22.105 Y30.421 Z-1.062
X22.317 Y30.346 Z-1.07
X22.395 Y30.313 Z-1.072
X22.597 Y30.215 Z-1.08
X22.671 Y30.174 Z-1.083
X22.86 Y30.054 Z-1.091
X22.928 Y30.005 Z-1.094
X23.103 Y29.864 Z-1.102
X23.166 Y29.807 Z-1.105
X23.324 Y29.648 Z-1.113
X23.38 Y29.584 Z-1.116
X23.519 Y29.408 Z-1.123
X23.567 Y29.339 Z-1.126
X23.686 Y29.149 Z-1.134
X23.726 Y29.075 Z-1.137
X23.822 Y28.872 Z-1.145
X23.854 Y28.793 Z-1.148
X23.927 Y28.581 Z-1.156
X23.95 Y28.5 Z-1.159
X23.999 Y28.281 Z-1.167
X24.012 Y28.198 Z-1.17
X24.036 Y27.975 Z-1.177
X24.04 Y27.933 Z-1.179
G3 X24.113 Y27.332 Z-1.2 I4.245 J0.213
X28.011 Y23.905 I4.171 J0.814 F600
G1 X28.053 Y23.901
X28.278 Y23.874
X28.361 Y23.859
X28.58 Y23.807
X28.662 Y23.783
X28.874 Y23.706
X28.951 Y23.673
X29.153 Y23.574
X29.227 Y23.532
X29.416 Y23.41
X29.485 Y23.36
X29.659 Y23.218
X29.722 Y23.161
X29.879 Y23
X29.935 Y22.936
X30.073 Y22.759
X30.121 Y22.69
X30.238 Y22.498
X30.278 Y22.423
X30.373 Y22.219
X30.405 Y22.14
X30.476 Y21.927
X30.499 Y21.846
X30.546 Y21.626
X30.559 Y21.543
X30.581 Y21.318
X30.585 Y21.234
X30.581 Y21.009
X30.575 Y20.924
X30.547 Y20.701
X30.532 Y20.619
X30.478 Y20.4
X30.469 Y20.366
X30.339 Y19.921
X30.214 Y19.465
X30.095 Y18.991
X29.979 Y18.499
X29.867 Y17.989
X29.76 Y17.463
X29.657 Y16.921
X29.558 Y16.364
X29.464 Y15.791
X29.374 Y15.204
X29.288 Y14.603
X29.206 Y13.989
X29.129 Y13.363
X29.055 Y12.724
X28.986 Y12.073
X28.921 Y11.412
X28.86 Y10.74
X28.803 Y10.06
X28.702 Y8.67
X28.616 Y7.25
X28.546 Y5.803
X28.492 Y4.336
X28.453 Y2.854
X28.441 Y2.112
Z-0.6
X28.43 Y1.36
X28.422 Y-0.138
X28.43 Y-1.637
X28.441 Y-2.388
Z-1.2 F300
X28.453 Y-3.13 F600
X28.492 Y-4.613
X28.546 Y-6.08
X28.616 Y-7.526
X28.702 Y-8.947
X28.803 Y-10.337
X28.86 Y-11.017
X28.921 Y-11.689
X28.986 Y-12.35
X29.055 Y-13
X29.129 Y-13.639
X29.206 Y-14.266
X29.288 Y-14.88
X29.374 Y-15.481
X29.464 Y-16.068
X29.558 Y-16.641
X29.657 Y-17.198
X29.76 Y-17.74
X29.867 Y-18.266
X29.979 Y-18.775
X30.095 Y-19.267
X30.214 Y-19.742
X30.339 Y-20.198
X30.469 Y-20.643
X30.478 Y-20.676
X30.532 Y-20.895
X30.547 Y-20.979
X30.575 Y-21.202
X30.581 Y-21.286
X30.584 Y-21.512
X30.581 Y-21.596
X30.559 Y-21.82
X30.546 Y-21.904
X30.498 Y-22.124
X30.476 Y-22.205
X30.404 Y-22.419
X30.373 Y-22.498
X30.277 Y-22.701
X30.237 Y-22.776
X30.12 Y-22.967
X30.072 Y-23.037
X29.934 Y-23.214
X29.878 Y-23.278
X29.72 Y-23.439
X29.658 Y-23.496
X29.484 Y-23.638
X29.415 Y-23.688
X29.226 Y-23.809
X29.153 Y-23.851
X28.95 Y-23.95
X28.872 Y-23.983
X28.661 Y-24.06
X28.58 Y-24.084
X28.361 Y-24.136
X28.278 Y-24.15
X28.054 Y-24.177
X28.012 Y-24.181
G3 X24.051 Y-28.041 I0.272 J-4.241
G1 X24.046 Y-28.083
X24.013 Y-28.307
X23.996 Y-28.391
X23.938 Y-28.61
X23.912 Y-28.69
X23.829 Y-28.901
X23.794 Y-28.978
X23.688 Y-29.179
X23.644 Y-29.251
X23.516 Y-29.438
X23.464 Y-29.506
X23.316 Y-29.677
X23.257 Y-29.738
X23.091 Y-29.891
X23.025 Y-29.945
X22.843 Y-30.078
X22.772 Y-30.125
X22.575 Y-30.237
X22.499 Y-30.275
X22.29 Y-30.364
X22.211 Y-30.393
X21.994 Y-30.458
X21.912 Y-30.478
X21.69 Y-30.518
X21.605 Y-30.528
X21.379 Y-30.543
X21.294 Y-30.544
X21.068 Y-30.533
X20.984 Y-30.524
X20.761 Y-30.488
X20.678 Y-30.469
X20.46 Y-30.408
X20.427 Y-30.398
X19.977 Y-30.249
X19.516 Y-30.107
X19.038 Y-29.97
X18.543 Y-29.838
X18.031 Y-29.711
X17.503 Y-29.589
X16.96 Y-29.471
X16.402 Y-29.359
X15.829 Y-29.251
X15.243 Y-29.148
X14.643 Y-29.05
X14.031 Y-28.957
X13.406 Y-28.868
X12.769 Y-28.784
X12.122 Y-28.705
X11.464 Y-28.631
X10.796 Y-28.561
X10.12 Y-28.497
X8.738 Y-28.38
X7.328 Y-28.283
X5.893 Y-28.203
X4.437 Y-28.141
X2.967 Y-28.097
X2.25 Y-28.084
Z-0.6
X1.486 Y-28.07
X0 Y-28.062
X-1.486 Y-28.07
X-2.25 Y-28.084
Z-1.2 F300
X-2.967 Y-28.097 F600
X-4.437 Y-28.141
X-5.893 Y-28.203
X-7.328 Y-28.283
X-8.738 Y-28.38
X-10.12 Y-28.497
X-10.796 Y-28.561
X-11.464 Y-28.631
X-12.122 Y-28.705
X-12.769 Y-28.784
X-13.406 Y-28.868
X-14.031 Y-28.957
X-14.643 Y-29.05
X-15.243 Y-29.148
X-15.829 Y-29.251
X-16.402 Y-29.359
X-16.96 Y-29.471
X-17.503 Y-29.589
X-18.031 Y-29.711
X-18.543 Y-29.838
X-19.038 Y-29.97
X-19.516 Y-30.107
X-19.977 Y-30.249
X-20.427 Y-30.398
X-20.46 Y-30.408
X-20.678 Y-30.47
X-20.761 Y-30.488
X-20.984 Y-30.524
X-21.069 Y-30.533
X-21.295 Y-30.544
X-21.38 Y-30.543
X-21.606 Y-30.528
X-21.69 Y-30.518
X-21.913 Y-30.477
X-21.996 Y-30.457
X-22.213 Y-30.392
X-22.293 Y-30.363
X-22.5 Y-30.274
X-22.577 Y-30.236
X-22.773 Y-30.124
X-22.844 Y-30.078
X-23.026 Y-29.944
X-23.092 Y-29.89
X-23.258 Y-29.737
X-23.318 Y-29.675
X-23.465 Y-29.504
X-23.517 Y-29.437
X-23.644 Y-29.25
X-23.688 Y-29.178
X-23.794 Y-28.978
X-23.829 Y-28.9
X-23.912 Y-28.69
X-23.938 Y-28.609
X-23.996 Y-28.391
X-24.013 Y-28.307
X-24.046 Y-28.083
X-24.051 Y-28.041
G3 X-28.012 Y-24.181 I-4.233 J-0.381
G1 X-28.054 Y-24.177
X-28.278 Y-24.15
X-28.361 Y-24.136
X-28.58 Y-24.084
X-28.662 Y-24.059
X-28.874 Y-23.983
X-28.951 Y-23.95
X-29.153 Y-23.85
X-29.227 Y-23.808
X-29.416 Y-23.687
X-29.485 Y-23.637
X-29.659 Y-23.495
X-29.722 Y-23.437
X-29.879 Y-23.276
X-29.935 Y-23.213
X-30.073 Y-23.036
X-30.121 Y-22.966
X-30.238 Y-22.774
X-30.278 Y-22.7
X-30.373 Y-22.496
X-30.405 Y-22.417
X-30.476 Y-22.204
X-30.499 Y-22.122
X-30.546 Y-21.902
X-30.559 Y-21.819
X-30.581 Y-21.595
X-30.585 Y-21.51
X-30.581 Y-21.285
X-30.575 Y-21.201
X-30.547 Y-20.978
X-30.532 Y-20.895
X-30.478 Y-20.676
X-30.469 Y-20.643
X-30.339 Y-20.198
X-30.214 Y-19.742
X-30.095 Y-19.267
X-29.979 Y-18.775
X-29.867 Y-18.266
X-29.76 Y-17.74
X-29.657 Y-17.198
X-29.558 Y-16.641
X-29.464 Y-16.068
X-29.374 Y-15.481
X-29.288 Y-14.88
X-29.206 Y-14.266
X-29.129 Y-13.639
X-29.055 Y-13
X-28.986 Y-12.35
X-28.921 Y-11.689
X-28.86 Y-11.017
X-28.803 Y-10.337
X-28.702 Y-8.947
X-28.616 Y-7.526
X-28.546 Y-6.08
X-28.492 Y-4.613
X-28.453 Y-3.13
X-28.441 Y-2.388
Z-0.6
X-28.43 Y-1.637
X-28.422 Y-0.138
X-28.43 Y1.36
X-28.441 Y2.112
Z-1.2 F300
X-28.453 Y2.854 F600
X-28.492 Y4.336
X-28.546 Y5.803
X-28.616 Y7.25
X-28.702 Y8.67
X-28.803 Y10.06
X-28.86 Y10.74
X-28.921 Y11.412
X-28.986 Y12.073
X-29.055 Y12.724
X-29.129 Y13.363
X-29.206 Y13.989
X-29.288 Y14.603
X-29.374 Y15.204
X-29.464 Y15.791
X-29.558 Y16.364
X-29.657 Y16.921
X-29.76 Y17.463
X-29.867 Y17.989
X-29.979 Y18.499
X-30.095 Y18.991
X-30.214 Y19.465
X-30.339 Y19.921
X-30.469 Y20.366
X-30.478 Y20.4
X-30.532 Y20.619
X-30.547 Y20.702
X-30.575 Y20.925
X-30.581 Y21.009
X-30.584 Y21.235
X-30.581 Y21.319
X-30.559 Y21.543
X-30.546 Y21.627
X-30.498 Y21.847
X-30.476 Y21.929
X-30.404 Y22.143
X-30.373 Y22.221
X-30.277 Y22.425
X-30.237 Y22.499
X-30.12 Y22.691
X-30.072 Y22.76
X-29.933 Y22.938
X-29.878 Y23.001
X-29.72 Y23.162
X-29.658 Y23.219
X-29.484 Y23.361
X-29.415 Y23.411
X-29.226 Y23.532
X-29.152 Y23.574
X-28.95 Y23.674
X-28.872 Y23.707
X-28.661 Y23.783
X-28.58 Y23.807
X-28.361 Y23.859
X-28.278 Y23.874
X-28.054 Y23.901
X-28.012 Y23.905
G3 X-24.04 Y27.933 I-0.272 J4.241
G1 X-24.036 Y27.975
X-24.012 Y28.198
X-23.999 Y28.282
X-23.95 Y28.501
X-23.927 Y28.582
X-23.854 Y28.795
X-23.822 Y28.872
X-23.726 Y29.076
X-23.685 Y29.15
X-23.566 Y29.341
X-23.518 Y29.409
X-23.379 Y29.586
X-23.322 Y29.649
X-23.164 Y29.809
X-23.102 Y29.865
X-22.927 Y30.005
X-22.859 Y30.054
X-22.669 Y30.175
X-22.595 Y30.216
X-22.393 Y30.314
X-22.315 Y30.347
X-22.104 Y30.421
X-22.023 Y30.445
X-21.805 Y30.496
X-21.722 Y30.51
X-21.498 Y30.536
X-21.414 Y30.541
X-21.189 Y30.542
X-21.105 Y30.537
X-20.883 Y30.513
X-20.799 Y30.499
X-20.58 Y30.45
X-20.547 Y30.441
X-20.104 Y30.32
X-19.65 Y30.204
X-19.177 Y30.093
X-18.686 Y29.985
X-18.178 Y29.881
X-17.653 Y29.782
X-17.111 Y29.686
X-16.554 Y29.594
X-15.981 Y29.506
X-15.393 Y29.423
X-14.792 Y29.343
X-14.177 Y29.267
X-13.549 Y29.195
X-12.909 Y29.126
X-12.257 Y29.062
X-11.594 Y29.001
X-10.92 Y28.945
X-10.238 Y28.892
X-8.843 Y28.797
X-7.418 Y28.717
X-5.966 Y28.652
X-4.493 Y28.602
X-3.005 Y28.566
X-2.25 Y28.555
Z-0.6
X-1.505 Y28.544
X0 Y28.537
X1.505 Y28.544
X2.25 Y28.555
Z-1.2 F300
X3.005 Y28.566 F600
X4.493 Y28.602
X5.966 Y28.652
X7.418 Y28.717
X8.843 Y28.797
X10.238 Y28.892
X10.92 Y28.945
X11.594 Y29.001
X12.257 Y29.062
X12.909 Y29.126
X13.549 Y29.195
X14.177 Y29.267
X14.792 Y29.343
X15.393 Y29.423
X15.981 Y29.506
X16.554 Y29.594
X17.111 Y29.686
X17.653 Y29.782
X18.178 Y29.881
X18.686 Y29.985
X19.177 Y30.093
X19.65 Y30.204
X20.104 Y30.32
X20.547 Y30.441
X20.58 Y30.45
X20.8 Y30.499
X20.883 Y30.513
X21.106 Y30.537
X21.19 Y30.542
X21.415 Y30.541
X21.499 Y30.536
X21.723 Y30.51
X21.806 Y30.495
X22.025 Y30.445
X22.105 Y30.421
X22.317 Y30.346
X22.395 Y30.313
X22.597 Y30.215
X22.671 Y30.174
X22.86 Y30.054
X22.928 Y30.005
X23.103 Y29.864
X23.166 Y29.807
X23.324 Y29.648
X23.38 Y29.584
X23.519 Y29.408
X23.567 Y29.339
X23.686 Y29.149
X23.726 Y29.075
X23.822 Y28.872
X23.854 Y28.793
X23.927 Y28.581
X23.95 Y28.5
X23.999 Y28.281
X24.012 Y28.198
X24.036 Y27.975
X24.04 Y27.933
G3 X24.113 Y27.332 I4.245 J0.213
X28.011 Y23.905 Z-1.395 I4.171 J0.814 F1016
G1 X28.053 Y23.901 Z-1.396
X28.278 Y23.874 Z-1.404
X28.361 Y23.859 Z-1.407
X28.58 Y23.807 Z-1.415
X28.662 Y23.783 Z-1.418
X28.874 Y23.706 Z-1.426
X28.951 Y23.673 Z-1.429
X29.153 Y23.574 Z-1.437
X29.227 Y23.532 Z-1.44
X29.416 Y23.41 Z-1.448
X29.485 Y23.36 Z-1.451
X29.659 Y23.218 Z-1.458
X29.722 Y23.161 Z-1.461
X29.879 Y23 Z-1.469
X29.935 Y22.936 Z-1.472
X30.073 Y22.759 Z-1.48
X30.121 Y22.69 Z-1.483
X30.238 Y22.498 Z-1.491
X30.278 Y22.423 Z-1.494
X30.353 Y22.264 Z-1.5
X30.373 Y22.219 F600
X30.405 Y22.14
X30.476 Y21.927
X30.499 Y21.846
X30.546 Y21.626
X30.559 Y21.543
X30.581 Y21.318
X30.585 Y21.234
X30.581 Y21.009
X30.575 Y20.924
X30.547 Y20.701
X30.532 Y20.619
X30.478 Y20.4
X30.469 Y20.366
X30.339 Y19.921
X30.214 Y19.465
X30.095 Y18.991
X29.979 Y18.499
X29.867 Y17.989
X29.76 Y17.463
X29.657 Y16.921
X29.558 Y16.364
X29.464 Y15.791
X29.374 Y15.204
X29.288 Y14.603
X29.206 Y13.989
X29.129 Y13.363
X29.055 Y12.724
X28.986 Y12.073
X28.921 Y11.412
X28.86 Y10.74
X28.803 Y10.06
X28.702 Y8.67
X28.616 Y7.25
X28.546 Y5.803
X28.492 Y4.336
X28.453 Y2.854
X28.441 Y2.112
Z-0.6
X28.43 Y1.36
X28.422 Y-0.138
X28.43 Y-1.637
X28.441 Y-2.388
Z-1.5 F300
X28.453 Y-3.13 F600
X28.492 Y-4.613
X28.546 Y-6.08
X28.616 Y-7.526
X28.702 Y-8.947
X28.803 Y-10.337
X28.86 Y-11.017
X28.921 Y-11.689
X28.986 Y-12.35
X29.055 Y-13
X29.129 Y-13.639
X29.206 Y-14.266
X29.288 Y-14.88
X29.374 Y-15.481
X29.464 Y-16.068
X29.558 Y-16.641
X29.657 Y-17.198
X29.76 Y-17.74
X29.867 Y-18.266
X29.979 Y-18.775
X30.095 Y-19.267
X30.214 Y-19.742
X30.339 Y-20.198
X30.469 Y-20.643
X30.478 Y-20.676
X30.532 Y-20.895
X30.547 Y-20.979
X30.575 Y-21.202
X30.581 Y-21.286
X30.584 Y-21.512
X30.581 Y-21.596
X30.559 Y-21.82
X30.546 Y-21.904
X30.498 Y-22.124
X30.476 Y-22.205
X30.404 Y-22.419
X30.373 Y-22.498
X30.277 Y-22.701
X30.237 Y-22.776
X30.12 Y-22.967
X30.072 Y-23.037
X29.934 Y-23.214
X29.878 Y-23.278
X29.72 Y-23.439
X29.658 Y-23.496
X29.484 Y-23.638
X29.415 Y-23.688
X29.226 Y-23.809
X29.153 Y-23.851
X28.95 Y-23.95
X28.872 Y-23.983
X28.661 Y-24.06
X28.58 Y-24.084
X28.361 Y-24.136
X28.278 Y-24.15
X28.054 Y-24.177
X28.012 Y-24.181
G3 X24.051 Y-28.041 I0.272 J-4.241
G1 X24.046 Y-28.083
X24.013 Y-28.307
X23.996 Y-28.391
X23.938 Y-28.61
X23.912 Y-28.69
X23.829 Y-28.901
X23.794 Y-28.978
X23.688 Y-29.179
X23.644 Y-29.251
X23.516 Y-29.438
X23.464 Y-29.506
X23.316 Y-29.677
X23.257 Y-29.738
X23.091 Y-29.891
X23.025 Y-29.945
X22.843 Y-30.078
X22.772 Y-30.125
X22.575 Y-30.237
X22.499 Y-30.275
X22.29 Y-30.364
X22.211 Y-30.393
X21.994 Y-30.458
X21.912 Y-30.478
X21.69 Y-30.518
X21.605 Y-30.528
X21.379 Y-30.543
X21.294 Y-30.544
X21.068 Y-30.533
X20.984 Y-30.524
X20.761 Y-30.488
X20.678 Y-30.469
X20.46 Y-30.408
X20.427 Y-30.398
X19.977 Y-30.249
X19.516 Y-30.107
X19.038 Y-29.97
X18.543 Y-29.838
X18.031 Y-29.711
X17.503 Y-29.589
X16.96 Y-29.471
X16.402 Y-29.359
X15.829 Y-29.251
X15.243 Y-29.148
X14.643 Y-29.05
X14.031 Y-28.957
X13.406 Y-28.868
X12.769 Y-28.784
X12.122 Y-28.705
X11.464 Y-28.631
X10.796 Y-28.561
X10.12 Y-28.497
X8.738 Y-28.38
X7.328 Y-28.283
X5.893 Y-28.203
X4.437 Y-28.141
X2.967 Y-28.097
X2.25 Y-28.084
Z-0.6
X1.486 Y-28.07
X0 Y-28.062
X-1.486 Y-28.07
X-2.25 Y-28.084
Z-1.5 F300
X-2.967 Y-28.097 F600
X-4.437 Y-28.141
X-5.893 Y-28.203
X-7.328 Y-28.283
X-8.738 Y-28.38
X-10.12 Y-28.497
X-10.796 Y-28.561
X-11.464 Y-28.631
X-12.122 Y-28.705
X-12.769 Y-28.784
X-13.406 Y-28.868
X-14.031 Y-28.957
X-14.643 Y-29.05
X-15.243 Y-29.148
X-15.829 Y-29.251
X-16.402 Y-29.359
X-16.96 Y-29.471
X-17.503 Y-29.589
X-18.031 Y-29.711
X-18.543 Y-29.838
X-19.038 Y-29.97
X-19.516 Y-30.107
X-19.977 Y-30.249
X-20.427 Y-30.398
X-20.46 Y-30.408
X-20.678 Y-30.47
X-20.761 Y-30.488
X-20.984 Y-30.524
X-21.069 Y-30.533
X-21.295 Y-30.544
X-21.38 Y-30.543
X-21.606 Y-30.528
X-21.69 Y-30.518
X-21.913 Y-30.477
X-21.996 Y-30.457
X-22.213 Y-30.392
X-22.293 Y-30.363
X-22.5 Y-30.274
X-22.577 Y-30.236
X-22.773 Y-30.124
X-22.844 Y-30.078
X-23.026 Y-29.944
X-23.092 Y-29.89
X-23.258 Y-29.737
X-23.318 Y-29.675
X-23.465 Y-29.504
X-23.517 Y-29.437
X-23.644 Y-29.25
X-23.688 Y-29.178
X-23.794 Y-28.978
X-23.829 Y-28.9
X-23.912 Y-28.69
X-23.938 Y-28.609
X-23.996 Y-28.391
X-24.013 Y-28.307
X-24.046 Y-28.083
X-24.051 Y-28.041
G3 X-28.012 Y-24.181 I-4.233 J-0.381
G1 X-28.054 Y-24.177
X-28.278 Y-24.15
X-28.361 Y-24.136
X-28.58 Y-24.084
X-28.662 Y-24.059
X-28.874 Y-23.983
X-28.951 Y-23.95
X-29.153 Y-23.85
X-29.227 Y-23.808
X-29.416 Y-23.687
X-29.485 Y-23.637
X-29.659 Y-23.495
X-29.722 Y-23.437
X-29.879 Y-23.276
X-29.935 Y-23.213
X-30.073 Y-23.036
X-30.121 Y-22.966
X-30.238 Y-22.774
X-30.278 Y-22.7
X-30.373 Y-22.496
X-30.405 Y-22.417
X-30.476 Y-22.204
X-30.499 Y-22.122
X-30.546 Y-21.902
X-30.559 Y-21.819
X-30.581 Y-21.595
X-30.585 Y-21.51
X-30.581 Y-21.285
X-30.575 Y-21.201
X-30.547 Y-20.978
X-30.532 Y-20.895
X-30.478 Y-20.676
X-30.469 Y-20.643
X-30.339 Y-20.198
X-30.214 Y-19.742
X-30.095 Y-19.267
X-29.979 Y-18.775
X-29.867 Y-18.266
X-29.76 Y-17.74
X-29.657 Y-17.198
X-29.558 Y-16.641
X-29.464 Y-16.068
X-29.374 Y-15.481
X-29.288 Y-14.88
X-29.206 Y-14.266
X-29.129 Y-13.639
X-29.055 Y-13
X-28.986 Y-12.35
X-28.921 Y-11.689
X-28.86 Y-11.017
X-28.803 Y-10.337
X-28.702 Y-8.947
X-28.616 Y-7.526
X-28.546 Y-6.08
X-28.492 Y-4.613
X-28.453 Y-3.13
X-28.441 Y-2.388
Z-0.6
X-28.43 Y-1.637
X-28.422 Y-0.138
X-28.43 Y1.36
X-28.441 Y2.112
Z-1.5 F300
X-28.453 Y2.854 F600
X-28.492 Y4.336
X-28.546 Y5.803
X-28.616 Y7.25
X-28.702 Y8.67
X-28.803 Y10.06
X-28.86 Y10.74
X-28.921 Y11.412
X-28.986 Y12.073
X-29.055 Y12.724
X-29.129 Y13.363
X-29.206 Y13.989
X-29.288 Y14.603
X-29.374 Y15.204
X-29.464 Y15.791
X-29.558 Y16.364
X-29.657 Y16.921
X-29.76 Y17.463
X-29.867 Y17.989
X-29.979 Y18.499
X-30.095 Y18.991
X-30.214 Y19.465
X-30.339 Y19.921
X-30.469 Y20.366
X-30.478 Y20.4
X-30.532 Y20.619
X-30.547 Y20.702
X-30.575 Y20.925
X-30.581 Y21.009
X-30.584 Y21.235
X-30.581 Y21.319
X-30.559 Y21.543
X-30.546 Y21.627
X-30.498 Y21.847
X-30.476 Y21.929
X-30.404 Y22.143
X-30.373 Y22.221
X-30.277 Y22.425
X-30.237 Y22.499
X-30.12 Y22.691
X-30.072 Y22.76
X-29.933 Y22.938
X-29.878 Y23.001
X-29.72 Y23.162
X-29.658 Y23.219
X-29.484 Y23.361
X-29.415 Y23.411
X-29.226 Y23.532
X-29.152 Y23.574
X-28.95 Y23.674
X-28.872 Y23.707
X-28.661 Y23.783
X-28.58 Y23.807
X-28.361 Y23.859
X-28.278 Y23.874
X-28.054 Y23.901
X-28.012 Y23.905
G3 X-24.04 Y27.933 I-0.272 J4.241
G1 X-24.036 Y27.975
X-24.012 Y28.198
X-23.999 Y28.282
X-23.95 Y28.501
X-23.927 Y28.582
X-23.854 Y28.795
X-23.822 Y28.872
X-23.726 Y29.076
X-23.685 Y29.15
X-23.566 Y29.341
X-23.518 Y29.409
X-23.379 Y29.586
X-23.322 Y29.649
X-23.164 Y29.809
X-23.102 Y29.865
X-22.927 Y30.005
X-22.859 Y30.054
X-22.669 Y30.175
X-22.595 Y30.216
X-22.393 Y30.314
X-22.315 Y30.347
X-22.104 Y30.421
X-22.023 Y30.445
X-21.805 Y30.496
X-21.722 Y30.51
X-21.498 Y30.536
X-21.414 Y30.541
X-21.189 Y30.542
X-21.105 Y30.537
X-20.883 Y30.513
X-20.799 Y30.499
X-20.58 Y30.45
X-20.547 Y30.441
X-20.104 Y30.32
X-19.65 Y30.204
X-19.177 Y30.093
X-18.686 Y29.985
X-18.178 Y29.881
X-17.653 Y29.782
X-17.111 Y29.686
X-16.554 Y29.594
X-15.981 Y29.506
X-15.393 Y29.423
X-14.792 Y29.343
X-14.177 Y29.267
X-13.549 Y29.195
X-12.909 Y29.126
X-12.257 Y29.062
X-11.594 Y29.001
X-10.92 Y28.945
X-10.238 Y28.892
X-8.843 Y28.797
X-7.418 Y28.717
X-5.966 Y28.652
X-4.493 Y28.602
X-3.005 Y28.566
X-2.25 Y28.555
Z-0.6
X-1.505 Y28.544
X0 Y28.537
X1.505 Y28.544
X2.25 Y28.555
Z-1.5 F300
X3.005 Y28.566 F600
X4.493 Y28.602
X5.966 Y28.652
X7.418 Y28.717
X8.843 Y28.797
X10.238 Y28.892
X10.92 Y28.945
X11.594 Y29.001
X12.257 Y29.062
X12.909 Y29.126
X13.549 Y29.195
X14.177 Y29.267
X14.792 Y29.343
X15.393 Y29.423
X15.981 Y29.506
X16.554 Y29.594
X17.111 Y29.686
X17.653 Y29.782
X18.178 Y29.881
X18.686 Y29.985
X19.177 Y30.093
X19.65 Y30.204
X20.104 Y30.32
X20.547 Y30.441
X20.58 Y30.45
X20.8 Y30.499
X20.883 Y30.513
X21.106 Y30.537
X21.19 Y30.542
X21.415 Y30.541
X21.499 Y30.536
X21.723 Y30.51
X21.806 Y30.495
X22.025 Y30.445
X22.105 Y30.421
X22.317 Y30.346
X22.395 Y30.313
X22.597 Y30.215
X22.671 Y30.174
X22.86 Y30.054
X22.928 Y30.005
X23.103 Y29.864
X23.166 Y29.807
X23.324 Y29.648
X23.38 Y29.584
X23.519 Y29.408
X23.567 Y29.339
X23.686 Y29.149
X23.726 Y29.075
X23.822 Y28.872
X23.854 Y28.793
X23.927 Y28.581
X23.95 Y28.5
X23.999 Y28.281
X24.012 Y28.198
X24.036 Y27.975
X24.04 Y27.933
G3 X28.011 Y23.905 I4.245 J0.213
G1 X28.053 Y23.901
X28.278 Y23.874
X28.361 Y23.859
X28.58 Y23.807
X28.662 Y23.783
X28.874 Y23.706
X28.951 Y23.673
X29.153 Y23.574
X29.227 Y23.532
X29.416 Y23.41
X29.485 Y23.36
X29.659 Y23.218
X29.722 Y23.161
X29.879 Y23
X29.935 Y22.936
X30.073 Y22.759
X30.121 Y22.69
X30.238 Y22.498
X30.278 Y22.423
X30.353 Y22.264
X30.373 Y22.219 Z-1.502 F1016
X30.405 Y22.14 Z-1.505
X30.476 Y21.927 Z-1.513
X30.499 Y21.846 Z-1.515
X30.546 Y21.626 Z-1.523
X30.559 Y21.543 Z-1.526
X30.581 Y21.318 Z-1.534
X30.585 Y21.234 Z-1.537
X30.581 Y21.009 Z-1.545
X30.575 Y20.924 Z-1.548
X30.547 Y20.701 Z-1.556
X30.532 Y20.619 Z-1.559
X30.478 Y20.4 Z-1.567
X30.469 Y20.366 Z-1.568
X30.339 Y19.921 Z-1.584
X30.218 Y19.479 Z-1.6
X30.214 Y19.465 F600
X30.095 Y18.991
X29.979 Y18.499
X29.867 Y17.989
X29.76 Y17.463
X29.657 Y16.921
X29.558 Y16.364
X29.464 Y15.791
X29.374 Y15.204
X29.288 Y14.603
X29.206 Y13.989
X29.129 Y13.363
X29.055 Y12.724
X28.986 Y12.073
X28.921 Y11.412
X28.86 Y10.74
X28.803 Y10.06
X28.702 Y8.67
X28.616 Y7.25
X28.546 Y5.803
X28.492 Y4.336
X28.453 Y2.854
X28.441 Y2.112
Z-0.6
X28.43 Y1.36
X28.422 Y-0.138
X28.43 Y-1.637
X28.441 Y-2.388
Z-1.6 F300
X28.453 Y-3.13 F600
X28.492 Y-4.613
X28.546 Y-6.08
X28.616 Y-7.526
X28.702 Y-8.947
X28.803 Y-10.337
X28.86 Y-11.017
X28.921 Y-11.689
X28.986 Y-12.35
X29.055 Y-13
X29.129 Y-13.639
X29.206 Y-14.266
X29.288 Y-14.88
X29.374 Y-15.481
X29.464 Y-16.068
X29.558 Y-16.641
X29.657 Y-17.198
X29.76 Y-17.74
X29.867 Y-18.266
X29.979 Y-18.775
X30.095 Y-19.267
X30.214 Y-19.742
X30.339 Y-20.198
X30.469 Y-20.643
X30.478 Y-20.676
X30.532 Y-20.895
X30.547 Y-20.979
X30.575 Y-21.202
X30.581 Y-21.286
X30.584 Y-21.512
X30.581 Y-21.596
X30.559 Y-21.82
X30.546 Y-21.904
X30.498 Y-22.124
X30.476 Y-22.205
X30.404 Y-22.419
X30.373 Y-22.498
X30.277 Y-22.701
X30.237 Y-22.776
X30.12 Y-22.967
X30.072 Y-23.037
X29.934 Y-23.214
X29.878 Y-23.278
X29.72 Y-23.439
X29.658 Y-23.496
X29.484 Y-23.638
X29.415 Y-23.688
X29.226 Y-23.809
X29.153 Y-23.851
X28.95 Y-23.95
X28.872 Y-23.983
X28.661 Y-24.06
X28.58 Y-24.084
X28.361 Y-24.136
X28.278 Y-24.15
X28.054 Y-24.177
X28.012 Y-24.181
G3 X24.051 Y-28.041 I0.272 J-4.241
G1 X24.046 Y-28.083
X24.013 Y-28.307
X23.996 Y-28.391
X23.938 Y-28.61
X23.912 Y-28.69
X23.829 Y-28.901
X23.794 Y-28.978
X23.688 Y-29.179
X23.644 Y-29.251
X23.516 Y-29.438
X23.464 Y-29.506
X23.316 Y-29.677
X23.257 Y-29.738
X23.091 Y-29.891
X23.025 Y-29.945
X22.843 Y-30.078
X22.772 Y-30.125
X22.575 Y-30.237
X22.499 Y-30.275
X22.29 Y-30.364
X22.211 Y-30.393
X21.994 Y-30.458
X21.912 Y-30.478
X21.69 Y-30.518
X21.605 Y-30.528
X21.379 Y-30.543
X21.294 Y-30.544
X21.068 Y-30.533
X20.984 Y-30.524
X20.761 Y-30.488
X20.678 Y-30.469
X20.46 Y-30.408
X20.427 Y-30.398
X19.977 Y-30.249
X19.516 Y-30.107
X19.038 Y-29.97
X18.543 Y-29.838
X18.031 Y-29.711
X17.503 Y-29.589
X16.96 Y-29.471
X16.402 Y-29.359
X15.829 Y-29.251
X15.243 Y-29.148
X14.643 Y-29.05
X14.031 Y-28.957
X13.406 Y-28.868
X12.769 Y-28.784
X12.122 Y-28.705
X11.464 Y-28.631
X10.796 Y-28.561
X10.12 Y-28.497
X8.738 Y-28.38
X7.328 Y-28.283
X5.893 Y-28.203
X4.437 Y-28.141
X2.967 Y-28.097
X2.25 Y-28.084
Z-0.6
X1.486 Y-28.07
X0 Y-28.062
X-1.486 Y-28.07
X-2.25 Y-28.084
Z-1.6 F300
X-2.967 Y-28.097 F600
X-4.437 Y-28.141
X-5.893 Y-28.203
X-7.328 Y-28.283
X-8.738 Y-28.38
X-10.12 Y-28.497
X-10.796 Y-28.561
X-11.464 Y-28.631
X-12.122 Y-28.705
X-12.769 Y-28.784
X-13.406 Y-28.868
X-14.031 Y-28.957
X-14.643 Y-29.05
X-15.243 Y-29.148
X-15.829 Y-29.251
X-16.402 Y-29.359
X-16.96 Y-29.471
X-17.503 Y-29.589
X-18.031 Y-29.711
X-18.543 Y-29.838
X-19.038 Y-29.97
X-19.516 Y-30.107
X-19.977 Y-30.249
X-20.427 Y-30.398
X-20.46 Y-30.408
X-20.678 Y-30.47
X-20.761 Y-30.488
X-20.984 Y-30.524
X-21.069 Y-30.533
X-21.295 Y-30.544
X-21.38 Y-30.543
X-21.606 Y-30.528
X-21.69 Y-30.518
X-21.913 Y-30.477
X-21.996 Y-30.457
X-22.213 Y-30.392
X-22.293 Y-30.363
X-22.5 Y-30.274
X-22.577 Y-30.236
X-22.773 Y-30.124
X-22.844 Y-30.078
X-23.026 Y-29.944
X-23.092 Y-29.89
X-23.258 Y-29.737
X-23.318 Y-29.675
X-23.465 Y-29.504
X-23.517 Y-29.437
X-23.644 Y-29.25
X-23.688 Y-29.178
X-23.794 Y-28.978
X-23.829 Y-28.9
X-23.912 Y-28.69
X-23.938 Y-28.609
X-23.996 Y-28.391
X-24.013 Y-28.307
X-24.046 Y-28.083
X-24.051 Y-28.041
G3 X-28.012 Y-24.181 I-4.233 J-0.381
G1 X-28.054 Y-24.177
X-28.278 Y-24.15
X-28.361 Y-24.136
X-28.58 Y-24.084
X-28.662 Y-24.059
X-28.874 Y-23.983
X-28.951 Y-23.95
X-29.153 Y-23.85
X-29.227 Y-23.808
X-29.416 Y-23.687
X-29.485 Y-23.637
X-29.659 Y-23.495
X-29.722 Y-23.437
X-29.879 Y-23.276
X-29.935 Y-23.213
X-30.073 Y-23.036
X-30.121 Y-22.966
X-30.238 Y-22.774
X-30.278 Y-22.7
X-30.373 Y-22.496
X-30.405 Y-22.417
X-30.476 Y-22.204
X-30.499 Y-22.122
X-30.546 Y-21.902
X-30.559 Y-21.819
X-30.581 Y-21.595
X-30.585 Y-21.51
X-30.581 Y-21.285
X-30.575 Y-21.201
X-30.547 Y-20.978
X-30.532 Y-20.895
X-30.478 Y-20.676
X-30.469 Y-20.643
X-30.339 Y-20.198
X-30.214 Y-19.742
X-30.095 Y-19.267
X-29.979 Y-18.775
X-29.867 Y-18.266
X-29.76 Y-17.74
X-29.657 Y-17.198
X-29.558 Y-16.641
X-29.464 Y-16.068
X-29.374 Y-15.481
X-29.288 Y-14.88
X-29.206 Y-14.266
X-29.129 Y-13.639
X-29.055 Y-13
X-28.986 Y-12.35
X-28.921 Y-11.689
X-28.86 Y-11.017
X-28.803 Y-10.337
X-28.702 Y-8.947
X-28.616 Y-7.526
X-28.546 Y-6.08
X-28.492 Y-4.613
X-28.453 Y-3.13
X-28.441 Y-2.388
Z-0.6
X-28.43 Y-1.637
X-28.422 Y-0.138
X-28.43 Y1.36
X-28.441 Y2.112
Z-1.6 F300
X-28.453 Y2.854 F600
X-28.492 Y4.336
X-28.546 Y5.803
X-28.616 Y7.25
X-28.702 Y8.67
X-28.803 Y10.06
X-28.86 Y10.74
X-28.921 Y11.412
X-28.986 Y12.073
X-29.055 Y12.724
X-29.129 Y13.363
X-29.206 Y13.989
X-29.288 Y14.603
X-29.374 Y15.204
X-29.464 Y15.791
X-29.558 Y16.364
X-29.657 Y16.921
X-29.76 Y17.463
X-29.867 Y17.989
X-29.979 Y18.499
X-30.095 Y18.991
X-30.214 Y19.465
X-30.339 Y19.921
X-30.469 Y20.366
X-30.478 Y20.4
X-30.532 Y20.619
X-30.547 Y20.702
X-30.575 Y20.925
X-30.581 Y21.009
X-30.584 Y21.235
X-30.581 Y21.319
X-30.559 Y21.543
X-30.546 Y21.627
X-30.498 Y21.847
X-30.476 Y21.929
X-30.404 Y22.143
X-30.373 Y22.221
X-30.277 Y22.425
X-30.237 Y22.499
X-30.12 Y22.691
X-30.072 Y22.76
X-29.933 Y22.938
X-29.878 Y23.001
X-29.72 Y23.162
X-29.658 Y23.219
X-29.484 Y23.361
X-29.415 Y23.411
X-29.226 Y23.532
X-29.152 Y23.574
X-28.95 Y23.674
X-28.872 Y23.707
X-28.661 Y23.783
X-28.58 Y23.807
X-28.361 Y23.859
X-28.278 Y23.874
X-28.054 Y23.901
X-28.012 Y23.905
G3 X-24.04 Y27.933 I-0.272 J4.241
G1 X-24.036 Y27.975
X-24.012 Y28.198
X-23.999 Y28.282
X-23.95 Y28.501
X-23.927 Y28.582
X-23.854 Y28.795
X-23.822 Y28.872
X-23.726 Y29.076
X-23.685 Y29.15
X-23.566 Y29.341
X-23.518 Y29.409
X-23.379 Y29.586
X-23.322 Y29.649
X-23.164 Y29.809
X-23.102 Y29.865
X-22.927 Y30.005
X-22.859 Y30.054
X-22.669 Y30.175
X-22.595 Y30.216
X-22.393 Y30.314
X-22.315 Y30.347
X-22.104 Y30.421
X-22.023 Y30.445
X-21.805 Y30.496
X-21.722 Y30.51
X-21.498 Y30.536
X-21.414 Y30.541
X-21.189 Y30.542
X-21.105 Y30.537
X-20.883 Y30.513
X-20.799 Y30.499
X-20.58 Y30.45
X-20.547 Y30.441
X-20.104 Y30.32
X-19.65 Y30.204
X-19.177 Y30.093
X-18.686 Y29.985
X-18.178 Y29.881
X-17.653 Y29.782
X-17.111 Y29.686
X-16.554 Y29.594
X-15.981 Y29.506
X-15.393 Y29.423
X-14.792 Y29.343
X-14.177 Y29.267
X-13.549 Y29.195
X-12.909 Y29.126
X-12.257 Y29.062
X-11.594 Y29.001
X-10.92 Y28.945
X-10.238 Y28.892
X-8.843 Y28.797
X-7.418 Y28.717
X-5.966 Y28.652
X-4.493 Y28.602
X-3.005 Y28.566
X-2.25 Y28.555
Z-0.6
X-1.505 Y28.544
X0 Y28.537
X1.505 Y28.544
X2.25 Y28.555
Z-1.6 F300
X3.005 Y28.566 F600
X4.493 Y28.602
X5.966 Y28.652
X7.418 Y28.717
X8.843 Y28.797
X10.238 Y28.892
X10.92 Y28.945
X11.594 Y29.001
X12.257 Y29.062
X12.909 Y29.126
X13.549 Y29.195
X14.177 Y29.267
X14.792 Y29.343
X15.393 Y29.423
X15.981 Y29.506
X16.554 Y29.594
X17.111 Y29.686
X17.653 Y29.782
X18.178 Y29.881
X18.686 Y29.985
X19.177 Y30.093
X19.65 Y30.204
X20.104 Y30.32
X20.547 Y30.441
X20.58 Y30.45
X20.8 Y30.499
X20.883 Y30.513
X21.106 Y30.537
X21.19 Y30.542
X21.415 Y30.541
X21.499 Y30.536
X21.723 Y30.51
X21.806 Y30.495
X22.025 Y30.445
X22.105 Y30.421
X22.317 Y30.346
X22.395 Y30.313
X22.597 Y30.215
X22.671 Y30.174
X22.86 Y30.054
X22.928 Y30.005
X23.103 Y29.864
X23.166 Y29.807
X23.324 Y29.648
X23.38 Y29.584
X23.519 Y29.408
X23.567 Y29.339
X23.686 Y29.149
X23.726 Y29.075
X23.822 Y28.872
X23.854 Y28.793
X23.927 Y28.581
X23.95 Y28.5
X23.999 Y28.281
X24.012 Y28.198
X24.036 Y27.975
X24.04 Y27.933
G3 X28.011 Y23.905 I4.245 J0.213
G1 X28.053 Y23.901
X28.278 Y23.874
X28.361 Y23.859
X28.58 Y23.807
X28.662 Y23.783
X28.874 Y23.706
X28.951 Y23.673
X29.153 Y23.574
X29.227 Y23.532
X29.416 Y23.41
X29.485 Y23.36
X29.659 Y23.218
X29.722 Y23.161
X29.879 Y23
X29.935 Y22.936
X30.073 Y22.759
X30.121 Y22.69
X30.238 Y22.498
X30.278 Y22.423
X30.373 Y22.219
X30.405 Y22.14
X30.476 Y21.927
X30.499 Y21.846
X30.546 Y21.626
X30.559 Y21.543
X30.581 Y21.318
X30.585 Y21.234
X30.581 Y21.009
X30.575 Y20.924
X30.547 Y20.701
X30.532 Y20.619
X30.478 Y20.4
X30.469 Y20.366
X30.339 Y19.921
X30.218 Y19.479
G0 Z15
G28 G91 Z0
G90
G28 G91 X0 Y0
G90
M5
M30
