(1001)
(Bearbeiten)
(  Hersteller: ChinaCnc)
(  model: 3040T)
(  description: Generic 3-axis)
(T14  D=1.5 CR=0 - ZMIN=-1.7 - Schaftfraser)
G90 G94
G17
G21
G28 G91 Z0
G90

(Bohrfrasen2)
T14
S6000 M3
G54
G0 X21.749 Y0.593
Z15
Z2
G1 Z0.15 F400
Y0.6 Z0.104
Y0.621 Z0.062
Y0.655 Z0.029
Y0.696 Z0.007
Y0.743 Z0
Y0.818
X21.742 Y0.864
X21.72 Y0.906
X21.687 Y0.939
X21.645 Y0.96
X21.599 Y0.968
G3 X21.599 Y-1.032 Z-0.5 I0 J-1 F600
X21.599 Y0.968 Z-1 I0 J1
X21.599 Y-1.032 Z-1.5 I0 J-1
X22.55 Y-0.341 Z-1.7 I0 J1
X20.648 Y0.277 I-0.951 J0.309
X22.55 Y-0.341 I0.951 J-0.309
G1 X22.557 Y-0.295
X22.55 Y-0.249
X22.529 Y-0.207
X22.496 Y-0.174
X22.454 Y-0.152
X22.382 Y-0.129
X22.338 Y-0.115 Z-1.693
X22.299 Y-0.102 Z-1.671
X22.267 Y-0.092 Z-1.638
X22.247 Y-0.085 Z-1.596
X22.24 Y-0.083 Z-1.55
G0 Z5
X0.182 Y-20.974
Z2
G1 Z0.15 F400
Y-20.967 Z0.104
Y-20.945 Z0.062
Y-20.912 Z0.029
Y-20.87 Z0.007
Y-20.824 Z0
Y-20.749
X0.175 Y-20.703
X0.154 Y-20.661
X0.12 Y-20.628
X0.079 Y-20.606
X0.032 Y-20.599
G3 X0.032 Y-22.599 Z-0.5 I0 J-1 F600
X0.032 Y-20.599 Z-1 I0 J1
X0.032 Y-22.599 Z-1.5 I0 J-1
X0.983 Y-21.908 Z-1.7 I0 J1
X-0.919 Y-21.29 I-0.951 J0.309
X0.983 Y-21.908 I0.951 J-0.309
G1 X0.991 Y-21.862
X0.983 Y-21.815
X0.962 Y-21.773
X0.929 Y-21.74
X0.887 Y-21.719
X0.816 Y-21.696
X0.772 Y-21.681 Z-1.693
X0.732 Y-21.669 Z-1.671
X0.7 Y-21.658 Z-1.638
X0.68 Y-21.652 Z-1.596
X0.673 Y-21.649 Z-1.55
G0 Z5
X-21.385 Y0.593
Z2
G1 Z0.15 F400
Y0.6 Z0.104
Y0.621 Z0.062
Y0.655 Z0.029
Y0.696 Z0.007
Y0.743 Z0
Y0.818
X-21.392 Y0.864
X-21.413 Y0.906
X-21.446 Y0.939
X-21.488 Y0.96
X-21.535 Y0.968
G3 X-21.535 Y-1.032 Z-0.5 I0 J-1 F600
X-21.535 Y0.968 Z-1 I0 J1
X-21.535 Y-1.032 Z-1.5 I0 J-1
X-20.583 Y-0.341 Z-1.7 I0 J1
X-22.486 Y0.277 I-0.951 J0.309
X-20.583 Y-0.341 I0.951 J-0.309
G1 X-20.576 Y-0.295
X-20.583 Y-0.249
X-20.605 Y-0.207
X-20.638 Y-0.174
X-20.68 Y-0.152
X-20.751 Y-0.129
X-20.795 Y-0.115 Z-1.693
X-20.835 Y-0.102 Z-1.671
X-20.867 Y-0.092 Z-1.638
X-20.887 Y-0.085 Z-1.596
X-20.894 Y-0.083 Z-1.55
G0 Z5
X0.182 Y22.16
Z2
G1 Z0.15 F400
Y22.167 Z0.104
Y22.188 Z0.062
Y22.221 Z0.029
Y22.263 Z0.007
Y22.31 Z0
Y22.385
X0.175 Y22.431
X0.154 Y22.473
X0.12 Y22.506
X0.079 Y22.527
X0.032 Y22.535
G3 X0.032 Y20.535 Z-0.5 I0 J-1 F600
X0.032 Y22.535 Z-1 I0 J1
X0.032 Y20.535 Z-1.5 I0 J-1
X0.983 Y21.226 Z-1.7 I0 J1
X-0.919 Y21.844 I-0.951 J0.309
X0.983 Y21.226 I0.951 J-0.309
G1 X0.991 Y21.272
X0.983 Y21.318
X0.962 Y21.36
X0.929 Y21.393
X0.887 Y21.415
X0.816 Y21.438
X0.772 Y21.452 Z-1.693
X0.732 Y21.465 Z-1.671
X0.7 Y21.475 Z-1.638
X0.68 Y21.482 Z-1.596
X0.673 Y21.484 Z-1.55
G0 Z15

(2D-Kontur2)
X-14.604 Y17.949
Z15
Z5
G1 Z2.5 F300
X-21.403 Y11.15 Z2.164 F1016
G3 X-19.989 Y9.736 Z2.055 I0.707 J-0.707
G1 X-9.736 Y19.989 Z1.548
G3 X-11.15 Y21.403 Z1.438 I-0.707 J0.707
G1 X-21.403 Y11.15 Z0.932
G3 X-19.989 Y9.736 Z0.822 I0.707 J-0.707
G1 X-9.736 Y19.989 Z0.316
G3 X-11.15 Y21.403 Z0.206 I-0.707 J0.707
G1 X-21.403 Y11.15 Z-0.3
G3 X-19.989 Y9.736 I0.707 J-0.707 F600
G1 X-9.736 Y19.989
G3 X-11.15 Y21.403 I-0.707 J0.707
G1 X-21.403 Y11.15
G3 X-19.989 Y9.736 Z-0.41 I0.707 J-0.707 F1016
G1 X-16.135 Y13.589 Z-0.6
X-9.736 Y19.989 F600
G3 X-11.15 Y21.403 I-0.707 J0.707
G1 X-21.403 Y11.15
G3 X-19.989 Y9.736 I0.707 J-0.707
G1 X-16.135 Y13.589
X-10.061 Y19.663 Z-0.9 F1016
X-9.736 Y19.989 F600
G3 X-11.15 Y21.403 I-0.707 J0.707
G1 X-21.403 Y11.15
G3 X-19.989 Y9.736 I0.707 J-0.707
G1 X-10.061 Y19.663
X-9.736 Y19.989 Z-0.916 F1016
G3 X-11.15 Y21.403 Z-1.026 I-0.707 J0.707
G1 X-14.678 Y17.875 Z-1.2
X-21.403 Y11.15 F600
G3 X-19.989 Y9.736 I0.707 J-0.707
G1 X-10.061 Y19.663
X-9.736 Y19.989
G3 X-11.15 Y21.403 I-0.707 J0.707
G1 X-14.678 Y17.875
X-20.753 Y11.8 Z-1.5 F1016
X-21.403 Y11.15 F600
G3 X-19.989 Y9.736 I0.707 J-0.707
G1 X-9.736 Y19.989
G3 X-11.15 Y21.403 I-0.707 J0.707
G1 X-20.753 Y11.8
X-21.403 Y11.15 Z-1.532 F1016
G3 X-21.096 Y9.526 Z-1.6 I0.707 J-0.707
X-19.989 Y9.736 I0.401 J0.916 F600
G1 X-9.736 Y19.989
G3 X-11.15 Y21.403 I-0.707 J0.707
G1 X-20.753 Y11.8
X-21.403 Y11.15
G3 X-21.096 Y9.526 I0.707 J-0.707
G0 Z5
X14.378 Y-15.475
G1 Z2.5 F300
X9.8 Y-20.053 Z2.274 F1016
G3 X11.214 Y-21.467 Z2.164 I0.707 J-0.707
G1 X21.467 Y-11.214 Z1.658
G3 X20.053 Y-9.8 Z1.548 I-0.707 J0.707
G1 X9.8 Y-20.053 Z1.042
G3 X11.214 Y-21.467 Z0.932 I0.707 J-0.707
G1 X21.467 Y-11.214 Z0.426
G3 X20.053 Y-9.8 Z0.316 I-0.707 J0.707
G1 X9.8 Y-20.053 Z-0.19
G3 X11.214 Y-21.467 Z-0.3 I0.707 J-0.707
G1 X21.467 Y-11.214 F600
G3 X20.053 Y-9.8 I-0.707 J0.707
G1 X9.8 Y-20.053
G3 X11.214 Y-21.467 I0.707 J-0.707
G1 X17.289 Y-15.393 Z-0.6 F1016
X21.467 Y-11.214 F600
G3 X20.053 Y-9.8 I-0.707 J0.707
G1 X9.8 Y-20.053
G3 X11.214 Y-21.467 I0.707 J-0.707
G1 X17.289 Y-15.393
X21.467 Y-11.214 Z-0.806 F1016
G3 X20.44 Y-9.56 Z-0.9 I-0.707 J0.707
X20.053 Y-9.8 I0.32 J-0.947 F600
G1 X9.8 Y-20.053
G3 X11.214 Y-21.467 I0.707 J-0.707
G1 X17.289 Y-15.393
X21.467 Y-11.214
G3 X20.44 Y-9.56 I-0.707 J0.707
X20.053 Y-9.8 Z-0.916 I0.32 J-0.947 F1016
G1 X14.303 Y-15.55 Z-1.2
X9.8 Y-20.053 F600
G3 X11.214 Y-21.467 I0.707 J-0.707
G1 X21.467 Y-11.214
G3 X20.053 Y-9.8 I-0.707 J0.707
G1 X14.303 Y-15.55
X9.8 Y-20.053 Z-1.422 F1016
G3 X10.373 Y-21.751 Z-1.5 I0.707 J-0.707
X11.214 Y-21.467 I0.134 J0.991 F600
G1 X21.467 Y-11.214
G3 X20.053 Y-9.8 I-0.707 J0.707
G1 X14.303 Y-15.55
X9.8 Y-20.053
G3 X10.373 Y-21.751 I0.707 J-0.707
X11.214 Y-21.467 Z-1.532 I0.134 J0.991 F1016
G1 X12.589 Y-20.093 Z-1.6
X21.467 Y-11.214 F600
G3 X20.053 Y-9.8 I-0.707 J0.707
G1 X9.8 Y-20.053
G3 X11.214 Y-21.467 I0.707 J-0.707
G1 X12.589 Y-20.093
G0 Z15

(2D-Kontur3)
X-19.544 Y20.951
Z15
Z5
G1 Z2.5 F300
X-19.185 Y21.314 Z2.482 F1016
X-18.14 Y22.389 Z2.43
X-17.113 Y23.468 Z2.378
X-16.107 Y24.545 Z2.326
X-15.126 Y25.617 Z2.276
X-14.175 Y26.682 Z2.226
X-13.256 Y27.735 Z2.177
X-12.811 Y28.254 Z2.153
X-12.375 Y28.771 Z2.129
X-11.949 Y29.282 Z2.106
X-11.533 Y29.789 Z2.083
X-11.129 Y30.29 Z2.061
X-10.736 Y30.785 Z2.039
X-10.354 Y31.273 Z2.017
X-9.986 Y31.755 Z1.996
X-9.63 Y32.23 Z1.975
X-9.287 Y32.697 Z1.955
X-8.957 Y33.156 Z1.935
X-8.642 Y33.607 Z1.916
X-8.341 Y34.049 Z1.897
X-8.055 Y34.481 Z1.879
X-7.784 Y34.905 Z1.862
X-7.529 Y35.318 Z1.845
X-7.289 Y35.721 Z1.828
X-7.062 Y36.119 Z1.812
X-7.044 Y36.149 Z1.811
X-6.924 Y36.339 Z1.803
X-6.875 Y36.408 Z1.8
X-6.734 Y36.583 Z1.792
X-6.678 Y36.646 Z1.79
X-6.519 Y36.804 Z1.782
X-6.455 Y36.86 Z1.779
X-6.279 Y37 Z1.771
X-6.21 Y37.048 Z1.768
X-6.02 Y37.167 Z1.76
X-5.946 Y37.207 Z1.757
X-5.742 Y37.304 Z1.749
X-5.664 Y37.336 Z1.746
X-5.452 Y37.409 Z1.739
X-5.371 Y37.432 Z1.736
X-5.152 Y37.481 Z1.728
X-5.069 Y37.495 Z1.725
X-4.846 Y37.519 Z1.717
X-4.762 Y37.523 Z1.714
X-4.537 Y37.522 Z1.706
X-4.453 Y37.517 Z1.703
X-4.23 Y37.491 Z1.695
X-4.147 Y37.476 Z1.692
X-3.928 Y37.425 Z1.685
X-3.848 Y37.401 Z1.682
X-3.636 Y37.326 Z1.674
X-3.558 Y37.293 Z1.671
X-3.356 Y37.195 Z1.663
X-3.283 Y37.154 Z1.66
X-3.094 Y37.033 Z1.652
X-3.025 Y36.984 Z1.649
X-2.851 Y36.843 Z1.641
X-2.818 Y36.816 Z1.64
G3 X2.838 Y36.776 Z1.424 I2.851 J3.152
G1 X2.87 Y36.803 Z1.422
X3.049 Y36.942 Z1.414
X3.118 Y36.991 Z1.412
X3.31 Y37.109 Z1.404
X3.384 Y37.149 Z1.401
X3.588 Y37.245 Z1.393
X3.666 Y37.277 Z1.39
X3.88 Y37.349 Z1.382
X3.962 Y37.372 Z1.379
X4.182 Y37.42 Z1.371
X4.265 Y37.433 Z1.368
X4.489 Y37.456 Z1.36
X4.574 Y37.459 Z1.357
X4.799 Y37.457 Z1.35
X4.883 Y37.451 Z1.347
X5.106 Y37.423 Z1.339
X5.189 Y37.408 Z1.336
X5.408 Y37.355 Z1.328
X5.489 Y37.331 Z1.325
X5.701 Y37.254 Z1.317
X5.778 Y37.221 Z1.314
X5.979 Y37.121 Z1.306
X6.053 Y37.079 Z1.303
X6.242 Y36.957 Z1.296
X6.31 Y36.907 Z1.293
X6.484 Y36.764 Z1.285
X6.547 Y36.707 Z1.282
X6.703 Y36.545 Z1.274
X6.759 Y36.482 Z1.271
X6.896 Y36.304 Z1.263
X6.944 Y36.234 Z1.26
X7.061 Y36.042 Z1.252
X7.078 Y36.012 Z1.251
X7.301 Y35.605 Z1.235
X7.535 Y35.194 Z1.218
X7.786 Y34.774 Z1.201
X8.052 Y34.344 Z1.184
X8.333 Y33.905 Z1.165
X8.629 Y33.458 Z1.147
X8.94 Y33.002 Z1.127
X9.264 Y32.538 Z1.108
X9.603 Y32.066 Z1.087
X9.954 Y31.587 Z1.067
X10.318 Y31.102 Z1.045
X10.694 Y30.61 Z1.024
X11.083 Y30.112 Z1.002
X11.483 Y29.608 Z0.979
X11.894 Y29.099 Z0.956
X12.315 Y28.585 Z0.933
X12.747 Y28.067 Z0.91
X13.188 Y27.546 Z0.886
X14.099 Y26.491 Z0.837
X15.043 Y25.426 Z0.787
X16.016 Y24.354 Z0.737
X17.015 Y23.278 Z0.686
X18.036 Y22.203 Z0.634
X19.075 Y21.13 Z0.582
X20.13 Y20.065 Z0.529
X21.195 Y19.011 Z0.477
X22.267 Y17.972 Z0.425
X23.343 Y16.95 Z0.373
X24.419 Y15.951 Z0.322
X25.491 Y14.978 Z0.271
X26.556 Y14.035 Z0.222
X27.611 Y13.123 Z0.173
X28.132 Y12.683 Z0.149
X28.65 Y12.251 Z0.126
X29.163 Y11.829 Z0.102
X29.672 Y11.418 Z0.079
X30.176 Y11.018 Z0.057
X30.674 Y10.63 Z0.035
X31.166 Y10.254 Z0.013
X31.652 Y9.889 Z-0.008
X32.13 Y9.538 Z-0.029
X32.602 Y9.2 Z-0.049
X33.066 Y8.876 Z-0.069
X33.522 Y8.565 Z-0.088
X33.97 Y8.269 Z-0.107
X34.409 Y7.988 Z-0.125
X34.838 Y7.722 Z-0.143
X35.259 Y7.471 Z-0.16
X35.669 Y7.236 Z-0.176
X36.076 Y7.014 Z-0.192
X36.106 Y6.996 Z-0.194
X36.299 Y6.879 Z-0.201
X36.368 Y6.832 Z-0.204
X36.546 Y6.694 Z-0.212
X36.61 Y6.638 Z-0.215
X36.772 Y6.481 Z-0.223
X36.829 Y6.419 Z-0.226
X36.972 Y6.245 Z-0.234
X37.021 Y6.176 Z-0.237
X37.144 Y5.987 Z-0.245
X37.186 Y5.914 Z-0.248
X37.286 Y5.712 Z-0.256
X37.319 Y5.634 Z-0.258
X37.396 Y5.423 Z-0.266
X37.42 Y5.342 Z-0.269
X37.473 Y5.123 Z-0.277
X37.488 Y5.04 Z-0.28
X37.516 Y4.817 Z-0.288
X37.521 Y4.732 Z-0.291
X37.524 Y4.507 Z-0.299
X37.523 Y4.471 Z-0.3
X37.52 Y4.423 F600
X37.497 Y4.199
X37.484 Y4.116
X37.436 Y3.896
X37.413 Y3.815
X37.341 Y3.601
X37.309 Y3.523
X37.213 Y3.319
X37.173 Y3.245
X37.055 Y3.053
X37.007 Y2.984
X36.868 Y2.807
X36.841 Y2.775
G3 X36.769 Y-2.756 I3.191 J-2.807
G1 X36.796 Y-2.789
X36.931 Y-2.971
X36.978 Y-3.042
X37.091 Y-3.238
X37.13 Y-3.313
X37.22 Y-3.521
X37.25 Y-3.601
X37.317 Y-3.817
X37.337 Y-3.899
X37.379 Y-4.122
X37.39 Y-4.206
X37.406 Y-4.432
X37.407 Y-4.517
X37.398 Y-4.743
X37.39 Y-4.828
X37.355 Y-5.051
X37.338 Y-5.134
X37.278 Y-5.352
X37.251 Y-5.433
X37.167 Y-5.643
X37.131 Y-5.72
X37.024 Y-5.919
X36.979 Y-5.991
X36.85 Y-6.177
X36.798 Y-6.244
X36.649 Y-6.414
X36.589 Y-6.475
X36.422 Y-6.627
X36.356 Y-6.68
X36.173 Y-6.812
X36.101 Y-6.858
X35.904 Y-6.969
X35.874 Y-6.985
X35.449 Y-7.198
X35.023 Y-7.424
X34.588 Y-7.665
X34.145 Y-7.922
X33.693 Y-8.193
X33.233 Y-8.48
X32.766 Y-8.781
X32.292 Y-9.096
X31.811 Y-9.425
X31.324 Y-9.767
X30.83 Y-10.121
X30.331 Y-10.489
X29.827 Y-10.868
X29.317 Y-11.259
X28.804 Y-11.661
X28.286 Y-12.073
X27.764 Y-12.497
X27.24 Y-12.929
X26.181 Y-13.824
X25.115 Y-14.752
X24.043 Y-15.71
X22.97 Y-16.695
X21.899 Y-17.704
X20.834 Y-18.733
X19.777 Y-19.777
X18.733 Y-20.834
X17.704 Y-21.899
X16.695 Y-22.97
X15.71 Y-24.043
X14.752 Y-25.115
X13.824 Y-26.181
X12.929 Y-27.24
X12.497 Y-27.764
X12.073 Y-28.286
X11.661 Y-28.804
X11.259 Y-29.317
X10.868 Y-29.827
X10.489 Y-30.331
X10.121 Y-30.83
X9.767 Y-31.324
X9.425 Y-31.811
X9.096 Y-32.292
X8.781 Y-32.766
X8.48 Y-33.233
X8.193 Y-33.693
X7.922 Y-34.145
X7.665 Y-34.588
X7.424 Y-35.023
X7.198 Y-35.449
X6.985 Y-35.874
X6.969 Y-35.904
X6.858 Y-36.101
X6.812 Y-36.173
X6.68 Y-36.356
X6.626 Y-36.422
X6.474 Y-36.59
X6.413 Y-36.65
X6.243 Y-36.799
X6.176 Y-36.851
X5.99 Y-36.98
X5.918 Y-37.024
X5.718 Y-37.132
X5.641 Y-37.168
X5.431 Y-37.251
X5.35 Y-37.278
X5.132 Y-37.338
X5.05 Y-37.356
X4.826 Y-37.39
X4.741 Y-37.398
X4.515 Y-37.407
X4.43 Y-37.406
X4.205 Y-37.39
X4.121 Y-37.379
X3.898 Y-37.337
X3.816 Y-37.316
X3.6 Y-37.25
X3.52 Y-37.22
X3.313 Y-37.129
X3.237 Y-37.091
X3.042 Y-36.978
X2.971 Y-36.931
X2.789 Y-36.796
X2.756 Y-36.769
G3 X-2.775 Y-36.841 I-2.723 J-3.263
G1 X-2.807 Y-36.868
X-2.984 Y-37.007
X-3.054 Y-37.055
X-3.245 Y-37.173
X-3.32 Y-37.214
X-3.524 Y-37.31
X-3.602 Y-37.341
X-3.816 Y-37.414
X-3.897 Y-37.436
X-4.117 Y-37.484
X-4.201 Y-37.497
X-4.425 Y-37.52
X-4.509 Y-37.524
X-4.734 Y-37.521
X-4.819 Y-37.516
X-5.042 Y-37.488
X-5.125 Y-37.473
X-5.344 Y-37.42
X-5.424 Y-37.395
X-5.636 Y-37.318
X-5.714 Y-37.285
X-5.915 Y-37.185
X-5.988 Y-37.143
X-6.177 Y-37.021
X-6.245 Y-36.971
X-6.42 Y-36.828
X-6.482 Y-36.771
X-6.639 Y-36.61
X-6.694 Y-36.546
X-6.832 Y-36.368
X-6.879 Y-36.299
X-6.996 Y-36.106
X-7.014 Y-36.076
X-7.236 Y-35.669
X-7.471 Y-35.259
X-7.722 Y-34.838
X-7.988 Y-34.409
X-8.269 Y-33.97
X-8.565 Y-33.522
X-8.876 Y-33.066
X-9.2 Y-32.602
X-9.538 Y-32.13
X-9.889 Y-31.652
X-10.254 Y-31.166
X-10.63 Y-30.674
X-11.018 Y-30.176
X-11.418 Y-29.672
X-11.829 Y-29.163
X-12.251 Y-28.65
X-12.683 Y-28.132
X-13.123 Y-27.611
X-14.035 Y-26.556
X-14.978 Y-25.491
X-15.951 Y-24.419
X-16.95 Y-23.343
X-17.972 Y-22.267
X-18.694 Y-21.522
X-19.011 Y-21.195
X-20.065 Y-20.13
X-21.13 Y-19.075
X-22.203 Y-18.036
X-23.278 Y-17.015
X-24.354 Y-16.016
X-25.426 Y-15.043
X-26.491 Y-14.099
X-27.546 Y-13.188
X-28.067 Y-12.747
X-28.585 Y-12.315
X-29.099 Y-11.894
X-29.608 Y-11.483
X-30.112 Y-11.083
X-30.61 Y-10.694
X-31.102 Y-10.318
X-31.587 Y-9.954
X-32.066 Y-9.603
X-32.538 Y-9.264
X-33.002 Y-8.94
X-33.458 Y-8.629
X-33.905 Y-8.333
X-34.344 Y-8.052
X-34.774 Y-7.786
X-35.194 Y-7.535
X-35.605 Y-7.301
X-36.012 Y-7.078
X-36.042 Y-7.061
X-36.234 Y-6.944
X-36.304 Y-6.896
X-36.482 Y-6.758
X-36.546 Y-6.703
X-36.708 Y-6.545
X-36.765 Y-6.483
X-36.907 Y-6.309
X-36.957 Y-6.241
X-37.079 Y-6.052
X-37.121 Y-5.978
X-37.222 Y-5.776
X-37.255 Y-5.698
X-37.332 Y-5.487
X-37.356 Y-5.406
X-37.408 Y-5.188
X-37.424 Y-5.105
X-37.451 Y-4.881
X-37.457 Y-4.797
X-37.459 Y-4.571
X-37.455 Y-4.487
X-37.433 Y-4.263
X-37.419 Y-4.18
X-37.371 Y-3.96
X-37.349 Y-3.879
X-37.276 Y-3.665
X-37.245 Y-3.587
X-37.149 Y-3.384
X-37.109 Y-3.309
X-36.991 Y-3.118
X-36.943 Y-3.049
X-36.804 Y-2.872
X-36.776 Y-2.839
G3 X-36.816 Y2.818 I-3.191 J2.807
G1 X-36.843 Y2.851
X-36.984 Y3.026
X-37.033 Y3.094
X-37.154 Y3.284
X-37.195 Y3.357
X-37.294 Y3.559
X-37.326 Y3.637
X-37.402 Y3.849
X-37.425 Y3.93
X-37.476 Y4.149
X-37.491 Y4.231
X-37.517 Y4.455
X-37.522 Y4.539
X-37.523 Y4.763
X-37.519 Y4.848
X-37.495 Y5.071
X-37.481 Y5.154
X-37.432 Y5.373
X-37.409 Y5.454
X-37.335 Y5.666
X-37.303 Y5.745
X-37.207 Y5.947
X-37.166 Y6.021
X-37.048 Y6.211
X-36.999 Y6.28
X-36.859 Y6.456
X-36.803 Y6.519
X-36.645 Y6.679
X-36.583 Y6.735
X-36.408 Y6.875
X-36.339 Y6.924
X-36.149 Y7.044
X-36.119 Y7.062
X-35.721 Y7.289
X-35.318 Y7.529
X-34.905 Y7.784
X-34.481 Y8.055
X-34.049 Y8.341
X-33.607 Y8.642
X-33.156 Y8.957
X-32.697 Y9.287
X-32.23 Y9.63
X-31.755 Y9.986
X-31.273 Y10.354
X-30.785 Y10.736
X-30.29 Y11.129
X-29.789 Y11.533
X-29.282 Y11.949
X-28.771 Y12.375
X-28.254 Y12.811
X-27.735 Y13.256
X-26.682 Y14.175
X-25.617 Y15.126
X-24.545 Y16.107
X-23.468 Y17.113
X-22.389 Y18.14
X-21.314 Y19.185
X-20.244 Y20.244
X-19.185 Y21.314
X-18.14 Y22.389
X-17.113 Y23.468
X-16.107 Y24.545
X-15.126 Y25.617
X-14.175 Y26.682
X-13.256 Y27.735
X-12.811 Y28.254
X-12.375 Y28.771
X-11.949 Y29.282
X-11.533 Y29.789
X-11.129 Y30.29
X-10.736 Y30.785
X-10.354 Y31.273
X-9.986 Y31.755
X-9.63 Y32.23
X-9.287 Y32.697
X-8.957 Y33.156
X-8.642 Y33.607
X-8.341 Y34.049
X-8.055 Y34.481
X-7.784 Y34.905
X-7.529 Y35.318
X-7.289 Y35.721
X-7.062 Y36.119
X-7.044 Y36.149
X-6.924 Y36.339
X-6.875 Y36.408
X-6.734 Y36.583
X-6.678 Y36.646
X-6.519 Y36.804
X-6.455 Y36.86
X-6.279 Y37
X-6.21 Y37.048
X-6.02 Y37.167
X-5.946 Y37.207
X-5.742 Y37.304
X-5.664 Y37.336
X-5.452 Y37.409
X-5.371 Y37.432
X-5.152 Y37.481
X-5.069 Y37.495
X-4.846 Y37.519
X-4.762 Y37.523
X-4.537 Y37.522
X-4.453 Y37.517
X-4.23 Y37.491
X-4.147 Y37.476
X-3.928 Y37.425
X-3.848 Y37.401
X-3.636 Y37.326
X-3.558 Y37.293
X-3.356 Y37.195
X-3.283 Y37.154
X-3.094 Y37.033
X-3.025 Y36.984
X-2.851 Y36.843
X-2.818 Y36.816
G3 X2.838 Y36.776 I2.851 J3.152
G1 X2.87 Y36.803
X3.049 Y36.942
X3.118 Y36.991
X3.31 Y37.109
X3.384 Y37.149
X3.588 Y37.245
X3.666 Y37.277
X3.88 Y37.349
X3.962 Y37.372
X4.182 Y37.42
X4.265 Y37.433
X4.489 Y37.456
X4.574 Y37.459
X4.799 Y37.457
X4.883 Y37.451
X5.106 Y37.423
X5.189 Y37.408
X5.408 Y37.355
X5.489 Y37.331
X5.701 Y37.254
X5.778 Y37.221
X5.979 Y37.121
X6.053 Y37.079
X6.242 Y36.957
X6.31 Y36.907
X6.484 Y36.764
X6.547 Y36.707
X6.703 Y36.545
X6.759 Y36.482
X6.896 Y36.304
X6.944 Y36.234
X7.061 Y36.042
X7.078 Y36.012
X7.301 Y35.605
X7.535 Y35.194
X7.786 Y34.774
X8.052 Y34.344
X8.333 Y33.905
X8.629 Y33.458
X8.94 Y33.002
X9.264 Y32.538
X9.603 Y32.066
X9.954 Y31.587
X10.318 Y31.102
X10.694 Y30.61
X11.083 Y30.112
X11.483 Y29.608
X11.894 Y29.099
X12.315 Y28.585
X12.747 Y28.067
X13.188 Y27.546
X14.099 Y26.491
X15.043 Y25.426
X16.016 Y24.354
X17.015 Y23.278
X18.036 Y22.203
X19.075 Y21.13
X20.13 Y20.065
X21.195 Y19.011
X22.267 Y17.972
X23.343 Y16.95
X24.419 Y15.951
X25.491 Y14.978
X26.556 Y14.035
X27.611 Y13.123
X28.132 Y12.683
X28.65 Y12.251
X29.163 Y11.829
X29.672 Y11.418
X30.176 Y11.018
X30.674 Y10.63
X31.166 Y10.254
X31.652 Y9.889
X32.13 Y9.538
X32.602 Y9.2
X33.066 Y8.876
X33.522 Y8.565
X33.97 Y8.269
X34.409 Y7.988
X34.838 Y7.722
X35.259 Y7.471
X35.669 Y7.236
X36.076 Y7.014
X36.106 Y6.996
X36.299 Y6.879
X36.368 Y6.832
X36.546 Y6.694
X36.61 Y6.638
X36.772 Y6.481
X36.829 Y6.419
X36.972 Y6.245
X37.021 Y6.176
X37.144 Y5.987
X37.186 Y5.914
X37.286 Y5.712
X37.319 Y5.634
X37.396 Y5.423
X37.42 Y5.342
X37.473 Y5.123
X37.488 Y5.04
X37.516 Y4.817
X37.521 Y4.732
X37.524 Y4.507
X37.523 Y4.471
X37.52 Y4.423 Z-0.302 F1016
X37.497 Y4.199 Z-0.31
X37.484 Y4.116 Z-0.312
X37.436 Y3.896 Z-0.32
X37.413 Y3.815 Z-0.323
X37.341 Y3.601 Z-0.331
X37.309 Y3.523 Z-0.334
X37.213 Y3.319 Z-0.342
X37.173 Y3.245 Z-0.345
X37.055 Y3.053 Z-0.353
X37.007 Y2.984 Z-0.356
X36.868 Y2.807 Z-0.364
X36.841 Y2.775 Z-0.365
G3 X36.769 Y-2.756 Z-0.575 I3.191 J-2.807
G1 X36.796 Y-2.789 Z-0.577
X36.931 Y-2.971 Z-0.585
X36.978 Y-3.042 Z-0.588
X37.091 Y-3.238 Z-0.596
X37.13 Y-3.313 Z-0.599
X37.146 Y-3.35 Z-0.6
X37.22 Y-3.521 F600
X37.25 Y-3.601
X37.317 Y-3.817
X37.337 Y-3.899
X37.379 Y-4.122
X37.39 Y-4.206
X37.406 Y-4.432
X37.407 Y-4.517
X37.398 Y-4.743
X37.39 Y-4.828
X37.355 Y-5.051
X37.338 Y-5.134
X37.278 Y-5.352
X37.251 Y-5.433
X37.167 Y-5.643
X37.131 Y-5.72
X37.024 Y-5.919
X36.979 Y-5.991
X36.85 Y-6.177
X36.798 Y-6.244
X36.649 Y-6.414
X36.589 Y-6.475
X36.422 Y-6.627
X36.356 Y-6.68
X36.173 Y-6.812
X36.101 Y-6.858
X35.904 Y-6.969
X35.874 Y-6.985
X35.449 Y-7.198
X35.023 Y-7.424
X34.588 Y-7.665
X34.145 Y-7.922
X33.693 Y-8.193
X33.233 Y-8.48
X32.766 Y-8.781
X32.292 Y-9.096
X31.811 Y-9.425
X31.324 Y-9.767
X30.83 Y-10.121
X30.331 Y-10.489
X29.827 Y-10.868
X29.317 Y-11.259
X28.804 Y-11.661
X28.286 Y-12.073
X27.764 Y-12.497
X27.24 Y-12.929
X26.181 Y-13.824
X25.115 Y-14.752
X24.043 Y-15.71
X22.97 Y-16.695
X21.899 Y-17.704
X20.834 Y-18.733
X19.777 Y-19.777
X18.733 Y-20.834
X17.704 Y-21.899
X16.695 Y-22.97
X15.71 Y-24.043
X14.752 Y-25.115
X13.824 Y-26.181
X12.929 Y-27.24
X12.497 Y-27.764
X12.073 Y-28.286
X11.661 Y-28.804
X11.259 Y-29.317
X10.868 Y-29.827
X10.489 Y-30.331
X10.121 Y-30.83
X9.767 Y-31.324
X9.425 Y-31.811
X9.096 Y-32.292
X8.781 Y-32.766
X8.48 Y-33.233
X8.193 Y-33.693
X7.922 Y-34.145
X7.665 Y-34.588
X7.424 Y-35.023
X7.198 Y-35.449
X6.985 Y-35.874
X6.969 Y-35.904
X6.858 Y-36.101
X6.812 Y-36.173
X6.68 Y-36.356
X6.626 Y-36.422
X6.474 Y-36.59
X6.413 Y-36.65
X6.243 Y-36.799
X6.176 Y-36.851
X5.99 Y-36.98
X5.918 Y-37.024
X5.718 Y-37.132
X5.641 Y-37.168
X5.431 Y-37.251
X5.35 Y-37.278
X5.132 Y-37.338
X5.05 Y-37.356
X4.826 Y-37.39
X4.741 Y-37.398
X4.515 Y-37.407
X4.43 Y-37.406
X4.205 Y-37.39
X4.121 Y-37.379
X3.898 Y-37.337
X3.816 Y-37.316
X3.6 Y-37.25
X3.52 Y-37.22
X3.313 Y-37.129
X3.237 Y-37.091
X3.042 Y-36.978
X2.971 Y-36.931
X2.789 Y-36.796
X2.756 Y-36.769
G3 X-2.775 Y-36.841 I-2.723 J-3.263
G1 X-2.807 Y-36.868
X-2.984 Y-37.007
X-3.054 Y-37.055
X-3.245 Y-37.173
X-3.32 Y-37.214
X-3.524 Y-37.31
X-3.602 Y-37.341
X-3.816 Y-37.414
X-3.897 Y-37.436
X-4.117 Y-37.484
X-4.201 Y-37.497
X-4.425 Y-37.52
X-4.509 Y-37.524
X-4.734 Y-37.521
X-4.819 Y-37.516
X-5.042 Y-37.488
X-5.125 Y-37.473
X-5.344 Y-37.42
X-5.424 Y-37.395
X-5.636 Y-37.318
X-5.714 Y-37.285
X-5.915 Y-37.185
X-5.988 Y-37.143
X-6.177 Y-37.021
X-6.245 Y-36.971
X-6.42 Y-36.828
X-6.482 Y-36.771
X-6.639 Y-36.61
X-6.694 Y-36.546
X-6.832 Y-36.368
X-6.879 Y-36.299
X-6.996 Y-36.106
X-7.014 Y-36.076
X-7.236 Y-35.669
X-7.471 Y-35.259
X-7.722 Y-34.838
X-7.988 Y-34.409
X-8.269 Y-33.97
X-8.565 Y-33.522
X-8.876 Y-33.066
X-9.2 Y-32.602
X-9.538 Y-32.13
X-9.889 Y-31.652
X-10.254 Y-31.166
X-10.63 Y-30.674
X-11.018 Y-30.176
X-11.418 Y-29.672
X-11.829 Y-29.163
X-12.251 Y-28.65
X-12.683 Y-28.132
X-13.123 Y-27.611
X-14.035 Y-26.556
X-14.978 Y-25.491
X-15.951 Y-24.419
X-16.95 Y-23.343
X-17.972 Y-22.267
X-18.694 Y-21.522
X-19.011 Y-21.195
X-20.065 Y-20.13
X-21.13 Y-19.075
X-22.203 Y-18.036
X-23.278 Y-17.015
X-24.354 Y-16.016
X-25.426 Y-15.043
X-26.491 Y-14.099
X-27.546 Y-13.188
X-28.067 Y-12.747
X-28.585 Y-12.315
X-29.099 Y-11.894
X-29.608 Y-11.483
X-30.112 Y-11.083
X-30.61 Y-10.694
X-31.102 Y-10.318
X-31.587 Y-9.954
X-32.066 Y-9.603
X-32.538 Y-9.264
X-33.002 Y-8.94
X-33.458 Y-8.629
X-33.905 Y-8.333
X-34.344 Y-8.052
X-34.774 Y-7.786
X-35.194 Y-7.535
X-35.605 Y-7.301
X-36.012 Y-7.078
X-36.042 Y-7.061
X-36.234 Y-6.944
X-36.304 Y-6.896
X-36.482 Y-6.758
X-36.546 Y-6.703
X-36.708 Y-6.545
X-36.765 Y-6.483
X-36.907 Y-6.309
X-36.957 Y-6.241
X-37.079 Y-6.052
X-37.121 Y-5.978
X-37.222 Y-5.776
X-37.255 Y-5.698
X-37.332 Y-5.487
X-37.356 Y-5.406
X-37.408 Y-5.188
X-37.424 Y-5.105
X-37.451 Y-4.881
X-37.457 Y-4.797
X-37.459 Y-4.571
X-37.455 Y-4.487
X-37.433 Y-4.263
X-37.419 Y-4.18
X-37.371 Y-3.96
X-37.349 Y-3.879
X-37.276 Y-3.665
X-37.245 Y-3.587
X-37.149 Y-3.384
X-37.109 Y-3.309
X-36.991 Y-3.118
X-36.943 Y-3.049
X-36.804 Y-2.872
X-36.776 Y-2.839
G3 X-36.816 Y2.818 I-3.191 J2.807
G1 X-36.843 Y2.851
X-36.984 Y3.026
X-37.033 Y3.094
X-37.154 Y3.284
X-37.195 Y3.357
X-37.294 Y3.559
X-37.326 Y3.637
X-37.402 Y3.849
X-37.425 Y3.93
X-37.476 Y4.149
X-37.491 Y4.231
X-37.517 Y4.455
X-37.522 Y4.539
X-37.523 Y4.763
X-37.519 Y4.848
X-37.495 Y5.071
X-37.481 Y5.154
X-37.432 Y5.373
X-37.409 Y5.454
X-37.335 Y5.666
X-37.303 Y5.745
X-37.207 Y5.947
X-37.166 Y6.021
X-37.048 Y6.211
X-36.999 Y6.28
X-36.859 Y6.456
X-36.803 Y6.519
X-36.645 Y6.679
X-36.583 Y6.735
X-36.408 Y6.875
X-36.339 Y6.924
X-36.149 Y7.044
X-36.119 Y7.062
X-35.721 Y7.289
X-35.318 Y7.529
X-34.905 Y7.784
X-34.481 Y8.055
X-34.049 Y8.341
X-33.607 Y8.642
X-33.156 Y8.957
X-32.697 Y9.287
X-32.23 Y9.63
X-31.755 Y9.986
X-31.273 Y10.354
X-30.785 Y10.736
X-30.29 Y11.129
X-29.789 Y11.533
X-29.282 Y11.949
X-28.771 Y12.375
X-28.254 Y12.811
X-27.735 Y13.256
X-26.682 Y14.175
X-25.617 Y15.126
X-24.545 Y16.107
X-23.468 Y17.113
X-22.389 Y18.14
X-21.314 Y19.185
X-20.244 Y20.244
X-19.185 Y21.314
X-18.14 Y22.389
X-17.113 Y23.468
X-16.107 Y24.545
X-15.126 Y25.617
X-14.175 Y26.682
X-13.256 Y27.735
X-12.811 Y28.254
X-12.375 Y28.771
X-11.949 Y29.282
X-11.533 Y29.789
X-11.129 Y30.29
X-10.736 Y30.785
X-10.354 Y31.273
X-9.986 Y31.755
X-9.63 Y32.23
X-9.287 Y32.697
X-8.957 Y33.156
X-8.642 Y33.607
X-8.341 Y34.049
X-8.055 Y34.481
X-7.784 Y34.905
X-7.529 Y35.318
X-7.289 Y35.721
X-7.062 Y36.119
X-7.044 Y36.149
X-6.924 Y36.339
X-6.875 Y36.408
X-6.734 Y36.583
X-6.678 Y36.646
X-6.519 Y36.804
X-6.455 Y36.86
X-6.279 Y37
X-6.21 Y37.048
X-6.02 Y37.167
X-5.946 Y37.207
X-5.742 Y37.304
X-5.664 Y37.336
X-5.452 Y37.409
X-5.371 Y37.432
X-5.152 Y37.481
X-5.069 Y37.495
X-4.846 Y37.519
X-4.762 Y37.523
X-4.537 Y37.522
X-4.453 Y37.517
X-4.23 Y37.491
X-4.147 Y37.476
X-3.928 Y37.425
X-3.848 Y37.401
X-3.636 Y37.326
X-3.558 Y37.293
X-3.356 Y37.195
X-3.283 Y37.154
X-3.094 Y37.033
X-3.025 Y36.984
X-2.851 Y36.843
X-2.818 Y36.816
G3 X2.838 Y36.776 I2.851 J3.152
G1 X2.87 Y36.803
X3.049 Y36.942
X3.118 Y36.991
X3.31 Y37.109
X3.384 Y37.149
X3.588 Y37.245
X3.666 Y37.277
X3.88 Y37.349
X3.962 Y37.372
X4.182 Y37.42
X4.265 Y37.433
X4.489 Y37.456
X4.574 Y37.459
X4.799 Y37.457
X4.883 Y37.451
X5.106 Y37.423
X5.189 Y37.408
X5.408 Y37.355
X5.489 Y37.331
X5.701 Y37.254
X5.778 Y37.221
X5.979 Y37.121
X6.053 Y37.079
X6.242 Y36.957
X6.31 Y36.907
X6.484 Y36.764
X6.547 Y36.707
X6.703 Y36.545
X6.759 Y36.482
X6.896 Y36.304
X6.944 Y36.234
X7.061 Y36.042
X7.078 Y36.012
X7.301 Y35.605
X7.535 Y35.194
X7.786 Y34.774
X8.052 Y34.344
X8.333 Y33.905
X8.629 Y33.458
X8.94 Y33.002
X9.264 Y32.538
X9.603 Y32.066
X9.954 Y31.587
X10.318 Y31.102
X10.694 Y30.61
X11.083 Y30.112
X11.483 Y29.608
X11.894 Y29.099
X12.315 Y28.585
X12.747 Y28.067
X13.188 Y27.546
X14.099 Y26.491
X15.043 Y25.426
X16.016 Y24.354
X17.015 Y23.278
X18.036 Y22.203
X19.075 Y21.13
X20.13 Y20.065
X21.195 Y19.011
X22.267 Y17.972
X23.343 Y16.95
X24.419 Y15.951
X25.491 Y14.978
X26.556 Y14.035
X27.611 Y13.123
X28.132 Y12.683
X28.65 Y12.251
X29.163 Y11.829
X29.672 Y11.418
X30.176 Y11.018
X30.674 Y10.63
X31.166 Y10.254
X31.652 Y9.889
X32.13 Y9.538
X32.602 Y9.2
X33.066 Y8.876
X33.522 Y8.565
X33.97 Y8.269
X34.409 Y7.988
X34.838 Y7.722
X35.259 Y7.471
X35.669 Y7.236
X36.076 Y7.014
X36.106 Y6.996
X36.299 Y6.879
X36.368 Y6.832
X36.546 Y6.694
X36.61 Y6.638
X36.772 Y6.481
X36.829 Y6.419
X36.972 Y6.245
X37.021 Y6.176
X37.144 Y5.987
X37.186 Y5.914
X37.286 Y5.712
X37.319 Y5.634
X37.396 Y5.423
X37.42 Y5.342
X37.473 Y5.123
X37.488 Y5.04
X37.516 Y4.817
X37.521 Y4.732
X37.524 Y4.507
X37.52 Y4.423
X37.497 Y4.199
X37.484 Y4.116
X37.436 Y3.896
X37.413 Y3.815
X37.341 Y3.601
X37.309 Y3.523
X37.213 Y3.319
X37.173 Y3.245
X37.055 Y3.053
X37.007 Y2.984
X36.868 Y2.807
X36.841 Y2.775
G3 X36.769 Y-2.756 I3.191 J-2.807
G1 X36.796 Y-2.789
X36.931 Y-2.971
X36.978 Y-3.042
X37.091 Y-3.238
X37.13 Y-3.313
X37.146 Y-3.35
X37.22 Y-3.521 Z-0.607 F1016
X37.25 Y-3.601 Z-0.609
X37.317 Y-3.817 Z-0.617
X37.337 Y-3.899 Z-0.62
X37.379 Y-4.122 Z-0.628
X37.39 Y-4.206 Z-0.631
X37.406 Y-4.432 Z-0.639
X37.407 Y-4.517 Z-0.642
X37.398 Y-4.743 Z-0.65
X37.39 Y-4.828 Z-0.653
X37.355 Y-5.051 Z-0.661
X37.338 Y-5.134 Z-0.664
X37.278 Y-5.352 Z-0.672
X37.251 Y-5.433 Z-0.675
X37.167 Y-5.643 Z-0.683
X37.131 Y-5.72 Z-0.686
X37.024 Y-5.919 Z-0.693
X36.979 Y-5.991 Z-0.696
X36.85 Y-6.177 Z-0.704
X36.798 Y-6.244 Z-0.707
X36.649 Y-6.414 Z-0.715
X36.589 Y-6.475 Z-0.718
X36.422 Y-6.627 Z-0.726
X36.356 Y-6.68 Z-0.729
X36.173 Y-6.812 Z-0.737
X36.101 Y-6.858 Z-0.74
X35.904 Y-6.969 Z-0.748
X35.874 Y-6.985 Z-0.749
X35.449 Y-7.198 Z-0.766
X35.023 Y-7.424 Z-0.782
X34.588 Y-7.665 Z-0.8
X34.145 Y-7.922 Z-0.818
X33.693 Y-8.193 Z-0.836
X33.233 Y-8.48 Z-0.855
X32.766 Y-8.781 Z-0.874
X32.292 Y-9.096 Z-0.894
X32.157 Y-9.188 Z-0.9
X31.811 Y-9.425 F600
X31.324 Y-9.767
X30.83 Y-10.121
X30.331 Y-10.489
X29.827 Y-10.868
X29.317 Y-11.259
X28.804 Y-11.661
X28.286 Y-12.073
X27.764 Y-12.497
X27.24 Y-12.929
X26.181 Y-13.824
X25.115 Y-14.752
X24.043 Y-15.71
X22.97 Y-16.695
X21.899 Y-17.704
X21.384 Y-18.202
Z-0.6
X20.834 Y-18.733
X19.777 Y-19.777
X18.733 Y-20.834
X18.202 Y-21.384
Z-0.9 F300
X17.704 Y-21.899 F600
X16.695 Y-22.97
X15.71 Y-24.043
X14.752 Y-25.115
X13.824 Y-26.181
X12.929 Y-27.24
X12.497 Y-27.764
X12.073 Y-28.286
X11.661 Y-28.804
X11.259 Y-29.317
X10.868 Y-29.827
X10.489 Y-30.331
X10.121 Y-30.83
X9.767 Y-31.324
X9.425 Y-31.811
X9.096 Y-32.292
X8.781 Y-32.766
X8.48 Y-33.233
X8.193 Y-33.693
X7.922 Y-34.145
X7.665 Y-34.588
X7.424 Y-35.023
X7.198 Y-35.449
X6.985 Y-35.874
X6.969 Y-35.904
X6.858 Y-36.101
X6.812 Y-36.173
X6.68 Y-36.356
X6.626 Y-36.422
X6.474 Y-36.59
X6.413 Y-36.65
X6.243 Y-36.799
X6.176 Y-36.851
X5.99 Y-36.98
X5.918 Y-37.024
X5.718 Y-37.132
X5.641 Y-37.168
X5.431 Y-37.251
X5.35 Y-37.278
X5.132 Y-37.338
X5.05 Y-37.356
X4.826 Y-37.39
X4.741 Y-37.398
X4.515 Y-37.407
X4.43 Y-37.406
X4.205 Y-37.39
X4.121 Y-37.379
X3.898 Y-37.337
X3.816 Y-37.316
X3.6 Y-37.25
X3.52 Y-37.22
X3.313 Y-37.129
X3.237 Y-37.091
X3.042 Y-36.978
X2.971 Y-36.931
X2.789 Y-36.796
X2.756 Y-36.769
G3 X-2.775 Y-36.841 I-2.723 J-3.263
G1 X-2.807 Y-36.868
X-2.984 Y-37.007
X-3.054 Y-37.055
X-3.245 Y-37.173
X-3.32 Y-37.214
X-3.524 Y-37.31
X-3.602 Y-37.341
X-3.816 Y-37.414
X-3.897 Y-37.436
X-4.117 Y-37.484
X-4.201 Y-37.497
X-4.425 Y-37.52
X-4.509 Y-37.524
X-4.734 Y-37.521
X-4.819 Y-37.516
X-5.042 Y-37.488
X-5.125 Y-37.473
X-5.344 Y-37.42
X-5.424 Y-37.395
X-5.636 Y-37.318
X-5.714 Y-37.285
X-5.915 Y-37.185
X-5.988 Y-37.143
X-6.177 Y-37.021
X-6.245 Y-36.971
X-6.42 Y-36.828
X-6.482 Y-36.771
X-6.639 Y-36.61
X-6.694 Y-36.546
X-6.832 Y-36.368
X-6.879 Y-36.299
X-6.996 Y-36.106
X-7.014 Y-36.076
X-7.236 Y-35.669
X-7.471 Y-35.259
X-7.722 Y-34.838
X-7.988 Y-34.409
X-8.269 Y-33.97
X-8.565 Y-33.522
X-8.876 Y-33.066
X-9.2 Y-32.602
X-9.538 Y-32.13
X-9.889 Y-31.652
X-10.254 Y-31.166
X-10.63 Y-30.674
X-11.018 Y-30.176
X-11.418 Y-29.672
X-11.829 Y-29.163
X-12.251 Y-28.65
X-12.683 Y-28.132
X-13.123 Y-27.611
X-14.035 Y-26.556
X-14.978 Y-25.491
X-15.951 Y-24.419
X-16.95 Y-23.343
X-17.972 Y-22.267
X-18.488 Y-21.734
Z-0.6
X-19.011 Y-21.195
X-20.065 Y-20.13
X-21.13 Y-19.075
X-21.67 Y-18.552
Z-0.9 F300
X-22.203 Y-18.036 F600
X-23.278 Y-17.015
X-24.354 Y-16.016
X-25.426 Y-15.043
X-26.491 Y-14.099
X-27.546 Y-13.188
X-28.067 Y-12.747
X-28.585 Y-12.315
X-29.099 Y-11.894
X-29.608 Y-11.483
X-30.112 Y-11.083
X-30.61 Y-10.694
X-31.102 Y-10.318
X-31.587 Y-9.954
X-32.066 Y-9.603
X-32.538 Y-9.264
X-33.002 Y-8.94
X-33.458 Y-8.629
X-33.905 Y-8.333
X-34.344 Y-8.052
X-34.774 Y-7.786
X-35.194 Y-7.535
X-35.605 Y-7.301
X-36.012 Y-7.078
X-36.042 Y-7.061
X-36.234 Y-6.944
X-36.304 Y-6.896
X-36.482 Y-6.758
X-36.546 Y-6.703
X-36.708 Y-6.545
X-36.765 Y-6.483
X-36.907 Y-6.309
X-36.957 Y-6.241
X-37.079 Y-6.052
X-37.121 Y-5.978
X-37.222 Y-5.776
X-37.255 Y-5.698
X-37.332 Y-5.487
X-37.356 Y-5.406
X-37.408 Y-5.188
X-37.424 Y-5.105
X-37.451 Y-4.881
X-37.457 Y-4.797
X-37.459 Y-4.571
X-37.455 Y-4.487
X-37.433 Y-4.263
X-37.419 Y-4.18
X-37.371 Y-3.96
X-37.349 Y-3.879
X-37.276 Y-3.665
X-37.245 Y-3.587
X-37.149 Y-3.384
X-37.109 Y-3.309
X-36.991 Y-3.118
X-36.943 Y-3.049
X-36.804 Y-2.872
X-36.776 Y-2.839
G3 X-36.816 Y2.818 I-3.191 J2.807
G1 X-36.843 Y2.851
X-36.984 Y3.026
X-37.033 Y3.094
X-37.154 Y3.284
X-37.195 Y3.357
X-37.294 Y3.559
X-37.326 Y3.637
X-37.402 Y3.849
X-37.425 Y3.93
X-37.476 Y4.149
X-37.491 Y4.231
X-37.517 Y4.455
X-37.522 Y4.539
X-37.523 Y4.763
X-37.519 Y4.848
X-37.495 Y5.071
X-37.481 Y5.154
X-37.432 Y5.373
X-37.409 Y5.454
X-37.335 Y5.666
X-37.303 Y5.745
X-37.207 Y5.947
X-37.166 Y6.021
X-37.048 Y6.211
X-36.999 Y6.28
X-36.859 Y6.456
X-36.803 Y6.519
X-36.645 Y6.679
X-36.583 Y6.735
X-36.408 Y6.875
X-36.339 Y6.924
X-36.149 Y7.044
X-36.119 Y7.062
X-35.721 Y7.289
X-35.318 Y7.529
X-34.905 Y7.784
X-34.481 Y8.055
X-34.049 Y8.341
X-33.607 Y8.642
X-33.156 Y8.957
X-32.697 Y9.287
X-32.23 Y9.63
X-31.755 Y9.986
X-31.273 Y10.354
X-30.785 Y10.736
X-30.29 Y11.129
X-29.789 Y11.533
X-29.282 Y11.949
X-28.771 Y12.375
X-28.254 Y12.811
X-27.735 Y13.256
X-26.682 Y14.175
X-25.617 Y15.126
X-24.545 Y16.107
X-23.468 Y17.113
X-22.389 Y18.14
X-21.848 Y18.666
Z-0.6
X-21.314 Y19.185
X-20.244 Y20.244
X-19.185 Y21.314
X-18.666 Y21.848
Z-0.9 F300
X-18.14 Y22.389 F600
X-17.113 Y23.468
X-16.107 Y24.545
X-15.126 Y25.617
X-14.175 Y26.682
X-13.256 Y27.735
X-12.811 Y28.254
X-12.375 Y28.771
X-11.949 Y29.282
X-11.533 Y29.789
X-11.129 Y30.29
X-10.736 Y30.785
X-10.354 Y31.273
X-9.986 Y31.755
X-9.63 Y32.23
X-9.287 Y32.697
X-8.957 Y33.156
X-8.642 Y33.607
X-8.341 Y34.049
X-8.055 Y34.481
X-7.784 Y34.905
X-7.529 Y35.318
X-7.289 Y35.721
X-7.062 Y36.119
X-7.044 Y36.149
X-6.924 Y36.339
X-6.875 Y36.408
X-6.734 Y36.583
X-6.678 Y36.646
X-6.519 Y36.804
X-6.455 Y36.86
X-6.279 Y37
X-6.21 Y37.048
X-6.02 Y37.167
X-5.946 Y37.207
X-5.742 Y37.304
X-5.664 Y37.336
X-5.452 Y37.409
X-5.371 Y37.432
X-5.152 Y37.481
X-5.069 Y37.495
X-4.846 Y37.519
X-4.762 Y37.523
X-4.537 Y37.522
X-4.453 Y37.517
X-4.23 Y37.491
X-4.147 Y37.476
X-3.928 Y37.425
X-3.848 Y37.401
X-3.636 Y37.326
X-3.558 Y37.293
X-3.356 Y37.195
X-3.283 Y37.154
X-3.094 Y37.033
X-3.025 Y36.984
X-2.851 Y36.843
X-2.818 Y36.816
G3 X2.838 Y36.776 I2.851 J3.152
G1 X2.87 Y36.803
X3.049 Y36.942
X3.118 Y36.991
X3.31 Y37.109
X3.384 Y37.149
X3.588 Y37.245
X3.666 Y37.277
X3.88 Y37.349
X3.962 Y37.372
X4.182 Y37.42
X4.265 Y37.433
X4.489 Y37.456
X4.574 Y37.459
X4.799 Y37.457
X4.883 Y37.451
X5.106 Y37.423
X5.189 Y37.408
X5.408 Y37.355
X5.489 Y37.331
X5.701 Y37.254
X5.778 Y37.221
X5.979 Y37.121
X6.053 Y37.079
X6.242 Y36.957
X6.31 Y36.907
X6.484 Y36.764
X6.547 Y36.707
X6.703 Y36.545
X6.759 Y36.482
X6.896 Y36.304
X6.944 Y36.234
X7.061 Y36.042
X7.078 Y36.012
X7.301 Y35.605
X7.535 Y35.194
X7.786 Y34.774
X8.052 Y34.344
X8.333 Y33.905
X8.629 Y33.458
X8.94 Y33.002
X9.264 Y32.538
X9.603 Y32.066
X9.954 Y31.587
X10.318 Y31.102
X10.694 Y30.61
X11.083 Y30.112
X11.483 Y29.608
X11.894 Y29.099
X12.315 Y28.585
X12.747 Y28.067
X13.188 Y27.546
X14.099 Y26.491
X15.043 Y25.426
X16.016 Y24.354
X17.015 Y23.278
X18.036 Y22.203
X18.552 Y21.67
Z-0.6
X19.075 Y21.13
X20.13 Y20.065
X21.195 Y19.011
X21.734 Y18.488
Z-0.9 F300
X22.267 Y17.972 F600
X23.343 Y16.95
X24.419 Y15.951
X25.491 Y14.978
X26.556 Y14.035
X27.611 Y13.123
X28.132 Y12.683
X28.65 Y12.251
X29.163 Y11.829
X29.672 Y11.418
X30.176 Y11.018
X30.674 Y10.63
X31.166 Y10.254
X31.652 Y9.889
X32.13 Y9.538
X32.602 Y9.2
X33.066 Y8.876
X33.522 Y8.565
X33.97 Y8.269
X34.409 Y7.988
X34.838 Y7.722
X35.259 Y7.471
X35.669 Y7.236
X36.076 Y7.014
X36.106 Y6.996
X36.299 Y6.879
X36.368 Y6.832
X36.546 Y6.694
X36.61 Y6.638
X36.772 Y6.481
X36.829 Y6.419
X36.972 Y6.245
X37.021 Y6.176
X37.144 Y5.987
X37.186 Y5.914
X37.286 Y5.712
X37.319 Y5.634
X37.396 Y5.423
X37.42 Y5.342
X37.473 Y5.123
X37.488 Y5.04
X37.516 Y4.817
X37.521 Y4.732
X37.524 Y4.507
X37.52 Y4.423
X37.497 Y4.199
X37.484 Y4.116
X37.436 Y3.896
X37.413 Y3.815
X37.341 Y3.601
X37.309 Y3.523
X37.213 Y3.319
X37.173 Y3.245
X37.055 Y3.053
X37.007 Y2.984
X36.868 Y2.807
X36.841 Y2.775
G3 X36.769 Y-2.756 I3.191 J-2.807
G1 X36.796 Y-2.789
X36.931 Y-2.971
X36.978 Y-3.042
X37.091 Y-3.238
X37.13 Y-3.313
X37.22 Y-3.521
X37.25 Y-3.601
X37.317 Y-3.817
X37.337 Y-3.899
X37.379 Y-4.122
X37.39 Y-4.206
X37.406 Y-4.432
X37.407 Y-4.517
X37.398 Y-4.743
X37.39 Y-4.828
X37.355 Y-5.051
X37.338 Y-5.134
X37.278 Y-5.352
X37.251 Y-5.433
X37.167 Y-5.643
X37.131 Y-5.72
X37.024 Y-5.919
X36.979 Y-5.991
X36.85 Y-6.177
X36.798 Y-6.244
X36.649 Y-6.414
X36.589 Y-6.475
X36.422 Y-6.627
X36.356 Y-6.68
X36.173 Y-6.812
X36.101 Y-6.858
X35.904 Y-6.969
X35.874 Y-6.985
X35.449 Y-7.198
X35.023 Y-7.424
X34.588 Y-7.665
X34.145 Y-7.922
X33.693 Y-8.193
X33.233 Y-8.48
X32.766 Y-8.781
X32.292 Y-9.096
X32.157 Y-9.188
X31.811 Y-9.425 Z-0.915 F1016
X31.324 Y-9.767 Z-0.935
X30.83 Y-10.121 Z-0.957
X30.331 Y-10.489 Z-0.978
X29.827 Y-10.868 Z-1
X29.317 Y-11.259 Z-1.023
X28.804 Y-11.661 Z-1.046
X28.286 Y-12.073 Z-1.069
X27.764 Y-12.497 Z-1.092
X27.24 Y-12.929 Z-1.116
X26.181 Y-13.824 Z-1.164
X25.408 Y-14.496 Z-1.2
X25.115 Y-14.752 F600
X24.043 Y-15.71
X22.97 Y-16.695
X21.899 Y-17.704
X21.384 Y-18.202
Z-0.6
X20.834 Y-18.733
X19.777 Y-19.777
X18.733 Y-20.834
X18.202 Y-21.384
Z-1.2 F300
X17.704 Y-21.899 F600
X16.695 Y-22.97
X15.71 Y-24.043
X14.752 Y-25.115
X13.824 Y-26.181
X12.929 Y-27.24
X12.497 Y-27.764
X12.073 Y-28.286
X11.661 Y-28.804
X11.259 Y-29.317
X10.868 Y-29.827
X10.489 Y-30.331
X10.121 Y-30.83
X9.767 Y-31.324
X9.425 Y-31.811
X9.096 Y-32.292
X8.781 Y-32.766
X8.48 Y-33.233
X8.193 Y-33.693
X7.922 Y-34.145
X7.665 Y-34.588
X7.424 Y-35.023
X7.198 Y-35.449
X6.985 Y-35.874
X6.969 Y-35.904
X6.858 Y-36.101
X6.812 Y-36.173
X6.68 Y-36.356
X6.626 Y-36.422
X6.474 Y-36.59
X6.413 Y-36.65
X6.243 Y-36.799
X6.176 Y-36.851
X5.99 Y-36.98
X5.918 Y-37.024
X5.718 Y-37.132
X5.641 Y-37.168
X5.431 Y-37.251
X5.35 Y-37.278
X5.132 Y-37.338
X5.05 Y-37.356
X4.826 Y-37.39
X4.741 Y-37.398
X4.515 Y-37.407
X4.43 Y-37.406
X4.205 Y-37.39
X4.121 Y-37.379
X3.898 Y-37.337
X3.816 Y-37.316
X3.6 Y-37.25
X3.52 Y-37.22
X3.313 Y-37.129
X3.237 Y-37.091
X3.042 Y-36.978
X2.971 Y-36.931
X2.789 Y-36.796
X2.756 Y-36.769
G3 X-2.775 Y-36.841 I-2.723 J-3.263
G1 X-2.807 Y-36.868
X-2.984 Y-37.007
X-3.054 Y-37.055
X-3.245 Y-37.173
X-3.32 Y-37.214
X-3.524 Y-37.31
X-3.602 Y-37.341
X-3.816 Y-37.414
X-3.897 Y-37.436
X-4.117 Y-37.484
X-4.201 Y-37.497
X-4.425 Y-37.52
X-4.509 Y-37.524
X-4.734 Y-37.521
X-4.819 Y-37.516
X-5.042 Y-37.488
X-5.125 Y-37.473
X-5.344 Y-37.42
X-5.424 Y-37.395
X-5.636 Y-37.318
X-5.714 Y-37.285
X-5.915 Y-37.185
X-5.988 Y-37.143
X-6.177 Y-37.021
X-6.245 Y-36.971
X-6.42 Y-36.828
X-6.482 Y-36.771
X-6.639 Y-36.61
X-6.694 Y-36.546
X-6.832 Y-36.368
X-6.879 Y-36.299
X-6.996 Y-36.106
X-7.014 Y-36.076
X-7.236 Y-35.669
X-7.471 Y-35.259
X-7.722 Y-34.838
X-7.988 Y-34.409
X-8.269 Y-33.97
X-8.565 Y-33.522
X-8.876 Y-33.066
X-9.2 Y-32.602
X-9.538 Y-32.13
X-9.889 Y-31.652
X-10.254 Y-31.166
X-10.63 Y-30.674
X-11.018 Y-30.176
X-11.418 Y-29.672
X-11.829 Y-29.163
X-12.251 Y-28.65
X-12.683 Y-28.132
X-13.123 Y-27.611
X-14.035 Y-26.556
X-14.978 Y-25.491
X-15.951 Y-24.419
X-16.95 Y-23.343
X-17.972 Y-22.267
X-18.488 Y-21.734
Z-0.6
X-19.011 Y-21.195
X-20.065 Y-20.13
X-21.13 Y-19.075
X-21.67 Y-18.552
Z-1.2 F300
X-22.203 Y-18.036 F600
X-23.278 Y-17.015
X-24.354 Y-16.016
X-25.426 Y-15.043
X-26.491 Y-14.099
X-27.546 Y-13.188
X-28.067 Y-12.747
X-28.585 Y-12.315
X-29.099 Y-11.894
X-29.608 Y-11.483
X-30.112 Y-11.083
X-30.61 Y-10.694
X-31.102 Y-10.318
X-31.587 Y-9.954
X-32.066 Y-9.603
X-32.538 Y-9.264
X-33.002 Y-8.94
X-33.458 Y-8.629
X-33.905 Y-8.333
X-34.344 Y-8.052
X-34.774 Y-7.786
X-35.194 Y-7.535
X-35.605 Y-7.301
X-36.012 Y-7.078
X-36.042 Y-7.061
X-36.234 Y-6.944
X-36.304 Y-6.896
X-36.482 Y-6.758
X-36.546 Y-6.703
X-36.708 Y-6.545
X-36.765 Y-6.483
X-36.907 Y-6.309
X-36.957 Y-6.241
X-37.079 Y-6.052
X-37.121 Y-5.978
X-37.222 Y-5.776
X-37.255 Y-5.698
X-37.332 Y-5.487
X-37.356 Y-5.406
X-37.408 Y-5.188
X-37.424 Y-5.105
X-37.451 Y-4.881
X-37.457 Y-4.797
X-37.459 Y-4.571
X-37.455 Y-4.487
X-37.433 Y-4.263
X-37.419 Y-4.18
X-37.371 Y-3.96
X-37.349 Y-3.879
X-37.276 Y-3.665
X-37.245 Y-3.587
X-37.149 Y-3.384
X-37.109 Y-3.309
X-36.991 Y-3.118
X-36.943 Y-3.049
X-36.804 Y-2.872
X-36.776 Y-2.839
G3 X-36.816 Y2.818 I-3.191 J2.807
G1 X-36.843 Y2.851
X-36.984 Y3.026
X-37.033 Y3.094
X-37.154 Y3.284
X-37.195 Y3.357
X-37.294 Y3.559
X-37.326 Y3.637
X-37.402 Y3.849
X-37.425 Y3.93
X-37.476 Y4.149
X-37.491 Y4.231
X-37.517 Y4.455
X-37.522 Y4.539
X-37.523 Y4.763
X-37.519 Y4.848
X-37.495 Y5.071
X-37.481 Y5.154
X-37.432 Y5.373
X-37.409 Y5.454
X-37.335 Y5.666
X-37.303 Y5.745
X-37.207 Y5.947
X-37.166 Y6.021
X-37.048 Y6.211
X-36.999 Y6.28
X-36.859 Y6.456
X-36.803 Y6.519
X-36.645 Y6.679
X-36.583 Y6.735
X-36.408 Y6.875
X-36.339 Y6.924
X-36.149 Y7.044
X-36.119 Y7.062
X-35.721 Y7.289
X-35.318 Y7.529
X-34.905 Y7.784
X-34.481 Y8.055
X-34.049 Y8.341
X-33.607 Y8.642
X-33.156 Y8.957
X-32.697 Y9.287
X-32.23 Y9.63
X-31.755 Y9.986
X-31.273 Y10.354
X-30.785 Y10.736
X-30.29 Y11.129
X-29.789 Y11.533
X-29.282 Y11.949
X-28.771 Y12.375
X-28.254 Y12.811
X-27.735 Y13.256
X-26.682 Y14.175
X-25.617 Y15.126
X-24.545 Y16.107
X-23.468 Y17.113
X-22.389 Y18.14
X-21.848 Y18.666
Z-0.6
X-21.314 Y19.185
X-20.244 Y20.244
X-19.185 Y21.314
X-18.666 Y21.848
Z-1.2 F300
X-18.14 Y22.389 F600
X-17.113 Y23.468
X-16.107 Y24.545
X-15.126 Y25.617
X-14.175 Y26.682
X-13.256 Y27.735
X-12.811 Y28.254
X-12.375 Y28.771
X-11.949 Y29.282
X-11.533 Y29.789
X-11.129 Y30.29
X-10.736 Y30.785
X-10.354 Y31.273
X-9.986 Y31.755
X-9.63 Y32.23
X-9.287 Y32.697
X-8.957 Y33.156
X-8.642 Y33.607
X-8.341 Y34.049
X-8.055 Y34.481
X-7.784 Y34.905
X-7.529 Y35.318
X-7.289 Y35.721
X-7.062 Y36.119
X-7.044 Y36.149
X-6.924 Y36.339
X-6.875 Y36.408
X-6.734 Y36.583
X-6.678 Y36.646
X-6.519 Y36.804
X-6.455 Y36.86
X-6.279 Y37
X-6.21 Y37.048
X-6.02 Y37.167
X-5.946 Y37.207
X-5.742 Y37.304
X-5.664 Y37.336
X-5.452 Y37.409
X-5.371 Y37.432
X-5.152 Y37.481
X-5.069 Y37.495
X-4.846 Y37.519
X-4.762 Y37.523
X-4.537 Y37.522
X-4.453 Y37.517
X-4.23 Y37.491
X-4.147 Y37.476
X-3.928 Y37.425
X-3.848 Y37.401
X-3.636 Y37.326
X-3.558 Y37.293
X-3.356 Y37.195
X-3.283 Y37.154
X-3.094 Y37.033
X-3.025 Y36.984
X-2.851 Y36.843
X-2.818 Y36.816
G3 X2.838 Y36.776 I2.851 J3.152
G1 X2.87 Y36.803
X3.049 Y36.942
X3.118 Y36.991
X3.31 Y37.109
X3.384 Y37.149
X3.588 Y37.245
X3.666 Y37.277
X3.88 Y37.349
X3.962 Y37.372
X4.182 Y37.42
X4.265 Y37.433
X4.489 Y37.456
X4.574 Y37.459
X4.799 Y37.457
X4.883 Y37.451
X5.106 Y37.423
X5.189 Y37.408
X5.408 Y37.355
X5.489 Y37.331
X5.701 Y37.254
X5.778 Y37.221
X5.979 Y37.121
X6.053 Y37.079
X6.242 Y36.957
X6.31 Y36.907
X6.484 Y36.764
X6.547 Y36.707
X6.703 Y36.545
X6.759 Y36.482
X6.896 Y36.304
X6.944 Y36.234
X7.061 Y36.042
X7.078 Y36.012
X7.301 Y35.605
X7.535 Y35.194
X7.786 Y34.774
X8.052 Y34.344
X8.333 Y33.905
X8.629 Y33.458
X8.94 Y33.002
X9.264 Y32.538
X9.603 Y32.066
X9.954 Y31.587
X10.318 Y31.102
X10.694 Y30.61
X11.083 Y30.112
X11.483 Y29.608
X11.894 Y29.099
X12.315 Y28.585
X12.747 Y28.067
X13.188 Y27.546
X14.099 Y26.491
X15.043 Y25.426
X16.016 Y24.354
X17.015 Y23.278
X18.036 Y22.203
X18.552 Y21.67
Z-0.6
X19.075 Y21.13
X20.13 Y20.065
X21.195 Y19.011
X21.734 Y18.488
Z-1.2 F300
X22.267 Y17.972 F600
X23.343 Y16.95
X24.419 Y15.951
X25.491 Y14.978
X26.556 Y14.035
X27.611 Y13.123
X28.132 Y12.683
X28.65 Y12.251
X29.163 Y11.829
X29.672 Y11.418
X30.176 Y11.018
X30.674 Y10.63
X31.166 Y10.254
X31.652 Y9.889
X32.13 Y9.538
X32.602 Y9.2
X33.066 Y8.876
X33.522 Y8.565
X33.97 Y8.269
X34.409 Y7.988
X34.838 Y7.722
X35.259 Y7.471
X35.669 Y7.236
X36.076 Y7.014
X36.106 Y6.996
X36.299 Y6.879
X36.368 Y6.832
X36.546 Y6.694
X36.61 Y6.638
X36.772 Y6.481
X36.829 Y6.419
X36.972 Y6.245
X37.021 Y6.176
X37.144 Y5.987
X37.186 Y5.914
X37.286 Y5.712
X37.319 Y5.634
X37.396 Y5.423
X37.42 Y5.342
X37.473 Y5.123
X37.488 Y5.04
X37.516 Y4.817
X37.521 Y4.732
X37.524 Y4.507
X37.52 Y4.423
X37.497 Y4.199
X37.484 Y4.116
X37.436 Y3.896
X37.413 Y3.815
X37.341 Y3.601
X37.309 Y3.523
X37.213 Y3.319
X37.173 Y3.245
X37.055 Y3.053
X37.007 Y2.984
X36.868 Y2.807
X36.841 Y2.775
G3 X36.769 Y-2.756 I3.191 J-2.807
G1 X36.796 Y-2.789
X36.931 Y-2.971
X36.978 Y-3.042
X37.091 Y-3.238
X37.13 Y-3.313
X37.22 Y-3.521
X37.25 Y-3.601
X37.317 Y-3.817
X37.337 Y-3.899
X37.379 Y-4.122
X37.39 Y-4.206
X37.406 Y-4.432
X37.407 Y-4.517
X37.398 Y-4.743
X37.39 Y-4.828
X37.355 Y-5.051
X37.338 Y-5.134
X37.278 Y-5.352
X37.251 Y-5.433
X37.167 Y-5.643
X37.131 Y-5.72
X37.024 Y-5.919
X36.979 Y-5.991
X36.85 Y-6.177
X36.798 Y-6.244
X36.649 Y-6.414
X36.589 Y-6.475
X36.422 Y-6.627
X36.356 Y-6.68
X36.173 Y-6.812
X36.101 Y-6.858
X35.904 Y-6.969
X35.874 Y-6.985
X35.449 Y-7.198
X35.023 Y-7.424
X34.588 Y-7.665
X34.145 Y-7.922
X33.693 Y-8.193
X33.233 Y-8.48
X32.766 Y-8.781
X32.292 Y-9.096
X31.811 Y-9.425
X31.324 Y-9.767
X30.83 Y-10.121
X30.331 Y-10.489
X29.827 Y-10.868
X29.317 Y-11.259
X28.804 Y-11.661
X28.286 Y-12.073
X27.764 Y-12.497
X27.24 Y-12.929
X26.181 Y-13.824
X25.408 Y-14.496
X25.115 Y-14.752 Z-1.214 F1016
X24.043 Y-15.71 Z-1.264
X22.97 Y-16.695 Z-1.315
X21.899 Y-17.704 Z-1.366
X21.384 Y-18.202 Z-1.391
Z-0.6
X20.834 Y-18.733
X19.777 Y-19.777
X19.166 Y-20.395
X18.733 Y-20.834 F600
X18.202 Y-21.384
Z-1.5 F300
X17.704 Y-21.899 F600
X16.695 Y-22.97
X15.71 Y-24.043
X14.752 Y-25.115
X13.824 Y-26.181
X12.929 Y-27.24
X12.497 Y-27.764
X12.073 Y-28.286
X11.661 Y-28.804
X11.259 Y-29.317
X10.868 Y-29.827
X10.489 Y-30.331
X10.121 Y-30.83
X9.767 Y-31.324
X9.425 Y-31.811
X9.096 Y-32.292
X8.781 Y-32.766
X8.48 Y-33.233
X8.193 Y-33.693
X7.922 Y-34.145
X7.665 Y-34.588
X7.424 Y-35.023
X7.198 Y-35.449
X6.985 Y-35.874
X6.969 Y-35.904
X6.858 Y-36.101
X6.812 Y-36.173
X6.68 Y-36.356
X6.626 Y-36.422
X6.474 Y-36.59
X6.413 Y-36.65
X6.243 Y-36.799
X6.176 Y-36.851
X5.99 Y-36.98
X5.918 Y-37.024
X5.718 Y-37.132
X5.641 Y-37.168
X5.431 Y-37.251
X5.35 Y-37.278
X5.132 Y-37.338
X5.05 Y-37.356
X4.826 Y-37.39
X4.741 Y-37.398
X4.515 Y-37.407
X4.43 Y-37.406
X4.205 Y-37.39
X4.121 Y-37.379
X3.898 Y-37.337
X3.816 Y-37.316
X3.6 Y-37.25
X3.52 Y-37.22
X3.313 Y-37.129
X3.237 Y-37.091
X3.042 Y-36.978
X2.971 Y-36.931
X2.789 Y-36.796
X2.756 Y-36.769
G3 X-2.775 Y-36.841 I-2.723 J-3.263
G1 X-2.807 Y-36.868
X-2.984 Y-37.007
X-3.054 Y-37.055
X-3.245 Y-37.173
X-3.32 Y-37.214
X-3.524 Y-37.31
X-3.602 Y-37.341
X-3.816 Y-37.414
X-3.897 Y-37.436
X-4.117 Y-37.484
X-4.201 Y-37.497
X-4.425 Y-37.52
X-4.509 Y-37.524
X-4.734 Y-37.521
X-4.819 Y-37.516
X-5.042 Y-37.488
X-5.125 Y-37.473
X-5.344 Y-37.42
X-5.424 Y-37.395
X-5.636 Y-37.318
X-5.714 Y-37.285
X-5.915 Y-37.185
X-5.988 Y-37.143
X-6.177 Y-37.021
X-6.245 Y-36.971
X-6.42 Y-36.828
X-6.482 Y-36.771
X-6.639 Y-36.61
X-6.694 Y-36.546
X-6.832 Y-36.368
X-6.879 Y-36.299
X-6.996 Y-36.106
X-7.014 Y-36.076
X-7.236 Y-35.669
X-7.471 Y-35.259
X-7.722 Y-34.838
X-7.988 Y-34.409
X-8.269 Y-33.97
X-8.565 Y-33.522
X-8.876 Y-33.066
X-9.2 Y-32.602
X-9.538 Y-32.13
X-9.889 Y-31.652
X-10.254 Y-31.166
X-10.63 Y-30.674
X-11.018 Y-30.176
X-11.418 Y-29.672
X-11.829 Y-29.163
X-12.251 Y-28.65
X-12.683 Y-28.132
X-13.123 Y-27.611
X-14.035 Y-26.556
X-14.978 Y-25.491
X-15.951 Y-24.419
X-16.95 Y-23.343
X-17.972 Y-22.267
X-18.488 Y-21.734
Z-0.6
X-19.011 Y-21.195
X-20.065 Y-20.13
X-21.13 Y-19.075
X-21.67 Y-18.552
Z-1.5 F300
X-22.203 Y-18.036 F600
X-23.278 Y-17.015
X-24.354 Y-16.016
X-25.426 Y-15.043
X-26.491 Y-14.099
X-27.546 Y-13.188
X-28.067 Y-12.747
X-28.585 Y-12.315
X-29.099 Y-11.894
X-29.608 Y-11.483
X-30.112 Y-11.083
X-30.61 Y-10.694
X-31.102 Y-10.318
X-31.587 Y-9.954
X-32.066 Y-9.603
X-32.538 Y-9.264
X-33.002 Y-8.94
X-33.458 Y-8.629
X-33.905 Y-8.333
X-34.344 Y-8.052
X-34.774 Y-7.786
X-35.194 Y-7.535
X-35.605 Y-7.301
X-36.012 Y-7.078
X-36.042 Y-7.061
X-36.234 Y-6.944
X-36.304 Y-6.896
X-36.482 Y-6.758
X-36.546 Y-6.703
X-36.708 Y-6.545
X-36.765 Y-6.483
X-36.907 Y-6.309
X-36.957 Y-6.241
X-37.079 Y-6.052
X-37.121 Y-5.978
X-37.222 Y-5.776
X-37.255 Y-5.698
X-37.332 Y-5.487
X-37.356 Y-5.406
X-37.408 Y-5.188
X-37.424 Y-5.105
X-37.451 Y-4.881
X-37.457 Y-4.797
X-37.459 Y-4.571
X-37.455 Y-4.487
X-37.433 Y-4.263
X-37.419 Y-4.18
X-37.371 Y-3.96
X-37.349 Y-3.879
X-37.276 Y-3.665
X-37.245 Y-3.587
X-37.149 Y-3.384
X-37.109 Y-3.309
X-36.991 Y-3.118
X-36.943 Y-3.049
X-36.804 Y-2.872
X-36.776 Y-2.839
G3 X-36.816 Y2.818 I-3.191 J2.807
G1 X-36.843 Y2.851
X-36.984 Y3.026
X-37.033 Y3.094
X-37.154 Y3.284
X-37.195 Y3.357
X-37.294 Y3.559
X-37.326 Y3.637
X-37.402 Y3.849
X-37.425 Y3.93
X-37.476 Y4.149
X-37.491 Y4.231
X-37.517 Y4.455
X-37.522 Y4.539
X-37.523 Y4.763
X-37.519 Y4.848
X-37.495 Y5.071
X-37.481 Y5.154
X-37.432 Y5.373
X-37.409 Y5.454
X-37.335 Y5.666
X-37.303 Y5.745
X-37.207 Y5.947
X-37.166 Y6.021
X-37.048 Y6.211
X-36.999 Y6.28
X-36.859 Y6.456
X-36.803 Y6.519
X-36.645 Y6.679
X-36.583 Y6.735
X-36.408 Y6.875
X-36.339 Y6.924
X-36.149 Y7.044
X-36.119 Y7.062
X-35.721 Y7.289
X-35.318 Y7.529
X-34.905 Y7.784
X-34.481 Y8.055
X-34.049 Y8.341
X-33.607 Y8.642
X-33.156 Y8.957
X-32.697 Y9.287
X-32.23 Y9.63
X-31.755 Y9.986
X-31.273 Y10.354
X-30.785 Y10.736
X-30.29 Y11.129
X-29.789 Y11.533
X-29.282 Y11.949
X-28.771 Y12.375
X-28.254 Y12.811
X-27.735 Y13.256
X-26.682 Y14.175
X-25.617 Y15.126
X-24.545 Y16.107
X-23.468 Y17.113
X-22.389 Y18.14
X-21.848 Y18.666
Z-0.6
X-21.314 Y19.185
X-20.244 Y20.244
X-19.185 Y21.314
X-18.666 Y21.848
Z-1.5 F300
X-18.14 Y22.389 F600
X-17.113 Y23.468
X-16.107 Y24.545
X-15.126 Y25.617
X-14.175 Y26.682
X-13.256 Y27.735
X-12.811 Y28.254
X-12.375 Y28.771
X-11.949 Y29.282
X-11.533 Y29.789
X-11.129 Y30.29
X-10.736 Y30.785
X-10.354 Y31.273
X-9.986 Y31.755
X-9.63 Y32.23
X-9.287 Y32.697
X-8.957 Y33.156
X-8.642 Y33.607
X-8.341 Y34.049
X-8.055 Y34.481
X-7.784 Y34.905
X-7.529 Y35.318
X-7.289 Y35.721
X-7.062 Y36.119
X-7.044 Y36.149
X-6.924 Y36.339
X-6.875 Y36.408
X-6.734 Y36.583
X-6.678 Y36.646
X-6.519 Y36.804
X-6.455 Y36.86
X-6.279 Y37
X-6.21 Y37.048
X-6.02 Y37.167
X-5.946 Y37.207
X-5.742 Y37.304
X-5.664 Y37.336
X-5.452 Y37.409
X-5.371 Y37.432
X-5.152 Y37.481
X-5.069 Y37.495
X-4.846 Y37.519
X-4.762 Y37.523
X-4.537 Y37.522
X-4.453 Y37.517
X-4.23 Y37.491
X-4.147 Y37.476
X-3.928 Y37.425
X-3.848 Y37.401
X-3.636 Y37.326
X-3.558 Y37.293
X-3.356 Y37.195
X-3.283 Y37.154
X-3.094 Y37.033
X-3.025 Y36.984
X-2.851 Y36.843
X-2.818 Y36.816
G3 X2.838 Y36.776 I2.851 J3.152
G1 X2.87 Y36.803
X3.049 Y36.942
X3.118 Y36.991
X3.31 Y37.109
X3.384 Y37.149
X3.588 Y37.245
X3.666 Y37.277
X3.88 Y37.349
X3.962 Y37.372
X4.182 Y37.42
X4.265 Y37.433
X4.489 Y37.456
X4.574 Y37.459
X4.799 Y37.457
X4.883 Y37.451
X5.106 Y37.423
X5.189 Y37.408
X5.408 Y37.355
X5.489 Y37.331
X5.701 Y37.254
X5.778 Y37.221
X5.979 Y37.121
X6.053 Y37.079
X6.242 Y36.957
X6.31 Y36.907
X6.484 Y36.764
X6.547 Y36.707
X6.703 Y36.545
X6.759 Y36.482
X6.896 Y36.304
X6.944 Y36.234
X7.061 Y36.042
X7.078 Y36.012
X7.301 Y35.605
X7.535 Y35.194
X7.786 Y34.774
X8.052 Y34.344
X8.333 Y33.905
X8.629 Y33.458
X8.94 Y33.002
X9.264 Y32.538
X9.603 Y32.066
X9.954 Y31.587
X10.318 Y31.102
X10.694 Y30.61
X11.083 Y30.112
X11.483 Y29.608
X11.894 Y29.099
X12.315 Y28.585
X12.747 Y28.067
X13.188 Y27.546
X14.099 Y26.491
X15.043 Y25.426
X16.016 Y24.354
X17.015 Y23.278
X18.036 Y22.203
X18.552 Y21.67
Z-0.6
X19.075 Y21.13
X20.13 Y20.065
X21.195 Y19.011
X21.734 Y18.488
Z-1.5 F300
X22.267 Y17.972 F600
X23.343 Y16.95
X24.419 Y15.951
X25.491 Y14.978
X26.556 Y14.035
X27.611 Y13.123
X28.132 Y12.683
X28.65 Y12.251
X29.163 Y11.829
X29.672 Y11.418
X30.176 Y11.018
X30.674 Y10.63
X31.166 Y10.254
X31.652 Y9.889
X32.13 Y9.538
X32.602 Y9.2
X33.066 Y8.876
X33.522 Y8.565
X33.97 Y8.269
X34.409 Y7.988
X34.838 Y7.722
X35.259 Y7.471
X35.669 Y7.236
X36.076 Y7.014
X36.106 Y6.996
X36.299 Y6.879
X36.368 Y6.832
X36.546 Y6.694
X36.61 Y6.638
X36.772 Y6.481
X36.829 Y6.419
X36.972 Y6.245
X37.021 Y6.176
X37.144 Y5.987
X37.186 Y5.914
X37.286 Y5.712
X37.319 Y5.634
X37.396 Y5.423
X37.42 Y5.342
X37.473 Y5.123
X37.488 Y5.04
X37.516 Y4.817
X37.521 Y4.732
X37.524 Y4.507
X37.52 Y4.423
X37.497 Y4.199
X37.484 Y4.116
X37.436 Y3.896
X37.413 Y3.815
X37.341 Y3.601
X37.309 Y3.523
X37.213 Y3.319
X37.173 Y3.245
X37.055 Y3.053
X37.007 Y2.984
X36.868 Y2.807
X36.841 Y2.775
G3 X36.769 Y-2.756 I3.191 J-2.807
G1 X36.796 Y-2.789
X36.931 Y-2.971
X36.978 Y-3.042
X37.091 Y-3.238
X37.13 Y-3.313
X37.22 Y-3.521
X37.25 Y-3.601
X37.317 Y-3.817
X37.337 Y-3.899
X37.379 Y-4.122
X37.39 Y-4.206
X37.406 Y-4.432
X37.407 Y-4.517
X37.398 Y-4.743
X37.39 Y-4.828
X37.355 Y-5.051
X37.338 Y-5.134
X37.278 Y-5.352
X37.251 Y-5.433
X37.167 Y-5.643
X37.131 Y-5.72
X37.024 Y-5.919
X36.979 Y-5.991
X36.85 Y-6.177
X36.798 Y-6.244
X36.649 Y-6.414
X36.589 Y-6.475
X36.422 Y-6.627
X36.356 Y-6.68
X36.173 Y-6.812
X36.101 Y-6.858
X35.904 Y-6.969
X35.874 Y-6.985
X35.449 Y-7.198
X35.023 Y-7.424
X34.588 Y-7.665
X34.145 Y-7.922
X33.693 Y-8.193
X33.233 Y-8.48
X32.766 Y-8.781
X32.292 Y-9.096
X31.811 Y-9.425
X31.324 Y-9.767
X30.83 Y-10.121
X30.331 Y-10.489
X29.827 Y-10.868
X29.317 Y-11.259
X28.804 Y-11.661
X28.286 Y-12.073
X27.764 Y-12.497
X27.24 Y-12.929
X26.181 Y-13.824
X25.115 Y-14.752
X24.043 Y-15.71
X22.97 Y-16.695
X21.899 Y-17.704
X21.384 Y-18.202
Z-0.6
X20.834 Y-18.733
X19.777 Y-19.777
X19.166 Y-20.395
X18.733 Y-20.834 F1016
X18.202 Y-21.384
Z-1.548 F300
X17.704 Y-21.899 Z-1.573 F1016
X17.179 Y-22.457 Z-1.6
X16.695 Y-22.97 F600
X15.71 Y-24.043
X14.752 Y-25.115
X13.824 Y-26.181
X12.929 Y-27.24
X12.497 Y-27.764
X12.073 Y-28.286
X11.661 Y-28.804
X11.259 Y-29.317
X10.868 Y-29.827
X10.489 Y-30.331
X10.121 Y-30.83
X9.767 Y-31.324
X9.425 Y-31.811
X9.096 Y-32.292
X8.781 Y-32.766
X8.48 Y-33.233
X8.193 Y-33.693
X7.922 Y-34.145
X7.665 Y-34.588
X7.424 Y-35.023
X7.198 Y-35.449
X6.985 Y-35.874
X6.969 Y-35.904
X6.858 Y-36.101
X6.812 Y-36.173
X6.68 Y-36.356
X6.626 Y-36.422
X6.474 Y-36.59
X6.413 Y-36.65
X6.243 Y-36.799
X6.176 Y-36.851
X5.99 Y-36.98
X5.918 Y-37.024
X5.718 Y-37.132
X5.641 Y-37.168
X5.431 Y-37.251
X5.35 Y-37.278
X5.132 Y-37.338
X5.05 Y-37.356
X4.826 Y-37.39
X4.741 Y-37.398
X4.515 Y-37.407
X4.43 Y-37.406
X4.205 Y-37.39
X4.121 Y-37.379
X3.898 Y-37.337
X3.816 Y-37.316
X3.6 Y-37.25
X3.52 Y-37.22
X3.313 Y-37.129
X3.237 Y-37.091
X3.042 Y-36.978
X2.971 Y-36.931
X2.789 Y-36.796
X2.756 Y-36.769
G3 X-2.775 Y-36.841 I-2.723 J-3.263
G1 X-2.807 Y-36.868
X-2.984 Y-37.007
X-3.054 Y-37.055
X-3.245 Y-37.173
X-3.32 Y-37.214
X-3.524 Y-37.31
X-3.602 Y-37.341
X-3.816 Y-37.414
X-3.897 Y-37.436
X-4.117 Y-37.484
X-4.201 Y-37.497
X-4.425 Y-37.52
X-4.509 Y-37.524
X-4.734 Y-37.521
X-4.819 Y-37.516
X-5.042 Y-37.488
X-5.125 Y-37.473
X-5.344 Y-37.42
X-5.424 Y-37.395
X-5.636 Y-37.318
X-5.714 Y-37.285
X-5.915 Y-37.185
X-5.988 Y-37.143
X-6.177 Y-37.021
X-6.245 Y-36.971
X-6.42 Y-36.828
X-6.482 Y-36.771
X-6.639 Y-36.61
X-6.694 Y-36.546
X-6.832 Y-36.368
X-6.879 Y-36.299
X-6.996 Y-36.106
X-7.014 Y-36.076
X-7.236 Y-35.669
X-7.471 Y-35.259
X-7.722 Y-34.838
X-7.988 Y-34.409
X-8.269 Y-33.97
X-8.565 Y-33.522
X-8.876 Y-33.066
X-9.2 Y-32.602
X-9.538 Y-32.13
X-9.889 Y-31.652
X-10.254 Y-31.166
X-10.63 Y-30.674
X-11.018 Y-30.176
X-11.418 Y-29.672
X-11.829 Y-29.163
X-12.251 Y-28.65
X-12.683 Y-28.132
X-13.123 Y-27.611
X-14.035 Y-26.556
X-14.978 Y-25.491
X-15.951 Y-24.419
X-16.95 Y-23.343
X-17.972 Y-22.267
X-18.488 Y-21.734
Z-0.6
X-19.011 Y-21.195
X-20.065 Y-20.13
X-21.13 Y-19.075
X-21.67 Y-18.552
Z-1.6 F300
X-22.203 Y-18.036 F600
X-23.278 Y-17.015
X-24.354 Y-16.016
X-25.426 Y-15.043
X-26.491 Y-14.099
X-27.546 Y-13.188
X-28.067 Y-12.747
X-28.585 Y-12.315
X-29.099 Y-11.894
X-29.608 Y-11.483
X-30.112 Y-11.083
X-30.61 Y-10.694
X-31.102 Y-10.318
X-31.587 Y-9.954
X-32.066 Y-9.603
X-32.538 Y-9.264
X-33.002 Y-8.94
X-33.458 Y-8.629
X-33.905 Y-8.333
X-34.344 Y-8.052
X-34.774 Y-7.786
X-35.194 Y-7.535
X-35.605 Y-7.301
X-36.012 Y-7.078
X-36.042 Y-7.061
X-36.234 Y-6.944
X-36.304 Y-6.896
X-36.482 Y-6.758
X-36.546 Y-6.703
X-36.708 Y-6.545
X-36.765 Y-6.483
X-36.907 Y-6.309
X-36.957 Y-6.241
X-37.079 Y-6.052
X-37.121 Y-5.978
X-37.222 Y-5.776
X-37.255 Y-5.698
X-37.332 Y-5.487
X-37.356 Y-5.406
X-37.408 Y-5.188
X-37.424 Y-5.105
X-37.451 Y-4.881
X-37.457 Y-4.797
X-37.459 Y-4.571
X-37.455 Y-4.487
X-37.433 Y-4.263
X-37.419 Y-4.18
X-37.371 Y-3.96
X-37.349 Y-3.879
X-37.276 Y-3.665
X-37.245 Y-3.587
X-37.149 Y-3.384
X-37.109 Y-3.309
X-36.991 Y-3.118
X-36.943 Y-3.049
X-36.804 Y-2.872
X-36.776 Y-2.839
G3 X-36.816 Y2.818 I-3.191 J2.807
G1 X-36.843 Y2.851
X-36.984 Y3.026
X-37.033 Y3.094
X-37.154 Y3.284
X-37.195 Y3.357
X-37.294 Y3.559
X-37.326 Y3.637
X-37.402 Y3.849
X-37.425 Y3.93
X-37.476 Y4.149
X-37.491 Y4.231
X-37.517 Y4.455
X-37.522 Y4.539
X-37.523 Y4.763
X-37.519 Y4.848
X-37.495 Y5.071
X-37.481 Y5.154
X-37.432 Y5.373
X-37.409 Y5.454
X-37.335 Y5.666
X-37.303 Y5.745
X-37.207 Y5.947
X-37.166 Y6.021
X-37.048 Y6.211
X-36.999 Y6.28
X-36.859 Y6.456
X-36.803 Y6.519
X-36.645 Y6.679
X-36.583 Y6.735
X-36.408 Y6.875
X-36.339 Y6.924
X-36.149 Y7.044
X-36.119 Y7.062
X-35.721 Y7.289
X-35.318 Y7.529
X-34.905 Y7.784
X-34.481 Y8.055
X-34.049 Y8.341
X-33.607 Y8.642
X-33.156 Y8.957
X-32.697 Y9.287
X-32.23 Y9.63
X-31.755 Y9.986
X-31.273 Y10.354
X-30.785 Y10.736
X-30.29 Y11.129
X-29.789 Y11.533
X-29.282 Y11.949
X-28.771 Y12.375
X-28.254 Y12.811
X-27.735 Y13.256
X-26.682 Y14.175
X-25.617 Y15.126
X-24.545 Y16.107
X-23.468 Y17.113
X-22.389 Y18.14
X-21.848 Y18.666
Z-0.6
X-21.314 Y19.185
X-20.244 Y20.244
X-19.185 Y21.314
X-18.666 Y21.848
Z-1.6 F300
X-18.14 Y22.389 F600
X-17.113 Y23.468
X-16.107 Y24.545
X-15.126 Y25.617
X-14.175 Y26.682
X-13.256 Y27.735
X-12.811 Y28.254
X-12.375 Y28.771
X-11.949 Y29.282
X-11.533 Y29.789
X-11.129 Y30.29
X-10.736 Y30.785
X-10.354 Y31.273
X-9.986 Y31.755
X-9.63 Y32.23
X-9.287 Y32.697
X-8.957 Y33.156
X-8.642 Y33.607
X-8.341 Y34.049
X-8.055 Y34.481
X-7.784 Y34.905
X-7.529 Y35.318
X-7.289 Y35.721
X-7.062 Y36.119
X-7.044 Y36.149
X-6.924 Y36.339
X-6.875 Y36.408
X-6.734 Y36.583
X-6.678 Y36.646
X-6.519 Y36.804
X-6.455 Y36.86
X-6.279 Y37
X-6.21 Y37.048
X-6.02 Y37.167
X-5.946 Y37.207
X-5.742 Y37.304
X-5.664 Y37.336
X-5.452 Y37.409
X-5.371 Y37.432
X-5.152 Y37.481
X-5.069 Y37.495
X-4.846 Y37.519
X-4.762 Y37.523
X-4.537 Y37.522
X-4.453 Y37.517
X-4.23 Y37.491
X-4.147 Y37.476
X-3.928 Y37.425
X-3.848 Y37.401
X-3.636 Y37.326
X-3.558 Y37.293
X-3.356 Y37.195
X-3.283 Y37.154
X-3.094 Y37.033
X-3.025 Y36.984
X-2.851 Y36.843
X-2.818 Y36.816
G3 X2.838 Y36.776 I2.851 J3.152
G1 X2.87 Y36.803
X3.049 Y36.942
X3.118 Y36.991
X3.31 Y37.109
X3.384 Y37.149
X3.588 Y37.245
X3.666 Y37.277
X3.88 Y37.349
X3.962 Y37.372
X4.182 Y37.42
X4.265 Y37.433
X4.489 Y37.456
X4.574 Y37.459
X4.799 Y37.457
X4.883 Y37.451
X5.106 Y37.423
X5.189 Y37.408
X5.408 Y37.355
X5.489 Y37.331
X5.701 Y37.254
X5.778 Y37.221
X5.979 Y37.121
X6.053 Y37.079
X6.242 Y36.957
X6.31 Y36.907
X6.484 Y36.764
X6.547 Y36.707
X6.703 Y36.545
X6.759 Y36.482
X6.896 Y36.304
X6.944 Y36.234
X7.061 Y36.042
X7.078 Y36.012
X7.301 Y35.605
X7.535 Y35.194
X7.786 Y34.774
X8.052 Y34.344
X8.333 Y33.905
X8.629 Y33.458
X8.94 Y33.002
X9.264 Y32.538
X9.603 Y32.066
X9.954 Y31.587
X10.318 Y31.102
X10.694 Y30.61
X11.083 Y30.112
X11.483 Y29.608
X11.894 Y29.099
X12.315 Y28.585
X12.747 Y28.067
X13.188 Y27.546
X14.099 Y26.491
X15.043 Y25.426
X16.016 Y24.354
X17.015 Y23.278
X18.036 Y22.203
X18.552 Y21.67
Z-0.6
X19.075 Y21.13
X20.13 Y20.065
X21.195 Y19.011
X21.734 Y18.488
Z-1.6 F300
X22.267 Y17.972 F600
X23.343 Y16.95
X24.419 Y15.951
X25.491 Y14.978
X26.556 Y14.035
X27.611 Y13.123
X28.132 Y12.683
X28.65 Y12.251
X29.163 Y11.829
X29.672 Y11.418
X30.176 Y11.018
X30.674 Y10.63
X31.166 Y10.254
X31.652 Y9.889
X32.13 Y9.538
X32.602 Y9.2
X33.066 Y8.876
X33.522 Y8.565
X33.97 Y8.269
X34.409 Y7.988
X34.838 Y7.722
X35.259 Y7.471
X35.669 Y7.236
X36.076 Y7.014
X36.106 Y6.996
X36.299 Y6.879
X36.368 Y6.832
X36.546 Y6.694
X36.61 Y6.638
X36.772 Y6.481
X36.829 Y6.419
X36.972 Y6.245
X37.021 Y6.176
X37.144 Y5.987
X37.186 Y5.914
X37.286 Y5.712
X37.319 Y5.634
X37.396 Y5.423
X37.42 Y5.342
X37.473 Y5.123
X37.488 Y5.04
X37.516 Y4.817
X37.521 Y4.732
X37.524 Y4.507
X37.52 Y4.423
X37.497 Y4.199
X37.484 Y4.116
X37.436 Y3.896
X37.413 Y3.815
X37.341 Y3.601
X37.309 Y3.523
X37.213 Y3.319
X37.173 Y3.245
X37.055 Y3.053
X37.007 Y2.984
X36.868 Y2.807
X36.841 Y2.775
G3 X36.769 Y-2.756 I3.191 J-2.807
G1 X36.796 Y-2.789
X36.931 Y-2.971
X36.978 Y-3.042
X37.091 Y-3.238
X37.13 Y-3.313
X37.22 Y-3.521
X37.25 Y-3.601
X37.317 Y-3.817
X37.337 Y-3.899
X37.379 Y-4.122
X37.39 Y-4.206
X37.406 Y-4.432
X37.407 Y-4.517
X37.398 Y-4.743
X37.39 Y-4.828
X37.355 Y-5.051
X37.338 Y-5.134
X37.278 Y-5.352
X37.251 Y-5.433
X37.167 Y-5.643
X37.131 Y-5.72
X37.024 Y-5.919
X36.979 Y-5.991
X36.85 Y-6.177
X36.798 Y-6.244
X36.649 Y-6.414
X36.589 Y-6.475
X36.422 Y-6.627
X36.356 Y-6.68
X36.173 Y-6.812
X36.101 Y-6.858
X35.904 Y-6.969
X35.874 Y-6.985
X35.449 Y-7.198
X35.023 Y-7.424
X34.588 Y-7.665
X34.145 Y-7.922
X33.693 Y-8.193
X33.233 Y-8.48
X32.766 Y-8.781
X32.292 Y-9.096
X31.811 Y-9.425
X31.324 Y-9.767
X30.83 Y-10.121
X30.331 Y-10.489
X29.827 Y-10.868
X29.317 Y-11.259
X28.804 Y-11.661
X28.286 Y-12.073
X27.764 Y-12.497
X27.24 Y-12.929
X26.181 Y-13.824
X25.115 Y-14.752
X24.043 Y-15.71
X22.97 Y-16.695
X21.899 Y-17.704
X21.384 Y-18.202
Z-0.6
X20.834 Y-18.733
X19.777 Y-19.777
X18.733 Y-20.834
X18.202 Y-21.384
Z-1.6 F300
X17.704 Y-21.899 F600
X17.179 Y-22.457
G0 Z15
G28 G91 Z0
G90
G28 G91 X0 Y0
G90
M5
M30
