(1001)
(Bearbeiten)
(  Hersteller: ChinaCnc)
(  model: 3040T)
(  description: Generic 3-axis)
(T14  D=1.5 CR=0 - ZMIN=-16 - Schaftfraser)
G90 G94
G17
G21
G28 G91 Z0
G90

(Bohrfrasen5)
T14
S6000 M3
G54
G0 X40.15 Y-3.625
Z15
Z2
G1 Z0.15 F400
Y-3.618 Z0.104
Y-3.596 Z0.062
Y-3.563 Z0.029
Y-3.521 Z0.007
Y-3.475 Z0
Y-3.4
X40.143 Y-3.354
X40.121 Y-3.312
X40.088 Y-3.279
X40.046 Y-3.257
X40 Y-3.25
G3 X40 Y-11.75 Z-0.25 I0 J-4.25 F600
X40 Y-3.25 Z-0.5 I0 J4.25
X40 Y-11.75 Z-0.75 I0 J-4.25
X40 Y-3.25 Z-1 I0 J4.25
X40 Y-11.75 Z-1.25 I0 J-4.25
X40 Y-3.25 Z-1.5 I0 J4.25
X40 Y-11.75 Z-1.75 I0 J-4.25
X40 Y-3.25 Z-2 I0 J4.25
X40 Y-11.75 I0 J-4.25
X40 Y-3.25 I0 J4.25
G1 X39.954 Y-3.257
X39.912 Y-3.279
X39.879 Y-3.312
X39.857 Y-3.354
X39.85 Y-3.4
Y-3.475
Y-3.521 Z-1.993
Y-3.563 Z-1.971
Y-3.596 Z-1.938
Y-3.618 Z-1.896
Y-3.625 Z-1.85
G0 Z5
X21.717 Y-7.025
Z2
G1 Z0.15 F400
Y-7.018 Z0.104
Y-6.996 Z0.062
Y-6.963 Z0.029
Y-6.921 Z0.007
Y-6.875 Z0
Y-6.8
X21.709 Y-6.754
X21.688 Y-6.712
X21.655 Y-6.679
X21.613 Y-6.657
X21.567 Y-6.65
G3 X21.567 Y-8.35 Z-0.25 I0 J-0.85 F600
X21.567 Y-6.65 Z-0.5 I0 J0.85
X21.567 Y-8.35 Z-0.75 I0 J-0.85
X21.567 Y-6.65 Z-1 I0 J0.85
X21.567 Y-8.35 Z-1.25 I0 J-0.85
X21.567 Y-6.65 Z-1.5 I0 J0.85
X21.567 Y-8.35 Z-1.75 I0 J-0.85
X21.567 Y-6.65 Z-2 I0 J0.85
X21.567 Y-8.35 I0 J-0.85
X21.567 Y-6.65 I0 J0.85
G1 X21.52 Y-6.657
X21.479 Y-6.679
X21.445 Y-6.712
X21.424 Y-6.754
X21.417 Y-6.8
Y-6.875
Y-6.921 Z-1.993
Y-6.963 Z-1.971
Y-6.996 Z-1.938
Y-7.018 Z-1.896
Y-7.025 Z-1.85
G0 Z5
X-21.417
Z2
G1 Z0.15 F400
Y-7.018 Z0.104
Y-6.996 Z0.062
Y-6.963 Z0.029
Y-6.921 Z0.007
Y-6.875 Z0
Y-6.8
X-21.424 Y-6.754
X-21.445 Y-6.712
X-21.479 Y-6.679
X-21.52 Y-6.657
X-21.567 Y-6.65
G3 X-21.567 Y-8.35 Z-0.25 I0 J-0.85 F600
X-21.567 Y-6.65 Z-0.5 I0 J0.85
X-21.567 Y-8.35 Z-0.75 I0 J-0.85
X-21.567 Y-6.65 Z-1 I0 J0.85
X-21.567 Y-8.35 Z-1.25 I0 J-0.85
X-21.567 Y-6.65 Z-1.5 I0 J0.85
X-21.567 Y-8.35 Z-1.75 I0 J-0.85
X-21.567 Y-6.65 Z-2 I0 J0.85
X-21.567 Y-8.35 I0 J-0.85
X-21.567 Y-6.65 I0 J0.85
G1 X-21.613 Y-6.657
X-21.655 Y-6.679
X-21.688 Y-6.712
X-21.709 Y-6.754
X-21.717 Y-6.8
Y-6.875
Y-6.921 Z-1.993
Y-6.963 Z-1.971
Y-6.996 Z-1.938
Y-7.018 Z-1.896
Y-7.025 Z-1.85
G0 Z5
X-39.85 Y-3.625
Z2
G1 Z0.15 F400
Y-3.618 Z0.104
Y-3.596 Z0.062
Y-3.563 Z0.029
Y-3.521 Z0.007
Y-3.475 Z0
Y-3.4
X-39.857 Y-3.354
X-39.879 Y-3.312
X-39.912 Y-3.279
X-39.954 Y-3.257
X-40 Y-3.25
G3 X-40 Y-11.75 Z-0.25 I0 J-4.25 F600
X-40 Y-3.25 Z-0.5 I0 J4.25
X-40 Y-11.75 Z-0.75 I0 J-4.25
X-40 Y-3.25 Z-1 I0 J4.25
X-40 Y-11.75 Z-1.25 I0 J-4.25
X-40 Y-3.25 Z-1.5 I0 J4.25
X-40 Y-11.75 Z-1.75 I0 J-4.25
X-40 Y-3.25 Z-2 I0 J4.25
X-40 Y-11.75 I0 J-4.25
X-40 Y-3.25 I0 J4.25
G1 X-40.046 Y-3.257
X-40.088 Y-3.279
X-40.121 Y-3.312
X-40.143 Y-3.354
X-40.15 Y-3.4
Y-3.475
Y-3.521 Z-1.993
Y-3.563 Z-1.971
Y-3.596 Z-1.938
Y-3.618 Z-1.896
Y-3.625 Z-1.85
G0 Z15

(Bohrfrasen6)
X40.15 Y-3.625
Z15
Z-12
G1 Z-13.85 F400
Y-3.618 Z-13.896
Y-3.596 Z-13.938
Y-3.563 Z-13.971
Y-3.521 Z-13.993
Y-3.475 Z-14
Y-3.4
X40.143 Y-3.354
X40.121 Y-3.312
X40.088 Y-3.279
X40.046 Y-3.257
X40 Y-3.25
G3 X40 Y-11.75 Z-14.25 I0 J-4.25 F600
X40 Y-3.25 Z-14.5 I0 J4.25
X40 Y-11.75 Z-14.75 I0 J-4.25
X40 Y-3.25 Z-15 I0 J4.25
X40 Y-11.75 Z-15.25 I0 J-4.25
X40 Y-3.25 Z-15.5 I0 J4.25
X40 Y-11.75 Z-15.75 I0 J-4.25
X40 Y-3.25 Z-16 I0 J4.25
X40 Y-11.75 I0 J-4.25
X40 Y-3.25 I0 J4.25
G1 X39.954 Y-3.257
X39.912 Y-3.279
X39.879 Y-3.312
X39.857 Y-3.354
X39.85 Y-3.4
Y-3.475
Y-3.521 Z-15.993
Y-3.563 Z-15.971
Y-3.596 Z-15.938
Y-3.618 Z-15.896
Y-3.625 Z-15.85
G0 Z5
X21.717 Y-7.025
Z-12
G1 Z-13.85 F400
Y-7.018 Z-13.896
Y-6.996 Z-13.938
Y-6.963 Z-13.971
Y-6.921 Z-13.993
Y-6.875 Z-14
Y-6.8
X21.709 Y-6.754
X21.688 Y-6.712
X21.655 Y-6.679
X21.613 Y-6.657
X21.567 Y-6.65
G3 X21.567 Y-8.35 Z-14.25 I0 J-0.85 F600
X21.567 Y-6.65 Z-14.5 I0 J0.85
X21.567 Y-8.35 Z-14.75 I0 J-0.85
X21.567 Y-6.65 Z-15 I0 J0.85
X21.567 Y-8.35 Z-15.25 I0 J-0.85
X21.567 Y-6.65 Z-15.5 I0 J0.85
X21.567 Y-8.35 Z-15.75 I0 J-0.85
X21.567 Y-6.65 Z-16 I0 J0.85
X21.567 Y-8.35 I0 J-0.85
X21.567 Y-6.65 I0 J0.85
G1 X21.52 Y-6.657
X21.479 Y-6.679
X21.445 Y-6.712
X21.424 Y-6.754
X21.417 Y-6.8
Y-6.875
Y-6.921 Z-15.993
Y-6.963 Z-15.971
Y-6.996 Z-15.938
Y-7.018 Z-15.896
Y-7.025 Z-15.85
G0 Z5
X-21.417
Z-12
G1 Z-13.85 F400
Y-7.018 Z-13.896
Y-6.996 Z-13.938
Y-6.963 Z-13.971
Y-6.921 Z-13.993
Y-6.875 Z-14
Y-6.8
X-21.424 Y-6.754
X-21.445 Y-6.712
X-21.479 Y-6.679
X-21.52 Y-6.657
X-21.567 Y-6.65
G3 X-21.567 Y-8.35 Z-14.25 I0 J-0.85 F600
X-21.567 Y-6.65 Z-14.5 I0 J0.85
X-21.567 Y-8.35 Z-14.75 I0 J-0.85
X-21.567 Y-6.65 Z-15 I0 J0.85
X-21.567 Y-8.35 Z-15.25 I0 J-0.85
X-21.567 Y-6.65 Z-15.5 I0 J0.85
X-21.567 Y-8.35 Z-15.75 I0 J-0.85
X-21.567 Y-6.65 Z-16 I0 J0.85
X-21.567 Y-8.35 I0 J-0.85
X-21.567 Y-6.65 I0 J0.85
G1 X-21.613 Y-6.657
X-21.655 Y-6.679
X-21.688 Y-6.712
X-21.709 Y-6.754
X-21.717 Y-6.8
Y-6.875
Y-6.921 Z-15.993
Y-6.963 Z-15.971
Y-6.996 Z-15.938
Y-7.018 Z-15.896
Y-7.025 Z-15.85
G0 Z5
X-39.85 Y-3.625
Z-12
G1 Z-13.85 F400
Y-3.618 Z-13.896
Y-3.596 Z-13.938
Y-3.563 Z-13.971
Y-3.521 Z-13.993
Y-3.475 Z-14
Y-3.4
X-39.857 Y-3.354
X-39.879 Y-3.312
X-39.912 Y-3.279
X-39.954 Y-3.257
X-40 Y-3.25
G3 X-40 Y-11.75 Z-14.25 I0 J-4.25 F600
X-40 Y-3.25 Z-14.5 I0 J4.25
X-40 Y-11.75 Z-14.75 I0 J-4.25
X-40 Y-3.25 Z-15 I0 J4.25
X-40 Y-11.75 Z-15.25 I0 J-4.25
X-40 Y-3.25 Z-15.5 I0 J4.25
X-40 Y-11.75 Z-15.75 I0 J-4.25
X-40 Y-3.25 Z-16 I0 J4.25
X-40 Y-11.75 I0 J-4.25
X-40 Y-3.25 I0 J4.25
G1 X-40.046 Y-3.257
X-40.088 Y-3.279
X-40.121 Y-3.312
X-40.143 Y-3.354
X-40.15 Y-3.4
Y-3.475
Y-3.521 Z-15.993
Y-3.563 Z-15.971
Y-3.596 Z-15.938
Y-3.618 Z-15.896
Y-3.625 Z-15.85
G0 Z15

(2D Adaptive4)
S5000 M3
X0.229 Y-11.622
Z15
Z5
Z1.05
G1 Z0.9 F400
Z-1.1
G3 X0.005 Y-13.176 I7.063 J-1.809
G1 Y-13.251 F600
X0.044 Y-13.315
X0.162 Y-13.408
X0.299 Y-13.47
X0.442 Y-13.514
X0.596 Y-13.548
X0.819 Y-13.584
X1.186 Y-13.622
X1.623 Y-13.641
X2.06 Y-13.647
X2.498 Y-13.649
X4.248 Y-13.65
X6.367
X6.552 Y-13.613
X6.708 Y-13.508
X6.813 Y-13.352
X6.85 Y-13.167
G0 Z5
X-6.331 Y-11.605
Z-0.8
G1 Z-0.95 F400
X-6.334 Y-11.612 Z-0.996
X-6.345 Y-11.63 Z-1.038
X-6.362 Y-11.658 Z-1.071
X-6.384 Y-11.694 Z-1.093
X-6.407 Y-11.734 Z-1.1
G3 X-6.85 Y-13.241 I2.721 J-1.618
G1 Y-13.279 F600
X-6.848 Y-13.317
X-6.73 Y-13.409
X-6.593 Y-13.47
X-6.449 Y-13.514
X-6.294 Y-13.549
X-6.071 Y-13.585
X-5.7 Y-13.622
X-5.263 Y-13.641
X-4.826 Y-13.647
X-4.388 Y-13.649
X-2.639 Y-13.65
X-0.889
X-0.452 Y-13.675
X-0.031 Y-13.793
X0.282 Y-13.873
X0.625 Y-13.94
X1.022 Y-13.993
X1.458 Y-14.025
X1.895 Y-14.04
X2.333 Y-14.046
X2.77 Y-14.048
X4.083 Y-14.05
X5.832
X6.032 Y-14.046
X6.181 Y-14.035
X6.33 Y-14.013
X6.474 Y-13.973
X6.543 Y-13.946
X6.668 Y-13.874
X6.766 Y-13.768
X6.828 Y-13.639
X6.85 Y-13.496
G0 Z5
X-6.552 Y-12.397
Z-0.8
G1 Z-0.95 F400
X-6.556 Y-12.403 Z-0.996
X-6.567 Y-12.422 Z-1.038
X-6.584 Y-12.45 Z-1.071
X-6.605 Y-12.486 Z-1.093
X-6.629 Y-12.526 Z-1.1
G3 X-6.85 Y-13.279 I1.36 J-0.809
G1 Y-13.41 F600
X-6.848 Y-13.447
X-6.775 Y-13.578
X-6.665 Y-13.681
X-6.539 Y-13.762
X-6.404 Y-13.827
X-6.263 Y-13.879
X-6.12 Y-13.922
X-5.973 Y-13.955
X-5.826 Y-13.982
X-5.678 Y-14.004
X-5.529 Y-14.021
X-5.379 Y-14.035
X-5.23 Y-14.046
X-5.08 Y-14.054
X-4.93 Y-14.061
X-4.78 Y-14.066
X-4.462 Y-14.074
X-4.239 Y-14.078
X-3.915 Y-14.082
X-3.477 Y-14.084
X-2.165 Y-14.086
X-1.29
X-0.853 Y-14.097
X-0.421 Y-14.167
X-0.081 Y-14.239
X0.066 Y-14.269
X0.214 Y-14.297
X0.361 Y-14.323
X0.509 Y-14.347
X0.658 Y-14.368
X0.807 Y-14.387
X0.956 Y-14.404
X1.105 Y-14.418
X1.255 Y-14.43
X1.404 Y-14.44
X1.554 Y-14.449
X1.704 Y-14.456
X1.854 Y-14.462
X2.17 Y-14.471
X2.368 Y-14.475
X2.638 Y-14.479
X3.04 Y-14.483
X3.478 Y-14.485
X5.228 Y-14.486
X5.547 Y-14.485
X5.697 Y-14.481
X5.847 Y-14.474
X5.996 Y-14.461
X6.145 Y-14.442
X6.292 Y-14.413
X6.436 Y-14.372
X6.576 Y-14.317
X6.597 Y-14.306
X6.731 Y-14.198
X6.819 Y-14.051
X6.85 Y-13.881
G0 Z5
X-6.552 Y-12.527
Z-0.8
G1 Z-0.95 F400
X-6.556 Y-12.533 Z-0.996
X-6.567 Y-12.552 Z-1.038
X-6.584 Y-12.58 Z-1.071
X-6.605 Y-12.616 Z-1.093
X-6.629 Y-12.656 Z-1.1
G3 X-6.85 Y-13.41 I1.36 J-0.809
G1 Y-13.608 F600
X-6.846 Y-13.683
X-6.789 Y-13.821
X-6.696 Y-13.939
X-6.583 Y-14.038
X-6.458 Y-14.12
X-6.325 Y-14.19
X-6.186 Y-14.247
X-6.044 Y-14.296
X-5.899 Y-14.336
X-5.753 Y-14.369
X-5.606 Y-14.396
X-5.457 Y-14.419
X-5.309 Y-14.438
X-5.159 Y-14.453
X-5.01 Y-14.466
X-4.86 Y-14.476
X-4.711 Y-14.485
X-4.561 Y-14.492
X-4.411 Y-14.498
X-4.091 Y-14.507
X-3.893 Y-14.511
X-3.623 Y-14.515
X-3.223 Y-14.519
X-2.785 Y-14.521
X-1.473 Y-14.523
X-1.036 Y-14.541
X-0.819 Y-14.568
X-0.711 Y-14.585
G3 X-0.673 Y-14.287 I0.017 J0.149
G1 X-0.987 Y-14.244
X-6.15 Y-13.537
X-6.68 Y-13.465 F400
X-6.721
X-6.761 Y-13.476
X-6.797 Y-13.498
X-6.825 Y-13.529
X-6.843 Y-13.567
X-6.85 Y-13.608
Y-13.874 F600
X-6.843 Y-14.024
X-6.777 Y-14.159
X-6.684 Y-14.276
X-6.573 Y-14.378
X-6.519 Y-14.473
X-6.488 Y-14.578
X-6.481 Y-14.687
X-6.499 Y-14.795
X-6.541 Y-14.896
X-6.604 Y-14.985
X-6.687 Y-15.059
X-6.775 Y-15.162
X-6.831 Y-15.286
X-6.85 Y-15.42
G3 X-6.55 Y-15.415 I0.15 J0.005
G1 Y-15.096
Y-14.199
Y-13.879 F400
G3 X-6.85 Y-13.874 I-0.15 J0
G1 Y-14.996 F600
G0 Z5
X6.552 Y-16.641
Z-0.8
G1 Z-0.95 F400
X6.556 Y-16.635 Z-0.996
X6.567 Y-16.616 Z-1.038
X6.584 Y-16.588 Z-1.071
X6.605 Y-16.552 Z-1.093
X6.629 Y-16.512 Z-1.1
G3 X6.85 Y-15.759 I-1.36 J0.809
G1 Y-13.881 F600
X6.841 Y-13.836
X6.82 Y-13.796
X6.787 Y-13.764
X6.746 Y-13.744
X6.7 Y-13.737
G3 X6.7 Y-14.037 I0 J-0.15
X6.78 Y-14.014 I0 J0.15
G0 Z15
X0.229 Y2.378
Z5
Z1.05
G1 Z0.9 F400
Z-1.1
G3 X0.005 Y0.824 I7.063 J-1.809
G1 Y0.749 F600
X0.044 Y0.685
X0.162 Y0.592
X0.299 Y0.53
X0.442 Y0.486
X0.596 Y0.452
X0.819 Y0.416
X1.186 Y0.378
X1.623 Y0.359
X2.06 Y0.353
X2.498 Y0.351
X4.248 Y0.35
X6.367
X6.552 Y0.387
X6.708 Y0.492
X6.813 Y0.648
X6.85 Y0.833
G0 Z5
X-6.331 Y2.395
Z-0.8
G1 Z-0.95 F400
X-6.334 Y2.388 Z-0.996
X-6.345 Y2.37 Z-1.038
X-6.362 Y2.342 Z-1.071
X-6.384 Y2.306 Z-1.093
X-6.407 Y2.266 Z-1.1
G3 X-6.85 Y0.759 I2.721 J-1.618
G1 Y0.721 F600
X-6.848 Y0.683
X-6.73 Y0.591
X-6.593 Y0.53
X-6.449 Y0.486
X-6.294 Y0.451
X-6.071 Y0.415
X-5.7 Y0.378
X-5.263 Y0.359
X-4.826 Y0.353
X-4.388 Y0.351
X-2.639 Y0.35
X-0.889
X-0.452 Y0.325
X-0.031 Y0.207
X0.282 Y0.127
X0.625 Y0.06
X1.022 Y0.007
X1.458 Y-0.025
X1.895 Y-0.04
X2.333 Y-0.046
X2.77 Y-0.048
X4.083 Y-0.05
X5.832
X6.032 Y-0.046
X6.181 Y-0.035
X6.33 Y-0.013
X6.474 Y0.027
X6.543 Y0.054
X6.668 Y0.126
X6.766 Y0.232
X6.828 Y0.361
X6.85 Y0.504
G0 Z5
X-6.552 Y1.603
Z-0.8
G1 Z-0.95 F400
X-6.556 Y1.597 Z-0.996
X-6.567 Y1.578 Z-1.038
X-6.584 Y1.55 Z-1.071
X-6.605 Y1.514 Z-1.093
X-6.629 Y1.474 Z-1.1
G3 X-6.85 Y0.721 I1.36 J-0.809
G1 Y0.59 F600
X-6.848 Y0.553
X-6.775 Y0.422
X-6.665 Y0.319
X-6.539 Y0.238
X-6.404 Y0.173
X-6.263 Y0.121
X-6.12 Y0.078
X-5.973 Y0.045
X-5.826 Y0.018
X-5.678 Y-0.004
X-5.529 Y-0.021
X-5.379 Y-0.035
X-5.23 Y-0.046
X-5.08 Y-0.054
X-4.93 Y-0.061
X-4.78 Y-0.066
X-4.462 Y-0.074
X-4.239 Y-0.078
X-3.915 Y-0.082
X-3.477 Y-0.084
X-2.165 Y-0.086
X-1.29
X-0.853 Y-0.097
X-0.421 Y-0.167
X-0.081 Y-0.239
X0.066 Y-0.269
X0.214 Y-0.297
X0.361 Y-0.323
X0.509 Y-0.347
X0.658 Y-0.368
X0.807 Y-0.387
X0.956 Y-0.404
X1.105 Y-0.418
X1.255 Y-0.43
X1.404 Y-0.44
X1.554 Y-0.449
X1.704 Y-0.456
X1.854 Y-0.462
X2.17 Y-0.471
X2.368 Y-0.475
X2.638 Y-0.479
X3.04 Y-0.483
X3.478 Y-0.485
X5.228 Y-0.486
X5.547 Y-0.485
X5.697 Y-0.481
X5.847 Y-0.474
X5.996 Y-0.461
X6.145 Y-0.442
X6.292 Y-0.413
X6.436 Y-0.372
X6.576 Y-0.317
X6.597 Y-0.306
X6.731 Y-0.198
X6.819 Y-0.051
X6.85 Y0.119
G0 Z5
X-6.552 Y1.473
Z-0.8
G1 Z-0.95 F400
X-6.556 Y1.467 Z-0.996
X-6.567 Y1.448 Z-1.038
X-6.584 Y1.42 Z-1.071
X-6.605 Y1.384 Z-1.093
X-6.629 Y1.344 Z-1.1
G3 X-6.85 Y0.59 I1.36 J-0.809
G1 Y0.392 F600
X-6.846 Y0.317
X-6.789 Y0.179
X-6.696 Y0.061
X-6.583 Y-0.038
X-6.458 Y-0.12
X-6.325 Y-0.19
X-6.186 Y-0.247
X-6.044 Y-0.296
X-5.899 Y-0.336
X-5.753 Y-0.369
X-5.606 Y-0.396
X-5.457 Y-0.419
X-5.309 Y-0.438
X-5.159 Y-0.453
X-5.01 Y-0.466
X-4.86 Y-0.476
X-4.711 Y-0.485
X-4.561 Y-0.492
X-4.411 Y-0.498
X-4.091 Y-0.507
X-3.893 Y-0.511
X-3.623 Y-0.515
X-3.223 Y-0.519
X-2.785 Y-0.521
X-1.473 Y-0.523
X-1.036 Y-0.541
X-0.819 Y-0.568
X-0.711 Y-0.585
G3 X-0.673 Y-0.287 I0.017 J0.149
G1 X-0.987 Y-0.244
X-6.15 Y0.463
X-6.68 Y0.535 F400
X-6.721
X-6.761 Y0.524
X-6.797 Y0.502
X-6.825 Y0.471
X-6.843 Y0.433
X-6.85 Y0.392
Y0.126 F600
X-6.843 Y-0.024
X-6.777 Y-0.159
X-6.684 Y-0.276
X-6.573 Y-0.378
X-6.519 Y-0.473
X-6.488 Y-0.578
X-6.481 Y-0.687
X-6.499 Y-0.795
X-6.541 Y-0.896
X-6.604 Y-0.985
X-6.687 Y-1.059
X-6.775 Y-1.162
X-6.831 Y-1.286
X-6.85 Y-1.42
G3 X-6.55 Y-1.415 I0.15 J0.005
G1 Y-1.096
Y-0.199
Y0.121 F400
G3 X-6.85 Y0.126 I-0.15 J0
G1 Y-0.996 F600
G0 Z5
X6.552 Y-2.641
Z-0.8
G1 Z-0.95 F400
X6.556 Y-2.635 Z-0.996
X6.567 Y-2.616 Z-1.038
X6.584 Y-2.588 Z-1.071
X6.605 Y-2.552 Z-1.093
X6.629 Y-2.512 Z-1.1
G3 X6.85 Y-1.759 I-1.36 J0.809
G1 Y0.119 F600
X6.841 Y0.164
X6.82 Y0.204
X6.787 Y0.236
X6.746 Y0.256
X6.7 Y0.263
G3 X6.7 Y-0.037 I0 J-0.15
X6.78 Y-0.014 I0 J0.15
G0 Z15
X0.174 Y2.388
Z5
Z1.05
G1 Z0.9 F400
Z-1.1
G3 X-0.05 Y0.833 I7.063 J-1.809
G1 Y0.72 F600
X0.054 Y0.612
X0.188 Y0.545
X0.33 Y0.496
X0.476 Y0.461
X0.676 Y0.425
X0.989 Y0.388
X1.426 Y0.363
X1.863 Y0.354
X2.301 Y0.351
X3.613 Y0.35
X6.367
X6.552 Y0.387
X6.708 Y0.492
X6.813 Y0.648
X6.85 Y0.833
G0 Z5
X-6.331 Y2.43
Z-0.8
G1 Z-0.95 F400
X-6.334 Y2.424 Z-0.996
X-6.345 Y2.406 Z-1.038
X-6.362 Y2.377 Z-1.071
X-6.384 Y2.341 Z-1.093
X-6.407 Y2.301 Z-1.1
G3 X-6.85 Y0.794 I2.721 J-1.618
G1 Y0.72 F600
X-6.848 Y0.682
X-6.729 Y0.591
X-6.592 Y0.529
X-6.449 Y0.485
X-6.293 Y0.451
X-6.069 Y0.415
X-5.696 Y0.377
X-5.259 Y0.359
X-4.822 Y0.353
X-4.384 Y0.351
X-2.635 Y0.35
X-0.885
X-0.45 Y0.304
X-0.029 Y0.184
X0.294 Y0.106
X0.624 Y0.048
X1.058 Y-0.004
X1.495 Y-0.03
X1.932 Y-0.042
X2.369 Y-0.047
X2.807 Y-0.049
X4.557 Y-0.05
X5.869
X6.069 Y-0.044
X6.218 Y-0.031
X6.366 Y-0.004
X6.51 Y0.039
X6.558 Y0.06
X6.712 Y0.165
X6.814 Y0.321
X6.85 Y0.504
G0 Z5
X-6.552 Y1.602
Z-0.8
G1 Z-0.95 F400
X-6.556 Y1.596 Z-0.996
X-6.567 Y1.577 Z-1.038
X-6.584 Y1.549 Z-1.071
X-6.605 Y1.513 Z-1.093
X-6.629 Y1.473 Z-1.1
G3 X-6.85 Y0.72 I1.36 J-0.809
G1 Y0.596 F600
X-6.848 Y0.558
X-6.77 Y0.43
X-6.658 Y0.331
X-6.529 Y0.253
X-6.393 Y0.191
X-6.251 Y0.142
X-6.107 Y0.102
X-5.901 Y0.057
X-5.638 Y0.017
X-5.202 Y-0.025
X-4.765 Y-0.04
X-4.328 Y-0.046
X-3.89 Y-0.049
X-2.578 Y-0.05
X-1.266
X-0.829 Y-0.072
X-0.399 Y-0.151
X0.029 Y-0.244
X0.459 Y-0.322
X0.893 Y-0.379
X1.329 Y-0.414
X1.766 Y-0.433
X2.203 Y-0.442
X2.641 Y-0.447
X3.078 Y-0.449
X4.391 Y-0.45
X5.265
X5.703 Y-0.449
X5.924 Y-0.437
X6.093 Y-0.418
X6.241 Y-0.392
X6.386 Y-0.355
X6.527 Y-0.304
X6.579 Y-0.279
X6.722 Y-0.172
X6.817 Y-0.02
X6.85 Y0.156
G0 Z5
X-6.552 Y1.478
Z-0.8
G1 Z-0.95 F400
X-6.556 Y1.472 Z-0.996
X-6.567 Y1.453 Z-1.038
X-6.584 Y1.425 Z-1.071
X-6.605 Y1.389 Z-1.093
X-6.629 Y1.349 Z-1.1
G3 X-6.85 Y0.596 I1.36 J-0.809
G1 Y0.421 F600
X-6.846 Y0.346
X-6.785 Y0.21
X-6.688 Y0.095
X-6.572 Y0
X-6.444 Y-0.079
X-6.31 Y-0.145
X-6.17 Y-0.2
X-6.017 Y-0.249
X-5.804 Y-0.304
X-5.577 Y-0.348
X-5.237 Y-0.394
X-4.801 Y-0.427
X-4.363 Y-0.44
X-3.926 Y-0.446
X-3.489 Y-0.448
X-2.176 Y-0.45
X-1.739
X-1.302 Y-0.457
X-0.866 Y-0.495
X-0.434 Y-0.565
X-0.004 Y-0.644
X0.428 Y-0.715
X0.862 Y-0.769
X1.298 Y-0.805
X1.735 Y-0.826
X2.172 Y-0.838
X2.61 Y-0.844
X3.047 Y-0.847
X3.922 Y-0.849
X5.234 Y-0.85
X5.611 Y-0.844
X5.859 Y-0.825
X6.04 Y-0.801
X6.192 Y-0.771
X6.338 Y-0.734
X6.479 Y-0.684
X6.615 Y-0.621
X6.625 Y-0.615
X6.745 Y-0.507
X6.823 Y-0.366
X6.85 Y-0.207
Y0.156
G0 Z5
X-6.552 Y1.304
Z-0.8
G1 Z-0.95 F400
X-6.556 Y1.298 Z-0.996
X-6.567 Y1.279 Z-1.038
X-6.584 Y1.251 Z-1.071
X-6.605 Y1.215 Z-1.093
X-6.629 Y1.175 Z-1.1
G3 X-6.85 Y0.421 I1.36 J-0.809
G1 Y0.198 F600
X-6.843 Y0.048
X-6.776 Y-0.086
X-6.682 Y-0.203
X-6.57 Y-0.303
X-6.447 Y-0.389
X-6.316 Y-0.462
X-6.18 Y-0.525
X-6.04 Y-0.579
X-5.851 Y-0.639
X-5.652 Y-0.69
X-5.367 Y-0.745
X-4.999 Y-0.793
X-4.562 Y-0.825
X-4.125 Y-0.839
X-3.688 Y-0.845
X-3.25 Y-0.848
X-1.938 Y-0.85
X-1.501 Y-0.858
X-1.064 Y-0.889
X-0.631 Y-0.947
X-0.199 Y-1.018
X0.233 Y-1.086
X0.667 Y-1.143
X1.102 Y-1.185
X1.539 Y-1.213
X1.976 Y-1.23
X2.413 Y-1.239
X2.85 Y-1.245
X3.288 Y-1.247
X4.163 Y-1.249
X5.038
X5.469 Y-1.243
X5.743 Y-1.222
X5.958 Y-1.193
X6.133 Y-1.159
X6.285 Y-1.12
X6.428 Y-1.074
X6.565 Y-1.014
X6.603 Y-0.993
X6.734 Y-0.885
X6.82 Y-0.738
X6.85 Y-0.571
Y-0.207
G0 Z5
X-6.552 Y1.08
Z-0.8
G1 Z-0.95 F400
X-6.556 Y1.074 Z-0.996
X-6.567 Y1.056 Z-1.038
X-6.584 Y1.027 Z-1.071
X-6.605 Y0.991 Z-1.093
X-6.629 Y0.952 Z-1.1
G3 X-6.85 Y0.198 I1.36 J-0.809
G1 Y-0.114 F600
X-6.843 Y-0.264
X-6.776 Y-0.398
X-6.684 Y-0.516
X-6.575 Y-0.62
X-6.455 Y-0.71
X-6.327 Y-0.788
X-6.194 Y-0.856
X-6.045 Y-0.92
X-5.879 Y-0.98
X-5.657 Y-1.046
X-5.426 Y-1.1
X-5.097 Y-1.157
X-4.663 Y-1.205
X-4.226 Y-1.229
X-3.789 Y-1.24
X-3.351 Y-1.246
X-2.914 Y-1.248
X-2.039 Y-1.251
X-1.602 Y-1.262
X-1.165 Y-1.294
X-0.731 Y-1.346
X0.135 Y-1.473
X0.568 Y-1.529
X1.004 Y-1.572
X1.44 Y-1.603
X1.877 Y-1.623
X2.314 Y-1.635
X2.752 Y-1.642
X3.189 Y-1.646
X3.627 Y-1.648
X4.502 Y-1.649
X4.939 Y-1.648
X5.376 Y-1.639
X5.671 Y-1.616
X5.918 Y-1.581
X6.104 Y-1.544
X6.257 Y-1.504
X6.399 Y-1.458
X6.537 Y-1.398
X6.596 Y-1.367
X6.731 Y-1.259
X6.819 Y-1.111
X6.85 Y-0.941
Y-0.571
G0 Z5
X-6.552 Y0.769
Z-0.8
G1 Z-0.95 F400
X-6.556 Y0.762 Z-0.996
X-6.567 Y0.744 Z-1.038
X-6.584 Y0.716 Z-1.071
X-6.605 Y0.68 Z-1.093
X-6.629 Y0.64 Z-1.1
G3 X-6.85 Y-0.114 I1.36 J-0.809
G1 Y-0.398 F600
X-6.843 Y-0.548
X-6.788 Y-0.688
X-6.704 Y-0.812
X-6.602 Y-0.922
X-6.488 Y-1.019
X-6.364 Y-1.104
X-6.234 Y-1.179
X-6.097 Y-1.246
X-5.944 Y-1.31
X-5.743 Y-1.38
X-5.534 Y-1.44
X-5.24 Y-1.506
X-4.893 Y-1.562
X-4.458 Y-1.607
X-4.021 Y-1.629
X-3.583 Y-1.64
X-3.146 Y-1.645
X-2.271 Y-1.65
X-1.834 Y-1.659
X-1.397 Y-1.684
X-0.962 Y-1.728
X-0.528 Y-1.784
X-0.095 Y-1.845
X0.339 Y-1.901
X0.774 Y-1.948
X1.21 Y-1.984
X1.647 Y-2.01
X2.084 Y-2.026
X2.521 Y-2.037
X2.958 Y-2.043
X3.396 Y-2.046
X4.271 Y-2.049
X4.708 Y-2.048
X5.146 Y-2.042
X5.511 Y-2.02
X5.79 Y-1.986
X6.007 Y-1.947
X6.182 Y-1.904
X6.326 Y-1.86
X6.466 Y-1.806
X6.601 Y-1.74
X6.624 Y-1.726
X6.744 Y-1.618
X6.823 Y-1.476
X6.85 Y-1.317
Y-0.941
G0 Z5
X-6.552 Y0.484
Z-0.8
G1 Z-0.95 F400
X-6.556 Y0.478 Z-0.996
X-6.567 Y0.459 Z-1.038
X-6.584 Y0.431 Z-1.071
X-6.605 Y0.395 Z-1.093
X-6.629 Y0.355 Z-1.1
G3 X-6.85 Y-0.398 I1.36 J-0.809
G1 Y-0.741 F600
X-6.843 Y-0.891
X-6.785 Y-1.03
X-6.701 Y-1.154
X-6.599 Y-1.264
X-6.486 Y-1.362
X-6.364 Y-1.45
X-6.235 Y-1.527
X-6.1 Y-1.597
X-5.937 Y-1.67
X-5.753 Y-1.738
X-5.515 Y-1.812
X-5.259 Y-1.875
X-4.922 Y-1.937
X-4.488 Y-1.99
X-4.051 Y-2.019
X-3.614 Y-2.035
X-3.177 Y-2.042
X-2.302 Y-2.052
X-1.865 Y-2.064
X-1.428 Y-2.092
X-0.993 Y-2.134
X-0.558 Y-2.188
X-0.125 Y-2.244
X0.31 Y-2.297
X0.745 Y-2.343
X1.181 Y-2.378
X1.617 Y-2.404
X2.054 Y-2.422
X2.492 Y-2.433
X2.929 Y-2.441
X3.366 Y-2.445
X3.804 Y-2.447
X4.241 Y-2.448
X4.679 Y-2.447
X5.116 Y-2.436
X5.49 Y-2.411
X5.768 Y-2.375
X5.995 Y-2.332
X6.178 Y-2.286
X6.321 Y-2.241
X6.461 Y-2.188
X6.595 Y-2.121
X6.621 Y-2.105
X6.743 Y-1.997
X6.823 Y-1.855
X6.85 Y-1.695
Y-1.317
G0 Z5
X-6.552 Y0.141
Z-0.8
G1 Z-0.95 F400
X-6.556 Y0.135 Z-0.996
X-6.567 Y0.117 Z-1.038
X-6.584 Y0.088 Z-1.071
X-6.605 Y0.052 Z-1.093
X-6.629 Y0.012 Z-1.1
G3 X-6.85 Y-0.741 I1.36 J-0.809
G1 Y-1.07 F600
X-6.843 Y-1.219
X-6.789 Y-1.36
X-6.708 Y-1.486
X-6.61 Y-1.599
X-6.499 Y-1.7
X-6.379 Y-1.79
X-6.253 Y-1.871
X-6.113 Y-1.948
X-5.955 Y-2.023
X-5.777 Y-2.094
X-5.548 Y-2.171
X-5.299 Y-2.239
X-4.977 Y-2.306
X-4.57 Y-2.366
X-4.135 Y-2.405
X-3.698 Y-2.426
X-3.26 Y-2.438
X-2.386 Y-2.452
X-1.948 Y-2.467
X-1.512 Y-2.494
X-1.076 Y-2.534
X-0.642 Y-2.584
X-0.207 Y-2.637
X0.227 Y-2.688
X0.662 Y-2.733
X1.098 Y-2.769
X1.535 Y-2.796
X1.972 Y-2.816
X2.409 Y-2.829
X2.846 Y-2.838
X3.284 Y-2.843
X3.721 Y-2.846
X4.159 Y-2.847
X4.596 Y-2.845
X5.033 Y-2.834
X5.43 Y-2.806
X5.723 Y-2.769
X5.965 Y-2.723
X6.154 Y-2.676
X6.307 Y-2.628
X6.447 Y-2.575
X6.582 Y-2.509
X6.617 Y-2.487
X6.741 Y-2.379
X6.822 Y-2.236
X6.85 Y-2.074
Y-1.695
G0 Z5
X-6.552 Y-0.187
Z-0.8
G1 Z-0.95 F400
X-6.556 Y-0.193 Z-0.996
X-6.567 Y-0.212 Z-1.038
X-6.584 Y-0.24 Z-1.071
X-6.605 Y-0.276 Z-1.093
X-6.629 Y-0.316 Z-1.1
G3 X-6.85 Y-1.07 I1.36 J-0.809
G1 Y-1.437 F600
X-6.843 Y-1.587
X-6.783 Y-1.725
X-6.7 Y-1.85
X-6.601 Y-1.962
X-6.49 Y-2.063
X-6.371 Y-2.154
X-6.245 Y-2.235
X-6.108 Y-2.312
X-5.941 Y-2.393
X-5.765 Y-2.466
X-5.541 Y-2.544
X-5.264 Y-2.622
X-4.967 Y-2.688
X-4.562 Y-2.752
X-4.127 Y-2.795
X-3.69 Y-2.82
X-3.253 Y-2.834
X-2.816 Y-2.844
X-2.378 Y-2.855
X-1.941 Y-2.873
X-1.505 Y-2.902
X-1.069 Y-2.942
X-0.635 Y-2.99
X-0.2 Y-3.041
X0.235 Y-3.089
X0.67 Y-3.131
X1.106 Y-3.166
X1.543 Y-3.193
X1.98 Y-3.213
X2.417 Y-3.227
X2.854 Y-3.236
X3.292 Y-3.241
X3.729 Y-3.245
X4.167
X4.604 Y-3.241
X5.041 Y-3.226
X5.435 Y-3.196
X5.726 Y-3.156
X5.975 Y-3.107
X6.164 Y-3.058
X6.311 Y-3.01
X6.451 Y-2.956
X6.585 Y-2.889
X6.62 Y-2.868
X6.743 Y-2.76
X6.822 Y-2.617
X6.85 Y-2.456
Y-2.074
G0 Z5
X-6.552 Y-0.555
Z-0.8
G1 Z-0.95 F400
X-6.556 Y-0.561 Z-0.996
X-6.567 Y-0.579 Z-1.038
X-6.584 Y-0.608 Z-1.071
X-6.605 Y-0.644 Z-1.093
X-6.629 Y-0.683 Z-1.1
G3 X-6.85 Y-1.437 I1.36 J-0.809
G1 Y-1.765 F600
X-6.843 Y-1.915
X-6.792 Y-2.056
X-6.714 Y-2.184
X-6.618 Y-2.3
X-6.51 Y-2.404
X-6.393 Y-2.498
X-6.269 Y-2.583
X-6.134 Y-2.663
X-5.976 Y-2.744
X-5.796 Y-2.823
X-5.576 Y-2.905
X-5.326 Y-2.982
X-5.028 Y-3.055
X-4.647 Y-3.124
X-4.213 Y-3.177
X-3.776 Y-3.209
X-3.339 Y-3.228
X-2.465 Y-3.254
X-2.028 Y-3.273
X-1.591 Y-3.302
X-1.156 Y-3.34
X-0.721 Y-3.386
X-0.286 Y-3.434
X0.149 Y-3.48
X0.585 Y-3.522
X1.021 Y-3.557
X1.457 Y-3.585
X1.894 Y-3.607
X2.331 Y-3.622
X2.769 Y-3.632
X3.206 Y-3.639
X3.643 Y-3.643
X4.081 Y-3.644
X4.518 Y-3.639
X4.955 Y-3.625
X5.364 Y-3.594
X5.688 Y-3.551
X5.937 Y-3.503
X6.137 Y-3.451
X6.298 Y-3.4
X6.438 Y-3.346
X6.572 Y-3.28
X6.616 Y-3.253
X6.741 Y-3.145
X6.822 Y-3.002
X6.85 Y-2.839
Y-2.456
G0 Z5
X-6.552 Y-0.883
Z-0.8
G1 Z-0.95 F400
X-6.556 Y-0.889 Z-0.996
X-6.567 Y-0.907 Z-1.038
X-6.584 Y-0.936 Z-1.071
X-6.605 Y-0.972 Z-1.093
X-6.629 Y-1.012 Z-1.1
G3 X-6.85 Y-1.765 I1.36 J-0.809
G1 Y-2.133 F600
X-6.843 Y-2.283
X-6.789 Y-2.423
X-6.71 Y-2.55
X-6.614 Y-2.666
X-6.507 Y-2.77
X-6.39 Y-2.865
X-6.267 Y-2.95
X-6.134 Y-3.031
X-5.969 Y-3.117
X-5.795 Y-3.196
X-5.581 Y-3.278
X-5.309 Y-3.364
X-5.026 Y-3.436
X-4.65 Y-3.508
X-4.216 Y-3.565
X-3.78 Y-3.601
X-3.343 Y-3.623
X-2.469 Y-3.655
X-2.032 Y-3.677
X-1.596 Y-3.707
X-1.16 Y-3.746
X-0.725 Y-3.79
X-0.29 Y-3.836
X0.146 Y-3.88
X0.581 Y-3.921
X1.017 Y-3.955
X1.454 Y-3.982
X1.891 Y-4.004
X2.328 Y-4.019
X2.765 Y-4.03
X3.203 Y-4.037
X3.64 Y-4.041
X4.077
X4.515 Y-4.035
X4.952 Y-4.018
X5.375 Y-3.984
X5.685 Y-3.941
X5.943 Y-3.889
X6.144 Y-3.836
X6.301 Y-3.785
X6.441 Y-3.73
X6.575 Y-3.663
X6.618 Y-3.637
X6.742 Y-3.529
X6.822 Y-3.386
X6.85 Y-3.224
Y-2.839
G0 Z5
X-6.552 Y-1.25
Z-0.8
G1 Z-0.95 F400
X-6.556 Y-1.257 Z-0.996
X-6.567 Y-1.275 Z-1.038
X-6.584 Y-1.303 Z-1.071
X-6.605 Y-1.339 Z-1.093
X-6.629 Y-1.379 Z-1.1
G3 X-6.85 Y-2.133 I1.36 J-0.809
G1 Y-2.486 F600
X-6.843 Y-2.635
X-6.792 Y-2.777
X-6.715 Y-2.906
X-6.621 Y-3.022
X-6.515 Y-3.128
X-6.4 Y-3.225
X-6.278 Y-3.312
X-6.147 Y-3.394
X-5.982 Y-3.483
X-5.808 Y-3.564
X-5.595 Y-3.649
X-5.328 Y-3.738
X-5.051 Y-3.812
X-4.681 Y-3.888
X-4.248 Y-3.95
X-3.812 Y-3.991
X-3.375 Y-4.017
X-2.501 Y-4.056
X-2.065 Y-4.079
X-1.628 Y-4.11
X-1.192 Y-4.148
X-0.757 Y-4.19
X-0.322 Y-4.235
X0.114 Y-4.278
X0.549 Y-4.317
X0.985 Y-4.351
X1.422 Y-4.378
X1.859 Y-4.4
X2.296 Y-4.416
X2.733 Y-4.427
X3.171 Y-4.435
X3.608 Y-4.439
X4.046
X4.483 Y-4.432
X4.92 Y-4.414
X5.339 Y-4.379
X5.67 Y-4.333
X5.927 Y-4.281
X6.133 Y-4.227
X6.297 Y-4.173
X6.436 Y-4.118
X6.571 Y-4.051
X6.617 Y-4.023
X6.741 Y-3.915
X6.822 Y-3.772
X6.85 Y-3.61
Y-3.224
G0 Z5
X-6.552 Y-1.603
Z-0.8
G1 Z-0.95 F400
X-6.556 Y-1.609 Z-0.996
X-6.567 Y-1.628 Z-1.038
X-6.584 Y-1.656 Z-1.071
X-6.605 Y-1.692 Z-1.093
X-6.629 Y-1.732 Z-1.1
G3 X-6.85 Y-2.486 I1.36 J-0.809
G1 Y-2.859 F600
X-6.843 Y-3.008
X-6.79 Y-3.149
X-6.713 Y-3.277
X-6.619 Y-3.394
X-6.513 Y-3.5
X-6.398 Y-3.597
X-6.276 Y-3.685
X-6.146 Y-3.767
X-5.979 Y-3.859
X-5.803 Y-3.943
X-5.592 Y-4.028
X-5.325 Y-4.119
X-5.037 Y-4.198
X-4.671 Y-4.275
X-4.239 Y-4.34
X-3.803 Y-4.383
X-3.367 Y-4.413
X-2.493 Y-4.458
X-2.056 Y-4.483
X-1.62 Y-4.515
X-1.184 Y-4.553
X-0.749 Y-4.595
X-0.314 Y-4.638
X0.122 Y-4.679
X0.558 Y-4.717
X0.994 Y-4.749
X1.431 Y-4.776
X1.867 Y-4.798
X2.305 Y-4.814
X2.742 Y-4.826
X3.179 Y-4.833
X3.617 Y-4.837
X4.054 Y-4.836
X4.491 Y-4.827
X4.928 Y-4.807
X5.356 Y-4.769
X5.677 Y-4.722
X5.938 Y-4.667
X6.144 Y-4.612
X6.304 Y-4.558
X6.443 Y-4.502
X6.577 Y-4.435
X6.62 Y-4.408
X6.743 Y-4.301
X6.822 Y-4.158
X6.85 Y-3.997
Y-3.61
G0 Z5
X-6.552 Y-1.976
Z-0.8
G1 Z-0.95 F400
X-6.556 Y-1.982 Z-0.996
X-6.567 Y-2.001 Z-1.038
X-6.584 Y-2.029 Z-1.071
X-6.605 Y-2.065 Z-1.093
X-6.629 Y-2.105 Z-1.1
G3 X-6.85 Y-2.859 I1.36 J-0.809
G1 Y-3.226 F600
X-6.843 Y-3.376
X-6.791 Y-3.517
X-6.714 Y-3.646
X-6.621 Y-3.763
X-6.515 Y-3.87
X-6.401 Y-3.967
X-6.28 Y-4.056
X-6.149 Y-4.14
X-5.983 Y-4.233
X-5.808 Y-4.318
X-5.594 Y-4.407
X-5.325 Y-4.5
X-5.041 Y-4.58
X-4.673 Y-4.661
X-4.241 Y-4.729
X-3.806 Y-4.776
X-3.37 Y-4.808
X-2.933 Y-4.834
X-2.497 Y-4.859
X-2.06 Y-4.886
X-1.624 Y-4.919
X-1.188 Y-4.957
X-0.317 Y-5.039
X0.119 Y-5.079
X0.554 Y-5.115
X0.991 Y-5.147
X1.427 Y-5.174
X1.864 Y-5.195
X2.301 Y-5.212
X2.739 Y-5.223
X3.176 Y-5.231
X3.614 Y-5.235
X4.051 Y-5.233
X4.488 Y-5.222
X4.925 Y-5.2
X5.348 Y-5.162
X5.679 Y-5.112
X5.939 Y-5.057
X6.145 Y-5
X6.307 Y-4.945
X6.446 Y-4.889
X6.58 Y-4.821
X6.621 Y-4.795
X6.743 Y-4.687
X6.823 Y-4.545
X6.85 Y-4.385
Y-3.997
G0 Z5
X-6.552 Y-2.344
Z-0.8
G1 Z-0.95 F400
X-6.556 Y-2.35 Z-0.996
X-6.567 Y-2.368 Z-1.038
X-6.584 Y-2.397 Z-1.071
X-6.605 Y-2.433 Z-1.093
X-6.629 Y-2.473 Z-1.1
G3 X-6.85 Y-3.226 I1.36 J-0.809
G1 Y-3.579 F600
X-6.843 Y-3.729
X-6.796 Y-3.871
X-6.723 Y-4.002
X-6.632 Y-4.122
X-6.529 Y-4.23
X-6.416 Y-4.329
X-6.296 Y-4.42
X-6.166 Y-4.506
X-6.004 Y-4.6
X-5.831 Y-4.686
X-5.618 Y-4.777
X-5.354 Y-4.873
X-5.08 Y-4.954
X-4.715 Y-5.039
X-4.284 Y-5.113
X-3.849 Y-5.164
X-3.413 Y-5.201
X-2.977 Y-5.23
X-2.54 Y-5.257
X-2.104 Y-5.286
X-1.668 Y-5.319
X-1.232 Y-5.356
X-0.361 Y-5.436
X0.075 Y-5.475
X0.511 Y-5.511
X0.947 Y-5.543
X1.384 Y-5.569
X1.821 Y-5.591
X2.258 Y-5.608
X2.695 Y-5.62
X3.133 Y-5.629
X3.57 Y-5.632
X4.008 Y-5.63
X4.445 Y-5.619
X4.882 Y-5.597
X5.312 Y-5.558
X5.66 Y-5.506
X5.922 Y-5.451
X6.133 Y-5.393
X6.301 Y-5.337
X6.44 Y-5.281
X6.574 Y-5.213
X6.62 Y-5.185
X6.742 Y-5.077
X6.822 Y-4.934
X6.85 Y-4.773
Y-4.385
G0 Z5
X-6.552 Y-2.696
Z-0.8
G1 Z-0.95 F400
X-6.556 Y-2.703 Z-0.996
X-6.567 Y-2.721 Z-1.038
X-6.584 Y-2.75 Z-1.071
X-6.605 Y-2.786 Z-1.093
X-6.629 Y-2.825 Z-1.1
G3 X-6.85 Y-3.579 I1.36 J-0.809
G1 Y-3.952 F600
X-6.843 Y-4.102
X-6.796 Y-4.244
X-6.723 Y-4.376
X-6.633 Y-4.495
X-6.53 Y-4.604
X-6.418 Y-4.704
X-6.299 Y-4.795
X-6.171 Y-4.881
X-6.007 Y-4.977
X-5.834 Y-5.065
X-5.627 Y-5.156
X-5.363 Y-5.253
X-5.079 Y-5.339
X-4.72 Y-5.425
X-4.289 Y-5.502
X-3.855 Y-5.556
X-3.42 Y-5.596
X-2.983 Y-5.628
X-2.547 Y-5.657
X-2.111 Y-5.688
X-1.674 Y-5.722
X-1.239 Y-5.759
X-0.367 Y-5.837
X0.069 Y-5.875
X0.505 Y-5.91
X0.941 Y-5.941
X1.378 Y-5.967
X1.815 Y-5.989
X2.252 Y-6.006
X2.689 Y-6.018
X3.126 Y-6.026
X3.564 Y-6.029
X4.001 Y-6.026
X4.438 Y-6.015
X4.875 Y-5.991
X5.311 Y-5.951
X5.656 Y-5.898
X5.922 Y-5.842
X6.134 Y-5.783
X6.302 Y-5.726
X6.441 Y-5.67
X6.574 Y-5.602
X6.62 Y-5.574
X6.743 Y-5.466
X6.822 Y-5.323
X6.85 Y-5.162
Y-4.773
G0 Z5
X-6.552 Y-3.069
Z-0.8
G1 Z-0.95 F400
X-6.556 Y-3.076 Z-0.996
X-6.567 Y-3.094 Z-1.038
X-6.584 Y-3.123 Z-1.071
X-6.605 Y-3.159 Z-1.093
X-6.629 Y-3.198 Z-1.1
G3 X-6.85 Y-3.952 I1.36 J-0.809
G1 Y-4.349 F600
X-6.843 Y-4.499
X-6.79 Y-4.64
X-6.715 Y-4.769
X-6.622 Y-4.888
X-6.518 Y-4.996
X-6.405 Y-5.094
X-6.285 Y-5.185
X-6.158 Y-5.269
X-5.993 Y-5.365
X-5.809 Y-5.459
X-5.599 Y-5.55
X-5.332 Y-5.647
X-5.022 Y-5.74
X-4.662 Y-5.826
X-4.232 Y-5.902
X-3.797 Y-5.956
X-3.362 Y-5.997
X-2.926 Y-6.03
X-2.053 Y-6.094
X-1.617 Y-6.129
X-1.181 Y-6.166
X-0.31 Y-6.243
X0.126 Y-6.28
X0.562 Y-6.314
X0.999 Y-6.343
X1.435 Y-6.369
X1.872 Y-6.389
X2.309 Y-6.406
X2.747 Y-6.417
X3.184 Y-6.424
X3.622 Y-6.426
X4.059 Y-6.421
X4.496 Y-6.407
X4.933 Y-6.381
X5.368 Y-6.336
X5.689 Y-6.284
X5.956 Y-6.224
X6.163 Y-6.165
X6.319 Y-6.11
X6.458 Y-6.052
X6.591 Y-5.983
X6.626 Y-5.96
X6.746 Y-5.852
X6.823 Y-5.711
X6.85 Y-5.552
Y-5.162
G0 Z5
X-6.552 Y-3.467
Z-0.8
G1 Z-0.95 F400
X-6.556 Y-3.473 Z-0.996
X-6.567 Y-3.492 Z-1.038
X-6.584 Y-3.52 Z-1.071
X-6.605 Y-3.556 Z-1.093
X-6.629 Y-3.596 Z-1.1
G3 X-6.85 Y-4.349 I1.36 J-0.809
G1 Y-4.717 F600
X-6.843 Y-4.867
X-6.794 Y-5.009
X-6.719 Y-5.139
X-6.629 Y-5.258
X-6.525 Y-5.367
X-6.413 Y-5.467
X-6.295 Y-5.558
X-6.163 Y-5.647
X-5.997 Y-5.745
X-5.823 Y-5.835
X-5.601 Y-5.933
X-5.329 Y-6.034
X-5.044 Y-6.122
X-4.67 Y-6.213
X-4.239 Y-6.291
X-3.806 Y-6.349
X-3.37 Y-6.392
X-2.935 Y-6.428
X-2.062 Y-6.495
X-1.626 Y-6.531
X-0.319 Y-6.644
X0.117 Y-6.68
X0.553 Y-6.712
X0.99 Y-6.742
X1.427 Y-6.767
X1.864 Y-6.787
X2.301 Y-6.803
X2.738 Y-6.815
X3.175 Y-6.822
X3.613 Y-6.823
X4.05 Y-6.818
X4.487 Y-6.803
X4.924 Y-6.775
X5.348 Y-6.731
X5.691 Y-6.675
X5.95 Y-6.617
X6.159 Y-6.557
X6.322 Y-6.5
X6.46 Y-6.442
X6.593 Y-6.372
X6.627 Y-6.35
X6.746 Y-6.242
X6.823 Y-6.101
X6.85 Y-5.943
Y-5.552
G0 Z5
X-6.552 Y-3.834
Z-0.8
G1 Z-0.95 F400
X-6.556 Y-3.841 Z-0.996
X-6.567 Y-3.859 Z-1.038
X-6.584 Y-3.888 Z-1.071
X-6.605 Y-3.924 Z-1.093
X-6.629 Y-3.963 Z-1.1
G3 X-6.85 Y-4.717 I1.36 J-0.809
G1 Y-5.115 F600
X-6.843 Y-5.264
X-6.789 Y-5.404
X-6.712 Y-5.533
X-6.62 Y-5.651
X-6.516 Y-5.759
X-6.403 Y-5.858
X-6.283 Y-5.949
X-6.15 Y-6.038
X-5.979 Y-6.138
X-5.795 Y-6.232
X-5.578 Y-6.327
X-5.302 Y-6.429
X-4.991 Y-6.524
X-4.613 Y-6.615
X-4.182 Y-6.692
X-3.748 Y-6.749
X-3.313 Y-6.794
X-2.877 Y-6.832
X-2.005 Y-6.902
X-1.569 Y-6.938
X-0.262 Y-7.049
X0.174 Y-7.084
X0.611 Y-7.116
X1.047 Y-7.144
X1.484 Y-7.168
X1.921 Y-7.188
X2.358 Y-7.203
X2.795 Y-7.214
X3.233 Y-7.22
X3.67
X4.108 Y-7.212
X4.545 Y-7.195
X4.981 Y-7.164
X5.41 Y-7.115
X5.724 Y-7.061
X5.986 Y-6.999
X6.188 Y-6.939
X6.339 Y-6.884
X6.477 Y-6.825
X6.609 Y-6.754
X6.633 Y-6.737
X6.749 Y-6.63
X6.824 Y-6.49
X6.85 Y-6.334
Y-5.943
G0 Z5
X-6.552 Y-4.232
Z-0.8
G1 Z-0.95 F400
X-6.556 Y-4.238 Z-0.996
X-6.567 Y-4.257 Z-1.038
X-6.584 Y-4.285 Z-1.071
X-6.605 Y-4.321 Z-1.093
X-6.629 Y-4.361 Z-1.1
G3 X-6.85 Y-5.115 I1.36 J-0.809
G1 Y-5.467 F600
X-6.843 Y-5.617
X-6.797 Y-5.76
X-6.725 Y-5.892
X-6.635 Y-6.012
X-6.533 Y-6.122
X-6.422 Y-6.223
X-6.305 Y-6.316
X-6.171 Y-6.408
X-6.011 Y-6.505
X-5.832 Y-6.599
X-5.607 Y-6.701
X-5.343 Y-6.802
X-5.052 Y-6.895
X-4.671 Y-6.992
X-4.241 Y-7.075
X-3.808 Y-7.137
X-3.373 Y-7.185
X-2.938 Y-7.225
X-1.194 Y-7.371
X-0.322 Y-7.445
X0.114 Y-7.479
X0.55 Y-7.511
X0.987 Y-7.539
X1.423 Y-7.563
X1.86 Y-7.583
X2.297 Y-7.599
X2.735 Y-7.61
X3.172 Y-7.617
X3.61
X4.047 Y-7.61
X4.484 Y-7.593
X4.921 Y-7.563
X5.342 Y-7.518
X5.696 Y-7.459
X5.954 Y-7.4
X6.164 Y-7.338
X6.329 Y-7.279
X6.467 Y-7.221
X6.6 Y-7.15
X6.63 Y-7.131
X6.747 Y-7.023
X6.824 Y-6.883
X6.85 Y-6.726
Y-6.334
G0 Z5
X-6.552 Y-4.585
Z-0.8
G1 Z-0.95 F400
X-6.556 Y-4.591 Z-0.996
X-6.567 Y-4.61 Z-1.038
X-6.584 Y-4.638 Z-1.071
X-6.605 Y-4.674 Z-1.093
X-6.629 Y-4.714 Z-1.1
G3 X-6.85 Y-5.467 I1.36 J-0.809
G1 Y-5.865 F600
X-6.843 Y-6.015
X-6.792 Y-6.156
X-6.718 Y-6.286
X-6.627 Y-6.406
X-6.525 Y-6.515
X-6.413 Y-6.615
X-6.295 Y-6.708
X-6.162 Y-6.798
X-5.994 Y-6.9
X-5.812 Y-6.995
X-5.595 Y-7.093
X-5.317 Y-7.199
X-5.011 Y-7.296
X-4.629 Y-7.393
X-4.199 Y-7.475
X-3.766 Y-7.537
X-3.331 Y-7.586
X-2.896 Y-7.628
X-2.46 Y-7.666
X-0.716 Y-7.813
X-0.28 Y-7.849
X0.156 Y-7.882
X0.592 Y-7.913
X1.029 Y-7.94
X1.465 Y-7.964
X1.902 Y-7.983
X2.34 Y-7.998
X2.777 Y-8.009
X3.214 Y-8.014
X3.652 Y-8.013
X4.089 Y-8.004
X4.526 Y-7.985
X4.962 Y-7.954
X5.397 Y-7.903
X5.72 Y-7.846
X5.984 Y-7.784
X6.189 Y-7.723
X6.342 Y-7.666
X6.48 Y-7.607
X6.611 Y-7.535
X6.634 Y-7.52
X6.75 Y-7.412
X6.824 Y-7.273
X6.85 Y-7.118
Y-6.726
G0 Z5
X-6.552 Y-4.982
Z-0.8
G1 Z-0.95 F400
X-6.556 Y-4.989 Z-0.996
X-6.567 Y-5.007 Z-1.038
X-6.584 Y-5.036 Z-1.071
X-6.605 Y-5.072 Z-1.093
X-6.629 Y-5.111 Z-1.1
G3 X-6.85 Y-5.865 I1.36 J-0.809
G1 Y-6.238 F600
X-6.843 Y-6.388
X-6.795 Y-6.53
X-6.722 Y-6.661
X-6.633 Y-6.782
X-6.531 Y-6.892
X-6.42 Y-6.993
X-6.303 Y-7.086
X-6.17 Y-7.178
X-6.004 Y-7.28
X-5.826 Y-7.375
X-5.602 Y-7.478
X-5.324 Y-7.586
X-5.034 Y-7.679
X-4.645 Y-7.78
X-4.216 Y-7.865
X-3.783 Y-7.929
X-3.349 Y-7.981
X-2.914 Y-8.025
X-2.478 Y-8.064
X-1.171 Y-8.176
X-0.735 Y-8.213
X-0.299 Y-8.248
X0.138 Y-8.281
X0.574 Y-8.311
X1.011 Y-8.338
X1.447 Y-8.361
X1.884 Y-8.381
X2.322 Y-8.396
X2.759 Y-8.406
X3.196 Y-8.411
X3.634 Y-8.41
X4.071 Y-8.401
X4.508 Y-8.381
X4.944 Y-8.349
X5.369 Y-8.301
X5.716 Y-8.24
X5.974 Y-8.179
X6.181 Y-8.117
X6.341 Y-8.059
X6.479 Y-7.999
X6.611 Y-7.928
X6.634 Y-7.912
X6.75 Y-7.805
X6.824 Y-7.666
X6.85 Y-7.51
Y-7.118
G0 Z5
X-6.552 Y-5.355
Z-0.8
G1 Z-0.95 F400
X-6.556 Y-5.362 Z-0.996
X-6.567 Y-5.38 Z-1.038
X-6.584 Y-5.409 Z-1.071
X-6.605 Y-5.445 Z-1.093
X-6.629 Y-5.484 Z-1.1
G3 X-6.85 Y-6.238 I1.36 J-0.809
G1 Y-6.636 F600
X-6.843 Y-6.785
X-6.792 Y-6.926
X-6.717 Y-7.057
X-6.626 Y-7.176
X-6.524 Y-7.286
X-6.413 Y-7.386
X-6.295 Y-7.479
X-6.161 Y-7.571
X-5.989 Y-7.676
X-5.807 Y-7.772
X-5.586 Y-7.873
X-5.303 Y-7.982
X-4.997 Y-8.081
X-4.602 Y-8.182
X-4.173 Y-8.266
X-3.74 Y-8.331
X-3.306 Y-8.383
X-2.871 Y-8.428
X-2.435 Y-8.468
X-1.563 Y-8.544
X-0.692 Y-8.617
X-0.255 Y-8.651
X0.181 Y-8.684
X0.617 Y-8.713
X1.054 Y-8.74
X1.491 Y-8.762
X1.928 Y-8.781
X2.365 Y-8.795
X2.802 Y-8.804
X3.24 Y-8.808
X3.677 Y-8.806
X4.114 Y-8.795
X4.551 Y-8.774
X4.988 Y-8.739
X5.42 Y-8.686
X5.741 Y-8.628
X6.002 Y-8.564
X6.204 Y-8.502
X6.354 Y-8.446
X6.491 Y-8.386
X6.622 Y-8.313
X6.639 Y-8.302
X6.752 Y-8.195
X6.825 Y-8.057
X6.85 Y-7.903
Y-7.51
G0 Z5
X-6.552 Y-5.753
Z-0.8
G1 Z-0.95 F400
X-6.556 Y-5.759 Z-0.996
X-6.567 Y-5.778 Z-1.038
X-6.584 Y-5.806 Z-1.071
X-6.605 Y-5.842 Z-1.093
X-6.629 Y-5.882 Z-1.1
G3 X-6.85 Y-6.636 I1.36 J-0.809
G1 Y-7.003 F600
X-6.843 Y-7.153
X-6.796 Y-7.296
X-6.725 Y-7.427
X-6.636 Y-7.548
X-6.535 Y-7.659
X-6.425 Y-7.761
X-6.308 Y-7.855
X-6.174 Y-7.95
X-6.011 Y-8.051
X-5.83 Y-8.149
X-5.603 Y-8.254
X-5.331 Y-8.363
X-5.033 Y-8.461
X-4.639 Y-8.566
X-4.21 Y-8.653
X-3.778 Y-8.721
X-3.344 Y-8.776
X-2.909 Y-8.823
X-2.474 Y-8.865
X-2.038 Y-8.904
X-1.166 Y-8.979
X-0.73 Y-9.014
X-0.294 Y-9.049
X0.142 Y-9.081
X0.579 Y-9.11
X1.015 Y-9.136
X1.452 Y-9.159
X1.889 Y-9.177
X2.326 Y-9.192
X2.764 Y-9.201
X3.201 Y-9.205
X3.638 Y-9.202
X4.076 Y-9.192
X4.513 Y-9.171
X4.949 Y-9.137
X5.373 Y-9.087
X5.724 Y-9.025
X5.98 Y-8.963
X6.188 Y-8.9
X6.348 Y-8.841
X6.486 Y-8.781
X6.617 Y-8.709
X6.636 Y-8.696
X6.751 Y-8.589
X6.825 Y-8.45
X6.85 Y-8.295
Y-7.903
G0 Z5
X-6.552 Y-6.121
Z-0.8
G1 Z-0.95 F400
X-6.556 Y-6.127 Z-0.996
X-6.567 Y-6.145 Z-1.038
X-6.584 Y-6.174 Z-1.071
X-6.605 Y-6.21 Z-1.093
X-6.629 Y-6.249 Z-1.1
G3 X-6.85 Y-7.003 I1.36 J-0.809
G1 Y-7.401 F600
X-6.843 Y-7.55
X-6.793 Y-7.692
X-6.72 Y-7.823
X-6.631 Y-7.943
X-6.529 Y-8.054
X-6.418 Y-8.155
X-6.301 Y-8.248
X-6.167 Y-8.342
X-5.997 Y-8.448
X-5.816 Y-8.545
X-5.594 Y-8.648
X-5.308 Y-8.761
X-5.004 Y-8.861
X-4.605 Y-8.967
X-4.176 Y-9.054
X-3.744 Y-9.122
X-3.31 Y-9.177
X-2.875 Y-9.225
X-2.44 Y-9.268
X-2.004 Y-9.307
X-1.568 Y-9.345
X-1.132 Y-9.382
X-0.696 Y-9.418
X-0.26 Y-9.451
X0.176 Y-9.483
X0.613 Y-9.512
X1.049 Y-9.537
X1.486 Y-9.559
X1.923 Y-9.577
X2.361 Y-9.59
X2.798 Y-9.599
X3.235 Y-9.602
X3.673 Y-9.598
X4.11 Y-9.586
X4.547 Y-9.564
X4.983 Y-9.528
X5.417 Y-9.474
X5.744 Y-9.414
X6.005 Y-9.35
X6.207 Y-9.287
X6.358 Y-9.23
X6.495 Y-9.169
X6.626 Y-9.097
X6.64 Y-9.087
X6.752 Y-8.98
X6.825 Y-8.842
X6.85 Y-8.688
Y-8.295
G0 Z5
X-6.552 Y-6.518
Z-0.8
G1 Z-0.95 F400
X-6.556 Y-6.524 Z-0.996
X-6.567 Y-6.543 Z-1.038
X-6.584 Y-6.571 Z-1.071
X-6.605 Y-6.607 Z-1.093
X-6.629 Y-6.647 Z-1.1
G3 X-6.85 Y-7.401 I1.36 J-0.809
G1 Y-7.798 F600
X-6.843 Y-7.948
X-6.791 Y-8.089
X-6.716 Y-8.219
X-6.626 Y-8.338
X-6.523 Y-8.448
X-6.412 Y-8.549
X-6.295 Y-8.642
X-6.16 Y-8.736
X-5.986 Y-8.843
X-5.803 Y-8.942
X-5.574 Y-9.047
X-5.282 Y-9.162
X-4.976 Y-9.262
X-4.566 Y-9.37
X-4.137 Y-9.456
X-3.705 Y-9.524
X-3.271 Y-9.58
X-2.836 Y-9.628
X-2.401 Y-9.671
X-1.965 Y-9.711
X-1.529 Y-9.749
X-1.093 Y-9.786
X-0.657 Y-9.821
X-0.221 Y-9.854
X0.215 Y-9.885
X0.652 Y-9.913
X1.088 Y-9.938
X1.525 Y-9.959
X1.962 Y-9.976
X2.4 Y-9.989
X2.837 Y-9.997
X3.275 Y-9.999
X3.712 Y-9.994
X4.149 Y-9.98
X4.586 Y-9.956
X5.022 Y-9.918
X5.444 Y-9.863
X5.768 Y-9.802
X6.023 Y-9.738
X6.222 Y-9.675
X6.369 Y-9.619
X6.506 Y-9.557
X6.636 Y-9.484
X6.644 Y-9.478
X6.754 Y-9.371
X6.825 Y-9.234
X6.85 Y-9.082
Y-8.688
G0 Z5
X-6.552 Y-6.916
Z-0.8
G1 Z-0.95 F400
X-6.556 Y-6.922 Z-0.996
X-6.567 Y-6.94 Z-1.038
X-6.584 Y-6.969 Z-1.071
X-6.605 Y-7.005 Z-1.093
X-6.629 Y-7.045 Z-1.1
G3 X-6.85 Y-7.798 I1.36 J-0.809
G1 Y-8.196 F600
X-6.843 Y-8.346
X-6.789 Y-8.486
X-6.713 Y-8.615
X-6.621 Y-8.734
X-6.518 Y-8.843
X-6.407 Y-8.943
X-6.289 Y-9.036
X-6.151 Y-9.133
X-5.975 Y-9.24
X-5.788 Y-9.34
X-5.555 Y-9.447
X-5.257 Y-9.563
X-4.948 Y-9.663
X-4.525 Y-9.773
X-4.096 Y-9.858
X-3.664 Y-9.926
X-3.23 Y-9.982
X-2.795 Y-10.031
X-2.36 Y-10.075
X-1.924 Y-10.115
X-1.489 Y-10.153
X-1.053 Y-10.19
X-0.617 Y-10.225
X-0.181 Y-10.257
X0.256 Y-10.288
X0.692 Y-10.315
X1.129 Y-10.339
X1.566 Y-10.359
X2.003 Y-10.376
X2.441 Y-10.388
X2.878 Y-10.395
X3.315
X3.753 Y-10.389
X4.19 Y-10.374
X4.627 Y-10.348
X5.062 Y-10.308
X5.48 Y-10.251
X5.793 Y-10.19
X6.045 Y-10.125
X6.24 Y-10.062
X6.382 Y-10.007
X6.518 Y-9.944
X6.649 Y-9.87
X6.757 Y-9.762
X6.826 Y-9.627
X6.85 Y-9.477
Y-9.082
G0 Z5
X-6.552 Y-7.313
Z-0.8
G1 Z-0.95 F400
X-6.556 Y-7.32 Z-0.996
X-6.567 Y-7.338 Z-1.038
X-6.584 Y-7.366 Z-1.071
X-6.605 Y-7.402 Z-1.093
X-6.629 Y-7.442 Z-1.1
G3 X-6.85 Y-8.196 I1.36 J-0.809
G1 Y-8.549 F600
X-6.843 Y-8.698
X-6.798 Y-8.842
X-6.728 Y-8.974
X-6.64 Y-9.096
X-6.54 Y-9.208
X-6.431 Y-9.311
X-6.315 Y-9.406
X-6.177 Y-9.505
X-6.02 Y-9.604
X-5.829 Y-9.709
X-5.597 Y-9.821
X-5.339 Y-9.925
X-5.019 Y-10.035
X-4.617 Y-10.145
X-4.189 Y-10.237
X-3.758 Y-10.309
X-3.325 Y-10.369
X-2.89 Y-10.42
X-2.455 Y-10.465
X-2.02 Y-10.507
X-1.584 Y-10.546
X-1.148 Y-10.582
X-0.712 Y-10.617
X-0.276 Y-10.65
X0.161 Y-10.681
X0.597 Y-10.708
X1.034 Y-10.733
X1.471 Y-10.754
X1.908 Y-10.771
X2.345 Y-10.783
X2.783 Y-10.791
X3.22 Y-10.793
X3.657 Y-10.787
X4.095 Y-10.774
X4.531 Y-10.75
X4.967 Y-10.713
X5.388 Y-10.661
X5.741 Y-10.595
X5.999 Y-10.532
X6.205 Y-10.468
X6.366 Y-10.407
X6.503 Y-10.346
X6.634 Y-10.273
X6.642 Y-10.267
X6.754 Y-10.16
X6.825 Y-10.023
X6.85 Y-9.87
Y-9.477
G0 Z5
X-6.552 Y-7.666
Z-0.8
G1 Z-0.95 F400
X-6.556 Y-7.672 Z-0.996
X-6.567 Y-7.691 Z-1.038
X-6.584 Y-7.719 Z-1.071
X-6.605 Y-7.755 Z-1.093
X-6.629 Y-7.795 Z-1.1
G3 X-6.85 Y-8.549 I1.36 J-0.809
G1 Y-8.946 F600
X-6.843 Y-9.096
X-6.796 Y-9.238
X-6.724 Y-9.37
X-6.636 Y-9.492
X-6.535 Y-9.603
X-6.426 Y-9.705
X-6.31 Y-9.8
X-6.174 Y-9.897
X-6.006 Y-10.004
X-5.827 Y-10.102
X-5.6 Y-10.211
X-5.31 Y-10.329
X-5.008 Y-10.432
X-4.6 Y-10.544
X-4.173 Y-10.635
X-3.741 Y-10.708
X-3.308 Y-10.769
X-2.874 Y-10.82
X-2.439 Y-10.866
X-2.003 Y-10.908
X-1.567 Y-10.947
X-1.132 Y-10.984
X-0.696 Y-11.019
X-0.259 Y-11.051
X0.177 Y-11.081
X0.614 Y-11.109
X1.05 Y-11.133
X1.487 Y-11.153
X1.925 Y-11.169
X2.362 Y-11.181
X2.799 Y-11.188
X3.237 Y-11.189
X3.674 Y-11.183
X4.111 Y-11.169
X4.548 Y-11.144
X4.984 Y-11.106
X5.418 Y-11.05
X5.754 Y-10.986
X6.015 Y-10.921
X6.218 Y-10.857
X6.369 Y-10.8
X6.506 Y-10.738
X6.637 Y-10.664
X6.644 Y-10.659
X6.754 Y-10.552
X6.825 Y-10.416
X6.85 Y-10.264
Y-9.87
G0 Z5
X-6.552 Y-8.064
Z-0.8
G1 Z-0.95 F400
X-6.556 Y-8.07 Z-0.996
X-6.567 Y-8.088 Z-1.038
X-6.584 Y-8.117 Z-1.071
X-6.605 Y-8.153 Z-1.093
X-6.629 Y-8.193 Z-1.1
G3 X-6.85 Y-8.946 I1.36 J-0.809
G1 Y-9.344 F600
X-6.843 Y-9.494
X-6.794 Y-9.635
X-6.721 Y-9.767
X-6.632 Y-9.887
X-6.531 Y-9.998
X-6.421 Y-10.101
X-6.305 Y-10.195
X-6.171 Y-10.291
X-5.998 Y-10.4
X-5.814 Y-10.501
X-5.586 Y-10.61
X-5.293 Y-10.729
X-4.988 Y-10.832
X-4.573 Y-10.946
X-4.145 Y-11.037
X-3.714 Y-11.109
X-3.28 Y-11.17
X-2.846 Y-11.222
X-2.411 Y-11.268
X-1.976 Y-11.311
X-1.54 Y-11.35
X-1.104 Y-11.387
X-0.668 Y-11.421
X-0.232 Y-11.453
X0.205 Y-11.483
X0.641 Y-11.509
X1.078 Y-11.533
X1.515 Y-11.553
X1.952 Y-11.568
X2.39 Y-11.58
X2.827 Y-11.586
X3.264
X3.702 Y-11.579
X4.139 Y-11.563
X4.576 Y-11.537
X5.011 Y-11.498
X5.441 Y-11.44
X5.773 Y-11.376
X6.03 Y-11.311
X6.229 Y-11.247
X6.376 Y-11.19
X6.513 Y-11.128
X6.647 Y-11.052
X6.756 Y-10.945
X6.826 Y-10.809
X6.85 Y-10.658
Y-10.264
G0 Z5
X-6.552 Y-8.461
Z-0.8
G1 Z-0.95 F400
X-6.556 Y-8.468 Z-0.996
X-6.567 Y-8.486 Z-1.038
X-6.584 Y-8.514 Z-1.071
X-6.605 Y-8.55 Z-1.093
X-6.629 Y-8.59 Z-1.1
G3 X-6.85 Y-9.344 I1.36 J-0.809
G1 Y-9.717 F600
X-6.843 Y-9.867
X-6.798 Y-10.01
X-6.729 Y-10.143
X-6.641 Y-10.265
X-6.542 Y-10.377
X-6.433 Y-10.48
X-6.318 Y-10.576
X-6.183 Y-10.675
X-6.02 Y-10.779
X-5.834 Y-10.883
X-5.604 Y-10.995
X-5.332 Y-11.108
X-5.021 Y-11.216
X-4.614 Y-11.33
X-4.187 Y-11.424
X-3.756 Y-11.5
X-3.323 Y-11.562
X-2.889 Y-11.616
X-2.454 Y-11.663
X-2.019 Y-11.706
X-1.583 Y-11.746
X-1.147 Y-11.783
X-0.711 Y-11.818
X-0.275 Y-11.85
X0.162 Y-11.879
X0.598 Y-11.906
X1.035 Y-11.929
X1.472 Y-11.949
X1.909 Y-11.965
X2.346 Y-11.976
X2.784 Y-11.983
X3.221
X3.659 Y-11.976
X4.096 Y-11.961
X4.533 Y-11.936
X4.968 Y-11.897
X5.398 Y-11.842
X5.752 Y-11.775
X6.007 Y-11.711
X6.212 Y-11.647
X6.37 Y-11.587
X6.506 Y-11.526
X6.637 Y-11.452
X6.644 Y-11.447
X6.754 Y-11.34
X6.825 Y-11.204
X6.85 Y-11.051
Y-10.658
G0 Z5
X-6.552 Y-8.834
Z-0.8
G1 Z-0.95 F400
X-6.556 Y-8.841 Z-0.996
X-6.567 Y-8.859 Z-1.038
X-6.584 Y-8.887 Z-1.071
X-6.605 Y-8.923 Z-1.093
X-6.629 Y-8.963 Z-1.1
G3 X-6.85 Y-9.717 I1.36 J-0.809
G1 Y-10.114 F600
X-6.843 Y-10.264
X-6.797 Y-10.407
X-6.726 Y-10.539
X-6.638 Y-10.661
X-6.538 Y-10.773
X-6.43 Y-10.876
X-6.314 Y-10.971
X-6.18 Y-11.069
X-6.01 Y-11.178
X-5.83 Y-11.278
X-5.603 Y-11.388
X-5.313 Y-11.509
X-5.01 Y-11.614
X-4.599 Y-11.73
X-4.171 Y-11.824
X-3.741 Y-11.899
X-3.308 Y-11.962
X-2.874 Y-12.017
X-2.439 Y-12.064
X-2.004 Y-12.108
X-1.568 Y-12.147
X-1.132 Y-12.184
X-0.696 Y-12.219
X-0.26 Y-12.25
X0.177 Y-12.28
X0.613 Y-12.306
X1.05 Y-12.329
X1.487 Y-12.348
X1.924 Y-12.364
X2.362 Y-12.374
X2.799 Y-12.38
X3.237 Y-12.379
X3.674 Y-12.372
X4.111 Y-12.356
X4.548 Y-12.33
X4.983 Y-12.29
X5.417 Y-12.233
X5.758 Y-12.168
X6.016 Y-12.103
X6.219 Y-12.039
X6.371 Y-11.981
X6.508 Y-11.919
X6.639 Y-11.845
X6.645 Y-11.841
X6.755 Y-11.734
X6.826 Y-11.597
X6.85 Y-11.445
Y-11.051
G0 Z5
X-6.552 Y-9.232
Z-0.8
G1 Z-0.95 F400
X-6.556 Y-9.238 Z-0.996
X-6.567 Y-9.256 Z-1.038
X-6.584 Y-9.285 Z-1.071
X-6.605 Y-9.321 Z-1.093
X-6.629 Y-9.361 Z-1.1
G3 X-6.85 Y-10.114 I1.36 J-0.809
G1 Y-10.512 F600
X-6.843 Y-10.662
X-6.795 Y-10.804
X-6.724 Y-10.936
X-6.635 Y-11.057
X-6.535 Y-11.169
X-6.426 Y-11.272
X-6.31 Y-11.367
X-6.176 Y-11.464
X-6.004 Y-11.574
X-5.821 Y-11.677
X-5.592 Y-11.787
X-5.299 Y-11.908
X-4.994 Y-12.014
X-4.577 Y-12.131
X-4.15 Y-12.224
X-3.719 Y-12.3
X-3.286 Y-12.364
X-2.852 Y-12.418
X-2.417 Y-12.466
X-1.982 Y-12.509
X-1.546 Y-12.549
X-1.11 Y-12.586
X-0.674 Y-12.62
X-0.238 Y-12.652
X0.198 Y-12.68
X0.635 Y-12.706
X1.072 Y-12.729
X1.509 Y-12.747
X1.946 Y-12.762
X2.384 Y-12.772
X2.821 Y-12.777
X3.258 Y-12.776
X3.696 Y-12.768
X4.133 Y-12.751
X4.569 Y-12.723
X5.005 Y-12.683
X5.439 Y-12.624
X5.773 Y-12.559
X6.03 Y-12.493
X6.23 Y-12.429
X6.378 Y-12.372
X6.515 Y-12.31
X6.647 Y-12.234
X6.756 Y-12.126
X6.826 Y-11.991
X6.85 Y-11.84
Y-11.445
G0 Z5
X-6.552 Y-9.629
Z-0.8
G1 Z-0.95 F400
X-6.556 Y-9.636 Z-0.996
X-6.567 Y-9.654 Z-1.038
X-6.584 Y-9.682 Z-1.071
X-6.605 Y-9.718 Z-1.093
X-6.629 Y-9.758 Z-1.1
G3 X-6.85 Y-10.512 I1.36 J-0.809
G1 Y-10.909 F600
X-6.843 Y-11.059
X-6.794 Y-11.201
X-6.722 Y-11.333
X-6.633 Y-11.454
X-6.532 Y-11.565
X-6.423 Y-11.668
X-6.307 Y-11.763
X-6.171 Y-11.861
X-5.999 Y-11.971
X-5.813 Y-12.075
X-5.581 Y-12.186
X-5.287 Y-12.308
X-4.978 Y-12.414
X-4.557 Y-12.532
X-4.129 Y-12.625
X-3.699 Y-12.701
X-3.266 Y-12.765
X-2.832 Y-12.819
X-2.397 Y-12.867
X-1.962 Y-12.911
X-1.526 Y-12.951
X-1.09 Y-12.987
X-0.654 Y-13.021
X-0.218 Y-13.053
X0.219 Y-13.081
X0.655 Y-13.106
X1.092 Y-13.128
X1.529 Y-13.147
X1.967 Y-13.161
X2.404 Y-13.17
X2.841 Y-13.174
X3.279 Y-13.172
X3.716 Y-13.163
X4.153 Y-13.145
X4.59 Y-13.117
X5.025 Y-13.075
X5.455 Y-13.016
X5.787 Y-12.951
X6.04 Y-12.885
X6.238 Y-12.821
X6.385 Y-12.764
X6.521 Y-12.701
X6.608 Y-12.651
X6.737 Y-12.543
X6.821 Y-12.397
X6.85 Y-12.232
Y-11.84
G0 Z5
X-6.552 Y-10.027
Z-0.8
G1 Z-0.95 F400
X-6.556 Y-10.033 Z-0.996
X-6.567 Y-10.052 Z-1.038
X-6.584 Y-10.08 Z-1.071
X-6.605 Y-10.116 Z-1.093
X-6.629 Y-10.156 Z-1.1
G3 X-6.85 Y-10.909 I1.36 J-0.809
G1 Y-11.307 F600
X-6.843 Y-11.457
X-6.793 Y-11.598
X-6.72 Y-11.729
X-6.631 Y-11.85
X-6.53 Y-11.961
X-6.421 Y-12.064
X-6.305 Y-12.159
X-6.167 Y-12.258
X-5.995 Y-12.368
X-5.806 Y-12.473
X-5.571 Y-12.586
X-5.277 Y-12.707
X-4.963 Y-12.815
X-4.541 Y-12.932
X-4.114 Y-13.025
X-3.683 Y-13.101
X-3.25 Y-13.165
X-2.816 Y-13.22
X-2.382 Y-13.268
X-1.946 Y-13.312
X-1.511 Y-13.352
X-1.075 Y-13.388
X-0.639 Y-13.422
X-0.202 Y-13.453
X0.234 Y-13.481
X0.671 Y-13.506
X1.108 Y-13.528
X1.545 Y-13.545
X1.982 Y-13.559
X2.42 Y-13.568
X2.857 Y-13.571
X3.294 Y-13.569
X3.732 Y-13.559
X4.169 Y-13.54
X4.605 Y-13.511
X5.041 Y-13.468
X5.467 Y-13.409
X5.797 Y-13.343
X6.049 Y-13.277
X6.245 Y-13.213
X6.385 Y-13.158
X6.52 Y-13.093
X6.653 Y-13.017
X6.759 Y-12.91
X6.827 Y-12.776
X6.85 Y-12.628
Y-12.232
G0 Z5
X-6.552 Y-10.424
Z-0.8
G1 Z-0.95 F400
X-6.556 Y-10.431 Z-0.996
X-6.567 Y-10.449 Z-1.038
X-6.584 Y-10.478 Z-1.071
X-6.605 Y-10.514 Z-1.093
X-6.629 Y-10.553 Z-1.1
G3 X-6.85 Y-11.307 I1.36 J-0.809
G1 Y-11.705 F600
X-6.843 Y-11.854
X-6.792 Y-11.996
X-6.718 Y-12.126
X-6.629 Y-12.247
X-6.528 Y-12.358
X-6.418 Y-12.46
X-6.302 Y-12.555
X-6.163 Y-12.656
X-5.991 Y-12.765
X-5.8 Y-12.871
X-5.562 Y-12.985
X-5.268 Y-13.105
X-4.948 Y-13.215
X-4.527 Y-13.332
X-4.1 Y-13.425
X-3.669 Y-13.501
X-3.236 Y-13.565
X-2.802 Y-13.621
X-2.367 Y-13.669
X-1.932 Y-13.713
X-1.497 Y-13.753
X-1.061 Y-13.789
X-0.624 Y-13.823
X-0.188 Y-13.853
X0.248 Y-13.881
X0.685 Y-13.906
X1.122 Y-13.927
X1.559 Y-13.944
X1.997 Y-13.957
X2.434 Y-13.966
X2.871 Y-13.969
X3.309 Y-13.965
X3.746 Y-13.954
X4.183 Y-13.935
X4.619 Y-13.905
X5.055 Y-13.861
X5.48 Y-13.801
X5.806 Y-13.735
X6.049 Y-13.671
X6.248 Y-13.605
X6.394 Y-13.548
X6.53 Y-13.484
X6.611 Y-13.437
X6.738 Y-13.329
X6.821 Y-13.184
X6.85 Y-13.02
Y-12.628
G0 Z5
X-6.552 Y-10.822
Z-0.8
G1 Z-0.95 F400
X-6.556 Y-10.828 Z-0.996
X-6.567 Y-10.847 Z-1.038
X-6.584 Y-10.875 Z-1.071
X-6.605 Y-10.911 Z-1.093
X-6.629 Y-10.951 Z-1.1
G3 X-6.85 Y-11.705 I1.36 J-0.809
G1 Y-12.072 F600
X-6.843 Y-12.222
X-6.806 Y-12.367
X-6.742 Y-12.503
X-6.66 Y-12.628
X-6.563 Y-12.743
X-6.458 Y-12.85
X-6.345 Y-12.948
X-6.225 Y-13.039
X-6.101 Y-13.123
X-5.973 Y-13.201
X-5.842 Y-13.275
X-5.708 Y-13.342
X-5.572 Y-13.405
X-5.434 Y-13.464
X-5.294 Y-13.518
X-5.153 Y-13.569
X-5.011 Y-13.617
X-4.867 Y-13.661
X-4.723 Y-13.702
X-4.578 Y-13.74
X-4.432 Y-13.775
X-4.286 Y-13.809
X-4.139 Y-13.84
X-3.992 Y-13.869
X-3.845 Y-13.896
X-3.697 Y-13.922
X-3.549 Y-13.946
X-3.401 Y-13.969
X-3.252 Y-13.991
X-2.955 Y-14.031
X-2.63 Y-14.071
X-2.274 Y-14.111
X-2.071 Y-14.132
X-1.827 Y-14.156
X-1.582 Y-14.179
X-1.283 Y-14.205
X-0.989 Y-14.23
X-0.594 Y-14.26
X-0.276 Y-14.282
X0.056 Y-14.304
X0.366 Y-14.322
X0.642 Y-14.338
X0.942 Y-14.352
X1.202 Y-14.364
X1.447 Y-14.373
X1.703 Y-14.382
X1.902 Y-14.387
X2.129 Y-14.392
X2.497 Y-14.398
X2.841 Y-14.399
X3.172 Y-14.397
X3.482 Y-14.391
X3.632 Y-14.387
X3.782 Y-14.382
X4.082 Y-14.368
X4.232 Y-14.36
X4.381 Y-14.35
X4.531 Y-14.338
X4.68 Y-14.326
X4.83 Y-14.311
X4.979 Y-14.295
X5.128 Y-14.276
X5.276 Y-14.256
X5.424 Y-14.232
X5.572 Y-14.205
X5.719 Y-14.175
X5.865 Y-14.142
X6.01 Y-14.103
X6.154 Y-14.06
X6.296 Y-14.012
X6.435 Y-13.956
X6.569 Y-13.889
X6.615 Y-13.861
X6.74 Y-13.754
X6.822 Y-13.61
X6.85 Y-13.447
Y-13.02
G0 Z5
X-6.552 Y-11.19
Z-0.8
G1 Z-0.95 F400
X-6.556 Y-11.196 Z-0.996
X-6.567 Y-11.214 Z-1.038
X-6.584 Y-11.243 Z-1.071
X-6.605 Y-11.279 Z-1.093
X-6.629 Y-11.319 Z-1.1
G3 X-6.85 Y-12.072 I1.36 J-0.809
G1 Y-12.5 F600
X-6.843 Y-12.65
X-6.806 Y-12.795
X-6.742 Y-12.931
X-6.659 Y-13.056
X-6.563 Y-13.171
X-6.457 Y-13.277
X-6.344 Y-13.375
X-6.224 Y-13.466
X-6.1 Y-13.55
X-5.972 Y-13.628
X-5.841 Y-13.7
X-5.707 Y-13.768
X-5.57 Y-13.83
X-5.432 Y-13.889
X-5.292 Y-13.943
X-5.151 Y-13.993
X-5.009 Y-14.041
X-4.865 Y-14.085
X-4.721 Y-14.126
X-4.576 Y-14.164
X-4.43 Y-14.2
X-4.284 Y-14.234
X-4.137 Y-14.265
X-3.99 Y-14.295
X-3.843 Y-14.323
X-3.695 Y-14.349
X-3.547 Y-14.374
X-3.399 Y-14.398
X-3.251 Y-14.42
X-3.103 Y-14.441
X-2.805 Y-14.481
X-2.488 Y-14.519
X-2.12 Y-14.56
X-1.902 Y-14.582
X-1.664 Y-14.605
X-1.303 Y-14.638
G3 X-1.243 Y-14.347 I0.008 J0.15
G1 X-1.581 Y-14.223
X-6.177 Y-12.537
X-6.648 Y-12.364 F400
X-6.695 Y-12.355
X-6.741 Y-12.361
X-6.784 Y-12.38
X-6.818 Y-12.412
X-6.841 Y-12.454
X-6.85 Y-12.5
Y-12.922 F600
X-6.843 Y-13.072
X-6.8 Y-13.215
X-6.731 Y-13.349
X-6.645 Y-13.472
X-6.546 Y-13.585
X-6.438 Y-13.689
X-6.323 Y-13.785
X-6.191 Y-13.882
X-6.033 Y-13.985
X-5.842 Y-14.093
X-5.616 Y-14.204
X-5.475 Y-14.263
X-5.176 Y-14.38
X-4.968 Y-14.447
X-4.863 Y-14.478
X-4.758 Y-14.507
G3 X-4.634 Y-14.24 I0.035 J0.146
G1 X-4.936 Y-14.021
X-6.239 Y-13.076
X-6.612 Y-12.806 F400
G3 X-6.85 Y-12.922 I-0.088 J-0.121
G1 Y-13.319 F600
X-6.843 Y-13.469
X-6.798 Y-13.613
X-6.729 Y-13.746
X-6.642 Y-13.868
X-6.543 Y-13.981
X-6.435 Y-14.084
X-6.32 Y-14.18
X-6.254 Y-14.229
X-6.188 Y-14.275
X-6.096 Y-14.334
X-6.003 Y-14.391
G3 X-5.814 Y-14.164 I0.073 J0.131
G1 X-6.049 Y-13.879
X-6.316 Y-13.556
X-6.584 Y-13.229 F400
G3 X-6.85 Y-13.319 I-0.116 J-0.095
G1 Y-13.717 F600
X-6.843 Y-13.867
X-6.797 Y-14.01
X-6.727 Y-14.142
X-6.639 Y-14.264
X-6.566 Y-14.346
X-6.514 Y-14.442
X-6.484 Y-14.547
X-6.479 Y-14.656
X-6.498 Y-14.764
X-6.541 Y-14.864
X-6.606 Y-14.952
X-6.683 Y-15.019
X-6.773 Y-15.123
X-6.83 Y-15.248
X-6.85 Y-15.385
G3 X-6.55 Y-15.38 I0.15 J0.005
G1 Y-15.06
Y-14.042
Y-13.722 F400
G3 X-6.85 Y-13.717 I-0.15 J0
G1 Y-14.985 F600
G0 Z5
X6.552 Y-16.677
Z-0.8
G1 Z-0.95 F400
X6.556 Y-16.671 Z-0.996
X6.567 Y-16.652 Z-1.038
X6.584 Y-16.624 Z-1.071
X6.605 Y-16.588 Z-1.093
X6.629 Y-16.548 Z-1.1
G3 X6.85 Y-15.794 I-1.36 J0.809
G1 Y-15.72 F600
X6.848 Y-15.682
X6.729 Y-15.591
X6.592 Y-15.529
X6.449 Y-15.485
X6.293 Y-15.451
X6.069 Y-15.415
X5.96 Y-15.404
G3 X5.919 Y-15.7 I-0.01 J-0.15
G1 X6.157 Y-15.751
X6.669 Y-15.861 F400
X6.712 Y-15.864
X6.754 Y-15.854
X6.792 Y-15.833
X6.822 Y-15.801
X6.842 Y-15.762
X6.85 Y-15.72
Y-15.596 F600
X6.848 Y-15.558
X6.77 Y-15.43
X6.697 Y-15.348
X6.644 Y-15.253
X6.614 Y-15.148
X6.609 Y-15.038
X6.647 Y-14.823
X6.807 Y-14.416
X6.831 Y-14.343
X6.845 Y-14.267
X6.85 Y-14.191
G3 X6.55 Y-14.196 I-0.15 J-0.005
G1 Y-14.515
Y-15.271
Y-15.59 F400
G3 X6.85 Y-15.596 I0.15 J0
G1 Y-13.447 F600
X6.841 Y-13.402
X6.82 Y-13.361
X6.787 Y-13.33
X6.746 Y-13.309
X6.7 Y-13.302
G3 X6.7 Y-13.602 I0 J-0.15
X6.78 Y-13.579 I0 J0.15
G0 Z15

(2D Adaptive5)
X0.229 Y-11.622
Z15
Z5
Z1.55
G1 Z1.4 F400
Z-0.6
G3 X0.005 Y-13.176 I7.063 J-1.809
G1 Y-13.251 F600
X0.044 Y-13.315
X0.162 Y-13.408
X0.299 Y-13.47
X0.442 Y-13.514
X0.596 Y-13.548
X0.819 Y-13.584
X1.186 Y-13.622
X1.623 Y-13.641
X2.06 Y-13.647
X2.498 Y-13.649
X4.248 Y-13.65
X6.367
X6.552 Y-13.613
X6.708 Y-13.508
X6.813 Y-13.352
X6.85 Y-13.167
G0 Z5
X-6.331 Y-11.605
Z-0.3
G1 Z-0.45 F400
X-6.334 Y-11.612 Z-0.496
X-6.345 Y-11.63 Z-0.538
X-6.362 Y-11.658 Z-0.571
X-6.384 Y-11.694 Z-0.593
X-6.407 Y-11.734 Z-0.6
G3 X-6.85 Y-13.241 I2.721 J-1.618
G1 Y-13.279 F600
X-6.848 Y-13.317
X-6.73 Y-13.409
X-6.593 Y-13.47
X-6.449 Y-13.514
X-6.294 Y-13.549
X-6.071 Y-13.585
X-5.7 Y-13.622
X-5.263 Y-13.641
X-4.826 Y-13.647
X-4.388 Y-13.649
X-2.639 Y-13.65
X-0.889
X-0.452 Y-13.675
X-0.031 Y-13.793
X0.282 Y-13.873
X0.625 Y-13.94
X1.022 Y-13.993
X1.458 Y-14.025
X1.895 Y-14.04
X2.333 Y-14.046
X2.77 Y-14.048
X4.083 Y-14.05
X5.832
X6.032 Y-14.046
X6.181 Y-14.035
X6.33 Y-14.013
X6.474 Y-13.973
X6.543 Y-13.946
X6.668 Y-13.874
X6.766 Y-13.768
X6.828 Y-13.639
X6.85 Y-13.496
G0 Z5
X-6.552 Y-12.397
Z-0.3
G1 Z-0.45 F400
X-6.556 Y-12.403 Z-0.496
X-6.567 Y-12.422 Z-0.538
X-6.584 Y-12.45 Z-0.571
X-6.605 Y-12.486 Z-0.593
X-6.629 Y-12.526 Z-0.6
G3 X-6.85 Y-13.279 I1.36 J-0.809
G1 Y-13.41 F600
X-6.848 Y-13.447
X-6.775 Y-13.578
X-6.665 Y-13.681
X-6.539 Y-13.762
X-6.404 Y-13.827
X-6.263 Y-13.879
X-6.12 Y-13.922
X-5.973 Y-13.955
X-5.826 Y-13.982
X-5.678 Y-14.004
X-5.529 Y-14.021
X-5.379 Y-14.035
X-5.23 Y-14.046
X-5.08 Y-14.054
X-4.93 Y-14.061
X-4.78 Y-14.066
X-4.462 Y-14.074
X-4.239 Y-14.078
X-3.915 Y-14.082
X-3.477 Y-14.084
X-2.165 Y-14.086
X-1.29
X-0.853 Y-14.097
X-0.421 Y-14.167
X-0.081 Y-14.239
X0.066 Y-14.269
X0.214 Y-14.297
X0.361 Y-14.323
X0.509 Y-14.347
X0.658 Y-14.368
X0.807 Y-14.387
X0.956 Y-14.404
X1.105 Y-14.418
X1.255 Y-14.43
X1.404 Y-14.44
X1.554 Y-14.449
X1.704 Y-14.456
X1.854 Y-14.462
X2.17 Y-14.471
X2.368 Y-14.475
X2.638 Y-14.479
X3.04 Y-14.483
X3.478 Y-14.485
X5.228 Y-14.486
X5.547 Y-14.485
X5.697 Y-14.481
X5.847 Y-14.474
X5.996 Y-14.461
X6.145 Y-14.442
X6.292 Y-14.413
X6.436 Y-14.372
X6.576 Y-14.317
X6.597 Y-14.306
X6.731 Y-14.198
X6.819 Y-14.051
X6.85 Y-13.881
G0 Z5
X-6.552 Y-12.527
Z-0.3
G1 Z-0.45 F400
X-6.556 Y-12.533 Z-0.496
X-6.567 Y-12.552 Z-0.538
X-6.584 Y-12.58 Z-0.571
X-6.605 Y-12.616 Z-0.593
X-6.629 Y-12.656 Z-0.6
G3 X-6.85 Y-13.41 I1.36 J-0.809
G1 Y-13.608 F600
X-6.846 Y-13.683
X-6.789 Y-13.821
X-6.696 Y-13.939
X-6.583 Y-14.038
X-6.458 Y-14.12
X-6.325 Y-14.19
X-6.186 Y-14.247
X-6.044 Y-14.296
X-5.899 Y-14.336
X-5.753 Y-14.369
X-5.606 Y-14.396
X-5.457 Y-14.419
X-5.309 Y-14.438
X-5.159 Y-14.453
X-5.01 Y-14.466
X-4.86 Y-14.476
X-4.711 Y-14.485
X-4.561 Y-14.492
X-4.411 Y-14.498
X-4.091 Y-14.507
X-3.893 Y-14.511
X-3.623 Y-14.515
X-3.223 Y-14.519
X-2.785 Y-14.521
X-1.473 Y-14.523
X-1.036 Y-14.541
X-0.819 Y-14.568
X-0.711 Y-14.585
G3 X-0.673 Y-14.287 I0.017 J0.149
G1 X-0.987 Y-14.244
X-6.15 Y-13.537
X-6.68 Y-13.465 F400
X-6.721
X-6.761 Y-13.476
X-6.797 Y-13.498
X-6.825 Y-13.529
X-6.843 Y-13.567
X-6.85 Y-13.608
Y-13.874 F600
X-6.843 Y-14.024
X-6.777 Y-14.159
X-6.684 Y-14.276
X-6.573 Y-14.378
X-6.519 Y-14.473
X-6.488 Y-14.578
X-6.481 Y-14.687
X-6.499 Y-14.795
X-6.541 Y-14.896
X-6.604 Y-14.985
X-6.687 Y-15.059
X-6.775 Y-15.162
X-6.831 Y-15.286
X-6.85 Y-15.42
G3 X-6.55 Y-15.415 I0.15 J0.005
G1 Y-15.096
Y-14.199
Y-13.879 F400
G3 X-6.85 Y-13.874 I-0.15 J0
G1 Y-14.996 F600
G0 Z5
X6.552 Y-16.641
Z-0.3
G1 Z-0.45 F400
X6.556 Y-16.635 Z-0.496
X6.567 Y-16.616 Z-0.538
X6.584 Y-16.588 Z-0.571
X6.605 Y-16.552 Z-0.593
X6.629 Y-16.512 Z-0.6
G3 X6.85 Y-15.759 I-1.36 J0.809
G1 Y-13.881 F600
X6.841 Y-13.836
X6.82 Y-13.796
X6.787 Y-13.764
X6.746 Y-13.744
X6.7 Y-13.737
G3 X6.636 Y-14.022 I0 J-0.15
G1 X6.664 Y-14.029 Z-0.597
X6.691 Y-14.036 Z-0.589
X6.7 Y-14.037 Z-0.585
X6.733 Y-14.027 Z-0.561
X6.758 Y-14.02 Z-0.529
X6.774 Y-14.015 Z-0.491
X6.78 Y-14.014 Z-0.45
G0 Z5
X0.229 Y-11.622
Z0.95
G1 Z0.8 F400
Z-1.2
G3 X0.005 Y-13.176 I7.063 J-1.809
G1 Y-13.251 F600
X0.044 Y-13.315
X0.162 Y-13.408
X0.299 Y-13.47
X0.442 Y-13.514
X0.596 Y-13.548
X0.819 Y-13.584
X1.186 Y-13.622
X1.623 Y-13.641
X2.06 Y-13.647
X2.498 Y-13.649
X4.248 Y-13.65
X6.367
X6.552 Y-13.613
X6.708 Y-13.508
X6.813 Y-13.352
X6.85 Y-13.167
G0 Z5
X-6.331 Y-11.605
Z-0.9
G1 Z-1.05 F400
X-6.334 Y-11.612 Z-1.096
X-6.345 Y-11.63 Z-1.138
X-6.362 Y-11.658 Z-1.171
X-6.384 Y-11.694 Z-1.193
X-6.407 Y-11.734 Z-1.2
G3 X-6.85 Y-13.241 I2.721 J-1.618
G1 Y-13.279 F600
X-6.848 Y-13.317
X-6.73 Y-13.409
X-6.593 Y-13.47
X-6.449 Y-13.514
X-6.294 Y-13.549
X-6.071 Y-13.585
X-5.7 Y-13.622
X-5.263 Y-13.641
X-4.826 Y-13.647
X-4.388 Y-13.649
X-2.639 Y-13.65
X-0.889
X-0.452 Y-13.675
X-0.031 Y-13.793
X0.282 Y-13.873
X0.625 Y-13.94
X1.022 Y-13.993
X1.458 Y-14.025
X1.895 Y-14.04
X2.333 Y-14.046
X2.77 Y-14.048
X4.083 Y-14.05
X5.832
X6.032 Y-14.046
X6.181 Y-14.035
X6.33 Y-14.013
X6.474 Y-13.973
X6.543 Y-13.946
X6.668 Y-13.874
X6.766 Y-13.768
X6.828 Y-13.639
X6.85 Y-13.496
G0 Z5
X-6.552 Y-12.397
Z-0.9
G1 Z-1.05 F400
X-6.556 Y-12.403 Z-1.096
X-6.567 Y-12.422 Z-1.138
X-6.584 Y-12.45 Z-1.171
X-6.605 Y-12.486 Z-1.193
X-6.629 Y-12.526 Z-1.2
G3 X-6.85 Y-13.279 I1.36 J-0.809
G1 Y-13.41 F600
X-6.848 Y-13.447
X-6.775 Y-13.578
X-6.665 Y-13.681
X-6.539 Y-13.762
X-6.404 Y-13.827
X-6.263 Y-13.879
X-6.12 Y-13.922
X-5.973 Y-13.955
X-5.826 Y-13.982
X-5.678 Y-14.004
X-5.529 Y-14.021
X-5.379 Y-14.035
X-5.23 Y-14.046
X-5.08 Y-14.054
X-4.93 Y-14.061
X-4.78 Y-14.066
X-4.462 Y-14.074
X-4.239 Y-14.078
X-3.915 Y-14.082
X-3.477 Y-14.084
X-2.165 Y-14.086
X-1.29
X-0.853 Y-14.097
X-0.421 Y-14.167
X-0.081 Y-14.239
X0.066 Y-14.269
X0.214 Y-14.297
X0.361 Y-14.323
X0.509 Y-14.347
X0.658 Y-14.368
X0.807 Y-14.387
X0.956 Y-14.404
X1.105 Y-14.418
X1.255 Y-14.43
X1.404 Y-14.44
X1.554 Y-14.449
X1.704 Y-14.456
X1.854 Y-14.462
X2.17 Y-14.471
X2.368 Y-14.475
X2.638 Y-14.479
X3.04 Y-14.483
X3.478 Y-14.485
X5.228 Y-14.486
X5.547 Y-14.485
X5.697 Y-14.481
X5.847 Y-14.474
X5.996 Y-14.461
X6.145 Y-14.442
X6.292 Y-14.413
X6.436 Y-14.372
X6.576 Y-14.317
X6.597 Y-14.306
X6.731 Y-14.198
X6.819 Y-14.051
X6.85 Y-13.881
G0 Z5
X-6.552 Y-12.527
Z-0.9
G1 Z-1.05 F400
X-6.556 Y-12.533 Z-1.096
X-6.567 Y-12.552 Z-1.138
X-6.584 Y-12.58 Z-1.171
X-6.605 Y-12.616 Z-1.193
X-6.629 Y-12.656 Z-1.2
G3 X-6.85 Y-13.41 I1.36 J-0.809
G1 Y-13.608 F600
X-6.846 Y-13.683
X-6.789 Y-13.821
X-6.696 Y-13.939
X-6.583 Y-14.038
X-6.458 Y-14.12
X-6.325 Y-14.19
X-6.186 Y-14.247
X-6.044 Y-14.296
X-5.899 Y-14.336
X-5.753 Y-14.369
X-5.606 Y-14.396
X-5.457 Y-14.419
X-5.309 Y-14.438
X-5.159 Y-14.453
X-5.01 Y-14.466
X-4.86 Y-14.476
X-4.711 Y-14.485
X-4.561 Y-14.492
X-4.411 Y-14.498
X-4.091 Y-14.507
X-3.893 Y-14.511
X-3.623 Y-14.515
X-3.223 Y-14.519
X-2.785 Y-14.521
X-1.473 Y-14.523
X-1.036 Y-14.541
X-0.819 Y-14.568
X-0.711 Y-14.585
G3 X-0.673 Y-14.287 I0.017 J0.149
G1 X-0.987 Y-14.244
X-6.15 Y-13.537
X-6.68 Y-13.465 F400
X-6.721
X-6.761 Y-13.476
X-6.797 Y-13.498
X-6.825 Y-13.529
X-6.843 Y-13.567
X-6.85 Y-13.608
Y-13.874 F600
X-6.843 Y-14.024
X-6.777 Y-14.159
X-6.684 Y-14.276
X-6.573 Y-14.378
X-6.519 Y-14.473
X-6.488 Y-14.578
X-6.481 Y-14.687
X-6.499 Y-14.795
X-6.541 Y-14.896
X-6.604 Y-14.985
X-6.687 Y-15.059
X-6.775 Y-15.162
X-6.831 Y-15.286
X-6.85 Y-15.42
G3 X-6.55 Y-15.415 I0.15 J0.005
G1 Y-15.096
Y-14.199
Y-13.879 F400
G3 X-6.85 Y-13.874 I-0.15 J0
G1 Y-14.996 F600
G0 Z5
X6.552 Y-16.641
Z-0.9
G1 Z-1.05 F400
X6.556 Y-16.635 Z-1.096
X6.567 Y-16.616 Z-1.138
X6.584 Y-16.588 Z-1.171
X6.605 Y-16.552 Z-1.193
X6.629 Y-16.512 Z-1.2
G3 X6.85 Y-15.759 I-1.36 J0.809
G1 Y-13.881 F600
X6.841 Y-13.836
X6.82 Y-13.796
X6.787 Y-13.764
X6.746 Y-13.744
X6.7 Y-13.737
G3 X6.636 Y-14.022 I0 J-0.15
G1 X6.664 Y-14.029 Z-1.197
X6.691 Y-14.036 Z-1.189
X6.7 Y-14.037 Z-1.185
X6.733 Y-14.027 Z-1.161
X6.758 Y-14.02 Z-1.129
X6.774 Y-14.015 Z-1.091
X6.78 Y-14.014 Z-1.05
G0 Z5
X0.229 Y-11.622
Z0.35
G1 Z0.2 F400
Z-1.8
G3 X0.005 Y-13.176 I7.063 J-1.809
G1 Y-13.251 F600
X0.044 Y-13.315
X0.162 Y-13.408
X0.299 Y-13.47
X0.442 Y-13.514
X0.596 Y-13.548
X0.819 Y-13.584
X1.186 Y-13.622
X1.623 Y-13.641
X2.06 Y-13.647
X2.498 Y-13.649
X4.248 Y-13.65
X6.367
X6.552 Y-13.613
X6.708 Y-13.508
X6.813 Y-13.352
X6.85 Y-13.167
G0 Z5
X-6.331 Y-11.605
Z-1.5
G1 Z-1.65 F400
X-6.334 Y-11.612 Z-1.696
X-6.345 Y-11.63 Z-1.738
X-6.362 Y-11.658 Z-1.771
X-6.384 Y-11.694 Z-1.793
X-6.407 Y-11.734 Z-1.8
G3 X-6.85 Y-13.241 I2.721 J-1.618
G1 Y-13.279 F600
X-6.848 Y-13.317
X-6.73 Y-13.409
X-6.593 Y-13.47
X-6.449 Y-13.514
X-6.294 Y-13.549
X-6.071 Y-13.585
X-5.7 Y-13.622
X-5.263 Y-13.641
X-4.826 Y-13.647
X-4.388 Y-13.649
X-2.639 Y-13.65
X-0.889
X-0.452 Y-13.675
X-0.031 Y-13.793
X0.282 Y-13.873
X0.625 Y-13.94
X1.022 Y-13.993
X1.458 Y-14.025
X1.895 Y-14.04
X2.333 Y-14.046
X2.77 Y-14.048
X4.083 Y-14.05
X5.832
X6.032 Y-14.046
X6.181 Y-14.035
X6.33 Y-14.013
X6.474 Y-13.973
X6.543 Y-13.946
X6.668 Y-13.874
X6.766 Y-13.768
X6.828 Y-13.639
X6.85 Y-13.496
G0 Z5
X-6.552 Y-12.397
Z-1.5
G1 Z-1.65 F400
X-6.556 Y-12.403 Z-1.696
X-6.567 Y-12.422 Z-1.738
X-6.584 Y-12.45 Z-1.771
X-6.605 Y-12.486 Z-1.793
X-6.629 Y-12.526 Z-1.8
G3 X-6.85 Y-13.279 I1.36 J-0.809
G1 Y-13.41 F600
X-6.848 Y-13.447
X-6.775 Y-13.578
X-6.665 Y-13.681
X-6.539 Y-13.762
X-6.404 Y-13.827
X-6.263 Y-13.879
X-6.12 Y-13.922
X-5.973 Y-13.955
X-5.826 Y-13.982
X-5.678 Y-14.004
X-5.529 Y-14.021
X-5.379 Y-14.035
X-5.23 Y-14.046
X-5.08 Y-14.054
X-4.93 Y-14.061
X-4.78 Y-14.066
X-4.462 Y-14.074
X-4.239 Y-14.078
X-3.915 Y-14.082
X-3.477 Y-14.084
X-2.165 Y-14.086
X-1.29
X-0.853 Y-14.097
X-0.421 Y-14.167
X-0.081 Y-14.239
X0.066 Y-14.269
X0.214 Y-14.297
X0.361 Y-14.323
X0.509 Y-14.347
X0.658 Y-14.368
X0.807 Y-14.387
X0.956 Y-14.404
X1.105 Y-14.418
X1.255 Y-14.43
X1.404 Y-14.44
X1.554 Y-14.449
X1.704 Y-14.456
X1.854 Y-14.462
X2.17 Y-14.471
X2.368 Y-14.475
X2.638 Y-14.479
X3.04 Y-14.483
X3.478 Y-14.485
X5.228 Y-14.486
X5.547 Y-14.485
X5.697 Y-14.481
X5.847 Y-14.474
X5.996 Y-14.461
X6.145 Y-14.442
X6.292 Y-14.413
X6.436 Y-14.372
X6.576 Y-14.317
X6.597 Y-14.306
X6.731 Y-14.198
X6.819 Y-14.051
X6.85 Y-13.881
G0 Z5
X-6.552 Y-12.527
Z-1.5
G1 Z-1.65 F400
X-6.556 Y-12.533 Z-1.696
X-6.567 Y-12.552 Z-1.738
X-6.584 Y-12.58 Z-1.771
X-6.605 Y-12.616 Z-1.793
X-6.629 Y-12.656 Z-1.8
G3 X-6.85 Y-13.41 I1.36 J-0.809
G1 Y-13.608 F600
X-6.846 Y-13.683
X-6.789 Y-13.821
X-6.696 Y-13.939
X-6.583 Y-14.038
X-6.458 Y-14.12
X-6.325 Y-14.19
X-6.186 Y-14.247
X-6.044 Y-14.296
X-5.899 Y-14.336
X-5.753 Y-14.369
X-5.606 Y-14.396
X-5.457 Y-14.419
X-5.309 Y-14.438
X-5.159 Y-14.453
X-5.01 Y-14.466
X-4.86 Y-14.476
X-4.711 Y-14.485
X-4.561 Y-14.492
X-4.411 Y-14.498
X-4.091 Y-14.507
X-3.893 Y-14.511
X-3.623 Y-14.515
X-3.223 Y-14.519
X-2.785 Y-14.521
X-1.473 Y-14.523
X-1.036 Y-14.541
X-0.819 Y-14.568
X-0.711 Y-14.585
G3 X-0.673 Y-14.287 I0.017 J0.149
G1 X-0.987 Y-14.244
X-6.15 Y-13.537
X-6.68 Y-13.465 F400
X-6.721
X-6.761 Y-13.476
X-6.797 Y-13.498
X-6.825 Y-13.529
X-6.843 Y-13.567
X-6.85 Y-13.608
Y-13.874 F600
X-6.843 Y-14.024
X-6.777 Y-14.159
X-6.684 Y-14.276
X-6.573 Y-14.378
X-6.519 Y-14.473
X-6.488 Y-14.578
X-6.481 Y-14.687
X-6.499 Y-14.795
X-6.541 Y-14.896
X-6.604 Y-14.985
X-6.687 Y-15.059
X-6.775 Y-15.162
X-6.831 Y-15.286
X-6.85 Y-15.42
G3 X-6.55 Y-15.415 I0.15 J0.005
G1 Y-15.096
Y-14.199
Y-13.879 F400
G3 X-6.85 Y-13.874 I-0.15 J0
G1 Y-14.996 F600
G0 Z5
X6.552 Y-16.641
Z-1.5
G1 Z-1.65 F400
X6.556 Y-16.635 Z-1.696
X6.567 Y-16.616 Z-1.738
X6.584 Y-16.588 Z-1.771
X6.605 Y-16.552 Z-1.793
X6.629 Y-16.512 Z-1.8
G3 X6.85 Y-15.759 I-1.36 J0.809
G1 Y-13.881 F600
X6.841 Y-13.836
X6.82 Y-13.796
X6.787 Y-13.764
X6.746 Y-13.744
X6.7 Y-13.737
G3 X6.636 Y-14.022 I0 J-0.15
G1 X6.664 Y-14.029 Z-1.797
X6.691 Y-14.036 Z-1.789
X6.7 Y-14.037 Z-1.785
X6.733 Y-14.027 Z-1.761
X6.758 Y-14.02 Z-1.729
X6.774 Y-14.015 Z-1.691
X6.78 Y-14.014 Z-1.65
G0 Z5
X0.229 Y-11.622
Z-0.25
G1 Z-0.4 F400
Z-2.4
G3 X0.005 Y-13.176 I7.063 J-1.809
G1 Y-13.251 F600
X0.044 Y-13.315
X0.162 Y-13.408
X0.299 Y-13.47
X0.442 Y-13.514
X0.596 Y-13.548
X0.819 Y-13.584
X1.186 Y-13.622
X1.623 Y-13.641
X2.06 Y-13.647
X2.498 Y-13.649
X4.248 Y-13.65
X6.367
X6.552 Y-13.613
X6.708 Y-13.508
X6.813 Y-13.352
X6.85 Y-13.167
G0 Z5
X-6.331 Y-11.605
Z-2.1
G1 Z-2.25 F400
X-6.334 Y-11.612 Z-2.296
X-6.345 Y-11.63 Z-2.338
X-6.362 Y-11.658 Z-2.371
X-6.384 Y-11.694 Z-2.393
X-6.407 Y-11.734 Z-2.4
G3 X-6.85 Y-13.241 I2.721 J-1.618
G1 Y-13.279 F600
X-6.848 Y-13.317
X-6.73 Y-13.409
X-6.593 Y-13.47
X-6.449 Y-13.514
X-6.294 Y-13.549
X-6.071 Y-13.585
X-5.7 Y-13.622
X-5.263 Y-13.641
X-4.826 Y-13.647
X-4.388 Y-13.649
X-2.639 Y-13.65
X-0.889
X-0.452 Y-13.675
X-0.031 Y-13.793
X0.282 Y-13.873
X0.625 Y-13.94
X1.022 Y-13.993
X1.458 Y-14.025
X1.895 Y-14.04
X2.333 Y-14.046
X2.77 Y-14.048
X4.083 Y-14.05
X5.832
X6.032 Y-14.046
X6.181 Y-14.035
X6.33 Y-14.013
X6.474 Y-13.973
X6.543 Y-13.946
X6.668 Y-13.874
X6.766 Y-13.768
X6.828 Y-13.639
X6.85 Y-13.496
G0 Z5
X-6.552 Y-12.397
Z-2.1
G1 Z-2.25 F400
X-6.556 Y-12.403 Z-2.296
X-6.567 Y-12.422 Z-2.338
X-6.584 Y-12.45 Z-2.371
X-6.605 Y-12.486 Z-2.393
X-6.629 Y-12.526 Z-2.4
G3 X-6.85 Y-13.279 I1.36 J-0.809
G1 Y-13.41 F600
X-6.848 Y-13.447
X-6.775 Y-13.578
X-6.665 Y-13.681
X-6.539 Y-13.762
X-6.404 Y-13.827
X-6.263 Y-13.879
X-6.12 Y-13.922
X-5.973 Y-13.955
X-5.826 Y-13.982
X-5.678 Y-14.004
X-5.529 Y-14.021
X-5.379 Y-14.035
X-5.23 Y-14.046
X-5.08 Y-14.054
X-4.93 Y-14.061
X-4.78 Y-14.066
X-4.462 Y-14.074
X-4.239 Y-14.078
X-3.915 Y-14.082
X-3.477 Y-14.084
X-2.165 Y-14.086
X-1.29
X-0.853 Y-14.097
X-0.421 Y-14.167
X-0.081 Y-14.239
X0.066 Y-14.269
X0.214 Y-14.297
X0.361 Y-14.323
X0.509 Y-14.347
X0.658 Y-14.368
X0.807 Y-14.387
X0.956 Y-14.404
X1.105 Y-14.418
X1.255 Y-14.43
X1.404 Y-14.44
X1.554 Y-14.449
X1.704 Y-14.456
X1.854 Y-14.462
X2.17 Y-14.471
X2.368 Y-14.475
X2.638 Y-14.479
X3.04 Y-14.483
X3.478 Y-14.485
X5.228 Y-14.486
X5.547 Y-14.485
X5.697 Y-14.481
X5.847 Y-14.474
X5.996 Y-14.461
X6.145 Y-14.442
X6.292 Y-14.413
X6.436 Y-14.372
X6.576 Y-14.317
X6.597 Y-14.306
X6.731 Y-14.198
X6.819 Y-14.051
X6.85 Y-13.881
G0 Z5
X-6.552 Y-12.527
Z-2.1
G1 Z-2.25 F400
X-6.556 Y-12.533 Z-2.296
X-6.567 Y-12.552 Z-2.338
X-6.584 Y-12.58 Z-2.371
X-6.605 Y-12.616 Z-2.393
X-6.629 Y-12.656 Z-2.4
G3 X-6.85 Y-13.41 I1.36 J-0.809
G1 Y-13.608 F600
X-6.846 Y-13.683
X-6.789 Y-13.821
X-6.696 Y-13.939
X-6.583 Y-14.038
X-6.458 Y-14.12
X-6.325 Y-14.19
X-6.186 Y-14.247
X-6.044 Y-14.296
X-5.899 Y-14.336
X-5.753 Y-14.369
X-5.606 Y-14.396
X-5.457 Y-14.419
X-5.309 Y-14.438
X-5.159 Y-14.453
X-5.01 Y-14.466
X-4.86 Y-14.476
X-4.711 Y-14.485
X-4.561 Y-14.492
X-4.411 Y-14.498
X-4.091 Y-14.507
X-3.893 Y-14.511
X-3.623 Y-14.515
X-3.223 Y-14.519
X-2.785 Y-14.521
X-1.473 Y-14.523
X-1.036 Y-14.541
X-0.819 Y-14.568
X-0.711 Y-14.585
G3 X-0.673 Y-14.287 I0.017 J0.149
G1 X-0.987 Y-14.244
X-6.15 Y-13.537
X-6.68 Y-13.465 F400
X-6.721
X-6.761 Y-13.476
X-6.797 Y-13.498
X-6.825 Y-13.529
X-6.843 Y-13.567
X-6.85 Y-13.608
Y-13.874 F600
X-6.843 Y-14.024
X-6.777 Y-14.159
X-6.684 Y-14.276
X-6.573 Y-14.378
X-6.519 Y-14.473
X-6.488 Y-14.578
X-6.481 Y-14.687
X-6.499 Y-14.795
X-6.541 Y-14.896
X-6.604 Y-14.985
X-6.687 Y-15.059
X-6.775 Y-15.162
X-6.831 Y-15.286
X-6.85 Y-15.42
G3 X-6.55 Y-15.415 I0.15 J0.005
G1 Y-15.096
Y-14.199
Y-13.879 F400
G3 X-6.85 Y-13.874 I-0.15 J0
G1 Y-14.996 F600
G0 Z5
X6.552 Y-16.641
Z-2.1
G1 Z-2.25 F400
X6.556 Y-16.635 Z-2.296
X6.567 Y-16.616 Z-2.338
X6.584 Y-16.588 Z-2.371
X6.605 Y-16.552 Z-2.393
X6.629 Y-16.512 Z-2.4
G3 X6.85 Y-15.759 I-1.36 J0.809
G1 Y-13.881 F600
X6.841 Y-13.836
X6.82 Y-13.796
X6.787 Y-13.764
X6.746 Y-13.744
X6.7 Y-13.737
G3 X6.636 Y-14.022 I0 J-0.15
G1 X6.664 Y-14.029 Z-2.397
X6.691 Y-14.036 Z-2.389
X6.7 Y-14.037 Z-2.385
X6.733 Y-14.027 Z-2.361
X6.758 Y-14.02 Z-2.329
X6.774 Y-14.015 Z-2.291
X6.78 Y-14.014 Z-2.25
G0 Z5
X0.229 Y-11.622
Z-0.85
G1 Z-1 F400
Z-3
G3 X0.005 Y-13.176 I7.063 J-1.809
G1 Y-13.251 F600
X0.044 Y-13.315
X0.162 Y-13.408
X0.299 Y-13.47
X0.442 Y-13.514
X0.596 Y-13.548
X0.819 Y-13.584
X1.186 Y-13.622
X1.623 Y-13.641
X2.06 Y-13.647
X2.498 Y-13.649
X4.248 Y-13.65
X6.367
X6.552 Y-13.613
X6.708 Y-13.508
X6.813 Y-13.352
X6.85 Y-13.167
G0 Z5
X-6.331 Y-11.605
Z-2.7
G1 Z-2.85 F400
X-6.334 Y-11.612 Z-2.896
X-6.345 Y-11.63 Z-2.938
X-6.362 Y-11.658 Z-2.971
X-6.384 Y-11.694 Z-2.993
X-6.407 Y-11.734 Z-3
G3 X-6.85 Y-13.241 I2.721 J-1.618
G1 Y-13.279 F600
X-6.848 Y-13.317
X-6.73 Y-13.409
X-6.593 Y-13.47
X-6.449 Y-13.514
X-6.294 Y-13.549
X-6.071 Y-13.585
X-5.7 Y-13.622
X-5.263 Y-13.641
X-4.826 Y-13.647
X-4.388 Y-13.649
X-2.639 Y-13.65
X-0.889
X-0.452 Y-13.675
X-0.031 Y-13.793
X0.282 Y-13.873
X0.625 Y-13.94
X1.022 Y-13.993
X1.458 Y-14.025
X1.895 Y-14.04
X2.333 Y-14.046
X2.77 Y-14.048
X4.083 Y-14.05
X5.832
X6.032 Y-14.046
X6.181 Y-14.035
X6.33 Y-14.013
X6.474 Y-13.973
X6.543 Y-13.946
X6.668 Y-13.874
X6.766 Y-13.768
X6.828 Y-13.639
X6.85 Y-13.496
G0 Z5
X-6.552 Y-12.397
Z-2.7
G1 Z-2.85 F400
X-6.556 Y-12.403 Z-2.896
X-6.567 Y-12.422 Z-2.938
X-6.584 Y-12.45 Z-2.971
X-6.605 Y-12.486 Z-2.993
X-6.629 Y-12.526 Z-3
G3 X-6.85 Y-13.279 I1.36 J-0.809
G1 Y-13.41 F600
X-6.848 Y-13.447
X-6.775 Y-13.578
X-6.665 Y-13.681
X-6.539 Y-13.762
X-6.404 Y-13.827
X-6.263 Y-13.879
X-6.12 Y-13.922
X-5.973 Y-13.955
X-5.826 Y-13.982
X-5.678 Y-14.004
X-5.529 Y-14.021
X-5.379 Y-14.035
X-5.23 Y-14.046
X-5.08 Y-14.054
X-4.93 Y-14.061
X-4.78 Y-14.066
X-4.462 Y-14.074
X-4.239 Y-14.078
X-3.915 Y-14.082
X-3.477 Y-14.084
X-2.165 Y-14.086
X-1.29
X-0.853 Y-14.097
X-0.421 Y-14.167
X-0.081 Y-14.239
X0.066 Y-14.269
X0.214 Y-14.297
X0.361 Y-14.323
X0.509 Y-14.347
X0.658 Y-14.368
X0.807 Y-14.387
X0.956 Y-14.404
X1.105 Y-14.418
X1.255 Y-14.43
X1.404 Y-14.44
X1.554 Y-14.449
X1.704 Y-14.456
X1.854 Y-14.462
X2.17 Y-14.471
X2.368 Y-14.475
X2.638 Y-14.479
X3.04 Y-14.483
X3.478 Y-14.485
X5.228 Y-14.486
X5.547 Y-14.485
X5.697 Y-14.481
X5.847 Y-14.474
X5.996 Y-14.461
X6.145 Y-14.442
X6.292 Y-14.413
X6.436 Y-14.372
X6.576 Y-14.317
X6.597 Y-14.306
X6.731 Y-14.198
X6.819 Y-14.051
X6.85 Y-13.881
G0 Z5
X-6.552 Y-12.527
Z-2.7
G1 Z-2.85 F400
X-6.556 Y-12.533 Z-2.896
X-6.567 Y-12.552 Z-2.938
X-6.584 Y-12.58 Z-2.971
X-6.605 Y-12.616 Z-2.993
X-6.629 Y-12.656 Z-3
G3 X-6.85 Y-13.41 I1.36 J-0.809
G1 Y-13.608 F600
X-6.846 Y-13.683
X-6.789 Y-13.821
X-6.696 Y-13.939
X-6.583 Y-14.038
X-6.458 Y-14.12
X-6.325 Y-14.19
X-6.186 Y-14.247
X-6.044 Y-14.296
X-5.899 Y-14.336
X-5.753 Y-14.369
X-5.606 Y-14.396
X-5.457 Y-14.419
X-5.309 Y-14.438
X-5.159 Y-14.453
X-5.01 Y-14.466
X-4.86 Y-14.476
X-4.711 Y-14.485
X-4.561 Y-14.492
X-4.411 Y-14.498
X-4.091 Y-14.507
X-3.893 Y-14.511
X-3.623 Y-14.515
X-3.223 Y-14.519
X-2.785 Y-14.521
X-1.473 Y-14.523
X-1.036 Y-14.541
X-0.819 Y-14.568
X-0.711 Y-14.585
G3 X-0.673 Y-14.287 I0.017 J0.149
G1 X-0.987 Y-14.244
X-6.15 Y-13.537
X-6.68 Y-13.465 F400
X-6.721
X-6.761 Y-13.476
X-6.797 Y-13.498
X-6.825 Y-13.529
X-6.843 Y-13.567
X-6.85 Y-13.608
Y-13.874 F600
X-6.843 Y-14.024
X-6.777 Y-14.159
X-6.684 Y-14.276
X-6.573 Y-14.378
X-6.519 Y-14.473
X-6.488 Y-14.578
X-6.481 Y-14.687
X-6.499 Y-14.795
X-6.541 Y-14.896
X-6.604 Y-14.985
X-6.687 Y-15.059
X-6.775 Y-15.162
X-6.831 Y-15.286
X-6.85 Y-15.42
G3 X-6.55 Y-15.415 I0.15 J0.005
G1 Y-15.096
Y-14.199
Y-13.879 F400
G3 X-6.85 Y-13.874 I-0.15 J0
G1 Y-14.996 F600
G0 Z5
X6.552 Y-16.641
Z-2.7
G1 Z-2.85 F400
X6.556 Y-16.635 Z-2.896
X6.567 Y-16.616 Z-2.938
X6.584 Y-16.588 Z-2.971
X6.605 Y-16.552 Z-2.993
X6.629 Y-16.512 Z-3
G3 X6.85 Y-15.759 I-1.36 J0.809
G1 Y-13.881 F600
X6.841 Y-13.836
X6.82 Y-13.796
X6.787 Y-13.764
X6.746 Y-13.744
X6.7 Y-13.737
G3 X6.636 Y-14.022 I0 J-0.15
G1 X6.664 Y-14.029 Z-2.997
X6.691 Y-14.036 Z-2.989
X6.7 Y-14.037 Z-2.985
X6.733 Y-14.027 Z-2.961
X6.758 Y-14.02 Z-2.929
X6.774 Y-14.015 Z-2.891
X6.78 Y-14.014 Z-2.85
G0 Z5
X0.229 Y-11.622
Z-1.45
G1 Z-1.6 F400
Z-3.6
G3 X0.005 Y-13.176 I7.063 J-1.809
G1 Y-13.251 F600
X0.044 Y-13.315
X0.162 Y-13.408
X0.299 Y-13.47
X0.442 Y-13.514
X0.596 Y-13.548
X0.819 Y-13.584
X1.186 Y-13.622
X1.623 Y-13.641
X2.06 Y-13.647
X2.498 Y-13.649
X4.248 Y-13.65
X6.367
X6.552 Y-13.613
X6.708 Y-13.508
X6.813 Y-13.352
X6.85 Y-13.167
G0 Z5
X-6.331 Y-11.605
Z-3.3
G1 Z-3.45 F400
X-6.334 Y-11.612 Z-3.496
X-6.345 Y-11.63 Z-3.538
X-6.362 Y-11.658 Z-3.571
X-6.384 Y-11.694 Z-3.593
X-6.407 Y-11.734 Z-3.6
G3 X-6.85 Y-13.241 I2.721 J-1.618
G1 Y-13.279 F600
X-6.848 Y-13.317
X-6.73 Y-13.409
X-6.593 Y-13.47
X-6.449 Y-13.514
X-6.294 Y-13.549
X-6.071 Y-13.585
X-5.7 Y-13.622
X-5.263 Y-13.641
X-4.826 Y-13.647
X-4.388 Y-13.649
X-2.639 Y-13.65
X-0.889
X-0.452 Y-13.675
X-0.031 Y-13.793
X0.282 Y-13.873
X0.625 Y-13.94
X1.022 Y-13.993
X1.458 Y-14.025
X1.895 Y-14.04
X2.333 Y-14.046
X2.77 Y-14.048
X4.083 Y-14.05
X5.832
X6.032 Y-14.046
X6.181 Y-14.035
X6.33 Y-14.013
X6.474 Y-13.973
X6.543 Y-13.946
X6.668 Y-13.874
X6.766 Y-13.768
X6.828 Y-13.639
X6.85 Y-13.496
G0 Z5
X-6.552 Y-12.397
Z-3.3
G1 Z-3.45 F400
X-6.556 Y-12.403 Z-3.496
X-6.567 Y-12.422 Z-3.538
X-6.584 Y-12.45 Z-3.571
X-6.605 Y-12.486 Z-3.593
X-6.629 Y-12.526 Z-3.6
G3 X-6.85 Y-13.279 I1.36 J-0.809
G1 Y-13.41 F600
X-6.848 Y-13.447
X-6.775 Y-13.578
X-6.665 Y-13.681
X-6.539 Y-13.762
X-6.404 Y-13.827
X-6.263 Y-13.879
X-6.12 Y-13.922
X-5.973 Y-13.955
X-5.826 Y-13.982
X-5.678 Y-14.004
X-5.529 Y-14.021
X-5.379 Y-14.035
X-5.23 Y-14.046
X-5.08 Y-14.054
X-4.93 Y-14.061
X-4.78 Y-14.066
X-4.462 Y-14.074
X-4.239 Y-14.078
X-3.915 Y-14.082
X-3.477 Y-14.084
X-2.165 Y-14.086
X-1.29
X-0.853 Y-14.097
X-0.421 Y-14.167
X-0.081 Y-14.239
X0.066 Y-14.269
X0.214 Y-14.297
X0.361 Y-14.323
X0.509 Y-14.347
X0.658 Y-14.368
X0.807 Y-14.387
X0.956 Y-14.404
X1.105 Y-14.418
X1.255 Y-14.43
X1.404 Y-14.44
X1.554 Y-14.449
X1.704 Y-14.456
X1.854 Y-14.462
X2.17 Y-14.471
X2.368 Y-14.475
X2.638 Y-14.479
X3.04 Y-14.483
X3.478 Y-14.485
X5.228 Y-14.486
X5.547 Y-14.485
X5.697 Y-14.481
X5.847 Y-14.474
X5.996 Y-14.461
X6.145 Y-14.442
X6.292 Y-14.413
X6.436 Y-14.372
X6.576 Y-14.317
X6.597 Y-14.306
X6.731 Y-14.198
X6.819 Y-14.051
X6.85 Y-13.881
G0 Z5
X-6.552 Y-12.527
Z-3.3
G1 Z-3.45 F400
X-6.556 Y-12.533 Z-3.496
X-6.567 Y-12.552 Z-3.538
X-6.584 Y-12.58 Z-3.571
X-6.605 Y-12.616 Z-3.593
X-6.629 Y-12.656 Z-3.6
G3 X-6.85 Y-13.41 I1.36 J-0.809
G1 Y-13.608 F600
X-6.846 Y-13.683
X-6.789 Y-13.821
X-6.696 Y-13.939
X-6.583 Y-14.038
X-6.458 Y-14.12
X-6.325 Y-14.19
X-6.186 Y-14.247
X-6.044 Y-14.296
X-5.899 Y-14.336
X-5.753 Y-14.369
X-5.606 Y-14.396
X-5.457 Y-14.419
X-5.309 Y-14.438
X-5.159 Y-14.453
X-5.01 Y-14.466
X-4.86 Y-14.476
X-4.711 Y-14.485
X-4.561 Y-14.492
X-4.411 Y-14.498
X-4.091 Y-14.507
X-3.893 Y-14.511
X-3.623 Y-14.515
X-3.223 Y-14.519
X-2.785 Y-14.521
X-1.473 Y-14.523
X-1.036 Y-14.541
X-0.819 Y-14.568
X-0.711 Y-14.585
G3 X-0.673 Y-14.287 I0.017 J0.149
G1 X-0.987 Y-14.244
X-6.15 Y-13.537
X-6.68 Y-13.465 F400
X-6.721
X-6.761 Y-13.476
X-6.797 Y-13.498
X-6.825 Y-13.529
X-6.843 Y-13.567
X-6.85 Y-13.608
Y-13.874 F600
X-6.843 Y-14.024
X-6.777 Y-14.159
X-6.684 Y-14.276
X-6.573 Y-14.378
X-6.519 Y-14.473
X-6.488 Y-14.578
X-6.481 Y-14.687
X-6.499 Y-14.795
X-6.541 Y-14.896
X-6.604 Y-14.985
X-6.687 Y-15.059
X-6.775 Y-15.162
X-6.831 Y-15.286
X-6.85 Y-15.42
G3 X-6.55 Y-15.415 I0.15 J0.005
G1 Y-15.096
Y-14.199
Y-13.879 F400
G3 X-6.85 Y-13.874 I-0.15 J0
G1 Y-14.996 F600
G0 Z5
X6.552 Y-16.641
Z-3.3
G1 Z-3.45 F400
X6.556 Y-16.635 Z-3.496
X6.567 Y-16.616 Z-3.538
X6.584 Y-16.588 Z-3.571
X6.605 Y-16.552 Z-3.593
X6.629 Y-16.512 Z-3.6
G3 X6.85 Y-15.759 I-1.36 J0.809
G1 Y-13.881 F600
X6.841 Y-13.836
X6.82 Y-13.796
X6.787 Y-13.764
X6.746 Y-13.744
X6.7 Y-13.737
G3 X6.636 Y-14.022 I0 J-0.15
G1 X6.664 Y-14.029 Z-3.597
X6.691 Y-14.036 Z-3.589
X6.7 Y-14.037 Z-3.585
X6.733 Y-14.027 Z-3.561
X6.758 Y-14.02 Z-3.529
X6.774 Y-14.015 Z-3.491
X6.78 Y-14.014 Z-3.45
G0 Z5
X0.229 Y-11.622
Z-2.05
G1 Z-2.2 F400
Z-4.2
G3 X0.005 Y-13.176 I7.063 J-1.809
G1 Y-13.251 F600
X0.044 Y-13.315
X0.162 Y-13.408
X0.299 Y-13.47
X0.442 Y-13.514
X0.596 Y-13.548
X0.819 Y-13.584
X1.186 Y-13.622
X1.623 Y-13.641
X2.06 Y-13.647
X2.498 Y-13.649
X4.248 Y-13.65
X6.367
X6.552 Y-13.613
X6.708 Y-13.508
X6.813 Y-13.352
X6.85 Y-13.167
G0 Z5
X-6.331 Y-11.605
Z-3.9
G1 Z-4.05 F400
X-6.334 Y-11.612 Z-4.096
X-6.345 Y-11.63 Z-4.138
X-6.362 Y-11.658 Z-4.171
X-6.384 Y-11.694 Z-4.193
X-6.407 Y-11.734 Z-4.2
G3 X-6.85 Y-13.241 I2.721 J-1.618
G1 Y-13.279 F600
X-6.848 Y-13.317
X-6.73 Y-13.409
X-6.593 Y-13.47
X-6.449 Y-13.514
X-6.294 Y-13.549
X-6.071 Y-13.585
X-5.7 Y-13.622
X-5.263 Y-13.641
X-4.826 Y-13.647
X-4.388 Y-13.649
X-2.639 Y-13.65
X-0.889
X-0.452 Y-13.675
X-0.031 Y-13.793
X0.282 Y-13.873
X0.625 Y-13.94
X1.022 Y-13.993
X1.458 Y-14.025
X1.895 Y-14.04
X2.333 Y-14.046
X2.77 Y-14.048
X4.083 Y-14.05
X5.832
X6.032 Y-14.046
X6.181 Y-14.035
X6.33 Y-14.013
X6.474 Y-13.973
X6.543 Y-13.946
X6.668 Y-13.874
X6.766 Y-13.768
X6.828 Y-13.639
X6.85 Y-13.496
G0 Z5
X-6.552 Y-12.397
Z-3.9
G1 Z-4.05 F400
X-6.556 Y-12.403 Z-4.096
X-6.567 Y-12.422 Z-4.138
X-6.584 Y-12.45 Z-4.171
X-6.605 Y-12.486 Z-4.193
X-6.629 Y-12.526 Z-4.2
G3 X-6.85 Y-13.279 I1.36 J-0.809
G1 Y-13.41 F600
X-6.848 Y-13.447
X-6.775 Y-13.578
X-6.665 Y-13.681
X-6.539 Y-13.762
X-6.404 Y-13.827
X-6.263 Y-13.879
X-6.12 Y-13.922
X-5.973 Y-13.955
X-5.826 Y-13.982
X-5.678 Y-14.004
X-5.529 Y-14.021
X-5.379 Y-14.035
X-5.23 Y-14.046
X-5.08 Y-14.054
X-4.93 Y-14.061
X-4.78 Y-14.066
X-4.462 Y-14.074
X-4.239 Y-14.078
X-3.915 Y-14.082
X-3.477 Y-14.084
X-2.165 Y-14.086
X-1.29
X-0.853 Y-14.097
X-0.421 Y-14.167
X-0.081 Y-14.239
X0.066 Y-14.269
X0.214 Y-14.297
X0.361 Y-14.323
X0.509 Y-14.347
X0.658 Y-14.368
X0.807 Y-14.387
X0.956 Y-14.404
X1.105 Y-14.418
X1.255 Y-14.43
X1.404 Y-14.44
X1.554 Y-14.449
X1.704 Y-14.456
X1.854 Y-14.462
X2.17 Y-14.471
X2.368 Y-14.475
X2.638 Y-14.479
X3.04 Y-14.483
X3.478 Y-14.485
X5.228 Y-14.486
X5.547 Y-14.485
X5.697 Y-14.481
X5.847 Y-14.474
X5.996 Y-14.461
X6.145 Y-14.442
X6.292 Y-14.413
X6.436 Y-14.372
X6.576 Y-14.317
X6.597 Y-14.306
X6.731 Y-14.198
X6.819 Y-14.051
X6.85 Y-13.881
G0 Z5
X-6.552 Y-12.527
Z-3.9
G1 Z-4.05 F400
X-6.556 Y-12.533 Z-4.096
X-6.567 Y-12.552 Z-4.138
X-6.584 Y-12.58 Z-4.171
X-6.605 Y-12.616 Z-4.193
X-6.629 Y-12.656 Z-4.2
G3 X-6.85 Y-13.41 I1.36 J-0.809
G1 Y-13.608 F600
X-6.846 Y-13.683
X-6.789 Y-13.821
X-6.696 Y-13.939
X-6.583 Y-14.038
X-6.458 Y-14.12
X-6.325 Y-14.19
X-6.186 Y-14.247
X-6.044 Y-14.296
X-5.899 Y-14.336
X-5.753 Y-14.369
X-5.606 Y-14.396
X-5.457 Y-14.419
X-5.309 Y-14.438
X-5.159 Y-14.453
X-5.01 Y-14.466
X-4.86 Y-14.476
X-4.711 Y-14.485
X-4.561 Y-14.492
X-4.411 Y-14.498
X-4.091 Y-14.507
X-3.893 Y-14.511
X-3.623 Y-14.515
X-3.223 Y-14.519
X-2.785 Y-14.521
X-1.473 Y-14.523
X-1.036 Y-14.541
X-0.819 Y-14.568
X-0.711 Y-14.585
G3 X-0.673 Y-14.287 I0.017 J0.149
G1 X-0.987 Y-14.244
X-6.15 Y-13.537
X-6.68 Y-13.465 F400
X-6.721
X-6.761 Y-13.476
X-6.797 Y-13.498
X-6.825 Y-13.529
X-6.843 Y-13.567
X-6.85 Y-13.608
Y-13.874 F600
X-6.843 Y-14.024
X-6.777 Y-14.159
X-6.684 Y-14.276
X-6.573 Y-14.378
X-6.519 Y-14.473
X-6.488 Y-14.578
X-6.481 Y-14.687
X-6.499 Y-14.795
X-6.541 Y-14.896
X-6.604 Y-14.985
X-6.687 Y-15.059
X-6.775 Y-15.162
X-6.831 Y-15.286
X-6.85 Y-15.42
G3 X-6.55 Y-15.415 I0.15 J0.005
G1 Y-15.096
Y-14.199
Y-13.879 F400
G3 X-6.85 Y-13.874 I-0.15 J0
G1 Y-14.996 F600
G0 Z5
X6.552 Y-16.641
Z-3.9
G1 Z-4.05 F400
X6.556 Y-16.635 Z-4.096
X6.567 Y-16.616 Z-4.138
X6.584 Y-16.588 Z-4.171
X6.605 Y-16.552 Z-4.193
X6.629 Y-16.512 Z-4.2
G3 X6.85 Y-15.759 I-1.36 J0.809
G1 Y-13.881 F600
X6.841 Y-13.836
X6.82 Y-13.796
X6.787 Y-13.764
X6.746 Y-13.744
X6.7 Y-13.737
G3 X6.636 Y-14.022 I0 J-0.15
G1 X6.664 Y-14.029 Z-4.197
X6.691 Y-14.036 Z-4.189
X6.7 Y-14.037 Z-4.185
X6.733 Y-14.027 Z-4.161
X6.758 Y-14.02 Z-4.129
X6.774 Y-14.015 Z-4.091
X6.78 Y-14.014 Z-4.05
G0 Z5
X0.229 Y-11.622
Z-2.65
G1 Z-2.8 F400
Z-4.8
G3 X0.005 Y-13.176 I7.063 J-1.809
G1 Y-13.251 F600
X0.044 Y-13.315
X0.162 Y-13.408
X0.299 Y-13.47
X0.442 Y-13.514
X0.596 Y-13.548
X0.819 Y-13.584
X1.186 Y-13.622
X1.623 Y-13.641
X2.06 Y-13.647
X2.498 Y-13.649
X4.248 Y-13.65
X6.367
X6.552 Y-13.613
X6.708 Y-13.508
X6.813 Y-13.352
X6.85 Y-13.167
G0 Z5
X-6.331 Y-11.605
Z-4.5
G1 Z-4.65 F400
X-6.334 Y-11.612 Z-4.696
X-6.345 Y-11.63 Z-4.738
X-6.362 Y-11.658 Z-4.771
X-6.384 Y-11.694 Z-4.793
X-6.407 Y-11.734 Z-4.8
G3 X-6.85 Y-13.241 I2.721 J-1.618
G1 Y-13.279 F600
X-6.848 Y-13.317
X-6.73 Y-13.409
X-6.593 Y-13.47
X-6.449 Y-13.514
X-6.294 Y-13.549
X-6.071 Y-13.585
X-5.7 Y-13.622
X-5.263 Y-13.641
X-4.826 Y-13.647
X-4.388 Y-13.649
X-2.639 Y-13.65
X-0.889
X-0.452 Y-13.675
X-0.031 Y-13.793
X0.282 Y-13.873
X0.625 Y-13.94
X1.022 Y-13.993
X1.458 Y-14.025
X1.895 Y-14.04
X2.333 Y-14.046
X2.77 Y-14.048
X4.083 Y-14.05
X5.832
X6.032 Y-14.046
X6.181 Y-14.035
X6.33 Y-14.013
X6.474 Y-13.973
X6.543 Y-13.946
X6.668 Y-13.874
X6.766 Y-13.768
X6.828 Y-13.639
X6.85 Y-13.496
G0 Z5
X-6.552 Y-12.397
Z-4.5
G1 Z-4.65 F400
X-6.556 Y-12.403 Z-4.696
X-6.567 Y-12.422 Z-4.738
X-6.584 Y-12.45 Z-4.771
X-6.605 Y-12.486 Z-4.793
X-6.629 Y-12.526 Z-4.8
G3 X-6.85 Y-13.279 I1.36 J-0.809
G1 Y-13.41 F600
X-6.848 Y-13.447
X-6.775 Y-13.578
X-6.665 Y-13.681
X-6.539 Y-13.762
X-6.404 Y-13.827
X-6.263 Y-13.879
X-6.12 Y-13.922
X-5.973 Y-13.955
X-5.826 Y-13.982
X-5.678 Y-14.004
X-5.529 Y-14.021
X-5.379 Y-14.035
X-5.23 Y-14.046
X-5.08 Y-14.054
X-4.93 Y-14.061
X-4.78 Y-14.066
X-4.462 Y-14.074
X-4.239 Y-14.078
X-3.915 Y-14.082
X-3.477 Y-14.084
X-2.165 Y-14.086
X-1.29
X-0.853 Y-14.097
X-0.421 Y-14.167
X-0.081 Y-14.239
X0.066 Y-14.269
X0.214 Y-14.297
X0.361 Y-14.323
X0.509 Y-14.347
X0.658 Y-14.368
X0.807 Y-14.387
X0.956 Y-14.404
X1.105 Y-14.418
X1.255 Y-14.43
X1.404 Y-14.44
X1.554 Y-14.449
X1.704 Y-14.456
X1.854 Y-14.462
X2.17 Y-14.471
X2.368 Y-14.475
X2.638 Y-14.479
X3.04 Y-14.483
X3.478 Y-14.485
X5.228 Y-14.486
X5.547 Y-14.485
X5.697 Y-14.481
X5.847 Y-14.474
X5.996 Y-14.461
X6.145 Y-14.442
X6.292 Y-14.413
X6.436 Y-14.372
X6.576 Y-14.317
X6.597 Y-14.306
X6.731 Y-14.198
X6.819 Y-14.051
X6.85 Y-13.881
G0 Z5
X-6.552 Y-12.527
Z-4.5
G1 Z-4.65 F400
X-6.556 Y-12.533 Z-4.696
X-6.567 Y-12.552 Z-4.738
X-6.584 Y-12.58 Z-4.771
X-6.605 Y-12.616 Z-4.793
X-6.629 Y-12.656 Z-4.8
G3 X-6.85 Y-13.41 I1.36 J-0.809
G1 Y-13.608 F600
X-6.846 Y-13.683
X-6.789 Y-13.821
X-6.696 Y-13.939
X-6.583 Y-14.038
X-6.458 Y-14.12
X-6.325 Y-14.19
X-6.186 Y-14.247
X-6.044 Y-14.296
X-5.899 Y-14.336
X-5.753 Y-14.369
X-5.606 Y-14.396
X-5.457 Y-14.419
X-5.309 Y-14.438
X-5.159 Y-14.453
X-5.01 Y-14.466
X-4.86 Y-14.476
X-4.711 Y-14.485
X-4.561 Y-14.492
X-4.411 Y-14.498
X-4.091 Y-14.507
X-3.893 Y-14.511
X-3.623 Y-14.515
X-3.223 Y-14.519
X-2.785 Y-14.521
X-1.473 Y-14.523
X-1.036 Y-14.541
X-0.819 Y-14.568
X-0.711 Y-14.585
G3 X-0.673 Y-14.287 I0.017 J0.149
G1 X-0.987 Y-14.244
X-6.15 Y-13.537
X-6.68 Y-13.465 F400
X-6.721
X-6.761 Y-13.476
X-6.797 Y-13.498
X-6.825 Y-13.529
X-6.843 Y-13.567
X-6.85 Y-13.608
Y-13.874 F600
X-6.843 Y-14.024
X-6.777 Y-14.159
X-6.684 Y-14.276
X-6.573 Y-14.378
X-6.519 Y-14.473
X-6.488 Y-14.578
X-6.481 Y-14.687
X-6.499 Y-14.795
X-6.541 Y-14.896
X-6.604 Y-14.985
X-6.687 Y-15.059
X-6.775 Y-15.162
X-6.831 Y-15.286
X-6.85 Y-15.42
G3 X-6.55 Y-15.415 I0.15 J0.005
G1 Y-15.096
Y-14.199
Y-13.879 F400
G3 X-6.85 Y-13.874 I-0.15 J0
G1 Y-14.996 F600
G0 Z5
X6.552 Y-16.641
Z-4.5
G1 Z-4.65 F400
X6.556 Y-16.635 Z-4.696
X6.567 Y-16.616 Z-4.738
X6.584 Y-16.588 Z-4.771
X6.605 Y-16.552 Z-4.793
X6.629 Y-16.512 Z-4.8
G3 X6.85 Y-15.759 I-1.36 J0.809
G1 Y-13.881 F600
X6.841 Y-13.836
X6.82 Y-13.796
X6.787 Y-13.764
X6.746 Y-13.744
X6.7 Y-13.737
G3 X6.636 Y-14.022 I0 J-0.15
G1 X6.664 Y-14.029 Z-4.797
X6.691 Y-14.036 Z-4.789
X6.7 Y-14.037 Z-4.785
X6.733 Y-14.027 Z-4.761
X6.758 Y-14.02 Z-4.729
X6.774 Y-14.015 Z-4.691
X6.78 Y-14.014 Z-4.65
G0 Z5
X0.229 Y-11.622
Z-3.25
G1 Z-3.4 F400
Z-5.4
G3 X0.005 Y-13.176 I7.063 J-1.809
G1 Y-13.251 F600
X0.044 Y-13.315
X0.162 Y-13.408
X0.299 Y-13.47
X0.442 Y-13.514
X0.596 Y-13.548
X0.819 Y-13.584
X1.186 Y-13.622
X1.623 Y-13.641
X2.06 Y-13.647
X2.498 Y-13.649
X4.248 Y-13.65
X6.367
X6.552 Y-13.613
X6.708 Y-13.508
X6.813 Y-13.352
X6.85 Y-13.167
G0 Z5
X-6.331 Y-11.605
Z-5.1
G1 Z-5.25 F400
X-6.334 Y-11.612 Z-5.296
X-6.345 Y-11.63 Z-5.338
X-6.362 Y-11.658 Z-5.371
X-6.384 Y-11.694 Z-5.393
X-6.407 Y-11.734 Z-5.4
G3 X-6.85 Y-13.241 I2.721 J-1.618
G1 Y-13.279 F600
X-6.848 Y-13.317
X-6.73 Y-13.409
X-6.593 Y-13.47
X-6.449 Y-13.514
X-6.294 Y-13.549
X-6.071 Y-13.585
X-5.7 Y-13.622
X-5.263 Y-13.641
X-4.826 Y-13.647
X-4.388 Y-13.649
X-2.639 Y-13.65
X-0.889
X-0.452 Y-13.675
X-0.031 Y-13.793
X0.282 Y-13.873
X0.625 Y-13.94
X1.022 Y-13.993
X1.458 Y-14.025
X1.895 Y-14.04
X2.333 Y-14.046
X2.77 Y-14.048
X4.083 Y-14.05
X5.832
X6.032 Y-14.046
X6.181 Y-14.035
X6.33 Y-14.013
X6.474 Y-13.973
X6.543 Y-13.946
X6.668 Y-13.874
X6.766 Y-13.768
X6.828 Y-13.639
X6.85 Y-13.496
G0 Z5
X-6.552 Y-12.397
Z-5.1
G1 Z-5.25 F400
X-6.556 Y-12.403 Z-5.296
X-6.567 Y-12.422 Z-5.338
X-6.584 Y-12.45 Z-5.371
X-6.605 Y-12.486 Z-5.393
X-6.629 Y-12.526 Z-5.4
G3 X-6.85 Y-13.279 I1.36 J-0.809
G1 Y-13.41 F600
X-6.848 Y-13.447
X-6.775 Y-13.578
X-6.665 Y-13.681
X-6.539 Y-13.762
X-6.404 Y-13.827
X-6.263 Y-13.879
X-6.12 Y-13.922
X-5.973 Y-13.955
X-5.826 Y-13.982
X-5.678 Y-14.004
X-5.529 Y-14.021
X-5.379 Y-14.035
X-5.23 Y-14.046
X-5.08 Y-14.054
X-4.93 Y-14.061
X-4.78 Y-14.066
X-4.462 Y-14.074
X-4.239 Y-14.078
X-3.915 Y-14.082
X-3.477 Y-14.084
X-2.165 Y-14.086
X-1.29
X-0.853 Y-14.097
X-0.421 Y-14.167
X-0.081 Y-14.239
X0.066 Y-14.269
X0.214 Y-14.297
X0.361 Y-14.323
X0.509 Y-14.347
X0.658 Y-14.368
X0.807 Y-14.387
X0.956 Y-14.404
X1.105 Y-14.418
X1.255 Y-14.43
X1.404 Y-14.44
X1.554 Y-14.449
X1.704 Y-14.456
X1.854 Y-14.462
X2.17 Y-14.471
X2.368 Y-14.475
X2.638 Y-14.479
X3.04 Y-14.483
X3.478 Y-14.485
X5.228 Y-14.486
X5.547 Y-14.485
X5.697 Y-14.481
X5.847 Y-14.474
X5.996 Y-14.461
X6.145 Y-14.442
X6.292 Y-14.413
X6.436 Y-14.372
X6.576 Y-14.317
X6.597 Y-14.306
X6.731 Y-14.198
X6.819 Y-14.051
X6.85 Y-13.881
G0 Z5
X-6.552 Y-12.527
Z-5.1
G1 Z-5.25 F400
X-6.556 Y-12.533 Z-5.296
X-6.567 Y-12.552 Z-5.338
X-6.584 Y-12.58 Z-5.371
X-6.605 Y-12.616 Z-5.393
X-6.629 Y-12.656 Z-5.4
G3 X-6.85 Y-13.41 I1.36 J-0.809
G1 Y-13.608 F600
X-6.846 Y-13.683
X-6.789 Y-13.821
X-6.696 Y-13.939
X-6.583 Y-14.038
X-6.458 Y-14.12
X-6.325 Y-14.19
X-6.186 Y-14.247
X-6.044 Y-14.296
X-5.899 Y-14.336
X-5.753 Y-14.369
X-5.606 Y-14.396
X-5.457 Y-14.419
X-5.309 Y-14.438
X-5.159 Y-14.453
X-5.01 Y-14.466
X-4.86 Y-14.476
X-4.711 Y-14.485
X-4.561 Y-14.492
X-4.411 Y-14.498
X-4.091 Y-14.507
X-3.893 Y-14.511
X-3.623 Y-14.515
X-3.223 Y-14.519
X-2.785 Y-14.521
X-1.473 Y-14.523
X-1.036 Y-14.541
X-0.819 Y-14.568
X-0.711 Y-14.585
G3 X-0.673 Y-14.287 I0.017 J0.149
G1 X-0.987 Y-14.244
X-6.15 Y-13.537
X-6.68 Y-13.465 F400
X-6.721
X-6.761 Y-13.476
X-6.797 Y-13.498
X-6.825 Y-13.529
X-6.843 Y-13.567
X-6.85 Y-13.608
Y-13.874 F600
X-6.843 Y-14.024
X-6.777 Y-14.159
X-6.684 Y-14.276
X-6.573 Y-14.378
X-6.519 Y-14.473
X-6.488 Y-14.578
X-6.481 Y-14.687
X-6.499 Y-14.795
X-6.541 Y-14.896
X-6.604 Y-14.985
X-6.687 Y-15.059
X-6.775 Y-15.162
X-6.831 Y-15.286
X-6.85 Y-15.42
G3 X-6.55 Y-15.415 I0.15 J0.005
G1 Y-15.096
Y-14.199
Y-13.879 F400
G3 X-6.85 Y-13.874 I-0.15 J0
G1 Y-14.996 F600
G0 Z5
X6.552 Y-16.641
Z-5.1
G1 Z-5.25 F400
X6.556 Y-16.635 Z-5.296
X6.567 Y-16.616 Z-5.338
X6.584 Y-16.588 Z-5.371
X6.605 Y-16.552 Z-5.393
X6.629 Y-16.512 Z-5.4
G3 X6.85 Y-15.759 I-1.36 J0.809
G1 Y-13.881 F600
X6.841 Y-13.836
X6.82 Y-13.796
X6.787 Y-13.764
X6.746 Y-13.744
X6.7 Y-13.737
G3 X6.636 Y-14.022 I0 J-0.15
G1 X6.664 Y-14.029 Z-5.397
X6.691 Y-14.036 Z-5.389
X6.7 Y-14.037 Z-5.385
X6.733 Y-14.027 Z-5.361
X6.758 Y-14.02 Z-5.329
X6.774 Y-14.015 Z-5.291
X6.78 Y-14.014 Z-5.25
G0 Z5
X0.229 Y-11.622
Z-3.85
G1 Z-4 F400
Z-6
G3 X0.005 Y-13.176 I7.063 J-1.809
G1 Y-13.251 F600
X0.044 Y-13.315
X0.162 Y-13.408
X0.299 Y-13.47
X0.442 Y-13.514
X0.596 Y-13.548
X0.819 Y-13.584
X1.186 Y-13.622
X1.623 Y-13.641
X2.06 Y-13.647
X2.498 Y-13.649
X4.248 Y-13.65
X6.367
X6.552 Y-13.613
X6.708 Y-13.508
X6.813 Y-13.352
X6.85 Y-13.167
G0 Z5
X-6.331 Y-11.605
Z-5.7
G1 Z-5.85 F400
X-6.334 Y-11.612 Z-5.896
X-6.345 Y-11.63 Z-5.938
X-6.362 Y-11.658 Z-5.971
X-6.384 Y-11.694 Z-5.993
X-6.407 Y-11.734 Z-6
G3 X-6.85 Y-13.241 I2.721 J-1.618
G1 Y-13.279 F600
X-6.848 Y-13.317
X-6.73 Y-13.409
X-6.593 Y-13.47
X-6.449 Y-13.514
X-6.294 Y-13.549
X-6.071 Y-13.585
X-5.7 Y-13.622
X-5.263 Y-13.641
X-4.826 Y-13.647
X-4.388 Y-13.649
X-2.639 Y-13.65
X-0.889
X-0.452 Y-13.675
X-0.031 Y-13.793
X0.282 Y-13.873
X0.625 Y-13.94
X1.022 Y-13.993
X1.458 Y-14.025
X1.895 Y-14.04
X2.333 Y-14.046
X2.77 Y-14.048
X4.083 Y-14.05
X5.832
X6.032 Y-14.046
X6.181 Y-14.035
X6.33 Y-14.013
X6.474 Y-13.973
X6.543 Y-13.946
X6.668 Y-13.874
X6.766 Y-13.768
X6.828 Y-13.639
X6.85 Y-13.496
G0 Z5
X-6.552 Y-12.397
Z-5.7
G1 Z-5.85 F400
X-6.556 Y-12.403 Z-5.896
X-6.567 Y-12.422 Z-5.938
X-6.584 Y-12.45 Z-5.971
X-6.605 Y-12.486 Z-5.993
X-6.629 Y-12.526 Z-6
G3 X-6.85 Y-13.279 I1.36 J-0.809
G1 Y-13.41 F600
X-6.848 Y-13.447
X-6.775 Y-13.578
X-6.665 Y-13.681
X-6.539 Y-13.762
X-6.404 Y-13.827
X-6.263 Y-13.879
X-6.12 Y-13.922
X-5.973 Y-13.955
X-5.826 Y-13.982
X-5.678 Y-14.004
X-5.529 Y-14.021
X-5.379 Y-14.035
X-5.23 Y-14.046
X-5.08 Y-14.054
X-4.93 Y-14.061
X-4.78 Y-14.066
X-4.462 Y-14.074
X-4.239 Y-14.078
X-3.915 Y-14.082
X-3.477 Y-14.084
X-2.165 Y-14.086
X-1.29
X-0.853 Y-14.097
X-0.421 Y-14.167
X-0.081 Y-14.239
X0.066 Y-14.269
X0.214 Y-14.297
X0.361 Y-14.323
X0.509 Y-14.347
X0.658 Y-14.368
X0.807 Y-14.387
X0.956 Y-14.404
X1.105 Y-14.418
X1.255 Y-14.43
X1.404 Y-14.44
X1.554 Y-14.449
X1.704 Y-14.456
X1.854 Y-14.462
X2.17 Y-14.471
X2.368 Y-14.475
X2.638 Y-14.479
X3.04 Y-14.483
X3.478 Y-14.485
X5.228 Y-14.486
X5.547 Y-14.485
X5.697 Y-14.481
X5.847 Y-14.474
X5.996 Y-14.461
X6.145 Y-14.442
X6.292 Y-14.413
X6.436 Y-14.372
X6.576 Y-14.317
X6.597 Y-14.306
X6.731 Y-14.198
X6.819 Y-14.051
X6.85 Y-13.881
G0 Z5
X-6.552 Y-12.527
Z-5.7
G1 Z-5.85 F400
X-6.556 Y-12.533 Z-5.896
X-6.567 Y-12.552 Z-5.938
X-6.584 Y-12.58 Z-5.971
X-6.605 Y-12.616 Z-5.993
X-6.629 Y-12.656 Z-6
G3 X-6.85 Y-13.41 I1.36 J-0.809
G1 Y-13.608 F600
X-6.846 Y-13.683
X-6.789 Y-13.821
X-6.696 Y-13.939
X-6.583 Y-14.038
X-6.458 Y-14.12
X-6.325 Y-14.19
X-6.186 Y-14.247
X-6.044 Y-14.296
X-5.899 Y-14.336
X-5.753 Y-14.369
X-5.606 Y-14.396
X-5.457 Y-14.419
X-5.309 Y-14.438
X-5.159 Y-14.453
X-5.01 Y-14.466
X-4.86 Y-14.476
X-4.711 Y-14.485
X-4.561 Y-14.492
X-4.411 Y-14.498
X-4.091 Y-14.507
X-3.893 Y-14.511
X-3.623 Y-14.515
X-3.223 Y-14.519
X-2.785 Y-14.521
X-1.473 Y-14.523
X-1.036 Y-14.541
X-0.819 Y-14.568
X-0.711 Y-14.585
G3 X-0.673 Y-14.287 I0.017 J0.149
G1 X-0.987 Y-14.244
X-6.15 Y-13.537
X-6.68 Y-13.465 F400
X-6.721
X-6.761 Y-13.476
X-6.797 Y-13.498
X-6.825 Y-13.529
X-6.843 Y-13.567
X-6.85 Y-13.608
Y-13.874 F600
X-6.843 Y-14.024
X-6.777 Y-14.159
X-6.684 Y-14.276
X-6.573 Y-14.378
X-6.519 Y-14.473
X-6.488 Y-14.578
X-6.481 Y-14.687
X-6.499 Y-14.795
X-6.541 Y-14.896
X-6.604 Y-14.985
X-6.687 Y-15.059
X-6.775 Y-15.162
X-6.831 Y-15.286
X-6.85 Y-15.42
G3 X-6.55 Y-15.415 I0.15 J0.005
G1 Y-15.096
Y-14.199
Y-13.879 F400
G3 X-6.85 Y-13.874 I-0.15 J0
G1 Y-14.996 F600
G0 Z5
X6.552 Y-16.641
Z-5.7
G1 Z-5.85 F400
X6.556 Y-16.635 Z-5.896
X6.567 Y-16.616 Z-5.938
X6.584 Y-16.588 Z-5.971
X6.605 Y-16.552 Z-5.993
X6.629 Y-16.512 Z-6
G3 X6.85 Y-15.759 I-1.36 J0.809
G1 Y-13.881 F600
X6.841 Y-13.836
X6.82 Y-13.796
X6.787 Y-13.764
X6.746 Y-13.744
X6.7 Y-13.737
G3 X6.636 Y-14.022 I0 J-0.15
G1 X6.664 Y-14.029 Z-5.997
X6.691 Y-14.036 Z-5.989
X6.7 Y-14.037 Z-5.985
X6.733 Y-14.027 Z-5.961
X6.758 Y-14.02 Z-5.929
X6.774 Y-14.015 Z-5.891
X6.78 Y-14.014 Z-5.85
G0 Z5
X0.229 Y-11.622
Z-4.45
G1 Z-4.6 F400
Z-6.6
G3 X0.005 Y-13.176 I7.063 J-1.809
G1 Y-13.251 F600
X0.044 Y-13.315
X0.162 Y-13.408
X0.299 Y-13.47
X0.442 Y-13.514
X0.596 Y-13.548
X0.819 Y-13.584
X1.186 Y-13.622
X1.623 Y-13.641
X2.06 Y-13.647
X2.498 Y-13.649
X4.248 Y-13.65
X6.367
X6.552 Y-13.613
X6.708 Y-13.508
X6.813 Y-13.352
X6.85 Y-13.167
G0 Z5
X-6.331 Y-11.605
Z-6.3
G1 Z-6.45 F400
X-6.334 Y-11.612 Z-6.496
X-6.345 Y-11.63 Z-6.538
X-6.362 Y-11.658 Z-6.571
X-6.384 Y-11.694 Z-6.593
X-6.407 Y-11.734 Z-6.6
G3 X-6.85 Y-13.241 I2.721 J-1.618
G1 Y-13.279 F600
X-6.848 Y-13.317
X-6.73 Y-13.409
X-6.593 Y-13.47
X-6.449 Y-13.514
X-6.294 Y-13.549
X-6.071 Y-13.585
X-5.7 Y-13.622
X-5.263 Y-13.641
X-4.826 Y-13.647
X-4.388 Y-13.649
X-2.639 Y-13.65
X-0.889
X-0.452 Y-13.675
X-0.031 Y-13.793
X0.282 Y-13.873
X0.625 Y-13.94
X1.022 Y-13.993
X1.458 Y-14.025
X1.895 Y-14.04
X2.333 Y-14.046
X2.77 Y-14.048
X4.083 Y-14.05
X5.832
X6.032 Y-14.046
X6.181 Y-14.035
X6.33 Y-14.013
X6.474 Y-13.973
X6.543 Y-13.946
X6.668 Y-13.874
X6.766 Y-13.768
X6.828 Y-13.639
X6.85 Y-13.496
G0 Z5
X-6.552 Y-12.397
Z-6.3
G1 Z-6.45 F400
X-6.556 Y-12.403 Z-6.496
X-6.567 Y-12.422 Z-6.538
X-6.584 Y-12.45 Z-6.571
X-6.605 Y-12.486 Z-6.593
X-6.629 Y-12.526 Z-6.6
G3 X-6.85 Y-13.279 I1.36 J-0.809
G1 Y-13.41 F600
X-6.848 Y-13.447
X-6.775 Y-13.578
X-6.665 Y-13.681
X-6.539 Y-13.762
X-6.404 Y-13.827
X-6.263 Y-13.879
X-6.12 Y-13.922
X-5.973 Y-13.955
X-5.826 Y-13.982
X-5.678 Y-14.004
X-5.529 Y-14.021
X-5.379 Y-14.035
X-5.23 Y-14.046
X-5.08 Y-14.054
X-4.93 Y-14.061
X-4.78 Y-14.066
X-4.462 Y-14.074
X-4.239 Y-14.078
X-3.915 Y-14.082
X-3.477 Y-14.084
X-2.165 Y-14.086
X-1.29
X-0.853 Y-14.097
X-0.421 Y-14.167
X-0.081 Y-14.239
X0.066 Y-14.269
X0.214 Y-14.297
X0.361 Y-14.323
X0.509 Y-14.347
X0.658 Y-14.368
X0.807 Y-14.387
X0.956 Y-14.404
X1.105 Y-14.418
X1.255 Y-14.43
X1.404 Y-14.44
X1.554 Y-14.449
X1.704 Y-14.456
X1.854 Y-14.462
X2.17 Y-14.471
X2.368 Y-14.475
X2.638 Y-14.479
X3.04 Y-14.483
X3.478 Y-14.485
X5.228 Y-14.486
X5.547 Y-14.485
X5.697 Y-14.481
X5.847 Y-14.474
X5.996 Y-14.461
X6.145 Y-14.442
X6.292 Y-14.413
X6.436 Y-14.372
X6.576 Y-14.317
X6.597 Y-14.306
X6.731 Y-14.198
X6.819 Y-14.051
X6.85 Y-13.881
G0 Z5
X-6.552 Y-12.527
Z-6.3
G1 Z-6.45 F400
X-6.556 Y-12.533 Z-6.496
X-6.567 Y-12.552 Z-6.538
X-6.584 Y-12.58 Z-6.571
X-6.605 Y-12.616 Z-6.593
X-6.629 Y-12.656 Z-6.6
G3 X-6.85 Y-13.41 I1.36 J-0.809
G1 Y-13.608 F600
X-6.846 Y-13.683
X-6.789 Y-13.821
X-6.696 Y-13.939
X-6.583 Y-14.038
X-6.458 Y-14.12
X-6.325 Y-14.19
X-6.186 Y-14.247
X-6.044 Y-14.296
X-5.899 Y-14.336
X-5.753 Y-14.369
X-5.606 Y-14.396
X-5.457 Y-14.419
X-5.309 Y-14.438
X-5.159 Y-14.453
X-5.01 Y-14.466
X-4.86 Y-14.476
X-4.711 Y-14.485
X-4.561 Y-14.492
X-4.411 Y-14.498
X-4.091 Y-14.507
X-3.893 Y-14.511
X-3.623 Y-14.515
X-3.223 Y-14.519
X-2.785 Y-14.521
X-1.473 Y-14.523
X-1.036 Y-14.541
X-0.819 Y-14.568
X-0.711 Y-14.585
G3 X-0.673 Y-14.287 I0.017 J0.149
G1 X-0.987 Y-14.244
X-6.15 Y-13.537
X-6.68 Y-13.465 F400
X-6.721
X-6.761 Y-13.476
X-6.797 Y-13.498
X-6.825 Y-13.529
X-6.843 Y-13.567
X-6.85 Y-13.608
Y-13.874 F600
X-6.843 Y-14.024
X-6.777 Y-14.159
X-6.684 Y-14.276
X-6.573 Y-14.378
X-6.519 Y-14.473
X-6.488 Y-14.578
X-6.481 Y-14.687
X-6.499 Y-14.795
X-6.541 Y-14.896
X-6.604 Y-14.985
X-6.687 Y-15.059
X-6.775 Y-15.162
X-6.831 Y-15.286
X-6.85 Y-15.42
G3 X-6.55 Y-15.415 I0.15 J0.005
G1 Y-15.096
Y-14.199
Y-13.879 F400
G3 X-6.85 Y-13.874 I-0.15 J0
G1 Y-14.996 F600
G0 Z5
X6.552 Y-16.641
Z-6.3
G1 Z-6.45 F400
X6.556 Y-16.635 Z-6.496
X6.567 Y-16.616 Z-6.538
X6.584 Y-16.588 Z-6.571
X6.605 Y-16.552 Z-6.593
X6.629 Y-16.512 Z-6.6
G3 X6.85 Y-15.759 I-1.36 J0.809
G1 Y-13.881 F600
X6.841 Y-13.836
X6.82 Y-13.796
X6.787 Y-13.764
X6.746 Y-13.744
X6.7 Y-13.737
G3 X6.636 Y-14.022 I0 J-0.15
G1 X6.664 Y-14.029 Z-6.597
X6.691 Y-14.036 Z-6.589
X6.7 Y-14.037 Z-6.585
X6.733 Y-14.027 Z-6.561
X6.758 Y-14.02 Z-6.529
X6.774 Y-14.015 Z-6.491
X6.78 Y-14.014 Z-6.45
G0 Z5
X0.229 Y-11.622
Z-5.05
G1 Z-5.2 F400
Z-7.2
G3 X0.005 Y-13.176 I7.063 J-1.809
G1 Y-13.251 F600
X0.044 Y-13.315
X0.162 Y-13.408
X0.299 Y-13.47
X0.442 Y-13.514
X0.596 Y-13.548
X0.819 Y-13.584
X1.186 Y-13.622
X1.623 Y-13.641
X2.06 Y-13.647
X2.498 Y-13.649
X4.248 Y-13.65
X6.367
X6.552 Y-13.613
X6.708 Y-13.508
X6.813 Y-13.352
X6.85 Y-13.167
G0 Z5
X-6.331 Y-11.605
Z-6.9
G1 Z-7.05 F400
X-6.334 Y-11.612 Z-7.096
X-6.345 Y-11.63 Z-7.138
X-6.362 Y-11.658 Z-7.171
X-6.384 Y-11.694 Z-7.193
X-6.407 Y-11.734 Z-7.2
G3 X-6.85 Y-13.241 I2.721 J-1.618
G1 Y-13.279 F600
X-6.848 Y-13.317
X-6.73 Y-13.409
X-6.593 Y-13.47
X-6.449 Y-13.514
X-6.294 Y-13.549
X-6.071 Y-13.585
X-5.7 Y-13.622
X-5.263 Y-13.641
X-4.826 Y-13.647
X-4.388 Y-13.649
X-2.639 Y-13.65
X-0.889
X-0.452 Y-13.675
X-0.031 Y-13.793
X0.282 Y-13.873
X0.625 Y-13.94
X1.022 Y-13.993
X1.458 Y-14.025
X1.895 Y-14.04
X2.333 Y-14.046
X2.77 Y-14.048
X4.083 Y-14.05
X5.832
X6.032 Y-14.046
X6.181 Y-14.035
X6.33 Y-14.013
X6.474 Y-13.973
X6.543 Y-13.946
X6.668 Y-13.874
X6.766 Y-13.768
X6.828 Y-13.639
X6.85 Y-13.496
G0 Z5
X-6.552 Y-12.397
Z-6.9
G1 Z-7.05 F400
X-6.556 Y-12.403 Z-7.096
X-6.567 Y-12.422 Z-7.138
X-6.584 Y-12.45 Z-7.171
X-6.605 Y-12.486 Z-7.193
X-6.629 Y-12.526 Z-7.2
G3 X-6.85 Y-13.279 I1.36 J-0.809
G1 Y-13.41 F600
X-6.848 Y-13.447
X-6.775 Y-13.578
X-6.665 Y-13.681
X-6.539 Y-13.762
X-6.404 Y-13.827
X-6.263 Y-13.879
X-6.12 Y-13.922
X-5.973 Y-13.955
X-5.826 Y-13.982
X-5.678 Y-14.004
X-5.529 Y-14.021
X-5.379 Y-14.035
X-5.23 Y-14.046
X-5.08 Y-14.054
X-4.93 Y-14.061
X-4.78 Y-14.066
X-4.462 Y-14.074
X-4.239 Y-14.078
X-3.915 Y-14.082
X-3.477 Y-14.084
X-2.165 Y-14.086
X-1.29
X-0.853 Y-14.097
X-0.421 Y-14.167
X-0.081 Y-14.239
X0.066 Y-14.269
X0.214 Y-14.297
X0.361 Y-14.323
X0.509 Y-14.347
X0.658 Y-14.368
X0.807 Y-14.387
X0.956 Y-14.404
X1.105 Y-14.418
X1.255 Y-14.43
X1.404 Y-14.44
X1.554 Y-14.449
X1.704 Y-14.456
X1.854 Y-14.462
X2.17 Y-14.471
X2.368 Y-14.475
X2.638 Y-14.479
X3.04 Y-14.483
X3.478 Y-14.485
X5.228 Y-14.486
X5.547 Y-14.485
X5.697 Y-14.481
X5.847 Y-14.474
X5.996 Y-14.461
X6.145 Y-14.442
X6.292 Y-14.413
X6.436 Y-14.372
X6.576 Y-14.317
X6.597 Y-14.306
X6.731 Y-14.198
X6.819 Y-14.051
X6.85 Y-13.881
G0 Z5
X-6.552 Y-12.527
Z-6.9
G1 Z-7.05 F400
X-6.556 Y-12.533 Z-7.096
X-6.567 Y-12.552 Z-7.138
X-6.584 Y-12.58 Z-7.171
X-6.605 Y-12.616 Z-7.193
X-6.629 Y-12.656 Z-7.2
G3 X-6.85 Y-13.41 I1.36 J-0.809
G1 Y-13.608 F600
X-6.846 Y-13.683
X-6.789 Y-13.821
X-6.696 Y-13.939
X-6.583 Y-14.038
X-6.458 Y-14.12
X-6.325 Y-14.19
X-6.186 Y-14.247
X-6.044 Y-14.296
X-5.899 Y-14.336
X-5.753 Y-14.369
X-5.606 Y-14.396
X-5.457 Y-14.419
X-5.309 Y-14.438
X-5.159 Y-14.453
X-5.01 Y-14.466
X-4.86 Y-14.476
X-4.711 Y-14.485
X-4.561 Y-14.492
X-4.411 Y-14.498
X-4.091 Y-14.507
X-3.893 Y-14.511
X-3.623 Y-14.515
X-3.223 Y-14.519
X-2.785 Y-14.521
X-1.473 Y-14.523
X-1.036 Y-14.541
X-0.819 Y-14.568
X-0.711 Y-14.585
G3 X-0.673 Y-14.287 I0.017 J0.149
G1 X-0.987 Y-14.244
X-6.15 Y-13.537
X-6.68 Y-13.465 F400
X-6.721
X-6.761 Y-13.476
X-6.797 Y-13.498
X-6.825 Y-13.529
X-6.843 Y-13.567
X-6.85 Y-13.608
Y-13.874 F600
X-6.843 Y-14.024
X-6.777 Y-14.159
X-6.684 Y-14.276
X-6.573 Y-14.378
X-6.519 Y-14.473
X-6.488 Y-14.578
X-6.481 Y-14.687
X-6.499 Y-14.795
X-6.541 Y-14.896
X-6.604 Y-14.985
X-6.687 Y-15.059
X-6.775 Y-15.162
X-6.831 Y-15.286
X-6.85 Y-15.42
G3 X-6.55 Y-15.415 I0.15 J0.005
G1 Y-15.096
Y-14.199
Y-13.879 F400
G3 X-6.85 Y-13.874 I-0.15 J0
G1 Y-14.996 F600
G0 Z5
X6.552 Y-16.641
Z-6.9
G1 Z-7.05 F400
X6.556 Y-16.635 Z-7.096
X6.567 Y-16.616 Z-7.138
X6.584 Y-16.588 Z-7.171
X6.605 Y-16.552 Z-7.193
X6.629 Y-16.512 Z-7.2
G3 X6.85 Y-15.759 I-1.36 J0.809
G1 Y-13.881 F600
X6.841 Y-13.836
X6.82 Y-13.796
X6.787 Y-13.764
X6.746 Y-13.744
X6.7 Y-13.737
G3 X6.636 Y-14.022 I0 J-0.15
G1 X6.664 Y-14.029 Z-7.197
X6.691 Y-14.036 Z-7.189
X6.7 Y-14.037 Z-7.185
X6.733 Y-14.027 Z-7.161
X6.758 Y-14.02 Z-7.129
X6.774 Y-14.015 Z-7.091
X6.78 Y-14.014 Z-7.05
G0 Z5
X0.229 Y-11.622
Z-5.35
G1 Z-5.5 F400
Z-7.5
G3 X0.005 Y-13.176 I7.063 J-1.809
G1 Y-13.251 F600
X0.044 Y-13.315
X0.162 Y-13.408
X0.299 Y-13.47
X0.442 Y-13.514
X0.596 Y-13.548
X0.819 Y-13.584
X1.186 Y-13.622
X1.623 Y-13.641
X2.06 Y-13.647
X2.498 Y-13.649
X4.248 Y-13.65
X6.367
X6.552 Y-13.613
X6.708 Y-13.508
X6.813 Y-13.352
X6.85 Y-13.167
G0 Z5
X-6.331 Y-11.605
Z-7.2
G1 Z-7.35 F400
X-6.334 Y-11.612 Z-7.396
X-6.345 Y-11.63 Z-7.438
X-6.362 Y-11.658 Z-7.471
X-6.384 Y-11.694 Z-7.493
X-6.407 Y-11.734 Z-7.5
G3 X-6.85 Y-13.241 I2.721 J-1.618
G1 Y-13.279 F600
X-6.848 Y-13.317
X-6.73 Y-13.409
X-6.593 Y-13.47
X-6.449 Y-13.514
X-6.294 Y-13.549
X-6.071 Y-13.585
X-5.7 Y-13.622
X-5.263 Y-13.641
X-4.826 Y-13.647
X-4.388 Y-13.649
X-2.639 Y-13.65
X-0.889
X-0.452 Y-13.675
X-0.031 Y-13.793
X0.282 Y-13.873
X0.625 Y-13.94
X1.022 Y-13.993
X1.458 Y-14.025
X1.895 Y-14.04
X2.333 Y-14.046
X2.77 Y-14.048
X4.083 Y-14.05
X5.832
X6.032 Y-14.046
X6.181 Y-14.035
X6.33 Y-14.013
X6.474 Y-13.973
X6.543 Y-13.946
X6.668 Y-13.874
X6.766 Y-13.768
X6.828 Y-13.639
X6.85 Y-13.496
G0 Z5
X-6.552 Y-12.397
Z-7.2
G1 Z-7.35 F400
X-6.556 Y-12.403 Z-7.396
X-6.567 Y-12.422 Z-7.438
X-6.584 Y-12.45 Z-7.471
X-6.605 Y-12.486 Z-7.493
X-6.629 Y-12.526 Z-7.5
G3 X-6.85 Y-13.279 I1.36 J-0.809
G1 Y-13.41 F600
X-6.848 Y-13.447
X-6.775 Y-13.578
X-6.665 Y-13.681
X-6.539 Y-13.762
X-6.404 Y-13.827
X-6.263 Y-13.879
X-6.12 Y-13.922
X-5.973 Y-13.955
X-5.826 Y-13.982
X-5.678 Y-14.004
X-5.529 Y-14.021
X-5.379 Y-14.035
X-5.23 Y-14.046
X-5.08 Y-14.054
X-4.93 Y-14.061
X-4.78 Y-14.066
X-4.462 Y-14.074
X-4.239 Y-14.078
X-3.915 Y-14.082
X-3.477 Y-14.084
X-2.165 Y-14.086
X-1.29
X-0.853 Y-14.097
X-0.421 Y-14.167
X-0.081 Y-14.239
X0.066 Y-14.269
X0.214 Y-14.297
X0.361 Y-14.323
X0.509 Y-14.347
X0.658 Y-14.368
X0.807 Y-14.387
X0.956 Y-14.404
X1.105 Y-14.418
X1.255 Y-14.43
X1.404 Y-14.44
X1.554 Y-14.449
X1.704 Y-14.456
X1.854 Y-14.462
X2.17 Y-14.471
X2.368 Y-14.475
X2.638 Y-14.479
X3.04 Y-14.483
X3.478 Y-14.485
X5.228 Y-14.486
X5.547 Y-14.485
X5.697 Y-14.481
X5.847 Y-14.474
X5.996 Y-14.461
X6.145 Y-14.442
X6.292 Y-14.413
X6.436 Y-14.372
X6.576 Y-14.317
X6.597 Y-14.306
X6.731 Y-14.198
X6.819 Y-14.051
X6.85 Y-13.881
G0 Z5
X-6.552 Y-12.527
Z-7.2
G1 Z-7.35 F400
X-6.556 Y-12.533 Z-7.396
X-6.567 Y-12.552 Z-7.438
X-6.584 Y-12.58 Z-7.471
X-6.605 Y-12.616 Z-7.493
X-6.629 Y-12.656 Z-7.5
G3 X-6.85 Y-13.41 I1.36 J-0.809
G1 Y-13.608 F600
X-6.846 Y-13.683
X-6.789 Y-13.821
X-6.696 Y-13.939
X-6.583 Y-14.038
X-6.458 Y-14.12
X-6.325 Y-14.19
X-6.186 Y-14.247
X-6.044 Y-14.296
X-5.899 Y-14.336
X-5.753 Y-14.369
X-5.606 Y-14.396
X-5.457 Y-14.419
X-5.309 Y-14.438
X-5.159 Y-14.453
X-5.01 Y-14.466
X-4.86 Y-14.476
X-4.711 Y-14.485
X-4.561 Y-14.492
X-4.411 Y-14.498
X-4.091 Y-14.507
X-3.893 Y-14.511
X-3.623 Y-14.515
X-3.223 Y-14.519
X-2.785 Y-14.521
X-1.473 Y-14.523
X-1.036 Y-14.541
X-0.819 Y-14.568
X-0.711 Y-14.585
G3 X-0.673 Y-14.287 I0.017 J0.149
G1 X-0.987 Y-14.244
X-6.15 Y-13.537
X-6.68 Y-13.465 F400
X-6.721
X-6.761 Y-13.476
X-6.797 Y-13.498
X-6.825 Y-13.529
X-6.843 Y-13.567
X-6.85 Y-13.608
Y-13.874 F600
X-6.843 Y-14.024
X-6.777 Y-14.159
X-6.684 Y-14.276
X-6.573 Y-14.378
X-6.519 Y-14.473
