(1001)
(Bearbeiten)
(  Hersteller: ChinaCnc)
(  model: 3040T)
(  description: Generic 3-axis)
(T5  D=3.175 CR=0 - ZMIN=-16 - Schaftfraser)
G90 G94
G17
G21
G28 G91 Z0
G90

(Bohrfrasen1)
T5
S6000 M3
G54
G0 X-3.5 Y-7.5
Z15
Z1.883
G1 Z0.2 F1000
X-3.494 Y-7.494
X-3.5 Y-7.488
X-3.511 Y-7.495 Z0.146
X-3.51 Y-7.508 Z0.093
X-3.497 Y-7.512 Z0.039
X-3.488 Y-7.503 Z-0.015
X-3.492 Y-7.49 Z-0.068
X-3.506 Y-7.489 Z-0.122
X-3.512 Y-7.5 Z-0.176
X-3.505 Y-7.511 Z-0.229
X-3.492 Y-7.51 Z-0.283
X-3.488 Y-7.497 Z-0.337
X-3.497 Y-7.488 Z-0.39
X-3.51 Y-7.492 Z-0.444
X-3.511 Y-7.506 Z-0.498
X-3.5 Y-7.512 Z-0.551
X-3.489 Y-7.505 Z-0.605
X-3.49 Y-7.492 Z-0.659
X-3.503 Y-7.488 Z-0.712
X-3.512 Y-7.498 Z-0.766
X-3.507 Y-7.51 Z-0.82
X-3.494 Y-7.511 Z-0.873
X-3.488 Y-7.5 Z-0.927
X-3.495 Y-7.489 Z-0.98
X-3.508 Y-7.491 Z-1.034
X-3.512 Y-7.503 Z-1.088
X-3.502 Y-7.512 Z-1.141
X-3.49 Y-7.507 Z-1.195
X-3.489 Y-7.494 Z-1.249
X-3.501 Y-7.488 Z-1.302
X-3.512 Y-7.495 Z-1.356
X-3.509 Y-7.508 Z-1.41
X-3.497 Y-7.512 Z-1.463
X-3.488 Y-7.502 Z-1.517
X-3.493 Y-7.49 Z-1.571
X-3.506 Y-7.489 Z-1.624
X-3.512 Y-7.501 Z-1.678
X-3.505 Y-7.512 Z-1.732
X-3.492 Y-7.509 Z-1.785
X-3.488 Y-7.496 Z-1.839
X-3.498 Y-7.488 Z-1.893
X-3.51 Y-7.493 Z-1.946
X-3.511 Y-7.506 Z-2
G3 X-3.489 Y-7.494 I0.011 J0.006
X-3.511 Y-7.506 I-0.011 J-0.006
G1 X-3.502 Y-7.509
X-3.5 Y-7.5
G0 Z10
X-12.682 Y-5.881
Z2.2
G1 Z0.517 F1000
G19 G3 Y-5.564 Z0.2 J0.318 K0
G1 Y-5.405
G17 G3 X-13 Y-5.088 I-0.318 J0
X-13 Y-9.912 Z0.05 I0 J-2.412
X-13 Y-5.088 Z-0.1 I0 J2.412
X-13 Y-9.912 Z-0.25 I0 J-2.412
X-13 Y-5.088 Z-0.4 I0 J2.412
X-13 Y-9.912 Z-0.55 I0 J-2.412
X-13 Y-5.088 Z-0.7 I0 J2.412
X-13 Y-9.912 Z-0.85 I0 J-2.412
X-13 Y-5.088 Z-1 I0 J2.412
X-13 Y-9.912 Z-1.15 I0 J-2.412
X-13 Y-5.088 Z-1.3 I0 J2.412
X-13 Y-9.912 Z-1.45 I0 J-2.412
X-13 Y-5.088 Z-1.6 I0 J2.412
X-13 Y-9.912 Z-1.75 I0 J-2.412
X-13 Y-5.088 Z-1.9 I0 J2.412
X-15.089 Y-8.706 Z-2 I0 J-2.412
X-10.911 Y-6.294 I2.089 J1.206
X-15.089 Y-8.706 I-2.089 J-1.206
X-14.656 Y-8.822 I0.275 J0.159
G1 X-14.518 Y-8.743
X-14.457 Y-8.708 Z-1.992
X-14.399 Y-8.674 Z-1.969
X-14.347 Y-8.644 Z-1.931
X-14.303 Y-8.619 Z-1.88
X-14.27 Y-8.6 Z-1.82
X-14.25 Y-8.588 Z-1.753
X-14.243 Y-8.584 Z-1.683
G0 Z10
X-22.5 Y-7.5
Z1.883
G1 Z0.2 F1000
X-22.494 Y-7.494
X-22.5 Y-7.488
X-22.511 Y-7.495 Z0.146
X-22.51 Y-7.508 Z0.093
X-22.497 Y-7.512 Z0.039
X-22.488 Y-7.503 Z-0.015
X-22.492 Y-7.49 Z-0.068
X-22.506 Y-7.489 Z-0.122
X-22.512 Y-7.5 Z-0.176
X-22.505 Y-7.511 Z-0.229
X-22.492 Y-7.51 Z-0.283
X-22.488 Y-7.497 Z-0.337
X-22.497 Y-7.488 Z-0.39
X-22.51 Y-7.492 Z-0.444
X-22.511 Y-7.506 Z-0.498
X-22.5 Y-7.512 Z-0.551
X-22.489 Y-7.505 Z-0.605
X-22.49 Y-7.492 Z-0.659
X-22.503 Y-7.488 Z-0.712
X-22.512 Y-7.498 Z-0.766
X-22.507 Y-7.51 Z-0.82
X-22.494 Y-7.511 Z-0.873
X-22.488 Y-7.5 Z-0.927
X-22.495 Y-7.489 Z-0.98
X-22.508 Y-7.491 Z-1.034
X-22.512 Y-7.503 Z-1.088
X-22.502 Y-7.512 Z-1.141
X-22.49 Y-7.507 Z-1.195
X-22.489 Y-7.494 Z-1.249
X-22.501 Y-7.488 Z-1.302
X-22.512 Y-7.495 Z-1.356
X-22.509 Y-7.508 Z-1.41
X-22.497 Y-7.512 Z-1.463
X-22.488 Y-7.502 Z-1.517
X-22.493 Y-7.49 Z-1.571
X-22.506 Y-7.489 Z-1.624
X-22.512 Y-7.501 Z-1.678
X-22.505 Y-7.512 Z-1.732
X-22.492 Y-7.509 Z-1.785
X-22.488 Y-7.496 Z-1.839
X-22.498 Y-7.488 Z-1.893
X-22.51 Y-7.493 Z-1.946
X-22.511 Y-7.506 Z-2
G3 X-22.489 Y-7.494 I0.011 J0.006
X-22.511 Y-7.506 I-0.011 J-0.006
G1 X-22.502 Y-7.509
X-22.5 Y-7.5
G0 Z10
X-34.682 Y-4.881
Z2.2
G1 Z0.517 F1000
G19 G3 Y-4.564 Z0.2 J0.318 K0
G1 Y-4.405
G17 G3 X-35 Y-4.088 I-0.318 J0
X-35 Y-10.912 Z0.05 I0 J-3.412
X-35 Y-4.088 Z-0.1 I0 J3.412
X-35 Y-10.912 Z-0.25 I0 J-3.412
X-35 Y-4.088 Z-0.4 I0 J3.412
X-35 Y-10.912 Z-0.55 I0 J-3.412
X-35 Y-4.088 Z-0.7 I0 J3.412
X-35 Y-10.912 Z-0.85 I0 J-3.412
X-35 Y-4.088 Z-1 I0 J3.412
X-35 Y-10.912 Z-1.15 I0 J-3.412
X-35 Y-4.088 Z-1.3 I0 J3.412
X-35 Y-10.912 Z-1.45 I0 J-3.412
X-35 Y-4.088 Z-1.6 I0 J3.412
X-35 Y-10.912 Z-1.75 I0 J-3.412
X-35 Y-4.088 Z-1.9 I0 J3.412
X-37.955 Y-9.206 Z-2 I0 J-3.412
X-32.045 Y-5.794 I2.955 J1.706
X-37.955 Y-9.206 I-2.955 J-1.706
X-37.522 Y-9.322 I0.275 J0.159
G1 X-37.384 Y-9.243
X-37.323 Y-9.208 Z-1.992
X-37.265 Y-9.174 Z-1.969
X-37.213 Y-9.144 Z-1.931
X-37.169 Y-9.119 Z-1.88
X-37.136 Y-9.1 Z-1.82
X-37.116 Y-9.088 Z-1.753
X-37.109 Y-9.084 Z-1.683
G0 Z15

(Bohrfrasen3)
X-35 Y-7.5
Z15
Z-11.8
G1 Z-13.8 F1000
X-34.682 Y-4.405
G3 X-35 Y-4.088 I-0.318 J0
X-35 Y-10.912 Z-13.95 I0 J-3.412
X-35 Y-4.088 Z-14.1 I0 J3.412
X-35 Y-10.912 Z-14.25 I0 J-3.412
X-35 Y-4.088 Z-14.4 I0 J3.412
X-35 Y-10.912 Z-14.55 I0 J-3.412
X-35 Y-4.088 Z-14.7 I0 J3.412
X-35 Y-10.912 Z-14.85 I0 J-3.412
X-35 Y-4.088 Z-15 I0 J3.412
X-35 Y-10.912 Z-15.15 I0 J-3.412
X-35 Y-4.088 Z-15.3 I0 J3.412
X-35 Y-10.912 Z-15.45 I0 J-3.412
X-35 Y-4.088 Z-15.6 I0 J3.412
X-35 Y-10.912 Z-15.75 I0 J-3.412
X-35 Y-4.088 Z-15.9 I0 J3.412
X-37.955 Y-9.206 Z-16 I0 J-3.412
X-32.045 Y-5.794 I2.955 J1.706
X-37.955 Y-9.206 I-2.955 J-1.706
X-37.522 Y-9.322 I0.275 J0.159
G1 X-35 Y-7.5
G0 Z10
X-22.5
Z-11.8
G1 Z-13.8 F1000
X-22.494 Y-7.494
X-22.5 Y-7.488
X-22.511 Y-7.495 Z-13.854
X-22.51 Y-7.508 Z-13.907
X-22.497 Y-7.512 Z-13.961
X-22.488 Y-7.503 Z-14.015
X-22.492 Y-7.49 Z-14.068
X-22.506 Y-7.489 Z-14.122
X-22.512 Y-7.5 Z-14.176
X-22.505 Y-7.511 Z-14.229
X-22.492 Y-7.51 Z-14.283
X-22.488 Y-7.497 Z-14.337
X-22.497 Y-7.488 Z-14.39
X-22.51 Y-7.492 Z-14.444
X-22.511 Y-7.506 Z-14.498
X-22.5 Y-7.512 Z-14.551
X-22.489 Y-7.505 Z-14.605
X-22.49 Y-7.492 Z-14.659
X-22.503 Y-7.488 Z-14.712
X-22.512 Y-7.498 Z-14.766
X-22.507 Y-7.51 Z-14.82
X-22.494 Y-7.511 Z-14.873
X-22.488 Y-7.5 Z-14.927
X-22.495 Y-7.489 Z-14.98
X-22.508 Y-7.491 Z-15.034
X-22.512 Y-7.503 Z-15.088
X-22.502 Y-7.512 Z-15.141
X-22.49 Y-7.507 Z-15.195
X-22.489 Y-7.494 Z-15.249
X-22.501 Y-7.488 Z-15.302
X-22.512 Y-7.495 Z-15.356
X-22.509 Y-7.508 Z-15.41
X-22.497 Y-7.512 Z-15.463
X-22.488 Y-7.502 Z-15.517
X-22.493 Y-7.49 Z-15.571
X-22.506 Y-7.489 Z-15.624
X-22.512 Y-7.501 Z-15.678
X-22.505 Y-7.512 Z-15.732
X-22.492 Y-7.509 Z-15.785
X-22.488 Y-7.496 Z-15.839
X-22.498 Y-7.488 Z-15.893
X-22.51 Y-7.493 Z-15.946
X-22.511 Y-7.506 Z-16
G3 X-22.489 Y-7.494 I0.011 J0.006
X-22.511 Y-7.506 I-0.011 J-0.006
G1 X-22.502 Y-7.509
X-22.5 Y-7.5
G0 Z10
X-13
Z-11.8
G1 Z-13.8 F1000
X-12.682 Y-5.405
G3 X-13 Y-5.088 I-0.318 J0
X-13 Y-9.912 Z-13.95 I0 J-2.412
X-13 Y-5.088 Z-14.1 I0 J2.412
X-13 Y-9.912 Z-14.25 I0 J-2.412
X-13 Y-5.088 Z-14.4 I0 J2.412
X-13 Y-9.912 Z-14.55 I0 J-2.412
X-13 Y-5.088 Z-14.7 I0 J2.412
X-13 Y-9.912 Z-14.85 I0 J-2.412
X-13 Y-5.088 Z-15 I0 J2.412
X-13 Y-9.912 Z-15.15 I0 J-2.412
X-13 Y-5.088 Z-15.3 I0 J2.412
X-13 Y-9.912 Z-15.45 I0 J-2.412
X-13 Y-5.088 Z-15.6 I0 J2.412
X-13 Y-9.912 Z-15.75 I0 J-2.412
X-13 Y-5.088 Z-15.9 I0 J2.412
X-15.089 Y-8.706 Z-16 I0 J-2.412
X-10.911 Y-6.294 I2.089 J1.206
X-15.089 Y-8.706 I-2.089 J-1.206
X-14.656 Y-8.822 I0.275 J0.159
G1 X-13 Y-7.5
G0 Z10
X-3.5
Z-11.8
G1 Z-13.8 F1000
X-3.494 Y-7.494
X-3.5 Y-7.488
X-3.511 Y-7.495 Z-13.854
X-3.51 Y-7.508 Z-13.907
X-3.497 Y-7.512 Z-13.961
X-3.488 Y-7.503 Z-14.015
X-3.492 Y-7.49 Z-14.068
X-3.506 Y-7.489 Z-14.122
X-3.512 Y-7.5 Z-14.176
X-3.505 Y-7.511 Z-14.229
X-3.492 Y-7.51 Z-14.283
X-3.488 Y-7.497 Z-14.337
X-3.497 Y-7.488 Z-14.39
X-3.51 Y-7.492 Z-14.444
X-3.511 Y-7.506 Z-14.498
X-3.5 Y-7.512 Z-14.551
X-3.489 Y-7.505 Z-14.605
X-3.49 Y-7.492 Z-14.659
X-3.503 Y-7.488 Z-14.712
X-3.512 Y-7.498 Z-14.766
X-3.507 Y-7.51 Z-14.82
X-3.494 Y-7.511 Z-14.873
X-3.488 Y-7.5 Z-14.927
X-3.495 Y-7.489 Z-14.98
X-3.508 Y-7.491 Z-15.034
X-3.512 Y-7.503 Z-15.088
X-3.502 Y-7.512 Z-15.141
X-3.49 Y-7.507 Z-15.195
X-3.489 Y-7.494 Z-15.249
X-3.501 Y-7.488 Z-15.302
X-3.512 Y-7.495 Z-15.356
X-3.509 Y-7.508 Z-15.41
X-3.497 Y-7.512 Z-15.463
X-3.488 Y-7.502 Z-15.517
X-3.493 Y-7.49 Z-15.571
X-3.506 Y-7.489 Z-15.624
X-3.512 Y-7.501 Z-15.678
X-3.505 Y-7.512 Z-15.732
X-3.492 Y-7.509 Z-15.785
X-3.488 Y-7.496 Z-15.839
X-3.498 Y-7.488 Z-15.893
X-3.51 Y-7.493 Z-15.946
X-3.511 Y-7.506 Z-16
G3 X-3.489 Y-7.494 I0.011 J0.006
X-3.511 Y-7.506 I-0.011 J-0.006
G1 X-3.502 Y-7.509
X-3.5 Y-7.5
G0 Z15
G28 G91 Z0
G90
G28 G91 X0 Y0
G90
M5
M30
