(1001)
(Bearbeiten)
(  Hersteller: ChinaCnc)
(  model: 3040T)
(  description: Generic 3-axis)
(T5  D=3.175 CR=0 - ZMIN=-16 - Schaftfraser)
G90 G94
G17
G21
G28 G91 Z0
G90

(Bohrfrasen1)
T5
S6000 M3
G54
G0 X-381.5 Y-7.5
Z35
Z2.682
G1 Z1 F1000
X-381.494 Y-7.494
X-381.5 Y-7.488
X-381.511 Y-7.495 Z0.946
X-381.51 Y-7.508 Z0.893
X-381.497 Y-7.512 Z0.839
X-381.488 Y-7.503 Z0.786
X-381.492 Y-7.49 Z0.732
X-381.505 Y-7.489 Z0.679
X-381.513 Y-7.5 Z0.625
X-381.505 Y-7.511 Z0.571
X-381.492 Y-7.51 Z0.518
X-381.488 Y-7.497 Z0.464
X-381.497 Y-7.488 Z0.411
X-381.51 Y-7.492 Z0.357
X-381.511 Y-7.505 Z0.304
X-381.5 Y-7.512 Z0.25
X-381.489 Y-7.505 Z0.196
X-381.49 Y-7.492 Z0.143
X-381.503 Y-7.488 Z0.089
X-381.512 Y-7.497 Z0.036
X-381.508 Y-7.51 Z-0.018
X-381.495 Y-7.511 Z-0.071
X-381.487 Y-7.5 Z-0.125
X-381.495 Y-7.489 Z-0.179
X-381.508 Y-7.49 Z-0.232
X-381.512 Y-7.503 Z-0.286
X-381.503 Y-7.512 Z-0.339
X-381.49 Y-7.508 Z-0.393
X-381.489 Y-7.495 Z-0.446
X-381.5 Y-7.488 Z-0.5
X-381.511 Y-7.495 Z-0.554
X-381.51 Y-7.508 Z-0.607
X-381.497 Y-7.512 Z-0.661
X-381.488 Y-7.503 Z-0.714
X-381.492 Y-7.49 Z-0.768
X-381.505 Y-7.489 Z-0.821
X-381.513 Y-7.5 Z-0.875
X-381.505 Y-7.511 Z-0.929
X-381.492 Y-7.51 Z-0.982
X-381.488 Y-7.497 Z-1.036
X-381.497 Y-7.488 Z-1.089
X-381.51 Y-7.492 Z-1.143
X-381.511 Y-7.505 Z-1.196
X-381.5 Y-7.512 Z-1.25
X-381.489 Y-7.505 Z-1.304
X-381.49 Y-7.492 Z-1.357
X-381.503 Y-7.488 Z-1.411
X-381.512 Y-7.497 Z-1.464
X-381.508 Y-7.51 Z-1.518
X-381.495 Y-7.511 Z-1.571
X-381.487 Y-7.5 Z-1.625
X-381.495 Y-7.489 Z-1.679
X-381.508 Y-7.49 Z-1.732
X-381.512 Y-7.503 Z-1.786
X-381.503 Y-7.512 Z-1.839
X-381.49 Y-7.508 Z-1.893
X-381.489 Y-7.495 Z-1.946
X-381.5 Y-7.488 Z-2
G3 X-381.5 Y-7.512 I0 J-0.012
X-381.5 Y-7.488 I0 J0.012
G1 X-381.506 Y-7.494
X-381.5 Y-7.5
G0 Z30
X-371.682 Y-5.881
Z3
G1 Z1.317 F1000
G19 G3 Y-5.564 Z1 J0.318 K0
G1 Y-5.405
G17 G3 X-372 Y-5.088 I-0.318 J0
X-372 Y-9.912 Z0.85 I0 J-2.412
X-372 Y-5.088 Z0.7 I0 J2.412
X-372 Y-9.912 Z0.55 I0 J-2.412
X-372 Y-5.088 Z0.4 I0 J2.412
X-372 Y-9.912 Z0.25 I0 J-2.412
X-372 Y-5.088 Z0.1 I0 J2.412
X-372 Y-9.912 Z-0.05 I0 J-2.412
X-372 Y-5.088 Z-0.2 I0 J2.412
X-372 Y-9.912 Z-0.35 I0 J-2.412
X-372 Y-5.088 Z-0.5 I0 J2.412
X-372 Y-9.912 Z-0.65 I0 J-2.412
X-372 Y-5.088 Z-0.8 I0 J2.412
X-372 Y-9.912 Z-0.95 I0 J-2.412
X-372 Y-5.088 Z-1.1 I0 J2.412
X-372 Y-9.912 Z-1.25 I0 J-2.412
X-372 Y-5.088 Z-1.4 I0 J2.412
X-372 Y-9.912 Z-1.55 I0 J-2.412
X-372 Y-5.088 Z-1.7 I0 J2.412
X-372 Y-9.912 Z-1.85 I0 J-2.412
X-372 Y-5.088 Z-2 I0 J2.412
X-372 Y-9.912 I0 J-2.412
X-372 Y-5.088 I0 J2.412
X-372.318 Y-5.405 I0 J-0.318
G1 Y-5.564
G19 G2 Y-5.881 Z-1.683 J0 K0.317
G0 Z30
X-362.5 Y-7.5
Z2.682
G1 Z1 F1000
X-362.494 Y-7.494
X-362.5 Y-7.488
X-362.511 Y-7.495 Z0.946
X-362.51 Y-7.508 Z0.893
X-362.497 Y-7.512 Z0.839
X-362.488 Y-7.503 Z0.786
X-362.492 Y-7.49 Z0.732
X-362.505 Y-7.489 Z0.679
X-362.513 Y-7.5 Z0.625
X-362.505 Y-7.511 Z0.571
X-362.492 Y-7.51 Z0.518
X-362.488 Y-7.497 Z0.464
X-362.497 Y-7.488 Z0.411
X-362.51 Y-7.492 Z0.357
X-362.511 Y-7.505 Z0.304
X-362.5 Y-7.512 Z0.25
X-362.489 Y-7.505 Z0.196
X-362.49 Y-7.492 Z0.143
X-362.503 Y-7.488 Z0.089
X-362.512 Y-7.497 Z0.036
X-362.508 Y-7.51 Z-0.018
X-362.495 Y-7.511 Z-0.071
X-362.487 Y-7.5 Z-0.125
X-362.495 Y-7.489 Z-0.179
X-362.508 Y-7.49 Z-0.232
X-362.512 Y-7.503 Z-0.286
X-362.503 Y-7.512 Z-0.339
X-362.49 Y-7.508 Z-0.393
X-362.489 Y-7.495 Z-0.446
X-362.5 Y-7.488 Z-0.5
X-362.511 Y-7.495 Z-0.554
X-362.51 Y-7.508 Z-0.607
X-362.497 Y-7.512 Z-0.661
X-362.488 Y-7.503 Z-0.714
X-362.492 Y-7.49 Z-0.768
X-362.505 Y-7.489 Z-0.821
X-362.513 Y-7.5 Z-0.875
X-362.505 Y-7.511 Z-0.929
X-362.492 Y-7.51 Z-0.982
X-362.488 Y-7.497 Z-1.036
X-362.497 Y-7.488 Z-1.089
X-362.51 Y-7.492 Z-1.143
X-362.511 Y-7.505 Z-1.196
X-362.5 Y-7.512 Z-1.25
X-362.489 Y-7.505 Z-1.304
X-362.49 Y-7.492 Z-1.357
X-362.503 Y-7.488 Z-1.411
X-362.512 Y-7.497 Z-1.464
X-362.508 Y-7.51 Z-1.518
X-362.495 Y-7.511 Z-1.571
X-362.487 Y-7.5 Z-1.625
X-362.495 Y-7.489 Z-1.679
X-362.508 Y-7.49 Z-1.732
X-362.512 Y-7.503 Z-1.786
X-362.503 Y-7.512 Z-1.839
X-362.49 Y-7.508 Z-1.893
X-362.489 Y-7.495 Z-1.946
X-362.5 Y-7.488 Z-2
G17 G3 X-362.5 Y-7.512 I0 J-0.012
X-362.5 Y-7.488 I0 J0.012
G1 X-362.506 Y-7.494
X-362.5 Y-7.5
G0 Z30
X-349.682 Y-4.881
Z3
G1 Z1.317 F1000
G19 G3 Y-4.564 Z1 J0.318 K0
G1 Y-4.405
G17 G3 X-350 Y-4.088 I-0.318 J0
X-350 Y-10.912 Z0.85 I0 J-3.412
X-350 Y-4.088 Z0.7 I0 J3.412
X-350 Y-10.912 Z0.55 I0 J-3.412
X-350 Y-4.088 Z0.4 I0 J3.412
X-350 Y-10.912 Z0.25 I0 J-3.412
X-350 Y-4.088 Z0.1 I0 J3.412
X-350 Y-10.912 Z-0.05 I0 J-3.412
X-350 Y-4.088 Z-0.2 I0 J3.412
X-350 Y-10.912 Z-0.35 I0 J-3.412
X-350 Y-4.088 Z-0.5 I0 J3.412
X-350 Y-10.912 Z-0.65 I0 J-3.412
X-350 Y-4.088 Z-0.8 I0 J3.412
X-350 Y-10.912 Z-0.95 I0 J-3.412
X-350 Y-4.088 Z-1.1 I0 J3.412
X-350 Y-10.912 Z-1.25 I0 J-3.412
X-350 Y-4.088 Z-1.4 I0 J3.412
X-350 Y-10.912 Z-1.55 I0 J-3.412
X-350 Y-4.088 Z-1.7 I0 J3.412
X-350 Y-10.912 Z-1.85 I0 J-3.412
X-350 Y-4.088 Z-2 I0 J3.412
X-350 Y-10.912 I0 J-3.412
X-350 Y-4.088 I0 J3.412
X-350.318 Y-4.405 I0 J-0.318
G1 Y-4.564
G19 G2 Y-4.881 Z-1.683 J0 K0.317
G0 Z30
X-232.182
Z3
G1 Z1.317 F1000
G3 Y-4.564 Z1 J0.318 K0
G1 Y-4.405
G17 G3 X-232.5 Y-4.088 I-0.318 J0
X-232.5 Y-10.912 Z0.85 I0 J-3.412
X-232.5 Y-4.088 Z0.7 I0 J3.412
X-232.5 Y-10.912 Z0.55 I0 J-3.412
X-232.5 Y-4.088 Z0.4 I0 J3.412
X-232.5 Y-10.912 Z0.25 I0 J-3.412
X-232.5 Y-4.088 Z0.1 I0 J3.412
X-232.5 Y-10.912 Z-0.05 I0 J-3.412
X-232.5 Y-4.088 Z-0.2 I0 J3.412
X-232.5 Y-10.912 Z-0.35 I0 J-3.412
X-232.5 Y-4.088 Z-0.5 I0 J3.412
X-232.5 Y-10.912 Z-0.65 I0 J-3.412
X-232.5 Y-4.088 Z-0.8 I0 J3.412
X-232.5 Y-10.912 Z-0.95 I0 J-3.412
X-232.5 Y-4.088 Z-1.1 I0 J3.412
X-232.5 Y-10.912 Z-1.25 I0 J-3.412
X-232.5 Y-4.088 Z-1.4 I0 J3.412
X-232.5 Y-10.912 Z-1.55 I0 J-3.412
X-232.5 Y-4.088 Z-1.7 I0 J3.412
X-232.5 Y-10.912 Z-1.85 I0 J-3.412
X-232.5 Y-4.088 Z-2 I0 J3.412
X-232.5 Y-10.912 I0 J-3.412
X-232.5 Y-4.088 I0 J3.412
X-232.818 Y-4.405 I0 J-0.318
G1 Y-4.564
G19 G2 Y-4.881 Z-1.683 J0 K0.317
G0 Z30
X-214.067 Y-7.5
Z2.682
G1 Z1 F1000
X-214.061 Y-7.494
X-214.067 Y-7.488
X-214.078 Y-7.495 Z0.946
X-214.077 Y-7.508 Z0.893
X-214.064 Y-7.512 Z0.839
X-214.055 Y-7.503 Z0.786
X-214.059 Y-7.49 Z0.732
X-214.072 Y-7.489 Z0.679
X-214.079 Y-7.5 Z0.625
X-214.072 Y-7.511 Z0.571
X-214.059 Y-7.51 Z0.518
X-214.055 Y-7.497 Z0.464
X-214.064 Y-7.488 Z0.411
X-214.077 Y-7.492 Z0.357
X-214.078 Y-7.505 Z0.304
X-214.067 Y-7.512 Z0.25
X-214.056 Y-7.505 Z0.196
X-214.057 Y-7.492 Z0.143
X-214.07 Y-7.488 Z0.089
X-214.079 Y-7.497 Z0.036
X-214.075 Y-7.51 Z-0.018
X-214.061 Y-7.511 Z-0.071
X-214.054 Y-7.5 Z-0.125
X-214.061 Y-7.489 Z-0.179
X-214.075 Y-7.49 Z-0.232
X-214.079 Y-7.503 Z-0.286
X-214.07 Y-7.512 Z-0.339
X-214.057 Y-7.508 Z-0.393
X-214.055 Y-7.495 Z-0.446
X-214.067 Y-7.487 Z-0.5
X-214.078 Y-7.495 Z-0.554
X-214.077 Y-7.508 Z-0.607
X-214.064 Y-7.512 Z-0.661
X-214.055 Y-7.503 Z-0.714
X-214.059 Y-7.49 Z-0.768
X-214.072 Y-7.489 Z-0.821
X-214.079 Y-7.5 Z-0.875
X-214.072 Y-7.511 Z-0.929
X-214.059 Y-7.51 Z-0.982
X-214.055 Y-7.497 Z-1.036
X-214.064 Y-7.488 Z-1.089
X-214.077 Y-7.492 Z-1.143
X-214.078 Y-7.505 Z-1.196
X-214.067 Y-7.512 Z-1.25
X-214.056 Y-7.505 Z-1.304
X-214.057 Y-7.492 Z-1.357
X-214.07 Y-7.488 Z-1.411
X-214.079 Y-7.497 Z-1.464
X-214.075 Y-7.51 Z-1.518
X-214.061 Y-7.511 Z-1.571
X-214.054 Y-7.5 Z-1.625
X-214.061 Y-7.489 Z-1.679
X-214.075 Y-7.49 Z-1.732
X-214.079 Y-7.503 Z-1.786
X-214.07 Y-7.512 Z-1.839
X-214.057 Y-7.508 Z-1.893
X-214.055 Y-7.495 Z-1.946
X-214.067 Y-7.488 Z-2
G17 G3 X-214.067 Y-7.512 I0 J-0.012
X-214.067 Y-7.488 I0 J0.012
G1 X-214.073 Y-7.494
X-214.067 Y-7.5
G0 Z30
X-170.933
Z2.682
G1 Z1 F1000
X-170.927 Y-7.494
X-170.933 Y-7.488
X-170.945 Y-7.495 Z0.946
X-170.943 Y-7.508 Z0.893
X-170.93 Y-7.512 Z0.839
X-170.921 Y-7.503 Z0.786
X-170.925 Y-7.49 Z0.732
X-170.939 Y-7.489 Z0.679
X-170.946 Y-7.5 Z0.625
X-170.939 Y-7.511 Z0.571
X-170.925 Y-7.51 Z0.518
X-170.921 Y-7.497 Z0.464
X-170.93 Y-7.488 Z0.411
X-170.943 Y-7.492 Z0.357
X-170.944 Y-7.505 Z0.304
X-170.933 Y-7.512 Z0.25
X-170.922 Y-7.505 Z0.196
X-170.923 Y-7.492 Z0.143
X-170.936 Y-7.488 Z0.089
X-170.945 Y-7.497 Z0.036
X-170.941 Y-7.51 Z-0.018
X-170.928 Y-7.511 Z-0.071
X-170.921 Y-7.5 Z-0.125
X-170.928 Y-7.489 Z-0.179
X-170.941 Y-7.49 Z-0.232
X-170.945 Y-7.503 Z-0.286
X-170.936 Y-7.512 Z-0.339
X-170.923 Y-7.508 Z-0.393
X-170.922 Y-7.495 Z-0.446
X-170.933 Y-7.487 Z-0.5
X-170.945 Y-7.495 Z-0.554
X-170.943 Y-7.508 Z-0.607
X-170.93 Y-7.512 Z-0.661
X-170.921 Y-7.503 Z-0.714
X-170.925 Y-7.49 Z-0.768
X-170.939 Y-7.489 Z-0.821
X-170.946 Y-7.5 Z-0.875
X-170.939 Y-7.511 Z-0.929
X-170.925 Y-7.51 Z-0.982
X-170.921 Y-7.497 Z-1.036
X-170.93 Y-7.488 Z-1.089
X-170.943 Y-7.492 Z-1.143
X-170.944 Y-7.505 Z-1.196
X-170.933 Y-7.512 Z-1.25
X-170.922 Y-7.505 Z-1.304
X-170.923 Y-7.492 Z-1.357
X-170.936 Y-7.488 Z-1.411
X-170.945 Y-7.497 Z-1.464
X-170.941 Y-7.51 Z-1.518
X-170.928 Y-7.511 Z-1.571
X-170.921 Y-7.5 Z-1.625
X-170.928 Y-7.489 Z-1.679
X-170.941 Y-7.49 Z-1.732
X-170.945 Y-7.503 Z-1.786
X-170.936 Y-7.512 Z-1.839
X-170.923 Y-7.508 Z-1.893
X-170.922 Y-7.495 Z-1.946
X-170.933 Y-7.488 Z-2
G3 X-170.933 Y-7.512 I0 J-0.012
X-170.933 Y-7.488 I0 J0.012
G1 X-170.939 Y-7.494
X-170.933 Y-7.5
G0 Z30
X-152.182 Y-4.881
Z3
G1 Z1.317 F1000
G19 G3 Y-4.564 Z1 J0.318 K0
G1 Y-4.405
G17 G3 X-152.5 Y-4.088 I-0.318 J0
X-152.5 Y-10.912 Z0.85 I0 J-3.412
X-152.5 Y-4.088 Z0.7 I0 J3.412
X-152.5 Y-10.912 Z0.55 I0 J-3.412
X-152.5 Y-4.088 Z0.4 I0 J3.412
X-152.5 Y-10.912 Z0.25 I0 J-3.412
X-152.5 Y-4.088 Z0.1 I0 J3.412
X-152.5 Y-10.912 Z-0.05 I0 J-3.412
X-152.5 Y-4.088 Z-0.2 I0 J3.412
X-152.5 Y-10.912 Z-0.35 I0 J-3.412
X-152.5 Y-4.088 Z-0.5 I0 J3.412
X-152.5 Y-10.912 Z-0.65 I0 J-3.412
X-152.5 Y-4.088 Z-0.8 I0 J3.412
X-152.5 Y-10.912 Z-0.95 I0 J-3.412
X-152.5 Y-4.088 Z-1.1 I0 J3.412
X-152.5 Y-10.912 Z-1.25 I0 J-3.412
X-152.5 Y-4.088 Z-1.4 I0 J3.412
X-152.5 Y-10.912 Z-1.55 I0 J-3.412
X-152.5 Y-4.088 Z-1.7 I0 J3.412
X-152.5 Y-10.912 Z-1.85 I0 J-3.412
X-152.5 Y-4.088 Z-2 I0 J3.412
X-152.5 Y-10.912 I0 J-3.412
X-152.5 Y-4.088 I0 J3.412
X-152.818 Y-4.405 I0 J-0.318
G1 Y-4.564
G19 G2 Y-4.881 Z-1.683 J0 K0.317
G0 Z30
X-34.682
Z3
G1 Z1.317 F1000
G3 Y-4.564 Z1 J0.318 K0
G1 Y-4.405
G17 G3 X-35 Y-4.088 I-0.318 J0
X-35 Y-10.912 Z0.85 I0 J-3.412
X-35 Y-4.088 Z0.7 I0 J3.412
X-35 Y-10.912 Z0.55 I0 J-3.412
X-35 Y-4.088 Z0.4 I0 J3.412
X-35 Y-10.912 Z0.25 I0 J-3.412
X-35 Y-4.088 Z0.1 I0 J3.412
X-35 Y-10.912 Z-0.05 I0 J-3.412
X-35 Y-4.088 Z-0.2 I0 J3.412
X-35 Y-10.912 Z-0.35 I0 J-3.412
X-35 Y-4.088 Z-0.5 I0 J3.412
X-35 Y-10.912 Z-0.65 I0 J-3.412
X-35 Y-4.088 Z-0.8 I0 J3.412
X-35 Y-10.912 Z-0.95 I0 J-3.412
X-35 Y-4.088 Z-1.1 I0 J3.412
X-35 Y-10.912 Z-1.25 I0 J-3.412
X-35 Y-4.088 Z-1.4 I0 J3.412
X-35 Y-10.912 Z-1.55 I0 J-3.412
X-35 Y-4.088 Z-1.7 I0 J3.412
X-35 Y-10.912 Z-1.85 I0 J-3.412
X-35 Y-4.088 Z-2 I0 J3.412
X-35 Y-10.912 I0 J-3.412
X-35 Y-4.088 I0 J3.412
X-35.318 Y-4.405 I0 J-0.318
G1 Y-4.564
G19 G2 Y-4.881 Z-1.683 J0 K0.317
G0 Z30
X-22.5 Y-7.5
Z2.682
G1 Z1 F1000
X-22.494 Y-7.494
X-22.5 Y-7.488
X-22.511 Y-7.495 Z0.945
X-22.509 Y-7.508 Z0.891
X-22.496 Y-7.512 Z0.836
X-22.488 Y-7.502 Z0.782
X-22.493 Y-7.489 Z0.727
X-22.507 Z0.673
X-22.512 Y-7.502 Z0.618
X-22.504 Y-7.512 Z0.564
X-22.491 Y-7.508 Z0.509
X-22.489 Y-7.495 Z0.455
X-22.5 Y-7.488 Z0.4
X-22.511 Y-7.495 Z0.345
X-22.509 Y-7.508 Z0.291
X-22.496 Y-7.512 Z0.236
X-22.488 Y-7.502 Z0.182
X-22.493 Y-7.489 Z0.127
X-22.507 Z0.073
X-22.512 Y-7.502 Z0.018
X-22.504 Y-7.512 Z-0.036
X-22.491 Y-7.508 Z-0.091
X-22.489 Y-7.495 Z-0.145
X-22.5 Y-7.488 Z-0.2
X-22.511 Y-7.495 Z-0.255
X-22.509 Y-7.508 Z-0.309
X-22.496 Y-7.512 Z-0.364
X-22.488 Y-7.502 Z-0.418
X-22.493 Y-7.489 Z-0.473
X-22.507 Z-0.527
X-22.512 Y-7.502 Z-0.582
X-22.504 Y-7.512 Z-0.636
X-22.491 Y-7.508 Z-0.691
X-22.489 Y-7.495 Z-0.745
X-22.5 Y-7.488 Z-0.8
X-22.511 Y-7.495 Z-0.855
X-22.509 Y-7.508 Z-0.909
X-22.496 Y-7.512 Z-0.964
X-22.488 Y-7.502 Z-1.018
X-22.493 Y-7.489 Z-1.073
X-22.507 Z-1.127
X-22.512 Y-7.502 Z-1.182
X-22.504 Y-7.512 Z-1.236
X-22.491 Y-7.508 Z-1.291
X-22.489 Y-7.495 Z-1.345
X-22.5 Y-7.488 Z-1.4
X-22.511 Y-7.495 Z-1.455
X-22.509 Y-7.508 Z-1.509
X-22.496 Y-7.512 Z-1.564
X-22.488 Y-7.502 Z-1.618
X-22.493 Y-7.489 Z-1.673
X-22.507 Z-1.727
X-22.512 Y-7.502 Z-1.782
X-22.504 Y-7.512 Z-1.836
X-22.491 Y-7.508 Z-1.891
X-22.489 Y-7.495 Z-1.945
X-22.5 Y-7.488 Z-2
G17 G3 X-22.5 Y-7.512 I0 J-0.012
X-22.5 Y-7.488 I0 J0.012
G1 X-22.506 Y-7.494
X-22.5 Y-7.5
G0 Z30
X-12.682 Y-5.881
Z3
G1 Z1.317 F1000
G19 G3 Y-5.564 Z1 J0.318 K0
G1 Y-5.405
G17 G3 X-13 Y-5.088 I-0.318 J0
X-13 Y-9.912 Z0.85 I0 J-2.412
X-13 Y-5.088 Z0.7 I0 J2.412
X-13 Y-9.912 Z0.55 I0 J-2.412
X-13 Y-5.088 Z0.4 I0 J2.412
X-13 Y-9.912 Z0.25 I0 J-2.412
X-13 Y-5.088 Z0.1 I0 J2.412
X-13 Y-9.912 Z-0.05 I0 J-2.412
X-13 Y-5.088 Z-0.2 I0 J2.412
X-13 Y-9.912 Z-0.35 I0 J-2.412
X-13 Y-5.088 Z-0.5 I0 J2.412
X-13 Y-9.912 Z-0.65 I0 J-2.412
X-13 Y-5.088 Z-0.8 I0 J2.412
X-13 Y-9.912 Z-0.95 I0 J-2.412
X-13 Y-5.088 Z-1.1 I0 J2.412
X-13 Y-9.912 Z-1.25 I0 J-2.412
X-13 Y-5.088 Z-1.4 I0 J2.412
X-13 Y-9.912 Z-1.55 I0 J-2.412
X-13 Y-5.088 Z-1.7 I0 J2.412
X-13 Y-9.912 Z-1.85 I0 J-2.412
X-13 Y-5.088 Z-2 I0 J2.412
X-13 Y-9.912 I0 J-2.412
X-13 Y-5.088 I0 J2.412
X-13.318 Y-5.405 I0 J-0.318
G1 Y-5.564
G19 G2 Y-5.881 Z-1.683 J0 K0.317
G0 Z30
X-3.5 Y-7.5
Z2.682
G1 Z1 F1000
X-3.494 Y-7.494
X-3.5 Y-7.488
X-3.511 Y-7.495 Z0.945
X-3.509 Y-7.508 Z0.891
X-3.496 Y-7.512 Z0.836
X-3.488 Y-7.502 Z0.782
X-3.493 Y-7.489 Z0.727
X-3.507 Z0.673
X-3.512 Y-7.502 Z0.618
X-3.504 Y-7.512 Z0.564
X-3.491 Y-7.508 Z0.509
X-3.489 Y-7.495 Z0.455
X-3.5 Y-7.488 Z0.4
X-3.511 Y-7.495 Z0.345
X-3.509 Y-7.508 Z0.291
X-3.496 Y-7.512 Z0.236
X-3.488 Y-7.502 Z0.182
X-3.493 Y-7.489 Z0.127
X-3.507 Z0.073
X-3.512 Y-7.502 Z0.018
X-3.504 Y-7.512 Z-0.036
X-3.491 Y-7.508 Z-0.091
X-3.489 Y-7.495 Z-0.145
X-3.5 Y-7.488 Z-0.2
X-3.511 Y-7.495 Z-0.255
X-3.509 Y-7.508 Z-0.309
X-3.496 Y-7.512 Z-0.364
X-3.488 Y-7.502 Z-0.418
X-3.493 Y-7.489 Z-0.473
X-3.507 Z-0.527
X-3.512 Y-7.502 Z-0.582
X-3.504 Y-7.512 Z-0.636
X-3.491 Y-7.508 Z-0.691
X-3.489 Y-7.495 Z-0.745
X-3.5 Y-7.488 Z-0.8
X-3.511 Y-7.495 Z-0.855
X-3.509 Y-7.508 Z-0.909
X-3.496 Y-7.512 Z-0.964
X-3.488 Y-7.502 Z-1.018
X-3.493 Y-7.489 Z-1.073
X-3.507 Z-1.127
X-3.512 Y-7.502 Z-1.182
X-3.504 Y-7.512 Z-1.236
X-3.491 Y-7.508 Z-1.291
X-3.489 Y-7.495 Z-1.345
X-3.5 Y-7.488 Z-1.4
X-3.511 Y-7.495 Z-1.455
X-3.509 Y-7.508 Z-1.509
X-3.496 Y-7.512 Z-1.564
X-3.488 Y-7.502 Z-1.618
X-3.493 Y-7.489 Z-1.673
X-3.507 Z-1.727
X-3.512 Y-7.502 Z-1.782
X-3.504 Y-7.512 Z-1.836
X-3.491 Y-7.508 Z-1.891
X-3.489 Y-7.495 Z-1.945
X-3.5 Y-7.488 Z-2
G17 G3 X-3.5 Y-7.512 I0 J-0.012
X-3.5 Y-7.488 I0 J0.012
G1 X-3.506 Y-7.494
X-3.5 Y-7.5
G0 Z35

(Bohrfrasen3)
X-381.5 Y-7.5
Z35
Z-11
G1 Z-13 F1000
X-381.494 Y-7.494
X-381.5 Y-7.488
X-381.511 Y-7.495 Z-13.054
X-381.51 Y-7.508 Z-13.107
X-381.497 Y-7.512 Z-13.161
X-381.488 Y-7.503 Z-13.214
X-381.492 Y-7.49 Z-13.268
X-381.505 Y-7.489 Z-13.321
X-381.513 Y-7.5 Z-13.375
X-381.505 Y-7.511 Z-13.429
X-381.492 Y-7.51 Z-13.482
X-381.488 Y-7.497 Z-13.536
X-381.497 Y-7.488 Z-13.589
X-381.51 Y-7.492 Z-13.643
X-381.511 Y-7.505 Z-13.696
X-381.5 Y-7.512 Z-13.75
X-381.489 Y-7.505 Z-13.804
X-381.49 Y-7.492 Z-13.857
X-381.503 Y-7.488 Z-13.911
X-381.512 Y-7.497 Z-13.964
X-381.508 Y-7.51 Z-14.018
X-381.495 Y-7.511 Z-14.071
X-381.487 Y-7.5 Z-14.125
X-381.495 Y-7.489 Z-14.179
X-381.508 Y-7.49 Z-14.232
X-381.512 Y-7.503 Z-14.286
X-381.503 Y-7.512 Z-14.339
X-381.49 Y-7.508 Z-14.393
X-381.489 Y-7.495 Z-14.446
X-381.5 Y-7.488 Z-14.5
X-381.511 Y-7.495 Z-14.554
X-381.51 Y-7.508 Z-14.607
X-381.497 Y-7.512 Z-14.661
X-381.488 Y-7.503 Z-14.714
X-381.492 Y-7.49 Z-14.768
X-381.505 Y-7.489 Z-14.821
X-381.513 Y-7.5 Z-14.875
X-381.505 Y-7.511 Z-14.929
X-381.492 Y-7.51 Z-14.982
X-381.488 Y-7.497 Z-15.036
X-381.497 Y-7.488 Z-15.089
X-381.51 Y-7.492 Z-15.143
X-381.511 Y-7.505 Z-15.196
X-381.5 Y-7.512 Z-15.25
X-381.489 Y-7.505 Z-15.304
X-381.49 Y-7.492 Z-15.357
X-381.503 Y-7.488 Z-15.411
X-381.512 Y-7.497 Z-15.464
X-381.508 Y-7.51 Z-15.518
X-381.495 Y-7.511 Z-15.571
X-381.487 Y-7.5 Z-15.625
X-381.495 Y-7.489 Z-15.679
X-381.508 Y-7.49 Z-15.732
X-381.512 Y-7.503 Z-15.786
X-381.503 Y-7.512 Z-15.839
X-381.49 Y-7.508 Z-15.893
X-381.489 Y-7.495 Z-15.946
X-381.5 Y-7.488 Z-16
G3 X-381.5 Y-7.512 I0 J-0.012
X-381.5 Y-7.488 I0 J0.012
G1 X-381.506 Y-7.494
X-381.5 Y-7.5
G0 Z30
X-372
Z-11
G1 Z-13 F1000
X-371.682 Y-5.405
G3 X-372 Y-5.088 I-0.318 J0
X-372 Y-9.912 Z-13.15 I0 J-2.412
X-372 Y-5.088 Z-13.3 I0 J2.412
X-372 Y-9.912 Z-13.45 I0 J-2.412
X-372 Y-5.088 Z-13.6 I0 J2.412
X-372 Y-9.912 Z-13.75 I0 J-2.412
X-372 Y-5.088 Z-13.9 I0 J2.412
X-372 Y-9.912 Z-14.05 I0 J-2.412
X-372 Y-5.088 Z-14.2 I0 J2.412
X-372 Y-9.912 Z-14.35 I0 J-2.412
X-372 Y-5.088 Z-14.5 I0 J2.412
X-372 Y-9.912 Z-14.65 I0 J-2.412
X-372 Y-5.088 Z-14.8 I0 J2.412
X-372 Y-9.912 Z-14.95 I0 J-2.412
X-372 Y-5.088 Z-15.1 I0 J2.412
X-372 Y-9.912 Z-15.25 I0 J-2.412
X-372 Y-5.088 Z-15.4 I0 J2.412
X-372 Y-9.912 Z-15.55 I0 J-2.412
X-372 Y-5.088 Z-15.7 I0 J2.412
X-372 Y-9.912 Z-15.85 I0 J-2.412
X-372 Y-5.088 Z-16 I0 J2.412
X-372 Y-9.912 I0 J-2.412
X-372 Y-5.088 I0 J2.412
X-372.318 Y-5.405 I0 J-0.318
G1 X-372 Y-7.5
G0 Z30
X-362.5
Z-11
G1 Z-13 F1000
X-362.494 Y-7.494
X-362.5 Y-7.488
X-362.511 Y-7.495 Z-13.054
X-362.51 Y-7.508 Z-13.107
X-362.497 Y-7.512 Z-13.161
X-362.488 Y-7.503 Z-13.214
X-362.492 Y-7.49 Z-13.268
X-362.505 Y-7.489 Z-13.321
X-362.513 Y-7.5 Z-13.375
X-362.505 Y-7.511 Z-13.429
X-362.492 Y-7.51 Z-13.482
X-362.488 Y-7.497 Z-13.536
X-362.497 Y-7.488 Z-13.589
X-362.51 Y-7.492 Z-13.643
X-362.511 Y-7.505 Z-13.696
X-362.5 Y-7.512 Z-13.75
X-362.489 Y-7.505 Z-13.804
X-362.49 Y-7.492 Z-13.857
X-362.503 Y-7.488 Z-13.911
X-362.512 Y-7.497 Z-13.964
X-362.508 Y-7.51 Z-14.018
X-362.495 Y-7.511 Z-14.071
X-362.487 Y-7.5 Z-14.125
X-362.495 Y-7.489 Z-14.179
X-362.508 Y-7.49 Z-14.232
X-362.512 Y-7.503 Z-14.286
X-362.503 Y-7.512 Z-14.339
X-362.49 Y-7.508 Z-14.393
X-362.489 Y-7.495 Z-14.446
X-362.5 Y-7.488 Z-14.5
X-362.511 Y-7.495 Z-14.554
X-362.51 Y-7.508 Z-14.607
X-362.497 Y-7.512 Z-14.661
X-362.488 Y-7.503 Z-14.714
X-362.492 Y-7.49 Z-14.768
X-362.505 Y-7.489 Z-14.821
X-362.513 Y-7.5 Z-14.875
X-362.505 Y-7.511 Z-14.929
X-362.492 Y-7.51 Z-14.982
X-362.488 Y-7.497 Z-15.036
X-362.497 Y-7.488 Z-15.089
X-362.51 Y-7.492 Z-15.143
X-362.511 Y-7.505 Z-15.196
X-362.5 Y-7.512 Z-15.25
X-362.489 Y-7.505 Z-15.304
X-362.49 Y-7.492 Z-15.357
X-362.503 Y-7.488 Z-15.411
X-362.512 Y-7.497 Z-15.464
X-362.508 Y-7.51 Z-15.518
X-362.495 Y-7.511 Z-15.571
X-362.487 Y-7.5 Z-15.625
X-362.495 Y-7.489 Z-15.679
X-362.508 Y-7.49 Z-15.732
X-362.512 Y-7.503 Z-15.786
X-362.503 Y-7.512 Z-15.839
X-362.49 Y-7.508 Z-15.893
X-362.489 Y-7.495 Z-15.946
X-362.5 Y-7.488 Z-16
G3 X-362.5 Y-7.512 I0 J-0.012
X-362.5 Y-7.488 I0 J0.012
G1 X-362.506 Y-7.494
X-362.5 Y-7.5
G0 Z30
X-350
Z-11
G1 Z-13 F1000
X-349.682 Y-4.405
G3 X-350 Y-4.088 I-0.318 J0
X-350 Y-10.912 Z-13.15 I0 J-3.412
X-350 Y-4.088 Z-13.3 I0 J3.412
X-350 Y-10.912 Z-13.45 I0 J-3.412
X-350 Y-4.088 Z-13.6 I0 J3.412
X-350 Y-10.912 Z-13.75 I0 J-3.412
X-350 Y-4.088 Z-13.9 I0 J3.412
X-350 Y-10.912 Z-14.05 I0 J-3.412
X-350 Y-4.088 Z-14.2 I0 J3.412
X-350 Y-10.912 Z-14.35 I0 J-3.412
X-350 Y-4.088 Z-14.5 I0 J3.412
X-350 Y-10.912 Z-14.65 I0 J-3.412
X-350 Y-4.088 Z-14.8 I0 J3.412
X-350 Y-10.912 Z-14.95 I0 J-3.412
X-350 Y-4.088 Z-15.1 I0 J3.412
X-350 Y-10.912 Z-15.25 I0 J-3.412
X-350 Y-4.088 Z-15.4 I0 J3.412
X-350 Y-10.912 Z-15.55 I0 J-3.412
X-350 Y-4.088 Z-15.7 I0 J3.412
X-350 Y-10.912 Z-15.85 I0 J-3.412
X-350 Y-4.088 Z-16 I0 J3.412
X-350 Y-10.912 I0 J-3.412
X-350 Y-4.088 I0 J3.412
X-350.318 Y-4.405 I0 J-0.318
G1 X-350 Y-7.5
G0 Z30
X-232.5
Z-11
G1 Z-13 F1000
X-232.182 Y-4.405
G3 X-232.5 Y-4.088 I-0.318 J0
X-232.5 Y-10.912 Z-13.15 I0 J-3.412
X-232.5 Y-4.088 Z-13.3 I0 J3.412
X-232.5 Y-10.912 Z-13.45 I0 J-3.412
X-232.5 Y-4.088 Z-13.6 I0 J3.412
X-232.5 Y-10.912 Z-13.75 I0 J-3.412
X-232.5 Y-4.088 Z-13.9 I0 J3.412
X-232.5 Y-10.912 Z-14.05 I0 J-3.412
X-232.5 Y-4.088 Z-14.2 I0 J3.412
X-232.5 Y-10.912 Z-14.35 I0 J-3.412
X-232.5 Y-4.088 Z-14.5 I0 J3.412
X-232.5 Y-10.912 Z-14.65 I0 J-3.412
X-232.5 Y-4.088 Z-14.8 I0 J3.412
X-232.5 Y-10.912 Z-14.95 I0 J-3.412
X-232.5 Y-4.088 Z-15.1 I0 J3.412
X-232.5 Y-10.912 Z-15.25 I0 J-3.412
X-232.5 Y-4.088 Z-15.4 I0 J3.412
X-232.5 Y-10.912 Z-15.55 I0 J-3.412
X-232.5 Y-4.088 Z-15.7 I0 J3.412
X-232.5 Y-10.912 Z-15.85 I0 J-3.412
X-232.5 Y-4.088 Z-16 I0 J3.412
X-232.5 Y-10.912 I0 J-3.412
X-232.5 Y-4.088 I0 J3.412
X-232.818 Y-4.405 I0 J-0.318
G1 X-232.5 Y-7.5
G0 Z30
X-214.067
Z-11
G1 Z-13 F1000
X-214.061 Y-7.494
X-214.067 Y-7.488
X-214.078 Y-7.495 Z-13.054
X-214.077 Y-7.508 Z-13.107
X-214.064 Y-7.512 Z-13.161
X-214.055 Y-7.503 Z-13.214
X-214.059 Y-7.49 Z-13.268
X-214.072 Y-7.489 Z-13.321
X-214.079 Y-7.5 Z-13.375
X-214.072 Y-7.511 Z-13.429
X-214.059 Y-7.51 Z-13.482
X-214.055 Y-7.497 Z-13.536
X-214.064 Y-7.488 Z-13.589
X-214.077 Y-7.492 Z-13.643
X-214.078 Y-7.505 Z-13.696
X-214.067 Y-7.512 Z-13.75
X-214.056 Y-7.505 Z-13.804
X-214.057 Y-7.492 Z-13.857
X-214.07 Y-7.488 Z-13.911
X-214.079 Y-7.497 Z-13.964
X-214.075 Y-7.51 Z-14.018
X-214.061 Y-7.511 Z-14.071
X-214.054 Y-7.5 Z-14.125
X-214.061 Y-7.489 Z-14.179
X-214.075 Y-7.49 Z-14.232
X-214.079 Y-7.503 Z-14.286
X-214.07 Y-7.512 Z-14.339
X-214.057 Y-7.508 Z-14.393
X-214.055 Y-7.495 Z-14.446
X-214.067 Y-7.487 Z-14.5
X-214.078 Y-7.495 Z-14.554
X-214.077 Y-7.508 Z-14.607
X-214.064 Y-7.512 Z-14.661
X-214.055 Y-7.503 Z-14.714
X-214.059 Y-7.49 Z-14.768
X-214.072 Y-7.489 Z-14.821
X-214.079 Y-7.5 Z-14.875
X-214.072 Y-7.511 Z-14.929
X-214.059 Y-7.51 Z-14.982
X-214.055 Y-7.497 Z-15.036
X-214.064 Y-7.488 Z-15.089
X-214.077 Y-7.492 Z-15.143
X-214.078 Y-7.505 Z-15.196
X-214.067 Y-7.512 Z-15.25
X-214.056 Y-7.505 Z-15.304
X-214.057 Y-7.492 Z-15.357
X-214.07 Y-7.488 Z-15.411
X-214.079 Y-7.497 Z-15.464
X-214.075 Y-7.51 Z-15.518
X-214.061 Y-7.511 Z-15.571
X-214.054 Y-7.5 Z-15.625
X-214.061 Y-7.489 Z-15.679
X-214.075 Y-7.49 Z-15.732
X-214.079 Y-7.503 Z-15.786
X-214.07 Y-7.512 Z-15.839
X-214.057 Y-7.508 Z-15.893
X-214.055 Y-7.495 Z-15.946
X-214.067 Y-7.488 Z-16
G3 X-214.067 Y-7.512 I0 J-0.012
X-214.067 Y-7.488 I0 J0.012
G1 X-214.073 Y-7.494
X-214.067 Y-7.5
G0 Z30
X-170.933
Z-11
G1 Z-13 F1000
X-170.927 Y-7.494
X-170.933 Y-7.488
X-170.945 Y-7.495 Z-13.054
X-170.943 Y-7.508 Z-13.107
X-170.93 Y-7.512 Z-13.161
X-170.921 Y-7.503 Z-13.214
X-170.925 Y-7.49 Z-13.268
X-170.939 Y-7.489 Z-13.321
X-170.946 Y-7.5 Z-13.375
X-170.939 Y-7.511 Z-13.429
X-170.925 Y-7.51 Z-13.482
X-170.921 Y-7.497 Z-13.536
X-170.93 Y-7.488 Z-13.589
X-170.943 Y-7.492 Z-13.643
X-170.944 Y-7.505 Z-13.696
X-170.933 Y-7.512 Z-13.75
X-170.922 Y-7.505 Z-13.804
X-170.923 Y-7.492 Z-13.857
X-170.936 Y-7.488 Z-13.911
X-170.945 Y-7.497 Z-13.964
X-170.941 Y-7.51 Z-14.018
X-170.928 Y-7.511 Z-14.071
X-170.921 Y-7.5 Z-14.125
X-170.928 Y-7.489 Z-14.179
X-170.941 Y-7.49 Z-14.232
X-170.945 Y-7.503 Z-14.286
X-170.936 Y-7.512 Z-14.339
X-170.923 Y-7.508 Z-14.393
X-170.922 Y-7.495 Z-14.446
X-170.933 Y-7.487 Z-14.5
X-170.945 Y-7.495 Z-14.554
X-170.943 Y-7.508 Z-14.607
X-170.93 Y-7.512 Z-14.661
X-170.921 Y-7.503 Z-14.714
X-170.925 Y-7.49 Z-14.768
X-170.939 Y-7.489 Z-14.821
X-170.946 Y-7.5 Z-14.875
X-170.939 Y-7.511 Z-14.929
X-170.925 Y-7.51 Z-14.982
X-170.921 Y-7.497 Z-15.036
X-170.93 Y-7.488 Z-15.089
X-170.943 Y-7.492 Z-15.143
X-170.944 Y-7.505 Z-15.196
X-170.933 Y-7.512 Z-15.25
X-170.922 Y-7.505 Z-15.304
X-170.923 Y-7.492 Z-15.357
X-170.936 Y-7.488 Z-15.411
X-170.945 Y-7.497 Z-15.464
X-170.941 Y-7.51 Z-15.518
X-170.928 Y-7.511 Z-15.571
X-170.921 Y-7.5 Z-15.625
X-170.928 Y-7.489 Z-15.679
X-170.941 Y-7.49 Z-15.732
X-170.945 Y-7.503 Z-15.786
X-170.936 Y-7.512 Z-15.839
X-170.923 Y-7.508 Z-15.893
X-170.922 Y-7.495 Z-15.946
X-170.933 Y-7.488 Z-16
G3 X-170.933 Y-7.512 I0 J-0.012
X-170.933 Y-7.488 I0 J0.012
G1 X-170.939 Y-7.494
X-170.933 Y-7.5
G0 Z30
X-152.5
Z-11
G1 Z-13 F1000
X-152.182 Y-4.405
G3 X-152.5 Y-4.088 I-0.318 J0
X-152.5 Y-10.912 Z-13.15 I0 J-3.412
X-152.5 Y-4.088 Z-13.3 I0 J3.412
X-152.5 Y-10.912 Z-13.45 I0 J-3.412
X-152.5 Y-4.088 Z-13.6 I0 J3.412
X-152.5 Y-10.912 Z-13.75 I0 J-3.412
X-152.5 Y-4.088 Z-13.9 I0 J3.412
X-152.5 Y-10.912 Z-14.05 I0 J-3.412
X-152.5 Y-4.088 Z-14.2 I0 J3.412
X-152.5 Y-10.912 Z-14.35 I0 J-3.412
X-152.5 Y-4.088 Z-14.5 I0 J3.412
X-152.5 Y-10.912 Z-14.65 I0 J-3.412
X-152.5 Y-4.088 Z-14.8 I0 J3.412
X-152.5 Y-10.912 Z-14.95 I0 J-3.412
X-152.5 Y-4.088 Z-15.1 I0 J3.412
X-152.5 Y-10.912 Z-15.25 I0 J-3.412
X-152.5 Y-4.088 Z-15.4 I0 J3.412
X-152.5 Y-10.912 Z-15.55 I0 J-3.412
X-152.5 Y-4.088 Z-15.7 I0 J3.412
X-152.5 Y-10.912 Z-15.85 I0 J-3.412
X-152.5 Y-4.088 Z-16 I0 J3.412
X-152.5 Y-10.912 I0 J-3.412
X-152.5 Y-4.088 I0 J3.412
X-152.818 Y-4.405 I0 J-0.318
G1 X-152.5 Y-7.5
G0 Z30
X-35
Z-11
G1 Z-13 F1000
X-34.682 Y-4.405
G3 X-35 Y-4.088 I-0.318 J0
X-35 Y-10.912 Z-13.15 I0 J-3.412
X-35 Y-4.088 Z-13.3 I0 J3.412
X-35 Y-10.912 Z-13.45 I0 J-3.412
X-35 Y-4.088 Z-13.6 I0 J3.412
X-35 Y-10.912 Z-13.75 I0 J-3.412
X-35 Y-4.088 Z-13.9 I0 J3.412
X-35 Y-10.912 Z-14.05 I0 J-3.412
X-35 Y-4.088 Z-14.2 I0 J3.412
X-35 Y-10.912 Z-14.35 I0 J-3.412
X-35 Y-4.088 Z-14.5 I0 J3.412
X-35 Y-10.912 Z-14.65 I0 J-3.412
X-35 Y-4.088 Z-14.8 I0 J3.412
X-35 Y-10.912 Z-14.95 I0 J-3.412
X-35 Y-4.088 Z-15.1 I0 J3.412
X-35 Y-10.912 Z-15.25 I0 J-3.412
X-35 Y-4.088 Z-15.4 I0 J3.412
X-35 Y-10.912 Z-15.55 I0 J-3.412
X-35 Y-4.088 Z-15.7 I0 J3.412
X-35 Y-10.912 Z-15.85 I0 J-3.412
X-35 Y-4.088 Z-16 I0 J3.412
X-35 Y-10.912 I0 J-3.412
X-35 Y-4.088 I0 J3.412
X-35.318 Y-4.405 I0 J-0.318
G1 X-35 Y-7.5
G0 Z30
X-22.5
Z-11
G1 Z-13 F1000
X-22.494 Y-7.494
X-22.5 Y-7.488
X-22.511 Y-7.495 Z-13.055
X-22.509 Y-7.508 Z-13.109
X-22.496 Y-7.512 Z-13.164
X-22.488 Y-7.502 Z-13.218
X-22.493 Y-7.489 Z-13.273
X-22.507 Z-13.327
X-22.512 Y-7.502 Z-13.382
X-22.504 Y-7.512 Z-13.436
X-22.491 Y-7.508 Z-13.491
X-22.489 Y-7.495 Z-13.545
X-22.5 Y-7.488 Z-13.6
X-22.511 Y-7.495 Z-13.655
X-22.509 Y-7.508 Z-13.709
X-22.496 Y-7.512 Z-13.764
X-22.488 Y-7.502 Z-13.818
X-22.493 Y-7.489 Z-13.873
X-22.507 Z-13.927
X-22.512 Y-7.502 Z-13.982
X-22.504 Y-7.512 Z-14.036
X-22.491 Y-7.508 Z-14.091
X-22.489 Y-7.495 Z-14.145
X-22.5 Y-7.488 Z-14.2
X-22.511 Y-7.495 Z-14.255
X-22.509 Y-7.508 Z-14.309
X-22.496 Y-7.512 Z-14.364
X-22.488 Y-7.502 Z-14.418
X-22.493 Y-7.489 Z-14.473
X-22.507 Z-14.527
X-22.512 Y-7.502 Z-14.582
X-22.504 Y-7.512 Z-14.636
X-22.491 Y-7.508 Z-14.691
X-22.489 Y-7.495 Z-14.745
X-22.5 Y-7.488 Z-14.8
X-22.511 Y-7.495 Z-14.855
X-22.509 Y-7.508 Z-14.909
X-22.496 Y-7.512 Z-14.964
X-22.488 Y-7.502 Z-15.018
X-22.493 Y-7.489 Z-15.073
X-22.507 Z-15.127
X-22.512 Y-7.502 Z-15.182
X-22.504 Y-7.512 Z-15.236
X-22.491 Y-7.508 Z-15.291
X-22.489 Y-7.495 Z-15.345
X-22.5 Y-7.488 Z-15.4
X-22.511 Y-7.495 Z-15.455
X-22.509 Y-7.508 Z-15.509
X-22.496 Y-7.512 Z-15.564
X-22.488 Y-7.502 Z-15.618
X-22.493 Y-7.489 Z-15.673
X-22.507 Z-15.727
X-22.512 Y-7.502 Z-15.782
X-22.504 Y-7.512 Z-15.836
X-22.491 Y-7.508 Z-15.891
X-22.489 Y-7.495 Z-15.945
X-22.5 Y-7.488 Z-16
G3 X-22.5 Y-7.512 I0 J-0.012
X-22.5 Y-7.488 I0 J0.012
G1 X-22.506 Y-7.494
X-22.5 Y-7.5
G0 Z30
X-13
Z-11
G1 Z-13 F1000
X-12.682 Y-5.405
G3 X-13 Y-5.088 I-0.318 J0
X-13 Y-9.912 Z-13.15 I0 J-2.412
X-13 Y-5.088 Z-13.3 I0 J2.412
X-13 Y-9.912 Z-13.45 I0 J-2.412
X-13 Y-5.088 Z-13.6 I0 J2.412
X-13 Y-9.912 Z-13.75 I0 J-2.412
X-13 Y-5.088 Z-13.9 I0 J2.412
X-13 Y-9.912 Z-14.05 I0 J-2.412
X-13 Y-5.088 Z-14.2 I0 J2.412
X-13 Y-9.912 Z-14.35 I0 J-2.412
X-13 Y-5.088 Z-14.5 I0 J2.412
X-13 Y-9.912 Z-14.65 I0 J-2.412
X-13 Y-5.088 Z-14.8 I0 J2.412
X-13 Y-9.912 Z-14.95 I0 J-2.412
X-13 Y-5.088 Z-15.1 I0 J2.412
X-13 Y-9.912 Z-15.25 I0 J-2.412
X-13 Y-5.088 Z-15.4 I0 J2.412
X-13 Y-9.912 Z-15.55 I0 J-2.412
X-13 Y-5.088 Z-15.7 I0 J2.412
X-13 Y-9.912 Z-15.85 I0 J-2.412
X-13 Y-5.088 Z-16 I0 J2.412
X-13 Y-9.912 I0 J-2.412
X-13 Y-5.088 I0 J2.412
X-13.318 Y-5.405 I0 J-0.318
G1 X-13 Y-7.5
G0 Z30
X-3.5
Z-11
G1 Z-13 F1000
X-3.494 Y-7.494
X-3.5 Y-7.488
X-3.511 Y-7.495 Z-13.055
X-3.509 Y-7.508 Z-13.109
X-3.496 Y-7.512 Z-13.164
X-3.488 Y-7.502 Z-13.218
X-3.493 Y-7.489 Z-13.273
X-3.507 Z-13.327
X-3.512 Y-7.502 Z-13.382
X-3.504 Y-7.512 Z-13.436
X-3.491 Y-7.508 Z-13.491
X-3.489 Y-7.495 Z-13.545
X-3.5 Y-7.488 Z-13.6
X-3.511 Y-7.495 Z-13.655
X-3.509 Y-7.508 Z-13.709
X-3.496 Y-7.512 Z-13.764
X-3.488 Y-7.502 Z-13.818
X-3.493 Y-7.489 Z-13.873
X-3.507 Z-13.927
X-3.512 Y-7.502 Z-13.982
X-3.504 Y-7.512 Z-14.036
X-3.491 Y-7.508 Z-14.091
X-3.489 Y-7.495 Z-14.145
X-3.5 Y-7.488 Z-14.2
X-3.511 Y-7.495 Z-14.255
X-3.509 Y-7.508 Z-14.309
X-3.496 Y-7.512 Z-14.364
X-3.488 Y-7.502 Z-14.418
X-3.493 Y-7.489 Z-14.473
X-3.507 Z-14.527
X-3.512 Y-7.502 Z-14.582
X-3.504 Y-7.512 Z-14.636
X-3.491 Y-7.508 Z-14.691
X-3.489 Y-7.495 Z-14.745
X-3.5 Y-7.488 Z-14.8
X-3.511 Y-7.495 Z-14.855
X-3.509 Y-7.508 Z-14.909
X-3.496 Y-7.512 Z-14.964
X-3.488 Y-7.502 Z-15.018
X-3.493 Y-7.489 Z-15.073
X-3.507 Z-15.127
X-3.512 Y-7.502 Z-15.182
X-3.504 Y-7.512 Z-15.236
X-3.491 Y-7.508 Z-15.291
X-3.489 Y-7.495 Z-15.345
X-3.5 Y-7.488 Z-15.4
X-3.511 Y-7.495 Z-15.455
X-3.509 Y-7.508 Z-15.509
X-3.496 Y-7.512 Z-15.564
X-3.488 Y-7.502 Z-15.618
X-3.493 Y-7.489 Z-15.673
X-3.507 Z-15.727
X-3.512 Y-7.502 Z-15.782
X-3.504 Y-7.512 Z-15.836
X-3.491 Y-7.508 Z-15.891
X-3.489 Y-7.495 Z-15.945
X-3.5 Y-7.488 Z-16
G3 X-3.5 Y-7.512 I0 J-0.012
X-3.5 Y-7.488 I0 J0.012
G1 X-3.506 Y-7.494
X-3.5 Y-7.5
G0 Z35

(Adaptiv3)
X-192.791 Y-18.659
Z35
Z30
Z-0.364
G1 Z-0.682 F1000
X-192.789 Y-18.651 Z-0.752
X-192.783 Y-18.628 Z-0.819
X-192.773 Y-18.592 Z-0.879
X-192.761 Y-18.543 Z-0.93
X-192.746 Y-18.485 Z-0.968
X-192.729 Y-18.42 Z-0.991
X-192.712 Y-18.351 Z-0.999
G3 X-192.463 Y-16.623 I-7.852 J2.011
G1 Y-16.473
X-192.54 Y-16.344
X-192.64 Y-16.232
X-192.753 Y-16.134
X-192.881 Y-16.043
X-193.044 Y-15.946
X-193.255 Y-15.842
X-193.531 Y-15.732
X-193.905 Y-15.618
X-194.443 Y-15.5
X-195.079 Y-15.412
X-195.719 Y-15.362
X-196.361 Y-15.333
X-197.003 Y-15.315
X-197.645 Y-15.305
X-198.017 Y-15.302
X-198.219 Y-15.328
X-198.407 Y-15.409
X-198.565 Y-15.537
X-198.682 Y-15.705
G3 X-198.253 Y-16.124 I0.287 J-0.135
G1 X-198.19 Y-16.092 Z-0.991
X-198.13 Y-16.062 Z-0.968
X-198.076 Y-16.035 Z-0.93
X-198.031 Y-16.013 Z-0.879
X-197.997 Y-15.996 Z-0.819
X-197.976 Y-15.985 Z-0.752
X-197.969 Y-15.982 Z-0.682
G0 Z30
X-183.341 Y-17.505
Z-0.364
G1 Z-0.682 F1000
X-183.347 Y-17.5 Z-0.752
X-183.365 Y-17.485 Z-0.819
X-183.394 Y-17.461 Z-0.879
X-183.433 Y-17.429 Z-0.93
X-183.48 Y-17.39 Z-0.968
X-183.532 Y-17.348 Z-0.991
X-183.586 Y-17.303 Z-0.999
G3 X-185.167 Y-16.561 I-2.238 J-2.715
G1 X-185.245 Y-16.549
X-185.378 Y-16.51
X-185.524 Y-16.455
X-185.641 Y-16.403
X-185.67 Y-16.386
X-185.816 Y-16.294
X-185.866 Y-16.257
X-185.962 Y-16.175
X-186.077 Y-16.079
X-186.225 Y-15.984
X-186.416 Y-15.882
X-186.664 Y-15.775
X-186.995 Y-15.662
X-187.458 Y-15.545
X-188.091 Y-15.438
X-188.73 Y-15.377
X-189.372 Y-15.341
X-190.013 Y-15.32
X-190.655 Y-15.308
X-191.282 Y-15.168
X-191.891 Y-14.963
X-192.498 Y-14.754
X-193.112 Y-14.566
X-193.735 Y-14.411
X-194.366 Y-14.292
X-195.003 Y-14.205
X-195.642 Y-14.143
X-196.283 Y-14.101
X-196.924 Y-14.073
X-197.317 Y-14.075
X-197.631 Y-14.102
X-197.863 Y-14.14
X-197.952 Y-14.163
X-198.134 Y-14.235
X-198.29 Y-14.352
X-198.411 Y-14.507
X-198.487 Y-14.687
X-198.513 Y-14.881
Y-14.943
X-198.516 Y-15.024
G3 X-197.951 Y-15.224 I0.317 J-0.002
G1 X-197.906 Y-15.169 Z-0.991
X-197.865 Y-15.117 Z-0.968
X-197.827 Y-15.07 Z-0.93
X-197.795 Y-15.031 Z-0.879
X-197.772 Y-15.001 Z-0.819
X-197.757 Y-14.983 Z-0.752
X-197.752 Y-14.977 Z-0.682
G0 Z30
X-185.475 Y-17.157
Z-0.364
G1 Z-0.682 F1000
X-185.477 Y-17.149 Z-0.752
X-185.484 Y-17.127 Z-0.819
X-185.494 Y-17.09 Z-0.879
X-185.508 Y-17.042 Z-0.93
X-185.525 Y-16.984 Z-0.968
X-185.544 Y-16.92 Z-0.991
X-185.563 Y-16.852 Z-0.999
G3 X-185.962 Y-16.175 I-1.52 J-0.441
G1 X-186.031 Y-16.111
X-186.108 Y-16.025
X-186.159 Y-15.965
X-186.259 Y-15.819
X-186.333 Y-15.673
X-186.351 Y-15.629
X-186.415 Y-15.493
X-186.498 Y-15.368
X-186.594 Y-15.253
X-186.706 Y-15.141
X-186.848 Y-15.022
X-187.009 Y-14.907
X-187.218 Y-14.781
X-187.477 Y-14.654
X-187.806 Y-14.522
X-188.236 Y-14.39
X-188.842 Y-14.255
X-189.478 Y-14.167
X-190.111 Y-14.062
X-190.737 Y-13.917
X-191.356 Y-13.747
X-191.974 Y-13.571
X-192.594 Y-13.405
X-193.219 Y-13.257
X-193.849 Y-13.134
X-194.484 Y-13.034
X-195.121 Y-12.956
X-195.761 Y-12.897
X-196.402 Y-12.859
X-196.929 Y-12.861
X-197.291 Y-12.891
X-197.551 Y-12.934
X-197.798 Y-12.996
X-197.993 Y-13.062
X-198.064 Y-13.092
X-198.247 Y-13.205
X-198.39 Y-13.365
X-198.481 Y-13.56
X-198.512 Y-13.773
X-198.513 Y-14.881
G3 X-198.235 Y-15.196 I0.317 J0
G1 X-197.911 Y-15.238
X-186.625 Y-16.678
G3 X-186.271 Y-16.41 I0.04 J0.315
X-186.351 Y-15.629 I-1.565 J0.234
G1 X-186.393 Y-15.527
X-186.44 Y-15.381
X-186.468 Y-15.235
X-186.483 Y-15.089
X-186.484 Y-15.045
X-186.496 Y-14.896
X-186.537 Y-14.751
X-186.595 Y-14.613
X-186.669 Y-14.482
X-186.754 Y-14.359
X-186.862 Y-14.227
X-186.993 Y-14.092
X-187.149 Y-13.955
X-187.357 Y-13.799
X-187.586 Y-13.656
X-187.882 Y-13.502
X-188.338 Y-13.309
X-188.948 Y-13.107
X-189.566 Y-12.931
X-190.802 Y-12.583
X-191.421 Y-12.412
X-192.043 Y-12.251
X-192.668 Y-12.104
X-193.297 Y-11.976
X-193.93 Y-11.867
X-194.566 Y-11.776
X-195.204 Y-11.705
X-195.844 Y-11.657
X-196.463 Y-11.644
X-196.967 Y-11.674
X-197.332 Y-11.725
X-197.641 Y-11.794
X-197.869 Y-11.865
X-198.082 Y-11.95
X-198.101 Y-11.959
X-198.27 Y-12.075
X-198.401 Y-12.232
X-198.484 Y-12.42
X-198.512 Y-12.623
Y-13.773
G3 X-198.231 Y-14.077 I0.317 J0.011
G1 X-197.899 Y-14.114
X-187.088 Y-15.331
X-186.837 Y-15.359
G3 X-186.484 Y-15.045 I0.036 J0.316
G1 X-186.487 Y-14.943
X-186.488 Y-14.214
X-186.495 Y-14.064
X-186.524 Y-13.916
X-186.57 Y-13.774
X-186.63 Y-13.636
X-186.704 Y-13.501
X-186.796 Y-13.361
X-186.922 Y-13.2
X-187.065 Y-13.043
X-187.252 Y-12.869
X-187.495 Y-12.678
X-187.806 Y-12.471
X-188.253 Y-12.223
X-188.838 Y-11.957
X-189.438 Y-11.729
X-190.047 Y-11.525
X-190.661 Y-11.337
X-191.28 Y-11.164
X-191.902 Y-11.007
X-192.529 Y-10.866
X-193.159 Y-10.742
X-193.792 Y-10.635
X-194.428 Y-10.547
X-195.067 Y-10.479
X-195.708 Y-10.438
X-196.35 Y-10.434
X-196.889 Y-10.473
X-197.319 Y-10.54
X-197.627 Y-10.613
X-197.88 Y-10.695
X-198.087 Y-10.781
X-198.11 Y-10.793
X-198.276 Y-10.909
X-198.404 Y-11.066
X-198.485 Y-11.252
X-198.512 Y-11.452
Y-12.623
G3 X-198.239 Y-12.926 I0.317 J0.011
G1 X-197.901 Y-12.973
X-187.1 Y-14.482
X-186.849 Y-14.517
G3 X-186.488 Y-14.214 I0.044 J0.314
G1 Y-13.192
X-186.495 Y-13.042
X-186.524 Y-12.895
X-186.568 Y-12.752
X-186.626 Y-12.609
X-186.701 Y-12.461
X-186.807 Y-12.288
X-186.934 Y-12.114
X-187.097 Y-11.924
X-187.314 Y-11.709
X-187.572 Y-11.491
X-187.919 Y-11.243
X-188.385 Y-10.964
X-188.961 Y-10.679
X-189.555 Y-10.436
X-190.161 Y-10.222
X-190.774 Y-10.032
X-191.394 Y-9.862
X-192.018 Y-9.712
X-192.646 Y-9.579
X-193.278 Y-9.463
X-193.913 Y-9.366
X-194.55 Y-9.29
X-195.19 Y-9.238
X-195.832 Y-9.217
X-196.474 Y-9.236
X-196.991 Y-9.291
X-197.406 Y-9.369
X-197.712 Y-9.452
X-197.948 Y-9.537
X-198.078 Y-9.597
X-198.256 Y-9.711
X-198.395 Y-9.87
X-198.482 Y-10.062
X-198.512 Y-10.271
Y-11.452
G3 X-198.243 Y-11.755 I0.317 J0.011
G1 X-197.901 Y-11.807
X-187.1 Y-13.457
X-186.853 Y-13.495
G3 X-186.488 Y-13.192 I0.048 J0.314
G1 Y-12.09
X-186.495 Y-11.94
X-186.522 Y-11.793
X-186.562 Y-11.648
X-186.622 Y-11.491
X-186.697 Y-11.332
X-186.799 Y-11.154
X-186.938 Y-10.952
X-187.099 Y-10.754
X-187.324 Y-10.519
X-187.582 Y-10.289
X-187.933 Y-10.025
X-188.374 Y-9.744
X-188.942 Y-9.444
X-189.531 Y-9.189
X-190.134 Y-8.968
X-190.747 Y-8.775
X-191.366 Y-8.606
X-191.991 Y-8.457
X-192.62 Y-8.327
X-193.252 Y-8.216
X-193.888 Y-8.125
X-194.527 Y-8.056
X-195.167 Y-8.013
X-195.809 Y-8.001
X-196.451 Y-8.027
X-197.006 Y-8.093
X-197.406 Y-8.173
X-197.732 Y-8.266
X-197.96 Y-8.351
X-198.086 Y-8.411
X-198.261 Y-8.526
X-198.397 Y-8.684
X-198.483 Y-8.875
X-198.512 Y-9.082
Y-10.271
G3 X-198.245 Y-10.574 I0.317 J0.011
G1 X-197.902 Y-10.629
X-187.099 Y-12.353
X-186.855 Y-12.392
G3 X-186.488 Y-12.09 I0.05 J0.314
G1 Y-10.922
X-186.495 Y-10.773
X-186.519 Y-10.625
X-186.557 Y-10.479
X-186.614 Y-10.319
X-186.689 Y-10.152
X-186.789 Y-9.97
X-186.925 Y-9.763
X-187.084 Y-9.558
X-187.309 Y-9.314
X-187.56 Y-9.08
X-187.902 Y-8.811
X-188.319 Y-8.533
X-188.86 Y-8.233
X-189.444 Y-7.967
X-190.045 Y-7.74
X-190.656 Y-7.542
X-191.274 Y-7.37
X-191.899 Y-7.22
X-192.528 Y-7.091
X-193.161 Y-6.983
X-193.797 Y-6.895
X-194.436 Y-6.831
X-195.077 Y-6.791
X-195.719 Y-6.781
X-196.361 Y-6.809
X-196.947 Y-6.878
X-197.377 Y-6.964
X-197.711 Y-7.059
X-197.948 Y-7.148
X-198.086 Y-7.213
X-198.261 Y-7.327
X-198.397 Y-7.486
X-198.483 Y-7.677
X-198.512 Y-7.884
Y-9.082
G3 X-198.246 Y-9.384 I0.317 J0.011
G1 X-197.902 Y-9.44
X-187.099 Y-11.185
X-186.855 Y-11.225
G3 X-186.488 Y-10.922 I0.051 J0.313
G1 Y-9.689
X-186.495 Y-9.539
X-186.52 Y-9.391
X-186.558 Y-9.246
X-186.618 Y-9.079
X-186.692 Y-8.913
X-186.798 Y-8.72
X-186.931 Y-8.518
X-187.101 Y-8.3
X-187.323 Y-8.058
X-187.586 Y-7.815
X-187.925 Y-7.547
X-188.358 Y-7.259
X-188.9 Y-6.959
X-189.484 Y-6.693
X-190.085 Y-6.466
X-190.697 Y-6.271
X-191.316 Y-6.102
X-191.942 Y-5.957
X-192.572 Y-5.833
X-193.206 Y-5.732
X-193.843 Y-5.652
X-194.483 Y-5.596
X-195.125 Y-5.565
X-195.767
X-196.408 Y-5.602
X-196.994 Y-5.678
X-197.411 Y-5.767
X-197.744 Y-5.867
X-197.975 Y-5.957
X-198.095 Y-6.015
X-198.266 Y-6.13
X-198.399 Y-6.288
X-198.484 Y-6.477
X-198.512 Y-6.681
Y-7.884
G3 X-198.245 Y-8.186 I0.317 J0.011
G1 X-197.902 Y-8.24
X-187.099 Y-9.953
X-186.855 Y-9.992
G3 X-186.488 Y-9.689 I0.05 J0.314
G1 Y-8.522
X-186.496 Y-8.348
X-186.516 Y-8.199
X-186.549 Y-8.053
X-186.6 Y-7.895
X-186.669 Y-7.725
X-186.761 Y-7.544
X-186.891 Y-7.334
X-187.04 Y-7.13
X-187.25 Y-6.886
X-187.489 Y-6.65
X-187.814 Y-6.378
X-188.188 Y-6.111
X-188.678 Y-5.82
X-189.254 Y-5.536
X-189.849 Y-5.295
X-190.457 Y-5.089
X-191.075 Y-4.912
X-191.699 Y-4.76
X-192.328 Y-4.631
X-192.961 Y-4.525
X-193.598 Y-4.441
X-194.237 Y-4.38
X-194.878 Y-4.345
X-195.521 Y-4.339
X-196.162 Y-4.367
X-196.785 Y-4.433
X-197.286 Y-4.527
X-197.637 Y-4.623
X-197.904 Y-4.719
X-198.131 Y-4.823
X-198.289 Y-4.94
X-198.41 Y-5.095
X-198.486 Y-5.276
X-198.512 Y-5.47
Y-6.681
G3 X-198.246 Y-6.984 I0.317 J0.011
G1 X-197.902 Y-7.039
X-187.099 Y-8.785
X-186.855 Y-8.824
G3 X-186.488 Y-8.522 I0.051 J0.313
G1 Y-7.208
X-186.495 Y-7.058
X-186.518 Y-6.91
X-186.557 Y-6.759
X-186.613 Y-6.599
X-186.689 Y-6.425
X-186.794 Y-6.229
X-186.921 Y-6.033
X-187.1 Y-5.8
X-187.301 Y-5.577
X-187.582 Y-5.312
X-187.897 Y-5.059
X-188.315 Y-4.776
X-188.842 Y-4.478
X-189.424 Y-4.207
X-190.024 Y-3.977
X-190.635 Y-3.781
X-191.255 Y-3.613
X-191.881 Y-3.471
X-192.513 Y-3.353
X-193.148 Y-3.257
X-193.786 Y-3.185
X-194.426 Y-3.138
X-195.068 Y-3.117
X-195.71 Y-3.125
X-196.351 Y-3.168
X-196.958 Y-3.249
X-197.418 Y-3.348
X-197.735 Y-3.444
X-197.982 Y-3.54
X-198.096 Y-3.596
X-198.267 Y-3.712
X-198.4 Y-3.869
X-198.484 Y-4.058
X-198.512 Y-4.262
Y-5.47
G3 X-198.243 Y-5.773 I0.317 J0.011
G1 X-197.901 Y-5.825
X-187.1 Y-7.473
X-186.853 Y-7.511
G3 X-186.488 Y-7.208 I0.048 J0.314
G1 Y-5.96
X-186.495 Y-5.81
X-186.518 Y-5.662
X-186.554 Y-5.517
X-186.611 Y-5.35
X-186.683 Y-5.184
X-186.784 Y-4.992
X-186.914 Y-4.788
X-187.078 Y-4.572
X-187.296 Y-4.328
X-187.549 Y-4.086
X-187.88 Y-3.818
X-188.295 Y-3.533
X-188.794 Y-3.247
X-189.375 Y-2.973
X-189.974 Y-2.741
X-190.585 Y-2.544
X-191.205 Y-2.377
X-191.831 Y-2.236
X-192.463 Y-2.12
X-193.098 Y-2.027
X-193.737 Y-1.958
X-194.378 Y-1.913
X-195.019 Y-1.893
X-195.662 Y-1.902
X-196.302 Y-1.943
X-196.913 Y-2.023
X-197.382 Y-2.124
X-197.722 Y-2.226
X-197.965 Y-2.32
X-198.095 Y-2.384
X-198.267 Y-2.499
X-198.4 Y-2.657
X-198.484 Y-2.846
X-198.512 Y-3.05
Y-4.262
G3 X-198.242 Y-4.565 I0.317 J0.011
G1 X-197.901 Y-4.616
X-187.1 Y-6.226
X-186.852 Y-6.263
G3 X-186.488 Y-5.96 I0.047 J0.314
G1 Y-4.727
X-186.495 Y-4.577
X-186.505 Y-4.428
X-186.53 Y-4.28
X-186.568 Y-4.134
X-186.616 Y-3.993
X-186.675 Y-3.855
X-186.743 Y-3.721
X-186.817 Y-3.591
X-186.899 Y-3.465
X-186.987 Y-3.343
X-187.08 Y-3.226
X-187.178 Y-3.112
X-187.28 Y-3.002
X-187.386 Y-2.896
X-187.496 Y-2.794
X-187.609 Y-2.696
X-187.725 Y-2.6
X-187.843 Y-2.508
X-187.965 Y-2.42
X-188.088 Y-2.335
X-188.214 Y-2.253
X-188.341 Y-2.173
X-188.47 Y-2.097
X-188.601 Y-2.023
X-188.733 Y-1.952
X-188.866 Y-1.884
X-189.001 Y-1.818
X-189.137 Y-1.754
X-189.274 Y-1.693
X-189.411 Y-1.634
X-189.55 Y-1.576
X-189.69 Y-1.521
X-189.83 Y-1.468
X-189.971 Y-1.417
X-190.113 Y-1.368
X-190.255 Y-1.32
X-190.398 Y-1.275
X-190.541 Y-1.231
X-190.685 Y-1.189
X-190.83 Y-1.148
X-190.974 Y-1.109
X-191.12 Y-1.071
X-191.265 Y-1.035
X-191.411 Y-1
X-191.557 Y-0.967
X-191.704 Y-0.935
X-191.851 Y-0.905
X-191.998 Y-0.876
X-192.146 Y-0.848
X-192.293 Y-0.822
X-192.441 Y-0.797
X-192.589 Y-0.774
X-192.738 Y-0.752
X-192.886 Y-0.73
X-193.035 Y-0.711
X-193.184 Y-0.693
X-193.333 Y-0.676
X-193.482 Y-0.66
X-193.631 Y-0.646
X-193.781 Y-0.633
X-193.93 Y-0.621
X-194.08 Y-0.611
X-194.23 Y-0.602
X-194.379 Y-0.595
X-194.529 Y-0.589
X-194.679 Y-0.584
X-194.829 Y-0.581
X-194.979 Y-0.579
X-195.129
X-195.279 Y-0.581
X-195.429 Y-0.585
X-195.579 Y-0.59
X-195.729 Y-0.596
X-195.879 Y-0.605
X-196.028 Y-0.616
X-196.178 Y-0.629
X-196.327 Y-0.644
X-196.476 Y-0.661
X-196.625 Y-0.682
X-196.773 Y-0.704
X-196.921 Y-0.729
X-197.068 Y-0.758
X-197.215 Y-0.789
X-197.361 Y-0.824
X-197.506 Y-0.863
X-197.649 Y-0.906
X-197.791 Y-0.955
X-197.931 Y-1.008
X-198.069 Y-1.068
X-198.1 Y-1.083
X-198.269 Y-1.198
X-198.401 Y-1.356
X-198.484 Y-1.544
X-198.512 Y-1.747
Y-3.05
G3 X-198.241 Y-3.353 I0.317 J0.011
G1 X-197.901 Y-3.403
X-187.1 Y-4.993
X-186.851 Y-5.03
G3 X-186.488 Y-4.727 I0.046 J0.314
G1 Y-3.413
X-186.496 Y-3.244
X-186.515 Y-3.096
X-186.549 Y-2.949
X-186.599 Y-2.794
X-186.668 Y-2.626
X-186.761 Y-2.443
X-186.883 Y-2.244
X-187.039 Y-2.031
X-187.235 Y-1.802
X-187.359 Y-1.68
X-187.427 Y-1.617
X-187.5 Y-1.554
X-187.802 Y-1.298
X-187.933 Y-1.205
X-188.066 Y-1.116
X-188.118 Y-1.09
X-188.174 Y-1.074
X-188.231 Y-1.069
X-188.232
G3 X-188.491 Y-1.57 I0 J-0.317
G1 X-187.064 Y-3.586
G3 X-186.488 Y-3.413 I0.259 J0.183
G1 Y-2.1
X-186.495 Y-1.95
X-186.521 Y-1.802
X-186.563 Y-1.646
X-186.617 Y-1.495
X-186.638 Y-1.336
X-186.623 Y-1.176
X-186.555 Y-0.961
X-186.518 Y-0.895
X-186.495 Y-0.822
X-186.488 Y-0.746
G3 X-187.122 Y-0.757 I-0.317 J-0.011
G1 Y-2.089
G3 X-186.488 Y-2.1 I0.317 J0
G1 X-186.487 Y-0.057
G3 X-186.758 Y0.246 I-0.317 J-0.011
G1 X-187.099 Y0.297
X-199.756 Y2.191
G3 X-199.855 Y1.563 I-0.047 J-0.314
G1 X-199.825 Y1.559
X-199.763 Y1.549
X-199.679 Y1.527
X-199.533 Y1.482
X-199.364 Y1.403
X-199.241 Y1.329
X-199.134 Y1.257
X-199.096 Y1.229
X-198.968 Y1.111
X-198.95 Y1.091
X-198.845 Y0.965
X-198.741 Y0.819
X-198.658 Y0.655
X-198.606 Y0.527
X-198.562 Y0.381
X-198.532 Y0.235
X-198.519 Y0.089
X-198.513 Y-0.057
X-198.512 Y-1.747
G3 X-198.215 Y-2.053 I0.317 J0.011
G1 X-198.195 Z-0.998
X-198.142 Y-2.04 Z-0.99
X-198.091 Y-2.027 Z-0.972
X-198.044 Y-2.015 Z-0.945
X-198.008 Y-1.984 Z-0.905
X-197.979 Y-1.958 Z-0.857
X-197.957 Y-1.939 Z-0.802
X-197.944 Y-1.928 Z-0.743
X-197.939 Y-1.924 Z-0.682
G0 Z30
X-192.791 Y-18.659
Z-1.265
G1 Z-1.582 F1000
X-192.789 Y-18.651 Z-1.653
X-192.783 Y-18.628 Z-1.72
X-192.773 Y-18.592 Z-1.78
X-192.761 Y-18.543 Z-1.831
X-192.746 Y-18.485 Z-1.869
X-192.729 Y-18.42 Z-1.892
X-192.712 Y-18.351 Z-1.9
G3 X-192.463 Y-16.623 I-7.852 J2.011
G1 Y-16.473
X-192.54 Y-16.344
X-192.64 Y-16.232
X-192.753 Y-16.134
X-192.881 Y-16.043
X-193.044 Y-15.946
X-193.255 Y-15.842
X-193.531 Y-15.732
X-193.905 Y-15.618
X-194.443 Y-15.5
X-195.079 Y-15.412
X-195.719 Y-15.362
X-196.361 Y-15.333
X-197.003 Y-15.315
X-197.645 Y-15.305
X-198.017 Y-15.302
X-198.219 Y-15.328
X-198.407 Y-15.409
X-198.565 Y-15.537
X-198.682 Y-15.705
G3 X-198.253 Y-16.124 I0.287 J-0.135
G1 X-198.19 Y-16.092 Z-1.892
X-198.13 Y-16.062 Z-1.869
X-198.076 Y-16.035 Z-1.831
X-198.031 Y-16.013 Z-1.78
X-197.997 Y-15.996 Z-1.72
X-197.976 Y-15.985 Z-1.653
X-197.969 Y-15.982 Z-1.582
G0 Z30
X-183.341 Y-17.505
Z-1.265
G1 Z-1.582 F1000
X-183.347 Y-17.5 Z-1.653
X-183.365 Y-17.485 Z-1.72
X-183.394 Y-17.461 Z-1.78
X-183.433 Y-17.429 Z-1.831
X-183.48 Y-17.39 Z-1.869
X-183.532 Y-17.348 Z-1.892
X-183.586 Y-17.303 Z-1.9
G3 X-185.167 Y-16.561 I-2.238 J-2.715
G1 X-185.245 Y-16.549
X-185.378 Y-16.51
X-185.524 Y-16.455
X-185.641 Y-16.403
X-185.67 Y-16.386
X-185.816 Y-16.294
X-185.866 Y-16.257
X-185.962 Y-16.175
X-186.077 Y-16.079
X-186.225 Y-15.984
X-186.416 Y-15.882
X-186.664 Y-15.775
X-186.995 Y-15.662
X-187.458 Y-15.545
X-188.091 Y-15.438
X-188.73 Y-15.377
X-189.372 Y-15.341
X-190.013 Y-15.32
X-190.655 Y-15.308
X-191.282 Y-15.168
X-191.891 Y-14.963
X-192.498 Y-14.754
X-193.112 Y-14.566
X-193.735 Y-14.411
X-194.366 Y-14.292
X-195.003 Y-14.205
X-195.642 Y-14.143
X-196.283 Y-14.101
X-196.924 Y-14.073
X-197.317 Y-14.075
X-197.631 Y-14.102
X-197.863 Y-14.14
X-197.952 Y-14.163
X-198.134 Y-14.235
X-198.29 Y-14.352
X-198.411 Y-14.507
X-198.487 Y-14.687
X-198.513 Y-14.881
Y-14.943
X-198.516 Y-15.024
G3 X-197.951 Y-15.224 I0.317 J-0.002
G1 X-197.906 Y-15.169 Z-1.892
X-197.865 Y-15.117 Z-1.869
X-197.827 Y-15.07 Z-1.831
X-197.795 Y-15.031 Z-1.78
X-197.772 Y-15.001 Z-1.72
X-197.757 Y-14.983 Z-1.653
X-197.752 Y-14.977 Z-1.582
G0 Z30
X-185.475 Y-17.157
Z-1.265
G1 Z-1.582 F1000
X-185.477 Y-17.149 Z-1.653
X-185.484 Y-17.127 Z-1.72
X-185.494 Y-17.09 Z-1.78
X-185.508 Y-17.042 Z-1.831
X-185.525 Y-16.984 Z-1.869
X-185.544 Y-16.92 Z-1.892
X-185.563 Y-16.852 Z-1.9
G3 X-185.962 Y-16.175 I-1.52 J-0.441
G1 X-186.031 Y-16.111
X-186.108 Y-16.025
X-186.159 Y-15.965
X-186.259 Y-15.819
X-186.333 Y-15.673
X-186.351 Y-15.629
X-186.415 Y-15.493
X-186.498 Y-15.368
X-186.594 Y-15.253
X-186.706 Y-15.141
X-186.848 Y-15.022
X-187.009 Y-14.907
X-187.218 Y-14.781
X-187.477 Y-14.654
X-187.806 Y-14.522
X-188.236 Y-14.39
X-188.842 Y-14.255
X-189.478 Y-14.167
X-190.111 Y-14.062
X-190.737 Y-13.917
X-191.356 Y-13.747
X-191.974 Y-13.571
X-192.594 Y-13.405
X-193.219 Y-13.257
X-193.849 Y-13.134
X-194.484 Y-13.034
X-195.121 Y-12.956
X-195.761 Y-12.897
X-196.402 Y-12.859
X-196.929 Y-12.861
X-197.291 Y-12.891
X-197.551 Y-12.934
X-197.798 Y-12.996
X-197.993 Y-13.062
X-198.064 Y-13.092
X-198.247 Y-13.205
X-198.39 Y-13.365
X-198.481 Y-13.56
X-198.512 Y-13.773
X-198.513 Y-14.881
G3 X-198.235 Y-15.196 I0.317 J0
G1 X-197.911 Y-15.238
X-186.625 Y-16.678
G3 X-186.271 Y-16.41 I0.04 J0.315
X-186.351 Y-15.629 I-1.565 J0.234
G1 X-186.393 Y-15.527
X-186.44 Y-15.381
X-186.468 Y-15.235
X-186.483 Y-15.089
X-186.484 Y-15.045
X-186.496 Y-14.896
X-186.537 Y-14.751
X-186.595 Y-14.613
X-186.669 Y-14.482
X-186.754 Y-14.359
X-186.862 Y-14.227
X-186.993 Y-14.092
X-187.149 Y-13.955
X-187.357 Y-13.799
X-187.586 Y-13.656
X-187.882 Y-13.502
X-188.338 Y-13.309
X-188.948 Y-13.107
X-189.566 Y-12.931
X-190.802 Y-12.583
X-191.421 Y-12.412
X-192.043 Y-12.251
X-192.668 Y-12.104
X-193.297 Y-11.976
X-193.93 Y-11.867
X-194.566 Y-11.776
X-195.204 Y-11.705
X-195.844 Y-11.657
X-196.463 Y-11.644
X-196.967 Y-11.674
X-197.332 Y-11.725
X-197.641 Y-11.794
X-197.869 Y-11.865
X-198.082 Y-11.95
X-198.101 Y-11.959
X-198.27 Y-12.075
X-198.401 Y-12.232
X-198.484 Y-12.42
X-198.512 Y-12.623
Y-13.773
G3 X-198.231 Y-14.077 I0.317 J0.011
G1 X-197.899 Y-14.114
X-187.088 Y-15.331
X-186.837 Y-15.359
G3 X-186.484 Y-15.045 I0.036 J0.316
G1 X-186.487 Y-14.943
X-186.488 Y-14.214
X-186.495 Y-14.064
X-186.524 Y-13.916
X-186.57 Y-13.774
X-186.63 Y-13.636
X-186.704 Y-13.501
X-186.796 Y-13.361
X-186.922 Y-13.2
X-187.065 Y-13.043
X-187.252 Y-12.869
X-187.495 Y-12.678
X-187.806 Y-12.471
X-188.253 Y-12.223
X-188.838 Y-11.957
X-189.438 Y-11.729
X-190.047 Y-11.525
X-190.661 Y-11.337
X-191.28 Y-11.164
X-191.902 Y-11.007
X-192.529 Y-10.866
X-193.159 Y-10.742
X-193.792 Y-10.635
X-194.428 Y-10.547
X-195.067 Y-10.479
X-195.708 Y-10.438
X-196.35 Y-10.434
X-196.889 Y-10.473
X-197.319 Y-10.54
X-197.627 Y-10.613
X-197.88 Y-10.695
X-198.087 Y-10.781
X-198.11 Y-10.793
X-198.276 Y-10.909
X-198.404 Y-11.066
X-198.485 Y-11.252
X-198.512 Y-11.452
Y-12.623
G3 X-198.239 Y-12.926 I0.317 J0.011
G1 X-197.901 Y-12.973
X-187.1 Y-14.482
X-186.849 Y-14.517
G3 X-186.488 Y-14.214 I0.044 J0.314
G1 Y-13.192
X-186.495 Y-13.042
X-186.524 Y-12.895
X-186.568 Y-12.752
X-186.626 Y-12.609
X-186.701 Y-12.461
X-186.807 Y-12.288
X-186.934 Y-12.114
X-187.097 Y-11.924
X-187.314 Y-11.709
X-187.572 Y-11.491
X-187.919 Y-11.243
X-188.385 Y-10.964
X-188.961 Y-10.679
X-189.555 Y-10.436
X-190.161 Y-10.222
X-190.774 Y-10.032
X-191.394 Y-9.862
X-192.018 Y-9.712
X-192.646 Y-9.579
X-193.278 Y-9.463
X-193.913 Y-9.366
X-194.55 Y-9.29
X-195.19 Y-9.238
X-195.832 Y-9.217
X-196.474 Y-9.236
X-196.991 Y-9.291
X-197.406 Y-9.369
X-197.712 Y-9.452
X-197.948 Y-9.537
X-198.078 Y-9.597
X-198.256 Y-9.711
X-198.395 Y-9.87
X-198.482 Y-10.062
X-198.512 Y-10.271
Y-11.452
G3 X-198.243 Y-11.755 I0.317 J0.011
G1 X-197.901 Y-11.807
X-187.1 Y-13.457
X-186.853 Y-13.495
G3 X-186.488 Y-13.192 I0.048 J0.314
G1 Y-12.09
X-186.495 Y-11.94
X-186.522 Y-11.793
X-186.562 Y-11.648
X-186.622 Y-11.491
X-186.697 Y-11.332
X-186.799 Y-11.154
X-186.938 Y-10.952
X-187.099 Y-10.754
X-187.324 Y-10.519
X-187.582 Y-10.289
X-187.933 Y-10.025
X-188.374 Y-9.744
X-188.942 Y-9.444
X-189.531 Y-9.189
X-190.134 Y-8.968
X-190.747 Y-8.775
X-191.366 Y-8.606
X-191.991 Y-8.457
X-192.62 Y-8.327
X-193.252 Y-8.216
X-193.888 Y-8.125
X-194.527 Y-8.056
X-195.167 Y-8.013
X-195.809 Y-8.001
X-196.451 Y-8.027
X-197.006 Y-8.093
X-197.406 Y-8.173
X-197.732 Y-8.266
X-197.96 Y-8.351
X-198.086 Y-8.411
X-198.261 Y-8.526
X-198.397 Y-8.684
X-198.483 Y-8.875
X-198.512 Y-9.082
Y-10.271
G3 X-198.245 Y-10.574 I0.317 J0.011
G1 X-197.902 Y-10.629
X-187.099 Y-12.353
X-186.855 Y-12.392
G3 X-186.488 Y-12.09 I0.05 J0.314
G1 Y-10.922
X-186.495 Y-10.773
X-186.519 Y-10.625
X-186.557 Y-10.479
X-186.614 Y-10.319
X-186.689 Y-10.152
X-186.789 Y-9.97
X-186.925 Y-9.763
X-187.084 Y-9.558
X-187.309 Y-9.314
X-187.56 Y-9.08
X-187.902 Y-8.811
X-188.319 Y-8.533
X-188.86 Y-8.233
X-189.444 Y-7.967
X-190.045 Y-7.74
X-190.656 Y-7.542
X-191.274 Y-7.37
X-191.899 Y-7.22
X-192.528 Y-7.091
X-193.161 Y-6.983
X-193.797 Y-6.895
X-194.436 Y-6.831
X-195.077 Y-6.791
X-195.719 Y-6.781
X-196.361 Y-6.809
X-196.947 Y-6.878
X-197.377 Y-6.964
X-197.711 Y-7.059
X-197.948 Y-7.148
X-198.086 Y-7.213
X-198.261 Y-7.327
X-198.397 Y-7.486
X-198.483 Y-7.677
X-198.512 Y-7.884
Y-9.082
G3 X-198.246 Y-9.384 I0.317 J0.011
G1 X-197.902 Y-9.44
X-187.099 Y-11.185
X-186.855 Y-11.225
G3 X-186.488 Y-10.922 I0.051 J0.313
G1 Y-9.689
X-186.495 Y-9.539
X-186.52 Y-9.391
X-186.558 Y-9.246
X-186.618 Y-9.079
X-186.692 Y-8.913
X-186.798 Y-8.72
X-186.931 Y-8.518
X-187.101 Y-8.3
X-187.323 Y-8.058
X-187.586 Y-7.815
X-187.925 Y-7.547
X-188.358 Y-7.259
X-188.9 Y-6.959
X-189.484 Y-6.693
X-190.085 Y-6.466
X-190.697 Y-6.271
X-191.316 Y-6.102
X-191.942 Y-5.957
X-192.572 Y-5.833
X-193.206 Y-5.732
X-193.843 Y-5.652
X-194.483 Y-5.596
X-195.125 Y-5.565
X-195.767
X-196.408 Y-5.602
X-196.994 Y-5.678
X-197.411 Y-5.767
X-197.744 Y-5.867
X-197.975 Y-5.957
X-198.095 Y-6.015
X-198.266 Y-6.13
X-198.399 Y-6.288
X-198.484 Y-6.477
X-198.512 Y-6.681
Y-7.884
G3 X-198.245 Y-8.186 I0.317 J0.011
G1 X-197.902 Y-8.24
X-187.099 Y-9.953
X-186.855 Y-9.992
G3 X-186.488 Y-9.689 I0.05 J0.314
G1 Y-8.522
X-186.496 Y-8.348
X-186.516 Y-8.199
X-186.549 Y-8.053
X-186.6 Y-7.895
X-186.669 Y-7.725
X-186.761 Y-7.544
X-186.891 Y-7.334
X-187.04 Y-7.13
X-187.25 Y-6.886
X-187.489 Y-6.65
X-187.814 Y-6.378
X-188.188 Y-6.111
X-188.678 Y-5.82
X-189.254 Y-5.536
X-189.849 Y-5.295
X-190.457 Y-5.089
X-191.075 Y-4.912
X-191.699 Y-4.76
X-192.328 Y-4.631
X-192.961 Y-4.525
X-193.598 Y-4.441
X-194.237 Y-4.38
X-194.878 Y-4.345
X-195.521 Y-4.339
X-196.162 Y-4.367
X-196.785 Y-4.433
X-197.286 Y-4.527
X-197.637 Y-4.623
X-197.904 Y-4.719
X-198.131 Y-4.823
X-198.289 Y-4.94
X-198.41 Y-5.095
X-198.486 Y-5.276
X-198.512 Y-5.47
Y-6.681
G3 X-198.246 Y-6.984 I0.317 J0.011
G1 X-197.902 Y-7.039
X-187.099 Y-8.785
X-186.855 Y-8.824
G3 X-186.488 Y-8.522 I0.051 J0.313
G1 Y-7.208
X-186.495 Y-7.058
X-186.518 Y-6.91
X-186.557 Y-6.759
X-186.613 Y-6.599
X-186.689 Y-6.425
X-186.794 Y-6.229
X-186.921 Y-6.033
X-187.1 Y-5.8
X-187.301 Y-5.577
X-187.582 Y-5.312
X-187.897 Y-5.059
X-188.315 Y-4.776
X-188.842 Y-4.478
X-189.424 Y-4.207
X-190.024 Y-3.977
X-190.635 Y-3.781
X-191.255 Y-3.613
X-191.881 Y-3.471
X-192.513 Y-3.353
X-193.148 Y-3.257
X-193.786 Y-3.185
X-194.426 Y-3.138
X-195.068 Y-3.117
X-195.71 Y-3.125
X-196.351 Y-3.168
X-196.958 Y-3.249
X-197.418 Y-3.348
X-197.735 Y-3.444
X-197.982 Y-3.54
X-198.096 Y-3.596
X-198.267 Y-3.712
X-198.4 Y-3.869
X-198.484 Y-4.058
X-198.512 Y-4.262
Y-5.47
G3 X-198.243 Y-5.773 I0.317 J0.011
G1 X-197.901 Y-5.825
X-187.1 Y-7.473
X-186.853 Y-7.511
G3 X-186.488 Y-7.208 I0.048 J0.314
G1 Y-5.96
X-186.495 Y-5.81
X-186.518 Y-5.662
X-186.554 Y-5.517
X-186.611 Y-5.35
X-186.683 Y-5.184
X-186.784 Y-4.992
X-186.914 Y-4.788
X-187.078 Y-4.572
X-187.296 Y-4.328
X-187.549 Y-4.086
X-187.88 Y-3.818
X-188.295 Y-3.533
X-188.794 Y-3.247
X-189.375 Y-2.973
X-189.974 Y-2.741
X-190.585 Y-2.544
X-191.205 Y-2.377
X-191.831 Y-2.236
X-192.463 Y-2.12
X-193.098 Y-2.027
X-193.737 Y-1.958
X-194.378 Y-1.913
X-195.019 Y-1.893
X-195.662 Y-1.902
X-196.302 Y-1.943
X-196.913 Y-2.023
X-197.382 Y-2.124
X-197.722 Y-2.226
X-197.965 Y-2.32
X-198.095 Y-2.384
X-198.267 Y-2.499
X-198.4 Y-2.657
X-198.484 Y-2.846
X-198.512 Y-3.05
Y-4.262
G3 X-198.242 Y-4.565 I0.317 J0.011
G1 X-197.901 Y-4.616
X-187.1 Y-6.226
X-186.852 Y-6.263
G3 X-186.488 Y-5.96 I0.047 J0.314
G1 Y-4.727
X-186.495 Y-4.577
X-186.505 Y-4.428
X-186.53 Y-4.28
X-186.568 Y-4.134
X-186.616 Y-3.993
X-186.675 Y-3.855
X-186.743 Y-3.721
X-186.817 Y-3.591
X-186.899 Y-3.465
X-186.987 Y-3.343
X-187.08 Y-3.226
X-187.178 Y-3.112
X-187.28 Y-3.002
X-187.386 Y-2.896
X-187.496 Y-2.794
X-187.609 Y-2.696
X-187.725 Y-2.6
X-187.843 Y-2.508
X-187.965 Y-2.42
X-188.088 Y-2.335
X-188.214 Y-2.253
X-188.341 Y-2.173
X-188.47 Y-2.097
X-188.601 Y-2.023
X-188.733 Y-1.952
X-188.866 Y-1.884
X-189.001 Y-1.818
X-189.137 Y-1.754
X-189.274 Y-1.693
X-189.411 Y-1.634
X-189.55 Y-1.576
X-189.69 Y-1.521
X-189.83 Y-1.468
X-189.971 Y-1.417
X-190.113 Y-1.368
X-190.255 Y-1.32
X-190.398 Y-1.275
X-190.541 Y-1.231
X-190.685 Y-1.189
X-190.83 Y-1.148
X-190.974 Y-1.109
X-191.12 Y-1.071
X-191.265 Y-1.035
X-191.411 Y-1
X-191.557 Y-0.967
X-191.704 Y-0.935
X-191.851 Y-0.905
X-191.998 Y-0.876
X-192.146 Y-0.848
X-192.293 Y-0.822
X-192.441 Y-0.797
X-192.589 Y-0.774
X-192.738 Y-0.752
X-192.886 Y-0.73
X-193.035 Y-0.711
X-193.184 Y-0.693
X-193.333 Y-0.676
X-193.482 Y-0.66
X-193.631 Y-0.646
X-193.781 Y-0.633
X-193.93 Y-0.621
X-194.08 Y-0.611
X-194.23 Y-0.602
X-194.379 Y-0.595
X-194.529 Y-0.589
X-194.679 Y-0.584
X-194.829 Y-0.581
X-194.979 Y-0.579
X-195.129
X-195.279 Y-0.581
X-195.429 Y-0.585
X-195.579 Y-0.59
X-195.729 Y-0.596
X-195.879 Y-0.605
X-196.028 Y-0.616
X-196.178 Y-0.629
X-196.327 Y-0.644
X-196.476 Y-0.661
X-196.625 Y-0.682
X-196.773 Y-0.704
X-196.921 Y-0.729
X-197.068 Y-0.758
X-197.215 Y-0.789
X-197.361 Y-0.824
X-197.506 Y-0.863
X-197.649 Y-0.906
X-197.791 Y-0.955
X-197.931 Y-1.008
X-198.069 Y-1.068
X-198.1 Y-1.083
X-198.269 Y-1.198
X-198.401 Y-1.356
X-198.484 Y-1.544
X-198.512 Y-1.747
Y-3.05
G3 X-198.241 Y-3.353 I0.317 J0.011
G1 X-197.901 Y-3.403
X-187.1 Y-4.993
X-186.851 Y-5.03
G3 X-186.488 Y-4.727 I0.046 J0.314
G1 Y-3.413
X-186.496 Y-3.244
X-186.515 Y-3.096
X-186.549 Y-2.949
X-186.599 Y-2.794
X-186.668 Y-2.626
X-186.761 Y-2.443
X-186.883 Y-2.244
X-187.039 Y-2.031
X-187.235 Y-1.802
X-187.359 Y-1.68
X-187.427 Y-1.617
X-187.5 Y-1.554
X-187.802 Y-1.298
X-187.933 Y-1.205
X-188.066 Y-1.116
X-188.118 Y-1.09
X-188.174 Y-1.074
X-188.231 Y-1.069
X-188.232
G3 X-188.491 Y-1.57 I0 J-0.317
G1 X-187.064 Y-3.586
G3 X-186.488 Y-3.413 I0.259 J0.183
G1 Y-2.1
X-186.495 Y-1.95
X-186.521 Y-1.802
X-186.563 Y-1.646
X-186.617 Y-1.495
X-186.638 Y-1.336
X-186.623 Y-1.176
X-186.555 Y-0.961
X-186.518 Y-0.895
X-186.495 Y-0.822
X-186.488 Y-0.746
G3 X-187.122 Y-0.757 I-0.317 J-0.011
G1 Y-2.089
G3 X-186.488 Y-2.1 I0.317 J0
G1 X-186.487 Y-0.057
G3 X-186.758 Y0.246 I-0.317 J-0.011
G1 X-187.099 Y0.297
X-199.756 Y2.191
G3 X-199.855 Y1.563 I-0.047 J-0.314
G1 X-199.825 Y1.559
X-199.763 Y1.549
X-199.679 Y1.527
X-199.533 Y1.482
X-199.364 Y1.403
X-199.241 Y1.329
X-199.134 Y1.257
X-199.096 Y1.229
X-198.968 Y1.111
X-198.95 Y1.091
X-198.845 Y0.965
X-198.741 Y0.819
X-198.658 Y0.655
X-198.606 Y0.527
X-198.562 Y0.381
X-198.532 Y0.235
X-198.519 Y0.089
X-198.513 Y-0.057
X-198.512 Y-1.747
G3 X-198.215 Y-2.053 I0.317 J0.011
G1 X-198.195 Z-1.899
X-198.142 Y-2.04 Z-1.891
X-198.091 Y-2.027 Z-1.873
X-198.044 Y-2.015 Z-1.846
X-198.008 Y-1.984 Z-1.806
X-197.979 Y-1.958 Z-1.758
X-197.957 Y-1.939 Z-1.703
X-197.944 Y-1.928 Z-1.644
X-197.939 Y-1.924 Z-1.583
G0 Z30
X-192.791 Y-18.659
Z-1.365
G1 Z-1.683 F1000
X-192.789 Y-18.651 Z-1.753
X-192.783 Y-18.628 Z-1.82
X-192.773 Y-18.592 Z-1.88
X-192.761 Y-18.543 Z-1.931
X-192.746 Y-18.485 Z-1.969
X-192.729 Y-18.42 Z-1.992
X-192.712 Y-18.351 Z-2
G3 X-192.463 Y-16.623 I-7.852 J2.011
G1 Y-16.473
X-192.54 Y-16.344
X-192.64 Y-16.232
X-192.753 Y-16.134
X-192.881 Y-16.043
X-193.044 Y-15.946
X-193.255 Y-15.842
X-193.531 Y-15.732
X-193.905 Y-15.618
X-194.443 Y-15.5
X-195.079 Y-15.412
X-195.719 Y-15.362
X-196.361 Y-15.333
X-197.003 Y-15.315
X-197.645 Y-15.305
X-198.017 Y-15.302
X-198.219 Y-15.328
X-198.407 Y-15.409
X-198.565 Y-15.537
X-198.682 Y-15.705
G3 X-198.253 Y-16.124 I0.287 J-0.135
G1 X-198.19 Y-16.092 Z-1.992
X-198.13 Y-16.062 Z-1.969
X-198.076 Y-16.035 Z-1.931
X-198.031 Y-16.013 Z-1.88
X-197.997 Y-15.996 Z-1.82
X-197.976 Y-15.985 Z-1.753
X-197.969 Y-15.982 Z-1.683
G0 Z30
X-183.341 Y-17.505
Z-1.365
G1 Z-1.683 F1000
X-183.347 Y-17.5 Z-1.753
X-183.365 Y-17.485 Z-1.82
X-183.394 Y-17.461 Z-1.88
X-183.433 Y-17.429 Z-1.931
X-183.48 Y-17.39 Z-1.969
X-183.532 Y-17.348 Z-1.992
X-183.586 Y-17.303 Z-2
G3 X-185.167 Y-16.561 I-2.238 J-2.715
G1 X-185.245 Y-16.549
X-185.378 Y-16.51
X-185.524 Y-16.455
X-185.641 Y-16.403
X-185.67 Y-16.386
X-185.816 Y-16.294
X-185.866 Y-16.257
X-185.962 Y-16.175
X-186.077 Y-16.079
X-186.225 Y-15.984
X-186.416 Y-15.882
X-186.664 Y-15.775
X-186.995 Y-15.662
X-187.458 Y-15.545
X-188.091 Y-15.438
X-188.73 Y-15.377
X-189.372 Y-15.341
X-190.013 Y-15.32
X-190.655 Y-15.308
X-191.282 Y-15.168
X-191.891 Y-14.963
X-192.498 Y-14.754
X-193.112 Y-14.566
X-193.735 Y-14.411
X-194.366 Y-14.292
X-195.003 Y-14.205
X-195.642 Y-14.143
X-196.283 Y-14.101
X-196.924 Y-14.073
X-197.317 Y-14.075
X-197.631 Y-14.102
X-197.863 Y-14.14
X-197.952 Y-14.163
X-198.134 Y-14.235
X-198.29 Y-14.352
X-198.411 Y-14.507
X-198.487 Y-14.687
X-198.513 Y-14.881
Y-14.943
X-198.516 Y-15.024
G3 X-197.951 Y-15.224 I0.317 J-0.002
G1 X-197.906 Y-15.169 Z-1.992
X-197.865 Y-15.117 Z-1.969
X-197.827 Y-15.07 Z-1.931
X-197.795 Y-15.031 Z-1.88
X-197.772 Y-15.001 Z-1.82
X-197.757 Y-14.983 Z-1.753
X-197.752 Y-14.977 Z-1.683
G0 Z30
X-185.475 Y-17.157
Z-1.365
G1 Z-1.683 F1000
X-185.477 Y-17.149 Z-1.753
X-185.484 Y-17.127 Z-1.82
X-185.494 Y-17.09 Z-1.88
X-185.508 Y-17.042 Z-1.931
X-185.525 Y-16.984 Z-1.969
X-185.544 Y-16.92 Z-1.992
X-185.563 Y-16.852 Z-2
G3 X-185.962 Y-16.175 I-1.52 J-0.441
G1 X-186.031 Y-16.111
X-186.108 Y-16.025
X-186.159 Y-15.965
X-186.259 Y-15.819
X-186.333 Y-15.673
X-186.351 Y-15.629
X-186.415 Y-15.493
X-186.498 Y-15.368
X-186.594 Y-15.253
X-186.706 Y-15.141
X-186.848 Y-15.022
X-187.009 Y-14.907
X-187.218 Y-14.781
X-187.477 Y-14.654
X-187.806 Y-14.522
X-188.236 Y-14.39
X-188.842 Y-14.255
X-189.478 Y-14.167
X-190.111 Y-14.062
X-190.737 Y-13.917
X-191.356 Y-13.747
X-191.974 Y-13.571
X-192.594 Y-13.405
X-193.219 Y-13.257
X-193.849 Y-13.134
X-194.484 Y-13.034
X-195.121 Y-12.956
X-195.761 Y-12.897
X-196.402 Y-12.859
X-196.929 Y-12.861
X-197.291 Y-12.891
X-197.551 Y-12.934
X-197.798 Y-12.996
X-197.993 Y-13.062
X-198.064 Y-13.092
X-198.247 Y-13.205
X-198.39 Y-13.365
X-198.481 Y-13.56
X-198.512 Y-13.773
X-198.513 Y-14.881
G3 X-198.235 Y-15.196 I0.317 J0
G1 X-197.911 Y-15.238
X-186.625 Y-16.678
G3 X-186.271 Y-16.41 I0.04 J0.315
X-186.351 Y-15.629 I-1.565 J0.234
G1 X-186.393 Y-15.527
X-186.44 Y-15.381
X-186.468 Y-15.235
X-186.483 Y-15.089
X-186.484 Y-15.045
X-186.496 Y-14.896
X-186.537 Y-14.751
X-186.595 Y-14.613
X-186.669 Y-14.482
X-186.754 Y-14.359
X-186.862 Y-14.227
X-186.993 Y-14.092
X-187.149 Y-13.955
X-187.357 Y-13.799
X-187.586 Y-13.656
X-187.882 Y-13.502
X-188.338 Y-13.309
X-188.948 Y-13.107
X-189.566 Y-12.931
X-190.802 Y-12.583
X-191.421 Y-12.412
X-192.043 Y-12.251
X-192.668 Y-12.104
X-193.297 Y-11.976
X-193.93 Y-11.867
X-194.566 Y-11.776
X-195.204 Y-11.705
X-195.844 Y-11.657
X-196.463 Y-11.644
X-196.967 Y-11.674
X-197.332 Y-11.725
X-197.641 Y-11.794
X-197.869 Y-11.865
X-198.082 Y-11.95
X-198.101 Y-11.959
X-198.27 Y-12.075
X-198.401 Y-12.232
X-198.484 Y-12.42
X-198.512 Y-12.623
Y-13.773
G3 X-198.231 Y-14.077 I0.317 J0.011
G1 X-197.899 Y-14.114
X-187.088 Y-15.331
X-186.837 Y-15.359
G3 X-186.484 Y-15.045 I0.036 J0.316
G1 X-186.487 Y-14.943
X-186.488 Y-14.214
X-186.495 Y-14.064
X-186.524 Y-13.916
X-186.57 Y-13.774
X-186.63 Y-13.636
X-186.704 Y-13.501
X-186.796 Y-13.361
X-186.922 Y-13.2
X-187.065 Y-13.043
X-187.252 Y-12.869
X-187.495 Y-12.678
X-187.806 Y-12.471
X-188.253 Y-12.223
X-188.838 Y-11.957
X-189.438 Y-11.729
X-190.047 Y-11.525
X-190.661 Y-11.337
X-191.28 Y-11.164
X-191.902 Y-11.007
X-192.529 Y-10.866
X-193.159 Y-10.742
X-193.792 Y-10.635
X-194.428 Y-10.547
X-195.067 Y-10.479
X-195.708 Y-10.438
X-196.35 Y-10.434
X-196.889 Y-10.473
X-197.319 Y-10.54
X-197.627 Y-10.613
X-197.88 Y-10.695
X-198.087 Y-10.781
X-198.11 Y-10.793
X-198.276 Y-10.909
X-198.404 Y-11.066
X-198.485 Y-11.252
X-198.512 Y-11.452
Y-12.623
G3 X-198.239 Y-12.926 I0.317 J0.011
G1 X-197.901 Y-12.973
X-187.1 Y-14.482
X-186.849 Y-14.517
G3 X-186.488 Y-14.214 I0.044 J0.314
G1 Y-13.192
X-186.495 Y-13.042
X-186.524 Y-12.895
X-186.568 Y-12.752
X-186.626 Y-12.609
X-186.701 Y-12.461
X-186.807 Y-12.288
X-186.934 Y-12.114
X-187.097 Y-11.924
X-187.314 Y-11.709
X-187.572 Y-11.491
X-187.919 Y-11.243
X-188.385 Y-10.964
X-188.961 Y-10.679
X-189.555 Y-10.436
X-190.161 Y-10.222
X-190.774 Y-10.032
X-191.394 Y-9.862
X-192.018 Y-9.712
X-192.646 Y-9.579
X-193.278 Y-9.463
X-193.913 Y-9.366
X-194.55 Y-9.29
X-195.19 Y-9.238
X-195.832 Y-9.217
X-196.474 Y-9.236
X-196.991 Y-9.291
X-197.406 Y-9.369
X-197.712 Y-9.452
X-197.948 Y-9.537
X-198.078 Y-9.597
X-198.256 Y-9.711
X-198.395 Y-9.87
X-198.482 Y-10.062
X-198.512 Y-10.271
Y-11.452
G3 X-198.243 Y-11.755 I0.317 J0.011
G1 X-197.901 Y-11.807
X-187.1 Y-13.457
X-186.853 Y-13.495
G3 X-186.488 Y-13.192 I0.048 J0.314
G1 Y-12.09
X-186.495 Y-11.94
X-186.522 Y-11.793
X-186.562 Y-11.648
X-186.622 Y-11.491
X-186.697 Y-11.332
X-186.799 Y-11.154
X-186.938 Y-10.952
X-187.099 Y-10.754
X-187.324 Y-10.519
X-187.582 Y-10.289
X-187.933 Y-10.025
X-188.374 Y-9.744
X-188.942 Y-9.444
X-189.531 Y-9.189
X-190.134 Y-8.968
X-190.747 Y-8.775
X-191.366 Y-8.606
X-191.991 Y-8.457
X-192.62 Y-8.327
X-193.252 Y-8.216
X-193.888 Y-8.125
X-194.527 Y-8.056
X-195.167 Y-8.013
X-195.809 Y-8.001
X-196.451 Y-8.027
X-197.006 Y-8.093
X-197.406 Y-8.173
X-197.732 Y-8.266
X-197.96 Y-8.351
X-198.086 Y-8.411
X-198.261 Y-8.526
X-198.397 Y-8.684
X-198.483 Y-8.875
X-198.512 Y-9.082
Y-10.271
G3 X-198.245 Y-10.574 I0.317 J0.011
G1 X-197.902 Y-10.629
X-187.099 Y-12.353
X-186.855 Y-12.392
G3 X-186.488 Y-12.09 I0.05 J0.314
G1 Y-10.922
X-186.495 Y-10.773
X-186.519 Y-10.625
X-186.557 Y-10.479
X-186.614 Y-10.319
X-186.689 Y-10.152
X-186.789 Y-9.97
X-186.925 Y-9.763
X-187.084 Y-9.558
X-187.309 Y-9.314
X-187.56 Y-9.08
X-187.902 Y-8.811
X-188.319 Y-8.533
X-188.86 Y-8.233
X-189.444 Y-7.967
X-190.045 Y-7.74
X-190.656 Y-7.542
X-191.274 Y-7.37
X-191.899 Y-7.22
X-192.528 Y-7.091
X-193.161 Y-6.983
X-193.797 Y-6.895
X-194.436 Y-6.831
X-195.077 Y-6.791
X-195.719 Y-6.781
X-196.361 Y-6.809
X-196.947 Y-6.878
X-197.377 Y-6.964
X-197.711 Y-7.059
X-197.948 Y-7.148
X-198.086 Y-7.213
X-198.261 Y-7.327
X-198.397 Y-7.486
X-198.483 Y-7.677
X-198.512 Y-7.884
Y-9.082
G3 X-198.246 Y-9.384 I0.317 J0.011
G1 X-197.902 Y-9.44
X-187.099 Y-11.185
X-186.855 Y-11.225
G3 X-186.488 Y-10.922 I0.051 J0.313
G1 Y-9.689
X-186.495 Y-9.539
X-186.52 Y-9.391
X-186.558 Y-9.246
X-186.618 Y-9.079
X-186.692 Y-8.913
X-186.798 Y-8.72
X-186.931 Y-8.518
X-187.101 Y-8.3
X-187.323 Y-8.058
X-187.586 Y-7.815
X-187.925 Y-7.547
X-188.358 Y-7.259
X-188.9 Y-6.959
X-189.484 Y-6.693
X-190.085 Y-6.466
X-190.697 Y-6.271
X-191.316 Y-6.102
X-191.942 Y-5.957
X-192.572 Y-5.833
X-193.206 Y-5.732
X-193.843 Y-5.652
X-194.483 Y-5.596
X-195.125 Y-5.565
X-195.767
X-196.408 Y-5.602
X-196.994 Y-5.678
X-197.411 Y-5.767
X-197.744 Y-5.867
X-197.975 Y-5.957
X-198.095 Y-6.015
X-198.266 Y-6.13
X-198.399 Y-6.288
X-198.484 Y-6.477
X-198.512 Y-6.681
Y-7.884
G3 X-198.245 Y-8.186 I0.317 J0.011
G1 X-197.902 Y-8.24
X-187.099 Y-9.953
X-186.855 Y-9.992
G3 X-186.488 Y-9.689 I0.05 J0.314
G1 Y-8.522
X-186.496 Y-8.348
X-186.516 Y-8.199
X-186.549 Y-8.053
X-186.6 Y-7.895
X-186.669 Y-7.725
X-186.761 Y-7.544
X-186.891 Y-7.334
X-187.04 Y-7.13
X-187.25 Y-6.886
X-187.489 Y-6.65
X-187.814 Y-6.378
X-188.188 Y-6.111
X-188.678 Y-5.82
X-189.254 Y-5.536
X-189.849 Y-5.295
X-190.457 Y-5.089
X-191.075 Y-4.912
X-191.699 Y-4.76
X-192.328 Y-4.631
X-192.961 Y-4.525
X-193.598 Y-4.441
X-194.237 Y-4.38
X-194.878 Y-4.345
X-195.521 Y-4.339
X-196.162 Y-4.367
X-196.785 Y-4.433
X-197.286 Y-4.527
X-197.637 Y-4.623
X-197.904 Y-4.719
X-198.131 Y-4.823
X-198.289 Y-4.94
X-198.41 Y-5.095
X-198.486 Y-5.276
X-198.512 Y-5.47
Y-6.681
G3 X-198.246 Y-6.984 I0.317 J0.011
G1 X-197.902 Y-7.039
X-187.099 Y-8.785
X-186.855 Y-8.824
G3 X-186.488 Y-8.522 I0.051 J0.313
G1 Y-7.208
X-186.495 Y-7.058
X-186.518 Y-6.91
X-186.557 Y-6.759
X-186.613 Y-6.599
X-186.689 Y-6.425
X-186.794 Y-6.229
X-186.921 Y-6.033
X-187.1 Y-5.8
X-187.301 Y-5.577
X-187.582 Y-5.312
X-187.897 Y-5.059
X-188.315 Y-4.776
X-188.842 Y-4.478
X-189.424 Y-4.207
X-190.024 Y-3.977
X-190.635 Y-3.781
X-191.255 Y-3.613
X-191.881 Y-3.471
X-192.513 Y-3.353
X-193.148 Y-3.257
X-193.786 Y-3.185
X-194.426 Y-3.138
X-195.068 Y-3.117
X-195.71 Y-3.125
X-196.351 Y-3.168
X-196.958 Y-3.249
X-197.418 Y-3.348
X-197.735 Y-3.444
X-197.982 Y-3.54
X-198.096 Y-3.596
X-198.267 Y-3.712
X-198.4 Y-3.869
X-198.484 Y-4.058
X-198.512 Y-4.262
Y-5.47
G3 X-198.243 Y-5.773 I0.317 J0.011
G1 X-197.901 Y-5.825
X-187.1 Y-7.473
X-186.853 Y-7.511
G3 X-186.488 Y-7.208 I0.048 J0.314
G1 Y-5.96
X-186.495 Y-5.81
X-186.518 Y-5.662
X-186.554 Y-5.517
X-186.611 Y-5.35
X-186.683 Y-5.184
X-186.784 Y-4.992
X-186.914 Y-4.788
X-187.078 Y-4.572
X-187.296 Y-4.328
X-187.549 Y-4.086
X-187.88 Y-3.818
X-188.295 Y-3.533
X-188.794 Y-3.247
X-189.375 Y-2.973
X-189.974 Y-2.741
X-190.585 Y-2.544
X-191.205 Y-2.377
X-191.831 Y-2.236
X-192.463 Y-2.12
X-193.098 Y-2.027
X-193.737 Y-1.958
X-194.378 Y-1.913
X-195.019 Y-1.893
X-195.662 Y-1.902
X-196.302 Y-1.943
X-196.913 Y-2.023
X-197.382 Y-2.124
X-197.722 Y-2.226
X-197.965 Y-2.32
X-198.095 Y-2.384
X-198.267 Y-2.499
X-198.4 Y-2.657
X-198.484 Y-2.846
X-198.512 Y-3.05
Y-4.262
G3 X-198.242 Y-4.565 I0.317 J0.011
G1 X-197.901 Y-4.616
X-187.1 Y-6.226
X-186.852 Y-6.263
G3 X-186.488 Y-5.96 I0.047 J0.314
G1 Y-4.727
X-186.495 Y-4.577
X-186.505 Y-4.428
X-186.53 Y-4.28
X-186.568 Y-4.134
X-186.616 Y-3.993
X-186.675 Y-3.855
X-186.743 Y-3.721
X-186.817 Y-3.591
X-186.899 Y-3.465
X-186.987 Y-3.343
X-187.08 Y-3.226
X-187.178 Y-3.112
X-187.28 Y-3.002
X-187.386 Y-2.896
X-187.496 Y-2.794
X-187.609 Y-2.696
X-187.725 Y-2.6
X-187.843 Y-2.508
X-187.965 Y-2.42
X-188.088 Y-2.335
X-188.214 Y-2.253
X-188.341 Y-2.173
X-188.47 Y-2.097
X-188.601 Y-2.023
X-188.733 Y-1.952
X-188.866 Y-1.884
X-189.001 Y-1.818
X-189.137 Y-1.754
X-189.274 Y-1.693
X-189.411 Y-1.634
X-189.55 Y-1.576
X-189.69 Y-1.521
X-189.83 Y-1.468
X-189.971 Y-1.417
X-190.113 Y-1.368
X-190.255 Y-1.32
X-190.398 Y-1.275
X-190.541 Y-1.231
X-190.685 Y-1.189
X-190.83 Y-1.148
X-190.974 Y-1.109
X-191.12 Y-1.071
X-191.265 Y-1.035
X-191.411 Y-1
X-191.557 Y-0.967
X-191.704 Y-0.935
X-191.851 Y-0.905
X-191.998 Y-0.876
X-192.146 Y-0.848
X-192.293 Y-0.822
X-192.441 Y-0.797
X-192.589 Y-0.774
X-192.738 Y-0.752
X-192.886 Y-0.73
X-193.035 Y-0.711
X-193.184 Y-0.693
X-193.333 Y-0.676
X-193.482 Y-0.66
X-193.631 Y-0.646
X-193.781 Y-0.633
X-193.93 Y-0.621
X-194.08 Y-0.611
X-194.23 Y-0.602
X-194.379 Y-0.595
X-194.529 Y-0.589
X-194.679 Y-0.584
X-194.829 Y-0.581
X-194.979 Y-0.579
X-195.129
X-195.279 Y-0.581
X-195.429 Y-0.585
X-195.579 Y-0.59
X-195.729 Y-0.596
X-195.879 Y-0.605
X-196.028 Y-0.616
X-196.178 Y-0.629
X-196.327 Y-0.644
X-196.476 Y-0.661
X-196.625 Y-0.682
X-196.773 Y-0.704
X-196.921 Y-0.729
X-197.068 Y-0.758
X-197.215 Y-0.789
X-197.361 Y-0.824
X-197.506 Y-0.863
X-197.649 Y-0.906
X-197.791 Y-0.955
X-197.931 Y-1.008
X-198.069 Y-1.068
X-198.1 Y-1.083
X-198.269 Y-1.198
X-198.401 Y-1.356
X-198.484 Y-1.544
X-198.512 Y-1.747
Y-3.05
G3 X-198.241 Y-3.353 I0.317 J0.011
G1 X-197.901 Y-3.403
X-187.1 Y-4.993
X-186.851 Y-5.03
G3 X-186.488 Y-4.727 I0.046 J0.314
G1 Y-3.413
X-186.496 Y-3.244
X-186.515 Y-3.096
X-186.549 Y-2.949
X-186.599 Y-2.794
X-186.668 Y-2.626
X-186.761 Y-2.443
X-186.883 Y-2.244
X-187.039 Y-2.031
X-187.235 Y-1.802
X-187.359 Y-1.68
X-187.427 Y-1.617
X-187.5 Y-1.554
X-187.802 Y-1.298
X-187.933 Y-1.205
X-188.066 Y-1.116
X-188.118 Y-1.09
X-188.174 Y-1.074
X-188.231 Y-1.069
X-188.232
G3 X-188.491 Y-1.57 I0 J-0.317
G1 X-187.064 Y-3.586
G3 X-186.488 Y-3.413 I0.259 J0.183
G1 Y-2.1
X-186.495 Y-1.95
X-186.521 Y-1.802
X-186.563 Y-1.646
X-186.617 Y-1.495
X-186.638 Y-1.336
X-186.623 Y-1.176
X-186.555 Y-0.961
X-186.518 Y-0.895
X-186.495 Y-0.822
X-186.488 Y-0.746
G3 X-187.122 Y-0.757 I-0.317 J-0.011
G1 Y-2.089
G3 X-186.488 Y-2.1 I0.317 J0
G1 X-186.487 Y-0.057
G3 X-186.758 Y0.246 I-0.317 J-0.011
G1 X-187.099 Y0.297
X-199.756 Y2.191
G3 X-199.855 Y1.563 I-0.047 J-0.314
G1 X-199.825 Y1.559
X-199.763 Y1.549
X-199.679 Y1.527
X-199.533 Y1.482
X-199.364 Y1.403
X-199.241 Y1.329
X-199.134 Y1.257
X-199.096 Y1.229
X-198.968 Y1.111
X-198.95 Y1.091
X-198.845 Y0.965
X-198.741 Y0.819
X-198.658 Y0.655
X-198.606 Y0.527
X-198.562 Y0.381
X-198.532 Y0.235
X-198.519 Y0.089
X-198.513 Y-0.057
X-198.512 Y-1.747
G3 X-197.939 Y-1.924 I0.317 J0.011
G1 X-197.897 Y-1.867 Z-1.992
X-197.858 Y-1.813 Z-1.969
X-197.822 Y-1.764 Z-1.931
X-197.792 Y-1.724 Z-1.88
X-197.77 Y-1.693 Z-1.82
X-197.756 Y-1.674 Z-1.753
X-197.751 Y-1.668 Z-1.683
G0 Z35

(2D Adaptive2)
X-192.246 Y-10.255
Z35
Z30
Z0.335
G1 Z0.018 F1000
X-192.248 Y-10.263 Z-0.053
X-192.253 Y-10.286 Z-0.12
X-192.263 Y-10.322 Z-0.18
X-192.275 Y-10.371 Z-0.231
X-192.29 Y-10.429 Z-0.269
X-192.307 Y-10.494 Z-0.292
X-192.324 Y-10.563 Z-0.3
G3 X-192.573 Y-12.291 I7.852 J-2.011
G1 Y-12.441
X-192.526 Y-12.584
X-192.442 Y-12.708
X-192.34 Y-12.818
X-192.226 Y-12.916
X-192.104 Y-13.003
X-191.976 Y-13.082
X-191.844 Y-13.152
X-191.708 Y-13.215
X-191.569 Y-13.272
X-191.428 Y-13.323
X-191.285 Y-13.369
X-191.141 Y-13.411
X-190.996 Y-13.448
X-190.85 Y-13.482
X-190.703 Y-13.512
X-190.555 Y-13.54
X-190.407 Y-13.565
X-190.259 Y-13.587
X-190.11 Y-13.607
X-189.962 Y-13.625
X-189.812 Y-13.642
X-189.663 Y-13.657
X-189.514 Y-13.67
X-189.364 Y-13.682
X-189.209 Y-13.694
X-189.035 Y-13.705
X-188.84 Y-13.716
X-188.616 Y-13.728
X-188.355 Y-13.739
X-188.04 Y-13.751
X-187.646 Y-13.762
X-187.245 Y-13.771
X-187.012 Y-13.739
X-186.801 Y-13.636
X-186.633 Y-13.471
X-186.525 Y-13.263
X-186.488 Y-13.031
G3 X-187.061 Y-12.854 I-0.317 J-0.011
G1 X-187.103 Y-12.911 Z-0.292
X-187.142 Y-12.965 Z-0.269
X-187.178 Y-13.013 Z-0.231
X-187.208 Y-13.054 Z-0.18
X-187.23 Y-13.084 Z-0.12
X-187.244 Y-13.103 Z-0.053
X-187.249 Y-13.11 Z0.018
G0 Z30
X-197.858 Y-10.438
Z0.335
G1 Z0.018 F1000
X-197.862 Y-10.445 Z-0.053
X-197.874 Y-10.465 Z-0.12
X-197.894 Y-10.498 Z-0.18
X-197.919 Y-10.541 Z-0.231
X-197.95 Y-10.593 Z-0.269
X-197.984 Y-10.65 Z-0.292
X-198.02 Y-10.711 Z-0.3
G3 X-198.512 Y-12.387 I3.024 J-1.798
G1 Y-12.576
X-198.511 Y-12.614
X-198.421 Y-12.734
X-198.316 Y-12.841
X-198.201 Y-12.937
X-198.077 Y-13.022
X-197.948 Y-13.099
X-197.815 Y-13.167
X-197.678 Y-13.229
X-197.539 Y-13.285
X-197.397 Y-13.334
X-197.254 Y-13.379
X-197.11 Y-13.42
X-196.964 Y-13.456
X-196.818 Y-13.489
X-196.671 Y-13.519
X-196.523 Y-13.546
X-196.375 Y-13.57
X-196.227 Y-13.592
X-196.078 Y-13.611
X-195.929 Y-13.629
X-195.78 Y-13.645
X-195.631 Y-13.66
X-195.481 Y-13.673
X-195.332 Y-13.685
X-195.172 Y-13.696
X-194.994 Y-13.708
X-194.353 Y-13.744
X-193.736 Y-13.923
X-193.136 Y-14.152
X-192.996 Y-14.204
X-192.779 Y-14.282
X-192.703 Y-14.309
G3 X-192.304 Y-14.092 I0.094 J0.303
X-192.531 Y-13.698 I-0.306 J0.086
G1 X-197.905 Y-12.334
X-198.117 Y-12.28
G3 X-198.512 Y-12.576 I-0.078 J-0.308
G1 Y-13.05
X-198.505 Y-13.2
X-198.453 Y-13.34
X-198.385 Y-13.474
X-198.303 Y-13.6
X-198.21 Y-13.717
X-198.138 Y-13.861
X-198.099 Y-14.017
X-198.094 Y-14.177
X-198.124 Y-14.335
X-198.187 Y-14.482
X-198.268 Y-14.596
X-198.283 Y-14.61
X-198.407 Y-14.766
X-198.486 Y-14.949
X-198.512 Y-15.146
G3 X-197.878 Y-15.135 I0.317 J0.011
G1 Y-13.061
G3 X-198.512 Y-13.05 I-0.317 J0
G1 Y-14.945
G3 X-198.239 Y-15.248 I0.317 J0.011
G1 X-197.901 Y-15.295
X-187.1 Y-16.802
X-186.849 Y-16.837
G3 X-186.488 Y-16.533 I0.044 J0.314
G1 Y-14.055
G3 X-186.785 Y-13.75 I-0.317 J-0.011
G1 X-186.805 Y-13.749 Z-0.299
X-186.858 Y-13.763 Z-0.291
X-186.909 Y-13.776 Z-0.273
X-186.956 Y-13.788 Z-0.246
X-186.992 Y-13.819 Z-0.206
X-187.021 Y-13.844 Z-0.158
X-187.043 Y-13.863 Z-0.103
X-187.056 Y-13.875 Z-0.044
X-187.061 Y-13.879 Z0.017
G0 Z30
X-192.246 Y-10.255
Z0.035
G1 Z-0.282 F1000
X-192.248 Y-10.263 Z-0.353
X-192.253 Y-10.286 Z-0.42
X-192.263 Y-10.322 Z-0.48
X-192.275 Y-10.371 Z-0.531
X-192.29 Y-10.429 Z-0.569
X-192.307 Y-10.494 Z-0.592
X-192.324 Y-10.563 Z-0.6
G3 X-192.573 Y-12.291 I7.852 J-2.011
G1 Y-12.441
X-192.526 Y-12.584
X-192.442 Y-12.708
X-192.34 Y-12.818
X-192.226 Y-12.916
X-192.104 Y-13.003
X-191.976 Y-13.082
X-191.844 Y-13.152
X-191.708 Y-13.215
X-191.569 Y-13.272
X-191.428 Y-13.323
X-191.285 Y-13.369
X-191.141 Y-13.411
X-190.996 Y-13.448
X-190.85 Y-13.482
X-190.703 Y-13.512
X-190.555 Y-13.54
X-190.407 Y-13.565
X-190.259 Y-13.587
X-190.11 Y-13.607
X-189.962 Y-13.625
X-189.812 Y-13.642
X-189.663 Y-13.657
X-189.514 Y-13.67
X-189.364 Y-13.682
X-189.209 Y-13.694
X-189.035 Y-13.705
X-188.84 Y-13.716
X-188.616 Y-13.728
X-188.355 Y-13.739
X-188.04 Y-13.751
X-187.646 Y-13.762
X-187.245 Y-13.771
X-187.012 Y-13.739
X-186.801 Y-13.636
X-186.633 Y-13.471
X-186.525 Y-13.263
X-186.488 Y-13.031
G3 X-187.061 Y-12.854 I-0.317 J-0.011
G1 X-187.103 Y-12.911 Z-0.592
X-187.142 Y-12.965 Z-0.569
X-187.178 Y-13.013 Z-0.531
X-187.208 Y-13.054 Z-0.48
X-187.23 Y-13.084 Z-0.42
X-187.244 Y-13.103 Z-0.353
X-187.249 Y-13.11 Z-0.282
G0 Z30
X-197.858 Y-10.438
Z0.035
G1 Z-0.282 F1000
X-197.862 Y-10.445 Z-0.353
X-197.874 Y-10.465 Z-0.42
X-197.894 Y-10.498 Z-0.48
X-197.919 Y-10.541 Z-0.531
X-197.95 Y-10.593 Z-0.569
X-197.984 Y-10.65 Z-0.592
X-198.02 Y-10.711 Z-0.6
G3 X-198.512 Y-12.387 I3.024 J-1.798
G1 Y-12.576
X-198.511 Y-12.614
X-198.421 Y-12.734
X-198.316 Y-12.841
X-198.201 Y-12.937
X-198.077 Y-13.022
X-197.948 Y-13.099
X-197.815 Y-13.167
X-197.678 Y-13.229
X-197.539 Y-13.285
X-197.397 Y-13.334
X-197.254 Y-13.379
X-197.11 Y-13.42
X-196.964 Y-13.456
X-196.818 Y-13.489
X-196.671 Y-13.519
X-196.523 Y-13.546
X-196.375 Y-13.57
X-196.227 Y-13.592
X-196.078 Y-13.611
X-195.929 Y-13.629
X-195.78 Y-13.645
X-195.631 Y-13.66
X-195.481 Y-13.673
X-195.332 Y-13.685
X-195.172 Y-13.696
X-194.994 Y-13.708
X-194.353 Y-13.744
X-193.736 Y-13.923
X-193.136 Y-14.152
X-192.996 Y-14.204
X-192.779 Y-14.282
X-192.703 Y-14.309
G3 X-192.304 Y-14.092 I0.094 J0.303
X-192.531 Y-13.698 I-0.306 J0.086
G1 X-197.905 Y-12.334
X-198.117 Y-12.28
G3 X-198.512 Y-12.576 I-0.078 J-0.308
G1 Y-13.05
X-198.505 Y-13.2
X-198.453 Y-13.34
X-198.385 Y-13.474
X-198.303 Y-13.6
X-198.21 Y-13.717
X-198.138 Y-13.861
X-198.099 Y-14.017
X-198.094 Y-14.177
X-198.124 Y-14.335
X-198.187 Y-14.482
X-198.268 Y-14.596
X-198.283 Y-14.61
X-198.407 Y-14.766
X-198.486 Y-14.949
X-198.512 Y-15.146
G3 X-197.878 Y-15.135 I0.317 J0.011
G1 Y-13.061
G3 X-198.512 Y-13.05 I-0.317 J0
G1 Y-14.945
G3 X-198.239 Y-15.248 I0.317 J0.011
G1 X-197.901 Y-15.295
X-187.1 Y-16.802
X-186.849 Y-16.837
G3 X-186.488 Y-16.533 I0.044 J0.314
G1 Y-14.055
G3 X-186.785 Y-13.75 I-0.317 J-0.011
G1 X-186.805 Y-13.749 Z-0.599
X-186.858 Y-13.763 Z-0.591
X-186.909 Y-13.776 Z-0.573
X-186.956 Y-13.788 Z-0.546
X-186.992 Y-13.819 Z-0.506
X-187.021 Y-13.844 Z-0.458
X-187.043 Y-13.863 Z-0.403
X-187.056 Y-13.875 Z-0.344
X-187.061 Y-13.879 Z-0.283
G0 Z30
X-192.246 Y-10.255
Z-0.265
G1 Z-0.582 F1000
X-192.248 Y-10.263 Z-0.653
X-192.253 Y-10.286 Z-0.72
X-192.263 Y-10.322 Z-0.78
X-192.275 Y-10.371 Z-0.831
X-192.29 Y-10.429 Z-0.869
X-192.307 Y-10.494 Z-0.892
X-192.324 Y-10.563 Z-0.9
G3 X-192.573 Y-12.291 I7.852 J-2.011
G1 Y-12.441
X-192.526 Y-12.584
X-192.442 Y-12.708
X-192.34 Y-12.818
X-192.226 Y-12.916
X-192.104 Y-13.003
X-191.976 Y-13.082
X-191.844 Y-13.152
X-191.708 Y-13.215
X-191.569 Y-13.272
X-191.428 Y-13.323
X-191.285 Y-13.369
X-191.141 Y-13.411
X-190.996 Y-13.448
X-190.85 Y-13.482
X-190.703 Y-13.512
X-190.555 Y-13.54
X-190.407 Y-13.565
X-190.259 Y-13.587
X-190.11 Y-13.607
X-189.962 Y-13.625
X-189.812 Y-13.642
X-189.663 Y-13.657
X-189.514 Y-13.67
X-189.364 Y-13.682
X-189.209 Y-13.694
X-189.035 Y-13.705
X-188.84 Y-13.716
X-188.616 Y-13.728
X-188.355 Y-13.739
X-188.04 Y-13.751
X-187.646 Y-13.762
X-187.245 Y-13.771
X-187.012 Y-13.739
X-186.801 Y-13.636
X-186.633 Y-13.471
X-186.525 Y-13.263
X-186.488 Y-13.031
G3 X-187.061 Y-12.854 I-0.317 J-0.011
G1 X-187.103 Y-12.911 Z-0.892
X-187.142 Y-12.965 Z-0.869
X-187.178 Y-13.013 Z-0.831
X-187.208 Y-13.054 Z-0.78
X-187.23 Y-13.084 Z-0.72
X-187.244 Y-13.103 Z-0.653
X-187.249 Y-13.11 Z-0.582
G0 Z30
X-197.858 Y-10.438
Z-0.265
G1 Z-0.582 F1000
X-197.862 Y-10.445 Z-0.653
X-197.874 Y-10.465 Z-0.72
X-197.894 Y-10.498 Z-0.78
X-197.919 Y-10.541 Z-0.831
X-197.95 Y-10.593 Z-0.869
X-197.984 Y-10.65 Z-0.892
X-198.02 Y-10.711 Z-0.9
G3 X-198.512 Y-12.387 I3.024 J-1.798
G1 Y-12.576
X-198.511 Y-12.614
X-198.421 Y-12.734
X-198.316 Y-12.841
X-198.201 Y-12.937
X-198.077 Y-13.022
X-197.948 Y-13.099
X-197.815 Y-13.167
X-197.678 Y-13.229
X-197.539 Y-13.285
X-197.397 Y-13.334
X-197.254 Y-13.379
X-197.11 Y-13.42
X-196.964 Y-13.456
X-196.818 Y-13.489
X-196.671 Y-13.519
X-196.523 Y-13.546
X-196.375 Y-13.57
X-196.227 Y-13.592
X-196.078 Y-13.611
X-195.929 Y-13.629
X-195.78 Y-13.645
X-195.631 Y-13.66
X-195.481 Y-13.673
X-195.332 Y-13.685
X-195.172 Y-13.696
X-194.994 Y-13.708
X-194.353 Y-13.744
X-193.736 Y-13.923
X-193.136 Y-14.152
X-192.996 Y-14.204
X-192.779 Y-14.282
X-192.703 Y-14.309
G3 X-192.304 Y-14.092 I0.094 J0.303
X-192.531 Y-13.698 I-0.306 J0.086
G1 X-197.905 Y-12.334
X-198.117 Y-12.28
G3 X-198.512 Y-12.576 I-0.078 J-0.308
G1 Y-13.05
X-198.505 Y-13.2
X-198.453 Y-13.34
X-198.385 Y-13.474
X-198.303 Y-13.6
X-198.21 Y-13.717
X-198.138 Y-13.861
X-198.099 Y-14.017
X-198.094 Y-14.177
X-198.124 Y-14.335
X-198.187 Y-14.482
X-198.268 Y-14.596
X-198.283 Y-14.61
X-198.407 Y-14.766
X-198.486 Y-14.949
X-198.512 Y-15.146
G3 X-197.878 Y-15.135 I0.317 J0.011
G1 Y-13.061
G3 X-198.512 Y-13.05 I-0.317 J0
G1 Y-14.945
G3 X-198.239 Y-15.248 I0.317 J0.011
G1 X-197.901 Y-15.295
X-187.1 Y-16.802
X-186.849 Y-16.837
G3 X-186.488 Y-16.533 I0.044 J0.314
G1 Y-14.055
G3 X-186.785 Y-13.75 I-0.317 J-0.011
G1 X-186.805 Y-13.749 Z-0.899
X-186.858 Y-13.763 Z-0.891
X-186.909 Y-13.776 Z-0.873
X-186.956 Y-13.788 Z-0.846
X-186.992 Y-13.819 Z-0.806
X-187.021 Y-13.844 Z-0.758
X-187.043 Y-13.863 Z-0.703
X-187.056 Y-13.875 Z-0.644
X-187.061 Y-13.879 Z-0.583
G0 Z30
X-192.246 Y-10.255
Z-0.565
G1 Z-0.882 F1000
X-192.248 Y-10.263 Z-0.953
X-192.253 Y-10.286 Z-1.02
X-192.263 Y-10.322 Z-1.08
X-192.275 Y-10.371 Z-1.131
X-192.29 Y-10.429 Z-1.169
X-192.307 Y-10.494 Z-1.192
X-192.324 Y-10.563 Z-1.2
G3 X-192.573 Y-12.291 I7.852 J-2.011
G1 Y-12.441
X-192.526 Y-12.584
X-192.442 Y-12.708
X-192.34 Y-12.818
X-192.226 Y-12.916
X-192.104 Y-13.003
X-191.976 Y-13.082
X-191.844 Y-13.152
X-191.708 Y-13.215
X-191.569 Y-13.272
X-191.428 Y-13.323
X-191.285 Y-13.369
X-191.141 Y-13.411
X-190.996 Y-13.448
X-190.85 Y-13.482
X-190.703 Y-13.512
X-190.555 Y-13.54
X-190.407 Y-13.565
X-190.259 Y-13.587
X-190.11 Y-13.607
X-189.962 Y-13.625
X-189.812 Y-13.642
X-189.663 Y-13.657
X-189.514 Y-13.67
X-189.364 Y-13.682
X-189.209 Y-13.694
X-189.035 Y-13.705
X-188.84 Y-13.716
X-188.616 Y-13.728
X-188.355 Y-13.739
X-188.04 Y-13.751
X-187.646 Y-13.762
X-187.245 Y-13.771
X-187.012 Y-13.739
X-186.801 Y-13.636
X-186.633 Y-13.471
X-186.525 Y-13.263
X-186.488 Y-13.031
G3 X-187.061 Y-12.854 I-0.317 J-0.011
G1 X-187.103 Y-12.911 Z-1.192
X-187.142 Y-12.965 Z-1.169
X-187.178 Y-13.013 Z-1.131
X-187.208 Y-13.054 Z-1.08
X-187.23 Y-13.084 Z-1.02
X-187.244 Y-13.103 Z-0.953
X-187.249 Y-13.11 Z-0.882
G0 Z30
X-197.858 Y-10.438
Z-0.565
G1 Z-0.882 F1000
X-197.862 Y-10.445 Z-0.953
X-197.874 Y-10.465 Z-1.02
X-197.894 Y-10.498 Z-1.08
X-197.919 Y-10.541 Z-1.131
X-197.95 Y-10.593 Z-1.169
X-197.984 Y-10.65 Z-1.192
X-198.02 Y-10.711 Z-1.2
G3 X-198.512 Y-12.387 I3.024 J-1.798
G1 Y-12.576
X-198.511 Y-12.614
X-198.421 Y-12.734
X-198.316 Y-12.841
X-198.201 Y-12.937
X-198.077 Y-13.022
X-197.948 Y-13.099
X-197.815 Y-13.167
X-197.678 Y-13.229
X-197.539 Y-13.285
X-197.397 Y-13.334
X-197.254 Y-13.379
X-197.11 Y-13.42
X-196.964 Y-13.456
X-196.818 Y-13.489
X-196.671 Y-13.519
X-196.523 Y-13.546
X-196.375 Y-13.57
X-196.227 Y-13.592
X-196.078 Y-13.611
X-195.929 Y-13.629
X-195.78 Y-13.645
X-195.631 Y-13.66
X-195.481 Y-13.673
X-195.332 Y-13.685
X-195.172 Y-13.696
X-194.994 Y-13.708
X-194.353 Y-13.744
X-193.736 Y-13.923
X-193.136 Y-14.152
X-192.996 Y-14.204
X-192.779 Y-14.282
X-192.703 Y-14.309
G3 X-192.304 Y-14.092 I0.094 J0.303
X-192.531 Y-13.698 I-0.306 J0.086
G1 X-197.905 Y-12.334
X-198.117 Y-12.28
G3 X-198.512 Y-12.576 I-0.078 J-0.308
G1 Y-13.05
X-198.505 Y-13.2
X-198.453 Y-13.34
X-198.385 Y-13.474
X-198.303 Y-13.6
X-198.21 Y-13.717
X-198.138 Y-13.861
X-198.099 Y-14.017
X-198.094 Y-14.177
X-198.124 Y-14.335
X-198.187 Y-14.482
X-198.268 Y-14.596
X-198.283 Y-14.61
X-198.407 Y-14.766
X-198.486 Y-14.949
X-198.512 Y-15.146
G3 X-197.878 Y-15.135 I0.317 J0.011
G1 Y-13.061
G3 X-198.512 Y-13.05 I-0.317 J0
G1 Y-14.945
G3 X-198.239 Y-15.248 I0.317 J0.011
G1 X-197.901 Y-15.295
X-187.1 Y-16.802
X-186.849 Y-16.837
G3 X-186.488 Y-16.533 I0.044 J0.314
G1 Y-14.055
G3 X-186.785 Y-13.75 I-0.317 J-0.011
G1 X-186.805 Y-13.749 Z-1.199
X-186.858 Y-13.763 Z-1.191
X-186.909 Y-13.776 Z-1.173
X-186.956 Y-13.788 Z-1.146
X-186.992 Y-13.819 Z-1.106
X-187.021 Y-13.844 Z-1.058
X-187.043 Y-13.863 Z-1.003
X-187.056 Y-13.875 Z-0.944
X-187.061 Y-13.879 Z-0.883
G0 Z30
X-192.246 Y-10.255
Z-0.865
G1 Z-1.183 F1000
X-192.248 Y-10.263 Z-1.253
X-192.253 Y-10.286 Z-1.32
X-192.263 Y-10.322 Z-1.38
X-192.275 Y-10.371 Z-1.431
X-192.29 Y-10.429 Z-1.469
X-192.307 Y-10.494 Z-1.492
X-192.324 Y-10.563 Z-1.5
G3 X-192.573 Y-12.291 I7.852 J-2.011
G1 Y-12.441
X-192.526 Y-12.584
X-192.442 Y-12.708
X-192.34 Y-12.818
X-192.226 Y-12.916
X-192.104 Y-13.003
X-191.976 Y-13.082
X-191.844 Y-13.152
X-191.708 Y-13.215
X-191.569 Y-13.272
X-191.428 Y-13.323
X-191.285 Y-13.369
X-191.141 Y-13.411
X-190.996 Y-13.448
X-190.85 Y-13.482
X-190.703 Y-13.512
X-190.555 Y-13.54
X-190.407 Y-13.565
X-190.259 Y-13.587
X-190.11 Y-13.607
X-189.962 Y-13.625
X-189.812 Y-13.642
X-189.663 Y-13.657
X-189.514 Y-13.67
X-189.364 Y-13.682
X-189.209 Y-13.694
X-189.035 Y-13.705
X-188.84 Y-13.716
X-188.616 Y-13.728
X-188.355 Y-13.739
X-188.04 Y-13.751
X-187.646 Y-13.762
X-187.245 Y-13.771
X-187.012 Y-13.739
X-186.801 Y-13.636
X-186.633 Y-13.471
X-186.525 Y-13.263
X-186.488 Y-13.031
G3 X-187.061 Y-12.854 I-0.317 J-0.011
G1 X-187.103 Y-12.911 Z-1.492
X-187.142 Y-12.965 Z-1.469
X-187.178 Y-13.013 Z-1.431
X-187.208 Y-13.054 Z-1.38
X-187.23 Y-13.084 Z-1.32
X-187.244 Y-13.103 Z-1.253
X-187.249 Y-13.11 Z-1.183
G0 Z30
X-197.858 Y-10.438
Z-0.865
G1 Z-1.183 F1000
X-197.862 Y-10.445 Z-1.253
X-197.874 Y-10.465 Z-1.32
X-197.894 Y-10.498 Z-1.38
X-197.919 Y-10.541 Z-1.431
X-197.95 Y-10.593 Z-1.469
X-197.984 Y-10.65 Z-1.492
X-198.02 Y-10.711 Z-1.5
G3 X-198.512 Y-12.387 I3.024 J-1.798
G1 Y-12.576
X-198.511 Y-12.614
X-198.421 Y-12.734
X-198.316 Y-12.841
X-198.201 Y-12.937
X-198.077 Y-13.022
X-197.948 Y-13.099
X-197.815 Y-13.167
X-197.678 Y-13.229
X-197.539 Y-13.285
X-197.397 Y-13.334
X-197.254 Y-13.379
X-197.11 Y-13.42
X-196.964 Y-13.456
X-196.818 Y-13.489
X-196.671 Y-13.519
X-196.523 Y-13.546
X-196.375 Y-13.57
X-196.227 Y-13.592
X-196.078 Y-13.611
X-195.929 Y-13.629
X-195.78 Y-13.645
X-195.631 Y-13.66
X-195.481 Y-13.673
X-195.332 Y-13.685
X-195.172 Y-13.696
X-194.994 Y-13.708
X-194.353 Y-13.744
X-193.736 Y-13.923
X-193.136 Y-14.152
X-192.996 Y-14.204
X-192.779 Y-14.282
X-192.703 Y-14.309
G3 X-192.304 Y-14.092 I0.094 J0.303
X-192.531 Y-13.698 I-0.306 J0.086
G1 X-197.905 Y-12.334
X-198.117 Y-12.28
G3 X-198.512 Y-12.576 I-0.078 J-0.308
G1 Y-13.05
X-198.505 Y-13.2
X-198.453 Y-13.34
X-198.385 Y-13.474
X-198.303 Y-13.6
X-198.21 Y-13.717
X-198.138 Y-13.861
X-198.099 Y-14.017
X-198.094 Y-14.177
X-198.124 Y-14.335
X-198.187 Y-14.482
X-198.268 Y-14.596
X-198.283 Y-14.61
X-198.407 Y-14.766
X-198.486 Y-14.949
X-198.512 Y-15.146
G3 X-197.878 Y-15.135 I0.317 J0.011
G1 Y-13.061
G3 X-198.512 Y-13.05 I-0.317 J0
G1 Y-14.945
G3 X-198.239 Y-15.248 I0.317 J0.011
G1 X-197.901 Y-15.295
X-187.1 Y-16.802
X-186.849 Y-16.837
G3 X-186.488 Y-16.533 I0.044 J0.314
G1 Y-14.055
G3 X-186.785 Y-13.75 I-0.317 J-0.011
G1 X-186.805 Y-13.749 Z-1.499
X-186.858 Y-13.763 Z-1.491
X-186.909 Y-13.776 Z-1.473
X-186.956 Y-13.788 Z-1.446
X-186.992 Y-13.819 Z-1.406
X-187.021 Y-13.844 Z-1.358
X-187.043 Y-13.863 Z-1.303
X-187.056 Y-13.875 Z-1.244
X-187.061 Y-13.879 Z-1.183
G0 Z30
X-192.246 Y-10.255
Z-1.165
G1 Z-1.482 F1000
X-192.248 Y-10.263 Z-1.553
X-192.253 Y-10.286 Z-1.62
X-192.263 Y-10.322 Z-1.68
X-192.275 Y-10.371 Z-1.731
X-192.29 Y-10.429 Z-1.769
X-192.307 Y-10.494 Z-1.792
X-192.324 Y-10.563 Z-1.8
G3 X-192.573 Y-12.291 I7.852 J-2.011
G1 Y-12.441
X-192.526 Y-12.584
X-192.442 Y-12.708
X-192.34 Y-12.818
X-192.226 Y-12.916
X-192.104 Y-13.003
X-191.976 Y-13.082
X-191.844 Y-13.152
X-191.708 Y-13.215
X-191.569 Y-13.272
X-191.428 Y-13.323
X-191.285 Y-13.369
X-191.141 Y-13.411
X-190.996 Y-13.448
X-190.85 Y-13.482
X-190.703 Y-13.512
X-190.555 Y-13.54
X-190.407 Y-13.565
X-190.259 Y-13.587
X-190.11 Y-13.607
X-189.962 Y-13.625
X-189.812 Y-13.642
X-189.663 Y-13.657
X-189.514 Y-13.67
X-189.364 Y-13.682
X-189.209 Y-13.694
X-189.035 Y-13.705
X-188.84 Y-13.716
X-188.616 Y-13.728
X-188.355 Y-13.739
X-188.04 Y-13.751
X-187.646 Y-13.762
X-187.245 Y-13.771
X-187.012 Y-13.739
X-186.801 Y-13.636
X-186.633 Y-13.471
X-186.525 Y-13.263
X-186.488 Y-13.031
G3 X-187.061 Y-12.854 I-0.317 J-0.011
G1 X-187.103 Y-12.911 Z-1.792
X-187.142 Y-12.965 Z-1.769
X-187.178 Y-13.013 Z-1.731
X-187.208 Y-13.054 Z-1.68
X-187.23 Y-13.084 Z-1.62
X-187.244 Y-13.103 Z-1.553
X-187.249 Y-13.11 Z-1.482
G0 Z30
X-197.858 Y-10.438
Z-1.165
G1 Z-1.482 F1000
X-197.862 Y-10.445 Z-1.553
X-197.874 Y-10.465 Z-1.62
X-197.894 Y-10.498 Z-1.68
X-197.919 Y-10.541 Z-1.731
X-197.95 Y-10.593 Z-1.769
X-197.984 Y-10.65 Z-1.792
X-198.02 Y-10.711 Z-1.8
G3 X-198.512 Y-12.387 I3.024 J-1.798
G1 Y-12.576
X-198.511 Y-12.614
X-198.421 Y-12.734
X-198.316 Y-12.841
X-198.201 Y-12.937
X-198.077 Y-13.022
X-197.948 Y-13.099
X-197.815 Y-13.167
X-197.678 Y-13.229
X-197.539 Y-13.285
X-197.397 Y-13.334
X-197.254 Y-13.379
X-197.11 Y-13.42
X-196.964 Y-13.456
X-196.818 Y-13.489
X-196.671 Y-13.519
X-196.523 Y-13.546
X-196.375 Y-13.57
X-196.227 Y-13.592
X-196.078 Y-13.611
X-195.929 Y-13.629
X-195.78 Y-13.645
X-195.631 Y-13.66
X-195.481 Y-13.673
X-195.332 Y-13.685
X-195.172 Y-13.696
X-194.994 Y-13.708
X-194.353 Y-13.744
X-193.736 Y-13.923
X-193.136 Y-14.152
X-192.996 Y-14.204
X-192.779 Y-14.282
X-192.703 Y-14.309
G3 X-192.304 Y-14.092 I0.094 J0.303
X-192.531 Y-13.698 I-0.306 J0.086
G1 X-197.905 Y-12.334
X-198.117 Y-12.28
G3 X-198.512 Y-12.576 I-0.078 J-0.308
G1 Y-13.05
X-198.505 Y-13.2
X-198.453 Y-13.34
X-198.385 Y-13.474
X-198.303 Y-13.6
X-198.21 Y-13.717
X-198.138 Y-13.861
X-198.099 Y-14.017
X-198.094 Y-14.177
X-198.124 Y-14.335
X-198.187 Y-14.482
X-198.268 Y-14.596
X-198.283 Y-14.61
X-198.407 Y-14.766
X-198.486 Y-14.949
X-198.512 Y-15.146
G3 X-197.878 Y-15.135 I0.317 J0.011
G1 Y-13.061
G3 X-198.512 Y-13.05 I-0.317 J0
G1 Y-14.945
G3 X-198.239 Y-15.248 I0.317 J0.011
G1 X-197.901 Y-15.295
X-187.1 Y-16.802
X-186.849 Y-16.837
G3 X-186.488 Y-16.533 I0.044 J0.314
G1 Y-14.055
G3 X-186.785 Y-13.75 I-0.317 J-0.011
G1 X-186.805 Y-13.749 Z-1.799
X-186.858 Y-13.763 Z-1.791
X-186.909 Y-13.776 Z-1.773
X-186.956 Y-13.788 Z-1.746
X-186.992 Y-13.819 Z-1.706
X-187.021 Y-13.844 Z-1.658
X-187.043 Y-13.863 Z-1.603
X-187.056 Y-13.875 Z-1.544
X-187.061 Y-13.879 Z-1.483
G0 Z30
X-192.246 Y-10.255
Z-1.465
G1 Z-1.783 F1000
X-192.248 Y-10.263 Z-1.853
X-192.253 Y-10.286 Z-1.92
X-192.263 Y-10.322 Z-1.98
X-192.275 Y-10.371 Z-2.031
X-192.29 Y-10.429 Z-2.069
X-192.307 Y-10.494 Z-2.092
X-192.324 Y-10.563 Z-2.1
G3 X-192.573 Y-12.291 I7.852 J-2.011
G1 Y-12.441
X-192.526 Y-12.584
X-192.442 Y-12.708
X-192.34 Y-12.818
X-192.226 Y-12.916
X-192.104 Y-13.003
X-191.976 Y-13.082
X-191.844 Y-13.152
X-191.708 Y-13.215
X-191.569 Y-13.272
X-191.428 Y-13.323
X-191.285 Y-13.369
X-191.141 Y-13.411
X-190.996 Y-13.448
X-190.85 Y-13.482
X-190.703 Y-13.512
X-190.555 Y-13.54
X-190.407 Y-13.565
X-190.259 Y-13.587
X-190.11 Y-13.607
X-189.962 Y-13.625
X-189.812 Y-13.642
X-189.663 Y-13.657
X-189.514 Y-13.67
X-189.364 Y-13.682
X-189.209 Y-13.694
X-189.035 Y-13.705
X-188.84 Y-13.716
X-188.616 Y-13.728
X-188.355 Y-13.739
X-188.04 Y-13.751
X-187.646 Y-13.762
X-187.245 Y-13.771
X-187.012 Y-13.739
X-186.801 Y-13.636
X-186.633 Y-13.471
X-186.525 Y-13.263
X-186.488 Y-13.031
G3 X-187.061 Y-12.854 I-0.317 J-0.011
G1 X-187.103 Y-12.911 Z-2.092
X-187.142 Y-12.965 Z-2.069
X-187.178 Y-13.013 Z-2.031
X-187.208 Y-13.054 Z-1.98
X-187.23 Y-13.084 Z-1.92
X-187.244 Y-13.103 Z-1.853
X-187.249 Y-13.11 Z-1.783
G0 Z30
X-197.858 Y-10.438
Z-1.465
G1 Z-1.783 F1000
X-197.862 Y-10.445 Z-1.853
X-197.874 Y-10.465 Z-1.92
X-197.894 Y-10.498 Z-1.98
X-197.919 Y-10.541 Z-2.031
X-197.95 Y-10.593 Z-2.069
X-197.984 Y-10.65 Z-2.092
X-198.02 Y-10.711 Z-2.1
G3 X-198.512 Y-12.387 I3.024 J-1.798
G1 Y-12.576
X-198.511 Y-12.614
X-198.421 Y-12.734
X-198.316 Y-12.841
X-198.201 Y-12.937
X-198.077 Y-13.022
X-197.948 Y-13.099
X-197.815 Y-13.167
X-197.678 Y-13.229
X-197.539 Y-13.285
X-197.397 Y-13.334
X-197.254 Y-13.379
X-197.11 Y-13.42
X-196.964 Y-13.456
X-196.818 Y-13.489
X-196.671 Y-13.519
X-196.523 Y-13.546
X-196.375 Y-13.57
X-196.227 Y-13.592
X-196.078 Y-13.611
X-195.929 Y-13.629
X-195.78 Y-13.645
X-195.631 Y-13.66
X-195.481 Y-13.673
X-195.332 Y-13.685
X-195.172 Y-13.696
X-194.994 Y-13.708
X-194.353 Y-13.744
X-193.736 Y-13.923
X-193.136 Y-14.152
X-192.996 Y-14.204
X-192.779 Y-14.282
X-192.703 Y-14.309
G3 X-192.304 Y-14.092 I0.094 J0.303
X-192.531 Y-13.698 I-0.306 J0.086
G1 X-197.905 Y-12.334
X-198.117 Y-12.28
G3 X-198.512 Y-12.576 I-0.078 J-0.308
G1 Y-13.05
X-198.505 Y-13.2
X-198.453 Y-13.34
X-198.385 Y-13.474
X-198.303 Y-13.6
X-198.21 Y-13.717
X-198.138 Y-13.861
X-198.099 Y-14.017
X-198.094 Y-14.177
X-198.124 Y-14.335
X-198.187 Y-14.482
X-198.268 Y-14.596
X-198.283 Y-14.61
X-198.407 Y-14.766
X-198.486 Y-14.949
X-198.512 Y-15.146
G3 X-197.878 Y-15.135 I0.317 J0.011
G1 Y-13.061
G3 X-198.512 Y-13.05 I-0.317 J0
G1 Y-14.945
G3 X-198.239 Y-15.248 I0.317 J0.011
G1 X-197.901 Y-15.295
X-187.1 Y-16.802
X-186.849 Y-16.837
G3 X-186.488 Y-16.533 I0.044 J0.314
G1 Y-14.055
G3 X-186.785 Y-13.75 I-0.317 J-0.011
G1 X-186.805 Y-13.749 Z-2.099
X-186.858 Y-13.763 Z-2.091
X-186.909 Y-13.776 Z-2.073
X-186.956 Y-13.788 Z-2.046
X-186.992 Y-13.819 Z-2.006
X-187.021 Y-13.844 Z-1.958
X-187.043 Y-13.863 Z-1.903
X-187.056 Y-13.875 Z-1.844
X-187.061 Y-13.879 Z-1.783
G0 Z30
X-192.246 Y-10.255
Z-1.765
G1 Z-2.082 F1000
X-192.248 Y-10.263 Z-2.153
X-192.253 Y-10.286 Z-2.22
X-192.263 Y-10.322 Z-2.28
X-192.275 Y-10.371 Z-2.331
X-192.29 Y-10.429 Z-2.369
X-192.307 Y-10.494 Z-2.392
X-192.324 Y-10.563 Z-2.4
G3 X-192.573 Y-12.291 I7.852 J-2.011
G1 Y-12.441
X-192.526 Y-12.584
X-192.442 Y-12.708
X-192.34 Y-12.818
X-192.226 Y-12.916
X-192.104 Y-13.003
X-191.976 Y-13.082
X-191.844 Y-13.152
X-191.708 Y-13.215
X-191.569 Y-13.272
X-191.428 Y-13.323
X-191.285 Y-13.369
X-191.141 Y-13.411
X-190.996 Y-13.448
X-190.85 Y-13.482
X-190.703 Y-13.512
X-190.555 Y-13.54
X-190.407 Y-13.565
X-190.259 Y-13.587
X-190.11 Y-13.607
X-189.962 Y-13.625
X-189.812 Y-13.642
X-189.663 Y-13.657
X-189.514 Y-13.67
X-189.364 Y-13.682
X-189.209 Y-13.694
X-189.035 Y-13.705
X-188.84 Y-13.716
X-188.616 Y-13.728
X-188.355 Y-13.739
X-188.04 Y-13.751
X-187.646 Y-13.762
X-187.245 Y-13.771
X-187.012 Y-13.739
X-186.801 Y-13.636
X-186.633 Y-13.471
X-186.525 Y-13.263
X-186.488 Y-13.031
G3 X-187.061 Y-12.854 I-0.317 J-0.011
G1 X-187.103 Y-12.911 Z-2.392
X-187.142 Y-12.965 Z-2.369
X-187.178 Y-13.013 Z-2.331
X-187.208 Y-13.054 Z-2.28
X-187.23 Y-13.084 Z-2.22
X-187.244 Y-13.103 Z-2.153
X-187.249 Y-13.11 Z-2.082
G0 Z30
X-197.858 Y-10.438
Z-1.765
G1 Z-2.082 F1000
X-197.862 Y-10.445 Z-2.153
X-197.874 Y-10.465 Z-2.22
X-197.894 Y-10.498 Z-2.28
X-197.919 Y-10.541 Z-2.331
X-197.95 Y-10.593 Z-2.369
X-197.984 Y-10.65 Z-2.392
X-198.02 Y-10.711 Z-2.4
G3 X-198.512 Y-12.387 I3.024 J-1.798
G1 Y-12.576
X-198.511 Y-12.614
X-198.421 Y-12.734
X-198.316 Y-12.841
X-198.201 Y-12.937
X-198.077 Y-13.022
X-197.948 Y-13.099
X-197.815 Y-13.167
X-197.678 Y-13.229
X-197.539 Y-13.285
X-197.397 Y-13.334
X-197.254 Y-13.379
X-197.11 Y-13.42
X-196.964 Y-13.456
X-196.818 Y-13.489
X-196.671 Y-13.519
X-196.523 Y-13.546
X-196.375 Y-13.57
X-196.227 Y-13.592
X-196.078 Y-13.611
X-195.929 Y-13.629
X-195.78 Y-13.645
X-195.631 Y-13.66
X-195.481 Y-13.673
X-195.332 Y-13.685
X-195.172 Y-13.696
X-194.994 Y-13.708
X-194.353 Y-13.744
X-193.736 Y-13.923
X-193.136 Y-14.152
X-192.996 Y-14.204
X-192.779 Y-14.282
X-192.703 Y-14.309
G3 X-192.304 Y-14.092 I0.094 J0.303
X-192.531 Y-13.698 I-0.306 J0.086
G1 X-197.905 Y-12.334
X-198.117 Y-12.28
G3 X-198.512 Y-12.576 I-0.078 J-0.308
G1 Y-13.05
X-198.505 Y-13.2
X-198.453 Y-13.34
X-198.385 Y-13.474
X-198.303 Y-13.6
X-198.21 Y-13.717
X-198.138 Y-13.861
X-198.099 Y-14.017
X-198.094 Y-14.177
X-198.124 Y-14.335
X-198.187 Y-14.482
X-198.268 Y-14.596
X-198.283 Y-14.61
X-198.407 Y-14.766
X-198.486 Y-14.949
X-198.512 Y-15.146
G3 X-197.878 Y-15.135 I0.317 J0.011
G1 Y-13.061
G3 X-198.512 Y-13.05 I-0.317 J0
G1 Y-14.945
G3 X-198.239 Y-15.248 I0.317 J0.011
G1 X-197.901 Y-15.295
X-187.1 Y-16.802
X-186.849 Y-16.837
G3 X-186.488 Y-16.533 I0.044 J0.314
G1 Y-14.055
G3 X-186.785 Y-13.75 I-0.317 J-0.011
G1 X-186.805 Y-13.749 Z-2.399
X-186.858 Y-13.763 Z-2.391
X-186.909 Y-13.776 Z-2.373
X-186.956 Y-13.788 Z-2.346
X-186.992 Y-13.819 Z-2.306
X-187.021 Y-13.844 Z-2.258
X-187.043 Y-13.863 Z-2.203
X-187.056 Y-13.875 Z-2.144
X-187.061 Y-13.879 Z-2.083
G0 Z30
X-192.246 Y-10.255
Z-2.065
G1 Z-2.382 F1000
X-192.248 Y-10.263 Z-2.453
X-192.253 Y-10.286 Z-2.52
X-192.263 Y-10.322 Z-2.58
X-192.275 Y-10.371 Z-2.631
X-192.29 Y-10.429 Z-2.669
X-192.307 Y-10.494 Z-2.692
X-192.324 Y-10.563 Z-2.7
G3 X-192.573 Y-12.291 I7.852 J-2.011
G1 Y-12.441
X-192.526 Y-12.584
X-192.442 Y-12.708
X-192.34 Y-12.818
X-192.226 Y-12.916
X-192.104 Y-13.003
X-191.976 Y-13.082
X-191.844 Y-13.152
X-191.708 Y-13.215
X-191.569 Y-13.272
X-191.428 Y-13.323
X-191.285 Y-13.369
X-191.141 Y-13.411
X-190.996 Y-13.448
X-190.85 Y-13.482
X-190.703 Y-13.512
X-190.555 Y-13.54
X-190.407 Y-13.565
X-190.259 Y-13.587
X-190.11 Y-13.607
X-189.962 Y-13.625
X-189.812 Y-13.642
X-189.663 Y-13.657
X-189.514 Y-13.67
X-189.364 Y-13.682
X-189.209 Y-13.694
X-189.035 Y-13.705
X-188.84 Y-13.716
X-188.616 Y-13.728
X-188.355 Y-13.739
X-188.04 Y-13.751
X-187.646 Y-13.762
X-187.245 Y-13.771
X-187.012 Y-13.739
X-186.801 Y-13.636
X-186.633 Y-13.471
X-186.525 Y-13.263
X-186.488 Y-13.031
G3 X-187.061 Y-12.854 I-0.317 J-0.011
G1 X-187.103 Y-12.911 Z-2.692
X-187.142 Y-12.965 Z-2.669
X-187.178 Y-13.013 Z-2.631
X-187.208 Y-13.054 Z-2.58
X-187.23 Y-13.084 Z-2.52
X-187.244 Y-13.103 Z-2.453
X-187.249 Y-13.11 Z-2.382
G0 Z30
X-197.858 Y-10.438
Z-2.065
G1 Z-2.382 F1000
X-197.862 Y-10.445 Z-2.453
X-197.874 Y-10.465 Z-2.52
X-197.894 Y-10.498 Z-2.58
X-197.919 Y-10.541 Z-2.631
X-197.95 Y-10.593 Z-2.669
X-197.984 Y-10.65 Z-2.692
X-198.02 Y-10.711 Z-2.7
G3 X-198.512 Y-12.387 I3.024 J-1.798
G1 Y-12.576
X-198.511 Y-12.614
X-198.421 Y-12.734
X-198.316 Y-12.841
X-198.201 Y-12.937
X-198.077 Y-13.022
X-197.948 Y-13.099
X-197.815 Y-13.167
X-197.678 Y-13.229
X-197.539 Y-13.285
X-197.397 Y-13.334
X-197.254 Y-13.379
X-197.11 Y-13.42
X-196.964 Y-13.456
X-196.818 Y-13.489
X-196.671 Y-13.519
X-196.523 Y-13.546
X-196.375 Y-13.57
X-196.227 Y-13.592
X-196.078 Y-13.611
X-195.929 Y-13.629
X-195.78 Y-13.645
X-195.631 Y-13.66
X-195.481 Y-13.673
X-195.332 Y-13.685
X-195.172 Y-13.696
X-194.994 Y-13.708
X-194.353 Y-13.744
X-193.736 Y-13.923
X-193.136 Y-14.152
X-192.996 Y-14.204
X-192.779 Y-14.282
X-192.703 Y-14.309
G3 X-192.304 Y-14.092 I0.094 J0.303
X-192.531 Y-13.698 I-0.306 J0.086
G1 X-197.905 Y-12.334
X-198.117 Y-12.28
G3 X-198.512 Y-12.576 I-0.078 J-0.308
G1 Y-13.05
X-198.505 Y-13.2
X-198.453 Y-13.34
X-198.385 Y-13.474
X-198.303 Y-13.6
X-198.21 Y-13.717
X-198.138 Y-13.861
X-198.099 Y-14.017
X-198.094 Y-14.177
X-198.124 Y-14.335
X-198.187 Y-14.482
X-198.268 Y-14.596
X-198.283 Y-14.61
X-198.407 Y-14.766
X-198.486 Y-14.949
X-198.512 Y-15.146
G3 X-197.878 Y-15.135 I0.317 J0.011
G1 Y-13.061
G3 X-198.512 Y-13.05 I-0.317 J0
G1 Y-14.945
G3 X-198.239 Y-15.248 I0.317 J0.011
G1 X-197.901 Y-15.295
X-187.1 Y-16.802
X-186.849 Y-16.837
G3 X-186.488 Y-16.533 I0.044 J0.314
G1 Y-14.055
G3 X-186.785 Y-13.75 I-0.317 J-0.011
G1 X-186.805 Y-13.749 Z-2.699
X-186.858 Y-13.763 Z-2.691
X-186.909 Y-13.776 Z-2.673
X-186.956 Y-13.788 Z-2.646
X-186.992 Y-13.819 Z-2.606
X-187.021 Y-13.844 Z-2.558
X-187.043 Y-13.863 Z-2.503
X-187.056 Y-13.875 Z-2.444
X-187.061 Y-13.879 Z-2.383
G0 Z30
X-192.246 Y-10.255
Z-2.365
G1 Z-2.682 F1000
X-192.248 Y-10.263 Z-2.753
X-192.253 Y-10.286 Z-2.82
X-192.263 Y-10.322 Z-2.88
X-192.275 Y-10.371 Z-2.931
X-192.29 Y-10.429 Z-2.969
X-192.307 Y-10.494 Z-2.992
X-192.324 Y-10.563 Z-3
G3 X-192.573 Y-12.291 I7.852 J-2.011
G1 Y-12.441
X-192.526 Y-12.584
X-192.442 Y-12.708
X-192.34 Y-12.818
X-192.226 Y-12.916
X-192.104 Y-13.003
X-191.976 Y-13.082
X-191.844 Y-13.152
X-191.708 Y-13.215
X-191.569 Y-13.272
X-191.428 Y-13.323
X-191.285 Y-13.369
X-191.141 Y-13.411
X-190.996 Y-13.448
X-190.85 Y-13.482
X-190.703 Y-13.512
X-190.555 Y-13.54
X-190.407 Y-13.565
X-190.259 Y-13.587
X-190.11 Y-13.607
X-189.962 Y-13.625
X-189.812 Y-13.642
X-189.663 Y-13.657
X-189.514 Y-13.67
X-189.364 Y-13.682
X-189.209 Y-13.694
X-189.035 Y-13.705
X-188.84 Y-13.716
X-188.616 Y-13.728
X-188.355 Y-13.739
X-188.04 Y-13.751
X-187.646 Y-13.762
X-187.245 Y-13.771
X-187.012 Y-13.739
X-186.801 Y-13.636
X-186.633 Y-13.471
X-186.525 Y-13.263
X-186.488 Y-13.031
G3 X-187.061 Y-12.854 I-0.317 J-0.011
G1 X-187.103 Y-12.911 Z-2.992
X-187.142 Y-12.965 Z-2.969
X-187.178 Y-13.013 Z-2.931
X-187.208 Y-13.054 Z-2.88
X-187.23 Y-13.084 Z-2.82
X-187.244 Y-13.103 Z-2.753
X-187.249 Y-13.11 Z-2.682
G0 Z30
X-197.858 Y-10.438
Z-2.365
G1 Z-2.682 F1000
X-197.862 Y-10.445 Z-2.753
X-197.874 Y-10.465 Z-2.82
X-197.894 Y-10.498 Z-2.88
X-197.919 Y-10.541 Z-2.931
X-197.95 Y-10.593 Z-2.969
X-197.984 Y-10.65 Z-2.992
X-198.02 Y-10.711 Z-3
G3 X-198.512 Y-12.387 I3.024 J-1.798
G1 Y-12.576
X-198.511 Y-12.614
X-198.421 Y-12.734
X-198.316 Y-12.841
X-198.201 Y-12.937
X-198.077 Y-13.022
X-197.948 Y-13.099
X-197.815 Y-13.167
X-197.678 Y-13.229
X-197.539 Y-13.285
X-197.397 Y-13.334
X-197.254 Y-13.379
X-197.11 Y-13.42
X-196.964 Y-13.456
X-196.818 Y-13.489
X-196.671 Y-13.519
X-196.523 Y-13.546
X-196.375 Y-13.57
X-196.227 Y-13.592
X-196.078 Y-13.611
X-195.929 Y-13.629
X-195.78 Y-13.645
X-195.631 Y-13.66
X-195.481 Y-13.673
X-195.332 Y-13.685
X-195.172 Y-13.696
X-194.994 Y-13.708
X-194.353 Y-13.744
X-193.736 Y-13.923
X-193.136 Y-14.152
X-192.996 Y-14.204
X-192.779 Y-14.282
X-192.703 Y-14.309
G3 X-192.304 Y-14.092 I0.094 J0.303
X-192.531 Y-13.698 I-0.306 J0.086
G1 X-197.905 Y-12.334
X-198.117 Y-12.28
G3 X-198.512 Y-12.576 I-0.078 J-0.308
G1 Y-13.05
X-198.505 Y-13.2
X-198.453 Y-13.34
X-198.385 Y-13.474
X-198.303 Y-13.6
X-198.21 Y-13.717
X-198.138 Y-13.861
X-198.099 Y-14.017
X-198.094 Y-14.177
X-198.124 Y-14.335
X-198.187 Y-14.482
X-198.268 Y-14.596
X-198.283 Y-14.61
X-198.407 Y-14.766
X-198.486 Y-14.949
X-198.512 Y-15.146
G3 X-197.878 Y-15.135 I0.317 J0.011
G1 Y-13.061
G3 X-198.512 Y-13.05 I-0.317 J0
G1 Y-14.945
G3 X-198.239 Y-15.248 I0.317 J0.011
G1 X-197.901 Y-15.295
X-187.1 Y-16.802
X-186.849 Y-16.837
G3 X-186.488 Y-16.533 I0.044 J0.314
G1 Y-14.055
G3 X-186.785 Y-13.75 I-0.317 J-0.011
G1 X-186.805 Y-13.749 Z-2.999
X-186.858 Y-13.763 Z-2.991
X-186.909 Y-13.776 Z-2.973
X-186.956 Y-13.788 Z-2.946
X-186.992 Y-13.819 Z-2.906
X-187.021 Y-13.844 Z-2.858
X-187.043 Y-13.863 Z-2.803
X-187.056 Y-13.875 Z-2.744
X-187.061 Y-13.879 Z-2.683
G0 Z30
X-192.246 Y-10.255
Z-2.665
G1 Z-2.983 F1000
