(1001)
(Bearbeiten)
(  Hersteller: ChinaCnc)
(  model: 3040T)
(  description: Generic 3-axis)
(T14  D=1.5 CR=0 - ZMIN=-15.2 - Schaftfraser)
G90 G94
G17
G21
G28 G91 Z0
G90

(Bohrfrasen1)
T14
S6000 M3
G54
G0 X-10.65 Y-7.975
Z15
Z-12
G1 Z-13.85 F400
Y-7.982 Z-13.896
Y-8.004 Z-13.938
Y-8.037 Z-13.971
Y-8.079 Z-13.993
Y-8.125 Z-14
Y-8.2
X-10.643 Y-8.246
X-10.621 Y-8.288
X-10.588 Y-8.321
X-10.546 Y-8.343
X-10.5 Y-8.35
G3 X-10.5 Y-6.65 Z-14.15 I0 J0.85 F600
X-10.5 Y-8.35 Z-14.3 I0 J-0.85
X-10.5 Y-6.65 Z-14.45 I0 J0.85
X-10.5 Y-8.35 Z-14.6 I0 J-0.85
X-10.5 Y-6.65 Z-14.75 I0 J0.85
X-10.5 Y-8.35 Z-14.9 I0 J-0.85
X-10.5 Y-6.65 Z-15.05 I0 J0.85
X-10.5 Y-8.35 Z-15.2 I0 J-0.85
X-10.5 Y-6.65 I0 J0.85
X-10.5 Y-8.35 I0 J-0.85
G1 X-10.454 Y-8.343
X-10.412 Y-8.321
X-10.379 Y-8.288
X-10.357 Y-8.246
X-10.35 Y-8.2
Y-8.125
Y-8.079 Z-15.193
Y-8.037 Z-15.171
Y-8.004 Z-15.138
Y-7.982 Z-15.096
Y-7.975 Z-15.05
G0 Z5
X-10.65
Z2
G1 Z0.15 F400
Y-7.982 Z0.104
Y-8.004 Z0.062
Y-8.037 Z0.029
Y-8.079 Z0.007
Y-8.125 Z0
Y-8.2
X-10.643 Y-8.246
X-10.621 Y-8.288
X-10.588 Y-8.321
X-10.546 Y-8.343
X-10.5 Y-8.35
G3 X-10.5 Y-6.65 Z-0.15 I0 J0.85 F600
X-10.5 Y-8.35 Z-0.3 I0 J-0.85
X-10.5 Y-6.65 Z-0.45 I0 J0.85
X-10.5 Y-8.35 Z-0.6 I0 J-0.85
X-10.5 Y-6.65 Z-0.75 I0 J0.85
X-10.5 Y-8.35 Z-0.9 I0 J-0.85
X-10.5 Y-6.65 Z-1.05 I0 J0.85
X-10.5 Y-8.35 Z-1.2 I0 J-0.85
X-10.5 Y-6.65 I0 J0.85
X-10.5 Y-8.35 I0 J-0.85
G1 X-10.454 Y-8.343
X-10.412 Y-8.321
X-10.379 Y-8.288
X-10.357 Y-8.246
X-10.35 Y-8.2
Y-8.125
Y-8.079 Z-1.193
Y-8.037 Z-1.171
Y-8.004 Z-1.138
Y-7.982 Z-1.096
Y-7.975 Z-1.05
G0 Z5
X-20.15 Y-9.875
Z2
G1 Z0.15 F400
Y-9.882 Z0.104
Y-9.904 Z0.062
Y-9.937 Z0.029
Y-9.979 Z0.007
Y-10.025 Z0
Y-10.1
X-20.143 Y-10.146
X-20.121 Y-10.188
X-20.088 Y-10.221
X-20.046 Y-10.243
X-20 Y-10.25
G3 X-20 Y-4.75 Z-0.15 I0 J2.75 F600
X-20 Y-10.25 Z-0.3 I0 J-2.75
X-20 Y-4.75 Z-0.45 I0 J2.75
X-20 Y-10.25 Z-0.6 I0 J-2.75
X-20 Y-4.75 Z-0.75 I0 J2.75
X-20 Y-10.25 Z-0.9 I0 J-2.75
X-20 Y-4.75 Z-1.05 I0 J2.75
X-20 Y-10.25 Z-1.2 I0 J-2.75
X-20 Y-4.75 I0 J2.75
X-20 Y-10.25 I0 J-2.75
G1 X-19.954 Y-10.243
X-19.912 Y-10.221
X-19.879 Y-10.188
X-19.857 Y-10.146
X-19.85 Y-10.1
Y-10.025
Y-9.979 Z-1.193
Y-9.937 Z-1.171
Y-9.904 Z-1.138
Y-9.882 Z-1.096
Y-9.875 Z-1.05
G0 Z5
X-20.15
Z-12
G1 Z-13.85 F400
Y-9.882 Z-13.896
Y-9.904 Z-13.938
Y-9.937 Z-13.971
Y-9.979 Z-13.993
Y-10.025 Z-14
Y-10.1
X-20.143 Y-10.146
X-20.121 Y-10.188
X-20.088 Y-10.221
X-20.046 Y-10.243
X-20 Y-10.25
G3 X-20 Y-4.75 Z-14.15 I0 J2.75 F600
X-20 Y-10.25 Z-14.3 I0 J-2.75
X-20 Y-4.75 Z-14.45 I0 J2.75
X-20 Y-10.25 Z-14.6 I0 J-2.75
X-20 Y-4.75 Z-14.75 I0 J2.75
X-20 Y-10.25 Z-14.9 I0 J-2.75
X-20 Y-4.75 Z-15.05 I0 J2.75
X-20 Y-10.25 Z-15.2 I0 J-2.75
X-20 Y-4.75 I0 J2.75
X-20 Y-10.25 I0 J-2.75
G1 X-19.954 Y-10.243
X-19.912 Y-10.221
X-19.879 Y-10.188
X-19.857 Y-10.146
X-19.85 Y-10.1
Y-10.025
Y-9.979 Z-15.193
Y-9.937 Z-15.171
Y-9.904 Z-15.138
Y-9.882 Z-15.096
Y-9.875 Z-15.05
G0 Z5
X-29.65 Y-7.975
Z2
G1 Z0.15 F400
Y-7.982 Z0.104
Y-8.004 Z0.062
Y-8.037 Z0.029
Y-8.079 Z0.007
Y-8.125 Z0
Y-8.2
X-29.643 Y-8.246
X-29.621 Y-8.288
X-29.588 Y-8.321
X-29.546 Y-8.343
X-29.5 Y-8.35
G3 X-29.5 Y-6.65 Z-0.15 I0 J0.85 F600
X-29.5 Y-8.35 Z-0.3 I0 J-0.85
X-29.5 Y-6.65 Z-0.45 I0 J0.85
X-29.5 Y-8.35 Z-0.6 I0 J-0.85
X-29.5 Y-6.65 Z-0.75 I0 J0.85
X-29.5 Y-8.35 Z-0.9 I0 J-0.85
X-29.5 Y-6.65 Z-1.05 I0 J0.85
X-29.5 Y-8.35 Z-1.2 I0 J-0.85
X-29.5 Y-6.65 I0 J0.85
X-29.5 Y-8.35 I0 J-0.85
G1 X-29.454 Y-8.343
X-29.412 Y-8.321
X-29.379 Y-8.288
X-29.357 Y-8.246
X-29.35 Y-8.2
Y-8.125
Y-8.079 Z-1.193
Y-8.037 Z-1.171
Y-8.004 Z-1.138
Y-7.982 Z-1.096
Y-7.975 Z-1.05
G0 Z5
X-29.65
Z-12
G1 Z-13.85 F400
Y-7.982 Z-13.896
Y-8.004 Z-13.938
Y-8.037 Z-13.971
Y-8.079 Z-13.993
Y-8.125 Z-14
Y-8.2
X-29.643 Y-8.246
X-29.621 Y-8.288
X-29.588 Y-8.321
X-29.546 Y-8.343
X-29.5 Y-8.35
G3 X-29.5 Y-6.65 Z-14.15 I0 J0.85 F600
X-29.5 Y-8.35 Z-14.3 I0 J-0.85
X-29.5 Y-6.65 Z-14.45 I0 J0.85
X-29.5 Y-8.35 Z-14.6 I0 J-0.85
X-29.5 Y-6.65 Z-14.75 I0 J0.85
X-29.5 Y-8.35 Z-14.9 I0 J-0.85
X-29.5 Y-6.65 Z-15.05 I0 J0.85
X-29.5 Y-8.35 Z-15.2 I0 J-0.85
X-29.5 Y-6.65 I0 J0.85
X-29.5 Y-8.35 I0 J-0.85
G1 X-29.454 Y-8.343
X-29.412 Y-8.321
X-29.379 Y-8.288
X-29.357 Y-8.246
X-29.35 Y-8.2
Y-8.125
Y-8.079 Z-15.193
Y-8.037 Z-15.171
Y-8.004 Z-15.138
Y-7.982 Z-15.096
Y-7.975 Z-15.05
G0 Z5
X-150.15 Y-11.375
Z-12
G1 Z-13.85 F400
Y-11.382 Z-13.896
Y-11.404 Z-13.938
Y-11.437 Z-13.971
Y-11.479 Z-13.993
Y-11.525 Z-14
Y-11.6
X-150.143 Y-11.646
X-150.121 Y-11.688
X-150.088 Y-11.721
X-150.046 Y-11.743
X-150 Y-11.75
G3 X-150 Y-3.25 Z-14.15 I0 J4.25 F600
X-150 Y-11.75 Z-14.3 I0 J-4.25
X-150 Y-3.25 Z-14.45 I0 J4.25
X-150 Y-11.75 Z-14.6 I0 J-4.25
X-150 Y-3.25 Z-14.75 I0 J4.25
X-150 Y-11.75 Z-14.9 I0 J-4.25
X-150 Y-3.25 Z-15.05 I0 J4.25
X-150 Y-11.75 Z-15.2 I0 J-4.25
X-150 Y-3.25 I0 J4.25
X-150 Y-11.75 I0 J-4.25
G1 X-149.954 Y-11.743
X-149.912 Y-11.721
X-149.879 Y-11.688
X-149.857 Y-11.646
X-149.85 Y-11.6
Y-11.525
Y-11.479 Z-15.193
Y-11.437 Z-15.171
Y-11.404 Z-15.138
Y-11.382 Z-15.096
Y-11.375 Z-15.05
G0 Z5
X-150.15
Z2
G1 Z0.15 F400
Y-11.382 Z0.104
Y-11.404 Z0.062
Y-11.437 Z0.029
Y-11.479 Z0.007
Y-11.525 Z0
Y-11.6
X-150.143 Y-11.646
X-150.121 Y-11.688
X-150.088 Y-11.721
X-150.046 Y-11.743
X-150 Y-11.75
G3 X-150 Y-3.25 Z-0.15 I0 J4.25 F600
X-150 Y-11.75 Z-0.3 I0 J-4.25
X-150 Y-3.25 Z-0.45 I0 J4.25
X-150 Y-11.75 Z-0.6 I0 J-4.25
X-150 Y-3.25 Z-0.75 I0 J4.25
X-150 Y-11.75 Z-0.9 I0 J-4.25
X-150 Y-3.25 Z-1.05 I0 J4.25
X-150 Y-11.75 Z-1.2 I0 J-4.25
X-150 Y-3.25 I0 J4.25
X-150 Y-11.75 I0 J-4.25
G1 X-149.954 Y-11.743
X-149.912 Y-11.721
X-149.879 Y-11.688
X-149.857 Y-11.646
X-149.85 Y-11.6
Y-11.525
Y-11.479 Z-1.193
Y-11.437 Z-1.171
Y-11.404 Z-1.138
Y-11.382 Z-1.096
Y-11.375 Z-1.05
G0 Z5
X-168.583 Y-7.975
Z2
G1 Z0.15 F400
Y-7.982 Z0.104
Y-8.004 Z0.062
Y-8.037 Z0.029
Y-8.079 Z0.007
Y-8.125 Z0
Y-8.2
X-168.576 Y-8.246
X-168.555 Y-8.288
X-168.521 Y-8.321
X-168.48 Y-8.343
X-168.433 Y-8.35
G3 X-168.433 Y-6.65 Z-0.15 I0 J0.85 F600
X-168.433 Y-8.35 Z-0.3 I0 J-0.85
X-168.433 Y-6.65 Z-0.45 I0 J0.85
X-168.433 Y-8.35 Z-0.6 I0 J-0.85
X-168.433 Y-6.65 Z-0.75 I0 J0.85
X-168.433 Y-8.35 Z-0.9 I0 J-0.85
X-168.433 Y-6.65 Z-1.05 I0 J0.85
X-168.433 Y-8.35 Z-1.2 I0 J-0.85
X-168.433 Y-6.65 I0 J0.85
X-168.433 Y-8.35 I0 J-0.85
G1 X-168.387 Y-8.343
X-168.345 Y-8.321
X-168.312 Y-8.288
X-168.291 Y-8.246
X-168.283 Y-8.2
Y-8.125
Y-8.079 Z-1.193
Y-8.037 Z-1.171
Y-8.004 Z-1.138
Y-7.982 Z-1.096
Y-7.975 Z-1.05
G0 Z5
X-168.583
Z-12
G1 Z-13.85 F400
Y-7.982 Z-13.896
Y-8.004 Z-13.938
Y-8.037 Z-13.971
Y-8.079 Z-13.993
Y-8.125 Z-14
Y-8.2
X-168.576 Y-8.246
X-168.555 Y-8.288
X-168.521 Y-8.321
X-168.48 Y-8.343
X-168.433 Y-8.35
G3 X-168.433 Y-6.65 Z-14.15 I0 J0.85 F600
X-168.433 Y-8.35 Z-14.3 I0 J-0.85
X-168.433 Y-6.65 Z-14.45 I0 J0.85
X-168.433 Y-8.35 Z-14.6 I0 J-0.85
X-168.433 Y-6.65 Z-14.75 I0 J0.85
X-168.433 Y-8.35 Z-14.9 I0 J-0.85
X-168.433 Y-6.65 Z-15.05 I0 J0.85
X-168.433 Y-8.35 Z-15.2 I0 J-0.85
X-168.433 Y-6.65 I0 J0.85
X-168.433 Y-8.35 I0 J-0.85
G1 X-168.387 Y-8.343
X-168.345 Y-8.321
X-168.312 Y-8.288
X-168.291 Y-8.246
X-168.283 Y-8.2
Y-8.125
Y-8.079 Z-15.193
Y-8.037 Z-15.171
Y-8.004 Z-15.138
Y-7.982 Z-15.096
Y-7.975 Z-15.05
G0 Z5
X-211.717
Z-12
G1 Z-13.85 F400
Y-7.982 Z-13.896
Y-8.004 Z-13.938
Y-8.037 Z-13.971
Y-8.079 Z-13.993
Y-8.125 Z-14
Y-8.2
X-211.709 Y-8.246
X-211.688 Y-8.288
X-211.655 Y-8.321
X-211.613 Y-8.343
X-211.567 Y-8.35
G3 X-211.567 Y-6.65 Z-14.15 I0 J0.85 F600
X-211.567 Y-8.35 Z-14.3 I0 J-0.85
X-211.567 Y-6.65 Z-14.45 I0 J0.85
X-211.567 Y-8.35 Z-14.6 I0 J-0.85
X-211.567 Y-6.65 Z-14.75 I0 J0.85
X-211.567 Y-8.35 Z-14.9 I0 J-0.85
X-211.567 Y-6.65 Z-15.05 I0 J0.85
X-211.567 Y-8.35 Z-15.2 I0 J-0.85
X-211.567 Y-6.65 I0 J0.85
X-211.567 Y-8.35 I0 J-0.85
G1 X-211.52 Y-8.343
X-211.479 Y-8.321
X-211.445 Y-8.288
X-211.424 Y-8.246
X-211.417 Y-8.2
Y-8.125
Y-8.079 Z-15.193
Y-8.037 Z-15.171
Y-8.004 Z-15.138
Y-7.982 Z-15.096
Y-7.975 Z-15.05
G0 Z5
X-211.717
Z2
G1 Z0.15 F400
Y-7.982 Z0.104
Y-8.004 Z0.062
Y-8.037 Z0.029
Y-8.079 Z0.007
Y-8.125 Z0
Y-8.2
X-211.709 Y-8.246
X-211.688 Y-8.288
X-211.655 Y-8.321
X-211.613 Y-8.343
X-211.567 Y-8.35
G3 X-211.567 Y-6.65 Z-0.15 I0 J0.85 F600
X-211.567 Y-8.35 Z-0.3 I0 J-0.85
X-211.567 Y-6.65 Z-0.45 I0 J0.85
X-211.567 Y-8.35 Z-0.6 I0 J-0.85
X-211.567 Y-6.65 Z-0.75 I0 J0.85
X-211.567 Y-8.35 Z-0.9 I0 J-0.85
X-211.567 Y-6.65 Z-1.05 I0 J0.85
X-211.567 Y-8.35 Z-1.2 I0 J-0.85
X-211.567 Y-6.65 I0 J0.85
X-211.567 Y-8.35 I0 J-0.85
G1 X-211.52 Y-8.343
X-211.479 Y-8.321
X-211.445 Y-8.288
X-211.424 Y-8.246
X-211.417 Y-8.2
Y-8.125
Y-8.079 Z-1.193
Y-8.037 Z-1.171
Y-8.004 Z-1.138
Y-7.982 Z-1.096
Y-7.975 Z-1.05
G0 Z5
X-230.15 Y-11.375
Z2
G1 Z0.15 F400
Y-11.382 Z0.104
Y-11.404 Z0.062
Y-11.437 Z0.029
Y-11.479 Z0.007
Y-11.525 Z0
Y-11.6
X-230.143 Y-11.646
X-230.121 Y-11.688
X-230.088 Y-11.721
X-230.046 Y-11.743
X-230 Y-11.75
G3 X-230 Y-3.25 Z-0.15 I0 J4.25 F600
X-230 Y-11.75 Z-0.3 I0 J-4.25
X-230 Y-3.25 Z-0.45 I0 J4.25
X-230 Y-11.75 Z-0.6 I0 J-4.25
X-230 Y-3.25 Z-0.75 I0 J4.25
X-230 Y-11.75 Z-0.9 I0 J-4.25
X-230 Y-3.25 Z-1.05 I0 J4.25
X-230 Y-11.75 Z-1.2 I0 J-4.25
X-230 Y-3.25 I0 J4.25
X-230 Y-11.75 I0 J-4.25
G1 X-229.954 Y-11.743
X-229.912 Y-11.721
X-229.879 Y-11.688
X-229.857 Y-11.646
X-229.85 Y-11.6
Y-11.525
Y-11.479 Z-1.193
Y-11.437 Z-1.171
Y-11.404 Z-1.138
Y-11.382 Z-1.096
Y-11.375 Z-1.05
G0 Z5
X-230.15
Z-12
G1 Z-13.85 F400
Y-11.382 Z-13.896
Y-11.404 Z-13.938
Y-11.437 Z-13.971
Y-11.479 Z-13.993
Y-11.525 Z-14
Y-11.6
X-230.143 Y-11.646
X-230.121 Y-11.688
X-230.088 Y-11.721
X-230.046 Y-11.743
X-230 Y-11.75
G3 X-230 Y-3.25 Z-14.15 I0 J4.25 F600
X-230 Y-11.75 Z-14.3 I0 J-4.25
X-230 Y-3.25 Z-14.45 I0 J4.25
X-230 Y-11.75 Z-14.6 I0 J-4.25
X-230 Y-3.25 Z-14.75 I0 J4.25
X-230 Y-11.75 Z-14.9 I0 J-4.25
X-230 Y-3.25 Z-15.05 I0 J4.25
X-230 Y-11.75 Z-15.2 I0 J-4.25
X-230 Y-3.25 I0 J4.25
X-230 Y-11.75 I0 J-4.25
G1 X-229.954 Y-11.743
X-229.912 Y-11.721
X-229.879 Y-11.688
X-229.857 Y-11.646
X-229.85 Y-11.6
Y-11.525
Y-11.479 Z-15.193
Y-11.437 Z-15.171
Y-11.404 Z-15.138
Y-11.382 Z-15.096
Y-11.375 Z-15.05
G0 Z5
X-350.65 Y-7.975
Z-12
G1 Z-13.85 F400
Y-7.982 Z-13.896
Y-8.004 Z-13.938
Y-8.037 Z-13.971
Y-8.079 Z-13.993
Y-8.125 Z-14
Y-8.2
X-350.643 Y-8.246
X-350.621 Y-8.288
X-350.588 Y-8.321
X-350.546 Y-8.343
X-350.5 Y-8.35
G3 X-350.5 Y-6.65 Z-14.15 I0 J0.85 F600
X-350.5 Y-8.35 Z-14.3 I0 J-0.85
X-350.5 Y-6.65 Z-14.45 I0 J0.85
X-350.5 Y-8.35 Z-14.6 I0 J-0.85
X-350.5 Y-6.65 Z-14.75 I0 J0.85
X-350.5 Y-8.35 Z-14.9 I0 J-0.85
X-350.5 Y-6.65 Z-15.05 I0 J0.85
X-350.5 Y-8.35 Z-15.2 I0 J-0.85
X-350.5 Y-6.65 I0 J0.85
X-350.5 Y-8.35 I0 J-0.85
G1 X-350.454 Y-8.343
X-350.412 Y-8.321
X-350.379 Y-8.288
X-350.357 Y-8.246
X-350.35 Y-8.2
Y-8.125
Y-8.079 Z-15.193
Y-8.037 Z-15.171
Y-8.004 Z-15.138
Y-7.982 Z-15.096
Y-7.975 Z-15.05
G0 Z5
X-350.65
Z2
G1 Z0.15 F400
Y-7.982 Z0.104
Y-8.004 Z0.062
Y-8.037 Z0.029
Y-8.079 Z0.007
Y-8.125 Z0
Y-8.2
X-350.643 Y-8.246
X-350.621 Y-8.288
X-350.588 Y-8.321
X-350.546 Y-8.343
X-350.5 Y-8.35
G3 X-350.5 Y-6.65 Z-0.15 I0 J0.85 F600
X-350.5 Y-8.35 Z-0.3 I0 J-0.85
X-350.5 Y-6.65 Z-0.45 I0 J0.85
X-350.5 Y-8.35 Z-0.6 I0 J-0.85
X-350.5 Y-6.65 Z-0.75 I0 J0.85
X-350.5 Y-8.35 Z-0.9 I0 J-0.85
X-350.5 Y-6.65 Z-1.05 I0 J0.85
X-350.5 Y-8.35 Z-1.2 I0 J-0.85
X-350.5 Y-6.65 I0 J0.85
X-350.5 Y-8.35 I0 J-0.85
G1 X-350.454 Y-8.343
X-350.412 Y-8.321
X-350.379 Y-8.288
X-350.357 Y-8.246
X-350.35 Y-8.2
Y-8.125
Y-8.079 Z-1.193
Y-8.037 Z-1.171
Y-8.004 Z-1.138
Y-7.982 Z-1.096
Y-7.975 Z-1.05
G0 Z5
X-360.15 Y-9.875
Z2
G1 Z0.15 F400
Y-9.882 Z0.104
Y-9.904 Z0.062
Y-9.937 Z0.029
Y-9.979 Z0.007
Y-10.025 Z0
Y-10.1
X-360.143 Y-10.146
X-360.121 Y-10.188
X-360.088 Y-10.221
X-360.046 Y-10.243
X-360 Y-10.25
G3 X-360 Y-4.75 Z-0.15 I0 J2.75 F600
X-360 Y-10.25 Z-0.3 I0 J-2.75
X-360 Y-4.75 Z-0.45 I0 J2.75
X-360 Y-10.25 Z-0.6 I0 J-2.75
X-360 Y-4.75 Z-0.75 I0 J2.75
X-360 Y-10.25 Z-0.9 I0 J-2.75
X-360 Y-4.75 Z-1.05 I0 J2.75
X-360 Y-10.25 Z-1.2 I0 J-2.75
X-360 Y-4.75 I0 J2.75
X-360 Y-10.25 I0 J-2.75
G1 X-359.954 Y-10.243
X-359.912 Y-10.221
X-359.879 Y-10.188
X-359.857 Y-10.146
X-359.85 Y-10.1
Y-10.025
Y-9.979 Z-1.193
Y-9.937 Z-1.171
Y-9.904 Z-1.138
Y-9.882 Z-1.096
Y-9.875 Z-1.05
G0 Z5
X-360.15
Z-12
G1 Z-13.85 F400
Y-9.882 Z-13.896
Y-9.904 Z-13.938
Y-9.937 Z-13.971
Y-9.979 Z-13.993
Y-10.025 Z-14
Y-10.1
X-360.143 Y-10.146
X-360.121 Y-10.188
X-360.088 Y-10.221
X-360.046 Y-10.243
X-360 Y-10.25
G3 X-360 Y-4.75 Z-14.15 I0 J2.75 F600
X-360 Y-10.25 Z-14.3 I0 J-2.75
X-360 Y-4.75 Z-14.45 I0 J2.75
X-360 Y-10.25 Z-14.6 I0 J-2.75
X-360 Y-4.75 Z-14.75 I0 J2.75
X-360 Y-10.25 Z-14.9 I0 J-2.75
X-360 Y-4.75 Z-15.05 I0 J2.75
X-360 Y-10.25 Z-15.2 I0 J-2.75
X-360 Y-4.75 I0 J2.75
X-360 Y-10.25 I0 J-2.75
G1 X-359.954 Y-10.243
X-359.912 Y-10.221
X-359.879 Y-10.188
X-359.857 Y-10.146
X-359.85 Y-10.1
Y-10.025
Y-9.979 Z-15.193
Y-9.937 Z-15.171
Y-9.904 Z-15.138
Y-9.882 Z-15.096
Y-9.875 Z-15.05
G0 Z5
X-369.65 Y-7.975
Z2
G1 Z0.15 F400
Y-7.982 Z0.104
Y-8.004 Z0.062
Y-8.037 Z0.029
Y-8.079 Z0.007
Y-8.125 Z0
Y-8.2
X-369.643 Y-8.246
X-369.621 Y-8.288
X-369.588 Y-8.321
X-369.546 Y-8.343
X-369.5 Y-8.35
G3 X-369.5 Y-6.65 Z-0.15 I0 J0.85 F600
X-369.5 Y-8.35 Z-0.3 I0 J-0.85
X-369.5 Y-6.65 Z-0.45 I0 J0.85
X-369.5 Y-8.35 Z-0.6 I0 J-0.85
X-369.5 Y-6.65 Z-0.75 I0 J0.85
X-369.5 Y-8.35 Z-0.9 I0 J-0.85
X-369.5 Y-6.65 Z-1.05 I0 J0.85
X-369.5 Y-8.35 Z-1.2 I0 J-0.85
X-369.5 Y-6.65 I0 J0.85
X-369.5 Y-8.35 I0 J-0.85
G1 X-369.454 Y-8.343
X-369.412 Y-8.321
X-369.379 Y-8.288
X-369.357 Y-8.246
X-369.35 Y-8.2
Y-8.125
Y-8.079 Z-1.193
Y-8.037 Z-1.171
Y-8.004 Z-1.138
Y-7.982 Z-1.096
Y-7.975 Z-1.05
G0 Z5
X-369.65
Z-12
G1 Z-13.85 F400
Y-7.982 Z-13.896
Y-8.004 Z-13.938
Y-8.037 Z-13.971
Y-8.079 Z-13.993
Y-8.125 Z-14
Y-8.2
X-369.643 Y-8.246
X-369.621 Y-8.288
X-369.588 Y-8.321
X-369.546 Y-8.343
X-369.5 Y-8.35
G3 X-369.5 Y-6.65 Z-14.15 I0 J0.85 F600
X-369.5 Y-8.35 Z-14.3 I0 J-0.85
X-369.5 Y-6.65 Z-14.45 I0 J0.85
X-369.5 Y-8.35 Z-14.6 I0 J-0.85
X-369.5 Y-6.65 Z-14.75 I0 J0.85
X-369.5 Y-8.35 Z-14.9 I0 J-0.85
X-369.5 Y-6.65 Z-15.05 I0 J0.85
X-369.5 Y-8.35 Z-15.2 I0 J-0.85
X-369.5 Y-6.65 I0 J0.85
X-369.5 Y-8.35 I0 J-0.85
G1 X-369.454 Y-8.343
X-369.412 Y-8.321
X-369.379 Y-8.288
X-369.357 Y-8.246
X-369.35 Y-8.2
Y-8.125
Y-8.079 Z-15.193
Y-8.037 Z-15.171
Y-8.004 Z-15.138
Y-7.982 Z-15.096
Y-7.975 Z-15.05
G0 Z15

(Adaptiv3)
X-190.092 Y-17.491
Z15
Z5
Z0.05
G1 Z-0.1 F400
X-190.09 Y-17.484 Z-0.146
X-190.085 Y-17.464 Z-0.188
X-190.077 Y-17.431 Z-0.221
X-190.066 Y-17.391 Z-0.243
X-190.055 Y-17.346 Z-0.25
G3 X-189.831 Y-15.791 I-7.063 J1.809
G1 Y-15.716 F600
X-189.894 Y-15.58
X-190.008 Y-15.482
X-190.138 Y-15.407
X-190.276 Y-15.35
X-190.448 Y-15.296
X-190.693 Y-15.24
X-191.09 Y-15.183
X-191.526 Y-15.155
X-191.964 Y-15.144
X-192.401 Y-15.139
X-192.838 Y-15.138
X-194.588 Y-15.136
X-196.616
X-196.748 Y-15.162
X-196.86 Y-15.236
X-196.936 Y-15.347
G3 X-196.671 Y-15.488 I0.132 J-0.071
X-196.68 Y-15.332 I-0.132 J0.071
G1 X-196.712 Y-15.31 Z-0.244
X-196.742 Y-15.29 Z-0.229
X-196.767 Y-15.272 Z-0.204
X-196.789 Y-15.269 Z-0.174
X-196.804 Y-15.268 Z-0.139
X-196.809 Z-0.1
G0 Z5
X-180.97 Y-16.548
Z0.05
G1 Z-0.1 F400
X-180.976 Y-16.543 Z-0.146
X-180.992 Y-16.529 Z-0.188
X-181.017 Y-16.507 Z-0.221
X-181.048 Y-16.48 Z-0.243
X-181.083 Y-16.45 Z-0.25
G3 X-182.487 Y-15.744 I-2.078 J-2.387
G1 X-182.575 Y-15.728 F600
X-182.674 Y-15.698
X-182.724 Y-15.675
X-182.78 Y-15.645
X-182.873 Y-15.581
X-182.894 Y-15.561
X-183.011 Y-15.467
X-183.143 Y-15.396
X-183.283 Y-15.341
X-183.464 Y-15.287
X-183.727 Y-15.231
X-184.16 Y-15.174
X-184.597 Y-15.152
X-185.035 Y-15.143
X-185.472 Y-15.139
X-186.347 Y-15.137
X-188.972 Y-15.136
X-189.397 Y-15.036
X-189.808 Y-14.884
X-190.202 Y-14.761
X-190.622 Y-14.667
X-191.055 Y-14.606
X-191.492 Y-14.571
X-191.929 Y-14.553
X-192.366 Y-14.544
X-192.803 Y-14.54
X-193.241 Y-14.538
X-194.553 Y-14.537
X-196.225 Y-14.536
X-196.383 Y-14.549
X-196.531 Y-14.573
X-196.589 Y-14.588
X-196.724 Y-14.658
X-196.817 Y-14.777
X-196.85 Y-14.925
X-196.852 Y-15.004
X-196.854 Y-15.049
X-196.865 Y-15.148
X-196.876 Y-15.192
X-196.889 Y-15.235
X-196.893 Y-15.248
X-196.936 Y-15.347
G3 X-196.657 Y-15.456 I0.14 J-0.055
X-196.684 Y-15.302 I-0.14 J0.055
G1 X-196.718 Y-15.284 Z-0.244
X-196.75 Y-15.267 Z-0.229
X-196.777 Y-15.253 Z-0.204
X-196.796 Y-15.252 Z-0.179
X-196.813 Y-15.253 Z-0.141
X-196.819 Z-0.1
G0 Z5
X-182.538 Y-16.205
Z0.05
G1 Z-0.1 F400
X-182.54 Y-16.198 Z-0.146
X-182.547 Y-16.177 Z-0.188
X-182.557 Y-16.146 Z-0.221
X-182.569 Y-16.106 Z-0.243
X-182.583 Y-16.062 Z-0.25
G3 X-182.894 Y-15.561 I-1.132 J-0.357
G1 X-182.912 Y-15.546 F600
X-182.972 Y-15.483
X-183.001 Y-15.446
X-183.035 Y-15.397
X-183.064 Y-15.347
X-183.072 Y-15.331
X-183.091 Y-15.285
X-183.156 Y-15.15
X-183.257 Y-15.039
X-183.376 Y-14.947
X-183.505 Y-14.872
X-183.641 Y-14.808
X-183.815 Y-14.745
X-184.043 Y-14.683
X-184.376 Y-14.62
X-184.811 Y-14.573
X-185.248 Y-14.553
X-185.685 Y-14.544
X-186.123 Y-14.54
X-186.997 Y-14.537
X-188.31
X-188.747 Y-14.515
X-189.175 Y-14.428
X-189.597 Y-14.311
X-190.02 Y-14.199
X-190.447 Y-14.107
X-190.88 Y-14.04
X-191.315 Y-13.996
X-191.752 Y-13.969
X-192.189 Y-13.954
X-192.626 Y-13.945
X-193.063 Y-13.941
X-193.501 Y-13.939
X-194.813 Y-13.937
X-195.688 Y-13.936
X-196.046 Y-13.943
X-196.227 Y-13.961
X-196.393 Y-13.991
X-196.538 Y-14.03
X-196.625 Y-14.063
X-196.743 Y-14.138
X-196.822 Y-14.253
X-196.85 Y-14.39
Y-14.925
G3 X-196.551 Y-14.916 I0.15 J0.004
X-196.636 Y-14.785 I-0.15 J-0.004
G1 X-196.669 Y-14.778 Z-0.246
X-196.7 Y-14.771 Z-0.234
X-196.733 Y-14.78 Z-0.211
X-196.758 Y-14.787 Z-0.179
X-196.774 Y-14.791 Z-0.141
X-196.779 Y-14.793 Z-0.1
G0 Z5
X-183.023 Y-16.214
Z0.05
G1 Z-0.1 F400
X-183.022 Y-16.207 Z-0.146
X-183.019 Y-16.186 Z-0.188
X-183.014 Y-16.153 Z-0.221
X-183.009 Y-16.111 Z-0.243
X-183.002 Y-16.066 Z-0.25
G3 X-183.091 Y-15.285 I-1.568 J0.217
G1 X-183.107 Y-15.248 F600
X-183.122 Y-15.198
X-183.135 Y-15.148
X-183.146 Y-15.049
X-183.147 Y-15.019
X-183.16 Y-14.87
X-183.219 Y-14.732
X-183.307 Y-14.611
X-183.415 Y-14.506
X-183.535 Y-14.416
X-183.665 Y-14.338
X-183.805 Y-14.269
X-183.996 Y-14.194
X-184.232 Y-14.121
X-184.556 Y-14.05
X-184.989 Y-13.991
X-185.426 Y-13.962
X-185.863 Y-13.949
X-186.301 Y-13.942
X-186.738 Y-13.939
X-187.613 Y-13.937
X-188.05 Y-13.935
X-188.487 Y-13.91
X-188.919 Y-13.841
X-189.346 Y-13.745
X-189.772 Y-13.645
X-190.2 Y-13.554
X-190.631 Y-13.482
X-191.065 Y-13.428
X-191.501 Y-13.392
X-191.938 Y-13.368
X-192.375 Y-13.354
X-192.812 Y-13.346
X-193.25 Y-13.342
X-193.687 Y-13.339
X-194.562 Y-13.337
X-195.437
X-195.855 Y-13.346
X-196.134 Y-13.374
X-196.313 Y-13.407
X-196.471 Y-13.449
X-196.613 Y-13.499
X-196.652 Y-13.518
X-196.757 Y-13.596
X-196.826 Y-13.706
X-196.85 Y-13.834
Y-14.39
G0 Z5
X-183.414 Y-15.911
Z0.05
G1 Z-0.1 F400
X-183.411 Y-15.905 Z-0.146
X-183.4 Y-15.886 Z-0.188
X-183.384 Y-15.857 Z-0.221
X-183.364 Y-15.82 Z-0.243
X-183.342 Y-15.78 Z-0.25
G3 X-183.147 Y-15.019 I-1.388 J0.761
G1 X-183.149 Y-14.95 F600
X-183.15 Y-14.597
X-183.158 Y-14.447
X-183.208 Y-14.306
X-183.286 Y-14.178
X-183.384 Y-14.064
X-183.495 Y-13.964
X-183.616 Y-13.875
X-183.759 Y-13.789
X-183.925 Y-13.707
X-184.136 Y-13.622
X-184.399 Y-13.54
X-184.746 Y-13.463
X-185.179 Y-13.401
X-185.616 Y-13.369
X-186.053 Y-13.353
X-186.49 Y-13.345
X-186.928 Y-13.34
X-187.365 Y-13.338
X-187.802 Y-13.334
X-188.239 Y-13.31
X-188.673 Y-13.253
X-189.103 Y-13.172
X-189.531 Y-13.082
X-189.96 Y-12.996
X-190.391 Y-12.921
X-190.824 Y-12.862
X-191.259 Y-12.818
X-191.696 Y-12.787
X-192.133 Y-12.767
X-192.57 Y-12.754
X-193.007 Y-12.746
X-193.445 Y-12.742
X-193.882 Y-12.739
X-194.757 Y-12.737
X-195.194 Y-12.738
X-195.632 Y-12.745
X-195.98 Y-12.773
X-196.238 Y-12.816
X-196.396 Y-12.855
X-196.542 Y-12.904
X-196.638 Y-12.945
X-196.749 Y-13.021
X-196.824 Y-13.134
X-196.85 Y-13.267
Y-13.834
G0 Z5
X-183.448 Y-15.48
Z0.05
G1 Z-0.1 F400
X-183.444 Y-15.473 Z-0.146
X-183.433 Y-15.455 Z-0.188
X-183.416 Y-15.426 Z-0.221
X-183.395 Y-15.391 Z-0.243
X-183.371 Y-15.351 Z-0.25
G3 X-183.15 Y-14.597 I-1.36 J0.809
G1 Y-14.1 F600
X-183.158 Y-13.951
X-183.209 Y-13.81
X-183.286 Y-13.681
X-183.38 Y-13.565
X-183.488 Y-13.46
X-183.606 Y-13.368
X-183.742 Y-13.278
X-183.912 Y-13.184
X-184.113 Y-13.093
X-184.375 Y-12.999
X-184.682 Y-12.916
X-185.112 Y-12.836
X-185.547 Y-12.791
X-185.984 Y-12.766
X-186.421 Y-12.752
X-186.859 Y-12.744
X-187.296 Y-12.739
X-187.733 Y-12.728
X-188.17 Y-12.697
X-188.603 Y-12.639
X-189.034 Y-12.563
X-189.464 Y-12.481
X-189.894 Y-12.401
X-190.326 Y-12.332
X-190.759 Y-12.274
X-191.195 Y-12.23
X-191.631 Y-12.198
X-192.068 Y-12.175
X-192.505 Y-12.16
X-192.942 Y-12.151
X-193.38 Y-12.145
X-193.817 Y-12.141
X-194.255 Y-12.139
X-194.692 Y-12.138
X-195.129 Y-12.14
X-195.567 Y-12.153
X-195.934 Y-12.185
X-196.211 Y-12.232
X-196.384 Y-12.276
X-196.539 Y-12.329
X-196.639 Y-12.373
X-196.75 Y-12.449
X-196.824 Y-12.562
X-196.85 Y-12.694
Y-13.267
G0 Z5
X-183.448 Y-14.983
Z0.05
G1 Z-0.1 F400
X-183.444 Y-14.977 Z-0.146
X-183.433 Y-14.958 Z-0.188
X-183.416 Y-14.93 Z-0.221
X-183.395 Y-14.894 Z-0.243
X-183.371 Y-14.854 Z-0.25
G3 X-183.15 Y-14.1 I-1.36 J0.809
G1 Y-13.604 F600
X-183.158 Y-13.454
X-183.204 Y-13.311
X-183.276 Y-13.18
X-183.366 Y-13.06
X-183.47 Y-12.952
X-183.584 Y-12.855
X-183.716 Y-12.76
X-183.884 Y-12.658
X-184.072 Y-12.564
X-184.334 Y-12.459
X-184.613 Y-12.371
X-185.006 Y-12.283
X-185.439 Y-12.221
X-185.875 Y-12.184
X-186.312 Y-12.163
X-186.749 Y-12.151
X-187.186 Y-12.141
X-187.624 Y-12.124
X-188.06 Y-12.09
X-188.494 Y-12.035
X-188.925 Y-11.964
X-189.356 Y-11.888
X-189.787 Y-11.814
X-190.219 Y-11.747
X-190.653 Y-11.69
X-191.088 Y-11.645
X-191.524 Y-11.61
X-191.961 Y-11.585
X-192.398 Y-11.568
X-192.835 Y-11.556
X-193.273 Y-11.548
X-193.71 Y-11.543
X-194.148 Y-11.541
X-194.585 Y-11.54
X-195.023 Y-11.543
X-195.46 Y-11.557
X-195.876 Y-11.593
X-196.166 Y-11.641
X-196.363 Y-11.691
X-196.526 Y-11.746
X-196.663 Y-11.805
X-196.672 Y-11.81
X-196.767 Y-11.888
X-196.829 Y-11.994
X-196.85 Y-12.115
Y-12.694
G0 Z5
X-183.448 Y-14.486
Z0.05
G1 Z-0.1 F400
X-183.444 Y-14.48 Z-0.146
X-183.433 Y-14.462 Z-0.188
X-183.416 Y-14.433 Z-0.221
X-183.395 Y-14.397 Z-0.243
X-183.371 Y-14.357 Z-0.25
G3 X-183.15 Y-13.604 I-1.36 J0.809
G1 Y-13.062 F600
X-183.158 Y-12.913
X-183.206 Y-12.771
X-183.279 Y-12.64
X-183.369 Y-12.52
X-183.472 Y-12.41
X-183.591 Y-12.306
X-183.721 Y-12.21
X-183.892 Y-12.104
X-184.087 Y-12.003
X-184.339 Y-11.898
X-184.653 Y-11.795
X-185.031 Y-11.705
X-185.463 Y-11.637
X-185.899 Y-11.596
X-186.336 Y-11.571
X-187.21 Y-11.539
X-187.647 Y-11.514
X-188.082 Y-11.473
X-188.516 Y-11.415
X-188.948 Y-11.346
X-189.379 Y-11.274
X-189.811 Y-11.205
X-190.244 Y-11.143
X-190.678 Y-11.09
X-191.114 Y-11.047
X-191.55 Y-11.013
X-191.987 Y-10.989
X-192.424 Y-10.971
X-192.861 Y-10.959
X-193.298 Y-10.95
X-193.736 Y-10.945
X-194.173 Y-10.942
X-194.611
X-195.048 Y-10.949
X-195.485 Y-10.969
X-195.887 Y-11.009
X-196.188 Y-11.063
X-196.393 Y-11.117
X-196.536 Y-11.168
X-196.674 Y-11.23
X-196.768 Y-11.308
X-196.829 Y-11.413
X-196.85 Y-11.533
Y-12.115
G0 Z5
X-183.448 Y-13.945
Z0.05
G1 Z-0.1 F400
X-183.444 Y-13.939 Z-0.146
X-183.433 Y-13.92 Z-0.188
X-183.416 Y-13.892 Z-0.221
X-183.395 Y-13.856 Z-0.243
X-183.371 Y-13.816 Z-0.25
G3 X-183.15 Y-13.062 I-1.36 J0.809
G1 Y-12.536 F600
X-183.158 Y-12.386
X-183.202 Y-12.243
X-183.271 Y-12.11
X-183.358 Y-11.987
X-183.458 Y-11.876
X-183.573 Y-11.771
X-183.699 Y-11.672
X-183.873 Y-11.558
X-184.059 Y-11.457
X-184.313 Y-11.344
X-184.604 Y-11.241
X-184.975 Y-11.142
X-185.406 Y-11.065
X-185.84 Y-11.015
X-186.277 Y-10.983
X-187.15 Y-10.939
X-187.587 Y-10.909
X-188.022 Y-10.865
X-188.456 Y-10.808
X-188.888 Y-10.743
X-189.32 Y-10.675
X-189.753 Y-10.609
X-190.186 Y-10.55
X-190.621 Y-10.498
X-191.056 Y-10.456
X-191.492 Y-10.422
X-191.929 Y-10.396
X-192.366 Y-10.377
X-192.803 Y-10.363
X-193.24 Y-10.354
X-193.678 Y-10.347
X-194.115 Y-10.344
X-194.553 Y-10.345
X-194.99 Y-10.353
X-195.427 Y-10.375
X-195.862 Y-10.418
X-196.163 Y-10.472
X-196.385 Y-10.531
X-196.528 Y-10.581
X-196.665 Y-10.642
X-196.672 Y-10.646
X-196.767 Y-10.724
X-196.829 Y-10.83
X-196.85 Y-10.951
Y-11.533
G0 Z5
X-183.448 Y-13.418
Z0.05
G1 Z-0.1 F400
X-183.444 Y-13.412 Z-0.146
X-183.433 Y-13.394 Z-0.188
X-183.416 Y-13.365 Z-0.221
X-183.395 Y-13.329 Z-0.243
X-183.371 Y-13.289 Z-0.25
G3 X-183.15 Y-12.536 I-1.36 J0.809
G1 Y-11.97 F600
X-183.158 Y-11.82
X-183.204 Y-11.678
X-183.275 Y-11.545
X-183.363 Y-11.424
X-183.463 Y-11.312
X-183.581 Y-11.204
X-183.713 Y-11.101
X-183.885 Y-10.988
X-184.087 Y-10.877
X-184.335 Y-10.767
X-184.656 Y-10.653
X-185.037 Y-10.551
X-185.468 Y-10.473
X-185.902 Y-10.422
X-186.338 Y-10.387
X-186.775 Y-10.36
X-187.211 Y-10.332
X-187.647 Y-10.295
X-188.082 Y-10.246
X-188.515 Y-10.188
X-189.381 Y-10.059
X-189.814 Y-9.997
X-190.248 Y-9.941
X-190.682 Y-9.893
X-191.118 Y-9.853
X-191.554 Y-9.821
X-191.991 Y-9.797
X-192.428 Y-9.778
X-192.865 Y-9.764
X-193.303 Y-9.755
X-193.74 Y-9.749
X-194.177 Y-9.746
X-194.615 Y-9.75
X-195.052 Y-9.762
X-195.489 Y-9.789
X-195.906 Y-9.836
X-196.208 Y-9.896
X-196.407 Y-9.952
X-196.552 Y-10.006
X-196.647 Y-10.05
X-196.754 Y-10.127
X-196.825 Y-10.238
X-196.85 Y-10.367
Y-10.951
G0 Z5
X-183.448 Y-12.852
Z0.05
G1 Z-0.1 F400
X-183.444 Y-12.846 Z-0.146
X-183.433 Y-12.828 Z-0.188
X-183.416 Y-12.799 Z-0.221
X-183.395 Y-12.763 Z-0.243
X-183.371 Y-12.723 Z-0.25
G3 X-183.15 Y-11.97 I-1.36 J0.809
G1 Y-11.419 F600
X-183.158 Y-11.269
X-183.203 Y-11.126
X-183.272 Y-10.993
X-183.358 Y-10.87
X-183.457 Y-10.757
X-183.573 Y-10.647
X-183.702 Y-10.545
X-183.88 Y-10.424
X-184.072 Y-10.316
X-184.331 Y-10.196
X-184.641 Y-10.082
X-185.017 Y-9.977
X-185.446 Y-9.893
X-185.88 Y-9.837
X-186.315 Y-9.797
X-186.752 Y-9.764
X-187.188 Y-9.73
X-187.623 Y-9.689
X-188.058 Y-9.638
X-188.491 Y-9.58
X-189.357 Y-9.456
X-189.791 Y-9.397
X-190.225 Y-9.344
X-190.66 Y-9.297
X-191.096 Y-9.258
X-191.532 Y-9.226
X-191.969 Y-9.201
X-192.406 Y-9.182
X-192.843 Y-9.168
X-193.28 Y-9.158
X-193.717 Y-9.152
X-194.155 Y-9.15
X-194.592 Y-9.154
X-195.03 Y-9.168
X-195.466 Y-9.197
X-195.901 Y-9.247
X-196.198 Y-9.306
X-196.394 Y-9.361
X-196.554 Y-9.421
X-196.648 Y-9.464
X-196.755 Y-9.541
X-196.825 Y-9.652
X-196.85 Y-9.782
Y-10.367
G0 Z5
X-183.448 Y-12.301
Z0.05
G1 Z-0.1 F400
X-183.444 Y-12.295 Z-0.146
X-183.433 Y-12.276 Z-0.188
X-183.416 Y-12.248 Z-0.221
X-183.395 Y-12.212 Z-0.243
X-183.371 Y-12.172 Z-0.25
G3 X-183.15 Y-11.419 I-1.36 J0.809
G1 Y-10.877 F600
X-183.158 Y-10.727
X-183.197 Y-10.583
X-183.263 Y-10.448
X-183.346 Y-10.323
X-183.442 Y-10.208
X-183.555 Y-10.098
X-183.68 Y-9.993
X-183.853 Y-9.872
X-184.038 Y-9.762
X-184.291 Y-9.639
X-184.585 Y-9.524
X-184.953 Y-9.413
X-185.381 Y-9.321
X-185.814 Y-9.257
X-186.248 Y-9.21
X-187.12 Y-9.132
X-187.555 Y-9.088
X-187.99 Y-9.037
X-188.423 Y-8.98
X-189.29 Y-8.86
X-189.724 Y-8.803
X-190.158 Y-8.751
X-190.593 Y-8.705
X-191.029 Y-8.666
X-191.465 Y-8.634
X-191.902 Y-8.608
X-192.339 Y-8.588
X-192.776 Y-8.573
X-193.213 Y-8.562
X-193.65 Y-8.555
X-194.088 Y-8.553
X-194.525 Y-8.558
X-194.962 Y-8.572
X-195.399 Y-8.6
X-195.834 Y-8.648
X-196.154 Y-8.708
X-196.369 Y-8.766
X-196.535 Y-8.826
X-196.672 Y-8.888
X-196.677 Y-8.891
X-196.769 Y-8.969
X-196.829 Y-9.074
X-196.85 Y-9.193
Y-9.782
G0 Z5
X-183.448 Y-11.76
Z0.05
G1 Z-0.1 F400
X-183.444 Y-11.753 Z-0.146
X-183.433 Y-11.735 Z-0.188
X-183.416 Y-11.707 Z-0.221
X-183.395 Y-11.671 Z-0.243
X-183.371 Y-11.631 Z-0.25
G3 X-183.15 Y-10.877 I-1.36 J0.809
G1 Y-10.281 F600
X-183.158 Y-10.131
X-183.203 Y-9.989
X-183.272 Y-9.855
X-183.358 Y-9.732
X-183.457 Y-9.619
X-183.572 Y-9.509
X-183.708 Y-9.398
X-183.879 Y-9.28
X-184.091 Y-9.158
X-184.337 Y-9.042
X-184.664 Y-8.919
X-185.068 Y-8.802
X-185.496 Y-8.715
X-185.929 Y-8.652
X-186.364 Y-8.603
X-187.234 Y-8.517
X-187.669 Y-8.468
X-188.103 Y-8.415
X-188.537 Y-8.357
X-188.97 Y-8.298
X-189.404 Y-8.241
X-189.838 Y-8.187
X-190.273 Y-8.138
X-190.708 Y-8.096
X-191.144 Y-8.059
X-191.581 Y-8.029
X-192.017 Y-8.005
X-192.454 Y-7.986
X-192.892 Y-7.972
X-193.329 Y-7.962
X-193.766 Y-7.957
X-194.204
X-194.641 Y-7.966
X-195.078 Y-7.984
X-195.514 Y-8.018
X-195.924 Y-8.072
X-196.236 Y-8.139
X-196.427 Y-8.196
X-196.571 Y-8.252
X-196.653 Y-8.291
X-196.757 Y-8.369
X-196.826 Y-8.479
X-196.85 Y-8.606
Y-9.193
G0 Z5
X-183.448 Y-11.164
Z0.05
G1 Z-0.1 F400
X-183.444 Y-11.157 Z-0.146
X-183.433 Y-11.139 Z-0.188
X-183.416 Y-11.111 Z-0.221
X-183.395 Y-11.075 Z-0.243
X-183.371 Y-11.035 Z-0.25
G3 X-183.15 Y-10.281 I-1.36 J0.809
G1 Y-9.73 F600
X-183.158 Y-9.58
X-183.199 Y-9.436
X-183.264 Y-9.301
X-183.348 Y-9.176
X-183.444 Y-9.061
X-183.557 Y-8.949
X-183.684 Y-8.843
X-183.859 Y-8.718
X-184.049 Y-8.604
X-184.315 Y-8.473
X-184.615 Y-8.354
X-185.006 Y-8.233
X-185.433 Y-8.139
X-185.865 Y-8.07
X-186.299 Y-8.015
X-187.169 Y-7.92
X-187.604 Y-7.869
X-188.038 Y-7.816
X-188.905 Y-7.702
X-189.339 Y-7.646
X-189.773 Y-7.593
X-190.208 Y-7.545
X-190.643 Y-7.503
X-191.079 Y-7.467
X-191.516 Y-7.436
X-191.953 Y-7.411
X-192.39 Y-7.392
X-192.827 Y-7.377
X-193.264 Y-7.366
X-193.701 Y-7.361
X-194.139
X-194.576 Y-7.369
X-195.013 Y-7.388
X-195.449 Y-7.421
X-195.884 Y-7.475
X-196.194 Y-7.539
X-196.395 Y-7.597
X-196.556 Y-7.657
X-196.65 Y-7.701
X-196.755 Y-7.779
X-196.826 Y-7.889
X-196.85 Y-8.018
Y-8.606
G0 Z5
X-183.448 Y-10.612
Z0.05
G1 Z-0.1 F400
X-183.444 Y-10.606 Z-0.146
X-183.433 Y-10.588 Z-0.188
X-183.416 Y-10.559 Z-0.221
X-183.395 Y-10.523 Z-0.243
X-183.371 Y-10.484 Z-0.25
G3 X-183.15 Y-9.73 I-1.36 J0.809
G1 Y-9.134 F600
X-183.158 Y-8.984
X-183.203 Y-8.841
X-183.272 Y-8.708
X-183.357 Y-8.585
X-183.455 Y-8.471
X-183.574 Y-8.356
X-183.709 Y-8.244
X-183.885 Y-8.121
X-184.096 Y-7.998
X-184.356 Y-7.874
X-184.691 Y-7.744
X-185.111 Y-7.62
X-185.539 Y-7.53
X-185.971 Y-7.462
X-186.405 Y-7.405
X-187.274 Y-7.304
X-187.708 Y-7.251
X-188.142 Y-7.196
X-189.01 Y-7.084
X-189.444 Y-7.03
X-189.878 Y-6.98
X-190.313 Y-6.935
X-190.749 Y-6.895
X-191.185 Y-6.86
X-191.622 Y-6.832
X-192.058 Y-6.808
X-192.495 Y-6.79
X-192.933 Y-6.776
X-193.37 Y-6.767
X-193.807 Y-6.764
X-194.245 Y-6.767
X-194.682 Y-6.778
X-195.119 Y-6.801
X-195.555 Y-6.84
X-195.959 Y-6.898
X-196.259 Y-6.966
X-196.438 Y-7.021
X-196.587 Y-7.081
X-196.656 Y-7.116
X-196.759 Y-7.194
X-196.826 Y-7.303
X-196.85 Y-7.429
Y-8.018
G0 Z5
X-183.448 Y-10.016
Z0.05
G1 Z-0.1 F400
X-183.444 Y-10.01 Z-0.146
X-183.433 Y-9.992 Z-0.188
X-183.416 Y-9.963 Z-0.221
X-183.395 Y-9.927 Z-0.243
X-183.371 Y-9.888 Z-0.25
G3 X-183.15 Y-9.134 I-1.36 J0.809
G1 Y-8.593 F600
X-183.158 Y-8.443
X-183.195 Y-8.298
X-183.258 Y-8.162
X-183.339 Y-8.035
X-183.434 Y-7.919
X-183.542 Y-7.808
X-183.67 Y-7.697
X-183.838 Y-7.573
X-184.033 Y-7.453
X-184.302 Y-7.315
X-184.589 Y-7.195
X-184.991 Y-7.065
X-185.417 Y-6.964
X-185.847 Y-6.887
X-186.28 Y-6.824
X-186.714 Y-6.768
X-187.582 Y-6.661
X-188.884 Y-6.496
X-189.318 Y-6.442
X-189.753 Y-6.393
X-190.188 Y-6.347
X-190.624 Y-6.307
X-191.06 Y-6.272
X-191.496 Y-6.242
X-191.933 Y-6.217
X-192.37 Y-6.198
X-192.807 Y-6.183
X-193.244 Y-6.173
X-193.682 Y-6.168
X-194.119 Y-6.17
X-194.556 Y-6.18
X-194.993 Y-6.2
X-195.43 Y-6.235
X-195.863 Y-6.29
X-196.189 Y-6.356
X-196.394 Y-6.416
X-196.555 Y-6.477
X-196.65 Y-6.522
X-196.756 Y-6.6
X-196.826 Y-6.71
X-196.85 Y-6.839
Y-7.429
G0 Z5
X-183.448 Y-9.475
Z0.05
G1 Z-0.1 F400
X-183.444 Y-9.469 Z-0.146
X-183.433 Y-9.451 Z-0.188
X-183.416 Y-9.422 Z-0.221
X-183.395 Y-9.386 Z-0.243
X-183.371 Y-9.346 Z-0.25
G3 X-183.15 Y-8.593 I-1.36 J0.809
G1 Y-7.997 F600
X-183.158 Y-7.847
X-183.199 Y-7.703
X-183.264 Y-7.568
X-183.347 Y-7.443
X-183.443 Y-7.327
X-183.559 Y-7.211
X-183.691 Y-7.098
X-183.862 Y-6.974
X-184.069 Y-6.849
X-184.327 Y-6.719
X-184.659 Y-6.584
X-185.077 Y-6.453
X-185.503 Y-6.355
X-185.934 Y-6.278
X-186.366 Y-6.214
X-186.8 Y-6.156
X-188.536 Y-5.935
X-188.97 Y-5.881
X-189.404 Y-5.83
X-189.839 Y-5.782
X-190.274 Y-5.739
X-190.71 Y-5.7
X-191.146 Y-5.667
X-191.583 Y-5.639
X-192.02 Y-5.615
X-192.457 Y-5.597
X-192.894 Y-5.583
X-193.331 Y-5.574
X-193.769 Y-5.572
X-194.206 Y-5.576
X-194.643 Y-5.588
X-195.08 Y-5.612
X-195.516 Y-5.651
X-195.942 Y-5.712
X-196.248 Y-5.781
X-196.431 Y-5.838
X-196.584 Y-5.899
X-196.656 Y-5.935
X-196.759 Y-6.013
X-196.826 Y-6.122
X-196.85 Y-6.248
Y-6.839
G0 Z5
X-183.448 Y-8.879
Z0.05
G1 Z-0.1 F400
X-183.444 Y-8.873 Z-0.146
X-183.433 Y-8.855 Z-0.188
X-183.416 Y-8.826 Z-0.221
X-183.395 Y-8.79 Z-0.243
X-183.371 Y-8.75 Z-0.25
G3 X-183.15 Y-7.997 I-1.36 J0.809
G1 Y-7.401 F600
X-183.158 Y-7.251
X-183.202 Y-7.108
X-183.269 Y-6.974
X-183.354 Y-6.85
X-183.45 Y-6.734
X-183.569 Y-6.616
X-183.701 Y-6.505
X-183.886 Y-6.373
X-184.091 Y-6.25
X-184.37 Y-6.113
X-184.714 Y-5.976
X-185.132 Y-5.847
X-185.559 Y-5.75
X-185.989 Y-5.672
X-186.422 Y-5.607
X-186.855 Y-5.547
X-187.722 Y-5.434
X-188.59 Y-5.324
X-189.025 Y-5.272
X-189.459 Y-5.222
X-189.894 Y-5.176
X-190.33 Y-5.134
X-190.766 Y-5.097
X-191.202 Y-5.065
X-191.638 Y-5.037
X-192.075 Y-5.015
X-192.512 Y-4.997
X-192.95 Y-4.985
X-193.387 Y-4.977
X-193.824 Y-4.976
X-194.262 Y-4.982
X-194.699 Y-4.997
X-195.136 Y-5.023
X-195.571 Y-5.066
X-195.985 Y-5.129
X-196.276 Y-5.198
X-196.45 Y-5.254
X-196.597 Y-5.315
X-196.659 Y-5.346
X-196.76 Y-5.424
X-196.827 Y-5.533
X-196.85 Y-5.658
Y-6.248
G0 Z5
X-183.448 Y-8.283
Z0.05
G1 Z-0.1 F400
X-183.444 Y-8.277 Z-0.146
X-183.433 Y-8.259 Z-0.188
X-183.416 Y-8.23 Z-0.221
X-183.395 Y-8.194 Z-0.243
X-183.371 Y-8.154 Z-0.25
G3 X-183.15 Y-7.401 I-1.36 J0.809
G1 Y-6.849 F600
X-183.158 Y-6.7
X-183.195 Y-6.554
X-183.257 Y-6.418
X-183.338 Y-6.291
X-183.431 Y-6.174
X-183.54 Y-6.061
X-183.672 Y-5.945
X-183.84 Y-5.819
X-184.042 Y-5.692
X-184.316 Y-5.549
X-184.617 Y-5.421
X-185.032 Y-5.283
X-185.457 Y-5.178
X-185.886 Y-5.094
X-186.318 Y-5.023
X-186.751 Y-4.96
X-187.184 Y-4.901
X-187.618 Y-4.844
X-188.052 Y-4.788
X-188.486 Y-4.734
X-188.92 Y-4.681
X-189.355 Y-4.632
X-189.79 Y-4.586
X-190.225 Y-4.544
X-190.661 Y-4.506
X-191.097 Y-4.474
X-191.534 Y-4.446
X-191.971 Y-4.423
X-192.408 Y-4.404
X-192.845 Y-4.391
X-193.282 Y-4.382
X-193.72 Y-4.38
X-194.157 Y-4.385
X-194.594 Y-4.398
X-195.031 Y-4.423
X-195.467 Y-4.462
X-195.9 Y-4.521
X-196.215 Y-4.589
X-196.412 Y-4.649
X-196.57 Y-4.711
X-196.654 Y-4.752
X-196.757 Y-4.829
X-196.826 Y-4.939
X-196.85 Y-5.066
Y-5.658
G0 Z5
X-183.448 Y-7.732
Z0.05
G1 Z-0.1 F400
X-183.444 Y-7.726 Z-0.146
X-183.433 Y-7.707 Z-0.188
X-183.416 Y-7.679 Z-0.221
X-183.395 Y-7.643 Z-0.243
X-183.371 Y-7.603 Z-0.25
G3 X-183.15 Y-6.849 I-1.36 J0.809
G1 Y-6.253 F600
X-183.158 Y-6.104
X-183.197 Y-5.959
X-183.261 Y-5.823
X-183.343 Y-5.697
X-183.437 Y-5.581
X-183.554 Y-5.461
X-183.684 Y-5.347
X-183.86 Y-5.217
X-184.062 Y-5.092
X-184.331 Y-4.952
X-184.67 Y-4.811
X-185.085 Y-4.675
X-185.51 Y-4.571
X-185.939 Y-4.486
X-186.371 Y-4.415
X-186.804 Y-4.351
X-187.237 Y-4.291
X-187.671 Y-4.233
X-188.105 Y-4.178
X-188.539 Y-4.124
X-188.973 Y-4.073
X-189.408 Y-4.024
X-189.843 Y-3.98
X-190.279 Y-3.939
X-190.715 Y-3.903
X-191.151 Y-3.872
X-191.587 Y-3.845
X-192.024 Y-3.822
X-192.461 Y-3.805
X-192.899 Y-3.792
X-193.336 Y-3.785
X-193.774 Y-3.784
X-194.211 Y-3.791
X-194.648 Y-3.806
X-195.085 Y-3.833
X-195.52 Y-3.875
X-195.953 Y-3.939
X-196.254 Y-4.008
X-196.436 Y-4.066
X-196.589 Y-4.128
X-196.658 Y-4.162
X-196.759 Y-4.24
X-196.827 Y-4.349
X-196.85 Y-4.475
Y-5.066
G0 Z5
X-183.448 Y-7.136
Z0.05
G1 Z-0.1 F400
X-183.444 Y-7.13 Z-0.146
X-183.433 Y-7.111 Z-0.188
X-183.416 Y-7.083 Z-0.221
X-183.395 Y-7.047 Z-0.243
X-183.371 Y-7.007 Z-0.25
G3 X-183.15 Y-6.253 I-1.36 J0.809
G1 Y-5.657 F600
X-183.158 Y-5.508
X-183.199 Y-5.364
X-183.264 Y-5.228
X-183.347 Y-5.103
X-183.441 Y-4.987
X-183.559 Y-4.866
X-183.69 Y-4.753
X-183.875 Y-4.617
X-184.077 Y-4.492
X-184.358 Y-4.349
X-184.705 Y-4.205
X-185.122 Y-4.07
X-185.546 Y-3.966
X-185.976 Y-3.881
X-186.407 Y-3.809
X-186.84 Y-3.744
X-187.273 Y-3.683
X-187.706 Y-3.625
X-188.14 Y-3.57
X-188.575 Y-3.517
X-189.009 Y-3.466
X-189.444 Y-3.419
X-189.879 Y-3.376
X-190.315 Y-3.336
X-190.751 Y-3.301
X-191.187 Y-3.271
X-191.624 Y-3.245
X-192.061 Y-3.223
X-192.498 Y-3.206
X-192.935 Y-3.195
X-193.373 Y-3.189
X-193.81
X-194.247 Y-3.197
X-194.685 Y-3.214
X-195.121 Y-3.243
X-195.556 Y-3.287
X-195.98 Y-3.352
X-196.273 Y-3.421
X-196.448 Y-3.478
X-196.597 Y-3.54
X-196.66 Y-3.572
X-196.76 Y-3.65
X-196.827 Y-3.758
X-196.85 Y-3.883
Y-4.475
G0 Z5
X-183.448 Y-6.54
Z0.05
G1 Z-0.1 F400
X-183.444 Y-6.534 Z-0.146
X-183.433 Y-6.515 Z-0.188
X-183.416 Y-6.487 Z-0.221
X-183.395 Y-6.451 Z-0.243
X-183.371 Y-6.411 Z-0.25
G3 X-183.15 Y-5.657 I-1.36 J0.809
G1 Y-5.061 F600
X-183.158 Y-4.912
X-183.201 Y-4.768
X-183.267 Y-4.633
X-183.35 Y-4.508
X-183.445 Y-4.392
X-183.564 Y-4.271
X-183.698 Y-4.156
X-183.887 Y-4.018
X-184.091 Y-3.892
X-184.379 Y-3.746
X-184.733 Y-3.6
X-185.15 Y-3.467
X-185.575 Y-3.363
X-186.004 Y-3.277
X-186.435 Y-3.204
X-186.867 Y-3.138
X-187.301 Y-3.076
X-187.734 Y-3.018
X-188.168 Y-2.963
X-188.602 Y-2.911
X-189.037 Y-2.861
X-189.472 Y-2.815
X-189.907 Y-2.773
X-190.343 Y-2.734
X-190.779 Y-2.7
X-191.216 Y-2.67
X-191.652 Y-2.645
X-192.089 Y-2.624
X-192.527 Y-2.608
X-192.964 Y-2.597
X-193.401 Y-2.592
X-193.839 Y-2.594
X-194.276 Y-2.603
X-194.713 Y-2.621
X-195.149 Y-2.652
X-195.584 Y-2.698
X-196 Y-2.764
X-196.287 Y-2.833
X-196.458 Y-2.89
X-196.604 Y-2.951
X-196.661 Y-2.981
X-196.761 Y-3.059
X-196.827 Y-3.167
X-196.85 Y-3.292
Y-3.883
G0 Z5
X-183.448 Y-5.944
Z0.05
G1 Z-0.1 F400
X-183.444 Y-5.938 Z-0.146
X-183.433 Y-5.919 Z-0.188
X-183.416 Y-5.891 Z-0.221
X-183.395 Y-5.855 Z-0.243
X-183.371 Y-5.815 Z-0.25
G3 X-183.15 Y-5.061 I-1.36 J0.809
G1 Y-4.465 F600
X-183.158 Y-4.316
X-183.202 Y-4.172
X-183.269 Y-4.038
X-183.352 Y-3.913
X-183.447 Y-3.797
X-183.567 Y-3.677
X-183.704 Y-3.559
X-183.893 Y-3.421
X-184.103 Y-3.292
X-184.395 Y-3.144
X-184.753 Y-2.997
X-185.17 Y-2.865
X-185.595 Y-2.76
X-186.024 Y-2.674
X-186.455 Y-2.599
X-186.887 Y-2.533
X-187.32 Y-2.471
X-187.754 Y-2.413
X-188.188 Y-2.358
X-188.622 Y-2.306
X-189.057 Y-2.258
X-189.492 Y-2.212
X-189.927 Y-2.171
X-190.363 Y-2.133
X-190.799 Y-2.1
X-191.236 Y-2.071
X-191.672 Y-2.046
X-192.109 Y-2.026
X-192.547 Y-2.011
X-192.984 Y-2.001
X-193.421 Y-1.996
X-193.859 Y-1.999
X-194.296 Y-2.009
X-194.733 Y-2.029
X-195.169 Y-2.061
X-195.604 Y-2.108
X-196.015 Y-2.175
X-196.297 Y-2.244
X-196.466 Y-2.301
X-196.61 Y-2.362
X-196.662 Y-2.389
X-196.762 Y-2.467
X-196.827 Y-2.575
X-196.85 Y-2.7
Y-3.292
G0 Z5
X-183.448 Y-5.348
Z0.05
G1 Z-0.1 F400
X-183.444 Y-5.342 Z-0.146
X-183.433 Y-5.323 Z-0.188
X-183.416 Y-5.295 Z-0.221
X-183.395 Y-5.259 Z-0.243
X-183.371 Y-5.219 Z-0.25
G3 X-183.15 Y-4.465 I-1.36 J0.809
G1 Y-3.87 F600
X-183.158 Y-3.72
X-183.202 Y-3.577
X-183.27 Y-3.443
X-183.353 Y-3.318
X-183.449 Y-3.202
X-183.568 Y-3.082
X-183.708 Y-2.962
X-183.897 Y-2.825
X-184.111 Y-2.693
X-184.406 Y-2.544
X-184.768 Y-2.396
X-185.185 Y-2.263
X-185.61 Y-2.158
X-186.039 Y-2.071
X-186.469 Y-1.996
X-186.902 Y-1.929
X-187.335 Y-1.867
X-187.768 Y-1.809
X-188.202 Y-1.754
X-188.637 Y-1.703
X-189.072 Y-1.655
X-189.507 Y-1.61
X-189.942 Y-1.57
X-190.378 Y-1.533
X-190.814 Y-1.5
X-191.251 Y-1.472
X-191.688 Y-1.447
X-192.125 Y-1.428
X-192.562 Y-1.413
X-192.999 Y-1.404
X-193.437 Y-1.4
X-193.874 Y-1.404
X-194.311 Y-1.415
X-194.748 Y-1.436
X-195.184 Y-1.469
X-195.619 Y-1.517
X-196.026 Y-1.585
X-196.305 Y-1.655
X-196.472 Y-1.711
X-196.614 Y-1.772
X-196.663 Y-1.798
X-196.762 Y-1.876
X-196.827 Y-1.983
X-196.85 Y-2.107
Y-2.7
G0 Z5
X-183.448 Y-4.752
Z0.05
G1 Z-0.1 F400
X-183.444 Y-4.746 Z-0.146
X-183.433 Y-4.727 Z-0.188
X-183.416 Y-4.699 Z-0.221
X-183.395 Y-4.663 Z-0.243
X-183.371 Y-4.623 Z-0.25
G3 X-183.15 Y-3.87 I-1.36 J0.809
G1 Y-3.298 F600
X-183.158 Y-3.148
X-183.198 Y-3.004
X-183.262 Y-2.868
X-183.343 Y-2.742
X-183.437 Y-2.625
X-183.548 Y-2.509
X-183.687 Y-2.386
X-183.861 Y-2.255
X-184.077 Y-2.119
X-184.363 Y-1.968
X-184.692 Y-1.828
X-185.107 Y-1.689
X-185.531 Y-1.578
X-185.958 Y-1.487
X-186.389 Y-1.409
X-186.821 Y-1.339
X-187.253 Y-1.276
X-187.687 Y-1.217
X-188.121 Y-1.162
X-188.555 Y-1.111
X-188.99 Y-1.062
X-189.425 Y-1.018
X-189.861 Y-0.977
X-190.297 Y-0.94
X-190.733 Y-0.907
X-191.169 Y-0.878
X-191.606 Y-0.854
X-192.043 Y-0.834
X-192.48 Y-0.819
X-192.918 Y-0.809
X-193.355 Y-0.805
X-193.792 Y-0.807
X-194.23 Y-0.817
X-194.667 Y-0.837
X-195.103 Y-0.868
X-195.538 Y-0.913
X-195.97 Y-0.98
X-196.264 Y-1.049
X-196.444 Y-1.107
X-196.595 Y-1.17
X-196.659 Y-1.203
X-196.76 Y-1.281
X-196.827 Y-1.389
X-196.85 Y-1.515
Y-2.107
G0 Z5
X-183.448 Y-4.181
Z0.05
G1 Z-0.1 F400
X-183.444 Y-4.174 Z-0.146
X-183.433 Y-4.156 Z-0.188
X-183.416 Y-4.127 Z-0.221
X-183.395 Y-4.092 Z-0.243
X-183.371 Y-4.052 Z-0.25
G3 X-183.15 Y-3.298 I-1.36 J0.809
G1 Y-2.702 F600
X-183.158 Y-2.552
X-183.188 Y-2.405
X-183.244 Y-2.266
X-183.319 Y-2.137
X-183.408 Y-2.016
X-183.508 Y-1.904
X-183.617 Y-1.801
X-183.733 Y-1.705
X-183.854 Y-1.617
X-183.979 Y-1.534
X-184.109 Y-1.459
X-184.241 Y-1.389
X-184.376 Y-1.323
X-184.514 Y-1.263
X-184.653 Y-1.207
X-184.794 Y-1.155
X-184.936 Y-1.107
X-185.079 Y-1.062
X-185.223 Y-1.02
X-185.368 Y-0.981
X-185.513 Y-0.944
X-185.659 Y-0.909
X-185.805 Y-0.877
X-185.952 Y-0.846
X-186.099 Y-0.816
X-186.325 Y-0.774
X-186.553 Y-0.734
X-186.729 Y-0.704
X-186.936 Y-0.671
X-187.155 Y-0.638
X-187.416 Y-0.6
X-187.718 Y-0.559
X-188.022 Y-0.52
X-188.371 Y-0.477
X-188.741 Y-0.435
X-189.118 Y-0.395
X-189.488 Y-0.358
X-189.826 Y-0.327
X-190.177 Y-0.297
X-190.531 Y-0.269
X-190.883 Y-0.245
X-191.204 Y-0.225
X-191.506 Y-0.208
X-191.824 Y-0.193
X-192.129 Y-0.18
X-192.378 Y-0.172
X-192.663 Y-0.165
X-192.887 Y-0.161
X-193.133 Y-0.158
X-193.333 Y-0.157
X-193.557 Y-0.158
X-193.717 Y-0.16
X-193.923 Y-0.163
X-194.073 Y-0.167
X-194.223 Y-0.172
X-194.404 Y-0.179
X-194.554 Y-0.187
X-194.704 Y-0.195
X-194.853 Y-0.206
X-195.003 Y-0.217
X-195.152 Y-0.23
X-195.302 Y-0.246
X-195.451 Y-0.262
X-195.599 Y-0.282
X-195.748 Y-0.304
X-195.895 Y-0.33
X-196.042 Y-0.36
X-196.188 Y-0.394
X-196.333 Y-0.434
X-196.476 Y-0.481
X-196.614 Y-0.538
X-196.656 Y-0.559
X-196.759 Y-0.636
X-196.826 Y-0.746
X-196.85 Y-0.872
Y-1.515
G0 Z5
X-183.448 Y-3.585
Z0.05
G1 Z-0.1 F400
X-183.444 Y-3.578 Z-0.146
X-183.433 Y-3.56 Z-0.188
X-183.416 Y-3.531 Z-0.221
X-183.395 Y-3.496 Z-0.243
X-183.371 Y-3.456 Z-0.25
G3 X-183.15 Y-2.702 I-1.36 J0.809
G1 Y-2.082 F600
X-183.158 Y-1.932
X-183.193 Y-1.786
X-183.254 Y-1.649
X-183.333 Y-1.521
X-183.425 Y-1.403
X-183.531 Y-1.29
X-183.663 Y-1.169
X-183.829 Y-1.042
X-184.037 Y-0.907
X-184.169 Y-0.835
X-184.244 Y-0.798
X-184.322 Y-0.761
X-184.655 Y-0.612
X-185.068 Y-0.466
X-185.489 Y-0.349
X-185.702 Y-0.301
G3 X-185.813 Y-0.573 I-0.027 J-0.148
G1 X-185.501 Y-0.782
X-183.771 Y-1.941
X-183.383 Y-2.201 F400
G3 X-183.15 Y-2.082 I0.083 J0.125
G1 Y-1.486 F600
X-183.158 Y-1.336
X-183.194 Y-1.19
X-183.255 Y-1.053
X-183.335 Y-0.926
X-183.427 Y-0.808
X-183.53 Y-0.699
X-183.611 Y-0.625
X-183.696 Y-0.556
G3 X-183.915 Y-0.754 I-0.091 J-0.12
G1 X-183.723 Y-1.071
X-183.636 Y-1.215
X-183.428 Y-1.558 F400
G3 X-183.15 Y-1.486 I0.128 J0.078
G1 Y-0.89 F600
X-183.149 Y-0.05
X-183.148 Y0.004
G3 X-183.448 Y0.004 I-0.15 J0
X-183.366 Y-0.129 I0.15 J0
G1 X-183.331 Y-0.138 Z-0.245
X-183.298 Y-0.146 Z-0.232
X-183.267 Y-0.137 Z-0.208
X-183.243 Y-0.131 Z-0.177
X-183.228 Y-0.127 Z-0.14
X-183.223 Y-0.126 Z-0.1
G0 Z5
X-196.557 Y0.64
Z0.05
G1 Z-0.1 F400
X-196.564 Y0.642 Z-0.146
X-196.585 Y0.648 Z-0.188
X-196.617 Y0.656 Z-0.221
X-196.657 Y0.667 Z-0.243
X-196.702 Y0.678 Z-0.25
G3 X-197.485 Y0.74 I-0.563 J-2.14
G1 X-197.386 Y0.718 F600
X-197.336 Y0.701
X-197.286 Y0.68
X-197.219 Y0.645
X-197.187 Y0.624
X-197.137 Y0.588
X-197.086 Y0.546
X-196.999 Y0.446
X-196.988 Y0.433
X-196.961 Y0.39
X-196.936 Y0.347
X-196.893 Y0.248
X-196.889 Y0.235
X-196.876 Y0.192
X-196.865 Y0.148
X-196.854 Y0.049
X-196.851 Y-0.05
X-196.85 Y-0.872
X-196.841 Y-0.917
X-196.82 Y-0.957
X-196.787 Y-0.989
X-196.746 Y-1.01
X-196.7 Y-1.017
G3 X-196.636 Y-0.731 I0 J0.15
G1 X-196.664 Y-0.724 Z-0.247
X-196.691 Y-0.717 Z-0.239
X-196.7 Z-0.235
X-196.733 Y-0.726 Z-0.211
X-196.758 Y-0.733 Z-0.179
X-196.774 Y-0.738 Z-0.141
X-196.78 Y-0.739 Z-0.1
G0 Z5
X-190.092 Y-17.491
Z-0.2
G1 Z-0.35 F400
X-190.09 Y-17.484 Z-0.396
X-190.085 Y-17.464 Z-0.438
X-190.077 Y-17.431 Z-0.471
X-190.066 Y-17.391 Z-0.493
X-190.055 Y-17.346 Z-0.5
G3 X-189.831 Y-15.791 I-7.063 J1.809
G1 Y-15.716 F600
X-189.894 Y-15.58
X-190.008 Y-15.482
X-190.138 Y-15.407
X-190.276 Y-15.35
X-190.448 Y-15.296
X-190.693 Y-15.24
X-191.09 Y-15.183
X-191.526 Y-15.155
X-191.964 Y-15.144
X-192.401 Y-15.139
X-192.838 Y-15.138
X-194.588 Y-15.136
X-196.616
X-196.748 Y-15.162
X-196.86 Y-15.236
X-196.936 Y-15.347
G3 X-196.671 Y-15.488 I0.132 J-0.071
X-196.68 Y-15.332 I-0.132 J0.071
G1 X-196.712 Y-15.31 Z-0.494
X-196.742 Y-15.29 Z-0.479
X-196.767 Y-15.272 Z-0.454
X-196.789 Y-15.269 Z-0.424
X-196.804 Y-15.268 Z-0.389
X-196.809 Z-0.35
G0 Z5
X-180.97 Y-16.548
Z-0.2
G1 Z-0.35 F400
X-180.976 Y-16.543 Z-0.396
X-180.992 Y-16.529 Z-0.438
X-181.017 Y-16.507 Z-0.471
X-181.048 Y-16.48 Z-0.493
X-181.083 Y-16.45 Z-0.5
G3 X-182.487 Y-15.744 I-2.078 J-2.387
G1 X-182.575 Y-15.728 F600
X-182.674 Y-15.698
X-182.724 Y-15.675
X-182.78 Y-15.645
X-182.873 Y-15.581
X-182.894 Y-15.561
X-183.011 Y-15.467
X-183.143 Y-15.396
X-183.283 Y-15.341
X-183.464 Y-15.287
X-183.727 Y-15.231
X-184.16 Y-15.174
X-184.597 Y-15.152
X-185.035 Y-15.143
X-185.472 Y-15.139
X-186.347 Y-15.137
X-188.972 Y-15.136
X-189.397 Y-15.036
X-189.808 Y-14.884
X-190.202 Y-14.761
X-190.622 Y-14.667
X-191.055 Y-14.606
X-191.492 Y-14.571
X-191.929 Y-14.553
X-192.366 Y-14.544
X-192.803 Y-14.54
X-193.241 Y-14.538
X-194.553 Y-14.537
X-196.225 Y-14.536
X-196.383 Y-14.549
X-196.531 Y-14.573
X-196.589 Y-14.588
X-196.724 Y-14.658
X-196.817 Y-14.777
X-196.85 Y-14.925
X-196.852 Y-15.004
X-196.854 Y-15.049
X-196.865 Y-15.148
X-196.876 Y-15.192
X-196.889 Y-15.235
X-196.893 Y-15.248
X-196.936 Y-15.347
G3 X-196.657 Y-15.456 I0.14 J-0.055
X-196.684 Y-15.302 I-0.14 J0.055
G1 X-196.718 Y-15.284 Z-0.494
X-196.75 Y-15.267 Z-0.479
X-196.777 Y-15.253 Z-0.454
X-196.796 Y-15.252 Z-0.429
X-196.813 Y-15.253 Z-0.391
X-196.819 Z-0.35
G0 Z5
X-182.538 Y-16.205
Z-0.2
G1 Z-0.35 F400
X-182.54 Y-16.198 Z-0.396
X-182.547 Y-16.177 Z-0.438
X-182.557 Y-16.146 Z-0.471
X-182.569 Y-16.106 Z-0.493
X-182.583 Y-16.062 Z-0.5
G3 X-182.894 Y-15.561 I-1.132 J-0.357
G1 X-182.912 Y-15.546 F600
X-182.972 Y-15.483
X-183.001 Y-15.446
X-183.035 Y-15.397
X-183.064 Y-15.347
X-183.072 Y-15.331
X-183.091 Y-15.285
X-183.156 Y-15.15
X-183.257 Y-15.039
X-183.376 Y-14.947
X-183.505 Y-14.872
X-183.641 Y-14.808
X-183.815 Y-14.745
X-184.043 Y-14.683
X-184.376 Y-14.62
X-184.811 Y-14.573
X-185.248 Y-14.553
X-185.685 Y-14.544
X-186.123 Y-14.54
X-186.997 Y-14.537
X-188.31
X-188.747 Y-14.515
X-189.175 Y-14.428
X-189.597 Y-14.311
X-190.02 Y-14.199
X-190.447 Y-14.107
X-190.88 Y-14.04
X-191.315 Y-13.996
X-191.752 Y-13.969
X-192.189 Y-13.954
X-192.626 Y-13.945
X-193.063 Y-13.941
X-193.501 Y-13.939
X-194.813 Y-13.937
X-195.688 Y-13.936
X-196.046 Y-13.943
X-196.227 Y-13.961
X-196.393 Y-13.991
X-196.538 Y-14.03
X-196.625 Y-14.063
X-196.743 Y-14.138
X-196.822 Y-14.253
X-196.85 Y-14.39
Y-14.925
G3 X-196.551 Y-14.916 I0.15 J0.004
X-196.636 Y-14.785 I-0.15 J-0.004
G1 X-196.669 Y-14.778 Z-0.496
X-196.7 Y-14.771 Z-0.484
X-196.733 Y-14.78 Z-0.461
X-196.758 Y-14.787 Z-0.429
X-196.774 Y-14.791 Z-0.391
X-196.779 Y-14.793 Z-0.35
G0 Z5
X-183.023 Y-16.214
Z-0.2
G1 Z-0.35 F400
X-183.022 Y-16.207 Z-0.396
X-183.019 Y-16.186 Z-0.438
X-183.014 Y-16.153 Z-0.471
X-183.009 Y-16.111 Z-0.493
X-183.002 Y-16.066 Z-0.5
G3 X-183.091 Y-15.285 I-1.568 J0.217
G1 X-183.107 Y-15.248 F600
X-183.122 Y-15.198
X-183.135 Y-15.148
X-183.146 Y-15.049
X-183.147 Y-15.019
X-183.16 Y-14.87
X-183.219 Y-14.732
X-183.307 Y-14.611
X-183.415 Y-14.506
X-183.535 Y-14.416
X-183.665 Y-14.338
X-183.805 Y-14.269
X-183.996 Y-14.194
X-184.232 Y-14.121
X-184.556 Y-14.05
X-184.989 Y-13.991
X-185.426 Y-13.962
X-185.863 Y-13.949
X-186.301 Y-13.942
X-186.738 Y-13.939
X-187.613 Y-13.937
X-188.05 Y-13.935
X-188.487 Y-13.91
X-188.919 Y-13.841
X-189.346 Y-13.745
X-189.772 Y-13.645
X-190.2 Y-13.554
X-190.631 Y-13.482
X-191.065 Y-13.428
X-191.501 Y-13.392
X-191.938 Y-13.368
X-192.375 Y-13.354
X-192.812 Y-13.346
X-193.25 Y-13.342
X-193.687 Y-13.339
X-194.562 Y-13.337
X-195.437
X-195.855 Y-13.346
X-196.134 Y-13.374
X-196.313 Y-13.407
X-196.471 Y-13.449
X-196.613 Y-13.499
X-196.652 Y-13.518
X-196.757 Y-13.596
X-196.826 Y-13.706
X-196.85 Y-13.834
Y-14.39
G0 Z5
X-183.414 Y-15.911
Z-0.2
G1 Z-0.35 F400
X-183.411 Y-15.905 Z-0.396
X-183.4 Y-15.886 Z-0.438
X-183.384 Y-15.857 Z-0.471
X-183.364 Y-15.82 Z-0.493
X-183.342 Y-15.78 Z-0.5
G3 X-183.147 Y-15.019 I-1.388 J0.761
G1 X-183.149 Y-14.95 F600
X-183.15 Y-14.597
X-183.158 Y-14.447
X-183.208 Y-14.306
X-183.286 Y-14.178
X-183.384 Y-14.064
X-183.495 Y-13.964
X-183.616 Y-13.875
X-183.759 Y-13.789
X-183.925 Y-13.707
X-184.136 Y-13.622
X-184.399 Y-13.54
X-184.746 Y-13.463
X-185.179 Y-13.401
X-185.616 Y-13.369
X-186.053 Y-13.353
X-186.49 Y-13.345
X-186.928 Y-13.34
X-187.365 Y-13.338
X-187.802 Y-13.334
X-188.239 Y-13.31
X-188.673 Y-13.253
X-189.103 Y-13.172
X-189.531 Y-13.082
X-189.96 Y-12.996
X-190.391 Y-12.921
X-190.824 Y-12.862
X-191.259 Y-12.818
X-191.696 Y-12.787
X-192.133 Y-12.767
X-192.57 Y-12.754
X-193.007 Y-12.746
X-193.445 Y-12.742
X-193.882 Y-12.739
X-194.757 Y-12.737
X-195.194 Y-12.738
X-195.632 Y-12.745
X-195.98 Y-12.773
X-196.238 Y-12.816
X-196.396 Y-12.855
X-196.542 Y-12.904
X-196.638 Y-12.945
X-196.749 Y-13.021
X-196.824 Y-13.134
X-196.85 Y-13.267
Y-13.834
G0 Z5
X-183.448 Y-15.48
Z-0.2
G1 Z-0.35 F400
X-183.444 Y-15.473 Z-0.396
X-183.433 Y-15.455 Z-0.438
X-183.416 Y-15.426 Z-0.471
X-183.395 Y-15.391 Z-0.493
X-183.371 Y-15.351 Z-0.5
G3 X-183.15 Y-14.597 I-1.36 J0.809
G1 Y-14.1 F600
X-183.158 Y-13.951
X-183.209 Y-13.81
X-183.286 Y-13.681
X-183.38 Y-13.565
X-183.488 Y-13.46
X-183.606 Y-13.368
X-183.742 Y-13.278
X-183.912 Y-13.184
X-184.113 Y-13.093
X-184.375 Y-12.999
X-184.682 Y-12.916
X-185.112 Y-12.836
X-185.547 Y-12.791
X-185.984 Y-12.766
X-186.421 Y-12.752
X-186.859 Y-12.744
X-187.296 Y-12.739
X-187.733 Y-12.728
X-188.17 Y-12.697
X-188.603 Y-12.639
X-189.034 Y-12.563
X-189.464 Y-12.481
X-189.894 Y-12.401
X-190.326 Y-12.332
X-190.759 Y-12.274
X-191.195 Y-12.23
X-191.631 Y-12.198
X-192.068 Y-12.175
X-192.505 Y-12.16
X-192.942 Y-12.151
X-193.38 Y-12.145
X-193.817 Y-12.141
X-194.255 Y-12.139
X-194.692 Y-12.138
X-195.129 Y-12.14
X-195.567 Y-12.153
X-195.934 Y-12.185
X-196.211 Y-12.232
X-196.384 Y-12.276
X-196.539 Y-12.329
X-196.639 Y-12.373
X-196.75 Y-12.449
X-196.824 Y-12.562
X-196.85 Y-12.694
Y-13.267
G0 Z5
X-183.448 Y-14.983
Z-0.2
G1 Z-0.35 F400
X-183.444 Y-14.977 Z-0.396
X-183.433 Y-14.958 Z-0.438
X-183.416 Y-14.93 Z-0.471
X-183.395 Y-14.894 Z-0.493
X-183.371 Y-14.854 Z-0.5
G3 X-183.15 Y-14.1 I-1.36 J0.809
G1 Y-13.604 F600
X-183.158 Y-13.454
X-183.204 Y-13.311
X-183.276 Y-13.18
X-183.366 Y-13.06
X-183.47 Y-12.952
X-183.584 Y-12.855
X-183.716 Y-12.76
X-183.884 Y-12.658
X-184.072 Y-12.564
X-184.334 Y-12.459
X-184.613 Y-12.371
X-185.006 Y-12.283
X-185.439 Y-12.221
X-185.875 Y-12.184
X-186.312 Y-12.163
X-186.749 Y-12.151
X-187.186 Y-12.141
X-187.624 Y-12.124
X-188.06 Y-12.09
X-188.494 Y-12.035
X-188.925 Y-11.964
X-189.356 Y-11.888
X-189.787 Y-11.814
X-190.219 Y-11.747
X-190.653 Y-11.69
X-191.088 Y-11.645
X-191.524 Y-11.61
X-191.961 Y-11.585
X-192.398 Y-11.568
X-192.835 Y-11.556
X-193.273 Y-11.548
X-193.71 Y-11.543
X-194.148 Y-11.541
X-194.585 Y-11.54
X-195.023 Y-11.543
X-195.46 Y-11.557
X-195.876 Y-11.593
X-196.166 Y-11.641
X-196.363 Y-11.691
X-196.526 Y-11.746
X-196.663 Y-11.805
X-196.672 Y-11.81
X-196.767 Y-11.888
X-196.829 Y-11.994
X-196.85 Y-12.115
Y-12.694
G0 Z5
X-183.448 Y-14.486
Z-0.2
G1 Z-0.35 F400
X-183.444 Y-14.48 Z-0.396
X-183.433 Y-14.462 Z-0.438
X-183.416 Y-14.433 Z-0.471
X-183.395 Y-14.397 Z-0.493
X-183.371 Y-14.357 Z-0.5
G3 X-183.15 Y-13.604 I-1.36 J0.809
G1 Y-13.062 F600
X-183.158 Y-12.913
X-183.206 Y-12.771
X-183.279 Y-12.64
X-183.369 Y-12.52
X-183.472 Y-12.41
X-183.591 Y-12.306
X-183.721 Y-12.21
X-183.892 Y-12.104
X-184.087 Y-12.003
X-184.339 Y-11.898
X-184.653 Y-11.795
X-185.031 Y-11.705
X-185.463 Y-11.637
X-185.899 Y-11.596
X-186.336 Y-11.571
X-187.21 Y-11.539
X-187.647 Y-11.514
X-188.082 Y-11.473
X-188.516 Y-11.415
X-188.948 Y-11.346
X-189.379 Y-11.274
X-189.811 Y-11.205
X-190.244 Y-11.143
X-190.678 Y-11.09
X-191.114 Y-11.047
X-191.55 Y-11.013
X-191.987 Y-10.989
X-192.424 Y-10.971
X-192.861 Y-10.959
X-193.298 Y-10.95
X-193.736 Y-10.945
X-194.173 Y-10.942
X-194.611
X-195.048 Y-10.949
X-195.485 Y-10.969
X-195.887 Y-11.009
X-196.188 Y-11.063
X-196.393 Y-11.117
X-196.536 Y-11.168
X-196.674 Y-11.23
X-196.768 Y-11.308
X-196.829 Y-11.413
X-196.85 Y-11.533
Y-12.115
G0 Z5
X-183.448 Y-13.945
Z-0.2
G1 Z-0.35 F400
X-183.444 Y-13.939 Z-0.396
X-183.433 Y-13.92 Z-0.438
X-183.416 Y-13.892 Z-0.471
X-183.395 Y-13.856 Z-0.493
X-183.371 Y-13.816 Z-0.5
G3 X-183.15 Y-13.062 I-1.36 J0.809
G1 Y-12.536 F600
X-183.158 Y-12.386
X-183.202 Y-12.243
X-183.271 Y-12.11
X-183.358 Y-11.987
X-183.458 Y-11.876
X-183.573 Y-11.771
X-183.699 Y-11.672
X-183.873 Y-11.558
X-184.059 Y-11.457
X-184.313 Y-11.344
X-184.604 Y-11.241
X-184.975 Y-11.142
X-185.406 Y-11.065
X-185.84 Y-11.015
X-186.277 Y-10.983
X-187.15 Y-10.939
X-187.587 Y-10.909
X-188.022 Y-10.865
X-188.456 Y-10.808
X-188.888 Y-10.743
X-189.32 Y-10.675
X-189.753 Y-10.609
X-190.186 Y-10.55
X-190.621 Y-10.498
X-191.056 Y-10.456
X-191.492 Y-10.422
X-191.929 Y-10.396
X-192.366 Y-10.377
X-192.803 Y-10.363
X-193.24 Y-10.354
X-193.678 Y-10.347
X-194.115 Y-10.344
X-194.553 Y-10.345
X-194.99 Y-10.353
X-195.427 Y-10.375
X-195.862 Y-10.418
X-196.163 Y-10.472
X-196.385 Y-10.531
X-196.528 Y-10.581
X-196.665 Y-10.642
X-196.672 Y-10.646
X-196.767 Y-10.724
X-196.829 Y-10.83
X-196.85 Y-10.951
Y-11.533
G0 Z5
X-183.448 Y-13.418
Z-0.2
G1 Z-0.35 F400
X-183.444 Y-13.412 Z-0.396
X-183.433 Y-13.394 Z-0.438
X-183.416 Y-13.365 Z-0.471
X-183.395 Y-13.329 Z-0.493
X-183.371 Y-13.289 Z-0.5
G3 X-183.15 Y-12.536 I-1.36 J0.809
G1 Y-11.97 F600
X-183.158 Y-11.82
X-183.204 Y-11.678
X-183.275 Y-11.545
X-183.363 Y-11.424
X-183.463 Y-11.312
X-183.581 Y-11.204
X-183.713 Y-11.101
X-183.885 Y-10.988
X-184.087 Y-10.877
X-184.335 Y-10.767
X-184.656 Y-10.653
X-185.037 Y-10.551
X-185.468 Y-10.473
X-185.902 Y-10.422
X-186.338 Y-10.387
X-186.775 Y-10.36
X-187.211 Y-10.332
X-187.647 Y-10.295
X-188.082 Y-10.246
X-188.515 Y-10.188
X-189.381 Y-10.059
X-189.814 Y-9.997
X-190.248 Y-9.941
X-190.682 Y-9.893
X-191.118 Y-9.853
X-191.554 Y-9.821
X-191.991 Y-9.797
X-192.428 Y-9.778
X-192.865 Y-9.764
X-193.303 Y-9.755
X-193.74 Y-9.749
X-194.177 Y-9.746
X-194.615 Y-9.75
X-195.052 Y-9.762
X-195.489 Y-9.789
X-195.906 Y-9.836
X-196.208 Y-9.896
X-196.407 Y-9.952
X-196.552 Y-10.006
X-196.647 Y-10.05
X-196.754 Y-10.127
X-196.825 Y-10.238
X-196.85 Y-10.367
Y-10.951
G0 Z5
X-183.448 Y-12.852
Z-0.2
G1 Z-0.35 F400
X-183.444 Y-12.846 Z-0.396
X-183.433 Y-12.828 Z-0.438
X-183.416 Y-12.799 Z-0.471
X-183.395 Y-12.763 Z-0.493
X-183.371 Y-12.723 Z-0.5
G3 X-183.15 Y-11.97 I-1.36 J0.809
G1 Y-11.419 F600
X-183.158 Y-11.269
X-183.203 Y-11.126
X-183.272 Y-10.993
X-183.358 Y-10.87
X-183.457 Y-10.757
X-183.573 Y-10.647
X-183.702 Y-10.545
X-183.88 Y-10.424
X-184.072 Y-10.316
X-184.331 Y-10.196
X-184.641 Y-10.082
X-185.017 Y-9.977
X-185.446 Y-9.893
X-185.88 Y-9.837
X-186.315 Y-9.797
X-186.752 Y-9.764
X-187.188 Y-9.73
X-187.623 Y-9.689
X-188.058 Y-9.638
X-188.491 Y-9.58
X-189.357 Y-9.456
X-189.791 Y-9.397
X-190.225 Y-9.344
X-190.66 Y-9.297
X-191.096 Y-9.258
X-191.532 Y-9.226
X-191.969 Y-9.201
X-192.406 Y-9.182
X-192.843 Y-9.168
X-193.28 Y-9.158
X-193.717 Y-9.152
X-194.155 Y-9.15
X-194.592 Y-9.154
X-195.03 Y-9.168
X-195.466 Y-9.197
X-195.901 Y-9.247
X-196.198 Y-9.306
X-196.394 Y-9.361
X-196.554 Y-9.421
X-196.648 Y-9.464
X-196.755 Y-9.541
X-196.825 Y-9.652
X-196.85 Y-9.782
Y-10.367
G0 Z5
X-183.448 Y-12.301
Z-0.2
G1 Z-0.35 F400
X-183.444 Y-12.295 Z-0.396
X-183.433 Y-12.276 Z-0.438
X-183.416 Y-12.248 Z-0.471
X-183.395 Y-12.212 Z-0.493
X-183.371 Y-12.172 Z-0.5
G3 X-183.15 Y-11.419 I-1.36 J0.809
G1 Y-10.877 F600
X-183.158 Y-10.727
X-183.197 Y-10.583
X-183.263 Y-10.448
X-183.346 Y-10.323
X-183.442 Y-10.208
X-183.555 Y-10.098
X-183.68 Y-9.993
X-183.853 Y-9.872
X-184.038 Y-9.762
X-184.291 Y-9.639
X-184.585 Y-9.524
X-184.953 Y-9.413
X-185.381 Y-9.321
X-185.814 Y-9.257
X-186.248 Y-9.21
X-187.12 Y-9.132
X-187.555 Y-9.088
X-187.99 Y-9.037
X-188.423 Y-8.98
X-189.29 Y-8.86
X-189.724 Y-8.803
X-190.158 Y-8.751
X-190.593 Y-8.705
X-191.029 Y-8.666
X-191.465 Y-8.634
X-191.902 Y-8.608
X-192.339 Y-8.588
X-192.776 Y-8.573
X-193.213 Y-8.562
X-193.65 Y-8.555
X-194.088 Y-8.553
X-194.525 Y-8.558
X-194.962 Y-8.572
X-195.399 Y-8.6
X-195.834 Y-8.648
X-196.154 Y-8.708
X-196.369 Y-8.766
X-196.535 Y-8.826
X-196.672 Y-8.888
X-196.677 Y-8.891
X-196.769 Y-8.969
X-196.829 Y-9.074
X-196.85 Y-9.193
Y-9.782
G0 Z5
X-183.448 Y-11.76
Z-0.2
G1 Z-0.35 F400
X-183.444 Y-11.753 Z-0.396
X-183.433 Y-11.735 Z-0.438
X-183.416 Y-11.707 Z-0.471
X-183.395 Y-11.671 Z-0.493
X-183.371 Y-11.631 Z-0.5
G3 X-183.15 Y-10.877 I-1.36 J0.809
G1 Y-10.281 F600
X-183.158 Y-10.131
X-183.203 Y-9.989
X-183.272 Y-9.855
X-183.358 Y-9.732
X-183.457 Y-9.619
X-183.572 Y-9.509
X-183.708 Y-9.398
X-183.879 Y-9.28
X-184.091 Y-9.158
X-184.337 Y-9.042
X-184.664 Y-8.919
X-185.068 Y-8.802
X-185.496 Y-8.715
X-185.929 Y-8.652
X-186.364 Y-8.603
X-187.234 Y-8.517
X-187.669 Y-8.468
X-188.103 Y-8.415
X-188.537 Y-8.357
X-188.97 Y-8.298
X-189.404 Y-8.241
X-189.838 Y-8.187
X-190.273 Y-8.138
X-190.708 Y-8.096
X-191.144 Y-8.059
X-191.581 Y-8.029
X-192.017 Y-8.005
X-192.454 Y-7.986
X-192.892 Y-7.972
X-193.329 Y-7.962
X-193.766 Y-7.957
X-194.204
X-194.641 Y-7.966
X-195.078 Y-7.984
X-195.514 Y-8.018
X-195.924 Y-8.072
X-196.236 Y-8.139
X-196.427 Y-8.196
X-196.571 Y-8.252
X-196.653 Y-8.291
X-196.757 Y-8.369
X-196.826 Y-8.479
X-196.85 Y-8.606
Y-9.193
G0 Z5
X-183.448 Y-11.164
Z-0.2
G1 Z-0.35 F400
X-183.444 Y-11.157 Z-0.396
X-183.433 Y-11.139 Z-0.438
X-183.416 Y-11.111 Z-0.471
X-183.395 Y-11.075 Z-0.493
X-183.371 Y-11.035 Z-0.5
G3 X-183.15 Y-10.281 I-1.36 J0.809
G1 Y-9.73 F600
X-183.158 Y-9.58
X-183.199 Y-9.436
X-183.264 Y-9.301
X-183.348 Y-9.176
X-183.444 Y-9.061
X-183.557 Y-8.949
X-183.684 Y-8.843
X-183.859 Y-8.718
X-184.049 Y-8.604
X-184.315 Y-8.473
X-184.615 Y-8.354
X-185.006 Y-8.233
X-185.433 Y-8.139
X-185.865 Y-8.07
X-186.299 Y-8.015
X-187.169 Y-7.92
X-187.604 Y-7.869
X-188.038 Y-7.816
X-188.905 Y-7.702
X-189.339 Y-7.646
X-189.773 Y-7.593
X-190.208 Y-7.545
X-190.643 Y-7.503
X-191.079 Y-7.467
X-191.516 Y-7.436
X-191.953 Y-7.411
X-192.39 Y-7.392
X-192.827 Y-7.377
X-193.264 Y-7.366
X-193.701 Y-7.361
X-194.139
X-194.576 Y-7.369
X-195.013 Y-7.388
X-195.449 Y-7.421
X-195.884 Y-7.475
X-196.194 Y-7.539
X-196.395 Y-7.597
X-196.556 Y-7.657
X-196.65 Y-7.701
X-196.755 Y-7.779
X-196.826 Y-7.889
X-196.85 Y-8.018
Y-8.606
G0 Z5
X-183.448 Y-10.612
Z-0.2
G1 Z-0.35 F400
X-183.444 Y-10.606 Z-0.396
X-183.433 Y-10.588 Z-0.438
X-183.416 Y-10.559 Z-0.471
X-183.395 Y-10.523 Z-0.493
X-183.371 Y-10.484 Z-0.5
G3 X-183.15 Y-9.73 I-1.36 J0.809
G1 Y-9.134 F600
X-183.158 Y-8.984
X-183.203 Y-8.841
X-183.272 Y-8.708
X-183.357 Y-8.585
X-183.455 Y-8.471
X-183.574 Y-8.356
X-183.709 Y-8.244
X-183.885 Y-8.121
X-184.096 Y-7.998
X-184.356 Y-7.874
X-184.691 Y-7.744
X-185.111 Y-7.62
X-185.539 Y-7.53
X-185.971 Y-7.462
X-186.405 Y-7.405
X-187.274 Y-7.304
X-187.708 Y-7.251
X-188.142 Y-7.196
X-189.01 Y-7.084
X-189.444 Y-7.03
X-189.878 Y-6.98
X-190.313 Y-6.935
X-190.749 Y-6.895
X-191.185 Y-6.86
X-191.622 Y-6.832
X-192.058 Y-6.808
X-192.495 Y-6.79
X-192.933 Y-6.776
X-193.37 Y-6.767
X-193.807 Y-6.764
X-194.245 Y-6.767
X-194.682 Y-6.778
X-195.119 Y-6.801
X-195.555 Y-6.84
X-195.959 Y-6.898
X-196.259 Y-6.966
X-196.438 Y-7.021
X-196.587 Y-7.081
X-196.656 Y-7.116
X-196.759 Y-7.194
X-196.826 Y-7.303
X-196.85 Y-7.429
Y-8.018
G0 Z5
X-183.448 Y-10.016
Z-0.2
G1 Z-0.35 F400
X-183.444 Y-10.01 Z-0.396
X-183.433 Y-9.992 Z-0.438
X-183.416 Y-9.963 Z-0.471
X-183.395 Y-9.927 Z-0.493
X-183.371 Y-9.888 Z-0.5
G3 X-183.15 Y-9.134 I-1.36 J0.809
G1 Y-8.593 F600
X-183.158 Y-8.443
X-183.195 Y-8.298
X-183.258 Y-8.162
X-183.339 Y-8.035
X-183.434 Y-7.919
X-183.542 Y-7.808
X-183.67 Y-7.697
X-183.838 Y-7.573
X-184.033 Y-7.453
X-184.302 Y-7.315
X-184.589 Y-7.195
X-184.991 Y-7.065
X-185.417 Y-6.964
X-185.847 Y-6.887
X-186.28 Y-6.824
X-186.714 Y-6.768
X-187.582 Y-6.661
X-188.884 Y-6.496
X-189.318 Y-6.442
X-189.753 Y-6.393
X-190.188 Y-6.347
X-190.624 Y-6.307
X-191.06 Y-6.272
X-191.496 Y-6.242
X-191.933 Y-6.217
X-192.37 Y-6.198
X-192.807 Y-6.183
X-193.244 Y-6.173
X-193.682 Y-6.168
X-194.119 Y-6.17
X-194.556 Y-6.18
X-194.993 Y-6.2
X-195.43 Y-6.235
X-195.863 Y-6.29
X-196.189 Y-6.356
X-196.394 Y-6.416
X-196.555 Y-6.477
X-196.65 Y-6.522
X-196.756 Y-6.6
X-196.826 Y-6.71
X-196.85 Y-6.839
Y-7.429
G0 Z5
X-183.448 Y-9.475
Z-0.2
G1 Z-0.35 F400
X-183.444 Y-9.469 Z-0.396
X-183.433 Y-9.451 Z-0.438
X-183.416 Y-9.422 Z-0.471
X-183.395 Y-9.386 Z-0.493
X-183.371 Y-9.346 Z-0.5
G3 X-183.15 Y-8.593 I-1.36 J0.809
G1 Y-7.997 F600
X-183.158 Y-7.847
X-183.199 Y-7.703
X-183.264 Y-7.568
X-183.347 Y-7.443
X-183.443 Y-7.327
X-183.559 Y-7.211
X-183.691 Y-7.098
X-183.862 Y-6.974
X-184.069 Y-6.849
X-184.327 Y-6.719
X-184.659 Y-6.584
X-185.077 Y-6.453
X-185.503 Y-6.355
X-185.934 Y-6.278
X-186.366 Y-6.214
X-186.8 Y-6.156
X-188.536 Y-5.935
X-188.97 Y-5.881
X-189.404 Y-5.83
X-189.839 Y-5.782
X-190.274 Y-5.739
X-190.71 Y-5.7
X-191.146 Y-5.667
X-191.583 Y-5.639
X-192.02 Y-5.615
X-192.457 Y-5.597
X-192.894 Y-5.583
X-193.331 Y-5.574
X-193.769 Y-5.572
X-194.206 Y-5.576
X-194.643 Y-5.588
X-195.08 Y-5.612
X-195.516 Y-5.651
X-195.942 Y-5.712
X-196.248 Y-5.781
X-196.431 Y-5.838
X-196.584 Y-5.899
X-196.656 Y-5.935
X-196.759 Y-6.013
X-196.826 Y-6.122
X-196.85 Y-6.248
Y-6.839
G0 Z5
X-183.448 Y-8.879
Z-0.2
G1 Z-0.35 F400
X-183.444 Y-8.873 Z-0.396
X-183.433 Y-8.855 Z-0.438
X-183.416 Y-8.826 Z-0.471
X-183.395 Y-8.79 Z-0.493
X-183.371 Y-8.75 Z-0.5
G3 X-183.15 Y-7.997 I-1.36 J0.809
G1 Y-7.401 F600
X-183.158 Y-7.251
X-183.202 Y-7.108
X-183.269 Y-6.974
X-183.354 Y-6.85
X-183.45 Y-6.734
X-183.569 Y-6.616
X-183.701 Y-6.505
X-183.886 Y-6.373
X-184.091 Y-6.25
X-184.37 Y-6.113
X-184.714 Y-5.976
X-185.132 Y-5.847
X-185.559 Y-5.75
X-185.989 Y-5.672
X-186.422 Y-5.607
X-186.855 Y-5.547
X-187.722 Y-5.434
X-188.59 Y-5.324
X-189.025 Y-5.272
X-189.459 Y-5.222
X-189.894 Y-5.176
X-190.33 Y-5.134
X-190.766 Y-5.097
X-191.202 Y-5.065
X-191.638 Y-5.037
X-192.075 Y-5.015
X-192.512 Y-4.997
X-192.95 Y-4.985
X-193.387 Y-4.977
X-193.824 Y-4.976
X-194.262 Y-4.982
X-194.699 Y-4.997
X-195.136 Y-5.023
X-195.571 Y-5.066
X-195.985 Y-5.129
X-196.276 Y-5.198
X-196.45 Y-5.254
X-196.597 Y-5.315
X-196.659 Y-5.346
X-196.76 Y-5.424
X-196.827 Y-5.533
X-196.85 Y-5.658
Y-6.248
G0 Z5
X-183.448 Y-8.283
Z-0.2
G1 Z-0.35 F400
X-183.444 Y-8.277 Z-0.396
X-183.433 Y-8.259 Z-0.438
X-183.416 Y-8.23 Z-0.471
X-183.395 Y-8.194 Z-0.493
X-183.371 Y-8.154 Z-0.5
G3 X-183.15 Y-7.401 I-1.36 J0.809
G1 Y-6.849 F600
X-183.158 Y-6.7
X-183.195 Y-6.554
X-183.257 Y-6.418
X-183.338 Y-6.291
X-183.431 Y-6.174
X-183.54 Y-6.061
X-183.672 Y-5.945
X-183.84 Y-5.819
X-184.042 Y-5.692
X-184.316 Y-5.549
X-184.617 Y-5.421
X-185.032 Y-5.283
X-185.457 Y-5.178
X-185.886 Y-5.094
X-186.318 Y-5.023
X-186.751 Y-4.96
X-187.184 Y-4.901
X-187.618 Y-4.844
X-188.052 Y-4.788
X-188.486 Y-4.734
X-188.92 Y-4.681
X-189.355 Y-4.632
X-189.79 Y-4.586
X-190.225 Y-4.544
X-190.661 Y-4.506
X-191.097 Y-4.474
X-191.534 Y-4.446
X-191.971 Y-4.423
X-192.408 Y-4.404
X-192.845 Y-4.391
X-193.282 Y-4.382
X-193.72 Y-4.38
X-194.157 Y-4.385
X-194.594 Y-4.398
X-195.031 Y-4.423
X-195.467 Y-4.462
X-195.9 Y-4.521
X-196.215 Y-4.589
X-196.412 Y-4.649
X-196.57 Y-4.711
X-196.654 Y-4.752
X-196.757 Y-4.829
X-196.826 Y-4.939
X-196.85 Y-5.066
Y-5.658
G0 Z5
X-183.448 Y-7.732
Z-0.2
G1 Z-0.35 F400
X-183.444 Y-7.726 Z-0.396
X-183.433 Y-7.707 Z-0.438
X-183.416 Y-7.679 Z-0.471
X-183.395 Y-7.643 Z-0.493
X-183.371 Y-7.603 Z-0.5
G3 X-183.15 Y-6.849 I-1.36 J0.809
G1 Y-6.253 F600
X-183.158 Y-6.104
X-183.197 Y-5.959
X-183.261 Y-5.823
X-183.343 Y-5.697
X-183.437 Y-5.581
X-183.554 Y-5.461
X-183.684 Y-5.347
X-183.86 Y-5.217
X-184.062 Y-5.092
X-184.331 Y-4.952
X-184.67 Y-4.811
X-185.085 Y-4.675
X-185.51 Y-4.571
X-185.939 Y-4.486
X-186.371 Y-4.415
X-186.804 Y-4.351
X-187.237 Y-4.291
X-187.671 Y-4.233
X-188.105 Y-4.178
X-188.539 Y-4.124
X-188.973 Y-4.073
X-189.408 Y-4.024
X-189.843 Y-3.98
X-190.279 Y-3.939
X-190.715 Y-3.903
X-191.151 Y-3.872
X-191.587 Y-3.845
X-192.024 Y-3.822
X-192.461 Y-3.805
X-192.899 Y-3.792
X-193.336 Y-3.785
X-193.774 Y-3.784
X-194.211 Y-3.791
X-194.648 Y-3.806
X-195.085 Y-3.833
X-195.52 Y-3.875
X-195.953 Y-3.939
X-196.254 Y-4.008
X-196.436 Y-4.066
X-196.589 Y-4.128
X-196.658 Y-4.162
X-196.759 Y-4.24
X-196.827 Y-4.349
X-196.85 Y-4.475
Y-5.066
G0 Z5
X-183.448 Y-7.136
Z-0.2
G1 Z-0.35 F400
X-183.444 Y-7.13 Z-0.396
X-183.433 Y-7.111 Z-0.438
X-183.416 Y-7.083 Z-0.471
X-183.395 Y-7.047 Z-0.493
X-183.371 Y-7.007 Z-0.5
G3 X-183.15 Y-6.253 I-1.36 J0.809
G1 Y-5.657 F600
X-183.158 Y-5.508
X-183.199 Y-5.364
X-183.264 Y-5.228
X-183.347 Y-5.103
X-183.441 Y-4.987
X-183.559 Y-4.866
X-183.69 Y-4.753
X-183.875 Y-4.617
X-184.077 Y-4.492
X-184.358 Y-4.349
X-184.705 Y-4.205
X-185.122 Y-4.07
X-185.546 Y-3.966
X-185.976 Y-3.881
X-186.407 Y-3.809
X-186.84 Y-3.744
X-187.273 Y-3.683
X-187.706 Y-3.625
X-188.14 Y-3.57
X-188.575 Y-3.517
X-189.009 Y-3.466
X-189.444 Y-3.419
X-189.879 Y-3.376
X-190.315 Y-3.336
X-190.751 Y-3.301
X-191.187 Y-3.271
X-191.624 Y-3.245
X-192.061 Y-3.223
X-192.498 Y-3.206
X-192.935 Y-3.195
X-193.373 Y-3.189
X-193.81
X-194.247 Y-3.197
X-194.685 Y-3.214
X-195.121 Y-3.243
X-195.556 Y-3.287
X-195.98 Y-3.352
X-196.273 Y-3.421
X-196.448 Y-3.478
X-196.597 Y-3.54
X-196.66 Y-3.572
X-196.76 Y-3.65
X-196.827 Y-3.758
X-196.85 Y-3.883
Y-4.475
G0 Z5
X-183.448 Y-6.54
Z-0.2
G1 Z-0.35 F400
X-183.444 Y-6.534 Z-0.396
X-183.433 Y-6.515 Z-0.438
X-183.416 Y-6.487 Z-0.471
X-183.395 Y-6.451 Z-0.493
X-183.371 Y-6.411 Z-0.5
G3 X-183.15 Y-5.657 I-1.36 J0.809
G1 Y-5.061 F600
X-183.158 Y-4.912
X-183.201 Y-4.768
X-183.267 Y-4.633
X-183.35 Y-4.508
X-183.445 Y-4.392
X-183.564 Y-4.271
X-183.698 Y-4.156
X-183.887 Y-4.018
X-184.091 Y-3.892
X-184.379 Y-3.746
X-184.733 Y-3.6
X-185.15 Y-3.467
X-185.575 Y-3.363
X-186.004 Y-3.277
X-186.435 Y-3.204
X-186.867 Y-3.138
X-187.301 Y-3.076
X-187.734 Y-3.018
X-188.168 Y-2.963
X-188.602 Y-2.911
X-189.037 Y-2.861
X-189.472 Y-2.815
X-189.907 Y-2.773
X-190.343 Y-2.734
X-190.779 Y-2.7
X-191.216 Y-2.67
X-191.652 Y-2.645
X-192.089 Y-2.624
X-192.527 Y-2.608
X-192.964 Y-2.597
X-193.401 Y-2.592
X-193.839 Y-2.594
X-194.276 Y-2.603
X-194.713 Y-2.621
X-195.149 Y-2.652
X-195.584 Y-2.698
X-196 Y-2.764
X-196.287 Y-2.833
X-196.458 Y-2.89
X-196.604 Y-2.951
X-196.661 Y-2.981
X-196.761 Y-3.059
X-196.827 Y-3.167
X-196.85 Y-3.292
Y-3.883
G0 Z5
X-183.448 Y-5.944
Z-0.2
G1 Z-0.35 F400
X-183.444 Y-5.938 Z-0.396
X-183.433 Y-5.919 Z-0.438
X-183.416 Y-5.891 Z-0.471
X-183.395 Y-5.855 Z-0.493
X-183.371 Y-5.815 Z-0.5
G3 X-183.15 Y-5.061 I-1.36 J0.809
G1 Y-4.465 F600
X-183.158 Y-4.316
X-183.202 Y-4.172
X-183.269 Y-4.038
X-183.352 Y-3.913
X-183.447 Y-3.797
X-183.567 Y-3.677
X-183.704 Y-3.559
X-183.893 Y-3.421
X-184.103 Y-3.292
X-184.395 Y-3.144
X-184.753 Y-2.997
X-185.17 Y-2.865
X-185.595 Y-2.76
X-186.024 Y-2.674
X-186.455 Y-2.599
X-186.887 Y-2.533
X-187.32 Y-2.471
X-187.754 Y-2.413
X-188.188 Y-2.358
X-188.622 Y-2.306
X-189.057 Y-2.258
X-189.492 Y-2.212
X-189.927 Y-2.171
X-190.363 Y-2.133
X-190.799 Y-2.1
X-191.236 Y-2.071
X-191.672 Y-2.046
X-192.109 Y-2.026
X-192.547 Y-2.011
X-192.984 Y-2.001
X-193.421 Y-1.996
X-193.859 Y-1.999
X-194.296 Y-2.009
X-194.733 Y-2.029
X-195.169 Y-2.061
X-195.604 Y-2.108
X-196.015 Y-2.175
X-196.297 Y-2.244
X-196.466 Y-2.301
X-196.61 Y-2.362
X-196.662 Y-2.389
X-196.762 Y-2.467
X-196.827 Y-2.575
X-196.85 Y-2.7
Y-3.292
G0 Z5
X-183.448 Y-5.348
Z-0.2
G1 Z-0.35 F400
X-183.444 Y-5.342 Z-0.396
X-183.433 Y-5.323 Z-0.438
X-183.416 Y-5.295 Z-0.471
X-183.395 Y-5.259 Z-0.493
X-183.371 Y-5.219 Z-0.5
G3 X-183.15 Y-4.465 I-1.36 J0.809
G1 Y-3.87 F600
X-183.158 Y-3.72
X-183.202 Y-3.577
X-183.27 Y-3.443
X-183.353 Y-3.318
X-183.449 Y-3.202
X-183.568 Y-3.082
X-183.708 Y-2.962
X-183.897 Y-2.825
X-184.111 Y-2.693
X-184.406 Y-2.544
X-184.768 Y-2.396
X-185.185 Y-2.263
X-185.61 Y-2.158
X-186.039 Y-2.071
X-186.469 Y-1.996
X-186.902 Y-1.929
X-187.335 Y-1.867
X-187.768 Y-1.809
X-188.202 Y-1.754
X-188.637 Y-1.703
X-189.072 Y-1.655
X-189.507 Y-1.61
X-189.942 Y-1.57
X-190.378 Y-1.533
X-190.814 Y-1.5
X-191.251 Y-1.472
X-191.688 Y-1.447
X-192.125 Y-1.428
X-192.562 Y-1.413
X-192.999 Y-1.404
X-193.437 Y-1.4
X-193.874 Y-1.404
X-194.311 Y-1.415
X-194.748 Y-1.436
X-195.184 Y-1.469
X-195.619 Y-1.517
X-196.026 Y-1.585
X-196.305 Y-1.655
X-196.472 Y-1.711
X-196.614 Y-1.772
X-196.663 Y-1.798
X-196.762 Y-1.876
X-196.827 Y-1.983
X-196.85 Y-2.107
Y-2.7
G0 Z5
X-183.448 Y-4.752
Z-0.2
G1 Z-0.35 F400
X-183.444 Y-4.746 Z-0.396
X-183.433 Y-4.727 Z-0.438
X-183.416 Y-4.699 Z-0.471
X-183.395 Y-4.663 Z-0.493
X-183.371 Y-4.623 Z-0.5
G3 X-183.15 Y-3.87 I-1.36 J0.809
G1 Y-3.298 F600
X-183.158 Y-3.148
X-183.198 Y-3.004
X-183.262 Y-2.868
X-183.343 Y-2.742
X-183.437 Y-2.625
X-183.548 Y-2.509
X-183.687 Y-2.386
X-183.861 Y-2.255
X-184.077 Y-2.119
X-184.363 Y-1.968
X-184.692 Y-1.828
X-185.107 Y-1.689
X-185.531 Y-1.578
X-185.958 Y-1.487
X-186.389 Y-1.409
X-186.821 Y-1.339
X-187.253 Y-1.276
X-187.687 Y-1.217
X-188.121 Y-1.162
X-188.555 Y-1.111
X-188.99 Y-1.062
X-189.425 Y-1.018
X-189.861 Y-0.977
X-190.297 Y-0.94
X-190.733 Y-0.907
X-191.169 Y-0.878
X-191.606 Y-0.854
X-192.043 Y-0.834
X-192.48 Y-0.819
X-192.918 Y-0.809
X-193.355 Y-0.805
X-193.792 Y-0.807
X-194.23 Y-0.817
X-194.667 Y-0.837
X-195.103 Y-0.868
X-195.538 Y-0.913
X-195.97 Y-0.98
X-196.264 Y-1.049
X-196.444 Y-1.107
X-196.595 Y-1.17
X-196.659 Y-1.203
X-196.76 Y-1.281
X-196.827 Y-1.389
X-196.85 Y-1.515
Y-2.107
G0 Z5
X-183.448 Y-4.181
Z-0.2
G1 Z-0.35 F400
X-183.444 Y-4.174 Z-0.396
X-183.433 Y-4.156 Z-0.438
X-183.416 Y-4.127 Z-0.471
X-183.395 Y-4.092 Z-0.493
X-183.371 Y-4.052 Z-0.5
G3 X-183.15 Y-3.298 I-1.36 J0.809
G1 Y-2.702 F600
X-183.158 Y-2.552
X-183.188 Y-2.405
X-183.244 Y-2.266
X-183.319 Y-2.137
X-183.408 Y-2.016
X-183.508 Y-1.904
X-183.617 Y-1.801
X-183.733 Y-1.705
X-183.854 Y-1.617
X-183.979 Y-1.534
X-184.109 Y-1.459
X-184.241 Y-1.389
X-184.376 Y-1.323
X-184.514 Y-1.263
X-184.653 Y-1.207
X-184.794 Y-1.155
X-184.936 Y-1.107
X-185.079 Y-1.062
X-185.223 Y-1.02
X-185.368 Y-0.981
X-185.513 Y-0.944
X-185.659 Y-0.909
X-185.805 Y-0.877
X-185.952 Y-0.846
X-186.099 Y-0.816
X-186.325 Y-0.774
X-186.553 Y-0.734
X-186.729 Y-0.704
X-186.936 Y-0.671
X-187.155 Y-0.638
X-187.416 Y-0.6
X-187.718 Y-0.559
X-188.022 Y-0.52
X-188.371 Y-0.477
X-188.741 Y-0.435
X-189.118 Y-0.395
X-189.488 Y-0.358
X-189.826 Y-0.327
X-190.177 Y-0.297
X-190.531 Y-0.269
X-190.883 Y-0.245
X-191.204 Y-0.225
X-191.506 Y-0.208
X-191.824 Y-0.193
X-192.129 Y-0.18
X-192.378 Y-0.172
X-192.663 Y-0.165
X-192.887 Y-0.161
X-193.133 Y-0.158
X-193.333 Y-0.157
X-193.557 Y-0.158
X-193.717 Y-0.16
X-193.923 Y-0.163
X-194.073 Y-0.167
X-194.223 Y-0.172
X-194.404 Y-0.179
X-194.554 Y-0.187
X-194.704 Y-0.195
X-194.853 Y-0.206
X-195.003 Y-0.217
X-195.152 Y-0.23
X-195.302 Y-0.246
X-195.451 Y-0.262
X-195.599 Y-0.282
X-195.748 Y-0.304
X-195.895 Y-0.33
X-196.042 Y-0.36
X-196.188 Y-0.394
X-196.333 Y-0.434
X-196.476 Y-0.481
X-196.614 Y-0.538
X-196.656 Y-0.559
X-196.759 Y-0.636
X-196.826 Y-0.746
X-196.85 Y-0.872
Y-1.515
G0 Z5
X-183.448 Y-3.585
Z-0.2
G1 Z-0.35 F400
X-183.444 Y-3.578 Z-0.396
X-183.433 Y-3.56 Z-0.438
X-183.416 Y-3.531 Z-0.471
X-183.395 Y-3.496 Z-0.493
X-183.371 Y-3.456 Z-0.5
G3 X-183.15 Y-2.702 I-1.36 J0.809
G1 Y-2.082 F600
X-183.158 Y-1.932
X-183.193 Y-1.786
X-183.254 Y-1.649
X-183.333 Y-1.521
X-183.425 Y-1.403
X-183.531 Y-1.29
X-183.663 Y-1.169
X-183.829 Y-1.042
X-184.037 Y-0.907
X-184.169 Y-0.835
X-184.244 Y-0.798
X-184.322 Y-0.761
X-184.655 Y-0.612
X-185.068 Y-0.466
X-185.489 Y-0.349
X-185.702 Y-0.301
G3 X-185.813 Y-0.573 I-0.027 J-0.148
G1 X-185.501 Y-0.782
X-183.771 Y-1.941
X-183.383 Y-2.201 F400
G3 X-183.15 Y-2.082 I0.083 J0.125
G1 Y-1.486 F600
X-183.158 Y-1.336
X-183.194 Y-1.19
X-183.255 Y-1.053
X-183.335 Y-0.926
X-183.427 Y-0.808
X-183.53 Y-0.699
X-183.611 Y-0.625
X-183.696 Y-0.556
G3 X-183.915 Y-0.754 I-0.091 J-0.12
G1 X-183.723 Y-1.071
X-183.636 Y-1.215
X-183.428 Y-1.558 F400
G3 X-183.15 Y-1.486 I0.128 J0.078
G1 Y-0.89 F600
X-183.149 Y-0.05
X-183.148 Y0.004
G3 X-183.448 Y0.004 I-0.15 J0
X-183.366 Y-0.129 I0.15 J0
G1 X-183.331 Y-0.138 Z-0.495
X-183.298 Y-0.146 Z-0.482
X-183.267 Y-0.137 Z-0.458
X-183.243 Y-0.131 Z-0.427
X-183.228 Y-0.127 Z-0.39
X-183.223 Y-0.126 Z-0.35
G0 Z5
X-196.557 Y0.64
Z-0.2
G1 Z-0.35 F400
X-196.564 Y0.642 Z-0.396
X-196.585 Y0.648 Z-0.438
X-196.617 Y0.656 Z-0.471
X-196.657 Y0.667 Z-0.493
X-196.702 Y0.678 Z-0.5
G3 X-197.485 Y0.74 I-0.563 J-2.14
G1 X-197.386 Y0.718 F600
X-197.336 Y0.701
X-197.286 Y0.68
X-197.219 Y0.645
X-197.187 Y0.624
X-197.137 Y0.588
X-197.086 Y0.546
X-196.999 Y0.446
X-196.988 Y0.433
X-196.961 Y0.39
X-196.936 Y0.347
X-196.893 Y0.248
X-196.889 Y0.235
X-196.876 Y0.192
X-196.865 Y0.148
X-196.854 Y0.049
X-196.851 Y-0.05
X-196.85 Y-0.872
X-196.841 Y-0.917
X-196.82 Y-0.957
X-196.787 Y-0.989
X-196.746 Y-1.01
X-196.7 Y-1.017
G3 X-196.636 Y-0.731 I0 J0.15
G1 X-196.664 Y-0.724 Z-0.497
X-196.691 Y-0.717 Z-0.489
X-196.7 Z-0.485
X-196.733 Y-0.726 Z-0.461
X-196.758 Y-0.733 Z-0.429
X-196.774 Y-0.738 Z-0.391
X-196.78 Y-0.739 Z-0.35
G0 Z5
X-190.092 Y-17.491
Z-0.45
G1 Z-0.6 F400
X-190.09 Y-17.484 Z-0.646
X-190.085 Y-17.464 Z-0.688
X-190.077 Y-17.431 Z-0.721
X-190.066 Y-17.391 Z-0.743
X-190.055 Y-17.346 Z-0.75
G3 X-189.831 Y-15.791 I-7.063 J1.809
G1 Y-15.716 F600
X-189.894 Y-15.58
X-190.008 Y-15.482
X-190.138 Y-15.407
X-190.276 Y-15.35
X-190.448 Y-15.296
X-190.693 Y-15.24
X-191.09 Y-15.183
X-191.526 Y-15.155
X-191.964 Y-15.144
X-192.401 Y-15.139
X-192.838 Y-15.138
X-194.588 Y-15.136
X-196.616
X-196.748 Y-15.162
X-196.86 Y-15.236
X-196.936 Y-15.347
G3 X-196.671 Y-15.488 I0.132 J-0.071
X-196.68 Y-15.332 I-0.132 J0.071
G1 X-196.712 Y-15.31 Z-0.744
X-196.742 Y-15.29 Z-0.729
X-196.767 Y-15.272 Z-0.704
X-196.789 Y-15.269 Z-0.674
X-196.804 Y-15.268 Z-0.639
X-196.809 Z-0.6
G0 Z5
X-180.97 Y-16.548
Z-0.45
G1 Z-0.6 F400
X-180.976 Y-16.543 Z-0.646
X-180.992 Y-16.529 Z-0.688
X-181.017 Y-16.507 Z-0.721
X-181.048 Y-16.48 Z-0.743
X-181.083 Y-16.45 Z-0.75
G3 X-182.487 Y-15.744 I-2.078 J-2.387
G1 X-182.575 Y-15.728 F600
X-182.674 Y-15.698
X-182.724 Y-15.675
X-182.78 Y-15.645
X-182.873 Y-15.581
X-182.894 Y-15.561
X-183.011 Y-15.467
X-183.143 Y-15.396
X-183.283 Y-15.341
X-183.464 Y-15.287
X-183.727 Y-15.231
X-184.16 Y-15.174
X-184.597 Y-15.152
X-185.035 Y-15.143
X-185.472 Y-15.139
X-186.347 Y-15.137
X-188.972 Y-15.136
X-189.397 Y-15.036
X-189.808 Y-14.884
X-190.202 Y-14.761
X-190.622 Y-14.667
X-191.055 Y-14.606
X-191.492 Y-14.571
X-191.929 Y-14.553
X-192.366 Y-14.544
X-192.803 Y-14.54
X-193.241 Y-14.538
X-194.553 Y-14.537
X-196.225 Y-14.536
X-196.383 Y-14.549
X-196.531 Y-14.573
X-196.589 Y-14.588
X-196.724 Y-14.658
X-196.817 Y-14.777
X-196.85 Y-14.925
X-196.852 Y-15.004
X-196.854 Y-15.049
X-196.865 Y-15.148
X-196.876 Y-15.192
X-196.889 Y-15.235
X-196.893 Y-15.248
X-196.936 Y-15.347
G3 X-196.657 Y-15.456 I0.14 J-0.055
X-196.684 Y-15.302 I-0.14 J0.055
G1 X-196.718 Y-15.284 Z-0.744
X-196.75 Y-15.267 Z-0.729
X-196.777 Y-15.253 Z-0.704
X-196.796 Y-15.252 Z-0.679
X-196.813 Y-15.253 Z-0.641
X-196.819 Z-0.6
G0 Z5
X-182.538 Y-16.205
Z-0.45
G1 Z-0.6 F400
X-182.54 Y-16.198 Z-0.646
X-182.547 Y-16.177 Z-0.688
X-182.557 Y-16.146 Z-0.721
X-182.569 Y-16.106 Z-0.743
X-182.583 Y-16.062 Z-0.75
G3 X-182.894 Y-15.561 I-1.132 J-0.357
G1 X-182.912 Y-15.546 F600
X-182.972 Y-15.483
X-183.001 Y-15.446
X-183.035 Y-15.397
X-183.064 Y-15.347
X-183.072 Y-15.331
X-183.091 Y-15.285
X-183.156 Y-15.15
X-183.257 Y-15.039
X-183.376 Y-14.947
X-183.505 Y-14.872
X-183.641 Y-14.808
X-183.815 Y-14.745
X-184.043 Y-14.683
X-184.376 Y-14.62
X-184.811 Y-14.573
X-185.248 Y-14.553
X-185.685 Y-14.544
X-186.123 Y-14.54
X-186.997 Y-14.537
X-188.31
X-188.747 Y-14.515
X-189.175 Y-14.428
X-189.597 Y-14.311
X-190.02 Y-14.199
X-190.447 Y-14.107
X-190.88 Y-14.04
X-191.315 Y-13.996
X-191.752 Y-13.969
X-192.189 Y-13.954
X-192.626 Y-13.945
X-193.063 Y-13.941
X-193.501 Y-13.939
X-194.813 Y-13.937
X-195.688 Y-13.936
X-196.046 Y-13.943
X-196.227 Y-13.961
X-196.393 Y-13.991
X-196.538 Y-14.03
X-196.625 Y-14.063
X-196.743 Y-14.138
X-196.822 Y-14.253
X-196.85 Y-14.39
Y-14.925
G3 X-196.551 Y-14.916 I0.15 J0.004
X-196.636 Y-14.785 I-0.15 J-0.004
G1 X-196.669 Y-14.778 Z-0.746
X-196.7 Y-14.771 Z-0.734
X-196.733 Y-14.78 Z-0.711
X-196.758 Y-14.787 Z-0.679
X-196.774 Y-14.791 Z-0.641
X-196.779 Y-14.793 Z-0.6
G0 Z5
X-183.023 Y-16.214
Z-0.45
G1 Z-0.6 F400
X-183.022 Y-16.207 Z-0.646
X-183.019 Y-16.186 Z-0.688
X-183.014 Y-16.153 Z-0.721
X-183.009 Y-16.111 Z-0.743
X-183.002 Y-16.066 Z-0.75
G3 X-183.091 Y-15.285 I-1.568 J0.217
G1 X-183.107 Y-15.248 F600
X-183.122 Y-15.198
X-183.135 Y-15.148
X-183.146 Y-15.049
X-183.147 Y-15.019
X-183.16 Y-14.87
X-183.219 Y-14.732
X-183.307 Y-14.611
X-183.415 Y-14.506
X-183.535 Y-14.416
X-183.665 Y-14.338
X-183.805 Y-14.269
X-183.996 Y-14.194
X-184.232 Y-14.121
X-184.556 Y-14.05
X-184.989 Y-13.991
X-185.426 Y-13.962
X-185.863 Y-13.949
X-186.301 Y-13.942
X-186.738 Y-13.939
X-187.613 Y-13.937
X-188.05 Y-13.935
X-188.487 Y-13.91
X-188.919 Y-13.841
X-189.346 Y-13.745
X-189.772 Y-13.645
X-190.2 Y-13.554
X-190.631 Y-13.482
X-191.065 Y-13.428
X-191.501 Y-13.392
X-191.938 Y-13.368
X-192.375 Y-13.354
X-192.812 Y-13.346
X-193.25 Y-13.342
X-193.687 Y-13.339
X-194.562 Y-13.337
X-195.437
X-195.855 Y-13.346
X-196.134 Y-13.374
X-196.313 Y-13.407
X-196.471 Y-13.449
X-196.613 Y-13.499
X-196.652 Y-13.518
X-196.757 Y-13.596
X-196.826 Y-13.706
X-196.85 Y-13.834
Y-14.39
G0 Z5
X-183.414 Y-15.911
Z-0.45
G1 Z-0.6 F400
X-183.411 Y-15.905 Z-0.646
X-183.4 Y-15.886 Z-0.688
X-183.384 Y-15.857 Z-0.721
X-183.364 Y-15.82 Z-0.743
X-183.342 Y-15.78 Z-0.75
G3 X-183.147 Y-15.019 I-1.388 J0.761
G1 X-183.149 Y-14.95 F600
X-183.15 Y-14.597
X-183.158 Y-14.447
X-183.208 Y-14.306
X-183.286 Y-14.178
X-183.384 Y-14.064
X-183.495 Y-13.964
X-183.616 Y-13.875
X-183.759 Y-13.789
X-183.925 Y-13.707
X-184.136 Y-13.622
X-184.399 Y-13.54
X-184.746 Y-13.463
X-185.179 Y-13.401
X-185.616 Y-13.369
X-186.053 Y-13.353
X-186.49 Y-13.345
X-186.928 Y-13.34
X-187.365 Y-13.338
X-187.802 Y-13.334
X-188.239 Y-13.31
X-188.673 Y-13.253
X-189.103 Y-13.172
X-189.531 Y-13.082
X-189.96 Y-12.996
X-190.391 Y-12.921
X-190.824 Y-12.862
X-191.259 Y-12.818
X-191.696 Y-12.787
X-192.133 Y-12.767
X-192.57 Y-12.754
X-193.007 Y-12.746
X-193.445 Y-12.742
X-193.882 Y-12.739
X-194.757 Y-12.737
X-195.194 Y-12.738
X-195.632 Y-12.745
X-195.98 Y-12.773
X-196.238 Y-12.816
X-196.396 Y-12.855
X-196.542 Y-12.904
X-196.638 Y-12.945
X-196.749 Y-13.021
X-196.824 Y-13.134
X-196.85 Y-13.267
Y-13.834
G0 Z5
X-183.448 Y-15.48
Z-0.45
G1 Z-0.6 F400
X-183.444 Y-15.473 Z-0.646
X-183.433 Y-15.455 Z-0.688
X-183.416 Y-15.426 Z-0.721
X-183.395 Y-15.391 Z-0.743
X-183.371 Y-15.351 Z-0.75
G3 X-183.15 Y-14.597 I-1.36 J0.809
G1 Y-14.1 F600
X-183.158 Y-13.951
X-183.209 Y-13.81
X-183.286 Y-13.681
X-183.38 Y-13.565
X-183.488 Y-13.46
X-183.606 Y-13.368
X-183.742 Y-13.278
X-183.912 Y-13.184
X-184.113 Y-13.093
X-184.375 Y-12.999
X-184.682 Y-12.916
X-185.112 Y-12.836
X-185.547 Y-12.791
X-185.984 Y-12.766
X-186.421 Y-12.752
X-186.859 Y-12.744
X-187.296 Y-12.739
X-187.733 Y-12.728
X-188.17 Y-12.697
X-188.603 Y-12.639
X-189.034 Y-12.563
X-189.464 Y-12.481
X-189.894 Y-12.401
X-190.326 Y-12.332
X-190.759 Y-12.274
X-191.195 Y-12.23
X-191.631 Y-12.198
X-192.068 Y-12.175
X-192.505 Y-12.16
X-192.942 Y-12.151
X-193.38 Y-12.145
X-193.817 Y-12.141
X-194.255 Y-12.139
X-194.692 Y-12.138
X-195.129 Y-12.14
X-195.567 Y-12.153
X-195.934 Y-12.185
X-196.211 Y-12.232
X-196.384 Y-12.276
X-196.539 Y-12.329
X-196.639 Y-12.373
X-196.75 Y-12.449
X-196.824 Y-12.562
X-196.85 Y-12.694
Y-13.267
G0 Z5
X-183.448 Y-14.983
Z-0.45
G1 Z-0.6 F400
X-183.444 Y-14.977 Z-0.646
X-183.433 Y-14.958 Z-0.688
X-183.416 Y-14.93 Z-0.721
X-183.395 Y-14.894 Z-0.743
X-183.371 Y-14.854 Z-0.75
G3 X-183.15 Y-14.1 I-1.36 J0.809
G1 Y-13.604 F600
X-183.158 Y-13.454
X-183.204 Y-13.311
X-183.276 Y-13.18
X-183.366 Y-13.06
X-183.47 Y-12.952
X-183.584 Y-12.855
X-183.716 Y-12.76
X-183.884 Y-12.658
X-184.072 Y-12.564
X-184.334 Y-12.459
X-184.613 Y-12.371
X-185.006 Y-12.283
X-185.439 Y-12.221
X-185.875 Y-12.184
X-186.312 Y-12.163
X-186.749 Y-12.151
X-187.186 Y-12.141
X-187.624 Y-12.124
X-188.06 Y-12.09
X-188.494 Y-12.035
X-188.925 Y-11.964
X-189.356 Y-11.888
X-189.787 Y-11.814
X-190.219 Y-11.747
X-190.653 Y-11.69
X-191.088 Y-11.645
X-191.524 Y-11.61
X-191.961 Y-11.585
X-192.398 Y-11.568
X-192.835 Y-11.556
X-193.273 Y-11.548
X-193.71 Y-11.543
X-194.148 Y-11.541
X-194.585 Y-11.54
X-195.023 Y-11.543
X-195.46 Y-11.557
X-195.876 Y-11.593
X-196.166 Y-11.641
X-196.363 Y-11.691
X-196.526 Y-11.746
X-196.663 Y-11.805
X-196.672 Y-11.81
X-196.767 Y-11.888
X-196.829 Y-11.994
X-196.85 Y-12.115
Y-12.694
G0 Z5
X-183.448 Y-14.486
Z-0.45
G1 Z-0.6 F400
X-183.444 Y-14.48 Z-0.646
X-183.433 Y-14.462 Z-0.688
X-183.416 Y-14.433 Z-0.721
X-183.395 Y-14.397 Z-0.743
X-183.371 Y-14.357 Z-0.75
G3 X-183.15 Y-13.604 I-1.36 J0.809
G1 Y-13.062 F600
X-183.158 Y-12.913
X-183.206 Y-12.771
X-183.279 Y-12.64
X-183.369 Y-12.52
X-183.472 Y-12.41
X-183.591 Y-12.306
X-183.721 Y-12.21
X-183.892 Y-12.104
X-184.087 Y-12.003
X-184.339 Y-11.898
X-184.653 Y-11.795
X-185.031 Y-11.705
X-185.463 Y-11.637
X-185.899 Y-11.596
X-186.336 Y-11.571
X-187.21 Y-11.539
X-187.647 Y-11.514
X-188.082 Y-11.473
X-188.516 Y-11.415
X-188.948 Y-11.346
X-189.379 Y-11.274
X-189.811 Y-11.205
X-190.244 Y-11.143
X-190.678 Y-11.09
X-191.114 Y-11.047
X-191.55 Y-11.013
X-191.987 Y-10.989
X-192.424 Y-10.971
X-192.861 Y-10.959
X-193.298 Y-10.95
X-193.736 Y-10.945
X-194.173 Y-10.942
X-194.611
X-195.048 Y-10.949
X-195.485 Y-10.969
X-195.887 Y-11.009
X-196.188 Y-11.063
X-196.393 Y-11.117
X-196.536 Y-11.168
X-196.674 Y-11.23
X-196.768 Y-11.308
X-196.829 Y-11.413
X-196.85 Y-11.533
Y-12.115
G0 Z5
X-183.448 Y-13.945
Z-0.45
G1 Z-0.6 F400
X-183.444 Y-13.939 Z-0.646
X-183.433 Y-13.92 Z-0.688
X-183.416 Y-13.892 Z-0.721
X-183.395 Y-13.856 Z-0.743
X-183.371 Y-13.816 Z-0.75
G3 X-183.15 Y-13.062 I-1.36 J0.809
G1 Y-12.536 F600
X-183.158 Y-12.386
X-183.202 Y-12.243
X-183.271 Y-12.11
X-183.358 Y-11.987
X-183.458 Y-11.876
X-183.573 Y-11.771
X-183.699 Y-11.672
X-183.873 Y-11.558
X-184.059 Y-11.457
X-184.313 Y-11.344
X-184.604 Y-11.241
X-184.975 Y-11.142
X-185.406 Y-11.065
X-185.84 Y-11.015
X-186.277 Y-10.983
X-187.15 Y-10.939
X-187.587 Y-10.909
X-188.022 Y-10.865
X-188.456 Y-10.808
X-188.888 Y-10.743
X-189.32 Y-10.675
X-189.753 Y-10.609
X-190.186 Y-10.55
X-190.621 Y-10.498
X-191.056 Y-10.456
X-191.492 Y-10.422
X-191.929 Y-10.396
X-192.366 Y-10.377
X-192.803 Y-10.363
X-193.24 Y-10.354
X-193.678 Y-10.347
X-194.115 Y-10.344
X-194.553 Y-10.345
X-194.99 Y-10.353
X-195.427 Y-10.375
X-195.862 Y-10.418
X-196.163 Y-10.472
X-196.385 Y-10.531
X-196.528 Y-10.581
X-196.665 Y-10.642
X-196.672 Y-10.646
X-196.767 Y-10.724
X-196.829 Y-10.83
X-196.85 Y-10.951
Y-11.533
G0 Z5
X-183.448 Y-13.418
Z-0.45
G1 Z-0.6 F400
X-183.444 Y-13.412 Z-0.646
X-183.433 Y-13.394 Z-0.688
X-183.416 Y-13.365 Z-0.721
X-183.395 Y-13.329 Z-0.743
X-183.371 Y-13.289 Z-0.75
G3 X-183.15 Y-12.536 I-1.36 J0.809
G1 Y-11.97 F600
X-183.158 Y-11.82
X-183.204 Y-11.678
X-183.275 Y-11.545
X-183.363 Y-11.424
X-183.463 Y-11.312
X-183.581 Y-11.204
X-183.713 Y-11.101
X-183.885 Y-10.988
X-184.087 Y-10.877
X-184.335 Y-10.767
X-184.656 Y-10.653
X-185.037 Y-10.551
X-185.468 Y-10.473
X-185.902 Y-10.422
X-186.338 Y-10.387
X-186.775 Y-10.36
X-187.211 Y-10.332
X-187.647 Y-10.295
X-188.082 Y-10.246
X-188.515 Y-10.188
X-189.381 Y-10.059
X-189.814 Y-9.997
X-190.248 Y-9.941
X-190.682 Y-9.893
X-191.118 Y-9.853
X-191.554 Y-9.821
X-191.991 Y-9.797
X-192.428 Y-9.778
X-192.865 Y-9.764
X-193.303 Y-9.755
X-193.74 Y-9.749
X-194.177 Y-9.746
X-194.615 Y-9.75
X-195.052 Y-9.762
X-195.489 Y-9.789
X-195.906 Y-9.836
X-196.208 Y-9.896
X-196.407 Y-9.952
X-196.552 Y-10.006
X-196.647 Y-10.05
X-196.754 Y-10.127
X-196.825 Y-10.238
X-196.85 Y-10.367
Y-10.951
G0 Z5
X-183.448 Y-12.852
Z-0.45
G1 Z-0.6 F400
X-183.444 Y-12.846 Z-0.646
X-183.433 Y-12.828 Z-0.688
X-183.416 Y-12.799 Z-0.721
X-183.395 Y-12.763 Z-0.743
X-183.371 Y-12.723 Z-0.75
G3 X-183.15 Y-11.97 I-1.36 J0.809
G1 Y-11.419 F600
X-183.158 Y-11.269
X-183.203 Y-11.126
X-183.272 Y-10.993
X-183.358 Y-10.87
X-183.457 Y-10.757
X-183.573 Y-10.647
X-183.702 Y-10.545
X-183.88 Y-10.424
X-184.072 Y-10.316
X-184.331 Y-10.196
X-184.641 Y-10.082
X-185.017 Y-9.977
X-185.446 Y-9.893
X-185.88 Y-9.837
X-186.315 Y-9.797
X-186.752 Y-9.764
X-187.188 Y-9.73
X-187.623 Y-9.689
X-188.058 Y-9.638
X-188.491 Y-9.58
X-189.357 Y-9.456
X-189.791 Y-9.397
X-190.225 Y-9.344
X-190.66 Y-9.297
X-191.096 Y-9.258
X-191.532 Y-9.226
X-191.969 Y-9.201
X-192.406 Y-9.182
X-192.843 Y-9.168
X-193.28 Y-9.158
X-193.717 Y-9.152
X-194.155 Y-9.15
X-194.592 Y-9.154
X-195.03 Y-9.168
X-195.466 Y-9.197
X-195.901 Y-9.247
X-196.198 Y-9.306
X-196.394 Y-9.361
X-196.554 Y-9.421
X-196.648 Y-9.464
X-196.755 Y-9.541
X-196.825 Y-9.652
X-196.85 Y-9.782
Y-10.367
G0 Z5
X-183.448 Y-12.301
Z-0.45
G1 Z-0.6 F400
X-183.444 Y-12.295 Z-0.646
X-183.433 Y-12.276 Z-0.688
X-183.416 Y-12.248 Z-0.721
X-183.395 Y-12.212 Z-0.743
X-183.371 Y-12.172 Z-0.75
G3 X-183.15 Y-11.419 I-1.36 J0.809
G1 Y-10.877 F600
X-183.158 Y-10.727
X-183.197 Y-10.583
X-183.263 Y-10.448
X-183.346 Y-10.323
X-183.442 Y-10.208
X-183.555 Y-10.098
X-183.68 Y-9.993
X-183.853 Y-9.872
X-184.038 Y-9.762
X-184.291 Y-9.639
X-184.585 Y-9.524
X-184.953 Y-9.413
X-185.381 Y-9.321
X-185.814 Y-9.257
X-186.248 Y-9.21
X-187.12 Y-9.132
X-187.555 Y-9.088
X-187.99 Y-9.037
X-188.423 Y-8.98
X-189.29 Y-8.86
X-189.724 Y-8.803
X-190.158 Y-8.751
X-190.593 Y-8.705
X-191.029 Y-8.666
X-191.465 Y-8.634
X-191.902 Y-8.608
X-192.339 Y-8.588
X-192.776 Y-8.573
X-193.213 Y-8.562
X-193.65 Y-8.555
X-194.088 Y-8.553
X-194.525 Y-8.558
X-194.962 Y-8.572
X-195.399 Y-8.6
X-195.834 Y-8.648
X-196.154 Y-8.708
X-196.369 Y-8.766
X-196.535 Y-8.826
X-196.672 Y-8.888
X-196.677 Y-8.891
X-196.769 Y-8.969
X-196.829 Y-9.074
X-196.85 Y-9.193
Y-9.782
G0 Z5
X-183.448 Y-11.76
Z-0.45
G1 Z-0.6 F400
X-183.444 Y-11.753 Z-0.646
X-183.433 Y-11.735 Z-0.688
X-183.416 Y-11.707 Z-0.721
X-183.395 Y-11.671 Z-0.743
X-183.371 Y-11.631 Z-0.75
G3 X-183.15 Y-10.877 I-1.36 J0.809
G1 Y-10.281 F600
X-183.158 Y-10.131
X-183.203 Y-9.989
X-183.272 Y-9.855
X-183.358 Y-9.732
X-183.457 Y-9.619
X-183.572 Y-9.509
X-183.708 Y-9.398
X-183.879 Y-9.28
X-184.091 Y-9.158
X-184.337 Y-9.042
X-184.664 Y-8.919
X-185.068 Y-8.802
X-185.496 Y-8.715
X-185.929 Y-8.652
X-186.364 Y-8.603
X-187.234 Y-8.517
X-187.669 Y-8.468
X-188.103 Y-8.415
X-188.537 Y-8.357
X-188.97 Y-8.298
X-189.404 Y-8.241
X-189.838 Y-8.187
X-190.273 Y-8.138
X-190.708 Y-8.096
X-191.144 Y-8.059
X-191.581 Y-8.029
X-192.017 Y-8.005
X-192.454 Y-7.986
X-192.892 Y-7.972
X-193.329 Y-7.962
X-193.766 Y-7.957
X-194.204
X-194.641 Y-7.966
X-195.078 Y-7.984
X-195.514 Y-8.018
X-195.924 Y-8.072
X-196.236 Y-8.139
X-196.427 Y-8.196
X-196.571 Y-8.252
X-196.653 Y-8.291
X-196.757 Y-8.369
X-196.826 Y-8.479
X-196.85 Y-8.606
Y-9.193
G0 Z5
X-183.448 Y-11.164
Z-0.45
G1 Z-0.6 F400
X-183.444 Y-11.157 Z-0.646
X-183.433 Y-11.139 Z-0.688
X-183.416 Y-11.111 Z-0.721
X-183.395 Y-11.075 Z-0.743
X-183.371 Y-11.035 Z-0.75
G3 X-183.15 Y-10.281 I-1.36 J0.809
G1 Y-9.73 F600
X-183.158 Y-9.58
X-183.199 Y-9.436
X-183.264 Y-9.301
X-183.348 Y-9.176
X-183.444 Y-9.061
X-183.557 Y-8.949
X-183.684 Y-8.843
X-183.859 Y-8.718
X-184.049 Y-8.604
X-184.315 Y-8.473
X-184.615 Y-8.354
X-185.006 Y-8.233
X-185.433 Y-8.139
X-185.865 Y-8.07
X-186.299 Y-8.015
X-187.169 Y-7.92
X-187.604 Y-7.869
X-188.038 Y-7.816
X-188.905 Y-7.702
X-189.339 Y-7.646
X-189.773 Y-7.593
X-190.208 Y-7.545
X-190.643 Y-7.503
X-191.079 Y-7.467
X-191.516 Y-7.436
X-191.953 Y-7.411
X-192.39 Y-7.392
X-192.827 Y-7.377
X-193.264 Y-7.366
X-193.701 Y-7.361
X-194.139
X-194.576 Y-7.369
X-195.013 Y-7.388
X-195.449 Y-7.421
X-195.884 Y-7.475
X-196.194 Y-7.539
X-196.395 Y-7.597
X-196.556 Y-7.657
X-196.65 Y-7.701
X-196.755 Y-7.779
X-196.826 Y-7.889
X-196.85 Y-8.018
Y-8.606
G0 Z5
X-183.448 Y-10.612
Z-0.45
G1 Z-0.6 F400
X-183.444 Y-10.606 Z-0.646
X-183.433 Y-10.588 Z-0.688
X-183.416 Y-10.559 Z-0.721
X-183.395 Y-10.523 Z-0.743
X-183.371 Y-10.484 Z-0.75
G3 X-183.15 Y-9.73 I-1.36 J0.809
G1 Y-9.134 F600
X-183.158 Y-8.984
X-183.203 Y-8.841
X-183.272 Y-8.708
X-183.357 Y-8.585
X-183.455 Y-8.471
X-183.574 Y-8.356
X-183.709 Y-8.244
X-183.885 Y-8.121
X-184.096 Y-7.998
X-184.356 Y-7.874
X-184.691 Y-7.744
X-185.111 Y-7.62
X-185.539 Y-7.53
X-185.971 Y-7.462
X-186.405 Y-7.405
X-187.274 Y-7.304
X-187.708 Y-7.251
X-188.142 Y-7.196
X-189.01 Y-7.084
X-189.444 Y-7.03
X-189.878 Y-6.98
X-190.313 Y-6.935
X-190.749 Y-6.895
X-191.185 Y-6.86
X-191.622 Y-6.832
X-192.058 Y-6.808
X-192.495 Y-6.79
X-192.933 Y-6.776
X-193.37 Y-6.767
X-193.807 Y-6.764
X-194.245 Y-6.767
X-194.682 Y-6.778
X-195.119 Y-6.801
X-195.555 Y-6.84
X-195.959 Y-6.898
X-196.259 Y-6.966
X-196.438 Y-7.021
X-196.587 Y-7.081
X-196.656 Y-7.116
X-196.759 Y-7.194
X-196.826 Y-7.303
X-196.85 Y-7.429
Y-8.018
G0 Z5
X-183.448 Y-10.016
Z-0.45
G1 Z-0.6 F400
X-183.444 Y-10.01 Z-0.646
X-183.433 Y-9.992 Z-0.688
X-183.416 Y-9.963 Z-0.721
X-183.395 Y-9.927 Z-0.743
X-183.371 Y-9.888 Z-0.75
G3 X-183.15 Y-9.134 I-1.36 J0.809
G1 Y-8.593 F600
X-183.158 Y-8.443
X-183.195 Y-8.298
X-183.258 Y-8.162
X-183.339 Y-8.035
X-183.434 Y-7.919
X-183.542 Y-7.808
X-183.67 Y-7.697
X-183.838 Y-7.573
X-184.033 Y-7.453
X-184.302 Y-7.315
X-184.589 Y-7.195
X-184.991 Y-7.065
X-185.417 Y-6.964
X-185.847 Y-6.887
X-186.28 Y-6.824
X-186.714 Y-6.768
X-187.582 Y-6.661
X-188.884 Y-6.496
X-189.318 Y-6.442
X-189.753 Y-6.393
X-190.188 Y-6.347
X-190.624 Y-6.307
X-191.06 Y-6.272
X-191.496 Y-6.242
X-191.933 Y-6.217
X-192.37 Y-6.198
X-192.807 Y-6.183
X-193.244 Y-6.173
X-193.682 Y-6.168
X-194.119 Y-6.17
X-194.556 Y-6.18
X-194.993 Y-6.2
X-195.43 Y-6.235
X-195.863 Y-6.29
X-196.189 Y-6.356
X-196.394 Y-6.416
X-196.555 Y-6.477
X-196.65 Y-6.522
X-196.756 Y-6.6
X-196.826 Y-6.71
X-196.85 Y-6.839
Y-7.429
G0 Z5
X-183.448 Y-9.475
Z-0.45
G1 Z-0.6 F400
X-183.444 Y-9.469 Z-0.646
X-183.433 Y-9.451 Z-0.688
X-183.416 Y-9.422 Z-0.721
X-183.395 Y-9.386 Z-0.743
X-183.371 Y-9.346 Z-0.75
G3 X-183.15 Y-8.593 I-1.36 J0.809
G1 Y-7.997 F600
X-183.158 Y-7.847
X-183.199 Y-7.703
X-183.264 Y-7.568
X-183.347 Y-7.443
X-183.443 Y-7.327
X-183.559 Y-7.211
X-183.691 Y-7.098
X-183.862 Y-6.974
X-184.069 Y-6.849
X-184.327 Y-6.719
X-184.659 Y-6.584
X-185.077 Y-6.453
X-185.503 Y-6.355
X-185.934 Y-6.278
X-186.366 Y-6.214
X-186.8 Y-6.156
X-188.536 Y-5.935
X-188.97 Y-5.881
X-189.404 Y-5.83
X-189.839 Y-5.782
X-190.274 Y-5.739
X-190.71 Y-5.7
X-191.146 Y-5.667
X-191.583 Y-5.639
X-192.02 Y-5.615
X-192.457 Y-5.597
X-192.894 Y-5.583
X-193.331 Y-5.574
X-193.769 Y-5.572
X-194.206 Y-5.576
X-194.643 Y-5.588
X-195.08 Y-5.612
X-195.516 Y-5.651
X-195.942 Y-5.712
X-196.248 Y-5.781
X-196.431 Y-5.838
X-196.584 Y-5.899
X-196.656 Y-5.935
X-196.759 Y-6.013
X-196.826 Y-6.122
X-196.85 Y-6.248
Y-6.839
G0 Z5
X-183.448 Y-8.879
Z-0.45
G1 Z-0.6 F400
X-183.444 Y-8.873 Z-0.646
X-183.433 Y-8.855 Z-0.688
X-183.416 Y-8.826 Z-0.721
X-183.395 Y-8.79 Z-0.743
X-183.371 Y-8.75 Z-0.75
G3 X-183.15 Y-7.997 I-1.36 J0.809
G1 Y-7.401 F600
X-183.158 Y-7.251
X-183.202 Y-7.108
X-183.269 Y-6.974
X-183.354 Y-6.85
X-183.45 Y-6.734
X-183.569 Y-6.616
X-183.701 Y-6.505
X-183.886 Y-6.373
X-184.091 Y-6.25
X-184.37 Y-6.113
X-184.714 Y-5.976
X-185.132 Y-5.847
X-185.559 Y-5.75
X-185.989 Y-5.672
X-186.422 Y-5.607
X-186.855 Y-5.547
X-187.722 Y-5.434
X-188.59 Y-5.324
X-189.025 Y-5.272
X-189.459 Y-5.222
X-189.894 Y-5.176
X-190.33 Y-5.134
X-190.766 Y-5.097
X-191.202 Y-5.065
X-191.638 Y-5.037
X-192.075 Y-5.015
X-192.512 Y-4.997
X-192.95 Y-4.985
X-193.387 Y-4.977
X-193.824 Y-4.976
X-194.262 Y-4.982
X-194.699 Y-4.997
X-195.136 Y-5.023
X-195.571 Y-5.066
X-195.985 Y-5.129
X-196.276 Y-5.198
X-196.45 Y-5.254
X-196.597 Y-5.315
X-196.659 Y-5.346
X-196.76 Y-5.424
X-196.827 Y-5.533
X-196.85 Y-5.658
Y-6.248
G0 Z5
X-183.448 Y-8.283
Z-0.45
G1 Z-0.6 F400
X-183.444 Y-8.277 Z-0.646
X-183.433 Y-8.259 Z-0.688
X-183.416 Y-8.23 Z-0.721
X-183.395 Y-8.194 Z-0.743
X-183.371 Y-8.154 Z-0.75
G3 X-183.15 Y-7.401 I-1.36 J0.809
G1 Y-6.849 F600
X-183.158 Y-6.7
X-183.195 Y-6.554
X-183.257 Y-6.418
X-183.338 Y-6.291
X-183.431 Y-6.174
X-183.54 Y-6.061
X-183.672 Y-5.945
X-183.84 Y-5.819
X-184.042 Y-5.692
X-184.316 Y-5.549
X-184.617 Y-5.421
X-185.032 Y-5.283
X-185.457 Y-5.178
X-185.886 Y-5.094
X-186.318 Y-5.023
X-186.751 Y-4.96
X-187.184 Y-4.901
X-187.618 Y-4.844
X-188.052 Y-4.788
X-188.486 Y-4.734
X-188.92 Y-4.681
X-189.355 Y-4.632
X-189.79 Y-4.586
X-190.225 Y-4.544
X-190.661 Y-4.506
X-191.097 Y-4.474
X-191.534 Y-4.446
X-191.971 Y-4.423
X-192.408 Y-4.404
X-192.845 Y-4.391
X-193.282 Y-4.382
X-193.72 Y-4.38
X-194.157 Y-4.385
X-194.594 Y-4.398
X-195.031 Y-4.423
X-195.467 Y-4.462
X-195.9 Y-4.521
X-196.215 Y-4.589
X-196.412 Y-4.649
X-196.57 Y-4.711
X-196.654 Y-4.752
X-196.757 Y-4.829
X-196.826 Y-4.939
X-196.85 Y-5.066
Y-5.658
G0 Z5
X-183.448 Y-7.732
Z-0.45
G1 Z-0.6 F400
X-183.444 Y-7.726 Z-0.646
X-183.433 Y-7.707 Z-0.688
X-183.416 Y-7.679 Z-0.721
X-183.395 Y-7.643 Z-0.743
X-183.371 Y-7.603 Z-0.75
G3 X-183.15 Y-6.849 I-1.36 J0.809
G1 Y-6.253 F600
X-183.158 Y-6.104
X-183.197 Y-5.959
X-183.261 Y-5.823
X-183.343 Y-5.697
X-183.437 Y-5.581
X-183.554 Y-5.461
X-183.684 Y-5.347
X-183.86 Y-5.217
X-184.062 Y-5.092
X-184.331 Y-4.952
X-184.67 Y-4.811
X-185.085 Y-4.675
X-185.51 Y-4.571
X-185.939 Y-4.486
X-186.371 Y-4.415
X-186.804 Y-4.351
X-187.237 Y-4.291
X-187.671 Y-4.233
X-188.105 Y-4.178
X-188.539 Y-4.124
X-188.973 Y-4.073
X-189.408 Y-4.024
X-189.843 Y-3.98
X-190.279 Y-3.939
X-190.715 Y-3.903
X-191.151 Y-3.872
X-191.587 Y-3.845
X-192.024 Y-3.822
X-192.461 Y-3.805
X-192.899 Y-3.792
X-193.336 Y-3.785
X-193.774 Y-3.784
X-194.211 Y-3.791
X-194.648 Y-3.806
X-195.085 Y-3.833
X-195.52 Y-3.875
X-195.953 Y-3.939
X-196.254 Y-4.008
X-196.436 Y-4.066
X-196.589 Y-4.128
X-196.658 Y-4.162
X-196.759 Y-4.24
X-196.827 Y-4.349
X-196.85 Y-4.475
Y-5.066
G0 Z5
X-183.448 Y-7.136
Z-0.45
G1 Z-0.6 F400
X-183.444 Y-7.13 Z-0.646
X-183.433 Y-7.111 Z-0.688
X-183.416 Y-7.083 Z-0.721
X-183.395 Y-7.047 Z-0.743
X-183.371 Y-7.007 Z-0.75
G3 X-183.15 Y-6.253 I-1.36 J0.809
G1 Y-5.657 F600
X-183.158 Y-5.508
X-183.199 Y-5.364
X-183.264 Y-5.228
X-183.347 Y-5.103
X-183.441 Y-4.987
X-183.559 Y-4.866
X-183.69 Y-4.753
X-183.875 Y-4.617
X-184.077 Y-4.492
X-184.358 Y-4.349
X-184.705 Y-4.205
X-185.122 Y-4.07
X-185.546 Y-3.966
X-185.976 Y-3.881
X-186.407 Y-3.809
X-186.84 Y-3.744
X-187.273 Y-3.683
X-187.706 Y-3.625
X-188.14 Y-3.57
X-188.575 Y-3.517
X-189.009 Y-3.466
X-189.444 Y-3.419
X-189.879 Y-3.376
X-190.315 Y-3.336
X-190.751 Y-3.301
X-191.187 Y-3.271
X-191.624 Y-3.245
X-192.061 Y-3.223
X-192.498 Y-3.206
X-192.935 Y-3.195
X-193.373 Y-3.189
X-193.81
X-194.247 Y-3.197
X-194.685 Y-3.214
X-195.121 Y-3.243
X-195.556 Y-3.287
X-195.98 Y-3.352
X-196.273 Y-3.421
X-196.448 Y-3.478
X-196.597 Y-3.54
X-196.66 Y-3.572
X-196.76 Y-3.65
X-196.827 Y-3.758
X-196.85 Y-3.883
Y-4.475
G0 Z5
X-183.448 Y-6.54
Z-0.45
G1 Z-0.6 F400
X-183.444 Y-6.534 Z-0.646
X-183.433 Y-6.515 Z-0.688
X-183.416 Y-6.487 Z-0.721
X-183.395 Y-6.451 Z-0.743
X-183.371 Y-6.411 Z-0.75
G3 X-183.15 Y-5.657 I-1.36 J0.809
G1 Y-5.061 F600
X-183.158 Y-4.912
X-183.201 Y-4.768
X-183.267 Y-4.633
X-183.35 Y-4.508
X-183.445 Y-4.392
X-183.564 Y-4.271
X-183.698 Y-4.156
X-183.887 Y-4.018
X-184.091 Y-3.892
X-184.379 Y-3.746
X-184.733 Y-3.6
X-185.15 Y-3.467
X-185.575 Y-3.363
X-186.004 Y-3.277
X-186.435 Y-3.204
X-186.867 Y-3.138
X-187.301 Y-3.076
X-187.734 Y-3.018
X-188.168 Y-2.963
X-188.602 Y-2.911
X-189.037 Y-2.861
X-189.472 Y-2.815
X-189.907 Y-2.773
X-190.343 Y-2.734
X-190.779 Y-2.7
X-191.216 Y-2.67
X-191.652 Y-2.645
X-192.089 Y-2.624
X-192.527 Y-2.608
X-192.964 Y-2.597
X-193.401 Y-2.592
X-193.839 Y-2.594
X-194.276 Y-2.603
X-194.713 Y-2.621
X-195.149 Y-2.652
X-195.584 Y-2.698
X-196 Y-2.764
X-196.287 Y-2.833
X-196.458 Y-2.89
X-196.604 Y-2.951
X-196.661 Y-2.981
X-196.761 Y-3.059
X-196.827 Y-3.167
X-196.85 Y-3.292
Y-3.883
G0 Z5
X-183.448 Y-5.944
Z-0.45
G1 Z-0.6 F400
X-183.444 Y-5.938 Z-0.646
X-183.433 Y-5.919 Z-0.688
X-183.416 Y-5.891 Z-0.721
X-183.395 Y-5.855 Z-0.743
X-183.371 Y-5.815 Z-0.75
G3 X-183.15 Y-5.061 I-1.36 J0.809
G1 Y-4.465 F600
X-183.158 Y-4.316
X-183.202 Y-4.172
X-183.269 Y-4.038
X-183.352 Y-3.913
X-183.447 Y-3.797
X-183.567 Y-3.677
X-183.704 Y-3.559
X-183.893 Y-3.421
X-184.103 Y-3.292
X-184.395 Y-3.144
X-184.753 Y-2.997
X-185.17 Y-2.865
X-185.595 Y-2.76
X-186.024 Y-2.674
X-186.455 Y-2.599
X-186.887 Y-2.533
X-187.32 Y-2.471
X-187.754 Y-2.413
X-188.188 Y-2.358
X-188.622 Y-2.306
X-189.057 Y-2.258
X-189.492 Y-2.212
X-189.927 Y-2.171
X-190.363 Y-2.133
X-190.799 Y-2.1
X-191.236 Y-2.071
X-191.672 Y-2.046
X-192.109 Y-2.026
X-192.547 Y-2.011
X-192.984 Y-2.001
X-193.421 Y-1.996
X-193.859 Y-1.999
X-194.296 Y-2.009
X-194.733 Y-2.029
X-195.169 Y-2.061
X-195.604 Y-2.108
X-196.015 Y-2.175
X-196.297 Y-2.244
X-196.466 Y-2.301
X-196.61 Y-2.362
X-196.662 Y-2.389
X-196.762 Y-2.467
X-196.827 Y-2.575
X-196.85 Y-2.7
Y-3.292
G0 Z5
X-183.448 Y-5.348
Z-0.45
G1 Z-0.6 F400
X-183.444 Y-5.342 Z-0.646
X-183.433 Y-5.323 Z-0.688
X-183.416 Y-5.295 Z-0.721
X-183.395 Y-5.259 Z-0.743
X-183.371 Y-5.219 Z-0.75
G3 X-183.15 Y-4.465 I-1.36 J0.809
G1 Y-3.87 F600
X-183.158 Y-3.72
X-183.202 Y-3.577
X-183.27 Y-3.443
X-183.353 Y-3.318
X-183.449 Y-3.202
X-183.568 Y-3.082
X-183.708 Y-2.962
X-183.897 Y-2.825
X-184.111 Y-2.693
X-184.406 Y-2.544
X-184.768 Y-2.396
X-185.185 Y-2.263
X-185.61 Y-2.158
X-186.039 Y-2.071
X-186.469 Y-1.996
X-186.902 Y-1.929
X-187.335 Y-1.867
X-187.768 Y-1.809
X-188.202 Y-1.754
X-188.637 Y-1.703
X-189.072 Y-1.655
X-189.507 Y-1.61
X-189.942 Y-1.57
X-190.378 Y-1.533
X-190.814 Y-1.5
X-191.251 Y-1.472
X-191.688 Y-1.447
X-192.125 Y-1.428
X-192.562 Y-1.413
X-192.999 Y-1.404
X-193.437 Y-1.4
X-193.874 Y-1.404
X-194.311 Y-1.415
X-194.748 Y-1.436
X-195.184 Y-1.469
X-195.619 Y-1.517
X-196.026 Y-1.585
X-196.305 Y-1.655
X-196.472 Y-1.711
X-196.614 Y-1.772
X-196.663 Y-1.798
X-196.762 Y-1.876
X-196.827 Y-1.983
X-196.85 Y-2.107
Y-2.7
G0 Z5
X-183.448 Y-4.752
Z-0.45
G1 Z-0.6 F400
X-183.444 Y-4.746 Z-0.646
X-183.433 Y-4.727 Z-0.688
X-183.416 Y-4.699 Z-0.721
X-183.395 Y-4.663 Z-0.743
X-183.371 Y-4.623 Z-0.75
G3 X-183.15 Y-3.87 I-1.36 J0.809
G1 Y-3.298 F600
X-183.158 Y-3.148
X-183.198 Y-3.004
X-183.262 Y-2.868
X-183.343 Y-2.742
X-183.437 Y-2.625
X-183.548 Y-2.509
X-183.687 Y-2.386
X-183.861 Y-2.255
X-184.077 Y-2.119
X-184.363 Y-1.968
X-184.692 Y-1.828
X-185.107 Y-1.689
X-185.531 Y-1.578
X-185.958 Y-1.487
X-186.389 Y-1.409
X-186.821 Y-1.339
X-187.253 Y-1.276
X-187.687 Y-1.217
X-188.121 Y-1.162
X-188.555 Y-1.111
X-188.99 Y-1.062
X-189.425 Y-1.018
X-189.861 Y-0.977
X-190.297 Y-0.94
X-190.733 Y-0.907
X-191.169 Y-0.878
X-191.606 Y-0.854
X-192.043 Y-0.834
X-192.48 Y-0.819
X-192.918 Y-0.809
X-193.355 Y-0.805
X-193.792 Y-0.807
X-194.23 Y-0.817
X-194.667 Y-0.837
X-195.103 Y-0.868
X-195.538 Y-0.913
X-195.97 Y-0.98
X-196.264 Y-1.049
X-196.444 Y-1.107
X-196.595 Y-1.17
X-196.659 Y-1.203
X-196.76 Y-1.281
X-196.827 Y-1.389
X-196.85 Y-1.515
Y-2.107
G0 Z5
X-183.448 Y-4.181
Z-0.45
G1 Z-0.6 F400
X-183.444 Y-4.174 Z-0.646
X-183.433 Y-4.156 Z-0.688
X-183.416 Y-4.127 Z-0.721
X-183.395 Y-4.092 Z-0.743
X-183.371 Y-4.052 Z-0.75
G3 X-183.15 Y-3.298 I-1.36 J0.809
G1 Y-2.702 F600
X-183.158 Y-2.552
X-183.188 Y-2.405
X-183.244 Y-2.266
X-183.319 Y-2.137
X-183.408 Y-2.016
X-183.508 Y-1.904
X-183.617 Y-1.801
X-183.733 Y-1.705
X-183.854 Y-1.617
X-183.979 Y-1.534
X-184.109 Y-1.459
X-184.241 Y-1.389
X-184.376 Y-1.323
X-184.514 Y-1.263
X-184.653 Y-1.207
X-184.794 Y-1.155
X-184.936 Y-1.107
X-185.079 Y-1.062
X-185.223 Y-1.02
X-185.368 Y-0.981
X-185.513 Y-0.944
X-185.659 Y-0.909
X-185.805 Y-0.877
X-185.952 Y-0.846
X-186.099 Y-0.816
X-186.325 Y-0.774
X-186.553 Y-0.734
X-186.729 Y-0.704
X-186.936 Y-0.671
X-187.155 Y-0.638
X-187.416 Y-0.6
X-187.718 Y-0.559
X-188.022 Y-0.52
X-188.371 Y-0.477
X-188.741 Y-0.435
X-189.118 Y-0.395
X-189.488 Y-0.358
X-189.826 Y-0.327
X-190.177 Y-0.297
X-190.531 Y-0.269
X-190.883 Y-0.245
X-191.204 Y-0.225
X-191.506 Y-0.208
X-191.824 Y-0.193
X-192.129 Y-0.18
X-192.378 Y-0.172
X-192.663 Y-0.165
X-192.887 Y-0.161
X-193.133 Y-0.158
X-193.333 Y-0.157
X-193.557 Y-0.158
X-193.717 Y-0.16
X-193.923 Y-0.163
X-194.073 Y-0.167
X-194.223 Y-0.172
X-194.404 Y-0.179
X-194.554 Y-0.187
X-194.704 Y-0.195
X-194.853 Y-0.206
X-195.003 Y-0.217
X-195.152 Y-0.23
X-195.302 Y-0.246
X-195.451 Y-0.262
X-195.599 Y-0.282
X-195.748 Y-0.304
X-195.895 Y-0.33
X-196.042 Y-0.36
X-196.188 Y-0.394
X-196.333 Y-0.434
X-196.476 Y-0.481
X-196.614 Y-0.538
X-196.656 Y-0.559
X-196.759 Y-0.636
X-196.826 Y-0.746
X-196.85 Y-0.872
Y-1.515
G0 Z5
X-183.448 Y-3.585
Z-0.45
G1 Z-0.6 F400
X-183.444 Y-3.578 Z-0.646
X-183.433 Y-3.56 Z-0.688
X-183.416 Y-3.531 Z-0.721
X-183.395 Y-3.496 Z-0.743
X-183.371 Y-3.456 Z-0.75
G3 X-183.15 Y-2.702 I-1.36 J0.809
G1 Y-2.082 F600
X-183.158 Y-1.932
X-183.193 Y-1.786
X-183.254 Y-1.649
