(1001)
(Bearbeiten)
(  Hersteller: ChinaCnc)
(  model: 3040T)
(  description: Generic 3-axis)
(T14  D=1.5 CR=0 - ZMIN=-1.7 - Schaftfraser)
G90 G94
G17
G21
G28 G91 Z0
G90

(Bohrfrasen2)
T14
S6000 M3
G54
G0 X-15.798 Y15.052
Z15
Z2
G1 Z0.15 F400
X-15.803 Y15.047 Z0.104
X-15.818 Y15.032 Z0.062
X-15.842 Y15.009 Z0.029
X-15.871 Y14.979 Z0.007
X-15.904 Y14.946 Z0
X-15.957 Y14.893
X-15.985 Y14.855
X-15.999 Y14.811
Y14.764
X-15.985 Y14.719
X-15.957 Y14.681
G3 X-14.543 Y16.095 Z-0.5 I0.707 J0.707 F600
X-15.957 Y14.681 Z-1 I-0.707 J-0.707
X-14.543 Y16.095 Z-1.5 I0.707 J0.707
X-15.704 Y16.279 Z-1.7 I-0.707 J-0.707
X-14.796 Y14.497 I0.454 J-0.891
X-15.704 Y16.279 I-0.454 J0.891
G1 X-15.742 Y16.252
X-15.77 Y16.214
X-15.784 Y16.169
Y16.122
X-15.77 Y16.078
X-15.735 Y16.011
X-15.714 Y15.969 Z-1.693
X-15.695 Y15.932 Z-1.671
X-15.68 Y15.903 Z-1.638
X-15.671 Y15.884 Z-1.596
X-15.667 Y15.877 Z-1.55
G0 Z5
X14.702 Y15.052
Z2
G1 Z0.15 F400
X14.697 Y15.047 Z0.104
X14.682 Y15.032 Z0.062
X14.658 Y15.009 Z0.029
X14.629 Y14.979 Z0.007
X14.596 Y14.946 Z0
X14.543 Y14.893
X14.515 Y14.855
X14.501 Y14.811
Y14.764
X14.515 Y14.719
X14.543 Y14.681
G3 X15.957 Y16.095 Z-0.5 I0.707 J0.707 F600
X14.543 Y14.681 Z-1 I-0.707 J-0.707
X15.957 Y16.095 Z-1.5 I0.707 J0.707
X14.796 Y16.279 Z-1.7 I-0.707 J-0.707
X15.704 Y14.497 I0.454 J-0.891
X14.796 Y16.279 I-0.454 J0.891
G1 X14.758 Y16.252
X14.73 Y16.214
X14.716 Y16.169
Y16.122
X14.73 Y16.078
X14.765 Y16.011
X14.786 Y15.969 Z-1.693
X14.805 Y15.932 Z-1.671
X14.82 Y15.903 Z-1.638
X14.829 Y15.884 Z-1.596
X14.833 Y15.877 Z-1.55
G0 Z5
X14.702 Y-15.448
Z2
G1 Z0.15 F400
X14.697 Y-15.453 Z0.104
X14.682 Y-15.468 Z0.062
X14.658 Y-15.491 Z0.029
X14.629 Y-15.521 Z0.007
X14.596 Y-15.554 Z0
X14.543 Y-15.607
X14.515 Y-15.645
X14.501 Y-15.689
Y-15.736
X14.515 Y-15.781
X14.543 Y-15.819
G3 X15.957 Y-14.405 Z-0.5 I0.707 J0.707 F600
X14.543 Y-15.819 Z-1 I-0.707 J-0.707
X15.957 Y-14.405 Z-1.5 I0.707 J0.707
X14.796 Y-14.221 Z-1.7 I-0.707 J-0.707
X15.704 Y-16.003 I0.454 J-0.891
X14.796 Y-14.221 I-0.454 J0.891
G1 X14.758 Y-14.248
X14.73 Y-14.286
X14.716 Y-14.331
Y-14.378
X14.73 Y-14.422
X14.765 Y-14.489
X14.786 Y-14.531 Z-1.693
X14.805 Y-14.568 Z-1.671
X14.82 Y-14.597 Z-1.638
X14.829 Y-14.616 Z-1.596
X14.833 Y-14.623 Z-1.55
G0 Z5
X-15.798 Y-15.448
Z2
G1 Z0.15 F400
X-15.803 Y-15.453 Z0.104
X-15.818 Y-15.468 Z0.062
X-15.842 Y-15.491 Z0.029
X-15.871 Y-15.521 Z0.007
X-15.904 Y-15.554 Z0
X-15.957 Y-15.607
X-15.985 Y-15.645
X-15.999 Y-15.689
Y-15.736
X-15.985 Y-15.781
X-15.957 Y-15.819
G3 X-14.543 Y-14.405 Z-0.5 I0.707 J0.707 F600
X-15.957 Y-15.819 Z-1 I-0.707 J-0.707
X-14.543 Y-14.405 Z-1.5 I0.707 J0.707
X-15.704 Y-14.221 Z-1.7 I-0.707 J-0.707
X-14.796 Y-16.003 I0.454 J-0.891
X-15.704 Y-14.221 I-0.454 J0.891
G1 X-15.742 Y-14.248
X-15.77 Y-14.286
X-15.784 Y-14.331
Y-14.378
X-15.77 Y-14.422
X-15.735 Y-14.489
X-15.714 Y-14.531 Z-1.693
X-15.695 Y-14.568 Z-1.671
X-15.68 Y-14.597 Z-1.638
X-15.671 Y-14.616 Z-1.596
X-15.667 Y-14.623 Z-1.55
G0 Z15

(2D-Kontur2)
X-2.365 Y-22.925
Z15
Z5
G1 Z2.5 F300
X7.25 Z2.164 F1016
G3 X7.25 Y-20.925 Z2.055 I0 J1
G1 X-7.25 Z1.548
G3 X-7.25 Y-22.925 Z1.438 I0 J-1
G1 X7.25 Z0.932
G3 X7.25 Y-20.925 Z0.822 I0 J1
G1 X-7.25 Z0.316
G3 X-7.25 Y-22.925 Z0.206 I0 J-1
G1 X7.25 Z-0.3
G3 X7.25 Y-20.925 I0 J1 F600
G1 X-7.25
G3 X-7.25 Y-22.925 I0 J-1
G1 X7.25
G3 X7.25 Y-20.925 Z-0.41 I0 J1 F1016
G1 X1.801 Z-0.6
X-7.25 F600
G3 X-7.25 Y-22.925 I0 J-1
G1 X7.25
G3 X7.25 Y-20.925 I0 J1
G1 X1.801
X-6.79 Z-0.9 F1016
X-7.25 F600
G3 X-7.25 Y-22.925 I0 J-1
G1 X7.25
G3 X7.25 Y-20.925 I0 J1
G1 X-6.79
X-7.25 Z-0.916 F1016
G3 X-7.25 Y-22.925 Z-1.026 I0 J-1
G1 X-2.261 Z-1.2
X7.25 F600
G3 X7.25 Y-20.925 I0 J1
G1 X-6.79
X-7.25
G3 X-7.25 Y-22.925 I0 J-1
G1 X-2.261
X6.33 Z-1.5 F1016
X7.25 F600
G3 X7.25 Y-20.925 I0 J1
G1 X-7.25
G3 X-7.25 Y-22.925 I0 J-1
G1 X6.33
X7.25 Z-1.532 F1016
G3 X8.181 Y-21.561 Z-1.6 I0 J1
X7.25 Y-20.925 I-0.931 J-0.365 F600
G1 X-7.25
G3 X-7.25 Y-22.925 I0 J-1
G1 X6.33
X7.25
G3 X8.181 Y-21.561 I0 J1
G0 Z5
X-2.365 Y21.202
G1 Z2.5 F300
X7.25 Z2.164 F1016
G3 X7.25 Y23.202 Z2.055 I0 J1
G1 X-7.25 Z1.548
G3 X-7.25 Y21.202 Z1.438 I0 J-1
G1 X7.25 Z0.932
G3 X7.25 Y23.202 Z0.822 I0 J1
G1 X-7.25 Z0.316
G3 X-7.25 Y21.202 Z0.206 I0 J-1
G1 X7.25 Z-0.3
G3 X7.25 Y23.202 I0 J1 F600
G1 X-7.25
G3 X-7.25 Y21.202 I0 J-1
G1 X7.25
G3 X7.25 Y23.202 Z-0.41 I0 J1 F1016
G1 X1.801 Z-0.6
X-7.25 F600
G3 X-7.25 Y21.202 I0 J-1
G1 X7.25
G3 X7.25 Y23.202 I0 J1
G1 X1.801
X-6.79 Z-0.9 F1016
X-7.25 F600
G3 X-7.25 Y21.202 I0 J-1
G1 X7.25
G3 X7.25 Y23.202 I0 J1
G1 X-6.79
X-7.25 Z-0.916 F1016
G3 X-7.25 Y21.202 Z-1.026 I0 J-1
G1 X-2.261 Z-1.2
X7.25 F600
G3 X7.25 Y23.202 I0 J1
G1 X-6.79
X-7.25
G3 X-7.25 Y21.202 I0 J-1
G1 X-2.261
X6.33 Z-1.5 F1016
X7.25 F600
G3 X7.25 Y23.202 I0 J1
G1 X-7.25
G3 X-7.25 Y21.202 I0 J-1
G1 X6.33
X7.25 Z-1.532 F1016
G3 X8.181 Y22.567 Z-1.6 I0 J1
X7.25 Y23.202 I-0.931 J-0.365 F600
G1 X-7.25
G3 X-7.25 Y21.202 I0 J-1
G1 X6.33
X7.25
G3 X8.181 Y22.567 I0 J1
G0 Z15

(2D-Kontur3)
X30.46 Y22.252
Z15
Z5
G1 Z2.5 F300
X30.476 Y22.204 Z2.498 F1016
X30.499 Y22.122 Z2.495
X30.546 Y21.902 Z2.487
X30.559 Y21.819 Z2.484
X30.581 Y21.595 Z2.477
X30.585 Y21.51 Z2.474
X30.581 Y21.285 Z2.466
X30.575 Y21.201 Z2.463
X30.547 Y20.978 Z2.455
X30.532 Y20.895 Z2.452
X30.478 Y20.676 Z2.444
X30.469 Y20.643 Z2.443
X30.339 Y20.198 Z2.427
X30.214 Y19.742 Z2.41
X30.095 Y19.267 Z2.393
X29.979 Y18.775 Z2.376
X29.867 Y18.266 Z2.357
X29.76 Y17.74 Z2.339
X29.657 Y17.198 Z2.319
X29.558 Y16.641 Z2.3
X29.464 Y16.068 Z2.279
X29.374 Y15.481 Z2.259
X29.288 Y14.88 Z2.237
X29.206 Y14.266 Z2.216
X29.129 Y13.639 Z2.194
X29.055 Y13 Z2.171
X28.986 Y12.35 Z2.148
X28.921 Y11.689 Z2.125
X28.86 Y11.017 Z2.102
X28.803 Y10.337 Z2.078
X28.702 Y8.947 Z2.029
X28.616 Y7.526 Z1.979
X28.546 Y6.08 Z1.929
X28.492 Y4.613 Z1.878
X28.453 Y3.13 Z1.826
X28.43 Y1.637 Z1.774
X28.422 Y0.138 Z1.721
X28.43 Y-1.36 Z1.669
X28.453 Y-2.854 Z1.617
X28.492 Y-4.336 Z1.565
X28.546 Y-5.803 Z1.514
X28.616 Y-7.25 Z1.463
X28.702 Y-8.67 Z1.413
X28.803 Y-10.06 Z1.365
X28.86 Y-10.74 Z1.341
X28.921 Y-11.412 Z1.317
X28.986 Y-12.073 Z1.294
X29.055 Y-12.724 Z1.271
X29.129 Y-13.363 Z1.249
X29.206 Y-13.989 Z1.227
X29.288 Y-14.603 Z1.205
X29.374 Y-15.204 Z1.184
X29.464 Y-15.791 Z1.163
X29.558 Y-16.364 Z1.143
X29.657 Y-16.921 Z1.123
X29.76 Y-17.463 Z1.104
X29.867 Y-17.989 Z1.085
X29.979 Y-18.499 Z1.067
X30.095 Y-18.991 Z1.049
X30.214 Y-19.465 Z1.032
X30.339 Y-19.921 Z1.016
X30.469 Y-20.366 Z1
X30.478 Y-20.4 Z0.998
X30.532 Y-20.619 Z0.991
X30.547 Y-20.702 Z0.988
X30.575 Y-20.925 Z0.98
X30.581 Y-21.009 Z0.977
X30.584 Y-21.235 Z0.969
X30.581 Y-21.319 Z0.966
X30.559 Y-21.543 Z0.958
X30.546 Y-21.627 Z0.955
X30.498 Y-21.847 Z0.947
X30.476 Y-21.929 Z0.944
X30.404 Y-22.143 Z0.936
X30.373 Y-22.221 Z0.933
X30.277 Y-22.425 Z0.926
X30.237 Y-22.499 Z0.923
X30.12 Y-22.691 Z0.915
X30.072 Y-22.76 Z0.912
X29.933 Y-22.938 Z0.904
X29.878 Y-23.001 Z0.901
X29.72 Y-23.162 Z0.893
X29.658 Y-23.219 Z0.89
X29.484 Y-23.361 Z0.882
X29.415 Y-23.411 Z0.879
X29.226 Y-23.532 Z0.872
X29.152 Y-23.574 Z0.869
X28.95 Y-23.674 Z0.861
X28.872 Y-23.707 Z0.858
X28.661 Y-23.783 Z0.85
X28.58 Y-23.807 Z0.847
X28.361 Y-23.859 Z0.839
X28.278 Y-23.874 Z0.836
X28.054 Y-23.901 Z0.828
X28.012 Y-23.905 Z0.827
G3 X24.04 Y-27.933 Z0.611 I0.272 J-4.241
G1 X24.036 Y-27.975 Z0.609
X24.012 Y-28.198 Z0.601
X23.999 Y-28.282 Z0.598
X23.95 Y-28.501 Z0.591
X23.927 Y-28.582 Z0.588
X23.854 Y-28.795 Z0.58
X23.822 Y-28.872 Z0.577
X23.726 Y-29.076 Z0.569
X23.685 Y-29.15 Z0.566
X23.566 Y-29.341 Z0.558
X23.518 Y-29.409 Z0.555
X23.379 Y-29.586 Z0.547
X23.322 Y-29.649 Z0.544
X23.164 Y-29.809 Z0.537
X23.102 Y-29.865 Z0.534
X22.927 Y-30.005 Z0.526
X22.859 Y-30.054 Z0.523
X22.669 Y-30.175 Z0.515
X22.595 Y-30.216 Z0.512
X22.393 Y-30.314 Z0.504
X22.315 Y-30.347 Z0.501
X22.104 Y-30.421 Z0.493
X22.023 Y-30.445 Z0.49
X21.805 Y-30.496 Z0.483
X21.722 Y-30.51 Z0.48
X21.498 Y-30.536 Z0.472
X21.414 Y-30.541 Z0.469
X21.189 Y-30.542 Z0.461
X21.105 Y-30.537 Z0.458
X20.883 Y-30.513 Z0.45
X20.799 Y-30.499 Z0.447
X20.58 Y-30.45 Z0.44
X20.547 Y-30.441 Z0.438
X20.104 Y-30.32 Z0.422
X19.65 Y-30.204 Z0.406
X19.177 Y-30.093 Z0.389
X18.686 Y-29.985 Z0.371
X18.178 Y-29.881 Z0.353
X17.653 Y-29.782 Z0.335
X17.111 Y-29.686 Z0.315
X16.554 Y-29.594 Z0.296
X15.981 Y-29.506 Z0.275
X15.393 Y-29.423 Z0.255
X14.792 Y-29.343 Z0.234
X14.177 Y-29.267 Z0.212
X13.549 Y-29.195 Z0.19
X12.909 Y-29.126 Z0.167
X12.257 Y-29.062 Z0.144
X11.594 Y-29.001 Z0.121
X10.92 Y-28.945 Z0.098
X10.238 Y-28.892 Z0.074
X8.843 Y-28.797 Z0.025
X7.418 Y-28.717 Z-0.025
X5.966 Y-28.652 Z-0.076
X4.493 Y-28.602 Z-0.127
X3.005 Y-28.566 Z-0.179
X1.505 Y-28.544 Z-0.232
X0 Y-28.537 Z-0.284
X-0.455 Y-28.539 Z-0.3
X-1.505 Y-28.544 F600
X-3.005 Y-28.566
X-4.493 Y-28.602
X-5.966 Y-28.652
X-7.418 Y-28.717
X-8.843 Y-28.797
X-10.238 Y-28.892
X-10.92 Y-28.945
X-11.594 Y-29.001
X-12.257 Y-29.062
X-12.909 Y-29.126
X-13.549 Y-29.195
X-14.177 Y-29.267
X-14.792 Y-29.343
X-15.393 Y-29.423
X-15.981 Y-29.506
X-16.554 Y-29.594
X-17.111 Y-29.686
X-17.653 Y-29.782
X-18.178 Y-29.881
X-18.686 Y-29.985
X-19.177 Y-30.093
X-19.65 Y-30.204
X-20.104 Y-30.32
X-20.547 Y-30.441
X-20.58 Y-30.45
X-20.8 Y-30.499
X-20.883 Y-30.513
X-21.106 Y-30.537
X-21.19 Y-30.542
X-21.415 Y-30.541
X-21.499 Y-30.536
X-21.723 Y-30.51
X-21.806 Y-30.495
X-22.025 Y-30.445
X-22.105 Y-30.421
X-22.317 Y-30.346
X-22.395 Y-30.313
X-22.597 Y-30.215
X-22.671 Y-30.174
X-22.86 Y-30.054
X-22.928 Y-30.005
X-23.103 Y-29.864
X-23.166 Y-29.807
X-23.324 Y-29.648
X-23.38 Y-29.584
X-23.519 Y-29.408
X-23.567 Y-29.339
X-23.686 Y-29.149
X-23.726 Y-29.075
X-23.822 Y-28.872
X-23.854 Y-28.793
X-23.927 Y-28.581
X-23.95 Y-28.5
X-23.999 Y-28.281
X-24.012 Y-28.198
X-24.036 Y-27.975
X-24.04 Y-27.933
G3 X-28.011 Y-23.905 I-4.245 J-0.213
G1 X-28.053 Y-23.901
X-28.278 Y-23.874
X-28.361 Y-23.859
X-28.58 Y-23.807
X-28.662 Y-23.783
X-28.874 Y-23.706
X-28.951 Y-23.673
X-29.153 Y-23.574
X-29.227 Y-23.532
X-29.416 Y-23.41
X-29.485 Y-23.36
X-29.659 Y-23.218
X-29.722 Y-23.161
X-29.879 Y-23
X-29.935 Y-22.936
X-30.073 Y-22.759
X-30.121 Y-22.69
X-30.238 Y-22.498
X-30.278 Y-22.423
X-30.373 Y-22.219
X-30.405 Y-22.14
X-30.476 Y-21.927
X-30.499 Y-21.846
X-30.546 Y-21.626
X-30.559 Y-21.543
X-30.581 Y-21.318
X-30.585 Y-21.234
X-30.581 Y-21.009
X-30.575 Y-20.924
X-30.547 Y-20.701
X-30.532 Y-20.619
X-30.478 Y-20.4
X-30.469 Y-20.366
X-30.339 Y-19.921
X-30.214 Y-19.465
X-30.095 Y-18.991
X-29.979 Y-18.499
X-29.867 Y-17.989
X-29.76 Y-17.463
X-29.657 Y-16.921
X-29.558 Y-16.364
X-29.464 Y-15.791
X-29.374 Y-15.204
X-29.288 Y-14.603
X-29.206 Y-13.989
X-29.129 Y-13.363
X-29.055 Y-12.724
X-28.986 Y-12.073
X-28.921 Y-11.412
X-28.86 Y-10.74
X-28.803 Y-10.06
X-28.702 Y-8.67
X-28.616 Y-7.25
X-28.546 Y-5.803
X-28.492 Y-4.336
X-28.453 Y-2.854
X-28.43 Y-1.36
X-28.422 Y0.138
X-28.43 Y1.637
X-28.453 Y3.13
X-28.492 Y4.613
X-28.546 Y6.08
X-28.616 Y7.526
X-28.702 Y8.947
X-28.803 Y10.337
X-28.86 Y11.017
X-28.921 Y11.689
X-28.986 Y12.35
X-29.055 Y13
X-29.129 Y13.639
X-29.206 Y14.266
X-29.288 Y14.88
X-29.374 Y15.481
X-29.464 Y16.068
X-29.558 Y16.641
X-29.657 Y17.198
X-29.76 Y17.74
X-29.867 Y18.266
X-29.979 Y18.775
X-30.095 Y19.267
X-30.214 Y19.742
X-30.339 Y20.198
X-30.469 Y20.643
X-30.478 Y20.676
X-30.532 Y20.895
X-30.547 Y20.979
X-30.575 Y21.202
X-30.581 Y21.286
X-30.584 Y21.512
X-30.581 Y21.596
X-30.559 Y21.82
X-30.546 Y21.904
X-30.498 Y22.124
X-30.476 Y22.205
X-30.404 Y22.419
X-30.373 Y22.498
X-30.277 Y22.701
X-30.237 Y22.776
X-30.12 Y22.967
X-30.072 Y23.037
X-29.934 Y23.214
X-29.878 Y23.278
X-29.72 Y23.439
X-29.658 Y23.496
X-29.484 Y23.638
X-29.415 Y23.688
X-29.226 Y23.809
X-29.153 Y23.851
X-28.95 Y23.95
X-28.872 Y23.983
X-28.661 Y24.06
X-28.58 Y24.084
X-28.361 Y24.136
X-28.278 Y24.15
X-28.054 Y24.177
X-28.012 Y24.181
G3 X-24.051 Y28.041 I-0.272 J4.241
G1 X-24.046 Y28.083
X-24.013 Y28.307
X-23.996 Y28.391
X-23.938 Y28.61
X-23.912 Y28.69
X-23.829 Y28.901
X-23.794 Y28.978
X-23.688 Y29.179
X-23.644 Y29.251
X-23.516 Y29.438
X-23.464 Y29.506
X-23.316 Y29.677
X-23.257 Y29.738
X-23.091 Y29.891
X-23.025 Y29.945
X-22.843 Y30.078
X-22.772 Y30.125
X-22.575 Y30.237
X-22.499 Y30.275
X-22.29 Y30.364
X-22.211 Y30.393
X-21.994 Y30.458
X-21.912 Y30.478
X-21.69 Y30.518
X-21.605 Y30.528
X-21.379 Y30.543
X-21.294 Y30.544
X-21.068 Y30.533
X-20.984 Y30.524
X-20.761 Y30.488
X-20.678 Y30.469
X-20.46 Y30.408
X-20.427 Y30.398
X-19.977 Y30.249
X-19.516 Y30.107
X-19.038 Y29.97
X-18.543 Y29.838
X-18.031 Y29.711
X-17.503 Y29.589
X-16.96 Y29.471
X-16.402 Y29.359
X-15.829 Y29.251
X-15.243 Y29.148
X-14.643 Y29.05
X-14.031 Y28.957
X-13.406 Y28.868
X-12.769 Y28.784
X-12.122 Y28.705
X-11.464 Y28.631
X-10.796 Y28.561
X-10.12 Y28.497
X-8.738 Y28.38
X-7.328 Y28.283
X-5.893 Y28.203
X-4.437 Y28.141
X-2.967 Y28.097
X-1.486 Y28.07
X0 Y28.062
X1.486 Y28.07
X2.967 Y28.097
X4.437 Y28.141
X5.893 Y28.203
X7.328 Y28.283
X8.738 Y28.38
X10.12 Y28.497
X10.796 Y28.561
X11.464 Y28.631
X12.122 Y28.705
X12.769 Y28.784
X13.406 Y28.868
X14.031 Y28.957
X14.643 Y29.05
X15.243 Y29.148
X15.829 Y29.251
X16.402 Y29.359
X16.96 Y29.471
X17.503 Y29.589
X18.031 Y29.711
X18.543 Y29.838
X19.038 Y29.97
X19.516 Y30.107
X19.977 Y30.249
X20.427 Y30.398
X20.46 Y30.408
X20.678 Y30.47
X20.761 Y30.488
X20.984 Y30.524
X21.069 Y30.533
X21.295 Y30.544
X21.38 Y30.543
X21.606 Y30.528
X21.69 Y30.518
X21.913 Y30.477
X21.996 Y30.457
X22.213 Y30.392
X22.293 Y30.363
X22.5 Y30.274
X22.577 Y30.236
X22.773 Y30.124
X22.844 Y30.078
X23.026 Y29.944
X23.092 Y29.89
X23.258 Y29.737
X23.318 Y29.675
X23.465 Y29.504
X23.517 Y29.437
X23.644 Y29.25
X23.688 Y29.178
X23.794 Y28.978
X23.829 Y28.9
X23.912 Y28.69
X23.938 Y28.609
X23.996 Y28.391
X24.013 Y28.307
X24.046 Y28.083
X24.051 Y28.041
G3 X28.012 Y24.181 I4.233 J0.381
G1 X28.054 Y24.177
X28.278 Y24.15
X28.361 Y24.136
X28.58 Y24.084
X28.662 Y24.059
X28.874 Y23.983
X28.951 Y23.95
X29.153 Y23.85
X29.227 Y23.808
X29.416 Y23.687
X29.485 Y23.637
X29.659 Y23.495
X29.722 Y23.437
X29.879 Y23.276
X29.935 Y23.213
X30.073 Y23.036
X30.121 Y22.966
X30.238 Y22.774
X30.278 Y22.7
X30.373 Y22.496
X30.405 Y22.417
X30.476 Y22.204
X30.499 Y22.122
X30.546 Y21.902
X30.559 Y21.819
X30.581 Y21.595
X30.585 Y21.51
X30.581 Y21.285
X30.575 Y21.201
X30.547 Y20.978
X30.532 Y20.895
X30.478 Y20.676
X30.469 Y20.643
X30.339 Y20.198
X30.214 Y19.742
X30.095 Y19.267
X29.979 Y18.775
X29.867 Y18.266
X29.76 Y17.74
X29.657 Y17.198
X29.558 Y16.641
X29.464 Y16.068
X29.374 Y15.481
X29.288 Y14.88
X29.206 Y14.266
X29.129 Y13.639
X29.055 Y13
X28.986 Y12.35
X28.921 Y11.689
X28.86 Y11.017
X28.803 Y10.337
X28.702 Y8.947
X28.616 Y7.526
X28.546 Y6.08
X28.492 Y4.613
X28.453 Y3.13
X28.43 Y1.637
X28.422 Y0.138
X28.43 Y-1.36
X28.453 Y-2.854
X28.492 Y-4.336
X28.546 Y-5.803
X28.616 Y-7.25
X28.702 Y-8.67
X28.803 Y-10.06
X28.86 Y-10.74
X28.921 Y-11.412
X28.986 Y-12.073
X29.055 Y-12.724
X29.129 Y-13.363
X29.206 Y-13.989
X29.288 Y-14.603
X29.374 Y-15.204
X29.464 Y-15.791
X29.558 Y-16.364
X29.657 Y-16.921
X29.76 Y-17.463
X29.867 Y-17.989
X29.979 Y-18.499
X30.095 Y-18.991
X30.214 Y-19.465
X30.339 Y-19.921
X30.469 Y-20.366
X30.478 Y-20.4
X30.532 Y-20.619
X30.547 Y-20.702
X30.575 Y-20.925
X30.581 Y-21.009
X30.584 Y-21.235
X30.581 Y-21.319
X30.559 Y-21.543
X30.546 Y-21.627
X30.498 Y-21.847
X30.476 Y-21.929
X30.404 Y-22.143
X30.373 Y-22.221
X30.277 Y-22.425
X30.237 Y-22.499
X30.12 Y-22.691
X30.072 Y-22.76
X29.933 Y-22.938
X29.878 Y-23.001
X29.72 Y-23.162
X29.658 Y-23.219
X29.484 Y-23.361
X29.415 Y-23.411
X29.226 Y-23.532
X29.152 Y-23.574
X28.95 Y-23.674
X28.872 Y-23.707
X28.661 Y-23.783
X28.58 Y-23.807
X28.361 Y-23.859
X28.278 Y-23.874
X28.054 Y-23.901
X28.012 Y-23.905
G3 X24.04 Y-27.933 I0.272 J-4.241
G1 X24.036 Y-27.975
X24.012 Y-28.198
X23.999 Y-28.282
X23.95 Y-28.501
X23.927 Y-28.582
X23.854 Y-28.795
X23.822 Y-28.872
X23.726 Y-29.076
X23.685 Y-29.15
X23.566 Y-29.341
X23.518 Y-29.409
X23.379 Y-29.586
X23.322 Y-29.649
X23.164 Y-29.809
X23.102 Y-29.865
X22.927 Y-30.005
X22.859 Y-30.054
X22.669 Y-30.175
X22.595 Y-30.216
X22.393 Y-30.314
X22.315 Y-30.347
X22.104 Y-30.421
X22.023 Y-30.445
X21.805 Y-30.496
X21.722 Y-30.51
X21.498 Y-30.536
X21.414 Y-30.541
X21.189 Y-30.542
X21.105 Y-30.537
X20.883 Y-30.513
X20.799 Y-30.499
X20.58 Y-30.45
X20.547 Y-30.441
X20.104 Y-30.32
X19.65 Y-30.204
X19.177 Y-30.093
X18.686 Y-29.985
X18.178 Y-29.881
X17.653 Y-29.782
X17.111 Y-29.686
X16.554 Y-29.594
X15.981 Y-29.506
X15.393 Y-29.423
X14.792 Y-29.343
X14.177 Y-29.267
X13.549 Y-29.195
X12.909 Y-29.126
X12.257 Y-29.062
X11.594 Y-29.001
X10.92 Y-28.945
X10.238 Y-28.892
X8.843 Y-28.797
X7.418 Y-28.717
X5.966 Y-28.652
X4.493 Y-28.602
X3.005 Y-28.566
X1.505 Y-28.544
X0 Y-28.537
X-0.455 Y-28.539
X-1.505 Y-28.544 Z-0.337 F1016
X-3.005 Y-28.566 Z-0.389
X-4.493 Y-28.602 Z-0.441
X-5.966 Y-28.652 Z-0.493
X-7.418 Y-28.717 Z-0.543
X-8.843 Y-28.797 Z-0.593
X-9.041 Y-28.811 Z-0.6
X-10.238 Y-28.892 F600
X-10.92 Y-28.945
X-11.594 Y-29.001
X-12.257 Y-29.062
X-12.909 Y-29.126
X-13.549 Y-29.195
X-14.177 Y-29.267
X-14.792 Y-29.343
X-15.393 Y-29.423
X-15.981 Y-29.506
X-16.554 Y-29.594
X-17.111 Y-29.686
X-17.653 Y-29.782
X-18.178 Y-29.881
X-18.686 Y-29.985
X-19.177 Y-30.093
X-19.65 Y-30.204
X-20.104 Y-30.32
X-20.547 Y-30.441
X-20.58 Y-30.45
X-20.8 Y-30.499
X-20.883 Y-30.513
X-21.106 Y-30.537
X-21.19 Y-30.542
X-21.415 Y-30.541
X-21.499 Y-30.536
X-21.723 Y-30.51
X-21.806 Y-30.495
X-22.025 Y-30.445
X-22.105 Y-30.421
X-22.317 Y-30.346
X-22.395 Y-30.313
X-22.597 Y-30.215
X-22.671 Y-30.174
X-22.86 Y-30.054
X-22.928 Y-30.005
X-23.103 Y-29.864
X-23.166 Y-29.807
X-23.324 Y-29.648
X-23.38 Y-29.584
X-23.519 Y-29.408
X-23.567 Y-29.339
X-23.686 Y-29.149
X-23.726 Y-29.075
X-23.822 Y-28.872
X-23.854 Y-28.793
X-23.927 Y-28.581
X-23.95 Y-28.5
X-23.999 Y-28.281
X-24.012 Y-28.198
X-24.036 Y-27.975
X-24.04 Y-27.933
G3 X-28.011 Y-23.905 I-4.245 J-0.213
G1 X-28.053 Y-23.901
X-28.278 Y-23.874
X-28.361 Y-23.859
X-28.58 Y-23.807
X-28.662 Y-23.783
X-28.874 Y-23.706
X-28.951 Y-23.673
X-29.153 Y-23.574
X-29.227 Y-23.532
X-29.416 Y-23.41
X-29.485 Y-23.36
X-29.659 Y-23.218
X-29.722 Y-23.161
X-29.879 Y-23
X-29.935 Y-22.936
X-30.073 Y-22.759
X-30.121 Y-22.69
X-30.238 Y-22.498
X-30.278 Y-22.423
X-30.373 Y-22.219
X-30.405 Y-22.14
X-30.476 Y-21.927
X-30.499 Y-21.846
X-30.546 Y-21.626
X-30.559 Y-21.543
X-30.581 Y-21.318
X-30.585 Y-21.234
X-30.581 Y-21.009
X-30.575 Y-20.924
X-30.547 Y-20.701
X-30.532 Y-20.619
X-30.478 Y-20.4
X-30.469 Y-20.366
X-30.339 Y-19.921
X-30.214 Y-19.465
X-30.095 Y-18.991
X-29.979 Y-18.499
X-29.867 Y-17.989
X-29.76 Y-17.463
X-29.657 Y-16.921
X-29.558 Y-16.364
X-29.464 Y-15.791
X-29.374 Y-15.204
X-29.288 Y-14.603
X-29.206 Y-13.989
X-29.129 Y-13.363
X-29.055 Y-12.724
X-28.986 Y-12.073
X-28.921 Y-11.412
X-28.86 Y-10.74
X-28.803 Y-10.06
X-28.702 Y-8.67
X-28.616 Y-7.25
X-28.546 Y-5.803
X-28.492 Y-4.336
X-28.453 Y-2.854
X-28.43 Y-1.36
X-28.422 Y0.138
X-28.43 Y1.637
X-28.453 Y3.13
X-28.492 Y4.613
X-28.546 Y6.08
X-28.616 Y7.526
X-28.702 Y8.947
X-28.803 Y10.337
X-28.86 Y11.017
X-28.921 Y11.689
X-28.986 Y12.35
X-29.055 Y13
X-29.129 Y13.639
X-29.206 Y14.266
X-29.288 Y14.88
X-29.374 Y15.481
X-29.464 Y16.068
X-29.558 Y16.641
X-29.657 Y17.198
X-29.76 Y17.74
X-29.867 Y18.266
X-29.979 Y18.775
X-30.095 Y19.267
X-30.214 Y19.742
X-30.339 Y20.198
X-30.469 Y20.643
X-30.478 Y20.676
X-30.532 Y20.895
X-30.547 Y20.979
X-30.575 Y21.202
X-30.581 Y21.286
X-30.584 Y21.512
X-30.581 Y21.596
X-30.559 Y21.82
X-30.546 Y21.904
X-30.498 Y22.124
X-30.476 Y22.205
X-30.404 Y22.419
X-30.373 Y22.498
X-30.277 Y22.701
X-30.237 Y22.776
X-30.12 Y22.967
X-30.072 Y23.037
X-29.934 Y23.214
X-29.878 Y23.278
X-29.72 Y23.439
X-29.658 Y23.496
X-29.484 Y23.638
X-29.415 Y23.688
X-29.226 Y23.809
X-29.153 Y23.851
X-28.95 Y23.95
X-28.872 Y23.983
X-28.661 Y24.06
X-28.58 Y24.084
X-28.361 Y24.136
X-28.278 Y24.15
X-28.054 Y24.177
X-28.012 Y24.181
G3 X-24.051 Y28.041 I-0.272 J4.241
G1 X-24.046 Y28.083
X-24.013 Y28.307
X-23.996 Y28.391
X-23.938 Y28.61
X-23.912 Y28.69
X-23.829 Y28.901
X-23.794 Y28.978
X-23.688 Y29.179
X-23.644 Y29.251
X-23.516 Y29.438
X-23.464 Y29.506
X-23.316 Y29.677
X-23.257 Y29.738
X-23.091 Y29.891
X-23.025 Y29.945
X-22.843 Y30.078
X-22.772 Y30.125
X-22.575 Y30.237
X-22.499 Y30.275
X-22.29 Y30.364
X-22.211 Y30.393
X-21.994 Y30.458
X-21.912 Y30.478
X-21.69 Y30.518
X-21.605 Y30.528
X-21.379 Y30.543
X-21.294 Y30.544
X-21.068 Y30.533
X-20.984 Y30.524
X-20.761 Y30.488
X-20.678 Y30.469
X-20.46 Y30.408
X-20.427 Y30.398
X-19.977 Y30.249
X-19.516 Y30.107
X-19.038 Y29.97
X-18.543 Y29.838
X-18.031 Y29.711
X-17.503 Y29.589
X-16.96 Y29.471
X-16.402 Y29.359
X-15.829 Y29.251
X-15.243 Y29.148
X-14.643 Y29.05
X-14.031 Y28.957
X-13.406 Y28.868
X-12.769 Y28.784
X-12.122 Y28.705
X-11.464 Y28.631
X-10.796 Y28.561
X-10.12 Y28.497
X-8.738 Y28.38
X-7.328 Y28.283
X-5.893 Y28.203
X-4.437 Y28.141
X-2.967 Y28.097
X-1.486 Y28.07
X0 Y28.062
X1.486 Y28.07
X2.967 Y28.097
X4.437 Y28.141
X5.893 Y28.203
X7.328 Y28.283
X8.738 Y28.38
X10.12 Y28.497
X10.796 Y28.561
X11.464 Y28.631
X12.122 Y28.705
X12.769 Y28.784
X13.406 Y28.868
X14.031 Y28.957
X14.643 Y29.05
X15.243 Y29.148
X15.829 Y29.251
X16.402 Y29.359
X16.96 Y29.471
X17.503 Y29.589
X18.031 Y29.711
X18.543 Y29.838
X19.038 Y29.97
X19.516 Y30.107
X19.977 Y30.249
X20.427 Y30.398
X20.46 Y30.408
X20.678 Y30.47
X20.761 Y30.488
X20.984 Y30.524
X21.069 Y30.533
X21.295 Y30.544
X21.38 Y30.543
X21.606 Y30.528
X21.69 Y30.518
X21.913 Y30.477
X21.996 Y30.457
X22.213 Y30.392
X22.293 Y30.363
X22.5 Y30.274
X22.577 Y30.236
X22.773 Y30.124
X22.844 Y30.078
X23.026 Y29.944
X23.092 Y29.89
X23.258 Y29.737
X23.318 Y29.675
X23.465 Y29.504
X23.517 Y29.437
X23.644 Y29.25
X23.688 Y29.178
X23.794 Y28.978
X23.829 Y28.9
X23.912 Y28.69
X23.938 Y28.609
X23.996 Y28.391
X24.013 Y28.307
X24.046 Y28.083
X24.051 Y28.041
G3 X28.012 Y24.181 I4.233 J0.381
G1 X28.054 Y24.177
X28.278 Y24.15
X28.361 Y24.136
X28.58 Y24.084
X28.662 Y24.059
X28.874 Y23.983
X28.951 Y23.95
X29.153 Y23.85
X29.227 Y23.808
X29.416 Y23.687
X29.485 Y23.637
X29.659 Y23.495
X29.722 Y23.437
X29.879 Y23.276
X29.935 Y23.213
X30.073 Y23.036
X30.121 Y22.966
X30.238 Y22.774
X30.278 Y22.7
X30.373 Y22.496
X30.405 Y22.417
X30.476 Y22.204
X30.499 Y22.122
X30.546 Y21.902
X30.559 Y21.819
X30.581 Y21.595
X30.585 Y21.51
X30.581 Y21.285
X30.575 Y21.201
X30.547 Y20.978
X30.532 Y20.895
X30.478 Y20.676
X30.469 Y20.643
X30.339 Y20.198
X30.214 Y19.742
X30.095 Y19.267
X29.979 Y18.775
X29.867 Y18.266
X29.76 Y17.74
X29.657 Y17.198
X29.558 Y16.641
X29.464 Y16.068
X29.374 Y15.481
X29.288 Y14.88
X29.206 Y14.266
X29.129 Y13.639
X29.055 Y13
X28.986 Y12.35
X28.921 Y11.689
X28.86 Y11.017
X28.803 Y10.337
X28.702 Y8.947
X28.616 Y7.526
X28.546 Y6.08
X28.492 Y4.613
X28.453 Y3.13
X28.43 Y1.637
X28.422 Y0.138
X28.43 Y-1.36
X28.453 Y-2.854
X28.492 Y-4.336
X28.546 Y-5.803
X28.616 Y-7.25
X28.702 Y-8.67
X28.803 Y-10.06
X28.86 Y-10.74
X28.921 Y-11.412
X28.986 Y-12.073
X29.055 Y-12.724
X29.129 Y-13.363
X29.206 Y-13.989
X29.288 Y-14.603
X29.374 Y-15.204
X29.464 Y-15.791
X29.558 Y-16.364
X29.657 Y-16.921
X29.76 Y-17.463
X29.867 Y-17.989
X29.979 Y-18.499
X30.095 Y-18.991
X30.214 Y-19.465
X30.339 Y-19.921
X30.469 Y-20.366
X30.478 Y-20.4
X30.532 Y-20.619
X30.547 Y-20.702
X30.575 Y-20.925
X30.581 Y-21.009
X30.584 Y-21.235
X30.581 Y-21.319
X30.559 Y-21.543
X30.546 Y-21.627
X30.498 Y-21.847
X30.476 Y-21.929
X30.404 Y-22.143
X30.373 Y-22.221
X30.277 Y-22.425
X30.237 Y-22.499
X30.12 Y-22.691
X30.072 Y-22.76
X29.933 Y-22.938
X29.878 Y-23.001
X29.72 Y-23.162
X29.658 Y-23.219
X29.484 Y-23.361
X29.415 Y-23.411
X29.226 Y-23.532
X29.152 Y-23.574
X28.95 Y-23.674
X28.872 Y-23.707
X28.661 Y-23.783
X28.58 Y-23.807
X28.361 Y-23.859
X28.278 Y-23.874
X28.054 Y-23.901
X28.012 Y-23.905
G3 X24.04 Y-27.933 I0.272 J-4.241
G1 X24.036 Y-27.975
X24.012 Y-28.198
X23.999 Y-28.282
X23.95 Y-28.501
X23.927 Y-28.582
X23.854 Y-28.795
X23.822 Y-28.872
X23.726 Y-29.076
X23.685 Y-29.15
X23.566 Y-29.341
X23.518 Y-29.409
X23.379 Y-29.586
X23.322 Y-29.649
X23.164 Y-29.809
X23.102 Y-29.865
X22.927 Y-30.005
X22.859 Y-30.054
X22.669 Y-30.175
X22.595 Y-30.216
X22.393 Y-30.314
X22.315 Y-30.347
X22.104 Y-30.421
X22.023 Y-30.445
X21.805 Y-30.496
X21.722 Y-30.51
X21.498 Y-30.536
X21.414 Y-30.541
X21.189 Y-30.542
X21.105 Y-30.537
X20.883 Y-30.513
X20.799 Y-30.499
X20.58 Y-30.45
X20.547 Y-30.441
X20.104 Y-30.32
X19.65 Y-30.204
X19.177 Y-30.093
X18.686 Y-29.985
X18.178 Y-29.881
X17.653 Y-29.782
X17.111 Y-29.686
X16.554 Y-29.594
X15.981 Y-29.506
X15.393 Y-29.423
X14.792 Y-29.343
X14.177 Y-29.267
X13.549 Y-29.195
X12.909 Y-29.126
X12.257 Y-29.062
X11.594 Y-29.001
X10.92 Y-28.945
X10.238 Y-28.892
X8.843 Y-28.797
X7.418 Y-28.717
X5.966 Y-28.652
X4.493 Y-28.602
X3.005 Y-28.566
X1.505 Y-28.544
X0 Y-28.537
X-1.505 Y-28.544
X-3.005 Y-28.566
X-4.493 Y-28.602
X-5.966 Y-28.652
X-7.418 Y-28.717
X-8.843 Y-28.797
X-9.041 Y-28.811
X-10.238 Y-28.892 Z-0.642 F1016
X-10.92 Y-28.945 Z-0.666
X-11.594 Y-29.001 Z-0.689
X-12.257 Y-29.062 Z-0.713
X-12.909 Y-29.126 Z-0.736
X-13.549 Y-29.195 Z-0.758
X-14.177 Y-29.267 Z-0.78
X-14.792 Y-29.343 Z-0.802
X-15.393 Y-29.423 Z-0.823
X-15.981 Y-29.506 Z-0.844
X-16.554 Y-29.594 Z-0.864
X-17.111 Y-29.686 Z-0.884
X-17.573 Y-29.768 Z-0.9
X-17.653 Y-29.782 F600
X-18.178 Y-29.881
X-18.686 Y-29.985
X-19.177 Y-30.093
X-19.65 Y-30.204
X-20.104 Y-30.32
X-20.547 Y-30.441
X-20.58 Y-30.45
X-20.8 Y-30.499
X-20.883 Y-30.513
X-21.106 Y-30.537
X-21.19 Y-30.542
X-21.415 Y-30.541
X-21.499 Y-30.536
X-21.723 Y-30.51
X-21.806 Y-30.495
X-22.025 Y-30.445
X-22.105 Y-30.421
X-22.317 Y-30.346
X-22.395 Y-30.313
X-22.597 Y-30.215
X-22.671 Y-30.174
X-22.86 Y-30.054
X-22.928 Y-30.005
X-23.103 Y-29.864
X-23.166 Y-29.807
X-23.324 Y-29.648
X-23.38 Y-29.584
X-23.519 Y-29.408
X-23.567 Y-29.339
X-23.686 Y-29.149
X-23.726 Y-29.075
X-23.822 Y-28.872
X-23.854 Y-28.793
X-23.927 Y-28.581
X-23.95 Y-28.5
X-23.999 Y-28.281
X-24.012 Y-28.198
X-24.036 Y-27.975
X-24.04 Y-27.933
G3 X-28.011 Y-23.905 I-4.245 J-0.213
G1 X-28.053 Y-23.901
X-28.278 Y-23.874
X-28.361 Y-23.859
X-28.58 Y-23.807
X-28.662 Y-23.783
X-28.874 Y-23.706
X-28.951 Y-23.673
X-29.153 Y-23.574
X-29.227 Y-23.532
X-29.416 Y-23.41
X-29.485 Y-23.36
X-29.659 Y-23.218
X-29.722 Y-23.161
X-29.879 Y-23
X-29.935 Y-22.936
X-30.073 Y-22.759
X-30.121 Y-22.69
X-30.238 Y-22.498
X-30.278 Y-22.423
X-30.373 Y-22.219
X-30.405 Y-22.14
X-30.476 Y-21.927
X-30.499 Y-21.846
X-30.546 Y-21.626
X-30.559 Y-21.543
X-30.581 Y-21.318
X-30.585 Y-21.234
X-30.581 Y-21.009
X-30.575 Y-20.924
X-30.547 Y-20.701
X-30.532 Y-20.619
X-30.478 Y-20.4
X-30.469 Y-20.366
X-30.339 Y-19.921
X-30.214 Y-19.465
X-30.095 Y-18.991
X-29.979 Y-18.499
X-29.867 Y-17.989
X-29.76 Y-17.463
X-29.657 Y-16.921
X-29.558 Y-16.364
X-29.464 Y-15.791
X-29.374 Y-15.204
X-29.288 Y-14.603
X-29.206 Y-13.989
X-29.129 Y-13.363
X-29.055 Y-12.724
X-28.986 Y-12.073
X-28.921 Y-11.412
X-28.86 Y-10.74
X-28.803 Y-10.06
X-28.702 Y-8.67
X-28.616 Y-7.25
X-28.546 Y-5.803
X-28.492 Y-4.336
X-28.453 Y-2.854
X-28.441 Y-2.112
Z-0.6
X-28.43 Y-1.36
X-28.422 Y0.138
X-28.43 Y1.637
X-28.441 Y2.388
Z-0.9 F300
X-28.453 Y3.13 F600
X-28.492 Y4.613
X-28.546 Y6.08
X-28.616 Y7.526
X-28.702 Y8.947
X-28.803 Y10.337
X-28.86 Y11.017
X-28.921 Y11.689
X-28.986 Y12.35
X-29.055 Y13
X-29.129 Y13.639
X-29.206 Y14.266
X-29.288 Y14.88
X-29.374 Y15.481
X-29.464 Y16.068
X-29.558 Y16.641
X-29.657 Y17.198
X-29.76 Y17.74
X-29.867 Y18.266
X-29.979 Y18.775
X-30.095 Y19.267
X-30.214 Y19.742
X-30.339 Y20.198
X-30.469 Y20.643
X-30.478 Y20.676
X-30.532 Y20.895
X-30.547 Y20.979
X-30.575 Y21.202
X-30.581 Y21.286
X-30.584 Y21.512
X-30.581 Y21.596
X-30.559 Y21.82
X-30.546 Y21.904
X-30.498 Y22.124
X-30.476 Y22.205
X-30.404 Y22.419
X-30.373 Y22.498
X-30.277 Y22.701
X-30.237 Y22.776
X-30.12 Y22.967
X-30.072 Y23.037
X-29.934 Y23.214
X-29.878 Y23.278
X-29.72 Y23.439
X-29.658 Y23.496
X-29.484 Y23.638
X-29.415 Y23.688
X-29.226 Y23.809
X-29.153 Y23.851
X-28.95 Y23.95
X-28.872 Y23.983
X-28.661 Y24.06
X-28.58 Y24.084
X-28.361 Y24.136
X-28.278 Y24.15
X-28.054 Y24.177
X-28.012 Y24.181
G3 X-24.051 Y28.041 I-0.272 J4.241
G1 X-24.046 Y28.083
X-24.013 Y28.307
X-23.996 Y28.391
X-23.938 Y28.61
X-23.912 Y28.69
X-23.829 Y28.901
X-23.794 Y28.978
X-23.688 Y29.179
X-23.644 Y29.251
X-23.516 Y29.438
X-23.464 Y29.506
X-23.316 Y29.677
X-23.257 Y29.738
X-23.091 Y29.891
X-23.025 Y29.945
X-22.843 Y30.078
X-22.772 Y30.125
X-22.575 Y30.237
X-22.499 Y30.275
X-22.29 Y30.364
X-22.211 Y30.393
X-21.994 Y30.458
X-21.912 Y30.478
X-21.69 Y30.518
X-21.605 Y30.528
X-21.379 Y30.543
X-21.294 Y30.544
X-21.068 Y30.533
X-20.984 Y30.524
X-20.761 Y30.488
X-20.678 Y30.469
X-20.46 Y30.408
X-20.427 Y30.398
X-19.977 Y30.249
X-19.516 Y30.107
X-19.038 Y29.97
X-18.543 Y29.838
X-18.031 Y29.711
X-17.503 Y29.589
X-16.96 Y29.471
X-16.402 Y29.359
X-15.829 Y29.251
X-15.243 Y29.148
X-14.643 Y29.05
X-14.031 Y28.957
X-13.406 Y28.868
X-12.769 Y28.784
X-12.122 Y28.705
X-11.464 Y28.631
X-10.796 Y28.561
X-10.12 Y28.497
X-8.738 Y28.38
X-7.328 Y28.283
X-5.893 Y28.203
X-4.437 Y28.141
X-2.967 Y28.097
X-2.25 Y28.084
Z-0.6
X-1.486 Y28.07
X0 Y28.062
X1.486 Y28.07
X2.25 Y28.084
Z-0.9 F300
X2.967 Y28.097 F600
X4.437 Y28.141
X5.893 Y28.203
X7.328 Y28.283
X8.738 Y28.38
X10.12 Y28.497
X10.796 Y28.561
X11.464 Y28.631
X12.122 Y28.705
X12.769 Y28.784
X13.406 Y28.868
X14.031 Y28.957
X14.643 Y29.05
X15.243 Y29.148
X15.829 Y29.251
X16.402 Y29.359
X16.96 Y29.471
X17.503 Y29.589
X18.031 Y29.711
X18.543 Y29.838
X19.038 Y29.97
X19.516 Y30.107
X19.977 Y30.249
X20.427 Y30.398
X20.46 Y30.408
X20.678 Y30.47
X20.761 Y30.488
X20.984 Y30.524
X21.069 Y30.533
X21.295 Y30.544
X21.38 Y30.543
X21.606 Y30.528
X21.69 Y30.518
X21.913 Y30.477
X21.996 Y30.457
X22.213 Y30.392
X22.293 Y30.363
X22.5 Y30.274
X22.577 Y30.236
X22.773 Y30.124
X22.844 Y30.078
X23.026 Y29.944
X23.092 Y29.89
X23.258 Y29.737
X23.318 Y29.675
X23.465 Y29.504
X23.517 Y29.437
X23.644 Y29.25
X23.688 Y29.178
X23.794 Y28.978
X23.829 Y28.9
X23.912 Y28.69
X23.938 Y28.609
X23.996 Y28.391
X24.013 Y28.307
X24.046 Y28.083
X24.051 Y28.041
G3 X28.012 Y24.181 I4.233 J0.381
G1 X28.054 Y24.177
X28.278 Y24.15
X28.361 Y24.136
X28.58 Y24.084
X28.662 Y24.059
X28.874 Y23.983
X28.951 Y23.95
X29.153 Y23.85
X29.227 Y23.808
X29.416 Y23.687
X29.485 Y23.637
X29.659 Y23.495
X29.722 Y23.437
X29.879 Y23.276
X29.935 Y23.213
X30.073 Y23.036
X30.121 Y22.966
X30.238 Y22.774
X30.278 Y22.7
X30.373 Y22.496
X30.405 Y22.417
X30.476 Y22.204
X30.499 Y22.122
X30.546 Y21.902
X30.559 Y21.819
X30.581 Y21.595
X30.585 Y21.51
X30.581 Y21.285
X30.575 Y21.201
X30.547 Y20.978
X30.532 Y20.895
X30.478 Y20.676
X30.469 Y20.643
X30.339 Y20.198
X30.214 Y19.742
X30.095 Y19.267
X29.979 Y18.775
X29.867 Y18.266
X29.76 Y17.74
X29.657 Y17.198
X29.558 Y16.641
X29.464 Y16.068
X29.374 Y15.481
X29.288 Y14.88
X29.206 Y14.266
X29.129 Y13.639
X29.055 Y13
X28.986 Y12.35
X28.921 Y11.689
X28.86 Y11.017
X28.803 Y10.337
X28.702 Y8.947
X28.616 Y7.526
X28.546 Y6.08
X28.492 Y4.613
X28.453 Y3.13
X28.441 Y2.388
Z-0.6
X28.43 Y1.637
X28.422 Y0.138
X28.43 Y-1.36
X28.441 Y-2.112
Z-0.9 F300
X28.453 Y-2.854 F600
X28.492 Y-4.336
X28.546 Y-5.803
X28.616 Y-7.25
X28.702 Y-8.67
X28.803 Y-10.06
X28.86 Y-10.74
X28.921 Y-11.412
X28.986 Y-12.073
X29.055 Y-12.724
X29.129 Y-13.363
X29.206 Y-13.989
X29.288 Y-14.603
X29.374 Y-15.204
X29.464 Y-15.791
X29.558 Y-16.364
X29.657 Y-16.921
X29.76 Y-17.463
X29.867 Y-17.989
X29.979 Y-18.499
X30.095 Y-18.991
X30.214 Y-19.465
X30.339 Y-19.921
X30.469 Y-20.366
X30.478 Y-20.4
X30.532 Y-20.619
X30.547 Y-20.702
X30.575 Y-20.925
X30.581 Y-21.009
X30.584 Y-21.235
X30.581 Y-21.319
X30.559 Y-21.543
X30.546 Y-21.627
X30.498 Y-21.847
X30.476 Y-21.929
X30.404 Y-22.143
X30.373 Y-22.221
X30.277 Y-22.425
X30.237 Y-22.499
X30.12 Y-22.691
X30.072 Y-22.76
X29.933 Y-22.938
X29.878 Y-23.001
X29.72 Y-23.162
X29.658 Y-23.219
X29.484 Y-23.361
X29.415 Y-23.411
X29.226 Y-23.532
X29.152 Y-23.574
X28.95 Y-23.674
X28.872 Y-23.707
X28.661 Y-23.783
X28.58 Y-23.807
X28.361 Y-23.859
X28.278 Y-23.874
X28.054 Y-23.901
X28.012 Y-23.905
G3 X24.04 Y-27.933 I0.272 J-4.241
G1 X24.036 Y-27.975
X24.012 Y-28.198
X23.999 Y-28.282
X23.95 Y-28.501
X23.927 Y-28.582
X23.854 Y-28.795
X23.822 Y-28.872
X23.726 Y-29.076
X23.685 Y-29.15
X23.566 Y-29.341
X23.518 Y-29.409
X23.379 Y-29.586
X23.322 Y-29.649
X23.164 Y-29.809
X23.102 Y-29.865
X22.927 Y-30.005
X22.859 Y-30.054
X22.669 Y-30.175
X22.595 Y-30.216
X22.393 Y-30.314
X22.315 Y-30.347
X22.104 Y-30.421
X22.023 Y-30.445
X21.805 Y-30.496
X21.722 Y-30.51
X21.498 Y-30.536
X21.414 Y-30.541
X21.189 Y-30.542
X21.105 Y-30.537
X20.883 Y-30.513
X20.799 Y-30.499
X20.58 Y-30.45
X20.547 Y-30.441
X20.104 Y-30.32
X19.65 Y-30.204
X19.177 Y-30.093
X18.686 Y-29.985
X18.178 Y-29.881
X17.653 Y-29.782
X17.111 Y-29.686
X16.554 Y-29.594
X15.981 Y-29.506
X15.393 Y-29.423
X14.792 Y-29.343
X14.177 Y-29.267
X13.549 Y-29.195
X12.909 Y-29.126
X12.257 Y-29.062
X11.594 Y-29.001
X10.92 Y-28.945
X10.238 Y-28.892
X8.843 Y-28.797
X7.418 Y-28.717
X5.966 Y-28.652
X4.493 Y-28.602
X3.005 Y-28.566
X2.25 Y-28.555
Z-0.6
X1.505 Y-28.544
X0 Y-28.537
X-1.505 Y-28.544
X-2.25 Y-28.555
Z-0.9 F300
X-3.005 Y-28.566 F600
X-4.493 Y-28.602
X-5.966 Y-28.652
X-7.418 Y-28.717
X-8.843 Y-28.797
X-10.238 Y-28.892
X-10.92 Y-28.945
X-11.594 Y-29.001
X-12.257 Y-29.062
X-12.909 Y-29.126
X-13.549 Y-29.195
X-14.177 Y-29.267
X-14.792 Y-29.343
X-15.393 Y-29.423
X-15.981 Y-29.506
X-16.554 Y-29.594
X-17.111 Y-29.686
X-17.573 Y-29.768
X-17.653 Y-29.782 Z-0.903 F1016
X-18.178 Y-29.881 Z-0.921
X-18.686 Y-29.985 Z-0.94
X-19.177 Y-30.093 Z-0.957
X-19.65 Y-30.204 Z-0.974
X-20.104 Y-30.32 Z-0.99
X-20.547 Y-30.441 Z-1.007
X-20.58 Y-30.45 Z-1.008
X-20.8 Y-30.499 Z-1.016
X-20.883 Y-30.513 Z-1.019
X-21.106 Y-30.537 Z-1.026
X-21.19 Y-30.542 Z-1.029
X-21.415 Y-30.541 Z-1.037
X-21.499 Y-30.536 Z-1.04
X-21.723 Y-30.51 Z-1.048
X-21.806 Y-30.495 Z-1.051
X-22.025 Y-30.445 Z-1.059
X-22.105 Y-30.421 Z-1.062
X-22.317 Y-30.346 Z-1.07
X-22.395 Y-30.313 Z-1.072
X-22.597 Y-30.215 Z-1.08
X-22.671 Y-30.174 Z-1.083
X-22.86 Y-30.054 Z-1.091
X-22.928 Y-30.005 Z-1.094
X-23.103 Y-29.864 Z-1.102
X-23.166 Y-29.807 Z-1.105
X-23.324 Y-29.648 Z-1.113
X-23.38 Y-29.584 Z-1.116
X-23.519 Y-29.408 Z-1.123
X-23.567 Y-29.339 Z-1.126
X-23.686 Y-29.149 Z-1.134
X-23.726 Y-29.075 Z-1.137
X-23.822 Y-28.872 Z-1.145
X-23.854 Y-28.793 Z-1.148
X-23.927 Y-28.581 Z-1.156
X-23.95 Y-28.5 Z-1.159
X-23.999 Y-28.281 Z-1.167
X-24.012 Y-28.198 Z-1.17
X-24.036 Y-27.975 Z-1.177
X-24.04 Y-27.933 Z-1.179
G3 X-24.113 Y-27.332 Z-1.2 I-4.245 J-0.213
X-28.011 Y-23.905 I-4.171 J-0.814 F600
G1 X-28.053 Y-23.901
X-28.278 Y-23.874
X-28.361 Y-23.859
X-28.58 Y-23.807
X-28.662 Y-23.783
X-28.874 Y-23.706
X-28.951 Y-23.673
X-29.153 Y-23.574
X-29.227 Y-23.532
X-29.416 Y-23.41
X-29.485 Y-23.36
X-29.659 Y-23.218
X-29.722 Y-23.161
X-29.879 Y-23
X-29.935 Y-22.936
X-30.073 Y-22.759
X-30.121 Y-22.69
X-30.238 Y-22.498
X-30.278 Y-22.423
X-30.373 Y-22.219
X-30.405 Y-22.14
X-30.476 Y-21.927
X-30.499 Y-21.846
X-30.546 Y-21.626
X-30.559 Y-21.543
X-30.581 Y-21.318
X-30.585 Y-21.234
X-30.581 Y-21.009
X-30.575 Y-20.924
X-30.547 Y-20.701
X-30.532 Y-20.619
X-30.478 Y-20.4
X-30.469 Y-20.366
X-30.339 Y-19.921
X-30.214 Y-19.465
X-30.095 Y-18.991
X-29.979 Y-18.499
X-29.867 Y-17.989
X-29.76 Y-17.463
X-29.657 Y-16.921
X-29.558 Y-16.364
X-29.464 Y-15.791
X-29.374 Y-15.204
X-29.288 Y-14.603
X-29.206 Y-13.989
X-29.129 Y-13.363
X-29.055 Y-12.724
X-28.986 Y-12.073
X-28.921 Y-11.412
X-28.86 Y-10.74
X-28.803 Y-10.06
X-28.702 Y-8.67
X-28.616 Y-7.25
X-28.546 Y-5.803
X-28.492 Y-4.336
X-28.453 Y-2.854
X-28.441 Y-2.112
Z-0.6
X-28.43 Y-1.36
X-28.422 Y0.138
X-28.43 Y1.637
X-28.441 Y2.388
Z-1.2 F300
X-28.453 Y3.13 F600
X-28.492 Y4.613
X-28.546 Y6.08
X-28.616 Y7.526
X-28.702 Y8.947
X-28.803 Y10.337
X-28.86 Y11.017
X-28.921 Y11.689
X-28.986 Y12.35
X-29.055 Y13
X-29.129 Y13.639
X-29.206 Y14.266
X-29.288 Y14.88
X-29.374 Y15.481
X-29.464 Y16.068
X-29.558 Y16.641
X-29.657 Y17.198
X-29.76 Y17.74
X-29.867 Y18.266
X-29.979 Y18.775
X-30.095 Y19.267
X-30.214 Y19.742
X-30.339 Y20.198
X-30.469 Y20.643
X-30.478 Y20.676
X-30.532 Y20.895
X-30.547 Y20.979
X-30.575 Y21.202
X-30.581 Y21.286
X-30.584 Y21.512
X-30.581 Y21.596
X-30.559 Y21.82
X-30.546 Y21.904
X-30.498 Y22.124
X-30.476 Y22.205
X-30.404 Y22.419
X-30.373 Y22.498
X-30.277 Y22.701
X-30.237 Y22.776
X-30.12 Y22.967
X-30.072 Y23.037
X-29.934 Y23.214
X-29.878 Y23.278
X-29.72 Y23.439
X-29.658 Y23.496
X-29.484 Y23.638
X-29.415 Y23.688
X-29.226 Y23.809
X-29.153 Y23.851
X-28.95 Y23.95
X-28.872 Y23.983
X-28.661 Y24.06
X-28.58 Y24.084
X-28.361 Y24.136
X-28.278 Y24.15
X-28.054 Y24.177
X-28.012 Y24.181
G3 X-24.051 Y28.041 I-0.272 J4.241
G1 X-24.046 Y28.083
X-24.013 Y28.307
X-23.996 Y28.391
X-23.938 Y28.61
X-23.912 Y28.69
X-23.829 Y28.901
X-23.794 Y28.978
X-23.688 Y29.179
X-23.644 Y29.251
X-23.516 Y29.438
X-23.464 Y29.506
X-23.316 Y29.677
X-23.257 Y29.738
X-23.091 Y29.891
X-23.025 Y29.945
X-22.843 Y30.078
X-22.772 Y30.125
X-22.575 Y30.237
X-22.499 Y30.275
X-22.29 Y30.364
X-22.211 Y30.393
X-21.994 Y30.458
X-21.912 Y30.478
X-21.69 Y30.518
X-21.605 Y30.528
X-21.379 Y30.543
X-21.294 Y30.544
X-21.068 Y30.533
X-20.984 Y30.524
X-20.761 Y30.488
X-20.678 Y30.469
X-20.46 Y30.408
X-20.427 Y30.398
X-19.977 Y30.249
X-19.516 Y30.107
X-19.038 Y29.97
X-18.543 Y29.838
X-18.031 Y29.711
X-17.503 Y29.589
X-16.96 Y29.471
X-16.402 Y29.359
X-15.829 Y29.251
X-15.243 Y29.148
X-14.643 Y29.05
X-14.031 Y28.957
X-13.406 Y28.868
X-12.769 Y28.784
X-12.122 Y28.705
X-11.464 Y28.631
X-10.796 Y28.561
X-10.12 Y28.497
X-8.738 Y28.38
X-7.328 Y28.283
X-5.893 Y28.203
X-4.437 Y28.141
X-2.967 Y28.097
X-2.25 Y28.084
Z-0.6
X-1.486 Y28.07
X0 Y28.062
X1.486 Y28.07
X2.25 Y28.084
Z-1.2 F300
X2.967 Y28.097 F600
X4.437 Y28.141
X5.893 Y28.203
X7.328 Y28.283
X8.738 Y28.38
X10.12 Y28.497
X10.796 Y28.561
X11.464 Y28.631
X12.122 Y28.705
X12.769 Y28.784
X13.406 Y28.868
X14.031 Y28.957
X14.643 Y29.05
X15.243 Y29.148
X15.829 Y29.251
X16.402 Y29.359
X16.96 Y29.471
X17.503 Y29.589
X18.031 Y29.711
X18.543 Y29.838
X19.038 Y29.97
X19.516 Y30.107
X19.977 Y30.249
X20.427 Y30.398
X20.46 Y30.408
X20.678 Y30.47
X20.761 Y30.488
X20.984 Y30.524
X21.069 Y30.533
X21.295 Y30.544
X21.38 Y30.543
X21.606 Y30.528
X21.69 Y30.518
X21.913 Y30.477
X21.996 Y30.457
X22.213 Y30.392
X22.293 Y30.363
X22.5 Y30.274
X22.577 Y30.236
X22.773 Y30.124
X22.844 Y30.078
X23.026 Y29.944
X23.092 Y29.89
X23.258 Y29.737
X23.318 Y29.675
X23.465 Y29.504
X23.517 Y29.437
X23.644 Y29.25
X23.688 Y29.178
X23.794 Y28.978
X23.829 Y28.9
X23.912 Y28.69
X23.938 Y28.609
X23.996 Y28.391
X24.013 Y28.307
X24.046 Y28.083
X24.051 Y28.041
G3 X28.012 Y24.181 I4.233 J0.381
G1 X28.054 Y24.177
X28.278 Y24.15
X28.361 Y24.136
X28.58 Y24.084
X28.662 Y24.059
X28.874 Y23.983
X28.951 Y23.95
X29.153 Y23.85
X29.227 Y23.808
X29.416 Y23.687
X29.485 Y23.637
X29.659 Y23.495
X29.722 Y23.437
X29.879 Y23.276
X29.935 Y23.213
X30.073 Y23.036
X30.121 Y22.966
X30.238 Y22.774
X30.278 Y22.7
X30.373 Y22.496
X30.405 Y22.417
X30.476 Y22.204
X30.499 Y22.122
X30.546 Y21.902
X30.559 Y21.819
X30.581 Y21.595
X30.585 Y21.51
X30.581 Y21.285
X30.575 Y21.201
X30.547 Y20.978
X30.532 Y20.895
X30.478 Y20.676
X30.469 Y20.643
X30.339 Y20.198
X30.214 Y19.742
X30.095 Y19.267
X29.979 Y18.775
X29.867 Y18.266
X29.76 Y17.74
X29.657 Y17.198
X29.558 Y16.641
X29.464 Y16.068
X29.374 Y15.481
X29.288 Y14.88
X29.206 Y14.266
X29.129 Y13.639
X29.055 Y13
X28.986 Y12.35
X28.921 Y11.689
X28.86 Y11.017
X28.803 Y10.337
X28.702 Y8.947
X28.616 Y7.526
X28.546 Y6.08
X28.492 Y4.613
X28.453 Y3.13
X28.441 Y2.388
Z-0.6
X28.43 Y1.637
X28.422 Y0.138
X28.43 Y-1.36
X28.441 Y-2.112
Z-1.2 F300
X28.453 Y-2.854 F600
X28.492 Y-4.336
X28.546 Y-5.803
X28.616 Y-7.25
X28.702 Y-8.67
X28.803 Y-10.06
X28.86 Y-10.74
X28.921 Y-11.412
X28.986 Y-12.073
X29.055 Y-12.724
X29.129 Y-13.363
X29.206 Y-13.989
X29.288 Y-14.603
X29.374 Y-15.204
X29.464 Y-15.791
X29.558 Y-16.364
X29.657 Y-16.921
X29.76 Y-17.463
X29.867 Y-17.989
X29.979 Y-18.499
X30.095 Y-18.991
X30.214 Y-19.465
X30.339 Y-19.921
X30.469 Y-20.366
X30.478 Y-20.4
X30.532 Y-20.619
X30.547 Y-20.702
X30.575 Y-20.925
X30.581 Y-21.009
X30.584 Y-21.235
X30.581 Y-21.319
X30.559 Y-21.543
X30.546 Y-21.627
X30.498 Y-21.847
X30.476 Y-21.929
X30.404 Y-22.143
X30.373 Y-22.221
X30.277 Y-22.425
X30.237 Y-22.499
X30.12 Y-22.691
X30.072 Y-22.76
X29.933 Y-22.938
X29.878 Y-23.001
X29.72 Y-23.162
X29.658 Y-23.219
X29.484 Y-23.361
X29.415 Y-23.411
X29.226 Y-23.532
X29.152 Y-23.574
X28.95 Y-23.674
X28.872 Y-23.707
X28.661 Y-23.783
X28.58 Y-23.807
X28.361 Y-23.859
X28.278 Y-23.874
X28.054 Y-23.901
X28.012 Y-23.905
G3 X24.04 Y-27.933 I0.272 J-4.241
G1 X24.036 Y-27.975
X24.012 Y-28.198
X23.999 Y-28.282
X23.95 Y-28.501
X23.927 Y-28.582
X23.854 Y-28.795
X23.822 Y-28.872
X23.726 Y-29.076
X23.685 Y-29.15
X23.566 Y-29.341
X23.518 Y-29.409
X23.379 Y-29.586
X23.322 Y-29.649
X23.164 Y-29.809
X23.102 Y-29.865
X22.927 Y-30.005
X22.859 Y-30.054
X22.669 Y-30.175
X22.595 Y-30.216
X22.393 Y-30.314
X22.315 Y-30.347
X22.104 Y-30.421
X22.023 Y-30.445
X21.805 Y-30.496
X21.722 Y-30.51
X21.498 Y-30.536
X21.414 Y-30.541
X21.189 Y-30.542
X21.105 Y-30.537
X20.883 Y-30.513
X20.799 Y-30.499
X20.58 Y-30.45
X20.547 Y-30.441
X20.104 Y-30.32
X19.65 Y-30.204
X19.177 Y-30.093
X18.686 Y-29.985
X18.178 Y-29.881
X17.653 Y-29.782
X17.111 Y-29.686
X16.554 Y-29.594
X15.981 Y-29.506
X15.393 Y-29.423
X14.792 Y-29.343
X14.177 Y-29.267
X13.549 Y-29.195
X12.909 Y-29.126
X12.257 Y-29.062
X11.594 Y-29.001
X10.92 Y-28.945
X10.238 Y-28.892
X8.843 Y-28.797
X7.418 Y-28.717
X5.966 Y-28.652
X4.493 Y-28.602
X3.005 Y-28.566
X2.25 Y-28.555
Z-0.6
X1.505 Y-28.544
X0 Y-28.537
X-1.505 Y-28.544
X-2.25 Y-28.555
Z-1.2 F300
X-3.005 Y-28.566 F600
X-4.493 Y-28.602
X-5.966 Y-28.652
X-7.418 Y-28.717
X-8.843 Y-28.797
X-10.238 Y-28.892
X-10.92 Y-28.945
X-11.594 Y-29.001
X-12.257 Y-29.062
X-12.909 Y-29.126
X-13.549 Y-29.195
X-14.177 Y-29.267
X-14.792 Y-29.343
X-15.393 Y-29.423
X-15.981 Y-29.506
X-16.554 Y-29.594
X-17.111 Y-29.686
X-17.653 Y-29.782
X-18.178 Y-29.881
X-18.686 Y-29.985
X-19.177 Y-30.093
X-19.65 Y-30.204
X-20.104 Y-30.32
X-20.547 Y-30.441
X-20.58 Y-30.45
X-20.8 Y-30.499
X-20.883 Y-30.513
X-21.106 Y-30.537
X-21.19 Y-30.542
X-21.415 Y-30.541
X-21.499 Y-30.536
X-21.723 Y-30.51
X-21.806 Y-30.495
X-22.025 Y-30.445
X-22.105 Y-30.421
X-22.317 Y-30.346
X-22.395 Y-30.313
X-22.597 Y-30.215
X-22.671 Y-30.174
X-22.86 Y-30.054
X-22.928 Y-30.005
X-23.103 Y-29.864
X-23.166 Y-29.807
X-23.324 Y-29.648
X-23.38 Y-29.584
X-23.519 Y-29.408
X-23.567 Y-29.339
X-23.686 Y-29.149
X-23.726 Y-29.075
X-23.822 Y-28.872
X-23.854 Y-28.793
X-23.927 Y-28.581
X-23.95 Y-28.5
X-23.999 Y-28.281
X-24.012 Y-28.198
X-24.036 Y-27.975
X-24.04 Y-27.933
G3 X-24.113 Y-27.332 I-4.245 J-0.213
X-28.011 Y-23.905 Z-1.395 I-4.171 J-0.814 F1016
G1 X-28.053 Y-23.901 Z-1.396
X-28.278 Y-23.874 Z-1.404
X-28.361 Y-23.859 Z-1.407
X-28.58 Y-23.807 Z-1.415
X-28.662 Y-23.783 Z-1.418
X-28.874 Y-23.706 Z-1.426
X-28.951 Y-23.673 Z-1.429
X-29.153 Y-23.574 Z-1.437
X-29.227 Y-23.532 Z-1.44
X-29.416 Y-23.41 Z-1.448
X-29.485 Y-23.36 Z-1.451
X-29.659 Y-23.218 Z-1.458
X-29.722 Y-23.161 Z-1.461
X-29.879 Y-23 Z-1.469
X-29.935 Y-22.936 Z-1.472
X-30.073 Y-22.759 Z-1.48
X-30.121 Y-22.69 Z-1.483
X-30.238 Y-22.498 Z-1.491
X-30.278 Y-22.423 Z-1.494
X-30.353 Y-22.264 Z-1.5
X-30.373 Y-22.219 F600
X-30.405 Y-22.14
X-30.476 Y-21.927
X-30.499 Y-21.846
X-30.546 Y-21.626
X-30.559 Y-21.543
X-30.581 Y-21.318
X-30.585 Y-21.234
X-30.581 Y-21.009
X-30.575 Y-20.924
X-30.547 Y-20.701
X-30.532 Y-20.619
X-30.478 Y-20.4
X-30.469 Y-20.366
X-30.339 Y-19.921
X-30.214 Y-19.465
X-30.095 Y-18.991
X-29.979 Y-18.499
X-29.867 Y-17.989
X-29.76 Y-17.463
X-29.657 Y-16.921
X-29.558 Y-16.364
X-29.464 Y-15.791
X-29.374 Y-15.204
X-29.288 Y-14.603
X-29.206 Y-13.989
X-29.129 Y-13.363
X-29.055 Y-12.724
X-28.986 Y-12.073
X-28.921 Y-11.412
X-28.86 Y-10.74
X-28.803 Y-10.06
X-28.702 Y-8.67
X-28.616 Y-7.25
X-28.546 Y-5.803
X-28.492 Y-4.336
X-28.453 Y-2.854
X-28.441 Y-2.112
Z-0.6
X-28.43 Y-1.36
X-28.422 Y0.138
X-28.43 Y1.637
X-28.441 Y2.388
Z-1.5 F300
X-28.453 Y3.13 F600
X-28.492 Y4.613
X-28.546 Y6.08
X-28.616 Y7.526
X-28.702 Y8.947
X-28.803 Y10.337
X-28.86 Y11.017
X-28.921 Y11.689
X-28.986 Y12.35
X-29.055 Y13
X-29.129 Y13.639
X-29.206 Y14.266
X-29.288 Y14.88
X-29.374 Y15.481
X-29.464 Y16.068
X-29.558 Y16.641
X-29.657 Y17.198
X-29.76 Y17.74
X-29.867 Y18.266
X-29.979 Y18.775
X-30.095 Y19.267
X-30.214 Y19.742
X-30.339 Y20.198
X-30.469 Y20.643
X-30.478 Y20.676
X-30.532 Y20.895
X-30.547 Y20.979
X-30.575 Y21.202
X-30.581 Y21.286
X-30.584 Y21.512
X-30.581 Y21.596
X-30.559 Y21.82
X-30.546 Y21.904
X-30.498 Y22.124
X-30.476 Y22.205
X-30.404 Y22.419
X-30.373 Y22.498
X-30.277 Y22.701
X-30.237 Y22.776
X-30.12 Y22.967
X-30.072 Y23.037
X-29.934 Y23.214
X-29.878 Y23.278
X-29.72 Y23.439
X-29.658 Y23.496
X-29.484 Y23.638
X-29.415 Y23.688
X-29.226 Y23.809
X-29.153 Y23.851
X-28.95 Y23.95
X-28.872 Y23.983
X-28.661 Y24.06
X-28.58 Y24.084
X-28.361 Y24.136
X-28.278 Y24.15
X-28.054 Y24.177
X-28.012 Y24.181
G3 X-24.051 Y28.041 I-0.272 J4.241
G1 X-24.046 Y28.083
X-24.013 Y28.307
X-23.996 Y28.391
X-23.938 Y28.61
X-23.912 Y28.69
X-23.829 Y28.901
X-23.794 Y28.978
X-23.688 Y29.179
X-23.644 Y29.251
X-23.516 Y29.438
X-23.464 Y29.506
X-23.316 Y29.677
X-23.257 Y29.738
X-23.091 Y29.891
X-23.025 Y29.945
X-22.843 Y30.078
X-22.772 Y30.125
X-22.575 Y30.237
X-22.499 Y30.275
X-22.29 Y30.364
X-22.211 Y30.393
X-21.994 Y30.458
X-21.912 Y30.478
X-21.69 Y30.518
X-21.605 Y30.528
X-21.379 Y30.543
X-21.294 Y30.544
X-21.068 Y30.533
X-20.984 Y30.524
X-20.761 Y30.488
X-20.678 Y30.469
X-20.46 Y30.408
X-20.427 Y30.398
X-19.977 Y30.249
X-19.516 Y30.107
X-19.038 Y29.97
X-18.543 Y29.838
X-18.031 Y29.711
X-17.503 Y29.589
X-16.96 Y29.471
X-16.402 Y29.359
X-15.829 Y29.251
X-15.243 Y29.148
X-14.643 Y29.05
X-14.031 Y28.957
X-13.406 Y28.868
X-12.769 Y28.784
X-12.122 Y28.705
X-11.464 Y28.631
X-10.796 Y28.561
X-10.12 Y28.497
X-8.738 Y28.38
X-7.328 Y28.283
X-5.893 Y28.203
X-4.437 Y28.141
X-2.967 Y28.097
X-2.25 Y28.084
Z-0.6
X-1.486 Y28.07
X0 Y28.062
X1.486 Y28.07
X2.25 Y28.084
Z-1.5 F300
X2.967 Y28.097 F600
X4.437 Y28.141
X5.893 Y28.203
X7.328 Y28.283
X8.738 Y28.38
X10.12 Y28.497
X10.796 Y28.561
X11.464 Y28.631
X12.122 Y28.705
X12.769 Y28.784
X13.406 Y28.868
X14.031 Y28.957
X14.643 Y29.05
X15.243 Y29.148
X15.829 Y29.251
X16.402 Y29.359
X16.96 Y29.471
X17.503 Y29.589
X18.031 Y29.711
X18.543 Y29.838
X19.038 Y29.97
X19.516 Y30.107
X19.977 Y30.249
X20.427 Y30.398
X20.46 Y30.408
X20.678 Y30.47
X20.761 Y30.488
X20.984 Y30.524
X21.069 Y30.533
X21.295 Y30.544
X21.38 Y30.543
X21.606 Y30.528
X21.69 Y30.518
X21.913 Y30.477
X21.996 Y30.457
X22.213 Y30.392
X22.293 Y30.363
X22.5 Y30.274
X22.577 Y30.236
X22.773 Y30.124
X22.844 Y30.078
X23.026 Y29.944
X23.092 Y29.89
X23.258 Y29.737
X23.318 Y29.675
X23.465 Y29.504
X23.517 Y29.437
X23.644 Y29.25
X23.688 Y29.178
X23.794 Y28.978
X23.829 Y28.9
X23.912 Y28.69
X23.938 Y28.609
X23.996 Y28.391
X24.013 Y28.307
X24.046 Y28.083
X24.051 Y28.041
G3 X28.012 Y24.181 I4.233 J0.381
G1 X28.054 Y24.177
X28.278 Y24.15
X28.361 Y24.136
X28.58 Y24.084
X28.662 Y24.059
X28.874 Y23.983
X28.951 Y23.95
X29.153 Y23.85
X29.227 Y23.808
X29.416 Y23.687
X29.485 Y23.637
X29.659 Y23.495
X29.722 Y23.437
X29.879 Y23.276
X29.935 Y23.213
X30.073 Y23.036
X30.121 Y22.966
X30.238 Y22.774
X30.278 Y22.7
X30.373 Y22.496
X30.405 Y22.417
X30.476 Y22.204
X30.499 Y22.122
X30.546 Y21.902
X30.559 Y21.819
X30.581 Y21.595
X30.585 Y21.51
X30.581 Y21.285
X30.575 Y21.201
X30.547 Y20.978
X30.532 Y20.895
X30.478 Y20.676
X30.469 Y20.643
X30.339 Y20.198
X30.214 Y19.742
X30.095 Y19.267
X29.979 Y18.775
X29.867 Y18.266
X29.76 Y17.74
X29.657 Y17.198
X29.558 Y16.641
X29.464 Y16.068
X29.374 Y15.481
X29.288 Y14.88
X29.206 Y14.266
X29.129 Y13.639
X29.055 Y13
X28.986 Y12.35
X28.921 Y11.689
X28.86 Y11.017
X28.803 Y10.337
X28.702 Y8.947
X28.616 Y7.526
X28.546 Y6.08
X28.492 Y4.613
X28.453 Y3.13
X28.441 Y2.388
Z-0.6
X28.43 Y1.637
X28.422 Y0.138
X28.43 Y-1.36
X28.441 Y-2.112
Z-1.5 F300
X28.453 Y-2.854 F600
X28.492 Y-4.336
X28.546 Y-5.803
X28.616 Y-7.25
X28.702 Y-8.67
X28.803 Y-10.06
X28.86 Y-10.74
X28.921 Y-11.412
X28.986 Y-12.073
X29.055 Y-12.724
X29.129 Y-13.363
X29.206 Y-13.989
X29.288 Y-14.603
X29.374 Y-15.204
X29.464 Y-15.791
X29.558 Y-16.364
X29.657 Y-16.921
X29.76 Y-17.463
X29.867 Y-17.989
X29.979 Y-18.499
X30.095 Y-18.991
X30.214 Y-19.465
X30.339 Y-19.921
X30.469 Y-20.366
X30.478 Y-20.4
X30.532 Y-20.619
X30.547 Y-20.702
X30.575 Y-20.925
X30.581 Y-21.009
X30.584 Y-21.235
X30.581 Y-21.319
X30.559 Y-21.543
X30.546 Y-21.627
X30.498 Y-21.847
X30.476 Y-21.929
X30.404 Y-22.143
X30.373 Y-22.221
X30.277 Y-22.425
X30.237 Y-22.499
X30.12 Y-22.691
X30.072 Y-22.76
X29.933 Y-22.938
X29.878 Y-23.001
X29.72 Y-23.162
X29.658 Y-23.219
X29.484 Y-23.361
X29.415 Y-23.411
X29.226 Y-23.532
X29.152 Y-23.574
X28.95 Y-23.674
X28.872 Y-23.707
X28.661 Y-23.783
X28.58 Y-23.807
X28.361 Y-23.859
X28.278 Y-23.874
X28.054 Y-23.901
X28.012 Y-23.905
G3 X24.04 Y-27.933 I0.272 J-4.241
G1 X24.036 Y-27.975
X24.012 Y-28.198
X23.999 Y-28.282
X23.95 Y-28.501
X23.927 Y-28.582
X23.854 Y-28.795
X23.822 Y-28.872
X23.726 Y-29.076
X23.685 Y-29.15
X23.566 Y-29.341
X23.518 Y-29.409
X23.379 Y-29.586
X23.322 Y-29.649
X23.164 Y-29.809
X23.102 Y-29.865
X22.927 Y-30.005
X22.859 Y-30.054
X22.669 Y-30.175
X22.595 Y-30.216
X22.393 Y-30.314
X22.315 Y-30.347
X22.104 Y-30.421
X22.023 Y-30.445
X21.805 Y-30.496
X21.722 Y-30.51
X21.498 Y-30.536
X21.414 Y-30.541
X21.189 Y-30.542
X21.105 Y-30.537
X20.883 Y-30.513
X20.799 Y-30.499
X20.58 Y-30.45
X20.547 Y-30.441
X20.104 Y-30.32
X19.65 Y-30.204
X19.177 Y-30.093
X18.686 Y-29.985
X18.178 Y-29.881
X17.653 Y-29.782
X17.111 Y-29.686
X16.554 Y-29.594
X15.981 Y-29.506
X15.393 Y-29.423
X14.792 Y-29.343
X14.177 Y-29.267
X13.549 Y-29.195
X12.909 Y-29.126
X12.257 Y-29.062
X11.594 Y-29.001
X10.92 Y-28.945
X10.238 Y-28.892
X8.843 Y-28.797
X7.418 Y-28.717
X5.966 Y-28.652
X4.493 Y-28.602
X3.005 Y-28.566
X2.25 Y-28.555
Z-0.6
X1.505 Y-28.544
X0 Y-28.537
X-1.505 Y-28.544
X-2.25 Y-28.555
Z-1.5 F300
X-3.005 Y-28.566 F600
X-4.493 Y-28.602
X-5.966 Y-28.652
X-7.418 Y-28.717
X-8.843 Y-28.797
X-10.238 Y-28.892
X-10.92 Y-28.945
X-11.594 Y-29.001
X-12.257 Y-29.062
X-12.909 Y-29.126
X-13.549 Y-29.195
X-14.177 Y-29.267
X-14.792 Y-29.343
X-15.393 Y-29.423
X-15.981 Y-29.506
X-16.554 Y-29.594
X-17.111 Y-29.686
X-17.653 Y-29.782
X-18.178 Y-29.881
X-18.686 Y-29.985
X-19.177 Y-30.093
X-19.65 Y-30.204
X-20.104 Y-30.32
X-20.547 Y-30.441
X-20.58 Y-30.45
X-20.8 Y-30.499
X-20.883 Y-30.513
X-21.106 Y-30.537
X-21.19 Y-30.542
X-21.415 Y-30.541
X-21.499 Y-30.536
X-21.723 Y-30.51
X-21.806 Y-30.495
X-22.025 Y-30.445
X-22.105 Y-30.421
X-22.317 Y-30.346
X-22.395 Y-30.313
X-22.597 Y-30.215
X-22.671 Y-30.174
X-22.86 Y-30.054
X-22.928 Y-30.005
X-23.103 Y-29.864
X-23.166 Y-29.807
X-23.324 Y-29.648
X-23.38 Y-29.584
X-23.519 Y-29.408
X-23.567 Y-29.339
X-23.686 Y-29.149
X-23.726 Y-29.075
X-23.822 Y-28.872
X-23.854 Y-28.793
X-23.927 Y-28.581
X-23.95 Y-28.5
X-23.999 Y-28.281
X-24.012 Y-28.198
X-24.036 Y-27.975
X-24.04 Y-27.933
G3 X-28.011 Y-23.905 I-4.245 J-0.213
G1 X-28.053 Y-23.901
X-28.278 Y-23.874
X-28.361 Y-23.859
X-28.58 Y-23.807
X-28.662 Y-23.783
X-28.874 Y-23.706
X-28.951 Y-23.673
X-29.153 Y-23.574
X-29.227 Y-23.532
X-29.416 Y-23.41
X-29.485 Y-23.36
X-29.659 Y-23.218
X-29.722 Y-23.161
X-29.879 Y-23
X-29.935 Y-22.936
X-30.073 Y-22.759
X-30.121 Y-22.69
X-30.238 Y-22.498
X-30.278 Y-22.423
X-30.353 Y-22.264
X-30.373 Y-22.219 Z-1.502 F1016
X-30.405 Y-22.14 Z-1.505
X-30.476 Y-21.927 Z-1.513
X-30.499 Y-21.846 Z-1.515
X-30.546 Y-21.626 Z-1.523
X-30.559 Y-21.543 Z-1.526
X-30.581 Y-21.318 Z-1.534
X-30.585 Y-21.234 Z-1.537
X-30.581 Y-21.009 Z-1.545
X-30.575 Y-20.924 Z-1.548
X-30.547 Y-20.701 Z-1.556
X-30.532 Y-20.619 Z-1.559
X-30.478 Y-20.4 Z-1.567
X-30.469 Y-20.366 Z-1.568
X-30.339 Y-19.921 Z-1.584
X-30.218 Y-19.479 Z-1.6
X-30.214 Y-19.465 F600
X-30.095 Y-18.991
X-29.979 Y-18.499
X-29.867 Y-17.989
X-29.76 Y-17.463
X-29.657 Y-16.921
X-29.558 Y-16.364
X-29.464 Y-15.791
X-29.374 Y-15.204
X-29.288 Y-14.603
X-29.206 Y-13.989
X-29.129 Y-13.363
X-29.055 Y-12.724
X-28.986 Y-12.073
X-28.921 Y-11.412
X-28.86 Y-10.74
X-28.803 Y-10.06
X-28.702 Y-8.67
X-28.616 Y-7.25
X-28.546 Y-5.803
X-28.492 Y-4.336
X-28.453 Y-2.854
X-28.441 Y-2.112
Z-0.6
X-28.43 Y-1.36
X-28.422 Y0.138
X-28.43 Y1.637
X-28.441 Y2.388
Z-1.6 F300
X-28.453 Y3.13 F600
X-28.492 Y4.613
X-28.546 Y6.08
X-28.616 Y7.526
X-28.702 Y8.947
X-28.803 Y10.337
X-28.86 Y11.017
X-28.921 Y11.689
X-28.986 Y12.35
X-29.055 Y13
X-29.129 Y13.639
X-29.206 Y14.266
X-29.288 Y14.88
X-29.374 Y15.481
X-29.464 Y16.068
X-29.558 Y16.641
X-29.657 Y17.198
X-29.76 Y17.74
X-29.867 Y18.266
X-29.979 Y18.775
X-30.095 Y19.267
X-30.214 Y19.742
X-30.339 Y20.198
X-30.469 Y20.643
X-30.478 Y20.676
X-30.532 Y20.895
X-30.547 Y20.979
X-30.575 Y21.202
X-30.581 Y21.286
X-30.584 Y21.512
X-30.581 Y21.596
X-30.559 Y21.82
X-30.546 Y21.904
X-30.498 Y22.124
X-30.476 Y22.205
X-30.404 Y22.419
X-30.373 Y22.498
X-30.277 Y22.701
X-30.237 Y22.776
X-30.12 Y22.967
X-30.072 Y23.037
X-29.934 Y23.214
X-29.878 Y23.278
X-29.72 Y23.439
X-29.658 Y23.496
X-29.484 Y23.638
X-29.415 Y23.688
X-29.226 Y23.809
X-29.153 Y23.851
X-28.95 Y23.95
X-28.872 Y23.983
X-28.661 Y24.06
X-28.58 Y24.084
X-28.361 Y24.136
X-28.278 Y24.15
X-28.054 Y24.177
X-28.012 Y24.181
G3 X-24.051 Y28.041 I-0.272 J4.241
G1 X-24.046 Y28.083
X-24.013 Y28.307
X-23.996 Y28.391
X-23.938 Y28.61
X-23.912 Y28.69
X-23.829 Y28.901
X-23.794 Y28.978
X-23.688 Y29.179
X-23.644 Y29.251
X-23.516 Y29.438
X-23.464 Y29.506
X-23.316 Y29.677
X-23.257 Y29.738
X-23.091 Y29.891
X-23.025 Y29.945
X-22.843 Y30.078
X-22.772 Y30.125
X-22.575 Y30.237
X-22.499 Y30.275
X-22.29 Y30.364
X-22.211 Y30.393
X-21.994 Y30.458
X-21.912 Y30.478
X-21.69 Y30.518
X-21.605 Y30.528
X-21.379 Y30.543
X-21.294 Y30.544
X-21.068 Y30.533
X-20.984 Y30.524
X-20.761 Y30.488
X-20.678 Y30.469
X-20.46 Y30.408
X-20.427 Y30.398
X-19.977 Y30.249
X-19.516 Y30.107
X-19.038 Y29.97
X-18.543 Y29.838
X-18.031 Y29.711
X-17.503 Y29.589
X-16.96 Y29.471
X-16.402 Y29.359
X-15.829 Y29.251
X-15.243 Y29.148
X-14.643 Y29.05
X-14.031 Y28.957
X-13.406 Y28.868
X-12.769 Y28.784
X-12.122 Y28.705
X-11.464 Y28.631
X-10.796 Y28.561
X-10.12 Y28.497
X-8.738 Y28.38
X-7.328 Y28.283
X-5.893 Y28.203
X-4.437 Y28.141
X-2.967 Y28.097
X-2.25 Y28.084
Z-0.6
X-1.486 Y28.07
X0 Y28.062
X1.486 Y28.07
X2.25 Y28.084
Z-1.6 F300
X2.967 Y28.097 F600
X4.437 Y28.141
X5.893 Y28.203
X7.328 Y28.283
X8.738 Y28.38
X10.12 Y28.497
X10.796 Y28.561
X11.464 Y28.631
X12.122 Y28.705
X12.769 Y28.784
X13.406 Y28.868
X14.031 Y28.957
X14.643 Y29.05
X15.243 Y29.148
X15.829 Y29.251
X16.402 Y29.359
X16.96 Y29.471
X17.503 Y29.589
X18.031 Y29.711
X18.543 Y29.838
X19.038 Y29.97
X19.516 Y30.107
X19.977 Y30.249
X20.427 Y30.398
X20.46 Y30.408
X20.678 Y30.47
X20.761 Y30.488
X20.984 Y30.524
X21.069 Y30.533
X21.295 Y30.544
X21.38 Y30.543
X21.606 Y30.528
X21.69 Y30.518
X21.913 Y30.477
X21.996 Y30.457
X22.213 Y30.392
X22.293 Y30.363
X22.5 Y30.274
X22.577 Y30.236
X22.773 Y30.124
X22.844 Y30.078
X23.026 Y29.944
X23.092 Y29.89
X23.258 Y29.737
X23.318 Y29.675
X23.465 Y29.504
X23.517 Y29.437
X23.644 Y29.25
X23.688 Y29.178
X23.794 Y28.978
X23.829 Y28.9
X23.912 Y28.69
X23.938 Y28.609
X23.996 Y28.391
X24.013 Y28.307
X24.046 Y28.083
X24.051 Y28.041
G3 X28.012 Y24.181 I4.233 J0.381
G1 X28.054 Y24.177
X28.278 Y24.15
X28.361 Y24.136
X28.58 Y24.084
X28.662 Y24.059
X28.874 Y23.983
X28.951 Y23.95
X29.153 Y23.85
X29.227 Y23.808
X29.416 Y23.687
X29.485 Y23.637
X29.659 Y23.495
X29.722 Y23.437
X29.879 Y23.276
X29.935 Y23.213
X30.073 Y23.036
X30.121 Y22.966
X30.238 Y22.774
X30.278 Y22.7
X30.373 Y22.496
X30.405 Y22.417
X30.476 Y22.204
X30.499 Y22.122
X30.546 Y21.902
X30.559 Y21.819
X30.581 Y21.595
X30.585 Y21.51
X30.581 Y21.285
X30.575 Y21.201
X30.547 Y20.978
X30.532 Y20.895
X30.478 Y20.676
X30.469 Y20.643
X30.339 Y20.198
X30.214 Y19.742
X30.095 Y19.267
X29.979 Y18.775
X29.867 Y18.266
X29.76 Y17.74
X29.657 Y17.198
X29.558 Y16.641
X29.464 Y16.068
X29.374 Y15.481
X29.288 Y14.88
X29.206 Y14.266
X29.129 Y13.639
X29.055 Y13
X28.986 Y12.35
X28.921 Y11.689
X28.86 Y11.017
X28.803 Y10.337
X28.702 Y8.947
X28.616 Y7.526
X28.546 Y6.08
X28.492 Y4.613
X28.453 Y3.13
X28.441 Y2.388
Z-0.6
X28.43 Y1.637
X28.422 Y0.138
X28.43 Y-1.36
X28.441 Y-2.112
Z-1.6 F300
X28.453 Y-2.854 F600
X28.492 Y-4.336
X28.546 Y-5.803
X28.616 Y-7.25
X28.702 Y-8.67
X28.803 Y-10.06
X28.86 Y-10.74
X28.921 Y-11.412
X28.986 Y-12.073
X29.055 Y-12.724
X29.129 Y-13.363
X29.206 Y-13.989
X29.288 Y-14.603
X29.374 Y-15.204
X29.464 Y-15.791
X29.558 Y-16.364
X29.657 Y-16.921
X29.76 Y-17.463
X29.867 Y-17.989
X29.979 Y-18.499
X30.095 Y-18.991
X30.214 Y-19.465
X30.339 Y-19.921
X30.469 Y-20.366
X30.478 Y-20.4
X30.532 Y-20.619
X30.547 Y-20.702
X30.575 Y-20.925
X30.581 Y-21.009
X30.584 Y-21.235
X30.581 Y-21.319
X30.559 Y-21.543
X30.546 Y-21.627
X30.498 Y-21.847
X30.476 Y-21.929
X30.404 Y-22.143
X30.373 Y-22.221
X30.277 Y-22.425
X30.237 Y-22.499
X30.12 Y-22.691
X30.072 Y-22.76
X29.933 Y-22.938
X29.878 Y-23.001
X29.72 Y-23.162
X29.658 Y-23.219
X29.484 Y-23.361
X29.415 Y-23.411
X29.226 Y-23.532
X29.152 Y-23.574
X28.95 Y-23.674
X28.872 Y-23.707
X28.661 Y-23.783
X28.58 Y-23.807
X28.361 Y-23.859
X28.278 Y-23.874
X28.054 Y-23.901
X28.012 Y-23.905
G3 X24.04 Y-27.933 I0.272 J-4.241
G1 X24.036 Y-27.975
X24.012 Y-28.198
X23.999 Y-28.282
X23.95 Y-28.501
X23.927 Y-28.582
X23.854 Y-28.795
X23.822 Y-28.872
X23.726 Y-29.076
X23.685 Y-29.15
X23.566 Y-29.341
X23.518 Y-29.409
X23.379 Y-29.586
X23.322 Y-29.649
X23.164 Y-29.809
X23.102 Y-29.865
X22.927 Y-30.005
X22.859 Y-30.054
X22.669 Y-30.175
X22.595 Y-30.216
X22.393 Y-30.314
X22.315 Y-30.347
X22.104 Y-30.421
X22.023 Y-30.445
X21.805 Y-30.496
X21.722 Y-30.51
X21.498 Y-30.536
X21.414 Y-30.541
X21.189 Y-30.542
X21.105 Y-30.537
X20.883 Y-30.513
X20.799 Y-30.499
X20.58 Y-30.45
X20.547 Y-30.441
X20.104 Y-30.32
X19.65 Y-30.204
X19.177 Y-30.093
X18.686 Y-29.985
X18.178 Y-29.881
X17.653 Y-29.782
X17.111 Y-29.686
X16.554 Y-29.594
X15.981 Y-29.506
X15.393 Y-29.423
X14.792 Y-29.343
X14.177 Y-29.267
X13.549 Y-29.195
X12.909 Y-29.126
X12.257 Y-29.062
X11.594 Y-29.001
X10.92 Y-28.945
X10.238 Y-28.892
X8.843 Y-28.797
X7.418 Y-28.717
X5.966 Y-28.652
X4.493 Y-28.602
X3.005 Y-28.566
X2.25 Y-28.555
Z-0.6
X1.505 Y-28.544
X0 Y-28.537
X-1.505 Y-28.544
X-2.25 Y-28.555
Z-1.6 F300
X-3.005 Y-28.566 F600
X-4.493 Y-28.602
X-5.966 Y-28.652
X-7.418 Y-28.717
X-8.843 Y-28.797
X-10.238 Y-28.892
X-10.92 Y-28.945
X-11.594 Y-29.001
X-12.257 Y-29.062
X-12.909 Y-29.126
X-13.549 Y-29.195
X-14.177 Y-29.267
X-14.792 Y-29.343
X-15.393 Y-29.423
X-15.981 Y-29.506
X-16.554 Y-29.594
X-17.111 Y-29.686
X-17.653 Y-29.782
X-18.178 Y-29.881
X-18.686 Y-29.985
X-19.177 Y-30.093
X-19.65 Y-30.204
X-20.104 Y-30.32
X-20.547 Y-30.441
X-20.58 Y-30.45
X-20.8 Y-30.499
X-20.883 Y-30.513
X-21.106 Y-30.537
X-21.19 Y-30.542
X-21.415 Y-30.541
X-21.499 Y-30.536
X-21.723 Y-30.51
X-21.806 Y-30.495
X-22.025 Y-30.445
X-22.105 Y-30.421
X-22.317 Y-30.346
X-22.395 Y-30.313
X-22.597 Y-30.215
X-22.671 Y-30.174
X-22.86 Y-30.054
X-22.928 Y-30.005
X-23.103 Y-29.864
X-23.166 Y-29.807
X-23.324 Y-29.648
X-23.38 Y-29.584
X-23.519 Y-29.408
X-23.567 Y-29.339
X-23.686 Y-29.149
X-23.726 Y-29.075
X-23.822 Y-28.872
X-23.854 Y-28.793
X-23.927 Y-28.581
X-23.95 Y-28.5
X-23.999 Y-28.281
X-24.012 Y-28.198
X-24.036 Y-27.975
X-24.04 Y-27.933
G3 X-28.011 Y-23.905 I-4.245 J-0.213
G1 X-28.053 Y-23.901
X-28.278 Y-23.874
X-28.361 Y-23.859
X-28.58 Y-23.807
X-28.662 Y-23.783
X-28.874 Y-23.706
X-28.951 Y-23.673
X-29.153 Y-23.574
X-29.227 Y-23.532
X-29.416 Y-23.41
X-29.485 Y-23.36
X-29.659 Y-23.218
X-29.722 Y-23.161
X-29.879 Y-23
X-29.935 Y-22.936
X-30.073 Y-22.759
X-30.121 Y-22.69
X-30.238 Y-22.498
X-30.278 Y-22.423
X-30.373 Y-22.219
X-30.405 Y-22.14
X-30.476 Y-21.927
X-30.499 Y-21.846
X-30.546 Y-21.626
X-30.559 Y-21.543
X-30.581 Y-21.318
X-30.585 Y-21.234
X-30.581 Y-21.009
X-30.575 Y-20.924
X-30.547 Y-20.701
X-30.532 Y-20.619
X-30.478 Y-20.4
X-30.469 Y-20.366
X-30.339 Y-19.921
X-30.218 Y-19.479
G0 Z15
G28 G91 Z0
G90
G28 G91 X0 Y0
G90
M5
M30
