(1001)
G90 G94
G17
G21
(When using Fusion 360 for Personal Use, the feedrate of)
(rapid moves is reduced to match the feedrate of cutting)
(moves, which can increase machining time. Unrestricted rapid)
(moves are available with a Fusion 360 Subscription.)

(Bohrfrasen1)
S6000 M3
G54
G0 X-369.5 Y-7.5
Z15
G1 Z1.683 F1000
Z0
X-369.556 Y-7.556
X-369.549 Y-7.584
X-369.528 Y-7.605
X-369.5 Y-7.613
X-369.459 Y-7.605 Z-0.018
X-369.423 Y-7.582 Z-0.036
X-369.398 Y-7.548 Z-0.054
X-369.388 Y-7.508 Z-0.072
X-369.393 Y-7.466 Z-0.09
X-369.413 Y-7.429 Z-0.107
X-369.445 Y-7.402 Z-0.125
X-369.484 Y-7.389 Z-0.143
X-369.526 Y-7.391 Z-0.161
X-369.564 Y-7.408 Z-0.179
X-369.594 Y-7.438 Z-0.197
X-369.61 Y-7.476 Z-0.215
X-369.611 Y-7.518 Z-0.233
X-369.597 Y-7.558 Z-0.251
X-369.569 Y-7.589 Z-0.269
X-369.531 Y-7.608 Z-0.287
X-369.489 Y-7.612 Z-0.304
X-369.449 Y-7.6 Z-0.322
X-369.416 Y-7.575 Z-0.34
X-369.394 Y-7.539 Z-0.358
X-369.388 Y-7.497 Z-0.376
X-369.396 Y-7.456 Z-0.394
X-369.42 Y-7.421 Z-0.412
X-369.454 Y-7.397 Z-0.43
X-369.495 Y-7.388 Z-0.448
X-369.536 Y-7.394 Z-0.466
X-369.573 Y-7.414 Z-0.484
X-369.599 Y-7.447 Z-0.501
X-369.612 Y-7.487 Z-0.519
X-369.609 Y-7.529 Z-0.537
X-369.591 Y-7.567 Z-0.555
X-369.56 Y-7.595 Z-0.573
X-369.521 Y-7.611 Z-0.591
X-369.479 Z-0.609
X-369.44 Y-7.595 Z-0.627
X-369.409 Y-7.567 Z-0.645
X-369.391 Y-7.529 Z-0.663
X-369.388 Y-7.487 Z-0.681
X-369.401 Y-7.447 Z-0.699
X-369.427 Y-7.414 Z-0.716
X-369.464 Y-7.394 Z-0.734
X-369.505 Y-7.388 Z-0.752
X-369.546 Y-7.397 Z-0.77
X-369.58 Y-7.421 Z-0.788
X-369.604 Y-7.456 Z-0.806
X-369.612 Y-7.497 Z-0.824
X-369.606 Y-7.539 Z-0.842
X-369.584 Y-7.575 Z-0.86
X-369.551 Y-7.6 Z-0.878
X-369.511 Y-7.612 Z-0.896
X-369.469 Y-7.608 Z-0.913
X-369.431 Y-7.589 Z-0.931
X-369.403 Y-7.558 Z-0.949
X-369.389 Y-7.518 Z-0.967
X-369.39 Y-7.476 Z-0.985
X-369.406 Y-7.438 Z-1.003
X-369.436 Y-7.408 Z-1.021
X-369.474 Y-7.391 Z-1.039
X-369.516 Y-7.389 Z-1.057
X-369.555 Y-7.402 Z-1.075
X-369.587 Y-7.429 Z-1.093
X-369.607 Y-7.466 Z-1.11
X-369.612 Y-7.508 Z-1.128
X-369.602 Y-7.548 Z-1.146
X-369.577 Y-7.582 Z-1.164
X-369.541 Y-7.605 Z-1.182
X-369.5 Y-7.613 Z-1.2
G3 X-369.5 Y-7.387 I0 J0.113
X-369.5 Y-7.613 I0 J-0.113
G1 X-369.472 Y-7.605
X-369.451 Y-7.584
X-369.444 Y-7.556
X-369.5 Y-7.5
Z5
X-360.318 Y-8.619
Z2
Z0.317
G19 G2 Y-8.936 Z0 J-0.318 K0
G1 Y-9.095
G17 G3 X-360 Y-9.413 I0.318 J0
X-360 Y-5.587 Z-0.15 I0 J1.913
X-360 Y-9.413 Z-0.3 I0 J-1.913
X-360 Y-5.587 Z-0.45 I0 J1.913
X-360 Y-9.413 Z-0.6 I0 J-1.913
X-360 Y-5.587 Z-0.75 I0 J1.913
X-360 Y-9.413 Z-0.9 I0 J-1.913
X-360 Y-5.587 Z-1.05 I0 J1.913
X-360 Y-9.413 Z-1.2 I0 J-1.913
X-360 Y-5.587 I0 J1.913
X-360 Y-9.413 I0 J-1.913
X-359.682 Y-9.095 I0 J0.318
G1 Y-8.936
G19 G3 Y-8.619 Z-0.882 J0 K0.318
G1 Z5
X-350.5 Y-7.5
Z1.683
Z0
X-350.556 Y-7.556
X-350.549 Y-7.584
X-350.528 Y-7.605
X-350.5 Y-7.613
X-350.459 Y-7.605 Z-0.018
X-350.423 Y-7.582 Z-0.036
X-350.398 Y-7.548 Z-0.054
X-350.388 Y-7.508 Z-0.072
X-350.393 Y-7.466 Z-0.09
X-350.413 Y-7.429 Z-0.107
X-350.445 Y-7.402 Z-0.125
X-350.484 Y-7.389 Z-0.143
X-350.526 Y-7.391 Z-0.161
X-350.564 Y-7.408 Z-0.179
X-350.594 Y-7.438 Z-0.197
X-350.61 Y-7.476 Z-0.215
X-350.611 Y-7.518 Z-0.233
X-350.597 Y-7.558 Z-0.251
X-350.569 Y-7.589 Z-0.269
X-350.531 Y-7.608 Z-0.287
X-350.489 Y-7.612 Z-0.304
X-350.449 Y-7.6 Z-0.322
X-350.416 Y-7.575 Z-0.34
X-350.394 Y-7.539 Z-0.358
X-350.388 Y-7.497 Z-0.376
X-350.396 Y-7.456 Z-0.394
X-350.42 Y-7.421 Z-0.412
X-350.454 Y-7.397 Z-0.43
X-350.495 Y-7.388 Z-0.448
X-350.536 Y-7.394 Z-0.466
X-350.573 Y-7.414 Z-0.484
X-350.599 Y-7.447 Z-0.501
X-350.612 Y-7.487 Z-0.519
X-350.609 Y-7.529 Z-0.537
X-350.591 Y-7.567 Z-0.555
X-350.56 Y-7.595 Z-0.573
X-350.521 Y-7.611 Z-0.591
X-350.479 Z-0.609
X-350.44 Y-7.595 Z-0.627
X-350.409 Y-7.567 Z-0.645
X-350.391 Y-7.529 Z-0.663
X-350.388 Y-7.487 Z-0.681
X-350.401 Y-7.447 Z-0.699
X-350.427 Y-7.414 Z-0.716
X-350.464 Y-7.394 Z-0.734
X-350.505 Y-7.388 Z-0.752
X-350.546 Y-7.397 Z-0.77
X-350.58 Y-7.421 Z-0.788
X-350.604 Y-7.456 Z-0.806
X-350.612 Y-7.497 Z-0.824
X-350.606 Y-7.539 Z-0.842
X-350.584 Y-7.575 Z-0.86
X-350.551 Y-7.6 Z-0.878
X-350.511 Y-7.612 Z-0.896
X-350.469 Y-7.608 Z-0.913
X-350.431 Y-7.589 Z-0.931
X-350.403 Y-7.558 Z-0.949
X-350.389 Y-7.518 Z-0.967
X-350.39 Y-7.476 Z-0.985
X-350.406 Y-7.438 Z-1.003
X-350.436 Y-7.408 Z-1.021
X-350.474 Y-7.391 Z-1.039
X-350.516 Y-7.389 Z-1.057
X-350.555 Y-7.402 Z-1.075
X-350.587 Y-7.429 Z-1.093
X-350.607 Y-7.466 Z-1.11
X-350.612 Y-7.508 Z-1.128
X-350.602 Y-7.548 Z-1.146
X-350.577 Y-7.582 Z-1.164
X-350.541 Y-7.605 Z-1.182
X-350.5 Y-7.613 Z-1.2
G17 G3 X-350.5 Y-7.387 I0 J0.113
X-350.5 Y-7.613 I0 J-0.113
G1 X-350.472 Y-7.605
X-350.451 Y-7.584
X-350.444 Y-7.556
X-350.5 Y-7.5
Z5
X-230.318 Y-10.119
Z2
Z0.317
G19 G2 Y-10.436 Z0 J-0.318 K0
G1 Y-10.595
G17 G3 X-230 Y-10.913 I0.318 J0
X-230 Y-4.087 Z-0.15 I0 J3.413
X-230 Y-10.913 Z-0.3 I0 J-3.413
X-230 Y-4.087 Z-0.45 I0 J3.413
X-230 Y-10.913 Z-0.6 I0 J-3.413
X-230 Y-4.087 Z-0.75 I0 J3.413
X-230 Y-10.913 Z-0.9 I0 J-3.413
X-230 Y-4.087 Z-1.05 I0 J3.413
X-230 Y-10.913 Z-1.2 I0 J-3.413
X-230 Y-4.087 I0 J3.413
X-230 Y-10.913 I0 J-3.413
X-229.682 Y-10.595 I0 J0.318
G1 Y-10.436
G19 G3 Y-10.119 Z-0.882 J0 K0.318
G1 Z5
X-211.567 Y-7.5
Z1.683
Z0
X-211.623 Y-7.556
X-211.615 Y-7.584
X-211.595 Y-7.605
X-211.567 Y-7.613
X-211.526 Y-7.605 Z-0.018
X-211.49 Y-7.582 Z-0.036
X-211.465 Y-7.548 Z-0.054
X-211.455 Y-7.508 Z-0.072
X-211.459 Y-7.466 Z-0.09
X-211.479 Y-7.429 Z-0.107
X-211.511 Y-7.402 Z-0.125
X-211.551 Y-7.389 Z-0.143
X-211.593 Y-7.391 Z-0.161
X-211.631 Y-7.408 Z-0.179
X-211.66 Y-7.438 Z-0.197
X-211.677 Y-7.476 Z-0.215
X-211.678 Y-7.518 Z-0.233
X-211.663 Y-7.558 Z-0.251
X-211.635 Y-7.589 Z-0.269
X-211.598 Y-7.608 Z-0.287
X-211.556 Y-7.612 Z-0.304
X-211.516 Y-7.6 Z-0.322
X-211.483 Y-7.575 Z-0.34
X-211.461 Y-7.539 Z-0.358
X-211.454 Y-7.497 Z-0.376
X-211.463 Y-7.456 Z-0.394
X-211.486 Y-7.421 Z-0.412
X-211.521 Y-7.397 Z-0.43
X-211.561 Y-7.388 Z-0.448
X-211.603 Y-7.394 Z-0.466
X-211.64 Y-7.414 Z-0.484
X-211.666 Y-7.447 Z-0.501
X-211.678 Y-7.487 Z-0.519
X-211.676 Y-7.529 Z-0.537
X-211.657 Y-7.567 Z-0.555
X-211.627 Y-7.595 Z-0.573
X-211.588 Y-7.611 Z-0.591
X-211.546 Z-0.609
X-211.507 Y-7.595 Z-0.627
X-211.476 Y-7.567 Z-0.645
X-211.458 Y-7.529 Z-0.663
X-211.455 Y-7.487 Z-0.681
X-211.468 Y-7.447 Z-0.699
X-211.494 Y-7.414 Z-0.716
X-211.53 Y-7.394 Z-0.734
X-211.572 Y-7.388 Z-0.752
X-211.613 Y-7.397 Z-0.77
X-211.647 Y-7.421 Z-0.788
X-211.67 Y-7.456 Z-0.806
X-211.679 Y-7.497 Z-0.824
X-211.672 Y-7.539 Z-0.842
X-211.651 Y-7.575 Z-0.86
X-211.618 Y-7.6 Z-0.878
X-211.577 Y-7.612 Z-0.896
X-211.536 Y-7.608 Z-0.913
X-211.498 Y-7.589 Z-0.931
X-211.47 Y-7.558 Z-0.949
X-211.456 Y-7.518 Z-0.967
X-211.457 Y-7.476 Z-0.985
X-211.473 Y-7.438 Z-1.003
X-211.502 Y-7.408 Z-1.021
X-211.541 Y-7.391 Z-1.039
X-211.583 Y-7.389 Z-1.057
X-211.622 Y-7.402 Z-1.075
X-211.654 Y-7.429 Z-1.093
X-211.674 Y-7.466 Z-1.11
X-211.679 Y-7.508 Z-1.128
X-211.668 Y-7.548 Z-1.146
X-211.643 Y-7.582 Z-1.164
X-211.608 Y-7.605 Z-1.182
X-211.567 Y-7.613 Z-1.2
G17 G3 X-211.567 Y-7.387 I0 J0.113
X-211.567 Y-7.613 I0 J-0.113
G1 X-211.539 Y-7.605
X-211.518 Y-7.584
X-211.511 Y-7.556
X-211.567 Y-7.5
Z5
X-168.433
Z1.683
Z0
X-168.489 Y-7.556
X-168.482 Y-7.584
X-168.461 Y-7.605
X-168.433 Y-7.613
X-168.392 Y-7.605 Z-0.018
X-168.357 Y-7.582 Z-0.036
X-168.332 Y-7.548 Z-0.054
X-168.321 Y-7.508 Z-0.072
X-168.326 Y-7.466 Z-0.09
X-168.346 Y-7.429 Z-0.107
X-168.378 Y-7.402 Z-0.125
X-168.417 Y-7.389 Z-0.143
X-168.459 Y-7.391 Z-0.161
X-168.498 Y-7.408 Z-0.179
X-168.527 Y-7.438 Z-0.197
X-168.543 Y-7.476 Z-0.215
X-168.544 Y-7.518 Z-0.233
X-168.53 Y-7.558 Z-0.251
X-168.502 Y-7.589 Z-0.269
X-168.464 Y-7.608 Z-0.287
X-168.423 Y-7.612 Z-0.304
X-168.382 Y-7.6 Z-0.322
X-168.349 Y-7.575 Z-0.34
X-168.328 Y-7.539 Z-0.358
X-168.321 Y-7.497 Z-0.376
X-168.33 Y-7.456 Z-0.394
X-168.353 Y-7.421 Z-0.412
X-168.387 Y-7.397 Z-0.43
X-168.428 Y-7.388 Z-0.448
X-168.47 Y-7.394 Z-0.466
X-168.506 Y-7.414 Z-0.484
X-168.532 Y-7.447 Z-0.501
X-168.545 Y-7.487 Z-0.519
X-168.542 Y-7.529 Z-0.537
X-168.524 Y-7.567 Z-0.555
X-168.493 Y-7.595 Z-0.573
X-168.454 Y-7.611 Z-0.591
X-168.412 Z-0.609
X-168.373 Y-7.595 Z-0.627
X-168.343 Y-7.567 Z-0.645
X-168.324 Y-7.529 Z-0.663
X-168.322 Y-7.487 Z-0.681
X-168.334 Y-7.447 Z-0.699
X-168.36 Y-7.414 Z-0.716
X-168.397 Y-7.394 Z-0.734
X-168.439 Y-7.388 Z-0.752
X-168.479 Y-7.397 Z-0.77
X-168.514 Y-7.421 Z-0.788
X-168.537 Y-7.456 Z-0.806
X-168.546 Y-7.497 Z-0.824
X-168.539 Y-7.539 Z-0.842
X-168.517 Y-7.575 Z-0.86
X-168.484 Y-7.6 Z-0.878
X-168.444 Y-7.612 Z-0.896
X-168.402 Y-7.608 Z-0.913
X-168.365 Y-7.589 Z-0.931
X-168.337 Y-7.558 Z-0.949
X-168.322 Y-7.518 Z-0.967
X-168.323 Y-7.476 Z-0.985
X-168.34 Y-7.438 Z-1.003
X-168.369 Y-7.408 Z-1.021
X-168.407 Y-7.391 Z-1.039
X-168.449 Y-7.389 Z-1.057
X-168.489 Y-7.402 Z-1.075
X-168.521 Y-7.429 Z-1.093
X-168.541 Y-7.466 Z-1.11
X-168.545 Y-7.508 Z-1.128
X-168.535 Y-7.548 Z-1.146
X-168.51 Y-7.582 Z-1.164
X-168.474 Y-7.605 Z-1.182
X-168.433 Y-7.613 Z-1.2
G3 X-168.433 Y-7.387 I0 J0.113
X-168.433 Y-7.613 I0 J-0.113
G1 X-168.405 Y-7.605
X-168.385 Y-7.584
X-168.377 Y-7.556
X-168.433 Y-7.5
Z5
X-150.318 Y-10.119
Z2
Z0.317
G19 G2 Y-10.436 Z0 J-0.318 K0
G1 Y-10.595
G17 G3 X-150 Y-10.913 I0.318 J0
X-150 Y-4.087 Z-0.15 I0 J3.413
X-150 Y-10.913 Z-0.3 I0 J-3.413
X-150 Y-4.087 Z-0.45 I0 J3.413
X-150 Y-10.913 Z-0.6 I0 J-3.413
X-150 Y-4.087 Z-0.75 I0 J3.413
X-150 Y-10.913 Z-0.9 I0 J-3.413
X-150 Y-4.087 Z-1.05 I0 J3.413
X-150 Y-10.913 Z-1.2 I0 J-3.413
X-150 Y-4.087 I0 J3.413
X-150 Y-10.913 I0 J-3.413
X-149.682 Y-10.595 I0 J0.318
G1 Y-10.436
G19 G3 Y-10.119 Z-0.882 J0 K0.318
G1 Z5
X-29.5 Y-7.5
Z1.683
Z0
X-29.556 Y-7.556
X-29.549 Y-7.584
X-29.528 Y-7.605
X-29.5 Y-7.613
X-29.459 Y-7.605 Z-0.018
X-29.423 Y-7.582 Z-0.036
X-29.398 Y-7.548 Z-0.054
X-29.388 Y-7.508 Z-0.072
X-29.393 Y-7.466 Z-0.09
X-29.413 Y-7.429 Z-0.107
X-29.445 Y-7.402 Z-0.125
X-29.484 Y-7.389 Z-0.143
X-29.526 Y-7.391 Z-0.161
X-29.564 Y-7.408 Z-0.179
X-29.594 Y-7.438 Z-0.197
X-29.61 Y-7.476 Z-0.215
X-29.611 Y-7.518 Z-0.233
X-29.597 Y-7.558 Z-0.251
X-29.569 Y-7.589 Z-0.269
X-29.531 Y-7.608 Z-0.287
X-29.489 Y-7.612 Z-0.304
X-29.449 Y-7.6 Z-0.322
X-29.416 Y-7.575 Z-0.34
X-29.394 Y-7.539 Z-0.358
X-29.388 Y-7.497 Z-0.376
X-29.396 Y-7.456 Z-0.394
X-29.42 Y-7.421 Z-0.412
X-29.454 Y-7.397 Z-0.43
X-29.495 Y-7.388 Z-0.448
X-29.536 Y-7.394 Z-0.466
X-29.573 Y-7.414 Z-0.484
X-29.599 Y-7.447 Z-0.501
X-29.612 Y-7.487 Z-0.519
X-29.609 Y-7.529 Z-0.537
X-29.591 Y-7.567 Z-0.555
X-29.56 Y-7.595 Z-0.573
X-29.521 Y-7.611 Z-0.591
X-29.479 Z-0.609
X-29.44 Y-7.595 Z-0.627
X-29.409 Y-7.567 Z-0.645
X-29.391 Y-7.529 Z-0.663
X-29.388 Y-7.487 Z-0.681
X-29.401 Y-7.447 Z-0.699
X-29.427 Y-7.414 Z-0.716
X-29.464 Y-7.394 Z-0.734
X-29.505 Y-7.388 Z-0.752
X-29.546 Y-7.397 Z-0.77
X-29.58 Y-7.421 Z-0.788
X-29.604 Y-7.456 Z-0.806
X-29.612 Y-7.497 Z-0.824
X-29.606 Y-7.539 Z-0.842
X-29.584 Y-7.575 Z-0.86
X-29.551 Y-7.6 Z-0.878
X-29.511 Y-7.612 Z-0.896
X-29.469 Y-7.608 Z-0.913
X-29.431 Y-7.589 Z-0.931
X-29.403 Y-7.558 Z-0.949
X-29.389 Y-7.518 Z-0.967
X-29.39 Y-7.476 Z-0.985
X-29.406 Y-7.438 Z-1.003
X-29.436 Y-7.408 Z-1.021
X-29.474 Y-7.391 Z-1.039
X-29.516 Y-7.389 Z-1.057
X-29.555 Y-7.402 Z-1.075
X-29.587 Y-7.429 Z-1.093
X-29.607 Y-7.466 Z-1.11
X-29.612 Y-7.508 Z-1.128
X-29.602 Y-7.548 Z-1.146
X-29.577 Y-7.582 Z-1.164
X-29.541 Y-7.605 Z-1.182
X-29.5 Y-7.613 Z-1.2
G17 G3 X-29.5 Y-7.387 I0 J0.113
X-29.5 Y-7.613 I0 J-0.113
G1 X-29.472 Y-7.605
X-29.451 Y-7.584
X-29.444 Y-7.556
X-29.5 Y-7.5
Z5
X-20.317 Y-8.619
Z2
Z0.317
G19 G2 Y-8.936 Z0 J-0.318 K0
G1 Y-9.095
G17 G3 X-20 Y-9.413 I0.317 J0
X-20 Y-5.587 Z-0.15 I0 J1.913
X-20 Y-9.413 Z-0.3 I0 J-1.913
X-20 Y-5.587 Z-0.45 I0 J1.913
X-20 Y-9.413 Z-0.6 I0 J-1.913
X-20 Y-5.587 Z-0.75 I0 J1.913
X-20 Y-9.413 Z-0.9 I0 J-1.913
X-20 Y-5.587 Z-1.05 I0 J1.913
X-20 Y-9.413 Z-1.2 I0 J-1.913
X-20 Y-5.587 I0 J1.913
X-20 Y-9.413 I0 J-1.913
X-19.683 Y-9.095 I0 J0.318
G1 Y-8.936
G19 G3 Y-8.619 Z-0.882 J0 K0.318
G1 Z5
X-10.5 Y-7.5
Z1.683
Z0
X-10.556 Y-7.556
X-10.549 Y-7.584
X-10.528 Y-7.605
X-10.5 Y-7.613
X-10.459 Y-7.605 Z-0.018
X-10.423 Y-7.582 Z-0.036
X-10.398 Y-7.548 Z-0.054
X-10.388 Y-7.508 Z-0.072
X-10.393 Y-7.466 Z-0.09
X-10.413 Y-7.429 Z-0.107
X-10.445 Y-7.402 Z-0.125
X-10.484 Y-7.389 Z-0.143
X-10.526 Y-7.391 Z-0.161
X-10.564 Y-7.408 Z-0.179
X-10.594 Y-7.438 Z-0.197
X-10.61 Y-7.476 Z-0.215
X-10.611 Y-7.518 Z-0.233
X-10.597 Y-7.558 Z-0.251
X-10.569 Y-7.589 Z-0.269
X-10.531 Y-7.608 Z-0.287
X-10.489 Y-7.612 Z-0.304
X-10.449 Y-7.6 Z-0.322
X-10.416 Y-7.575 Z-0.34
X-10.394 Y-7.539 Z-0.358
X-10.388 Y-7.497 Z-0.376
X-10.396 Y-7.456 Z-0.394
X-10.42 Y-7.421 Z-0.412
X-10.454 Y-7.397 Z-0.43
X-10.495 Y-7.388 Z-0.448
X-10.536 Y-7.394 Z-0.466
X-10.573 Y-7.414 Z-0.484
X-10.599 Y-7.447 Z-0.501
X-10.612 Y-7.487 Z-0.519
X-10.609 Y-7.529 Z-0.537
X-10.591 Y-7.567 Z-0.555
X-10.56 Y-7.595 Z-0.573
X-10.521 Y-7.611 Z-0.591
X-10.479 Z-0.609
X-10.44 Y-7.595 Z-0.627
X-10.409 Y-7.567 Z-0.645
X-10.391 Y-7.529 Z-0.663
X-10.388 Y-7.487 Z-0.681
X-10.401 Y-7.447 Z-0.699
X-10.427 Y-7.414 Z-0.716
X-10.464 Y-7.394 Z-0.734
X-10.505 Y-7.388 Z-0.752
X-10.546 Y-7.397 Z-0.77
X-10.58 Y-7.421 Z-0.788
X-10.604 Y-7.456 Z-0.806
X-10.612 Y-7.497 Z-0.824
X-10.606 Y-7.539 Z-0.842
X-10.584 Y-7.575 Z-0.86
X-10.551 Y-7.6 Z-0.878
X-10.511 Y-7.612 Z-0.896
X-10.469 Y-7.608 Z-0.913
X-10.431 Y-7.589 Z-0.931
X-10.403 Y-7.558 Z-0.949
X-10.389 Y-7.518 Z-0.967
X-10.39 Y-7.476 Z-0.985
X-10.406 Y-7.438 Z-1.003
X-10.436 Y-7.408 Z-1.021
X-10.474 Y-7.391 Z-1.039
X-10.516 Y-7.389 Z-1.057
X-10.555 Y-7.402 Z-1.075
X-10.587 Y-7.429 Z-1.093
X-10.607 Y-7.466 Z-1.11
X-10.612 Y-7.508 Z-1.128
X-10.602 Y-7.548 Z-1.146
X-10.577 Y-7.582 Z-1.164
X-10.541 Y-7.605 Z-1.182
X-10.5 Y-7.613 Z-1.2
G17 G3 X-10.5 Y-7.387 I0 J0.113
X-10.5 Y-7.613 I0 J-0.113
G1 X-10.472 Y-7.605
X-10.451 Y-7.584
X-10.444 Y-7.556
X-10.5 Y-7.5
Z15
(When using Fusion 360 for Personal Use, the feedrate of)
(rapid moves is reduced to match the feedrate of cutting)
(moves, which can increase machining time. Unrestricted rapid)
(moves are available with a Fusion 360 Subscription.)

(Bohrfrasen3)
G0 X-369.5 Y-7.5
G1 Z15 F1000
Z-12
Z-14
X-369.556 Y-7.556
X-369.549 Y-7.584
X-369.528 Y-7.605
X-369.5 Y-7.613
X-369.459 Y-7.605 Z-14.06
X-369.423 Y-7.582 Z-14.12
X-369.398 Y-7.548 Z-14.18
X-369.388 Y-7.507 Z-14.24
X-369.393 Y-7.465 Z-14.3
X-369.413 Y-7.428 Z-14.36
X-369.446 Y-7.401 Z-14.42
X-369.486 Y-7.388 Z-14.48
X-369.528 Y-7.391 Z-14.54
X-369.566 Y-7.409 Z-14.6
X-369.595 Y-7.44 Z-14.66
X-369.611 Y-7.479 Z-14.72
Y-7.521 Z-14.78
X-369.595 Y-7.56 Z-14.84
X-369.566 Y-7.591 Z-14.9
X-369.528 Y-7.609 Z-14.96
X-369.486 Y-7.612 Z-15.02
X-369.446 Y-7.599 Z-15.08
X-369.413 Y-7.572 Z-15.14
X-369.393 Y-7.535 Z-15.2
G3 X-369.607 Y-7.465 I-0.107 J0.035
X-369.393 Y-7.535 I0.107 J-0.035
G1 X-369.391 Y-7.506
X-369.405 Y-7.48
X-369.429 Y-7.464
X-369.5 Y-7.5
Z5
X-360
Z-12
Z-14
X-360.318 Y-9.095
G3 X-360 Y-9.413 I0.318 J0
X-360 Y-5.587 Z-14.5 I0 J1.913
X-360 Y-9.413 Z-15 I0 J-1.913
X-358.181 Y-8.091 Z-15.2 I0 J1.913
X-361.819 Y-6.909 I-1.819 J0.591
X-358.181 Y-8.091 I1.819 J-0.591
X-358.385 Y-7.691 I-0.302 J0.098
G1 X-360 Y-7.5
Z5
X-350.5
Z-12
Z-14
X-350.556 Y-7.556
X-350.549 Y-7.584
X-350.528 Y-7.605
X-350.5 Y-7.613
X-350.459 Y-7.605 Z-14.06
X-350.423 Y-7.582 Z-14.12
X-350.398 Y-7.548 Z-14.18
X-350.388 Y-7.507 Z-14.24
X-350.393 Y-7.465 Z-14.3
X-350.413 Y-7.428 Z-14.36
X-350.446 Y-7.401 Z-14.42
X-350.486 Y-7.388 Z-14.48
X-350.528 Y-7.391 Z-14.54
X-350.566 Y-7.409 Z-14.6
X-350.595 Y-7.44 Z-14.66
X-350.611 Y-7.479 Z-14.72
Y-7.521 Z-14.78
X-350.595 Y-7.56 Z-14.84
X-350.566 Y-7.591 Z-14.9
X-350.528 Y-7.609 Z-14.96
X-350.486 Y-7.612 Z-15.02
X-350.446 Y-7.599 Z-15.08
X-350.413 Y-7.572 Z-15.14
X-350.393 Y-7.535 Z-15.2
G3 X-350.607 Y-7.465 I-0.107 J0.035
X-350.393 Y-7.535 I0.107 J-0.035
G1 X-350.391 Y-7.506
X-350.405 Y-7.48
X-350.429 Y-7.464
X-350.5 Y-7.5
Z5
X-230
Z-12
Z-14
X-230.318 Y-10.595
G3 X-230 Y-10.913 I0.318 J0
X-230 Y-4.087 Z-14.5 I0 J3.413
X-230 Y-10.913 Z-15 I0 J-3.413
X-226.755 Y-8.555 Z-15.2 I0 J3.413
X-233.245 Y-6.445 I-3.245 J1.055
X-226.755 Y-8.555 I3.245 J-1.055
X-226.958 Y-8.154 I-0.302 J0.098
G1 X-230 Y-7.5
Z5
X-211.567
Z-12
Z-14
X-211.623 Y-7.556
X-211.615 Y-7.584
X-211.595 Y-7.605
X-211.567 Y-7.613
X-211.525 Y-7.605 Z-14.06
X-211.49 Y-7.582 Z-14.12
X-211.465 Y-7.548 Z-14.18
X-211.454 Y-7.507 Z-14.24
X-211.46 Y-7.465 Z-14.3
X-211.48 Y-7.428 Z-14.36
X-211.513 Y-7.401 Z-14.42
X-211.553 Y-7.388 Z-14.48
X-211.595 Y-7.391 Z-14.54
X-211.633 Y-7.409 Z-14.6
X-211.662 Y-7.44 Z-14.66
X-211.677 Y-7.479 Z-14.72
Y-7.521 Z-14.78
X-211.662 Y-7.56 Z-14.84
X-211.633 Y-7.591 Z-14.9
X-211.595 Y-7.609 Z-14.96
X-211.553 Y-7.612 Z-15.02
X-211.513 Y-7.599 Z-15.08
X-211.48 Y-7.572 Z-15.14
X-211.46 Y-7.535 Z-15.2
G3 X-211.674 Y-7.465 I-0.107 J0.035
X-211.46 Y-7.535 I0.107 J-0.035
G1 X-211.458 Y-7.506
X-211.471 Y-7.48
X-211.496 Y-7.464
X-211.567 Y-7.5
Z5
X-168.433
Z-12
Z-14
X-168.489 Y-7.556
X-168.482 Y-7.584
X-168.461 Y-7.605
X-168.433 Y-7.613
X-168.392 Y-7.605 Z-14.06
X-168.356 Y-7.582 Z-14.12
X-168.331 Y-7.548 Z-14.18
X-168.321 Y-7.507 Z-14.24
X-168.326 Y-7.465 Z-14.3
X-168.347 Y-7.428 Z-14.36
X-168.379 Y-7.401 Z-14.42
X-168.419 Y-7.388 Z-14.48
X-168.461 Y-7.391 Z-14.54
X-168.499 Y-7.409 Z-14.6
X-168.528 Y-7.44 Z-14.66
X-168.544 Y-7.479 Z-14.72
Y-7.521 Z-14.78
X-168.528 Y-7.56 Z-14.84
X-168.499 Y-7.591 Z-14.9
X-168.461 Y-7.609 Z-14.96
X-168.419 Y-7.612 Z-15.02
X-168.379 Y-7.599 Z-15.08
X-168.347 Y-7.572 Z-15.14
X-168.326 Y-7.535 Z-15.2
G3 X-168.54 Y-7.465 I-0.107 J0.035
X-168.326 Y-7.535 I0.107 J-0.035
G1 X-168.325 Y-7.506
X-168.338 Y-7.48
X-168.362 Y-7.464
X-168.433 Y-7.5
Z5
X-150
Z-12
Z-14
X-150.318 Y-10.595
G3 X-150 Y-10.913 I0.318 J0
X-150 Y-4.087 Z-14.5 I0 J3.413
X-150 Y-10.913 Z-15 I0 J-3.413
X-146.755 Y-8.555 Z-15.2 I0 J3.413
X-153.245 Y-6.445 I-3.245 J1.055
X-146.755 Y-8.555 I3.245 J-1.055
X-146.958 Y-8.154 I-0.302 J0.098
G1 X-150 Y-7.5
Z5
X-29.5
Z-12
Z-14
X-29.556 Y-7.556
X-29.549 Y-7.584
X-29.528 Y-7.605
X-29.5 Y-7.613
X-29.459 Y-7.605 Z-14.06
X-29.423 Y-7.582 Z-14.12
X-29.398 Y-7.548 Z-14.18
X-29.388 Y-7.507 Z-14.24
X-29.393 Y-7.465 Z-14.3
X-29.413 Y-7.428 Z-14.36
X-29.446 Y-7.401 Z-14.42
X-29.486 Y-7.388 Z-14.48
X-29.528 Y-7.391 Z-14.54
X-29.566 Y-7.409 Z-14.6
X-29.595 Y-7.44 Z-14.66
X-29.611 Y-7.479 Z-14.72
Y-7.521 Z-14.78
X-29.595 Y-7.56 Z-14.84
X-29.566 Y-7.591 Z-14.9
X-29.528 Y-7.609 Z-14.96
X-29.486 Y-7.612 Z-15.02
X-29.446 Y-7.599 Z-15.08
X-29.413 Y-7.572 Z-15.14
X-29.393 Y-7.535 Z-15.2
G3 X-29.607 Y-7.465 I-0.107 J0.035
X-29.393 Y-7.535 I0.107 J-0.035
G1 X-29.391 Y-7.506
X-29.405 Y-7.48
X-29.429 Y-7.464
X-29.5 Y-7.5
Z5
X-20
Z-12
Z-14
X-20.317 Y-9.095
G3 X-20 Y-9.413 I0.317 J0
X-20 Y-5.587 Z-14.5 I0 J1.913
X-20 Y-9.412 Z-15 I0 J-1.913
X-18.181 Y-8.091 Z-15.2 I0 J1.912
X-21.819 Y-6.909 I-1.819 J0.591
X-18.181 Y-8.091 I1.819 J-0.591
X-18.385 Y-7.691 I-0.302 J0.098
G1 X-20 Y-7.5
Z5
X-10.5
Z-12
Z-14
X-10.556 Y-7.556
X-10.549 Y-7.584
X-10.528 Y-7.605
X-10.5 Y-7.613
X-10.459 Y-7.605 Z-14.06
X-10.423 Y-7.582 Z-14.12
X-10.398 Y-7.548 Z-14.18
X-10.388 Y-7.507 Z-14.24
X-10.393 Y-7.465 Z-14.3
X-10.413 Y-7.428 Z-14.36
X-10.446 Y-7.401 Z-14.42
X-10.486 Y-7.388 Z-14.48
X-10.528 Y-7.391 Z-14.54
X-10.566 Y-7.409 Z-14.6
X-10.595 Y-7.44 Z-14.66
X-10.611 Y-7.479 Z-14.72
Y-7.521 Z-14.78
X-10.595 Y-7.56 Z-14.84
X-10.566 Y-7.591 Z-14.9
X-10.528 Y-7.609 Z-14.96
X-10.486 Y-7.612 Z-15.02
X-10.446 Y-7.599 Z-15.08
X-10.413 Y-7.572 Z-15.14
X-10.393 Y-7.535 Z-15.2
G3 X-10.607 Y-7.465 I-0.107 J0.035
X-10.393 Y-7.535 I0.107 J-0.035
G1 X-10.391 Y-7.506
X-10.405 Y-7.48
X-10.429 Y-7.464
X-10.5 Y-7.5
Z15
(When using Fusion 360 for Personal Use, the feedrate of)
(rapid moves is reduced to match the feedrate of cutting)
(moves, which can increase machining time. Unrestricted rapid)
(moves are available with a Fusion 360 Subscription.)

(Adaptiv3)
G0 X-190.22 Y-18.659
G1 Z15 F1000
Z5
Z-0.565
Z-0.882
X-190.218 Y-18.651 Z-0.953
X-190.212 Y-18.628 Z-1.02
X-190.203 Y-18.592 Z-1.08
X-190.19 Y-18.543 Z-1.131
X-190.176 Y-18.485 Z-1.169
X-190.159 Y-18.42 Z-1.192
X-190.141 Y-18.351 Z-1.2
G3 X-189.893 Y-16.623 I-7.852 J2.011
G1 Y-16.559
X-189.981 Y-16.437
X-190.103 Y-16.351
X-190.235 Y-16.28
X-190.373 Y-16.22
X-190.526 Y-16.165
X-190.722 Y-16.106
X-190.978 Y-16.044
X-191.331 Y-15.979
X-191.856 Y-15.911
X-192.497 Y-15.863
X-193.139 Y-15.839
X-193.781 Y-15.827
X-194.423 Y-15.82
X-195.065 Y-15.817
X-195.704 Y-15.815
X-195.98 Y-15.849
X-196.24 Y-15.949
X-196.468 Y-16.111
Z5
X-180.689 Y-17.238
Z-0.565
Z-0.882
X-180.697 Y-17.234 Z-0.953
X-180.718 Y-17.225 Z-1.02
X-180.753 Y-17.209 Z-1.08
X-180.798 Y-17.189 Z-1.131
X-180.853 Y-17.164 Z-1.169
X-180.915 Y-17.136 Z-1.192
X-180.979 Y-17.107 Z-1.2
G3 X-182.639 Y-16.566 I-3.329 J-7.39
G1 X-182.743 Y-16.548
X-182.889 Y-16.506
X-183.035 Y-16.451
X-183.18 Y-16.382
X-183.221 Y-16.357
X-183.352 Y-16.284
X-183.489 Y-16.224
X-183.64 Y-16.169
X-183.832 Y-16.111
X-184.082 Y-16.049
X-184.425 Y-15.984
X-184.932 Y-15.916
X-185.572 Y-15.866
X-186.214 Y-15.84
X-186.856 Y-15.827
X-187.498 Y-15.82
X-188.14 Y-15.817
X-188.782 Y-15.781
X-189.411 Y-15.652
X-190.035 Y-15.501
X-190.663 Y-15.366
X-191.296 Y-15.261
X-191.934 Y-15.187
X-192.575 Y-15.138
X-193.216 Y-15.108
X-193.858 Y-15.089
X-194.5 Y-15.078
X-194.964 Y-15.076
X-195.189 Y-15.087
X-195.317 Y-15.1
X-195.581 Y-15.161
X-195.821 Y-15.285
X-196.023 Y-15.465
X-196.175 Y-15.689
G3 X-195.744 Y-16.106 I0.288 J-0.134
G1 X-195.681 Y-16.075 Z-1.192
X-195.621 Y-16.044 Z-1.169
X-195.567 Y-16.017 Z-1.131
X-195.522 Y-15.995 Z-1.08
X-195.489 Y-15.978 Z-1.02
X-195.468 Y-15.967 Z-0.953
X-195.46 Y-15.963 Z-0.882
Z5
X-182.549 Y-17.223
Z-0.565
Z-0.882
X-182.553 Y-17.216 Z-0.953
X-182.564 Y-17.195 Z-1.02
X-182.581 Y-17.162 Z-1.08
X-182.605 Y-17.117 Z-1.131
X-182.632 Y-17.064 Z-1.169
X-182.663 Y-17.004 Z-1.192
X-182.696 Y-16.942 Z-1.2
G3 X-183.221 Y-16.357 I-1.403 J-0.731
G1 X-183.253 Y-16.337
X-183.326 Y-16.287
X-183.367 Y-16.257
X-183.472 Y-16.164
X-183.527 Y-16.111
X-183.618 Y-16.015
X-183.721 Y-15.905
X-183.838 Y-15.811
X-183.963 Y-15.729
X-184.094 Y-15.656
X-184.232 Y-15.591
X-184.407 Y-15.519
X-184.607 Y-15.45
X-184.858 Y-15.378
X-185.181 Y-15.304
X-185.619 Y-15.228
X-186.256 Y-15.153
X-186.897 Y-15.113
X-187.539 Y-15.087
X-188.179 Y-15.04
X-188.815 Y-14.95
X-189.447 Y-14.836
X-190.078 Y-14.717
X-190.712 Y-14.61
X-191.348 Y-14.522
X-191.986 Y-14.454
X-192.627 Y-14.406
X-193.268 Y-14.373
X-193.91 Y-14.351
X-194.361 Y-14.347
X-194.672 Y-14.361
X-194.86 Y-14.379
X-195.036 Y-14.406
X-195.207 Y-14.442
X-195.258 Y-14.456
X-195.483 Y-14.544
X-195.682 Y-14.678
X-195.847 Y-14.854
X-195.97 Y-15.062
X-196.043 Y-15.291
Z5
X-183.27 Y-17.054
Z-0.565
Z-0.882
X-183.271 Y-17.046 Z-0.953
X-183.274 Y-17.022 Z-1.02
X-183.28 Y-16.985 Z-1.08
X-183.287 Y-16.935 Z-1.131
X-183.296 Y-16.876 Z-1.169
X-183.305 Y-16.809 Z-1.192
X-183.316 Y-16.739 Z-1.2
G3 X-183.618 Y-16.015 I-1.566 J-0.228
G1 X-183.659 Y-15.965
X-183.711 Y-15.892
X-183.759 Y-15.819
X-183.833 Y-15.673
X-183.901 Y-15.539
X-183.993 Y-15.42
X-184.098 Y-15.314
X-184.214 Y-15.218
X-184.336 Y-15.131
X-184.464 Y-15.053
X-184.611 Y-14.975
X-184.775 Y-14.899
X-184.989 Y-14.813
X-185.23 Y-14.731
X-185.524 Y-14.648
X-185.901 Y-14.564
X-186.528 Y-14.46
X-187.166 Y-14.389
X-187.804 Y-14.316
X-188.44 Y-14.227
X-189.074 Y-14.124
X-189.707 Y-14.018
X-190.341 Y-13.918
X-190.978 Y-13.829
X-191.616 Y-13.757
X-192.255 Y-13.7
X-192.896 Y-13.658
X-193.538 Y-13.629
X-194.001 Y-13.627
X-194.338 Y-13.644
X-194.571 Y-13.669
X-194.782 Y-13.702
X-194.931 Y-13.735
X-195.094 Y-13.779
X-195.236 Y-13.827
X-195.375 Y-13.882
X-195.397 Y-13.893
X-195.603 Y-14.022
X-195.775 Y-14.195
X-195.905 Y-14.401
X-195.985 Y-14.631
X-196.013 Y-14.873
Y-14.943
X-196.019 Y-15.089
X-196.021 Y-15.127
X-196.032 Y-15.235
X-196.043 Y-15.291
G3 X-195.731 Y-15.661 I0.313 J-0.052
G1 X-195.73
G3 X-195.73 Y-15.026 I0 J0.318
X-195.759 Y-15.659 I0 J-0.318
G1 X-184.096 Y-16.724
G3 X-183.753 Y-16.454 I0.029 J0.316
X-183.833 Y-15.673 I-1.565 J0.234
G1 X-183.893 Y-15.527
X-183.91 Y-15.477
X-183.938 Y-15.381
X-183.947 Y-15.337
X-183.984 Y-15.192
X-184.047 Y-15.055
X-184.129 Y-14.93
X-184.225 Y-14.815
X-184.332 Y-14.709
X-184.446 Y-14.612
X-184.567 Y-14.523
X-184.697 Y-14.438
X-184.852 Y-14.349
X-185.025 Y-14.261
X-185.252 Y-14.161
X-185.504 Y-14.066
X-185.821 Y-13.966
X-186.294 Y-13.844
X-186.923 Y-13.718
X-187.557 Y-13.612
X-188.19 Y-13.509
X-188.824 Y-13.404
X-189.458 Y-13.301
X-190.093 Y-13.204
X-190.729 Y-13.118
X-191.367 Y-13.044
X-192.006 Y-12.984
X-192.647 Y-12.938
X-193.288 Y-12.908
X-193.752 Y-12.912
X-194.105 Y-12.933
X-194.394 Y-12.966
X-194.641 Y-13.009
X-194.818 Y-13.049
X-195.004 Y-13.102
X-195.146 Y-13.151
X-195.285 Y-13.208
X-195.42 Y-13.273
X-195.451 Y-13.289
X-195.64 Y-13.422
X-195.797 Y-13.592
X-195.915 Y-13.792
X-195.988 Y-14.011
X-196.012 Y-14.242
X-196.013 Y-14.873
G3 X-195.727 Y-15.188 I0.317 J0
G1 X-195.41 Y-15.22
X-184.346 Y-16.33
G3 X-184.015 Y-16.119 I0.032 J0.316
X-183.947 Y-15.337 I-1.494 J0.523
G1 X-183.968 Y-15.235
X-183.981 Y-15.089
X-183.987 Y-14.943
X-183.995 Y-14.793
X-184.041 Y-14.651
X-184.108 Y-14.516
X-184.19 Y-14.391
X-184.283 Y-14.273
X-184.386 Y-14.164
X-184.496 Y-14.062
X-184.612 Y-13.967
X-184.749 Y-13.866
X-184.898 Y-13.769
X-185.093 Y-13.657
X-185.298 Y-13.554
X-185.569 Y-13.435
X-185.899 Y-13.311
X-186.36 Y-13.166
X-186.982 Y-13.006
X-187.61 Y-12.874
X-188.242 Y-12.756
X-188.874 Y-12.646
X-189.508 Y-12.544
X-190.144 Y-12.451
X-190.781 Y-12.37
X-191.419 Y-12.3
X-192.059 Y-12.243
X-192.7 Y-12.202
X-193.276 Y-12.191
X-193.708 Y-12.206
X-194.065 Y-12.237
X-194.361 Y-12.28
X-194.623 Y-12.332
X-194.826 Y-12.384
X-195.009 Y-12.442
X-195.169 Y-12.502
X-195.306 Y-12.563
X-195.441 Y-12.632
X-195.474 Y-12.651
X-195.697 Y-12.824
X-195.868 Y-13.049
X-195.976 Y-13.31
X-196.012 Y-13.59
Y-14.242
G3 X-195.715 Y-14.547 I0.317 J0.011
G1 X-195.398 Y-14.567
X-184.602 Y-15.232
X-184.324 Y-15.249
G3 X-183.987 Y-14.943 I0.02 J0.317
G1 X-183.988 Y-14.505
X-183.995 Y-14.356
X-184.026 Y-14.209
X-184.079 Y-14.069
X-184.149 Y-13.936
X-184.231 Y-13.81
X-184.323 Y-13.692
X-184.423 Y-13.58
X-184.53 Y-13.475
X-184.646 Y-13.373
X-184.791 Y-13.259
X-184.948 Y-13.149
X-185.153 Y-13.021
X-185.369 Y-12.902
X-185.664 Y-12.76
X-185.993 Y-12.623
X-186.443 Y-12.464
X-187.059 Y-12.283
X-187.683 Y-12.134
X-188.313 Y-12.006
X-188.945 Y-11.892
X-189.579 Y-11.79
X-190.214 Y-11.7
X-190.852 Y-11.621
X-191.491 Y-11.555
X-192.131 Y-11.504
X-192.772 Y-11.476
X-193.299 Y-11.48
X-193.725 Y-11.507
X-194.088 Y-11.549
X-194.39 Y-11.601
X-194.657 Y-11.662
X-194.866 Y-11.722
X-195.035 Y-11.781
X-195.214 Y-11.854
X-195.349 Y-11.918
X-195.481 Y-11.99
X-195.507 Y-12.006
X-195.717 Y-12.18
X-195.878 Y-12.401
X-195.978 Y-12.654
X-196.012 Y-12.925
Y-13.59
G3 X-195.721 Y-13.895 I0.317 J0.011
G1 X-195.398 Y-13.921
X-184.602 Y-14.789
X-184.33 Y-14.811
G3 X-183.988 Y-14.505 I0.025 J0.316
G1 Y-13.951
X-183.995 Y-13.801
X-184.026 Y-13.655
X-184.077 Y-13.513
X-184.142 Y-13.379
X-184.22 Y-13.25
X-184.308 Y-13.129
X-184.403 Y-13.013
X-184.506 Y-12.904
X-184.627 Y-12.788
X-184.767 Y-12.667
X-184.928 Y-12.543
X-185.122 Y-12.41
X-185.345 Y-12.275
X-185.62 Y-12.127
X-185.945 Y-11.975
X-186.355 Y-11.809
X-186.858 Y-11.637
X-187.476 Y-11.462
X-188.101 Y-11.317
X-188.731 Y-11.192
X-189.364 Y-11.083
X-189.999 Y-10.988
X-190.636 Y-10.907
X-191.275 Y-10.839
X-191.915 Y-10.787
X-192.556 Y-10.759
X-193.095 Y-10.763
X-193.568 Y-10.791
X-193.957 Y-10.836
X-194.287 Y-10.892
X-194.577 Y-10.958
X-194.823 Y-11.028
X-194.997 Y-11.088
X-195.175 Y-11.16
X-195.326 Y-11.231
X-195.458 Y-11.302
X-195.502 Y-11.329
X-195.714 Y-11.503
X-195.876 Y-11.724
X-195.978 Y-11.979
X-196.012 Y-12.251
Y-12.925
G3 X-195.724 Y-13.23 I0.317 J0.011
G1 X-195.399 Y-13.259
X-184.601 Y-14.232
X-184.333 Y-14.256
G3 X-183.988 Y-13.951 I0.028 J0.316
G1 Y-13.367
X-183.995 Y-13.218
X-184.024 Y-13.07
X-184.072 Y-12.928
X-184.134 Y-12.792
X-184.208 Y-12.661
X-184.292 Y-12.537
X-184.384 Y-12.418
X-184.485 Y-12.302
X-184.602 Y-12.182
X-184.743 Y-12.052
X-184.9 Y-11.922
X-185.097 Y-11.777
X-185.309 Y-11.637
X-185.586 Y-11.476
X-185.879 Y-11.326
X-186.264 Y-11.155
X-186.729 Y-10.977
X-187.303 Y-10.792
X-187.924 Y-10.629
X-188.552 Y-10.493
X-189.183 Y-10.376
X-189.818 Y-10.276
X-190.454 Y-10.191
X-191.092 Y-10.121
X-191.733 Y-10.07
X-192.374 Y-10.042
X-192.935 Y-10.045
X-193.431 Y-10.075
X-193.86 Y-10.124
X-194.208 Y-10.183
X-194.518 Y-10.253
X-194.778 Y-10.326
X-194.969 Y-10.392
X-195.15 Y-10.465
X-195.31 Y-10.54
X-195.442 Y-10.611
X-195.499 Y-10.647
X-195.713 Y-10.821
X-195.876 Y-11.042
X-195.978 Y-11.298
X-196.012 Y-11.57
Y-12.251
G3 X-195.726 Y-12.556 I0.317 J0.011
G1 X-195.399 Y-12.588
X-184.601 Y-13.646
X-184.336 Y-13.672
G3 X-183.988 Y-13.367 I0.031 J0.316
G1 Y-12.754
X-183.995 Y-12.604
X-184.022 Y-12.457
X-184.067 Y-12.314
X-184.127 Y-12.176
X-184.198 Y-12.044
X-184.279 Y-11.918
X-184.367 Y-11.797
X-184.469 Y-11.674
X-184.584 Y-11.55
X-184.725 Y-11.412
X-184.877 Y-11.28
X-185.071 Y-11.129
X-185.281 Y-10.982
X-185.543 Y-10.82
X-185.846 Y-10.655
X-186.2 Y-10.486
X-186.642 Y-10.304
X-187.17 Y-10.119
X-187.787 Y-9.939
X-188.411 Y-9.791
X-189.041 Y-9.666
X-189.675 Y-9.561
X-190.311 Y-9.472
X-190.949 Y-9.401
X-191.589 Y-9.35
X-192.231 Y-9.324
X-192.813 Y-9.327
X-193.329 Y-9.358
X-193.784 Y-9.411
X-194.149 Y-9.473
X-194.473 Y-9.547
X-194.746 Y-9.624
X-194.949 Y-9.694
X-195.134 Y-9.769
X-195.301 Y-9.848
X-195.433 Y-9.919
X-195.499 Y-9.96
X-195.712 Y-10.134
X-195.875 Y-10.355
X-195.978 Y-10.611
X-196.012 Y-10.884
Y-11.57
G3 X-195.728 Y-11.875 I0.317 J0.011
G1 X-195.399 Y-11.909
X-184.601 Y-13.031
X-184.338 Y-13.059
G3 X-183.988 Y-12.754 I0.033 J0.316
G1 Y-12.09
X-183.995 Y-11.94
X-184.024 Y-11.793
X-184.07 Y-11.65
X-184.13 Y-11.513
X-184.201 Y-11.38
X-184.281 Y-11.254
X-184.368 Y-11.132
X-184.473 Y-11.002
X-184.588 Y-10.876
X-184.731 Y-10.734
X-184.891 Y-10.592
X-185.081 Y-10.441
X-185.308 Y-10.279
X-185.561 Y-10.119
X-185.884 Y-9.939
X-186.229 Y-9.77
X-186.66 Y-9.587
X-187.182 Y-9.399
X-187.797 Y-9.214
X-188.421 Y-9.061
X-189.05 Y-8.933
X-189.683 Y-8.826
X-190.319 Y-8.739
X-190.958 Y-8.67
X-191.598 Y-8.623
X-192.24 Y-8.603
X-192.84 Y-8.615
X-193.368 Y-8.654
X-193.811 Y-8.711
X-194.183 Y-8.78
X-194.507 Y-8.858
X-194.777 Y-8.939
X-194.975 Y-9.01
X-195.168 Y-9.091
X-195.325 Y-9.168
X-195.456 Y-9.241
X-195.512 Y-9.277
X-195.72 Y-9.451
X-195.879 Y-9.671
X-195.979 Y-9.923
X-196.012 Y-10.192
Y-10.884
G3 X-195.729 Y-11.188 I0.317 J0.011
G1 X-195.399 Y-11.223
X-184.601 Y-12.367
X-184.338 Y-12.395
G3 X-183.988 Y-12.09 I0.033 J0.316
G1 Y-11.441
X-183.995 Y-11.291
X-184.021 Y-11.143
X-184.065 Y-10.999
X-184.122 Y-10.861
X-184.19 Y-10.727
X-184.268 Y-10.599
X-184.353 Y-10.476
X-184.454 Y-10.347
X-184.567 Y-10.217
X-184.71 Y-10.07
X-184.864 Y-9.928
X-185.055 Y-9.77
X-185.269 Y-9.612
X-185.522 Y-9.446
X-185.834 Y-9.264
X-186.164 Y-9.094
X-186.589 Y-8.904
X-187.088 Y-8.713
X-187.678 Y-8.523
X-188.299 Y-8.36
X-188.927 Y-8.225
X-189.559 Y-8.113
X-190.195 Y-8.022
X-190.834 Y-7.952
X-191.474 Y-7.905
X-192.116 Y-7.885
X-192.724 Y-7.895
X-193.252 Y-7.933
X-193.725 Y-7.992
X-194.118 Y-8.063
X-194.452 Y-8.143
X-194.741 Y-8.228
X-194.955 Y-8.305
X-195.138 Y-8.381
X-195.31 Y-8.464
X-195.441 Y-8.537
X-195.507 Y-8.578
X-195.717 Y-8.752
X-195.878 Y-8.973
X-195.978 Y-9.226
X-196.012 Y-9.497
Y-10.192
G3 X-195.73 Y-10.497 I0.317 J0.011
G1 X-195.399 Y-10.533
X-184.601 Y-11.716
X-184.339 Y-11.745
G3 X-183.988 Y-11.441 I0.035 J0.316
G1 Y-10.777
X-183.995 Y-10.627
X-184.019 Y-10.479
X-184.06 Y-10.334
X-184.115 Y-10.195
X-184.181 Y-10.06
X-184.257 Y-9.931
X-184.341 Y-9.806
X-184.441 Y-9.674
X-184.551 Y-9.544
X-184.691 Y-9.395
X-184.844 Y-9.251
X-185.028 Y-9.094
X-185.245 Y-8.929
X-185.49 Y-8.762
X-185.799 Y-8.576
X-186.127 Y-8.402
X-186.534 Y-8.213
X-187.019 Y-8.019
X-187.584 Y-7.828
X-188.203 Y-7.656
X-188.829 Y-7.514
X-189.461 Y-7.398
X-190.096 Y-7.304
X-190.734 Y-7.233
X-191.375 Y-7.187
X-192.017 Y-7.166
X-192.631 Y-7.176
X-193.175 Y-7.214
X-193.662 Y-7.275
X-194.076 Y-7.35
X-194.416 Y-7.43
X-194.715 Y-7.519
X-194.938 Y-7.598
X-195.124 Y-7.675
X-195.301 Y-7.761
X-195.433 Y-7.833
X-195.505 Y-7.879
X-195.716 Y-8.053
X-195.877 Y-8.274
X-195.978 Y-8.528
X-196.012 Y-8.799
Y-9.497
G3 X-195.731 Y-9.802 I0.317 J0.011
G1 X-195.399 Y-9.839
X-184.601 Y-11.052
X-184.34 Y-11.081
G3 X-183.988 Y-10.777 I0.035 J0.316
G1 Y-10.047
X-183.995 Y-9.897
X-184.024 Y-9.75
X-184.07 Y-9.607
X-184.128 Y-9.468
X-184.196 Y-9.335
X-184.273 Y-9.207
X-184.358 Y-9.083
X-184.461 Y-8.95
X-184.58 Y-8.811
X-184.721 Y-8.664
X-184.891 Y-8.505
X-185.075 Y-8.351
X-185.307 Y-8.177
X-185.562 Y-8.007
X-185.868 Y-7.825
X-186.247 Y-7.628
X-186.642 Y-7.448
X-187.132 Y-7.257
X-187.713 Y-7.066
X-188.333 Y-6.899
X-188.96 Y-6.761
X-189.592 Y-6.65
X-190.229 Y-6.562
X-190.868 Y-6.498
X-191.509 Y-6.46
X-192.151 Y-6.449
X-192.762 Y-6.47
X-193.315 Y-6.519
X-193.777 Y-6.586
X-194.169 Y-6.664
X-194.506 Y-6.751
X-194.785 Y-6.839
X-194.989 Y-6.916
X-195.187 Y-7.003
X-195.343 Y-7.081
X-195.473 Y-7.156
X-195.524 Y-7.19
X-195.728 Y-7.364
X-195.883 Y-7.583
X-195.98 Y-7.832
X-196.012 Y-8.098
Y-8.799
G3 X-195.73 Y-9.103 I0.317 J0.011
G1 X-195.399 Y-9.14
X-184.601 Y-10.323
X-184.339 Y-10.351
G3 X-183.988 Y-10.047 I0.035 J0.316
G1 Y-9.397
X-183.995 Y-9.247
X-184.017 Y-9.099
X-184.056 Y-8.954
X-184.11 Y-8.814
X-184.174 Y-8.679
X-184.248 Y-8.548
X-184.33 Y-8.422
X-184.425 Y-8.293
X-184.537 Y-8.156
X-184.673 Y-8.008
X-184.823 Y-7.86
X-185.016 Y-7.691
X-185.221 Y-7.529
X-185.47 Y-7.354
X-185.767 Y-7.168
X-186.088 Y-6.991
X-186.491 Y-6.796
X-186.963 Y-6.599
X-187.48 Y-6.415
X-188.095 Y-6.233
X-188.72 Y-6.083
X-189.351 Y-5.962
X-189.986 Y-5.867
X-190.624 Y-5.796
X-191.265 Y-5.751
X-191.906 Y-5.732
X-192.549 Y-5.745
X-193.118 Y-5.786
X-193.602 Y-5.848
X-194.033 Y-5.927
X-194.388 Y-6.012
X-194.691 Y-6.102
X-194.934 Y-6.189
X-195.113 Y-6.264
X-195.298 Y-6.354
X-195.429 Y-6.427
X-195.558 Y-6.508
X-195.748 Y-6.682
X-195.892 Y-6.896
X-195.982 Y-7.137
X-196.012 Y-7.393
Y-8.098
G3 X-195.731 Y-8.402 I0.317 J0.011
G1 X-195.4 Y-8.44
X-184.601 Y-9.672
X-184.341 Y-9.702
G3 X-183.988 Y-9.397 I0.036 J0.315
G1 Y-8.668
X-183.995 Y-8.518
X-184.021 Y-8.37
X-184.063 Y-8.226
X-184.118 Y-8.087
X-184.184 Y-7.952
X-184.259 Y-7.822
X-184.341 Y-7.697
X-184.441 Y-7.562
X-184.557 Y-7.422
X-184.695 Y-7.274
X-184.86 Y-7.113
X-185.039 Y-6.958
X-185.267 Y-6.781
X-185.516 Y-6.608
X-185.815 Y-6.424
X-186.175 Y-6.227
X-186.561 Y-6.044
X-187.025 Y-5.853
X-187.57 Y-5.663
X-188.186 Y-5.485
X-188.812 Y-5.339
X-189.443 Y-5.222
X-190.079 Y-5.131
X-190.718 Y-5.066
X-191.359 Y-5.026
X-192.001 Y-5.014
X-192.621 Y-5.033
X-193.187 Y-5.082
X-193.688 Y-5.152
X-194.096 Y-5.232
X-194.447 Y-5.321
X-194.742 Y-5.413
X-194.984 Y-5.503
X-195.152 Y-5.576
X-195.329 Y-5.665
X-195.459 Y-5.739
X-195.516 Y-5.775
X-195.723 Y-5.949
X-195.88 Y-6.169
X-195.979 Y-6.42
X-196.012 Y-6.688
Y-7.393
G3 X-195.731 Y-7.697 I0.317 J0.011
G1 X-195.399 Y-7.734
X-184.601 Y-8.943
X-184.34 Y-8.972
G3 X-183.988 Y-8.668 I0.035 J0.316
G1 Y-7.938
X-183.995 Y-7.788
X-184.023 Y-7.641
X-184.067 Y-7.497
X-184.124 Y-7.358
X-184.191 Y-7.224
X-184.267 Y-7.095
X-184.35 Y-6.97
X-184.454 Y-6.831
X-184.57 Y-6.693
X-184.712 Y-6.541
X-184.877 Y-6.382
X-185.069 Y-6.217
X-185.302 Y-6.037
X-185.551 Y-5.866
X-185.855 Y-5.681
X-186.224 Y-5.482
X-186.609 Y-5.301
X-187.084 Y-5.108
X-187.634 Y-4.919
X-188.252 Y-4.743
X-188.878 Y-4.601
X-189.51 Y-4.487
X-190.146 Y-4.4
X-190.786 Y-4.338
X-191.427 Y-4.303
X-192.069 Y-4.297
X-192.689 Y-4.323
X-193.248 Y-4.376
X-193.745 Y-4.451
X-194.15 Y-4.535
X-194.495 Y-4.626
X-194.785 Y-4.719
X-194.995 Y-4.8
X-195.191 Y-4.888
X-195.351 Y-4.97
X-195.48 Y-5.045
X-195.53 Y-5.079
X-195.731 Y-5.252
X-195.884 Y-5.47
X-195.98 Y-5.718
X-196.012 Y-5.982
Y-6.688
G3 X-195.73 Y-6.993 I0.317 J0.011
G1 X-195.399 Y-7.029
X-184.601 Y-8.214
X-184.339 Y-8.242
G3 X-183.988 Y-7.938 I0.035 J0.316
G1 Y-7.238
X-183.995 Y-7.088
X-184.021 Y-6.94
X-184.063 Y-6.796
X-184.119 Y-6.657
X-184.185 Y-6.522
X-184.259 Y-6.392
X-184.342 Y-6.266
X-184.444 Y-6.128
X-184.558 Y-5.99
X-184.701 Y-5.835
X-184.857 Y-5.683
X-185.052 Y-5.513
X-185.274 Y-5.339
X-185.522 Y-5.166
X-185.829 Y-4.975
X-186.171 Y-4.788
X-186.564 Y-4.6
X-187.039 Y-4.403
X-187.579 Y-4.213
X-188.188 Y-4.035
X-188.814 Y-3.888
X-189.445 Y-3.772
X-190.081 Y-3.683
X-190.72 Y-3.62
X-191.362 Y-3.585
X-192.004 Y-3.579
X-192.639 Y-3.603
X-193.193 Y-3.655
X-193.69 Y-3.729
X-194.119 Y-3.817
X-194.465 Y-3.907
X-194.767 Y-4.004
X-194.987 Y-4.088
X-195.172 Y-4.17
X-195.343 Y-4.257
X-195.473 Y-4.333
X-195.527 Y-4.369
X-195.729 Y-4.543
X-195.883 Y-4.761
X-195.98 Y-5.01
X-196.012 Y-5.275
Y-5.982
G3 X-195.73 Y-6.287 I0.317 J0.011
G1 X-195.399 Y-6.323
X-184.601 Y-7.513
X-184.34 Y-7.542
G3 X-183.988 Y-7.238 I0.035 J0.316
G1 Y-6.544
X-183.995 Y-6.394
X-184.018 Y-6.246
X-184.058 Y-6.101
X-184.111 Y-5.961
X-184.175 Y-5.825
X-184.248 Y-5.695
X-184.329 Y-5.568
X-184.428 Y-5.431
X-184.538 Y-5.295
X-184.679 Y-5.139
X-184.831 Y-4.988
X-185.018 Y-4.821
X-185.236 Y-4.647
X-185.478 Y-4.475
X-185.779 Y-4.284
X-186.113 Y-4.096
X-186.498 Y-3.907
X-186.963 Y-3.709
X-187.49 Y-3.518
X-188.079 Y-3.339
X-188.703 Y-3.187
X-189.333 Y-3.065
X-189.969 Y-2.973
X-190.608 Y-2.908
X-191.249 Y-2.87
X-191.891 Y-2.86
X-192.533 Y-2.881
X-193.101 Y-2.93
X-193.603 Y-3.001
X-194.052 Y-3.089
X-194.408 Y-3.18
X-194.719 Y-3.277
X-194.957 Y-3.365
X-195.14 Y-3.445
X-195.321 Y-3.536
X-195.451 Y-3.611
X-195.518 Y-3.654
X-195.724 Y-3.828
X-195.881 Y-4.047
X-195.979 Y-4.298
X-196.012 Y-4.566
Y-5.275
G3 X-195.73 Y-5.579 I0.317 J0.011
G1 X-195.399 Y-5.616
X-184.601 Y-6.819
X-184.34 Y-6.849
G3 X-183.988 Y-6.544 I0.035 J0.316
G1 Y-5.814
X-183.995 Y-5.665
X-184.02 Y-5.517
X-184.061 Y-5.372
X-184.115 Y-5.232
X-184.179 Y-5.097
X-184.253 Y-4.966
X-184.335 Y-4.84
X-184.435 Y-4.703
X-184.548 Y-4.564
X-184.686 Y-4.412
X-184.848 Y-4.252
X-185.031 Y-4.09
X-185.257 Y-3.91
X-185.502 Y-3.738
X-185.798 Y-3.551
X-186.158 Y-3.35
X-186.536 Y-3.166
X-186.99 Y-2.974
X-187.518 Y-2.785
X-188.11 Y-2.607
X-188.734 Y-2.457
X-189.366 Y-2.338
X-190.001 Y-2.247
X-190.64 Y-2.184
X-191.282 Y-2.149
X-191.924 Y-2.142
X-192.55 Y-2.165
X-193.128 Y-2.219
X-193.642 Y-2.294
X-194.081 Y-2.384
X-194.435 Y-2.476
X-194.744 Y-2.574
X-194.97 Y-2.66
X-195.163 Y-2.746
X-195.335 Y-2.833
X-195.464 Y-2.909
X-195.525 Y-2.949
X-195.728 Y-3.123
X-195.883 Y-3.341
X-195.98 Y-3.59
X-196.012 Y-3.856
Y-4.566
G3 X-195.73 Y-4.87 I0.317 J0.011
G1 X-195.399 Y-4.906
X-184.601 Y-6.09
X-184.339 Y-6.119
G3 X-183.988 Y-5.814 I0.035 J0.316
G1 Y-5.085
X-183.995 Y-4.935
X-184.014 Y-4.786
X-184.05 Y-4.64
X-184.099 Y-4.499
X-184.16 Y-4.362
X-184.231 Y-4.229
X-184.31 Y-4.102
X-184.395 Y-3.978
X-184.487 Y-3.86
X-184.584 Y-3.745
X-184.686 Y-3.635
X-184.792 Y-3.529
X-184.902 Y-3.427
X-185.015 Y-3.328
X-185.131 Y-3.234
X-185.25 Y-3.142
X-185.371 Y-3.054
X-185.495 Y-2.969
X-185.621 Y-2.888
X-185.748 Y-2.809
X-185.878 Y-2.733
X-186.009 Y-2.66
X-186.141 Y-2.59
X-186.275 Y-2.522
X-186.41 Y-2.457
X-186.547 Y-2.394
X-186.684 Y-2.334
X-186.822 Y-2.275
X-186.961 Y-2.219
X-187.101 Y-2.166
X-187.242 Y-2.114
X-187.384 Y-2.065
X-187.526 Y-2.017
X-187.669 Y-1.972
X-187.813 Y-1.929
X-187.957 Y-1.887
X-188.101 Y-1.847
X-188.247 Y-1.809
X-188.392 Y-1.773
X-188.538 Y-1.739
X-188.685 Y-1.706
X-188.831 Y-1.675
X-188.978 Y-1.645
X-189.126 Y-1.618
X-189.273 Y-1.591
X-189.421 Y-1.567
X-189.57 Y-1.544
X-189.718 Y-1.522
X-189.867 Y-1.502
X-190.016 Y-1.484
X-190.165 Y-1.467
X-190.314 Y-1.451
X-190.463 Y-1.438
X-190.613 Y-1.425
X-190.762 Y-1.414
X-190.912 Y-1.405
X-191.062 Y-1.397
X-191.212 Y-1.391
X-191.362 Y-1.386
X-191.512 Y-1.383
X-191.662 Y-1.382
X-191.812 Y-1.383
X-191.962 Y-1.385
X-192.112 Y-1.389
X-192.261 Y-1.394
X-192.411 Y-1.402
X-192.561 Y-1.411
X-192.711 Y-1.423
X-192.86 Y-1.436
X-193.009 Y-1.451
X-193.158 Y-1.469
X-193.307 Y-1.488
X-193.455 Y-1.51
X-193.603 Y-1.534
X-193.751 Y-1.561
X-193.898 Y-1.59
X-194.045 Y-1.622
X-194.191 Y-1.656
X-194.336 Y-1.694
X-194.48 Y-1.735
X-194.624 Y-1.779
X-194.766 Y-1.827
X-194.907 Y-1.878
X-195.046 Y-1.934
X-195.182 Y-1.996
X-195.317 Y-2.062
X-195.448 Y-2.135
X-195.502 Y-2.168
X-195.714 Y-2.342
X-195.876 Y-2.563
X-195.978 Y-2.818
X-196.012 Y-3.09
Y-3.856
G3 X-195.729 Y-4.16 I0.317 J0.011
G1 X-195.399 Y-4.196
X-184.601 Y-5.361
X-184.339 Y-5.389
G3 X-183.988 Y-5.085 I0.034 J0.316
G1 Y-4.289
X-183.995 Y-4.139
X-184.023 Y-3.992
X-184.068 Y-3.849
X-184.124 Y-3.71
X-184.191 Y-3.575
X-184.266 Y-3.446
X-184.351 Y-3.318
X-184.452 Y-3.183
X-184.572 Y-3.039
X-184.714 Y-2.886
X-184.877 Y-2.729
X-185.071 Y-2.561
X-185.296 Y-2.387
X-185.558 Y-2.206
X-185.86 Y-2.02
X-186.213 Y-1.829
X-186.617 Y-1.638
X-186.734 Y-1.59
X-187.207 Y-1.404
X-187.752 Y-1.222
X-187.907 Y-1.179
X-187.985 Y-1.159
G3 X-188.245 Y-1.723 I-0.07 J-0.31
G1 X-184.57 Y-4.476
X-184.495 Y-4.532
G3 X-183.988 Y-4.289 I0.19 J0.254
G1 Y-3.589
X-183.995 Y-3.439
X-184.013 Y-3.29
X-184.049 Y-3.145
X-184.099 Y-3.003
X-184.16 Y-2.866
X-184.231 Y-2.734
X-184.309 Y-2.606
X-184.395 Y-2.483
X-184.487 Y-2.364
X-184.584 Y-2.25
X-184.686 Y-2.14
X-184.792 Y-2.034
X-184.902 Y-1.932
X-185.015 Y-1.834
X-185.132 Y-1.739
X-185.251 Y-1.648
X-185.372 Y-1.56
X-185.496 Y-1.475
X-185.622 Y-1.394
X-185.744 Y-1.289
X-185.849 Y-1.168
X-185.935 Y-1.032
X-186 Y-0.886
X-186.043 Y-0.731
X-186.062 Y-0.571
X-186.058 Y-0.411
X-186.03 Y-0.253
X-185.979 Y-0.1
X-185.907 Y0.043
X-185.814 Y0.174
X-185.703 Y0.289
X-185.576 Y0.388
X-185.436 Y0.466
X-184.835 Y0.694
X-184.335 Y0.712
X-184.057 Y0.758
X-183.801 Y0.874
X-183.583 Y1.052
G3 X-183.879 Y1.574 I-0.238 J0.21
G1 X-183.948 Y1.561 Z-1.192
X-184.014 Y1.549 Z-1.169
X-184.073 Y1.538 Z-1.131
X-184.123 Y1.529 Z-1.08
X-184.16 Y1.522 Z-1.02
X-184.183 Y1.518 Z-0.953
X-184.191 Y1.517 Z-0.882
Z5
X-199.157 Y2.512
Z-0.565
Z-0.882
X-199.151 Y2.507 Z-0.953
X-199.133 Y2.492 Z-1.02
X-199.104 Y2.468 Z-1.08
X-199.065 Y2.435 Z-1.131
X-199.019 Y2.397 Z-1.169
X-198.967 Y2.354 Z-1.192
X-198.913 Y2.309 Z-1.2
G3 X-197.335 Y1.561 I2.248 J2.707
G1 X-197.255 Y1.549
X-197.189 Y1.529
X-197.043 Y1.485
X-196.86 Y1.403
X-196.8 Y1.365
X-196.669 Y1.293
X-196.532 Y1.231
X-196.387 Y1.176
X-196.203 Y1.118
X-196.083 Y1.088
X-195.944 Y1.056
X-195.618 Y0.992
X-195.459 Y0.969
X-195.379 Y0.959
G3 X-195.266 Y1.582 I0.028 J0.316
G1 X-196.538 Y1.935
G3 X-196.8 Y1.365 I-0.085 J-0.306
G1 X-196.751 Y1.335
X-196.631 Y1.257
X-196.605 Y1.236
X-196.468 Y1.111
X-196.459 Y1.101
X-196.397 Y1.026
X-196.295 Y0.916
X-196.19 Y0.795
X-196.104 Y0.659
X-196.039 Y0.513
X-195.953 Y0.203
X-195.944 Y-0.439
X-195.978 Y-0.573
X-195.997 Y-0.662
X-196.009 Y-0.753
X-196.012 Y-0.844
G3 X-195.655 Y-1.148 I0.317 J0.011
X-195.385 Y-0.765 I-0.04 J0.315
G1 X-195.836 Y1.289
G3 X-196.456 Y1.153 I-0.31 J-0.068
X-196.397 Y1.026 I0.31 J0.068
G1 X-196.346 Y0.965
X-196.241 Y0.819
X-196.167 Y0.673
X-196.107 Y0.527
X-196.062 Y0.381
X-196.032 Y0.235
X-196.021 Y0.127
X-196.019 Y0.089
X-196.013 Y-0.057
X-196.012 Y-3.09
G3 X-195.709 Y-3.396 I0.317 J0.011
G1 X-195.398 Y-3.41
X-184.602 Y-3.883
X-184.319 Y-3.895
G3 X-183.988 Y-3.589 I0.014 J0.317
G1 Y-2.83
X-183.995 Y-2.68
X-184.018 Y-2.532
X-184.059 Y-2.387
X-184.116 Y-2.237
X-184.185 Y-1.924
X-184.166 Y-1.603
X-184.022 Y-1.046
X-184.003 Y-0.957
X-183.991 Y-0.866
X-183.988 Y-0.774
G3 X-184.622 Y-0.785 I-0.317 J-0.011
G1 Y-2.819
G3 X-183.988 Y-2.83 I0.317 J0
G1 X-183.987 Y-0.057
X-183.984 Y0.024
G3 X-184.549 Y0.224 I-0.317 J0.002
G1 X-184.594 Y0.169 Z-1.192
X-184.635 Y0.117 Z-1.169
X-184.673 Y0.07 Z-1.131
X-184.705 Y0.031 Z-1.08
X-184.728 Y0.001 Z-1.02
X-184.743 Y-0.017 Z-0.953
X-184.748 Y-0.023 Z-0.882
Z15
(When using Fusion 360 for Personal Use, the feedrate of)
(rapid moves is reduced to match the feedrate of cutting)
(moves, which can increase machining time. Unrestricted rapid)
(moves are available with a Fusion 360 Subscription.)

(2D Adaptive2)
G0 X-189.746 Y3.745
G1 Z15 F1000
Z5
Z0.135
Z-0.183
X-189.748 Y3.737 Z-0.253
X-189.753 Y3.714 Z-0.32
X-189.763 Y3.678 Z-0.38
X-189.775 Y3.629 Z-0.431
X-189.79 Y3.571 Z-0.469
X-189.807 Y3.506 Z-0.492
X-189.824 Y3.437 Z-0.5
G3 X-190.073 Y1.709 I7.852 J-2.011
G1 Y1.559
X-190.026 Y1.416
X-189.942 Y1.292
X-189.84 Y1.182
X-189.726 Y1.084
X-189.604 Y0.997
X-189.476 Y0.918
X-189.344 Y0.848
X-189.208 Y0.785
X-189.069 Y0.728
X-188.928 Y0.677
X-188.785 Y0.631
X-188.641 Y0.589
X-188.496 Y0.552
X-188.35 Y0.518
X-188.203 Y0.488
X-188.055 Y0.46
X-187.907 Y0.435
X-187.759 Y0.413
X-187.61 Y0.393
X-187.462 Y0.375
X-187.312 Y0.358
X-187.163 Y0.343
X-187.014 Y0.33
X-186.864 Y0.318
X-186.709 Y0.306
X-186.535 Y0.295
X-186.34 Y0.284
X-186.116 Y0.272
X-185.855 Y0.261
X-185.54 Y0.249
X-185.146 Y0.238
X-184.745 Y0.229
X-184.512 Y0.261
X-184.301 Y0.364
X-184.133 Y0.529
X-184.025 Y0.737
X-183.988 Y0.969
G3 X-184.561 Y1.146 I-0.317 J-0.011
G1 X-184.603 Y1.089 Z-0.492
X-184.642 Y1.035 Z-0.469
X-184.678 Y0.987 Z-0.431
X-184.708 Y0.946 Z-0.38
X-184.73 Y0.916 Z-0.32
X-184.744 Y0.897 Z-0.253
X-184.749 Y0.89 Z-0.183
Z5
X-195.358 Y3.562
Z0.135
Z-0.183
X-195.362 Y3.555 Z-0.253
X-195.374 Y3.535 Z-0.32
X-195.394 Y3.502 Z-0.38
X-195.419 Y3.459 Z-0.431
X-195.45 Y3.407 Z-0.469
X-195.484 Y3.35 Z-0.492
X-195.52 Y3.289 Z-0.5
G3 X-196.012 Y1.613 I3.024 J-1.798
G1 Y1.424
X-196.011 Y1.386
X-195.921 Y1.266
X-195.816 Y1.159
X-195.701 Y1.063
X-195.577 Y0.978
X-195.448 Y0.901
X-195.315 Y0.833
X-195.178 Y0.771
X-195.039 Y0.715
X-194.897 Y0.666
X-194.754 Y0.621
X-194.61 Y0.58
X-194.464 Y0.544
X-194.318 Y0.511
X-194.171 Y0.481
X-194.023 Y0.454
X-193.875 Y0.43
X-193.727 Y0.408
X-193.578 Y0.389
X-193.429 Y0.371
X-193.28 Y0.355
X-193.131 Y0.34
X-192.981 Y0.327
X-192.832 Y0.315
X-192.672 Y0.304
X-192.494 Y0.292
X-191.853 Y0.256
X-191.236 Y0.077
X-190.636 Y-0.152
X-190.496 Y-0.204
X-190.279 Y-0.282
X-190.203 Y-0.309
G3 X-189.804 Y-0.092 I0.094 J0.303
X-190.031 Y0.302 I-0.306 J0.086
G1 X-195.405 Y1.666
X-195.617 Y1.72
G3 X-196.012 Y1.424 I-0.078 J-0.308
G1 Y0.95
X-196.005 Y0.8
X-195.953 Y0.66
X-195.885 Y0.526
X-195.803 Y0.4
X-195.71 Y0.283
X-195.638 Y0.139
X-195.599 Y-0.017
X-195.594 Y-0.177
X-195.624 Y-0.335
X-195.687 Y-0.482
X-195.768 Y-0.596
X-195.783 Y-0.61
X-195.907 Y-0.766
X-195.986 Y-0.949
X-196.012 Y-1.146
G3 X-195.378 Y-1.135 I0.317 J0.011
G1 Y0.939
G3 X-196.012 Y0.95 I-0.317 J0
G1 Y-0.945
G3 X-195.739 Y-1.248 I0.317 J0.011
G1 X-195.401 Y-1.295
X-184.6 Y-2.802
X-184.349 Y-2.837
G3 X-183.988 Y-2.533 I0.044 J0.314
G1 Y-0.055
G3 X-184.285 Y0.25 I-0.317 J-0.011
G1 X-184.305 Y0.251 Z-0.499
X-184.358 Y0.237 Z-0.491
X-184.409 Y0.224 Z-0.473
X-184.456 Y0.212 Z-0.446
X-184.492 Y0.181 Z-0.406
X-184.521 Y0.156 Z-0.358
X-184.543 Y0.137 Z-0.303
X-184.556 Y0.125 Z-0.244
X-184.561 Y0.121 Z-0.183
Z5
X-189.746 Y3.745
Z-0.365
Z-0.683
X-189.748 Y3.737 Z-0.753
X-189.753 Y3.714 Z-0.82
X-189.763 Y3.678 Z-0.88
X-189.775 Y3.629 Z-0.931
X-189.79 Y3.571 Z-0.969
X-189.807 Y3.506 Z-0.992
X-189.824 Y3.437 Z-1
G3 X-190.073 Y1.709 I7.852 J-2.011
G1 Y1.559
X-190.026 Y1.416
X-189.942 Y1.292
X-189.84 Y1.182
X-189.726 Y1.084
X-189.604 Y0.997
X-189.476 Y0.918
X-189.344 Y0.848
X-189.208 Y0.785
X-189.069 Y0.728
X-188.928 Y0.677
X-188.785 Y0.631
X-188.641 Y0.589
X-188.496 Y0.552
X-188.35 Y0.518
X-188.203 Y0.488
X-188.055 Y0.46
X-187.907 Y0.435
X-187.759 Y0.413
X-187.61 Y0.393
X-187.462 Y0.375
X-187.312 Y0.358
X-187.163 Y0.343
X-187.014 Y0.33
X-186.864 Y0.318
X-186.709 Y0.306
X-186.535 Y0.295
X-186.34 Y0.284
X-186.116 Y0.272
X-185.855 Y0.261
X-185.54 Y0.249
X-185.146 Y0.238
X-184.745 Y0.229
X-184.512 Y0.261
X-184.301 Y0.364
X-184.133 Y0.529
X-184.025 Y0.737
X-183.988 Y0.969
G3 X-184.561 Y1.146 I-0.317 J-0.011
G1 X-184.603 Y1.089 Z-0.992
X-184.642 Y1.035 Z-0.969
X-184.678 Y0.987 Z-0.931
X-184.708 Y0.946 Z-0.88
X-184.73 Y0.916 Z-0.82
X-184.744 Y0.897 Z-0.753
X-184.749 Y0.89 Z-0.683
Z5
X-195.358 Y3.562
Z-0.365
Z-0.683
X-195.362 Y3.555 Z-0.753
X-195.374 Y3.535 Z-0.82
X-195.394 Y3.502 Z-0.88
X-195.419 Y3.459 Z-0.931
X-195.45 Y3.407 Z-0.969
X-195.484 Y3.35 Z-0.992
X-195.52 Y3.289 Z-1
G3 X-196.012 Y1.613 I3.024 J-1.798
G1 Y1.424
X-196.011 Y1.386
X-195.921 Y1.266
X-195.816 Y1.159
X-195.701 Y1.063
X-195.577 Y0.978
X-195.448 Y0.901
X-195.315 Y0.833
X-195.178 Y0.771
X-195.039 Y0.715
X-194.897 Y0.666
X-194.754 Y0.621
X-194.61 Y0.58
X-194.464 Y0.544
X-194.318 Y0.511
X-194.171 Y0.481
X-194.023 Y0.454
X-193.875 Y0.43
X-193.727 Y0.408
X-193.578 Y0.389
X-193.429 Y0.371
X-193.28 Y0.355
X-193.131 Y0.34
X-192.981 Y0.327
X-192.832 Y0.315
X-192.672 Y0.304
X-192.494 Y0.292
X-191.853 Y0.256
X-191.236 Y0.077
X-190.636 Y-0.152
X-190.496 Y-0.204
X-190.279 Y-0.282
X-190.203 Y-0.309
G3 X-189.804 Y-0.092 I0.094 J0.303
X-190.031 Y0.302 I-0.306 J0.086
G1 X-195.405 Y1.666
X-195.617 Y1.72
G3 X-196.012 Y1.424 I-0.078 J-0.308
G1 Y0.95
X-196.005 Y0.8
X-195.953 Y0.66
X-195.885 Y0.526
X-195.803 Y0.4
X-195.71 Y0.283
X-195.638 Y0.139
X-195.599 Y-0.017
X-195.594 Y-0.177
X-195.624 Y-0.335
X-195.687 Y-0.482
X-195.768 Y-0.596
X-195.783 Y-0.61
X-195.907 Y-0.766
X-195.986 Y-0.949
X-196.012 Y-1.146
G3 X-195.378 Y-1.135 I0.317 J0.011
G1 Y0.939
G3 X-196.012 Y0.95 I-0.317 J0
G1 Y-0.945
G3 X-195.739 Y-1.248 I0.317 J0.011
G1 X-195.401 Y-1.295
X-184.6 Y-2.802
X-184.349 Y-2.837
G3 X-183.988 Y-2.533 I0.044 J0.314
G1 Y-0.055
G3 X-184.285 Y0.25 I-0.317 J-0.011
G1 X-184.305 Y0.251 Z-0.999
X-184.358 Y0.237 Z-0.991
X-184.409 Y0.224 Z-0.973
X-184.456 Y0.212 Z-0.946
X-184.492 Y0.181 Z-0.906
X-184.521 Y0.156 Z-0.858
X-184.543 Y0.137 Z-0.803
X-184.556 Y0.125 Z-0.744
X-184.561 Y0.121 Z-0.683
Z5
X-189.746 Y3.745
Z-0.865
Z-1.183
X-189.748 Y3.737 Z-1.253
X-189.753 Y3.714 Z-1.32
X-189.763 Y3.678 Z-1.38
X-189.775 Y3.629 Z-1.431
X-189.79 Y3.571 Z-1.469
X-189.807 Y3.506 Z-1.492
X-189.824 Y3.437 Z-1.5
G3 X-190.073 Y1.709 I7.852 J-2.011
G1 Y1.559
X-190.026 Y1.416
X-189.942 Y1.292
X-189.84 Y1.182
X-189.726 Y1.084
X-189.604 Y0.997
X-189.476 Y0.918
X-189.344 Y0.848
X-189.208 Y0.785
X-189.069 Y0.728
X-188.928 Y0.677
X-188.785 Y0.631
X-188.641 Y0.589
X-188.496 Y0.552
X-188.35 Y0.518
X-188.203 Y0.488
X-188.055 Y0.46
X-187.907 Y0.435
X-187.759 Y0.413
X-187.61 Y0.393
X-187.462 Y0.375
X-187.312 Y0.358
X-187.163 Y0.343
X-187.014 Y0.33
X-186.864 Y0.318
X-186.709 Y0.306
X-186.535 Y0.295
X-186.34 Y0.284
X-186.116 Y0.272
X-185.855 Y0.261
X-185.54 Y0.249
X-185.146 Y0.238
X-184.745 Y0.229
X-184.512 Y0.261
X-184.301 Y0.364
X-184.133 Y0.529
X-184.025 Y0.737
X-183.988 Y0.969
G3 X-184.561 Y1.146 I-0.317 J-0.011
G1 X-184.603 Y1.089 Z-1.492
X-184.642 Y1.035 Z-1.469
X-184.678 Y0.987 Z-1.431
X-184.708 Y0.946 Z-1.38
X-184.73 Y0.916 Z-1.32
X-184.744 Y0.897 Z-1.253
X-184.749 Y0.89 Z-1.183
Z5
X-195.358 Y3.562
Z-0.865
Z-1.183
X-195.362 Y3.555 Z-1.253
X-195.374 Y3.535 Z-1.32
X-195.394 Y3.502 Z-1.38
X-195.419 Y3.459 Z-1.431
X-195.45 Y3.407 Z-1.469
X-195.484 Y3.35 Z-1.492
X-195.52 Y3.289 Z-1.5
G3 X-196.012 Y1.613 I3.024 J-1.798
G1 Y1.424
X-196.011 Y1.386
X-195.921 Y1.266
X-195.816 Y1.159
X-195.701 Y1.063
X-195.577 Y0.978
X-195.448 Y0.901
X-195.315 Y0.833
X-195.178 Y0.771
X-195.039 Y0.715
X-194.897 Y0.666
X-194.754 Y0.621
X-194.61 Y0.58
X-194.464 Y0.544
X-194.318 Y0.511
X-194.171 Y0.481
X-194.023 Y0.454
X-193.875 Y0.43
X-193.727 Y0.408
X-193.578 Y0.389
X-193.429 Y0.371
X-193.28 Y0.355
X-193.131 Y0.34
X-192.981 Y0.327
X-192.832 Y0.315
X-192.672 Y0.304
X-192.494 Y0.292
X-191.853 Y0.256
X-191.236 Y0.077
X-190.636 Y-0.152
X-190.496 Y-0.204
X-190.279 Y-0.282
X-190.203 Y-0.309
G3 X-189.804 Y-0.092 I0.094 J0.303
X-190.031 Y0.302 I-0.306 J0.086
G1 X-195.405 Y1.666
X-195.617 Y1.72
G3 X-196.012 Y1.424 I-0.078 J-0.308
G1 Y0.95
X-196.005 Y0.8
X-195.953 Y0.66
X-195.885 Y0.526
X-195.803 Y0.4
X-195.71 Y0.283
X-195.638 Y0.139
X-195.599 Y-0.017
X-195.594 Y-0.177
X-195.624 Y-0.335
X-195.687 Y-0.482
X-195.768 Y-0.596
X-195.783 Y-0.61
X-195.907 Y-0.766
X-195.986 Y-0.949
X-196.012 Y-1.146
G3 X-195.378 Y-1.135 I0.317 J0.011
G1 Y0.939
G3 X-196.012 Y0.95 I-0.317 J0
G1 Y-0.945
G3 X-195.739 Y-1.248 I0.317 J0.011
G1 X-195.401 Y-1.295
X-184.6 Y-2.802
X-184.349 Y-2.837
G3 X-183.988 Y-2.533 I0.044 J0.314
G1 Y-0.055
G3 X-184.285 Y0.25 I-0.317 J-0.011
G1 X-184.305 Y0.251 Z-1.499
X-184.358 Y0.237 Z-1.491
X-184.409 Y0.224 Z-1.473
X-184.456 Y0.212 Z-1.446
X-184.492 Y0.181 Z-1.406
X-184.521 Y0.156 Z-1.358
X-184.543 Y0.137 Z-1.303
X-184.556 Y0.125 Z-1.244
X-184.561 Y0.121 Z-1.183
Z5
X-189.746 Y3.745
Z-1.365
Z-1.683
X-189.748 Y3.737 Z-1.753
X-189.753 Y3.714 Z-1.82
X-189.763 Y3.678 Z-1.88
X-189.775 Y3.629 Z-1.931
X-189.79 Y3.571 Z-1.969
X-189.807 Y3.506 Z-1.992
X-189.824 Y3.437 Z-2
G3 X-190.073 Y1.709 I7.852 J-2.011
G1 Y1.559
X-190.026 Y1.416
X-189.942 Y1.292
X-189.84 Y1.182
X-189.726 Y1.084
X-189.604 Y0.997
X-189.476 Y0.918
X-189.344 Y0.848
X-189.208 Y0.785
X-189.069 Y0.728
X-188.928 Y0.677
X-188.785 Y0.631
X-188.641 Y0.589
X-188.496 Y0.552
X-188.35 Y0.518
X-188.203 Y0.488
X-188.055 Y0.46
X-187.907 Y0.435
X-187.759 Y0.413
X-187.61 Y0.393
X-187.462 Y0.375
X-187.312 Y0.358
X-187.163 Y0.343
X-187.014 Y0.33
X-186.864 Y0.318
X-186.709 Y0.306
X-186.535 Y0.295
X-186.34 Y0.284
X-186.116 Y0.272
X-185.855 Y0.261
X-185.54 Y0.249
X-185.146 Y0.238
X-184.745 Y0.229
X-184.512 Y0.261
X-184.301 Y0.364
X-184.133 Y0.529
X-184.025 Y0.737
X-183.988 Y0.969
G3 X-184.561 Y1.146 I-0.317 J-0.011
G1 X-184.603 Y1.089 Z-1.992
X-184.642 Y1.035 Z-1.969
X-184.678 Y0.987 Z-1.931
X-184.708 Y0.946 Z-1.88
X-184.73 Y0.916 Z-1.82
X-184.744 Y0.897 Z-1.753
X-184.749 Y0.89 Z-1.683
Z5
X-195.358 Y3.562
Z-1.365
Z-1.683
X-195.362 Y3.555 Z-1.753
X-195.374 Y3.535 Z-1.82
X-195.394 Y3.502 Z-1.88
X-195.419 Y3.459 Z-1.931
X-195.45 Y3.407 Z-1.969
X-195.484 Y3.35 Z-1.992
X-195.52 Y3.289 Z-2
G3 X-196.012 Y1.613 I3.024 J-1.798
G1 Y1.424
X-196.011 Y1.386
X-195.921 Y1.266
X-195.816 Y1.159
X-195.701 Y1.063
X-195.577 Y0.978
X-195.448 Y0.901
X-195.315 Y0.833
X-195.178 Y0.771
X-195.039 Y0.715
X-194.897 Y0.666
X-194.754 Y0.621
X-194.61 Y0.58
X-194.464 Y0.544
X-194.318 Y0.511
X-194.171 Y0.481
X-194.023 Y0.454
X-193.875 Y0.43
X-193.727 Y0.408
X-193.578 Y0.389
X-193.429 Y0.371
X-193.28 Y0.355
X-193.131 Y0.34
X-192.981 Y0.327
X-192.832 Y0.315
X-192.672 Y0.304
X-192.494 Y0.292
X-191.853 Y0.256
X-191.236 Y0.077
X-190.636 Y-0.152
X-190.496 Y-0.204
X-190.279 Y-0.282
X-190.203 Y-0.309
G3 X-189.804 Y-0.092 I0.094 J0.303
X-190.031 Y0.302 I-0.306 J0.086
G1 X-195.405 Y1.666
X-195.617 Y1.72
G3 X-196.012 Y1.424 I-0.078 J-0.308
G1 Y0.95
X-196.005 Y0.8
X-195.953 Y0.66
X-195.885 Y0.526
X-195.803 Y0.4
X-195.71 Y0.283
X-195.638 Y0.139
X-195.599 Y-0.017
X-195.594 Y-0.177
X-195.624 Y-0.335
X-195.687 Y-0.482
X-195.768 Y-0.596
X-195.783 Y-0.61
X-195.907 Y-0.766
X-195.986 Y-0.949
X-196.012 Y-1.146
G3 X-195.378 Y-1.135 I0.317 J0.011
G1 Y0.939
G3 X-196.012 Y0.95 I-0.317 J0
G1 Y-0.945
G3 X-195.739 Y-1.248 I0.317 J0.011
G1 X-195.401 Y-1.295
X-184.6 Y-2.802
X-184.349 Y-2.837
G3 X-183.988 Y-2.533 I0.044 J0.314
G1 Y-0.055
G3 X-184.285 Y0.25 I-0.317 J-0.011
G1 X-184.305 Y0.251 Z-1.999
X-184.358 Y0.237 Z-1.991
X-184.409 Y0.224 Z-1.973
X-184.456 Y0.212 Z-1.946
X-184.492 Y0.181 Z-1.906
X-184.521 Y0.156 Z-1.858
X-184.543 Y0.137 Z-1.803
X-184.556 Y0.125 Z-1.744
X-184.561 Y0.121 Z-1.683
Z5
X-189.746 Y3.745
Z-1.865
Z-2.182
X-189.748 Y3.737 Z-2.253
X-189.753 Y3.714 Z-2.32
X-189.763 Y3.678 Z-2.38
X-189.775 Y3.629 Z-2.431
X-189.79 Y3.571 Z-2.469
X-189.807 Y3.506 Z-2.492
X-189.824 Y3.437 Z-2.5
G3 X-190.073 Y1.709 I7.852 J-2.011
G1 Y1.559
X-190.026 Y1.416
X-189.942 Y1.292
X-189.84 Y1.182
X-189.726 Y1.084
X-189.604 Y0.997
X-189.476 Y0.918
X-189.344 Y0.848
X-189.208 Y0.785
X-189.069 Y0.728
X-188.928 Y0.677
X-188.785 Y0.631
X-188.641 Y0.589
X-188.496 Y0.552
X-188.35 Y0.518
X-188.203 Y0.488
X-188.055 Y0.46
X-187.907 Y0.435
X-187.759 Y0.413
X-187.61 Y0.393
X-187.462 Y0.375
X-187.312 Y0.358
X-187.163 Y0.343
X-187.014 Y0.33
X-186.864 Y0.318
X-186.709 Y0.306
X-186.535 Y0.295
X-186.34 Y0.284
X-186.116 Y0.272
X-185.855 Y0.261
X-185.54 Y0.249
X-185.146 Y0.238
X-184.745 Y0.229
X-184.512 Y0.261
X-184.301 Y0.364
X-184.133 Y0.529
X-184.025 Y0.737
X-183.988 Y0.969
G3 X-184.561 Y1.146 I-0.317 J-0.011
G1 X-184.603 Y1.089 Z-2.492
X-184.642 Y1.035 Z-2.469
X-184.678 Y0.987 Z-2.431
X-184.708 Y0.946 Z-2.38
X-184.73 Y0.916 Z-2.32
X-184.744 Y0.897 Z-2.253
X-184.749 Y0.89 Z-2.182
Z5
X-195.358 Y3.562
Z-1.865
Z-2.182
X-195.362 Y3.555 Z-2.253
X-195.374 Y3.535 Z-2.32
X-195.394 Y3.502 Z-2.38
X-195.419 Y3.459 Z-2.431
X-195.45 Y3.407 Z-2.469
X-195.484 Y3.35 Z-2.492
X-195.52 Y3.289 Z-2.5
G3 X-196.012 Y1.613 I3.024 J-1.798
G1 Y1.424
X-196.011 Y1.386
X-195.921 Y1.266
X-195.816 Y1.159
X-195.701 Y1.063
X-195.577 Y0.978
X-195.448 Y0.901
X-195.315 Y0.833
X-195.178 Y0.771
X-195.039 Y0.715
X-194.897 Y0.666
X-194.754 Y0.621
X-194.61 Y0.58
X-194.464 Y0.544
X-194.318 Y0.511
X-194.171 Y0.481
X-194.023 Y0.454
X-193.875 Y0.43
X-193.727 Y0.408
X-193.578 Y0.389
X-193.429 Y0.371
X-193.28 Y0.355
X-193.131 Y0.34
X-192.981 Y0.327
X-192.832 Y0.315
X-192.672 Y0.304
X-192.494 Y0.292
X-191.853 Y0.256
X-191.236 Y0.077
X-190.636 Y-0.152
X-190.496 Y-0.204
X-190.279 Y-0.282
X-190.203 Y-0.309
G3 X-189.804 Y-0.092 I0.094 J0.303
X-190.031 Y0.302 I-0.306 J0.086
G1 X-195.405 Y1.666
X-195.617 Y1.72
G3 X-196.012 Y1.424 I-0.078 J-0.308
G1 Y0.95
X-196.005 Y0.8
X-195.953 Y0.66
X-195.885 Y0.526
X-195.803 Y0.4
X-195.71 Y0.283
X-195.638 Y0.139
X-195.599 Y-0.017
X-195.594 Y-0.177
X-195.624 Y-0.335
X-195.687 Y-0.482
X-195.768 Y-0.596
X-195.783 Y-0.61
X-195.907 Y-0.766
X-195.986 Y-0.949
X-196.012 Y-1.146
G3 X-195.378 Y-1.135 I0.317 J0.011
G1 Y0.939
G3 X-196.012 Y0.95 I-0.317 J0
G1 Y-0.945
G3 X-195.739 Y-1.248 I0.317 J0.011
G1 X-195.401 Y-1.295
X-184.6 Y-2.802
X-184.349 Y-2.837
G3 X-183.988 Y-2.533 I0.044 J0.314
G1 Y-0.055
G3 X-184.285 Y0.25 I-0.317 J-0.011
G1 X-184.305 Y0.251 Z-2.499
X-184.358 Y0.237 Z-2.491
X-184.409 Y0.224 Z-2.473
X-184.456 Y0.212 Z-2.446
X-184.492 Y0.181 Z-2.406
X-184.521 Y0.156 Z-2.358
X-184.543 Y0.137 Z-2.303
X-184.556 Y0.125 Z-2.244
X-184.561 Y0.121 Z-2.183
Z5
X-189.746 Y3.745
Z-2.365
Z-2.682
X-189.748 Y3.737 Z-2.753
X-189.753 Y3.714 Z-2.82
X-189.763 Y3.678 Z-2.88
X-189.775 Y3.629 Z-2.931
X-189.79 Y3.571 Z-2.969
X-189.807 Y3.506 Z-2.992
X-189.824 Y3.437 Z-3
G3 X-190.073 Y1.709 I7.852 J-2.011
G1 Y1.559
X-190.026 Y1.416
X-189.942 Y1.292
X-189.84 Y1.182
X-189.726 Y1.084
X-189.604 Y0.997
X-189.476 Y0.918
X-189.344 Y0.848
X-189.208 Y0.785
X-189.069 Y0.728
X-188.928 Y0.677
X-188.785 Y0.631
X-188.641 Y0.589
X-188.496 Y0.552
X-188.35 Y0.518
X-188.203 Y0.488
X-188.055 Y0.46
X-187.907 Y0.435
X-187.759 Y0.413
X-187.61 Y0.393
X-187.462 Y0.375
X-187.312 Y0.358
X-187.163 Y0.343
X-187.014 Y0.33
X-186.864 Y0.318
X-186.709 Y0.306
X-186.535 Y0.295
X-186.34 Y0.284
X-186.116 Y0.272
X-185.855 Y0.261
X-185.54 Y0.249
X-185.146 Y0.238
X-184.745 Y0.229
X-184.512 Y0.261
X-184.301 Y0.364
X-184.133 Y0.529
X-184.025 Y0.737
X-183.988 Y0.969
G3 X-184.561 Y1.146 I-0.317 J-0.011
G1 X-184.603 Y1.089 Z-2.992
X-184.642 Y1.035 Z-2.969
X-184.678 Y0.987 Z-2.931
X-184.708 Y0.946 Z-2.88
X-184.73 Y0.916 Z-2.82
X-184.744 Y0.897 Z-2.753
X-184.749 Y0.89 Z-2.682
Z5
X-195.358 Y3.562
Z-2.365
Z-2.682
X-195.362 Y3.555 Z-2.753
X-195.374 Y3.535 Z-2.82
X-195.394 Y3.502 Z-2.88
X-195.419 Y3.459 Z-2.931
X-195.45 Y3.407 Z-2.969
X-195.484 Y3.35 Z-2.992
X-195.52 Y3.289 Z-3
G3 X-196.012 Y1.613 I3.024 J-1.798
G1 Y1.424
X-196.011 Y1.386
X-195.921 Y1.266
X-195.816 Y1.159
X-195.701 Y1.063
X-195.577 Y0.978
X-195.448 Y0.901
X-195.315 Y0.833
X-195.178 Y0.771
X-195.039 Y0.715
X-194.897 Y0.666
X-194.754 Y0.621
X-194.61 Y0.58
X-194.464 Y0.544
X-194.318 Y0.511
X-194.171 Y0.481
X-194.023 Y0.454
X-193.875 Y0.43
X-193.727 Y0.408
X-193.578 Y0.389
X-193.429 Y0.371
X-193.28 Y0.355
X-193.131 Y0.34
X-192.981 Y0.327
X-192.832 Y0.315
X-192.672 Y0.304
X-192.494 Y0.292
X-191.853 Y0.256
X-191.236 Y0.077
X-190.636 Y-0.152
X-190.496 Y-0.204
X-190.279 Y-0.282
X-190.203 Y-0.309
G3 X-189.804 Y-0.092 I0.094 J0.303
X-190.031 Y0.302 I-0.306 J0.086
G1 X-195.405 Y1.666
X-195.617 Y1.72
G3 X-196.012 Y1.424 I-0.078 J-0.308
G1 Y0.95
X-196.005 Y0.8
X-195.953 Y0.66
X-195.885 Y0.526
X-195.803 Y0.4
X-195.71 Y0.283
X-195.638 Y0.139
X-195.599 Y-0.017
X-195.594 Y-0.177
X-195.624 Y-0.335
X-195.687 Y-0.482
X-195.768 Y-0.596
X-195.783 Y-0.61
X-195.907 Y-0.766
X-195.986 Y-0.949
X-196.012 Y-1.146
G3 X-195.378 Y-1.135 I0.317 J0.011
G1 Y0.939
G3 X-196.012 Y0.95 I-0.317 J0
G1 Y-0.945
G3 X-195.739 Y-1.248 I0.317 J0.011
G1 X-195.401 Y-1.295
X-184.6 Y-2.802
X-184.349 Y-2.837
G3 X-183.988 Y-2.533 I0.044 J0.314
G1 Y-0.055
G3 X-184.285 Y0.25 I-0.317 J-0.011
G1 X-184.305 Y0.251 Z-2.999
X-184.358 Y0.237 Z-2.991
X-184.409 Y0.224 Z-2.973
X-184.456 Y0.212 Z-2.946
X-184.492 Y0.181 Z-2.906
X-184.521 Y0.156 Z-2.858
X-184.543 Y0.137 Z-2.803
X-184.556 Y0.125 Z-2.744
X-184.561 Y0.121 Z-2.683
Z5
X-189.746 Y3.745
Z-2.865
Z-3.182
X-189.748 Y3.737 Z-3.253
X-189.753 Y3.714 Z-3.32
X-189.763 Y3.678 Z-3.38
X-189.775 Y3.629 Z-3.431
X-189.79 Y3.571 Z-3.469
X-189.807 Y3.506 Z-3.492
X-189.824 Y3.437 Z-3.5
G3 X-190.073 Y1.709 I7.852 J-2.011
G1 Y1.559
X-190.026 Y1.416
X-189.942 Y1.292
X-189.84 Y1.182
X-189.726 Y1.084
X-189.604 Y0.997
X-189.476 Y0.918
X-189.344 Y0.848
X-189.208 Y0.785
X-189.069 Y0.728
X-188.928 Y0.677
X-188.785 Y0.631
X-188.641 Y0.589
X-188.496 Y0.552
X-188.35 Y0.518
X-188.203 Y0.488
X-188.055 Y0.46
X-187.907 Y0.435
X-187.759 Y0.413
X-187.61 Y0.393
X-187.462 Y0.375
X-187.312 Y0.358
X-187.163 Y0.343
X-187.014 Y0.33
X-186.864 Y0.318
X-186.709 Y0.306
X-186.535 Y0.295
X-186.34 Y0.284
X-186.116 Y0.272
X-185.855 Y0.261
X-185.54 Y0.249
X-185.146 Y0.238
X-184.745 Y0.229
X-184.512 Y0.261
X-184.301 Y0.364
X-184.133 Y0.529
X-184.025 Y0.737
X-183.988 Y0.969
G3 X-184.561 Y1.146 I-0.317 J-0.011
G1 X-184.603 Y1.089 Z-3.492
X-184.642 Y1.035 Z-3.469
X-184.678 Y0.987 Z-3.431
X-184.708 Y0.946 Z-3.38
X-184.73 Y0.916 Z-3.32
X-184.744 Y0.897 Z-3.253
X-184.749 Y0.89 Z-3.182
Z5
X-195.358 Y3.562
Z-2.865
Z-3.182
X-195.362 Y3.555 Z-3.253
X-195.374 Y3.535 Z-3.32
X-195.394 Y3.502 Z-3.38
X-195.419 Y3.459 Z-3.431
X-195.45 Y3.407 Z-3.469
X-195.484 Y3.35 Z-3.492
X-195.52 Y3.289 Z-3.5
G3 X-196.012 Y1.613 I3.024 J-1.798
G1 Y1.424
X-196.011 Y1.386
X-195.921 Y1.266
X-195.816 Y1.159
X-195.701 Y1.063
X-195.577 Y0.978
X-195.448 Y0.901
X-195.315 Y0.833
X-195.178 Y0.771
X-195.039 Y0.715
X-194.897 Y0.666
X-194.754 Y0.621
X-194.61 Y0.58
X-194.464 Y0.544
X-194.318 Y0.511
X-194.171 Y0.481
X-194.023 Y0.454
X-193.875 Y0.43
X-193.727 Y0.408
X-193.578 Y0.389
X-193.429 Y0.371
X-193.28 Y0.355
X-193.131 Y0.34
X-192.981 Y0.327
X-192.832 Y0.315
X-192.672 Y0.304
X-192.494 Y0.292
X-191.853 Y0.256
X-191.236 Y0.077
X-190.636 Y-0.152
X-190.496 Y-0.204
X-190.279 Y-0.282
X-190.203 Y-0.309
G3 X-189.804 Y-0.092 I0.094 J0.303
X-190.031 Y0.302 I-0.306 J0.086
G1 X-195.405 Y1.666
X-195.617 Y1.72
G3 X-196.012 Y1.424 I-0.078 J-0.308
G1 Y0.95
X-196.005 Y0.8
X-195.953 Y0.66
X-195.885 Y0.526
X-195.803 Y0.4
X-195.71 Y0.283
X-195.638 Y0.139
X-195.599 Y-0.017
X-195.594 Y-0.177
X-195.624 Y-0.335
X-195.687 Y-0.482
X-195.768 Y-0.596
X-195.783 Y-0.61
X-195.907 Y-0.766
X-195.986 Y-0.949
X-196.012 Y-1.146
G3 X-195.378 Y-1.135 I0.317 J0.011
G1 Y0.939
G3 X-196.012 Y0.95 I-0.317 J0
G1 Y-0.945
G3 X-195.739 Y-1.248 I0.317 J0.011
G1 X-195.401 Y-1.295
X-184.6 Y-2.802
X-184.349 Y-2.837
G3 X-183.988 Y-2.533 I0.044 J0.314
G1 Y-0.055
G3 X-184.285 Y0.25 I-0.317 J-0.011
G1 X-184.305 Y0.251 Z-3.499
X-184.358 Y0.237 Z-3.491
X-184.409 Y0.224 Z-3.473
X-184.456 Y0.212 Z-3.446
X-184.492 Y0.181 Z-3.406
X-184.521 Y0.156 Z-3.358
X-184.543 Y0.137 Z-3.303
X-184.556 Y0.125 Z-3.244
X-184.561 Y0.121 Z-3.183
Z5
X-189.746 Y3.745
Z-3.365
Z-3.682
X-189.748 Y3.737 Z-3.753
X-189.753 Y3.714 Z-3.82
X-189.763 Y3.678 Z-3.88
X-189.775 Y3.629 Z-3.931
X-189.79 Y3.571 Z-3.969
X-189.807 Y3.506 Z-3.992
X-189.824 Y3.437 Z-4
G3 X-190.073 Y1.709 I7.852 J-2.011
G1 Y1.559
X-190.026 Y1.416
X-189.942 Y1.292
X-189.84 Y1.182
X-189.726 Y1.084
X-189.604 Y0.997
X-189.476 Y0.918
X-189.344 Y0.848
X-189.208 Y0.785
X-189.069 Y0.728
X-188.928 Y0.677
X-188.785 Y0.631
X-188.641 Y0.589
X-188.496 Y0.552
X-188.35 Y0.518
X-188.203 Y0.488
X-188.055 Y0.46
X-187.907 Y0.435
X-187.759 Y0.413
X-187.61 Y0.393
X-187.462 Y0.375
X-187.312 Y0.358
X-187.163 Y0.343
X-187.014 Y0.33
X-186.864 Y0.318
X-186.709 Y0.306
X-186.535 Y0.295
X-186.34 Y0.284
X-186.116 Y0.272
X-185.855 Y0.261
X-185.54 Y0.249
X-185.146 Y0.238
X-184.745 Y0.229
X-184.512 Y0.261
X-184.301 Y0.364
X-184.133 Y0.529
X-184.025 Y0.737
X-183.988 Y0.969
G3 X-184.561 Y1.146 I-0.317 J-0.011
G1 X-184.603 Y1.089 Z-3.992
X-184.642 Y1.035 Z-3.969
X-184.678 Y0.987 Z-3.931
X-184.708 Y0.946 Z-3.88
X-184.73 Y0.916 Z-3.82
X-184.744 Y0.897 Z-3.753
X-184.749 Y0.89 Z-3.682
Z5
X-195.358 Y3.562
Z-3.365
Z-3.682
X-195.362 Y3.555 Z-3.753
X-195.374 Y3.535 Z-3.82
X-195.394 Y3.502 Z-3.88
X-195.419 Y3.459 Z-3.931
X-195.45 Y3.407 Z-3.969
X-195.484 Y3.35 Z-3.992
X-195.52 Y3.289 Z-4
G3 X-196.012 Y1.613 I3.024 J-1.798
G1 Y1.424
X-196.011 Y1.386
X-195.921 Y1.266
X-195.816 Y1.159
X-195.701 Y1.063
X-195.577 Y0.978
X-195.448 Y0.901
X-195.315 Y0.833
X-195.178 Y0.771
X-195.039 Y0.715
X-194.897 Y0.666
X-194.754 Y0.621
X-194.61 Y0.58
X-194.464 Y0.544
X-194.318 Y0.511
X-194.171 Y0.481
X-194.023 Y0.454
X-193.875 Y0.43
X-193.727 Y0.408
X-193.578 Y0.389
X-193.429 Y0.371
X-193.28 Y0.355
X-193.131 Y0.34
X-192.981 Y0.327
X-192.832 Y0.315
X-192.672 Y0.304
X-192.494 Y0.292
X-191.853 Y0.256
X-191.236 Y0.077
X-190.636 Y-0.152
X-190.496 Y-0.204
X-190.279 Y-0.282
X-190.203 Y-0.309
G3 X-189.804 Y-0.092 I0.094 J0.303
X-190.031 Y0.302 I-0.306 J0.086
G1 X-195.405 Y1.666
X-195.617 Y1.72
G3 X-196.012 Y1.424 I-0.078 J-0.308
G1 Y0.95
X-196.005 Y0.8
X-195.953 Y0.66
X-195.885 Y0.526
X-195.803 Y0.4
X-195.71 Y0.283
X-195.638 Y0.139
X-195.599 Y-0.017
X-195.594 Y-0.177
X-195.624 Y-0.335
X-195.687 Y-0.482
X-195.768 Y-0.596
X-195.783 Y-0.61
X-195.907 Y-0.766
X-195.986 Y-0.949
X-196.012 Y-1.146
G3 X-195.378 Y-1.135 I0.317 J0.011
G1 Y0.939
G3 X-196.012 Y0.95 I-0.317 J0
G1 Y-0.945
G3 X-195.739 Y-1.248 I0.317 J0.011
G1 X-195.401 Y-1.295
X-184.6 Y-2.802
X-184.349 Y-2.837
G3 X-183.988 Y-2.533 I0.044 J0.314
G1 Y-0.055
G3 X-184.285 Y0.25 I-0.317 J-0.011
G1 X-184.305 Y0.251 Z-3.999
X-184.358 Y0.237 Z-3.991
X-184.409 Y0.224 Z-3.973
X-184.456 Y0.212 Z-3.946
X-184.492 Y0.181 Z-3.906
X-184.521 Y0.156 Z-3.858
X-184.543 Y0.137 Z-3.803
X-184.556 Y0.125 Z-3.744
X-184.561 Y0.121 Z-3.683
Z5
X-189.746 Y3.745
Z-3.865
Z-4.182
X-189.748 Y3.737 Z-4.253
X-189.753 Y3.714 Z-4.32
X-189.763 Y3.678 Z-4.38
X-189.775 Y3.629 Z-4.431
X-189.79 Y3.571 Z-4.469
X-189.807 Y3.506 Z-4.492
X-189.824 Y3.437 Z-4.5
G3 X-190.073 Y1.709 I7.852 J-2.011
G1 Y1.559
X-190.026 Y1.416
X-189.942 Y1.292
X-189.84 Y1.182
X-189.726 Y1.084
X-189.604 Y0.997
X-189.476 Y0.918
X-189.344 Y0.848
X-189.208 Y0.785
X-189.069 Y0.728
X-188.928 Y0.677
X-188.785 Y0.631
X-188.641 Y0.589
X-188.496 Y0.552
X-188.35 Y0.518
X-188.203 Y0.488
X-188.055 Y0.46
X-187.907 Y0.435
X-187.759 Y0.413
X-187.61 Y0.393
X-187.462 Y0.375
X-187.312 Y0.358
X-187.163 Y0.343
X-187.014 Y0.33
X-186.864 Y0.318
X-186.709 Y0.306
X-186.535 Y0.295
X-186.34 Y0.284
X-186.116 Y0.272
X-185.855 Y0.261
X-185.54 Y0.249
X-185.146 Y0.238
X-184.745 Y0.229
X-184.512 Y0.261
X-184.301 Y0.364
X-184.133 Y0.529
X-184.025 Y0.737
X-183.988 Y0.969
G3 X-184.561 Y1.146 I-0.317 J-0.011
G1 X-184.603 Y1.089 Z-4.492
X-184.642 Y1.035 Z-4.469
X-184.678 Y0.987 Z-4.431
X-184.708 Y0.946 Z-4.38
X-184.73 Y0.916 Z-4.32
X-184.744 Y0.897 Z-4.253
X-184.749 Y0.89 Z-4.182
Z5
X-195.358 Y3.562
Z-3.865
Z-4.182
X-195.362 Y3.555 Z-4.253
X-195.374 Y3.535 Z-4.32
X-195.394 Y3.502 Z-4.38
X-195.419 Y3.459 Z-4.431
X-195.45 Y3.407 Z-4.469
X-195.484 Y3.35 Z-4.492
X-195.52 Y3.289 Z-4.5
G3 X-196.012 Y1.613 I3.024 J-1.798
G1 Y1.424
X-196.011 Y1.386
X-195.921 Y1.266
X-195.816 Y1.159
X-195.701 Y1.063
X-195.577 Y0.978
X-195.448 Y0.901
X-195.315 Y0.833
X-195.178 Y0.771
X-195.039 Y0.715
X-194.897 Y0.666
X-194.754 Y0.621
X-194.61 Y0.58
X-194.464 Y0.544
X-194.318 Y0.511
X-194.171 Y0.481
X-194.023 Y0.454
X-193.875 Y0.43
X-193.727 Y0.408
X-193.578 Y0.389
X-193.429 Y0.371
X-193.28 Y0.355
X-193.131 Y0.34
X-192.981 Y0.327
X-192.832 Y0.315
X-192.672 Y0.304
X-192.494 Y0.292
X-191.853 Y0.256
X-191.236 Y0.077
X-190.636 Y-0.152
X-190.496 Y-0.204
X-190.279 Y-0.282
X-190.203 Y-0.309
G3 X-189.804 Y-0.092 I0.094 J0.303
X-190.031 Y0.302 I-0.306 J0.086
G1 X-195.405 Y1.666
X-195.617 Y1.72
G3 X-196.012 Y1.424 I-0.078 J-0.308
G1 Y0.95
X-196.005 Y0.8
X-195.953 Y0.66
X-195.885 Y0.526
X-195.803 Y0.4
X-195.71 Y0.283
X-195.638 Y0.139
X-195.599 Y-0.017
X-195.594 Y-0.177
X-195.624 Y-0.335
X-195.687 Y-0.482
X-195.768 Y-0.596
X-195.783 Y-0.61
X-195.907 Y-0.766
X-195.986 Y-0.949
X-196.012 Y-1.146
G3 X-195.378 Y-1.135 I0.317 J0.011
G1 Y0.939
G3 X-196.012 Y0.95 I-0.317 J0
G1 Y-0.945
G3 X-195.739 Y-1.248 I0.317 J0.011
G1 X-195.401 Y-1.295
X-184.6 Y-2.802
X-184.349 Y-2.837
G3 X-183.988 Y-2.533 I0.044 J0.314
G1 Y-0.055
G3 X-184.285 Y0.25 I-0.317 J-0.011
G1 X-184.305 Y0.251 Z-4.499
X-184.358 Y0.237 Z-4.491
X-184.409 Y0.224 Z-4.473
X-184.456 Y0.212 Z-4.446
X-184.492 Y0.181 Z-4.406
X-184.521 Y0.156 Z-4.358
X-184.543 Y0.137 Z-4.303
X-184.556 Y0.125 Z-4.244
X-184.561 Y0.121 Z-4.183
Z5
X-189.746 Y3.745
Z-4.365
Z-4.682
X-189.748 Y3.737 Z-4.753
X-189.753 Y3.714 Z-4.82
X-189.763 Y3.678 Z-4.88
X-189.775 Y3.629 Z-4.931
X-189.79 Y3.571 Z-4.969
X-189.807 Y3.506 Z-4.992
X-189.824 Y3.437 Z-5
G3 X-190.073 Y1.709 I7.852 J-2.011
G1 Y1.559
X-190.026 Y1.416
X-189.942 Y1.292
X-189.84 Y1.182
X-189.726 Y1.084
X-189.604 Y0.997
X-189.476 Y0.918
X-189.344 Y0.848
X-189.208 Y0.785
X-189.069 Y0.728
X-188.928 Y0.677
X-188.785 Y0.631
X-188.641 Y0.589
X-188.496 Y0.552
X-188.35 Y0.518
X-188.203 Y0.488
X-188.055 Y0.46
X-187.907 Y0.435
X-187.759 Y0.413
X-187.61 Y0.393
X-187.462 Y0.375
X-187.312 Y0.358
X-187.163 Y0.343
X-187.014 Y0.33
X-186.864 Y0.318
X-186.709 Y0.306
X-186.535 Y0.295
X-186.34 Y0.284
X-186.116 Y0.272
X-185.855 Y0.261
X-185.54 Y0.249
X-185.146 Y0.238
X-184.745 Y0.229
X-184.512 Y0.261
X-184.301 Y0.364
X-184.133 Y0.529
X-184.025 Y0.737
X-183.988 Y0.969
G3 X-184.561 Y1.146 I-0.317 J-0.011
G1 X-184.603 Y1.089 Z-4.992
X-184.642 Y1.035 Z-4.969
X-184.678 Y0.987 Z-4.931
X-184.708 Y0.946 Z-4.88
X-184.73 Y0.916 Z-4.82
X-184.744 Y0.897 Z-4.753
X-184.749 Y0.89 Z-4.682
Z5
X-195.358 Y3.562
Z-4.365
Z-4.682
X-195.362 Y3.555 Z-4.753
X-195.374 Y3.535 Z-4.82
X-195.394 Y3.502 Z-4.88
X-195.419 Y3.459 Z-4.931
X-195.45 Y3.407 Z-4.969
X-195.484 Y3.35 Z-4.992
X-195.52 Y3.289 Z-5
G3 X-196.012 Y1.613 I3.024 J-1.798
G1 Y1.424
X-196.011 Y1.386
X-195.921 Y1.266
X-195.816 Y1.159
X-195.701 Y1.063
X-195.577 Y0.978
X-195.448 Y0.901
X-195.315 Y0.833
X-195.178 Y0.771
X-195.039 Y0.715
X-194.897 Y0.666
X-194.754 Y0.621
X-194.61 Y0.58
X-194.464 Y0.544
X-194.318 Y0.511
X-194.171 Y0.481
X-194.023 Y0.454
X-193.875 Y0.43
X-193.727 Y0.408
X-193.578 Y0.389
X-193.429 Y0.371
X-193.28 Y0.355
X-193.131 Y0.34
X-192.981 Y0.327
X-192.832 Y0.315
X-192.672 Y0.304
X-192.494 Y0.292
X-191.853 Y0.256
X-191.236 Y0.077
X-190.636 Y-0.152
X-190.496 Y-0.204
X-190.279 Y-0.282
X-190.203 Y-0.309
G3 X-189.804 Y-0.092 I0.094 J0.303
X-190.031 Y0.302 I-0.306 J0.086
G1 X-195.405 Y1.666
X-195.617 Y1.72
G3 X-196.012 Y1.424 I-0.078 J-0.308
G1 Y0.95
X-196.005 Y0.8
X-195.953 Y0.66
X-195.885 Y0.526
X-195.803 Y0.4
X-195.71 Y0.283
X-195.638 Y0.139
X-195.599 Y-0.017
X-195.594 Y-0.177
X-195.624 Y-0.335
X-195.687 Y-0.482
X-195.768 Y-0.596
X-195.783 Y-0.61
X-195.907 Y-0.766
X-195.986 Y-0.949
X-196.012 Y-1.146
G3 X-195.378 Y-1.135 I0.317 J0.011
G1 Y0.939
G3 X-196.012 Y0.95 I-0.317 J0
G1 Y-0.945
G3 X-195.739 Y-1.248 I0.317 J0.011
G1 X-195.401 Y-1.295
X-184.6 Y-2.802
X-184.349 Y-2.837
G3 X-183.988 Y-2.533 I0.044 J0.314
G1 Y-0.055
G3 X-184.285 Y0.25 I-0.317 J-0.011
G1 X-184.305 Y0.251 Z-4.999
X-184.358 Y0.237 Z-4.991
X-184.409 Y0.224 Z-4.973
X-184.456 Y0.212 Z-4.946
X-184.492 Y0.181 Z-4.906
X-184.521 Y0.156 Z-4.858
X-184.543 Y0.137 Z-4.803
X-184.556 Y0.125 Z-4.744
X-184.561 Y0.121 Z-4.683
Z5
X-189.746 Y3.745
Z-4.865
Z-5.182
X-189.748 Y3.737 Z-5.253
X-189.753 Y3.714 Z-5.32
X-189.763 Y3.678 Z-5.38
X-189.775 Y3.629 Z-5.431
X-189.79 Y3.571 Z-5.469
X-189.807 Y3.506 Z-5.492
X-189.824 Y3.437 Z-5.5
G3 X-190.073 Y1.709 I7.852 J-2.011
G1 Y1.559
X-190.026 Y1.416
X-189.942 Y1.292
X-189.84 Y1.182
X-189.726 Y1.084
X-189.604 Y0.997
X-189.476 Y0.918
X-189.344 Y0.848
X-189.208 Y0.785
X-189.069 Y0.728
X-188.928 Y0.677
X-188.785 Y0.631
X-188.641 Y0.589
X-188.496 Y0.552
X-188.35 Y0.518
X-188.203 Y0.488
X-188.055 Y0.46
X-187.907 Y0.435
X-187.759 Y0.413
X-187.61 Y0.393
X-187.462 Y0.375
X-187.312 Y0.358
X-187.163 Y0.343
X-187.014 Y0.33
X-186.864 Y0.318
X-186.709 Y0.306
X-186.535 Y0.295
X-186.34 Y0.284
X-186.116 Y0.272
X-185.855 Y0.261
X-185.54 Y0.249
X-185.146 Y0.238
X-184.745 Y0.229
X-184.512 Y0.261
X-184.301 Y0.364
X-184.133 Y0.529
X-184.025 Y0.737
X-183.988 Y0.969
G3 X-184.561 Y1.146 I-0.317 J-0.011
G1 X-184.603 Y1.089 Z-5.492
X-184.642 Y1.035 Z-5.469
X-184.678 Y0.987 Z-5.431
X-184.708 Y0.946 Z-5.38
X-184.73 Y0.916 Z-5.32
X-184.744 Y0.897 Z-5.253
X-184.749 Y0.89 Z-5.182
Z5
X-195.358 Y3.562
Z-4.865
Z-5.182
X-195.362 Y3.555 Z-5.253
X-195.374 Y3.535 Z-5.32
X-195.394 Y3.502 Z-5.38
X-195.419 Y3.459 Z-5.431
X-195.45 Y3.407 Z-5.469
X-195.484 Y3.35 Z-5.492
X-195.52 Y3.289 Z-5.5
G3 X-196.012 Y1.613 I3.024 J-1.798
G1 Y1.424
X-196.011 Y1.386
X-195.921 Y1.266
X-195.816 Y1.159
X-195.701 Y1.063
X-195.577 Y0.978
X-195.448 Y0.901
X-195.315 Y0.833
X-195.178 Y0.771
X-195.039 Y0.715
X-194.897 Y0.666
X-194.754 Y0.621
X-194.61 Y0.58
X-194.464 Y0.544
X-194.318 Y0.511
X-194.171 Y0.481
X-194.023 Y0.454
X-193.875 Y0.43
X-193.727 Y0.408
X-193.578 Y0.389
X-193.429 Y0.371
X-193.28 Y0.355
X-193.131 Y0.34
X-192.981 Y0.327
X-192.832 Y0.315
X-192.672 Y0.304
X-192.494 Y0.292
X-191.853 Y0.256
X-191.236 Y0.077
X-190.636 Y-0.152
X-190.496 Y-0.204
X-190.279 Y-0.282
X-190.203 Y-0.309
G3 X-189.804 Y-0.092 I0.094 J0.303
X-190.031 Y0.302 I-0.306 J0.086
G1 X-195.405 Y1.666
X-195.617 Y1.72
G3 X-196.012 Y1.424 I-0.078 J-0.308
G1 Y0.95
X-196.005 Y0.8
X-195.953 Y0.66
X-195.885 Y0.526
X-195.803 Y0.4
X-195.71 Y0.283
X-195.638 Y0.139
X-195.599 Y-0.017
X-195.594 Y-0.177
X-195.624 Y-0.335
X-195.687 Y-0.482
X-195.768 Y-0.596
X-195.783 Y-0.61
X-195.907 Y-0.766
X-195.986 Y-0.949
X-196.012 Y-1.146
G3 X-195.378 Y-1.135 I0.317 J0.011
G1 Y0.939
G3 X-196.012 Y0.95 I-0.317 J0
G1 Y-0.945
G3 X-195.739 Y-1.248 I0.317 J0.011
G1 X-195.401 Y-1.295
X-184.6 Y-2.802
X-184.349 Y-2.837
G3 X-183.988 Y-2.533 I0.044 J0.314
G1 Y-0.055
G3 X-184.285 Y0.25 I-0.317 J-0.011
G1 X-184.305 Y0.251 Z-5.499
X-184.358 Y0.237 Z-5.491
X-184.409 Y0.224 Z-5.473
X-184.456 Y0.212 Z-5.446
X-184.492 Y0.181 Z-5.406
X-184.521 Y0.156 Z-5.358
X-184.543 Y0.137 Z-5.303
X-184.556 Y0.125 Z-5.244
X-184.561 Y0.121 Z-5.183
Z5
X-189.746 Y3.745
Z-5.365
Z-5.682
X-189.748 Y3.737 Z-5.753
X-189.753 Y3.714 Z-5.82
X-189.763 Y3.678 Z-5.88
X-189.775 Y3.629 Z-5.931
X-189.79 Y3.571 Z-5.969
X-189.807 Y3.506 Z-5.992
X-189.824 Y3.437 Z-6
G3 X-190.073 Y1.709 I7.852 J-2.011
G1 Y1.559
X-190.026 Y1.416
X-189.942 Y1.292
X-189.84 Y1.182
X-189.726 Y1.084
X-189.604 Y0.997
X-189.476 Y0.918
X-189.344 Y0.848
X-189.208 Y0.785
X-189.069 Y0.728
X-188.928 Y0.677
X-188.785 Y0.631
X-188.641 Y0.589
X-188.496 Y0.552
X-188.35 Y0.518
X-188.203 Y0.488
X-188.055 Y0.46
X-187.907 Y0.435
X-187.759 Y0.413
X-187.61 Y0.393
X-187.462 Y0.375
X-187.312 Y0.358
X-187.163 Y0.343
X-187.014 Y0.33
X-186.864 Y0.318
X-186.709 Y0.306
X-186.535 Y0.295
X-186.34 Y0.284
X-186.116 Y0.272
X-185.855 Y0.261
X-185.54 Y0.249
X-185.146 Y0.238
X-184.745 Y0.229
X-184.512 Y0.261
X-184.301 Y0.364
X-184.133 Y0.529
X-184.025 Y0.737
X-183.988 Y0.969
G3 X-184.561 Y1.146 I-0.317 J-0.011
G1 X-184.603 Y1.089 Z-5.992
X-184.642 Y1.035 Z-5.969
X-184.678 Y0.987 Z-5.931
X-184.708 Y0.946 Z-5.88
X-184.73 Y0.916 Z-5.82
X-184.744 Y0.897 Z-5.753
X-184.749 Y0.89 Z-5.682
Z5
X-195.358 Y3.562
Z-5.365
Z-5.682
X-195.362 Y3.555 Z-5.753
X-195.374 Y3.535 Z-5.82
X-195.394 Y3.502 Z-5.88
X-195.419 Y3.459 Z-5.931
X-195.45 Y3.407 Z-5.969
X-195.484 Y3.35 Z-5.992
X-195.52 Y3.289 Z-6
G3 X-196.012 Y1.613 I3.024 J-1.798
G1 Y1.424
X-196.011 Y1.386
X-195.921 Y1.266
X-195.816 Y1.159
X-195.701 Y1.063
X-195.577 Y0.978
X-195.448 Y0.901
X-195.315 Y0.833
X-195.178 Y0.771
X-195.039 Y0.715
X-194.897 Y0.666
X-194.754 Y0.621
X-194.61 Y0.58
X-194.464 Y0.544
X-194.318 Y0.511
X-194.171 Y0.481
X-194.023 Y0.454
X-193.875 Y0.43
X-193.727 Y0.408
X-193.578 Y0.389
X-193.429 Y0.371
X-193.28 Y0.355
X-193.131 Y0.34
X-192.981 Y0.327
X-192.832 Y0.315
X-192.672 Y0.304
X-192.494 Y0.292
X-191.853 Y0.256
X-191.236 Y0.077
X-190.636 Y-0.152
X-190.496 Y-0.204
X-190.279 Y-0.282
X-190.203 Y-0.309
G3 X-189.804 Y-0.092 I0.094 J0.303
X-190.031 Y0.302 I-0.306 J0.086
G1 X-195.405 Y1.666
X-195.617 Y1.72
G3 X-196.012 Y1.424 I-0.078 J-0.308
G1 Y0.95
X-196.005 Y0.8
X-195.953 Y0.66
X-195.885 Y0.526
X-195.803 Y0.4
X-195.71 Y0.283
X-195.638 Y0.139
X-195.599 Y-0.017
X-195.594 Y-0.177
X-195.624 Y-0.335
X-195.687 Y-0.482
X-195.768 Y-0.596
X-195.783 Y-0.61
X-195.907 Y-0.766
X-195.986 Y-0.949
X-196.012 Y-1.146
G3 X-195.378 Y-1.135 I0.317 J0.011
G1 Y0.939
G3 X-196.012 Y0.95 I-0.317 J0
G1 Y-0.945
G3 X-195.739 Y-1.248 I0.317 J0.011
G1 X-195.401 Y-1.295
X-184.6 Y-2.802
X-184.349 Y-2.837
G3 X-183.988 Y-2.533 I0.044 J0.314
G1 Y-0.055
G3 X-184.285 Y0.25 I-0.317 J-0.011
G1 X-184.305 Y0.251 Z-5.999
X-184.358 Y0.237 Z-5.991
X-184.409 Y0.224 Z-5.973
X-184.456 Y0.212 Z-5.946
X-184.492 Y0.181 Z-5.906
X-184.521 Y0.156 Z-5.858
X-184.543 Y0.137 Z-5.803
X-184.556 Y0.125 Z-5.744
X-184.561 Y0.121 Z-5.683
Z5
X-189.746 Y3.745
Z-5.865
Z-6.182
X-189.748 Y3.737 Z-6.253
X-189.753 Y3.714 Z-6.32
X-189.763 Y3.678 Z-6.38
X-189.775 Y3.629 Z-6.431
X-189.79 Y3.571 Z-6.469
X-189.807 Y3.506 Z-6.492
X-189.824 Y3.437 Z-6.5
G3 X-190.073 Y1.709 I7.852 J-2.011
G1 Y1.559
X-190.026 Y1.416
X-189.942 Y1.292
X-189.84 Y1.182
X-189.726 Y1.084
X-189.604 Y0.997
X-189.476 Y0.918
X-189.344 Y0.848
X-189.208 Y0.785
X-189.069 Y0.728
X-188.928 Y0.677
X-188.785 Y0.631
X-188.641 Y0.589
X-188.496 Y0.552
X-188.35 Y0.518
X-188.203 Y0.488
X-188.055 Y0.46
X-187.907 Y0.435
X-187.759 Y0.413
X-187.61 Y0.393
X-187.462 Y0.375
X-187.312 Y0.358
X-187.163 Y0.343
X-187.014 Y0.33
X-186.864 Y0.318
X-186.709 Y0.306
X-186.535 Y0.295
X-186.34 Y0.284
X-186.116 Y0.272
X-185.855 Y0.261
X-185.54 Y0.249
X-185.146 Y0.238
X-184.745 Y0.229
X-184.512 Y0.261
X-184.301 Y0.364
X-184.133 Y0.529
X-184.025 Y0.737
X-183.988 Y0.969
G3 X-184.561 Y1.146 I-0.317 J-0.011
G1 X-184.603 Y1.089 Z-6.492
X-184.642 Y1.035 Z-6.469
X-184.678 Y0.987 Z-6.431
X-184.708 Y0.946 Z-6.38
X-184.73 Y0.916 Z-6.32
X-184.744 Y0.897 Z-6.253
X-184.749 Y0.89 Z-6.182
Z5
X-195.358 Y3.562
Z-5.865
Z-6.182
X-195.362 Y3.555 Z-6.253
X-195.374 Y3.535 Z-6.32
X-195.394 Y3.502 Z-6.38
X-195.419 Y3.459 Z-6.431
X-195.45 Y3.407 Z-6.469
X-195.484 Y3.35 Z-6.492
X-195.52 Y3.289 Z-6.5
G3 X-196.012 Y1.613 I3.024 J-1.798
G1 Y1.424
X-196.011 Y1.386
X-195.921 Y1.266
X-195.816 Y1.159
X-195.701 Y1.063
X-195.577 Y0.978
X-195.448 Y0.901
X-195.315 Y0.833
X-195.178 Y0.771
X-195.039 Y0.715
X-194.897 Y0.666
X-194.754 Y0.621
X-194.61 Y0.58
X-194.464 Y0.544
X-194.318 Y0.511
X-194.171 Y0.481
X-194.023 Y0.454
X-193.875 Y0.43
X-193.727 Y0.408
X-193.578 Y0.389
X-193.429 Y0.371
X-193.28 Y0.355
X-193.131 Y0.34
X-192.981 Y0.327
X-192.832 Y0.315
X-192.672 Y0.304
X-192.494 Y0.292
X-191.853 Y0.256
X-191.236 Y0.077
X-190.636 Y-0.152
X-190.496 Y-0.204
X-190.279 Y-0.282
X-190.203 Y-0.309
G3 X-189.804 Y-0.092 I0.094 J0.303
X-190.031 Y0.302 I-0.306 J0.086
G1 X-195.405 Y1.666
X-195.617 Y1.72
G3 X-196.012 Y1.424 I-0.078 J-0.308
G1 Y0.95
X-196.005 Y0.8
X-195.953 Y0.66
X-195.885 Y0.526
X-195.803 Y0.4
X-195.71 Y0.283
X-195.638 Y0.139
X-195.599 Y-0.017
X-195.594 Y-0.177
X-195.624 Y-0.335
X-195.687 Y-0.482
X-195.768 Y-0.596
X-195.783 Y-0.61
X-195.907 Y-0.766
X-195.986 Y-0.949
X-196.012 Y-1.146
G3 X-195.378 Y-1.135 I0.317 J0.011
G1 Y0.939
G3 X-196.012 Y0.95 I-0.317 J0
G1 Y-0.945
G3 X-195.739 Y-1.248 I0.317 J0.011
G1 X-195.401 Y-1.295
X-184.6 Y-2.802
X-184.349 Y-2.837
G3 X-183.988 Y-2.533 I0.044 J0.314
G1 Y-0.055
G3 X-184.285 Y0.25 I-0.317 J-0.011
G1 X-184.305 Y0.251 Z-6.499
X-184.358 Y0.237 Z-6.491
X-184.409 Y0.224 Z-6.473
X-184.456 Y0.212 Z-6.446
X-184.492 Y0.181 Z-6.406
X-184.521 Y0.156 Z-6.358
X-184.543 Y0.137 Z-6.303
X-184.556 Y0.125 Z-6.244
X-184.561 Y0.121 Z-6.183
Z5
X-189.746 Y3.745
Z-6.365
Z-6.682
X-189.748 Y3.737 Z-6.753
X-189.753 Y3.714 Z-6.82
X-189.763 Y3.678 Z-6.88
X-189.775 Y3.629 Z-6.931
X-189.79 Y3.571 Z-6.969
X-189.807 Y3.506 Z-6.992
X-189.824 Y3.437 Z-7
G3 X-190.073 Y1.709 I7.852 J-2.011
G1 Y1.559
X-190.026 Y1.416
X-189.942 Y1.292
X-189.84 Y1.182
X-189.726 Y1.084
X-189.604 Y0.997
X-189.476 Y0.918
X-189.344 Y0.848
X-189.208 Y0.785
X-189.069 Y0.728
X-188.928 Y0.677
X-188.785 Y0.631
X-188.641 Y0.589
X-188.496 Y0.552
X-188.35 Y0.518
X-188.203 Y0.488
X-188.055 Y0.46
X-187.907 Y0.435
X-187.759 Y0.413
X-187.61 Y0.393
X-187.462 Y0.375
X-187.312 Y0.358
X-187.163 Y0.343
X-187.014 Y0.33
X-186.864 Y0.318
X-186.709 Y0.306
X-186.535 Y0.295
X-186.34 Y0.284
X-186.116 Y0.272
X-185.855 Y0.261
X-185.54 Y0.249
X-185.146 Y0.238
X-184.745 Y0.229
X-184.512 Y0.261
X-184.301 Y0.364
X-184.133 Y0.529
X-184.025 Y0.737
X-183.988 Y0.969
G3 X-184.561 Y1.146 I-0.317 J-0.011
G1 X-184.603 Y1.089 Z-6.992
X-184.642 Y1.035 Z-6.969
X-184.678 Y0.987 Z-6.931
X-184.708 Y0.946 Z-6.88
X-184.73 Y0.916 Z-6.82
X-184.744 Y0.897 Z-6.753
X-184.749 Y0.89 Z-6.682
Z5
X-195.358 Y3.562
Z-6.365
Z-6.682
X-195.362 Y3.555 Z-6.753
X-195.374 Y3.535 Z-6.82
X-195.394 Y3.502 Z-6.88
X-195.419 Y3.459 Z-6.931
X-195.45 Y3.407 Z-6.969
X-195.484 Y3.35 Z-6.992
X-195.52 Y3.289 Z-7
G3 X-196.012 Y1.613 I3.024 J-1.798
G1 Y1.424
X-196.011 Y1.386
X-195.921 Y1.266
X-195.816 Y1.159
X-195.701 Y1.063
X-195.577 Y0.978
X-195.448 Y0.901
X-195.315 Y0.833
X-195.178 Y0.771
X-195.039 Y0.715
X-194.897 Y0.666
X-194.754 Y0.621
X-194.61 Y0.58
X-194.464 Y0.544
X-194.318 Y0.511
X-194.171 Y0.481
X-194.023 Y0.454
X-193.875 Y0.43
X-193.727 Y0.408
X-193.578 Y0.389
X-193.429 Y0.371
X-193.28 Y0.355
X-193.131 Y0.34
X-192.981 Y0.327
X-192.832 Y0.315
X-192.672 Y0.304
X-192.494 Y0.292
X-191.853 Y0.256
X-191.236 Y0.077
X-190.636 Y-0.152
X-190.496 Y-0.204
X-190.279 Y-0.282
X-190.203 Y-0.309
G3 X-189.804 Y-0.092 I0.094 J0.303
X-190.031 Y0.302 I-0.306 J0.086
G1 X-195.405 Y1.666
X-195.617 Y1.72
G3 X-196.012 Y1.424 I-0.078 J-0.308
G1 Y0.95
X-196.005 Y0.8
X-195.953 Y0.66
X-195.885 Y0.526
X-195.803 Y0.4
X-195.71 Y0.283
X-195.638 Y0.139
X-195.599 Y-0.017
X-195.594 Y-0.177
X-195.624 Y-0.335
X-195.687 Y-0.482
X-195.768 Y-0.596
X-195.783 Y-0.61
X-195.907 Y-0.766
X-195.986 Y-0.949
X-196.012 Y-1.146
G3 X-195.378 Y-1.135 I0.317 J0.011
G1 Y0.939
G3 X-196.012 Y0.95 I-0.317 J0
G1 Y-0.945
G3 X-195.739 Y-1.248 I0.317 J0.011
G1 X-195.401 Y-1.295
X-184.6 Y-2.802
X-184.349 Y-2.837
G3 X-183.988 Y-2.533 I0.044 J0.314
G1 Y-0.055
G3 X-184.285 Y0.25 I-0.317 J-0.011
G1 X-184.305 Y0.251 Z-6.999
X-184.358 Y0.237 Z-6.991
X-184.409 Y0.224 Z-6.973
X-184.456 Y0.212 Z-6.946
X-184.492 Y0.181 Z-6.906
X-184.521 Y0.156 Z-6.858
X-184.543 Y0.137 Z-6.803
X-184.556 Y0.125 Z-6.744
X-184.561 Y0.121 Z-6.683
Z5
X-189.746 Y3.745
Z-6.865
Z-7.182
X-189.748 Y3.737 Z-7.253
X-189.753 Y3.714 Z-7.32
X-189.763 Y3.678 Z-7.38
X-189.775 Y3.629 Z-7.431
X-189.79 Y3.571 Z-7.469
X-189.807 Y3.506 Z-7.492
X-189.824 Y3.437 Z-7.5
G3 X-190.073 Y1.709 I7.852 J-2.011
G1 Y1.559
X-190.026 Y1.416
X-189.942 Y1.292
X-189.84 Y1.182
X-189.726 Y1.084
X-189.604 Y0.997
X-189.476 Y0.918
X-189.344 Y0.848
X-189.208 Y0.785
X-189.069 Y0.728
X-188.928 Y0.677
X-188.785 Y0.631
X-188.641 Y0.589
X-188.496 Y0.552
X-188.35 Y0.518
X-188.203 Y0.488
X-188.055 Y0.46
X-187.907 Y0.435
X-187.759 Y0.413
X-187.61 Y0.393
X-187.462 Y0.375
X-187.312 Y0.358
X-187.163 Y0.343
X-187.014 Y0.33
X-186.864 Y0.318
X-186.709 Y0.306
X-186.535 Y0.295
X-186.34 Y0.284
X-186.116 Y0.272
X-185.855 Y0.261
X-185.54 Y0.249
X-185.146 Y0.238
X-184.745 Y0.229
X-184.512 Y0.261
X-184.301 Y0.364
X-184.133 Y0.529
X-184.025 Y0.737
X-183.988 Y0.969
G3 X-184.561 Y1.146 I-0.317 J-0.011
G1 X-184.603 Y1.089 Z-7.492
X-184.642 Y1.035 Z-7.469
X-184.678 Y0.987 Z-7.431
X-184.708 Y0.946 Z-7.38
X-184.73 Y0.916 Z-7.32
X-184.744 Y0.897 Z-7.253
X-184.749 Y0.89 Z-7.182
Z5
X-195.358 Y3.562
Z-6.865
Z-7.182
X-195.362 Y3.555 Z-7.253
X-195.374 Y3.535 Z-7.32
X-195.394 Y3.502 Z-7.38
X-195.419 Y3.459 Z-7.431
X-195.45 Y3.407 Z-7.469
X-195.484 Y3.35 Z-7.492
X-195.52 Y3.289 Z-7.5
G3 X-196.012 Y1.613 I3.024 J-1.798
G1 Y1.424
X-196.011 Y1.386
X-195.921 Y1.266
X-195.816 Y1.159
X-195.701 Y1.063
X-195.577 Y0.978
X-195.448 Y0.901
X-195.315 Y0.833
X-195.178 Y0.771
X-195.039 Y0.715
X-194.897 Y0.666
X-194.754 Y0.621
X-194.61 Y0.58
X-194.464 Y0.544
X-194.318 Y0.511
X-194.171 Y0.481
X-194.023 Y0.454
X-193.875 Y0.43
X-193.727 Y0.408
X-193.578 Y0.389
X-193.429 Y0.371
X-193.28 Y0.355
X-193.131 Y0.34
X-192.981 Y0.327
X-192.832 Y0.315
X-192.672 Y0.304
X-192.494 Y0.292
X-191.853 Y0.256
X-191.236 Y0.077
X-190.636 Y-0.152
X-190.496 Y-0.204
X-190.279 Y-0.282
X-190.203 Y-0.309
G3 X-189.804 Y-0.092 I0.094 J0.303
X-190.031 Y0.302 I-0.306 J0.086
G1 X-195.405 Y1.666
X-195.617 Y1.72
G3 X-196.012 Y1.424 I-0.078 J-0.308
G1 Y0.95
X-196.005 Y0.8
X-195.953 Y0.66
X-195.885 Y0.526
X-195.803 Y0.4
X-195.71 Y0.283
X-195.638 Y0.139
X-195.599 Y-0.017
X-195.594 Y-0.177
X-195.624 Y-0.335
X-195.687 Y-0.482
X-195.768 Y-0.596
X-195.783 Y-0.61
X-195.907 Y-0.766
X-195.986 Y-0.949
X-196.012 Y-1.146
G3 X-195.378 Y-1.135 I0.317 J0.011
G1 Y0.939
G3 X-196.012 Y0.95 I-0.317 J0
G1 Y-0.945
G3 X-195.739 Y-1.248 I0.317 J0.011
G1 X-195.401 Y-1.295
X-184.6 Y-2.802
X-184.349 Y-2.837
G3 X-183.988 Y-2.533 I0.044 J0.314
G1 Y-0.055
G3 X-184.561 Y0.121 I-0.317 J-0.011
G1 X-184.603 Y0.064 Z-7.492
X-184.642 Y0.01 Z-7.469
X-184.678 Y-0.038 Z-7.431
X-184.708 Y-0.079 Z-7.38
X-184.73 Y-0.109 Z-7.32
X-184.744 Y-0.128 Z-7.253
X-184.749 Y-0.135 Z-7.182
Z15
(When using Fusion 360 for Personal Use, the feedrate of)
(rapid moves is reduced to match the feedrate of cutting)
(moves, which can increase machining time. Unrestricted rapid)
(moves are available with a Fusion 360 Subscription.)

(2D Adaptive3)
G0 X-189.746 Y-10.255
G1 Z15 F1000
Z5
Z0.135
Z-0.183
X-189.748 Y-10.263 Z-0.253
X-189.753 Y-10.286 Z-0.32
X-189.763 Y-10.322 Z-0.38
X-189.775 Y-10.371 Z-0.431
X-189.79 Y-10.429 Z-0.469
X-189.807 Y-10.494 Z-0.492
X-189.824 Y-10.563 Z-0.5
G3 X-190.073 Y-12.291 I7.852 J-2.011
G1 Y-12.441
X-190.026 Y-12.584
X-189.942 Y-12.708
X-189.84 Y-12.818
X-189.726 Y-12.916
X-189.604 Y-13.003
X-189.476 Y-13.082
X-189.344 Y-13.152
X-189.208 Y-13.215
X-189.069 Y-13.272
X-188.928 Y-13.323
X-188.785 Y-13.369
X-188.641 Y-13.411
X-188.496 Y-13.448
X-188.35 Y-13.482
X-188.203 Y-13.512
X-188.055 Y-13.54
X-187.907 Y-13.565
X-187.759 Y-13.587
X-187.61 Y-13.607
X-187.462 Y-13.625
X-187.312 Y-13.642
X-187.163 Y-13.657
X-187.014 Y-13.67
X-186.864 Y-13.682
X-186.709 Y-13.694
X-186.535 Y-13.705
X-186.34 Y-13.716
X-186.116 Y-13.728
X-185.855 Y-13.739
X-185.54 Y-13.751
X-185.146 Y-13.762
X-184.745 Y-13.771
X-184.512 Y-13.739
X-184.301 Y-13.636
X-184.133 Y-13.471
X-184.025 Y-13.263
X-183.988 Y-13.031
G3 X-184.561 Y-12.854 I-0.317 J-0.011
G1 X-184.603 Y-12.911 Z-0.492
X-184.642 Y-12.965 Z-0.469
X-184.678 Y-13.013 Z-0.431
X-184.708 Y-13.054 Z-0.38
X-184.73 Y-13.084 Z-0.32
X-184.744 Y-13.103 Z-0.253
X-184.749 Y-13.11 Z-0.183
Z5
X-195.358 Y-10.438
Z0.135
Z-0.183
X-195.362 Y-10.445 Z-0.253
X-195.374 Y-10.465 Z-0.32
X-195.394 Y-10.498 Z-0.38
X-195.419 Y-10.541 Z-0.431
X-195.45 Y-10.593 Z-0.469
X-195.484 Y-10.65 Z-0.492
X-195.52 Y-10.711 Z-0.5
G3 X-196.012 Y-12.387 I3.024 J-1.798
G1 Y-12.576
X-196.011 Y-12.614
X-195.921 Y-12.734
X-195.816 Y-12.841
X-195.701 Y-12.937
X-195.577 Y-13.022
X-195.448 Y-13.099
X-195.315 Y-13.167
X-195.178 Y-13.229
X-195.039 Y-13.285
X-194.897 Y-13.334
X-194.754 Y-13.379
X-194.61 Y-13.42
X-194.464 Y-13.456
X-194.318 Y-13.489
X-194.171 Y-13.519
X-194.023 Y-13.546
X-193.875 Y-13.57
X-193.727 Y-13.592
X-193.578 Y-13.611
X-193.429 Y-13.629
X-193.28 Y-13.645
X-193.131 Y-13.66
X-192.981 Y-13.673
X-192.832 Y-13.685
X-192.672 Y-13.696
X-192.494 Y-13.708
X-191.853 Y-13.744
X-191.236 Y-13.923
X-190.636 Y-14.152
X-190.496 Y-14.204
X-190.279 Y-14.282
X-190.203 Y-14.309
G3 X-189.804 Y-14.092 I0.094 J0.303
X-190.031 Y-13.698 I-0.306 J0.086
G1 X-195.405 Y-12.334
X-195.617 Y-12.28
G3 X-196.012 Y-12.576 I-0.078 J-0.308
G1 Y-13.05
X-196.005 Y-13.2
X-195.953 Y-13.34
X-195.885 Y-13.474
X-195.803 Y-13.6
X-195.71 Y-13.717
X-195.638 Y-13.861
X-195.599 Y-14.017
X-195.594 Y-14.177
X-195.624 Y-14.335
X-195.687 Y-14.482
X-195.768 Y-14.596
X-195.783 Y-14.61
X-195.907 Y-14.766
X-195.986 Y-14.949
X-196.012 Y-15.146
G3 X-195.378 Y-15.135 I0.317 J0.011
G1 Y-13.061
G3 X-196.012 Y-13.05 I-0.317 J0
G1 Y-14.945
G3 X-195.739 Y-15.248 I0.317 J0.011
G1 X-195.401 Y-15.295
X-184.6 Y-16.802
X-184.349 Y-16.837
G3 X-183.988 Y-16.533 I0.044 J0.314
G1 Y-14.055
G3 X-184.285 Y-13.75 I-0.317 J-0.011
G1 X-184.305 Y-13.749 Z-0.499
X-184.358 Y-13.763 Z-0.491
X-184.409 Y-13.776 Z-0.473
X-184.456 Y-13.788 Z-0.446
X-184.492 Y-13.819 Z-0.406
X-184.521 Y-13.844 Z-0.358
X-184.543 Y-13.863 Z-0.303
X-184.556 Y-13.875 Z-0.244
X-184.561 Y-13.879 Z-0.183
Z5
X-189.746 Y-10.255
Z-0.365
Z-0.683
X-189.748 Y-10.263 Z-0.753
X-189.753 Y-10.286 Z-0.82
X-189.763 Y-10.322 Z-0.88
X-189.775 Y-10.371 Z-0.931
X-189.79 Y-10.429 Z-0.969
X-189.807 Y-10.494 Z-0.992
X-189.824 Y-10.563 Z-1
G3 X-190.073 Y-12.291 I7.852 J-2.011
G1 Y-12.441
X-190.026 Y-12.584
X-189.942 Y-12.708
X-189.84 Y-12.818
X-189.726 Y-12.916
X-189.604 Y-13.003
X-189.476 Y-13.082
X-189.344 Y-13.152
X-189.208 Y-13.215
X-189.069 Y-13.272
X-188.928 Y-13.323
X-188.785 Y-13.369
X-188.641 Y-13.411
X-188.496 Y-13.448
X-188.35 Y-13.482
X-188.203 Y-13.512
X-188.055 Y-13.54
X-187.907 Y-13.565
X-187.759 Y-13.587
X-187.61 Y-13.607
X-187.462 Y-13.625
X-187.312 Y-13.642
X-187.163 Y-13.657
X-187.014 Y-13.67
X-186.864 Y-13.682
X-186.709 Y-13.694
X-186.535 Y-13.705
X-186.34 Y-13.716
X-186.116 Y-13.728
X-185.855 Y-13.739
X-185.54 Y-13.751
X-185.146 Y-13.762
X-184.745 Y-13.771
X-184.512 Y-13.739
X-184.301 Y-13.636
X-184.133 Y-13.471
X-184.025 Y-13.263
X-183.988 Y-13.031
G3 X-184.561 Y-12.854 I-0.317 J-0.011
G1 X-184.603 Y-12.911 Z-0.992
X-184.642 Y-12.965 Z-0.969
X-184.678 Y-13.013 Z-0.931
X-184.708 Y-13.054 Z-0.88
X-184.73 Y-13.084 Z-0.82
X-184.744 Y-13.103 Z-0.753
X-184.749 Y-13.11 Z-0.683
Z5
X-195.358 Y-10.438
Z-0.365
Z-0.683
X-195.362 Y-10.445 Z-0.753
X-195.374 Y-10.465 Z-0.82
X-195.394 Y-10.498 Z-0.88
X-195.419 Y-10.541 Z-0.931
X-195.45 Y-10.593 Z-0.969
X-195.484 Y-10.65 Z-0.992
X-195.52 Y-10.711 Z-1
G3 X-196.012 Y-12.387 I3.024 J-1.798
G1 Y-12.576
X-196.011 Y-12.614
X-195.921 Y-12.734
X-195.816 Y-12.841
X-195.701 Y-12.937
X-195.577 Y-13.022
X-195.448 Y-13.099
X-195.315 Y-13.167
X-195.178 Y-13.229
X-195.039 Y-13.285
X-194.897 Y-13.334
X-194.754 Y-13.379
X-194.61 Y-13.42
X-194.464 Y-13.456
X-194.318 Y-13.489
X-194.171 Y-13.519
X-194.023 Y-13.546
X-193.875 Y-13.57
X-193.727 Y-13.592
X-193.578 Y-13.611
X-193.429 Y-13.629
X-193.28 Y-13.645
X-193.131 Y-13.66
X-192.981 Y-13.673
X-192.832 Y-13.685
X-192.672 Y-13.696
X-192.494 Y-13.708
X-191.853 Y-13.744
X-191.236 Y-13.923
X-190.636 Y-14.152
X-190.496 Y-14.204
X-190.279 Y-14.282
X-190.203 Y-14.309
G3 X-189.804 Y-14.092 I0.094 J0.303
X-190.031 Y-13.698 I-0.306 J0.086
G1 X-195.405 Y-12.334
X-195.617 Y-12.28
G3 X-196.012 Y-12.576 I-0.078 J-0.308
G1 Y-13.05
X-196.005 Y-13.2
X-195.953 Y-13.34
X-195.885 Y-13.474
X-195.803 Y-13.6
X-195.71 Y-13.717
X-195.638 Y-13.861
X-195.599 Y-14.017
X-195.594 Y-14.177
X-195.624 Y-14.335
X-195.687 Y-14.482
X-195.768 Y-14.596
X-195.783 Y-14.61
X-195.907 Y-14.766
X-195.986 Y-14.949
X-196.012 Y-15.146
G3 X-195.378 Y-15.135 I0.317 J0.011
G1 Y-13.061
G3 X-196.012 Y-13.05 I-0.317 J0
G1 Y-14.945
G3 X-195.739 Y-15.248 I0.317 J0.011
G1 X-195.401 Y-15.295
X-184.6 Y-16.802
X-184.349 Y-16.837
G3 X-183.988 Y-16.533 I0.044 J0.314
G1 Y-14.055
G3 X-184.285 Y-13.75 I-0.317 J-0.011
G1 X-184.305 Y-13.749 Z-0.999
X-184.358 Y-13.763 Z-0.991
X-184.409 Y-13.776 Z-0.973
X-184.456 Y-13.788 Z-0.946
X-184.492 Y-13.819 Z-0.906
X-184.521 Y-13.844 Z-0.858
X-184.543 Y-13.863 Z-0.803
X-184.556 Y-13.875 Z-0.744
X-184.561 Y-13.879 Z-0.683
Z5
X-189.746 Y-10.255
Z-0.865
Z-1.183
X-189.748 Y-10.263 Z-1.253
X-189.753 Y-10.286 Z-1.32
X-189.763 Y-10.322 Z-1.38
X-189.775 Y-10.371 Z-1.431
X-189.79 Y-10.429 Z-1.469
X-189.807 Y-10.494 Z-1.492
X-189.824 Y-10.563 Z-1.5
G3 X-190.073 Y-12.291 I7.852 J-2.011
G1 Y-12.441
X-190.026 Y-12.584
X-189.942 Y-12.708
X-189.84 Y-12.818
X-189.726 Y-12.916
X-189.604 Y-13.003
X-189.476 Y-13.082
X-189.344 Y-13.152
X-189.208 Y-13.215
X-189.069 Y-13.272
X-188.928 Y-13.323
X-188.785 Y-13.369
X-188.641 Y-13.411
X-188.496 Y-13.448
X-188.35 Y-13.482
X-188.203 Y-13.512
X-188.055 Y-13.54
X-187.907 Y-13.565
X-187.759 Y-13.587
X-187.61 Y-13.607
X-187.462 Y-13.625
X-187.312 Y-13.642
X-187.163 Y-13.657
X-187.014 Y-13.67
X-186.864 Y-13.682
X-186.709 Y-13.694
X-186.535 Y-13.705
X-186.34 Y-13.716
X-186.116 Y-13.728
X-185.855 Y-13.739
X-185.54 Y-13.751
X-185.146 Y-13.762
X-184.745 Y-13.771
X-184.512 Y-13.739
X-184.301 Y-13.636
X-184.133 Y-13.471
X-184.025 Y-13.263
X-183.988 Y-13.031
G3 X-184.561 Y-12.854 I-0.317 J-0.011
G1 X-184.603 Y-12.911 Z-1.492
X-184.642 Y-12.965 Z-1.469
X-184.678 Y-13.013 Z-1.431
X-184.708 Y-13.054 Z-1.38
X-184.73 Y-13.084 Z-1.32
X-184.744 Y-13.103 Z-1.253
X-184.749 Y-13.11 Z-1.183
Z5
X-195.358 Y-10.438
Z-0.865
Z-1.183
X-195.362 Y-10.445 Z-1.253
X-195.374 Y-10.465 Z-1.32
X-195.394 Y-10.498 Z-1.38
X-195.419 Y-10.541 Z-1.431
X-195.45 Y-10.593 Z-1.469
X-195.484 Y-10.65 Z-1.492
X-195.52 Y-10.711 Z-1.5
G3 X-196.012 Y-12.387 I3.024 J-1.798
G1 Y-12.576
X-196.011 Y-12.614
X-195.921 Y-12.734
X-195.816 Y-12.841
X-195.701 Y-12.937
X-195.577 Y-13.022
X-195.448 Y-13.099
X-195.315 Y-13.167
X-195.178 Y-13.229
X-195.039 Y-13.285
X-194.897 Y-13.334
X-194.754 Y-13.379
X-194.61 Y-13.42
X-194.464 Y-13.456
X-194.318 Y-13.489
X-194.171 Y-13.519
X-194.023 Y-13.546
X-193.875 Y-13.57
X-193.727 Y-13.592
X-193.578 Y-13.611
X-193.429 Y-13.629
X-193.28 Y-13.645
X-193.131 Y-13.66
X-192.981 Y-13.673
X-192.832 Y-13.685
X-192.672 Y-13.696
X-192.494 Y-13.708
X-191.853 Y-13.744
X-191.236 Y-13.923
X-190.636 Y-14.152
X-190.496 Y-14.204
X-190.279 Y-14.282
X-190.203 Y-14.309
G3 X-189.804 Y-14.092 I0.094 J0.303
X-190.031 Y-13.698 I-0.306 J0.086
G1 X-195.405 Y-12.334
X-195.617 Y-12.28
G3 X-196.012 Y-12.576 I-0.078 J-0.308
G1 Y-13.05
X-196.005 Y-13.2
X-195.953 Y-13.34
X-195.885 Y-13.474
X-195.803 Y-13.6
X-195.71 Y-13.717
X-195.638 Y-13.861
X-195.599 Y-14.017
X-195.594 Y-14.177
X-195.624 Y-14.335
X-195.687 Y-14.482
X-195.768 Y-14.596
X-195.783 Y-14.61
X-195.907 Y-14.766
X-195.986 Y-14.949
X-196.012 Y-15.146
G3 X-195.378 Y-15.135 I0.317 J0.011
G1 Y-13.061
G3 X-196.012 Y-13.05 I-0.317 J0
G1 Y-14.945
G3 X-195.739 Y-15.248 I0.317 J0.011
G1 X-195.401 Y-15.295
X-184.6 Y-16.802
X-184.349 Y-16.837
G3 X-183.988 Y-16.533 I0.044 J0.314
G1 Y-14.055
G3 X-184.285 Y-13.75 I-0.317 J-0.011
G1 X-184.305 Y-13.749 Z-1.499
X-184.358 Y-13.763 Z-1.491
X-184.409 Y-13.776 Z-1.473
X-184.456 Y-13.788 Z-1.446
X-184.492 Y-13.819 Z-1.406
X-184.521 Y-13.844 Z-1.358
X-184.543 Y-13.863 Z-1.303
X-184.556 Y-13.875 Z-1.244
X-184.561 Y-13.879 Z-1.183
Z5
X-189.746 Y-10.255
Z-1.365
Z-1.683
X-189.748 Y-10.263 Z-1.753
X-189.753 Y-10.286 Z-1.82
X-189.763 Y-10.322 Z-1.88
X-189.775 Y-10.371 Z-1.931
X-189.79 Y-10.429 Z-1.969
X-189.807 Y-10.494 Z-1.992
X-189.824 Y-10.563 Z-2
G3 X-190.073 Y-12.291 I7.852 J-2.011
G1 Y-12.441
X-190.026 Y-12.584
X-189.942 Y-12.708
X-189.84 Y-12.818
X-189.726 Y-12.916
X-189.604 Y-13.003
X-189.476 Y-13.082
X-189.344 Y-13.152
X-189.208 Y-13.215
X-189.069 Y-13.272
X-188.928 Y-13.323
X-188.785 Y-13.369
X-188.641 Y-13.411
X-188.496 Y-13.448
X-188.35 Y-13.482
X-188.203 Y-13.512
X-188.055 Y-13.54
X-187.907 Y-13.565
X-187.759 Y-13.587
X-187.61 Y-13.607
X-187.462 Y-13.625
X-187.312 Y-13.642
X-187.163 Y-13.657
X-187.014 Y-13.67
X-186.864 Y-13.682
X-186.709 Y-13.694
X-186.535 Y-13.705
X-186.34 Y-13.716
X-186.116 Y-13.728
X-185.855 Y-13.739
X-185.54 Y-13.751
X-185.146 Y-13.762
X-184.745 Y-13.771
X-184.512 Y-13.739
X-184.301 Y-13.636
X-184.133 Y-13.471
X-184.025 Y-13.263
X-183.988 Y-13.031
G3 X-184.561 Y-12.854 I-0.317 J-0.011
G1 X-184.603 Y-12.911 Z-1.992
X-184.642 Y-12.965 Z-1.969
X-184.678 Y-13.013 Z-1.931
X-184.708 Y-13.054 Z-1.88
X-184.73 Y-13.084 Z-1.82
X-184.744 Y-13.103 Z-1.753
X-184.749 Y-13.11 Z-1.683
Z5
X-195.358 Y-10.438
Z-1.365
Z-1.683
X-195.362 Y-10.445 Z-1.753
X-195.374 Y-10.465 Z-1.82
X-195.394 Y-10.498 Z-1.88
X-195.419 Y-10.541 Z-1.931
X-195.45 Y-10.593 Z-1.969
X-195.484 Y-10.65 Z-1.992
X-195.52 Y-10.711 Z-2
G3 X-196.012 Y-12.387 I3.024 J-1.798
G1 Y-12.576
X-196.011 Y-12.614
X-195.921 Y-12.734
X-195.816 Y-12.841
X-195.701 Y-12.937
X-195.577 Y-13.022
X-195.448 Y-13.099
X-195.315 Y-13.167
X-195.178 Y-13.229
X-195.039 Y-13.285
X-194.897 Y-13.334
X-194.754 Y-13.379
X-194.61 Y-13.42
X-194.464 Y-13.456
X-194.318 Y-13.489
X-194.171 Y-13.519
X-194.023 Y-13.546
X-193.875 Y-13.57
X-193.727 Y-13.592
X-193.578 Y-13.611
X-193.429 Y-13.629
X-193.28 Y-13.645
X-193.131 Y-13.66
X-192.981 Y-13.673
X-192.832 Y-13.685
X-192.672 Y-13.696
X-192.494 Y-13.708
X-191.853 Y-13.744
X-191.236 Y-13.923
X-190.636 Y-14.152
X-190.496 Y-14.204
X-190.279 Y-14.282
X-190.203 Y-14.309
G3 X-189.804 Y-14.092 I0.094 J0.303
X-190.031 Y-13.698 I-0.306 J0.086
G1 X-195.405 Y-12.334
X-195.617 Y-12.28
G3 X-196.012 Y-12.576 I-0.078 J-0.308
G1 Y-13.05
X-196.005 Y-13.2
X-195.953 Y-13.34
X-195.885 Y-13.474
X-195.803 Y-13.6
X-195.71 Y-13.717
X-195.638 Y-13.861
X-195.599 Y-14.017
X-195.594 Y-14.177
X-195.624 Y-14.335
X-195.687 Y-14.482
X-195.768 Y-14.596
X-195.783 Y-14.61
X-195.907 Y-14.766
X-195.986 Y-14.949
X-196.012 Y-15.146
G3 X-195.378 Y-15.135 I0.317 J0.011
G1 Y-13.061
G3 X-196.012 Y-13.05 I-0.317 J0
G1 Y-14.945
G3 X-195.739 Y-15.248 I0.317 J0.011
G1 X-195.401 Y-15.295
X-184.6 Y-16.802
X-184.349 Y-16.837
G3 X-183.988 Y-16.533 I0.044 J0.314
G1 Y-14.055
G3 X-184.285 Y-13.75 I-0.317 J-0.011
G1 X-184.305 Y-13.749 Z-1.999
X-184.358 Y-13.763 Z-1.991
X-184.409 Y-13.776 Z-1.973
X-184.456 Y-13.788 Z-1.946
X-184.492 Y-13.819 Z-1.906
X-184.521 Y-13.844 Z-1.858
X-184.543 Y-13.863 Z-1.803
X-184.556 Y-13.875 Z-1.744
X-184.561 Y-13.879 Z-1.683
Z5
X-189.746 Y-10.255
Z-1.865
Z-2.182
X-189.748 Y-10.263 Z-2.253
X-189.753 Y-10.286 Z-2.32
X-189.763 Y-10.322 Z-2.38
X-189.775 Y-10.371 Z-2.431
X-189.79 Y-10.429 Z-2.469
X-189.807 Y-10.494 Z-2.492
X-189.824 Y-10.563 Z-2.5
G3 X-190.073 Y-12.291 I7.852 J-2.011
G1 Y-12.441
X-190.026 Y-12.584
X-189.942 Y-12.708
X-189.84 Y-12.818
X-189.726 Y-12.916
X-189.604 Y-13.003
X-189.476 Y-13.082
X-189.344 Y-13.152
X-189.208 Y-13.215
X-189.069 Y-13.272
X-188.928 Y-13.323
X-188.785 Y-13.369
X-188.641 Y-13.411
X-188.496 Y-13.448
X-188.35 Y-13.482
X-188.203 Y-13.512
X-188.055 Y-13.54
X-187.907 Y-13.565
X-187.759 Y-13.587
X-187.61 Y-13.607
X-187.462 Y-13.625
X-187.312 Y-13.642
X-187.163 Y-13.657
X-187.014 Y-13.67
X-186.864 Y-13.682
X-186.709 Y-13.694
X-186.535 Y-13.705
X-186.34 Y-13.716
X-186.116 Y-13.728
X-185.855 Y-13.739
X-185.54 Y-13.751
X-185.146 Y-13.762
X-184.745 Y-13.771
X-184.512 Y-13.739
X-184.301 Y-13.636
X-184.133 Y-13.471
X-184.025 Y-13.263
X-183.988 Y-13.031
G3 X-184.561 Y-12.854 I-0.317 J-0.011
G1 X-184.603 Y-12.911 Z-2.492
X-184.642 Y-12.965 Z-2.469
X-184.678 Y-13.013 Z-2.431
X-184.708 Y-13.054 Z-2.38
X-184.73 Y-13.084 Z-2.32
X-184.744 Y-13.103 Z-2.253
X-184.749 Y-13.11 Z-2.182
Z5
X-195.358 Y-10.438
Z-1.865
Z-2.182
X-195.362 Y-10.445 Z-2.253
X-195.374 Y-10.465 Z-2.32
X-195.394 Y-10.498 Z-2.38
X-195.419 Y-10.541 Z-2.431
X-195.45 Y-10.593 Z-2.469
X-195.484 Y-10.65 Z-2.492
X-195.52 Y-10.711 Z-2.5
G3 X-196.012 Y-12.387 I3.024 J-1.798
G1 Y-12.576
X-196.011 Y-12.614
X-195.921 Y-12.734
X-195.816 Y-12.841
X-195.701 Y-12.937
X-195.577 Y-13.022
X-195.448 Y-13.099
X-195.315 Y-13.167
X-195.178 Y-13.229
X-195.039 Y-13.285
X-194.897 Y-13.334
X-194.754 Y-13.379
X-194.61 Y-13.42
X-194.464 Y-13.456
X-194.318 Y-13.489
X-194.171 Y-13.519
X-194.023 Y-13.546
X-193.875 Y-13.57
X-193.727 Y-13.592
X-193.578 Y-13.611
X-193.429 Y-13.629
X-193.28 Y-13.645
X-193.131 Y-13.66
X-192.981 Y-13.673
X-192.832 Y-13.685
X-192.672 Y-13.696
X-192.494 Y-13.708
X-191.853 Y-13.744
X-191.236 Y-13.923
X-190.636 Y-14.152
X-190.496 Y-14.204
X-190.279 Y-14.282
X-190.203 Y-14.309
G3 X-189.804 Y-14.092 I0.094 J0.303
X-190.031 Y-13.698 I-0.306 J0.086
G1 X-195.405 Y-12.334
X-195.617 Y-12.28
G3 X-196.012 Y-12.576 I-0.078 J-0.308
G1 Y-13.05
X-196.005 Y-13.2
X-195.953 Y-13.34
X-195.885 Y-13.474
X-195.803 Y-13.6
X-195.71 Y-13.717
X-195.638 Y-13.861
X-195.599 Y-14.017
X-195.594 Y-14.177
X-195.624 Y-14.335
X-195.687 Y-14.482
X-195.768 Y-14.596
X-195.783 Y-14.61
X-195.907 Y-14.766
X-195.986 Y-14.949
X-196.012 Y-15.146
G3 X-195.378 Y-15.135 I0.317 J0.011
G1 Y-13.061
G3 X-196.012 Y-13.05 I-0.317 J0
G1 Y-14.945
G3 X-195.739 Y-15.248 I0.317 J0.011
G1 X-195.401 Y-15.295
X-184.6 Y-16.802
X-184.349 Y-16.837
G3 X-183.988 Y-16.533 I0.044 J0.314
G1 Y-14.055
G3 X-184.285 Y-13.75 I-0.317 J-0.011
G1 X-184.305 Y-13.749 Z-2.499
