(Fins1-5)
(Bearbeiten)
(  Hersteller: ChinaCnc)
(  model: 3040T)
(  description: Generic 3-axis)
(T14 D=3.175 CR=0 - ZMIN=-1.3 - Schaftfrser)
G90 G94
G17
G21
(-Attention- Property Safe Retracts is set to Clearance Height.)
(Ensure the clearance height will clear the part and or fixtures.)
(Raise the Z-axis to a safe height before starting the program.)
(When using Fusion 360 for Personal Use, the feedrate of)
(rapid moves is reduced to match the feedrate of cutting)
(moves, which can increase machining time. Unrestricted rapid)
(moves are available with a Fusion 360 Subscription.)

(2D-Kontur1 2)
M0
(MANUAL TOOL CHANGE TO T14)
S6000 M3
G17 G90 G94
G54
G0 X-159.155 Y-40.861
Z15
G1 Z5 F1500
Z0.635 F300
Z-0.983
X-159.149 Y-40.856 Z-1.053 F1016
X-159.133 Y-40.839 Z-1.12
X-159.106 Y-40.813 Z-1.18
X-159.07 Y-40.777 Z-1.231
X-159.028 Y-40.734 Z-1.269
X-158.98 Y-40.687 Z-1.292
X-158.93 Y-40.637 Z-1.3
X-158.706 Y-40.412
G3 X-158.706 Y-39.963 I-0.225 J0.225
G1 X-160.963 Y-37.706 F1500
X-168.669 Y-45.412
X-153.257
X-158.706 Y-39.963
G3 X-159.155 Y-39.963 I-0.225 J-0.225 F1016
G1 X-159.379 Y-40.188
X-159.429 Y-40.238 Z-1.292
X-159.477 Y-40.285 Z-1.269
X-159.519 Y-40.328 Z-1.231
X-159.555 Y-40.363 Z-1.18
X-159.582 Y-40.39 Z-1.12
X-159.598 Y-40.407 Z-1.053
X-159.604 Y-40.412 Z-0.983
Z5 F1500
X-176.007 Y-24.009
Z0.635 F300
Z-0.983
X-176.002 Y-24.003 Z-1.053 F1016
X-175.985 Y-23.986 Z-1.12
X-175.958 Y-23.96 Z-1.18
X-175.923 Y-23.924 Z-1.231
X-175.88 Y-23.881 Z-1.269
X-175.833 Y-23.834 Z-1.292
X-175.783 Y-23.784 Z-1.3
X-175.558 Y-23.56
G3 X-175.558 Y-23.111 I-0.225 J0.225
G1 X-180.205 Y-18.464 F1500
X-189.499 Y-27.757
X-176.744 Y-40.512
X-167.45 Y-31.219
X-175.558 Y-23.111
G3 X-176.007 Y-23.111 I-0.225 J-0.225 F1016
G1 X-176.232 Y-23.335
X-176.282 Y-23.385 Z-1.292
X-176.329 Y-23.432 Z-1.269
X-176.372 Y-23.475 Z-1.231
X-176.407 Y-23.511 Z-1.18
X-176.434 Y-23.537 Z-1.12
X-176.451 Y-23.554 Z-1.053
X-176.456 Y-23.56 Z-0.983
Z5 F1500
X-159.192 Y-21.613
Z0.635 F300
Z-0.983
X-159.187 Y-21.619 Z-1.053 F1016
X-159.17 Y-21.635 Z-1.12
X-159.143 Y-21.662 Z-1.18
X-159.108 Y-21.698 Z-1.231
X-159.065 Y-21.74 Z-1.269
X-159.018 Y-21.788 Z-1.292
X-158.968 Y-21.838 Z-1.3
X-158.743 Y-22.062
G3 X-158.294 Y-22.062 I0.225 J0.225
G1 X-153.364 Y-17.132 F1500
X-153.162 Y-16.62
X-153.139 Y-16.565
X-152.801 Y-15.794
X-152.775 Y-15.739
X-152.424 Y-15.016
X-152.395 Y-14.958
X-152.357 Y-14.887
X-152.577 Y-14.902
X-153.162 Y-14.942
X-153.758 Y-14.984
X-154.368 Y-15.029
X-154.991 Y-15.077
X-155.628 Y-15.127
X-156.278 Y-15.18
X-156.944 Y-15.236
X-157.622 Y-15.294
X-158.316 Y-15.355
X-159.024 Y-15.419
X-159.746 Y-15.486
X-160.484 Y-15.555
X-161.237 Y-15.628
X-162.005 Y-15.704
X-162.789 Y-15.782
X-163.589 Y-15.863
X-164.404 Y-15.948
X-165.235 Y-16.036
X-166.083 Y-16.126
X-166.947 Y-16.22
X-167.828 Y-16.317
X-168.726 Y-16.417
X-169.22 Y-16.473
X-160.963 Y-24.731
X-158.294 Y-22.062
G3 X-158.294 Y-21.613 I-0.225 J0.225 F1016
G1 X-158.519 Y-21.389
X-158.569 Y-21.339 Z-1.292
X-158.616 Y-21.291 Z-1.269
X-158.659 Y-21.249 Z-1.231
X-158.694 Y-21.213 Z-1.18
X-158.721 Y-21.186 Z-1.12
X-158.738 Y-21.17 Z-1.053
X-158.743 Y-21.164 Z-0.983
Z5 F1500
X-125.266 Y-21.613
Z0.635 F300
Z-0.983
X-125.261 Y-21.619 Z-1.053 F1016
X-125.244 Y-21.635 Z-1.12
X-125.217 Y-21.662 Z-1.18
X-125.182 Y-21.698 Z-1.231
X-125.139 Y-21.74 Z-1.269
X-125.092 Y-21.788 Z-1.292
X-125.042 Y-21.838 Z-1.3
X-124.817 Y-22.062
G3 X-124.368 Y-22.062 I0.225 J0.225
G1 X-118.78 Y-16.473 F1500
X-119.274 Y-16.417
X-120.172 Y-16.317
X-121.053 Y-16.22
X-121.917 Y-16.126
X-122.765 Y-16.036
X-123.596 Y-15.948
X-124.411 Y-15.863
X-125.211 Y-15.782
X-125.995 Y-15.704
X-126.763 Y-15.628
X-127.516 Y-15.555
X-128.254 Y-15.486
X-128.976 Y-15.419
X-129.684 Y-15.355
X-130.378 Y-15.294
X-131.056 Y-15.236
X-131.722 Y-15.18
X-132.372 Y-15.127
X-133.009 Y-15.077
X-133.632 Y-15.029
X-134.242 Y-14.984
X-134.838 Y-14.942
X-135.423 Y-14.902
X-135.645 Y-14.887
X-135.354 Y-15.465
X-135.328 Y-15.519
X-134.99 Y-16.261
X-134.966 Y-16.317
X-134.643 Y-17.104
X-134.63 Y-17.139
X-127.037 Y-24.731
X-124.368 Y-22.062
G3 X-124.368 Y-21.613 I-0.225 J0.225 F1016
G1 X-124.593 Y-21.389
X-124.643 Y-21.339 Z-1.292
X-124.69 Y-21.291 Z-1.269
X-124.733 Y-21.249 Z-1.231
X-124.768 Y-21.213 Z-1.18
X-124.795 Y-21.186 Z-1.12
X-124.812 Y-21.17 Z-1.053
X-124.817 Y-21.164 Z-0.983
Z5 F1500
X-104.046 Y-31.955
Z0.635 F300
Z-0.983
X-104.04 Y-31.961 Z-1.053 F1016
X-104.024 Y-31.978 Z-1.12
X-103.997 Y-32.004 Z-1.18
X-103.962 Y-32.04 Z-1.231
X-103.919 Y-32.082 Z-1.269
X-103.872 Y-32.13 Z-1.292
X-103.822 Y-32.18 Z-1.3
X-103.597 Y-32.404
G3 X-103.148 Y-32.404 I0.225 J0.225
G1 X-98.501 Y-27.757 F1500
X-107.795 Y-18.464
X-120.55 Y-31.219
X-111.256 Y-40.512
X-103.148 Y-32.404
G3 X-103.148 Y-31.955 I-0.225 J0.225 F1016
G1 X-103.373 Y-31.731
X-103.422 Y-31.681 Z-1.292
X-103.47 Y-31.633 Z-1.269
X-103.513 Y-31.591 Z-1.231
X-103.548 Y-31.555 Z-1.18
X-103.575 Y-31.529 Z-1.12
X-103.591 Y-31.512 Z-1.053
X-103.597 Y-31.506 Z-0.983
Z5 F1500
X-89.192 Y-38.414
Z0.635 F300
Z-0.983
X-89.186 Y-38.408 Z-1.053 F1016
X-89.169 Y-38.392 Z-1.12
X-89.143 Y-38.365 Z-1.18
X-89.107 Y-38.329 Z-1.231
X-89.064 Y-38.287 Z-1.269
X-89.017 Y-38.239 Z-1.292
X-88.967 Y-38.189 Z-1.3
X-88.742 Y-37.965
G3 X-88.742 Y-37.516 I-0.225 J0.225
G1 X-92.013 Y-34.245 F1500
X-103.181 Y-45.412
X-80.846
X-88.742 Y-37.516
G3 X-89.192 Y-37.516 I-0.225 J-0.225 F1016
G1 X-89.416 Y-37.74
X-89.466 Y-37.79 Z-1.292
X-89.513 Y-37.838 Z-1.269
X-89.556 Y-37.88 Z-1.231
X-89.592 Y-37.916 Z-1.18
X-89.618 Y-37.943 Z-1.12
X-89.635 Y-37.959 Z-1.053
X-89.641 Y-37.965 Z-0.983
Z5 F1500
X-68.777 Y-35.172
Z0.635 F300
Z-0.983
X-68.772 Y-35.178 Z-1.053 F1016
X-68.755 Y-35.194 Z-1.12
X-68.728 Y-35.221 Z-1.18
X-68.693 Y-35.257 Z-1.231
X-68.65 Y-35.299 Z-1.269
X-68.603 Y-35.347 Z-1.292
X-68.553 Y-35.396 Z-1.3
X-68.328 Y-35.621
G3 X-67.879 Y-35.621 I0.225 J0.225
G1 X-59.089 Y-26.831 F1500
X-59.425 Y-26.744
X-60.936 Y-26.361
X-62.451 Y-25.987
X-65.503 Y-25.26
X-68.565 Y-24.564
X-71.635 Y-23.898
X-74.704 Y-23.26
X-77.766 Y-22.651
X-79.995 Y-22.227
X-85.526 Y-27.757
X-72.771 Y-40.512
X-67.879 Y-35.621
G3 X-67.879 Y-35.172 I-0.225 J0.225 F1016
G1 X-68.104 Y-34.947
X-68.154 Y-34.898 Z-1.292
X-68.201 Y-34.85 Z-1.269
X-68.244 Y-34.807 Z-1.231
X-68.279 Y-34.772 Z-1.18
X-68.306 Y-34.745 Z-1.12
X-68.323 Y-34.729 Z-1.053
X-68.328 Y-34.723 Z-0.983
Z5 F1500
X-47.474 Y-36.646
Z0.635 F300
Z-0.983
X-47.468 Y-36.641 Z-1.053 F1016
X-47.452 Y-36.624 Z-1.12
X-47.425 Y-36.597 Z-1.18
X-47.389 Y-36.562 Z-1.231
X-47.347 Y-36.519 Z-1.269
X-47.299 Y-36.472 Z-1.292
X-47.25 Y-36.422 Z-1.3
X-47.025 Y-36.197
G3 X-47.025 Y-35.748 I-0.225 J0.225
G1 X-51.028 Y-31.745 F1500
X-64.696 Y-45.412
X-37.361
X-47.025 Y-35.748
G3 X-47.474 Y-35.748 I-0.225 J-0.225 F1016
G1 X-47.699 Y-35.973
X-47.748 Y-36.023 Z-1.292
X-47.796 Y-36.07 Z-1.269
X-47.838 Y-36.113 Z-1.231
X-47.874 Y-36.148 Z-1.18
X-47.901 Y-36.175 Z-1.12
X-47.917 Y-36.192 Z-1.053
X-47.923 Y-36.197 Z-0.983
Z5 F1500
X-22.611 Y-42.596
Z0.635 F300
Z-0.983
X-22.607 Y-42.589 Z-1.053 F1016
X-22.593 Y-42.57 Z-1.12
X-22.571 Y-42.539 Z-1.18
X-22.542 Y-42.498 Z-1.231
X-22.507 Y-42.449 Z-1.269
X-22.468 Y-42.394 Z-1.292
X-22.428 Y-42.337 Z-1.3
X-22.244 Y-42.078
G3 X-22.319 Y-41.635 I-0.259 J0.184
G1 X-22.831 Y-41.272 F1500
X-23.599 Y-40.75
X-24.399 Y-40.229
X-25.23 Y-39.71
X-26.09 Y-39.193
X-26.98 Y-38.679
X-27.899 Y-38.167
X-28.846 Y-37.66
X-29.819 Y-37.156
X-30.82 Y-36.656
X-31.846 Y-36.162
X-32.897 Y-35.672
X-33.972 Y-35.188
X-35.071 Y-34.71
X-35.101 Y-34.697
X-24.385 Y-45.412
X-17.89
X-18.387 Y-44.907
X-18.921 Y-44.394
X-19.488 Y-43.878
X-20.089 Y-43.359
X-20.724 Y-42.838
X-21.393 Y-42.316
X-22.096 Y-41.794
X-22.319 Y-41.635
G3 X-22.761 Y-41.71 I-0.184 J-0.259 F1016
G1 X-22.945 Y-41.969
X-22.986 Y-42.027 Z-1.292
X-23.025 Y-42.082 Z-1.269
X-23.06 Y-42.131 Z-1.231
X-23.089 Y-42.172 Z-1.18
X-23.111 Y-42.203 Z-1.12
X-23.125 Y-42.222 Z-1.053
X-23.129 Y-42.228 Z-0.983
Z5 F1500
X-20.011 Y-73.382
Z0.635 F300
Z-0.983
X-20.005 Y-73.388 Z-1.053 F1016
X-19.989 Y-73.404 Z-1.12
X-19.961 Y-73.43 Z-1.18
X-19.925 Y-73.465 Z-1.231
X-19.882 Y-73.507 Z-1.269
X-19.833 Y-73.554 Z-1.292
X-19.783 Y-73.603 Z-1.3
X-19.554 Y-73.823
G3 X-19.105 Y-73.814 I0.22 J0.229
G1 X-18.791 Y-73.488 F1500
X-18.472 Y-73.142
X-18.165 Y-72.792
X-17.87 Y-72.439
X-17.587 Y-72.083
X-17.314 Y-71.722
X-17.052 Y-71.357
X-16.8 Y-70.987
X-16.559 Y-70.612
X-16.327 Y-70.232
X-16.105 Y-69.846
X-15.893 Y-69.455
X-15.69 Y-69.056
X-15.495 Y-68.652
X-15.466 Y-68.588
X-19.838
X-26.111 Y-74.86
X-23.569 Y-77.402
X-23.144 Y-77.123
X-22.681 Y-76.807
X-22.232 Y-76.487
X-21.796 Y-76.165
X-21.374 Y-75.839
X-20.966 Y-75.511
X-20.571 Y-75.18
X-20.189 Y-74.847
X-19.82 Y-74.511
X-19.464 Y-74.172
X-19.121 Y-73.831
X-19.105 Y-73.814
G3 X-19.113 Y-73.365 I-0.229 J0.22 F1016
G1 X-19.342 Y-73.145
X-19.393 Y-73.096 Z-1.292
X-19.441 Y-73.05 Z-1.269
X-19.485 Y-73.008 Z-1.231
X-19.521 Y-72.973 Z-1.18
X-19.548 Y-72.947 Z-1.12
X-19.565 Y-72.931 Z-1.053
X-19.571 Y-72.925 Z-0.983
Z5 F1500
X-41.947 Y-77.789
Z0.635 F300
Z-0.983
X-41.942 Y-77.794 Z-1.053 F1016
X-41.925 Y-77.811 Z-1.12
X-41.898 Y-77.838 Z-1.18
X-41.863 Y-77.873 Z-1.231
X-41.82 Y-77.916 Z-1.269
X-41.773 Y-77.963 Z-1.292
X-41.723 Y-78.013 Z-1.3
X-41.498 Y-78.238
G3 X-41.049 Y-78.238 I0.225 J0.225
G1 X-37.672 Y-74.86 F1500
X-43.944 Y-68.588
X-57.454
X-44.427 Y-81.615
X-41.049 Y-78.238
G3 X-41.049 Y-77.789 I-0.225 J0.225 F1016
G1 X-41.274 Y-77.564
X-41.324 Y-77.514 Z-1.292
X-41.371 Y-77.467 Z-1.269
X-41.414 Y-77.424 Z-1.231
X-41.449 Y-77.389 Z-1.18
X-41.476 Y-77.362 Z-1.12
X-41.493 Y-77.345 Z-1.053
X-41.498 Y-77.34 Z-0.983
Z5 F1500
X-61.894 Y-77.056
Z0.635 F300
Z-0.983
X-61.888 Y-77.05 Z-1.053 F1016
X-61.872 Y-77.034 Z-1.12
X-61.845 Y-77.007 Z-1.18
X-61.809 Y-76.972 Z-1.231
X-61.767 Y-76.929 Z-1.269
X-61.719 Y-76.882 Z-1.292
X-61.669 Y-76.832 Z-1.3
X-61.445 Y-76.607
G3 X-61.445 Y-76.158 I-0.225 J0.225
G1 X-64.822 Y-72.781 F1500
X-71.577 Y-79.535
X-63.276 Y-87.836
X-61.981 Y-87.713
X-59.96 Y-87.501
X-57.954 Y-87.272
X-55.966 Y-87.024
X-53.998 Y-86.756
X-52.054 Y-86.469
X-51.261 Y-86.342
X-61.445 Y-76.158
G3 X-61.894 Y-76.158 I-0.225 J-0.225 F1016
G1 X-62.118 Y-76.383
X-62.168 Y-76.432 Z-1.292
X-62.216 Y-76.48 Z-1.269
X-62.258 Y-76.523 Z-1.231
X-62.294 Y-76.558 Z-1.18
X-62.321 Y-76.585 Z-1.12
X-62.337 Y-76.601 Z-1.053
X-62.343 Y-76.607 Z-0.983
Z5 F1500
X-78.261 Y-70.962
Z0.635 F300
Z-0.983
X-78.256 Y-70.967 Z-1.053 F1016
X-78.239 Y-70.984 Z-1.12
X-78.212 Y-71.011 Z-1.18
X-78.177 Y-71.046 Z-1.231
X-78.134 Y-71.089 Z-1.269
X-78.087 Y-71.136 Z-1.292
X-78.037 Y-71.186 Z-1.3
X-77.812 Y-71.411
G3 X-77.363 Y-71.411 I0.225 J0.225
G1 X-74.54 Y-68.588 F1500
X-82.525
X-78.533 Y-72.58
X-77.363 Y-71.411
G3 X-77.363 Y-70.962 I-0.225 J0.225 F1016
G1 X-77.588 Y-70.737
X-77.638 Y-70.687 Z-1.292
X-77.685 Y-70.64 Z-1.269
X-77.728 Y-70.597 Z-1.231
X-77.763 Y-70.562 Z-1.18
X-77.79 Y-70.535 Z-1.12
X-77.807 Y-70.518 Z-1.053
X-77.812 Y-70.513 Z-0.983
Z5 F1500
X-90.5 Y-73.521
Z0.635 F300
Z-0.983
X-90.495 Y-73.515 Z-1.053 F1016
X-90.478 Y-73.498 Z-1.12
X-90.451 Y-73.472 Z-1.18
X-90.416 Y-73.436 Z-1.231
X-90.373 Y-73.393 Z-1.269
X-90.326 Y-73.346 Z-1.292
X-90.276 Y-73.296 Z-1.3
X-90.051 Y-73.072
G3 X-90.051 Y-72.623 I-0.225 J0.225
G1 X-93.429 Y-69.245 F1500
X-100.184 Y-76
X-91.068 Y-85.116
X-84.313 Y-78.361
X-90.051 Y-72.623
G3 X-90.5 Y-72.623 I-0.225 J-0.225 F1016
G1 X-90.725 Y-72.847
X-90.775 Y-72.897 Z-1.292
X-90.822 Y-72.944 Z-1.269
X-90.865 Y-72.987 Z-1.231
X-90.9 Y-73.023 Z-1.18
X-90.927 Y-73.049 Z-1.12
X-90.944 Y-73.066 Z-1.053
X-90.949 Y-73.072 Z-0.983
Z5 F1500
X-106.384 Y-69.292
Z0.635 F300
Z-0.983
X-106.379 Y-69.298 Z-1.053 F1016
X-106.362 Y-69.315 Z-1.12
X-106.335 Y-69.341 Z-1.18
X-106.3 Y-69.377 Z-1.231
X-106.257 Y-69.42 Z-1.269
X-106.21 Y-69.467 Z-1.292
X-106.16 Y-69.517 Z-1.3
X-105.935 Y-69.741
G3 X-105.486 Y-69.741 I0.224 J0.225
G1 X-104.332 Y-68.588 F1500
X-107.596
X-105.964 Y-70.219
X-105.486 Y-69.741
G3 X-105.486 Y-69.292 I-0.225 J0.224 F1016
G1 X-105.711 Y-69.068
X-105.761 Y-69.018 Z-1.292
X-105.808 Y-68.971 Z-1.269
X-105.851 Y-68.928 Z-1.231
X-105.886 Y-68.892 Z-1.18
X-105.913 Y-68.866 Z-1.12
X-105.93 Y-68.849 Z-1.053
X-105.935 Y-68.843 Z-0.983
Z5 F1500
X-115.665 Y-73.427
Z0.635 F300
Z-0.983
X-115.659 Y-73.422 Z-1.053 F1016
X-115.643 Y-73.405 Z-1.12
X-115.616 Y-73.378 Z-1.18
X-115.58 Y-73.343 Z-1.231
X-115.538 Y-73.3 Z-1.269
X-115.49 Y-73.253 Z-1.292
X-115.44 Y-73.203 Z-1.3
X-115.216 Y-72.978
G3 X-115.216 Y-72.529 I-0.225 J0.225
G1 X-119.158 Y-68.588 F1500
X-132.667
X-126.417 Y-74.838
X-126.102 Y-75.099
X-126.07 Y-75.126
X-125.707 Y-75.443
X-125.674 Y-75.472
X-125.322 Y-75.797
X-125.293 Y-75.825
X-124.951 Y-76.157
X-124.919 Y-76.189
X-124.59 Y-76.527
X-124.563 Y-76.555
X-124.245 Y-76.899
X-124.218 Y-76.929
X-123.912 Y-77.277
X-123.888 Y-77.305
X-123.593 Y-77.657
X-123.568 Y-77.687
X-123.285 Y-78.042
X-123.264 Y-78.069
X-122.991 Y-78.426
X-122.97 Y-78.455
X-122.708 Y-78.815
X-122.689 Y-78.841
X-122.437 Y-79.202
X-122.418 Y-79.231
X-122.177 Y-79.593
X-122.159 Y-79.619
X-121.928 Y-79.981
X-121.905 Y-80.019
X-121.472 Y-80.741
X-121.444 Y-80.791
X-121.049 Y-81.507
X-121.025 Y-81.552
X-120.665 Y-82.257
X-120.645 Y-82.297
X-120.316 Y-82.989
X-120.301 Y-83.021
X-119.997 Y-83.699
X-119.984 Y-83.73
X-119.833 Y-84.088
X-111.745 Y-76
X-115.216 Y-72.529
G3 X-115.665 Y-72.529 I-0.225 J-0.225 F1016
G1 X-115.889 Y-72.754
X-115.939 Y-72.804 Z-1.292
X-115.987 Y-72.851 Z-1.269
X-116.029 Y-72.894 Z-1.231
X-116.065 Y-72.929 Z-1.18
X-116.092 Y-72.956 Z-1.12
X-116.108 Y-72.973 Z-1.053
X-116.114 Y-72.978 Z-0.983
Z5 F1500
X-104.18 Y-84.912
Z0.635 F300
Z-0.983
X-104.174 Y-84.906 Z-1.053 F1016
X-104.158 Y-84.889 Z-1.12
X-104.131 Y-84.863 Z-1.18
X-104.096 Y-84.827 Z-1.231
X-104.053 Y-84.785 Z-1.269
X-104.005 Y-84.737 Z-1.292
X-103.956 Y-84.687 Z-1.3
X-103.731 Y-84.463
G3 X-103.731 Y-84.014 I-0.225 J0.225
G1 X-105.964 Y-81.781 F1500
X-113.598 Y-89.415
X-112.269
X-110.915 Y-89.414
X-109.537 Y-89.413
X-108.136 Y-89.411
X-106.713 Y-89.407
X-105.268 Y-89.402
X-103.803 Y-89.396
X-102.318 Y-89.387
X-100.814 Y-89.377
X-99.292 Y-89.364
X-98.39 Y-89.355
X-103.731 Y-84.014
G3 X-104.18 Y-84.014 I-0.225 J-0.225 F1016
G1 X-104.405 Y-84.238
X-104.454 Y-84.288 Z-1.292
X-104.502 Y-84.336 Z-1.269
X-104.545 Y-84.378 Z-1.231
X-104.58 Y-84.414 Z-1.18
X-104.607 Y-84.44 Z-1.12
X-104.623 Y-84.457 Z-1.053
X-104.629 Y-84.463 Z-0.983
Z5 F1500
X-76.784 Y-87.237
Z0.635 F300
Z-0.983
X-76.779 Y-87.231 Z-1.053 F1016
X-76.762 Y-87.214 Z-1.12
X-76.735 Y-87.188 Z-1.18
X-76.7 Y-87.152 Z-1.231
X-76.657 Y-87.11 Z-1.269
X-76.61 Y-87.062 Z-1.292
X-76.56 Y-87.012 Z-1.3
X-76.335 Y-86.788
G3 X-76.335 Y-86.339 I-0.225 J0.225
G1 X-77.358 Y-85.316 F1500
X-81.008 Y-88.966
X-79.62 Y-88.912
X-77.809 Y-88.832
X-74.168 Y-88.646
X-74.036 Y-88.638
X-76.335 Y-86.339
G3 X-76.784 Y-86.339 I-0.225 J-0.225 F1016
G1 X-77.009 Y-86.563
X-77.059 Y-86.613 Z-1.292
X-77.106 Y-86.661 Z-1.269
X-77.149 Y-86.703 Z-1.231
X-77.184 Y-86.739 Z-1.18
X-77.211 Y-86.765 Z-1.12
X-77.228 Y-86.782 Z-1.053
X-77.233 Y-86.788 Z-0.983
Z5 F1500
X-125.229 Y-40.862
Z0.635 F300
Z-0.983
X-125.223 Y-40.856 Z-1.053 F1016
X-125.207 Y-40.839 Z-1.12
X-125.18 Y-40.813 Z-1.18
X-125.145 Y-40.777 Z-1.231
X-125.102 Y-40.734 Z-1.269
X-125.055 Y-40.687 Z-1.292
X-125.005 Y-40.637 Z-1.3
X-124.78 Y-40.413
G3 X-124.78 Y-39.964 I-0.224 J0.225
G1 X-127.037 Y-37.706 F1500
X-134.743 Y-45.412
X-119.331
X-124.78 Y-39.964
G3 X-125.229 Y-39.964 I-0.225 J-0.224 F1016
G1 X-125.454 Y-40.188
X-125.504 Y-40.238 Z-1.292
X-125.551 Y-40.285 Z-1.269
X-125.594 Y-40.328 Z-1.231
X-125.629 Y-40.364 Z-1.18
X-125.656 Y-40.39 Z-1.12
X-125.672 Y-40.407 Z-1.053
X-125.678 Y-40.413 Z-0.983
Z5 F1500
X-166.274 Y-78.556
Z0.635 F300
Z-0.983
X-166.267 Y-78.561 Z-1.053 F1016
X-166.248 Y-78.574 Z-1.12
X-166.217 Y-78.596 Z-1.18
X-166.176 Y-78.624 Z-1.231
X-166.126 Y-78.659 Z-1.269
X-166.071 Y-78.697 Z-1.292
X-166.013 Y-78.738 Z-1.3
X-165.753 Y-78.919
G3 X-165.311 Y-78.841 I0.182 J0.26
G1 X-165.292 Y-78.815 F1500
X-165.03 Y-78.455
X-165.009 Y-78.426
X-164.736 Y-78.069
X-164.715 Y-78.042
X-164.432 Y-77.687
X-164.407 Y-77.657
X-164.112 Y-77.305
X-164.088 Y-77.277
X-163.782 Y-76.929
X-163.755 Y-76.899
X-163.437 Y-76.555
X-163.41 Y-76.527
X-163.081 Y-76.189
X-163.049 Y-76.157
X-162.707 Y-75.825
X-162.678 Y-75.797
X-162.326 Y-75.472
X-162.293 Y-75.443
X-161.93 Y-75.126
X-161.898 Y-75.099
X-161.583 Y-74.838
X-155.333 Y-68.588
X-168.842
X-176.255 Y-76
X-168.167 Y-84.088
X-168.016 Y-83.73
X-168.003 Y-83.699
X-167.699 Y-83.021
X-167.684 Y-82.989
X-167.355 Y-82.297
X-167.335 Y-82.257
X-166.975 Y-81.552
X-166.951 Y-81.507
X-166.556 Y-80.791
X-166.528 Y-80.741
X-166.095 Y-80.019
X-166.072 Y-79.981
X-165.841 Y-79.619
X-165.823 Y-79.593
X-165.582 Y-79.231
X-165.563 Y-79.202
X-165.311 Y-78.841
G3 X-165.389 Y-78.399 I-0.26 J0.182 F1016
G1 X-165.65 Y-78.217
X-165.708 Y-78.176 Z-1.292
X-165.763 Y-78.138 Z-1.269
X-165.812 Y-78.104 Z-1.231
X-165.853 Y-78.075 Z-1.18
X-165.884 Y-78.053 Z-1.12
X-165.904 Y-78.04 Z-1.053
X-165.91 Y-78.035 Z-0.983
Z5 F1500
X-180.252 Y-84.912
Z0.635 F300
Z-0.983
X-180.246 Y-84.906 Z-1.053 F1016
X-180.23 Y-84.889 Z-1.12
X-180.203 Y-84.863 Z-1.18
X-180.167 Y-84.827 Z-1.231
X-180.125 Y-84.785 Z-1.269
X-180.077 Y-84.737 Z-1.292
X-180.027 Y-84.687 Z-1.3
X-179.803 Y-84.463
G3 X-179.803 Y-84.014 I-0.225 J0.225
G1 X-182.036 Y-81.781 F1500
X-189.61 Y-89.355
X-188.707 Y-89.364
X-187.186 Y-89.377
X-185.682 Y-89.387
X-184.197 Y-89.396
X-182.732 Y-89.402
X-181.287 Y-89.407
X-179.864 Y-89.411
X-178.463 Y-89.413
X-177.085 Y-89.414
X-175.731 Y-89.415
X-174.402
X-179.803 Y-84.014
G3 X-180.252 Y-84.014 I-0.225 J-0.225 F1016
G1 X-180.476 Y-84.238
X-180.526 Y-84.288 Z-1.292
X-180.574 Y-84.336 Z-1.269
X-180.616 Y-84.378 Z-1.231
X-180.652 Y-84.414 Z-1.18
X-180.679 Y-84.44 Z-1.12
X-180.695 Y-84.457 Z-1.053
X-180.701 Y-84.463 Z-0.983
Z5 F1500
X-191.643 Y-73.52
Z0.635 F300
Z-0.983
X-191.637 Y-73.515 Z-1.053 F1016
X-191.62 Y-73.498 Z-1.12
X-191.594 Y-73.471 Z-1.18
X-191.558 Y-73.436 Z-1.231
X-191.516 Y-73.393 Z-1.269
X-191.468 Y-73.346 Z-1.292
X-191.418 Y-73.296 Z-1.3
X-191.194 Y-73.071
G3 X-191.194 Y-72.622 I-0.225 J0.225
G1 X-194.571 Y-69.245 F1500
X-203.687 Y-78.361
X-196.932 Y-85.116
X-187.816 Y-76
X-191.194 Y-72.622
G3 X-191.643 Y-72.622 I-0.225 J-0.225 F1016
G1 X-191.867 Y-72.847
X-191.917 Y-72.897 Z-1.292
X-191.965 Y-72.944 Z-1.269
X-192.007 Y-72.987 Z-1.231
X-192.043 Y-73.022 Z-1.18
X-192.069 Y-73.049 Z-1.12
X-192.086 Y-73.066 Z-1.053
X-192.092 Y-73.071 Z-0.983
Z5 F1500
X-182.456 Y-69.292
Z0.635 F300
Z-0.983
X-182.45 Y-69.298 Z-1.053 F1016
X-182.434 Y-69.315 Z-1.12
X-182.407 Y-69.341 Z-1.18
X-182.371 Y-69.377 Z-1.231
X-182.329 Y-69.42 Z-1.269
X-182.281 Y-69.467 Z-1.292
X-182.231 Y-69.517 Z-1.3
X-182.007 Y-69.741
G3 X-181.558 Y-69.741 I0.225 J0.224
G1 X-180.404 Y-68.588 F1500
X-183.668
X-182.036 Y-70.219
X-181.558 Y-69.741
G3 X-181.558 Y-69.292 I-0.225 J0.225 F1016
G1 X-181.782 Y-69.068
X-181.832 Y-69.018 Z-1.292
X-181.88 Y-68.971 Z-1.269
X-181.922 Y-68.928 Z-1.231
X-181.958 Y-68.892 Z-1.18
X-181.985 Y-68.866 Z-1.12
X-182.001 Y-68.849 Z-1.053
X-182.007 Y-68.843 Z-0.983
Z5 F1500
X-209.196 Y-70.962
Z0.635 F300
Z-0.983
X-209.19 Y-70.967 Z-1.053 F1016
X-209.173 Y-70.984 Z-1.12
X-209.147 Y-71.011 Z-1.18
X-209.111 Y-71.046 Z-1.231
X-209.069 Y-71.089 Z-1.269
X-209.021 Y-71.136 Z-1.292
X-208.971 Y-71.186 Z-1.3
X-208.747 Y-71.411
G3 X-208.298 Y-71.411 I0.225 J0.225
G1 X-205.475 Y-68.588 F1500
X-213.459
X-209.467 Y-72.58
X-208.298 Y-71.411
G3 X-208.298 Y-70.962 I-0.225 J0.225 F1016
G1 X-208.522 Y-70.737
X-208.572 Y-70.687 Z-1.292
X-208.62 Y-70.64 Z-1.269
X-208.662 Y-70.597 Z-1.231
X-208.698 Y-70.562 Z-1.18
X-208.724 Y-70.535 Z-1.12
X-208.741 Y-70.518 Z-1.053
X-208.747 Y-70.513 Z-0.983
Z5 F1500
X-224.022 Y-85.788
Z0.635 F300
Z-0.983
X-224.017 Y-85.794 Z-1.053 F1016
X-224 Y-85.81 Z-1.12
X-223.973 Y-85.837 Z-1.18
X-223.938 Y-85.872 Z-1.231
X-223.895 Y-85.915 Z-1.269
X-223.848 Y-85.962 Z-1.292
X-223.798 Y-86.012 Z-1.3
X-223.573 Y-86.237
G3 X-223.124 Y-86.237 I0.225 J0.225
G1 X-216.423 Y-79.536 F1500
X-223.178 Y-72.781
X-236.739 Y-86.342
X-235.946 Y-86.469
X-234.002 Y-86.756
X-232.035 Y-87.024
X-230.047 Y-87.272
X-228.04 Y-87.501
X-226.019 Y-87.713
X-224.724 Y-87.836
X-223.124 Y-86.237
G3 X-223.124 Y-85.788 I-0.225 J0.225 F1016
G1 X-223.349 Y-85.563
X-223.399 Y-85.513 Z-1.292
X-223.446 Y-85.466 Z-1.269
X-223.489 Y-85.423 Z-1.231
X-223.524 Y-85.388 Z-1.18
X-223.551 Y-85.361 Z-1.12
X-223.568 Y-85.345 Z-1.053
X-223.573 Y-85.339 Z-0.983
Z5 F1500
X-210.069 Y-87.237
Z0.635 F300
Z-0.983
X-210.063 Y-87.231 Z-1.053 F1016
X-210.046 Y-87.214 Z-1.12
X-210.02 Y-87.188 Z-1.18
X-209.984 Y-87.152 Z-1.231
X-209.941 Y-87.11 Z-1.269
X-209.894 Y-87.062 Z-1.292
X-209.844 Y-87.012 Z-1.3
X-209.62 Y-86.788
G3 X-209.62 Y-86.339 I-0.225 J0.225
G1 X-210.642 Y-85.316 F1500
X-213.964 Y-88.638
X-213.832 Y-88.646
X-210.191 Y-88.832
X-208.38 Y-88.912
X-206.992 Y-88.966
X-209.62 Y-86.339
G3 X-210.069 Y-86.339 I-0.225 J-0.225 F1016
G1 X-210.293 Y-86.563
X-210.343 Y-86.613 Z-1.292
X-210.39 Y-86.66 Z-1.269
X-210.433 Y-86.703 Z-1.231
X-210.469 Y-86.739 Z-1.18
X-210.495 Y-86.765 Z-1.12
X-210.512 Y-86.782 Z-1.053
X-210.518 Y-86.788 Z-0.983
Z5 F1500
X-239.597 Y-76.292
Z0.635 F300
Z-0.983
X-239.592 Y-76.298 Z-1.053 F1016
X-239.575 Y-76.315 Z-1.12
X-239.548 Y-76.341 Z-1.18
X-239.513 Y-76.377 Z-1.231
X-239.47 Y-76.42 Z-1.269
X-239.423 Y-76.467 Z-1.292
X-239.373 Y-76.517 Z-1.3
X-239.148 Y-76.741
G3 X-238.699 Y-76.741 I0.225 J0.225
G1 X-230.546 Y-68.588 F1500
X-244.055
X-250.328 Y-74.86
X-243.573 Y-81.615
X-238.699 Y-76.741
G3 X-238.699 Y-76.292 I-0.225 J0.225 F1016
G1 X-238.924 Y-76.068
X-238.974 Y-76.018 Z-1.292
X-239.021 Y-75.971 Z-1.269
X-239.064 Y-75.928 Z-1.231
X-239.099 Y-75.892 Z-1.18
X-239.126 Y-75.866 Z-1.12
X-239.143 Y-75.849 Z-1.053
X-239.148 Y-75.843 Z-0.983
Z5 F1500
X-266.336 Y-71.76
Z0.635 F300
Z-0.983
X-266.331 Y-71.754 Z-1.053 F1016
X-266.314 Y-71.738 Z-1.12
X-266.287 Y-71.711 Z-1.18
X-266.252 Y-71.675 Z-1.231
X-266.209 Y-71.633 Z-1.269
X-266.162 Y-71.585 Z-1.292
X-266.112 Y-71.535 Z-1.3
X-265.887 Y-71.311
G3 X-265.887 Y-70.862 I-0.225 J0.225
G1 X-268.162 Y-68.588 F1500
X-272.533
X-272.505 Y-68.651
X-272.31 Y-69.057
X-272.107 Y-69.454
X-271.894 Y-69.847
X-271.673 Y-70.232
X-271.441 Y-70.612
X-271.199 Y-70.987
X-270.948 Y-71.357
X-270.685 Y-71.722
X-270.413 Y-72.083
X-270.13 Y-72.439
X-269.834 Y-72.792
X-269.527 Y-73.142
X-269.21 Y-73.488
X-268.879 Y-73.831
X-268.536 Y-74.172
X-268.179 Y-74.511
X-267.811 Y-74.847
X-267.429 Y-75.18
X-267.034 Y-75.511
X-266.626 Y-75.839
X-266.204 Y-76.165
X-265.769 Y-76.487
X-265.319 Y-76.806
X-264.856 Y-77.123
X-264.431 Y-77.402
X-261.889 Y-74.86
X-265.887 Y-70.862
G3 X-266.336 Y-70.862 I-0.225 J-0.225 F1016
G1 X-266.561 Y-71.086
X-266.611 Y-71.136 Z-1.292
X-266.658 Y-71.184 Z-1.269
X-266.701 Y-71.226 Z-1.231
X-266.736 Y-71.262 Z-1.18
X-266.763 Y-71.289 Z-1.12
X-266.78 Y-71.305 Z-1.053
X-266.785 Y-71.311 Z-0.983
Z5 F1500
X-263.903 Y-44.354
Z0.635 F300
Z-0.983
X-263.898 Y-44.36 Z-1.053 F1016
X-263.881 Y-44.376 Z-1.12
X-263.854 Y-44.403 Z-1.18
X-263.819 Y-44.439 Z-1.231
X-263.776 Y-44.481 Z-1.269
X-263.729 Y-44.529 Z-1.292
X-263.679 Y-44.579 Z-1.3
X-263.454 Y-44.803
G3 X-263.005 Y-44.803 I0.225 J0.225
G1 X-252.899 Y-34.697 F1500
X-252.929 Y-34.71
X-254.028 Y-35.188
X-255.103 Y-35.672
X-256.154 Y-36.162
X-257.181 Y-36.656
X-258.18 Y-37.156
X-259.154 Y-37.66
X-260.101 Y-38.168
X-261.02 Y-38.679
X-261.91 Y-39.193
X-262.771 Y-39.71
X-263.601 Y-40.229
X-264.401 Y-40.75
X-265.169 Y-41.272
X-265.905 Y-41.794
X-266.607 Y-42.316
X-267.276 Y-42.838
X-267.911 Y-43.359
X-268.512 Y-43.878
X-269.079 Y-44.394
X-269.613 Y-44.907
X-270.109 Y-45.412
X-263.615
X-263.005 Y-44.803
G3 X-263.005 Y-44.354 I-0.225 J0.225 F1016
G1 X-263.23 Y-44.13
X-263.28 Y-44.08 Z-1.292
X-263.327 Y-44.032 Z-1.269
X-263.37 Y-43.99 Z-1.231
X-263.405 Y-43.954 Z-1.18
X-263.432 Y-43.927 Z-1.12
X-263.449 Y-43.911 Z-1.053
X-263.454 Y-43.905 Z-0.983
Z5 F1500
X-233.418 Y-36.646
Z0.635 F300
Z-0.983
X-233.412 Y-36.641 Z-1.053 F1016
X-233.396 Y-36.624 Z-1.12
X-233.369 Y-36.597 Z-1.18
X-233.333 Y-36.562 Z-1.231
X-233.291 Y-36.519 Z-1.269
X-233.243 Y-36.472 Z-1.292
X-233.193 Y-36.422 Z-1.3
X-232.969 Y-36.197
G3 X-232.969 Y-35.748 I-0.225 J0.225
G1 X-236.972 Y-31.745 F1500
X-250.639 Y-45.412
X-223.305
X-232.969 Y-35.748
G3 X-233.418 Y-35.748 I-0.225 J-0.225 F1016
G1 X-233.642 Y-35.973
X-233.692 Y-36.023 Z-1.292
X-233.74 Y-36.07 Z-1.269
X-233.782 Y-36.113 Z-1.231
X-233.818 Y-36.148 Z-1.18
X-233.845 Y-36.175 Z-1.12
X-233.861 Y-36.192 Z-1.053
X-233.867 Y-36.197 Z-0.983
Z5 F1500
X-211.236 Y-35.172
Z0.635 F300
Z-0.983
X-211.23 Y-35.178 Z-1.053 F1016
X-211.213 Y-35.194 Z-1.12
X-211.187 Y-35.221 Z-1.18
X-211.151 Y-35.257 Z-1.231
X-211.109 Y-35.299 Z-1.269
X-211.061 Y-35.347 Z-1.292
X-211.011 Y-35.397 Z-1.3
X-210.787 Y-35.621
G3 X-210.338 Y-35.621 I0.225 J0.225
G1 X-202.474 Y-27.757 F1500
X-208.005 Y-22.227
X-210.234 Y-22.651
X-213.296 Y-23.26
X-216.365 Y-23.898
X-219.435 Y-24.564
X-222.497 Y-25.26
X-225.549 Y-25.987
X-227.064 Y-26.361
X-228.575 Y-26.744
X-228.911 Y-26.831
X-215.229 Y-40.512
X-210.338 Y-35.621
G3 X-210.338 Y-35.172 I-0.225 J0.225 F1016
G1 X-210.562 Y-34.947
X-210.612 Y-34.898 Z-1.292
X-210.66 Y-34.85 Z-1.269
X-210.702 Y-34.808 Z-1.231
X-210.738 Y-34.772 Z-1.18
X-210.764 Y-34.745 Z-1.12
X-210.781 Y-34.729 Z-1.053
X-210.787 Y-34.723 Z-0.983
Z5 F1500
X-193.165 Y-38.414
Z0.635 F300
Z-0.983
X-193.16 Y-38.408 Z-1.053 F1016
X-193.143 Y-38.392 Z-1.12
X-193.116 Y-38.365 Z-1.18
X-193.081 Y-38.329 Z-1.231
X-193.038 Y-38.287 Z-1.269
X-192.991 Y-38.239 Z-1.292
X-192.941 Y-38.189 Z-1.3
X-192.716 Y-37.965
G3 X-192.716 Y-37.516 I-0.225 J0.225
G1 X-195.987 Y-34.245 F1500
X-207.154 Y-45.412
X-184.82
X-192.716 Y-37.516
G3 X-193.165 Y-37.516 I-0.225 J-0.225 F1016
G1 X-193.39 Y-37.74
X-193.44 Y-37.79 Z-1.292
X-193.487 Y-37.838 Z-1.269
X-193.53 Y-37.88 Z-1.231
X-193.565 Y-37.916 Z-1.18
X-193.592 Y-37.943 Z-1.12
X-193.609 Y-37.959 Z-1.053
X-193.614 Y-37.965 Z-0.983
Z15 F1500
(When using Fusion 360 for Personal Use, the feedrate of)
(rapid moves is reduced to match the feedrate of cutting)
(moves, which can increase machining time. Unrestricted rapid)
(moves are available with a Fusion 360 Subscription.)

(2D-Kontur2 2)
G0 X-286.422 Y-52.504
G1 Z15 F1500
Z5
Z0.635 F300
Z-0.5
X-286.107 Y-52.543 F1016
X-285.792 Y-52.582
G3 X-285.437 Y-52.307 I0.039 J0.315
G1 X-285.376 Y-51.816 F1500
X-285.372 Y-51.783
X-285.301 Y-51.297
X-285.295 Y-51.257
X-285.236 Y-50.912
Z-1.3 F300
X-285.212 Y-50.773 F1500
X-285.205 Y-50.737
X-285.111 Y-50.257
X-285.104 Y-50.223
X-285 Y-49.746
X-284.991 Y-49.707
X-284.875 Y-49.232
X-284.867 Y-49.199
X-284.741 Y-48.728
X-284.731 Y-48.692
X-284.594 Y-48.224
X-284.583 Y-48.189
X-284.435 Y-47.724
X-284.423 Y-47.688
X-284.264 Y-47.226
X-284.252 Y-47.192
X-284.082 Y-46.733
X-284.069 Y-46.701
X-283.889 Y-46.246
X-283.876 Y-46.211
X-283.685 Y-45.759
X-283.67 Y-45.725
X-283.468 Y-45.276
X-283.454 Y-45.246
X-283.242 Y-44.799
X-283.226 Y-44.767
X-283.003 Y-44.324
X-282.988 Y-44.295
X-282.755 Y-43.855
X-282.738 Y-43.823
X-282.494 Y-43.386
X-282.478 Y-43.358
X-282.224 Y-42.925
X-282.208 Y-42.897
X-281.944 Y-42.466
X-281.925 Y-42.437
X-281.65 Y-42.009
X-281.633 Y-41.983
X-281.348 Y-41.559
X-281.329 Y-41.531
X-281.033 Y-41.109
X-281.017 Y-41.087
X-280.712 Y-40.668
X-280.694 Y-40.644
X-280.379 Y-40.229
X-280.359 Y-40.203
X-280.034 Y-39.791
X-280.017 Y-39.77
X-279.682 Y-39.36
X-279.663 Y-39.338
X-279.318 Y-38.932
X-279.3 Y-38.911
X-278.945 Y-38.507
X-278.926 Y-38.486
X-278.561 Y-38.086
X-278.542 Y-38.066
X-278.167 Y-37.669
X-278.142 Y-37.642
X-277.365 Y-36.856
X-277.329 Y-36.822
X-276.514 Y-36.048
X-276.479 Y-36.016
X-275.627 Y-35.254
X-275.592 Y-35.224
X-274.703 Y-34.474
X-274.671 Y-34.447
X-273.747 Y-33.709
X-273.714 Y-33.684
X-272.755 Y-32.958
X-272.724 Y-32.935
X-271.731 Y-32.221
X-271.701 Y-32.199
X-270.674 Y-31.496
X-270.645 Y-31.477
X-269.586 Y-30.785
X-269.558 Y-30.767
X-268.467 Y-30.087
X-268.439 Y-30.071
X-267.316 Y-29.402
X-267.291 Y-29.387
X-266.139 Y-28.73
X-266.114 Y-28.716
X-264.933 Y-28.07
X-264.909 Y-28.057
X-263.699 Y-27.422
X-263.675 Y-27.41
X-262.437 Y-26.786
X-262.416 Y-26.775
X-261.152 Y-26.162
X-261.13 Y-26.152
X-259.84 Y-25.55
X-259.821 Y-25.541
X-258.507 Y-24.949
X-258.487 Y-24.941
X-257.149 Y-24.36
X-257.13 Y-24.352
X-255.769 Y-23.782
X-255.751 Y-23.775
X-254.368 Y-23.215
X-254.352 Y-23.209
X-252.949 Y-22.66
X-252.932 Y-22.653
X-251.508 Y-22.114
X-251.492 Y-22.109
X-250.05 Y-21.58
X-250.035 Y-21.575
X-248.575 Y-21.056
X-248.561 Y-21.051
X-247.084 Y-20.543
X-247.07 Y-20.538
X-245.577 Y-20.04
X-245.563 Y-20.035
X-244.055 Y-19.547
X-244.043 Y-19.543
X-242.522 Y-19.064
X-242.509 Y-19.06
X-240.975 Y-18.591
X-240.963 Y-18.587
X-239.417 Y-18.128
X-239.406 Y-18.124
X-237.849 Y-17.674
X-237.838 Y-17.671
X-236.271 Y-17.23
X-236.26 Y-17.227
X-234.684 Y-16.796
X-234.674 Y-16.793
X-233.091 Y-16.37
X-233.082 Y-16.368
X-231.492 Y-15.954
X-231.482 Y-15.952
X-229.886 Y-15.547
X-229.877 Y-15.545
X-228.276 Y-15.149
X-228.263 Y-15.146
X-225.05 Y-14.381
X-225.034 Y-14.377
X-221.813 Y-13.645
X-221.797 Y-13.642
X-218.575 Y-12.943
X-218.561 Y-12.94
X-215.346 Y-12.274
X-215.333 Y-12.272
X-212.131 Y-11.637
X-212.118 Y-11.634
X-208.938 Y-11.03
X-208.929 Y-11.029
X-207.348 Y-10.738
X-207.343 Y-10.737
X-205.771 Y-10.453
X-205.765 Y-10.452
X-204.201 Y-10.176
X-204.196 Y-10.175
X-202.641 Y-9.906
X-202.636 Y-9.905
X-201.092 Y-9.643
X-201.087 Y-9.642
X-199.554 Y-9.386
X-199.549
X-198.027 Y-9.137
X-198.022 Y-9.136
X-196.514 Y-8.895
X-196.509 Y-8.894
X-195.013 Y-8.659
X-195.009 Y-8.658
X-193.528 Y-8.429
X-193.524
X-192.057 Y-8.206
X-192.053
X-190.602 Y-7.99
X-190.598 Y-7.989
X-189.163 Y-7.78
X-189.159 Y-7.779
X-187.742 Y-7.575
X-187.738
X-186.337 Y-7.377
X-186.333
X-184.951 Y-7.185
X-184.947 Y-7.184
X-183.585 Y-6.999
X-183.581 Y-6.998
X-182.237 Y-6.818
X-182.234
X-180.911 Y-6.643
X-180.907
X-179.603 Y-6.474
X-179.6 Y-6.473
X-178.318 Y-6.31
X-178.315 Y-6.309
X-177.054 Y-6.151
X-177.05
X-175.811 Y-5.998
X-175.808
X-174.591 Y-5.85
X-174.588
X-173.394 Y-5.707
X-173.391
X-172.219 Y-5.569
X-172.216
X-171.067 Y-5.436
X-171.064
X-169.939 Y-5.308
X-169.936
X-168.833 Y-5.185
X-168.83
X-167.752 Y-5.067
X-167.749 Y-5.066
X-166.693 Y-4.953
X-166.69
X-165.658 Y-4.844
X-165.654 Y-4.843
X-164.645 Y-4.739
X-164.642
X-163.656 Y-4.639
X-163.653 Y-4.638
X-162.689 Y-4.543
X-162.685 Y-4.542
X-161.745 Y-4.451
X-161.742
X-160.823 Y-4.364
X-160.819 Y-4.363
X-159.922 Y-4.28
X-159.918
X-159.042 Y-4.201
X-159.038
X-158.183 Y-4.126
X-158.179
X-157.344 Y-4.055
X-157.339
X-156.523 Y-3.988
X-156.519
X-155.722 Y-3.925
X-155.717 Y-3.924
X-154.937 Y-3.866
X-154.932 Y-3.865
X-154.17 Y-3.81
X-154.164
X-153.418 Y-3.758
X-153.412
X-152.681 Y-3.71
X-152.675
X-151.958 Y-3.666
X-151.952 Y-3.665
X-151.249 Y-3.625
X-151.242
X-150.551 Y-3.588
X-150.544
X-149.864 Y-3.555
X-149.857 Y-3.554
X-149.188 Y-3.525
X-149.177 Y-3.524
X-148.087 Y-3.484
Z-0.5
X-147.865 Y-3.476
X-147.849 Y-3.475
X-146.565 Y-3.441
X-146.548 Y-3.44
X-145.282 Y-3.42
X-145.265 Y-3.419
X-144.009 Y-3.413
X-143.991
X-142.735 Y-3.419
X-142.718 Y-3.42
X-141.452 Y-3.44
X-141.435 Y-3.441
X-140.151 Y-3.475
X-140.135 Y-3.476
X-139.913 Y-3.484
Z-1.3 F300
X-138.823 Y-3.524 F1500
X-138.812 Y-3.525
X-138.143 Y-3.554
X-138.136 Y-3.555
X-137.456 Y-3.588
X-137.449
X-136.758 Y-3.625
X-136.751
X-136.048 Y-3.665
X-136.042 Y-3.666
X-135.325 Y-3.71
X-135.319
X-134.588 Y-3.758
X-134.582
X-133.836 Y-3.81
X-133.83
X-133.068 Y-3.865
X-133.063 Y-3.866
X-132.283 Y-3.924
X-132.278 Y-3.925
X-131.481 Y-3.988
X-131.477
X-130.661 Y-4.055
X-130.656
X-129.821 Y-4.126
X-129.817
X-128.962 Y-4.201
X-128.958
X-128.082 Y-4.28
X-128.078
X-127.181 Y-4.363
X-127.177 Y-4.364
X-126.258 Y-4.451
X-126.255
X-125.315 Y-4.542
X-125.311 Y-4.543
X-124.347 Y-4.638
X-124.344 Y-4.639
X-123.358 Y-4.739
X-123.355
X-122.346 Y-4.843
X-122.342 Y-4.844
X-121.31 Y-4.953
X-121.307
X-120.251 Y-5.066
X-120.248 Y-5.067
X-119.17 Y-5.185
X-119.167
X-118.064 Y-5.308
X-118.061
X-116.936 Y-5.436
X-116.933
X-115.784 Y-5.569
X-115.781
X-114.609 Y-5.707
X-114.606
X-113.412 Y-5.85
X-113.409
X-112.192 Y-5.998
X-112.189
X-110.95 Y-6.151
X-110.946
X-109.685 Y-6.309
X-109.682 Y-6.31
X-108.4 Y-6.473
X-108.397 Y-6.474
X-107.093 Y-6.643
X-107.089
X-105.766 Y-6.818
X-105.763
X-104.419 Y-6.998
X-104.415 Y-6.999
X-103.052 Y-7.184
X-103.049 Y-7.185
X-101.667 Y-7.377
X-101.663
X-100.262 Y-7.575
X-100.258
X-98.841 Y-7.779
X-98.837 Y-7.78
X-97.402 Y-7.989
X-97.398 Y-7.99
X-95.947 Y-8.206
X-95.943
X-94.476 Y-8.429
X-94.472
X-92.991 Y-8.658
X-92.986 Y-8.659
X-91.491 Y-8.894
X-91.486 Y-8.895
X-89.977 Y-9.136
X-89.973 Y-9.137
X-88.451 Y-9.386
X-88.446
X-86.913 Y-9.642
X-86.908 Y-9.643
X-85.364 Y-9.905
X-85.359 Y-9.906
X-83.804 Y-10.175
X-83.799 Y-10.176
X-82.235 Y-10.452
X-82.229 Y-10.453
X-80.657 Y-10.737
X-80.651 Y-10.738
X-79.071 Y-11.029
X-79.062 Y-11.03
X-75.881 Y-11.634
X-75.869 Y-11.637
X-72.668 Y-12.272
X-72.654 Y-12.274
X-69.439 Y-12.94
X-69.425 Y-12.943
X-66.203 Y-13.642
X-66.188 Y-13.645
X-62.967 Y-14.377
X-62.95 Y-14.381
X-59.737 Y-15.146
X-59.724 Y-15.149
X-58.123 Y-15.545
X-58.114 Y-15.547
X-56.518 Y-15.952
X-56.509 Y-15.954
X-54.918 Y-16.368
X-54.909 Y-16.37
X-53.325 Y-16.793
X-53.315 Y-16.796
X-51.74 Y-17.227
X-51.729 Y-17.23
X-50.162 Y-17.671
X-50.151 Y-17.674
X-48.594 Y-18.124
X-48.583 Y-18.128
X-47.037 Y-18.587
X-47.025 Y-18.591
X-45.491 Y-19.06
X-45.478 Y-19.064
X-43.957 Y-19.543
X-43.944 Y-19.547
X-42.436 Y-20.035
X-42.423 Y-20.04
X-40.93 Y-20.538
X-40.917 Y-20.543
X-39.44 Y-21.051
X-39.425 Y-21.056
X-37.965 Y-21.575
X-37.95 Y-21.58
X-36.508 Y-22.109
X-36.492 Y-22.114
X-35.068 Y-22.653
X-35.052 Y-22.66
X-33.648 Y-23.209
X-33.631 Y-23.215
X-32.249 Y-23.775
X-32.231 Y-23.782
X-30.87 Y-24.352
X-30.851 Y-24.36
X-29.513 Y-24.941
X-29.494 Y-24.949
X-28.179 Y-25.541
X-28.159 Y-25.55
X-26.869 Y-26.152
X-26.848 Y-26.162
X-25.584 Y-26.775
X-25.562 Y-26.786
X-24.325 Y-27.41
X-24.302 Y-27.422
X-23.092 Y-28.057
X-23.068 Y-28.07
X-21.886 Y-28.716
X-21.861 Y-28.73
X-20.709 Y-29.387
X-20.683 Y-29.402
X-19.561 Y-30.071
X-19.534 Y-30.087
X-18.443 Y-30.767
X-18.415 Y-30.785
X-17.355 Y-31.477
X-17.326 Y-31.496
X-16.299 Y-32.199
X-16.269 Y-32.22
X-15.276 Y-32.935
X-15.245 Y-32.958
X-14.286 Y-33.684
X-14.253 Y-33.709
X-13.329 Y-34.447
X-13.296 Y-34.475
X-12.407 Y-35.224
X-12.373 Y-35.254
X-11.521 Y-36.016
X-11.486 Y-36.048
X-10.671 Y-36.821
X-10.636 Y-36.856
X-9.858 Y-37.642
X-9.831 Y-37.67
X-9.457 Y-38.067
X-9.439 Y-38.086
X-9.074 Y-38.487
X-9.056 Y-38.507
X-8.701 Y-38.911
X-8.683 Y-38.931
X-8.337 Y-39.338
X-8.319 Y-39.36
X-7.984 Y-39.769
X-7.965 Y-39.792
X-7.64 Y-40.204
X-7.622 Y-40.228
X-7.306 Y-40.643
X-7.289 Y-40.667
X-6.983 Y-41.086
X-6.965 Y-41.111
X-6.67 Y-41.533
X-6.652 Y-41.558
X-6.367 Y-41.983
X-6.35 Y-42.01
X-6.075 Y-42.437
X-6.057 Y-42.465
X-5.793 Y-42.896
X-5.776 Y-42.924
X-5.522 Y-43.358
X-5.505 Y-43.387
X-5.261 Y-43.824
X-5.245 Y-43.854
X-5.012 Y-44.294
X-4.996 Y-44.324
X-4.773 Y-44.768
X-4.758 Y-44.799
X-4.546 Y-45.245
X-4.531 Y-45.277
X-4.329 Y-45.726
X-4.315 Y-45.759
X-4.124 Y-46.211
X-4.111 Y-46.245
X-3.93 Y-46.7
X-3.918 Y-46.734
X-3.748 Y-47.193
X-3.736 Y-47.227
X-3.577 Y-47.689
X-3.565 Y-47.723
X-3.417 Y-48.188
X-3.407 Y-48.223
X-3.27 Y-48.692
X-3.26 Y-48.727
X-3.133 Y-49.198
X-3.124 Y-49.234
X-3.009 Y-49.708
X-3 Y-49.744
X-2.896 Y-50.222
X-2.888 Y-50.258
X-2.795 Y-50.738
X-2.788 Y-50.775
X-2.706 Y-51.258
X-2.7 Y-51.294
X-2.628 Y-51.781
X-2.623 Y-51.817
X-2.563 Y-52.308
X-2.558 Y-52.344
X-2.509 Y-52.837
X-2.506 Y-52.873
X-2.467 Y-53.369
X-2.465 Y-53.404
X-2.437 Y-53.904
X-2.435 Y-53.939
X-2.419 Y-54.442
X-2.418 Y-54.477
X-2.413 Y-54.983
G2 X-4 Y-56.588 I-1.587 J-0.017
G1 X-139.913
Z-0.5
X-148.087
Z-1.3 F300
X-282.413 F1500
Z-0.5
X-284
G2 X-285.587 Y-54.981 I0 J1.588
G1 X-285.581 Y-54.475
Y-54.444
X-285.565 Y-53.941
X-285.563 Y-53.903
X-285.535 Y-53.403
X-285.533 Y-53.371
X-285.495 Y-52.875
X-285.491 Y-52.836
X-285.441 Y-52.342
X-285.437 Y-52.307
G3 X-285.713 Y-51.952 I-0.315 J0.039 F1016
G1 X-286.343 Y-51.874
Z15 F1500
(When using Fusion 360 for Personal Use, the feedrate of)
(rapid moves is reduced to match the feedrate of cutting)
(moves, which can increase machining time. Unrestricted rapid)
(moves are available with a Fusion 360 Subscription.)

(2D-Kontur3 2)
G0 X-1.562 Y-62.043
G1 Z15 F1500
Z5
Z0.635 F300
Z-0.983
X-1.57 Z-1.053 F1016
X-1.594 Y-62.04 Z-1.12
X-1.631 Y-62.037 Z-1.18
X-1.681 Y-62.032 Z-1.231
X-1.741 Y-62.027 Z-1.269
X-1.808 Y-62.02 Z-1.292
X-1.878 Y-62.014 Z-1.3
X-2.195 Y-61.984
G3 X-2.54 Y-62.271 I-0.029 J-0.316
G1 X-2.634 Y-63.278 F1500
X-2.639 Y-63.323
X-2.76 Y-64.313
X-2.766 Y-64.358
X-2.913 Y-65.332
X-2.921 Y-65.378
X-3.095 Y-66.334
X-3.104 Y-66.381
X-3.305 Y-67.321
X-3.316 Y-67.368
X-3.542 Y-68.291
X-3.555 Y-68.339
X-3.808 Y-69.245
X-3.823 Y-69.293
X-4.102 Y-70.182
X-4.118 Y-70.231
X-4.423 Y-71.103
X-4.441 Y-71.151
X-4.772 Y-72.007
X-4.792 Y-72.055
X-5.149 Y-72.894
X-5.17 Y-72.942
X-5.553 Y-73.765
X-5.576 Y-73.812
X-5.983 Y-74.618
X-6.008 Y-74.664
X-6.441 Y-75.454
X-6.467 Y-75.5
X-6.925 Y-76.273
X-6.952 Y-76.318
X-7.434 Y-77.075
X-7.463 Y-77.118
X-7.97 Y-77.86
X-7.999 Y-77.902
X-8.531 Y-78.627
X-8.561 Y-78.668
X-9.116 Y-79.377
X-9.148 Y-79.416
X-9.726 Y-80.11
X-9.758 Y-80.147
X-10.361 Y-80.826
X-10.393 Y-80.862
X-11.019 Y-81.525
X-11.051 Y-81.558
X-11.7 Y-82.206
X-11.733 Y-82.239
X-12.404 Y-82.871
X-12.437 Y-82.902
X-13.13 Y-83.519
X-13.163 Y-83.548
X-13.878 Y-84.151
X-13.911 Y-84.178
X-14.648 Y-84.766
X-14.68 Y-84.792
X-15.438 Y-85.365
X-15.471 Y-85.389
X-16.25 Y-85.948
X-16.281 Y-85.97
X-17.081 Y-86.515
X-17.112 Y-86.536
X-17.932 Y-87.067
X-17.963 Y-87.086
X-18.802 Y-87.603
X-18.832 Y-87.621
X-19.691 Y-88.124
X-19.721 Y-88.141
X-20.599 Y-88.631
X-20.628 Y-88.646
X-21.525 Y-89.122
X-21.553 Y-89.137
X-22.468 Y-89.6
X-22.495 Y-89.613
X-23.428 Y-90.063
X-23.455 Y-90.075
X-24.406 Y-90.512
X-24.431 Y-90.523
X-25.399 Y-90.947
X-25.424 Y-90.958
X-26.409 Y-91.369
X-26.433 Y-91.379
X-27.434 Y-91.778
X-27.458 Y-91.787
X-28.474 Y-92.174
X-28.497 Y-92.183
X-29.529 Y-92.557
X-29.551 Y-92.565
X-30.599 Y-92.928
X-30.62 Y-92.935
X-31.682 Y-93.287
X-31.702 Y-93.293
X-32.778 Y-93.633
X-32.798 Y-93.639
X-33.888 Y-93.968
X-33.907 Y-93.974
X-35.01 Y-94.291
X-35.029 Y-94.296
X-36.144 Y-94.603
X-36.162 Y-94.608
X-37.29 Y-94.904
X-37.307 Y-94.908
X-38.447 Y-95.194
X-38.464 Y-95.198
X-39.616 Y-95.473
X-39.632 Y-95.477
X-40.794 Y-95.742
X-40.809 Y-95.746
X-41.982 Y-96.001
X-41.997 Y-96.004
X-43.18 Y-96.25
X-43.195 Y-96.253
X-44.387 Y-96.489
X-44.401 Y-96.492
X-45.603 Y-96.719
X-45.616 Y-96.721
X-46.022 Y-96.794
Z-0.5
X-46.826 Y-96.939
X-46.839 Y-96.941
X-48.058 Y-97.151
X-48.07 Y-97.153
X-49.296 Y-97.353
X-49.308 Y-97.355
X-50.541 Y-97.547
X-50.553 Y-97.549
X-51.793 Y-97.733
X-51.804 Y-97.734
X-53.05 Y-97.91
X-53.066 Y-97.912
X-55.092 Y-98.177
Z-1.3 F300
X-55.575 Y-98.24 F1500
X-55.595 Y-98.243
X-58.123 Y-98.541
X-58.141 Y-98.543
X-60.685 Y-98.814
X-60.702 Y-98.815
X-63.256 Y-99.059
X-63.272 Y-99.06
X-65.834 Y-99.279
X-65.848 Y-99.28
X-68.414 Y-99.476
X-68.427 Y-99.477
X-70.992 Y-99.65
X-71.005 Y-99.651
X-73.566 Y-99.804
X-73.577 Y-99.805
X-76.13 Y-99.939
X-76.141
X-78.682 Y-100.056
X-78.692
X-81.219 Y-100.157
X-81.228
X-83.736 Y-100.243
X-83.744
X-86.23 Y-100.316
X-86.238
X-88.699 Y-100.377
X-88.706
X-91.139 Y-100.428
X-91.145
X-93.546 Y-100.469
X-93.552
X-95.919 Y-100.502
X-95.924
X-98.254 Y-100.527
X-98.257
X-99.407 Y-100.538
X-99.409
X-100.549 Y-100.547
X-100.551
X-101.68 Y-100.555
X-101.681
X-102.799 Y-100.562
X-102.801
X-103.908 Y-100.568
X-103.909
X-105.004 Y-100.572
X-106.088 Y-100.577
X-106.089
X-107.159 Y-100.58
X-108.218 Y-100.582
X-109.264 Y-100.585
X-110.297 Y-100.586
X-111.315 Y-100.587
X-112.32 Y-100.588
X-113.31 Y-100.589
X-114.287
X-115.247
X-116.193
X-117.124
X-118.039
X-118.94
X-119.822 Y-100.588
X-120.69
X-121.369
Z-0.5
X-121.542
X-122.378
X-123.197
X-124
G2 X-125.408 Y-99.733 I0 J1.588
G1 X-125.682 Y-99.207
X-125.69 Y-99.191
X-125.954 Y-98.669
X-125.963 Y-98.652
X-126.217 Y-98.135
X-126.223 Y-98.122
X-126.469 Y-97.61
X-126.481 Y-97.584
X-126.944 Y-96.573
X-126.957 Y-96.545
X-127.371 Y-95.591
Z-1.3 F300
X-127.388 Y-95.553 F1500
X-127.401 Y-95.523
X-127.8 Y-94.551
X-127.809 Y-94.528
X-128.183 Y-93.576
X-128.19 Y-93.557
X-128.542 Y-92.625
X-128.546 Y-92.614
X-128.882 Y-91.704
X-128.884 Y-91.701
X-129.208 Y-90.816
X-129.523 Y-89.965
X-129.837 Y-89.15
X-130.154 Y-88.373
X-130.479 Y-87.635
X-130.821 Y-86.929
X-130.994 Y-86.603
X-131.175 Y-86.278
X-131.362 Y-85.964
X-131.554 Y-85.661
X-131.754 Y-85.367
X-131.961 Y-85.083
X-132.176 Y-84.808
X-132.398 Y-84.542
X-132.631 Y-84.286
X-132.875 Y-84.036
X-133.129 Y-83.795
X-133.393 Y-83.563
X-133.67 Y-83.339
X-133.96 Y-83.122
X-134.264 Y-82.913
X-134.583 Y-82.712
X-134.917 Y-82.518
X-135.268 Y-82.331
X-135.633 Y-82.153
X-136.015 Y-81.983
X-136.415 Y-81.822
X-136.831 Y-81.669
X-137.263 Y-81.525
X-137.712 Y-81.39
X-138.176 Y-81.265
X-138.654 Y-81.15
X-139.147 Y-81.045
X-139.653 Y-80.95
X-140.17 Y-80.866
X-140.697 Y-80.792
X-141.233 Y-80.73
X-141.777 Y-80.679
X-142.327 Y-80.639
X-142.882 Y-80.61
X-143.44 Y-80.593
X-144 Y-80.588
X-144.56 Y-80.593
X-145.118 Y-80.61
X-145.673 Y-80.639
X-146.223 Y-80.679
X-146.767 Y-80.73
X-147.303 Y-80.792
X-147.83 Y-80.866
X-148.347 Y-80.95
X-148.853 Y-81.045
X-149.345 Y-81.15
X-149.823 Y-81.265
X-150.288 Y-81.39
X-150.736 Y-81.525
X-151.168 Y-81.669
X-151.584 Y-81.822
X-151.984 Y-81.983
X-152.366 Y-82.154
X-152.733 Y-82.332
X-153.082 Y-82.518
X-153.416 Y-82.712
X-153.735 Y-82.914
X-154.039 Y-83.123
X-154.329 Y-83.34
X-154.606 Y-83.564
X-154.87 Y-83.796
X-155.124 Y-84.037
X-155.367 Y-84.285
X-155.599 Y-84.542
X-155.822 Y-84.808
X-156.037 Y-85.084
X-156.244 Y-85.368
X-156.444 Y-85.662
X-156.636 Y-85.965
X-156.823 Y-86.279
X-157.004 Y-86.604
X-157.177 Y-86.93
X-157.519 Y-87.636
X-157.844 Y-88.374
X-158.161 Y-89.152
X-158.475 Y-89.967
X-158.79 Y-90.818
X-159.114 Y-91.702
X-159.116 Y-91.706
X-159.452 Y-92.616
X-159.456 Y-92.627
X-159.808 Y-93.558
X-159.815 Y-93.577
X-160.189 Y-94.529
X-160.199 Y-94.553
X-160.599 Y-95.525
X-160.611 Y-95.553
X-160.628 Y-95.592
Z-0.5
X-161.041 Y-96.544
X-161.055 Y-96.576
X-161.52 Y-97.587
X-161.53 Y-97.609
X-161.775 Y-98.121
X-161.783 Y-98.138
X-162.038 Y-98.655
X-162.046 Y-98.67
X-162.31 Y-99.191
X-162.318 Y-99.207
X-162.592 Y-99.733
G2 X-164 Y-100.588 I-1.408 J0.733
G1 X-164.803
X-165.622
X-166.458
X-166.632
Z-1.3 F300
X-167.309 F1500
X-168.178
X-169.06 Y-100.589
X-169.96
X-170.876
X-171.807
X-172.753
X-173.713
X-174.689
X-175.68 Y-100.588
X-176.684 Y-100.587
X-177.703 Y-100.586
X-178.735 Y-100.585
X-179.781 Y-100.582
X-180.84 Y-100.58
X-181.911 Y-100.577
X-181.912
X-182.995 Y-100.572
X-184.091 Y-100.568
X-184.092
X-185.199 Y-100.562
X-185.201
X-186.319 Y-100.555
X-186.32
X-187.449 Y-100.547
X-187.451
X-188.591 Y-100.538
X-188.593
X-189.744 Y-100.527
X-189.747
X-192.077 Y-100.502
X-192.081
X-194.448 Y-100.469
X-194.453
X-196.855 Y-100.428
X-196.861
X-199.295 Y-100.377
X-199.301
X-201.762 Y-100.316
X-201.769
X-204.256 Y-100.243
X-204.264
X-206.772 Y-100.157
X-206.781
X-209.308 Y-100.056
X-209.318
X-211.86 Y-99.939
X-211.87
X-214.423 Y-99.805
X-214.435 Y-99.804
X-216.996 Y-99.651
X-217.008 Y-99.65
X-219.573 Y-99.477
X-219.587 Y-99.476
X-222.152 Y-99.28
X-222.166 Y-99.279
X-224.728 Y-99.06
X-224.744 Y-99.059
X-227.299 Y-98.815
X-227.316 Y-98.814
X-229.859 Y-98.543
X-229.877 Y-98.541
X-232.405 Y-98.243
X-232.425 Y-98.24
X-232.908 Y-98.177
Z-0.5
X-234.934 Y-97.912
X-234.95 Y-97.91
X-236.196 Y-97.734
X-236.207 Y-97.733
X-237.447 Y-97.549
X-237.458 Y-97.547
X-238.692 Y-97.355
X-238.704 Y-97.353
X-239.93 Y-97.153
X-239.943 Y-97.151
X-241.161 Y-96.941
X-241.173 Y-96.939
X-241.978 Y-96.794
Z-1.3 F300
X-242.383 Y-96.721 F1500
X-242.397 Y-96.719
X-243.599 Y-96.492
X-243.612 Y-96.489
X-244.805 Y-96.253
X-244.82 Y-96.25
X-246.003 Y-96.004
X-246.018 Y-96.001
X-247.191 Y-95.746
X-247.206 Y-95.742
X-248.368 Y-95.477
X-248.384 Y-95.473
X-249.536 Y-95.198
X-249.553 Y-95.194
X-250.693 Y-94.908
X-250.71 Y-94.904
X-251.838 Y-94.608
X-251.856 Y-94.603
X-252.972 Y-94.296
X-252.99 Y-94.291
X-254.093 Y-93.974
X-254.112 Y-93.968
X-255.202 Y-93.639
X-255.222 Y-93.633
X-256.298 Y-93.293
X-256.319 Y-93.287
X-257.381 Y-92.935
X-257.402 Y-92.928
X-258.449 Y-92.565
X-258.471 Y-92.557
X-259.503 Y-92.183
X-259.525 Y-92.174
X-260.542 Y-91.788
X-260.566 Y-91.778
X-261.567 Y-91.379
X-261.591 Y-91.37
X-262.576 Y-90.958
X-262.601 Y-90.947
X-263.569 Y-90.523
X-263.595 Y-90.512
X-264.545 Y-90.075
X-264.571 Y-90.063
X-265.505 Y-89.613
X-265.532 Y-89.6
X-266.447 Y-89.137
X-266.475 Y-89.122
X-267.372 Y-88.646
X-267.401 Y-88.631
X-268.279 Y-88.141
X-268.308 Y-88.125
X-269.168 Y-87.622
X-269.199 Y-87.603
X-270.038 Y-87.086
X-270.068 Y-87.067
X-270.888 Y-86.536
X-270.919 Y-86.516
X-271.719 Y-85.971
X-271.751 Y-85.948
X-272.53 Y-85.389
X-272.562 Y-85.365
X-273.32 Y-84.792
X-273.352 Y-84.766
X-274.089 Y-84.178
X-274.122 Y-84.151
X-274.837 Y-83.548
X-274.87 Y-83.519
X-275.563 Y-82.901
X-275.596 Y-82.871
X-276.267 Y-82.239
X-276.301 Y-82.206
X-276.949 Y-81.558
X-276.981 Y-81.525
X-277.607 Y-80.862
X-277.64 Y-80.826
X-278.242 Y-80.147
X-278.273 Y-80.11
X-278.852 Y-79.416
X-278.884 Y-79.377
X-279.439 Y-78.667
X-279.468 Y-78.628
X-280 Y-77.903
X-280.031 Y-77.86
X-280.538 Y-77.118
X-280.566 Y-77.075
X-281.048 Y-76.317
X-281.075 Y-76.273
X-281.533 Y-75.5
X-281.559 Y-75.454
X-281.992 Y-74.664
X-282.016 Y-74.618
X-282.424 Y-73.812
X-282.448 Y-73.764
X-282.83 Y-72.941
X-282.851 Y-72.894
X-283.208 Y-72.055
X-283.228 Y-72.007
X-283.559 Y-71.151
X-283.576 Y-71.104
X-283.882 Y-70.232
X-283.899 Y-70.182
X-284.178 Y-69.293
X-284.192 Y-69.244
X-284.445 Y-68.339
X-284.458 Y-68.291
X-284.685 Y-67.369
X-284.696 Y-67.32
X-284.896 Y-66.381
X-284.905 Y-66.334
X-285.079 Y-65.378
X-285.086 Y-65.333
X-285.234 Y-64.359
X-285.241 Y-64.312
X-285.329 Y-63.588
Z-0.5
X-285.361 Y-63.322
X-285.366 Y-63.278
X-285.46 Y-62.271
X-285.463 Y-62.227
X-285.53 Y-61.203
X-285.532 Y-61.162
X-285.573 Y-60.121
X-285.574 Y-60.078
X-285.587 Y-59.02
G2 X-284 Y-57.412 I1.587 J0.02
G1 X-282.413
Z-1.3 F300
X-225.137 F1500
Z-0.5
X-215.962
Z-1.3 F300
X-157.1 F1500
G2 X-156.55 Y-57.511 I0 J-1.588
X-156 Y-57.412 I0.55 J-1.489
G1 X-132
G2 X-131.45 Y-57.511 I0 J-1.588
X-130.9 Y-57.412 I0.55 J-1.489
G1 X-72.037
Z-0.5
X-62.862
Z-1.3 F300
X-8.587 F1500
Z-0.5
X-4
G2 X-2.413 Y-59.02 I0 J-1.588
G1 X-2.426 Y-60.078
X-2.427 Y-60.12
X-2.445 Y-60.588
Z-1.3 F300
X-2.467 Y-61.161 F1500
X-2.47 Y-61.203
X-2.537 Y-62.227
X-2.54 Y-62.271
G3 X-2.254 Y-62.617 I0.316 J-0.029 F1016
G1 X-1.937 Y-62.646
X-1.867 Y-62.653 Z-1.292
X-1.8 Y-62.659 Z-1.269
X-1.74 Y-62.664 Z-1.231
X-1.69 Y-62.669 Z-1.18
X-1.653 Y-62.673 Z-1.12
X-1.629 Y-62.675 Z-1.053
X-1.621 Y-62.676 Z-0.983
Z15 F1500
M5
M30
