(Frontplatte)
(Maschine)
(  Hersteller: ChinaCnc)
(  model: 3040T)
(  description: Generic 3-axis)
(T14 D=3.175 CR=0 - ZMIN=-10.3 - Schaftfrser)
G90 G94
G17
G21
(-Attention- Property Safe Retracts is set to Clearance Height.)
(Ensure the clearance height will clear the part and or fixtures.)
(Raise the Z-axis to a safe height before starting the program.)
(When using Fusion for Personal Use, the feedrate of rapid)
(moves is reduced to match the feedrate of cutting moves,)
(which can increase machining time. Unrestricted rapid moves)
(are available with a Fusion Subscription.)

(Bohrfrsen4)
M0
(MANUAL TOOL CHANGE TO T14)
S6000 M3
G17 G90 G94
G54
G0 X34.581 Y48.577
Z15
G1 Z1.683 F1500
Z0 F1016
X34.74
X34.771 Y48.584
X34.797 Y48.601
X34.815 Y48.628
X34.821 Y48.659
G3 X34.496 Y48.659 Z-0.061 I-0.162 J0 F1500
X34.821 Y48.659 Z-0.122 I0.162 J0
X34.496 Y48.659 Z-0.183 I-0.162 J0
X34.821 Y48.659 Z-0.244 I0.162 J0
X34.496 Y48.659 Z-0.306 I-0.162 J0
X34.821 Y48.659 Z-0.367 I0.162 J0
X34.496 Y48.659 Z-0.428 I-0.162 J0
X34.821 Y48.659 Z-0.489 I0.162 J0
X34.496 Y48.659 Z-0.55 I-0.162 J0
X34.821 Y48.659 Z-0.611 I0.162 J0
X34.496 Y48.659 Z-0.672 I-0.162 J0
X34.821 Y48.659 Z-0.733 I0.162 J0
X34.496 Y48.659 Z-0.794 I-0.162 J0
X34.821 Y48.659 Z-0.856 I0.162 J0
X34.496 Y48.659 Z-0.917 I-0.162 J0
X34.821 Y48.659 Z-0.978 I0.162 J0
X34.496 Y48.659 Z-1.039 I-0.162 J0
X34.821 Y48.659 Z-1.1 I0.162 J0
X34.496 Y48.659 Z-1.161 I-0.162 J0
X34.821 Y48.659 Z-1.222 I0.162 J0
X34.496 Y48.659 Z-1.283 I-0.162 J0
X34.821 Y48.659 Z-1.344 I0.162 J0
X34.496 Y48.659 Z-1.406 I-0.162 J0
X34.821 Y48.659 Z-1.467 I0.162 J0
X34.496 Y48.659 Z-1.528 I-0.162 J0
X34.821 Y48.659 Z-1.589 I0.162 J0
X34.496 Y48.659 Z-1.65 I-0.162 J0
X34.821 Y48.659 Z-1.711 I0.162 J0
X34.496 Y48.659 Z-1.772 I-0.162 J0
X34.821 Y48.659 Z-1.833 I0.162 J0
X34.496 Y48.659 Z-1.894 I-0.162 J0
X34.821 Y48.659 Z-1.956 I0.162 J0
X34.552 Y48.781 Z-2 I-0.162 J0
X34.765 Y48.536 I0.106 J-0.123
X34.552 Y48.781 I-0.106 J0.123
G1 X34.533 Y48.756 F1016
X34.524 Y48.726
X34.528 Y48.694
X34.544 Y48.667
X34.648 Y48.547
Z5 F1500
X-46.736 Y48.577
Z1.683
Z0 F1016
X-46.577
X-46.546 Y48.584
X-46.52 Y48.601
X-46.502 Y48.628
X-46.496 Y48.659
G3 X-46.821 Y48.659 Z-0.061 I-0.163 J0 F1500
X-46.496 Y48.659 Z-0.122 I0.163 J0
X-46.821 Y48.659 Z-0.183 I-0.163 J0
X-46.496 Y48.659 Z-0.244 I0.163 J0
X-46.821 Y48.659 Z-0.306 I-0.163 J0
X-46.496 Y48.659 Z-0.367 I0.163 J0
X-46.821 Y48.659 Z-0.428 I-0.163 J0
X-46.496 Y48.659 Z-0.489 I0.163 J0
X-46.821 Y48.659 Z-0.55 I-0.163 J0
X-46.496 Y48.659 Z-0.611 I0.163 J0
X-46.821 Y48.659 Z-0.672 I-0.163 J0
X-46.496 Y48.659 Z-0.733 I0.163 J0
X-46.821 Y48.659 Z-0.794 I-0.163 J0
X-46.496 Y48.659 Z-0.856 I0.163 J0
X-46.821 Y48.659 Z-0.917 I-0.163 J0
X-46.496 Y48.659 Z-0.978 I0.162 J0
X-46.821 Y48.659 Z-1.039 I-0.162 J0
X-46.496 Y48.659 Z-1.1 I0.162 J0
X-46.821 Y48.659 Z-1.161 I-0.162 J0
X-46.496 Y48.659 Z-1.222 I0.162 J0
X-46.821 Y48.659 Z-1.283 I-0.162 J0
X-46.496 Y48.659 Z-1.344 I0.162 J0
X-46.821 Y48.659 Z-1.406 I-0.162 J0
X-46.496 Y48.659 Z-1.467 I0.162 J0
X-46.821 Y48.659 Z-1.528 I-0.162 J0
X-46.496 Y48.659 Z-1.589 I0.162 J0
X-46.821 Y48.659 Z-1.65 I-0.162 J0
X-46.496 Y48.659 Z-1.711 I0.162 J0
X-46.821 Y48.659 Z-1.772 I-0.162 J0
X-46.496 Y48.659 Z-1.833 I0.162 J0
X-46.821 Y48.659 Z-1.894 I-0.162 J0
X-46.496 Y48.659 Z-1.956 I0.162 J0
X-46.765 Y48.781 Z-2 I-0.162 J0
X-46.552 Y48.536 I0.106 J-0.123
X-46.765 Y48.781 I-0.106 J0.123
G1 X-46.784 Y48.756 F1016
X-46.793 Y48.726
X-46.789 Y48.694
X-46.773 Y48.667
X-46.669 Y48.547
Z5 F1500
X-46.736 Y-32.74
Z1.683
Z0 F1016
X-46.577
X-46.546 Y-32.734
X-46.52 Y-32.716
X-46.502 Y-32.69
X-46.496 Y-32.659
G3 X-46.821 Y-32.659 Z-0.061 I-0.163 J0 F1500
X-46.496 Y-32.659 Z-0.122 I0.163 J0
X-46.821 Y-32.659 Z-0.183 I-0.163 J0
X-46.496 Y-32.659 Z-0.244 I0.163 J0
X-46.821 Y-32.659 Z-0.306 I-0.163 J0
X-46.496 Y-32.659 Z-0.367 I0.163 J0
X-46.821 Y-32.659 Z-0.428 I-0.163 J0
X-46.496 Y-32.659 Z-0.489 I0.163 J0
X-46.821 Y-32.659 Z-0.55 I-0.163 J0
X-46.496 Y-32.659 Z-0.611 I0.163 J0
X-46.821 Y-32.659 Z-0.672 I-0.163 J0
X-46.496 Y-32.659 Z-0.733 I0.163 J0
X-46.821 Y-32.659 Z-0.794 I-0.163 J0
X-46.496 Y-32.659 Z-0.856 I0.163 J0
X-46.821 Y-32.659 Z-0.917 I-0.163 J0
X-46.496 Y-32.659 Z-0.978 I0.163 J0
X-46.821 Y-32.659 Z-1.039 I-0.163 J0
X-46.496 Y-32.659 Z-1.1 I0.163 J0
X-46.821 Y-32.659 Z-1.161 I-0.163 J0
X-46.496 Y-32.659 Z-1.222 I0.163 J0
X-46.821 Y-32.659 Z-1.283 I-0.163 J0
X-46.496 Y-32.659 Z-1.344 I0.163 J0
X-46.821 Y-32.659 Z-1.406 I-0.163 J0
X-46.496 Y-32.659 Z-1.467 I0.163 J0
X-46.821 Y-32.659 Z-1.528 I-0.163 J0
X-46.496 Y-32.659 Z-1.589 I0.163 J0
X-46.821 Y-32.659 Z-1.65 I-0.163 J0
X-46.496 Y-32.659 Z-1.711 I0.163 J0
X-46.821 Y-32.659 Z-1.772 I-0.163 J0
X-46.496 Y-32.659 Z-1.833 I0.163 J0
X-46.821 Y-32.659 Z-1.894 I-0.163 J0
X-46.496 Y-32.659 Z-1.956 I0.163 J0
X-46.765 Y-32.536 Z-2 I-0.163 J0
X-46.552 Y-32.781 I0.106 J-0.123
X-46.765 Y-32.536 I-0.106 J0.123
G1 X-46.784 Y-32.561 F1016
X-46.793 Y-32.591
X-46.789 Y-32.623
X-46.773 Y-32.65
X-46.669 Y-32.77
Z5 F1500
X34.581 Y-32.74
Z1.683
Z0 F1016
X34.74
X34.771 Y-32.734
X34.797 Y-32.716
X34.815 Y-32.69
X34.821 Y-32.659
G3 X34.496 Y-32.659 Z-0.061 I-0.162 J0 F1500
X34.821 Y-32.659 Z-0.122 I0.162 J0
X34.496 Y-32.659 Z-0.183 I-0.162 J0
X34.821 Y-32.659 Z-0.244 I0.162 J0
X34.496 Y-32.659 Z-0.306 I-0.162 J0
X34.821 Y-32.659 Z-0.367 I0.162 J0
X34.496 Y-32.659 Z-0.428 I-0.162 J0
X34.821 Y-32.659 Z-0.489 I0.162 J0
X34.496 Y-32.659 Z-0.55 I-0.162 J0
X34.821 Y-32.659 Z-0.611 I0.162 J0
X34.496 Y-32.659 Z-0.672 I-0.162 J0
X34.821 Y-32.659 Z-0.733 I0.162 J0
X34.496 Y-32.659 Z-0.794 I-0.162 J0
X34.821 Y-32.659 Z-0.856 I0.163 J0
X34.496 Y-32.659 Z-0.917 I-0.163 J0
X34.821 Y-32.659 Z-0.978 I0.163 J0
X34.496 Y-32.659 Z-1.039 I-0.163 J0
X34.821 Y-32.659 Z-1.1 I0.163 J0
X34.496 Y-32.659 Z-1.161 I-0.163 J0
X34.821 Y-32.659 Z-1.222 I0.163 J0
X34.496 Y-32.659 Z-1.283 I-0.163 J0
X34.821 Y-32.659 Z-1.344 I0.163 J0
X34.496 Y-32.659 Z-1.406 I-0.163 J0
X34.821 Y-32.659 Z-1.467 I0.163 J0
X34.496 Y-32.659 Z-1.528 I-0.163 J0
X34.821 Y-32.659 Z-1.589 I0.163 J0
X34.496 Y-32.659 Z-1.65 I-0.163 J0
X34.821 Y-32.659 Z-1.711 I0.163 J0
X34.496 Y-32.659 Z-1.772 I-0.163 J0
X34.821 Y-32.659 Z-1.833 I0.163 J0
X34.496 Y-32.659 Z-1.894 I-0.163 J0
X34.821 Y-32.659 Z-1.956 I0.163 J0
X34.552 Y-32.536 Z-2 I-0.163 J0
X34.765 Y-32.781 I0.106 J-0.123
X34.552 Y-32.536 I-0.106 J0.123
G1 X34.533 Y-32.561 F1016
X34.524 Y-32.591
X34.528 Y-32.623
X34.544 Y-32.65
X34.648 Y-32.77
Z15 F1500
(When using Fusion for Personal Use, the feedrate of rapid)
(moves is reduced to match the feedrate of cutting moves,)
(which can increase machining time. Unrestricted rapid moves)
(are available with a Fusion Subscription.)

(Bohrfrsen5)
G0 X42.869 Y7.682
G1 Z15 F1500
Z2
Z0.317 F1016
G18 G2 X43.186 Z0 I0.317 K0
G1 X43.345
G17 G3 X43.662 Y8 I0 J0.318
X-55.662 Y8 Z-1.79 I-49.662 J0 F1500
X43.662 Y8 Z-3.579 I49.662 J0
X-55.662 Y8 Z-5.369 I-49.662 J0
X43.663 Y8 Z-7.159 I49.662 J0
X-55.663 Y8 Z-8.948 I-49.663 J0
X29.684 Y-26.54 Z-10.3 I49.663 J0
X-41.684 Y42.54 I-35.684 J34.54
X29.684 Y-26.54 I35.684 J-34.54
X29.677 Y-26.091 I-0.228 J0.221 F1016
G1 X29.563 Y-25.98
X29.512 Y-25.931 Z-10.292
X29.464 Y-25.884 Z-10.269
X29.421 Y-25.843 Z-10.231
X29.385 Y-25.808 Z-10.18
X29.357 Y-25.781 Z-10.12
X29.341 Y-25.765 Z-10.053
X29.335 Y-25.759 Z-9.983
Z15 F1500

M5
M30
