(Gabel)
(Bearbeiten)
(  Hersteller: ChinaCnc)
(  model: 3040T)
(  description: Generic 3-axis)
(T14 D=1.5 CR=0 - ZMIN=-2.3 - Schaftfrser)
G90 G94
G17
G21
(-Attention- Property Safe Retracts is set to Clearance Height.)
(Ensure the clearance height will clear the part and or fixtures.)
(Raise the Z-axis to a safe height before starting the program.)
(When using Fusion 360 for Personal Use, the feedrate of)
(rapid moves is reduced to match the feedrate of cutting)
(moves, which can increase machining time. Unrestricted rapid)
(moves are available with a Fusion 360 Subscription.)

(Bohrfrsen1)
M0
(MANUAL TOOL CHANGE TO T14)
S6000 M3
G54
G0 X-25.1 Y-2.875
Z15
G1 Z2 F600
Z0.15 F400
X-25.093 Z0.104
X-25.071 Z0.062
X-25.038 Z0.029
X-24.996 Z0.007
X-24.95 Z0
X-24.875
X-24.836 Y-2.869
X-24.802 Y-2.851
X-24.774 Y-2.823
X-24.756 Y-2.789
X-24.75 Y-2.75
G3 X-25.25 Y-2.75 Z-0.035 I-0.25 J0 F600
X-24.75 Y-2.75 Z-0.07 I0.25 J0
X-25.25 Y-2.75 Z-0.105 I-0.25 J0
X-24.75 Y-2.75 Z-0.14 I0.25 J0
X-25.25 Y-2.75 Z-0.175 I-0.25 J0
X-24.75 Y-2.75 Z-0.21 I0.25 J0
X-25.25 Y-2.75 Z-0.244 I-0.25 J0
X-24.75 Y-2.75 Z-0.279 I0.25 J0
X-25.25 Y-2.75 Z-0.314 I-0.25 J0
X-24.75 Y-2.75 Z-0.349 I0.25 J0
X-25.25 Y-2.75 Z-0.384 I-0.25 J0
X-24.75 Y-2.75 Z-0.419 I0.25 J0
X-25.25 Y-2.75 Z-0.454 I-0.25 J0
X-24.75 Y-2.75 Z-0.489 I0.25 J0
X-25.25 Y-2.75 Z-0.524 I-0.25 J0
X-24.75 Y-2.75 Z-0.559 I0.25 J0
X-25.25 Y-2.75 Z-0.594 I-0.25 J0
X-24.75 Y-2.75 Z-0.629 I0.25 J0
X-25.25 Y-2.75 Z-0.663 I-0.25 J0
X-24.75 Y-2.75 Z-0.698 I0.25 J0
X-25.25 Y-2.75 Z-0.733 I-0.25 J0
X-24.75 Y-2.75 Z-0.768 I0.25 J0
X-25.25 Y-2.75 Z-0.803 I-0.25 J0
X-24.75 Y-2.75 Z-0.838 I0.25 J0
X-25.25 Y-2.75 Z-0.873 I-0.25 J0
X-24.75 Y-2.75 Z-0.908 I0.25 J0
X-25.25 Y-2.75 Z-0.943 I-0.25 J0
X-24.75 Y-2.75 Z-0.978 I0.25 J0
X-25.25 Y-2.75 Z-1.013 I-0.25 J0
X-24.75 Y-2.75 Z-1.048 I0.25 J0
X-25.25 Y-2.75 Z-1.083 I-0.25 J0
X-24.75 Y-2.75 Z-1.117 I0.25 J0
X-25.25 Y-2.75 Z-1.152 I-0.25 J0
X-24.75 Y-2.75 Z-1.187 I0.25 J0
X-25.25 Y-2.75 Z-1.222 I-0.25 J0
X-24.75 Y-2.75 Z-1.257 I0.25 J0
X-25.25 Y-2.75 Z-1.292 I-0.25 J0
X-24.75 Y-2.75 Z-1.327 I0.25 J0
X-25.25 Y-2.75 Z-1.362 I-0.25 J0
X-24.75 Y-2.75 Z-1.397 I0.25 J0
X-25.25 Y-2.75 Z-1.432 I-0.25 J0
X-24.75 Y-2.75 Z-1.467 I0.25 J0
X-25.25 Y-2.75 Z-1.502 I-0.25 J0
X-24.75 Y-2.75 Z-1.537 I0.25 J0
X-25.25 Y-2.75 Z-1.571 I-0.25 J0
X-24.75 Y-2.75 Z-1.606 I0.25 J0
X-25.25 Y-2.75 Z-1.641 I-0.25 J0
X-24.75 Y-2.75 Z-1.676 I0.25 J0
X-25.25 Y-2.75 Z-1.711 I-0.25 J0
X-24.75 Y-2.75 Z-1.746 I0.25 J0
X-25.25 Y-2.75 Z-1.781 I-0.25 J0
X-24.75 Y-2.75 Z-1.816 I0.25 J0
X-25.25 Y-2.75 Z-1.851 I-0.25 J0
X-24.75 Y-2.75 Z-1.886 I0.25 J0
X-25.25 Y-2.75 Z-1.921 I-0.25 J0
X-24.75 Y-2.75 Z-1.956 I0.25 J0
X-25.25 Y-2.75 Z-1.99 I-0.25 J0
X-25.164 Y-2.939 Z-2 I0.25 J0
X-24.836 Y-2.561 I0.164 J0.189
X-25.164 Y-2.939 I-0.164 J-0.189
G1 X-25.131 Y-2.96
X-25.093 Y-2.969
X-25.054 Y-2.966
X-25.017 Y-2.952
X-24.988 Y-2.926
X-24.938 Y-2.87
X-24.908 Y-2.835 Z-1.993
X-24.881 Y-2.803 Z-1.971
X-24.859 Y-2.778 Z-1.938
X-24.845 Y-2.762 Z-1.896
X-24.84 Y-2.756 Z-1.85
Z15
(When using Fusion 360 for Personal Use, the feedrate of)
(rapid moves is reduced to match the feedrate of cutting)
(moves, which can increase machining time. Unrestricted rapid)
(moves are available with a Fusion 360 Subscription.)

(2D-Kontur1)
G0 X-24.779 Y-24.671
G1 Z15 F600
Z5
Z4 F300
Z1
X-16.771 Z0.79 F1016
X-24.773 Y-7.511 Z0.294
G3 X-25.227 Y-7.511 Z0.28 I-0.227 J-0.106
G1 X-33.229 Y-24.671 Z-0.216
X-16.771 Z-0.647
X-24.773 Y-7.511 Z-1.143
G3 X-25.227 Y-7.511 Z-1.158 I-0.227 J-0.106
G1 X-33.229 Y-24.671 Z-1.654
X-16.771 Z-2.085
X-20.249 Y-17.213 Z-2.3
X-24.773 Y-7.511 F600
G3 X-25.227 Y-7.511 I-0.227 J-0.106
G1 X-33.229 Y-24.671
X-16.771
X-20.249 Y-17.213
Z15
(When using Fusion 360 for Personal Use, the feedrate of)
(rapid moves is reduced to match the feedrate of cutting)
(moves, which can increase machining time. Unrestricted rapid)
(moves are available with a Fusion 360 Subscription.)

(2D-Kontur2)
G0 X-33.597 Y-15.996
G1 Z15 F600
Z5
Z1 F300
X-28.002 Y-3.996 Z0.938 F1016
G2 X-21.998 Y-1.504 Z0.89 I3.002 J1.246
X-21.998 Y-3.996 Z0.878 I-3.002 J-1.246
G1 X-12.098 Y-25.228 Z0.769
G3 X-11.735 Y-25.591 Z0.766 I0.68 J0.317
G1 X-1.049 Y-30.574 Z0.711
G2 X0.25 Y-32.613 Z0.699 I-0.951 J-2.039
G1 Y-48.25 Z0.626
G2 X-2 Y-50.5 Z0.609 I-2.25 J0
G1 X-3 Z0.605
G2 X-3.457 Y-50.344 Z0.602 I0 J0.75
G1 X-6.057 Y-48.344 Z0.587
G2 X-6.057 Y-47.156 Z0.581 I0.457 J0.594
G1 X-3.75 Y-45.381 Z0.567
Y-34.206 Z0.515
G3 X-4.183 Y-33.526 Z0.511 I-0.75 J0
G1 X-14.595 Y-28.671 Z0.457
X-35.405 Z0.359
X-45.817 Y-33.526 Z0.306
G3 X-46.25 Y-34.206 Z0.302 I0.317 J-0.68
G1 Y-45.381 Z0.249
X-43.943 Y-47.156 Z0.236
G2 X-43.943 Y-48.344 Z0.229 I-0.457 J-0.594
G1 X-46.543 Y-50.344 Z0.214
G2 X-47 Y-50.5 Z0.212 I-0.457 J0.594
G1 X-48 Z0.207
G2 X-50.25 Y-48.25 Z0.19 I0 J2.25
G1 Y-32.613 Z0.117
G2 X-48.951 Y-30.574 Z0.105 I2.25 J0
G1 X-38.265 Y-25.591 Z0.05
G3 X-37.902 Y-25.228 Z0.048 I-0.317 J0.68
G1 X-28.002 Y-3.996 Z-0.062
G2 X-21.998 Y-1.504 Z-0.11 I3.002 J1.246
X-21.998 Y-3.996 Z-0.122 I-3.002 J-1.246
G1 X-12.098 Y-25.228 Z-0.231
G3 X-11.735 Y-25.591 Z-0.234 I0.68 J0.317
G1 X-1.049 Y-30.574 Z-0.289
G2 X0.25 Y-32.613 Z-0.301 I-0.951 J-2.039
G1 Y-48.25 Z-0.374
G2 X-2 Y-50.5 Z-0.391 I-2.25 J0
G1 X-3 Z-0.395
G2 X-3.457 Y-50.344 Z-0.398 I0 J0.75
G1 X-6.057 Y-48.344 Z-0.413
G2 X-6.057 Y-47.156 Z-0.419 I0.457 J0.594
G1 X-3.75 Y-45.381 Z-0.433
Y-34.206 Z-0.485
G3 X-4.183 Y-33.526 Z-0.489 I-0.75 J0
G1 X-14.595 Y-28.671 Z-0.543
X-35.405 Z-0.641
X-45.817 Y-33.526 Z-0.694
G3 X-46.25 Y-34.206 Z-0.698 I0.317 J-0.68
G1 Y-45.381 Z-0.751
X-43.943 Y-47.156 Z-0.764
G2 X-43.943 Y-48.344 Z-0.771 I-0.457 J-0.594
G1 X-46.543 Y-50.344 Z-0.786
G2 X-47 Y-50.5 Z-0.788 I-0.457 J0.594
G1 X-48 Z-0.793
G2 X-50.25 Y-48.25 Z-0.81 I0 J2.25
G1 Y-32.613 Z-0.883
G2 X-48.951 Y-30.574 Z-0.895 I2.25 J0
G1 X-38.265 Y-25.591 Z-0.95
G3 X-37.902 Y-25.228 Z-0.952 I-0.317 J0.68
G1 X-28.002 Y-3.996 Z-1.062
G2 X-21.998 Y-1.504 Z-1.11 I3.002 J1.246
X-21.998 Y-3.996 Z-1.122 I-3.002 J-1.246
G1 X-12.098 Y-25.228 Z-1.231
G3 X-11.735 Y-25.591 Z-1.234 I0.68 J0.317
G1 X-1.049 Y-30.574 Z-1.289
G2 X0.25 Y-32.613 Z-1.301 I-0.951 J-2.039
G1 Y-48.25 Z-1.374
G2 X-2 Y-50.5 Z-1.391 I-2.25 J0
G1 X-3 Z-1.395
G2 X-3.457 Y-50.344 Z-1.398 I0 J0.75
G1 X-6.057 Y-48.344 Z-1.413
G2 X-6.057 Y-47.156 Z-1.419 I0.457 J0.594
G1 X-3.75 Y-45.381 Z-1.433
Y-34.206 Z-1.485
G3 X-4.183 Y-33.526 Z-1.489 I-0.75 J0
G1 X-14.595 Y-28.671 Z-1.543
X-35.405 Z-1.641
X-45.817 Y-33.526 Z-1.694
G3 X-46.25 Y-34.206 Z-1.698 I0.317 J-0.68
G1 Y-45.381 Z-1.751
X-43.943 Y-47.156 Z-1.764
G2 X-43.943 Y-48.344 Z-1.771 I-0.457 J-0.594
G1 X-46.543 Y-50.344 Z-1.786
G2 X-47 Y-50.5 Z-1.788 I-0.457 J0.594
G1 X-48 Z-1.793
G2 X-50.25 Y-48.25 Z-1.81 I0 J2.25
G1 Y-32.613 Z-1.883
G2 X-48.951 Y-30.574 Z-1.895 I2.25 J0
G1 X-38.265 Y-25.591 Z-1.95
G3 X-37.902 Y-25.228 Z-1.952 I-0.317 J0.68
G1 X-28.002 Y-3.996 Z-2.062
G2 X-21.998 Y-1.504 Z-2.11 I3.002 J1.246
X-21.998 Y-3.996 Z-2.122 I-3.002 J-1.246
G1 X-12.098 Y-25.228 Z-2.231
G3 X-11.735 Y-25.591 Z-2.234 I0.68 J0.317
G1 X-1.049 Y-30.574 Z-2.289
G2 X0.24 Y-32.405 Z-2.3 I-0.951 J-2.039
G1 X0.248 Y-32.509 F600
X0.25 Y-32.613
Y-48.25
G2 X-2 Y-50.5 I-2.25 J0
G1 X-3
G2 X-3.457 Y-50.344 I0 J0.75
G1 X-6.057 Y-48.344
G2 X-6.057 Y-47.156 I0.457 J0.594
G1 X-3.75 Y-45.381
Y-34.206
G3 X-4.183 Y-33.526 I-0.75 J0
G1 X-14.595 Y-28.671
X-35.405
X-45.817 Y-33.526
G3 X-46.25 Y-34.206 I0.317 J-0.68
G1 Y-45.381
X-43.943 Y-47.156
G2 X-43.943 Y-48.344 I-0.457 J-0.594
G1 X-46.543 Y-50.344
G2 X-47 Y-50.5 I-0.457 J0.594
G1 X-48
G2 X-50.25 Y-48.25 I0 J2.25
G1 Y-32.613
G2 X-48.951 Y-30.574 I2.25 J0
G1 X-38.265 Y-25.591
G3 X-37.902 Y-25.228 I-0.317 J0.68
G1 X-28.002 Y-3.996
G2 X-21.998 Y-1.504 I3.002 J1.246
X-21.998 Y-3.996 I-3.002 J-1.246
G1 X-12.098 Y-25.228
G3 X-11.735 Y-25.591 I0.68 J0.317
G1 X-1.049 Y-30.574
G2 X0.24 Y-32.405 I-0.951 J-2.039
G1 Z15
M5
M30
