(Haupplatte)
(Bearbeiten)
(  Hersteller: ChinaCnc)
(  model: 3040T)
(  description: Generic 3-axis)
(T14 D=1.5 CR=0 - ZMIN=-4.3 - Schaftfrser)
G90 G94
G17
G21
(-Attention- Property Safe Retracts is set to Clearance Height.)
(Ensure the clearance height will clear the part and or fixtures.)
(Raise the Z-axis to a safe height before starting the program.)
(When using Fusion 360 for Personal Use, the feedrate of)
(rapid moves is reduced to match the feedrate of cutting)
(moves, which can increase machining time. Unrestricted rapid)
(moves are available with a Fusion 360 Subscription.)

(2D-Kontur1)
M0
(MANUAL TOOL CHANGE TO T14)
S6000 M3
G17 G90 G94
G54
G0 X-256.209 Y-144.972
Z15
G1 Z5 F600
Z0.3 F300
Z-1.85
X-256.202 Y-144.973 Z-1.896 F400
X-256.181 Y-144.976 Z-1.938
X-256.148 Y-144.981 Z-1.971
X-256.106 Y-144.987 Z-1.993
X-256.061 Y-144.994 Z-2
X-255.912 Y-145.016
X-255.865
X-255.821 Y-145.001
X-255.783 Y-144.973
X-255.756 Y-144.935
X-255.742 Y-144.89
G2 X-255 Y-144.25 I0.742 J-0.11 F600
G1 X-251.65
Y-65.75
X-255
G2 X-255.75 Y-65 I0 J0.75
G1 Y-15
G2 X-255 Y-14.25 I0.75 J0
G1 X-235
G2 X-234.25 Y-15 I0 J-0.75
G1 Y-18.35
X-195.25
Y-15
G2 X-194.5 Y-14.25 I0.75 J0
G1 X-155
G2 X-154.25 Y-15 I0 J-0.75
G1 Y-18.35
X-115.25
Y-15
G2 X-114.5 Y-14.25 I0.75 J0
G1 X-75
G2 X-74.25 Y-15 I0 J-0.75
G1 Y-18.35
X-35.25
Y-15
G2 X-34.5 Y-14.25 I0.75 J0
G1 X-5
G2 X-4.25 Y-15 I0 J-0.75
G1 Y-195
G2 X-5 Y-195.75 I-0.75 J0
G1 X-34.5
G2 X-35.25 Y-195 I0 J0.75
G1 Y-191.65
X-74.25
Y-195
G2 X-75 Y-195.75 I-0.75 J0
G1 X-114.5
G2 X-115.25 Y-195 I0 J0.75
G1 Y-191.65
X-154.25
Y-195
G2 X-155 Y-195.75 I-0.75 J0
G1 X-194.5
G2 X-195.25 Y-195 I0 J0.75
G1 Y-191.65
X-234.25
Y-195
G2 X-235 Y-195.75 I-0.75 J0
G1 X-255
G2 X-255.75 Y-195 I0 J0.75
G1 Y-145
X-255.748 Y-144.945
X-255.742 Y-144.89
Y-144.843
X-255.757 Y-144.798
X-255.785 Y-144.761
X-255.823 Y-144.734
X-255.868 Y-144.719
X-256.017 Y-144.697
X-256.062 Y-144.691 Z-1.993
X-256.104 Y-144.684 Z-1.971
X-256.137 Y-144.68 Z-1.938
X-256.158 Y-144.676 Z-1.896
X-256.165 Y-144.675 Z-1.85
Z5
X-256.209 Y-144.972
Z-1.7 F300
Z-3
X-256.202 Y-144.973 Z-3.046 F400
X-256.181 Y-144.976 Z-3.088
X-256.148 Y-144.981 Z-3.121
X-256.106 Y-144.987 Z-3.143
X-256.061 Y-144.994 Z-3.15
X-255.912 Y-145.016
X-255.865
X-255.821 Y-145.001
X-255.783 Y-144.973
X-255.756 Y-144.935
X-255.742 Y-144.89
G2 X-255 Y-144.25 I0.742 J-0.11 F600
G1 X-251.65
Y-65.75
X-255
G2 X-255.75 Y-65 I0 J0.75
G1 Y-15
G2 X-255 Y-14.25 I0.75 J0
G1 X-235
G2 X-234.25 Y-15 I0 J-0.75
G1 Y-18.35
X-195.25
Y-15
G2 X-194.5 Y-14.25 I0.75 J0
G1 X-155
G2 X-154.25 Y-15 I0 J-0.75
G1 Y-18.35
X-115.25
Y-15
G2 X-114.5 Y-14.25 I0.75 J0
G1 X-75
G2 X-74.25 Y-15 I0 J-0.75
G1 Y-18.35
X-35.25
Y-15
G2 X-34.5 Y-14.25 I0.75 J0
G1 X-5
G2 X-4.25 Y-15 I0 J-0.75
G1 Y-195
G2 X-5 Y-195.75 I-0.75 J0
G1 X-34.5
G2 X-35.25 Y-195 I0 J0.75
G1 Y-191.65
X-74.25
Y-195
G2 X-75 Y-195.75 I-0.75 J0
G1 X-114.5
G2 X-115.25 Y-195 I0 J0.75
G1 Y-191.65
X-154.25
Y-195
G2 X-155 Y-195.75 I-0.75 J0
G1 X-194.5
G2 X-195.25 Y-195 I0 J0.75
G1 Y-191.65
X-234.25
Y-195
G2 X-235 Y-195.75 I-0.75 J0
G1 X-255
G2 X-255.75 Y-195 I0 J0.75
G1 Y-145
X-255.748 Y-144.945
X-255.742 Y-144.89
Y-144.843
X-255.757 Y-144.798
X-255.785 Y-144.761
X-255.823 Y-144.734
X-255.868 Y-144.719
X-256.017 Y-144.697
X-256.062 Y-144.691 Z-3.143
X-256.104 Y-144.684 Z-3.121
X-256.137 Y-144.68 Z-3.088
X-256.158 Y-144.676 Z-3.046
X-256.165 Y-144.675 Z-3
Z5
X-256.209 Y-144.972
Z-2.85 F300
Z-4.15
X-256.202 Y-144.973 Z-4.196 F400
X-256.181 Y-144.976 Z-4.238
X-256.148 Y-144.981 Z-4.271
X-256.106 Y-144.987 Z-4.293
X-256.061 Y-144.994 Z-4.3
X-255.912 Y-145.016
X-255.865
X-255.821 Y-145.001
X-255.783 Y-144.973
X-255.756 Y-144.935
X-255.742 Y-144.89
G2 X-255 Y-144.25 I0.742 J-0.11 F600
G1 X-251.65
Y-65.75
X-255
G2 X-255.75 Y-65 I0 J0.75
G1 Y-15
G2 X-255 Y-14.25 I0.75 J0
G1 X-235
G2 X-234.25 Y-15 I0 J-0.75
G1 Y-18.35
X-195.25
Y-15
G2 X-194.5 Y-14.25 I0.75 J0
G1 X-155
G2 X-154.25 Y-15 I0 J-0.75
G1 Y-18.35
X-115.25
Y-15
G2 X-114.5 Y-14.25 I0.75 J0
G1 X-75
G2 X-74.25 Y-15 I0 J-0.75
G1 Y-18.35
X-35.25
Y-15
G2 X-34.5 Y-14.25 I0.75 J0
G1 X-5
G2 X-4.25 Y-15 I0 J-0.75
G1 Y-195
G2 X-5 Y-195.75 I-0.75 J0
G1 X-34.5
G2 X-35.25 Y-195 I0 J0.75
G1 Y-191.65
X-74.25
Y-195
G2 X-75 Y-195.75 I-0.75 J0
G1 X-114.5
G2 X-115.25 Y-195 I0 J0.75
G1 Y-191.65
X-154.25
Y-195
G2 X-155 Y-195.75 I-0.75 J0
G1 X-194.5
G2 X-195.25 Y-195 I0 J0.75
G1 Y-191.65
X-234.25
Y-195
G2 X-235 Y-195.75 I-0.75 J0
G1 X-255
G2 X-255.75 Y-195 I0 J0.75
G1 Y-145
X-255.748 Y-144.945
X-255.742 Y-144.89
Y-144.843
X-255.757 Y-144.798
X-255.785 Y-144.761
X-255.823 Y-144.734
X-255.868 Y-144.719
X-256.017 Y-144.697
X-256.062 Y-144.691 Z-4.293
X-256.104 Y-144.684 Z-4.271
X-256.137 Y-144.68 Z-4.238
X-256.158 Y-144.676 Z-4.196
X-256.165 Y-144.675 Z-4.15
Z15
M5
M30
