(1001)
(Bearbeiten)
(  Hersteller: ChinaCnc)
(  model: 3040T)
(  description: Generic 3-axis)
(T14  D=3.175 CR=0 - ZMIN=-3.2 - Schaftfraser)
G90 G94
G17
G21
G28 G91 Z0
G90

(Bohrfrasen3)
T14
S6000 M3
G54
G0 X-282.077 Y-21.081
Z15
Z1.683
G1 Z0 F1016
X-281.918
X-281.887 Y-21.075
X-281.86 Y-21.057
X-281.843 Y-21.031
X-281.837 Y-21
G3 X-282.162 Y-21 Z-0.5 I-0.163 J0 F1500
X-281.837 Y-21 Z-1 I0.163 J0
X-282.03 Y-20.84 Z-1.28 I-0.163 J0
X-281.969 Y-21.16 Z-1.78 I0.03 J-0.16
X-281.857 Y-21.078 Z-1.92 I-0.03 J0.16
X-282.142 Y-20.922 Z-2.42 I-0.142 J0.078
X-282.15 Y-21.06 Z-2.56 I0.142 J-0.078
X-281.848 Y-20.94 Z-3.06 I0.151 J0.06
X-281.949 Y-20.845 Z-3.2 I-0.151 J-0.06
X-282.049 Y-21.155 I-0.05 J-0.155
X-281.949 Y-20.845 I0.05 J0.155
G1 X-281.98 Y-20.842 F1016
X-282.011 Y-20.85
X-282.036 Y-20.87
X-282.051 Y-20.898
X-282.1 Y-21.049
G0 Z5
X-244.077 Y-21.081
Z1.683
G1 Z0 F1016
X-243.918
X-243.887 Y-21.075
X-243.86 Y-21.057
X-243.843 Y-21.031
X-243.837 Y-21
G3 X-244.162 Y-21 Z-0.5 I-0.163 J0 F1500
X-244.103 Y-21.125 Z-0.64 I0.162 J0
X-243.896 Y-20.875 Z-1.14 I0.104 J0.125
X-244.03 Y-20.84 Z-1.28 I-0.104 J-0.125
X-243.969 Y-21.16 Z-1.78 I0.03 J-0.16
X-243.857 Y-21.078 Z-1.92 I-0.03 J0.16
X-244.142 Y-20.922 Z-2.42 I-0.142 J0.078
X-243.857 Y-21.078 Z-2.92 I0.142 J-0.078
X-243.949 Y-20.845 Z-3.2 I-0.142 J0.078
X-244.049 Y-21.155 I-0.05 J-0.155
X-243.949 Y-20.845 I0.05 J0.155
G1 X-243.98 Y-20.842 F1016
X-244.011 Y-20.85
X-244.036 Y-20.87
X-244.051 Y-20.898
X-244.1 Y-21.049
G0 Z5
X-206.077 Y-21.081
Z1.683
G1 Z0 F1016
X-205.918
X-205.887 Y-21.075
X-205.86 Y-21.057
X-205.843 Y-21.031
X-205.837 Y-21
G3 X-206.162 Y-21 Z-0.5 I-0.163 J0 F1500
X-206.103 Y-21.125 Z-0.64 I0.162 J0
X-205.896 Y-20.875 Z-1.14 I0.104 J0.125
X-206.03 Y-20.84 Z-1.28 I-0.104 J-0.125
X-205.969 Y-21.16 Z-1.78 I0.03 J-0.16
X-205.857 Y-21.078 Z-1.92 I-0.03 J0.16
X-206.142 Y-20.922 Z-2.42 I-0.142 J0.078
X-205.857 Y-21.078 Z-2.92 I0.142 J-0.078
X-205.949 Y-20.845 Z-3.2 I-0.142 J0.078
X-206.049 Y-21.155 I-0.05 J-0.155
X-205.949 Y-20.845 I0.05 J0.155
G1 X-205.98 Y-20.842 F1016
X-206.011 Y-20.85
X-206.036 Y-20.87
X-206.051 Y-20.898
X-206.1 Y-21.049
G0 Z5
X-168.077 Y-21.081
Z1.683
G1 Z0 F1016
X-167.918
X-167.887 Y-21.075
X-167.86 Y-21.057
X-167.843 Y-21.031
X-167.837 Y-21
G3 X-168.162 Y-21 Z-0.5 I-0.163 J0 F1500
X-168.103 Y-21.125 Z-0.64 I0.162 J0
X-167.896 Y-20.875 Z-1.14 I0.104 J0.125
X-168.03 Y-20.84 Z-1.28 I-0.104 J-0.125
X-167.969 Y-21.16 Z-1.78 I0.03 J-0.16
X-167.857 Y-21.078 Z-1.92 I-0.03 J0.16
X-168.142 Y-20.922 Z-2.42 I-0.142 J0.078
X-167.857 Y-21.078 Z-2.92 I0.142 J-0.078
X-167.949 Y-20.845 Z-3.2 I-0.142 J0.078
X-168.049 Y-21.155 I-0.05 J-0.155
X-167.949 Y-20.845 I0.05 J0.155
G1 X-167.98 Y-20.842 F1016
X-168.011 Y-20.85
X-168.036 Y-20.87
X-168.051 Y-20.898
X-168.1 Y-21.049
G0 Z5
X-130.077 Y-21.081
Z1.683
G1 Z0 F1016
X-129.918
X-129.887 Y-21.075
X-129.86 Y-21.057
X-129.843 Y-21.031
X-129.837 Y-21
G3 X-130.162 Y-21 Z-0.5 I-0.163 J0 F1500
X-130.103 Y-21.125 Z-0.64 I0.162 J0
X-129.896 Y-20.875 Z-1.14 I0.104 J0.125
X-130.03 Y-20.84 Z-1.28 I-0.104 J-0.125
X-129.969 Y-21.16 Z-1.78 I0.03 J-0.16
X-129.857 Y-21.078 Z-1.92 I-0.03 J0.16
X-130.142 Y-20.922 Z-2.42 I-0.142 J0.078
X-129.857 Y-21.078 Z-2.92 I0.142 J-0.078
X-129.949 Y-20.845 Z-3.2 I-0.142 J0.078
X-130.049 Y-21.155 I-0.05 J-0.155
X-129.949 Y-20.845 I0.05 J0.155
G1 X-129.98 Y-20.842 F1016
X-130.011 Y-20.85
X-130.036 Y-20.87
X-130.051 Y-20.898
X-130.1 Y-21.049
G0 Z5
X-92.077 Y-21.081
Z1.683
G1 Z0 F1016
X-91.918
X-91.887 Y-21.075
X-91.86 Y-21.057
X-91.843 Y-21.031
X-91.837 Y-21
G3 X-92.162 Y-21 Z-0.5 I-0.162 J0 F1500
X-91.837 Y-21 Z-1 I0.162 J0
X-92.162 Y-21 Z-1.5 I-0.162 J0
X-91.837 Y-21 Z-2 I0.162 J0
X-92.162 Y-21 Z-2.5 I-0.162 J0
X-91.837 Y-21 Z-3 I0.163 J0
X-91.949 Y-20.845 Z-3.2 I-0.163 J0
X-92.049 Y-21.155 I-0.05 J-0.155
X-91.949 Y-20.845 I0.05 J0.155
G1 X-91.98 Y-20.842 F1016
X-92.011 Y-20.85
X-92.036 Y-20.87
X-92.051 Y-20.898
X-92.1 Y-21.049
G0 Z5
X-54.077 Y-21.081
Z1.683
G1 Z0 F1016
X-53.918
X-53.887 Y-21.075
X-53.86 Y-21.057
X-53.843 Y-21.031
X-53.837 Y-21
G3 X-54.162 Y-21 Z-0.5 I-0.162 J0 F1500
X-53.837 Y-21 Z-1 I0.162 J0
X-54.162 Y-21 Z-1.5 I-0.162 J0
X-53.837 Y-21 Z-2 I0.162 J0
X-54.162 Y-21 Z-2.5 I-0.162 J0
X-53.837 Y-21 Z-3 I0.163 J0
X-53.949 Y-20.845 Z-3.2 I-0.163 J0
X-54.049 Y-21.155 I-0.05 J-0.155
X-53.949 Y-20.845 I0.05 J0.155
G1 X-53.98 Y-20.842 F1016
X-54.011 Y-20.85
X-54.036 Y-20.87
X-54.051 Y-20.898
X-54.1 Y-21.049
G0 Z5
X-16.077 Y-21.081
Z1.683
G1 Z0 F1016
X-15.918
X-15.887 Y-21.075
X-15.86 Y-21.057
X-15.843 Y-21.031
X-15.837 Y-21
G3 X-16.162 Y-21 Z-0.5 I-0.162 J0 F1500
X-15.837 Y-21 Z-1 I0.162 J0
X-16.162 Y-21 Z-1.5 I-0.162 J0
X-15.837 Y-21 Z-2 I0.162 J0
X-16.162 Y-21 Z-2.5 I-0.162 J0
X-15.837 Y-21 Z-3 I0.162 J0
X-15.949 Y-20.845 Z-3.2 I-0.162 J0
X-16.049 Y-21.155 I-0.05 J-0.155
X-15.949 Y-20.845 I0.05 J0.155
G1 X-15.98 Y-20.842 F1016
X-16.011 Y-20.85
X-16.036 Y-20.87
X-16.051 Y-20.898
X-16.1 Y-21.049
G0 Z5
X-16.077 Y-91.081
Z1.683
G1 Z0 F1016
X-15.918
X-15.887 Y-91.075
X-15.86 Y-91.057
X-15.843 Y-91.031
X-15.837 Y-91
G3 X-16.162 Y-91 Z-0.5 I-0.162 J0 F1500
X-15.837 Y-91 Z-1 I0.162 J0
X-16.162 Y-91 Z-1.5 I-0.163 J0
X-15.837 Y-91 Z-2 I0.163 J0
X-16.162 Y-91 Z-2.5 I-0.163 J0
X-15.837 Y-91 Z-3 I0.163 J0
X-15.949 Y-90.845 Z-3.2 I-0.163 J0
X-16.049 Y-91.155 I-0.05 J-0.155
X-15.949 Y-90.845 I0.05 J0.155
G1 X-15.98 Y-90.842 F1016
X-16.011 Y-90.85
X-16.036 Y-90.87
X-16.051 Y-90.898
X-16.1 Y-91.049
G0 Z5
X-54.077 Y-91.081
Z1.683
G1 Z0 F1016
X-53.918
X-53.887 Y-91.075
X-53.86 Y-91.057
X-53.843 Y-91.031
X-53.837 Y-91
G3 X-54.162 Y-91 Z-0.5 I-0.162 J0 F1500
X-53.837 Y-91 Z-1 I0.162 J0
X-54.162 Y-91 Z-1.5 I-0.162 J0
X-53.837 Y-91 Z-2 I0.163 J0
X-54.162 Y-91 Z-2.5 I-0.163 J0
X-53.837 Y-91 Z-3 I0.163 J0
X-53.949 Y-90.845 Z-3.2 I-0.163 J0
X-54.049 Y-91.155 I-0.05 J-0.155
X-53.949 Y-90.845 I0.05 J0.155
G1 X-53.98 Y-90.842 F1016
X-54.011 Y-90.85
X-54.036 Y-90.87
X-54.051 Y-90.898
X-54.1 Y-91.049
G0 Z5
X-92.077 Y-91.081
Z1.683
G1 Z0 F1016
X-91.918
X-91.887 Y-91.075
X-91.86 Y-91.057
X-91.843 Y-91.031
X-91.837 Y-91
G3 X-92.162 Y-91 Z-0.5 I-0.162 J0 F1500
X-91.837 Y-91 Z-1 I0.162 J0
X-92.162 Y-91 Z-1.5 I-0.162 J0
X-91.837 Y-91 Z-2 I0.163 J0
X-92.162 Y-91 Z-2.5 I-0.163 J0
X-91.837 Y-91 Z-3 I0.163 J0
X-91.949 Y-90.845 Z-3.2 I-0.163 J0
X-92.049 Y-91.155 I-0.05 J-0.155
X-91.949 Y-90.845 I0.05 J0.155
G1 X-91.98 Y-90.842 F1016
X-92.011 Y-90.85
X-92.036 Y-90.87
X-92.051 Y-90.898
X-92.1 Y-91.049
G0 Z5
X-130.077 Y-91.081
Z1.683
G1 Z0 F1016
X-129.918
X-129.887 Y-91.075
X-129.86 Y-91.057
X-129.843 Y-91.031
X-129.837 Y-91
G3 X-130.162 Y-91 Z-0.5 I-0.163 J0 F1500
X-130.103 Y-91.125 Z-0.64 I0.162 J0
X-129.896 Y-90.875 Z-1.14 I0.104 J0.125
X-130.03 Y-90.84 Z-1.28 I-0.104 J-0.125
X-129.969 Y-91.16 Z-1.78 I0.03 J-0.16
X-129.857 Y-91.078 Z-1.92 I-0.03 J0.16
X-130.142 Y-90.922 Z-2.42 I-0.142 J0.078
X-129.857 Y-91.078 Z-2.92 I0.142 J-0.078
X-129.949 Y-90.845 Z-3.2 I-0.142 J0.078
X-130.049 Y-91.155 I-0.05 J-0.155
X-129.949 Y-90.845 I0.05 J0.155
G1 X-129.98 Y-90.842 F1016
X-130.011 Y-90.85
X-130.036 Y-90.87
X-130.051 Y-90.898
X-130.1 Y-91.049
G0 Z5
X-168.077 Y-91.081
Z1.683
G1 Z0 F1016
X-167.918
X-167.887 Y-91.075
X-167.86 Y-91.057
X-167.843 Y-91.031
X-167.837 Y-91
G3 X-168.162 Y-91 Z-0.5 I-0.163 J0 F1500
X-168.103 Y-91.125 Z-0.64 I0.162 J0
X-167.896 Y-90.875 Z-1.14 I0.104 J0.125
X-168.03 Y-90.84 Z-1.28 I-0.104 J-0.125
X-167.969 Y-91.16 Z-1.78 I0.03 J-0.16
X-167.857 Y-91.078 Z-1.92 I-0.03 J0.16
X-168.142 Y-90.922 Z-2.42 I-0.142 J0.078
X-167.857 Y-91.078 Z-2.92 I0.142 J-0.078
X-167.949 Y-90.845 Z-3.2 I-0.142 J0.078
X-168.049 Y-91.155 I-0.05 J-0.155
X-167.949 Y-90.845 I0.05 J0.155
G1 X-167.98 Y-90.842 F1016
X-168.011 Y-90.85
X-168.036 Y-90.87
X-168.051 Y-90.898
X-168.1 Y-91.049
G0 Z5
X-206.077 Y-91.081
Z1.683
G1 Z0 F1016
X-205.918
X-205.887 Y-91.075
X-205.86 Y-91.057
X-205.843 Y-91.031
X-205.837 Y-91
G3 X-206.162 Y-91 Z-0.5 I-0.163 J0 F1500
X-206.103 Y-91.125 Z-0.64 I0.162 J0
X-205.896 Y-90.875 Z-1.14 I0.104 J0.125
X-206.03 Y-90.84 Z-1.28 I-0.104 J-0.125
X-205.969 Y-91.16 Z-1.78 I0.03 J-0.16
X-205.857 Y-91.078 Z-1.92 I-0.03 J0.16
X-206.142 Y-90.922 Z-2.42 I-0.142 J0.078
X-205.857 Y-91.078 Z-2.92 I0.142 J-0.078
X-205.949 Y-90.845 Z-3.2 I-0.142 J0.078
X-206.049 Y-91.155 I-0.05 J-0.155
X-205.949 Y-90.845 I0.05 J0.155
G1 X-205.98 Y-90.842 F1016
X-206.011 Y-90.85
X-206.036 Y-90.87
X-206.051 Y-90.898
X-206.1 Y-91.049
G0 Z5
X-244.077 Y-91.081
Z1.683
G1 Z0 F1016
X-243.918
X-243.887 Y-91.075
X-243.86 Y-91.057
X-243.843 Y-91.031
X-243.837 Y-91
G3 X-244.162 Y-91 Z-0.5 I-0.163 J0 F1500
X-244.103 Y-91.125 Z-0.64 I0.162 J0
X-243.896 Y-90.875 Z-1.14 I0.104 J0.125
X-244.03 Y-90.84 Z-1.28 I-0.104 J-0.125
X-243.969 Y-91.16 Z-1.78 I0.03 J-0.16
X-243.857 Y-91.078 Z-1.92 I-0.03 J0.16
X-244.142 Y-90.922 Z-2.42 I-0.142 J0.078
X-243.857 Y-91.078 Z-2.92 I0.142 J-0.078
X-243.949 Y-90.845 Z-3.2 I-0.142 J0.078
X-244.049 Y-91.155 I-0.05 J-0.155
X-243.949 Y-90.845 I0.05 J0.155
G1 X-243.98 Y-90.842 F1016
X-244.011 Y-90.85
X-244.036 Y-90.87
X-244.051 Y-90.898
X-244.1 Y-91.049
G0 Z5
X-282.077 Y-91.081
Z1.683
G1 Z0 F1016
X-281.918
X-281.887 Y-91.075
X-281.86 Y-91.057
X-281.843 Y-91.031
X-281.837 Y-91
G3 X-282.162 Y-91 Z-0.5 I-0.163 J0 F1500
X-281.837 Y-91 Z-1 I0.163 J0
X-282.03 Y-90.84 Z-1.28 I-0.163 J0
X-281.969 Y-91.16 Z-1.78 I0.03 J-0.16
X-281.857 Y-91.078 Z-1.92 I-0.03 J0.16
X-282.142 Y-90.922 Z-2.42 I-0.142 J0.078
X-282.15 Y-91.06 Z-2.56 I0.142 J-0.078
X-281.848 Y-90.94 Z-3.06 I0.151 J0.06
X-281.949 Y-90.845 Z-3.2 I-0.151 J-0.06
X-282.049 Y-91.155 I-0.05 J-0.155
X-281.949 Y-90.845 I0.05 J0.155
G1 X-281.98 Y-90.842 F1016
X-282.011 Y-90.85
X-282.036 Y-90.87
X-282.051 Y-90.898
X-282.1 Y-91.049
G0 Z15

(2D-Kontur6)
X-176.809 Y-192.144
Z15
Z5
G1 Z2.5 F300
S8000
G3 X-183.191 Y-209.854 Z1.467 I-3.191 J-8.855 F1016
X-176.809 Y-192.144 Z0.435 I3.191 J8.855
X-185.648 Y-208.529 Z-0.5 I-3.191 J-8.855
S6000
X-174.352 Y-193.469 I5.648 J7.53 F1500
X-185.648 Y-208.529 I-5.648 J-7.53
S8000
X-172.759 Y-207.013 Z-1 I5.648 J7.53 F1016
S6000
X-187.241 Y-194.985 I-7.241 J6.014 F1500
X-172.759 Y-207.013 I7.241 J-6.014
S8000
X-173.634 Y-194.066 Z-1.5 I-7.241 J6.014 F1016
S6000
X-186.366 Y-207.932 I-6.366 J-6.933 F1500
X-173.634 Y-194.066 I6.366 J6.933
S8000
X-186.609 Y-194.297 Z-2 I-6.366 J-6.933 F1016
S6000
X-173.391 Y-207.701 I6.609 J-6.702 F1500
X-186.609 Y-194.297 I-6.609 J6.702
S8000
X-187.021 Y-207.268 Z-2.5 I6.609 J-6.702 F1016
S6000
X-172.979 Y-194.73 I7.021 J6.269 F1500
X-187.021 Y-207.268 I-7.021 J-6.269
S8000
X-174.087 Y-208.322 Z-3 I7.021 J6.269 F1016
S6000
X-185.913 Y-193.675 I-5.913 J7.324 F1500
X-174.087 Y-208.322 I5.913 J-7.324
S8000
X-170.962 Y-203.628 Z-3.2 I-5.913 J7.324 F1016
S6000
X-189.038 Y-198.37 I-9.038 J2.629 F1500
X-170.962 Y-203.628 I9.038 J-2.629
G0 Z15

(2D-Kontur7)
X-47.588 Y-144.693
Z15
Z5
G1 Z2.5 F300
S8000
Y-114.999 Z1.463 F1016
G3 X-56 Y-106.587 Z1.002 I-8.412 J0
G1 X-99 Z-0.5
S6000
X-142 F1500
G3 X-150.413 Y-114.999 I0 J-8.412
G1 Y-200.999
G3 X-142 Y-209.411 I8.413 J0
G1 X-56
G3 X-47.588 Y-200.999 I0 J8.413
G1 Y-114.999
G3 X-56 Y-106.587 I-8.412 J0
G1 X-99
S8000
X-115.536 Z-1 F1016
S6000
X-142 F1500
G3 X-150.413 Y-114.999 I0 J-8.412
G1 Y-200.999
G3 X-142 Y-209.411 I8.413 J0
G1 X-56
G3 X-47.588 Y-200.999 I0 J8.413
G1 Y-114.999
G3 X-56 Y-106.587 I-8.412 J0
G1 X-99
X-115.536
S8000
X-132.071 Z-1.5 F1016
S6000
X-142 F1500
G3 X-150.413 Y-114.999 I0 J-8.412
G1 Y-200.999
G3 X-142 Y-209.411 I8.413 J0
G1 X-56
G3 X-47.588 Y-200.999 I0 J8.413
G1 Y-114.999
G3 X-56 Y-106.587 I-8.412 J0
G1 X-115.536
X-132.071
S8000
X-142 Z-1.8 F1016
G3 X-147.949 Y-109.05 Z-2 I0 J-8.412
S6000
X-150.413 Y-114.999 I5.949 J-5.949 F1500
G1 Y-200.999
G3 X-142 Y-209.411 I8.413 J0
G1 X-56
G3 X-47.588 Y-200.999 I0 J8.413
G1 Y-114.999
G3 X-56 Y-106.587 I-8.412 J0
G1 X-132.071
X-142
G3 X-147.949 Y-109.05 I0 J-8.412
S8000
X-150.413 Y-114.999 Z-2.2 I5.949 J-5.949 F1016
G1 Y-124.928 Z-2.5
S6000
Y-200.999 F1500
G3 X-142 Y-209.411 I8.413 J0
G1 X-56
G3 X-47.588 Y-200.999 I0 J8.413
G1 Y-114.999
G3 X-56 Y-106.587 I-8.412 J0
G1 X-142
G3 X-150.413 Y-114.999 I0 J-8.412
G1 Y-124.928
S8000
Y-141.463 Z-3 F1016
S6000
Y-200.999 F1500
G3 X-142 Y-209.411 I8.413 J0
G1 X-56
G3 X-47.588 Y-200.999 I0 J8.413
G1 Y-114.999
G3 X-56 Y-106.587 I-8.412 J0
G1 X-142
G3 X-150.413 Y-114.999 I0 J-8.412
G1 Y-141.463
S8000
Y-148.078 Z-3.2 F1016
S6000
Y-200.999 F1500
G3 X-142 Y-209.411 I8.413 J0
G1 X-56
G3 X-47.588 Y-200.999 I0 J8.413
G1 Y-114.999
G3 X-56 Y-106.587 I-8.412 J0
G1 X-142
G3 X-150.413 Y-114.999 I0 J-8.412
G1 Y-141.463
Y-148.078
G0 Z15

(2D-Kontur8)
X-284.74 Y-27.587
Z15
Z5
G1 Z2.5 F300
S8000
X-285.411 Z2.477 F1016
Y-84.412 Z0.492
X-256.999 Z-0.5
S6000
X-158.587 F1500
Y-27.587
X-285.411
Y-84.412
X-256.999
S8000
X-241.695 Z-1 F1016
S6000
X-158.587 F1500
Y-27.587
X-285.411
Y-84.412
X-256.999
X-241.695
S8000
X-226.391 Z-1.5 F1016
S6000
X-158.587 F1500
Y-27.587
X-285.411
Y-84.412
X-241.695
X-226.391
S8000
X-211.087 Z-2 F1016
S6000
X-158.587 F1500
Y-27.587
X-285.411
Y-84.412
X-226.391
X-211.087
S8000
X-195.782 Z-2.5 F1016
S6000
X-158.587 F1500
Y-27.587
X-285.411
Y-84.412
X-211.087
X-195.782
S8000
X-180.478 Z-3 F1016
S6000
X-158.587 F1500
Y-27.587
X-285.411
Y-84.412
X-195.782
X-180.478
S8000
X-174.357 Z-3.2 F1016
S6000
X-158.587 F1500
Y-27.587
X-285.411
Y-84.412
X-180.478
X-174.357
G0 Z5
X-129.909
G1 Z2.5 F300
S8000
X-44 Z-0.5 F1016
S6000
X-15.587 F1500
Y-27.587
X-142.413
Y-84.412
X-44
S8000
X-28.696 Z-1 F1016
S6000
X-15.587 F1500
Y-27.587
X-142.413
Y-84.412
X-44
X-28.696
S8000
X-15.587 Z-1.428 F1016
Y-82.217 Z-1.5
S6000
Y-27.587 F1500
X-142.413
Y-84.412
X-28.696
X-15.587
Y-82.217
S8000
Y-66.912 Z-2 F1016
S6000
Y-27.587 F1500
X-142.413
Y-84.412
X-15.587
Y-66.912
S8000
Y-51.608 Z-2.5 F1016
S6000
Y-27.587 F1500
X-142.413
Y-84.412
X-15.587
Y-66.912
Y-51.608
S8000
Y-36.304 Z-3 F1016
S6000
Y-27.587 F1500
X-142.413
Y-84.412
X-15.587
Y-51.608
Y-36.304
S8000
Y-30.183 Z-3.2 F1016
S6000
Y-27.587 F1500
X-142.413
Y-84.412
X-15.587
Y-36.304
Y-30.183
G0 Z15

(2D-Kontur9)
X-64.591 Y-232.587
Z15
Z5
G1 Z2.5 F300
S8000
X-150.499 Z-0.5 F1016
S6000
X-200 F1500
G2 X-201.587 Y-230.999 I0 J1.588
G1 Y-107.588
X-299.999
G2 X-301.586 Y-106 I0 J1.588
G1 Y-14.494
Y-14.456
X-301.57 Y-13.794
X-301.566 Y-13.715
X-301.517 Y-13.054
X-301.51 Y-12.977
X-301.429 Y-12.32
X-301.417 Y-12.243
X-301.304 Y-11.59
X-301.288 Y-11.511
X-301.142 Y-10.865
X-301.123 Y-10.788
X-300.945 Y-10.151
X-300.922 Y-10.076
X-300.713 Y-9.448
X-300.687 Y-9.374
X-300.447 Y-8.757
X-300.418 Y-8.687
X-300.148 Y-8.082
X-300.115 Y-8.011
X-299.816 Y-7.42
X-299.781 Y-7.354
X-299.455 Y-6.778
X-299.415 Y-6.712
X-299.061 Y-6.152
X-299.018 Y-6.087
X-298.637 Y-5.545
X-298.592 Y-5.485
X-298.186 Y-4.962
X-298.137 Y-4.902
X-297.706 Y-4.399
X-297.654 Y-4.342
X-297.199 Y-3.861
X-297.143 Y-3.806
X-296.665 Y-3.348
X-296.605 Y-3.293
X-296.103 Y-2.86
X-296.042 Y-2.81
X-295.52 Y-2.404
X-295.455 Y-2.356
X-294.913 Y-1.976
X-294.848 Y-1.932
X-294.288 Y-1.58
X-294.221 Y-1.54
X-293.644 Y-1.215
X-293.576 Y-1.179
X-292.984 Y-0.882
X-292.914 Y-0.85
X-292.308 Y-0.582
X-292.238 Y-0.553
X-291.62 Y-0.315
X-291.548 Y-0.289
X-290.919 Y-0.081
X-290.846 Y-0.059
X-290.208 Y0.119
X-290.133 Y0.137
X-289.487 Y0.284
X-289.411 Y0.299
X-288.759 Y0.414
X-288.682 Y0.426
X-288.025 Y0.508
X-287.947 Y0.516
X-287.287 Y0.566
X-287.207 Y0.57
X-286.545 Y0.587
X-286.505
X-14.494
X-14.455
X-13.793 Y0.571
X-13.715 Y0.567
X-13.054 Y0.518
X-12.977 Y0.511
X-12.32 Y0.43
X-12.242 Y0.418
X-11.59 Y0.305
X-11.511 Y0.289
X-10.865 Y0.143
X-10.788 Y0.124
X-10.151 Y-0.054
X-10.076 Y-0.077
X-9.448 Y-0.286
X-9.374 Y-0.313
X-8.757 Y-0.552
X-8.686 Y-0.582
X-8.081 Y-0.852
X-8.012 Y-0.884
X-7.421 Y-1.183
X-7.354 Y-1.219
X-6.777 Y-1.545
X-6.712 Y-1.585
X-6.152 Y-1.938
X-6.088 Y-1.981
X-5.546 Y-2.361
X-5.485 Y-2.407
X-4.962 Y-2.813
X-4.902 Y-2.862
X-4.399 Y-3.293
X-4.341 Y-3.345
X-3.861 Y-3.801
X-3.805 Y-3.856
X-3.348 Y-4.335
X-3.294 Y-4.394
X-2.861 Y-4.895
X-2.81 Y-4.958
X-2.403 Y-5.48
X-2.356 Y-5.544
X-1.976 Y-6.086
X-1.932 Y-6.151
X-1.58 Y-6.712
X-1.54 Y-6.779
X-1.215 Y-7.355
X-1.179 Y-7.424
X-0.882 Y-8.016
X-0.85 Y-8.085
X-0.582 Y-8.691
X-0.553 Y-8.761
X-0.315 Y-9.38
X-0.289 Y-9.451
X-0.081 Y-10.08
X-0.059 Y-10.153
X0.119 Y-10.791
X0.137 Y-10.866
X0.284 Y-11.512
X0.299 Y-11.587
X0.414 Y-12.239
X0.426 Y-12.317
X0.508 Y-12.974
X0.516 Y-13.052
X0.566 Y-13.712
X0.57 Y-13.792
X0.587 Y-14.454
Y-14.494
Y-217.505
Y-217.544
X0.571 Y-218.206
X0.567 Y-218.284
X0.518 Y-218.945
X0.511 Y-219.022
X0.43 Y-219.679
X0.418 Y-219.756
X0.305 Y-220.409
X0.289 Y-220.488
X0.143 Y-221.134
X0.124 Y-221.211
X-0.054 Y-221.849
X-0.077 Y-221.924
X-0.286 Y-222.552
X-0.313 Y-222.625
X-0.552 Y-223.242
X-0.582 Y-223.313
X-0.851 Y-223.918
X-0.885 Y-223.987
X-1.183 Y-224.578
X-1.219 Y-224.646
X-1.545 Y-225.222
X-1.584 Y-225.287
X-1.938 Y-225.847
X-1.981 Y-225.911
X-2.361 Y-226.453
X-2.407 Y-226.515
X-2.813 Y-227.038
X-2.862 Y-227.098
X-3.293 Y-227.6
X-3.345 Y-227.657
X-3.8 Y-228.138
X-3.857 Y-228.195
X-4.335 Y-228.652
X-4.394 Y-228.705
X-4.895 Y-229.138
X-4.959 Y-229.19
X-5.481 Y-229.596
X-5.544 Y-229.643
X-6.086 Y-230.023
X-6.151 Y-230.066
X-6.711 Y-230.419
X-6.778 Y-230.459
X-7.355 Y-230.784
X-7.424 Y-230.821
X-8.016 Y-231.117
X-8.084 Y-231.149
X-8.69 Y-231.417
X-8.762 Y-231.446
X-9.38 Y-231.684
X-9.452 Y-231.71
X-10.08 Y-231.918
X-10.155 Y-231.941
X-10.793 Y-232.118
X-10.865 Y-232.136
X-11.51 Y-232.283
X-11.587 Y-232.298
X-12.239 Y-232.413
X-12.318 Y-232.425
X-12.975 Y-232.507
X-13.052 Y-232.515
X-13.712 Y-232.565
X-13.791 Y-232.569
X-14.454 Y-232.586
X-14.494 Y-232.587
X-150.499
S8000
X-194.245 Z-1 F1016
S6000
X-200 F1500
G2 X-201.587 Y-230.999 I0 J1.588
G1 Y-107.588
X-299.999
G2 X-301.586 Y-106 I0 J1.588
G1 Y-14.494
Y-14.456
X-301.57 Y-13.794
X-301.566 Y-13.715
X-301.517 Y-13.054
X-301.51 Y-12.977
X-301.429 Y-12.32
X-301.417 Y-12.243
X-301.304 Y-11.59
X-301.288 Y-11.511
X-301.142 Y-10.865
X-301.123 Y-10.788
X-300.945 Y-10.151
X-300.922 Y-10.076
X-300.713 Y-9.448
X-300.687 Y-9.374
X-300.447 Y-8.757
X-300.418 Y-8.687
X-300.148 Y-8.082
X-300.115 Y-8.011
X-299.816 Y-7.42
X-299.781 Y-7.354
X-299.455 Y-6.778
X-299.415 Y-6.712
X-299.061 Y-6.152
X-299.018 Y-6.087
X-298.637 Y-5.545
X-298.592 Y-5.485
X-298.186 Y-4.962
X-298.137 Y-4.902
X-297.706 Y-4.399
X-297.654 Y-4.342
X-297.199 Y-3.861
X-297.143 Y-3.806
X-296.665 Y-3.348
X-296.605 Y-3.293
X-296.103 Y-2.86
X-296.042 Y-2.81
X-295.52 Y-2.404
X-295.455 Y-2.356
X-294.913 Y-1.976
X-294.848 Y-1.932
X-294.288 Y-1.58
X-294.221 Y-1.54
X-293.644 Y-1.215
X-293.576 Y-1.179
X-292.984 Y-0.882
X-292.914 Y-0.85
X-292.308 Y-0.582
X-292.238 Y-0.553
X-291.62 Y-0.315
X-291.548 Y-0.289
X-290.919 Y-0.081
X-290.846 Y-0.059
X-290.208 Y0.119
X-290.133 Y0.137
X-289.487 Y0.284
X-289.411 Y0.299
X-288.759 Y0.414
X-288.682 Y0.426
X-288.025 Y0.508
X-287.947 Y0.516
X-287.287 Y0.566
X-287.207 Y0.57
X-286.545 Y0.587
X-286.505
X-14.494
X-14.455
X-13.793 Y0.571
X-13.715 Y0.567
X-13.054 Y0.518
X-12.977 Y0.511
X-12.32 Y0.43
X-12.242 Y0.418
X-11.59 Y0.305
X-11.511 Y0.289
X-10.865 Y0.143
X-10.788 Y0.124
X-10.151 Y-0.054
X-10.076 Y-0.077
X-9.448 Y-0.286
X-9.374 Y-0.313
X-8.757 Y-0.552
X-8.686 Y-0.582
X-8.081 Y-0.852
X-8.012 Y-0.884
X-7.421 Y-1.183
X-7.354 Y-1.219
X-6.777 Y-1.545
X-6.712 Y-1.585
X-6.152 Y-1.938
X-6.088 Y-1.981
X-5.546 Y-2.361
X-5.485 Y-2.407
X-4.962 Y-2.813
X-4.902 Y-2.862
X-4.399 Y-3.293
X-4.341 Y-3.345
X-3.861 Y-3.801
X-3.805 Y-3.856
X-3.348 Y-4.335
X-3.294 Y-4.394
X-2.861 Y-4.895
X-2.81 Y-4.958
X-2.403 Y-5.48
X-2.356 Y-5.544
X-1.976 Y-6.086
X-1.932 Y-6.151
X-1.58 Y-6.712
X-1.54 Y-6.779
X-1.215 Y-7.355
X-1.179 Y-7.424
X-0.882 Y-8.016
X-0.85 Y-8.085
X-0.582 Y-8.691
X-0.553 Y-8.761
X-0.315 Y-9.38
X-0.289 Y-9.451
X-0.081 Y-10.08
X-0.059 Y-10.153
X0.119 Y-10.791
X0.137 Y-10.866
X0.284 Y-11.512
X0.299 Y-11.587
X0.414 Y-12.239
X0.426 Y-12.317
X0.508 Y-12.974
X0.516 Y-13.052
X0.566 Y-13.712
X0.57 Y-13.792
X0.587 Y-14.454
Y-14.494
Y-217.505
Y-217.544
X0.571 Y-218.206
X0.567 Y-218.284
X0.518 Y-218.945
X0.511 Y-219.022
X0.43 Y-219.679
X0.418 Y-219.756
X0.305 Y-220.409
X0.289 Y-220.488
X0.143 Y-221.134
X0.124 Y-221.211
X-0.054 Y-221.849
X-0.077 Y-221.924
X-0.286 Y-222.552
X-0.313 Y-222.625
X-0.552 Y-223.242
X-0.582 Y-223.313
X-0.851 Y-223.918
X-0.885 Y-223.987
X-1.183 Y-224.578
X-1.219 Y-224.646
X-1.545 Y-225.222
X-1.584 Y-225.287
X-1.938 Y-225.847
X-1.981 Y-225.911
X-2.361 Y-226.453
X-2.407 Y-226.515
X-2.813 Y-227.038
X-2.862 Y-227.098
X-3.293 Y-227.6
X-3.345 Y-227.657
X-3.8 Y-228.138
X-3.857 Y-228.195
X-4.335 Y-228.652
X-4.394 Y-228.705
X-4.895 Y-229.138
X-4.959 Y-229.19
X-5.481 Y-229.596
X-5.544 Y-229.643
X-6.086 Y-230.023
X-6.151 Y-230.066
X-6.711 Y-230.419
X-6.778 Y-230.459
X-7.355 Y-230.784
X-7.424 Y-230.821
X-8.016 Y-231.117
X-8.084 Y-231.149
X-8.69 Y-231.417
X-8.762 Y-231.446
X-9.38 Y-231.684
X-9.452 Y-231.71
X-10.08 Y-231.918
X-10.155 Y-231.941
X-10.793 Y-232.118
X-10.865 Y-232.136
X-11.51 Y-232.283
X-11.587 Y-232.298
X-12.239 Y-232.413
X-12.318 Y-232.425
X-12.975 Y-232.507
X-13.052 Y-232.515
X-13.712 Y-232.565
X-13.791 Y-232.569
X-14.454 Y-232.586
X-14.494 Y-232.587
X-150.499
X-194.245
S8000
X-200 Z-1.066 F1016
G2 X-201.587 Y-230.999 Z-1.094 I0 J1.588
G1 Y-195.502 Z-1.5
S6000
Y-107.588 F1500
X-299.999
G2 X-301.586 Y-106 I0 J1.588
G1 Y-14.494
Y-14.456
X-301.57 Y-13.794
X-301.566 Y-13.715
X-301.517 Y-13.054
X-301.51 Y-12.977
X-301.429 Y-12.32
X-301.417 Y-12.243
X-301.304 Y-11.59
X-301.288 Y-11.511
X-301.142 Y-10.865
X-301.123 Y-10.788
X-300.945 Y-10.151
X-300.922 Y-10.076
X-300.713 Y-9.448
X-300.687 Y-9.374
X-300.447 Y-8.757
X-300.418 Y-8.687
X-300.148 Y-8.082
X-300.115 Y-8.011
X-299.816 Y-7.42
X-299.781 Y-7.354
X-299.455 Y-6.778
X-299.415 Y-6.712
X-299.061 Y-6.152
X-299.018 Y-6.087
X-298.637 Y-5.545
X-298.592 Y-5.485
X-298.186 Y-4.962
X-298.137 Y-4.902
X-297.706 Y-4.399
X-297.654 Y-4.342
X-297.199 Y-3.861
X-297.143 Y-3.806
X-296.665 Y-3.348
X-296.605 Y-3.293
X-296.103 Y-2.86
X-296.042 Y-2.81
X-295.52 Y-2.404
X-295.455 Y-2.356
X-294.913 Y-1.976
X-294.848 Y-1.932
X-294.288 Y-1.58
X-294.221 Y-1.54
X-293.644 Y-1.215
X-293.576 Y-1.179
X-292.984 Y-0.882
X-292.914 Y-0.85
X-292.308 Y-0.582
X-292.238 Y-0.553
X-291.62 Y-0.315
X-291.548 Y-0.289
X-290.919 Y-0.081
X-290.846 Y-0.059
X-290.208 Y0.119
X-290.133 Y0.137
X-289.487 Y0.284
X-289.411 Y0.299
X-288.759 Y0.414
X-288.682 Y0.426
X-288.025 Y0.508
X-287.947 Y0.516
X-287.287 Y0.566
X-287.207 Y0.57
X-286.545 Y0.587
X-286.505
X-14.494
X-14.455
X-13.793 Y0.571
X-13.715 Y0.567
X-13.054 Y0.518
X-12.977 Y0.511
X-12.32 Y0.43
X-12.242 Y0.418
X-11.59 Y0.305
X-11.511 Y0.289
X-10.865 Y0.143
X-10.788 Y0.124
X-10.151 Y-0.054
X-10.076 Y-0.077
X-9.448 Y-0.286
X-9.374 Y-0.313
X-8.757 Y-0.552
X-8.686 Y-0.582
X-8.081 Y-0.852
X-8.012 Y-0.884
X-7.421 Y-1.183
X-7.354 Y-1.219
X-6.777 Y-1.545
X-6.712 Y-1.585
X-6.152 Y-1.938
X-6.088 Y-1.981
X-5.546 Y-2.361
X-5.485 Y-2.407
X-4.962 Y-2.813
X-4.902 Y-2.862
X-4.399 Y-3.293
X-4.341 Y-3.345
X-3.861 Y-3.801
X-3.805 Y-3.856
X-3.348 Y-4.335
X-3.294 Y-4.394
X-2.861 Y-4.895
X-2.81 Y-4.958
X-2.403 Y-5.48
X-2.356 Y-5.544
X-1.976 Y-6.086
X-1.932 Y-6.151
X-1.58 Y-6.712
X-1.54 Y-6.779
X-1.215 Y-7.355
X-1.179 Y-7.424
X-0.882 Y-8.016
X-0.85 Y-8.085
X-0.582 Y-8.691
X-0.553 Y-8.761
X-0.315 Y-9.38
X-0.289 Y-9.451
X-0.081 Y-10.08
X-0.059 Y-10.153
X0.119 Y-10.791
X0.137 Y-10.866
X0.284 Y-11.512
X0.299 Y-11.587
X0.414 Y-12.239
X0.426 Y-12.317
X0.508 Y-12.974
X0.516 Y-13.052
X0.566 Y-13.712
X0.57 Y-13.792
X0.587 Y-14.454
Y-14.494
Y-217.505
Y-217.544
X0.571 Y-218.206
X0.567 Y-218.284
X0.518 Y-218.945
X0.511 Y-219.022
X0.43 Y-219.679
X0.418 Y-219.756
X0.305 Y-220.409
X0.289 Y-220.488
X0.143 Y-221.134
X0.124 Y-221.211
X-0.054 Y-221.849
X-0.077 Y-221.924
X-0.286 Y-222.552
X-0.313 Y-222.625
X-0.552 Y-223.242
X-0.582 Y-223.313
X-0.851 Y-223.918
X-0.885 Y-223.987
X-1.183 Y-224.578
X-1.219 Y-224.646
X-1.545 Y-225.222
X-1.584 Y-225.287
X-1.938 Y-225.847
X-1.981 Y-225.911
X-2.361 Y-226.453
X-2.407 Y-226.515
X-2.813 Y-227.038
X-2.862 Y-227.098
X-3.293 Y-227.6
X-3.345 Y-227.657
X-3.8 Y-228.138
X-3.857 Y-228.195
X-4.335 Y-228.652
X-4.394 Y-228.705
X-4.895 Y-229.138
X-4.959 Y-229.19
X-5.481 Y-229.596
X-5.544 Y-229.643
X-6.086 Y-230.023
X-6.151 Y-230.066
X-6.711 Y-230.419
X-6.778 Y-230.459
X-7.355 Y-230.784
X-7.424 Y-230.821
X-8.016 Y-231.117
X-8.084 Y-231.149
X-8.69 Y-231.417
X-8.762 Y-231.446
X-9.38 Y-231.684
X-9.452 Y-231.71
X-10.08 Y-231.918
X-10.155 Y-231.941
X-10.793 Y-232.118
X-10.865 Y-232.136
X-11.51 Y-232.283
X-11.587 Y-232.298
X-12.239 Y-232.413
X-12.318 Y-232.425
X-12.975 Y-232.507
X-13.052 Y-232.515
X-13.712 Y-232.565
X-13.791 Y-232.569
X-14.454 Y-232.586
X-14.494 Y-232.587
X-194.245
X-200
G2 X-201.587 Y-230.999 I0 J1.588
G1 Y-195.502
S8000
Y-151.757 Z-2 F1016
S6000
Y-107.588 F1500
X-299.999
G2 X-301.586 Y-106 I0 J1.588
G1 Y-14.494
Y-14.456
X-301.57 Y-13.794
X-301.566 Y-13.715
X-301.517 Y-13.054
X-301.51 Y-12.977
X-301.429 Y-12.32
X-301.417 Y-12.243
X-301.304 Y-11.59
X-301.288 Y-11.511
X-301.142 Y-10.865
X-301.123 Y-10.788
X-300.945 Y-10.151
X-300.922 Y-10.076
X-300.713 Y-9.448
X-300.687 Y-9.374
X-300.447 Y-8.757
X-300.418 Y-8.687
X-300.148 Y-8.082
X-300.115 Y-8.011
X-299.816 Y-7.42
X-299.781 Y-7.354
X-299.455 Y-6.778
X-299.415 Y-6.712
X-299.061 Y-6.152
X-299.018 Y-6.087
X-298.637 Y-5.545
X-298.592 Y-5.485
X-298.186 Y-4.962
X-298.137 Y-4.902
X-297.706 Y-4.399
X-297.654 Y-4.342
X-297.199 Y-3.861
X-297.143 Y-3.806
X-296.665 Y-3.348
X-296.605 Y-3.293
X-296.103 Y-2.86
X-296.042 Y-2.81
X-295.52 Y-2.404
X-295.455 Y-2.356
X-294.913 Y-1.976
X-294.848 Y-1.932
X-294.288 Y-1.58
X-294.221 Y-1.54
X-293.644 Y-1.215
X-293.576 Y-1.179
X-292.984 Y-0.882
X-292.914 Y-0.85
X-292.308 Y-0.582
X-292.238 Y-0.553
X-291.62 Y-0.315
X-291.548 Y-0.289
X-290.919 Y-0.081
X-290.846 Y-0.059
X-290.208 Y0.119
X-290.133 Y0.137
X-289.487 Y0.284
X-289.411 Y0.299
X-288.759 Y0.414
X-288.682 Y0.426
X-288.025 Y0.508
X-287.947 Y0.516
X-287.287 Y0.566
X-287.207 Y0.57
X-286.545 Y0.587
X-286.505
X-14.494
X-14.455
X-13.793 Y0.571
X-13.715 Y0.567
X-13.054 Y0.518
X-12.977 Y0.511
X-12.32 Y0.43
X-12.242 Y0.418
X-11.59 Y0.305
X-11.511 Y0.289
X-10.865 Y0.143
X-10.788 Y0.124
X-10.151 Y-0.054
X-10.076 Y-0.077
X-9.448 Y-0.286
X-9.374 Y-0.313
X-8.757 Y-0.552
X-8.686 Y-0.582
X-8.081 Y-0.852
X-8.012 Y-0.884
X-7.421 Y-1.183
X-7.354 Y-1.219
X-6.777 Y-1.545
X-6.712 Y-1.585
X-6.152 Y-1.938
X-6.088 Y-1.981
X-5.546 Y-2.361
X-5.485 Y-2.407
X-4.962 Y-2.813
X-4.902 Y-2.862
X-4.399 Y-3.293
X-4.341 Y-3.345
X-3.861 Y-3.801
X-3.805 Y-3.856
X-3.348 Y-4.335
X-3.294 Y-4.394
X-2.861 Y-4.895
X-2.81 Y-4.958
X-2.403 Y-5.48
X-2.356 Y-5.544
X-1.976 Y-6.086
X-1.932 Y-6.151
X-1.58 Y-6.712
X-1.54 Y-6.779
X-1.215 Y-7.355
X-1.179 Y-7.424
X-0.882 Y-8.016
X-0.85 Y-8.085
X-0.582 Y-8.691
X-0.553 Y-8.761
X-0.315 Y-9.38
X-0.289 Y-9.451
X-0.081 Y-10.08
X-0.059 Y-10.153
X0.119 Y-10.791
X0.137 Y-10.866
X0.284 Y-11.512
X0.299 Y-11.587
X0.414 Y-12.239
X0.426 Y-12.317
X0.508 Y-12.974
X0.516 Y-13.052
X0.566 Y-13.712
X0.57 Y-13.792
X0.587 Y-14.454
Y-14.494
Y-217.505
Y-217.544
X0.571 Y-218.206
X0.567 Y-218.284
X0.518 Y-218.945
X0.511 Y-219.022
X0.43 Y-219.679
X0.418 Y-219.756
X0.305 Y-220.409
X0.289 Y-220.488
X0.143 Y-221.134
X0.124 Y-221.211
X-0.054 Y-221.849
X-0.077 Y-221.924
X-0.286 Y-222.552
X-0.313 Y-222.625
X-0.552 Y-223.242
X-0.582 Y-223.313
X-0.851 Y-223.918
X-0.885 Y-223.987
X-1.183 Y-224.578
X-1.219 Y-224.646
X-1.545 Y-225.222
X-1.584 Y-225.287
X-1.938 Y-225.847
X-1.981 Y-225.911
X-2.361 Y-226.453
X-2.407 Y-226.515
X-2.813 Y-227.038
X-2.862 Y-227.098
X-3.293 Y-227.6
X-3.345 Y-227.657
X-3.8 Y-228.138
X-3.857 Y-228.195
X-4.335 Y-228.652
X-4.394 Y-228.705
X-4.895 Y-229.138
X-4.959 Y-229.19
X-5.481 Y-229.596
X-5.544 Y-229.643
X-6.086 Y-230.023
X-6.151 Y-230.066
X-6.711 Y-230.419
X-6.778 Y-230.459
X-7.355 Y-230.784
X-7.424 Y-230.821
X-8.016 Y-231.117
X-8.084 Y-231.149
X-8.69 Y-231.417
X-8.762 Y-231.446
X-9.38 Y-231.684
X-9.452 Y-231.71
X-10.08 Y-231.918
X-10.155 Y-231.941
X-10.793 Y-232.118
X-10.865 Y-232.136
X-11.51 Y-232.283
X-11.587 Y-232.298
X-12.239 Y-232.413
X-12.318 Y-232.425
X-12.975 Y-232.507
X-13.052 Y-232.515
X-13.712 Y-232.565
X-13.791 Y-232.569
X-14.454 Y-232.586
X-14.494 Y-232.587
X-200
G2 X-201.587 Y-230.999 I0 J1.588
G1 Y-151.757
S8000
Y-108.011 Z-2.5 F1016
S6000
Y-107.588 F1500
X-299.999
G2 X-301.586 Y-106 I0 J1.588
G1 Y-14.494
Y-14.456
X-301.57 Y-13.794
X-301.566 Y-13.715
X-301.517 Y-13.054
X-301.51 Y-12.977
X-301.429 Y-12.32
X-301.417 Y-12.243
X-301.304 Y-11.59
X-301.288 Y-11.511
X-301.142 Y-10.865
X-301.123 Y-10.788
X-300.945 Y-10.151
X-300.922 Y-10.076
X-300.713 Y-9.448
X-300.687 Y-9.374
X-300.447 Y-8.757
X-300.418 Y-8.687
X-300.148 Y-8.082
X-300.115 Y-8.011
X-299.816 Y-7.42
X-299.781 Y-7.354
X-299.455 Y-6.778
X-299.415 Y-6.712
X-299.061 Y-6.152
X-299.018 Y-6.087
X-298.637 Y-5.545
X-298.592 Y-5.485
X-298.186 Y-4.962
X-298.137 Y-4.902
X-297.706 Y-4.399
X-297.654 Y-4.342
X-297.199 Y-3.861
X-297.143 Y-3.806
X-296.665 Y-3.348
X-296.605 Y-3.293
X-296.103 Y-2.86
X-296.042 Y-2.81
X-295.52 Y-2.404
X-295.455 Y-2.356
X-294.913 Y-1.976
X-294.848 Y-1.932
X-294.288 Y-1.58
X-294.221 Y-1.54
X-293.644 Y-1.215
X-293.576 Y-1.179
X-292.984 Y-0.882
X-292.914 Y-0.85
X-292.308 Y-0.582
X-292.238 Y-0.553
X-291.62 Y-0.315
X-291.548 Y-0.289
X-290.919 Y-0.081
X-290.846 Y-0.059
X-290.208 Y0.119
X-290.133 Y0.137
X-289.487 Y0.284
X-289.411 Y0.299
X-288.759 Y0.414
X-288.682 Y0.426
X-288.025 Y0.508
X-287.947 Y0.516
X-287.287 Y0.566
X-287.207 Y0.57
X-286.545 Y0.587
X-286.505
X-222.589
Z-2.2
X-214.415
Z-2.5 F300
X-86.584 F1500
Z-2.2
X-78.409
Z-2.5 F300
X-14.494 F1500
X-14.455
X-13.793 Y0.571
X-13.715 Y0.567
X-13.054 Y0.518
X-12.977 Y0.511
X-12.32 Y0.43
X-12.242 Y0.418
X-11.59 Y0.305
X-11.511 Y0.289
X-10.865 Y0.143
X-10.788 Y0.124
X-10.151 Y-0.054
X-10.076 Y-0.077
X-9.448 Y-0.286
X-9.374 Y-0.313
X-8.757 Y-0.552
X-8.686 Y-0.582
X-8.081 Y-0.852
X-8.012 Y-0.884
X-7.421 Y-1.183
X-7.354 Y-1.219
X-6.777 Y-1.545
X-6.712 Y-1.585
X-6.152 Y-1.938
X-6.088 Y-1.981
X-5.546 Y-2.361
X-5.485 Y-2.407
X-4.962 Y-2.813
X-4.902 Y-2.862
X-4.399 Y-3.293
X-4.341 Y-3.345
X-3.861 Y-3.801
X-3.805 Y-3.856
X-3.348 Y-4.335
X-3.294 Y-4.394
X-2.861 Y-4.895
X-2.81 Y-4.958
X-2.403 Y-5.48
X-2.356 Y-5.544
X-1.976 Y-6.086
X-1.932 Y-6.151
X-1.58 Y-6.712
X-1.54 Y-6.779
X-1.215 Y-7.355
X-1.179 Y-7.424
X-0.882 Y-8.016
X-0.85 Y-8.085
X-0.582 Y-8.691
X-0.553 Y-8.761
X-0.315 Y-9.38
X-0.289 Y-9.451
X-0.081 Y-10.08
X-0.059 Y-10.153
X0.119 Y-10.791
X0.137 Y-10.866
X0.284 Y-11.512
X0.299 Y-11.587
X0.414 Y-12.239
X0.426 Y-12.317
X0.508 Y-12.974
X0.516 Y-13.052
X0.566 Y-13.712
X0.57 Y-13.792
X0.587 Y-14.454
Y-14.494
Y-111.912
Z-2.2
Y-120.088
Z-2.5 F300
Y-217.505 F1500
Y-217.544
X0.571 Y-218.206
X0.567 Y-218.284
X0.518 Y-218.945
X0.511 Y-219.022
X0.43 Y-219.679
X0.418 Y-219.756
X0.305 Y-220.409
X0.289 Y-220.488
X0.143 Y-221.134
X0.124 Y-221.211
X-0.054 Y-221.849
X-0.077 Y-221.924
X-0.286 Y-222.552
X-0.313 Y-222.625
X-0.552 Y-223.242
X-0.582 Y-223.313
X-0.851 Y-223.918
X-0.885 Y-223.987
X-1.183 Y-224.578
X-1.219 Y-224.646
X-1.545 Y-225.222
X-1.584 Y-225.287
X-1.938 Y-225.847
X-1.981 Y-225.911
X-2.361 Y-226.453
X-2.407 Y-226.515
X-2.813 Y-227.038
X-2.862 Y-227.098
X-3.293 Y-227.6
X-3.345 Y-227.657
X-3.8 Y-228.138
X-3.857 Y-228.195
X-4.335 Y-228.652
X-4.394 Y-228.705
X-4.895 Y-229.138
X-4.959 Y-229.19
X-5.481 Y-229.596
X-5.544 Y-229.643
X-6.086 Y-230.023
X-6.151 Y-230.066
X-6.711 Y-230.419
X-6.778 Y-230.459
X-7.355 Y-230.784
X-7.424 Y-230.821
X-8.016 Y-231.117
X-8.084 Y-231.149
X-8.69 Y-231.417
X-8.762 Y-231.446
X-9.38 Y-231.684
X-9.452 Y-231.71
X-10.08 Y-231.918
X-10.155 Y-231.941
X-10.793 Y-232.118
X-10.865 Y-232.136
X-11.51 Y-232.283
X-11.587 Y-232.298
X-12.239 Y-232.413
X-12.318 Y-232.425
X-12.975 Y-232.507
X-13.052 Y-232.515
X-13.712 Y-232.565
X-13.791 Y-232.569
X-14.454 Y-232.586
X-14.494 Y-232.587
X-103.16
Z-2.2
X-111.335
Z-2.5 F300
X-200 F1500
G2 X-201.587 Y-230.999 I0 J1.588
G1 Y-172.587
Z-2.2
Y-164.413
Z-2.5 F300
Y-108.011 F1500
S8000
Y-107.588 Z-2.505 F1016
X-244.909 Z-3
S6000
X-299.999 F1500
G2 X-301.586 Y-106 I0 J1.588
G1 Y-14.494
Y-14.456
X-301.57 Y-13.794
X-301.566 Y-13.715
X-301.517 Y-13.054
X-301.51 Y-12.977
X-301.429 Y-12.32
X-301.417 Y-12.243
X-301.304 Y-11.59
X-301.288 Y-11.511
X-301.142 Y-10.865
X-301.123 Y-10.788
X-300.945 Y-10.151
X-300.922 Y-10.076
X-300.713 Y-9.448
X-300.687 Y-9.374
X-300.447 Y-8.757
X-300.418 Y-8.687
X-300.148 Y-8.082
X-300.115 Y-8.011
X-299.816 Y-7.42
X-299.781 Y-7.354
X-299.455 Y-6.778
X-299.415 Y-6.712
X-299.061 Y-6.152
X-299.018 Y-6.087
X-298.637 Y-5.545
X-298.592 Y-5.485
X-298.186 Y-4.962
X-298.137 Y-4.902
X-297.706 Y-4.399
X-297.654 Y-4.342
X-297.199 Y-3.861
X-297.143 Y-3.806
X-296.665 Y-3.348
X-296.605 Y-3.293
X-296.103 Y-2.86
X-296.042 Y-2.81
X-295.52 Y-2.404
X-295.455 Y-2.356
X-294.913 Y-1.976
X-294.848 Y-1.932
X-294.288 Y-1.58
X-294.221 Y-1.54
X-293.644 Y-1.215
X-293.576 Y-1.179
X-292.984 Y-0.882
X-292.914 Y-0.85
X-292.308 Y-0.582
X-292.238 Y-0.553
X-291.62 Y-0.315
X-291.548 Y-0.289
X-290.919 Y-0.081
X-290.846 Y-0.059
X-290.208 Y0.119
X-290.133 Y0.137
X-289.487 Y0.284
X-289.411 Y0.299
X-288.759 Y0.414
X-288.682 Y0.426
X-288.025 Y0.508
X-287.947 Y0.516
X-287.287 Y0.566
X-287.207 Y0.57
X-286.545 Y0.587
X-286.505
X-222.589
Z-2.2
X-214.415
Z-3 F300
X-86.584 F1500
Z-2.2
X-78.409
Z-3 F300
X-14.494 F1500
X-14.455
X-13.793 Y0.571
X-13.715 Y0.567
X-13.054 Y0.518
X-12.977 Y0.511
X-12.32 Y0.43
X-12.242 Y0.418
X-11.59 Y0.305
X-11.511 Y0.289
X-10.865 Y0.143
X-10.788 Y0.124
X-10.151 Y-0.054
X-10.076 Y-0.077
X-9.448 Y-0.286
X-9.374 Y-0.313
X-8.757 Y-0.552
X-8.686 Y-0.582
X-8.081 Y-0.852
X-8.012 Y-0.884
X-7.421 Y-1.183
X-7.354 Y-1.219
X-6.777 Y-1.545
X-6.712 Y-1.585
X-6.152 Y-1.938
X-6.088 Y-1.981
X-5.546 Y-2.361
X-5.485 Y-2.407
X-4.962 Y-2.813
X-4.902 Y-2.862
X-4.399 Y-3.293
X-4.341 Y-3.345
X-3.861 Y-3.801
X-3.805 Y-3.856
X-3.348 Y-4.335
X-3.294 Y-4.394
X-2.861 Y-4.895
X-2.81 Y-4.958
X-2.403 Y-5.48
X-2.356 Y-5.544
X-1.976 Y-6.086
X-1.932 Y-6.151
X-1.58 Y-6.712
X-1.54 Y-6.779
X-1.215 Y-7.355
X-1.179 Y-7.424
X-0.882 Y-8.016
X-0.85 Y-8.085
X-0.582 Y-8.691
X-0.553 Y-8.761
X-0.315 Y-9.38
X-0.289 Y-9.451
X-0.081 Y-10.08
X-0.059 Y-10.153
X0.119 Y-10.791
X0.137 Y-10.866
X0.284 Y-11.512
X0.299 Y-11.587
X0.414 Y-12.239
X0.426 Y-12.317
X0.508 Y-12.974
X0.516 Y-13.052
X0.566 Y-13.712
X0.57 Y-13.792
X0.587 Y-14.454
Y-14.494
Y-111.912
Z-2.2
Y-120.088
Z-3 F300
Y-217.505 F1500
Y-217.544
X0.571 Y-218.206
X0.567 Y-218.284
X0.518 Y-218.945
X0.511 Y-219.022
X0.43 Y-219.679
X0.418 Y-219.756
X0.305 Y-220.409
X0.289 Y-220.488
X0.143 Y-221.134
X0.124 Y-221.211
X-0.054 Y-221.849
X-0.077 Y-221.924
X-0.286 Y-222.552
X-0.313 Y-222.625
X-0.552 Y-223.242
X-0.582 Y-223.313
X-0.851 Y-223.918
X-0.885 Y-223.987
X-1.183 Y-224.578
X-1.219 Y-224.646
X-1.545 Y-225.222
X-1.584 Y-225.287
X-1.938 Y-225.847
X-1.981 Y-225.911
X-2.361 Y-226.453
X-2.407 Y-226.515
X-2.813 Y-227.038
X-2.862 Y-227.098
X-3.293 Y-227.6
X-3.345 Y-227.657
X-3.8 Y-228.138
X-3.857 Y-228.195
X-4.335 Y-228.652
X-4.394 Y-228.705
X-4.895 Y-229.138
X-4.959 Y-229.19
X-5.481 Y-229.596
X-5.544 Y-229.643
X-6.086 Y-230.023
X-6.151 Y-230.066
X-6.711 Y-230.419
X-6.778 Y-230.459
X-7.355 Y-230.784
X-7.424 Y-230.821
X-8.016 Y-231.117
X-8.084 Y-231.149
X-8.69 Y-231.417
X-8.762 Y-231.446
X-9.38 Y-231.684
X-9.452 Y-231.71
X-10.08 Y-231.918
X-10.155 Y-231.941
X-10.793 Y-232.118
X-10.865 Y-232.136
X-11.51 Y-232.283
X-11.587 Y-232.298
X-12.239 Y-232.413
X-12.318 Y-232.425
X-12.975 Y-232.507
X-13.052 Y-232.515
X-13.712 Y-232.565
X-13.791 Y-232.569
X-14.454 Y-232.586
X-14.494 Y-232.587
X-103.16
Z-2.2
X-111.335
Z-3 F300
X-200 F1500
G2 X-201.587 Y-230.999 I0 J1.588
G1 Y-172.587
Z-2.2
Y-164.413
Z-3 F300
Y-107.588 F1500
X-244.909
S8000
X-262.408 Z-3.2 F1016
S6000
X-299.999 F1500
G2 X-301.586 Y-106 I0 J1.588
G1 Y-14.494
Y-14.456
X-301.57 Y-13.794
X-301.566 Y-13.715
X-301.517 Y-13.054
X-301.51 Y-12.977
X-301.429 Y-12.32
X-301.417 Y-12.243
X-301.304 Y-11.59
X-301.288 Y-11.511
X-301.142 Y-10.865
X-301.123 Y-10.788
X-300.945 Y-10.151
X-300.922 Y-10.076
X-300.713 Y-9.448
X-300.687 Y-9.374
X-300.447 Y-8.757
X-300.418 Y-8.687
X-300.148 Y-8.082
X-300.115 Y-8.011
X-299.816 Y-7.42
X-299.781 Y-7.354
X-299.455 Y-6.778
X-299.415 Y-6.712
X-299.061 Y-6.152
X-299.018 Y-6.087
X-298.637 Y-5.545
X-298.592 Y-5.485
X-298.186 Y-4.962
X-298.137 Y-4.902
X-297.706 Y-4.399
X-297.654 Y-4.342
X-297.199 Y-3.861
X-297.143 Y-3.806
X-296.665 Y-3.348
X-296.605 Y-3.293
X-296.103 Y-2.86
X-296.042 Y-2.81
X-295.52 Y-2.404
X-295.455 Y-2.356
X-294.913 Y-1.976
X-294.848 Y-1.932
X-294.288 Y-1.58
X-294.221 Y-1.54
X-293.644 Y-1.215
X-293.576 Y-1.179
X-292.984 Y-0.882
X-292.914 Y-0.85
X-292.308 Y-0.582
X-292.238 Y-0.553
X-291.62 Y-0.315
X-291.548 Y-0.289
X-290.919 Y-0.081
X-290.846 Y-0.059
X-290.208 Y0.119
X-290.133 Y0.137
X-289.487 Y0.284
X-289.411 Y0.299
X-288.759 Y0.414
X-288.682 Y0.426
X-288.025 Y0.508
X-287.947 Y0.516
X-287.287 Y0.566
X-287.207 Y0.57
X-286.545 Y0.587
X-286.505
X-222.589
Z-2.2
X-214.415
Z-3.2 F300
X-86.584 F1500
Z-2.2
X-78.409
Z-3.2 F300
X-14.494 F1500
X-14.455
X-13.793 Y0.571
X-13.715 Y0.567
X-13.054 Y0.518
X-12.977 Y0.511
X-12.32 Y0.43
X-12.242 Y0.418
X-11.59 Y0.305
X-11.511 Y0.289
X-10.865 Y0.143
X-10.788 Y0.124
X-10.151 Y-0.054
X-10.076 Y-0.077
X-9.448 Y-0.286
X-9.374 Y-0.313
X-8.757 Y-0.552
X-8.686 Y-0.582
X-8.081 Y-0.852
X-8.012 Y-0.884
X-7.421 Y-1.183
X-7.354 Y-1.219
X-6.777 Y-1.545
X-6.712 Y-1.585
X-6.152 Y-1.938
X-6.088 Y-1.981
X-5.546 Y-2.361
X-5.485 Y-2.407
X-4.962 Y-2.813
X-4.902 Y-2.862
X-4.399 Y-3.293
X-4.341 Y-3.345
X-3.861 Y-3.801
X-3.805 Y-3.856
X-3.348 Y-4.335
X-3.294 Y-4.394
X-2.861 Y-4.895
X-2.81 Y-4.958
X-2.403 Y-5.48
X-2.356 Y-5.544
X-1.976 Y-6.086
X-1.932 Y-6.151
X-1.58 Y-6.712
X-1.54 Y-6.779
X-1.215 Y-7.355
X-1.179 Y-7.424
X-0.882 Y-8.016
X-0.85 Y-8.085
X-0.582 Y-8.691
X-0.553 Y-8.761
X-0.315 Y-9.38
X-0.289 Y-9.451
X-0.081 Y-10.08
X-0.059 Y-10.153
X0.119 Y-10.791
X0.137 Y-10.866
X0.284 Y-11.512
X0.299 Y-11.587
X0.414 Y-12.239
X0.426 Y-12.317
X0.508 Y-12.974
X0.516 Y-13.052
X0.566 Y-13.712
X0.57 Y-13.792
X0.587 Y-14.454
Y-14.494
Y-111.912
Z-2.2
Y-120.088
Z-3.2 F300
Y-217.505 F1500
Y-217.544
X0.571 Y-218.206
X0.567 Y-218.284
X0.518 Y-218.945
X0.511 Y-219.022
X0.43 Y-219.679
X0.418 Y-219.756
X0.305 Y-220.409
X0.289 Y-220.488
X0.143 Y-221.134
X0.124 Y-221.211
X-0.054 Y-221.849
X-0.077 Y-221.924
X-0.286 Y-222.552
X-0.313 Y-222.625
X-0.552 Y-223.242
X-0.582 Y-223.313
X-0.851 Y-223.918
X-0.885 Y-223.987
X-1.183 Y-224.578
X-1.219 Y-224.646
X-1.545 Y-225.222
X-1.584 Y-225.287
X-1.938 Y-225.847
X-1.981 Y-225.911
X-2.361 Y-226.453
X-2.407 Y-226.515
X-2.813 Y-227.038
X-2.862 Y-227.098
X-3.293 Y-227.6
X-3.345 Y-227.657
X-3.8 Y-228.138
X-3.857 Y-228.195
X-4.335 Y-228.652
X-4.394 Y-228.705
X-4.895 Y-229.138
X-4.959 Y-229.19
X-5.481 Y-229.596
X-5.544 Y-229.643
X-6.086 Y-230.023
X-6.151 Y-230.066
X-6.711 Y-230.419
X-6.778 Y-230.459
X-7.355 Y-230.784
X-7.424 Y-230.821
X-8.016 Y-231.117
X-8.084 Y-231.149
X-8.69 Y-231.417
X-8.762 Y-231.446
X-9.38 Y-231.684
X-9.452 Y-231.71
X-10.08 Y-231.918
X-10.155 Y-231.941
X-10.793 Y-232.118
X-10.865 Y-232.136
X-11.51 Y-232.283
X-11.587 Y-232.298
X-12.239 Y-232.413
X-12.318 Y-232.425
X-12.975 Y-232.507
X-13.052 Y-232.515
X-13.712 Y-232.565
X-13.791 Y-232.569
X-14.454 Y-232.586
X-14.494 Y-232.587
X-103.16
Z-2.2
X-111.335
Z-3.2 F300
X-200 F1500
G2 X-201.587 Y-230.999 I0 J1.588
G1 Y-172.587
Z-2.2
Y-164.413
Z-3.2 F300
Y-107.588 F1500
X-262.408
G0 Z15
G28 G91 Z0
G90
G28 G91 X0 Y0
G90
M5
M30
