(1001)
(Bearbeiten)
(  Hersteller: ChinaCnc)
(  model: 3040T)
(  description: Generic 3-axis)
(T14  D=1.95 CR=0 - ZMIN=-3 - Schaftfraser)
G90 G94
G17
G21
G28 G91 Z0
G90

(2D-Kontur3)
T14
S8000 M3
G54
G0 X-38.395 Y-105.625
Z15
Z1.5
G1 Y-109.227 Z1.374 F1016
G3 X-37.87 Y-109.752 Z1.345 I0.525 J0
G1 X-37.37 Z1.328
G3 X-36.845 Y-109.227 Z1.299 I0 J0.525
G1 Y-98.227 Z0.915
G3 X-37.37 Y-97.702 Z0.886 I-0.525 J0
G1 X-37.87 Z0.869
G3 X-38.395 Y-98.227 Z0.84 I0 J-0.525
G1 Y-109.227 Z0.456
G3 X-37.87 Y-109.752 Z0.427 I0.525 J0
G1 X-37.37 Z0.41
G3 X-36.845 Y-109.227 Z0.381 I0 J0.525
G1 Y-98.227 Z-0.003
G3 X-37.37 Y-97.702 Z-0.032 I-0.525 J0
G1 X-37.87 Z-0.05
G3 X-38.395 Y-98.227 Z-0.078 I0 J-0.525
G1 Y-109.227 Z-0.462
G3 X-37.87 Y-109.752 Z-0.491 I0.525 J0
G1 X-37.62 Z-0.5
X-37.37 F2540
G3 X-36.845 Y-109.227 I0 J0.525
G1 Y-98.227
G3 X-37.37 Y-97.702 I-0.525 J0
G1 X-37.87
G3 X-38.395 Y-98.227 I0 J-0.525
G1 Y-109.227
G3 X-37.87 Y-109.752 I0.525 J0
G1 X-37.62
X-37.37 Z-0.509 F1016
G3 X-36.845 Y-109.227 Z-0.538 I0 J0.525
G1 Y-98.227 Z-0.922
G3 X-37.37 Y-97.702 Z-0.95 I-0.525 J0
G1 X-37.87 Z-0.968
G3 X-38.395 Y-98.227 Z-0.997 I0 J-0.525
G1 Y-98.322 Z-1
Y-109.227 F2540
G3 X-37.87 Y-109.752 I0.525 J0
G1 X-37.37
G3 X-36.845 Y-109.227 I0 J0.525
G1 Y-98.227
G3 X-37.37 Y-97.702 I-0.525 J0
G1 X-37.87
G3 X-38.395 Y-98.227 I0 J-0.525
G1 Y-98.322
Y-109.227 Z-1.381 F1016
G3 X-37.87 Y-109.752 Z-1.41 I0.525 J0
G1 X-37.37 Z-1.427
G3 X-36.845 Y-109.227 Z-1.456 I0 J0.525
G1 Y-107.963 Z-1.5
Y-98.227 F2540
G3 X-37.37 Y-97.702 I-0.525 J0
G1 X-37.87
G3 X-38.395 Y-98.227 I0 J-0.525
G1 Y-109.227
G3 X-37.87 Y-109.752 I0.525 J0
G1 X-37.37
G3 X-36.845 Y-109.227 I0 J0.525
G1 Y-107.963
Y-98.227 Z-1.84 F1016
G3 X-37.37 Y-97.702 Z-1.869 I-0.525 J0
G1 X-37.87 Z-1.886
G3 X-38.395 Y-98.227 Z-1.915 I0 J-0.525
G1 Y-100.66 Z-2
Y-109.227 F2540
G3 X-37.87 Y-109.752 I0.525 J0
G1 X-37.37
G3 X-36.845 Y-109.227 I0 J0.525
G1 Y-98.227
G3 X-37.37 Y-97.702 I-0.525 J0
G1 X-37.87
G3 X-38.395 Y-98.227 I0 J-0.525
G1 Y-100.66
Y-109.227 Z-2.299 F1016
G3 X-37.87 Y-109.752 Z-2.328 I0.525 J0
G1 X-37.37 Z-2.345
G3 X-36.845 Y-109.227 Z-2.374 I0 J0.525
G1 Y-105.625 Z-2.5
Y-98.227 F2540
G3 X-37.37 Y-97.702 I-0.525 J0
G1 X-37.87
G3 X-38.395 Y-98.227 I0 J-0.525
G1 Y-109.227
G3 X-37.87 Y-109.752 I0.525 J0
G1 X-37.37
G3 X-36.845 Y-109.227 I0 J0.525
G1 Y-105.625
Y-98.227 Z-2.758 F1016
G3 X-37.37 Y-97.702 Z-2.787 I-0.525 J0
G1 X-37.87 Z-2.805
G3 X-38.395 Y-98.227 Z-2.833 I0 J-0.525
G1 Y-102.999 Z-3
Y-109.227 F2540
G3 X-37.87 Y-109.752 I0.525 J0
G1 X-37.37
G3 X-36.845 Y-109.227 I0 J0.525
G1 Y-98.227
G3 X-37.37 Y-97.702 I-0.525 J0
G1 X-37.87
G3 X-38.395 Y-98.227 I0 J-0.525
G1 Y-102.999
G0 Z5
X-28.463 Y-95.523
Z1.5
G1 Y-116.259 Z0.776 F1016
G3 X-27.938 Y-116.784 Z0.747 I0.525 J0
G1 X-21.938 Z0.538
G3 X-21.413 Y-116.259 Z0.509 I0 J0.525
G1 Y-91.196 Z-0.366
G3 X-21.938 Y-90.671 Z-0.395 I-0.525 J0
G1 X-24.938 Z-0.5
X-27.938 F2540
G3 X-28.463 Y-91.196 I0 J-0.525
G1 Y-116.259
G3 X-27.938 Y-116.784 I0.525 J0
G1 X-21.938
G3 X-21.413 Y-116.259 I0 J0.525
G1 Y-91.196
G3 X-21.938 Y-90.671 I-0.525 J0
G1 X-24.938
X-27.938 Z-0.605 F1016
G3 X-28.463 Y-91.196 Z-0.634 I0 J-0.525
G1 Y-101.69 Z-1
Y-116.259 F2540
G3 X-27.938 Y-116.784 I0.525 J0
G1 X-21.938
G3 X-21.413 Y-116.259 I0 J0.525
G1 Y-91.196
G3 X-21.938 Y-90.671 I-0.525 J0
G1 X-27.938
G3 X-28.463 Y-91.196 I0 J-0.525
G1 Y-101.69
Y-116.008 Z-1.5 F1016
Y-116.259 F2540
G3 X-27.938 Y-116.784 I0.525 J0
G1 X-21.938
G3 X-21.413 Y-116.259 I0 J0.525
G1 Y-91.196
G3 X-21.938 Y-90.671 I-0.525 J0
G1 X-27.938
G3 X-28.463 Y-91.196 I0 J-0.525
G1 Y-116.008
Y-116.259 Z-1.509 F1016
G3 X-27.938 Y-116.784 Z-1.538 I0.525 J0
G1 X-21.938 Z-1.747
G3 X-21.413 Y-116.259 Z-1.776 I0 J0.525
G1 Y-109.841 Z-2
Y-91.196 F2540
G3 X-21.938 Y-90.671 I-0.525 J0
G1 X-27.938
G3 X-28.463 Y-91.196 I0 J-0.525
G1 Y-116.008
Y-116.259
G3 X-27.938 Y-116.784 I0.525 J0
G1 X-21.938
G3 X-21.413 Y-116.259 I0 J0.525
G1 Y-109.841
Y-95.523 Z-2.5 F1016
Y-91.196 F2540
G3 X-21.938 Y-90.671 I-0.525 J0
G1 X-27.938
G3 X-28.463 Y-91.196 I0 J-0.525
G1 Y-116.259
G3 X-27.938 Y-116.784 I0.525 J0
G1 X-21.938
G3 X-21.413 Y-116.259 I0 J0.525
G1 Y-95.523
Y-91.196 Z-2.651 F1016
G3 X-21.938 Y-90.671 Z-2.68 I-0.525 J0
G1 X-27.938 Z-2.889
G3 X-28.463 Y-91.196 Z-2.918 I0 J-0.525
G1 Y-93.538 Z-3
Y-116.259 F2540
G3 X-27.938 Y-116.784 I0.525 J0
G1 X-21.938
G3 X-21.413 Y-116.259 I0 J0.525
G1 Y-95.523
Y-91.196
G3 X-21.938 Y-90.671 I-0.525 J0
G1 X-27.938
G3 X-28.463 Y-91.196 I0 J-0.525
G1 Y-93.538
G0 Z5
X-13.032 Y-105.625
Z1.5
G1 Y-109.227 Z1.374 F1016
G3 X-12.507 Y-109.752 Z1.345 I0.525 J0
G1 X-12.007 Z1.328
G3 X-11.482 Y-109.227 Z1.299 I0 J0.525
G1 Y-98.227 Z0.915
G3 X-12.007 Y-97.702 Z0.886 I-0.525 J0
G1 X-12.507 Z0.869
G3 X-13.032 Y-98.227 Z0.84 I0 J-0.525
G1 Y-109.227 Z0.456
G3 X-12.507 Y-109.752 Z0.427 I0.525 J0
G1 X-12.007 Z0.41
G3 X-11.482 Y-109.227 Z0.381 I0 J0.525
G1 Y-98.227 Z-0.003
G3 X-12.007 Y-97.702 Z-0.032 I-0.525 J0
G1 X-12.507 Z-0.05
G3 X-13.032 Y-98.227 Z-0.078 I0 J-0.525
G1 Y-109.227 Z-0.462
G3 X-12.507 Y-109.752 Z-0.491 I0.525 J0
G1 X-12.257 Z-0.5
X-12.007 F2540
G3 X-11.482 Y-109.227 I0 J0.525
G1 Y-98.227
G3 X-12.007 Y-97.702 I-0.525 J0
G1 X-12.507
G3 X-13.032 Y-98.227 I0 J-0.525
G1 Y-109.227
G3 X-12.507 Y-109.752 I0.525 J0
G1 X-12.257
X-12.007 Z-0.509 F1016
G3 X-11.482 Y-109.227 Z-0.538 I0 J0.525
G1 Y-98.227 Z-0.922
G3 X-12.007 Y-97.702 Z-0.95 I-0.525 J0
G1 X-12.507 Z-0.968
G3 X-13.032 Y-98.227 Z-0.997 I0 J-0.525
G1 Y-98.322 Z-1
Y-109.227 F2540
G3 X-12.507 Y-109.752 I0.525 J0
G1 X-12.007
G3 X-11.482 Y-109.227 I0 J0.525
G1 Y-98.227
G3 X-12.007 Y-97.702 I-0.525 J0
G1 X-12.507
G3 X-13.032 Y-98.227 I0 J-0.525
G1 Y-98.322
Y-109.227 Z-1.381 F1016
G3 X-12.507 Y-109.752 Z-1.41 I0.525 J0
G1 X-12.007 Z-1.427
G3 X-11.482 Y-109.227 Z-1.456 I0 J0.525
G1 Y-107.963 Z-1.5
Y-98.227 F2540
G3 X-12.007 Y-97.702 I-0.525 J0
G1 X-12.507
G3 X-13.032 Y-98.227 I0 J-0.525
G1 Y-109.227
G3 X-12.507 Y-109.752 I0.525 J0
G1 X-12.007
G3 X-11.482 Y-109.227 I0 J0.525
G1 Y-107.963
Y-98.227 Z-1.84 F1016
G3 X-12.007 Y-97.702 Z-1.869 I-0.525 J0
G1 X-12.507 Z-1.886
G3 X-13.032 Y-98.227 Z-1.915 I0 J-0.525
G1 Y-100.66 Z-2
Y-109.227 F2540
G3 X-12.507 Y-109.752 I0.525 J0
G1 X-12.007
G3 X-11.482 Y-109.227 I0 J0.525
G1 Y-98.227
G3 X-12.007 Y-97.702 I-0.525 J0
G1 X-12.507
G3 X-13.032 Y-98.227 I0 J-0.525
G1 Y-100.66
Y-109.227 Z-2.299 F1016
G3 X-12.507 Y-109.752 Z-2.328 I0.525 J0
G1 X-12.007 Z-2.345
G3 X-11.482 Y-109.227 Z-2.374 I0 J0.525
G1 Y-105.625 Z-2.5
Y-98.227 F2540
G3 X-12.007 Y-97.702 I-0.525 J0
G1 X-12.507
G3 X-13.032 Y-98.227 I0 J-0.525
G1 Y-109.227
G3 X-12.507 Y-109.752 I0.525 J0
G1 X-12.007
G3 X-11.482 Y-109.227 I0 J0.525
G1 Y-105.625
Y-98.227 Z-2.758 F1016
G3 X-12.007 Y-97.702 Z-2.787 I-0.525 J0
G1 X-12.507 Z-2.805
G3 X-13.032 Y-98.227 Z-2.833 I0 J-0.525
G1 Y-102.999 Z-3
Y-109.227 F2540
G3 X-12.507 Y-109.752 I0.525 J0
G1 X-12.007
G3 X-11.482 Y-109.227 I0 J0.525
G1 Y-98.227
G3 X-12.007 Y-97.702 I-0.525 J0
G1 X-12.507
G3 X-13.032 Y-98.227 I0 J-0.525
G1 Y-102.999
G0 Z5
X-63.032 Y-106.95
Z1.5
G1 Y-109.227 Z1.42 F1016
G3 X-62.507 Y-109.752 Z1.392 I0.525 J0
G1 X-62.007 Z1.374
G3 X-61.482 Y-109.227 Z1.345 I0 J0.525
G1 Y-98.227 Z0.961
G3 X-62.007 Y-97.702 Z0.933 I-0.525 J0
G1 X-62.507 Z0.915
G3 X-63.032 Y-98.227 Z0.886 I0 J-0.525
G1 Y-109.227 Z0.502
G3 X-62.507 Y-109.752 Z0.473 I0.525 J0
G1 X-62.007 Z0.456
G3 X-61.482 Y-109.227 Z0.427 I0 J0.525
G1 Y-98.227 Z0.043
G3 X-62.007 Y-97.702 Z0.014 I-0.525 J0
G1 X-62.507 Z-0.003
G3 X-63.032 Y-98.227 Z-0.032 I0 J-0.525
G1 Y-109.227 Z-0.416
G3 X-62.507 Y-109.752 Z-0.445 I0.525 J0
G1 X-62.007 Z-0.462
G3 X-61.482 Y-109.227 Z-0.491 I0 J0.525
G1 Y-108.977 Z-0.5
Y-98.227 F2540
G3 X-62.007 Y-97.702 I-0.525 J0
G1 X-62.507
G3 X-63.032 Y-98.227 I0 J-0.525
G1 Y-109.227
G3 X-62.507 Y-109.752 I0.525 J0
G1 X-62.007
G3 X-61.482 Y-109.227 I0 J0.525
G1 Y-108.977
Y-98.227 Z-0.875 F1016
G3 X-62.007 Y-97.702 Z-0.904 I-0.525 J0
G1 X-62.507 Z-0.922
G3 X-63.032 Y-98.227 Z-0.95 I0 J-0.525
G1 Y-99.647 Z-1
Y-109.227 F2540
G3 X-62.507 Y-109.752 I0.525 J0
G1 X-62.007
G3 X-61.482 Y-109.227 I0 J0.525
G1 Y-98.227
G3 X-62.007 Y-97.702 I-0.525 J0
G1 X-62.507
G3 X-63.032 Y-98.227 I0 J-0.525
G1 Y-99.647
Y-109.227 Z-1.335 F1016
G3 X-62.507 Y-109.752 Z-1.363 I0.525 J0
G1 X-62.007 Z-1.381
G3 X-61.482 Y-109.227 Z-1.41 I0 J0.525
G1 Y-106.639 Z-1.5
Y-98.227 F2540
G3 X-62.007 Y-97.702 I-0.525 J0
G1 X-62.507
G3 X-63.032 Y-98.227 I0 J-0.525
G1 Y-109.227
G3 X-62.507 Y-109.752 I0.525 J0
G1 X-62.007
G3 X-61.482 Y-109.227 I0 J0.525
G1 Y-106.639
Y-98.227 Z-1.794 F1016
G3 X-62.007 Y-97.702 Z-1.823 I-0.525 J0
G1 X-62.507 Z-1.84
G3 X-63.032 Y-98.227 Z-1.869 I0 J-0.525
G1 Y-101.985 Z-2
Y-109.227 F2540
G3 X-62.507 Y-109.752 I0.525 J0
G1 X-62.007
G3 X-61.482 Y-109.227 I0 J0.525
G1 Y-98.227
G3 X-62.007 Y-97.702 I-0.525 J0
G1 X-62.507
G3 X-63.032 Y-98.227 I0 J-0.525
G1 Y-101.985
Y-109.227 Z-2.253 F1016
G3 X-62.507 Y-109.752 Z-2.282 I0.525 J0
G1 X-62.007 Z-2.299
G3 X-61.482 Y-109.227 Z-2.328 I0 J0.525
G1 Y-104.3 Z-2.5
Y-98.227 F2540
G3 X-62.007 Y-97.702 I-0.525 J0
G1 X-62.507
G3 X-63.032 Y-98.227 I0 J-0.525
G1 Y-109.227
G3 X-62.507 Y-109.752 I0.525 J0
G1 X-62.007
G3 X-61.482 Y-109.227 I0 J0.525
G1 Y-104.3
Y-98.227 Z-2.712 F1016
G3 X-62.007 Y-97.702 Z-2.741 I-0.525 J0
G1 X-62.507 Z-2.758
G3 X-63.032 Y-98.227 Z-2.787 I0 J-0.525
G1 Y-104.323 Z-3
Y-109.227 F2540
G3 X-62.507 Y-109.752 I0.525 J0
G1 X-62.007
G3 X-61.482 Y-109.227 I0 J0.525
G1 Y-98.227
G3 X-62.007 Y-97.702 I-0.525 J0
G1 X-62.507
G3 X-63.032 Y-98.227 I0 J-0.525
G1 Y-104.323
G0 Z5
X-76.265 Y-90.671
Z1.5
G1 X-77.938 Z1.442 F1016
G3 X-78.463 Y-91.196 Z1.413 I0 J-0.525
G1 Y-116.259 Z0.538
G3 X-77.938 Y-116.784 Z0.509 I0.525 J0
G1 X-71.938 Z0.299
G3 X-71.413 Y-116.259 Z0.27 I0 J0.525
G1 Y-94.196 Z-0.5
Y-91.196 F2540
G3 X-71.938 Y-90.671 I-0.525 J0
G1 X-77.938
G3 X-78.463 Y-91.196 I0 J-0.525
G1 Y-116.259
G3 X-77.938 Y-116.784 I0.525 J0
G1 X-71.938
G3 X-71.413 Y-116.259 I0 J0.525
G1 Y-94.196
Y-91.196 Z-0.605 F1016
G3 X-71.938 Y-90.671 Z-0.634 I-0.525 J0
G1 X-77.938 Z-0.843
G3 X-78.463 Y-91.196 Z-0.872 I0 J-0.525
G1 Y-94.865 Z-1
Y-116.259 F2540
G3 X-77.938 Y-116.784 I0.525 J0
G1 X-71.938
G3 X-71.413 Y-116.259 I0 J0.525
G1 Y-94.196
Y-91.196
G3 X-71.938 Y-90.671 I-0.525 J0
G1 X-77.938
G3 X-78.463 Y-91.196 I0 J-0.525
G1 Y-94.865
Y-109.183 Z-1.5 F1016
Y-116.259 F2540
G3 X-77.938 Y-116.784 I0.525 J0
G1 X-71.938
G3 X-71.413 Y-116.259 I0 J0.525
G1 Y-91.196
G3 X-71.938 Y-90.671 I-0.525 J0
G1 X-77.938
G3 X-78.463 Y-91.196 I0 J-0.525
G1 Y-109.183
Y-116.259 Z-1.747 F1016
G3 X-77.938 Y-116.784 Z-1.776 I0.525 J0
G1 X-71.938 Z-1.985
G3 X-71.563 Y-116.627 Z-2 I0 J0.525
X-71.413 Y-116.259 I-0.375 J0.368 F2540
G1 Y-91.196
G3 X-71.938 Y-90.671 I-0.525 J0
G1 X-77.938
G3 X-78.463 Y-91.196 I0 J-0.525
G1 Y-109.183
Y-116.259
G3 X-77.938 Y-116.784 I0.525 J0
G1 X-71.938
G3 X-71.563 Y-116.627 I0 J0.525
X-71.413 Y-116.259 Z-2.014 I-0.375 J0.368 F1016
G1 Y-102.348 Z-2.5
Y-91.196 F2540
G3 X-71.938 Y-90.671 I-0.525 J0
G1 X-77.938
G3 X-78.463 Y-91.196 I0 J-0.525
G1 Y-116.259
G3 X-77.938 Y-116.784 I0.525 J0
G1 X-71.938
G3 X-71.413 Y-116.259 I0 J0.525
G1 Y-102.348
Y-91.196 Z-2.889 F1016
G3 X-71.938 Y-90.671 Z-2.918 I-0.525 J0
G1 X-74.28 Z-3
X-77.938 F2540
G3 X-78.463 Y-91.196 I0 J-0.525
G1 Y-116.259
G3 X-77.938 Y-116.784 I0.525 J0
G1 X-71.938
G3 X-71.413 Y-116.259 I0 J0.525
G1 Y-102.348
Y-91.196
G3 X-71.938 Y-90.671 I-0.525 J0
G1 X-74.28
G0 Z5
X-88.395 Y-104.3
Z1.5
G1 Y-109.227 Z1.328 F1016
G3 X-87.87 Y-109.752 Z1.299 I0.525 J0
G1 X-87.37 Z1.282
G3 X-86.845 Y-109.227 Z1.253 I0 J0.525
G1 Y-98.227 Z0.869
G3 X-87.37 Y-97.702 Z0.84 I-0.525 J0
G1 X-87.87 Z0.823
G3 X-88.395 Y-98.227 Z0.794 I0 J-0.525
G1 Y-109.227 Z0.41
G3 X-87.87 Y-109.752 Z0.381 I0.525 J0
G1 X-87.37 Z0.363
G3 X-86.845 Y-109.227 Z0.335 I0 J0.525
G1 Y-98.227 Z-0.05
G3 X-87.37 Y-97.702 Z-0.078 I-0.525 J0
G1 X-87.87 Z-0.096
G3 X-88.395 Y-98.227 Z-0.125 I0 J-0.525
G1 Y-108.977 Z-0.5
Y-109.227 F2540
G3 X-87.87 Y-109.752 I0.525 J0
G1 X-87.37
G3 X-86.845 Y-109.227 I0 J0.525
G1 Y-98.227
G3 X-87.37 Y-97.702 I-0.525 J0
G1 X-87.87
G3 X-88.395 Y-98.227 I0 J-0.525
G1 Y-108.977
Y-109.227 Z-0.509 F1016
G3 X-87.87 Y-109.752 Z-0.538 I0.525 J0
G1 X-87.37 Z-0.555
G3 X-86.845 Y-109.227 Z-0.584 I0 J0.525
G1 Y-98.227 Z-0.968
G3 X-87.37 Y-97.702 Z-0.997 I-0.525 J0
G1 X-87.464 Z-1
X-87.87 F2540
G3 X-88.395 Y-98.227 I0 J-0.525
G1 Y-108.977
Y-109.227
G3 X-87.87 Y-109.752 I0.525 J0
G1 X-87.37
G3 X-86.845 Y-109.227 I0 J0.525
G1 Y-98.227
G3 X-87.37 Y-97.702 I-0.525 J0
G1 X-87.464
X-87.87 Z-1.014 F1016
G3 X-88.395 Y-98.227 Z-1.043 I0 J-0.525
G1 Y-109.227 Z-1.427
G3 X-87.87 Y-109.752 Z-1.456 I0.525 J0
G1 X-87.37 Z-1.473
G3 X-86.848 Y-109.288 Z-1.5 I0 J0.525
G1 X-86.845 Y-109.227 F2540
Y-98.227
G3 X-87.37 Y-97.702 I-0.525 J0
G1 X-87.87
G3 X-88.395 Y-98.227 I0 J-0.525
G1 Y-109.227
G3 X-87.87 Y-109.752 I0.525 J0
G1 X-87.37
G3 X-86.848 Y-109.288 I0 J0.525
G1 X-86.845 Y-109.227 Z-1.502 F1016
Y-98.227 Z-1.886
G3 X-87.37 Y-97.702 Z-1.915 I-0.525 J0
G1 X-87.87 Z-1.933
G3 X-88.395 Y-98.227 Z-1.961 I0 J-0.525
G1 Y-99.336 Z-2
Y-109.227 F2540
G3 X-87.87 Y-109.752 I0.525 J0
G1 X-87.37
G3 X-86.845 Y-109.227 I0 J0.525
G1 Y-98.227
G3 X-87.37 Y-97.702 I-0.525 J0
G1 X-87.87
G3 X-88.395 Y-98.227 I0 J-0.525
G1 Y-99.336
Y-109.227 Z-2.345 F1016
G3 X-87.87 Y-109.752 Z-2.374 I0.525 J0
G1 X-87.37 Z-2.392
G3 X-86.845 Y-109.227 Z-2.42 I0 J0.525
G1 Y-106.95 Z-2.5
Y-98.227 F2540
G3 X-87.37 Y-97.702 I-0.525 J0
G1 X-87.87
G3 X-88.395 Y-98.227 I0 J-0.525
G1 Y-109.227
G3 X-87.87 Y-109.752 I0.525 J0
G1 X-87.37
G3 X-86.845 Y-109.227 I0 J0.525
G1 Y-106.95
Y-98.227 Z-2.805 F1016
G3 X-87.37 Y-97.702 Z-2.833 I-0.525 J0
G1 X-87.87 Z-2.851
G3 X-88.395 Y-98.227 Z-2.88 I0 J-0.525
G1 Y-101.674 Z-3
Y-109.227 F2540
G3 X-87.87 Y-109.752 I0.525 J0
G1 X-87.37
G3 X-86.845 Y-109.227 I0 J0.525
G1 Y-98.227
G3 X-87.37 Y-97.702 I-0.525 J0
G1 X-87.87
G3 X-88.395 Y-98.227 I0 J-0.525
G1 Y-101.674
G0 Z15

(2D-Kontur4)
X-50.667 Y-64.184
Z15
Z1.5
G1 X-51.182 Y-64.17 Z1.482 F1016
X-52.957 Y-64.122 Z1.42
X-54.768 Y-64.073 Z1.357
X-56.602 Y-64.023 Z1.293
X-58.447 Y-63.974 Z1.228
X-60.287 Y-63.929 Z1.164
X-62.108 Y-63.889 Z1.1
X-63.895 Y-63.858 Z1.038
X-65.633 Y-63.838 Z0.977
X-67.31 Y-63.836 Z0.919
X-68.916 Y-63.854 Z0.863
X-70.447 Y-63.899 Z0.809
X-71.178 Y-63.934 Z0.784
X-71.89 Y-63.977 Z0.759
X-72.582 Y-64.03 Z0.734
X-73.254 Y-64.095 Z0.711
X-73.908 Y-64.173 Z0.688
X-74.545 Y-64.263 Z0.665
X-75.168 Y-64.368 Z0.643
X-75.78 Y-64.487 Z0.622
X-76.383 Y-64.621 Z0.6
X-76.982 Y-64.77 Z0.578
X-77.578 Y-64.932 Z0.557
X-78.172 Y-65.106 Z0.535
X-79.383 Y-65.488 Z0.491
X-80.617 Y-65.892 Z0.446
X-80.625 Y-65.895 Z0.445
X-81.891 Y-66.297 Z0.399
X-81.909 Y-66.302 Z0.398
X-82.556 Y-66.494 Z0.375
X-82.573 Y-66.499 Z0.374
X-83.231 Y-66.68 Z0.35
X-83.253 Y-66.686 Z0.349
X-83.923 Y-66.854 Z0.325
X-83.948 Y-66.86 Z0.324
X-84.631 Y-67.013 Z0.3
X-84.66 Y-67.018 Z0.299
X-85.357 Y-67.152 Z0.274
X-85.388 Y-67.158 Z0.273
X-86.099 Y-67.271 Z0.248
X-86.132 Y-67.275 Z0.247
X-86.858 Y-67.365 Z0.221
X-86.892 Y-67.369 Z0.22
X-87.632 Y-67.434 Z0.194
X-87.666 Y-67.437 Z0.193
X-88.42 Y-67.477 Z0.166
X-88.454 Y-67.478 Z0.165
X-89.221 Y-67.492 Z0.138
X-89.253 Z0.137
X-90.033 Y-67.48 Z0.11
X-90.063 Y-67.479 Z0.109
X-90.853 Y-67.443 Z0.081
X-90.882 Y-67.441 Z0.08
X-91.681 Y-67.381 Z0.052
X-91.708 Y-67.379
X-92.513 Y-67.295 Z0.023
X-92.539 Y-67.292 Z0.022
X-93.347 Y-67.186 Z-0.006
X-93.373 Y-67.183 Z-0.007
X-94.181 Y-67.055 Z-0.036
X-94.208 Y-67.05 Z-0.037
X-95.012 Y-66.9 Z-0.065
X-95.039 Y-66.895 Z-0.066
X-95.835 Y-66.723 Z-0.094
X-95.863 Y-66.716 Z-0.096
X-96.646 Y-66.522 Z-0.124
X-96.677 Y-66.513 Z-0.125
X-97.442 Y-66.296 Z-0.153
X-97.476 Y-66.286 Z-0.154
X-98.217 Y-66.046 Z-0.181
X-98.254 Y-66.033 Z-0.182
X-98.968 Y-65.77 Z-0.209
X-99.009 Y-65.754 Z-0.21
X-99.69 Y-65.468 Z-0.236
X-99.735 Y-65.447 Z-0.238
X-100.378 Y-65.137 Z-0.263
X-100.415 Y-65.118 Z-0.264
X-100.72 Y-64.954 Z-0.276
X-100.747 Y-64.939 Z-0.278
X-101.041 Y-64.77 Z-0.289
X-101.069 Y-64.753 Z-0.291
X-101.351 Y-64.577 Z-0.302
X-101.38 Y-64.558 Z-0.303
X-101.649 Y-64.376 Z-0.315
X-101.678 Y-64.356 Z-0.316
X-101.935 Y-64.168 Z-0.327
X-101.969 Y-64.143 Z-0.329
X-102.211 Y-63.95 Z-0.339
X-102.242 Y-63.924 Z-0.341
X-102.471 Y-63.725 Z-0.351
X-102.507 Y-63.693 Z-0.353
X-102.72 Y-63.489 Z-0.363
X-102.752 Y-63.456 Z-0.365
X-102.951 Y-63.247 Z-0.375
X-102.986 Y-63.208 Z-0.377
X-103.169 Y-62.993 Z-0.387
X-103.205 Y-62.949 Z-0.389
X-103.371 Y-62.729 Z-0.398
X-103.402 Y-62.686 Z-0.4
X-103.553 Y-62.462 Z-0.41
X-103.587 Y-62.407 Z-0.412
X-103.72 Y-62.179 Z-0.421
X-103.748 Y-62.126 Z-0.423
X-103.865 Y-61.894 Z-0.432
X-103.893 Y-61.832 Z-0.435
X-103.992 Y-61.596 Z-0.444
X-104.017 Y-61.532 Z-0.446
X-104.098 Y-61.292 Z-0.455
X-104.117 Y-61.229 Z-0.457
X-104.181 Y-60.986 Z-0.466
X-104.196 Y-60.917 Z-0.468
X-104.242 Y-60.673 Z-0.477
X-104.253 Y-60.599 Z-0.48
X-104.28 Y-60.352 Z-0.488
X-104.285 Y-60.281 Z-0.491
X-104.294 Y-60.033 Z-0.499
X-104.295 Y-60.017 Z-0.5
X-104.294 Y-59.966 F2540
X-104.286 Y-59.717
X-104.281 Y-59.639
X-104.253 Y-59.39
X-104.244 Y-59.325
X-104.199 Y-59.076
X-104.184 Y-59.01
X-104.121 Y-58.76
X-104.103 Y-58.697
X-104.022 Y-58.449
X-104.001 Y-58.391
X-103.903 Y-58.144
X-103.878 Y-58.086
X-103.762 Y-57.842
X-103.735 Y-57.79
X-103.602 Y-57.548
X-103.575 Y-57.502
X-103.426 Y-57.263
X-103.396 Y-57.217
X-103.23 Y-56.982
X-103.199 Y-56.941
X-103.017 Y-56.71
X-102.986 Y-56.671
X-102.788 Y-56.444
X-102.757 Y-56.411
X-102.544 Y-56.188
X-102.514 Y-56.158
X-102.287 Y-55.941
X-102.256 Y-55.913
X-102.015 Y-55.702
X-101.983 Y-55.675
X-101.727 Y-55.469
X-101.699 Y-55.447
X-101.431 Y-55.247
X-101.401 Y-55.226
X-101.12 Y-55.032
X-101.093 Y-55.014
X-100.801 Y-54.827
X-100.771 Y-54.809
X-100.466 Y-54.629
X-100.44 Y-54.614
X-100.125 Y-54.441
X-100.098 Y-54.426
X-99.773 Y-54.261
X-99.747 Y-54.248
X-99.412 Y-54.089
X-99.387 Y-54.078
X-99.043 Y-53.927
X-99.019 Y-53.917
X-98.666 Y-53.773
X-98.642 Y-53.764
X-98.282 Y-53.629
X-98.248 Y-53.616
X-97.507 Y-53.369
X-97.462 Y-53.356
X-96.698 Y-53.141
X-96.655 Y-53.13
X-95.872 Y-52.949
X-95.831 Y-52.94
X-95.035 Y-52.792
X-94.995 Y-52.785
X-94.19 Y-52.669
X-94.152 Y-52.665
X-93.342 Y-52.581
X-93.305 Y-52.577
X-92.494 Y-52.524
X-92.459 Y-52.523
X-91.651 Y-52.499
X-91.617
X-90.815 Y-52.503
X-90.783 Y-52.504
X-89.989 Y-52.534
X-89.959 Y-52.536
X-89.176 Y-52.59
X-89.148 Y-52.592
X-88.378 Y-52.668
X-88.352 Y-52.671
X-87.594 Y-52.766
X-87.571 Y-52.769
X-86.828 Y-52.881
X-86.806 Y-52.884
X-86.078 Y-53.011
X-86.058 Y-53.015
X-85.345 Y-53.154
X-85.328 Y-53.157
X-84.63 Y-53.306
X-84.608 Y-53.311
X-83.255 Y-53.633
X-83.234 Y-53.639
X-81.931 Y-53.979
X-81.92 Y-53.982
X-80.657 Y-54.327
X-79.428 Y-54.663
X-78.222 Y-54.977
X-77.017 Y-55.263
X-76.415 Y-55.392
X-75.805 Y-55.513
X-75.186 Y-55.623
X-74.556 Y-55.725
X-73.913 Y-55.816
X-73.255 Y-55.897
X-72.579 Y-55.969
X-71.886 Y-56.031
X-71.173 Y-56.084
X-70.442 Y-56.128
X-68.913 Y-56.19
X-67.31 Y-56.22
X-65.636 Y-56.223
X-63.901 Y-56.204
X-62.118 Y-56.166
X-60.299 Y-56.116
X-58.46 Y-56.057
X-56.616 Y-55.995
X-54.782 Y-55.933
X-54.781
X-52.971 Y-55.874
X-52.969
X-51.195 Y-55.821
X-51.192
X-49.462 Y-55.773
X-49.459
X-47.779 Y-55.73
X-47.777
X-46.149 Y-55.692
X-46.147
X-44.57 Y-55.657
X-43.039 Y-55.625
X-41.55 Y-55.595
X-41.549
X-40.097 Y-55.567
X-40.096
X-38.671 Y-55.542
X-38.669
X-37.264 Y-55.519
X-37.262
X-35.867 Y-55.5
X-35.864
X-34.472 Y-55.484
X-34.469
X-33.073 Y-55.472
X-33.069
X-31.663 Y-55.465
X-31.66
X-30.239 Y-55.463
G2 X-29.548 Y-55.748 I0.002 J-0.975
G1 X-26.698 Y-58.598
G2 X-26.698 Y-61.391 I-1.397 J-1.397
G1 X-29.53 Y-64.223
G2 X-30.221 Y-64.508 I-0.689 J0.689
G1 X-31.642 Y-64.507
X-31.644
X-33.051 Y-64.502
X-33.053
X-34.451 Y-64.494
X-34.453
X-35.846 Y-64.482
X-35.848
X-37.244 Y-64.467
X-37.246
X-38.652 Y-64.448
X-38.655
X-40.08 Y-64.426
X-40.082
X-41.535 Y-64.4
X-41.537
X-43.025 Y-64.37
X-43.027
X-44.558 Y-64.337
X-44.559
X-46.137 Y-64.3
X-46.139
X-47.768 Y-64.26
X-47.769
X-49.45 Y-64.216
X-51.182 Y-64.17
X-52.957 Y-64.122
X-54.768 Y-64.073
X-56.602 Y-64.023
X-58.447 Y-63.974
X-60.287 Y-63.929
X-62.108 Y-63.889
X-63.895 Y-63.858
X-65.633 Y-63.838
X-67.31 Y-63.836
X-68.916 Y-63.854
X-70.447 Y-63.899
X-71.178 Y-63.934
X-71.89 Y-63.977
X-72.582 Y-64.03
X-73.254 Y-64.095
X-73.908 Y-64.173
X-74.545 Y-64.263
X-75.168 Y-64.368
X-75.78 Y-64.487
X-76.383 Y-64.621
X-76.982 Y-64.77
X-77.578 Y-64.932
X-78.172 Y-65.106
X-79.383 Y-65.488
X-80.617 Y-65.892
X-80.625 Y-65.895
X-81.891 Y-66.297
X-81.909 Y-66.302
X-82.556 Y-66.494
X-82.573 Y-66.499
X-83.231 Y-66.68
X-83.253 Y-66.686
X-83.923 Y-66.854
X-83.948 Y-66.86
X-84.631 Y-67.013
X-84.66 Y-67.018
X-85.357 Y-67.152
X-85.388 Y-67.158
X-86.099 Y-67.271
X-86.132 Y-67.275
X-86.858 Y-67.365
X-86.892 Y-67.369
X-87.632 Y-67.434
X-87.666 Y-67.437
X-88.42 Y-67.477
X-88.454 Y-67.478
X-89.221 Y-67.492
X-89.253
X-90.033 Y-67.48
X-90.063 Y-67.479
X-90.853 Y-67.443
X-90.882 Y-67.441
X-91.681 Y-67.381
X-91.708 Y-67.379
X-92.513 Y-67.295
X-92.539 Y-67.292
X-93.347 Y-67.186
X-93.373 Y-67.183
X-94.181 Y-67.055
X-94.208 Y-67.05
X-95.012 Y-66.9
X-95.039 Y-66.895
X-95.835 Y-66.723
X-95.863 Y-66.716
X-96.646 Y-66.522
X-96.677 Y-66.513
X-97.442 Y-66.296
X-97.476 Y-66.286
X-98.217 Y-66.046
X-98.254 Y-66.033
X-98.968 Y-65.77
X-99.009 Y-65.754
X-99.69 Y-65.468
X-99.735 Y-65.447
X-100.378 Y-65.137
X-100.415 Y-65.118
X-100.72 Y-64.954
X-100.747 Y-64.939
X-101.041 Y-64.77
X-101.069 Y-64.753
X-101.351 Y-64.577
X-101.38 Y-64.558
X-101.649 Y-64.376
X-101.678 Y-64.356
X-101.935 Y-64.168
X-101.969 Y-64.143
X-102.211 Y-63.95
X-102.242 Y-63.924
X-102.471 Y-63.725
X-102.507 Y-63.693
X-102.72 Y-63.489
X-102.752 Y-63.456
X-102.951 Y-63.247
X-102.986 Y-63.208
X-103.169 Y-62.993
X-103.205 Y-62.949
X-103.371 Y-62.729
X-103.402 Y-62.686
X-103.553 Y-62.462
X-103.587 Y-62.407
X-103.72 Y-62.179
X-103.748 Y-62.126
X-103.865 Y-61.894
X-103.893 Y-61.832
X-103.992 Y-61.596
X-104.017 Y-61.532
X-104.098 Y-61.292
X-104.117 Y-61.229
X-104.181 Y-60.986
X-104.196 Y-60.917
X-104.242 Y-60.673
X-104.253 Y-60.599
X-104.28 Y-60.352
X-104.285 Y-60.281
X-104.294 Y-60.033
X-104.295 Y-60.017
G0 Z5
X-50.389 Y-43.525
Z1.5
G1 X-51.182 Y-43.504 Z1.472 F1016
X-52.957 Y-43.455 Z1.41
X-54.768 Y-43.406 Z1.347
X-56.602 Y-43.356 Z1.283
X-58.447 Y-43.308 Z1.219
X-60.287 Y-43.262 Z1.154
X-62.108 Y-43.223 Z1.091
X-63.895 Y-43.191 Z1.028
X-65.633 Y-43.172 Z0.968
X-67.31 Y-43.169 Z0.909
X-68.916 Y-43.187 Z0.853
X-70.448 Y-43.233 Z0.799
X-71.178 Y-43.267 Z0.774
X-71.89 Y-43.31 Z0.749
X-72.582 Y-43.364 Z0.725
X-73.254 Y-43.429 Z0.701
X-73.908 Y-43.506 Z0.678
X-74.545 Y-43.597 Z0.656
X-75.168 Y-43.701 Z0.634
X-75.78 Y-43.821 Z0.612
X-76.383 Y-43.955 Z0.59
X-76.982 Y-44.103 Z0.569
X-77.578 Y-44.265 Z0.547
X-78.172 Y-44.439 Z0.526
X-79.383 Y-44.821 Z0.481
X-80.617 Y-45.226 Z0.436
X-80.625 Y-45.228
X-81.891 Y-45.63 Z0.389
X-81.909 Y-45.636 Z0.388
X-82.556 Y-45.827 Z0.365
X-82.574 Y-45.832 Z0.364
X-83.231 Y-46.014 Z0.34
X-83.253 Y-46.019
X-83.923 Y-46.188 Z0.316
X-83.948 Y-46.194 Z0.315
X-84.631 Y-46.346 Z0.29
X-84.66 Y-46.352 Z0.289
X-85.357 Y-46.486 Z0.264
X-85.388 Y-46.491 Z0.263
X-86.099 Y-46.604 Z0.238
X-86.132 Y-46.609 Z0.237
X-86.858 Y-46.698 Z0.211
X-86.892 Y-46.702 Z0.21
X-87.632 Y-46.768 Z0.184
X-87.666 Y-46.77 Z0.183
X-88.42 Y-46.81 Z0.157
X-88.454 Y-46.811 Z0.156
X-89.221 Y-46.825 Z0.129
X-89.253 Z0.128
X-90.033 Y-46.814 Z0.1
X-90.063 Y-46.813 Z0.099
X-90.853 Y-46.776 Z0.072
X-90.882 Y-46.775 Z0.071
X-91.681 Y-46.714 Z0.043
X-91.708 Y-46.712 Z0.042
X-92.513 Y-46.629 Z0.014
X-92.539 Y-46.626 Z0.013
X-93.347 Y-46.52 Z-0.016
X-93.373 Y-46.516 Z-0.017
X-94.181 Y-46.388 Z-0.045
X-94.208 Y-46.383 Z-0.046
X-95.012 Y-46.234 Z-0.075
X-95.039 Y-46.228 Z-0.076
X-95.835 Y-46.056 Z-0.104
X-95.863 Y-46.049 Z-0.105
X-96.646 Y-45.855 Z-0.133
X-96.677 Y-45.847 Z-0.135
X-97.442 Y-45.63 Z-0.162
X-97.475 Y-45.619 Z-0.164
X-98.217 Y-45.38 Z-0.191
X-98.254 Y-45.367 Z-0.192
X-98.968 Y-45.104 Z-0.219
X-99.009 Y-45.087 Z-0.22
X-99.69 Y-44.801 Z-0.246
X-99.735 Y-44.78 Z-0.248
X-100.378 Y-44.47 Z-0.273
X-100.415 Y-44.451 Z-0.274
X-100.72 Y-44.287 Z-0.286
X-100.747 Y-44.273 Z-0.287
X-101.041 Y-44.103 Z-0.299
X-101.069 Y-44.086 Z-0.3
X-101.351 Y-43.91 Z-0.312
X-101.38 Y-43.891 Z-0.313
X-101.649 Y-43.71 Z-0.324
X-101.678 Y-43.689 Z-0.326
X-101.935 Y-43.502 Z-0.337
X-101.969 Y-43.476 Z-0.338
X-102.211 Y-43.283 Z-0.349
X-102.242 Y-43.257 Z-0.35
X-102.471 Y-43.059 Z-0.361
X-102.507 Y-43.026 Z-0.363
X-102.72 Y-42.822 Z-0.373
X-102.752 Y-42.79 Z-0.375
X-102.951 Y-42.58 Z-0.385
X-102.986 Y-42.541 Z-0.387
X-103.169 Y-42.327 Z-0.396
X-103.205 Y-42.282 Z-0.398
X-103.371 Y-42.062 Z-0.408
X-103.402 Y-42.019 Z-0.41
X-103.553 Y-41.795 Z-0.419
X-103.587 Y-41.741 Z-0.422
X-103.72 Y-41.512 Z-0.431
X-103.748 Y-41.46 Z-0.433
X-103.865 Y-41.227 Z-0.442
X-103.893 Y-41.166 Z-0.444
X-103.992 Y-40.929 Z-0.453
X-104.017 Y-40.865 Z-0.456
X-104.098 Y-40.626 Z-0.465
X-104.117 Y-40.562 Z-0.467
X-104.181 Y-40.32 Z-0.476
X-104.196 Y-40.251 Z-0.478
X-104.242 Y-40.006 Z-0.487
X-104.253 Y-39.932 Z-0.489
X-104.28 Y-39.685 Z-0.498
X-104.285 Y-39.629 Z-0.5
Y-39.614 F2540
X-104.294 Y-39.366
Y-39.299
X-104.286 Y-39.05
X-104.281 Y-38.973
X-104.253 Y-38.723
X-104.244 Y-38.659
X-104.199 Y-38.409
X-104.184 Y-38.343
X-104.121 Y-38.094
X-104.103 Y-38.03
X-104.022 Y-37.782
X-104.001 Y-37.724
X-103.903 Y-37.478
X-103.878 Y-37.42
X-103.762 Y-37.175
X-103.735 Y-37.124
X-103.602 Y-36.882
X-103.575 Y-36.835
X-103.426 Y-36.596
X-103.396 Y-36.55
X-103.23 Y-36.315
X-103.199 Y-36.274
X-103.017 Y-36.043
X-102.986 Y-36.005
X-102.788 Y-35.778
X-102.757 Y-35.744
X-102.544 Y-35.522
X-102.514 Y-35.492
X-102.287 Y-35.275
X-102.256 Y-35.247
X-102.015 Y-35.035
X-101.983 Y-35.008
X-101.727 Y-34.802
X-101.699 Y-34.78
X-101.431 Y-34.58
X-101.401 Y-34.559
X-101.12 Y-34.365
X-101.093 Y-34.347
X-100.801 Y-34.16
X-100.771 Y-34.142
X-100.466 Y-33.962
X-100.44 Y-33.947
X-100.125 Y-33.774
X-100.098 Y-33.76
X-99.773 Y-33.594
X-99.747 Y-33.581
X-99.412 Y-33.423
X-99.387 Y-33.411
X-99.043 Y-33.26
X-99.019 Y-33.25
X-98.666 Y-33.107
X-98.643 Y-33.097
X-98.283 Y-32.962
X-98.247 Y-32.949
X-97.507 Y-32.703
X-97.462 Y-32.689
X-96.698 Y-32.475
X-96.655 Y-32.464
X-95.872 Y-32.282
X-95.831 Y-32.274
X-95.035 Y-32.125
X-94.995 Y-32.119
X-94.19 Y-32.003
X-94.152 Y-31.998
X-93.342 Y-31.914
X-93.305 Y-31.911
X-92.494 Y-31.858
X-92.459 Y-31.856
X-91.651 Y-31.833
X-91.617 Y-31.832
X-90.815 Y-31.837
X-90.783
X-89.989 Y-31.868
X-89.959 Y-31.869
X-89.176 Y-31.924
X-89.148 Y-31.926
X-88.378 Y-32.002
X-88.352 Y-32.004
X-87.595 Y-32.099
X-87.571 Y-32.103
X-86.828 Y-32.214
X-86.806 Y-32.218
X-86.078 Y-32.344
X-86.059 Y-32.348
X-85.346 Y-32.487
X-85.328 Y-32.49
X-84.63 Y-32.64
X-84.608 Y-32.645
X-83.255 Y-32.967
X-83.234 Y-32.972
X-81.93 Y-33.313
X-81.92 Y-33.315
X-80.657 Y-33.66
X-79.428 Y-33.996
X-78.222 Y-34.311
X-77.017 Y-34.596
X-76.415 Y-34.725
X-75.805 Y-34.846
X-75.186 Y-34.957
X-74.556 Y-35.058
X-73.913 Y-35.149
X-73.255 Y-35.231
X-72.579 Y-35.303
X-71.886 Y-35.365
X-71.172 Y-35.418
X-70.442 Y-35.461
X-68.913 Y-35.523
X-67.31 Y-35.554
X-65.636 Y-35.557
X-63.901 Y-35.537
X-62.118 Y-35.5
X-60.299 Y-35.449
X-58.46 Y-35.391
X-56.616 Y-35.328
X-54.782 Y-35.266
X-54.781
X-52.971 Y-35.208
X-52.969 Y-35.207
X-51.195 Y-35.154
X-51.192
X-49.462 Y-35.106
X-49.459
X-47.779 Y-35.064
X-47.777
X-46.149 Y-35.026
X-46.147
X-44.57 Y-34.991
X-43.039 Y-34.958
X-41.55 Y-34.928
X-41.549
X-40.097 Y-34.9
X-40.096
X-38.671 Y-34.875
X-38.669
X-37.264 Y-34.852
X-37.262
X-35.867 Y-34.833
X-35.864
X-34.472 Y-34.817
X-34.469
X-33.073 Y-34.806
X-33.069
X-31.663 Y-34.798
X-31.66
X-30.239 Y-34.796
G2 X-29.548 Y-35.081 I0.002 J-0.975
G1 X-26.698 Y-37.931
G2 X-26.698 Y-40.724 I-1.397 J-1.397
G1 X-29.53 Y-43.556
G2 X-30.221 Y-43.841 I-0.689 J0.689
G1 X-31.642 Y-43.84
X-31.644
X-33.051 Y-43.835
X-33.053
X-34.451 Y-43.827
X-34.453
X-35.846 Y-43.815
X-35.848
X-37.244 Y-43.8
X-37.246
X-38.652 Y-43.782
X-38.655
X-40.08 Y-43.759
X-40.082
X-41.535 Y-43.733
X-41.537
X-43.025 Y-43.704
X-43.027
X-44.558 Y-43.67
X-44.559
X-46.137 Y-43.633
X-46.139
X-47.768 Y-43.593
X-47.769
X-49.45 Y-43.55
X-51.182 Y-43.504
X-52.957 Y-43.455
X-54.768 Y-43.406
X-56.602 Y-43.356
X-58.447 Y-43.308
X-60.287 Y-43.262
X-62.108 Y-43.223
X-63.895 Y-43.191
X-65.633 Y-43.172
X-67.31 Y-43.169
X-68.916 Y-43.187
X-70.448 Y-43.233
X-71.178 Y-43.267
X-71.89 Y-43.31
X-72.582 Y-43.364
X-73.254 Y-43.429
X-73.908 Y-43.506
X-74.545 Y-43.597
X-75.168 Y-43.701
X-75.78 Y-43.821
X-76.383 Y-43.955
X-76.982 Y-44.103
X-77.578 Y-44.265
X-78.172 Y-44.439
X-79.383 Y-44.821
X-80.617 Y-45.226
X-80.625 Y-45.228
X-81.891 Y-45.63
X-81.909 Y-45.636
X-82.556 Y-45.827
X-82.574 Y-45.832
X-83.231 Y-46.014
X-83.253 Y-46.019
X-83.923 Y-46.188
X-83.948 Y-46.194
X-84.631 Y-46.346
X-84.66 Y-46.352
X-85.357 Y-46.486
X-85.388 Y-46.491
X-86.099 Y-46.604
X-86.132 Y-46.609
X-86.858 Y-46.698
X-86.892 Y-46.702
X-87.632 Y-46.768
X-87.666 Y-46.77
X-88.42 Y-46.81
X-88.454 Y-46.811
X-89.221 Y-46.825
X-89.253
X-90.033 Y-46.814
X-90.063 Y-46.813
X-90.853 Y-46.776
X-90.882 Y-46.775
X-91.681 Y-46.714
X-91.708 Y-46.712
X-92.513 Y-46.629
X-92.539 Y-46.626
X-93.347 Y-46.52
X-93.373 Y-46.516
X-94.181 Y-46.388
X-94.208 Y-46.383
X-95.012 Y-46.234
X-95.039 Y-46.228
X-95.835 Y-46.056
X-95.863 Y-46.049
X-96.646 Y-45.855
X-96.677 Y-45.847
X-97.442 Y-45.63
X-97.475 Y-45.619
X-98.217 Y-45.38
X-98.254 Y-45.367
X-98.968 Y-45.104
X-99.009 Y-45.087
X-99.69 Y-44.801
X-99.735 Y-44.78
X-100.378 Y-44.47
X-100.415 Y-44.451
X-100.72 Y-44.287
X-100.747 Y-44.273
X-101.041 Y-44.103
X-101.069 Y-44.086
X-101.351 Y-43.91
X-101.38 Y-43.891
X-101.649 Y-43.71
X-101.678 Y-43.689
X-101.935 Y-43.502
X-101.969 Y-43.476
X-102.211 Y-43.283
X-102.242 Y-43.257
X-102.471 Y-43.059
X-102.507 Y-43.026
X-102.72 Y-42.822
X-102.752 Y-42.79
X-102.951 Y-42.58
X-102.986 Y-42.541
X-103.169 Y-42.327
X-103.205 Y-42.282
X-103.371 Y-42.062
X-103.402 Y-42.019
X-103.553 Y-41.795
X-103.587 Y-41.741
X-103.72 Y-41.512
X-103.748 Y-41.46
X-103.865 Y-41.227
X-103.893 Y-41.166
X-103.992 Y-40.929
X-104.017 Y-40.865
X-104.098 Y-40.626
X-104.117 Y-40.562
X-104.181 Y-40.32
X-104.196 Y-40.251
X-104.242 Y-40.006
X-104.253 Y-39.932
X-104.28 Y-39.685
X-104.285 Y-39.629
G0 Z5
X-50.38 Y-22.858
Z1.5
G1 X-51.182 Y-22.837 Z1.472 F1016
X-52.957 Y-22.789 Z1.41
X-54.768 Y-22.739 Z1.347
X-56.602 Y-22.689 Z1.283
X-58.447 Y-22.641 Z1.218
X-60.287 Y-22.596 Z1.154
X-62.108 Y-22.556 Z1.09
X-63.895 Y-22.524 Z1.028
X-65.633 Y-22.505 Z0.967
X-67.31 Y-22.502 Z0.909
X-68.916 Y-22.521 Z0.853
X-70.448 Y-22.566 Z0.799
X-71.178 Y-22.6 Z0.773
X-71.89 Y-22.644 Z0.749
X-72.582 Y-22.697 Z0.724
X-73.254 Y-22.762 Z0.701
X-73.908 Y-22.839 Z0.678
X-74.545 Y-22.93 Z0.655
X-75.168 Y-23.035 Z0.633
X-75.78 Y-23.154 Z0.611
X-76.384 Y-23.288 Z0.59
X-76.982 Y-23.437 Z0.568
X-77.578 Y-23.599 Z0.547
X-78.172 Y-23.773 Z0.525
X-79.383 Y-24.155 Z0.481
X-80.617 Y-24.559 Z0.435
X-80.625 Y-24.562
X-81.891 Y-24.963 Z0.389
X-81.909 Y-24.969 Z0.388
X-82.556 Y-25.161 Z0.365
X-82.573 Y-25.166 Z0.364
X-83.231 Y-25.347 Z0.34
X-83.253 Y-25.353 Z0.339
X-83.923 Y-25.521 Z0.315
X-83.948 Y-25.527 Z0.314
X-84.631 Y-25.679 Z0.29
X-84.66 Y-25.685 Z0.289
X-85.357 Y-25.819 Z0.264
X-85.388 Y-25.824 Z0.263
X-86.099 Y-25.937 Z0.238
X-86.132 Y-25.942 Z0.237
X-86.858 Y-26.032 Z0.211
X-86.892 Y-26.035 Z0.21
X-87.632 Y-26.101 Z0.184
X-87.666 Y-26.103 Z0.183
X-88.42 Y-26.143 Z0.156
X-88.454 Y-26.144 Z0.155
X-89.221 Y-26.158 Z0.128
X-89.253 Z0.127
X-90.033 Y-26.147 Z0.1
X-90.063 Y-26.146 Z0.099
X-90.853 Y-26.11 Z0.071
X-90.882 Y-26.108 Z0.07
X-91.681 Y-26.048 Z0.042
X-91.708 Y-26.045 Z0.041
X-92.513 Y-25.962 Z0.013
X-92.539 Y-25.959 Z0.012
X-93.347 Y-25.853 Z-0.016
X-93.373 Y-25.849 Z-0.017
X-94.181 Y-25.721 Z-0.046
X-94.208 Y-25.717 Z-0.047
X-95.012 Y-25.567 Z-0.075
X-95.039 Y-25.561 Z-0.076
X-95.835 Y-25.389 Z-0.105
X-95.864 Y-25.383 Z-0.106
X-96.646 Y-25.188 Z-0.134
X-96.677 Y-25.18 Z-0.135
X-97.442 Y-24.963 Z-0.163
X-97.476 Y-24.953 Z-0.164
X-98.217 Y-24.713 Z-0.191
X-98.254 Y-24.7 Z-0.192
X-98.968 Y-24.437 Z-0.219
X-99.009 Y-24.421 Z-0.221
X-99.69 Y-24.134 Z-0.246
X-99.735 Y-24.114 Z-0.248
X-100.378 Y-23.804 Z-0.273
X-100.415 Y-23.785 Z-0.274
X-100.72 Y-23.621 Z-0.287
X-100.747 Y-23.606 Z-0.288
X-101.041 Y-23.436 Z-0.299
X-101.069 Y-23.419 Z-0.301
X-101.351 Y-23.244 Z-0.312
X-101.38 Y-23.224 Z-0.313
X-101.649 Y-23.043 Z-0.325
X-101.678 Y-23.023 Z-0.326
X-101.935 Y-22.835 Z-0.337
X-101.969 Y-22.81 Z-0.339
X-102.211 Y-22.617 Z-0.349
X-102.242 Y-22.591 Z-0.351
X-102.471 Y-22.392 Z-0.361
X-102.507 Y-22.36 Z-0.363
X-102.72 Y-22.155 Z-0.373
X-102.752 Y-22.123 Z-0.375
X-102.951 Y-21.913 Z-0.385
X-102.986 Y-21.874 Z-0.387
X-103.169 Y-21.66 Z-0.397
X-103.205 Y-21.615 Z-0.399
X-103.371 Y-21.396 Z-0.408
X-103.402 Y-21.352 Z-0.41
X-103.553 Y-21.128 Z-0.42
X-103.587 Y-21.074 Z-0.422
X-103.72 Y-20.845 Z-0.431
X-103.748 Y-20.793 Z-0.433
X-103.865 Y-20.561 Z-0.442
X-103.893 Y-20.499 Z-0.445
X-103.992 Y-20.263 Z-0.454
X-104.017 Y-20.198 Z-0.456
X-104.098 Y-19.959 Z-0.465
X-104.117 Y-19.895 Z-0.467
X-104.181 Y-19.653 Z-0.476
X-104.196 Y-19.584 Z-0.478
X-104.242 Y-19.339 Z-0.487
X-104.253 Y-19.265 Z-0.49
X-104.28 Y-19.018 Z-0.498
X-104.284 Y-18.972 Z-0.5
X-104.285 Y-18.948 F2540
X-104.294 Y-18.699
Y-18.633
X-104.286 Y-18.384
X-104.281 Y-18.306
X-104.253 Y-18.056
X-104.244 Y-17.992
X-104.199 Y-17.742
X-104.184 Y-17.676
X-104.121 Y-17.427
X-104.103 Y-17.363
X-104.022 Y-17.115
X-104.001 Y-17.058
X-103.903 Y-16.811
X-103.878 Y-16.753
X-103.762 Y-16.509
X-103.735 Y-16.457
X-103.602 Y-16.215
X-103.575 Y-16.169
X-103.426 Y-15.93
X-103.396 Y-15.884
X-103.23 Y-15.648
X-103.199 Y-15.608
X-103.017 Y-15.376
X-102.986 Y-15.338
X-102.788 Y-15.111
X-102.757 Y-15.077
X-102.544 Y-14.855
X-102.514 Y-14.825
X-102.287 Y-14.608
X-102.256 Y-14.58
X-102.015 Y-14.368
X-101.983 Y-14.341
X-101.727 Y-14.135
X-101.699 Y-14.113
X-101.431 Y-13.914
X-101.401 Y-13.892
X-101.12 Y-13.699
X-101.093 Y-13.681
X-100.801 Y-13.494
X-100.771 Y-13.476
X-100.466 Y-13.295
X-100.44 Y-13.28
X-100.125 Y-13.107
X-100.098 Y-13.093
X-99.773 Y-12.927
X-99.747 Y-12.915
X-99.412 Y-12.756
X-99.387 Y-12.745
X-99.043 Y-12.594
X-99.019 Y-12.583
X-98.666 Y-12.44
X-98.642 Y-12.431
X-98.282 Y-12.295
X-98.248 Y-12.283
X-97.507 Y-12.036
X-97.462 Y-12.022
X-96.698 Y-11.808
X-96.655 Y-11.797
X-95.872 Y-11.616
X-95.831 Y-11.607
X-95.035 Y-11.459
X-94.995 Y-11.452
X-94.19 Y-11.336
X-94.152 Y-11.331
X-93.342 Y-11.247
X-93.305 Y-11.244
X-92.494 Y-11.191
X-92.459 Y-11.189
X-91.651 Y-11.166
X-91.617
X-90.815 Y-11.17
X-90.783 Y-11.171
X-89.989 Y-11.201
X-89.959 Y-11.203
X-89.176 Y-11.257
X-89.148 Y-11.259
X-88.378 Y-11.335
X-88.352 Y-11.338
X-87.594 Y-11.433
X-87.571 Y-11.436
X-86.828 Y-11.548
X-86.806 Y-11.551
X-86.078 Y-11.678
X-86.059 Y-11.681
X-85.346 Y-11.82
X-85.328 Y-11.824
X-84.63 Y-11.973
X-84.608 Y-11.978
X-83.255 Y-12.3
X-83.234 Y-12.305
X-81.931 Y-12.646
X-81.92 Y-12.649
X-80.657 Y-12.994
X-79.428 Y-13.33
X-78.222 Y-13.644
X-77.017 Y-13.93
X-76.415 Y-14.059
X-75.805 Y-14.179
X-75.186 Y-14.29
X-74.556 Y-14.391
X-73.913 Y-14.483
X-73.255 Y-14.564
X-72.579 Y-14.636
X-71.886 Y-14.698
X-71.172 Y-14.751
X-70.442 Y-14.794
X-68.913 Y-14.856
X-67.31 Y-14.887
X-65.636 Y-14.89
X-63.901 Y-14.871
X-62.118 Y-14.833
X-60.299 Y-14.783
X-58.46 Y-14.724
X-56.616 Y-14.662
X-54.782 Y-14.6
X-54.781
X-52.971 Y-14.541
X-52.969
X-51.195 Y-14.487
X-51.192
X-49.462 Y-14.439
X-49.459
X-47.779 Y-14.397
X-47.777
X-46.149 Y-14.359
X-46.147
X-44.57 Y-14.324
X-43.039 Y-14.292
X-41.55 Y-14.262
X-40.097 Y-14.234
X-40.096
X-38.671 Y-14.208
X-38.669
X-37.264 Y-14.186
X-37.262
X-35.867 Y-14.166
X-35.864
X-34.472 Y-14.151
X-34.469
X-33.073 Y-14.139
X-33.069
X-31.663 Y-14.132
X-31.66
X-30.239 Y-14.129
G2 X-29.548 Y-14.415 I0.002 J-0.975
G1 X-26.698 Y-17.265
G2 X-26.698 Y-20.058 I-1.397 J-1.397
G1 X-29.53 Y-22.889
G2 X-30.221 Y-23.175 I-0.689 J0.689
G1 X-31.642 Y-23.173
X-31.644
X-33.051 Y-23.168
X-33.053
X-34.451 Y-23.16
X-34.453
X-35.846 Y-23.149
X-35.848
X-37.244 Y-23.134
X-37.246
X-38.652 Y-23.115
X-38.655
X-40.08 Y-23.093
X-40.082
X-41.535 Y-23.067
X-41.537
X-43.025 Y-23.037
X-43.027
X-44.558 Y-23.004
X-44.559
X-46.137 Y-22.967
X-46.139
X-47.768 Y-22.926
X-49.45 Y-22.883
X-51.182 Y-22.837
X-52.957 Y-22.789
X-54.768 Y-22.739
X-56.602 Y-22.689
X-58.447 Y-22.641
X-60.287 Y-22.596
X-62.108 Y-22.556
X-63.895 Y-22.524
X-65.633 Y-22.505
X-67.31 Y-22.502
X-68.916 Y-22.521
X-70.448 Y-22.566
X-71.178 Y-22.6
X-71.89 Y-22.644
X-72.582 Y-22.697
X-73.254 Y-22.762
X-73.908 Y-22.839
X-74.545 Y-22.93
X-75.168 Y-23.035
X-75.78 Y-23.154
X-76.384 Y-23.288
X-76.982 Y-23.437
X-77.578 Y-23.599
X-78.172 Y-23.773
X-79.383 Y-24.155
X-80.617 Y-24.559
X-80.625 Y-24.562
X-81.891 Y-24.963
X-81.909 Y-24.969
X-82.556 Y-25.161
X-82.573 Y-25.166
X-83.231 Y-25.347
X-83.253 Y-25.353
X-83.923 Y-25.521
X-83.948 Y-25.527
X-84.631 Y-25.679
X-84.66 Y-25.685
X-85.357 Y-25.819
X-85.388 Y-25.824
X-86.099 Y-25.937
X-86.132 Y-25.942
X-86.858 Y-26.032
X-86.892 Y-26.035
X-87.632 Y-26.101
X-87.666 Y-26.103
X-88.42 Y-26.143
X-88.454 Y-26.144
X-89.221 Y-26.158
X-89.253
X-90.033 Y-26.147
X-90.063 Y-26.146
X-90.853 Y-26.11
X-90.882 Y-26.108
X-91.681 Y-26.048
X-91.708 Y-26.045
X-92.513 Y-25.962
X-92.539 Y-25.959
X-93.347 Y-25.853
X-93.373 Y-25.849
X-94.181 Y-25.721
X-94.208 Y-25.717
X-95.012 Y-25.567
X-95.039 Y-25.561
X-95.835 Y-25.389
X-95.864 Y-25.383
X-96.646 Y-25.188
X-96.677 Y-25.18
X-97.442 Y-24.963
X-97.476 Y-24.953
X-98.217 Y-24.713
X-98.254 Y-24.7
X-98.968 Y-24.437
X-99.009 Y-24.421
X-99.69 Y-24.134
X-99.735 Y-24.114
X-100.378 Y-23.804
X-100.415 Y-23.785
X-100.72 Y-23.621
X-100.747 Y-23.606
X-101.041 Y-23.436
X-101.069 Y-23.419
X-101.351 Y-23.244
X-101.38 Y-23.224
X-101.649 Y-23.043
X-101.678 Y-23.023
X-101.935 Y-22.835
X-101.969 Y-22.81
X-102.211 Y-22.617
X-102.242 Y-22.591
X-102.471 Y-22.392
X-102.507 Y-22.36
X-102.72 Y-22.155
X-102.752 Y-22.123
X-102.951 Y-21.913
X-102.986 Y-21.874
X-103.169 Y-21.66
X-103.205 Y-21.615
X-103.371 Y-21.396
X-103.402 Y-21.352
X-103.553 Y-21.128
X-103.587 Y-21.074
X-103.72 Y-20.845
X-103.748 Y-20.793
X-103.865 Y-20.561
X-103.893 Y-20.499
X-103.992 Y-20.263
X-104.017 Y-20.198
X-104.098 Y-19.959
X-104.117 Y-19.895
X-104.181 Y-19.653
X-104.196 Y-19.584
X-104.242 Y-19.339
X-104.253 Y-19.265
X-104.28 Y-19.018
X-104.284 Y-18.972
G0 Z5
X-53.329 Y-25.008
Z1.5
G1 X-53.139 Y-25.013 Z1.493 F1016
X-51.363 Y-25.062 Z1.431
X-49.552 Y-25.111 Z1.368
X-47.718 Y-25.161 Z1.304
X-45.873 Y-25.209 Z1.24
X-44.033 Y-25.255 Z1.175
X-42.212 Y-25.294 Z1.112
X-40.426 Y-25.326 Z1.049
X-38.688 Y-25.345 Z0.989
X-37.011 Y-25.348 Z0.93
X-35.404 Y-25.329 Z0.874
X-33.873 Y-25.284 Z0.82
X-33.142 Y-25.25 Z0.795
X-32.43 Y-25.207 Z0.77
X-31.738 Y-25.153 Z0.746
X-31.066 Y-25.088 Z0.722
X-30.413 Y-25.011 Z0.699
X-29.776 Y-24.92 Z0.677
X-29.152 Y-24.816 Z0.655
X-28.541 Y-24.696 Z0.633
X-27.937 Y-24.562 Z0.611
X-27.339 Y-24.414 Z0.59
X-26.742 Y-24.252 Z0.568
X-26.148 Y-24.078 Z0.547
X-24.937 Y-23.696 Z0.502
X-23.704 Y-23.291 Z0.457
X-23.695 Y-23.289
X-22.429 Y-22.887 Z0.41
X-22.411 Y-22.881
X-21.765 Y-22.69 Z0.386
X-21.747 Y-22.685 Z0.385
X-21.089 Y-22.503 Z0.361
X-21.067 Y-22.498
X-20.397 Y-22.329 Z0.337
X-20.372 Y-22.323 Z0.336
X-19.689 Y-22.171 Z0.311
X-19.661 Y-22.165 Z0.31
X-18.964 Y-22.031 Z0.285
X-18.933 Y-22.026 Z0.284
X-18.221 Y-21.913 Z0.259
X-18.188 Y-21.909 Z0.258
X-17.463 Y-21.819 Z0.232
X-17.429 Y-21.815 Z0.231
X-16.689 Y-21.749 Z0.205
X-16.654 Y-21.747 Z0.204
X-15.9 Y-21.707 Z0.178
X-15.867 Y-21.706 Z0.177
X-15.099 Y-21.692 Z0.15
X-15.067 Z0.149
X-14.288 Y-21.703 Z0.121
X-14.257 Y-21.704 Z0.12
X-13.467 Y-21.741 Z0.093
X-13.439 Y-21.742 Z0.092
X-12.64 Y-21.803 Z0.064
X-12.613 Y-21.805 Z0.063
X-11.808 Y-21.888 Z0.035
X-11.781 Y-21.891 Z0.034
X-10.973 Y-21.997 Z0.005
X-10.947 Y-22.001 Z0.004
X-10.139 Y-22.129 Z-0.024
X-10.113 Y-22.134 Z-0.025
X-9.309 Y-22.283 Z-0.054
X-9.281 Y-22.289 Z-0.055
X-8.486 Y-22.461 Z-0.083
X-8.457 Y-22.468 Z-0.084
X-7.674 Y-22.662 Z-0.112
X-7.643 Y-22.67 Z-0.113
X-6.879 Y-22.887 Z-0.141
X-6.845 Y-22.898 Z-0.142
X-6.103 Y-23.137 Z-0.17
X-6.066 Y-23.15 Z-0.171
X-5.352 Y-23.413 Z-0.198
X-5.311 Y-23.43 Z-0.199
X-4.631 Y-23.716 Z-0.225
X-4.585 Y-23.737 Z-0.227
X-3.943 Y-24.047 Z-0.252
X-3.906 Y-24.066 Z-0.253
X-3.6 Y-24.23 Z-0.265
X-3.574 Y-24.244 Z-0.266
X-3.28 Y-24.414 Z-0.278
X-3.252 Y-24.431 Z-0.279
X-2.97 Y-24.607 Z-0.291
X-2.941 Y-24.626 Z-0.292
X-2.671 Y-24.807 Z-0.303
X-2.641 Y-24.829 Z-0.305
X-2.384 Y-25.016 Z-0.316
X-2.353 Y-25.04 Z-0.317
X-2.11 Y-25.233 Z-0.328
X-2.077 Y-25.26 Z-0.33
X-1.849 Y-25.459 Z-0.34
X-1.815 Y-25.49 Z-0.342
X-1.602 Y-25.694 Z-0.352
X-1.568 Y-25.728 Z-0.354
X-1.369 Y-25.938 Z-0.364
X-1.334 Y-25.976 Z-0.366
X-1.152 Y-26.191 Z-0.375
X-1.118 Y-26.233 Z-0.377
X-0.951 Y-26.453 Z-0.387
X-0.917 Y-26.499 Z-0.389
X-0.767 Y-26.724 Z-0.398
X-0.735 Y-26.775 Z-0.4
X-0.601 Y-27.003 Z-0.41
X-0.571 Y-27.059 Z-0.412
X-0.455 Y-27.291 Z-0.421
X-0.427 Y-27.351 Z-0.423
X-0.328 Y-27.587 Z-0.432
X-0.304 Y-27.65 Z-0.435
X-0.223 Y-27.89 Z-0.443
X-0.203 Y-27.956 Z-0.446
X-0.139 Y-28.199 Z-0.455
X-0.124 Y-28.268 Z-0.457
X-0.078 Y-28.513 Z-0.466
X-0.068 Y-28.583 Z-0.468
X-0.04 Y-28.83 Z-0.477
X-0.035 Y-28.901 Z-0.479
X-0.026 Y-29.15 Z-0.488
Y-29.221 Z-0.491
X-0.034 Y-29.47 Z-0.499
X-0.035 Y-29.49 Z-0.5
X-0.04 Y-29.541 F2540
X-0.067 Y-29.79
X-0.076 Y-29.859
X-0.122 Y-30.109
X-0.136 Y-30.175
X-0.199 Y-30.424
X-0.217 Y-30.487
X-0.298 Y-30.735
X-0.32 Y-30.794
X-0.418 Y-31.041
X-0.442 Y-31.097
X-0.558 Y-31.341
X-0.585 Y-31.393
X-0.718 Y-31.635
X-0.746 Y-31.683
X-0.896 Y-31.922
X-0.925 Y-31.966
X-1.091 Y-32.202
X-1.121 Y-32.243
X-1.303 Y-32.474
X-1.334 Y-32.511
X-1.532 Y-32.738
X-1.563 Y-32.773
X-1.776 Y-32.995
X-1.807 Y-33.026
X-2.034 Y-33.243
X-2.065 Y-33.271
X-2.306 Y-33.483
X-2.337 Y-33.508
X-2.592 Y-33.714
X-2.622 Y-33.737
X-2.89 Y-33.937
X-2.919 Y-33.958
X-3.2 Y-34.151
X-3.229 Y-34.17
X-3.521 Y-34.357
X-3.549 Y-34.374
X-3.853 Y-34.554
X-3.881 Y-34.57
X-4.196 Y-34.743
X-4.222 Y-34.757
X-4.547 Y-34.923
X-4.573 Y-34.936
X-4.908 Y-35.094
X-4.933 Y-35.106
X-5.277 Y-35.257
X-5.302 Y-35.267
X-5.654 Y-35.41
X-5.678 Y-35.42
X-6.038 Y-35.555
X-6.073 Y-35.568
X-6.814 Y-35.814
X-6.858 Y-35.828
X-7.622 Y-36.042
X-7.665 Y-36.053
X-8.448 Y-36.235
X-8.489 Y-36.243
X-9.285 Y-36.392
X-9.325 Y-36.398
X-10.131 Y-36.514
X-10.169 Y-36.519
X-10.979 Y-36.603
X-11.016 Y-36.606
X-11.827 Y-36.659
X-11.862 Y-36.661
X-12.67 Y-36.684
X-12.704 Y-36.685
X-13.506 Y-36.68
X-13.538
X-14.331 Y-36.649
X-14.361 Y-36.648
X-15.144 Y-36.593
X-15.172 Y-36.591
X-15.943 Y-36.515
X-15.969 Y-36.513
X-16.726 Y-36.418
X-16.75 Y-36.414
X-17.493 Y-36.303
X-17.514 Y-36.299
X-18.242 Y-36.173
X-18.262 Y-36.169
X-18.975 Y-36.03
X-18.992 Y-36.027
X-19.691 Y-35.877
X-19.712 Y-35.872
X-21.066 Y-35.55
X-21.087 Y-35.545
X-22.39 Y-35.204
X-22.401 Y-35.202
X-23.663 Y-34.856
X-24.893 Y-34.521
X-26.099 Y-34.206
X-27.304 Y-33.921
X-27.905 Y-33.792
X-28.515 Y-33.671
X-29.134 Y-33.56
X-29.764 Y-33.459
X-30.407 Y-33.368
X-31.066 Y-33.286
X-31.741 Y-33.214
X-32.435 Y-33.152
X-33.148 Y-33.099
X-33.878 Y-33.056
X-35.407 Y-32.994
X-37.011 Y-32.963
X-38.685 Y-32.96
X-40.419 Y-32.98
X-42.203 Y-33.017
X-44.021 Y-33.068
X-45.86 Y-33.126
X-47.704 Y-33.189
X-49.538 Y-33.251
X-49.539
X-51.349 Y-33.309
X-51.352 Y-33.31
X-53.126 Y-33.363
X-53.128
X-54.859 Y-33.411
X-54.861
X-56.541 Y-33.453
X-56.543
X-58.172 Y-33.491
X-58.173
X-59.751 Y-33.526
X-61.282 Y-33.559
X-62.77 Y-33.589
X-64.223 Y-33.617
X-64.225
X-65.649 Y-33.642
X-65.651
X-67.057 Y-33.665
X-67.059
X-68.454 Y-33.684
X-68.456
X-69.848 Y-33.7
X-69.851
X-71.248 Y-33.711
X-71.251
X-72.657 Y-33.719
X-72.661
X-74.081 Y-33.721
G2 X-74.772 Y-33.436 I-0.002 J0.975
G1 X-77.622 Y-30.586
G2 X-77.622 Y-27.793 I1.397 J1.397
G1 X-74.79 Y-24.961
G2 X-74.1 Y-24.675 I0.689 J-0.689
G1 X-72.679 Y-24.677
X-72.677
X-71.269 Y-24.682
X-71.267
X-69.87 Y-24.69
X-69.867
X-68.475 Y-24.702
X-68.472
X-67.077 Y-24.717
X-67.074
X-65.668 Y-24.735
X-65.666
X-64.24 Y-24.758
X-64.238
X-62.785 Y-24.783
X-62.783
X-61.295 Y-24.813
X-61.293
X-59.763 Y-24.847
X-59.761
X-58.183 Y-24.884
X-58.182
X-56.553 Y-24.924
X-54.87 Y-24.967
X-53.139 Y-25.013
X-51.363 Y-25.062
X-49.552 Y-25.111
X-47.718 Y-25.161
X-45.873 Y-25.209
X-44.033 Y-25.255
X-42.212 Y-25.294
X-40.426 Y-25.326
X-38.688 Y-25.345
X-37.011 Y-25.348
X-35.404 Y-25.329
X-33.873 Y-25.284
X-33.142 Y-25.25
X-32.43 Y-25.207
X-31.738 Y-25.153
X-31.066 Y-25.088
X-30.413 Y-25.011
X-29.776 Y-24.92
X-29.152 Y-24.816
X-28.541 Y-24.696
X-27.937 Y-24.562
X-27.339 Y-24.414
X-26.742 Y-24.252
X-26.148 Y-24.078
X-24.937 Y-23.696
X-23.704 Y-23.291
X-23.695 Y-23.289
X-22.429 Y-22.887
X-22.411 Y-22.881
X-21.765 Y-22.69
X-21.747 Y-22.685
X-21.089 Y-22.503
X-21.067 Y-22.498
X-20.397 Y-22.329
X-20.372 Y-22.323
X-19.689 Y-22.171
X-19.661 Y-22.165
X-18.964 Y-22.031
X-18.933 Y-22.026
X-18.221 Y-21.913
X-18.188 Y-21.909
X-17.463 Y-21.819
X-17.429 Y-21.815
X-16.689 Y-21.749
X-16.654 Y-21.747
X-15.9 Y-21.707
X-15.867 Y-21.706
X-15.099 Y-21.692
X-15.067
X-14.288 Y-21.703
X-14.257 Y-21.704
X-13.467 Y-21.741
X-13.439 Y-21.742
X-12.64 Y-21.803
X-12.613 Y-21.805
X-11.808 Y-21.888
X-11.781 Y-21.891
X-10.973 Y-21.997
X-10.947 Y-22.001
X-10.139 Y-22.129
X-10.113 Y-22.134
X-9.309 Y-22.283
X-9.281 Y-22.289
X-8.486 Y-22.461
X-8.457 Y-22.468
X-7.674 Y-22.662
X-7.643 Y-22.67
X-6.879 Y-22.887
X-6.845 Y-22.898
X-6.103 Y-23.137
X-6.066 Y-23.15
X-5.352 Y-23.413
X-5.311 Y-23.43
X-4.631 Y-23.716
X-4.585 Y-23.737
X-3.943 Y-24.047
X-3.906 Y-24.066
X-3.6 Y-24.23
X-3.574 Y-24.244
X-3.28 Y-24.414
X-3.252 Y-24.431
X-2.97 Y-24.607
X-2.941 Y-24.626
X-2.671 Y-24.807
X-2.641 Y-24.829
X-2.384 Y-25.016
X-2.353 Y-25.04
X-2.11 Y-25.233
X-2.077 Y-25.26
X-1.849 Y-25.459
X-1.815 Y-25.49
X-1.602 Y-25.694
X-1.568 Y-25.728
X-1.369 Y-25.938
X-1.334 Y-25.976
X-1.152 Y-26.191
X-1.118 Y-26.233
X-0.951 Y-26.453
X-0.917 Y-26.499
X-0.767 Y-26.724
X-0.735 Y-26.775
X-0.601 Y-27.003
X-0.571 Y-27.059
X-0.455 Y-27.291
X-0.427 Y-27.351
X-0.328 Y-27.587
X-0.304 Y-27.65
X-0.223 Y-27.89
X-0.203 Y-27.956
X-0.139 Y-28.199
X-0.124 Y-28.268
X-0.078 Y-28.513
X-0.068 Y-28.583
X-0.04 Y-28.83
X-0.035 Y-28.901
X-0.026 Y-29.15
Y-29.221
X-0.034 Y-29.47
X-0.035 Y-29.49
X-0.04 Y-29.541 Z-0.502 F1016
X-0.067 Y-29.79 Z-0.511
X-0.076 Y-29.859 Z-0.513
X-0.122 Y-30.109 Z-0.522
X-0.136 Y-30.175 Z-0.524
X-0.199 Y-30.424 Z-0.533
X-0.217 Y-30.487 Z-0.535
X-0.298 Y-30.735 Z-0.545
X-0.32 Y-30.794 Z-0.547
X-0.418 Y-31.041 Z-0.556
X-0.442 Y-31.097 Z-0.558
X-0.558 Y-31.341 Z-0.568
X-0.585 Y-31.393 Z-0.57
X-0.718 Y-31.635 Z-0.579
X-0.746 Y-31.683 Z-0.581
X-0.896 Y-31.922 Z-0.591
X-0.925 Y-31.966 Z-0.593
X-1.091 Y-32.202 Z-0.603
X-1.121 Y-32.243 Z-0.605
X-1.303 Y-32.474 Z-0.615
X-1.334 Y-32.511 Z-0.617
X-1.532 Y-32.738 Z-0.627
X-1.563 Y-32.773 Z-0.629
X-1.776 Y-32.995 Z-0.64
X-1.807 Y-33.026 Z-0.641
X-2.034 Y-33.243 Z-0.652
X-2.065 Y-33.271 Z-0.654
X-2.306 Y-33.483 Z-0.665
X-2.337 Y-33.508 Z-0.666
X-2.592 Y-33.714 Z-0.678
X-2.622 Y-33.737 Z-0.679
X-2.89 Y-33.937 Z-0.691
X-2.919 Y-33.958 Z-0.692
X-3.2 Y-34.151 Z-0.704
X-3.229 Y-34.17 Z-0.705
X-3.521 Y-34.357 Z-0.717
X-3.549 Y-34.374 Z-0.718
X-3.853 Y-34.554 Z-0.731
X-3.881 Y-34.57 Z-0.732
X-4.196 Y-34.743 Z-0.744
X-4.222 Y-34.757 Z-0.745
X-4.547 Y-34.923 Z-0.758
X-4.573 Y-34.936 Z-0.759
X-4.908 Y-35.094 Z-0.772
X-4.933 Y-35.106 Z-0.773
X-5.277 Y-35.257 Z-0.786
X-5.302 Y-35.267 Z-0.787
X-5.654 Y-35.41 Z-0.8
X-5.678 Y-35.42 Z-0.801
X-6.038 Y-35.555 Z-0.815
X-6.073 Y-35.568 Z-0.816
X-6.814 Y-35.814 Z-0.843
X-6.858 Y-35.828 Z-0.845
X-7.622 Y-36.042 Z-0.873
X-7.665 Y-36.053 Z-0.874
X-8.448 Y-36.235 Z-0.902
X-8.489 Y-36.243 Z-0.904
X-9.285 Y-36.392 Z-0.932
X-9.325 Y-36.398 Z-0.933
X-10.131 Y-36.514 Z-0.962
X-10.169 Y-36.519 Z-0.963
X-10.979 Y-36.603 Z-0.991
X-11.016 Y-36.606 Z-0.993
X-11.222 Y-36.62 Z-1
X-11.827 Y-36.659 F2540
X-11.862 Y-36.661
X-12.67 Y-36.684
X-12.704 Y-36.685
X-13.506 Y-36.68
X-13.538
X-14.331 Y-36.649
X-14.361 Y-36.648
X-15.144 Y-36.593
X-15.172 Y-36.591
X-15.943 Y-36.515
X-15.969 Y-36.513
X-16.726 Y-36.418
X-16.75 Y-36.414
X-17.493 Y-36.303
X-17.514 Y-36.299
X-18.242 Y-36.173
X-18.262 Y-36.169
X-18.975 Y-36.03
X-18.992 Y-36.027
X-19.691 Y-35.877
X-19.712 Y-35.872
X-21.066 Y-35.55
X-21.087 Y-35.545
X-22.39 Y-35.204
X-22.401 Y-35.202
X-23.663 Y-34.856
X-24.893 Y-34.521
X-26.099 Y-34.206
X-27.304 Y-33.921
X-27.905 Y-33.792
X-28.515 Y-33.671
X-29.134 Y-33.56
X-29.764 Y-33.459
X-30.407 Y-33.368
X-31.066 Y-33.286
X-31.741 Y-33.214
X-32.435 Y-33.152
X-33.148 Y-33.099
X-33.878 Y-33.056
X-35.407 Y-32.994
X-37.011 Y-32.963
X-38.685 Y-32.96
X-40.419 Y-32.98
X-42.203 Y-33.017
X-44.021 Y-33.068
X-45.86 Y-33.126
X-47.704 Y-33.189
X-49.538 Y-33.251
X-49.539
X-51.349 Y-33.309
X-51.352 Y-33.31
X-53.126 Y-33.363
X-53.128
X-54.859 Y-33.411
X-54.861
X-56.541 Y-33.453
X-56.543
X-58.172 Y-33.491
X-58.173
X-59.751 Y-33.526
X-61.282 Y-33.559
X-62.77 Y-33.589
X-64.223 Y-33.617
X-64.225
X-65.649 Y-33.642
X-65.651
X-67.057 Y-33.665
X-67.059
X-68.454 Y-33.684
X-68.456
X-69.848 Y-33.7
X-69.851
X-71.248 Y-33.711
X-71.251
X-72.657 Y-33.719
X-72.661
X-74.081 Y-33.721
G2 X-74.772 Y-33.436 I-0.002 J0.975
G1 X-77.622 Y-30.586
G2 X-77.622 Y-27.793 I1.397 J1.397
G1 X-74.79 Y-24.961
G2 X-74.1 Y-24.675 I0.689 J-0.689
G1 X-72.679 Y-24.677
X-72.677
X-71.269 Y-24.682
X-71.267
X-69.87 Y-24.69
X-69.867
X-68.475 Y-24.702
X-68.472
X-67.077 Y-24.717
X-67.074
X-65.668 Y-24.735
X-65.666
X-64.24 Y-24.758
X-64.238
X-62.785 Y-24.783
X-62.783
X-61.295 Y-24.813
X-61.293
X-59.763 Y-24.847
X-59.761
X-58.183 Y-24.884
X-58.182
X-56.553 Y-24.924
X-54.87 Y-24.967
X-53.139 Y-25.013
X-51.363 Y-25.062
X-49.552 Y-25.111
X-47.718 Y-25.161
X-45.873 Y-25.209
X-44.033 Y-25.255
X-42.212 Y-25.294
X-40.426 Y-25.326
X-38.688 Y-25.345
X-37.011 Y-25.348
X-35.404 Y-25.329
X-33.873 Y-25.284
X-33.142 Y-25.25
X-32.43 Y-25.207
X-31.738 Y-25.153
X-31.066 Y-25.088
X-30.413 Y-25.011
X-29.776 Y-24.92
X-29.152 Y-24.816
X-28.541 Y-24.696
X-27.937 Y-24.562
X-27.339 Y-24.414
X-26.742 Y-24.252
X-26.148 Y-24.078
X-24.937 Y-23.696
X-23.704 Y-23.291
X-23.695 Y-23.289
X-22.429 Y-22.887
X-22.411 Y-22.881
X-21.765 Y-22.69
X-21.747 Y-22.685
X-21.089 Y-22.503
X-21.067 Y-22.498
X-20.397 Y-22.329
X-20.372 Y-22.323
X-19.689 Y-22.171
X-19.661 Y-22.165
X-18.964 Y-22.031
X-18.933 Y-22.026
X-18.221 Y-21.913
X-18.188 Y-21.909
X-17.463 Y-21.819
X-17.429 Y-21.815
X-16.689 Y-21.749
X-16.654 Y-21.747
X-15.9 Y-21.707
X-15.867 Y-21.706
X-15.099 Y-21.692
X-15.067
X-14.288 Y-21.703
X-14.257 Y-21.704
X-13.467 Y-21.741
X-13.439 Y-21.742
X-12.64 Y-21.803
X-12.613 Y-21.805
X-11.808 Y-21.888
X-11.781 Y-21.891
X-10.973 Y-21.997
X-10.947 Y-22.001
X-10.139 Y-22.129
X-10.113 Y-22.134
X-9.309 Y-22.283
X-9.281 Y-22.289
X-8.486 Y-22.461
X-8.457 Y-22.468
X-7.674 Y-22.662
X-7.643 Y-22.67
X-6.879 Y-22.887
X-6.845 Y-22.898
X-6.103 Y-23.137
X-6.066 Y-23.15
X-5.352 Y-23.413
X-5.311 Y-23.43
X-4.631 Y-23.716
X-4.585 Y-23.737
X-3.943 Y-24.047
X-3.906 Y-24.066
X-3.6 Y-24.23
X-3.574 Y-24.244
X-3.28 Y-24.414
X-3.252 Y-24.431
X-2.97 Y-24.607
X-2.941 Y-24.626
X-2.671 Y-24.807
X-2.641 Y-24.829
X-2.384 Y-25.016
X-2.353 Y-25.04
X-2.11 Y-25.233
X-2.077 Y-25.26
X-1.849 Y-25.459
X-1.815 Y-25.49
X-1.602 Y-25.694
X-1.568 Y-25.728
X-1.369 Y-25.938
X-1.334 Y-25.976
X-1.152 Y-26.191
X-1.118 Y-26.233
X-0.951 Y-26.453
X-0.917 Y-26.499
X-0.767 Y-26.724
X-0.735 Y-26.775
X-0.601 Y-27.003
X-0.571 Y-27.059
X-0.455 Y-27.291
X-0.427 Y-27.351
X-0.328 Y-27.587
X-0.304 Y-27.65
X-0.223 Y-27.89
X-0.203 Y-27.956
X-0.139 Y-28.199
X-0.124 Y-28.268
X-0.078 Y-28.513
X-0.068 Y-28.583
X-0.04 Y-28.83
X-0.035 Y-28.901
X-0.026 Y-29.15
Y-29.221
X-0.034 Y-29.47
X-0.04 Y-29.541
X-0.067 Y-29.79
X-0.076 Y-29.859
X-0.122 Y-30.109
X-0.136 Y-30.175
X-0.199 Y-30.424
X-0.217 Y-30.487
X-0.298 Y-30.735
X-0.32 Y-30.794
X-0.418 Y-31.041
X-0.442 Y-31.097
X-0.558 Y-31.341
X-0.585 Y-31.393
X-0.718 Y-31.635
X-0.746 Y-31.683
X-0.896 Y-31.922
X-0.925 Y-31.966
X-1.091 Y-32.202
X-1.121 Y-32.243
X-1.303 Y-32.474
X-1.334 Y-32.511
X-1.532 Y-32.738
X-1.563 Y-32.773
X-1.776 Y-32.995
X-1.807 Y-33.026
X-2.034 Y-33.243
X-2.065 Y-33.271
X-2.306 Y-33.483
X-2.337 Y-33.508
X-2.592 Y-33.714
X-2.622 Y-33.737
X-2.89 Y-33.937
X-2.919 Y-33.958
X-3.2 Y-34.151
X-3.229 Y-34.17
X-3.521 Y-34.357
X-3.549 Y-34.374
X-3.853 Y-34.554
X-3.881 Y-34.57
X-4.196 Y-34.743
X-4.222 Y-34.757
X-4.547 Y-34.923
X-4.573 Y-34.936
X-4.908 Y-35.094
X-4.933 Y-35.106
X-5.277 Y-35.257
X-5.302 Y-35.267
X-5.654 Y-35.41
X-5.678 Y-35.42
X-6.038 Y-35.555
X-6.073 Y-35.568
X-6.814 Y-35.814
X-6.858 Y-35.828
X-7.622 Y-36.042
X-7.665 Y-36.053
X-8.448 Y-36.235
X-8.489 Y-36.243
X-9.285 Y-36.392
X-9.325 Y-36.398
X-10.131 Y-36.514
X-10.169 Y-36.519
X-10.979 Y-36.603
X-11.016 Y-36.606
X-11.222 Y-36.62
G0 Z5
X-53.338 Y-45.675
Z1.5
G1 X-53.139 Y-45.68 Z1.493 F1016
X-51.363 Y-45.728 Z1.431
X-49.552 Y-45.778 Z1.368
X-47.718 Y-45.827 Z1.304
X-45.873 Y-45.876 Z1.239
X-44.033 Y-45.921 Z1.175
X-42.212 Y-45.961 Z1.111
X-40.426 Y-45.993 Z1.049
X-38.688 Y-46.012 Z0.988
X-37.011 Y-46.015 Z0.93
X-35.404 Y-45.996 Z0.874
X-33.873 Y-45.951 Z0.82
X-33.142 Y-45.917 Z0.795
X-32.43 Y-45.873 Z0.77
X-31.738 Y-45.82 Z0.745
X-31.066 Y-45.755 Z0.722
X-30.413 Y-45.678 Z0.699
X-29.776 Y-45.587 Z0.676
X-29.152 Y-45.482 Z0.654
X-28.54 Y-45.363 Z0.633
X-27.937 Y-45.229 Z0.611
X-27.339 Y-45.08 Z0.589
X-26.742 Y-44.918 Z0.568
X-26.148 Y-44.744 Z0.546
X-24.937 Y-44.362 Z0.502
X-23.704 Y-43.958 Z0.457
X-23.695 Y-43.955 Z0.456
X-22.429 Y-43.553 Z0.41
X-22.411 Y-43.548 Z0.409
X-21.765 Y-43.356 Z0.386
X-21.747 Y-43.351 Z0.385
X-21.089 Y-43.17 Z0.361
X-21.067 Y-43.164 Z0.36
X-20.397 Y-42.996 Z0.336
X-20.372 Y-42.99 Z0.335
X-19.689 Y-42.838 Z0.311
X-19.661 Y-42.832 Z0.31
X-18.964 Y-42.698 Z0.285
X-18.933 Y-42.693 Z0.284
X-18.221 Y-42.58 Z0.259
X-18.188 Y-42.575 Z0.258
X-17.463 Y-42.485 Z0.232
X-17.429 Y-42.482 Z0.231
X-16.689 Y-42.416 Z0.205
X-16.654 Y-42.414 Z0.204
X-15.9 Y-42.374 Z0.177
X-15.867 Y-42.373 Z0.176
X-15.099 Y-42.359 Z0.149
X-15.067 Z0.148
X-14.288 Y-42.37 Z0.121
X-14.257 Y-42.371 Z0.12
X-13.467 Y-42.407 Z0.092
X-13.439 Y-42.409 Z0.091
X-12.64 Y-42.469 Z0.063
X-12.613 Y-42.472
X-11.808 Y-42.555 Z0.034
X-11.782 Y-42.558 Z0.033
X-10.973 Y-42.664 Z0.005
X-10.947 Y-42.668 Z0.004
X-10.139 Y-42.796 Z-0.025
X-10.113 Y-42.8 Z-0.026
X-9.309 Y-42.95 Z-0.054
X-9.281 Y-42.956 Z-0.055
X-8.486 Y-43.128 Z-0.083
X-8.457 Y-43.134 Z-0.085
X-7.674 Y-43.329 Z-0.113
X-7.643 Y-43.337 Z-0.114
X-6.879 Y-43.554 Z-0.142
X-6.845 Y-43.564 Z-0.143
X-6.103 Y-43.804 Z-0.17
X-6.066 Y-43.817 Z-0.171
X-5.352 Y-44.08 Z-0.198
X-5.311 Y-44.096 Z-0.199
X-4.631 Y-44.383 Z-0.225
X-4.585 Y-44.403 Z-0.227
X-3.943 Y-44.713 Z-0.252
X-3.906 Y-44.732 Z-0.253
X-3.6 Y-44.896 Z-0.265
X-3.574 Y-44.911 Z-0.267
X-3.28 Y-45.081 Z-0.278
X-3.252 Y-45.098 Z-0.28
X-2.97 Y-45.273 Z-0.291
X-2.94 Y-45.292 Z-0.292
X-2.671 Y-45.474 Z-0.304
X-2.641 Y-45.495 Z-0.305
X-2.384 Y-45.683 Z-0.316
X-2.353 Y-45.707 Z-0.317
X-2.11 Y-45.9 Z-0.328
X-2.077 Y-45.927 Z-0.33
X-1.849 Y-46.126 Z-0.34
X-1.815 Y-46.156 Z-0.342
X-1.602 Y-46.36 Z-0.352
X-1.567 Y-46.395 Z-0.354
X-1.369 Y-46.604 Z-0.364
X-1.335 Y-46.643 Z-0.366
X-1.152 Y-46.857 Z-0.376
X-1.117 Y-46.9 Z-0.378
X-0.951 Y-47.119 Z-0.387
X-0.917 Y-47.166 Z-0.389
X-0.767 Y-47.39 Z-0.399
X-0.735 Y-47.441 Z-0.401
X-0.601 Y-47.67 Z-0.41
X-0.571 Y-47.725 Z-0.412
X-0.455 Y-47.958 Z-0.421
X-0.427 Y-48.018 Z-0.424
X-0.328 Y-48.254 Z-0.433
X-0.304 Y-48.317 Z-0.435
X-0.223 Y-48.557 Z-0.444
X-0.203 Y-48.623 Z-0.446
X-0.139 Y-48.865 Z-0.455
X-0.124 Y-48.934 Z-0.457
X-0.078 Y-49.179 Z-0.466
X-0.068 Y-49.25 Z-0.469
X-0.04 Y-49.497 Z-0.477
X-0.035 Y-49.568 Z-0.48
X-0.026 Y-49.816 Z-0.488
Y-49.888 Z-0.491
X-0.034 Y-50.137 Z-0.5
X-0.035 Y-50.148
X-0.04 Y-50.207 F2540
X-0.067 Y-50.457
X-0.076 Y-50.525
X-0.122 Y-50.775
X-0.136 Y-50.841
X-0.199 Y-51.09
X-0.217 Y-51.153
X-0.298 Y-51.401
X-0.32 Y-51.461
X-0.418 Y-51.708
X-0.442 Y-51.763
X-0.558 Y-52.008
X-0.585 Y-52.06
X-0.718 Y-52.302
X-0.746 Y-52.35
X-0.896 Y-52.589
X-0.925 Y-52.633
X-1.091 Y-52.869
X-1.121 Y-52.909
X-1.303 Y-53.141
X-1.334 Y-53.178
X-1.532 Y-53.405
X-1.563 Y-53.439
X-1.776 Y-53.661
X-1.807 Y-53.692
X-2.034 Y-53.91
X-2.065 Y-53.938
X-2.306 Y-54.149
X-2.337 Y-54.175
X-2.592 Y-54.381
X-2.622 Y-54.404
X-2.89 Y-54.604
X-2.919 Y-54.625
X-3.2 Y-54.818
X-3.229 Y-54.837
X-3.521 Y-55.024
X-3.549 Y-55.041
X-3.853 Y-55.221
X-3.881 Y-55.237
X-4.196 Y-55.41
X-4.222 Y-55.424
X-4.547 Y-55.59
X-4.573 Y-55.603
X-4.908 Y-55.761
X-4.933 Y-55.772
X-5.277 Y-55.923
X-5.302 Y-55.934
X-5.654 Y-56.077
X-5.678 Y-56.086
X-6.038 Y-56.222
X-6.073 Y-56.234
X-6.813 Y-56.481
X-6.858 Y-56.495
X-7.622 Y-56.709
X-7.665 Y-56.72
X-8.448 Y-56.901
X-8.489 Y-56.91
X-9.285 Y-57.058
X-9.325 Y-57.065
X-10.131 Y-57.181
X-10.169 Y-57.186
X-10.979 Y-57.27
X-11.016 Y-57.273
X-11.826 Y-57.326
X-11.862 Y-57.328
X-12.67 Y-57.351
X-12.704
X-13.506 Y-57.347
X-13.538 Y-57.346
X-14.331 Y-57.316
X-14.361 Y-57.314
X-15.144 Y-57.26
X-15.172 Y-57.258
X-15.943 Y-57.182
X-15.969 Y-57.179
X-16.726 Y-57.084
X-16.75 Y-57.081
X-17.492 Y-56.969
X-17.514 Y-56.966
X-18.242 Y-56.839
X-18.262 Y-56.836
X-18.975 Y-56.697
X-18.992 Y-56.693
X-19.69 Y-56.544
X-19.712 Y-56.539
X-21.066 Y-56.217
X-21.087 Y-56.212
X-22.39 Y-55.871
X-22.401 Y-55.868
X-23.663 Y-55.523
X-24.893 Y-55.187
X-26.099 Y-54.873
X-27.304 Y-54.587
X-27.905 Y-54.458
X-28.515 Y-54.338
X-29.134 Y-54.227
X-29.764 Y-54.126
X-30.407 Y-54.034
X-31.066 Y-53.953
X-31.741 Y-53.881
X-32.435 Y-53.819
X-33.148 Y-53.766
X-33.878 Y-53.723
X-35.407 Y-53.66
X-37.011 Y-53.63
X-38.685 Y-53.627
X-40.419 Y-53.646
X-42.203 Y-53.684
X-44.021 Y-53.734
X-45.86 Y-53.793
X-47.704 Y-53.855
X-49.538 Y-53.917
X-49.539
X-51.349 Y-53.976
X-51.352
X-53.126 Y-54.03
X-53.128
X-54.859 Y-54.078
X-54.861
X-56.541 Y-54.12
X-56.543
X-58.172 Y-54.158
X-58.173
X-59.751 Y-54.193
X-61.282 Y-54.225
X-62.77 Y-54.255
X-62.771
X-64.223 Y-54.283
X-64.225
X-65.649 Y-54.309
X-65.651
X-67.057 Y-54.331
X-67.059
X-68.454 Y-54.351
X-68.456
X-69.848 Y-54.366
X-69.851
X-71.248 Y-54.378
X-71.251
X-72.657 Y-54.385
X-72.661
X-74.081 Y-54.388
G2 X-74.772 Y-54.102 I-0.002 J0.975
G1 X-77.622 Y-51.252
G2 X-77.622 Y-48.459 I1.397 J1.397
G1 X-74.79 Y-45.628
G2 X-74.1 Y-45.342 I0.689 J-0.689
G1 X-72.679 Y-45.344
X-72.677
X-71.269 Y-45.349
X-71.267
X-69.87 Y-45.357
X-69.867
X-68.475 Y-45.368
X-68.472
X-67.077 Y-45.383
X-67.074
X-65.668 Y-45.402
X-65.666
X-64.24 Y-45.424
X-64.238
X-62.785 Y-45.45
X-62.783
X-61.295 Y-45.48
X-61.293
X-59.763 Y-45.513
X-59.761
X-58.183 Y-45.55
X-58.182
X-56.553 Y-45.59
X-56.552 Y-45.591
X-54.87 Y-45.634
X-53.139 Y-45.68
X-51.363 Y-45.728
X-49.552 Y-45.778
X-47.718 Y-45.827
X-45.873 Y-45.876
X-44.033 Y-45.921
X-42.212 Y-45.961
X-40.426 Y-45.993
X-38.688 Y-46.012
X-37.011 Y-46.015
X-35.404 Y-45.996
X-33.873 Y-45.951
X-33.142 Y-45.917
X-32.43 Y-45.873
X-31.738 Y-45.82
X-31.066 Y-45.755
X-30.413 Y-45.678
X-29.776 Y-45.587
X-29.152 Y-45.482
X-28.54 Y-45.363
X-27.937 Y-45.229
X-27.339 Y-45.08
X-26.742 Y-44.918
X-26.148 Y-44.744
X-24.937 Y-44.362
X-23.704 Y-43.958
X-23.695 Y-43.955
X-22.429 Y-43.553
X-22.411 Y-43.548
X-21.765 Y-43.356
X-21.747 Y-43.351
X-21.089 Y-43.17
X-21.067 Y-43.164
X-20.397 Y-42.996
X-20.372 Y-42.99
X-19.689 Y-42.838
X-19.661 Y-42.832
X-18.964 Y-42.698
X-18.933 Y-42.693
X-18.221 Y-42.58
X-18.188 Y-42.575
X-17.463 Y-42.485
X-17.429 Y-42.482
X-16.689 Y-42.416
X-16.654 Y-42.414
X-15.9 Y-42.374
X-15.867 Y-42.373
X-15.099 Y-42.359
X-15.067
X-14.288 Y-42.37
X-14.257 Y-42.371
X-13.467 Y-42.407
X-13.439 Y-42.409
X-12.64 Y-42.469
X-12.613 Y-42.472
X-11.808 Y-42.555
X-11.782 Y-42.558
X-10.973 Y-42.664
X-10.947 Y-42.668
X-10.139 Y-42.796
X-10.113 Y-42.8
X-9.309 Y-42.95
X-9.281 Y-42.956
X-8.486 Y-43.128
X-8.457 Y-43.134
X-7.674 Y-43.329
X-7.643 Y-43.337
X-6.879 Y-43.554
X-6.845 Y-43.564
X-6.103 Y-43.804
X-6.066 Y-43.817
X-5.352 Y-44.08
X-5.311 Y-44.096
X-4.631 Y-44.383
X-4.585 Y-44.403
X-3.943 Y-44.713
X-3.906 Y-44.732
X-3.6 Y-44.896
X-3.574 Y-44.911
X-3.28 Y-45.081
X-3.252 Y-45.098
X-2.97 Y-45.273
X-2.94 Y-45.292
X-2.671 Y-45.474
X-2.641 Y-45.495
X-2.384 Y-45.683
X-2.353 Y-45.707
X-2.11 Y-45.9
X-2.077 Y-45.927
X-1.849 Y-46.126
X-1.815 Y-46.156
X-1.602 Y-46.36
X-1.567 Y-46.395
X-1.369 Y-46.604
X-1.335 Y-46.643
X-1.152 Y-46.857
X-1.117 Y-46.9
X-0.951 Y-47.119
X-0.917 Y-47.166
X-0.767 Y-47.39
X-0.735 Y-47.441
X-0.601 Y-47.67
X-0.571 Y-47.725
X-0.455 Y-47.958
X-0.427 Y-48.018
X-0.328 Y-48.254
X-0.304 Y-48.317
X-0.223 Y-48.557
X-0.203 Y-48.623
X-0.139 Y-48.865
X-0.124 Y-48.934
X-0.078 Y-49.179
X-0.068 Y-49.25
X-0.04 Y-49.497
X-0.035 Y-49.568
X-0.026 Y-49.816
Y-49.888
X-0.034 Y-50.137
X-0.035 Y-50.148
G0 Z5
X-53.338 Y-45.675
Z1.5
G1 Z1 F508
X-53.139 Y-45.68 Z0.993 F1016
X-51.363 Y-45.728 Z0.931
X-49.552 Y-45.778 Z0.868
X-47.718 Y-45.827 Z0.804
X-45.873 Y-45.876 Z0.739
X-44.033 Y-45.921 Z0.675
X-42.212 Y-45.961 Z0.611
X-40.426 Y-45.993 Z0.549
X-38.688 Y-46.012 Z0.488
X-37.011 Y-46.015 Z0.43
X-35.404 Y-45.996 Z0.374
X-33.873 Y-45.951 Z0.32
X-33.142 Y-45.917 Z0.295
X-32.43 Y-45.873 Z0.27
X-31.738 Y-45.82 Z0.245
X-31.066 Y-45.755 Z0.222
X-30.413 Y-45.678 Z0.199
X-29.776 Y-45.587 Z0.176
X-29.152 Y-45.482 Z0.154
X-28.54 Y-45.363 Z0.133
X-27.937 Y-45.229 Z0.111
X-27.339 Y-45.08 Z0.089
X-26.742 Y-44.918 Z0.068
X-26.148 Y-44.744 Z0.046
X-24.937 Y-44.362 Z0.002
X-23.704 Y-43.958 Z-0.043
X-23.695 Y-43.955 Z-0.044
X-22.429 Y-43.553 Z-0.09
X-22.411 Y-43.548 Z-0.091
X-21.765 Y-43.356 Z-0.114
X-21.747 Y-43.351 Z-0.115
X-21.089 Y-43.17 Z-0.139
X-21.067 Y-43.164 Z-0.14
X-20.397 Y-42.996 Z-0.164
X-20.372 Y-42.99 Z-0.165
X-19.689 Y-42.838 Z-0.189
X-19.661 Y-42.832 Z-0.19
X-18.964 Y-42.698 Z-0.215
X-18.933 Y-42.693 Z-0.216
X-18.221 Y-42.58 Z-0.241
X-18.188 Y-42.575 Z-0.242
X-17.463 Y-42.485 Z-0.268
X-17.429 Y-42.482 Z-0.269
X-16.689 Y-42.416 Z-0.295
X-16.654 Y-42.414 Z-0.296
X-15.9 Y-42.374 Z-0.323
X-15.867 Y-42.373 Z-0.324
X-15.099 Y-42.359 Z-0.351
X-15.067 Z-0.352
X-14.288 Y-42.37 Z-0.379
X-14.257 Y-42.371 Z-0.38
X-13.467 Y-42.407 Z-0.408
X-13.439 Y-42.409 Z-0.409
X-12.64 Y-42.469 Z-0.437
X-12.613 Y-42.472
X-11.808 Y-42.555 Z-0.466
X-11.782 Y-42.558 Z-0.467
X-10.973 Y-42.664 Z-0.495
X-10.947 Y-42.668 Z-0.496
X-10.139 Y-42.796 Z-0.525
X-10.113 Y-42.8 Z-0.526
X-9.309 Y-42.95 Z-0.554
X-9.281 Y-42.956 Z-0.555
X-8.486 Y-43.128 Z-0.583
X-8.457 Y-43.134 Z-0.585
X-7.674 Y-43.329 Z-0.613
X-7.643 Y-43.337 Z-0.614
X-6.879 Y-43.554 Z-0.642
X-6.845 Y-43.564 Z-0.643
X-6.103 Y-43.804 Z-0.67
X-6.066 Y-43.817 Z-0.671
X-5.352 Y-44.08 Z-0.698
X-5.311 Y-44.096 Z-0.699
X-4.631 Y-44.383 Z-0.725
X-4.585 Y-44.403 Z-0.727
X-3.943 Y-44.713 Z-0.752
X-3.906 Y-44.732 Z-0.753
X-3.6 Y-44.896 Z-0.765
X-3.574 Y-44.911 Z-0.767
X-3.28 Y-45.081 Z-0.778
X-3.252 Y-45.098 Z-0.78
X-2.97 Y-45.273 Z-0.791
X-2.94 Y-45.292 Z-0.792
X-2.671 Y-45.474 Z-0.804
X-2.641 Y-45.495 Z-0.805
X-2.384 Y-45.683 Z-0.816
X-2.353 Y-45.707 Z-0.817
X-2.11 Y-45.9 Z-0.828
X-2.077 Y-45.927 Z-0.83
X-1.849 Y-46.126 Z-0.84
X-1.815 Y-46.156 Z-0.842
X-1.602 Y-46.36 Z-0.852
X-1.567 Y-46.395 Z-0.854
X-1.369 Y-46.604 Z-0.864
X-1.335 Y-46.643 Z-0.866
X-1.152 Y-46.857 Z-0.876
X-1.117 Y-46.9 Z-0.878
X-0.951 Y-47.119 Z-0.887
X-0.917 Y-47.166 Z-0.889
X-0.767 Y-47.39 Z-0.899
X-0.735 Y-47.441 Z-0.901
X-0.601 Y-47.67 Z-0.91
X-0.571 Y-47.725 Z-0.912
X-0.455 Y-47.958 Z-0.921
X-0.427 Y-48.018 Z-0.924
X-0.328 Y-48.254 Z-0.933
X-0.304 Y-48.317 Z-0.935
X-0.223 Y-48.557 Z-0.944
X-0.203 Y-48.623 Z-0.946
X-0.139 Y-48.865 Z-0.955
X-0.124 Y-48.934 Z-0.957
X-0.078 Y-49.179 Z-0.966
X-0.068 Y-49.25 Z-0.969
X-0.04 Y-49.497 Z-0.977
X-0.035 Y-49.568 Z-0.98
X-0.026 Y-49.816 Z-0.988
Y-49.888 Z-0.991
X-0.034 Y-50.137 Z-1
X-0.035 Y-50.148
X-0.04 Y-50.207 F2540
X-0.067 Y-50.457
X-0.076 Y-50.525
X-0.122 Y-50.775
X-0.136 Y-50.841
X-0.199 Y-51.09
X-0.217 Y-51.153
X-0.298 Y-51.401
X-0.32 Y-51.461
X-0.418 Y-51.708
X-0.442 Y-51.763
X-0.558 Y-52.008
X-0.585 Y-52.06
X-0.718 Y-52.302
X-0.746 Y-52.35
X-0.896 Y-52.589
X-0.925 Y-52.633
X-1.091 Y-52.869
X-1.121 Y-52.909
X-1.303 Y-53.141
X-1.334 Y-53.178
X-1.532 Y-53.405
X-1.563 Y-53.439
X-1.776 Y-53.661
X-1.807 Y-53.692
X-2.034 Y-53.91
X-2.065 Y-53.938
X-2.306 Y-54.149
X-2.337 Y-54.175
X-2.592 Y-54.381
X-2.622 Y-54.404
X-2.89 Y-54.604
X-2.919 Y-54.625
X-3.2 Y-54.818
X-3.229 Y-54.837
X-3.521 Y-55.024
X-3.549 Y-55.041
X-3.853 Y-55.221
X-3.881 Y-55.237
X-4.196 Y-55.41
X-4.222 Y-55.424
X-4.547 Y-55.59
X-4.573 Y-55.603
X-4.908 Y-55.761
X-4.933 Y-55.772
X-5.277 Y-55.923
X-5.302 Y-55.934
X-5.654 Y-56.077
X-5.678 Y-56.086
X-6.038 Y-56.222
X-6.073 Y-56.234
X-6.813 Y-56.481
X-6.858 Y-56.495
X-7.622 Y-56.709
X-7.665 Y-56.72
X-8.448 Y-56.901
X-8.489 Y-56.91
X-9.285 Y-57.058
X-9.325 Y-57.065
X-10.131 Y-57.181
X-10.169 Y-57.186
X-10.979 Y-57.27
X-11.016 Y-57.273
X-11.826 Y-57.326
X-11.862 Y-57.328
X-12.67 Y-57.351
X-12.704
X-13.506 Y-57.347
X-13.538 Y-57.346
X-14.331 Y-57.316
X-14.361 Y-57.314
X-15.144 Y-57.26
X-15.172 Y-57.258
X-15.943 Y-57.182
X-15.969 Y-57.179
X-16.726 Y-57.084
X-16.75 Y-57.081
X-17.492 Y-56.969
X-17.514 Y-56.966
X-18.242 Y-56.839
X-18.262 Y-56.836
X-18.975 Y-56.697
X-18.992 Y-56.693
X-19.69 Y-56.544
X-19.712 Y-56.539
X-21.066 Y-56.217
X-21.087 Y-56.212
X-22.39 Y-55.871
X-22.401 Y-55.868
X-23.663 Y-55.523
X-24.893 Y-55.187
X-26.099 Y-54.873
X-27.304 Y-54.587
X-27.905 Y-54.458
X-28.515 Y-54.338
X-29.134 Y-54.227
X-29.764 Y-54.126
X-30.407 Y-54.034
X-31.066 Y-53.953
X-31.741 Y-53.881
X-32.435 Y-53.819
X-33.148 Y-53.766
X-33.878 Y-53.723
X-35.407 Y-53.66
X-37.011 Y-53.63
X-38.685 Y-53.627
X-40.419 Y-53.646
X-42.203 Y-53.684
X-44.021 Y-53.734
X-45.86 Y-53.793
X-47.704 Y-53.855
X-49.538 Y-53.917
X-49.539
X-51.349 Y-53.976
X-51.352
X-53.126 Y-54.03
X-53.128
X-54.859 Y-54.078
X-54.861
X-56.541 Y-54.12
X-56.543
X-58.172 Y-54.158
X-58.173
X-59.751 Y-54.193
X-61.282 Y-54.225
X-62.77 Y-54.255
X-62.771
X-64.223 Y-54.283
X-64.225
X-65.649 Y-54.309
X-65.651
X-67.057 Y-54.331
X-67.059
X-68.454 Y-54.351
X-68.456
X-69.848 Y-54.366
X-69.851
X-71.248 Y-54.378
X-71.251
X-72.657 Y-54.385
X-72.661
X-74.081 Y-54.388
G2 X-74.772 Y-54.102 I-0.002 J0.975
G1 X-77.622 Y-51.252
G2 X-77.622 Y-48.459 I1.397 J1.397
G1 X-74.79 Y-45.628
G2 X-74.1 Y-45.342 I0.689 J-0.689
G1 X-72.679 Y-45.344
X-72.677
X-71.269 Y-45.349
X-71.267
X-69.87 Y-45.357
X-69.867
X-68.475 Y-45.368
X-68.472
X-67.077 Y-45.383
X-67.074
X-65.668 Y-45.402
X-65.666
X-64.24 Y-45.424
X-64.238
X-62.785 Y-45.45
X-62.783
X-61.295 Y-45.48
X-61.293
X-59.763 Y-45.513
X-59.761
X-58.183 Y-45.55
X-58.182
X-56.553 Y-45.59
X-56.552 Y-45.591
X-54.87 Y-45.634
X-53.139 Y-45.68
X-51.363 Y-45.728
X-49.552 Y-45.778
X-47.718 Y-45.827
X-45.873 Y-45.876
X-44.033 Y-45.921
X-42.212 Y-45.961
X-40.426 Y-45.993
X-38.688 Y-46.012
X-37.011 Y-46.015
X-35.404 Y-45.996
X-33.873 Y-45.951
X-33.142 Y-45.917
X-32.43 Y-45.873
X-31.738 Y-45.82
X-31.066 Y-45.755
X-30.413 Y-45.678
X-29.776 Y-45.587
X-29.152 Y-45.482
X-28.54 Y-45.363
X-27.937 Y-45.229
X-27.339 Y-45.08
X-26.742 Y-44.918
X-26.148 Y-44.744
X-24.937 Y-44.362
X-23.704 Y-43.958
X-23.695 Y-43.955
X-22.429 Y-43.553
X-22.411 Y-43.548
X-21.765 Y-43.356
X-21.747 Y-43.351
X-21.089 Y-43.17
X-21.067 Y-43.164
X-20.397 Y-42.996
X-20.372 Y-42.99
X-19.689 Y-42.838
X-19.661 Y-42.832
X-18.964 Y-42.698
X-18.933 Y-42.693
X-18.221 Y-42.58
X-18.188 Y-42.575
X-17.463 Y-42.485
X-17.429 Y-42.482
X-16.689 Y-42.416
X-16.654 Y-42.414
X-15.9 Y-42.374
X-15.867 Y-42.373
X-15.099 Y-42.359
X-15.067
X-14.288 Y-42.37
X-14.257 Y-42.371
X-13.467 Y-42.407
X-13.439 Y-42.409
X-12.64 Y-42.469
X-12.613 Y-42.472
X-11.808 Y-42.555
X-11.782 Y-42.558
X-10.973 Y-42.664
X-10.947 Y-42.668
X-10.139 Y-42.796
X-10.113 Y-42.8
X-9.309 Y-42.95
X-9.281 Y-42.956
X-8.486 Y-43.128
X-8.457 Y-43.134
X-7.674 Y-43.329
X-7.643 Y-43.337
X-6.879 Y-43.554
X-6.845 Y-43.564
X-6.103 Y-43.804
X-6.066 Y-43.817
X-5.352 Y-44.08
X-5.311 Y-44.096
X-4.631 Y-44.383
X-4.585 Y-44.403
X-3.943 Y-44.713
X-3.906 Y-44.732
X-3.6 Y-44.896
X-3.574 Y-44.911
X-3.28 Y-45.081
X-3.252 Y-45.098
X-2.97 Y-45.273
X-2.94 Y-45.292
X-2.671 Y-45.474
X-2.641 Y-45.495
X-2.384 Y-45.683
X-2.353 Y-45.707
X-2.11 Y-45.9
X-2.077 Y-45.927
X-1.849 Y-46.126
X-1.815 Y-46.156
X-1.602 Y-46.36
X-1.567 Y-46.395
X-1.369 Y-46.604
X-1.335 Y-46.643
X-1.152 Y-46.857
X-1.117 Y-46.9
X-0.951 Y-47.119
X-0.917 Y-47.166
X-0.767 Y-47.39
X-0.735 Y-47.441
X-0.601 Y-47.67
X-0.571 Y-47.725
X-0.455 Y-47.958
X-0.427 Y-48.018
X-0.328 Y-48.254
X-0.304 Y-48.317
X-0.223 Y-48.557
X-0.203 Y-48.623
X-0.139 Y-48.865
X-0.124 Y-48.934
X-0.078 Y-49.179
X-0.068 Y-49.25
X-0.04 Y-49.497
X-0.035 Y-49.568
X-0.026 Y-49.816
Y-49.888
X-0.034 Y-50.137
X-0.035 Y-50.148
G0 Z5
X-53.658 Y-66.333
Z1.5
G1 X-53.139 Y-66.347 Z1.482 F1016
X-51.363 Y-66.395 Z1.42
X-49.552 Y-66.444 Z1.357
X-47.718 Y-66.494 Z1.292
X-45.873 Y-66.543 Z1.228
X-44.033 Y-66.588 Z1.164
X-42.212 Y-66.628 Z1.1
X-40.426 Y-66.659 Z1.038
X-38.688 Y-66.679 Z0.977
X-37.011 Y-66.681 Z0.918
X-35.404 Y-66.663 Z0.862
X-33.873 Y-66.618 Z0.809
X-33.142 Y-66.583 Z0.783
X-32.43 Y-66.54 Z0.758
X-31.738 Y-66.487 Z0.734
X-31.066 Y-66.422 Z0.711
X-30.413 Y-66.344 Z0.688
X-29.776 Y-66.254 Z0.665
X-29.152 Y-66.149 Z0.643
X-28.54 Y-66.03 Z0.621
X-27.937 Y-65.896 Z0.6
X-27.339 Y-65.747 Z0.578
X-26.742 Y-65.585 Z0.557
X-26.148 Y-65.411 Z0.535
X-24.937 Y-65.029 Z0.491
X-23.704 Y-64.625 Z0.445
X-23.695 Y-64.622
X-22.429 Y-64.22 Z0.399
X-22.411 Y-64.215 Z0.398
X-21.765 Y-64.023 Z0.374
X-21.747 Y-64.018
X-21.089 Y-63.837 Z0.35
X-21.067 Y-63.831 Z0.349
X-20.397 Y-63.663 Z0.325
X-20.372 Y-63.657 Z0.324
X-19.689 Y-63.504 Z0.3
X-19.66 Y-63.498 Z0.299
X-18.963 Y-63.365 Z0.274
X-18.933 Y-63.359 Z0.273
X-18.221 Y-63.246 Z0.248
X-18.188 Y-63.242 Z0.247
X-17.463 Y-63.152 Z0.221
X-17.429 Y-63.148 Z0.22
X-16.689 Y-63.083 Z0.194
X-16.654 Y-63.08 Z0.193
X-15.9 Y-63.04 Z0.166
X-15.867 Y-63.039 Z0.165
X-15.099 Y-63.025 Z0.138
X-15.067 Z0.137
X-14.288 Y-63.037 Z0.11
X-14.257 Y-63.038 Z0.109
X-13.467 Y-63.074 Z0.081
X-13.439 Y-63.076 Z0.08
X-12.64 Y-63.136 Z0.052
X-12.613 Y-63.138 Z0.051
X-11.808 Y-63.222 Z0.023
X-11.781 Y-63.225 Z0.022
X-10.973 Y-63.331 Z-0.006
X-10.947 Y-63.334 Z-0.007
X-10.139 Y-63.462 Z-0.036
X-10.113 Y-63.467 Z-0.037
X-9.309 Y-63.617 Z-0.065
X-9.281 Y-63.622 Z-0.066
X-8.486 Y-63.794 Z-0.095
X-8.457 Y-63.801 Z-0.096
X-7.674 Y-63.995 Z-0.124
X-7.643 Y-64.004 Z-0.125
X-6.879 Y-64.221 Z-0.153
X-6.845 Y-64.231 Z-0.154
X-6.103 Y-64.471 Z-0.181
X-6.066 Y-64.484 Z-0.183
X-5.352 Y-64.747 Z-0.209
X-5.311 Y-64.763 Z-0.211
X-4.631 Y-65.049 Z-0.236
X-4.585 Y-65.07 Z-0.238
X-3.943 Y-65.38 Z-0.263
X-3.906 Y-65.399 Z-0.265
X-3.6 Y-65.563 Z-0.277
X-3.574 Y-65.578 Z-0.278
X-3.28 Y-65.748 Z-0.29
X-3.252 Y-65.764 Z-0.291
X-2.97 Y-65.94 Z-0.302
X-2.941 Y-65.959 Z-0.304
X-2.671 Y-66.14 Z-0.315
X-2.641 Y-66.162 Z-0.316
X-2.384 Y-66.349 Z-0.327
X-2.353 Y-66.373 Z-0.329
X-2.11 Y-66.567 Z-0.34
X-2.077 Y-66.594 Z-0.341
X-1.849 Y-66.792 Z-0.352
X-1.815 Y-66.823 Z-0.353
X-1.602 Y-67.027 Z-0.363
X-1.567 Y-67.062 Z-0.365
X-1.369 Y-67.271 Z-0.375
X-1.335 Y-67.309 Z-0.377
X-1.152 Y-67.524 Z-0.387
X-1.117 Y-67.567 Z-0.389
X-0.951 Y-67.786 Z-0.398
X-0.917 Y-67.833 Z-0.4
X-0.767 Y-68.057 Z-0.41
X-0.735 Y-68.108 Z-0.412
X-0.601 Y-68.337 Z-0.421
X-0.571 Y-68.392 Z-0.423
X-0.455 Y-68.625 Z-0.433
X-0.427 Y-68.684 Z-0.435
X-0.328 Y-68.921 Z-0.444
X-0.304 Y-68.984 Z-0.446
X-0.223 Y-69.223 Z-0.455
X-0.203 Y-69.29 Z-0.457
X-0.139 Y-69.532 Z-0.466
X-0.124 Y-69.601 Z-0.469
X-0.078 Y-69.846 Z-0.477
X-0.068 Y-69.916 Z-0.48
X-0.04 Y-70.163 Z-0.488
X-0.035 Y-70.235 Z-0.491
X-0.026 Y-70.483 Z-0.5
X-0.025 Y-70.494
X-0.026 Y-70.554 F2540
X-0.034 Y-70.804
X-0.04 Y-70.874
X-0.067 Y-71.124
X-0.076 Y-71.192
X-0.122 Y-71.442
X-0.136 Y-71.508
X-0.199 Y-71.757
X-0.217 Y-71.82
X-0.298 Y-72.068
X-0.32 Y-72.128
X-0.418 Y-72.374
X-0.442 Y-72.43
X-0.558 Y-72.675
X-0.585 Y-72.726
X-0.718 Y-72.968
X-0.746 Y-73.017
X-0.896 Y-73.256
X-0.925 Y-73.3
X-1.091 Y-73.535
X-1.121 Y-73.576
X-1.303 Y-73.807
X-1.334 Y-73.845
X-1.532 Y-74.072
X-1.563 Y-74.106
X-1.776 Y-74.328
X-1.807 Y-74.359
X-2.034 Y-74.576
X-2.065 Y-74.604
X-2.306 Y-74.816
X-2.337 Y-74.841
X-2.592 Y-75.047
X-2.622 Y-75.071
X-2.89 Y-75.27
X-2.919 Y-75.291
X-3.2 Y-75.485
X-3.229 Y-75.504
X-3.521 Y-75.691
X-3.549 Y-75.708
X-3.853 Y-75.888
X-3.881 Y-75.903
X-4.196 Y-76.076
X-4.222 Y-76.091
X-4.548 Y-76.256
X-4.573 Y-76.269
X-4.908 Y-76.428
X-4.933 Y-76.439
X-5.277 Y-76.59
X-5.302 Y-76.6
X-5.654 Y-76.744
X-5.678 Y-76.753
X-6.038 Y-76.888
X-6.073 Y-76.901
X-6.814 Y-77.148
X-6.858 Y-77.161
X-7.622 Y-77.376
X-7.665 Y-77.387
X-8.448 Y-77.568
X-8.489 Y-77.577
X-9.285 Y-77.725
X-9.325 Y-77.732
X-10.131 Y-77.848
X-10.169 Y-77.852
X-10.979 Y-77.936
X-11.016 Y-77.94
X-11.826 Y-77.993
X-11.862 Y-77.994
X-12.67 Y-78.018
X-12.704
X-13.506 Y-78.014
X-13.538 Y-78.013
X-14.331 Y-77.983
X-14.361 Y-77.981
X-15.144 Y-77.927
X-15.172 Y-77.925
X-15.943 Y-77.849
X-15.969 Y-77.846
X-16.726 Y-77.751
X-16.75 Y-77.748
X-17.493 Y-77.636
X-17.514 Y-77.632
X-18.242 Y-77.506
X-18.262 Y-77.502
X-18.975 Y-77.364
X-18.992 Y-77.36
X-19.69 Y-77.211
X-19.712 Y-77.206
X-21.066 Y-76.884
X-21.087 Y-76.878
X-22.39 Y-76.538
X-22.4 Y-76.535
X-23.663 Y-76.19
X-24.893 Y-75.854
X-26.099 Y-75.54
X-27.304 Y-75.254
X-27.905 Y-75.125
X-28.515 Y-75.004
X-29.134 Y-74.893
X-29.764 Y-74.792
X-30.407 Y-74.701
X-31.066 Y-74.619
X-31.741 Y-74.548
X-32.435 Y-74.486
X-33.148 Y-74.433
X-33.878 Y-74.389
X-35.407 Y-74.327
X-37.011 Y-74.297
X-38.685 Y-74.294
X-40.419 Y-74.313
X-42.203 Y-74.351
X-44.021 Y-74.401
X-45.86 Y-74.46
X-47.704 Y-74.522
X-49.538 Y-74.584
X-49.539
X-51.349 Y-74.643
X-51.352
X-53.126 Y-74.696
X-53.128
X-54.859 Y-74.744
X-54.861
X-56.541 Y-74.787
X-56.543
X-58.172 Y-74.825
X-58.173
X-59.751 Y-74.86
X-61.281 Y-74.892
X-62.77 Y-74.922
X-62.771
X-64.223 Y-74.95
X-64.225
X-65.649 Y-74.975
X-65.651
X-67.057 Y-74.998
X-67.059
X-68.454 Y-75.017
X-68.456
X-69.848 Y-75.033
X-69.851
X-71.248 Y-75.045
X-71.251
X-72.657 Y-75.052
X-72.661
X-74.081 Y-75.054
G2 X-74.772 Y-74.769 I-0.002 J0.975
G1 X-77.622 Y-71.919
G2 X-77.622 Y-69.126 I1.397 J1.397
G1 X-74.79 Y-66.294
G2 X-74.1 Y-66.009 I0.689 J-0.689
G1 X-72.679 Y-66.01
X-72.677
X-71.269 Y-66.015
X-71.267
X-69.87 Y-66.023
X-69.867
X-68.475 Y-66.035
X-68.472
X-67.077 Y-66.05
X-67.074
X-65.668 Y-66.069
X-65.666
X-64.24 Y-66.091
X-64.238
X-62.785 Y-66.117
X-62.783
X-61.295 Y-66.146
X-61.293 Y-66.147
X-59.763 Y-66.18
X-59.761
X-58.183 Y-66.217
X-58.182
X-56.553 Y-66.257
X-56.552
X-54.87 Y-66.301
X-53.139 Y-66.347
X-51.363 Y-66.395
X-49.552 Y-66.444
X-47.718 Y-66.494
X-45.873 Y-66.543
X-44.033 Y-66.588
X-42.212 Y-66.628
X-40.426 Y-66.659
X-38.688 Y-66.679
X-37.011 Y-66.681
X-35.404 Y-66.663
X-33.873 Y-66.618
X-33.142 Y-66.583
X-32.43 Y-66.54
X-31.738 Y-66.487
X-31.066 Y-66.422
X-30.413 Y-66.344
X-29.776 Y-66.254
X-29.152 Y-66.149
X-28.54 Y-66.03
X-27.937 Y-65.896
X-27.339 Y-65.747
X-26.742 Y-65.585
X-26.148 Y-65.411
X-24.937 Y-65.029
X-23.704 Y-64.625
X-23.695 Y-64.622
X-22.429 Y-64.22
X-22.411 Y-64.215
X-21.765 Y-64.023
X-21.747 Y-64.018
X-21.089 Y-63.837
X-21.067 Y-63.831
X-20.397 Y-63.663
X-20.372 Y-63.657
X-19.689 Y-63.504
X-19.66 Y-63.498
X-18.963 Y-63.365
X-18.933 Y-63.359
X-18.221 Y-63.246
X-18.188 Y-63.242
X-17.463 Y-63.152
X-17.429 Y-63.148
X-16.689 Y-63.083
X-16.654 Y-63.08
X-15.9 Y-63.04
X-15.867 Y-63.039
X-15.099 Y-63.025
X-15.067
X-14.288 Y-63.037
X-14.257 Y-63.038
X-13.467 Y-63.074
X-13.439 Y-63.076
X-12.64 Y-63.136
X-12.613 Y-63.138
X-11.808 Y-63.222
X-11.781 Y-63.225
X-10.973 Y-63.331
X-10.947 Y-63.334
X-10.139 Y-63.462
X-10.113 Y-63.467
X-9.309 Y-63.617
X-9.281 Y-63.622
X-8.486 Y-63.794
X-8.457 Y-63.801
X-7.674 Y-63.995
X-7.643 Y-64.004
X-6.879 Y-64.221
X-6.845 Y-64.231
X-6.103 Y-64.471
X-6.066 Y-64.484
X-5.352 Y-64.747
X-5.311 Y-64.763
X-4.631 Y-65.049
X-4.585 Y-65.07
X-3.943 Y-65.38
X-3.906 Y-65.399
X-3.6 Y-65.563
X-3.574 Y-65.578
X-3.28 Y-65.748
X-3.252 Y-65.764
X-2.97 Y-65.94
X-2.941 Y-65.959
X-2.671 Y-66.14
X-2.641 Y-66.162
X-2.384 Y-66.349
X-2.353 Y-66.373
X-2.11 Y-66.567
X-2.077 Y-66.594
X-1.849 Y-66.792
X-1.815 Y-66.823
X-1.602 Y-67.027
X-1.567 Y-67.062
X-1.369 Y-67.271
X-1.335 Y-67.309
X-1.152 Y-67.524
X-1.117 Y-67.567
X-0.951 Y-67.786
X-0.917 Y-67.833
X-0.767 Y-68.057
X-0.735 Y-68.108
X-0.601 Y-68.337
X-0.571 Y-68.392
X-0.455 Y-68.625
X-0.427 Y-68.684
X-0.328 Y-68.921
X-0.304 Y-68.984
X-0.223 Y-69.223
X-0.203 Y-69.29
X-0.139 Y-69.532
X-0.124 Y-69.601
X-0.078 Y-69.846
X-0.068 Y-69.916
X-0.04 Y-70.163
X-0.035 Y-70.235
X-0.026 Y-70.483
X-0.025 Y-70.494
X-0.026 Y-70.554 Z-0.502 F1016
X-0.034 Y-70.804 Z-0.511
X-0.04 Y-70.874 Z-0.513
X-0.067 Y-71.124 Z-0.522
X-0.076 Y-71.192 Z-0.524
X-0.122 Y-71.442 Z-0.533
X-0.136 Y-71.508 Z-0.536
X-0.199 Y-71.757 Z-0.545
X-0.217 Y-71.82 Z-0.547
X-0.298 Y-72.068 Z-0.556
X-0.32 Y-72.128 Z-0.558
X-0.418 Y-72.374 Z-0.568
X-0.442 Y-72.43 Z-0.57
X-0.558 Y-72.675 Z-0.579
X-0.585 Y-72.726 Z-0.581
X-0.718 Y-72.968 Z-0.591
X-0.746 Y-73.017 Z-0.593
X-0.896 Y-73.256 Z-0.603
X-0.925 Y-73.3 Z-0.604
X-1.091 Y-73.535 Z-0.615
X-1.121 Y-73.576 Z-0.616
X-1.303 Y-73.807 Z-0.627
X-1.334 Y-73.845 Z-0.628
X-1.532 Y-74.072 Z-0.639
X-1.563 Y-74.106 Z-0.64
X-1.776 Y-74.328 Z-0.651
X-1.807 Y-74.359 Z-0.653
X-2.034 Y-74.576 Z-0.664
X-2.065 Y-74.604 Z-0.665
X-2.306 Y-74.816 Z-0.676
X-2.337 Y-74.841 Z-0.678
X-2.592 Y-75.047 Z-0.689
X-2.622 Y-75.071 Z-0.69
X-2.89 Y-75.27 Z-0.702
X-2.919 Y-75.291 Z-0.703
X-3.2 Y-75.485 Z-0.715
X-3.229 Y-75.504 Z-0.717
X-3.521 Y-75.691 Z-0.729
X-3.549 Y-75.708 Z-0.73
X-3.853 Y-75.888 Z-0.742
X-3.881 Y-75.903 Z-0.743
X-4.196 Y-76.076 Z-0.756
X-4.222 Y-76.091 Z-0.757
X-4.548 Y-76.256 Z-0.77
X-4.573 Y-76.269 Z-0.771
X-4.908 Y-76.428 Z-0.784
X-4.933 Y-76.439
X-5.277 Y-76.59 Z-0.798
X-5.302 Y-76.6 Z-0.799
X-5.654 Y-76.744 Z-0.812
X-5.678 Y-76.753 Z-0.813
X-6.038 Y-76.888 Z-0.826
X-6.073 Y-76.901 Z-0.827
X-6.814 Y-77.148 Z-0.855
X-6.858 Y-77.161 Z-0.856
X-7.622 Y-77.376 Z-0.884
X-7.665 Y-77.387 Z-0.886
X-8.448 Y-77.568 Z-0.914
X-8.489 Y-77.577 Z-0.915
X-9.285 Y-77.725 Z-0.943
X-9.325 Y-77.732 Z-0.945
X-10.131 Y-77.848 Z-0.973
X-10.169 Y-77.852 Z-0.975
X-10.894 Y-77.928 Z-1
X-10.979 Y-77.936 F2540
X-11.016 Y-77.94
X-11.826 Y-77.993
X-11.862 Y-77.994
X-12.67 Y-78.018
X-12.704
X-13.506 Y-78.014
X-13.538 Y-78.013
X-14.331 Y-77.983
X-14.361 Y-77.981
X-15.144 Y-77.927
X-15.172 Y-77.925
X-15.943 Y-77.849
X-15.969 Y-77.846
X-16.726 Y-77.751
X-16.75 Y-77.748
X-17.493 Y-77.636
X-17.514 Y-77.632
X-18.242 Y-77.506
X-18.262 Y-77.502
X-18.975 Y-77.364
X-18.992 Y-77.36
X-19.69 Y-77.211
X-19.712 Y-77.206
X-21.066 Y-76.884
X-21.087 Y-76.878
X-22.39 Y-76.538
X-22.4 Y-76.535
X-23.663 Y-76.19
X-24.893 Y-75.854
X-26.099 Y-75.54
X-27.304 Y-75.254
X-27.905 Y-75.125
X-28.515 Y-75.004
X-29.134 Y-74.893
X-29.764 Y-74.792
X-30.407 Y-74.701
X-31.066 Y-74.619
X-31.741 Y-74.548
X-32.435 Y-74.486
X-33.148 Y-74.433
X-33.878 Y-74.389
X-35.407 Y-74.327
X-37.011 Y-74.297
X-38.685 Y-74.294
X-40.419 Y-74.313
X-42.203 Y-74.351
X-44.021 Y-74.401
X-45.86 Y-74.46
X-47.704 Y-74.522
X-49.538 Y-74.584
X-49.539
X-51.349 Y-74.643
X-51.352
X-53.126 Y-74.696
X-53.128
X-54.859 Y-74.744
X-54.861
X-56.541 Y-74.787
X-56.543
X-58.172 Y-74.825
X-58.173
X-59.751 Y-74.86
X-61.281 Y-74.892
X-62.77 Y-74.922
X-62.771
X-64.223 Y-74.95
X-64.225
X-65.649 Y-74.975
X-65.651
X-67.057 Y-74.998
X-67.059
X-68.454 Y-75.017
X-68.456
X-69.848 Y-75.033
X-69.851
X-71.248 Y-75.045
X-71.251
X-72.657 Y-75.052
X-72.661
X-74.081 Y-75.054
G2 X-74.772 Y-74.769 I-0.002 J0.975
G1 X-77.622 Y-71.919
G2 X-77.622 Y-69.126 I1.397 J1.397
G1 X-74.79 Y-66.294
G2 X-74.1 Y-66.009 I0.689 J-0.689
G1 X-72.679 Y-66.01
X-72.677
X-71.269 Y-66.015
X-71.267
X-69.87 Y-66.023
X-69.867
X-68.475 Y-66.035
X-68.472
X-67.077 Y-66.05
X-67.074
X-65.668 Y-66.069
X-65.666
X-64.24 Y-66.091
X-64.238
X-62.785 Y-66.117
X-62.783
X-61.295 Y-66.146
X-61.293 Y-66.147
X-59.763 Y-66.18
X-59.761
X-58.183 Y-66.217
X-58.182
X-56.553 Y-66.257
X-56.552
X-54.87 Y-66.301
X-53.139 Y-66.347
X-51.363 Y-66.395
X-49.552 Y-66.444
X-47.718 Y-66.494
X-45.873 Y-66.543
X-44.033 Y-66.588
X-42.212 Y-66.628
X-40.426 Y-66.659
X-38.688 Y-66.679
X-37.011 Y-66.681
X-35.404 Y-66.663
X-33.873 Y-66.618
X-33.142 Y-66.583
X-32.43 Y-66.54
X-31.738 Y-66.487
X-31.066 Y-66.422
X-30.413 Y-66.344
X-29.776 Y-66.254
X-29.152 Y-66.149
X-28.54 Y-66.03
X-27.937 Y-65.896
X-27.339 Y-65.747
X-26.742 Y-65.585
X-26.148 Y-65.411
X-24.937 Y-65.029
X-23.704 Y-64.625
X-23.695 Y-64.622
X-22.429 Y-64.22
X-22.411 Y-64.215
X-21.765 Y-64.023
X-21.747 Y-64.018
X-21.089 Y-63.837
X-21.067 Y-63.831
X-20.397 Y-63.663
X-20.372 Y-63.657
X-19.689 Y-63.504
X-19.66 Y-63.498
X-18.963 Y-63.365
X-18.933 Y-63.359
X-18.221 Y-63.246
X-18.188 Y-63.242
X-17.463 Y-63.152
X-17.429 Y-63.148
X-16.689 Y-63.083
X-16.654 Y-63.08
X-15.9 Y-63.04
X-15.867 Y-63.039
X-15.099 Y-63.025
X-15.067
X-14.288 Y-63.037
X-14.257 Y-63.038
X-13.467 Y-63.074
X-13.439 Y-63.076
X-12.64 Y-63.136
X-12.613 Y-63.138
X-11.808 Y-63.222
X-11.781 Y-63.225
X-10.973 Y-63.331
X-10.947 Y-63.334
X-10.139 Y-63.462
X-10.113 Y-63.467
X-9.309 Y-63.617
X-9.281 Y-63.622
X-8.486 Y-63.794
X-8.457 Y-63.801
X-7.674 Y-63.995
X-7.643 Y-64.004
X-6.879 Y-64.221
X-6.845 Y-64.231
X-6.103 Y-64.471
X-6.066 Y-64.484
X-5.352 Y-64.747
X-5.311 Y-64.763
X-4.631 Y-65.049
X-4.585 Y-65.07
X-3.943 Y-65.38
X-3.906 Y-65.399
X-3.6 Y-65.563
X-3.574 Y-65.578
X-3.28 Y-65.748
X-3.252 Y-65.764
X-2.97 Y-65.94
X-2.941 Y-65.959
X-2.671 Y-66.14
X-2.641 Y-66.162
X-2.384 Y-66.349
X-2.353 Y-66.373
X-2.11 Y-66.567
X-2.077 Y-66.594
X-1.849 Y-66.792
X-1.815 Y-66.823
X-1.602 Y-67.027
X-1.567 Y-67.062
X-1.369 Y-67.271
X-1.335 Y-67.309
X-1.152 Y-67.524
X-1.117 Y-67.567
X-0.951 Y-67.786
X-0.917 Y-67.833
X-0.767 Y-68.057
X-0.735 Y-68.108
X-0.601 Y-68.337
X-0.571 Y-68.392
X-0.455 Y-68.625
X-0.427 Y-68.684
X-0.328 Y-68.921
X-0.304 Y-68.984
X-0.223 Y-69.223
X-0.203 Y-69.29
X-0.139 Y-69.532
X-0.124 Y-69.601
X-0.078 Y-69.846
X-0.068 Y-69.916
X-0.04 Y-70.163
X-0.035 Y-70.235
X-0.026 Y-70.483
Y-70.554
X-0.034 Y-70.804
X-0.04 Y-70.874
X-0.067 Y-71.124
X-0.076 Y-71.192
X-0.122 Y-71.442
X-0.136 Y-71.508
X-0.199 Y-71.757
X-0.217 Y-71.82
X-0.298 Y-72.068
X-0.32 Y-72.128
X-0.418 Y-72.374
X-0.442 Y-72.43
X-0.558 Y-72.675
X-0.585 Y-72.726
X-0.718 Y-72.968
X-0.746 Y-73.017
X-0.896 Y-73.256
X-0.925 Y-73.3
X-1.091 Y-73.535
X-1.121 Y-73.576
X-1.303 Y-73.807
X-1.334 Y-73.845
X-1.532 Y-74.072
X-1.563 Y-74.106
X-1.776 Y-74.328
X-1.807 Y-74.359
X-2.034 Y-74.576
X-2.065 Y-74.604
X-2.306 Y-74.816
X-2.337 Y-74.841
X-2.592 Y-75.047
X-2.622 Y-75.071
X-2.89 Y-75.27
X-2.919 Y-75.291
X-3.2 Y-75.485
X-3.229 Y-75.504
X-3.521 Y-75.691
X-3.549 Y-75.708
X-3.853 Y-75.888
X-3.881 Y-75.903
X-4.196 Y-76.076
X-4.222 Y-76.091
X-4.548 Y-76.256
X-4.573 Y-76.269
X-4.908 Y-76.428
X-4.933 Y-76.439
X-5.277 Y-76.59
X-5.302 Y-76.6
X-5.654 Y-76.744
X-5.678 Y-76.753
X-6.038 Y-76.888
X-6.073 Y-76.901
X-6.814 Y-77.148
X-6.858 Y-77.161
X-7.622 Y-77.376
X-7.665 Y-77.387
X-8.448 Y-77.568
X-8.489 Y-77.577
X-9.285 Y-77.725
X-9.325 Y-77.732
X-10.131 Y-77.848
X-10.169 Y-77.852
X-10.894 Y-77.928
G0 Z5
X-48.228 Y-80.694
Z1.5
G2 X-41.779 Y-80.559 Z1.248 I3.29 J-3.034 F1016
G1 X-40.752 Y-81.559 Z1.198
X-40.27 Y-82.008 Z1.175
X-39.804 Y-82.428 Z1.153
X-39.355 Y-82.819 Z1.133
X-38.924 Y-83.18 Z1.113
X-38.51 Y-83.512 Z1.094
X-38.113 Y-83.815 Z1.077
X-37.734 Y-84.09 Z1.061
X-37.372 Y-84.337 Z1.045
X-37.027 Y-84.557 Z1.031
X-36.699 Y-84.751 Z1.018
X-36.388 Y-84.92 Z1.005
X-36.093 Y-85.064 Z0.994
X-35.816 Y-85.186 Z0.983
X-35.555 Y-85.285 Z0.974
X-35.31 Y-85.364 Z0.965
X-35.081 Y-85.425 Z0.956
X-34.866 Y-85.467 Z0.949
X-34.665 Y-85.494 Z0.942
X-34.476 Y-85.507 Z0.935
X-34.298 Z0.929
X-34.129 Y-85.495 Z0.923
X-33.967 Y-85.473 Z0.917
X-33.81 Y-85.44 Z0.912
X-33.656 Y-85.397 Z0.906
X-33.504 Y-85.343 Z0.9
X-33.352 Y-85.28 Z0.895
X-33.2 Y-85.207 Z0.889
X-33.056 Y-85.128 Z0.883
X-32.734 Y-84.924 Z0.87
X-32.414 Y-84.69 Z0.856
X-32.085 Y-84.424 Z0.841
X-31.743 Y-84.132 Z0.825
X-31.389 Y-83.821 Z0.809
X-31.385 Y-83.818
X-31.02 Y-83.502 Z0.792
X-31.006 Y-83.49 Z0.791
X-30.63 Y-83.177 Z0.774
X-30.605 Y-83.157 Z0.773
X-30.215 Y-82.854 Z0.756
X-30.179 Y-82.827 Z0.754
X-29.771 Y-82.539 Z0.737
X-29.725 Y-82.508 Z0.735
X-29.296 Y-82.24 Z0.717
X-29.239 Y-82.208 Z0.715
X-28.785 Y-81.965 Z0.697
X-28.738 Y-81.941 Z0.695
X-28.501 Y-81.83 Z0.686
X-28.466 Y-81.815 Z0.685
X-28.222 Y-81.712 Z0.675
X-28.186 Y-81.698 Z0.674
X-27.934 Y-81.603 Z0.665
X-27.897 Y-81.59 Z0.663
X-27.637 Y-81.504 Z0.654
X-27.6 Y-81.493 Z0.652
X-27.331 Y-81.416 Z0.643
X-27.294 Y-81.406 Z0.641
X-27.017 Y-81.339 Z0.631
X-26.979 Y-81.331 Z0.63
X-26.694 Y-81.273 Z0.62
X-26.656 Y-81.266 Z0.618
X-26.362 Y-81.219 Z0.608
X-26.325 Y-81.214 Z0.607
X-26.022 Y-81.176 Z0.596
X-25.986 Y-81.173 Z0.595
X-25.674 Y-81.146 Z0.584
X-25.64 Y-81.144 Z0.583
X-25.318 Y-81.128 Z0.571
X-25.285 Y-81.127 Z0.57
X-24.954 Y-81.121 Z0.559
X-24.923 Z0.558
X-24.592 Y-81.127 Z0.546
X-24.559 Y-81.128 Z0.545
X-24.237 Y-81.144 Z0.534
X-24.203 Y-81.146 Z0.532
X-23.891 Y-81.173 Z0.521
X-23.855 Y-81.176 Z0.52
X-23.551 Y-81.214 Z0.51
X-23.515 Y-81.219 Z0.508
X-23.221 Y-81.266 Z0.498
X-23.183 Y-81.273 Z0.497
X-22.898 Y-81.331 Z0.486
X-22.86 Y-81.339 Z0.485
X-22.583 Y-81.406 Z0.475
X-22.545 Y-81.416 Z0.474
X-22.277 Y-81.493 Z0.464
X-22.24 Y-81.504 Z0.463
X-21.98 Y-81.59 Z0.453
X-21.943 Y-81.603 Z0.452
X-21.691 Y-81.698 Z0.442
X-21.655 Y-81.712 Z0.441
X-21.411 Y-81.815 Z0.432
X-21.376 Y-81.83 Z0.43
X-21.139 Y-81.941 Z0.421
X-21.091 Y-81.965 Z0.419
X-20.637 Y-82.208 Z0.401
X-20.581 Y-82.24 Z0.399
X-20.152 Y-82.508 Z0.381
X-20.106 Y-82.539 Z0.379
X-19.698 Y-82.827 Z0.362
X-19.662 Y-82.854 Z0.36
X-19.272 Y-83.157 Z0.343
X-19.246 Y-83.177 Z0.342
X-18.871 Y-83.49 Z0.325
X-18.857 Y-83.502 Z0.324
X-18.492 Y-83.818 Z0.308
X-18.488 Y-83.821 Z0.307
X-18.134 Y-84.132 Z0.291
X-17.792 Y-84.424 Z0.275
X-17.462 Y-84.69 Z0.26
X-17.143 Y-84.924 Z0.247
X-16.821 Y-85.128 Z0.233
X-16.677 Y-85.207 Z0.228
X-16.525 Y-85.28 Z0.222
X-16.373 Y-85.343 Z0.216
X-16.22 Y-85.397 Z0.21
X-16.067 Y-85.44 Z0.205
X-15.909 Y-85.473 Z0.199
X-15.747 Y-85.495 Z0.193
X-15.578 Y-85.507 Z0.187
X-15.4 Z0.181
X-15.212 Y-85.494 Z0.175
X-15.011 Y-85.467 Z0.168
X-14.796 Y-85.425 Z0.16
X-14.567 Y-85.364 Z0.152
X-14.322 Y-85.285 Z0.143
X-14.061 Y-85.186 Z0.133
X-13.783 Y-85.064 Z0.122
X-13.489 Y-84.92 Z0.111
X-13.178 Y-84.751 Z0.098
X-12.85 Y-84.557 Z0.085
X-12.505 Y-84.337 Z0.071
X-12.143 Y-84.09 Z0.056
X-11.763 Y-83.815 Z0.039
X-11.367 Y-83.512 Z0.022
X-10.953 Y-83.18 Z0.003
X-10.521 Y-82.819 Z-0.016
X-10.073 Y-82.428 Z-0.037
X-9.606 Y-82.008 Z-0.059
X-9.125 Y-81.559 Z-0.082
X-8.098 Y-80.559 Z-0.132
G2 X-0.463 Y-83.724 Z-0.5 I3.16 J-3.169
X-1.77 Y-86.888 I-4.475 J-0.003 F2540
G1 X-2.855 Y-87.998
X-3.343 Y-88.517
X-3.8 Y-89.018
X-4.225 Y-89.498
X-4.617 Y-89.958
X-4.978 Y-90.398
X-5.307 Y-90.817
X-5.606 Y-91.217
X-5.874 Y-91.596
X-6.114 Y-91.956
X-6.324 Y-92.296
X-6.507 Y-92.616
X-6.663 Y-92.916
X-6.794 Y-93.197
X-6.901 Y-93.459
X-6.985 Y-93.7
X-7.048 Y-93.924
X-7.092 Y-94.128
X-7.119 Y-94.316
X-7.131 Y-94.488
X-7.13 Y-94.646
X-7.118 Y-94.793
X-7.095 Y-94.931
X-7.061 Y-95.064
X-7.018 Y-95.193
X-6.965 Y-95.32
X-6.9 Y-95.448
X-6.824 Y-95.578
X-6.743 Y-95.7
X-6.526 Y-95.981
X-6.274 Y-96.261
X-5.984 Y-96.553
X-5.663 Y-96.86
X-5.323 Y-97.179
X-5.315 Y-97.186
X-4.97 Y-97.518
X-4.951 Y-97.536
X-4.61 Y-97.882
X-4.581 Y-97.912
X-4.25 Y-98.277
X-4.215 Y-98.319
X-3.9 Y-98.707
X-3.86 Y-98.761
X-3.568 Y-99.177
X-3.537 Y-99.224
X-3.401 Y-99.444
X-3.381 Y-99.479
X-3.252 Y-99.708
X-3.232 Y-99.745
X-3.111 Y-99.983
X-3.094 Y-100.019
X-2.981 Y-100.265
X-2.964 Y-100.307
X-2.86 Y-100.564
X-2.845 Y-100.604
X-2.752 Y-100.871
X-2.738 Y-100.912
X-2.655 Y-101.189
X-2.643 Y-101.23
X-2.57 Y-101.518
X-2.56 Y-101.559
X-2.498 Y-101.858
X-2.49 Y-101.898
X-2.438 Y-102.209
X-2.433 Y-102.247
X-2.392 Y-102.569
X-2.388 Y-102.606
X-2.359 Y-102.94
X-2.357 Y-102.976
X-2.339 Y-103.321
X-2.338 Y-103.354
X-2.332 Y-103.711
Y-103.743
X-2.338 Y-104.101
X-2.339 Y-104.134
X-2.357 Y-104.479
X-2.359 Y-104.515
X-2.388 Y-104.849
X-2.392 Y-104.886
X-2.433 Y-105.208
X-2.438 Y-105.246
X-2.49 Y-105.556
X-2.498 Y-105.596
X-2.56 Y-105.895
X-2.569 Y-105.935
X-2.643 Y-106.224
X-2.655 Y-106.266
X-2.738 Y-106.543
X-2.752 Y-106.584
X-2.845 Y-106.851
X-2.861 Y-106.892
X-2.964 Y-107.148
X-2.981 Y-107.187
X-3.093 Y-107.434
X-3.111 Y-107.472
X-3.232 Y-107.71
X-3.252 Y-107.748
X-3.381 Y-107.976
X-3.4 Y-108.008
X-3.536 Y-108.229
X-3.568 Y-108.278
X-3.861 Y-108.694
X-3.9 Y-108.747
X-4.214 Y-109.136
X-4.25 Y-109.178
X-4.581 Y-109.543
X-4.609 Y-109.573
X-4.951 Y-109.919
X-4.97 Y-109.938
X-5.316 Y-110.269
X-5.323 Y-110.276
X-5.663 Y-110.595
X-5.984 Y-110.901
X-6.274 Y-111.194
X-6.526 Y-111.474
X-6.743 Y-111.754
X-6.824 Y-111.877
X-6.9 Y-112.007
X-6.965 Y-112.135
X-7.018 Y-112.262
X-7.061 Y-112.391
X-7.095 Y-112.524
X-7.118 Y-112.662
X-7.13 Y-112.809
X-7.131 Y-112.967
X-7.119 Y-113.139
X-7.092 Y-113.327
X-7.048 Y-113.531
X-6.985 Y-113.754
X-6.901 Y-113.997
X-6.795 Y-114.257
X-6.664 Y-114.538
X-6.507 Y-114.839
X-6.324 Y-115.159
X-6.114 Y-115.499
X-5.874 Y-115.858
X-5.606 Y-116.239
X-5.307 Y-116.638
X-4.978 Y-117.056
X-4.617 Y-117.496
X-4.224 Y-117.957
X-3.8 Y-118.437
X-3.343 Y-118.937
X-2.855 Y-119.458
X-1.77 Y-120.568
G2 X-8.098 Y-126.896 I-3.169 J-3.16
G1 X-9.125 Y-125.896
X-9.606 Y-125.448
X-10.073 Y-125.026
X-10.522 Y-124.635
X-10.953 Y-124.274
X-11.367 Y-123.943
X-11.764 Y-123.639
X-12.143 Y-123.365
X-12.505 Y-123.118
X-12.851 Y-122.898
X-13.178 Y-122.704
X-13.489 Y-122.536
X-13.783 Y-122.391
X-14.061 Y-122.27
X-14.323 Y-122.17
X-14.567 Y-122.09
X-14.796 Y-122.03
X-15.011 Y-121.987
X-15.211 Y-121.961
X-15.4 Y-121.948
X-15.579
X-15.748 Y-121.959
X-15.91 Y-121.982
X-16.066 Y-122.014
X-16.219 Y-122.058
X-16.374 Y-122.112
X-16.525 Y-122.175
X-16.675 Y-122.248
X-16.821 Y-122.328
X-17.143 Y-122.531
X-17.462 Y-122.764
X-17.792 Y-123.031
X-18.134 Y-123.323
X-18.488 Y-123.634
X-18.492 Y-123.637
X-18.857 Y-123.953
X-18.872 Y-123.966
X-19.247 Y-124.278
X-19.271 Y-124.297
X-19.661 Y-124.601
X-19.698 Y-124.628
X-20.106 Y-124.916
X-20.153 Y-124.948
X-20.582 Y-125.215
X-20.637 Y-125.247
X-21.091 Y-125.49
X-21.138 Y-125.513
X-21.375 Y-125.624
X-21.41 Y-125.64
X-21.655 Y-125.743
X-21.689 Y-125.756
X-21.941 Y-125.851
X-21.982 Y-125.866
X-22.243 Y-125.951
X-22.276 Y-125.961
X-22.545 Y-126.038
X-22.584 Y-126.049
X-22.861 Y-126.116
X-22.896 Y-126.123
X-23.182 Y-126.181
X-23.222 Y-126.189
X-23.516 Y-126.236
X-23.549 Y-126.24
X-23.852 Y-126.278
X-23.892 Y-126.283
X-24.205 Y-126.309
X-24.237 Y-126.311
X-24.559 Y-126.327
X-24.59 Y-126.328
X-24.921 Y-126.334
X-24.956
X-25.287 Y-126.328
X-25.318 Y-126.327
X-25.639 Y-126.311
X-25.672 Y-126.309
X-25.984 Y-126.283
X-26.025 Y-126.278
X-26.328 Y-126.24
X-26.36 Y-126.236
X-26.655 Y-126.189
X-26.695 Y-126.181
X-26.981 Y-126.123
X-27.016 Y-126.116
X-27.293 Y-126.049
X-27.332 Y-126.038
X-27.6 Y-125.961
X-27.634 Y-125.951
X-27.894 Y-125.866
X-27.935 Y-125.851
X-28.187 Y-125.756
X-28.222 Y-125.743
X-28.467 Y-125.64
X-28.501 Y-125.624
X-28.739 Y-125.513
X-28.786 Y-125.49
X-29.24 Y-125.247
X-29.294 Y-125.215
X-29.724 Y-124.948
X-29.771 Y-124.916
X-30.179 Y-124.628
X-30.216 Y-124.601
X-30.606 Y-124.297
X-30.629 Y-124.278
X-31.005 Y-123.966
X-31.02 Y-123.953
X-31.385 Y-123.637
X-31.389 Y-123.634
X-31.743 Y-123.323
X-32.085 Y-123.03
X-32.415 Y-122.764
X-32.733 Y-122.531
X-33.055 Y-122.328
X-33.201 Y-122.248
X-33.352 Y-122.175
X-33.503 Y-122.112
X-33.658 Y-122.058
X-33.811 Y-122.014
X-33.966 Y-121.982
X-34.129 Y-121.959
X-34.297 Y-121.948
X-34.477
X-34.666 Y-121.961
X-34.866 Y-121.987
X-35.081 Y-122.03
X-35.31 Y-122.09
X-35.554 Y-122.17
X-35.816 Y-122.27
X-36.094 Y-122.391
X-36.388 Y-122.536
X-36.699 Y-122.704
X-37.026 Y-122.898
X-37.372 Y-123.118
X-37.734 Y-123.365
X-38.113 Y-123.639
X-38.51 Y-123.943
X-38.924 Y-124.274
X-39.355 Y-124.635
X-39.804 Y-125.026
X-40.271 Y-125.448
X-40.752 Y-125.896
X-41.779 Y-126.896
G2 X-48.107 Y-120.568 I-3.159 J3.169
G1 X-47.022 Y-119.458
X-46.534 Y-118.937
X-46.077 Y-118.437
X-45.652 Y-117.957
X-45.26 Y-117.496
X-44.899 Y-117.056
X-44.569 Y-116.638
X-44.271 Y-116.239
X-44.002 Y-115.858
X-43.763 Y-115.499
X-43.553 Y-115.159
X-43.37 Y-114.839
X-43.213 Y-114.538
X-43.082 Y-114.257
X-42.976 Y-113.997
X-42.892 Y-113.754
X-42.829 Y-113.531
X-42.785 Y-113.327
X-42.757 Y-113.139
X-42.745 Y-112.967
X-42.746 Y-112.809
X-42.759 Y-112.662
X-42.782 Y-112.524
X-42.816 Y-112.391
X-42.859 Y-112.262
X-42.912 Y-112.135
X-42.976 Y-112.007
X-43.053 Y-111.877
X-43.134 Y-111.754
X-43.351 Y-111.474
X-43.603 Y-111.194
X-43.893 Y-110.901
X-44.214 Y-110.595
X-44.554 Y-110.276
X-44.561 Y-110.269
X-44.907 Y-109.938
X-44.926 Y-109.919
X-45.267 Y-109.573
X-45.296 Y-109.543
X-45.626 Y-109.178
X-45.662 Y-109.136
X-45.977 Y-108.747
X-46.016 Y-108.694
X-46.308 Y-108.278
X-46.34 Y-108.23
X-46.477 Y-108.009
X-46.496 Y-107.977
X-46.624 Y-107.749
X-46.645 Y-107.71
X-46.766 Y-107.472
X-46.784 Y-107.435
X-46.896 Y-107.188
X-46.913 Y-107.148
X-47.016 Y-106.892
X-47.031 Y-106.851
X-47.125 Y-106.584
X-47.139 Y-106.543
X-47.222 Y-106.266
X-47.234 Y-106.224
X-47.307 Y-105.935
X-47.317 Y-105.895
X-47.379 Y-105.596
X-47.387 Y-105.556
X-47.438 Y-105.246
X-47.444 Y-105.208
X-47.485 Y-104.886
X-47.489 Y-104.849
X-47.518 Y-104.515
X-47.52 Y-104.479
X-47.538 Y-104.134
X-47.539 Y-104.101
X-47.544 Y-103.743
Y-103.711
X-47.539 Y-103.354
X-47.538 Y-103.321
X-47.52 Y-102.976
X-47.518 Y-102.94
X-47.489 Y-102.606
X-47.485 Y-102.569
X-47.444 Y-102.247
X-47.438 Y-102.209
X-47.387 Y-101.898
X-47.379 Y-101.858
X-47.317 Y-101.559
X-47.307 Y-101.518
X-47.234 Y-101.23
X-47.222 Y-101.189
X-47.139 Y-100.912
X-47.125 Y-100.871
X-47.031 Y-100.604
X-47.016 Y-100.564
X-46.913 Y-100.307
X-46.895 Y-100.265
X-46.783 Y-100.019
X-46.766 Y-99.983
X-46.645 Y-99.745
X-46.625 Y-99.708
X-46.496 Y-99.479
X-46.476 Y-99.444
X-46.339 Y-99.224
X-46.309 Y-99.177
X-46.016 Y-98.761
X-45.976 Y-98.707
X-45.662 Y-98.319
X-45.626 Y-98.277
X-45.296 Y-97.912
X-45.267 Y-97.882
X-44.926 Y-97.536
X-44.907 Y-97.518
X-44.562 Y-97.186
X-44.554 Y-97.179
X-44.214 Y-96.86
X-43.893 Y-96.553
X-43.603 Y-96.261
X-43.351 Y-95.981
X-43.134 Y-95.7
X-43.052 Y-95.578
X-42.977 Y-95.448
X-42.912 Y-95.32
X-42.859 Y-95.193
X-42.815 Y-95.064
X-42.782 Y-94.931
X-42.759 Y-94.793
X-42.746 Y-94.646
X-42.745 Y-94.488
X-42.757 Y-94.316
X-42.785 Y-94.128
X-42.829 Y-93.924
X-42.892 Y-93.701
X-42.976 Y-93.458
X-43.082 Y-93.197
X-43.213 Y-92.916
X-43.37 Y-92.616
X-43.553 Y-92.296
X-43.763 Y-91.956
X-44.002 Y-91.596
X-44.271 Y-91.217
X-44.57 Y-90.817
X-44.899 Y-90.398
X-45.26 Y-89.958
X-45.652 Y-89.498
X-46.077 Y-89.018
X-46.534 Y-88.517
X-47.022 Y-87.998
X-48.107 Y-86.888
G2 X-41.779 Y-80.559 I3.168 J3.16
G1 X-40.752 Y-81.559
X-40.27 Y-82.008
X-39.804 Y-82.428
X-39.355 Y-82.819
X-38.924 Y-83.18
X-38.51 Y-83.512
X-38.113 Y-83.815
X-37.734 Y-84.09
X-37.372 Y-84.337
X-37.027 Y-84.557
X-36.699 Y-84.751
X-36.388 Y-84.92
X-36.093 Y-85.064
X-35.816 Y-85.186
X-35.555 Y-85.285
X-35.31 Y-85.364
X-35.081 Y-85.425
X-34.866 Y-85.467
X-34.665 Y-85.494
X-34.476 Y-85.507
X-34.298
X-34.129 Y-85.495
X-33.967 Y-85.473
X-33.81 Y-85.44
X-33.656 Y-85.397
X-33.504 Y-85.343
X-33.352 Y-85.28
X-33.2 Y-85.207
X-33.056 Y-85.128
X-32.734 Y-84.924
X-32.414 Y-84.69
X-32.085 Y-84.424
X-31.743 Y-84.132
X-31.389 Y-83.821
X-31.385 Y-83.818
X-31.02 Y-83.502
X-31.006 Y-83.49
X-30.63 Y-83.177
X-30.605 Y-83.157
X-30.215 Y-82.854
X-30.179 Y-82.827
X-29.771 Y-82.539
X-29.725 Y-82.508
X-29.296 Y-82.24
X-29.239 Y-82.208
X-28.785 Y-81.965
X-28.738 Y-81.941
X-28.501 Y-81.83
X-28.466 Y-81.815
X-28.222 Y-81.712
X-28.186 Y-81.698
X-27.934 Y-81.603
X-27.897 Y-81.59
X-27.637 Y-81.504
X-27.6 Y-81.493
X-27.331 Y-81.416
X-27.294 Y-81.406
X-27.017 Y-81.339
X-26.979 Y-81.331
X-26.694 Y-81.273
X-26.656 Y-81.266
X-26.362 Y-81.219
X-26.325 Y-81.214
X-26.022 Y-81.176
X-25.986 Y-81.173
X-25.674 Y-81.146
X-25.64 Y-81.144
X-25.318 Y-81.128
X-25.285 Y-81.127
X-24.954 Y-81.121
X-24.923
X-24.592 Y-81.127
X-24.559 Y-81.128
X-24.237 Y-81.144
X-24.203 Y-81.146
X-23.891 Y-81.173
X-23.855 Y-81.176
X-23.551 Y-81.214
X-23.515 Y-81.219
X-23.221 Y-81.266
X-23.183 Y-81.273
X-22.898 Y-81.331
X-22.86 Y-81.339
X-22.583 Y-81.406
X-22.545 Y-81.416
X-22.277 Y-81.493
X-22.24 Y-81.504
X-21.98 Y-81.59
X-21.943 Y-81.603
X-21.691 Y-81.698
X-21.655 Y-81.712
X-21.411 Y-81.815
X-21.376 Y-81.83
X-21.139 Y-81.941
X-21.091 Y-81.965
X-20.637 Y-82.208
X-20.581 Y-82.24
X-20.152 Y-82.508
X-20.106 Y-82.539
X-19.698 Y-82.827
X-19.662 Y-82.854
X-19.272 Y-83.157
X-19.246 Y-83.177
X-18.871 Y-83.49
X-18.857 Y-83.502
X-18.492 Y-83.818
X-18.488 Y-83.821
X-18.134 Y-84.132
X-17.792 Y-84.424
X-17.462 Y-84.69
X-17.143 Y-84.924
X-16.821 Y-85.128
X-16.677 Y-85.207
X-16.525 Y-85.28
X-16.373 Y-85.343
X-16.22 Y-85.397
X-16.067 Y-85.44
X-15.909 Y-85.473
X-15.747 Y-85.495
X-15.578 Y-85.507
X-15.4
X-15.212 Y-85.494
X-15.011 Y-85.467
X-14.796 Y-85.425
X-14.567 Y-85.364
X-14.322 Y-85.285
X-14.061 Y-85.186
X-13.783 Y-85.064
X-13.489 Y-84.92
X-13.178 Y-84.751
X-12.85 Y-84.557
X-12.505 Y-84.337
X-12.143 Y-84.09
X-11.763 Y-83.815
X-11.367 Y-83.512
X-10.953 Y-83.18
X-10.521 Y-82.819
X-10.073 Y-82.428
X-9.606 Y-82.008
X-9.125 Y-81.559
X-8.098 Y-80.559
G2 X-0.463 Y-83.724 I3.16 J-3.169
G0 Z5
X-50.667 Y-64.184
Z1.5
G1 Z1 F508
X-51.182 Y-64.17 Z0.982 F1016
X-52.957 Y-64.122 Z0.92
X-54.768 Y-64.073 Z0.857
X-56.602 Y-64.023 Z0.793
X-58.447 Y-63.974 Z0.728
X-60.287 Y-63.929 Z0.664
X-62.108 Y-63.889 Z0.6
X-63.895 Y-63.858 Z0.538
X-65.633 Y-63.838 Z0.477
X-67.31 Y-63.836 Z0.419
X-68.916 Y-63.854 Z0.363
X-70.447 Y-63.899 Z0.309
X-71.178 Y-63.934 Z0.284
X-71.89 Y-63.977 Z0.259
X-72.582 Y-64.03 Z0.234
X-73.254 Y-64.095 Z0.211
X-73.908 Y-64.173 Z0.188
X-74.545 Y-64.263 Z0.165
X-75.168 Y-64.368 Z0.143
X-75.78 Y-64.487 Z0.122
X-76.383 Y-64.621 Z0.1
X-76.982 Y-64.77 Z0.078
X-77.578 Y-64.932 Z0.057
X-78.172 Y-65.106 Z0.035
X-79.383 Y-65.488 Z-0.009
X-80.617 Y-65.892 Z-0.054
X-80.625 Y-65.895 Z-0.055
X-81.891 Y-66.297 Z-0.101
X-81.909 Y-66.302 Z-0.102
X-82.556 Y-66.494 Z-0.125
X-82.573 Y-66.499 Z-0.126
X-83.231 Y-66.68 Z-0.15
X-83.253 Y-66.686 Z-0.151
X-83.923 Y-66.854 Z-0.175
X-83.948 Y-66.86 Z-0.176
X-84.631 Y-67.013 Z-0.2
X-84.66 Y-67.018 Z-0.201
X-85.357 Y-67.152 Z-0.226
X-85.388 Y-67.158 Z-0.227
X-86.099 Y-67.271 Z-0.252
X-86.132 Y-67.275 Z-0.253
X-86.858 Y-67.365 Z-0.279
X-86.892 Y-67.369 Z-0.28
X-87.632 Y-67.434 Z-0.306
X-87.666 Y-67.437 Z-0.307
X-88.42 Y-67.477 Z-0.334
X-88.454 Y-67.478 Z-0.335
X-89.221 Y-67.492 Z-0.362
X-89.253 Z-0.363
X-90.033 Y-67.48 Z-0.39
X-90.063 Y-67.479 Z-0.391
X-90.853 Y-67.443 Z-0.419
X-90.882 Y-67.441 Z-0.42
X-91.681 Y-67.381 Z-0.448
X-91.708 Y-67.379
X-92.513 Y-67.295 Z-0.477
X-92.539 Y-67.292 Z-0.478
X-93.347 Y-67.186 Z-0.506
X-93.373 Y-67.183 Z-0.507
X-94.181 Y-67.055 Z-0.536
X-94.208 Y-67.05 Z-0.537
X-95.012 Y-66.9 Z-0.565
X-95.039 Y-66.895 Z-0.566
X-95.835 Y-66.723 Z-0.594
X-95.863 Y-66.716 Z-0.596
X-96.646 Y-66.522 Z-0.624
X-96.677 Y-66.513 Z-0.625
X-97.442 Y-66.296 Z-0.653
X-97.476 Y-66.286 Z-0.654
X-98.217 Y-66.046 Z-0.681
X-98.254 Y-66.033 Z-0.682
X-98.968 Y-65.77 Z-0.709
X-99.009 Y-65.754 Z-0.71
X-99.69 Y-65.468 Z-0.736
X-99.735 Y-65.447 Z-0.738
X-100.378 Y-65.137 Z-0.763
X-100.415 Y-65.118 Z-0.764
X-100.72 Y-64.954 Z-0.776
X-100.747 Y-64.939 Z-0.778
X-101.041 Y-64.77 Z-0.789
X-101.069 Y-64.753 Z-0.791
X-101.351 Y-64.577 Z-0.802
X-101.38 Y-64.558 Z-0.803
X-101.649 Y-64.376 Z-0.815
X-101.678 Y-64.356 Z-0.816
X-101.935 Y-64.168 Z-0.827
X-101.969 Y-64.143 Z-0.829
X-102.211 Y-63.95 Z-0.839
X-102.242 Y-63.924 Z-0.841
X-102.471 Y-63.725 Z-0.851
X-102.507 Y-63.693 Z-0.853
X-102.72 Y-63.489 Z-0.863
X-102.752 Y-63.456 Z-0.865
X-102.951 Y-63.247 Z-0.875
X-102.986 Y-63.208 Z-0.877
X-103.169 Y-62.993 Z-0.887
X-103.205 Y-62.949 Z-0.889
X-103.371 Y-62.729 Z-0.898
X-103.402 Y-62.686 Z-0.9
X-103.553 Y-62.462 Z-0.91
X-103.587 Y-62.407 Z-0.912
X-103.72 Y-62.179 Z-0.921
X-103.748 Y-62.126 Z-0.923
X-103.865 Y-61.894 Z-0.932
X-103.893 Y-61.832 Z-0.935
X-103.992 Y-61.596 Z-0.944
X-104.017 Y-61.532 Z-0.946
X-104.098 Y-61.292 Z-0.955
X-104.117 Y-61.229 Z-0.957
X-104.181 Y-60.986 Z-0.966
X-104.196 Y-60.917 Z-0.968
X-104.242 Y-60.673 Z-0.977
X-104.253 Y-60.599 Z-0.98
X-104.28 Y-60.352 Z-0.988
X-104.285 Y-60.281 Z-0.991
X-104.294 Y-60.033 Z-0.999
X-104.295 Y-60.017 Z-1
X-104.294 Y-59.966 F2540
X-104.286 Y-59.717
X-104.281 Y-59.639
X-104.253 Y-59.39
X-104.244 Y-59.325
X-104.199 Y-59.076
X-104.184 Y-59.01
X-104.121 Y-58.76
X-104.103 Y-58.697
X-104.022 Y-58.449
X-104.001 Y-58.391
X-103.903 Y-58.144
X-103.878 Y-58.086
X-103.762 Y-57.842
X-103.735 Y-57.79
X-103.602 Y-57.548
X-103.575 Y-57.502
X-103.426 Y-57.263
X-103.396 Y-57.217
X-103.23 Y-56.982
X-103.199 Y-56.941
X-103.017 Y-56.71
X-102.986 Y-56.671
X-102.788 Y-56.444
X-102.757 Y-56.411
X-102.544 Y-56.188
X-102.514 Y-56.158
X-102.287 Y-55.941
X-102.256 Y-55.913
X-102.015 Y-55.702
X-101.983 Y-55.675
X-101.727 Y-55.469
X-101.699 Y-55.447
X-101.431 Y-55.247
X-101.401 Y-55.226
X-101.12 Y-55.032
X-101.093 Y-55.014
X-100.801 Y-54.827
X-100.771 Y-54.809
X-100.466 Y-54.629
X-100.44 Y-54.614
X-100.125 Y-54.441
X-100.098 Y-54.426
