(1001)
(T14  D=1.5 CR=0 - ZMIN=-1.2 - Schaftfraser)
G90 G94
G17
G21
G28 G91 Z0
G90

(2D-Kontur3)
T14
S6000 M3
G54
G0 X-29.034 Y-15.706
Z15
Z5
G1 Z1.25 F300
Z-0.1
X-29.026 Y-15.705 Z-0.146 F400
X-29.005 Y-15.702 Z-0.188
X-28.972 Y-15.698 Z-0.221
X-28.931 Y-15.692 Z-0.243
X-28.885 Y-15.686 Z-0.25
X-28.736 Y-15.666
X-28.692 Y-15.652
X-28.653 Y-15.626
X-28.625 Y-15.588
X-28.609 Y-15.544
X-28.608 Y-15.497
X-28.652 Y-15.174 F600
X-28.657 Y-15.127
X-28.681 Y-14.798
X-28.683 Y-14.775
X-28.697 Y-14.442
Y-14.379
X-28.684 Y-14.041
X-28.682 Y-14.018
X-28.659 Y-13.683
X-28.654 Y-13.637
X-28.611 Y-13.309
X-28.598 Y-13.239
X-28.525 Y-12.92
X-28.506 Y-12.854
X-28.457 Y-12.702
X-28.441 Y-12.66
X-28.384 Y-12.514
X-28.359 Y-12.459
X-28.221 Y-12.179
X-28.194 Y-12.128
X-28.028 Y-11.849
X-28.014 Y-11.825
X-27.823 Y-11.528
X-27.766 Y-11.45
X-27.7 Y-11.381
X-27.479 Y-11.178
X-27.453 Y-11.155
X-27.226 Y-10.965
X-27.168 Y-10.921
X-27 Y-10.806
Y-9.768
X-27.062 Y-9.787
X-27.221 Y-9.847
X-27.375 Y-9.915
X-27.521 Y-9.989
X-27.839 Y-10.181
X-28.155 Y-10.405
X-28.483 Y-10.662
X-28.763 Y-10.892
X-29.062 Y-11.273
X-29.371 Y-11.7
X-29.5 Y-11.898
X-29.617 Y-12.097
X-29.718 Y-12.297
X-29.804 Y-12.498
X-29.876 Y-12.707
X-29.936 Y-12.927
X-29.985 Y-13.16
X-30.026 Y-13.4
X-30.088 Y-13.928
X-30.128 Y-14.42
X-30.088 Y-14.906
X-30.027 Y-15.428
X-29.987 Y-15.665
X-29.938 Y-15.896
X-29.879 Y-16.113
X-29.808 Y-16.32
X-29.723 Y-16.518
X-29.623 Y-16.715
X-29.508 Y-16.912
X-29.381 Y-17.108
X-29.075 Y-17.529
X-28.78 Y-17.904
X-28.497 Y-18.133
X-28.166 Y-18.388
X-27.85 Y-18.609
X-27.532 Y-18.798
X-27.385 Y-18.871
X-27.23 Y-18.938
X-27.07 Y-18.997
X-27 Y-19.018
Y-17.972
X-27.168 Y-17.857
X-27.226 Y-17.813
X-27.453 Y-17.623
X-27.479 Y-17.6
X-27.7 Y-17.397
X-27.765 Y-17.329
X-27.821 Y-17.253
X-28.01 Y-16.962
X-28.025 Y-16.938
X-28.19 Y-16.663
X-28.217 Y-16.613
X-28.355 Y-16.337
X-28.38 Y-16.282
X-28.437 Y-16.139
X-28.453 Y-16.096
X-28.503 Y-15.946
X-28.521 Y-15.881
X-28.595 Y-15.567
X-28.608 Y-15.497
X-28.622 Y-15.452
X-28.648 Y-15.413
X-28.686 Y-15.385
X-28.73 Y-15.37
X-28.777 Y-15.369
X-28.926 Y-15.389
X-28.972 Y-15.395 Z-0.243
X-29.013 Y-15.401 Z-0.221
X-29.046 Y-15.405 Z-0.188
X-29.067 Y-15.408 Z-0.146
X-29.074 Y-15.409 Z-0.1
G0 Z5
X-29.069 Y-15.445
G1 Z1 F300
Z-0.35
X-29.062 Y-15.444 Z-0.396 F400
X-29.041 Y-15.441 Z-0.438
X-29.008 Y-15.437 Z-0.471
X-28.967 Y-15.431 Z-0.493
X-28.921 Y-15.425 Z-0.5
X-28.772 Y-15.405
X-28.727 Y-15.391
X-28.689 Y-15.364
X-28.66 Y-15.327
X-28.645 Y-15.283
X-28.644 Y-15.236
X-28.652 Y-15.174 F600
X-28.657 Y-15.127
X-28.681 Y-14.798
X-28.683 Y-14.775
X-28.697 Y-14.442
Y-14.379
X-28.684 Y-14.041
X-28.682 Y-14.018
X-28.659 Y-13.683
X-28.654 Y-13.637
X-28.611 Y-13.309
X-28.598 Y-13.239
X-28.525 Y-12.92
X-28.506 Y-12.854
X-28.457 Y-12.702
X-28.441 Y-12.66
X-28.384 Y-12.514
X-28.359 Y-12.459
X-28.221 Y-12.179
X-28.194 Y-12.128
X-28.028 Y-11.849
X-28.014 Y-11.825
X-27.823 Y-11.528
X-27.766 Y-11.45
X-27.7 Y-11.381
X-27.479 Y-11.178
X-27.453 Y-11.155
X-27.226 Y-10.965
X-27.168 Y-10.921
X-27 Y-10.806
Y-9.768
X-27.062 Y-9.787
X-27.221 Y-9.847
X-27.375 Y-9.915
X-27.521 Y-9.989
X-27.839 Y-10.181
X-28.155 Y-10.405
X-28.483 Y-10.662
X-28.763 Y-10.892
X-29.062 Y-11.273
X-29.371 Y-11.7
X-29.5 Y-11.898
X-29.617 Y-12.097
X-29.718 Y-12.297
X-29.804 Y-12.498
X-29.876 Y-12.707
X-29.936 Y-12.927
X-29.985 Y-13.16
X-30.026 Y-13.4
X-30.088 Y-13.928
X-30.128 Y-14.42
X-30.088 Y-14.906
X-30.027 Y-15.428
X-29.987 Y-15.665
X-29.938 Y-15.896
X-29.879 Y-16.113
X-29.808 Y-16.32
X-29.723 Y-16.518
X-29.623 Y-16.715
X-29.508 Y-16.912
X-29.381 Y-17.108
X-29.075 Y-17.529
X-28.78 Y-17.904
X-28.497 Y-18.133
X-28.166 Y-18.388
X-27.85 Y-18.609
X-27.532 Y-18.798
X-27.385 Y-18.871
X-27.23 Y-18.938
X-27.07 Y-18.997
X-27 Y-19.018
Y-17.972
X-27.168 Y-17.857
X-27.226 Y-17.813
X-27.453 Y-17.623
X-27.479 Y-17.6
X-27.7 Y-17.397
X-27.765 Y-17.329
X-27.821 Y-17.253
X-28.01 Y-16.962
X-28.025 Y-16.938
X-28.19 Y-16.663
X-28.217 Y-16.613
X-28.355 Y-16.337
X-28.38 Y-16.282
X-28.437 Y-16.139
X-28.453 Y-16.096
X-28.503 Y-15.946
X-28.521 Y-15.881
X-28.595 Y-15.567
X-28.608 Y-15.497
X-28.644 Y-15.236
X-28.657 Y-15.191
X-28.684 Y-15.152
X-28.721 Y-15.124
X-28.766 Y-15.108
X-28.813 Y-15.107
X-28.961 Y-15.128
X-29.007 Y-15.134 Z-0.493
X-29.049 Y-15.14 Z-0.471
X-29.081 Y-15.144 Z-0.438
X-29.103 Y-15.147 Z-0.396
X-29.11 Y-15.148 Z-0.35
G0 Z5
X-29.069 Y-15.445
G1 Z0.75 F300
Z-0.6
X-29.062 Y-15.444 Z-0.646 F400
X-29.041 Y-15.441 Z-0.688
X-29.008 Y-15.437 Z-0.721
X-28.967 Y-15.431 Z-0.743
X-28.921 Y-15.425 Z-0.75
X-28.772 Y-15.405
X-28.727 Y-15.391
X-28.689 Y-15.364
X-28.66 Y-15.327
X-28.645 Y-15.283
X-28.644 Y-15.236
X-28.652 Y-15.174 F600
X-28.657 Y-15.127
X-28.681 Y-14.798
X-28.683 Y-14.775
X-28.697 Y-14.442
Y-14.379
X-28.684 Y-14.041
X-28.682 Y-14.018
X-28.659 Y-13.683
X-28.654 Y-13.637
X-28.611 Y-13.309
X-28.598 Y-13.239
X-28.525 Y-12.92
X-28.506 Y-12.854
X-28.457 Y-12.702
X-28.441 Y-12.66
X-28.384 Y-12.514
X-28.359 Y-12.459
X-28.221 Y-12.179
X-28.194 Y-12.128
X-28.028 Y-11.849
X-28.014 Y-11.825
X-27.823 Y-11.528
X-27.766 Y-11.45
X-27.7 Y-11.381
X-27.479 Y-11.178
X-27.453 Y-11.155
X-27.226 Y-10.965
X-27.168 Y-10.921
X-27 Y-10.806
Y-9.768
X-27.062 Y-9.787
X-27.221 Y-9.847
X-27.375 Y-9.915
X-27.521 Y-9.989
X-27.839 Y-10.181
X-28.155 Y-10.405
X-28.483 Y-10.662
X-28.763 Y-10.892
X-29.062 Y-11.273
X-29.371 Y-11.7
X-29.5 Y-11.898
X-29.617 Y-12.097
X-29.718 Y-12.297
X-29.804 Y-12.498
X-29.876 Y-12.707
X-29.936 Y-12.927
X-29.985 Y-13.16
X-30.026 Y-13.4
X-30.088 Y-13.928
X-30.128 Y-14.42
X-30.088 Y-14.906
X-30.027 Y-15.428
X-29.987 Y-15.665
X-29.938 Y-15.896
X-29.879 Y-16.113
X-29.808 Y-16.32
X-29.723 Y-16.518
X-29.623 Y-16.715
X-29.508 Y-16.912
X-29.381 Y-17.108
X-29.075 Y-17.529
X-28.78 Y-17.904
X-28.497 Y-18.133
X-28.166 Y-18.388
X-27.85 Y-18.609
X-27.532 Y-18.798
X-27.385 Y-18.871
X-27.23 Y-18.938
X-27.07 Y-18.997
X-27 Y-19.018
Y-17.972
X-27.168 Y-17.857
X-27.226 Y-17.813
X-27.453 Y-17.623
X-27.479 Y-17.6
X-27.7 Y-17.397
X-27.765 Y-17.329
X-27.821 Y-17.253
X-28.01 Y-16.962
X-28.025 Y-16.938
X-28.19 Y-16.663
X-28.217 Y-16.613
X-28.355 Y-16.337
X-28.38 Y-16.282
X-28.437 Y-16.139
X-28.453 Y-16.096
X-28.503 Y-15.946
X-28.521 Y-15.881
X-28.595 Y-15.567
X-28.608 Y-15.497
X-28.644 Y-15.236
X-28.657 Y-15.191
X-28.684 Y-15.152
X-28.721 Y-15.124
X-28.766 Y-15.108
X-28.813 Y-15.107
X-28.961 Y-15.128
X-29.007 Y-15.134 Z-0.743
X-29.049 Y-15.14 Z-0.721
X-29.081 Y-15.144 Z-0.688
X-29.103 Y-15.147 Z-0.646
X-29.11 Y-15.148 Z-0.6
G0 Z5
X-29.069 Y-15.445
G1 Z0.5 F300
Z-0.85
X-29.062 Y-15.444 Z-0.896 F400
X-29.041 Y-15.441 Z-0.938
X-29.008 Y-15.437 Z-0.971
X-28.967 Y-15.431 Z-0.993
X-28.921 Y-15.425 Z-1
X-28.772 Y-15.405
X-28.727 Y-15.391
X-28.689 Y-15.364
X-28.66 Y-15.327
X-28.645 Y-15.283
X-28.644 Y-15.236
X-28.652 Y-15.174 F600
X-28.657 Y-15.127
X-28.681 Y-14.798
X-28.683 Y-14.775
X-28.697 Y-14.442
Y-14.379
X-28.684 Y-14.041
X-28.682 Y-14.018
X-28.659 Y-13.683
X-28.654 Y-13.637
X-28.611 Y-13.309
X-28.598 Y-13.239
X-28.525 Y-12.92
X-28.506 Y-12.854
X-28.457 Y-12.702
X-28.441 Y-12.66
X-28.384 Y-12.514
X-28.359 Y-12.459
X-28.221 Y-12.179
X-28.194 Y-12.128
X-28.028 Y-11.849
X-28.014 Y-11.825
X-27.823 Y-11.528
X-27.766 Y-11.45
X-27.7 Y-11.381
X-27.479 Y-11.178
X-27.453 Y-11.155
X-27.226 Y-10.965
X-27.168 Y-10.921
X-27 Y-10.806
Y-9.768
X-27.062 Y-9.787
X-27.221 Y-9.847
X-27.375 Y-9.915
X-27.521 Y-9.989
X-27.839 Y-10.181
X-28.155 Y-10.405
X-28.483 Y-10.662
X-28.763 Y-10.892
X-29.062 Y-11.273
X-29.371 Y-11.7
X-29.5 Y-11.898
X-29.617 Y-12.097
X-29.718 Y-12.297
X-29.804 Y-12.498
X-29.876 Y-12.707
X-29.936 Y-12.927
X-29.985 Y-13.16
X-30.026 Y-13.4
X-30.088 Y-13.928
X-30.128 Y-14.42
X-30.088 Y-14.906
X-30.027 Y-15.428
X-29.987 Y-15.665
X-29.938 Y-15.896
X-29.879 Y-16.113
X-29.808 Y-16.32
X-29.723 Y-16.518
X-29.623 Y-16.715
X-29.508 Y-16.912
X-29.381 Y-17.108
X-29.075 Y-17.529
X-28.78 Y-17.904
X-28.497 Y-18.133
X-28.166 Y-18.388
X-27.85 Y-18.609
X-27.532 Y-18.798
X-27.385 Y-18.871
X-27.23 Y-18.938
X-27.07 Y-18.997
X-27 Y-19.018
Y-17.972
X-27.168 Y-17.857
X-27.226 Y-17.813
X-27.453 Y-17.623
X-27.479 Y-17.6
X-27.7 Y-17.397
X-27.765 Y-17.329
X-27.821 Y-17.253
X-28.01 Y-16.962
X-28.025 Y-16.938
X-28.19 Y-16.663
X-28.217 Y-16.613
X-28.355 Y-16.337
X-28.38 Y-16.282
X-28.437 Y-16.139
X-28.453 Y-16.096
X-28.503 Y-15.946
X-28.521 Y-15.881
X-28.595 Y-15.567
X-28.608 Y-15.497
X-28.644 Y-15.236
X-28.657 Y-15.191
X-28.684 Y-15.152
X-28.721 Y-15.124
X-28.766 Y-15.108
X-28.813 Y-15.107
X-28.961 Y-15.128
X-29.007 Y-15.134 Z-0.993
X-29.049 Y-15.14 Z-0.971
X-29.081 Y-15.144 Z-0.938
X-29.103 Y-15.147 Z-0.896
X-29.11 Y-15.148 Z-0.85
G0 Z5
X-29.069 Y-15.445
G1 Z0.25 F300
Z-1.05
X-29.062 Y-15.444 Z-1.096 F400
X-29.041 Y-15.441 Z-1.138
X-29.008 Y-15.437 Z-1.171
X-28.967 Y-15.431 Z-1.193
X-28.921 Y-15.425 Z-1.2
X-28.772 Y-15.405
X-28.727 Y-15.391
X-28.689 Y-15.364
X-28.66 Y-15.327
X-28.645 Y-15.283
X-28.644 Y-15.236
X-28.652 Y-15.174 F600
X-28.657 Y-15.127
X-28.681 Y-14.798
X-28.683 Y-14.775
X-28.697 Y-14.442
Y-14.379
X-28.684 Y-14.041
X-28.682 Y-14.018
X-28.659 Y-13.683
X-28.654 Y-13.637
X-28.611 Y-13.309
X-28.598 Y-13.239
X-28.525 Y-12.92
X-28.506 Y-12.854
X-28.457 Y-12.702
X-28.441 Y-12.66
X-28.384 Y-12.514
X-28.359 Y-12.459
X-28.221 Y-12.179
X-28.194 Y-12.128
X-28.028 Y-11.849
X-28.014 Y-11.825
X-27.823 Y-11.528
X-27.766 Y-11.45
X-27.7 Y-11.381
X-27.479 Y-11.178
X-27.453 Y-11.155
X-27.226 Y-10.965
X-27.168 Y-10.921
X-27 Y-10.806
Y-9.768
X-27.062 Y-9.787
X-27.221 Y-9.847
X-27.375 Y-9.915
X-27.521 Y-9.989
X-27.839 Y-10.181
X-28.155 Y-10.405
X-28.483 Y-10.662
X-28.763 Y-10.892
X-29.062 Y-11.273
X-29.371 Y-11.7
X-29.5 Y-11.898
X-29.617 Y-12.097
X-29.718 Y-12.297
X-29.804 Y-12.498
X-29.876 Y-12.707
X-29.936 Y-12.927
X-29.985 Y-13.16
X-30.026 Y-13.4
X-30.088 Y-13.928
X-30.128 Y-14.42
X-30.088 Y-14.906
X-30.027 Y-15.428
X-29.987 Y-15.665
X-29.938 Y-15.896
X-29.879 Y-16.113
X-29.808 Y-16.32
X-29.723 Y-16.518
X-29.623 Y-16.715
X-29.508 Y-16.912
X-29.381 Y-17.108
X-29.075 Y-17.529
X-28.78 Y-17.904
X-28.497 Y-18.133
X-28.166 Y-18.388
X-27.85 Y-18.609
X-27.532 Y-18.798
X-27.385 Y-18.871
X-27.23 Y-18.938
X-27.07 Y-18.997
X-27 Y-19.018
Y-17.972
X-27.168 Y-17.857
X-27.226 Y-17.813
X-27.453 Y-17.623
X-27.479 Y-17.6
X-27.7 Y-17.397
X-27.765 Y-17.329
X-27.821 Y-17.253
X-28.01 Y-16.962
X-28.025 Y-16.938
X-28.19 Y-16.663
X-28.217 Y-16.613
X-28.355 Y-16.337
X-28.38 Y-16.282
X-28.437 Y-16.139
X-28.453 Y-16.096
X-28.503 Y-15.946
X-28.521 Y-15.881
X-28.595 Y-15.567
X-28.608 Y-15.497
X-28.644 Y-15.236
X-28.657 Y-15.191
X-28.684 Y-15.152
X-28.721 Y-15.124
X-28.766 Y-15.108
X-28.813 Y-15.107
X-28.961 Y-15.128
X-29.007 Y-15.134 Z-1.193
X-29.049 Y-15.14 Z-1.171
X-29.081 Y-15.144 Z-1.138
X-29.103 Y-15.147 Z-1.096
X-29.11 Y-15.148 Z-1.05
G0 Z5
X-33.167 Y-14.035
G1 Z1.25 F300
Z-0.1
X-33.159 Z-0.146 F400
X-33.138 Z-0.188
X-33.105 Z-0.221
X-33.063 Z-0.243
X-33.017 Z-0.25
X-32.867
X-32.82 Y-14.028
X-32.779 Y-14.006
X-32.745 Y-13.973
X-32.724 Y-13.931
X-32.717 Y-13.885
Y-9.75 F600
X-34.069
Y-13.882
Y-13.883
X-34.07 Y-14.529
X-34.071 Y-14.55
X-34.08 Y-14.872
X-34.081 Y-14.896
X-34.101 Y-15.217
X-34.104 Y-15.249
X-34.135 Y-15.548
X-34.139 Y-15.579
X-34.181 Y-15.862
X-34.185 Y-15.885
X-34.237 Y-16.174
X-34.239 Y-16.184
X-34.268 Y-16.338
X-34.269 Y-16.34
X-34.301 Y-16.504
X-34.322 Y-16.583
X-34.35 Y-16.66
X-34.49 Y-16.977
X-34.515 Y-17.029
X-34.595 Y-17.178
X-34.632 Y-17.239
X-34.725 Y-17.379
X-34.777 Y-17.448
X-34.792 Y-17.466
G2 X-33.866 Y-18.195 I0.176 J-0.729
G1 Y-19.028
X-32.717
Y-13.885
X-32.724 Y-13.839
X-32.745 Y-13.797
X-32.779 Y-13.764
X-32.82 Y-13.742
X-32.867 Y-13.735
X-33.017
X-33.063 Z-0.243
X-33.105 Z-0.221
X-33.138 Z-0.188
X-33.159 Z-0.146
X-33.167 Z-0.1
G0 Z5
Y-14.035
G1 Z1 F300
Z-0.35
X-33.159 Z-0.396 F400
X-33.138 Z-0.438
X-33.105 Z-0.471
X-33.063 Z-0.493
X-33.017 Z-0.5
X-32.867
X-32.82 Y-14.028
X-32.779 Y-14.006
X-32.745 Y-13.973
X-32.724 Y-13.931
X-32.717 Y-13.885
Y-9.75 F600
X-34.069
Y-13.882
Y-13.883
X-34.07 Y-14.529
X-34.071 Y-14.55
X-34.08 Y-14.872
X-34.081 Y-14.896
X-34.101 Y-15.217
X-34.104 Y-15.249
X-34.135 Y-15.548
X-34.139 Y-15.579
X-34.181 Y-15.862
X-34.185 Y-15.885
X-34.237 Y-16.174
X-34.239 Y-16.184
X-34.268 Y-16.338
X-34.269 Y-16.34
X-34.301 Y-16.504
X-34.322 Y-16.583
X-34.35 Y-16.66
X-34.49 Y-16.977
X-34.515 Y-17.029
X-34.595 Y-17.178
X-34.632 Y-17.239
X-34.725 Y-17.379
X-34.777 Y-17.448
X-34.792 Y-17.466
G2 X-33.866 Y-18.195 I0.176 J-0.729
G1 Y-19.028
X-32.717
Y-13.885
X-32.724 Y-13.839
X-32.745 Y-13.797
X-32.779 Y-13.764
X-32.82 Y-13.742
X-32.867 Y-13.735
X-33.017
X-33.063 Z-0.493
X-33.105 Z-0.471
X-33.138 Z-0.438
X-33.159 Z-0.396
X-33.167 Z-0.35
G0 Z5
Y-14.035
G1 Z0.75 F300
Z-0.6
X-33.159 Z-0.646 F400
X-33.138 Z-0.688
X-33.105 Z-0.721
X-33.063 Z-0.743
X-33.017 Z-0.75
X-32.867
X-32.82 Y-14.028
X-32.779 Y-14.006
X-32.745 Y-13.973
X-32.724 Y-13.931
X-32.717 Y-13.885
Y-9.75 F600
X-34.069
Y-13.882
Y-13.883
X-34.07 Y-14.529
X-34.071 Y-14.55
X-34.08 Y-14.872
X-34.081 Y-14.896
X-34.101 Y-15.217
X-34.104 Y-15.249
X-34.135 Y-15.548
X-34.139 Y-15.579
X-34.181 Y-15.862
X-34.185 Y-15.885
X-34.237 Y-16.174
X-34.239 Y-16.184
X-34.268 Y-16.338
X-34.269 Y-16.34
X-34.301 Y-16.504
X-34.322 Y-16.583
X-34.35 Y-16.66
X-34.49 Y-16.977
X-34.515 Y-17.029
X-34.595 Y-17.178
X-34.632 Y-17.239
X-34.725 Y-17.379
X-34.777 Y-17.448
X-34.792 Y-17.466
G2 X-33.866 Y-18.195 I0.176 J-0.729
G1 Y-19.028
X-32.717
Y-13.885
X-32.724 Y-13.839
X-32.745 Y-13.797
X-32.779 Y-13.764
X-32.82 Y-13.742
X-32.867 Y-13.735
X-33.017
X-33.063 Z-0.743
X-33.105 Z-0.721
X-33.138 Z-0.688
X-33.159 Z-0.646
X-33.167 Z-0.6
G0 Z5
Y-14.035
G1 Z0.5 F300
Z-0.85
X-33.159 Z-0.896 F400
X-33.138 Z-0.938
X-33.105 Z-0.971
X-33.063 Z-0.993
X-33.017 Z-1
X-32.867
X-32.82 Y-14.028
X-32.779 Y-14.006
X-32.745 Y-13.973
X-32.724 Y-13.931
X-32.717 Y-13.885
Y-9.75 F600
X-34.069
Y-13.882
Y-13.883
X-34.07 Y-14.529
X-34.071 Y-14.55
X-34.08 Y-14.872
X-34.081 Y-14.896
X-34.101 Y-15.217
X-34.104 Y-15.249
X-34.135 Y-15.548
X-34.139 Y-15.579
X-34.181 Y-15.862
X-34.185 Y-15.885
X-34.237 Y-16.174
X-34.239 Y-16.184
X-34.268 Y-16.338
X-34.269 Y-16.34
X-34.301 Y-16.504
X-34.322 Y-16.583
X-34.35 Y-16.66
X-34.49 Y-16.977
X-34.515 Y-17.029
X-34.595 Y-17.178
X-34.632 Y-17.239
X-34.725 Y-17.379
X-34.777 Y-17.448
X-34.792 Y-17.466
G2 X-33.866 Y-18.195 I0.176 J-0.729
G1 Y-19.028
X-32.717
Y-13.885
X-32.724 Y-13.839
X-32.745 Y-13.797
X-32.779 Y-13.764
X-32.82 Y-13.742
X-32.867 Y-13.735
X-33.017
X-33.063 Z-0.993
X-33.105 Z-0.971
X-33.138 Z-0.938
X-33.159 Z-0.896
X-33.167 Z-0.85
G0 Z5
Y-14.035
G1 Z0.25 F300
Z-1.05
X-33.159 Z-1.096 F400
X-33.138 Z-1.138
X-33.105 Z-1.171
X-33.063 Z-1.193
X-33.017 Z-1.2
X-32.867
X-32.82 Y-14.028
X-32.779 Y-14.006
X-32.745 Y-13.973
X-32.724 Y-13.931
X-32.717 Y-13.885
Y-9.75 F600
X-34.069
Y-13.882
Y-13.883
X-34.07 Y-14.529
X-34.071 Y-14.55
X-34.08 Y-14.872
X-34.081 Y-14.896
X-34.101 Y-15.217
X-34.104 Y-15.249
X-34.135 Y-15.548
X-34.139 Y-15.579
X-34.181 Y-15.862
X-34.185 Y-15.885
X-34.237 Y-16.174
X-34.239 Y-16.184
X-34.268 Y-16.338
X-34.269 Y-16.34
X-34.301 Y-16.504
X-34.322 Y-16.583
X-34.35 Y-16.66
X-34.49 Y-16.977
X-34.515 Y-17.029
X-34.595 Y-17.178
X-34.632 Y-17.239
X-34.725 Y-17.379
X-34.777 Y-17.448
X-34.792 Y-17.466
G2 X-33.866 Y-18.195 I0.176 J-0.729
G1 Y-19.028
X-32.717
Y-13.885
X-32.724 Y-13.839
X-32.745 Y-13.797
X-32.779 Y-13.764
X-32.82 Y-13.742
X-32.867 Y-13.735
X-33.017
X-33.063 Z-1.193
X-33.105 Z-1.171
X-33.138 Z-1.138
X-33.159 Z-1.096
X-33.167 Z-1.05
G0 Z5
X-40.113 Y-15.831
G1 Z1.25 F300
Z-0.1
X-40.105 Z-0.146 F400
X-40.084 Y-15.83 Z-0.188
X-40.051 Y-15.828 Z-0.221
X-40.009 Y-15.827 Z-0.243
X-39.963 Y-15.825 Z-0.25
X-39.813 Y-15.819
X-39.767 Y-15.81
X-39.726 Y-15.787
X-39.694 Y-15.752
X-39.674 Y-15.71
X-39.669 Y-15.663
X-39.69 Y-15.126 F600
X-39.691 Y-15.094
X-39.689 Y-14.5
Y-9.75
X-41.041
Y-15.694
X-41.036 Y-16.167
X-41.014 Y-16.624
X-40.995 Y-16.827
X-40.969 Y-17.029
X-40.935 Y-17.246
X-40.902 Y-17.446
X-40.828 Y-17.693
X-40.737 Y-17.928
X-40.617 Y-18.147
X-40.483 Y-18.35
X-40.398 Y-18.441
X-40.291 Y-18.552
X-40.196 Y-18.64
X-40.102 Y-18.714
X-39.997 Y-18.784
X-39.875 Y-18.853
X-39.601 Y-18.989
X-39.239 Y-19.116
X-39.07 Y-19.166
X-38.905 Y-19.204
X-38.735 Y-19.231
X-38.554 Y-19.25
X-38.195 Y-19.269
X-37.741 Y-19.211
X-37.265 Y-19.131
X-37.061 Y-19.083
X-36.866 Y-19.025
X-36.686 Y-18.958
X-36.517 Y-18.88
X-36.354 Y-18.785
X-36.191 Y-18.673
X-36.026 Y-18.544
X-35.864 Y-18.401
X-35.635 Y-18.176
X-35.791 Y-18.263
X-35.839 Y-18.287
X-35.997 Y-18.361
X-36.058 Y-18.386
X-36.221 Y-18.445
X-36.297 Y-18.468
X-36.466 Y-18.51
X-36.529 Y-18.523
X-36.702 Y-18.55
X-36.755 Y-18.556
X-37.109 Y-18.587
X-37.168 Y-18.59
X-37.227 Y-18.588
X-37.49 Y-18.569
X-37.541 Y-18.563
X-37.67 Y-18.545
X-37.731 Y-18.534
X-37.857 Y-18.505
X-37.932 Y-18.484
X-38.053 Y-18.443
X-38.115 Y-18.419
X-38.231 Y-18.367
X-38.283 Y-18.342
X-38.518 Y-18.216
X-38.587 Y-18.174
X-38.652 Y-18.124
X-38.847 Y-17.956
X-38.888 Y-17.917
X-38.976 Y-17.83
X-39.022 Y-17.779
X-39.101 Y-17.684
X-39.149 Y-17.619
X-39.218 Y-17.515
X-39.252 Y-17.458
X-39.311 Y-17.347
X-39.335 Y-17.3
X-39.44 Y-17.067
X-39.472 Y-16.985
X-39.493 Y-16.898
X-39.547 Y-16.616
X-39.549 Y-16.604
X-39.594 Y-16.346
X-39.598 Y-16.321
X-39.633 Y-16.066
X-39.637 Y-16.035
X-39.664 Y-15.762
X-39.667 Y-15.719
X-39.669 Y-15.663
X-39.678 Y-15.617
X-39.701 Y-15.576
X-39.736 Y-15.544
X-39.778 Y-15.525
X-39.825 Y-15.519
X-39.975 Y-15.525
X-40.021 Y-15.527 Z-0.243
X-40.063 Y-15.529 Z-0.221
X-40.096 Y-15.53 Z-0.188
X-40.117 Y-15.531 Z-0.146
X-40.125 Z-0.1
G0 Z5
X-40.113 Y-15.831
G1 Z1 F300
Z-0.35
X-40.105 Z-0.396 F400
X-40.084 Y-15.83 Z-0.438
X-40.051 Y-15.828 Z-0.471
X-40.009 Y-15.827 Z-0.493
X-39.963 Y-15.825 Z-0.5
X-39.813 Y-15.819
X-39.767 Y-15.81
X-39.726 Y-15.787
X-39.694 Y-15.752
X-39.674 Y-15.71
X-39.669 Y-15.663
X-39.69 Y-15.126 F600
X-39.691 Y-15.094
X-39.689 Y-14.5
Y-9.75
X-41.041
Y-15.694
X-41.036 Y-16.167
X-41.014 Y-16.624
X-40.995 Y-16.827
X-40.969 Y-17.029
X-40.935 Y-17.246
X-40.902 Y-17.446
X-40.828 Y-17.693
X-40.737 Y-17.928
X-40.617 Y-18.147
X-40.483 Y-18.35
X-40.398 Y-18.441
X-40.291 Y-18.552
X-40.196 Y-18.64
X-40.102 Y-18.714
X-39.997 Y-18.784
X-39.875 Y-18.853
X-39.601 Y-18.989
X-39.239 Y-19.116
X-39.07 Y-19.166
X-38.905 Y-19.204
X-38.735 Y-19.231
X-38.554 Y-19.25
X-38.195 Y-19.269
X-37.741 Y-19.211
X-37.265 Y-19.131
X-37.061 Y-19.083
X-36.866 Y-19.025
X-36.686 Y-18.958
X-36.517 Y-18.88
X-36.354 Y-18.785
X-36.191 Y-18.673
X-36.026 Y-18.544
X-35.864 Y-18.401
X-35.635 Y-18.176
X-35.791 Y-18.263
X-35.839 Y-18.287
X-35.997 Y-18.361
X-36.058 Y-18.386
X-36.221 Y-18.445
X-36.297 Y-18.468
X-36.466 Y-18.51
X-36.529 Y-18.523
X-36.702 Y-18.55
X-36.755 Y-18.556
X-37.109 Y-18.587
X-37.168 Y-18.59
X-37.227 Y-18.588
X-37.49 Y-18.569
X-37.541 Y-18.563
X-37.67 Y-18.545
X-37.731 Y-18.534
X-37.857 Y-18.505
X-37.932 Y-18.484
X-38.053 Y-18.443
X-38.115 Y-18.419
X-38.231 Y-18.367
X-38.283 Y-18.342
X-38.518 Y-18.216
X-38.587 Y-18.174
X-38.652 Y-18.124
X-38.847 Y-17.956
X-38.888 Y-17.917
X-38.976 Y-17.83
X-39.022 Y-17.779
X-39.101 Y-17.684
X-39.149 Y-17.619
X-39.218 Y-17.515
X-39.252 Y-17.458
X-39.311 Y-17.347
X-39.335 Y-17.3
X-39.44 Y-17.067
X-39.472 Y-16.985
X-39.493 Y-16.898
X-39.547 Y-16.616
X-39.549 Y-16.604
X-39.594 Y-16.346
X-39.598 Y-16.321
X-39.633 Y-16.066
X-39.637 Y-16.035
X-39.664 Y-15.762
X-39.667 Y-15.719
X-39.669 Y-15.663
X-39.678 Y-15.617
X-39.701 Y-15.576
X-39.736 Y-15.544
X-39.778 Y-15.525
X-39.825 Y-15.519
X-39.975 Y-15.525
X-40.021 Y-15.527 Z-0.493
X-40.063 Y-15.529 Z-0.471
X-40.096 Y-15.53 Z-0.438
X-40.117 Y-15.531 Z-0.396
X-40.125 Z-0.35
G0 Z5
X-40.113 Y-15.831
G1 Z0.75 F300
Z-0.6
X-40.105 Z-0.646 F400
X-40.084 Y-15.83 Z-0.688
X-40.051 Y-15.828 Z-0.721
X-40.009 Y-15.827 Z-0.743
X-39.963 Y-15.825 Z-0.75
X-39.813 Y-15.819
X-39.767 Y-15.81
X-39.726 Y-15.787
X-39.694 Y-15.752
X-39.674 Y-15.71
X-39.669 Y-15.663
X-39.69 Y-15.126 F600
X-39.691 Y-15.094
X-39.689 Y-14.5
Y-9.75
X-41.041
Y-15.694
X-41.036 Y-16.167
X-41.014 Y-16.624
X-40.995 Y-16.827
X-40.969 Y-17.029
X-40.935 Y-17.246
X-40.902 Y-17.446
X-40.828 Y-17.693
X-40.737 Y-17.928
X-40.617 Y-18.147
X-40.483 Y-18.35
X-40.398 Y-18.441
X-40.291 Y-18.552
X-40.196 Y-18.64
X-40.102 Y-18.714
X-39.997 Y-18.784
X-39.875 Y-18.853
X-39.601 Y-18.989
X-39.239 Y-19.116
X-39.07 Y-19.166
X-38.905 Y-19.204
X-38.735 Y-19.231
X-38.554 Y-19.25
X-38.195 Y-19.269
X-37.741 Y-19.211
X-37.265 Y-19.131
X-37.061 Y-19.083
X-36.866 Y-19.025
X-36.686 Y-18.958
X-36.517 Y-18.88
X-36.354 Y-18.785
X-36.191 Y-18.673
X-36.026 Y-18.544
X-35.864 Y-18.401
X-35.635 Y-18.176
X-35.791 Y-18.263
X-35.839 Y-18.287
X-35.997 Y-18.361
X-36.058 Y-18.386
X-36.221 Y-18.445
X-36.297 Y-18.468
X-36.466 Y-18.51
X-36.529 Y-18.523
X-36.702 Y-18.55
X-36.755 Y-18.556
X-37.109 Y-18.587
X-37.168 Y-18.59
X-37.227 Y-18.588
X-37.49 Y-18.569
X-37.541 Y-18.563
X-37.67 Y-18.545
X-37.731 Y-18.534
X-37.857 Y-18.505
X-37.932 Y-18.484
X-38.053 Y-18.443
X-38.115 Y-18.419
X-38.231 Y-18.367
X-38.283 Y-18.342
X-38.518 Y-18.216
X-38.587 Y-18.174
X-38.652 Y-18.124
X-38.847 Y-17.956
X-38.888 Y-17.917
X-38.976 Y-17.83
X-39.022 Y-17.779
X-39.101 Y-17.684
X-39.149 Y-17.619
X-39.218 Y-17.515
X-39.252 Y-17.458
X-39.311 Y-17.347
X-39.335 Y-17.3
X-39.44 Y-17.067
X-39.472 Y-16.985
X-39.493 Y-16.898
X-39.547 Y-16.616
X-39.549 Y-16.604
X-39.594 Y-16.346
X-39.598 Y-16.321
X-39.633 Y-16.066
X-39.637 Y-16.035
X-39.664 Y-15.762
X-39.667 Y-15.719
X-39.669 Y-15.663
X-39.678 Y-15.617
X-39.701 Y-15.576
X-39.736 Y-15.544
X-39.778 Y-15.525
X-39.825 Y-15.519
X-39.975 Y-15.525
X-40.021 Y-15.527 Z-0.743
X-40.063 Y-15.529 Z-0.721
X-40.096 Y-15.53 Z-0.688
X-40.117 Y-15.531 Z-0.646
X-40.125 Z-0.6
G0 Z5
X-40.113 Y-15.831
G1 Z0.5 F300
Z-0.85
X-40.105 Z-0.896 F400
X-40.084 Y-15.83 Z-0.938
X-40.051 Y-15.828 Z-0.971
X-40.009 Y-15.827 Z-0.993
X-39.963 Y-15.825 Z-1
X-39.813 Y-15.819
X-39.767 Y-15.81
X-39.726 Y-15.787
X-39.694 Y-15.752
X-39.674 Y-15.71
X-39.669 Y-15.663
X-39.69 Y-15.126 F600
X-39.691 Y-15.094
X-39.689 Y-14.5
Y-9.75
X-41.041
Y-15.694
X-41.036 Y-16.167
X-41.014 Y-16.624
X-40.995 Y-16.827
X-40.969 Y-17.029
X-40.935 Y-17.246
X-40.902 Y-17.446
X-40.828 Y-17.693
X-40.737 Y-17.928
X-40.617 Y-18.147
X-40.483 Y-18.35
X-40.398 Y-18.441
X-40.291 Y-18.552
X-40.196 Y-18.64
X-40.102 Y-18.714
X-39.997 Y-18.784
X-39.875 Y-18.853
X-39.601 Y-18.989
X-39.239 Y-19.116
X-39.07 Y-19.166
X-38.905 Y-19.204
X-38.735 Y-19.231
X-38.554 Y-19.25
X-38.195 Y-19.269
X-37.741 Y-19.211
X-37.265 Y-19.131
X-37.061 Y-19.083
X-36.866 Y-19.025
X-36.686 Y-18.958
X-36.517 Y-18.88
X-36.354 Y-18.785
X-36.191 Y-18.673
X-36.026 Y-18.544
X-35.864 Y-18.401
X-35.635 Y-18.176
X-35.791 Y-18.263
X-35.839 Y-18.287
X-35.997 Y-18.361
X-36.058 Y-18.386
X-36.221 Y-18.445
X-36.297 Y-18.468
X-36.466 Y-18.51
X-36.529 Y-18.523
X-36.702 Y-18.55
X-36.755 Y-18.556
X-37.109 Y-18.587
X-37.168 Y-18.59
X-37.227 Y-18.588
X-37.49 Y-18.569
X-37.541 Y-18.563
X-37.67 Y-18.545
X-37.731 Y-18.534
X-37.857 Y-18.505
X-37.932 Y-18.484
X-38.053 Y-18.443
X-38.115 Y-18.419
X-38.231 Y-18.367
X-38.283 Y-18.342
X-38.518 Y-18.216
X-38.587 Y-18.174
X-38.652 Y-18.124
X-38.847 Y-17.956
X-38.888 Y-17.917
X-38.976 Y-17.83
X-39.022 Y-17.779
X-39.101 Y-17.684
X-39.149 Y-17.619
X-39.218 Y-17.515
X-39.252 Y-17.458
X-39.311 Y-17.347
X-39.335 Y-17.3
X-39.44 Y-17.067
X-39.472 Y-16.985
X-39.493 Y-16.898
X-39.547 Y-16.616
X-39.549 Y-16.604
X-39.594 Y-16.346
X-39.598 Y-16.321
X-39.633 Y-16.066
X-39.637 Y-16.035
X-39.664 Y-15.762
X-39.667 Y-15.719
X-39.669 Y-15.663
X-39.678 Y-15.617
X-39.701 Y-15.576
X-39.736 Y-15.544
X-39.778 Y-15.525
X-39.825 Y-15.519
X-39.975 Y-15.525
X-40.021 Y-15.527 Z-0.993
X-40.063 Y-15.529 Z-0.971
X-40.096 Y-15.53 Z-0.938
X-40.117 Y-15.531 Z-0.896
X-40.125 Z-0.85
G0 Z5
X-40.113 Y-15.831
G1 Z0.25 F300
Z-1.05
X-40.105 Z-1.096 F400
X-40.084 Y-15.83 Z-1.138
X-40.051 Y-15.828 Z-1.171
X-40.009 Y-15.827 Z-1.193
X-39.963 Y-15.825 Z-1.2
X-39.813 Y-15.819
X-39.767 Y-15.81
X-39.726 Y-15.787
X-39.694 Y-15.752
X-39.674 Y-15.71
X-39.669 Y-15.663
X-39.69 Y-15.126 F600
X-39.691 Y-15.094
X-39.689 Y-14.5
Y-9.75
X-41.041
Y-15.694
X-41.036 Y-16.167
X-41.014 Y-16.624
X-40.995 Y-16.827
X-40.969 Y-17.029
X-40.935 Y-17.246
X-40.902 Y-17.446
X-40.828 Y-17.693
X-40.737 Y-17.928
X-40.617 Y-18.147
X-40.483 Y-18.35
X-40.398 Y-18.441
X-40.291 Y-18.552
X-40.196 Y-18.64
X-40.102 Y-18.714
X-39.997 Y-18.784
X-39.875 Y-18.853
X-39.601 Y-18.989
X-39.239 Y-19.116
X-39.07 Y-19.166
X-38.905 Y-19.204
X-38.735 Y-19.231
X-38.554 Y-19.25
X-38.195 Y-19.269
X-37.741 Y-19.211
X-37.265 Y-19.131
X-37.061 Y-19.083
X-36.866 Y-19.025
X-36.686 Y-18.958
X-36.517 Y-18.88
X-36.354 Y-18.785
X-36.191 Y-18.673
X-36.026 Y-18.544
X-35.864 Y-18.401
X-35.635 Y-18.176
X-35.791 Y-18.263
X-35.839 Y-18.287
X-35.997 Y-18.361
X-36.058 Y-18.386
X-36.221 Y-18.445
X-36.297 Y-18.468
X-36.466 Y-18.51
X-36.529 Y-18.523
X-36.702 Y-18.55
X-36.755 Y-18.556
X-37.109 Y-18.587
X-37.168 Y-18.59
X-37.227 Y-18.588
X-37.49 Y-18.569
X-37.541 Y-18.563
X-37.67 Y-18.545
X-37.731 Y-18.534
X-37.857 Y-18.505
X-37.932 Y-18.484
X-38.053 Y-18.443
X-38.115 Y-18.419
X-38.231 Y-18.367
X-38.283 Y-18.342
X-38.518 Y-18.216
X-38.587 Y-18.174
X-38.652 Y-18.124
X-38.847 Y-17.956
X-38.888 Y-17.917
X-38.976 Y-17.83
X-39.022 Y-17.779
X-39.101 Y-17.684
X-39.149 Y-17.619
X-39.218 Y-17.515
X-39.252 Y-17.458
X-39.311 Y-17.347
X-39.335 Y-17.3
X-39.44 Y-17.067
X-39.472 Y-16.985
X-39.493 Y-16.898
X-39.547 Y-16.616
X-39.549 Y-16.604
X-39.594 Y-16.346
X-39.598 Y-16.321
X-39.633 Y-16.066
X-39.637 Y-16.035
X-39.664 Y-15.762
X-39.667 Y-15.719
X-39.669 Y-15.663
X-39.678 Y-15.617
X-39.701 Y-15.576
X-39.736 Y-15.544
X-39.778 Y-15.525
X-39.825 Y-15.519
X-39.975 Y-15.525
X-40.021 Y-15.527 Z-1.193
X-40.063 Y-15.529 Z-1.171
X-40.096 Y-15.53 Z-1.138
X-40.117 Y-15.531 Z-1.096
X-40.125 Z-1.05
G0 Z5
X-44.736 Y-14.035
G1 Z1.25 F300
Z-0.1
X-44.729 Z-0.146 F400
X-44.708 Z-0.188
X-44.675 Z-0.221
X-44.633 Z-0.243
X-44.586 Z-0.25
X-44.437
X-44.39 Y-14.028
X-44.348 Y-14.006
X-44.315 Y-13.973
X-44.294 Y-13.931
X-44.286 Y-13.885
Y-9.75 F600
X-45.638
Y-13.882
Y-13.883
X-45.64 Y-14.529
Y-14.55
X-45.65 Y-14.872
X-45.651 Y-14.897
X-45.671 Y-15.217
X-45.674 Y-15.249
X-45.705 Y-15.548
X-45.709 Y-15.579
X-45.751 Y-15.862
X-45.754 Y-15.885
X-45.806 Y-16.174
X-45.808 Y-16.184
X-45.838 Y-16.338
X-45.839 Y-16.34
X-45.871 Y-16.504
X-45.891 Y-16.583
X-45.92 Y-16.66
X-46.059 Y-16.977
X-46.085 Y-17.029
X-46.165 Y-17.178
X-46.201 Y-17.239
X-46.294 Y-17.379
X-46.346 Y-17.448
X-46.361 Y-17.466
G2 X-45.435 Y-18.195 I0.176 J-0.729
G1 Y-19.028
X-44.286
Y-13.885
X-44.294 Y-13.839
X-44.315 Y-13.797
X-44.348 Y-13.764
X-44.39 Y-13.742
X-44.437 Y-13.735
X-44.586
X-44.633 Z-0.243
X-44.675 Z-0.221
X-44.708 Z-0.188
X-44.729 Z-0.146
X-44.736 Z-0.1
G0 Z5
Y-14.035
G1 Z1 F300
Z-0.35
X-44.729 Z-0.396 F400
X-44.708 Z-0.438
X-44.675 Z-0.471
X-44.633 Z-0.493
X-44.586 Z-0.5
X-44.437
X-44.39 Y-14.028
X-44.348 Y-14.006
X-44.315 Y-13.973
X-44.294 Y-13.931
X-44.286 Y-13.885
Y-9.75 F600
X-45.638
Y-13.882
Y-13.883
X-45.64 Y-14.529
Y-14.55
X-45.65 Y-14.872
X-45.651 Y-14.897
X-45.671 Y-15.217
X-45.674 Y-15.249
X-45.705 Y-15.548
X-45.709 Y-15.579
X-45.751 Y-15.862
X-45.754 Y-15.885
X-45.806 Y-16.174
X-45.808 Y-16.184
X-45.838 Y-16.338
X-45.839 Y-16.34
X-45.871 Y-16.504
X-45.891 Y-16.583
X-45.92 Y-16.66
X-46.059 Y-16.977
X-46.085 Y-17.029
X-46.165 Y-17.178
X-46.201 Y-17.239
X-46.294 Y-17.379
X-46.346 Y-17.448
X-46.361 Y-17.466
G2 X-45.435 Y-18.195 I0.176 J-0.729
G1 Y-19.028
X-44.286
Y-13.885
X-44.294 Y-13.839
X-44.315 Y-13.797
X-44.348 Y-13.764
X-44.39 Y-13.742
X-44.437 Y-13.735
X-44.586
X-44.633 Z-0.493
X-44.675 Z-0.471
X-44.708 Z-0.438
X-44.729 Z-0.396
X-44.736 Z-0.35
G0 Z5
Y-14.035
G1 Z0.75 F300
Z-0.6
X-44.729 Z-0.646 F400
X-44.708 Z-0.688
X-44.675 Z-0.721
X-44.633 Z-0.743
X-44.586 Z-0.75
X-44.437
X-44.39 Y-14.028
X-44.348 Y-14.006
X-44.315 Y-13.973
X-44.294 Y-13.931
X-44.286 Y-13.885
Y-9.75 F600
X-45.638
Y-13.882
Y-13.883
X-45.64 Y-14.529
Y-14.55
X-45.65 Y-14.872
X-45.651 Y-14.897
X-45.671 Y-15.217
X-45.674 Y-15.249
X-45.705 Y-15.548
X-45.709 Y-15.579
X-45.751 Y-15.862
X-45.754 Y-15.885
X-45.806 Y-16.174
X-45.808 Y-16.184
X-45.838 Y-16.338
X-45.839 Y-16.34
X-45.871 Y-16.504
X-45.891 Y-16.583
X-45.92 Y-16.66
X-46.059 Y-16.977
X-46.085 Y-17.029
X-46.165 Y-17.178
X-46.201 Y-17.239
X-46.294 Y-17.379
X-46.346 Y-17.448
X-46.361 Y-17.466
G2 X-45.435 Y-18.195 I0.176 J-0.729
G1 Y-19.028
X-44.286
Y-13.885
X-44.294 Y-13.839
X-44.315 Y-13.797
X-44.348 Y-13.764
X-44.39 Y-13.742
X-44.437 Y-13.735
X-44.586
X-44.633 Z-0.743
X-44.675 Z-0.721
X-44.708 Z-0.688
X-44.729 Z-0.646
X-44.736 Z-0.6
G0 Z5
Y-14.035
G1 Z0.5 F300
Z-0.85
X-44.729 Z-0.896 F400
X-44.708 Z-0.938
X-44.675 Z-0.971
X-44.633 Z-0.993
X-44.586 Z-1
X-44.437
X-44.39 Y-14.028
X-44.348 Y-14.006
X-44.315 Y-13.973
X-44.294 Y-13.931
X-44.286 Y-13.885
Y-9.75 F600
X-45.638
Y-13.882
Y-13.883
X-45.64 Y-14.529
Y-14.55
X-45.65 Y-14.872
X-45.651 Y-14.897
X-45.671 Y-15.217
X-45.674 Y-15.249
X-45.705 Y-15.548
X-45.709 Y-15.579
X-45.751 Y-15.862
X-45.754 Y-15.885
X-45.806 Y-16.174
X-45.808 Y-16.184
X-45.838 Y-16.338
X-45.839 Y-16.34
X-45.871 Y-16.504
X-45.891 Y-16.583
X-45.92 Y-16.66
X-46.059 Y-16.977
X-46.085 Y-17.029
X-46.165 Y-17.178
X-46.201 Y-17.239
X-46.294 Y-17.379
X-46.346 Y-17.448
X-46.361 Y-17.466
G2 X-45.435 Y-18.195 I0.176 J-0.729
G1 Y-19.028
X-44.286
Y-13.885
X-44.294 Y-13.839
X-44.315 Y-13.797
X-44.348 Y-13.764
X-44.39 Y-13.742
X-44.437 Y-13.735
X-44.586
X-44.633 Z-0.993
X-44.675 Z-0.971
X-44.708 Z-0.938
X-44.729 Z-0.896
X-44.736 Z-0.85
G0 Z5
Y-14.035
G1 Z0.25 F300
Z-1.05
X-44.729 Z-1.096 F400
X-44.708 Z-1.138
X-44.675 Z-1.171
X-44.633 Z-1.193
X-44.586 Z-1.2
X-44.437
X-44.39 Y-14.028
X-44.348 Y-14.006
X-44.315 Y-13.973
X-44.294 Y-13.931
X-44.286 Y-13.885
Y-9.75 F600
X-45.638
Y-13.882
Y-13.883
X-45.64 Y-14.529
Y-14.55
X-45.65 Y-14.872
X-45.651 Y-14.897
X-45.671 Y-15.217
X-45.674 Y-15.249
X-45.705 Y-15.548
X-45.709 Y-15.579
X-45.751 Y-15.862
X-45.754 Y-15.885
X-45.806 Y-16.174
X-45.808 Y-16.184
X-45.838 Y-16.338
X-45.839 Y-16.34
X-45.871 Y-16.504
X-45.891 Y-16.583
X-45.92 Y-16.66
X-46.059 Y-16.977
X-46.085 Y-17.029
X-46.165 Y-17.178
X-46.201 Y-17.239
X-46.294 Y-17.379
X-46.346 Y-17.448
X-46.361 Y-17.466
G2 X-45.435 Y-18.195 I0.176 J-0.729
G1 Y-19.028
X-44.286
Y-13.885
X-44.294 Y-13.839
X-44.315 Y-13.797
X-44.348 Y-13.764
X-44.39 Y-13.742
X-44.437 Y-13.735
X-44.586
X-44.633 Z-1.193
X-44.675 Z-1.171
X-44.708 Z-1.138
X-44.729 Z-1.096
X-44.736 Z-1.05
G0 Z5
X-51.682 Y-15.831
G1 Z1.25 F300
Z-0.1
X-51.675 Z-0.146 F400
X-51.654 Y-15.83 Z-0.188
X-51.62 Y-15.828 Z-0.221
X-51.579 Y-15.827 Z-0.243
X-51.532 Y-15.825 Z-0.25
X-51.383 Y-15.819
X-51.336 Y-15.81
X-51.296 Y-15.787
X-51.264 Y-15.752
X-51.244 Y-15.71
X-51.239 Y-15.663
X-51.26 Y-15.126 F600
X-51.261 Y-15.094
X-51.259 Y-14.5
Y-9.75
X-52.611
Y-15.694
X-52.605 Y-16.167
X-52.584 Y-16.624
X-52.565 Y-16.827
X-52.538 Y-17.029
X-52.505 Y-17.246
X-52.471 Y-17.446
X-52.397 Y-17.693
X-52.306 Y-17.928
X-52.186 Y-18.147
X-52.052 Y-18.35
X-51.968 Y-18.441
X-51.861 Y-18.552
X-51.766 Y-18.64
X-51.672 Y-18.714
X-51.566 Y-18.784
X-51.445 Y-18.853
X-51.171 Y-18.989
X-50.809 Y-19.116
X-50.64 Y-19.166
X-50.475 Y-19.204
X-50.305 Y-19.231
X-50.123 Y-19.25
X-49.765 Y-19.269
X-49.31 Y-19.211
X-48.835 Y-19.131
X-48.631 Y-19.083
X-48.436 Y-19.025
X-48.256 Y-18.958
X-48.087 Y-18.88
X-47.924 Y-18.785
X-47.761 Y-18.673
X-47.596 Y-18.544
X-47.433 Y-18.401
X-47.204 Y-18.176
X-47.36 Y-18.263
X-47.409 Y-18.287
X-47.567 Y-18.361
X-47.627 Y-18.386
X-47.79 Y-18.445
X-47.867 Y-18.468
X-48.036 Y-18.51
X-48.099 Y-18.523
X-48.272 Y-18.55
X-48.324 Y-18.556
X-48.679 Y-18.587
X-48.738 Y-18.59
X-48.797 Y-18.588
X-49.06 Y-18.569
X-49.11 Y-18.563
X-49.239 Y-18.545
X-49.301 Y-18.534
X-49.427 Y-18.505
X-49.502 Y-18.484
X-49.622 Y-18.443
X-49.685 Y-18.419
X-49.801 Y-18.367
X-49.852 Y-18.342
X-50.087 Y-18.216
X-50.157 Y-18.174
X-50.222 Y-18.124
X-50.416 Y-17.956
X-50.458 Y-17.917
X-50.546 Y-17.83
X-50.592 Y-17.779
X-50.671 Y-17.684
X-50.719 Y-17.619
X-50.787 Y-17.515
X-50.821 Y-17.458
X-50.881 Y-17.347
X-50.905 Y-17.3
X-51.01 Y-17.067
X-51.041 Y-16.985
X-51.063 Y-16.898
X-51.117 Y-16.616
X-51.119 Y-16.604
X-51.164 Y-16.345
X-51.167 Y-16.322
X-51.203 Y-16.066
X-51.207 Y-16.035
X-51.233 Y-15.762
X-51.236 Y-15.719
X-51.239 Y-15.663
X-51.248 Y-15.617
X-51.271 Y-15.576
X-51.305 Y-15.544
X-51.348 Y-15.525
X-51.395 Y-15.519
X-51.544 Y-15.525
X-51.591 Y-15.527 Z-0.243
X-51.632 Y-15.529 Z-0.221
X-51.666 Y-15.53 Z-0.188
X-51.687 Y-15.531 Z-0.146
X-51.694 Z-0.1
G0 Z5
X-51.682 Y-15.831
G1 Z1 F300
Z-0.35
X-51.675 Z-0.396 F400
X-51.654 Y-15.83 Z-0.438
X-51.62 Y-15.828 Z-0.471
X-51.579 Y-15.827 Z-0.493
X-51.532 Y-15.825 Z-0.5
X-51.383 Y-15.819
X-51.336 Y-15.81
X-51.296 Y-15.787
X-51.264 Y-15.752
X-51.244 Y-15.71
X-51.239 Y-15.663
X-51.26 Y-15.126 F600
X-51.261 Y-15.094
X-51.259 Y-14.5
Y-9.75
X-52.611
Y-15.694
X-52.605 Y-16.167
X-52.584 Y-16.624
X-52.565 Y-16.827
X-52.538 Y-17.029
X-52.505 Y-17.246
X-52.471 Y-17.446
X-52.397 Y-17.693
X-52.306 Y-17.928
X-52.186 Y-18.147
X-52.052 Y-18.35
X-51.968 Y-18.441
X-51.861 Y-18.552
X-51.766 Y-18.64
X-51.672 Y-18.714
X-51.566 Y-18.784
X-51.445 Y-18.853
X-51.171 Y-18.989
X-50.809 Y-19.116
X-50.64 Y-19.166
X-50.475 Y-19.204
X-50.305 Y-19.231
X-50.123 Y-19.25
X-49.765 Y-19.269
X-49.31 Y-19.211
X-48.835 Y-19.131
X-48.631 Y-19.083
X-48.436 Y-19.025
X-48.256 Y-18.958
X-48.087 Y-18.88
X-47.924 Y-18.785
X-47.761 Y-18.673
X-47.596 Y-18.544
X-47.433 Y-18.401
X-47.204 Y-18.176
X-47.36 Y-18.263
X-47.409 Y-18.287
X-47.567 Y-18.361
X-47.627 Y-18.386
X-47.79 Y-18.445
X-47.867 Y-18.468
X-48.036 Y-18.51
X-48.099 Y-18.523
X-48.272 Y-18.55
X-48.324 Y-18.556
X-48.679 Y-18.587
X-48.738 Y-18.59
X-48.797 Y-18.588
X-49.06 Y-18.569
X-49.11 Y-18.563
X-49.239 Y-18.545
X-49.301 Y-18.534
X-49.427 Y-18.505
X-49.502 Y-18.484
X-49.622 Y-18.443
X-49.685 Y-18.419
X-49.801 Y-18.367
X-49.852 Y-18.342
X-50.087 Y-18.216
X-50.157 Y-18.174
X-50.222 Y-18.124
X-50.416 Y-17.956
X-50.458 Y-17.917
X-50.546 Y-17.83
X-50.592 Y-17.779
X-50.671 Y-17.684
X-50.719 Y-17.619
X-50.787 Y-17.515
X-50.821 Y-17.458
X-50.881 Y-17.347
X-50.905 Y-17.3
X-51.01 Y-17.067
X-51.041 Y-16.985
X-51.063 Y-16.898
X-51.117 Y-16.616
X-51.119 Y-16.604
X-51.164 Y-16.345
X-51.167 Y-16.322
X-51.203 Y-16.066
X-51.207 Y-16.035
X-51.233 Y-15.762
X-51.236 Y-15.719
X-51.239 Y-15.663
X-51.248 Y-15.617
X-51.271 Y-15.576
X-51.305 Y-15.544
X-51.348 Y-15.525
X-51.395 Y-15.519
X-51.544 Y-15.525
X-51.591 Y-15.527 Z-0.493
X-51.632 Y-15.529 Z-0.471
X-51.666 Y-15.53 Z-0.438
X-51.687 Y-15.531 Z-0.396
X-51.694 Z-0.35
G0 Z5
X-51.682 Y-15.831
G1 Z0.75 F300
Z-0.6
X-51.675 Z-0.646 F400
X-51.654 Y-15.83 Z-0.688
X-51.62 Y-15.828 Z-0.721
X-51.579 Y-15.827 Z-0.743
X-51.532 Y-15.825 Z-0.75
X-51.383 Y-15.819
X-51.336 Y-15.81
X-51.296 Y-15.787
X-51.264 Y-15.752
X-51.244 Y-15.71
X-51.239 Y-15.663
X-51.26 Y-15.126 F600
X-51.261 Y-15.094
X-51.259 Y-14.5
Y-9.75
X-52.611
Y-15.694
X-52.605 Y-16.167
X-52.584 Y-16.624
X-52.565 Y-16.827
X-52.538 Y-17.029
X-52.505 Y-17.246
X-52.471 Y-17.446
X-52.397 Y-17.693
X-52.306 Y-17.928
X-52.186 Y-18.147
X-52.052 Y-18.35
X-51.968 Y-18.441
X-51.861 Y-18.552
X-51.766 Y-18.64
X-51.672 Y-18.714
X-51.566 Y-18.784
X-51.445 Y-18.853
X-51.171 Y-18.989
X-50.809 Y-19.116
X-50.64 Y-19.166
X-50.475 Y-19.204
X-50.305 Y-19.231
X-50.123 Y-19.25
X-49.765 Y-19.269
X-49.31 Y-19.211
X-48.835 Y-19.131
X-48.631 Y-19.083
X-48.436 Y-19.025
X-48.256 Y-18.958
X-48.087 Y-18.88
X-47.924 Y-18.785
X-47.761 Y-18.673
X-47.596 Y-18.544
X-47.433 Y-18.401
X-47.204 Y-18.176
X-47.36 Y-18.263
X-47.409 Y-18.287
X-47.567 Y-18.361
X-47.627 Y-18.386
X-47.79 Y-18.445
X-47.867 Y-18.468
X-48.036 Y-18.51
X-48.099 Y-18.523
X-48.272 Y-18.55
X-48.324 Y-18.556
X-48.679 Y-18.587
X-48.738 Y-18.59
X-48.797 Y-18.588
X-49.06 Y-18.569
X-49.11 Y-18.563
X-49.239 Y-18.545
X-49.301 Y-18.534
X-49.427 Y-18.505
X-49.502 Y-18.484
X-49.622 Y-18.443
X-49.685 Y-18.419
X-49.801 Y-18.367
X-49.852 Y-18.342
X-50.087 Y-18.216
X-50.157 Y-18.174
X-50.222 Y-18.124
X-50.416 Y-17.956
X-50.458 Y-17.917
X-50.546 Y-17.83
X-50.592 Y-17.779
X-50.671 Y-17.684
X-50.719 Y-17.619
X-50.787 Y-17.515
X-50.821 Y-17.458
X-50.881 Y-17.347
X-50.905 Y-17.3
X-51.01 Y-17.067
X-51.041 Y-16.985
X-51.063 Y-16.898
X-51.117 Y-16.616
X-51.119 Y-16.604
X-51.164 Y-16.345
X-51.167 Y-16.322
X-51.203 Y-16.066
X-51.207 Y-16.035
X-51.233 Y-15.762
X-51.236 Y-15.719
X-51.239 Y-15.663
X-51.248 Y-15.617
X-51.271 Y-15.576
X-51.305 Y-15.544
X-51.348 Y-15.525
X-51.395 Y-15.519
X-51.544 Y-15.525
X-51.591 Y-15.527 Z-0.743
X-51.632 Y-15.529 Z-0.721
X-51.666 Y-15.53 Z-0.688
X-51.687 Y-15.531 Z-0.646
X-51.694 Z-0.6
G0 Z5
X-51.682 Y-15.831
G1 Z0.5 F300
Z-0.85
X-51.675 Z-0.896 F400
X-51.654 Y-15.83 Z-0.938
X-51.62 Y-15.828 Z-0.971
X-51.579 Y-15.827 Z-0.993
X-51.532 Y-15.825 Z-1
X-51.383 Y-15.819
X-51.336 Y-15.81
X-51.296 Y-15.787
X-51.264 Y-15.752
X-51.244 Y-15.71
X-51.239 Y-15.663
X-51.26 Y-15.126 F600
X-51.261 Y-15.094
X-51.259 Y-14.5
Y-9.75
X-52.611
Y-15.694
X-52.605 Y-16.167
X-52.584 Y-16.624
X-52.565 Y-16.827
X-52.538 Y-17.029
X-52.505 Y-17.246
X-52.471 Y-17.446
X-52.397 Y-17.693
X-52.306 Y-17.928
X-52.186 Y-18.147
X-52.052 Y-18.35
X-51.968 Y-18.441
X-51.861 Y-18.552
X-51.766 Y-18.64
X-51.672 Y-18.714
X-51.566 Y-18.784
X-51.445 Y-18.853
X-51.171 Y-18.989
X-50.809 Y-19.116
X-50.64 Y-19.166
X-50.475 Y-19.204
X-50.305 Y-19.231
X-50.123 Y-19.25
X-49.765 Y-19.269
X-49.31 Y-19.211
X-48.835 Y-19.131
X-48.631 Y-19.083
X-48.436 Y-19.025
X-48.256 Y-18.958
X-48.087 Y-18.88
X-47.924 Y-18.785
X-47.761 Y-18.673
X-47.596 Y-18.544
X-47.433 Y-18.401
X-47.204 Y-18.176
X-47.36 Y-18.263
X-47.409 Y-18.287
X-47.567 Y-18.361
X-47.627 Y-18.386
X-47.79 Y-18.445
X-47.867 Y-18.468
X-48.036 Y-18.51
X-48.099 Y-18.523
X-48.272 Y-18.55
X-48.324 Y-18.556
X-48.679 Y-18.587
X-48.738 Y-18.59
X-48.797 Y-18.588
X-49.06 Y-18.569
X-49.11 Y-18.563
X-49.239 Y-18.545
X-49.301 Y-18.534
X-49.427 Y-18.505
X-49.502 Y-18.484
X-49.622 Y-18.443
X-49.685 Y-18.419
X-49.801 Y-18.367
X-49.852 Y-18.342
X-50.087 Y-18.216
X-50.157 Y-18.174
X-50.222 Y-18.124
X-50.416 Y-17.956
X-50.458 Y-17.917
X-50.546 Y-17.83
X-50.592 Y-17.779
X-50.671 Y-17.684
X-50.719 Y-17.619
X-50.787 Y-17.515
X-50.821 Y-17.458
X-50.881 Y-17.347
X-50.905 Y-17.3
X-51.01 Y-17.067
X-51.041 Y-16.985
X-51.063 Y-16.898
X-51.117 Y-16.616
X-51.119 Y-16.604
X-51.164 Y-16.345
X-51.167 Y-16.322
X-51.203 Y-16.066
X-51.207 Y-16.035
X-51.233 Y-15.762
X-51.236 Y-15.719
X-51.239 Y-15.663
X-51.248 Y-15.617
X-51.271 Y-15.576
X-51.305 Y-15.544
X-51.348 Y-15.525
X-51.395 Y-15.519
X-51.544 Y-15.525
X-51.591 Y-15.527 Z-0.993
X-51.632 Y-15.529 Z-0.971
X-51.666 Y-15.53 Z-0.938
X-51.687 Y-15.531 Z-0.896
X-51.694 Z-0.85
G0 Z5
X-51.682 Y-15.831
G1 Z0.25 F300
Z-1.05
X-51.675 Z-1.096 F400
X-51.654 Y-15.83 Z-1.138
X-51.62 Y-15.828 Z-1.171
X-51.579 Y-15.827 Z-1.193
X-51.532 Y-15.825 Z-1.2
X-51.383 Y-15.819
X-51.336 Y-15.81
X-51.296 Y-15.787
X-51.264 Y-15.752
X-51.244 Y-15.71
X-51.239 Y-15.663
X-51.26 Y-15.126 F600
X-51.261 Y-15.094
X-51.259 Y-14.5
Y-9.75
X-52.611
Y-15.694
X-52.605 Y-16.167
X-52.584 Y-16.624
X-52.565 Y-16.827
X-52.538 Y-17.029
X-52.505 Y-17.246
X-52.471 Y-17.446
X-52.397 Y-17.693
X-52.306 Y-17.928
X-52.186 Y-18.147
X-52.052 Y-18.35
X-51.968 Y-18.441
X-51.861 Y-18.552
X-51.766 Y-18.64
X-51.672 Y-18.714
X-51.566 Y-18.784
X-51.445 Y-18.853
X-51.171 Y-18.989
X-50.809 Y-19.116
X-50.64 Y-19.166
X-50.475 Y-19.204
X-50.305 Y-19.231
X-50.123 Y-19.25
X-49.765 Y-19.269
X-49.31 Y-19.211
X-48.835 Y-19.131
X-48.631 Y-19.083
X-48.436 Y-19.025
X-48.256 Y-18.958
X-48.087 Y-18.88
X-47.924 Y-18.785
X-47.761 Y-18.673
X-47.596 Y-18.544
X-47.433 Y-18.401
X-47.204 Y-18.176
X-47.36 Y-18.263
X-47.409 Y-18.287
X-47.567 Y-18.361
X-47.627 Y-18.386
X-47.79 Y-18.445
X-47.867 Y-18.468
X-48.036 Y-18.51
X-48.099 Y-18.523
X-48.272 Y-18.55
X-48.324 Y-18.556
X-48.679 Y-18.587
X-48.738 Y-18.59
X-48.797 Y-18.588
X-49.06 Y-18.569
X-49.11 Y-18.563
X-49.239 Y-18.545
X-49.301 Y-18.534
X-49.427 Y-18.505
X-49.502 Y-18.484
X-49.622 Y-18.443
X-49.685 Y-18.419
X-49.801 Y-18.367
X-49.852 Y-18.342
X-50.087 Y-18.216
X-50.157 Y-18.174
X-50.222 Y-18.124
X-50.416 Y-17.956
X-50.458 Y-17.917
X-50.546 Y-17.83
X-50.592 Y-17.779
X-50.671 Y-17.684
X-50.719 Y-17.619
X-50.787 Y-17.515
X-50.821 Y-17.458
X-50.881 Y-17.347
X-50.905 Y-17.3
X-51.01 Y-17.067
X-51.041 Y-16.985
X-51.063 Y-16.898
X-51.117 Y-16.616
X-51.119 Y-16.604
X-51.164 Y-16.345
X-51.167 Y-16.322
X-51.203 Y-16.066
X-51.207 Y-16.035
X-51.233 Y-15.762
X-51.236 Y-15.719
X-51.239 Y-15.663
X-51.248 Y-15.617
X-51.271 Y-15.576
X-51.305 Y-15.544
X-51.348 Y-15.525
X-51.395 Y-15.519
X-51.544 Y-15.525
X-51.591 Y-15.527 Z-1.193
X-51.632 Y-15.529 Z-1.171
X-51.666 Y-15.53 Z-1.138
X-51.687 Y-15.531 Z-1.096
X-51.694 Z-1.05
G0 Z5
X-21.454 Y-12.113
G1 Z1.25 F300
Z-0.1
X-21.447 Y-12.11 Z-0.146 F400
X-21.428 Y-12.102 Z-0.188
X-21.397 Y-12.089 Z-0.221
X-21.359 Y-12.072 Z-0.243
X-21.316 Y-12.054 Z-0.25
X-21.178 Y-11.995
X-21.138 Y-11.97
X-21.108 Y-11.934
X-21.091 Y-11.89
X-21.088 Y-11.844
X-21.099 Y-11.798
X-21.122 Y-11.745 F600
X-21.28 Y-11.501
X-21.468 Y-11.231
X-21.653 Y-10.993
X-21.845 Y-10.789
X-22.058 Y-10.605
X-22.305 Y-10.428
X-22.584 Y-10.251
X-22.843 Y-10.097
X-23.212 Y-9.94
X-23.5 Y-9.829
Y-10.9
X-23.385 Y-10.985
X-23.332 Y-11.027
X-22.944 Y-11.372
X-22.873 Y-11.444
X-22.813 Y-11.524
X-22.622 Y-11.818
X-22.607 Y-11.842
X-22.441 Y-12.119
X-22.413 Y-12.17
X-22.274 Y-12.447
X-22.25 Y-12.503
X-22.192 Y-12.647
X-22.176 Y-12.69
X-22.126 Y-12.841
X-22.107 Y-12.907
X-22.033 Y-13.223
X-22.02 Y-13.294
X-21.976 Y-13.62
X-21.971 Y-13.666
X-21.947 Y-13.999
X-21.946 Y-14.021
X-21.931 Y-14.357
Y-14.421
X-21.946 Y-14.757
X-21.947 Y-14.779
X-21.971 Y-15.112
X-21.976 Y-15.158
X-22.02 Y-15.485
X-22.033 Y-15.555
X-22.107 Y-15.872
X-22.126 Y-15.937
X-22.176 Y-16.088
X-22.192 Y-16.131
X-22.25 Y-16.275
X-22.274 Y-16.331
X-22.413 Y-16.608
X-22.441 Y-16.659
X-22.607 Y-16.936
X-22.622 Y-16.96
X-22.813 Y-17.254
X-22.873 Y-17.334
X-22.944 Y-17.406
X-23.332 Y-17.751
X-23.385 Y-17.793
X-23.5 Y-17.878
Y-18.96
X-23.185 Y-18.833
X-22.803 Y-18.661
X-22.554 Y-18.499
X-22.283 Y-18.311
X-22.043 Y-18.125
X-21.835 Y-17.932
X-21.646 Y-17.718
X-21.467 Y-17.476
X-21.121 Y-16.935
X-20.861 Y-16.349
X-20.751 Y-16.058
X-20.665 Y-15.773
X-20.604 Y-15.484
X-20.561 Y-15.177
X-20.531 Y-14.846
X-20.509 Y-14.535
X-20.548 Y-13.779
X-20.586 Y-13.418
X-20.646 Y-13.074
X-20.731 Y-12.747
X-20.843 Y-12.42
X-20.982 Y-12.071
X-21.099 Y-11.798
X-21.124 Y-11.758
X-21.16 Y-11.728
X-21.204 Y-11.711
X-21.251 Y-11.708
X-21.296 Y-11.719
X-21.434 Y-11.778
X-21.477 Y-11.797 Z-0.243
X-21.515 Y-11.813 Z-0.221
X-21.546 Y-11.826 Z-0.188
X-21.565 Y-11.834 Z-0.146
X-21.572 Y-11.837 Z-0.1
G0 Z5
X-21.454 Y-12.113
G1 Z1 F300
Z-0.35
X-21.447 Y-12.11 Z-0.396 F400
X-21.428 Y-12.102 Z-0.438
X-21.397 Y-12.089 Z-0.471
X-21.359 Y-12.072 Z-0.493
X-21.316 Y-12.054 Z-0.5
X-21.178 Y-11.995
X-21.138 Y-11.97
X-21.108 Y-11.934
X-21.091 Y-11.89
X-21.088 Y-11.844
X-21.099 Y-11.798
X-21.122 Y-11.745 F600
X-21.28 Y-11.501
X-21.468 Y-11.231
X-21.653 Y-10.993
X-21.845 Y-10.789
X-22.058 Y-10.605
X-22.305 Y-10.428
X-22.584 Y-10.251
X-22.843 Y-10.097
X-23.212 Y-9.94
X-23.5 Y-9.829
Y-10.9
X-23.385 Y-10.985
X-23.332 Y-11.027
X-22.944 Y-11.372
X-22.873 Y-11.444
X-22.813 Y-11.524
X-22.622 Y-11.818
X-22.607 Y-11.842
X-22.441 Y-12.119
X-22.413 Y-12.17
X-22.274 Y-12.447
X-22.25 Y-12.503
X-22.192 Y-12.647
X-22.176 Y-12.69
X-22.126 Y-12.841
X-22.107 Y-12.907
X-22.033 Y-13.223
X-22.02 Y-13.294
X-21.976 Y-13.62
X-21.971 Y-13.666
X-21.947 Y-13.999
X-21.946 Y-14.021
X-21.931 Y-14.357
Y-14.421
X-21.946 Y-14.757
X-21.947 Y-14.779
X-21.971 Y-15.112
X-21.976 Y-15.158
X-22.02 Y-15.485
X-22.033 Y-15.555
X-22.107 Y-15.872
X-22.126 Y-15.937
X-22.176 Y-16.088
X-22.192 Y-16.131
X-22.25 Y-16.275
X-22.274 Y-16.331
X-22.413 Y-16.608
X-22.441 Y-16.659
X-22.607 Y-16.936
X-22.622 Y-16.96
X-22.813 Y-17.254
X-22.873 Y-17.334
X-22.944 Y-17.406
X-23.332 Y-17.751
X-23.385 Y-17.793
X-23.5 Y-17.878
Y-18.96
X-23.185 Y-18.833
X-22.803 Y-18.661
X-22.554 Y-18.499
X-22.283 Y-18.311
X-22.043 Y-18.125
X-21.835 Y-17.932
X-21.646 Y-17.718
X-21.467 Y-17.476
X-21.121 Y-16.935
X-20.861 Y-16.349
X-20.751 Y-16.058
X-20.665 Y-15.773
X-20.604 Y-15.484
X-20.561 Y-15.177
X-20.531 Y-14.846
X-20.509 Y-14.535
X-20.548 Y-13.779
X-20.586 Y-13.418
X-20.646 Y-13.074
X-20.731 Y-12.747
X-20.843 Y-12.42
X-20.982 Y-12.071
X-21.099 Y-11.798
X-21.124 Y-11.758
X-21.16 Y-11.728
X-21.204 Y-11.711
X-21.251 Y-11.708
X-21.296 Y-11.719
X-21.434 Y-11.778
X-21.477 Y-11.797 Z-0.493
X-21.515 Y-11.813 Z-0.471
X-21.546 Y-11.826 Z-0.438
X-21.565 Y-11.834 Z-0.396
X-21.572 Y-11.837 Z-0.35
G0 Z5
X-21.454 Y-12.113
G1 Z0.75 F300
Z-0.6
X-21.447 Y-12.11 Z-0.646 F400
X-21.428 Y-12.102 Z-0.688
X-21.397 Y-12.089 Z-0.721
X-21.359 Y-12.072 Z-0.743
X-21.316 Y-12.054 Z-0.75
X-21.178 Y-11.995
X-21.138 Y-11.97
X-21.108 Y-11.934
X-21.091 Y-11.89
X-21.088 Y-11.844
X-21.099 Y-11.798
X-21.122 Y-11.745 F600
X-21.28 Y-11.501
X-21.468 Y-11.231
X-21.653 Y-10.993
X-21.845 Y-10.789
X-22.058 Y-10.605
X-22.305 Y-10.428
X-22.584 Y-10.251
X-22.843 Y-10.097
X-23.212 Y-9.94
X-23.5 Y-9.829
Y-10.9
X-23.385 Y-10.985
X-23.332 Y-11.027
X-22.944 Y-11.372
X-22.873 Y-11.444
X-22.813 Y-11.524
X-22.622 Y-11.818
X-22.607 Y-11.842
X-22.441 Y-12.119
X-22.413 Y-12.17
X-22.274 Y-12.447
X-22.25 Y-12.503
X-22.192 Y-12.647
X-22.176 Y-12.69
X-22.126 Y-12.841
X-22.107 Y-12.907
X-22.033 Y-13.223
X-22.02 Y-13.294
X-21.976 Y-13.62
X-21.971 Y-13.666
X-21.947 Y-13.999
X-21.946 Y-14.021
X-21.931 Y-14.357
Y-14.421
X-21.946 Y-14.757
X-21.947 Y-14.779
X-21.971 Y-15.112
X-21.976 Y-15.158
X-22.02 Y-15.485
X-22.033 Y-15.555
X-22.107 Y-15.872
X-22.126 Y-15.937
X-22.176 Y-16.088
X-22.192 Y-16.131
X-22.25 Y-16.275
X-22.274 Y-16.331
X-22.413 Y-16.608
X-22.441 Y-16.659
X-22.607 Y-16.936
X-22.622 Y-16.96
X-22.813 Y-17.254
X-22.873 Y-17.334
X-22.944 Y-17.406
X-23.332 Y-17.751
X-23.385 Y-17.793
X-23.5 Y-17.878
Y-18.96
X-23.185 Y-18.833
X-22.803 Y-18.661
X-22.554 Y-18.499
X-22.283 Y-18.311
X-22.043 Y-18.125
X-21.835 Y-17.932
X-21.646 Y-17.718
X-21.467 Y-17.476
X-21.121 Y-16.935
X-20.861 Y-16.349
X-20.751 Y-16.058
X-20.665 Y-15.773
X-20.604 Y-15.484
X-20.561 Y-15.177
X-20.531 Y-14.846
X-20.509 Y-14.535
X-20.548 Y-13.779
X-20.586 Y-13.418
X-20.646 Y-13.074
X-20.731 Y-12.747
X-20.843 Y-12.42
X-20.982 Y-12.071
X-21.099 Y-11.798
X-21.124 Y-11.758
X-21.16 Y-11.728
X-21.204 Y-11.711
X-21.251 Y-11.708
X-21.296 Y-11.719
X-21.434 Y-11.778
X-21.477 Y-11.797 Z-0.743
X-21.515 Y-11.813 Z-0.721
X-21.546 Y-11.826 Z-0.688
X-21.565 Y-11.834 Z-0.646
X-21.572 Y-11.837 Z-0.6
G0 Z5
X-21.454 Y-12.113
G1 Z0.5 F300
Z-0.85
X-21.447 Y-12.11 Z-0.896 F400
X-21.428 Y-12.102 Z-0.938
X-21.397 Y-12.089 Z-0.971
X-21.359 Y-12.072 Z-0.993
X-21.316 Y-12.054 Z-1
X-21.178 Y-11.995
X-21.138 Y-11.97
X-21.108 Y-11.934
X-21.091 Y-11.89
X-21.088 Y-11.844
X-21.099 Y-11.798
X-21.122 Y-11.745 F600
X-21.28 Y-11.501
X-21.468 Y-11.231
X-21.653 Y-10.993
X-21.845 Y-10.789
X-22.058 Y-10.605
X-22.305 Y-10.428
X-22.584 Y-10.251
X-22.843 Y-10.097
X-23.212 Y-9.94
X-23.5 Y-9.829
Y-10.9
X-23.385 Y-10.985
X-23.332 Y-11.027
X-22.944 Y-11.372
X-22.873 Y-11.444
X-22.813 Y-11.524
X-22.622 Y-11.818
X-22.607 Y-11.842
X-22.441 Y-12.119
X-22.413 Y-12.17
X-22.274 Y-12.447
X-22.25 Y-12.503
X-22.192 Y-12.647
X-22.176 Y-12.69
X-22.126 Y-12.841
X-22.107 Y-12.907
X-22.033 Y-13.223
X-22.02 Y-13.294
X-21.976 Y-13.62
X-21.971 Y-13.666
X-21.947 Y-13.999
X-21.946 Y-14.021
X-21.931 Y-14.357
Y-14.421
X-21.946 Y-14.757
X-21.947 Y-14.779
X-21.971 Y-15.112
X-21.976 Y-15.158
X-22.02 Y-15.485
X-22.033 Y-15.555
X-22.107 Y-15.872
X-22.126 Y-15.937
X-22.176 Y-16.088
X-22.192 Y-16.131
X-22.25 Y-16.275
X-22.274 Y-16.331
X-22.413 Y-16.608
X-22.441 Y-16.659
X-22.607 Y-16.936
X-22.622 Y-16.96
X-22.813 Y-17.254
X-22.873 Y-17.334
X-22.944 Y-17.406
X-23.332 Y-17.751
X-23.385 Y-17.793
X-23.5 Y-17.878
Y-18.96
X-23.185 Y-18.833
X-22.803 Y-18.661
X-22.554 Y-18.499
X-22.283 Y-18.311
X-22.043 Y-18.125
X-21.835 Y-17.932
X-21.646 Y-17.718
X-21.467 Y-17.476
X-21.121 Y-16.935
X-20.861 Y-16.349
X-20.751 Y-16.058
X-20.665 Y-15.773
X-20.604 Y-15.484
X-20.561 Y-15.177
X-20.531 Y-14.846
X-20.509 Y-14.535
X-20.548 Y-13.779
X-20.586 Y-13.418
X-20.646 Y-13.074
X-20.731 Y-12.747
X-20.843 Y-12.42
X-20.982 Y-12.071
X-21.099 Y-11.798
X-21.124 Y-11.758
X-21.16 Y-11.728
X-21.204 Y-11.711
X-21.251 Y-11.708
X-21.296 Y-11.719
X-21.434 Y-11.778
X-21.477 Y-11.797 Z-0.993
X-21.515 Y-11.813 Z-0.971
X-21.546 Y-11.826 Z-0.938
X-21.565 Y-11.834 Z-0.896
X-21.572 Y-11.837 Z-0.85
G0 Z5
X-21.454 Y-12.113
G1 Z0.25 F300
Z-1.05
X-21.447 Y-12.11 Z-1.096 F400
X-21.428 Y-12.102 Z-1.138
X-21.397 Y-12.089 Z-1.171
X-21.359 Y-12.072 Z-1.193
X-21.316 Y-12.054 Z-1.2
X-21.178 Y-11.995
X-21.138 Y-11.97
X-21.108 Y-11.934
X-21.091 Y-11.89
X-21.088 Y-11.844
X-21.099 Y-11.798
X-21.122 Y-11.745 F600
X-21.28 Y-11.501
X-21.468 Y-11.231
X-21.653 Y-10.993
X-21.845 Y-10.789
X-22.058 Y-10.605
X-22.305 Y-10.428
X-22.584 Y-10.251
X-22.843 Y-10.097
X-23.212 Y-9.94
X-23.5 Y-9.829
Y-10.9
X-23.385 Y-10.985
X-23.332 Y-11.027
X-22.944 Y-11.372
X-22.873 Y-11.444
X-22.813 Y-11.524
X-22.622 Y-11.818
X-22.607 Y-11.842
X-22.441 Y-12.119
X-22.413 Y-12.17
X-22.274 Y-12.447
X-22.25 Y-12.503
X-22.192 Y-12.647
X-22.176 Y-12.69
X-22.126 Y-12.841
X-22.107 Y-12.907
X-22.033 Y-13.223
X-22.02 Y-13.294
X-21.976 Y-13.62
X-21.971 Y-13.666
X-21.947 Y-13.999
X-21.946 Y-14.021
X-21.931 Y-14.357
Y-14.421
X-21.946 Y-14.757
X-21.947 Y-14.779
X-21.971 Y-15.112
X-21.976 Y-15.158
X-22.02 Y-15.485
X-22.033 Y-15.555
X-22.107 Y-15.872
X-22.126 Y-15.937
X-22.176 Y-16.088
X-22.192 Y-16.131
X-22.25 Y-16.275
X-22.274 Y-16.331
X-22.413 Y-16.608
X-22.441 Y-16.659
X-22.607 Y-16.936
X-22.622 Y-16.96
X-22.813 Y-17.254
X-22.873 Y-17.334
X-22.944 Y-17.406
X-23.332 Y-17.751
X-23.385 Y-17.793
X-23.5 Y-17.878
Y-18.96
X-23.185 Y-18.833
X-22.803 Y-18.661
X-22.554 Y-18.499
X-22.283 Y-18.311
X-22.043 Y-18.125
X-21.835 Y-17.932
X-21.646 Y-17.718
X-21.467 Y-17.476
X-21.121 Y-16.935
X-20.861 Y-16.349
X-20.751 Y-16.058
X-20.665 Y-15.773
X-20.604 Y-15.484
X-20.561 Y-15.177
X-20.531 Y-14.846
X-20.509 Y-14.535
X-20.548 Y-13.779
X-20.586 Y-13.418
X-20.646 Y-13.074
X-20.731 Y-12.747
X-20.843 Y-12.42
X-20.982 Y-12.071
X-21.099 Y-11.798
X-21.124 Y-11.758
X-21.16 Y-11.728
X-21.204 Y-11.711
X-21.251 Y-11.708
X-21.296 Y-11.719
X-21.434 Y-11.778
X-21.477 Y-11.797 Z-1.193
X-21.515 Y-11.813 Z-1.171
X-21.546 Y-11.826 Z-1.138
X-21.565 Y-11.834 Z-1.096
X-21.572 Y-11.837 Z-1.05
G0 Z5
X-14.584 Y-21.511
G1 Z1.25 F300
Z-0.1
X-14.577 Z-0.146 F400
X-14.556 Z-0.188
X-14.522 Z-0.221
X-14.481 Z-0.243
X-14.434 Z-0.25
X-14.284
X-14.238 Y-21.504
X-14.196 Y-21.483
X-14.163 Y-21.449
X-14.142 Y-21.408
X-14.134 Y-21.361
Y-9.75 F600
X-15.638
Y-21.361
G2 X-16.388 Y-22.111 I-0.75 J0
G1 X-20.043
Y-23.128
X-9.72
Y-22.111
X-13.384
G2 X-14.134 Y-21.361 I0 J0.75
G1 X-14.142 Y-21.315
X-14.163 Y-21.273
X-14.196 Y-21.24
X-14.238 Y-21.219
X-14.284 Y-21.211
X-14.434
X-14.481 Z-0.243
X-14.522 Z-0.221
X-14.556 Z-0.188
X-14.577 Z-0.146
X-14.584 Z-0.1
G0 Z5
Y-21.511
G1 Z1 F300
Z-0.35
X-14.577 Z-0.396 F400
X-14.556 Z-0.438
X-14.522 Z-0.471
X-14.481 Z-0.493
X-14.434 Z-0.5
X-14.284
X-14.238 Y-21.504
X-14.196 Y-21.483
X-14.163 Y-21.449
X-14.142 Y-21.408
X-14.134 Y-21.361
Y-9.75 F600
X-15.638
Y-21.361
G2 X-16.388 Y-22.111 I-0.75 J0
G1 X-20.043
Y-23.128
X-9.72
Y-22.111
X-13.384
G2 X-14.134 Y-21.361 I0 J0.75
G1 X-14.142 Y-21.315
X-14.163 Y-21.273
X-14.196 Y-21.24
X-14.238 Y-21.219
X-14.284 Y-21.211
X-14.434
X-14.481 Z-0.493
X-14.522 Z-0.471
X-14.556 Z-0.438
X-14.577 Z-0.396
X-14.584 Z-0.35
G0 Z5
Y-21.511
G1 Z0.75 F300
Z-0.6
X-14.577 Z-0.646 F400
X-14.556 Z-0.688
X-14.522 Z-0.721
X-14.481 Z-0.743
X-14.434 Z-0.75
X-14.284
X-14.238 Y-21.504
X-14.196 Y-21.483
X-14.163 Y-21.449
X-14.142 Y-21.408
X-14.134 Y-21.361
Y-9.75 F600
X-15.638
Y-21.361
G2 X-16.388 Y-22.111 I-0.75 J0
G1 X-20.043
Y-23.128
X-9.72
Y-22.111
X-13.384
G2 X-14.134 Y-21.361 I0 J0.75
G1 X-14.142 Y-21.315
X-14.163 Y-21.273
X-14.196 Y-21.24
X-14.238 Y-21.219
X-14.284 Y-21.211
X-14.434
X-14.481 Z-0.743
X-14.522 Z-0.721
X-14.556 Z-0.688
X-14.577 Z-0.646
X-14.584 Z-0.6
G0 Z5
Y-21.511
G1 Z0.5 F300
Z-0.85
X-14.577 Z-0.896 F400
X-14.556 Z-0.938
X-14.522 Z-0.971
X-14.481 Z-0.993
X-14.434 Z-1
X-14.284
X-14.238 Y-21.504
X-14.196 Y-21.483
X-14.163 Y-21.449
X-14.142 Y-21.408
X-14.134 Y-21.361
Y-9.75 F600
X-15.638
Y-21.361
G2 X-16.388 Y-22.111 I-0.75 J0
G1 X-20.043
Y-23.128
X-9.72
Y-22.111
X-13.384
G2 X-14.134 Y-21.361 I0 J0.75
G1 X-14.142 Y-21.315
X-14.163 Y-21.273
X-14.196 Y-21.24
X-14.238 Y-21.219
X-14.284 Y-21.211
X-14.434
X-14.481 Z-0.993
X-14.522 Z-0.971
X-14.556 Z-0.938
X-14.577 Z-0.896
X-14.584 Z-0.85
G0 Z5
Y-21.511
G1 Z0.25 F300
Z-1.05
X-14.577 Z-1.096 F400
X-14.556 Z-1.138
X-14.522 Z-1.171
X-14.481 Z-1.193
X-14.434 Z-1.2
X-14.284
X-14.238 Y-21.504
X-14.196 Y-21.483
X-14.163 Y-21.449
X-14.142 Y-21.408
X-14.134 Y-21.361
Y-9.75 F600
X-15.638
Y-21.361
G2 X-16.388 Y-22.111 I-0.75 J0
G1 X-20.043
Y-23.128
X-9.72
Y-22.111
X-13.384
G2 X-14.134 Y-21.361 I0 J0.75
G1 X-14.142 Y-21.315
X-14.163 Y-21.273
X-14.196 Y-21.24
X-14.238 Y-21.219
X-14.284 Y-21.211
X-14.434
X-14.481 Z-1.193
X-14.522 Z-1.171
X-14.556 Z-1.138
X-14.577 Z-1.096
X-14.584 Z-1.05
G0 Z15

(2D-Kontur2)
X-50.22 Y-0.25
Z15
Z5
G1 Z2.5 F300
X-4 Z0.886 F1016
G2 X-0.25 Y-4 Z0.68 I0 J-3.75
G1 Y-30.5 Z-0.245
X-0.256 Y-30.639 Z-0.25
G2 X-2 Y-32.25 I-1.744 J0.139 F600
G1 X-2.5
G3 X-2.75 Y-32.5 I0 J-0.25
G1 Y-55.5
G3 X-2.5 Y-55.75 I0.25 J0
G1 X-2
G2 X-0.25 Y-57.5 I0 J-1.75
G1 Y-84
G2 X-4 Y-87.75 I-3.75 J0
G1 X-19
G2 X-21.75 Y-85 I0 J2.75
G1 Y-62
G3 X-26 Y-57.75 I-4.25 J0
G1 X-36
G3 X-40.25 Y-62 I0 J-4.25
G1 Y-85
G2 X-43 Y-87.75 I-2.75 J0
G1 X-58
G2 X-61.75 Y-84 I0 J3.75
G1 Y-57.5
G2 X-60 Y-55.75 I1.75 J0
G1 X-59.5
G3 X-59.25 Y-55.5 I0 J0.25
G1 Y-32.5
G3 X-59.5 Y-32.25 I-0.25 J0
G1 X-60
G2 X-61.75 Y-30.5 I0 J1.75
G1 Y-4
G2 X-58 Y-0.25 I3.75 J0
G1 X-4
G2 X-0.25 Y-4 I0 J-3.75
G1 Y-30.5
X-0.256 Y-30.639
G2 X-2 Y-32.25 Z-0.324 I-1.744 J0.139 F1016
G1 X-2.5 Z-0.338
G3 X-2.75 Y-32.5 Z-0.349 I0 J-0.25
G1 Y-37.801 Z-0.5
Y-55.5 F600
G3 X-2.5 Y-55.75 I0.25 J0
G1 X-2
G2 X-0.25 Y-57.5 I0 J-1.75
G1 Y-84
G2 X-4 Y-87.75 I-3.75 J0
G1 X-19
G2 X-21.75 Y-85 I0 J2.75
G1 Y-62
G3 X-26 Y-57.75 I-4.25 J0
G1 X-36
G3 X-40.25 Y-62 I0 J-4.25
G1 Y-85
G2 X-43 Y-87.75 I-2.75 J0
G1 X-58
G2 X-61.75 Y-84 I0 J3.75
G1 Y-57.5
G2 X-60 Y-55.75 I1.75 J0
G1 X-59.5
G3 X-59.25 Y-55.5 I0 J0.25
G1 Y-32.5
G3 X-59.5 Y-32.25 I-0.25 J0
G1 X-60
G2 X-61.75 Y-30.5 I0 J1.75
G1 Y-4
G2 X-58 Y-0.25 I3.75 J0
G1 X-4
G2 X-0.25 Y-4 I0 J-3.75
G1 Y-30.5
G2 X-2 Y-32.25 I-1.75 J0
G1 X-2.5
G3 X-2.75 Y-32.5 I0 J-0.25
G1 Y-37.801
Y-46.604 Z-0.75 F1016
Y-55.5 F600
G3 X-2.5 Y-55.75 I0.25 J0
G1 X-2
G2 X-0.25 Y-57.5 I0 J-1.75
G1 Y-84
G2 X-4 Y-87.75 I-3.75 J0
G1 X-19
G2 X-21.75 Y-85 I0 J2.75
G1 Y-62
G3 X-26 Y-57.75 I-4.25 J0
G1 X-36
G3 X-40.25 Y-62 I0 J-4.25
G1 Y-85
G2 X-43 Y-87.75 I-2.75 J0
G1 X-58
G2 X-61.75 Y-84 I0 J3.75
G1 Y-76.313
Z-0.7
Y-68.813
Z-0.75 F300
Y-57.5 F600
G2 X-60 Y-55.75 I1.75 J0
G1 X-59.5
G3 X-59.25 Y-55.5 I0 J0.25
G1 Y-32.5
G3 X-59.5 Y-32.25 I-0.25 J0
G1 X-60
G2 X-61.75 Y-30.5 I0 J1.75
G1 Y-4
G2 X-58 Y-0.25 I3.75 J0
G1 X-4
G2 X-0.25 Y-4 I0 J-3.75
G1 Y-12.622
Z-0.7
Y-20.122
Z-0.75 F300
Y-30.5 F600
G2 X-2 Y-32.25 I-1.75 J0
G1 X-2.5
G3 X-2.75 Y-32.5 I0 J-0.25
G1 Y-46.604
Y-55.407 Z-1 F1016
Y-55.5 F600
G3 X-2.5 Y-55.75 I0.25 J0
G1 X-2
G2 X-0.25 Y-57.5 I0 J-1.75
G1 Y-84
G2 X-4 Y-87.75 I-3.75 J0
G1 X-19
G2 X-21.75 Y-85 I0 J2.75
G1 Y-62
G3 X-26 Y-57.75 I-4.25 J0
G1 X-36
G3 X-40.25 Y-62 I0 J-4.25
G1 Y-85
G2 X-43 Y-87.75 I-2.75 J0
G1 X-58
G2 X-61.75 Y-84 I0 J3.75
G1 Y-76.313
Z-0.7
Y-68.813
Z-1 F300
Y-57.5 F600
G2 X-60 Y-55.75 I1.75 J0
G1 X-59.5
G3 X-59.25 Y-55.5 I0 J0.25
G1 Y-32.5
G3 X-59.5 Y-32.25 I-0.25 J0
G1 X-60
G2 X-61.75 Y-30.5 I0 J1.75
G1 Y-4
G2 X-58 Y-0.25 I3.75 J0
G1 X-4
G2 X-0.25 Y-4 I0 J-3.75
G1 Y-12.622
Z-0.7
Y-20.122
Z-1 F300
Y-30.5 F600
G2 X-2 Y-32.25 I-1.75 J0
G1 X-2.5
G3 X-2.75 Y-32.5 I0 J-0.25
G1 Y-55.407
Y-55.5 Z-1.003 F1016
G3 X-2.5 Y-55.75 Z-1.014 I0.25 J0
G1 X-2 Z-1.028
G2 X-0.25 Y-57.5 Z-1.106 I0 J-1.75
G1 Y-60.808 Z-1.2
Y-84 F600
G2 X-4 Y-87.75 I-3.75 J0
G1 X-19
G2 X-21.75 Y-85 I0 J2.75
G1 Y-62
G3 X-26 Y-57.75 I-4.25 J0
G1 X-36
G3 X-40.25 Y-62 I0 J-4.25
G1 Y-85
G2 X-43 Y-87.75 I-2.75 J0
G1 X-58
G2 X-61.75 Y-84 I0 J3.75
G1 Y-76.313
Z-0.7
Y-68.813
Z-1.2 F300
Y-57.5 F600
G2 X-60 Y-55.75 I1.75 J0
G1 X-59.5
G3 X-59.25 Y-55.5 I0 J0.25
G1 Y-32.5
G3 X-59.5 Y-32.25 I-0.25 J0
G1 X-60
G2 X-61.75 Y-30.5 I0 J1.75
G1 Y-4
G2 X-58 Y-0.25 I3.75 J0
G1 X-4
G2 X-0.25 Y-4 I0 J-3.75
G1 Y-12.622
Z-0.7
Y-20.122
Z-1.2 F300
Y-30.5 F600
G2 X-2 Y-32.25 I-1.75 J0
G1 X-2.5
G3 X-2.75 Y-32.5 I0 J-0.25
G1 Y-55.5
G3 X-2.5 Y-55.75 I0.25 J0
G1 X-2
G2 X-0.25 Y-57.5 I0 J-1.75
G1 Y-60.808
G0 Z15
G28 G91 Z0
G90
G28 G91 X0 Y0
G90
M5
M30
