(Kreuz)
(Bearbeiten)
(  Hersteller: ChinaCnc)
(  model: 3040T)
(  description: Generic 3-axis)
(T5 D=3.175 CR=0 - ZMIN=-2.3 - Schaftfrser)
G90 G94
G17
G21
(-Attention- Property Safe Retracts is set to Clearance Height.)
(Ensure the clearance height will clear the part and or fixtures.)
(Raise the Z-axis to a safe height before starting the program.)
(When using Fusion for Personal Use, the feedrate of rapid)
(moves is reduced to match the feedrate of cutting moves,)
(which can increase machining time. Unrestricted rapid moves)
(are available with a Fusion Subscription.)

(Bohrfrsen8)
M0
(MANUAL TOOL CHANGE TO T5)
S6000 M3
G17 G90 G94
G54
G0 X-10.078 Y-9.005
Z15
G1 Z1.683 F1000
Z0
X-9.919
X-9.888 Y-8.999
X-9.861 Y-8.981
X-9.844 Y-8.955
X-9.837 Y-8.924
G3 X-10.163 Y-8.924 Z-0.061 I-0.163 J0
X-9.837 Y-8.924 Z-0.122 I0.163 J0
X-10.163 Y-8.924 Z-0.183 I-0.163 J0
X-9.837 Y-8.924 Z-0.244 I0.163 J0
X-10.163 Y-8.924 Z-0.306 I-0.163 J0
X-9.837 Y-8.924 Z-0.367 I0.163 J0
X-10.163 Y-8.924 Z-0.428 I-0.163 J0
X-9.837 Y-8.924 Z-0.489 I0.163 J0
X-10.163 Y-8.924 Z-0.55 I-0.163 J0
X-9.837 Y-8.924 Z-0.611 I0.163 J0
X-10.163 Y-8.924 Z-0.672 I-0.163 J0
X-9.837 Y-8.924 Z-0.733 I0.163 J0
X-10.163 Y-8.924 Z-0.794 I-0.163 J0
X-9.837 Y-8.924 Z-0.856 I0.163 J0
X-10.163 Y-8.924 Z-0.917 I-0.163 J0
X-9.837 Y-8.924 Z-0.978 I0.163 J0
X-10.163 Y-8.924 Z-1.039 I-0.163 J0
X-9.837 Y-8.924 Z-1.1 I0.163 J0
X-10.163 Y-8.924 Z-1.161 I-0.163 J0
X-9.837 Y-8.924 Z-1.222 I0.163 J0
X-10.163 Y-8.924 Z-1.283 I-0.163 J0
X-9.837 Y-8.924 Z-1.344 I0.163 J0
X-10.163 Y-8.924 Z-1.406 I-0.163 J0
X-9.837 Y-8.924 Z-1.467 I0.163 J0
X-10.163 Y-8.924 Z-1.528 I-0.163 J0
X-9.837 Y-8.924 Z-1.589 I0.163 J0
X-10.163 Y-8.924 Z-1.65 I-0.163 J0
X-9.837 Y-8.924 Z-1.711 I0.163 J0
X-10.163 Y-8.924 Z-1.772 I-0.163 J0
X-9.837 Y-8.924 Z-1.833 I0.163 J0
X-10.163 Y-8.924 Z-1.894 I-0.163 J0
X-9.837 Y-8.924 Z-1.956 I0.163 J0
X-10.163 Y-8.924 Z-2.017 I-0.163 J0
X-9.837 Y-8.924 Z-2.078 I0.163 J0
X-10.163 Y-8.924 Z-2.139 I-0.163 J0
X-9.837 Y-8.924 Z-2.2 I0.163 J0
X-10.163 Y-8.924 Z-2.261 I-0.163 J0
X-9.933 Y-9.071 Z-2.3 I0.163 J0
X-10.067 Y-8.776 I-0.067 J0.148
X-9.933 Y-9.071 I0.067 J-0.148
G1 X-9.907 Y-9.053
X-9.89 Y-9.026
X-9.885 Y-8.995
X-9.892 Y-8.964
X-9.958 Y-8.819
Z5
X-34.827 Y-24.831
Z1.683
Z0
X-34.669
X-34.638 Y-24.825
X-34.611 Y-24.807
X-34.594 Y-24.781
X-34.588 Y-24.75
G3 X-34.912 Y-24.75 Z-0.061 I-0.162 J0
X-34.588 Y-24.75 Z-0.122 I0.162 J0
X-34.912 Y-24.75 Z-0.183 I-0.162 J0
X-34.588 Y-24.75 Z-0.244 I0.162 J0
X-34.912 Y-24.75 Z-0.306 I-0.162 J0
X-34.588 Y-24.75 Z-0.367 I0.162 J0
X-34.912 Y-24.75 Z-0.428 I-0.162 J0
X-34.588 Y-24.75 Z-0.489 I0.162 J0
X-34.912 Y-24.75 Z-0.55 I-0.162 J0
X-34.588 Y-24.75 Z-0.611 I0.162 J0
X-34.912 Y-24.75 Z-0.672 I-0.162 J0
X-34.588 Y-24.75 Z-0.733 I0.162 J0
X-34.912 Y-24.75 Z-0.794 I-0.162 J0
X-34.588 Y-24.75 Z-0.856 I0.162 J0
X-34.912 Y-24.75 Z-0.917 I-0.162 J0
X-34.588 Y-24.75 Z-0.978 I0.162 J0
X-34.912 Y-24.75 Z-1.039 I-0.162 J0
X-34.588 Y-24.75 Z-1.1 I0.162 J0
X-34.912 Y-24.75 Z-1.161 I-0.162 J0
X-34.588 Y-24.75 Z-1.222 I0.162 J0
X-34.912 Y-24.75 Z-1.283 I-0.162 J0
X-34.588 Y-24.75 Z-1.344 I0.162 J0
X-34.912 Y-24.75 Z-1.406 I-0.162 J0
X-34.588 Y-24.75 Z-1.467 I0.162 J0
X-34.912 Y-24.75 Z-1.528 I-0.162 J0
X-34.588 Y-24.75 Z-1.589 I0.162 J0
X-34.912 Y-24.75 Z-1.65 I-0.162 J0
X-34.588 Y-24.75 Z-1.711 I0.162 J0
X-34.912 Y-24.75 Z-1.772 I-0.162 J0
X-34.588 Y-24.75 Z-1.833 I0.162 J0
X-34.912 Y-24.75 Z-1.894 I-0.162 J0
X-34.588 Y-24.75 Z-1.956 I0.162 J0
X-34.912 Y-24.75 Z-2.017 I-0.162 J0
X-34.588 Y-24.75 Z-2.078 I0.162 J0
X-34.912 Y-24.75 Z-2.139 I-0.162 J0
X-34.588 Y-24.75 Z-2.2 I0.162 J0
X-34.912 Y-24.75 Z-2.261 I-0.162 J0
X-34.683 Y-24.898 Z-2.3 I0.162 J0
X-34.817 Y-24.602 I-0.067 J0.148
X-34.683 Y-24.898 I0.067 J-0.148
G1 X-34.657 Y-24.879
X-34.64 Y-24.852
X-34.635 Y-24.821
X-34.642 Y-24.79
X-34.708 Y-24.646
Z5
X-65.327 Y-24.831
Z1.683
Z0
X-65.169
X-65.138 Y-24.825
X-65.111 Y-24.807
X-65.094 Y-24.781
X-65.088 Y-24.75
G3 X-65.412 Y-24.75 Z-0.061 I-0.162 J0
X-65.088 Y-24.75 Z-0.122 I0.162 J0
X-65.412 Y-24.75 Z-0.183 I-0.162 J0
X-65.088 Y-24.75 Z-0.244 I0.162 J0
X-65.412 Y-24.75 Z-0.306 I-0.162 J0
X-65.088 Y-24.75 Z-0.367 I0.162 J0
X-65.412 Y-24.75 Z-0.428 I-0.162 J0
X-65.088 Y-24.75 Z-0.489 I0.162 J0
X-65.412 Y-24.75 Z-0.55 I-0.162 J0
X-65.088 Y-24.75 Z-0.611 I0.162 J0
X-65.412 Y-24.75 Z-0.672 I-0.162 J0
X-65.088 Y-24.75 Z-0.733 I0.162 J0
X-65.412 Y-24.75 Z-0.794 I-0.162 J0
X-65.088 Y-24.75 Z-0.856 I0.162 J0
X-65.412 Y-24.75 Z-0.917 I-0.162 J0
X-65.088 Y-24.75 Z-0.978 I0.162 J0
X-65.412 Y-24.75 Z-1.039 I-0.162 J0
X-65.088 Y-24.75 Z-1.1 I0.162 J0
X-65.412 Y-24.75 Z-1.161 I-0.162 J0
X-65.088 Y-24.75 Z-1.222 I0.162 J0
X-65.412 Y-24.75 Z-1.283 I-0.162 J0
X-65.088 Y-24.75 Z-1.344 I0.162 J0
X-65.412 Y-24.75 Z-1.406 I-0.162 J0
X-65.088 Y-24.75 Z-1.467 I0.162 J0
X-65.412 Y-24.75 Z-1.528 I-0.162 J0
X-65.088 Y-24.75 Z-1.589 I0.162 J0
X-65.412 Y-24.75 Z-1.65 I-0.162 J0
X-65.088 Y-24.75 Z-1.711 I0.162 J0
X-65.412 Y-24.75 Z-1.772 I-0.162 J0
X-65.088 Y-24.75 Z-1.833 I0.162 J0
X-65.412 Y-24.75 Z-1.894 I-0.162 J0
X-65.088 Y-24.75 Z-1.956 I0.162 J0
X-65.412 Y-24.75 Z-2.017 I-0.162 J0
X-65.088 Y-24.75 Z-2.078 I0.162 J0
X-65.412 Y-24.75 Z-2.139 I-0.162 J0
X-65.088 Y-24.75 Z-2.2 I0.162 J0
X-65.412 Y-24.75 Z-2.261 I-0.162 J0
X-65.183 Y-24.898 Z-2.3 I0.162 J0
X-65.317 Y-24.602 I-0.067 J0.148
X-65.183 Y-24.898 I0.067 J-0.148
G1 X-65.157 Y-24.879
X-65.14 Y-24.852
X-65.135 Y-24.821
X-65.142 Y-24.79
X-65.208 Y-24.646
Z5
X-90.077 Y-9.005
Z1.683
Z0
X-89.919
X-89.888 Y-8.999
X-89.861 Y-8.981
X-89.844 Y-8.955
X-89.838 Y-8.924
G3 X-90.162 Y-8.924 Z-0.061 I-0.162 J0
X-89.838 Y-8.924 Z-0.122 I0.162 J0
X-90.162 Y-8.924 Z-0.183 I-0.162 J0
X-89.838 Y-8.924 Z-0.244 I0.162 J0
X-90.162 Y-8.924 Z-0.306 I-0.162 J0
X-89.838 Y-8.924 Z-0.367 I0.162 J0
X-90.162 Y-8.924 Z-0.428 I-0.162 J0
X-89.838 Y-8.924 Z-0.489 I0.162 J0
X-90.162 Y-8.924 Z-0.55 I-0.162 J0
X-89.838 Y-8.924 Z-0.611 I0.162 J0
X-90.162 Y-8.924 Z-0.672 I-0.162 J0
X-89.838 Y-8.924 Z-0.733 I0.162 J0
X-90.162 Y-8.924 Z-0.794 I-0.162 J0
X-89.838 Y-8.924 Z-0.856 I0.162 J0
X-90.162 Y-8.924 Z-0.917 I-0.162 J0
X-89.838 Y-8.924 Z-0.978 I0.162 J0
X-90.162 Y-8.924 Z-1.039 I-0.162 J0
X-89.838 Y-8.924 Z-1.1 I0.162 J0
X-90.162 Y-8.924 Z-1.161 I-0.162 J0
X-89.838 Y-8.924 Z-1.222 I0.162 J0
X-90.162 Y-8.924 Z-1.283 I-0.162 J0
X-89.838 Y-8.924 Z-1.344 I0.162 J0
X-90.162 Y-8.924 Z-1.406 I-0.162 J0
X-89.838 Y-8.924 Z-1.467 I0.162 J0
X-90.162 Y-8.924 Z-1.528 I-0.162 J0
X-89.838 Y-8.924 Z-1.589 I0.162 J0
X-90.162 Y-8.924 Z-1.65 I-0.162 J0
X-89.838 Y-8.924 Z-1.711 I0.162 J0
X-90.162 Y-8.924 Z-1.772 I-0.162 J0
X-89.838 Y-8.924 Z-1.833 I0.162 J0
X-90.162 Y-8.924 Z-1.894 I-0.162 J0
X-89.838 Y-8.924 Z-1.956 I0.162 J0
X-90.162 Y-8.924 Z-2.017 I-0.162 J0
X-89.838 Y-8.924 Z-2.078 I0.162 J0
X-90.162 Y-8.924 Z-2.139 I-0.162 J0
X-89.838 Y-8.924 Z-2.2 I0.162 J0
X-90.162 Y-8.924 Z-2.261 I-0.162 J0
X-89.933 Y-9.071 Z-2.3 I0.162 J0
X-90.067 Y-8.776 I-0.067 J0.148
X-89.933 Y-9.071 I0.067 J-0.148
G1 X-89.907 Y-9.053
X-89.89 Y-9.026
X-89.885 Y-8.995
X-89.892 Y-8.964
X-89.958 Y-8.819
Z5
X-90.077 Y-71.158
Z1.683
Z0
X-89.919
X-89.888 Y-71.151
X-89.861 Y-71.134
X-89.844 Y-71.108
X-89.838 Y-71.076
G3 X-90.162 Y-71.076 Z-0.061 I-0.162 J0
X-89.838 Y-71.076 Z-0.122 I0.162 J0
X-90.162 Y-71.076 Z-0.183 I-0.162 J0
X-89.838 Y-71.076 Z-0.244 I0.162 J0
X-90.162 Y-71.076 Z-0.306 I-0.162 J0
X-89.838 Y-71.076 Z-0.367 I0.162 J0
X-90.162 Y-71.076 Z-0.428 I-0.162 J0
X-89.838 Y-71.076 Z-0.489 I0.162 J0
X-90.162 Y-71.076 Z-0.55 I-0.162 J0
X-89.838 Y-71.076 Z-0.611 I0.162 J0
X-90.162 Y-71.076 Z-0.672 I-0.162 J0
X-89.838 Y-71.076 Z-0.733 I0.162 J0
X-90.162 Y-71.076 Z-0.794 I-0.162 J0
X-89.838 Y-71.076 Z-0.856 I0.162 J0
X-90.162 Y-71.076 Z-0.917 I-0.162 J0
X-89.838 Y-71.076 Z-0.978 I0.162 J0
X-90.162 Y-71.076 Z-1.039 I-0.162 J0
X-89.838 Y-71.076 Z-1.1 I0.162 J0
X-90.162 Y-71.076 Z-1.161 I-0.162 J0
X-89.838 Y-71.076 Z-1.222 I0.162 J0
X-90.162 Y-71.076 Z-1.283 I-0.162 J0
X-89.838 Y-71.076 Z-1.344 I0.162 J0
X-90.162 Y-71.076 Z-1.406 I-0.162 J0
X-89.838 Y-71.076 Z-1.467 I0.162 J0
X-90.162 Y-71.076 Z-1.528 I-0.162 J0
X-89.838 Y-71.076 Z-1.589 I0.162 J0
X-90.162 Y-71.076 Z-1.65 I-0.162 J0
X-89.838 Y-71.076 Z-1.711 I0.162 J0
X-90.162 Y-71.076 Z-1.772 I-0.162 J0
X-89.838 Y-71.076 Z-1.833 I0.162 J0
X-90.162 Y-71.076 Z-1.894 I-0.162 J0
X-89.838 Y-71.076 Z-1.956 I0.162 J0
X-90.162 Y-71.076 Z-2.017 I-0.162 J0
X-89.838 Y-71.076 Z-2.078 I0.162 J0
X-90.162 Y-71.076 Z-2.139 I-0.162 J0
X-89.838 Y-71.076 Z-2.2 I0.162 J0
X-90.162 Y-71.076 Z-2.261 I-0.162 J0
X-89.933 Y-71.224 Z-2.3 I0.162 J0
X-90.067 Y-70.929 I-0.067 J0.148
X-89.933 Y-71.224 I0.067 J-0.148
G1 X-89.907 Y-71.206
X-89.89 Y-71.179
X-89.885 Y-71.147
X-89.892 Y-71.117
X-89.958 Y-70.972
Z5
X-65.327 Y-55.331
Z1.683
Z0
X-65.169
X-65.138 Y-55.325
X-65.111 Y-55.307
X-65.094 Y-55.281
X-65.088 Y-55.25
G3 X-65.412 Y-55.25 Z-0.061 I-0.162 J0
X-65.088 Y-55.25 Z-0.122 I0.162 J0
X-65.412 Y-55.25 Z-0.183 I-0.162 J0
X-65.088 Y-55.25 Z-0.244 I0.162 J0
X-65.412 Y-55.25 Z-0.306 I-0.162 J0
X-65.088 Y-55.25 Z-0.367 I0.162 J0
X-65.412 Y-55.25 Z-0.428 I-0.162 J0
X-65.088 Y-55.25 Z-0.489 I0.162 J0
X-65.412 Y-55.25 Z-0.55 I-0.162 J0
X-65.088 Y-55.25 Z-0.611 I0.162 J0
X-65.412 Y-55.25 Z-0.672 I-0.162 J0
X-65.088 Y-55.25 Z-0.733 I0.162 J0
X-65.412 Y-55.25 Z-0.794 I-0.162 J0
X-65.088 Y-55.25 Z-0.856 I0.162 J0
X-65.412 Y-55.25 Z-0.917 I-0.162 J0
X-65.088 Y-55.25 Z-0.978 I0.162 J0
X-65.412 Y-55.25 Z-1.039 I-0.162 J0
X-65.088 Y-55.25 Z-1.1 I0.162 J0
X-65.412 Y-55.25 Z-1.161 I-0.162 J0
X-65.088 Y-55.25 Z-1.222 I0.162 J0
X-65.412 Y-55.25 Z-1.283 I-0.162 J0
X-65.088 Y-55.25 Z-1.344 I0.162 J0
X-65.412 Y-55.25 Z-1.406 I-0.162 J0
X-65.088 Y-55.25 Z-1.467 I0.162 J0
X-65.412 Y-55.25 Z-1.528 I-0.162 J0
X-65.088 Y-55.25 Z-1.589 I0.162 J0
X-65.412 Y-55.25 Z-1.65 I-0.162 J0
X-65.088 Y-55.25 Z-1.711 I0.162 J0
X-65.412 Y-55.25 Z-1.772 I-0.162 J0
X-65.088 Y-55.25 Z-1.833 I0.162 J0
X-65.412 Y-55.25 Z-1.894 I-0.162 J0
X-65.088 Y-55.25 Z-1.956 I0.162 J0
X-65.412 Y-55.25 Z-2.017 I-0.162 J0
X-65.088 Y-55.25 Z-2.078 I0.162 J0
X-65.412 Y-55.25 Z-2.139 I-0.162 J0
X-65.088 Y-55.25 Z-2.2 I0.162 J0
X-65.412 Y-55.25 Z-2.261 I-0.162 J0
X-65.183 Y-55.398 Z-2.3 I0.162 J0
X-65.317 Y-55.102 I-0.067 J0.148
X-65.183 Y-55.398 I0.067 J-0.148
G1 X-65.157 Y-55.379
X-65.14 Y-55.352
X-65.135 Y-55.321
X-65.142 Y-55.29
X-65.208 Y-55.146
Z5
X-46.381 Y-40.318
Z2
Z0.317
G18 G2 X-46.064 Z0 I0.317 K0
G1 X-45.905
G17 G3 X-45.588 Y-40 I0 J0.318
X-54.412 Y-40 Z-0.21 I-4.412 J0
X-45.588 Y-40 Z-0.419 I4.412 J0
X-54.412 Y-40 Z-0.629 I-4.412 J0
X-45.588 Y-40 Z-0.838 I4.412 J0
X-54.412 Y-40 Z-1.048 I-4.412 J0
X-45.588 Y-40 Z-1.257 I4.412 J0
X-54.412 Y-40 Z-1.467 I-4.412 J0
X-45.588 Y-40 Z-1.676 I4.412 J0
X-54.412 Y-40 Z-1.886 I-4.412 J0
X-45.588 Y-40 Z-2.095 I4.412 J0
X-54.401 Y-39.685 Z-2.3 I-4.412 J0
X-45.599 Y-40.315 I4.401 J-0.315
X-54.401 Y-39.685 I-4.401 J0.315
X-54.107 Y-40.024 I0.317 J-0.023
G1 X-53.949 Y-40.035
X-53.878 Y-40.04 Z-2.292
X-53.811 Y-40.045 Z-2.269
X-53.751 Y-40.05 Z-2.231
X-53.701 Y-40.053 Z-2.18
X-53.664 Y-40.056 Z-2.12
X-53.64 Y-40.057 Z-2.053
X-53.632 Y-40.058 Z-1.982
Z5
X-34.827 Y-55.331
Z1.683
Z0
X-34.669
X-34.638 Y-55.325
X-34.611 Y-55.307
X-34.594 Y-55.281
X-34.588 Y-55.25
G3 X-34.912 Y-55.25 Z-0.061 I-0.162 J0
X-34.588 Y-55.25 Z-0.122 I0.162 J0
X-34.912 Y-55.25 Z-0.183 I-0.162 J0
X-34.588 Y-55.25 Z-0.244 I0.162 J0
X-34.912 Y-55.25 Z-0.306 I-0.162 J0
X-34.588 Y-55.25 Z-0.367 I0.162 J0
X-34.912 Y-55.25 Z-0.428 I-0.162 J0
X-34.588 Y-55.25 Z-0.489 I0.162 J0
X-34.912 Y-55.25 Z-0.55 I-0.162 J0
X-34.588 Y-55.25 Z-0.611 I0.162 J0
X-34.912 Y-55.25 Z-0.672 I-0.162 J0
X-34.588 Y-55.25 Z-0.733 I0.162 J0
X-34.912 Y-55.25 Z-0.794 I-0.162 J0
X-34.588 Y-55.25 Z-0.856 I0.162 J0
X-34.912 Y-55.25 Z-0.917 I-0.162 J0
X-34.588 Y-55.25 Z-0.978 I0.162 J0
X-34.912 Y-55.25 Z-1.039 I-0.162 J0
X-34.588 Y-55.25 Z-1.1 I0.162 J0
X-34.912 Y-55.25 Z-1.161 I-0.162 J0
X-34.588 Y-55.25 Z-1.222 I0.162 J0
X-34.912 Y-55.25 Z-1.283 I-0.162 J0
X-34.588 Y-55.25 Z-1.344 I0.162 J0
X-34.912 Y-55.25 Z-1.406 I-0.162 J0
X-34.588 Y-55.25 Z-1.467 I0.162 J0
X-34.912 Y-55.25 Z-1.528 I-0.162 J0
X-34.588 Y-55.25 Z-1.589 I0.162 J0
X-34.912 Y-55.25 Z-1.65 I-0.162 J0
X-34.588 Y-55.25 Z-1.711 I0.162 J0
X-34.912 Y-55.25 Z-1.772 I-0.162 J0
X-34.588 Y-55.25 Z-1.833 I0.162 J0
X-34.912 Y-55.25 Z-1.894 I-0.162 J0
X-34.588 Y-55.25 Z-1.956 I0.162 J0
X-34.912 Y-55.25 Z-2.017 I-0.162 J0
X-34.588 Y-55.25 Z-2.078 I0.162 J0
X-34.912 Y-55.25 Z-2.139 I-0.162 J0
X-34.588 Y-55.25 Z-2.2 I0.162 J0
X-34.912 Y-55.25 Z-2.261 I-0.162 J0
X-34.683 Y-55.398 Z-2.3 I0.162 J0
X-34.817 Y-55.102 I-0.067 J0.148
X-34.683 Y-55.398 I0.067 J-0.148
G1 X-34.657 Y-55.379
X-34.64 Y-55.352
X-34.635 Y-55.321
X-34.642 Y-55.29
X-34.708 Y-55.146
Z5
X-10.078 Y-71.158
Z1.683
Z0
X-9.919
X-9.888 Y-71.151
X-9.861 Y-71.134
X-9.844 Y-71.108
X-9.837 Y-71.076
G3 X-10.163 Y-71.076 Z-0.061 I-0.163 J0
X-9.837 Y-71.076 Z-0.122 I0.163 J0
X-10.163 Y-71.076 Z-0.183 I-0.163 J0
X-9.838 Y-71.076 Z-0.244 I0.163 J0
X-10.162 Y-71.076 Z-0.306 I-0.162 J0
X-9.838 Y-71.076 Z-0.367 I0.162 J0
X-10.162 Y-71.076 Z-0.428 I-0.162 J0
X-9.838 Y-71.076 Z-0.489 I0.162 J0
X-10.162 Y-71.076 Z-0.55 I-0.162 J0
X-9.838 Y-71.076 Z-0.611 I0.162 J0
X-10.162 Y-71.076 Z-0.672 I-0.162 J0
X-9.838 Y-71.076 Z-0.733 I0.162 J0
X-10.162 Y-71.076 Z-0.794 I-0.162 J0
X-9.838 Y-71.076 Z-0.856 I0.162 J0
X-10.162 Y-71.076 Z-0.917 I-0.162 J0
X-9.838 Y-71.076 Z-0.978 I0.162 J0
X-10.162 Y-71.076 Z-1.039 I-0.162 J0
X-9.838 Y-71.076 Z-1.1 I0.162 J0
X-10.162 Y-71.076 Z-1.161 I-0.162 J0
X-9.838 Y-71.076 Z-1.222 I0.162 J0
X-10.162 Y-71.076 Z-1.283 I-0.162 J0
X-9.838 Y-71.076 Z-1.344 I0.162 J0
X-10.162 Y-71.076 Z-1.406 I-0.162 J0
X-9.838 Y-71.076 Z-1.467 I0.162 J0
X-10.162 Y-71.076 Z-1.528 I-0.162 J0
X-9.838 Y-71.076 Z-1.589 I0.162 J0
X-10.162 Y-71.076 Z-1.65 I-0.162 J0
X-9.838 Y-71.076 Z-1.711 I0.162 J0
X-10.162 Y-71.076 Z-1.772 I-0.162 J0
X-9.838 Y-71.076 Z-1.833 I0.162 J0
X-10.162 Y-71.076 Z-1.894 I-0.162 J0
X-9.838 Y-71.076 Z-1.956 I0.162 J0
X-10.162 Y-71.076 Z-2.017 I-0.162 J0
X-9.838 Y-71.076 Z-2.078 I0.162 J0
X-10.162 Y-71.076 Z-2.139 I-0.162 J0
X-9.838 Y-71.076 Z-2.2 I0.162 J0
X-10.162 Y-71.076 Z-2.261 I-0.162 J0
X-9.933 Y-71.224 Z-2.3 I0.162 J0
X-10.067 Y-70.929 I-0.067 J0.148
X-9.933 Y-71.224 I0.067 J-0.148
G1 X-9.907 Y-71.206
X-9.89 Y-71.179
X-9.885 Y-71.147
X-9.892 Y-71.117
X-9.958 Y-70.972
Z15
(When using Fusion for Personal Use, the feedrate of rapid)
(moves is reduced to match the feedrate of cutting moves,)
(which can increase machining time. Unrestricted rapid moves)
(are available with a Fusion Subscription.)

(2D-Kontur7)
G0 X-11.739 Y-79.444
G1 Z15 F1000
Z5
Z0.635 F333.3
Z-0.683
X-11.737 Y-79.436 Z-0.753 F1000
X-11.731 Y-79.413 Z-0.82
X-11.722 Y-79.376 Z-0.88
X-11.71 Y-79.327 Z-0.931
X-11.696 Y-79.269 Z-0.969
X-11.68 Y-79.204 Z-0.992
X-11.663 Y-79.135 Z-1
X-11.587 Y-78.827
G3 X-11.819 Y-78.443 I-0.308 J0.076
G2 X-14.655 Y-77.068 I1.819 J7.366
G1 X-43.612 Y-54.571
G3 X-56.388 Y-54.571 I-6.388 J-8.223
G1 X-85.345 Y-77.068
G2 X-94.655 Y-65.085 I-4.655 J5.992
G1 X-72.951 Y-48.223
G3 X-72.951 Y-31.777 I-6.388 J8.223
G1 X-94.655 Y-14.915
G2 X-95.992 Y-4.269 I4.655 J5.992
X-85.345 Y-2.932 I5.992 J-4.655
G1 X-56.388 Y-25.429
G3 X-43.612 Y-25.429 I6.388 J8.223
G1 X-14.655 Y-2.932
G2 X-5.345 Y-14.915 I4.655 J-5.992
G1 X-27.049 Y-31.777
G3 X-27.049 Y-48.223 I6.388 J-8.223
G1 X-5.345 Y-65.085
G2 X-11.819 Y-78.443 I-4.655 J-5.992
G3 X-12.203 Y-78.675 I-0.076 J-0.308
G1 X-12.279 Y-78.983
X-12.296 Y-79.052 Z-0.992
X-12.312 Y-79.117 Z-0.969
X-12.327 Y-79.175 Z-0.931
X-12.339 Y-79.224 Z-0.88
X-12.348 Y-79.261 Z-0.82
X-12.354 Y-79.284 Z-0.753
X-12.355 Y-79.291 Z-0.683
Z5
X-11.739 Y-79.444
Z-0.365 F333.3
Z-1.683
X-11.737 Y-79.436 Z-1.753 F1000
X-11.731 Y-79.413 Z-1.82
X-11.722 Y-79.376 Z-1.88
X-11.71 Y-79.327 Z-1.931
X-11.696 Y-79.269 Z-1.969
X-11.68 Y-79.204 Z-1.992
X-11.663 Y-79.135 Z-2
X-11.587 Y-78.827
G3 X-11.819 Y-78.443 I-0.308 J0.076
G2 X-14.655 Y-77.068 I1.819 J7.366
G1 X-25.511 Y-68.634
Z-1.3
X-32.756 Y-63.005
Z-2 F333.3
X-43.612 Y-54.571 F1000
G3 X-56.388 Y-54.571 I-6.388 J-8.223
G1 X-67.244 Y-63.005
Z-1.3
X-74.489 Y-68.634
Z-2 F333.3
X-85.345 Y-77.068 F1000
G2 X-94.655 Y-65.085 I-4.655 J5.992
G1 X-87.426 Y-59.468
Z-1.3
X-80.18 Y-53.839
Z-2 F333.3
X-72.951 Y-48.223 F1000
G3 X-72.951 Y-31.777 I-6.388 J8.223
G1 X-80.18 Y-26.161
Z-1.3
X-87.426 Y-20.532
Z-2 F333.3
X-94.655 Y-14.915 F1000
G2 X-95.992 Y-4.269 I4.655 J5.992
X-85.345 Y-2.932 I5.992 J-4.655
G1 X-74.489 Y-11.366
Z-1.3
X-67.244 Y-16.995
Z-2 F333.3
X-56.388 Y-25.429 F1000
G3 X-43.612 Y-25.429 I6.388 J8.223
G1 X-32.756 Y-16.995
Z-1.3
X-25.511 Y-11.366
Z-2 F333.3
X-14.655 Y-2.932 F1000
G2 X-5.345 Y-14.915 I4.655 J-5.992
G1 X-12.574 Y-20.532
Z-1.3
X-19.82 Y-26.161
Z-2 F333.3
X-27.049 Y-31.777 F1000
G3 X-27.049 Y-48.223 I6.388 J-8.223
G1 X-19.82 Y-53.839
Z-1.3
X-12.574 Y-59.468
Z-2 F333.3
X-5.345 Y-65.085 F1000
G2 X-11.819 Y-78.443 I-4.655 J-5.992
G3 X-12.203 Y-78.675 I-0.076 J-0.308
G1 X-12.279 Y-78.983
X-12.296 Y-79.052 Z-1.992
X-12.312 Y-79.117 Z-1.969
X-12.327 Y-79.175 Z-1.931
X-12.339 Y-79.224 Z-1.88
X-12.348 Y-79.261 Z-1.82
X-12.354 Y-79.284 Z-1.753
X-12.355 Y-79.291 Z-1.683
Z5
X-11.739 Y-79.444
Z-1.365 F333.3
Z-1.983
X-11.737 Y-79.436 Z-2.053 F1000
X-11.731 Y-79.413 Z-2.12
X-11.722 Y-79.376 Z-2.18
X-11.71 Y-79.327 Z-2.231
X-11.696 Y-79.269 Z-2.269
X-11.68 Y-79.204 Z-2.292
X-11.663 Y-79.135 Z-2.3
X-11.587 Y-78.827
G3 X-11.819 Y-78.443 I-0.308 J0.076
G2 X-14.655 Y-77.068 I1.819 J7.366
G1 X-25.511 Y-68.634
Z-1.3
X-32.756 Y-63.005
Z-2.3 F333.3
X-43.612 Y-54.571 F1000
G3 X-56.388 Y-54.571 I-6.388 J-8.223
G1 X-67.244 Y-63.005
Z-1.3
X-74.489 Y-68.634
Z-2.3 F333.3
X-85.345 Y-77.068 F1000
G2 X-94.655 Y-65.085 I-4.655 J5.992
G1 X-87.426 Y-59.468
Z-1.3
X-80.18 Y-53.839
Z-2.3 F333.3
X-72.951 Y-48.223 F1000
G3 X-72.951 Y-31.777 I-6.388 J8.223
G1 X-80.18 Y-26.161
Z-1.3
X-87.426 Y-20.532
Z-2.3 F333.3
X-94.655 Y-14.915 F1000
G2 X-95.992 Y-4.269 I4.655 J5.992
X-85.345 Y-2.932 I5.992 J-4.655
G1 X-74.489 Y-11.366
Z-1.3
X-67.244 Y-16.995
Z-2.3 F333.3
X-56.388 Y-25.429 F1000
G3 X-43.612 Y-25.429 I6.388 J8.223
G1 X-32.756 Y-16.995
Z-1.3
X-25.511 Y-11.366
Z-2.3 F333.3
X-14.655 Y-2.932 F1000
G2 X-5.345 Y-14.915 I4.655 J-5.992
G1 X-12.574 Y-20.532
Z-1.3
X-19.82 Y-26.161
Z-2.3 F333.3
X-27.049 Y-31.777 F1000
G3 X-27.049 Y-48.223 I6.388 J-8.223
G1 X-19.82 Y-53.839
Z-1.3
X-12.574 Y-59.468
Z-2.3 F333.3
X-5.345 Y-65.085 F1000
G2 X-11.819 Y-78.443 I-4.655 J-5.992
G3 X-12.203 Y-78.675 I-0.076 J-0.308
G1 X-12.279 Y-78.983
X-12.296 Y-79.052 Z-2.292
X-12.312 Y-79.117 Z-2.269
X-12.327 Y-79.175 Z-2.231
X-12.339 Y-79.224 Z-2.18
X-12.348 Y-79.261 Z-2.12
X-12.354 Y-79.284 Z-2.053
X-12.355 Y-79.291 Z-1.983
Z15

M5
M30
