(Kreuz)
(Bearbeiten)
(  Hersteller: ChinaCnc)
(  model: 3040T)
(  description: Generic 3-axis)
(T5 D=3.175 CR=0 - ZMIN=-2.3 - Schaftfrser)
G90 G94
G17
G21
(-Attention- Property Safe Retracts is set to Clearance Height.)
(Ensure the clearance height will clear the part and or fixtures.)
(Raise the Z-axis to a safe height before starting the program.)
(When using Fusion for Personal Use, the feedrate of rapid)
(moves is reduced to match the feedrate of cutting moves,)
(which can increase machining time. Unrestricted rapid moves)
(are available with a Fusion Subscription.)

(Bohrfrsen8)
M0
(MANUAL TOOL CHANGE TO T5)
S6000 M3
G17 G90 G94
G54
G0 X-8.578 Y-7.655
Z15
G1 Z1.683 F1000
Z0
X-8.419
X-8.388 Y-7.649
X-8.361 Y-7.631
X-8.344 Y-7.605
X-8.337 Y-7.574
G3 X-8.663 Y-7.574 Z-0.061 I-0.163 J0
X-8.337 Y-7.574 Z-0.122 I0.163 J0
X-8.663 Y-7.574 Z-0.183 I-0.163 J0
X-8.337 Y-7.574 Z-0.244 I0.163 J0
X-8.663 Y-7.574 Z-0.306 I-0.163 J0
X-8.337 Y-7.574 Z-0.367 I0.163 J0
X-8.663 Y-7.574 Z-0.428 I-0.163 J0
X-8.337 Y-7.574 Z-0.489 I0.163 J0
X-8.663 Y-7.574 Z-0.55 I-0.163 J0
X-8.337 Y-7.574 Z-0.611 I0.163 J0
X-8.663 Y-7.574 Z-0.672 I-0.163 J0
X-8.337 Y-7.574 Z-0.733 I0.163 J0
X-8.663 Y-7.574 Z-0.794 I-0.163 J0
X-8.337 Y-7.574 Z-0.856 I0.163 J0
X-8.663 Y-7.574 Z-0.917 I-0.163 J0
X-8.337 Y-7.574 Z-0.978 I0.163 J0
X-8.663 Y-7.574 Z-1.039 I-0.163 J0
X-8.337 Y-7.574 Z-1.1 I0.163 J0
X-8.663 Y-7.574 Z-1.161 I-0.163 J0
X-8.338 Y-7.574 Z-1.222 I0.163 J0
X-8.662 Y-7.574 Z-1.283 I-0.162 J0
X-8.338 Y-7.574 Z-1.344 I0.162 J0
X-8.662 Y-7.574 Z-1.406 I-0.162 J0
X-8.338 Y-7.574 Z-1.467 I0.162 J0
X-8.662 Y-7.574 Z-1.528 I-0.162 J0
X-8.338 Y-7.574 Z-1.589 I0.162 J0
X-8.662 Y-7.574 Z-1.65 I-0.162 J0
X-8.338 Y-7.574 Z-1.711 I0.162 J0
X-8.662 Y-7.574 Z-1.772 I-0.162 J0
X-8.338 Y-7.574 Z-1.833 I0.162 J0
X-8.662 Y-7.574 Z-1.894 I-0.162 J0
X-8.338 Y-7.574 Z-1.956 I0.162 J0
X-8.662 Y-7.574 Z-2.017 I-0.162 J0
X-8.338 Y-7.574 Z-2.078 I0.162 J0
X-8.662 Y-7.574 Z-2.139 I-0.162 J0
X-8.338 Y-7.574 Z-2.2 I0.162 J0
X-8.662 Y-7.574 Z-2.261 I-0.162 J0
X-8.433 Y-7.722 Z-2.3 I0.162 J0
X-8.567 Y-7.426 I-0.067 J0.148
X-8.433 Y-7.722 I0.067 J-0.148
G1 X-8.407 Y-7.703
X-8.39 Y-7.676
X-8.385 Y-7.645
X-8.392 Y-7.614
X-8.458 Y-7.469
Z5
X-29.827 Y-24.831
Z1.683
Z0
X-29.669
X-29.638 Y-24.825
X-29.611 Y-24.807
X-29.594 Y-24.781
X-29.587 Y-24.75
G3 X-29.913 Y-24.75 Z-0.061 I-0.163 J0
X-29.587 Y-24.75 Z-0.122 I0.163 J0
X-29.913 Y-24.75 Z-0.183 I-0.163 J0
X-29.587 Y-24.75 Z-0.244 I0.163 J0
X-29.913 Y-24.75 Z-0.306 I-0.163 J0
X-29.587 Y-24.75 Z-0.367 I0.163 J0
X-29.913 Y-24.75 Z-0.428 I-0.163 J0
X-29.587 Y-24.75 Z-0.489 I0.163 J0
X-29.913 Y-24.75 Z-0.55 I-0.163 J0
X-29.587 Y-24.75 Z-0.611 I0.163 J0
X-29.913 Y-24.75 Z-0.672 I-0.163 J0
X-29.587 Y-24.75 Z-0.733 I0.163 J0
X-29.913 Y-24.75 Z-0.794 I-0.163 J0
X-29.587 Y-24.75 Z-0.856 I0.163 J0
X-29.913 Y-24.75 Z-0.917 I-0.163 J0
X-29.587 Y-24.75 Z-0.978 I0.163 J0
X-29.913 Y-24.75 Z-1.039 I-0.163 J0
X-29.587 Y-24.75 Z-1.1 I0.163 J0
X-29.913 Y-24.75 Z-1.161 I-0.163 J0
X-29.587 Y-24.75 Z-1.222 I0.163 J0
X-29.913 Y-24.75 Z-1.283 I-0.163 J0
X-29.587 Y-24.75 Z-1.344 I0.163 J0
X-29.913 Y-24.75 Z-1.406 I-0.163 J0
X-29.587 Y-24.75 Z-1.467 I0.163 J0
X-29.913 Y-24.75 Z-1.528 I-0.163 J0
X-29.587 Y-24.75 Z-1.589 I0.163 J0
X-29.913 Y-24.75 Z-1.65 I-0.163 J0
X-29.587 Y-24.75 Z-1.711 I0.163 J0
X-29.913 Y-24.75 Z-1.772 I-0.163 J0
X-29.587 Y-24.75 Z-1.833 I0.163 J0
X-29.913 Y-24.75 Z-1.894 I-0.163 J0
X-29.587 Y-24.75 Z-1.956 I0.163 J0
X-29.913 Y-24.75 Z-2.017 I-0.163 J0
X-29.587 Y-24.75 Z-2.078 I0.163 J0
X-29.913 Y-24.75 Z-2.139 I-0.163 J0
X-29.587 Y-24.75 Z-2.2 I0.163 J0
X-29.913 Y-24.75 Z-2.261 I-0.163 J0
X-29.683 Y-24.898 Z-2.3 I0.163 J0
X-29.817 Y-24.602 I-0.067 J0.148
X-29.683 Y-24.898 I0.067 J-0.148
G1 X-29.657 Y-24.879
X-29.64 Y-24.852
X-29.635 Y-24.821
X-29.642 Y-24.79
X-29.708 Y-24.646
Z5
X-60.327 Y-24.831
Z1.683
Z0
X-60.169
X-60.138 Y-24.825
X-60.111 Y-24.807
X-60.094 Y-24.781
X-60.088 Y-24.75
G3 X-60.412 Y-24.75 Z-0.061 I-0.162 J0
X-60.088 Y-24.75 Z-0.122 I0.162 J0
X-60.412 Y-24.75 Z-0.183 I-0.162 J0
X-60.088 Y-24.75 Z-0.244 I0.162 J0
X-60.412 Y-24.75 Z-0.306 I-0.162 J0
X-60.088 Y-24.75 Z-0.367 I0.162 J0
X-60.412 Y-24.75 Z-0.428 I-0.162 J0
X-60.088 Y-24.75 Z-0.489 I0.162 J0
X-60.412 Y-24.75 Z-0.55 I-0.162 J0
X-60.088 Y-24.75 Z-0.611 I0.162 J0
X-60.412 Y-24.75 Z-0.672 I-0.162 J0
X-60.088 Y-24.75 Z-0.733 I0.162 J0
X-60.412 Y-24.75 Z-0.794 I-0.162 J0
X-60.088 Y-24.75 Z-0.856 I0.162 J0
X-60.412 Y-24.75 Z-0.917 I-0.162 J0
X-60.088 Y-24.75 Z-0.978 I0.162 J0
X-60.412 Y-24.75 Z-1.039 I-0.162 J0
X-60.088 Y-24.75 Z-1.1 I0.162 J0
X-60.412 Y-24.75 Z-1.161 I-0.162 J0
X-60.088 Y-24.75 Z-1.222 I0.162 J0
X-60.412 Y-24.75 Z-1.283 I-0.162 J0
X-60.088 Y-24.75 Z-1.344 I0.162 J0
X-60.412 Y-24.75 Z-1.406 I-0.162 J0
X-60.088 Y-24.75 Z-1.467 I0.162 J0
X-60.412 Y-24.75 Z-1.528 I-0.162 J0
X-60.088 Y-24.75 Z-1.589 I0.162 J0
X-60.412 Y-24.75 Z-1.65 I-0.162 J0
X-60.088 Y-24.75 Z-1.711 I0.162 J0
X-60.412 Y-24.75 Z-1.772 I-0.162 J0
X-60.088 Y-24.75 Z-1.833 I0.162 J0
X-60.412 Y-24.75 Z-1.894 I-0.162 J0
X-60.088 Y-24.75 Z-1.956 I0.162 J0
X-60.412 Y-24.75 Z-2.017 I-0.162 J0
X-60.088 Y-24.75 Z-2.078 I0.162 J0
X-60.412 Y-24.75 Z-2.139 I-0.162 J0
X-60.088 Y-24.75 Z-2.2 I0.162 J0
X-60.412 Y-24.75 Z-2.261 I-0.162 J0
X-60.183 Y-24.898 Z-2.3 I0.162 J0
X-60.317 Y-24.602 I-0.067 J0.148
X-60.183 Y-24.898 I0.067 J-0.148
G1 X-60.157 Y-24.879
X-60.14 Y-24.852
X-60.135 Y-24.821
X-60.142 Y-24.79
X-60.208 Y-24.646
Z5
X-81.577 Y-7.655
Z1.683
Z0
X-81.419
X-81.388 Y-7.649
X-81.361 Y-7.631
X-81.344 Y-7.605
X-81.338 Y-7.574
G3 X-81.662 Y-7.574 Z-0.061 I-0.162 J0
X-81.338 Y-7.574 Z-0.122 I0.162 J0
X-81.662 Y-7.574 Z-0.183 I-0.162 J0
X-81.338 Y-7.574 Z-0.244 I0.162 J0
X-81.662 Y-7.574 Z-0.306 I-0.162 J0
X-81.338 Y-7.574 Z-0.367 I0.162 J0
X-81.662 Y-7.574 Z-0.428 I-0.162 J0
X-81.338 Y-7.574 Z-0.489 I0.162 J0
X-81.662 Y-7.574 Z-0.55 I-0.162 J0
X-81.338 Y-7.574 Z-0.611 I0.162 J0
X-81.662 Y-7.574 Z-0.672 I-0.162 J0
X-81.338 Y-7.574 Z-0.733 I0.162 J0
X-81.662 Y-7.574 Z-0.794 I-0.162 J0
X-81.338 Y-7.574 Z-0.856 I0.162 J0
X-81.662 Y-7.574 Z-0.917 I-0.162 J0
X-81.338 Y-7.574 Z-0.978 I0.162 J0
X-81.662 Y-7.574 Z-1.039 I-0.162 J0
X-81.338 Y-7.574 Z-1.1 I0.162 J0
X-81.662 Y-7.574 Z-1.161 I-0.162 J0
X-81.338 Y-7.574 Z-1.222 I0.162 J0
X-81.662 Y-7.574 Z-1.283 I-0.162 J0
X-81.338 Y-7.574 Z-1.344 I0.162 J0
X-81.662 Y-7.574 Z-1.406 I-0.162 J0
X-81.338 Y-7.574 Z-1.467 I0.162 J0
X-81.662 Y-7.574 Z-1.528 I-0.162 J0
X-81.338 Y-7.574 Z-1.589 I0.162 J0
X-81.662 Y-7.574 Z-1.65 I-0.162 J0
X-81.338 Y-7.574 Z-1.711 I0.162 J0
X-81.662 Y-7.574 Z-1.772 I-0.162 J0
X-81.338 Y-7.574 Z-1.833 I0.162 J0
X-81.662 Y-7.574 Z-1.894 I-0.162 J0
X-81.338 Y-7.574 Z-1.956 I0.162 J0
X-81.662 Y-7.574 Z-2.017 I-0.162 J0
X-81.338 Y-7.574 Z-2.078 I0.162 J0
X-81.662 Y-7.574 Z-2.139 I-0.162 J0
X-81.338 Y-7.574 Z-2.2 I0.162 J0
X-81.662 Y-7.574 Z-2.261 I-0.162 J0
X-81.433 Y-7.722 Z-2.3 I0.162 J0
X-81.567 Y-7.426 I-0.067 J0.148
X-81.433 Y-7.722 I0.067 J-0.148
G1 X-81.407 Y-7.703
X-81.39 Y-7.676
X-81.385 Y-7.645
X-81.392 Y-7.614
X-81.458 Y-7.469
Z5
X-81.577 Y-72.508
Z1.683
Z0
X-81.419
X-81.388 Y-72.501
X-81.361 Y-72.484
X-81.344 Y-72.457
X-81.338 Y-72.426
G3 X-81.662 Y-72.426 Z-0.061 I-0.162 J0
X-81.338 Y-72.426 Z-0.122 I0.162 J0
X-81.662 Y-72.426 Z-0.183 I-0.162 J0
X-81.338 Y-72.426 Z-0.244 I0.162 J0
X-81.662 Y-72.426 Z-0.306 I-0.162 J0
X-81.338 Y-72.426 Z-0.367 I0.162 J0
X-81.662 Y-72.426 Z-0.428 I-0.162 J0
X-81.338 Y-72.426 Z-0.489 I0.162 J0
X-81.662 Y-72.426 Z-0.55 I-0.162 J0
X-81.338 Y-72.426 Z-0.611 I0.162 J0
X-81.662 Y-72.426 Z-0.672 I-0.162 J0
X-81.338 Y-72.426 Z-0.733 I0.162 J0
X-81.663 Y-72.426 Z-0.794 I-0.162 J0
X-81.337 Y-72.426 Z-0.856 I0.163 J0
X-81.663 Y-72.426 Z-0.917 I-0.163 J0
X-81.337 Y-72.426 Z-0.978 I0.163 J0
X-81.663 Y-72.426 Z-1.039 I-0.163 J0
X-81.337 Y-72.426 Z-1.1 I0.163 J0
X-81.663 Y-72.426 Z-1.161 I-0.163 J0
X-81.337 Y-72.426 Z-1.222 I0.163 J0
X-81.663 Y-72.426 Z-1.283 I-0.163 J0
X-81.337 Y-72.426 Z-1.344 I0.163 J0
X-81.663 Y-72.426 Z-1.406 I-0.163 J0
X-81.337 Y-72.426 Z-1.467 I0.163 J0
X-81.663 Y-72.426 Z-1.528 I-0.163 J0
X-81.337 Y-72.426 Z-1.589 I0.163 J0
X-81.663 Y-72.426 Z-1.65 I-0.163 J0
X-81.337 Y-72.426 Z-1.711 I0.163 J0
X-81.663 Y-72.426 Z-1.772 I-0.163 J0
X-81.337 Y-72.426 Z-1.833 I0.163 J0
X-81.663 Y-72.426 Z-1.894 I-0.163 J0
X-81.337 Y-72.426 Z-1.956 I0.163 J0
X-81.663 Y-72.426 Z-2.017 I-0.163 J0
X-81.337 Y-72.426 Z-2.078 I0.163 J0
X-81.663 Y-72.426 Z-2.139 I-0.163 J0
X-81.337 Y-72.426 Z-2.2 I0.163 J0
X-81.663 Y-72.426 Z-2.261 I-0.163 J0
X-81.433 Y-72.574 Z-2.3 I0.163 J0
X-81.567 Y-72.278 I-0.067 J0.148
X-81.433 Y-72.574 I0.067 J-0.148
G1 X-81.407 Y-72.556
X-81.39 Y-72.529
X-81.385 Y-72.497
X-81.392 Y-72.467
X-81.458 Y-72.322
Z5
X-60.327 Y-55.331
Z1.683
Z0
X-60.169
X-60.138 Y-55.325
X-60.111 Y-55.307
X-60.094 Y-55.281
X-60.088 Y-55.25
G3 X-60.412 Y-55.25 Z-0.061 I-0.162 J0
X-60.088 Y-55.25 Z-0.122 I0.162 J0
X-60.412 Y-55.25 Z-0.183 I-0.162 J0
X-60.088 Y-55.25 Z-0.244 I0.162 J0
X-60.412 Y-55.25 Z-0.306 I-0.162 J0
X-60.088 Y-55.25 Z-0.367 I0.162 J0
X-60.412 Y-55.25 Z-0.428 I-0.162 J0
X-60.088 Y-55.25 Z-0.489 I0.162 J0
X-60.412 Y-55.25 Z-0.55 I-0.162 J0
X-60.088 Y-55.25 Z-0.611 I0.162 J0
X-60.412 Y-55.25 Z-0.672 I-0.162 J0
X-60.088 Y-55.25 Z-0.733 I0.162 J0
X-60.412 Y-55.25 Z-0.794 I-0.162 J0
X-60.088 Y-55.25 Z-0.856 I0.162 J0
X-60.412 Y-55.25 Z-0.917 I-0.162 J0
X-60.088 Y-55.25 Z-0.978 I0.162 J0
X-60.412 Y-55.25 Z-1.039 I-0.162 J0
X-60.088 Y-55.25 Z-1.1 I0.162 J0
X-60.412 Y-55.25 Z-1.161 I-0.162 J0
X-60.088 Y-55.25 Z-1.222 I0.162 J0
X-60.412 Y-55.25 Z-1.283 I-0.162 J0
X-60.088 Y-55.25 Z-1.344 I0.162 J0
X-60.412 Y-55.25 Z-1.406 I-0.162 J0
X-60.088 Y-55.25 Z-1.467 I0.162 J0
X-60.412 Y-55.25 Z-1.528 I-0.162 J0
X-60.088 Y-55.25 Z-1.589 I0.162 J0
X-60.412 Y-55.25 Z-1.65 I-0.162 J0
X-60.088 Y-55.25 Z-1.711 I0.162 J0
X-60.412 Y-55.25 Z-1.772 I-0.162 J0
X-60.088 Y-55.25 Z-1.833 I0.162 J0
X-60.412 Y-55.25 Z-1.894 I-0.162 J0
X-60.088 Y-55.25 Z-1.956 I0.162 J0
X-60.412 Y-55.25 Z-2.017 I-0.162 J0
X-60.088 Y-55.25 Z-2.078 I0.162 J0
X-60.412 Y-55.25 Z-2.139 I-0.162 J0
X-60.088 Y-55.25 Z-2.2 I0.162 J0
X-60.412 Y-55.25 Z-2.261 I-0.162 J0
X-60.183 Y-55.398 Z-2.3 I0.162 J0
X-60.317 Y-55.102 I-0.067 J0.148
X-60.183 Y-55.398 I0.067 J-0.148
G1 X-60.157 Y-55.379
X-60.14 Y-55.352
X-60.135 Y-55.321
X-60.142 Y-55.29
X-60.208 Y-55.146
Z5
X-41.381 Y-40.318
Z2
Z0.317
G18 G2 X-41.064 Z0 I0.317 K0
G1 X-40.905
G17 G3 X-40.588 Y-40 I0 J0.318
X-49.412 Y-40 Z-0.21 I-4.412 J0
X-40.588 Y-40 Z-0.419 I4.412 J0
X-49.412 Y-40 Z-0.629 I-4.412 J0
X-40.588 Y-40 Z-0.838 I4.412 J0
X-49.412 Y-40 Z-1.048 I-4.412 J0
X-40.588 Y-40 Z-1.257 I4.412 J0
X-49.412 Y-40 Z-1.467 I-4.412 J0
X-40.588 Y-40 Z-1.676 I4.412 J0
X-49.412 Y-40 Z-1.886 I-4.412 J0
X-40.588 Y-40 Z-2.095 I4.412 J0
X-49.401 Y-39.685 Z-2.3 I-4.412 J0
X-40.599 Y-40.315 I4.401 J-0.315
X-49.401 Y-39.685 I-4.401 J0.315
X-49.107 Y-40.024 I0.317 J-0.023
G1 X-48.949 Y-40.035
X-48.878 Y-40.04 Z-2.292
X-48.811 Y-40.045 Z-2.269
X-48.751 Y-40.05 Z-2.231
X-48.701 Y-40.053 Z-2.18
X-48.664 Y-40.056 Z-2.12
X-48.64 Y-40.057 Z-2.053
X-48.632 Y-40.058 Z-1.982
Z5
X-29.827 Y-55.331
Z1.683
Z0
X-29.669
X-29.638 Y-55.325
X-29.611 Y-55.307
X-29.594 Y-55.281
X-29.587 Y-55.25
G3 X-29.913 Y-55.25 Z-0.061 I-0.163 J0
X-29.587 Y-55.25 Z-0.122 I0.163 J0
X-29.913 Y-55.25 Z-0.183 I-0.163 J0
X-29.587 Y-55.25 Z-0.244 I0.163 J0
X-29.913 Y-55.25 Z-0.306 I-0.163 J0
X-29.587 Y-55.25 Z-0.367 I0.163 J0
X-29.913 Y-55.25 Z-0.428 I-0.163 J0
X-29.587 Y-55.25 Z-0.489 I0.163 J0
X-29.913 Y-55.25 Z-0.55 I-0.163 J0
X-29.587 Y-55.25 Z-0.611 I0.163 J0
X-29.913 Y-55.25 Z-0.672 I-0.163 J0
X-29.587 Y-55.25 Z-0.733 I0.163 J0
X-29.913 Y-55.25 Z-0.794 I-0.163 J0
X-29.587 Y-55.25 Z-0.856 I0.163 J0
X-29.913 Y-55.25 Z-0.917 I-0.163 J0
X-29.587 Y-55.25 Z-0.978 I0.163 J0
X-29.913 Y-55.25 Z-1.039 I-0.163 J0
X-29.587 Y-55.25 Z-1.1 I0.163 J0
X-29.913 Y-55.25 Z-1.161 I-0.163 J0
X-29.587 Y-55.25 Z-1.222 I0.163 J0
X-29.913 Y-55.25 Z-1.283 I-0.163 J0
X-29.587 Y-55.25 Z-1.344 I0.163 J0
X-29.913 Y-55.25 Z-1.406 I-0.163 J0
X-29.587 Y-55.25 Z-1.467 I0.163 J0
X-29.913 Y-55.25 Z-1.528 I-0.163 J0
X-29.587 Y-55.25 Z-1.589 I0.163 J0
X-29.913 Y-55.25 Z-1.65 I-0.163 J0
X-29.587 Y-55.25 Z-1.711 I0.163 J0
X-29.913 Y-55.25 Z-1.772 I-0.163 J0
X-29.587 Y-55.25 Z-1.833 I0.163 J0
X-29.913 Y-55.25 Z-1.894 I-0.163 J0
X-29.587 Y-55.25 Z-1.956 I0.163 J0
X-29.913 Y-55.25 Z-2.017 I-0.163 J0
X-29.587 Y-55.25 Z-2.078 I0.163 J0
X-29.913 Y-55.25 Z-2.139 I-0.163 J0
X-29.587 Y-55.25 Z-2.2 I0.163 J0
X-29.913 Y-55.25 Z-2.261 I-0.163 J0
X-29.683 Y-55.398 Z-2.3 I0.163 J0
X-29.817 Y-55.102 I-0.067 J0.148
X-29.683 Y-55.398 I0.067 J-0.148
G1 X-29.657 Y-55.379
X-29.64 Y-55.352
X-29.635 Y-55.321
X-29.642 Y-55.29
X-29.708 Y-55.146
Z5
X-8.578 Y-72.508
Z1.683
Z0
X-8.419
X-8.388 Y-72.501
X-8.361 Y-72.484
X-8.344 Y-72.457
X-8.337 Y-72.426
G3 X-8.663 Y-72.426 Z-0.061 I-0.163 J0
X-8.337 Y-72.426 Z-0.122 I0.163 J0
X-8.663 Y-72.426 Z-0.183 I-0.163 J0
X-8.337 Y-72.426 Z-0.244 I0.163 J0
X-8.663 Y-72.426 Z-0.306 I-0.163 J0
X-8.337 Y-72.426 Z-0.367 I0.163 J0
X-8.663 Y-72.426 Z-0.428 I-0.163 J0
X-8.337 Y-72.426 Z-0.489 I0.163 J0
X-8.663 Y-72.426 Z-0.55 I-0.163 J0
X-8.337 Y-72.426 Z-0.611 I0.163 J0
X-8.663 Y-72.426 Z-0.672 I-0.163 J0
X-8.337 Y-72.426 Z-0.733 I0.163 J0
X-8.663 Y-72.426 Z-0.794 I-0.163 J0
X-8.337 Y-72.426 Z-0.856 I0.163 J0
X-8.663 Y-72.426 Z-0.917 I-0.163 J0
X-8.337 Y-72.426 Z-0.978 I0.163 J0
X-8.663 Y-72.426 Z-1.039 I-0.163 J0
X-8.337 Y-72.426 Z-1.1 I0.163 J0
X-8.663 Y-72.426 Z-1.161 I-0.163 J0
X-8.337 Y-72.426 Z-1.222 I0.163 J0
X-8.663 Y-72.426 Z-1.283 I-0.163 J0
X-8.337 Y-72.426 Z-1.344 I0.163 J0
X-8.663 Y-72.426 Z-1.406 I-0.163 J0
X-8.337 Y-72.426 Z-1.467 I0.163 J0
X-8.663 Y-72.426 Z-1.528 I-0.163 J0
X-8.337 Y-72.426 Z-1.589 I0.163 J0
X-8.663 Y-72.426 Z-1.65 I-0.163 J0
X-8.337 Y-72.426 Z-1.711 I0.163 J0
X-8.663 Y-72.426 Z-1.772 I-0.163 J0
X-8.337 Y-72.426 Z-1.833 I0.163 J0
X-8.663 Y-72.426 Z-1.894 I-0.163 J0
X-8.337 Y-72.426 Z-1.956 I0.163 J0
X-8.663 Y-72.426 Z-2.017 I-0.163 J0
X-8.337 Y-72.426 Z-2.078 I0.163 J0
X-8.663 Y-72.426 Z-2.139 I-0.163 J0
X-8.337 Y-72.426 Z-2.2 I0.163 J0
X-8.663 Y-72.426 Z-2.261 I-0.163 J0
X-8.433 Y-72.574 Z-2.3 I0.163 J0
X-8.567 Y-72.278 I-0.067 J0.148
X-8.433 Y-72.574 I0.067 J-0.148
G1 X-8.407 Y-72.556
X-8.39 Y-72.529
X-8.385 Y-72.497
X-8.392 Y-72.467
X-8.458 Y-72.322
Z15
(When using Fusion for Personal Use, the feedrate of rapid)
(moves is reduced to match the feedrate of cutting moves,)
(which can increase machining time. Unrestricted rapid moves)
(are available with a Fusion Subscription.)

(2D-Kontur7)
G0 X-10.924 Y0.621
G1 Z15 F1000
Z5
Z0.635 F333.3
Z-0.683
X-10.922 Y0.614 Z-0.753 F1000
X-10.916 Y0.591 Z-0.82
X-10.907 Y0.554 Z-0.88
X-10.894 Y0.505 Z-0.931
X-10.879 Y0.447 Z-0.969
X-10.863 Y0.382 Z-0.992
X-10.845 Y0.314 Z-1
X-10.766 Y0.006
G3 X-10.38 Y-0.223 I0.308 J0.079
G2 X-3.461 Y-13.246 I1.88 J-7.351
G1 X-24.813 Y-32.216
G3 X-24.813 Y-47.784 I6.915 J-7.784
G1 X-3.461 Y-66.754
G2 X-13.539 Y-78.099 I-5.039 J-5.672
G1 X-38.084 Y-56.293
G3 X-51.916 Y-56.293 I-6.916 J-7.784
G1 X-76.461 Y-78.099
G2 X-86.539 Y-66.754 I-5.039 J5.672
G1 X-65.187 Y-47.784
G3 X-65.187 Y-32.216 I-6.915 J7.784
G1 X-86.539 Y-13.246
G2 X-76.461 Y-1.901 I5.039 J5.672
G1 X-51.916 Y-23.707
G3 X-38.084 Y-23.707 I6.916 J7.784
G1 X-13.539 Y-1.901
G2 X-10.38 Y-0.223 I5.039 J-5.672
G3 X-10.151 Y0.163 I-0.079 J0.308
G1 X-10.23 Y0.471
X-10.247 Y0.539 Z-0.992
X-10.264 Y0.604 Z-0.969
X-10.279 Y0.663 Z-0.931
X-10.291 Y0.712 Z-0.88
X-10.301 Y0.748 Z-0.82
X-10.307 Y0.771 Z-0.753
X-10.309 Y0.779 Z-0.683
Z5
X-10.924 Y0.621
Z-0.365 F333.3
Z-1.683
X-10.922 Y0.614 Z-1.753 F1000
X-10.916 Y0.591 Z-1.82
X-10.907 Y0.554 Z-1.88
X-10.894 Y0.505 Z-1.931
X-10.879 Y0.447 Z-1.969
X-10.863 Y0.382 Z-1.992
X-10.845 Y0.314 Z-2
X-10.766 Y0.006
G3 X-10.38 Y-0.223 I0.308 J0.079
G2 X-3.461 Y-13.246 I1.88 J-7.351
G1 X-10.708 Y-19.684
Z-1.3
X-17.567 Y-25.778
Z-2 F333.3
X-24.813 Y-32.216 F1000
G3 X-24.813 Y-47.784 I6.915 J-7.784
G1 X-17.567 Y-54.222
Z-1.3
X-10.708 Y-60.316
Z-2 F333.3
X-3.461 Y-66.754 F1000
G2 X-13.539 Y-78.099 I-5.039 J-5.672
G1 X-22.382 Y-70.243
Z-1.3
X-29.241 Y-64.149
Z-2 F333.3
X-38.084 Y-56.293 F1000
G3 X-51.916 Y-56.293 I-6.916 J-7.784
G1 X-60.759 Y-64.149
Z-1.3
X-67.618 Y-70.243
Z-2 F333.3
X-76.461 Y-78.099 F1000
G2 X-86.539 Y-66.754 I-5.039 J5.672
G1 X-79.292 Y-60.316
Z-1.3
X-72.433 Y-54.222
Z-2 F333.3
X-65.187 Y-47.784 F1000
G3 X-65.187 Y-32.216 I-6.915 J7.784
G1 X-72.433 Y-25.778
Z-1.3
X-79.292 Y-19.684
Z-2 F333.3
X-86.539 Y-13.246 F1000
G2 X-76.461 Y-1.901 I5.039 J5.672
G1 X-67.618 Y-9.757
Z-1.3
X-60.759 Y-15.851
Z-2 F333.3
X-51.916 Y-23.707 F1000
G3 X-38.084 Y-23.707 I6.916 J7.784
G1 X-29.241 Y-15.851
Z-1.3
X-22.382 Y-9.757
Z-2 F333.3
X-13.539 Y-1.901 F1000
G2 X-10.38 Y-0.223 I5.039 J-5.672
G3 X-10.151 Y0.163 I-0.079 J0.308
G1 X-10.23 Y0.471
X-10.247 Y0.539 Z-1.992
X-10.264 Y0.604 Z-1.969
X-10.279 Y0.663 Z-1.931
X-10.291 Y0.712 Z-1.88
X-10.301 Y0.748 Z-1.82
X-10.307 Y0.771 Z-1.753
X-10.309 Y0.779 Z-1.683
Z5
X-10.924 Y0.621
Z-1.365 F333.3
Z-1.983
X-10.922 Y0.614 Z-2.053 F1000
X-10.916 Y0.591 Z-2.12
X-10.907 Y0.554 Z-2.18
X-10.894 Y0.505 Z-2.231
X-10.879 Y0.447 Z-2.269
X-10.863 Y0.382 Z-2.292
X-10.845 Y0.314 Z-2.3
X-10.766 Y0.006
G3 X-10.38 Y-0.223 I0.308 J0.079
G2 X-3.461 Y-13.246 I1.88 J-7.351
G1 X-10.708 Y-19.684
Z-1.3
X-17.567 Y-25.778
Z-2.3 F333.3
X-24.813 Y-32.216 F1000
G3 X-24.813 Y-47.784 I6.915 J-7.784
G1 X-17.567 Y-54.222
Z-1.3
X-10.708 Y-60.316
Z-2.3 F333.3
X-3.461 Y-66.754 F1000
G2 X-13.539 Y-78.099 I-5.039 J-5.672
G1 X-22.382 Y-70.243
Z-1.3
X-29.241 Y-64.149
Z-2.3 F333.3
X-38.084 Y-56.293 F1000
G3 X-51.916 Y-56.293 I-6.916 J-7.784
G1 X-60.759 Y-64.149
Z-1.3
X-67.618 Y-70.243
Z-2.3 F333.3
X-76.461 Y-78.099 F1000
G2 X-86.539 Y-66.754 I-5.039 J5.672
G1 X-79.292 Y-60.316
Z-1.3
X-72.433 Y-54.222
Z-2.3 F333.3
X-65.187 Y-47.784 F1000
G3 X-65.187 Y-32.216 I-6.915 J7.784
G1 X-72.433 Y-25.778
Z-1.3
X-79.292 Y-19.684
Z-2.3 F333.3
X-86.539 Y-13.246 F1000
G2 X-76.461 Y-1.901 I5.039 J5.672
G1 X-67.618 Y-9.757
Z-1.3
X-60.759 Y-15.851
Z-2.3 F333.3
X-51.916 Y-23.707 F1000
G3 X-38.084 Y-23.707 I6.916 J7.784
G1 X-29.241 Y-15.851
Z-1.3
X-22.382 Y-9.757
Z-2.3 F333.3
X-13.539 Y-1.901 F1000
G2 X-10.38 Y-0.223 I5.039 J-5.672
G3 X-10.151 Y0.163 I-0.079 J0.308
G1 X-10.23 Y0.471
X-10.247 Y0.539 Z-2.292
X-10.264 Y0.604 Z-2.269
X-10.279 Y0.663 Z-2.231
X-10.291 Y0.712 Z-2.18
X-10.301 Y0.748 Z-2.12
X-10.307 Y0.771 Z-2.053
X-10.309 Y0.779 Z-1.983
Z15

M5
M30
