(1001)
G90 G94
G17
G21
(When using Fusion 360 for Personal Use, the feedrate of)
(rapid moves is reduced to match the feedrate of cutting)
(moves, which can increase machining time. Unrestricted rapid)
(moves are available with a Fusion 360 Subscription.)

(Bohrfrasen1)
S5000 M3
G54
G0 X-56.963 Y-0.195
Z15
G1 Z1 F1200
Z-0.805 F1016
G18 G2 X-56.768 Z-1 I0.195 K0
G1 X-56.67
G17 G3 X-56.475 Y0 I0 J0.195
X-63.525 Y0 Z-1.5 I-3.525 J0 F1200
X-56.475 Y0 Z-2 I3.525 J0
X-63.525 Y0 Z-2.5 I-3.525 J0
X-56.475 Y0 Z-3 I3.525 J0
X-63.525 Y0 Z-3.5 I-3.525 J0
X-56.475 Y0 Z-4 I3.525 J0
X-63.525 Y0 Z-4.5 I-3.525 J0
X-56.475 Y0 Z-5 I3.525 J0
X-58.911 Y3.352 Z-5.2 I-3.525 J0
X-61.089 Y-3.352 I-1.089 J-3.352
X-58.911 Y3.352 I1.089 J3.352
X-59.156 Y3.227 I-0.06 J-0.185 F1016
G1 X-59.187 Y3.135
X-59.202 Y3.087 Z-5.193
X-59.217 Y3.042 Z-5.174
X-59.229 Y3.003 Z-5.143
X-59.239 Y2.974 Z-5.103
X-59.245 Y2.955 Z-5.055
X-59.247 Y2.949 Z-5.005
Z5 F1200
X-39.463 Y-0.195
Z1
Z-0.805 F1016
G18 G2 X-39.268 Z-1 I0.195 K0
G1 X-39.17
G17 G3 X-38.975 Y0 I0 J0.195
X-41.025 Y0 Z-1.5 I-1.025 J0 F1200
X-38.975 Y0 Z-2 I1.025 J0
X-41.025 Y0 Z-2.5 I-1.025 J0
X-38.975 Y0 Z-3 I1.025 J0
X-41.025 Y0 Z-3.5 I-1.025 J0
X-38.975 Y0 Z-4 I1.025 J0
X-41.025 Y0 Z-4.5 I-1.025 J0
X-38.975 Y0 Z-5 I1.025 J0
X-39.683 Y0.975 Z-5.2 I-1.025 J0
X-40.317 Y-0.975 I-0.317 J-0.975
X-39.683 Y0.975 I0.317 J0.975
X-39.929 Y0.85 I-0.06 J-0.185 F1016
G1 X-39.959 Y0.757
X-39.975 Y0.709 Z-5.193
X-39.989 Y0.664 Z-5.174
X-40.002 Y0.626 Z-5.143
X-40.011 Y0.596 Z-5.102
X-40.017 Y0.578 Z-5.055
X-40.019 Y0.571 Z-5.005
Z5 F1200
X40.537 Y-0.195
Z1
Z-0.805 F1016
G18 G2 X40.732 Z-1 I0.195 K0
G1 X40.83
G17 G3 X41.025 Y0 I0 J0.195
X38.975 Y0 Z-1.5 I-1.025 J0 F1200
X41.025 Y0 Z-2 I1.025 J0
X38.975 Y0 Z-2.5 I-1.025 J0
X41.025 Y0 Z-3 I1.025 J0
X38.975 Y0 Z-3.5 I-1.025 J0
X41.025 Y0 Z-4 I1.025 J0
X38.975 Y0 Z-4.5 I-1.025 J0
X41.025 Y0 Z-5 I1.025 J0
X40.317 Y0.975 Z-5.2 I-1.025 J0
X39.683 Y-0.975 I-0.317 J-0.975
X40.317 Y0.975 I0.317 J0.975
X40.071 Y0.85 I-0.06 J-0.185 F1016
G1 X40.041 Y0.757
X40.025 Y0.709 Z-5.193
X40.011 Y0.664 Z-5.174
X39.998 Y0.626 Z-5.143
X39.989 Y0.596 Z-5.102
X39.983 Y0.578 Z-5.055
X39.981 Y0.571 Z-5.005
Z5 F1200
X63.037 Y-0.195
Z1
Z-0.805 F1016
G18 G2 X63.232 Z-1 I0.195 K0
G1 X63.33
G17 G3 X63.525 Y0 I0 J0.195
X56.475 Y0 Z-1.5 I-3.525 J0 F1200
X63.525 Y0 Z-2 I3.525 J0
X56.475 Y0 Z-2.5 I-3.525 J0
X63.525 Y0 Z-3 I3.525 J0
X56.475 Y0 Z-3.5 I-3.525 J0
X63.525 Y0 Z-4 I3.525 J0
X56.475 Y0 Z-4.5 I-3.525 J0
X63.525 Y0 Z-5 I3.525 J0
X61.089 Y3.352 Z-5.2 I-3.525 J0
X58.911 Y-3.352 I-1.089 J-3.352
X61.089 Y3.352 I1.089 J3.352
X60.844 Y3.227 I-0.06 J-0.185 F1016
G1 X60.813 Y3.135
X60.798 Y3.087 Z-5.193
X60.783 Y3.042 Z-5.174
X60.771 Y3.003 Z-5.143
X60.761 Y2.974 Z-5.103
X60.755 Y2.955 Z-5.055
X60.753 Y2.949 Z-5.005
Z15 F1200
(When using Fusion 360 for Personal Use, the feedrate of)
(rapid moves is reduced to match the feedrate of cutting)
(moves, which can increase machining time. Unrestricted rapid)
(moves are available with a Fusion 360 Subscription.)

(2D-Kontur1)
G0 X-69.327 Y-12.969
G1 Z15 F1200
Z5
Z2.5 F400
G2 X-60 Y15.975 Z1.095 I9.327 J12.969 F1016
G1 X0 Z-1
X60 F1200
G2 X60 Y-15.975 I0 J-15.975
G1 X-60
G2 X-60 Y15.975 I0 J15.975
G1 X0
X52.365 Z-2 F1016
X60 F1200
G2 X60 Y-15.975 I0 J-15.975
G1 X-60
G2 X-60 Y15.975 I0 J15.975
G1 X0
X52.365
X60 Z-2.146 F1016
G2 X65.351 Y-15.052 Z-3 I0 J-15.975
X60 Y-15.975 I-5.351 J15.052 F1200
G1 X-60
G2 X-60 Y15.975 I0 J15.975
G1 X52.365
X60
G2 X65.351 Y-15.052 I0 J-15.975
X60 Y-15.975 Z-3.104 I-5.351 J15.052 F1016
G1 X13.091 Z-4
X-60 F1200
G2 X-60 Y15.975 I0 J15.975
G1 X60
G2 X60 Y-15.975 I0 J-15.975
G1 X13.091
X-18.328 Z-4.6 F1016
X-60 F1200
G2 X-60 Y15.975 I0 J15.975
G1 X60
G2 X60 Y-15.975 I0 J-15.975
G1 X13.091
X-18.328
X-49.747 Z-5.2 F1016
X-60 F1200
G2 X-60 Y15.975 I0 J15.975
G1 X-3.975
Z-4.6
X3.975
Z-5.2 F400
X60 F1200
G2 X60 Y-15.975 I0 J-15.975
G1 X3.975
Z-4.6
X-3.975
Z-5.2 F400
X-49.747 F1200
Z15
M5
M30
