(Lampenhalter_Petra)
(Bearbeiten)
(  Hersteller: ChinaCnc)
(  model: 3040T)
(  description: Generic 3-axis)
(T5 D=3.175 CR=0 - ZMIN=-4.3 - Schaftfrser)
G90 G94
G17
G21
(When using Fusion 360 for Personal Use, the feedrate of)
(rapid moves is reduced to match the feedrate of cutting)
(moves, which can increase machining time. Unrestricted rapid)
(moves are available with a Fusion 360 Subscription.)

(2D-Kontur1)
M0
(MANUAL TOOL CHANGE TO T5)
S4000 M3
G54
G0 X-125.519 Y-75.807
Z15
G1 Z5 F1000
Z3.2 F333.3
Z-1.883
X-125.511 Y-75.806 Z-1.953 F1000
X-125.488 Y-75.805 Z-2.02
X-125.45 Y-75.803 Z-2.08
X-125.4 Y-75.8 Z-2.131
X-125.34 Y-75.797 Z-2.169
X-125.273 Y-75.793 Z-2.192
X-125.202 Y-75.79 Z-2.2
X-124.885 Y-75.772
G3 X-124.585 Y-75.438 I-0.017 J0.317
G1 X-124.588 Y-75.352
Y-51.94
X-131
G2 X-134.587 Y-48.352 I0 J3.587
G1 Y-46.352
G2 X-131 Y-42.765 I3.587 J0
G1 X-123
G2 X-122.585 Y-42.82 I0 J-1.588
G1 X-2.585 Y-75.32
G2 X-1.413 Y-76.852 I-0.415 J-1.532
G1 Y-78.852
G2 X-2.585 Y-80.385 I-1.587 J0
G1 X-122.585 Y-112.884
G2 X-123 Y-112.939 I-0.415 J1.532
G1 X-131
G2 X-134.587 Y-109.352 I0 J3.588
G1 Y-107.352
G2 X-131 Y-103.765 I3.587 J0
G1 X-124.588
Y-80.352
G2 X-123 Y-78.765 I1.588 J0
G1 X-64.588
Y-76.94
X-123
G2 X-124.585 Y-75.438 I0 J1.588
G3 X-124.919 Y-75.138 I-0.317 J-0.017
G1 X-125.236 Y-75.155
X-125.307 Y-75.159 Z-2.192
X-125.374 Y-75.163 Z-2.169
X-125.434 Y-75.166 Z-2.131
X-125.484 Y-75.169 Z-2.08
X-125.522 Y-75.171 Z-2.02
X-125.545 Y-75.172 Z-1.953
X-125.553 Y-75.173 Z-1.883
Z5
X-117.301 Y-38.496
Z3.2 F333.3
Z-1.883
X-117.293 Y-38.498 Z-1.953 F1000
X-117.271 Y-38.506 Z-2.02
X-117.235 Y-38.518 Z-2.08
X-117.187 Y-38.534 Z-2.131
X-117.13 Y-38.553 Z-2.169
X-117.067 Y-38.574 Z-2.192
X-117 Y-38.597 Z-2.2
X-116.698 Y-38.697
G3 X-116.297 Y-38.497 I0.101 J0.301
G2 X-114.791 Y-37.412 I1.506 J-0.503
G1 X-71.088
Y-35.588
X-114.791
G2 X-115.253 Y-32.481 I0 J1.588
G1 X-13.462 Y-1.481
G2 X-13 Y-1.413 I0.462 J-1.519
G1 X-5
G2 X-1.413 Y-5 I0 J-3.587
G1 Y-7
G2 X-5 Y-10.587 I-3.587 J0
G1 X-11.413
Y-62.412
X-5
G2 X-1.413 Y-66 I0 J-3.588
G1 Y-68
G2 X-5 Y-71.588 I-3.587 J0
G1 X-13
G2 X-13.462 Y-71.519 I0 J1.588
G1 X-115.253 Y-40.519
G2 X-116.297 Y-38.497 I0.462 J1.519
G3 X-116.497 Y-38.095 I-0.301 J0.101
G1 X-116.798 Y-37.994
X-116.865 Y-37.972 Z-2.192
X-116.929 Y-37.951 Z-2.169
X-116.986 Y-37.932 Z-2.131
X-117.034 Y-37.916 Z-2.08
X-117.07 Y-37.904 Z-2.02
X-117.092 Y-37.896 Z-1.953
X-117.099 Y-37.894 Z-1.883
Z5
X-117.301 Y-38.496
Z1 F333.3
Z-3.983
X-117.293 Y-38.498 Z-4.053 F1000
X-117.271 Y-38.506 Z-4.12
X-117.235 Y-38.518 Z-4.18
X-117.187 Y-38.534 Z-4.231
X-117.13 Y-38.553 Z-4.269
X-117.067 Y-38.574 Z-4.292
X-117 Y-38.597 Z-4.3
X-116.698 Y-38.697
G3 X-116.297 Y-38.497 I0.101 J0.301
G2 X-114.791 Y-37.412 I1.506 J-0.503
G1 X-71.088
Y-35.588
X-114.791
G2 X-115.253 Y-32.481 I0 J1.588
G1 X-97.521 Y-27.081
Z-3.1
X-88.744 Y-24.408
Z-4.3 F333.3
X-44.963 Y-11.075 F1000
Z-3.1
X-36.186 Y-8.402
Z-4.3 F333.3
X-13.462 Y-1.481 F1000
G2 X-13 Y-1.413 I0.462 J-1.519
G1 X-5
G2 X-1.413 Y-5 I0 J-3.587
G1 Y-7
G2 X-5 Y-10.587 I-3.587 J0
G1 X-11.413
Y-45.818
Z-3.1
Y-54.993
Z-4.3 F333.3
Y-62.412 F1000
X-5
G2 X-1.413 Y-66 I0 J-3.588
G1 Y-68
G2 X-5 Y-71.588 I-3.587 J0
G1 X-13
G2 X-13.462 Y-71.519 I0 J1.588
G1 X-115.253 Y-40.519
G2 X-116.297 Y-38.497 I0.462 J1.519
G3 X-116.497 Y-38.095 I-0.301 J0.101
G1 X-116.798 Y-37.994
X-116.865 Y-37.972 Z-4.292
X-116.929 Y-37.951 Z-4.269
X-116.986 Y-37.932 Z-4.231
X-117.034 Y-37.916 Z-4.18
X-117.07 Y-37.904 Z-4.12
X-117.092 Y-37.896 Z-4.053
X-117.099 Y-37.894 Z-3.983
Z5
X-125.519 Y-75.807
Z1 F333.3
Z-3.983
X-125.511 Y-75.806 Z-4.053 F1000
X-125.488 Y-75.805 Z-4.12
X-125.45 Y-75.803 Z-4.18
X-125.4 Y-75.8 Z-4.231
X-125.34 Y-75.797 Z-4.269
X-125.273 Y-75.793 Z-4.292
X-125.202 Y-75.79 Z-4.3
X-124.885 Y-75.772
G3 X-124.585 Y-75.438 I-0.017 J0.317
G1 X-124.588 Y-75.352
Y-68.492
Z-3.1
Y-59.317
Z-4.3 F333.3
Y-51.94 F1000
X-131
G2 X-134.587 Y-48.352 I0 J3.587
G1 Y-46.352
G2 X-131 Y-42.765 I3.587 J0
G1 X-123
G2 X-122.585 Y-42.82 I0 J-1.588
G1 X-2.585 Y-75.32
G2 X-1.413 Y-76.852 I-0.415 J-1.532
G1 Y-78.852
G2 X-2.585 Y-80.385 I-1.587 J0
G1 X-25.93 Y-86.707
Z-3.1
X-34.786 Y-89.106
Z-4.3 F333.3
X-107.161 Y-108.707 F1000
Z-3.1
X-116.017 Y-111.105
Z-4.3 F333.3
X-122.585 Y-112.884 F1000
G2 X-123 Y-112.939 I-0.415 J1.532
G1 X-131
G2 X-134.587 Y-109.352 I0 J3.588
G1 Y-107.352
G2 X-131 Y-103.765 I3.587 J0
G1 X-124.588
Y-96.731
Z-3.1
Y-87.556
Z-4.3 F333.3
Y-80.352 F1000
G2 X-123 Y-78.765 I1.588 J0
G1 X-64.588
Y-76.94
X-123
G2 X-124.585 Y-75.438 I0 J1.588
G3 X-124.919 Y-75.138 I-0.317 J-0.017
G1 X-125.236 Y-75.155
X-125.307 Y-75.159 Z-4.292
X-125.374 Y-75.163 Z-4.269
X-125.434 Y-75.166 Z-4.231
X-125.484 Y-75.169 Z-4.18
X-125.522 Y-75.171 Z-4.12
X-125.545 Y-75.172 Z-4.053
X-125.553 Y-75.173 Z-3.983
Z15
M5
M30
