(1001)
G90 G94
G17
G21
(When using Fusion 360 for Personal Use, the feedrate of)
(rapid moves is reduced to match the feedrate of cutting)
(moves, which can increase machining time. Unrestricted rapid)
(moves are available with a Fusion 360 Subscription.)

(2D-Kontur2)
S6000 M3
G54
G0 X-53.994 Y-100.696
Z15
G1 Z4.8 F1000
Z1.9 F333.3
Z0.8
S5000
X-111.544 Y-117.961 Z-1.298
X-111.594 Y-117.975 Z-1.3
S6000
G2 X-112 Y-118.027 I-0.406 J1.535 F1000
G1 X-120
G2 X-123.588 Y-114.44 I0 J3.587
G1 Y-112.94
G2 X-120 Y-109.353 I3.588 J0
G1 X-113.588
Y-84.99
G2 X-112 Y-83.403 I1.588 J0
G1 X-63.588
Y-82.478
X-112
G2 X-113.588 Y-80.89 I0 J1.588
G1 Y-56.528
X-120
G2 X-123.588 Y-52.94 I0 J3.588
G1 Y-51.44
G2 X-120 Y-47.853 I3.588 J0
G1 X-112
G2 X-111.544 Y-47.92 I0 J-1.588
G1 X-1.544 Y-80.92
G2 X-0.412 Y-82.44 I-0.456 J-1.521
G1 Y-83.44
G2 X-1.544 Y-84.961 I-1.588 J0
G1 X-111.544 Y-117.961
X-111.594 Y-117.975
S5000
G2 X-112 Y-118.027 Z-1.314 I-0.406 J1.535 F333.3
G1 X-120 Z-1.594
G2 X-123.588 Y-114.44 Z-1.79 I0 J3.587
G1 Y-112.94 Z-1.843
G2 X-120 Y-109.353 Z-2.04 I3.588 J0
G1 X-113.588 Z-2.264
Y-105.446 Z-2.4
S6000
Y-84.99 F1000
G2 X-112 Y-83.403 I1.588 J0
G1 X-63.588
Y-82.478
X-112
G2 X-113.588 Y-80.89 I0 J1.588
G1 Y-56.528
X-120
G2 X-123.588 Y-52.94 I0 J3.588
G1 Y-51.44
G2 X-120 Y-47.853 I3.588 J0
G1 X-112
G2 X-111.544 Y-47.92 I0 J-1.588
G1 X-1.544 Y-80.92
G2 X-0.412 Y-82.44 I-0.456 J-1.521
G1 Y-83.44
G2 X-1.544 Y-84.961 I-1.588 J0
G1 X-111.544 Y-117.961
G2 X-112 Y-118.027 I-0.456 J1.521
G1 X-120
G2 X-123.588 Y-114.44 I0 J3.587
G1 Y-112.94
G2 X-120 Y-109.353 I3.588 J0
G1 X-113.588
Y-105.446
S5000
Y-84.99 Z-3.114 F333.3
G2 X-112 Y-83.403 Z-3.201 I1.588 J0
G1 X-103.45 Z-3.5
S6000
X-63.588 F1000
Y-82.478
X-112
G2 X-113.588 Y-80.89 I0 J1.588
G1 Y-56.528
X-120
G2 X-123.588 Y-52.94 I0 J3.588
G1 Y-51.44
G2 X-120 Y-47.853 I3.588 J0
G1 X-112
G2 X-111.544 Y-47.92 I0 J-1.588
G1 X-60.938 Y-63.102
Z-2.9
X-52.15 Y-65.738
Z-3.5 F333.3
X-1.544 Y-80.92 F1000
G2 X-0.412 Y-82.44 I-0.456 J-1.521
G1 Y-83.44
G2 X-1.544 Y-84.961 I-1.588 J0
G1 X-52.15 Y-100.143
Z-2.9
X-60.938 Y-102.779
Z-3.5 F333.3
X-111.544 Y-117.961 F1000
G2 X-112 Y-118.027 I-0.456 J1.521
G1 X-120
G2 X-123.588 Y-114.44 I0 J3.587
G1 Y-112.94
G2 X-120 Y-109.353 I3.588 J0
G1 X-113.588
Y-84.99
G2 X-112 Y-83.403 I1.588 J0
G1 X-103.45
S5000
X-89.131 Z-4 F333.3
S6000
X-63.588 F1000
Y-82.478
X-112
G2 X-113.588 Y-80.89 I0 J1.588
G1 Y-56.528
X-120
G2 X-123.588 Y-52.94 I0 J3.588
G1 Y-51.44
G2 X-120 Y-47.853 I3.588 J0
G1 X-112
G2 X-111.544 Y-47.92 I0 J-1.588
G1 X-60.938 Y-63.102
Z-2.9
X-52.15 Y-65.738
Z-4 F333.3
X-1.544 Y-80.92 F1000
G2 X-0.412 Y-82.44 I-0.456 J-1.521
G1 Y-83.44
G2 X-1.544 Y-84.961 I-1.588 J0
G1 X-52.15 Y-100.143
Z-2.9
X-60.938 Y-102.779
Z-4 F333.3
X-111.544 Y-117.961 F1000
G2 X-112 Y-118.027 I-0.456 J1.521
G1 X-120
G2 X-123.588 Y-114.44 I0 J3.587
G1 Y-112.94
G2 X-120 Y-109.353 I3.588 J0
G1 X-113.588
Y-84.99
G2 X-112 Y-83.403 I1.588 J0
G1 X-89.131
Z5
X-69.429 Y-19.564
Z4.8
Z1.9 F333.3
Z0.8
S5000
X-12.504 Y-0.495 Z-1.296
X-12.406 Y-0.465 Z-1.3
S6000
G2 X-12 Y-0.412 I0.406 J-1.535 F1000
G1 X-4
G2 X-0.412 Y-4 I0 J-3.588
G1 Y-5.5
G2 X-4 Y-9.087 I-3.588 J0
G1 X-10.413
Y-61.912
X-4
G2 X-0.412 Y-65.5 I0 J-3.588
G1 Y-67
G2 X-4 Y-70.588 I-3.588 J0
G1 X-12
G2 X-12.504 Y-70.505 I0 J1.588
G1 X-106.385 Y-39.055
G2 X-105.881 Y-35.963 I0.504 J1.505
G1 X-61.388
Y-35.037
X-105.881
G2 X-106.385 Y-31.945 I0 J1.587
G1 X-12.504 Y-0.495
X-12.406 Y-0.465
S5000
G2 X-12 Y-0.412 Z-1.314 I0.406 J-1.535 F333.3
G1 X-4 Z-1.594
G2 X-0.412 Y-4 Z-1.79 I0 J-3.588
G1 Y-5.5 Z-1.843
G2 X-4 Y-9.087 Z-2.04 I-3.588 J0
G1 X-10.413 Z-2.264
Y-12.994 Z-2.4
S6000
Y-61.912 F1000
X-4
G2 X-0.412 Y-65.5 I0 J-3.588
G1 Y-67
G2 X-4 Y-70.588 I-3.588 J0
G1 X-12
G2 X-12.504 Y-70.505 I0 J1.588
G1 X-106.385 Y-39.055
G2 X-105.881 Y-35.963 I0.504 J1.505
G1 X-61.388
Y-35.037
X-105.881
G2 X-106.385 Y-31.945 I0 J1.587
G1 X-12.504 Y-0.495
G2 X-12 Y-0.412 I0.504 J-1.505
G1 X-4
G2 X-0.412 Y-4 I0 J-3.588
G1 Y-5.5
G2 X-4 Y-9.087 I-3.588 J0
G1 X-10.413
Y-12.994
S5000
Y-44.494 Z-3.5 F333.3
S6000
Y-61.912 F1000
X-4
G2 X-0.412 Y-65.5 I0 J-3.588
G1 Y-67
G2 X-4 Y-70.588 I-3.588 J0
G1 X-12
G2 X-12.504 Y-70.505 I0 J1.588
G1 X-55.095 Y-56.238
Z-2.9
X-63.794 Y-53.323
Z-3.5 F333.3
X-106.385 Y-39.055 F1000
G2 X-105.881 Y-35.963 I0.504 J1.505
G1 X-61.388
Y-35.037
X-105.881
G2 X-106.385 Y-31.945 I0 J1.587
G1 X-63.794 Y-17.677
Z-2.9
X-55.095 Y-14.762
Z-3.5 F333.3
X-12.504 Y-0.495 F1000
G2 X-12 Y-0.412 I0.504 J-1.505
G1 X-4
G2 X-0.412 Y-4 I0 J-3.588
G1 Y-5.5
G2 X-4 Y-9.087 I-3.588 J0
G1 X-10.413
Y-44.494
S5000
Y-58.812 Z-4 F333.3
S6000
Y-61.912 F1000
X-4
G2 X-0.412 Y-65.5 I0 J-3.588
G1 Y-67
G2 X-4 Y-70.588 I-3.588 J0
G1 X-12
G2 X-12.504 Y-70.505 I0 J1.588
G1 X-55.095 Y-56.238
Z-2.9
X-63.794 Y-53.323
Z-4 F333.3
X-106.385 Y-39.055 F1000
G2 X-105.881 Y-35.963 I0.504 J1.505
G1 X-61.388
Y-35.037
X-105.881
G2 X-106.385 Y-31.945 I0 J1.587
G1 X-63.794 Y-17.677
Z-2.9
X-55.095 Y-14.762
Z-4 F333.3
X-12.504 Y-0.495 F1000
G2 X-12 Y-0.412 I0.504 J-1.505
G1 X-4
G2 X-0.412 Y-4 I0 J-3.588
G1 Y-5.5
G2 X-4 Y-9.087 I-3.588 J0
G1 X-10.413
Y-58.812
Z15
M5
M30
