(Left_Speaker)
(Maschine)
(  Hersteller: ChinaCnc)
(  model: 3040T)
(  description: Generic 3-axis)
(T14 D=3.175 CR=0 - ZMIN=-18.3 - Schaftfrser)
G90 G94
G17
G21
(-Attention- Property Safe Retracts is set to Clearance Height.)
(Ensure the clearance height will clear the part and or fixtures.)
(Raise the Z-axis to a safe height before starting the program.)
(When using Fusion for Personal Use, the feedrate of rapid)
(moves is reduced to match the feedrate of cutting moves,)
(which can increase machining time. Unrestricted rapid moves)
(are available with a Fusion Subscription.)

(Bohrfrsen5)
M0
(MANUAL TOOL CHANGE TO T14)
S3000 M3
G17 G90 G94
G54
G0 X-45.736 Y53.577
Z15
G1 Z1.683 F1500
Z0 F1016
X-45.577
X-45.546 Y53.584
X-45.52 Y53.601
X-45.502 Y53.628
X-45.496 Y53.659
G3 X-45.821 Y53.659 Z-0.031 I-0.163 J0 F1500
X-45.496 Y53.659 Z-0.061 I0.163 J0
X-45.821 Y53.659 Z-0.092 I-0.163 J0
X-45.496 Y53.659 Z-0.122 I0.163 J0
X-45.821 Y53.659 Z-0.153 I-0.163 J0
X-45.496 Y53.659 Z-0.183 I0.163 J0
X-45.821 Y53.659 Z-0.214 I-0.163 J0
X-45.496 Y53.659 Z-0.244 I0.163 J0
X-45.821 Y53.659 Z-0.275 I-0.163 J0
X-45.496 Y53.659 Z-0.305 I0.163 J0
X-45.821 Y53.659 Z-0.336 I-0.163 J0
X-45.496 Y53.659 Z-0.367 I0.163 J0
X-45.821 Y53.659 Z-0.397 I-0.163 J0
X-45.496 Y53.659 Z-0.428 I0.163 J0
X-45.821 Y53.659 Z-0.458 I-0.163 J0
X-45.496 Y53.659 Z-0.489 I0.163 J0
X-45.821 Y53.659 Z-0.519 I-0.163 J0
X-45.496 Y53.659 Z-0.55 I0.163 J0
X-45.821 Y53.659 Z-0.58 I-0.163 J0
X-45.496 Y53.659 Z-0.611 I0.163 J0
X-45.821 Y53.659 Z-0.641 I-0.163 J0
X-45.496 Y53.659 Z-0.672 I0.163 J0
X-45.821 Y53.659 Z-0.703 I-0.163 J0
X-45.496 Y53.659 Z-0.733 I0.163 J0
X-45.821 Y53.659 Z-0.764 I-0.163 J0
X-45.496 Y53.659 Z-0.794 I0.163 J0
X-45.821 Y53.659 Z-0.825 I-0.163 J0
X-45.496 Y53.659 Z-0.855 I0.163 J0
X-45.821 Y53.659 Z-0.886 I-0.163 J0
X-45.496 Y53.659 Z-0.916 I0.163 J0
X-45.821 Y53.659 Z-0.947 I-0.163 J0
X-45.496 Y53.659 Z-0.977 I0.163 J0
X-45.821 Y53.659 Z-1.008 I-0.163 J0
X-45.496 Y53.659 Z-1.039 I0.163 J0
X-45.821 Y53.659 Z-1.069 I-0.163 J0
X-45.496 Y53.659 Z-1.1 I0.163 J0
X-45.821 Y53.659 Z-1.13 I-0.163 J0
X-45.496 Y53.659 Z-1.161 I0.163 J0
X-45.821 Y53.659 Z-1.191 I-0.163 J0
X-45.496 Y53.659 Z-1.222 I0.163 J0
X-45.821 Y53.659 Z-1.252 I-0.163 J0
X-45.496 Y53.659 Z-1.283 I0.163 J0
X-45.821 Y53.659 Z-1.313 I-0.163 J0
X-45.496 Y53.659 Z-1.344 I0.163 J0
X-45.821 Y53.659 Z-1.375 I-0.163 J0
X-45.496 Y53.659 Z-1.405 I0.163 J0
X-45.821 Y53.659 Z-1.436 I-0.163 J0
X-45.496 Y53.659 Z-1.466 I0.163 J0
X-45.821 Y53.659 Z-1.497 I-0.163 J0
X-45.496 Y53.659 Z-1.527 I0.163 J0
X-45.821 Y53.659 Z-1.558 I-0.163 J0
X-45.496 Y53.659 Z-1.588 I0.163 J0
X-45.821 Y53.659 Z-1.619 I-0.163 J0
X-45.496 Y53.659 Z-1.65 I0.163 J0
X-45.821 Y53.659 Z-1.68 I-0.163 J0
X-45.496 Y53.659 Z-1.711 I0.163 J0
X-45.821 Y53.659 Z-1.741 I-0.163 J0
X-45.496 Y53.659 Z-1.772 I0.163 J0
X-45.821 Y53.659 Z-1.802 I-0.163 J0
X-45.496 Y53.659 Z-1.833 I0.163 J0
X-45.821 Y53.659 Z-1.863 I-0.163 J0
X-45.496 Y53.659 Z-1.894 I0.163 J0
X-45.821 Y53.659 Z-1.924 I-0.163 J0
X-45.496 Y53.659 Z-1.955 I0.162 J0
X-45.821 Y53.659 Z-1.986 I-0.162 J0
X-45.672 Y53.497 Z-2 I0.162 J0
X-45.646 Y53.821 I0.013 J0.162
X-45.672 Y53.497 I-0.013 J-0.162
G1 X-45.64 Y53.5 F1016
X-45.613 Y53.516
X-45.593 Y53.541
X-45.584 Y53.571
X-45.571 Y53.729
Z5 F1500
X35.581 Y53.577
Z1.683
Z0 F1016
X35.74
X35.771 Y53.584
X35.797 Y53.601
X35.815 Y53.628
X35.821 Y53.659
G3 X35.496 Y53.659 Z-0.031 I-0.162 J0 F1500
X35.821 Y53.659 Z-0.061 I0.162 J0
X35.496 Y53.659 Z-0.092 I-0.162 J0
X35.821 Y53.659 Z-0.122 I0.162 J0
X35.496 Y53.659 Z-0.153 I-0.162 J0
X35.821 Y53.659 Z-0.183 I0.162 J0
X35.496 Y53.659 Z-0.214 I-0.162 J0
X35.821 Y53.659 Z-0.244 I0.162 J0
X35.496 Y53.659 Z-0.275 I-0.162 J0
X35.821 Y53.659 Z-0.305 I0.162 J0
X35.496 Y53.659 Z-0.336 I-0.162 J0
X35.821 Y53.659 Z-0.367 I0.162 J0
X35.496 Y53.659 Z-0.397 I-0.162 J0
X35.821 Y53.659 Z-0.428 I0.162 J0
X35.496 Y53.659 Z-0.458 I-0.162 J0
X35.821 Y53.659 Z-0.489 I0.162 J0
X35.496 Y53.659 Z-0.519 I-0.162 J0
X35.821 Y53.659 Z-0.55 I0.162 J0
X35.496 Y53.659 Z-0.58 I-0.162 J0
X35.821 Y53.659 Z-0.611 I0.162 J0
X35.496 Y53.659 Z-0.641 I-0.162 J0
X35.821 Y53.659 Z-0.672 I0.162 J0
X35.496 Y53.659 Z-0.703 I-0.162 J0
X35.821 Y53.659 Z-0.733 I0.162 J0
X35.496 Y53.659 Z-0.764 I-0.162 J0
X35.821 Y53.659 Z-0.794 I0.162 J0
X35.496 Y53.659 Z-0.825 I-0.162 J0
X35.821 Y53.659 Z-0.855 I0.162 J0
X35.496 Y53.659 Z-0.886 I-0.162 J0
X35.821 Y53.659 Z-0.916 I0.162 J0
X35.496 Y53.659 Z-0.947 I-0.162 J0
X35.821 Y53.659 Z-0.977 I0.162 J0
X35.496 Y53.659 Z-1.008 I-0.162 J0
X35.821 Y53.659 Z-1.039 I0.162 J0
X35.496 Y53.659 Z-1.069 I-0.162 J0
X35.821 Y53.659 Z-1.1 I0.162 J0
X35.496 Y53.659 Z-1.13 I-0.162 J0
X35.821 Y53.659 Z-1.161 I0.162 J0
X35.496 Y53.659 Z-1.191 I-0.162 J0
X35.821 Y53.659 Z-1.222 I0.162 J0
X35.496 Y53.659 Z-1.252 I-0.162 J0
X35.821 Y53.659 Z-1.283 I0.162 J0
X35.496 Y53.659 Z-1.313 I-0.162 J0
X35.821 Y53.659 Z-1.344 I0.162 J0
X35.496 Y53.659 Z-1.375 I-0.162 J0
X35.821 Y53.659 Z-1.405 I0.162 J0
X35.496 Y53.659 Z-1.436 I-0.162 J0
X35.821 Y53.659 Z-1.466 I0.162 J0
X35.496 Y53.659 Z-1.497 I-0.162 J0
X35.821 Y53.659 Z-1.527 I0.162 J0
X35.496 Y53.659 Z-1.558 I-0.162 J0
X35.821 Y53.659 Z-1.588 I0.162 J0
X35.496 Y53.659 Z-1.619 I-0.162 J0
X35.821 Y53.659 Z-1.65 I0.162 J0
X35.496 Y53.659 Z-1.68 I-0.162 J0
X35.821 Y53.659 Z-1.711 I0.162 J0
X35.496 Y53.659 Z-1.741 I-0.162 J0
X35.821 Y53.659 Z-1.772 I0.162 J0
X35.496 Y53.659 Z-1.802 I-0.162 J0
X35.821 Y53.659 Z-1.833 I0.163 J0
X35.496 Y53.659 Z-1.863 I-0.163 J0
X35.821 Y53.659 Z-1.894 I0.163 J0
X35.496 Y53.659 Z-1.924 I-0.163 J0
X35.821 Y53.659 Z-1.955 I0.163 J0
X35.496 Y53.659 Z-1.986 I-0.163 J0
X35.646 Y53.497 Z-2 I0.163 J0
X35.672 Y53.821 I0.013 J0.162
X35.646 Y53.497 I-0.013 J-0.162
G1 X35.677 Y53.5 F1016
X35.705 Y53.516
X35.724 Y53.541
X35.733 Y53.571
X35.746 Y53.729
Z5 F1500
X35.581 Y-27.74
Z1.683
Z0 F1016
X35.74
X35.771 Y-27.734
X35.797 Y-27.716
X35.815 Y-27.69
X35.821 Y-27.659
G3 X35.496 Y-27.659 Z-0.031 I-0.162 J0 F1500
X35.821 Y-27.659 Z-0.061 I0.162 J0
X35.496 Y-27.659 Z-0.092 I-0.162 J0
X35.821 Y-27.659 Z-0.122 I0.162 J0
X35.496 Y-27.659 Z-0.153 I-0.162 J0
X35.821 Y-27.659 Z-0.183 I0.162 J0
X35.496 Y-27.659 Z-0.214 I-0.162 J0
X35.821 Y-27.659 Z-0.244 I0.162 J0
X35.496 Y-27.659 Z-0.275 I-0.162 J0
X35.821 Y-27.659 Z-0.305 I0.162 J0
X35.496 Y-27.659 Z-0.336 I-0.162 J0
X35.821 Y-27.659 Z-0.367 I0.162 J0
X35.496 Y-27.659 Z-0.397 I-0.162 J0
X35.821 Y-27.659 Z-0.428 I0.162 J0
X35.496 Y-27.659 Z-0.458 I-0.162 J0
X35.821 Y-27.659 Z-0.489 I0.162 J0
X35.496 Y-27.659 Z-0.519 I-0.162 J0
X35.821 Y-27.659 Z-0.55 I0.162 J0
X35.496 Y-27.659 Z-0.58 I-0.162 J0
X35.821 Y-27.659 Z-0.611 I0.162 J0
X35.496 Y-27.659 Z-0.641 I-0.162 J0
X35.821 Y-27.659 Z-0.672 I0.162 J0
X35.496 Y-27.659 Z-0.703 I-0.162 J0
X35.821 Y-27.659 Z-0.733 I0.162 J0
X35.496 Y-27.659 Z-0.764 I-0.162 J0
X35.821 Y-27.659 Z-0.794 I0.162 J0
X35.496 Y-27.659 Z-0.825 I-0.162 J0
X35.821 Y-27.659 Z-0.855 I0.162 J0
X35.496 Y-27.659 Z-0.886 I-0.162 J0
X35.821 Y-27.659 Z-0.916 I0.162 J0
X35.496 Y-27.659 Z-0.947 I-0.162 J0
X35.821 Y-27.659 Z-0.977 I0.162 J0
X35.496 Y-27.659 Z-1.008 I-0.162 J0
X35.821 Y-27.659 Z-1.039 I0.162 J0
X35.496 Y-27.659 Z-1.069 I-0.162 J0
X35.821 Y-27.659 Z-1.1 I0.162 J0
X35.496 Y-27.659 Z-1.13 I-0.162 J0
X35.821 Y-27.659 Z-1.161 I0.162 J0
X35.496 Y-27.659 Z-1.191 I-0.162 J0
X35.821 Y-27.659 Z-1.222 I0.162 J0
X35.496 Y-27.659 Z-1.252 I-0.162 J0
X35.821 Y-27.659 Z-1.283 I0.162 J0
X35.496 Y-27.659 Z-1.313 I-0.162 J0
X35.821 Y-27.659 Z-1.344 I0.162 J0
X35.496 Y-27.659 Z-1.375 I-0.162 J0
X35.821 Y-27.659 Z-1.405 I0.162 J0
X35.496 Y-27.659 Z-1.436 I-0.162 J0
X35.821 Y-27.659 Z-1.466 I0.162 J0
X35.496 Y-27.659 Z-1.497 I-0.162 J0
X35.821 Y-27.659 Z-1.527 I0.162 J0
X35.496 Y-27.659 Z-1.558 I-0.162 J0
X35.821 Y-27.659 Z-1.588 I0.162 J0
X35.496 Y-27.659 Z-1.619 I-0.162 J0
X35.821 Y-27.659 Z-1.65 I0.162 J0
X35.496 Y-27.659 Z-1.68 I-0.162 J0
X35.821 Y-27.659 Z-1.711 I0.162 J0
X35.496 Y-27.659 Z-1.741 I-0.162 J0
X35.821 Y-27.659 Z-1.772 I0.162 J0
X35.496 Y-27.659 Z-1.802 I-0.162 J0
X35.821 Y-27.659 Z-1.833 I0.163 J0
X35.496 Y-27.659 Z-1.863 I-0.163 J0
X35.821 Y-27.659 Z-1.894 I0.163 J0
X35.496 Y-27.659 Z-1.924 I-0.163 J0
X35.821 Y-27.659 Z-1.955 I0.163 J0
X35.496 Y-27.659 Z-1.986 I-0.163 J0
X35.646 Y-27.821 Z-2 I0.163 J0
X35.672 Y-27.497 I0.013 J0.162
X35.646 Y-27.821 I-0.013 J-0.162
G1 X35.677 Y-27.817 F1016
X35.705 Y-27.802
X35.724 Y-27.777
X35.733 Y-27.746
X35.746 Y-27.588
Z5 F1500
X-45.736 Y-27.74
Z1.683
Z0 F1016
X-45.577
X-45.546 Y-27.734
X-45.52 Y-27.716
X-45.502 Y-27.69
X-45.496 Y-27.659
G3 X-45.821 Y-27.659 Z-0.031 I-0.163 J0 F1500
X-45.496 Y-27.659 Z-0.061 I0.163 J0
X-45.821 Y-27.659 Z-0.092 I-0.163 J0
X-45.496 Y-27.659 Z-0.122 I0.163 J0
X-45.821 Y-27.659 Z-0.153 I-0.163 J0
X-45.496 Y-27.659 Z-0.183 I0.163 J0
X-45.821 Y-27.659 Z-0.214 I-0.163 J0
X-45.496 Y-27.659 Z-0.244 I0.163 J0
X-45.821 Y-27.659 Z-0.275 I-0.163 J0
X-45.496 Y-27.659 Z-0.305 I0.163 J0
X-45.821 Y-27.659 Z-0.336 I-0.163 J0
X-45.496 Y-27.659 Z-0.367 I0.163 J0
X-45.821 Y-27.659 Z-0.397 I-0.163 J0
X-45.496 Y-27.659 Z-0.428 I0.163 J0
X-45.821 Y-27.659 Z-0.458 I-0.163 J0
X-45.496 Y-27.659 Z-0.489 I0.163 J0
X-45.821 Y-27.659 Z-0.519 I-0.163 J0
X-45.496 Y-27.659 Z-0.55 I0.163 J0
X-45.821 Y-27.659 Z-0.58 I-0.163 J0
X-45.496 Y-27.659 Z-0.611 I0.163 J0
X-45.821 Y-27.659 Z-0.641 I-0.163 J0
X-45.496 Y-27.659 Z-0.672 I0.163 J0
X-45.821 Y-27.659 Z-0.703 I-0.163 J0
X-45.496 Y-27.659 Z-0.733 I0.163 J0
X-45.821 Y-27.659 Z-0.764 I-0.163 J0
X-45.496 Y-27.659 Z-0.794 I0.163 J0
X-45.821 Y-27.659 Z-0.825 I-0.163 J0
X-45.496 Y-27.659 Z-0.855 I0.163 J0
X-45.821 Y-27.659 Z-0.886 I-0.163 J0
X-45.496 Y-27.659 Z-0.916 I0.163 J0
X-45.821 Y-27.659 Z-0.947 I-0.163 J0
X-45.496 Y-27.659 Z-0.977 I0.163 J0
X-45.821 Y-27.659 Z-1.008 I-0.163 J0
X-45.496 Y-27.659 Z-1.039 I0.163 J0
X-45.821 Y-27.659 Z-1.069 I-0.163 J0
X-45.496 Y-27.659 Z-1.1 I0.163 J0
X-45.821 Y-27.659 Z-1.13 I-0.163 J0
X-45.496 Y-27.659 Z-1.161 I0.163 J0
X-45.821 Y-27.659 Z-1.191 I-0.163 J0
X-45.496 Y-27.659 Z-1.222 I0.163 J0
X-45.821 Y-27.659 Z-1.252 I-0.163 J0
X-45.496 Y-27.659 Z-1.283 I0.163 J0
X-45.821 Y-27.659 Z-1.313 I-0.163 J0
X-45.496 Y-27.659 Z-1.344 I0.163 J0
X-45.821 Y-27.659 Z-1.375 I-0.163 J0
X-45.496 Y-27.659 Z-1.405 I0.163 J0
X-45.821 Y-27.659 Z-1.436 I-0.163 J0
X-45.496 Y-27.659 Z-1.466 I0.163 J0
X-45.821 Y-27.659 Z-1.497 I-0.163 J0
X-45.496 Y-27.659 Z-1.527 I0.163 J0
X-45.821 Y-27.659 Z-1.558 I-0.163 J0
X-45.496 Y-27.659 Z-1.588 I0.163 J0
X-45.821 Y-27.659 Z-1.619 I-0.163 J0
X-45.496 Y-27.659 Z-1.65 I0.163 J0
X-45.821 Y-27.659 Z-1.68 I-0.163 J0
X-45.496 Y-27.659 Z-1.711 I0.163 J0
X-45.821 Y-27.659 Z-1.741 I-0.163 J0
X-45.496 Y-27.659 Z-1.772 I0.163 J0
X-45.821 Y-27.659 Z-1.802 I-0.163 J0
X-45.496 Y-27.659 Z-1.833 I0.163 J0
X-45.821 Y-27.659 Z-1.863 I-0.163 J0
X-45.496 Y-27.659 Z-1.894 I0.163 J0
X-45.821 Y-27.659 Z-1.924 I-0.163 J0
X-45.496 Y-27.659 Z-1.955 I0.162 J0
X-45.821 Y-27.659 Z-1.986 I-0.162 J0
X-45.672 Y-27.821 Z-2 I0.162 J0
X-45.646 Y-27.497 I0.013 J0.162
X-45.672 Y-27.821 I-0.013 J-0.162
G1 X-45.64 Y-27.817 F1016
X-45.613 Y-27.802
X-45.593 Y-27.777
X-45.584 Y-27.746
X-45.571 Y-27.588
Z15 F1500
(When using Fusion for Personal Use, the feedrate of rapid)
(moves is reduced to match the feedrate of cutting moves,)
(which can increase machining time. Unrestricted rapid moves)
(are available with a Fusion Subscription.)

(Bohrfrsen6)
G0 X43.869 Y12.682
G1 Z15 F1500
Z2
Z0.317 F1016
G18 G2 X44.186 Z0 I0.317 K0
G1 X44.345
G17 G3 X44.662 Y13 I0 J0.318
X-54.662 Y13 Z-0.895 I-49.662 J0 F1500
X44.662 Y13 Z-1.789 I49.662 J0
X-54.662 Y13 Z-2.684 I-49.662 J0
X44.662 Y13 Z-3.578 I49.662 J0
X-54.662 Y13 Z-4.473 I-49.662 J0
X44.662 Y13 Z-5.367 I49.662 J0
X-54.662 Y13 Z-6.262 I-49.662 J0
X44.662 Y13 Z-7.157 I49.662 J0
X-54.662 Y13 Z-8.051 I-49.662 J0
X44.662 Y13 Z-8.946 I49.662 J0
X-54.662 Y13 Z-9.84 I-49.662 J0
X44.662 Y13 Z-10.735 I49.662 J0
X-54.662 Y13 Z-11.629 I-49.662 J0
X44.663 Y13 Z-12.524 I49.662 J0
X-54.663 Y13 Z-13.419 I-49.663 J0
X44.663 Y13 Z-14.313 I49.663 J0
X-54.663 Y13 Z-15.208 I-49.663 J0
X44.663 Y13 Z-16.102 I49.663 J0
X-54.663 Y13 Z-16.997 I-49.663 J0
X44.663 Y13 Z-17.891 I49.663 J0
X1.734 Y62.204 Z-18.3 I-49.663 J0
X-11.734 Y-36.204 I-6.734 J-49.204
X1.734 Y62.204 I6.734 J49.204
X1.376 Y61.932 I-0.043 J-0.315 F1016
G1 X1.354 Y61.775
X1.345 Y61.705 Z-18.292
X1.336 Y61.639 Z-18.269
X1.328 Y61.579 Z-18.231
X1.321 Y61.529 Z-18.18
X1.316 Y61.492 Z-18.12
X1.312 Y61.468 Z-18.053
X1.311 Y61.461 Z-17.983
Z15 F1500

M5
M30
