(Left_Speaker)
(Maschine)
(  Hersteller: ChinaCnc)
(  model: 3040T)
(  description: Generic 3-axis)
(T14 D=3.175 CR=0 - ZMIN=-18.3 - Schaftfrser)
G90 G94
G17
G21
(-Attention- Property Safe Retracts is set to Clearance Height.)
(Ensure the clearance height will clear the part and or fixtures.)
(Raise the Z-axis to a safe height before starting the program.)
(When using Fusion for Personal Use, the feedrate of rapid)
(moves is reduced to match the feedrate of cutting moves,)
(which can increase machining time. Unrestricted rapid moves)
(are available with a Fusion Subscription.)

(Bohrfrsen5)
M0
(MANUAL TOOL CHANGE TO T14)
S6000 M3
G17 G90 G94
G54
G0 X-45.736 Y53.577
Z15
G1 Z1.683 F1500
Z0 F1016
X-45.577
X-45.546 Y53.584
X-45.52 Y53.601
X-45.502 Y53.628
X-45.496 Y53.659
G3 X-45.821 Y53.659 Z-0.061 I-0.163 J0 F1500
X-45.496 Y53.659 Z-0.122 I0.163 J0
X-45.821 Y53.659 Z-0.183 I-0.163 J0
X-45.496 Y53.659 Z-0.244 I0.163 J0
X-45.821 Y53.659 Z-0.306 I-0.163 J0
X-45.496 Y53.659 Z-0.367 I0.163 J0
X-45.821 Y53.659 Z-0.428 I-0.163 J0
X-45.496 Y53.659 Z-0.489 I0.163 J0
X-45.821 Y53.659 Z-0.55 I-0.163 J0
X-45.496 Y53.659 Z-0.611 I0.163 J0
X-45.821 Y53.659 Z-0.672 I-0.163 J0
X-45.496 Y53.659 Z-0.733 I0.163 J0
X-45.821 Y53.659 Z-0.794 I-0.163 J0
X-45.496 Y53.659 Z-0.856 I0.163 J0
X-45.821 Y53.659 Z-0.917 I-0.163 J0
X-45.496 Y53.659 Z-0.978 I0.162 J0
X-45.821 Y53.659 Z-1.039 I-0.162 J0
X-45.496 Y53.659 Z-1.1 I0.162 J0
X-45.821 Y53.659 Z-1.161 I-0.162 J0
X-45.496 Y53.659 Z-1.222 I0.162 J0
X-45.821 Y53.659 Z-1.283 I-0.162 J0
X-45.496 Y53.659 Z-1.344 I0.162 J0
X-45.821 Y53.659 Z-1.406 I-0.162 J0
X-45.496 Y53.659 Z-1.467 I0.162 J0
X-45.821 Y53.659 Z-1.528 I-0.162 J0
X-45.496 Y53.659 Z-1.589 I0.162 J0
X-45.821 Y53.659 Z-1.65 I-0.162 J0
X-45.496 Y53.659 Z-1.711 I0.162 J0
X-45.821 Y53.659 Z-1.772 I-0.162 J0
X-45.496 Y53.659 Z-1.833 I0.162 J0
X-45.821 Y53.659 Z-1.894 I-0.162 J0
X-45.496 Y53.659 Z-1.956 I0.162 J0
X-45.765 Y53.781 Z-2 I-0.162 J0
X-45.552 Y53.536 I0.106 J-0.123
X-45.765 Y53.781 I-0.106 J0.123
G1 X-45.784 Y53.756 F1016
X-45.793 Y53.726
X-45.789 Y53.694
X-45.773 Y53.667
X-45.669 Y53.547
Z5 F1500
X35.581 Y53.577
Z1.683
Z0 F1016
X35.74
X35.771 Y53.584
X35.797 Y53.601
X35.815 Y53.628
X35.821 Y53.659
G3 X35.496 Y53.659 Z-0.061 I-0.162 J0 F1500
X35.821 Y53.659 Z-0.122 I0.162 J0
X35.496 Y53.659 Z-0.183 I-0.162 J0
X35.821 Y53.659 Z-0.244 I0.162 J0
X35.496 Y53.659 Z-0.306 I-0.162 J0
X35.821 Y53.659 Z-0.367 I0.162 J0
X35.496 Y53.659 Z-0.428 I-0.162 J0
X35.821 Y53.659 Z-0.489 I0.162 J0
X35.496 Y53.659 Z-0.55 I-0.162 J0
X35.821 Y53.659 Z-0.611 I0.162 J0
X35.496 Y53.659 Z-0.672 I-0.162 J0
X35.821 Y53.659 Z-0.733 I0.162 J0
X35.496 Y53.659 Z-0.794 I-0.162 J0
X35.821 Y53.659 Z-0.856 I0.162 J0
X35.496 Y53.659 Z-0.917 I-0.162 J0
X35.821 Y53.659 Z-0.978 I0.162 J0
X35.496 Y53.659 Z-1.039 I-0.162 J0
X35.821 Y53.659 Z-1.1 I0.162 J0
X35.496 Y53.659 Z-1.161 I-0.162 J0
X35.821 Y53.659 Z-1.222 I0.162 J0
X35.496 Y53.659 Z-1.283 I-0.162 J0
X35.821 Y53.659 Z-1.344 I0.162 J0
X35.496 Y53.659 Z-1.406 I-0.162 J0
X35.821 Y53.659 Z-1.467 I0.162 J0
X35.496 Y53.659 Z-1.528 I-0.162 J0
X35.821 Y53.659 Z-1.589 I0.162 J0
X35.496 Y53.659 Z-1.65 I-0.162 J0
X35.821 Y53.659 Z-1.711 I0.162 J0
X35.496 Y53.659 Z-1.772 I-0.162 J0
X35.821 Y53.659 Z-1.833 I0.162 J0
X35.496 Y53.659 Z-1.894 I-0.162 J0
X35.821 Y53.659 Z-1.956 I0.162 J0
X35.552 Y53.781 Z-2 I-0.162 J0
X35.765 Y53.536 I0.106 J-0.123
X35.552 Y53.781 I-0.106 J0.123
G1 X35.533 Y53.756 F1016
X35.524 Y53.726
X35.528 Y53.694
X35.544 Y53.667
X35.648 Y53.547
Z5 F1500
X35.581 Y-27.74
Z1.683
Z0 F1016
X35.74
X35.771 Y-27.734
X35.797 Y-27.716
X35.815 Y-27.69
X35.821 Y-27.659
G3 X35.496 Y-27.659 Z-0.061 I-0.162 J0 F1500
X35.821 Y-27.659 Z-0.122 I0.162 J0
X35.496 Y-27.659 Z-0.183 I-0.162 J0
X35.821 Y-27.659 Z-0.244 I0.162 J0
X35.496 Y-27.659 Z-0.306 I-0.162 J0
X35.821 Y-27.659 Z-0.367 I0.162 J0
X35.496 Y-27.659 Z-0.428 I-0.162 J0
X35.821 Y-27.659 Z-0.489 I0.162 J0
X35.496 Y-27.659 Z-0.55 I-0.162 J0
X35.821 Y-27.659 Z-0.611 I0.162 J0
X35.496 Y-27.659 Z-0.672 I-0.162 J0
X35.821 Y-27.659 Z-0.733 I0.162 J0
X35.496 Y-27.659 Z-0.794 I-0.162 J0
X35.821 Y-27.659 Z-0.856 I0.163 J0
X35.496 Y-27.659 Z-0.917 I-0.163 J0
X35.821 Y-27.659 Z-0.978 I0.163 J0
X35.496 Y-27.659 Z-1.039 I-0.163 J0
X35.821 Y-27.659 Z-1.1 I0.163 J0
X35.496 Y-27.659 Z-1.161 I-0.163 J0
X35.821 Y-27.659 Z-1.222 I0.163 J0
X35.496 Y-27.659 Z-1.283 I-0.163 J0
X35.821 Y-27.659 Z-1.344 I0.163 J0
X35.496 Y-27.659 Z-1.406 I-0.163 J0
X35.821 Y-27.659 Z-1.467 I0.163 J0
X35.496 Y-27.659 Z-1.528 I-0.163 J0
X35.821 Y-27.659 Z-1.589 I0.163 J0
X35.496 Y-27.659 Z-1.65 I-0.163 J0
X35.821 Y-27.659 Z-1.711 I0.163 J0
X35.496 Y-27.659 Z-1.772 I-0.163 J0
X35.821 Y-27.659 Z-1.833 I0.163 J0
X35.496 Y-27.659 Z-1.894 I-0.163 J0
X35.821 Y-27.659 Z-1.956 I0.163 J0
X35.552 Y-27.536 Z-2 I-0.163 J0
X35.765 Y-27.781 I0.106 J-0.123
X35.552 Y-27.536 I-0.106 J0.123
G1 X35.533 Y-27.561 F1016
X35.524 Y-27.591
X35.528 Y-27.623
X35.544 Y-27.65
X35.648 Y-27.77
Z5 F1500
X-45.736 Y-27.74
Z1.683
Z0 F1016
X-45.577
X-45.546 Y-27.734
X-45.52 Y-27.716
X-45.502 Y-27.69
X-45.496 Y-27.659
G3 X-45.821 Y-27.659 Z-0.061 I-0.163 J0 F1500
X-45.496 Y-27.659 Z-0.122 I0.163 J0
X-45.821 Y-27.659 Z-0.183 I-0.163 J0
X-45.496 Y-27.659 Z-0.244 I0.163 J0
X-45.821 Y-27.659 Z-0.306 I-0.163 J0
X-45.496 Y-27.659 Z-0.367 I0.163 J0
X-45.821 Y-27.659 Z-0.428 I-0.163 J0
X-45.496 Y-27.659 Z-0.489 I0.163 J0
X-45.821 Y-27.659 Z-0.55 I-0.163 J0
X-45.496 Y-27.659 Z-0.611 I0.163 J0
X-45.821 Y-27.659 Z-0.672 I-0.163 J0
X-45.496 Y-27.659 Z-0.733 I0.163 J0
X-45.821 Y-27.659 Z-0.794 I-0.163 J0
X-45.496 Y-27.659 Z-0.856 I0.163 J0
X-45.821 Y-27.659 Z-0.917 I-0.163 J0
X-45.496 Y-27.659 Z-0.978 I0.163 J0
X-45.821 Y-27.659 Z-1.039 I-0.163 J0
X-45.496 Y-27.659 Z-1.1 I0.163 J0
X-45.821 Y-27.659 Z-1.161 I-0.163 J0
X-45.496 Y-27.659 Z-1.222 I0.163 J0
X-45.821 Y-27.659 Z-1.283 I-0.163 J0
X-45.496 Y-27.659 Z-1.344 I0.163 J0
X-45.821 Y-27.659 Z-1.406 I-0.163 J0
X-45.496 Y-27.659 Z-1.467 I0.163 J0
X-45.821 Y-27.659 Z-1.528 I-0.163 J0
X-45.496 Y-27.659 Z-1.589 I0.163 J0
X-45.821 Y-27.659 Z-1.65 I-0.163 J0
X-45.496 Y-27.659 Z-1.711 I0.163 J0
X-45.821 Y-27.659 Z-1.772 I-0.163 J0
X-45.496 Y-27.659 Z-1.833 I0.163 J0
X-45.821 Y-27.659 Z-1.894 I-0.163 J0
X-45.496 Y-27.659 Z-1.956 I0.163 J0
X-45.765 Y-27.536 Z-2 I-0.163 J0
X-45.552 Y-27.781 I0.106 J-0.123
X-45.765 Y-27.536 I-0.106 J0.123
G1 X-45.784 Y-27.561 F1016
X-45.793 Y-27.591
X-45.789 Y-27.623
X-45.773 Y-27.65
X-45.669 Y-27.77
Z15 F1500
(When using Fusion for Personal Use, the feedrate of rapid)
(moves is reduced to match the feedrate of cutting moves,)
(which can increase machining time. Unrestricted rapid moves)
(are available with a Fusion Subscription.)

(Bohrfrsen6)
G0 X43.869 Y12.682
G1 Z15 F1500
Z2
Z0.317 F1016
G18 G2 X44.186 Z0 I0.317 K0
G1 X44.345
G17 G3 X44.662 Y13 I0 J0.318
X-54.662 Y13 Z-1.79 I-49.662 J0 F1500
X44.662 Y13 Z-3.579 I49.662 J0
X-54.662 Y13 Z-5.369 I-49.662 J0
X44.662 Y13 Z-7.159 I49.662 J0
X-54.662 Y13 Z-8.948 I-49.662 J0
X44.662 Y13 Z-10.738 I49.662 J0
X-54.662 Y13 Z-12.528 I-49.662 J0
X44.662 Y13 Z-14.318 I49.662 J0
X-54.662 Y13 Z-16.107 I-49.662 J0
X44.662 Y13 Z-17.897 I49.662 J0
X32.74 Y45.281 Z-18.3 I-49.662 J0
X-42.74 Y-19.281 I-37.74 J-32.281
X32.74 Y45.281 I37.74 J32.281
X32.292 Y45.316 I-0.241 J-0.206 F1016
G1 X32.171 Y45.213
X32.118 Y45.167 Z-18.292
X32.067 Y45.124 Z-18.269
X32.021 Y45.084 Z-18.231
X31.983 Y45.052 Z-18.18
X31.954 Y45.027 Z-18.12
X31.936 Y45.012 Z-18.053
X31.93 Y45.007 Z-17.983
Z15 F1500

M5
M30
