(Left_Speaker)
(Maschine)
(  Hersteller: ChinaCnc)
(  model: 3040T)
(  description: Generic 3-axis)
(T14 D=3.175 CR=0 - ZMIN=-18.3 - Schaftfrser)
G90 G94
G17
G21
(-Attention- Property Safe Retracts is set to Clearance Height.)
(Ensure the clearance height will clear the part and or fixtures.)
(Raise the Z-axis to a safe height before starting the program.)
(When using Fusion for Personal Use, the feedrate of rapid)
(moves is reduced to match the feedrate of cutting moves,)
(which can increase machining time. Unrestricted rapid moves)
(are available with a Fusion Subscription.)

(Bohrfrsen5)
M0
(MANUAL TOOL CHANGE TO T14)
S3000 M3
G17 G90 G94
G54
G0 X27.74 Y35.581
Z15
G1 Z1.683 F1500
Z0 F1016
Y35.74
X27.734 Y35.771
X27.716 Y35.797
X27.69 Y35.815
X27.659 Y35.821
G3 X27.659 Y35.496 Z-0.031 I0 J-0.162 F1500
X27.659 Y35.821 Z-0.061 I0 J0.162
X27.659 Y35.496 Z-0.092 I0 J-0.162
X27.659 Y35.821 Z-0.122 I0 J0.162
X27.659 Y35.496 Z-0.153 I0 J-0.162
X27.659 Y35.821 Z-0.183 I0 J0.162
X27.659 Y35.496 Z-0.214 I0 J-0.162
X27.659 Y35.821 Z-0.244 I0 J0.162
X27.659 Y35.496 Z-0.275 I0 J-0.162
X27.659 Y35.821 Z-0.305 I0 J0.162
X27.659 Y35.496 Z-0.336 I0 J-0.162
X27.659 Y35.821 Z-0.367 I0 J0.162
X27.659 Y35.496 Z-0.397 I0 J-0.162
X27.659 Y35.821 Z-0.428 I0 J0.162
X27.659 Y35.496 Z-0.458 I0 J-0.162
X27.659 Y35.821 Z-0.489 I0 J0.162
X27.659 Y35.496 Z-0.519 I0 J-0.162
X27.659 Y35.821 Z-0.55 I0 J0.162
X27.659 Y35.496 Z-0.58 I0 J-0.162
X27.659 Y35.821 Z-0.611 I0 J0.162
X27.659 Y35.496 Z-0.641 I0 J-0.162
X27.659 Y35.821 Z-0.672 I0 J0.162
X27.659 Y35.496 Z-0.703 I0 J-0.162
X27.659 Y35.821 Z-0.733 I0 J0.162
X27.659 Y35.496 Z-0.764 I0 J-0.162
X27.659 Y35.821 Z-0.794 I0 J0.162
X27.659 Y35.496 Z-0.825 I0 J-0.162
X27.659 Y35.821 Z-0.855 I0 J0.162
X27.659 Y35.496 Z-0.886 I0 J-0.162
X27.659 Y35.821 Z-0.916 I0 J0.162
X27.659 Y35.496 Z-0.947 I0 J-0.162
X27.659 Y35.821 Z-0.977 I0 J0.162
X27.659 Y35.496 Z-1.008 I0 J-0.162
X27.659 Y35.821 Z-1.039 I0 J0.162
X27.659 Y35.496 Z-1.069 I0 J-0.162
X27.659 Y35.821 Z-1.1 I0 J0.162
X27.659 Y35.496 Z-1.13 I0 J-0.162
X27.659 Y35.821 Z-1.161 I0 J0.162
X27.659 Y35.496 Z-1.191 I0 J-0.162
X27.659 Y35.821 Z-1.222 I0 J0.162
X27.659 Y35.496 Z-1.252 I0 J-0.162
X27.659 Y35.821 Z-1.283 I0 J0.162
X27.659 Y35.496 Z-1.313 I0 J-0.162
X27.659 Y35.821 Z-1.344 I0 J0.162
X27.659 Y35.496 Z-1.375 I0 J-0.162
X27.659 Y35.821 Z-1.405 I0 J0.162
X27.659 Y35.496 Z-1.436 I0 J-0.162
X27.659 Y35.821 Z-1.466 I0 J0.162
X27.659 Y35.496 Z-1.497 I0 J-0.162
X27.659 Y35.821 Z-1.527 I0 J0.162
X27.659 Y35.496 Z-1.558 I0 J-0.162
X27.659 Y35.821 Z-1.588 I0 J0.162
X27.659 Y35.496 Z-1.619 I0 J-0.162
X27.659 Y35.821 Z-1.65 I0 J0.162
X27.659 Y35.496 Z-1.68 I0 J-0.162
X27.659 Y35.821 Z-1.711 I0 J0.162
X27.659 Y35.496 Z-1.741 I0 J-0.162
X27.659 Y35.821 Z-1.772 I0 J0.162
X27.659 Y35.496 Z-1.802 I0 J-0.162
X27.659 Y35.821 Z-1.833 I0 J0.163
X27.659 Y35.496 Z-1.863 I0 J-0.163
X27.659 Y35.821 Z-1.894 I0 J0.163
X27.659 Y35.496 Z-1.924 I0 J-0.163
X27.659 Y35.821 Z-1.955 I0 J0.163
X27.659 Y35.496 Z-1.986 I0 J-0.163
X27.821 Y35.646 Z-2 I0 J0.163
X27.497 Y35.672 I-0.162 J0.013
X27.821 Y35.646 I0.162 J-0.013
G1 X27.817 Y35.677 F1016
X27.802 Y35.705
X27.777 Y35.724
X27.746 Y35.733
X27.588 Y35.746
Z5 F1500
X-53.577 Y35.581
Z1.683
Z0 F1016
Y35.74
X-53.584 Y35.771
X-53.601 Y35.797
X-53.628 Y35.815
X-53.659 Y35.821
G3 X-53.659 Y35.496 Z-0.031 I0 J-0.162 F1500
X-53.659 Y35.821 Z-0.061 I0 J0.162
X-53.659 Y35.496 Z-0.092 I0 J-0.162
X-53.659 Y35.821 Z-0.122 I0 J0.162
X-53.659 Y35.496 Z-0.153 I0 J-0.162
X-53.659 Y35.821 Z-0.183 I0 J0.162
X-53.659 Y35.496 Z-0.214 I0 J-0.162
X-53.659 Y35.821 Z-0.244 I0 J0.162
X-53.659 Y35.496 Z-0.275 I0 J-0.162
X-53.659 Y35.821 Z-0.305 I0 J0.162
X-53.659 Y35.496 Z-0.336 I0 J-0.162
X-53.659 Y35.821 Z-0.367 I0 J0.162
X-53.659 Y35.496 Z-0.397 I0 J-0.162
X-53.659 Y35.821 Z-0.428 I0 J0.162
X-53.659 Y35.496 Z-0.458 I0 J-0.162
X-53.659 Y35.821 Z-0.489 I0 J0.162
X-53.659 Y35.496 Z-0.519 I0 J-0.162
X-53.659 Y35.821 Z-0.55 I0 J0.162
X-53.659 Y35.496 Z-0.58 I0 J-0.162
X-53.659 Y35.821 Z-0.611 I0 J0.162
X-53.659 Y35.496 Z-0.641 I0 J-0.162
X-53.659 Y35.821 Z-0.672 I0 J0.162
X-53.659 Y35.496 Z-0.703 I0 J-0.162
X-53.659 Y35.821 Z-0.733 I0 J0.162
X-53.659 Y35.496 Z-0.764 I0 J-0.162
X-53.659 Y35.821 Z-0.794 I0 J0.162
X-53.659 Y35.496 Z-0.825 I0 J-0.162
X-53.659 Y35.821 Z-0.855 I0 J0.162
X-53.659 Y35.496 Z-0.886 I0 J-0.162
X-53.659 Y35.821 Z-0.916 I0 J0.162
X-53.659 Y35.496 Z-0.947 I0 J-0.162
X-53.659 Y35.821 Z-0.977 I0 J0.162
X-53.659 Y35.496 Z-1.008 I0 J-0.162
X-53.659 Y35.821 Z-1.039 I0 J0.162
X-53.659 Y35.496 Z-1.069 I0 J-0.162
X-53.659 Y35.821 Z-1.1 I0 J0.162
X-53.659 Y35.496 Z-1.13 I0 J-0.162
X-53.659 Y35.821 Z-1.161 I0 J0.162
X-53.659 Y35.496 Z-1.191 I0 J-0.162
X-53.659 Y35.821 Z-1.222 I0 J0.162
X-53.659 Y35.496 Z-1.252 I0 J-0.162
X-53.659 Y35.821 Z-1.283 I0 J0.162
X-53.659 Y35.496 Z-1.313 I0 J-0.162
X-53.659 Y35.821 Z-1.344 I0 J0.162
X-53.659 Y35.496 Z-1.375 I0 J-0.162
X-53.659 Y35.821 Z-1.405 I0 J0.162
X-53.659 Y35.496 Z-1.436 I0 J-0.162
X-53.659 Y35.821 Z-1.466 I0 J0.162
X-53.659 Y35.496 Z-1.497 I0 J-0.162
X-53.659 Y35.821 Z-1.527 I0 J0.162
X-53.659 Y35.496 Z-1.558 I0 J-0.162
X-53.659 Y35.821 Z-1.588 I0 J0.162
X-53.659 Y35.496 Z-1.619 I0 J-0.162
X-53.659 Y35.821 Z-1.65 I0 J0.162
X-53.659 Y35.496 Z-1.68 I0 J-0.162
X-53.659 Y35.821 Z-1.711 I0 J0.162
X-53.659 Y35.496 Z-1.741 I0 J-0.162
X-53.659 Y35.821 Z-1.772 I0 J0.162
X-53.659 Y35.496 Z-1.802 I0 J-0.162
X-53.659 Y35.821 Z-1.833 I0 J0.163
X-53.659 Y35.496 Z-1.863 I0 J-0.163
X-53.659 Y35.821 Z-1.894 I0 J0.163
X-53.659 Y35.496 Z-1.924 I0 J-0.163
X-53.659 Y35.821 Z-1.955 I0 J0.163
X-53.659 Y35.496 Z-1.986 I0 J-0.163
X-53.497 Y35.646 Z-2 I0 J0.163
X-53.821 Y35.672 I-0.162 J0.013
X-53.497 Y35.646 I0.162 J-0.013
G1 X-53.5 Y35.677 F1016
X-53.516 Y35.705
X-53.541 Y35.724
X-53.571 Y35.733
X-53.729 Y35.746
Z5 F1500
X-53.577 Y-45.736
Z1.683
Z0 F1016
Y-45.577
X-53.584 Y-45.546
X-53.601 Y-45.52
X-53.628 Y-45.502
X-53.659 Y-45.496
G3 X-53.659 Y-45.821 Z-0.031 I0 J-0.163 F1500
X-53.659 Y-45.496 Z-0.061 I0 J0.163
X-53.659 Y-45.821 Z-0.092 I0 J-0.163
X-53.659 Y-45.496 Z-0.122 I0 J0.163
X-53.659 Y-45.821 Z-0.153 I0 J-0.163
X-53.659 Y-45.496 Z-0.183 I0 J0.163
X-53.659 Y-45.821 Z-0.214 I0 J-0.163
X-53.659 Y-45.496 Z-0.244 I0 J0.163
X-53.659 Y-45.821 Z-0.275 I0 J-0.163
X-53.659 Y-45.496 Z-0.305 I0 J0.163
X-53.659 Y-45.821 Z-0.336 I0 J-0.163
X-53.659 Y-45.496 Z-0.367 I0 J0.163
X-53.659 Y-45.821 Z-0.397 I0 J-0.163
X-53.659 Y-45.496 Z-0.428 I0 J0.163
X-53.659 Y-45.821 Z-0.458 I0 J-0.163
X-53.659 Y-45.496 Z-0.489 I0 J0.163
X-53.659 Y-45.821 Z-0.519 I0 J-0.163
X-53.659 Y-45.496 Z-0.55 I0 J0.163
X-53.659 Y-45.821 Z-0.58 I0 J-0.163
X-53.659 Y-45.496 Z-0.611 I0 J0.163
X-53.659 Y-45.821 Z-0.641 I0 J-0.163
X-53.659 Y-45.496 Z-0.672 I0 J0.163
X-53.659 Y-45.821 Z-0.703 I0 J-0.163
X-53.659 Y-45.496 Z-0.733 I0 J0.163
X-53.659 Y-45.821 Z-0.764 I0 J-0.163
X-53.659 Y-45.496 Z-0.794 I0 J0.163
X-53.659 Y-45.821 Z-0.825 I0 J-0.163
X-53.659 Y-45.496 Z-0.855 I0 J0.163
X-53.659 Y-45.821 Z-0.886 I0 J-0.163
X-53.659 Y-45.496 Z-0.916 I0 J0.163
X-53.659 Y-45.821 Z-0.947 I0 J-0.163
X-53.659 Y-45.496 Z-0.977 I0 J0.163
X-53.659 Y-45.821 Z-1.008 I0 J-0.163
X-53.659 Y-45.496 Z-1.039 I0 J0.163
X-53.659 Y-45.821 Z-1.069 I0 J-0.163
X-53.659 Y-45.496 Z-1.1 I0 J0.163
X-53.659 Y-45.821 Z-1.13 I0 J-0.163
X-53.659 Y-45.496 Z-1.161 I0 J0.163
X-53.659 Y-45.821 Z-1.191 I0 J-0.163
X-53.659 Y-45.496 Z-1.222 I0 J0.163
X-53.659 Y-45.821 Z-1.252 I0 J-0.163
X-53.659 Y-45.496 Z-1.283 I0 J0.163
X-53.659 Y-45.821 Z-1.313 I0 J-0.163
X-53.659 Y-45.496 Z-1.344 I0 J0.163
X-53.659 Y-45.821 Z-1.375 I0 J-0.163
X-53.659 Y-45.496 Z-1.405 I0 J0.163
X-53.659 Y-45.821 Z-1.436 I0 J-0.163
X-53.659 Y-45.496 Z-1.466 I0 J0.163
X-53.659 Y-45.821 Z-1.497 I0 J-0.163
X-53.659 Y-45.496 Z-1.527 I0 J0.163
X-53.659 Y-45.821 Z-1.558 I0 J-0.163
X-53.659 Y-45.496 Z-1.588 I0 J0.163
X-53.659 Y-45.821 Z-1.619 I0 J-0.163
X-53.659 Y-45.496 Z-1.65 I0 J0.163
X-53.659 Y-45.821 Z-1.68 I0 J-0.163
X-53.659 Y-45.496 Z-1.711 I0 J0.163
X-53.659 Y-45.821 Z-1.741 I0 J-0.163
X-53.659 Y-45.496 Z-1.772 I0 J0.163
X-53.659 Y-45.821 Z-1.802 I0 J-0.163
X-53.659 Y-45.496 Z-1.833 I0 J0.163
X-53.659 Y-45.821 Z-1.863 I0 J-0.163
X-53.659 Y-45.496 Z-1.894 I0 J0.163
X-53.659 Y-45.821 Z-1.924 I0 J-0.163
X-53.659 Y-45.496 Z-1.955 I0 J0.162
X-53.659 Y-45.821 Z-1.986 I0 J-0.162
X-53.497 Y-45.672 Z-2 I0 J0.162
X-53.821 Y-45.646 I-0.162 J0.013
X-53.497 Y-45.672 I0.162 J-0.013
G1 X-53.5 Y-45.64 F1016
X-53.516 Y-45.613
X-53.541 Y-45.593
X-53.571 Y-45.584
X-53.729 Y-45.571
Z5 F1500
X27.74 Y-45.736
Z1.683
Z0 F1016
Y-45.577
X27.734 Y-45.546
X27.716 Y-45.52
X27.69 Y-45.502
X27.659 Y-45.496
G3 X27.659 Y-45.821 Z-0.031 I0 J-0.163 F1500
X27.659 Y-45.496 Z-0.061 I0 J0.163
X27.659 Y-45.821 Z-0.092 I0 J-0.163
X27.659 Y-45.496 Z-0.122 I0 J0.163
X27.659 Y-45.821 Z-0.153 I0 J-0.163
X27.659 Y-45.496 Z-0.183 I0 J0.163
X27.659 Y-45.821 Z-0.214 I0 J-0.163
X27.659 Y-45.496 Z-0.244 I0 J0.163
X27.659 Y-45.821 Z-0.275 I0 J-0.163
X27.659 Y-45.496 Z-0.305 I0 J0.163
X27.659 Y-45.821 Z-0.336 I0 J-0.163
X27.659 Y-45.496 Z-0.367 I0 J0.163
X27.659 Y-45.821 Z-0.397 I0 J-0.163
X27.659 Y-45.496 Z-0.428 I0 J0.163
X27.659 Y-45.821 Z-0.458 I0 J-0.163
X27.659 Y-45.496 Z-0.489 I0 J0.163
X27.659 Y-45.821 Z-0.519 I0 J-0.163
X27.659 Y-45.496 Z-0.55 I0 J0.163
X27.659 Y-45.821 Z-0.58 I0 J-0.163
X27.659 Y-45.496 Z-0.611 I0 J0.163
X27.659 Y-45.821 Z-0.641 I0 J-0.163
X27.659 Y-45.496 Z-0.672 I0 J0.163
X27.659 Y-45.821 Z-0.703 I0 J-0.163
X27.659 Y-45.496 Z-0.733 I0 J0.163
X27.659 Y-45.821 Z-0.764 I0 J-0.163
X27.659 Y-45.496 Z-0.794 I0 J0.163
X27.659 Y-45.821 Z-0.825 I0 J-0.163
X27.659 Y-45.496 Z-0.855 I0 J0.163
X27.659 Y-45.821 Z-0.886 I0 J-0.163
X27.659 Y-45.496 Z-0.916 I0 J0.163
X27.659 Y-45.821 Z-0.947 I0 J-0.163
X27.659 Y-45.496 Z-0.977 I0 J0.163
X27.659 Y-45.821 Z-1.008 I0 J-0.163
X27.659 Y-45.496 Z-1.039 I0 J0.163
X27.659 Y-45.821 Z-1.069 I0 J-0.163
X27.659 Y-45.496 Z-1.1 I0 J0.163
X27.659 Y-45.821 Z-1.13 I0 J-0.163
X27.659 Y-45.496 Z-1.161 I0 J0.163
X27.659 Y-45.821 Z-1.191 I0 J-0.163
X27.659 Y-45.496 Z-1.222 I0 J0.163
X27.659 Y-45.821 Z-1.252 I0 J-0.163
X27.659 Y-45.496 Z-1.283 I0 J0.163
X27.659 Y-45.821 Z-1.313 I0 J-0.163
X27.659 Y-45.496 Z-1.344 I0 J0.163
X27.659 Y-45.821 Z-1.375 I0 J-0.163
X27.659 Y-45.496 Z-1.405 I0 J0.163
X27.659 Y-45.821 Z-1.436 I0 J-0.163
X27.659 Y-45.496 Z-1.466 I0 J0.163
X27.659 Y-45.821 Z-1.497 I0 J-0.163
X27.659 Y-45.496 Z-1.527 I0 J0.163
X27.659 Y-45.821 Z-1.558 I0 J-0.163
X27.659 Y-45.496 Z-1.588 I0 J0.163
X27.659 Y-45.821 Z-1.619 I0 J-0.163
X27.659 Y-45.496 Z-1.65 I0 J0.163
X27.659 Y-45.821 Z-1.68 I0 J-0.163
X27.659 Y-45.496 Z-1.711 I0 J0.163
X27.659 Y-45.821 Z-1.741 I0 J-0.163
X27.659 Y-45.496 Z-1.772 I0 J0.163
X27.659 Y-45.821 Z-1.802 I0 J-0.163
X27.659 Y-45.496 Z-1.833 I0 J0.163
X27.659 Y-45.821 Z-1.863 I0 J-0.163
X27.659 Y-45.496 Z-1.894 I0 J0.163
X27.659 Y-45.821 Z-1.924 I0 J-0.163
X27.659 Y-45.496 Z-1.955 I0 J0.162
X27.659 Y-45.821 Z-1.986 I0 J-0.162
X27.821 Y-45.672 Z-2 I0 J0.162
X27.497 Y-45.646 I-0.162 J0.013
X27.821 Y-45.672 I0.162 J-0.013
G1 X27.817 Y-45.64 F1016
X27.802 Y-45.613
X27.777 Y-45.593
X27.746 Y-45.584
X27.588 Y-45.571
Z15 F1500
(When using Fusion for Personal Use, the feedrate of rapid)
(moves is reduced to match the feedrate of cutting moves,)
(which can increase machining time. Unrestricted rapid moves)
(are available with a Fusion Subscription.)

(Bohrfrsen6)
G0 X-12.682 Y43.869
G1 Z15 F1500
Z2
Z0.317 F1016
G19 G3 Y44.186 Z0 J0.317 K0
G1 Y44.345
G17 G3 X-13 Y44.662 I-0.318 J0
X-13 Y-54.662 Z-0.895 I0 J-49.662 F1500
X-13 Y44.662 Z-1.789 I0 J49.662
X-13 Y-54.662 Z-2.684 I0 J-49.662
X-13 Y44.662 Z-3.578 I0 J49.662
X-13 Y-54.662 Z-4.473 I0 J-49.662
X-13 Y44.662 Z-5.367 I0 J49.662
X-13 Y-54.662 Z-6.262 I0 J-49.662
X-13 Y44.662 Z-7.157 I0 J49.662
X-13 Y-54.662 Z-8.051 I0 J-49.662
X-13 Y44.662 Z-8.946 I0 J49.662
X-13 Y-54.662 Z-9.84 I0 J-49.662
X-13 Y44.662 Z-10.735 I0 J49.662
X-13 Y-54.662 Z-11.629 I0 J-49.662
X-13 Y44.663 Z-12.524 I0 J49.662
X-13 Y-54.663 Z-13.419 I0 J-49.663
X-13 Y44.663 Z-14.313 I0 J49.663
X-13 Y-54.663 Z-15.208 I0 J-49.663
X-13 Y44.663 Z-16.102 I0 J49.663
X-13 Y-54.663 Z-16.997 I0 J-49.663
X-13 Y44.663 Z-17.891 I0 J49.663
X-62.204 Y1.734 Z-18.3 I0 J-49.663
X36.204 Y-11.734 I49.204 J-6.734
X-62.204 Y1.734 I-49.204 J6.734
X-61.932 Y1.376 I0.315 J-0.043 F1016
G1 X-61.775 Y1.354
X-61.705 Y1.345 Z-18.292
X-61.639 Y1.336 Z-18.269
X-61.579 Y1.328 Z-18.231
X-61.529 Y1.321 Z-18.18
X-61.492 Y1.316 Z-18.12
X-61.468 Y1.312 Z-18.053
X-61.461 Y1.311 Z-17.983
Z15 F1500

M5
M30
