(Licht_plexi)
(T5 D=3.175 CR=0 - ZMIN=-5.3 - Schaftfrser)
G90 G94
G17
G21
(-Attention- Property Safe Retracts is set to Clearance Height.)
(Ensure the clearance height will clear the part and or fixtures.)
(Raise the Z-axis to a safe height before starting the program.)
(When using Fusion for Personal Use, the feedrate of rapid)
(moves is reduced to match the feedrate of cutting moves,)
(which can increase machining time. Unrestricted rapid moves)
(are available with a Fusion Subscription.)

(Planen1)
M0
(MANUAL TOOL CHANGE TO T5)
S6000 M3
G17 G90 G94
G54
G0 X1.064 Y-20.548
Z15
G1 Z5 F1000
Z-0.683 F333.3
G18 G3 X0.746 Z-1 I-0.317 K0 F1000
G1 X0.598
X-62.597
G17 G2 X-62.597 Y-18.53 I0 J1.009
G1 X0.597
G18 G2 X0.915 Z-0.683 I0 K0.317
G1 Z5
X1.064 Y-4.548
Z-0.683 F333.3
G3 X0.746 Z-1 I-0.317 K0 F1000
G1 X0.597
X-62.597
G17 G2 X-62.597 Y-2.53 I0 J1.009
G1 X0.598
G18 G2 X0.915 Z-0.683 I0 K0.317
G1 Z15
G17
(When using Fusion for Personal Use, the feedrate of rapid)
(moves is reduced to match the feedrate of cutting moves,)
(which can increase machining time. Unrestricted rapid moves)
(are available with a Fusion Subscription.)

(2D Adaptive1)
G0 X2.441 Y-11.249
G1 Z15 F1000
Z5
Z0.5
Z-0.5
Z-2.5
G3 X0.712 Y-11 I-2.011 J-7.852
G1 X0.562
X0.423 Y-11.056
X0.304 Y-11.148
X0.201 Y-11.256
X0.109 Y-11.375
X0.014 Y-11.522
X-0.087 Y-11.711
X-0.194 Y-11.957
X-0.306 Y-12.283
X-0.423 Y-12.739
X-0.532 Y-13.372
X-0.595 Y-14.011
X-0.63 Y-14.63
X-0.614 Y-14.829
X-0.545 Y-15.018
X-0.429 Y-15.18
X-0.273 Y-15.306
X-0.089 Y-15.385
X0.11 Y-15.413
G3 X0.806 Y-15.095 I-0.035 J0.999
G1 X0.888 Y-15.007 Z-2.493
X0.969 Y-14.92 Z-2.471
X1.048 Y-14.836 Z-2.435
X1.123 Y-14.755 Z-2.385
X1.194 Y-14.68 Z-2.323
X1.258 Y-14.61 Z-2.249
X1.317 Y-14.548 Z-2.163
X1.367 Y-14.493 Z-2.068
X1.41 Y-14.448 Z-1.965
X1.444 Y-14.411 Z-1.855
X1.468 Y-14.385 Z-1.739
X1.483 Y-14.369 Z-1.621
X1.488 Y-14.364 Z-1.5
Z5
X3.128 Y-7.591
Z-0.5
Z-1.5
X3.122 Y-7.587 Z-1.621
X3.103 Y-7.576 Z-1.739
X3.072 Y-7.557 Z-1.855
X3.029 Y-7.532 Z-1.965
X2.976 Y-7.5 Z-2.068
X2.912 Y-7.462 Z-2.163
X2.838 Y-7.418 Z-2.249
X2.757 Y-7.37 Z-2.323
X2.668 Y-7.317 Z-2.385
X2.573 Y-7.261 Z-2.435
X2.474 Y-7.202 Z-2.471
X2.372 Y-7.141 Z-2.493
X2.268 Y-7.08 Z-2.5
G3 X0.593 Y-6.588 I-1.798 J-3.024
G1 X0.447
X0.409 Y-6.589
X0.293 Y-6.684
X0.191 Y-6.793
X0.1 Y-6.913
X0.005 Y-7.064
X-0.097 Y-7.258
X-0.205 Y-7.51
X-0.318 Y-7.847
X-0.435 Y-8.32
X-0.539 Y-8.953
X-0.665 Y-9.583
X-0.877 Y-10.189
X-1.105 Y-10.79
X-1.315 Y-11.397
X-1.49 Y-12.014
X-1.629 Y-12.641
X-1.732 Y-13.275
X-1.78 Y-13.737
X-1.788 Y-14.042
X-1.773 Y-14.299
X-1.743 Y-14.519
X-1.697 Y-14.729
X-1.644 Y-14.901
X-1.627 Y-14.945
X-1.516 Y-15.135
X-1.354 Y-15.285
X-1.156 Y-15.38
X-0.938 Y-15.413
G3 X-0.242 Y-15.095 I-0.035 J0.999
G1 X-0.159 Y-15.007 Z-2.493
X-0.078 Y-14.92 Z-2.471
X0 Y-14.836 Z-2.435
X0.075 Y-14.755 Z-2.385
X0.146 Y-14.68 Z-2.323
X0.211 Y-14.61 Z-2.249
X0.269 Y-14.548 Z-2.163
X0.32 Y-14.493 Z-2.068
X0.362 Y-14.448 Z-1.965
X0.396 Y-14.411 Z-1.855
X0.421 Y-14.385 Z-1.739
X0.435 Y-14.369 Z-1.621
X0.44 Y-14.364 Z-1.5
Z5
X2.06 Y-7.32
Z-0.5
Z-1.5
X2.054 Y-7.316 Z-1.621
X2.035 Y-7.305 Z-1.739
X2.004 Y-7.287 Z-1.855
X1.962 Y-7.261 Z-1.965
X1.908 Y-7.229 Z-2.068
X1.844 Y-7.191 Z-2.163
X1.77 Y-7.148 Z-2.249
X1.689 Y-7.099 Z-2.323
X1.6 Y-7.046 Z-2.385
X1.505 Y-6.99 Z-2.435
X1.406 Y-6.931 Z-2.471
X1.304 Y-6.87 Z-2.493
X1.201 Y-6.809 Z-2.5
G3 X0.447 Y-6.588 I-0.809 J-1.36
G1 X0.009
X-0.141 Y-6.595
X-0.277 Y-6.657
X-0.406 Y-6.734
X-0.526 Y-6.824
X-0.648 Y-6.933
X-0.778 Y-7.069
X-0.904 Y-7.224
X-1.044 Y-7.429
X-1.218 Y-7.732
X-1.492 Y-8.313
X-1.731 Y-8.909
X-1.966 Y-9.507
X-2.19 Y-10.109
X-2.396 Y-10.717
X-2.577 Y-11.333
X-2.731 Y-11.957
X-2.855 Y-12.587
X-2.927 Y-13.132
X-2.951 Y-13.598
X-2.94 Y-13.988
X-2.908 Y-14.279
X-2.856 Y-14.554
X-2.799 Y-14.758
X-2.724 Y-14.964
X-2.716 Y-14.981
X-2.602 Y-15.158
X-2.443 Y-15.295
X-2.251 Y-15.383
X-2.043 Y-15.413
X-0.938
G3 X0.018 Y-14.551 Z-2.322 I-0.035 J0.999
G1 X0.041 Y-14.38 Z-2.3
X0.965 Y-7.724
X0.974 Y-7.621
G3 X0.009 Y-6.588 Z-2.5 I-0.999 J0.034
G1 X-0.655
X-0.805 Y-6.595
X-0.952 Y-6.625
X-1.094 Y-6.673
X-1.23 Y-6.735
X-1.369 Y-6.814
X-1.529 Y-6.924
X-1.691 Y-7.056
X-1.877 Y-7.232
X-2.091 Y-7.473
X-2.348 Y-7.812
X-2.653 Y-8.289
X-2.954 Y-8.856
X-3.216 Y-9.443
X-3.446 Y-10.042
X-3.647 Y-10.652
X-3.819 Y-11.271
X-3.962 Y-11.897
X-4.067 Y-12.531
X-4.119 Y-13.091
X-4.125 Y-13.585
X-4.095 Y-14.013
X-4.049 Y-14.325
X-3.983 Y-14.607
X-3.916 Y-14.818
X-3.86 Y-14.953
X-3.749 Y-15.14
X-3.587 Y-15.287
X-3.39 Y-15.38
X-3.175 Y-15.413
X-2.043
G3 X-1.098 Y-14.612 Z-2.33 I-0.035 J0.999
G1 X-1.051 Y-14.382 Z-2.3
X0.29 Y-7.786
X0.303 Y-7.704
X0.31 Y-7.621
G3 X-0.655 Y-6.588 Z-2.5 I-0.999 J0.034
G1 X-1.596
X-1.749 Y-6.595
X-1.897 Y-6.615
X-2.043 Y-6.651
X-2.185 Y-6.7
X-2.339 Y-6.767
X-2.52 Y-6.865
X-2.7 Y-6.982
X-2.903 Y-7.138
X-3.129 Y-7.343
X-3.364 Y-7.593
X-3.625 Y-7.92
X-3.913 Y-8.347
X-4.215 Y-8.882
X-4.485 Y-9.465
X-4.714 Y-10.065
X-4.909 Y-10.677
X-5.069 Y-11.298
X-5.194 Y-11.928
X-5.277 Y-12.565
X-5.31 Y-13.149
X-5.297 Y-13.652
X-5.252 Y-14.081
X-5.191 Y-14.407
X-5.118 Y-14.673
X-5.042 Y-14.884
X-5 Y-14.978
X-4.886 Y-15.156
X-4.726 Y-15.295
X-4.534 Y-15.382
X-4.325 Y-15.413
X-3.175
G3 X-2.236 Y-14.638 Z-2.333 I-0.035 J0.999
G1 X-2.177 Y-14.384 Z-2.3
X-0.657 Y-7.812
X-0.639 Y-7.717
X-0.631 Y-7.621
G3 X-1.596 Y-6.588 Z-2.5 I-0.999 J0.034
G1 X-2.763
X-2.915 Y-6.595
X-3.064 Y-6.615
X-3.21 Y-6.649
X-3.368 Y-6.7
X-3.526 Y-6.767
X-3.713 Y-6.863
X-3.907 Y-6.984
X-4.118 Y-7.14
X-4.354 Y-7.347
X-4.589 Y-7.588
X-4.852 Y-7.906
X-5.128 Y-8.299
X-5.407 Y-8.773
X-5.687 Y-9.351
X-5.921 Y-9.949
X-6.116 Y-10.561
X-6.273 Y-11.184
X-6.391 Y-11.815
X-6.468 Y-12.453
X-6.497 Y-13.077
X-6.479 Y-13.615
X-6.428 Y-14.061
X-6.363 Y-14.393
X-6.282 Y-14.679
X-6.203 Y-14.89
X-6.16 Y-14.984
X-6.045 Y-15.16
X-5.886 Y-15.296
X-5.695 Y-15.383
X-5.488 Y-15.413
X-4.325
G3 X-3.385 Y-14.636 Z-2.333 I-0.035 J0.999
G1 X-3.328 Y-14.384 Z-2.3
X-1.824 Y-7.81
X-1.807 Y-7.716
X-1.799 Y-7.621
G3 X-2.763 Y-6.588 Z-2.5 I-0.999 J0.034
G1 X-4.011
X-4.161 Y-6.595
X-4.309 Y-6.616
X-4.455 Y-6.652
X-4.613 Y-6.704
X-4.78 Y-6.775
X-4.975 Y-6.877
X-5.166 Y-6.997
X-5.39 Y-7.164
X-5.612 Y-7.36
X-5.864 Y-7.621
X-6.114 Y-7.925
X-6.389 Y-8.321
X-6.663 Y-8.791
X-6.932 Y-9.352
X-7.162 Y-9.952
X-7.349 Y-10.566
X-7.496 Y-11.191
X-7.603 Y-11.824
X-7.668 Y-12.463
X-7.687 Y-13.101
X-7.66 Y-13.643
X-7.6 Y-14.096
X-7.529 Y-14.429
X-7.445 Y-14.71
X-7.362 Y-14.922
X-7.326 Y-14.995
X-7.211 Y-15.167
X-7.053 Y-15.3
X-6.865 Y-15.384
X-6.66 Y-15.413
X-5.488
G3 X-4.546 Y-14.625 Z-2.331 I-0.035 J0.999
G1 X-4.493 Y-14.383 Z-2.3
X-3.069 Y-7.798
X-3.054 Y-7.71
X-3.047 Y-7.621
G3 X-4.011 Y-6.588 Z-2.5 I-0.999 J0.034
G1 X-5.244
X-5.394 Y-6.595
X-5.543 Y-6.615
X-5.689 Y-6.649
X-5.849 Y-6.701
X-6.012 Y-6.769
X-6.204 Y-6.868
X-6.397 Y-6.987
X-6.614 Y-7.147
X-6.839 Y-7.342
X-7.083 Y-7.591
X-7.331 Y-7.889
X-7.602 Y-8.273
X-7.856 Y-8.702
X-8.116 Y-9.235
X-8.351 Y-9.833
X-8.54 Y-10.447
X-8.687 Y-11.072
X-8.794 Y-11.705
X-8.86 Y-12.344
X-8.881 Y-12.985
X-8.854 Y-13.56
X-8.793 Y-14.043
X-8.719 Y-14.391
X-8.631 Y-14.689
X-8.548 Y-14.904
X-8.505 Y-14.993
X-8.39 Y-15.165
X-8.232 Y-15.299
X-8.043 Y-15.384
X-7.838 Y-15.413
X-6.66
G3 X-5.716 Y-14.616 Z-2.33 I-0.035 J0.999
G1 X-5.667 Y-14.383 Z-2.3
X-4.3 Y-7.79
X-4.286 Y-7.706
X-4.28 Y-7.621
G3 X-5.244 Y-6.588 Z-2.5 I-0.999 J0.034
G1 X-6.557
X-6.707 Y-6.595
X-6.855 Y-6.622
X-7.01 Y-6.666
X-7.167 Y-6.724
X-7.347 Y-6.807
X-7.539 Y-6.916
X-7.743 Y-7.054
X-7.963 Y-7.231
X-8.191 Y-7.446
X-8.436 Y-7.717
X-8.69 Y-8.048
X-8.941 Y-8.436
X-9.201 Y-8.921
X-9.453 Y-9.495
X-9.663 Y-10.102
X-9.828 Y-10.722
X-9.952 Y-11.352
X-10.034 Y-11.989
X-10.073 Y-12.63
X-10.067 Y-13.263
X-10.018 Y-13.792
X-9.943 Y-14.229
X-9.86 Y-14.553
X-9.774 Y-14.802
X-9.677 Y-15.022
X-9.561 Y-15.183
X-9.405 Y-15.307
X-9.222 Y-15.386
X-9.025 Y-15.413
X-7.838
G3 X-6.89 Y-14.597 Z-2.328 I-0.035 J0.999
G1 X-6.849 Y-14.382 Z-2.3
X-5.61 Y-7.771
X-5.598 Y-7.696
X-5.593 Y-7.621
G3 X-6.557 Y-6.588 Z-2.5 I-0.999 J0.034
G1 X-7.725
X-7.877 Y-6.595
X-8.025 Y-6.615
X-8.172 Y-6.648
X-8.325 Y-6.697
X-8.497 Y-6.768
X-8.672 Y-6.857
X-8.875 Y-6.982
X-9.072 Y-7.127
X-9.304 Y-7.327
X-9.525 Y-7.551
X-9.782 Y-7.858
X-10.02 Y-8.193
X-10.275 Y-8.622
X-10.53 Y-9.14
X-10.766 Y-9.737
X-10.954 Y-10.351
X-11.097 Y-10.977
X-11.197 Y-11.612
X-11.256 Y-12.251
X-11.272 Y-12.893
X-11.243 Y-13.495
X-11.178 Y-13.994
X-11.096 Y-14.381
X-11.007 Y-14.68
X-10.921 Y-14.902
X-10.876 Y-14.994
X-10.761 Y-15.166
X-10.603 Y-15.299
X-10.414 Y-15.384
X-10.209 Y-15.413
X-9.025
G3 X-8.077 Y-14.6 Z-2.328 I-0.035 J0.999
G1 X-8.036 Y-14.382 Z-2.3
X-6.777 Y-7.774
X-6.766 Y-7.698
X-6.76 Y-7.621
G3 X-7.725 Y-6.588 Z-2.5 I-0.999 J0.034
G1 X-9.038
X-9.188 Y-6.595
X-9.335 Y-6.623
X-9.489 Y-6.667
X-9.644 Y-6.724
X-9.826 Y-6.809
X-10.006 Y-6.912
X-10.212 Y-7.052
X-10.421 Y-7.221
X-10.652 Y-7.44
X-10.885 Y-7.699
X-11.142 Y-8.037
X-11.38 Y-8.407
X-11.63 Y-8.875
X-11.872 Y-9.43
X-12.08 Y-10.038
X-12.241 Y-10.659
X-12.359 Y-11.29
X-12.435 Y-11.928
X-12.468 Y-12.569
X-12.458 Y-13.212
X-12.407 Y-13.758
X-12.327 Y-14.214
X-12.242 Y-14.544
X-12.153 Y-14.799
X-12.058 Y-15.016
X-12.054 Y-15.023
X-11.937 Y-15.184
X-11.782 Y-15.308
X-11.599 Y-15.386
X-11.402 Y-15.413
X-10.209
G3 X-9.259 Y-14.582 Z-2.326 I-0.035 J0.999
G1 X-9.224 Y-14.381 Z-2.3
X-8.088 Y-7.756
X-8.078 Y-7.689
X-8.074 Y-7.621
G3 X-9.038 Y-6.588 Z-2.5 I-0.999 J0.034
G1 X-10.206
X-10.355 Y-6.595
X-10.504 Y-6.616
X-10.65 Y-6.651
X-10.806 Y-6.702
X-10.974 Y-6.774
X-11.152 Y-6.867
X-11.35 Y-6.991
X-11.549 Y-7.14
X-11.776 Y-7.34
X-11.995 Y-7.568
X-12.242 Y-7.868
X-12.482 Y-8.214
X-12.725 Y-8.632
X-12.969 Y-9.141
X-13.196 Y-9.733
X-13.377 Y-10.349
X-13.513 Y-10.977
X-13.606 Y-11.612
X-13.658 Y-12.252
X-13.667 Y-12.894
X-13.632 Y-13.504
X-13.562 Y-14.012
X-13.477 Y-14.397
X-13.384 Y-14.697
X-13.297 Y-14.917
X-13.256 Y-15
X-13.141 Y-15.169
X-12.983 Y-15.301
X-12.795 Y-15.384
X-12.592 Y-15.413
X-11.402
G3 X-10.452 Y-14.586 Z-2.326 I-0.035 J0.999
G1 X-10.416 Y-14.381 Z-2.3
X-9.256 Y-7.76
X-9.246 Y-7.691
X-9.241 Y-7.621
Y-7.587 Z-2.304
G3 X-10.206 Y-6.588 Z-2.5 I-1 J0
G1 X-11.453
X-11.603 Y-6.595
X-11.751 Y-6.618
X-11.898 Y-6.656
X-12.05 Y-6.708
X-12.219 Y-6.783
X-12.401 Y-6.881
X-12.592 Y-7.004
X-12.803 Y-7.167
X-13.016 Y-7.358
X-13.251 Y-7.608
X-13.484 Y-7.899
X-13.728 Y-8.259
X-13.979 Y-8.703
X-14.207 Y-9.195
X-14.423 Y-9.781
X-14.597 Y-10.4
X-14.725 Y-11.029
X-14.812 Y-11.665
X-14.858 Y-12.306
X-14.862 Y-12.948
X-14.821 Y-13.561
X-14.747 Y-14.064
X-14.664 Y-14.422
X-14.569 Y-14.721
X-14.48 Y-14.938
X-14.445 Y-15.006
X-14.329 Y-15.173
X-14.172 Y-15.303
X-13.986 Y-15.385
X-13.784 Y-15.413
X-12.592
G3 X-11.64 Y-14.578 Z-2.325 I-0.035 J0.999
G1 X-11.608 Y-14.381 Z-2.3
X-10.502 Y-7.751
X-10.493 Y-7.686
X-10.489 Y-7.621
G3 X-11.453 Y-6.588 Z-2.5 I-0.999 J0.034
G1 X-12.686
X-12.836 Y-6.595
X-12.984 Y-6.62
X-13.13 Y-6.658
X-13.284 Y-6.713
X-13.451 Y-6.788
X-13.638 Y-6.891
X-13.825 Y-7.014
X-14.043 Y-7.184
X-14.252 Y-7.376
X-14.489 Y-7.631
X-14.716 Y-7.92
X-14.959 Y-8.285
X-15.205 Y-8.729
X-15.427 Y-9.217
X-15.64 Y-9.809
X-15.808 Y-10.429
X-15.932 Y-11.059
X-16.015 Y-11.696
X-16.057 Y-12.336
X-16.058 Y-12.979
X-16.014 Y-13.583
X-15.937 Y-14.086
X-15.853 Y-14.439
X-15.758 Y-14.735
X-15.668 Y-14.95
X-15.638 Y-15.01
X-15.522 Y-15.176
X-15.365 Y-15.304
X-15.179 Y-15.385
X-14.979 Y-15.413
X-13.784
G3 X-12.832 Y-14.572 Z-2.325 I-0.035 J0.999
G1 X-12.801 Y-14.381 Z-2.3
X-11.734 Y-7.746
X-11.722 Y-7.621
G3 X-12.686 Y-6.588 Z-2.5 I-0.999 J0.034
G1 X-13.854
X-14.005 Y-6.595
X-14.153 Y-6.615
X-14.3 Y-6.648
X-14.456 Y-6.699
X-14.612 Y-6.764
X-14.794 Y-6.858
X-14.977 Y-6.972
X-15.183 Y-7.124
X-15.393 Y-7.307
X-15.622 Y-7.541
X-15.845 Y-7.809
X-16.094 Y-8.163
X-16.318 Y-8.544
X-16.551 Y-9.023
X-16.773 Y-9.591
X-16.957 Y-10.206
X-17.096 Y-10.833
X-17.193 Y-11.468
X-17.249 Y-12.108
X-17.263 Y-12.75
X-17.234 Y-13.384
X-17.165 Y-13.922
X-17.078 Y-14.335
X-16.984 Y-14.65
X-16.895 Y-14.881
X-16.842 Y-14.993
X-16.727 Y-15.165
X-16.568 Y-15.299
X-16.379 Y-15.384
X-16.174 Y-15.413
X-14.979
G3 X-14.027 Y-14.576 Z-2.325 I-0.035 J0.999
G1 X-13.995 Y-14.381 Z-2.3
X-12.902 Y-7.749
X-12.894 Y-7.685
X-12.889 Y-7.621
G3 X-13.854 Y-6.588 Z-2.5 I-0.999 J0.034
G1 X-15.101
X-15.251 Y-6.595
X-15.399 Y-6.618
X-15.545 Y-6.655
X-15.691 Y-6.706
X-15.862 Y-6.781
X-16.038 Y-6.875
X-16.231 Y-7
X-16.431 Y-7.153
X-16.647 Y-7.347
X-16.866 Y-7.58
X-17.105 Y-7.877
X-17.332 Y-8.212
X-17.576 Y-8.642
X-17.807 Y-9.139
X-18.018 Y-9.709
X-18.192 Y-10.328
X-18.321 Y-10.957
X-18.407 Y-11.593
X-18.453 Y-12.234
X-18.458 Y-12.876
X-18.418 Y-13.507
X-18.344 Y-14.021
X-18.258 Y-14.396
X-18.161 Y-14.704
X-18.072 Y-14.924
X-18.032 Y-15.004
X-17.916 Y-15.172
X-17.759 Y-15.302
X-17.572 Y-15.384
X-17.37 Y-15.413
X-16.174
G3 X-15.221 Y-14.568 Z-2.324 I-0.035 J0.999
G1 X-15.192 Y-14.381 Z-2.3
X-14.148 Y-7.742
X-14.137 Y-7.621
G3 X-15.101 Y-6.588 Z-2.5 I-0.999 J0.034
G1 X-16.334
X-16.484 Y-6.595
X-16.632 Y-6.62
X-16.78 Y-6.661
X-16.931 Y-6.716
X-17.1 Y-6.793
X-17.279 Y-6.893
X-17.47 Y-7.021
X-17.679 Y-7.186
X-17.891 Y-7.383
X-18.12 Y-7.633
X-18.352 Y-7.932
X-18.584 Y-8.286
X-18.827 Y-8.73
X-19.05 Y-9.23
X-19.256 Y-9.816
X-19.42 Y-10.436
X-19.54 Y-11.067
X-19.617 Y-11.705
X-19.655 Y-12.346
X-19.652 Y-12.988
X-19.604 Y-13.601
X-19.525 Y-14.097
X-19.439 Y-14.452
X-19.343 Y-14.745
X-19.252 Y-14.961
X-19.225 Y-15.013
X-19.108 Y-15.178
X-18.952 Y-15.305
X-18.767 Y-15.385
X-18.567 Y-15.413
X-17.37
G3 X-16.416 Y-14.563 Z-2.324 I-0.035 J0.999
G1 X-16.388 Y-14.381 Z-2.3
X-15.381 Y-7.737
X-15.37 Y-7.621
G3 X-16.334 Y-6.588 Z-2.5 I-0.999 J0.034
G1 X-17.502
X-17.652 Y-6.595
X-17.8 Y-6.616
X-17.946 Y-6.652
X-18.103 Y-6.705
X-18.26 Y-6.772
X-18.443 Y-6.869
X-18.624 Y-6.985
X-18.83 Y-7.141
X-19.038 Y-7.326
X-19.267 Y-7.565
X-19.488 Y-7.837
X-19.734 Y-8.195
X-19.957 Y-8.583
X-20.184 Y-9.064
X-20.4 Y-9.636
X-20.578 Y-10.253
X-20.71 Y-10.881
X-20.8 Y-11.517
X-20.85 Y-12.157
X-20.859 Y-12.8
X-20.824 Y-13.423
X-20.75 Y-13.962
X-20.662 Y-14.363
X-20.567 Y-14.676
X-20.477 Y-14.902
X-20.429 Y-14.999
X-20.314 Y-15.169
X-20.156 Y-15.301
X-19.968 Y-15.384
X-19.765 Y-15.413
X-18.567
G3 X-17.614 Y-14.567 Z-2.324 I-0.035 J0.999
G1 X-17.585 Y-14.381 Z-2.3
X-16.549 Y-7.741
X-16.537 Y-7.621
G3 X-17.502 Y-6.588 Z-2.5 I-0.999 J0.034
G1 X-18.75
X-18.899 Y-6.595
X-19.047 Y-6.621
X-19.194 Y-6.661
X-19.342 Y-6.715
X-19.515 Y-6.794
X-19.692 Y-6.893
X-19.887 Y-7.023
X-20.088 Y-7.182
X-20.304 Y-7.383
X-20.523 Y-7.624
X-20.761 Y-7.93
X-20.986 Y-8.274
X-21.225 Y-8.712
X-21.454 Y-9.226
X-21.659 Y-9.807
X-21.822 Y-10.428
X-21.941 Y-11.059
X-22.018 Y-11.697
X-22.055 Y-12.338
X-22.051 Y-12.98
X-22.002 Y-13.602
X-21.923 Y-14.095
X-21.835 Y-14.453
X-21.739 Y-14.746
X-21.647 Y-14.963
X-21.62 Y-15.014
X-21.504 Y-15.178
X-21.347 Y-15.305
X-21.163 Y-15.385
X-20.963 Y-15.413
X-19.765
G3 X-18.81 Y-14.56 Z-2.323 I-0.035 J0.999
G1 X-18.784 Y-14.38 Z-2.3
X-17.795 Y-7.734
X-17.785 Y-7.621
G3 X-18.75 Y-6.588 Z-2.5 I-0.999 J0.034
G1 X-19.917
X-20.067 Y-6.595
X-20.215 Y-6.617
X-20.361 Y-6.653
X-20.518 Y-6.706
X-20.675 Y-6.774
X-20.858 Y-6.872
X-21.037 Y-6.987
X-21.245 Y-7.144
X-21.449 Y-7.327
X-21.679 Y-7.569
X-21.899 Y-7.841
X-22.144 Y-8.199
X-22.367 Y-8.591
X-22.593 Y-9.072
X-22.807 Y-9.645
X-22.984 Y-10.262
X-23.114 Y-10.891
X-23.202 Y-11.527
X-23.251 Y-12.167
X-23.258 Y-12.81
X-23.221 Y-13.432
X-23.146 Y-13.971
X-23.058 Y-14.37
X-22.961 Y-14.682
X-22.872 Y-14.907
X-22.825 Y-15
X-22.71 Y-15.17
X-22.552 Y-15.301
X-22.365 Y-15.384
X-22.162 Y-15.413
X-20.963
G3 X-20.01 Y-14.565 Z-2.324 I-0.035 J0.999
G1 X-19.981 Y-14.381 Z-2.3
X-18.963 Y-7.738
X-18.952 Y-7.621
G3 X-19.917 Y-6.588 Z-2.5 I-0.999 J0.034
G1 X-21.15
X-21.3 Y-6.595
X-21.448 Y-6.62
X-21.594 Y-6.659
X-21.741 Y-6.712
X-21.911 Y-6.788
X-22.089 Y-6.887
X-22.28 Y-7.013
X-22.482 Y-7.172
X-22.694 Y-7.368
X-22.915 Y-7.607
X-23.148 Y-7.904
X-23.375 Y-8.248
X-23.616 Y-8.683
X-23.839 Y-9.179
X-24.045 Y-9.755
X-24.212 Y-10.375
X-24.334 Y-11.006
X-24.413 Y-11.643
X-24.453 Y-12.284
X-24.452 Y-12.926
X-24.406 Y-13.553
X-24.327 Y-14.063
X-24.24 Y-14.428
X-24.142 Y-14.729
X-24.052 Y-14.947
X-24.019 Y-15.01
X-23.903 Y-15.176
X-23.746 Y-15.304
X-23.561 Y-15.385
X-23.36 Y-15.413
X-22.162
G3 X-21.207 Y-14.56 Z-2.323 I-0.035 J0.999
G1 X-21.181 Y-14.38 Z-2.3
X-20.196 Y-7.733
X-20.186 Y-7.621
G3 X-21.15 Y-6.588 Z-2.5 I-0.999 J0.034
G1 X-22.317
X-22.467 Y-6.595
X-22.616 Y-6.616
X-22.762 Y-6.651
X-22.916 Y-6.703
X-23.073 Y-6.771
X-23.255 Y-6.867
X-23.434 Y-6.981
X-23.642 Y-7.138
X-23.844 Y-7.317
X-24.075 Y-7.559
X-24.291 Y-7.824
X-24.533 Y-8.175
X-24.759 Y-8.568
X-24.983 Y-9.041
X-25.197 Y-9.608
X-25.376 Y-10.225
X-25.508 Y-10.854
X-25.598 Y-11.489
X-25.649 Y-12.13
X-25.658 Y-12.772
X-25.623 Y-13.4
X-25.549 Y-13.946
X-25.46 Y-14.353
X-25.364 Y-14.669
X-25.274 Y-14.897
X-25.224 Y-14.998
X-25.109 Y-15.168
X-24.951 Y-15.3
X-24.763 Y-15.384
X-24.559 Y-15.413
X-23.36
G3 X-22.406 Y-14.564 Z-2.324 I-0.035 J0.999
G1 X-22.378 Y-14.381 Z-2.3
X-21.364 Y-7.738
X-21.353 Y-7.621
G3 X-22.317 Y-6.588 Z-2.5 I-0.999 J0.034
G1 X-23.485
X-23.659 Y-6.596
X-23.808 Y-6.616
X-23.954 Y-6.65
X-24.098 Y-6.697
X-24.26 Y-6.765
X-24.436 Y-6.857
X-24.619 Y-6.971
X-24.822 Y-7.121
X-25.024 Y-7.298
X-25.247 Y-7.527
X-25.469 Y-7.795
X-25.701 Y-8.127
X-25.941 Y-8.535
X-26.159 Y-8.985
X-26.375 Y-9.54
X-26.558 Y-10.155
X-26.695 Y-10.783
X-26.79 Y-11.418
X-26.844 Y-12.058
X-26.859 Y-12.7
X-26.829 Y-13.336
X-26.757 Y-13.899
X-26.67 Y-14.315
X-26.574 Y-14.641
X-26.484 Y-14.873
X-26.426 Y-14.993
X-26.311 Y-15.165
X-26.153 Y-15.299
X-25.964 Y-15.384
X-25.759 Y-15.413
X-24.559
G3 X-23.606 Y-14.569 Z-2.324 I-0.035 J0.999
G1 X-23.577 Y-14.381 Z-2.3
X-22.532 Y-7.742
X-22.52 Y-7.621
G3 X-23.485 Y-6.588 Z-2.5 I-0.999 J0.034
G1 X-24.733
X-24.882 Y-6.595
X-25.031 Y-6.617
X-25.176 Y-6.654
X-25.321 Y-6.704
X-25.49 Y-6.777
X-25.66 Y-6.868
X-25.852 Y-6.991
X-26.05 Y-7.143
X-26.264 Y-7.335
X-26.479 Y-7.561
X-26.714 Y-7.853
X-26.936 Y-8.178
X-27.175 Y-8.599
X-27.402 Y-9.084
X-27.61 Y-9.641
X-27.785 Y-10.259
X-27.914 Y-10.888
X-28.001 Y-11.524
X-28.048 Y-12.165
X-28.055 Y-12.807
X-28.016 Y-13.446
X-27.941 Y-13.982
X-27.854 Y-14.369
X-27.756 Y-14.686
X-27.667 Y-14.909
X-27.621 Y-15.001
X-27.505 Y-15.171
X-27.347 Y-15.301
X-27.16 Y-15.384
X-26.957 Y-15.413
X-25.759
G3 X-24.805 Y-14.562 Z-2.323 I-0.035 J0.999
G1 X-24.777 Y-14.38 Z-2.3
X-23.779 Y-7.736
X-23.768 Y-7.621
G3 X-24.733 Y-6.588 Z-2.5 I-0.999 J0.034
G1 X-25.966
X-26.115 Y-6.595
X-26.263 Y-6.621
X-26.411 Y-6.662
X-26.559 Y-6.716
X-26.731 Y-6.794
X-26.905 Y-6.892
X-27.097 Y-7.021
X-27.3 Y-7.182
X-27.514 Y-7.382
X-27.736 Y-7.625
X-27.971 Y-7.929
X-28.194 Y-8.272
X-28.432 Y-8.709
X-28.657 Y-9.217
X-28.859 Y-9.794
X-29.022 Y-10.415
X-29.14 Y-11.046
X-29.216 Y-11.684
X-29.252 Y-12.325
X-29.247 Y-12.967
X-29.199 Y-13.589
X-29.119 Y-14.088
X-29.031 Y-14.448
X-28.933 Y-14.744
X-28.842 Y-14.961
X-28.814 Y-15.014
X-28.697 Y-15.178
X-28.541 Y-15.305
X-28.356 Y-15.385
X-28.157 Y-15.413
X-26.957
G3 X-26.003 Y-14.557 Z-2.323 I-0.035 J0.999
G1 X-25.977 Y-14.38 Z-2.3
X-25.011 Y-7.731
X-25.001 Y-7.621
G3 X-25.966 Y-6.588 Z-2.5 I-0.999 J0.034
G1 X-27.133
X-27.283 Y-6.595
X-27.431 Y-6.617
X-27.577 Y-6.654
X-27.733 Y-6.708
X-27.891 Y-6.776
X-28.074 Y-6.875
X-28.253 Y-6.99
X-28.461 Y-7.149
X-28.664 Y-7.332
X-28.894 Y-7.576
X-29.111 Y-7.847
X-29.354 Y-8.203
X-29.578 Y-8.598
X-29.8 Y-9.077
X-30.013 Y-9.649
X-30.187 Y-10.267
X-30.315 Y-10.896
X-30.402 Y-11.532
X-30.449 Y-12.173
X-30.454 Y-12.815
X-30.417 Y-13.436
X-30.34 Y-13.978
X-30.251 Y-14.375
X-30.155 Y-14.686
X-30.064 Y-14.911
X-30.019 Y-15.002
X-29.904 Y-15.171
X-29.746 Y-15.302
X-29.559 Y-15.384
X-29.356 Y-15.413
X-28.157
G3 X-27.203 Y-14.561 Z-2.323 I-0.035 J0.999
G1 X-27.176 Y-14.38 Z-2.3
X-26.179 Y-7.735
X-26.168 Y-7.621
G3 X-27.133 Y-6.588 Z-2.5 I-0.999 J0.034
G1 X-28.3
X-28.462 Y-6.596
X-28.611 Y-6.615
X-28.757 Y-6.65
X-28.903 Y-6.698
X-29.063 Y-6.765
X-29.242 Y-6.858
X-29.422 Y-6.97
X-29.627 Y-7.122
X-29.827 Y-7.297
X-30.053 Y-7.529
X-30.27 Y-7.791
X-30.505 Y-8.128
X-30.739 Y-8.525
X-30.959 Y-8.982
X-31.175 Y-9.538
X-31.358 Y-10.153
X-31.494 Y-10.78
X-31.589 Y-11.416
X-31.643 Y-12.056
X-31.658 Y-12.698
X-31.628 Y-13.336
X-31.556 Y-13.896
X-31.467 Y-14.317
X-31.371 Y-14.641
X-31.281 Y-14.875
X-31.224 Y-14.993
X-31.108 Y-15.165
X-30.95 Y-15.299
X-30.761 Y-15.384
X-30.556 Y-15.413
X-29.356
G3 X-28.403 Y-14.566 Z-2.324 I-0.035 J0.999
G1 X-28.374 Y-14.381 Z-2.3
X-27.347 Y-7.74
X-27.336 Y-7.621
G3 X-28.3 Y-6.588 Z-2.5 I-0.999 J0.034
G1 X-29.548
X-29.698 Y-6.595
X-29.846 Y-6.619
X-29.991 Y-6.657
X-30.137 Y-6.708
X-30.309 Y-6.784
X-30.479 Y-6.876
X-30.673 Y-7.004
X-30.869 Y-7.155
X-31.086 Y-7.353
X-31.299 Y-7.58
X-31.537 Y-7.881
X-31.756 Y-8.208
X-31.994 Y-8.632
X-32.223 Y-9.133
X-32.429 Y-9.697
X-32.6 Y-10.316
X-32.724 Y-10.946
X-32.807 Y-11.582
X-32.85 Y-12.223
X-32.852 Y-12.865
X-32.809 Y-13.504
X-32.732 Y-14.022
X-32.644 Y-14.401
X-32.545 Y-14.709
X-32.455 Y-14.93
X-32.416 Y-15.007
X-32.3 Y-15.174
X-32.143 Y-15.303
X-31.957 Y-15.385
X-31.755 Y-15.413
X-30.556
G3 X-29.602 Y-14.559 Z-2.323 I-0.035 J0.999
G1 X-29.575 Y-14.38 Z-2.3
X-28.594 Y-7.733
X-28.584 Y-7.621
G3 X-29.548 Y-6.588 Z-2.5 I-0.999 J0.034
G1 X-30.781
X-30.931 Y-6.595
X-31.078 Y-6.622
X-31.227 Y-6.665
X-31.378 Y-6.721
X-31.549 Y-6.801
X-31.726 Y-6.902
X-31.918 Y-7.034
X-32.123 Y-7.199
X-32.336 Y-7.402
X-32.561 Y-7.653
X-32.794 Y-7.96
X-33.02 Y-8.312
X-33.257 Y-8.758
X-33.48 Y-9.272
X-33.68 Y-9.858
X-33.838 Y-10.48
X-33.95 Y-11.113
X-34.022 Y-11.751
X-34.053 Y-12.392
X-34.043 Y-13.034
X-33.99 Y-13.647
X-33.907 Y-14.135
X-33.819 Y-14.483
X-33.722 Y-14.769
X-33.629 Y-14.984
X-33.61 Y-15.019
X-33.493 Y-15.182
X-33.337 Y-15.307
X-33.154 Y-15.386
X-32.956 Y-15.413
X-31.755
G3 X-30.8 Y-14.554 Z-2.322 I-0.035 J0.999
G1 X-30.775 Y-14.38 Z-2.3
X-29.826 Y-7.728
X-29.817 Y-7.621
G3 X-30.781 Y-6.588 Z-2.5 I-0.999 J0.034
G1 X-31.949
X-32.098 Y-6.595
X-32.246 Y-6.619
X-32.392 Y-6.656
X-32.55 Y-6.712
X-32.708 Y-6.783
X-32.892 Y-6.883
X-33.074 Y-7.003
X-33.28 Y-7.163
X-33.487 Y-7.353
X-33.715 Y-7.598
X-33.936 Y-7.877
X-34.179 Y-8.243
X-34.4 Y-8.64
X-34.623 Y-9.128
X-34.833 Y-9.708
X-35.002 Y-10.327
X-35.126 Y-10.957
X-35.208 Y-11.594
X-35.25 Y-12.235
X-35.252 Y-12.877
X-35.21 Y-13.49
X-35.13 Y-14.024
X-35.042 Y-14.406
X-34.944 Y-14.712
X-34.854 Y-14.932
X-34.816 Y-15.007
X-34.7 Y-15.174
X-34.543 Y-15.303
X-34.357 Y-15.385
X-34.155 Y-15.413
X-32.956
G3 X-32.002 Y-14.559 Z-2.323 I-0.035 J0.999
G1 X-31.975 Y-14.38 Z-2.3
X-30.994 Y-7.733
X-30.984 Y-7.621
G3 X-31.949 Y-6.588 Z-2.5 I-0.999 J0.034
G1 X-33.116
X-33.266 Y-6.595
X-33.414 Y-6.615
X-33.56 Y-6.65
X-33.711 Y-6.699
X-33.868 Y-6.766
X-34.05 Y-6.861
X-34.229 Y-6.973
X-34.436 Y-7.127
X-34.634 Y-7.302
X-34.862 Y-7.538
X-35.076 Y-7.797
X-35.316 Y-8.141
X-35.543 Y-8.53
X-35.766 Y-8.995
X-35.981 Y-9.555
X-36.163 Y-10.171
X-36.298 Y-10.799
X-36.391 Y-11.434
X-36.445 Y-12.074
X-36.457 Y-12.716
X-36.425 Y-13.357
X-36.352 Y-13.911
X-36.262 Y-14.331
X-36.166 Y-14.651
X-36.076 Y-14.883
X-36.022 Y-14.995
X-35.906 Y-15.167
X-35.748 Y-15.3
X-35.56 Y-15.384
X-35.355 Y-15.413
X-34.155
G3 X-33.201 Y-14.564 Z-2.324 I-0.035 J0.999
G1 X-33.174 Y-14.381 Z-2.3
X-32.162 Y-7.737
X-32.151 Y-7.621
G3 X-33.116 Y-6.588 Z-2.5 I-0.999 J0.034
G1 X-34.364
X-34.513 Y-6.595
X-34.661 Y-6.62
X-34.806 Y-6.659
X-34.954 Y-6.713
X-35.127 Y-6.791
X-35.298 Y-6.886
X-35.495 Y-7.017
X-35.69 Y-7.17
X-35.909 Y-7.373
X-36.121 Y-7.604
X-36.361 Y-7.911
X-36.58 Y-8.244
X-36.816 Y-8.673
X-37.045 Y-9.185
X-37.251 Y-9.764
X-37.417 Y-10.385
X-37.537 Y-11.016
X-37.615 Y-11.653
X-37.653 Y-12.294
X-37.649 Y-12.936
X-37.601 Y-13.569
X-37.522 Y-14.07
X-37.433 Y-14.437
X-37.335 Y-14.735
X-37.243 Y-14.954
X-37.213 Y-15.012
X-37.097 Y-15.177
X-36.94 Y-15.305
X-36.755 Y-15.385
X-36.555 Y-15.413
X-35.355
G3 X-34.4 Y-14.557 Z-2.323 I-0.035 J0.999
G1 X-34.375 Y-14.38 Z-2.3
X-33.409 Y-7.731
X-33.399 Y-7.621
G3 X-34.364 Y-6.588 Z-2.5 I-0.999 J0.034
G1 X-35.531
X-35.681 Y-6.595
X-35.829 Y-6.616
X-35.975 Y-6.653
X-36.13 Y-6.705
X-36.287 Y-6.774
X-36.469 Y-6.871
X-36.647 Y-6.985
X-36.855 Y-7.143
X-37.055 Y-7.322
X-37.287 Y-7.565
X-37.503 Y-7.833
X-37.744 Y-8.187
X-37.971 Y-8.583
X-38.194 Y-9.058
X-38.407 Y-9.627
X-38.583 Y-10.244
X-38.713 Y-10.873
X-38.8 Y-11.51
X-38.848 Y-12.15
X-38.855 Y-12.792
X-38.819 Y-13.417
X-38.743 Y-13.962
X-38.653 Y-14.365
X-38.556 Y-14.679
X-38.466 Y-14.905
X-38.419 Y-15
X-38.303 Y-15.17
X-38.146 Y-15.301
X-37.958 Y-15.384
X-37.755 Y-15.413
X-36.555
G3 X-35.601 Y-14.561 Z-2.323 I-0.035 J0.999
G1 X-35.574 Y-14.38 Z-2.3
X-34.577 Y-7.735
X-34.566 Y-7.621
G3 X-35.531 Y-6.588 Z-2.5 I-0.999 J0.034
G1 X-36.764
X-36.914 Y-6.595
X-37.062 Y-6.62
X-37.208 Y-6.66
X-37.354 Y-6.713
X-37.524 Y-6.79
X-37.701 Y-6.888
X-37.892 Y-7.015
X-38.093 Y-7.174
X-38.306 Y-7.371
X-38.525 Y-7.609
X-38.759 Y-7.909
X-38.983 Y-8.25
X-39.222 Y-8.684
X-39.446 Y-9.184
X-39.649 Y-9.757
X-39.815 Y-10.377
X-39.935 Y-11.008
X-40.013 Y-11.645
X-40.051 Y-12.286
X-40.049 Y-12.929
X-40.001 Y-13.557
X-39.922 Y-14.067
X-39.834 Y-14.433
X-39.736 Y-14.733
X-39.644 Y-14.951
X-39.613 Y-15.012
X-39.497 Y-15.177
X-39.34 Y-15.304
X-39.155 Y-15.385
X-38.955 Y-15.413
X-37.755
G3 X-36.8 Y-14.557 Z-2.323 I-0.035 J0.999
G1 X-36.775 Y-14.38 Z-2.3
X-35.809 Y-7.731
X-35.8 Y-7.621
G3 X-36.764 Y-6.588 Z-2.5 I-0.999 J0.034
G1 X-37.931
X-38.081 Y-6.595
X-38.23 Y-6.617
X-38.375 Y-6.653
X-38.53 Y-6.705
X-38.687 Y-6.774
X-38.87 Y-6.871
X-39.048 Y-6.985
X-39.256 Y-7.144
X-39.458 Y-7.324
X-39.688 Y-7.567
X-39.904 Y-7.834
X-40.144 Y-8.186
X-40.371 Y-8.582
X-40.593 Y-9.055
X-40.805 Y-9.623
X-40.981 Y-10.241
X-41.111 Y-10.87
X-41.199 Y-11.506
X-41.247 Y-12.146
X-41.255 Y-12.789
X-41.219 Y-13.415
X-41.143 Y-13.961
X-41.053 Y-14.363
X-40.956 Y-14.677
X-40.866 Y-14.904
X-40.819 Y-15
X-40.703 Y-15.17
X-40.545 Y-15.301
X-40.358 Y-15.384
X-40.155 Y-15.413
X-38.955
G3 X-38.001 Y-14.561 Z-2.323 I-0.035 J0.999
G1 X-37.974 Y-14.38 Z-2.3
X-36.977 Y-7.735
X-36.967 Y-7.621
G3 X-37.931 Y-6.588 Z-2.5 I-0.999 J0.034
G1 X-39.099
X-39.265 Y-6.596
X-39.414 Y-6.615
X-39.56 Y-6.65
X-39.705 Y-6.697
X-39.865 Y-6.765
X-40.043 Y-6.857
X-40.224 Y-6.97
X-40.428 Y-7.121
X-40.628 Y-7.297
X-40.852 Y-7.527
X-41.071 Y-7.791
X-41.305 Y-8.125
X-41.541 Y-8.528
X-41.759 Y-8.98
X-41.974 Y-9.534
X-42.158 Y-10.149
X-42.294 Y-10.777
X-42.388 Y-11.412
X-42.443 Y-12.052
X-42.457 Y-12.694
X-42.427 Y-13.332
X-42.355 Y-13.894
X-42.266 Y-14.315
X-42.17 Y-14.64
X-42.08 Y-14.874
X-42.022 Y-14.993
X-41.907 Y-15.165
X-41.749 Y-15.299
X-41.56 Y-15.384
X-41.355 Y-15.413
X-40.155
G3 X-39.201 Y-14.566 Z-2.324 I-0.035 J0.999
G1 X-39.173 Y-14.381 Z-2.3
X-38.146 Y-7.74
X-38.134 Y-7.621
G3 X-39.099 Y-6.588 Z-2.5 I-0.999 J0.034
G1 X-40.347
X-40.496 Y-6.595
X-40.645 Y-6.618
X-40.79 Y-6.656
X-40.936 Y-6.707
X-41.106 Y-6.782
X-41.276 Y-6.874
X-41.47 Y-7
X-41.666 Y-7.152
X-41.882 Y-7.348
X-42.095 Y-7.575
X-42.333 Y-7.874
X-42.552 Y-8.199
X-42.789 Y-8.622
X-43.018 Y-9.119
X-43.224 Y-9.679
X-43.396 Y-10.298
X-43.521 Y-10.928
X-43.605 Y-11.564
X-43.649 Y-12.205
X-43.651 Y-12.847
X-43.61 Y-13.487
X-43.533 Y-14.01
X-43.445 Y-14.392
X-43.346 Y-14.703
X-43.256 Y-14.924
X-43.215 Y-15.005
X-43.1 Y-15.173
X-42.942 Y-15.303
X-42.756 Y-15.384
X-42.554 Y-15.413
X-41.355
G3 X-40.4 Y-14.559 Z-2.323 I-0.035 J0.999
G1 X-40.374 Y-14.38 Z-2.3
X-39.392 Y-7.733
X-39.382 Y-7.621
G3 X-40.347 Y-6.588 Z-2.5 I-0.999 J0.034
G1 X-41.58
X-41.729 Y-6.595
X-41.877 Y-6.622
X-42.026 Y-6.664
X-42.176 Y-6.72
X-42.347 Y-6.8
X-42.523 Y-6.9
X-42.715 Y-7.031
X-42.919 Y-7.195
X-43.133 Y-7.397
X-43.356 Y-7.646
X-43.59 Y-7.953
X-43.815 Y-8.303
X-44.052 Y-8.746
X-44.275 Y-9.258
X-44.475 Y-9.842
X-44.634 Y-10.464
X-44.748 Y-11.096
X-44.82 Y-11.734
X-44.852 Y-12.376
X-44.843 Y-13.018
X-44.791 Y-13.633
X-44.709 Y-14.124
X-44.621 Y-14.475
X-44.523 Y-14.763
X-44.43 Y-14.979
X-44.409 Y-15.018
X-44.293 Y-15.181
X-44.137 Y-15.306
X-43.953 Y-15.385
X-43.755 Y-15.413
X-42.554
G3 X-41.599 Y-14.554 Z-2.322 I-0.035 J0.999
G1 X-41.574 Y-14.38 Z-2.3
X-40.625 Y-7.728
X-40.615 Y-7.621
G3 X-41.58 Y-6.588 Z-2.5 I-0.999 J0.034
G1 X-42.747
X-42.897 Y-6.595
X-43.045 Y-6.618
X-43.19 Y-6.656
X-43.348 Y-6.712
X-43.506 Y-6.782
X-43.69 Y-6.882
X-43.871 Y-7
X-44.077 Y-7.161
X-44.283 Y-7.349
X-44.512 Y-7.594
X-44.732 Y-7.871
X-44.975 Y-8.235
X-45.196 Y-8.631
X-45.418 Y-9.117
X-45.629 Y-9.695
X-45.799 Y-10.314
X-45.923 Y-10.944
X-46.006 Y-11.581
X-46.049 Y-12.222
X-46.051 Y-12.864
X-46.01 Y-13.479
X-45.931 Y-14.015
X-45.842 Y-14.4
X-45.745 Y-14.707
X-45.655 Y-14.928
X-45.615 Y-15.006
X-45.499 Y-15.173
X-45.342 Y-15.303
X-45.156 Y-15.385
X-44.954 Y-15.413
X-43.755
G3 X-42.8 Y-14.559 Z-2.323 I-0.035 J0.999
G1 X-42.774 Y-14.38 Z-2.3
X-41.793 Y-7.733
X-41.782 Y-7.621
G3 X-42.747 Y-6.588 Z-2.5 I-0.999 J0.034
G1 X-43.914
X-44.064 Y-6.595
X-44.213 Y-6.615
X-44.359 Y-6.649
X-44.509 Y-6.698
X-44.666 Y-6.765
X-44.848 Y-6.859
X-45.026 Y-6.971
X-45.232 Y-7.124
X-45.43 Y-7.298
X-45.659 Y-7.533
X-45.872 Y-7.792
X-46.111 Y-8.134
X-46.339 Y-8.523
X-46.562 Y-8.986
X-46.777 Y-9.544
X-46.96 Y-10.159
X-47.096 Y-10.787
X-47.19 Y-11.422
X-47.244 Y-12.062
X-47.257 Y-12.704
X-47.225 Y-13.346
X-47.153 Y-13.901
X-47.063 Y-14.324
X-46.967 Y-14.646
X-46.877 Y-14.879
X-46.821 Y-14.994
X-46.706 Y-15.166
X-46.548 Y-15.299
X-46.359 Y-15.384
X-46.154 Y-15.413
X-44.954
G3 X-44 Y-14.564 Z-2.324 I-0.035 J0.999
G1 X-43.972 Y-14.381 Z-2.3
X-42.961 Y-7.737
X-42.95 Y-7.621
G3 X-43.914 Y-6.588 Z-2.5 I-0.999 J0.034
G1 X-45.162
X-45.312 Y-6.595
X-45.46 Y-6.62
X-45.605 Y-6.659
X-45.753 Y-6.712
X-45.926 Y-6.791
X-46.096 Y-6.885
X-46.293 Y-7.016
X-46.487 Y-7.168
X-46.707 Y-7.371
X-46.918 Y-7.601
X-47.158 Y-7.908
X-47.377 Y-8.24
X-47.613 Y-8.668
X-47.842 Y-9.178
X-48.049 Y-9.758
X-48.215 Y-10.378
X-48.335 Y-11.009
X-48.414 Y-11.646
X-48.452 Y-12.287
X-48.448 Y-12.929
X-48.401 Y-13.563
X-48.322 Y-14.065
X-48.233 Y-14.434
X-48.135 Y-14.733
X-48.043 Y-14.952
X-48.012 Y-15.012
X-47.896 Y-15.177
X-47.739 Y-15.304
X-47.554 Y-15.385
X-47.354 Y-15.413
X-46.154
G3 X-45.2 Y-14.557 Z-2.323 I-0.035 J0.999
G1 X-45.174 Y-14.38 Z-2.3
X-44.207 Y-7.731
X-44.198 Y-7.621
G3 X-45.162 Y-6.588 Z-2.5 I-0.999 J0.034
G1 X-46.329
X-46.479 Y-6.595
X-46.628 Y-6.616
X-46.773 Y-6.652
X-46.928 Y-6.705
X-47.086 Y-6.773
X-47.267 Y-6.869
X-47.445 Y-6.983
X-47.653 Y-7.141
X-47.853 Y-7.32
X-48.084 Y-7.562
X-48.3 Y-7.829
X-48.541 Y-8.182
X-48.768 Y-8.578
X-48.991 Y-9.052
X-49.204 Y-9.619
X-49.381 Y-10.237
X-49.511 Y-10.865
X-49.599 Y-11.502
X-49.647 Y-12.142
X-49.655 Y-12.784
X-49.619 Y-13.411
X-49.543 Y-13.956
X-49.454 Y-14.361
X-49.357 Y-14.676
X-49.266 Y-14.903
X-49.218 Y-15
X-49.103 Y-15.17
X-48.945 Y-15.301
X-48.757 Y-15.384
X-48.554 Y-15.413
X-47.354
G3 X-46.4 Y-14.562 Z-2.323 I-0.035 J0.999
G1 X-46.373 Y-14.38 Z-2.3
X-45.375 Y-7.735
X-45.365 Y-7.621
G3 X-46.329 Y-6.588 Z-2.5 I-0.999 J0.034
G1 X-47.563
X-47.712 Y-6.595
X-47.86 Y-6.62
X-48.006 Y-6.659
X-48.152 Y-6.712
X-48.323 Y-6.789
X-48.498 Y-6.886
X-48.69 Y-7.014
X-48.891 Y-7.171
X-49.104 Y-7.369
X-49.322 Y-7.606
X-49.556 Y-7.906
X-49.78 Y-8.245
X-50.019 Y-8.678
X-50.243 Y-9.177
X-50.446 Y-9.749
X-50.613 Y-10.369
X-50.733 Y-11
X-50.812 Y-11.637
X-50.851 Y-12.278
X-50.848 Y-12.92
X-50.802 Y-13.55
X-50.722 Y-14.061
X-50.634 Y-14.429
X-50.536 Y-14.73
X-50.445 Y-14.948
X-50.412 Y-15.011
X-50.296 Y-15.176
X-50.14 Y-15.304
X-49.954 Y-15.385
X-49.754 Y-15.413
X-48.554
G3 X-47.599 Y-14.557 Z-2.323 I-0.035 J0.999
G1 X-47.574 Y-14.38 Z-2.3
X-46.608 Y-7.731
X-46.598 Y-7.621
G3 X-47.563 Y-6.588 Z-2.5 I-0.999 J0.034
G1 X-48.73
X-48.88 Y-6.595
X-49.028 Y-6.616
X-49.174 Y-6.652
X-49.328 Y-6.705
X-49.486 Y-6.773
X-49.668 Y-6.87
X-49.846 Y-6.984
X-50.054 Y-7.142
X-50.255 Y-7.322
X-50.486 Y-7.564
X-50.702 Y-7.831
X-50.942 Y-8.182
X-51.168 Y-8.578
X-51.39 Y-9.05
X-51.603 Y-9.617
X-51.779 Y-10.234
X-51.91 Y-10.863
X-51.998 Y-11.499
X-52.047 Y-12.14
X-52.054 Y-12.782
X-52.019 Y-13.409
X-51.943 Y-13.956
X-51.853 Y-14.36
X-51.757 Y-14.675
X-51.666 Y-14.902
X-51.618 Y-15
X-51.502 Y-15.169
X-51.345 Y-15.301
X-51.157 Y-15.384
X-50.954 Y-15.413
X-49.754
G3 X-48.8 Y-14.561 Z-2.323 I-0.035 J0.999
G1 X-48.773 Y-14.38 Z-2.3
X-47.776 Y-7.735
X-47.765 Y-7.621
G3 X-48.73 Y-6.588 Z-2.5 I-0.999 J0.034
G1 X-49.897
X-50.065 Y-6.596
X-50.214 Y-6.615
X-50.36 Y-6.65
X-50.504 Y-6.697
X-50.665 Y-6.765
X-50.842 Y-6.857
X-51.023 Y-6.97
X-51.227 Y-7.121
X-51.428 Y-7.297
X-51.651 Y-7.526
X-51.871 Y-7.792
X-52.104 Y-8.124
X-52.341 Y-8.528
X-52.559 Y-8.979
X-52.774 Y-9.533
X-52.957 Y-10.149
X-53.093 Y-10.776
X-53.188 Y-11.411
X-53.242 Y-12.051
X-53.257 Y-12.693
X-53.227 Y-13.331
X-53.154 Y-13.894
X-53.066 Y-14.314
X-52.969 Y-14.64
X-52.879 Y-14.873
X-52.822 Y-14.993
X-52.707 Y-15.165
X-52.548 Y-15.299
X-52.359 Y-15.384
X-52.154 Y-15.413
X-50.954
G3 X-50 Y-14.566 Z-2.324 I-0.035 J0.999
G1 X-49.972 Y-14.381 Z-2.3
X-48.944 Y-7.74
X-48.933 Y-7.621
G3 X-49.897 Y-6.588 Z-2.5 I-0.999 J0.034
G1 X-51.145
X-51.295 Y-6.595
X-51.443 Y-6.618
X-51.588 Y-6.656
X-51.734 Y-6.706
X-51.905 Y-6.782
X-52.074 Y-6.873
X-52.268 Y-6.999
X-52.464 Y-7.151
X-52.68 Y-7.346
X-52.893 Y-7.573
X-53.13 Y-7.871
X-53.35 Y-8.196
X-53.587 Y-8.618
X-53.816 Y-9.114
X-54.021 Y-9.673
X-54.193 Y-10.292
X-54.32 Y-10.921
X-54.404 Y-11.558
X-54.448 Y-12.199
X-54.451 Y-12.841
X-54.41 Y-13.481
X-54.333 Y-14.006
X-54.245 Y-14.389
X-54.147 Y-14.701
X-54.057 Y-14.922
X-54.015 Y-15.005
X-53.899 Y-15.173
X-53.742 Y-15.302
X-53.555 Y-15.384
X-53.353 Y-15.413
X-52.154
G3 X-51.2 Y-14.559 Z-2.323 I-0.035 J0.999
G1 X-51.173 Y-14.38 Z-2.3
X-50.191 Y-7.733
X-50.18 Y-7.621
G3 X-51.145 Y-6.588 Z-2.5 I-0.999 J0.034
G1 X-52.378
X-52.528 Y-6.595
X-52.675 Y-6.622
X-52.824 Y-6.664
X-52.974 Y-6.719
X-53.145 Y-6.799
X-53.321 Y-6.899
X-53.513 Y-7.03
X-53.717 Y-7.194
X-53.93 Y-7.396
X-54.154 Y-7.644
X-54.388 Y-7.95
X-54.612 Y-8.299
X-54.849 Y-8.741
X-55.072 Y-9.253
X-55.273 Y-9.835
X-55.432 Y-10.457
X-55.546 Y-11.089
X-55.619 Y-11.728
X-55.651 Y-12.369
X-55.643 Y-13.011
X-55.591 Y-13.627
X-55.509 Y-14.119
X-55.421 Y-14.472
X-55.323 Y-14.761
X-55.231 Y-14.976
X-55.209 Y-15.018
X-55.092 Y-15.181
X-54.936 Y-15.306
X-54.752 Y-15.385
X-54.554 Y-15.413
X-53.353
G3 X-52.398 Y-14.555 Z-2.322 I-0.035 J0.999
G1 X-52.373 Y-14.38 Z-2.3
X-51.423 Y-7.728
X-51.414 Y-7.621
G3 X-52.378 Y-6.588 Z-2.5 I-0.999 J0.034
G1 X-53.545
X-53.695 Y-6.595
X-53.843 Y-6.618
X-53.989 Y-6.656
X-54.147 Y-6.711
X-54.305 Y-6.781
X-54.488 Y-6.881
X-54.669 Y-6.999
X-54.876 Y-7.159
X-55.081 Y-7.347
X-55.31 Y-7.592
X-55.529 Y-7.868
X-55.772 Y-8.231
X-55.994 Y-8.628
X-56.216 Y-9.112
X-56.426 Y-9.69
X-56.597 Y-10.309
X-56.722 Y-10.939
X-56.805 Y-11.576
X-56.849 Y-12.216
X-56.851 Y-12.859
X-56.81 Y-13.474
X-56.731 Y-14.011
X-56.642 Y-14.397
X-56.545 Y-14.705
X-56.455 Y-14.926
X-56.415 Y-15.006
X-56.299 Y-15.173
X-56.142 Y-15.303
X-55.955 Y-15.384
X-55.753 Y-15.413
X-54.554
G3 X-53.599 Y-14.559 Z-2.323 I-0.035 J0.999
G1 X-53.573 Y-14.38 Z-2.3
X-52.591 Y-7.733
X-52.581 Y-7.621
G3 X-53.545 Y-6.588 Z-2.5 I-0.999 J0.034
G1 X-54.713
X-54.863 Y-6.595
X-55.011 Y-6.615
X-55.157 Y-6.649
X-55.307 Y-6.698
X-55.464 Y-6.764
X-55.646 Y-6.858
X-55.824 Y-6.97
X-56.03 Y-7.123
X-56.228 Y-7.296
X-56.456 Y-7.531
X-56.67 Y-7.79
X-56.909 Y-8.131
X-57.136 Y-8.52
X-57.359 Y-8.981
X-57.575 Y-9.539
X-57.758 Y-10.154
X-57.894 Y-10.782
X-57.988 Y-11.417
X-58.043 Y-12.057
X-58.056 Y-12.699
X-58.025 Y-13.34
X-57.953 Y-13.896
X-57.863 Y-14.321
X-57.768 Y-14.643
X-57.677 Y-14.877
X-57.621 Y-14.994
X-57.506 Y-15.166
X-57.347 Y-15.299
X-57.158 Y-15.384
X-56.954 Y-15.413
X-55.753
G3 X-54.8 Y-14.564 Z-2.324 I-0.035 J0.999
G1 X-54.772 Y-14.381 Z-2.3
X-53.759 Y-7.738
X-53.748 Y-7.621
G3 X-54.713 Y-6.588 Z-2.5 I-0.999 J0.034
G1 X-55.961
X-56.11 Y-6.595
X-56.258 Y-6.62
X-56.403 Y-6.659
X-56.551 Y-6.712
X-56.724 Y-6.79
X-56.895 Y-6.884
X-57.092 Y-7.015
X-57.286 Y-7.167
X-57.505 Y-7.37
X-57.716 Y-7.599
X-57.956 Y-7.906
X-58.175 Y-8.238
X-58.411 Y-8.665
X-58.64 Y-9.175
X-58.847 Y-9.754
X-59.014 Y-10.375
X-59.134 Y-11.005
X-59.213 Y-11.643
X-59.251 Y-12.284
X-59.248 Y-12.926
X-59.2 Y-13.561
X-59.122 Y-14.063
X-59.033 Y-14.433
X-58.935 Y-14.732
X-58.843 Y-14.951
X-58.812 Y-15.012
X-58.695 Y-15.177
X-58.539 Y-15.304
X-58.354 Y-15.385
X-58.154 Y-15.413
X-56.954
G3 X-55.999 Y-14.557 Z-2.323 I-0.035 J0.999
G1 X-55.973 Y-14.38 Z-2.3
X-55.006 Y-7.731
X-54.996 Y-7.621
G3 X-55.961 Y-6.588 Z-2.5 I-0.999 J0.034
G1 X-57.128
X-57.278 Y-6.595
X-57.427 Y-6.605
X-57.575 Y-6.632
X-57.72 Y-6.671
X-57.861 Y-6.722
X-57.998 Y-6.784
X-58.13 Y-6.854
X-58.258 Y-6.932
X-58.382 Y-7.017
X-58.501 Y-7.108
X-58.616 Y-7.205
X-58.726 Y-7.307
X-58.831 Y-7.413
X-58.933 Y-7.524
X-59.031 Y-7.637
X-59.124 Y-7.755
X-59.214 Y-7.875
X-59.3 Y-7.998
X-59.382 Y-8.123
X-59.461 Y-8.251
X-59.536 Y-8.381
X-59.608 Y-8.512
X-59.676 Y-8.646
X-59.742 Y-8.781
X-59.805 Y-8.917
X-59.864 Y-9.055
X-59.92 Y-9.194
X-59.974 Y-9.334
X-60.025 Y-9.475
X-60.073 Y-9.617
X-60.118 Y-9.76
X-60.16 Y-9.904
X-60.201 Y-10.049
X-60.239 Y-10.194
X-60.274 Y-10.339
X-60.306 Y-10.486
X-60.337 Y-10.633
X-60.365 Y-10.78
X-60.391 Y-10.928
X-60.414 Y-11.076
X-60.436 Y-11.224
X-60.454 Y-11.373
X-60.472 Y-11.522
X-60.486 Y-11.672
X-60.499 Y-11.821
X-60.509 Y-11.971
X-60.516 Y-12.121
X-60.523 Y-12.27
X-60.526 Y-12.42
X-60.527 Y-12.57
X-60.526 Y-12.72
X-60.522 Y-12.87
X-60.516 Y-13.02
X-60.507 Y-13.17
X-60.495 Y-13.319
X-60.481 Y-13.469
X-60.464 Y-13.618
X-60.443 Y-13.766
X-60.419 Y-13.914
X-60.392 Y-14.062
X-60.362 Y-14.209
X-60.327 Y-14.355
X-60.288 Y-14.5
X-60.243 Y-14.643
X-60.193 Y-14.784
X-60.138 Y-14.923
X-60.11 Y-14.983
X-59.996 Y-15.159
X-59.837 Y-15.296
X-59.646 Y-15.383
X-59.438 Y-15.413
X-58.154
G3 X-57.2 Y-14.562 Z-2.323 I-0.035 J0.999
G1 X-57.172 Y-14.38 Z-2.3
X-56.174 Y-7.735
X-56.163 Y-7.621
G3 X-57.128 Y-6.588 Z-2.5 I-0.999 J0.034
G1 X-58.441
X-58.591 Y-6.595
X-58.739 Y-6.62
X-58.884 Y-6.658
X-59.035 Y-6.712
X-59.2 Y-6.787
X-59.377 Y-6.884
X-59.47 Y-6.947
X-59.601 Y-7.04
X-59.748 Y-7.104
X-59.906 Y-7.134
X-60.066 Y-7.13
X-60.222 Y-7.091
X-60.366 Y-7.02
X-60.491 Y-6.919
X-60.534 Y-6.865
X-60.696 Y-6.716
X-60.895 Y-6.62
X-61.112 Y-6.588
G3 X-62.077 Y-7.621 Z-2.3 I0.035 J-0.999
X-61.078 Y-8.587 I0.999 J0.034
G1 X-58.476
G3 X-57.477 Y-7.621 I0 J1
X-58.441 Y-6.588 Z-2.5 I-0.999 J0.034
G1 X-60.988
G3 X-61.936 Y-7.404 Z-2.328 I0.035 J-0.999
G1 X-61.976 Y-7.618 Z-2.3
X-63.205 Y-14.23
X-63.216 Y-14.304
X-63.221 Y-14.379
G3 X-62.257 Y-15.413 Z-2.5 I0.999 J-0.034
G1 X-59.438
G3 X-58.741 Y-15.095 I-0.035 J0.999
G1 X-58.659 Y-15.007 Z-2.493
X-58.578 Y-14.92 Z-2.471
X-58.499 Y-14.836 Z-2.435
X-58.424 Y-14.755 Z-2.385
X-58.354 Y-14.68 Z-2.323
X-58.289 Y-14.61 Z-2.249
X-58.231 Y-14.548 Z-2.163
X-58.18 Y-14.493 Z-2.068
X-58.137 Y-14.448 Z-1.965
X-58.104 Y-14.411 Z-1.855
X-58.079 Y-14.385 Z-1.739
X-58.064 Y-14.369 Z-1.621
X-58.059 Y-14.364 Z-1.5
Z15
(When using Fusion for Personal Use, the feedrate of rapid)
(moves is reduced to match the feedrate of cutting moves,)
(which can increase machining time. Unrestricted rapid moves)
(are available with a Fusion Subscription.)

(2D-Kontur1)
G0 X-61.318 Y1.54
G1 Z15 F1000
Z5
Z0.635 F333.3
Z-0.683
G19 G2 Y1.222 Z-1 J-0.317 K0 F1000
G1 Y0.905
G17 G3 X-61 Y0.587 I0.318 J0
G1 X-1
G2 X0.587 Y-1 I0 J-1.587
G1 Y-21
G2 X-1 Y-22.587 I-1.587 J0
G1 X-61
G2 X-62.588 Y-21 I0 J1.587
G1 Y-1
G2 X-61 Y0.587 I1.588 J0
G3 X-60.682 Y0.905 I0 J0.317
G1 Y1.222
G19 G3 Y1.54 Z-0.683 J0 K0.317
G1 Z5
X-61.318
Z-0.365 F333.3
Z-1.683
G2 Y1.222 Z-2 J-0.317 K0 F1000
G1 Y0.905
G17 G3 X-61 Y0.587 I0.318 J0
G1 X-1
G2 X0.587 Y-1 I0 J-1.587
G1 Y-21
G2 X-1 Y-22.587 I-1.587 J0
G1 X-61
G2 X-62.588 Y-21 I0 J1.587
G1 Y-1
G2 X-61 Y0.587 I1.588 J0
G3 X-60.682 Y0.905 I0 J0.317
G1 Y1.222
G19 G3 Y1.54 Z-1.683 J0 K0.317
G1 Z5
X-61.318
Z-1.365 F333.3
Z-2.683
G2 Y1.222 Z-3 J-0.317 K0 F1000
G1 Y0.905
G17 G3 X-61 Y0.587 I0.318 J0
G1 X-1
G2 X0.587 Y-1 I0 J-1.587
G1 Y-21
G2 X-1 Y-22.587 I-1.587 J0
G1 X-61
G2 X-62.588 Y-21 I0 J1.587
G1 Y-1
G2 X-61 Y0.587 I1.588 J0
G3 X-60.682 Y0.905 I0 J0.317
G1 Y1.222
G19 G3 Y1.54 Z-2.683 J0 K0.318
G1 Z5
X-61.318
Z-2.365 F333.3
Z-3.683
G2 Y1.222 Z-4 J-0.317 K0 F1000
G1 Y0.905
G17 G3 X-61 Y0.587 I0.318 J0
G1 X-1
G2 X0.587 Y-1 I0 J-1.587
G1 Y-21
G2 X-1 Y-22.587 I-1.587 J0
G1 X-61
G2 X-62.588 Y-21 I0 J1.587
G1 Y-1
G2 X-61 Y0.587 I1.588 J0
G3 X-60.682 Y0.905 I0 J0.317
G1 Y1.222
G19 G3 Y1.54 Z-3.683 J0 K0.318
G1 Z5
X-61.318
Z-3.365 F333.3
Z-4.683
G2 Y1.222 Z-5 J-0.317 K0 F1000
G1 Y0.905
G17 G3 X-61 Y0.587 I0.318 J0
G1 X-34.464
Z-4.506
X-28.114
Z-5 F333.3
X-1 F1000
G2 X0.587 Y-1 I0 J-1.587
G1 Y-21
G2 X-1 Y-22.587 I-1.587 J0
G1 X-27.492
Z-4.506
X-33.842
Z-5 F333.3
X-61 F1000
G2 X-62.588 Y-21 I0 J1.587
G1 Y-1
G2 X-61 Y0.587 I1.588 J0
G3 X-60.682 Y0.905 I0 J0.317
G1 Y1.222
G19 G3 Y1.54 Z-4.683 J0 K0.318
G1 Z5
X-61.318
Z-4.365 F333.3
Z-4.983
G2 Y1.222 Z-5.3 J-0.317 K0 F1000
G1 Y0.905
G17 G3 X-61 Y0.587 I0.318 J0
G1 X-34.464
Z-4.506
X-28.114
Z-5.3 F333.3
X-1 F1000
G2 X0.587 Y-1 I0 J-1.587
G1 Y-21
G2 X-1 Y-22.587 I-1.587 J0
G1 X-27.492
Z-4.506
X-33.842
Z-5.3 F333.3
X-61 F1000
G2 X-62.588 Y-21 I0 J1.587
G1 Y-1
G2 X-61 Y0.587 I1.588 J0
G3 X-60.682 Y0.905 I0 J0.317
G1 Y1.222
G19 G3 Y1.54 Z-4.983 J0 K0.318
G1 Z15
G17

M5
M30
