(1001)
(Bearbeiten)
(  Hersteller: ChinaCnc)
(  model: 3040T)
(  description: Generic 3-axis)
(T10  D=3.175 CR=1.587 - ZMIN=-5.285 - Kugelkopffraser)
G90 G94
G17
G21
G28 G91 Z0
G90

(HSC-Kontur2)
T10
S8000 M3
G54
G0 X-48.966 Y47.206
Z15
Z-1.913
G1 Z-3.663 F381
X-48.97 Y47.202 Z-3.726
X-48.982 Y47.188 Z-3.786
X-49.002 Y47.165 Z-3.841
X-49.029 Y47.135 Z-3.89
X-49.062 Y47.098 Z-3.929
X-49.099 Y47.056 Z-3.958
X-49.139 Y47.011 Z-3.975
X-49.205 Y46.937 Z-3.993 F762
X-49.295 Y46.773 Z-4.038
X-49.303 Y46.738 Z-4.048
X-49.32 Y46.609 Z-4.085
Y46.588 Z-4.089
X-49.316 Y46.527 Z-4.09
X-49.31 Y46.445
X-49.318 Y46.281 Z-4.088
X-49.331 Y46.117 Z-4.087
X-49.347 Y45.953 Z-4.092
X-49.364 Y45.789 Z-4.103
X-49.388 Y45.625 Z-4.121
X-49.412 Y45.461 Z-4.14
X-49.429 Y45.297 Z-4.16
X-49.437 Y45.215 Z-4.165
X-49.412 Y45.133 Z-4.17
X-49.35 Y44.969 Z-4.178
X-49.287 Y44.805 Z-4.18
X-49.235 Y44.641 Z-4.172
X-49.191 Y44.477 Z-4.159
X-49.155 Y44.313 Z-4.142
X-49.139 Y44.23 Z-4.128
X-49.124 Y44.149 Z-4.111
X-49.054 Y43.984 Z-4.075
X-48.975 Y43.816 Z-4.04
X-48.915 Y43.656 Z-4.014
X-48.894 Y43.492 Z-3.993
X-48.914 Y43.328 Z-3.979
X-48.975 Y43.159 Z-3.972
X-49.022 Y43.062 Z-3.974
X-49.033 Y43.041
X-49.039 Y43 Z-3.943
X-49.091 Y42.836 Z-3.807
X-49.106 Y42.754 Z-3.761
X-49.111 Y42.672 Z-3.735
X-49.112 Y42.508 Z-3.7
X-49.115 Y42.344 Z-3.681
X-49.124 Y42.18 Z-3.669
X-49.139 Y42.072 Z-3.658
X-49.149 Y42.016 Z-3.653
X-49.181 Y41.852 Z-3.647
X-49.214 Y41.688 Z-3.656
X-49.243 Y41.524 Z-3.682
X-49.239 Y41.36 Z-3.759
X-49.233 Y41.196 Z-3.841
X-49.212 Y41.104 Z-3.903
X-49.208 Y41.094 Z-3.909
X-49.139 Y40.964 Z-3.915
X-49.092 Y40.868 Z-3.921
X-49.043 Y40.704 Z-3.933
X-49.031 Y40.54 Z-3.941
X-49.048 Y40.376 Z-3.931
X-49.051 Y40.294 Z-3.927
X-49.05 Y40.281
X-49.033 Y40.212 Z-3.9
X-48.991 Y40.048 Z-3.844
X-48.87 Y39.884 Z-3.83
X-48.811 Y39.8
X-48.764 Y39.72 Z-3.831
X-48.696 Y39.556
X-48.647 Y39.429 Z-3.836
X-48.633 Y39.392 Z-3.84
X-48.592 Y39.228 Z-3.856
X-48.583 Y39.064 Z-3.864
Y38.9 Z-3.878
X-48.576 Y38.818 Z-3.889
X-48.565 Y38.736
X-48.544 Y38.572 Z-3.879
X-48.512 Y38.408 Z-3.865
X-48.474 Y38.244 Z-3.833
X-48.43 Y38.08 Z-3.81
X-48.383 Y37.916 Z-3.798
X-48.34 Y37.752
X-48.322 Y37.588 Z-3.8
X-48.337 Y37.423 Z-3.801
X-48.364 Y37.259 Z-3.808
X-48.387 Y37.126 Z-3.818
X-48.405 Y36.931 Z-3.796
X-48.402 Y36.767
X-48.409 Y36.603 Z-3.799
X-48.451 Y36.439 Z-3.808
X-48.483 Y36.365 Z-3.81
X-48.535 Y36.275 Z-3.812
X-48.657 Y36.111 Z-3.822
X-48.783 Y35.947 Z-3.847
X-48.811 Y35.887 Z-3.864
X-48.85 Y35.783 Z-3.895
X-48.859 Y35.752 Z-3.903
X-48.872 Y35.701 Z-3.901
X-48.901 Y35.619 Z-3.896
X-48.969 Y35.46 Z-3.885
X-49.037 Y35.291 Z-3.837
X-49.062 Y35.127 Z-3.809
X-49.067 Y34.963 Z-3.801
X-49.04 Y34.799 Z-3.811
X-49.005 Y34.63 Z-3.827
X-48.968 Y34.471 Z-3.807
X-48.94 Y34.307 Z-3.79
X-48.923 Y34.143 Z-3.779
X-48.911 Y33.979 Z-3.773
X-48.931 Y33.815 Z-3.771
X-48.975 Y33.649 Z-3.776
X-49.034 Y33.487 Z-3.791
X-49.088 Y33.354 Z-3.808
X-49.139 Y33.212 Z-3.777
X-49.144 Y33.159 Z-3.77
X-49.139 Y33.06 Z-3.76
X-49.128 Y32.995 Z-3.757
X-49.077 Y32.831 Z-3.762
X-49.047 Y32.667 Z-3.771
X-49.027 Y32.503 Z-3.784
X-49.012 Y32.339 Z-3.803
X-49.014 Y32.293 Z-3.807
X-49.018 Y32.175 Z-3.793
X-49.026 Y32.011 Z-3.778
X-49.021 Y31.847 Z-3.769
X-48.991 Y31.519 Z-3.757
X-48.983 Y31.355 Z-3.755
X-49.006 Y31.191 Z-3.758
X-49.067 Y31.026 Z-3.763
X-49.139 Y30.909 Z-3.771
X-49.171 Y30.862 Z-3.775
X-49.258 Y30.698 Z-3.799
X-49.282 Y30.616 Z-3.816
X-49.29 Y30.575 Z-3.826
X-49.292 Y30.552 Z-3.832
X-49.29 Y30.534 Z-3.829
X-49.221 Y30.351 Z-3.823
X-49.211 Y30.329 Z-3.821
X-49.151 Y30.206 Z-3.804
X-49.139 Y30.18 Z-3.801
X-49.084 Y30.042 Z-3.786
X-49.047 Y29.878 Z-3.766
X-49.002 Y29.714 Z-3.733
X-48.942 Y29.55 Z-3.706
X-48.903 Y29.386 Z-3.688
X-48.875 Y29.222 Z-3.677
X-48.849 Y29.058 Z-3.676
X-48.832 Y28.894 Z-3.683
X-48.816 Y28.73 Z-3.695
X-48.811 Y28.667 Z-3.701
X-48.81 Y28.566 Z-3.713
X-48.811 Y28.546 Z-3.715
X-48.834 Y28.402 Z-3.732
X-48.866 Y28.238 Z-3.754
X-48.906 Y28.074 Z-3.771
X-48.975 Y27.905 Z-3.779
X-49.042 Y27.746 Z-3.79
X-49.115 Y27.582 Z-3.811
X-49.139 Y27.506 Z-3.825
X-49.169 Y27.418 Z-3.842
X-49.195 Y27.242 Z-3.889
X-49.189 Y27.172 Z-3.874
X-49.175 Y27.09 Z-3.86
X-49.139 Y26.953 Z-3.841
X-49.129 Y26.926 Z-3.84
X-49.069 Y26.762 Z-3.837
X-49.011 Y26.598 Z-3.844
X-48.985 Y26.434 Z-3.861
X-48.994 Y26.27 Z-3.878
X-49.018 Y26.106 Z-3.905
X-49.043 Y25.942 Z-3.943
X-49.051 Y25.867 Z-3.962
X-49.06 Y25.778 Z-3.96
X-49.078 Y25.614 Z-3.959
X-49.096 Y25.45 Z-3.961
X-49.107 Y25.286 Z-3.966
X-49.119 Y25.122 Z-3.976
X-49.121 Y24.958 Z-3.991
X-49.12 Y24.794 Z-4.009
X-49.095 Y24.63 Z-4.025
X-49.069 Y24.465 Z-4.038
X-49.029 Y24.301 Z-4.052
X-48.997 Y24.137 Z-4.068
X-48.991 Y23.973 Z-4.084
X-48.987 Y23.809 Z-4.093
X-48.994 Y23.645 Z-4.09
X-49.031 Y23.481 Z-4.078
X-49.072 Y23.317 Z-4.069
X-49.114 Y23.153 Z-4.067
X-49.139 Y23.058 Z-4.07
X-49.157 Y22.989 Z-4.074
X-49.203 Y22.825 Z-4.09
X-49.242 Y22.661 Z-4.116
X-49.246 Y22.579 Z-4.134
X-49.227 Y22.487 Z-4.158
X-49.224 Y22.477 Z-4.159
X-49.205 Y22.415 Z-4.149
X-49.13 Y22.169 Z-4.102
X-49.106 Y22.005 Z-4.079
X-49.104 Y21.841 Z-4.064
X-49.094 Y21.677 Z-4.054
X-49.089 Y21.513 Z-4.049
X-49.115 Y21.349 Z-4.052
X-49.16 Y21.185 Z-4.061
X-49.209 Y21.021 Z-4.077
X-49.234 Y20.857 Z-4.1
X-49.228 Y20.78 Z-4.11
X-49.218 Y20.693 Z-4.108
X-49.201 Y20.529 Z-4.109
X-49.202 Y20.365 Z-4.111
X-49.229 Y20.201 Z-4.113
X-49.259 Y20.037 Z-4.119
X-49.262 Y19.955 Z-4.127
X-49.255 Y19.873 Z-4.132
X-49.239 Y19.709 Z-4.126
X-49.221 Y19.545 Z-4.112
X-49.198 Y19.381 Z-4.083
X-49.17 Y19.217 Z-4.052
X-49.139 Y19.026 Z-4.024
X-49.12 Y18.889 Z-4.01
X-49.089 Y18.643 Z-3.996
X-49.078 Y18.561 Z-3.984
X-49.056 Y18.397 Z-3.958
X-49.034 Y18.233 Z-3.935
X-49.013 Y18.068 Z-3.918
X-49.008 Y17.904 Z-3.91
X-49.037 Y17.74 Z-3.913
X-49.084 Y17.576 Z-3.926
X-49.139 Y17.401 Z-3.944
X-49.202 Y17.248 Z-3.948
X-49.233 Y17.166 Z-3.946
X-49.235 Y17.084 Z-3.947
X-49.231 Y17.002
X-49.205 Y16.92
X-49.139 Y16.816 Z-3.936
X-49.102 Y16.756 Z-3.929
X-49.033 Y16.592 Z-3.912
X-48.988 Y16.428 Z-3.902
X-48.975 Y16.377 Z-3.901
X-48.953 Y16.264 Z-3.9
X-48.949 Y16.1 Z-3.904
X-48.975 Y15.958 Z-3.912
X-48.981 Y15.936 Z-3.913
X-49.04 Y15.772 Z-3.924
X-49.098 Y15.608 Z-3.932
X-49.144 Y15.444 Z-3.928
X-49.18 Y15.28 Z-3.913
X-49.163 Y15.116 Z-3.907
X-49.135 Y14.952 Z-3.903
X-49.106 Y14.788 Z-3.902
X-49.07 Y14.624 Z-3.905
X-48.999 Y14.296 Z-3.92
X-48.975 Y14.15 Z-3.922
X-48.974 Y14.132
X-48.975 Y14.04 Z-3.92
X-48.983 Y13.968 Z-3.918
X-49.013 Y13.804 Z-3.912
X-49.032 Y13.64 Z-3.906
X-49.042 Y13.476 Z-3.9
X-49.033 Y13.312 Z-3.894
X-49.04 Y13.148 Z-3.891
X-49.067 Y12.984
X-49.096 Y12.82 Z-3.896
X-49.125 Y12.656 Z-3.905
X-49.128 Y12.492 Z-3.9
X-49.118 Y12.328 Z-3.884
X-49.108 Y12.164 Z-3.871
X-49.098 Y12 Z-3.861
X-49.089 Y11.836 Z-3.857
X-49.08 Y11.672 Z-3.856
X-49.081 Y11.507 Z-3.86
X-49.093 Y11.179 Z-3.877
X-49.099 Y11.015 Z-3.882
X-49.105 Y10.851 Z-3.872
X-49.071 Y10.687 Z-3.847
X-49.049 Y10.523 Z-3.82
X-49.052 Y10.359 Z-3.798
X-49.055 Y10.195 Z-3.778
X-49.051 Y10.031 Z-3.76
X-49.047 Y9.867 Z-3.745
X-49.042 Y9.703 Z-3.734
X-49.038 Y9.539 Z-3.727
X-49.034 Y9.375 Z-3.725
X-49.051 Y9.211 Z-3.727
X-49.073 Y9.047 Z-3.726
X-49.094 Y8.883 Z-3.714
X-49.115 Y8.719 Z-3.698
X-49.139 Y8.493 Z-3.679
X-49.15 Y8.391 Z-3.672
X-49.168 Y8.227 Z-3.664
X-49.193 Y8.063 Z-3.66
X-49.207 Y7.981 Z-3.659
X-49.211 Y7.94 Z-3.658
X-49.21 Y7.899 Z-3.655
X-49.196 Y7.735 Z-3.619
X-49.169 Y7.571 Z-3.583
X-49.139 Y7.38 Z-3.55
X-49.12 Y7.243 Z-3.532
X-49.125 Y7.079 Z-3.514
X-49.167 Y6.751 Z-3.488
X-49.187 Y6.587 Z-3.477
X-49.184 Y6.259 Z-3.456
X-49.182 Y6.095 Z-3.449
X-49.197 Y5.931 Z-3.446
X-49.225 Y5.767 Z-3.448
X-49.254 Y5.603 Z-3.446
X-49.269 Y5.521 Z-3.441
X-49.265 Y5.439 Z-3.434
X-49.228 Y5.11 Z-3.407
X-49.195 Y4.946 Z-3.394
X-49.165 Y4.782 Z-3.383
X-49.139 Y4.578 Z-3.376
X-49.126 Y4.454 Z-3.373
X-49.134 Y4.29 Z-3.363
X-49.148 Y4.126 Z-3.349
X-49.163 Y3.962 Z-3.34
X-49.176 Y3.798 Z-3.335
X-49.179 Y3.634 Z-3.338
X-49.182 Y3.47 Z-3.347
X-49.169 Y3.306 Z-3.358
X-49.138 Y2.978 Z-3.334
X-49.123 Y2.814 Z-3.327
X-49.124 Y2.65 Z-3.326
X-49.129 Y2.486 Z-3.327
X-49.132 Y2.322 Z-3.322
X-49.121 Y2.158 Z-3.312
X-49.101 Y1.994 Z-3.305
X-49.08 Y1.83 Z-3.3
X-49.06 Y1.666 Z-3.298
X-49.04 Y1.502 Z-3.3
X-49.02 Y1.338 Z-3.306
X-49.001 Y1.174 Z-3.315
X-49.003 Y1.01 Z-3.326
X-49.037 Y0.682 Z-3.344
X-49.055 Y0.518 Z-3.349
X-49.11 Y0.19 Z-3.356
X-49.139 Y0.016 Z-3.363
X-49.163 Y-0.138 Z-3.371
X-49.18 Y-0.302 Z-3.38
X-49.17 Y-0.63 Z-3.392
X-49.163 Y-0.794 Z-3.402
X-49.157 Y-0.958 Z-3.417
X-49.151 Y-1.122 Z-3.435
X-49.139 Y-1.225 Z-3.443
X-49.103 Y-1.451 Z-3.447
X-49.078 Y-1.615 Z-3.452
X-49.053 Y-1.779 Z-3.461
X-49.03 Y-1.943 Z-3.475
X-49.031 Y-2.107 Z-3.493
X-49.052 Y-2.435 Z-3.532
X-49.065 Y-2.599 Z-3.553
X-49.091 Y-2.763 Z-3.575
X-49.12 Y-2.927 Z-3.594
X-49.156 Y-3.091 Z-3.613
X-49.193 Y-3.255 Z-3.635
X-49.209 Y-3.419 Z-3.659
X-49.204 Y-3.583 Z-3.679
X-49.196 Y-3.747 Z-3.693
X-49.192 Y-3.911 Z-3.704
X-49.218 Y-4.075 Z-3.717
X-49.28 Y-4.239 Z-3.733
X-49.353 Y-4.403 Z-3.755
X-49.425 Y-4.567 Z-3.783
X-49.467 Y-4.662 Z-3.802
X-49.492 Y-4.731 Z-3.816
X-49.52 Y-4.895 Z-3.844
X-49.54 Y-5.059 Z-3.862
X-49.523 Y-5.223 Z-3.866
X-49.479 Y-5.551 Z-3.867
X-49.467 Y-5.742 Z-3.876
X-49.462 Y-5.879 Z-3.883
X-49.447 Y-6.207 Z-3.891
X-49.438 Y-6.371 Z-3.892
X-49.426 Y-6.535 Z-3.89
X-49.414 Y-6.699 Z-3.892
X-49.393 Y-6.863 Z-3.896
X-49.375 Y-7.027 Z-3.908
X-49.351 Y-7.191 Z-3.925
X-49.325 Y-7.355 Z-3.94
X-49.299 Y-7.519 Z-3.934
X-49.244 Y-7.683 Z-3.92
X-49.194 Y-7.848 Z-3.908
X-49.177 Y-8.012 Z-3.901
X-49.181 Y-8.176 Z-3.896
X-49.178 Y-8.34 Z-3.89
X-49.146 Y-8.832 Z-3.863
X-49.159 Y-8.996 Z-3.86
X-49.178 Y-9.16 Z-3.861
X-49.196 Y-9.324 Z-3.867
X-49.214 Y-9.488 Z-3.876
X-49.244 Y-9.652 Z-3.891
X-49.278 Y-9.816 Z-3.906
X-49.295 Y-9.898 Z-3.909
X-49.296 Y-10.144 Z-3.906
X-49.303 Y-10.327 Z-3.905
X-49.316 Y-10.472 Z-3.907
X-49.346 Y-10.8 Z-3.919
X-49.367 Y-11.128 Z-3.932
X-49.377 Y-11.292 Z-3.929
X-49.362 Y-11.456 Z-3.919
X-49.342 Y-11.62 Z-3.912
X-49.318 Y-11.784 Z-3.91
X-49.293 Y-11.948 Z-3.915
X-49.271 Y-12.112 Z-3.923
Y-12.276 Z-3.933
X-49.273 Y-12.44 Z-3.942
X-49.274 Y-12.604 Z-3.943
X-49.265 Y-12.768 Z-3.945
X-49.253 Y-12.932 Z-3.947
X-49.242 Y-13.096 Z-3.952
X-49.237 Y-13.424 Z-3.966
X-49.236 Y-13.588 Z-3.973
X-49.24 Y-13.916 Z-3.991
X-49.248 Y-14.08 Z-3.998
X-49.262 Y-14.245 Z-4.002
X-49.303 Y-14.651 Z-4.004
X-49.302 Y-14.737 Z-4.005
X-49.295 Y-14.901 Z-4.009
X-49.287 Y-15.065 Z-4.016
X-49.28 Y-15.229 Z-4.026
X-49.265 Y-15.393 Z-4.038
X-49.224 Y-15.557
X-49.159 Y-15.721 Z-4.013
X-49.082 Y-15.885 Z-3.988
X-49.019 Y-16.049 Z-3.968
X-48.962 Y-16.213 Z-3.953
X-48.907 Y-16.377 Z-3.944
X-48.882 Y-16.541 Z-3.942
X-48.89 Y-16.705 Z-3.944
X-48.923 Y-16.869 Z-3.952
X-48.956 Y-17.033 Z-3.965
X-48.989 Y-17.197 Z-3.984
X-49.011 Y-17.361 Z-4.005
X-49.026 Y-17.525 Z-4.025
X-49.043 Y-17.689 Z-4.038
X-49.063 Y-17.853 Z-4.049
X-49.095 Y-18.017 Z-4.064
X-49.139 Y-18.243 Z-4.094
X-49.159 Y-18.345 Z-4.109
X-49.191 Y-18.509 Z-4.128
X-49.206 Y-18.673 Z-4.146
X-49.198 Y-18.837 Z-4.161
X-49.169 Y-19.165 Z-4.174
X-49.154 Y-19.329 Z-4.183
X-49.125 Y-19.657 Z-4.204
X-49.11 Y-19.821 Z-4.206
X-49.111 Y-19.985 Z-4.209
X-49.129 Y-20.149 Z-4.215
X-49.147 Y-20.313 Z-4.226
X-49.165 Y-20.477 Z-4.241
X-49.169 Y-20.641 Z-4.257
X-49.171 Y-20.806 Z-4.269
X-49.17 Y-20.97 Z-4.275
X-49.125 Y-21.298 Z-4.276
X-49.091 Y-21.462 Z-4.282
X-49.064 Y-21.626 Z-4.295
X-49.066 Y-21.79 Z-4.311
X-49.074 Y-21.954 Z-4.329
X-49.068 Y-22.118 Z-4.347
X-49.057 Y-22.282 Z-4.357
X-49.026 Y-22.61 Z-4.358
X-49.011 Y-22.774 Z-4.361
X-48.997 Y-22.938 Z-4.366
X-48.983 Y-23.102 Z-4.367
X-48.975 Y-23.192 Z-4.363
X-48.966 Y-23.266 Z-4.359
X-48.905 Y-23.594 Z-4.345
X-48.875 Y-23.758 Z-4.342
X-48.846 Y-23.922
X-48.835 Y-24.086
X-48.829 Y-24.25 Z-4.345
X-48.823 Y-24.414 Z-4.351
X-48.831 Y-24.578 Z-4.357
X-48.855 Y-24.742 Z-4.361
X-48.88 Y-24.906 Z-4.36
X-48.886 Y-25.07 Z-4.356
X-48.889 Y-25.234 Z-4.354
X-48.907 Y-25.398 Z-4.355
X-48.934 Y-25.562 Z-4.363
X-48.975 Y-25.809 Z-4.38
X-48.984 Y-25.89 Z-4.384
X-48.973 Y-26.054 Z-4.39
X-48.962 Y-26.218 Z-4.393
X-48.928 Y-26.71 Z-4.395
X-48.925 Y-26.874 Z-4.393
X-48.93 Y-27.038 Z-4.388
X-48.926 Y-27.203 Z-4.389
X-48.912 Y-27.531 Z-4.39
X-48.905 Y-27.695 Z-4.394
X-48.899 Y-27.859 Z-4.401
X-48.893 Y-28.023 Z-4.404
X-48.886 Y-28.187 Z-4.397
X-48.898 Y-28.351 Z-4.384
X-48.938 Y-28.679 Z-4.356
X-48.958 Y-28.843 Z-4.347
X-48.979 Y-29.007 Z-4.342
X-49.022 Y-29.335
X-49.017 Y-29.827 Z-4.347
X-49.019 Y-30.155 Z-4.353
X-49.018 Y-30.319 Z-4.352
X-48.975 Y-30.491 Z-4.344
X-48.923 Y-30.647 Z-4.333
X-48.868 Y-30.811 Z-4.325
X-48.826 Y-30.975 Z-4.322
X-48.82 Y-31.139 Z-4.323
X-48.848 Y-31.303 Z-4.325
X-48.91 Y-31.467 Z-4.329
X-48.975 Y-31.633 Z-4.335
X-48.993 Y-31.713
X-49.008 Y-31.795 Z-4.328
X-49.024 Y-31.959 Z-4.319
X-49.028 Y-32.123
X-49.018 Y-32.214 Z-4.322
X-48.986 Y-32.451 Z-4.285
X-48.966 Y-32.615 Z-4.264
X-48.946 Y-32.779 Z-4.25
X-48.927 Y-32.943 Z-4.239
X-48.907 Y-33.107 Z-4.225
X-48.895 Y-33.435 Z-4.189
X-48.889 Y-33.599 Z-4.174
X-48.873 Y-33.764 Z-4.161
X-48.827 Y-33.928 Z-4.141
X-48.811 Y-33.973 Z-4.135
X-48.774 Y-34.092 Z-4.119
X-48.742 Y-34.256 Z-4.099
X-48.711 Y-34.42 Z-4.085
X-48.701 Y-34.584 Z-4.075
X-48.727 Y-34.748 Z-4.064
X-48.766 Y-35.076 Z-4.052
X-48.779 Y-35.24 Z-4.043
X-48.784 Y-35.404 Z-4.028
X-48.788 Y-35.568 Z-4.011
X-48.794 Y-35.732 Z-3.996
X-48.802 Y-35.896 Z-3.986
X-48.818 Y-36.224 Z-3.971
X-48.825 Y-36.388 Z-3.958
X-48.83 Y-36.552 Z-3.944
X-48.832 Y-36.716 Z-3.934
X-48.834 Y-36.88 Z-3.928
X-48.837 Y-37.044 Z-3.926
X-48.854 Y-37.208 Z-3.925
X-48.878 Y-37.372 Z-3.927
X-48.903 Y-37.536 Z-3.931
X-48.94 Y-37.864 Z-3.948
X-48.945 Y-38.028 Z-3.955
X-48.924 Y-38.192 Z-3.953
X-48.898 Y-38.356 Z-3.949
X-48.882 Y-38.52 Z-3.948
X-48.877 Y-38.684 Z-3.953
X-48.872 Y-38.848 Z-3.963
X-48.867 Y-39.176 Z-3.988
X-48.856 Y-39.668 Z-4.01
X-48.853 Y-39.832 Z-4.02
X-48.85 Y-39.996 Z-4.036
X-48.852 Y-40.161 Z-4.057
X-48.855 Y-40.325 Z-4.084
X-48.863 Y-40.653 Z-4.142
X-48.867 Y-40.817 Z-4.168
X-48.861 Y-40.981 Z-4.194
X-48.85 Y-41.145 Z-4.222
X-48.84 Y-41.309 Z-4.253
X-48.83 Y-41.473 Z-4.287
X-48.811 Y-41.801 Z-4.359
X-48.801 Y-41.965 Z-4.391
X-48.806 Y-42.293 Z-4.449
X-48.811 Y-42.621 Z-4.512
X-48.813 Y-42.785 Z-4.54
X-48.817 Y-43.277 Z-4.611
X-48.819 Y-43.441 Z-4.633
X-48.82 Y-43.769 Z-4.67
X-48.818 Y-43.933 Z-4.687
X-48.809 Y-44.097 Z-4.704
X-48.798 Y-44.261 Z-4.718
X-48.788 Y-44.425 Z-4.728
X-48.767 Y-44.753 Z-4.743
X-48.774 Y-44.917 Z-4.751
X-48.784 Y-45.081 Z-4.759
X-48.794 Y-45.245 Z-4.763
X-48.797 Y-45.409 Z-4.765
X-48.793 Y-45.573 Z-4.763
X-48.786 Y-45.901 Z-4.755
X-48.811 Y-46.293 Z-4.746
X-48.817 Y-46.393 Z-4.742
X-48.821 Y-46.557 Z-4.732
X-48.811 Y-46.734 Z-4.717
X-48.801 Y-46.803 Z-4.71
X-48.768 Y-46.886 Z-4.705
X-48.716 Y-46.966 Z-4.703
X-48.58 Y-47.05 Z-4.713
X-48.483 Y-47.1 Z-4.724
X-48.319 Y-47.102 Z-4.746
X-48.155 Y-47.098 Z-4.764
X-47.991 Y-47.081 Z-4.777
X-47.827 Y-47.063 Z-4.786
X-47.663 Y-47.046 Z-4.791
X-47.489 Y-47.05 Z-4.792
X-47.171 Y-47.069 Z-4.79
X-47.007 Y-47.077 Z-4.789
X-46.843 Y-47.085 Z-4.784
X-46.679 Y-47.092 Z-4.775
X-46.515 Y-47.099 Z-4.764
X-46.023 Y-47.058 Z-4.731
X-45.859 Y-47.057 Z-4.719
X-45.695 Y-47.069 Z-4.704
X-45.203 Y-47.105 Z-4.654
X-45.039 Y-47.117 Z-4.639
X-44.875 Y-47.128 Z-4.617
X-44.711 Y-47.109 Z-4.585
X-44.547 Y-47.084 Z-4.554
X-44.383 Y-47.06 Z-4.528
X-44.219 Y-47.05 Z-4.502
X-44.055 Y-47.044 Z-4.478
X-43.727 Y-47.035 Z-4.435
X-43.235 Y-47.022 Z-4.376
X-43.071 Y-47.027 Z-4.359
X-42.882 Y-47.05 Z-4.341
X-42.579 Y-47.086 Z-4.321
X-42.415 Y-47.106 Z-4.311
X-42.251 Y-47.123 Z-4.301
X-41.923 Y-47.128 Z-4.287
X-41.595 Y-47.135 Z-4.28
X-41.103 Y-47.146 Z-4.282
X-40.939 Y-47.141 Z-4.283
X-40.775 Y-47.124 Z-4.286
X-40.611 Y-47.123 Z-4.289
X-40.447 Y-47.139 Z-4.294
X-40.119 Y-47.172 Z-4.309
X-39.791 Y-47.204 Z-4.326
X-39.627 Y-47.209 Z-4.331
X-39.299 Y-47.22 Z-4.333
X-38.807 Y-47.207 Z-4.338
X-38.633 Y-47.214 Z-4.34
X-38.479 Y-47.228 Z-4.345
X-38.315 Y-47.247 Z-4.356
X-38.151 Y-47.284 Z-4.373
X-37.987 Y-47.322 Z-4.395
X-37.751 Y-47.378 Z-4.435
X-37.495 Y-47.438 Z-4.484
X-37.331 Y-47.465 Z-4.512
X-37.167 Y-47.438 Z-4.52
X-36.951 Y-47.378 Z-4.505
X-36.511 Y-47.253 Z-4.47
X-36.347 Y-47.208 Z-4.46
X-36.183 Y-47.162 Z-4.453
X-36.019 Y-47.136 Z-4.446
X-35.527 Y-47.13 Z-4.42
X-35.363 Y-47.131 Z-4.412
X-35.199 Y-47.16 Z-4.404
X-35.035 Y-47.197 Z-4.399
X-34.871 Y-47.234 Z-4.4
X-34.543 Y-47.309 Z-4.413
X-34.379 Y-47.316 Z-4.408
X-33.887 Y-47.313 Z-4.368
X-33.723 Y-47.283 Z-4.353
X-33.559 Y-47.245 Z-4.338
X-33.395 Y-47.208 Z-4.326
X-33.231 Y-47.186 Z-4.32
X-33.067 Y-47.191 Z-4.318
X-32.739 Y-47.204 Z-4.322
X-32.575 Y-47.198 Z-4.314
X-32.247 Y-47.169 Z-4.298
X-32.083 Y-47.146 Z-4.291
X-31.755 Y-47.092 Z-4.263
X-31.591 Y-47.069 Z-4.253
X-31.386 Y-47.05 Z-4.246
X-31.099 Y-47.023 Z-4.248
X-30.935 Y-47.02
X-30.721 Y-47.05 Z-4.241
X-30.607 Y-47.066 Z-4.238
X-30.443 Y-47.091 Z-4.237
X-30.279 Y-47.106 Z-4.24
X-30.115 Y-47.112 Z-4.242
X-29.951 Y-47.117 Z-4.238
X-29.787 Y-47.114 Z-4.234
X-29.459 Y-47.099 Z-4.231
X-29.295 Y-47.096 Z-4.23
X-28.967 Y-47.127 Z-4.224
X-28.803 Y-47.144 Z-4.225
X-28.639 Y-47.16 Z-4.232
X-28.311 Y-47.195 Z-4.256
X-28.147 Y-47.209 Z-4.262
X-27.819 Y-47.22 Z-4.268
X-27.655 Y-47.226 Z-4.275
X-27.491 Y-47.241 Z-4.285
X-27.327 Y-47.258 Z-4.298
X-27.163 Y-47.276 Z-4.313
X-26.999 Y-47.293 Z-4.331
X-26.835 Y-47.303 Z-4.35
X-26.671 Y-47.307 Z-4.368
X-26.507 Y-47.299 Z-4.381
X-26.343 Y-47.282 Z-4.387
X-25.851 Y-47.232 Z-4.392
X-25.523 Y-47.198 Z-4.4
X-25.031 Y-47.148 Z-4.418
X-24.867 Y-47.125 Z-4.426
X-24.703 Y-47.102 Z-4.437
X-24.539 Y-47.08 Z-4.451
X-24.375 Y-47.062 Z-4.466
X-24.211 Y-47.068 Z-4.481
X-24.047 Y-47.077 Z-4.494
X-23.883 Y-47.085 Z-4.5
X-23.555 Y-47.102 Z-4.499
X-23.391 Y-47.11 Z-4.503
X-23.227 Y-47.119 Z-4.511
X-22.735 Y-47.143 Z-4.549
X-22.571 Y-47.151 Z-4.555
X-22.243 Y-47.164 Z-4.55
X-22.079 Y-47.168 Z-4.549
X-21.586 Y-47.158 Z-4.55
X-20.438 Y-47.135 Z-4.562
X-19.946 Y-47.126 Z-4.575
X-19.782 Y-47.121 Z-4.578
X-19.618 Y-47.115 Z-4.576
X-19.29 Y-47.102 Z-4.561
X-19.126 Y-47.096 Z-4.556
X-18.962 Y-47.091 Z-4.557
X-18.798 Y-47.087 Z-4.562
X-18.634 Y-47.106 Z-4.569
X-18.47 Y-47.129 Z-4.583
X-18.306 Y-47.153 Z-4.601
X-18.142 Y-47.167 Z-4.618
X-17.978 Y-47.168 Z-4.614
X-17.814 Y-47.17 Z-4.603
X-17.486 Y-47.186 Z-4.579
X-17.322 Y-47.194 Z-4.572
X-16.958 Y-47.214 Z-4.56
X-16.911 Z-4.558
X-16.83 Y-47.2 Z-4.557
X-16.666 Y-47.174 Z-4.558
X-16.502 Y-47.153 Z-4.564
X-16.338 Y-47.164 Z-4.57
X-16.174 Y-47.196 Z-4.582
X-16.01 Y-47.229 Z-4.6
X-15.846 Y-47.242 Z-4.602
X-15.518 Y-47.257 Z-4.594
X-15.19 Z-4.588
X-15.026 Y-47.258 Z-4.583
X-14.862 Y-47.25 Z-4.578
X-14.698 Y-47.238 Z-4.575
X-14.534 Y-47.226 Z-4.574
X-14.37 Y-47.218 Z-4.577
X-14.206 Y-47.236 Z-4.582
X-14.042 Y-47.259 Z-4.589
X-13.878 Y-47.281 Z-4.599
X-13.714 Y-47.293 Z-4.611
X-13.55 Y-47.291 Z-4.624
X-13.386 Y-47.288 Z-4.635
X-12.894 Y-47.282 Z-4.654
X-12.402 Y-47.275 Z-4.693
X-12.238 Y-47.273 Z-4.7
X-12.074 Y-47.278 Z-4.708
X-11.91 Y-47.29 Z-4.72
X-11.746 Y-47.302 Z-4.738
X-11.582 Y-47.314 Z-4.759
X-11.418 Y-47.318 Z-4.78
X-10.926 Y-47.33 Z-4.838
X-10.762 Y-47.326 Z-4.858
X-10.598 Y-47.309 Z-4.876
X-10.106 Y-47.259 Z-4.913
X-9.942 Y-47.247 Z-4.926
X-9.778 Y-47.239 Z-4.936
X-9.45 Y-47.224 Z-4.95
X-9.286 Y-47.23 Z-4.957
X-9.122 Y-47.243 Z-4.966
X-8.794 Y-47.268 Z-4.99
X-8.302 Y-47.306 Z-5.034
X-8.138 Y-47.295 Z-5.046
X-7.974 Y-47.283 Z-5.055
X-7.81 Y-47.272 Z-5.061
X-7.318 Y-47.238 Z-5.069
X-7.154 Y-47.232 Z-5.072
X-6.662 Y-47.258 Z-5.088
X-6.498 Y-47.267 Z-5.093
X-6.334 Y-47.276 Z-5.096
X-6.17 Y-47.284 Z-5.094
X-6.006 Y-47.288 Z-5.09
X-5.514 Y-47.281 Z-5.082
X-4.694 Y-47.269 Z-5.079
X-4.53 Y-47.267 Z-5.08
X-4.366 Y-47.268 Z-5.082
X-3.874 Y-47.292 Z-5.086
X-3.382 Y-47.315 Z-5.08
X-3.218 Y-47.326 Z-5.081
X-3.054 Y-47.345 Z-5.086
X-2.89 Y-47.35 Z-5.09
X-2.726 Y-47.317 Z-5.082
X-2.562 Y-47.279 Z-5.074
X-2.398 Y-47.242 Z-5.072
X-2.234 Y-47.22 Z-5.077
X-2.07 Y-47.218 Z-5.088
X-1.816 Y-47.214 Z-5.113
X-1.742 Y-47.212 Z-5.121
X-1.607 Y-47.214 Z-5.136
X-1.414 Y-47.229 Z-5.154
X-1.25 Y-47.242 Z-5.161
X-1.086 Y-47.255 Z-5.163
X-0.922 Y-47.254 Z-5.161
X-0.594 Y-47.249 Z-5.151
X-0.43 Y-47.256 Z-5.145
X-0.266 Y-47.268 Z-5.14
X-0.102 Y-47.28 Z-5.137
X0.062 Y-47.287 Z-5.135
X0.226 Y-47.281 Z-5.131
X0.554 Y-47.269 Z-5.119
X0.718 Y-47.262 Z-5.117
X1.046 Y-47.25 Z-5.123
X1.21 Y-47.247 Z-5.126
X1.374 Y-47.245 Z-5.125
X2.03 Y-47.239 Z-5.112
X2.358 Y-47.236
X2.522 Y-47.234 Z-5.115
X3.014 Y-47.219 Z-5.129
X3.342 Y-47.21 Z-5.135
X3.67 Y-47.211 Z-5.137
X3.998 Z-5.129
X4.326 Y-47.212 Z-5.12
X4.49 Y-47.215 Z-5.118
X4.654 Y-47.229 Z-5.117
X4.982 Y-47.258 Z-5.122
X5.146 Y-47.263 Z-5.125
X5.966 Y-47.273 Z-5.136
X6.622 Y-47.282 Z-5.151
X7.114 Y-47.289 Z-5.159
X7.442 Y-47.294 Z-5.158
X8.262 Y-47.306 Z-5.151
X8.59 Y-47.295 Z-5.147
X9.082 Y-47.276
X9.41 Y-47.264 Z-5.149
X9.902 Y-47.245 Z-5.145
X10.23 Y-47.242 Z-5.142
X10.722 Y-47.239 Z-5.134
X11.05 Y-47.237 Z-5.137
X11.378 Y-47.228 Z-5.141
X12.034 Y-47.211 Z-5.132
X12.198 Y-47.208 Z-5.131
X12.526 Y-47.218 Z-5.134
X13.182 Y-47.237 Z-5.153
X13.346 Y-47.24 Z-5.156
X15.642 Y-47.215 Z-5.178
X15.97 Y-47.211 Z-5.184
X16.343 Y-47.214 Z-5.192
X16.954 Y-47.221 Z-5.197
X17.282 Y-47.225 Z-5.204
X17.446 Y-47.229 Z-5.208
X17.61 Y-47.247 Z-5.211
X17.774 Y-47.269 Z-5.215
X17.938 Y-47.295 Z-5.22
X18.102 Y-47.319 Z-5.227
X18.182 Y-47.327 Z-5.229
X18.266 Y-47.316 Z-5.196
X18.43 Y-47.293 Z-5.134
X18.594 Y-47.255 Z-5.086
X18.676 Y-47.231 Z-5.067
X18.997 Y-47.05 Z-5.041
X19.086 Y-47.002 Z-5.03
X19.25 Y-46.947 Z-5
X19.414 Y-46.93 Z-4.966
X19.578 Y-46.949 Z-4.932
X19.742 Y-46.996 Z-4.902
X19.906 Y-47.037 Z-4.882
X20.07 Y-47.066 Z-4.87
X20.234 Y-47.096 Z-4.865
X20.562 Y-47.157 Z-4.864
X20.89 Y-47.175 Z-4.862
X21.054 Y-47.178
X21.382 Y-47.149 Z-4.863
X21.71 Y-47.12 Z-4.855
X22.038 Y-47.089 Z-4.844
X22.366 Y-47.021 Z-4.837
X22.448 Y-47.005
X22.53 Y-46.971 Z-4.84
X22.729 Y-46.886 Z-4.852
X22.858 Y-46.831 Z-4.864
X23.022 Y-46.763 Z-4.886
X23.186 Y-46.696 Z-4.915
X23.35 Y-46.635 Z-4.949
X23.514 Y-46.608 Z-4.978
X23.678 Y-46.613 Z-4.998
X23.842 Y-46.626 Z-5.02
X24.006 Y-46.659 Z-5.04
X24.154 Y-46.722 Z-5.048
X24.498 Y-46.932 Z-5.045
X24.826 Y-47.133 Z-5.038
X24.917 Y-47.189 Z-5.037
X24.99 Y-47.215 Z-5.045
X25.154 Y-47.247 Z-5.08
X25.318 Y-47.263 Z-5.123
X25.554 Y-47.285 Z-5.187
X25.81 Y-47.28 Z-5.182
X25.974 Y-47.27 Z-5.179
X26.138 Y-47.263 Z-5.176
X26.302 Y-47.261 Z-5.172
X26.794 Y-47.275 Z-5.163
X27.122 Y-47.285 Z-5.161
X27.614 Y-47.273 Z-5.156
X28.434 Y-47.252 Z-5.143
X28.762 Y-47.244 Z-5.137
X29.254 Y-47.232
X29.419 Y-47.233 Z-5.136
X29.747 Y-47.253 Z-5.134
X29.911 Y-47.263 Z-5.135
X30.075 Y-47.261
X30.567 Y-47.257 Z-5.119
X31.223 Y-47.251 Z-5.109
X31.387 Z-5.108
X31.551 Y-47.262 Z-5.109
X31.636 Y-47.27 Z-5.111
X31.715 Y-47.261 Z-5.057
X31.879 Y-47.242 Z-4.953
X32.043 Y-47.257 Z-4.863
X32.207 Y-47.289 Z-4.782
X32.371 Y-47.358 Z-4.711
X32.409 Y-47.378 Z-4.697
X32.535 Y-47.441 Z-4.655
X32.699 Y-47.507 Z-4.616
X32.791 Y-47.542 Z-4.6
X32.863 Y-47.562 Z-4.593
X33.027 Y-47.602 Z-4.587
X33.191 Y-47.628 Z-4.595
X33.355 Y-47.635 Z-4.617
X33.406 Y-47.634 Z-4.627
X33.437 Y-47.632 Z-4.625
X33.519 Y-47.623 Z-4.617
X33.683 Y-47.578 Z-4.597
X33.847 Y-47.53 Z-4.577
X34.011 Y-47.481 Z-4.561
X34.175 Y-47.437 Z-4.55
X34.339 Y-47.424 Z-4.545
X34.503 Y-47.445 Z-4.544
X34.667 Y-47.48
X34.831 Y-47.503 Z-4.543
X34.995 Y-47.494 Z-4.536
X35.323 Y-47.458 Z-4.518
X35.487 Y-47.425 Z-4.51
X35.651 Y-47.372 Z-4.503
X35.815 Y-47.324 Z-4.496
X35.979 Y-47.307 Z-4.486
X36.143 Z-4.477
X36.307 Z-4.471
X36.471 Z-4.469
X36.799 Y-47.306
X37.127 Y-47.304 Z-4.463
X37.455 Y-47.302 Z-4.464
X37.619 Y-47.301 Z-4.458
X37.783 Y-47.299 Z-4.444
X37.947 Y-47.27 Z-4.432
X38.111 Y-47.21 Z-4.426
X38.275 Y-47.154 Z-4.423
X38.439 Y-47.129 Z-4.418
X38.603 Y-47.118 Z-4.407
X38.767 Y-47.11 Z-4.395
X38.931 Y-47.119 Z-4.381
X39.095 Y-47.128 Z-4.37
X39.259 Y-47.138 Z-4.363
X39.423 Y-47.148 Z-4.359
X39.751 Y-47.168 Z-4.358
X39.915 Y-47.17 Z-4.354
X40.243 Y-47.147 Z-4.344
X40.735 Y-47.114 Z-4.34
X40.899 Y-47.103 Z-4.337
X41.063 Y-47.107 Z-4.335
X41.227 Y-47.137
X41.391 Y-47.169 Z-4.343
X41.614 Y-47.214 Z-4.358
X41.719 Y-47.228 Z-4.365
X42.047 Y-47.268 Z-4.38
X42.211 Y-47.28 Z-4.389
X42.539 Y-47.288 Z-4.412
X42.703 Y-47.276 Z-4.425
X42.867 Y-47.258 Z-4.438
X43.031 Y-47.24 Z-4.449
X43.195 Y-47.228 Z-4.458
X43.359 Y-47.224 Z-4.468
X43.523 Y-47.22 Z-4.483
X43.687 Y-47.217 Z-4.502
X44.015 Y-47.21 Z-4.55
X44.179 Y-47.206 Z-4.567
X44.343 Z-4.579
X44.835 Y-47.22 Z-4.608
X45.327 Y-47.234 Z-4.642
X45.491 Y-47.241 Z-4.652
X45.655 Y-47.252 Z-4.66
X45.819 Y-47.262 Z-4.665
X45.983 Y-47.272
X46.311 Y-47.27 Z-4.652
X46.475 Z-4.647
X46.639 Y-47.273 Z-4.644
X47.131 Y-47.287 Z-4.647
X47.295 Y-47.292 Z-4.645
X47.459 Y-47.297 Z-4.636
X47.623 Y-47.302 Z-4.624
X47.951 Y-47.312 Z-4.591
X48.178 Y-47.214 Z-4.563
X48.279 Y-47.169 Z-4.549
X48.443 Y-47.084 Z-4.526
X48.607 Y-46.973 Z-4.497
X48.657 Y-46.934 Z-4.488
X48.75 Y-46.763 Z-4.47
X48.771 Y-46.439 Z-4.463
X48.796 Y-46.065 Z-4.462
X48.805 Y-45.901 Z-4.451
X48.799 Y-45.737 Z-4.437
X48.79 Y-45.573 Z-4.424
X48.753 Y-44.917 Z-4.381
X48.746 Y-44.753 Z-4.37
X48.756 Y-44.589 Z-4.358
X48.797 Y-44.097 Z-4.327
X48.816 Y-43.933 Z-4.311
X48.822 Y-43.851 Z-4.3
X48.79 Y-43.605 Z-4.272
X48.77 Y-43.441 Z-4.257
X48.75 Y-43.277 Z-4.245
X48.734 Y-43.113 Z-4.234
X48.743 Y-42.949 Z-4.219
X48.754 Y-42.785 Z-4.204
X48.771 Y-42.564 Z-4.19
X48.776 Y-42.457 Z-4.187
X48.779 Y-42.293
X48.783 Y-42.129 Z-4.19
X48.786 Y-41.965
X48.792 Y-41.637 Z-4.178
X48.795 Y-41.473 Z-4.175
X48.808 Y-41.309 Z-4.172
X48.838 Y-41.145 Z-4.159
X48.868 Y-40.981 Z-4.143
X48.899 Y-40.817 Z-4.132
X48.915 Y-40.653 Z-4.13
X48.929 Y-40.489 Z-4.135
X48.935 Y-40.429 Z-4.138
X48.939 Y-40.325 Z-4.146
X48.935 Y-40.279 Z-4.149
X48.922 Y-40.161
X48.884 Y-39.832 Z-4.129
X48.887 Y-39.668 Z-4.116
X48.894 Y-39.504 Z-4.101
X48.902 Y-39.34 Z-4.089
X48.91 Y-39.176 Z-4.08
X48.919 Y-39.012 Z-4.074
X48.909 Y-38.848 Z-4.075
X48.88 Y-38.52 Z-4.087
X48.866 Y-38.356 Z-4.089
X48.819 Y-37.864 Z-4.081
X48.788 Y-37.536
X48.771 Y-37.344
X48.758 Y-37.208 Z-4.08
X48.745 Y-37.044 Z-4.074
X48.759 Y-36.88 Z-4.066
X48.771 Y-36.824 Z-4.062
X48.798 Y-36.716 Z-4.058
X48.837 Y-36.552 Z-4.055
X48.871 Y-36.388 Z-4.053
X48.904 Y-36.224 Z-4.042
X48.934 Y-36.06 Z-4.035
X48.944 Y-35.896
X48.955 Y-35.732 Z-4.043
X48.966 Y-35.568 Z-4.061
X48.978 Y-35.322 Z-4.103
X48.982 Y-35.255 Z-4.115
X48.985 Y-35.158 Z-4.11
X48.942 Y-34.912 Z-4.101
X48.94 Y-34.748 Z-4.094
X48.998 Y-34.256 Z-4.072
X49.022 Y-34.092 Z-4.067
X49.058 Y-33.928 Z-4.061
X49.099 Y-33.743 Z-4.051
X49.117 Y-33.599 Z-4.042
X49.098 Y-33.435 Z-4.038
X49.044 Y-33.107 Z-4.03
X49.018 Y-32.943 Z-4.029
X48.992 Y-32.779 Z-4.031
X48.975 Y-32.615 Z-4.036
X48.982 Y-32.123 Z-4.057
X48.955 Y-31.959 Z-4.06
X48.935 Y-31.859 Z-4.055
X48.922 Y-31.795 Z-4.049
X48.889 Y-31.631 Z-4.024
X48.873 Y-31.467 Z-3.997
X48.861 Y-31.303 Z-3.976
X48.862 Y-31.139 Z-3.962
X48.875 Y-30.975 Z-3.956
X48.887 Y-30.811 Z-3.958
X48.889 Y-30.647 Z-3.968
X48.884 Y-30.565 Z-3.971
X48.872 Y-30.319 Z-3.951
X48.876 Y-30.155 Z-3.94
X48.904 Y-29.991 Z-3.933
X48.935 Y-29.815 Z-3.931
X48.955 Y-29.663
X48.985 Y-29.335 Z-3.932
X48.996 Y-29.171 Z-3.934
X49.013 Y-28.679 Z-3.946
X49.024 Y-28.351 Z-3.951
X49.029 Y-28.187 Z-3.957
X49.035 Y-27.695 Z-3.984
X49.036 Y-27.531 Z-3.991
X49.034 Y-27.367 Z-3.996
X49.025 Y-27.285
X49.016 Y-27.203 Z-3.989
X48.997 Y-27.038 Z-3.966
X48.978 Y-26.874 Z-3.95
X48.961 Y-26.71 Z-3.942
X48.96 Y-26.546 Z-3.941
X48.962 Y-26.382 Z-3.95
X48.966 Y-26.054 Z-3.982
X48.957 Y-25.89 Z-3.972
X48.93 Y-25.562 Z-3.944
X48.916 Y-25.398 Z-3.933
X48.903 Y-25.234 Z-3.927
X48.89 Y-25.07 Z-3.924
X48.866 Y-24.742 Z-3.921
X48.864 Y-24.578 Z-3.914
X48.861 Y-24.414 Z-3.901
X48.859 Y-24.25 Z-3.891
X48.857 Y-24.086 Z-3.887
X48.864 Y-23.922 Z-3.891
X48.879 Y-23.758 Z-3.905
X48.894 Y-23.594 Z-3.928
X48.922 Y-23.43 Z-3.958
X48.982 Y-23.184 Z-4.01
X49 Y-23.102 Z-4.014
X49.027 Y-22.938 Z-4.007
X49.04 Y-22.774 Z-3.997
X49.043 Y-22.61 Z-3.991
X49.047 Y-22.446 Z-3.989
X49.051 Y-22.282 Z-3.99
X49.061 Y-21.79 Z-4.002
X49.06 Y-21.626 Z-4.003
X49.058 Y-21.462 Z-4
X49.056 Y-20.97 Z-3.974
X49.076 Y-20.806 Z-3.97
X49.105 Y-20.641 Z-3.971
X49.134 Y-20.477 Z-3.977
X49.16 Y-20.313 Z-3.989
X49.179 Y-20.108 Z-4.008
X49.182 Y-20.067
X49.187 Y-19.985 Z-4.003
X49.171 Y-19.903 Z-3.998
X49.104 Y-19.657 Z-3.97
X49.099 Y-19.646 Z-3.969
X49.005 Y-19.493 Z-3.956
X48.935 Y-19.355 Z-3.951
X48.859 Y-19.165 Z-3.95
X48.826 Y-19.001 Z-3.949
X48.828 Y-18.837 Z-3.943
X48.882 Y-18.509 Z-3.91
X48.911 Y-18.345 Z-3.9
X48.942 Y-18.181 Z-3.896
X48.973 Y-18.017 Z-3.898
X49.004 Y-17.853 Z-3.906
X49.022 Y-17.689 Z-3.911
X48.992 Y-17.361 Z-3.903
X48.977 Y-17.197 Z-3.902
X48.98 Y-17.033
X48.993 Y-16.869
X49.012 Y-16.705 Z-3.904
X49.05 Y-16.541 Z-3.908
X49.099 Y-16.34 Z-3.917
X49.11 Y-16.213 Z-3.923
X49.109 Y-16.049 Z-3.928
X49.091 Y-15.885 Z-3.931
X49.072 Y-15.721 Z-3.927
X49.053 Y-15.557 Z-3.922
X49.046 Y-15.393 Z-3.918
X49.041 Y-15.229 Z-3.917
X49.037 Y-15.065 Z-3.921
X49.033 Y-14.901 Z-3.928
X49.028 Y-14.737 Z-3.93
X49.016 Y-14.409 Z-3.917
X49.002 Y-14.245 Z-3.915
X48.989 Y-14.08 Z-3.918
X48.976 Y-13.916 Z-3.923
X48.972 Y-13.752 Z-3.927
X48.973 Y-13.588 Z-3.93
X48.975 Y-13.424 Z-3.928
Y-13.26 Z-3.924
X48.943 Y-12.768 Z-3.91
X48.944 Y-12.604 Z-3.907
X48.949 Y-12.44 Z-3.908
X48.959 Y-12.112 Z-3.918
X48.964 Y-11.948 Z-3.92
X48.959 Y-11.784 Z-3.919
X48.92 Y-11.128 Z-3.906
X48.922 Y-10.964 Z-3.904
X48.938 Y-10.8
X48.954 Y-10.636 Z-3.907
X48.971 Y-10.472 Z-3.912
X48.981 Y-10.308 Z-3.919
X48.989 Y-10.144 Z-3.923
X49.004 Y-9.816 Z-3.925
X49.018 Y-9.488 Z-3.919
X49.023 Y-9.324 Z-3.915
X49.021 Y-8.832 Z-3.904
X49.02 Y-8.668 Z-3.903
X49.023 Y-8.504
X49.041 Y-8.34 Z-3.904
X49.059 Y-8.176 Z-3.902
X49.077 Y-8.012 Z-3.896
X49.053 Y-7.848 Z-3.889
X48.961 Y-7.519 Z-3.868
X48.935 Y-7.355 Z-3.86
X48.917 Y-7.191 Z-3.856
X48.899 Y-7.027 Z-3.857
X48.892 Y-6.863 Z-3.859
X48.914 Y-6.535 Z-3.862
X48.924 Y-6.371 Z-3.86
X48.935 Y-6.202 Z-3.854
Y-6.043 Z-3.847
X48.897 Y-5.715 Z-3.836
X48.878 Y-5.551 Z-3.826
X48.859 Y-5.387 Z-3.815
X48.848 Y-5.223 Z-3.804
X48.866 Y-5.059 Z-3.794
X48.886 Y-4.895 Z-3.789
X48.907 Y-4.731
X48.913 Y-4.567 Z-3.791
X48.897 Y-4.075 Z-3.797
X48.892 Y-3.911
X48.893 Y-3.747 Z-3.798
X48.895 Y-3.583 Z-3.8
X48.898 Y-3.419 Z-3.804
X48.899 Y-3.255 Z-3.812
X48.898 Y-3.091 Z-3.823
X48.897 Y-2.927 Z-3.828
X48.891 Y-2.763 Z-3.824
X48.873 Y-2.599 Z-3.816
X48.857 Y-2.435 Z-3.813
X48.842 Y-2.271 Z-3.815
X48.841 Y-2.107 Z-3.819
X48.844 Y-1.943 Z-3.825
X48.849 Y-1.615 Z-3.827
X48.855 Y-1.451 Z-3.83
X48.862 Y-1.287 Z-3.836
X48.875 Y-0.958 Z-3.854
X48.88 Y-0.794 Z-3.862
X48.872 Y-0.466 Z-3.878
X48.867 Y-0.302 Z-3.879
X48.861 Y-0.138 Z-3.877
X48.845 Y0.026 Z-3.879
X48.798 Y0.354 Z-3.887
X48.778 Y0.518 Z-3.894
X48.789 Y0.682 Z-3.899
X48.825 Y0.846 Z-3.906
X48.863 Y1.01 Z-3.918
X48.888 Y1.174 Z-3.935
X48.868 Y1.338 Z-3.95
X48.847 Y1.502 Z-3.958
X48.835 Y1.666 Z-3.966
X48.846 Y1.994 Z-3.981
X48.851 Y2.158 Z-3.987
X48.872 Y2.814 Z-4
X48.906 Y3.142 Z-4.009
X48.923 Y3.306 Z-4.016
X48.941 Y3.47 Z-4.027
X48.946 Y3.634 Z-4.04
X48.945 Y3.675 Z-4.042
X48.944 Y3.716 Z-4.039
X48.935 Y3.771 Z-4.034
X48.874 Y3.962 Z-4.019
X48.826 Y4.126 Z-4.013
X48.807 Y4.29 Z-4.014
X48.794 Y4.454 Z-4.022
X48.781 Y4.618 Z-4.036
X48.783 Y4.782 Z-4.051
X48.818 Y4.946 Z-4.061
X48.865 Y5.11 Z-4.069
X48.906 Y5.275 Z-4.079
X48.935 Y5.398 Z-4.081
X48.944 Y5.439 Z-4.08
X48.939 Y5.603 Z-4.075
X48.929 Y5.767 Z-4.068
X48.919 Y5.931 Z-4.062
X48.911 Y6.095 Z-4.061
X48.908 Y6.259 Z-4.063
X48.895 Y7.079 Z-4.088
X48.902 Y7.243 Z-4.095
X48.914 Y7.407 Z-4.106
X48.938 Y7.735 Z-4.141
X48.949 Y7.899 Z-4.145
X48.961 Y8.063 Z-4.143
X48.972 Y8.227 Z-4.146
X48.982 Y8.391 Z-4.155
X48.989 Y8.555 Z-4.171
X49.004 Y8.883 Z-4.209
X49.03 Y9.047 Z-4.226
X49.063 Y9.211 Z-4.233
X49.087 Y9.375 Z-4.229
Y9.539 Z-4.228
X49.09 Y9.867 Z-4.231
X49.071 Y10.031 Z-4.223
X49.034 Y10.195 Z-4.214
X48.994 Y10.359 Z-4.207
X48.981 Y10.523 Z-4.201
X48.991 Y10.687 Z-4.196
X48.996 Y10.851 Z-4.187
X48.985 Y11.179 Z-4.163
X48.98 Y11.343 Z-4.153
X48.975 Y11.507 Z-4.146
X48.97 Y11.672 Z-4.144
X48.966 Y11.836 Z-4.147
X48.962 Y12 Z-4.153
X48.958 Y12.164 Z-4.155
X48.954 Y12.328 Z-4.147
X48.934 Y12.492 Z-4.137
X48.888 Y12.82 Z-4.122
X48.871 Y12.984 Z-4.111
X48.866 Y13.476 Z-4.069
X48.865 Y13.64 Z-4.058
X48.884 Y13.804 Z-4.05
X48.907 Y13.968 Z-4.045
X48.935 Y14.165 Z-4.044
X48.94 Y14.296 Z-4.042
X48.935 Y14.353 Z-4.041
X48.915 Y14.46 Z-4.037
X48.885 Y14.624 Z-4.029
X48.852 Y14.788 Z-4.019
X48.808 Y14.952 Z-4.011
X48.775 Y15.116 Z-4.006
X48.771 Y15.167
Y15.238 Z-4.005
X48.774 Y15.28
X48.809 Y15.444
X48.876 Y15.608 Z-4.006
X48.935 Y15.743 Z-4.008
X49.038 Y16.1 Z-4.017
X49.033 Y16.264 Z-4.019
X49.023 Y16.428 Z-4.018
X49.014 Y16.592 Z-4.011
X49.007 Y16.756 Z-4.003
X49.001 Y16.92 Z-4
X48.995 Y17.084 Z-4.004
X49.003 Y17.248 Z-4.016
X49.028 Y17.412 Z-4.032
X49.052 Y17.576 Z-4.038
X49.073 Y17.74 Z-4.032
X49.065 Y17.904 Z-4.03
X49.057 Y18.068 Z-4.031
X49.044 Y18.233 Z-4.035
X49.001 Y18.561 Z-4.045
X48.976 Y18.725 Z-4.052
X48.935 Y18.948 Z-4.06
X48.915 Y19.053 Z-4.062
X48.884 Y19.217 Z-4.059
X48.875 Y19.381 Z-4.052
X48.897 Y19.545 Z-4.045
X48.954 Y19.873 Z-4.038
X48.98 Y20.037 Z-4.034
X49.015 Y20.365 Z-4.022
X49.025 Y20.529 Z-4.018
X49.018 Y20.693 Z-4.014
X49.012 Y20.857 Z-3.998
X49.005 Y21.021 Z-3.976
X48.999 Y21.185 Z-3.96
X48.992 Y21.349 Z-3.95
X48.985 Y21.513 Z-3.947
X48.989 Y21.677 Z-3.948
X48.998 Y21.841 Z-3.947
X49.015 Y22.169 Z-3.938
X49.043 Y22.333
X49.075 Y22.497 Z-3.945
Y22.661 Z-3.96
Y22.825 Z-3.969
X49.077 Y22.989 Z-3.964
X49.11 Y23.481 Z-3.932
X49.121 Y23.645 Z-3.925
X49.131 Y23.809 Z-3.922
X49.132 Y23.973 Z-3.921
X49.133 Y24.301 Z-3.927
X49.142 Y24.465 Z-3.931
X49.157 Y24.63 Z-3.936
X49.172 Y24.794 Z-3.938
X49.175 Y24.958 Z-3.937
X49.155 Y25.286 Z-3.928
X49.123 Y25.778 Z-3.912
X49.113 Y25.942 Z-3.909
X49.099 Y26.171 Z-3.91
X49.096 Y26.27 Z-3.912
X49.107 Y26.434 Z-3.917
X49.134 Y26.762 Z-3.929
X49.147 Y26.926 Z-3.931
X49.157 Y27.09 Z-3.929
X49.139 Y27.254 Z-3.924
X49.122 Y27.418 Z-3.914
X49.099 Y27.59 Z-3.902
X49.071 Y27.746 Z-3.891
X49.053 Y27.91 Z-3.884
X49.042 Y28.074 Z-3.882
X49.03 Y28.238 Z-3.884
X49.019 Y28.402 Z-3.89
Y28.566 Z-3.9
X49.023 Y28.73 Z-3.914
X49.027 Y28.894 Z-3.932
X49.035 Y29.222 Z-3.976
X49.029 Y29.386 Z-3.992
X49.006 Y29.714 Z-3.997
X48.999 Y29.878 Z-4.001
X49.011 Y30.042 Z-4.008
X49.035 Y30.37 Z-4.03
X49.042 Y30.534 Z-4.041
X49.045 Y30.698 Z-4.051
X49.048 Y30.862 Z-4.058
X49.045 Y31.026 Z-4.066
X49.037 Y31.191 Z-4.077
X49.021 Y31.519 Z-4.105
X49.005 Y31.847 Z-4.112
X48.997 Y32.011 Z-4.12
X49 Y32.175 Z-4.135
X49.007 Y32.339 Z-4.156
X49.015 Y32.503 Z-4.179
X49.02 Y32.667 Z-4.2
X49.018 Y32.831 Z-4.216
X49.013 Y32.995 Z-4.235
X49.003 Y33.323 Z-4.28
X48.999 Y33.487 Z-4.297
X48.995 Y33.651 Z-4.307
X48.978 Y34.307 Z-4.335
X48.974 Y34.471 Z-4.345
X48.977 Y34.635 Z-4.358
X48.986 Y34.799 Z-4.376
X49.004 Y35.127 Z-4.419
X49.017 Y35.291 Z-4.434
X49.054 Y35.619 Z-4.448
X49.072 Y35.783 Z-4.452
X49.09 Y35.947 Z-4.449
X49.107 Y36.111 Z-4.443
X49.125 Y36.275 Z-4.439
X49.143 Y36.439
X49.139 Y36.603 Z-4.444
X49.125 Y36.767 Z-4.449
X49.097 Y37.095 Z-4.453
X49.084 Y37.259 Z-4.461
X49.072 Y37.423 Z-4.476
X49.061 Y37.588 Z-4.497
X49.052 Y37.752 Z-4.519
X49.027 Y38.08 Z-4.51
Y38.244 Z-4.508
X49.038 Y38.9 Z-4.517
X49.041 Y39.064 Z-4.522
X49.054 Y39.72 Z-4.549
X49.039 Y39.884 Z-4.554
X49.001 Y40.212 Z-4.559
X48.992 Y40.376 Z-4.561
X49.014 Y40.54 Z-4.564
X49.046 Y40.704 Z-4.568
X49.099 Y40.971 Z-4.579
X49.105 Y41.032 Z-4.582
X49.114 Y41.196 Z-4.585
X49.122 Y41.36 Z-4.581
X49.119 Y41.524 Z-4.578
X49.106 Y41.688 Z-4.577
X49.093 Y41.852 Z-4.58
X49.083 Y42.016 Z-4.585
X49.088 Y42.344 Z-4.59
X49.09 Y42.508 Z-4.594
X49.093 Y42.672 Z-4.603
X49.099 Y43.058 Z-4.628
Y43.164 Z-4.631
X49.09 Y43.656 Z-4.636
X49.081 Y44.149 Z-4.64
X49.086 Y44.313 Z-4.637
X49.128 Y44.641 Z-4.623
X49.15 Y44.805 Z-4.614
X49.149 Y44.969 Z-4.603
X49.144 Y45.297 Z-4.577
X49.131 Y45.461 Z-4.566
X49.119 Y45.625 Z-4.558
X49.107 Y45.789 Z-4.547
Y45.953 Z-4.528
X49.124 Y46.117 Z-4.506
X49.125 Y46.281 Z-4.485
X49.112 Y46.445 Z-4.465
X49.084 Y46.609 Z-4.444
X49.07 Y46.691 Z-4.432
X49.032 Y46.773 Z-4.419
X48.898 Y47.006 Z-4.385
X48.853 Y47.044 Z-4.381
X48.812 Y47.06 Z-4.38
X48.771 Y47.074 Z-4.376
X48.607 Y47.065 Z-4.351
X48.443 Y47.049 Z-4.328
X48.279 Y47.022 Z-4.317
X48.115 Y46.997 Z-4.314
X47.951 Y46.974
X47.787 Z-4.3
X47.295 Y47.031 Z-4.213
X47.131 Y47.052 Z-4.189
X46.967 Y47.073 Z-4.168
X46.763 Y47.101 Z-4.147
X46.639 Y47.115 Z-4.137
X46.475 Y47.123 Z-4.123
X46.393 Y47.127 Z-4.114
X46.311 Y47.13 Z-4.099
X46.147 Y47.133 Z-4.071
X45.983 Y47.137 Z-4.046
X45.819 Y47.138 Z-4.026
X45.655 Y47.136 Z-4.006
X45.491 Y47.132 Z-3.981
X45.327 Y47.113 Z-3.956
X45.163 Y47.085 Z-3.935
X44.999 Y47.05 Z-3.916
X44.671 Y46.974 Z-3.879
X44.507 Y46.939 Z-3.864
X44.343 Y46.919 Z-3.851
X44.179 Y46.902 Z-3.845
X44.015 Y46.884 Z-3.843
X43.851 Y46.868 Z-3.845
X43.687 Y46.861
X43.359 Y46.894 Z-3.835
X43.006 Y46.937 Z-3.827
X42.867 Y46.953 Z-3.821
X42.703 Y46.964 Z-3.808
X42.539 Y46.971 Z-3.792
X42.211 Y46.985 Z-3.752
X41.883 Y46.965 Z-3.736
X41.719 Y46.962 Z-3.723
X41.555 Y46.986 Z-3.704
X41.391 Y47.014 Z-3.681
X41.227 Y47.042 Z-3.651
X41.063 Y47.043 Z-3.627
X40.899 Y47.039 Z-3.608
X40.735 Y47.032 Z-3.597
X40.571 Y47.025
X40.407 Y47.02 Z-3.602
X40.243 Y47.026 Z-3.611
X40.079 Y47.032 Z-3.622
X39.915 Y47.05 Z-3.627
X39.751 Y47.067 Z-3.62
X39.423 Y47.063 Z-3.603
X39.259 Z-3.6
X39.095 Y47.087 Z-3.598
X38.931 Y47.122 Z-3.597
X38.767 Y47.144
X38.603 Y47.149 Z-3.596
X38.275 Y47.142 Z-3.587
X38.111 Y47.144 Z-3.579
X37.783 Y47.19 Z-3.558
X37.619 Y47.213 Z-3.543
X37.455 Y47.239 Z-3.529
X37.367 Y47.265 Z-3.521
X37.291 Y47.297 Z-3.515
X37.127 Y47.384 Z-3.491
X36.946 Y47.429 Z-3.472
X36.799 Y47.435 Z-3.46
X36.754 Y47.429 Z-3.457
X36.635 Y47.385 Z-3.45
X36.471 Y47.299 Z-3.436
X36.307 Y47.217 Z-3.428
X36.143 Y47.166 Z-3.422
X35.979 Y47.146 Z-3.417
X35.815 Y47.137 Z-3.418
X35.651 Y47.156 Z-3.421
X35.487 Y47.181 Z-3.432
X35.323 Y47.199 Z-3.449
X35.159 Y47.2 Z-3.467
X34.995 Y47.195 Z-3.465
X34.831 Y47.181 Z-3.462
X34.503 Y47.14 Z-3.456
X34.339 Y47.123 Z-3.452
X33.847 Y47.117 Z-3.444
X33.683 Y47.114 Z-3.438
X33.355 Y47.108 Z-3.422
X33.191 Y47.107 Z-3.419
X33.027 Y47.12 Z-3.42
X32.863 Y47.136 Z-3.425
X32.535 Y47.169 Z-3.439
X32.371 Y47.185 Z-3.443
X32.207 Y47.201 Z-3.445
X32.043 Y47.212 Z-3.447
X31.715 Y47.206 Z-3.457
X31.551 Y47.204 Z-3.464
X31.387 Y47.203 Z-3.473
X31.059 Y47.205 Z-3.498
X30.895 Y47.206 Z-3.513
X30.731 Y47.212 Z-3.529
X30.567 Y47.219 Z-3.547
X30.403 Y47.215 Z-3.567
X30.239 Y47.201 Z-3.588
X30.075 Y47.189 Z-3.607
X29.911 Y47.181 Z-3.618
X29.747 Y47.17 Z-3.619
X29.419 Y47.138 Z-3.617
X29.254 Y47.123 Z-3.619
X28.997 Y47.101 Z-3.63
X28.926 Y47.095 Z-3.634
X28.762 Y47.086 Z-3.643
X28.434 Y47.107 Z-3.65
X28.27 Y47.118 Z-3.657
X28.106 Y47.13 Z-3.667
X27.942 Y47.14 Z-3.674
X27.778 Y47.148 Z-3.675
X27.45 Y47.15 Z-3.678
X26.958 Y47.155 Z-3.695
X26.466 Y47.179 Z-3.712
X26.302 Y47.186 Z-3.716
X26.138 Y47.201 Z-3.717
X25.974 Y47.223
X25.892 Y47.232 Z-3.713
X25.81 Y47.241 Z-3.704
X25.646 Y47.248 Z-3.681
X25.482 Y47.255 Z-3.66
X25.318 Y47.264 Z-3.646
X25.154 Y47.256 Z-3.643
X24.99 Y47.248 Z-3.644
X24.826 Y47.241 Z-3.647
X24.662 Y47.222 Z-3.656
X24.498 Y47.202 Z-3.66
X24.17 Y47.157 Z-3.633
X24.006 Y47.151 Z-3.619
X23.842 Z-3.607
X23.678 Y47.146 Z-3.595
X23.514 Y47.143 Z-3.584
X23.35 Z-3.575
X23.186 Y47.141 Z-3.569
X23.022 Y47.14 Z-3.565
X22.858 Z-3.563
X22.694 Y47.153 Z-3.561
X22.53 Y47.168 Z-3.558
X22.366 Y47.183 Z-3.552
X22.202 Y47.198 Z-3.541
X22.038 Y47.208 Z-3.528
X21.874 Y47.207 Z-3.514
X21.71 Y47.196 Z-3.502
X21.546 Y47.17 Z-3.494
X21.382 Y47.146 Z-3.491
X21.218 Y47.123 Z-3.493
X21.054 Y47.107 Z-3.498
X20.89 Y47.094 Z-3.501
X20.562 Y47.064 Z-3.504
X20.398 Y47.049 Z-3.51
X20.234 Y47.035 Z-3.518
X20.07 Y47.023 Z-3.528
X19.906 Y47.037 Z-3.534
X19.414 Y47.094 Z-3.558
X19.353 Y47.101 Z-3.561
X19.25 Y47.1 Z-3.569
X19.086 Y47.096 Z-3.578
X18.922 Y47.09 Z-3.575
X18.758 Y47.088 Z-3.57
X18.594 Y47.093
X18.43 Y47.098 Z-3.576
X18.266 Y47.104 Z-3.587
X18.102 Y47.098 Z-3.603
X17.938 Y47.093 Z-3.623
X17.774 Y47.087 Z-3.644
X17.61 Y47.064 Z-3.669
X17.446 Y47.06 Z-3.692
X17.282 Y47.076 Z-3.709
X16.954 Y47.106 Z-3.717
X16.79 Y47.123 Z-3.725
X16.626 Y47.163 Z-3.736
X16.462 Y47.218 Z-3.748
X16.298 Y47.272 Z-3.752
X16.134 Y47.324 Z-3.748
X15.97 Y47.357 Z-3.745
X15.806 Y47.38 Z-3.743
X15.642 Y47.4 Z-3.738
X15.478 Y47.417 Z-3.728
X15.314 Y47.352 Z-3.721
X15.15 Y47.261 Z-3.709
X14.986 Y47.177 Z-3.69
X14.822 Y47.095 Z-3.674
X14.658 Y47.02 Z-3.663
X14.494 Y46.98 Z-3.653
X14.33 Y46.975 Z-3.64
X14.166 Y46.999 Z-3.626
X14.002 Y47.028 Z-3.618
X13.838 Y47.07 Z-3.616
X13.766 Y47.101 Z-3.617
X13.674 Y47.154 Z-3.62
X13.51 Y47.226 Z-3.633
X13.402 Y47.265 Z-3.645
X13.346 Y47.275 Z-3.652
X13.264 Y47.284 Z-3.655
X13.018 Y47.308 Z-3.648
X12.854 Y47.324
X12.526 Y47.325 Z-3.657
X12.362 Y47.323 Z-3.653
X12.034 Y47.317 Z-3.631
X11.706 Y47.313 Z-3.615
X11.542 Y47.315 Z-3.609
X11.214 Y47.333 Z-3.591
X11.05 Y47.334 Z-3.581
X10.886 Y47.315 Z-3.576
X10.722 Y47.29 Z-3.574
X10.558 Y47.255 Z-3.575
X10.394 Y47.217 Z-3.577
X10.23 Y47.168 Z-3.574
X10.066 Y47.128 Z-3.565
X9.902 Y47.122 Z-3.557
X9.738 Y47.14 Z-3.552
X9.574 Y47.174 Z-3.548
X9.246 Y47.257 Z-3.522
X9.082 Y47.284 Z-3.517
X8.918 Y47.309 Z-3.519
X8.59 Y47.35 Z-3.537
X8.426 Y47.34 Z-3.545
X8.262 Y47.318 Z-3.552
X8.098 Y47.291 Z-3.563
X7.934 Y47.27 Z-3.579
X7.887 Y47.265 Z-3.584
X7.77 Y47.244 Z-3.601
X7.606 Y47.206 Z-3.606
X7.442 Y47.169
X7.278 Y47.162 Z-3.605
X7.114 Y47.191
X6.95 Y47.21 Z-3.616
X6.786 Y47.201 Z-3.625
X6.622 Y47.186 Z-3.623
X6.458 Y47.173 Z-3.621
X6.294 Y47.168 Z-3.623
X6.13 Y47.169 Z-3.627
X5.802 Y47.173 Z-3.639
X5.638 Z-3.635
X5.474 Y47.162 Z-3.631
X5.31 Y47.143 Z-3.629
X5.146 Y47.125 Z-3.631
X4.913 Y47.101 Z-3.64
X4.49 Y47.059 Z-3.664
X4.326 Y47.056 Z-3.668
X3.998 Y47.058 Z-3.678
X3.834 Y47.059 Z-3.685
X3.342 Y47.082 Z-3.701
X3.014 Y47.077 Z-3.71
X2.85 Y47.074 Z-3.715
X2.686 Y47.075 Z-3.718
X2.358 Y47.087 Z-3.727
X2.001 Y47.101 Z-3.74
X1.937 Z-3.742
X1.702 Y47.081 Z-3.749
X1.538 Y47.066 Z-3.75
X1.374 Y47.056 Z-3.748
X1.21 Z-3.745
X1.046 Z-3.744
X0.718 Y47.053 Z-3.747
X0.554 Y47.041 Z-3.743
X0.39 Y47.029 Z-3.736
X0.226 Y46.997 Z-3.735
X0.062 Y46.971 Z-3.737
X-0.102 Y46.97 Z-3.738
X-0.266 Y46.974 Z-3.741
X-0.594 Y46.983 Z-3.752
X-0.758 Y46.997
X-0.922 Y47.009 Z-3.744
X-1.086 Y47.019 Z-3.733
X-1.414 Y46.967 Z-3.74
X-1.578 Y46.94 Z-3.739
X-1.617 Y46.937
X-1.713 Z-3.736
X-1.906 Y46.951 Z-3.732
X-2.07 Y46.965 Z-3.736
X-2.234 Y46.981 Z-3.746
X-2.48 Y47.006 Z-3.767
X-2.562 Z-3.765
X-2.726 Y46.998 Z-3.756
X-2.89 Y46.991 Z-3.75
X-3.054 Y46.985 Z-3.748
X-3.218 Y46.979 Z-3.744
X-3.382 Y46.965 Z-3.739
X-3.546 Y46.949 Z-3.738
X-3.71 Y46.934 Z-3.742
X-3.874 Y46.92 Z-3.751
X-4.038 Y46.908 Z-3.764
X-4.366 Y46.887 Z-3.799
X-4.53 Z-3.813
X-4.694 Y46.885 Z-3.814
X-4.858 Y46.882 Z-3.809
X-5.022 Y46.879 Z-3.808
X-5.186 Z-3.812
X-5.35 Y46.886 Z-3.821
X-5.514 Y46.926 Z-3.826
X-5.678 Y46.977 Z-3.83
X-5.842 Y47.007 Z-3.832
X-6.006 Y47.001 Z-3.835
X-6.17 Y46.991 Z-3.833
X-6.334 Y46.983 Z-3.831
X-6.662 Y46.972 Z-3.835
X-6.826 Y46.962 Z-3.824
X-6.99 Y46.951 Z-3.808
X-7.154 Y46.941 Z-3.796
X-7.318 Y46.932 Z-3.79
X-7.482 Y46.926 Z-3.787
X-7.646 Y46.939 Z-3.783
X-7.81 Y46.956 Z-3.782
X-7.974 Y46.985 Z-3.781
X-8.138 Y47.016 Z-3.772
X-8.302 Y47.015 Z-3.762
X-8.794 Y46.946 Z-3.739
X-8.958 Z-3.73
X-9.45 Y46.97 Z-3.711
X-9.614 Y46.987 Z-3.699
X-9.778 Y47.007 Z-3.69
X-9.942 Y47.028 Z-3.683
X-10.106 Y47.043
X-10.27 Y47.05
X-10.434 Y47.036 Z-3.678
X-10.762 Y47 Z-3.657
X-10.926 Y46.994 Z-3.649
X-11.09 Y46.991 Z-3.644
X-11.254 Y46.988 Z-3.642
X-11.418 Y46.99
X-11.582 Y47.007 Z-3.641
X-11.746 Y47.026 Z-3.642
X-11.91 Y47.046 Z-3.646
X-12.074 Y47.061 Z-3.651
X-12.238 Y47.072 Z-3.657
X-12.566 Y47.065 Z-3.67
X-12.73 Y47.061 Z-3.672
X-12.894 Y47.056 Z-3.671
X-13.058 Y47.05 Z-3.667
X-13.386 Y47.035 Z-3.653
X-13.55 Y47.022 Z-3.648
X-13.714 Y47
X-13.878 Y46.98 Z-3.653
X-14.042 Y46.978 Z-3.661
X-14.37 Y47.009 Z-3.68
X-14.534 Y47.021 Z-3.678
X-15.19 Y46.952 Z-3.662
X-15.354 Y46.962 Z-3.655
X-15.518 Y47.007 Z-3.647
X-15.71 Y47.101 Z-3.643
X-15.846 Y47.17 Z-3.648
X-16.01 Y47.248 Z-3.661
X-16.055 Y47.265 Z-3.666
X-16.174 Y47.311 Z-3.674
X-16.256 Y47.336
X-16.83 Y47.396 Z-3.684
X-16.994 Y47.407 Z-3.677
X-17.24 Y47.373 Z-3.664
X-17.322 Y47.341 Z-3.665
X-17.486 Y47.215 Z-3.684
X-17.65 Y47.11 Z-3.697
X-17.671 Y47.101 Z-3.698
X-17.814 Y47.053 Z-3.703
X-17.978 Y47.018 Z-3.712
X-18.142 Y46.986 Z-3.728
X-18.405 Y46.937 Z-3.764
X-18.47 Y46.924 Z-3.771
X-18.634 Y46.891 Z-3.779
X-18.798 Y46.869 Z-3.778
X-18.962 Y46.88 Z-3.769
X-19.126 Y46.918 Z-3.759
X-19.181 Y46.937 Z-3.756
X-19.29 Y46.99 Z-3.749
X-19.461 Y47.101 Z-3.729
X-19.618 Y47.161 Z-3.714
X-19.782 Y47.219 Z-3.706
X-19.946 Y47.24 Z-3.714
X-20.11 Z-3.728
X-20.274 Y47.212 Z-3.72
X-20.438 Y47.16 Z-3.712
X-20.629 Y47.101 Z-3.707
X-20.766 Y47.066 Z-3.708
X-20.93 Y47.055 Z-3.706
X-21.094 Y47.076 Z-3.701
X-21.422 Y47.134 Z-3.688
X-21.586 Y47.164 Z-3.684
X-21.766 Y47.101 Z-3.725
X-21.915 Y47.023 Z-3.699
X-22.079 Y46.955 Z-3.675
X-22.156 Y46.937 Z-3.666
X-22.243 Y46.926 Z-3.655
X-22.407 Y46.928 Z-3.641
X-22.59 Y46.937 Z-3.634
X-22.735 Y46.957
X-22.899 Y47.014 Z-3.641
X-23.066 Y47.101 Z-3.654
X-23.227 Y47.163 Z-3.676
X-23.391 Y47.217 Z-3.693
X-23.608 Y47.267 Z-3.706
X-23.719 Y47.291 Z-3.705
X-23.883 Y47.35 Z-3.694
X-24.093 Y47.429 Z-3.681
X-24.211 Y47.469 Z-3.666
X-24.375 Y47.523 Z-3.64
X-24.457 Y47.553 Z-3.624
X-24.562 Y47.593 Z-3.58
X-24.703 Y47.634 Z-3.532
X-24.867 Y47.669 Z-3.495
X-25.031 Y47.689 Z-3.481
X-25.213 Y47.707 Z-3.485
X-25.359 Y47.695 Z-3.461
X-25.523 Y47.686 Z-3.441
X-25.687 Y47.682 Z-3.429
X-25.851 Y47.68 Z-3.426
X-26.015 Y47.681 Z-3.432
X-26.179 Y47.672 Z-3.45
X-26.343 Y47.657 Z-3.479
X-26.507 Y47.641 Z-3.516
X-26.609 Y47.593 Z-3.552
X-26.652 Y47.563 Z-3.57
X-26.732 Y47.495 Z-3.573
X-26.835 Y47.399 Z-3.548
X-26.999 Y47.251 Z-3.523
X-27.163 Y47.128 Z-3.512
X-27.214 Y47.101 Z-3.509
X-27.327 Y47.057 Z-3.501
X-27.491 Y47.01 Z-3.494
X-27.655 Y46.966 Z-3.499
X-27.767 Y46.937 Z-3.509
X-27.819 Y46.927 Z-3.514
X-27.983 Y46.919 Z-3.526
X-28.11 Y46.937 Z-3.535
X-28.147 Y46.946 Z-3.537
X-28.311 Y47.012 Z-3.546
X-28.45 Y47.101 Z-3.551
X-28.553 Y47.172 Z-3.561
X-28.639 Y47.211 Z-3.578
X-28.721 Y47.229 Z-3.603
X-28.764 Y47.224 Z-3.62
X-28.967 Y47.18 Z-3.617
X-29.131 Y47.146 Z-3.621
X-29.295 Y47.114 Z-3.633
X-29.381 Y47.101 Z-3.643
X-29.459 Y47.097 Z-3.652
X-29.536 Y47.101 Z-3.663
X-29.623 Y47.115 Z-3.676
X-29.787 Y47.163 Z-3.705
X-29.992 Y47.2 Z-3.76
X-30.115 Z-3.754
X-30.227 Y47.201 Z-3.751
X-30.279 Z-3.744
X-30.443 Y47.185 Z-3.731
X-30.607 Y47.171 Z-3.726
X-30.771 Y47.167 Z-3.727
X-30.935 Y47.178 Z-3.728
X-31.099 Y47.174 Z-3.743
X-31.263 Y47.15 Z-3.766
X-31.427 Y47.12 Z-3.791
X-31.51 Y47.101 Z-3.8
X-31.591 Y47.081 Z-3.801
X-31.755 Y47.038 Z-3.791
X-31.919 Y47.007 Z-3.776
X-32.083 Y47.003 Z-3.762
X-32.247 Y47.004 Z-3.754
X-32.411 Y47.022 Z-3.752
X-32.575 Y47.077 Z-3.755
X-32.634 Y47.101 Z-3.759
X-32.739 Y47.145 Z-3.769
X-32.903 Y47.216 Z-3.792
X-33.011 Y47.265 Z-3.812
X-33.169 Y47.338 Z-3.847
X-33.19 Y47.345 Z-3.851
X-33.231 Y47.354 Z-3.844
X-33.395 Y47.389 Z-3.82
X-33.559 Y47.368 Z-3.817
X-33.723 Y47.306 Z-3.831
X-33.842 Y47.265 Z-3.848
X-33.887 Y47.255 Z-3.855
X-34.051 Y47.238 Z-3.88
X-34.133 Y47.233 Z-3.884
X-34.215 Y47.236 Z-3.889
X-34.297 Y47.248 Z-3.895
X-34.376 Y47.263 Z-3.9
X-34.543 Y47.28 Z-3.852
X-34.624 Y47.265 Z-3.834
X-34.707 Y47.237 Z-3.821
X-34.871 Y47.184 Z-3.801
X-35.035 Y47.14 Z-3.786
X-35.199 Y47.129 Z-3.771
X-35.363 Y47.154 Z-3.758
X-35.527 Y47.199 Z-3.751
X-35.691 Y47.225 Z-3.752
X-35.711 Y47.227
X-35.732 Z-3.749
X-35.773 Y47.225 Z-3.736
X-35.855 Y47.199 Z-3.708
X-36.019 Y47.145 Z-3.656
X-36.183 Y47.125 Z-3.614
X-36.347 Y47.121 Z-3.581
X-36.511 Y47.128 Z-3.563
X-36.675 Y47.139 Z-3.554
X-36.839 Y47.155 Z-3.561
X-37.003 Y47.169 Z-3.582
X-37.167 Y47.18 Z-3.613
X-37.249 Y47.192 Z-3.635
X-37.309 Y47.202 Z-3.654
X-37.413 Y47.2 Z-3.635
X-37.495 Y47.179 Z-3.624
X-37.659 Y47.138 Z-3.613
X-37.823 Y47.124 Z-3.606
X-37.987 Y47.125 Z-3.608
X-38.151 Y47.16 Z-3.612
X-38.315 Y47.232 Z-3.609
X-38.354 Y47.252 Z-3.608
X-38.479 Y47.296 Z-3.601
X-38.643 Y47.358 Z-3.602
X-38.75 Y47.382 Z-3.618
X-38.766 Y47.385 Z-3.619
X-38.815 Y47.384 Z-3.621
X-38.889 Y47.374 Z-3.604
X-38.971 Y47.366 Z-3.584
X-39.135 Y47.326 Z-3.55
X-39.299 Y47.264 Z-3.52
X-39.463 Y47.194 Z-3.496
X-39.627 Y47.156 Z-3.479
X-39.791 Y47.154 Z-3.468
X-39.955 Y47.186 Z-3.463
X-40.119 Y47.228
X-40.283 Y47.248 Z-3.461
X-40.611 Y47.268 Z-3.435
X-40.775 Y47.265 Z-3.427
X-40.939 Y47.252 Z-3.414
X-41.103 Y47.239 Z-3.394
X-41.267 Y47.232 Z-3.374
X-41.431 Y47.238 Z-3.357
X-41.595 Y47.245 Z-3.345
X-41.923 Y47.259 Z-3.328
X-42.087 Y47.268 Z-3.322
X-42.229 Y47.265 Z-3.318
X-42.415 Y47.235 Z-3.309
X-42.579 Y47.21 Z-3.285
X-42.743 Y47.199 Z-3.264
X-42.907 Y47.188 Z-3.249
X-43.071 Y47.178 Z-3.24
X-43.235 Y47.169 Z-3.235
X-43.399 Y47.16
X-43.563 Y47.164 Z-3.238
X-43.891 Y47.183 Z-3.252
X-44.219 Y47.203 Z-3.272
X-44.383 Y47.211 Z-3.286
X-44.547 Y47.218 Z-3.305
X-44.711 Y47.225 Z-3.326
X-44.875 Y47.234 Z-3.348
X-45.039 Y47.249 Z-3.373
X-45.367 Y47.285 Z-3.433
X-45.531 Y47.3 Z-3.463
X-45.613 Y47.307 Z-3.477
X-45.695 Y47.286 Z-3.49
X-45.772 Y47.265 Z-3.5
X-46.023 Y47.198 Z-3.526
X-46.187 Y47.157 Z-3.549
X-46.351 Y47.119 Z-3.58
X-46.515 Y47.106 Z-3.616
X-46.6 Y47.104 Z-3.634
X-46.679 Y47.086 Z-3.637
X-46.843 Y47.041 Z-3.645
X-47.007 Y46.984 Z-3.663
X-47.171 Y46.965 Z-3.685
X-47.335 Y46.963 Z-3.71
X-47.499 Y46.986 Z-3.733
X-47.663 Y47.02 Z-3.756
X-47.827 Y47.055 Z-3.785
X-47.991 Y47.089 Z-3.822
X-48.036 Y47.093 Z-3.834
X-48.155 Y47.102 Z-3.856
X-48.319 Y47.114 Z-3.882
X-48.483 Y47.128 Z-3.912
X-48.729 Y47.127 Z-3.964
X-48.811 Y47.124 Z-3.962
X-48.975 Y47.099 Z-3.96
X-49.139 Y47.011 Z-3.975
X-49.179 Y46.959 Z-3.986
X-49.212 Y46.903 Z-3.997
X-49.239 Y46.844 Z-4.006
X-49.26 Y46.782 Z-4.014
X-49.276 Y46.717 Z-4.021
X-49.287 Y46.651 Z-4.028
X-49.294 Y46.585 Z-4.033
X-49.296 Y46.518 Z-4.038
X-49.288 Y46.38 Z-4.045
X-49.279 Y46.311 Z-4.048
X-49.267 Y46.242 Z-4.049
X-49.233 Y46.107 Z-4.051
X-49.212 Y46.041
X-49.188 Y45.975 Z-4.05
X-49.127 Y45.832 Z-4.047
X-49.06 Y45.692 Z-4.042
X-48.986 Y45.554 Z-4.035
X-48.907 Y45.42 Z-4.027
X-48.823 Y45.289 Z-4.018
X-48.736 Y45.159 Z-4.007
X-48.646 Y45.032 Z-3.995
X-48.553 Y44.907 Z-3.982
X-48.236 Y44.494 Z-3.935
X-48.132 Y44.355 Z-3.919
X-48.03 Y44.214 Z-3.902
X-47.932 Y44.071 Z-3.886
X-47.839 Y43.925 Z-3.87
X-47.751 Y43.776 Z-3.854
X-47.677 Y43.631 Z-3.84
X-47.611 Y43.481 Z-3.827
X-47.557 Y43.328 Z-3.815
X-47.515 Y43.17 Z-3.805
X-47.5 Y43.092 Z-3.8
X-47.488 Y43.012 Z-3.796
X-47.478 Y42.852 Z-3.789
X-47.48 Y42.772 Z-3.787
X-47.487 Y42.693 Z-3.785
X-47.5 Y42.614 Z-3.784
X-47.519 Y42.537
X-47.527 Y42.508
X-47.53 Y42.344 Z-3.775
X-47.537 Y42.18
X-47.549 Y42.016 Z-3.783
X-47.558 Y41.95 Z-3.789
X-47.571 Y41.852 Z-3.778
X-47.599 Y41.688 Z-3.766
X-47.632 Y41.524 Z-3.765
X-47.637 Y41.483 Z-3.767
X-47.62 Y41.442 Z-3.773
X-47.589 Y41.36 Z-3.786
X-47.547 Y41.226 Z-3.81
X-47.538 Y41.196 Z-3.813
X-47.495 Y41.032 Z-3.805
X-47.47 Y40.868 Z-3.796
X-47.458 Y40.704 Z-3.795
X-47.452 Y40.622 Z-3.797
X-47.405 Y40.54 Z-3.79
X-47.335 Y40.408 Z-3.781
X-47.32 Y40.376 Z-3.779
X-47.251 Y40.212 Z-3.77
X-47.171 Y40.008 Z-3.756
X-47.126 Y39.884 Z-3.75
X-47.082 Y39.72 Z-3.749
X-47.042 Y39.556 Z-3.754
X-47.015 Y39.392 Z-3.764
X-47.007 Y39.282 Z-3.771
X-47.004 Y39.228 Z-3.772
X-46.998 Y39.064 Z-3.769
X-46.991 Y38.9 Z-3.763
X-46.962 Y38.736 Z-3.751
X-46.92 Y38.572 Z-3.739
X-46.83 Y38.244 Z-3.721
X-46.789 Y38.08 Z-3.709
X-46.764 Y37.916 Z-3.698
X-46.747 Y37.752 Z-3.685
X-46.739 Y37.588 Z-3.68
X-46.747 Y37.423 Z-3.684
X-46.764 Y37.242 Z-3.692
X-46.773 Y37.177 Z-3.681
X-46.788 Y37.095 Z-3.67
X-46.818 Y36.931 Z-3.65
X-46.823 Y36.767 Z-3.632
X-46.83 Y36.603 Z-3.622
X-46.841 Y36.439 Z-3.618
X-46.866 Y36.275 Z-3.624
X-46.906 Y36.111 Z-3.638
X-46.95 Y35.947 Z-3.657
X-47.011 Y35.783 Z-3.677
X-47.086 Y35.619 Z-3.699
X-47.178 Y35.455 Z-3.731
X-47.289 Y35.291 Z-3.775
X-47.335 Y35.229 Z-3.793
X-47.393 Y35.127 Z-3.816
X-47.415 Y35.066 Z-3.823
X-47.453 Y34.963 Z-3.82
X-47.438 Y34.902 Z-3.822
X-47.415 Y34.799 Z-3.805
X-47.386 Y34.635 Z-3.779
X-47.362 Y34.471 Z-3.756
X-47.344 Y34.307 Z-3.741
X-47.332 Y34.143 Z-3.73
X-47.325 Y33.979 Z-3.722
X-47.335 Y33.802 Z-3.712
X-47.353 Y33.651 Z-3.706
X-47.379 Y33.487 Z-3.703
X-47.421 Y33.323
X-47.467 Y33.159 Z-3.698
X-47.499 Y33.07 Z-3.697
Y33.019 Z-3.693
X-47.47 Y32.831 Z-3.677
X-47.452 Y32.667 Z-3.67
X-47.438 Y32.503
X-47.43 Y32.339 Z-3.678
X-47.433 Y32.175 Z-3.695
X-47.438 Y32.011 Z-3.72
X-47.435 Y31.929 Z-3.734
X-47.429 Y31.867 Z-3.744
X-47.413 Y31.683 Z-3.718
X-47.403 Y31.519 Z-3.702
X-47.397 Y31.355 Z-3.689
X-47.406 Y31.191 Z-3.677
X-47.428 Y31.026 Z-3.666
X-47.456 Y30.862 Z-3.656
X-47.5 Y30.698 Z-3.654
X-47.56 Y30.534 Z-3.662
X-47.536 Y30.37 Z-3.658
X-47.499 Y30.224 Z-3.649
X-47.435 Y30.042 Z-3.626
X-47.392 Y29.878 Z-3.602
X-47.354 Y29.714 Z-3.581
X-47.325 Y29.55 Z-3.569
X-47.297 Y29.386 Z-3.566
X-47.273 Y29.222 Z-3.569
X-47.256 Y29.058 Z-3.577
X-47.241 Y28.894 Z-3.581
X-47.229 Y28.73 Z-3.589
X-47.226 Y28.566 Z-3.603
X-47.233 Y28.402 Z-3.619
X-47.255 Y28.238 Z-3.634
X-47.273 Y28.125 Z-3.642
X-47.283 Y28.074 Z-3.64
X-47.316 Y27.91 Z-3.644
X-47.335 Y27.83 Z-3.65
X-47.356 Y27.746 Z-3.659
X-47.4 Y27.582 Z-3.683
X-47.408 Y27.556 Z-3.686
X-47.429 Y27.5 Z-3.681
X-47.463 Y27.418 Z-3.673
X-47.549 Y27.213 Z-3.665
X-47.541 Y27.172 Z-3.66
X-47.514 Y27.09 Z-3.651
X-47.499 Y27.041 Z-3.648
X-47.471 Y26.926 Z-3.643
X-47.443 Y26.762 Z-3.649
X-47.419 Y26.598 Z-3.664
X-47.407 Y26.434 Z-3.692
X-47.41 Y26.27 Z-3.73
X-47.419 Y26.106 Z-3.776
X-47.434 Y25.983 Z-3.812
X-47.44 Y25.942 Z-3.822
X-47.465 Y25.778 Z-3.83
X-47.487 Y25.614 Z-3.828
X-47.504 Y25.45 Z-3.83
X-47.521 Y25.286 Z-3.837
X-47.532 Y25.122 Z-3.85
X-47.538 Y24.958 Z-3.868
X-47.521 Y24.794 Z-3.886
X-47.484 Y24.63 Z-3.898
X-47.452 Y24.465 Z-3.905
X-47.426 Y24.301 Z-3.908
X-47.417 Y24.137 Z-3.906
X-47.415 Y23.973 Z-3.892
X-47.414 Y23.809 Z-3.874
X-47.422 Y23.645 Z-3.863
X-47.432 Y23.481 Z-3.861
X-47.457 Y23.317 Z-3.871
X-47.499 Y23.108 Z-3.894
X-47.508 Y23.068 Z-3.899
X-47.57 Y22.825 Z-3.888
X-47.624 Y22.62
X-47.613 Y22.579 Z-3.883
X-47.594 Y22.497 Z-3.873
X-47.567 Y22.333 Z-3.857
X-47.545 Y22.169 Z-3.842
X-47.537 Y22.005 Z-3.834
X-47.53 Y21.841 Z-3.833
X-47.521 Y21.677 Z-3.84
X-47.514 Y21.513 Z-3.856
X-47.52 Y21.335 Z-3.886
X-47.53 Y21.267 Z-3.877
X-47.544 Y21.185 Z-3.869
X-47.574 Y21.021 Z-3.859
X-47.616 Y20.857 Z-3.866
X-47.638 Y20.775 Z-3.873
X-47.64 Y20.693 Z-3.872
X-47.632 Y20.529 Z-3.87
Y20.365 Z-3.878
X-47.638 Y20.201 Z-3.893
X-47.663 Y20.014 Z-3.919
X-47.671 Y19.873 Z-3.937
X-47.663 Y19.811 Z-3.941
X-47.649 Y19.709 Z-3.943
X-47.621 Y19.545 Z-3.932
X-47.614 Y19.504 Z-3.928
X-47.594 Y19.381 Z-3.903
X-47.57 Y19.217 Z-3.875
X-47.549 Y19.053 Z-3.854
X-47.529 Y18.889 Z-3.837
X-47.499 Y18.679 Z-3.822
X-47.482 Y18.561 Z-3.819
X-47.459 Y18.402 Z-3.821
X-47.44 Y18.233 Z-3.782
X-47.433 Y18.068 Z-3.752
X-47.43 Y17.904 Z-3.733
X-47.44 Y17.74 Z-3.724
X-47.465 Y17.576
X-47.499 Y17.394 Z-3.732
X-47.537 Y17.248 Z-3.742
X-47.561 Y17.166 Z-3.748
X-47.533 Y17.084 Z-3.744
X-47.486 Y16.92 Z-3.737
X-47.443 Y16.756 Z-3.729
X-47.41 Y16.592 Z-3.718
X-47.386 Y16.428 Z-3.702
X-47.379 Y16.264 Z-3.689
X-47.378 Y16.1 Z-3.681
X-47.386 Y15.936 Z-3.68
X-47.411 Y15.772 Z-3.686
X-47.442 Y15.608 Z-3.694
X-47.487 Y15.444 Z-3.7
X-47.568 Y15.219 Z-3.707
X-47.564 Y15.116 Z-3.708
X-47.529 Y14.952 Z-3.711
X-47.494 Y14.788 Z-3.716
X-47.46 Y14.624 Z-3.712
X-47.433 Y14.46 Z-3.699
X-47.412 Y14.296 Z-3.683
X-47.406 Y14.132 Z-3.672
X-47.41 Y13.968 Z-3.666
X-47.424 Y13.804 Z-3.667
X-47.448 Y13.64 Z-3.676
X-47.466 Y13.476 Z-3.687
X-47.458 Y13.312 Z-3.693
X-47.462 Y13.148 Z-3.704
X-47.471 Y12.984 Z-3.712
X-47.499 Y12.797 Z-3.715
X-47.523 Y12.656 Z-3.714
X-47.547 Y12.492 Z-3.713
X-47.537 Y12.328 Z-3.7
X-47.52 Y12 Z-3.666
X-47.512 Y11.836 Z-3.653
X-47.506 Y11.672 Z-3.648
X-47.507 Y11.507 Z-3.652
X-47.511 Y11.343 Z-3.662
X-47.517 Y11.179 Z-3.671
X-47.526 Y11.015 Z-3.661
X-47.499 Y10.821 Z-3.641
X-47.481 Y10.687 Z-3.632
X-47.474 Y10.523 Z-3.624
X-47.478 Y10.195 Z-3.591
X-47.473 Y10.031 Z-3.578
X-47.468 Y9.867 Z-3.573
X-47.462 Y9.703 Z-3.577
X-47.456 Y9.519 Z-3.586
X-47.455 Y9.375 Z-3.565
X-47.466 Y9.211 Z-3.545
X-47.485 Y9.047 Z-3.532
X-47.506 Y8.883 Z-3.526
X-47.526 Y8.719 Z-3.524
X-47.545 Y8.555 Z-3.526
X-47.561 Y8.391 Z-3.527
X-47.578 Y8.227 Z-3.525
X-47.596 Y8.063 Z-3.508
X-47.618 Y7.899 Z-3.484
X-47.592 Y7.735 Z-3.454
X-47.567 Y7.571 Z-3.425
X-47.547 Y7.407 Z-3.398
X-47.54 Y7.243 Z-3.375
X-47.545 Y7.079 Z-3.355
X-47.556 Y6.915 Z-3.34
X-47.577 Y6.751 Z-3.33
X-47.597 Y6.587 Z-3.323
X-47.605 Y6.423 Z-3.316
X-47.603 Y6.259 Z-3.308
X-47.602 Y6.095 Z-3.295
X-47.612 Y5.931 Z-3.28
X-47.628 Y5.767 Z-3.267
X-47.663 Y5.553 Z-3.256
X-47.676 Y5.439 Z-3.254
X-47.663 Y5.344 Z-3.253
X-47.648 Y5.275
X-47.616 Y5.11 Z-3.257
X-47.59 Y4.946 Z-3.264
X-47.569 Y4.782 Z-3.265
X-47.553 Y4.618 Z-3.243
X-47.546 Y4.454 Z-3.222
X-47.553 Y4.29 Z-3.209
X-47.563 Y4.126 Z-3.205
X-47.588 Y3.798 Z-3.211
X-47.597 Y3.634 Z-3.206
Y3.47 Z-3.201
X-47.581 Y3.306 Z-3.197
X-47.55 Y2.978 Z-3.198
X-47.542 Y2.814 Z-3.188
X-47.544 Y2.65 Z-3.172
X-47.55 Y2.486 Z-3.159
Y2.322 Z-3.15
X-47.53 Y2.158 Z-3.144
X-47.509 Y1.994 Z-3.143
X-47.499 Y1.913 Z-3.145
X-47.467 Y1.666 Z-3.16
X-47.427 Y1.338 Z-3.191
X-47.417 Y1.174 Z-3.208
X-47.419 Y1.01 Z-3.227
X-47.427 Y0.846 Z-3.242
X-47.444 Y0.682 Z-3.249
X-47.462 Y0.518 Z-3.247
X-47.48 Y0.354 Z-3.242
X-47.504 Y0.19 Z-3.24
X-47.531 Y0.026 Z-3.243
X-47.559 Y-0.138 Z-3.249
X-47.586 Y-0.302 Z-3.259
X-47.591 Y-0.466 Z-3.27
X-47.579 Y-0.794 Z-3.288
X-47.573 Y-0.958 Z-3.294
X-47.554 Y-1.122 Z-3.297
X-47.528 Y-1.287 Z-3.303
X-47.499 Y-1.478 Z-3.318
X-47.479 Y-1.615 Z-3.331
X-47.456 Y-1.779 Z-3.349
X-47.446 Y-1.943 Z-3.367
X-47.447 Y-2.107 Z-3.386
X-47.454 Y-2.271 Z-3.402
X-47.465 Y-2.435 Z-3.409
X-47.477 Y-2.599 Z-3.412
X-47.492 Y-2.763 Z-3.416
X-47.499 Y-2.82 Z-3.417
X-47.516 Y-2.927 Z-3.422
X-47.544 Y-3.091 Z-3.432
X-47.574 Y-3.255 Z-3.446
X-47.61 Y-3.419 Z-3.466
X-47.628 Y-3.501 Z-3.478
X-47.627 Y-3.583 Z-3.488
X-47.618 Y-3.747 Z-3.511
X-47.614 Y-3.911 Z-3.534
X-47.621 Y-4.075 Z-3.546
X-47.645 Y-4.239 Z-3.553
X-47.673 Y-4.403 Z-3.559
X-47.716 Y-4.567 Z-3.566
X-47.777 Y-4.731 Z-3.57
X-47.845 Y-4.895 Z-3.564
X-47.958 Y-5.141 Z-3.56
X-47.95 Y-5.223 Z-3.566
X-47.926 Y-5.387 Z-3.585
X-47.91 Y-5.551 Z-3.609
X-47.899 Y-5.715 Z-3.63
X-47.893 Y-5.879 Z-3.635
X-47.877 Y-6.207 Z-3.642
X-47.866 Y-6.371 Z-3.643
X-47.855 Y-6.535 Z-3.641
X-47.835 Y-6.699 Z-3.638
X-47.819 Y-6.863
X-47.797 Y-7.027 Z-3.641
X-47.76 Y-7.191 Z-3.644
X-47.707 Y-7.355 Z-3.65
X-47.661 Y-7.519 Z-3.657
X-47.635 Y-7.683 Z-3.661
X-47.618 Y-7.848 Z-3.652
X-47.611 Y-8.012 Z-3.645
X-47.613 Y-8.176 Z-3.644
X-47.606 Y-8.34 Z-3.643
X-47.582 Y-8.668 Z-3.638
X-47.575 Y-8.832 Z-3.636
X-47.583 Y-8.996 Z-3.638
X-47.595 Y-9.16 Z-3.642
X-47.613 Y-9.324 Z-3.648
X-47.632 Y-9.488 Z-3.65
X-47.651 Y-9.652
X-47.663 Y-9.74 Z-3.649
X-47.71 Y-9.98 Z-3.644
X-47.731 Y-10.144 Z-3.641
X-47.736 Y-10.308 Z-3.639
X-47.744 Y-10.472 Z-3.645
X-47.757 Y-10.636 Z-3.657
X-47.773 Y-10.8 Z-3.654
X-47.79 Y-10.964 Z-3.644
X-47.803 Y-11.128 Z-3.64
X-47.807 Y-11.292 Z-3.643
X-47.783 Y-11.456 Z-3.654
X-47.756 Y-11.62 Z-3.671
X-47.721 Y-11.836 Z-3.709
X-47.719 Y-11.846 Z-3.71
X-47.708 Y-11.948 Z-3.704
X-47.7 Y-12.112 Z-3.698
X-47.701 Y-12.276 Z-3.702
X-47.702 Y-12.44 Z-3.71
X-47.704 Y-12.604 Z-3.691
X-47.697 Y-12.768 Z-3.67
X-47.69 Y-12.932 Z-3.654
X-47.684 Y-13.096 Z-3.647
X-47.683 Y-13.26
X-47.681 Y-13.424 Z-3.652
X-47.68 Y-13.588 Z-3.663
Y-13.916 Z-3.692
X-47.687 Y-14.08 Z-3.698
X-47.697 Y-14.245 Z-3.702
X-47.71 Y-14.409 Z-3.71
X-47.726 Y-14.573 Z-3.721
X-47.737 Y-14.737 Z-3.734
X-47.728 Y-14.901 Z-3.746
X-47.719 Y-15.065 Z-3.762
X-47.663 Y-15.209 Z-3.767
X-47.654 Y-15.229 Z-3.766
X-47.588 Y-15.393 Z-3.749
X-47.528 Y-15.557 Z-3.731
X-47.472 Y-15.721 Z-3.714
X-47.417 Y-15.885 Z-3.701
X-47.374 Y-16.049 Z-3.695
X-47.345 Y-16.213 Z-3.699
X-47.321 Y-16.377 Z-3.707
X-47.31 Y-16.541 Z-3.721
X-47.314 Y-16.705 Z-3.736
X-47.324 Y-16.869 Z-3.748
X-47.335 Y-16.961 Z-3.756
X-47.348 Y-17.033 Z-3.762
X-47.413 Y-17.361 Z-3.786
X-47.443 Y-17.525 Z-3.802
X-47.461 Y-17.689 Z-3.823
X-47.475 Y-17.853 Z-3.847
X-47.494 Y-18.017 Z-3.868
X-47.519 Y-18.181 Z-3.883
X-47.551 Y-18.345 Z-3.9
X-47.582 Y-18.509 Z-3.921
X-47.615 Y-18.673 Z-3.944
X-47.625 Y-18.755 Z-3.953
X-47.618 Y-18.837 Z-3.957
X-47.59 Y-19.165 Z-3.962
X-47.576 Y-19.329 Z-3.969
X-47.546 Y-19.657 Z-3.987
X-47.537 Y-19.821 Z-3.991
X-47.538 Y-19.985 Z-3.996
X-47.545 Y-20.149 Z-4.006
X-47.562 Y-20.313 Z-4.024
X-47.578 Y-20.477 Z-4.045
X-47.592 Y-20.641 Z-4.067
X-47.594 Y-20.806 Z-4.085
X-47.579 Y-20.97 Z-4.094
X-47.52 Y-21.298 Z-4.102
X-47.496 Y-21.462 Z-4.109
X-47.486 Y-21.626 Z-4.121
X-47.487 Y-21.79 Z-4.138
X-47.493 Y-21.954 Z-4.156
X-47.488 Y-22.118 Z-4.171
X-47.472 Y-22.282 Z-4.182
X-47.456 Y-22.446 Z-4.19
X-47.412 Y-22.938 Z-4.208
X-47.388 Y-23.102 Z-4.214
X-47.356 Y-23.266 Z-4.221
X-47.295 Y-23.594 Z-4.241
X-47.27 Y-23.758 Z-4.243
X-47.258 Y-23.922 Z-4.244
X-47.249 Y-24.086 Z-4.248
X-47.243 Y-24.25 Z-4.256
X-47.237 Y-24.414 Z-4.266
X-47.243 Y-24.578 Z-4.277
X-47.254 Y-24.742 Z-4.287
X-47.276 Y-24.906 Z-4.298
X-47.298 Y-25.07 Z-4.312
X-47.301 Y-25.234 Z-4.323
X-47.31 Y-25.398 Z-4.333
X-47.335 Y-25.616 Z-4.345
X-47.352 Y-25.726 Z-4.353
X-47.379 Y-25.89 Z-4.367
X-47.382 Y-26.054 Z-4.377
X-47.371 Y-26.218 Z-4.381
X-47.348 Y-26.546 Z-4.367
X-47.34 Y-26.71 Z-4.365
X-47.338 Y-26.874 Z-4.369
X-47.342 Y-27.038 Z-4.376
X-47.335 Y-27.247 Z-4.385
X-47.316 Y-27.695 Z-4.4
X-47.304 Y-28.023
X-47.298 Y-28.187 Z-4.403
X-47.307 Y-28.351 Z-4.411
X-47.32 Y-28.515 Z-4.418
X-47.34 Y-28.679 Z-4.423
X-47.36 Y-28.843 Z-4.424
X-47.402 Y-29.171 Z-4.421
X-47.423 Y-29.335 Z-4.424
X-47.435 Y-29.499 Z-4.428
X-47.434 Y-29.663 Z-4.431
X-47.432 Y-29.827 Z-4.429
X-47.433 Y-30.073 Z-4.421
X-47.416 Y-30.155 Z-4.415
X-47.361 Y-30.319 Z-4.399
X-47.335 Y-30.405 Z-4.391
X-47.274 Y-30.647 Z-4.365
X-47.248 Y-30.811 Z-4.352
X-47.238 Y-30.975 Z-4.343
X-47.232 Y-31.139 Z-4.339
X-47.241 Y-31.303 Z-4.338
X-47.265 Y-31.467 Z-4.341
X-47.295 Y-31.631 Z-4.343
X-47.339 Y-31.795 Z-4.345
X-47.399 Y-31.959 Z-4.344
X-47.43 Y-32.041 Z-4.341
X-47.429 Y-32.123 Z-4.336
X-47.408 Y-32.287 Z-4.323
X-47.367 Y-32.615 Z-4.289
X-47.335 Y-32.889 Z-4.261
X-47.329 Y-32.943 Z-4.256
X-47.319 Y-33.107 Z-4.245
X-47.313 Y-33.271 Z-4.238
X-47.308 Y-33.435 Z-4.234
X-47.268 Y-33.599 Z-4.223
X-47.223 Y-33.764 Z-4.203
X-47.159 Y-34.092 Z-4.155
X-47.133 Y-34.256 Z-4.133
X-47.121 Y-34.42 Z-4.116
X-47.114 Y-34.584 Z-4.103
X-47.123 Y-34.748 Z-4.096
X-47.146 Y-34.912 Z-4.093
X-47.171 Y-35.108 Z-4.089
X-47.187 Y-35.24 Z-4.084
X-47.196 Y-35.404 Z-4.073
X-47.206 Y-35.732 Z-4.047
X-47.213 Y-35.896 Z-4.037
X-47.229 Y-36.224 Z-4.022
X-47.237 Y-36.388 Z-4.012
X-47.243 Y-36.552 Z-3.998
X-47.247 Y-36.88 Z-3.965
X-47.25 Y-37.044 Z-3.952
X-47.258 Y-37.208 Z-3.946
X-47.275 Y-37.372
X-47.322 Y-37.7 Z-3.954
X-47.351 Y-37.946 Z-3.956
X-47.343 Y-38.028 Z-3.957
X-47.319 Y-38.192 Z-3.961
X-47.303 Y-38.356 Z-3.97
X-47.294 Y-38.52 Z-3.982
X-47.285 Y-38.848 Z-4.008
X-47.282 Y-39.012 Z-4.019
X-47.275 Y-39.34 Z-4.03
X-47.272 Y-39.504 Z-4.038
X-47.269 Y-39.668 Z-4.05
X-47.266 Y-39.832 Z-4.067
X-47.264 Y-39.996 Z-4.087
X-47.265 Y-40.161 Z-4.11
X-47.268 Y-40.325 Z-4.137
X-47.272 Y-40.489 Z-4.167
X-47.276 Y-40.653 Z-4.2
X-47.279 Y-40.817 Z-4.236
X-47.271 Y-40.981 Z-4.269
X-47.25 Y-41.309 Z-4.324
X-47.24 Y-41.473 Z-4.355
X-47.231 Y-41.637 Z-4.389
X-47.222 Y-41.801 Z-4.426
X-47.216 Y-41.965 Z-4.462
X-47.22 Y-42.293 Z-4.528
X-47.223 Y-42.457 Z-4.565
X-47.23 Y-42.785 Z-4.648
X-47.232 Y-42.949 Z-4.679
X-47.236 Y-43.441 Z-4.757
X-47.237 Y-43.605 Z-4.779
Y-43.769 Z-4.794
X-47.232 Y-43.933 Z-4.806
X-47.2 Y-44.425 Z-4.845
X-47.19 Y-44.589 Z-4.855
X-47.184 Y-44.753 Z-4.864
X-47.19 Y-44.917 Z-4.872
X-47.208 Y-45.245 Z-4.886
X-47.214 Y-45.409 Z-4.89
X-47.213 Y-45.469 Z-4.891
X-47.192 Y-45.481
X-46.843 Y-45.499 Z-4.883
X-46.679 Y-45.507 Z-4.877
X-46.515 Y-45.511 Z-4.87
X-46.351 Y-45.497 Z-4.862
X-46.187 Y-45.483 Z-4.851
X-46.023 Y-45.474 Z-4.835
X-45.859 Y-45.472 Z-4.817
X-45.695 Y-45.48 Z-4.799
X-45.203 Y-45.515 Z-4.745
X-45.039 Y-45.527 Z-4.726
X-44.875 Y-45.533 Z-4.705
X-44.547 Y-45.486 Z-4.66
X-44.383 Y-45.474 Z-4.639
X-44.219 Y-45.466 Z-4.619
X-44.055 Y-45.461 Z-4.598
X-43.891 Y-45.456 Z-4.573
X-43.563 Y-45.446 Z-4.518
X-43.399 Y-45.442 Z-4.495
X-43.235 Y-45.438 Z-4.474
X-43.071 Y-45.442 Z-4.454
X-42.907 Y-45.45 Z-4.433
X-42.415 Y-45.508 Z-4.364
X-42.251 Y-45.527 Z-4.346
X-42.087 Y-45.538 Z-4.335
X-41.923 Y-45.541 Z-4.33
X-41.595 Y-45.548 Z-4.333
X-41.267 Y-45.554 Z-4.321
X-41.103 Y-45.558 Z-4.32
X-40.939 Y-45.545 Z-4.325
X-40.775 Y-45.537 Z-4.334
X-40.611 Y-45.536 Z-4.342
X-40.447 Y-45.545 Z-4.344
X-39.791 Y-45.61 Z-4.362
X-39.627 Y-45.621 Z-4.365
X-39.299 Y-45.632 Z-4.372
X-38.807 Y-45.621 Z-4.382
X-38.643 Y-45.625 Z-4.383
X-38.479 Y-45.634 Z-4.385
X-38.315 Y-45.649 Z-4.386
X-38.151 Y-45.669 Z-4.389
X-37.987 Y-45.695 Z-4.392
X-37.659 Y-45.769 Z-4.4
X-37.495 Y-45.807 Z-4.399
X-37.331 Y-45.839 Z-4.397
X-36.975 Y-45.737 Z-4.389
X-36.839 Y-45.699
X-36.675 Y-45.653 Z-4.392
X-36.511 Y-45.61 Z-4.401
X-36.298 Y-45.573 Z-4.417
X-36.183 Y-45.557 Z-4.427
X-36.019 Y-45.548 Z-4.44
X-35.855 Y-45.546 Z-4.449
X-35.691 Y-45.544 Z-4.446
X-35.527 Y-45.543 Z-4.437
X-35.363 Y-45.544 Z-4.427
X-35.199 Y-45.552 Z-4.419
X-35.035 Y-45.577 Z-4.411
X-34.871 Y-45.606 Z-4.402
X-34.543 Y-45.68 Z-4.384
X-34.379 Y-45.718 Z-4.379
X-34.215 Y-45.728 Z-4.378
X-34.051 Y-45.727 Z-4.38
X-33.887 Y-45.692 Z-4.382
X-33.723 Y-45.656 Z-4.384
X-33.559 Y-45.63 Z-4.386
X-33.395 Y-45.609 Z-4.388
X-33.231 Y-45.6
X-33.067 Y-45.604 Z-4.385
X-32.739 Y-45.617 Z-4.38
X-32.575 Y-45.606
X-32.411 Y-45.591 Z-4.381
X-32.247 Y-45.567 Z-4.378
X-31.919 Y-45.516 Z-4.368
X-31.755 Y-45.494 Z-4.366
X-31.263 Y-45.448 Z-4.362
X-31.099 Y-45.439 Z-4.359
X-30.935 Y-45.436 Z-4.355
X-30.771 Y-45.444 Z-4.351
X-30.607 Y-45.466 Z-4.348
X-30.279 Y-45.514 Z-4.347
X-30.115 Y-45.527 Z-4.346
X-29.951 Y-45.532 Z-4.341
X-29.787 Y-45.528 Z-4.334
X-29.459 Y-45.514 Z-4.321
X-29.295 Y-45.51 Z-4.317
X-29.131 Y-45.519 Z-4.315
X-28.803 Y-45.55 Z-4.313
X-28.311 Y-45.6 Z-4.301
X-28.147 Y-45.616 Z-4.3
X-27.983 Y-45.627 Z-4.302
X-27.655 Y-45.638 Z-4.311
X-27.491 Y-45.647 Z-4.312
X-27.327 Y-45.662 Z-4.305
X-27.163 Y-45.679 Z-4.3
X-26.999 Y-45.697 Z-4.299
X-26.835 Y-45.713 Z-4.303
X-26.671 Y-45.719 Z-4.309
X-26.507 Y-45.705 Z-4.315
X-26.179 Y-45.671 Z-4.326
X-25.851 Y-45.638 Z-4.33
X-25.687 Y-45.62 Z-4.334
X-25.523 Y-45.603 Z-4.344
X-25.235 Y-45.573 Z-4.372
X-25.031 Y-45.546 Z-4.389
X-24.703 Y-45.501 Z-4.407
X-24.539 Y-45.484 Z-4.421
X-24.375 Y-45.475 Z-4.437
X-24.211 Y-45.48 Z-4.455
X-24.047 Y-45.487 Z-4.471
X-23.883 Y-45.496 Z-4.485
X-23.555 Y-45.512 Z-4.502
X-23.391 Y-45.521 Z-4.512
X-23.227 Y-45.529 Z-4.527
X-22.899 Y-45.546 Z-4.566
X-22.735 Y-45.554 Z-4.582
X-22.333 Y-45.573 Z-4.613
X-22.243 Y-45.577 Z-4.618
X-22.079 Y-45.582 Z-4.623
X-21.75 Y-45.575 Z-4.629
X-21.586 Y-45.572 Z-4.636
X-21.422 Y-45.569 Z-4.645
X-21.094 Y-45.564 Z-4.671
X-20.93 Y-45.562 Z-4.682
X-20.766 Y-45.558 Z-4.679
X-20.438 Y-45.551 Z-4.667
X-20.274 Y-45.547
X-19.946 Y-45.54 Z-4.673
X-19.454 Y-45.525 Z-4.688
X-19.29 Y-45.52 Z-4.694
X-19.126 Y-45.514 Z-4.695
X-18.798 Y-45.505 Z-4.686
X-18.634 Y-45.513 Z-4.687
X-18.47 Y-45.531 Z-4.692
X-18.306 Y-45.554 Z-4.698
X-18.142 Y-45.576
X-17.978 Y-45.582 Z-4.684
X-17.814 Y-45.584 Z-4.664
X-17.65 Y-45.589 Z-4.647
X-17.486 Y-45.597 Z-4.636
X-17.322 Y-45.606 Z-4.633
X-17.158 Y-45.615 Z-4.637
X-16.994 Y-45.621 Z-4.649
X-16.83 Y-45.598 Z-4.664
X-16.666 Y-45.578 Z-4.667
X-16.613 Y-45.573 Z-4.666
X-16.502 Y-45.569 Z-4.663
X-16.338 Y-45.576 Z-4.653
X-16.174 Y-45.587 Z-4.641
X-16.01 Y-45.612 Z-4.626
X-15.846 Y-45.643 Z-4.613
X-15.682 Y-45.66 Z-4.604
X-15.518 Y-45.668 Z-4.599
X-15.19 Y-45.67 Z-4.597
X-15.026 Y-45.669 Z-4.593
X-14.698 Y-45.646 Z-4.58
X-14.534 Y-45.636 Z-4.574
X-14.37 Y-45.631 Z-4.57
X-14.206 Y-45.639
X-14.042 Y-45.657 Z-4.573
X-13.714 Y-45.702 Z-4.581
X-13.55 Y-45.704 Z-4.584
X-13.386 Y-45.702 Z-4.589
X-13.058 Y-45.697 Z-4.606
X-12.566 Y-45.69 Z-4.642
X-12.238 Y-45.686 Z-4.661
X-12.074 Y-45.69 Z-4.673
X-11.91 Y-45.698 Z-4.687
X-11.582 Y-45.723 Z-4.729
X-11.418 Y-45.73 Z-4.753
X-10.926 Y-45.742 Z-4.815
X-10.828 Y-45.737 Z-4.828
X-10.434 Y-45.697 Z-4.881
X-10.27 Y-45.68 Z-4.902
X-10.106 Y-45.667 Z-4.919
X-9.942 Y-45.658 Z-4.935
X-9.778 Y-45.65 Z-4.948
X-9.45 Y-45.637 Z-4.969
X-9.286 Y-45.642 Z-4.982
X-9.122 Y-45.651 Z-4.998
X-8.958 Y-45.664 Z-5.013
X-8.794 Y-45.676 Z-5.025
X-8.302 Y-45.714 Z-5.05
X-7.974 Y-45.692 Z-5.067
X-7.482 Y-45.658 Z-5.085
X-7.318 Y-45.65 Z-5.09
X-7.154 Y-45.645 Z-5.094
X-6.826 Y-45.66 Z-5.103
X-6.498 Y-45.677 Z-5.109
X-6.17 Y-45.695
X-6.006 Y-45.7 Z-5.107
X-5.35 Y-45.691 Z-5.1
X-4.858 Y-45.684 Z-5.088
X-4.53 Y-45.679 Z-5.078
X-4.366 Y-45.68 Z-5.072
X-4.269 Y-45.683 Z-5.068
X-4.202 Y-45.687 Z-5.035
X-4.038 Y-45.699 Z-4.958
X-3.874 Y-45.714 Z-4.892
X-3.71 Y-45.73 Z-4.836
X-3.632 Y-45.737 Z-4.814
X-3.546 Y-45.745 Z-4.792
X-3.382 Y-45.759 Z-4.757
X-3.218 Y-45.774 Z-4.733
X-3.054 Y-45.789 Z-4.718
X-2.972 Y-45.788 Z-4.713
X-2.89 Y-45.769 Z-4.709
X-2.726 Y-45.732
X-2.562 Y-45.702 Z-4.72
X-2.398 Y-45.677 Z-4.742
X-2.234 Y-45.662 Z-4.775
X-2.07 Y-45.653 Z-4.818
X-1.906 Y-45.645 Z-4.87
X-1.742 Y-45.636 Z-4.932
X-1.578 Y-45.632 Z-5.003
X-1.465 Y-45.635 Z-5.053
X-1.455 Z-5.056
X-1.209 Y-45.654 Z-5.092
X-1.086 Y-45.667 Z-5.052
X-0.922 Y-45.674 Z-5.003
X-0.758 Y-45.675 Z-4.964
X-0.594 Y-45.677 Z-4.934
X-0.43 Y-45.684 Z-4.916
X-0.266 Y-45.693 Z-4.91
X-0.102 Y-45.704 Z-4.915
X0.062 Y-45.711 Z-4.933
X0.226 Y-45.701 Z-4.963
X0.39 Y-45.691 Z-5.003
X0.462 Y-45.686 Z-5.024
X0.554 Y-45.685 Z-4.995
X0.718 Y-45.682 Z-4.953
X0.882 Y-45.679 Z-4.927
X1.046 Y-45.676 Z-4.913
X1.21 Y-45.673 Z-4.915
X1.374 Y-45.67 Z-4.929
X1.538 Y-45.664 Z-4.958
X1.702 Y-45.659 Z-5
X1.866 Y-45.654 Z-5.057
X2.038 Y-45.651 Z-5.131
X2.194 Y-45.65 Z-5.129
X2.522 Y-45.646 Z-5.119
X2.85 Y-45.636 Z-5.112
X3.178 Y-45.626
X3.342 Y-45.623 Z-5.114
X3.834 Y-45.624 Z-5.116
X4.068
X4.08 Z-5.096
X4.162 Y-45.632 Z-4.971
X4.244 Y-45.646 Z-4.864
X4.326 Y-45.662 Z-4.777
X4.49 Y-45.702 Z-4.634
X4.619 Y-45.737 Z-4.551
X4.654 Y-45.748 Z-4.532
X4.818 Y-45.793 Z-4.461
X4.982 Y-45.834 Z-4.406
X5.146 Y-45.867 Z-4.368
X5.31 Y-45.886 Z-4.342
X5.474 Y-45.898 Z-4.326
X5.556 Y-45.901 Z-4.323
X5.638 Y-45.903
X5.747 Y-45.901 Z-4.329
X5.802 Y-45.9 Z-4.334
X5.966 Y-45.889 Z-4.358
X6.13 Y-45.874 Z-4.393
X6.294 Y-45.852 Z-4.444
X6.458 Y-45.826 Z-4.51
X6.622 Y-45.795 Z-4.596
X6.786 Y-45.762 Z-4.703
X6.922 Y-45.737 Z-4.81
X6.95 Y-45.732 Z-4.834
X7.012 Y-45.737 Z-4.816
X7.114 Y-45.745 Z-4.79
X7.278 Y-45.755 Z-4.759
X7.442 Y-45.763 Z-4.739
X7.606 Y-45.768 Z-4.729
X7.77 Y-45.77 Z-4.727
X7.934 Z-4.734
X8.098 Y-45.768 Z-4.752
X8.262 Y-45.762 Z-4.778
X8.426 Y-45.749 Z-4.812
X8.545 Y-45.737 Z-4.845
X8.59 Y-45.733 Z-4.86
X8.754 Y-45.716 Z-4.923
X8.918 Y-45.7 Z-5.006
X9.082 Y-45.688 Z-5.11
X9.14 Y-45.686 Z-5.15
X9.338 Y-45.678 Z-5.154
X9.41 Y-45.676 Z-5.132
X9.574 Y-45.67 Z-5.095
X9.738 Y-45.665 Z-5.073
X9.902 Y-45.66 Z-5.067
X10.066 Y-45.657 Z-5.076
X10.23 Y-45.655 Z-5.102
X10.353 Y-45.654 Z-5.13
X10.374 Z-5.134
X10.558 Y-45.653 Z-5.141
X10.722 Y-45.651 Z-5.145
X10.886
X11.05 Y-45.649 Z-5.143
X11.214 Y-45.645 Z-5.141
X11.542 Y-45.636 Z-5.145
X12.034 Y-45.623 Z-5.154
X12.198 Y-45.62 Z-5.155
X12.69 Y-45.635 Z-5.157
X12.826 Y-45.639 Z-5.158
X12.854 Z-5.146
X13.018 Y-45.645 Z-5.086
X13.182 Y-45.653 Z-5.044
X13.346 Y-45.658 Z-5.017
X13.51 Y-45.659 Z-5.001
X13.674 Y-45.657 Z-4.999
X13.838 Y-45.654 Z-5.011
X14.002 Y-45.65 Z-5.036
X14.166 Y-45.646 Z-5.077
X14.33 Y-45.642 Z-5.134
X14.433 Y-45.64 Z-5.178
X14.44 Z-5.181
X14.822 Y-45.636 Z-5.178
X15.232 Y-45.632 Z-5.181
X15.273 Y-45.631 Z-5.18
X15.314 Z-5.173
X15.478 Y-45.63 Z-5.136
X15.642 Y-45.629 Z-5.104
X15.806 Y-45.628 Z-5.082
X15.97 Z-5.07
X16.185 Y-45.629 Z-5.068
X16.298 Y-45.631 Z-5.058
X16.462 Y-45.634 Z-5.048
X16.626 Y-45.637 Z-5.043
X16.79 Y-45.639 Z-5.042
X16.954 Y-45.641 Z-5.046
X17.118 Y-45.642 Z-5.056
X17.282 Z-5.073
X17.446 Y-45.645 Z-5.093
X17.528 Y-45.648 Z-5.097
X17.61 Y-45.654 Z-5.094
X17.774 Y-45.673 Z-5.087
X17.938 Y-45.695 Z-5.083
X18.102 Y-45.719 Z-5.085
X18.266 Y-45.641 Z-5.088
X18.399 Y-45.573 Z-5.099
X18.43 Y-45.558 Z-5.103
X18.594 Y-45.497 Z-5.13
X18.758 Y-45.447 Z-5.169
X18.922 Y-45.409 Z-5.217
X18.994 Y-45.399 Z-5.237
X19.086 Y-45.386
X19.296 Y-45.37 Z-5.236
X19.332 Y-45.366 Z-5.229
X19.414 Y-45.362 Z-5.215
X19.578 Y-45.368 Z-5.199
X19.742 Y-45.391 Z-5.196
X19.857 Y-45.409 Z-5.198
X19.906 Y-45.419 Z-5.201
X19.988 Y-45.439
X20.234 Y-45.516 Z-5.208
X20.373 Y-45.546 Z-5.212
X20.562 Y-45.575 Z-5.182
X20.726 Y-45.601 Z-5.159
X20.89 Y-45.611 Z-5.148
X21.054 Y-45.61 Z-5.147
X21.218 Y-45.597 Z-5.154
X21.382 Y-45.585 Z-5.164
X21.71 Y-45.563 Z-5.19
X21.874 Y-45.546 Z-5.209
X21.975 Y-45.529 Z-5.223
X21.986 Y-45.527
X22.366 Y-45.354 Z-5.211
X22.612 Y-45.245 Z-5.207
X22.694 Y-45.211 Z-5.206
X22.858 Y-45.148 Z-5.204
X23.022 Y-45.103 Z-5.203
X23.186 Y-45.071 Z-5.202
X23.35 Y-45.045
X23.514 Y-45.036 Z-5.201
X23.678 Y-45.038 Z-5.198
X23.842 Y-45.045 Z-5.194
X24.006 Y-45.056 Z-5.19
X24.17 Y-45.081 Z-5.185
X24.334 Y-45.113 Z-5.181
X24.498 Y-45.156 Z-5.177
X24.662 Y-45.219 Z-5.173
X24.826 Y-45.289 Z-5.171
X24.99 Y-45.377
X25.482 Y-45.679
X25.646 Y-45.695 Z-5.167
X25.81 Y-45.69 Z-5.163
X25.974 Y-45.681 Z-5.158
X26.138 Y-45.676 Z-5.153
X26.302 Y-45.674 Z-5.149
X26.794 Y-45.687 Z-5.138
X27.122 Y-45.697 Z-5.133
X27.942 Y-45.677 Z-5.123
X28.434 Y-45.664 Z-5.125
X28.598 Y-45.66 Z-5.124
X28.762 Y-45.656 Z-5.119
X29.254 Y-45.645 Z-5.099
X29.419 Y-45.646 Z-5.095
X29.583 Y-45.653 Z-5.091
X29.911 Y-45.673 Z-5.086
X30.075 Y-45.675 Z-5.085
X31.059 Y-45.665 Z-5.092
X31.387 Y-45.664 Z-5.101
X31.551 Y-45.671 Z-5.104
X31.715 Y-45.669
X31.879 Y-45.662 Z-5.101
X32.043 Y-45.67 Z-5.096
X32.122 Y-45.68 Z-5.094
X32.207 Y-45.685 Z-5.021
X32.371 Y-45.704 Z-4.898
X32.543 Y-45.737 Z-4.781
X32.699 Y-45.782 Z-4.692
X32.863 Y-45.849 Z-4.612
X32.983 Y-45.901 Z-4.561
X33.027 Y-45.922 Z-4.545
X33.191 Y-46.001 Z-4.496
X33.273 Y-46.032 Z-4.479
X33.355 Y-46.024 Z-4.469
X33.519 Y-45.974 Z-4.466
X33.683 Y-45.928 Z-4.473
X33.78 Y-45.901 Z-4.482
X33.847 Y-45.885 Z-4.491
X34.011 Y-45.859 Z-4.517
X34.134 Y-45.848 Z-4.541
X34.339 Y-45.837 Z-4.534
X34.503 Y-45.846 Z-4.535
X34.595 Y-45.857 Z-4.536
X34.667 Y-45.866 Z-4.527
X34.831 Y-45.893 Z-4.509
X34.872 Y-45.901 Z-4.505
X34.954 Z-4.501
X34.995 Y-45.897 Z-4.5
X35.159 Y-45.863 Z-4.497
X35.323 Y-45.814 Z-4.488
X35.487 Y-45.771 Z-4.483
X35.651 Y-45.745 Z-4.487
X35.815 Y-45.728 Z-4.496
X35.979 Y-45.72 Z-4.509
X36.143 Z-4.518
X36.307 Z-4.514
X36.635 Z-4.483
X36.799 Y-45.719 Z-4.472
X36.963 Y-45.717 Z-4.465
X37.127 Y-45.716 Z-4.462
X37.291 Y-45.715 Z-4.464
X37.455 Y-45.714 Z-4.472
X37.619 Y-45.702 Z-4.481
X37.783 Y-45.645 Z-4.479
X37.947 Y-45.601 Z-4.471
X38.113 Y-45.573 Z-4.463
X38.275 Y-45.55 Z-4.456
X38.439 Y-45.539 Z-4.449
X38.603 Y-45.529 Z-4.44
X38.767 Y-45.523 Z-4.432
X38.931 Y-45.53 Z-4.427
X39.259 Y-45.549 Z-4.429
X39.423 Y-45.559 Z-4.426
X39.587 Y-45.568 Z-4.415
X39.751 Y-45.578 Z-4.399
X39.915 Y-45.579 Z-4.383
X40.079 Y-45.567 Z-4.371
X40.243 Y-45.556 Z-4.365
X40.407 Y-45.545 Z-4.364
X40.571 Y-45.534 Z-4.369
X40.735 Y-45.523 Z-4.371
X40.899 Y-45.515 Z-4.367
X41.063 Y-45.519 Z-4.361
X41.227 Y-45.528 Z-4.36
X41.391 Y-45.553 Z-4.361
X41.555 Y-45.584 Z-4.364
X41.883 Y-45.648 Z-4.373
X42.211 Y-45.688 Z-4.379
X42.375 Y-45.696 Z-4.381
X42.539 Y-45.697 Z-4.383
X42.867 Y-45.662 Z-4.392
X43.031 Y-45.649 Z-4.402
X43.195 Y-45.641 Z-4.413
X43.523 Y-45.633 Z-4.44
X44.179 Y-45.621 Z-4.487
X44.343 Z-4.499
X44.507 Y-45.624 Z-4.511
X44.835 Y-45.633 Z-4.541
X45.163 Y-45.642 Z-4.582
X45.327 Y-45.646 Z-4.6
X45.491 Y-45.652 Z-4.61
X45.655 Y-45.661 Z-4.616
X45.819 Y-45.672 Z-4.619
X45.983 Y-45.683 Z-4.618
X46.147 Y-45.684 Z-4.615
X46.475 Y-45.683 Z-4.611
X46.967 Y-45.695 Z-4.609
X47.202 Y-45.702 Z-4.603
X47.216 Y-45.675 Z-4.601
X47.192 Y-45.245 Z-4.575
X47.183 Y-45.081 Z-4.563
X47.173 Y-44.917 Z-4.546
X47.166 Y-44.753 Z-4.528
X47.172 Y-44.589 Z-4.508
X47.195 Y-44.261 Z-4.466
X47.208 Y-44.097 Z-4.449
X47.229 Y-43.851 Z-4.425
X47.198 Y-43.605 Z-4.405
X47.177 Y-43.441 Z-4.389
X47.161 Y-43.277 Z-4.369
X47.151 Y-43.113 Z-4.35
X47.157 Y-42.949 Z-4.334
X47.167 Y-42.785 Z-4.32
X47.178 Y-42.621 Z-4.309
X47.19 Y-42.457 Z-4.3
X47.195 Y-42.293 Z-4.294
X47.201 Y-41.965 Z-4.287
X47.207 Y-41.637 Z-4.281
X47.211 Y-41.473 Z-4.275
X47.219 Y-41.309 Z-4.269
X47.232 Y-41.145 Z-4.265
X47.258 Y-40.981 Z-4.266
X47.321 Y-40.653 Z-4.271
X47.342 Y-40.489 Z-4.267
X47.347 Y-40.325 Z-4.26
X47.327 Y-40.161 Z-4.253
X47.31 Y-39.996 Z-4.247
X47.301 Y-39.832 Z-4.243
X47.304 Y-39.668 Z-4.241
X47.311 Y-39.504 Z-4.237
X47.326 Y-39.176 Z-4.21
X47.333 Y-39.012 Z-4.201
X47.32 Y-38.848 Z-4.198
X47.305 Y-38.684 Z-4.202
X47.276 Y-38.356 Z-4.213
X47.216 Y-37.7 Z-4.226
X47.186 Y-37.372
X47.173 Y-37.208
X47.165 Y-37.044 Z-4.23
X47.174 Y-36.88 Z-4.233
X47.189 Y-36.716 Z-4.236
X47.215 Y-36.552 Z-4.235
X47.253 Y-36.388 Z-4.228
X47.295 Y-36.211 Z-4.215
X47.357 Y-35.896 Z-4.188
X47.37 Y-35.732 Z-4.177
X47.379 Y-35.568 Z-4.168
X47.387 Y-35.404 Z-4.163
X47.389 Y-35.24
X47.365 Y-35.076 Z-4.166
X47.356 Y-34.912 Z-4.165
X47.354 Y-34.748 Z-4.16
X47.362 Y-34.584 Z-4.154
X47.4 Y-34.256 Z-4.145
X47.42 Y-34.092 Z-4.135
X47.442 Y-33.928 Z-4.111
X47.459 Y-33.813 Z-4.09
X47.468 Y-33.764 Z-4.082
X47.505 Y-33.599 Z-4.056
X47.489 Y-33.435 Z-4.042
X47.459 Y-33.245 Z-4.036
X47.437 Y-33.107 Z-4.039
X47.413 Y-32.943 Z-4.049
X47.396 Y-32.779 Z-4.064
X47.388 Y-32.615 Z-4.075
X47.39 Y-32.451 Z-4.069
X47.392 Y-32.287 Z-4.056
X47.369 Y-32.123 Z-4.045
X47.336 Y-31.959 Z-4.037
X47.31 Y-31.795 Z-4.034
X47.295 Y-31.631 Z-4.037
X47.283 Y-31.467 Z-4.042
X47.275 Y-31.303 Z-4.041
X47.276 Y-31.139 Z-4.039
X47.284 Y-30.975 Z-4.037
X47.297 Y-30.811 Z-4.035
X47.3 Y-30.647 Z-4.033
X47.292 Y-30.483 Z-4.035
X47.286 Y-30.319 Z-4.037
X47.291 Y-30.155 Z-4.038
X47.295 Y-30.054 Z-4.035
X47.3 Y-29.991 Z-4.033
X47.324 Y-29.827 Z-4.025
X47.352 Y-29.663 Z-4.018
X47.378 Y-29.499 Z-4.016
X47.393 Y-29.335 Z-4.018
X47.408 Y-29.171 Z-4.022
X47.416 Y-29.007 Z-4.026
X47.421 Y-28.843 Z-4.024
X47.431 Y-28.515 Z-4.013
X47.436 Y-28.351 Z-4.012
X47.442 Y-28.187 Z-4.015
X47.445 Y-28.023 Z-4.021
X47.448 Y-27.695 Z-4.04
X47.45 Y-27.531 Z-4.048
X47.438 Y-27.367 Z-4.049
X47.402 Y-27.038 Z-4.041
X47.385 Y-26.874 Z-4.039
X47.376 Y-26.71 Z-4.035
Y-26.382 Z-4.019
X47.377 Y-26.218 Z-4.014
Y-26.054
X47.34 Y-25.562 Z-4.03
X47.327 Y-25.398 Z-4.031
X47.314 Y-25.234 Z-4.024
X47.295 Y-24.998 Z-4.011
X47.289 Y-24.906 Z-4.009
X47.281 Y-24.742 Z-4.013
Y-24.578 Z-4.024
X47.28 Y-24.414 Z-4.041
X47.278 Y-24.25 Z-4.038
X47.276 Y-24.086 Z-4.027
X47.28 Y-23.922 Z-4.016
X47.289 Y-23.758 Z-4.008
X47.302 Y-23.594 Z-4.003
X47.317 Y-23.43
X47.341 Y-23.266 Z-4.006
X47.37 Y-23.102 Z-4.008
X47.408 Y-22.938 Z-4.005
X47.445 Y-22.774 Z-3.995
X47.456 Y-22.61 Z-3.98
X47.46 Y-22.446 Z-3.968
X47.463 Y-22.282 Z-3.961
X47.468 Y-22.118 Z-3.962
X47.471 Y-21.954 Z-3.968
X47.474 Y-21.79 Z-3.978
X47.473 Y-21.626 Z-3.989
X47.471 Y-21.462 Z-3.992
X47.468 Y-21.134 Z-3.983
Y-20.97 Z-3.977
X47.477 Y-20.806 Z-3.974
X47.497 Y-20.641 Z-3.97
X47.522 Y-20.477 Z-3.955
X47.551 Y-20.313 Z-3.935
X47.573 Y-20.19 Z-3.922
X47.558 Y-20.149 Z-3.919
X47.478 Y-19.985 Z-3.914
X47.412 Y-19.821 Z-3.915
X47.35 Y-19.657
X47.306 Y-19.493 Z-3.91
X47.273 Y-19.329 Z-3.905
X47.248 Y-19.165 Z-3.903
X47.239 Y-19.001 Z-3.908
X47.24 Y-18.837 Z-3.92
X47.249 Y-18.673 Z-3.935
X47.273 Y-18.509 Z-3.951
X47.3 Y-18.345 Z-3.96
X47.329 Y-18.181 Z-3.956
X47.388 Y-17.853 Z-3.936
X47.419 Y-17.689 Z-3.929
X47.413 Y-17.525 Z-3.922
X47.398 Y-17.361 Z-3.907
X47.389 Y-17.197 Z-3.892
X47.392 Y-17.033 Z-3.883
X47.4 Y-16.869 Z-3.881
X47.414 Y-16.705 Z-3.885
X47.433 Y-16.541 Z-3.891
X47.459 Y-16.377 Z-3.899
X47.51 Y-16.155 Z-3.91
X47.512 Y-16.049 Z-3.915
X47.474 Y-15.721 Z-3.916
X47.464 Y-15.557 Z-3.919
X47.458 Y-15.393 Z-3.926
X47.449 Y-15.065 Z-3.946
X47.445 Y-14.901 Z-3.95
X47.44 Y-14.737 Z-3.949
X47.434 Y-14.573 Z-3.946
X47.423 Y-14.409 Z-3.944
X47.41 Y-14.245 Z-3.945
X47.397 Y-14.08 Z-3.947
X47.388 Y-13.916 Z-3.95
X47.384 Y-13.752 Z-3.954
X47.386 Y-13.588 Z-3.958
X47.388 Y-13.424 Z-3.961
X47.385 Y-13.26 Z-3.959
X47.364 Y-12.932 Z-3.956
X47.356 Y-12.768 Z-3.958
X47.357 Y-12.604
X47.361 Y-12.44 Z-3.953
X47.366 Y-12.276 Z-3.945
X47.371 Y-12.112 Z-3.94
X47.376 Y-11.948 Z-3.939
X47.369 Y-11.784 Z-3.94
X47.35 Y-11.456 Z-3.941
X47.34 Y-11.292 Z-3.94
X47.334 Y-11.128 Z-3.937
X47.335 Y-10.964 Z-3.934
X47.344 Y-10.8 Z-3.931
X47.359 Y-10.636 Z-3.932
X47.391 Y-10.308 Z-3.941
X47.399 Y-10.144
X47.407 Y-9.98 Z-3.931
X47.415 Y-9.816 Z-3.915
X47.422 Y-9.652 Z-3.902
X47.429 Y-9.488 Z-3.895
X47.435 Y-9.324
Y-9.16 Z-3.899
X47.434 Y-8.996 Z-3.9
X47.433 Y-8.668 Z-3.884
X47.436 Y-8.504 Z-3.879
X47.444 Y-8.34 Z-3.877
X47.471 Y-8.093 Z-3.873
X47.407 Y-7.848 Z-3.863
X47.379 Y-7.683 Z-3.858
X47.356 Y-7.519 Z-3.856
X47.32 Y-7.191 Z-3.855
X47.31 Y-7.027
X47.305 Y-6.863 Z-3.853
X47.312 Y-6.699 Z-3.85
X47.334 Y-6.371 Z-3.849
X47.344 Y-6.207 Z-3.852
X47.337 Y-6.043 Z-3.856
X47.295 Y-5.677 Z-3.861
X47.28 Y-5.551 Z-3.862
X47.269 Y-5.387 Z-3.864
X47.262 Y-5.223 Z-3.867
X47.271 Y-5.059 Z-3.87
X47.295 Y-4.846 Z-3.872
X47.309 Y-4.731 Z-3.87
X47.326 Y-4.567 Z-3.859
X47.321 Y-4.403 Z-3.848
X47.315 Y-4.239 Z-3.84
X47.31 Y-4.075 Z-3.838
X47.305 Y-3.911 Z-3.84
X47.306 Y-3.747 Z-3.844
X47.309 Y-3.583 Z-3.846
X47.312 Y-3.255 Z-3.844
X47.309 Y-2.927 Z-3.845
X47.295 Y-2.763 Z-3.847
X47.263 Y-2.435 Z-3.854
X47.255 Y-2.271 Z-3.86
Y-2.107 Z-3.868
X47.257 Y-1.943 Z-3.88
X47.26 Y-1.779 Z-3.895
X47.264 Y-1.615 Z-3.913
X47.27 Y-1.451 Z-3.931
X47.276 Y-1.287 Z-3.936
X47.289 Y-0.958 Z-3.934
X47.294 Y-0.794 Z-3.936
X47.286 Y-0.466 Z-3.945
X47.28 Y-0.302 Z-3.953
X47.267 Y-0.138 Z-3.963
X47.222 Y0.19 Z-3.987
X47.203 Y0.354 Z-3.998
X47.195 Y0.518 Z-4.007
X47.203 Y0.682 Z-4.015
X47.215 Y0.846 Z-4.024
X47.242 Y1.01 Z-4.034
X47.278 Y1.174 Z-4.039
X47.271 Y1.338 Z-4.036
X47.257 Y1.502 Z-4.034
X47.249 Y1.666 Z-4.037
X47.253 Y1.83 Z-4.045
X47.27 Y2.322 Z-4.074
X47.287 Y2.814 Z-4.095
X47.297 Y2.978 Z-4.101
X47.313 Y3.142 Z-4.106
X47.33 Y3.306 Z-4.107
X47.346 Y3.47 Z-4.102
X47.349 Y3.527 Z-4.101
X47.295 Y3.717 Z-4.103
X47.276 Y3.798 Z-4.106
X47.25 Y3.962 Z-4.116
X47.232 Y4.126 Z-4.127
X47.218 Y4.29 Z-4.133
X47.205 Y4.454 Z-4.13
X47.196 Y4.618 Z-4.129
X47.197 Y4.782 Z-4.131
X47.206 Y4.946 Z-4.136
X47.232 Y5.11 Z-4.141
X47.267 Y5.275 Z-4.144
X47.295 Y5.385 Z-4.147
X47.31 Y5.439 Z-4.149
X47.351 Y5.603 Z-4.158
X47.335 Y5.931 Z-4.191
X47.328 Y6.095 Z-4.179
X47.323 Y6.259 Z-4.168
X47.32 Y6.423 Z-4.163
X47.317 Y6.587 Z-4.165
X47.315 Y6.751 Z-4.17
X47.312 Y6.915
X47.31 Y7.079 Z-4.164
X47.315 Y7.243 Z-4.16
X47.323 Y7.407 Z-4.162
X47.347 Y7.735 Z-4.171
X47.369 Y8.063 Z-4.173
X47.381 Y8.227 Z-4.179
X47.392 Y8.391 Z-4.192
X47.408 Y8.719 Z-4.228
X47.416 Y8.883 Z-4.239
X47.426 Y9.047 Z-4.238
X47.459 Y9.273 Z-4.23
X47.477 Y9.375 Z-4.226
X47.5 Y9.539 Z-4.222
X47.502 Y9.703 Z-4.218
X47.48 Y9.867 Z-4.211
X47.441 Y10.031 Z-4.2
X47.415 Y10.195 Z-4.191
X47.402 Y10.359 Z-4.184
X47.393 Y10.523 Z-4.18
X47.408 Y10.851 Z-4.177
X47.402 Y11.015
X47.397 Y11.179 Z-4.182
X47.392 Y11.343 Z-4.19
X47.388 Y11.507 Z-4.205
X47.384 Y11.672 Z-4.222
X47.38 Y11.836 Z-4.234
X47.376 Y12 Z-4.225
X47.371 Y12.164 Z-4.205
X47.355 Y12.328 Z-4.189
X47.332 Y12.492 Z-4.18
X47.31 Y12.656 Z-4.178
X47.294 Y12.82 Z-4.181
X47.285 Y12.984 Z-4.172
X47.283 Y13.148 Z-4.152
X47.281 Y13.312 Z-4.137
X47.279 Y13.476 Z-4.128
Y13.64 Z-4.125
X47.288 Y13.804
X47.306 Y13.968 Z-4.124
X47.34 Y14.214 Z-4.114
X47.333 Y14.296 Z-4.113
X47.295 Y14.478 Z-4.114
X47.259 Y14.624 Z-4.117
X47.225 Y14.788 Z-4.108
X47.198 Y14.952 Z-4.098
X47.187 Y15.116 Z-4.091
X47.186 Y15.28 Z-4.089
X47.197 Y15.444
X47.223 Y15.608 Z-4.09
X47.258 Y15.772 Z-4.093
X47.302 Y15.936 Z-4.1
X47.365 Y16.1 Z-4.104
X47.433 Y16.264 Z-4.097
X47.435 Y16.428 Z-4.09
X47.427 Y16.592 Z-4.087
X47.421 Y16.756 Z-4.088
X47.415 Y16.92 Z-4.085
X47.409 Y17.084 Z-4.073
X47.415 Y17.248 Z-4.061
X47.424 Y17.412 Z-4.053
X47.472 Y17.74 Z-4.041
X47.475 Y17.904 Z-4.037
X47.464 Y18.068 Z-4.035
X47.443 Y18.233 Z-4.031
X47.421 Y18.397 Z-4.023
X47.393 Y18.561 Z-4.015
X47.332 Y18.889 Z-3.997
X47.307 Y19.053 Z-3.984
X47.295 Y19.254 Z-3.965
X47.291 Y19.381 Z-3.952
X47.295 Y19.49 Z-3.944
X47.3 Y19.545 Z-3.941
X47.322 Y19.709 Z-3.933
X47.347 Y19.873 Z-3.923
X47.377 Y20.037 Z-3.905
X47.406 Y20.201 Z-3.889
X47.426 Y20.365 Z-3.879
X47.441 Y20.529 Z-3.876
X47.435 Y20.693 Z-3.879
X47.426 Y20.857 Z-3.887
X47.418 Y21.021 Z-3.891
X47.412 Y21.185 Z-3.882
X47.406 Y21.349 Z-3.867
X47.401 Y21.513 Z-3.851
X47.405 Y21.677 Z-3.837
X47.413 Y21.841 Z-3.825
X47.422 Y22.005 Z-3.817
X47.43 Y22.169 Z-3.814
X47.441 Y22.333 Z-3.815
X47.465 Y22.497 Z-3.821
X47.493 Y22.661 Z-3.831
Y22.825 Z-3.844
Y22.989 Z-3.86
X47.499 Y23.153 Z-3.875
X47.51 Y23.317 Z-3.864
X47.533 Y23.645 Z-3.83
X47.544 Y23.809 Z-3.819
X47.548 Y23.973 Z-3.814
Y24.137 Z-3.817
Y24.301 Z-3.826
X47.555 Y24.465 Z-3.837
X47.566 Y24.63 Z-3.833
X47.582 Y24.794 Z-3.826
X47.589 Y24.958 Z-3.819
X47.548 Y25.614 Z-3.782
X47.538 Y25.778 Z-3.778
X47.528 Y25.942 Z-3.781
X47.517 Y26.106 Z-3.79
X47.512 Y26.27 Z-3.798
X47.52 Y26.434 Z-3.792
X47.533 Y26.598 Z-3.786
X47.548 Y26.762 Z-3.784
X47.561 Y26.926
X47.566 Y27.09
X47.548 Y27.254 Z-3.782
X47.521 Y27.418 Z-3.781
X47.496 Y27.582 Z-3.785
X47.477 Y27.746 Z-3.793
X47.452 Y28.074 Z-3.814
X47.44 Y28.238 Z-3.821
X47.433 Y28.402 Z-3.825
Y28.566 Z-3.829
X47.442 Y28.894 Z-3.837
X47.452 Y29.222 Z-3.85
X47.444 Y29.386 Z-3.854
X47.432 Y29.55 Z-3.858
X47.423 Y29.714 Z-3.86
X47.418 Y29.878 Z-3.858
X47.426 Y30.042 Z-3.859
X47.438 Y30.206 Z-3.863
X47.451 Y30.37 Z-3.87
X47.461 Y30.534 Z-3.882
X47.465 Y30.698 Z-3.897
X47.467 Y30.862 Z-3.916
X47.462 Y31.026 Z-3.934
X47.459 Y31.08 Z-3.939
X47.454 Y31.191 Z-3.946
X47.439 Y31.519 Z-3.955
X47.43 Y31.683 Z-3.965
X47.414 Y32.011 Z-3.993
X47.417 Y32.175 Z-4.007
X47.423 Y32.339 Z-4.021
X47.431 Y32.503 Z-4.038
X47.438 Y32.667 Z-4.06
X47.436 Y32.831 Z-4.085
X47.431 Y32.995 Z-4.103
X47.425 Y33.323 Z-4.11
X47.421 Y33.487 Z-4.118
X47.417 Y33.651 Z-4.131
X47.412 Y33.815 Z-4.148
X47.406 Y33.979 Z-4.17
X47.395 Y34.307 Z-4.219
X47.39 Y34.471 Z-4.239
X47.393 Y34.635 Z-4.251
X47.4 Y34.799 Z-4.258
X47.421 Y35.127 Z-4.264
X47.433 Y35.291 Z-4.265
X47.447 Y35.455 Z-4.269
X47.465 Y35.619 Z-4.28
X47.483 Y35.783 Z-4.295
X47.515 Y36.111 Z-4.332
X47.531 Y36.275 Z-4.347
X47.548 Y36.439 Z-4.357
Y36.603 Z-4.364
X47.52 Y36.931 Z-4.377
X47.494 Y37.259 Z-4.396
X47.483 Y37.423 Z-4.403
X47.474 Y37.588 Z-4.408
X47.459 Y37.815 Z-4.405
X47.451 Y37.916 Z-4.402
X47.444 Y38.08 Z-4.396
X47.443 Y38.244 Z-4.392
X47.446 Y38.408 Z-4.39
X47.449 Y38.572 Z-4.394
X47.451 Y38.736 Z-4.404
X47.453 Y38.9 Z-4.419
X47.459 Y39.285 Z-4.459
X47.461 Y39.392 Z-4.464
X47.465 Y39.556 Z-4.457
X47.464 Y39.72 Z-4.449
X47.445 Y39.884 Z-4.446
X47.426 Y40.048 Z-4.448
X47.415 Y40.212 Z-4.454
X47.407 Y40.376 Z-4.464
X47.415 Y40.54 Z-4.473
X47.437 Y40.704 Z-4.47
X47.464 Y40.868 Z-4.459
X47.497 Y41.032 Z-4.453
X47.53 Y41.196 Z-4.454
X47.537 Y41.36 Z-4.457
X47.531 Y41.524 Z-4.465
X47.517 Y41.688 Z-4.473
X47.506 Y41.852 Z-4.48
X47.499 Y42.016 Z-4.486
X47.503 Y42.344 Z-4.494
X47.512 Y42.836 Z-4.504
X47.515 Y43.164 Z-4.515
X47.509 Y43.492 Z-4.522
X47.506 Y43.656
X47.503 Y43.82 Z-4.519
X47.5 Y44.149 Z-4.505
X47.504 Y44.313 Z-4.498
X47.513 Y44.477 Z-4.491
X47.535 Y44.641 Z-4.482
X47.556 Y44.805 Z-4.47
X47.568 Y44.969 Z-4.458
X47.565 Y45.133 Z-4.448
X47.557 Y45.297 Z-4.439
X47.55 Y45.389 Z-4.435
X47.535 Y45.411 Z-4.433
X47.459 Y45.421 Z-4.428
X47.295 Y45.441 Z-4.41
X46.967 Y45.482 Z-4.365
X46.803 Y45.503 Z-4.345
X46.639 Y45.524 Z-4.322
X46.475 Y45.542 Z-4.292
X46.311 Y45.548 Z-4.266
X46.147 Y45.553 Z-4.242
X45.983 Y45.558 Z-4.224
X45.819 Y45.56 Z-4.204
X45.655 Y45.558 Z-4.18
X45.491 Y45.544 Z-4.154
X45.327 Y45.512 Z-4.131
X45.111 Y45.461 Z-4.1
X44.999 Y45.435 Z-4.087
X44.835 Y45.399 Z-4.067
X44.671 Y45.372 Z-4.057
X44.507 Y45.353 Z-4.049
X44.343 Y45.335 Z-4.043
X43.998 Y45.297 Z-4.014
X43.851 Y45.287 Z-4.003
X43.687 Y45.281 Z-3.997
X43.523 Y45.289 Z-3.992
X43.359 Y45.304 Z-3.984
X43.195 Y45.321 Z-3.972
X42.703 Y45.377 Z-3.929
X42.539 Y45.386 Z-3.916
X42.211 Y45.402 Z-3.897
X42.047 Y45.392 Z-3.889
X41.883 Y45.384 Z-3.88
X41.719 Y45.381 Z-3.87
X41.555 Y45.389 Z-3.86
X41.391 Y45.411 Z-3.847
X41.227 Y45.437 Z-3.833
X41.063 Y45.466 Z-3.819
X40.899 Y45.464 Z-3.812
X40.571 Y45.45 Z-3.799
X40.407 Y45.444 Z-3.791
X40.243 Y45.447 Z-3.782
X40.079 Y45.451 Z-3.77
X39.9 Y45.461 Z-3.756
X39.751 Y45.476 Z-3.745
X39.587 Y45.482 Z-3.735
X39.259 Y45.48 Z-3.717
X39.095 Y45.487 Z-3.706
X38.931 Y45.51 Z-3.694
X38.603 Y45.562 Z-3.675
X38.275 Y45.556 Z-3.662
X38.111 Y45.558 Z-3.657
X37.947 Y45.567 Z-3.655
X37.619 Y45.613 Z-3.652
X37.455 Y45.636 Z-3.647
X37.291 Y45.661 Z-3.639
X37.127 Y45.689 Z-3.627
X36.963 Y45.731 Z-3.608
X36.881 Y45.747 Z-3.599
X36.799 Y45.717 Z-3.592
X36.635 Y45.664 Z-3.576
X36.471 Y45.619 Z-3.56
X36.307 Y45.592 Z-3.547
X36.143 Y45.571 Z-3.538
X35.979 Y45.56 Z-3.529
X35.815 Y45.552 Z-3.518
X35.651 Y45.56 Z-3.503
X35.487 Y45.578 Z-3.486
X35.323 Y45.601 Z-3.47
X35.159 Y45.612 Z-3.457
X34.995 Y45.603 Z-3.448
X34.667 Y45.561 Z-3.44
X34.503 Y45.545 Z-3.432
X34.339 Y45.536 Z-3.424
X34.175 Y45.534 Z-3.418
X34.011 Y45.531 Z-3.419
X33.847 Y45.529 Z-3.425
X33.519 Y45.524 Z-3.447
X33.355 Y45.521 Z-3.455
X33.191 Y45.52 Z-3.46
X33.027 Y45.528 Z-3.468
X32.863 Y45.542 Z-3.478
X32.371 Y45.592 Z-3.517
X32.207 Y45.608 Z-3.521
X32.013 Y45.625 Z-3.518
X31.879 Y45.623 Z-3.519
X31.715 Y45.62 Z-3.524
X31.551 Y45.618 Z-3.534
X31.223 Z-3.558
X30.895 Y45.62 Z-3.582
X30.731 Y45.625 Z-3.597
X30.567 Y45.632 Z-3.613
X30.427 Y45.625 Z-3.626
X30.239 Y45.609 Z-3.637
X29.911 Y45.59 Z-3.652
X29.254 Y45.531 Z-3.681
X29.09 Y45.517 Z-3.69
X28.926 Y45.507 Z-3.701
X28.762 Y45.5 Z-3.712
X28.598 Y45.508 Z-3.722
X28.434 Y45.518 Z-3.729
X28.106 Y45.54 Z-3.733
X27.942 Y45.551 Z-3.735
X27.778 Y45.56 Z-3.739
X27.45 Y45.564 Z-3.748
X27.286 Y45.566 Z-3.75
X27.122 Y45.567 Z-3.743
X26.958 Y45.568 Z-3.725
X26.794 Y45.574 Z-3.709
X26.63 Y45.581 Z-3.701
X26.466 Y45.59 Z-3.7
X26.302 Y45.597 Z-3.702
X26.138 Y45.608 Z-3.707
X25.956 Y45.625 Z-3.711
X25.81 Y45.643 Z-3.714
X25.646 Y45.66 Z-3.713
X25.482 Y45.667 Z-3.707
X25.318 Y45.675 Z-3.684
X25.154 Y45.667 Z-3.661
X24.99 Y45.659 Z-3.643
X24.826 Y45.643 Z-3.63
X24.498 Y45.6 Z-3.614
X24.334 Y45.579 Z-3.603
X24.17 Y45.569 Z-3.593
X24.006 Y45.564 Z-3.587
X23.842 Y45.563
X23.678 Y45.558 Z-3.591
X23.514 Y45.556 Z-3.597
X23.35 Z-3.602
X23.022 Y45.553 Z-3.608
X22.858 Z-3.61
X22.694 Y45.561 Z-3.604
X22.53 Y45.574 Z-3.585
X22.366 Y45.589 Z-3.563
X22.202 Y45.604 Z-3.544
X22.038 Y45.618 Z-3.53
X21.874 Y45.615 Z-3.524
X21.71 Y45.59 Z-3.526
X21.546 Y45.567 Z-3.537
X21.382 Y45.546 Z-3.557
X21.218 Y45.53 Z-3.579
X21.054 Y45.518 Z-3.594
X20.562 Y45.474 Z-3.615
X20.398 Y45.459 Z-3.617
X20.234 Y45.446 Z-3.618
X20.07 Y45.438 Z-3.616
X19.906 Y45.446 Z-3.612
X19.732 Y45.461 Z-3.609
X19.578 Y45.478 Z-3.608
X19.414 Y45.497 Z-3.612
X19.25 Y45.513 Z-3.62
X19.086 Y45.509 Z-3.635
X18.922 Y45.504 Z-3.653
X18.758 Z-3.674
X18.594 Y45.51 Z-3.694
X18.43 Y45.515 Z-3.702
X18.266 Y45.52 Z-3.708
X18.102 Y45.514 Z-3.717
X17.938 Y45.508 Z-3.729
X17.774 Y45.486 Z-3.732
X17.61 Y45.477 Z-3.725
X17.446 Y45.473 Z-3.723
X17.282 Y45.482 Z-3.729
X17.118 Y45.497 Z-3.745
X16.954 Y45.513 Z-3.769
X16.757 Y45.533 Z-3.805
X16.626 Y45.545 Z-3.78
X16.462 Y45.57 Z-3.751
X16.298 Y45.609 Z-3.729
X16.235 Y45.625 Z-3.723
X16.134 Y45.654 Z-3.714
X15.97 Y45.709 Z-3.706
X15.765 Y45.776 Z-3.699
X15.724 Y45.772
X15.642 Y45.731 Z-3.7
X15.478 Y45.65 Z-3.707
X15.314 Y45.575 Z-3.715
X15.15 Y45.511 Z-3.708
X14.964 Y45.461 Z-3.694
X14.822 Y45.427 Z-3.687
X14.658 Y45.401 Z-3.682
X14.494 Y45.392 Z-3.672
X14.33 Y45.387 Z-3.661
X14.166 Y45.396 Z-3.662
X14.002 Y45.419 Z-3.673
X13.838 Y45.446 Z-3.688
X13.759 Y45.461
X13.674 Y45.476 Z-3.685
X13.51 Y45.517 Z-3.68
X13.346 Y45.562
X13.182 Y45.626 Z-3.685
X13.018 Y45.703 Z-3.691
X12.854 Y45.729 Z-3.683
X12.69 Y45.738 Z-3.67
X12.526 Y45.737 Z-3.661
X12.362 Y45.735 Z-3.656
X12.198 Y45.732 Z-3.647
X11.87 Y45.727 Z-3.615
X11.706 Y45.725 Z-3.602
X11.542 Y45.728 Z-3.593
X11.214 Y45.743 Z-3.579
X11.05 Y45.734 Z-3.571
X10.886 Y45.701 Z-3.565
X10.722 Y45.658 Z-3.562
X10.602 Y45.625
X10.394 Y45.575 Z-3.568
X10.23 Y45.549 Z-3.575
X10.066 Y45.54 Z-3.582
X9.902 Y45.535 Z-3.592
X9.738 Y45.544 Z-3.607
X9.574 Y45.563 Z-3.628
X9.41 Y45.59 Z-3.653
X9.313 Y45.611 Z-3.661
X9.244 Y45.625 Z-3.652
X9.082 Y45.664 Z-3.632
X8.918 Y45.705 Z-3.617
X8.754 Y45.731 Z-3.61
X8.59 Y45.752 Z-3.609
X8.426 Y45.737 Z-3.615
X8.262 Y45.713 Z-3.626
X8.098 Y45.69 Z-3.639
X7.934 Y45.653 Z-3.648
X7.77 Y45.616 Z-3.655
X7.606 Y45.591 Z-3.662
X7.442 Y45.581 Z-3.67
X7.278 Y45.576 Z-3.679
X7.114 Y45.585 Z-3.687
X6.95 Y45.61 Z-3.694
X6.786 Y45.609 Z-3.701
X6.622 Y45.596 Z-3.71
X6.458 Y45.588 Z-3.718
X6.294 Y45.584 Z-3.724
X5.966 Y45.586 Z-3.728
X5.802 Y45.588 Z-3.729
X5.638 Y45.585 Z-3.727
X5.31 Y45.548 Z-3.701
X5.146 Y45.53 Z-3.692
X4.982 Y45.513 Z-3.689
X4.818 Y45.496 Z-3.694
X4.654 Y45.48 Z-3.703
X4.49 Y45.472 Z-3.717
X4.326 Y45.47 Z-3.732
X3.998 Y45.472 Z-3.759
X3.834 Y45.474 Z-3.765
X3.67 Y45.479 Z-3.747
X3.506 Y45.486 Z-3.733
X3.342 Y45.493 Z-3.727
X3.178 Z-3.73
X3.014 Y45.489 Z-3.742
X2.85 Y45.487 Z-3.762
X2.686 Y45.489 Z-3.785
X2.522 Y45.494 Z-3.794
X2.358 Y45.5 Z-3.799
X2.194 Y45.507 Z-3.808
X2.03 Y45.513 Z-3.82
X1.866 Y45.504 Z-3.832
X1.702 Y45.49 Z-3.842
X1.538 Y45.479 Z-3.849
X1.374 Y45.471 Z-3.847
X1.21 Y45.472 Z-3.844
X1.046 Z-3.845
X0.882 Y45.47 Z-3.852
X0.718 Y45.465 Z-3.862
X0.644 Y45.461 Z-3.865
X0.554 Y45.449 Z-3.867
X0.39 Y45.421
X0.226 Y45.397 Z-3.868
X0.062 Y45.389 Z-3.87
X-0.102 Z-3.875
X-0.43 Y45.397 Z-3.89
X-0.594 Y45.402 Z-3.898
X-0.758 Y45.411 Z-3.902
X-1.004 Y45.431 Z-3.9
X-1.086 Y45.42 Z-3.899
X-1.25 Y45.393 Z-3.898
X-1.414 Y45.369 Z-3.896
X-1.578 Y45.358 Z-3.894
X-1.742 Z-3.893
X-1.906 Y45.367 Z-3.892
X-2.07 Y45.38 Z-3.893
X-2.398 Y45.41 Z-3.903
X-2.562 Y45.424 Z-3.909
X-2.89 Y45.411 Z-3.917
X-3.054 Y45.406 Z-3.918
X-3.218 Y45.396 Z-3.921
X-3.382 Y45.381 Z-3.926
X-3.546 Y45.367 Z-3.935
X-3.874 Y45.34 Z-3.958
X-4.038 Y45.328 Z-3.967
X-4.202 Y45.316 Z-3.969
X-4.366 Y45.308 Z-3.965
X-4.53 Y45.307 Z-3.963
X-4.694 Y45.305 Z-3.967
X-4.858 Y45.303 Z-3.978
X-5.022 Z-3.996
X-5.186 Y45.305 Z-4.016
X-5.35 Y45.311 Z-4.029
X-5.514 Y45.321 Z-4.025
X-5.678 Y45.345 Z-4.015
X-5.842 Y45.383 Z-4.008
X-6.006 Y45.42 Z-4.007
X-6.17 Y45.412 Z-4.014
X-6.334 Y45.407 Z-4.024
X-6.498 Y45.401 Z-4.028
X-6.662 Y45.394 Z-4.023
X-6.99 Y45.374 Z-4.012
X-7.318 Y45.359 Z-4.006
X-7.482 Y45.353 Z-4.001
X-7.646 Y45.36 Z-3.992
X-7.81 Y45.372 Z-3.98
X-7.974 Y45.388 Z-3.968
X-8.138 Y45.411 Z-3.957
X-8.302 Y45.424 Z-3.952
X-8.466 Y45.402 Z-3.949
X-8.63 Y45.38 Z-3.939
X-8.794 Y45.369 Z-3.925
X-8.958 Y45.368 Z-3.912
X-9.122 Y45.374 Z-3.899
X-9.286 Y45.381 Z-3.889
X-9.45 Y45.39 Z-3.884
X-9.614 Y45.401 Z-3.882
X-9.778 Y45.419 Z-3.883
X-9.942 Y45.44 Z-3.884
X-10.106 Y45.461 Z-3.88
X-10.27 Y45.469 Z-3.876
X-10.434 Y45.451 Z-3.87
X-10.598 Y45.434 Z-3.863
X-10.762 Y45.424 Z-3.853
X-10.926 Y45.418 Z-3.842
X-11.09 Y45.415 Z-3.834
X-11.254 Y45.411 Z-3.831
X-11.418 Y45.414 Z-3.833
X-11.582 Y45.423 Z-3.835
X-11.746 Y45.44 Z-3.836
X-11.931 Y45.461 Z-3.834
X-12.074 Y45.478 Z-3.831
X-12.238 Y45.491 Z-3.827
X-12.402 Y45.489 Z-3.821
X-12.566 Y45.483 Z-3.809
X-12.894 Y45.472 Z-3.779
X-13.132 Y45.461 Z-3.763
X-13.386 Y45.446 Z-3.751
X-13.55 Y45.424 Z-3.746
X-13.714 Y45.403 Z-3.743
X-13.878 Y45.395 Z-3.742
X-14.042 Y45.393 Z-3.744
X-14.206 Y45.401 Z-3.745
X-14.37 Y45.417 Z-3.746
X-14.534 Y45.426 Z-3.745
X-14.698 Y45.409
X-14.862 Y45.391 Z-3.75
X-15.026 Y45.376 Z-3.757
X-15.19 Y45.367 Z-3.764
X-15.354 Y45.375 Z-3.763
X-15.518 Y45.386 Z-3.755
X-15.682 Y45.411 Z-3.748
X-15.872 Y45.461 Z-3.742
X-16.01 Y45.501 Z-3.738
X-16.174 Y45.564 Z-3.737
X-16.338 Y45.644 Z-3.738
X-16.502 Y45.726 Z-3.745
X-16.584 Y45.767 Z-3.751
X-16.666 Y45.785 Z-3.755
X-16.702 Y45.789 Z-3.757
X-16.773 Z-3.758
X-16.83 Y45.753 Z-3.756
X-16.994 Y45.666 Z-3.753
X-17.09 Y45.625 Z-3.752
X-17.158 Y45.599 Z-3.753
X-17.322 Y45.545 Z-3.756
X-17.486 Y45.501 Z-3.761
X-17.677 Y45.461 Z-3.769
X-17.814 Y45.433
X-18.142 Y45.371 Z-3.751
X-18.306 Y45.338 Z-3.745
X-18.47 Y45.311 Z-3.746
X-18.634 Y45.29 Z-3.752
X-18.798 Y45.281 Z-3.762
X-18.962 Y45.289 Z-3.775
X-19.126 Y45.301 Z-3.785
X-19.29 Y45.327 Z-3.794
X-19.454 Y45.365 Z-3.803
X-19.618 Y45.41 Z-3.817
X-19.782 Y45.47 Z-3.841
X-19.946 Y45.549 Z-3.874
X-20.028 Y45.591 Z-3.89
X-20.049 Y45.603 Z-3.893
X-20.069 Y45.614
X-20.11 Y45.611 Z-3.892
X-20.274 Y45.564 Z-3.887
X-20.438 Y45.521 Z-3.867
X-20.602 Y45.493 Z-3.844
X-20.766 Y45.479 Z-3.823
X-20.93 Y45.471 Z-3.805
X-21.094 Y45.478 Z-3.791
X-21.258 Y45.499 Z-3.78
X-21.422 Y45.512 Z-3.773
X-21.505 Y45.478 Z-3.762
X-21.586 Y45.448 Z-3.746
X-21.75 Y45.403 Z-3.723
X-21.915 Y45.369 Z-3.709
X-22.079 Y45.348 Z-3.702
X-22.243 Y45.339 Z-3.698
X-22.407 Y45.341 Z-3.695
X-22.571 Y45.347 Z-3.692
X-22.735 Y45.357 Z-3.689
X-22.899 Y45.378 Z-3.685
X-23.063 Y45.404 Z-3.677
X-23.227 Y45.448 Z-3.668
X-23.391 Y45.505 Z-3.664
X-23.555 Y45.569 Z-3.667
X-23.719 Y45.652 Z-3.677
X-23.883 Y45.701 Z-3.686
X-24.047 Y45.738 Z-3.682
X-24.227 Y45.789 Z-3.639
X-24.375 Y45.842 Z-3.605
X-24.539 Y45.905 Z-3.575
X-24.703 Y45.964 Z-3.554
X-24.828 Y46.004 Z-3.543
X-24.867 Y46.017 Z-3.531
X-25.031 Y46.078 Z-3.483
X-25.195 Y46.111 Z-3.448
X-25.359 Y46.106 Z-3.429
X-25.523 Y46.099 Z-3.42
X-25.687 Y46.095
X-25.851 Y46.093 Z-3.428
X-25.933 Y46.078 Z-3.436
X-26.015 Y46.007 Z-3.456
X-26.085 Y45.953 Z-3.473
X-26.179 Y45.882 Z-3.493
X-26.31 Y45.789 Z-3.516
X-26.343 Y45.768 Z-3.522
X-26.507 Y45.68 Z-3.549
X-26.634 Y45.625 Z-3.57
X-26.747 Y45.582 Z-3.589
X-26.835 Y45.55 Z-3.579
X-26.999 Y45.502 Z-3.569
X-27.163 Y45.456
X-27.327 Y45.413 Z-3.576
X-27.491 Y45.376 Z-3.594
X-27.655 Y45.352 Z-3.621
X-27.819 Y45.343 Z-3.656
X-27.983 Y45.341 Z-3.699
X-28.147 Y45.355 Z-3.744
X-28.311 Y45.383 Z-3.787
X-28.475 Y45.421 Z-3.832
X-28.528 Y45.436 Z-3.845
X-28.639 Y45.466 Z-3.835
X-28.803 Y45.524 Z-3.814
X-28.967 Y45.569 Z-3.789
X-29.131 Y45.539 Z-3.779
X-29.295 Y45.522 Z-3.78
X-29.459 Y45.515 Z-3.792
X-29.623 Y45.523 Z-3.816
X-29.787 Y45.545 Z-3.851
X-29.951 Y45.578 Z-3.899
X-30.017 Y45.597 Z-3.919
X-30.115 Y45.62 Z-3.908
X-30.279 Y45.614 Z-3.89
X-30.443 Y45.599 Z-3.875
X-30.607 Y45.589 Z-3.862
X-30.771 Y45.584 Z-3.852
X-30.935 Y45.591 Z-3.844
X-31.099 Y45.567 Z-3.841
X-31.427 Y45.486 Z-3.84
X-31.591 Y45.454 Z-3.834
X-31.755 Y45.429 Z-3.828
X-31.919 Y45.42
X-32.083 Y45.417 Z-3.835
X-32.247 Y45.419 Z-3.841
X-32.411 Y45.427 Z-3.837
X-32.575 Y45.445 Z-3.83
X-32.69 Y45.461 Z-3.826
X-32.739 Y45.47 Z-3.825
X-32.903 Y45.514 Z-3.826
X-33.067 Y45.57 Z-3.833
X-33.231 Y45.632 Z-3.841
X-33.395 Y45.701
X-33.477 Y45.72 Z-3.838
X-33.559 Y45.702 Z-3.834
X-33.723 Y45.676 Z-3.829
X-33.887 Y45.66 Z-3.828
X-34.051 Y45.649 Z-3.827
X-34.215 Z-3.822
X-34.379 Y45.659 Z-3.818
X-34.543 Y45.629 Z-3.815
X-34.707 Y45.587 Z-3.816
X-34.789 Y45.572 Z-3.818
X-34.871 Y45.561 Z-3.817
X-35.035 Y45.549 Z-3.787
X-35.199 Y45.542 Z-3.758
X-35.363 Y45.55 Z-3.734
X-35.527 Y45.574 Z-3.714
X-35.691 Y45.593 Z-3.698
X-35.855 Y45.566 Z-3.679
X-36.019 Y45.547 Z-3.667
X-36.203 Y45.538 Z-3.66
X-36.347 Y45.535 Z-3.649
X-36.511 Y45.541 Z-3.639
X-36.675 Y45.55 Z-3.636
X-36.839 Y45.563 Z-3.641
X-37.003 Y45.578 Z-3.654
X-37.228 Y45.595 Z-3.686
X-37.249 Y45.597 Z-3.687
X-37.331 Y45.587 Z-3.682
X-37.495 Y45.56 Z-3.669
X-37.659 Y45.546 Z-3.657
X-37.823 Y45.537 Z-3.647
X-37.987 Y45.538 Z-3.642
X-38.151 Y45.546 Z-3.641
X-38.315 Y45.572 Z-3.645
X-38.407 Y45.592 Z-3.647
X-38.479 Y45.607 Z-3.632
X-38.554 Y45.625 Z-3.613
X-38.643 Y45.651 Z-3.589
X-38.848 Y45.732 Z-3.54
X-38.889 Y45.715 Z-3.529
X-38.971 Y45.685 Z-3.51
X-39.135 Y45.641 Z-3.478
X-39.299 Y45.603 Z-3.458
X-39.463 Y45.578 Z-3.447
X-39.627 Y45.569 Z-3.445
X-39.791 Y45.567 Z-3.447
X-39.955 Y45.575 Z-3.444
X-40.119 Y45.601 Z-3.434
X-40.283 Y45.633 Z-3.424
X-40.447 Y45.668 Z-3.415
X-40.611 Y45.678 Z-3.406
X-40.775 Y45.673 Z-3.4
X-40.939 Y45.66 Z-3.396
X-41.103 Y45.65 Z-3.395
X-41.267 Y45.644 Z-3.396
X-41.431 Y45.65 Z-3.395
X-41.595 Y45.657 Z-3.388
X-41.923 Y45.671 Z-3.362
X-42.087 Y45.679 Z-3.351
X-42.251 Y45.655 Z-3.342
X-42.415 Y45.632 Z-3.335
X-42.579 Y45.62 Z-3.333
X-42.907 Y45.601 Z-3.332
X-43.235 Y45.582 Z-3.327
X-43.399 Y45.575
X-43.563 Y45.578 Z-3.33
X-43.727 Y45.586 Z-3.333
X-44.055 Y45.604 Z-3.334
X-44.219 Y45.614 Z-3.337
X-44.412 Y45.625 Z-3.348
X-44.547 Y45.631 Z-3.36
X-44.711 Y45.637 Z-3.38
