(1001)
(Bearbeiten)
(  Hersteller: ChinaCnc)
(  model: 3040T)
(  description: Generic 3-axis)
(T10  D=3.175 CR=1.587 - ZMIN=-4.983 - Kugelkopffraser)
G90 G94
G17
G21
G28 G91 Z0
G90

(Adaptiv1)
T10
S5000 M3
G54
G0 X-21.877 Y-20.372
Z15
Z5
Z1
G3 X-22.632 Y-20.619 Z0.956 I-0.377 J-0.124 F381
X-21.877 Y-20.372 Z0.913 I0.377 J0.124
X-22.632 Y-20.619 Z0.869 I-0.377 J-0.124
X-21.877 Y-20.372 Z0.826 I0.377 J0.124
X-22.632 Y-20.619 Z0.782 I-0.377 J-0.124
X-21.877 Y-20.372 Z0.739 I0.377 J0.124
X-22.632 Y-20.619 Z0.695 I-0.377 J-0.124
X-21.877 Y-20.372 Z0.652 I0.377 J0.124
X-22.632 Y-20.619 Z0.608 I-0.377 J-0.124
X-21.877 Y-20.372 Z0.565 I0.377 J0.124
X-22.632 Y-20.619 Z0.521 I-0.377 J-0.124
X-21.877 Y-20.372 Z0.478 I0.377 J0.124
X-22.632 Y-20.619 Z0.434 I-0.377 J-0.124
X-21.877 Y-20.372 Z0.39 I0.377 J0.124
X-22.632 Y-20.619 Z0.347 I-0.377 J-0.124
X-21.877 Y-20.372 Z0.303 I0.377 J0.124
X-22.632 Y-20.619 Z0.26 I-0.377 J-0.124
X-21.877 Y-20.372 Z0.216 I0.377 J0.124
X-22.632 Y-20.619 Z0.173 I-0.377 J-0.124
X-21.877 Y-20.372 Z0.129 I0.377 J0.124
X-22.632 Y-20.619 Z0.086 I-0.377 J-0.124
X-21.877 Y-20.372 Z0.042 I0.377 J0.124
X-22.632 Y-20.619 Z-0.001 I-0.377 J-0.124
X-21.877 Y-20.372 Z-0.045 I0.377 J0.124
X-22.632 Y-20.619 Z-0.088 I-0.377 J-0.124
X-21.877 Y-20.372 Z-0.132 I0.377 J0.124
X-22.632 Y-20.619 Z-0.176 I-0.377 J-0.124
X-21.877 Y-20.372 Z-0.219 I0.377 J0.124
X-22.632 Y-20.619 Z-0.263 I-0.377 J-0.124
X-21.877 Y-20.372 Z-0.306 I0.377 J0.124
X-22.632 Y-20.619 Z-0.35 I-0.377 J-0.124
X-21.877 Y-20.372 Z-0.393 I0.377 J0.124
X-22.632 Y-20.619 Z-0.437 I-0.377 J-0.124
X-21.877 Y-20.372 Z-0.48 I0.377 J0.124
X-22.632 Y-20.619 Z-0.524 I-0.377 J-0.124
X-21.877 Y-20.372 Z-0.567 I0.377 J0.124
X-22.632 Y-20.619 Z-0.611 I-0.377 J-0.124
X-21.877 Y-20.372 Z-0.655 I0.377 J0.124
X-22.632 Y-20.619 Z-0.698 I-0.377 J-0.124
X-21.877 Y-20.372 Z-0.742 I0.377 J0.124
X-22.632 Y-20.619 Z-0.785 I-0.377 J-0.124
X-21.877 Y-20.372 Z-0.829 I0.377 J0.124
X-22.632 Y-20.619 Z-0.872 I-0.377 J-0.124
X-21.877 Y-20.372 Z-0.916 I0.377 J0.124
X-22.632 Y-20.619 Z-0.959 I-0.377 J-0.124
X-21.858 Y-20.496 Z-0.998 I0.377 J0.124
X-22.651 Y-20.496 I-0.397 J0
X-21.858 Y-20.496 I0.397 J0
S8000
G1 X-21.759 Y-20.212 F762
X-21.762 Y-20.062
X-21.817 Y-19.923
X-22.003 Y-19.687
X-22.278 Y-19.568
X-22.578 Y-19.566
X-22.86 Y-19.668
X-23.093 Y-19.857
X-23.258 Y-20.108
X-23.342 Y-20.396
X-23.34 Y-20.696
X-23.255 Y-20.983
X-23.094 Y-21.237
X-22.871 Y-21.437
X-22.602 Y-21.57
X-22.308 Y-21.626
X-22.009 Y-21.603
X-21.444 Y-21.4
X-21.038 Y-20.958
X-20.832 Y-20.395
X-20.873 Y-19.796
X-21.127 Y-19.253
X-21.567 Y-18.845
X-22.125 Y-18.623
X-22.725 Y-18.608
X-23.296 Y-18.791
X-23.781 Y-19.145
X-24.133 Y-19.63
X-24.325 Y-20.199
X-24.341 Y-20.798
X-24.184 Y-21.377
X-23.867 Y-21.887
X-23.419 Y-22.286
X-22.877 Y-22.543
X-22.284 Y-22.638
X-21.686 Y-22.593
X-21.124 Y-22.384
X-20.623 Y-22.053
X-20.231 Y-21.599
X-19.946 Y-21.071
X-19.804 Y-20.488
X-19.806 Y-19.888
X-19.932 Y-19.301
X-20.203 Y-18.766
X-20.58 Y-18.299
X-21.054 Y-17.931
X-21.6 Y-17.684
X-22.185 Y-17.549
X-22.785 Y-17.553
X-23.371 Y-17.681
X-23.922 Y-17.919
X-24.406 Y-18.274
X-24.813 Y-18.714
X-25.129 Y-19.224
X-25.329 Y-19.79
X-25.423 Y-20.382
X-25.404 Y-20.982
X-25.261 Y-21.565
X-25.017 Y-22.113
X-24.675 Y-22.606
X-24.239 Y-23.018
X-23.739 Y-23.35
X-23.185 Y-23.581
X-22.598 Y-23.704
X-21.998 Y-23.727
X-21.404 Y-23.646
X-20.835 Y-23.456
X-20.305 Y-23.174
X-19.83 Y-22.808
X-19.427 Y-22.363
X-19.104 Y-21.857
X-18.865 Y-21.307
X-18.727 Y-20.723
X-18.688 Y-20.124
X-18.739 Y-19.526
X-18.89 Y-18.946
X-19.137 Y-18.399
X-19.465 Y-17.897
X-19.865 Y-17.45
X-20.337 Y-17.079
X-20.862 Y-16.788
X-21.422 Y-16.573
X-22.01 Y-16.452
X-22.609 Y-16.429
X-23.206 Y-16.493
X-23.788 Y-16.639
X-24.338 Y-16.878
X-24.846 Y-17.198
X-25.305 Y-17.585
X-25.706 Y-18.031
X-26.03 Y-18.536
X-26.278 Y-19.082
X-26.452 Y-19.656
X-26.499 Y-19.961
X-26.547 Y-20.559
X-26.51 Y-21.158
X-26.383 Y-21.744
X-26.175 Y-22.307
X-25.894 Y-22.837
X-25.54 Y-23.322
X-25.12 Y-23.75
X-24.644 Y-24.116
X-24.125 Y-24.417
X-23.569 Y-24.643
X-22.987 Y-24.788
X-22.391 Y-24.856
X-21.791 Y-24.848
X-21.197 Y-24.76
X-20.622 Y-24.59
X-20.073 Y-24.348
X-19.558 Y-24.04
X-19.087 Y-23.668
X-18.672 Y-23.235
X-18.315 Y-22.753
X-18.018 Y-22.231
X-17.789 Y-21.677
X-17.638 Y-21.096
X-17.56 Y-20.501
X-17.554 Y-19.901
X-17.619 Y-19.305
X-17.764 Y-18.722
X-17.981 Y-18.163
X-18.263 Y-17.634
X-18.604 Y-17.14
X-19.005 Y-16.694
X-19.461 Y-16.304
X-19.96 Y-15.971
X-20.494 Y-15.696
X-21.056 Y-15.486
X-21.641 Y-15.352
X-22.237 Y-15.289
X-22.837 Y-15.294
X-23.433 Y-15.364
X-24.016 Y-15.507
X-24.576 Y-15.722
X-25.109 Y-15.998
X-25.608 Y-16.331
X-26.068 Y-16.716
X-26.476 Y-17.156
X-26.83 Y-17.64
X-27.129 Y-18.161
X-27.372 Y-18.709
X-27.544 Y-19.284
X-27.656 Y-19.874
X-27.704 Y-20.472
X-27.68 Y-21.071
X-27.588 Y-21.664
X-27.433 Y-22.244
X-27.219 Y-22.804
X-26.943 Y-23.337
X-26.606 Y-23.834
X-26.216 Y-24.29
X-25.781 Y-24.702
X-25.305 Y-25.068
X-24.79 Y-25.377
X-24.244 Y-25.625
X-23.675 Y-25.814
X-23.089 Y-25.944
X-22.493 Y-26.014
X-21.893 Y-26.017
X-21.296 Y-25.954
X-20.71 Y-25.829
X-20.138 Y-25.646
X-19.588 Y-25.407
X-19.067 Y-25.109
X-18.581 Y-24.758
X-18.134 Y-24.358
X-17.728 Y-23.915
X-17.368 Y-23.435
X-17.061 Y-22.92
X-16.811 Y-22.374
X-16.617 Y-21.807
X-16.48 Y-21.222
X-16.4 Y-20.628
X-16.382 Y-20.028
X-16.426 Y-19.43
X-16.531 Y-18.839
X-16.626 Y-18.499
X-16.819 Y-17.931
X-17.069 Y-17.385
X-17.371 Y-16.867
X-17.722 Y-16.38
X-18.12 Y-15.932
X-18.564 Y-15.528
X-19.045 Y-15.169
X-19.558 Y-14.858
X-20.098 Y-14.596
X-20.661 Y-14.388
X-21.242 Y-14.24
X-21.835 Y-14.149
X-22.434 Y-14.115
X-23.034 Y-14.135
X-23.629 Y-14.211
X-24.213 Y-14.347
X-24.781 Y-14.54
X-25.329 Y-14.786
X-25.852 Y-15.08
X-26.346 Y-15.42
X-26.807 Y-15.805
X-27.226 Y-16.234
X-27.603 Y-16.701
X-27.936 Y-17.2
X-28.223 Y-17.727
X-28.46 Y-18.278
X-28.645 Y-18.849
X-28.776 Y-19.434
X-28.852 Y-20.029
X-28.873 Y-20.629
X-28.841 Y-21.228
X-28.755 Y-21.822
X-28.615 Y-22.405
X-28.421 Y-22.973
X-28.176 Y-23.521
X-27.882 Y-24.044
X-27.543 Y-24.539
X-27.161 Y-25.002
X-26.738 Y-25.427
X-26.278 Y-25.812
X-25.785 Y-26.154
X-25.264 Y-26.451
X-24.718 Y-26.702
X-24.153 Y-26.903
X-23.572 Y-27.052
X-22.98 Y-27.149
X-22.381 Y-27.194
X-21.781 Y-27.187
X-21.184 Y-27.129
X-20.595 Y-27.017
X-20.017 Y-26.854
X-19.456 Y-26.642
X-18.913 Y-26.381
X-18.392 Y-26.074
X-17.903 Y-25.726
X-17.447 Y-25.336
X-17.024 Y-24.905
X-16.637 Y-24.438
X-16.291 Y-23.938
X-15.987 Y-23.406
X-15.734 Y-22.861
X-15.53 Y-22.297
X-15.372 Y-21.708
X-15.265 Y-21.105
X-15.209 Y-20.493
X-15.207 Y-19.874
X-15.256 Y-19.276
X-15.366 Y-18.642
X-15.53 Y-18.026
X-15.745 Y-17.426
X-16.006 Y-16.858
X-16.302 Y-16.336
X-16.643 Y-15.84
X-17.034 Y-15.365
X-17.472 Y-14.916
X-17.955 Y-14.501
X-18.476 Y-14.124
X-19.025 Y-13.796
X-19.565 Y-13.533
X-20.128 Y-13.316
X-20.731 Y-13.141
X-21.361 Y-13.016
X-21.712 Y-12.977
X-22.325 Y-12.932
X-22.936 Y-12.939
X-23.553 Y-13
X-24.173 Y-13.115
X-24.793 Y-13.287
X-25.408 Y-13.515
X-26.008 Y-13.798
X-26.577 Y-14.129
X-27.103 Y-14.499
X-27.586 Y-14.905
X-28.036 Y-15.354
X-28.459 Y-15.855
X-28.839 Y-16.395
X-29.173 Y-16.965
X-29.456 Y-17.561
X-29.686 Y-18.178
X-29.863 Y-18.815
X-29.986 Y-19.468
X-30.053 Y-20.135
X-30.063 Y-20.807
X-30.015 Y-21.473
X-29.91 Y-22.13
X-29.75 Y-22.775
X-29.536 Y-23.403
X-29.268 Y-24.013
X-28.949 Y-24.595
X-28.583 Y-25.146
X-28.168 Y-25.667
X-27.707 Y-26.154
X-27.202 Y-26.604
X-26.656 Y-27.012
X-26.077 Y-27.371
X-25.471 Y-27.678
X-24.84 Y-27.933
X-24.187 Y-28.133
X-23.515 Y-28.278
X-22.829 Y-28.365
X-22.138 Y-28.394
X-21.451 Y-28.362
X-20.768 Y-28.272
X-20.09 Y-28.123
X-19.424 Y-27.915
X-18.775 Y-27.65
X-18.152 Y-27.33
X-17.563 Y-26.961
X-17.005 Y-26.54
X-16.482 Y-26.071
X-15.999 Y-25.556
X-15.56 Y-24.999
X-15.171 Y-24.409
X-14.836 Y-23.789
X-14.554 Y-23.14
X-14.327 Y-22.467
X-14.159 Y-21.774
X-14.05 Y-21.066
X-14.002 Y-20.36
X-14.016 Y-19.649
X-14.091 Y-18.932
X-14.229 Y-18.217
X-14.427 Y-17.516
X-14.682 Y-16.843
X-14.991 Y-16.2
X-15.354 Y-15.584
X-15.772 Y-14.998
X-16.244 Y-14.444
X-16.766 Y-13.927
X-17.333 Y-13.455
X-17.929 Y-13.041
X-18.552 Y-12.682
X-19.207 Y-12.376
X-19.894 Y-12.125
X-20.57 Y-11.941
X-21.334 Y-11.803
X-22.037 Y-11.737
X-22.771 Y-11.727
X-23.503 Y-11.78
X-24.234 Y-11.896
X-24.96 Y-12.077
X-25.676 Y-12.322
X-26.37 Y-12.628
X-27.03 Y-12.99
X-27.651 Y-13.403
X-28.232 Y-13.866
X-28.776 Y-14.382
X-29.277 Y-14.947
X-29.731 Y-15.556
X-30.132 Y-16.203
X-30.476 Y-16.882
X-30.761 Y-17.589
X-30.985 Y-18.321
X-31.147 Y-19.073
X-31.244 Y-19.839
X-31.274 Y-20.61
X-31.239 Y-21.38
X-31.138 Y-22.143
X-30.972 Y-22.893
X-30.742 Y-23.627
X-30.451 Y-24.338
X-30.1 Y-25.02
X-29.692 Y-25.671
X-29.227 Y-26.286
X-28.71 Y-26.862
X-28.141 Y-27.395
X-27.526 Y-27.878
X-26.873 Y-28.308
X-26.184 Y-28.68
X-25.464 Y-28.993
X-24.717 Y-29.243
X-23.948 Y-29.43
X-23.164 Y-29.55
X-22.374 Y-29.602
X-21.581 Y-29.587
X-20.791 Y-29.503
X-20.007 Y-29.352
X-19.237 Y-29.133
X-18.487 Y-28.848
X-17.765 Y-28.501
X-17.074 Y-28.093
X-16.42 Y-27.626
X-15.806 Y-27.102
X-15.237 Y-26.526
X-14.72 Y-25.903
X-14.258 Y-25.239
X-13.854 Y-24.536
X-13.511 Y-23.8
X-13.231 Y-23.035
X-13.018 Y-22.246
X-12.873 Y-21.445
X-12.797 Y-20.633
X-12.792 Y-19.814
X-12.857 Y-18.991
X-12.992 Y-18.174
X-13.197 Y-17.373
X-13.468 Y-16.597
X-13.805 Y-15.848
X-14.205 Y-15.129
X-14.667 Y-14.444
X-15.111 Y-13.895
X-15.668 Y-13.294
X-16.277 Y-12.741
X-16.932 Y-12.242
X-17.629 Y-11.799
X-18.364 Y-11.417
X-19.121 Y-11.102
X-19.926 Y-10.846
X-20.74 Y-10.662
X-21.584 Y-10.546
X-22.43 Y-10.503
X-23.275 Y-10.532
X-24.118 Y-10.635
X-24.954 Y-10.81
X-25.775 Y-11.057
X-26.572 Y-11.374
X-27.337 Y-11.756
X-28.063 Y-12.201
X-28.749 Y-12.707
X-29.392 Y-13.273
X-29.986 Y-13.893
X-30.527 Y-14.565
X-31.009 Y-15.282
X-31.428 Y-16.038
X-31.782 Y-16.83
X-32.068 Y-17.652
X-32.283 Y-18.498
X-32.425 Y-19.361
X-32.493 Y-20.233
X-32.485 Y-21.108
X-32.403 Y-21.978
X-32.246 Y-22.838
X-32.017 Y-23.681
X-31.716 Y-24.501
X-31.346 Y-25.292
X-30.909 Y-26.049
X-30.407 Y-26.768
X-29.844 Y-27.444
X-29.223 Y-28.071
X-28.549 Y-28.644
X-27.827 Y-29.157
X-27.062 Y-29.608
X-26.26 Y-29.993
X-25.425 Y-30.308
X-24.563 Y-30.551
X-23.684 Y-30.72
X-22.792 Y-30.813
X-21.893 Y-30.829
X-20.995 Y-30.768
X-20.103 Y-30.63
X-19.224 Y-30.415
X-18.366 Y-30.126
X-17.535 Y-29.764
X-16.738 Y-29.331
X-15.978 Y-28.831
X-15.263 Y-28.266
X-14.597 Y-27.64
X-13.987 Y-26.96
X-13.563 Y-26.396
X-13.078 Y-25.663
X-12.647 Y-24.871
X-12.281 Y-24.036
X-11.986 Y-23.166
X-11.766 Y-22.274
X-11.624 Y-21.365
X-11.559 Y-20.444
X-11.574 Y-19.517
X-11.669 Y-18.591
X-11.843 Y-17.675
X-12.094 Y-16.78
X-12.42 Y-15.912
X-12.82 Y-15.074
X-13.291 Y-14.272
X-13.843 Y-13.493
X-14.449 Y-12.776
X-15.112 Y-12.118
X-15.827 Y-11.519
X-16.591 Y-10.984
X-17.397 Y-10.517
X-18.244 Y-10.119
X-19.125 Y-9.794
X-20.036 Y-9.544
X-20.971 Y-9.372
X-21.918 Y-9.281
X-22.87 Y-9.271
X-23.822 Y-9.343
X-24.767 Y-9.497
X-25.7 Y-9.732
X-26.609 Y-10.046
X-27.487 Y-10.437
X-28.327 Y-10.901
X-29.125 Y-11.435
X-29.875 Y-12.036
X-30.572 Y-12.702
X-31.212 Y-13.426
X-31.788 Y-14.205
X-32.297 Y-15.031
X-32.734 Y-15.9
X-33.095 Y-16.806
X-33.379 Y-17.741
X-33.582 Y-18.7
X-33.702 Y-19.673
X-33.738 Y-20.653
X-33.69 Y-21.633
X-33.558 Y-22.604
X-33.343 Y-23.561
X-33.048 Y-24.495
X-32.674 Y-25.4
X-32.223 Y-26.27
X-31.698 Y-27.1
X-31.102 Y-27.884
X-30.629 Y-28.408
X-29.927 Y-29.095
X-29.165 Y-29.723
X-28.35 Y-30.286
X-27.486 Y-30.777
X-26.582 Y-31.194
X-25.643 Y-31.533
X-24.676 Y-31.79
X-23.69 Y-31.964
X-22.691 Y-32.053
X-21.686 Y-32.056
X-20.683 Y-31.973
X-19.688 Y-31.804
X-18.711 Y-31.549
X-17.757 Y-31.212
X-16.835 Y-30.793
X-15.951 Y-30.297
X-15.112 Y-29.725
X-14.322 Y-29.083
X-13.59 Y-28.374
X-12.912 Y-27.594
X-12.306 Y-26.763
X-11.781 Y-25.895
X-11.331 Y-24.983
X-10.959 Y-24.031
X-10.669 Y-23.048
X-10.464 Y-22.043
X-10.346 Y-21.022
X-10.316 Y-19.991
X-10.374 Y-18.957
X-10.521 Y-17.93
X-10.755 Y-16.92
X-11.075 Y-15.936
X-11.477 Y-14.983
X-11.961 Y-14.066
X-12.53 Y-13.181
X-13.17 Y-12.351
X-13.875 Y-11.583
X-14.642 Y-10.88
X-15.466 Y-10.245
X-16.34 Y-9.684
X-17.26 Y-9.199
X-18.223 Y-8.793
X-19.22 Y-8.47
X-20.247 Y-8.233
X-21.293 Y-8.083
X-22.349 Y-8.024
X-23.409 Y-8.056
X-24.465 Y-8.179
X-25.509 Y-8.392
X-26.186 Y-8.592
X-27.169 Y-8.94
X-28.13 Y-9.376
X-29.054 Y-9.896
X-29.934 Y-10.495
X-30.761 Y-11.169
X-31.53 Y-11.913
X-32.234 Y-12.722
X-32.867 Y-13.591
X-33.425 Y-14.512
X-33.902 Y-15.48
X-34.296 Y-16.488
X-34.602 Y-17.527
X-34.819 Y-18.591
X-34.944 Y-19.67
X-34.975 Y-20.756
X-34.914 Y-21.841
X-34.76 Y-22.916
X-34.515 Y-23.975
X-34.179 Y-25.008
X-33.757 Y-26.008
X-33.249 Y-26.97
X-32.66 Y-27.886
X-32.022 Y-28.713
X-31.261 Y-29.542
X-30.446 Y-30.29
X-29.574 Y-30.961
X-28.648 Y-31.556
X-27.673 Y-32.069
X-26.656 Y-32.498
X-25.605 Y-32.838
X-24.526 Y-33.088
X-23.429 Y-33.244
X-22.32 Y-33.306
X-21.209 Y-33.273
X-20.102 Y-33.144
X-19.009 Y-32.921
X-17.938 Y-32.604
X-16.896 Y-32.196
X-15.893 Y-31.7
X-14.934 Y-31.119
X-14.027 Y-30.457
X-13.178 Y-29.718
X-12.39 Y-28.903
X-11.674 Y-28.023
X-11.041 Y-27.091
X-10.49 Y-26.11
X-10.199 Y-25.467
X-9.8 Y-24.468
X-9.48 Y-23.412
X-9.249 Y-22.318
X-9.111 Y-21.199
X-9.069 Y-20.065
X-9.125 Y-18.927
X-9.278 Y-17.796
X-9.528 Y-16.682
X-9.872 Y-15.593
X-10.309 Y-14.538
X-10.838 Y-13.516
X-11.454 Y-12.542
X-12.15 Y-11.625
X-12.921 Y-10.772
X-13.762 Y-9.99
X-14.665 Y-9.283
X-15.626 Y-8.656
X-16.639 Y-8.113
X-17.697 Y-7.658
X-18.795 Y-7.293
X-19.923 Y-7.023
X-21.072 Y-6.851
X-22.235 Y-6.777
X-23.402 Y-6.803
X-24.565 Y-6.93
X-25.617 Y-7.136
X-26.813 Y-7.48
X-27.93 Y-7.908
X-28.991 Y-8.422
X-30 Y-9.023
X-30.953 Y-9.709
X-31.846 Y-10.474
X-32.671 Y-11.315
X-33.422 Y-12.224
X-34.094 Y-13.197
X-34.681 Y-14.226
X-35.179 Y-15.303
X-35.583 Y-16.421
X-35.891 Y-17.571
X-36.099 Y-18.745
X-36.206 Y-19.933
X-36.211 Y-21.126
X-36.113 Y-22.315
X-35.995 Y-23.011
X-35.772 Y-24.092
X-35.449 Y-25.175
X-35.024 Y-26.253
X-34.496 Y-27.314
X-33.876 Y-28.332
X-33.187 Y-29.271
X-32.386 Y-30.186
X-31.511 Y-31.028
X-30.571 Y-31.789
X-29.57 Y-32.466
X-28.514 Y-33.055
X-27.41 Y-33.552
X-26.265 Y-33.953
X-25.089 Y-34.255
X-23.89 Y-34.455
X-22.677 Y-34.552
X-21.458 Y-34.545
X-20.242 Y-34.433
X-19.038 Y-34.217
X-17.856 Y-33.898
X-16.704 Y-33.479
X-15.592 Y-32.962
X-14.526 Y-32.351
X-13.515 Y-31.649
X-12.567 Y-30.863
X-11.684 Y-29.993
X-10.878 Y-29.049
X-10.159 Y-28.043
X-9.577 Y-27.063
X-9.005 Y-25.876
X-8.557 Y-24.7
X-8.217 Y-23.507
X-7.981 Y-22.293
X-7.85 Y-21.06
X-7.824 Y-19.816
X-7.906 Y-18.573
X-8.093 Y-17.34
X-8.386 Y-16.126
X-8.783 Y-14.942
X-9.281 Y-13.791
X-9.877 Y-12.685
X-10.264 Y-12.094
X-10.903 Y-11.188
X-11.684 Y-10.26
X-12.564 Y-9.381
X-13.521 Y-8.575
X-14.546 Y-7.853
X-15.63 Y-7.221
X-16.768 Y-6.683
X-17.951 Y-6.242
X-19.171 Y-5.904
X-20.418 Y-5.671
X-21.682 Y-5.546
X-22.956 Y-5.529
X-24.229 Y-5.622
X-25.421 Y-5.813
X-26.692 Y-6.13
X-27.927 Y-6.553
X-29.109 Y-7.075
X-30.235 Y-7.693
X-31.302 Y-8.403
X-32.305 Y-9.203
X-33.237 Y-10.087
X-34.091 Y-11.05
X-34.861 Y-12.083
X-35.54 Y-13.181
X-36.124 Y-14.334
X-36.608 Y-15.536
X-36.987 Y-16.777
X-37.26 Y-18.047
X-37.422 Y-19.336
X-37.473 Y-20.636
X-37.415 Y-21.906
X-37.233 Y-23.27
X-36.952 Y-24.54
X-36.569 Y-25.764
X-36.08 Y-26.955
X-35.488 Y-28.106
X-34.806 Y-29.191
X-34.019 Y-30.232
X-33.14 Y-31.209
X-32.625 Y-31.691
X-31.722 Y-32.479
X-30.689 Y-33.234
X-29.573 Y-33.912
X-28.395 Y-34.495
X-27.168 Y-34.977
X-25.902 Y-35.352
X-24.607 Y-35.618
X-23.292 Y-35.772
X-21.966 Y-35.813
X-20.641 Y-35.741
X-19.324 Y-35.554
X-18.027 Y-35.255
X-16.759 Y-34.846
X-15.53 Y-34.329
X-14.348 Y-33.707
X-13.222 Y-32.986
X-12.161 Y-32.17
X-11.169 Y-31.262
X-10.257 Y-30.271
X-9.434 Y-29.207
X-8.743 Y-28.133
X-8.098 Y-26.913
X-7.564 Y-25.651
X-7.144 Y-24.363
X-6.839 Y-23.05
X-6.646 Y-21.717
X-6.569 Y-20.369
X-6.608 Y-19.017
X-6.762 Y-17.671
X-7.031 Y-16.343
X-7.414 Y-15.042
X-7.908 Y-13.775
X-8.502 Y-12.568
X-9.23 Y-11.363
X-10.03 Y-10.263
X-10.919 Y-9.239
X-11.893 Y-8.294
X-12.44 Y-7.848
X-13.432 Y-7.094
X-14.555 Y-6.383
X-15.757 Y-5.76
X-17.019 Y-5.238
X-18.326 Y-4.824
X-19.667 Y-4.523
X-21.032 Y-4.337
X-22.41 Y-4.269
X-23.792 Y-4.32
X-25.117 Y-4.482
X-26.48 Y-4.77
X-27.827 Y-5.178
X-29.129 Y-5.697
X-30.375 Y-6.323
X-31.561 Y-7.052
X-32.679 Y-7.88
X-33.722 Y-8.8
X-34.684 Y-9.808
X-35.558 Y-10.896
X-36.336 Y-12.057
X-37.013 Y-13.282
X-37.583 Y-14.563
X-38.042 Y-15.89
X-38.386 Y-17.253
X-38.613 Y-18.641
X-38.719 Y-20.045
X-38.705 Y-21.432
X-38.57 Y-22.838
X-38.32 Y-24.226
X-37.956 Y-25.574
X-37.479 Y-26.885
X-36.888 Y-28.155
X-36.195 Y-29.362
X-35.393 Y-30.517
X-34.491 Y-31.604
X-33.5 Y-32.609
X-32.965 Y-33.07
X-31.91 Y-33.91
X-30.75 Y-34.68
X-29.512 Y-35.358
X-28.22 Y-35.927
X-26.884 Y-36.384
X-25.515 Y-36.726
X-24.121 Y-36.952
X-22.714 Y-37.059
X-21.302 Y-37.047
X-19.897 Y-36.916
X-18.507 Y-36.667
X-17.143 Y-36.302
X-15.815 Y-35.824
X-14.532 Y-35.236
X-13.302 Y-34.543
X-12.135 Y-33.749
X-11.038 Y-32.861
X-10.019 Y-31.884
X-9.084 Y-30.826
X-8.25 Y-29.705
X-7.507 Y-28.505
X-6.864 Y-27.248
X-6.327 Y-25.943
X-5.898 Y-24.598
X-5.584 Y-23.222
X-5.384 Y-21.824
X-5.302 Y-20.415
X-5.338 Y-19.004
X-5.492 Y-17.601
X-5.762 Y-16.215
X-6.145 Y-14.856
X-6.639 Y-13.534
X-7.24 Y-12.257
X-7.946 Y-11.034
X-8.746 Y-9.871
X-9.639 Y-8.778
X-10.619 Y-7.762
X-11.682 Y-6.832
X-12.812 Y-5.987
X-14.009 Y-5.239
X-15.264 Y-4.593
X-16.568 Y-4.052
X-17.913 Y-3.623
X-19.289 Y-3.306
X-20.686 Y-3.103
X-22.095 Y-3.014
X-23.506 Y-3.039
X-24.911 Y-3.179
X-26.299 Y-3.435
X-27.662 Y-3.802
X-28.991 Y-4.277
X-30.279 Y-4.856
X-31.516 Y-5.536
X-32.694 Y-6.314
X-33.806 Y-7.184
X-34.844 Y-8.14
X-35.802 Y-9.177
X-36.674 Y-10.287
X-37.455 Y-11.463
X-38.138 Y-12.698
X-38.716 Y-13.986
X-39.187 Y-15.317
X-39.551 Y-16.681
X-39.805 Y-18.069
X-39.948 Y-19.474
X-39.979 Y-20.885
X-39.897 Y-22.294
X-39.705 Y-23.693
X-39.405 Y-25.072
X-38.996 Y-26.423
X-38.48 Y-27.737
X-37.861 Y-29.006
X-37.142 Y-30.22
X-36.328 Y-31.374
X-35.426 Y-32.46
X-34.503 Y-33.401
X-33.431 Y-34.32
X-32.304 Y-35.17
X-31.112 Y-35.926
X-29.865 Y-36.587
X-28.569 Y-37.146
X-27.233 Y-37.602
X-25.864 Y-37.948
X-24.472 Y-38.182
X-23.066 Y-38.305
X-21.654 Y-38.319
X-20.246 Y-38.223
X-18.849 Y-38.017
X-17.473 Y-37.703
X-16.125 Y-37.283
X-14.814 Y-36.76
X-13.547 Y-36.136
X-12.333 Y-35.417
X-11.178 Y-34.605
X-10.089 Y-33.707
X-9.073 Y-32.727
X-8.137 Y-31.67
X-7.289 Y-30.542
X-6.535 Y-29.348
X-5.874 Y-28.101
X-5.31 Y-26.807
X-4.846 Y-25.474
X-4.485 Y-24.109
X-4.231 Y-22.72
X-4.084 Y-21.316
X-4.047 Y-19.905
X-4.119 Y-18.495
X-4.299 Y-17.095
X-4.587 Y-15.713
X-4.979 Y-14.357
X-5.474 Y-13.035
X-6.072 Y-11.757
X-6.771 Y-10.53
X-7.558 Y-9.358
X-8.432 Y-8.25
X-9.388 Y-7.211
X-10.421 Y-6.249
X-11.523 Y-5.367
X-12.688 Y-4.569
X-13.911 Y-3.864
X-15.184 Y-3.254
X-16.5 Y-2.744
X-17.852 Y-2.336
X-19.23 Y-2.034
X-20.628 Y-1.837
X-22.037 Y-1.747
X-23.449 Y-1.768
X-24.854 Y-1.897
X-26.246 Y-2.134
X-27.616 Y-2.476
X-28.956 Y-2.917
X-30.261 Y-3.457
X-31.522 Y-4.092
X-32.731 Y-4.819
X-33.884 Y-5.635
X-34.972 Y-6.534
X-35.99 Y-7.512
X-36.932 Y-8.563
X-37.793 Y-9.681
X-38.569 Y-10.861
X-39.255 Y-12.095
X-39.837 Y-13.381
X-40.319 Y-14.708
X-40.701 Y-16.067
X-40.982 Y-17.45
X-41.16 Y-18.85
X-41.235 Y-20.26
X-41.204 Y-21.671
X-41.069 Y-23.077
X-40.834 Y-24.468
X-40.498 Y-25.839
X-40.06 Y-27.182
X-39.524 Y-28.487
X-38.893 Y-29.75
X-38.169 Y-30.962
X-37.357 Y-32.117
X-36.458 Y-33.205
X-35.477 Y-34.22
X-34.414 Y-35.149
X-33.296 Y-36.011
X-32.119 Y-36.79
X-30.888 Y-37.481
X-29.609 Y-38.079
X-28.29 Y-38.582
X-26.937 Y-38.985
X-25.558 Y-39.285
X-24.16 Y-39.482
X-22.752 Y-39.576
X-21.34 Y-39.568
X-19.933 Y-39.457
X-18.537 Y-39.245
X-17.161 Y-38.932
X-15.812 Y-38.516
X-14.497 Y-38.001
X-13.224 Y-37.392
X-11.997 Y-36.693
X-10.824 Y-35.907
X-9.711 Y-35.039
X-8.663 Y-34.094
X-7.686 Y-33.074
X-6.788 Y-31.986
X-5.974 Y-30.833
X-5.246 Y-29.623
X-4.607 Y-28.364
X-4.057 Y-27.064
X-3.602 Y-25.728
X-3.244 Y-24.362
X-2.986 Y-22.974
X-2.834 Y-21.571
X-2.783 Y-20.16
X-2.835 Y-18.75
X-2.987 Y-17.346
X-3.24 Y-15.957
X-3.591 Y-14.59
X-4.039 Y-13.251
X-4.582 Y-11.949
X-5.221 Y-10.69
X-5.949 Y-9.48
X-6.759 Y-8.324
X-7.649 Y-7.228
X-8.615 Y-6.199
X-9.653 Y-5.242
X-10.754 Y-4.359
X-11.917 Y-3.558
X-13.135 Y-2.846
X-14.401 Y-2.221
X-15.709 Y-1.689
X-17.051 Y-1.252
X-18.421 Y-0.913
X-19.812 Y-0.671
X-21.216 Y-0.528
X-22.628 Y-0.487
X-24.038 Y-0.549
X-25.44 Y-0.711
X-26.827 Y-0.973
X-28.193 Y-1.331
X-29.53 Y-1.783
X-30.833 Y-2.326
X-32.095 Y-2.96
X-33.307 Y-3.683
X-34.465 Y-4.49
X-35.564 Y-5.376
X-36.598 Y-6.337
X-37.564 Y-7.367
X-38.455 Y-8.461
X-39.268 Y-9.615
X-39.999 Y-10.823
X-40.64 Y-12.081
X-41.186 Y-13.382
X-41.639 Y-14.719
X-41.998 Y-16.085
X-42.262 Y-17.471
X-42.43 Y-18.873
X-42.501 Y-20.283
X-42.473 Y-21.694
X-42.343 Y-23.1
X-42.117 Y-24.493
X-41.798 Y-25.868
X-41.383 Y-27.218
X-40.876 Y-28.535
X-40.279 Y-29.814
X-39.595 Y-31.049
X-38.826 Y-32.233
X-37.975 Y-33.359
X-37.045 Y-34.422
X-36.04 Y-35.412
X-34.964 Y-36.326
X-33.835 Y-37.174
X-32.652 Y-37.944
X-31.419 Y-38.631
X-30.141 Y-39.231
X-28.823 Y-39.737
X-27.474 Y-40.15
X-26.098 Y-40.467
X-24.704 Y-40.687
X-23.297 Y-40.811
X-21.886 Y-40.84
X-20.476 Y-40.773
X-19.074 Y-40.61
X-17.686 Y-40.352
X-16.319 Y-39.999
X-14.98 Y-39.552
X-13.675 Y-39.013
X-12.41 Y-38.387
X-11.19 Y-37.678
X-10.02 Y-36.887
X-8.907 Y-36.02
X-7.856 Y-35.076
X-6.874 Y-34.062
X-5.965 Y-32.983
X-5.133 Y-31.842
X-4.381 Y-30.647
X-3.712 Y-29.404
X-3.126 Y-28.12
X-2.627 Y-26.8
X-2.218 Y-25.449
X-1.9 Y-24.073
X-1.679 Y-22.679
X-1.555 Y-21.273
X-1.526 Y-19.861
X-1.592 Y-18.451
X-1.753 Y-17.049
X-2.008 Y-15.66
X-2.357 Y-14.293
X-2.8 Y-12.952
X-3.333 Y-11.645
X-3.955 Y-10.378
X-4.662 Y-9.156
X-5.448 Y-7.983
X-6.309 Y-6.865
X-7.244 Y-5.807
X-8.246 Y-4.813
X-9.313 Y-3.888
X-10.438 Y-3.036
X-11.62 Y-2.263
X-12.851 Y-1.572
X-14.125 Y-0.965
X-15.437 Y-0.445
X-16.781 Y-0.014
X-18.151 Y0.326
X-19.542 Y0.571
X-20.945 Y0.72
X-22.356 Y0.775
X-23.767 Y0.733
X-25.172 Y0.598
X-26.565 Y0.368
X-27.94 Y0.047
X-29.29 Y-0.363
X-30.612 Y-0.86
X-31.898 Y-1.442
X-33.142 Y-2.108
X-34.339 Y-2.857
X-35.483 Y-3.683
X-36.572 Y-4.583
X-37.599 Y-5.551
X-38.561 Y-6.584
X-39.453 Y-7.678
X-40.269 Y-8.83
X-41.006 Y-10.034
X-41.659 Y-11.285
X-42.225 Y-12.579
X-42.704 Y-13.907
X-43.094 Y-15.263
X-43.396 Y-16.642
X-43.608 Y-18.038
X-43.729 Y-19.444
X-43.758 Y-20.856
X-43.693 Y-22.266
X-43.535 Y-23.668
X-43.288 Y-25.058
X-42.951 Y-26.429
X-42.527 Y-27.775
X-42.015 Y-29.091
X-41.419 Y-30.371
X-40.737 Y-31.607
X-39.975 Y-32.795
X-39.135 Y-33.93
X-38.221 Y-35.005
X-37.235 Y-36.016
X-36.182 Y-36.956
X-35.074 Y-37.831
X-33.915 Y-38.636
X-32.707 Y-39.366
X-31.454 Y-40.016
X-30.16 Y-40.582
X-28.832 Y-41.06
X-27.476 Y-41.45
X-26.096 Y-41.75
X-24.7 Y-41.96
X-23.294 Y-42.079
X-21.882 Y-42.108
X-20.472 Y-42.044
X-19.069 Y-41.888
X-17.679 Y-41.642
X-16.308 Y-41.307
X-14.961 Y-40.883
X-13.645 Y-40.373
X-12.364 Y-39.78
X-11.123 Y-39.107
X-9.928 Y-38.356
X-8.782 Y-37.531
X-7.693 Y-36.634
X-6.664 Y-35.667
X-5.7 Y-34.636
X-4.805 Y-33.544
X-3.984 Y-32.396
X-3.238 Y-31.197
X-2.57 Y-29.954
X-1.982 Y-28.67
X-1.478 Y-27.352
X-1.059 Y-26.004
X-0.726 Y-24.632
X-0.483 Y-23.241
X-0.331 Y-21.838
X-0.268 Y-20.428
X-0.295 Y-19.016
X-0.412 Y-17.609
X-0.617 Y-16.213
X-0.91 Y-14.832
X-1.292 Y-13.473
X-1.761 Y-12.141
X-2.315 Y-10.843
X-2.951 Y-9.583
X-3.666 Y-8.366
X-4.455 Y-7.195
X-5.316 Y-6.076
X-6.248 Y-5.016
X-7.246 Y-4.017
X-8.304 Y-3.083
X-9.418 Y-2.217
X-10.586 Y-1.423
X-11.802 Y-0.706
X-13.061 Y-0.067
X-14.357 Y0.492
X-15.686 Y0.967
X-17.043 Y1.358
X-18.421 Y1.661
X-19.817 Y1.875
X-21.223 Y2
X-22.634 Y2.035
X-24.044 Y1.98
X-25.449 Y1.836
X-26.841 Y1.605
X-28.216 Y1.286
X-29.568 Y0.88
X-30.893 Y0.391
X-32.185 Y-0.178
X-33.438 Y-0.827
X-34.648 Y-1.554
X-35.811 Y-2.355
X-36.922 Y-3.226
X-37.977 Y-4.164
X-38.972 Y-5.164
X-39.904 Y-6.225
X-40.768 Y-7.341
X-41.56 Y-8.51
X-42.276 Y-9.727
X-42.912 Y-10.986
X-43.467 Y-12.285
X-43.939 Y-13.615
X-44.328 Y-14.972
X-44.632 Y-16.351
X-44.848 Y-17.746
X-44.978 Y-19.151
X-45.022 Y-20.562
X-44.978 Y-21.973
X-44.845 Y-23.378
X-44.627 Y-24.773
X-44.326 Y-26.152
X-43.941 Y-27.51
X-43.473 Y-28.842
X-42.924 Y-30.143
X-42.296 Y-31.407
X-41.588 Y-32.628
X-40.806 Y-33.803
X-39.951 Y-34.927
X-39.027 Y-35.994
X-38.036 Y-37
X-36.983 Y-37.939
X-35.876 Y-38.815
X-34.719 Y-39.624
X-33.515 Y-40.361
X-32.268 Y-41.023
X-30.983 Y-41.607
X-29.664 Y-42.11
X-28.316 Y-42.529
X-26.945 Y-42.864
X-25.555 Y-43.114
X-24.153 Y-43.279
X-22.744 Y-43.359
X-21.332 Y-43.353
X-19.924 Y-43.259
X-18.524 Y-43.079
X-17.137 Y-42.815
X-15.769 Y-42.467
X-14.425 Y-42.035
X-13.11 Y-41.522
X-11.828 Y-40.93
X-10.586 Y-40.26
X-9.387 Y-39.515
X-8.234 Y-38.7
X-7.133 Y-37.817
X-6.088 Y-36.868
X-5.103 Y-35.856
X-4.183 Y-34.786
X-3.329 Y-33.662
X-2.546 Y-32.487
X-1.836 Y-31.268
X-1.199 Y-30.008
X-0.64 Y-28.711
X-0.16 Y-27.384
X0.239 Y-26.03
X0.557 Y-24.654
X0.79 Y-23.262
X0.937 Y-21.858
X1 Y-20.448
X0.975 Y-19.036
X0.864 Y-17.629
X0.669 Y-16.231
X0.391 Y-14.847
X0.029 Y-13.483
X-0.415 Y-12.143
X-0.94 Y-10.832
X-1.543 Y-9.556
X-2.223 Y-8.318
X-2.974 Y-7.123
X-3.794 Y-5.974
X-4.682 Y-4.877
X-5.635 Y-3.835
X-6.649 Y-2.853
X-7.718 Y-1.932
X-8.841 Y-1.076
X-10.013 Y-0.289
X-11.23 Y0.425
X-12.488 Y1.066
X-13.783 Y1.627
X-15.11 Y2.11
X-16.463 Y2.512
X-17.838 Y2.833
X-19.23 Y3.069
X-20.633 Y3.222
X-22.043 Y3.29
X-23.455 Y3.273
X-24.863 Y3.172
X-26.262 Y2.987
X-27.648 Y2.72
X-29.016 Y2.37
X-30.36 Y1.939
X-31.677 Y1.431
X-32.962 Y0.847
X-34.211 Y0.188
X-35.417 Y-0.544
X-36.579 Y-1.346
X-37.691 Y-2.216
X-38.749 Y-3.151
X-39.75 Y-4.146
X-40.692 Y-5.198
X-41.57 Y-6.303
X-42.38 Y-7.459
X-43.121 Y-8.661
X-43.787 Y-9.905
X-44.378 Y-11.187
X-44.89 Y-12.503
X-45.324 Y-13.846
X-45.68 Y-15.212
X-45.953 Y-16.597
X-46.145 Y-17.995
X-46.255 Y-19.403
X-46.283 Y-20.814
X-46.227 Y-22.225
X-46.089 Y-23.63
X-45.87 Y-25.024
X-45.57 Y-26.404
X-45.189 Y-27.763
X-44.729 Y-29.097
X-44.193 Y-30.403
X-43.58 Y-31.675
X-42.893 Y-32.908
X-42.134 Y-34.098
X-41.306 Y-35.242
X-40.412 Y-36.334
X-39.453 Y-37.37
X-38.433 Y-38.346
X-37.358 Y-39.26
X-36.233 Y-40.113
X-35.061 Y-40.901
X-33.847 Y-41.621
X-32.593 Y-42.269
X-31.303 Y-42.842
X-29.981 Y-43.339
X-28.633 Y-43.756
X-27.262 Y-44.094
X-25.874 Y-44.347
X-24.473 Y-44.52
X-23.064 Y-44.612
X-21.652 Y-44.623
X-20.243 Y-44.552
X-18.839 Y-44.399
X-17.447 Y-44.166
X-16.07 Y-43.853
X-14.714 Y-43.461
X-13.383 Y-42.99
X-12.082 Y-42.444
X-10.814 Y-41.824
X-9.584 Y-41.13
X-8.396 Y-40.368
X-7.253 Y-39.539
X-6.16 Y-38.646
X-5.121 Y-37.691
X-4.138 Y-36.678
X-3.216 Y-35.609
X-2.36 Y-34.486
X-1.572 Y-33.315
X-0.852 Y-32.101
X-0.201 Y-30.848
X0.376 Y-29.56
X0.879 Y-28.241
X1.307 Y-26.896
X1.657 Y-25.528
X1.929 Y-24.143
X2.12 Y-22.744
X2.23 Y-21.337
X2.259 Y-19.925
X2.206 Y-18.515
X2.072 Y-17.11
X1.858 Y-15.714
X1.566 Y-14.333
X1.195 Y-12.971
X0.746 Y-11.633
X0.221 Y-10.322
X-0.38 Y-9.045
X-1.056 Y-7.806
X-1.799 Y-6.606
X-2.609 Y-5.449
X-3.483 Y-4.341
X-4.419 Y-3.284
X-5.414 Y-2.282
X-6.463 Y-1.338
X-7.564 Y-0.454
X-8.713 Y0.366
X-9.906 Y1.119
X-11.141 Y1.803
X-12.413 Y2.416
X-13.719 Y2.953
X-15.052 Y3.416
X-16.41 Y3.802
X-17.788 Y4.11
X-19.181 Y4.339
X-20.584 Y4.488
X-21.994 Y4.557
X-23.406 Y4.543
X-24.814 Y4.448
X-26.215 Y4.274
X-27.604 Y4.021
X-28.976 Y3.69
X-30.328 Y3.282
X-31.654 Y2.8
X-32.952 Y2.245
X-34.217 Y1.619
X-35.445 Y0.923
X-36.632 Y0.158
X-37.775 Y-0.671
X-38.868 Y-1.564
X-39.91 Y-2.517
X-40.897 Y-3.526
X-41.827 Y-4.588
X-42.696 Y-5.7
X-43.501 Y-6.86
X-44.239 Y-8.063
X-44.907 Y-9.307
X-45.5 Y-10.588
X-46.018 Y-11.901
X-46.463 Y-13.24
X-46.833 Y-14.603
X-47.126 Y-15.984
X-47.341 Y-17.379
X-47.479 Y-18.784
X-47.54 Y-20.194
X-47.521 Y-21.606
X-47.424 Y-23.014
X-47.25 Y-24.415
X-46.999 Y-25.804
X-46.671 Y-27.177
X-46.266 Y-28.529
X-45.788 Y-29.857
X-45.237 Y-31.157
X-44.614 Y-32.424
X-43.921 Y-33.654
X-43.16 Y-34.843
X-42.333 Y-35.987
X-41.441 Y-37.081
X-40.487 Y-38.121
X-39.475 Y-39.105
X-38.41 Y-40.032
X-37.297 Y-40.9
X-36.138 Y-41.707
X-34.938 Y-42.449
X-33.699 Y-43.125
X-32.424 Y-43.732
X-31.118 Y-44.267
X-29.783 Y-44.728
X-28.426 Y-45.114
X-27.048 Y-45.422
X-25.655 Y-45.652
X-24.252 Y-45.805
X-22.842 Y-45.882
X-21.431
X-20.021 Y-45.803
X-18.618 Y-45.647
X-17.226 Y-45.415
X-15.849 Y-45.105
X-14.491 Y-44.718
X-13.157 Y-44.257
X-11.85 Y-43.724
X-10.574 Y-43.12
X-9.333 Y-42.446
X-8.131 Y-41.706
X-6.971 Y-40.902
X-5.856 Y-40.036
X-4.79 Y-39.111
X-3.777 Y-38.128
X-2.819 Y-37.091
X-1.921 Y-36.002
X-1.086 Y-34.864
X-0.315 Y-33.681
X0.391 Y-32.459
X1.03 Y-31.2
X1.6 Y-29.909
X2.099 Y-28.588
X2.526 Y-27.243
X2.879 Y-25.876
X3.154 Y-24.491
X3.353 Y-23.094
X3.476 Y-21.687
X3.522 Y-20.276
X3.489 Y-18.865
X3.38 Y-17.458
X3.195 Y-16.058
X2.934 Y-14.671
X2.599 Y-13.3
X2.19 Y-11.949
X1.708 Y-10.622
X1.153 Y-9.324
X0.527 Y-8.059
X-0.168 Y-6.83
X-0.928 Y-5.64
X-1.749 Y-4.492
X-2.631 Y-3.39
X-3.572 Y-2.338
X-4.569 Y-1.338
X-5.617 Y-0.392
X-6.716 Y0.493
X-7.862 Y1.318
X-9.05 Y2.08
X-10.278 Y2.776
X-11.542 Y3.405
X-12.839 Y3.963
X-14.163 Y4.451
X-15.513 Y4.866
X-16.882 Y5.208
X-18.268 Y5.475
X-19.667 Y5.667
X-21.074 Y5.782
X-22.485 Y5.821
X-23.896 Y5.781
X-25.303 Y5.665
X-26.702 Y5.474
X-28.088 Y5.209
X-29.458 Y4.869
X-30.808 Y4.457
X-32.135 Y3.973
X-33.433 Y3.421
X-34.7 Y2.797
X-35.931 Y2.107
X-37.124 Y1.352
X-38.275 Y0.534
X-39.381 Y-0.343
X-40.437 Y-1.279
X-41.443 Y-2.27
X-42.396 Y-3.311
X-43.292 Y-4.402
X-44.128 Y-5.539
X-44.903 Y-6.72
X-45.612 Y-7.94
X-46.254 Y-9.197
X-46.824 Y-10.489
X-47.324 Y-11.809
X-47.753 Y-13.154
X-48.111 Y-14.519
X-48.396 Y-15.902
X-48.607 Y-17.297
X-48.745 Y-18.702
X-48.807 Y-20.113
X-48.792 Y-21.524
X-48.703 Y-22.933
X-48.539 Y-24.335
X-48.303 Y-25.727
X-47.993 Y-27.104
X-47.611 Y-28.463
X-47.157 Y-29.8
X-46.635 Y-31.111
X-46.043 Y-32.393
X-45.384 Y-33.641
X-44.66 Y-34.853
X-43.872 Y-36.024
X-43.021 Y-37.151
X-42.109 Y-38.228
X-41.14 Y-39.255
X-40.117 Y-40.227
X-39.044 Y-41.145
X-37.926 Y-42.006
X-36.765 Y-42.81
X-35.564 Y-43.552
X-34.326 Y-44.23
X-33.053 Y-44.839
X-31.749 Y-45.38
X-30.419 Y-45.852
X-29.065 Y-46.252
X-27.691 Y-46.579
X-26.303 Y-46.831
X-24.902 Y-47.011
X-23.495 Y-47.118
X-22.084 Y-47.151
X-20.673 Y-47.11
X-19.266 Y-46.996
X-17.866 Y-46.808
X-16.479 Y-46.547
X-15.108 Y-46.212
X-13.756 Y-45.806
X-12.427 Y-45.329
X-11.125 Y-44.784
X-9.853 Y-44.171
X-8.615 Y-43.493
X-7.414 Y-42.751
X-6.253 Y-41.949
X-5.136 Y-41.085
X-4.067 Y-40.164
X-3.047 Y-39.188
X-2.079 Y-38.16
X-1.167 Y-37.083
X-0.314 Y-35.958
X0.478 Y-34.789
X1.208 Y-33.581
X1.876 Y-32.338
X2.479 Y-31.061
X3.015 Y-29.755
X3.483 Y-28.423
X3.881 Y-27.069
X4.208 Y-25.696
X4.462 Y-24.307
X4.643 Y-22.907
X4.751 Y-21.5
X4.786 Y-20.088
X4.746 Y-18.677
X4.634 Y-17.27
X4.449 Y-15.871
X4.191 Y-14.483
X3.86 Y-13.11
X3.459 Y-11.757
X2.987 Y-10.427
X2.447 Y-9.122
X1.839 Y-7.849
X1.165 Y-6.608
X0.428 Y-5.404
X-0.369 Y-4.239
X-1.225 Y-3.116
X-2.137 Y-2.039
X-3.104 Y-1.01
X-4.122 Y-0.032
X-5.189 Y0.892
X-6.303 Y1.759
X-7.46 Y2.567
X-8.657 Y3.315
X-9.891 Y4
X-11.16 Y4.621
X-12.458 Y5.174
X-13.784 Y5.66
X-15.132 Y6.077
X-16.501 Y6.422
X-17.886 Y6.694
X-19.283 Y6.896
X-20.689 Y7.025
X-22.1 Y7.08
X-23.511 Y7.062
X-24.92 Y6.97
X-26.322 Y6.807
X-27.714 Y6.572
X-29.092 Y6.267
X-30.453 Y5.892
X-31.793 Y5.448
X-33.109 Y4.937
X-34.397 Y4.36
X-35.654 Y3.716
X-36.876 Y3.01
X-38.06 Y2.242
X-39.205 Y1.415
X-40.305 Y0.531
X-41.359 Y-0.408
X-42.365 Y-1.399
X-43.319 Y-2.439
X-44.217 Y-3.528
X-45.059 Y-4.661
X-45.842 Y-5.836
X-46.563 Y-7.049
X-47.22 Y-8.299
X-47.811 Y-9.581
X-48.334 Y-10.892
X-48.79 Y-12.228
X-49.178 Y-13.585
X-49.498 Y-14.96
X-49.747 Y-16.349
X-49.834 Y-17.05
X-49.995 Y-18.452
X-50.067 Y-19.862
X-50.065 Y-21.274
X-49.991 Y-22.683
X-49.846 Y-24.088
X-49.632 Y-25.483
X-49.348 Y-26.866
X-48.994 Y-28.232
X-48.572 Y-29.579
X-48.083 Y-30.904
X-47.529 Y-32.202
X-46.909 Y-33.47
X-46.226 Y-34.706
X-45.481 Y-35.905
X-44.675 Y-37.064
X-43.811 Y-38.18
X-42.89 Y-39.249
X-41.914 Y-40.269
X-40.887 Y-41.238
X-39.812 Y-42.154
X-38.695 Y-43.016
X-37.535 Y-43.821
X-36.337 Y-44.567
X-35.102 Y-45.252
X-33.835 Y-45.873
X-32.537 Y-46.428
X-31.213 Y-46.917
X-29.865 Y-47.339
X-28.498 Y-47.691
X-27.115 Y-47.973
X-26.417 Y-48.079
X-26.068 Y-48.128
X-24.667 Y-48.3
X-23.258 Y-48.392
X-21.847 Y-48.413
X-20.436 Y-48.363
X-19.029 Y-48.243
X-17.63 Y-48.054
X-16.243 Y-47.794
X-14.871 Y-47.462
X-13.518 Y-47.06
X-12.186 Y-46.591
X-10.879 Y-46.057
X-9.601 Y-45.459
X-8.354 Y-44.797
X-7.141 Y-44.075
X-5.966 Y-43.293
X-4.831 Y-42.453
X-3.74 Y-41.557
X-2.695 Y-40.608
X-1.699 Y-39.608
X-0.754 Y-38.559
X0.136 Y-37.463
X0.969 Y-36.324
X1.745 Y-35.145
X2.461 Y-33.928
X3.117 Y-32.678
X3.711 Y-31.398
X4.241 Y-30.089
X4.706 Y-28.756
X5.105 Y-27.402
X5.434 Y-26.03
X5.691 Y-24.642
X5.88 Y-23.243
X5.998 Y-21.836
X6.047 Y-20.425
X6.026 Y-19.014
X5.934 Y-17.605
X5.773 Y-16.203
X5.543 Y-14.81
X5.243 Y-13.43
X4.875 Y-12.068
X4.439 Y-10.725
X3.938 Y-9.405
X3.371 Y-8.112
X2.74 Y-6.85
X2.047 Y-5.62
X1.295 Y-4.425
X0.485 Y-3.269
X-0.379 Y-2.153
X-1.029 Y-1.394
X-1.154 Y-1.282
X-1.302 Y-1.204
X-1.465 Y-1.166
X-1.633 Y-1.171
X-1.897 Y-1.091
X-1.907 Y-1.08
X-2.027 Y-0.803
X-2.231 Y-0.392
X-2.63 Y0.129
X-3.329 Y0.897
X-4.366 Y1.856
X-5.477 Y2.726
X-6.632 Y3.538
X-7.825 Y4.292
X-9.054 Y4.987
X-10.315 Y5.621
X-11.606 Y6.191
X-12.924 Y6.697
X-14.266 Y7.137
X-15.627 Y7.51
X-17.006 Y7.814
X-18.397 Y8.05
X-19.799 Y8.217
X-21.207 Y8.315
X-22.619 Y8.342
X-24.03 Y8.299
X-25.437 Y8.187
X-26.837 Y8.006
X-28.227 Y7.758
X-29.602 Y7.442
X-30.961 Y7.059
X-32.3 Y6.611
X-33.616 Y6.1
X-34.904 Y5.524
X-36.162 Y4.883
X-37.387 Y4.181
X-38.576 Y3.421
X-39.728 Y2.604
X-40.838 Y1.732
X-41.904 Y0.807
X-42.925 Y-0.168
X-43.897 Y-1.192
X-44.818 Y-2.262
X-45.685 Y-3.376
X-46.497 Y-4.531
X-47.251 Y-5.724
X-47.946 Y-6.953
X-48.578 Y-8.215
X-49.147 Y-9.507
X-49.651 Y-10.825
X-49.868 Y-11.497
X-50.287 Y-12.845
X-50.356 Y-13.126
X-50.37 Y-13.189
X-50.377 Y-13.253
X-50.38 Y-13.318
Y-27.573
X-50.35 Y-28.172
X-49.914 Y-29.515
X-49.456 Y-30.85
X-48.927 Y-32.159
X-48.336 Y-33.441
X-47.683 Y-34.692
X-46.971 Y-35.911
X-46.2 Y-37.094
X-45.372 Y-38.237
X-44.488 Y-39.338
X-43.551 Y-40.393
X-42.562 Y-41.401
X-41.526 Y-42.359
X-40.445 Y-43.267
X-39.323 Y-44.124
X-38.161 Y-44.925
X-36.962 Y-45.67
X-35.728 Y-46.357
X-34.461 Y-46.98
X-33.166 Y-47.54
X-31.845 Y-48.037
X-30.163 Y-48.571
X-30.006 Y-48.609
X-29.94 Y-48.617
X-29.873 Y-48.62
X-14.908
X-14.546 Y-48.602
X-13.418 Y-48.337
X-12.076 Y-47.898
X-10.763 Y-47.381
X-9.475 Y-46.801
X-8.217 Y-46.161
X-6.991 Y-45.462
X-5.799 Y-44.706
X-4.644 Y-43.894
X-3.53 Y-43.027
X-2.459 Y-42.107
X-1.433 Y-41.138
X-0.454 Y-40.121
X0.475 Y-39.058
X1.351 Y-37.951
X2.172 Y-36.803
X2.938 Y-35.617
X3.648 Y-34.397
X4.299 Y-33.144
X4.891 Y-31.863
X5.421 Y-30.555
X5.889 Y-29.222
X6.291 Y-27.869
X6.627 Y-26.498
X6.895 Y-25.112
X7.097 Y-23.715
X7.232 Y-22.31
X7.301 Y-20.9
X7.302 Y-19.489
X7.237 Y-18.078
X7.105 Y-16.673
X6.906 Y-15.275
X6.641 Y-13.889
X6.31 Y-12.517
X5.914 Y-11.162
X5.455 Y-9.827
X4.932 Y-8.515
X4.348 Y-7.23
X3.703 Y-5.975
X2.999 Y-4.751
X2.238 Y-3.562
X1.424 Y-2.409
X0.561 Y-1.302
X0.153 Y-0.862
X-0.012 Y-0.731
X-0.214 Y-0.615
X-0.441 Y-0.563
X-0.674 Y-0.578
X-0.892 Y-0.661
X-1.076 Y-0.803
X-1.097 Y-0.829
X-1.125 Y-0.876 F381
X-1.145 Y-0.928
X-1.156 Y-0.982
X-1.154 Y-1.007
X-1.142 Y-1.029
X-1.123 Y-1.045
X-1.099 Y-1.052
X-1.097 Y-1.141
X-1.142 Y-1.113
G2 X-1.076 Y-0.803 I0.302 J0.098
G1 X-0.659 Y-0.37 F685.8
X-0.555 Y-0.262
X-0.288 Y-0.124
X0.309 Y-0.062
X0.865 Y-0.285
X1.353 Y-0.635
X1.794 Y-1.042
X2.451 Y-1.763
X3.308 Y-2.884
X4.07 Y-4.072
X4.776 Y-5.295
X5.425 Y-6.548
X6.016 Y-7.83
X6.547 Y-9.138
X7.019 Y-10.469
X7.429 Y-11.819
X7.778 Y-13.187
X8.064 Y-14.57
X8.286 Y-15.964
X8.445 Y-17.367
X8.54 Y-18.775
X8.571 Y-20.186
X8.537 Y-21.597
X8.44 Y-23.006
X8.279 Y-24.408
X8.054 Y-25.802
X7.765 Y-27.184
X7.412 Y-28.55
X6.995 Y-29.899
X6.517 Y-31.227
X5.979 Y-32.532
X5.382 Y-33.811
X4.728 Y-35.062
X4.018 Y-36.283
X3.254 Y-37.469
X2.434 Y-38.619
X1.563 Y-39.729
X0.64 Y-40.798
X-0.33 Y-41.823
X-1.346 Y-42.803
X-2.406 Y-43.735
X-3.508 Y-44.618
X-4.649 Y-45.449
X-5.827 Y-46.227
X-7.039 Y-46.951
X-8.283 Y-47.618
X-8.919 Y-47.924
X-9.239 Y-48.073
X-9.544 Y-48.209
X-10.334 Y-48.554
X-10.436 Y-48.59
X-10.543 Y-48.613
X-10.651 Y-48.62
X-14.908
G2 X-15.177 Y-48.452 I0.011 J0.317 F762
X-14.67 Y-47.073 I0.869 J0.463
X-11.163 Y-48.07 I1.102 J-2.79
X-10.92 Y-48.452 I-2.405 J-1.794 F381
G3 X-10.651 Y-48.62 I0.28 J0.149
G1 X-8.175 F762
X-7.576 Y-48.59
X-6.4 Y-48.032
X-5.181 Y-47.319
X-4.002 Y-46.543
X-2.858 Y-45.716
X-1.752 Y-44.838
X-0.686 Y-43.913
X0.338 Y-42.942
X1.32 Y-41.927
X2.255 Y-40.87
X3.143 Y-39.772
X3.981 Y-38.636
X4.767 Y-37.464
X5.501 Y-36.258
X6.181 Y-35.021
X6.808 Y-33.756
X7.379 Y-32.465
X7.893 Y-31.151
X8.349 Y-29.815
X8.746 Y-28.46
X9.081 Y-27.089
X9.355 Y-25.704
X9.567 Y-24.308
X9.718 Y-22.905
X9.808 Y-21.496
X9.837 Y-20.085
X9.804 Y-18.673
X9.709 Y-17.265
X9.552 Y-15.862
X9.333 Y-14.467
X9.053 Y-13.084
X8.712 Y-11.714
X8.313 Y-10.36
X7.854 Y-9.025
X7.338 Y-7.711
X6.764 Y-6.421
X6.135 Y-5.158
X5.45 Y-3.923
X4.711 Y-2.72
X3.897 Y-1.567
X3.303 Y-0.849
X3.14 Y-0.701
X2.942 Y-0.605
X2.725 Y-0.569
X2.275 Y-0.429
X2.084 Y-0.304
X1.98 Y-0.152
X1.673 Y0.258
X1.216 Y0.647
X0.66 Y0.871
X0.065 Y0.953
X-0.634 Y0.858
X-1.224 Y0.749
X-1.368 Y0.637
X-1.544 Y0.487
X-1.706 Y0.416
X-1.879 Y0.383
X-2.055 Y0.389
X-2.226 Y0.434
X-2.383 Y0.515
X-2.517 Y0.629
X-3.367 Y1.756
X-3.577 Y2.318
X-3.92 Y2.811
X-4.327 Y3.252
X-4.995 Y3.858
X-6.076 Y4.679
X-7.268 Y5.434
X-8.498 Y6.127
X-9.759 Y6.761
X-11.05 Y7.334
X-12.366 Y7.843
X-13.705 Y8.29
X-15.064 Y8.672
X-16.44 Y8.99
X-17.829 Y9.241
X-19.228 Y9.427
X-20.635 Y9.547
X-22.045 Y9.6
X-23.457 Y9.586
X-24.866 Y9.506
X-26.27 Y9.359
X-27.666 Y9.147
X-29.05 Y8.87
X-30.42 Y8.53
X-31.773 Y8.125
X-33.105 Y7.659
X-34.414 Y7.132
X-35.697 Y6.543
X-36.95 Y5.893
X-38.172 Y5.185
X-39.359 Y4.421
X-40.509 Y3.602
X-41.62 Y2.732
X-42.688 Y1.808
X-43.711 Y0.836
X-44.689 Y-0.182
X-45.618 Y-1.245
X-46.496 Y-2.351
X-47.321 Y-3.496
X-48.092 Y-4.678
X-48.806 Y-5.896
X-49.462 Y-7.146
X-49.76 Y-7.786
X-49.905 Y-8.108
X-50.315 Y-9.056
X-50.351 Y-9.158
X-50.373 Y-9.263
X-50.38 Y-9.371
Y-13.318
G3 X-50.212 Y-13.587 I0.317 J0.011
X-48.677 Y-12.854 I0.497 J0.933
X-49.83 Y-9.883 I-2.946 J0.566
X-50.212 Y-9.64 I-1.794 J-2.405 F381
G2 X-50.38 Y-9.371 I0.149 J0.28
G1 Y-6.733 F685.8
X-50.35 Y-6.134
X-49.685 Y-4.888
X-48.955 Y-3.68
X-48.171 Y-2.506
X-47.335 Y-1.369
X-46.45 Y-0.27
X-45.515 Y0.789
X-44.534 Y1.804
X-43.509 Y2.774
X-42.442 Y3.698
X-41.332 Y4.571
X-40.184 Y5.392
X-39 Y6.161
X-37.784 Y6.877
X-36.536 Y7.538
X-35.26 Y8.141
X-33.957 Y8.685
X-32.632 Y9.17
X-31.286 Y9.596
X-29.922 Y9.961
X-28.544 Y10.266
X-27.153 Y10.508
X-25.753 Y10.689
X-24.346 Y10.806
X-22.936 Y10.86
X-21.524 Y10.85
X-20.114 Y10.776
X-18.71 Y10.638
X-17.312 Y10.437
X-15.926 Y10.173
X-14.552 Y9.846
X-13.195 Y9.457
X-11.858 Y9.006
X-10.542 Y8.495
X-9.251 Y7.924
X-7.988 Y7.292
X-6.756 Y6.603
X-5.559 Y5.855
X-4.453 Y5.039
X-3.792 Y4.458
X-3.325 Y3.97
X-2.948 Y3.503
X-2.19 Y2.312
X-1.874 Y1.887
X-1.739 Y1.773
X-1.583 Y1.691
X-1.413 Y1.646
X-0.002 Y1.594
X0.576 Y1.755
X1.175 Y1.717
X1.303 Y1.668
X1.485 Y1.571
X1.636 Y1.431
X1.745 Y1.257
X1.806 Y1.06
X1.814 Y0.854
X1.769 Y0.653
X1.755 Y0.624 F762
X1.725 Y0.577 F381
X1.687 Y0.536
X1.643 Y0.503
X1.62 Y0.494
X1.595 Y0.495
X1.572 Y0.505
X1.555 Y0.523
X1.474 Y0.487
X1.519 Y0.458
G3 X1.769 Y0.653 I-0.044 J0.314
G1 X1.834 Y0.832 F762
X2.022 Y1.026
X2.121 Y1.139
X2.183 Y1.432
X2.128 Y1.727
X1.852 Y2.26
X1.347 Y2.585
X0.763 Y2.722
X-0.639 Y2.885
X-0.815 Y2.893
X-0.986 Y2.939
X-1.141 Y3.021
X-1.409 Y3.252
X-1.726 Y3.806
X-2.117 Y4.372
X-2.609 Y4.967
X-3.171 Y5.54
X-4.077 Y6.316
X-5.224 Y7.14
X-6.429 Y7.874
X-7.668 Y8.551
X-8.936 Y9.172
X-10.23 Y9.735
X-11.548 Y10.24
X-12.887 Y10.688
X-14.244 Y11.076
X-15.617 Y11.404
X-17.004 Y11.671
X-18.4 Y11.876
X-19.804 Y12.021
X-21.214 Y12.105
X-22.625 Y12.128
X-24.036 Y12.089
X-25.444 Y11.988
X-26.847 Y11.828
X-28.241 Y11.607
X-29.624 Y11.327
X-30.995 Y10.988
X-32.349 Y10.59
X-33.686 Y10.135
X-35.001 Y9.624
X-36.294 Y9.056
X-37.56 Y8.432
X-38.797 Y7.753
X-40.005 Y7.021
X-41.18 Y6.239
X-42.32 Y5.407
X-43.423 Y4.526
X-44.486 Y3.596
X-45.507 Y2.622
X-46.486 Y1.605
X-47.42 Y0.547
X-48.307 Y-0.551
X-49.145 Y-1.687
X-49.539 Y-2.273
X-49.893 Y-2.825
X-50.258 Y-3.407
X-50.325 Y-3.539
X-50.366 Y-3.682
X-50.38 Y-3.829
Y-6.733
G3 X-50.212 Y-7.002 I0.317 J0.011
X-49.342 Y-6.713 I0.297 J0.558
X-49.84 Y-4.355 I-1.811 J0.849
X-50.212 Y-4.098 I-1.313 J-1.508 F381
G2 X-50.38 Y-3.829 I0.149 J0.28
G1 Y-1.924 F685.8
X-50.365 Y-1.624
X-50.055 Y-0.999
X-49.572 Y-0.205
X-48.738 Y0.934
X-47.823 Y2.008
X-46.863 Y3.044
X-45.861 Y4.038
X-44.819 Y4.991
X-43.738 Y5.899
X-42.62 Y6.759
X-41.466 Y7.573
X-40.28 Y8.338
X-39.063 Y9.054
X-37.818 Y9.719
X-36.546 Y10.331
X-35.249 Y10.888
X-33.93 Y11.392
X-32.592 Y11.841
X-31.236 Y12.234
X-29.865 Y12.572
X-28.482 Y12.853
X-27.088 Y13.075
X-25.686 Y13.239
X-24.278 Y13.344
X-22.867 Y13.391
X-21.456 Y13.379
X-20.046 Y13.308
X-18.64 Y13.177
X-17.241 Y12.989
X-15.851 Y12.742
X-14.473 Y12.436
X-13.109 Y12.071
X-11.762 Y11.65
X-10.434 Y11.172
X-9.127 Y10.639
X-7.844 Y10.05
X-6.588 Y9.406
X-5.361 Y8.708
X-4.173 Y7.946
X-3.204 Y7.219
X-3.07 Y7.093
X-2.97 Y6.939
X-2.907 Y6.767
X-2.886 Y6.584
X-2.884 Y6.512
X-2.711 Y6.266
X-2.698 Y6.252
X-2.565 Y6.181
X-2.06 Y5.882
X-1.604 Y5.491
X-0.642 Y4.458
X-0.546 Y4.31
X-0.419 Y4.187
X-0.269 Y4.095
X1.069 Y3.644
X1.658 Y3.531
X2.201 Y3.276
X2.645 Y2.872
X2.976 Y2.371
X3.016 Y2.241
X3.05 Y2.044
X3.029 Y1.844
X2.957 Y1.657
X2.836 Y1.497
X2.678 Y1.374
X2.492 Y1.299
X2.404 Y1.256
X2.053 Y1.056
X2.022 Y1.026
G2 X1.749 Y0.958 I-0.196 J0.203 F762
X1.806 Y1.605 I0.091 J0.318
G1 X1.878 F381
X1.949 Y1.588
X2.015 Y1.557
G2 X2.224 Y1.383 I-0.528 J-0.849
G3 X2.492 Y1.299 I0.208 J0.19
G1 X3.206 Y1.483 F762
X3.349 Y1.527
X3.548 Y1.752
X3.779 Y2.305
X3.707 Y2.901
X3.448 Y3.442
X3.326 Y3.585
X3.237 Y3.673
X3.132 Y3.743
X3.017 Y3.793
X2.931 Y3.847
X2.761 Y3.96
X2.745 Y3.975
X2.491 Y4.226
X1.912 Y4.55
X0.625 Y5.13
X-0.538 Y5.93
X-0.679 Y6.092
X-0.828 Y6.227
X-1.007 Y6.319
X-1.203 Y6.363
X-1.403 Y6.357
X-1.596 Y6.301
X-1.914 Y6.163
X-2.144 Y6.118
X-2.535 Y6.166
X-2.565 Y6.181
G3 X-2.861 Y5.62 I-0.148 J-0.281
X-2.565 Y6.181 I0.148 J0.281
X-2.721 Y6.218 I-0.148 J-0.281
G1 X-3.313 Y6.203
G3 X-3.297 Y5.568 I0.008 J-0.317
X-2.998 Y5.807 I-0.008 J0.317
X-2.886 Y6.584 I-3.532 J0.905 F381
G1 X-2.885 Y6.827 F762
X-2.799 Y6.981
X-2.551 Y7.159
X-2.433 Y7.251
X-2.629 Y7.818
X-2.973 Y8.31
X-3.394 Y8.737
X-3.971 Y9.22
X-4.947 Y9.906
X-6.168 Y10.615
X-7.427 Y11.254
X-8.712 Y11.839
X-10.019 Y12.371
X-11.348 Y12.849
X-12.694 Y13.272
X-14.057 Y13.639
X-15.434 Y13.95
X-16.823 Y14.204
X-18.221 Y14.402
X-19.625 Y14.544
X-21.034 Y14.629
X-22.446 Y14.657
X-23.857 Y14.629
X-25.266 Y14.543
X-26.671 Y14.402
X-28.068 Y14.204
X-29.457 Y13.95
X-30.834 Y13.64
X-32.198 Y13.276
X-33.547 Y12.859
X-34.877 Y12.388
X-36.189 Y11.865
X-37.478 Y11.29
X-38.743 Y10.663
X-39.981 Y9.986
X-41.192 Y9.26
X-42.372 Y8.486
X-43.521 Y7.666
X-44.637 Y6.8
X-45.715 Y5.89
X-46.756 Y4.937
X-47.759 Y3.943
X-48.72 Y2.909
X-49.637 Y1.836
X-50.223 Y1.049
X-50.309 Y0.904
X-50.362 Y0.743
X-50.38 Y0.575
Y-1.924
G3 X-50.212 Y-2.193 I0.317 J0.011
X-49.159 Y-1.616 I0.338 J0.633
X-49.84 Y0.05 I-1.994 J0.157
X-50.212 Y0.306 I-1.313 J-1.508 F381
G2 X-50.38 Y0.575 I0.149 J0.28
G1 Y2.244 F685.8
X-50.365 Y2.544
X-50.062 Y3.062
X-49.518 Y3.821
X-48.599 Y4.893
X-47.597 Y5.887
X-46.556 Y6.84
X-45.478 Y7.752
X-44.364 Y8.619
X-43.218 Y9.443
X-42.041 Y10.221
X-40.834 Y10.955
X-39.601 Y11.641
X-38.341 Y12.279
X-37.058 Y12.867
X-35.753 Y13.406
X-34.429 Y13.893
X-33.086 Y14.33
X-31.728 Y14.715
X-30.356 Y15.049
X-28.973 Y15.329
X-27.579 Y15.555
X-26.178 Y15.727
X-24.772 Y15.844
X-23.361 Y15.908
X-21.95 Y15.916
X-20.539 Y15.87
X-19.131 Y15.769
X-17.728 Y15.614
X-16.332 Y15.404
X-14.945 Y15.14
X-13.57 Y14.821
X-12.208 Y14.449
X-10.863 Y14.022
X-9.535 Y13.543
X-8.227 Y13.012
X-6.942 Y12.428
X-5.681 Y11.792
X-4.457 Y11.09
X-3.874 Y10.692
X-3.098 Y10.111
X-2.651 Y9.712
X-2.241 Y9.273
X-1.822 Y8.706
X-1.453 Y8.233
X-1.344 Y7.953
X-1.306 Y7.821
X-1.257 Y7.595
X-1.152 Y7.403
X-0.982 Y7.232
X0.267 Y6.574
X1.256 Y6.208
X1.432 Y6.117
X1.579 Y5.986
X1.689 Y5.822
X2.084 Y5.06
X2.366 Y4.489
X2.404 Y4.41
X2.745 Y3.975
X2.779 Y3.918 F762
X2.799 Y3.854
X2.807 Y3.788
G2 X2.172 Y3.788 I-0.317 J0
X2.488 Y4.105 I0.317 J0
G1 X2.489
G2 X2.699 Y3.549 I0 J-0.317
G1 X2.482 Y3.358
G2 X2.062 Y3.835 I-0.21 J0.238
X2.241 Y3.913 I0.21 J-0.238
G1 X2.249
G2 X3.017 Y3.793 I0.147 J-1.576 F381
G1 X3.256 Y3.717 F685.8
X3.527 Y3.721
X3.676 Y3.716
X3.955 Y3.604
X4.413 Y3.217
X4.668 Y2.674
X4.689 Y2.074
X4.666 Y1.988
X4.58 Y1.784
X4.44 Y1.613
X4.259 Y1.486
X4.05 Y1.415
X3.829 Y1.404
X3.614 Y1.454
X3.587 Y1.463
X3.226 Y1.488
X3.206 Y1.483
G2 X3.035 Y1.728 I-0.035 J0.158 F762
G1 X3.047 Y1.744
G2 X3.425 Y1.733 I0.185 J-0.143 F381
G1 X3.481 Y1.641
X3.527 Y1.542
X3.548 Y1.506
X3.577 Y1.475
X3.614 Y1.454
X3.977 Y1.312 F762
X4.057 Y1.254
X4.164 Y1.122
X4.264 Y1.011
X4.564 Y1.022
X4.844 Y1.13
X5.328 Y1.484
X5.587 Y2.026
X5.643 Y2.623
X5.541 Y3.214
X5.312 Y3.66
X5.178 Y3.847
X4.996 Y3.989
X4.781 Y4.073
X4.552 Y4.093
X4.326 Y4.046
X4.122 Y3.937
X4.095 Y3.921
X3.667 Y3.724
X3.527 Y3.721
G3 X3.225 Y3.388 I0.016 J-0.317
X3.783 Y3.204 I0.315 J0.016
G1 X3.807 Y3.234
G3 X4.004 Y3.725 I-0.796 J0.606 F381
G1 X4.018 Y3.786
X4.042 Y3.843
X4.078 Y3.894
X4.122 Y3.937
X4.14 Y3.955 F685.8
X4.328 Y4.266
X4.412 Y4.39
X4.662 Y4.556
X4.957 Y4.612
X5.552 Y4.536
X6.043 Y4.192
X6.39 Y3.702
X6.605 Y3.142
X6.697 Y2.549
X6.642 Y1.952
X6.471 Y1.377
X6.145 Y0.873
X5.717 Y0.453
X5.526 Y0.315
X5.304 Y0.238
X5.069 Y0.23
X4.841 Y0.29
X4.641 Y0.414
X4.487 Y0.591
X4.39 Y0.806
X4.384 Y0.838 F762
X4.381 Y0.894 F381
X4.388 Y0.949
X4.404 Y1.002
X4.418 Y1.022
X4.439 Y1.036
X4.463 Y1.041
X4.487 Y1.036
X4.531 Y1.114
X4.478 Y1.111
G3 X4.39 Y0.806 I0.22 J-0.229
G1 X4.473 Y0.511 F762
X4.429 Y0.172
X4.418 Y0.155
X4.075 Y-0.223
X4.007 Y-0.262
X3.577 Y-0.483
X3.166 Y-0.579
X2.725 Y-0.569
G3 X2.535 Y-1.138 I0.004 J-0.317
G1 X2.591 Y-1.181 Z-0.99
X2.644 Y-1.222 Z-0.967
X2.692 Y-1.259 Z-0.929
X2.732 Y-1.29 Z-0.879
X2.762 Y-1.313 Z-0.819
X2.78 Y-1.327 Z-0.752
X2.787 Y-1.332 Z-0.681
G0 Z5
X1.81 Y4.733
Z-0.363
G1 Z-0.681 F381
X1.811 Y4.741 Z-0.752
X1.813 Y4.765 Z-0.819
X1.815 Y4.802 Z-0.879
X1.819 Y4.853 Z-0.929
X1.823 Y4.913 Z-0.967
X1.827 Y4.98 Z-0.99
X1.832 Y5.05 Z-0.998
G3 X1.689 Y5.822 I-1.579 J0.108
G1 X1.553 Y6.092 F762
X1.342 Y6.533
X1.315 Y6.573
X0.589 Y7.374
X0.228 Y7.768
X0.194 Y7.798
X0.16 Y7.821
X-0.481 Y8.197
X-0.742 Y8.336
X-0.892 Y8.409
X-1.547 Y8.977
X-1.864 Y9.246
X-1.877 Y9.264
X-2.267 Y10.159
X-2.366 Y10.515
X-2.686 Y11.023
X-3.092 Y11.465
X-3.594 Y11.893
X-4.354 Y12.436
X-5.568 Y13.155
X-6.837 Y13.774
X-8.129 Y14.341
X-9.443 Y14.858
X-10.775 Y15.325
X-12.124 Y15.741
X-13.488 Y16.105
X-14.865 Y16.416
X-16.253 Y16.675
X-17.649 Y16.881
X-19.053 Y17.035
X-20.461 Y17.136
X-21.871 Y17.184
X-23.283 Y17.178
X-24.693 Y17.119
X-26.101 Y17.008
X-27.503 Y16.844
X-28.898 Y16.627
X-30.284 Y16.359
X-31.658 Y16.039
X-33.021 Y15.668
X-34.368 Y15.248
X-35.699 Y14.778
X-37.012 Y14.259
X-38.305 Y13.692
X-39.575 Y13.077
X-40.822 Y12.414
X-42.043 Y11.705
X-43.236 Y10.952
X-44.401 Y10.155
X-45.536 Y9.315
X-46.638 Y8.433
X-47.705 Y7.508
X-48.736 Y6.544
X-49.72 Y5.532
X-50.195 Y4.965
X-50.296 Y4.811
X-50.359 Y4.638
X-50.38 Y4.455
Y2.244
G3 X-49.83 Y2.039 I0.317 J0.011
G1 X-49.779 Y2.104
X-49.739 Y2.176
X-49.711 Y2.254
G3 X-49.941 Y3.821 I-1.932 J0.518
X-50.279 Y4.234 I-1.703 J-1.049 F381
G1 X-50.32 Y4.281
X-50.352 Y4.335
X-50.372 Y4.394
X-50.38 Y4.455
Y5.947 F685.8
X-50.365 Y6.247
X-50.049 Y6.757
X-49.546 Y7.395
X-48.722 Y8.273
X-47.671 Y9.216
X-46.577 Y10.108
X-45.45 Y10.958
X-44.293 Y11.767
X-43.108 Y12.534
X-41.896 Y13.258
X-40.659 Y13.938
X-39.398 Y14.573
X-38.115 Y15.161
X-36.812 Y15.703
X-35.49 Y16.198
X-34.151 Y16.645
X-32.797 Y17.044
X-31.429 Y17.395
X-30.05 Y17.696
X-28.661 Y17.948
X-27.264 Y18.149
X-25.86 Y18.299
X-24.452 Y18.399
X-23.041 Y18.448
X-21.63 Y18.445
X-20.219 Y18.391
X-18.811 Y18.285
X-17.409 Y18.128
X-16.012 Y17.92
X-14.624 Y17.662
X-13.247 Y17.352
X-11.883 Y16.991
X-10.532 Y16.579
X-9.198 Y16.118
X-7.882 Y15.608
X-6.585 Y15.05
X-5.311 Y14.442
X-4.081 Y13.749
X-3.495 Y13.356
X-2.875 Y12.892
X-2.427 Y12.493
X-2.218 Y12.268
X-2.085 Y12.073
X-2.015 Y11.847
X-2.014 Y11.611
X-2.084 Y11.143
X-2.267 Y10.159
G2 X-2.482 Y9.926 I-0.31 J0.069 F762
X-2.83 Y10.102 I-0.084 J0.267
X-2.599 Y11.127 I0.946 J0.325
X-2.22 Y11.369 I0.714 J-0.7 F381
G3 X-2.014 Y11.611 I-0.106 J0.299
G1 X-1.933 Y12.153 F762
X-1.93 Y12.163
X-1.829 Y12.446
X-1.905 Y13.041
X-2.201 Y13.563
X-2.593 Y14.017
X-3.041 Y14.416
X-3.73 Y14.925
X-4.731 Y15.54
X-5.992 Y16.173
X-7.287 Y16.735
X-8.602 Y17.249
X-9.934 Y17.716
X-11.282 Y18.135
X-12.644 Y18.506
X-14.019 Y18.827
X-15.404 Y19.098
X-16.798 Y19.32
X-18.199 Y19.493
X-19.605 Y19.618
X-21.015 Y19.692
X-22.427 Y19.716
X-23.838 Y19.69
X-25.248 Y19.615
X-26.654 Y19.491
X-28.055 Y19.317
X-29.449 Y19.095
X-30.834 Y18.824
X-32.209 Y18.505
X-33.573 Y18.139
X-34.922 Y17.725
X-36.257 Y17.266
X-37.575 Y16.76
X-38.875 Y16.209
X-40.154 Y15.613
X-41.412 Y14.972
X-42.647 Y14.287
X-43.857 Y13.56
X-45.041 Y12.792
X-46.198 Y11.983
X-47.325 Y11.134
X-48.421 Y10.244
X-49.475 Y9.304
X-50.159 Y8.59
X-50.279 Y8.428
X-50.354 Y8.241
X-50.38 Y8.041
Y5.947
G3 X-50.212 Y5.678 I0.317 J0.011
X-49.202 Y6.449 I0.329 J0.616
X-49.84 Y7.515 I-1.95 J-0.443
X-50.212 Y7.771 I-1.313 J-1.508 F381
G2 X-50.38 Y8.041 I0.149 J0.28
G1 Y9.474 F685.8
X-50.373 Y9.624
X-50.067 Y10.14
X-49.695 Y10.611
X-49.053 Y11.283
X-47.994 Y12.216
X-46.865 Y13.064
X-45.707 Y13.872
X-44.523 Y14.64
X-43.313 Y15.368
X-42.08 Y16.054
X-40.823 Y16.697
X-39.545 Y17.297
X-38.248 Y17.854
X-36.933 Y18.366
X-35.601 Y18.834
X-34.254 Y19.258
X-32.894 Y19.636
X-31.522 Y19.968
X-30.14 Y20.253
X-28.749 Y20.492
X-27.35 Y20.684
X-25.946 Y20.828
X-24.537 Y20.924
X-23.126 Y20.973
X-21.715
X-20.304 Y20.925
X-18.896 Y20.829
X-17.491 Y20.685
X-16.093 Y20.493
X-14.702 Y20.254
X-13.32 Y19.967
X-11.948 Y19.631
X-10.59 Y19.248
X-9.245 Y18.819
X-7.916 Y18.343
X-6.604 Y17.822
X-5.313 Y17.251
X-4.108 Y16.638
X-3.508 Y16.266
X-2.75 Y15.753
X-2.222 Y15.324
X-1.79 Y14.907
X-1.408 Y14.444
X-1.157 Y14.046
X-1.071 Y13.859
X-1.036 Y13.656
X-1.054 Y13.451
X-1.125 Y13.257
X-1.243 Y13.088
X-1.861 Y12.307
X-1.93 Y12.163
G2 X-2.196 Y11.991 I-0.283 J0.145 F762
X-2.534 Y12.707 I-0.022 J0.428
X-1.997 Y13.013 I0.739 J-0.674
X-1.548 Y13.002 I0.202 J-0.979 F381
G3 X-1.243 Y13.088 I0.079 J0.308
G1 X-0.892 Y13.371 F762
X-0.77 Y13.459
X-0.596 Y13.703
X-0.46 Y14.288
X-0.591 Y14.873
X-0.864 Y15.407
X-1.224 Y15.888
X-1.639 Y16.321
X-2.235 Y16.841
X-2.895 Y17.324
X-3.967 Y17.975
X-5.232 Y18.602
X-6.53 Y19.157
X-7.847 Y19.666
X-9.18 Y20.13
X-10.528 Y20.549
X-11.889 Y20.923
X-13.262 Y21.25
X-14.646 Y21.531
X-16.038 Y21.766
X-17.437 Y21.954
X-18.841 Y22.097
X-20.249 Y22.193
X-21.66 Y22.242
X-23.072 Y22.243
X-24.483 Y22.197
X-25.891 Y22.104
X-27.296 Y21.966
X-28.696 Y21.781
X-30.088 Y21.55
X-31.473 Y21.274
X-32.847 Y20.953
X-34.211 Y20.587
X-35.562 Y20.178
X-36.898 Y19.724
X-38.22 Y19.227
X-39.524 Y18.688
X-40.81 Y18.105
X-42.076 Y17.481
X-43.321 Y16.816
X-44.543 Y16.109
X-45.741 Y15.362
X-46.914 Y14.577
X-48.061 Y13.753
X-49.165 Y12.874
X-49.595 Y12.476
X-50.14 Y11.946
X-50.27 Y11.78
X-50.352 Y11.586
X-50.38 Y11.377
Y9.474
G3 X-50.052 Y9.168 I0.317 J0.011
X-49.648 Y9.559 I-0.015 J0.419
X-49.941 Y10.743 I-1.995 J0.135
X-50.279 Y11.156 I-1.703 J-1.049 F381
G1 X-50.32 Y11.203
X-50.352 Y11.257
X-50.372 Y11.316
X-50.38 Y11.377
Y12.68 F685.8
X-50.373 Y12.83
X-50.086 Y13.357
X-49.711 Y13.826
X-49.215 Y14.332
X-48.311 Y15.11
X-47.165 Y15.936
X-45.983 Y16.707
X-44.777 Y17.44
X-43.547 Y18.134
X-42.296 Y18.788
X-41.025 Y19.401
X-39.735 Y19.974
X-38.427 Y20.505
X-37.103 Y20.995
X-35.764 Y21.442
X-34.412 Y21.847
X-33.047 Y22.209
X-31.672 Y22.528
X-30.288 Y22.803
X-28.895 Y23.034
X-27.496 Y23.22
X-26.091 Y23.361
X-24.683 Y23.456
X-23.272 Y23.507
X-21.86 Y23.512
X-20.449 Y23.47
X-19.04 Y23.383
X-17.635 Y23.251
X-16.234 Y23.073
X-14.84 Y22.852
X-13.454 Y22.585
X-12.077 Y22.273
X-10.711 Y21.916
X-9.358 Y21.515
X-8.018 Y21.07
X-6.694 Y20.581
X-5.387 Y20.049
X-4.104 Y19.459
X-2.884 Y18.799
X-2.295 Y18.412
X-1.529 Y17.853
X-0.973 Y17.369
X-0.556 Y16.937
X-0.178 Y16.471
X0.153 Y15.971
X0.405 Y15.427
X0.569 Y14.849
X0.579 Y14.646
X0.558 Y14.419
X0.472 Y14.207
X0.33 Y14.028
X0.143 Y13.897
X-0.892 Y13.371
G2 X-1.208 Y13.398 I-0.134 J0.288 F762
X-1.142 Y14.03 I0.208 J0.298
X-0.589 Y14.096 I0.391 J-0.92
X-0.173 Y13.926 I-0.162 J-0.987 F381
G3 X0.143 Y13.897 I0.183 J0.259
G1 X0.481 Y14.045 F762
X0.639 Y14.107
X0.919 Y14.216
X1.107 Y14.449
X1.337 Y15.004
X1.341 Y15.604
X1.199 Y16.187
X0.958 Y16.736
X0.648 Y17.25
X0.286 Y17.728
X-0.137 Y18.196
X-0.774 Y18.789
X-1.507 Y19.362
X-2.555 Y20.046
X-3.799 Y20.714
X-5.086 Y21.295
X-6.395 Y21.823
X-7.721 Y22.308
X-9.061 Y22.75
X-10.415 Y23.15
X-11.781 Y23.506
X-13.157 Y23.819
X-14.543 Y24.088
X-15.937 Y24.312
X-17.337 Y24.493
X-18.742 Y24.63
X-20.151 Y24.724
X-21.561 Y24.773
X-22.973 Y24.777
X-24.384 Y24.737
X-25.793 Y24.653
X-27.199 Y24.526
X-28.6 Y24.354
X-29.995 Y24.139
X-31.383 Y23.88
X-32.762 Y23.578
X-34.131 Y23.235
X-35.489 Y22.849
X-36.835 Y22.422
X-38.167 Y21.954
X-39.483 Y21.446
X-40.784 Y20.897
X-42.067 Y20.307
X-43.331 Y19.679
X-44.574 Y19.011
X-45.797 Y18.305
X-46.996 Y17.561
X-48.169 Y16.776
X-49.258 Y15.962
X-49.635 Y15.626
X-50.13 Y15.161
X-50.265 Y14.993
X-50.351 Y14.796
X-50.38 Y14.583
Y12.68
G3 X-50.212 Y12.411 I0.317 J0.011
X-49.271 Y13.225 I0.314 J0.588
X-49.84 Y14.057 I-1.882 J-0.677
X-50.212 Y14.313 I-1.313 J-1.508 F381
G2 X-50.38 Y14.583 I0.149 J0.28
G1 Y15.886 F685.8
X-50.373 Y16.036
X-50.066 Y16.552
X-49.675 Y17.007
X-49.14 Y17.513
X-48.209 Y18.252
X-47.032 Y19.032
X-45.821 Y19.757
X-44.588 Y20.445
X-43.335 Y21.094
X-42.062 Y21.706
X-40.772 Y22.279
X-39.465 Y22.813
X-38.143 Y23.308
X-36.807 Y23.763
X-35.458 Y24.177
X-34.097 Y24.552
X-32.725 Y24.885
X-31.344 Y25.178
X-29.955 Y25.429
X-28.559 Y25.637
X-27.157 Y25.804
X-25.751 Y25.927
X-24.341 Y26.008
X-22.93 Y26.046
X-21.518 Y26.041
X-20.108 Y25.992
X-18.699 Y25.9
X-17.294 Y25.765
X-15.894 Y25.587
X-14.499 Y25.367
X-13.112 Y25.104
X-11.734 Y24.798
X-10.366 Y24.449
X-9.01 Y24.059
X-7.666 Y23.626
X-6.336 Y23.153
X-5.021 Y22.638
X-3.727 Y22.074
X-2.467 Y21.439
X-1.862 Y21.076
X-0.936 Y20.486
X-0.111 Y19.853
X0.549 Y19.251
X1.063 Y18.695
X1.457 Y18.187
X1.782 Y17.683
X2.062 Y17.152
X2.283 Y16.594
X2.419 Y16.01
X2.47 Y15.412
X2.426 Y15.058
X2.374 Y14.861
X2.274 Y14.683
X2.133 Y14.536
X1.958 Y14.431
X1.762 Y14.373
X1.122 Y14.268
X0.639 Y14.107
G2 X0.331 Y14.181 I-0.09 J0.305 F762
X0.574 Y14.889 I0.283 J0.298
X1.126 Y14.785 I0.099 J-0.995
X1.47 Y14.497 I-0.453 J-0.891 F381
G3 X1.762 Y14.373 I0.253 J0.191
G1 X2.107 Y14.428 F762
X2.271 Y14.433
X2.57 Y14.457
X2.823 Y14.617
X3.216 Y15.07
X3.393 Y15.644
X3.423 Y16.243
X3.34 Y16.837
X3.171 Y17.413
X2.938 Y17.966
X2.645 Y18.507
X2.26 Y19.091
X1.795 Y19.681
X1.228 Y20.285
X0.487 Y20.95
X-0.585 Y21.758
X-1.753 Y22.49
X-3.009 Y23.134
X-4.298 Y23.708
X-5.609 Y24.232
X-6.936 Y24.714
X-8.276 Y25.157
X-9.63 Y25.558
X-10.994 Y25.92
X-12.369 Y26.24
X-13.753 Y26.518
X-15.145 Y26.754
X-16.543 Y26.949
X-17.946 Y27.103
X-19.353 Y27.215
X-20.763 Y27.285
X-22.175 Y27.312
X-23.586 Y27.298
X-24.997 Y27.241
X-26.405 Y27.144
X-27.81 Y27.004
X-29.21 Y26.823
X-30.604 Y26.601
X-31.991 Y26.338
X-33.369 Y26.035
X-34.739 Y25.691
X-36.097 Y25.308
X-37.444 Y24.886
X-38.779 Y24.425
X-40.099 Y23.925
X-41.404 Y23.387
X-42.693 Y22.811
X-43.964 Y22.197
X-45.217 Y21.547
X-46.45 Y20.859
X-47.661 Y20.135
X-48.84 Y19.358
X-49.691 Y18.691
X-50.127 Y18.285
X-50.264 Y18.117
X-50.35 Y17.919
X-50.38 Y17.704
Y15.886
G3 X-50.212 Y15.617 I0.317 J0.011
X-49.307 Y16.441 I0.305 J0.573
X-49.84 Y17.178 I-1.846 J-0.771
X-50.212 Y17.435 I-1.313 J-1.508 F381
G2 X-50.38 Y17.704 I0.149 J0.28
G1 Y18.916 F685.8
X-50.373 Y19.066
X-50.082 Y19.591
X-49.691 Y20.046
X-49.187 Y20.506
X-48.344 Y21.154
X-47.156 Y21.915
X-45.924 Y22.606
X-44.673 Y23.26
X-43.404 Y23.877
X-42.118 Y24.459
X-40.815 Y25.003
X-39.498 Y25.51
X-38.166 Y25.98
X-36.822 Y26.412
X-35.467 Y26.805
X-34.101 Y27.16
X-32.725 Y27.476
X-31.341 Y27.754
X-29.949 Y27.991
X-28.551 Y28.188
X-27.148 Y28.345
X-25.742 Y28.462
X-24.332 Y28.538
X-22.921 Y28.574
X-21.509 Y28.569
X-20.098 Y28.523
X-18.689 Y28.435
X-17.284 Y28.307
X-15.882 Y28.138
X-14.486 Y27.929
X-13.097 Y27.68
X-11.715 Y27.39
X-10.343 Y27.06
X-8.98 Y26.689
X-7.63 Y26.279
X-6.291 Y25.83
X-4.967 Y25.342
X-3.659 Y24.812
X-2.372 Y24.232
X-1.117 Y23.586
X0.081 Y22.838
X1.13 Y22.055
X1.948 Y21.327
X2.621 Y20.616
X3.178 Y19.916
X3.608 Y19.268
X3.928 Y18.684
X4.169 Y18.135
X4.362 Y17.567
X4.5 Y16.983
X4.566 Y16.386
X4.542 Y15.787
X4.435 Y15.197
X4.314 Y14.915
X4.192 Y14.719
X4.019 Y14.565
X3.809 Y14.468
X3.58 Y14.436
X2.404 Y14.437
X2.271 Y14.433
G2 X1.997 Y14.592 I0.001 J0.317 F762
X2.242 Y15.124 I0.312 J0.178
X3.019 Y14.946 I0.185 J-0.983
X3.312 Y14.606 I-0.592 J-0.806 F381
G3 X3.58 Y14.436 I0.281 J0.148
G1 X4.007 Y14.433 F762
X4.184 Y14.435
X4.328 Y14.437
X4.622 Y14.496
X5.111 Y14.844
X5.415 Y15.361
X5.58 Y15.938
X5.637 Y16.535
X5.608 Y17.134
X5.508 Y17.726
X5.348 Y18.304
X5.12 Y18.916
X4.803 Y19.583
X4.381 Y20.305
X3.882 Y21.011
X3.257 Y21.752
X2.471 Y22.535
X1.474 Y23.372
X0.319 Y24.184
X-0.898 Y24.899
X-2.162 Y25.528
X-3.454 Y26.098
X-4.765 Y26.62
X-6.092 Y27.102
X-7.432 Y27.545
X-8.784 Y27.951
X-10.147 Y28.318
X-11.52 Y28.646
X-12.902 Y28.934
X-14.292 Y29.183
X-15.688 Y29.393
X-17.089 Y29.563
X-18.495 Y29.693
X-19.903 Y29.783
X-21.314 Y29.833
X-22.726 Y29.843
X-24.137 Y29.813
X-25.547 Y29.744
X-26.955 Y29.636
X-28.358 Y29.488
X-29.758 Y29.3
X-31.151 Y29.074
X-32.537 Y28.809
X-33.916 Y28.505
X-35.286 Y28.164
X-36.646 Y27.785
X-37.994 Y27.368
X-39.331 Y26.915
X-40.655 Y26.425
X-41.965 Y25.898
X-43.26 Y25.336
X-44.538 Y24.737
X-45.799 Y24.103
X-47.042 Y23.434
X-48.257 Y22.716
X-49.311 Y22
X-49.642 Y21.73
X-50.107 Y21.326
X-50.255 Y21.155
X-50.348 Y20.95
X-50.38 Y20.727
Y18.916
G3 X-50.212 Y18.647 I0.317 J0.011
X-49.31 Y19.471 I0.305 J0.572
X-49.84 Y20.201 I-1.842 J-0.778
X-50.212 Y20.458 I-1.313 J-1.508 F381
G2 X-50.38 Y20.727 I0.149 J0.28
G1 Y21.978 F685.8
X-50.373 Y22.128
X-50.053 Y22.636
X-49.646 Y23.077
X-49.118 Y23.531
X-48.263 Y24.146
X-47.051 Y24.869
X-45.8 Y25.523
X-44.531 Y26.142
X-43.246 Y26.726
X-41.945 Y27.274
X-40.63 Y27.788
X-39.302 Y28.265
X-37.961 Y28.707
X-36.609 Y29.113
X-35.246 Y29.482
X-33.874 Y29.814
X-32.494 Y30.109
X-31.106 Y30.367
X-29.712 Y30.587
X-28.312 Y30.768
X-26.907 Y30.912
X-25.5 Y31.017
X-24.09 Y31.084
X-22.678 Y31.112
X-21.267 Y31.101
X-19.856 Y31.051
X-18.447 Y30.962
X-17.041 Y30.834
X-15.64 Y30.666
X-14.243 Y30.46
X-12.853 Y30.215
X-11.47 Y29.932
X-10.095 Y29.611
X-8.73 Y29.251
X-7.376 Y28.854
X-6.033 Y28.42
X-4.702 Y27.948
X-3.386 Y27.437
X-2.088 Y26.883
X-0.814 Y26.275
X0.423 Y25.594
X1.609 Y24.828
X2.731 Y23.972
X3.684 Y23.109
X4.466 Y22.265
X5.103 Y21.449
X5.622 Y20.652
X6.022 Y19.903
X6.327 Y19.191
X6.547 Y18.525
X6.694 Y17.905
X6.708 Y17.816
X6.71 Y17.602
X6.656 Y17.395
X6.548 Y17.211
X6.395 Y17.062
X6.327 Y17.01
X6.26 Y16.886
X6.226 Y16.549
X6.284 Y16.382
X6.413 Y16.015
X6.428 Y15.415
X6.361 Y15.139
X6.282 Y14.937
X6.15 Y14.764
X5.976 Y14.633
X5.774 Y14.554
X5.557 Y14.534
X5.343 Y14.572
X5.31 Y14.582
X4.328 Y14.437
G2 X4.018 Y14.762 I0.008 J0.317 F762
X4.766 Y15.177 I0.496 J-0.012
G1 X4.822 Y15.141
G2 X5.164 Y14.737 I-0.565 J-0.825 F381
G1 X5.196 Y14.683
X5.237 Y14.637
X5.287 Y14.599
X5.343 Y14.572
X5.931 Y14.38 F762
X6.076 Y14.34
X6.376 Y14.347
X6.649 Y14.472
X7.106 Y14.86
X7.349 Y15.408
X7.67 Y16.442
X7.799 Y17.028
X7.828 Y17.628
X7.778 Y18.225
X7.668 Y18.815
X7.482 Y19.472
X7.201 Y20.212
X6.812 Y21.021
X6.323 Y21.848
X5.732 Y22.677
X4.969 Y23.573
X4.028 Y24.503
X2.943 Y25.406
X1.79 Y26.221
X0.584 Y26.953
X-0.666 Y27.61
X-1.947 Y28.202
X-3.25 Y28.745
X-4.57 Y29.247
X-5.903 Y29.711
X-7.248 Y30.139
X-8.604 Y30.53
X-9.971 Y30.885
X-11.346 Y31.202
X-12.73 Y31.482
X-14.121 Y31.724
X-15.517 Y31.929
X-16.919 Y32.096
X-18.325 Y32.226
X-19.733 Y32.316
X-21.144 Y32.367
X-22.556 Y32.381
X-23.967 Y32.356
X-25.377 Y32.294
X-26.785 Y32.194
X-28.19 Y32.057
X-29.591 Y31.883
X-30.987 Y31.671
X-32.377 Y31.422
X-33.759 Y31.137
X-35.134 Y30.815
X-36.499 Y30.458
X-37.855 Y30.064
X-39.2 Y29.635
X-40.533 Y29.172
X-41.854 Y28.673
X-43.161 Y28.139
X-44.453 Y27.572
X-45.73 Y26.97
X-46.99 Y26.334
X-48.224 Y25.647
X-49.284 Y24.964
X-49.611 Y24.711
X-50.095 Y24.307
X-50.249 Y24.135
X-50.346 Y23.926
X-50.38 Y23.698
Y21.978
G3 X-50.052 Y21.672 I0.317 J0.011
X-49.646 Y22.114 I-0.015 J0.421
X-49.941 Y23.063 I-1.998 J-0.1
X-50.279 Y23.477 I-1.703 J-1.049 F381
G1 X-50.32 Y23.523
X-50.352 Y23.577
X-50.372 Y23.636
X-50.38 Y23.698
Y24.864 F685.8
X-50.373 Y25.013
X-50.07 Y25.532
X-49.666 Y25.975
X-49.196 Y26.375
X-48.426 Y26.924
X-47.211 Y27.642
X-45.947 Y28.27
X-44.666 Y28.864
X-43.37 Y29.424
X-42.061 Y29.951
X-40.738 Y30.444
X-39.403 Y30.903
X-38.056 Y31.327
X-36.7 Y31.717
X-35.333 Y32.072
X-33.958 Y32.391
X-32.576 Y32.676
X-31.186 Y32.924
X-29.79 Y33.136
X-28.39 Y33.312
X-26.985 Y33.451
X-25.577 Y33.553
X-24.167 Y33.618
X-22.756 Y33.647
X-21.344 Y33.639
X-19.933 Y33.594
X-18.524 Y33.511
X-17.117 Y33.39
X-15.715 Y33.231
X-14.317 Y33.036
X-12.924 Y32.805
X-11.538 Y32.536
X-10.16 Y32.231
X-8.79 Y31.89
X-7.43 Y31.513
X-6.08 Y31.1
X-4.741 Y30.651
X-3.416 Y30.166
X-2.105 Y29.643
X-0.812 Y29.076
X0.455 Y28.454
X1.688 Y27.766
X2.877 Y27.005
X4.012 Y26.165
X5.081 Y25.244
X6.021 Y24.285
X6.798 Y23.342
X7.443 Y22.406
X7.97 Y21.482
X8.377 Y20.6
X8.661 Y19.81
X8.844 Y19.123
X8.949 Y18.533
X9 Y17.935
X8.993 Y17.335
X8.921 Y16.696
X8.777 Y15.974
X8.609 Y15.395
X8.393 Y14.835
X8.069 Y14.33
X7.893 Y14.139
X7.729 Y14.003
X7.533 Y13.915
X7.322 Y13.883
X7.109 Y13.909
X6.911 Y13.99
X6.697 Y14.107
X6.252 Y14.275
X5.931 Y14.38
G2 X5.728 Y14.623 I0.109 J0.298 F762
X6.475 Y15.009 I0.434 J0.076
X6.677 Y14.711 I-0.711 J-0.703
X6.763 Y14.27 I-0.914 J-0.406 F381
G3 X6.911 Y13.99 I0.317 J-0.011
G1 X7.262 Y13.786 F762
X7.534 Y13.663
X7.817 Y13.564
X8.414 Y13.623
X8.916 Y13.952
X9.302 Y14.412
X9.597 Y14.934
X9.82 Y15.491
X9.986 Y16.068
X10.104 Y16.669
X10.171 Y17.28
X10.185 Y17.901
X10.145 Y18.548
X10.038 Y19.26
X9.848 Y20.055
X9.556 Y20.937
X9.147 Y21.888
X8.624 Y22.864
X8.001 Y23.82
X7.21 Y24.832
X6.249 Y25.865
X5.203 Y26.814
X4.092 Y27.684
X2.926 Y28.48
X1.714 Y29.204
X0.465 Y29.862
X-0.813 Y30.462
X-2.112 Y31.013
X-3.429 Y31.523
X-4.759 Y31.996
X-6.101 Y32.433
X-7.454 Y32.836
X-8.817 Y33.205
X-10.188 Y33.537
X-11.568 Y33.835
X-12.956 Y34.096
X-14.349 Y34.322
X-15.748 Y34.512
X-17.151 Y34.666
X-18.558 Y34.784
X-19.967 Y34.864
X-21.378 Y34.908
X-22.79 Y34.916
X-24.201 Y34.887
X-25.611 Y34.822
X-27.019 Y34.722
X-28.424 Y34.585
X-29.825 Y34.412
X-31.221 Y34.203
X-32.612 Y33.959
X-33.996 Y33.68
X-35.372 Y33.366
X-36.74 Y33.018
X-38.099 Y32.636
X-39.448 Y32.22
X-40.786 Y31.77
X-42.112 Y31.287
X-43.426 Y30.77
X-44.726 Y30.221
X-46.012 Y29.639
X-47.283 Y29.024
X-48.519 Y28.342
X-49.453 Y27.734
X-49.734 Y27.514
X-50.101 Y27.202
X-50.251 Y27.031
X-50.347 Y26.823
X-50.38 Y26.598
Y24.864
G3 X-49.83 Y24.658 I0.317 J0.011
X-49.662 Y25.19 I-0.474 J0.442
X-49.941 Y25.963 I-1.981 J-0.277
X-50.279 Y26.376 I-1.703 J-1.049 F381
G1 X-50.32 Y26.423
X-50.352 Y26.477
X-50.372 Y26.536
X-50.38 Y26.598
Y27.749 F685.8
X-50.373 Y27.899
X-50.069 Y28.416
X-49.664 Y28.859
X-49.153 Y29.279
X-48.45 Y29.763
X-47.223 Y30.461
X-45.946 Y31.062
X-44.654 Y31.63
X-43.347 Y32.165
X-42.029 Y32.668
X-40.698 Y33.139
X-39.356 Y33.577
X-38.003 Y33.981
X-36.641 Y34.353
X-35.271 Y34.691
X-33.892 Y34.996
X-32.507 Y35.266
X-31.115 Y35.502
X-29.718 Y35.704
X-28.316 Y35.87
X-26.911 Y36.002
X-25.502 Y36.098
X-24.092 Y36.158
X-22.681 Y36.184
X-21.269 Y36.174
X-19.858 Y36.129
X-18.449 Y36.048
X-17.042 Y35.931
X-15.639 Y35.778
X-14.24 Y35.589
X-12.846 Y35.365
X-11.458 Y35.106
X-10.077 Y34.813
X-8.705 Y34.484
X-7.34 Y34.121
X-5.986 Y33.724
X-4.642 Y33.293
X-3.309 Y32.828
X-1.989 Y32.326
X-0.685 Y31.786
X0.6 Y31.201
X1.859 Y30.563
X3.085 Y29.864
X4.271 Y29.098
X5.41 Y28.264
X6.492 Y27.357
X7.506 Y26.375
X8.433 Y25.324
X9.213 Y24.27
X9.87 Y23.201
X10.404 Y22.14
X10.811 Y21.121
X11.099 Y20.168
X11.279 Y19.317
X11.375 Y18.533
X11.403 Y17.772
X11.366 Y17.028
X11.269 Y16.313
X11.121 Y15.652
X11.033 Y15.373
X10.93 Y15.163
X10.77 Y14.991
X10.567 Y14.874
X10.338 Y14.821
X10.104 Y14.838
X9.938 Y14.874
X9.928 Y14.864
Y14.659
X9.944 Y14.641
X9.987 Y14.605
X10.099 Y14.462
X10.183 Y14.338
X10 Y13.767
X9.654 Y13.277
X9.602 Y13.232
X9.397 Y13.105
X9.163 Y13.045
X8.922 Y13.059
X8.696 Y13.144
X8.496 Y13.257
X8.175 Y13.402
X7.534 Y13.663
G2 X7.358 Y13.927 I0.141 J0.284 F762
X7.983 Y14.346 I0.434 J0.028
X8.454 Y13.863 I-0.438 J-0.899
X8.544 Y13.423 I-0.909 J-0.416 F381
G3 X8.696 Y13.144 I0.317 J-0.008
G1 X8.856 Y13.054 F762
X9.135 Y12.825
X9.255 Y12.735
X9.545 Y12.656
X10.139 Y12.738
X10.484 Y12.988
X10.642 Y13.141
X10.752 Y13.33
X10.806 Y13.543
X10.8 Y13.763
X10.787 Y13.814
X10.759 Y13.87
X10.74 Y13.897
X10.7 Y13.942
X10.66 Y13.976
X10.62 Y14
X10.58 Y14.017
X10.46 Y14.046
X10.379 Y14.091
X10.099 Y14.462
G3 X9.538 Y14.249 I-0.243 J-0.204
G2 X9.224 Y13.922 I-0.317 J-0.009
X8.903 Y14.242 I-0.003 J0.317
G1 X8.909 Y14.834
G2 X9.37 Y15.115 I0.317 J-0.003
G3 X10.104 Y14.838 I1.646 J3.253 F381
G1 X10.581 Y14.732 F762
X10.77 Y14.648
X10.9 Y14.535
X10.94 Y14.512
X10.98 Y14.496
X11.021 Y14.486
X11.061 Y14.481
X11.101 Y14.479
X11.141 Y14.482
X11.232 Y14.511
X11.272 Y14.528
G3 X11.393 Y14.994 I-0.14 J0.285
X10.913 Y15.043 I-0.261 J-0.181
G1 X10.872 Y14.995 F381
X10.841 Y14.94
X10.835 Y14.927
G3 X11.141 Y14.482 I0.291 J-0.127
G1 X11.181 Y14.491 F762
X11.221 Y14.505
X11.301 Y14.541
X11.575 Y14.664
X11.946 Y15.135
X12.207 Y15.676
X12.387 Y16.248
X12.504 Y16.836
X12.575 Y17.511
X12.59 Y18.271
X12.533 Y19.11
X12.401 Y19.974
X12.169 Y20.926
X11.813 Y21.984
X11.325 Y23.107
X10.703 Y24.257
X9.947 Y25.406
X9.074 Y26.514
X8.115 Y27.55
X7.084 Y28.515
X5.992 Y29.409
X4.847 Y30.235
X3.658 Y30.996
X2.431 Y31.694
X1.173 Y32.334
X-0.111 Y32.921
X-1.414 Y33.463
X-2.733 Y33.967
X-4.064 Y34.436
X-5.407 Y34.872
X-6.76 Y35.274
X-8.123 Y35.643
X-9.494 Y35.979
X-10.873 Y36.28
X-12.259 Y36.547
X-13.652 Y36.78
X-15.049 Y36.979
X-16.451 Y37.143
X-17.857 Y37.273
X-19.265 Y37.367
X-20.676 Y37.426
X-22.087 Y37.45
X-23.499 Y37.439
X-24.91 Y37.394
X-26.319 Y37.314
X-27.726 Y37.2
X-29.13 Y37.052
X-30.53 Y36.869
X-31.925 Y36.652
X-33.314 Y36.402
X-34.697 Y36.118
X-36.072 Y35.801
X-37.44 Y35.451
X-38.799 Y35.068
X-40.148 Y34.653
X-41.487 Y34.206
X-42.815 Y33.727
X-44.13 Y33.216
X-45.434 Y32.673
X-46.723 Y32.099
X-47.993 Y31.481
X-49.014 Y30.891
X-49.707 Y30.407
X-50.095 Y30.083
X-50.249 Y29.911
X-50.346 Y29.702
X-50.38 Y29.473
Y27.749
G3 X-49.83 Y27.544 I0.317 J0.011
X-49.664 Y28.076 I-0.472 J0.44
X-49.941 Y28.839 I-1.979 J-0.287
X-50.279 Y29.252 I-1.703 J-1.049 F381
G1 X-50.32 Y29.299
X-50.352 Y29.353
X-50.372 Y29.412
X-50.38 Y29.473
Y30.635 F685.8
X-50.373 Y30.785
X-50.063 Y31.299
X-49.646 Y31.73
X-49.179 Y32.107
X-48.416 Y32.611
X-47.176 Y33.284
X-45.886 Y33.859
X-44.583 Y34.401
X-43.267 Y34.912
X-41.939 Y35.392
X-40.601 Y35.841
X-39.252 Y36.257
X-37.894 Y36.642
X-36.527 Y36.995
X-35.152 Y37.316
X-33.771 Y37.604
X-32.382 Y37.86
X-30.988 Y38.083
X-29.59 Y38.273
X-28.187 Y38.429
X-26.78 Y38.551
X-25.371 Y38.64
X-23.961 Y38.695
X-22.549 Y38.716
X-21.138 Y38.703
X-19.727 Y38.657
X-18.318 Y38.576
X-16.911 Y38.461
X-15.507 Y38.311
X-14.107 Y38.128
X-12.712 Y37.91
X-11.323 Y37.66
X-9.94 Y37.376
X-8.565 Y37.058
X-7.197 Y36.708
X-5.839 Y36.325
X-4.49 Y35.909
X-3.151 Y35.46
X-1.824 Y34.979
X-0.511 Y34.462
X0.787 Y33.905
X2.064 Y33.304
X3.315 Y32.651
X4.535 Y31.941
X5.718 Y31.17
X6.858 Y30.338
X7.948 Y29.441
X8.981 Y28.478
X9.942 Y27.445
X10.825 Y26.343
X11.618 Y25.175
X12.313 Y23.947
X12.875 Y22.722
X13.284 Y21.58
X13.557 Y20.544
X13.731 Y19.544
X13.813 Y18.6
X13.814 Y17.735
X13.751 Y16.995
X13.642 Y16.363
X13.49 Y15.783
X13.286 Y15.218
X13.164 Y14.983
X13.032 Y14.797
X12.854 Y14.655
X12.644 Y14.568
X12.417 Y14.542
X12.193 Y14.579
X11.762 Y14.637
X11.301 Y14.541
G2 X11.008 Y14.711 I-0.062 J0.232 F762
X11.743 Y15.205 I0.453 J0.12
G1 X11.76 Y15.192 F381
G2 X12.075 Y14.72 I-0.64 J-0.769
G1 X12.094 Y14.676
X12.12 Y14.637
X12.153 Y14.604
X12.193 Y14.579
X12.387 Y14.483 F762
X12.562 Y14.351
X12.686 Y14.267
X12.979 Y14.201
X13.274 Y14.255
X13.812 Y14.521
X14.21 Y14.97
X14.503 Y15.493
X14.715 Y16.055
X14.86 Y16.637
X14.972 Y17.347
X15.026 Y18.133
X15.012 Y18.997
X14.91 Y19.997
X14.704 Y21.078
X14.374 Y22.254
X13.899 Y23.518
X13.291 Y24.792
X12.582 Y26.012
X11.782 Y27.175
X10.899 Y28.277
X9.939 Y29.312
X8.911 Y30.279
X7.828 Y31.184
X6.696 Y32.028
X5.523 Y32.813
X4.312 Y33.539
X3.07 Y34.21
X1.802 Y34.83
X0.512 Y35.404
X-0.795 Y35.937
X-2.116 Y36.435
X-3.449 Y36.899
X-4.793 Y37.331
X-6.147 Y37.73
X-7.51 Y38.098
X-8.881 Y38.434
X-10.259 Y38.737
X-11.645 Y39.007
X-13.036 Y39.245
X-14.433 Y39.45
X-15.834 Y39.622
X-17.239 Y39.761
X-18.647 Y39.866
X-20.057 Y39.937
X-21.468 Y39.975
X-22.879 Y39.98
X-24.291 Y39.952
X-25.701 Y39.89
X-27.109 Y39.796
X-28.515 Y39.669
X-29.918 Y39.509
X-31.316 Y39.316
X-32.71 Y39.09
X-34.098 Y38.832
X-35.479 Y38.543
X-36.854 Y38.221
X-38.221 Y37.869
X-39.579 Y37.484
X-40.928 Y37.069
X-42.267 Y36.622
X-43.595 Y36.144
X-44.912 Y35.636
X-46.217 Y35.097
X-47.508 Y34.526
X-48.758 Y33.87
X-49.498 Y33.399
X-49.776 Y33.187
X-50.091 Y32.928
X-50.247 Y32.755
X-50.346 Y32.545
X-50.38 Y32.315
Y30.635
G3 X-50.052 Y30.329 I0.317 J0.011
X-49.649 Y30.778 I-0.015 J0.418
X-49.941 Y31.68 I-1.995 J-0.147
X-50.279 Y32.094 I-1.703 J-1.049 F381
G1 X-50.32 Y32.14
X-50.352 Y32.194
X-50.372 Y32.253
X-50.38 Y32.315
Y33.52 F685.8
X-50.373 Y33.67
X-50.039 Y34.169
X-49.61 Y34.588
X-49.086 Y34.986
X-48.379 Y35.433
X-47.125 Y36.081
X-45.825 Y36.632
X-44.513 Y37.151
X-43.188 Y37.64
X-41.853 Y38.098
X-40.508 Y38.527
X-39.154 Y38.924
X-37.79 Y39.291
X-36.419 Y39.627
X-35.041 Y39.932
X-33.656 Y40.206
X-32.266 Y40.448
X-30.87 Y40.659
X-29.469 Y40.838
X-28.065 Y40.984
X-26.658 Y41.099
X-25.249 Y41.181
X-23.838 Y41.23
X-22.427 Y41.248
X-21.015 Y41.233
X-19.604 Y41.185
X-18.195 Y41.105
X-16.788 Y40.992
X-15.384 Y40.846
X-13.984 Y40.667
X-12.588 Y40.456
X-11.197 Y40.213
X-9.813 Y39.938
X-8.435 Y39.631
X-7.064 Y39.292
X-5.702 Y38.922
X-4.349 Y38.521
X-3.005 Y38.088
X-1.672 Y37.624
X-0.351 Y37.127
X0.957 Y36.594
X2.247 Y36.022
X3.517 Y35.406
X4.762 Y34.74
X5.977 Y34.021
X7.157 Y33.247
X8.299 Y32.417
X9.396 Y31.528
X10.443 Y30.581
X11.429 Y29.571
X12.347 Y28.499
X13.19 Y27.366
X13.952 Y26.178
X14.626 Y24.938
X15.204 Y23.65
X15.657 Y22.362
X15.976 Y21.127
X16.172 Y19.961
X16.258 Y18.903
X16.254 Y17.937
X16.177 Y17.088
X16.059 Y16.427
X15.904 Y15.847
X15.694 Y15.285
X15.425 Y14.749
X15.094 Y14.248
X14.67 Y13.824
X14.179 Y13.478
X13.93 Y13.374
X13.716 Y13.318
X13.495 Y13.324
X13.284 Y13.39
X13.099 Y13.511
X12.956 Y13.679
X12.864 Y13.88
X12.832 Y13.987
X12.711 Y14.196
X12.6 Y14.321
X12.562 Y14.351
G2 X12.515 Y14.798 I0.2 J0.247 F762
X13.034 Y14.632 I0.227 J-0.184
G1 Y14.608 F381
G2 X12.897 Y14.121 I-1 J0.019
G1 X12.871 Y14.064
X12.856 Y14.004
X12.854 Y13.942
X12.864 Y13.88
X12.893 Y13.776 F762
X12.913 Y13.576
X12.891 Y13.386
X12.863 Y13.306
X12.819 Y13.162
X12.992 Y12.916
X13.232 Y12.737
X13.793 Y12.523
X14.391 Y12.572
X14.952 Y12.784
X15.459 Y13.105
X15.897 Y13.515
X16.271 Y13.984
X16.584 Y14.496
X16.843 Y15.038
X17.064 Y15.637
X17.247 Y16.3
X17.386 Y17.056
X17.475 Y17.967
X17.486 Y19.003
X17.4 Y20.159
X17.197 Y21.409
X16.869 Y22.715
X16.409 Y24.05
X15.837 Y25.34
X15.175 Y26.587
X14.429 Y27.785
X13.606 Y28.932
X12.712 Y30.024
X11.75 Y31.058
X10.729 Y32.033
X9.656 Y32.95
X8.538 Y33.812
X7.379 Y34.618
X6.185 Y35.371
X4.96 Y36.072
X3.708 Y36.723
X2.432 Y37.328
X1.137 Y37.891
X-0.173 Y38.416
X-1.497 Y38.906
X-2.832 Y39.365
X-4.177 Y39.794
X-5.531 Y40.191
X-6.894 Y40.558
X-8.266 Y40.894
X-9.644 Y41.198
X-11.029 Y41.472
X-12.419 Y41.714
X-13.815 Y41.925
X-15.216 Y42.104
X-16.619 Y42.251
X-18.026 Y42.365
X-19.436 Y42.448
X-20.846 Y42.498
X-22.258 Y42.516
X-23.67 Y42.502
X-25.08 Y42.457
X-26.49 Y42.38
X-27.897 Y42.272
X-29.302 Y42.132
X-30.703 Y41.96
X-32.1 Y41.757
X-33.492 Y41.523
X-34.879 Y41.258
X-36.259 Y40.963
X-37.633 Y40.637
X-38.999 Y40.28
X-40.357 Y39.894
X-41.705 Y39.478
X-43.045 Y39.032
X-44.374 Y38.556
X-45.692 Y38.05
X-46.998 Y37.514
X-48.275 Y36.914
X-49.238 Y36.371
X-49.536 Y36.168
X-49.795 Y35.975
X-50.08 Y35.749
X-50.241 Y35.575
X-50.345 Y35.362
X-50.38 Y35.127
Y33.52
G3 X-50.212 Y33.251 I0.317 J0.011
X-49.95 Y33.295 I0.103 J0.192
X-49.873 Y34.563 I-0.733 J0.68
X-50.212 Y34.858 I-0.809 J-0.587 F381
G2 X-50.38 Y35.127 I0.149 J0.28
G1 Y36.229 F685.8
X-50.373 Y36.379
X-50.069 Y36.897
X-49.651 Y37.327
X-49.176 Y37.694
X-48.464 Y38.145
X-47.287 Y38.756
X-45.983 Y39.297
X-44.663 Y39.8
X-43.333 Y40.273
X-41.994 Y40.717
X-40.644 Y41.132
X-39.286 Y41.517
X-37.92 Y41.873
X-36.547 Y42.199
X-35.166 Y42.495
X-33.78 Y42.761
X-32.388 Y42.996
X-30.991 Y43.201
X-29.591 Y43.376
X-28.186 Y43.519
X-26.779 Y43.632
X-25.37 Y43.713
X-23.959 Y43.764
X-22.548 Y43.783
X-21.136 Y43.771
X-19.725 Y43.729
X-18.315 Y43.654
X-16.908 Y43.548
X-15.503 Y43.411
X-14.101 Y43.241
X-12.704 Y43.041
X-11.311 Y42.81
X-9.924 Y42.548
X-8.543 Y42.255
X-7.169 Y41.932
X-5.802 Y41.579
X-4.444 Y41.195
X-3.094 Y40.781
X-1.754 Y40.337
X-0.425 Y39.863
X0.893 Y39.356
X2.196 Y38.814
X3.483 Y38.234
X4.75 Y37.612
X5.993 Y36.943
X7.209 Y36.226
X8.394 Y35.458
X9.543 Y34.638
X10.653 Y33.766
X11.719 Y32.841
X12.735 Y31.861
X13.694 Y30.825
X14.59 Y29.734
X15.415 Y28.589
X16.168 Y27.394
X16.842 Y26.154
X17.433 Y24.872
X17.924 Y23.549
X18.309 Y22.19
X18.575 Y20.831
X18.715 Y19.539
X18.74 Y18.355
X18.676 Y17.353
X18.542 Y16.464
X18.348 Y15.659
X18.114 Y14.955
X17.849 Y14.34
X17.555 Y13.793
X17.226 Y13.291
X16.849 Y12.825
X16.417 Y12.408
X15.937 Y12.048
X15.416 Y11.751
X14.85 Y11.55
X14.26 Y11.443
X13.661 Y11.479
X13.083 Y11.638
X12.919 Y11.718
X12.727 Y11.85
X12.581 Y12.033
X12.495 Y12.249
X12.475 Y12.482
X12.524 Y12.71
X12.638 Y12.915
X12.796 Y13.121
X12.863 Y13.306
G2 X13.111 Y13.503 I0.295 J-0.117 F762
X13.351 Y13.122 I0.036 J-0.243
G1 X13.315 Y13.079 F381
X13.27 Y13.046
X13.218 Y13.024
X13.163 Y13.014
X13.049 Y13.013
X12.935 Y13.026
G3 X12.638 Y12.915 I-0.052 J-0.313
G1 X12.602 Y12.867 F762
X12.582 Y12.848
X12.394 Y12.718
X12.183 Y12.632
X11.972 Y12.588
X11.772 Y12.59
X11.582 Y12.631
X11.381 Y12.726
X11.115 Y12.944
X10.96 Y13.155
X10.861 Y13.406
X10.8 Y13.763
G3 X10.378 Y13.956 I-0.282 J-0.058
G1 X10.164 Y13.837
X9.392 Y13.406
X9.185 Y13.292 F381
G3 X9.135 Y12.825 I0.14 J-0.251
G1 X9.519 Y12.504 F762
X9.662 Y12.382
X10.097 Y12.045
X11.346 Y11.388
X11.823 Y11.024
X12.346 Y10.731
X12.904 Y10.51
X13.488 Y10.369
X14.086 Y10.328
X14.684 Y10.374
X15.272 Y10.498
X15.837 Y10.699
X16.372 Y10.97
X16.873 Y11.3
X17.338 Y11.68
X17.762 Y12.104
X18.149 Y12.569
X18.508 Y13.084
X18.852 Y13.681
X19.172 Y14.366
X19.458 Y15.147
X19.696 Y16.02
X19.873 Y16.996
X19.973 Y18.063
X19.983 Y19.219
X19.879 Y20.557
X19.649 Y21.949
X19.307 Y23.319
X18.864 Y24.659
X18.326 Y25.964
X17.701 Y27.23
X16.999 Y28.455
X16.224 Y29.635
X15.382 Y30.768
X14.474 Y31.849
X13.507 Y32.877
X12.487 Y33.853
X11.42 Y34.777
X10.31 Y35.649
X9.161 Y36.47
X7.979 Y37.24
X6.765 Y37.962
X5.525 Y38.636
X4.262 Y39.266
X2.979 Y39.855
X1.679 Y40.405
X0.364 Y40.92
X-0.962 Y41.403
X-2.299 Y41.855
X-3.646 Y42.278
X-5.002 Y42.672
X-6.366 Y43.036
X-7.737 Y43.37
X-9.116 Y43.674
X-10.5 Y43.949
X-11.891 Y44.193
X-13.286 Y44.407
X-14.686 Y44.591
X-16.089 Y44.744
X-17.495 Y44.866
X-18.904 Y44.956
X-20.314 Y45.016
X-21.726 Y45.046
X-23.137 Y45.044
X-24.549 Y45.013
X-25.959 Y44.951
X-27.368 Y44.858
X-28.774 Y44.735
X-30.177 Y44.582
X-31.577 Y44.398
X-32.972 Y44.185
X-34.363 Y43.942
X-35.748 Y43.668
X-37.126 Y43.366
X-38.498 Y43.034
X-39.863 Y42.673
X-41.22 Y42.283
X-42.568 Y41.864
X-43.907 Y41.416
X-45.236 Y40.94
X-46.554 Y40.434
X-47.855 Y39.888
X-48.895 Y39.347
X-49.589 Y38.906
X-50.068 Y38.542
X-50.236 Y38.367
X-50.343 Y38.15
X-50.38 Y37.911
Y36.229
G3 X-50.052 Y35.923 I0.317 J0.011
X-49.649 Y36.372 I-0.015 J0.419
X-49.941 Y37.276 I-1.995 J-0.146
X-50.279 Y37.689 I-1.703 J-1.049 F381
G1 X-50.32 Y37.736
X-50.352 Y37.79
X-50.372 Y37.849
X-50.38 Y37.911
Y38.971 F685.8
X-50.373 Y39.121
X-50.08 Y39.644
X-49.665 Y40.078
X-49.193 Y40.449
X-48.561 Y40.846
X-47.482 Y41.402
X-46.176 Y41.938
X-44.852 Y42.426
X-43.517 Y42.885
X-42.172 Y43.316
X-40.819 Y43.719
X-39.458 Y44.093
X-38.09 Y44.439
X-36.714 Y44.756
X-35.332 Y45.044
X-33.945 Y45.304
X-32.552 Y45.533
X-31.155 Y45.734
X-29.753 Y45.905
X-28.349 Y46.046
X-26.942 Y46.158
X-25.532 Y46.24
X-24.122 Y46.292
X-22.71 Y46.314
X-21.298 Y46.306
X-19.887 Y46.269
X-18.477 Y46.201
X-17.069 Y46.103
X-15.663 Y45.974
X-14.261 Y45.815
X-12.862 Y45.626
X-11.467 Y45.407
X-10.078 Y45.159
X-8.694 Y44.881
X-7.316 Y44.573
X-5.945 Y44.237
X-4.581 Y43.871
X-3.226 Y43.477
X-1.879 Y43.053
X-0.542 Y42.6
X0.784 Y42.118
X2.099 Y41.604
X3.4 Y41.055
X4.684 Y40.47
X5.949 Y39.844
X7.193 Y39.175
X8.41 Y38.461
X9.599 Y37.7
X10.756 Y36.891
X11.876 Y36.032
X12.958 Y35.125
X13.995 Y34.167
X14.984 Y33.16
X15.919 Y32.102
X16.794 Y30.995
X17.607 Y29.84
X18.353 Y28.642
X19.03 Y27.403
X19.631 Y26.126
X20.149 Y24.813
X20.577 Y23.468
X20.909 Y22.096
X21.138 Y20.703
X21.244 Y19.356
X21.236 Y18.097
X21.126 Y16.922
X20.932 Y15.843
X20.666 Y14.861
X20.344 Y13.978
X19.977 Y13.192
X19.579 Y12.498
X19.159 Y11.895
X18.726 Y11.373
X18.275 Y10.916
X17.808 Y10.518
X17.319 Y10.169
X16.803 Y9.864
X16.261 Y9.607
X15.695 Y9.406
X15.112 Y9.266
X14.517 Y9.19
X13.917 Y9.178
X13.319 Y9.233
X12.733 Y9.36
X12.401 Y9.473
X11.843 Y9.694
X11.372 Y9.941
X11.184 Y10.078
X11.044 Y10.264
X10.963 Y10.483
X10.845 Y11.054
X10.507 Y11.542
X10.419 Y11.665
X10.099 Y12.004
X9.662 Y12.382
X9.641 Y12.41 F762
X9.633 Y12.445
X9.638 Y12.479
X9.656 Y12.51
G2 X11.324 Y11.996 I0.711 J-0.655
X11.279 Y11.194 I-1.979 J-0.291
X10.979 Y10.55 I-1.934 J0.511 F381
G1 X10.964 Y10.518
X10.963 Y10.483
X11.043 Y10.099 F762
X11.029 Y9.939
X11.018 Y9.639
X11.29 Y9.104
X11.735 Y8.701
X12.259 Y8.41
X12.824 Y8.209
X13.412 Y8.086
X14.009 Y8.03
X14.609 Y8.034
X15.206 Y8.097
X15.793 Y8.218
X16.374 Y8.393
X16.965 Y8.629
X17.552 Y8.924
X18.131 Y9.28
X18.695 Y9.697
X19.243 Y10.181
X19.774 Y10.737
X20.272 Y11.357
X20.735 Y12.047
X21.175 Y12.843
X21.575 Y13.743
X21.923 Y14.746
X22.202 Y15.851
X22.398 Y17.056
X22.497 Y18.355
X22.483 Y19.747
X22.348 Y21.152
X22.105 Y22.542
X21.765 Y23.913
X21.336 Y25.257
X20.82 Y26.571
X20.223 Y27.85
X19.554 Y29.093
X18.818 Y30.298
X18.018 Y31.461
X17.158 Y32.581
X16.241 Y33.654
X15.271 Y34.679
X14.252 Y35.657
X13.19 Y36.586
X12.088 Y37.469
X10.95 Y38.304
X9.779 Y39.092
X8.578 Y39.834
X7.35 Y40.531
X6.099 Y41.185
X4.828 Y41.799
X3.539 Y42.374
X2.234 Y42.914
X0.917 Y43.42
X-0.412 Y43.896
X-1.751 Y44.343
X-3.099 Y44.762
X-4.456 Y45.152
X-5.821 Y45.513
X-7.192 Y45.846
X-8.571 Y46.151
X-9.955 Y46.426
X-11.345 Y46.673
X-12.74 Y46.89
X-14.139 Y47.078
X-15.542 Y47.237
X-16.947 Y47.366
X-18.356 Y47.465
X-19.766 Y47.534
X-21.177 Y47.574
X-22.588 Y47.583
X-24 Y47.564
X-25.411 Y47.515
X-26.82 Y47.437
X-28.228 Y47.33
X-29.633 Y47.194
X-31.035 Y47.028
X-32.433 Y46.833
X-33.827 Y46.61
X-35.216 Y46.358
X-36.599 Y46.077
X-37.976 Y45.768
X-39.347 Y45.431
X-40.711 Y45.065
X-42.066 Y44.672
X-43.414 Y44.251
X-44.752 Y43.803
X-46.081 Y43.326
X-47.395 Y42.81
X-48.626 Y42.237
X-49.365 Y41.813
X-49.617 Y41.637
X-50.066 Y41.296
X-50.235 Y41.121
X-50.343 Y40.904
X-50.38 Y40.664
Y38.971
G3 X-49.83 Y38.765 I0.317 J0.011
X-49.669 Y39.297 I-0.463 J0.431
X-49.941 Y40.029 I-1.975 J-0.317
X-50.279 Y40.443 I-1.703 J-1.049 F381
G1 X-50.32 Y40.489
X-50.352 Y40.543
X-50.372 Y40.602
X-50.38 Y40.664
Y41.856 F685.8
X-50.373 Y42.006
X-50.028 Y42.497
X-49.589 Y42.907
X-49.054 Y43.284
X-48.364 Y43.687
X-47.088 Y44.292
X-45.767 Y44.787
X-44.433 Y45.249
X-43.089 Y45.683
X-41.738 Y46.089
X-40.378 Y46.469
X-39.011 Y46.821
X-37.637 Y47.145
X-36.257 Y47.442
X-34.871 Y47.711
X-33.48 Y47.951
X-32.433 Y48.108
X-30.685 Y48.347
X-29.282 Y48.503
X-27.972 Y48.62
X-27.948
X-17.152
X-16.8 Y48.602
X-15.392 Y48.497
X-13.989 Y48.339
X-12.59 Y48.151
X-11.195 Y47.935
X-9.805 Y47.689
X-8.42 Y47.415
X-7.041 Y47.113
X-5.669 Y46.783
X-4.303 Y46.425
X-2.945 Y46.039
X-1.596 Y45.625
X-0.255 Y45.183
X1.076 Y44.712
X2.396 Y44.212
X3.703 Y43.68
X4.997 Y43.114
X6.273 Y42.511
X7.53 Y41.87
X8.766 Y41.187
X9.977 Y40.461
X11.16 Y39.692
X12.313 Y38.877
X13.433 Y38.018
X14.516 Y37.112
X15.559 Y36.161
X16.559 Y35.164
X17.51 Y34.121
X18.41 Y33.034
X19.254 Y31.902
X20.04 Y30.73
X20.765 Y29.518
X21.426 Y28.271
X22.018 Y26.989
X22.533 Y25.675
X22.964 Y24.331
X23.309 Y22.962
X23.563 Y21.574
X23.718 Y20.17
X23.762 Y18.759
X23.693 Y17.349
X23.512 Y16.013
X23.234 Y14.772
X22.875 Y13.637
X22.459 Y12.632
X21.995 Y11.735
X21.481 Y10.921
X20.922 Y10.185
X20.327 Y9.528
X19.704 Y8.947
X19.057 Y8.441
X18.39 Y8.006
X17.71 Y7.641
X17.036 Y7.351
X16.378 Y7.132
X15.73 Y6.977
X15.085 Y6.88
X14.453 Y6.84
X13.84 Y6.854
X13.243 Y6.918
X12.656 Y7.041
X12.087 Y7.231
X11.544 Y7.487
X11.039 Y7.811
X10.609 Y8.23
X10.542 Y8.323
X10.442 Y8.521
X10.412 Y8.74
X10.453 Y8.958
X10.563 Y9.15
X10.728 Y9.298
X11.008 Y9.699
X11.029 Y9.939
G2 X11.219 Y10.193 I0.315 J-0.038 F762
X11.933 Y9.841 I0.206 J-0.482
X11.478 Y9.189 I-0.508 J-0.131
G1 X11.401 Y9.187 F381
X11.325 Y9.196
G2 X11.045 Y9.3 I0.177 J0.908
G3 X10.728 Y9.298 I-0.157 J-0.276
G1 X10.574 Y9.21 F762
X10.243 Y9.151
X10.097 Y9.118
X9.91 Y8.883
X9.823 Y8.596
Y7.996
X10.067 Y7.448
X10.449 Y6.985
X10.913 Y6.605
X11.429 Y6.299
X11.979 Y6.059
X12.552 Y5.88
X13.15 Y5.753
X13.79 Y5.673
X14.45 Y5.648
X15.146 Y5.682
X15.869 Y5.779
X16.612 Y5.945
X17.371 Y6.184
X18.141 Y6.502
X18.909 Y6.898
X19.664 Y7.375
X20.399 Y7.932
X21.107 Y8.571
X21.782 Y9.294
X22.414 Y10.101
X22.998 Y10.995
X23.532 Y11.986
X24.008 Y13.09
X24.397 Y14.259
X24.709 Y15.554
X24.92 Y16.95
X25.013 Y18.359
X25 Y19.77
X24.883 Y21.177
X24.67 Y22.573
X24.368 Y23.952
X23.982 Y25.31
X23.516 Y26.642
X22.973 Y27.945
X22.36 Y29.217
X21.682 Y30.455
X20.944 Y31.658
X20.148 Y32.824
X19.297 Y33.95
X18.393 Y35.035
X17.44 Y36.076
X16.441 Y37.073
X15.399 Y38.025
X14.318 Y38.933
X13.201 Y39.797
X12.052 Y40.617
X10.873 Y41.393
X9.667 Y42.127
X8.437 Y42.819
X7.185 Y43.471
X5.914 Y44.085
X4.626 Y44.662
X3.323 Y45.205
X2.007 Y45.717
X0.68 Y46.199
X-0.657 Y46.652
X-2.003 Y47.077
X-3.357 Y47.476
X-4.719 Y47.847
X-5.747 Y48.102
X-7.464 Y48.505
X-7.987 Y48.613
X-8.095 Y48.62
X-17.152
G3 X-17.421 Y48.452 I0.011 J-0.317
X-16.799 Y46.162 I1.528 J-0.815
X-8.592 Y48.061 I3.14 J5.113
X-8.364 Y48.452 I-5.067 J3.214 F381
G2 X-8.095 Y48.62 I0.28 J-0.149
G1 X-3.366 F685.8
X-2.987 Y48.601
X-1.612 Y48.283
X-0.265 Y47.859
X1.072 Y47.406
X2.399 Y46.926
X3.715 Y46.415
X5.019 Y45.874
X6.308 Y45.3
X7.582 Y44.69
X8.836 Y44.043
X10.07 Y43.357
X11.281 Y42.631
X12.466 Y41.864
X13.623 Y41.055
X14.749 Y40.204
X15.842 Y39.311
X16.898 Y38.375
X17.915 Y37.395
X18.889 Y36.373
X19.816 Y35.309
X20.695 Y34.205
X21.523 Y33.061
X22.297 Y31.88
X23.014 Y30.664
X23.672 Y29.416
X24.268 Y28.136
X24.795 Y26.826
X25.249 Y25.49
X25.627 Y24.129
X25.925 Y22.75
X26.139 Y21.354
X26.259 Y19.948
X26.281 Y18.536
X26.204 Y17.127
X26.018 Y15.727
X25.723 Y14.347
X25.329 Y13.047
X25.067 Y12.392
X24.577 Y11.288
X24.002 Y10.246
X23.358 Y9.282
X22.654 Y8.404
X21.902 Y7.614
X21.11 Y6.914
X20.285 Y6.303
X19.437 Y5.781
X18.575 Y5.347
X17.71 Y5.001
X16.853 Y4.74
X16.008 Y4.561
X15.184 Y4.459
X14.393 Y4.429
X13.633 Y4.466
X12.926 Y4.562
X12.292 Y4.703
X11.72 Y4.884
X11.517 Y4.969
X11.286 Y5.101
X11.095 Y5.287
X10.957 Y5.515
X10.88 Y5.77
X10.869 Y6.036
X10.892 Y6.312
X10.652 Y6.687
X10.639 Y6.704
X10.419 Y6.852
X9.675 Y7.321
X9.369 Y7.535
X9.018 Y8.021
X9 Y8.11
X8.99 Y8.351
X9.052 Y8.583
X9.181 Y8.786
X9.365 Y8.941
X9.458 Y8.997
X9.498 Y9.016
X9.538 Y9.028
X10.243 Y9.151
G2 X10.537 Y9.032 I0.043 J-0.315 F762
G1 X10.556 Y8.998
X10.563 Y8.959
X10.557 Y8.921
X10.539 Y8.886
X10.511 Y8.858
X10.476 Y8.841
G2 X10.111 Y8.803 I-0.286 J0.958
X9.682 Y8.938 I0.079 J0.997 F381
G3 X9.365 Y8.941 I-0.161 J-0.274
G1 X8.816 Y8.606 F762
X8.693 Y8.522
X8.511 Y8.283
X8.498 Y8.076
X8.546 Y7.875
X8.65 Y7.696
X8.801 Y7.554
X8.987 Y7.462
X9.191 Y7.428
X9.507 Y7.421
X9.524 Y7.416
X9.675 Y7.321
G3 X9.992 Y7.32 I0.16 J0.275
X9.786 Y7.887 I-0.152 J0.266
G1 X9.725 Y7.87 F381
X9.669 Y7.84
X9.62 Y7.8
G3 X9.463 Y7.59 I0.715 J-0.699
G2 X9.191 Y7.428 I-0.277 J0.155
G1 X8.816 Y7.436 F685.8
X8.64 Y7.434
X8.49 Y7.44
X8.329 Y7.54
X8.215 Y7.692
X8.164 Y7.875
X8.183 Y8.064
X8.269 Y8.233
X8.411 Y8.359
G2 X8.877 Y8.14 I0.154 J-0.278 F762
G1 X8.894 Y8.047
X8.939 Y7.81 F381
G2 X8.64 Y7.434 I-0.312 J-0.058
G1 X8.496 Y7.433 F685.8
X8.32 Y7.411
X8.17 Y7.399
X8.026 Y7.442
X7.896 Y7.576
X7.828 Y7.751
X7.836 Y7.938
X7.916 Y8.108
X8.057 Y8.232
X8.235 Y8.29
X8.298 Y8.298
X8.372 Y8.336
X8.816 Y8.606
G2 X9.278 Y8.244 I0.156 J-0.277 F762
X8.947 Y7.997 I-0.325 J0.091
G1 X8.908 Y8 F381
X8.871 Y8.007
G2 X8.466 Y8.216 I0.244 J0.97
G1 X8.415 Y8.251
X8.358 Y8.276
X8.297 Y8.289
X8.235 Y8.29
X7.855 Y8.246 F762
X7.707 Y8.222
X7.579 Y8.142
X7.488 Y7.978
X7.468 Y7.792
X7.522 Y7.613
X7.642 Y7.469
X7.809 Y7.383
X7.996 Y7.369
X8.32 Y7.411
G3 X8.565 Y7.611 I-0.051 J0.313
G1 X8.574 Y7.654
X8.569 Y7.698
X8.55 Y7.737
X8.519 Y7.77 F381
X8.478 Y7.791
X8.433 Y7.797
X8.388 Y7.788
X8.349 Y7.765
X8.32 Y7.731
X8.277 Y7.652
X8.241 Y7.57
G2 X7.996 Y7.369 I-0.297 J0.113
G1 X7.614 Y7.321 F685.8
X7.465 Y7.309
X7.322 Y7.355
X7.193 Y7.492
X7.127 Y7.669
X7.136 Y7.857
X7.218 Y8.027
X7.36 Y8.151
X7.539 Y8.21
X7.855 Y8.246
G2 X8.141 Y8.11 I0.025 J-0.316 F762
G1 X8.158 Y8.076
X8.165 Y8.038
X8.16 Y7.999
X8.144 Y7.963 F381
X8.118 Y7.933
X8.084 Y7.912
X8.046 Y7.902
X8.006 Y7.903
X7.968 Y7.917
X7.936 Y7.941
X7.878 Y8.005
X7.826 Y8.074
G3 X7.539 Y8.21 I-0.261 J-0.181
G1 X7.474 Y8.204 F762
X7.213 Y8.244
X7.087 Y8.252
X6.948 Y8.194
X6.711 Y8.011
X6.659 Y7.822
X6.676 Y7.627
X6.758 Y7.449
X6.897 Y7.311
X7.075 Y7.229
X7.27 Y7.212
X7.459 Y7.264
G3 X7.622 Y7.616 I-0.146 J0.282
G1 X7.607 Y7.667 F381
X7.448 Y8.052
G3 X7.213 Y8.244 I-0.294 J-0.121
G1 X6.893 Y8.282 F762
X6.717 Y8.278
X6.581 Y8.269
X6.313 Y8.134
X6.144 Y7.886
X6.131 Y7.662
X6.19 Y7.445
X6.315 Y7.257
X6.493 Y7.12
X6.705 Y7.046
X6.93 Y7.043
X7.144 Y7.112
G3 X7.275 Y7.528 I-0.155 J0.277
G1 X7.187 Y7.708
X6.997 Y8.1 F381
G3 X6.717 Y8.278 I-0.285 J-0.139
G1 X6.572 Y8.276 F762
X6.252 Y8.235
X6.075 Y8.193
X5.958 Y8.159
X5.72 Y7.977
X5.647 Y7.75
X5.645 Y7.512
X5.715 Y7.285
X5.85 Y7.089
X6.037 Y6.943
G3 X6.49 Y6.935 I0.235 J0.457
X6.761 Y7.912 I-0.283 J0.604
X6.075 Y8.193 I-0.553 J-0.373 F381
G1 X5.931 Y8.159 F762
X5.556 Y8.015
X5.435 Y7.959
X5.336 Y7.827
X5.292 Y7.668
X5.308 Y7.505
X5.382 Y7.358
X5.504 Y7.247
G3 X5.879 Y7.231 I0.203 J0.357
X6.125 Y7.647 I-0.177 J0.386
X5.556 Y8.015 I-0.423 J-0.03 F381
G1 X5.356 Y7.932 F762
X5.29 Y7.885
X5.245 Y7.837
X5.215 Y7.79
X5.195 Y7.742
X5.184 Y7.695
X5.178 Y7.616
X5.181 Y7.577
X5.19 Y7.538
X5.203 Y7.499
X5.223 Y7.459
X5.251 Y7.42
X5.298 Y7.374
X5.61 Y7.182
X6.252 Y6.823
X6.292 Y6.804
X6.332 Y6.792
X6.372 Y6.785
X6.412 Y6.783
X6.452 Y6.786
X6.492 Y6.794
X6.572 Y6.825
X6.893 Y6.972
X7.03 Y7.054
X7.213 Y7.148
X7.564 Y7.314
X7.614 Y7.321
G3 X7.717 Y7.912 I-0.051 J0.313
G1 X7.655 Y7.946 Z-0.99
X7.596 Y7.978 Z-0.967
X7.544 Y8.008 Z-0.929
X7.5 Y8.032 Z-0.879
X7.467 Y8.05 Z-0.819
X7.446 Y8.062 Z-0.752
X7.439 Y8.065 Z-0.681
G0 Z5
X11.801 Y6.624
Z-0.363
G1 Z-0.681 F381
X11.794 Y6.62 Z-0.752
X11.773 Y6.609 Z-0.819
X11.74 Y6.591 Z-0.879
X11.695 Y6.568 Z-0.929
X11.642 Y6.54 Z-0.967
X11.583 Y6.509 Z-0.99
X11.52 Y6.476 Z-0.998
G3 X10.869 Y6.036 I1.702 J-3.224
G1 X10.62 Y5.86 F762
X10.501 Y5.768
X10.419 Y5.479
X10.435 Y5.18
X10.628 Y4.612
X11.041 Y4.176
X11.548 Y3.855
X12.099 Y3.618
X12.674 Y3.446
X13.312 Y3.323
X14.051 Y3.245
X14.866 Y3.23
X15.727 Y3.287
X16.6 Y3.422
X17.524 Y3.646
X18.475 Y3.966
X19.433 Y4.382
X20.382 Y4.896
X21.311 Y5.506
X22.209 Y6.214
X23.067 Y7.018
X23.875 Y7.918
X24.624 Y8.912
X25.302 Y9.993
X25.946 Y11.248
X26.419 Y12.365
X26.856 Y13.708
X27.178 Y15.082
X27.398 Y16.476
X27.516 Y17.883
X27.538 Y19.295
X27.468 Y20.704
X27.307 Y22.107
X27.061 Y23.497
X26.737 Y24.871
X26.339 Y26.225
X25.868 Y27.556
X25.329 Y28.861
X24.726 Y30.137
X24.062 Y31.383
X23.343 Y32.597
X22.569 Y33.778
X21.743 Y34.923
X20.866 Y36.029
X19.942 Y37.097
X18.974 Y38.124
X17.965 Y39.111
X16.916 Y40.056
X15.831 Y40.959
X14.714 Y41.822
X13.566 Y42.644
X12.391 Y43.425
X11.189 Y44.166
X9.964 Y44.868
X8.719 Y45.532
X7.454 Y46.159
X6.172 Y46.75
X4.875 Y47.308
X3.566 Y47.835
X2.574 Y48.206
X1.562 Y48.572
X1.474 Y48.599
X1.384 Y48.615
X1.292 Y48.62
X-3.366
G3 X-3.635 Y48.452 I0.011 J-0.317
X-3.41 Y47.452 I0.692 J-0.369
X0.78 Y48.07 I1.785 J2.411
X1.023 Y48.452 I-2.405 J1.794 F381
G2 X1.292 Y48.62 I0.28 J-0.149
G1 X4.649 F685.8
X5.248 Y48.59
X6.484 Y47.909
X7.799 Y47.395
X9.068 Y46.776
X10.317 Y46.119
X11.547 Y45.425
X12.754 Y44.693
X13.936 Y43.922
X15.092 Y43.112
X16.22 Y42.263
X17.317 Y41.374
X18.38 Y40.445
X19.406 Y39.476
X20.394 Y38.468
X21.34 Y37.421
X22.243 Y36.335
X23.099 Y35.212
X23.905 Y34.054
X24.661 Y32.861
X25.364 Y31.637
X26.012 Y30.383
X26.602 Y29.101
X27.13 Y27.792
X27.592 Y26.458
X27.985 Y25.102
X28.308 Y23.728
X28.555 Y22.338
X28.72 Y20.936
X28.798 Y19.526
X28.789 Y18.115
X28.691 Y16.707
X28.499 Y15.308
X28.21 Y13.926
X27.82 Y12.57
X27.323 Y11.248
X26.718 Y9.973
X26.368 Y9.36
X25.737 Y8.318
X24.995 Y7.3
X24.137 Y6.314
X23.213 Y5.418
X22.243 Y4.628
X21.236 Y3.943
X20.204 Y3.363
X19.159 Y2.888
X18.116 Y2.519
X17.097 Y2.254
X16.097 Y2.084
X15.128 Y2.003
X14.213 Y2.006
X13.4 Y2.078
X12.715 Y2.199
X12.122 Y2.357
X11.557 Y2.56
X11.015 Y2.817
X10.517 Y3.151
X10.285 Y3.36
X10.223 Y3.436
X10.186 Y3.528
X10.178 Y3.626
X10 Y3.847
X9.706 Y4.251
X9.472 Y4.8
X9.412 Y5.035
X9.425 Y5.277
X9.511 Y5.503
X9.661 Y5.694
X9.862 Y5.829
X10.094 Y5.898
X10.337 Y5.894
X10.368 Y5.886 F762
X10.42 Y5.864 F381
X10.466 Y5.834
X10.507 Y5.797
X10.52 Y5.775
X10.523 Y5.751
X10.517 Y5.727
X10.503 Y5.707
X10.553 Y5.634
X10.573 Y5.683
G3 X10.337 Y5.894 I-0.302 J-0.1
G1 X9.778 Y5.991 F762
X9.618 Y6.015
X8.816 Y6.004
X8.217 Y5.975
X8.221 Y5.375
X8.317 Y4.782
X8.379 Y4.584
X8.475 Y4.381
X8.624 Y4.213
X8.814 Y4.094
X9.03 Y4.033
X9.255 Y4.034
X9.588 Y4.085
X9.875 Y4.002
X10 Y3.847
G3 X10.414 Y3.777 I0.247 J0.199
G1 X10.692 Y3.948
X10.813 Y4.023
G3 X10.479 Y4.563 I-0.167 J0.27
X10.345 Y4.393 I0.167 J-0.27
X10.178 Y3.626 I3.459 J-1.151 F381
G1 X10.162 Y3.389 F762
X10.156 Y3.376
X9.963 Y3.206
X9.856 Y3.101
X10.041 Y2.53
X10.425 Y2.07
X10.904 Y1.708
X11.432 Y1.425
X11.991 Y1.206
X12.598 Y1.03
X13.287 Y0.893
X14.125 Y0.801
X15.072 Y0.778
X16.095 Y0.841
X17.168 Y1
X18.275 Y1.264
X19.382 Y1.629
X20.5 Y2.108
X21.627 Y2.71
X22.731 Y3.428
X23.796 Y4.258
X24.811 Y5.201
X25.759 Y6.244
X26.593 Y7.339
X27.349 Y8.531
X28.025 Y9.77
X28.605 Y11.057
X29.085 Y12.384
X29.467 Y13.743
X29.753 Y15.126
X29.947 Y16.524
X30.049 Y17.932
X30.067 Y19.343
X30.001 Y20.754
X29.855 Y22.158
X29.628 Y23.551
X29.329 Y24.931
X28.961 Y26.293
X28.527 Y27.637
X28.028 Y28.957
X27.469 Y30.253
X26.851 Y31.523
X26.18 Y32.764
X25.456 Y33.977
X24.683 Y35.157
X23.861 Y36.305
X22.992 Y37.418
X22.08 Y38.495
X21.125 Y39.535
X20.131 Y40.537
X19.099 Y41.501
X18.033 Y42.426
X16.935 Y43.313
X15.807 Y44.161
X14.65 Y44.971
X13.468 Y45.743
X12.262 Y46.476
X11.034 Y47.172
X9.787 Y47.833
X9.152 Y48.141
X8.264 Y48.548
X8.157 Y48.588
X8.046 Y48.612
X7.933 Y48.62
X4.649
G3 X4.38 Y48.452 I0.011 J-0.317
X4.434 Y48.031 I0.323 J-0.172
X7.408 Y48.08 I1.465 J1.362
X7.664 Y48.452 I-1.508 J1.313 F381
G2 X7.933 Y48.62 I0.28 J-0.149
G1 X10.419 F685.8
X11.019 Y48.59
X12.267 Y47.932
X13.485 Y47.218
X14.681 Y46.467
X15.852 Y45.679
X16.997 Y44.854
X18.115 Y43.991
X19.202 Y43.091
X20.258 Y42.154
X21.28 Y41.18
X22.265 Y40.169
X23.211 Y39.122
X24.117 Y38.039
X24.98 Y36.922
X25.797 Y35.771
X26.568 Y34.588
X27.291 Y33.376
X27.964 Y32.135
X28.583 Y30.866
X29.146 Y29.572
X29.651 Y28.253
X30.095 Y26.913
X30.476 Y25.554
X30.791 Y24.178
X31.038 Y22.788
X31.211 Y21.387
X31.307 Y19.979
X31.326 Y18.567
X31.265 Y17.157
X31.12 Y15.753
X30.889 Y14.36
X30.571 Y12.985
X30.162 Y11.634
X29.661 Y10.314
X29.067 Y9.034
X28.385 Y7.798
X27.627 Y6.606
X26.774 Y5.482
X25.829 Y4.433
X24.804 Y3.462
X23.704 Y2.577
X22.535 Y1.787
X21.321 Y1.108
X20.103 Y0.559
X18.89 Y0.133
X17.681 Y-0.179
X16.512 Y-0.375
X15.399 Y-0.465
X14.36 Y-0.46
X13.429 Y-0.375
X12.608 Y-0.228
X11.92 Y-0.043
X11.339 Y0.168
X10.794 Y0.42
X10.276 Y0.723
X9.806 Y1.096
X9.395 Y1.533
X9.021 Y2.132
X8.69 Y2.632
X8.216 Y2.984
X7.725 Y3.329
X7.355 Y3.801
X7.085 Y4.44
X6.973 Y5.137
X6.971 Y5.375
X7.04 Y5.603
X7.173 Y5.8
X7.358 Y5.949
X7.579 Y6.036
X7.816 Y6.055
X7.848 Y6.049 F762
X7.901 Y6.033 F381
X7.951 Y6.008
X7.995 Y5.974
X8.01 Y5.954
X8.016 Y5.93
X8.012 Y5.906
X7.999 Y5.884
X8.056 Y5.816
X8.072 Y5.867
G3 X7.816 Y6.055 I-0.29 J-0.128
G1 X7.534 Y6.075 F762
X7.213 Y6.165
X6.893 Y6.296
X6.713 Y6.386
X6.677 Y6.4
X6.641 Y6.408
X6.572 Y6.413
X6.528 Y6.407
X6.489 Y6.397
X6.449 Y6.382
X6.331 Y6.315
X6.252 Y6.252
X6.087 Y6.092
X5.26 Y5.45
X4.969 Y5.191
X4.787 Y5.01
X4.755 Y4.97
X4.328 Y4.266
G0 Z5
X9.393 Y48.236
Z-0.363
G1 Z-0.681 F381
X9.4 Y48.24 Z-0.752
X9.42 Y48.252 Z-0.819
X9.453 Y48.272 Z-0.879
X9.496 Y48.298 Z-0.929
X9.547 Y48.328 Z-0.967
X9.605 Y48.363 Z-0.99
X9.666 Y48.399 Z-0.998
G2 X10.419 Y48.62 I0.809 J-1.36
G1 X12.984 F685.8
X13.583 Y48.59
X14.807 Y47.886
X15.99 Y47.116
X17.148 Y46.309
X18.281 Y45.466
X19.385 Y44.587
X20.46 Y43.672
X21.503 Y42.721
X22.512 Y41.733
X23.485 Y40.711
X24.421 Y39.653
X25.316 Y38.562
X26.169 Y37.438
X26.979 Y36.281
X27.743 Y35.094
X28.461 Y33.879
X29.13 Y32.636
X29.748 Y31.367
X30.312 Y30.073
X30.819 Y28.755
X31.266 Y27.416
X31.653 Y26.059
X31.978 Y24.685
X32.237 Y23.297
X32.427 Y21.898
X32.545 Y20.492
X32.589 Y19.081
X32.557 Y17.669
X32.448 Y16.262
X32.259 Y14.863
X31.987 Y13.478
X31.631 Y12.112
X31.19 Y10.771
X30.663 Y9.461
X30.049 Y8.19
X29.355 Y6.961
X28.588 Y5.776
X27.732 Y4.653
X26.79 Y3.602
X25.769 Y2.627
X24.678 Y1.731
X23.522 Y0.922
X22.306 Y0.205
X21.036 Y-0.412
X19.731 Y-0.916
X18.418 Y-1.298
X17.131 Y-1.555
X15.891 Y-1.693
X14.724 Y-1.723
X13.692 Y-1.66
X12.773 Y-1.525
X11.954 Y-1.332
X11.222 Y-1.091
X10.607 Y-0.828
X10.077 Y-0.546
X9.574 Y-0.22
X9.106 Y0.157
X8.128 Y1.175
X7.935 Y1.47
X7.703 Y1.735
X7.432 Y1.961
G2 X7.407 Y2.41 I0.212 J0.237 F762
X8.729 Y2.007 I0.568 J-0.508
X8.649 Y1.682 I-0.447 J-0.063
X8.175 Y1.507 I-0.366 J0.263 F381
G1 X8.114 Y1.516
X8.051 Y1.512
X7.991 Y1.497
X7.935 Y1.47
X7.433 Y1.141 F762
X7.555 Y0.554
X7.823 Y0.017
X8.182 Y-0.464
X8.604 Y-0.891
X9.07 Y-1.268
X9.595 Y-1.617
X10.181 Y-1.938
X10.847 Y-2.231
X11.632 Y-2.499
X12.53 Y-2.722
X13.544 Y-2.883
X14.683 Y-2.964
X15.925 Y-2.947
X17.2 Y-2.819
X18.543 Y-2.567
X19.903 Y-2.188
X21.227 Y-1.699
X22.509 Y-1.107
X23.743 Y-0.421
X24.923 Y0.354
X26.044 Y1.211
X27.102 Y2.146
X28.091 Y3.153
X29.004 Y4.23
X29.835 Y5.371
X30.588 Y6.565
X31.269 Y7.801
X31.874 Y9.077
X32.398 Y10.388
X32.841 Y11.728
X33.199 Y13.093
X33.477 Y14.477
X33.677 Y15.875
X33.801 Y17.281
X33.85 Y18.692
X33.827 Y20.103
X33.733 Y21.512
X33.57 Y22.914
X33.339 Y24.307
X33.045 Y25.687
X32.689 Y27.053
X32.274 Y28.403
X31.802 Y29.733
X31.274 Y31.042
X30.691 Y32.328
X30.058 Y33.589
X29.375 Y34.825
X28.647 Y36.034
X27.873 Y37.215
X27.057 Y38.367
X26.198 Y39.487
X25.299 Y40.575
X24.361 Y41.63
X23.387 Y42.652
X22.378 Y43.639
X21.336 Y44.592
X20.262 Y45.508
X19.16 Y46.39
X18.03 Y47.236
X16.875 Y48.047
X16.439 Y48.334
X16.186 Y48.495
X16.053 Y48.564
X15.908 Y48.606
X15.759 Y48.62
X12.984
G3 X12.715 Y48.452 I0.011 J-0.317
X13.1 Y47.493 I0.596 J-0.318
X15.233 Y48.08 I0.625 J1.9
X15.49 Y48.452 I-1.508 J1.313 F381
G2 X15.759 Y48.62 I0.28 J-0.149
G1 X17.793 F685.8
X18.093 Y48.605
X19.097 Y47.991
X20.234 Y47.154
X21.33 Y46.265
X22.397 Y45.341
X23.433 Y44.382
X24.437 Y43.389
X25.407 Y42.363
X26.341 Y41.305
X27.238 Y40.215
X28.096 Y39.094
X28.913 Y37.943
X29.688 Y36.763
X30.418 Y35.555
X31.104 Y34.321
X31.743 Y33.062
X32.333 Y31.78
X32.872 Y30.475
X33.356 Y29.149
X33.786 Y27.805
X34.16 Y26.443
X34.475 Y25.067
X34.73 Y23.679
X34.921 Y22.28
X35.047 Y20.874
X35.106 Y19.464
X35.097 Y18.052
X35.018 Y16.643
X34.868 Y15.239
X34.644 Y13.845
X34.345 Y12.466
X33.97 Y11.105
X33.516 Y9.768
X32.985 Y8.46
X32.377 Y7.186
X31.697 Y5.949
X30.947 Y4.753
X30.121 Y3.608
X29.22 Y2.522
X28.246 Y1.5
X27.206 Y0.545
X26.106 Y-0.339
X24.948 Y-1.147
X23.739 Y-1.875
X22.482 Y-2.517
X21.182 Y-3.067
X19.845 Y-3.52
X18.477 Y-3.869
X17.096 Y-4.102
X15.729 Y-4.214
X14.425 Y-4.209
X13.222 Y-4.101
X12.129 Y-3.907
X11.151 Y-3.645
X10.294 Y-3.335
X9.552 Y-2.992
X8.91 Y-2.625
X8.368 Y-2.251
X7.906 Y-1.869
X7.406 Y-1.37
X7.181 Y-1.156
X6.773 Y-0.696
X6.609 Y-0.384
X6.458 Y-0.065
G2 X6.624 Y0.353 I0.292 J0.126 F762
X7.812 Y-0.772 I0.353 J-0.818
G1 X7.799 Y-0.805 F381
G2 X7.406 Y-1.065 I-0.389 J0.161
G1 X7.344 Y-1.071
X7.285 Y-1.088
X7.23 Y-1.117
X7.181 Y-1.156
X6.974 Y-1.374 F762
X6.982 Y-1.974
X7.238 Y-2.516
X7.613 Y-2.984
X8.057 Y-3.389
X8.555 Y-3.752
X9.098 Y-4.081
X9.816 Y-4.436
X10.689 Y-4.777
X11.705 Y-5.077
X12.795 Y-5.3
X14.003 Y-5.44
X15.369 Y-5.48
X16.779 Y-5.401
X18.177 Y-5.206
X19.555 Y-4.903
X20.908 Y-4.499
X22.229 Y-4.001
X23.513 Y-3.414
X24.755 Y-2.743
X25.951 Y-1.993
X27.097 Y-1.169
X28.188 Y-0.274
X29.222 Y0.687
X30.194 Y1.711
X31.097 Y2.796
X31.926 Y3.939
X32.683 Y5.13
X33.373 Y6.362
X33.995 Y7.629
X34.545 Y8.929
X35.023 Y10.257
X35.426 Y11.61
X35.756 Y12.983
X36.013 Y14.371
X36.201 Y15.77
X36.319 Y17.177
X36.369 Y18.587
X36.353 Y19.999
X36.273 Y21.408
X36.129 Y22.812
X35.922 Y24.209
X35.655 Y25.595
X35.331 Y26.969
X34.95 Y28.328
X34.516 Y29.672
X34.029 Y30.996
X33.49 Y32.301
X32.901 Y33.584
X32.263 Y34.844
X31.58 Y36.079
X30.853 Y37.289
X30.084 Y38.473
X29.274 Y39.628
X28.423 Y40.755
X27.535 Y41.852
X26.61 Y42.919
X25.65 Y43.954
X24.657 Y44.957
X23.632 Y45.928
X22.577 Y46.865
X21.492 Y47.769
X20.597 Y48.456
X20.449 Y48.546
X20.286 Y48.601
X20.114 Y48.62
X17.793
G3 X17.524 Y48.452 I0.011 J-0.317
X18.202 Y47.397 I0.634 J-0.338
X19.588 Y48.08 I-0.123 J1.996
X19.845 Y48.452 I-1.508 J1.313 F381
G2 X20.114 Y48.62 I0.28 J-0.149
G1 X21.817 F685.8
X22.116 Y48.605
X22.681 Y48.27
X23.582 Y47.623
X24.655 Y46.705
X25.676 Y45.731
X26.666 Y44.724
X27.623 Y43.687
X28.547 Y42.619
X29.434 Y41.521
X30.285 Y40.395
X31.097 Y39.24
X31.868 Y38.058
X32.598 Y36.85
X33.287 Y35.617
X33.931 Y34.361
X34.528 Y33.082
X35.078 Y31.782
X35.578 Y30.462
X36.027 Y29.124
X36.425 Y27.769
X36.769 Y26.4
X37.059 Y25.018
X37.291 Y23.626
X37.465 Y22.225
X37.578 Y20.818
X37.629 Y19.407
X37.617 Y17.996
X37.542 Y16.586
X37.402 Y15.181
X37.195 Y13.785
X36.92 Y12.4
X36.577 Y11.031
X36.163 Y9.681
X35.679 Y8.355
X35.126 Y7.057
X34.505 Y5.789
X33.817 Y4.556
X33.064 Y3.362
X32.243 Y2.214
X31.352 Y1.119
X30.396 Y0.08
X29.38 Y-0.9
X28.307 Y-1.818
X27.182 Y-2.67
X26.009 Y-3.455
X24.789 Y-4.166
X23.529 Y-4.801
X22.231 Y-5.356
X20.899 Y-5.825
X19.539 Y-6.204
X18.157 Y-6.489
X16.757 Y-6.671
X15.347 Y-6.747
X13.97 Y-6.707
X12.683 Y-6.559
X11.477 Y-6.314
X10.384 Y-5.993
X9.908 Y-5.807
X9.493 Y-5.63
X8.217 Y-5.028
X7.725 Y-4.717
X7.319 Y-4.419
X6.545 Y-3.74
X6.006 Y-2.97
X5.789 Y-2.41
X5.698 Y-1.71
X5.635 Y-1.363
X5.498 Y-1.038
X5.394 Y-0.895
X5.261 Y-0.779
X4.977 Y-0.626
G3 X4.521 Y-1.016 I-0.161 J-0.274 F762
G1 X4.547 Y-1.081 Z-0.99
X4.571 Y-1.144 Z-0.967
X4.593 Y-1.2 Z-0.929
X4.612 Y-1.247 Z-0.879
X4.625 Y-1.282 Z-0.819
X4.634 Y-1.304 Z-0.752
X4.637 Y-1.311 Z-0.681
G0 Z5
X-9.202 Y-48.236
Z-0.363
G1 Z-0.681 F381
X-9.195 Y-48.24 Z-0.752
X-9.175 Y-48.252 Z-0.819
X-9.142 Y-48.272 Z-0.879
X-9.099 Y-48.298 Z-0.929
X-9.047 Y-48.328 Z-0.967
X-8.99 Y-48.363 Z-0.99
X-8.929 Y-48.399 Z-0.998
G3 X-8.175 Y-48.62 I0.809 J1.36
G1 X-5.61 F762
X-5.011 Y-48.59
X-3.959 Y-48.012
X-2.785 Y-47.228
X-1.655 Y-46.381
X-0.563 Y-45.486
X0.49 Y-44.546
X1.503 Y-43.563
X2.473 Y-42.538
X3.399 Y-41.472
X4.279 Y-40.368
X5.111 Y-39.228
X5.893 Y-38.053
X6.625 Y-36.846
X7.305 Y-35.609
X7.933 Y-34.345
X8.507 Y-33.055
X9.025 Y-31.742
X9.488 Y-30.408
X9.894 Y-29.056
X10.241 Y-27.688
X10.53 Y-26.306
X10.759 Y-24.913
X10.93 Y-23.512
X11.041 Y-22.105
X11.094 Y-20.694
X11.087 Y-19.282
X11.022 Y-17.872
X10.897 Y-16.466
X10.712 Y-15.067
X10.468 Y-13.676
X10.165 Y-12.298
X9.805 Y-10.933
X9.387 Y-9.584
X9.151 Y-8.919
X8.656 Y-7.597
X8.39 Y-6.943
X7.956 Y-5.977
X7.645 Y-5.344
G3 X7.215 Y-5.215 I-0.28 J-0.15
X7.456 Y-7.147 I0.495 J-0.92
G1 X7.539 Y-7.161
X7.622 Y-7.162
X7.704 Y-7.149
G3 X8.085 Y-6.804 I-0.12 J0.514 F381
G1 X8.11 Y-6.748
X8.146 Y-6.697
X8.192 Y-6.655
X8.245 Y-6.622
X8.791 Y-6.375 F685.8
X9.374 Y-6.517
X9.766 Y-7.217
X10.273 Y-8.338
X10.741 Y-9.67
X11.141 Y-11.024
X11.485 Y-12.393
X11.773 Y-13.775
X12.005 Y-15.167
X12.179 Y-16.568
X12.296 Y-17.975
X12.356 Y-19.385
X12.359 Y-20.797
X12.305 Y-22.207
X12.194 Y-23.614
X12.026 Y-25.016
X11.8 Y-26.409
X11.517 Y-27.792
X11.177 Y-29.163
