(1001)
G90 G94
G17
G21
(When using Fusion 360 for Personal Use, the feedrate of)
(rapid moves is reduced to match the feedrate of cutting)
(moves, which can increase machining time. Unrestricted rapid)
(moves are available with a Fusion 360 Subscription.)

(Parallel1)
S8000 M3
G54
G0 X49.311 Y-47.432
Z15
G1 Z-4.933 F250
Z-6.892
X49.305 Z-6.922
X49.29 Z-6.949
X49.267 Z-6.969
X49.239 Z-6.98
X48.652 Z-7.104
X48.171 Z-7.176
X47.455 Z-7.241
X46.927 Z-7.247
X46.252 Z-7.26
X45.776 Z-7.262
X44.235 Z-7.169
X43.755 Z-7.115
X43.464 Z-7.075
X43.22 Z-7.053
X41.947 Z-6.974
X41.443 Z-6.94
X41.092 Z-6.916
X40.069 Z-6.929
X39.447 Z-6.946
X38.88 Z-6.97
X38.057 Z-7.017
X37.526 Z-7.059
X36.933 Z-7.065
X36.13 Z-7.09
X35.498 Z-7.123
X34.149 Z-7.158
X33.208 Z-7.224
X32.899 Z-7.237
X32.745 Z-7.267
X32.611 Z-7.313
X32.461 Z-7.397
X32.293 Z-7.526
X32.097 Z-7.681
X32.025 Z-7.707
X31.885 Z-7.718
X31.266 Z-7.709
X30.403 Z-7.724
X29.952 Z-7.735
X29.029 Z-7.734
X25.864 Z-7.782
X25.357 Z-7.783
X25.081 Z-7.75
X25.049 Z-7.744
X25.02 Z-7.724
X25.014 Z-7.686
X25.009 Z-7.652
X24.979 Z-7.632
X24.054 Z-7.467
X23.854 Z-7.432
X23.601 Z-7.402
X23.249 Z-7.387
X22.535 Z-7.406
X21.186 Z-7.453
X20.153 Z-7.447
X19.751 Z-7.453
X19.49 Z-7.49
X19.291 Z-7.546
X19.281 Z-7.549
X19.278 Z-7.55
X19.275 Z-7.551
X19.27 Z-7.553
X19.237 Z-7.565
X19.235
X19.234 Z-7.566
X19.23 Z-7.567
X19.227 Z-7.568
X19.212 Z-7.573
X19.206 Z-7.576
X19.178 Z-7.587
X19.174 Z-7.588
X19.167 Z-7.59
X19.152 Z-7.596
X19.146 Z-7.598
X19.144 Z-7.599
X19.12 Z-7.609
X19.118 Z-7.61
X19.114 Z-7.611
X19.107 Z-7.614
X19.093 Z-7.619
X19.087 Z-7.622
X19.08 Z-7.625
X19.057 Z-7.635
X19.053 Z-7.637
X19.04 Z-7.642
X19.033 Z-7.645
X19.028 Z-7.647
X19.027 Z-7.648
X19 Z-7.66
X18.987 Z-7.665
X18.984 Z-7.666
X18.981 Z-7.668
X18.974 Z-7.671
X18.971 Z-7.672
X18.896 Z-7.706
X18.877 Z-7.715
X18.87 Z-7.718
X18.865 Z-7.72
X18.857 Z-7.724
X18.844 Z-7.73
X18.822 Z-7.74
X18.819 Z-7.742
X18.806 Z-7.748
X18.801 Z-7.75
X18.799 Z-7.751
X18.769 Z-7.764
X18.764 Z-7.766
X18.754 Z-7.771
X18.749 Z-7.773
X18.747 Z-7.774
X18.718 Z-7.786
X18.715 Z-7.787
X18.581 Z-7.822
X18.441 Z-7.835
X18.006 Z-7.825
X16.657 Z-7.79
X14.219 Z-7.761
X12.922 Z-7.744
X12.248 Z-7.728
X11.04 Z-7.739
X10.184 Z-7.746
X9.278 Z-7.756
X8.422
X7.079 Z-7.766
X5.704 Z-7.737
X4.983 Z-7.727
X4.412 Z-7.717
X3.527 Z-7.73
X2.23 Z-7.705
X1.16 Z-7.726
X0.525 Z-7.721
X-1.122 Z-7.759
X-1.552 Z-7.74
X-2.193 Z-7.687
X-2.556 Z-7.684
X-2.955 Z-7.689
X-3.468 Z-7.675
X-4.266 Z-7.677
X-5.615 Z-7.681
X-6.431 Z-7.698
X-7.365 Z-7.668
X-8.143 Z-7.647
X-9.175 Z-7.562
X-10.728 Z-7.48
X-11.971 Z-7.326
X-12.918 Z-7.261
X-13.613 Z-7.228
X-14.111 Z-7.191
X-14.577 Z-7.18
X-15.874 Z-7.204
X-16.129 Z-7.183
X-16.399 Z-7.144
X-16.5 Z-7.135
X-16.811 Z-7.136
X-17.606 Z-7.177
X-18.103 Z-7.205
X-18.336 Z-7.189
X-18.618 Z-7.148
X-18.811 Z-7.129
X-19.122 Z-7.125
X-19.678 Z-7.156
X-20.756 Z-7.135
X-21.963 Z-7.131
X-22.428 Z-7.135
X-22.757 Z-7.129
X-23.377 Z-7.078
X-23.688 Z-7.077
X-24.052 Z-7.086
X-24.856 Z-7.018
X-25.945 Z-6.993
X-26.619 Z-6.978
X-27.1 Z-6.933
X-27.627 Z-6.877
X-27.979 Z-6.858
X-28.444 Z-6.845
X-28.833 Z-6.811
X-29.443 Z-6.801
X-30.246 Z-6.817
X-30.868 Z-6.805
X-31.497 Z-6.823
X-32.556 Z-6.895
X-32.919 Z-6.913
X-33.318 Z-6.919
X-34.354 Z-7.004
X-34.641 Z-7.003
X-34.993 Z-6.982
X-35.408 Z-6.988
X-35.915 Z-7.02
X-36.689 Z-7.085
X-37.183 Z-7.121
X-37.44 Z-7.109
X-37.893 Z-7.038
X-38.234 Z-6.98
X-38.486 Z-6.95
X-38.693 Z-6.938
X-39.886 Z-6.911
X-40.705 Z-6.867
X-41.742 Z-6.859
X-42.31 Z-6.884
X-42.922 Z-6.92
X-43.381 Z-6.971
X-44.159 Z-7.064
X-44.439 Z-7.115
X-44.827 Z-7.187
X-45.41 Z-7.247
X-46.113 Z-7.307
X-46.884 Z-7.353
X-47.831 Z-7.354
X-48.442 Z-7.317
X-49.106 Z-7.215
X-49.293 Z-7.196
X-49.314 Y-47.431 Z-7.194
X-49.335 Y-47.426 Z-7.192
X-49.354 Y-47.418 Z-7.191
X-49.372 Y-47.407
X-49.388 Y-47.393
X-49.402 Y-47.377
X-49.414 Y-47.359 Z-7.192
X-49.422 Y-47.34 Z-7.194
X-49.427 Y-47.319 Z-7.196
X-49.429 Y-47.298 Z-7.198
Y-47.266 Z-7.202
X-49.428 Y-47.245 Z-7.205
X-49.423 Y-47.225 Z-7.208
X-49.416 Y-47.205 Z-7.211
X-49.405 Y-47.188 Z-7.214
X-49.391 Y-47.172 Z-7.218
X-49.375 Y-47.158 Z-7.221
X-49.358 Y-47.147 Z-7.224
X-49.338 Y-47.139 Z-7.228
X-49.318 Y-47.134 Z-7.23
X-49.297 Y-47.132 Z-7.233
X-49.115 Z-7.252
X-48.347 Z-7.352
X-47.9 Z-7.384
X-46.918 Z-7.389
X-46.009 Z-7.334
X-44.716 Z-7.219
X-44.158 Z-7.109
X-43.878 Z-7.063
X-43.223 Z-6.979
X-42.856 Z-6.942
X-42.137 Z-6.902
X-41.419 Z-6.886
X-40.541 Z-6.896
X-39.926 Z-6.927
X-38.625 Z-6.942
X-38.392 Z-6.953
X-38.088 Z-6.986
X-37.233 Z-7.108
X-37.036 Z-7.116
X-36.45 Z-7.076
X-35.107 Z-7.011
X-34.575 Z-7.021
X-34.2 Z-6.993
X-33.299 Z-6.927
X-32.91 Z-6.924
X-32.376 Z-6.916
X-31.821 Z-6.877
X-31.488 Z-6.849
X-30.775 Z-6.841
X-30.295 Z-6.842
X-28.949 Z-6.828
X-28.586 Z-6.842
X-28.016 Z-6.866
X-27.428 Z-6.892
X-26.576 Z-6.976
X-25.902 Z-6.992
X-24.865 Z-7.03
X-24.073 Z-7.094
X-23.449 Z-7.106
X-22.756 Z-7.154
X-22.201 Z-7.155
X-21.168 Z-7.158
X-19.858 Z-7.181
X-19.086 Z-7.16
X-18.716 Z-7.171
X-18.342 Z-7.21
X-18.058 Z-7.223
X-17.45 Z-7.185
X-17.14 Z-7.172
X-16.604 Z-7.173
X-16.088 Z-7.203
X-14.861 Z-7.177
X-14.372 Z-7.179
X-13.708 Z-7.21
X-13.099 Z-7.244
X-12.324 Z-7.294
X-12 Z-7.315
X-10.87 Z-7.445
X-10.016 Z-7.526
X-9.347 Z-7.557
X-8.089 Z-7.649
X-6.585 Z-7.688
X-5.841 Z-7.686
X-4.525 Z-7.683
X-3.37 Z-7.686
X-2.56 Z-7.67
X-2.247 Z-7.679
X-1.599 Z-7.748
X-1.202 Z-7.764
X0.504 Z-7.721
X1.057 Z-7.724
X2.073 Z-7.715
X3.474 Z-7.74
X4.28 Z-7.725
X4.831 Z-7.719
X6.803 Z-7.751
X8.113 Z-7.747
X9.151 Z-7.744
X10.414 Z-7.739
X10.967 Z-7.737
X11.895 Z-7.734
X12.639 Z-7.739
X14.299 Z-7.767
X16.657 Z-7.799
X18.012 Z-7.821
X18.691 Z-7.829
X18.902 Z-7.815
X19.019 Z-7.784
X19.318 Z-7.643
X19.556 Z-7.554
X19.811 Z-7.498
X20.12 Z-7.467
X21.26 Z-7.466
X22.389 Z-7.432
X22.905 Z-7.431
X23.345 Z-7.457
X23.621 Z-7.493
X23.845 Z-7.54
X24.041 Z-7.59
X24.41 Z-7.702
X24.703 Z-7.771
X25.02 Z-7.792
X25.76 Z-7.783
X28.561 Z-7.74
X29.606 Z-7.738
X31.283 Z-7.709
X31.972 Z-7.72
X32.096 Z-7.71
X32.155 Z-7.687
X32.436 Z-7.48
X32.603 Z-7.372
X32.811 Z-7.276
X33.088 Z-7.194
X33.315 Z-7.155
X33.574 Z-7.138
X34.523 Z-7.129
X34.918 Z-7.102
X35.277 Z-7.084
X35.742 Z-7.085
X36.382 Z-7.063
X37.117 Z-7.066
X38.339 Z-7.029
X39.191 Z-6.97
X39.965 Z-6.958
X41.115 Z-6.938
X41.267 Z-6.944
X42.129 Z-6.986
X43.345 Z-7.075
X44.007 Z-7.162
X44.62 Z-7.2
X45.323 Z-7.247
X45.834 Z-7.268
X46.301 Z-7.252
X46.82 Z-7.243
X47.43 Z-7.237
X47.984 Z-7.189
X48.659 Z-7.107
X49.247 Z-6.99
X49.266 Z-6.981
X49.279 Z-6.966
X49.283 Z-6.946
X49.284 Y-47.126 Z-6.904
X49.285 Y-47.107 Z-6.866
X49.286 Y-47.077 Z-6.837
X49.288 Y-47.039 Z-6.817
X49.289 Y-46.997 Z-6.811
X49.291 Y-46.967
X49.293 Y-46.926 Z-6.817
X49.294 Y-46.888 Z-6.837
X49.295 Y-46.858 Z-6.866
X49.296 Y-46.839 Z-6.904
X49.297 Y-46.832 Z-6.946
Z-6.955
X49.292 Z-6.975
X49.278 Z-6.991
X49.259 Z-6.999
X48.578 Z-7.114
X47.593 Z-7.217
X47.074 Z-7.241
X46.341 Z-7.244
X45.759 Z-7.27
X45.349 Z-7.252
X44.849 Z-7.216
X44.227 Z-7.191
X43.739 Z-7.134
X43.457 Z-7.096
X43.161 Z-7.068
X42.273 Z-6.993
X41.703 Z-6.979
X41.08 Z-6.964
X40.592 Z-6.978
X40.125 Z-6.969
X39.243 Z-6.99
X38.808 Z-7.024
X38.354 Z-7.05
X37.619 Z-7.045
X37.153 Z-7.071
X36.662 Z-7.052
X36.247 Z-7.067
X35.839 Z-7.082
X35.214 Z-7.051
X35.058 Z-7.055
X34.857 Z-7.07
X34.421 Z-7.114
X34.018 Z-7.099
X33.587 Z-7.073
X33.356 Z-7.087
X33.174 Z-7.127
X33.012 Z-7.187
X32.817 Z-7.286
X32.537 Z-7.462
X32.267 Z-7.65
X32.147 Z-7.701
X31.97 Z-7.713
X30.972
X29.294 Z-7.743
X28.612 Z-7.738
X26.527 Z-7.766
X24.491 Z-7.797
X24.294 Z-7.782
X23.937 Z-7.707
X23.562 Z-7.616
X23.273 Z-7.559
X22.96 Z-7.514
X22.574 Z-7.48
X22.115 Z-7.468
X21.306 Z-7.484
X20.722 Z-7.478
X20.131 Z-7.499
X19.903 Z-7.535
X19.682 Z-7.599
X19.394 Z-7.707
X19.171 Z-7.787
X19.017 Z-7.814
X18.719 Z-7.824
X17.472 Z-7.814
X16.092 Z-7.798
X11.838 Z-7.741
X9.107
X8.173 Z-7.738
X6.909 Z-7.748
X5.094 Z-7.721
X4.16 Z-7.738
X3.422 Z-7.747
X2.696 Z-7.729
X2.177 Z-7.72
X0.955 Z-7.722
X0.216
X-0.809 Z-7.758
X-1.47 Z-7.76
X-1.874 Z-7.734
X-2.415 Z-7.677
X-2.851 Z-7.664
X-4.096 Z-7.683
X-5.667 Z-7.682
X-6.992
X-7.978 Z-7.654
X-8.674 Z-7.598
X-10.008 Z-7.53
X-11.453 Z-7.363
X-12.061 Z-7.305
X-13.8 Z-7.198
X-14.844 Z-7.178
X-16.213 Z-7.211
X-16.929 Z-7.178
X-17.24 Z-7.188
X-18.058 Z-7.237
X-18.356 Z-7.229
X-18.803 Z-7.197
X-19.322 Z-7.194
X-20.067 Z-7.204
X-20.91 Z-7.179
X-22.184 Z-7.171
X-22.81 Z-7.17
X-23.519 Z-7.128
X-24.167 Z-7.12
X-25.163 Z-7.032
X-26.149 Z-6.987
X-26.611 Z-6.965
X-27.229 Z-6.905
X-27.69 Z-6.885
X-28.364 Z-6.862
X-28.889 Z-6.852
X-29.718 Z-6.867
X-30.582 Z-6.871
X-31.127 Z-6.888
X-31.542 Z-6.886
X-32.415 Z-6.929
X-33.867 Z-6.957
X-34.211 Z-6.983
X-34.648 Z-7.024
X-35.27 Z-7.04
X-36.808 Z-7.105
X-37.086 Z-7.092
X-37.609 Z-7.02
X-38.415 Z-6.955
X-39.194 Z-6.944
X-39.661 Z-6.942
X-40.181 Z-6.931
X-41.166 Z-6.903
X-42.204 Z-6.928
X-42.596 Z-6.956
X-43.431 Z-7.041
X-43.804 Z-7.089
X-44.264 Z-7.167
X-44.745 Z-7.245
X-45.779 Z-7.354
X-47.125 Z-7.425
X-47.792 Z-7.424
X-48.237 Z-7.39
X-48.812 Z-7.321
X-49.269 Z-7.262
X-49.289 Z-7.255
X-49.303 Z-7.238
X-49.308 Z-7.218
Y-46.826 Z-7.176
X-49.307 Y-46.807 Z-7.138
X-49.306 Y-46.777 Z-7.108
X-49.305 Y-46.739 Z-7.089
X-49.303 Y-46.697 Z-7.083
X-49.302 Y-46.667
X-49.301 Y-46.626 Z-7.089
X-49.299 Y-46.588 Z-7.108
X-49.298 Y-46.558 Z-7.138
Y-46.539 Z-7.176
X-49.297 Y-46.532 Z-7.218
Z-7.237
X-49.293 Z-7.257
X-49.279 Z-7.273
X-49.259 Z-7.281
X-48.768 Z-7.357
X-48.12 Z-7.428
X-47.673 Z-7.46
X-47.146 Z-7.456
X-45.755 Z-7.383
X-45.296 Z-7.335
X-43.767 Z-7.127
X-42.254 Z-6.941
X-42.063 Z-6.924
X-41.734 Z-6.921
X-41.215 Z-6.916
X-40.126 Z-6.948
X-39.659 Z-6.958
X-38.615 Z-6.967
X-37.547 Z-7.002
X-36.912 Z-7.066
X-36.511 Z-7.091
X-35.862 Z-7.075
X-34.723 Z-7.029
X-34.048 Z-6.968
X-33.79 Z-6.954
X-32.578 Z-6.948
X-31.694 Z-6.927
X-30.958 Z-6.929
X-30.387 Z-6.907
X-29.431 Z-6.887
X-28.809 Z-6.866
X-28.186 Z-6.891
X-27.653 Z-6.903
X-27.137 Z-6.915
X-26.741 Z-6.945
X-25.516 Z-7.018
X-25.154 Z-7.041
X-24.952 Z-7.064
X-24.393 Z-7.162
X-24.208 Z-7.173
X-23.777 Z-7.152
X-23.44 Z-7.146
X-22.756 Z-7.185
X-22.005
X-21.384 Z-7.206
X-20.768 Z-7.204
X-20.114 Z-7.22
X-19.212 Z-7.222
X-18.175 Z-7.247
X-17.441 Z-7.215
X-16.977 Z-7.198
X-16.406 Z-7.217
X-15.81 Z-7.207
X-14.98 Z-7.179
X-13.787 Z-7.202
X-12.191 Z-7.291
X-11.726 Z-7.326
X-10.916 Z-7.412
X-10.342 Z-7.488
X-9.821 Z-7.544
X-8.543 Z-7.611
X-8.056 Z-7.653
X-7.28 Z-7.683
X-6.564 Z-7.696
X-5.268 Z-7.679
X-4.641
X-3.98 Z-7.666
X-3.017 Z-7.654
X-2.654 Z-7.665
X-2.025 Z-7.724
X-1.061 Z-7.758
X-0.563 Z-7.728
X0.139 Z-7.695
X0.546 Z-7.711
X1.402 Z-7.718
X2.283 Z-7.72
X3.476 Z-7.741
X4.609 Z-7.728
X6.314 Z-7.736
X8.106 Z-7.74
X11.614 Z-7.754
X14.556 Z-7.777
X16.216 Z-7.798
X16.802 Z-7.796
X17.611 Z-7.815
X18.149 Z-7.821
X19.075 Z-7.817
X19.332 Z-7.801
X19.442 Z-7.777
X19.785 Z-7.661
X19.961 Z-7.61
X20.106 Z-7.58
X20.528 Z-7.531
X20.826 Z-7.515
X21.74 Z-7.527
X22.269 Z-7.543
X22.525 Z-7.569
X22.916 Z-7.628
X23.576 Z-7.755
X23.857 Z-7.79
X24.168 Z-7.803
X26.745 Z-7.759
X28.301 Z-7.74
X29.129 Z-7.739
X29.8 Z-7.73
X30.838 Z-7.709
X32.006 Z-7.707
X32.22 Z-7.7
X32.323 Z-7.675
X32.485 Z-7.585
X32.806 Z-7.321
X32.997 Z-7.185
X33.165 Z-7.105
X33.343 Z-7.055
X33.553 Z-7.033
X33.746 Z-7.043
X34.214 Z-7.102
X34.391 Z-7.104
X34.817 Z-7.063
X35.067 Z-7.048
X35.352 Z-7.059
X35.709 Z-7.103
X35.908 Z-7.117
X36.241 Z-7.087
X36.607 Z-7.067
X37.175 Z-7.084
X37.623 Z-7.064
X38.319 Z-7.059
X38.99 Z-7.032
X40.129 Z-6.984
X40.59 Z-6.989
X41.118 Z-6.973
X42.289 Z-7.007
X43.567 Z-7.109
X44.341 Z-7.188
X44.948 Z-7.219
X45.557 Z-7.256
X46.084 Z-7.241
X46.602 Z-7.235
X47.144 Z-7.234
X47.963 Z-7.181
X48.569 Z-7.111
X49.252 Z-6.996
X49.271 Z-6.987
X49.284 Z-6.972
X49.289 Z-6.951
Y-46.526 Z-6.91
Y-46.507 Z-6.872
X49.29 Y-46.477 Z-6.842
Y-46.439 Z-6.823
Y-46.397 Z-6.816
X49.291 Y-46.367
Y-46.326 Z-6.823
Y-46.288 Z-6.842
X49.292 Y-46.258 Z-6.872
Y-46.239 Z-6.91
Y-46.232 Z-6.951
Z-6.954
X49.287 Z-6.974
X49.273 Z-6.99
X49.254 Z-6.998
X48.762 Z-7.08
X47.964 Z-7.172
X47.041 Z-7.241
X46.655 Z-7.239
X46.136 Z-7.227
X45.514 Z-7.249
X44.623 Z-7.198
X43.84 Z-7.119
X43.136 Z-7.065
X42.788 Z-7.034
X41.591 Z-6.985
X41.11 Z-6.979
X40.588 Z-6.996
X40.173 Z-6.997
X39.619 Z-7.022
X39.042 Z-7.038
X37.542 Z-7.081
X36.926 Z-7.085
X36.355 Z-7.108
X35.893 Z-7.138
X35.528 Z-7.104
X35.327 Z-7.082
X35.015 Z-7.071
X34.813 Z-7.083
X34.313 Z-7.131
X34.157 Z-7.123
X33.776 Z-7.054
X33.635 Z-7.042
X33.48 Z-7.046
X33.298 Z-7.079
X33.12 Z-7.147
X32.934 Z-7.264
X32.733 Z-7.447
X32.573 Z-7.607
X32.497 Z-7.667
X32.428 Z-7.691
X32.134 Z-7.702
X31.204 Z-7.701
X30.115 Z-7.707
X29.129 Z-7.733
X27.359 Z-7.741
X24.817 Z-7.787
X23.427 Z-7.807
X23.171 Z-7.794
X22.337 Z-7.665
X22.031 Z-7.635
X21.201 Z-7.596
X20.786 Z-7.6
X20.391 Z-7.638
X20.132 Z-7.682
X19.677 Z-7.788
X19.477 Z-7.815
X18.375 Z-7.823
X17.646 Z-7.796
X17.314 Z-7.757
X17.026 Z-7.724
X16.819 Z-7.727
X16.676 Z-7.742
X16.333 Z-7.786
X15.815 Z-7.792
X14.355 Z-7.774
X12.171 Z-7.763
X7.137 Z-7.735
X4.984 Z-7.73
X4.154 Z-7.714
X3.532 Z-7.718
X2.291 Z-7.717
X1.645 Z-7.712
X1.152 Z-7.696
X0.726 Z-7.718
X0.537 Z-7.698
X0.232 Z-7.647
X-0.106 Z-7.624
X-0.467 Z-7.631
X-0.689 Z-7.658
X-1.028 Z-7.729
X-1.172 Z-7.736
X-1.497 Z-7.695
X-1.651 Z-7.688
X-1.999 Z-7.681
X-2.409 Z-7.62
X-2.708 Z-7.61
X-3.417 Z-7.651
X-4.457 Z-7.673
X-5.65 Z-7.696
X-6.593 Z-7.703
X-7.633 Z-7.677
X-8.197 Z-7.648
X-8.588 Z-7.615
X-9.923 Z-7.54
X-10.514 Z-7.466
X-10.963 Z-7.406
X-11.957 Z-7.303
X-12.371 Z-7.276
X-13.453 Z-7.216
X-14.543 Z-7.186
X-15.529 Z-7.195
X-16.5 Z-7.233
X-17.382 Z-7.218
X-18.091 Z-7.259
X-20.108 Z-7.241
X-20.627 Z-7.227
X-21.33 Z-7.233
X-21.952 Z-7.207
X-22.73 Z-7.193
X-23.287 Z-7.157
X-23.534
X-23.737 Z-7.172
X-24.168 Z-7.212
X-24.353 Z-7.204
X-24.763 Z-7.103
X-24.962 Z-7.064
X-25.163 Z-7.037
X-25.575 Z-7.004
X-26.83 Z-6.936
X-27.595 Z-6.922
X-28.166 Z-6.909
X-28.84 Z-6.884
X-29.359 Z-6.9
X-29.979 Z-6.926
X-30.757 Z-6.95
X-31.613 Z-6.949
X-32.83 Z-6.962
X-33.712
X-34.593 Z-7.001
X-35.583 Z-7.069
X-36.214 Z-7.077
X-36.612 Z-7.052
X-37.312 Z-7.004
X-38.09 Z-6.987
X-41.361 Z-6.931
X-42.028
X-42.28 Z-6.954
X-43.025 Z-7.046
X-43.699 Z-7.143
X-45.26 Z-7.35
X-45.862 Z-7.409
X-46.616 Z-7.459
X-47.516 Z-7.484
X-47.921 Z-7.463
X-48.665 Z-7.386
X-49.258 Z-7.287
X-49.278 Z-7.279
X-49.291 Z-7.263
X-49.296 Z-7.243
Y-46.226 Z-7.201
Y-46.207 Z-7.163
X-49.295 Y-46.177 Z-7.133
Y-46.139 Z-7.114
X-49.294 Y-46.097 Z-7.108
Y-46.067
X-49.293 Y-46.026 Z-7.114
Y-45.988 Z-7.133
X-49.292 Y-45.958 Z-7.163
Y-45.939 Z-7.201
Y-45.932 Z-7.243
Z-7.246
X-49.287 Z-7.266
X-49.274 Z-7.282
X-49.254 Z-7.29
X-48.745 Z-7.377
X-48.109 Z-7.454
X-47.617 Z-7.489
X-47.114 Z-7.486
X-46.232 Z-7.453
X-44.776 Z-7.308
X-43.833 Z-7.165
X-42.979 Z-7.04
X-42.321 Z-6.969
X-42.031 Z-6.944
X-41.565 Z-6.938
X-40.303 Z-6.95
X-37.968 Z-6.992
X-37.169 Z-6.998
X-36.702 Z-7.011
X-36.12 Z-7.064
X-35.773 Z-7.073
X-35.15 Z-7.03
X-34.569 Z-6.982
X-32.34 Z-6.967
X-31.273 Z-6.952
X-30.375 Z-6.953
X-29.389 Z-6.917
X-28.507 Z-6.907
X-27.781 Z-6.925
X-26.778 Z-6.928
X-25.636 Z-6.975
X-25.228 Z-7.013
X-24.926 Z-7.051
X-24.276 Z-7.169
X-24.06 Z-7.183
X-23.66 Z-7.157
X-23.355 Z-7.149
X-22.56 Z-7.205
X-21.108 Z-7.255
X-20.535 Z-7.251
X-20.115 Z-7.262
X-18.005 Z-7.275
X-17.546 Z-7.231
X-17.277 Z-7.222
X-16.921 Z-7.246
X-16.56 Z-7.254
X-15.801 Z-7.206
X-15.386 Z-7.196
X-14.467 Z-7.185
X-13.377 Z-7.206
X-12.049 Z-7.29
X-11.08 Z-7.402
X-10.134 Z-7.526
X-9.687 Z-7.558
X-8.722 Z-7.617
X-8.079 Z-7.661
X-6.886 Z-7.699
X-5.807 Z-7.705
X-3.939 Z-7.655
X-3.749 Z-7.631
X-3.509 Z-7.549
X-3.228 Z-7.458
X-2.971 Z-7.413
X-2.74 Z-7.407
X-2.587 Z-7.421
X-2.34 Z-7.472
X-2.063 Z-7.566
X-1.871 Z-7.625
X-1.541 Z-7.656
X-1.164 Z-7.714
X-1.065 Z-7.705
X-0.727 Z-7.606
X-0.457 Z-7.553
X-0.227 Z-7.542
X-0.075 Z-7.553
X0.174 Z-7.6
X0.536 Z-7.695
X0.659 Z-7.712
X0.932 Z-7.637
X1.023 Z-7.621
X1.087 Z-7.615
X1.228 Z-7.618
X1.328 Z-7.632
X1.685 Z-7.703
X1.933 Z-7.72
X2.913 Z-7.707
X4.262 Z-7.706
X5.022 Z-7.735
X5.598 Z-7.712
X6.173 Z-7.736
X6.738 Z-7.733
X7.62 Z-7.742
X9.563 Z-7.753
X12.274 Z-7.761
X13.519 Z-7.765
X15.747 Z-7.79
X16.03 Z-7.777
X16.535 Z-7.693
X16.768 Z-7.664
X17.002 Z-7.66
X17.319 Z-7.701
X17.594 Z-7.738
X18.189 Z-7.755
X18.623 Z-7.809
X18.908 Z-7.823
X19.871 Z-7.809
X20.6 Z-7.737
X20.906 Z-7.719
X21.321 Z-7.721
X22.082 Z-7.772
X22.746 Z-7.811
X24.186 Z-7.792
X24.86 Z-7.783
X27.569 Z-7.731
X28.706 Z-7.73
X29.899 Z-7.7
X30.741 Z-7.691
X31.467 Z-7.707
X32.267 Z-7.695
X32.548 Z-7.693
X32.587 Z-7.672
X32.777 Z-7.502
X32.934 Z-7.362
X33.102 Z-7.247
X33.276 Z-7.168
X33.457 Z-7.121
X33.607 Z-7.107
X33.761 Z-7.112
X34.108 Z-7.151
X34.396 Z-7.156
X34.706 Z-7.13
X35.044 Z-7.1
X35.419 Z-7.098
X35.933 Z-7.123
X36.32 Z-7.127
X36.907 Z-7.078
X37.162 Z-7.065
X37.776 Z-7.082
X39.177 Z-7.028
X39.635 Z-7.025
X40.175 Z-6.999
X40.486 Z-6.996
X40.947 Z-6.988
X41.411 Z-6.976
X42.293 Z-6.995
X42.853 Z-7.013
X43.239 Z-7.052
X43.735 Z-7.09
X44.242 Z-7.131
X45.033 Z-7.216
X45.43 Z-7.242
X46.168 Z-7.221
X46.708 Z-7.236
X47.069
X47.9 Z-7.165
X48.489 Z-7.099
X48.862 Z-7.058
X49.266 Z-7.003
X49.286 Z-6.996
X49.3 Z-6.98
X49.305 Z-6.959
Z-6.953
X49.306 Y-45.925 Z-6.92
Y-45.904 Z-6.894
X49.307 Y-45.874 Z-6.88
X49.308 Y-45.841
X49.309 Y-45.811 Z-6.894
X49.31 Y-45.79 Z-6.92
Y-45.782 Z-6.953
X49.305 Z-6.974
X49.291 Z-6.99
X49.271 Z-6.997
X48.532 Z-7.083
X47.987 Z-7.154
X47.128 Z-7.219
X46.602 Z-7.221
X45.979 Z-7.222
X45.437 Z-7.231
X45.053 Z-7.205
X44.547 Z-7.143
X43.9 Z-7.086
X43.152 Z-7.03
X42.79 Z-6.999
X42.193 Z-6.986
X41.312 Z-6.973
X40.642 Z-6.99
X40.173 Z-6.989
X39.625 Z-7.023
X38.796 Z-7.038
X37.73 Z-7.083
X37.109 Z-7.063
X36.774 Z-7.083
X36.292 Z-7.123
X35.889 Z-7.111
X35.536 Z-7.089
X35.189 Z-7.095
X34.533 Z-7.138
X34.156 Z-7.141
X33.586 Z-7.163
X33.431 Z-7.189
X33.275 Z-7.237
X33.107 Z-7.318
X32.914 Z-7.451
X32.693 Z-7.634
X32.61 Z-7.687
X32.536 Z-7.698
X32.118 Z-7.695
X31.468 Z-7.705
X30.69 Z-7.689
X29.855 Z-7.693
X28.61 Z-7.727
X27.574 Z-7.729
X24.876 Z-7.78
X24.202 Z-7.789
X22.326 Z-7.819
X21.815 Z-7.8
X21.255 Z-7.769
X20.762 Z-7.776
X19.856 Z-7.817
X18.872 Z-7.826
X18.678 Z-7.803
X18.297 Z-7.725
X18.199 Z-7.714
X18.018 Z-7.707
X17.552 Z-7.711
X17.312 Z-7.687
X16.948 Z-7.646
X16.644 Z-7.653
X16.29 Z-7.699
X15.913 Z-7.765
X15.605 Z-7.786
X12.46 Z-7.756
X11.682 Z-7.754
X10.835 Z-7.75
X9.901 Z-7.743
X9.261 Z-7.753
X7.8 Z-7.738
X6.767 Z-7.736
X6.36 Z-7.739
X6.308 Z-7.73
X6.017 Z-7.574
X5.855 Z-7.517
X5.753 Z-7.502
X5.61 Z-7.509
X5.479 Z-7.544
X5.275 Z-7.647
X5.135 Z-7.72
X5.021 Z-7.735
X4.703 Z-7.726
X4.133 Z-7.71
X2.775 Z-7.711
X1.951 Z-7.726
X1.744 Z-7.71
X1.61 Z-7.678
X1.342 Z-7.59
X1.161 Z-7.562
X1.005 Z-7.57
X0.84 Z-7.611
X0.586 Z-7.711
X0.486 Z-7.693
X0.03 Z-7.554
X-0.069 Z-7.534
X-0.169 Z-7.521
X-0.375 Z-7.522
X-0.623 Z-7.568
X-1.004 Z-7.685
X-1.137 Z-7.709
X-1.344 Z-7.684
X-1.535 Z-7.654
X-1.817 Z-7.613
X-1.992 Z-7.552
X-2.348 Z-7.415
X-2.596 Z-7.356
X-2.825 Z-7.337
X-3.049 Z-7.35
X-3.229 Z-7.385
X-3.469 Z-7.465
X-3.835 Z-7.623
X-3.961 Z-7.65
X-4.736 Z-7.683
X-6.188 Z-7.708
X-7.45 Z-7.686
X-8.431 Z-7.642
X-9.041 Z-7.606
X-9.588 Z-7.563
X-10.14 Z-7.525
X-12.055 Z-7.284
X-13.413 Z-7.196
X-14.431 Z-7.179
X-15.284 Z-7.198
X-15.764 Z-7.207
X-16.555 Z-7.26
X-16.872 Z-7.257
X-17.266 Z-7.228
X-17.539 Z-7.235
X-18.005 Z-7.284
X-18.412
X-18.879 Z-7.278
X-19.451 Z-7.276
X-20.54 Z-7.261
X-21.005 Z-7.269
X-21.776 Z-7.232
X-22.451 Z-7.211
X-23.384 Z-7.136
X-23.695
X-24.083 Z-7.143
X-24.455 Z-7.103
X-24.927 Z-7.034
X-25.524 Z-6.971
X-25.834 Z-6.95
X-26.924 Z-6.916
X-27.703 Z-6.923
X-28.407 Z-6.909
X-29.5 Z-6.924
X-30.278 Z-6.952
X-31.144 Z-6.953
X-32.233 Z-6.971
X-33.814 Z-6.982
X-34.54
X-34.888 Z-7.005
X-35.802 Z-7.07
X-36.067 Z-7.062
X-36.641 Z-7.005
X-37.03 Z-6.992
X-37.817 Z-6.997
X-40.307 Z-6.953
X-40.842 Z-6.945
X-41.27 Z-6.934
X-42.074 Z-6.945
X-42.335 Z-6.971
X-43.046 Z-7.055
X-44.362 Z-7.247
X-44.956 Z-7.329
X-46.176 Z-7.452
X-47.102 Z-7.489
X-47.668 Z-7.487
X-48.341 Z-7.434
X-48.884 Z-7.36
X-49.251 Z-7.294
X-49.27 Z-7.286
X-49.283 Z-7.27
X-49.288 Z-7.25
Y-45.775 Z-7.217
Y-45.754 Z-7.191
X-49.287 Y-45.724 Z-7.176
Y-45.691
Y-45.661 Z-7.191
X-49.286 Y-45.64 Z-7.217
Y-45.632 Z-7.25
Z-7.253
X-49.282 Z-7.273
X-49.268 Z-7.289
X-49.25 Z-7.297
X-48.893 Z-7.364
X-48.44 Z-7.428
X-47.665 Z-7.486
X-47.066 Z-7.49
X-46.132 Z-7.45
X-44.906 Z-7.321
X-43.367 Z-7.105
X-42.33 Z-6.969
X-42.073 Z-6.94
X-41.736 Z-6.936
X-41.144 Z-6.925
X-40.686 Z-6.95
X-39.981 Z-6.958
X-37.828 Z-6.994
X-37.002 Z-6.986
X-36.639 Z-6.997
X-36.163 Z-7.045
X-35.84 Z-7.063
X-34.932 Z-7.008
X-34.419 Z-6.982
X-33.641 Z-6.985
X-32.657 Z-6.98
X-32.118 Z-6.973
X-31.133 Z-6.956
X-30.278 Z-6.95
X-29.656 Z-6.931
X-29.085 Z-6.919
X-28.28 Z-6.904
X-27.657 Z-6.915
X-27.001 Z-6.9
X-25.698 Z-6.944
X-25.037 Z-7.006
X-24.594 Z-7.053
X-24.077 Z-7.106
X-23.562 Z-7.114
X-23.168 Z-7.146
X-22.439 Z-7.21
X-21.791 Z-7.23
X-21.005 Z-7.279
X-20.439 Z-7.266
X-19.298 Z-7.289
X-18.831 Z-7.283
X-18.416 Z-7.292
X-18.055 Z-7.294
X-17.544 Z-7.241
X-17.285 Z-7.234
X-16.876 Z-7.263
X-16.513 Z-7.264
X-15.65 Z-7.204
X-15.391 Z-7.198
X-14.405 Z-7.172
X-13.419 Z-7.186
X-12.044 Z-7.278
X-11.651 Z-7.329
X-10.251 Z-7.51
X-9.557 Z-7.565
X-8.971 Z-7.62
X-8.403 Z-7.65
X-6.743 Z-7.706
X-5.662
X-4.314 Z-7.674
X-4.008 Z-7.65
X-3.899 Z-7.623
X-3.654 Z-7.51
X-3.445 Z-7.415
X-3.226 Z-7.346
X-3.046 Z-7.313
X-2.951 Z-7.304
X-2.783
X-2.538 Z-7.338
X-2.278 Z-7.415
X-1.994 Z-7.535
X-1.764 Z-7.619
X-1.351 Z-7.69
X-1.156 Z-7.709
X-1.005 Z-7.689
X-0.734 Z-7.605
X-0.481 Z-7.533
X-0.275 Z-7.509
X-0.13 Z-7.518
X-0.031 Z-7.535
X0.067 Z-7.561
X0.42 Z-7.691
X0.533 Z-7.716
X0.734 Z-7.618
X0.911 Z-7.549
X1.088 Z-7.52
X1.249 Z-7.533
X1.388 Z-7.569
X1.543 Z-7.633
X1.735 Z-7.711
X1.826 Z-7.726
X1.976 Z-7.733
X2.651 Z-7.716
X4.116 Z-7.717
X4.739 Z-7.737
X4.944 Z-7.735
X4.991 Z-7.704
X5.261 Z-7.443
X5.383 Z-7.345
X5.494 Z-7.28
X5.6 Z-7.245
X5.712 Z-7.233
X5.823 Z-7.249
X5.96 Z-7.301
X6.115 Z-7.401
X6.457 Z-7.703
X6.514 Z-7.74
X6.731 Z-7.741
X7.014 Z-7.719
X7.317 Z-7.646
X7.562 Z-7.61
X7.769 Z-7.613
X8.251 Z-7.695
X8.626 Z-7.726
X9.372 Z-7.756
X9.951 Z-7.726
X10.418 Z-7.737
X11.067 Z-7.743
X11.845 Z-7.752
X13.556 Z-7.759
X14.101 Z-7.775
X14.474 Z-7.782
X15.335
X15.696 Z-7.761
X16.349 Z-7.664
X16.544 Z-7.646
X16.906 Z-7.647
X17.168 Z-7.671
X17.475 Z-7.697
X18.046 Z-7.681
X18.307 Z-7.702
X18.576 Z-7.765
X18.821 Z-7.823
X18.925 Z-7.831
X19.72 Z-7.822
X21.211 Z-7.795
X21.989 Z-7.823
X24.027 Z-7.793
X24.806 Z-7.777
X25.999 Z-7.757
X27.399 Z-7.729
X28.408 Z-7.725
X29.188 Z-7.703
X30.173 Z-7.684
X31.418 Z-7.701
X32.074 Z-7.695
X32.543 Z-7.696
X32.67 Z-7.684
X32.731 Z-7.658
X32.922 Z-7.529
X33.136 Z-7.392
X33.219 Z-7.351
X33.347 Z-7.297
X33.529 Z-7.244
X33.974 Z-7.157
X34.26 Z-7.124
X34.815 Z-7.116
X35.273 Z-7.083
X35.481 Z-7.077
X35.886 Z-7.103
X36.248 Z-7.116
X36.833 Z-7.069
X37.051 Z-7.061
X37.673 Z-7.082
X38.813 Z-7.033
X39.476 Z-7.026
X40.169 Z-6.976
X40.597 Z-6.98
X41.215 Z-6.968
X42.227 Z-6.978
X42.842 Z-6.993
X43.75 Z-7.062
X44.67 Z-7.137
X45.143 Z-7.199
X45.55 Z-7.219
X47.167 Z-7.204
X48.086 Z-7.142
X48.527 Z-7.073
X49.276 Z-6.986
X49.296 Z-6.978
X49.311 Z-6.962
X49.316 Z-6.941
Z-6.928
Y-45.625 Z-6.895
Y-45.604 Z-6.869
Y-45.574 Z-6.855
Y-45.541
Y-45.511 Z-6.869
Y-45.49 Z-6.895
Y-45.482 Z-6.928
X49.311 Z-6.949
X49.296 Z-6.965
X49.276 Z-6.973
X48.679 Z-7.042
X48.477 Z-7.071
X48.087 Z-7.136
X47.216 Z-7.191
X45.981 Z-7.208
X45.358 Z-7.194
X45.055 Z-7.168
X44.672 Z-7.122
X44.31 Z-7.093
X42.866 Z-6.986
X42.089 Z-6.968
X41.103 Z-6.961
X40.598 Z-6.969
X40.183 Z-6.964
X39.891 Z-6.988
X39.388 Z-7.027
X38.804 Z-7.031
X37.622 Z-7.078
X37.002 Z-7.057
X36.794 Z-7.064
X36.507 Z-7.089
X36.186 Z-7.113
X35.879 Z-7.1
X35.484 Z-7.074
X35.212 Z-7.082
X34.838 Z-7.097
X34.492 Z-7.102
X34.155 Z-7.137
X33.877 Z-7.202
X33.418 Z-7.363
X33.156 Z-7.484
X32.87 Z-7.639
X32.771 Z-7.674
X32.598 Z-7.692
X31.945 Z-7.698
X31.16 Z-7.694
X29.863 Z-7.683
X28.826 Z-7.71
X28.115 Z-7.721
X26.558 Z-7.737
X25.106 Z-7.772
X24.172 Z-7.787
X23.031 Z-7.806
X21.729 Z-7.82
X21.21 Z-7.808
X20.458 Z-7.814
X20.004 Z-7.808
X19.331 Z-7.834
X18.874 Z-7.831
X18.732 Z-7.808
X18.468 Z-7.735
X18.319 Z-7.702
X18.065 Z-7.678
X17.754 Z-7.686
X17.378 Z-7.703
X17.037 Z-7.677
X16.635 Z-7.648
X16.298 Z-7.656
X15.95 Z-7.682
X15.49 Z-7.755
X15.181 Z-7.776
X14.351 Z-7.791
X13.712 Z-7.747
X13.245 Z-7.756
X12.67 Z-7.759
X11.064 Z-7.74
X10.469 Z-7.735
X9.972 Z-7.703
X9.772 Z-7.714
X9.399 Z-7.759
X9.093 Z-7.748
X8.819 Z-7.712
X8.429 Z-7.632
X8.209 Z-7.569
X7.977 Z-7.497
X7.829 Z-7.464
X7.677 Z-7.45
X7.522 Z-7.459
X7.387 Z-7.485
X7.168 Z-7.562
X6.879 Z-7.7
X6.756 Z-7.734
X6.616 Z-7.738
X6.555 Z-7.687
X6.377 Z-7.48
X6.175 Z-7.25
X6.038 Z-7.131
X5.919 Z-7.057
X5.774 Z-7.006
X5.648 Z-6.996
X5.526 Z-7.02
X5.4 Z-7.084
X5.324 Z-7.145
X5.254 Z-7.213
X5.079 Z-7.435
X4.885 Z-7.697
X4.837 Z-7.744
X3.955 Z-7.722
X2.691 Z-7.713
X1.902 Z-7.741
X1.743 Z-7.721
X1.564 Z-7.634
X1.472 Z-7.587
X1.333 Z-7.533
X1.18 Z-7.503
X1.031 Z-7.504
X0.889 Z-7.534
X0.802 Z-7.566
X0.719 Z-7.605
X0.494 Z-7.725
X0.393 Z-7.701
X0.057 Z-7.57
X-0.114 Z-7.53
X-0.29 Z-7.52
X-0.493 Z-7.549
X-0.907 Z-7.679
X-1.105 Z-7.714
X-1.313 Z-7.708
X-1.632 Z-7.662
X-1.832 Z-7.612
X-2.289 Z-7.421
X-2.547 Z-7.341
X-2.779 Z-7.305
X-3.011 Z-7.306
X-3.218 Z-7.339
X-3.398 Z-7.391
X-3.599 Z-7.473
X-3.911 Z-7.617
X-4.1 Z-7.662
X-4.459 Z-7.686
X-5.714 Z-7.71
X-6.691 Z-7.711
X-7.988 Z-7.666
X-8.87 Z-7.632
X-9.551 Z-7.564
X-10.335 Z-7.497
X-11.473 Z-7.348
X-12.037 Z-7.271
X-13.42 Z-7.178
X-14.458 Z-7.168
X-15.651 Z-7.208
X-16.51 Z-7.267
X-16.878 Z-7.269
X-17.321 Z-7.242
X-17.528 Z-7.247
X-18.154 Z-7.302
X-18.827 Z-7.289
X-19.315 Z-7.297
X-20.352 Z-7.268
X-20.935 Z-7.283
X-21.635 Z-7.232
X-22.411 Z-7.208
X-23.08 Z-7.152
X-23.463 Z-7.11
X-24.083 Z-7.08
X-24.899 Z-7.001
X-25.722 Z-6.927
X-26.708 Z-6.89
X-27.097 Z-6.884
X-27.588 Z-6.903
X-28.231 Z-6.895
X-29.683 Z-6.931
X-30.383 Z-6.947
X-32.13 Z-6.976
X-33.534 Z-6.983
X-34.26 Z-6.978
X-35.09 Z-7.013
X-35.859 Z-7.051
X-36.254 Z-7.024
X-36.643 Z-6.99
X-37.058 Z-6.98
X-37.826 Z-6.984
X-39.892 Z-6.959
X-40.774 Z-6.936
X-41.129 Z-6.918
X-41.738 Z-6.93
X-42.074 Z-6.935
X-42.33 Z-6.964
X-43.467 Z-7.12
X-44.05 Z-7.207
X-45.31 Z-7.364
X-46.208 Z-7.456
X-47.064 Z-7.489
X-47.67 Z-7.485
X-48.499 Z-7.423
X-48.961 Z-7.355
X-49.248 Z-7.299
X-49.267 Z-7.291
X-49.28 Z-7.275
X-49.285 Z-7.255
Z-7.254
Y-45.475 Z-7.222
X-49.284 Y-45.454 Z-7.196
Y-45.424 Z-7.181
Y-45.391
Y-45.361 Z-7.196
Y-45.34 Z-7.222
Y-45.332 Z-7.254
X-49.279 Z-7.274
X-49.266 Z-7.29
X-49.248 Z-7.298
X-49.083 Z-7.332
X-48.633 Z-7.405
X-47.973 Z-7.468
X-47.459 Z-7.49
X-46.44 Z-7.472
X-45.876 Z-7.424
X-44.694 Z-7.289
X-43.928 Z-7.195
X-43.448 Z-7.112
X-42.357 Z-6.961
X-42.077 Z-6.93
X-41.251 Z-6.911
X-40.369 Z-6.929
X-39.918 Z-6.951
X-39.244 Z-6.955
X-38.591 Z-6.962
X-36.718 Z-6.979
X-35.858 Z-7.032
X-35.27 Z-7.012
X-34.258 Z-6.97
X-32.721 Z-6.977
X-31.618 Z-6.966
X-29.699 Z-6.929
X-28.195 Z-6.881
X-27.676 Z-6.887
X-27.315 Z-6.877
X-27.012 Z-6.864
X-26.49 Z-6.886
X-25.706 Z-6.911
X-25.39 Z-6.945
X-24.837 Z-6.99
X-24.377 Z-7.036
X-23.541 Z-7.101
X-23.095 Z-7.148
X-22.318 Z-7.21
X-21.566 Z-7.23
X-20.909 Z-7.28
X-20.39 Z-7.27
X-19.353 Z-7.305
X-18.833 Z-7.295
X-18.263 Z-7.306
X-17.653 Z-7.26
X-17.342 Z-7.251
X-16.933 Z-7.273
X-16.575 Z-7.272
X-15.716 Z-7.215
X-14.627 Z-7.166
X-13.412 Z-7.171
X-12.431 Z-7.232
X-12.019 Z-7.266
X-11.728 Z-7.306
X-10.329 Z-7.492
X-9.547 Z-7.562
X-8.966 Z-7.622
X-8.452 Z-7.648
X-7.832 Z-7.672
X-6.587 Z-7.718
X-5.713 Z-7.716
X-4.504 Z-7.695
X-4.196 Z-7.674
X-3.998 Z-7.635
X-3.804 Z-7.577
X-3.605 Z-7.495
X-3.369 Z-7.408
X-3.19 Z-7.364
X-3.084 Z-7.347
X-2.851 Z-7.339
X-2.624 Z-7.367
X-2.38 Z-7.433
X-1.909 Z-7.622
X-1.688 Z-7.682
X-1.416 Z-7.719
X-1.12 Z-7.729
X-0.91 Z-7.704
X-0.541 Z-7.594
X-0.328 Z-7.554
X-0.175 Z-7.553
X-0.002 Z-7.581
X0.386 Z-7.715
X0.482 Z-7.731
X0.715 Z-7.602
X0.874 Z-7.534
X0.996 Z-7.504
X1.126 Z-7.495
X1.269 Z-7.514
X1.439 Z-7.573
X1.735 Z-7.732
X1.837 Z-7.748
X2.148 Z-7.737
X2.765 Z-7.706
X3.907 Z-7.722
X4.761 Z-7.751
X4.821 Z-7.671
X4.997 Z-7.372
X5.173 Z-7.096
X5.286 Z-6.969
X5.401 Z-6.883
X5.51 Z-6.838
X5.63 Z-6.82
X5.738 Z-6.829
X5.872 Z-6.871
X5.985 Z-6.935
X6.141 Z-7.061
X6.31 Z-7.255
X6.527 Z-7.559
X6.662 Z-7.726
X6.679 Z-7.732
X6.76 Z-7.7
X7.032 Z-7.513
X7.229 Z-7.401
X7.415 Z-7.335
X7.586 Z-7.307
X7.771 Z-7.308
X7.922 Z-7.331
X8.067 Z-7.37
X8.208 Z-7.424
X8.475 Z-7.548
X8.773 Z-7.662
X9.037 Z-7.735
X9.253 Z-7.763
X9.4 Z-7.757
X9.576 Z-7.714
X9.755 Z-7.673
X9.903 Z-7.66
X10.055 Z-7.67
X10.267 Z-7.706
X10.526 Z-7.739
X11.013 Z-7.741
X12.897 Z-7.765
X13.116 Z-7.75
X13.427 Z-7.693
X13.621 Z-7.679
X13.825 Z-7.698
X14.203 Z-7.78
X14.363 Z-7.799
X15.049 Z-7.776
X15.342 Z-7.752
X15.815 Z-7.656
X16.059 Z-7.632
X16.366 Z-7.652
X17.019 Z-7.712
X17.323 Z-7.729
X17.749 Z-7.702
X18.044 Z-7.695
X18.315 Z-7.721
X18.678 Z-7.807
X18.875 Z-7.835
X19.37 Z-7.836
X19.765 Z-7.811
X20.017 Z-7.796
X20.582 Z-7.818
X21.11 Z-7.815
X21.629 Z-7.818
X23.906 Z-7.795
X25.047 Z-7.77
X26.604 Z-7.731
X28.004 Z-7.718
X28.67 Z-7.706
X29.863 Z-7.681
X31.471 Z-7.699
X32.759 Z-7.683
X32.957 Z-7.655
X33.09 Z-7.61
X33.796 Z-7.282
X34.062 Z-7.187
X34.365 Z-7.117
X34.608 Z-7.084
X35.436 Z-7.077
X35.887 Z-7.105
X36.225 Z-7.111
X36.691 Z-7.064
X36.925 Z-7.053
X37.701 Z-7.071
X38.687 Z-7.034
X39.386 Z-7.023
X39.887 Z-6.979
X40.173 Z-6.956
X40.594 Z-6.96
X41.035 Z-6.953
X41.865 Z-6.955
X43.006 Z-6.982
X43.616 Z-7.038
X44.56 Z-7.101
X45.332 Z-7.172
X46.318 Z-7.2
X47.218 Z-7.182
X47.995 Z-7.136
X48.578 Z-7.046
X49.273 Z-6.959
X49.293 Z-6.951
X49.308 Z-6.935
X49.313 Z-6.914
Z-6.9
X49.312 Y-45.325 Z-6.867
X49.311 Y-45.304 Z-6.841
X49.309 Y-45.274 Z-6.826
X49.307 Y-45.241
X49.305 Y-45.211 Z-6.841
X49.303 Y-45.19 Z-6.867
Y-45.182 Z-6.9
X49.298 Z-6.92
X49.284 Z-6.936
X49.264 Z-6.944
X48.468 Z-7.056
X47.975 Z-7.126
X47.355 Z-7.168
X46.421 Z-7.194
X45.283 Z-7.147
X44.457 Z-7.086
X43.729 Z-7.042
X43.197 Z-6.984
X42.791 Z-6.962
X41.809 Z-6.943
X41.01 Z-6.945
X40.541 Z-6.953
X40.152
X39.884 Z-6.973
X39.341 Z-7.02
X38.511 Z-7.039
X37.759 Z-7.061
X36.903 Z-7.048
X36.695 Z-7.059
X36.22 Z-7.111
X35.823 Z-7.107
X34.993 Z-7.068
X34.695 Z-7.073
X34.493 Z-7.1
X34.261 Z-7.164
X34.004 Z-7.26
X33.663 Z-7.426
X33.412 Z-7.553
X33.194 Z-7.634
X32.999 Z-7.668
X32.623 Z-7.684
X31.42 Z-7.697
X29.915 Z-7.68
X28.67 Z-7.696
X27.944 Z-7.715
X26.78 Z-7.723
X24.912 Z-7.769
X23.32 Z-7.803
X21.971 Z-7.813
X20.977 Z-7.82
X20.532 Z-7.814
X20.068 Z-7.778
X19.783 Z-7.786
X19.241 Z-7.834
X18.794
X18.549 Z-7.803
X18.179 Z-7.741
X17.896 Z-7.726
X17.618 Z-7.741
X17.226 Z-7.769
X17.003 Z-7.759
X16.627 Z-7.704
X16.374 Z-7.643
X16.148 Z-7.6
X15.951 Z-7.599
X15.718 Z-7.641
X15.347 Z-7.737
X15.122 Z-7.77
X14.416 Z-7.804
X14.327 Z-7.789
X14.159 Z-7.712
X14.006 Z-7.638
X13.913 Z-7.601
X13.817 Z-7.573
X13.718 Z-7.554
X13.578 Z-7.546
X13.513 Z-7.551
X13.422 Z-7.566
X13.333 Z-7.591
X13.181 Z-7.652
X12.966 Z-7.751
X12.844 Z-7.768
X11.049 Z-7.744
X10.516 Z-7.741
X10.393 Z-7.719
X10.142 Z-7.626
X9.971 Z-7.586
X9.819 Z-7.581
X9.652 Z-7.614
X9.564 Z-7.644
X9.294 Z-7.756
X9.215 Z-7.761
X9.045 Z-7.729
X8.849 Z-7.655
X8.615 Z-7.531
X8.301 Z-7.329
X8.189 Z-7.276
X8.096 Z-7.241
X7.897 Z-7.197
X7.669 Z-7.184
X7.466 Z-7.205
X7.278 Z-7.262
X7.152 Z-7.325
X7.072 Z-7.374
X6.927 Z-7.486
X6.676 Z-7.705
X6.531 Z-7.497
X6.349 Z-7.218
X6.219 Z-7.046
X6.059 Z-6.885
X5.898 Z-6.773
X5.764 Z-6.716
X5.615 Z-6.692
X5.476 Z-6.711
X5.37 Z-6.753
X5.241 Z-6.846
X5.115 Z-7.001
X5.029 Z-7.143
X4.749 Z-7.684
X4.702 Z-7.751
X3.764 Z-7.716
X2.824 Z-7.699
X2.41 Z-7.719
X1.803 Z-7.754
X1.714 Z-7.737
X1.488 Z-7.609
X1.399 Z-7.567
X1.257 Z-7.522
X1.107 Z-7.505
X1.003 Z-7.513
X0.912 Z-7.531
X0.74 Z-7.597
X0.488 Z-7.734
X0.37 Z-7.722
X-0.048 Z-7.614
X-0.243 Z-7.597
X-0.444 Z-7.618
X-0.852 Z-7.72
X-1.079 Z-7.742
X-1.487 Z-7.739
X-1.753 Z-7.715
X-1.961 Z-7.67
X-2.492 Z-7.482
X-2.751 Z-7.425
X-2.987 Z-7.412
X-3.085 Z-7.418
X-3.266 Z-7.445
X-3.6 Z-7.531
X-3.778 Z-7.575
X-4.041 Z-7.615
X-4.409 Z-7.688
X-4.769 Z-7.707
X-5.765 Z-7.722
X-6.585
X-7.779 Z-7.674
X-8.249 Z-7.648
X-8.906 Z-7.621
X-9.58 Z-7.556
X-10.258 Z-7.493
X-11.093 Z-7.382
X-12.07 Z-7.254
X-12.429 Z-7.223
X-13.302 Z-7.17
X-13.95 Z-7.165
X-14.8
X-15.821 Z-7.225
X-16.626 Z-7.277
X-17.036 Z-7.275
X-17.503 Z-7.258
X-17.762 Z-7.266
X-18.3 Z-7.304
X-18.886 Z-7.301
X-19.408 Z-7.311
X-20.459 Z-7.274
X-20.943 Z-7.272
X-21.435 Z-7.231
X-21.902 Z-7.216
X-22.369 Z-7.202
X-23.324 Z-7.12
X-23.919 Z-7.065
X-24.868 Z-6.973
X-25.363 Z-6.934
X-25.697 Z-6.896
X-26.475 Z-6.871
X-26.908 Z-6.848
X-27.245 Z-6.856
X-27.633 Z-6.873
X-28.284 Z-6.867
X-29.062 Z-6.893
X-30.099 Z-6.935
X-31.344 Z-6.964
X-33.134 Z-6.968
X-34.223 Z-6.959
X-35.001 Z-6.987
X-35.676 Z-7.012
X-36.16 Z-6.993
X-36.882 Z-6.966
X-38.438 Z-6.943
X-39.09
X-39.505 Z-6.939
X-39.868 Z-6.94
X-40.315 Z-6.91
X-41.419 Z-6.903
X-42.041 Z-6.921
X-42.28 Z-6.942
X-42.743 Z-7.006
X-43.428 Z-7.102
X-43.986 Z-7.201
X-44.743 Z-7.291
X-45.632 Z-7.395
X-46.445 Z-7.474
X-47.618 Z-7.485
X-48.125 Z-7.456
X-48.864 Z-7.367
X-49.251 Z-7.296
X-49.27 Z-7.288
X-49.283 Z-7.272
X-49.288 Z-7.252
Z-7.25
Y-45.175 Z-7.218
X-49.289 Y-45.154 Z-7.192
X-49.29 Y-45.124 Z-7.177
X-49.292 Y-45.091
X-49.293 Y-45.061 Z-7.192
X-49.294 Y-45.04 Z-7.218
Y-45.032 Z-7.25
X-49.289 Z-7.271
X-49.276 Z-7.287
X-49.256 Z-7.295
X-48.968 Z-7.344
X-48.13 Z-7.453
X-47.671 Z-7.479
X-46.456 Z-7.471
X-45.771 Z-7.407
X-44.973 Z-7.315
X-44.026 Z-7.196
X-43.456 Z-7.099
X-42.421 Z-6.947
X-42.047 Z-6.91
X-41.636 Z-6.89
X-40.307 Z-6.892
X-39.917 Z-6.919
X-39.662 Z-6.926
X-39.143 Z-6.924
X-38.433 Z-6.925
X-36.54 Z-6.958
X-35.575 Z-6.993
X-35.056 Z-6.976
X-34.226 Z-6.948
X-32.93 Z-6.961
X-31.128 Z-6.96
X-29.676 Z-6.912
X-29.009 Z-6.877
X-28.445 Z-6.851
X-27.659 Z-6.858
X-27.187 Z-6.836
X-26.876 Z-6.832
X-26.32 Z-6.867
X-25.794 Z-6.877
X-25.576 Z-6.893
X-25.294 Z-6.927
X-24.845 Z-6.961
X-24.122 Z-7.032
X-23.421 Z-7.102
X-22.351 Z-7.198
X-21.839 Z-7.214
X-21.372 Z-7.233
X-20.936 Z-7.271
X-20.55 Z-7.28
X-19.357 Z-7.317
X-18.855 Z-7.304
X-18.384 Z-7.3
X-17.936 Z-7.273
X-17.644 Z-7.262
X-16.937 Z-7.285
X-16.574 Z-7.277
X-15.619 Z-7.212
X-14.807 Z-7.162
X-13.439 Z-7.161
X-12.485 Z-7.21
X-12.127 Z-7.242
X-11.361 Z-7.34
X-10.516 Z-7.458
X-9.682 Z-7.543
X-9.087 Z-7.597
X-8.491 Z-7.635
X-7.876 Z-7.665
X-6.532 Z-7.724
X-5.763 Z-7.725
X-4.726 Z-7.711
X-4.527 Z-7.684
X-4.221 Z-7.592
X-3.997 Z-7.547
X-3.838 Z-7.538
X-3.552 Z-7.564
X-3.132 Z-7.523
X-2.892 Z-7.528
X-2.624 Z-7.572
X-2.243 Z-7.679
X-2.031 Z-7.732
X-1.82 Z-7.754
X-1.16 Z-7.756
X-0.8 Z-7.736
X-0.521 Z-7.685
X-0.287 Z-7.653
X-0.081 Z-7.658
X0.395 Z-7.738
X0.495 Z-7.74
X0.714 Z-7.629
X0.798 Z-7.591
X0.919 Z-7.55
X1.079 Z-7.526
X1.23 Z-7.537
X1.396 Z-7.587
X1.711 Z-7.742
X1.794 Z-7.752
X2.814 Z-7.697
X3.592 Z-7.706
X4.653 Z-7.743
X4.718 Z-7.645
X4.994 Z-7.063
X5.096 Z-6.89
X5.195 Z-6.77
X5.286 Z-6.692
X5.385 Z-6.642
X5.501 Z-6.608
X5.646 Z-6.609
X5.767 Z-6.638
X5.899 Z-6.7
X6.053 Z-6.818
X6.159 Z-6.926
X6.314 Z-7.128
X6.656 Z-7.669
X6.78 Z-7.542
X6.94 Z-7.385
X7.032 Z-7.311
X7.201 Z-7.209
X7.34 Z-7.154
X7.428 Z-7.13
X7.519 Z-7.113
X7.601 Z-7.103
X7.871 Z-7.097
X8.07 Z-7.126
X8.212 Z-7.173
X8.302 Z-7.216
X8.405 Z-7.281
X8.729 Z-7.546
X8.864 Z-7.64
X9.02 Z-7.716
X9.144 Z-7.748
X9.204 Z-7.736
X9.464 Z-7.603
X9.549 Z-7.564
X9.682 Z-7.52
X9.83 Z-7.498
X9.983 Z-7.51
X10.15 Z-7.561
X10.468 Z-7.73
X10.525 Z-7.746
X10.784 Z-7.75
X11.874 Z-7.756
X12.549 Z-7.77
X12.807 Z-7.769
X12.87 Z-7.748
X13.076 Z-7.613
X13.259 Z-7.508
X13.428 Z-7.451
X13.589 Z-7.43
X13.729 Z-7.44
X13.826 Z-7.462
X13.967 Z-7.512
X14.1 Z-7.583
X14.335 Z-7.739
X14.431 Z-7.794
X14.501 Z-7.806
X14.819 Z-7.794
X15.179 Z-7.767
X15.34 Z-7.736
X15.757 Z-7.607
X15.914 Z-7.575
X16.07 Z-7.564
X16.222 Z-7.58
X16.32 Z-7.602
X16.417 Z-7.632
X16.703 Z-7.743
X16.904 Z-7.793
X17.153 Z-7.811
X17.519 Z-7.783
X17.767 Z-7.765
X18.027 Z-7.772
X18.411 Z-7.816
X18.815 Z-7.838
X19.145 Z-7.83
X19.553 Z-7.764
X19.799 Z-7.742
X20.039 Z-7.747
X20.441 Z-7.8
X20.688 Z-7.819
X22.037 Z-7.807
X23.37 Z-7.802
X26.949 Z-7.715
X27.894 Z-7.711
X28.672 Z-7.686
X29.963 Z-7.677
X31.467 Z-7.698
X32.582 Z-7.681
X33.257 Z-7.658
X33.389 Z-7.636
X33.527 Z-7.586
X34.102 Z-7.277
X34.334 Z-7.172
X34.509 Z-7.117
X34.677 Z-7.084
X34.949 Z-7.065
X35.233 Z-7.08
X35.698 Z-7.112
X36.186 Z-7.11
X36.611 Z-7.062
X36.912 Z-7.042
X37.889 Z-7.053
X39.238 Z-7.019
X39.825 Z-6.976
X40.125 Z-6.954
X40.931 Z-6.942
X41.709 Z-6.93
X42.176 Z-6.935
X42.954 Z-6.955
X43.356 Z-6.982
X43.801 Z-7.036
X44.975 Z-7.109
X46.416 Z-7.178
X47.416 Z-7.156
X47.983 Z-7.113
X48.531 Z-7.039
X49.26 Z-6.927
X49.279 Z-6.919
X49.293 Z-6.903
X49.298 Z-6.882
Z-6.851
Y-45.026 Z-6.809
X49.296 Y-45.007 Z-6.771
X49.295 Y-44.977 Z-6.741
X49.293 Y-44.939 Z-6.722
X49.291 Y-44.898 Z-6.716
X49.289 Y-44.867
X49.287 Y-44.826 Z-6.722
X49.285 Y-44.788 Z-6.741
X49.283 Y-44.758 Z-6.771
X49.282 Y-44.739 Z-6.809
Y-44.732 Z-6.851
X49.277 Z-6.871
X49.264 Z-6.886
X49.245 Z-6.895
X48.596 Z-7.018
X47.949 Z-7.091
X47.346 Z-7.133
X45.996 Z-7.128
X45.488 Z-7.097
X44.564 Z-7.058
X43.907 Z-7.005
X43.468 Z-6.949
X43.157 Z-6.93
X42.431 Z-6.915
X41.86 Z-6.896
X41.393 Z-6.911
X40.565 Z-6.941
X39.943 Z-6.964
X39.128 Z-7.01
X38.273 Z-7.038
X37.14 Z-7.017
X36.83 Z-7.029
X36.403 Z-7.067
X35.737 Z-7.118
X35.529 Z-7.124
X35.068 Z-7.09
X34.892 Z-7.104
X34.696 Z-7.148
X34.471 Z-7.226
X34.322 Z-7.298
X34.114 Z-7.418
X33.807 Z-7.599
X33.655 Z-7.651
X33.516 Z-7.668
X32.4 Z-7.676
X31.57 Z-7.701
X30.792 Z-7.678
X29.807 Z-7.673
X28.629 Z-7.667
X28.215 Z-7.686
X27.803 Z-7.701
X27.076 Z-7.703
X23.366 Z-7.794
X21.188 Z-7.812
X20.689 Z-7.818
X20.489 Z-7.794
X20.218 Z-7.727
X20.031 Z-7.691
X19.814 Z-7.675
X19.616 Z-7.686
X19.525 Z-7.7
X19.333 Z-7.748
X19.056 Z-7.828
X18.853 Z-7.84
X18.072 Z-7.801
X17.703 Z-7.8
X17.142 Z-7.828
X16.98 Z-7.809
X16.793 Z-7.75
X16.398 Z-7.592
X16.203 Z-7.547
X16.021 Z-7.539
X15.882 Z-7.559
X15.792 Z-7.582
X15.619 Z-7.644
X15.45 Z-7.713
X15.354 Z-7.742
X15.155 Z-7.773
X14.691 Z-7.783
X14.565 Z-7.775
X14.487 Z-7.746
X14.146 Z-7.486
X13.976 Z-7.389
X13.813 Z-7.332
X13.639 Z-7.308
X13.49 Z-7.317
X13.333 Z-7.356
X13.175 Z-7.432
X12.997 Z-7.562
X12.774 Z-7.752
X12.725 Z-7.776
X12.544 Z-7.779
X11.87 Z-7.763
X10.836 Z-7.759
X10.573 Z-7.762
X10.525 Z-7.739
X10.252 Z-7.538
X10.097 Z-7.461
X9.952 Z-7.42
X9.802 Z-7.408
X9.633 Z-7.428
X9.434 Z-7.496
X9.291 Z-7.566
X9.005 Z-7.726
X8.915 Z-7.669
X8.769 Z-7.519
X8.578 Z-7.305
X8.425 Z-7.17
X8.287 Z-7.086
X8.137 Z-7.031
X7.962 Z-7.008
X7.739 Z-7.015
X7.388 Z-7.066
X7.188 Z-7.131
X7.004 Z-7.231
X6.795 Z-7.384
X6.607 Z-7.501
X6.528 Z-7.566
X6.174 Z-6.962
X6.035 Z-6.774
X5.935 Z-6.673
X5.858 Z-6.613
X5.715 Z-6.545
X5.631 Z-6.522
X5.504 Z-6.518
X5.387 Z-6.535
X5.298 Z-6.569
X5.159 Z-6.666
X5.076 Z-6.758
X4.992 Z-6.882
X4.898 Z-7.064
X4.662 Z-7.591
X4.594 Z-7.694
X4.56 Z-7.724
X4.432 Z-7.734
X3.733 Z-7.701
X2.942 Z-7.7
X2.188 Z-7.737
X1.796 Z-7.731
X1.636 Z-7.708
X1.428 Z-7.643
X1.278 Z-7.604
X1.106 Z-7.588
X1.028 Z-7.594
X0.893 Z-7.619
X0.656 Z-7.706
X0.537 Z-7.75
X0.437 Z-7.758
X-0.195 Z-7.727
X-1.362 Z-7.757
X-2.192 Z-7.774
X-2.628
X-2.94 Z-7.754
X-3.132 Z-7.722
X-3.239 Z-7.678
X-3.434 Z-7.567
X-3.582 Z-7.497
X-3.713 Z-7.457
X-3.812 Z-7.439
X-3.939 Z-7.432
X-4.108 Z-7.449
X-4.284 Z-7.498
X-4.369 Z-7.532
X-4.705 Z-7.698
X-4.8 Z-7.721
X-5.572 Z-7.722
X-6.733 Z-7.708
X-7.874 Z-7.659
X-9.037 Z-7.588
X-10.32 Z-7.47
X-10.965 Z-7.389
X-11.548 Z-7.305
X-12.335 Z-7.211
X-12.646 Z-7.193
X-13.165 Z-7.176
X-13.566 Z-7.152
X-14.137 Z-7.15
X-14.863 Z-7.161
X-15.718 Z-7.219
X-16.369 Z-7.268
X-16.985 Z-7.292
X-17.739 Z-7.262
X-18.021 Z-7.272
X-18.582 Z-7.296
X-18.836 Z-7.307
X-19.245 Z-7.328
X-19.94 Z-7.313
X-20.718 Z-7.298
X-21.562 Z-7.228
X-22.234 Z-7.193
X-23.169 Z-7.102
X-23.638 Z-7.043
X-24.732 Z-6.939
X-25.663 Z-6.856
X-26.332 Z-6.838
X-26.828 Z-6.802
X-27.159
X-27.72 Z-6.83
X-28.452 Z-6.818
X-28.753 Z-6.835
X-29.302 Z-6.876
X-29.977 Z-6.898
X-30.904 Z-6.948
X-31.835 Z-6.957
X-32.976 Z-6.944
X-33.635 Z-6.938
X-34.206 Z-6.925
X-35.087 Z-6.948
X-35.452 Z-6.96
X-36.06 Z-6.917
X-36.537 Z-6.914
X-37.265 Z-6.913
X-38.639 Z-6.889
X-39.821 Z-6.882
X-40.284 Z-6.858
X-40.906 Z-6.856
X-41.424 Z-6.847
X-41.989 Z-6.873
X-42.321 Z-6.901
X-42.593 Z-6.937
X-43.264 Z-7.049
X-45.185 Z-7.324
X-45.566 Z-7.384
X-46.216 Z-7.433
X-46.625 Z-7.46
X-47.718 Z-7.462
X-48.173 Z-7.437
X-48.727 Z-7.361
X-49.13 Z-7.308
X-49.283 Z-7.29
X-49.303 Z-7.282
X-49.318 Z-7.266
X-49.323 Z-7.245
Z-7.24
Y-44.725 Z-7.207
X-49.324 Y-44.704 Z-7.181
Y-44.674 Z-7.167
X-49.325 Y-44.641
Y-44.611 Z-7.181
X-49.326 Y-44.59 Z-7.207
Y-44.582 Z-7.24
X-49.321 Z-7.261
X-49.306 Z-7.277
X-49.286 Z-7.284
X-48.959 Z-7.322
X-48.487 Z-7.392
X-48.066 Z-7.437
X-47.495 Z-7.455
X-46.623 Z-7.451
X-45.562 Z-7.374
X-45.001 Z-7.282
X-43.372 Z-7.048
X-42.602 Z-6.913
X-42.341 Z-6.879
X-41.938 Z-6.849
X-41.264 Z-6.822
X-40.797 Z-6.838
X-40.349 Z-6.841
X-39.936 Z-6.857
X-39.251 Z-6.869
X-38.611
X-37.106 Z-6.899
X-36.415 Z-6.888
X-35.997 Z-6.893
X-35.441 Z-6.942
X-35.091 Z-6.932
X-34.158 Z-6.911
X-33.535 Z-6.937
X-32.911 Z-6.935
X-31.615 Z-6.953
X-30.849 Z-6.943
X-29.884 Z-6.883
X-29.261 Z-6.861
X-28.754 Z-6.828
X-28.433 Z-6.806
X-27.769 Z-6.815
X-27.235 Z-6.787
X-26.898 Z-6.782
X-26.445 Z-6.811
X-25.671 Z-6.838
X-24.61 Z-6.929
X-23.5 Z-7.04
X-23.118 Z-7.097
X-22.674 Z-7.14
X-22.237 Z-7.184
X-21.585 Z-7.232
X-21.141 Z-7.268
X-20.55 Z-7.314
X-19.866 Z-7.317
X-19.189 Z-7.331
X-18.841 Z-7.311
X-18.128 Z-7.278
X-17.82 Z-7.262
X-16.985 Z-7.297
X-16.363 Z-7.271
X-15.664 Z-7.213
X-14.807 Z-7.157
X-14.08 Z-7.143
X-13.562 Z-7.151
X-13.063 Z-7.188
X-12.564 Z-7.194
X-12.34 Z-7.209
X-11.72 Z-7.281
X-10.859 Z-7.402
X-9.315 Z-7.564
X-8.006 Z-7.646
X-6.871 Z-7.696
X-4.84 Z-7.729
X-4.747 Z-7.708
X-4.464 Z-7.548
X-4.264 Z-7.458
X-4.074 Z-7.411
X-3.902 Z-7.401
X-3.745 Z-7.421
X-3.607 Z-7.463
X-3.517 Z-7.503
X-3.452 Z-7.537
X-3.272 Z-7.657
X-3.111 Z-7.759
X-3.034 Z-7.773
X-0.447 Z-7.739
X0.368 Z-7.755
X0.573 Z-7.745
X0.757 Z-7.693
X0.935 Z-7.645
X1.055 Z-7.628
X1.244 Z-7.631
X1.535 Z-7.689
X1.74 Z-7.721
X2.255 Z-7.739
X2.646 Z-7.722
X3.057 Z-7.703
X3.783
X4.399 Z-7.734
X4.518 Z-7.72
X4.587 Z-7.653
X4.681 Z-7.495
X4.898 Z-7.02
X5.018 Z-6.81
X5.145 Z-6.662
X5.286 Z-6.567
X5.396 Z-6.525
X5.5 Z-6.512
X5.661 Z-6.529
X5.752 Z-6.562
X5.875 Z-6.636
X5.984 Z-6.743
X6.11 Z-6.92
X6.426 Z-7.501
X6.512 Z-7.415
X6.659 Z-7.305
X6.8 Z-7.249
X6.991 Z-7.229
X7.091 Z-7.179
X7.29 Z-7.103
X7.523 Z-7.055
X7.897 Z-7.007
X8.073 Z-7.016
X8.206 Z-7.048
X8.332 Z-7.103
X8.451 Z-7.181
X8.58 Z-7.299
X8.872 Z-7.647
X8.954 Z-7.722
X9.085 Z-7.639
X9.245 Z-7.545
X9.331 Z-7.506
X9.528 Z-7.44
X9.727 Z-7.407
X9.896 Z-7.411
X10.065 Z-7.452
X10.229 Z-7.532
X10.516 Z-7.743
X10.567 Z-7.768
X10.836 Z-7.765
X11.822 Z-7.764
X12.594 Z-7.782
X12.734 Z-7.776
X12.77 Z-7.756
X12.946 Z-7.602
X13.122 Z-7.462
X13.281 Z-7.372
X13.456 Z-7.317
X13.616 Z-7.302
X13.766 Z-7.314
X13.933 Z-7.362
X14.1 Z-7.443
X14.346 Z-7.616
X14.485 Z-7.71
X14.553 Z-7.729
X14.766 Z-7.739
X15.24 Z-7.723
X15.465 Z-7.693
X15.625 Z-7.645
X15.867 Z-7.571
X16.059 Z-7.547
X16.185 Z-7.554
X16.285 Z-7.57
X16.382 Z-7.595
X16.479 Z-7.626
X16.786 Z-7.747
X17.007 Z-7.811
X17.106 Z-7.822
X17.301
X17.916 Z-7.766
X18.199 Z-7.756
X18.352 Z-7.767
X18.722 Z-7.826
X18.958 Z-7.839
X19.111 Z-7.814
X19.394 Z-7.725
X19.627 Z-7.678
X19.84 Z-7.668
X20.069 Z-7.689
X20.217 Z-7.72
X20.494 Z-7.794
X20.686 Z-7.819
X21.26 Z-7.808
X23.283 Z-7.791
X25.604 Z-7.74
X27.225 Z-7.699
X27.777 Z-7.694
X28.659 Z-7.66
X29.229 Z-7.669
X31 Z-7.676
X31.465 Z-7.698
X31.996 Z-7.687
X33.081 Z-7.665
X33.44 Z-7.667
X33.684 Z-7.66
X33.848 Z-7.629
X33.978 Z-7.575
X34.468 Z-7.299
X34.683 Z-7.202
X34.852 Z-7.149
X35.045 Z-7.118
X35.518 Z-7.12
X36.075 Z-7.077
X36.696 Z-7.027
X37.145 Z-6.999
X37.508 Z-7.006
X38.489 Z-7.027
X39.371 Z-6.988
X40.511 Z-6.934
X41.438 Z-6.891
X41.905 Z-6.879
X42.424 Z-6.897
X43.072 Z-6.913
X43.461 Z-6.93
X44.027 Z-6.995
X44.828 Z-7.055
X45.45 Z-7.078
X45.956 Z-7.11
X46.81 Z-7.113
X47.393 Z-7.112
X48.172 Z-7.06
X48.654 Z-7.002
X49.242 Z-6.882
X49.26 Z-6.874
X49.273 Z-6.858
X49.278 Z-6.838
Z-6.83
Y-44.575 Z-6.797
X49.277 Y-44.554 Z-6.771
Y-44.524 Z-6.757
X49.276 Y-44.491
Y-44.461 Z-6.771
X49.275 Y-44.44 Z-6.797
Y-44.432 Z-6.83
X49.27 Z-6.85
X49.258 Z-6.865
X49.239 Z-6.874
X48.752 Z-6.978
X48.36 Z-7.033
X47.793 Z-7.072
X47.016 Z-7.102
X46.295 Z-7.094
X45.932 Z-7.093
X45.441 Z-7.063
X44.802 Z-7.033
X43.887 Z-6.959
X43.409 Z-6.913
X42.89 Z-6.895
X41.904 Z-6.862
X41.334 Z-6.879
X39.885 Z-6.947
X38.496 Z-7.014
X37.562 Z-6.994
X37.201 Z-6.978
X36.941 Z-6.993
X36.443 Z-7.028
X36.143 Z-7.048
X35.295 Z-7.129
X34.984 Z-7.166
X34.808 Z-7.214
X34.668 Z-7.27
X34.544 Z-7.334
X34.186 Z-7.537
X34.048 Z-7.597
X33.878 Z-7.64
X33.676 Z-7.66
X32.952 Z-7.669
X32.433 Z-7.678
X31.463 Z-7.696
X30.897 Z-7.672
X29.387 Z-7.673
X28.713 Z-7.654
X25.963 Z-7.735
X24.615 Z-7.759
X22.799 Z-7.793
X21.295 Z-7.806
X20.683 Z-7.821
X20.58 Z-7.813
X20.214 Z-7.723
X20.065 Z-7.694
X19.836 Z-7.678
X19.617 Z-7.694
X19.437 Z-7.73
X19.065 Z-7.831
X18.965 Z-7.839
X18.871 Z-7.833
X18.69 Z-7.796
X18.455 Z-7.731
X18.256 Z-7.699
X18.05 Z-7.7
X17.907 Z-7.717
X17.437 Z-7.804
X17.234 Z-7.822
X17.061 Z-7.818
X16.879 Z-7.785
X16.617 Z-7.701
X16.339 Z-7.609
X16.14 Z-7.576
X15.946 Z-7.58
X15.545 Z-7.646
X14.992 Z-7.692
X14.638 Z-7.694
X14.504 Z-7.677
X14.405 Z-7.638
X14.079 Z-7.449
X13.893 Z-7.37
X13.733 Z-7.334
X13.567 Z-7.329
X13.393 Z-7.361
X13.232 Z-7.426
X13.057 Z-7.54
X12.785 Z-7.765
X12.752 Z-7.78
X12.545 Z-7.778
X11.56 Z-7.763
X10.73 Z-7.774
X10.553
X10.508 Z-7.762
X10.187 Z-7.545
X10.099 Z-7.501
X10.007 Z-7.466
X9.885 Z-7.436
X9.706 Z-7.422
X9.504 Z-7.436
X9.325 Z-7.48
X9.156 Z-7.56
X9.001 Z-7.662
X8.911 Z-7.725
X8.78 Z-7.572
X8.668 Z-7.429
X8.604 Z-7.355
X8.5 Z-7.249
X8.383 Z-7.158
X8.253 Z-7.09
X8.085 Z-7.045
X7.919 Z-7.041
X7.712 Z-7.07
X7.287 Z-7.146
X7.157 Z-7.177
X7.024 Z-7.136
X6.874 Z-7.121
X6.77 Z-7.136
X6.648 Z-7.179
X6.523 Z-7.263
X6.389 Z-7.402
X6.335 Z-7.469
X6.092 Z-6.972
X6 Z-6.822
X5.912 Z-6.714
X5.799 Z-6.621
X5.715 Z-6.576
X5.573 Z-6.541
X5.472 Z-6.536
X5.369 Z-6.555
X5.223 Z-6.623
X5.128 Z-6.697
X5.016 Z-6.824
X4.902 Z-7.008
X4.675 Z-7.47
X4.579 Z-7.623
X4.494 Z-7.712
X4.441 Z-7.734
X4.268
X3.74 Z-7.707
X2.91 Z-7.713
X2.257 Z-7.74
X1.664 Z-7.716
X1.215 Z-7.665
X1.013 Z-7.67
X0.785 Z-7.707
X0.584 Z-7.737
X-0.187 Z-7.742
X-1.016 Z-7.749
X-2.416 Z-7.761
X-3.05 Z-7.779
X-3.104 Z-7.77
X-3.418 Z-7.549
X-3.503 Z-7.499
X-3.592 Z-7.457
X-3.723 Z-7.413
X-3.899 Z-7.387
X-4.064 Z-7.394
X-4.244 Z-7.436
X-4.441 Z-7.521
X-4.774 Z-7.719
X-4.821 Z-7.732
X-5.003 Z-7.735
X-6.455 Z-7.701
X-7.078 Z-7.681
X-8.113 Z-7.634
X-9.238 Z-7.568
X-10.406 Z-7.444
X-11.146 Z-7.363
X-11.719 Z-7.279
X-12.324 Z-7.209
X-12.555 Z-7.194
X-12.97 Z-7.196
X-13.459 Z-7.156
X-13.991 Z-7.139
X-14.659 Z-7.147
X-15.619 Z-7.208
X-16.357 Z-7.274
X-17.032 Z-7.302
X-17.498 Z-7.279
X-17.748 Z-7.265
X-18.078 Z-7.277
X-18.613 Z-7.307
X-19.177 Z-7.334
X-19.873 Z-7.321
X-20.501 Z-7.322
X-20.951 Z-7.288
X-21.391 Z-7.249
X-22.036 Z-7.198
X-22.592 Z-7.136
X-22.996 Z-7.104
X-23.467 Z-7.029
X-23.773 Z-7
X-24.151 Z-6.96
X-24.595 Z-6.908
X-25.689 Z-6.818
X-26.673 Z-6.778
X-27.03 Z-6.76
X-27.39 Z-6.774
X-27.902 Z-6.798
X-28.38 Z-6.794
X-28.626 Z-6.811
X-29.029 Z-6.841
X-29.755 Z-6.867
X-30.748 Z-6.937
X-31.561 Z-6.95
X-32.857 Z-6.928
X-33.536 Z-6.931
X-34.144 Z-6.897
X-35.13 Z-6.917
X-35.418 Z-6.922
X-35.899 Z-6.874
X-36.262 Z-6.862
X-37.167 Z-6.881
X-38.568 Z-6.848
X-39.094 Z-6.851
X-39.665 Z-6.846
X-40.487 Z-6.822
X-41.254 Z-6.796
X-42.136 Z-6.835
X-42.424 Z-6.86
X-42.695 Z-6.901
X-43.464 Z-7.042
X-44.821 Z-7.238
X-45.573 Z-7.359
X-46.481 Z-7.435
X-47.075 Z-7.448
X-47.905 Z-7.435
X-48.395 Z-7.399
X-49.16 Z-7.291
X-49.285 Z-7.276
X-49.301 Y-44.431 Z-7.273
X-49.317 Y-44.425 Z-7.27
X-49.331 Y-44.416 Z-7.268
X-49.343 Y-44.404 Z-7.265
X-49.351 Y-44.39 Z-7.263
X-49.357 Y-44.374 Z-7.261
X-49.358 Y-44.357 Z-7.26
X-49.356 Y-44.341 Z-7.259
X-49.351 Y-44.325 Z-7.258
X-49.342 Y-44.311 Z-7.259
X-49.33 Y-44.299 Z-7.26
X-49.315 Y-44.29 Z-7.261
X-49.3 Y-44.284 Z-7.263
X-49.283 Y-44.282 Z-7.265
X-49.279 Z-7.266
X-48.498 Z-7.38
X-47.805 Z-7.428
X-46.849 Z-7.437
X-46.201 Z-7.405
X-45.564 Z-7.341
X-44.892 Z-7.233
X-43.626 Z-7.044
X-42.937 Z-6.918
X-42.577 Z-6.851
X-42.384 Z-6.827
X-42.145 Z-6.807
X-41.159 Z-6.765
X-40.855 Z-6.779
X-39.977 Z-6.82
X-39.56 Z-6.823
X-39.093 Z-6.83
X-38.626 Z-6.828
X-37.848 Z-6.839
X-37.122 Z-6.86
X-36.349 Z-6.843
X-35.934 Z-6.849
X-35.411 Z-6.897
X-35.144
X-34.133 Z-6.884
X-33.481 Z-6.923
X-32.703 Z-6.921
X-31.561 Z-6.945
X-30.683 Z-6.933
X-30.055 Z-6.881
X-29.465 Z-6.84
X-28.946 Z-6.828
X-28.433 Z-6.787
X-27.955 Z-6.778
X-27.341 Z-6.747
X-27.03 Z-6.739
X-26.673 Z-6.759
X-25.973 Z-6.779
X-24.772 Z-6.874
X-24.414 Z-6.907
X-24.032 Z-6.964
X-23.641 Z-6.998
X-23.439 Z-7.02
X-23.014 Z-7.093
X-22.463 Z-7.14
X-21.889 Z-7.209
X-21.338 Z-7.249
X-20.5 Z-7.326
X-19.921 Z-7.324
X-19.228 Z-7.335
X-18.554 Z-7.314
X-18.003 Z-7.275
X-17.744 Z-7.27
X-17.403 Z-7.296
X-17.104 Z-7.309
X-16.533 Z-7.287
X-15.692 Z-7.215
X-14.874 Z-7.157
X-14.323 Z-7.132
X-13.447 Z-7.155
X-12.997 Z-7.195
X-12.547 Z-7.193
X-12.23 Z-7.214
X-11.725 Z-7.275
X-11.062 Z-7.374
X-10.285 Z-7.448
X-9.7 Z-7.517
X-9.043 Z-7.581
X-6.919 Z-7.686
X-6.323 Z-7.697
X-4.896 Z-7.743
X-4.78 Z-7.728
X-4.517 Z-7.573
X-4.311 Z-7.468
X-4.157 Z-7.417
X-3.969 Z-7.391
X-3.803 Z-7.401
X-3.644 Z-7.439
X-3.508 Z-7.499
X-3.423 Z-7.548
X-3.112 Z-7.766
X-3.053 Z-7.776
X-2.675 Z-7.76
X-1.69 Z-7.751
X0.521 Z-7.729
X0.874 Z-7.712
X1.175 Z-7.696
X1.582 Z-7.718
X2.281 Z-7.74
X2.8 Z-7.722
X3.785 Z-7.716
X4.327 Z-7.745
X4.434 Z-7.735
X4.515 Z-7.671
X4.578 Z-7.597
X4.681 Z-7.44
X4.906 Z-7.028
X5.042 Z-6.833
X5.159 Z-6.716
X5.261 Z-6.647
X5.371 Z-6.609
X5.49 Z-6.589
X5.589 Z-6.598
X5.729 Z-6.649
X5.825 Z-6.711
X5.956 Z-6.852
X6.068 Z-7.039
X6.264 Z-7.463
X6.372 Z-7.313
X6.507 Z-7.172
X6.604 Z-7.106
X6.712 Z-7.06
X6.861 Z-7.034
X6.985 Z-7.047
X7.103 Z-7.082
X7.219 Z-7.142
X7.316 Z-7.207
X7.564 Z-7.183
X7.721 Z-7.148
X7.891 Z-7.111
X7.981 Z-7.102
X8.109 Z-7.109
X8.241 Z-7.141
X8.379 Z-7.208
X8.5 Z-7.3
X8.569 Z-7.366
X8.876 Z-7.735
X9.121 Z-7.561
X9.287 Z-7.479
X9.398 Z-7.446
X9.531 Z-7.429
X9.706 Z-7.438
X9.904 Z-7.482
X10.046 Z-7.535
X10.137 Z-7.579
X10.353 Z-7.707
X10.469 Z-7.764
X10.547 Z-7.777
X11.41 Z-7.763
X12.396 Z-7.77
X12.701 Z-7.786
X12.8 Z-7.783
X12.837 Z-7.764
X13.019 Z-7.631
X13.214 Z-7.499
X13.385 Z-7.425
X13.546 Z-7.389
X13.681 Z-7.383
X13.731 Z-7.37
X13.856 Z-7.361
X13.98 Z-7.381
X14.142 Z-7.444
X14.433 Z-7.617
X14.53 Z-7.652
X14.69 Z-7.669
X15.029 Z-7.662
X15.326 Z-7.626
X15.595 Z-7.599
X15.882 Z-7.608
X16.146 Z-7.614
X16.335 Z-7.646
X16.875 Z-7.789
X17.058 Z-7.818
X17.237 Z-7.82
X17.437 Z-7.789
X17.799 Z-7.688
X17.933 Z-7.659
X18.134 Z-7.638
X18.287 Z-7.645
X18.387 Z-7.661
X18.473 Z-7.682
X18.858 Z-7.813
X18.989 Z-7.834
X19.129 Z-7.829
X19.452 Z-7.755
X19.671 Z-7.715
X19.893 Z-7.701
X20.122 Z-7.718
X20.489 Z-7.799
X20.683 Z-7.821
X21.29 Z-7.806
X23.157 Z-7.788
X24.765 Z-7.751
X25.998 Z-7.734
X27.34 Z-7.695
X28.689 Z-7.65
X29.389 Z-7.673
X31.003 Z-7.671
X31.414 Z-7.691
X32.869 Z-7.675
X33.802 Z-7.647
X34.054 Z-7.62
X34.176 Z-7.59
X34.318 Z-7.535
X34.629 Z-7.362
X34.853 Z-7.257
X35.284 Z-7.127
X35.53 Z-7.077
X36.157 Z-7.022
X36.585 Z-7.009
X37.063 Z-6.967
X37.218 Z-6.961
X37.774 Z-6.989
X38.67 Z-6.998
X39.428 Z-6.953
X40.207 Z-6.924
X41.179 Z-6.869
X41.905 Z-6.848
X43.353 Z-6.9
X44.869 Z-7.018
X45.382 Z-7.046
X45.886 Z-7.076
X46.293 Z-7.078
X46.827 Z-7.087
X47.709 Z-7.061
X48.279 Z-7.028
X48.751 Z-6.968
X49.239 Z-6.868
X49.257 Z-6.86
X49.27 Z-6.844
X49.275 Z-6.824
Z-6.819
Y-44.275 Z-6.787
X49.276 Y-44.254 Z-6.761
X49.277 Y-44.224 Z-6.746
X49.279 Y-44.191
X49.28 Y-44.161 Z-6.761
X49.281 Y-44.14 Z-6.787
X49.282 Y-44.132 Z-6.819
X49.277 Z-6.839
X49.264 Z-6.855
X49.245 Z-6.863
X48.855 Z-6.939
X48.271 Z-7.014
X47.755 Z-7.047
X46.727 Z-7.071
X45.889 Z-7.062
X44.68 Z-6.984
X44.174 Z-6.943
X42.935 Z-6.872
X41.95 Z-6.838
X41.102 Z-6.86
X40.49 Z-6.904
X39.634 Z-6.927
X38.782 Z-6.987
X38.402 Z-6.988
X37.572 Z-6.965
X37.273 Z-6.949
X37.017 Z-6.961
X36.635 Z-6.999
X36.085 Z-7.002
X35.672 Z-7.024
X35.532 Z-7.043
X35.368 Z-7.083
X35.166 Z-7.161
X34.662 Z-7.416
X34.413 Z-7.547
X34.28 Z-7.591
X34.046 Z-7.625
X33.424 Z-7.655
X32.542 Z-7.686
X31.752
X31.362
X30.974 Z-7.668
X29.364
X28.637 Z-7.644
X27.911 Z-7.662
X26.772 Z-7.715
X25.943 Z-7.733
X24.767 Z-7.748
X22.848 Z-7.789
X21.188 Z-7.809
X20.691 Z-7.816
X20.493 Z-7.801
X20.123 Z-7.74
X19.879 Z-7.731
X19.635 Z-7.756
X19.213 Z-7.828
X19.069
X18.92 Z-7.798
X18.516 Z-7.65
X18.395 Z-7.617
X18.295 Z-7.6
X18.142 Z-7.59
X17.916 Z-7.612
X17.719 Z-7.662
X17.365 Z-7.791
X17.268 Z-7.814
X17.093 Z-7.821
X16.908 Z-7.788
X16.687 Z-7.729
X16.538 Z-7.702
X16.205 Z-7.659
X15.978 Z-7.618
X15.728 Z-7.56
X15.559 Z-7.554
X15.37 Z-7.582
X15.093 Z-7.647
X14.83 Z-7.664
X14.593 Z-7.652
X14.521 Z-7.629
X14.422 Z-7.554
X14.196 Z-7.357
X14.051 Z-7.267
X13.964 Z-7.231
X13.842 Z-7.211
X13.731 Z-7.218
X13.602 Z-7.258
X13.467 Z-7.341
X13.357 Z-7.433
X13.183 Z-7.596
X12.901 Z-7.768
X12.832 Z-7.789
X12.607 Z-7.777
X12.358 Z-7.765
X11.424 Z-7.761
X10.646 Z-7.779
X10.548 Z-7.767
X10.491 Z-7.738
X10.183 Z-7.519
X10.042 Z-7.453
X9.91 Z-7.421
X9.741 Z-7.417
X9.468 Z-7.434
X9.288 Z-7.48
X9.122 Z-7.562
X8.857 Z-7.747
X8.672 Z-7.527
X8.57 Z-7.417
X8.415 Z-7.294
X8.287 Z-7.227
X8.142 Z-7.187
X7.99 Z-7.182
X7.844 Z-7.209
X7.591 Z-7.297
X7.457 Z-7.304
X7.26 Z-7.124
X7.102 Z-7.028
X6.961 Z-6.985
X6.861 Z-6.977
X6.711 Z-6.999
X6.602 Z-7.044
X6.503 Z-7.108
X6.368 Z-7.246
X6.312 Z-7.323
X6.209 Z-7.481
X6.079 Z-7.199
X6.002 Z-7.053
X5.91 Z-6.913
X5.816 Z-6.808
X5.74 Z-6.753
X5.63 Z-6.698
X5.56 Z-6.68
X5.44 Z-6.678
X5.312 Z-6.706
X5.206 Z-6.762
X5.094 Z-6.85
X4.97 Z-6.995
X4.78 Z-7.288
X4.629 Z-7.52
X4.494 Z-7.68
X4.406 Z-7.748
X4.32 Z-7.753
X3.782 Z-7.724
X2.675 Z-7.729
X2.05 Z-7.733
X0.935 Z-7.717
X-0.803 Z-7.74
X-1.641 Z-7.75
X-2.523 Z-7.752
X-3.054 Z-7.771
X-3.113 Z-7.763
X-3.434 Z-7.556
X-3.568 Z-7.488
X-3.734 Z-7.436
X-3.885 Z-7.417
X-4.071 Z-7.429
X-4.265 Z-7.48
X-4.449 Z-7.565
X-4.738 Z-7.727
X-4.829 Z-7.746
X-6.446 Z-7.695
X-7.016 Z-7.68
X-8.258 Z-7.616
X-9.031 Z-7.578
X-9.886 Z-7.49
X-10.27 Z-7.445
X-11.048 Z-7.372
X-11.812 Z-7.256
X-12.215 Z-7.209
X-12.498 Z-7.189
X-13 Z-7.187
X-13.454 Z-7.153
X-14.388 Z-7.127
X-14.698 Z-7.142
X-16.069 Z-7.25
X-16.94 Z-7.313
X-17.265 Z-7.318
X-17.756 Z-7.278
X-18.015 Z-7.281
X-18.663 Z-7.327
X-19.162 Z-7.336
X-19.94 Z-7.327
X-20.452 Z-7.33
X-20.841 Z-7.294
X-21.225 Z-7.249
X-21.561 Z-7.228
X-21.955 Z-7.194
X-22.315 Z-7.151
X-22.808 Z-7.108
X-23.098 Z-7.072
X-23.529 Z-7.001
X-23.98 Z-6.96
X-24.351 Z-6.899
X-24.552 Z-6.876
X-25.805 Z-6.77
X-26.141 Z-6.745
X-26.688 Z-6.737
X-27.044 Z-6.718
X-27.407 Z-6.727
X-28.441 Z-6.776
X-28.926 Z-6.814
X-29.445 Z-6.828
X-30.141 Z-6.878
X-30.658 Z-6.928
X-31.671 Z-6.935
X-32.865 Z-6.914
X-33.369 Z-6.912
X-34.189 Z-6.87
X-35.406 Z-6.867
X-35.94 Z-6.829
X-36.563
X-37.17 Z-6.832
X-37.686 Z-6.809
X-38.619 Z-6.808
X-39.091
X-39.557 Z-6.8
X-40.023 Z-6.795
X-41.097 Z-6.734
X-41.486 Z-6.743
X-42.285 Z-6.787
X-42.667 Z-6.837
X-43.883 Z-7.061
X-45.751 Z-7.348
X-46.262 Z-7.396
X-46.989 Z-7.426
X-47.773 Z-7.419
X-48.516 Z-7.367
X-49.277 Z-7.255
X-49.278
X-49.295 Y-44.131 Z-7.252
X-49.31 Y-44.125 Z-7.25
X-49.324 Y-44.116 Z-7.247
X-49.336 Y-44.104 Z-7.244
X-49.345 Y-44.09 Z-7.242
X-49.35 Y-44.074 Z-7.24
X-49.352 Y-44.057 Z-7.238
X-49.35 Y-44.041 Z-7.237
X-49.344 Y-44.025
X-49.335 Y-44.011
X-49.323 Y-43.999 Z-7.238
X-49.309 Y-43.99 Z-7.239
X-49.293 Y-43.984 Z-7.241
X-49.277 Y-43.982 Z-7.243
X-48.61 Z-7.341
X-47.721 Z-7.41
X-47.028 Z-7.413
X-46.252 Z-7.378
X-45.793 Z-7.337
X-44.417 Z-7.129
X-42.619 Z-6.799
X-42.347 Z-6.762
X-42.061 Z-6.737
X-41.491 Z-6.708
X-41.076 Z-6.701
X-40.075 Z-6.766
X-39.556 Z-6.774
X-38.985 Z-6.787
X-37.677 Z-6.777
X-37.19 Z-6.803
X-35.96 Z-6.81
X-35.349 Z-6.839
X-34.759 Z-6.847
X-33.877 Z-6.869
X-33.389 Z-6.895
X-32.918 Z-6.906
X-31.82 Z-6.927
X-30.599 Z-6.916
X-30.124 Z-6.862
X-29.519 Z-6.823
X-28.977 Z-6.799
X-28.099 Z-6.733
X-27.69 Z-6.711
X-27.067 Z-6.697
X-26.761 Z-6.712
X-26.199 Z-6.718
X-25.966 Z-6.732
X-25.492 Z-6.785
X-24.71 Z-6.847
X-24.405 Z-6.877
X-24.034 Z-6.939
X-23.467 Z-7.002
X-22.905 Z-7.095
X-22.314 Z-7.148
X-21.838 Z-7.2
X-21.513 Z-7.221
X-21.229 Z-7.24
X-20.746 Z-7.304
X-20.397 Z-7.333
X-19.774 Z-7.327
X-18.801 Z-7.339
X-18.101 Z-7.29
X-17.79 Z-7.286
X-17.353 Z-7.328
X-17.029 Z-7.325
X-16.284 Z-7.265
X-15.478 Z-7.206
X-14.611 Z-7.132
X-14.319 Z-7.122
X-13.958 Z-7.138
X-13.439 Z-7.15
X-13.081 Z-7.17
X-12.562 Z-7.178
X-12.255 Z-7.195
X-11.851 Z-7.242
X-11.008 Z-7.371
X-10.432 Z-7.428
X-10.036 Z-7.469
X-8.871 Z-7.585
X-8.092 Z-7.617
X-7.009 Z-7.679
X-6.39 Z-7.697
X-4.937 Z-7.748
X-4.759
X-4.664 Z-7.725
X-4.362 Z-7.576
X-4.157 Z-7.5
X-3.971 Z-7.466
X-3.79 Z-7.467
X-3.642 Z-7.497
X-3.478 Z-7.561
X-3.139 Z-7.754
X-3.04 Z-7.766
X-2.522 Z-7.749
X-1.64
X-0.902 Z-7.739
X0.343 Z-7.715
X2.003 Z-7.727
X3.892 Z-7.724
X4.12 Z-7.714
X4.428 Z-7.727
X4.472 Z-7.697
X4.605 Z-7.563
X4.788 Z-7.33
X5.001 Z-7.053
X5.1 Z-6.953
X5.195 Z-6.877
X5.343 Z-6.805
X5.438 Z-6.79
X5.577 Z-6.8
X5.685 Z-6.846
X5.811 Z-6.943
X5.902 Z-7.053
X6.024 Z-7.251
X6.161 Z-7.524
X6.182 Z-7.489
X6.335 Z-7.254
X6.464 Z-7.111
X6.589 Z-7.025
X6.709 Z-6.975
X6.834 Z-6.955
X6.96 Z-6.961
X7.101 Z-7.004
X7.231 Z-7.078
X7.307 Z-7.139
X7.376 Z-7.206
X7.573 Z-7.428
X7.717 Z-7.337
X7.823 Z-7.283
X7.945 Z-7.241
X8.07 Z-7.221
X8.222 Z-7.231
X8.365 Z-7.278
X8.489 Z-7.351
X8.622 Z-7.464
X8.88 Z-7.746
X9.07 Z-7.619
X9.271 Z-7.505
X9.697 Z-7.347
X9.828 Z-7.324
X9.969 Z-7.33
X10.112 Z-7.371
X10.24 Z-7.441
X10.318 Z-7.497
X10.577 Z-7.725
X10.639 Z-7.762
X10.736 Z-7.774
X11.474 Z-7.757
X12.356 Z-7.761
X12.801 Z-7.789
X12.881 Z-7.774
X12.961 Z-7.71
X13.142 Z-7.504
X13.314 Z-7.306
X13.383 Z-7.239
X13.508 Z-7.144
X13.624 Z-7.09
X13.715 Z-7.066
X13.843 Z-7.064
X13.962 Z-7.094
X14.093 Z-7.159
X14.245 Z-7.281
X14.467 Z-7.533
X14.571 Z-7.64
X14.609 Z-7.66
X14.747 Z-7.677
X14.986 Z-7.673
X15.071 Z-7.657
X15.34 Z-7.557
X15.52 Z-7.513
X15.662 Z-7.508
X15.823 Z-7.536
X16.061 Z-7.628
X16.175 Z-7.666
X16.461 Z-7.656
X16.587 Z-7.668
X16.661 Z-7.682
X17.052 Z-7.813
X17.143 Z-7.825
X17.266 Z-7.809
X17.445 Z-7.734
X17.655 Z-7.641
X17.741 Z-7.612
X17.876 Z-7.579
X18.084 Z-7.555
X18.302 Z-7.568
X18.523 Z-7.618
X18.972 Z-7.781
X19.152 Z-7.826
X19.293 Z-7.831
X19.79 Z-7.772
X19.971 Z-7.761
X20.759 Z-7.806
X21.181 Z-7.809
X22.945 Z-7.786
X24.761 Z-7.746
X26.007 Z-7.73
X26.94 Z-7.706
X27.964 Z-7.649
X28.482 Z-7.634
X29.209 Z-7.658
X30.842 Z-7.663
X31.361 Z-7.683
X31.792
X32.731 Z-7.685
X34.259 Z-7.608
X34.432 Z-7.578
X34.551 Z-7.536
X34.753 Z-7.429
X34.927 Z-7.314
X35.172 Z-7.151
X35.338 Z-7.072
X35.487 Z-7.025
X35.623 Z-6.998
X35.872 Z-6.979
X36.651 Z-6.992
X37.062 Z-6.952
X37.269 Z-6.942
X37.89 Z-6.962
X38.406 Z-6.98
X38.782 Z-6.981
X39.737 Z-6.909
X40.529 Z-6.895
X41.076 Z-6.852
X41.491 Z-6.839
X42.217 Z-6.835
X44.213 Z-6.925
X44.597 Z-6.958
X45.788 Z-7.044
X46.324 Z-7.055
X47.49 Z-7.04
X47.982 Z-7.024
X48.762 Z-6.94
X49.255 Z-6.858
X49.274 Z-6.85
X49.288 Z-6.834
X49.293 Z-6.813
Z-6.805
Y-43.975 Z-6.772
X49.294 Y-43.954 Z-6.746
X49.295 Y-43.924 Z-6.731
X49.296 Y-43.891
X49.297 Y-43.861 Z-6.746
X49.298 Y-43.84 Z-6.772
Y-43.832 Z-6.805
X49.294 Z-6.825
X49.28 Z-6.841
X49.26 Z-6.849
X48.767 Z-6.924
X47.916 Z-7.016
X47.518 Z-7.029
X46.688 Z-7.039
X46.107 Z-7.041
X45.489 Z-7.011
X44.593 Z-6.941
X44.224 Z-6.907
X43.563 Z-6.886
X42.323 Z-6.827
X41.809 Z-6.829
X41.135 Z-6.839
X40.505 Z-6.886
X39.824 Z-6.892
X39.555 Z-6.912
X38.846 Z-6.971
X38.51 Z-6.979
X37.946 Z-6.951
X37.271 Z-6.938
X37.082 Z-6.947
X36.648 Z-6.986
X35.885 Z-6.956
X35.658 Z-6.971
X35.5 Z-7.002
X35.326 Z-7.064
X35.143 Z-7.165
X34.906 Z-7.355
X34.82 Z-7.429
X34.673 Z-7.528
X34.532 Z-7.58
X34.334 Z-7.607
X32.655 Z-7.688
X31.641 Z-7.683
X31.102 Z-7.669
X30.376 Z-7.659
X29.131 Z-7.65
X28.404 Z-7.624
X27.989 Z-7.639
X27.083 Z-7.692
X26.098 Z-7.724
X24.749 Z-7.745
X23.193 Z-7.78
X21.896 Z-7.798
X21.075 Z-7.808
X20.678 Z-7.784
X20.419 Z-7.774
X19.9 Z-7.794
X19.353 Z-7.834
X19.195 Z-7.82
X19.068 Z-7.783
X18.665 Z-7.641
X18.364 Z-7.563
X18.162 Z-7.537
X17.944 Z-7.54
X17.817 Z-7.559
X17.666 Z-7.601
X17.555 Z-7.647
X17.251 Z-7.804
X17.155 Z-7.826
X17.074 Z-7.811
X16.832 Z-7.697
X16.692 Z-7.644
X16.516 Z-7.611
X16.339 Z-7.616
X16.151 Z-7.646
X15.891 Z-7.519
X15.797 Z-7.489
X15.66 Z-7.469
X15.544 Z-7.474
X15.406 Z-7.504
X15.239 Z-7.574
X15.024 Z-7.689
X14.911 Z-7.707
X14.752 Z-7.703
X14.633 Z-7.682
X14.569 Z-7.614
X14.289 Z-7.232
X14.164 Z-7.103
X14.019 Z-7.003
X13.914 Z-6.956
X13.755 Z-6.928
X13.613 Z-6.946
X13.524 Z-6.978
X13.422 Z-7.035
X13.293 Z-7.143
X13.227 Z-7.214
X13.079 Z-7.401
X12.863 Z-7.691
X12.773 Z-7.781
X12.195 Z-7.754
X11.468 Z-7.753
X10.898 Z-7.77
X10.772 Z-7.758
X10.709 Z-7.733
X10.612 Z-7.664
X10.339 Z-7.416
X10.19 Z-7.319
X10.051 Z-7.266
X9.903 Z-7.247
X9.754 Z-7.267
X9.623 Z-7.315
X9.418 Z-7.434
X9.214 Z-7.565
X8.962 Z-7.718
X8.847 Z-7.648
X8.546 Z-7.38
X8.419 Z-7.299
X8.307 Z-7.253
X8.209 Z-7.229
X8.091 Z-7.226
X7.99 Z-7.237
X7.825 Z-7.296
X7.66 Z-7.399
X7.59 Z-7.451
X7.399 Z-7.231
X7.282 Z-7.117
X7.13 Z-7.015
X6.992 Z-6.966
X6.894 Z-6.951
X6.745 Z-6.964
X6.654 Z-6.99
X6.53 Z-7.058
X6.437 Z-7.134
X6.317 Z-7.273
X6.245 Z-7.378
X6.118 Z-7.588
X5.914 Z-7.249
X5.794 Z-7.1
X5.682 Z-7.008
X5.586 Z-6.961
X5.453 Z-6.937
X5.372 Z-6.946
X5.242 Z-6.991
X5.121 Z-7.067
X4.948 Z-7.224
X4.634 Z-7.556
X4.553 Z-7.626
X4.434 Z-7.605
X4.333 Z-7.592
X4.154 Z-7.59
X3.971 Z-7.622
X3.648 Z-7.708
X3.42 Z-7.727
X2.489 Z-7.724
X1.327 Z-7.719
X0.653 Z-7.711
X-0.54 Z-7.722
X-1.516 Z-7.748
X-2.586
X-3.093 Z-7.76
X-3.166 Z-7.747
X-3.504 Z-7.588
X-3.597 Z-7.557
X-3.743 Z-7.526
X-3.921
X-3.99 Z-7.534
X-4.08 Z-7.553
X-4.168 Z-7.578
X-4.34 Z-7.643
X-4.574 Z-7.736
X-4.687 Z-7.756
X-5.034 Z-7.742
X-6.487 Z-7.697
X-7.053 Z-7.675
X-7.972 Z-7.617
X-8.899 Z-7.576
X-9.582 Z-7.51
X-10.5 Z-7.419
X-11.019 Z-7.361
X-11.862 Z-7.231
X-12.063 Z-7.205
X-12.267 Z-7.185
X-12.565 Z-7.169
X-13.966 Z-7.137
X-14.324 Z-7.121
X-14.709 Z-7.138
X-15.366 Z-7.2
X-15.829 Z-7.235
X-16.33 Z-7.268
X-17.122 Z-7.34
X-17.371
X-17.799 Z-7.297
X-18.109 Z-7.293
X-18.365 Z-7.309
X-18.808 Z-7.344
X-19.799 Z-7.329
X-20.394 Z-7.332
X-20.732 Z-7.303
X-21.319 Z-7.227
X-21.914 Z-7.187
X-22.431 Z-7.139
X-22.797 Z-7.104
X-23.489 Z-6.993
X-24.063 Z-6.918
X-24.403 Z-6.863
X-24.708 Z-6.832
X-25.404 Z-6.774
X-25.97 Z-6.708
X-26.217 Z-6.694
X-26.773 Z-6.69
X-27.239 Z-6.674
X-27.914 Z-6.692
X-28.74 Z-6.768
X-30.031 Z-6.84
X-30.315 Z-6.868
X-30.607 Z-6.904
X-31.983 Z-6.921
X-32.916 Z-6.897
X-33.28 Z-6.887
X-33.734 Z-6.859
X-35.29 Z-6.814
X-35.913 Z-6.791
X-36.585
X-37.26 Z-6.772
X-37.733 Z-6.747
X-38.343 Z-6.759
X-38.818 Z-6.763
X-39.622 Z-6.746
X-40.17 Z-6.73
X-41.014 Z-6.672
X-41.429 Z-6.671
X-41.945 Z-6.696
X-42.328 Z-6.727
X-42.6 Z-6.764
X-43.549 Z-6.939
X-44.606 Z-7.143
X-45.872 Z-7.327
X-46.451 Z-7.371
X-47.104 Z-7.401
X-47.722 Z-7.398
X-48.601 Z-7.324
X-49.276 Z-7.23
X-49.293 Y-43.831 Z-7.228
X-49.308 Y-43.825 Z-7.225
X-49.322 Y-43.816 Z-7.222
X-49.334 Y-43.804 Z-7.219
X-49.343 Y-43.79 Z-7.216
X-49.348 Y-43.774 Z-7.214
X-49.35 Y-43.757 Z-7.212
X-49.347 Y-43.741 Z-7.21
X-49.342 Y-43.725
X-49.333 Y-43.711 Z-7.209
X-49.321 Y-43.699 Z-7.21
X-49.306 Y-43.69 Z-7.211
X-49.29 Y-43.684 Z-7.212
X-49.274 Y-43.682 Z-7.215
X-49.273
X-48.862 Z-7.273
X-48.11 Z-7.352
X-47.617 Z-7.39
X-46.999 Z-7.385
X-46.027 Z-7.32
X-45.324 Z-7.23
X-44.248 Z-7.052
X-43.483 Z-6.891
X-42.644 Z-6.737
X-42.349 Z-6.695
X-41.893 Z-6.659
X-41.479 Z-6.639
X-41.025 Z-6.641
X-40.11 Z-6.699
X-39.54 Z-6.715
X-38.71 Z-6.737
X-37.824 Z-6.724
X-37.409 Z-6.741
X-36.844 Z-6.765
X-35.652 Z-6.773
X-35.11 Z-6.803
X-33.723 Z-6.847
X-33.25 Z-6.876
X-32.005 Z-6.915
X-30.687 Z-6.894
X-30.119 Z-6.833
X-28.63 Z-6.744
X-28.149 Z-6.692
X-27.874 Z-6.665
X-27.342 Z-6.652
X-26.824 Z-6.667
X-26.356 Z-6.673
X-26.098 Z-6.676
X-25.89 Z-6.69
X-25.406 Z-6.745
X-24.73 Z-6.81
X-24.426 Z-6.843
X-23.472 Z-6.986
X-22.699 Z-7.11
X-21.588 Z-7.216
X-21.226 Z-7.243
X-20.833 Z-7.29
X-20.392 Z-7.329
X-19.849 Z-7.331
X-18.823 Z-7.346
X-18.475 Z-7.319
X-18.174 Z-7.298
X-17.863 Z-7.304
X-17.374 Z-7.352
X-17.107 Z-7.349
X-16.188 Z-7.259
X-15.724 Z-7.234
X-15.183 Z-7.185
X-14.611 Z-7.134
X-14.329 Z-7.123
X-13.862 Z-7.141
X-13.135 Z-7.152
X-12.409 Z-7.17
X-11.999 Z-7.205
X-11.607 Z-7.262
X-10.783 Z-7.382
X-9.516 Z-7.506
X-8.936 Z-7.565
X-8.114 Z-7.605
X-7.189 Z-7.662
X-6.63 Z-7.692
X-5.385 Z-7.729
X-4.822 Z-7.755
X-4.539 Z-7.764
X-4.423 Z-7.75
X-4.191 Z-7.669
X-4.016 Z-7.614
X-3.881 Z-7.59
X-3.731 Z-7.587
X-3.582 Z-7.609
X-3.437 Z-7.655
X-3.216 Z-7.74
X-3.079 Z-7.757
X-2.819 Z-7.751
X-1.443 Z-7.744
X-0.508 Z-7.716
X0.82 Z-7.706
X1.44 Z-7.719
X2.048 Z-7.714
X3.129 Z-7.731
X3.412 Z-7.715
X3.576 Z-7.677
X3.795 Z-7.582
X4.007 Z-7.501
X4.15 Z-7.472
X4.316 Z-7.465
X4.442 Z-7.48
X4.69 Z-7.547
X5.002 Z-7.301
X5.151 Z-7.201
X5.291 Z-7.141
X5.404 Z-7.121
X5.516 Z-7.129
X5.65 Z-7.182
X5.747 Z-7.256
X5.855 Z-7.368
X6.078 Z-7.666
X6.244 Z-7.412
X6.353 Z-7.262
X6.462 Z-7.146
X6.577 Z-7.063
X6.696 Z-7.007
X6.819 Z-6.985
X6.94 Z-6.987
X7.042 Z-7.012
X7.162 Z-7.064
X7.29 Z-7.153
X7.611 Z-7.463
X7.705 Z-7.392
X7.783 Z-7.342
X7.872 Z-7.296
X8.012 Z-7.251
X8.165 Z-7.238
X8.314 Z-7.262
X8.476 Z-7.328
X8.78 Z-7.523
X9.062 Z-7.7
X9.206 Z-7.605
X9.478 Z-7.369
X9.63 Z-7.275
X9.74 Z-7.231
X9.858 Z-7.202
X10.011 Z-7.203
X10.109 Z-7.225
X10.222 Z-7.269
X10.37 Z-7.359
X10.582 Z-7.538
X10.773 Z-7.689
X10.88 Z-7.748
X10.974 Z-7.761
X11.334 Z-7.752
X11.905 Z-7.744
X12.69 Z-7.772
X12.751 Z-7.712
X13.042 Z-7.274
X13.164 Z-7.113
X13.263 Z-7.007
X13.374 Z-6.92
X13.501 Z-6.855
X13.648 Z-6.821
X13.784 Z-6.825
X13.906 Z-6.856
X14.018 Z-6.909
X14.098 Z-6.963
X14.221 Z-7.076
X14.355 Z-7.251
X14.569 Z-7.595
X14.654 Z-7.711
X14.681 Z-7.726
X14.895 Z-7.744
X14.979 Z-7.731
X15.119 Z-7.636
X15.271 Z-7.537
X15.439 Z-7.463
X15.576 Z-7.435
X15.73 Z-7.439
X15.904 Z-7.486
X16.139 Z-7.606
X16.234 Z-7.585
X16.376 Z-7.562
X16.532
X16.631 Z-7.581
X16.725 Z-7.61
X16.793 Z-7.638
X17.053 Z-7.784
X17.138 Z-7.823
X17.195 Z-7.817
X17.49 Z-7.649
X17.573 Z-7.609
X17.659 Z-7.575
X17.771 Z-7.545
X17.942 Z-7.526
X18.143 Z-7.535
X18.368 Z-7.569
X18.767 Z-7.654
X18.948 Z-7.71
X19.193 Z-7.802
X19.31 Z-7.828
X19.487 Z-7.833
X19.952 Z-7.81
X20.391 Z-7.75
X20.547 Z-7.748
X20.881 Z-7.786
X21.129 Z-7.806
X21.83 Z-7.8
X22.608 Z-7.786
X24.683 Z-7.747
X25.928 Z-7.72
X26.914 Z-7.688
X27.938 Z-7.635
X28.373 Z-7.618
X29.079 Z-7.644
X30.48 Z-7.661
X31.258 Z-7.674
X32.663 Z-7.688
X33.386 Z-7.658
X34.421 Z-7.611
X34.621 Z-7.587
X34.673 Z-7.571
X34.752 Z-7.523
X35.029 Z-7.27
X35.131 Z-7.186
X35.299 Z-7.081
X35.469 Z-7.01
X35.659 Z-6.964
X35.9 Z-6.945
X36.283 Z-6.965
X36.618 Z-6.978
X37.165 Z-6.941
X37.888 Z-6.942
X38.426 Z-6.966
X38.789 Z-6.964
X39.448 Z-6.916
X39.839 Z-6.881
X40.513 Z-6.868
X41.085 Z-6.829
X42.295 Z-6.814
X43.125 Z-6.841
X43.686 Z-6.877
X44.201 Z-6.888
X44.397 Z-6.902
X44.69 Z-6.933
X45.334 Z-6.986
X46.157 Z-7.027
X47.36 Z-7.015
X47.908 Z-7
X48.758 Z-6.907
X49.26 Z-6.831
X49.28 Z-6.823
X49.294 Z-6.807
X49.299 Z-6.786
Z-6.764
Y-43.675 Z-6.732
Y-43.654 Z-6.706
X49.298 Y-43.624 Z-6.691
Y-43.591
Y-43.561 Z-6.706
Y-43.54 Z-6.732
Y-43.532 Z-6.764
X49.293 Z-6.785
X49.28 Z-6.801
X49.26 Z-6.809
X48.769 Z-6.888
X48.031 Z-6.976
X47.357 Z-7.002
X46.158 Z-7.01
X45.177 Z-6.962
X44.399 Z-6.884
X44.201 Z-6.87
X43.786 Z-6.865
X43.288 Z-6.824
X42.315 Z-6.8
X41.06 Z-6.815
X40.289 Z-6.855
X39.822 Z-6.875
X39.131 Z-6.933
X38.503 Z-6.958
X37.881 Z-6.937
X37.121 Z-6.943
X36.512 Z-6.971
X35.894 Z-6.946
X35.674 Z-6.967
X35.464 Z-7.023
X35.289 Z-7.104
X35.121 Z-7.217
X35.028 Z-7.298
X34.751 Z-7.562
X34.696 Z-7.595
X34.584 Z-7.616
X33.368 Z-7.664
X32.748 Z-7.688
X29.282 Z-7.648
X28.452 Z-7.617
X27.886 Z-7.632
X25.967 Z-7.713
X24.877 Z-7.74
X23.892 Z-7.765
X22.854 Z-7.783
X21.817 Z-7.799
X21.132 Z-7.803
X20.928 Z-7.78
X20.76 Z-7.747
X20.66 Z-7.73
X20.507 Z-7.718
X20.329 Z-7.73
X19.984 Z-7.808
X19.783 Z-7.831
X19.425 Z-7.83
X19.324 Z-7.821
X19.233 Z-7.799
X18.928 Z-7.68
X18.733 Z-7.633
X18.34 Z-7.585
X18.007 Z-7.526
X17.862 Z-7.523
X17.696 Z-7.548
X17.535 Z-7.607
X17.462 Z-7.645
X17.189 Z-7.814
X17.153 Z-7.82
X16.8 Z-7.597
X16.661 Z-7.539
X16.516 Z-7.508
X16.386 Z-7.505
X16.311 Z-7.512
X16.125 Z-7.549
X15.898 Z-7.442
X15.766 Z-7.407
X15.641 Z-7.398
X15.518 Z-7.411
X15.364 Z-7.464
X15.221 Z-7.549
X15.071 Z-7.667
X14.943 Z-7.767
X14.837 Z-7.774
X14.683 Z-7.757
X14.623 Z-7.681
X14.385 Z-7.259
X14.256 Z-7.063
X14.162 Z-6.955
X14.088 Z-6.891
X14.009 Z-6.836
X13.877 Z-6.773
X13.729 Z-6.74
X13.575 Z-6.743
X13.44 Z-6.781
X13.315 Z-6.847
X13.17 Z-6.97
X13.034 Z-7.138
X12.723 Z-7.644
X12.633 Z-7.757
X12.624 Z-7.763
X11.796 Z-7.737
X11.044 Z-7.75
X10.971 Z-7.734
X10.882 Z-7.675
X10.612 Z-7.456
X10.367 Z-7.296
X10.196 Z-7.216
X10.07 Z-7.183
X9.917 Z-7.176
X9.771 Z-7.201
X9.643 Z-7.251
X9.494 Z-7.35
X9.335 Z-7.502
X9.158 Z-7.683
X9.143 Z-7.692
X8.789 Z-7.464
X8.54 Z-7.354
X8.349 Z-7.289
X8.202 Z-7.267
X8.083 Z-7.27
X7.946 Z-7.301
X7.79 Z-7.376
X7.64 Z-7.478
X7.381 Z-7.277
X7.216 Z-7.156
X7.082 Z-7.089
X6.938 Z-7.052
X6.837 Z-7.048
X6.695 Z-7.076
X6.559 Z-7.146
X6.434 Z-7.248
X6.298 Z-7.403
X6.085 Z-7.683
X6.032 Z-7.732
X5.774 Z-7.48
X5.636 Z-7.379
X5.502 Z-7.326
X5.377 Z-7.312
X5.254 Z-7.328
X5.079 Z-7.391
X4.836 Z-7.515
X4.746 Z-7.472
X4.653 Z-7.434
X4.46 Z-7.384
X4.262 Z-7.371
X4.086 Z-7.394
X3.976 Z-7.427
X3.89 Z-7.46
X3.686 Z-7.563
X3.521 Z-7.65
X3.381 Z-7.7
X3.283 Z-7.719
X3.079 Z-7.728
X2.149 Z-7.707
X1.421 Z-7.715
X0.85 Z-7.703
X-0.439 Z-7.71
X-1.476 Z-7.739
X-2.981 Z-7.752
X-3.229 Z-7.746
X-3.434 Z-7.697
X-3.565 Z-7.666
X-3.717 Z-7.647
X-3.873 Z-7.655
X-3.964 Z-7.671
X-4.168 Z-7.728
X-4.316 Z-7.764
X-4.521 Z-7.773
X-5.267 Z-7.729
X-6.563 Z-7.687
X-7.029 Z-7.67
X-8.094 Z-7.6
X-8.969 Z-7.552
X-10.802 Z-7.368
X-11.626 Z-7.254
X-12.018 Z-7.197
X-12.368 Z-7.169
X-13.018 Z-7.149
X-13.675 Z-7.145
X-14.314 Z-7.127
X-14.724 Z-7.148
X-15.781 Z-7.241
X-16.234 Z-7.273
X-16.947 Z-7.346
X-17.331 Z-7.362
X-17.573 Z-7.345
X-17.856 Z-7.316
X-18.127 Z-7.301
X-18.373 Z-7.309
X-18.816 Z-7.348
X-20.473 Z-7.319
X-21.939 Z-7.193
X-22.606 Z-7.116
X-24.251 Z-6.85
X-24.654 Z-6.797
X-25.715 Z-6.676
X-26.129 Z-6.654
X-26.771 Z-6.649
X-27.393 Z-6.629
X-27.864 Z-6.642
X-28.141 Z-6.67
X-28.626 Z-6.727
X-29.804 Z-6.803
X-30.158 Z-6.825
X-30.741 Z-6.882
X-31.674 Z-6.902
X-32.103 Z-6.906
X-33.397 Z-6.856
X-34.065 Z-6.825
X-34.895 Z-6.803
X-35.541 Z-6.755
X-37.154 Z-6.737
X-37.732 Z-6.707
X-38.289 Z-6.71
X-38.681 Z-6.709
X-39.485 Z-6.684
X-40.056 Z-6.666
X-40.876 Z-6.619
X-41.447 Z-6.608
X-41.81 Z-6.622
X-42.352 Z-6.662
X-42.579 Z-6.692
X-43.137 Z-6.795
X-43.463 Z-6.851
X-44.171 Z-7.011
X-44.841 Z-7.125
X-45.331 Z-7.209
X-46.283 Z-7.32
X-47.061 Z-7.373
X-47.564 Z-7.376
X-48.053 Z-7.342
X-48.995 Z-7.239
X-49.266 Z-7.197
X-49.285 Z-7.189
X-49.299 Z-7.173
X-49.304 Z-7.153
Z-7.133
Y-43.525 Z-7.1
X-49.303 Y-43.504 Z-7.074
X-49.302 Y-43.474 Z-7.06
X-49.3 Y-43.441
X-49.299 Y-43.411 Z-7.074
X-49.298 Y-43.39 Z-7.1
Y-43.382 Z-7.133
X-49.293 Z-7.153
X-49.279 Z-7.169
X-49.26 Z-7.177
X-48.986 Z-7.224
X-48.146 Z-7.315
X-47.561 Z-7.358
X-47.081 Z-7.357
X-46.408 Z-7.311
X-45.227 Z-7.168
X-44.749 Z-7.075
X-44.168 Z-6.979
X-43.772 Z-6.89
X-43.439 Z-6.81
X-43.135 Z-6.761
X-42.666 Z-6.677
X-42.417 Z-6.638
X-42.007 Z-6.604
X-41.545 Z-6.581
X-40.683 Z-6.596
X-39.896 Z-6.641
X-39.377 Z-6.656
X-38.651 Z-6.682
X-37.814 Z-6.687
X-37.348 Z-6.708
X-36.743 Z-6.722
X-35.42 Z-6.741
X-34.782 Z-6.795
X-34.062 Z-6.805
X-33.408 Z-6.845
X-32.065 Z-6.901
X-31.65 Z-6.891
X-30.841 Z-6.875
X-30.292 Z-6.829
X-29.641 Z-6.784
X-28.623 Z-6.708
X-28.048 Z-6.641
X-27.755 Z-6.616
X-27.392 Z-6.608
X-26.769 Z-6.63
X-25.965 Z-6.634
X-25.604 Z-6.655
X-24.234 Z-6.833
X-23.732 Z-6.916
X-22.33 Z-7.152
X-21.48 Z-7.25
X-20.579 Z-7.31
X-19.904 Z-7.33
X-18.828 Z-7.35
X-18.36 Z-7.308
X-18.126 Z-7.305
X-17.582 Z-7.358
X-17.275 Z-7.37
X-16.714 Z-7.34
X-16.137 Z-7.275
X-15.13 Z-7.191
X-14.647 Z-7.149
X-14.143 Z-7.133
X-13.572 Z-7.146
X-12.997
X-12.348 Z-7.168
X-12.014 Z-7.195
X-11.788 Z-7.227
X-11.079 Z-7.327
X-9.161 Z-7.526
X-7.031 Z-7.665
X-6.512 Z-7.68
X-5.319 Z-7.725
X-4.56 Z-7.771
X-4.231 Z-7.763
X-3.913 Z-7.715
X-3.704 Z-7.704
X-3.276 Z-7.749
X-1.629 Z-7.736
X-0.384 Z-7.707
X0.764 Z-7.701
X1.386 Z-7.712
X2.253 Z-7.704
X3.111 Z-7.726
X3.288 Z-7.707
X3.406 Z-7.667
X3.619 Z-7.555
X3.877 Z-7.415
X4.077 Z-7.342
X4.272 Z-7.31
X4.45 Z-7.311
X4.635 Z-7.347
X4.798 Z-7.415
X5 Z-7.545
X5.139 Z-7.514
X5.231 Z-7.499
X5.334 Z-7.493
X5.483 Z-7.512
X5.613 Z-7.557
X5.898 Z-7.724
X5.983 Z-7.745
X6.059 Z-7.723
X6.132 Z-7.673
X6.351 Z-7.438
X6.522 Z-7.276
X6.644 Z-7.199
X6.742 Z-7.16
X6.879 Z-7.14
X6.98 Z-7.151
X7.072 Z-7.176
X7.236 Z-7.244
X7.673 Z-7.504
X7.771 Z-7.443
X7.885 Z-7.38
X8.026 Z-7.327
X8.203 Z-7.304
X8.408 Z-7.317
X8.645 Z-7.367
X8.789 Z-7.424
X8.877 Z-7.47
X9.197 Z-7.688
X9.422 Z-7.437
X9.573 Z-7.305
X9.719 Z-7.223
X9.851 Z-7.184
X9.988 Z-7.17
X10.119 Z-7.182
X10.363 Z-7.244
X10.537 Z-7.313
X10.684 Z-7.404
X10.99 Z-7.669
X11.085 Z-7.728
X11.154 Z-7.742
X11.789 Z-7.732
X12.511 Z-7.757
X12.562 Z-7.748
X12.648 Z-7.658
X12.941 Z-7.176
X13.049 Z-7.02
X13.112 Z-6.944
X13.162 Z-6.895
X13.284 Z-6.798
X13.419 Z-6.729
X13.561 Z-6.694
X13.663 Z-6.688
X13.812 Z-6.71
X13.927 Z-6.753
X14.063 Z-6.836
X14.175 Z-6.941
X14.263 Z-7.05
X14.369 Z-7.219
X14.62 Z-7.692
X14.687 Z-7.786
X14.796 Z-7.796
X14.913 Z-7.792
X15.07 Z-7.653
X15.208 Z-7.531
X15.366 Z-7.425
X15.496 Z-7.374
X15.644 Z-7.35
X15.77 Z-7.357
X15.914 Z-7.391
X16.11 Z-7.475
X16.291 Z-7.446
X16.432 Z-7.439
X16.594 Z-7.462
X16.688 Z-7.494
X16.777 Z-7.536
X16.861 Z-7.586
X17.03 Z-7.714
X17.17 Z-7.817
X17.415 Z-7.663
X17.496 Z-7.618
X17.58 Z-7.581
X17.702 Z-7.542
X17.845 Z-7.524
X18.019 Z-7.537
X18.117 Z-7.558
X18.369 Z-7.624
X18.573 Z-7.618
X18.778 Z-7.629
X18.949 Z-7.67
X19.296 Z-7.808
X19.431 Z-7.827
X19.704 Z-7.833
X19.908 Z-7.821
X20.225 Z-7.728
X20.361 Z-7.701
X20.438 Z-7.694
X20.567 Z-7.696
X20.667 Z-7.708
X21.034 Z-7.789
X21.235 Z-7.803
X23.11 Z-7.775
X23.888 Z-7.763
X24.874 Z-7.739
X26.223 Z-7.698
X27.831 Z-7.629
X28.557 Z-7.618
X29.128 Z-7.64
X30.01 Z-7.665
X30.858 Z-7.672
X32.706 Z-7.689
X33.356 Z-7.671
X34.55 Z-7.633
X34.699 Z-7.619
X34.764 Z-7.584
X34.943 Z-7.418
X35.097 Z-7.272
X35.277 Z-7.142
X35.474 Z-7.043
X35.695 Z-6.981
X35.914 Z-6.956
X36.389 Z-6.969
X36.994 Z-6.948
X37.772 Z-6.935
X38.499 Z-6.944
X39.123 Z-6.921
X39.808 Z-6.871
X41.041 Z-6.801
X42.441 Z-6.783
X43.297 Z-6.8
X43.713 Z-6.838
X44.128 Z-6.852
X44.439 Z-6.869
X45.005 Z-6.931
X45.874 Z-6.981
X46.756 Z-6.993
X47.773 Z-6.974
X48.175 Z-6.951
X48.77 Z-6.873
X49.261 Z-6.789
X49.28 Z-6.781
X49.293 Z-6.765
X49.298 Z-6.745
Z-6.73
Y-43.375 Z-6.697
X49.299 Y-43.354 Z-6.671
X49.3 Y-43.324 Z-6.656
X49.301 Y-43.291
X49.302 Y-43.261 Z-6.671
Y-43.24 Z-6.697
X49.303 Y-43.232 Z-6.73
X49.298 Z-6.75
X49.284 Z-6.766
X49.265 Z-6.774
X48.48 Z-6.907
X48.033 Z-6.952
X46.83 Z-6.978
X45.722 Z-6.952
X45.008 Z-6.911
X44.388 Z-6.848
X43.878 Z-6.827
X43.251 Z-6.777
X42.058 Z-6.768
X40.916 Z-6.794
X40.149 Z-6.84
X39.291 Z-6.9
X38.461 Z-6.931
X37.063 Z-6.946
X36.354 Z-6.974
X35.932 Z-6.973
X35.77 Z-6.992
X35.68 Z-7.01
X35.506 Z-7.065
X35.287 Z-7.172
X35.13 Z-7.285
X34.92 Z-7.475
X34.784 Z-7.592
X34.725 Z-7.624
X34.533 Z-7.64
X32.804 Z-7.692
X31.568 Z-7.681
X30.894 Z-7.673
X30.165 Z-7.67
X29.153 Z-7.64
X28.609 Z-7.62
X27.675 Z-7.63
X26.431 Z-7.679
X25.655 Z-7.708
X23.995 Z-7.76
X23.165 Z-7.773
X21.246 Z-7.8
X21.078 Z-7.79
X20.877 Z-7.744
X20.664 Z-7.692
X20.614 Z-7.684
X20.513 Z-7.676
X20.341 Z-7.687
X20.141 Z-7.738
X19.969 Z-7.799
X19.873 Z-7.824
X19.668 Z-7.832
X19.347 Z-7.816
X19.246 Z-7.785
X19.08 Z-7.711
X18.986 Z-7.674
X18.841 Z-7.632
X18.691 Z-7.616
X18.507 Z-7.629
X18.326 Z-7.657
X18.141 Z-7.591
X18.045 Z-7.563
X17.871 Z-7.539
X17.728 Z-7.549
X17.586 Z-7.588
X17.479 Z-7.635
X17.319 Z-7.729
X17.183 Z-7.81
X16.84 Z-7.521
X16.705 Z-7.44
X16.589 Z-7.395
X16.466 Z-7.37
X16.312 Z-7.368
X16.096 Z-7.399
X15.86 Z-7.321
X15.736 Z-7.302
X15.598 Z-7.306
X15.473 Z-7.335
X15.316 Z-7.412
X15.191 Z-7.508
X15.057 Z-7.637
X14.901 Z-7.79
X14.856 Z-7.807
X14.678 Z-7.804
X14.613 Z-7.708
X14.321 Z-7.152
X14.192 Z-6.964
X14.081 Z-6.849
X13.959 Z-6.762
X13.828 Z-6.703
X13.683 Z-6.672
X13.536 Z-6.677
X13.405 Z-6.711
X13.28 Z-6.768
X13.129 Z-6.882
X13.064 Z-6.949
X13.001 Z-7.024
X12.882 Z-7.195
X12.642 Z-7.576
X12.584 Z-7.647
X12.515 Z-7.712
X12.459 Z-7.746
X12.336 Z-7.752
X11.856 Z-7.73
X11.297 Z-7.739
X11.184 Z-7.721
X11.096 Z-7.676
X11.003 Z-7.599
X10.768 Z-7.384
X10.622 Z-7.285
X10.487 Z-7.224
X10.341 Z-7.192
X10.016 Z-7.189
X9.868 Z-7.208
X9.736 Z-7.252
X9.614 Z-7.322
X9.471 Z-7.442
X9.242 Z-7.688
X8.929 Z-7.478
X8.75 Z-7.39
X8.572 Z-7.346
X8.371 Z-7.333
X8.176 Z-7.35
X7.998 Z-7.396
X7.809 Z-7.486
X7.702 Z-7.545
X7.369 Z-7.376
X7.136 Z-7.298
X6.987 Z-7.271
X6.859 Z-7.269
X6.743 Z-7.293
X6.655 Z-7.328
X6.574 Z-7.374
X6.425 Z-7.485
X6.219 Z-7.656
X6.122 Z-7.71
X6.034 Z-7.733
X5.736 Z-7.587
X5.594 Z-7.549
X5.46 Z-7.544
X5.318 Z-7.573
X5.166 Z-7.63
X4.9 Z-7.405
X4.858 Z-7.377
X4.728 Z-7.309
X4.56 Z-7.263
X4.406 Z-7.256
X4.212 Z-7.281
X4.001 Z-7.343
X3.781 Z-7.441
X3.373 Z-7.663
X3.233 Z-7.713
X3.069 Z-7.723
X2.477 Z-7.704
X1.733 Z-7.711
X1.282 Z-7.708
X0.4 Z-7.699
X-0.637 Z-7.715
X-2.505 Z-7.742
X-3.435 Z-7.754
X-3.85 Z-7.749
X-4.472 Z-7.769
X-4.958 Z-7.744
X-5.788 Z-7.704
X-6.514 Z-7.673
X-7.033 Z-7.659
X-9.262 Z-7.511
X-10.571 Z-7.374
X-11.354 Z-7.293
X-11.996 Z-7.198
X-12.303 Z-7.169
X-12.978 Z-7.142
X-14.171 Z-7.139
X-14.69 Z-7.156
X-14.985 Z-7.182
X-15.966 Z-7.268
X-16.684 Z-7.349
X-17.381 Z-7.379
X-17.684 Z-7.365
X-18.132 Z-7.31
X-18.364 Z-7.308
X-18.802 Z-7.352
X-19.698 Z-7.34
X-20.943 Z-7.292
X-21.398 Z-7.266
X-22.237 Z-7.166
X-23.504 Z-6.95
X-23.937 Z-6.862
X-24.238 Z-6.815
X-25.485 Z-6.641
X-25.844 Z-6.613
X-26.77 Z-6.61
X-27.393 Z-6.588
X-27.756 Z-6.6
X-28.137 Z-6.636
X-29.309 Z-6.752
X-30.112 Z-6.808
X-30.843 Z-6.867
X-31.598 Z-6.881
X-32.065 Z-6.897
X-33.177 Z-6.847
X-33.771 Z-6.802
X-34.044 Z-6.778
X-34.407 Z-6.779
X-34.779 Z-6.775
X-35.408 Z-6.723
X-36.092 Z-6.709
X-36.505 Z-6.697
X-37.265 Z-6.692
X-38.043 Z-6.663
X-38.652 Z-6.654
X-39.274 Z-6.633
X-39.843 Z-6.611
X-40.496 Z-6.57
X-41.664 Z-6.558
X-42.12 Z-6.583
X-42.445 Z-6.614
X-42.761 Z-6.666
X-43.432 Z-6.772
X-43.71 Z-6.837
X-44.195 Z-6.949
X-44.776 Z-7.048
X-45.244 Z-7.14
X-46.412 Z-7.29
X-47.084 Z-7.335
X-47.508 Z-7.336
X-48.295 Z-7.285
X-48.865 Z-7.224
X-49.249 Z-7.156
X-49.268 Z-7.148
X-49.282 Z-7.132
X-49.287 Z-7.111
Z-7.066
X-49.286 Y-43.226 Z-7.024
Y-43.207 Z-6.986
X-49.285 Y-43.177 Z-6.956
X-49.284 Y-43.139 Z-6.937
X-49.283 Y-43.097 Z-6.931
X-49.282 Y-43.067
X-49.281 Y-43.026 Z-6.937
X-49.28 Y-42.988 Z-6.956
X-49.279 Y-42.958 Z-6.986
Y-42.939 Z-7.024
X-49.278 Y-42.932 Z-7.066
X-49.274 Z-7.085
X-49.261 Z-7.101
X-49.242 Z-7.11
X-48.807 Z-7.199
X-48.438 Z-7.242
X-47.403 Z-7.29
X-46.883 Z-7.28
X-46.319 Z-7.233
X-45.456 Z-7.103
X-44.92 Z-7.012
X-44.296 Z-6.897
X-43.533 Z-6.723
X-43.353 Z-6.69
X-42.499 Z-6.567
X-42.125 Z-6.532
X-41.765 Z-6.513
X-41.267 Z-6.517
X-40.804 Z-6.501
X-40.441
X-39.554 Z-6.571
X-39.139 Z-6.585
X-37.635 Z-6.63
X-36.39 Z-6.655
X-35.901 Z-6.691
X-35.418 Z-6.696
X-34.761 Z-6.738
X-34.406 Z-6.734
X-34.082 Z-6.73
X-33.893 Z-6.748
X-33.521 Z-6.803
X-32.737 Z-6.863
X-32.031 Z-6.893
X-31.62 Z-6.875
X-31.205 Z-6.862
X-30.479 Z-6.835
X-29.887 Z-6.783
X-29.392 Z-6.741
X-28.818 Z-6.667
X-27.758 Z-6.569
X-27.45 Z-6.554
X-26.879 Z-6.562
X-26.268
X-25.749 Z-6.577
X-25.389 Z-6.607
X-25.188 Z-6.635
X-24.898 Z-6.686
X-24.236 Z-6.791
X-23.936 Z-6.843
X-23.55 Z-6.933
X-22.614 Z-7.119
X-21.927 Z-7.213
X-20.89 Z-7.309
X-20.268 Z-7.327
X-19.49 Z-7.356
X-18.813 Z-7.366
X-18.48 Z-7.325
X-18.272 Z-7.313
X-18.171 Z-7.32
X-18.046 Z-7.338
X-17.702 Z-7.405
X-17.47 Z-7.406
X-16.485 Z-7.347
X-15.708 Z-7.253
X-15.352 Z-7.229
X-14.826 Z-7.171
X-14.515 Z-7.158
X-13.999 Z-7.144
X-13.484 Z-7.124
X-12.498 Z-7.153
X-12.141 Z-7.186
X-11.386 Z-7.285
X-10.697 Z-7.347
X-10.304 Z-7.395
X-9.564 Z-7.476
X-7.159 Z-7.639
X-6.225 Z-7.673
X-4.68 Z-7.759
X-3.888 Z-7.772
X-1.709 Z-7.721
X-0.926 Z-7.717
X0.558 Z-7.695
X1.336 Z-7.707
X2.714 Z-7.703
X3.003 Z-7.716
X3.174
X3.302 Z-7.662
X3.47 Z-7.555
X3.771 Z-7.332
X3.92 Z-7.225
X4 Z-7.178
X4.084 Z-7.137
X4.171 Z-7.106
X4.262 Z-7.086
X4.366 Z-7.078
X4.516 Z-7.092
X4.66 Z-7.134
X4.75 Z-7.175
X4.819 Z-7.216
X4.948 Z-7.316
X5.12 Z-7.498
X5.13 Z-7.492
X5.281 Z-7.407
X5.408 Z-7.371
X5.524 Z-7.361
X5.635 Z-7.377
X5.764 Z-7.424
X5.888 Z-7.499
X6.164 Z-7.735
X6.19 Z-7.738
X6.409 Z-7.7
X6.796 Z-7.576
X6.953 Z-7.539
X7.07 Z-7.524
X7.261 Z-7.53
X7.455 Z-7.572
X7.608 Z-7.506
X7.697 Z-7.477
X7.787 Z-7.458
X7.943 Z-7.449
X8.131 Z-7.472
X8.335 Z-7.411
X8.493 Z-7.391
X8.659 Z-7.401
X8.828 Z-7.447
X9.058 Z-7.557
X9.227 Z-7.637
X9.406 Z-7.679
X9.591 Z-7.527
X9.728 Z-7.423
X9.994 Z-7.258
X10.121 Z-7.202
X10.236 Z-7.174
X10.371 Z-7.164
X10.519 Z-7.186
X10.657 Z-7.24
X10.805 Z-7.333
X11.023 Z-7.515
X11.139 Z-7.597
X11.278 Z-7.651
X11.368 Z-7.671
X11.523 Z-7.688
X12.266 Z-7.693
X12.323 Z-7.677
X12.441 Z-7.581
X12.679 Z-7.324
X13.006 Z-6.981
X13.151 Z-6.86
X13.304 Z-6.775
X13.448 Z-6.733
X13.587 Z-6.72
X13.751 Z-6.743
X13.887 Z-6.798
X14.037 Z-6.906
X14.143 Z-7.019
X14.202 Z-7.095
X14.309 Z-7.264
X14.547 Z-7.688
X14.632 Z-7.813
X14.692 Z-7.808
X14.825 Z-7.749
X14.947 Z-7.666
X15.191 Z-7.452
X15.286 Z-7.381
X15.427 Z-7.303
X15.572 Z-7.258
X15.749 Z-7.242
X15.997 Z-7.272
X16.163 Z-7.238
X16.254 Z-7.222
X16.383 Z-7.215
X16.507 Z-7.23
X16.643 Z-7.273
X16.777 Z-7.348
X16.936 Z-7.483
X17.106 Z-7.67
X17.234 Z-7.799
X17.501 Z-7.677
X17.689 Z-7.619
X17.848 Z-7.606
X18.009 Z-7.625
X18.265 Z-7.705
X18.328 Z-7.691
X18.562 Z-7.633
X18.741 Z-7.625
X18.881 Z-7.647
X18.929 Z-7.659
X19.154 Z-7.747
X19.327 Z-7.815
X19.429 Z-7.826
X19.728 Z-7.831
X19.89 Z-7.818
X20.185 Z-7.716
X20.342 Z-7.679
X20.507 Z-7.668
X20.694 Z-7.69
X21.033 Z-7.781
X21.131 Z-7.792
X21.66 Z-7.787
X22.698 Z-7.776
X23.891 Z-7.751
X26.38 Z-7.672
X27.573 Z-7.631
X28.559 Z-7.623
X29.285 Z-7.646
X30.893 Z-7.67
X31.723 Z-7.69
X33.213 Z-7.693
X34.51 Z-7.642
X34.742 Z-7.625
X34.842 Z-7.583
X35.077 Z-7.405
X35.225 Z-7.297
X35.382 Z-7.198
X35.578 Z-7.101
X35.796 Z-7.031
X36.023 Z-6.996
X36.528 Z-6.984
X37.025 Z-6.949
X37.304 Z-6.935
X38.108 Z-6.918
X38.73 Z-6.906
X39.661 Z-6.869
X40.307 Z-6.813
X40.821 Z-6.782
X41.34 Z-6.763
X41.988 Z-6.736
X42.955 Z-6.738
X43.37 Z-6.747
X43.717 Z-6.78
X44.172 Z-6.803
X44.571 Z-6.828
X45.475 Z-6.898
X46.201 Z-6.917
X46.809 Z-6.947
X47.224 Z-6.936
X48.139 Z-6.928
X48.497 Z-6.893
X48.985 Z-6.797
X49.277 Z-6.752
X49.297 Y-42.931 Z-6.748
X49.318 Y-42.926 Z-6.744
X49.337 Y-42.918 Z-6.74
X49.354 Y-42.907 Z-6.736
X49.37 Y-42.893 Z-6.732
X49.383 Y-42.877 Z-6.728
X49.394 Y-42.859 Z-6.725
X49.402 Y-42.84 Z-6.722
X49.406 Y-42.819 Z-6.719
X49.408 Y-42.798 Z-6.717
X49.407 Y-42.767 Z-6.715
X49.405 Y-42.746 Z-6.713
X49.4 Y-42.725 Z-6.712
X49.392 Y-42.706
X49.381 Y-42.688
X49.367 Y-42.672 Z-6.713
X49.351 Y-42.658 Z-6.715
X49.333 Y-42.647 Z-6.717
X49.313 Y-42.639 Z-6.72
X49.293 Y-42.634 Z-6.723
X49.272 Y-42.632 Z-6.726
X49.264 Z-6.728
X48.513 Z-6.857
X48.107 Z-6.9
X47.585 Z-6.907
X47.17 Z-6.914
X46.807 Z-6.923
X46.155 Z-6.88
X45.377 Z-6.863
X44.837 Z-6.806
X44.635 Z-6.787
X44.194 Z-6.775
X43.792 Z-6.764
X43.326 Z-6.714
X42.891 Z-6.707
X42.032 Z-6.714
X41.42 Z-6.753
X40.849 Z-6.764
X40.33 Z-6.781
X40.133 Z-6.799
X39.65 Z-6.864
X38.924 Z-6.901
X38.091 Z-6.893
X37.066 Z-6.941
X36.563 Z-6.972
X36.025 Z-6.973
X35.861 Z-6.995
X35.718 Z-7.036
X35.53 Z-7.125
X35.365 Z-7.233
X34.979 Z-7.527
X34.847 Z-7.608
X34.743 Z-7.637
X34.032 Z-7.666
X33.419 Z-7.696
X31.949 Z-7.689
X30.899 Z-7.663
X29.189 Z-7.646
X28.515 Z-7.624
X27.633 Z-7.631
X26.336 Z-7.664
X23.12 Z-7.759
X21.772 Z-7.775
X21.097 Z-7.796
X20.932 Z-7.775
X20.754 Z-7.732
X20.605 Z-7.706
X20.413 Z-7.702
X20.213 Z-7.735
X19.92 Z-7.818
X19.735 Z-7.828
X19.311 Z-7.814
X19.243 Z-7.799
X18.975 Z-7.704
X18.877 Z-7.679
X18.778 Z-7.663
X18.64 Z-7.659
X18.572 Z-7.665
X18.482 Z-7.68
X18.221 Z-7.74
X17.931 Z-7.698
X17.752 Z-7.697
X17.634 Z-7.714
X17.33 Z-7.787
X17.286 Z-7.767
X17.197 Z-7.678
X17.022 Z-7.467
X16.956 Z-7.394
X16.849 Z-7.291
X16.729 Z-7.204
X16.596 Z-7.142
X16.451 Z-7.109
X16.298 Z-7.107
X16.134 Z-7.14
X15.828 Z-7.253
X15.628 Z-7.282
X15.538 Z-7.301
X15.45 Z-7.328
X15.364 Z-7.363
X15.128 Z-7.47
X14.906 Z-7.57
X14.691 Z-7.704
X14.546 Z-7.789
X14.524 Z-7.792
X14.406 Z-7.646
X14.114 Z-7.231
X14.051 Z-7.157
X13.937 Z-7.043
X13.795 Z-6.945
X13.661 Z-6.888
X13.501 Z-6.86
X13.335 Z-6.872
X13.212 Z-6.901
X13.011 Z-6.982
X12.84 Z-7.079
X12.63 Z-7.244
X12.314 Z-7.552
X12.233 Z-7.597
X12.066 Z-7.615
X11.795 Z-7.612
X11.64 Z-7.591
X11.223 Z-7.501
X10.948 Z-7.465
X10.853 Z-7.422
X10.672 Z-7.325
X10.522 Z-7.275
X10.432 Z-7.26
X10.277 Z-7.268
X10.138 Z-7.312
X9.99 Z-7.4
X9.807 Z-7.566
X9.688 Z-7.683
X9.33 Z-7.582
X9.224 Z-7.564
X9.071 Z-7.552
X8.911 Z-7.55
X8.611 Z-7.491
X8.537 Z-7.478
X8.276 Z-7.299
X8.109 Z-7.222
X7.94 Z-7.186
X7.795 Z-7.189
X7.683 Z-7.213
X7.553 Z-7.269
X7.452 Z-7.332
X7.279 Z-7.485
X7.079 Z-7.684
X7.018 Z-7.727
X6.843 Z-7.742
X6.345 Z-7.746
X6.223
X6.024 Z-7.518
X5.918 Z-7.413
X5.793 Z-7.325
X5.713 Z-7.284
X5.569 Z-7.248
X5.478 Z-7.243
X5.338 Z-7.27
X5.222 Z-7.318
X5.099 Z-7.401
X4.919 Z-7.179
X4.746 Z-7.022
X4.59 Z-6.92
X4.436 Z-6.858
X4.298 Z-6.834
X4.157 Z-6.843
X4.022 Z-6.885
X3.88 Z-6.971
X3.724 Z-7.112
X3.364 Z-7.528
X3.219 Z-7.659
X3.136 Z-7.709
X3.068 Z-7.719
X2.672 Z-7.705
X1.342 Z-7.701
X0.641 Z-7.689
X-0.526 Z-7.717
X-1.695 Z-7.711
X-2.577 Z-7.735
X-3.225 Z-7.755
X-4.225 Z-7.767
X-5.625 Z-7.705
X-6.497 Z-7.658
X-7.365 Z-7.613
X-8.652 Z-7.521
X-9.053 Z-7.487
X-9.752 Z-7.44
X-10.307 Z-7.371
X-10.725 Z-7.314
X-12.269 Z-7.175
X-12.565 Z-7.15
X-13.499 Z-7.122
X-13.835 Z-7.133
X-14.494 Z-7.17
X-14.857 Z-7.189
X-15.347 Z-7.236
X-15.649 Z-7.255
X-16.024 Z-7.305
X-16.481 Z-7.357
X-17.042 Z-7.394
X-17.614 Z-7.445
X-17.718 Z-7.443
X-17.975 Z-7.394
X-18.174 Z-7.359
X-18.327 Z-7.35
X-18.602 Z-7.368
X-18.813 Z-7.385
X-19.954 Z-7.356
X-20.681 Z-7.351
X-21.087 Z-7.311
X-21.379 Z-7.276
X-22.485 Z-7.185
X-22.777 Z-7.125
X-23.13 Z-7.039
X-23.695 Z-6.91
X-24.08 Z-6.819
X-25.046 Z-6.625
X-25.297 Z-6.587
X-26.267 Z-6.508
X-26.702
X-27.791 Z-6.538
X-28.081 Z-6.561
X-28.839 Z-6.646
X-29.503 Z-6.738
X-30.234 Z-6.814
X-30.909 Z-6.835
X-31.92 Z-6.889
X-32.42 Z-6.87
X-33.427 Z-6.806
X-33.766 Z-6.755
X-34.008 Z-6.72
X-34.246 Z-6.709
X-34.828 Z-6.72
X-35.795 Z-6.666
X-36.345 Z-6.631
X-36.733 Z-6.598
X-38.03 Z-6.562
X-38.502 Z-6.536
X-39.144 Z-6.532
X-39.756 Z-6.495
X-40.222 Z-6.444
X-40.48 Z-6.426
X-40.843 Z-6.429
X-41.456 Z-6.456
X-42.39 Z-6.495
X-42.584 Z-6.513
X-43.438 Z-6.638
X-43.796 Z-6.712
X-44.46 Z-6.859
X-45.619 Z-7.073
X-46.503 Z-7.2
X-47.019 Z-7.237
X-47.676 Z-7.245
X-48.242 Z-7.216
X-48.797 Z-7.157
X-49.244 Z-7.065
X-49.263 Z-7.057
X-49.276 Z-7.041
X-49.28 Z-7.021
Z-6.997
X-49.281 Y-42.625 Z-6.965
Y-42.604 Z-6.939
X-49.282 Y-42.574 Z-6.924
X-49.283 Y-42.541
X-49.284 Y-42.511 Z-6.939
X-49.285 Y-42.49 Z-6.965
Y-42.482 Z-6.997
X-49.28 Z-7.017
X-49.267 Z-7.033
X-49.249 Z-7.041
X-48.878 Z-7.116
X-48.424 Z-7.173
X-47.787 Z-7.22
X-47.313 Z-7.215
X-46.587 Z-7.175
X-45.509 Z-7.03
X-44.742 Z-6.879
X-43.779 Z-6.669
X-43.421 Z-6.598
X-42.667 Z-6.488
X-42.478 Z-6.468
X-42.115 Z-6.459
X-41.716 Z-6.434
X-40.87 Z-6.391
X-40.481
X-40.223 Z-6.409
X-39.748 Z-6.466
X-39.092 Z-6.509
X-38.465 Z-6.51
X-38.016 Z-6.538
X-36.719 Z-6.579
X-36.292 Z-6.624
X-35.827 Z-6.646
X-35.023 Z-6.705
X-34.188 Z-6.704
X-33.983 Z-6.72
X-33.42 Z-6.803
X-32.913 Z-6.831
X-32.054 Z-6.88
X-31.687
X-30.835 Z-6.822
X-30.213 Z-6.808
X-29.907 Z-6.78
X-28.985 Z-6.66
X-28.205 Z-6.556
X-27.924 Z-6.529
X-27.509 Z-6.513
X-26.588 Z-6.481
X-26.212 Z-6.489
X-25.957 Z-6.513
X-25.424 Z-6.565
X-25.171 Z-6.592
X-24.871 Z-6.646
X-24.275 Z-6.775
X-23.791 Z-6.893
X-23.04 Z-7.071
X-22.668 Z-7.172
X-22.488 Z-7.207
X-21.613 Z-7.26
X-21.277 Z-7.292
X-20.905 Z-7.342
X-20.504 Z-7.372
X-19.752 Z-7.369
X-18.92 Z-7.392
X-18.335 Z-7.373
X-18.183 Z-7.383
X-17.893 Z-7.435
X-17.716 Z-7.459
X-17.612 Z-7.458
X-17.034 Z-7.4
X-16.423 Z-7.358
X-16.02 Z-7.309
X-15.646 Z-7.258
X-14.856 Z-7.198
X-13.939 Z-7.139
X-13.459 Z-7.123
X-12.564 Z-7.15
X-12.267 Z-7.175
X-10.761 Z-7.294
X-10.469 Z-7.332
X-9.834 Z-7.415
X-9.034 Z-7.473
X-8.546 Z-7.521
X-7.253 Z-7.612
X-6.382 Z-7.656
X-5.625 Z-7.705
X-4.278 Z-7.76
X-3.095 Z-7.752
X-2.526 Z-7.73
X-1.799 Z-7.711
X-0.316 Z-7.714
X0.67 Z-7.686
X1.241 Z-7.695
X2.403 Z-7.705
X3.014 Z-7.721
X3.115 Z-7.711
X3.186 Z-7.666
X3.34 Z-7.509
X3.697 Z-7.045
X3.815 Z-6.927
X3.909 Z-6.852
X4.055 Z-6.777
X4.185 Z-6.748
X4.3 Z-6.749
X4.435 Z-6.776
X4.586 Z-6.845
X4.741 Z-6.956
X4.904 Z-7.121
X5.091 Z-7.372
X5.214 Z-7.285
X5.333 Z-7.235
X5.48 Z-7.206
X5.58 Z-7.213
X5.722 Z-7.251
X5.846 Z-7.322
X5.974 Z-7.432
X6.232 Z-7.745
X6.368 Z-7.74
X6.77 Z-7.738
X6.967 Z-7.733
X7.009 Z-7.705
X7.286 Z-7.389
X7.422 Z-7.261
X7.544 Z-7.177
X7.678 Z-7.119
X7.812 Z-7.092
X7.94 Z-7.094
X8.085 Z-7.125
X8.232 Z-7.19
X8.406 Z-7.309
X8.677 Z-7.551
X8.74 Z-7.565
X8.899 Z-7.516
X9.061 Z-7.491
X9.239 Z-7.503
X9.338 Z-7.524
X9.434 Z-7.553
X9.796 Z-7.688
X9.966 Z-7.545
X10.098 Z-7.453
X10.252 Z-7.384
X10.401 Z-7.364
X10.526 Z-7.376
X10.803 Z-7.451
X11.134 Z-7.441
X11.309 Z-7.46
X11.727 Z-7.581
X11.898 Z-7.601
X12.112 Z-7.596
X12.232 Z-7.576
X12.304 Z-7.537
X12.571 Z-7.289
X12.764 Z-7.137
X12.949 Z-7.033
X13.101 Z-6.978
X13.244 Z-6.947
X13.414 Z-6.94
X13.563 Z-6.965
X13.689 Z-7.015
X13.827 Z-7.102
X13.902 Z-7.167
X13.973 Z-7.236
X14.039 Z-7.31
X14.339 Z-7.683
X14.442 Z-7.785
X14.505 Z-7.767
X14.822 Z-7.571
X14.904 Z-7.528
X15.033 Z-7.473
X15.271 Z-7.418
X15.737 Z-7.293
X15.887 Z-7.221
X16.087 Z-7.13
X16.255 Z-7.088
X16.435 Z-7.082
X16.581 Z-7.111
X16.717 Z-7.169
X16.84 Z-7.252
X16.948 Z-7.351
X17.014 Z-7.422
X17.252 Z-7.699
X17.344 Z-7.772
X17.396 Z-7.788
X17.583 Z-7.76
X17.814 Z-7.733
X18.192 Z-7.752
X18.517 Z-7.694
X18.692 Z-7.682
X18.881 Z-7.703
X19.103 Z-7.763
X19.282 Z-7.807
X19.771 Z-7.825
X19.95 Z-7.816
X20.242 Z-7.749
X20.396 Z-7.726
X20.588 Z-7.728
X20.739 Z-7.749
X20.918 Z-7.785
X21.077 Z-7.8
X21.752 Z-7.773
X22.945 Z-7.756
X26.109 Z-7.665
X27.51 Z-7.634
X28.469 Z-7.623
X29.17 Z-7.648
X30.954 Z-7.662
X32.002 Z-7.688
X32.553 Z-7.691
X33.46 Z-7.697
X34.176 Z-7.66
X34.673 Z-7.648
X34.808 Z-7.633
X34.922 Z-7.578
X35.003 Z-7.521
X35.301 Z-7.279
X35.489 Z-7.141
X35.654 Z-7.051
X35.829 Z-6.992
X36.023 Z-6.965
X36.476 Z-6.971
X37.957 Z-6.885
X38.372
X39.012 Z-6.895
X39.581 Z-6.86
X40.144 Z-6.783
X40.336 Z-6.768
X40.855 Z-6.755
X41.425 Z-6.744
X42.028 Z-6.705
X42.91 Z-6.695
X43.324 Z-6.703
X43.801 Z-6.754
X44.131 Z-6.762
X44.597 Z-6.766
X44.75 Z-6.777
X45.053 Z-6.816
X45.388 Z-6.852
X46.166 Z-6.87
X46.803 Z-6.913
X47.166 Z-6.905
X47.633 Z-6.898
X48.071 Z-6.888
X48.577 Z-6.834
X49.259 Z-6.721
X49.278 Z-6.712
X49.292 Z-6.697
X49.297 Z-6.676
Y-42.475 Z-6.644
Y-42.454 Z-6.618
Y-42.424 Z-6.603
Y-42.391
Y-42.361 Z-6.618
Y-42.34 Z-6.644
Y-42.332 Z-6.676
X49.292 Z-6.697
X49.278 Z-6.713
X49.259 Z-6.721
X48.777 Z-6.802
X48.179 Z-6.869
X47.7 Z-6.892
X47.157 Z-6.898
X46.845 Z-6.905
X46.27 Z-6.868
X45.393 Z-6.841
X45.058 Z-6.803
X44.756 Z-6.763
X44.614 Z-6.753
X43.909 Z-6.744
X43.269 Z-6.694
X42.582 Z-6.687
X42.012 Z-6.694
X41.4 Z-6.726
X40.934 Z-6.741
X40.209 Z-6.766
X39.927 Z-6.796
X39.34 Z-6.863
X38.787 Z-6.889
X37.993 Z-6.876
X37.642 Z-6.899
X36.413 Z-6.979
X36.045 Z-6.968
X35.848 Z-6.989
X35.671 Z-7.042
X35.544 Z-7.104
X35.388 Z-7.206
X35.163 Z-7.387
X34.935 Z-7.57
X34.85 Z-7.621
X34.758 Z-7.646
X34.211 Z-7.66
X33.438 Z-7.697
X32.518 Z-7.69
X31.846 Z-7.682
X30.964 Z-7.664
X30.165 Z-7.66
X29.117 Z-7.648
X28.443 Z-7.622
X27.837 Z-7.628
X25.555 Z-7.671
X23.584 Z-7.732
X22.339 Z-7.76
X21.612 Z-7.779
X21.042 Z-7.803
X20.868 Z-7.788
X20.545 Z-7.746
X20.38 Z-7.749
X20.28 Z-7.76
X19.96 Z-7.815
X19.697 Z-7.817
X19.23 Z-7.798
X18.862 Z-7.724
X18.709 Z-7.708
X18.485 Z-7.72
X18.178 Z-7.759
X17.771 Z-7.768
X17.473 Z-7.796
X17.416 Z-7.783
X17.376 Z-7.763
X17.263 Z-7.674
X17.03 Z-7.42
X16.922 Z-7.31
X16.777 Z-7.198
X16.658 Z-7.133
X16.523 Z-7.09
X16.376 Z-7.074
X16.241 Z-7.085
X16.073 Z-7.131
X15.876 Z-7.229
X15.652 Z-7.363
X15.594 Z-7.387
X15.449 Z-7.419
X15.154 Z-7.432
X15.007 Z-7.466
X14.877 Z-7.517
X14.714 Z-7.604
X14.491 Z-7.735
X14.371 Z-7.778
X14.329 Z-7.782
X14.227 Z-7.698
X13.908 Z-7.343
X13.839 Z-7.273
X13.766 Z-7.208
X13.689 Z-7.15
X13.571 Z-7.084
X13.418 Z-7.035
X13.26 Z-7.021
X13.088 Z-7.042
X12.912 Z-7.099
X12.728 Z-7.202
X12.527 Z-7.362
X12.326 Z-7.534
X12.27 Z-7.568
X12.145 Z-7.6
X11.94 Z-7.61
X11.767 Z-7.587
X11.609 Z-7.516
X11.476 Z-7.452
X11.335 Z-7.402
X11.187 Z-7.38
X11.017 Z-7.395
X10.755 Z-7.465
X10.618 Z-7.496
X10.395 Z-7.501
X10.261 Z-7.529
X10.173 Z-7.563
X10.05 Z-7.63
X9.921 Z-7.705
X9.787 Z-7.658
X9.395 Z-7.48
X9.234 Z-7.435
X9.098 Z-7.421
X8.962 Z-7.433
X8.85 Z-7.463
X8.699 Z-7.53
X8.682 Z-7.536
X8.442 Z-7.282
X8.288 Z-7.157
X8.16 Z-7.083
X8.021 Z-7.033
X7.872 Z-7.013
X7.723 Z-7.029
X7.592 Z-7.075
X7.47 Z-7.146
X7.361 Z-7.238
X7.293 Z-7.31
X7.174 Z-7.455
X7.003 Z-7.679
X6.948 Z-7.731
X6.77 Z-7.734
X6.407
X6.237 Z-7.741
X6.017 Z-7.457
X5.898 Z-7.335
X5.777 Z-7.253
X5.665 Z-7.207
X5.542 Z-7.183
X5.44 Z-7.185
X5.306 Z-7.218
X5.191 Z-7.275
X5.084 Z-7.355
X4.913 Z-7.107
X4.786 Z-6.956
X4.637 Z-6.823
X4.516 Z-6.747
X4.472 Z-6.727
X4.353 Z-6.69
X4.228 Z-6.676
X4.087 Z-6.695
X3.977 Z-6.738
X3.848 Z-6.82
X3.802 Z-6.861
X3.688 Z-6.98
X3.511 Z-7.228
X3.289 Z-7.545
X3.155 Z-7.682
X3.086 Z-7.72
X2.954 Z-7.723
X2.609 Z-7.709
X1.346 Z-7.698
X0.724 Z-7.684
X-0.423 Z-7.715
X-2.013 Z-7.712
X-2.584 Z-7.733
X-3.101 Z-7.751
X-4.22 Z-7.754
X-5.569 Z-7.704
X-6.419 Z-7.642
X-7.191 Z-7.605
X-8.536 Z-7.512
X-8.966 Z-7.462
X-9.952 Z-7.383
X-10.582 Z-7.303
X-10.799 Z-7.278
X-12.219 Z-7.178
X-12.567 Z-7.149
X-13.435 Z-7.123
X-14.043 Z-7.146
X-14.734 Z-7.194
X-15.68 Z-7.267
X-16.299 Z-7.354
X-17.098 Z-7.418
X-17.625 Z-7.47
X-17.81 Z-7.466
X-18.181 Z-7.408
X-18.385 Z-7.392
X-19.355 Z-7.385
X-20.335 Z-7.384
X-20.83 Z-7.346
X-21.314 Z-7.286
X-21.663 Z-7.257
X-22.355 Z-7.219
X-22.604 Z-7.183
X-23.256 Z-7.027
X-23.72 Z-6.911
X-24.201 Z-6.784
X-24.597 Z-6.691
X-24.995 Z-6.611
X-25.286 Z-6.569
X-25.868 Z-6.511
X-26.16 Z-6.477
X-26.523 Z-6.463
X-26.989 Z-6.482
X-27.609 Z-6.505
X-28.024 Z-6.522
X-28.392 Z-6.564
X-29.377 Z-6.708
X-30.144 Z-6.797
X-30.87 Z-6.817
X-31.615 Z-6.873
X-32.1 Z-6.867
X-32.804 Z-6.821
X-33.419 Z-6.794
X-34.081 Z-6.705
X-34.435 Z-6.686
X-35.077 Z-6.681
X-35.777 Z-6.629
X-36.295 Z-6.608
X-36.724 Z-6.564
X-38.021 Z-6.516
X-38.48 Z-6.49
X-39.041 Z-6.488
X-39.734 Z-6.437
X-40.284 Z-6.372
X-40.673 Z-6.352
X-41.243 Z-6.36
X-41.55 Z-6.379
X-42.073 Z-6.428
X-42.514 Z-6.437
X-42.725 Z-6.461
X-43.469 Z-6.567
X-43.961 Z-6.67
X-45.355 Z-6.977
X-45.755 Z-7.042
X-46.635 Z-7.141
X-47.672 Z-7.192
X-48.038 Z-7.176
X-48.694 Z-7.112
X-49.155 Z-7.035
X-49.256 Z-7.015
X-49.264 Z-7.014
X-49.281 Y-42.331 Z-7.01
X-49.296 Y-42.325 Z-7.006
X-49.31 Y-42.316 Z-7.002
X-49.322 Y-42.304 Z-6.998
X-49.33 Y-42.29 Z-6.994
X-49.335 Y-42.274 Z-6.99
X-49.337 Y-42.257 Z-6.987
X-49.334 Y-42.241 Z-6.985
X-49.328 Y-42.225 Z-6.983
X-49.319 Y-42.211
X-49.307 Y-42.199
X-49.292 Y-42.19 Z-6.984
X-49.276 Y-42.184 Z-6.986
X-49.26 Y-42.182 Z-6.989
X-49.161 Z-7.007
X-48.609 Z-7.093
X-47.945 Z-7.151
X-47.642 Z-7.159
X-46.672 Z-7.104
X-45.645 Z-7.001
X-45.345 Z-6.949
X-44.475 Z-6.747
X-43.909 Z-6.62
X-43.407 Z-6.517
X-42.697 Z-6.423
X-42.507 Z-6.404
X-42.092 Z-6.396
X-41.504 Z-6.329
X-41.257 Z-6.313
X-40.842 Z-6.312
X-40.285 Z-6.342
X-39.799 Z-6.402
X-39.033 Z-6.466
X-38.538 Z-6.472
X-38.021 Z-6.496
X-36.776 Z-6.549
X-36.384 Z-6.581
X-35.664 Z-6.612
X-35.07 Z-6.656
X-34.553 Z-6.665
X-34.165 Z-6.69
X-33.416 Z-6.782
X-32.852 Z-6.806
X-32.046 Z-6.857
X-31.567 Z-6.864
X-31.025 Z-6.823
X-30.143 Z-6.788
X-29.133 Z-6.669
X-28.642 Z-6.592
X-28.281 Z-6.535
X-27.997 Z-6.507
X-27.634 Z-6.497
X-27.072 Z-6.471
X-26.554 Z-6.449
X-26.192 Z-6.461
X-25.938 Z-6.489
X-25.168 Z-6.577
X-24.878 Z-6.623
X-24.579 Z-6.683
X-24.085 Z-6.803
X-23.439 Z-6.983
X-22.782 Z-7.131
X-22.264 Z-7.214
X-21.805 Z-7.247
X-21.349 Z-7.277
X-20.625 Z-7.355
X-20.088 Z-7.397
X-19.347 Z-7.393
X-18.587 Z-7.396
X-18.304 Z-7.414
X-17.921 Z-7.466
X-17.716 Z-7.481
X-16.314 Z-7.365
X-15.821 Z-7.294
X-15.537 Z-7.257
X-14.352 Z-7.165
X-13.435 Z-7.121
X-12.527 Z-7.147
X-11.942 Z-7.2
X-11.022 Z-7.254
X-10.714 Z-7.277
X-10.241 Z-7.338
X-8.958 Z-7.447
X-8.392 Z-7.515
X-7.073 Z-7.601
X-6.35 Z-7.632
X-5.563 Z-7.696
X-4.421 Z-7.736
X-3.841 Z-7.754
X-2.751 Z-7.741
X-2.026 Z-7.712
X-0.671 Z-7.717
X0.729 Z-7.684
X1.352 Z-7.699
X2.562 Z-7.712
X3.004 Z-7.731
X3.091 Z-7.726
X3.164 Z-7.674
X3.324 Z-7.481
X3.533 Z-7.148
X3.633 Z-6.996
X3.723 Z-6.881
X3.861 Z-6.748
X3.96 Z-6.688
X4.069 Z-6.642
X4.219 Z-6.621
X4.318 Z-6.629
X4.46 Z-6.671
X4.547 Z-6.718
X4.651 Z-6.792
X4.796 Z-6.938
X4.92 Z-7.102
X5.076 Z-7.347
X5.221 Z-7.24
X5.324 Z-7.197
X5.459 Z-7.166
X5.559 Z-7.168
X5.634 Z-7.183
X5.75 Z-7.222
X5.853 Z-7.286
X5.945 Z-7.364
X6.044 Z-7.475
X6.242 Z-7.74
X6.394 Z-7.732
X6.933 Z-7.73
X6.969 Z-7.694
X7.112 Z-7.495
X7.268 Z-7.281
X7.39 Z-7.15
X7.494 Z-7.069
X7.599 Z-7.01
X7.731 Z-6.966
X7.88 Z-6.952
X8.029 Z-6.973
X8.167 Z-7.025
X8.314 Z-7.119
X8.476 Z-7.267
X8.666 Z-7.489
X8.71 Z-7.464
X8.868 Z-7.393
X8.971 Z-7.367
X9.114 Z-7.358
X9.264 Z-7.38
X9.417 Z-7.432
X9.791 Z-7.633
X9.962 Z-7.704
X10.068 Z-7.719
X10.159 Z-7.704
X10.416 Z-7.609
X10.589 Z-7.526
X10.842 Z-7.344
X10.925 Z-7.293
X11.011 Z-7.253
X11.152 Z-7.223
X11.301 Z-7.239
X11.413 Z-7.287
X11.553 Z-7.383
X11.774 Z-7.581
X11.836 Z-7.618
X11.952 Z-7.634
X12.106 Z-7.628
X12.253 Z-7.605
X12.34 Z-7.571
X12.722 Z-7.288
X12.902 Z-7.194
X13.063 Z-7.143
X13.237 Z-7.13
X13.387 Z-7.152
X13.54 Z-7.212
X13.694 Z-7.315
X13.82 Z-7.43
X14.091 Z-7.712
X14.167 Z-7.772
X14.199 Z-7.786
X14.294 Z-7.779
X14.435 Z-7.731
X14.674 Z-7.609
X14.902 Z-7.5
X15.08 Z-7.45
X15.229 Z-7.437
X15.532 Z-7.466
X15.613 Z-7.429
X15.867 Z-7.251
X16.008 Z-7.172
X16.094 Z-7.136
X16.229 Z-7.098
X16.36 Z-7.084
X16.503 Z-7.094
X16.646 Z-7.134
X16.802 Z-7.213
X16.919 Z-7.302
X16.984 Z-7.358
X17.248 Z-7.625
X17.371 Z-7.731
X17.473 Z-7.793
X17.549 Z-7.806
X18.457 Z-7.732
X18.68 Z-7.726
X18.859 Z-7.74
X19.234 Z-7.794
X19.649 Z-7.809
X19.986 Z-7.811
X20.177 Z-7.786
X20.364 Z-7.765
X20.52 Z-7.762
X21.014 Z-7.805
X21.584 Z-7.782
X23.763 Z-7.722
X25.527 Z-7.662
X28.372 Z-7.621
X29.096 Z-7.649
X30.164 Z-7.665
X30.889 Z-7.668
X31.719 Z-7.68
X33.451 Z-7.694
X34.275 Z-7.658
X34.751 Z-7.646
X34.817 Z-7.633
X34.902 Z-7.587
X35.347 Z-7.236
X35.501 Z-7.133
X35.614 Z-7.073
X35.755 Z-7.021
X35.871 Z-6.995
X36.039 Z-6.982
X36.356 Z-6.995
X36.793 Z-6.96
X37.74 Z-6.889
X38.02 Z-6.871
X38.565 Z-6.883
X39.125 Z-6.857
X40.099 Z-6.765
X40.514 Z-6.75
X41.025 Z-6.721
X41.647 Z-6.699
X42.27 Z-6.678
X43.203 Z-6.688
X44.015 Z-6.736
X44.659 Z-6.744
X44.861 Z-6.764
X45.142 Z-6.804
X45.534 Z-6.841
X46.364 Z-6.868
X46.808 Z-6.896
X47.475 Z-6.888
X47.942 Z-6.877
X48.656 Z-6.817
X49.266 Z-6.725
X49.286 Z-6.717
X49.299 Z-6.701
X49.304 Z-6.681
X49.305 Y-42.175 Z-6.648
X49.306 Y-42.154 Z-6.622
X49.308 Y-42.124 Z-6.607
X49.31 Y-42.091
X49.311 Y-42.061 Z-6.622
X49.313 Y-42.04 Z-6.648
Y-42.032 Z-6.681
Z-6.687
X49.308 Z-6.707
X49.294 Z-6.723
X49.274 Z-6.731
X48.58 Z-6.827
X47.665 Z-6.88
X46.863 Z-6.894
X46.312 Z-6.861
X45.436 Z-6.826
X45.057 Z-6.783
X44.704 Z-6.739
X44.021 Z-6.724
X43.455 Z-6.696
X42.469 Z-6.668
X41.276 Z-6.691
X40.925 Z-6.716
X40.471 Z-6.746
X40.004 Z-6.763
X39.619 Z-6.793
X38.627 Z-6.875
X38.419 Z-6.877
X38.02 Z-6.868
X37.758 Z-6.886
X36.957 Z-6.949
X36.369 Z-7.01
X36.048 Z-6.997
X35.853 Z-7.011
X35.685 Z-7.055
X35.577 Z-7.101
X35.418 Z-7.194
X35.15 Z-7.397
X34.892 Z-7.593
X34.799 Z-7.635
X34.574 Z-7.648
X34.163 Z-7.666
X33.333 Z-7.693
X31.352 Z-7.674
X30.729 Z-7.673
X29.333 Z-7.657
X28.36 Z-7.621
X26.4 Z-7.644
X25.311 Z-7.659
X23.858 Z-7.714
X23.08 Z-7.737
X21.005 Z-7.805
X20.455 Z-7.773
X20.299 Z-7.781
X19.907 Z-7.81
X19.22 Z-7.787
X18.712 Z-7.706
X18.492 Z-7.705
X18.046 Z-7.765
X17.618 Z-7.816
X17.541 Z-7.81
X17.456 Z-7.765
X17.301 Z-7.636
X17.006 Z-7.353
X16.824 Z-7.219
X16.676 Z-7.145
X16.545 Z-7.108
X16.39 Z-7.094
X16.223 Z-7.113
X16.096 Z-7.152
X16.011 Z-7.189
X15.93 Z-7.233
X15.853 Z-7.282
X15.708 Z-7.393
X15.54 Z-7.523
X15.268 Z-7.47
X15.127 Z-7.469
X14.962 Z-7.497
X14.735 Z-7.579
X14.428 Z-7.718
X14.287 Z-7.768
X14.132 Z-7.792
X14.041 Z-7.782
X13.955 Z-7.727
X13.729 Z-7.534
X13.65 Z-7.471
X13.567 Z-7.413
X13.48 Z-7.364
X13.388 Z-7.325
X13.229 Z-7.288
X13.064 Z-7.291
X12.907 Z-7.33
X12.735 Z-7.41
X12.431 Z-7.593
X12.326 Z-7.63
X12.274 Z-7.634
X12.189 Z-7.623
X12.041 Z-7.618
X11.898 Z-7.622
X11.651 Z-7.328
X11.583 Z-7.255
X11.511 Z-7.189
X11.401 Z-7.113
X11.3 Z-7.068
X11.153 Z-7.051
X11.049 Z-7.072
X10.942 Z-7.116
X10.813 Z-7.207
X10.65 Z-7.366
X10.482 Z-7.542
X10.378 Z-7.624
X10.292 Z-7.67
