(1001)
G90 G94
G17
G21
(When using Fusion 360 for Personal Use, the feedrate of)
(rapid moves is reduced to match the feedrate of cutting)
(moves, which can increase machining time. Unrestricted rapid)
(moves are available with a Fusion 360 Subscription.)

(2D-Kontur1)
S8000 M3
G54
G0 X57.459 Y-54.092
Z15
G1 Z5 F1000
Z2 F333.3
Z1.317
X57.453 Y-54.087 Z1.247 F1000
X57.435 Y-54.072 Z1.18
X57.405 Y-54.048 Z1.12
X57.366 Y-54.017 Z1.069
X57.319 Y-53.979 Z1.031
X57.267 Y-53.937 Z1.008
X57.212 Y-53.893 Z1
X56.964 Y-53.694
G3 X56.518 Y-53.743 I-0.199 J-0.248
S5000
G2 X51.38 Y-56.208 Z0.794 I-5.138 J4.123 F333.3
G1 X0 Z-1
S8000
X-51.38 F1000
G2 X-57.967 Y-49.62 I0 J6.588
G1 Y49.62
G2 X-51.38 Y56.208 I6.587 J0
G1 X51.38
G2 X57.967 Y49.62 I0 J-6.588
G1 Y-49.62
G2 X51.38 Y-56.208 I-6.587 J0
G1 X0
S5000
X-28.636 Z-2 F333.3
S8000
X-51.38 F1000
G2 X-57.967 Y-49.62 I0 J6.588
G1 Y49.62
G2 X-51.38 Y56.208 I6.587 J0
G1 X51.38
G2 X57.967 Y49.62 I0 J-6.588
G1 Y-49.62
G2 X51.38 Y-56.208 I-6.587 J0
G1 X0
X-28.636
S5000
X-51.38 Z-2.794 F333.3
G2 X-56.518 Y-53.743 Z-3 I0 J6.588
S8000
X-57.967 Y-49.62 I5.138 J4.123 F1000
G1 Y49.62
G2 X-51.38 Y56.208 I6.587 J0
G1 X51.38
G2 X57.967 Y49.62 I0 J-6.588
G1 Y-49.62
G2 X51.38 Y-56.208 I-6.587 J0
G1 X-28.636
X-51.38
G2 X-56.518 Y-53.743 I0 J6.588
S5000
X-57.967 Y-49.62 Z-3.156 I5.138 J4.123 F333.3
G1 Y-25.439 Z-4
S8000
Y49.62 F1000
G2 X-51.38 Y56.208 I6.587 J0
G1 X51.38
G2 X57.967 Y49.62 I0 J-6.588
G1 Y-49.62
G2 X51.38 Y-56.208 I-6.587 J0
G1 X-51.38
G2 X-57.967 Y-49.62 I0 J6.588
G1 Y-25.439
S5000
Y3.197 Z-5 F333.3
S8000
Y49.62 F1000
G2 X-51.38 Y56.208 I6.587 J0
G1 X51.38
G2 X57.967 Y49.62 I0 J-6.588
G1 Y-49.62
G2 X51.38 Y-56.208 I-6.587 J0
G1 X-51.38
G2 X-57.967 Y-49.62 I0 J6.588
G1 Y3.197
S5000
Y31.834 Z-6 F333.3
S8000
Y49.62 F1000
G2 X-51.38 Y56.208 I6.587 J0
G1 X51.38
G2 X57.967 Y49.62 I0 J-6.588
G1 Y-49.62
G2 X51.38 Y-56.208 I-6.587 J0
G1 X-51.38
G2 X-57.967 Y-49.62 I0 J6.588
G1 Y3.197
Y31.834
S5000
Y49.62 Z-6.621 F333.3
G2 X-51.38 Y56.208 Z-6.982 I6.587 J0
G1 X-50.878 Z-7
S8000
X51.38 F1000
G2 X57.967 Y49.62 I0 J-6.588
G1 Y-49.62
G2 X51.38 Y-56.208 I-6.587 J0
G1 X-51.38
G2 X-57.967 Y-49.62 I0 J6.588
G1 Y31.834
Y49.62
G2 X-51.38 Y56.208 I6.587 J0
G1 X-50.878
S5000
X-22.241 Z-8 F333.3
S8000
X51.38 F1000
G2 X57.967 Y49.62 I0 J-6.588
G1 Y-49.62
G2 X51.38 Y-56.208 I-6.587 J0
G1 X-51.38
G2 X-57.967 Y-49.62 I0 J6.588
G1 Y49.62
G2 X-51.38 Y56.208 I6.587 J0
G1 X-22.241
S5000
X6.395 Z-9 F333.3
S8000
X51.38 F1000
G2 X57.967 Y49.62 I0 J-6.588
G1 Y-49.62
G2 X51.38 Y-56.208 I-6.587 J0
G1 X-51.38
G2 X-57.967 Y-49.62 I0 J6.588
G1 Y49.62
G2 X-51.38 Y56.208 I6.587 J0
G1 X-22.241
X6.395
S5000
X35.031 Z-10 F333.3
S8000
X51.38 F1000
G2 X57.967 Y49.62 I0 J-6.588
G1 Y-49.62
G2 X51.38 Y-56.208 I-6.587 J0
G1 X-51.38
G2 X-57.967 Y-49.62 I0 J6.588
G1 Y49.62
G2 X-51.38 Y56.208 I6.587 J0
G1 X6.395
X35.031
S5000
X51.38 Z-10.571 F333.3
G2 X57.967 Y49.62 Z-10.932 I0 J-6.588
G1 Y47.68 Z-11
S8000
Y-49.62 F1000
G2 X51.38 Y-56.208 I-6.587 J0
G1 X-51.38
G2 X-57.967 Y-49.62 I0 J6.588
G1 Y49.62
G2 X-51.38 Y56.208 I6.587 J0
G1 X35.031
X51.38
G2 X57.967 Y49.62 I0 J-6.588
G1 Y47.68
S5000
Y19.044 Z-12 F333.3
S8000
Y-49.62 F1000
G2 X51.38 Y-56.208 I-6.587 J0
G1 X-51.38
G2 X-57.967 Y-49.62 I0 J6.588
G1 Y49.62
G2 X-51.38 Y56.208 I6.587 J0
G1 X51.38
G2 X57.967 Y49.62 I0 J-6.588
G1 Y19.044
S5000
Y-9.592 Z-13 F333.3
S8000
Y-49.62 F1000
G2 X51.38 Y-56.208 I-6.587 J0
G1 X-51.38
G2 X-57.967 Y-49.62 I0 J6.588
G1 Y49.62
G2 X-51.38 Y56.208 I6.587 J0
G1 X51.38
G2 X57.967 Y49.62 I0 J-6.588
G1 Y19.044
Y-9.592
S5000
Y-38.228 Z-14 F333.3
S8000
Y-49.62 F1000
G2 X51.38 Y-56.208 I-6.587 J0
G1 X-51.38
G2 X-57.967 Y-49.62 I0 J6.588
G1 Y49.62
G2 X-51.38 Y56.208 I6.587 J0
G1 X51.38
G2 X57.967 Y49.62 I0 J-6.588
G1 Y-9.592
Y-38.228
S5000
Y-49.62 Z-14.398 F333.3
G2 X51.38 Y-56.208 Z-14.759 I-6.587 J0
G1 X44.483 Z-15
S8000
X-51.38 F1000
G2 X-57.967 Y-49.62 I0 J6.588
G1 Y49.62
G2 X-51.38 Y56.208 I6.587 J0
G1 X51.38
G2 X57.967 Y49.62 I0 J-6.588
G1 Y-38.228
Y-49.62
G2 X51.38 Y-56.208 I-6.587 J0
G1 X44.483
S5000
X15.847 Z-16 F333.3
S8000
X-51.38 F1000
G2 X-57.967 Y-49.62 I0 J6.588
G1 Y49.62
G2 X-51.38 Y56.208 I6.587 J0
G1 X51.38
G2 X57.967 Y49.62 I0 J-6.588
G1 Y-49.62
G2 X51.38 Y-56.208 I-6.587 J0
G1 X15.847
S5000
X-12.79 Z-17 F333.3
S8000
X-51.38 F1000
G2 X-57.967 Y-49.62 I0 J6.588
G1 Y49.62
G2 X-51.38 Y56.208 I6.587 J0
G1 X51.38
G2 X57.967 Y49.62 I0 J-6.588
G1 Y-49.62
G2 X51.38 Y-56.208 I-6.587 J0
G1 X15.847
X-12.79
S5000
X-41.426 Z-18 F333.3
S8000
X-51.38 F1000
G2 X-57.967 Y-49.62 I0 J6.588
G1 Y49.62
G2 X-51.38 Y56.208 I6.587 J0
G1 X51.38
G2 X57.967 Y49.62 I0 J-6.588
G1 Y-49.62
G2 X51.38 Y-56.208 I-6.587 J0
G1 X-12.79
X-41.426
S5000
X-51.38 Z-18.348 F333.3
G2 X-57.967 Y-49.62 Z-18.709 I0 J6.588
G1 Y-41.286 Z-19
S8000
Y49.62 F1000
G2 X-51.38 Y56.208 I6.587 J0
G1 X51.38
G2 X57.967 Y49.62 I0 J-6.588
G1 Y-49.62
G2 X51.38 Y-56.208 I-6.587 J0
G1 X-41.426
X-51.38
G2 X-57.967 Y-49.62 I0 J6.588
G1 Y-41.286
S5000
Y-21.24 Z-19.7 F333.3
S8000
Y-3.588 F1000
Z-19.1
Y3.588
Z-19.7 F333.3
Y49.62 F1000
G2 X-51.38 Y56.208 I6.587 J0
G1 X-3.588
Z-19.1
X3.588
Z-19.7 F333.3
X51.38 F1000
G2 X57.967 Y49.62 I0 J-6.588
G1 Y3.588
Z-19.1
Y-3.588
Z-19.7 F333.3
Y-49.62 F1000
G2 X51.38 Y-56.208 I-6.587 J0
G1 X3.588
Z-19.1
X-3.588
Z-19.7 F333.3
X-51.38 F1000
G2 X-57.967 Y-49.62 I0 J6.588
G1 Y-21.24
Z15
M5
M30
