(1001)
G90 G94
G17
G21
(When using Fusion 360 for Personal Use, the feedrate of)
(rapid moves is reduced to match the feedrate of cutting)
(moves, which can increase machining time. Unrestricted rapid)
(moves are available with a Fusion 360 Subscription.)

(2D-Kontur2)
S8000 M3
G54
G0 X-1.442 Y46.08
Z15
G1 Z5 F1000
Z2 F333.3
Z-0.683
G19 G3 Y46.397 Z-1 J0.317 K0 F1000
G1 Y46.715
G17 G3 X-1.76 Y47.033 I-0.317 J0
G1 X-48.792
Y-47.033
X48.792
Y47.033
X-1.76
G3 X-2.077 Y46.715 I0 J-0.318
G1 Y46.397
G19 G2 Y46.08 Z-0.683 J0 K0.317
G1 Z5
X-1.442
Z1 F333.3
Z-1.683
G3 Y46.397 Z-2 J0.317 K0 F1000
G1 Y46.715
G17 G3 X-1.76 Y47.033 I-0.317 J0
G1 X-48.792
Y-47.033
X48.792
Y47.033
X-1.76
G3 X-2.077 Y46.715 I0 J-0.318
G1 Y46.397
G19 G2 Y46.08 Z-1.683 J0 K0.317
G1 Z5
X-1.442
Z0 F333.3
Z-2.683
G3 Y46.397 Z-3 J0.317 K0 F1000
G1 Y46.715
G17 G3 X-1.76 Y47.033 I-0.317 J0
G1 X-48.792
Y-47.033
X48.792
Y47.033
X-1.76
G3 X-2.077 Y46.715 I0 J-0.318
G1 Y46.397
G19 G2 Y46.08 Z-2.683 J0 K0.318
G1 Z5
X-1.442
Z-1 F333.3
Z-3.683
G3 Y46.397 Z-4 J0.317 K0 F1000
G1 Y46.715
G17 G3 X-1.76 Y47.033 I-0.317 J0
G1 X-48.792
Y-47.033
X48.792
Y47.033
X-1.76
G3 X-2.077 Y46.715 I0 J-0.318
G1 Y46.397
G19 G2 Y46.08 Z-3.683 J0 K0.318
G1 Z5
X-1.442
Z-2 F333.3
Z-4.683
G3 Y46.397 Z-5 J0.317 K0 F1000
G1 Y46.715
G17 G3 X-1.76 Y47.033 I-0.317 J0
G1 X-48.792
Y-47.033
X48.792
Y47.033
X-1.76
G3 X-2.077 Y46.715 I0 J-0.318
G1 Y46.397
G19 G2 Y46.08 Z-4.683 J0 K0.318
G1 Z5
X-1.442
Z-3 F333.3
Z-5.683
G3 Y46.397 Z-6 J0.317 K0 F1000
G1 Y46.715
G17 G3 X-1.76 Y47.033 I-0.317 J0
G1 X-48.792
Y-47.033
X48.792
Y47.033
X-1.76
G3 X-2.077 Y46.715 I0 J-0.318
G1 Y46.397
G19 G2 Y46.08 Z-5.683 J0 K0.318
G1 Z5
X-1.442
Z-4 F333.3
Z-6.683
G3 Y46.397 Z-7 J0.317 K0 F1000
G1 Y46.715
G17 G3 X-1.76 Y47.033 I-0.317 J0
G1 X-48.792
Y-47.033
X48.792
Y47.033
X-1.76
G3 X-2.077 Y46.715 I0 J-0.318
G1 Y46.397
G19 G2 Y46.08 Z-6.683 J0 K0.318
G1 Z5
X-1.442
Z-5 F333.3
Z-7.683
G3 Y46.397 Z-8 J0.317 K0 F1000
G1 Y46.715
G17 G3 X-1.76 Y47.033 I-0.317 J0
G1 X-48.792
Y-47.033
X48.792
Y47.033
X-1.76
G3 X-2.077 Y46.715 I0 J-0.318
G1 Y46.397
G19 G2 Y46.08 Z-7.683 J0 K0.318
G1 Z5
X-1.442
Z-6 F333.3
Z-8.683
G3 Y46.397 Z-9 J0.317 K0 F1000
G1 Y46.715
G17 G3 X-1.76 Y47.033 I-0.317 J0
G1 X-48.792
Y-47.033
X48.792
Y47.033
X-1.76
G3 X-2.077 Y46.715 I0 J-0.318
G1 Y46.397
G19 G2 Y46.08 Z-8.683 J0 K0.318
G1 Z5
X-1.442
Z-7 F333.3
Z-9.683
G3 Y46.397 Z-10 J0.317 K0 F1000
G1 Y46.715
G17 G3 X-1.76 Y47.033 I-0.317 J0
G1 X-48.792
Y-47.033
X48.792
Y47.033
X-1.76
G3 X-2.077 Y46.715 I0 J-0.318
G1 Y46.397
G19 G2 Y46.08 Z-9.683 J0 K0.318
G1 Z5
X-1.442
Z-8 F333.3
Z-10.567
G3 Y46.397 Z-10.885 J0.317 K0 F1000
G1 Y46.715
G17 G3 X-1.76 Y47.033 I-0.317 J0
G1 X-48.792
Y-47.033
X48.792
Y47.033
X-1.76
G3 X-2.077 Y46.715 I0 J-0.318
G1 Y46.397
G19 G2 Y46.08 Z-10.567 J0 K0.318
G1 Z15
G17
M5
M30
