(Main_Platte)
(Bearbeiten)
(  Hersteller: ChinaCnc)
(  model: 3040T)
(  description: Generic 3-axis)
(T5 D=3.175 CR=0 - ZMIN=-4.3 - Schaftfrser)
G90 G94
G17
G21
(-Attention- Property Safe Retracts is set to Clearance Height.)
(Ensure the clearance height will clear the part and or fixtures.)
(Raise the Z-axis to a safe height before starting the program.)
(When using Fusion 360 for Personal Use, the feedrate of)
(rapid moves is reduced to match the feedrate of cutting)
(moves, which can increase machining time. Unrestricted rapid)
(moves are available with a Fusion 360 Subscription.)

(Bohrfrsen3 2)
M0
(MANUAL TOOL CHANGE TO T5)
S4000 M3
G17 G90 G94
G54
G0 X-230.421 Y-76.006
Z15
G1 Z2.682 F1000
Z1
Y-76.165
X-230.414 Y-76.196
X-230.397 Y-76.222
X-230.371 Y-76.24
X-230.339 Y-76.246
G3 X-230.339 Y-75.921 Z0.954 I0 J0.163
X-230.339 Y-76.246 Z0.908 I0 J-0.163
X-230.339 Y-75.921 Z0.863 I0 J0.163
X-230.339 Y-76.246 Z0.817 I0 J-0.163
X-230.339 Y-75.921 Z0.771 I0 J0.163
X-230.339 Y-76.246 Z0.725 I0 J-0.163
X-230.339 Y-75.921 Z0.679 I0 J0.163
X-230.339 Y-76.246 Z0.633 I0 J-0.163
X-230.339 Y-75.921 Z0.588 I0 J0.163
X-230.339 Y-76.246 Z0.542 I0 J-0.163
X-230.339 Y-75.921 Z0.496 I0 J0.163
X-230.339 Y-76.246 Z0.45 I0 J-0.163
X-230.339 Y-75.921 Z0.404 I0 J0.163
X-230.339 Y-76.246 Z0.358 I0 J-0.163
X-230.339 Y-75.921 Z0.313 I0 J0.163
X-230.339 Y-76.246 Z0.267 I0 J-0.163
X-230.339 Y-75.921 Z0.221 I0 J0.163
X-230.339 Y-76.246 Z0.175 I0 J-0.163
X-230.339 Y-75.921 Z0.129 I0 J0.163
X-230.339 Y-76.246 Z0.083 I0 J-0.163
X-230.339 Y-75.921 Z0.038 I0 J0.163
X-230.339 Y-76.246 Z-0.008 I0 J-0.163
X-230.339 Y-75.921 Z-0.054 I0 J0.163
X-230.339 Y-76.246 Z-0.1 I0 J-0.163
X-230.339 Y-75.921 Z-0.146 I0 J0.163
X-230.339 Y-76.246 Z-0.191 I0 J-0.163
X-230.339 Y-75.921 Z-0.237 I0 J0.163
X-230.339 Y-76.246 Z-0.283 I0 J-0.163
X-230.339 Y-75.921 Z-0.329 I0 J0.163
X-230.339 Y-76.246 Z-0.375 I0 J-0.163
X-230.339 Y-75.921 Z-0.421 I0 J0.163
X-230.339 Y-76.246 Z-0.466 I0 J-0.163
X-230.339 Y-75.921 Z-0.512 I0 J0.163
X-230.339 Y-76.246 Z-0.558 I0 J-0.163
X-230.339 Y-75.921 Z-0.604 I0 J0.163
X-230.339 Y-76.246 Z-0.65 I0 J-0.163
X-230.339 Y-75.921 Z-0.696 I0 J0.163
X-230.339 Y-76.246 Z-0.741 I0 J-0.163
X-230.339 Y-75.921 Z-0.787 I0 J0.163
X-230.339 Y-76.246 Z-0.833 I0 J-0.163
X-230.339 Y-75.921 Z-0.879 I0 J0.163
X-230.339 Y-76.246 Z-0.925 I0 J-0.163
X-230.339 Y-75.921 Z-0.97 I0 J0.163
X-230.339 Y-76.246 Z-1.016 I0 J-0.163
X-230.339 Y-75.921 Z-1.062 I0 J0.163
X-230.339 Y-76.246 Z-1.108 I0 J-0.163
X-230.339 Y-75.921 Z-1.154 I0 J0.163
X-230.339 Y-76.246 Z-1.2 I0 J-0.163
X-230.339 Y-75.921 Z-1.245 I0 J0.163
X-230.339 Y-76.246 Z-1.291 I0 J-0.163
X-230.339 Y-75.921 Z-1.337 I0 J0.163
X-230.339 Y-76.246 Z-1.383 I0 J-0.163
X-230.339 Y-75.921 Z-1.429 I0 J0.163
X-230.339 Y-76.246 Z-1.475 I0 J-0.163
X-230.339 Y-75.921 Z-1.52 I0 J0.163
X-230.339 Y-76.246 Z-1.566 I0 J-0.163
X-230.339 Y-75.921 Z-1.612 I0 J0.163
X-230.339 Y-76.246 Z-1.658 I0 J-0.163
X-230.339 Y-75.921 Z-1.704 I0 J0.163
X-230.339 Y-76.246 Z-1.75 I0 J-0.163
X-230.339 Y-75.921 Z-1.795 I0 J0.163
X-230.339 Y-76.246 Z-1.841 I0 J-0.163
X-230.339 Y-75.921 Z-1.887 I0 J0.163
X-230.339 Y-76.246 Z-1.933 I0 J-0.163
X-230.339 Y-75.921 Z-1.979 I0 J0.163
X-230.339 Y-76.246 Z-2.024 I0 J-0.163
X-230.339 Y-75.921 Z-2.07 I0 J0.163
X-230.339 Y-76.246 Z-2.116 I0 J-0.163
X-230.339 Y-75.921 Z-2.162 I0 J0.163
X-230.339 Y-76.246 Z-2.208 I0 J-0.163
X-230.339 Y-75.921 Z-2.254 I0 J0.163
X-230.339 Y-76.246 Z-2.299 I0 J-0.163
X-230.339 Y-75.921 Z-2.345 I0 J0.163
X-230.339 Y-76.246 Z-2.391 I0 J-0.163
X-230.339 Y-75.921 Z-2.437 I0 J0.163
X-230.339 Y-76.246 Z-2.483 I0 J-0.163
X-230.339 Y-75.921 Z-2.529 I0 J0.163
X-230.339 Y-76.246 Z-2.574 I0 J-0.163
X-230.339 Y-75.921 Z-2.62 I0 J0.163
X-230.339 Y-76.246 Z-2.666 I0 J-0.163
X-230.339 Y-75.921 Z-2.712 I0 J0.163
X-230.339 Y-76.246 Z-2.758 I0 J-0.163
X-230.339 Y-75.921 Z-2.804 I0 J0.163
X-230.339 Y-76.246 Z-2.849 I0 J-0.163
X-230.339 Y-75.921 Z-2.895 I0 J0.163
X-230.339 Y-76.246 Z-2.941 I0 J-0.163
X-230.339 Y-75.921 Z-2.987 I0 J0.163
X-230.339 Y-76.246 Z-3.033 I0 J-0.163
X-230.339 Y-75.921 Z-3.078 I0 J0.163
X-230.339 Y-76.246 Z-3.124 I0 J-0.163
X-230.339 Y-75.921 Z-3.17 I0 J0.163
X-230.339 Y-76.246 Z-3.216 I0 J-0.163
X-230.339 Y-75.921 Z-3.262 I0 J0.163
X-230.339 Y-76.246 Z-3.308 I0 J-0.163
X-230.339 Y-75.921 Z-3.353 I0 J0.163
X-230.339 Y-76.246 Z-3.399 I0 J-0.163
X-230.339 Y-75.921 Z-3.445 I0 J0.163
X-230.339 Y-76.246 Z-3.491 I0 J-0.163
X-230.339 Y-75.921 Z-3.537 I0 J0.163
X-230.339 Y-76.246 Z-3.583 I0 J-0.163
X-230.339 Y-75.921 Z-3.628 I0 J0.163
X-230.339 Y-76.246 Z-3.674 I0 J-0.163
X-230.339 Y-75.921 Z-3.72 I0 J0.163
X-230.339 Y-76.246 Z-3.766 I0 J-0.163
X-230.339 Y-75.921 Z-3.812 I0 J0.163
X-230.339 Y-76.246 Z-3.857 I0 J-0.163
X-230.339 Y-75.921 Z-3.903 I0 J0.163
X-230.339 Y-76.246 Z-3.949 I0 J-0.163
X-230.339 Y-75.921 Z-3.995 I0 J0.163
X-230.339 Y-76.246 Z-4.041 I0 J-0.163
X-230.339 Y-75.921 Z-4.087 I0 J0.163
X-230.339 Y-76.246 Z-4.132 I0 J-0.163
X-230.339 Y-75.921 Z-4.178 I0 J0.163
X-230.339 Y-76.246 Z-4.224 I0 J-0.163
X-230.339 Y-75.921 Z-4.27 I0 J0.163
X-230.483 Y-76.16 Z-4.3 I0 J-0.163
X-230.196 Y-76.007 I0.143 J0.077
X-230.483 Y-76.16 I-0.143 J-0.077
G1 X-230.463 Y-76.185
X-230.435 Y-76.2
X-230.403 Y-76.203
X-230.373 Y-76.194
X-230.233 Y-76.119
Z5
X-200.421 Y-76.006
Z2.682
Z1
Y-76.165
X-200.414 Y-76.196
X-200.397 Y-76.222
X-200.371 Y-76.24
X-200.339 Y-76.246
G3 X-200.339 Y-75.921 Z0.954 I0 J0.163
X-200.339 Y-76.246 Z0.908 I0 J-0.163
X-200.339 Y-75.921 Z0.863 I0 J0.163
X-200.339 Y-76.246 Z0.817 I0 J-0.163
X-200.339 Y-75.921 Z0.771 I0 J0.163
X-200.339 Y-76.246 Z0.725 I0 J-0.163
X-200.339 Y-75.921 Z0.679 I0 J0.163
X-200.339 Y-76.246 Z0.633 I0 J-0.163
X-200.339 Y-75.921 Z0.588 I0 J0.163
X-200.339 Y-76.246 Z0.542 I0 J-0.163
X-200.339 Y-75.921 Z0.496 I0 J0.163
X-200.339 Y-76.246 Z0.45 I0 J-0.163
X-200.339 Y-75.921 Z0.404 I0 J0.163
X-200.339 Y-76.246 Z0.358 I0 J-0.163
X-200.339 Y-75.921 Z0.313 I0 J0.163
X-200.339 Y-76.246 Z0.267 I0 J-0.163
X-200.339 Y-75.921 Z0.221 I0 J0.163
X-200.339 Y-76.246 Z0.175 I0 J-0.163
X-200.339 Y-75.921 Z0.129 I0 J0.163
X-200.339 Y-76.246 Z0.083 I0 J-0.163
X-200.339 Y-75.921 Z0.038 I0 J0.163
X-200.339 Y-76.246 Z-0.008 I0 J-0.163
X-200.339 Y-75.921 Z-0.054 I0 J0.163
X-200.339 Y-76.246 Z-0.1 I0 J-0.163
X-200.339 Y-75.921 Z-0.146 I0 J0.163
X-200.339 Y-76.246 Z-0.191 I0 J-0.163
X-200.339 Y-75.921 Z-0.237 I0 J0.163
X-200.339 Y-76.246 Z-0.283 I0 J-0.163
X-200.339 Y-75.921 Z-0.329 I0 J0.163
X-200.339 Y-76.246 Z-0.375 I0 J-0.163
X-200.339 Y-75.921 Z-0.421 I0 J0.163
X-200.339 Y-76.246 Z-0.466 I0 J-0.163
X-200.339 Y-75.921 Z-0.512 I0 J0.163
X-200.339 Y-76.246 Z-0.558 I0 J-0.163
X-200.339 Y-75.921 Z-0.604 I0 J0.163
X-200.339 Y-76.246 Z-0.65 I0 J-0.163
X-200.339 Y-75.921 Z-0.696 I0 J0.163
X-200.339 Y-76.246 Z-0.741 I0 J-0.163
X-200.339 Y-75.921 Z-0.787 I0 J0.163
X-200.339 Y-76.246 Z-0.833 I0 J-0.163
X-200.339 Y-75.921 Z-0.879 I0 J0.163
X-200.339 Y-76.246 Z-0.925 I0 J-0.163
X-200.339 Y-75.921 Z-0.97 I0 J0.163
X-200.339 Y-76.246 Z-1.016 I0 J-0.163
X-200.339 Y-75.921 Z-1.062 I0 J0.163
X-200.339 Y-76.246 Z-1.108 I0 J-0.163
X-200.339 Y-75.921 Z-1.154 I0 J0.163
X-200.339 Y-76.246 Z-1.2 I0 J-0.163
X-200.339 Y-75.921 Z-1.245 I0 J0.163
X-200.339 Y-76.246 Z-1.291 I0 J-0.163
X-200.339 Y-75.921 Z-1.337 I0 J0.163
X-200.339 Y-76.246 Z-1.383 I0 J-0.163
X-200.339 Y-75.921 Z-1.429 I0 J0.163
X-200.339 Y-76.246 Z-1.475 I0 J-0.163
X-200.339 Y-75.921 Z-1.52 I0 J0.163
X-200.339 Y-76.246 Z-1.566 I0 J-0.163
X-200.339 Y-75.921 Z-1.612 I0 J0.163
X-200.339 Y-76.246 Z-1.658 I0 J-0.163
X-200.339 Y-75.921 Z-1.704 I0 J0.163
X-200.339 Y-76.246 Z-1.75 I0 J-0.163
X-200.339 Y-75.921 Z-1.795 I0 J0.163
X-200.339 Y-76.246 Z-1.841 I0 J-0.163
X-200.339 Y-75.921 Z-1.887 I0 J0.163
X-200.339 Y-76.246 Z-1.933 I0 J-0.163
X-200.339 Y-75.921 Z-1.979 I0 J0.163
X-200.339 Y-76.246 Z-2.024 I0 J-0.163
X-200.339 Y-75.921 Z-2.07 I0 J0.163
X-200.339 Y-76.246 Z-2.116 I0 J-0.163
X-200.339 Y-75.921 Z-2.162 I0 J0.163
X-200.339 Y-76.246 Z-2.208 I0 J-0.163
X-200.339 Y-75.921 Z-2.254 I0 J0.163
X-200.339 Y-76.246 Z-2.299 I0 J-0.163
X-200.339 Y-75.921 Z-2.345 I0 J0.163
X-200.339 Y-76.246 Z-2.391 I0 J-0.163
X-200.339 Y-75.921 Z-2.437 I0 J0.163
X-200.339 Y-76.246 Z-2.483 I0 J-0.163
X-200.339 Y-75.921 Z-2.529 I0 J0.163
X-200.339 Y-76.246 Z-2.574 I0 J-0.163
X-200.339 Y-75.921 Z-2.62 I0 J0.163
X-200.339 Y-76.246 Z-2.666 I0 J-0.163
X-200.339 Y-75.921 Z-2.712 I0 J0.163
X-200.339 Y-76.246 Z-2.758 I0 J-0.163
X-200.339 Y-75.921 Z-2.804 I0 J0.163
X-200.339 Y-76.246 Z-2.849 I0 J-0.163
X-200.339 Y-75.921 Z-2.895 I0 J0.163
X-200.339 Y-76.246 Z-2.941 I0 J-0.163
X-200.339 Y-75.921 Z-2.987 I0 J0.163
X-200.339 Y-76.246 Z-3.033 I0 J-0.163
X-200.339 Y-75.921 Z-3.078 I0 J0.163
X-200.339 Y-76.246 Z-3.124 I0 J-0.163
X-200.339 Y-75.921 Z-3.17 I0 J0.163
X-200.339 Y-76.246 Z-3.216 I0 J-0.163
X-200.339 Y-75.921 Z-3.262 I0 J0.163
X-200.339 Y-76.246 Z-3.308 I0 J-0.163
X-200.339 Y-75.921 Z-3.353 I0 J0.163
X-200.339 Y-76.246 Z-3.399 I0 J-0.163
X-200.339 Y-75.921 Z-3.445 I0 J0.163
X-200.339 Y-76.246 Z-3.491 I0 J-0.163
X-200.339 Y-75.921 Z-3.537 I0 J0.163
X-200.339 Y-76.246 Z-3.583 I0 J-0.163
X-200.339 Y-75.921 Z-3.628 I0 J0.163
X-200.339 Y-76.246 Z-3.674 I0 J-0.163
X-200.339 Y-75.921 Z-3.72 I0 J0.163
X-200.339 Y-76.246 Z-3.766 I0 J-0.163
X-200.339 Y-75.921 Z-3.812 I0 J0.163
X-200.339 Y-76.246 Z-3.857 I0 J-0.163
X-200.339 Y-75.921 Z-3.903 I0 J0.163
X-200.339 Y-76.246 Z-3.949 I0 J-0.163
X-200.339 Y-75.921 Z-3.995 I0 J0.163
X-200.339 Y-76.246 Z-4.041 I0 J-0.163
X-200.339 Y-75.921 Z-4.087 I0 J0.163
X-200.339 Y-76.246 Z-4.132 I0 J-0.163
X-200.339 Y-75.921 Z-4.178 I0 J0.163
X-200.339 Y-76.246 Z-4.224 I0 J-0.163
X-200.339 Y-75.921 Z-4.27 I0 J0.163
X-200.483 Y-76.16 Z-4.3 I0 J-0.163
X-200.196 Y-76.007 I0.143 J0.077
X-200.483 Y-76.16 I-0.143 J-0.077
G1 X-200.463 Y-76.185
X-200.435 Y-76.2
X-200.403 Y-76.203
X-200.373 Y-76.194
X-200.233 Y-76.119
Z5
X-200.421 Y-38.006
Z2.682
Z1
Y-38.165
X-200.414 Y-38.196
X-200.397 Y-38.222
X-200.371 Y-38.24
X-200.339 Y-38.246
G3 X-200.339 Y-37.921 Z0.954 I0 J0.162
X-200.339 Y-38.246 Z0.908 I0 J-0.162
X-200.339 Y-37.921 Z0.863 I0 J0.162
X-200.339 Y-38.246 Z0.817 I0 J-0.162
X-200.339 Y-37.921 Z0.771 I0 J0.162
X-200.339 Y-38.246 Z0.725 I0 J-0.162
X-200.339 Y-37.921 Z0.679 I0 J0.162
X-200.339 Y-38.246 Z0.633 I0 J-0.162
X-200.339 Y-37.921 Z0.588 I0 J0.162
X-200.339 Y-38.246 Z0.542 I0 J-0.162
X-200.339 Y-37.921 Z0.496 I0 J0.162
X-200.339 Y-38.246 Z0.45 I0 J-0.162
X-200.339 Y-37.921 Z0.404 I0 J0.162
X-200.339 Y-38.246 Z0.358 I0 J-0.162
X-200.339 Y-37.921 Z0.313 I0 J0.162
X-200.339 Y-38.246 Z0.267 I0 J-0.162
X-200.339 Y-37.921 Z0.221 I0 J0.162
X-200.339 Y-38.246 Z0.175 I0 J-0.162
X-200.339 Y-37.921 Z0.129 I0 J0.162
X-200.339 Y-38.246 Z0.083 I0 J-0.162
X-200.339 Y-37.921 Z0.038 I0 J0.162
X-200.339 Y-38.246 Z-0.008 I0 J-0.162
X-200.339 Y-37.921 Z-0.054 I0 J0.162
X-200.339 Y-38.246 Z-0.1 I0 J-0.162
X-200.339 Y-37.921 Z-0.146 I0 J0.162
X-200.339 Y-38.246 Z-0.191 I0 J-0.162
X-200.339 Y-37.921 Z-0.237 I0 J0.163
X-200.339 Y-38.246 Z-0.283 I0 J-0.163
X-200.339 Y-37.921 Z-0.329 I0 J0.163
X-200.339 Y-38.246 Z-0.375 I0 J-0.163
X-200.339 Y-37.921 Z-0.421 I0 J0.163
X-200.339 Y-38.246 Z-0.466 I0 J-0.163
X-200.339 Y-37.921 Z-0.512 I0 J0.163
X-200.339 Y-38.246 Z-0.558 I0 J-0.163
X-200.339 Y-37.921 Z-0.604 I0 J0.163
X-200.339 Y-38.246 Z-0.65 I0 J-0.163
X-200.339 Y-37.921 Z-0.696 I0 J0.163
X-200.339 Y-38.246 Z-0.741 I0 J-0.163
X-200.339 Y-37.921 Z-0.787 I0 J0.163
X-200.339 Y-38.246 Z-0.833 I0 J-0.163
X-200.339 Y-37.921 Z-0.879 I0 J0.163
X-200.339 Y-38.246 Z-0.925 I0 J-0.163
X-200.339 Y-37.921 Z-0.97 I0 J0.163
X-200.339 Y-38.246 Z-1.016 I0 J-0.163
X-200.339 Y-37.921 Z-1.062 I0 J0.163
X-200.339 Y-38.246 Z-1.108 I0 J-0.163
X-200.339 Y-37.921 Z-1.154 I0 J0.163
X-200.339 Y-38.246 Z-1.2 I0 J-0.163
X-200.339 Y-37.921 Z-1.245 I0 J0.163
X-200.339 Y-38.246 Z-1.291 I0 J-0.163
X-200.339 Y-37.921 Z-1.337 I0 J0.163
X-200.339 Y-38.246 Z-1.383 I0 J-0.163
X-200.339 Y-37.921 Z-1.429 I0 J0.163
X-200.339 Y-38.246 Z-1.475 I0 J-0.163
X-200.339 Y-37.921 Z-1.52 I0 J0.163
X-200.339 Y-38.246 Z-1.566 I0 J-0.163
X-200.339 Y-37.921 Z-1.612 I0 J0.163
X-200.339 Y-38.246 Z-1.658 I0 J-0.163
X-200.339 Y-37.921 Z-1.704 I0 J0.163
X-200.339 Y-38.246 Z-1.75 I0 J-0.163
X-200.339 Y-37.921 Z-1.795 I0 J0.163
X-200.339 Y-38.246 Z-1.841 I0 J-0.163
X-200.339 Y-37.921 Z-1.887 I0 J0.163
X-200.339 Y-38.246 Z-1.933 I0 J-0.163
X-200.339 Y-37.921 Z-1.979 I0 J0.163
X-200.339 Y-38.246 Z-2.024 I0 J-0.163
X-200.339 Y-37.921 Z-2.07 I0 J0.163
X-200.339 Y-38.246 Z-2.116 I0 J-0.163
X-200.339 Y-37.921 Z-2.162 I0 J0.163
X-200.339 Y-38.246 Z-2.208 I0 J-0.163
X-200.339 Y-37.921 Z-2.254 I0 J0.163
X-200.339 Y-38.246 Z-2.299 I0 J-0.163
X-200.339 Y-37.921 Z-2.345 I0 J0.163
X-200.339 Y-38.246 Z-2.391 I0 J-0.163
X-200.339 Y-37.921 Z-2.437 I0 J0.163
X-200.339 Y-38.246 Z-2.483 I0 J-0.163
X-200.339 Y-37.921 Z-2.529 I0 J0.163
X-200.339 Y-38.246 Z-2.574 I0 J-0.163
X-200.339 Y-37.921 Z-2.62 I0 J0.163
X-200.339 Y-38.246 Z-2.666 I0 J-0.163
X-200.339 Y-37.921 Z-2.712 I0 J0.163
X-200.339 Y-38.246 Z-2.758 I0 J-0.163
X-200.339 Y-37.921 Z-2.804 I0 J0.163
X-200.339 Y-38.246 Z-2.849 I0 J-0.163
X-200.339 Y-37.921 Z-2.895 I0 J0.163
X-200.339 Y-38.246 Z-2.941 I0 J-0.163
X-200.339 Y-37.921 Z-2.987 I0 J0.163
X-200.339 Y-38.246 Z-3.033 I0 J-0.163
X-200.339 Y-37.921 Z-3.078 I0 J0.163
X-200.339 Y-38.246 Z-3.124 I0 J-0.163
X-200.339 Y-37.921 Z-3.17 I0 J0.163
X-200.339 Y-38.246 Z-3.216 I0 J-0.163
X-200.339 Y-37.921 Z-3.262 I0 J0.163
X-200.339 Y-38.246 Z-3.308 I0 J-0.163
X-200.339 Y-37.921 Z-3.353 I0 J0.163
X-200.339 Y-38.246 Z-3.399 I0 J-0.163
X-200.339 Y-37.921 Z-3.445 I0 J0.163
X-200.339 Y-38.246 Z-3.491 I0 J-0.163
X-200.339 Y-37.921 Z-3.537 I0 J0.163
X-200.339 Y-38.246 Z-3.583 I0 J-0.163
X-200.339 Y-37.921 Z-3.628 I0 J0.163
X-200.339 Y-38.246 Z-3.674 I0 J-0.163
X-200.339 Y-37.921 Z-3.72 I0 J0.163
X-200.339 Y-38.246 Z-3.766 I0 J-0.163
X-200.339 Y-37.921 Z-3.812 I0 J0.163
X-200.339 Y-38.246 Z-3.857 I0 J-0.163
X-200.339 Y-37.921 Z-3.903 I0 J0.163
X-200.339 Y-38.246 Z-3.949 I0 J-0.163
X-200.339 Y-37.921 Z-3.995 I0 J0.163
X-200.339 Y-38.246 Z-4.041 I0 J-0.163
X-200.339 Y-37.921 Z-4.087 I0 J0.163
X-200.339 Y-38.246 Z-4.132 I0 J-0.163
X-200.339 Y-37.921 Z-4.178 I0 J0.163
X-200.339 Y-38.246 Z-4.224 I0 J-0.163
X-200.339 Y-37.921 Z-4.27 I0 J0.163
X-200.483 Y-38.16 Z-4.3 I0 J-0.163
X-200.196 Y-38.007 I0.143 J0.077
X-200.483 Y-38.16 I-0.143 J-0.077
G1 X-200.463 Y-38.185
X-200.435 Y-38.2
X-200.403 Y-38.203
X-200.373 Y-38.194
X-200.233 Y-38.119
Z5
X-230.421 Y-38.006
Z2.682
Z1
Y-38.165
X-230.414 Y-38.196
X-230.397 Y-38.222
X-230.371 Y-38.24
X-230.339 Y-38.246
G3 X-230.339 Y-37.921 Z0.954 I0 J0.162
X-230.339 Y-38.246 Z0.908 I0 J-0.162
X-230.339 Y-37.921 Z0.863 I0 J0.162
X-230.339 Y-38.246 Z0.817 I0 J-0.162
X-230.339 Y-37.921 Z0.771 I0 J0.162
X-230.339 Y-38.246 Z0.725 I0 J-0.162
X-230.339 Y-37.921 Z0.679 I0 J0.162
X-230.339 Y-38.246 Z0.633 I0 J-0.162
X-230.339 Y-37.921 Z0.588 I0 J0.162
X-230.339 Y-38.246 Z0.542 I0 J-0.162
X-230.339 Y-37.921 Z0.496 I0 J0.162
X-230.339 Y-38.246 Z0.45 I0 J-0.162
X-230.339 Y-37.921 Z0.404 I0 J0.162
X-230.339 Y-38.246 Z0.358 I0 J-0.162
X-230.339 Y-37.921 Z0.313 I0 J0.162
X-230.339 Y-38.246 Z0.267 I0 J-0.162
X-230.339 Y-37.921 Z0.221 I0 J0.162
X-230.339 Y-38.246 Z0.175 I0 J-0.162
X-230.339 Y-37.921 Z0.129 I0 J0.162
X-230.339 Y-38.246 Z0.083 I0 J-0.162
X-230.339 Y-37.921 Z0.038 I0 J0.162
X-230.339 Y-38.246 Z-0.008 I0 J-0.162
X-230.339 Y-37.921 Z-0.054 I0 J0.162
X-230.339 Y-38.246 Z-0.1 I0 J-0.162
X-230.339 Y-37.921 Z-0.146 I0 J0.162
X-230.339 Y-38.246 Z-0.191 I0 J-0.162
X-230.339 Y-37.921 Z-0.237 I0 J0.163
X-230.339 Y-38.246 Z-0.283 I0 J-0.163
X-230.339 Y-37.921 Z-0.329 I0 J0.163
X-230.339 Y-38.246 Z-0.375 I0 J-0.163
X-230.339 Y-37.921 Z-0.421 I0 J0.163
X-230.339 Y-38.246 Z-0.466 I0 J-0.163
X-230.339 Y-37.921 Z-0.512 I0 J0.163
X-230.339 Y-38.246 Z-0.558 I0 J-0.163
X-230.339 Y-37.921 Z-0.604 I0 J0.163
X-230.339 Y-38.246 Z-0.65 I0 J-0.163
X-230.339 Y-37.921 Z-0.696 I0 J0.163
X-230.339 Y-38.246 Z-0.741 I0 J-0.163
X-230.339 Y-37.921 Z-0.787 I0 J0.163
X-230.339 Y-38.246 Z-0.833 I0 J-0.163
X-230.339 Y-37.921 Z-0.879 I0 J0.163
X-230.339 Y-38.246 Z-0.925 I0 J-0.163
X-230.339 Y-37.921 Z-0.97 I0 J0.163
X-230.339 Y-38.246 Z-1.016 I0 J-0.163
X-230.339 Y-37.921 Z-1.062 I0 J0.163
X-230.339 Y-38.246 Z-1.108 I0 J-0.163
X-230.339 Y-37.921 Z-1.154 I0 J0.163
X-230.339 Y-38.246 Z-1.2 I0 J-0.163
X-230.339 Y-37.921 Z-1.245 I0 J0.163
X-230.339 Y-38.246 Z-1.291 I0 J-0.163
X-230.339 Y-37.921 Z-1.337 I0 J0.163
X-230.339 Y-38.246 Z-1.383 I0 J-0.163
X-230.339 Y-37.921 Z-1.429 I0 J0.163
X-230.339 Y-38.246 Z-1.475 I0 J-0.163
X-230.339 Y-37.921 Z-1.52 I0 J0.163
X-230.339 Y-38.246 Z-1.566 I0 J-0.163
X-230.339 Y-37.921 Z-1.612 I0 J0.163
X-230.339 Y-38.246 Z-1.658 I0 J-0.163
X-230.339 Y-37.921 Z-1.704 I0 J0.163
X-230.339 Y-38.246 Z-1.75 I0 J-0.163
X-230.339 Y-37.921 Z-1.795 I0 J0.163
X-230.339 Y-38.246 Z-1.841 I0 J-0.163
X-230.339 Y-37.921 Z-1.887 I0 J0.163
X-230.339 Y-38.246 Z-1.933 I0 J-0.163
X-230.339 Y-37.921 Z-1.979 I0 J0.163
X-230.339 Y-38.246 Z-2.024 I0 J-0.163
X-230.339 Y-37.921 Z-2.07 I0 J0.163
X-230.339 Y-38.246 Z-2.116 I0 J-0.163
X-230.339 Y-37.921 Z-2.162 I0 J0.163
X-230.339 Y-38.246 Z-2.208 I0 J-0.163
X-230.339 Y-37.921 Z-2.254 I0 J0.163
X-230.339 Y-38.246 Z-2.299 I0 J-0.163
X-230.339 Y-37.921 Z-2.345 I0 J0.163
X-230.339 Y-38.246 Z-2.391 I0 J-0.163
X-230.339 Y-37.921 Z-2.437 I0 J0.163
X-230.339 Y-38.246 Z-2.483 I0 J-0.163
X-230.339 Y-37.921 Z-2.529 I0 J0.163
X-230.339 Y-38.246 Z-2.574 I0 J-0.163
X-230.339 Y-37.921 Z-2.62 I0 J0.163
X-230.339 Y-38.246 Z-2.666 I0 J-0.163
X-230.339 Y-37.921 Z-2.712 I0 J0.163
X-230.339 Y-38.246 Z-2.758 I0 J-0.163
X-230.339 Y-37.921 Z-2.804 I0 J0.163
X-230.339 Y-38.246 Z-2.849 I0 J-0.163
X-230.339 Y-37.921 Z-2.895 I0 J0.163
X-230.339 Y-38.246 Z-2.941 I0 J-0.163
X-230.339 Y-37.921 Z-2.987 I0 J0.163
X-230.339 Y-38.246 Z-3.033 I0 J-0.163
X-230.339 Y-37.921 Z-3.078 I0 J0.163
X-230.339 Y-38.246 Z-3.124 I0 J-0.163
X-230.339 Y-37.921 Z-3.17 I0 J0.163
X-230.339 Y-38.246 Z-3.216 I0 J-0.163
X-230.339 Y-37.921 Z-3.262 I0 J0.163
X-230.339 Y-38.246 Z-3.308 I0 J-0.163
X-230.339 Y-37.921 Z-3.353 I0 J0.163
X-230.339 Y-38.246 Z-3.399 I0 J-0.163
X-230.339 Y-37.921 Z-3.445 I0 J0.163
X-230.339 Y-38.246 Z-3.491 I0 J-0.163
X-230.339 Y-37.921 Z-3.537 I0 J0.163
X-230.339 Y-38.246 Z-3.583 I0 J-0.163
X-230.339 Y-37.921 Z-3.628 I0 J0.163
X-230.339 Y-38.246 Z-3.674 I0 J-0.163
X-230.339 Y-37.921 Z-3.72 I0 J0.163
X-230.339 Y-38.246 Z-3.766 I0 J-0.163
X-230.339 Y-37.921 Z-3.812 I0 J0.163
X-230.339 Y-38.246 Z-3.857 I0 J-0.163
X-230.339 Y-37.921 Z-3.903 I0 J0.163
X-230.339 Y-38.246 Z-3.949 I0 J-0.163
X-230.339 Y-37.921 Z-3.995 I0 J0.163
X-230.339 Y-38.246 Z-4.041 I0 J-0.163
X-230.339 Y-37.921 Z-4.087 I0 J0.163
X-230.339 Y-38.246 Z-4.132 I0 J-0.163
X-230.339 Y-37.921 Z-4.178 I0 J0.163
X-230.339 Y-38.246 Z-4.224 I0 J-0.163
X-230.339 Y-37.921 Z-4.27 I0 J0.163
X-230.483 Y-38.16 Z-4.3 I0 J-0.163
X-230.196 Y-38.007 I0.143 J0.077
X-230.483 Y-38.16 I-0.143 J-0.077
G1 X-230.463 Y-38.185
X-230.435 Y-38.2
X-230.403 Y-38.203
X-230.373 Y-38.194
X-230.233 Y-38.119
Z5
X-155.421 Y-38.006
Z2.682
Z1
Y-38.165
X-155.414 Y-38.196
X-155.397 Y-38.222
X-155.371 Y-38.24
X-155.339 Y-38.246
G3 X-155.339 Y-37.921 Z0.954 I0 J0.162
X-155.339 Y-38.246 Z0.908 I0 J-0.162
X-155.339 Y-37.921 Z0.863 I0 J0.162
X-155.339 Y-38.246 Z0.817 I0 J-0.162
X-155.339 Y-37.921 Z0.771 I0 J0.162
X-155.339 Y-38.246 Z0.725 I0 J-0.162
X-155.339 Y-37.921 Z0.679 I0 J0.162
X-155.339 Y-38.246 Z0.633 I0 J-0.162
X-155.339 Y-37.921 Z0.588 I0 J0.162
X-155.339 Y-38.246 Z0.542 I0 J-0.162
X-155.339 Y-37.921 Z0.496 I0 J0.162
X-155.339 Y-38.246 Z0.45 I0 J-0.162
X-155.339 Y-37.921 Z0.404 I0 J0.162
X-155.339 Y-38.246 Z0.358 I0 J-0.162
X-155.339 Y-37.921 Z0.313 I0 J0.162
X-155.339 Y-38.246 Z0.267 I0 J-0.162
X-155.339 Y-37.921 Z0.221 I0 J0.162
X-155.339 Y-38.246 Z0.175 I0 J-0.162
X-155.339 Y-37.921 Z0.129 I0 J0.162
X-155.339 Y-38.246 Z0.083 I0 J-0.162
X-155.339 Y-37.921 Z0.038 I0 J0.162
X-155.339 Y-38.246 Z-0.008 I0 J-0.162
X-155.339 Y-37.921 Z-0.054 I0 J0.162
X-155.339 Y-38.246 Z-0.1 I0 J-0.162
X-155.339 Y-37.921 Z-0.146 I0 J0.162
X-155.339 Y-38.246 Z-0.191 I0 J-0.162
X-155.339 Y-37.921 Z-0.237 I0 J0.163
X-155.339 Y-38.246 Z-0.283 I0 J-0.163
X-155.339 Y-37.921 Z-0.329 I0 J0.163
X-155.339 Y-38.246 Z-0.375 I0 J-0.163
X-155.339 Y-37.921 Z-0.421 I0 J0.163
X-155.339 Y-38.246 Z-0.466 I0 J-0.163
X-155.339 Y-37.921 Z-0.512 I0 J0.163
X-155.339 Y-38.246 Z-0.558 I0 J-0.163
X-155.339 Y-37.921 Z-0.604 I0 J0.163
X-155.339 Y-38.246 Z-0.65 I0 J-0.163
X-155.339 Y-37.921 Z-0.696 I0 J0.163
X-155.339 Y-38.246 Z-0.741 I0 J-0.163
X-155.339 Y-37.921 Z-0.787 I0 J0.163
X-155.339 Y-38.246 Z-0.833 I0 J-0.163
X-155.339 Y-37.921 Z-0.879 I0 J0.163
X-155.339 Y-38.246 Z-0.925 I0 J-0.163
X-155.339 Y-37.921 Z-0.97 I0 J0.163
X-155.339 Y-38.246 Z-1.016 I0 J-0.163
X-155.339 Y-37.921 Z-1.062 I0 J0.163
X-155.339 Y-38.246 Z-1.108 I0 J-0.163
X-155.339 Y-37.921 Z-1.154 I0 J0.163
X-155.339 Y-38.246 Z-1.2 I0 J-0.163
X-155.339 Y-37.921 Z-1.245 I0 J0.163
X-155.339 Y-38.246 Z-1.291 I0 J-0.163
X-155.339 Y-37.921 Z-1.337 I0 J0.163
X-155.339 Y-38.246 Z-1.383 I0 J-0.163
X-155.339 Y-37.921 Z-1.429 I0 J0.163
X-155.339 Y-38.246 Z-1.475 I0 J-0.163
X-155.339 Y-37.921 Z-1.52 I0 J0.163
X-155.339 Y-38.246 Z-1.566 I0 J-0.163
X-155.339 Y-37.921 Z-1.612 I0 J0.163
X-155.339 Y-38.246 Z-1.658 I0 J-0.163
X-155.339 Y-37.921 Z-1.704 I0 J0.163
X-155.339 Y-38.246 Z-1.75 I0 J-0.163
X-155.339 Y-37.921 Z-1.795 I0 J0.163
X-155.339 Y-38.246 Z-1.841 I0 J-0.163
X-155.339 Y-37.921 Z-1.887 I0 J0.163
X-155.339 Y-38.246 Z-1.933 I0 J-0.163
X-155.339 Y-37.921 Z-1.979 I0 J0.163
X-155.339 Y-38.246 Z-2.024 I0 J-0.163
X-155.339 Y-37.921 Z-2.07 I0 J0.163
X-155.339 Y-38.246 Z-2.116 I0 J-0.163
X-155.339 Y-37.921 Z-2.162 I0 J0.163
X-155.339 Y-38.246 Z-2.208 I0 J-0.163
X-155.339 Y-37.921 Z-2.254 I0 J0.163
X-155.339 Y-38.246 Z-2.299 I0 J-0.163
X-155.339 Y-37.921 Z-2.345 I0 J0.163
X-155.339 Y-38.246 Z-2.391 I0 J-0.163
X-155.339 Y-37.921 Z-2.437 I0 J0.163
X-155.339 Y-38.246 Z-2.483 I0 J-0.163
X-155.339 Y-37.921 Z-2.529 I0 J0.163
X-155.339 Y-38.246 Z-2.574 I0 J-0.163
X-155.339 Y-37.921 Z-2.62 I0 J0.163
X-155.339 Y-38.246 Z-2.666 I0 J-0.163
X-155.339 Y-37.921 Z-2.712 I0 J0.163
X-155.339 Y-38.246 Z-2.758 I0 J-0.163
X-155.339 Y-37.921 Z-2.804 I0 J0.163
X-155.339 Y-38.246 Z-2.849 I0 J-0.163
X-155.339 Y-37.921 Z-2.895 I0 J0.163
X-155.339 Y-38.246 Z-2.941 I0 J-0.163
X-155.339 Y-37.921 Z-2.987 I0 J0.163
X-155.339 Y-38.246 Z-3.033 I0 J-0.163
X-155.339 Y-37.921 Z-3.078 I0 J0.163
X-155.339 Y-38.246 Z-3.124 I0 J-0.163
X-155.339 Y-37.921 Z-3.17 I0 J0.163
X-155.339 Y-38.246 Z-3.216 I0 J-0.163
X-155.339 Y-37.921 Z-3.262 I0 J0.163
X-155.339 Y-38.246 Z-3.308 I0 J-0.163
X-155.339 Y-37.921 Z-3.353 I0 J0.163
X-155.339 Y-38.246 Z-3.399 I0 J-0.163
X-155.339 Y-37.921 Z-3.445 I0 J0.163
X-155.339 Y-38.246 Z-3.491 I0 J-0.163
X-155.339 Y-37.921 Z-3.537 I0 J0.163
X-155.339 Y-38.246 Z-3.583 I0 J-0.163
X-155.339 Y-37.921 Z-3.628 I0 J0.163
X-155.339 Y-38.246 Z-3.674 I0 J-0.163
X-155.339 Y-37.921 Z-3.72 I0 J0.163
X-155.339 Y-38.246 Z-3.766 I0 J-0.163
X-155.339 Y-37.921 Z-3.812 I0 J0.163
X-155.339 Y-38.246 Z-3.857 I0 J-0.163
X-155.339 Y-37.921 Z-3.903 I0 J0.163
X-155.339 Y-38.246 Z-3.949 I0 J-0.163
X-155.339 Y-37.921 Z-3.995 I0 J0.163
X-155.339 Y-38.246 Z-4.041 I0 J-0.163
X-155.339 Y-37.921 Z-4.087 I0 J0.163
X-155.339 Y-38.246 Z-4.132 I0 J-0.163
X-155.339 Y-37.921 Z-4.178 I0 J0.163
X-155.339 Y-38.246 Z-4.224 I0 J-0.163
X-155.339 Y-37.921 Z-4.27 I0 J0.163
X-155.483 Y-38.16 Z-4.3 I0 J-0.163
X-155.196 Y-38.007 I0.143 J0.077
X-155.483 Y-38.16 I-0.143 J-0.077
G1 X-155.463 Y-38.185
X-155.435 Y-38.2
X-155.403 Y-38.203
X-155.373 Y-38.194
X-155.233 Y-38.119
Z5
X-155.421 Y-76.006
Z2.682
Z1
Y-76.165
X-155.414 Y-76.196
X-155.397 Y-76.222
X-155.371 Y-76.24
X-155.339 Y-76.246
G3 X-155.339 Y-75.921 Z0.954 I0 J0.163
X-155.339 Y-76.246 Z0.908 I0 J-0.163
X-155.339 Y-75.921 Z0.863 I0 J0.163
X-155.339 Y-76.246 Z0.817 I0 J-0.163
X-155.339 Y-75.921 Z0.771 I0 J0.163
X-155.339 Y-76.246 Z0.725 I0 J-0.163
X-155.339 Y-75.921 Z0.679 I0 J0.163
X-155.339 Y-76.246 Z0.633 I0 J-0.163
X-155.339 Y-75.921 Z0.588 I0 J0.163
X-155.339 Y-76.246 Z0.542 I0 J-0.163
X-155.339 Y-75.921 Z0.496 I0 J0.163
X-155.339 Y-76.246 Z0.45 I0 J-0.163
X-155.339 Y-75.921 Z0.404 I0 J0.163
X-155.339 Y-76.246 Z0.358 I0 J-0.163
X-155.339 Y-75.921 Z0.313 I0 J0.163
X-155.339 Y-76.246 Z0.267 I0 J-0.163
X-155.339 Y-75.921 Z0.221 I0 J0.163
X-155.339 Y-76.246 Z0.175 I0 J-0.163
X-155.339 Y-75.921 Z0.129 I0 J0.163
X-155.339 Y-76.246 Z0.083 I0 J-0.163
X-155.339 Y-75.921 Z0.038 I0 J0.163
X-155.339 Y-76.246 Z-0.008 I0 J-0.163
X-155.339 Y-75.921 Z-0.054 I0 J0.163
X-155.339 Y-76.246 Z-0.1 I0 J-0.163
X-155.339 Y-75.921 Z-0.146 I0 J0.163
X-155.339 Y-76.246 Z-0.191 I0 J-0.163
X-155.339 Y-75.921 Z-0.237 I0 J0.163
X-155.339 Y-76.246 Z-0.283 I0 J-0.163
X-155.339 Y-75.921 Z-0.329 I0 J0.163
X-155.339 Y-76.246 Z-0.375 I0 J-0.163
X-155.339 Y-75.921 Z-0.421 I0 J0.163
X-155.339 Y-76.246 Z-0.466 I0 J-0.163
X-155.339 Y-75.921 Z-0.512 I0 J0.163
X-155.339 Y-76.246 Z-0.558 I0 J-0.163
X-155.339 Y-75.921 Z-0.604 I0 J0.163
X-155.339 Y-76.246 Z-0.65 I0 J-0.163
X-155.339 Y-75.921 Z-0.696 I0 J0.163
X-155.339 Y-76.246 Z-0.741 I0 J-0.163
X-155.339 Y-75.921 Z-0.787 I0 J0.163
X-155.339 Y-76.246 Z-0.833 I0 J-0.163
X-155.339 Y-75.921 Z-0.879 I0 J0.163
X-155.339 Y-76.246 Z-0.925 I0 J-0.163
X-155.339 Y-75.921 Z-0.97 I0 J0.163
X-155.339 Y-76.246 Z-1.016 I0 J-0.163
X-155.339 Y-75.921 Z-1.062 I0 J0.163
X-155.339 Y-76.246 Z-1.108 I0 J-0.163
X-155.339 Y-75.921 Z-1.154 I0 J0.163
X-155.339 Y-76.246 Z-1.2 I0 J-0.163
X-155.339 Y-75.921 Z-1.245 I0 J0.163
X-155.339 Y-76.246 Z-1.291 I0 J-0.163
X-155.339 Y-75.921 Z-1.337 I0 J0.163
X-155.339 Y-76.246 Z-1.383 I0 J-0.163
X-155.339 Y-75.921 Z-1.429 I0 J0.163
X-155.339 Y-76.246 Z-1.475 I0 J-0.163
X-155.339 Y-75.921 Z-1.52 I0 J0.163
X-155.339 Y-76.246 Z-1.566 I0 J-0.163
X-155.339 Y-75.921 Z-1.612 I0 J0.163
X-155.339 Y-76.246 Z-1.658 I0 J-0.163
X-155.339 Y-75.921 Z-1.704 I0 J0.163
X-155.339 Y-76.246 Z-1.75 I0 J-0.163
X-155.339 Y-75.921 Z-1.795 I0 J0.163
X-155.339 Y-76.246 Z-1.841 I0 J-0.163
X-155.339 Y-75.921 Z-1.887 I0 J0.163
X-155.339 Y-76.246 Z-1.933 I0 J-0.163
X-155.339 Y-75.921 Z-1.979 I0 J0.163
X-155.339 Y-76.246 Z-2.024 I0 J-0.163
X-155.339 Y-75.921 Z-2.07 I0 J0.163
X-155.339 Y-76.246 Z-2.116 I0 J-0.163
X-155.339 Y-75.921 Z-2.162 I0 J0.163
X-155.339 Y-76.246 Z-2.208 I0 J-0.163
X-155.339 Y-75.921 Z-2.254 I0 J0.163
X-155.339 Y-76.246 Z-2.299 I0 J-0.163
X-155.339 Y-75.921 Z-2.345 I0 J0.163
X-155.339 Y-76.246 Z-2.391 I0 J-0.163
X-155.339 Y-75.921 Z-2.437 I0 J0.163
X-155.339 Y-76.246 Z-2.483 I0 J-0.163
X-155.339 Y-75.921 Z-2.529 I0 J0.163
X-155.339 Y-76.246 Z-2.574 I0 J-0.163
X-155.339 Y-75.921 Z-2.62 I0 J0.163
X-155.339 Y-76.246 Z-2.666 I0 J-0.163
X-155.339 Y-75.921 Z-2.712 I0 J0.163
X-155.339 Y-76.246 Z-2.758 I0 J-0.163
X-155.339 Y-75.921 Z-2.804 I0 J0.163
X-155.339 Y-76.246 Z-2.849 I0 J-0.163
X-155.339 Y-75.921 Z-2.895 I0 J0.163
X-155.339 Y-76.246 Z-2.941 I0 J-0.163
X-155.339 Y-75.921 Z-2.987 I0 J0.163
X-155.339 Y-76.246 Z-3.033 I0 J-0.163
X-155.339 Y-75.921 Z-3.078 I0 J0.163
X-155.339 Y-76.246 Z-3.124 I0 J-0.163
X-155.339 Y-75.921 Z-3.17 I0 J0.163
X-155.339 Y-76.246 Z-3.216 I0 J-0.163
X-155.339 Y-75.921 Z-3.262 I0 J0.163
X-155.339 Y-76.246 Z-3.308 I0 J-0.163
X-155.339 Y-75.921 Z-3.353 I0 J0.163
X-155.339 Y-76.246 Z-3.399 I0 J-0.163
X-155.339 Y-75.921 Z-3.445 I0 J0.163
X-155.339 Y-76.246 Z-3.491 I0 J-0.163
X-155.339 Y-75.921 Z-3.537 I0 J0.163
X-155.339 Y-76.246 Z-3.583 I0 J-0.163
X-155.339 Y-75.921 Z-3.628 I0 J0.163
X-155.339 Y-76.246 Z-3.674 I0 J-0.163
X-155.339 Y-75.921 Z-3.72 I0 J0.163
X-155.339 Y-76.246 Z-3.766 I0 J-0.163
X-155.339 Y-75.921 Z-3.812 I0 J0.163
X-155.339 Y-76.246 Z-3.857 I0 J-0.163
X-155.339 Y-75.921 Z-3.903 I0 J0.163
X-155.339 Y-76.246 Z-3.949 I0 J-0.163
X-155.339 Y-75.921 Z-3.995 I0 J0.163
X-155.339 Y-76.246 Z-4.041 I0 J-0.163
X-155.339 Y-75.921 Z-4.087 I0 J0.163
X-155.339 Y-76.246 Z-4.132 I0 J-0.163
X-155.339 Y-75.921 Z-4.178 I0 J0.163
X-155.339 Y-76.246 Z-4.224 I0 J-0.163
X-155.339 Y-75.921 Z-4.27 I0 J0.163
X-155.483 Y-76.16 Z-4.3 I0 J-0.163
X-155.196 Y-76.007 I0.143 J0.077
X-155.483 Y-76.16 I-0.143 J-0.077
G1 X-155.463 Y-76.185
X-155.435 Y-76.2
X-155.403 Y-76.203
X-155.373 Y-76.194
X-155.233 Y-76.119
Z5
X-81.24 Y-92.006
Z2.682
Z1
Y-92.165
X-81.234 Y-92.196
X-81.216 Y-92.222
X-81.19 Y-92.24
X-81.159 Y-92.246
G3 X-81.159 Y-91.921 Z0.954 I0 J0.163
X-81.159 Y-92.246 Z0.908 I0 J-0.163
X-81.159 Y-91.921 Z0.863 I0 J0.163
X-81.159 Y-92.246 Z0.817 I0 J-0.163
X-81.159 Y-91.921 Z0.771 I0 J0.163
X-81.159 Y-92.246 Z0.725 I0 J-0.163
X-81.159 Y-91.921 Z0.679 I0 J0.163
X-81.159 Y-92.246 Z0.633 I0 J-0.163
X-81.159 Y-91.921 Z0.588 I0 J0.163
X-81.159 Y-92.246 Z0.542 I0 J-0.163
X-81.159 Y-91.921 Z0.496 I0 J0.163
X-81.159 Y-92.246 Z0.45 I0 J-0.163
X-81.159 Y-91.921 Z0.404 I0 J0.163
X-81.159 Y-92.246 Z0.358 I0 J-0.163
X-81.159 Y-91.921 Z0.313 I0 J0.163
X-81.159 Y-92.246 Z0.267 I0 J-0.163
X-81.159 Y-91.921 Z0.221 I0 J0.163
X-81.159 Y-92.246 Z0.175 I0 J-0.163
X-81.159 Y-91.921 Z0.129 I0 J0.163
X-81.159 Y-92.246 Z0.083 I0 J-0.163
X-81.159 Y-91.921 Z0.038 I0 J0.163
X-81.159 Y-92.246 Z-0.008 I0 J-0.163
X-81.159 Y-91.921 Z-0.054 I0 J0.163
X-81.159 Y-92.246 Z-0.1 I0 J-0.163
X-81.159 Y-91.921 Z-0.146 I0 J0.163
X-81.159 Y-92.246 Z-0.191 I0 J-0.163
X-81.159 Y-91.921 Z-0.237 I0 J0.163
X-81.159 Y-92.246 Z-0.283 I0 J-0.163
X-81.159 Y-91.921 Z-0.329 I0 J0.163
X-81.159 Y-92.246 Z-0.375 I0 J-0.163
X-81.159 Y-91.921 Z-0.421 I0 J0.163
X-81.159 Y-92.246 Z-0.466 I0 J-0.163
X-81.159 Y-91.921 Z-0.512 I0 J0.163
X-81.159 Y-92.246 Z-0.558 I0 J-0.163
X-81.159 Y-91.921 Z-0.604 I0 J0.163
X-81.159 Y-92.246 Z-0.65 I0 J-0.163
X-81.159 Y-91.921 Z-0.696 I0 J0.163
X-81.159 Y-92.246 Z-0.741 I0 J-0.163
X-81.159 Y-91.921 Z-0.787 I0 J0.163
X-81.159 Y-92.246 Z-0.833 I0 J-0.163
X-81.159 Y-91.921 Z-0.879 I0 J0.163
X-81.159 Y-92.246 Z-0.925 I0 J-0.163
X-81.159 Y-91.921 Z-0.97 I0 J0.163
X-81.159 Y-92.246 Z-1.016 I0 J-0.163
X-81.159 Y-91.921 Z-1.062 I0 J0.163
X-81.159 Y-92.246 Z-1.108 I0 J-0.163
X-81.159 Y-91.921 Z-1.154 I0 J0.163
X-81.159 Y-92.246 Z-1.2 I0 J-0.163
X-81.159 Y-91.921 Z-1.245 I0 J0.163
X-81.159 Y-92.246 Z-1.291 I0 J-0.163
X-81.159 Y-91.921 Z-1.337 I0 J0.163
X-81.159 Y-92.246 Z-1.383 I0 J-0.163
X-81.159 Y-91.921 Z-1.429 I0 J0.163
X-81.159 Y-92.246 Z-1.475 I0 J-0.163
X-81.159 Y-91.921 Z-1.52 I0 J0.163
X-81.159 Y-92.246 Z-1.566 I0 J-0.163
X-81.159 Y-91.921 Z-1.612 I0 J0.163
X-81.159 Y-92.246 Z-1.658 I0 J-0.163
X-81.159 Y-91.921 Z-1.704 I0 J0.163
X-81.159 Y-92.246 Z-1.75 I0 J-0.163
X-81.159 Y-91.921 Z-1.795 I0 J0.163
X-81.159 Y-92.246 Z-1.841 I0 J-0.163
X-81.159 Y-91.921 Z-1.887 I0 J0.163
X-81.159 Y-92.246 Z-1.933 I0 J-0.163
X-81.159 Y-91.921 Z-1.979 I0 J0.163
X-81.159 Y-92.246 Z-2.024 I0 J-0.163
X-81.159 Y-91.921 Z-2.07 I0 J0.163
X-81.159 Y-92.246 Z-2.116 I0 J-0.163
X-81.159 Y-91.921 Z-2.162 I0 J0.163
X-81.159 Y-92.246 Z-2.208 I0 J-0.163
X-81.159 Y-91.921 Z-2.254 I0 J0.163
X-81.159 Y-92.246 Z-2.299 I0 J-0.163
X-81.159 Y-91.921 Z-2.345 I0 J0.163
X-81.159 Y-92.246 Z-2.391 I0 J-0.163
X-81.159 Y-91.921 Z-2.437 I0 J0.163
X-81.159 Y-92.246 Z-2.483 I0 J-0.163
X-81.159 Y-91.921 Z-2.529 I0 J0.163
X-81.159 Y-92.246 Z-2.574 I0 J-0.163
X-81.159 Y-91.921 Z-2.62 I0 J0.163
X-81.159 Y-92.246 Z-2.666 I0 J-0.163
X-81.159 Y-91.921 Z-2.712 I0 J0.163
X-81.159 Y-92.246 Z-2.758 I0 J-0.163
X-81.159 Y-91.921 Z-2.804 I0 J0.163
X-81.159 Y-92.246 Z-2.849 I0 J-0.163
X-81.159 Y-91.921 Z-2.895 I0 J0.163
X-81.159 Y-92.246 Z-2.941 I0 J-0.163
X-81.159 Y-91.921 Z-2.987 I0 J0.163
X-81.159 Y-92.246 Z-3.033 I0 J-0.163
X-81.159 Y-91.921 Z-3.078 I0 J0.163
X-81.159 Y-92.246 Z-3.124 I0 J-0.163
X-81.159 Y-91.921 Z-3.17 I0 J0.163
X-81.159 Y-92.246 Z-3.216 I0 J-0.163
X-81.159 Y-91.921 Z-3.262 I0 J0.163
X-81.159 Y-92.246 Z-3.308 I0 J-0.163
X-81.159 Y-91.921 Z-3.353 I0 J0.163
X-81.159 Y-92.246 Z-3.399 I0 J-0.163
X-81.159 Y-91.921 Z-3.445 I0 J0.163
X-81.159 Y-92.246 Z-3.491 I0 J-0.163
X-81.159 Y-91.921 Z-3.537 I0 J0.163
X-81.159 Y-92.246 Z-3.583 I0 J-0.163
X-81.159 Y-91.921 Z-3.628 I0 J0.163
X-81.159 Y-92.246 Z-3.674 I0 J-0.163
X-81.159 Y-91.921 Z-3.72 I0 J0.163
X-81.159 Y-92.246 Z-3.766 I0 J-0.163
X-81.159 Y-91.921 Z-3.812 I0 J0.163
X-81.159 Y-92.246 Z-3.857 I0 J-0.163
X-81.159 Y-91.921 Z-3.903 I0 J0.163
X-81.159 Y-92.246 Z-3.949 I0 J-0.163
X-81.159 Y-91.921 Z-3.995 I0 J0.163
X-81.159 Y-92.246 Z-4.041 I0 J-0.163
X-81.159 Y-91.921 Z-4.087 I0 J0.163
X-81.159 Y-92.246 Z-4.132 I0 J-0.163
X-81.159 Y-91.921 Z-4.178 I0 J0.163
X-81.159 Y-92.246 Z-4.224 I0 J-0.163
X-81.159 Y-91.921 Z-4.27 I0 J0.163
X-81.302 Y-92.16 Z-4.3 I0 J-0.163
X-81.015 Y-92.007 I0.143 J0.077
X-81.302 Y-92.16 I-0.143 J-0.077
G1 X-81.282 Y-92.185
X-81.254 Y-92.2
X-81.222 Y-92.203
X-81.192 Y-92.194
X-81.052 Y-92.119
Z5
X-89.421 Y-76.006
Z2.682
Z1
Y-76.165
X-89.414 Y-76.196
X-89.397 Y-76.222
X-89.371 Y-76.24
X-89.339 Y-76.246
G3 X-89.339 Y-75.921 Z0.954 I0 J0.163
X-89.339 Y-76.246 Z0.908 I0 J-0.163
X-89.339 Y-75.921 Z0.863 I0 J0.163
X-89.339 Y-76.246 Z0.817 I0 J-0.163
X-89.339 Y-75.921 Z0.771 I0 J0.163
X-89.339 Y-76.246 Z0.725 I0 J-0.163
X-89.339 Y-75.921 Z0.679 I0 J0.163
X-89.339 Y-76.246 Z0.633 I0 J-0.163
X-89.339 Y-75.921 Z0.588 I0 J0.163
X-89.339 Y-76.246 Z0.542 I0 J-0.163
X-89.339 Y-75.921 Z0.496 I0 J0.163
X-89.339 Y-76.246 Z0.45 I0 J-0.163
X-89.339 Y-75.921 Z0.404 I0 J0.163
X-89.339 Y-76.246 Z0.358 I0 J-0.163
X-89.339 Y-75.921 Z0.313 I0 J0.163
X-89.339 Y-76.246 Z0.267 I0 J-0.163
X-89.339 Y-75.921 Z0.221 I0 J0.163
X-89.339 Y-76.246 Z0.175 I0 J-0.163
X-89.339 Y-75.921 Z0.129 I0 J0.163
X-89.339 Y-76.246 Z0.083 I0 J-0.163
X-89.339 Y-75.921 Z0.038 I0 J0.163
X-89.339 Y-76.246 Z-0.008 I0 J-0.163
X-89.339 Y-75.921 Z-0.054 I0 J0.163
X-89.339 Y-76.246 Z-0.1 I0 J-0.163
X-89.339 Y-75.921 Z-0.146 I0 J0.163
X-89.339 Y-76.246 Z-0.191 I0 J-0.163
X-89.339 Y-75.921 Z-0.237 I0 J0.163
X-89.339 Y-76.246 Z-0.283 I0 J-0.163
X-89.339 Y-75.921 Z-0.329 I0 J0.163
X-89.339 Y-76.246 Z-0.375 I0 J-0.163
X-89.339 Y-75.921 Z-0.421 I0 J0.163
X-89.339 Y-76.246 Z-0.466 I0 J-0.163
X-89.339 Y-75.921 Z-0.512 I0 J0.163
X-89.339 Y-76.246 Z-0.558 I0 J-0.163
X-89.339 Y-75.921 Z-0.604 I0 J0.163
X-89.339 Y-76.246 Z-0.65 I0 J-0.163
X-89.339 Y-75.921 Z-0.696 I0 J0.163
X-89.339 Y-76.246 Z-0.741 I0 J-0.163
X-89.339 Y-75.921 Z-0.787 I0 J0.163
X-89.339 Y-76.246 Z-0.833 I0 J-0.163
X-89.339 Y-75.921 Z-0.879 I0 J0.163
X-89.339 Y-76.246 Z-0.925 I0 J-0.163
X-89.339 Y-75.921 Z-0.97 I0 J0.163
X-89.339 Y-76.246 Z-1.016 I0 J-0.163
X-89.339 Y-75.921 Z-1.062 I0 J0.163
X-89.339 Y-76.246 Z-1.108 I0 J-0.163
X-89.339 Y-75.921 Z-1.154 I0 J0.163
X-89.339 Y-76.246 Z-1.2 I0 J-0.163
X-89.339 Y-75.921 Z-1.245 I0 J0.163
X-89.339 Y-76.246 Z-1.291 I0 J-0.163
X-89.339 Y-75.921 Z-1.337 I0 J0.163
X-89.339 Y-76.246 Z-1.383 I0 J-0.163
X-89.339 Y-75.921 Z-1.429 I0 J0.163
X-89.339 Y-76.246 Z-1.475 I0 J-0.163
X-89.339 Y-75.921 Z-1.52 I0 J0.163
X-89.339 Y-76.246 Z-1.566 I0 J-0.163
X-89.339 Y-75.921 Z-1.612 I0 J0.163
X-89.339 Y-76.246 Z-1.658 I0 J-0.163
X-89.339 Y-75.921 Z-1.704 I0 J0.163
X-89.339 Y-76.246 Z-1.75 I0 J-0.163
X-89.339 Y-75.921 Z-1.795 I0 J0.163
X-89.339 Y-76.246 Z-1.841 I0 J-0.163
X-89.339 Y-75.921 Z-1.887 I0 J0.163
X-89.339 Y-76.246 Z-1.933 I0 J-0.163
X-89.339 Y-75.921 Z-1.979 I0 J0.163
X-89.339 Y-76.246 Z-2.024 I0 J-0.163
X-89.339 Y-75.921 Z-2.07 I0 J0.163
X-89.339 Y-76.246 Z-2.116 I0 J-0.163
X-89.339 Y-75.921 Z-2.162 I0 J0.163
X-89.339 Y-76.246 Z-2.208 I0 J-0.163
X-89.339 Y-75.921 Z-2.254 I0 J0.163
X-89.339 Y-76.246 Z-2.299 I0 J-0.163
X-89.339 Y-75.921 Z-2.345 I0 J0.163
X-89.339 Y-76.246 Z-2.391 I0 J-0.163
X-89.339 Y-75.921 Z-2.437 I0 J0.163
X-89.339 Y-76.246 Z-2.483 I0 J-0.163
X-89.339 Y-75.921 Z-2.529 I0 J0.163
X-89.339 Y-76.246 Z-2.574 I0 J-0.163
X-89.339 Y-75.921 Z-2.62 I0 J0.163
X-89.339 Y-76.246 Z-2.666 I0 J-0.163
X-89.339 Y-75.921 Z-2.712 I0 J0.163
X-89.339 Y-76.246 Z-2.758 I0 J-0.163
X-89.339 Y-75.921 Z-2.804 I0 J0.163
X-89.339 Y-76.246 Z-2.849 I0 J-0.163
X-89.339 Y-75.921 Z-2.895 I0 J0.163
X-89.339 Y-76.246 Z-2.941 I0 J-0.163
X-89.339 Y-75.921 Z-2.987 I0 J0.163
X-89.339 Y-76.246 Z-3.033 I0 J-0.163
X-89.339 Y-75.921 Z-3.078 I0 J0.163
X-89.339 Y-76.246 Z-3.124 I0 J-0.163
X-89.339 Y-75.921 Z-3.17 I0 J0.163
X-89.339 Y-76.246 Z-3.216 I0 J-0.163
X-89.339 Y-75.921 Z-3.262 I0 J0.163
X-89.339 Y-76.246 Z-3.308 I0 J-0.163
X-89.339 Y-75.921 Z-3.353 I0 J0.163
X-89.339 Y-76.246 Z-3.399 I0 J-0.163
X-89.339 Y-75.921 Z-3.445 I0 J0.163
X-89.339 Y-76.246 Z-3.491 I0 J-0.163
X-89.339 Y-75.921 Z-3.537 I0 J0.163
X-89.339 Y-76.246 Z-3.583 I0 J-0.163
X-89.339 Y-75.921 Z-3.628 I0 J0.163
X-89.339 Y-76.246 Z-3.674 I0 J-0.163
X-89.339 Y-75.921 Z-3.72 I0 J0.163
X-89.339 Y-76.246 Z-3.766 I0 J-0.163
X-89.339 Y-75.921 Z-3.812 I0 J0.163
X-89.339 Y-76.246 Z-3.857 I0 J-0.163
X-89.339 Y-75.921 Z-3.903 I0 J0.163
X-89.339 Y-76.246 Z-3.949 I0 J-0.163
X-89.339 Y-75.921 Z-3.995 I0 J0.163
X-89.339 Y-76.246 Z-4.041 I0 J-0.163
X-89.339 Y-75.921 Z-4.087 I0 J0.163
X-89.339 Y-76.246 Z-4.132 I0 J-0.163
X-89.339 Y-75.921 Z-4.178 I0 J0.163
X-89.339 Y-76.246 Z-4.224 I0 J-0.163
X-89.339 Y-75.921 Z-4.27 I0 J0.163
X-89.483 Y-76.16 Z-4.3 I0 J-0.163
X-89.196 Y-76.007 I0.143 J0.077
X-89.483 Y-76.16 I-0.143 J-0.077
G1 X-89.463 Y-76.185
X-89.435 Y-76.2
X-89.403 Y-76.203
X-89.373 Y-76.194
X-89.233 Y-76.119
Z5
X-66.671 Y-72.256
Z2.682
Z1
Y-72.415
X-66.664 Y-72.446
X-66.647 Y-72.472
X-66.621 Y-72.49
X-66.589 Y-72.496
G3 X-66.589 Y-72.171 Z0.954 I0 J0.163
X-66.589 Y-72.496 Z0.908 I0 J-0.163
X-66.589 Y-72.171 Z0.863 I0 J0.163
X-66.589 Y-72.496 Z0.817 I0 J-0.163
X-66.589 Y-72.171 Z0.771 I0 J0.163
X-66.589 Y-72.496 Z0.725 I0 J-0.163
X-66.589 Y-72.171 Z0.679 I0 J0.163
X-66.589 Y-72.496 Z0.633 I0 J-0.163
X-66.589 Y-72.171 Z0.588 I0 J0.163
X-66.589 Y-72.496 Z0.542 I0 J-0.163
X-66.589 Y-72.171 Z0.496 I0 J0.163
X-66.589 Y-72.496 Z0.45 I0 J-0.163
X-66.589 Y-72.171 Z0.404 I0 J0.163
X-66.589 Y-72.496 Z0.358 I0 J-0.163
X-66.589 Y-72.171 Z0.313 I0 J0.163
X-66.589 Y-72.496 Z0.267 I0 J-0.163
X-66.589 Y-72.171 Z0.221 I0 J0.163
X-66.589 Y-72.496 Z0.175 I0 J-0.163
X-66.589 Y-72.171 Z0.129 I0 J0.163
X-66.589 Y-72.496 Z0.083 I0 J-0.163
X-66.589 Y-72.171 Z0.038 I0 J0.163
X-66.589 Y-72.496 Z-0.008 I0 J-0.163
X-66.589 Y-72.171 Z-0.054 I0 J0.163
X-66.589 Y-72.496 Z-0.1 I0 J-0.163
X-66.589 Y-72.171 Z-0.146 I0 J0.163
X-66.589 Y-72.496 Z-0.191 I0 J-0.163
X-66.589 Y-72.171 Z-0.237 I0 J0.163
X-66.589 Y-72.496 Z-0.283 I0 J-0.163
X-66.589 Y-72.171 Z-0.329 I0 J0.163
X-66.589 Y-72.496 Z-0.375 I0 J-0.163
X-66.589 Y-72.171 Z-0.421 I0 J0.163
X-66.589 Y-72.496 Z-0.466 I0 J-0.163
X-66.589 Y-72.171 Z-0.512 I0 J0.163
X-66.589 Y-72.496 Z-0.558 I0 J-0.163
X-66.589 Y-72.171 Z-0.604 I0 J0.163
X-66.589 Y-72.496 Z-0.65 I0 J-0.163
X-66.589 Y-72.171 Z-0.696 I0 J0.163
X-66.589 Y-72.496 Z-0.741 I0 J-0.163
X-66.589 Y-72.171 Z-0.787 I0 J0.163
X-66.589 Y-72.496 Z-0.833 I0 J-0.163
X-66.589 Y-72.171 Z-0.879 I0 J0.163
X-66.589 Y-72.496 Z-0.925 I0 J-0.163
X-66.589 Y-72.171 Z-0.97 I0 J0.163
X-66.589 Y-72.496 Z-1.016 I0 J-0.163
X-66.589 Y-72.171 Z-1.062 I0 J0.163
X-66.589 Y-72.496 Z-1.108 I0 J-0.163
X-66.589 Y-72.171 Z-1.154 I0 J0.163
X-66.589 Y-72.496 Z-1.2 I0 J-0.163
X-66.589 Y-72.171 Z-1.245 I0 J0.163
X-66.589 Y-72.496 Z-1.291 I0 J-0.163
X-66.589 Y-72.171 Z-1.337 I0 J0.163
X-66.589 Y-72.496 Z-1.383 I0 J-0.163
X-66.589 Y-72.171 Z-1.429 I0 J0.163
X-66.589 Y-72.496 Z-1.475 I0 J-0.163
X-66.589 Y-72.171 Z-1.52 I0 J0.163
X-66.589 Y-72.496 Z-1.566 I0 J-0.163
X-66.589 Y-72.171 Z-1.612 I0 J0.163
X-66.589 Y-72.496 Z-1.658 I0 J-0.163
X-66.589 Y-72.171 Z-1.704 I0 J0.163
X-66.589 Y-72.496 Z-1.75 I0 J-0.163
X-66.589 Y-72.171 Z-1.795 I0 J0.163
X-66.589 Y-72.496 Z-1.841 I0 J-0.163
X-66.589 Y-72.171 Z-1.887 I0 J0.163
X-66.589 Y-72.496 Z-1.933 I0 J-0.163
X-66.589 Y-72.171 Z-1.979 I0 J0.163
X-66.589 Y-72.496 Z-2.024 I0 J-0.163
X-66.589 Y-72.171 Z-2.07 I0 J0.163
X-66.589 Y-72.496 Z-2.116 I0 J-0.163
X-66.589 Y-72.171 Z-2.162 I0 J0.163
X-66.589 Y-72.496 Z-2.208 I0 J-0.163
X-66.589 Y-72.171 Z-2.254 I0 J0.163
X-66.589 Y-72.496 Z-2.299 I0 J-0.163
X-66.589 Y-72.171 Z-2.345 I0 J0.163
X-66.589 Y-72.496 Z-2.391 I0 J-0.163
X-66.589 Y-72.171 Z-2.437 I0 J0.163
X-66.589 Y-72.496 Z-2.483 I0 J-0.163
X-66.589 Y-72.171 Z-2.529 I0 J0.163
X-66.589 Y-72.496 Z-2.574 I0 J-0.163
X-66.589 Y-72.171 Z-2.62 I0 J0.163
X-66.589 Y-72.496 Z-2.666 I0 J-0.163
X-66.589 Y-72.171 Z-2.712 I0 J0.163
X-66.589 Y-72.496 Z-2.758 I0 J-0.163
X-66.589 Y-72.171 Z-2.804 I0 J0.163
X-66.589 Y-72.496 Z-2.849 I0 J-0.163
X-66.589 Y-72.171 Z-2.895 I0 J0.163
X-66.589 Y-72.496 Z-2.941 I0 J-0.163
X-66.589 Y-72.171 Z-2.987 I0 J0.163
X-66.589 Y-72.496 Z-3.033 I0 J-0.163
X-66.589 Y-72.171 Z-3.078 I0 J0.163
X-66.589 Y-72.496 Z-3.124 I0 J-0.163
X-66.589 Y-72.171 Z-3.17 I0 J0.163
X-66.589 Y-72.496 Z-3.216 I0 J-0.163
X-66.589 Y-72.171 Z-3.262 I0 J0.163
X-66.589 Y-72.496 Z-3.308 I0 J-0.163
X-66.589 Y-72.171 Z-3.353 I0 J0.163
X-66.589 Y-72.496 Z-3.399 I0 J-0.163
X-66.589 Y-72.171 Z-3.445 I0 J0.163
X-66.589 Y-72.496 Z-3.491 I0 J-0.163
X-66.589 Y-72.171 Z-3.537 I0 J0.163
X-66.589 Y-72.496 Z-3.583 I0 J-0.163
X-66.589 Y-72.171 Z-3.628 I0 J0.163
X-66.589 Y-72.496 Z-3.674 I0 J-0.163
X-66.589 Y-72.171 Z-3.72 I0 J0.163
X-66.589 Y-72.496 Z-3.766 I0 J-0.163
X-66.589 Y-72.171 Z-3.812 I0 J0.163
X-66.589 Y-72.496 Z-3.857 I0 J-0.163
X-66.589 Y-72.171 Z-3.903 I0 J0.163
X-66.589 Y-72.496 Z-3.949 I0 J-0.163
X-66.589 Y-72.171 Z-3.995 I0 J0.163
X-66.589 Y-72.496 Z-4.041 I0 J-0.163
X-66.589 Y-72.171 Z-4.087 I0 J0.163
X-66.589 Y-72.496 Z-4.132 I0 J-0.163
X-66.589 Y-72.171 Z-4.178 I0 J0.163
X-66.589 Y-72.496 Z-4.224 I0 J-0.163
X-66.589 Y-72.171 Z-4.27 I0 J0.163
X-66.733 Y-72.41 Z-4.3 I0 J-0.163
X-66.446 Y-72.257 I0.143 J0.077
X-66.733 Y-72.41 I-0.143 J-0.077
G1 X-66.713 Y-72.435
X-66.685 Y-72.45
X-66.653 Y-72.453
X-66.623 Y-72.444
X-66.483 Y-72.369
Z5
X-66.671 Y-41.756
Z2.682
Z1
Y-41.915
X-66.664 Y-41.946
X-66.647 Y-41.972
X-66.621 Y-41.99
X-66.589 Y-41.996
G3 X-66.589 Y-41.671 Z0.954 I0 J0.162
X-66.589 Y-41.996 Z0.908 I0 J-0.162
X-66.589 Y-41.671 Z0.863 I0 J0.162
X-66.589 Y-41.996 Z0.817 I0 J-0.162
X-66.589 Y-41.671 Z0.771 I0 J0.162
X-66.589 Y-41.996 Z0.725 I0 J-0.162
X-66.589 Y-41.671 Z0.679 I0 J0.162
X-66.589 Y-41.996 Z0.633 I0 J-0.162
X-66.589 Y-41.671 Z0.588 I0 J0.162
X-66.589 Y-41.996 Z0.542 I0 J-0.162
X-66.589 Y-41.671 Z0.496 I0 J0.162
X-66.589 Y-41.996 Z0.45 I0 J-0.162
X-66.589 Y-41.671 Z0.404 I0 J0.162
X-66.589 Y-41.996 Z0.358 I0 J-0.162
X-66.589 Y-41.671 Z0.313 I0 J0.162
X-66.589 Y-41.996 Z0.267 I0 J-0.162
X-66.589 Y-41.671 Z0.221 I0 J0.162
X-66.589 Y-41.996 Z0.175 I0 J-0.162
X-66.589 Y-41.671 Z0.129 I0 J0.162
X-66.589 Y-41.996 Z0.083 I0 J-0.162
X-66.589 Y-41.671 Z0.038 I0 J0.162
X-66.589 Y-41.996 Z-0.008 I0 J-0.162
X-66.589 Y-41.671 Z-0.054 I0 J0.162
X-66.589 Y-41.996 Z-0.1 I0 J-0.162
X-66.589 Y-41.671 Z-0.146 I0 J0.162
X-66.589 Y-41.996 Z-0.191 I0 J-0.162
X-66.589 Y-41.671 Z-0.237 I0 J0.162
X-66.589 Y-41.996 Z-0.283 I0 J-0.162
X-66.589 Y-41.671 Z-0.329 I0 J0.162
X-66.589 Y-41.996 Z-0.375 I0 J-0.162
X-66.589 Y-41.671 Z-0.421 I0 J0.162
X-66.589 Y-41.996 Z-0.466 I0 J-0.162
X-66.589 Y-41.671 Z-0.512 I0 J0.162
X-66.589 Y-41.996 Z-0.558 I0 J-0.162
X-66.589 Y-41.671 Z-0.604 I0 J0.162
X-66.589 Y-41.996 Z-0.65 I0 J-0.162
X-66.589 Y-41.671 Z-0.696 I0 J0.162
X-66.589 Y-41.996 Z-0.741 I0 J-0.162
X-66.589 Y-41.671 Z-0.787 I0 J0.162
X-66.589 Y-41.996 Z-0.833 I0 J-0.162
X-66.589 Y-41.671 Z-0.879 I0 J0.162
X-66.589 Y-41.996 Z-0.925 I0 J-0.162
X-66.589 Y-41.671 Z-0.97 I0 J0.162
X-66.589 Y-41.996 Z-1.016 I0 J-0.162
X-66.589 Y-41.671 Z-1.062 I0 J0.162
X-66.589 Y-41.996 Z-1.108 I0 J-0.162
X-66.589 Y-41.671 Z-1.154 I0 J0.162
X-66.589 Y-41.996 Z-1.2 I0 J-0.162
X-66.589 Y-41.671 Z-1.245 I0 J0.162
X-66.589 Y-41.996 Z-1.291 I0 J-0.162
X-66.589 Y-41.671 Z-1.337 I0 J0.162
X-66.589 Y-41.996 Z-1.383 I0 J-0.162
X-66.589 Y-41.671 Z-1.429 I0 J0.162
X-66.589 Y-41.996 Z-1.475 I0 J-0.162
X-66.589 Y-41.671 Z-1.52 I0 J0.162
X-66.589 Y-41.996 Z-1.566 I0 J-0.162
X-66.589 Y-41.671 Z-1.612 I0 J0.162
X-66.589 Y-41.996 Z-1.658 I0 J-0.162
X-66.589 Y-41.671 Z-1.704 I0 J0.162
X-66.589 Y-41.996 Z-1.75 I0 J-0.162
X-66.589 Y-41.671 Z-1.795 I0 J0.162
X-66.589 Y-41.996 Z-1.841 I0 J-0.162
X-66.589 Y-41.671 Z-1.887 I0 J0.162
X-66.589 Y-41.996 Z-1.933 I0 J-0.162
X-66.589 Y-41.671 Z-1.979 I0 J0.162
X-66.589 Y-41.996 Z-2.024 I0 J-0.162
X-66.589 Y-41.671 Z-2.07 I0 J0.162
X-66.589 Y-41.996 Z-2.116 I0 J-0.162
X-66.589 Y-41.671 Z-2.162 I0 J0.162
X-66.589 Y-41.996 Z-2.208 I0 J-0.162
X-66.589 Y-41.671 Z-2.254 I0 J0.162
X-66.589 Y-41.996 Z-2.299 I0 J-0.162
X-66.589 Y-41.671 Z-2.345 I0 J0.162
X-66.589 Y-41.996 Z-2.391 I0 J-0.162
X-66.589 Y-41.671 Z-2.437 I0 J0.162
X-66.589 Y-41.996 Z-2.483 I0 J-0.162
X-66.589 Y-41.671 Z-2.529 I0 J0.162
X-66.589 Y-41.996 Z-2.574 I0 J-0.162
X-66.589 Y-41.671 Z-2.62 I0 J0.162
X-66.589 Y-41.996 Z-2.666 I0 J-0.162
X-66.589 Y-41.671 Z-2.712 I0 J0.162
X-66.589 Y-41.996 Z-2.758 I0 J-0.162
X-66.589 Y-41.671 Z-2.804 I0 J0.162
X-66.589 Y-41.996 Z-2.849 I0 J-0.162
X-66.589 Y-41.671 Z-2.895 I0 J0.162
X-66.589 Y-41.996 Z-2.941 I0 J-0.162
X-66.589 Y-41.671 Z-2.987 I0 J0.162
X-66.589 Y-41.996 Z-3.033 I0 J-0.162
X-66.589 Y-41.671 Z-3.078 I0 J0.162
X-66.589 Y-41.996 Z-3.124 I0 J-0.162
X-66.589 Y-41.671 Z-3.17 I0 J0.162
X-66.589 Y-41.996 Z-3.216 I0 J-0.162
X-66.589 Y-41.671 Z-3.262 I0 J0.162
X-66.589 Y-41.996 Z-3.308 I0 J-0.162
X-66.589 Y-41.671 Z-3.353 I0 J0.162
X-66.589 Y-41.996 Z-3.399 I0 J-0.162
X-66.589 Y-41.671 Z-3.445 I0 J0.162
X-66.589 Y-41.996 Z-3.491 I0 J-0.162
X-66.589 Y-41.671 Z-3.537 I0 J0.162
X-66.589 Y-41.996 Z-3.583 I0 J-0.162
X-66.589 Y-41.671 Z-3.628 I0 J0.162
X-66.589 Y-41.996 Z-3.674 I0 J-0.162
X-66.589 Y-41.671 Z-3.72 I0 J0.162
X-66.589 Y-41.996 Z-3.766 I0 J-0.162
X-66.589 Y-41.671 Z-3.812 I0 J0.162
X-66.589 Y-41.996 Z-3.857 I0 J-0.162
X-66.589 Y-41.671 Z-3.903 I0 J0.162
X-66.589 Y-41.996 Z-3.949 I0 J-0.162
X-66.589 Y-41.671 Z-3.995 I0 J0.162
X-66.589 Y-41.996 Z-4.041 I0 J-0.162
X-66.589 Y-41.671 Z-4.087 I0 J0.162
X-66.589 Y-41.996 Z-4.132 I0 J-0.162
X-66.589 Y-41.671 Z-4.178 I0 J0.162
X-66.589 Y-41.996 Z-4.224 I0 J-0.162
X-66.589 Y-41.671 Z-4.27 I0 J0.162
X-66.733 Y-41.91 Z-4.3 I0 J-0.162
X-66.446 Y-41.757 I0.143 J0.077
X-66.733 Y-41.91 I-0.143 J-0.077
G1 X-66.713 Y-41.935
X-66.685 Y-41.95
X-66.653 Y-41.953
X-66.623 Y-41.944
X-66.483 Y-41.869
Z5
X-89.421 Y-38.006
Z2.682
Z1
Y-38.165
X-89.414 Y-38.196
X-89.397 Y-38.222
X-89.371 Y-38.24
X-89.339 Y-38.246
G3 X-89.339 Y-37.921 Z0.954 I0 J0.162
X-89.339 Y-38.246 Z0.908 I0 J-0.162
X-89.339 Y-37.921 Z0.863 I0 J0.162
X-89.339 Y-38.246 Z0.817 I0 J-0.162
X-89.339 Y-37.921 Z0.771 I0 J0.162
X-89.339 Y-38.246 Z0.725 I0 J-0.162
X-89.339 Y-37.921 Z0.679 I0 J0.162
X-89.339 Y-38.246 Z0.633 I0 J-0.162
X-89.339 Y-37.921 Z0.588 I0 J0.162
X-89.339 Y-38.246 Z0.542 I0 J-0.162
X-89.339 Y-37.921 Z0.496 I0 J0.162
X-89.339 Y-38.246 Z0.45 I0 J-0.162
X-89.339 Y-37.921 Z0.404 I0 J0.162
X-89.339 Y-38.246 Z0.358 I0 J-0.162
X-89.339 Y-37.921 Z0.313 I0 J0.162
X-89.339 Y-38.246 Z0.267 I0 J-0.162
X-89.339 Y-37.921 Z0.221 I0 J0.162
X-89.339 Y-38.246 Z0.175 I0 J-0.162
X-89.339 Y-37.921 Z0.129 I0 J0.162
X-89.339 Y-38.246 Z0.083 I0 J-0.162
X-89.339 Y-37.921 Z0.038 I0 J0.162
X-89.339 Y-38.246 Z-0.008 I0 J-0.162
X-89.339 Y-37.921 Z-0.054 I0 J0.162
X-89.339 Y-38.246 Z-0.1 I0 J-0.162
X-89.339 Y-37.921 Z-0.146 I0 J0.162
X-89.339 Y-38.246 Z-0.191 I0 J-0.162
X-89.339 Y-37.921 Z-0.237 I0 J0.162
X-89.339 Y-38.246 Z-0.283 I0 J-0.162
X-89.339 Y-37.921 Z-0.329 I0 J0.162
X-89.339 Y-38.246 Z-0.375 I0 J-0.162
X-89.339 Y-37.921 Z-0.421 I0 J0.162
X-89.339 Y-38.246 Z-0.466 I0 J-0.162
X-89.339 Y-37.921 Z-0.512 I0 J0.162
X-89.339 Y-38.246 Z-0.558 I0 J-0.162
X-89.339 Y-37.921 Z-0.604 I0 J0.162
X-89.339 Y-38.246 Z-0.65 I0 J-0.162
X-89.339 Y-37.921 Z-0.696 I0 J0.162
X-89.339 Y-38.246 Z-0.741 I0 J-0.162
X-89.339 Y-37.921 Z-0.787 I0 J0.162
X-89.339 Y-38.246 Z-0.833 I0 J-0.162
X-89.339 Y-37.921 Z-0.879 I0 J0.162
X-89.339 Y-38.246 Z-0.925 I0 J-0.162
X-89.339 Y-37.921 Z-0.97 I0 J0.162
X-89.339 Y-38.246 Z-1.016 I0 J-0.162
X-89.339 Y-37.921 Z-1.062 I0 J0.162
X-89.339 Y-38.246 Z-1.108 I0 J-0.162
X-89.339 Y-37.921 Z-1.154 I0 J0.162
X-89.339 Y-38.246 Z-1.2 I0 J-0.162
X-89.339 Y-37.921 Z-1.245 I0 J0.162
X-89.339 Y-38.246 Z-1.291 I0 J-0.162
X-89.339 Y-37.921 Z-1.337 I0 J0.162
X-89.339 Y-38.246 Z-1.383 I0 J-0.162
X-89.339 Y-37.921 Z-1.429 I0 J0.162
X-89.339 Y-38.246 Z-1.475 I0 J-0.162
X-89.339 Y-37.921 Z-1.52 I0 J0.162
X-89.339 Y-38.246 Z-1.566 I0 J-0.162
X-89.339 Y-37.921 Z-1.612 I0 J0.162
X-89.339 Y-38.246 Z-1.658 I0 J-0.162
X-89.339 Y-37.921 Z-1.704 I0 J0.162
X-89.339 Y-38.246 Z-1.75 I0 J-0.162
X-89.339 Y-37.921 Z-1.795 I0 J0.162
X-89.339 Y-38.246 Z-1.841 I0 J-0.162
X-89.339 Y-37.921 Z-1.887 I0 J0.162
X-89.339 Y-38.246 Z-1.933 I0 J-0.162
X-89.339 Y-37.921 Z-1.979 I0 J0.162
X-89.339 Y-38.246 Z-2.024 I0 J-0.162
X-89.339 Y-37.921 Z-2.07 I0 J0.162
X-89.339 Y-38.246 Z-2.116 I0 J-0.162
X-89.339 Y-37.921 Z-2.162 I0 J0.162
X-89.339 Y-38.246 Z-2.208 I0 J-0.162
X-89.339 Y-37.921 Z-2.254 I0 J0.162
X-89.339 Y-38.246 Z-2.299 I0 J-0.162
X-89.339 Y-37.921 Z-2.345 I0 J0.162
X-89.339 Y-38.246 Z-2.391 I0 J-0.162
X-89.339 Y-37.921 Z-2.437 I0 J0.162
X-89.339 Y-38.246 Z-2.483 I0 J-0.162
X-89.339 Y-37.921 Z-2.529 I0 J0.162
X-89.339 Y-38.246 Z-2.574 I0 J-0.162
X-89.339 Y-37.921 Z-2.62 I0 J0.162
X-89.339 Y-38.246 Z-2.666 I0 J-0.162
X-89.339 Y-37.921 Z-2.712 I0 J0.162
X-89.339 Y-38.246 Z-2.758 I0 J-0.162
X-89.339 Y-37.921 Z-2.804 I0 J0.162
X-89.339 Y-38.246 Z-2.849 I0 J-0.162
X-89.339 Y-37.921 Z-2.895 I0 J0.162
X-89.339 Y-38.246 Z-2.941 I0 J-0.162
X-89.339 Y-37.921 Z-2.987 I0 J0.162
X-89.339 Y-38.246 Z-3.033 I0 J-0.162
X-89.339 Y-37.921 Z-3.078 I0 J0.162
X-89.339 Y-38.246 Z-3.124 I0 J-0.162
X-89.339 Y-37.921 Z-3.17 I0 J0.162
X-89.339 Y-38.246 Z-3.216 I0 J-0.162
X-89.339 Y-37.921 Z-3.262 I0 J0.162
X-89.339 Y-38.246 Z-3.308 I0 J-0.162
X-89.339 Y-37.921 Z-3.353 I0 J0.162
X-89.339 Y-38.246 Z-3.399 I0 J-0.162
X-89.339 Y-37.921 Z-3.445 I0 J0.162
X-89.339 Y-38.246 Z-3.491 I0 J-0.162
X-89.339 Y-37.921 Z-3.537 I0 J0.162
X-89.339 Y-38.246 Z-3.583 I0 J-0.162
X-89.339 Y-37.921 Z-3.628 I0 J0.162
X-89.339 Y-38.246 Z-3.674 I0 J-0.162
X-89.339 Y-37.921 Z-3.72 I0 J0.162
X-89.339 Y-38.246 Z-3.766 I0 J-0.162
X-89.339 Y-37.921 Z-3.812 I0 J0.162
X-89.339 Y-38.246 Z-3.857 I0 J-0.162
X-89.339 Y-37.921 Z-3.903 I0 J0.162
X-89.339 Y-38.246 Z-3.949 I0 J-0.162
X-89.339 Y-37.921 Z-3.995 I0 J0.162
X-89.339 Y-38.246 Z-4.041 I0 J-0.162
X-89.339 Y-37.921 Z-4.087 I0 J0.162
X-89.339 Y-38.246 Z-4.132 I0 J-0.162
X-89.339 Y-37.921 Z-4.178 I0 J0.162
X-89.339 Y-38.246 Z-4.224 I0 J-0.162
X-89.339 Y-37.921 Z-4.27 I0 J0.162
X-89.483 Y-38.16 Z-4.3 I0 J-0.162
X-89.196 Y-38.007 I0.143 J0.077
X-89.483 Y-38.16 I-0.143 J-0.077
G1 X-89.463 Y-38.185
X-89.435 Y-38.2
X-89.403 Y-38.203
X-89.373 Y-38.194
X-89.233 Y-38.119
Z5
X-81.24 Y-22.006
Z2.682
Z1
Y-22.165
X-81.234 Y-22.196
X-81.216 Y-22.222
X-81.19 Y-22.24
X-81.159 Y-22.246
G3 X-81.159 Y-21.921 Z0.954 I0 J0.163
X-81.159 Y-22.246 Z0.908 I0 J-0.163
X-81.159 Y-21.921 Z0.863 I0 J0.163
X-81.159 Y-22.246 Z0.817 I0 J-0.163
X-81.159 Y-21.921 Z0.771 I0 J0.163
X-81.159 Y-22.246 Z0.725 I0 J-0.163
X-81.159 Y-21.921 Z0.679 I0 J0.163
X-81.159 Y-22.246 Z0.633 I0 J-0.163
X-81.159 Y-21.921 Z0.588 I0 J0.163
X-81.159 Y-22.246 Z0.542 I0 J-0.163
X-81.159 Y-21.921 Z0.496 I0 J0.163
X-81.159 Y-22.246 Z0.45 I0 J-0.163
X-81.159 Y-21.921 Z0.404 I0 J0.163
X-81.159 Y-22.246 Z0.358 I0 J-0.163
X-81.159 Y-21.921 Z0.313 I0 J0.163
X-81.159 Y-22.246 Z0.267 I0 J-0.163
X-81.159 Y-21.921 Z0.221 I0 J0.163
X-81.159 Y-22.246 Z0.175 I0 J-0.163
X-81.159 Y-21.921 Z0.129 I0 J0.163
X-81.159 Y-22.246 Z0.083 I0 J-0.163
X-81.159 Y-21.921 Z0.038 I0 J0.163
X-81.159 Y-22.246 Z-0.008 I0 J-0.163
X-81.159 Y-21.921 Z-0.054 I0 J0.163
X-81.159 Y-22.246 Z-0.1 I0 J-0.163
X-81.159 Y-21.921 Z-0.146 I0 J0.163
X-81.159 Y-22.246 Z-0.191 I0 J-0.163
X-81.159 Y-21.921 Z-0.237 I0 J0.163
X-81.159 Y-22.246 Z-0.283 I0 J-0.163
X-81.159 Y-21.921 Z-0.329 I0 J0.163
X-81.159 Y-22.246 Z-0.375 I0 J-0.163
X-81.159 Y-21.921 Z-0.421 I0 J0.163
X-81.159 Y-22.246 Z-0.466 I0 J-0.163
X-81.159 Y-21.921 Z-0.512 I0 J0.163
X-81.159 Y-22.246 Z-0.558 I0 J-0.163
X-81.159 Y-21.921 Z-0.604 I0 J0.163
X-81.159 Y-22.246 Z-0.65 I0 J-0.163
X-81.159 Y-21.921 Z-0.696 I0 J0.163
X-81.159 Y-22.246 Z-0.741 I0 J-0.163
X-81.159 Y-21.921 Z-0.787 I0 J0.163
X-81.159 Y-22.246 Z-0.833 I0 J-0.163
X-81.159 Y-21.921 Z-0.879 I0 J0.163
X-81.159 Y-22.246 Z-0.925 I0 J-0.163
X-81.159 Y-21.921 Z-0.97 I0 J0.163
X-81.159 Y-22.246 Z-1.016 I0 J-0.163
X-81.159 Y-21.921 Z-1.062 I0 J0.163
X-81.159 Y-22.246 Z-1.108 I0 J-0.163
X-81.159 Y-21.921 Z-1.154 I0 J0.163
X-81.159 Y-22.246 Z-1.2 I0 J-0.163
X-81.159 Y-21.921 Z-1.245 I0 J0.163
X-81.159 Y-22.246 Z-1.291 I0 J-0.163
X-81.159 Y-21.921 Z-1.337 I0 J0.163
X-81.159 Y-22.246 Z-1.383 I0 J-0.163
X-81.159 Y-21.921 Z-1.429 I0 J0.163
X-81.159 Y-22.246 Z-1.475 I0 J-0.163
X-81.159 Y-21.921 Z-1.52 I0 J0.163
X-81.159 Y-22.246 Z-1.566 I0 J-0.163
X-81.159 Y-21.921 Z-1.612 I0 J0.162
X-81.159 Y-22.246 Z-1.658 I0 J-0.162
X-81.159 Y-21.921 Z-1.704 I0 J0.162
X-81.159 Y-22.246 Z-1.75 I0 J-0.162
X-81.159 Y-21.921 Z-1.795 I0 J0.162
X-81.159 Y-22.246 Z-1.841 I0 J-0.162
X-81.159 Y-21.921 Z-1.887 I0 J0.162
X-81.159 Y-22.246 Z-1.933 I0 J-0.162
X-81.159 Y-21.921 Z-1.979 I0 J0.162
X-81.159 Y-22.246 Z-2.024 I0 J-0.162
X-81.159 Y-21.921 Z-2.07 I0 J0.162
X-81.159 Y-22.246 Z-2.116 I0 J-0.162
X-81.159 Y-21.921 Z-2.162 I0 J0.162
X-81.159 Y-22.246 Z-2.208 I0 J-0.162
X-81.159 Y-21.921 Z-2.254 I0 J0.162
X-81.159 Y-22.246 Z-2.299 I0 J-0.162
X-81.159 Y-21.921 Z-2.345 I0 J0.162
X-81.159 Y-22.246 Z-2.391 I0 J-0.162
X-81.159 Y-21.921 Z-2.437 I0 J0.162
X-81.159 Y-22.246 Z-2.483 I0 J-0.162
X-81.159 Y-21.921 Z-2.529 I0 J0.162
X-81.159 Y-22.246 Z-2.574 I0 J-0.162
X-81.159 Y-21.921 Z-2.62 I0 J0.162
X-81.159 Y-22.246 Z-2.666 I0 J-0.162
X-81.159 Y-21.921 Z-2.712 I0 J0.162
X-81.159 Y-22.246 Z-2.758 I0 J-0.162
X-81.159 Y-21.921 Z-2.804 I0 J0.162
X-81.159 Y-22.246 Z-2.849 I0 J-0.162
X-81.159 Y-21.921 Z-2.895 I0 J0.162
X-81.159 Y-22.246 Z-2.941 I0 J-0.162
X-81.159 Y-21.921 Z-2.987 I0 J0.162
X-81.159 Y-22.246 Z-3.033 I0 J-0.162
X-81.159 Y-21.921 Z-3.078 I0 J0.162
X-81.159 Y-22.246 Z-3.124 I0 J-0.162
X-81.159 Y-21.921 Z-3.17 I0 J0.162
X-81.159 Y-22.246 Z-3.216 I0 J-0.162
X-81.159 Y-21.921 Z-3.262 I0 J0.162
X-81.159 Y-22.246 Z-3.308 I0 J-0.162
X-81.159 Y-21.921 Z-3.353 I0 J0.162
X-81.159 Y-22.246 Z-3.399 I0 J-0.162
X-81.159 Y-21.921 Z-3.445 I0 J0.162
X-81.159 Y-22.246 Z-3.491 I0 J-0.162
X-81.159 Y-21.921 Z-3.537 I0 J0.162
X-81.159 Y-22.246 Z-3.583 I0 J-0.162
X-81.159 Y-21.921 Z-3.628 I0 J0.162
X-81.159 Y-22.246 Z-3.674 I0 J-0.162
X-81.159 Y-21.921 Z-3.72 I0 J0.162
X-81.159 Y-22.246 Z-3.766 I0 J-0.162
X-81.159 Y-21.921 Z-3.812 I0 J0.162
X-81.159 Y-22.246 Z-3.857 I0 J-0.162
X-81.159 Y-21.921 Z-3.903 I0 J0.162
X-81.159 Y-22.246 Z-3.949 I0 J-0.162
X-81.159 Y-21.921 Z-3.995 I0 J0.162
X-81.159 Y-22.246 Z-4.041 I0 J-0.162
X-81.159 Y-21.921 Z-4.087 I0 J0.162
X-81.159 Y-22.246 Z-4.132 I0 J-0.162
X-81.159 Y-21.921 Z-4.178 I0 J0.162
X-81.159 Y-22.246 Z-4.224 I0 J-0.162
X-81.159 Y-21.921 Z-4.27 I0 J0.162
X-81.302 Y-22.16 Z-4.3 I0 J-0.162
X-81.015 Y-22.007 I0.143 J0.077
X-81.302 Y-22.16 I-0.143 J-0.077
G1 X-81.282 Y-22.185
X-81.254 Y-22.2
X-81.222 Y-22.203
X-81.192 Y-22.194
X-81.052 Y-22.119
Z5
X-21.602 Y-22.006
Z2.682
Z1
Y-22.165
X-21.595 Y-22.196
X-21.578 Y-22.222
X-21.551 Y-22.24
X-21.52 Y-22.246
G3 X-21.52 Y-21.921 Z0.954 I0 J0.163
X-21.52 Y-22.246 Z0.908 I0 J-0.163
X-21.52 Y-21.921 Z0.863 I0 J0.163
X-21.52 Y-22.246 Z0.817 I0 J-0.163
X-21.52 Y-21.921 Z0.771 I0 J0.163
X-21.52 Y-22.246 Z0.725 I0 J-0.163
X-21.52 Y-21.921 Z0.679 I0 J0.163
X-21.52 Y-22.246 Z0.633 I0 J-0.163
X-21.52 Y-21.921 Z0.588 I0 J0.163
X-21.52 Y-22.246 Z0.542 I0 J-0.163
X-21.52 Y-21.921 Z0.496 I0 J0.163
X-21.52 Y-22.246 Z0.45 I0 J-0.163
X-21.52 Y-21.921 Z0.404 I0 J0.163
X-21.52 Y-22.246 Z0.358 I0 J-0.163
X-21.52 Y-21.921 Z0.313 I0 J0.163
X-21.52 Y-22.246 Z0.267 I0 J-0.163
X-21.52 Y-21.921 Z0.221 I0 J0.163
X-21.52 Y-22.246 Z0.175 I0 J-0.163
X-21.52 Y-21.921 Z0.129 I0 J0.163
X-21.52 Y-22.246 Z0.083 I0 J-0.163
X-21.52 Y-21.921 Z0.038 I0 J0.163
X-21.52 Y-22.246 Z-0.008 I0 J-0.163
X-21.52 Y-21.921 Z-0.054 I0 J0.163
X-21.52 Y-22.246 Z-0.1 I0 J-0.163
X-21.52 Y-21.921 Z-0.146 I0 J0.163
X-21.52 Y-22.246 Z-0.191 I0 J-0.163
X-21.52 Y-21.921 Z-0.237 I0 J0.163
X-21.52 Y-22.246 Z-0.283 I0 J-0.163
X-21.52 Y-21.921 Z-0.329 I0 J0.163
X-21.52 Y-22.246 Z-0.375 I0 J-0.163
X-21.52 Y-21.921 Z-0.421 I0 J0.163
X-21.52 Y-22.246 Z-0.466 I0 J-0.163
X-21.52 Y-21.921 Z-0.512 I0 J0.163
X-21.52 Y-22.246 Z-0.558 I0 J-0.163
X-21.52 Y-21.921 Z-0.604 I0 J0.163
X-21.52 Y-22.246 Z-0.65 I0 J-0.163
X-21.52 Y-21.921 Z-0.696 I0 J0.163
X-21.52 Y-22.246 Z-0.741 I0 J-0.163
X-21.52 Y-21.921 Z-0.787 I0 J0.163
X-21.52 Y-22.246 Z-0.833 I0 J-0.163
X-21.52 Y-21.921 Z-0.879 I0 J0.163
X-21.52 Y-22.246 Z-0.925 I0 J-0.163
X-21.52 Y-21.921 Z-0.97 I0 J0.163
X-21.52 Y-22.246 Z-1.016 I0 J-0.163
X-21.52 Y-21.921 Z-1.062 I0 J0.163
X-21.52 Y-22.246 Z-1.108 I0 J-0.163
X-21.52 Y-21.921 Z-1.154 I0 J0.163
X-21.52 Y-22.246 Z-1.2 I0 J-0.163
X-21.52 Y-21.921 Z-1.245 I0 J0.163
X-21.52 Y-22.246 Z-1.291 I0 J-0.163
X-21.52 Y-21.921 Z-1.337 I0 J0.163
X-21.52 Y-22.246 Z-1.383 I0 J-0.163
X-21.52 Y-21.921 Z-1.429 I0 J0.163
X-21.52 Y-22.246 Z-1.475 I0 J-0.163
X-21.52 Y-21.921 Z-1.52 I0 J0.163
X-21.52 Y-22.246 Z-1.566 I0 J-0.163
X-21.52 Y-21.921 Z-1.612 I0 J0.162
X-21.52 Y-22.246 Z-1.658 I0 J-0.162
X-21.52 Y-21.921 Z-1.704 I0 J0.162
X-21.52 Y-22.246 Z-1.75 I0 J-0.162
X-21.52 Y-21.921 Z-1.795 I0 J0.162
X-21.52 Y-22.246 Z-1.841 I0 J-0.162
X-21.52 Y-21.921 Z-1.887 I0 J0.162
X-21.52 Y-22.246 Z-1.933 I0 J-0.162
X-21.52 Y-21.921 Z-1.979 I0 J0.162
X-21.52 Y-22.246 Z-2.024 I0 J-0.162
X-21.52 Y-21.921 Z-2.07 I0 J0.162
X-21.52 Y-22.246 Z-2.116 I0 J-0.162
X-21.52 Y-21.921 Z-2.162 I0 J0.162
X-21.52 Y-22.246 Z-2.208 I0 J-0.162
X-21.52 Y-21.921 Z-2.254 I0 J0.162
X-21.52 Y-22.246 Z-2.299 I0 J-0.162
X-21.52 Y-21.921 Z-2.345 I0 J0.162
X-21.52 Y-22.246 Z-2.391 I0 J-0.162
X-21.52 Y-21.921 Z-2.437 I0 J0.162
X-21.52 Y-22.246 Z-2.483 I0 J-0.162
X-21.52 Y-21.921 Z-2.529 I0 J0.162
X-21.52 Y-22.246 Z-2.574 I0 J-0.162
X-21.52 Y-21.921 Z-2.62 I0 J0.162
X-21.52 Y-22.246 Z-2.666 I0 J-0.162
X-21.52 Y-21.921 Z-2.712 I0 J0.162
X-21.52 Y-22.246 Z-2.758 I0 J-0.162
X-21.52 Y-21.921 Z-2.804 I0 J0.162
X-21.52 Y-22.246 Z-2.849 I0 J-0.162
X-21.52 Y-21.921 Z-2.895 I0 J0.162
X-21.52 Y-22.246 Z-2.941 I0 J-0.162
X-21.52 Y-21.921 Z-2.987 I0 J0.162
X-21.52 Y-22.246 Z-3.033 I0 J-0.162
X-21.52 Y-21.921 Z-3.078 I0 J0.162
X-21.52 Y-22.246 Z-3.124 I0 J-0.162
X-21.52 Y-21.921 Z-3.17 I0 J0.162
X-21.52 Y-22.246 Z-3.216 I0 J-0.162
X-21.52 Y-21.921 Z-3.262 I0 J0.162
X-21.52 Y-22.246 Z-3.308 I0 J-0.162
X-21.52 Y-21.921 Z-3.353 I0 J0.162
X-21.52 Y-22.246 Z-3.399 I0 J-0.162
X-21.52 Y-21.921 Z-3.445 I0 J0.162
X-21.52 Y-22.246 Z-3.491 I0 J-0.162
X-21.52 Y-21.921 Z-3.537 I0 J0.162
X-21.52 Y-22.246 Z-3.583 I0 J-0.162
X-21.52 Y-21.921 Z-3.628 I0 J0.162
X-21.52 Y-22.246 Z-3.674 I0 J-0.162
X-21.52 Y-21.921 Z-3.72 I0 J0.162
X-21.52 Y-22.246 Z-3.766 I0 J-0.162
X-21.52 Y-21.921 Z-3.812 I0 J0.162
X-21.52 Y-22.246 Z-3.857 I0 J-0.162
X-21.52 Y-21.921 Z-3.903 I0 J0.162
X-21.52 Y-22.246 Z-3.949 I0 J-0.162
X-21.52 Y-21.921 Z-3.995 I0 J0.162
X-21.52 Y-22.246 Z-4.041 I0 J-0.162
X-21.52 Y-21.921 Z-4.087 I0 J0.162
X-21.52 Y-22.246 Z-4.132 I0 J-0.162
X-21.52 Y-21.921 Z-4.178 I0 J0.162
X-21.52 Y-22.246 Z-4.224 I0 J-0.162
X-21.52 Y-21.921 Z-4.27 I0 J0.162
X-21.664 Y-22.16 Z-4.3 I0 J-0.162
X-21.377 Y-22.007 I0.143 J0.077
X-21.664 Y-22.16 I-0.143 J-0.077
G1 X-21.643 Y-22.185
X-21.616 Y-22.2
X-21.584 Y-22.203
X-21.554 Y-22.194
X-21.414 Y-22.119
Z5
X-36.171 Y-41.756
Z2.682
Z1
Y-41.915
X-36.164 Y-41.946
X-36.147 Y-41.972
X-36.121 Y-41.99
X-36.089 Y-41.996
G3 X-36.089 Y-41.671 Z0.954 I0 J0.162
X-36.089 Y-41.996 Z0.908 I0 J-0.162
X-36.089 Y-41.671 Z0.863 I0 J0.162
X-36.089 Y-41.996 Z0.817 I0 J-0.162
X-36.089 Y-41.671 Z0.771 I0 J0.162
X-36.089 Y-41.996 Z0.725 I0 J-0.162
X-36.089 Y-41.671 Z0.679 I0 J0.162
X-36.089 Y-41.996 Z0.633 I0 J-0.162
X-36.089 Y-41.671 Z0.588 I0 J0.162
X-36.089 Y-41.996 Z0.542 I0 J-0.162
X-36.089 Y-41.671 Z0.496 I0 J0.162
X-36.089 Y-41.996 Z0.45 I0 J-0.162
X-36.089 Y-41.671 Z0.404 I0 J0.162
X-36.089 Y-41.996 Z0.358 I0 J-0.162
X-36.089 Y-41.671 Z0.313 I0 J0.162
X-36.089 Y-41.996 Z0.267 I0 J-0.162
X-36.089 Y-41.671 Z0.221 I0 J0.162
X-36.089 Y-41.996 Z0.175 I0 J-0.162
X-36.089 Y-41.671 Z0.129 I0 J0.162
X-36.089 Y-41.996 Z0.083 I0 J-0.162
X-36.089 Y-41.671 Z0.038 I0 J0.162
X-36.089 Y-41.996 Z-0.008 I0 J-0.162
X-36.089 Y-41.671 Z-0.054 I0 J0.162
X-36.089 Y-41.996 Z-0.1 I0 J-0.162
X-36.089 Y-41.671 Z-0.146 I0 J0.162
X-36.089 Y-41.996 Z-0.191 I0 J-0.162
X-36.089 Y-41.671 Z-0.237 I0 J0.162
X-36.089 Y-41.996 Z-0.283 I0 J-0.162
X-36.089 Y-41.671 Z-0.329 I0 J0.162
X-36.089 Y-41.996 Z-0.375 I0 J-0.162
X-36.089 Y-41.671 Z-0.421 I0 J0.162
X-36.089 Y-41.996 Z-0.466 I0 J-0.162
X-36.089 Y-41.671 Z-0.512 I0 J0.162
X-36.089 Y-41.996 Z-0.558 I0 J-0.162
X-36.089 Y-41.671 Z-0.604 I0 J0.162
X-36.089 Y-41.996 Z-0.65 I0 J-0.162
X-36.089 Y-41.671 Z-0.696 I0 J0.162
X-36.089 Y-41.996 Z-0.741 I0 J-0.162
X-36.089 Y-41.671 Z-0.787 I0 J0.162
X-36.089 Y-41.996 Z-0.833 I0 J-0.162
X-36.089 Y-41.671 Z-0.879 I0 J0.162
X-36.089 Y-41.996 Z-0.925 I0 J-0.162
X-36.089 Y-41.671 Z-0.97 I0 J0.162
X-36.089 Y-41.996 Z-1.016 I0 J-0.162
X-36.089 Y-41.671 Z-1.062 I0 J0.162
X-36.089 Y-41.996 Z-1.108 I0 J-0.162
X-36.089 Y-41.671 Z-1.154 I0 J0.162
X-36.089 Y-41.996 Z-1.2 I0 J-0.162
X-36.089 Y-41.671 Z-1.245 I0 J0.162
X-36.089 Y-41.996 Z-1.291 I0 J-0.162
X-36.089 Y-41.671 Z-1.337 I0 J0.162
X-36.089 Y-41.996 Z-1.383 I0 J-0.162
X-36.089 Y-41.671 Z-1.429 I0 J0.162
X-36.089 Y-41.996 Z-1.475 I0 J-0.162
X-36.089 Y-41.671 Z-1.52 I0 J0.162
X-36.089 Y-41.996 Z-1.566 I0 J-0.162
X-36.089 Y-41.671 Z-1.612 I0 J0.162
X-36.089 Y-41.996 Z-1.658 I0 J-0.162
X-36.089 Y-41.671 Z-1.704 I0 J0.162
X-36.089 Y-41.996 Z-1.75 I0 J-0.162
X-36.089 Y-41.671 Z-1.795 I0 J0.162
X-36.089 Y-41.996 Z-1.841 I0 J-0.162
X-36.089 Y-41.671 Z-1.887 I0 J0.162
X-36.089 Y-41.996 Z-1.933 I0 J-0.162
X-36.089 Y-41.671 Z-1.979 I0 J0.162
X-36.089 Y-41.996 Z-2.024 I0 J-0.162
X-36.089 Y-41.671 Z-2.07 I0 J0.162
X-36.089 Y-41.996 Z-2.116 I0 J-0.162
X-36.089 Y-41.671 Z-2.162 I0 J0.162
X-36.089 Y-41.996 Z-2.208 I0 J-0.162
X-36.089 Y-41.671 Z-2.254 I0 J0.162
X-36.089 Y-41.996 Z-2.299 I0 J-0.162
X-36.089 Y-41.671 Z-2.345 I0 J0.162
X-36.089 Y-41.996 Z-2.391 I0 J-0.162
X-36.089 Y-41.671 Z-2.437 I0 J0.162
X-36.089 Y-41.996 Z-2.483 I0 J-0.162
X-36.089 Y-41.671 Z-2.529 I0 J0.162
X-36.089 Y-41.996 Z-2.574 I0 J-0.162
X-36.089 Y-41.671 Z-2.62 I0 J0.162
X-36.089 Y-41.996 Z-2.666 I0 J-0.162
X-36.089 Y-41.671 Z-2.712 I0 J0.162
X-36.089 Y-41.996 Z-2.758 I0 J-0.162
X-36.089 Y-41.671 Z-2.804 I0 J0.162
X-36.089 Y-41.996 Z-2.849 I0 J-0.162
X-36.089 Y-41.671 Z-2.895 I0 J0.162
X-36.089 Y-41.996 Z-2.941 I0 J-0.162
X-36.089 Y-41.671 Z-2.987 I0 J0.162
X-36.089 Y-41.996 Z-3.033 I0 J-0.162
X-36.089 Y-41.671 Z-3.078 I0 J0.162
X-36.089 Y-41.996 Z-3.124 I0 J-0.162
X-36.089 Y-41.671 Z-3.17 I0 J0.162
X-36.089 Y-41.996 Z-3.216 I0 J-0.162
X-36.089 Y-41.671 Z-3.262 I0 J0.162
X-36.089 Y-41.996 Z-3.308 I0 J-0.162
X-36.089 Y-41.671 Z-3.353 I0 J0.162
X-36.089 Y-41.996 Z-3.399 I0 J-0.162
X-36.089 Y-41.671 Z-3.445 I0 J0.162
X-36.089 Y-41.996 Z-3.491 I0 J-0.162
X-36.089 Y-41.671 Z-3.537 I0 J0.162
X-36.089 Y-41.996 Z-3.583 I0 J-0.162
X-36.089 Y-41.671 Z-3.628 I0 J0.162
X-36.089 Y-41.996 Z-3.674 I0 J-0.162
X-36.089 Y-41.671 Z-3.72 I0 J0.162
X-36.089 Y-41.996 Z-3.766 I0 J-0.162
X-36.089 Y-41.671 Z-3.812 I0 J0.162
X-36.089 Y-41.996 Z-3.857 I0 J-0.162
X-36.089 Y-41.671 Z-3.903 I0 J0.162
X-36.089 Y-41.996 Z-3.949 I0 J-0.162
X-36.089 Y-41.671 Z-3.995 I0 J0.162
X-36.089 Y-41.996 Z-4.041 I0 J-0.162
X-36.089 Y-41.671 Z-4.087 I0 J0.162
X-36.089 Y-41.996 Z-4.132 I0 J-0.162
X-36.089 Y-41.671 Z-4.178 I0 J0.162
X-36.089 Y-41.996 Z-4.224 I0 J-0.162
X-36.089 Y-41.671 Z-4.27 I0 J0.162
X-36.233 Y-41.91 Z-4.3 I0 J-0.162
X-35.946 Y-41.757 I0.143 J0.077
X-36.233 Y-41.91 I-0.143 J-0.077
G1 X-36.213 Y-41.935
X-36.185 Y-41.95
X-36.153 Y-41.953
X-36.123 Y-41.944
X-35.983 Y-41.869
Z5
X-51.022 Y-49.465
Z3
Z1.317
G19 G3 Y-49.147 Z1 J0.317 K0
G1 Y-48.989
G17 G3 X-51.339 Y-48.671 I-0.318 J0
X-51.339 Y-65.496 Z0.738 I0 J-8.413
X-51.339 Y-48.671 Z0.476 I0 J8.413
X-51.339 Y-65.496 Z0.214 I0 J-8.413
X-51.339 Y-48.671 Z-0.047 I0 J8.413
X-51.339 Y-65.496 Z-0.309 I0 J-8.413
X-51.339 Y-48.671 Z-0.571 I0 J8.413
X-51.339 Y-65.496 Z-0.833 I0 J-8.413
X-51.339 Y-48.671 Z-1.095 I0 J8.413
X-51.339 Y-65.496 Z-1.357 I0 J-8.413
X-51.339 Y-48.671 Z-1.619 I0 J8.413
X-51.339 Y-65.496 Z-1.88 I0 J-8.413
X-51.339 Y-48.671 Z-2.142 I0 J8.413
X-51.339 Y-65.496 Z-2.404 I0 J-8.413
X-51.339 Y-48.671 Z-2.666 I0 J8.413
X-51.339 Y-65.496 Z-2.928 I0 J-8.413
X-51.339 Y-48.671 Z-3.19 I0 J8.413
X-51.339 Y-65.496 Z-3.452 I0 J-8.413
X-51.339 Y-48.671 Z-3.713 I0 J8.413
X-51.339 Y-65.496 Z-3.975 I0 J-8.413
X-51.339 Y-48.671 Z-4.237 I0 J8.413
X-57.096 Y-50.949 Z-4.3 I0 J-8.413
X-45.583 Y-63.218 I5.757 J-6.135
X-57.096 Y-50.949 I-5.757 J6.135
X-57.11 Y-51.398 I0.217 J-0.232
G1 X-57.002 Y-51.514
X-56.953 Y-51.565 Z-4.292
X-56.907 Y-51.614 Z-4.269
X-56.866 Y-51.658 Z-4.231
X-56.832 Y-51.695 Z-4.18
X-56.806 Y-51.722 Z-4.12
X-56.79 Y-51.739 Z-4.053
X-56.784 Y-51.745 Z-3.983
Z5
X-36.171 Y-72.256
Z2.682
Z1
Y-72.415
X-36.164 Y-72.446
X-36.147 Y-72.472
X-36.121 Y-72.49
X-36.089 Y-72.496
G3 X-36.089 Y-72.171 Z0.954 I0 J0.163
X-36.089 Y-72.496 Z0.908 I0 J-0.163
X-36.089 Y-72.171 Z0.863 I0 J0.163
X-36.089 Y-72.496 Z0.817 I0 J-0.163
X-36.089 Y-72.171 Z0.771 I0 J0.163
X-36.089 Y-72.496 Z0.725 I0 J-0.163
X-36.089 Y-72.171 Z0.679 I0 J0.163
X-36.089 Y-72.496 Z0.633 I0 J-0.163
X-36.089 Y-72.171 Z0.588 I0 J0.163
X-36.089 Y-72.496 Z0.542 I0 J-0.163
X-36.089 Y-72.171 Z0.496 I0 J0.163
X-36.089 Y-72.496 Z0.45 I0 J-0.163
X-36.089 Y-72.171 Z0.404 I0 J0.163
X-36.089 Y-72.496 Z0.358 I0 J-0.163
X-36.089 Y-72.171 Z0.313 I0 J0.163
X-36.089 Y-72.496 Z0.267 I0 J-0.163
X-36.089 Y-72.171 Z0.221 I0 J0.163
X-36.089 Y-72.496 Z0.175 I0 J-0.163
X-36.089 Y-72.171 Z0.129 I0 J0.163
X-36.089 Y-72.496 Z0.083 I0 J-0.163
X-36.089 Y-72.171 Z0.038 I0 J0.163
X-36.089 Y-72.496 Z-0.008 I0 J-0.163
X-36.089 Y-72.171 Z-0.054 I0 J0.163
X-36.089 Y-72.496 Z-0.1 I0 J-0.163
X-36.089 Y-72.171 Z-0.146 I0 J0.163
X-36.089 Y-72.496 Z-0.191 I0 J-0.163
X-36.089 Y-72.171 Z-0.237 I0 J0.163
X-36.089 Y-72.496 Z-0.283 I0 J-0.163
X-36.089 Y-72.171 Z-0.329 I0 J0.163
X-36.089 Y-72.496 Z-0.375 I0 J-0.163
X-36.089 Y-72.171 Z-0.421 I0 J0.163
X-36.089 Y-72.496 Z-0.466 I0 J-0.163
X-36.089 Y-72.171 Z-0.512 I0 J0.163
X-36.089 Y-72.496 Z-0.558 I0 J-0.163
X-36.089 Y-72.171 Z-0.604 I0 J0.163
X-36.089 Y-72.496 Z-0.65 I0 J-0.163
X-36.089 Y-72.171 Z-0.696 I0 J0.163
X-36.089 Y-72.496 Z-0.741 I0 J-0.163
X-36.089 Y-72.171 Z-0.787 I0 J0.163
X-36.089 Y-72.496 Z-0.833 I0 J-0.163
X-36.089 Y-72.171 Z-0.879 I0 J0.163
X-36.089 Y-72.496 Z-0.925 I0 J-0.163
X-36.089 Y-72.171 Z-0.97 I0 J0.163
X-36.089 Y-72.496 Z-1.016 I0 J-0.163
X-36.089 Y-72.171 Z-1.062 I0 J0.163
X-36.089 Y-72.496 Z-1.108 I0 J-0.163
X-36.089 Y-72.171 Z-1.154 I0 J0.163
X-36.089 Y-72.496 Z-1.2 I0 J-0.163
X-36.089 Y-72.171 Z-1.245 I0 J0.163
X-36.089 Y-72.496 Z-1.291 I0 J-0.163
X-36.089 Y-72.171 Z-1.337 I0 J0.163
X-36.089 Y-72.496 Z-1.383 I0 J-0.163
X-36.089 Y-72.171 Z-1.429 I0 J0.163
X-36.089 Y-72.496 Z-1.475 I0 J-0.163
X-36.089 Y-72.171 Z-1.52 I0 J0.163
X-36.089 Y-72.496 Z-1.566 I0 J-0.163
X-36.089 Y-72.171 Z-1.612 I0 J0.163
X-36.089 Y-72.496 Z-1.658 I0 J-0.163
X-36.089 Y-72.171 Z-1.704 I0 J0.163
X-36.089 Y-72.496 Z-1.75 I0 J-0.163
X-36.089 Y-72.171 Z-1.795 I0 J0.163
X-36.089 Y-72.496 Z-1.841 I0 J-0.163
X-36.089 Y-72.171 Z-1.887 I0 J0.163
X-36.089 Y-72.496 Z-1.933 I0 J-0.163
X-36.089 Y-72.171 Z-1.979 I0 J0.163
X-36.089 Y-72.496 Z-2.024 I0 J-0.163
X-36.089 Y-72.171 Z-2.07 I0 J0.163
X-36.089 Y-72.496 Z-2.116 I0 J-0.163
X-36.089 Y-72.171 Z-2.162 I0 J0.163
X-36.089 Y-72.496 Z-2.208 I0 J-0.163
X-36.089 Y-72.171 Z-2.254 I0 J0.163
X-36.089 Y-72.496 Z-2.299 I0 J-0.163
X-36.089 Y-72.171 Z-2.345 I0 J0.163
X-36.089 Y-72.496 Z-2.391 I0 J-0.163
X-36.089 Y-72.171 Z-2.437 I0 J0.163
X-36.089 Y-72.496 Z-2.483 I0 J-0.163
X-36.089 Y-72.171 Z-2.529 I0 J0.163
X-36.089 Y-72.496 Z-2.574 I0 J-0.163
X-36.089 Y-72.171 Z-2.62 I0 J0.163
X-36.089 Y-72.496 Z-2.666 I0 J-0.163
X-36.089 Y-72.171 Z-2.712 I0 J0.163
X-36.089 Y-72.496 Z-2.758 I0 J-0.163
X-36.089 Y-72.171 Z-2.804 I0 J0.163
X-36.089 Y-72.496 Z-2.849 I0 J-0.163
X-36.089 Y-72.171 Z-2.895 I0 J0.163
X-36.089 Y-72.496 Z-2.941 I0 J-0.163
X-36.089 Y-72.171 Z-2.987 I0 J0.163
X-36.089 Y-72.496 Z-3.033 I0 J-0.163
X-36.089 Y-72.171 Z-3.078 I0 J0.163
X-36.089 Y-72.496 Z-3.124 I0 J-0.163
X-36.089 Y-72.171 Z-3.17 I0 J0.163
X-36.089 Y-72.496 Z-3.216 I0 J-0.163
X-36.089 Y-72.171 Z-3.262 I0 J0.163
X-36.089 Y-72.496 Z-3.308 I0 J-0.163
X-36.089 Y-72.171 Z-3.353 I0 J0.163
X-36.089 Y-72.496 Z-3.399 I0 J-0.163
X-36.089 Y-72.171 Z-3.445 I0 J0.163
X-36.089 Y-72.496 Z-3.491 I0 J-0.163
X-36.089 Y-72.171 Z-3.537 I0 J0.163
X-36.089 Y-72.496 Z-3.583 I0 J-0.163
X-36.089 Y-72.171 Z-3.628 I0 J0.163
X-36.089 Y-72.496 Z-3.674 I0 J-0.163
X-36.089 Y-72.171 Z-3.72 I0 J0.163
X-36.089 Y-72.496 Z-3.766 I0 J-0.163
X-36.089 Y-72.171 Z-3.812 I0 J0.163
X-36.089 Y-72.496 Z-3.857 I0 J-0.163
X-36.089 Y-72.171 Z-3.903 I0 J0.163
X-36.089 Y-72.496 Z-3.949 I0 J-0.163
X-36.089 Y-72.171 Z-3.995 I0 J0.163
X-36.089 Y-72.496 Z-4.041 I0 J-0.163
X-36.089 Y-72.171 Z-4.087 I0 J0.163
X-36.089 Y-72.496 Z-4.132 I0 J-0.163
X-36.089 Y-72.171 Z-4.178 I0 J0.163
X-36.089 Y-72.496 Z-4.224 I0 J-0.163
X-36.089 Y-72.171 Z-4.27 I0 J0.163
X-36.233 Y-72.41 Z-4.3 I0 J-0.163
X-35.946 Y-72.257 I0.143 J0.077
X-36.233 Y-72.41 I-0.143 J-0.077
G1 X-36.213 Y-72.435
X-36.185 Y-72.45
X-36.153 Y-72.453
X-36.123 Y-72.444
X-35.983 Y-72.369
Z5
X-21.602 Y-92.006
Z2.682
Z1
Y-92.165
X-21.595 Y-92.196
X-21.578 Y-92.222
X-21.551 Y-92.24
X-21.52 Y-92.246
G3 X-21.52 Y-91.921 Z0.954 I0 J0.163
X-21.52 Y-92.246 Z0.908 I0 J-0.163
X-21.52 Y-91.921 Z0.863 I0 J0.163
X-21.52 Y-92.246 Z0.817 I0 J-0.163
X-21.52 Y-91.921 Z0.771 I0 J0.163
X-21.52 Y-92.246 Z0.725 I0 J-0.163
X-21.52 Y-91.921 Z0.679 I0 J0.163
X-21.52 Y-92.246 Z0.633 I0 J-0.163
X-21.52 Y-91.921 Z0.588 I0 J0.163
X-21.52 Y-92.246 Z0.542 I0 J-0.163
X-21.52 Y-91.921 Z0.496 I0 J0.163
X-21.52 Y-92.246 Z0.45 I0 J-0.163
X-21.52 Y-91.921 Z0.404 I0 J0.163
X-21.52 Y-92.246 Z0.358 I0 J-0.163
X-21.52 Y-91.921 Z0.313 I0 J0.163
X-21.52 Y-92.246 Z0.267 I0 J-0.163
X-21.52 Y-91.921 Z0.221 I0 J0.163
X-21.52 Y-92.246 Z0.175 I0 J-0.163
X-21.52 Y-91.921 Z0.129 I0 J0.163
X-21.52 Y-92.246 Z0.083 I0 J-0.163
X-21.52 Y-91.921 Z0.038 I0 J0.163
X-21.52 Y-92.246 Z-0.008 I0 J-0.163
X-21.52 Y-91.921 Z-0.054 I0 J0.163
X-21.52 Y-92.246 Z-0.1 I0 J-0.163
X-21.52 Y-91.921 Z-0.146 I0 J0.163
X-21.52 Y-92.246 Z-0.191 I0 J-0.163
X-21.52 Y-91.921 Z-0.237 I0 J0.163
X-21.52 Y-92.246 Z-0.283 I0 J-0.163
X-21.52 Y-91.921 Z-0.329 I0 J0.163
X-21.52 Y-92.246 Z-0.375 I0 J-0.163
X-21.52 Y-91.921 Z-0.421 I0 J0.163
X-21.52 Y-92.246 Z-0.466 I0 J-0.163
X-21.52 Y-91.921 Z-0.512 I0 J0.163
X-21.52 Y-92.246 Z-0.558 I0 J-0.163
X-21.52 Y-91.921 Z-0.604 I0 J0.163
X-21.52 Y-92.246 Z-0.65 I0 J-0.163
X-21.52 Y-91.921 Z-0.696 I0 J0.163
X-21.52 Y-92.246 Z-0.741 I0 J-0.163
X-21.52 Y-91.921 Z-0.787 I0 J0.163
X-21.52 Y-92.246 Z-0.833 I0 J-0.163
X-21.52 Y-91.921 Z-0.879 I0 J0.163
X-21.52 Y-92.246 Z-0.925 I0 J-0.163
X-21.52 Y-91.921 Z-0.97 I0 J0.163
X-21.52 Y-92.246 Z-1.016 I0 J-0.163
X-21.52 Y-91.921 Z-1.062 I0 J0.163
X-21.52 Y-92.246 Z-1.108 I0 J-0.163
X-21.52 Y-91.921 Z-1.154 I0 J0.163
X-21.52 Y-92.246 Z-1.2 I0 J-0.163
X-21.52 Y-91.921 Z-1.245 I0 J0.163
X-21.52 Y-92.246 Z-1.291 I0 J-0.163
X-21.52 Y-91.921 Z-1.337 I0 J0.163
X-21.52 Y-92.246 Z-1.383 I0 J-0.163
X-21.52 Y-91.921 Z-1.429 I0 J0.163
X-21.52 Y-92.246 Z-1.475 I0 J-0.163
X-21.52 Y-91.921 Z-1.52 I0 J0.163
X-21.52 Y-92.246 Z-1.566 I0 J-0.163
X-21.52 Y-91.921 Z-1.612 I0 J0.163
X-21.52 Y-92.246 Z-1.658 I0 J-0.163
X-21.52 Y-91.921 Z-1.704 I0 J0.163
X-21.52 Y-92.246 Z-1.75 I0 J-0.163
X-21.52 Y-91.921 Z-1.795 I0 J0.163
X-21.52 Y-92.246 Z-1.841 I0 J-0.163
X-21.52 Y-91.921 Z-1.887 I0 J0.163
X-21.52 Y-92.246 Z-1.933 I0 J-0.163
X-21.52 Y-91.921 Z-1.979 I0 J0.163
X-21.52 Y-92.246 Z-2.024 I0 J-0.163
X-21.52 Y-91.921 Z-2.07 I0 J0.163
X-21.52 Y-92.246 Z-2.116 I0 J-0.163
X-21.52 Y-91.921 Z-2.162 I0 J0.163
X-21.52 Y-92.246 Z-2.208 I0 J-0.163
X-21.52 Y-91.921 Z-2.254 I0 J0.163
X-21.52 Y-92.246 Z-2.299 I0 J-0.163
X-21.52 Y-91.921 Z-2.345 I0 J0.163
X-21.52 Y-92.246 Z-2.391 I0 J-0.163
X-21.52 Y-91.921 Z-2.437 I0 J0.163
X-21.52 Y-92.246 Z-2.483 I0 J-0.163
X-21.52 Y-91.921 Z-2.529 I0 J0.163
X-21.52 Y-92.246 Z-2.574 I0 J-0.163
X-21.52 Y-91.921 Z-2.62 I0 J0.163
X-21.52 Y-92.246 Z-2.666 I0 J-0.163
X-21.52 Y-91.921 Z-2.712 I0 J0.163
X-21.52 Y-92.246 Z-2.758 I0 J-0.163
X-21.52 Y-91.921 Z-2.804 I0 J0.163
X-21.52 Y-92.246 Z-2.849 I0 J-0.163
X-21.52 Y-91.921 Z-2.895 I0 J0.163
X-21.52 Y-92.246 Z-2.941 I0 J-0.163
X-21.52 Y-91.921 Z-2.987 I0 J0.163
X-21.52 Y-92.246 Z-3.033 I0 J-0.163
X-21.52 Y-91.921 Z-3.078 I0 J0.163
X-21.52 Y-92.246 Z-3.124 I0 J-0.163
X-21.52 Y-91.921 Z-3.17 I0 J0.163
X-21.52 Y-92.246 Z-3.216 I0 J-0.163
X-21.52 Y-91.921 Z-3.262 I0 J0.163
X-21.52 Y-92.246 Z-3.308 I0 J-0.163
X-21.52 Y-91.921 Z-3.353 I0 J0.163
X-21.52 Y-92.246 Z-3.399 I0 J-0.163
X-21.52 Y-91.921 Z-3.445 I0 J0.163
X-21.52 Y-92.246 Z-3.491 I0 J-0.163
X-21.52 Y-91.921 Z-3.537 I0 J0.163
X-21.52 Y-92.246 Z-3.583 I0 J-0.163
X-21.52 Y-91.921 Z-3.628 I0 J0.163
X-21.52 Y-92.246 Z-3.674 I0 J-0.163
X-21.52 Y-91.921 Z-3.72 I0 J0.163
X-21.52 Y-92.246 Z-3.766 I0 J-0.163
X-21.52 Y-91.921 Z-3.812 I0 J0.163
X-21.52 Y-92.246 Z-3.857 I0 J-0.163
X-21.52 Y-91.921 Z-3.903 I0 J0.163
X-21.52 Y-92.246 Z-3.949 I0 J-0.163
X-21.52 Y-91.921 Z-3.995 I0 J0.163
X-21.52 Y-92.246 Z-4.041 I0 J-0.163
X-21.52 Y-91.921 Z-4.087 I0 J0.163
X-21.52 Y-92.246 Z-4.132 I0 J-0.163
X-21.52 Y-91.921 Z-4.178 I0 J0.163
X-21.52 Y-92.246 Z-4.224 I0 J-0.163
X-21.52 Y-91.921 Z-4.27 I0 J0.163
X-21.664 Y-92.16 Z-4.3 I0 J-0.163
X-21.377 Y-92.007 I0.143 J0.077
X-21.664 Y-92.16 I-0.143 J-0.077
G1 X-21.643 Y-92.185
X-21.616 Y-92.2
X-21.584 Y-92.203
X-21.554 Y-92.194
X-21.414 Y-92.119
Z15
(When using Fusion 360 for Personal Use, the feedrate of)
(rapid moves is reduced to match the feedrate of cutting)
(moves, which can increase machining time. Unrestricted rapid)
(moves are available with a Fusion 360 Subscription.)

(2D-Kontur5 2)
S6000 M3
G0 X-126.466 Y-67.819
G1 Z15 F1000
Z5
Z2.5 F333.3
S5000
G3 X-130.339 Y-45.671 Z2.4 I-3.873 J10.735
G1 X-142.339 Z2.362
G3 X-142.339 Y-68.496 Z2.25 I0 J-11.412
G1 X-130.339 Z2.212
G3 X-130.339 Y-45.671 Z2.1 I0 J11.413
G1 X-142.339 Z2.062
G3 X-142.339 Y-68.496 Z1.95 I0 J-11.412
G1 X-130.339 Z1.912
G3 X-130.339 Y-45.671 Z1.8 I0 J11.413
G1 X-142.339 Z1.762
G3 X-142.339 Y-68.496 Z1.65 I0 J-11.412
G1 X-130.339 Z1.612
G3 X-130.339 Y-45.671 Z1.5 I0 J11.413
G1 X-142.339 Z1.462
G3 X-142.339 Y-68.496 Z1.35 I0 J-11.412
G1 X-130.339 Z1.312
G3 X-130.339 Y-45.671 Z1.2 I0 J11.413
G1 X-142.339 Z1.162
G3 X-142.339 Y-68.496 Z1.05 I0 J-11.412
G1 X-130.339 Z1.012
G3 X-130.339 Y-45.671 Z0.9 I0 J11.413
G1 X-142.339 Z0.862
G3 X-142.339 Y-68.496 Z0.75 I0 J-11.412
G1 X-130.339 Z0.712
G3 X-130.339 Y-45.671 Z0.6 I0 J11.413
G1 X-142.339 Z0.562
G3 X-142.339 Y-68.496 Z0.45 I0 J-11.412
G1 X-130.339 Z0.412
G3 X-130.339 Y-45.671 Z0.3 I0 J11.413
G1 X-142.339 Z0.262
G3 X-142.339 Y-68.496 Z0.15 I0 J-11.412
G1 X-130.339 Z0.112
G3 X-130.339 Y-45.671 Z0 I0 J11.413
G1 X-142.339 Z-0.038
G3 X-142.339 Y-68.496 Z-0.15 I0 J-11.412
G1 X-130.339 Z-0.188
G3 X-130.339 Y-45.671 Z-0.3 I0 J11.413
S6000
G1 X-142.339 F1000
G3 X-142.339 Y-68.496 I0 J-11.412
G1 X-130.339
G3 X-130.339 Y-45.671 I0 J11.413
S5000
G1 X-142.339 Z-0.338 F333.3
G3 X-142.339 Y-68.496 Z-0.45 I0 J-11.412
G1 X-130.339 Z-0.488
G3 X-130.339 Y-45.671 Z-0.6 I0 J11.413
S6000
G1 X-142.339 F1000
G3 X-142.339 Y-68.496 I0 J-11.412
G1 X-130.339
G3 X-130.339 Y-45.671 I0 J11.413
S5000
G1 X-142.339 Z-0.638 F333.3
G3 X-142.339 Y-68.496 Z-0.75 I0 J-11.412
G1 X-130.339 Z-0.788
G3 X-130.339 Y-45.671 Z-0.9 I0 J11.413
S6000
G1 X-142.339 F1000
G3 X-142.339 Y-68.496 I0 J-11.412
G1 X-130.339
G3 X-130.339 Y-45.671 I0 J11.413
S5000
G1 X-142.339 Z-0.938 F333.3
G3 X-142.339 Y-68.496 Z-1.05 I0 J-11.412
G1 X-130.339 Z-1.088
G3 X-130.339 Y-45.671 Z-1.2 I0 J11.413
S6000
G1 X-142.339 F1000
G3 X-142.339 Y-68.496 I0 J-11.412
G1 X-130.339
G3 X-130.339 Y-45.671 I0 J11.413
S5000
G1 X-142.339 Z-1.238 F333.3
G3 X-142.339 Y-68.496 Z-1.35 I0 J-11.412
G1 X-130.339 Z-1.388
G3 X-130.339 Y-45.671 Z-1.5 I0 J11.413
S6000
G1 X-142.339 F1000
G3 X-142.339 Y-68.496 I0 J-11.412
G1 X-130.339
G3 X-130.339 Y-45.671 I0 J11.413
S5000
G1 X-142.339 Z-1.538 F333.3
G3 X-142.339 Y-68.496 Z-1.65 I0 J-11.412
G1 X-130.339 Z-1.688
G3 X-130.339 Y-45.671 Z-1.8 I0 J11.413
S6000
G1 X-142.339 F1000
G3 X-142.339 Y-68.496 I0 J-11.412
G1 X-130.339
G3 X-130.339 Y-45.671 I0 J11.413
S5000
G1 X-142.339 Z-1.838 F333.3
G3 X-142.339 Y-68.496 Z-1.95 I0 J-11.412
G1 X-130.339 Z-1.988
G3 X-130.339 Y-45.671 Z-2.1 I0 J11.413
S6000
G1 X-142.339 F1000
G3 X-142.339 Y-68.496 I0 J-11.412
G1 X-130.339
G3 X-130.339 Y-45.671 I0 J11.413
S5000
G1 X-142.339 Z-2.138 F333.3
G3 X-142.339 Y-68.496 Z-2.25 I0 J-11.412
G1 X-130.339 Z-2.288
G3 X-130.339 Y-45.671 Z-2.4 I0 J11.413
S6000
G1 X-142.339 F1000
G3 X-142.339 Y-68.496 I0 J-11.412
G1 X-130.339
G3 X-130.339 Y-45.671 I0 J11.413
S5000
G1 X-142.339 Z-2.438 F333.3
G3 X-142.339 Y-68.496 Z-2.55 I0 J-11.412
G1 X-130.339 Z-2.588
G3 X-130.339 Y-45.671 Z-2.7 I0 J11.413
S6000
G1 X-142.339 F1000
G3 X-142.339 Y-68.496 I0 J-11.412
G1 X-130.339
G3 X-130.339 Y-45.671 I0 J11.413
S5000
G1 X-142.339 Z-2.738 F333.3
G3 X-142.339 Y-68.496 Z-2.85 I0 J-11.412
G1 X-130.339 Z-2.888
G3 X-130.339 Y-45.671 Z-3 I0 J11.413
S6000
G1 X-142.339 F1000
G3 X-142.339 Y-68.496 I0 J-11.412
G1 X-130.339
G3 X-130.339 Y-45.671 I0 J11.413
S5000
G1 X-142.339 Z-3.038 F333.3
G3 X-142.339 Y-68.496 Z-3.15 I0 J-11.412
G1 X-130.339 Z-3.188
G3 X-130.339 Y-45.671 Z-3.3 I0 J11.413
S6000
G1 X-142.339 F1000
G3 X-142.339 Y-68.496 I0 J-11.412
G1 X-130.339
G3 X-130.339 Y-45.671 I0 J11.413
S5000
G1 X-142.339 Z-3.338 F333.3
G3 X-142.339 Y-68.496 Z-3.45 I0 J-11.412
G1 X-130.339 Z-3.488
G3 X-130.339 Y-45.671 Z-3.6 I0 J11.413
S6000
G1 X-142.339 F1000
G3 X-142.339 Y-68.496 I0 J-11.412
G1 X-130.339
G3 X-130.339 Y-45.671 I0 J11.413
S5000
G1 X-142.339 Z-3.638 F333.3
G3 X-142.339 Y-68.496 Z-3.75 I0 J-11.412
G1 X-130.339 Z-3.788
G3 X-130.339 Y-45.671 Z-3.9 I0 J11.413
S6000
G1 X-142.339 F1000
G3 X-142.339 Y-68.496 I0 J-11.412
G1 X-130.339
G3 X-130.339 Y-45.671 I0 J11.413
S5000
G1 X-142.339 Z-3.938 F333.3
G3 X-142.339 Y-68.496 Z-4.05 I0 J-11.412
G1 X-130.339 Z-4.088
G3 X-130.339 Y-45.671 Z-4.2 I0 J11.413
S6000
G1 X-142.339 F1000
G3 X-142.339 Y-68.496 I0 J-11.412
G1 X-130.339
G3 X-130.339 Y-45.671 I0 J11.413
S5000
G1 X-142.339 Z-4.238 F333.3
G3 X-153.581 Y-59.049 Z-4.3 I0 J-11.412
S6000
X-142.339 Y-68.496 I11.242 J1.966 F1000
G1 X-130.339
G3 X-130.339 Y-45.671 I0 J11.413
G1 X-142.339
G3 X-153.581 Y-59.049 I0 J-11.412
X-153.213 Y-59.307 I0.313 J0.055
G1 X-152.901 Y-59.253
X-152.831 Y-59.241 Z-4.292
X-152.765 Y-59.229 Z-4.269
X-152.706 Y-59.219 Z-4.231
X-152.656 Y-59.21 Z-4.18
X-152.619 Y-59.204 Z-4.12
X-152.596 Y-59.199 Z-4.053
X-152.588 Y-59.198 Z-3.983
Z5
X-166.654 Y-66.979
Z2.5 F333.3
S5000
G3 X-172.339 Y-45.671 Z2.4 I-5.685 J9.896
G1 X-181.339 Z2.37
G3 X-181.339 Y-68.496 Z2.25 I0 J-11.412
G1 X-172.339 Z2.22
G3 X-172.339 Y-45.671 Z2.1 I0 J11.413
G1 X-181.339 Z2.07
G3 X-181.339 Y-68.496 Z1.95 I0 J-11.412
G1 X-172.339 Z1.92
G3 X-172.339 Y-45.671 Z1.8 I0 J11.413
G1 X-181.339 Z1.77
G3 X-181.339 Y-68.496 Z1.65 I0 J-11.412
G1 X-172.339 Z1.62
G3 X-172.339 Y-45.671 Z1.5 I0 J11.413
G1 X-181.339 Z1.47
G3 X-181.339 Y-68.496 Z1.35 I0 J-11.412
G1 X-172.339 Z1.32
G3 X-172.339 Y-45.671 Z1.2 I0 J11.413
G1 X-181.339 Z1.17
G3 X-181.339 Y-68.496 Z1.05 I0 J-11.412
G1 X-172.339 Z1.02
G3 X-172.339 Y-45.671 Z0.9 I0 J11.413
G1 X-181.339 Z0.87
G3 X-181.339 Y-68.496 Z0.75 I0 J-11.412
G1 X-172.339 Z0.72
G3 X-172.339 Y-45.671 Z0.6 I0 J11.413
G1 X-181.339 Z0.57
G3 X-181.339 Y-68.496 Z0.45 I0 J-11.412
G1 X-172.339 Z0.42
G3 X-172.339 Y-45.671 Z0.3 I0 J11.413
G1 X-181.339 Z0.27
G3 X-181.339 Y-68.496 Z0.15 I0 J-11.412
G1 X-172.339 Z0.12
G3 X-172.339 Y-45.671 Z0 I0 J11.413
G1 X-181.339 Z-0.03
G3 X-181.339 Y-68.496 Z-0.15 I0 J-11.412
G1 X-172.339 Z-0.18
G3 X-172.339 Y-45.671 Z-0.3 I0 J11.413
S6000
G1 X-181.339 F1000
G3 X-181.339 Y-68.496 I0 J-11.412
G1 X-172.339
G3 X-172.339 Y-45.671 I0 J11.413
S5000
G1 X-181.339 Z-0.33 F333.3
G3 X-181.339 Y-68.496 Z-0.45 I0 J-11.412
G1 X-172.339 Z-0.48
G3 X-172.339 Y-45.671 Z-0.6 I0 J11.413
S6000
G1 X-181.339 F1000
G3 X-181.339 Y-68.496 I0 J-11.412
G1 X-172.339
G3 X-172.339 Y-45.671 I0 J11.413
S5000
G1 X-181.339 Z-0.63 F333.3
G3 X-181.339 Y-68.496 Z-0.75 I0 J-11.412
G1 X-172.339 Z-0.78
G3 X-172.339 Y-45.671 Z-0.9 I0 J11.413
S6000
G1 X-181.339 F1000
G3 X-181.339 Y-68.496 I0 J-11.412
G1 X-172.339
G3 X-172.339 Y-45.671 I0 J11.413
S5000
G1 X-181.339 Z-0.93 F333.3
G3 X-181.339 Y-68.496 Z-1.05 I0 J-11.412
G1 X-172.339 Z-1.08
G3 X-172.339 Y-45.671 Z-1.2 I0 J11.413
S6000
G1 X-181.339 F1000
G3 X-181.339 Y-68.496 I0 J-11.412
G1 X-172.339
G3 X-172.339 Y-45.671 I0 J11.413
S5000
G1 X-181.339 Z-1.23 F333.3
G3 X-181.339 Y-68.496 Z-1.35 I0 J-11.412
G1 X-172.339 Z-1.38
G3 X-172.339 Y-45.671 Z-1.5 I0 J11.413
S6000
G1 X-181.339 F1000
G3 X-181.339 Y-68.496 I0 J-11.412
G1 X-172.339
G3 X-172.339 Y-45.671 I0 J11.413
S5000
G1 X-181.339 Z-1.53 F333.3
G3 X-181.339 Y-68.496 Z-1.65 I0 J-11.412
G1 X-172.339 Z-1.68
G3 X-172.339 Y-45.671 Z-1.8 I0 J11.413
S6000
G1 X-181.339 F1000
G3 X-181.339 Y-68.496 I0 J-11.412
G1 X-172.339
G3 X-172.339 Y-45.671 I0 J11.413
S5000
G1 X-181.339 Z-1.83 F333.3
G3 X-181.339 Y-68.496 Z-1.95 I0 J-11.412
G1 X-172.339 Z-1.98
G3 X-172.339 Y-45.671 Z-2.1 I0 J11.413
S6000
G1 X-181.339 F1000
G3 X-181.339 Y-68.496 I0 J-11.412
G1 X-172.339
G3 X-172.339 Y-45.671 I0 J11.413
S5000
G1 X-181.339 Z-2.13 F333.3
G3 X-181.339 Y-68.496 Z-2.25 I0 J-11.412
G1 X-172.339 Z-2.28
G3 X-172.339 Y-45.671 Z-2.4 I0 J11.413
S6000
G1 X-181.339 F1000
G3 X-181.339 Y-68.496 I0 J-11.412
G1 X-172.339
G3 X-172.339 Y-45.671 I0 J11.413
S5000
G1 X-181.339 Z-2.43 F333.3
G3 X-181.339 Y-68.496 Z-2.55 I0 J-11.412
G1 X-172.339 Z-2.58
G3 X-172.339 Y-45.671 Z-2.7 I0 J11.413
S6000
G1 X-181.339 F1000
G3 X-181.339 Y-68.496 I0 J-11.412
G1 X-172.339
G3 X-172.339 Y-45.671 I0 J11.413
S5000
G1 X-181.339 Z-2.73 F333.3
G3 X-181.339 Y-68.496 Z-2.85 I0 J-11.412
G1 X-172.339 Z-2.88
G3 X-172.339 Y-45.671 Z-3 I0 J11.413
S6000
G1 X-181.339 F1000
G3 X-181.339 Y-68.496 I0 J-11.412
G1 X-172.339
G3 X-172.339 Y-45.671 I0 J11.413
S5000
G1 X-181.339 Z-3.03 F333.3
G3 X-181.339 Y-68.496 Z-3.15 I0 J-11.412
G1 X-172.339 Z-3.18
G3 X-172.339 Y-45.671 Z-3.3 I0 J11.413
S6000
G1 X-181.339 F1000
G3 X-181.339 Y-68.496 I0 J-11.412
G1 X-172.339
G3 X-172.339 Y-45.671 I0 J11.413
S5000
G1 X-181.339 Z-3.33 F333.3
G3 X-181.339 Y-68.496 Z-3.45 I0 J-11.412
G1 X-172.339 Z-3.48
G3 X-172.339 Y-45.671 Z-3.6 I0 J11.413
S6000
G1 X-181.339 F1000
G3 X-181.339 Y-68.496 I0 J-11.412
G1 X-172.339
G3 X-172.339 Y-45.671 I0 J11.413
S5000
G1 X-181.339 Z-3.63 F333.3
G3 X-181.339 Y-68.496 Z-3.75 I0 J-11.412
G1 X-172.339 Z-3.78
G3 X-172.339 Y-45.671 Z-3.9 I0 J11.413
S6000
G1 X-181.339 F1000
G3 X-181.339 Y-68.496 I0 J-11.412
G1 X-172.339
G3 X-172.339 Y-45.671 I0 J11.413
S5000
G1 X-181.339 Z-3.93 F333.3
G3 X-181.339 Y-68.496 Z-4.05 I0 J-11.412
G1 X-172.339 Z-4.08
G3 X-172.339 Y-45.671 Z-4.2 I0 J11.413
S6000
G1 X-181.339 F1000
G3 X-181.339 Y-68.496 I0 J-11.412
G1 X-172.339
G3 X-172.339 Y-45.671 I0 J11.413
S5000
G1 X-181.339 Z-4.23 F333.3
G3 X-192.366 Y-60.026 Z-4.3 I0 J-11.412
S6000
X-181.339 Y-68.496 I11.027 J2.942 F1000
G1 X-172.339
G3 X-172.339 Y-45.671 I0 J11.413
G1 X-181.339
G3 X-192.366 Y-60.026 I0 J-11.412
X-191.977 Y-60.251 I0.307 J0.082
G1 X-191.67 Y-60.169
X-191.602 Y-60.151 Z-4.292
X-191.537 Y-60.133 Z-4.269
X-191.479 Y-60.118 Z-4.231
X-191.431 Y-60.105 Z-4.18
X-191.394 Y-60.095 Z-4.12
X-191.371 Y-60.089 Z-4.053
X-191.364 Y-60.087 Z-3.983
Z5
X-204.539 Y-66.249
Z2.5 F333.3
S5000
G3 X-211.339 Y-45.671 Z2.4 I-6.8 J9.166
G1 X-218.339 Z2.375
G3 X-218.339 Y-68.496 Z2.25 I0 J-11.412
G1 X-211.339 Z2.225
G3 X-211.339 Y-45.671 Z2.1 I0 J11.413
G1 X-218.339 Z2.075
G3 X-218.339 Y-68.496 Z1.95 I0 J-11.412
G1 X-211.339 Z1.925
G3 X-211.339 Y-45.671 Z1.8 I0 J11.413
G1 X-218.339 Z1.775
G3 X-218.339 Y-68.496 Z1.65 I0 J-11.412
G1 X-211.339 Z1.625
G3 X-211.339 Y-45.671 Z1.5 I0 J11.413
G1 X-218.339 Z1.475
G3 X-218.339 Y-68.496 Z1.35 I0 J-11.412
G1 X-211.339 Z1.325
G3 X-211.339 Y-45.671 Z1.2 I0 J11.413
G1 X-218.339 Z1.175
G3 X-218.339 Y-68.496 Z1.05 I0 J-11.412
G1 X-211.339 Z1.025
G3 X-211.339 Y-45.671 Z0.9 I0 J11.413
G1 X-218.339 Z0.875
G3 X-218.339 Y-68.496 Z0.75 I0 J-11.412
G1 X-211.339 Z0.725
G3 X-211.339 Y-45.671 Z0.6 I0 J11.413
G1 X-218.339 Z0.575
G3 X-218.339 Y-68.496 Z0.45 I0 J-11.412
G1 X-211.339 Z0.425
G3 X-211.339 Y-45.671 Z0.3 I0 J11.413
G1 X-218.339 Z0.275
G3 X-218.339 Y-68.496 Z0.15 I0 J-11.412
G1 X-211.339 Z0.125
G3 X-211.339 Y-45.671 Z0 I0 J11.413
G1 X-218.339 Z-0.025
G3 X-218.339 Y-68.496 Z-0.15 I0 J-11.412
G1 X-211.339 Z-0.175
G3 X-211.339 Y-45.671 Z-0.3 I0 J11.413
S6000
G1 X-218.339 F1000
G3 X-218.339 Y-68.496 I0 J-11.412
G1 X-211.339
G3 X-211.339 Y-45.671 I0 J11.413
S5000
G1 X-218.339 Z-0.325 F333.3
G3 X-218.339 Y-68.496 Z-0.45 I0 J-11.412
G1 X-211.339 Z-0.475
G3 X-211.339 Y-45.671 Z-0.6 I0 J11.413
S6000
G1 X-218.339 F1000
G3 X-218.339 Y-68.496 I0 J-11.412
G1 X-211.339
G3 X-211.339 Y-45.671 I0 J11.413
S5000
G1 X-218.339 Z-0.625 F333.3
G3 X-218.339 Y-68.496 Z-0.75 I0 J-11.412
G1 X-211.339 Z-0.775
G3 X-211.339 Y-45.671 Z-0.9 I0 J11.413
S6000
G1 X-218.339 F1000
G3 X-218.339 Y-68.496 I0 J-11.412
G1 X-211.339
G3 X-211.339 Y-45.671 I0 J11.413
S5000
G1 X-218.339 Z-0.925 F333.3
G3 X-218.339 Y-68.496 Z-1.05 I0 J-11.412
G1 X-211.339 Z-1.075
G3 X-211.339 Y-45.671 Z-1.2 I0 J11.413
S6000
G1 X-218.339 F1000
G3 X-218.339 Y-68.496 I0 J-11.412
G1 X-211.339
G3 X-211.339 Y-45.671 I0 J11.413
S5000
G1 X-218.339 Z-1.225 F333.3
G3 X-218.339 Y-68.496 Z-1.35 I0 J-11.412
G1 X-211.339 Z-1.375
G3 X-211.339 Y-45.671 Z-1.5 I0 J11.413
S6000
G1 X-218.339 F1000
G3 X-218.339 Y-68.496 I0 J-11.412
G1 X-211.339
G3 X-211.339 Y-45.671 I0 J11.413
S5000
G1 X-218.339 Z-1.525 F333.3
G3 X-218.339 Y-68.496 Z-1.65 I0 J-11.412
G1 X-211.339 Z-1.675
G3 X-211.339 Y-45.671 Z-1.8 I0 J11.413
S6000
G1 X-218.339 F1000
G3 X-218.339 Y-68.496 I0 J-11.412
G1 X-211.339
G3 X-211.339 Y-45.671 I0 J11.413
S5000
G1 X-218.339 Z-1.825 F333.3
G3 X-218.339 Y-68.496 Z-1.95 I0 J-11.412
G1 X-211.339 Z-1.975
G3 X-211.339 Y-45.671 Z-2.1 I0 J11.413
S6000
G1 X-218.339 F1000
G3 X-218.339 Y-68.496 I0 J-11.412
G1 X-211.339
G3 X-211.339 Y-45.671 I0 J11.413
S5000
G1 X-218.339 Z-2.125 F333.3
G3 X-218.339 Y-68.496 Z-2.25 I0 J-11.412
G1 X-211.339 Z-2.275
G3 X-211.339 Y-45.671 Z-2.4 I0 J11.413
S6000
G1 X-218.339 F1000
G3 X-218.339 Y-68.496 I0 J-11.412
G1 X-211.339
G3 X-211.339 Y-45.671 I0 J11.413
S5000
G1 X-218.339 Z-2.425 F333.3
G3 X-218.339 Y-68.496 Z-2.55 I0 J-11.412
G1 X-211.339 Z-2.575
G3 X-211.339 Y-45.671 Z-2.7 I0 J11.413
S6000
G1 X-218.339 F1000
G3 X-218.339 Y-68.496 I0 J-11.412
G1 X-211.339
G3 X-211.339 Y-45.671 I0 J11.413
S5000
G1 X-218.339 Z-2.725 F333.3
G3 X-218.339 Y-68.496 Z-2.85 I0 J-11.412
G1 X-211.339 Z-2.875
G3 X-211.339 Y-45.671 Z-3 I0 J11.413
S6000
G1 X-218.339 F1000
G3 X-218.339 Y-68.496 I0 J-11.412
G1 X-211.339
G3 X-211.339 Y-45.671 I0 J11.413
S5000
G1 X-218.339 Z-3.025 F333.3
G3 X-218.339 Y-68.496 Z-3.15 I0 J-11.412
G1 X-211.339 Z-3.175
G3 X-211.339 Y-45.671 Z-3.3 I0 J11.413
S6000
G1 X-218.339 F1000
G3 X-218.339 Y-68.496 I0 J-11.412
G1 X-211.339
G3 X-211.339 Y-45.671 I0 J11.413
S5000
G1 X-218.339 Z-3.325 F333.3
G3 X-218.339 Y-68.496 Z-3.45 I0 J-11.412
G1 X-211.339 Z-3.475
G3 X-211.339 Y-45.671 Z-3.6 I0 J11.413
S6000
G1 X-218.339 F1000
G3 X-218.339 Y-68.496 I0 J-11.412
G1 X-211.339
G3 X-211.339 Y-45.671 I0 J11.413
S5000
G1 X-218.339 Z-3.625 F333.3
G3 X-218.339 Y-68.496 Z-3.75 I0 J-11.412
G1 X-211.339 Z-3.775
G3 X-211.339 Y-45.671 Z-3.9 I0 J11.413
S6000
G1 X-218.339 F1000
G3 X-218.339 Y-68.496 I0 J-11.412
G1 X-211.339
G3 X-211.339 Y-45.671 I0 J11.413
S5000
G1 X-218.339 Z-3.925 F333.3
G3 X-218.339 Y-68.496 Z-4.05 I0 J-11.412
G1 X-211.339 Z-4.075
G3 X-211.339 Y-45.671 Z-4.2 I0 J11.413
S6000
G1 X-218.339 F1000
G3 X-218.339 Y-68.496 I0 J-11.412
G1 X-211.339
G3 X-211.339 Y-45.671 I0 J11.413
S5000
G1 X-218.339 Z-4.225 F333.3
G3 X-229.175 Y-60.664 Z-4.3 I0 J-11.412
S6000
X-218.339 Y-68.496 I10.836 J3.581 F1000
G1 X-211.339
G3 X-211.339 Y-45.671 I0 J11.413
G1 X-218.339
G3 X-229.175 Y-60.664 I0 J-11.412
X-228.774 Y-60.866 I0.301 J0.1
G1 X-228.473 Y-60.767
X-228.406 Y-60.744 Z-4.292
X-228.342 Y-60.723 Z-4.269
X-228.285 Y-60.705 Z-4.231
X-228.237 Y-60.689 Z-4.18
X-228.201 Y-60.677 Z-4.12
X-228.179 Y-60.67 Z-4.053
X-228.171 Y-60.667 Z-3.983
Z5
X-74.02 Y-51.645
Z2.5 F333.3
S5000
G3 X-76.339 Y-51.171 Z2.493 I-2.319 J-5.439
G1 X-106.339 Z2.4
G3 X-106.339 Y-62.996 Z2.343 I0 J-5.912
G1 X-76.339 Z2.25
G3 X-76.339 Y-51.171 Z2.193 I0 J5.913
G1 X-106.339 Z2.1
G3 X-106.339 Y-62.996 Z2.043 I0 J-5.912
G1 X-76.339 Z1.95
G3 X-76.339 Y-51.171 Z1.893 I0 J5.913
G1 X-106.339 Z1.8
G3 X-106.339 Y-62.996 Z1.743 I0 J-5.912
G1 X-76.339 Z1.65
G3 X-76.339 Y-51.171 Z1.593 I0 J5.913
G1 X-106.339 Z1.5
G3 X-106.339 Y-62.996 Z1.443 I0 J-5.912
G1 X-76.339 Z1.35
G3 X-76.339 Y-51.171 Z1.293 I0 J5.913
G1 X-106.339 Z1.2
G3 X-106.339 Y-62.996 Z1.143 I0 J-5.912
G1 X-76.339 Z1.05
G3 X-76.339 Y-51.171 Z0.993 I0 J5.913
G1 X-106.339 Z0.9
G3 X-106.339 Y-62.996 Z0.843 I0 J-5.912
G1 X-76.339 Z0.75
G3 X-76.339 Y-51.171 Z0.693 I0 J5.913
G1 X-106.339 Z0.6
G3 X-106.339 Y-62.996 Z0.543 I0 J-5.912
G1 X-76.339 Z0.45
G3 X-76.339 Y-51.171 Z0.393 I0 J5.913
G1 X-106.339 Z0.3
G3 X-106.339 Y-62.996 Z0.243 I0 J-5.912
G1 X-76.339 Z0.15
G3 X-76.339 Y-51.171 Z0.093 I0 J5.913
G1 X-106.339 Z0
G3 X-106.339 Y-62.996 Z-0.057 I0 J-5.912
G1 X-76.339 Z-0.15
G3 X-76.339 Y-51.171 Z-0.207 I0 J5.913
G1 X-106.339 Z-0.3
S6000
G3 X-106.339 Y-62.996 I0 J-5.912 F1000
G1 X-76.339
G3 X-76.339 Y-51.171 I0 J5.913
G1 X-106.339
S5000
G3 X-106.339 Y-62.996 Z-0.357 I0 J-5.912 F333.3
G1 X-76.339 Z-0.45
G3 X-76.339 Y-51.171 Z-0.507 I0 J5.913
G1 X-106.339 Z-0.6
S6000
G3 X-106.339 Y-62.996 I0 J-5.912 F1000
G1 X-76.339
G3 X-76.339 Y-51.171 I0 J5.913
G1 X-106.339
S5000
G3 X-106.339 Y-62.996 Z-0.657 I0 J-5.912 F333.3
G1 X-76.339 Z-0.75
G3 X-76.339 Y-51.171 Z-0.807 I0 J5.913
G1 X-106.339 Z-0.9
S6000
G3 X-106.339 Y-62.996 I0 J-5.912 F1000
G1 X-76.339
G3 X-76.339 Y-51.171 I0 J5.913
G1 X-106.339
S5000
G3 X-106.339 Y-62.996 Z-0.957 I0 J-5.912 F333.3
G1 X-76.339 Z-1.05
G3 X-76.339 Y-51.171 Z-1.107 I0 J5.913
G1 X-106.339 Z-1.2
S6000
G3 X-106.339 Y-62.996 I0 J-5.912 F1000
G1 X-76.339
G3 X-76.339 Y-51.171 I0 J5.913
G1 X-106.339
S5000
G3 X-106.339 Y-62.996 Z-1.257 I0 J-5.912 F333.3
G1 X-76.339 Z-1.35
G3 X-76.339 Y-51.171 Z-1.407 I0 J5.913
G1 X-106.339 Z-1.5
S6000
G3 X-106.339 Y-62.996 I0 J-5.912 F1000
G1 X-76.339
G3 X-76.339 Y-51.171 I0 J5.913
G1 X-106.339
S5000
G3 X-106.339 Y-62.996 Z-1.557 I0 J-5.912 F333.3
G1 X-76.339 Z-1.65
G3 X-76.339 Y-51.171 Z-1.707 I0 J5.913
G1 X-106.339 Z-1.8
S6000
G3 X-106.339 Y-62.996 I0 J-5.912 F1000
G1 X-76.339
G3 X-76.339 Y-51.171 I0 J5.913
G1 X-106.339
S5000
G3 X-106.339 Y-62.996 Z-1.857 I0 J-5.912 F333.3
G1 X-76.339 Z-1.95
G3 X-76.339 Y-51.171 Z-2.007 I0 J5.913
G1 X-106.339 Z-2.1
S6000
G3 X-106.339 Y-62.996 I0 J-5.912 F1000
G1 X-76.339
G3 X-76.339 Y-51.171 I0 J5.913
G1 X-106.339
S5000
G3 X-106.339 Y-62.996 Z-2.157 I0 J-5.912 F333.3
G1 X-76.339 Z-2.25
G3 X-76.339 Y-51.171 Z-2.307 I0 J5.913
G1 X-106.339 Z-2.4
S6000
G3 X-106.339 Y-62.996 I0 J-5.912 F1000
G1 X-76.339
G3 X-76.339 Y-51.171 I0 J5.913
G1 X-106.339
S5000
G3 X-106.339 Y-62.996 Z-2.457 I0 J-5.912 F333.3
G1 X-76.339 Z-2.55
G3 X-76.339 Y-51.171 Z-2.607 I0 J5.913
G1 X-106.339 Z-2.7
S6000
G3 X-106.339 Y-62.996 I0 J-5.912 F1000
G1 X-76.339
G3 X-76.339 Y-51.171 I0 J5.913
G1 X-106.339
S5000
G3 X-106.339 Y-62.996 Z-2.757 I0 J-5.912 F333.3
G1 X-76.339 Z-2.85
G3 X-76.339 Y-51.171 Z-2.907 I0 J5.913
G1 X-106.339 Z-3
S6000
G3 X-106.339 Y-62.996 I0 J-5.912 F1000
G1 X-76.339
G3 X-76.339 Y-51.171 I0 J5.913
G1 X-106.339
S5000
G3 X-106.339 Y-62.996 Z-3.057 I0 J-5.912 F333.3
G1 X-76.339 Z-3.15
G3 X-76.339 Y-51.171 Z-3.207 I0 J5.913
G1 X-106.339 Z-3.3
S6000
G3 X-106.339 Y-62.996 I0 J-5.912 F1000
G1 X-76.339
G3 X-76.339 Y-51.171 I0 J5.913
G1 X-106.339
S5000
G3 X-106.339 Y-62.996 Z-3.357 I0 J-5.912 F333.3
G1 X-76.339 Z-3.45
G3 X-76.339 Y-51.171 Z-3.507 I0 J5.913
G1 X-106.339 Z-3.6
S6000
G3 X-106.339 Y-62.996 I0 J-5.912 F1000
G1 X-76.339
G3 X-76.339 Y-51.171 I0 J5.913
G1 X-106.339
S5000
G3 X-106.339 Y-62.996 Z-3.657 I0 J-5.912 F333.3
G1 X-76.339 Z-3.75
G3 X-76.339 Y-51.171 Z-3.807 I0 J5.913
G1 X-106.339 Z-3.9
S6000
G3 X-106.339 Y-62.996 I0 J-5.912 F1000
G1 X-76.339
G3 X-76.339 Y-51.171 I0 J5.913
G1 X-106.339
S5000
G3 X-106.339 Y-62.996 Z-3.957 I0 J-5.912 F333.3
G1 X-76.339 Z-4.05
G3 X-76.339 Y-51.171 Z-4.107 I0 J5.913
G1 X-106.339 Z-4.2
S6000
G3 X-106.339 Y-62.996 I0 J-5.912 F1000
G1 X-76.339
G3 X-76.339 Y-51.171 I0 J5.913
G1 X-106.339
S5000
G3 X-106.339 Y-62.996 Z-4.257 I0 J-5.912 F333.3
G1 X-92.531 Z-4.3
S6000
X-76.339 F1000
G3 X-76.339 Y-51.171 I0 J5.913
G1 X-106.339
G3 X-106.339 Y-62.996 I0 J-5.912
G1 X-92.531
G3 X-92.213 Y-62.679 I0 J0.318
G1 Y-62.361
G19 G3 Y-62.044 Z-3.983 J0 K0.318
G1 Z5
X-30.307 Y-65.572
Z2.5 F333.3
S5000
X-30.159 Y-65.774 Z2.499
X-29.841 Y-66.157 Z2.496
X-29.518 Y-66.499 Z2.493
X-29.193 Y-66.803 Z2.491
X-28.866 Y-67.069 Z2.489
X-28.539 Y-67.298 Z2.486
X-28.214 Y-67.491 Z2.484
X-27.892 Y-67.651 Z2.482
X-27.573 Y-67.779 Z2.481
X-27.257 Y-67.875 Z2.479
X-26.944 Y-67.943 Z2.477
X-26.633 Y-67.982 Z2.475
X-26.324 Y-67.995 Z2.474
X-26.014 Y-67.98 Z2.472
X-25.704 Y-67.938 Z2.47
X-25.392 Y-67.867 Z2.469
X-25.077 Y-67.768 Z2.467
X-24.759 Y-67.638 Z2.465
X-24.438 Y-67.476 Z2.463
X-24.115 Y-67.281 Z2.461
X-23.79 Y-67.051 Z2.459
X-23.466 Y-66.785 Z2.456
X-23.143 Y-66.482 Z2.454
X-22.824 Y-66.141 Z2.452
X-22.51 Y-65.761 Z2.449
X-22.203 Y-65.341 Z2.446
X-21.905 Y-64.883 Z2.443
X-21.619 Y-64.385 Z2.44
X-21.348 Y-63.847 Z2.437
X-21.092 Y-63.271 Z2.433
X-20.855 Y-62.658 Z2.43
X-20.64 Y-62.008 Z2.426
X-20.448 Y-61.324 Z2.422
X-20.283 Y-60.609 Z2.418
X-20.146 Y-59.865 Z2.414
X-20.041 Y-59.098 Z2.41
X-19.969 Y-58.312 Z2.405
X-19.932 Y-57.514 Z2.401
X-19.931 Y-56.711 Z2.397
X-19.966 Y-55.909 Z2.392
X-20.036 Y-55.117 Z2.388
X-20.14 Y-54.341 Z2.384
X-20.277 Y-53.588 Z2.38
X-20.443 Y-52.862 Z2.376
X-20.637 Y-52.168 Z2.372
X-20.856 Y-51.508 Z2.368
X-21.096 Y-50.886 Z2.364
X-21.356 Y-50.302 Z2.361
X-21.632 Y-49.759 Z2.358
X-21.923 Y-49.256 Z2.354
X-22.225 Y-48.794 Z2.351
X-22.536 Y-48.373 Z2.349
X-22.854 Y-47.993 Z2.346
X-23.177 Y-47.652 Z2.343
X-23.503 Y-47.35 Z2.341
X-23.83 Y-47.086 Z2.339
X-24.156 Y-46.859 Z2.336
X-24.481 Y-46.667 Z2.334
X-24.803 Y-46.509 Z2.332
X-25.122 Y-46.383 Z2.331
X-25.438 Y-46.288 Z2.329
X-25.751 Y-46.222 Z2.327
X-26.065 Y-46.183 Z2.325
X-26.336 Y-46.173 Z2.324
X-26.649 Y-46.186 Z2.322
X-26.959 Y-46.227 Z2.32
X-27.271 Y-46.296 Z2.319
X-27.586 Y-46.394 Z2.317
X-27.904 Y-46.522 Z2.315
X-28.225 Y-46.682 Z2.313
X-28.548 Y-46.875 Z2.311
X-28.872 Y-47.104 Z2.309
X-29.197 Y-47.368 Z2.307
X-29.519 Y-47.669 Z2.304
X-29.839 Y-48.009 Z2.302
X-30.154 Y-48.387 Z2.299
X-30.461 Y-48.804 Z2.296
X-30.759 Y-49.261 Z2.293
X-31.045 Y-49.757 Z2.29
X-31.318 Y-50.292 Z2.287
X-31.574 Y-50.866 Z2.283
X-31.812 Y-51.478 Z2.28
X-32.029 Y-52.125 Z2.276
X-32.222 Y-52.808 Z2.272
X-32.389 Y-53.522 Z2.268
X-32.526 Y-54.264 Z2.264
X-32.633 Y-55.03 Z2.26
X-32.707 Y-55.815 Z2.256
X-32.745 Y-56.613 Z2.251
X-32.748 Y-57.416 Z2.247
X-32.716 Y-58.218 Z2.243
X-32.647 Y-59.011 Z2.238
X-32.545 Y-59.787 Z2.234
X-32.41 Y-60.542 Z2.23
X-32.245 Y-61.27 Z2.226
X-32.052 Y-61.966 Z2.222
X-31.835 Y-62.627 Z2.218
X-31.595 Y-63.251 Z2.214
X-31.336 Y-63.837 Z2.211
X-31.061 Y-64.382 Z2.208
X-30.771 Y-64.887 Z2.205
X-30.47 Y-65.351 Z2.201
X-30.159 Y-65.774 Z2.199
X-29.841 Y-66.157 Z2.196
X-29.518 Y-66.499 Z2.193
X-29.193 Y-66.803 Z2.191
X-28.866 Y-67.069 Z2.189
X-28.539 Y-67.298 Z2.186
X-28.214 Y-67.491 Z2.184
X-27.892 Y-67.651 Z2.182
X-27.573 Y-67.779 Z2.181
X-27.257 Y-67.875 Z2.179
X-26.944 Y-67.943 Z2.177
X-26.633 Y-67.982 Z2.175
X-26.324 Y-67.995 Z2.174
X-26.014 Y-67.98 Z2.172
X-25.704 Y-67.938 Z2.17
X-25.392 Y-67.867 Z2.169
X-25.077 Y-67.768 Z2.167
X-24.759 Y-67.638 Z2.165
X-24.438 Y-67.476 Z2.163
X-24.115 Y-67.281 Z2.161
X-23.79 Y-67.051 Z2.159
X-23.466 Y-66.785 Z2.156
X-23.143 Y-66.482 Z2.154
X-22.824 Y-66.141 Z2.152
X-22.51 Y-65.761 Z2.149
X-22.203 Y-65.341 Z2.146
X-21.905 Y-64.883 Z2.143
X-21.619 Y-64.385 Z2.14
X-21.348 Y-63.847 Z2.137
X-21.092 Y-63.271 Z2.133
X-20.855 Y-62.658 Z2.13
X-20.64 Y-62.008 Z2.126
X-20.448 Y-61.324 Z2.122
X-20.283 Y-60.609 Z2.118
X-20.146 Y-59.865 Z2.114
X-20.041 Y-59.098 Z2.11
X-19.969 Y-58.312 Z2.105
X-19.932 Y-57.514 Z2.101
X-19.931 Y-56.711 Z2.097
X-19.966 Y-55.909 Z2.092
X-20.036 Y-55.117 Z2.088
X-20.14 Y-54.341 Z2.084
X-20.277 Y-53.588 Z2.08
X-20.443 Y-52.862 Z2.076
X-20.637 Y-52.168 Z2.072
X-20.856 Y-51.508 Z2.068
X-21.096 Y-50.886 Z2.064
X-21.356 Y-50.302 Z2.061
X-21.632 Y-49.759 Z2.058
X-21.923 Y-49.256 Z2.054
X-22.225 Y-48.794 Z2.051
X-22.536 Y-48.373 Z2.049
X-22.854 Y-47.993 Z2.046
X-23.177 Y-47.652 Z2.043
X-23.503 Y-47.35 Z2.041
X-23.83 Y-47.086 Z2.039
X-24.156 Y-46.859 Z2.036
X-24.481 Y-46.667 Z2.034
X-24.803 Y-46.509 Z2.032
X-25.122 Y-46.383 Z2.031
X-25.438 Y-46.288 Z2.029
X-25.751 Y-46.222 Z2.027
X-26.065 Y-46.183 Z2.025
X-26.336 Y-46.173 Z2.024
X-26.649 Y-46.186 Z2.022
X-26.959 Y-46.227 Z2.02
X-27.271 Y-46.296 Z2.019
X-27.586 Y-46.394 Z2.017
X-27.904 Y-46.522 Z2.015
X-28.225 Y-46.682 Z2.013
X-28.548 Y-46.875 Z2.011
X-28.872 Y-47.104 Z2.009
X-29.197 Y-47.368 Z2.007
X-29.519 Y-47.669 Z2.004
X-29.839 Y-48.009 Z2.002
X-30.154 Y-48.387 Z1.999
X-30.461 Y-48.804 Z1.996
X-30.759 Y-49.261 Z1.993
X-31.045 Y-49.757 Z1.99
X-31.318 Y-50.292 Z1.987
X-31.574 Y-50.866 Z1.983
X-31.812 Y-51.478 Z1.98
X-32.029 Y-52.125 Z1.976
X-32.222 Y-52.808 Z1.972
X-32.389 Y-53.522 Z1.968
X-32.526 Y-54.264 Z1.964
X-32.633 Y-55.03 Z1.96
X-32.707 Y-55.815 Z1.956
X-32.745 Y-56.613 Z1.951
X-32.748 Y-57.416 Z1.947
X-32.716 Y-58.218 Z1.943
X-32.647 Y-59.011 Z1.938
X-32.545 Y-59.787 Z1.934
X-32.41 Y-60.542 Z1.93
X-32.245 Y-61.27 Z1.926
X-32.052 Y-61.966 Z1.922
X-31.835 Y-62.627 Z1.918
X-31.595 Y-63.251 Z1.914
X-31.336 Y-63.837 Z1.911
X-31.061 Y-64.382 Z1.908
X-30.771 Y-64.887 Z1.905
X-30.47 Y-65.351 Z1.901
X-30.159 Y-65.774 Z1.899
X-29.841 Y-66.157 Z1.896
X-29.518 Y-66.499 Z1.893
X-29.193 Y-66.803 Z1.891
X-28.866 Y-67.069 Z1.889
X-28.539 Y-67.298 Z1.886
X-28.214 Y-67.491 Z1.884
X-27.892 Y-67.651 Z1.882
X-27.573 Y-67.779 Z1.881
X-27.257 Y-67.875 Z1.879
X-26.944 Y-67.943 Z1.877
X-26.633 Y-67.982 Z1.875
X-26.324 Y-67.995 Z1.874
X-26.014 Y-67.98 Z1.872
X-25.704 Y-67.938 Z1.87
X-25.392 Y-67.867 Z1.869
X-25.077 Y-67.768 Z1.867
X-24.759 Y-67.638 Z1.865
X-24.438 Y-67.476 Z1.863
X-24.115 Y-67.281 Z1.861
X-23.79 Y-67.051 Z1.859
X-23.466 Y-66.785 Z1.856
X-23.143 Y-66.482 Z1.854
X-22.824 Y-66.141 Z1.852
X-22.51 Y-65.761 Z1.849
X-22.203 Y-65.341 Z1.846
X-21.905 Y-64.883 Z1.843
X-21.619 Y-64.385 Z1.84
X-21.348 Y-63.847 Z1.837
X-21.092 Y-63.271 Z1.833
X-20.855 Y-62.658 Z1.83
X-20.64 Y-62.008 Z1.826
X-20.448 Y-61.324 Z1.822
X-20.283 Y-60.609 Z1.818
X-20.146 Y-59.865 Z1.814
X-20.041 Y-59.098 Z1.81
X-19.969 Y-58.312 Z1.805
X-19.932 Y-57.514 Z1.801
X-19.931 Y-56.711 Z1.797
X-19.966 Y-55.909 Z1.792
X-20.036 Y-55.117 Z1.788
X-20.14 Y-54.341 Z1.784
X-20.277 Y-53.588 Z1.78
X-20.443 Y-52.862 Z1.776
X-20.637 Y-52.168 Z1.772
X-20.856 Y-51.508 Z1.768
X-21.096 Y-50.886 Z1.764
X-21.356 Y-50.302 Z1.761
X-21.632 Y-49.759 Z1.758
X-21.923 Y-49.256 Z1.754
X-22.225 Y-48.794 Z1.751
X-22.536 Y-48.373 Z1.749
X-22.854 Y-47.993 Z1.746
X-23.177 Y-47.652 Z1.743
X-23.503 Y-47.35 Z1.741
X-23.83 Y-47.086 Z1.739
X-24.156 Y-46.859 Z1.736
X-24.481 Y-46.667 Z1.734
X-24.803 Y-46.509 Z1.732
X-25.122 Y-46.383 Z1.731
X-25.438 Y-46.288 Z1.729
X-25.751 Y-46.222 Z1.727
X-26.065 Y-46.183 Z1.725
X-26.336 Y-46.173 Z1.724
X-26.649 Y-46.186 Z1.722
X-26.959 Y-46.227 Z1.72
X-27.271 Y-46.296 Z1.719
X-27.586 Y-46.394 Z1.717
X-27.904 Y-46.522 Z1.715
X-28.225 Y-46.682 Z1.713
X-28.548 Y-46.875 Z1.711
X-28.872 Y-47.104 Z1.709
X-29.197 Y-47.368 Z1.707
X-29.519 Y-47.669 Z1.704
X-29.839 Y-48.009 Z1.702
