(1001)
(Bearbeiten)
(  Hersteller: ChinaCnc)
(  model: 3040T)
(  description: Generic 3-axis)
(T14  D=3.175 CR=0 - ZMIN=-4.2 - Schaftfraser)
G90 G94
G17
G21
G28 G91 Z0
G90

(Bohrfrasen4)
T14
S6000 M3
G54
G0 X-171.381 Y-201.317
Z15
Z2
G1 Z0.317 F1016
G18 G2 X-171.064 Z0 I0.318 K0
G1 X-170.905
G17 G3 X-170.587 Y-200.999 I0 J0.317
X-189.413 Y-200.999 Z-0.5 I-9.413 J0 F1500
X-170.587 Y-200.999 Z-1 I9.413 J0
X-189.413 Y-200.999 Z-1.5 I-9.413 J0
X-170.587 Y-200.999 Z-2 I9.413 J0
X-189.413 Y-200.999 Z-2.5 I-9.413 J0
X-170.587 Y-200.999 Z-3 I9.413 J0
X-189.413 Y-200.999 Z-3.5 I-9.413 J0
X-170.587 Y-200.999 Z-4 I9.413 J0
X-189.413 Y-200.999 I-9.413 J0
X-170.587 Y-200.999 I9.413 J0
X-170.905 Y-200.682 I-0.318 J0 F1016
G1 X-171.064
G18 G3 X-171.381 Z-3.682 I0 K0.318
G0 Z5
X-18.077 Y-91.081
Z1.683
G1 Z0 F1016
X-17.918
X-17.887 Y-91.075
X-17.86 Y-91.057
X-17.843 Y-91.031
X-17.837 Y-91
G17 G3 X-18.162 Y-91 Z-0.5 I-0.163 J0 F1500
X-17.837 Y-91 Z-1 I0.163 J0
X-18.162 Y-91 Z-1.5 I-0.163 J0
X-17.837 Y-91 Z-2 I0.163 J0
X-18.162 Y-91 Z-2.5 I-0.163 J0
X-17.837 Y-91 Z-3 I0.163 J0
X-18.162 Y-91 Z-3.5 I-0.163 J0
X-17.837 Y-91 Z-4 I0.163 J0
X-18.162 Y-91 I-0.163 J0
X-17.837 Y-91 I0.163 J0
G1 X-17.843 Y-90.969 F1016
X-17.86 Y-90.943
X-17.887 Y-90.925
X-17.918 Y-90.919
X-18.077
G0 Z5
X-56.077 Y-91.081
Z1.683
G1 Z0 F1016
X-55.918
X-55.887 Y-91.075
X-55.86 Y-91.057
X-55.843 Y-91.031
X-55.837 Y-91
G3 X-56.162 Y-91 Z-0.5 I-0.162 J0 F1500
X-55.837 Y-91 Z-1 I0.162 J0
X-56.162 Y-91 Z-1.5 I-0.162 J0
X-55.837 Y-91 Z-2 I0.162 J0
X-56.162 Y-91 Z-2.5 I-0.162 J0
X-55.837 Y-91 Z-3 I0.162 J0
X-56.162 Y-91 Z-3.5 I-0.162 J0
X-55.837 Y-91 Z-4 I0.162 J0
X-56.162 Y-91 I-0.162 J0
X-55.837 Y-91 I0.162 J0
G1 X-55.843 Y-90.969 F1016
X-55.86 Y-90.943
X-55.887 Y-90.925
X-55.918 Y-90.919
X-56.077
G0 Z5
X-94.077 Y-91.081
Z1.683
G1 Z0 F1016
X-93.918
X-93.887 Y-91.075
X-93.86 Y-91.057
X-93.843 Y-91.031
X-93.837 Y-91
G3 X-94.162 Y-91 Z-0.5 I-0.162 J0 F1500
X-93.837 Y-91 Z-1 I0.162 J0
X-94.162 Y-91 Z-1.5 I-0.162 J0
X-93.837 Y-91 Z-2 I0.162 J0
X-94.162 Y-91 Z-2.5 I-0.162 J0
X-93.837 Y-91 Z-3 I0.162 J0
X-94.162 Y-91 Z-3.5 I-0.162 J0
X-93.837 Y-91 Z-4 I0.162 J0
X-94.162 Y-91 I-0.162 J0
X-93.837 Y-91 I0.162 J0
G1 X-93.843 Y-90.969 F1016
X-93.86 Y-90.943
X-93.887 Y-90.925
X-93.918 Y-90.919
X-94.077
G0 Z5
X-132.077 Y-91.081
Z1.683
G1 Z0 F1016
X-131.918
X-131.887 Y-91.075
X-131.86 Y-91.057
X-131.843 Y-91.031
X-131.837 Y-91
G3 X-132.162 Y-91 Z-0.5 I-0.163 J0 F1500
X-132.08 Y-91.141 Z-0.667 I0.162 J0
X-131.918 Y-90.859 Z-1.167 I0.081 J0.141
X-132.08 Y-90.859 Z-1.333 I-0.081 J-0.141
X-131.918 Y-91.141 Z-1.833 I0.081 J-0.141
X-132.08 Y-90.859 Z-2.333 I-0.081 J0.141
X-132.08 Y-91.141 Z-2.667 I0.081 J-0.141
X-131.918 Y-90.859 Z-3.167 I0.081 J0.141
X-132.08 Y-90.859 Z-3.333 I-0.081 J-0.141
X-131.918 Y-91.141 Z-3.833 I0.081 J-0.141
X-131.837 Y-91 Z-4 I-0.081 J0.141
X-132.162 Y-91 I-0.163 J0
X-131.837 Y-91 I0.163 J0
G1 X-131.843 Y-90.969 F1016
X-131.86 Y-90.943
X-131.887 Y-90.925
X-131.918 Y-90.919
X-132.077
G0 Z5
X-170.077 Y-91.081
Z1.683
G1 Z0 F1016
X-169.918
X-169.887 Y-91.075
X-169.86 Y-91.057
X-169.843 Y-91.031
X-169.837 Y-91
G3 X-170.162 Y-91 Z-0.5 I-0.163 J0 F1500
X-170.08 Y-91.141 Z-0.667 I0.162 J0
X-169.918 Y-90.859 Z-1.167 I0.081 J0.141
X-170.08 Y-90.859 Z-1.333 I-0.081 J-0.141
X-169.918 Y-91.141 Z-1.833 I0.081 J-0.141
X-170.08 Y-90.859 Z-2.333 I-0.081 J0.141
X-170.08 Y-91.141 Z-2.667 I0.081 J-0.141
X-169.918 Y-90.859 Z-3.167 I0.081 J0.141
X-170.08 Y-90.859 Z-3.333 I-0.081 J-0.141
X-169.918 Y-91.141 Z-3.833 I0.081 J-0.141
X-169.837 Y-91 Z-4 I-0.081 J0.141
X-170.162 Y-91 I-0.163 J0
X-169.837 Y-91 I0.163 J0
G1 X-169.843 Y-90.969 F1016
X-169.86 Y-90.943
X-169.887 Y-90.925
X-169.918 Y-90.919
X-170.077
G0 Z5
X-184.856 Y-106.317
Z2
G1 Z0.317 F1016
G18 G2 X-184.539 Z0 I0.317 K0
G1 X-184.38
G17 G3 X-184.063 Y-106 I0 J0.317
X-185.938 Y-106 Z-0.5 I-0.938 J0 F1500
X-184.063 Y-106 Z-1 I0.938 J0
X-185.938 Y-106 Z-1.5 I-0.938 J0
X-184.063 Y-106 Z-2 I0.938 J0
X-185.938 Y-106 Z-2.5 I-0.938 J0
X-184.063 Y-106 Z-3 I0.938 J0
X-185.938 Y-106 Z-3.5 I-0.938 J0
X-184.063 Y-106 Z-4 I0.938 J0
X-185.938 Y-106 I-0.938 J0
X-184.063 Y-106 I0.938 J0
X-184.38 Y-105.683 I-0.318 J0 F1016
G1 X-184.539
G18 G3 X-184.856 Z-3.682 I0 K0.318
G0 Z5
X-208.077 Y-91.081
Z1.683
G1 Z0 F1016
X-207.918
X-207.887 Y-91.075
X-207.86 Y-91.057
X-207.843 Y-91.031
X-207.837 Y-91
G17 G3 X-208.162 Y-91 Z-0.5 I-0.163 J0 F1500
X-208.08 Y-91.141 Z-0.667 I0.162 J0
X-207.918 Y-90.859 Z-1.167 I0.081 J0.141
X-208.08 Y-90.859 Z-1.333 I-0.081 J-0.141
X-207.918 Y-91.141 Z-1.833 I0.081 J-0.141
X-208.08 Y-90.859 Z-2.333 I-0.081 J0.141
X-208.08 Y-91.141 Z-2.667 I0.081 J-0.141
X-207.918 Y-90.859 Z-3.167 I0.081 J0.141
X-208.08 Y-90.859 Z-3.333 I-0.081 J-0.141
X-207.918 Y-91.141 Z-3.833 I0.081 J-0.141
X-207.837 Y-91 Z-4 I-0.081 J0.141
X-208.162 Y-91 I-0.163 J0
X-207.837 Y-91 I0.163 J0
G1 X-207.843 Y-90.969 F1016
X-207.86 Y-90.943
X-207.887 Y-90.925
X-207.918 Y-90.919
X-208.077
G0 Z5
X-246.077 Y-91.081
Z1.683
G1 Z0 F1016
X-245.918
X-245.887 Y-91.075
X-245.86 Y-91.057
X-245.843 Y-91.031
X-245.837 Y-91
G3 X-246.162 Y-91 Z-0.5 I-0.163 J0 F1500
X-246.08 Y-91.141 Z-0.667 I0.162 J0
X-245.918 Y-90.859 Z-1.167 I0.081 J0.141
X-246.08 Y-90.859 Z-1.333 I-0.081 J-0.141
X-245.918 Y-91.141 Z-1.833 I0.081 J-0.141
X-246.08 Y-90.859 Z-2.333 I-0.081 J0.141
X-246.08 Y-91.141 Z-2.667 I0.081 J-0.141
X-245.918 Y-90.859 Z-3.167 I0.081 J0.141
X-246.08 Y-90.859 Z-3.333 I-0.081 J-0.141
X-245.918 Y-91.141 Z-3.833 I0.081 J-0.141
X-245.837 Y-91 Z-4 I-0.081 J0.141
X-246.162 Y-91 I-0.163 J0
X-245.837 Y-91 I0.163 J0
G1 X-245.843 Y-90.969 F1016
X-245.86 Y-90.943
X-245.887 Y-90.925
X-245.918 Y-90.919
X-246.077
G0 Z5
X-284.077 Y-91.081
Z1.683
G1 Z0 F1016
X-283.918
X-283.887 Y-91.075
X-283.86 Y-91.057
X-283.843 Y-91.031
X-283.837 Y-91
G3 X-284.162 Y-91 Z-0.5 I-0.163 J0 F1500
X-284.08 Y-91.141 Z-0.667 I0.163 J0
X-283.918 Y-90.859 Z-1.167 I0.081 J0.141
X-284.08 Y-90.859 Z-1.333 I-0.081 J-0.141
X-283.918 Y-91.141 Z-1.833 I0.081 J-0.141
X-284.08 Y-90.859 Z-2.333 I-0.081 J0.141
X-284.08 Y-91.141 Z-2.667 I0.081 J-0.141
X-283.918 Y-90.859 Z-3.167 I0.081 J0.141
X-284.08 Y-90.859 Z-3.333 I-0.081 J-0.141
X-283.918 Y-91.141 Z-3.833 I0.081 J-0.141
X-283.837 Y-91 Z-4 I-0.081 J0.141
X-284.162 Y-91 I-0.163 J0
X-283.837 Y-91 I0.163 J0
G1 X-283.843 Y-90.969 F1016
X-283.86 Y-90.943
X-283.887 Y-90.925
X-283.918 Y-90.919
X-284.077
G0 Z5
Y-21.081
Z1.683
G1 Z0 F1016
X-283.918
X-283.887 Y-21.075
X-283.86 Y-21.057
X-283.843 Y-21.031
X-283.837 Y-21
G3 X-284.162 Y-21 Z-0.5 I-0.163 J0 F1500
X-284.08 Y-21.141 Z-0.667 I0.163 J0
X-283.918 Y-20.859 Z-1.167 I0.081 J0.141
X-284.08 Y-20.859 Z-1.333 I-0.081 J-0.141
X-283.918 Y-21.141 Z-1.833 I0.081 J-0.141
X-284.08 Y-20.859 Z-2.333 I-0.081 J0.141
X-284.08 Y-21.141 Z-2.667 I0.081 J-0.141
X-283.918 Y-20.859 Z-3.167 I0.081 J0.141
X-284.08 Y-20.859 Z-3.333 I-0.081 J-0.141
X-283.918 Y-21.141 Z-3.833 I0.081 J-0.141
X-283.837 Y-21 Z-4 I-0.081 J0.141
X-284.162 Y-21 I-0.163 J0
X-283.837 Y-21 I0.163 J0
G1 X-283.843 Y-20.969 F1016
X-283.86 Y-20.943
X-283.887 Y-20.925
X-283.918 Y-20.919
X-284.077
G0 Z5
X-246.077 Y-21.081
Z1.683
G1 Z0 F1016
X-245.918
X-245.887 Y-21.075
X-245.86 Y-21.057
X-245.843 Y-21.031
X-245.837 Y-21
G3 X-246.162 Y-21 Z-0.5 I-0.163 J0 F1500
X-246.08 Y-21.141 Z-0.667 I0.162 J0
X-245.918 Y-20.859 Z-1.167 I0.081 J0.141
X-246.08 Y-20.859 Z-1.333 I-0.081 J-0.141
X-245.918 Y-21.141 Z-1.833 I0.081 J-0.141
X-246.08 Y-20.859 Z-2.333 I-0.081 J0.141
X-246.08 Y-21.141 Z-2.667 I0.081 J-0.141
X-245.918 Y-20.859 Z-3.167 I0.081 J0.141
X-246.08 Y-20.859 Z-3.333 I-0.081 J-0.141
X-245.918 Y-21.141 Z-3.833 I0.081 J-0.141
X-245.837 Y-21 Z-4 I-0.081 J0.141
X-246.162 Y-21 I-0.163 J0
X-245.837 Y-21 I0.163 J0
G1 X-245.843 Y-20.969 F1016
X-245.86 Y-20.943
X-245.887 Y-20.925
X-245.918 Y-20.919
X-246.077
G0 Z5
X-208.077 Y-21.081
Z1.683
G1 Z0 F1016
X-207.918
X-207.887 Y-21.075
X-207.86 Y-21.057
X-207.843 Y-21.031
X-207.837 Y-21
G3 X-208.162 Y-21 Z-0.5 I-0.163 J0 F1500
X-208.08 Y-21.141 Z-0.667 I0.162 J0
X-207.918 Y-20.859 Z-1.167 I0.081 J0.141
X-208.08 Y-20.859 Z-1.333 I-0.081 J-0.141
X-207.918 Y-21.141 Z-1.833 I0.081 J-0.141
X-208.08 Y-20.859 Z-2.333 I-0.081 J0.141
X-208.08 Y-21.141 Z-2.667 I0.081 J-0.141
X-207.918 Y-20.859 Z-3.167 I0.081 J0.141
X-208.08 Y-20.859 Z-3.333 I-0.081 J-0.141
X-207.918 Y-21.141 Z-3.833 I0.081 J-0.141
X-207.837 Y-21 Z-4 I-0.081 J0.141
X-208.162 Y-21 I-0.163 J0
X-207.837 Y-21 I0.163 J0
G1 X-207.843 Y-20.969 F1016
X-207.86 Y-20.943
X-207.887 Y-20.925
X-207.918 Y-20.919
X-208.077
G0 Z5
X-170.077 Y-21.081
Z1.683
G1 Z0 F1016
X-169.918
X-169.887 Y-21.075
X-169.86 Y-21.057
X-169.843 Y-21.031
X-169.837 Y-21
G3 X-170.162 Y-21 Z-0.5 I-0.163 J0 F1500
X-170.08 Y-21.141 Z-0.667 I0.162 J0
X-169.918 Y-20.859 Z-1.167 I0.081 J0.141
X-170.08 Y-20.859 Z-1.333 I-0.081 J-0.141
X-169.918 Y-21.141 Z-1.833 I0.081 J-0.141
X-170.08 Y-20.859 Z-2.333 I-0.081 J0.141
X-170.08 Y-21.141 Z-2.667 I0.081 J-0.141
X-169.918 Y-20.859 Z-3.167 I0.081 J0.141
X-170.08 Y-20.859 Z-3.333 I-0.081 J-0.141
X-169.918 Y-21.141 Z-3.833 I0.081 J-0.141
X-169.837 Y-21 Z-4 I-0.081 J0.141
X-170.162 Y-21 I-0.163 J0
X-169.837 Y-21 I0.163 J0
G1 X-169.843 Y-20.969 F1016
X-169.86 Y-20.943
X-169.887 Y-20.925
X-169.918 Y-20.919
X-170.077
G0 Z5
X-132.077 Y-21.081
Z1.683
G1 Z0 F1016
X-131.918
X-131.887 Y-21.075
X-131.86 Y-21.057
X-131.843 Y-21.031
X-131.837 Y-21
G3 X-132.162 Y-21 Z-0.5 I-0.163 J0 F1500
X-132.08 Y-21.141 Z-0.667 I0.162 J0
X-131.918 Y-20.859 Z-1.167 I0.081 J0.141
X-132.08 Y-20.859 Z-1.333 I-0.081 J-0.141
X-131.918 Y-21.141 Z-1.833 I0.081 J-0.141
X-132.08 Y-20.859 Z-2.333 I-0.081 J0.141
X-132.08 Y-21.141 Z-2.667 I0.081 J-0.141
X-131.918 Y-20.859 Z-3.167 I0.081 J0.141
X-132.08 Y-20.859 Z-3.333 I-0.081 J-0.141
X-131.918 Y-21.141 Z-3.833 I0.081 J-0.141
X-131.837 Y-21 Z-4 I-0.081 J0.141
X-132.162 Y-21 I-0.163 J0
X-131.837 Y-21 I0.163 J0
G1 X-131.843 Y-20.969 F1016
X-131.86 Y-20.943
X-131.887 Y-20.925
X-131.918 Y-20.919
X-132.077
G0 Z5
X-94.077 Y-21.081
Z1.683
G1 Z0 F1016
X-93.918
X-93.887 Y-21.075
X-93.86 Y-21.057
X-93.843 Y-21.031
X-93.837 Y-21
G3 X-94.162 Y-21 Z-0.5 I-0.162 J0 F1500
X-93.837 Y-21 Z-1 I0.162 J0
X-94.162 Y-21 Z-1.5 I-0.162 J0
X-93.837 Y-21 Z-2 I0.162 J0
X-94.162 Y-21 Z-2.5 I-0.162 J0
X-93.837 Y-21 Z-3 I0.162 J0
X-94.162 Y-21 Z-3.5 I-0.162 J0
X-93.837 Y-21 Z-4 I0.162 J0
X-94.162 Y-21 I-0.162 J0
X-93.837 Y-21 I0.162 J0
G1 X-93.843 Y-20.969 F1016
X-93.86 Y-20.943
X-93.887 Y-20.925
X-93.918 Y-20.919
X-94.077
G0 Z5
X-56.077 Y-21.081
Z1.683
G1 Z0 F1016
X-55.918
X-55.887 Y-21.075
X-55.86 Y-21.057
X-55.843 Y-21.031
X-55.837 Y-21
G3 X-56.162 Y-21 Z-0.5 I-0.162 J0 F1500
X-55.837 Y-21 Z-1 I0.162 J0
X-56.162 Y-21 Z-1.5 I-0.162 J0
X-55.837 Y-21 Z-2 I0.162 J0
X-56.162 Y-21 Z-2.5 I-0.162 J0
X-55.837 Y-21 Z-3 I0.162 J0
X-56.162 Y-21 Z-3.5 I-0.162 J0
X-55.837 Y-21 Z-4 I0.162 J0
X-56.162 Y-21 I-0.162 J0
X-55.837 Y-21 I0.162 J0
G1 X-55.843 Y-20.969 F1016
X-55.86 Y-20.943
X-55.887 Y-20.925
X-55.918 Y-20.919
X-56.077
G0 Z5
X-18.077 Y-21.081
Z1.683
G1 Z0 F1016
X-17.918
X-17.887 Y-21.075
X-17.86 Y-21.057
X-17.843 Y-21.031
X-17.837 Y-21
G3 X-18.162 Y-21 Z-0.5 I-0.163 J0 F1500
X-17.837 Y-21 Z-1 I0.163 J0
X-18.162 Y-21 Z-1.5 I-0.163 J0
X-17.837 Y-21 Z-2 I0.163 J0
X-18.162 Y-21 Z-2.5 I-0.163 J0
X-17.837 Y-21 Z-3 I0.163 J0
X-18.162 Y-21 Z-3.5 I-0.163 J0
X-17.837 Y-21 Z-4 I0.163 J0
X-18.162 Y-21 I-0.163 J0
X-17.837 Y-21 I0.163 J0
G1 X-17.843 Y-20.969 F1016
X-17.86 Y-20.943
X-17.887 Y-20.925
X-17.918 Y-20.919
X-18.077
G0 Z15

(2D-Kontur14)
X-150.413 Y-168.441
Z15
Z5
G1 Z2.5 F300
S8000
Y-200.999 Z1.363 F1016
G3 X-142 Y-209.411 Z0.902 I8.413 J0
G1 X-99 Z-0.6
S6000
X-56 F1500
G3 X-47.588 Y-200.999 I0 J8.413
G1 Y-114.999
G3 X-56 Y-106.587 I-8.412 J0
G1 X-142
G3 X-150.413 Y-114.999 I0 J-8.412
G1 Y-200.999
G3 X-142 Y-209.411 I8.413 J0
G1 X-99
S8000
X-79.157 Z-1.2 F1016
S6000
X-56 F1500
G3 X-47.588 Y-200.999 I0 J8.413
G1 Y-114.999
G3 X-56 Y-106.587 I-8.412 J0
G1 X-142
G3 X-150.413 Y-114.999 I0 J-8.412
G1 Y-200.999
G3 X-142 Y-209.411 I8.413 J0
G1 X-99
X-79.157
S8000
X-59.314 Z-1.8 F1016
S6000
X-56 F1500
G3 X-47.588 Y-200.999 I0 J8.413
G1 Y-114.999
G3 X-56 Y-106.587 I-8.412 J0
G1 X-142
G3 X-150.413 Y-114.999 I0 J-8.412
G1 Y-200.999
G3 X-142 Y-209.411 I8.413 J0
G1 X-79.157
X-59.314
S8000
X-56 Z-1.9 F1016
G3 X-47.588 Y-200.999 Z-2.3 I0 J8.413
G1 Y-197.685 Z-2.4
S6000
Y-114.999 F1500
G3 X-56 Y-106.587 I-8.412 J0
G1 X-142
G3 X-150.413 Y-114.999 I0 J-8.412
G1 Y-200.999
G3 X-142 Y-209.411 I8.413 J0
G1 X-59.314
X-56
G3 X-47.588 Y-200.999 I0 J8.413
G1 Y-197.685
S8000
Y-177.842 Z-3 F1016
S6000
Y-114.999 F1500
G3 X-56 Y-106.587 I-8.412 J0
G1 X-142
G3 X-150.413 Y-114.999 I0 J-8.412
G1 Y-200.999
G3 X-142 Y-209.411 I8.413 J0
G1 X-56
G3 X-47.588 Y-200.999 I0 J8.413
G1 Y-177.842
S8000
Y-157.999 Z-3.6 F1016
S6000
Y-114.999 F1500
G3 X-56 Y-106.587 I-8.412 J0
G1 X-142
G3 X-150.413 Y-114.999 I0 J-8.412
G1 Y-200.999
G3 X-142 Y-209.411 I8.413 J0
G1 X-56
G3 X-47.588 Y-200.999 I0 J8.413
G1 Y-177.842
Y-157.999
S8000
Y-138.156 Z-4.2 F1016
S6000
Y-114.999 F1500
G3 X-56 Y-106.587 I-8.412 J0
G1 X-142
G3 X-150.413 Y-114.999 I0 J-8.412
G1 Y-200.999
G3 X-142 Y-209.411 I8.413 J0
G1 X-56
G3 X-47.588 Y-200.999 I0 J8.413
G1 Y-157.999
Y-138.156
G0 Z5
X-131.043 Y-84.412
G1 Z2.5 F300
S8000
X-42.271 Z-0.6 F1016
S6000
X-16.587 F1500
Y-68.5
G2 X-14.999 Y-66.912 I1.588 J0
G1 X-11.587
Y-45.088
X-14.999
G2 X-16.587 Y-43.5 I0 J1.588
G1 Y-27.587
X-143.411
Y-84.412
X-42.271
S8000
X-23.474 Z-1.2 F1016
S6000
X-16.587 F1500
Y-68.5
G2 X-14.999 Y-66.912 I1.588 J0
G1 X-11.587
Y-45.088
X-14.999
G2 X-16.587 Y-43.5 I0 J1.588
G1 Y-27.587
X-143.411
Y-84.412
X-42.271
X-23.474
S8000
X-16.587 Z-1.42 F1016
Y-72.503 Z-1.8
S6000
Y-68.5 F1500
G2 X-14.999 Y-66.912 I1.588 J0
G1 X-11.587
Y-45.088
X-14.999
G2 X-16.587 Y-43.5 I0 J1.588
G1 Y-27.587
X-143.411
Y-84.412
X-23.474
X-16.587
Y-72.503
S8000
Y-68.5 Z-1.928 F1016
G2 X-14.999 Y-66.912 Z-2.007 I1.588 J0
G1 X-11.587 Z-2.116
Y-58.025 Z-2.4
S6000
Y-45.088 F1500
X-14.999
G2 X-16.587 Y-43.5 I0 J1.588
G1 Y-27.587
X-143.411
Y-84.412
X-16.587
Y-72.503
Y-68.5
G2 X-14.999 Y-66.912 I1.588 J0
G1 X-11.587
Y-58.025
S8000
Y-45.088 Z-2.813 F1016
X-14.999 Z-2.922
G2 X-16.586 Y-43.547 Z-3 I0 J1.588
S6000
G1 X-16.587 Y-43.5 F1500
Y-27.587
X-143.411
Y-84.412
X-16.587
Y-68.5
G2 X-14.999 Y-66.912 I1.588 J0
G1 X-11.587
Y-45.088
X-14.999
G2 X-16.586 Y-43.547 I0 J1.588
S8000
G1 X-16.587 Y-43.5 Z-3.001 F1016
Y-27.587 Z-3.509
X-19.424 Z-3.6
S6000
X-143.411 F1500
Y-84.412
X-16.587
Y-68.5
G2 X-14.999 Y-66.912 I1.588 J0
G1 X-11.587
Y-45.088
X-14.999
G2 X-16.587 Y-43.5 I0 J1.588
G1 Y-27.587
X-19.424
S8000
X-38.221 Z-4.2 F1016
S6000
X-143.411 F1500
Y-84.412
X-16.587
Y-68.5
G2 X-14.999 Y-66.912 I1.588 J0
G1 X-11.587
Y-45.088
X-14.999
G2 X-16.587 Y-43.5 I0 J1.588
G1 Y-27.587
X-38.221
G0 Z5
X-284.877
G1 Z2.5 F300
S8000
X-288.411 Z2.377 F1016
Y-84.412 Z0.392
X-259.999 Z-0.6
S6000
X-161.587 F1500
Y-68.5
G2 X-159.999 Y-66.912 I1.588 J0
G1 X-156.587
Y-45.088
X-159.999
G2 X-161.587 Y-43.5 I0 J1.588
G1 Y-27.587
X-288.411
Y-84.412
X-259.999
S8000
X-241.202 Z-1.2 F1016
S6000
X-161.587 F1500
Y-68.5
G2 X-159.999 Y-66.912 I1.588 J0
G1 X-156.587
Y-45.088
X-159.999
G2 X-161.587 Y-43.5 I0 J1.588
G1 Y-27.587
X-288.411
Y-84.412
X-259.999
X-241.202
S8000
X-222.405 Z-1.8 F1016
S6000
X-161.587 F1500
Y-68.5
G2 X-159.999 Y-66.912 I1.588 J0
G1 X-156.587
Y-45.088
X-159.999
G2 X-161.587 Y-43.5 I0 J1.588
G1 Y-27.587
X-288.411
Y-84.412
X-241.202
X-222.405
S8000
X-203.608 Z-2.4 F1016
S6000
X-161.587 F1500
Y-68.5
G2 X-159.999 Y-66.912 I1.588 J0
G1 X-156.587
Y-45.088
X-159.999
G2 X-161.587 Y-43.5 I0 J1.588
G1 Y-27.587
X-288.411
Y-84.412
X-222.405
X-203.608
S8000
X-184.812 Z-3 F1016
S6000
X-161.587 F1500
Y-68.5
G2 X-159.999 Y-66.912 I1.588 J0
G1 X-156.587
Y-45.088
X-159.999
G2 X-161.587 Y-43.5 I0 J1.588
G1 Y-27.587
X-288.411
Y-84.412
X-203.608
X-184.812
S8000
X-166.015 Z-3.6 F1016
S6000
X-161.587 F1500
Y-68.5
G2 X-159.999 Y-66.912 I1.588 J0
G1 X-156.587
Y-45.088
X-159.999
G2 X-161.587 Y-43.5 I0 J1.588
G1 Y-27.587
X-288.411
Y-84.412
X-184.812
X-166.015
S8000
X-161.587 Z-3.741 F1016
Y-70.044 Z-4.2
S6000
Y-68.5 F1500
G2 X-159.999 Y-66.912 I1.588 J0
G1 X-156.587
Y-45.088
X-159.999
G2 X-161.587 Y-43.5 I0 J1.588
G1 Y-27.587
X-288.411
Y-84.412
X-166.015
X-161.587
Y-70.044
G0 Z15

(2D-Kontur16)
X-61.727 Y-232.587
Z15
Z5
G1 Z2.5 F300
S8000
X-150.499 Z-0.6 F1016
S6000
X-200 F1500
G2 X-201.587 Y-230.999 I0 J1.588
G1 Y-107.588
X-299.999
G2 X-301.586 Y-106 I0 J1.588
G1 Y-14.494
Y-14.466
X-301.577 Y-13.961
X-301.575 Y-13.898
X-301.546 Y-13.393
X-301.542 Y-13.337
X-301.495 Y-12.834
X-301.488 Y-12.774
X-301.422 Y-12.273
X-301.413 Y-12.213
X-301.328 Y-11.715
X-301.317 Y-11.659
X-301.214 Y-11.164
X-301.2 Y-11.101
X-301.077 Y-10.611
X-301.061 Y-10.555
X-300.92 Y-10.07
X-300.903 Y-10.013
X-300.744 Y-9.534
X-300.724 Y-9.478
X-300.547 Y-9.005
X-300.525 Y-8.948
X-300.329 Y-8.482
X-300.307 Y-8.431
X-300.096 Y-7.973
X-300.07 Y-7.919
X-299.842 Y-7.469
X-299.814 Y-7.416
X-299.569 Y-6.974
X-299.54 Y-6.924
X-299.279 Y-6.491
X-299.249 Y-6.443
X-298.973 Y-6.021
X-298.939 Y-5.971
X-298.647 Y-5.559
X-298.613 Y-5.511
X-298.306 Y-5.11
X-298.27 Y-5.065
X-297.949 Y-4.676
X-297.909 Y-4.63
X-297.573 Y-4.253
X-297.533 Y-4.209
X-297.183 Y-3.845
X-297.141 Y-3.803
X-296.778 Y-3.452
X-296.732 Y-3.41
X-296.355 Y-3.073
X-296.31 Y-3.034
X-295.921 Y-2.712
X-295.873 Y-2.674
X-295.472 Y-2.368
X-295.422 Y-2.331
X-295.009 Y-2.04
X-294.96 Y-2.007
X-294.537 Y-1.732
X-294.485 Y-1.7
X-294.051 Y-1.441
X-294.001 Y-1.412
X-293.558 Y-1.169
X-293.506 Y-1.142
X-293.055 Y-0.916
X-293.001 Y-0.891
X-292.541 Y-0.681
X-292.488 Y-0.658
X-292.021 Y-0.466
G2 X-289.857 Y-1.637 I0.604 J-1.468
G3 X-283.092 Y-1 I3.352 J0.637
G2 X-281.505 Y0.587 I1.587 J0
G1 X-14.494
X-14.455
X-13.793 Y0.571
X-13.715 Y0.567
X-13.054 Y0.518
X-12.977 Y0.511
X-12.32 Y0.43
X-12.242 Y0.418
X-11.59 Y0.305
X-11.511 Y0.289
X-10.865 Y0.143
X-10.788 Y0.124
X-10.151 Y-0.054
X-10.076 Y-0.077
X-9.448 Y-0.286
X-9.374 Y-0.313
X-8.757 Y-0.552
X-8.686 Y-0.582
X-8.081 Y-0.852
X-8.012 Y-0.884
X-7.421 Y-1.183
X-7.354 Y-1.219
X-6.777 Y-1.545
X-6.712 Y-1.585
X-6.152 Y-1.938
X-6.088 Y-1.981
X-5.546 Y-2.361
X-5.485 Y-2.407
X-4.962 Y-2.813
X-4.902 Y-2.862
X-4.399 Y-3.293
X-4.341 Y-3.345
X-3.861 Y-3.801
X-3.805 Y-3.856
X-3.348 Y-4.335
X-3.294 Y-4.394
X-2.861 Y-4.895
X-2.81 Y-4.958
X-2.403 Y-5.48
X-2.356 Y-5.544
X-1.976 Y-6.086
X-1.932 Y-6.151
X-1.58 Y-6.712
X-1.54 Y-6.779
X-1.215 Y-7.355
X-1.179 Y-7.424
X-0.882 Y-8.016
X-0.85 Y-8.085
X-0.582 Y-8.691
X-0.553 Y-8.761
X-0.315 Y-9.38
X-0.289 Y-9.451
X-0.081 Y-10.08
X-0.059 Y-10.153
X0.119 Y-10.791
X0.137 Y-10.866
X0.284 Y-11.512
X0.299 Y-11.587
X0.414 Y-12.239
X0.426 Y-12.317
X0.508 Y-12.974
X0.516 Y-13.052
X0.566 Y-13.712
X0.57 Y-13.792
X0.587 Y-14.454
Y-14.494
Y-217.505
Y-217.544
X0.571 Y-218.206
X0.567 Y-218.284
X0.518 Y-218.945
X0.511 Y-219.022
X0.43 Y-219.679
X0.418 Y-219.756
X0.305 Y-220.409
X0.289 Y-220.488
X0.143 Y-221.134
X0.124 Y-221.211
X-0.054 Y-221.849
X-0.077 Y-221.924
X-0.286 Y-222.552
X-0.313 Y-222.625
X-0.552 Y-223.242
X-0.582 Y-223.313
X-0.851 Y-223.918
X-0.885 Y-223.987
X-1.183 Y-224.578
X-1.219 Y-224.646
X-1.545 Y-225.222
X-1.584 Y-225.287
X-1.938 Y-225.847
X-1.981 Y-225.911
X-2.361 Y-226.453
X-2.407 Y-226.515
X-2.813 Y-227.038
X-2.862 Y-227.098
X-3.293 Y-227.6
X-3.345 Y-227.657
X-3.8 Y-228.138
X-3.857 Y-228.195
X-4.335 Y-228.652
X-4.394 Y-228.705
X-4.895 Y-229.138
X-4.959 Y-229.19
X-5.481 Y-229.596
X-5.544 Y-229.643
X-6.086 Y-230.023
X-6.151 Y-230.066
X-6.711 Y-230.419
X-6.778 Y-230.459
X-7.355 Y-230.784
X-7.424 Y-230.821
X-8.016 Y-231.117
X-8.084 Y-231.149
X-8.69 Y-231.417
X-8.762 Y-231.446
X-9.38 Y-231.684
X-9.452 Y-231.71
X-10.08 Y-231.918
X-10.155 Y-231.941
X-10.793 Y-232.118
X-10.865 Y-232.136
X-11.51 Y-232.283
X-11.587 Y-232.298
X-12.239 Y-232.413
X-12.318 Y-232.425
X-12.975 Y-232.507
X-13.052 Y-232.515
X-13.712 Y-232.565
X-13.791 Y-232.569
X-14.454 Y-232.586
X-14.494 Y-232.587
X-150.499
S8000
X-200 Z-1.163 F1016
G2 X-201.587 Y-230.999 Z-1.192 I0 J1.588
G1 Y-230.261 Z-1.2
S6000
Y-107.588 F1500
X-299.999
G2 X-301.586 Y-106 I0 J1.588
G1 Y-14.494
Y-14.466
X-301.577 Y-13.961
X-301.575 Y-13.898
X-301.546 Y-13.393
X-301.542 Y-13.337
X-301.495 Y-12.834
X-301.488 Y-12.774
X-301.422 Y-12.273
X-301.413 Y-12.213
X-301.328 Y-11.715
X-301.317 Y-11.659
X-301.214 Y-11.164
X-301.2 Y-11.101
X-301.077 Y-10.611
X-301.061 Y-10.555
X-300.92 Y-10.07
X-300.903 Y-10.013
X-300.744 Y-9.534
X-300.724 Y-9.478
X-300.547 Y-9.005
X-300.525 Y-8.948
X-300.329 Y-8.482
X-300.307 Y-8.431
X-300.096 Y-7.973
X-300.07 Y-7.919
X-299.842 Y-7.469
X-299.814 Y-7.416
X-299.569 Y-6.974
X-299.54 Y-6.924
X-299.279 Y-6.491
X-299.249 Y-6.443
X-298.973 Y-6.021
X-298.939 Y-5.971
X-298.647 Y-5.559
X-298.613 Y-5.511
X-298.306 Y-5.11
X-298.27 Y-5.065
X-297.949 Y-4.676
X-297.909 Y-4.63
X-297.573 Y-4.253
X-297.533 Y-4.209
X-297.183 Y-3.845
X-297.141 Y-3.803
X-296.778 Y-3.452
X-296.732 Y-3.41
X-296.355 Y-3.073
X-296.31 Y-3.034
X-295.921 Y-2.712
X-295.873 Y-2.674
X-295.472 Y-2.368
X-295.422 Y-2.331
X-295.009 Y-2.04
X-294.96 Y-2.007
X-294.537 Y-1.732
X-294.485 Y-1.7
X-294.051 Y-1.441
X-294.001 Y-1.412
X-293.558 Y-1.169
X-293.506 Y-1.142
X-293.055 Y-0.916
X-293.001 Y-0.891
X-292.541 Y-0.681
X-292.488 Y-0.658
X-292.021 Y-0.466
G2 X-289.857 Y-1.637 I0.604 J-1.468
G3 X-283.092 Y-1 I3.352 J0.637
G2 X-281.505 Y0.587 I1.587 J0
G1 X-14.494
X-14.455
X-13.793 Y0.571
X-13.715 Y0.567
X-13.054 Y0.518
X-12.977 Y0.511
X-12.32 Y0.43
X-12.242 Y0.418
X-11.59 Y0.305
X-11.511 Y0.289
X-10.865 Y0.143
X-10.788 Y0.124
X-10.151 Y-0.054
X-10.076 Y-0.077
X-9.448 Y-0.286
X-9.374 Y-0.313
X-8.757 Y-0.552
X-8.686 Y-0.582
X-8.081 Y-0.852
X-8.012 Y-0.884
X-7.421 Y-1.183
X-7.354 Y-1.219
X-6.777 Y-1.545
X-6.712 Y-1.585
X-6.152 Y-1.938
X-6.088 Y-1.981
X-5.546 Y-2.361
X-5.485 Y-2.407
X-4.962 Y-2.813
X-4.902 Y-2.862
X-4.399 Y-3.293
X-4.341 Y-3.345
X-3.861 Y-3.801
X-3.805 Y-3.856
X-3.348 Y-4.335
X-3.294 Y-4.394
X-2.861 Y-4.895
X-2.81 Y-4.958
X-2.403 Y-5.48
X-2.356 Y-5.544
X-1.976 Y-6.086
X-1.932 Y-6.151
X-1.58 Y-6.712
X-1.54 Y-6.779
X-1.215 Y-7.355
X-1.179 Y-7.424
X-0.882 Y-8.016
X-0.85 Y-8.085
X-0.582 Y-8.691
X-0.553 Y-8.761
X-0.315 Y-9.38
X-0.289 Y-9.451
X-0.081 Y-10.08
X-0.059 Y-10.153
X0.119 Y-10.791
X0.137 Y-10.866
X0.284 Y-11.512
X0.299 Y-11.587
X0.414 Y-12.239
X0.426 Y-12.317
X0.508 Y-12.974
X0.516 Y-13.052
X0.566 Y-13.712
X0.57 Y-13.792
X0.587 Y-14.454
Y-14.494
Y-217.505
Y-217.544
X0.571 Y-218.206
X0.567 Y-218.284
X0.518 Y-218.945
X0.511 Y-219.022
X0.43 Y-219.679
X0.418 Y-219.756
X0.305 Y-220.409
X0.289 Y-220.488
X0.143 Y-221.134
X0.124 Y-221.211
X-0.054 Y-221.849
X-0.077 Y-221.924
X-0.286 Y-222.552
X-0.313 Y-222.625
X-0.552 Y-223.242
X-0.582 Y-223.313
X-0.851 Y-223.918
X-0.885 Y-223.987
X-1.183 Y-224.578
X-1.219 Y-224.646
X-1.545 Y-225.222
X-1.584 Y-225.287
X-1.938 Y-225.847
X-1.981 Y-225.911
X-2.361 Y-226.453
X-2.407 Y-226.515
X-2.813 Y-227.038
X-2.862 Y-227.098
X-3.293 Y-227.6
X-3.345 Y-227.657
X-3.8 Y-228.138
X-3.857 Y-228.195
X-4.335 Y-228.652
X-4.394 Y-228.705
X-4.895 Y-229.138
X-4.959 Y-229.19
X-5.481 Y-229.596
X-5.544 Y-229.643
X-6.086 Y-230.023
X-6.151 Y-230.066
X-6.711 Y-230.419
X-6.778 Y-230.459
X-7.355 Y-230.784
X-7.424 Y-230.821
X-8.016 Y-231.117
X-8.084 Y-231.149
X-8.69 Y-231.417
X-8.762 Y-231.446
X-9.38 Y-231.684
X-9.452 Y-231.71
X-10.08 Y-231.918
X-10.155 Y-231.941
X-10.793 Y-232.118
X-10.865 Y-232.136
X-11.51 Y-232.283
X-11.587 Y-232.298
X-12.239 Y-232.413
X-12.318 Y-232.425
X-12.975 Y-232.507
X-13.052 Y-232.515
X-13.712 Y-232.565
X-13.791 Y-232.569
X-14.454 Y-232.586
X-14.494 Y-232.587
X-150.499
X-200
G2 X-201.587 Y-230.999 I0 J1.588
G1 Y-230.261
S8000
Y-177.53 Z-1.8 F1016
S6000
Y-107.588 F1500
X-299.999
G2 X-301.586 Y-106 I0 J1.588
G1 Y-14.494
Y-14.466
X-301.577 Y-13.961
X-301.575 Y-13.898
X-301.546 Y-13.393
X-301.542 Y-13.337
X-301.495 Y-12.834
X-301.488 Y-12.774
X-301.422 Y-12.273
X-301.413 Y-12.213
X-301.328 Y-11.715
X-301.317 Y-11.659
X-301.214 Y-11.164
X-301.2 Y-11.101
X-301.077 Y-10.611
X-301.061 Y-10.555
X-300.92 Y-10.07
X-300.903 Y-10.013
X-300.744 Y-9.534
X-300.724 Y-9.478
X-300.547 Y-9.005
X-300.525 Y-8.948
X-300.329 Y-8.482
X-300.307 Y-8.431
X-300.096 Y-7.973
X-300.07 Y-7.919
X-299.842 Y-7.469
X-299.814 Y-7.416
X-299.569 Y-6.974
X-299.54 Y-6.924
X-299.279 Y-6.491
X-299.249 Y-6.443
X-298.973 Y-6.021
X-298.939 Y-5.971
X-298.647 Y-5.559
X-298.613 Y-5.511
X-298.306 Y-5.11
X-298.27 Y-5.065
X-297.949 Y-4.676
X-297.909 Y-4.63
X-297.573 Y-4.253
X-297.533 Y-4.209
X-297.183 Y-3.845
X-297.141 Y-3.803
X-296.778 Y-3.452
X-296.732 Y-3.41
X-296.355 Y-3.073
X-296.31 Y-3.034
X-295.921 Y-2.712
X-295.873 Y-2.674
X-295.472 Y-2.368
X-295.422 Y-2.331
X-295.009 Y-2.04
X-294.96 Y-2.007
X-294.537 Y-1.732
X-294.485 Y-1.7
X-294.051 Y-1.441
X-294.001 Y-1.412
X-293.558 Y-1.169
X-293.506 Y-1.142
X-293.055 Y-0.916
X-293.001 Y-0.891
X-292.541 Y-0.681
X-292.488 Y-0.658
X-292.021 Y-0.466
G2 X-289.857 Y-1.637 I0.604 J-1.468
G3 X-283.092 Y-1 I3.352 J0.637
G2 X-281.505 Y0.587 I1.587 J0
G1 X-14.494
X-14.455
X-13.793 Y0.571
X-13.715 Y0.567
X-13.054 Y0.518
X-12.977 Y0.511
X-12.32 Y0.43
X-12.242 Y0.418
X-11.59 Y0.305
X-11.511 Y0.289
X-10.865 Y0.143
X-10.788 Y0.124
X-10.151 Y-0.054
X-10.076 Y-0.077
X-9.448 Y-0.286
X-9.374 Y-0.313
X-8.757 Y-0.552
X-8.686 Y-0.582
X-8.081 Y-0.852
X-8.012 Y-0.884
X-7.421 Y-1.183
X-7.354 Y-1.219
X-6.777 Y-1.545
X-6.712 Y-1.585
X-6.152 Y-1.938
X-6.088 Y-1.981
X-5.546 Y-2.361
X-5.485 Y-2.407
X-4.962 Y-2.813
X-4.902 Y-2.862
X-4.399 Y-3.293
X-4.341 Y-3.345
X-3.861 Y-3.801
X-3.805 Y-3.856
X-3.348 Y-4.335
X-3.294 Y-4.394
X-2.861 Y-4.895
X-2.81 Y-4.958
X-2.403 Y-5.48
X-2.356 Y-5.544
X-1.976 Y-6.086
X-1.932 Y-6.151
X-1.58 Y-6.712
X-1.54 Y-6.779
X-1.215 Y-7.355
X-1.179 Y-7.424
X-0.882 Y-8.016
X-0.85 Y-8.085
X-0.582 Y-8.691
X-0.553 Y-8.761
X-0.315 Y-9.38
X-0.289 Y-9.451
X-0.081 Y-10.08
X-0.059 Y-10.153
X0.119 Y-10.791
X0.137 Y-10.866
X0.284 Y-11.512
X0.299 Y-11.587
X0.414 Y-12.239
X0.426 Y-12.317
X0.508 Y-12.974
X0.516 Y-13.052
X0.566 Y-13.712
X0.57 Y-13.792
X0.587 Y-14.454
Y-14.494
Y-217.505
Y-217.544
X0.571 Y-218.206
X0.567 Y-218.284
X0.518 Y-218.945
X0.511 Y-219.022
X0.43 Y-219.679
X0.418 Y-219.756
X0.305 Y-220.409
X0.289 Y-220.488
X0.143 Y-221.134
X0.124 Y-221.211
X-0.054 Y-221.849
X-0.077 Y-221.924
X-0.286 Y-222.552
X-0.313 Y-222.625
X-0.552 Y-223.242
X-0.582 Y-223.313
X-0.851 Y-223.918
X-0.885 Y-223.987
X-1.183 Y-224.578
X-1.219 Y-224.646
X-1.545 Y-225.222
X-1.584 Y-225.287
X-1.938 Y-225.847
X-1.981 Y-225.911
X-2.361 Y-226.453
X-2.407 Y-226.515
X-2.813 Y-227.038
X-2.862 Y-227.098
X-3.293 Y-227.6
X-3.345 Y-227.657
X-3.8 Y-228.138
X-3.857 Y-228.195
X-4.335 Y-228.652
X-4.394 Y-228.705
X-4.895 Y-229.138
X-4.959 Y-229.19
X-5.481 Y-229.596
X-5.544 Y-229.643
X-6.086 Y-230.023
X-6.151 Y-230.066
X-6.711 Y-230.419
X-6.778 Y-230.459
X-7.355 Y-230.784
X-7.424 Y-230.821
X-8.016 Y-231.117
X-8.084 Y-231.149
X-8.69 Y-231.417
X-8.762 Y-231.446
X-9.38 Y-231.684
X-9.452 Y-231.71
X-10.08 Y-231.918
X-10.155 Y-231.941
X-10.793 Y-232.118
X-10.865 Y-232.136
X-11.51 Y-232.283
X-11.587 Y-232.298
X-12.239 Y-232.413
X-12.318 Y-232.425
X-12.975 Y-232.507
X-13.052 Y-232.515
X-13.712 Y-232.565
X-13.791 Y-232.569
X-14.454 Y-232.586
X-14.494 Y-232.587
X-200
G2 X-201.587 Y-230.999 I0 J1.588
G1 Y-177.53
S8000
Y-124.798 Z-2.4 F1016
S6000
Y-107.588 F1500
X-299.999
G2 X-301.586 Y-106 I0 J1.588
G1 Y-14.494
Y-14.466
X-301.577 Y-13.961
X-301.575 Y-13.898
X-301.546 Y-13.393
X-301.542 Y-13.337
X-301.495 Y-12.834
X-301.488 Y-12.774
X-301.422 Y-12.273
X-301.413 Y-12.213
X-301.328 Y-11.715
X-301.317 Y-11.659
X-301.214 Y-11.164
X-301.2 Y-11.101
X-301.077 Y-10.611
X-301.061 Y-10.555
X-300.92 Y-10.07
X-300.903 Y-10.013
X-300.744 Y-9.534
X-300.724 Y-9.478
X-300.547 Y-9.005
X-300.525 Y-8.948
X-300.329 Y-8.482
X-300.307 Y-8.431
X-300.096 Y-7.973
X-300.07 Y-7.919
X-299.842 Y-7.469
X-299.814 Y-7.416
X-299.569 Y-6.974
X-299.54 Y-6.924
X-299.279 Y-6.491
X-299.249 Y-6.443
X-298.973 Y-6.021
X-298.939 Y-5.971
X-298.647 Y-5.559
X-298.613 Y-5.511
X-298.306 Y-5.11
X-298.27 Y-5.065
X-297.949 Y-4.676
X-297.909 Y-4.63
X-297.573 Y-4.253
X-297.533 Y-4.209
X-297.183 Y-3.845
X-297.141 Y-3.803
X-296.778 Y-3.452
X-296.732 Y-3.41
X-296.355 Y-3.073
X-296.31 Y-3.034
X-295.921 Y-2.712
X-295.873 Y-2.674
X-295.472 Y-2.368
X-295.422 Y-2.331
X-295.009 Y-2.04
X-294.96 Y-2.007
X-294.537 Y-1.732
X-294.485 Y-1.7
X-294.051 Y-1.441
X-294.001 Y-1.412
X-293.558 Y-1.169
X-293.506 Y-1.142
X-293.055 Y-0.916
X-293.001 Y-0.891
X-292.541 Y-0.681
X-292.488 Y-0.658
X-292.021 Y-0.466
G2 X-289.857 Y-1.637 I0.604 J-1.468
G3 X-283.092 Y-1 I3.352 J0.637
G2 X-281.505 Y0.587 I1.587 J0
G1 X-14.494
X-14.455
X-13.793 Y0.571
X-13.715 Y0.567
X-13.054 Y0.518
X-12.977 Y0.511
X-12.32 Y0.43
X-12.242 Y0.418
X-11.59 Y0.305
X-11.511 Y0.289
X-10.865 Y0.143
X-10.788 Y0.124
X-10.151 Y-0.054
X-10.076 Y-0.077
X-9.448 Y-0.286
X-9.374 Y-0.313
X-8.757 Y-0.552
X-8.686 Y-0.582
X-8.081 Y-0.852
X-8.012 Y-0.884
X-7.421 Y-1.183
X-7.354 Y-1.219
X-6.777 Y-1.545
X-6.712 Y-1.585
X-6.152 Y-1.938
X-6.088 Y-1.981
X-5.546 Y-2.361
X-5.485 Y-2.407
X-4.962 Y-2.813
X-4.902 Y-2.862
X-4.399 Y-3.293
X-4.341 Y-3.345
X-3.861 Y-3.801
X-3.805 Y-3.856
X-3.348 Y-4.335
X-3.294 Y-4.394
X-2.861 Y-4.895
X-2.81 Y-4.958
X-2.403 Y-5.48
X-2.356 Y-5.544
X-1.976 Y-6.086
X-1.932 Y-6.151
X-1.58 Y-6.712
X-1.54 Y-6.779
X-1.215 Y-7.355
X-1.179 Y-7.424
X-0.882 Y-8.016
X-0.85 Y-8.085
X-0.582 Y-8.691
X-0.553 Y-8.761
X-0.315 Y-9.38
X-0.289 Y-9.451
X-0.081 Y-10.08
X-0.059 Y-10.153
X0.119 Y-10.791
X0.137 Y-10.866
X0.284 Y-11.512
X0.299 Y-11.587
X0.414 Y-12.239
X0.426 Y-12.317
X0.508 Y-12.974
X0.516 Y-13.052
X0.566 Y-13.712
X0.57 Y-13.792
X0.587 Y-14.454
Y-14.494
Y-217.505
Y-217.544
X0.571 Y-218.206
X0.567 Y-218.284
X0.518 Y-218.945
X0.511 Y-219.022
X0.43 Y-219.679
X0.418 Y-219.756
X0.305 Y-220.409
X0.289 Y-220.488
X0.143 Y-221.134
X0.124 Y-221.211
X-0.054 Y-221.849
X-0.077 Y-221.924
X-0.286 Y-222.552
X-0.313 Y-222.625
X-0.552 Y-223.242
X-0.582 Y-223.313
X-0.851 Y-223.918
X-0.885 Y-223.987
X-1.183 Y-224.578
X-1.219 Y-224.646
X-1.545 Y-225.222
X-1.584 Y-225.287
X-1.938 Y-225.847
X-1.981 Y-225.911
X-2.361 Y-226.453
X-2.407 Y-226.515
X-2.813 Y-227.038
X-2.862 Y-227.098
X-3.293 Y-227.6
X-3.345 Y-227.657
X-3.8 Y-228.138
X-3.857 Y-228.195
X-4.335 Y-228.652
X-4.394 Y-228.705
X-4.895 Y-229.138
X-4.959 Y-229.19
X-5.481 Y-229.596
X-5.544 Y-229.643
X-6.086 Y-230.023
X-6.151 Y-230.066
X-6.711 Y-230.419
X-6.778 Y-230.459
X-7.355 Y-230.784
X-7.424 Y-230.821
X-8.016 Y-231.117
X-8.084 Y-231.149
X-8.69 Y-231.417
X-8.762 Y-231.446
X-9.38 Y-231.684
X-9.452 Y-231.71
X-10.08 Y-231.918
X-10.155 Y-231.941
X-10.793 Y-232.118
X-10.865 Y-232.136
X-11.51 Y-232.283
X-11.587 Y-232.298
X-12.239 Y-232.413
X-12.318 Y-232.425
X-12.975 Y-232.507
X-13.052 Y-232.515
X-13.712 Y-232.565
X-13.791 Y-232.569
X-14.454 Y-232.586
X-14.494 Y-232.587
X-200
G2 X-201.587 Y-230.999 I0 J1.588
G1 Y-177.53
Y-124.798
S8000
Y-107.588 Z-2.596 F1016
X-237.108 Z-3
S6000
X-299.999 F1500
G2 X-301.586 Y-106 I0 J1.588
G1 Y-14.494
Y-14.466
X-301.577 Y-13.961
X-301.575 Y-13.898
X-301.546 Y-13.393
X-301.542 Y-13.337
X-301.495 Y-12.834
X-301.488 Y-12.774
X-301.422 Y-12.273
X-301.413 Y-12.213
X-301.328 Y-11.715
X-301.317 Y-11.659
X-301.214 Y-11.164
X-301.2 Y-11.101
X-301.077 Y-10.611
X-301.061 Y-10.555
X-300.92 Y-10.07
X-300.903 Y-10.013
X-300.744 Y-9.534
X-300.724 Y-9.478
X-300.547 Y-9.005
X-300.525 Y-8.948
X-300.329 Y-8.482
X-300.307 Y-8.431
X-300.096 Y-7.973
X-300.07 Y-7.919
X-299.842 Y-7.469
X-299.814 Y-7.416
X-299.569 Y-6.974
X-299.54 Y-6.924
X-299.279 Y-6.491
X-299.249 Y-6.443
X-298.973 Y-6.021
X-298.939 Y-5.971
X-298.647 Y-5.559
X-298.613 Y-5.511
X-298.306 Y-5.11
X-298.27 Y-5.065
X-297.949 Y-4.676
X-297.909 Y-4.63
X-297.573 Y-4.253
X-297.533 Y-4.209
X-297.183 Y-3.845
X-297.141 Y-3.803
X-296.778 Y-3.452
X-296.732 Y-3.41
X-296.355 Y-3.073
X-296.31 Y-3.034
X-295.921 Y-2.712
X-295.873 Y-2.674
X-295.472 Y-2.368
X-295.422 Y-2.331
X-295.009 Y-2.04
X-294.96 Y-2.007
X-294.537 Y-1.732
X-294.485 Y-1.7
X-294.051 Y-1.441
X-294.001 Y-1.412
X-293.558 Y-1.169
X-293.506 Y-1.142
X-293.055 Y-0.916
X-293.001 Y-0.891
X-292.541 Y-0.681
X-292.488 Y-0.658
X-292.021 Y-0.466
G2 X-289.857 Y-1.637 I0.604 J-1.468
G3 X-283.092 Y-1 I3.352 J0.637
G2 X-281.505 Y0.587 I1.587 J0
G1 X-14.494
X-14.455
X-13.793 Y0.571
X-13.715 Y0.567
X-13.054 Y0.518
X-12.977 Y0.511
X-12.32 Y0.43
X-12.242 Y0.418
X-11.59 Y0.305
X-11.511 Y0.289
X-10.865 Y0.143
X-10.788 Y0.124
X-10.151 Y-0.054
X-10.076 Y-0.077
X-9.448 Y-0.286
X-9.374 Y-0.313
X-8.757 Y-0.552
X-8.686 Y-0.582
X-8.081 Y-0.852
X-8.012 Y-0.884
X-7.421 Y-1.183
X-7.354 Y-1.219
X-6.777 Y-1.545
X-6.712 Y-1.585
X-6.152 Y-1.938
X-6.088 Y-1.981
X-5.546 Y-2.361
X-5.485 Y-2.407
X-4.962 Y-2.813
X-4.902 Y-2.862
X-4.399 Y-3.293
X-4.341 Y-3.345
X-3.861 Y-3.801
X-3.805 Y-3.856
X-3.348 Y-4.335
X-3.294 Y-4.394
X-2.861 Y-4.895
X-2.81 Y-4.958
X-2.403 Y-5.48
X-2.356 Y-5.544
X-1.976 Y-6.086
X-1.932 Y-6.151
X-1.58 Y-6.712
X-1.54 Y-6.779
X-1.215 Y-7.355
X-1.179 Y-7.424
X-0.882 Y-8.016
X-0.85 Y-8.085
X-0.582 Y-8.691
X-0.553 Y-8.761
X-0.315 Y-9.38
X-0.289 Y-9.451
X-0.081 Y-10.08
X-0.059 Y-10.153
X0.119 Y-10.791
X0.137 Y-10.866
X0.284 Y-11.512
X0.299 Y-11.587
X0.414 Y-12.239
X0.426 Y-12.317
X0.508 Y-12.974
X0.516 Y-13.052
X0.566 Y-13.712
X0.57 Y-13.792
X0.587 Y-14.454
Y-14.494
Y-217.505
Y-217.544
X0.571 Y-218.206
X0.567 Y-218.284
X0.518 Y-218.945
X0.511 Y-219.022
X0.43 Y-219.679
X0.418 Y-219.756
X0.305 Y-220.409
X0.289 Y-220.488
X0.143 Y-221.134
X0.124 Y-221.211
X-0.054 Y-221.849
X-0.077 Y-221.924
X-0.286 Y-222.552
X-0.313 Y-222.625
X-0.552 Y-223.242
X-0.582 Y-223.313
X-0.851 Y-223.918
X-0.885 Y-223.987
X-1.183 Y-224.578
X-1.219 Y-224.646
X-1.545 Y-225.222
X-1.584 Y-225.287
X-1.938 Y-225.847
X-1.981 Y-225.911
X-2.361 Y-226.453
X-2.407 Y-226.515
X-2.813 Y-227.038
X-2.862 Y-227.098
X-3.293 Y-227.6
X-3.345 Y-227.657
X-3.8 Y-228.138
X-3.857 Y-228.195
X-4.335 Y-228.652
X-4.394 Y-228.705
X-4.895 Y-229.138
X-4.959 Y-229.19
X-5.481 Y-229.596
X-5.544 Y-229.643
X-6.086 Y-230.023
X-6.151 Y-230.066
X-6.711 Y-230.419
X-6.778 Y-230.459
X-7.355 Y-230.784
X-7.424 Y-230.821
X-8.016 Y-231.117
X-8.084 Y-231.149
X-8.69 Y-231.417
X-8.762 Y-231.446
X-9.38 Y-231.684
X-9.452 Y-231.71
X-10.08 Y-231.918
X-10.155 Y-231.941
X-10.793 Y-232.118
X-10.865 Y-232.136
X-11.51 Y-232.283
X-11.587 Y-232.298
X-12.239 Y-232.413
X-12.318 Y-232.425
X-12.975 Y-232.507
X-13.052 Y-232.515
X-13.712 Y-232.565
X-13.791 Y-232.569
X-14.454 Y-232.586
X-14.494 Y-232.587
X-200
G2 X-201.587 Y-230.999 I0 J1.588
G1 Y-124.798
Y-107.588
X-237.108
S8000
X-289.84 Z-3.6 F1016
S6000
X-299.999 F1500
G2 X-301.586 Y-106 I0 J1.588
G1 Y-14.494
Y-14.466
X-301.577 Y-13.961
X-301.575 Y-13.898
X-301.546 Y-13.393
X-301.542 Y-13.337
X-301.495 Y-12.834
X-301.488 Y-12.774
X-301.422 Y-12.273
X-301.413 Y-12.213
X-301.328 Y-11.715
X-301.317 Y-11.659
X-301.214 Y-11.164
X-301.2 Y-11.101
X-301.077 Y-10.611
X-301.061 Y-10.555
X-300.92 Y-10.07
X-300.903 Y-10.013
X-300.744 Y-9.534
X-300.724 Y-9.478
X-300.547 Y-9.005
X-300.525 Y-8.948
X-300.329 Y-8.482
X-300.307 Y-8.431
X-300.096 Y-7.973
X-300.07 Y-7.919
X-299.842 Y-7.469
X-299.814 Y-7.416
X-299.569 Y-6.974
X-299.54 Y-6.924
X-299.279 Y-6.491
X-299.249 Y-6.443
X-298.973 Y-6.021
X-298.939 Y-5.971
X-298.647 Y-5.559
X-298.613 Y-5.511
X-298.306 Y-5.11
X-298.27 Y-5.065
X-297.949 Y-4.676
X-297.909 Y-4.63
X-297.573 Y-4.253
X-297.533 Y-4.209
X-297.183 Y-3.845
X-297.141 Y-3.803
X-296.778 Y-3.452
X-296.732 Y-3.41
X-296.355 Y-3.073
X-296.31 Y-3.034
X-295.921 Y-2.712
X-295.873 Y-2.674
X-295.472 Y-2.368
X-295.422 Y-2.331
X-295.009 Y-2.04
X-294.96 Y-2.007
X-294.537 Y-1.732
X-294.485 Y-1.7
X-294.051 Y-1.441
X-294.001 Y-1.412
X-293.558 Y-1.169
X-293.506 Y-1.142
X-293.055 Y-0.916
X-293.001 Y-0.891
X-292.541 Y-0.681
X-292.488 Y-0.658
X-292.021 Y-0.466
G2 X-289.857 Y-1.637 I0.604 J-1.468
G3 X-283.092 Y-1 I3.352 J0.637
G2 X-281.505 Y0.587 I1.587 J0
G1 X-218.839
Z-3.2
X-210.665
Z-3.6 F300
X-85.334 F1500
Z-3.2
X-77.159
Z-3.6 F300
X-14.494 F1500
X-14.455
X-13.793 Y0.571
X-13.715 Y0.567
X-13.054 Y0.518
X-12.977 Y0.511
X-12.32 Y0.43
X-12.242 Y0.418
X-11.59 Y0.305
X-11.511 Y0.289
X-10.865 Y0.143
X-10.788 Y0.124
X-10.151 Y-0.054
X-10.076 Y-0.077
X-9.448 Y-0.286
X-9.374 Y-0.313
X-8.757 Y-0.552
X-8.686 Y-0.582
X-8.081 Y-0.852
X-8.012 Y-0.884
X-7.421 Y-1.183
X-7.354 Y-1.219
X-6.777 Y-1.545
X-6.712 Y-1.585
X-6.152 Y-1.938
X-6.088 Y-1.981
X-5.546 Y-2.361
X-5.485 Y-2.407
X-4.962 Y-2.813
X-4.902 Y-2.862
X-4.399 Y-3.293
X-4.341 Y-3.345
X-3.861 Y-3.801
X-3.805 Y-3.856
X-3.348 Y-4.335
X-3.294 Y-4.394
X-2.861 Y-4.895
X-2.81 Y-4.958
X-2.403 Y-5.48
X-2.356 Y-5.544
X-1.976 Y-6.086
X-1.932 Y-6.151
X-1.58 Y-6.712
X-1.54 Y-6.779
X-1.215 Y-7.355
X-1.179 Y-7.424
X-0.882 Y-8.016
X-0.85 Y-8.085
X-0.582 Y-8.691
X-0.553 Y-8.761
X-0.315 Y-9.38
X-0.289 Y-9.451
X-0.081 Y-10.08
X-0.059 Y-10.153
X0.119 Y-10.791
X0.137 Y-10.866
X0.284 Y-11.512
X0.299 Y-11.587
X0.414 Y-12.239
X0.426 Y-12.317
X0.508 Y-12.974
X0.516 Y-13.052
X0.566 Y-13.712
X0.57 Y-13.792
X0.587 Y-14.454
Y-14.494
Y-111.912
Z-3.2
Y-120.088
Z-3.6 F300
Y-217.505 F1500
Y-217.544
X0.571 Y-218.206
X0.567 Y-218.284
X0.518 Y-218.945
X0.511 Y-219.022
X0.43 Y-219.679
X0.418 Y-219.756
X0.305 Y-220.409
X0.289 Y-220.488
X0.143 Y-221.134
X0.124 Y-221.211
X-0.054 Y-221.849
X-0.077 Y-221.924
X-0.286 Y-222.552
X-0.313 Y-222.625
X-0.552 Y-223.242
X-0.582 Y-223.313
X-0.851 Y-223.918
X-0.885 Y-223.987
X-1.183 Y-224.578
X-1.219 Y-224.646
X-1.545 Y-225.222
X-1.584 Y-225.287
X-1.938 Y-225.847
X-1.981 Y-225.911
X-2.361 Y-226.453
X-2.407 Y-226.515
X-2.813 Y-227.038
X-2.862 Y-227.098
X-3.293 Y-227.6
X-3.345 Y-227.657
X-3.8 Y-228.138
X-3.857 Y-228.195
X-4.335 Y-228.652
X-4.394 Y-228.705
X-4.895 Y-229.138
X-4.959 Y-229.19
X-5.481 Y-229.596
X-5.544 Y-229.643
X-6.086 Y-230.023
X-6.151 Y-230.066
X-6.711 Y-230.419
X-6.778 Y-230.459
X-7.355 Y-230.784
X-7.424 Y-230.821
X-8.016 Y-231.117
X-8.084 Y-231.149
X-8.69 Y-231.417
X-8.762 Y-231.446
X-9.38 Y-231.684
X-9.452 Y-231.71
X-10.08 Y-231.918
X-10.155 Y-231.941
X-10.793 Y-232.118
X-10.865 Y-232.136
X-11.51 Y-232.283
X-11.587 Y-232.298
X-12.239 Y-232.413
X-12.318 Y-232.425
X-12.975 Y-232.507
X-13.052 Y-232.515
X-13.712 Y-232.565
X-13.791 Y-232.569
X-14.454 Y-232.586
X-14.494 Y-232.587
X-103.16
Z-3.2
X-111.335
Z-3.6 F300
X-200 F1500
G2 X-201.587 Y-230.999 I0 J1.588
G1 Y-107.588
X-289.84
S8000
X-299.999 Z-3.716 F1016
G2 X-301.586 Y-106 Z-3.744 I0 J1.588
G1 Y-65.921 Z-4.2
S6000
Y-14.494 F1500
Y-14.466
X-301.577 Y-13.961
X-301.575 Y-13.898
X-301.546 Y-13.393
X-301.542 Y-13.337
X-301.495 Y-12.834
X-301.488 Y-12.774
X-301.422 Y-12.273
X-301.413 Y-12.213
X-301.328 Y-11.715
X-301.317 Y-11.659
X-301.214 Y-11.164
X-301.2 Y-11.101
X-301.077 Y-10.611
X-301.061 Y-10.555
X-300.92 Y-10.07
X-300.903 Y-10.013
X-300.744 Y-9.534
X-300.724 Y-9.478
X-300.547 Y-9.005
X-300.525 Y-8.948
X-300.329 Y-8.482
X-300.307 Y-8.431
X-300.096 Y-7.973
X-300.07 Y-7.919
X-299.842 Y-7.469
X-299.814 Y-7.416
X-299.569 Y-6.974
X-299.54 Y-6.924
X-299.279 Y-6.491
X-299.249 Y-6.443
X-298.973 Y-6.021
X-298.939 Y-5.971
X-298.647 Y-5.559
X-298.613 Y-5.511
X-298.306 Y-5.11
X-298.27 Y-5.065
X-297.949 Y-4.676
X-297.909 Y-4.63
X-297.573 Y-4.253
X-297.533 Y-4.209
X-297.183 Y-3.845
X-297.141 Y-3.803
X-296.778 Y-3.452
X-296.732 Y-3.41
X-296.355 Y-3.073
X-296.31 Y-3.034
X-295.921 Y-2.712
X-295.873 Y-2.674
X-295.472 Y-2.368
X-295.422 Y-2.331
X-295.009 Y-2.04
X-294.96 Y-2.007
X-294.537 Y-1.732
X-294.485 Y-1.7
X-294.051 Y-1.441
X-294.001 Y-1.412
X-293.558 Y-1.169
X-293.506 Y-1.142
X-293.055 Y-0.916
X-293.001 Y-0.891
X-292.541 Y-0.681
X-292.488 Y-0.658
X-292.021 Y-0.466
G2 X-289.857 Y-1.637 I0.604 J-1.468
G3 X-283.092 Y-1 I3.352 J0.637
G2 X-281.505 Y0.587 I1.587 J0
G1 X-218.839
Z-3.2
X-210.665
Z-4.2 F300
X-85.334 F1500
Z-3.2
X-77.159
Z-4.2 F300
X-14.494 F1500
X-14.455
X-13.793 Y0.571
X-13.715 Y0.567
X-13.054 Y0.518
X-12.977 Y0.511
X-12.32 Y0.43
X-12.242 Y0.418
X-11.59 Y0.305
X-11.511 Y0.289
X-10.865 Y0.143
X-10.788 Y0.124
X-10.151 Y-0.054
X-10.076 Y-0.077
X-9.448 Y-0.286
X-9.374 Y-0.313
X-8.757 Y-0.552
X-8.686 Y-0.582
X-8.081 Y-0.852
X-8.012 Y-0.884
X-7.421 Y-1.183
X-7.354 Y-1.219
X-6.777 Y-1.545
X-6.712 Y-1.585
X-6.152 Y-1.938
X-6.088 Y-1.981
X-5.546 Y-2.361
X-5.485 Y-2.407
X-4.962 Y-2.813
X-4.902 Y-2.862
X-4.399 Y-3.293
X-4.341 Y-3.345
X-3.861 Y-3.801
X-3.805 Y-3.856
X-3.348 Y-4.335
X-3.294 Y-4.394
X-2.861 Y-4.895
X-2.81 Y-4.958
X-2.403 Y-5.48
X-2.356 Y-5.544
X-1.976 Y-6.086
X-1.932 Y-6.151
X-1.58 Y-6.712
X-1.54 Y-6.779
X-1.215 Y-7.355
X-1.179 Y-7.424
X-0.882 Y-8.016
X-0.85 Y-8.085
X-0.582 Y-8.691
X-0.553 Y-8.761
X-0.315 Y-9.38
X-0.289 Y-9.451
X-0.081 Y-10.08
X-0.059 Y-10.153
X0.119 Y-10.791
X0.137 Y-10.866
X0.284 Y-11.512
X0.299 Y-11.587
X0.414 Y-12.239
X0.426 Y-12.317
X0.508 Y-12.974
X0.516 Y-13.052
X0.566 Y-13.712
X0.57 Y-13.792
X0.587 Y-14.454
Y-14.494
Y-111.912
Z-3.2
Y-120.088
Z-4.2 F300
Y-217.505 F1500
Y-217.544
X0.571 Y-218.206
X0.567 Y-218.284
X0.518 Y-218.945
X0.511 Y-219.022
X0.43 Y-219.679
X0.418 Y-219.756
X0.305 Y-220.409
X0.289 Y-220.488
X0.143 Y-221.134
X0.124 Y-221.211
X-0.054 Y-221.849
X-0.077 Y-221.924
X-0.286 Y-222.552
X-0.313 Y-222.625
X-0.552 Y-223.242
X-0.582 Y-223.313
X-0.851 Y-223.918
X-0.885 Y-223.987
X-1.183 Y-224.578
X-1.219 Y-224.646
X-1.545 Y-225.222
X-1.584 Y-225.287
X-1.938 Y-225.847
X-1.981 Y-225.911
X-2.361 Y-226.453
X-2.407 Y-226.515
X-2.813 Y-227.038
X-2.862 Y-227.098
X-3.293 Y-227.6
X-3.345 Y-227.657
X-3.8 Y-228.138
X-3.857 Y-228.195
X-4.335 Y-228.652
X-4.394 Y-228.705
X-4.895 Y-229.138
X-4.959 Y-229.19
X-5.481 Y-229.596
X-5.544 Y-229.643
X-6.086 Y-230.023
X-6.151 Y-230.066
X-6.711 Y-230.419
X-6.778 Y-230.459
X-7.355 Y-230.784
X-7.424 Y-230.821
X-8.016 Y-231.117
X-8.084 Y-231.149
X-8.69 Y-231.417
X-8.762 Y-231.446
X-9.38 Y-231.684
X-9.452 Y-231.71
X-10.08 Y-231.918
X-10.155 Y-231.941
X-10.793 Y-232.118
X-10.865 Y-232.136
X-11.51 Y-232.283
X-11.587 Y-232.298
X-12.239 Y-232.413
X-12.318 Y-232.425
X-12.975 Y-232.507
X-13.052 Y-232.515
X-13.712 Y-232.565
X-13.791 Y-232.569
X-14.454 Y-232.586
X-14.494 Y-232.587
X-103.16
Z-3.2
X-111.335
Z-4.2 F300
X-200 F1500
G2 X-201.587 Y-230.999 I0 J1.588
G1 Y-107.588
X-299.999
G2 X-301.586 Y-106 I0 J1.588
G1 Y-65.921
G0 Z15
G28 G91 Z0
G90
G28 G91 X0 Y0
G90
M5
M30
