(Mainbody_3mm)
(Bearbeiten)
(  Hersteller: ChinaCnc)
(  model: 3040T)
(  description: Generic 3-axis)
(T14  D=1.5 CR=0 - ZMIN=-3.2 - Schaftfraser)
G90 G94
G17
G21
(When using Fusion 360 for Personal Use, the feedrate of)
(rapid moves is reduced to match the feedrate of cutting)
(moves, which can increase machining time. Unrestricted rapid)
(moves are available with a Fusion 360 Subscription.)
G28 G91 Z0
G90

(Bohrfrasen12)
T14
S6000 M3
G54
G0 X60.748 Y52.931
Z15
G1 Z2 F600
Z0.15 F400
X60.74 Z0.104
X60.719 Z0.062
X60.686 Z0.029
X60.644 Z0.007
X60.598 Z0
X60.523
X60.476 Y52.923
X60.435 Y52.902
X60.401 Y52.869
X60.38 Y52.827
X60.373 Y52.781
G3 X62.373 Y52.781 Z-0.3 I1 J0 F600
X60.373 Y52.781 Z-0.6 I-1 J0
X62.373 Y52.781 Z-0.9 I1 J0
X60.373 Y52.781 Z-1.2 I-1 J0
X62.373 Y52.781 Z-1.5 I1 J0
X60.373 Y52.781 Z-1.8 I-1 J0
X62.373 Y52.781 Z-2.1 I1 J0
X60.373 Y52.781 Z-2.4 I-1 J0
X62.373 Y52.781 Z-2.7 I1 J0
X60.373 Y52.781 Z-3 I-1 J0
X61.873 Y51.915 Z-3.2 I1 J0
X60.873 Y53.647 I-0.5 J0.866
X61.873 Y51.915 I0.5 J-0.866
G1 X61.909 Y51.944
X61.935 Y51.983
X61.947 Y52.029
X61.945 Y52.076
X61.928 Y52.119
X61.89 Y52.184
X61.867 Y52.225 Z-3.193
X61.846 Y52.261 Z-3.171
X61.83 Y52.29 Z-3.138
X61.819 Y52.308 Z-3.096
X61.815 Y52.314 Z-3.05
Z5
X46.078 Y43.923
Z2
Z0.15 F400
X46.082 Y43.929 Z0.104
X46.094 Y43.947 Z0.062
X46.112 Y43.975 Z0.029
X46.135 Y44.009 Z0.007
X46.161 Y44.048 Z0
X46.202 Y44.111
X46.222 Y44.153
X46.227 Y44.2
X46.218 Y44.246
X46.194 Y44.287
X46.16 Y44.319
G3 X44.866 Y42.357 Z-0.3 I-0.647 J-0.981 F600
X46.16 Y44.319 Z-0.6 I0.647 J0.981
X44.866 Y42.357 Z-0.9 I-0.647 J-0.981
X46.16 Y44.319 Z-1.2 I0.647 J0.981
X44.866 Y42.357 Z-1.5 I-0.647 J-0.981
X46.16 Y44.319 Z-1.8 I0.647 J0.981
X44.866 Y42.357 Z-2.1 I-0.647 J-0.981
X46.16 Y44.319 Z-2.4 I0.647 J0.981
X44.866 Y42.357 Z-2.7 I-0.647 J-0.981
X46.16 Y44.319 Z-3 I0.647 J0.981
X44.34 Y43.408 Z-3.2 I-0.647 J-0.981
X46.686 Y43.268 I1.173 J-0.07
X44.34 Y43.408 I-1.173 J0.07
G1 X44.344 Y43.361
X44.363 Y43.318
X44.394 Y43.283
X44.435 Y43.259
X44.481 Y43.249
X44.555 Y43.245
X44.602 Y43.242 Z-3.193
X44.643 Y43.239 Z-3.171
X44.677 Y43.237 Z-3.138
X44.698 Y43.236 Z-3.096
X44.705 Z-3.05
Z5
X50.213 Y47.637
Z2
Z0.15 F400
X50.205 Z0.104
X50.184 Z0.062
X50.151 Z0.029
X50.109 Z0.007
X50.063 Z0
X49.988
X49.941 Y47.63
X49.9 Y47.609
X49.866 Y47.575
X49.845 Y47.534
X49.838 Y47.487
G3 X50.838 Y47.487 Z-0.3 I0.5 J0 F600
X49.838 Y47.487 Z-0.6 I-0.5 J0
X50.838 Y47.487 Z-0.9 I0.5 J0
X49.838 Y47.487 Z-1.2 I-0.5 J0
X50.838 Y47.487 Z-1.5 I0.5 J0
X49.838 Y47.487 Z-1.8 I-0.5 J0
X50.838 Y47.487 Z-2.1 I0.5 J0
X49.838 Y47.487 Z-2.4 I-0.5 J0
X50.838 Y47.487 Z-2.7 I0.5 J0
X49.838 Y47.487 Z-3 I-0.5 J0
X50.588 Y47.054 Z-3.2 I0.5 J0
X50.088 Y47.92 I-0.25 J0.433
X50.588 Y47.054 I0.25 J-0.433
G1 X50.624 Y47.084
X50.65 Y47.123
X50.662 Y47.169
X50.659 Y47.215
X50.643 Y47.259
X50.605 Y47.324
X50.582 Y47.364 Z-3.193
X50.561 Y47.401 Z-3.171
X50.544 Y47.429 Z-3.138
X50.534 Y47.448 Z-3.096
X50.53 Y47.454 Z-3.05
Z5
X54.288 Y43.451
Z2
Z0.15 F400
X54.285 Y43.458 Z0.104
X54.276 Y43.477 Z0.062
X54.262 Y43.508 Z0.029
X54.244 Y43.545 Z0.007
X54.225 Y43.588 Z0
X54.193 Y43.656
X54.167 Y43.695
X54.13 Y43.724
X54.086 Y43.74
X54.04 Y43.742
X53.994 Y43.729
G3 X54.98 Y41.596 Z-0.3 I0.493 J-1.067 F600
X53.994 Y43.729 Z-0.6 I-0.493 J1.067
X54.98 Y41.596 Z-0.9 I0.493 J-1.067
X53.994 Y43.729 Z-1.2 I-0.493 J1.067
X54.98 Y41.596 Z-1.5 I0.493 J-1.067
X53.994 Y43.729 Z-1.8 I-0.493 J1.067
X54.98 Y41.596 Z-2.1 I0.493 J-1.067
X53.994 Y43.729 Z-2.4 I-0.493 J1.067
X54.98 Y41.596 Z-2.7 I0.493 J-1.067
X53.994 Y43.729 Z-3 I-0.493 J1.067
X53.81 Y41.702 Z-3.2 I0.493 J-1.067
X55.165 Y43.622 I0.677 J0.96
X53.81 Y41.702 I-0.677 J-0.96
G1 X53.852 Y41.681
X53.899 Y41.675
X53.945 Y41.683
X53.986 Y41.705
X54.019 Y41.738
X54.062 Y41.799
X54.089 Y41.837 Z-3.193
X54.113 Y41.872 Z-3.171
X54.132 Y41.899 Z-3.138
X54.145 Y41.916 Z-3.096
X54.149 Y41.922 Z-3.05
Z5
X49.537 Y38.663
Z2
Z0.15 F400
X49.53 Z0.104
X49.509 Z0.062
X49.475 Z0.029
X49.434 Z0.007
X49.387 Z0
X49.312
X49.266 Y38.655
X49.224 Y38.634
X49.191 Y38.601
X49.17 Y38.559
X49.162 Y38.513
G3 X50.162 Y38.513 Z-0.3 I0.5 J0 F600
X49.162 Y38.513 Z-0.6 I-0.5 J0
X50.162 Y38.513 Z-0.9 I0.5 J0
X49.162 Y38.513 Z-1.2 I-0.5 J0
X50.162 Y38.513 Z-1.5 I0.5 J0
X49.162 Y38.513 Z-1.8 I-0.5 J0
X50.162 Y38.513 Z-2.1 I0.5 J0
X49.162 Y38.513 Z-2.4 I-0.5 J0
X50.162 Y38.513 Z-2.7 I0.5 J0
X49.162 Y38.513 Z-3 I-0.5 J0
X49.912 Y38.08 Z-3.2 I0.5 J0
X49.412 Y38.946 I-0.25 J0.433
X49.912 Y38.08 I0.25 J-0.433
G1 X49.949 Y38.109
X49.974 Y38.149
X49.986 Y38.194
X49.984 Y38.241
X49.967 Y38.285
X49.93 Y38.35
X49.906 Y38.39 Z-3.193
X49.886 Y38.426 Z-3.171
X49.869 Y38.455 Z-3.138
X49.858 Y38.473 Z-3.096
X49.855 Y38.479 Z-3.05
Z5
X38.002 Y33.369
Z2
Z0.15 F400
X37.995 Z0.104
X37.974 Z0.062
X37.94 Z0.029
X37.899 Z0.007
X37.852 Z0
X37.777
X37.731 Y33.362
X37.689 Y33.341
X37.656 Y33.308
X37.635 Y33.266
X37.627 Y33.219
G3 X39.627 Y33.219 Z-0.3 I1 J0 F600
X37.627 Y33.219 Z-0.6 I-1 J0
X39.627 Y33.219 Z-0.9 I1 J0
X37.627 Y33.219 Z-1.2 I-1 J0
X39.627 Y33.219 Z-1.5 I1 J0
X37.627 Y33.219 Z-1.8 I-1 J0
X39.627 Y33.219 Z-2.1 I1 J0
X37.627 Y33.219 Z-2.4 I-1 J0
X39.627 Y33.219 Z-2.7 I1 J0
X37.627 Y33.219 Z-3 I-1 J0
X39.127 Y32.353 Z-3.2 I1 J0
X38.127 Y34.085 I-0.5 J0.866
X39.127 Y32.353 I0.5 J-0.866
G1 X39.164 Y32.383
X39.189 Y32.422
X39.201 Y32.468
X39.199 Y32.514
X39.182 Y32.558
X39.145 Y32.623
X39.121 Y32.663 Z-3.193
X39.101 Y32.7 Z-3.171
X39.084 Y32.728 Z-3.138
X39.073 Y32.747 Z-3.096
X39.07 Y32.753 Z-3.05
Z5
X10.125 Y9.85
Z2
Z0.15 F400
X10.132 Z0.104
X10.154 Z0.062
X10.187 Z0.029
X10.229 Z0.007
X10.275 Z0
X10.35
X10.396 Y9.857
X10.438 Y9.879
X10.471 Y9.912
X10.493 Y9.954
X10.5 Y10
G3 X9.5 Y10 Z-0.3 I-0.5 J0 F600
X10.5 Y10 Z-0.6 I0.5 J0
X9.5 Y10 Z-0.9 I-0.5 J0
X10.5 Y10 Z-1.2 I0.5 J0
X9.5 Y10 Z-1.5 I-0.5 J0
X10.5 Y10 Z-1.8 I0.5 J0
X9.5 Y10 Z-2.1 I-0.5 J0
X10.5 Y10 Z-2.4 I0.5 J0
X9.5 Y10 Z-2.7 I-0.5 J0
X10.5 Y10 Z-3 I0.5 J0
X9.75 Y10.433 Z-3.2 I-0.5 J0
X10.25 Y9.567 I0.25 J-0.433
X9.75 Y10.433 I-0.25 J0.433
G1 X9.714 Y10.403
X9.688 Y10.364
X9.676 Y10.319
X9.678 Y10.272
X9.695 Y10.228
X9.733 Y10.163
X9.756 Y10.123 Z-3.193
X9.777 Y10.087 Z-3.171
X9.793 Y10.058 Z-3.138
X9.804 Y10.04 Z-3.096
X9.808 Y10.033 Z-3.05
Z5
X-9.875 Y9.85
Z2
Z0.15 F400
X-9.868 Z0.104
X-9.846 Z0.062
X-9.813 Z0.029
X-9.771 Z0.007
X-9.725 Z0
X-9.65
X-9.604 Y9.857
X-9.562 Y9.879
X-9.529 Y9.912
X-9.507 Y9.954
X-9.5 Y10
G3 X-10.5 Y10 Z-0.3 I-0.5 J0 F600
X-9.5 Y10 Z-0.6 I0.5 J0
X-10.5 Y10 Z-0.9 I-0.5 J0
X-9.5 Y10 Z-1.2 I0.5 J0
X-10.5 Y10 Z-1.5 I-0.5 J0
X-9.5 Y10 Z-1.8 I0.5 J0
X-10.5 Y10 Z-2.1 I-0.5 J0
X-9.5 Y10 Z-2.4 I0.5 J0
X-10.5 Y10 Z-2.7 I-0.5 J0
X-9.5 Y10 Z-3 I0.5 J0
X-10.25 Y10.433 Z-3.2 I-0.5 J0
X-9.75 Y9.567 I0.25 J-0.433
X-10.25 Y10.433 I-0.25 J0.433
G1 X-10.286 Y10.403
X-10.312 Y10.364
X-10.324 Y10.319
X-10.322 Y10.272
X-10.305 Y10.228
X-10.267 Y10.163
X-10.244 Y10.123 Z-3.193
X-10.223 Y10.087 Z-3.171
X-10.207 Y10.058 Z-3.138
X-10.196 Y10.04 Z-3.096
X-10.192 Y10.033 Z-3.05
Z5
X-9.875 Y-10.15
Z2
Z0.15 F400
X-9.868 Z0.104
X-9.846 Z0.062
X-9.813 Z0.029
X-9.771 Z0.007
X-9.725 Z0
X-9.65
X-9.604 Y-10.143
X-9.562 Y-10.121
X-9.529 Y-10.088
X-9.507 Y-10.046
X-9.5 Y-10
G3 X-10.5 Y-10 Z-0.3 I-0.5 J0 F600
X-9.5 Y-10 Z-0.6 I0.5 J0
X-10.5 Y-10 Z-0.9 I-0.5 J0
X-9.5 Y-10 Z-1.2 I0.5 J0
X-10.5 Y-10 Z-1.5 I-0.5 J0
X-9.5 Y-10 Z-1.8 I0.5 J0
X-10.5 Y-10 Z-2.1 I-0.5 J0
X-9.5 Y-10 Z-2.4 I0.5 J0
X-10.5 Y-10 Z-2.7 I-0.5 J0
X-9.5 Y-10 Z-3 I0.5 J0
X-10.25 Y-9.567 Z-3.2 I-0.5 J0
X-9.75 Y-10.433 I0.25 J-0.433
X-10.25 Y-9.567 I-0.25 J0.433
G1 X-10.286 Y-9.597
X-10.312 Y-9.636
X-10.324 Y-9.681
X-10.322 Y-9.728
X-10.305 Y-9.772
X-10.267 Y-9.837
X-10.244 Y-9.877 Z-3.193
X-10.223 Y-9.913 Z-3.171
X-10.207 Y-9.942 Z-3.138
X-10.196 Y-9.96 Z-3.096
X-10.192 Y-9.967 Z-3.05
Z5
X10.125 Y-10.15
Z2
Z0.15 F400
X10.132 Z0.104
X10.154 Z0.062
X10.187 Z0.029
X10.229 Z0.007
X10.275 Z0
X10.35
X10.396 Y-10.143
X10.438 Y-10.121
X10.471 Y-10.088
X10.493 Y-10.046
X10.5 Y-10
G3 X9.5 Y-10 Z-0.3 I-0.5 J0 F600
X10.5 Y-10 Z-0.6 I0.5 J0
X9.5 Y-10 Z-0.9 I-0.5 J0
X10.5 Y-10 Z-1.2 I0.5 J0
X9.5 Y-10 Z-1.5 I-0.5 J0
X10.5 Y-10 Z-1.8 I0.5 J0
X9.5 Y-10 Z-2.1 I-0.5 J0
X10.5 Y-10 Z-2.4 I0.5 J0
X9.5 Y-10 Z-2.7 I-0.5 J0
X10.5 Y-10 Z-3 I0.5 J0
X9.75 Y-9.567 Z-3.2 I-0.5 J0
X10.25 Y-10.433 I0.25 J-0.433
X9.75 Y-9.567 I-0.25 J0.433
G1 X9.714 Y-9.597
X9.688 Y-9.636
X9.676 Y-9.681
X9.678 Y-9.728
X9.695 Y-9.772
X9.733 Y-9.837
X9.756 Y-9.877 Z-3.193
X9.777 Y-9.913 Z-3.171
X9.793 Y-9.942 Z-3.138
X9.804 Y-9.96 Z-3.096
X9.808 Y-9.967 Z-3.05
Z5
X38.002 Y-33.069
Z2
Z0.15 F400
X37.995 Z0.104
X37.974 Z0.062
X37.94 Z0.029
X37.899 Z0.007
X37.852 Z0
X37.777
X37.731 Y-33.077
X37.689 Y-33.098
X37.656 Y-33.131
X37.635 Y-33.173
X37.627 Y-33.219
G3 X39.627 Y-33.219 Z-0.3 I1 J0 F600
X37.627 Y-33.219 Z-0.6 I-1 J0
X39.627 Y-33.219 Z-0.9 I1 J0
X37.627 Y-33.219 Z-1.2 I-1 J0
X39.627 Y-33.219 Z-1.5 I1 J0
X37.627 Y-33.219 Z-1.8 I-1 J0
X39.627 Y-33.219 Z-2.1 I1 J0
X37.627 Y-33.219 Z-2.4 I-1 J0
X39.627 Y-33.219 Z-2.7 I1 J0
X37.627 Y-33.219 Z-3 I-1 J0
X39.127 Y-34.085 Z-3.2 I1 J0
X38.127 Y-32.353 I-0.5 J0.866
X39.127 Y-34.085 I0.5 J-0.866
G1 X39.164 Y-34.056
X39.189 Y-34.017
X39.201 Y-33.971
X39.199 Y-33.924
X39.182 Y-33.881
X39.145 Y-33.816
X39.121 Y-33.775 Z-3.193
X39.101 Y-33.739 Z-3.171
X39.084 Y-33.71 Z-3.138
X39.073 Y-33.692 Z-3.096
X39.07 Y-33.686 Z-3.05
Z5
X53.687 Y-42.512
Z2
Z0.15 F400
X53.68 Z0.104
X53.659 Z0.062
X53.625 Z0.029
X53.584 Z0.007
X53.537 Z0
X53.462
X53.416 Y-42.52
X53.374 Y-42.541
X53.341 Y-42.574
X53.32 Y-42.616
X53.312 Y-42.662
G3 X55.662 Y-42.662 Z-0.3 I1.175 J0 F600
X53.312 Y-42.662 Z-0.6 I-1.175 J0
X55.662 Y-42.662 Z-0.9 I1.175 J0
X53.312 Y-42.662 Z-1.2 I-1.175 J0
X55.662 Y-42.662 Z-1.5 I1.175 J0
X53.312 Y-42.662 Z-1.8 I-1.175 J0
X55.662 Y-42.662 Z-2.1 I1.175 J0
X53.312 Y-42.662 Z-2.4 I-1.175 J0
X55.662 Y-42.662 Z-2.7 I1.175 J0
X53.312 Y-42.662 Z-3 I-1.175 J0
X55.075 Y-43.68 Z-3.2 I1.175 J0
X53.9 Y-41.645 I-0.587 J1.018
X55.075 Y-43.68 I0.587 J-1.018
G1 X55.111 Y-43.65
X55.137 Y-43.611
X55.149 Y-43.566
X55.147 Y-43.519
X55.13 Y-43.475
X55.092 Y-43.41
X55.069 Y-43.37 Z-3.193
X55.048 Y-43.334 Z-3.171
X55.032 Y-43.305 Z-3.138
X55.021 Y-43.286 Z-3.096
X55.017 Y-43.28 Z-3.05
Z5
X49.537 Y-38.363
Z2
Z0.15 F400
X49.53 Z0.104
X49.509 Z0.062
X49.475 Z0.029
X49.434 Z0.007
X49.387 Z0
X49.312
X49.266 Y-38.37
X49.224 Y-38.391
X49.191 Y-38.425
X49.17 Y-38.466
X49.162 Y-38.513
G3 X50.162 Y-38.513 Z-0.3 I0.5 J0 F600
X49.162 Y-38.513 Z-0.6 I-0.5 J0
X50.162 Y-38.513 Z-0.9 I0.5 J0
X49.162 Y-38.513 Z-1.2 I-0.5 J0
X50.162 Y-38.513 Z-1.5 I0.5 J0
X49.162 Y-38.513 Z-1.8 I-0.5 J0
X50.162 Y-38.513 Z-2.1 I0.5 J0
X49.162 Y-38.513 Z-2.4 I-0.5 J0
X50.162 Y-38.513 Z-2.7 I0.5 J0
X49.162 Y-38.513 Z-3 I-0.5 J0
X49.912 Y-38.946 Z-3.2 I0.5 J0
X49.412 Y-38.08 I-0.25 J0.433
X49.912 Y-38.946 I0.25 J-0.433
G1 X49.949 Y-38.916
X49.974 Y-38.877
X49.986 Y-38.831
X49.984 Y-38.785
X49.967 Y-38.741
X49.93 Y-38.676
X49.906 Y-38.636 Z-3.193
X49.886 Y-38.599 Z-3.171
X49.869 Y-38.571 Z-3.138
X49.858 Y-38.552 Z-3.096
X49.855 Y-38.546 Z-3.05
Z5
X44.713 Y-43.188
Z2
Z0.15 F400
X44.705 Z0.104
X44.684 Z0.062
X44.651 Z0.029
X44.609 Z0.007
X44.563 Z0
X44.488
X44.441 Y-43.195
X44.4 Y-43.216
X44.366 Y-43.25
X44.345 Y-43.291
X44.338 Y-43.338
G3 X46.688 Y-43.338 Z-0.3 I1.175 J0 F600
X44.338 Y-43.338 Z-0.6 I-1.175 J0
X46.688 Y-43.338 Z-0.9 I1.175 J0
X44.338 Y-43.338 Z-1.2 I-1.175 J0
X46.688 Y-43.338 Z-1.5 I1.175 J0
X44.338 Y-43.338 Z-1.8 I-1.175 J0
X46.688 Y-43.338 Z-2.1 I1.175 J0
X44.338 Y-43.338 Z-2.4 I-1.175 J0
X46.688 Y-43.338 Z-2.7 I1.175 J0
X44.338 Y-43.338 Z-3 I-1.175 J0
X46.1 Y-44.355 Z-3.2 I1.175 J0
X44.925 Y-42.32 I-0.588 J1.018
X46.1 Y-44.355 I0.588 J-1.018
G1 X46.137 Y-44.326
X46.162 Y-44.286
X46.174 Y-44.241
X46.172 Y-44.194
X46.155 Y-44.15
X46.118 Y-44.085
X46.094 Y-44.045 Z-3.193
X46.074 Y-44.009 Z-3.171
X46.057 Y-43.98 Z-3.138
X46.046 Y-43.962 Z-3.096
X46.043 Y-43.956 Z-3.05
Z5
X50.213 Y-47.337
Z2
Z0.15 F400
X50.205 Z0.104
X50.184 Z0.062
X50.151 Z0.029
X50.109 Z0.007
X50.063 Z0
X49.988
X49.941 Y-47.345
X49.9 Y-47.366
X49.866 Y-47.399
X49.845 Y-47.441
X49.838 Y-47.487
G3 X50.838 Y-47.487 Z-0.3 I0.5 J0 F600
X49.838 Y-47.487 Z-0.6 I-0.5 J0
X50.838 Y-47.487 Z-0.9 I0.5 J0
X49.838 Y-47.487 Z-1.2 I-0.5 J0
X50.838 Y-47.487 Z-1.5 I0.5 J0
X49.838 Y-47.487 Z-1.8 I-0.5 J0
X50.838 Y-47.487 Z-2.1 I0.5 J0
X49.838 Y-47.487 Z-2.4 I-0.5 J0
X50.838 Y-47.487 Z-2.7 I0.5 J0
X49.838 Y-47.487 Z-3 I-0.5 J0
X50.588 Y-47.92 Z-3.2 I0.5 J0
X50.088 Y-47.054 I-0.25 J0.433
X50.588 Y-47.92 I0.25 J-0.433
G1 X50.624 Y-47.891
X50.65 Y-47.851
X50.662 Y-47.806
X50.659 Y-47.759
X50.643 Y-47.715
X50.605 Y-47.65
X50.582 Y-47.61 Z-3.193
X50.561 Y-47.574 Z-3.171
X50.544 Y-47.545 Z-3.138
X50.534 Y-47.527 Z-3.096
X50.53 Y-47.521 Z-3.05
Z5
X60.748 Y-52.631
Z2
Z0.15 F400
X60.74 Z0.104
X60.719 Z0.062
X60.686 Z0.029
X60.644 Z0.007
X60.598 Z0
X60.523
X60.476 Y-52.638
X60.435 Y-52.659
X60.401 Y-52.692
X60.38 Y-52.734
X60.373 Y-52.781
G3 X62.373 Y-52.781 Z-0.3 I1 J0 F600
X60.373 Y-52.781 Z-0.6 I-1 J0
X62.373 Y-52.781 Z-0.9 I1 J0
X60.373 Y-52.781 Z-1.2 I-1 J0
X62.373 Y-52.781 Z-1.5 I1 J0
X60.373 Y-52.781 Z-1.8 I-1 J0
X62.373 Y-52.781 Z-2.1 I1 J0
X60.373 Y-52.781 Z-2.4 I-1 J0
X62.373 Y-52.781 Z-2.7 I1 J0
X60.373 Y-52.781 Z-3 I-1 J0
X61.873 Y-53.647 Z-3.2 I1 J0
X60.873 Y-51.915 I-0.5 J0.866
X61.873 Y-53.647 I0.5 J-0.866
G1 X61.909 Y-53.617
X61.935 Y-53.578
X61.947 Y-53.532
X61.944 Y-53.486
X61.928 Y-53.442
X61.89 Y-53.377
X61.867 Y-53.337 Z-3.193
X61.846 Y-53.3 Z-3.171
X61.83 Y-53.272 Z-3.138
X61.819 Y-53.253 Z-3.096
X61.815 Y-53.247 Z-3.05
Z5
X-60.748 Y-52.931
Z2
Z0.15 F400
X-60.74 Z0.104
X-60.719 Z0.062
X-60.686 Z0.029
X-60.644 Z0.007
X-60.598 Z0
X-60.523
X-60.476 Y-52.923
X-60.435 Y-52.902
X-60.401 Y-52.869
X-60.38 Y-52.827
X-60.373 Y-52.781
G3 X-62.373 Y-52.781 Z-0.3 I-1 J0 F600
X-60.373 Y-52.781 Z-0.6 I1 J0
X-62.373 Y-52.781 Z-0.9 I-1 J0
X-60.373 Y-52.781 Z-1.2 I1 J0
X-62.373 Y-52.781 Z-1.5 I-1 J0
X-60.373 Y-52.781 Z-1.8 I1 J0
X-62.373 Y-52.781 Z-2.1 I-1 J0
X-60.373 Y-52.781 Z-2.4 I1 J0
X-62.373 Y-52.781 Z-2.7 I-1 J0
X-60.373 Y-52.781 Z-3 I1 J0
X-61.873 Y-51.915 Z-3.2 I-1 J0
X-60.873 Y-53.647 I0.5 J-0.866
X-61.873 Y-51.915 I-0.5 J0.866
G1 X-61.909 Y-51.944
X-61.935 Y-51.983
X-61.947 Y-52.029
X-61.945 Y-52.076
X-61.928 Y-52.119
X-61.89 Y-52.184
X-61.867 Y-52.225 Z-3.193
X-61.846 Y-52.261 Z-3.171
X-61.83 Y-52.29 Z-3.138
X-61.819 Y-52.308 Z-3.096
X-61.815 Y-52.314 Z-3.05
Z5
X-46.078 Y-43.923
Z2
Z0.15 F400
X-46.082 Y-43.929 Z0.104
X-46.094 Y-43.947 Z0.062
X-46.112 Y-43.975 Z0.029
X-46.135 Y-44.009 Z0.007
X-46.161 Y-44.048 Z0
X-46.202 Y-44.111
X-46.222 Y-44.153
X-46.227 Y-44.2
X-46.218 Y-44.246
X-46.194 Y-44.287
X-46.16 Y-44.319
G3 X-44.866 Y-42.357 Z-0.3 I0.647 J0.981 F600
X-46.16 Y-44.319 Z-0.6 I-0.647 J-0.981
X-44.866 Y-42.357 Z-0.9 I0.647 J0.981
X-46.16 Y-44.319 Z-1.2 I-0.647 J-0.981
X-44.866 Y-42.357 Z-1.5 I0.647 J0.981
X-46.16 Y-44.319 Z-1.8 I-0.647 J-0.981
X-44.866 Y-42.357 Z-2.1 I0.647 J0.981
X-46.16 Y-44.319 Z-2.4 I-0.647 J-0.981
X-44.866 Y-42.357 Z-2.7 I0.647 J0.981
X-46.16 Y-44.319 Z-3 I-0.647 J-0.981
X-44.34 Y-43.408 Z-3.2 I0.647 J0.981
X-46.686 Y-43.268 I-1.173 J0.07
X-44.34 Y-43.408 I1.173 J-0.07
G1 X-44.344 Y-43.361
X-44.363 Y-43.318
X-44.394 Y-43.283
X-44.435 Y-43.259
X-44.481 Y-43.249
X-44.555 Y-43.245
X-44.602 Y-43.242 Z-3.193
X-44.643 Y-43.239 Z-3.171
X-44.677 Y-43.237 Z-3.138
X-44.698 Y-43.236 Z-3.096
X-44.705 Z-3.05
Z5
X-50.213 Y-47.637
Z2
Z0.15 F400
X-50.205 Z0.104
X-50.184 Z0.062
X-50.151 Z0.029
X-50.109 Z0.007
X-50.063 Z0
X-49.988
X-49.941 Y-47.63
X-49.9 Y-47.609
X-49.866 Y-47.575
X-49.845 Y-47.534
X-49.838 Y-47.487
G3 X-50.838 Y-47.487 Z-0.3 I-0.5 J0 F600
X-49.838 Y-47.487 Z-0.6 I0.5 J0
X-50.838 Y-47.487 Z-0.9 I-0.5 J0
X-49.838 Y-47.487 Z-1.2 I0.5 J0
X-50.838 Y-47.487 Z-1.5 I-0.5 J0
X-49.838 Y-47.487 Z-1.8 I0.5 J0
X-50.838 Y-47.487 Z-2.1 I-0.5 J0
X-49.838 Y-47.487 Z-2.4 I0.5 J0
X-50.838 Y-47.487 Z-2.7 I-0.5 J0
X-49.838 Y-47.487 Z-3 I0.5 J0
X-50.588 Y-47.054 Z-3.2 I-0.5 J0
X-50.088 Y-47.92 I0.25 J-0.433
X-50.588 Y-47.054 I-0.25 J0.433
G1 X-50.624 Y-47.084
X-50.65 Y-47.123
X-50.662 Y-47.169
X-50.659 Y-47.215
X-50.643 Y-47.259
X-50.605 Y-47.324
X-50.582 Y-47.364 Z-3.193
X-50.561 Y-47.401 Z-3.171
X-50.544 Y-47.429 Z-3.138
X-50.534 Y-47.448 Z-3.096
X-50.53 Y-47.454 Z-3.05
Z5
X-54.288 Y-43.451
Z2
Z0.15 F400
X-54.285 Y-43.458 Z0.104
X-54.276 Y-43.477 Z0.062
X-54.262 Y-43.508 Z0.029
X-54.244 Y-43.545 Z0.007
X-54.225 Y-43.588 Z0
X-54.193 Y-43.656
X-54.167 Y-43.695
X-54.13 Y-43.724
X-54.086 Y-43.74
X-54.04 Y-43.742
X-53.994 Y-43.729
G3 X-54.98 Y-41.596 Z-0.3 I-0.493 J1.067 F600
X-53.994 Y-43.729 Z-0.6 I0.493 J-1.067
X-54.98 Y-41.596 Z-0.9 I-0.493 J1.067
X-53.994 Y-43.729 Z-1.2 I0.493 J-1.067
X-54.98 Y-41.596 Z-1.5 I-0.493 J1.067
X-53.994 Y-43.729 Z-1.8 I0.493 J-1.067
X-54.98 Y-41.596 Z-2.1 I-0.493 J1.067
X-53.994 Y-43.729 Z-2.4 I0.493 J-1.067
X-54.98 Y-41.596 Z-2.7 I-0.493 J1.067
X-53.994 Y-43.729 Z-3 I0.493 J-1.067
X-53.81 Y-41.702 Z-3.2 I-0.493 J1.067
X-55.165 Y-43.622 I-0.677 J-0.96
X-53.81 Y-41.702 I0.677 J0.96
G1 X-53.852 Y-41.681
X-53.899 Y-41.675
X-53.945 Y-41.683
X-53.986 Y-41.705
X-54.019 Y-41.738
X-54.062 Y-41.799
X-54.089 Y-41.837 Z-3.193
X-54.113 Y-41.872 Z-3.171
X-54.132 Y-41.899 Z-3.138
X-54.145 Y-41.916 Z-3.096
X-54.149 Y-41.922 Z-3.05
Z5
X-49.537 Y-38.663
Z2
Z0.15 F400
X-49.53 Z0.104
X-49.509 Z0.062
X-49.475 Z0.029
X-49.434 Z0.007
X-49.387 Z0
X-49.312
X-49.266 Y-38.655
X-49.224 Y-38.634
X-49.191 Y-38.601
X-49.17 Y-38.559
X-49.162 Y-38.513
G3 X-50.162 Y-38.513 Z-0.3 I-0.5 J0 F600
X-49.162 Y-38.513 Z-0.6 I0.5 J0
X-50.162 Y-38.513 Z-0.9 I-0.5 J0
X-49.162 Y-38.513 Z-1.2 I0.5 J0
X-50.162 Y-38.513 Z-1.5 I-0.5 J0
X-49.162 Y-38.513 Z-1.8 I0.5 J0
X-50.162 Y-38.513 Z-2.1 I-0.5 J0
X-49.162 Y-38.513 Z-2.4 I0.5 J0
X-50.162 Y-38.513 Z-2.7 I-0.5 J0
X-49.162 Y-38.513 Z-3 I0.5 J0
X-49.912 Y-38.08 Z-3.2 I-0.5 J0
X-49.412 Y-38.946 I0.25 J-0.433
X-49.912 Y-38.08 I-0.25 J0.433
G1 X-49.949 Y-38.109
X-49.974 Y-38.149
X-49.986 Y-38.194
X-49.984 Y-38.241
X-49.967 Y-38.285
X-49.93 Y-38.35
X-49.906 Y-38.39 Z-3.193
X-49.886 Y-38.426 Z-3.171
X-49.869 Y-38.455 Z-3.138
X-49.858 Y-38.473 Z-3.096
X-49.855 Y-38.479 Z-3.05
Z5
X-38.002 Y-33.369
Z2
Z0.15 F400
X-37.995 Z0.104
X-37.974 Z0.062
X-37.94 Z0.029
X-37.899 Z0.007
X-37.852 Z0
X-37.777
X-37.731 Y-33.362
X-37.689 Y-33.341
X-37.656 Y-33.308
X-37.635 Y-33.266
X-37.627 Y-33.219
G3 X-39.627 Y-33.219 Z-0.3 I-1 J0 F600
X-37.627 Y-33.219 Z-0.6 I1 J0
X-39.627 Y-33.219 Z-0.9 I-1 J0
X-37.627 Y-33.219 Z-1.2 I1 J0
X-39.627 Y-33.219 Z-1.5 I-1 J0
X-37.627 Y-33.219 Z-1.8 I1 J0
X-39.627 Y-33.219 Z-2.1 I-1 J0
X-37.627 Y-33.219 Z-2.4 I1 J0
X-39.627 Y-33.219 Z-2.7 I-1 J0
X-37.627 Y-33.219 Z-3 I1 J0
X-39.127 Y-32.353 Z-3.2 I-1 J0
X-38.127 Y-34.085 I0.5 J-0.866
X-39.127 Y-32.353 I-0.5 J0.866
G1 X-39.164 Y-32.383
X-39.189 Y-32.422
X-39.201 Y-32.468
X-39.199 Y-32.514
X-39.182 Y-32.558
X-39.145 Y-32.623
X-39.121 Y-32.663 Z-3.193
X-39.101 Y-32.7 Z-3.171
X-39.084 Y-32.728 Z-3.138
X-39.073 Y-32.747 Z-3.096
X-39.07 Y-32.753 Z-3.05
Z5
X-38.002 Y33.069
Z2
Z0.15 F400
X-37.995 Z0.104
X-37.974 Z0.062
X-37.94 Z0.029
X-37.899 Z0.007
X-37.852 Z0
X-37.777
X-37.731 Y33.077
X-37.689 Y33.098
X-37.656 Y33.131
X-37.635 Y33.173
X-37.627 Y33.219
G3 X-39.627 Y33.219 Z-0.3 I-1 J0 F600
X-37.627 Y33.219 Z-0.6 I1 J0
X-39.627 Y33.219 Z-0.9 I-1 J0
X-37.627 Y33.219 Z-1.2 I1 J0
X-39.627 Y33.219 Z-1.5 I-1 J0
X-37.627 Y33.219 Z-1.8 I1 J0
X-39.627 Y33.219 Z-2.1 I-1 J0
X-37.627 Y33.219 Z-2.4 I1 J0
X-39.627 Y33.219 Z-2.7 I-1 J0
X-37.627 Y33.219 Z-3 I1 J0
X-39.127 Y34.085 Z-3.2 I-1 J0
X-38.127 Y32.353 I0.5 J-0.866
X-39.127 Y34.085 I-0.5 J0.866
G1 X-39.164 Y34.056
X-39.189 Y34.017
X-39.201 Y33.971
X-39.199 Y33.924
X-39.182 Y33.881
X-39.145 Y33.816
X-39.121 Y33.775 Z-3.193
X-39.101 Y33.739 Z-3.171
X-39.084 Y33.71 Z-3.138
X-39.073 Y33.692 Z-3.096
X-39.07 Y33.686 Z-3.05
Z5
X-54.172 Y41.912
Z2
Z0.15 F400
X-54.168 Y41.906 Z0.104
X-54.156 Y41.888 Z0.062
X-54.138 Y41.86 Z0.029
X-54.115 Y41.825 Z0.007
X-54.089 Y41.787 Z0
X-54.048 Y41.724
X-54.016 Y41.689
X-53.976 Y41.666
X-53.93 Y41.657
X-53.883 Y41.662
X-53.84 Y41.681
G3 X-55.134 Y43.643 Z-0.3 I-0.647 J0.981 F600
X-53.84 Y41.681 Z-0.6 I0.647 J-0.981
X-55.134 Y43.643 Z-0.9 I-0.647 J0.981
X-53.84 Y41.681 Z-1.2 I0.647 J-0.981
X-55.134 Y43.643 Z-1.5 I-0.647 J0.981
X-53.84 Y41.681 Z-1.8 I0.647 J-0.981
X-55.134 Y43.643 Z-2.1 I-0.647 J0.981
X-53.84 Y41.681 Z-2.4 I0.647 J-0.981
X-55.134 Y43.643 Z-2.7 I-0.647 J0.981
X-53.84 Y41.681 Z-3 I0.647 J-0.981
X-53.961 Y43.713 Z-3.2 I-0.647 J0.981
X-55.013 Y41.612 I-0.526 J-1.051
X-53.961 Y43.713 I0.526 J1.051
G1 X-54.006 Y43.727
X-54.053
X-54.098 Y43.712
X-54.135 Y43.684
X-54.163 Y43.646
X-54.196 Y43.579
X-54.217 Y43.537 Z-3.193
X-54.236 Y43.5 Z-3.171
X-54.251 Y43.47 Z-3.138
X-54.26 Y43.451 Z-3.096
X-54.263 Y43.445 Z-3.05
Z5
X-49.537 Y38.363
Z2
Z0.15 F400
X-49.53 Z0.104
X-49.509 Z0.062
X-49.475 Z0.029
X-49.434 Z0.007
X-49.387 Z0
X-49.312
X-49.266 Y38.37
X-49.224 Y38.391
X-49.191 Y38.425
X-49.17 Y38.466
X-49.162 Y38.513
G3 X-50.162 Y38.513 Z-0.3 I-0.5 J0 F600
X-49.162 Y38.513 Z-0.6 I0.5 J0
X-50.162 Y38.513 Z-0.9 I-0.5 J0
X-49.162 Y38.513 Z-1.2 I0.5 J0
X-50.162 Y38.513 Z-1.5 I-0.5 J0
X-49.162 Y38.513 Z-1.8 I0.5 J0
X-50.162 Y38.513 Z-2.1 I-0.5 J0
X-49.162 Y38.513 Z-2.4 I0.5 J0
X-50.162 Y38.513 Z-2.7 I-0.5 J0
X-49.162 Y38.513 Z-3 I0.5 J0
X-49.912 Y38.946 Z-3.2 I-0.5 J0
X-49.412 Y38.08 I0.25 J-0.433
X-49.912 Y38.946 I-0.25 J0.433
G1 X-49.949 Y38.916
X-49.974 Y38.877
X-49.986 Y38.831
X-49.984 Y38.785
X-49.967 Y38.741
X-49.93 Y38.676
X-49.906 Y38.636 Z-3.193
X-49.886 Y38.599 Z-3.171
X-49.869 Y38.571 Z-3.138
X-49.858 Y38.552 Z-3.096
X-49.855 Y38.546 Z-3.05
Z5
X-45.828 Y44.088
Z2
Z0.15 F400
X-45.832 Y44.094 Z0.104
X-45.844 Y44.112 Z0.062
X-45.862 Y44.14 Z0.029
X-45.885 Y44.175 Z0.007
X-45.911 Y44.213 Z0
X-45.952 Y44.276
X-45.984 Y44.311
X-46.024 Y44.334
X-46.07 Y44.343
X-46.117 Y44.338
X-46.16 Y44.319
G3 X-44.866 Y42.357 Z-0.3 I0.647 J-0.981 F600
X-46.16 Y44.319 Z-0.6 I-0.647 J0.981
X-44.866 Y42.357 Z-0.9 I0.647 J-0.981
X-46.16 Y44.319 Z-1.2 I-0.647 J0.981
X-44.866 Y42.357 Z-1.5 I0.647 J-0.981
X-46.16 Y44.319 Z-1.8 I-0.647 J0.981
X-44.866 Y42.357 Z-2.1 I0.647 J-0.981
X-46.16 Y44.319 Z-2.4 I-0.647 J0.981
X-44.866 Y42.357 Z-2.7 I0.647 J-0.981
X-46.16 Y44.319 Z-3 I-0.647 J0.981
X-46.039 Y42.287 Z-3.2 I0.647 J-0.981
X-44.987 Y44.388 I0.526 J1.051
X-46.039 Y42.287 I-0.526 J-1.051
G1 X-45.994 Y42.273
X-45.947
X-45.902 Y42.288
X-45.865 Y42.316
X-45.837 Y42.354
X-45.804 Y42.421
X-45.783 Y42.463 Z-3.193
X-45.764 Y42.5 Z-3.171
X-45.749 Y42.53 Z-3.138
X-45.74 Y42.549 Z-3.096
X-45.737 Y42.555 Z-3.05
Z5
X-50.213 Y47.337
Z2
Z0.15 F400
X-50.205 Z0.104
X-50.184 Z0.062
X-50.151 Z0.029
X-50.109 Z0.007
X-50.063 Z0
X-49.988
X-49.941 Y47.345
X-49.9 Y47.366
X-49.866 Y47.399
X-49.845 Y47.441
X-49.838 Y47.487
G3 X-50.838 Y47.487 Z-0.3 I-0.5 J0 F600
X-49.838 Y47.487 Z-0.6 I0.5 J0
X-50.838 Y47.487 Z-0.9 I-0.5 J0
X-49.838 Y47.487 Z-1.2 I0.5 J0
X-50.838 Y47.487 Z-1.5 I-0.5 J0
X-49.838 Y47.487 Z-1.8 I0.5 J0
X-50.838 Y47.487 Z-2.1 I-0.5 J0
X-49.838 Y47.487 Z-2.4 I0.5 J0
X-50.838 Y47.487 Z-2.7 I-0.5 J0
X-49.838 Y47.487 Z-3 I0.5 J0
X-50.588 Y47.92 Z-3.2 I-0.5 J0
X-50.088 Y47.054 I0.25 J-0.433
X-50.588 Y47.92 I-0.25 J0.433
G1 X-50.624 Y47.891
X-50.65 Y47.851
X-50.662 Y47.806
X-50.659 Y47.759
X-50.643 Y47.715
X-50.605 Y47.65
X-50.582 Y47.61 Z-3.193
X-50.561 Y47.574 Z-3.171
X-50.544 Y47.545 Z-3.138
X-50.534 Y47.527 Z-3.096
X-50.53 Y47.521 Z-3.05
Z5
X-60.748 Y52.631
Z2
Z0.15 F400
X-60.74 Z0.104
X-60.719 Z0.062
X-60.686 Z0.029
X-60.644 Z0.007
X-60.598 Z0
X-60.523
X-60.476 Y52.638
X-60.435 Y52.659
X-60.401 Y52.692
X-60.38 Y52.734
X-60.373 Y52.781
G3 X-62.373 Y52.781 Z-0.3 I-1 J0 F600
X-60.373 Y52.781 Z-0.6 I1 J0
X-62.373 Y52.781 Z-0.9 I-1 J0
X-60.373 Y52.781 Z-1.2 I1 J0
X-62.373 Y52.781 Z-1.5 I-1 J0
X-60.373 Y52.781 Z-1.8 I1 J0
X-62.373 Y52.781 Z-2.1 I-1 J0
X-60.373 Y52.781 Z-2.4 I1 J0
X-62.373 Y52.781 Z-2.7 I-1 J0
X-60.373 Y52.781 Z-3 I1 J0
X-61.873 Y53.647 Z-3.2 I-1 J0
X-60.873 Y51.915 I0.5 J-0.866
X-61.873 Y53.647 I-0.5 J0.866
G1 X-61.909 Y53.617
X-61.935 Y53.578
X-61.947 Y53.532
X-61.944 Y53.486
X-61.928 Y53.442
X-61.89 Y53.377
X-61.867 Y53.337 Z-3.193
X-61.846 Y53.3 Z-3.171
X-61.83 Y53.272 Z-3.138
X-61.819 Y53.253 Z-3.096
X-61.815 Y53.247 Z-3.05
Z15
(When using Fusion 360 for Personal Use, the feedrate of)
(rapid moves is reduced to match the feedrate of cutting)
(moves, which can increase machining time. Unrestricted rapid)
(moves are available with a Fusion 360 Subscription.)

(Bohrfrasen13)
G0 X8.875 Y-0.15
G1 Z15 F600
Z2
Z0.15 F400
X8.882 Z0.104
X8.904 Z0.062
X8.937 Z0.029
X8.979 Z0.007
X9.025 Z0
X9.1
X9.146 Y-0.143
X9.188 Y-0.121
X9.221 Y-0.088
X9.243 Y-0.046
X9.25 Y0
G3 X-9.25 Y0 Z-0.3 I-9.25 J0 F600
X9.25 Y0 Z-0.6 I9.25 J0
X-9.25 Y0 Z-0.9 I-9.25 J0
X9.25 Y0 Z-1.2 I9.25 J0
X-9.25 Y0 Z-1.5 I-9.25 J0
X9.25 Y0 Z-1.8 I9.25 J0
X-9.25 Y0 Z-2.1 I-9.25 J0
X9.25 Y0 Z-2.4 I9.25 J0
X-9.25 Y0 Z-2.7 I-9.25 J0
X9.25 Y0 Z-3 I9.25 J0
X-4.625 Y8.011 Z-3.2 I-9.25 J0
X4.625 Y-8.011 I4.625 J-8.011
X-4.625 Y8.011 I-4.625 J8.011
G1 X-4.661 Y7.981
X-4.687 Y7.942
X-4.699 Y7.897
X-4.697 Y7.85
X-4.68 Y7.806
X-4.642 Y7.741
X-4.619 Y7.701 Z-3.193
X-4.598 Y7.665 Z-3.171
X-4.582 Y7.636 Z-3.138
X-4.571 Y7.617 Z-3.096
X-4.567 Y7.611 Z-3.05
Z15
(When using Fusion 360 for Personal Use, the feedrate of)
(rapid moves is reduced to match the feedrate of cutting)
(moves, which can increase machining time. Unrestricted rapid)
(moves are available with a Fusion 360 Subscription.)

(2D Adaptive3)
G0 X44.422 Y-44.823
G1 Z15 F600
Z5
Z-0.1
Z-0.25 F400
X44.43 Y-44.822 Z-0.296
X44.451 Z-0.338
X44.484 Y-44.821 Z-0.371
X44.526 Y-44.819 Z-0.393
X44.572 Y-44.817 Z-0.4
G3 X46.079 Y-44.374 I-0.113 J3.163
G1 X46.21 Y-44.289 F600
X46.232 Y-44.277
X46.331 Y-44.236
X46.529 Y-44.162
X46.667 Y-44.103
X46.789 Y-44.015
X46.895 Y-43.909
X46.972 Y-43.781
X47.028 Y-43.641
X47.07 Y-43.494
X47.099 Y-43.347
X47.102 Y-43.197
X47.086 Y-43.048
X47.05 Y-42.871
X47.009 Y-42.727
X46.969 Y-42.633
X46.904 Y-42.534
X46.81 Y-42.462
X46.697 Y-42.426
X46.628 Y-42.416
X46.56 Y-42.405
X46.232 Y-42.338
X46.202 Y-42.33
G3 X46.025 Y-42.507 I-0.03 J-0.147
G1 X46.121 Y-42.987
X46.23 Y-43.528
X46.335 Y-44.049 F400
X46.349 Y-44.089
X46.374 Y-44.123
X46.407 Y-44.149
X46.446 Y-44.165
X46.488 Y-44.169
X46.529 Y-44.162
X46.728 Y-44.089 F600
X46.827 Y-44.058
X46.926 Y-44.042
X47.074 Y-44.017
X47.206 Y-43.947
X47.319 Y-43.848
X47.411 Y-43.729
X47.482 Y-43.597
X47.533 Y-43.456
X47.566 Y-43.31
X47.584 Y-43.161
X47.586 Y-43.011
X47.574 Y-42.861
X47.545 Y-42.714
X47.498 Y-42.571
X47.491 Y-42.557
X47.394 Y-42.436
X47.253 Y-42.369
X47.098
X46.926 Y-42.409
X46.827 Y-42.429
X46.728 Y-42.43
X46.697 Y-42.426
X46.651 Y-42.428
X46.608 Y-42.444
X46.571 Y-42.473
X46.545 Y-42.511
X46.532 Y-42.556
X46.534 Y-42.602
X46.624 Y-43.1
X46.671 Y-43.357
X46.773 Y-43.918 F400
X46.786 Y-43.959
X46.811 Y-43.994
X46.844 Y-44.021
X46.883 Y-44.037
X46.926 Y-44.042
X46.976 Y-44.038 F600
X47.025 Y-44.037
X47.223 Y-44.057
X47.373 Y-44.065
X47.517 Y-44.022
X47.62 Y-43.986
X47.838 Y-43.97
X48.261 Y-44.082
X48.642 Y-44.298
X48.734 Y-44.356
X48.872 Y-44.437
X49.066 Y-44.532
X49.348 Y-44.642
X49.492 Y-44.686
X49.64 Y-44.712
X49.83 Y-44.73
X50.047 Y-44.732
X50.196 Y-44.722
X50.344 Y-44.693
X50.516 Y-44.642
X50.703 Y-44.571
X50.838 Y-44.506
X50.964 Y-44.424
X51.101 Y-44.316
X51.246 Y-44.181
X51.348 Y-44.07
X51.433 Y-43.947
X51.517 Y-43.797
X51.601 Y-43.616
X51.653 Y-43.475
X51.685 Y-43.328
X51.706 Y-43.159
X51.715 Y-42.957
X51.709 Y-42.808
X51.683 Y-42.66
X51.638 Y-42.496
X51.568 Y-42.305
X51.506 Y-42.169
X51.425 Y-42.043
X51.321 Y-41.909
X51.183 Y-41.759
X51.074 Y-41.656
X50.951 Y-41.57
X50.803 Y-41.486
X50.619 Y-41.4
X50.478 Y-41.348
X50.332 Y-41.315
X50.163 Y-41.294
X49.959 Y-41.285
X49.81 Y-41.291
X49.662 Y-41.316
X49.498 Y-41.361
X49.306 Y-41.431
X49.17 Y-41.494
X49.043 Y-41.574
X48.91 Y-41.678
X48.748 Y-41.826
X48.651 Y-41.875
X48.437 Y-41.921
X48.091 Y-41.913
X48.004 Y-41.922
X47.922 Y-41.952
X47.85 Y-42.001
X47.818 Y-42.029
X47.719 Y-42.113
X47.62 Y-42.191
X47.597 Y-42.207
X47.521 Y-42.246
X47.422 Y-42.281
X47.155 Y-42.355
X47.124 Y-42.363
X47.098 Y-42.369
X47.06 Y-42.385
X47.028 Y-42.411
X47.004 Y-42.445
X46.99 Y-42.484
X46.987 Y-42.526
X47.032 Y-43.101
X47.05 Y-43.338
X47.096 Y-43.92 F400
X47.104 Y-43.959
X47.123 Y-43.995
X47.15 Y-44.024
X47.185 Y-44.045
X47.223 Y-44.057
X47.422 Y-44.078 F600
X47.525 Y-44.091
X47.62 Y-44.107
X47.719 Y-44.134
X47.769 Y-44.156
X47.818 Y-44.183
X47.993 Y-44.289
X48.116 Y-44.369
X48.434 Y-44.587
X48.845 Y-44.884
X49.008 Y-45.003
X49.033 Y-45.015
X49.058 Y-45.024
X49.504 Y-45.15
X49.559 Y-45.166
X49.705 Y-45.199
X49.83 Y-45.216
X49.854 Y-45.218
X49.878 Y-45.219
X49.902 Y-45.218
G3 X49.958 Y-44.938 I-0.016 J0.149
G1 X49.935 Y-44.927 F400
X49.909 Y-44.92
X49.629 Y-44.875
G3 X49.559 Y-45.166 I-0.024 J-0.148
G1 X49.752 Y-45.22 F600
X49.777 Y-45.224
X49.802 Y-45.225
X50.198 Y-45.195
X50.297 Y-45.188
X50.34 Y-45.185
X50.488 Y-45.166
X50.608 Y-45.137
X50.63 Y-45.131
X50.651 Y-45.124
X50.672 Y-45.115
G3 X50.636 Y-44.834 I-0.067 J0.134
G1 X50.606 Y-44.831 F400
X50.576 Y-44.834
X50.305 Y-44.888
G3 X50.34 Y-45.185 I0.029 J-0.147
G1 X50.496 Y-45.173 F600
X50.545 Y-45.168
X50.57 Y-45.161
X50.595 Y-45.15
X50.962 Y-44.984
X50.992 Y-44.97
X51.046 Y-44.945
X51.179 Y-44.877
X51.319 Y-44.786
X51.351 Y-44.761
X51.372 Y-44.742
G3 X51.199 Y-44.503 I-0.109 J0.103
G1 X51.185 Y-44.511 F400
X50.911 Y-44.679
G3 X51.046 Y-44.945 I0.078 J-0.128
G1 X51.24 Y-44.857 F600
X51.264 Y-44.842
X51.289 Y-44.823
X51.587 Y-44.531
X51.729 Y-44.376
X51.83 Y-44.265
X51.921 Y-44.145
X52.001 Y-44.019
X52.071 Y-43.886
X52.13 Y-43.748
X52.178 Y-43.606
X52.217 Y-43.461
X52.246 Y-43.314
X52.265 Y-43.165
X52.272 Y-43.015
X52.269 Y-42.865
X52.255 Y-42.716
X52.233 Y-42.568
X52.201 Y-42.421
X52.159 Y-42.277
X52.106 Y-42.136
X52.045 Y-42
X51.974 Y-41.867
X51.896 Y-41.74
X51.81 Y-41.617
X51.774 Y-41.573
X51.752 Y-41.548
X51.727 Y-41.525
X51.7 Y-41.505
X51.566 Y-41.413
X51.289 Y-41.212
X51.19 Y-41.141
X51.155 Y-41.116
X51.03 Y-41.034
X50.885 Y-40.962
X50.851 Y-40.95
G3 X50.701 Y-41.194 I-0.036 J-0.146
G1 X50.72 Y-41.212 F400
X50.742 Y-41.227
X50.99 Y-41.365
G3 X51.155 Y-41.116 I0.073 J0.131
G1 X50.992 Y-40.997 F600
X50.967 Y-40.985
X50.942 Y-40.976
X50.595 Y-40.878
X50.496 Y-40.85
X50.441 Y-40.834
X50.295 Y-40.801
X50.135 Y-40.783
X50.101
X50.088
G3 X50.04 Y-41.068 I0.016 J-0.149
G1 X50.082 Y-41.081 F400
X50.372 Y-41.125
G3 X50.441 Y-40.834 I0.023 J0.148
G1 X50.248 Y-40.78 F600
X50.223 Y-40.776
X50.198 Y-40.775
X49.802 Y-40.805
X49.703 Y-40.812
X49.66 Y-40.815
X49.512 Y-40.834
X49.385 Y-40.865
X49.364 Y-40.871
X49.344 Y-40.878
X49.324 Y-40.886
G3 X49.364 Y-41.168 I0.067 J-0.134
G1 X49.392 Y-41.171 F400
X49.42 Y-41.168
X49.696 Y-41.112
G3 X49.66 Y-40.815 I-0.03 J0.147
G1 X49.504 Y-40.827 F600
X49.455 Y-40.832
X49.43 Y-40.839
X49.405 Y-40.85
X48.76 Y-41.143
X48.736 Y-41.158
X48.711 Y-41.177
X48.116 Y-41.762
X48.066 Y-41.81
X47.85 Y-42.001
X47.823 Y-42.036
X47.807 Y-42.078
X47.804 Y-42.123
X47.815 Y-42.167
X47.838 Y-42.205
X47.871 Y-42.235
X48.302 Y-42.517
X50.912 Y-44.224
X51.403 Y-44.546 F400
X51.439 Y-44.563
X51.478 Y-44.57
X51.517 Y-44.567
X51.554 Y-44.553
X51.587 Y-44.531
X51.884 Y-44.238 F600
X51.934 Y-44.19
X52.182 Y-43.971
X52.281 Y-43.887
X52.38 Y-43.809
X52.403 Y-43.793
X52.479 Y-43.754
X52.578 Y-43.719
X52.777 Y-43.664
X52.876 Y-43.637
X53.074 Y-43.591
X53.173 Y-43.571
X53.272 Y-43.57
X53.372 Y-43.584
X53.44 Y-43.595
X53.768 Y-43.662
X53.798 Y-43.67
X53.84 Y-43.672
X53.881 Y-43.663
X53.917 Y-43.643
X53.947 Y-43.614
X53.968 Y-43.578
X53.978 Y-43.537
X54.028 Y-43.006
X54.103 Y-42.222
X54.147 Y-41.77 F400
G3 X53.921 Y-41.626 I-0.149 J0.014
G1 X53.79 Y-41.711 F600
X53.768 Y-41.723
X53.669 Y-41.764
X53.272 Y-41.911
X53.173 Y-41.942
X53.074 Y-41.958
X53.024 Y-41.962
X52.975 Y-41.963
X52.777 Y-41.943
X52.578 Y-41.922
X52.475 Y-41.909
X52.38 Y-41.893
X52.281 Y-41.866
X52.231 Y-41.844
X52.182 Y-41.817
X52.007 Y-41.711
X51.884 Y-41.631
X51.7 Y-41.505
G3 X51.47 Y-41.631 I-0.08 J-0.127
G1 Y-41.632
G3 X51.696 Y-41.761 I0.15 J0
G1 X51.72 Y-41.731 Z-0.394
X51.743 Y-41.703 Z-0.379
X51.762 Y-41.679 Z-0.354
X51.766 Y-41.657 Z-0.324
X51.769 Y-41.643 Z-0.288
X51.77 Y-41.638 Z-0.25
Z5
X44.422 Y-44.823
Z-0.5
Z-0.65 F400
X44.43 Y-44.822 Z-0.696
X44.451 Z-0.738
X44.484 Y-44.821 Z-0.771
X44.526 Y-44.819 Z-0.793
X44.572 Y-44.817 Z-0.8
G3 X46.079 Y-44.374 I-0.113 J3.163
G1 X46.21 Y-44.289 F600
X46.232 Y-44.277
X46.331 Y-44.236
X46.529 Y-44.162
X46.667 Y-44.103
X46.789 Y-44.015
X46.895 Y-43.909
X46.972 Y-43.781
X47.028 Y-43.641
X47.07 Y-43.494
X47.099 Y-43.347
X47.102 Y-43.197
X47.086 Y-43.048
X47.05 Y-42.871
X47.009 Y-42.727
X46.969 Y-42.633
X46.904 Y-42.534
X46.81 Y-42.462
X46.697 Y-42.426
X46.628 Y-42.416
X46.56 Y-42.405
X46.232 Y-42.338
X46.202 Y-42.33
G3 X46.025 Y-42.507 I-0.03 J-0.147
G1 X46.121 Y-42.987
X46.23 Y-43.528
X46.335 Y-44.049 F400
X46.349 Y-44.089
X46.374 Y-44.123
X46.407 Y-44.149
X46.446 Y-44.165
X46.488 Y-44.169
X46.529 Y-44.162
X46.728 Y-44.089 F600
X46.827 Y-44.058
X46.926 Y-44.042
X47.074 Y-44.017
X47.206 Y-43.947
X47.319 Y-43.848
X47.411 Y-43.729
X47.482 Y-43.597
X47.533 Y-43.456
X47.566 Y-43.31
X47.584 Y-43.161
X47.586 Y-43.011
X47.574 Y-42.861
X47.545 Y-42.714
X47.498 Y-42.571
X47.491 Y-42.557
X47.394 Y-42.436
X47.253 Y-42.369
X47.098
X46.926 Y-42.409
X46.827 Y-42.429
X46.728 Y-42.43
X46.697 Y-42.426
X46.651 Y-42.428
X46.608 Y-42.444
X46.571 Y-42.473
X46.545 Y-42.511
X46.532 Y-42.556
X46.534 Y-42.602
X46.624 Y-43.1
X46.671 Y-43.357
X46.773 Y-43.918 F400
X46.786 Y-43.959
X46.811 Y-43.994
X46.844 Y-44.021
X46.883 Y-44.037
X46.926 Y-44.042
X46.976 Y-44.038 F600
X47.025 Y-44.037
X47.223 Y-44.057
X47.373 Y-44.065
X47.517 Y-44.022
X47.62 Y-43.986
X47.838 Y-43.97
X48.261 Y-44.082
X48.642 Y-44.298
X48.734 Y-44.356
X48.872 Y-44.437
X49.066 Y-44.532
X49.348 Y-44.642
X49.492 Y-44.686
X49.64 Y-44.712
X49.83 Y-44.73
X50.047 Y-44.732
X50.196 Y-44.722
X50.344 Y-44.693
X50.516 Y-44.642
X50.703 Y-44.571
X50.838 Y-44.506
X50.964 Y-44.424
X51.101 Y-44.316
X51.246 Y-44.181
X51.348 Y-44.07
X51.433 Y-43.947
X51.517 Y-43.797
X51.601 Y-43.616
X51.653 Y-43.475
X51.685 Y-43.328
X51.706 Y-43.159
X51.715 Y-42.957
X51.709 Y-42.808
X51.683 Y-42.66
X51.638 Y-42.496
X51.568 Y-42.305
X51.506 Y-42.169
X51.425 Y-42.043
X51.321 Y-41.909
X51.183 Y-41.759
X51.074 Y-41.656
X50.951 Y-41.57
X50.803 Y-41.486
X50.619 Y-41.4
X50.478 Y-41.348
X50.332 Y-41.315
X50.163 Y-41.294
X49.959 Y-41.285
X49.81 Y-41.291
X49.662 Y-41.316
X49.498 Y-41.361
X49.306 Y-41.431
X49.17 Y-41.494
X49.043 Y-41.574
X48.91 Y-41.678
X48.748 Y-41.826
X48.651 Y-41.875
X48.437 Y-41.921
X48.091 Y-41.913
X48.004 Y-41.922
X47.922 Y-41.952
X47.85 Y-42.001
X47.818 Y-42.029
X47.719 Y-42.113
X47.62 Y-42.191
X47.597 Y-42.207
X47.521 Y-42.246
X47.422 Y-42.281
X47.155 Y-42.355
X47.124 Y-42.363
X47.098 Y-42.369
X47.06 Y-42.385
X47.028 Y-42.411
X47.004 Y-42.445
X46.99 Y-42.484
X46.987 Y-42.526
X47.032 Y-43.101
X47.05 Y-43.338
X47.096 Y-43.92 F400
X47.104 Y-43.959
X47.123 Y-43.995
X47.15 Y-44.024
X47.185 Y-44.045
X47.223 Y-44.057
X47.422 Y-44.078 F600
X47.525 Y-44.091
X47.62 Y-44.107
X47.719 Y-44.134
X47.769 Y-44.156
X47.818 Y-44.183
X47.993 Y-44.289
X48.116 Y-44.369
X48.434 Y-44.587
X48.845 Y-44.884
X49.008 Y-45.003
X49.033 Y-45.015
X49.058 Y-45.024
X49.504 Y-45.15
X49.559 Y-45.166
X49.705 Y-45.199
X49.83 Y-45.216
X49.854 Y-45.218
X49.878 Y-45.219
X49.902 Y-45.218
G3 X49.958 Y-44.938 I-0.016 J0.149
G1 X49.935 Y-44.927 F400
X49.909 Y-44.92
X49.629 Y-44.875
G3 X49.559 Y-45.166 I-0.024 J-0.148
G1 X49.752 Y-45.22 F600
X49.777 Y-45.224
X49.802 Y-45.225
X50.198 Y-45.195
X50.297 Y-45.188
X50.34 Y-45.185
X50.488 Y-45.166
X50.608 Y-45.137
X50.63 Y-45.131
X50.651 Y-45.124
X50.672 Y-45.115
G3 X50.636 Y-44.834 I-0.067 J0.134
G1 X50.606 Y-44.831 F400
X50.576 Y-44.834
X50.305 Y-44.888
G3 X50.34 Y-45.185 I0.029 J-0.147
G1 X50.496 Y-45.173 F600
X50.545 Y-45.168
X50.57 Y-45.161
X50.595 Y-45.15
X50.962 Y-44.984
X50.992 Y-44.97
X51.046 Y-44.945
X51.179 Y-44.877
X51.319 Y-44.786
X51.351 Y-44.761
X51.372 Y-44.742
G3 X51.199 Y-44.503 I-0.109 J0.103
G1 X51.185 Y-44.511 F400
X50.911 Y-44.679
G3 X51.046 Y-44.945 I0.078 J-0.128
G1 X51.24 Y-44.857 F600
X51.264 Y-44.842
X51.289 Y-44.823
X51.587 Y-44.531
X51.729 Y-44.376
X51.83 Y-44.265
X51.921 Y-44.145
X52.001 Y-44.019
X52.071 Y-43.886
X52.13 Y-43.748
X52.178 Y-43.606
X52.217 Y-43.461
X52.246 Y-43.314
X52.265 Y-43.165
X52.272 Y-43.015
X52.269 Y-42.865
X52.255 Y-42.716
X52.233 Y-42.568
X52.201 Y-42.421
X52.159 Y-42.277
X52.106 Y-42.136
X52.045 Y-42
X51.974 Y-41.867
X51.896 Y-41.74
X51.81 Y-41.617
X51.774 Y-41.573
X51.752 Y-41.548
X51.727 Y-41.525
X51.7 Y-41.505
X51.566 Y-41.413
X51.289 Y-41.212
X51.19 Y-41.141
X51.155 Y-41.116
X51.03 Y-41.034
X50.885 Y-40.962
X50.851 Y-40.95
G3 X50.701 Y-41.194 I-0.036 J-0.146
G1 X50.72 Y-41.212 F400
X50.742 Y-41.227
X50.99 Y-41.365
G3 X51.155 Y-41.116 I0.073 J0.131
G1 X50.992 Y-40.997 F600
X50.967 Y-40.985
X50.942 Y-40.976
X50.595 Y-40.878
X50.496 Y-40.85
X50.441 Y-40.834
X50.295 Y-40.801
X50.135 Y-40.783
X50.101
X50.088
G3 X50.04 Y-41.068 I0.016 J-0.149
G1 X50.082 Y-41.081 F400
X50.372 Y-41.125
G3 X50.441 Y-40.834 I0.023 J0.148
G1 X50.248 Y-40.78 F600
X50.223 Y-40.776
X50.198 Y-40.775
X49.802 Y-40.805
X49.703 Y-40.812
X49.66 Y-40.815
X49.512 Y-40.834
X49.385 Y-40.865
X49.364 Y-40.871
X49.344 Y-40.878
X49.324 Y-40.886
G3 X49.364 Y-41.168 I0.067 J-0.134
G1 X49.392 Y-41.171 F400
X49.42 Y-41.168
X49.696 Y-41.112
G3 X49.66 Y-40.815 I-0.03 J0.147
G1 X49.504 Y-40.827 F600
X49.455 Y-40.832
X49.43 Y-40.839
X49.405 Y-40.85
X48.76 Y-41.143
X48.736 Y-41.158
X48.711 Y-41.177
X48.116 Y-41.762
X48.066 Y-41.81
X47.85 Y-42.001
X47.823 Y-42.036
X47.807 Y-42.078
X47.804 Y-42.123
X47.815 Y-42.167
X47.838 Y-42.205
X47.871 Y-42.235
X48.302 Y-42.517
X50.912 Y-44.224
X51.403 Y-44.546 F400
X51.439 Y-44.563
X51.478 Y-44.57
X51.517 Y-44.567
X51.554 Y-44.553
X51.587 Y-44.531
X51.884 Y-44.238 F600
X51.934 Y-44.19
X52.182 Y-43.971
X52.281 Y-43.887
X52.38 Y-43.809
X52.403 Y-43.793
X52.479 Y-43.754
X52.578 Y-43.719
X52.777 Y-43.664
X52.876 Y-43.637
X53.074 Y-43.591
X53.173 Y-43.571
X53.272 Y-43.57
X53.372 Y-43.584
X53.44 Y-43.595
X53.768 Y-43.662
X53.798 Y-43.67
X53.84 Y-43.672
X53.881 Y-43.663
X53.917 Y-43.643
X53.947 Y-43.614
X53.968 Y-43.578
X53.978 Y-43.537
X54.028 Y-43.006
X54.103 Y-42.222
X54.147 Y-41.77 F400
G3 X53.921 Y-41.626 I-0.149 J0.014
G1 X53.79 Y-41.711 F600
X53.768 Y-41.723
X53.669 Y-41.764
X53.272 Y-41.911
X53.173 Y-41.942
X53.074 Y-41.958
X53.024 Y-41.962
X52.975 Y-41.963
X52.777 Y-41.943
X52.578 Y-41.922
X52.475 Y-41.909
X52.38 Y-41.893
X52.281 Y-41.866
X52.231 Y-41.844
X52.182 Y-41.817
X52.007 Y-41.711
X51.884 Y-41.631
X51.7 Y-41.505
G3 X51.47 Y-41.631 I-0.08 J-0.127
G1 Y-41.632
G3 X51.696 Y-41.761 I0.15 J0
G1 X51.72 Y-41.731 Z-0.794
X51.743 Y-41.703 Z-0.779
X51.762 Y-41.679 Z-0.754
X51.766 Y-41.657 Z-0.724
X51.769 Y-41.643 Z-0.688
X51.77 Y-41.638 Z-0.65
Z5
X44.422 Y-44.823
Z-0.7
Z-0.85 F400
X44.43 Y-44.822 Z-0.896
X44.451 Z-0.938
X44.484 Y-44.821 Z-0.971
X44.526 Y-44.819 Z-0.993
X44.572 Y-44.817 Z-1
G3 X46.079 Y-44.374 I-0.113 J3.163
G1 X46.21 Y-44.289 F600
X46.232 Y-44.277
X46.331 Y-44.236
X46.529 Y-44.162
X46.667 Y-44.103
X46.789 Y-44.015
X46.895 Y-43.909
X46.972 Y-43.781
X47.028 Y-43.641
X47.07 Y-43.494
X47.099 Y-43.347
X47.102 Y-43.197
X47.086 Y-43.048
X47.05 Y-42.871
X47.009 Y-42.727
X46.969 Y-42.633
X46.904 Y-42.534
X46.81 Y-42.462
X46.697 Y-42.426
X46.628 Y-42.416
X46.56 Y-42.405
X46.232 Y-42.338
X46.202 Y-42.33
G3 X46.025 Y-42.507 I-0.03 J-0.147
G1 X46.121 Y-42.987
X46.23 Y-43.528
X46.335 Y-44.049 F400
X46.349 Y-44.089
X46.374 Y-44.123
X46.407 Y-44.149
X46.446 Y-44.165
X46.488 Y-44.169
X46.529 Y-44.162
X46.728 Y-44.089 F600
X46.827 Y-44.058
X46.926 Y-44.042
X47.074 Y-44.017
X47.206 Y-43.947
X47.319 Y-43.848
X47.411 Y-43.729
X47.482 Y-43.597
X47.533 Y-43.456
X47.566 Y-43.31
X47.584 Y-43.161
X47.586 Y-43.011
X47.574 Y-42.861
X47.545 Y-42.714
X47.498 Y-42.571
X47.491 Y-42.557
X47.394 Y-42.436
X47.253 Y-42.369
X47.098
X46.926 Y-42.409
X46.827 Y-42.429
X46.728 Y-42.43
X46.697 Y-42.426
X46.651 Y-42.428
X46.608 Y-42.444
X46.571 Y-42.473
X46.545 Y-42.511
X46.532 Y-42.556
X46.534 Y-42.602
X46.624 Y-43.1
X46.671 Y-43.357
X46.773 Y-43.918 F400
X46.786 Y-43.959
X46.811 Y-43.994
X46.844 Y-44.021
X46.883 Y-44.037
X46.926 Y-44.042
X46.976 Y-44.038 F600
X47.025 Y-44.037
X47.223 Y-44.057
X47.373 Y-44.065
X47.517 Y-44.022
X47.62 Y-43.986
X47.838 Y-43.97
X48.261 Y-44.082
X48.642 Y-44.298
X48.734 Y-44.356
X48.872 Y-44.437
X49.066 Y-44.532
X49.348 Y-44.642
X49.492 Y-44.686
X49.64 Y-44.712
X49.83 Y-44.73
X50.047 Y-44.732
X50.196 Y-44.722
X50.344 Y-44.693
X50.516 Y-44.642
X50.703 Y-44.571
X50.838 Y-44.506
X50.964 Y-44.424
X51.101 Y-44.316
X51.246 Y-44.181
X51.348 Y-44.07
X51.433 Y-43.947
X51.517 Y-43.797
X51.601 Y-43.616
X51.653 Y-43.475
X51.685 Y-43.328
X51.706 Y-43.159
X51.715 Y-42.957
X51.709 Y-42.808
X51.683 Y-42.66
X51.638 Y-42.496
X51.568 Y-42.305
X51.506 Y-42.169
X51.425 Y-42.043
X51.321 Y-41.909
X51.183 Y-41.759
X51.074 Y-41.656
X50.951 Y-41.57
X50.803 Y-41.486
X50.619 Y-41.4
X50.478 Y-41.348
X50.332 Y-41.315
X50.163 Y-41.294
X49.959 Y-41.285
X49.81 Y-41.291
X49.662 Y-41.316
X49.498 Y-41.361
X49.306 Y-41.431
X49.17 Y-41.494
X49.043 Y-41.574
X48.91 Y-41.678
X48.748 Y-41.826
X48.651 Y-41.875
X48.437 Y-41.921
X48.091 Y-41.913
X48.004 Y-41.922
X47.922 Y-41.952
X47.85 Y-42.001
X47.818 Y-42.029
X47.719 Y-42.113
X47.62 Y-42.191
X47.597 Y-42.207
X47.521 Y-42.246
X47.422 Y-42.281
X47.155 Y-42.355
X47.124 Y-42.363
X47.098 Y-42.369
X47.06 Y-42.385
X47.028 Y-42.411
X47.004 Y-42.445
X46.99 Y-42.484
X46.987 Y-42.526
X47.032 Y-43.101
X47.05 Y-43.338
X47.096 Y-43.92 F400
X47.104 Y-43.959
X47.123 Y-43.995
X47.15 Y-44.024
X47.185 Y-44.045
X47.223 Y-44.057
X47.422 Y-44.078 F600
X47.525 Y-44.091
X47.62 Y-44.107
X47.719 Y-44.134
X47.769 Y-44.156
X47.818 Y-44.183
X47.993 Y-44.289
X48.116 Y-44.369
X48.434 Y-44.587
X48.845 Y-44.884
X49.008 Y-45.003
X49.033 Y-45.015
X49.058 Y-45.024
X49.504 Y-45.15
X49.559 Y-45.166
X49.705 Y-45.199
X49.83 Y-45.216
X49.854 Y-45.218
X49.878 Y-45.219
X49.902 Y-45.218
G3 X49.958 Y-44.938 I-0.016 J0.149
G1 X49.935 Y-44.927 F400
X49.909 Y-44.92
X49.629 Y-44.875
G3 X49.559 Y-45.166 I-0.024 J-0.148
G1 X49.752 Y-45.22 F600
X49.777 Y-45.224
X49.802 Y-45.225
X50.198 Y-45.195
X50.297 Y-45.188
X50.34 Y-45.185
X50.488 Y-45.166
X50.608 Y-45.137
X50.63 Y-45.131
X50.651 Y-45.124
X50.672 Y-45.115
G3 X50.636 Y-44.834 I-0.067 J0.134
G1 X50.606 Y-44.831 F400
X50.576 Y-44.834
X50.305 Y-44.888
G3 X50.34 Y-45.185 I0.029 J-0.147
G1 X50.496 Y-45.173 F600
X50.545 Y-45.168
X50.57 Y-45.161
X50.595 Y-45.15
X50.962 Y-44.984
X50.992 Y-44.97
X51.046 Y-44.945
X51.179 Y-44.877
X51.319 Y-44.786
X51.351 Y-44.761
X51.372 Y-44.742
G3 X51.199 Y-44.503 I-0.109 J0.103
G1 X51.185 Y-44.511 F400
X50.911 Y-44.679
G3 X51.046 Y-44.945 I0.078 J-0.128
G1 X51.24 Y-44.857 F600
X51.264 Y-44.842
X51.289 Y-44.823
X51.587 Y-44.531
X51.729 Y-44.376
X51.83 Y-44.265
X51.921 Y-44.145
X52.001 Y-44.019
X52.071 Y-43.886
X52.13 Y-43.748
X52.178 Y-43.606
X52.217 Y-43.461
X52.246 Y-43.314
X52.265 Y-43.165
X52.272 Y-43.015
X52.269 Y-42.865
X52.255 Y-42.716
X52.233 Y-42.568
X52.201 Y-42.421
X52.159 Y-42.277
X52.106 Y-42.136
X52.045 Y-42
X51.974 Y-41.867
X51.896 Y-41.74
X51.81 Y-41.617
X51.774 Y-41.573
X51.752 Y-41.548
X51.727 Y-41.525
X51.7 Y-41.505
X51.566 Y-41.413
X51.289 Y-41.212
X51.19 Y-41.141
X51.155 Y-41.116
X51.03 Y-41.034
X50.885 Y-40.962
X50.851 Y-40.95
G3 X50.701 Y-41.194 I-0.036 J-0.146
G1 X50.72 Y-41.212 F400
X50.742 Y-41.227
X50.99 Y-41.365
G3 X51.155 Y-41.116 I0.073 J0.131
G1 X50.992 Y-40.997 F600
X50.967 Y-40.985
X50.942 Y-40.976
X50.595 Y-40.878
X50.496 Y-40.85
X50.441 Y-40.834
X50.295 Y-40.801
X50.135 Y-40.783
X50.101
X50.088
G3 X50.04 Y-41.068 I0.016 J-0.149
G1 X50.082 Y-41.081 F400
X50.372 Y-41.125
G3 X50.441 Y-40.834 I0.023 J0.148
G1 X50.248 Y-40.78 F600
X50.223 Y-40.776
X50.198 Y-40.775
X49.802 Y-40.805
X49.703 Y-40.812
X49.66 Y-40.815
X49.512 Y-40.834
X49.385 Y-40.865
X49.364 Y-40.871
X49.344 Y-40.878
X49.324 Y-40.886
G3 X49.364 Y-41.168 I0.067 J-0.134
G1 X49.392 Y-41.171 F400
X49.42 Y-41.168
X49.696 Y-41.112
G3 X49.66 Y-40.815 I-0.03 J0.147
G1 X49.504 Y-40.827 F600
X49.455 Y-40.832
X49.43 Y-40.839
X49.405 Y-40.85
X48.76 Y-41.143
X48.736 Y-41.158
X48.711 Y-41.177
X48.116 Y-41.762
X48.066 Y-41.81
X47.85 Y-42.001
X47.823 Y-42.036
X47.807 Y-42.078
X47.804 Y-42.123
X47.815 Y-42.167
X47.838 Y-42.205
X47.871 Y-42.235
X48.302 Y-42.517
X50.912 Y-44.224
X51.403 Y-44.546 F400
X51.439 Y-44.563
X51.478 Y-44.57
X51.517 Y-44.567
X51.554 Y-44.553
X51.587 Y-44.531
X51.884 Y-44.238 F600
X51.934 Y-44.19
X52.182 Y-43.971
X52.281 Y-43.887
X52.38 Y-43.809
X52.403 Y-43.793
X52.479 Y-43.754
X52.578 Y-43.719
X52.777 Y-43.664
X52.876 Y-43.637
X53.074 Y-43.591
X53.173 Y-43.571
X53.272 Y-43.57
X53.372 Y-43.584
X53.44 Y-43.595
X53.768 Y-43.662
X53.798 Y-43.67
X53.84 Y-43.672
X53.881 Y-43.663
X53.917 Y-43.643
X53.947 Y-43.614
X53.968 Y-43.578
X53.978 Y-43.537
X54.028 Y-43.006
X54.103 Y-42.222
X54.147 Y-41.77 F400
G3 X53.921 Y-41.626 I-0.149 J0.014
G1 X53.79 Y-41.711 F600
X53.768 Y-41.723
X53.669 Y-41.764
X53.272 Y-41.911
X53.173 Y-41.942
X53.074 Y-41.958
X53.024 Y-41.962
X52.975 Y-41.963
X52.777 Y-41.943
X52.578 Y-41.922
X52.475 Y-41.909
X52.38 Y-41.893
X52.281 Y-41.866
X52.231 Y-41.844
X52.182 Y-41.817
X52.007 Y-41.711
X51.884 Y-41.631
X51.7 Y-41.505
G3 X51.47 Y-41.631 I-0.08 J-0.127
G1 Y-41.632
G3 X51.77 Y-41.638 I0.15 J0
G1 Z15
X44.201 Y42.009
Z5
Z-0.1
Z-0.25 F400
X44.208 Y42.008 Z-0.296
X44.229 Y42.006 Z-0.338
X44.262 Y42.003 Z-0.371
X44.304 Y41.998 Z-0.393
X44.35 Y41.994 Z-0.4
G3 X45.904 Y42.224 I0.327 J3.148
G1 X45.934 Y42.238 F600
X46.033 Y42.28
X46.1 Y42.306
X46.232 Y42.338
X46.386 Y42.369
X46.531 Y42.407
X46.665 Y42.474
X46.787 Y42.561
X46.884 Y42.675
X46.961 Y42.804
X47.024 Y42.94
X47.076 Y43.081
X47.103 Y43.228
X47.11 Y43.378
X47.103 Y43.554
X47.085 Y43.703
X47.048 Y43.851
X46.996 Y43.942
X46.92 Y44.013
X46.826 Y44.058
X46.721 Y44.091
X46.331 Y44.236
X46.283 Y44.244
X46.236 Y44.236
X46.193 Y44.213
X46.159 Y44.178
X46.139 Y44.135
X46.134 Y44.087
X46.158 Y43.593
X46.185 Y43.041
X46.211 Y42.51 F400
X46.219 Y42.468
X46.238 Y42.431
X46.267 Y42.4
X46.303 Y42.379
X46.343 Y42.368
X46.386 Y42.369
X46.56 Y42.405 F600
X46.628 Y42.416
X46.728 Y42.43
X46.827 Y42.429
X46.977 Y42.427
X47.116 Y42.484
X47.239 Y42.569
X47.344 Y42.676
X47.431 Y42.798
X47.5 Y42.931
X47.553 Y43.072
X47.591 Y43.217
X47.614 Y43.365
X47.623 Y43.515
X47.615 Y43.665
X47.589 Y43.812
X47.587 Y43.818
X47.506 Y43.952
X47.374 Y44.037
X47.219 Y44.056
X47.025 Y44.037
X46.976 Y44.038
X46.926 Y44.042
X46.826 Y44.058
X46.779 Y44.063
X46.733 Y44.054
X46.692 Y44.03
X46.661 Y43.995
X46.641 Y43.952
X46.637 Y43.905
X46.665 Y43.404
X46.679 Y43.159
X46.712 Y42.566 F400
X46.722 Y42.52
X46.747 Y42.479
X46.783 Y42.447
X46.827 Y42.429
X46.944 Y42.405 F600
X47.124 Y42.363
X47.271 Y42.331
X47.418 Y42.362
X47.636 Y42.367
X47.846 Y42.305
X48.232 Y42.099
X48.567 Y41.818
X48.743 Y41.688
X48.866 Y41.603
X49.017 Y41.518
X49.235 Y41.418
X49.407 Y41.355
X49.551 Y41.315
X49.699 Y41.292
X49.899 Y41.276
X50.071
X50.22 Y41.288
X50.367 Y41.318
X50.543 Y41.371
X50.712 Y41.437
X50.847 Y41.502
X50.972 Y41.584
X51.111 Y41.694
X51.249 Y41.824
X51.35 Y41.935
X51.435 Y42.058
X51.52 Y42.209
X51.602 Y42.387
X51.653 Y42.528
X51.685 Y42.675
X51.706 Y42.844
X51.714 Y43.044
X51.708 Y43.194
X51.682 Y43.341
X51.637 Y43.506
X51.568 Y43.695
X51.505 Y43.831
X51.425 Y43.958
X51.32 Y44.092
X51.183 Y44.242
X51.073 Y44.344
X50.951 Y44.43
X50.803 Y44.514
X50.618 Y44.6
X50.478 Y44.652
X50.331 Y44.685
X50.163 Y44.706
X49.959 Y44.715
X49.809 Y44.709
X49.662 Y44.683
X49.498 Y44.639
X49.306 Y44.569
X49.17 Y44.506
X49.043 Y44.426
X48.957 Y44.359
X48.856 Y44.317
X48.638 Y44.296
X48.267 Y44.358
X48.181 Y44.361
X48.096 Y44.344
X48.019 Y44.306
X47.918 Y44.243
X47.818 Y44.183
X47.769 Y44.156
X47.719 Y44.134
X47.62 Y44.107
X47.521 Y44.09
X47.422 Y44.078
X47.219 Y44.056
X47.179 Y44.045
X47.144 Y44.023
X47.116 Y43.993
X47.098 Y43.956
X47.09 Y43.915
X47.06 Y43.338
X47.048 Y43.1
X47.019 Y42.514 F400
X47.022 Y42.475
X47.035 Y42.438
X47.058 Y42.405
X47.088 Y42.38
X47.124 Y42.363
X47.333 Y42.306 F600
X47.422 Y42.281
X47.521 Y42.246
X47.597 Y42.207
X47.62 Y42.191
X47.726 Y42.107
X47.818 Y42.029
X48.066 Y41.81
X48.116 Y41.762
X48.571 Y41.314
X48.711 Y41.177
X48.736 Y41.158
X48.76 Y41.143
X49.207 Y40.94
X49.256 Y40.917
X49.396 Y40.862
X49.501 Y40.834
X49.523 Y40.829
X49.544 Y40.825
X49.566 Y40.823
G3 X49.681 Y41.076 I0.006 J0.15
G1 X49.652 Y41.1 F400
X49.618 Y41.115
X49.369 Y41.195
X49.324 Y41.202
X49.323
G3 X49.256 Y40.917 I0 J-0.15
G1 X49.405 Y40.85 F600
X49.43 Y40.839
X49.455 Y40.832
X49.504 Y40.827
X49.901 Y40.797
X49.955 Y40.793
X50 Y40.79
X50.15 Y40.786
X50.295 Y40.799
X50.317 Y40.802
X50.338 Y40.806
X50.359 Y40.811
G3 X50.346 Y41.1 I-0.046 J0.143
G1 X50.306 Y41.104 F400
X50.009 Y41.089
G3 X50 Y40.79 I0.008 J-0.15
G1 X50.198 Y40.775 F600
X50.223 Y40.776
X50.248 Y40.78
X50.694 Y40.906
X50.734 Y40.917
X50.767 Y40.926
X50.909 Y40.975
X51.037 Y41.036
X51.055 Y41.046
X51.073 Y41.056
X51.09 Y41.068
G3 X50.985 Y41.336 I-0.092 J0.118
G1 X50.939 Y41.324 F400
X50.672 Y41.21
G3 X50.767 Y40.926 I0.059 J-0.138
G1 X50.942 Y40.976 F600
X50.967 Y40.985
X50.992 Y40.997
X51.388 Y41.284
X51.505 Y41.378
X51.621 Y41.474
X51.727 Y41.58
X51.825 Y41.693
X51.914 Y41.814
X51.994 Y41.941
X52.064 Y42.074
X52.123 Y42.211
X52.173 Y42.353
X52.213 Y42.498
X52.243 Y42.644
X52.264 Y42.793
X52.274 Y42.943
X52.273 Y43.093
X52.261 Y43.242
X52.241 Y43.391
X52.212 Y43.538
X52.172 Y43.683
X52.123 Y43.824
X52.064 Y43.962
X51.995 Y44.096
X51.971 Y44.137
X51.953 Y44.164
X51.933 Y44.19
X51.911 Y44.213
X51.785 Y44.336
X51.53 Y44.587
X51.487 Y44.628
X51.455 Y44.66
X51.343 Y44.76
X51.2 Y44.866
X51.146 Y44.898
X51.119 Y44.912
G3 X50.971 Y44.654 I-0.057 J-0.139
G1 X50.986 Y44.643
X51.255 Y44.438 F400
G3 X51.455 Y44.66 I0.091 J0.119
G1 X51.289 Y44.823 F600
X51.264 Y44.842
X51.24 Y44.857
X50.892 Y45.015
X50.793 Y45.06
X50.766 Y45.073
X50.626 Y45.128
X50.479 Y45.168
X50.457 Y45.173
X50.435 Y45.177
X50.413 Y45.179
G3 X50.333 Y44.899 I-0.006 J-0.15
G1 X50.363 Y44.886 F400
X50.655 Y44.795
G3 X50.766 Y45.073 I0.045 J0.143
G1 X50.595 Y45.15 F600
X50.57 Y45.161
X50.545 Y45.168
X50.496 Y45.173
X50.099 Y45.203
X50.045 Y45.207
X50 Y45.21
X49.85 Y45.214
X49.699 Y45.199
X49.678 Y45.197
X49.658 Y45.193
X49.637 Y45.188
G3 X49.653 Y44.898 I0.046 J-0.143
G1 X49.691 Y44.895 F400
X49.992 Y44.911
G3 X50 Y45.21 I-0.008 J0.15
G1 X49.802 Y45.225 F600
X49.777 Y45.224
X49.752 Y45.22
X49.058 Y45.024
X49.033 Y45.015
X49.008 Y45.003
X48.413 Y44.573
X48.116 Y44.369
X48.019 Y44.306
X47.986 Y44.275
X47.964 Y44.235
X47.955 Y44.191
X47.96 Y44.146
X47.977 Y44.104
X48.007 Y44.07
X48.394 Y43.734
X50.761 Y41.682
X51.206 Y41.295 F400
X51.248 Y41.27
X51.295 Y41.259
X51.344 Y41.264
X51.388 Y41.284
X51.587 Y41.427 F600
X51.884 Y41.631
X52.007 Y41.711
X52.182 Y41.817
X52.231 Y41.844
X52.281 Y41.866
X52.38 Y41.893
X52.479 Y41.91
X52.578 Y41.922
X52.777 Y41.943
X52.975 Y41.963
X53.024 Y41.962
X53.074 Y41.958
X53.173 Y41.942
X53.279 Y41.909
X53.669 Y41.764
X53.709 Y41.756
X53.75 Y41.76
X53.789 Y41.774
X53.822 Y41.799
X53.847 Y41.831
X53.862 Y41.869
X53.994 Y42.391
X54.189 Y43.162
X54.3 Y43.601 F400
G3 X54.096 Y43.776 I-0.145 J0.037
G1 X54.066 Y43.762 F600
X53.967 Y43.72
X53.9 Y43.694
X53.768 Y43.662
X53.44 Y43.595
X53.372 Y43.584
X53.272 Y43.57
X53.173 Y43.571
X53.056 Y43.595
X52.876 Y43.637
X52.667 Y43.694
X52.578 Y43.719
X52.479 Y43.754
X52.403 Y43.793
X52.38 Y43.809
X52.274 Y43.893
X52.182 Y43.971
X51.934 Y44.19
X51.911 Y44.213
G3 X51.712 Y43.988 I-0.099 J-0.112
X51.865 Y43.961 I0.099 J0.112
G1 X51.894 Y43.987 Z-0.394
X51.921 Y44.01 Z-0.379
X51.944 Y44.031 Z-0.354
X51.952 Y44.052 Z-0.324
X51.956 Y44.066 Z-0.288
X51.958 Y44.071 Z-0.25
Z5
X44.201 Y42.009
Z-0.5
Z-0.65 F400
X44.208 Y42.008 Z-0.696
X44.229 Y42.006 Z-0.738
X44.262 Y42.003 Z-0.771
X44.304 Y41.998 Z-0.793
X44.35 Y41.994 Z-0.8
G3 X45.904 Y42.224 I0.327 J3.148
G1 X45.934 Y42.238 F600
X46.033 Y42.28
X46.1 Y42.306
X46.232 Y42.338
X46.386 Y42.369
X46.531 Y42.407
X46.665 Y42.474
X46.787 Y42.561
X46.884 Y42.675
X46.961 Y42.804
X47.024 Y42.94
X47.076 Y43.081
X47.103 Y43.228
X47.11 Y43.378
X47.103 Y43.554
X47.085 Y43.703
X47.048 Y43.851
X46.996 Y43.942
X46.92 Y44.013
X46.826 Y44.058
X46.721 Y44.091
X46.331 Y44.236
X46.283 Y44.244
X46.236 Y44.236
X46.193 Y44.213
X46.159 Y44.178
X46.139 Y44.135
X46.134 Y44.087
X46.158 Y43.593
X46.185 Y43.041
X46.211 Y42.51 F400
X46.219 Y42.468
X46.238 Y42.431
X46.267 Y42.4
X46.303 Y42.379
X46.343 Y42.368
X46.386 Y42.369
X46.56 Y42.405 F600
X46.628 Y42.416
X46.728 Y42.43
X46.827 Y42.429
X46.977 Y42.427
X47.116 Y42.484
X47.239 Y42.569
X47.344 Y42.676
X47.431 Y42.798
X47.5 Y42.931
X47.553 Y43.072
X47.591 Y43.217
X47.614 Y43.365
X47.623 Y43.515
X47.615 Y43.665
X47.589 Y43.812
X47.587 Y43.818
X47.506 Y43.952
X47.374 Y44.037
X47.219 Y44.056
X47.025 Y44.037
X46.976 Y44.038
X46.926 Y44.042
X46.826 Y44.058
X46.779 Y44.063
X46.733 Y44.054
X46.692 Y44.03
X46.661 Y43.995
X46.641 Y43.952
X46.637 Y43.905
X46.665 Y43.404
X46.679 Y43.159
X46.712 Y42.566 F400
X46.722 Y42.52
X46.747 Y42.479
X46.783 Y42.447
X46.827 Y42.429
X46.944 Y42.405 F600
X47.124 Y42.363
X47.271 Y42.331
X47.418 Y42.362
X47.636 Y42.367
X47.846 Y42.305
X48.232 Y42.099
X48.567 Y41.818
X48.743 Y41.688
X48.866 Y41.603
X49.017 Y41.518
X49.235 Y41.418
X49.407 Y41.355
X49.551 Y41.315
X49.699 Y41.292
X49.899 Y41.276
X50.071
X50.22 Y41.288
X50.367 Y41.318
X50.543 Y41.371
X50.712 Y41.437
X50.847 Y41.502
X50.972 Y41.584
X51.111 Y41.694
X51.249 Y41.824
X51.35 Y41.935
X51.435 Y42.058
X51.52 Y42.209
X51.602 Y42.387
X51.653 Y42.528
X51.685 Y42.675
X51.706 Y42.844
X51.714 Y43.044
X51.708 Y43.194
X51.682 Y43.341
X51.637 Y43.506
X51.568 Y43.695
X51.505 Y43.831
X51.425 Y43.958
X51.32 Y44.092
X51.183 Y44.242
X51.073 Y44.344
X50.951 Y44.43
X50.803 Y44.514
X50.618 Y44.6
X50.478 Y44.652
X50.331 Y44.685
X50.163 Y44.706
X49.959 Y44.715
X49.809 Y44.709
X49.662 Y44.683
X49.498 Y44.639
X49.306 Y44.569
X49.17 Y44.506
X49.043 Y44.426
X48.957 Y44.359
X48.856 Y44.317
X48.638 Y44.296
X48.267 Y44.358
X48.181 Y44.361
X48.096 Y44.344
X48.019 Y44.306
X47.918 Y44.243
X47.818 Y44.183
X47.769 Y44.156
X47.719 Y44.134
X47.62 Y44.107
X47.521 Y44.09
X47.422 Y44.078
X47.219 Y44.056
X47.179 Y44.045
X47.144 Y44.023
X47.116 Y43.993
X47.098 Y43.956
X47.09 Y43.915
X47.06 Y43.338
X47.048 Y43.1
X47.019 Y42.514 F400
X47.022 Y42.475
X47.035 Y42.438
X47.058 Y42.405
X47.088 Y42.38
X47.124 Y42.363
X47.333 Y42.306 F600
X47.422 Y42.281
X47.521 Y42.246
X47.597 Y42.207
X47.62 Y42.191
X47.726 Y42.107
X47.818 Y42.029
X48.066 Y41.81
X48.116 Y41.762
X48.571 Y41.314
X48.711 Y41.177
X48.736 Y41.158
X48.76 Y41.143
X49.207 Y40.94
X49.256 Y40.917
X49.396 Y40.862
X49.501 Y40.834
X49.523 Y40.829
X49.544 Y40.825
X49.566 Y40.823
G3 X49.681 Y41.076 I0.006 J0.15
G1 X49.652 Y41.1 F400
X49.618 Y41.115
X49.369 Y41.195
X49.324 Y41.202
X49.323
G3 X49.256 Y40.917 I0 J-0.15
G1 X49.405 Y40.85 F600
X49.43 Y40.839
X49.455 Y40.832
X49.504 Y40.827
X49.901 Y40.797
X49.955 Y40.793
X50 Y40.79
X50.15 Y40.786
X50.295 Y40.799
X50.317 Y40.802
X50.338 Y40.806
X50.359 Y40.811
G3 X50.346 Y41.1 I-0.046 J0.143
G1 X50.306 Y41.104 F400
X50.009 Y41.089
G3 X50 Y40.79 I0.008 J-0.15
G1 X50.198 Y40.775 F600
X50.223 Y40.776
X50.248 Y40.78
X50.694 Y40.906
X50.734 Y40.917
X50.767 Y40.926
X50.909 Y40.975
X51.037 Y41.036
X51.055 Y41.046
X51.073 Y41.056
X51.09 Y41.068
G3 X50.985 Y41.336 I-0.092 J0.118
G1 X50.939 Y41.324 F400
X50.672 Y41.21
G3 X50.767 Y40.926 I0.059 J-0.138
G1 X50.942 Y40.976 F600
X50.967 Y40.985
X50.992 Y40.997
X51.388 Y41.284
X51.505 Y41.378
X51.621 Y41.474
X51.727 Y41.58
X51.825 Y41.693
X51.914 Y41.814
X51.994 Y41.941
X52.064 Y42.074
X52.123 Y42.211
X52.173 Y42.353
X52.213 Y42.498
X52.243 Y42.644
X52.264 Y42.793
X52.274 Y42.943
X52.273 Y43.093
X52.261 Y43.242
X52.241 Y43.391
X52.212 Y43.538
X52.172 Y43.683
X52.123 Y43.824
X52.064 Y43.962
X51.995 Y44.096
X51.971 Y44.137
X51.953 Y44.164
X51.933 Y44.19
X51.911 Y44.213
X51.785 Y44.336
X51.53 Y44.587
X51.487 Y44.628
X51.455 Y44.66
X51.343 Y44.76
X51.2 Y44.866
X51.146 Y44.898
X51.119 Y44.912
G3 X50.971 Y44.654 I-0.057 J-0.139
G1 X50.986 Y44.643
X51.255 Y44.438 F400
G3 X51.455 Y44.66 I0.091 J0.119
G1 X51.289 Y44.823 F600
X51.264 Y44.842
X51.24 Y44.857
X50.892 Y45.015
X50.793 Y45.06
X50.766 Y45.073
X50.626 Y45.128
X50.479 Y45.168
X50.457 Y45.173
X50.435 Y45.177
X50.413 Y45.179
G3 X50.333 Y44.899 I-0.006 J-0.15
G1 X50.363 Y44.886 F400
X50.655 Y44.795
G3 X50.766 Y45.073 I0.045 J0.143
G1 X50.595 Y45.15 F600
X50.57 Y45.161
X50.545 Y45.168
X50.496 Y45.173
X50.099 Y45.203
X50.045 Y45.207
X50 Y45.21
X49.85 Y45.214
X49.699 Y45.199
X49.678 Y45.197
X49.658 Y45.193
X49.637 Y45.188
G3 X49.653 Y44.898 I0.046 J-0.143
G1 X49.691 Y44.895 F400
X49.992 Y44.911
G3 X50 Y45.21 I-0.008 J0.15
G1 X49.802 Y45.225 F600
X49.777 Y45.224
X49.752 Y45.22
X49.058 Y45.024
X49.033 Y45.015
X49.008 Y45.003
X48.413 Y44.573
X48.116 Y44.369
X48.019 Y44.306
X47.986 Y44.275
X47.964 Y44.235
X47.955 Y44.191
X47.96 Y44.146
X47.977 Y44.104
X48.007 Y44.07
X48.394 Y43.734
X50.761 Y41.682
X51.206 Y41.295 F400
X51.248 Y41.27
X51.295 Y41.259
X51.344 Y41.264
X51.388 Y41.284
X51.587 Y41.427 F600
X51.884 Y41.631
X52.007 Y41.711
X52.182 Y41.817
X52.231 Y41.844
X52.281 Y41.866
X52.38 Y41.893
X52.479 Y41.91
X52.578 Y41.922
X52.777 Y41.943
X52.975 Y41.963
X53.024 Y41.962
X53.074 Y41.958
X53.173 Y41.942
X53.279 Y41.909
X53.669 Y41.764
X53.709 Y41.756
X53.75 Y41.76
X53.789 Y41.774
X53.822 Y41.799
X53.847 Y41.831
X53.862 Y41.869
X53.994 Y42.391
X54.189 Y43.162
X54.3 Y43.601 F400
G3 X54.096 Y43.776 I-0.145 J0.037
G1 X54.066 Y43.762 F600
X53.967 Y43.72
X53.9 Y43.694
X53.768 Y43.662
X53.44 Y43.595
X53.372 Y43.584
X53.272 Y43.57
X53.173 Y43.571
X53.056 Y43.595
X52.876 Y43.637
X52.667 Y43.694
X52.578 Y43.719
X52.479 Y43.754
X52.403 Y43.793
X52.38 Y43.809
X52.274 Y43.893
X52.182 Y43.971
X51.934 Y44.19
X51.911 Y44.213
G3 X51.712 Y43.988 I-0.099 J-0.112
X51.865 Y43.961 I0.099 J0.112
G1 X51.894 Y43.987 Z-0.794
X51.921 Y44.01 Z-0.779
X51.944 Y44.031 Z-0.754
X51.952 Y44.052 Z-0.724
X51.956 Y44.066 Z-0.688
X51.958 Y44.071 Z-0.65
Z5
X44.201 Y42.009
Z-0.7
Z-0.85 F400
X44.208 Y42.008 Z-0.896
X44.229 Y42.006 Z-0.938
X44.262 Y42.003 Z-0.971
X44.304 Y41.998 Z-0.993
X44.35 Y41.994 Z-1
G3 X45.904 Y42.224 I0.327 J3.148
G1 X45.934 Y42.238 F600
X46.033 Y42.28
X46.1 Y42.306
X46.232 Y42.338
X46.386 Y42.369
X46.531 Y42.407
X46.665 Y42.474
X46.787 Y42.561
X46.884 Y42.675
X46.961 Y42.804
X47.024 Y42.94
X47.076 Y43.081
X47.103 Y43.228
X47.11 Y43.378
X47.103 Y43.554
X47.085 Y43.703
X47.048 Y43.851
X46.996 Y43.942
X46.92 Y44.013
X46.826 Y44.058
X46.721 Y44.091
X46.331 Y44.236
X46.283 Y44.244
X46.236 Y44.236
X46.193 Y44.213
X46.159 Y44.178
X46.139 Y44.135
X46.134 Y44.087
X46.158 Y43.593
X46.185 Y43.041
X46.211 Y42.51 F400
X46.219 Y42.468
X46.238 Y42.431
X46.267 Y42.4
X46.303 Y42.379
X46.343 Y42.368
X46.386 Y42.369
X46.56 Y42.405 F600
X46.628 Y42.416
X46.728 Y42.43
X46.827 Y42.429
X46.977 Y42.427
X47.116 Y42.484
X47.239 Y42.569
X47.344 Y42.676
X47.431 Y42.798
X47.5 Y42.931
X47.553 Y43.072
X47.591 Y43.217
X47.614 Y43.365
X47.623 Y43.515
X47.615 Y43.665
X47.589 Y43.812
X47.587 Y43.818
X47.506 Y43.952
X47.374 Y44.037
X47.219 Y44.056
X47.025 Y44.037
X46.976 Y44.038
X46.926 Y44.042
X46.826 Y44.058
X46.779 Y44.063
X46.733 Y44.054
X46.692 Y44.03
X46.661 Y43.995
X46.641 Y43.952
X46.637 Y43.905
X46.665 Y43.404
X46.679 Y43.159
X46.712 Y42.566 F400
X46.722 Y42.52
X46.747 Y42.479
X46.783 Y42.447
X46.827 Y42.429
X46.944 Y42.405 F600
X47.124 Y42.363
X47.271 Y42.331
X47.418 Y42.362
X47.636 Y42.367
X47.846 Y42.305
X48.232 Y42.099
X48.567 Y41.818
X48.743 Y41.688
X48.866 Y41.603
X49.017 Y41.518
X49.235 Y41.418
X49.407 Y41.355
X49.551 Y41.315
X49.699 Y41.292
X49.899 Y41.276
X50.071
X50.22 Y41.288
X50.367 Y41.318
X50.543 Y41.371
X50.712 Y41.437
X50.847 Y41.502
X50.972 Y41.584
X51.111 Y41.694
X51.249 Y41.824
X51.35 Y41.935
X51.435 Y42.058
X51.52 Y42.209
X51.602 Y42.387
X51.653 Y42.528
X51.685 Y42.675
X51.706 Y42.844
X51.714 Y43.044
X51.708 Y43.194
X51.682 Y43.341
X51.637 Y43.506
X51.568 Y43.695
X51.505 Y43.831
X51.425 Y43.958
X51.32 Y44.092
X51.183 Y44.242
X51.073 Y44.344
X50.951 Y44.43
X50.803 Y44.514
X50.618 Y44.6
X50.478 Y44.652
X50.331 Y44.685
X50.163 Y44.706
X49.959 Y44.715
X49.809 Y44.709
X49.662 Y44.683
X49.498 Y44.639
X49.306 Y44.569
X49.17 Y44.506
X49.043 Y44.426
X48.957 Y44.359
X48.856 Y44.317
X48.638 Y44.296
X48.267 Y44.358
X48.181 Y44.361
X48.096 Y44.344
X48.019 Y44.306
X47.918 Y44.243
X47.818 Y44.183
X47.769 Y44.156
X47.719 Y44.134
X47.62 Y44.107
X47.521 Y44.09
X47.422 Y44.078
X47.219 Y44.056
X47.179 Y44.045
X47.144 Y44.023
X47.116 Y43.993
X47.098 Y43.956
X47.09 Y43.915
X47.06 Y43.338
X47.048 Y43.1
X47.019 Y42.514 F400
X47.022 Y42.475
X47.035 Y42.438
X47.058 Y42.405
X47.088 Y42.38
X47.124 Y42.363
X47.333 Y42.306 F600
X47.422 Y42.281
X47.521 Y42.246
X47.597 Y42.207
X47.62 Y42.191
X47.726 Y42.107
X47.818 Y42.029
X48.066 Y41.81
X48.116 Y41.762
X48.571 Y41.314
X48.711 Y41.177
X48.736 Y41.158
X48.76 Y41.143
X49.207 Y40.94
X49.256 Y40.917
X49.396 Y40.862
X49.501 Y40.834
X49.523 Y40.829
X49.544 Y40.825
X49.566 Y40.823
G3 X49.681 Y41.076 I0.006 J0.15
G1 X49.652 Y41.1 F400
X49.618 Y41.115
X49.369 Y41.195
X49.324 Y41.202
X49.323
G3 X49.256 Y40.917 I0 J-0.15
G1 X49.405 Y40.85 F600
X49.43 Y40.839
X49.455 Y40.832
X49.504 Y40.827
X49.901 Y40.797
X49.955 Y40.793
X50 Y40.79
X50.15 Y40.786
X50.295 Y40.799
X50.317 Y40.802
X50.338 Y40.806
X50.359 Y40.811
G3 X50.346 Y41.1 I-0.046 J0.143
G1 X50.306 Y41.104 F400
X50.009 Y41.089
G3 X50 Y40.79 I0.008 J-0.15
G1 X50.198 Y40.775 F600
X50.223 Y40.776
X50.248 Y40.78
X50.694 Y40.906
X50.734 Y40.917
X50.767 Y40.926
X50.909 Y40.975
X51.037 Y41.036
X51.055 Y41.046
X51.073 Y41.056
X51.09 Y41.068
G3 X50.985 Y41.336 I-0.092 J0.118
G1 X50.939 Y41.324 F400
X50.672 Y41.21
G3 X50.767 Y40.926 I0.059 J-0.138
G1 X50.942 Y40.976 F600
X50.967 Y40.985
X50.992 Y40.997
X51.388 Y41.284
X51.505 Y41.378
X51.621 Y41.474
X51.727 Y41.58
X51.825 Y41.693
X51.914 Y41.814
X51.994 Y41.941
X52.064 Y42.074
X52.123 Y42.211
X52.173 Y42.353
X52.213 Y42.498
X52.243 Y42.644
X52.264 Y42.793
X52.274 Y42.943
X52.273 Y43.093
X52.261 Y43.242
X52.241 Y43.391
X52.212 Y43.538
X52.172 Y43.683
X52.123 Y43.824
X52.064 Y43.962
X51.995 Y44.096
X51.971 Y44.137
X51.953 Y44.164
X51.933 Y44.19
X51.911 Y44.213
X51.785 Y44.336
X51.53 Y44.587
X51.487 Y44.628
X51.455 Y44.66
X51.343 Y44.76
X51.2 Y44.866
X51.146 Y44.898
X51.119 Y44.912
G3 X50.971 Y44.654 I-0.057 J-0.139
G1 X50.986 Y44.643
X51.255 Y44.438 F400
G3 X51.455 Y44.66 I0.091 J0.119
G1 X51.289 Y44.823 F600
X51.264 Y44.842
X51.24 Y44.857
X50.892 Y45.015
X50.793 Y45.06
X50.766 Y45.073
X50.626 Y45.128
X50.479 Y45.168
X50.457 Y45.173
X50.435 Y45.177
X50.413 Y45.179
G3 X50.333 Y44.899 I-0.006 J-0.15
G1 X50.363 Y44.886 F400
X50.655 Y44.795
G3 X50.766 Y45.073 I0.045 J0.143
G1 X50.595 Y45.15 F600
X50.57 Y45.161
X50.545 Y45.168
X50.496 Y45.173
X50.099 Y45.203
X50.045 Y45.207
X50 Y45.21
X49.85 Y45.214
X49.699 Y45.199
X49.678 Y45.197
X49.658 Y45.193
X49.637 Y45.188
G3 X49.653 Y44.898 I0.046 J-0.143
G1 X49.691 Y44.895 F400
X49.992 Y44.911
G3 X50 Y45.21 I-0.008 J0.15
G1 X49.802 Y45.225 F600
X49.777 Y45.224
X49.752 Y45.22
X49.058 Y45.024
X49.033 Y45.015
X49.008 Y45.003
X48.413 Y44.573
X48.116 Y44.369
X48.019 Y44.306
X47.986 Y44.275
X47.964 Y44.235
X47.955 Y44.191
X47.96 Y44.146
X47.977 Y44.104
X48.007 Y44.07
X48.394 Y43.734
X50.761 Y41.682
X51.206 Y41.295 F400
X51.248 Y41.27
X51.295 Y41.259
X51.344 Y41.264
X51.388 Y41.284
X51.587 Y41.427 F600
X51.884 Y41.631
X52.007 Y41.711
X52.182 Y41.817
X52.231 Y41.844
X52.281 Y41.866
X52.38 Y41.893
X52.479 Y41.91
X52.578 Y41.922
X52.777 Y41.943
X52.975 Y41.963
X53.024 Y41.962
X53.074 Y41.958
X53.173 Y41.942
X53.279 Y41.909
X53.669 Y41.764
X53.709 Y41.756
X53.75 Y41.76
X53.789 Y41.774
X53.822 Y41.799
X53.847 Y41.831
X53.862 Y41.869
X53.994 Y42.391
X54.189 Y43.162
X54.3 Y43.601 F400
G3 X54.096 Y43.776 I-0.145 J0.037
G1 X54.066 Y43.762 F600
X53.967 Y43.72
X53.9 Y43.694
X53.768 Y43.662
X53.44 Y43.595
X53.372 Y43.584
X53.272 Y43.57
X53.173 Y43.571
X53.056 Y43.595
X52.876 Y43.637
X52.667 Y43.694
X52.578 Y43.719
X52.479 Y43.754
X52.403 Y43.793
X52.38 Y43.809
X52.274 Y43.893
X52.182 Y43.971
X51.934 Y44.19
X51.911 Y44.213
G3 X51.712 Y43.988 I-0.099 J-0.112
X51.958 Y44.071 I0.099 J0.112
G1 Z15
X-55.578 Y41.177
Z5
Z-0.1
Z-0.25 F400
X-55.57 Y41.178 Z-0.296
X-55.549 Z-0.338
X-55.516 Y41.179 Z-0.371
X-55.474 Y41.181 Z-0.393
X-55.428 Y41.183 Z-0.4
G3 X-53.921 Y41.626 I-0.113 J3.163
G1 X-53.79 Y41.711 F600
X-53.768 Y41.723
X-53.669 Y41.764
X-53.471 Y41.838
X-53.333 Y41.897
X-53.211 Y41.985
X-53.105 Y42.091
X-53.028 Y42.219
X-52.972 Y42.359
X-52.93 Y42.506
X-52.901 Y42.653
X-52.898 Y42.803
X-52.914 Y42.952
X-52.95 Y43.129
X-52.991 Y43.273
X-53.031 Y43.367
X-53.096 Y43.466
X-53.19 Y43.538
X-53.303 Y43.574
X-53.372 Y43.584
X-53.44 Y43.595
X-53.768 Y43.662
X-53.798 Y43.67
G3 X-53.975 Y43.493 I-0.03 J-0.147
G1 X-53.879 Y43.013
X-53.77 Y42.472
X-53.665 Y41.951 F400
X-53.651 Y41.911
X-53.626 Y41.877
X-53.593 Y41.851
X-53.554 Y41.835
X-53.512 Y41.831
X-53.471 Y41.838
X-53.272 Y41.911 F600
X-53.173 Y41.942
X-53.074 Y41.958
X-52.926 Y41.983
X-52.794 Y42.053
X-52.681 Y42.152
X-52.589 Y42.271
X-52.518 Y42.403
X-52.467 Y42.544
X-52.434 Y42.69
X-52.416 Y42.839
X-52.414 Y42.989
X-52.426 Y43.139
X-52.455 Y43.286
X-52.502 Y43.429
X-52.509 Y43.443
X-52.606 Y43.564
X-52.747 Y43.631
X-52.902
X-53.074 Y43.591
X-53.173 Y43.571
X-53.272 Y43.57
X-53.303 Y43.574
X-53.349 Y43.572
X-53.392 Y43.556
X-53.429 Y43.527
X-53.455 Y43.489
X-53.468 Y43.444
X-53.466 Y43.398
X-53.376 Y42.9
X-53.329 Y42.643
X-53.227 Y42.082 F400
X-53.214 Y42.041
X-53.189 Y42.006
X-53.156 Y41.979
X-53.117 Y41.963
X-53.074 Y41.958
X-53.024 Y41.962 F600
X-52.975 Y41.963
X-52.777 Y41.943
X-52.627 Y41.935
X-52.483 Y41.978
X-52.38 Y42.014
X-52.162 Y42.03
X-51.739 Y41.918
X-51.358 Y41.702
X-51.266 Y41.644
X-51.128 Y41.563
X-50.934 Y41.468
X-50.652 Y41.358
X-50.508 Y41.314
X-50.36 Y41.288
X-50.17 Y41.27
X-49.953 Y41.268
X-49.804 Y41.278
X-49.656 Y41.307
X-49.484 Y41.358
X-49.297 Y41.429
X-49.162 Y41.494
X-49.036 Y41.576
X-48.899 Y41.684
X-48.754 Y41.819
X-48.652 Y41.93
X-48.567 Y42.053
X-48.483 Y42.203
X-48.399 Y42.384
X-48.347 Y42.525
X-48.315 Y42.672
X-48.294 Y42.841
X-48.285 Y43.043
X-48.291 Y43.192
X-48.317 Y43.34
X-48.362 Y43.504
X-48.432 Y43.695
X-48.494 Y43.831
X-48.575 Y43.957
X-48.679 Y44.091
X-48.817 Y44.241
X-48.926 Y44.344
X-49.049 Y44.43
X-49.197 Y44.514
X-49.381 Y44.6
X-49.522 Y44.652
X-49.668 Y44.685
X-49.837 Y44.706
X-50.041 Y44.715
X-50.19 Y44.709
X-50.338 Y44.684
X-50.502 Y44.639
X-50.694 Y44.569
X-50.83 Y44.506
X-50.957 Y44.426
X-51.09 Y44.322
X-51.252 Y44.174
X-51.349 Y44.125
X-51.563 Y44.079
X-51.909 Y44.087
X-51.996 Y44.078
X-52.078 Y44.048
X-52.15 Y43.999
X-52.182 Y43.971
X-52.281 Y43.887
X-52.38 Y43.809
X-52.403 Y43.793
X-52.479 Y43.754
X-52.578 Y43.719
X-52.845 Y43.645
X-52.876 Y43.637
X-52.902 Y43.631
X-52.94 Y43.615
X-52.972 Y43.589
X-52.996 Y43.555
X-53.01 Y43.516
X-53.013 Y43.474
X-52.968 Y42.899
X-52.95 Y42.662
X-52.904 Y42.08 F400
X-52.896 Y42.041
X-52.877 Y42.005
X-52.85 Y41.976
X-52.815 Y41.955
X-52.777 Y41.943
X-52.578 Y41.922 F600
X-52.475 Y41.909
X-52.38 Y41.893
X-52.281 Y41.866
X-52.231 Y41.844
X-52.182 Y41.817
X-52.007 Y41.711
X-51.884 Y41.631
X-51.566 Y41.413
X-51.155 Y41.116
X-50.992 Y40.997
X-50.967 Y40.985
X-50.942 Y40.976
X-50.496 Y40.85
X-50.441 Y40.834
X-50.295 Y40.801
X-50.17 Y40.784
X-50.146 Y40.782
X-50.122 Y40.781
X-50.098 Y40.782
G3 X-50.042 Y41.062 I-0.016 J0.149
G1 X-50.065 Y41.073 F400
X-50.091 Y41.08
X-50.371 Y41.125
G3 X-50.441 Y40.834 I-0.024 J-0.148
G1 X-50.248 Y40.78 F600
X-50.223 Y40.776
X-50.198 Y40.775
X-49.802 Y40.805
X-49.703 Y40.812
X-49.66 Y40.815
X-49.512 Y40.834
X-49.392 Y40.863
X-49.37 Y40.869
X-49.349 Y40.876
X-49.328 Y40.885
G3 X-49.364 Y41.166 I-0.067 J0.134
G1 X-49.394 Y41.169 F400
X-49.424 Y41.166
X-49.695 Y41.112
G3 X-49.66 Y40.815 I0.029 J-0.147
G1 X-49.504 Y40.827 F600
X-49.455 Y40.832
X-49.43 Y40.839
X-49.405 Y40.85
X-49.038 Y41.016
X-49.008 Y41.03
X-48.954 Y41.055
X-48.821 Y41.123
X-48.681 Y41.214
X-48.649 Y41.239
X-48.628 Y41.258
G3 X-48.801 Y41.497 I-0.109 J0.103
G1 X-48.815 Y41.489 F400
X-49.089 Y41.321
G3 X-48.954 Y41.055 I0.078 J-0.128
G1 X-48.76 Y41.143 F600
X-48.736 Y41.158
X-48.711 Y41.177
X-48.413 Y41.469
X-48.271 Y41.624
X-48.17 Y41.735
X-48.079 Y41.855
X-47.999 Y41.981
X-47.929 Y42.114
X-47.87 Y42.252
X-47.822 Y42.394
X-47.783 Y42.539
X-47.754 Y42.686
X-47.735 Y42.835
X-47.728 Y42.985
X-47.731 Y43.135
X-47.745 Y43.284
X-47.767 Y43.432
X-47.799 Y43.579
X-47.841 Y43.723
X-47.894 Y43.864
X-47.955 Y44
X-48.026 Y44.133
X-48.104 Y44.26
X-48.19 Y44.383
X-48.226 Y44.427
X-48.248 Y44.452
X-48.273 Y44.475
X-48.3 Y44.495
X-48.434 Y44.587
X-48.711 Y44.788
X-48.81 Y44.859
X-48.845 Y44.884
X-48.97 Y44.966
X-49.115 Y45.038
X-49.149 Y45.05
G3 X-49.299 Y44.806 I-0.036 J-0.146
G1 X-49.28 Y44.788 F400
X-49.258 Y44.773
X-49.01 Y44.635
G3 X-48.845 Y44.884 I0.073 J0.131
G1 X-49.008 Y45.003 F600
X-49.033 Y45.015
X-49.058 Y45.024
X-49.405 Y45.122
X-49.504 Y45.15
X-49.559 Y45.166
X-49.705 Y45.199
X-49.865 Y45.217
X-49.899
X-49.912
G3 X-49.96 Y44.932 I0.016 J-0.149
G1 X-49.918 Y44.919 F400
X-49.628 Y44.875
G3 X-49.559 Y45.166 I0.023 J0.148
G1 X-49.752 Y45.22 F600
X-49.777 Y45.224
X-49.802 Y45.225
X-50.198 Y45.195
X-50.297 Y45.188
X-50.34 Y45.185
X-50.488 Y45.166
X-50.615 Y45.135
X-50.636 Y45.129
X-50.656 Y45.122
X-50.676 Y45.114
G3 X-50.636 Y44.832 I0.067 J-0.134
G1 X-50.608 Y44.829 F400
X-50.58 Y44.832
X-50.304 Y44.888
G3 X-50.34 Y45.185 I-0.03 J0.147
G1 X-50.496 Y45.173 F600
X-50.545 Y45.168
X-50.57 Y45.161
X-50.595 Y45.15
X-51.24 Y44.857
X-51.264 Y44.842
X-51.289 Y44.823
X-51.884 Y44.238
X-51.934 Y44.19
X-52.15 Y43.999
X-52.177 Y43.964
X-52.193 Y43.922
X-52.196 Y43.877
X-52.185 Y43.833
X-52.162 Y43.795
X-52.129 Y43.765
X-51.698 Y43.483
X-49.088 Y41.776
X-48.597 Y41.454 F400
X-48.561 Y41.437
X-48.522 Y41.43
X-48.483 Y41.433
X-48.446 Y41.447
X-48.413 Y41.469
X-48.116 Y41.762 F600
X-48.066 Y41.81
X-47.818 Y42.029
X-47.719 Y42.113
X-47.62 Y42.191
X-47.597 Y42.207
X-47.521 Y42.246
X-47.422 Y42.281
X-47.223 Y42.336
X-47.124 Y42.363
X-46.926 Y42.409
X-46.827 Y42.429
X-46.728 Y42.43
X-46.628 Y42.416
X-46.56 Y42.405
X-46.232 Y42.338
X-46.202 Y42.33
X-46.16 Y42.328
X-46.119 Y42.337
X-46.083 Y42.357
X-46.053 Y42.386
X-46.032 Y42.422
X-46.022 Y42.463
X-45.972 Y42.994
X-45.897 Y43.778
X-45.853 Y44.23 F400
G3 X-46.079 Y44.374 I-0.149 J0.014
G1 X-46.21 Y44.289 F600
X-46.232 Y44.277
X-46.331 Y44.236
X-46.728 Y44.089
X-46.827 Y44.058
X-46.926 Y44.042
X-46.976 Y44.038
X-47.025 Y44.037
X-47.223 Y44.057
X-47.422 Y44.078
X-47.525 Y44.091
X-47.62 Y44.107
X-47.719 Y44.134
X-47.769 Y44.156
X-47.818 Y44.183
X-47.993 Y44.289
X-48.116 Y44.369
X-48.3 Y44.495
G3 X-48.53 Y44.369 I-0.08 J-0.127
G1 Y44.368
G3 X-48.304 Y44.239 I0.15 J0
G1 X-48.28 Y44.269 Z-0.394
X-48.257 Y44.297 Z-0.379
X-48.238 Y44.321 Z-0.354
X-48.234 Y44.343 Z-0.324
X-48.231 Y44.357 Z-0.288
X-48.23 Y44.362 Z-0.25
Z5
X-55.578 Y41.177
Z-0.5
Z-0.65 F400
X-55.57 Y41.178 Z-0.696
X-55.549 Z-0.738
X-55.516 Y41.179 Z-0.771
X-55.474 Y41.181 Z-0.793
X-55.428 Y41.183 Z-0.8
G3 X-53.921 Y41.626 I-0.113 J3.163
G1 X-53.79 Y41.711 F600
X-53.768 Y41.723
X-53.669 Y41.764
X-53.471 Y41.838
X-53.333 Y41.897
X-53.211 Y41.985
X-53.105 Y42.091
X-53.028 Y42.219
X-52.972 Y42.359
X-52.93 Y42.506
X-52.901 Y42.653
X-52.898 Y42.803
X-52.914 Y42.952
X-52.95 Y43.129
X-52.991 Y43.273
X-53.031 Y43.367
X-53.096 Y43.466
X-53.19 Y43.538
X-53.303 Y43.574
X-53.372 Y43.584
X-53.44 Y43.595
X-53.768 Y43.662
X-53.798 Y43.67
G3 X-53.975 Y43.493 I-0.03 J-0.147
G1 X-53.879 Y43.013
X-53.77 Y42.472
X-53.665 Y41.951 F400
X-53.651 Y41.911
X-53.626 Y41.877
X-53.593 Y41.851
X-53.554 Y41.835
X-53.512 Y41.831
X-53.471 Y41.838
X-53.272 Y41.911 F600
X-53.173 Y41.942
X-53.074 Y41.958
X-52.926 Y41.983
X-52.794 Y42.053
X-52.681 Y42.152
X-52.589 Y42.271
X-52.518 Y42.403
X-52.467 Y42.544
X-52.434 Y42.69
X-52.416 Y42.839
X-52.414 Y42.989
X-52.426 Y43.139
X-52.455 Y43.286
X-52.502 Y43.429
X-52.509 Y43.443
X-52.606 Y43.564
X-52.747 Y43.631
X-52.902
X-53.074 Y43.591
X-53.173 Y43.571
X-53.272 Y43.57
X-53.303 Y43.574
X-53.349 Y43.572
X-53.392 Y43.556
X-53.429 Y43.527
X-53.455 Y43.489
X-53.468 Y43.444
X-53.466 Y43.398
X-53.376 Y42.9
X-53.329 Y42.643
X-53.227 Y42.082 F400
X-53.214 Y42.041
X-53.189 Y42.006
X-53.156 Y41.979
X-53.117 Y41.963
X-53.074 Y41.958
X-53.024 Y41.962 F600
X-52.975 Y41.963
X-52.777 Y41.943
X-52.627 Y41.935
X-52.483 Y41.978
X-52.38 Y42.014
X-52.162 Y42.03
X-51.739 Y41.918
X-51.358 Y41.702
X-51.266 Y41.644
X-51.128 Y41.563
X-50.934 Y41.468
X-50.652 Y41.358
X-50.508 Y41.314
X-50.36 Y41.288
X-50.17 Y41.27
X-49.953 Y41.268
X-49.804 Y41.278
X-49.656 Y41.307
X-49.484 Y41.358
X-49.297 Y41.429
X-49.162 Y41.494
X-49.036 Y41.576
X-48.899 Y41.684
X-48.754 Y41.819
X-48.652 Y41.93
X-48.567 Y42.053
X-48.483 Y42.203
X-48.399 Y42.384
X-48.347 Y42.525
X-48.315 Y42.672
X-48.294 Y42.841
X-48.285 Y43.043
X-48.291 Y43.192
X-48.317 Y43.34
X-48.362 Y43.504
X-48.432 Y43.695
X-48.494 Y43.831
X-48.575 Y43.957
X-48.679 Y44.091
X-48.817 Y44.241
X-48.926 Y44.344
X-49.049 Y44.43
X-49.197 Y44.514
X-49.381 Y44.6
X-49.522 Y44.652
X-49.668 Y44.685
X-49.837 Y44.706
X-50.041 Y44.715
X-50.19 Y44.709
X-50.338 Y44.684
X-50.502 Y44.639
X-50.694 Y44.569
X-50.83 Y44.506
X-50.957 Y44.426
X-51.09 Y44.322
X-51.252 Y44.174
X-51.349 Y44.125
X-51.563 Y44.079
X-51.909 Y44.087
X-51.996 Y44.078
X-52.078 Y44.048
X-52.15 Y43.999
X-52.182 Y43.971
X-52.281 Y43.887
X-52.38 Y43.809
X-52.403 Y43.793
X-52.479 Y43.754
X-52.578 Y43.719
X-52.845 Y43.645
X-52.876 Y43.637
X-52.902 Y43.631
X-52.94 Y43.615
X-52.972 Y43.589
X-52.996 Y43.555
X-53.01 Y43.516
X-53.013 Y43.474
X-52.968 Y42.899
X-52.95 Y42.662
X-52.904 Y42.08 F400
X-52.896 Y42.041
X-52.877 Y42.005
X-52.85 Y41.976
X-52.815 Y41.955
X-52.777 Y41.943
X-52.578 Y41.922 F600
X-52.475 Y41.909
X-52.38 Y41.893
X-52.281 Y41.866
X-52.231 Y41.844
X-52.182 Y41.817
X-52.007 Y41.711
X-51.884 Y41.631
X-51.566 Y41.413
X-51.155 Y41.116
X-50.992 Y40.997
X-50.967 Y40.985
X-50.942 Y40.976
X-50.496 Y40.85
X-50.441 Y40.834
X-50.295 Y40.801
X-50.17 Y40.784
X-50.146 Y40.782
X-50.122 Y40.781
X-50.098 Y40.782
G3 X-50.042 Y41.062 I-0.016 J0.149
G1 X-50.065 Y41.073 F400
X-50.091 Y41.08
X-50.371 Y41.125
G3 X-50.441 Y40.834 I-0.024 J-0.148
G1 X-50.248 Y40.78 F600
X-50.223 Y40.776
X-50.198 Y40.775
X-49.802 Y40.805
X-49.703 Y40.812
X-49.66 Y40.815
X-49.512 Y40.834
X-49.392 Y40.863
X-49.37 Y40.869
X-49.349 Y40.876
X-49.328 Y40.885
G3 X-49.364 Y41.166 I-0.067 J0.134
G1 X-49.394 Y41.169 F400
X-49.424 Y41.166
X-49.695 Y41.112
G3 X-49.66 Y40.815 I0.029 J-0.147
G1 X-49.504 Y40.827 F600
X-49.455 Y40.832
X-49.43 Y40.839
X-49.405 Y40.85
X-49.038 Y41.016
X-49.008 Y41.03
X-48.954 Y41.055
X-48.821 Y41.123
X-48.681 Y41.214
X-48.649 Y41.239
X-48.628 Y41.258
G3 X-48.801 Y41.497 I-0.109 J0.103
G1 X-48.815 Y41.489 F400
X-49.089 Y41.321
G3 X-48.954 Y41.055 I0.078 J-0.128
G1 X-48.76 Y41.143 F600
X-48.736 Y41.158
X-48.711 Y41.177
X-48.413 Y41.469
X-48.271 Y41.624
X-48.17 Y41.735
X-48.079 Y41.855
X-47.999 Y41.981
X-47.929 Y42.114
X-47.87 Y42.252
X-47.822 Y42.394
X-47.783 Y42.539
X-47.754 Y42.686
X-47.735 Y42.835
X-47.728 Y42.985
X-47.731 Y43.135
X-47.745 Y43.284
X-47.767 Y43.432
X-47.799 Y43.579
X-47.841 Y43.723
X-47.894 Y43.864
X-47.955 Y44
X-48.026 Y44.133
X-48.104 Y44.26
X-48.19 Y44.383
X-48.226 Y44.427
X-48.248 Y44.452
X-48.273 Y44.475
X-48.3 Y44.495
X-48.434 Y44.587
X-48.711 Y44.788
X-48.81 Y44.859
X-48.845 Y44.884
X-48.97 Y44.966
X-49.115 Y45.038
X-49.149 Y45.05
G3 X-49.299 Y44.806 I-0.036 J-0.146
G1 X-49.28 Y44.788 F400
X-49.258 Y44.773
X-49.01 Y44.635
G3 X-48.845 Y44.884 I0.073 J0.131
G1 X-49.008 Y45.003 F600
X-49.033 Y45.015
X-49.058 Y45.024
X-49.405 Y45.122
X-49.504 Y45.15
X-49.559 Y45.166
X-49.705 Y45.199
X-49.865 Y45.217
X-49.899
X-49.912
G3 X-49.96 Y44.932 I0.016 J-0.149
G1 X-49.918 Y44.919 F400
X-49.628 Y44.875
G3 X-49.559 Y45.166 I0.023 J0.148
G1 X-49.752 Y45.22 F600
X-49.777 Y45.224
X-49.802 Y45.225
X-50.198 Y45.195
X-50.297 Y45.188
X-50.34 Y45.185
X-50.488 Y45.166
X-50.615 Y45.135
X-50.636 Y45.129
X-50.656 Y45.122
X-50.676 Y45.114
G3 X-50.636 Y44.832 I0.067 J-0.134
G1 X-50.608 Y44.829 F400
X-50.58 Y44.832
X-50.304 Y44.888
G3 X-50.34 Y45.185 I-0.03 J0.147
G1 X-50.496 Y45.173 F600
X-50.545 Y45.168
X-50.57 Y45.161
X-50.595 Y45.15
X-51.24 Y44.857
X-51.264 Y44.842
X-51.289 Y44.823
X-51.884 Y44.238
X-51.934 Y44.19
X-52.15 Y43.999
X-52.177 Y43.964
X-52.193 Y43.922
X-52.196 Y43.877
X-52.185 Y43.833
X-52.162 Y43.795
X-52.129 Y43.765
X-51.698 Y43.483
X-49.088 Y41.776
X-48.597 Y41.454 F400
X-48.561 Y41.437
X-48.522 Y41.43
X-48.483 Y41.433
X-48.446 Y41.447
X-48.413 Y41.469
X-48.116 Y41.762 F600
X-48.066 Y41.81
X-47.818 Y42.029
X-47.719 Y42.113
X-47.62 Y42.191
X-47.597 Y42.207
X-47.521 Y42.246
X-47.422 Y42.281
X-47.223 Y42.336
X-47.124 Y42.363
X-46.926 Y42.409
X-46.827 Y42.429
X-46.728 Y42.43
X-46.628 Y42.416
X-46.56 Y42.405
X-46.232 Y42.338
X-46.202 Y42.33
X-46.16 Y42.328
X-46.119 Y42.337
X-46.083 Y42.357
X-46.053 Y42.386
X-46.032 Y42.422
X-46.022 Y42.463
X-45.972 Y42.994
X-45.897 Y43.778
X-45.853 Y44.23 F400
G3 X-46.079 Y44.374 I-0.149 J0.014
G1 X-46.21 Y44.289 F600
X-46.232 Y44.277
X-46.331 Y44.236
X-46.728 Y44.089
X-46.827 Y44.058
X-46.926 Y44.042
X-46.976 Y44.038
X-47.025 Y44.037
X-47.223 Y44.057
X-47.422 Y44.078
X-47.525 Y44.091
X-47.62 Y44.107
X-47.719 Y44.134
X-47.769 Y44.156
X-47.818 Y44.183
X-47.993 Y44.289
X-48.116 Y44.369
X-48.3 Y44.495
G3 X-48.53 Y44.369 I-0.08 J-0.127
G1 Y44.368
G3 X-48.304 Y44.239 I0.15 J0
G1 X-48.28 Y44.269 Z-0.794
X-48.257 Y44.297 Z-0.779
X-48.238 Y44.321 Z-0.754
X-48.234 Y44.343 Z-0.724
X-48.231 Y44.357 Z-0.688
X-48.23 Y44.362 Z-0.65
Z5
X-55.578 Y41.177
Z-0.7
Z-0.85 F400
X-55.57 Y41.178 Z-0.896
X-55.549 Z-0.938
X-55.516 Y41.179 Z-0.971
X-55.474 Y41.181 Z-0.993
X-55.428 Y41.183 Z-1
G3 X-53.921 Y41.626 I-0.113 J3.163
G1 X-53.79 Y41.711 F600
X-53.768 Y41.723
X-53.669 Y41.764
X-53.471 Y41.838
X-53.333 Y41.897
X-53.211 Y41.985
X-53.105 Y42.091
X-53.028 Y42.219
X-52.972 Y42.359
X-52.93 Y42.506
X-52.901 Y42.653
X-52.898 Y42.803
X-52.914 Y42.952
X-52.95 Y43.129
X-52.991 Y43.273
X-53.031 Y43.367
X-53.096 Y43.466
X-53.19 Y43.538
X-53.303 Y43.574
X-53.372 Y43.584
X-53.44 Y43.595
X-53.768 Y43.662
X-53.798 Y43.67
G3 X-53.975 Y43.493 I-0.03 J-0.147
G1 X-53.879 Y43.013
X-53.77 Y42.472
X-53.665 Y41.951 F400
X-53.651 Y41.911
X-53.626 Y41.877
X-53.593 Y41.851
X-53.554 Y41.835
X-53.512 Y41.831
X-53.471 Y41.838
X-53.272 Y41.911 F600
X-53.173 Y41.942
X-53.074 Y41.958
X-52.926 Y41.983
X-52.794 Y42.053
X-52.681 Y42.152
X-52.589 Y42.271
X-52.518 Y42.403
X-52.467 Y42.544
X-52.434 Y42.69
X-52.416 Y42.839
X-52.414 Y42.989
X-52.426 Y43.139
X-52.455 Y43.286
X-52.502 Y43.429
X-52.509 Y43.443
X-52.606 Y43.564
X-52.747 Y43.631
X-52.902
X-53.074 Y43.591
X-53.173 Y43.571
X-53.272 Y43.57
X-53.303 Y43.574
X-53.349 Y43.572
X-53.392 Y43.556
X-53.429 Y43.527
X-53.455 Y43.489
X-53.468 Y43.444
X-53.466 Y43.398
X-53.376 Y42.9
X-53.329 Y42.643
X-53.227 Y42.082 F400
X-53.214 Y42.041
X-53.189 Y42.006
X-53.156 Y41.979
X-53.117 Y41.963
X-53.074 Y41.958
X-53.024 Y41.962 F600
X-52.975 Y41.963
X-52.777 Y41.943
X-52.627 Y41.935
X-52.483 Y41.978
X-52.38 Y42.014
X-52.162 Y42.03
X-51.739 Y41.918
X-51.358 Y41.702
X-51.266 Y41.644
X-51.128 Y41.563
X-50.934 Y41.468
X-50.652 Y41.358
X-50.508 Y41.314
X-50.36 Y41.288
X-50.17 Y41.27
X-49.953 Y41.268
X-49.804 Y41.278
X-49.656 Y41.307
X-49.484 Y41.358
X-49.297 Y41.429
X-49.162 Y41.494
X-49.036 Y41.576
X-48.899 Y41.684
X-48.754 Y41.819
X-48.652 Y41.93
X-48.567 Y42.053
X-48.483 Y42.203
X-48.399 Y42.384
X-48.347 Y42.525
X-48.315 Y42.672
X-48.294 Y42.841
X-48.285 Y43.043
X-48.291 Y43.192
X-48.317 Y43.34
X-48.362 Y43.504
X-48.432 Y43.695
X-48.494 Y43.831
X-48.575 Y43.957
X-48.679 Y44.091
X-48.817 Y44.241
X-48.926 Y44.344
X-49.049 Y44.43
X-49.197 Y44.514
X-49.381 Y44.6
X-49.522 Y44.652
X-49.668 Y44.685
X-49.837 Y44.706
X-50.041 Y44.715
X-50.19 Y44.709
X-50.338 Y44.684
X-50.502 Y44.639
X-50.694 Y44.569
X-50.83 Y44.506
X-50.957 Y44.426
X-51.09 Y44.322
X-51.252 Y44.174
X-51.349 Y44.125
X-51.563 Y44.079
X-51.909 Y44.087
X-51.996 Y44.078
X-52.078 Y44.048
X-52.15 Y43.999
X-52.182 Y43.971
X-52.281 Y43.887
X-52.38 Y43.809
X-52.403 Y43.793
X-52.479 Y43.754
X-52.578 Y43.719
X-52.845 Y43.645
X-52.876 Y43.637
X-52.902 Y43.631
X-52.94 Y43.615
X-52.972 Y43.589
X-52.996 Y43.555
X-53.01 Y43.516
X-53.013 Y43.474
X-52.968 Y42.899
X-52.95 Y42.662
X-52.904 Y42.08 F400
X-52.896 Y42.041
X-52.877 Y42.005
X-52.85 Y41.976
X-52.815 Y41.955
X-52.777 Y41.943
X-52.578 Y41.922 F600
X-52.475 Y41.909
X-52.38 Y41.893
X-52.281 Y41.866
X-52.231 Y41.844
X-52.182 Y41.817
X-52.007 Y41.711
X-51.884 Y41.631
X-51.566 Y41.413
X-51.155 Y41.116
X-50.992 Y40.997
X-50.967 Y40.985
X-50.942 Y40.976
X-50.496 Y40.85
X-50.441 Y40.834
X-50.295 Y40.801
X-50.17 Y40.784
X-50.146 Y40.782
X-50.122 Y40.781
X-50.098 Y40.782
G3 X-50.042 Y41.062 I-0.016 J0.149
G1 X-50.065 Y41.073 F400
X-50.091 Y41.08
X-50.371 Y41.125
G3 X-50.441 Y40.834 I-0.024 J-0.148
G1 X-50.248 Y40.78 F600
X-50.223 Y40.776
X-50.198 Y40.775
X-49.802 Y40.805
X-49.703 Y40.812
X-49.66 Y40.815
X-49.512 Y40.834
X-49.392 Y40.863
X-49.37 Y40.869
X-49.349 Y40.876
X-49.328 Y40.885
G3 X-49.364 Y41.166 I-0.067 J0.134
G1 X-49.394 Y41.169 F400
X-49.424 Y41.166
X-49.695 Y41.112
G3 X-49.66 Y40.815 I0.029 J-0.147
G1 X-49.504 Y40.827 F600
X-49.455 Y40.832
X-49.43 Y40.839
X-49.405 Y40.85
X-49.038 Y41.016
X-49.008 Y41.03
X-48.954 Y41.055
X-48.821 Y41.123
X-48.681 Y41.214
X-48.649 Y41.239
X-48.628 Y41.258
G3 X-48.801 Y41.497 I-0.109 J0.103
G1 X-48.815 Y41.489 F400
X-49.089 Y41.321
G3 X-48.954 Y41.055 I0.078 J-0.128
G1 X-48.76 Y41.143 F600
X-48.736 Y41.158
X-48.711 Y41.177
X-48.413 Y41.469
X-48.271 Y41.624
X-48.17 Y41.735
X-48.079 Y41.855
X-47.999 Y41.981
X-47.929 Y42.114
X-47.87 Y42.252
X-47.822 Y42.394
X-47.783 Y42.539
X-47.754 Y42.686
X-47.735 Y42.835
X-47.728 Y42.985
X-47.731 Y43.135
X-47.745 Y43.284
X-47.767 Y43.432
X-47.799 Y43.579
X-47.841 Y43.723
X-47.894 Y43.864
X-47.955 Y44
X-48.026 Y44.133
X-48.104 Y44.26
X-48.19 Y44.383
X-48.226 Y44.427
X-48.248 Y44.452
X-48.273 Y44.475
X-48.3 Y44.495
X-48.434 Y44.587
X-48.711 Y44.788
X-48.81 Y44.859
X-48.845 Y44.884
X-48.97 Y44.966
X-49.115 Y45.038
X-49.149 Y45.05
G3 X-49.299 Y44.806 I-0.036 J-0.146
G1 X-49.28 Y44.788 F400
X-49.258 Y44.773
X-49.01 Y44.635
G3 X-48.845 Y44.884 I0.073 J0.131
G1 X-49.008 Y45.003 F600
X-49.033 Y45.015
X-49.058 Y45.024
X-49.405 Y45.122
X-49.504 Y45.15
X-49.559 Y45.166
X-49.705 Y45.199
X-49.865 Y45.217
X-49.899
X-49.912
G3 X-49.96 Y44.932 I0.016 J-0.149
G1 X-49.918 Y44.919 F400
X-49.628 Y44.875
G3 X-49.559 Y45.166 I0.023 J0.148
G1 X-49.752 Y45.22 F600
X-49.777 Y45.224
X-49.802 Y45.225
X-50.198 Y45.195
X-50.297 Y45.188
X-50.34 Y45.185
X-50.488 Y45.166
X-50.615 Y45.135
X-50.636 Y45.129
X-50.656 Y45.122
X-50.676 Y45.114
G3 X-50.636 Y44.832 I0.067 J-0.134
G1 X-50.608 Y44.829 F400
X-50.58 Y44.832
X-50.304 Y44.888
G3 X-50.34 Y45.185 I-0.03 J0.147
G1 X-50.496 Y45.173 F600
X-50.545 Y45.168
X-50.57 Y45.161
X-50.595 Y45.15
X-51.24 Y44.857
X-51.264 Y44.842
X-51.289 Y44.823
X-51.884 Y44.238
X-51.934 Y44.19
X-52.15 Y43.999
X-52.177 Y43.964
X-52.193 Y43.922
X-52.196 Y43.877
X-52.185 Y43.833
X-52.162 Y43.795
X-52.129 Y43.765
X-51.698 Y43.483
X-49.088 Y41.776
X-48.597 Y41.454 F400
X-48.561 Y41.437
X-48.522 Y41.43
X-48.483 Y41.433
X-48.446 Y41.447
X-48.413 Y41.469
X-48.116 Y41.762 F600
X-48.066 Y41.81
X-47.818 Y42.029
X-47.719 Y42.113
X-47.62 Y42.191
X-47.597 Y42.207
X-47.521 Y42.246
X-47.422 Y42.281
X-47.223 Y42.336
X-47.124 Y42.363
X-46.926 Y42.409
X-46.827 Y42.429
X-46.728 Y42.43
X-46.628 Y42.416
X-46.56 Y42.405
X-46.232 Y42.338
X-46.202 Y42.33
X-46.16 Y42.328
X-46.119 Y42.337
X-46.083 Y42.357
X-46.053 Y42.386
X-46.032 Y42.422
X-46.022 Y42.463
X-45.972 Y42.994
X-45.897 Y43.778
X-45.853 Y44.23 F400
G3 X-46.079 Y44.374 I-0.149 J0.014
G1 X-46.21 Y44.289 F600
X-46.232 Y44.277
X-46.331 Y44.236
X-46.728 Y44.089
X-46.827 Y44.058
X-46.926 Y44.042
X-46.976 Y44.038
X-47.025 Y44.037
X-47.223 Y44.057
X-47.422 Y44.078
X-47.525 Y44.091
X-47.62 Y44.107
X-47.719 Y44.134
X-47.769 Y44.156
X-47.818 Y44.183
X-47.993 Y44.289
X-48.116 Y44.369
X-48.3 Y44.495
G3 X-48.53 Y44.369 I-0.08 J-0.127
G1 Y44.368
G3 X-48.23 Y44.362 I0.15 J0
G1 Z15
X-55.799 Y-43.991
Z5
Z-0.1
Z-0.25 F400
X-55.792 Y-43.992 Z-0.296
X-55.771 Y-43.994 Z-0.338
X-55.738 Y-43.997 Z-0.371
X-55.696 Y-44.002 Z-0.393
X-55.65 Y-44.006 Z-0.4
G3 X-54.096 Y-43.776 I0.327 J3.148
G1 X-54.066 Y-43.762 F600
X-53.967 Y-43.72
X-53.9 Y-43.694
X-53.768 Y-43.662
X-53.614 Y-43.631
X-53.469 Y-43.593
X-53.335 Y-43.526
X-53.213 Y-43.439
X-53.116 Y-43.325
X-53.039 Y-43.196
X-52.976 Y-43.06
X-52.924 Y-42.919
X-52.897 Y-42.772
X-52.89 Y-42.622
X-52.897 Y-42.446
X-52.915 Y-42.297
X-52.952 Y-42.149
X-53.004 Y-42.058
X-53.08 Y-41.987
X-53.174 Y-41.942
X-53.279 Y-41.909
X-53.669 Y-41.764
X-53.717 Y-41.756
X-53.764 Y-41.764
X-53.807 Y-41.787
X-53.841 Y-41.822
X-53.861 Y-41.865
X-53.866 Y-41.913
X-53.842 Y-42.407
X-53.815 Y-42.959
X-53.789 Y-43.49 F400
X-53.781 Y-43.532
X-53.762 Y-43.569
X-53.733 Y-43.6
X-53.697 Y-43.621
X-53.657 Y-43.632
X-53.614 Y-43.631
X-53.44 Y-43.595 F600
X-53.372 Y-43.584
X-53.272 Y-43.57
X-53.173 Y-43.571
X-53.023 Y-43.573
X-52.884 Y-43.516
X-52.761 Y-43.431
X-52.656 Y-43.324
X-52.569 Y-43.202
X-52.5 Y-43.069
X-52.447 Y-42.928
X-52.409 Y-42.783
X-52.386 Y-42.635
X-52.377 Y-42.485
X-52.385 Y-42.335
X-52.411 Y-42.188
X-52.413 Y-42.182
X-52.494 Y-42.048
X-52.626 Y-41.963
X-52.781 Y-41.944
X-52.975 Y-41.963
X-53.024 Y-41.962
X-53.074 Y-41.958
X-53.174 Y-41.942
X-53.221 Y-41.937
X-53.267 Y-41.946
X-53.308 Y-41.97
X-53.339 Y-42.005
X-53.359 Y-42.048
X-53.363 Y-42.095
X-53.335 Y-42.596
X-53.321 Y-42.841
X-53.288 Y-43.434 F400
X-53.278 Y-43.48
X-53.253 Y-43.521
X-53.217 Y-43.553
X-53.173 Y-43.571
X-53.056 Y-43.595 F600
X-52.876 Y-43.637
X-52.729 Y-43.669
X-52.582 Y-43.638
X-52.364 Y-43.633
X-52.154 Y-43.695
X-51.768 Y-43.901
X-51.433 Y-44.182
X-51.257 Y-44.312
X-51.134 Y-44.397
X-50.983 Y-44.482
X-50.765 Y-44.582
X-50.593 Y-44.645
X-50.449 Y-44.685
X-50.301 Y-44.708
X-50.101 Y-44.724
X-49.929
X-49.78 Y-44.712
X-49.633 Y-44.682
X-49.457 Y-44.629
X-49.288 Y-44.563
X-49.153 Y-44.498
X-49.028 Y-44.416
X-48.889 Y-44.306
X-48.751 Y-44.176
X-48.65 Y-44.065
X-48.565 Y-43.942
X-48.48 Y-43.791
X-48.398 Y-43.613
X-48.347 Y-43.472
X-48.315 Y-43.325
X-48.294 Y-43.156
X-48.286 Y-42.956
X-48.292 Y-42.806
X-48.318 Y-42.659
X-48.363 Y-42.494
X-48.432 Y-42.305
X-48.495 Y-42.169
X-48.575 Y-42.042
X-48.68 Y-41.908
X-48.817 Y-41.758
X-48.927 Y-41.656
X-49.049 Y-41.57
X-49.197 Y-41.486
X-49.382 Y-41.4
X-49.522 Y-41.348
X-49.669 Y-41.315
X-49.837 Y-41.294
X-50.041 Y-41.285
X-50.191 Y-41.291
X-50.338 Y-41.317
X-50.502 Y-41.361
X-50.694 Y-41.431
X-50.83 Y-41.494
X-50.957 Y-41.574
X-51.043 Y-41.641
X-51.144 Y-41.683
X-51.362 Y-41.704
X-51.733 Y-41.642
X-51.819 Y-41.639
X-51.904 Y-41.656
X-51.981 Y-41.694
X-52.082 Y-41.757
X-52.182 Y-41.817
X-52.231 Y-41.844
X-52.281 Y-41.866
X-52.38 Y-41.893
X-52.479 Y-41.91
X-52.578 Y-41.922
X-52.781 Y-41.944
X-52.821 Y-41.955
X-52.856 Y-41.977
X-52.884 Y-42.007
X-52.902 Y-42.044
X-52.91 Y-42.085
X-52.94 Y-42.662
X-52.952 Y-42.9
X-52.981 Y-43.486 F400
X-52.978 Y-43.525
X-52.965 Y-43.562
X-52.942 Y-43.595
X-52.912 Y-43.62
X-52.876 Y-43.637
X-52.667 Y-43.694 F600
X-52.578 Y-43.719
X-52.479 Y-43.754
X-52.403 Y-43.793
X-52.38 Y-43.809
X-52.274 Y-43.893
X-52.182 Y-43.971
X-51.934 Y-44.19
X-51.884 Y-44.238
X-51.429 Y-44.686
X-51.289 Y-44.823
X-51.264 Y-44.842
X-51.24 Y-44.857
X-50.793 Y-45.06
X-50.744 Y-45.083
X-50.604 Y-45.138
X-50.499 Y-45.166
X-50.477 Y-45.171
X-50.456 Y-45.175
X-50.434 Y-45.177
G3 X-50.319 Y-44.924 I0.006 J0.15
G1 X-50.348 Y-44.9 F400
X-50.382 Y-44.885
X-50.631 Y-44.805
X-50.676 Y-44.798
X-50.677
G3 X-50.744 Y-45.083 I0 J-0.15
G1 X-50.595 Y-45.15 F600
X-50.57 Y-45.161
X-50.545 Y-45.168
X-50.496 Y-45.173
X-50.099 Y-45.203
X-50.045 Y-45.207
X-50 Y-45.21
X-49.85 Y-45.214
X-49.705 Y-45.201
X-49.683 Y-45.198
X-49.662 Y-45.194
X-49.641 Y-45.189
G3 X-49.654 Y-44.9 I-0.046 J0.143
G1 X-49.694 Y-44.896 F400
X-49.991 Y-44.911
G3 X-50 Y-45.21 I0.008 J-0.15
G1 X-49.802 Y-45.225 F600
X-49.777 Y-45.224
X-49.752 Y-45.22
X-49.306 Y-45.094
X-49.266 Y-45.083
X-49.233 Y-45.074
X-49.091 Y-45.025
X-48.963 Y-44.964
X-48.945 Y-44.954
X-48.927 Y-44.944
X-48.91 Y-44.932
G3 X-49.015 Y-44.664 I-0.092 J0.118
G1 X-49.061 Y-44.676 F400
X-49.328 Y-44.79
G3 X-49.233 Y-45.074 I0.059 J-0.138
G1 X-49.058 Y-45.024 F600
X-49.033 Y-45.015
X-49.008 Y-45.003
X-48.612 Y-44.716
X-48.495 Y-44.622
X-48.379 Y-44.526
X-48.273 Y-44.42
X-48.175 Y-44.307
X-48.086 Y-44.186
X-48.006 Y-44.059
X-47.936 Y-43.926
X-47.877 Y-43.789
X-47.827 Y-43.647
X-47.787 Y-43.502
X-47.757 Y-43.356
X-47.736 Y-43.207
X-47.726 Y-43.057
X-47.727 Y-42.907
X-47.739 Y-42.758
X-47.759 Y-42.609
X-47.788 Y-42.462
X-47.828 Y-42.317
X-47.877 Y-42.176
X-47.936 Y-42.038
X-48.005 Y-41.904
X-48.029 Y-41.863
X-48.047 Y-41.836
X-48.067 Y-41.81
X-48.089 Y-41.787
X-48.215 Y-41.664
X-48.47 Y-41.413
X-48.513 Y-41.372
X-48.545 Y-41.34
X-48.657 Y-41.24
X-48.8 Y-41.134
X-48.854 Y-41.102
X-48.881 Y-41.088
G3 X-49.029 Y-41.346 I-0.057 J-0.139
G1 X-49.014 Y-41.357
X-48.745 Y-41.562 F400
G3 X-48.545 Y-41.34 I0.091 J0.119
G1 X-48.711 Y-41.177 F600
X-48.736 Y-41.158
X-48.76 Y-41.143
X-49.108 Y-40.985
X-49.207 Y-40.94
X-49.234 Y-40.927
X-49.374 Y-40.872
X-49.521 Y-40.832
X-49.543 Y-40.827
X-49.565 Y-40.823
X-49.587 Y-40.821
G3 X-49.667 Y-41.101 I-0.006 J-0.15
G1 X-49.637 Y-41.114 F400
X-49.345 Y-41.205
G3 X-49.234 Y-40.927 I0.045 J0.143
G1 X-49.405 Y-40.85 F600
X-49.43 Y-40.839
X-49.455 Y-40.832
X-49.504 Y-40.827
X-49.901 Y-40.797
X-49.955 Y-40.793
X-50 Y-40.79
X-50.15 Y-40.786
X-50.301 Y-40.801
X-50.322 Y-40.803
X-50.342 Y-40.807
X-50.363 Y-40.812
G3 X-50.347 Y-41.102 I0.046 J-0.143
G1 X-50.309 Y-41.105 F400
X-50.008 Y-41.089
G3 X-50 Y-40.79 I-0.008 J0.15
G1 X-50.198 Y-40.775 F600
X-50.223 Y-40.776
X-50.248 Y-40.78
X-50.942 Y-40.976
X-50.967 Y-40.985
X-50.992 Y-40.997
X-51.587 Y-41.427
X-51.884 Y-41.631
X-51.981 Y-41.694
X-52.014 Y-41.725
X-52.036 Y-41.765
X-52.045 Y-41.809
X-52.04 Y-41.854
X-52.023 Y-41.896
X-51.993 Y-41.93
X-51.606 Y-42.266
X-49.239 Y-44.318
X-48.794 Y-44.705 F400
X-48.752 Y-44.73
X-48.705 Y-44.741
X-48.656 Y-44.736
X-48.612 Y-44.716
X-48.413 Y-44.573 F600
X-48.116 Y-44.369
X-47.993 Y-44.289
X-47.818 Y-44.183
X-47.769 Y-44.156
X-47.719 Y-44.134
X-47.62 Y-44.107
X-47.521 Y-44.09
X-47.422 Y-44.078
X-47.223 Y-44.057
X-47.025 Y-44.037
X-46.976 Y-44.038
X-46.926 Y-44.042
X-46.827 Y-44.058
X-46.721 Y-44.091
X-46.331 Y-44.236
X-46.291 Y-44.244
X-46.25 Y-44.24
X-46.211 Y-44.226
X-46.178 Y-44.201
X-46.153 Y-44.169
X-46.138 Y-44.131
X-46.006 Y-43.609
X-45.811 Y-42.838
X-45.7 Y-42.399 F400
G3 X-45.904 Y-42.224 I-0.145 J0.037
G1 X-45.934 Y-42.238 F600
X-46.033 Y-42.28
X-46.1 Y-42.306
X-46.232 Y-42.338
X-46.56 Y-42.405
X-46.628 Y-42.416
X-46.728 Y-42.43
X-46.827 Y-42.429
X-46.944 Y-42.405
X-47.124 Y-42.363
X-47.333 Y-42.306
X-47.422 Y-42.281
X-47.521 Y-42.246
X-47.597 Y-42.207
X-47.62 Y-42.191
X-47.726 Y-42.107
X-47.818 Y-42.029
X-48.066 Y-41.81
X-48.089 Y-41.787
G3 X-48.288 Y-42.012 I-0.099 J-0.112
X-48.135 Y-42.039 I0.099 J0.112
G1 X-48.106 Y-42.013 Z-0.394
X-48.079 Y-41.99 Z-0.379
X-48.056 Y-41.969 Z-0.354
X-48.048 Y-41.948 Z-0.324
X-48.044 Y-41.934 Z-0.288
X-48.042 Y-41.929 Z-0.25
Z5
X-55.799 Y-43.991
Z-0.5
Z-0.65 F400
X-55.792 Y-43.992 Z-0.696
X-55.771 Y-43.994 Z-0.738
X-55.738 Y-43.997 Z-0.771
X-55.696 Y-44.002 Z-0.793
X-55.65 Y-44.006 Z-0.8
G3 X-54.096 Y-43.776 I0.327 J3.148
G1 X-54.066 Y-43.762 F600
X-53.967 Y-43.72
X-53.9 Y-43.694
X-53.768 Y-43.662
X-53.614 Y-43.631
X-53.469 Y-43.593
X-53.335 Y-43.526
X-53.213 Y-43.439
X-53.116 Y-43.325
X-53.039 Y-43.196
X-52.976 Y-43.06
X-52.924 Y-42.919
X-52.897 Y-42.772
X-52.89 Y-42.622
X-52.897 Y-42.446
X-52.915 Y-42.297
X-52.952 Y-42.149
X-53.004 Y-42.058
X-53.08 Y-41.987
X-53.174 Y-41.942
X-53.279 Y-41.909
X-53.669 Y-41.764
X-53.717 Y-41.756
X-53.764 Y-41.764
X-53.807 Y-41.787
X-53.841 Y-41.822
X-53.861 Y-41.865
X-53.866 Y-41.913
X-53.842 Y-42.407
X-53.815 Y-42.959
X-53.789 Y-43.49 F400
X-53.781 Y-43.532
X-53.762 Y-43.569
X-53.733 Y-43.6
X-53.697 Y-43.621
X-53.657 Y-43.632
X-53.614 Y-43.631
X-53.44 Y-43.595 F600
X-53.372 Y-43.584
X-53.272 Y-43.57
X-53.173 Y-43.571
X-53.023 Y-43.573
X-52.884 Y-43.516
X-52.761 Y-43.431
X-52.656 Y-43.324
X-52.569 Y-43.202
X-52.5 Y-43.069
X-52.447 Y-42.928
X-52.409 Y-42.783
X-52.386 Y-42.635
X-52.377 Y-42.485
X-52.385 Y-42.335
X-52.411 Y-42.188
X-52.413 Y-42.182
X-52.494 Y-42.048
X-52.626 Y-41.963
X-52.781 Y-41.944
X-52.975 Y-41.963
X-53.024 Y-41.962
X-53.074 Y-41.958
X-53.174 Y-41.942
X-53.221 Y-41.937
X-53.267 Y-41.946
X-53.308 Y-41.97
X-53.339 Y-42.005
X-53.359 Y-42.048
X-53.363 Y-42.095
X-53.335 Y-42.596
X-53.321 Y-42.841
X-53.288 Y-43.434 F400
X-53.278 Y-43.48
X-53.253 Y-43.521
X-53.217 Y-43.553
X-53.173 Y-43.571
X-53.056 Y-43.595 F600
X-52.876 Y-43.637
X-52.729 Y-43.669
X-52.582 Y-43.638
X-52.364 Y-43.633
X-52.154 Y-43.695
X-51.768 Y-43.901
X-51.433 Y-44.182
X-51.257 Y-44.312
X-51.134 Y-44.397
X-50.983 Y-44.482
X-50.765 Y-44.582
X-50.593 Y-44.645
X-50.449 Y-44.685
X-50.301 Y-44.708
X-50.101 Y-44.724
X-49.929
X-49.78 Y-44.712
X-49.633 Y-44.682
X-49.457 Y-44.629
X-49.288 Y-44.563
X-49.153 Y-44.498
X-49.028 Y-44.416
X-48.889 Y-44.306
X-48.751 Y-44.176
X-48.65 Y-44.065
X-48.565 Y-43.942
X-48.48 Y-43.791
X-48.398 Y-43.613
X-48.347 Y-43.472
X-48.315 Y-43.325
X-48.294 Y-43.156
X-48.286 Y-42.956
X-48.292 Y-42.806
X-48.318 Y-42.659
X-48.363 Y-42.494
X-48.432 Y-42.305
X-48.495 Y-42.169
X-48.575 Y-42.042
X-48.68 Y-41.908
X-48.817 Y-41.758
X-48.927 Y-41.656
X-49.049 Y-41.57
X-49.197 Y-41.486
X-49.382 Y-41.4
X-49.522 Y-41.348
X-49.669 Y-41.315
X-49.837 Y-41.294
X-50.041 Y-41.285
X-50.191 Y-41.291
X-50.338 Y-41.317
X-50.502 Y-41.361
X-50.694 Y-41.431
X-50.83 Y-41.494
X-50.957 Y-41.574
X-51.043 Y-41.641
X-51.144 Y-41.683
X-51.362 Y-41.704
X-51.733 Y-41.642
X-51.819 Y-41.639
X-51.904 Y-41.656
X-51.981 Y-41.694
X-52.082 Y-41.757
X-52.182 Y-41.817
X-52.231 Y-41.844
X-52.281 Y-41.866
X-52.38 Y-41.893
X-52.479 Y-41.91
X-52.578 Y-41.922
X-52.781 Y-41.944
X-52.821 Y-41.955
X-52.856 Y-41.977
X-52.884 Y-42.007
X-52.902 Y-42.044
X-52.91 Y-42.085
X-52.94 Y-42.662
X-52.952 Y-42.9
X-52.981 Y-43.486 F400
X-52.978 Y-43.525
X-52.965 Y-43.562
X-52.942 Y-43.595
X-52.912 Y-43.62
X-52.876 Y-43.637
X-52.667 Y-43.694 F600
X-52.578 Y-43.719
X-52.479 Y-43.754
X-52.403 Y-43.793
X-52.38 Y-43.809
X-52.274 Y-43.893
X-52.182 Y-43.971
X-51.934 Y-44.19
X-51.884 Y-44.238
X-51.429 Y-44.686
X-51.289 Y-44.823
X-51.264 Y-44.842
X-51.24 Y-44.857
X-50.793 Y-45.06
X-50.744 Y-45.083
X-50.604 Y-45.138
X-50.499 Y-45.166
X-50.477 Y-45.171
X-50.456 Y-45.175
X-50.434 Y-45.177
G3 X-50.319 Y-44.924 I0.006 J0.15
G1 X-50.348 Y-44.9 F400
X-50.382 Y-44.885
X-50.631 Y-44.805
X-50.676 Y-44.798
X-50.677
G3 X-50.744 Y-45.083 I0 J-0.15
G1 X-50.595 Y-45.15 F600
X-50.57 Y-45.161
X-50.545 Y-45.168
X-50.496 Y-45.173
X-50.099 Y-45.203
X-50.045 Y-45.207
X-50 Y-45.21
X-49.85 Y-45.214
X-49.705 Y-45.201
X-49.683 Y-45.198
X-49.662 Y-45.194
X-49.641 Y-45.189
G3 X-49.654 Y-44.9 I-0.046 J0.143
G1 X-49.694 Y-44.896 F400
X-49.991 Y-44.911
G3 X-50 Y-45.21 I0.008 J-0.15
G1 X-49.802 Y-45.225 F600
X-49.777 Y-45.224
X-49.752 Y-45.22
X-49.306 Y-45.094
X-49.266 Y-45.083
X-49.233 Y-45.074
X-49.091 Y-45.025
X-48.963 Y-44.964
X-48.945 Y-44.954
X-48.927 Y-44.944
X-48.91 Y-44.932
G3 X-49.015 Y-44.664 I-0.092 J0.118
G1 X-49.061 Y-44.676 F400
X-49.328 Y-44.79
G3 X-49.233 Y-45.074 I0.059 J-0.138
G1 X-49.058 Y-45.024 F600
X-49.033 Y-45.015
X-49.008 Y-45.003
X-48.612 Y-44.716
X-48.495 Y-44.622
X-48.379 Y-44.526
X-48.273 Y-44.42
X-48.175 Y-44.307
X-48.086 Y-44.186
X-48.006 Y-44.059
X-47.936 Y-43.926
X-47.877 Y-43.789
X-47.827 Y-43.647
X-47.787 Y-43.502
X-47.757 Y-43.356
X-47.736 Y-43.207
X-47.726 Y-43.057
X-47.727 Y-42.907
X-47.739 Y-42.758
X-47.759 Y-42.609
X-47.788 Y-42.462
X-47.828 Y-42.317
X-47.877 Y-42.176
X-47.936 Y-42.038
X-48.005 Y-41.904
X-48.029 Y-41.863
X-48.047 Y-41.836
X-48.067 Y-41.81
X-48.089 Y-41.787
X-48.215 Y-41.664
X-48.47 Y-41.413
X-48.513 Y-41.372
X-48.545 Y-41.34
X-48.657 Y-41.24
X-48.8 Y-41.134
X-48.854 Y-41.102
X-48.881 Y-41.088
G3 X-49.029 Y-41.346 I-0.057 J-0.139
G1 X-49.014 Y-41.357
X-48.745 Y-41.562 F400
G3 X-48.545 Y-41.34 I0.091 J0.119
G1 X-48.711 Y-41.177 F600
X-48.736 Y-41.158
X-48.76 Y-41.143
X-49.108 Y-40.985
X-49.207 Y-40.94
X-49.234 Y-40.927
X-49.374 Y-40.872
X-49.521 Y-40.832
X-49.543 Y-40.827
X-49.565 Y-40.823
X-49.587 Y-40.821
G3 X-49.667 Y-41.101 I-0.006 J-0.15
G1 X-49.637 Y-41.114 F400
X-49.345 Y-41.205
G3 X-49.234 Y-40.927 I0.045 J0.143
G1 X-49.405 Y-40.85 F600
X-49.43 Y-40.839
X-49.455 Y-40.832
X-49.504 Y-40.827
X-49.901 Y-40.797
X-49.955 Y-40.793
X-50 Y-40.79
X-50.15 Y-40.786
X-50.301 Y-40.801
X-50.322 Y-40.803
X-50.342 Y-40.807
X-50.363 Y-40.812
G3 X-50.347 Y-41.102 I0.046 J-0.143
G1 X-50.309 Y-41.105 F400
X-50.008 Y-41.089
G3 X-50 Y-40.79 I-0.008 J0.15
G1 X-50.198 Y-40.775 F600
X-50.223 Y-40.776
X-50.248 Y-40.78
X-50.942 Y-40.976
X-50.967 Y-40.985
X-50.992 Y-40.997
X-51.587 Y-41.427
X-51.884 Y-41.631
X-51.981 Y-41.694
X-52.014 Y-41.725
X-52.036 Y-41.765
X-52.045 Y-41.809
X-52.04 Y-41.854
X-52.023 Y-41.896
X-51.993 Y-41.93
X-51.606 Y-42.266
X-49.239 Y-44.318
X-48.794 Y-44.705 F400
X-48.752 Y-44.73
X-48.705 Y-44.741
X-48.656 Y-44.736
X-48.612 Y-44.716
X-48.413 Y-44.573 F600
X-48.116 Y-44.369
X-47.993 Y-44.289
X-47.818 Y-44.183
X-47.769 Y-44.156
X-47.719 Y-44.134
X-47.62 Y-44.107
X-47.521 Y-44.09
X-47.422 Y-44.078
X-47.223 Y-44.057
X-47.025 Y-44.037
X-46.976 Y-44.038
X-46.926 Y-44.042
X-46.827 Y-44.058
X-46.721 Y-44.091
X-46.331 Y-44.236
X-46.291 Y-44.244
X-46.25 Y-44.24
X-46.211 Y-44.226
X-46.178 Y-44.201
X-46.153 Y-44.169
X-46.138 Y-44.131
X-46.006 Y-43.609
X-45.811 Y-42.838
X-45.7 Y-42.399 F400
G3 X-45.904 Y-42.224 I-0.145 J0.037
G1 X-45.934 Y-42.238 F600
X-46.033 Y-42.28
X-46.1 Y-42.306
X-46.232 Y-42.338
X-46.56 Y-42.405
X-46.628 Y-42.416
X-46.728 Y-42.43
X-46.827 Y-42.429
X-46.944 Y-42.405
X-47.124 Y-42.363
X-47.333 Y-42.306
X-47.422 Y-42.281
X-47.521 Y-42.246
X-47.597 Y-42.207
X-47.62 Y-42.191
X-47.726 Y-42.107
X-47.818 Y-42.029
X-48.066 Y-41.81
X-48.089 Y-41.787
G3 X-48.288 Y-42.012 I-0.099 J-0.112
X-48.135 Y-42.039 I0.099 J0.112
G1 X-48.106 Y-42.013 Z-0.794
X-48.079 Y-41.99 Z-0.779
X-48.056 Y-41.969 Z-0.754
X-48.048 Y-41.948 Z-0.724
X-48.044 Y-41.934 Z-0.688
X-48.042 Y-41.929 Z-0.65
Z5
X-55.799 Y-43.991
Z-0.7
Z-0.85 F400
X-55.792 Y-43.992 Z-0.896
X-55.771 Y-43.994 Z-0.938
X-55.738 Y-43.997 Z-0.971
X-55.696 Y-44.002 Z-0.993
X-55.65 Y-44.006 Z-1
G3 X-54.096 Y-43.776 I0.327 J3.148
G1 X-54.066 Y-43.762 F600
X-53.967 Y-43.72
X-53.9 Y-43.694
X-53.768 Y-43.662
X-53.614 Y-43.631
X-53.469 Y-43.593
X-53.335 Y-43.526
X-53.213 Y-43.439
X-53.116 Y-43.325
X-53.039 Y-43.196
X-52.976 Y-43.06
X-52.924 Y-42.919
X-52.897 Y-42.772
X-52.89 Y-42.622
X-52.897 Y-42.446
X-52.915 Y-42.297
X-52.952 Y-42.149
X-53.004 Y-42.058
X-53.08 Y-41.987
X-53.174 Y-41.942
X-53.279 Y-41.909
X-53.669 Y-41.764
X-53.717 Y-41.756
X-53.764 Y-41.764
X-53.807 Y-41.787
X-53.841 Y-41.822
X-53.861 Y-41.865
X-53.866 Y-41.913
X-53.842 Y-42.407
X-53.815 Y-42.959
X-53.789 Y-43.49 F400
X-53.781 Y-43.532
X-53.762 Y-43.569
X-53.733 Y-43.6
X-53.697 Y-43.621
X-53.657 Y-43.632
X-53.614 Y-43.631
X-53.44 Y-43.595 F600
X-53.372 Y-43.584
X-53.272 Y-43.57
X-53.173 Y-43.571
X-53.023 Y-43.573
X-52.884 Y-43.516
X-52.761 Y-43.431
X-52.656 Y-43.324
X-52.569 Y-43.202
X-52.5 Y-43.069
X-52.447 Y-42.928
X-52.409 Y-42.783
X-52.386 Y-42.635
X-52.377 Y-42.485
X-52.385 Y-42.335
X-52.411 Y-42.188
X-52.413 Y-42.182
X-52.494 Y-42.048
X-52.626 Y-41.963
X-52.781 Y-41.944
X-52.975 Y-41.963
X-53.024 Y-41.962
X-53.074 Y-41.958
X-53.174 Y-41.942
X-53.221 Y-41.937
X-53.267 Y-41.946
X-53.308 Y-41.97
X-53.339 Y-42.005
X-53.359 Y-42.048
X-53.363 Y-42.095
X-53.335 Y-42.596
X-53.321 Y-42.841
X-53.288 Y-43.434 F400
X-53.278 Y-43.48
X-53.253 Y-43.521
X-53.217 Y-43.553
X-53.173 Y-43.571
X-53.056 Y-43.595 F600
X-52.876 Y-43.637
X-52.729 Y-43.669
X-52.582 Y-43.638
X-52.364 Y-43.633
X-52.154 Y-43.695
X-51.768 Y-43.901
X-51.433 Y-44.182
X-51.257 Y-44.312
X-51.134 Y-44.397
X-50.983 Y-44.482
X-50.765 Y-44.582
X-50.593 Y-44.645
X-50.449 Y-44.685
X-50.301 Y-44.708
X-50.101 Y-44.724
X-49.929
X-49.78 Y-44.712
