(1001)
(Bearbeiten)
(  Hersteller: ChinaCnc)
(  model: 3040T)
(  description: Generic 3-axis)
(T14  D=1.5 CR=0 - ZMIN=-3.2 - Schaftfraser)
G90 G94
G17
G21
G28 G91 Z0
G90

(Bohrfrasen12)
T14
S6000 M3
G54
G0 X-111.019 Y-127.779
Z15
Z2.1
G1 Z0.25 F400
Y-127.771 Z0.204
Y-127.75 Z0.162
Y-127.717 Z0.129
Y-127.675 Z0.107
Y-127.629 Z0.1
Y-127.554
X-111.026 Y-127.507
X-111.047 Y-127.465
X-111.08 Y-127.432
X-111.122 Y-127.411
X-111.169 Y-127.404
G3 X-111.169 Y-129.404 Z-0.2 I0 J-1 F600
X-111.169 Y-127.404 Z-0.5 I0 J1
X-111.169 Y-129.404 Z-0.8 I0 J-1
X-111.169 Y-127.404 Z-1.1 I0 J1
X-111.169 Y-129.404 Z-1.4 I0 J-1
X-111.169 Y-127.404 Z-1.7 I0 J1
X-111.169 Y-129.404 Z-2 I0 J-1
X-111.169 Y-127.404 Z-2.3 I0 J1
X-111.169 Y-129.404 Z-2.6 I0 J-1
X-111.169 Y-127.404 Z-2.9 I0 J1
X-111.169 Y-129.404 Z-3.2 I0 J-1
X-111.169 Y-127.404 I0 J1
X-111.169 Y-129.404 I0 J-1
G1 X-111.122 Y-129.396
X-111.08 Y-129.375
X-111.047 Y-129.342
X-111.026 Y-129.3
X-111.019 Y-129.254
Y-129.179
Y-129.132 Z-3.193
Y-129.09 Z-3.171
Y-129.057 Z-3.138
Y-129.036 Z-3.096
Y-129.029 Z-3.05
G0 Z5
X-105.725 Y-117.244
Z2.1
G1 Z0.25 F400
Y-117.236 Z0.204
Y-117.215 Z0.162
Y-117.182 Z0.129
Y-117.14 Z0.107
Y-117.094 Z0.1
Y-117.019
X-105.733 Y-116.972
X-105.754 Y-116.93
X-105.787 Y-116.897
X-105.829 Y-116.876
X-105.875 Y-116.869
G3 X-105.875 Y-117.869 Z-0.2 I0 J-0.5 F600
X-105.875 Y-116.869 Z-0.5 I0 J0.5
X-105.875 Y-117.869 Z-0.8 I0 J-0.5
X-105.875 Y-116.869 Z-1.1 I0 J0.5
X-105.875 Y-117.869 Z-1.4 I0 J-0.5
X-105.875 Y-116.869 Z-1.7 I0 J0.5
X-105.875 Y-117.869 Z-2 I0 J-0.5
X-105.875 Y-116.869 Z-2.3 I0 J0.5
X-105.875 Y-117.869 Z-2.6 I0 J-0.5
X-105.875 Y-116.869 Z-2.9 I0 J0.5
X-105.875 Y-117.869 Z-3.2 I0 J-0.5
X-105.875 Y-116.869 I0 J0.5
X-105.875 Y-117.869 I0 J-0.5
G1 X-105.829 Y-117.861
X-105.787 Y-117.84
X-105.754 Y-117.807
X-105.733 Y-117.765
X-105.725 Y-117.719
Y-117.644
Y-117.597 Z-3.193
Y-117.555 Z-3.171
Y-117.522 Z-3.138
Y-117.501 Z-3.096
Y-117.494 Z-3.05
G0 Z5
X-100.3 Y-121.203
Z2.1
G1 Z0.25 F400
X-100.294 Y-121.199 Z0.204
X-100.276 Y-121.187 Z0.162
X-100.248 Y-121.169 Z0.129
X-100.213 Y-121.146 Z0.107
X-100.175 Y-121.12 Z0.1
X-100.112 Y-121.079
X-100.077 Y-121.047
X-100.054 Y-121.006
X-100.045 Y-120.96
X-100.05 Y-120.914
X-100.069 Y-120.871
G3 X-102.031 Y-122.165 Z-0.2 I-0.981 J-0.647 F600
X-100.069 Y-120.871 Z-0.5 I0.981 J0.647
X-102.031 Y-122.165 Z-0.8 I-0.981 J-0.647
X-100.069 Y-120.871 Z-1.1 I0.981 J0.647
X-102.031 Y-122.165 Z-1.4 I-0.981 J-0.647
X-100.069 Y-120.871 Z-1.7 I0.981 J0.647
X-102.031 Y-122.165 Z-2 I-0.981 J-0.647
X-100.069 Y-120.871 Z-2.3 I0.981 J0.647
X-102.031 Y-122.165 Z-2.6 I-0.981 J-0.647
X-100.069 Y-120.871 Z-2.9 I0.981 J0.647
X-102.031 Y-122.165 Z-3.2 I-0.981 J-0.647
X-100.069 Y-120.871 I0.981 J0.647
X-102.031 Y-122.165 I-0.981 J-0.647
G1 X-101.999 Y-122.2
X-101.959 Y-122.223
X-101.913 Y-122.232
X-101.866 Y-122.227
X-101.823 Y-122.208
X-101.761 Y-122.166
X-101.722 Y-122.141 Z-3.193
X-101.687 Y-122.118 Z-3.171
X-101.659 Y-122.1 Z-3.138
X-101.641 Y-122.088 Z-3.096
X-101.635 Y-122.084 Z-3.05
G0 Z5
X-96.751 Y-116.568
Z2.1
G1 Z0.25 F400
Y-116.561 Z0.204
Y-116.539 Z0.162
Y-116.506 Z0.129
Y-116.464 Z0.107
Y-116.418 Z0.1
Y-116.343
X-96.758 Y-116.297
X-96.779 Y-116.255
X-96.812 Y-116.222
X-96.854 Y-116.2
X-96.901 Y-116.193
G3 X-96.901 Y-117.193 Z-0.2 I0 J-0.5 F600
X-96.901 Y-116.193 Z-0.5 I0 J0.5
X-96.901 Y-117.193 Z-0.8 I0 J-0.5
X-96.901 Y-116.193 Z-1.1 I0 J0.5
X-96.901 Y-117.193 Z-1.4 I0 J-0.5
X-96.901 Y-116.193 Z-1.7 I0 J0.5
X-96.901 Y-117.193 Z-2 I0 J-0.5
X-96.901 Y-116.193 Z-2.3 I0 J0.5
X-96.901 Y-117.193 Z-2.6 I0 J-0.5
X-96.901 Y-116.193 Z-2.9 I0 J0.5
X-96.901 Y-117.193 Z-3.2 I0 J-0.5
X-96.901 Y-116.193 I0 J0.5
X-96.901 Y-117.193 I0 J-0.5
G1 X-96.854 Y-117.186
X-96.812 Y-117.164
X-96.779 Y-117.131
X-96.758 Y-117.089
X-96.751 Y-117.043
Y-116.968
Y-116.922 Z-3.193
Y-116.88 Z-3.171
Y-116.847 Z-3.138
Y-116.825 Z-3.096
Y-116.818 Z-3.05
G0 Z5
X-102.476 Y-112.859
Z2.1
G1 Z0.25 F400
X-102.482 Y-112.863 Z0.204
X-102.5 Y-112.875 Z0.162
X-102.528 Y-112.893 Z0.129
X-102.563 Y-112.916 Z0.107
X-102.601 Y-112.941 Z0.1
X-102.664 Y-112.983
X-102.699 Y-113.014
X-102.722 Y-113.055
X-102.731 Y-113.101
X-102.726 Y-113.148
X-102.706 Y-113.191
G3 X-100.745 Y-111.897 Z-0.2 I0.981 J0.647 F600
X-102.706 Y-113.191 Z-0.5 I-0.981 J-0.647
X-100.745 Y-111.897 Z-0.8 I0.981 J0.647
X-102.706 Y-113.191 Z-1.1 I-0.981 J-0.647
X-100.745 Y-111.897 Z-1.4 I0.981 J0.647
X-102.706 Y-113.191 Z-1.7 I-0.981 J-0.647
X-100.745 Y-111.897 Z-2 I0.981 J0.647
X-102.706 Y-113.191 Z-2.3 I-0.981 J-0.647
X-100.745 Y-111.897 Z-2.6 I0.981 J0.647
X-102.706 Y-113.191 Z-2.9 I-0.981 J-0.647
X-100.745 Y-111.897 Z-3.2 I0.981 J0.647
X-102.706 Y-113.191 I-0.981 J-0.647
X-100.745 Y-111.897 I0.981 J0.647
G1 X-100.777 Y-111.862
X-100.817 Y-111.839
X-100.863 Y-111.829
X-100.91 Y-111.834
X-100.953 Y-111.854
X-101.015 Y-111.895
X-101.054 Y-111.921 Z-3.193
X-101.089 Y-111.944 Z-3.171
X-101.117 Y-111.962 Z-3.138
X-101.134 Y-111.974 Z-3.096
X-101.14 Y-111.978 Z-3.05
G0 Z5
X-91.457 Y-105.033
Z2.1
G1 Z0.25 F400
Y-105.026 Z0.204
Y-105.004 Z0.162
Y-104.971 Z0.129
Y-104.929 Z0.107
Y-104.883 Z0.1
Y-104.808
X-91.465 Y-104.762
X-91.486 Y-104.72
X-91.519 Y-104.687
X-91.561 Y-104.665
X-91.607 Y-104.658
G3 X-91.607 Y-106.658 Z-0.2 I0 J-1 F600
X-91.607 Y-104.658 Z-0.5 I0 J1
X-91.607 Y-106.658 Z-0.8 I0 J-1
X-91.607 Y-104.658 Z-1.1 I0 J1
X-91.607 Y-106.658 Z-1.4 I0 J-1
X-91.607 Y-104.658 Z-1.7 I0 J1
X-91.607 Y-106.658 Z-2 I0 J-1
X-91.607 Y-104.658 Z-2.3 I0 J1
X-91.607 Y-106.658 Z-2.6 I0 J-1
X-91.607 Y-104.658 Z-2.9 I0 J1
X-91.607 Y-106.658 Z-3.2 I0 J-1
X-91.607 Y-104.658 I0 J1
X-91.607 Y-106.658 I0 J-1
G1 X-91.561 Y-106.651
X-91.519 Y-106.629
X-91.486 Y-106.596
X-91.465 Y-106.554
X-91.457 Y-106.508
Y-106.433
Y-106.387 Z-3.193
Y-106.345 Z-3.171
Y-106.312 Z-3.138
Y-106.29 Z-3.096
Y-106.283 Z-3.05
G0 Z5
X-68.238 Y-76.906
Z2.1
G1 Z0.25 F400
Y-76.898 Z0.204
Y-76.877 Z0.162
Y-76.844 Z0.129
Y-76.802 Z0.107
Y-76.756 Z0.1
Y-76.681
X-68.245 Y-76.634
X-68.267 Y-76.593
X-68.3 Y-76.559
X-68.342 Y-76.538
X-68.388 Y-76.531
G3 X-68.388 Y-77.531 Z-0.2 I0 J-0.5 F600
X-68.388 Y-76.531 Z-0.5 I0 J0.5
X-68.388 Y-77.531 Z-0.8 I0 J-0.5
X-68.388 Y-76.531 Z-1.1 I0 J0.5
X-68.388 Y-77.531 Z-1.4 I0 J-0.5
X-68.388 Y-76.531 Z-1.7 I0 J0.5
X-68.388 Y-77.531 Z-2 I0 J-0.5
X-68.388 Y-76.531 Z-2.3 I0 J0.5
X-68.388 Y-77.531 Z-2.6 I0 J-0.5
X-68.388 Y-76.531 Z-2.9 I0 J0.5
X-68.388 Y-77.531 Z-3.2 I0 J-0.5
X-68.388 Y-76.531 I0 J0.5
X-68.388 Y-77.531 I0 J-0.5
G1 X-68.342 Y-77.523
X-68.3 Y-77.502
X-68.267 Y-77.469
X-68.245 Y-77.427
X-68.238 Y-77.381
Y-77.306
Y-77.259 Z-3.193
Y-77.218 Z-3.171
Y-77.184 Z-3.138
Y-77.163 Z-3.096
Y-77.156 Z-3.05
G0 Z5
X-48.238 Y-76.906
Z2.1
G1 Z0.25 F400
Y-76.898 Z0.204
Y-76.877 Z0.162
Y-76.844 Z0.129
Y-76.802 Z0.107
Y-76.756 Z0.1
Y-76.681
X-48.245 Y-76.634
X-48.267 Y-76.593
X-48.3 Y-76.559
X-48.342 Y-76.538
X-48.388 Y-76.531
G3 X-48.388 Y-77.531 Z-0.2 I0 J-0.5 F600
X-48.388 Y-76.531 Z-0.5 I0 J0.5
X-48.388 Y-77.531 Z-0.8 I0 J-0.5
X-48.388 Y-76.531 Z-1.1 I0 J0.5
X-48.388 Y-77.531 Z-1.4 I0 J-0.5
X-48.388 Y-76.531 Z-1.7 I0 J0.5
X-48.388 Y-77.531 Z-2 I0 J-0.5
X-48.388 Y-76.531 Z-2.3 I0 J0.5
X-48.388 Y-77.531 Z-2.6 I0 J-0.5
X-48.388 Y-76.531 Z-2.9 I0 J0.5
X-48.388 Y-77.531 Z-3.2 I0 J-0.5
X-48.388 Y-76.531 I0 J0.5
X-48.388 Y-77.531 I0 J-0.5
G1 X-48.342 Y-77.523
X-48.3 Y-77.502
X-48.267 Y-77.469
X-48.245 Y-77.427
X-48.238 Y-77.381
Y-77.306
Y-77.259 Z-3.193
Y-77.218 Z-3.171
Y-77.184 Z-3.138
Y-77.163 Z-3.096
Y-77.156 Z-3.05
G0 Z5
Y-56.906
Z2.1
G1 Z0.25 F400
Y-56.898 Z0.204
Y-56.877 Z0.162
Y-56.844 Z0.129
Y-56.802 Z0.107
Y-56.756 Z0.1
Y-56.681
X-48.245 Y-56.634
X-48.267 Y-56.593
X-48.3 Y-56.559
X-48.342 Y-56.538
X-48.388 Y-56.531
G3 X-48.388 Y-57.531 Z-0.2 I0 J-0.5 F600
X-48.388 Y-56.531 Z-0.5 I0 J0.5
X-48.388 Y-57.531 Z-0.8 I0 J-0.5
X-48.388 Y-56.531 Z-1.1 I0 J0.5
X-48.388 Y-57.531 Z-1.4 I0 J-0.5
X-48.388 Y-56.531 Z-1.7 I0 J0.5
X-48.388 Y-57.531 Z-2 I0 J-0.5
X-48.388 Y-56.531 Z-2.3 I0 J0.5
X-48.388 Y-57.531 Z-2.6 I0 J-0.5
X-48.388 Y-56.531 Z-2.9 I0 J0.5
X-48.388 Y-57.531 Z-3.2 I0 J-0.5
X-48.388 Y-56.531 I0 J0.5
X-48.388 Y-57.531 I0 J-0.5
G1 X-48.342 Y-57.523
X-48.3 Y-57.502
X-48.267 Y-57.469
X-48.245 Y-57.427
X-48.238 Y-57.381
Y-57.306
Y-57.259 Z-3.193
Y-57.218 Z-3.171
Y-57.184 Z-3.138
Y-57.163 Z-3.096
Y-57.156 Z-3.05
G0 Z5
X-68.238 Y-56.906
Z2.1
G1 Z0.25 F400
Y-56.898 Z0.204
Y-56.877 Z0.162
Y-56.844 Z0.129
Y-56.802 Z0.107
Y-56.756 Z0.1
Y-56.681
X-68.245 Y-56.634
X-68.267 Y-56.593
X-68.3 Y-56.559
X-68.342 Y-56.538
X-68.388 Y-56.531
G3 X-68.388 Y-57.531 Z-0.2 I0 J-0.5 F600
X-68.388 Y-56.531 Z-0.5 I0 J0.5
X-68.388 Y-57.531 Z-0.8 I0 J-0.5
X-68.388 Y-56.531 Z-1.1 I0 J0.5
X-68.388 Y-57.531 Z-1.4 I0 J-0.5
X-68.388 Y-56.531 Z-1.7 I0 J0.5
X-68.388 Y-57.531 Z-2 I0 J-0.5
X-68.388 Y-56.531 Z-2.3 I0 J0.5
X-68.388 Y-57.531 Z-2.6 I0 J-0.5
X-68.388 Y-56.531 Z-2.9 I0 J0.5
X-68.388 Y-57.531 Z-3.2 I0 J-0.5
X-68.388 Y-56.531 I0 J0.5
X-68.388 Y-57.531 I0 J-0.5
G1 X-68.342 Y-57.523
X-68.3 Y-57.502
X-68.267 Y-57.469
X-68.245 Y-57.427
X-68.238 Y-57.381
Y-57.306
Y-57.259 Z-3.193
Y-57.218 Z-3.171
Y-57.184 Z-3.138
Y-57.163 Z-3.096
Y-57.156 Z-3.05
G0 Z5
X-91.757 Y-29.029
Z2.1
G1 Z0.25 F400
Y-29.036 Z0.204
Y-29.057 Z0.162
Y-29.09 Z0.129
Y-29.132 Z0.107
Y-29.179 Z0.1
Y-29.254
X-91.75 Y-29.3
X-91.729 Y-29.342
X-91.695 Y-29.375
X-91.654 Y-29.396
X-91.607 Y-29.404
G3 X-91.607 Y-27.404 Z-0.2 I0 J1 F600
X-91.607 Y-29.404 Z-0.5 I0 J-1
X-91.607 Y-27.404 Z-0.8 I0 J1
X-91.607 Y-29.404 Z-1.1 I0 J-1
X-91.607 Y-27.404 Z-1.4 I0 J1
X-91.607 Y-29.404 Z-1.7 I0 J-1
X-91.607 Y-27.404 Z-2 I0 J1
X-91.607 Y-29.404 Z-2.3 I0 J-1
X-91.607 Y-27.404 Z-2.6 I0 J1
X-91.607 Y-29.404 Z-2.9 I0 J-1
X-91.607 Y-27.404 Z-3.2 I0 J1
X-91.607 Y-29.404 I0 J-1
X-91.607 Y-27.404 I0 J1
G1 X-91.654 Y-27.411
X-91.695 Y-27.432
X-91.729 Y-27.465
X-91.75 Y-27.507
X-91.757 Y-27.554
Y-27.629
Y-27.675 Z-3.193
Y-27.717 Z-3.171
Y-27.75 Z-3.138
Y-27.771 Z-3.096
Y-27.779 Z-3.05
G0 Z5
X-97.051 Y-17.494
Z2.1
G1 Z0.25 F400
Y-17.501 Z0.204
Y-17.522 Z0.162
Y-17.555 Z0.129
Y-17.597 Z0.107
Y-17.644 Z0.1
Y-17.719
X-97.043 Y-17.765
X-97.022 Y-17.807
X-96.989 Y-17.84
X-96.947 Y-17.861
X-96.901 Y-17.869
G3 X-96.901 Y-16.869 Z-0.2 I0 J0.5 F600
X-96.901 Y-17.869 Z-0.5 I0 J-0.5
X-96.901 Y-16.869 Z-0.8 I0 J0.5
X-96.901 Y-17.869 Z-1.1 I0 J-0.5
X-96.901 Y-16.869 Z-1.4 I0 J0.5
X-96.901 Y-17.869 Z-1.7 I0 J-0.5
X-96.901 Y-16.869 Z-2 I0 J0.5
X-96.901 Y-17.869 Z-2.3 I0 J-0.5
X-96.901 Y-16.869 Z-2.6 I0 J0.5
X-96.901 Y-17.869 Z-2.9 I0 J-0.5
X-96.901 Y-16.869 Z-3.2 I0 J0.5
X-96.901 Y-17.869 I0 J-0.5
X-96.901 Y-16.869 I0 J0.5
G1 X-96.947 Y-16.876
X-96.989 Y-16.897
X-97.022 Y-16.93
X-97.043 Y-16.972
X-97.051 Y-17.019
Y-17.094
Y-17.14 Z-3.193
Y-17.182 Z-3.171
Y-17.215 Z-3.138
Y-17.236 Z-3.096
Y-17.244 Z-3.05
G0 Z5
X-102.311 Y-20.952
Z2.1
G1 Z0.25 F400
X-102.317 Y-20.948 Z0.204
X-102.335 Y-20.937 Z0.162
X-102.362 Y-20.918 Z0.129
X-102.397 Y-20.895 Z0.107
X-102.436 Y-20.87 Z0.1
X-102.499 Y-20.829
X-102.541 Y-20.809
X-102.588 Y-20.804
X-102.634 Y-20.813
X-102.675 Y-20.836
X-102.706 Y-20.871
G3 X-100.745 Y-22.165 Z-0.2 I0.981 J-0.647 F600
X-102.706 Y-20.871 Z-0.5 I-0.981 J0.647
X-100.745 Y-22.165 Z-0.8 I0.981 J-0.647
X-102.706 Y-20.871 Z-1.1 I-0.981 J0.647
X-100.745 Y-22.165 Z-1.4 I0.981 J-0.647
X-102.706 Y-20.871 Z-1.7 I-0.981 J0.647
X-100.745 Y-22.165 Z-2 I0.981 J-0.647
X-102.706 Y-20.871 Z-2.3 I-0.981 J0.647
X-100.745 Y-22.165 Z-2.6 I0.981 J-0.647
X-102.706 Y-20.871 Z-2.9 I-0.981 J0.647
X-100.745 Y-22.165 Z-3.2 I0.981 J-0.647
X-102.706 Y-20.871 I-0.981 J0.647
X-100.745 Y-22.165 I0.981 J-0.647
G1 X-100.725 Y-22.122
X-100.72 Y-22.076
X-100.73 Y-22.03
X-100.753 Y-21.989
X-100.787 Y-21.957
X-100.85 Y-21.916
X-100.889 Y-21.891 Z-3.193
X-100.924 Y-21.867 Z-3.171
X-100.951 Y-21.849 Z-3.138
X-100.969 Y-21.837 Z-3.096
X-100.975 Y-21.833 Z-3.05
G0 Z5
X-106.025 Y-16.818
Z2.1
G1 Z0.25 F400
Y-16.825 Z0.204
Y-16.847 Z0.162
Y-16.88 Z0.129
Y-16.922 Z0.107
Y-16.968 Z0.1
Y-17.043
X-106.018 Y-17.089
X-105.997 Y-17.131
X-105.963 Y-17.164
X-105.922 Y-17.186
X-105.875 Y-17.193
G3 X-105.875 Y-16.193 Z-0.2 I0 J0.5 F600
X-105.875 Y-17.193 Z-0.5 I0 J-0.5
X-105.875 Y-16.193 Z-0.8 I0 J0.5
X-105.875 Y-17.193 Z-1.1 I0 J-0.5
X-105.875 Y-16.193 Z-1.4 I0 J0.5
X-105.875 Y-17.193 Z-1.7 I0 J-0.5
X-105.875 Y-16.193 Z-2 I0 J0.5
X-105.875 Y-17.193 Z-2.3 I0 J-0.5
X-105.875 Y-16.193 Z-2.6 I0 J0.5
X-105.875 Y-17.193 Z-2.9 I0 J-0.5
X-105.875 Y-16.193 Z-3.2 I0 J0.5
X-105.875 Y-17.193 I0 J-0.5
X-105.875 Y-16.193 I0 J0.5
G1 X-105.922 Y-16.2
X-105.963 Y-16.222
X-105.997 Y-16.255
X-106.018 Y-16.297
X-106.025 Y-16.343
Y-16.418
Y-16.464 Z-3.193
Y-16.506 Z-3.171
Y-16.539 Z-3.138
Y-16.561 Z-3.096
Y-16.568 Z-3.05
G0 Z5
X-101.839 Y-12.743
Z2.1
G1 Z0.25 F400
X-101.846 Y-12.746 Z0.204
X-101.865 Y-12.755 Z0.162
X-101.895 Y-12.769 Z0.129
X-101.933 Y-12.786 Z0.107
X-101.975 Y-12.806 Z0.1
X-102.044 Y-12.837
X-102.083 Y-12.863
X-102.112 Y-12.9
X-102.128 Y-12.944
X-102.13 Y-12.991
X-102.117 Y-13.036
G3 X-99.984 Y-12.051 Z-0.2 I1.067 J0.493 F600
X-102.117 Y-13.036 Z-0.5 I-1.067 J-0.493
X-99.984 Y-12.051 Z-0.8 I1.067 J0.493
X-102.117 Y-13.036 Z-1.1 I-1.067 J-0.493
X-99.984 Y-12.051 Z-1.4 I1.067 J0.493
X-102.117 Y-13.036 Z-1.7 I-1.067 J-0.493
X-99.984 Y-12.051 Z-2 I1.067 J0.493
X-102.117 Y-13.036 Z-2.3 I-1.067 J-0.493
X-99.984 Y-12.051 Z-2.6 I1.067 J0.493
X-102.117 Y-13.036 Z-2.9 I-1.067 J-0.493
X-100.557 Y-13.61 Z-3.05 I1.067 J0.493
X-99.984 Y-12.051 Z-3.2 I-0.493 J1.067
X-102.117 Y-13.036 I-1.067 J-0.493
X-99.984 Y-12.051 I1.067 J0.493
G1 X-100.01 Y-12.012
X-100.047 Y-11.983
X-100.091 Y-11.966
X-100.137 Y-11.965
X-100.183 Y-11.977
X-100.251 Y-12.009
X-100.293 Y-12.028 Z-3.193
X-100.331 Y-12.046 Z-3.171
X-100.361 Y-12.06 Z-3.138
X-100.38 Y-12.069 Z-3.096
X-100.387 Y-12.072 Z-3.05
G0 Z5
X-111.318 Y-6.283
Z2.1
G1 Z0.25 F400
Y-6.29 Z0.204
Y-6.312 Z0.162
Y-6.345 Z0.129
Y-6.387 Z0.107
Y-6.433 Z0.1
Y-6.508
X-111.311 Y-6.554
X-111.29 Y-6.596
X-111.257 Y-6.629
X-111.215 Y-6.651
X-111.169 Y-6.658
G3 X-111.169 Y-4.658 Z-0.2 I0 J1 F600
X-111.169 Y-6.658 Z-0.5 I0 J-1
X-111.169 Y-4.658 Z-0.8 I0 J1
X-111.169 Y-6.658 Z-1.1 I0 J-1
X-111.169 Y-4.658 Z-1.4 I0 J1
X-111.169 Y-6.658 Z-1.7 I0 J-1
X-111.169 Y-4.658 Z-2 I0 J1
X-111.169 Y-6.658 Z-2.3 I0 J-1
X-111.169 Y-4.658 Z-2.6 I0 J1
X-111.169 Y-6.658 Z-2.9 I0 J-1
X-111.169 Y-4.658 Z-3.2 I0 J1
X-111.169 Y-6.658 I0 J-1
X-111.169 Y-4.658 I0 J1
G1 X-111.215 Y-4.665
X-111.257 Y-4.687
X-111.29 Y-4.72
X-111.311 Y-4.762
X-111.318 Y-4.808
Y-4.883
Y-4.929 Z-3.193
Y-4.971 Z-3.171
Y-5.004 Z-3.138
Y-5.026 Z-3.096
Y-5.033 Z-3.05
G0 Z5
X-5.757 Y-6.283
Z2.1
G1 Z0.25 F400
Y-6.29 Z0.204
Y-6.312 Z0.162
Y-6.345 Z0.129
Y-6.387 Z0.107
Y-6.433 Z0.1
Y-6.508
X-5.75 Y-6.554
X-5.729 Y-6.596
X-5.695 Y-6.629
X-5.654 Y-6.651
X-5.607 Y-6.658
G3 X-5.607 Y-4.658 Z-0.2 I0 J1 F600
X-5.607 Y-6.658 Z-0.5 I0 J-1
X-5.607 Y-4.658 Z-0.8 I0 J1
X-5.607 Y-6.658 Z-1.1 I0 J-1
X-5.607 Y-4.658 Z-1.4 I0 J1
X-5.607 Y-6.658 Z-1.7 I0 J-1
X-5.607 Y-4.658 Z-2 I0 J1
X-5.607 Y-6.658 Z-2.3 I0 J-1
X-5.607 Y-4.658 Z-2.6 I0 J1
X-5.607 Y-6.658 Z-2.9 I0 J-1
X-5.607 Y-4.658 Z-3.2 I0 J1
X-5.607 Y-6.658 I0 J-1
X-5.607 Y-4.658 I0 J1
G1 X-5.654 Y-4.665
X-5.695 Y-4.687
X-5.729 Y-4.72
X-5.75 Y-4.762
X-5.757 Y-4.808
Y-4.883
Y-4.929 Z-3.193
Y-4.971 Z-3.171
Y-5.004 Z-3.138
Y-5.026 Z-3.096
Y-5.033 Z-3.05
G0 Z5
X-15.062 Y-13.015
Z2.1
G1 Z0.25 F400
X-15.056 Y-13.018 Z0.204
X-15.036 Y-13.027 Z0.162
X-15.006 Y-13.041 Z0.129
X-14.968 Y-13.059 Z0.107
X-14.926 Y-13.078 Z0.1
X-14.858 Y-13.11
X-14.813 Y-13.122
X-14.766 Y-13.121
X-14.722 Y-13.104
X-14.685 Y-13.075
X-14.659 Y-13.036
G3 X-16.792 Y-12.051 Z-0.2 I-1.067 J0.493 F600
X-14.659 Y-13.036 Z-0.5 I1.067 J-0.493
X-16.792 Y-12.051 Z-0.8 I-1.067 J0.493
X-14.659 Y-13.036 Z-1.1 I1.067 J-0.493
X-16.792 Y-12.051 Z-1.4 I-1.067 J0.493
X-14.659 Y-13.036 Z-1.7 I1.067 J-0.493
X-16.792 Y-12.051 Z-2 I-1.067 J0.493
X-14.659 Y-13.036 Z-2.3 I1.067 J-0.493
X-16.792 Y-12.051 Z-2.6 I-1.067 J0.493
X-14.659 Y-13.036 Z-2.9 I1.067 J-0.493
X-16.792 Y-12.051 Z-3.2 I-1.067 J0.493
X-14.659 Y-13.036 I1.067 J-0.493
X-16.792 Y-12.051 I-1.067 J0.493
G1 X-16.805 Y-12.096
X-16.803 Y-12.143
X-16.787 Y-12.187
X-16.758 Y-12.224
X-16.719 Y-12.25
X-16.651 Y-12.281
X-16.609 Y-12.301 Z-3.193
X-16.571 Y-12.318 Z-3.171
X-16.541 Y-12.332 Z-3.138
X-16.521 Y-12.341 Z-3.096
X-16.515 Y-12.344 Z-3.05
G0 Z5
X-11.051 Y-16.818
Z2.1
G1 Z0.25 F400
Y-16.825 Z0.204
Y-16.847 Z0.162
Y-16.88 Z0.129
Y-16.922 Z0.107
Y-16.968 Z0.1
Y-17.043
X-11.043 Y-17.089
X-11.022 Y-17.131
X-10.989 Y-17.164
X-10.947 Y-17.186
X-10.901 Y-17.193
G3 X-10.901 Y-16.193 Z-0.2 I0 J0.5 F600
X-10.901 Y-17.193 Z-0.5 I0 J-0.5
X-10.901 Y-16.193 Z-0.8 I0 J0.5
X-10.901 Y-17.193 Z-1.1 I0 J-0.5
X-10.901 Y-16.193 Z-1.4 I0 J0.5
X-10.901 Y-17.193 Z-1.7 I0 J-0.5
X-10.901 Y-16.193 Z-2 I0 J0.5
X-10.901 Y-17.193 Z-2.3 I0 J-0.5
X-10.901 Y-16.193 Z-2.6 I0 J0.5
X-10.901 Y-17.193 Z-2.9 I0 J-0.5
X-10.901 Y-16.193 Z-3.2 I0 J0.5
X-10.901 Y-17.193 I0 J-0.5
X-10.901 Y-16.193 I0 J0.5
G1 X-10.947 Y-16.2
X-10.989 Y-16.222
X-11.022 Y-16.255
X-11.043 Y-16.297
X-11.051 Y-16.343
Y-16.418
Y-16.464 Z-3.193
Y-16.506 Z-3.171
Y-16.539 Z-3.138
Y-16.561 Z-3.096
Y-16.568 Z-3.05
G0 Z5
X-15.2 Y-22.318
Z2.1
G1 Z0.25 F400
Y-22.325 Z0.204
Y-22.347 Z0.162
Y-22.38 Z0.129
Y-22.422 Z0.107
Y-22.468 Z0.1
Y-22.543
X-15.193 Y-22.589
X-15.172 Y-22.631
X-15.138 Y-22.664
X-15.097 Y-22.686
X-15.05 Y-22.693
G3 X-15.05 Y-20.343 Z-0.2 I0 J1.175 F600
X-15.05 Y-22.693 Z-0.5 I0 J-1.175
X-15.05 Y-20.343 Z-0.8 I0 J1.175
X-15.05 Y-22.693 Z-1.1 I0 J-1.175
X-15.05 Y-20.343 Z-1.4 I0 J1.175
X-15.05 Y-22.693 Z-1.7 I0 J-1.175
X-15.05 Y-20.343 Z-2 I0 J1.175
X-15.05 Y-22.693 Z-2.3 I0 J-1.175
X-15.05 Y-20.343 Z-2.6 I0 J1.175
X-15.05 Y-22.693 Z-2.9 I0 J-1.175
X-15.05 Y-20.343 Z-3.2 I0 J1.175
X-15.05 Y-22.693 I0 J-1.175
X-15.05 Y-20.343 I0 J1.175
G1 X-15.097 Y-20.35
X-15.138 Y-20.372
X-15.172 Y-20.405
X-15.193 Y-20.447
X-15.2 Y-20.493
Y-20.568
Y-20.614 Z-3.193
Y-20.656 Z-3.171
Y-20.689 Z-3.138
Y-20.711 Z-3.096
Y-20.718 Z-3.05
G0 Z5
X-20.025 Y-17.494
Z2.1
G1 Z0.25 F400
Y-17.501 Z0.204
Y-17.522 Z0.162
Y-17.555 Z0.129
Y-17.597 Z0.107
Y-17.644 Z0.1
Y-17.719
X-20.018 Y-17.765
X-19.997 Y-17.807
X-19.963 Y-17.84
X-19.922 Y-17.861
X-19.875 Y-17.869
G3 X-19.875 Y-16.869 Z-0.2 I0 J0.5 F600
X-19.875 Y-17.869 Z-0.5 I0 J-0.5
X-19.875 Y-16.869 Z-0.8 I0 J0.5
X-19.875 Y-17.869 Z-1.1 I0 J-0.5
X-19.875 Y-16.869 Z-1.4 I0 J0.5
X-19.875 Y-17.869 Z-1.7 I0 J-0.5
X-19.875 Y-16.869 Z-2 I0 J0.5
X-19.875 Y-17.869 Z-2.3 I0 J-0.5
X-19.875 Y-16.869 Z-2.6 I0 J0.5
X-19.875 Y-17.869 Z-2.9 I0 J-0.5
X-19.875 Y-16.869 Z-3.2 I0 J0.5
X-19.875 Y-17.869 I0 J-0.5
X-19.875 Y-16.869 I0 J0.5
G1 X-19.922 Y-16.876
X-19.963 Y-16.897
X-19.997 Y-16.93
X-20.018 Y-16.972
X-20.025 Y-17.019
Y-17.094
Y-17.14 Z-3.193
Y-17.182 Z-3.171
Y-17.215 Z-3.138
Y-17.236 Z-3.096
Y-17.244 Z-3.05
G0 Z5
X-25.318 Y-29.029
Z2.1
G1 Z0.25 F400
Y-29.036 Z0.204
Y-29.057 Z0.162
Y-29.09 Z0.129
Y-29.132 Z0.107
Y-29.179 Z0.1
Y-29.254
X-25.311 Y-29.3
X-25.29 Y-29.342
X-25.257 Y-29.375
X-25.215 Y-29.396
X-25.168 Y-29.404
G3 X-25.168 Y-27.404 Z-0.2 I0 J1 F600
X-25.168 Y-29.404 Z-0.5 I0 J-1
X-25.168 Y-27.404 Z-0.8 I0 J1
X-25.168 Y-29.404 Z-1.1 I0 J-1
X-25.168 Y-27.404 Z-1.4 I0 J1
X-25.168 Y-29.404 Z-1.7 I0 J-1
X-25.168 Y-27.404 Z-2 I0 J1
X-25.168 Y-29.404 Z-2.3 I0 J-1
X-25.168 Y-27.404 Z-2.6 I0 J1
X-25.168 Y-29.404 Z-2.9 I0 J-1
X-25.168 Y-27.404 Z-3.2 I0 J1
X-25.168 Y-29.404 I0 J-1
X-25.168 Y-27.404 I0 J1
G1 X-25.215 Y-27.411
X-25.257 Y-27.432
X-25.29 Y-27.465
X-25.311 Y-27.507
X-25.318 Y-27.554
Y-27.629
Y-27.675 Z-3.193
Y-27.717 Z-3.171
Y-27.75 Z-3.138
Y-27.771 Z-3.096
Y-27.779 Z-3.05
G0 Z5
X-25.018 Y-105.033
Z2.1
G1 Z0.25 F400
Y-105.026 Z0.204
Y-105.004 Z0.162
Y-104.971 Z0.129
Y-104.929 Z0.107
Y-104.883 Z0.1
Y-104.808
X-25.026 Y-104.762
X-25.047 Y-104.72
X-25.08 Y-104.687
X-25.122 Y-104.665
X-25.168 Y-104.658
G3 X-25.168 Y-106.658 Z-0.2 I0 J-1 F600
X-25.168 Y-104.658 Z-0.5 I0 J1
X-25.168 Y-106.658 Z-0.8 I0 J-1
X-25.168 Y-104.658 Z-1.1 I0 J1
X-25.168 Y-106.658 Z-1.4 I0 J-1
X-25.168 Y-104.658 Z-1.7 I0 J1
X-25.168 Y-106.658 Z-2 I0 J-1
X-25.168 Y-104.658 Z-2.3 I0 J1
X-25.168 Y-106.658 Z-2.6 I0 J-1
X-25.168 Y-104.658 Z-2.9 I0 J1
X-25.168 Y-106.658 Z-3.2 I0 J-1
X-25.168 Y-104.658 I0 J1
X-25.168 Y-106.658 I0 J-1
G1 X-25.122 Y-106.651
X-25.08 Y-106.629
X-25.047 Y-106.596
X-25.026 Y-106.554
X-25.018 Y-106.508
Y-106.433
Y-106.387 Z-3.193
Y-106.345 Z-3.171
Y-106.312 Z-3.138
Y-106.29 Z-3.096
Y-106.283 Z-3.05
G0 Z5
X-14.465 Y-113.109
Z2.1
G1 Z0.25 F400
X-14.459 Y-113.113 Z0.204
X-14.441 Y-113.125 Z0.162
X-14.413 Y-113.143 Z0.129
X-14.378 Y-113.166 Z0.107
X-14.34 Y-113.192 Z0.1
X-14.277 Y-113.233
X-14.234 Y-113.253
X-14.188 Y-113.258
X-14.142 Y-113.248
X-14.101 Y-113.225
X-14.069 Y-113.191
G3 X-16.031 Y-111.896 Z-0.2 I-0.981 J0.647 F600
X-14.069 Y-113.191 Z-0.5 I0.981 J-0.647
X-16.031 Y-111.897 Z-0.8 I-0.981 J0.647
X-14.069 Y-113.191 Z-1.1 I0.981 J-0.647
X-16.031 Y-111.897 Z-1.4 I-0.981 J0.647
X-14.069 Y-113.191 Z-1.7 I0.981 J-0.647
X-16.031 Y-111.897 Z-2 I-0.981 J0.647
X-14.069 Y-113.191 Z-2.3 I0.981 J-0.647
X-16.031 Y-111.897 Z-2.6 I-0.981 J0.647
X-14.069 Y-113.191 Z-2.9 I0.981 J-0.647
X-14.403 Y-111.563 Z-3.05 I-0.981 J0.647
X-16.031 Y-111.897 Z-3.2 I-0.647 J-0.981
X-14.069 Y-113.191 I0.981 J-0.647
X-16.031 Y-111.897 I-0.981 J0.647
G1 X-16.05 Y-111.939
X-16.056 Y-111.986
X-16.046 Y-112.032
X-16.023 Y-112.073
X-15.988 Y-112.104
X-15.926 Y-112.146
X-15.887 Y-112.171 Z-3.193
X-15.852 Y-112.194 Z-3.171
X-15.824 Y-112.212 Z-3.138
X-15.807 Y-112.224 Z-3.096
X-15.801 Y-112.228 Z-3.05
G0 Z5
X-19.725 Y-116.568
Z2.1
G1 Z0.25 F400
Y-116.561 Z0.204
Y-116.539 Z0.162
Y-116.506 Z0.129
Y-116.464 Z0.107
Y-116.418 Z0.1
Y-116.343
X-19.733 Y-116.297
X-19.754 Y-116.255
X-19.787 Y-116.222
X-19.829 Y-116.2
X-19.875 Y-116.193
G3 X-19.875 Y-117.193 Z-0.2 I0 J-0.5 F600
X-19.875 Y-116.193 Z-0.5 I0 J0.5
X-19.875 Y-117.193 Z-0.8 I0 J-0.5
X-19.875 Y-116.193 Z-1.1 I0 J0.5
X-19.875 Y-117.193 Z-1.4 I0 J-0.5
X-19.875 Y-116.193 Z-1.7 I0 J0.5
X-19.875 Y-117.193 Z-2 I0 J-0.5
X-19.875 Y-116.193 Z-2.3 I0 J0.5
X-19.875 Y-117.193 Z-2.6 I0 J-0.5
X-19.875 Y-116.193 Z-2.9 I0 J0.5
X-19.875 Y-117.193 Z-3.2 I0 J-0.5
X-19.875 Y-116.193 I0 J0.5
X-19.875 Y-117.193 I0 J-0.5
G1 X-19.829 Y-117.186
X-19.787 Y-117.164
X-19.754 Y-117.131
X-19.733 Y-117.089
X-19.725 Y-117.043
Y-116.968
Y-116.922 Z-3.193
Y-116.88 Z-3.171
Y-116.847 Z-3.138
Y-116.825 Z-3.096
Y-116.818 Z-3.05
G0 Z5
X-14.937 Y-121.319
Z2.1
G1 Z0.25 F400
X-14.93 Y-121.316 Z0.204
X-14.911 Y-121.307 Z0.162
X-14.88 Y-121.293 Z0.129
X-14.842 Y-121.275 Z0.107
X-14.8 Y-121.256 Z0.1
X-14.732 Y-121.224
X-14.693 Y-121.198
X-14.664 Y-121.161
X-14.648 Y-121.117
X-14.646 Y-121.07
X-14.659 Y-121.025
G3 X-16.792 Y-122.011 Z-0.2 I-1.067 J-0.493 F600
X-14.659 Y-121.025 Z-0.5 I1.067 J0.493
X-16.792 Y-122.011 Z-0.8 I-1.067 J-0.493
X-14.659 Y-121.025 Z-1.1 I1.067 J0.493
X-16.792 Y-122.011 Z-1.4 I-1.067 J-0.493
X-14.659 Y-121.025 Z-1.7 I1.067 J0.493
X-16.792 Y-122.011 Z-2 I-1.067 J-0.493
X-14.659 Y-121.025 Z-2.3 I1.067 J0.493
X-16.792 Y-122.011 Z-2.6 I-1.067 J-0.493
X-14.659 Y-121.025 Z-2.9 I1.067 J0.493
X-16.792 Y-122.011 Z-3.2 I-1.067 J-0.493
X-14.659 Y-121.025 I1.067 J0.493
X-16.792 Y-122.011 I-1.067 J-0.493
G1 X-16.766 Y-122.05
X-16.729 Y-122.079
X-16.685 Y-122.095
X-16.638 Y-122.097
X-16.593 Y-122.084
X-16.525 Y-122.053
X-16.483 Y-122.033 Z-3.193
X-16.445 Y-122.016 Z-3.171
X-16.415 Y-122.002 Z-3.138
X-16.396 Y-121.993 Z-3.096
X-16.389 Y-121.99 Z-3.05
G0 Z5
X-10.751 Y-117.244
Z2.1
G1 Z0.25 F400
Y-117.236 Z0.204
Y-117.215 Z0.162
Y-117.182 Z0.129
Y-117.14 Z0.107
Y-117.094 Z0.1
Y-117.019
X-10.758 Y-116.972
X-10.779 Y-116.93
X-10.812 Y-116.897
X-10.854 Y-116.876
X-10.901 Y-116.869
G3 X-10.901 Y-117.869 Z-0.2 I0 J-0.5 F600
X-10.901 Y-116.869 Z-0.5 I0 J0.5
X-10.901 Y-117.869 Z-0.8 I0 J-0.5
X-10.901 Y-116.869 Z-1.1 I0 J0.5
X-10.901 Y-117.869 Z-1.4 I0 J-0.5
X-10.901 Y-116.869 Z-1.7 I0 J0.5
X-10.901 Y-117.869 Z-2 I0 J-0.5
X-10.901 Y-116.869 Z-2.3 I0 J0.5
X-10.901 Y-117.869 Z-2.6 I0 J-0.5
X-10.901 Y-116.869 Z-2.9 I0 J0.5
X-10.901 Y-117.869 Z-3.2 I0 J-0.5
X-10.901 Y-116.869 I0 J0.5
X-10.901 Y-117.869 I0 J-0.5
G1 X-10.854 Y-117.861
X-10.812 Y-117.84
X-10.779 Y-117.807
X-10.758 Y-117.765
X-10.751 Y-117.719
Y-117.644
Y-117.597 Z-3.193
Y-117.555 Z-3.171
Y-117.522 Z-3.138
Y-117.501 Z-3.096
Y-117.494 Z-3.05
G0 Z5
X-5.457 Y-127.779
Z2.1
G1 Z0.25 F400
Y-127.771 Z0.204
Y-127.75 Z0.162
Y-127.717 Z0.129
Y-127.675 Z0.107
Y-127.629 Z0.1
Y-127.554
X-5.465 Y-127.507
X-5.486 Y-127.465
X-5.519 Y-127.432
X-5.561 Y-127.411
X-5.607 Y-127.404
G3 X-5.607 Y-129.404 Z-0.2 I0 J-1 F600
X-5.607 Y-127.404 Z-0.5 I0 J1
X-5.607 Y-129.404 Z-0.8 I0 J-1
X-5.607 Y-127.404 Z-1.1 I0 J1
X-5.607 Y-129.404 Z-1.4 I0 J-1
X-5.607 Y-127.404 Z-1.7 I0 J1
X-5.607 Y-129.404 Z-2 I0 J-1
X-5.607 Y-127.404 Z-2.3 I0 J1
X-5.607 Y-129.404 Z-2.6 I0 J-1
X-5.607 Y-127.404 Z-2.9 I0 J1
X-5.607 Y-129.404 Z-3.2 I0 J-1
X-5.607 Y-127.404 I0 J1
X-5.607 Y-129.404 I0 J-1
G1 X-5.561 Y-129.396
X-5.519 Y-129.375
X-5.486 Y-129.342
X-5.465 Y-129.3
X-5.457 Y-129.254
Y-129.179
Y-129.132 Z-3.193
Y-129.09 Z-3.171
Y-129.057 Z-3.138
Y-129.036 Z-3.096
Y-129.029 Z-3.05
G0 Z15

(Bohrfrasen13)
X-58.238 Y-58.156
Z15
Z2.2
G1 Z0.35 F400
Y-58.148 Z0.304
Y-58.127 Z0.262
Y-58.094 Z0.229
Y-58.052 Z0.207
Y-58.006 Z0.2
Y-57.931
X-58.245 Y-57.884
X-58.267 Y-57.843
X-58.3 Y-57.809
X-58.342 Y-57.788
X-58.388 Y-57.781
G3 X-58.388 Y-76.281 Z-0.1 I0 J-9.25 F600
X-58.388 Y-57.781 Z-0.4 I0 J9.25
X-58.388 Y-76.281 Z-0.7 I0 J-9.25
X-58.388 Y-57.781 Z-1 I0 J9.25
X-58.388 Y-76.281 Z-1.3 I0 J-9.25
X-58.388 Y-57.781 Z-1.6 I0 J9.25
X-58.388 Y-76.281 Z-1.9 I0 J-9.25
X-58.388 Y-57.781 Z-2.2 I0 J9.25
X-58.388 Y-76.281 Z-2.5 I0 J-9.25
X-58.388 Y-57.781 Z-2.8 I0 J9.25
X-58.388 Y-76.281 Z-3.1 I0 J-9.25
X-50.377 Y-71.656 Z-3.2 I0 J9.25
X-66.399 Y-62.406 I-8.011 J4.625
X-50.377 Y-71.656 I8.011 J-4.625
G1 X-50.36 Y-71.612
X-50.358 Y-71.565
X-50.37 Y-71.52
X-50.396 Y-71.48
X-50.432 Y-71.451
X-50.497 Y-71.413
X-50.537 Y-71.39 Z-3.193
X-50.573 Y-71.369 Z-3.171
X-50.602 Y-71.353 Z-3.138
X-50.621 Y-71.342 Z-3.096
X-50.627 Y-71.338 Z-3.05
G0 Z15

(Bohrfrasen14)
X-15.538 Y-17.906
Z15
Z2
G1 Z0.15 F400
Y-17.913 Z0.104
Y-17.934 Z0.062
Y-17.968 Z0.029
Y-18.009 Z0.007
Y-18.056 Z0
Y-18.131
X-15.531 Y-18.177
X-15.509 Y-18.219
X-15.476 Y-18.252
X-15.434 Y-18.273
X-15.388 Y-18.281
G3 X-15.388 Y-15.781 Z-0.3 I0 J1.25 F600
X-15.388 Y-18.281 Z-0.6 I0 J-1.25
X-15.388 Y-15.781 Z-0.9 I0 J1.25
X-15.388 Y-18.281 Z-1.2 I0 J-1.25
X-15.388 Y-15.781 Z-1.5 I0 J1.25
X-15.388 Y-18.281 Z-1.8 I0 J-1.25
X-15.388 Y-15.781 Z-2.1 I0 J1.25
X-15.388 Y-18.281 Z-2.4 I0 J-1.25
X-15.388 Y-15.781 Z-2.7 I0 J1.25
X-15.388 Y-18.281 Z-3 I0 J-1.25
X-14.305 Y-16.406 Z-3.2 I0 J1.25
X-16.47 Y-17.656 I-1.083 J-0.625
X-14.305 Y-16.406 I1.083 J0.625
G1 X-14.335 Y-16.369
X-14.374 Y-16.344
X-14.42 Y-16.332
X-14.466 Y-16.334
X-14.51 Y-16.351
X-14.575 Y-16.388
X-14.615 Y-16.412 Z-3.193
X-14.652 Y-16.433 Z-3.171
X-14.68 Y-16.449 Z-3.138
X-14.699 Y-16.46 Z-3.096
X-14.705 Y-16.463 Z-3.05
G0 Z5
X-101.538 Y-17.906
Z2
G1 Z0.15 F400
Y-17.913 Z0.104
Y-17.934 Z0.062
Y-17.968 Z0.029
Y-18.009 Z0.007
Y-18.056 Z0
Y-18.131
X-101.531 Y-18.177
X-101.509 Y-18.219
X-101.476 Y-18.252
X-101.434 Y-18.273
X-101.388 Y-18.281
G3 X-101.388 Y-15.781 Z-0.3 I0 J1.25 F600
X-101.388 Y-18.281 Z-0.6 I0 J-1.25
X-101.388 Y-15.781 Z-0.9 I0 J1.25
X-101.388 Y-18.281 Z-1.2 I0 J-1.25
X-101.388 Y-15.781 Z-1.5 I0 J1.25
X-101.388 Y-18.281 Z-1.8 I0 J-1.25
X-101.388 Y-15.781 Z-2.1 I0 J1.25
X-101.388 Y-18.281 Z-2.4 I0 J-1.25
X-101.388 Y-15.781 Z-2.7 I0 J1.25
X-101.388 Y-18.281 Z-3 I0 J-1.25
X-100.305 Y-16.406 Z-3.2 I0 J1.25
X-102.47 Y-17.656 I-1.083 J-0.625
X-100.305 Y-16.406 I1.083 J0.625
G1 X-100.335 Y-16.369
X-100.374 Y-16.344
X-100.42 Y-16.332
X-100.466 Y-16.334
X-100.51 Y-16.351
X-100.575 Y-16.388
X-100.615 Y-16.412 Z-3.193
X-100.652 Y-16.433 Z-3.171
X-100.68 Y-16.449 Z-3.138
X-100.699 Y-16.46 Z-3.096
X-100.705 Y-16.463 Z-3.05
G0 Z5
X-101.238 Y-116.156
Z2
G1 Z0.15 F400
Y-116.148 Z0.104
Y-116.127 Z0.062
Y-116.094 Z0.029
Y-116.052 Z0.007
Y-116.006 Z0
Y-115.931
X-101.245 Y-115.884
X-101.267 Y-115.843
X-101.3 Y-115.809
X-101.342 Y-115.788
X-101.388 Y-115.781
G3 X-101.388 Y-118.281 Z-0.3 I0 J-1.25 F600
X-101.388 Y-115.781 Z-0.6 I0 J1.25
X-101.388 Y-118.281 Z-0.9 I0 J-1.25
X-101.388 Y-115.781 Z-1.2 I0 J1.25
X-101.388 Y-118.281 Z-1.5 I0 J-1.25
X-101.388 Y-115.781 Z-1.8 I0 J1.25
X-101.388 Y-118.281 Z-2.1 I0 J-1.25
X-101.388 Y-115.781 Z-2.4 I0 J1.25
X-101.388 Y-118.281 Z-2.7 I0 J-1.25
X-101.388 Y-115.781 Z-3 I0 J1.25
X-102.47 Y-117.656 Z-3.2 I0 J-1.25
X-100.305 Y-116.406 I1.083 J0.625
X-102.47 Y-117.656 I-1.083 J-0.625
G1 X-102.441 Y-117.692
X-102.402 Y-117.718
X-102.356 Y-117.73
X-102.309 Y-117.728
X-102.266 Y-117.711
X-102.201 Y-117.673
X-102.16 Y-117.65 Z-3.193
X-102.124 Y-117.629 Z-3.171
X-102.095 Y-117.613 Z-3.138
X-102.077 Y-117.602 Z-3.096
X-102.071 Y-117.598 Z-3.05
G0 Z5
X-15.238 Y-116.156
Z2
G1 Z0.15 F400
Y-116.148 Z0.104
Y-116.127 Z0.062
Y-116.094 Z0.029
Y-116.052 Z0.007
Y-116.006 Z0
Y-115.931
X-15.245 Y-115.884
X-15.267 Y-115.843
X-15.3 Y-115.809
X-15.342 Y-115.788
X-15.388 Y-115.781
G3 X-15.388 Y-118.281 Z-0.3 I0 J-1.25 F600
X-15.388 Y-115.781 Z-0.6 I0 J1.25
X-15.388 Y-118.281 Z-0.9 I0 J-1.25
X-15.388 Y-115.781 Z-1.2 I0 J1.25
X-15.388 Y-118.281 Z-1.5 I0 J-1.25
X-15.388 Y-115.781 Z-1.8 I0 J1.25
X-15.388 Y-118.281 Z-2.1 I0 J-1.25
X-15.388 Y-115.781 Z-2.4 I0 J1.25
X-15.388 Y-118.281 Z-2.7 I0 J-1.25
X-15.388 Y-115.781 Z-3 I0 J1.25
X-16.47 Y-117.656 Z-3.2 I0 J-1.25
X-14.305 Y-116.406 I1.083 J0.625
X-16.47 Y-117.656 I-1.083 J-0.625
G1 X-16.441 Y-117.692
X-16.402 Y-117.718
X-16.356 Y-117.73
X-16.309 Y-117.728
X-16.266 Y-117.711
X-16.201 Y-117.673
X-16.16 Y-117.65 Z-3.193
X-16.124 Y-117.629 Z-3.171
X-16.095 Y-117.613 Z-3.138
X-16.077 Y-117.602 Z-3.096
X-16.071 Y-117.598 Z-3.05
G0 Z15

(2D Adaptive3)
X-16.388 Y-18.763
Z15
Z5
Z2.5
G1 Z-0.4 F300
X-16.415 Y-18.789 F600
X-16.384 Y-18.81
X-15.947 Y-18.821
X-15.705 Y-18.829
X-15.359 Y-18.814
X-15.211 Y-18.795
X-15.064 Y-18.76
X-14.872 Y-18.698
X-14.674 Y-18.615
X-14.541 Y-18.547
X-14.417 Y-18.462
X-14.274 Y-18.346
X-14.133 Y-18.211
X-14.033 Y-18.098
X-13.949 Y-17.974
X-13.863 Y-17.82
X-13.783 Y-17.642
X-13.733 Y-17.501
X-13.701 Y-17.354
X-13.68 Y-17.182
X-13.673 Y-16.985
X-13.679 Y-16.835
X-13.706 Y-16.687
X-13.752 Y-16.522
X-13.821 Y-16.334
X-13.883 Y-16.198
X-13.964 Y-16.072
X-14.069 Y-15.937
X-14.205 Y-15.789
X-14.315 Y-15.687
X-14.438 Y-15.601
X-14.586 Y-15.517
X-14.77 Y-15.431
X-14.911 Y-15.379
X-15.057 Y-15.346
X-15.225 Y-15.325
X-15.429 Y-15.316
X-15.579 Y-15.322
X-15.726 Y-15.347
X-15.89 Y-15.392
X-16.082 Y-15.462
X-16.218 Y-15.525
X-16.345 Y-15.605
X-16.478 Y-15.709
X-16.629 Y-15.847
X-16.731 Y-15.957
X-16.817 Y-16.08
X-16.901 Y-16.227
X-16.988 Y-16.412
X-17.04 Y-16.553
X-17.073 Y-16.699
X-17.094 Y-16.867
X-17.103 Y-17.071
X-17.097 Y-17.221
X-17.071 Y-17.369
X-16.955 Y-17.791
X-16.962 Y-18.228
X-16.966 Y-18.31
X-16.967 Y-18.46
X-16.95 Y-18.537
X-16.916 Y-18.607
X-16.868 Y-18.669
X-16.626 Y-18.915
X-16.6 Y-18.943
X-16.491 Y-19.046
X-16.371 Y-19.136
X-16.24 Y-19.208
X-16.101 Y-19.264
X-15.957 Y-19.307
X-15.81 Y-19.338
X-15.661 Y-19.359
X-15.512 Y-19.368
X-15.362 Y-19.365
X-15.212 Y-19.353
X-15.064 Y-19.331
X-14.917 Y-19.301
X-14.772 Y-19.262
X-14.63 Y-19.213
X-14.492 Y-19.155
X-14.357 Y-19.089
X-14.227 Y-19.014
X-14.102 Y-18.932
X-14.004 Y-18.86
X-13.974 Y-18.835
X-13.947 Y-18.807
X-13.924 Y-18.776
X-13.801 Y-18.597
X-13.528 Y-18.221
X-13.503 Y-18.186
X-13.478 Y-18.151
X-13.396 Y-18.025
X-13.356 Y-17.936
X-13.344 Y-17.902
G3 X-13.531 Y-17.722 I-0.146 J0.036
G1 X-13.567 Y-17.738 F400
X-13.598 Y-17.762
X-13.621 Y-17.793
X-13.727 Y-17.986
G3 X-13.478 Y-18.151 I0.131 J-0.073
G1 X-13.385 Y-18.022 F600
X-13.373 Y-17.998
X-13.364 Y-17.973
X-13.266 Y-17.626
X-13.238 Y-17.527
X-13.222 Y-17.472
X-13.189 Y-17.326
X-13.171 Y-17.166
X-13.17 Y-17.132
X-13.171 Y-17.119
G3 X-13.456 Y-17.071 I-0.149 J-0.016
G1 X-13.468 Y-17.113 F400
X-13.513 Y-17.403
G3 X-13.222 Y-17.472 I0.148 J-0.023
G1 X-13.168 Y-17.279 F600
X-13.164 Y-17.254
X-13.163 Y-17.229
X-13.193 Y-16.832
X-13.2 Y-16.733
X-13.203 Y-16.691
X-13.222 Y-16.542
X-13.253 Y-16.416
X-13.259 Y-16.395
X-13.266 Y-16.375
X-13.274 Y-16.355
G3 X-13.556 Y-16.395 I-0.134 J-0.067
G1 X-13.559 Y-16.423 F400
X-13.556 Y-16.451
X-13.5 Y-16.727
G3 X-13.203 Y-16.691 I0.147 J0.03
G1 X-13.215 Y-16.535 F600
X-13.22 Y-16.485
X-13.227 Y-16.461
X-13.238 Y-16.436
X-13.404 Y-16.069
X-13.418 Y-16.039
X-13.443 Y-15.985
X-13.511 Y-15.851
X-13.602 Y-15.712
X-13.629 Y-15.678
X-13.648 Y-15.657
G3 X-13.886 Y-15.832 I-0.103 J-0.109
G1 X-13.879 Y-15.845 F400
X-13.709 Y-16.12
G3 X-13.443 Y-15.985 I0.128 J0.079
G1 X-13.53 Y-15.791 F600
X-13.546 Y-15.766
X-13.565 Y-15.742
X-13.857 Y-15.444
X-14.011 Y-15.303
X-14.122 Y-15.202
X-14.242 Y-15.111
X-14.368 Y-15.03
X-14.501 Y-14.961
X-14.639 Y-14.901
X-14.781 Y-14.853
X-14.926 Y-14.814
X-15.073 Y-14.785
X-15.222 Y-14.766
X-15.371 Y-14.759
X-15.521 Y-14.762
X-15.671 Y-14.775
X-15.819 Y-14.798
X-15.966 Y-14.83
X-16.11 Y-14.872
X-16.25 Y-14.924
X-16.387 Y-14.985
X-16.519 Y-15.056
X-16.647 Y-15.134
X-16.77 Y-15.22
X-16.815 Y-15.257
X-16.84 Y-15.279
X-16.863 Y-15.304
X-16.883 Y-15.331
X-16.975 Y-15.465
X-17.175 Y-15.742
X-17.247 Y-15.841
X-17.272 Y-15.875
X-17.354 Y-16.001
X-17.426 Y-16.146
X-17.438 Y-16.18
G3 X-17.194 Y-16.33 I0.146 J-0.036
G1 X-17.176 Y-16.311 F400
X-17.161 Y-16.289
X-17.023 Y-16.04
G3 X-17.272 Y-15.875 I-0.131 J0.073
G1 X-17.39 Y-16.039 F600
X-17.403 Y-16.064
X-17.412 Y-16.089
X-17.51 Y-16.436
X-17.538 Y-16.535
X-17.554 Y-16.59
X-17.587 Y-16.736
X-17.605 Y-16.895
Y-16.93
Y-16.942
G3 X-17.32 Y-16.991 I0.149 J0.016
G1 X-17.307 Y-16.949 F400
X-17.262 Y-16.658
G3 X-17.554 Y-16.59 I-0.148 J0.023
G1 X-17.608 Y-16.783 F600
X-17.612 Y-16.808
X-17.613 Y-16.832
X-17.561 Y-17.527
X-17.556 Y-17.576
X-17.548 Y-17.601
X-17.538 Y-17.626
X-17.245 Y-18.27
X-17.23 Y-18.295
X-17.211 Y-18.32
X-16.868 Y-18.669
G3 X-16.613 Y-18.542 I0.107 J0.105
G1 X-16.664 Y-18.189
G3 X-16.839 Y-18.063 I-0.148 J-0.021
X-16.958 Y-18.244 I0.027 J-0.147
G1 X-16.956 Y-18.252
G3 X-16.6 Y-18.943 I1.541 J0.359 F400
G1 X-16.578 Y-18.965 F600
X-16.359 Y-19.212
X-16.275 Y-19.312
X-16.197 Y-19.411
X-16.181 Y-19.434
X-16.142 Y-19.51
X-16.107 Y-19.609
X-16.052 Y-19.807
X-16.025 Y-19.907
X-15.979 Y-20.105
X-15.959 Y-20.204
X-15.958 Y-20.303
X-15.972 Y-20.402
X-15.983 Y-20.471
X-16.05 Y-20.799
X-16.058 Y-20.829
X-16.06 Y-20.871
X-16.051 Y-20.911
X-16.031 Y-20.948
X-16.002 Y-20.978
X-15.966 Y-20.999
X-15.925 Y-21.008
X-15.393 Y-21.059
X-14.61 Y-21.134
X-14.157 Y-21.178 F400
G3 X-14.014 Y-20.952 I0.014 J0.149
G1 X-14.099 Y-20.821 F600
X-14.111 Y-20.799
X-14.152 Y-20.7
X-14.299 Y-20.303
X-14.33 Y-20.204
X-14.346 Y-20.105
X-14.35 Y-20.055
X-14.351 Y-20.006
X-14.331 Y-19.807
X-14.31 Y-19.609
X-14.297 Y-19.506
X-14.28 Y-19.411
X-14.254 Y-19.312
X-14.232 Y-19.262
X-14.205 Y-19.212
X-14.099 Y-19.038
X-14.019 Y-18.915
X-13.924 Y-18.776
X-13.907 Y-18.739
X-13.9 Y-18.7
X-13.882 Y-17.995
X-13.835 Y-16.219
X-13.818 Y-15.55 F400
X-13.822 Y-15.511
X-13.835 Y-15.476
X-13.857 Y-15.444
X-14.15 Y-15.147 F600
X-14.198 Y-15.096
X-14.417 Y-14.849
X-14.501 Y-14.75
X-14.579 Y-14.651
X-14.594 Y-14.628
X-14.634 Y-14.552
X-14.669 Y-14.453
X-14.724 Y-14.254
X-14.751 Y-14.155
X-14.797 Y-13.957
X-14.817 Y-13.858
X-14.818 Y-13.758
X-14.804 Y-13.659
X-14.793 Y-13.59
X-14.725 Y-13.263
X-14.718 Y-13.233
X-14.716 Y-13.191
X-14.725 Y-13.15
X-14.745 Y-13.113
X-14.774 Y-13.084
X-14.81 Y-13.063
X-14.851 Y-13.053
X-15.382 Y-13.002
X-16.166 Y-12.927
X-16.618 Y-12.884 F400
G3 X-16.761 Y-13.11 I-0.014 J-0.149
G1 X-16.677 Y-13.241 F600
X-16.665 Y-13.263
X-16.624 Y-13.362
X-16.477 Y-13.758
X-16.446 Y-13.858
X-16.429 Y-13.957
X-16.426 Y-14.006
X-16.425 Y-14.056
X-16.444 Y-14.254
X-16.466 Y-14.453
X-16.479 Y-14.556
X-16.495 Y-14.651
X-16.522 Y-14.75
X-16.543 Y-14.8
X-16.571 Y-14.849
X-16.677 Y-15.024
X-16.757 Y-15.147
X-16.883 Y-15.331
G3 X-16.756 Y-15.561 I0.127 J-0.08
X-16.627 Y-15.335 I0 J0.15
G1 X-16.657 Y-15.311 Z-0.394
X-16.685 Y-15.288 Z-0.379
X-16.708 Y-15.269 Z-0.354
X-16.731 Y-15.265 Z-0.324
X-16.745 Y-15.262 Z-0.288
X-16.75 Y-15.261 Z-0.25
G0 Z5
X-16.388 Y-18.763
Z2.1
G1 Z-0.8 F300
X-16.415 Y-18.789 F600
X-16.384 Y-18.81
X-15.947 Y-18.821
X-15.705 Y-18.829
X-15.359 Y-18.814
X-15.211 Y-18.795
X-15.064 Y-18.76
X-14.872 Y-18.698
X-14.674 Y-18.615
X-14.541 Y-18.547
X-14.417 Y-18.462
X-14.274 Y-18.346
X-14.133 Y-18.211
X-14.033 Y-18.098
X-13.949 Y-17.974
X-13.863 Y-17.82
X-13.783 Y-17.642
X-13.733 Y-17.501
X-13.701 Y-17.354
X-13.68 Y-17.182
X-13.673 Y-16.985
X-13.679 Y-16.835
X-13.706 Y-16.687
X-13.752 Y-16.522
X-13.821 Y-16.334
X-13.883 Y-16.198
X-13.964 Y-16.072
X-14.069 Y-15.937
X-14.205 Y-15.789
X-14.315 Y-15.687
X-14.438 Y-15.601
X-14.586 Y-15.517
X-14.77 Y-15.431
X-14.911 Y-15.379
X-15.057 Y-15.346
X-15.225 Y-15.325
X-15.429 Y-15.316
X-15.579 Y-15.322
X-15.726 Y-15.347
X-15.89 Y-15.392
X-16.082 Y-15.462
X-16.218 Y-15.525
X-16.345 Y-15.605
X-16.478 Y-15.709
X-16.629 Y-15.847
X-16.731 Y-15.957
X-16.817 Y-16.08
X-16.901 Y-16.227
X-16.988 Y-16.412
X-17.04 Y-16.553
X-17.073 Y-16.699
X-17.094 Y-16.867
X-17.103 Y-17.071
X-17.097 Y-17.221
X-17.071 Y-17.369
X-16.955 Y-17.791
X-16.962 Y-18.228
X-16.966 Y-18.31
X-16.967 Y-18.46
X-16.95 Y-18.537
X-16.916 Y-18.607
X-16.868 Y-18.669
X-16.626 Y-18.915
X-16.6 Y-18.943
X-16.491 Y-19.046
X-16.371 Y-19.136
X-16.24 Y-19.208
X-16.101 Y-19.264
X-15.957 Y-19.307
X-15.81 Y-19.338
X-15.661 Y-19.359
X-15.512 Y-19.368
X-15.362 Y-19.365
X-15.212 Y-19.353
X-15.064 Y-19.331
X-14.917 Y-19.301
X-14.772 Y-19.262
X-14.63 Y-19.213
X-14.492 Y-19.155
X-14.357 Y-19.089
X-14.227 Y-19.014
X-14.102 Y-18.932
X-14.004 Y-18.86
X-13.974 Y-18.835
X-13.947 Y-18.807
X-13.924 Y-18.776
X-13.801 Y-18.597
X-13.528 Y-18.221
X-13.503 Y-18.186
X-13.478 Y-18.151
X-13.396 Y-18.025
X-13.356 Y-17.936
X-13.344 Y-17.902
G3 X-13.531 Y-17.722 I-0.146 J0.036
G1 X-13.567 Y-17.738 F400
X-13.598 Y-17.762
X-13.621 Y-17.793
X-13.727 Y-17.986
G3 X-13.478 Y-18.151 I0.131 J-0.073
G1 X-13.385 Y-18.022 F600
X-13.373 Y-17.998
X-13.364 Y-17.973
X-13.266 Y-17.626
X-13.238 Y-17.527
X-13.222 Y-17.472
X-13.189 Y-17.326
X-13.171 Y-17.166
X-13.17 Y-17.132
X-13.171 Y-17.119
G3 X-13.456 Y-17.071 I-0.149 J-0.016
G1 X-13.468 Y-17.113 F400
X-13.513 Y-17.403
G3 X-13.222 Y-17.472 I0.148 J-0.023
G1 X-13.168 Y-17.279 F600
X-13.164 Y-17.254
X-13.163 Y-17.229
X-13.193 Y-16.832
X-13.2 Y-16.733
X-13.203 Y-16.691
X-13.222 Y-16.542
X-13.253 Y-16.416
X-13.259 Y-16.395
X-13.266 Y-16.375
X-13.274 Y-16.355
G3 X-13.556 Y-16.395 I-0.134 J-0.067
G1 X-13.559 Y-16.423 F400
X-13.556 Y-16.451
X-13.5 Y-16.727
G3 X-13.203 Y-16.691 I0.147 J0.03
G1 X-13.215 Y-16.535 F600
X-13.22 Y-16.485
X-13.227 Y-16.461
X-13.238 Y-16.436
X-13.404 Y-16.069
X-13.418 Y-16.039
X-13.443 Y-15.985
X-13.511 Y-15.851
X-13.602 Y-15.712
X-13.629 Y-15.678
X-13.648 Y-15.657
G3 X-13.886 Y-15.832 I-0.103 J-0.109
G1 X-13.879 Y-15.845 F400
X-13.709 Y-16.12
G3 X-13.443 Y-15.985 I0.128 J0.079
G1 X-13.53 Y-15.791 F600
X-13.546 Y-15.766
X-13.565 Y-15.742
X-13.857 Y-15.444
X-14.011 Y-15.303
X-14.122 Y-15.202
X-14.242 Y-15.111
X-14.368 Y-15.03
X-14.501 Y-14.961
X-14.639 Y-14.901
X-14.781 Y-14.853
X-14.926 Y-14.814
X-15.073 Y-14.785
X-15.222 Y-14.766
X-15.371 Y-14.759
X-15.521 Y-14.762
X-15.671 Y-14.775
X-15.819 Y-14.798
X-15.966 Y-14.83
X-16.11 Y-14.872
X-16.25 Y-14.924
X-16.387 Y-14.985
X-16.519 Y-15.056
X-16.647 Y-15.134
X-16.77 Y-15.22
X-16.815 Y-15.257
X-16.84 Y-15.279
X-16.863 Y-15.304
X-16.883 Y-15.331
X-16.975 Y-15.465
X-17.175 Y-15.742
X-17.247 Y-15.841
X-17.272 Y-15.875
X-17.354 Y-16.001
X-17.426 Y-16.146
X-17.438 Y-16.18
G3 X-17.194 Y-16.33 I0.146 J-0.036
G1 X-17.176 Y-16.311 F400
X-17.161 Y-16.289
X-17.023 Y-16.04
G3 X-17.272 Y-15.875 I-0.131 J0.073
G1 X-17.39 Y-16.039 F600
X-17.403 Y-16.064
X-17.412 Y-16.089
X-17.51 Y-16.436
X-17.538 Y-16.535
X-17.554 Y-16.59
X-17.587 Y-16.736
X-17.605 Y-16.895
Y-16.93
Y-16.942
G3 X-17.32 Y-16.991 I0.149 J0.016
G1 X-17.307 Y-16.949 F400
X-17.262 Y-16.658
G3 X-17.554 Y-16.59 I-0.148 J0.023
G1 X-17.608 Y-16.783 F600
X-17.612 Y-16.808
X-17.613 Y-16.832
X-17.561 Y-17.527
X-17.556 Y-17.576
X-17.548 Y-17.601
X-17.538 Y-17.626
X-17.245 Y-18.27
X-17.23 Y-18.295
X-17.211 Y-18.32
X-16.868 Y-18.669
G3 X-16.613 Y-18.542 I0.107 J0.105
G1 X-16.664 Y-18.189
G3 X-16.839 Y-18.063 I-0.148 J-0.021
X-16.958 Y-18.244 I0.027 J-0.147
G1 X-16.956 Y-18.252
G3 X-16.6 Y-18.943 I1.541 J0.359 F400
G1 X-16.578 Y-18.965 F600
X-16.359 Y-19.212
X-16.275 Y-19.312
X-16.197 Y-19.411
X-16.181 Y-19.434
X-16.142 Y-19.51
X-16.107 Y-19.609
X-16.052 Y-19.807
X-16.025 Y-19.907
X-15.979 Y-20.105
X-15.959 Y-20.204
X-15.958 Y-20.303
X-15.972 Y-20.402
X-15.983 Y-20.471
X-16.05 Y-20.799
X-16.058 Y-20.829
X-16.06 Y-20.871
X-16.051 Y-20.911
X-16.031 Y-20.948
X-16.002 Y-20.978
X-15.966 Y-20.999
X-15.925 Y-21.008
X-15.393 Y-21.059
X-14.61 Y-21.134
X-14.157 Y-21.178 F400
G3 X-14.014 Y-20.952 I0.014 J0.149
G1 X-14.099 Y-20.821 F600
X-14.111 Y-20.799
X-14.152 Y-20.7
X-14.299 Y-20.303
X-14.33 Y-20.204
X-14.346 Y-20.105
X-14.35 Y-20.055
X-14.351 Y-20.006
X-14.331 Y-19.807
X-14.31 Y-19.609
X-14.297 Y-19.506
X-14.28 Y-19.411
X-14.254 Y-19.312
X-14.232 Y-19.262
X-14.205 Y-19.212
X-14.099 Y-19.038
X-14.019 Y-18.915
X-13.924 Y-18.776
X-13.907 Y-18.739
X-13.9 Y-18.7
X-13.882 Y-17.995
X-13.835 Y-16.219
X-13.818 Y-15.55 F400
X-13.822 Y-15.511
X-13.835 Y-15.476
X-13.857 Y-15.444
X-14.15 Y-15.147 F600
X-14.198 Y-15.096
X-14.417 Y-14.849
X-14.501 Y-14.75
X-14.579 Y-14.651
X-14.594 Y-14.628
X-14.634 Y-14.552
X-14.669 Y-14.453
X-14.724 Y-14.254
X-14.751 Y-14.155
X-14.797 Y-13.957
X-14.817 Y-13.858
X-14.818 Y-13.758
X-14.804 Y-13.659
X-14.793 Y-13.59
X-14.725 Y-13.263
X-14.718 Y-13.233
X-14.716 Y-13.191
X-14.725 Y-13.15
X-14.745 Y-13.113
X-14.774 Y-13.084
X-14.81 Y-13.063
X-14.851 Y-13.053
X-15.382 Y-13.002
X-16.166 Y-12.927
X-16.618 Y-12.884 F400
G3 X-16.761 Y-13.11 I-0.014 J-0.149
G1 X-16.677 Y-13.241 F600
X-16.665 Y-13.263
X-16.624 Y-13.362
X-16.477 Y-13.758
X-16.446 Y-13.858
X-16.429 Y-13.957
X-16.426 Y-14.006
X-16.425 Y-14.056
X-16.444 Y-14.254
X-16.466 Y-14.453
X-16.479 Y-14.556
X-16.495 Y-14.651
X-16.522 Y-14.75
X-16.543 Y-14.8
X-16.571 Y-14.849
X-16.677 Y-15.024
X-16.757 Y-15.147
X-16.883 Y-15.331
G3 X-16.756 Y-15.561 I0.127 J-0.08
X-16.627 Y-15.335 I0 J0.15
G1 X-16.657 Y-15.311 Z-0.794
X-16.685 Y-15.288 Z-0.779
X-16.708 Y-15.269 Z-0.754
X-16.731 Y-15.265 Z-0.724
X-16.745 Y-15.262 Z-0.688
X-16.75 Y-15.261 Z-0.65
G0 Z5
X-16.388 Y-18.763
Z1.7
G1 Z-1 F300
X-16.415 Y-18.789 F600
X-16.384 Y-18.81
X-15.947 Y-18.821
X-15.705 Y-18.829
X-15.359 Y-18.814
X-15.211 Y-18.795
X-15.064 Y-18.76
X-14.872 Y-18.698
X-14.674 Y-18.615
X-14.541 Y-18.547
X-14.417 Y-18.462
X-14.274 Y-18.346
X-14.133 Y-18.211
X-14.033 Y-18.098
X-13.949 Y-17.974
X-13.863 Y-17.82
X-13.783 Y-17.642
X-13.733 Y-17.501
X-13.701 Y-17.354
X-13.68 Y-17.182
X-13.673 Y-16.985
X-13.679 Y-16.835
X-13.706 Y-16.687
X-13.752 Y-16.522
X-13.821 Y-16.334
X-13.883 Y-16.198
X-13.964 Y-16.072
X-14.069 Y-15.937
X-14.205 Y-15.789
X-14.315 Y-15.687
X-14.438 Y-15.601
X-14.586 Y-15.517
X-14.77 Y-15.431
X-14.911 Y-15.379
X-15.057 Y-15.346
X-15.225 Y-15.325
X-15.429 Y-15.316
X-15.579 Y-15.322
X-15.726 Y-15.347
X-15.89 Y-15.392
X-16.082 Y-15.462
X-16.218 Y-15.525
X-16.345 Y-15.605
X-16.478 Y-15.709
X-16.629 Y-15.847
X-16.731 Y-15.957
X-16.817 Y-16.08
X-16.901 Y-16.227
X-16.988 Y-16.412
X-17.04 Y-16.553
X-17.073 Y-16.699
X-17.094 Y-16.867
X-17.103 Y-17.071
X-17.097 Y-17.221
X-17.071 Y-17.369
X-16.955 Y-17.791
X-16.962 Y-18.228
X-16.966 Y-18.31
X-16.967 Y-18.46
X-16.95 Y-18.537
X-16.916 Y-18.607
X-16.868 Y-18.669
X-16.626 Y-18.915
X-16.6 Y-18.943
X-16.491 Y-19.046
X-16.371 Y-19.136
X-16.24 Y-19.208
X-16.101 Y-19.264
X-15.957 Y-19.307
X-15.81 Y-19.338
X-15.661 Y-19.359
X-15.512 Y-19.368
X-15.362 Y-19.365
X-15.212 Y-19.353
X-15.064 Y-19.331
X-14.917 Y-19.301
X-14.772 Y-19.262
X-14.63 Y-19.213
X-14.492 Y-19.155
X-14.357 Y-19.089
X-14.227 Y-19.014
X-14.102 Y-18.932
X-14.004 Y-18.86
X-13.974 Y-18.835
X-13.947 Y-18.807
X-13.924 Y-18.776
X-13.801 Y-18.597
X-13.528 Y-18.221
X-13.503 Y-18.186
X-13.478 Y-18.151
X-13.396 Y-18.025
X-13.356 Y-17.936
X-13.344 Y-17.902
G3 X-13.531 Y-17.722 I-0.146 J0.036
G1 X-13.567 Y-17.738 F400
X-13.598 Y-17.762
X-13.621 Y-17.793
X-13.727 Y-17.986
G3 X-13.478 Y-18.151 I0.131 J-0.073
G1 X-13.385 Y-18.022 F600
X-13.373 Y-17.998
X-13.364 Y-17.973
X-13.266 Y-17.626
X-13.238 Y-17.527
X-13.222 Y-17.472
X-13.189 Y-17.326
X-13.171 Y-17.166
X-13.17 Y-17.132
X-13.171 Y-17.119
G3 X-13.456 Y-17.071 I-0.149 J-0.016
G1 X-13.468 Y-17.113 F400
X-13.513 Y-17.403
G3 X-13.222 Y-17.472 I0.148 J-0.023
G1 X-13.168 Y-17.279 F600
X-13.164 Y-17.254
X-13.163 Y-17.229
X-13.193 Y-16.832
X-13.2 Y-16.733
X-13.203 Y-16.691
X-13.222 Y-16.542
X-13.253 Y-16.416
X-13.259 Y-16.395
X-13.266 Y-16.375
X-13.274 Y-16.355
G3 X-13.556 Y-16.395 I-0.134 J-0.067
G1 X-13.559 Y-16.423 F400
X-13.556 Y-16.451
X-13.5 Y-16.727
G3 X-13.203 Y-16.691 I0.147 J0.03
G1 X-13.215 Y-16.535 F600
X-13.22 Y-16.485
X-13.227 Y-16.461
X-13.238 Y-16.436
X-13.404 Y-16.069
X-13.418 Y-16.039
X-13.443 Y-15.985
X-13.511 Y-15.851
X-13.602 Y-15.712
X-13.629 Y-15.678
X-13.648 Y-15.657
G3 X-13.886 Y-15.832 I-0.103 J-0.109
G1 X-13.879 Y-15.845 F400
X-13.709 Y-16.12
G3 X-13.443 Y-15.985 I0.128 J0.079
G1 X-13.53 Y-15.791 F600
X-13.546 Y-15.766
X-13.565 Y-15.742
X-13.857 Y-15.444
X-14.011 Y-15.303
X-14.122 Y-15.202
X-14.242 Y-15.111
X-14.368 Y-15.03
X-14.501 Y-14.961
X-14.639 Y-14.901
X-14.781 Y-14.853
X-14.926 Y-14.814
X-15.073 Y-14.785
X-15.222 Y-14.766
X-15.371 Y-14.759
X-15.521 Y-14.762
X-15.671 Y-14.775
X-15.819 Y-14.798
X-15.966 Y-14.83
X-16.11 Y-14.872
X-16.25 Y-14.924
X-16.387 Y-14.985
X-16.519 Y-15.056
X-16.647 Y-15.134
X-16.77 Y-15.22
X-16.815 Y-15.257
X-16.84 Y-15.279
X-16.863 Y-15.304
X-16.883 Y-15.331
X-16.975 Y-15.465
X-17.175 Y-15.742
X-17.247 Y-15.841
X-17.272 Y-15.875
X-17.354 Y-16.001
X-17.426 Y-16.146
X-17.438 Y-16.18
G3 X-17.194 Y-16.33 I0.146 J-0.036
G1 X-17.176 Y-16.311 F400
X-17.161 Y-16.289
X-17.023 Y-16.04
G3 X-17.272 Y-15.875 I-0.131 J0.073
G1 X-17.39 Y-16.039 F600
X-17.403 Y-16.064
X-17.412 Y-16.089
X-17.51 Y-16.436
X-17.538 Y-16.535
X-17.554 Y-16.59
X-17.587 Y-16.736
X-17.605 Y-16.895
Y-16.93
Y-16.942
G3 X-17.32 Y-16.991 I0.149 J0.016
G1 X-17.307 Y-16.949 F400
X-17.262 Y-16.658
G3 X-17.554 Y-16.59 I-0.148 J0.023
G1 X-17.608 Y-16.783 F600
X-17.612 Y-16.808
X-17.613 Y-16.832
X-17.561 Y-17.527
X-17.556 Y-17.576
X-17.548 Y-17.601
X-17.538 Y-17.626
X-17.245 Y-18.27
X-17.23 Y-18.295
X-17.211 Y-18.32
X-16.868 Y-18.669
G3 X-16.613 Y-18.542 I0.107 J0.105
G1 X-16.664 Y-18.189
G3 X-16.839 Y-18.063 I-0.148 J-0.021
X-16.958 Y-18.244 I0.027 J-0.147
G1 X-16.956 Y-18.252
G3 X-16.6 Y-18.943 I1.541 J0.359 F400
G1 X-16.578 Y-18.965 F600
X-16.359 Y-19.212
X-16.275 Y-19.312
X-16.197 Y-19.411
X-16.181 Y-19.434
X-16.142 Y-19.51
X-16.107 Y-19.609
X-16.052 Y-19.807
X-16.025 Y-19.907
X-15.979 Y-20.105
X-15.959 Y-20.204
X-15.958 Y-20.303
X-15.972 Y-20.402
X-15.983 Y-20.471
X-16.05 Y-20.799
X-16.058 Y-20.829
X-16.06 Y-20.871
X-16.051 Y-20.911
X-16.031 Y-20.948
X-16.002 Y-20.978
X-15.966 Y-20.999
X-15.925 Y-21.008
X-15.393 Y-21.059
X-14.61 Y-21.134
X-14.157 Y-21.178 F400
G3 X-14.014 Y-20.952 I0.014 J0.149
G1 X-14.099 Y-20.821 F600
X-14.111 Y-20.799
X-14.152 Y-20.7
X-14.299 Y-20.303
X-14.33 Y-20.204
X-14.346 Y-20.105
X-14.35 Y-20.055
X-14.351 Y-20.006
X-14.331 Y-19.807
X-14.31 Y-19.609
X-14.297 Y-19.506
X-14.28 Y-19.411
X-14.254 Y-19.312
X-14.232 Y-19.262
X-14.205 Y-19.212
X-14.099 Y-19.038
X-14.019 Y-18.915
X-13.924 Y-18.776
X-13.907 Y-18.739
X-13.9 Y-18.7
X-13.882 Y-17.995
X-13.835 Y-16.219
X-13.818 Y-15.55 F400
X-13.822 Y-15.511
X-13.835 Y-15.476
X-13.857 Y-15.444
X-14.15 Y-15.147 F600
X-14.198 Y-15.096
X-14.417 Y-14.849
X-14.501 Y-14.75
X-14.579 Y-14.651
X-14.594 Y-14.628
X-14.634 Y-14.552
X-14.669 Y-14.453
X-14.724 Y-14.254
X-14.751 Y-14.155
X-14.797 Y-13.957
X-14.817 Y-13.858
X-14.818 Y-13.758
X-14.804 Y-13.659
X-14.793 Y-13.59
X-14.725 Y-13.263
X-14.718 Y-13.233
X-14.716 Y-13.191
X-14.725 Y-13.15
X-14.745 Y-13.113
X-14.774 Y-13.084
X-14.81 Y-13.063
X-14.851 Y-13.053
X-15.382 Y-13.002
X-16.166 Y-12.927
X-16.618 Y-12.884 F400
G3 X-16.761 Y-13.11 I-0.014 J-0.149
G1 X-16.677 Y-13.241 F600
X-16.665 Y-13.263
X-16.624 Y-13.362
X-16.477 Y-13.758
X-16.446 Y-13.858
X-16.429 Y-13.957
X-16.426 Y-14.006
X-16.425 Y-14.056
X-16.444 Y-14.254
X-16.466 Y-14.453
X-16.479 Y-14.556
X-16.495 Y-14.651
X-16.522 Y-14.75
X-16.543 Y-14.8
X-16.571 Y-14.849
X-16.677 Y-15.024
X-16.757 Y-15.147
X-16.883 Y-15.331
G3 X-16.756 Y-15.561 I0.127 J-0.08
X-16.75 Y-15.261 I0 J0.15
G0 Z15
X-100.397 Y-22.83
Z5
Z-0.1
G1 Z-0.25 F400
X-100.396 Y-22.823 Z-0.296
X-100.394 Y-22.802 Z-0.338
X-100.391 Y-22.769 Z-0.371
X-100.386 Y-22.727 Z-0.393
X-100.381 Y-22.681 Z-0.4
G3 X-100.612 Y-21.127 I-3.148 J0.327
G1 X-100.626 Y-21.096 F600
X-100.668 Y-20.997
X-100.694 Y-20.931
X-100.725 Y-20.799
X-100.757 Y-20.645
X-100.795 Y-20.5
X-100.862 Y-20.366
X-100.949 Y-20.244
X-101.063 Y-20.147
X-101.192 Y-20.069
X-101.328 Y-20.007
X-101.469 Y-19.955
X-101.616 Y-19.928
X-101.766 Y-19.92
X-101.942 Y-19.927
X-102.091 Y-19.946
X-102.24 Y-19.983
X-102.33 Y-20.035
X-102.401 Y-20.111
X-102.447 Y-20.205
X-102.479 Y-20.308
X-102.625 Y-20.7
X-102.632 Y-20.748
X-102.624 Y-20.795
X-102.602 Y-20.838
X-102.567 Y-20.871
X-102.523 Y-20.892
X-102.475 Y-20.897
X-101.982 Y-20.873
X-101.429 Y-20.846
X-100.898 Y-20.82 F400
X-100.856 Y-20.812
X-100.819 Y-20.793
X-100.788 Y-20.764
X-100.767 Y-20.728
X-100.756 Y-20.687
X-100.757 Y-20.645
X-100.793 Y-20.471 F600
X-100.804 Y-20.402
X-100.818 Y-20.303
X-100.817 Y-20.204
X-100.815 Y-20.054
X-100.872 Y-19.915
X-100.957 Y-19.792
X-101.064 Y-19.687
X-101.186 Y-19.6
X-101.319 Y-19.53
X-101.46 Y-19.478
X-101.605 Y-19.44
X-101.753 Y-19.417
X-101.903 Y-19.408
X-102.052 Y-19.416
X-102.2 Y-19.442
X-102.206 Y-19.444
X-102.34 Y-19.525
X-102.425 Y-19.656
X-102.444 Y-19.812
X-102.426 Y-20.006
Y-20.055
X-102.43 Y-20.105
X-102.447 Y-20.205
X-102.452 Y-20.252
X-102.442 Y-20.298
X-102.419 Y-20.339
X-102.383 Y-20.371
X-102.34 Y-20.39
X-102.294 Y-20.394
X-101.793 Y-20.366
X-101.547 Y-20.352
X-100.954 Y-20.319 F400
X-100.908 Y-20.309
X-100.867 Y-20.284
X-100.835 Y-20.248
X-100.817 Y-20.204
X-100.793 Y-20.087 F600
X-100.751 Y-19.907
X-100.719 Y-19.76
X-100.75 Y-19.613
X-100.755 Y-19.394
X-100.693 Y-19.185
X-100.488 Y-18.798
X-100.206 Y-18.464
X-100.076 Y-18.288
X-99.991 Y-18.164
X-99.906 Y-18.013
X-99.806 Y-17.796
X-99.743 Y-17.624
X-99.703 Y-17.48
X-99.679 Y-17.331
X-99.664 Y-17.132
Y-16.96
X-99.676 Y-16.811
X-99.706 Y-16.664
X-99.759 Y-16.487
X-99.825 Y-16.319
X-99.89 Y-16.184
X-99.972 Y-16.058
X-100.082 Y-15.92
X-100.212 Y-15.782
X-100.323 Y-15.681
X-100.447 Y-15.596
X-100.597 Y-15.511
X-100.775 Y-15.429
X-100.916 Y-15.378
X-101.063 Y-15.345
X-101.232 Y-15.325
X-101.432 Y-15.317
X-101.581 Y-15.323
X-101.729 Y-15.348
X-101.893 Y-15.394
X-102.083 Y-15.463
X-102.219 Y-15.526
X-102.346 Y-15.606
X-102.48 Y-15.711
X-102.63 Y-15.848
X-102.732 Y-15.958
X-102.818 Y-16.08
X-102.902 Y-16.228
X-102.988 Y-16.412
X-103.04 Y-16.553
X-103.073 Y-16.699
X-103.094 Y-16.868
X-103.103 Y-17.071
X-103.097 Y-17.221
X-103.072 Y-17.369
X-103.027 Y-17.532
X-102.957 Y-17.724
X-102.894 Y-17.861
X-102.814 Y-17.987
X-102.747 Y-18.074
X-102.705 Y-18.175
X-102.684 Y-18.393
X-102.746 Y-18.764
X-102.749 Y-18.85
X-102.732 Y-18.934
X-102.695 Y-19.011
X-102.631 Y-19.113
X-102.571 Y-19.212
X-102.544 Y-19.262
X-102.522 Y-19.312
X-102.496 Y-19.411
X-102.479 Y-19.51
X-102.467 Y-19.609
X-102.444 Y-19.812
X-102.433 Y-19.851
X-102.411 Y-19.887
X-102.381 Y-19.915
X-102.344 Y-19.933
X-102.303 Y-19.941
X-101.726 Y-19.97
X-101.488 Y-19.982
X-100.902 Y-20.012 F400
X-100.863 Y-20.009
X-100.825 Y-19.995
X-100.793 Y-19.973
X-100.768 Y-19.942
X-100.751 Y-19.907
X-100.694 Y-19.698 F600
X-100.669 Y-19.609
X-100.634 Y-19.51
X-100.594 Y-19.434
X-100.579 Y-19.411
X-100.495 Y-19.305
X-100.417 Y-19.212
X-100.198 Y-18.965
X-100.15 Y-18.915
X-99.702 Y-18.46
X-99.565 Y-18.32
X-99.546 Y-18.295
X-99.53 Y-18.27
X-99.328 Y-17.824
X-99.305 Y-17.774
X-99.25 Y-17.635
X-99.222 Y-17.529
X-99.216 Y-17.508
X-99.213 Y-17.486
X-99.21 Y-17.465
G3 X-99.463 Y-17.35 I-0.15 J0.006
G1 X-99.487 Y-17.379 F400
X-99.503 Y-17.413
X-99.582 Y-17.662
X-99.589 Y-17.707
Y-17.708
G3 X-99.305 Y-17.774 I0.15 J0
G1 X-99.238 Y-17.626 F600
X-99.227 Y-17.601
X-99.22 Y-17.576
X-99.215 Y-17.527
X-99.185 Y-17.13
X-99.181 Y-17.075
X-99.178 Y-17.031
X-99.174 Y-16.881
X-99.187 Y-16.736
X-99.19 Y-16.714
X-99.194 Y-16.693
X-99.199 Y-16.672
G3 X-99.488 Y-16.684 I-0.143 J-0.046
G1 X-99.492 Y-16.725 F400
X-99.477 Y-17.022
G3 X-99.178 Y-17.031 I0.15 J0.008
G1 X-99.163 Y-16.832 F600
X-99.164 Y-16.808
X-99.168 Y-16.783
X-99.294 Y-16.337
X-99.305 Y-16.297
X-99.314 Y-16.264
X-99.362 Y-16.122
X-99.424 Y-15.994
X-99.434 Y-15.976
X-99.444 Y-15.958
X-99.456 Y-15.941
G3 X-99.724 Y-16.045 I-0.118 J-0.092
G1 X-99.712 Y-16.092 F400
X-99.598 Y-16.359
G3 X-99.314 Y-16.264 I0.138 J0.059
G1 X-99.364 Y-16.089 F600
X-99.373 Y-16.064
X-99.385 Y-16.039
X-99.672 Y-15.643
X-99.766 Y-15.526
X-99.862 Y-15.41
X-99.968 Y-15.304
X-100.081 Y-15.206
X-100.202 Y-15.117
X-100.329 Y-15.037
X-100.462 Y-14.967
X-100.599 Y-14.908
X-100.741 Y-14.858
X-100.886 Y-14.818
X-101.032 Y-14.788
X-101.181 Y-14.767
X-101.331 Y-14.757
X-101.481 Y-14.758
X-101.63 Y-14.77
X-101.779 Y-14.79
X-101.926 Y-14.819
X-102.071 Y-14.859
X-102.212 Y-14.908
X-102.35 Y-14.967
X-102.484 Y-15.036
X-102.525 Y-15.06
X-102.552 Y-15.078
X-102.578 Y-15.098
X-102.601 Y-15.12
X-102.724 Y-15.246
X-102.975 Y-15.501
X-103.016 Y-15.543
X-103.048 Y-15.576
X-103.148 Y-15.688
X-103.254 Y-15.831
X-103.286 Y-15.884
X-103.3 Y-15.911
G3 X-103.042 Y-16.059 I0.139 J-0.057
G1 X-103.031 Y-16.044
X-102.826 Y-15.775 F400
G3 X-103.048 Y-15.576 I-0.119 J0.091
G1 X-103.211 Y-15.742 F600
X-103.23 Y-15.766
X-103.245 Y-15.791
X-103.403 Y-16.138
X-103.448 Y-16.237
X-103.46 Y-16.265
X-103.516 Y-16.404
X-103.556 Y-16.552
X-103.561 Y-16.574
X-103.564 Y-16.595
X-103.567 Y-16.617
G3 X-103.287 Y-16.698 I0.15 J-0.006
G1 X-103.274 Y-16.668 F400
X-103.183 Y-16.376
G3 X-103.46 Y-16.265 I-0.143 J0.045
G1 X-103.538 Y-16.436 F600
X-103.548 Y-16.461
X-103.556 Y-16.485
X-103.561 Y-16.535
X-103.591 Y-16.932
X-103.595 Y-16.986
X-103.598 Y-17.031
X-103.602 Y-17.181
X-103.588 Y-17.331
X-103.585 Y-17.352
X-103.581 Y-17.373
X-103.576 Y-17.394
G3 X-103.286 Y-17.377 I0.143 J0.046
G1 X-103.283 Y-17.34 F400
X-103.299 Y-17.039
G3 X-103.598 Y-17.031 I-0.15 J-0.008
G1 X-103.613 Y-17.229 F600
X-103.612 Y-17.254
X-103.608 Y-17.279
X-103.411 Y-17.973
X-103.403 Y-17.998
X-103.39 Y-18.022
X-102.96 Y-18.617
X-102.757 Y-18.915
X-102.695 Y-19.011
X-102.663 Y-19.044
X-102.624 Y-19.066
X-102.579 Y-19.075
X-102.534 Y-19.071
X-102.493 Y-19.053
X-102.458 Y-19.024
X-102.122 Y-18.636
X-100.07 Y-16.27
X-99.683 Y-15.825 F400
X-99.658 Y-15.783
X-99.647 Y-15.735
X-99.652 Y-15.687
X-99.672 Y-15.643
X-99.815 Y-15.444 F600
X-100.019 Y-15.147
X-100.099 Y-15.024
X-100.205 Y-14.849
X-100.232 Y-14.8
X-100.254 Y-14.75
X-100.28 Y-14.651
X-100.298 Y-14.552
X-100.31 Y-14.453
X-100.331 Y-14.254
X-100.351 Y-14.056
X-100.35 Y-14.006
X-100.346 Y-13.957
X-100.33 Y-13.858
X-100.297 Y-13.752
X-100.152 Y-13.362
X-100.144 Y-13.321
X-100.148 Y-13.281
X-100.162 Y-13.242
X-100.187 Y-13.209
X-100.219 Y-13.184
X-100.257 Y-13.169
X-100.779 Y-13.037
X-101.55 Y-12.842
X-101.989 Y-12.731 F400
G3 X-102.164 Y-12.935 I-0.037 J-0.145
G1 X-102.15 Y-12.965 F600
X-102.108 Y-13.064
X-102.082 Y-13.132
X-102.051 Y-13.263
X-101.983 Y-13.592
X-101.972 Y-13.659
X-101.958 Y-13.758
X-101.959 Y-13.858
X-101.983 Y-13.974
X-102.025 Y-14.155
X-102.082 Y-14.365
X-102.106 Y-14.453
X-102.141 Y-14.552
X-102.181 Y-14.629
X-102.197 Y-14.651
X-102.281 Y-14.757
X-102.359 Y-14.849
X-102.578 Y-15.096
X-102.601 Y-15.12
G3 X-102.376 Y-15.319 I0.112 J-0.1
X-102.349 Y-15.166 I-0.112 J0.1
G1 X-102.375 Y-15.137 Z-0.394
X-102.399 Y-15.11 Z-0.379
X-102.419 Y-15.087 Z-0.354
X-102.441 Y-15.079 Z-0.324
X-102.454 Y-15.075 Z-0.288
X-102.459 Y-15.073 Z-0.25
G0 Z5
X-100.397 Y-22.83
Z-0.5
G1 Z-0.65 F400
X-100.396 Y-22.823 Z-0.696
X-100.394 Y-22.802 Z-0.738
X-100.391 Y-22.769 Z-0.771
X-100.386 Y-22.727 Z-0.793
X-100.381 Y-22.681 Z-0.8
G3 X-100.612 Y-21.127 I-3.148 J0.327
G1 X-100.626 Y-21.096 F600
X-100.668 Y-20.997
X-100.694 Y-20.931
X-100.725 Y-20.799
X-100.757 Y-20.645
X-100.795 Y-20.5
X-100.862 Y-20.366
X-100.949 Y-20.244
X-101.063 Y-20.147
X-101.192 Y-20.069
X-101.328 Y-20.007
X-101.469 Y-19.955
X-101.616 Y-19.928
X-101.766 Y-19.92
X-101.942 Y-19.927
X-102.091 Y-19.946
X-102.24 Y-19.983
X-102.33 Y-20.035
X-102.401 Y-20.111
X-102.447 Y-20.205
X-102.479 Y-20.308
X-102.625 Y-20.7
X-102.632 Y-20.748
X-102.624 Y-20.795
X-102.602 Y-20.838
X-102.567 Y-20.871
X-102.523 Y-20.892
X-102.475 Y-20.897
X-101.982 Y-20.873
X-101.429 Y-20.846
X-100.898 Y-20.82 F400
X-100.856 Y-20.812
X-100.819 Y-20.793
X-100.788 Y-20.764
X-100.767 Y-20.728
X-100.756 Y-20.687
X-100.757 Y-20.645
X-100.793 Y-20.471 F600
X-100.804 Y-20.402
X-100.818 Y-20.303
X-100.817 Y-20.204
X-100.815 Y-20.054
X-100.872 Y-19.915
X-100.957 Y-19.792
X-101.064 Y-19.687
X-101.186 Y-19.6
X-101.319 Y-19.53
X-101.46 Y-19.478
X-101.605 Y-19.44
X-101.753 Y-19.417
X-101.903 Y-19.408
X-102.052 Y-19.416
X-102.2 Y-19.442
X-102.206 Y-19.444
X-102.34 Y-19.525
X-102.425 Y-19.656
X-102.444 Y-19.812
X-102.426 Y-20.006
Y-20.055
X-102.43 Y-20.105
X-102.447 Y-20.205
X-102.452 Y-20.252
X-102.442 Y-20.298
X-102.419 Y-20.339
X-102.383 Y-20.371
X-102.34 Y-20.39
X-102.294 Y-20.394
X-101.793 Y-20.366
X-101.547 Y-20.352
X-100.954 Y-20.319 F400
X-100.908 Y-20.309
X-100.867 Y-20.284
X-100.835 Y-20.248
X-100.817 Y-20.204
X-100.793 Y-20.087 F600
X-100.751 Y-19.907
X-100.719 Y-19.76
X-100.75 Y-19.613
X-100.755 Y-19.394
X-100.693 Y-19.185
X-100.488 Y-18.798
X-100.206 Y-18.464
X-100.076 Y-18.288
X-99.991 Y-18.164
X-99.906 Y-18.013
X-99.806 Y-17.796
X-99.743 Y-17.624
X-99.703 Y-17.48
X-99.679 Y-17.331
X-99.664 Y-17.132
Y-16.96
X-99.676 Y-16.811
X-99.706 Y-16.664
X-99.759 Y-16.487
X-99.825 Y-16.319
X-99.89 Y-16.184
X-99.972 Y-16.058
X-100.082 Y-15.92
X-100.212 Y-15.782
X-100.323 Y-15.681
X-100.447 Y-15.596
X-100.597 Y-15.511
X-100.775 Y-15.429
X-100.916 Y-15.378
X-101.063 Y-15.345
X-101.232 Y-15.325
X-101.432 Y-15.317
X-101.581 Y-15.323
X-101.729 Y-15.348
X-101.893 Y-15.394
X-102.083 Y-15.463
X-102.219 Y-15.526
X-102.346 Y-15.606
X-102.48 Y-15.711
X-102.63 Y-15.848
X-102.732 Y-15.958
X-102.818 Y-16.08
X-102.902 Y-16.228
X-102.988 Y-16.412
X-103.04 Y-16.553
X-103.073 Y-16.699
X-103.094 Y-16.868
X-103.103 Y-17.071
X-103.097 Y-17.221
X-103.072 Y-17.369
X-103.027 Y-17.532
X-102.957 Y-17.724
X-102.894 Y-17.861
X-102.814 Y-17.987
X-102.747 Y-18.074
X-102.705 Y-18.175
X-102.684 Y-18.393
X-102.746 Y-18.764
X-102.749 Y-18.85
X-102.732 Y-18.934
X-102.695 Y-19.011
X-102.631 Y-19.113
X-102.571 Y-19.212
X-102.544 Y-19.262
X-102.522 Y-19.312
X-102.496 Y-19.411
X-102.479 Y-19.51
X-102.467 Y-19.609
X-102.444 Y-19.812
X-102.433 Y-19.851
X-102.411 Y-19.887
X-102.381 Y-19.915
X-102.344 Y-19.933
X-102.303 Y-19.941
X-101.726 Y-19.97
X-101.488 Y-19.982
X-100.902 Y-20.012 F400
X-100.863 Y-20.009
X-100.825 Y-19.995
X-100.793 Y-19.973
X-100.768 Y-19.942
X-100.751 Y-19.907
X-100.694 Y-19.698 F600
X-100.669 Y-19.609
X-100.634 Y-19.51
X-100.594 Y-19.434
X-100.579 Y-19.411
X-100.495 Y-19.305
X-100.417 Y-19.212
X-100.198 Y-18.965
X-100.15 Y-18.915
X-99.702 Y-18.46
X-99.565 Y-18.32
X-99.546 Y-18.295
X-99.53 Y-18.27
X-99.328 Y-17.824
X-99.305 Y-17.774
X-99.25 Y-17.635
X-99.222 Y-17.529
X-99.216 Y-17.508
X-99.213 Y-17.486
X-99.21 Y-17.465
G3 X-99.463 Y-17.35 I-0.15 J0.006
G1 X-99.487 Y-17.379 F400
X-99.503 Y-17.413
X-99.582 Y-17.662
X-99.589 Y-17.707
Y-17.708
G3 X-99.305 Y-17.774 I0.15 J0
G1 X-99.238 Y-17.626 F600
X-99.227 Y-17.601
X-99.22 Y-17.576
X-99.215 Y-17.527
X-99.185 Y-17.13
X-99.181 Y-17.075
X-99.178 Y-17.031
X-99.174 Y-16.881
X-99.187 Y-16.736
X-99.19 Y-16.714
X-99.194 Y-16.693
X-99.199 Y-16.672
G3 X-99.488 Y-16.684 I-0.143 J-0.046
G1 X-99.492 Y-16.725 F400
X-99.477 Y-17.022
G3 X-99.178 Y-17.031 I0.15 J0.008
G1 X-99.163 Y-16.832 F600
X-99.164 Y-16.808
X-99.168 Y-16.783
X-99.294 Y-16.337
X-99.305 Y-16.297
X-99.314 Y-16.264
X-99.362 Y-16.122
X-99.424 Y-15.994
X-99.434 Y-15.976
X-99.444 Y-15.958
X-99.456 Y-15.941
G3 X-99.724 Y-16.045 I-0.118 J-0.092
G1 X-99.712 Y-16.092 F400
X-99.598 Y-16.359
G3 X-99.314 Y-16.264 I0.138 J0.059
G1 X-99.364 Y-16.089 F600
X-99.373 Y-16.064
X-99.385 Y-16.039
X-99.672 Y-15.643
X-99.766 Y-15.526
X-99.862 Y-15.41
X-99.968 Y-15.304
X-100.081 Y-15.206
X-100.202 Y-15.117
X-100.329 Y-15.037
X-100.462 Y-14.967
X-100.599 Y-14.908
X-100.741 Y-14.858
X-100.886 Y-14.818
X-101.032 Y-14.788
X-101.181 Y-14.767
X-101.331 Y-14.757
X-101.481 Y-14.758
X-101.63 Y-14.77
X-101.779 Y-14.79
X-101.926 Y-14.819
X-102.071 Y-14.859
X-102.212 Y-14.908
X-102.35 Y-14.967
X-102.484 Y-15.036
X-102.525 Y-15.06
X-102.552 Y-15.078
X-102.578 Y-15.098
X-102.601 Y-15.12
X-102.724 Y-15.246
X-102.975 Y-15.501
X-103.016 Y-15.543
X-103.048 Y-15.576
X-103.148 Y-15.688
X-103.254 Y-15.831
X-103.286 Y-15.884
X-103.3 Y-15.911
G3 X-103.042 Y-16.059 I0.139 J-0.057
G1 X-103.031 Y-16.044
X-102.826 Y-15.775 F400
G3 X-103.048 Y-15.576 I-0.119 J0.091
G1 X-103.211 Y-15.742 F600
X-103.23 Y-15.766
X-103.245 Y-15.791
X-103.403 Y-16.138
X-103.448 Y-16.237
X-103.46 Y-16.265
X-103.516 Y-16.404
X-103.556 Y-16.552
X-103.561 Y-16.574
X-103.564 Y-16.595
X-103.567 Y-16.617
G3 X-103.287 Y-16.698 I0.15 J-0.006
G1 X-103.274 Y-16.668 F400
X-103.183 Y-16.376
G3 X-103.46 Y-16.265 I-0.143 J0.045
G1 X-103.538 Y-16.436 F600
X-103.548 Y-16.461
X-103.556 Y-16.485
X-103.561 Y-16.535
X-103.591 Y-16.932
X-103.595 Y-16.986
X-103.598 Y-17.031
X-103.602 Y-17.181
X-103.588 Y-17.331
X-103.585 Y-17.352
X-103.581 Y-17.373
X-103.576 Y-17.394
G3 X-103.286 Y-17.377 I0.143 J0.046
G1 X-103.283 Y-17.34 F400
X-103.299 Y-17.039
G3 X-103.598 Y-17.031 I-0.15 J-0.008
G1 X-103.613 Y-17.229 F600
X-103.612 Y-17.254
X-103.608 Y-17.279
X-103.411 Y-17.973
X-103.403 Y-17.998
X-103.39 Y-18.022
X-102.96 Y-18.617
X-102.757 Y-18.915
X-102.695 Y-19.011
X-102.663 Y-19.044
X-102.624 Y-19.066
X-102.579 Y-19.075
X-102.534 Y-19.071
X-102.493 Y-19.053
X-102.458 Y-19.024
X-102.122 Y-18.636
X-100.07 Y-16.27
X-99.683 Y-15.825 F400
X-99.658 Y-15.783
X-99.647 Y-15.735
X-99.652 Y-15.687
X-99.672 Y-15.643
X-99.815 Y-15.444 F600
X-100.019 Y-15.147
X-100.099 Y-15.024
X-100.205 Y-14.849
X-100.232 Y-14.8
X-100.254 Y-14.75
X-100.28 Y-14.651
X-100.298 Y-14.552
X-100.31 Y-14.453
X-100.331 Y-14.254
X-100.351 Y-14.056
X-100.35 Y-14.006
X-100.346 Y-13.957
X-100.33 Y-13.858
X-100.297 Y-13.752
X-100.152 Y-13.362
X-100.144 Y-13.321
X-100.148 Y-13.281
X-100.162 Y-13.242
X-100.187 Y-13.209
X-100.219 Y-13.184
X-100.257 Y-13.169
X-100.779 Y-13.037
X-101.55 Y-12.842
X-101.989 Y-12.731 F400
G3 X-102.164 Y-12.935 I-0.037 J-0.145
G1 X-102.15 Y-12.965 F600
X-102.108 Y-13.064
X-102.082 Y-13.132
X-102.051 Y-13.263
X-101.983 Y-13.592
X-101.972 Y-13.659
X-101.958 Y-13.758
X-101.959 Y-13.858
X-101.983 Y-13.974
X-102.025 Y-14.155
X-102.082 Y-14.365
X-102.106 Y-14.453
X-102.141 Y-14.552
X-102.181 Y-14.629
X-102.197 Y-14.651
X-102.281 Y-14.757
X-102.359 Y-14.849
X-102.578 Y-15.096
X-102.601 Y-15.12
G3 X-102.376 Y-15.319 I0.112 J-0.1
X-102.349 Y-15.166 I-0.112 J0.1
G1 X-102.375 Y-15.137 Z-0.794
X-102.399 Y-15.11 Z-0.779
X-102.419 Y-15.087 Z-0.754
X-102.441 Y-15.079 Z-0.724
X-102.454 Y-15.075 Z-0.688
X-102.459 Y-15.073 Z-0.65
G0 Z5
X-100.397 Y-22.83
Z-0.7
G1 Z-0.85 F400
X-100.396 Y-22.823 Z-0.896
X-100.394 Y-22.802 Z-0.938
X-100.391 Y-22.769 Z-0.971
X-100.386 Y-22.727 Z-0.993
X-100.381 Y-22.681 Z-1
G3 X-100.612 Y-21.127 I-3.148 J0.327
G1 X-100.626 Y-21.096 F600
X-100.668 Y-20.997
X-100.694 Y-20.931
X-100.725 Y-20.799
X-100.757 Y-20.645
X-100.795 Y-20.5
X-100.862 Y-20.366
X-100.949 Y-20.244
X-101.063 Y-20.147
X-101.192 Y-20.069
X-101.328 Y-20.007
X-101.469 Y-19.955
X-101.616 Y-19.928
X-101.766 Y-19.92
X-101.942 Y-19.927
X-102.091 Y-19.946
X-102.24 Y-19.983
X-102.33 Y-20.035
X-102.401 Y-20.111
X-102.447 Y-20.205
X-102.479 Y-20.308
X-102.625 Y-20.7
X-102.632 Y-20.748
X-102.624 Y-20.795
X-102.602 Y-20.838
X-102.567 Y-20.871
X-102.523 Y-20.892
X-102.475 Y-20.897
X-101.982 Y-20.873
X-101.429 Y-20.846
X-100.898 Y-20.82 F400
X-100.856 Y-20.812
X-100.819 Y-20.793
X-100.788 Y-20.764
X-100.767 Y-20.728
X-100.756 Y-20.687
X-100.757 Y-20.645
X-100.793 Y-20.471 F600
X-100.804 Y-20.402
X-100.818 Y-20.303
X-100.817 Y-20.204
X-100.815 Y-20.054
X-100.872 Y-19.915
X-100.957 Y-19.792
X-101.064 Y-19.687
X-101.186 Y-19.6
X-101.319 Y-19.53
X-101.46 Y-19.478
X-101.605 Y-19.44
X-101.753 Y-19.417
X-101.903 Y-19.408
X-102.052 Y-19.416
X-102.2 Y-19.442
X-102.206 Y-19.444
X-102.34 Y-19.525
X-102.425 Y-19.656
X-102.444 Y-19.812
X-102.426 Y-20.006
Y-20.055
X-102.43 Y-20.105
X-102.447 Y-20.205
X-102.452 Y-20.252
X-102.442 Y-20.298
X-102.419 Y-20.339
X-102.383 Y-20.371
X-102.34 Y-20.39
X-102.294 Y-20.394
X-101.793 Y-20.366
X-101.547 Y-20.352
X-100.954 Y-20.319 F400
X-100.908 Y-20.309
X-100.867 Y-20.284
X-100.835 Y-20.248
X-100.817 Y-20.204
X-100.793 Y-20.087 F600
X-100.751 Y-19.907
X-100.719 Y-19.76
X-100.75 Y-19.613
X-100.755 Y-19.394
X-100.693 Y-19.185
X-100.488 Y-18.798
X-100.206 Y-18.464
X-100.076 Y-18.288
X-99.991 Y-18.164
X-99.906 Y-18.013
X-99.806 Y-17.796
X-99.743 Y-17.624
X-99.703 Y-17.48
X-99.679 Y-17.331
X-99.664 Y-17.132
Y-16.96
X-99.676 Y-16.811
X-99.706 Y-16.664
X-99.759 Y-16.487
X-99.825 Y-16.319
X-99.89 Y-16.184
X-99.972 Y-16.058
X-100.082 Y-15.92
X-100.212 Y-15.782
X-100.323 Y-15.681
X-100.447 Y-15.596
X-100.597 Y-15.511
X-100.775 Y-15.429
X-100.916 Y-15.378
X-101.063 Y-15.345
X-101.232 Y-15.325
X-101.432 Y-15.317
X-101.581 Y-15.323
X-101.729 Y-15.348
X-101.893 Y-15.394
X-102.083 Y-15.463
X-102.219 Y-15.526
X-102.346 Y-15.606
X-102.48 Y-15.711
X-102.63 Y-15.848
X-102.732 Y-15.958
X-102.818 Y-16.08
X-102.902 Y-16.228
X-102.988 Y-16.412
X-103.04 Y-16.553
X-103.073 Y-16.699
X-103.094 Y-16.868
X-103.103 Y-17.071
X-103.097 Y-17.221
X-103.072 Y-17.369
X-103.027 Y-17.532
X-102.957 Y-17.724
X-102.894 Y-17.861
X-102.814 Y-17.987
X-102.747 Y-18.074
X-102.705 Y-18.175
X-102.684 Y-18.393
X-102.746 Y-18.764
X-102.749 Y-18.85
X-102.732 Y-18.934
X-102.695 Y-19.011
X-102.631 Y-19.113
X-102.571 Y-19.212
X-102.544 Y-19.262
X-102.522 Y-19.312
X-102.496 Y-19.411
X-102.479 Y-19.51
X-102.467 Y-19.609
X-102.444 Y-19.812
X-102.433 Y-19.851
X-102.411 Y-19.887
X-102.381 Y-19.915
X-102.344 Y-19.933
X-102.303 Y-19.941
X-101.726 Y-19.97
X-101.488 Y-19.982
X-100.902 Y-20.012 F400
X-100.863 Y-20.009
X-100.825 Y-19.995
X-100.793 Y-19.973
X-100.768 Y-19.942
X-100.751 Y-19.907
X-100.694 Y-19.698 F600
X-100.669 Y-19.609
X-100.634 Y-19.51
X-100.594 Y-19.434
X-100.579 Y-19.411
X-100.495 Y-19.305
X-100.417 Y-19.212
X-100.198 Y-18.965
X-100.15 Y-18.915
X-99.702 Y-18.46
X-99.565 Y-18.32
X-99.546 Y-18.295
X-99.53 Y-18.27
X-99.328 Y-17.824
X-99.305 Y-17.774
X-99.25 Y-17.635
X-99.222 Y-17.529
X-99.216 Y-17.508
X-99.213 Y-17.486
X-99.21 Y-17.465
G3 X-99.463 Y-17.35 I-0.15 J0.006
G1 X-99.487 Y-17.379 F400
X-99.503 Y-17.413
X-99.582 Y-17.662
X-99.589 Y-17.707
Y-17.708
G3 X-99.305 Y-17.774 I0.15 J0
G1 X-99.238 Y-17.626 F600
X-99.227 Y-17.601
X-99.22 Y-17.576
X-99.215 Y-17.527
X-99.185 Y-17.13
X-99.181 Y-17.075
X-99.178 Y-17.031
X-99.174 Y-16.881
X-99.187 Y-16.736
X-99.19 Y-16.714
X-99.194 Y-16.693
X-99.199 Y-16.672
G3 X-99.488 Y-16.684 I-0.143 J-0.046
G1 X-99.492 Y-16.725 F400
X-99.477 Y-17.022
G3 X-99.178 Y-17.031 I0.15 J0.008
G1 X-99.163 Y-16.832 F600
X-99.164 Y-16.808
X-99.168 Y-16.783
X-99.294 Y-16.337
X-99.305 Y-16.297
X-99.314 Y-16.264
X-99.362 Y-16.122
X-99.424 Y-15.994
X-99.434 Y-15.976
X-99.444 Y-15.958
X-99.456 Y-15.941
G3 X-99.724 Y-16.045 I-0.118 J-0.092
G1 X-99.712 Y-16.092 F400
X-99.598 Y-16.359
G3 X-99.314 Y-16.264 I0.138 J0.059
G1 X-99.364 Y-16.089 F600
X-99.373 Y-16.064
X-99.385 Y-16.039
X-99.672 Y-15.643
X-99.766 Y-15.526
X-99.862 Y-15.41
X-99.968 Y-15.304
X-100.081 Y-15.206
X-100.202 Y-15.117
X-100.329 Y-15.037
X-100.462 Y-14.967
X-100.599 Y-14.908
X-100.741 Y-14.858
X-100.886 Y-14.818
X-101.032 Y-14.788
X-101.181 Y-14.767
X-101.331 Y-14.757
X-101.481 Y-14.758
X-101.63 Y-14.77
X-101.779 Y-14.79
X-101.926 Y-14.819
X-102.071 Y-14.859
X-102.212 Y-14.908
X-102.35 Y-14.967
X-102.484 Y-15.036
X-102.525 Y-15.06
X-102.552 Y-15.078
X-102.578 Y-15.098
X-102.601 Y-15.12
X-102.724 Y-15.246
X-102.975 Y-15.501
X-103.016 Y-15.543
X-103.048 Y-15.576
X-103.148 Y-15.688
X-103.254 Y-15.831
X-103.286 Y-15.884
X-103.3 Y-15.911
G3 X-103.042 Y-16.059 I0.139 J-0.057
G1 X-103.031 Y-16.044
X-102.826 Y-15.775 F400
G3 X-103.048 Y-15.576 I-0.119 J0.091
G1 X-103.211 Y-15.742 F600
X-103.23 Y-15.766
X-103.245 Y-15.791
X-103.403 Y-16.138
X-103.448 Y-16.237
X-103.46 Y-16.265
X-103.516 Y-16.404
X-103.556 Y-16.552
X-103.561 Y-16.574
X-103.564 Y-16.595
X-103.567 Y-16.617
G3 X-103.287 Y-16.698 I0.15 J-0.006
G1 X-103.274 Y-16.668 F400
X-103.183 Y-16.376
G3 X-103.46 Y-16.265 I-0.143 J0.045
G1 X-103.538 Y-16.436 F600
X-103.548 Y-16.461
X-103.556 Y-16.485
X-103.561 Y-16.535
X-103.591 Y-16.932
X-103.595 Y-16.986
X-103.598 Y-17.031
X-103.602 Y-17.181
X-103.588 Y-17.331
X-103.585 Y-17.352
X-103.581 Y-17.373
X-103.576 Y-17.394
G3 X-103.286 Y-17.377 I0.143 J0.046
G1 X-103.283 Y-17.34 F400
X-103.299 Y-17.039
G3 X-103.598 Y-17.031 I-0.15 J-0.008
G1 X-103.613 Y-17.229 F600
X-103.612 Y-17.254
X-103.608 Y-17.279
X-103.411 Y-17.973
X-103.403 Y-17.998
X-103.39 Y-18.022
X-102.96 Y-18.617
X-102.757 Y-18.915
X-102.695 Y-19.011
X-102.663 Y-19.044
X-102.624 Y-19.066
X-102.579 Y-19.075
X-102.534 Y-19.071
X-102.493 Y-19.053
X-102.458 Y-19.024
X-102.122 Y-18.636
X-100.07 Y-16.27
X-99.683 Y-15.825 F400
X-99.658 Y-15.783
X-99.647 Y-15.735
X-99.652 Y-15.687
X-99.672 Y-15.643
X-99.815 Y-15.444 F600
X-100.019 Y-15.147
X-100.099 Y-15.024
X-100.205 Y-14.849
X-100.232 Y-14.8
X-100.254 Y-14.75
X-100.28 Y-14.651
X-100.298 Y-14.552
X-100.31 Y-14.453
X-100.331 Y-14.254
X-100.351 Y-14.056
X-100.35 Y-14.006
X-100.346 Y-13.957
X-100.33 Y-13.858
X-100.297 Y-13.752
X-100.152 Y-13.362
X-100.144 Y-13.321
X-100.148 Y-13.281
X-100.162 Y-13.242
X-100.187 Y-13.209
X-100.219 Y-13.184
X-100.257 Y-13.169
X-100.779 Y-13.037
X-101.55 Y-12.842
X-101.989 Y-12.731 F400
G3 X-102.164 Y-12.935 I-0.037 J-0.145
G1 X-102.15 Y-12.965 F600
X-102.108 Y-13.064
X-102.082 Y-13.132
X-102.051 Y-13.263
X-101.983 Y-13.592
X-101.972 Y-13.659
X-101.958 Y-13.758
X-101.959 Y-13.858
X-101.983 Y-13.974
X-102.025 Y-14.155
X-102.082 Y-14.365
X-102.106 Y-14.453
X-102.141 Y-14.552
X-102.181 Y-14.629
X-102.197 Y-14.651
X-102.281 Y-14.757
X-102.359 Y-14.849
X-102.578 Y-15.096
X-102.601 Y-15.12
G3 X-102.376 Y-15.319 I0.112 J-0.1
X-102.459 Y-15.073 I-0.112 J0.1
G0 Z15
X-103.225 Y-111.431
Z5
Z-0.1
G1 Z-0.25 F400
Y-111.439 Z-0.296
X-103.224 Y-111.46 Z-0.338
X-103.223 Y-111.493 Z-0.371
X-103.221 Y-111.535 Z-0.393
X-103.22 Y-111.581 Z-0.4
G3 X-102.776 Y-113.088 I3.163 J0.112
G1 X-102.677 Y-113.242 F600
X-102.666 Y-113.263
X-102.625 Y-113.362
X-102.55 Y-113.56
X-102.491 Y-113.698
X-102.403 Y-113.819
X-102.297 Y-113.926
X-102.169 Y-114.003
X-102.029 Y-114.059
X-101.882 Y-114.101
X-101.735 Y-114.13
X-101.585 Y-114.132
X-101.436 Y-114.116
X-101.259 Y-114.081
X-101.114 Y-114.04
X-101.021 Y-113.999
X-100.922 Y-113.935
X-100.85 Y-113.841
X-100.814 Y-113.728
X-100.804 Y-113.659
X-100.793 Y-113.591
X-100.725 Y-113.263
X-100.718 Y-113.233
G3 X-100.895 Y-113.056 I-0.147 J0.03
G1 X-101.375 Y-113.152
X-101.917 Y-113.261
X-102.437 Y-113.366 F400
X-102.477 Y-113.38
X-102.512 Y-113.404
X-102.538 Y-113.438
X-102.554 Y-113.477
X-102.558 Y-113.519
X-102.55 Y-113.56
X-102.477 Y-113.759 F600
X-102.446 Y-113.858
X-102.43 Y-113.957
X-102.405 Y-114.105
X-102.335 Y-114.237
X-102.236 Y-114.35
X-102.117 Y-114.441
X-101.985 Y-114.512
X-101.844 Y-114.564
X-101.698 Y-114.597
X-101.549 Y-114.614
X-101.399 Y-114.617
X-101.249 Y-114.605
X-101.102 Y-114.576
X-100.959 Y-114.529
X-100.945 Y-114.522
X-100.824 Y-114.425
X-100.757 Y-114.284
Y-114.129
X-100.797 Y-113.957
X-100.817 Y-113.858
X-100.818 Y-113.759
X-100.814 Y-113.728
X-100.816 Y-113.682
X-100.832 Y-113.638
X-100.861 Y-113.602
X-100.899 Y-113.576
X-100.943 Y-113.563
X-100.99 Y-113.564
X-101.488 Y-113.655
X-101.745 Y-113.702
X-102.307 Y-113.804 F400
X-102.347 Y-113.817
X-102.382 Y-113.842
X-102.409 Y-113.875
X-102.425 Y-113.914
X-102.43 Y-113.957
X-102.426 Y-114.007 F600
Y-114.056
X-102.445 Y-114.254
X-102.454 Y-114.404
X-102.41 Y-114.548
X-102.375 Y-114.651
X-102.358 Y-114.869
X-102.469 Y-115.292
X-102.685 Y-115.673
X-102.744 Y-115.765
X-102.825 Y-115.902
X-102.919 Y-116.096
X-103.03 Y-116.379
X-103.074 Y-116.522
X-103.1 Y-116.67
X-103.118 Y-116.86
X-103.12 Y-117.077
X-103.11 Y-117.227
X-103.081 Y-117.374
X-103.031 Y-117.546
X-102.959 Y-117.734
X-102.894 Y-117.869
X-102.813 Y-117.995
X-102.704 Y-118.132
X-102.569 Y-118.277
X-102.458 Y-118.379
X-102.335 Y-118.464
X-102.185 Y-118.549
X-102.004 Y-118.632
X-101.863 Y-118.684
X-101.716 Y-118.716
X-101.547 Y-118.737
X-101.346 Y-118.746
X-101.196 Y-118.74
X-101.048 Y-118.714
X-100.884 Y-118.669
X-100.694 Y-118.599
X-100.557 Y-118.537
X-100.431 Y-118.456
X-100.297 Y-118.352
X-100.147 Y-118.214
X-100.044 Y-118.104
X-99.958 Y-117.982
X-99.874 Y-117.834
X-99.788 Y-117.649
X-99.736 Y-117.509
X-99.703 Y-117.362
X-99.682 Y-117.194
X-99.673 Y-116.99
X-99.679 Y-116.84
X-99.704 Y-116.692
X-99.749 Y-116.529
X-99.819 Y-116.338
X-99.882 Y-116.201
X-99.962 Y-116.075
X-100.066 Y-115.941
X-100.214 Y-115.779
X-100.263 Y-115.682
X-100.309 Y-115.468
X-100.301 Y-115.121
X-100.31 Y-115.035
X-100.34 Y-114.953
X-100.389 Y-114.881
X-100.417 Y-114.849
X-100.501 Y-114.75
X-100.579 Y-114.651
X-100.594 Y-114.628
X-100.634 Y-114.552
X-100.669 Y-114.453
X-100.743 Y-114.186
X-100.751 Y-114.155
X-100.757 Y-114.129
X-100.773 Y-114.091
X-100.799 Y-114.058
X-100.833 Y-114.034
X-100.872 Y-114.021
X-100.914 Y-114.018
X-101.489 Y-114.063
X-101.727 Y-114.081
X-102.308 Y-114.126 F400
X-102.347 Y-114.135
X-102.383 Y-114.154
X-102.413 Y-114.181
X-102.434 Y-114.216
X-102.445 Y-114.254
X-102.467 Y-114.453 F600
X-102.479 Y-114.554
X-102.496 Y-114.651
X-102.523 Y-114.75
X-102.544 Y-114.8
X-102.571 Y-114.849
X-102.677 Y-115.023
X-102.757 Y-115.147
X-102.975 Y-115.465
X-103.272 Y-115.876
X-103.39 Y-116.039
X-103.403 Y-116.064
X-103.412 Y-116.089
X-103.538 Y-116.535
X-103.554 Y-116.59
X-103.587 Y-116.736
X-103.604 Y-116.861
X-103.606 Y-116.884
X-103.607 Y-116.908
X-103.606 Y-116.932
G3 X-103.326 Y-116.99 I0.149 J0.017
G1 X-103.315 Y-116.966 F400
X-103.308 Y-116.94
X-103.263 Y-116.66
G3 X-103.554 Y-116.59 I-0.148 J0.024
G1 X-103.608 Y-116.783 F600
X-103.612 Y-116.808
X-103.613 Y-116.833
X-103.583 Y-117.229
X-103.576 Y-117.328
X-103.572 Y-117.37
X-103.554 Y-117.519
X-103.525 Y-117.639
X-103.519 Y-117.661
X-103.512 Y-117.682
X-103.503 Y-117.702
G3 X-103.222 Y-117.667 I0.134 J0.067
G1 X-103.219 Y-117.637 F400
X-103.222 Y-117.607
X-103.275 Y-117.335
G3 X-103.572 Y-117.37 I-0.147 J-0.029
G1 X-103.561 Y-117.527 F600
X-103.556 Y-117.576
X-103.548 Y-117.601
X-103.538 Y-117.626
X-103.371 Y-117.993
X-103.358 Y-118.023
X-103.333 Y-118.077
X-103.264 Y-118.21
X-103.174 Y-118.35
X-103.149 Y-118.381
X-103.13 Y-118.402
G3 X-102.891 Y-118.23 I0.103 J0.109
G1 X-102.899 Y-118.215 F400
X-103.067 Y-117.942
G3 X-103.333 Y-118.077 I-0.128 J-0.078
G1 X-103.245 Y-118.271 F600
X-103.23 Y-118.295
X-103.211 Y-118.32
X-102.918 Y-118.618
X-102.763 Y-118.76
X-102.652 Y-118.861
X-102.533 Y-118.952
X-102.406 Y-119.032
X-102.273 Y-119.102
X-102.135 Y-119.161
X-101.993 Y-119.209
X-101.848 Y-119.248
X-101.701 Y-119.277
X-101.552 Y-119.296
X-101.403 Y-119.303
X-101.253 Y-119.3
X-101.103 Y-119.286
X-100.955 Y-119.263
X-100.808 Y-119.232
X-100.664 Y-119.19
X-100.524 Y-119.137
X-100.387 Y-119.076
X-100.255 Y-119.005
X-100.127 Y-118.926
X-100.004 Y-118.84
X-99.961 Y-118.805
X-99.936 Y-118.783
X-99.914 Y-118.758
X-99.893 Y-118.731
X-99.801 Y-118.597
X-99.603 Y-118.323
X-99.601 Y-118.32
X-99.529 Y-118.221
X-99.447 Y-118.095
X-99.375 Y-117.96
X-99.337 Y-117.871
X-99.327 Y-117.841
G3 X-99.604 Y-117.734 I-0.146 J0.036
G1 X-99.618 Y-117.759
X-99.779 Y-118.057 F400
G3 X-99.529 Y-118.221 I0.132 J-0.071
G1 X-99.385 Y-118.023 F600
X-99.373 Y-117.998
X-99.364 Y-117.973
X-99.266 Y-117.626
X-99.238 Y-117.527
X-99.222 Y-117.472
X-99.189 Y-117.326
X-99.171 Y-117.166
X-99.17 Y-117.133
X-99.171 Y-117.12
G3 X-99.455 Y-117.071 I-0.149 J-0.016
G1 X-99.468 Y-117.114 F400
X-99.513 Y-117.403
G3 X-99.222 Y-117.472 I0.148 J-0.023
G1 X-99.168 Y-117.279 F600
X-99.164 Y-117.254
X-99.163 Y-117.229
X-99.193 Y-116.833
X-99.2 Y-116.734
X-99.203 Y-116.691
X-99.222 Y-116.543
X-99.253 Y-116.416
X-99.259 Y-116.396
X-99.266 Y-116.375
X-99.274 Y-116.355
G3 X-99.556 Y-116.395 I-0.134 J-0.067
G1 X-99.559 Y-116.423 F400
X-99.556 Y-116.452
X-99.5 Y-116.727
G3 X-99.203 Y-116.691 I0.147 J0.03
G1 X-99.215 Y-116.535 F600
X-99.22 Y-116.486
X-99.227 Y-116.461
X-99.238 Y-116.436
X-99.531 Y-115.791
X-99.546 Y-115.767
X-99.565 Y-115.742
X-100.15 Y-115.147
X-100.198 Y-115.097
X-100.389 Y-114.881
X-100.424 Y-114.853
X-100.466 Y-114.838
X-100.511 Y-114.835
X-100.555 Y-114.846
X-100.593 Y-114.869
X-100.623 Y-114.902
X-100.905 Y-115.333
X-102.612 Y-117.943
X-102.933 Y-118.434 F400
X-102.951 Y-118.47
X-102.958 Y-118.509
X-102.954 Y-118.548
X-102.941 Y-118.585
X-102.918 Y-118.618
X-102.626 Y-118.915 F600
X-102.578 Y-118.965
X-102.359 Y-119.213
X-102.275 Y-119.312
X-102.197 Y-119.411
X-102.181 Y-119.433
X-102.141 Y-119.51
X-102.107 Y-119.609
X-102.051 Y-119.808
X-102.025 Y-119.907
X-101.979 Y-120.105
X-101.959 Y-120.204
X-101.958 Y-120.303
X-101.972 Y-120.403
X-101.983 Y-120.47
X-102.051 Y-120.799
X-102.058 Y-120.829
X-102.061 Y-120.871
X-102.052 Y-120.911
X-102.032 Y-120.948
X-102.003 Y-120.978
X-101.967 Y-120.998
X-101.927 Y-121.008
X-101.394 Y-121.066
X-100.595 Y-121.152
X-100.144 Y-121.201 F400
G3 X-99.999 Y-120.975 I0.016 J0.149
G1 X-100.099 Y-120.821 F600
X-100.111 Y-120.799
X-100.152 Y-120.7
X-100.299 Y-120.303
X-100.33 Y-120.204
X-100.346 Y-120.105
X-100.35 Y-120.055
X-100.351 Y-120.006
X-100.331 Y-119.808
X-100.31 Y-119.609
X-100.297 Y-119.506
X-100.281 Y-119.411
X-100.254 Y-119.312
X-100.233 Y-119.262
X-100.206 Y-119.213
X-100.099 Y-119.038
X-100.019 Y-118.915
X-99.893 Y-118.731
G3 X-100.02 Y-118.501 I-0.127 J0.08
X-100.15 Y-118.727 I0 J-0.15
G1 X-100.119 Y-118.751 Z-0.394
X-100.092 Y-118.774 Z-0.379
X-100.068 Y-118.793 Z-0.354
X-100.045 Y-118.797 Z-0.324
X-100.031 Y-118.8 Z-0.288
X-100.026 Y-118.801 Z-0.25
G0 Z5
X-103.225 Y-111.431
Z-0.5
G1 Z-0.65 F400
Y-111.439 Z-0.696
X-103.224 Y-111.46 Z-0.738
X-103.223 Y-111.493 Z-0.771
X-103.221 Y-111.535 Z-0.793
X-103.22 Y-111.581 Z-0.8
G3 X-102.776 Y-113.088 I3.163 J0.112
G1 X-102.677 Y-113.242 F600
X-102.666 Y-113.263
X-102.625 Y-113.362
X-102.55 Y-113.56
X-102.491 Y-113.698
X-102.403 Y-113.819
X-102.297 Y-113.926
X-102.169 Y-114.003
X-102.029 Y-114.059
X-101.882 Y-114.101
X-101.735 Y-114.13
X-101.585 Y-114.132
X-101.436 Y-114.116
X-101.259 Y-114.081
X-101.114 Y-114.04
X-101.021 Y-113.999
X-100.922 Y-113.935
X-100.85 Y-113.841
X-100.814 Y-113.728
X-100.804 Y-113.659
X-100.793 Y-113.591
X-100.725 Y-113.263
X-100.718 Y-113.233
G3 X-100.895 Y-113.056 I-0.147 J0.03
G1 X-101.375 Y-113.152
X-101.917 Y-113.261
X-102.437 Y-113.366 F400
X-102.477 Y-113.38
X-102.512 Y-113.404
X-102.538 Y-113.438
X-102.554 Y-113.477
X-102.558 Y-113.519
X-102.55 Y-113.56
X-102.477 Y-113.759 F600
X-102.446 Y-113.858
X-102.43 Y-113.957
X-102.405 Y-114.105
X-102.335 Y-114.237
X-102.236 Y-114.35
X-102.117 Y-114.441
X-101.985 Y-114.512
X-101.844 Y-114.564
X-101.698 Y-114.597
X-101.549 Y-114.614
X-101.399 Y-114.617
X-101.249 Y-114.605
X-101.102 Y-114.576
X-100.959 Y-114.529
X-100.945 Y-114.522
X-100.824 Y-114.425
X-100.757 Y-114.284
Y-114.129
X-100.797 Y-113.957
X-100.817 Y-113.858
X-100.818 Y-113.759
X-100.814 Y-113.728
X-100.816 Y-113.682
X-100.832 Y-113.638
X-100.861 Y-113.602
X-100.899 Y-113.576
X-100.943 Y-113.563
X-100.99 Y-113.564
X-101.488 Y-113.655
X-101.745 Y-113.702
X-102.307 Y-113.804 F400
X-102.347 Y-113.817
X-102.382 Y-113.842
X-102.409 Y-113.875
X-102.425 Y-113.914
X-102.43 Y-113.957
X-102.426 Y-114.007 F600
Y-114.056
X-102.445 Y-114.254
X-102.454 Y-114.404
X-102.41 Y-114.548
X-102.375 Y-114.651
X-102.358 Y-114.869
X-102.469 Y-115.292
X-102.685 Y-115.673
X-102.744 Y-115.765
X-102.825 Y-115.902
X-102.919 Y-116.096
X-103.03 Y-116.379
X-103.074 Y-116.522
X-103.1 Y-116.67
X-103.118 Y-116.86
X-103.12 Y-117.077
X-103.11 Y-117.227
X-103.081 Y-117.374
X-103.031 Y-117.546
X-102.959 Y-117.734
X-102.894 Y-117.869
X-102.813 Y-117.995
X-102.704 Y-118.132
X-102.569 Y-118.277
X-102.458 Y-118.379
X-102.335 Y-118.464
X-102.185 Y-118.549
X-102.004 Y-118.632
X-101.863 Y-118.684
X-101.716 Y-118.716
X-101.547 Y-118.737
X-101.346 Y-118.746
X-101.196 Y-118.74
X-101.048 Y-118.714
X-100.884 Y-118.669
X-100.694 Y-118.599
X-100.557 Y-118.537
X-100.431 Y-118.456
X-100.297 Y-118.352
X-100.147 Y-118.214
X-100.044 Y-118.104
X-99.958 Y-117.982
X-99.874 Y-117.834
X-99.788 Y-117.649
X-99.736 Y-117.509
X-99.703 Y-117.362
X-99.682 Y-117.194
X-99.673 Y-116.99
X-99.679 Y-116.84
X-99.704 Y-116.692
X-99.749 Y-116.529
X-99.819 Y-116.338
X-99.882 Y-116.201
X-99.962 Y-116.075
X-100.066 Y-115.941
X-100.214 Y-115.779
X-100.263 Y-115.682
X-100.309 Y-115.468
X-100.301 Y-115.121
X-100.31 Y-115.035
X-100.34 Y-114.953
X-100.389 Y-114.881
X-100.417 Y-114.849
X-100.501 Y-114.75
X-100.579 Y-114.651
X-100.594 Y-114.628
X-100.634 Y-114.552
X-100.669 Y-114.453
X-100.743 Y-114.186
X-100.751 Y-114.155
X-100.757 Y-114.129
X-100.773 Y-114.091
X-100.799 Y-114.058
X-100.833 Y-114.034
X-100.872 Y-114.021
X-100.914 Y-114.018
X-101.489 Y-114.063
X-101.727 Y-114.081
X-102.308 Y-114.126 F400
X-102.347 Y-114.135
X-102.383 Y-114.154
X-102.413 Y-114.181
X-102.434 Y-114.216
X-102.445 Y-114.254
X-102.467 Y-114.453 F600
X-102.479 Y-114.554
X-102.496 Y-114.651
X-102.523 Y-114.75
X-102.544 Y-114.8
X-102.571 Y-114.849
X-102.677 Y-115.023
X-102.757 Y-115.147
X-102.975 Y-115.465
X-103.272 Y-115.876
X-103.39 Y-116.039
X-103.403 Y-116.064
X-103.412 Y-116.089
X-103.538 Y-116.535
X-103.554 Y-116.59
X-103.587 Y-116.736
X-103.604 Y-116.861
X-103.606 Y-116.884
X-103.607 Y-116.908
X-103.606 Y-116.932
G3 X-103.326 Y-116.99 I0.149 J0.017
G1 X-103.315 Y-116.966 F400
X-103.308 Y-116.94
X-103.263 Y-116.66
G3 X-103.554 Y-116.59 I-0.148 J0.024
G1 X-103.608 Y-116.783 F600
X-103.612 Y-116.808
X-103.613 Y-116.833
X-103.583 Y-117.229
X-103.576 Y-117.328
X-103.572 Y-117.37
X-103.554 Y-117.519
X-103.525 Y-117.639
X-103.519 Y-117.661
X-103.512 Y-117.682
X-103.503 Y-117.702
G3 X-103.222 Y-117.667 I0.134 J0.067
G1 X-103.219 Y-117.637 F400
X-103.222 Y-117.607
X-103.275 Y-117.335
G3 X-103.572 Y-117.37 I-0.147 J-0.029
G1 X-103.561 Y-117.527 F600
X-103.556 Y-117.576
X-103.548 Y-117.601
X-103.538 Y-117.626
X-103.371 Y-117.993
X-103.358 Y-118.023
X-103.333 Y-118.077
X-103.264 Y-118.21
X-103.174 Y-118.35
X-103.149 Y-118.381
X-103.13 Y-118.402
G3 X-102.891 Y-118.23 I0.103 J0.109
G1 X-102.899 Y-118.215 F400
X-103.067 Y-117.942
G3 X-103.333 Y-118.077 I-0.128 J-0.078
G1 X-103.245 Y-118.271 F600
X-103.23 Y-118.295
X-103.211 Y-118.32
X-102.918 Y-118.618
X-102.763 Y-118.76
X-102.652 Y-118.861
X-102.533 Y-118.952
X-102.406 Y-119.032
X-102.273 Y-119.102
X-102.135 Y-119.161
X-101.993 Y-119.209
X-101.848 Y-119.248
X-101.701 Y-119.277
X-101.552 Y-119.296
X-101.403 Y-119.303
X-101.253 Y-119.3
X-101.103 Y-119.286
X-100.955 Y-119.263
X-100.808 Y-119.232
X-100.664 Y-119.19
X-100.524 Y-119.137
X-100.387 Y-119.076
X-100.255 Y-119.005
X-100.127 Y-118.926
X-100.004 Y-118.84
X-99.961 Y-118.805
X-99.936 Y-118.783
X-99.914 Y-118.758
X-99.893 Y-118.731
X-99.801 Y-118.597
X-99.603 Y-118.323
X-99.601 Y-118.32
X-99.529 Y-118.221
X-99.447 Y-118.095
X-99.375 Y-117.96
X-99.337 Y-117.871
X-99.327 Y-117.841
G3 X-99.604 Y-117.734 I-0.146 J0.036
G1 X-99.618 Y-117.759
X-99.779 Y-118.057 F400
G3 X-99.529 Y-118.221 I0.132 J-0.071
G1 X-99.385 Y-118.023 F600
X-99.373 Y-117.998
X-99.364 Y-117.973
X-99.266 Y-117.626
X-99.238 Y-117.527
X-99.222 Y-117.472
X-99.189 Y-117.326
X-99.171 Y-117.166
X-99.17 Y-117.133
X-99.171 Y-117.12
G3 X-99.455 Y-117.071 I-0.149 J-0.016
G1 X-99.468 Y-117.114 F400
X-99.513 Y-117.403
G3 X-99.222 Y-117.472 I0.148 J-0.023
G1 X-99.168 Y-117.279 F600
X-99.164 Y-117.254
X-99.163 Y-117.229
X-99.193 Y-116.833
X-99.2 Y-116.734
X-99.203 Y-116.691
X-99.222 Y-116.543
X-99.253 Y-116.416
X-99.259 Y-116.396
X-99.266 Y-116.375
X-99.274 Y-116.355
G3 X-99.556 Y-116.395 I-0.134 J-0.067
G1 X-99.559 Y-116.423 F400
X-99.556 Y-116.452
X-99.5 Y-116.727
G3 X-99.203 Y-116.691 I0.147 J0.03
G1 X-99.215 Y-116.535 F600
X-99.22 Y-116.486
X-99.227 Y-116.461
X-99.238 Y-116.436
X-99.531 Y-115.791
X-99.546 Y-115.767
X-99.565 Y-115.742
X-100.15 Y-115.147
X-100.198 Y-115.097
X-100.389 Y-114.881
X-100.424 Y-114.853
X-100.466 Y-114.838
X-100.511 Y-114.835
X-100.555 Y-114.846
X-100.593 Y-114.869
X-100.623 Y-114.902
X-100.905 Y-115.333
X-102.612 Y-117.943
X-102.933 Y-118.434 F400
X-102.951 Y-118.47
X-102.958 Y-118.509
X-102.954 Y-118.548
X-102.941 Y-118.585
X-102.918 Y-118.618
X-102.626 Y-118.915 F600
X-102.578 Y-118.965
X-102.359 Y-119.213
X-102.275 Y-119.312
X-102.197 Y-119.411
X-102.181 Y-119.433
X-102.141 Y-119.51
X-102.107 Y-119.609
X-102.051 Y-119.808
X-102.025 Y-119.907
X-101.979 Y-120.105
X-101.959 Y-120.204
X-101.958 Y-120.303
X-101.972 Y-120.403
X-101.983 Y-120.47
X-102.051 Y-120.799
X-102.058 Y-120.829
X-102.061 Y-120.871
X-102.052 Y-120.911
X-102.032 Y-120.948
X-102.003 Y-120.978
X-101.967 Y-120.998
X-101.927 Y-121.008
X-101.394 Y-121.066
X-100.595 Y-121.152
X-100.144 Y-121.201 F400
G3 X-99.999 Y-120.975 I0.016 J0.149
G1 X-100.099 Y-120.821 F600
X-100.111 Y-120.799
X-100.152 Y-120.7
X-100.299 Y-120.303
X-100.33 Y-120.204
X-100.346 Y-120.105
X-100.35 Y-120.055
X-100.351 Y-120.006
X-100.331 Y-119.808
X-100.31 Y-119.609
X-100.297 Y-119.506
X-100.281 Y-119.411
X-100.254 Y-119.312
X-100.233 Y-119.262
X-100.206 Y-119.213
X-100.099 Y-119.038
X-100.019 Y-118.915
X-99.893 Y-118.731
G3 X-100.02 Y-118.501 I-0.127 J0.08
X-100.15 Y-118.727 I0 J-0.15
G1 X-100.119 Y-118.751 Z-0.794
X-100.092 Y-118.774 Z-0.779
X-100.068 Y-118.793 Z-0.754
X-100.045 Y-118.797 Z-0.724
X-100.031 Y-118.8 Z-0.688
X-100.026 Y-118.801 Z-0.65
G0 Z5
X-103.225 Y-111.431
Z-0.7
G1 Z-0.85 F400
Y-111.439 Z-0.896
X-103.224 Y-111.46 Z-0.938
X-103.223 Y-111.493 Z-0.971
X-103.221 Y-111.535 Z-0.993
X-103.22 Y-111.581 Z-1
G3 X-102.776 Y-113.088 I3.163 J0.112
G1 X-102.677 Y-113.242 F600
X-102.666 Y-113.263
X-102.625 Y-113.362
X-102.55 Y-113.56
X-102.491 Y-113.698
X-102.403 Y-113.819
X-102.297 Y-113.926
X-102.169 Y-114.003
X-102.029 Y-114.059
X-101.882 Y-114.101
X-101.735 Y-114.13
X-101.585 Y-114.132
X-101.436 Y-114.116
X-101.259 Y-114.081
X-101.114 Y-114.04
X-101.021 Y-113.999
X-100.922 Y-113.935
X-100.85 Y-113.841
X-100.814 Y-113.728
X-100.804 Y-113.659
X-100.793 Y-113.591
X-100.725 Y-113.263
X-100.718 Y-113.233
G3 X-100.895 Y-113.056 I-0.147 J0.03
G1 X-101.375 Y-113.152
X-101.917 Y-113.261
X-102.437 Y-113.366 F400
X-102.477 Y-113.38
X-102.512 Y-113.404
X-102.538 Y-113.438
X-102.554 Y-113.477
X-102.558 Y-113.519
X-102.55 Y-113.56
X-102.477 Y-113.759 F600
X-102.446 Y-113.858
X-102.43 Y-113.957
X-102.405 Y-114.105
X-102.335 Y-114.237
X-102.236 Y-114.35
X-102.117 Y-114.441
X-101.985 Y-114.512
X-101.844 Y-114.564
X-101.698 Y-114.597
X-101.549 Y-114.614
X-101.399 Y-114.617
X-101.249 Y-114.605
X-101.102 Y-114.576
X-100.959 Y-114.529
X-100.945 Y-114.522
X-100.824 Y-114.425
X-100.757 Y-114.284
Y-114.129
X-100.797 Y-113.957
X-100.817 Y-113.858
X-100.818 Y-113.759
X-100.814 Y-113.728
X-100.816 Y-113.682
X-100.832 Y-113.638
X-100.861 Y-113.602
X-100.899 Y-113.576
X-100.943 Y-113.563
X-100.99 Y-113.564
X-101.488 Y-113.655
X-101.745 Y-113.702
X-102.307 Y-113.804 F400
X-102.347 Y-113.817
X-102.382 Y-113.842
X-102.409 Y-113.875
X-102.425 Y-113.914
X-102.43 Y-113.957
X-102.426 Y-114.007 F600
Y-114.056
X-102.445 Y-114.254
X-102.454 Y-114.404
X-102.41 Y-114.548
X-102.375 Y-114.651
X-102.358 Y-114.869
X-102.469 Y-115.292
X-102.685 Y-115.673
X-102.744 Y-115.765
X-102.825 Y-115.902
X-102.919 Y-116.096
X-103.03 Y-116.379
X-103.074 Y-116.522
X-103.1 Y-116.67
X-103.118 Y-116.86
X-103.12 Y-117.077
X-103.11 Y-117.227
X-103.081 Y-117.374
X-103.031 Y-117.546
X-102.959 Y-117.734
X-102.894 Y-117.869
X-102.813 Y-117.995
X-102.704 Y-118.132
X-102.569 Y-118.277
X-102.458 Y-118.379
X-102.335 Y-118.464
X-102.185 Y-118.549
X-102.004 Y-118.632
X-101.863 Y-118.684
X-101.716 Y-118.716
X-101.547 Y-118.737
X-101.346 Y-118.746
X-101.196 Y-118.74
X-101.048 Y-118.714
X-100.884 Y-118.669
X-100.694 Y-118.599
X-100.557 Y-118.537
X-100.431 Y-118.456
X-100.297 Y-118.352
X-100.147 Y-118.214
X-100.044 Y-118.104
X-99.958 Y-117.982
X-99.874 Y-117.834
X-99.788 Y-117.649
X-99.736 Y-117.509
X-99.703 Y-117.362
X-99.682 Y-117.194
X-99.673 Y-116.99
X-99.679 Y-116.84
X-99.704 Y-116.692
X-99.749 Y-116.529
X-99.819 Y-116.338
X-99.882 Y-116.201
X-99.962 Y-116.075
X-100.066 Y-115.941
X-100.214 Y-115.779
X-100.263 Y-115.682
X-100.309 Y-115.468
X-100.301 Y-115.121
X-100.31 Y-115.035
X-100.34 Y-114.953
X-100.389 Y-114.881
X-100.417 Y-114.849
X-100.501 Y-114.75
X-100.579 Y-114.651
X-100.594 Y-114.628
X-100.634 Y-114.552
X-100.669 Y-114.453
X-100.743 Y-114.186
X-100.751 Y-114.155
X-100.757 Y-114.129
X-100.773 Y-114.091
X-100.799 Y-114.058
X-100.833 Y-114.034
X-100.872 Y-114.021
X-100.914 Y-114.018
X-101.489 Y-114.063
X-101.727 Y-114.081
X-102.308 Y-114.126 F400
X-102.347 Y-114.135
X-102.383 Y-114.154
X-102.413 Y-114.181
X-102.434 Y-114.216
X-102.445 Y-114.254
X-102.467 Y-114.453 F600
X-102.479 Y-114.554
X-102.496 Y-114.651
X-102.523 Y-114.75
X-102.544 Y-114.8
X-102.571 Y-114.849
X-102.677 Y-115.023
X-102.757 Y-115.147
X-102.975 Y-115.465
X-103.272 Y-115.876
X-103.39 Y-116.039
X-103.403 Y-116.064
X-103.412 Y-116.089
X-103.538 Y-116.535
X-103.554 Y-116.59
X-103.587 Y-116.736
X-103.604 Y-116.861
X-103.606 Y-116.884
X-103.607 Y-116.908
X-103.606 Y-116.932
G3 X-103.326 Y-116.99 I0.149 J0.017
G1 X-103.315 Y-116.966 F400
X-103.308 Y-116.94
X-103.263 Y-116.66
G3 X-103.554 Y-116.59 I-0.148 J0.024
G1 X-103.608 Y-116.783 F600
X-103.612 Y-116.808
X-103.613 Y-116.833
X-103.583 Y-117.229
X-103.576 Y-117.328
X-103.572 Y-117.37
X-103.554 Y-117.519
X-103.525 Y-117.639
X-103.519 Y-117.661
X-103.512 Y-117.682
X-103.503 Y-117.702
G3 X-103.222 Y-117.667 I0.134 J0.067
G1 X-103.219 Y-117.637 F400
X-103.222 Y-117.607
X-103.275 Y-117.335
G3 X-103.572 Y-117.37 I-0.147 J-0.029
G1 X-103.561 Y-117.527 F600
X-103.556 Y-117.576
X-103.548 Y-117.601
X-103.538 Y-117.626
X-103.371 Y-117.993
X-103.358 Y-118.023
X-103.333 Y-118.077
X-103.264 Y-118.21
X-103.174 Y-118.35
X-103.149 Y-118.381
X-103.13 Y-118.402
G3 X-102.891 Y-118.23 I0.103 J0.109
G1 X-102.899 Y-118.215 F400
X-103.067 Y-117.942
G3 X-103.333 Y-118.077 I-0.128 J-0.078
G1 X-103.245 Y-118.271 F600
X-103.23 Y-118.295
X-103.211 Y-118.32
X-102.918 Y-118.618
X-102.763 Y-118.76
X-102.652 Y-118.861
X-102.533 Y-118.952
X-102.406 Y-119.032
X-102.273 Y-119.102
X-102.135 Y-119.161
X-101.993 Y-119.209
X-101.848 Y-119.248
X-101.701 Y-119.277
X-101.552 Y-119.296
X-101.403 Y-119.303
X-101.253 Y-119.3
X-101.103 Y-119.286
X-100.955 Y-119.263
X-100.808 Y-119.232
X-100.664 Y-119.19
X-100.524 Y-119.137
X-100.387 Y-119.076
X-100.255 Y-119.005
X-100.127 Y-118.926
X-100.004 Y-118.84
X-99.961 Y-118.805
X-99.936 Y-118.783
X-99.914 Y-118.758
X-99.893 Y-118.731
X-99.801 Y-118.597
X-99.603 Y-118.323
X-99.601 Y-118.32
X-99.529 Y-118.221
X-99.447 Y-118.095
X-99.375 Y-117.96
X-99.337 Y-117.871
X-99.327 Y-117.841
G3 X-99.604 Y-117.734 I-0.146 J0.036
G1 X-99.618 Y-117.759
X-99.779 Y-118.057 F400
G3 X-99.529 Y-118.221 I0.132 J-0.071
G1 X-99.385 Y-118.023 F600
X-99.373 Y-117.998
X-99.364 Y-117.973
X-99.266 Y-117.626
X-99.238 Y-117.527
X-99.222 Y-117.472
X-99.189 Y-117.326
X-99.171 Y-117.166
X-99.17 Y-117.133
X-99.171 Y-117.12
G3 X-99.455 Y-117.071 I-0.149 J-0.016
G1 X-99.468 Y-117.114 F400
X-99.513 Y-117.403
G3 X-99.222 Y-117.472 I0.148 J-0.023
G1 X-99.168 Y-117.279 F600
X-99.164 Y-117.254
X-99.163 Y-117.229
X-99.193 Y-116.833
X-99.2 Y-116.734
X-99.203 Y-116.691
X-99.222 Y-116.543
X-99.253 Y-116.416
X-99.259 Y-116.396
X-99.266 Y-116.375
X-99.274 Y-116.355
G3 X-99.556 Y-116.395 I-0.134 J-0.067
G1 X-99.559 Y-116.423 F400
X-99.556 Y-116.452
X-99.5 Y-116.727
G3 X-99.203 Y-116.691 I0.147 J0.03
G1 X-99.215 Y-116.535 F600
X-99.22 Y-116.486
X-99.227 Y-116.461
X-99.238 Y-116.436
X-99.531 Y-115.791
X-99.546 Y-115.767
X-99.565 Y-115.742
X-100.15 Y-115.147
X-100.198 Y-115.097
X-100.389 Y-114.881
X-100.424 Y-114.853
X-100.466 Y-114.838
X-100.511 Y-114.835
X-100.555 Y-114.846
X-100.593 Y-114.869
X-100.623 Y-114.902
X-100.905 Y-115.333
X-102.612 Y-117.943
X-102.933 Y-118.434 F400
X-102.951 Y-118.47
X-102.958 Y-118.509
X-102.954 Y-118.548
X-102.941 Y-118.585
X-102.918 Y-118.618
X-102.626 Y-118.915 F600
X-102.578 Y-118.965
X-102.359 Y-119.213
X-102.275 Y-119.312
X-102.197 Y-119.411
X-102.181 Y-119.433
X-102.141 Y-119.51
X-102.107 Y-119.609
X-102.051 Y-119.808
X-102.025 Y-119.907
X-101.979 Y-120.105
X-101.959 Y-120.204
X-101.958 Y-120.303
X-101.972 Y-120.403
X-101.983 Y-120.47
X-102.051 Y-120.799
X-102.058 Y-120.829
X-102.061 Y-120.871
X-102.052 Y-120.911
X-102.032 Y-120.948
X-102.003 Y-120.978
X-101.967 Y-120.998
X-101.927 Y-121.008
X-101.394 Y-121.066
X-100.595 Y-121.152
X-100.144 Y-121.201 F400
G3 X-99.999 Y-120.975 I0.016 J0.149
G1 X-100.099 Y-120.821 F600
X-100.111 Y-120.799
X-100.152 Y-120.7
X-100.299 Y-120.303
X-100.33 Y-120.204
X-100.346 Y-120.105
X-100.35 Y-120.055
X-100.351 Y-120.006
X-100.331 Y-119.808
X-100.31 Y-119.609
X-100.297 Y-119.506
X-100.281 Y-119.411
X-100.254 Y-119.312
X-100.233 Y-119.262
X-100.206 Y-119.213
X-100.099 Y-119.038
X-100.019 Y-118.915
X-99.893 Y-118.731
G3 X-100.02 Y-118.501 I-0.127 J0.08
X-100.026 Y-118.801 I0 J-0.15
G0 Z15
X-14.397 Y-122.831
Z5
Z-0.1
G1 Z-0.25 F400
X-14.396 Y-122.823 Z-0.296
X-14.394 Y-122.802 Z-0.338
X-14.391 Y-122.769 Z-0.371
X-14.386 Y-122.727 Z-0.393
X-14.381 Y-122.681 Z-0.4
G3 X-14.612 Y-121.128 I-3.148 J0.327
G1 X-14.626 Y-121.097 F600
X-14.668 Y-120.998
X-14.694 Y-120.931
X-14.725 Y-120.799
X-14.757 Y-120.646
X-14.795 Y-120.5
X-14.862 Y-120.366
X-14.949 Y-120.244
X-15.063 Y-120.147
X-15.191 Y-120.069
X-15.328 Y-120.007
X-15.469 Y-119.955
X-15.616 Y-119.928
X-15.766 Y-119.92
X-15.942 Y-119.927
X-16.09 Y-119.945
X-16.239 Y-119.982
X-16.33 Y-120.034
X-16.401 Y-120.111
X-16.446 Y-120.205
X-16.479 Y-120.309
X-16.624 Y-120.7
X-16.632 Y-120.748
X-16.624 Y-120.796
X-16.602 Y-120.838
X-16.566 Y-120.872
X-16.523 Y-120.892
X-16.475 Y-120.897
X-15.981 Y-120.873
X-15.429 Y-120.846
X-14.898 Y-120.82 F400
X-14.856 Y-120.812
X-14.819 Y-120.793
X-14.788 Y-120.764
X-14.767 Y-120.728
X-14.756 Y-120.688
X-14.757 Y-120.646
X-14.793 Y-120.471 F600
X-14.804 Y-120.403
X-14.818 Y-120.303
X-14.817 Y-120.204
X-14.815 Y-120.054
X-14.872 Y-119.915
X-14.957 Y-119.792
X-15.064 Y-119.687
X-15.186 Y-119.6
X-15.319 Y-119.53
X-15.459 Y-119.478
X-15.605 Y-119.44
X-15.753 Y-119.417
X-15.903 Y-119.408
X-16.052 Y-119.416
X-16.2 Y-119.442
X-16.206 Y-119.444
X-16.339 Y-119.525
X-16.424 Y-119.656
X-16.444 Y-119.811
X-16.425 Y-120.006
X-16.426 Y-120.055
X-16.43 Y-120.105
X-16.446 Y-120.205
X-16.451 Y-120.252
X-16.442 Y-120.298
X-16.418 Y-120.339
X-16.383 Y-120.37
X-16.34 Y-120.389
X-16.293 Y-120.394
X-15.792 Y-120.366
X-15.547 Y-120.352
X-14.955 Y-120.319 F400
X-14.908 Y-120.309
X-14.867 Y-120.285
X-14.835 Y-120.248
X-14.817 Y-120.204
X-14.793 Y-120.087 F600
X-14.751 Y-119.907
X-14.719 Y-119.76
X-14.75 Y-119.613
X-14.755 Y-119.395
X-14.693 Y-119.185
X-14.487 Y-118.799
X-14.205 Y-118.464
X-14.076 Y-118.288
X-13.991 Y-118.164
X-13.906 Y-118.013
X-13.806 Y-117.796
X-13.743 Y-117.624
X-13.703 Y-117.48
X-13.679 Y-117.331
X-13.664 Y-117.132
Y-116.96
X-13.676 Y-116.81
X-13.706 Y-116.663
X-13.759 Y-116.487
X-13.824 Y-116.319
X-13.89 Y-116.184
X-13.972 Y-116.059
X-14.082 Y-115.92
X-14.212 Y-115.782
X-14.323 Y-115.681
X-14.446 Y-115.596
X-14.597 Y-115.511
X-14.775 Y-115.429
X-14.916 Y-115.378
X-15.062 Y-115.346
X-15.232 Y-115.325
X-15.432 Y-115.317
X-15.582 Y-115.322
X-15.729 Y-115.348
X-15.893 Y-115.394
X-16.083 Y-115.463
X-16.219 Y-115.526
X-16.346 Y-115.606
X-16.48 Y-115.711
X-16.629 Y-115.848
X-16.732 Y-115.958
X-16.818 Y-116.08
X-16.902 Y-116.228
X-16.988 Y-116.412
X-17.04 Y-116.553
X-17.073 Y-116.699
X-17.094 Y-116.868
X-17.103 Y-117.071
X-17.097 Y-117.221
X-17.071 Y-117.369
X-17.026 Y-117.532
X-16.957 Y-117.724
X-16.894 Y-117.861
X-16.814 Y-117.987
X-16.747 Y-118.074
X-16.705 Y-118.175
X-16.684 Y-118.393
X-16.746 Y-118.764
X-16.749 Y-118.85
X-16.732 Y-118.934
X-16.694 Y-119.012
X-16.631 Y-119.113
X-16.57 Y-119.213
X-16.543 Y-119.262
X-16.522 Y-119.312
X-16.495 Y-119.411
X-16.478 Y-119.51
X-16.466 Y-119.609
X-16.444 Y-119.811
X-16.433 Y-119.851
X-16.411 Y-119.887
X-16.381 Y-119.915
X-16.344 Y-119.933
X-16.303 Y-119.941
X-15.726 Y-119.97
X-15.488 Y-119.982
X-14.902 Y-120.012 F400
X-14.863 Y-120.009
X-14.826 Y-119.996
X-14.793 Y-119.973
X-14.768 Y-119.943
X-14.751 Y-119.907
X-14.694 Y-119.698 F600
X-14.669 Y-119.609
X-14.634 Y-119.51
X-14.594 Y-119.434
X-14.579 Y-119.411
X-14.495 Y-119.305
X-14.417 Y-119.213
X-14.198 Y-118.965
X-14.15 Y-118.915
X-13.702 Y-118.459
X-13.565 Y-118.32
X-13.546 Y-118.295
X-13.531 Y-118.271
X-13.328 Y-117.824
X-13.305 Y-117.774
X-13.25 Y-117.635
X-13.222 Y-117.529
X-13.216 Y-117.508
X-13.213 Y-117.486
X-13.21 Y-117.465
G3 X-13.463 Y-117.35 I-0.15 J0.006
G1 X-13.487 Y-117.379 F400
X-13.503 Y-117.413
X-13.582 Y-117.662
X-13.589 Y-117.707
Y-117.708
G3 X-13.305 Y-117.774 I0.15 J0
G1 X-13.238 Y-117.626 F600
X-13.227 Y-117.601
X-13.22 Y-117.576
X-13.215 Y-117.527
X-13.185 Y-117.13
X-13.181 Y-117.076
X-13.178 Y-117.031
X-13.174 Y-116.881
X-13.187 Y-116.735
X-13.19 Y-116.714
X-13.194 Y-116.693
X-13.199 Y-116.672
G3 X-13.488 Y-116.685 I-0.143 J-0.046
G1 X-13.492 Y-116.725 F400
X-13.477 Y-117.022
G3 X-13.178 Y-117.031 I0.15 J0.008
G1 X-13.163 Y-116.833 F600
X-13.164 Y-116.808
X-13.168 Y-116.783
X-13.294 Y-116.337
X-13.305 Y-116.297
X-13.314 Y-116.264
X-13.362 Y-116.122
X-13.424 Y-115.994
X-13.434 Y-115.976
X-13.444 Y-115.958
X-13.456 Y-115.941
G3 X-13.724 Y-116.046 I-0.118 J-0.092
G1 X-13.712 Y-116.092 F400
X-13.598 Y-116.359
G3 X-13.314 Y-116.264 I0.138 J0.059
G1 X-13.364 Y-116.089 F600
X-13.373 Y-116.064
X-13.385 Y-116.039
X-13.672 Y-115.643
X-13.766 Y-115.526
X-13.862 Y-115.41
X-13.967 Y-115.304
X-14.081 Y-115.206
X-14.202 Y-115.117
X-14.329 Y-115.037
X-14.461 Y-114.967
X-14.599 Y-114.908
X-14.741 Y-114.858
X-14.885 Y-114.818
X-15.032 Y-114.788
X-15.181 Y-114.767
X-15.33 Y-114.757
X-15.48 Y-114.758
X-15.63 Y-114.769
X-15.779 Y-114.79
X-15.926 Y-114.819
X-16.07 Y-114.859
X-16.212 Y-114.908
X-16.35 Y-114.967
X-16.483 Y-115.036
X-16.524 Y-115.06
X-16.551 Y-115.077
X-16.577 Y-115.098
X-16.6 Y-115.12
X-16.677 Y-115.199
X-16.975 Y-115.502
X-17.016 Y-115.544
X-17.048 Y-115.576
X-17.148 Y-115.688
X-17.253 Y-115.831
X-17.286 Y-115.885
X-17.3 Y-115.912
G3 X-17.042 Y-116.06 I0.139 J-0.057
G1 X-17.031 Y-116.045
X-16.825 Y-115.776 F400
G3 X-17.048 Y-115.576 I-0.119 J0.091
G1 X-17.211 Y-115.742 F600
X-17.23 Y-115.767
X-17.245 Y-115.791
X-17.403 Y-116.139
X-17.448 Y-116.238
X-17.46 Y-116.265
X-17.516 Y-116.405
X-17.556 Y-116.553
X-17.561 Y-116.574
X-17.565 Y-116.596
X-17.567 Y-116.618
G3 X-17.287 Y-116.698 I0.15 J-0.006
G1 X-17.274 Y-116.669 F400
X-17.183 Y-116.376
G3 X-17.46 Y-116.265 I-0.143 J0.045
G1 X-17.538 Y-116.436 F600
X-17.548 Y-116.461
X-17.556 Y-116.486
X-17.561 Y-116.535
X-17.591 Y-116.932
X-17.595 Y-116.986
X-17.598 Y-117.031
X-17.602 Y-117.181
X-17.587 Y-117.332
X-17.585 Y-117.353
X-17.581 Y-117.374
X-17.576 Y-117.394
G3 X-17.286 Y-117.378 I0.143 J0.046
G1 X-17.283 Y-117.34 F400
X-17.299 Y-117.039
G3 X-17.598 Y-117.031 I-0.15 J-0.008
G1 X-17.613 Y-117.229 F600
X-17.612 Y-117.254
X-17.608 Y-117.279
X-17.412 Y-117.973
X-17.403 Y-117.998
X-17.39 Y-118.023
X-16.96 Y-118.618
X-16.757 Y-118.915
X-16.694 Y-119.012
X-16.663 Y-119.044
X-16.623 Y-119.066
X-16.579 Y-119.075
X-16.534 Y-119.071
X-16.492 Y-119.053
X-16.458 Y-119.024
X-16.122 Y-118.636
X-14.069 Y-116.27
X-13.683 Y-115.825 F400
X-13.658 Y-115.783
X-13.647 Y-115.736
X-13.652 Y-115.687
X-13.672 Y-115.643
X-13.815 Y-115.444 F600
X-14.018 Y-115.147
X-14.099 Y-115.023
X-14.205 Y-114.849
X-14.232 Y-114.8
X-14.254 Y-114.75
X-14.28 Y-114.651
X-14.298 Y-114.552
X-14.31 Y-114.453
X-14.331 Y-114.254
X-14.351 Y-114.056
X-14.35 Y-114.007
X-14.346 Y-113.957
X-14.33 Y-113.858
X-14.297 Y-113.752
X-14.152 Y-113.362
X-14.144 Y-113.322
X-14.148 Y-113.281
X-14.162 Y-113.242
X-14.187 Y-113.209
X-14.219 Y-113.184
X-14.257 Y-113.169
