(Main_1mm)
(T21 D=1 CR=0 - ZMIN=-2.3 - Schaftfrser)
G90 G94
G17
G21
(When using Fusion for Personal Use, the feedrate of rapid)
(moves is reduced to match the feedrate of cutting moves,)
(which can increase machining time. Unrestricted rapid moves)
(are available with a Fusion Subscription.)
G28 G91 Z0
G90

(Bohrfrsen3)
T21
S3000 M3
G17 G90 G94
G54
G0 X-75.377 Y-92.488
Z15
G1 Z2 F1000
Z0.1
Y-92.495 Z0.062
Y-92.517 Z0.029
Y-92.549 Z0.008
Y-92.588 Z0
Y-92.638
X-75.369 Y-92.676
X-75.348 Y-92.708
X-75.315 Y-92.73
X-75.277 Y-92.738
G3 X-75.277 Y-91.238 Z-0.044 I0 J0.75
X-75.277 Y-92.738 Z-0.087 I0 J-0.75
X-75.277 Y-91.238 Z-0.131 I0 J0.75
X-75.277 Y-92.738 Z-0.175 I0 J-0.75
X-75.277 Y-91.238 Z-0.218 I0 J0.75
X-75.277 Y-92.738 Z-0.262 I0 J-0.75
X-75.277 Y-91.238 Z-0.306 I0 J0.75
X-75.277 Y-92.738 Z-0.349 I0 J-0.75
X-75.277 Y-91.238 Z-0.393 I0 J0.75
X-75.277 Y-92.738 Z-0.437 I0 J-0.75
X-75.277 Y-91.238 Z-0.48 I0 J0.75
X-75.277 Y-92.738 Z-0.524 I0 J-0.75
X-75.277 Y-91.238 Z-0.567 I0 J0.75
X-75.277 Y-92.738 Z-0.611 I0 J-0.75
X-75.277 Y-91.238 Z-0.655 I0 J0.75
X-75.277 Y-92.738 Z-0.698 I0 J-0.75
X-75.277 Y-91.238 Z-0.742 I0 J0.75
X-75.277 Y-92.738 Z-0.786 I0 J-0.75
X-75.277 Y-91.238 Z-0.829 I0 J0.75
X-75.277 Y-92.738 Z-0.873 I0 J-0.75
X-75.277 Y-91.238 Z-0.917 I0 J0.75
X-75.277 Y-92.738 Z-0.96 I0 J-0.75
X-75.277 Y-91.238 Z-1.004 I0 J0.75
X-75.277 Y-92.738 Z-1.048 I0 J-0.75
X-75.277 Y-91.238 Z-1.091 I0 J0.75
X-75.277 Y-92.738 Z-1.135 I0 J-0.75
X-75.277 Y-91.238 Z-1.179 I0 J0.75
X-75.277 Y-92.738 Z-1.222 I0 J-0.75
X-75.277 Y-91.238 Z-1.266 I0 J0.75
X-75.277 Y-92.738 Z-1.31 I0 J-0.75
X-75.277 Y-91.238 Z-1.353 I0 J0.75
X-75.277 Y-92.738 Z-1.397 I0 J-0.75
X-75.277 Y-91.238 Z-1.44 I0 J0.75
X-75.277 Y-92.738 Z-1.484 I0 J-0.75
X-75.277 Y-91.238 Z-1.528 I0 J0.75
X-75.277 Y-92.738 Z-1.571 I0 J-0.75
X-75.277 Y-91.238 Z-1.615 I0 J0.75
X-75.277 Y-92.738 Z-1.659 I0 J-0.75
X-75.277 Y-91.238 Z-1.702 I0 J0.75
X-75.277 Y-92.738 Z-1.746 I0 J-0.75
X-75.277 Y-91.238 Z-1.79 I0 J0.75
X-75.277 Y-92.738 Z-1.833 I0 J-0.75
X-75.277 Y-91.238 Z-1.877 I0 J0.75
X-75.277 Y-92.738 Z-1.921 I0 J-0.75
X-75.277 Y-91.238 Z-1.964 I0 J0.75
X-75.277 Y-92.738 Z-2.008 I0 J-0.75
X-75.277 Y-91.238 Z-2.052 I0 J0.75
X-75.277 Y-92.738 Z-2.095 I0 J-0.75
X-75.277 Y-91.238 Z-2.139 I0 J0.75
X-75.277 Y-92.738 Z-2.183 I0 J-0.75
X-75.277 Y-91.238 Z-2.226 I0 J0.75
X-75.277 Y-92.738 Z-2.27 I0 J-0.75
X-74.657 Y-91.565 Z-2.3 I0 J0.75
X-75.896 Y-92.41 I-0.619 J-0.423
X-74.657 Y-91.565 I0.619 J0.423
G1 X-74.685 Y-91.537
X-74.722 Y-91.523
X-74.761
X-74.796 Y-91.538
X-74.838 Y-91.567
X-74.869 Y-91.588 Z-2.292
X-74.896 Y-91.606 Z-2.271
X-74.914 Y-91.619 Z-2.238
X-74.92 Y-91.623 Z-2.2
Z5
X-75.377 Y-76.488
Z2
Z0.1
Y-76.495 Z0.062
Y-76.517 Z0.029
Y-76.549 Z0.008
Y-76.588 Z0
Y-76.638
X-75.369 Y-76.676
X-75.348 Y-76.708
X-75.315 Y-76.73
X-75.277 Y-76.738
G3 X-75.277 Y-75.238 Z-0.044 I0 J0.75
X-75.277 Y-76.738 Z-0.087 I0 J-0.75
X-75.277 Y-75.238 Z-0.131 I0 J0.75
X-75.277 Y-76.738 Z-0.175 I0 J-0.75
X-75.277 Y-75.238 Z-0.218 I0 J0.75
X-75.277 Y-76.738 Z-0.262 I0 J-0.75
X-75.277 Y-75.238 Z-0.306 I0 J0.75
X-75.277 Y-76.738 Z-0.349 I0 J-0.75
X-75.277 Y-75.238 Z-0.393 I0 J0.75
X-75.277 Y-76.738 Z-0.437 I0 J-0.75
X-75.277 Y-75.238 Z-0.48 I0 J0.75
X-75.277 Y-76.738 Z-0.524 I0 J-0.75
X-75.277 Y-75.238 Z-0.567 I0 J0.75
X-75.277 Y-76.738 Z-0.611 I0 J-0.75
X-75.277 Y-75.238 Z-0.655 I0 J0.75
X-75.277 Y-76.738 Z-0.698 I0 J-0.75
X-75.277 Y-75.238 Z-0.742 I0 J0.75
X-75.277 Y-76.738 Z-0.786 I0 J-0.75
X-75.277 Y-75.238 Z-0.829 I0 J0.75
X-75.277 Y-76.738 Z-0.873 I0 J-0.75
X-75.277 Y-75.238 Z-0.917 I0 J0.75
X-75.277 Y-76.738 Z-0.96 I0 J-0.75
X-75.277 Y-75.238 Z-1.004 I0 J0.75
X-75.277 Y-76.738 Z-1.048 I0 J-0.75
X-75.277 Y-75.238 Z-1.091 I0 J0.75
X-75.277 Y-76.738 Z-1.135 I0 J-0.75
X-75.277 Y-75.238 Z-1.179 I0 J0.75
X-75.277 Y-76.738 Z-1.222 I0 J-0.75
X-75.277 Y-75.238 Z-1.266 I0 J0.75
X-75.277 Y-76.738 Z-1.31 I0 J-0.75
X-75.277 Y-75.238 Z-1.353 I0 J0.75
X-75.277 Y-76.738 Z-1.397 I0 J-0.75
X-75.277 Y-75.238 Z-1.44 I0 J0.75
X-75.277 Y-76.738 Z-1.484 I0 J-0.75
X-75.277 Y-75.238 Z-1.528 I0 J0.75
X-75.277 Y-76.738 Z-1.571 I0 J-0.75
X-75.277 Y-75.238 Z-1.615 I0 J0.75
X-75.277 Y-76.738 Z-1.659 I0 J-0.75
X-75.277 Y-75.238 Z-1.702 I0 J0.75
X-75.277 Y-76.738 Z-1.746 I0 J-0.75
X-75.277 Y-75.238 Z-1.79 I0 J0.75
X-75.277 Y-76.738 Z-1.833 I0 J-0.75
X-75.277 Y-75.238 Z-1.877 I0 J0.75
X-75.277 Y-76.738 Z-1.921 I0 J-0.75
X-75.277 Y-75.238 Z-1.964 I0 J0.75
X-75.277 Y-76.738 Z-2.008 I0 J-0.75
X-75.277 Y-75.238 Z-2.052 I0 J0.75
X-75.277 Y-76.738 Z-2.095 I0 J-0.75
X-75.277 Y-75.238 Z-2.139 I0 J0.75
X-75.277 Y-76.738 Z-2.183 I0 J-0.75
X-75.277 Y-75.238 Z-2.226 I0 J0.75
X-75.277 Y-76.738 Z-2.27 I0 J-0.75
X-74.657 Y-75.565 Z-2.3 I0 J0.75
X-75.896 Y-76.41 I-0.619 J-0.423
X-74.657 Y-75.565 I0.619 J0.423
G1 X-74.685 Y-75.537
X-74.722 Y-75.523
X-74.761
X-74.796 Y-75.538
X-74.838 Y-75.567
X-74.869 Y-75.588 Z-2.292
X-74.896 Y-75.606 Z-2.271
X-74.914 Y-75.619 Z-2.238
X-74.92 Y-75.623 Z-2.2
Z5
X-114.877 Y-76.488
Z2
Z0.1
Y-76.495 Z0.062
Y-76.517 Z0.029
Y-76.549 Z0.008
Y-76.588 Z0
Y-76.638
X-114.869 Y-76.676
X-114.848 Y-76.708
X-114.815 Y-76.73
X-114.777 Y-76.738
G3 X-114.777 Y-75.238 Z-0.044 I0 J0.75
X-114.777 Y-76.738 Z-0.087 I0 J-0.75
X-114.777 Y-75.238 Z-0.131 I0 J0.75
X-114.777 Y-76.738 Z-0.175 I0 J-0.75
X-114.777 Y-75.238 Z-0.218 I0 J0.75
X-114.777 Y-76.738 Z-0.262 I0 J-0.75
X-114.777 Y-75.238 Z-0.306 I0 J0.75
X-114.777 Y-76.738 Z-0.349 I0 J-0.75
X-114.777 Y-75.238 Z-0.393 I0 J0.75
X-114.777 Y-76.738 Z-0.437 I0 J-0.75
X-114.777 Y-75.238 Z-0.48 I0 J0.75
X-114.777 Y-76.738 Z-0.524 I0 J-0.75
X-114.777 Y-75.238 Z-0.567 I0 J0.75
X-114.777 Y-76.738 Z-0.611 I0 J-0.75
X-114.777 Y-75.238 Z-0.655 I0 J0.75
X-114.777 Y-76.738 Z-0.698 I0 J-0.75
X-114.777 Y-75.238 Z-0.742 I0 J0.75
X-114.777 Y-76.738 Z-0.786 I0 J-0.75
X-114.777 Y-75.238 Z-0.829 I0 J0.75
X-114.777 Y-76.738 Z-0.873 I0 J-0.75
X-114.777 Y-75.238 Z-0.917 I0 J0.75
X-114.777 Y-76.738 Z-0.96 I0 J-0.75
X-114.777 Y-75.238 Z-1.004 I0 J0.75
X-114.777 Y-76.738 Z-1.048 I0 J-0.75
X-114.777 Y-75.238 Z-1.091 I0 J0.75
X-114.777 Y-76.738 Z-1.135 I0 J-0.75
X-114.777 Y-75.238 Z-1.179 I0 J0.75
X-114.777 Y-76.738 Z-1.222 I0 J-0.75
X-114.777 Y-75.238 Z-1.266 I0 J0.75
X-114.777 Y-76.738 Z-1.31 I0 J-0.75
X-114.777 Y-75.238 Z-1.353 I0 J0.75
X-114.777 Y-76.738 Z-1.397 I0 J-0.75
X-114.777 Y-75.238 Z-1.44 I0 J0.75
X-114.777 Y-76.738 Z-1.484 I0 J-0.75
X-114.777 Y-75.238 Z-1.528 I0 J0.75
X-114.777 Y-76.738 Z-1.571 I0 J-0.75
X-114.777 Y-75.238 Z-1.615 I0 J0.75
X-114.777 Y-76.738 Z-1.659 I0 J-0.75
X-114.777 Y-75.238 Z-1.702 I0 J0.75
X-114.777 Y-76.738 Z-1.746 I0 J-0.75
X-114.777 Y-75.238 Z-1.79 I0 J0.75
X-114.777 Y-76.738 Z-1.833 I0 J-0.75
X-114.777 Y-75.238 Z-1.877 I0 J0.75
X-114.777 Y-76.738 Z-1.921 I0 J-0.75
X-114.777 Y-75.238 Z-1.964 I0 J0.75
X-114.777 Y-76.738 Z-2.008 I0 J-0.75
X-114.777 Y-75.238 Z-2.052 I0 J0.75
X-114.777 Y-76.738 Z-2.095 I0 J-0.75
X-114.777 Y-75.238 Z-2.139 I0 J0.75
X-114.777 Y-76.738 Z-2.183 I0 J-0.75
X-114.777 Y-75.238 Z-2.226 I0 J0.75
X-114.777 Y-76.738 Z-2.27 I0 J-0.75
X-114.157 Y-75.565 Z-2.3 I0 J0.75
X-115.396 Y-76.41 I-0.619 J-0.423
X-114.157 Y-75.565 I0.619 J0.423
G1 X-114.185 Y-75.537
X-114.222 Y-75.523
X-114.261
X-114.296 Y-75.538
X-114.338 Y-75.567
X-114.369 Y-75.588 Z-2.292
X-114.396 Y-75.606 Z-2.271
X-114.414 Y-75.619 Z-2.238
X-114.42 Y-75.623 Z-2.2
Z5
X-114.877 Y-92.488
Z2
Z0.1
Y-92.495 Z0.062
Y-92.517 Z0.029
Y-92.549 Z0.008
Y-92.588 Z0
Y-92.638
X-114.869 Y-92.676
X-114.848 Y-92.708
X-114.815 Y-92.73
X-114.777 Y-92.738
G3 X-114.777 Y-91.238 Z-0.044 I0 J0.75
X-114.777 Y-92.738 Z-0.087 I0 J-0.75
X-114.777 Y-91.238 Z-0.131 I0 J0.75
X-114.777 Y-92.738 Z-0.175 I0 J-0.75
X-114.777 Y-91.238 Z-0.218 I0 J0.75
X-114.777 Y-92.738 Z-0.262 I0 J-0.75
X-114.777 Y-91.238 Z-0.306 I0 J0.75
X-114.777 Y-92.738 Z-0.349 I0 J-0.75
X-114.777 Y-91.238 Z-0.393 I0 J0.75
X-114.777 Y-92.738 Z-0.437 I0 J-0.75
X-114.777 Y-91.238 Z-0.48 I0 J0.75
X-114.777 Y-92.738 Z-0.524 I0 J-0.75
X-114.777 Y-91.238 Z-0.567 I0 J0.75
X-114.777 Y-92.738 Z-0.611 I0 J-0.75
X-114.777 Y-91.238 Z-0.655 I0 J0.75
X-114.777 Y-92.738 Z-0.698 I0 J-0.75
X-114.777 Y-91.238 Z-0.742 I0 J0.75
X-114.777 Y-92.738 Z-0.786 I0 J-0.75
X-114.777 Y-91.238 Z-0.829 I0 J0.75
X-114.777 Y-92.738 Z-0.873 I0 J-0.75
X-114.777 Y-91.238 Z-0.917 I0 J0.75
X-114.777 Y-92.738 Z-0.96 I0 J-0.75
X-114.777 Y-91.238 Z-1.004 I0 J0.75
X-114.777 Y-92.738 Z-1.048 I0 J-0.75
X-114.777 Y-91.238 Z-1.091 I0 J0.75
X-114.777 Y-92.738 Z-1.135 I0 J-0.75
X-114.777 Y-91.238 Z-1.179 I0 J0.75
X-114.777 Y-92.738 Z-1.222 I0 J-0.75
X-114.777 Y-91.238 Z-1.266 I0 J0.75
X-114.777 Y-92.738 Z-1.31 I0 J-0.75
X-114.777 Y-91.238 Z-1.353 I0 J0.75
X-114.777 Y-92.738 Z-1.397 I0 J-0.75
X-114.777 Y-91.238 Z-1.44 I0 J0.75
X-114.777 Y-92.738 Z-1.484 I0 J-0.75
X-114.777 Y-91.238 Z-1.528 I0 J0.75
X-114.777 Y-92.738 Z-1.571 I0 J-0.75
X-114.777 Y-91.238 Z-1.615 I0 J0.75
X-114.777 Y-92.738 Z-1.659 I0 J-0.75
X-114.777 Y-91.238 Z-1.702 I0 J0.75
X-114.777 Y-92.738 Z-1.746 I0 J-0.75
X-114.777 Y-91.238 Z-1.79 I0 J0.75
X-114.777 Y-92.738 Z-1.833 I0 J-0.75
X-114.777 Y-91.238 Z-1.877 I0 J0.75
X-114.777 Y-92.738 Z-1.921 I0 J-0.75
X-114.777 Y-91.238 Z-1.964 I0 J0.75
X-114.777 Y-92.738 Z-2.008 I0 J-0.75
X-114.777 Y-91.238 Z-2.052 I0 J0.75
X-114.777 Y-92.738 Z-2.095 I0 J-0.75
X-114.777 Y-91.238 Z-2.139 I0 J0.75
X-114.777 Y-92.738 Z-2.183 I0 J-0.75
X-114.777 Y-91.238 Z-2.226 I0 J0.75
X-114.777 Y-92.738 Z-2.27 I0 J-0.75
X-114.157 Y-91.565 Z-2.3 I0 J0.75
X-115.396 Y-92.41 I-0.619 J-0.423
X-114.157 Y-91.565 I0.619 J0.423
G1 X-114.185 Y-91.537
X-114.222 Y-91.523
X-114.261
X-114.296 Y-91.538
X-114.338 Y-91.567
X-114.369 Y-91.588 Z-2.292
X-114.396 Y-91.606 Z-2.271
X-114.414 Y-91.619 Z-2.238
X-114.42 Y-91.623 Z-2.2
Z15
(When using Fusion for Personal Use, the feedrate of rapid)
(moves is reduced to match the feedrate of cutting moves,)
(which can increase machining time. Unrestricted rapid moves)
(are available with a Fusion Subscription.)

(2D Adaptive4)
G0 X-78.031 Y-40.259
G1 Z15 F1000
Z5
Z-0.5
Z-0.6
X-78.033 Y-40.251 Z-0.638
X-78.038 Y-40.23 Z-0.671
X-78.046 Y-40.199 Z-0.692
X-78.056 Y-40.162 Z-0.7
G3 X-78.809 Y-38.783 I-3.068 J-0.78
G1 X-78.914 Y-38.678
X-79.025 Y-38.577
X-79.161 Y-38.514
X-79.305 Y-38.473
X-79.488 Y-38.44
X-79.8 Y-38.409
X-80.154 Y-38.403
X-80.508 Y-38.408
X-81.216 Y-38.424
X-84.756 Y-38.514
X-85.109 Y-38.537
X-85.46 Y-38.584
X-85.81 Y-38.636
X-85.985 Y-38.663
X-86.172 Y-38.704
X-86.488 Y-38.8
X-86.818 Y-38.93
X-87.143 Y-39.069
X-87.302 Y-39.147
X-87.551 Y-39.296
X-87.839 Y-39.501
X-88.12 Y-39.717
X-88.398 Y-39.936
X-88.685 Y-40.143
X-88.976 Y-40.346
X-89.303 Y-40.481
X-89.645 Y-40.574
X-89.997 Y-40.604
X-90.35 Y-40.569
X-90.695 Y-40.49
X-91.011 Y-40.331
X-91.316 Y-40.15
X-91.555 Y-39.889
X-91.769 Y-39.607
X-91.917 Y-39.285
X-91.966 Y-39.115
X-91.985 Y-39.043
X-92.083 Y-38.928
X-92.215 Y-38.858
X-92.358 Y-38.813
X-92.525 Y-38.78
X-92.796 Y-38.749
X-93.15 Y-38.736
X-93.504 Y-38.74
X-93.858 Y-38.747
X-94.401 Y-38.76
X-94.505 Y-38.788
X-94.586 Y-38.859
X-94.626 Y-38.959
X-94.617 Y-39.067
X-94.56 Y-39.159
X-94.527 Y-39.179
X-94.489 Y-39.185
X-94.451 Y-39.176
X-94.419 Y-39.154
X-94.393 Y-39.126 Z-0.692
X-94.371 Y-39.102 Z-0.671
X-94.356 Y-39.086 Z-0.638
X-94.351 Y-39.081 Z-0.6
Z5
X-78.513 Y-39.464
Z-0.5
Z-0.6
X-78.514 Y-39.457 Z-0.638
X-78.52 Y-39.436 Z-0.671
X-78.528 Y-39.405 Z-0.692
X-78.537 Y-39.367 Z-0.7
G3 X-78.914 Y-38.678 I-1.534 J-0.39
G1 X-79.266 Y-38.326
X-79.377 Y-38.225
X-79.51 Y-38.156
X-79.653 Y-38.109
X-79.814 Y-38.072
X-80.059 Y-38.038
X-80.412 Y-38.016
X-80.766 Y-38.017
X-81.12 Y-38.023
X-82.182 Y-38.049
X-84.306 Y-38.103
X-84.66 Y-38.113
X-85.014 Y-38.132
X-85.366 Y-38.171
X-85.716 Y-38.219
X-86.062 Y-38.277
X-86.406 Y-38.363
X-86.741 Y-38.477
X-87.07 Y-38.607
X-87.366 Y-38.74
X-87.663 Y-38.905
X-87.958 Y-39.1
X-88.243 Y-39.311
X-88.523 Y-39.528
X-88.809 Y-39.737
X-89.103 Y-39.934
X-89.427 Y-40.077
X-89.771 Y-40.161
X-90.125 Y-40.171
X-90.473 Y-40.107
X-90.799 Y-39.969
X-91.087 Y-39.763
X-91.326 Y-39.502
X-91.495 Y-39.191
X-91.56 Y-39.056
X-91.636 Y-38.926
X-91.729 Y-38.809
X-91.838 Y-38.706
X-91.961 Y-38.62
X-92.094 Y-38.551
X-92.233 Y-38.496
X-92.398 Y-38.447
X-92.61 Y-38.401
X-92.903 Y-38.363
X-93.257 Y-38.345
X-93.611
X-93.965 Y-38.351
X-94.149 Y-38.355
X-94.298 Y-38.371
X-94.444 Y-38.405
X-94.583 Y-38.462
X-94.729 Y-38.562
X-94.812 Y-38.63
X-94.855 Y-38.728
X-94.848 Y-38.835
X-94.792 Y-38.927
X-94.759 Y-38.947
X-94.72 Y-38.954
X-94.682 Y-38.945
X-94.651 Y-38.922
X-94.625 Y-38.894 Z-0.692
X-94.602 Y-38.87 Z-0.671
X-94.588 Y-38.854 Z-0.638
X-94.582 Y-38.849 Z-0.6
Z5
X-78.865 Y-39.112
Z-0.5
Z-0.6
X-78.867 Y-39.104 Z-0.638
X-78.872 Y-39.083 Z-0.671
X-78.88 Y-39.052 Z-0.692
X-78.89 Y-39.015 Z-0.7
G3 X-79.266 Y-38.326 I-1.534 J-0.39
G1 X-79.638 Y-37.954
X-79.749 Y-37.853
X-79.881 Y-37.782
X-80.022 Y-37.731
X-80.171 Y-37.694
X-80.392 Y-37.658
X-80.745 Y-37.629
X-81.099 Y-37.626
X-81.453 Y-37.632
X-82.161 Y-37.648
X-84.285 Y-37.702
X-84.639 Y-37.714
X-84.992 Y-37.734
X-85.345 Y-37.769
X-85.696 Y-37.815
X-86.045 Y-37.872
X-86.391 Y-37.951
X-86.729 Y-38.055
X-87.061 Y-38.177
X-87.387 Y-38.315
X-87.703 Y-38.475
X-88.006 Y-38.659
X-88.298 Y-38.859
X-88.866 Y-39.282
X-89.156 Y-39.485
X-89.473 Y-39.643
X-89.816 Y-39.73
X-90.17
X-90.508 Y-39.626
X-90.803 Y-39.429
X-91.028 Y-39.156
X-91.19 Y-38.89
X-91.298 Y-38.741
X-91.395 Y-38.627
X-91.502 Y-38.521
X-91.618 Y-38.426
X-91.741 Y-38.34
X-91.879 Y-38.261
X-92.026 Y-38.191
X-92.203 Y-38.124
X-92.43 Y-38.059
X-92.679 Y-38.008
X-93.03 Y-37.965
X-93.384 Y-37.95
X-93.738 Y-37.949
X-94.017 Y-37.956
X-94.192 Y-37.975
X-94.342 Y-38.003
X-94.487 Y-38.042
X-94.627 Y-38.097
X-94.761 Y-38.164
X-94.886 Y-38.246
X-94.994 Y-38.351
X-95.034 Y-38.404
X-95.076 Y-38.505
X-95.068 Y-38.614
X-95.011 Y-38.708
X-94.978 Y-38.728
X-94.939 Y-38.735
X-94.901 Y-38.726
X-94.87 Y-38.703
X-94.844 Y-38.675 Z-0.692
X-94.821 Y-38.651 Z-0.671
X-94.807 Y-38.635 Z-0.638
X-94.801 Y-38.63 Z-0.6
Z5
X-79.237 Y-38.74
Z-0.5
Z-0.6
X-79.238 Y-38.733 Z-0.638
X-79.244 Y-38.712 Z-0.671
X-79.252 Y-38.681 Z-0.692
X-79.261 Y-38.643 Z-0.7
G3 X-79.638 Y-37.954 I-1.534 J-0.39
G1 X-80.015 Y-37.576
X-80.127 Y-37.476
X-80.257 Y-37.402
X-80.397 Y-37.348
X-80.544 Y-37.31
X-80.753 Y-37.273
X-81.102 Y-37.241
X-81.456 Y-37.236
X-81.81 Y-37.241
X-82.518 Y-37.257
X-83.934 Y-37.293
X-84.288 Y-37.303
X-84.642 Y-37.316
X-84.995 Y-37.338
X-85.348 Y-37.371
X-85.699 Y-37.415
X-86.049 Y-37.471
X-86.395 Y-37.545
X-86.736 Y-37.642
X-87.071 Y-37.757
X-87.399 Y-37.888
X-87.72 Y-38.039
X-88.029 Y-38.211
X-88.328 Y-38.401
X-88.618 Y-38.604
X-88.904 Y-38.813
X-89.192 Y-39.02
X-89.499 Y-39.196
X-89.669 Y-39.243
X-89.845 Y-39.266
X-90.022 Y-39.258
X-90.194 Y-39.215
X-90.352 Y-39.135
X-90.635 Y-38.922
X-90.86 Y-38.649
X-91.036 Y-38.444
X-91.184 Y-38.297
X-91.337 Y-38.169
X-91.497 Y-38.054
X-91.672 Y-37.95
X-91.865 Y-37.855
X-92.076 Y-37.771
X-92.319 Y-37.696
X-92.625 Y-37.628
X-92.976 Y-37.58
X-93.329 Y-37.558
X-93.683 Y-37.553
X-93.975 Y-37.563
X-94.192 Y-37.588
X-94.376 Y-37.625
X-94.547 Y-37.673
X-94.7 Y-37.73
X-94.836 Y-37.793
X-94.965 Y-37.87
X-95.085 Y-37.96
X-95.192 Y-38.065
X-95.282 Y-38.186
X-95.294 Y-38.214
X-95.314 Y-38.305
X-95.297 Y-38.396
X-95.246 Y-38.473
X-95.212 Y-38.494
X-95.174 Y-38.5
X-95.136 Y-38.491
X-95.104 Y-38.468
X-95.078 Y-38.44 Z-0.692
X-95.056 Y-38.417 Z-0.671
X-95.041 Y-38.401 Z-0.638
X-95.036 Y-38.395 Z-0.6
Z5
X-79.614 Y-38.363
Z-0.5
Z-0.6
X-79.616 Y-38.355 Z-0.638
X-79.622 Y-38.334 Z-0.671
X-79.63 Y-38.303 Z-0.692
X-79.639 Y-38.266 Z-0.7
G3 X-80.015 Y-37.576 I-1.534 J-0.39
G1 X-80.418 Y-37.174
X-80.529 Y-37.073
X-80.661 Y-37.003
X-80.802 Y-36.952
X-80.964 Y-36.913
X-81.187 Y-36.877
X-81.54 Y-36.849
X-81.894 Y-36.847
X-82.248 Y-36.852
X-82.956 Y-36.868
X-84.018 Y-36.896
X-84.372 Y-36.907
X-84.726 Y-36.923
X-85.079 Y-36.947
X-85.431 Y-36.982
X-85.782 Y-37.027
X-86.132 Y-37.086
X-86.478 Y-37.161
X-86.819 Y-37.256
X-87.155 Y-37.368
X-87.485 Y-37.497
X-87.807 Y-37.643
X-88.12 Y-37.808
X-88.423 Y-37.991
X-88.717 Y-38.188
X-89.006 Y-38.394
X-89.293 Y-38.6
X-89.448 Y-38.687
X-89.614 Y-38.747
X-89.79 Y-38.763
X-89.965 Y-38.733
X-90.291 Y-38.594
X-90.556 Y-38.359
X-90.806 Y-38.109
X-91.025 Y-37.922
X-91.238 Y-37.767
X-91.455 Y-37.634
X-91.684 Y-37.518
X-91.934 Y-37.416
X-92.224 Y-37.324
X-92.56 Y-37.246
X-92.91 Y-37.194
X-93.263 Y-37.167
X-93.617 Y-37.159
X-93.936 Y-37.17
X-94.2 Y-37.2
X-94.422 Y-37.244
X-94.62 Y-37.3
X-94.792 Y-37.364
X-94.948 Y-37.437
X-95.079 Y-37.511
X-95.202 Y-37.596
X-95.318 Y-37.692
X-95.423 Y-37.799
X-95.51 Y-37.921
X-95.532 Y-37.965
X-95.555 Y-38.058
X-95.539 Y-38.152
X-95.487 Y-38.232
X-95.246 Y-38.473
X-95.212 Y-38.494
X-95.174 Y-38.5
X-95.136 Y-38.491
X-95.104 Y-38.468
X-95.078 Y-38.44 Z-0.692
X-95.056 Y-38.417 Z-0.671
X-95.041 Y-38.401 Z-0.638
X-95.036 Y-38.395 Z-0.6
Z5
X-80.017 Y-37.96
Z-0.5
Z-0.6
X-80.019 Y-37.953 Z-0.638
X-80.024 Y-37.932 Z-0.671
X-80.032 Y-37.901 Z-0.692
X-80.041 Y-37.863 Z-0.7
G3 X-80.418 Y-37.174 I-1.534 J-0.39
G1 X-80.795 Y-36.797
X-80.906 Y-36.696
X-81.036 Y-36.622
X-81.177 Y-36.569
X-81.322 Y-36.531
X-81.533 Y-36.494
X-81.88 Y-36.461
X-82.235 Y-36.456
X-82.589 Y-36.461
X-83.297 Y-36.477
X-84.004 Y-36.495
X-84.358 Y-36.507
X-84.712 Y-36.524
X-85.065 Y-36.548
X-85.418 Y-36.581
X-85.769 Y-36.625
X-86.119 Y-36.681
X-86.466 Y-36.752
X-86.808 Y-36.841
X-87.146 Y-36.946
X-87.479 Y-37.068
X-87.805 Y-37.206
X-88.123 Y-37.362
X-88.432 Y-37.534
X-88.732 Y-37.722
X-89.026 Y-37.921
X-89.315 Y-38.125
X-89.473 Y-38.204
X-89.648 Y-38.233
X-89.824 Y-38.212
X-90.158 Y-38.095
X-90.441 Y-37.883
X-90.717 Y-37.66
X-90.991 Y-37.462
X-91.259 Y-37.3
X-91.533 Y-37.163
X-91.831 Y-37.042
X-92.165 Y-36.938
X-92.51 Y-36.859
X-92.86 Y-36.807
X-93.213 Y-36.777
X-93.567 Y-36.765
X-93.907 Y-36.776
X-94.204 Y-36.809
X-94.468 Y-36.86
X-94.695 Y-36.924
X-94.893 Y-36.996
X-95.071 Y-37.078
X-95.229 Y-37.168
X-95.372 Y-37.264
X-95.49 Y-37.358
X-95.598 Y-37.461
X-95.695 Y-37.576
X-95.775 Y-37.703
X-95.787 Y-37.731
X-95.804 Y-37.82
X-95.786 Y-37.909
X-95.735 Y-37.984
X-95.487 Y-38.232
X-95.454 Y-38.253
X-95.415 Y-38.259
X-95.377 Y-38.25
X-95.346 Y-38.227
X-95.319 Y-38.199 Z-0.692
X-95.297 Y-38.175 Z-0.671
X-95.283 Y-38.159 Z-0.638
X-95.277 Y-38.154 Z-0.6
Z5
X-80.394 Y-37.583
Z-0.5
Z-0.6
X-80.396 Y-37.576 Z-0.638
X-80.401 Y-37.555 Z-0.671
X-80.409 Y-37.523 Z-0.692
X-80.418 Y-37.486 Z-0.7
G3 X-80.795 Y-36.797 I-1.534 J-0.39
G1 X-81.197 Y-36.395
X-81.308 Y-36.294
X-81.441 Y-36.224
X-81.582 Y-36.172
X-81.743 Y-36.133
X-81.966 Y-36.097
X-82.319 Y-36.069
X-82.673 Y-36.066
X-83.027 Y-36.072
X-83.381 Y-36.079
X-83.735 Y-36.088
X-84.089 Y-36.099
X-84.443 Y-36.112
X-84.796 Y-36.131
X-85.149 Y-36.157
X-85.502 Y-36.192
X-85.853 Y-36.238
X-86.202 Y-36.295
X-86.549 Y-36.367
X-86.892 Y-36.455
X-87.23 Y-36.559
X-87.564 Y-36.678
X-87.891 Y-36.813
X-88.212 Y-36.963
X-88.524 Y-37.13
X-88.828 Y-37.313
X-89.124 Y-37.507
X-89.27 Y-37.607
X-89.433 Y-37.675
X-89.609 Y-37.698
X-89.784 Y-37.673
X-90.119 Y-37.56
X-90.419 Y-37.371
X-90.712 Y-37.172
X-91.014 Y-36.987
X-91.329 Y-36.826
X-91.656 Y-36.69
X-91.992 Y-36.579
X-92.336 Y-36.494
X-92.685 Y-36.432
X-93.037 Y-36.393
X-93.39 Y-36.374
X-93.744 Y-36.375
X-94.088 Y-36.399
X-94.384 Y-36.445
X-94.652 Y-36.508
X-94.895 Y-36.587
X-95.115 Y-36.678
X-95.314 Y-36.78
X-95.484 Y-36.885
X-95.627 Y-36.99
X-95.742 Y-37.09
X-95.847 Y-37.197
X-95.942 Y-37.312
X-96.021 Y-37.44
X-96.037 Y-37.477
X-96.055 Y-37.567
X-96.037 Y-37.656
X-95.987 Y-37.732
X-95.735 Y-37.984
X-95.702 Y-38.004
X-95.664 Y-38.01
X-95.626 Y-38.002
X-95.594 Y-37.979
X-95.568 Y-37.951 Z-0.692
X-95.546 Y-37.927 Z-0.671
X-95.531 Y-37.911 Z-0.638
X-95.526 Y-37.906 Z-0.6
Z5
X-80.796 Y-37.181
Z-0.5
Z-0.6
X-80.798 Y-37.174 Z-0.638
X-80.803 Y-37.153 Z-0.671
X-80.811 Y-37.121 Z-0.692
X-80.821 Y-37.084 Z-0.7
G3 X-81.197 Y-36.395 I-1.534 J-0.39
G1 X-81.568 Y-36.023
X-81.68 Y-35.923
X-81.809 Y-35.847
X-81.949 Y-35.792
X-82.093 Y-35.753
X-82.299 Y-35.716
X-82.632 Y-35.683
X-82.986 Y-35.676
X-83.34 Y-35.68
X-83.694 Y-35.688
X-84.048 Y-35.698
X-84.402 Y-35.711
X-84.756 Y-35.73
X-85.109 Y-35.755
X-85.461 Y-35.788
X-85.813 Y-35.831
X-86.163 Y-35.886
X-86.51 Y-35.953
X-86.855 Y-36.035
X-87.195 Y-36.132
X-87.531 Y-36.244
X-87.862 Y-36.371
X-88.186 Y-36.513
X-88.503 Y-36.671
X-88.813 Y-36.843
X-89.115 Y-37.027
X-89.267 Y-37.118
X-89.438 Y-37.165
X-89.615 Y-37.173
X-89.964 Y-37.114
X-90.281 Y-36.957
X-90.586 Y-36.777
X-90.895 Y-36.604
X-91.214 Y-36.45
X-91.542 Y-36.316
X-91.878 Y-36.206
X-92.221 Y-36.118
X-92.569 Y-36.053
X-92.92 Y-36.009
X-93.274 Y-35.983
X-93.628 Y-35.977
X-93.981 Y-35.994
X-94.312 Y-36.034
X-94.617 Y-36.097
X-94.899 Y-36.178
X-95.158 Y-36.277
X-95.391 Y-36.387
X-95.596 Y-36.505
X-95.771 Y-36.626
X-95.922 Y-36.748
X-96.033 Y-36.855
X-96.132 Y-36.967
X-96.222 Y-37.087
X-96.294 Y-37.219
X-96.299 Y-37.234
X-96.312 Y-37.32
X-96.292 Y-37.404
X-96.244 Y-37.475
X-95.987 Y-37.732
X-95.954 Y-37.753
X-95.915 Y-37.759
X-95.877 Y-37.75
X-95.845 Y-37.727
X-95.819 Y-37.699 Z-0.692
X-95.797 Y-37.676 Z-0.671
X-95.782 Y-37.66 Z-0.638
X-95.777 Y-37.654 Z-0.6
Z5
X-81.167 Y-36.81
Z-0.5
Z-0.6
X-81.169 Y-36.802 Z-0.638
X-81.175 Y-36.781 Z-0.671
X-81.183 Y-36.75 Z-0.692
X-81.192 Y-36.713 Z-0.7
G3 X-81.568 Y-36.023 I-1.534 J-0.39
G1 X-81.971 Y-35.621
X-82.082 Y-35.521
X-82.213 Y-35.448
X-82.354 Y-35.396
X-82.514 Y-35.355
X-82.727 Y-35.32
X-83.08 Y-35.29
X-83.434 Y-35.286
X-83.788 Y-35.292
X-84.142 Y-35.302
X-84.496 Y-35.317
X-84.849 Y-35.337
X-85.202 Y-35.364
X-85.554 Y-35.4
X-85.906 Y-35.444
X-86.255 Y-35.5
X-86.603 Y-35.569
X-86.947 Y-35.651
X-87.288 Y-35.748
X-87.624 Y-35.859
X-87.955 Y-35.983
X-88.281 Y-36.122
X-88.6 Y-36.276
X-88.912 Y-36.443
X-89.217 Y-36.623
X-89.388 Y-36.667
X-89.565 Y-36.678
X-89.917 Y-36.635
X-90.242 Y-36.495
X-90.556 Y-36.331
X-90.872 Y-36.172
X-91.196 Y-36.029
X-91.528 Y-35.905
X-91.867 Y-35.802
X-92.211 Y-35.72
X-92.56 Y-35.658
X-92.911 Y-35.615
X-93.264 Y-35.59
X-93.618 Y-35.585
X-93.972 Y-35.6
X-94.324 Y-35.64
X-94.658 Y-35.706
X-94.972 Y-35.793
X-95.261 Y-35.9
X-95.523 Y-36.021
X-95.756 Y-36.153
X-95.955 Y-36.288
X-96.117 Y-36.417
X-96.256 Y-36.548
X-96.363 Y-36.666
X-96.454 Y-36.785
X-96.532 Y-36.914
X-96.552 Y-36.963
X-96.57 Y-37.052
X-96.552 Y-37.142
X-96.502 Y-37.217
X-96.244 Y-37.475
X-96.21 Y-37.496
X-96.172 Y-37.502
X-96.134 Y-37.493
X-96.102 Y-37.47
X-96.076 Y-37.442 Z-0.692
X-96.054 Y-37.419 Z-0.671
X-96.039 Y-37.403 Z-0.638
X-96.034 Y-37.397 Z-0.6
Z5
X-81.57 Y-36.407
Z-0.5
Z-0.6
X-81.571 Y-36.4 Z-0.638
X-81.577 Y-36.379 Z-0.671
X-81.585 Y-36.348 Z-0.692
X-81.594 Y-36.311 Z-0.7
G3 X-81.971 Y-35.621 I-1.534 J-0.39
G1 X-82.349 Y-35.243
X-82.46 Y-35.143
X-82.589 Y-35.067
X-82.729 Y-35.012
X-82.874 Y-34.973
X-83.077 Y-34.936
X-83.401 Y-34.904
X-83.755 Y-34.897
X-84.109 Y-34.904
X-84.462 Y-34.917
X-84.816 Y-34.936
X-85.169 Y-34.962
X-85.522 Y-34.996
X-85.873 Y-35.039
X-86.223 Y-35.092
X-86.571 Y-35.157
X-86.917 Y-35.235
X-87.259 Y-35.326
X-87.597 Y-35.431
X-87.931 Y-35.549
X-88.259 Y-35.681
X-88.582 Y-35.827
X-88.898 Y-35.986
X-89.208 Y-36.158
X-89.382 Y-36.193
X-89.735 Y-36.204
X-90.074 Y-36.101
X-90.397 Y-35.957
X-90.718 Y-35.806
X-91.043 Y-35.666
X-91.375 Y-35.542
X-91.713 Y-35.437
X-92.056 Y-35.35
X-92.404 Y-35.283
X-92.755 Y-35.234
X-93.107 Y-35.203
X-93.461 Y-35.19
X-93.815 Y-35.196
X-94.168 Y-35.224
X-94.518 Y-35.277
X-94.864 Y-35.355
X-95.195 Y-35.457
X-95.503 Y-35.58
X-95.779 Y-35.718
X-96.012 Y-35.858
X-96.216 Y-36.004
X-96.39 Y-36.151
X-96.53 Y-36.289
X-96.638 Y-36.416
X-96.726 Y-36.537
X-96.799 Y-36.668
X-96.815 Y-36.708
X-96.83 Y-36.796
X-96.812 Y-36.883
X-96.762 Y-36.957
X-96.502 Y-37.217
X-96.468 Y-37.238
X-96.43 Y-37.244
X-96.392 Y-37.235
X-96.36 Y-37.212
X-96.334 Y-37.184 Z-0.692
X-96.312 Y-37.161 Z-0.671
X-96.297 Y-37.145 Z-0.638
X-96.292 Y-37.139 Z-0.6
Z5
X-81.948 Y-36.029
Z-0.5
Z-0.6
X-81.949 Y-36.022 Z-0.638
X-81.955 Y-36.001 Z-0.671
X-81.963 Y-35.97 Z-0.692
X-81.972 Y-35.933 Z-0.7
G3 X-82.349 Y-35.243 I-1.534 J-0.39
G1 X-82.751 Y-34.841
X-82.862 Y-34.74
X-82.994 Y-34.668
X-83.134 Y-34.616
X-83.295 Y-34.576
X-83.501 Y-34.542
X-83.842 Y-34.513
X-84.196 Y-34.512
X-84.55 Y-34.524
X-84.904 Y-34.544
X-85.257 Y-34.571
X-85.609 Y-34.607
X-85.96 Y-34.651
X-86.31 Y-34.706
X-86.658 Y-34.771
X-87.003 Y-34.849
X-87.346 Y-34.94
X-87.684 Y-35.044
X-88.018 Y-35.16
X-88.348 Y-35.29
X-88.672 Y-35.432
X-88.99 Y-35.588
X-89.152 Y-35.66
X-89.322 Y-35.709
X-89.675 Y-35.743
X-90.019 Y-35.659
X-90.348 Y-35.529
X-90.673 Y-35.39
X-91.002 Y-35.258
X-91.336 Y-35.14
X-91.675 Y-35.04
X-92.02 Y-34.956
X-92.368 Y-34.891
X-92.718 Y-34.842
X-93.071 Y-34.811
X-93.425 Y-34.797
X-93.779 Y-34.801
X-94.132 Y-34.825
X-94.483 Y-34.871
X-94.83 Y-34.941
X-95.172 Y-35.035
X-95.505 Y-35.155
X-95.816 Y-35.295
X-96.085 Y-35.443
X-96.324 Y-35.601
X-96.53 Y-35.763
X-96.704 Y-35.923
X-96.834 Y-36.063
X-96.932 Y-36.189
X-97.015 Y-36.314
X-97.082 Y-36.448
X-97.085 Y-36.458
X-97.095 Y-36.541
X-97.075 Y-36.623
X-97.027 Y-36.692
X-96.762 Y-36.957
X-96.729 Y-36.977
X-96.69 Y-36.984
X-96.652 Y-36.975
X-96.621 Y-36.952
X-96.594 Y-36.924 Z-0.692
X-96.572 Y-36.9 Z-0.671
X-96.558 Y-36.884 Z-0.638
X-96.552 Y-36.879 Z-0.6
Z5
X-82.35 Y-35.627
Z-0.5
Z-0.6
X-82.352 Y-35.62 Z-0.638
X-82.357 Y-35.599 Z-0.671
X-82.365 Y-35.567 Z-0.692
X-82.374 Y-35.53 Z-0.7
G3 X-82.751 Y-34.841 I-1.534 J-0.39
G1 X-83.153 Y-34.439
X-83.264 Y-34.338
X-83.398 Y-34.27
X-83.54 Y-34.22
X-83.703 Y-34.183
X-83.918 Y-34.151
X-84.265 Y-34.128
X-84.619 Y-34.133
X-84.973 Y-34.152
X-85.326 Y-34.179
X-85.678 Y-34.216
X-86.029 Y-34.261
X-86.379 Y-34.316
X-86.727 Y-34.382
X-87.072 Y-34.459
X-87.415 Y-34.549
X-87.754 Y-34.651
X-88.089 Y-34.765
X-88.42 Y-34.891
X-88.745 Y-35.03
X-89.066 Y-35.181
X-89.404 Y-35.285
X-89.758 Y-35.275
X-90.099 Y-35.18
X-90.43 Y-35.054
X-90.76 Y-34.924
X-91.092 Y-34.804
X-91.43 Y-34.697
X-91.773 Y-34.607
X-92.119 Y-34.534
X-92.468 Y-34.476
X-92.82 Y-34.435
X-93.173 Y-34.411
X-93.527 Y-34.403
X-93.881 Y-34.413
X-94.234 Y-34.442
X-94.585 Y-34.491
X-94.931 Y-34.563
X-95.273 Y-34.657
X-95.607 Y-34.775
X-95.93 Y-34.916
X-96.226 Y-35.074
X-96.492 Y-35.245
X-96.726 Y-35.423
X-96.919 Y-35.597
X-97.068 Y-35.755
X-97.178 Y-35.89
X-97.262 Y-36.014
X-97.333 Y-36.147
X-97.346 Y-36.183
X-97.36 Y-36.269
X-97.341 Y-36.355
X-97.291 Y-36.427
X-97.027 Y-36.692
X-96.994 Y-36.712
X-96.955 Y-36.719
X-96.917 Y-36.71
X-96.886 Y-36.687
X-96.859 Y-36.659 Z-0.692
X-96.837 Y-36.635 Z-0.671
X-96.822 Y-36.619 Z-0.638
X-96.817 Y-36.614 Z-0.6
Z5
X-82.752 Y-35.225
Z-0.5
Z-0.6
X-82.754 Y-35.218 Z-0.638
X-82.759 Y-35.197 Z-0.671
X-82.767 Y-35.165 Z-0.692
X-82.777 Y-35.128 Z-0.7
G3 X-83.153 Y-34.439 I-1.534 J-0.39
G1 X-83.53 Y-34.062
X-83.641 Y-33.961
X-83.774 Y-33.891
X-83.915 Y-33.84
X-84.061 Y-33.805
X-84.262 Y-33.774
X-84.56 Y-33.752
X-84.914 Y-33.755
X-85.268 Y-33.777
X-85.62 Y-33.81
X-85.972 Y-33.852
X-86.322 Y-33.904
X-86.671 Y-33.966
X-87.017 Y-34.039
X-87.361 Y-34.123
X-87.702 Y-34.22
X-88.039 Y-34.328
X-88.372 Y-34.448
X-88.701 Y-34.58
X-89.025 Y-34.723
X-89.361 Y-34.834
X-89.715 Y-34.832
X-90.059 Y-34.748
X-90.393 Y-34.632
X-90.726 Y-34.511
X-91.061 Y-34.397
X-91.401 Y-34.296
X-91.744 Y-34.21
X-92.091 Y-34.138
X-92.44 Y-34.082
X-92.792 Y-34.042
X-93.145 Y-34.017
X-93.499 Y-34.009
X-93.853 Y-34.017
X-94.207 Y-34.043
X-94.558 Y-34.088
X-94.906 Y-34.152
X-95.249 Y-34.239
X-95.586 Y-34.347
X-95.915 Y-34.478
X-96.235 Y-34.631
X-96.541 Y-34.809
X-96.817 Y-34.999
X-97.042 Y-35.182
X-97.224 Y-35.357
X-97.365 Y-35.517
X-97.471 Y-35.657
X-97.551 Y-35.783
X-97.616 Y-35.919
X-97.618 Y-35.927
X-97.627 Y-36.01
X-97.607 Y-36.091
X-97.56 Y-36.159
X-97.291 Y-36.427
X-97.258 Y-36.448
X-97.22 Y-36.454
X-97.182 Y-36.445
X-97.15 Y-36.422
X-97.124 Y-36.394 Z-0.692
X-97.102 Y-36.371 Z-0.671
X-97.087 Y-36.355 Z-0.638
X-97.082 Y-36.349 Z-0.6
Z5
X-83.129 Y-34.848
Z-0.5
Z-0.6
X-83.131 Y-34.841 Z-0.638
X-83.136 Y-34.82 Z-0.671
X-83.144 Y-34.788 Z-0.692
X-83.154 Y-34.751 Z-0.7
G3 X-83.53 Y-34.062 I-1.534 J-0.39
G1 X-83.901 Y-33.69
X-84.012 Y-33.59
X-84.143 Y-33.517
X-84.284 Y-33.464
X-84.434 Y-33.429
X-84.615 Y-33.401
X-84.885 Y-33.381
X-85.239 Y-33.384
X-85.592 Y-33.41
X-85.944 Y-33.448
X-86.295 Y-33.497
X-86.644 Y-33.557
X-86.991 Y-33.626
X-87.336 Y-33.707
X-87.678 Y-33.799
X-88.016 Y-33.902
X-88.351 Y-34.017
X-88.682 Y-34.144
X-89.008 Y-34.281
X-89.346 Y-34.388
X-89.7
X-90.046 Y-34.312
X-90.383 Y-34.204
X-90.719 Y-34.091
X-91.056 Y-33.984
X-91.397 Y-33.888
X-91.742 Y-33.806
X-92.089 Y-33.738
X-92.439 Y-33.685
X-92.791 Y-33.646
X-93.145 Y-33.623
X-93.499 Y-33.615
X-93.853 Y-33.623
X-94.206 Y-33.647
X-94.557 Y-33.689
X-94.906 Y-33.75
X-95.251 Y-33.831
X-95.59 Y-33.932
X-95.923 Y-34.054
X-96.246 Y-34.198
X-96.559 Y-34.363
X-96.86 Y-34.55
X-97.133 Y-34.75
X-97.352 Y-34.94
X-97.528 Y-35.118
X-97.663 Y-35.28
X-97.763 Y-35.421
X-97.84 Y-35.55
X-97.876 Y-35.635
X-97.895 Y-35.725
X-97.878 Y-35.815
X-97.827 Y-35.892
X-97.56 Y-36.159
X-97.526 Y-36.18
X-97.488 Y-36.186
X-97.45 Y-36.177
X-97.418 Y-36.154
X-97.392 Y-36.126 Z-0.692
X-97.37 Y-36.102 Z-0.671
X-97.355 Y-36.087 Z-0.638
X-97.35 Y-36.081 Z-0.6
Z5
X-83.5 Y-34.477
Z-0.5
Z-0.6
X-83.502 Y-34.469 Z-0.638
X-83.507 Y-34.448 Z-0.671
X-83.515 Y-34.417 Z-0.692
X-83.525 Y-34.38 Z-0.7
G3 X-83.901 Y-33.69 I-1.534 J-0.39
G1 X-84.279 Y-33.312
X-84.391 Y-33.212
X-84.522 Y-33.139
X-84.664 Y-33.089
X-84.814 Y-33.055
X-84.985 Y-33.03
X-85.241 Y-33.014
X-85.595 Y-33.02
X-85.947 Y-33.052
X-86.298 Y-33.097
X-86.648 Y-33.154
X-86.995 Y-33.222
X-87.341 Y-33.3
X-87.684 Y-33.388
X-88.023 Y-33.488
X-88.36 Y-33.599
X-88.692 Y-33.721
X-89.02 Y-33.854
X-89.362 Y-33.948
X-89.716 Y-33.944
X-90.062 Y-33.872
X-90.402 Y-33.771
X-90.739 Y-33.664
X-91.079 Y-33.564
X-91.421 Y-33.474
X-91.767 Y-33.397
X-92.115 Y-33.334
X-92.466 Y-33.284
X-92.818 Y-33.248
X-93.172 Y-33.227
X-93.526 Y-33.221
X-93.88 Y-33.229
X-94.233 Y-33.254
X-94.584 Y-33.295
X-94.934 Y-33.354
X-95.279 Y-33.431
X-95.62 Y-33.527
X-95.955 Y-33.643
X-96.282 Y-33.779
X-96.599 Y-33.936
X-96.906 Y-34.113
X-97.2 Y-34.31
X-97.466 Y-34.519
X-97.675 Y-34.712
X-97.844 Y-34.895
X-97.97 Y-35.056
X-98.053 Y-35.181
X-98.123 Y-35.313
X-98.147 Y-35.374
X-98.163 Y-35.462
X-98.145 Y-35.549
X-98.095 Y-35.624
X-97.827 Y-35.892
X-97.794 Y-35.912
X-97.755 Y-35.919
X-97.717 Y-35.91
X-97.685 Y-35.887
X-97.659 Y-35.859 Z-0.692
X-97.637 Y-35.835 Z-0.671
X-97.622 Y-35.819 Z-0.638
X-97.617 Y-35.814 Z-0.6
Z5
X-83.878 Y-34.099
Z-0.5
Z-0.6
X-83.88 Y-34.091 Z-0.638
X-83.886 Y-34.07 Z-0.671
X-83.894 Y-34.039 Z-0.692
X-83.903 Y-34.002 Z-0.7
G3 X-84.279 Y-33.312 I-1.534 J-0.39
G1 X-84.656 Y-32.935
X-84.768 Y-32.835
X-84.9 Y-32.765
X-85.043 Y-32.718
X-85.191 Y-32.686
X-85.362 Y-32.664
X-85.61 Y-32.652
X-85.964 Y-32.663
X-86.316 Y-32.702
X-86.666 Y-32.756
X-87.014 Y-32.821
X-87.36 Y-32.897
X-87.703 Y-32.983
X-88.044 Y-33.08
X-88.381 Y-33.187
X-88.715 Y-33.305
X-89.046 Y-33.432
X-89.391 Y-33.512
X-89.745 Y-33.503
X-90.092 Y-33.433
X-90.433 Y-33.337
X-90.772 Y-33.237
X-91.114 Y-33.143
X-91.458 Y-33.059
X-91.804 Y-32.987
X-92.153 Y-32.928
X-92.504 Y-32.882
X-92.857 Y-32.85
X-93.211 Y-32.831
X-93.565 Y-32.826
X-93.919 Y-32.837
X-94.272 Y-32.862
X-94.623 Y-32.903
X-94.973 Y-32.961
X-95.319 Y-33.035
X-95.661 Y-33.128
X-95.997 Y-33.238
X-96.327 Y-33.368
X-96.648 Y-33.517
X-96.959 Y-33.686
X-97.259 Y-33.874
X-97.546 Y-34.081
X-97.803 Y-34.296
X-98.002 Y-34.492
X-98.156 Y-34.67
X-98.271 Y-34.826
X-98.349 Y-34.954
X-98.414 Y-35.089
X-98.423 Y-35.117
X-98.434 Y-35.201
X-98.414 Y-35.283
X-98.366 Y-35.353
X-98.095 Y-35.624
X-98.062 Y-35.644
X-98.023 Y-35.651
X-97.985 Y-35.642
X-97.954 Y-35.619
X-97.928 Y-35.591 Z-0.692
X-97.905 Y-35.567 Z-0.671
X-97.891 Y-35.551 Z-0.638
X-97.885 Y-35.546 Z-0.6
Z5
X-84.255 Y-33.722
Z-0.5
Z-0.6
X-84.257 Y-33.714 Z-0.638
X-84.263 Y-33.693 Z-0.671
X-84.271 Y-33.662 Z-0.692
X-84.28 Y-33.625 Z-0.7
G3 X-84.656 Y-32.935 I-1.534 J-0.39
G1 X-85.027 Y-32.564
X-85.139 Y-32.464
X-85.273 Y-32.397
X-85.416 Y-32.352
X-85.566 Y-32.323
X-85.735 Y-32.304
X-85.98 Y-32.296
X-86.33 Y-32.313
X-86.681 Y-32.359
X-87.03 Y-32.421
X-87.377 Y-32.494
X-87.721 Y-32.577
X-88.062 Y-32.671
X-88.4 Y-32.775
X-88.735 Y-32.89
X-89.069 Y-33.01
X-89.416 Y-33.079
X-89.77 Y-33.066
X-90.117 Y-32.998
X-90.46 Y-32.908
X-90.801 Y-32.814
X-91.144 Y-32.726
X-91.489 Y-32.647
X-91.837 Y-32.579
X-92.186 Y-32.524
X-92.538 Y-32.481
X-92.891 Y-32.451
X-93.244 Y-32.435
X-93.598 Y-32.432
X-93.952 Y-32.443
X-94.305 Y-32.469
X-94.657 Y-32.51
X-95.007 Y-32.566
X-95.353 Y-32.638
X-95.696 Y-32.727
X-96.034 Y-32.833
X-96.366 Y-32.957
X-96.69 Y-33.099
X-97.005 Y-33.26
X-97.311 Y-33.439
X-97.605 Y-33.636
X-97.886 Y-33.851
X-98.135 Y-34.072
X-98.322 Y-34.267
X-98.465 Y-34.443
X-98.57 Y-34.596
X-98.645 Y-34.726
X-98.687 Y-34.824
X-98.706 Y-34.914
X-98.689 Y-35.005
X-98.638 Y-35.081
X-98.366 Y-35.353
X-98.333 Y-35.373
X-98.294 Y-35.38
X-98.256 Y-35.371
X-98.224 Y-35.348
X-98.198 Y-35.32 Z-0.692
X-98.176 Y-35.296 Z-0.671
X-98.161 Y-35.28 Z-0.638
X-98.156 Y-35.275 Z-0.6
Z5
X-84.626 Y-33.351
Z-0.5
Z-0.6
X-84.628 Y-33.343 Z-0.638
X-84.634 Y-33.322 Z-0.671
X-84.642 Y-33.291 Z-0.692
X-84.651 Y-33.254 Z-0.7
G3 X-85.027 Y-32.564 I-1.534 J-0.39
G1 X-85.38 Y-32.211
X-85.492 Y-32.111
X-85.625 Y-32.043
X-85.768 Y-31.997
X-85.917 Y-31.969
X-86.074 Y-31.952
X-86.307 Y-31.946
X-86.627 Y-31.963
X-86.978 Y-32.011
X-87.326 Y-32.077
X-87.671 Y-32.156
X-88.013 Y-32.245
X-88.353 Y-32.344
X-88.69 Y-32.454
X-89.024 Y-32.57
X-89.371 Y-32.644
X-89.725 Y-32.64
X-90.074 Y-32.583
X-90.418 Y-32.5
X-90.761 Y-32.411
X-91.105 Y-32.327
X-91.451 Y-32.25
X-91.799 Y-32.184
X-92.148 Y-32.13
X-92.5 Y-32.088
X-92.853 Y-32.058
X-93.206 Y-32.041
X-93.561 Y-32.037
X-93.914 Y-32.046
X-94.268 Y-32.069
X-94.62 Y-32.106
X-94.97 Y-32.158
X-95.318 Y-32.225
X-95.662 Y-32.308
X-96.002 Y-32.407
X-96.337 Y-32.522
X-96.665 Y-32.655
X-96.985 Y-32.806
X-97.297 Y-32.973
X-97.6 Y-33.157
X-97.891 Y-33.359
X-98.169 Y-33.578
X-98.416 Y-33.803
X-98.613 Y-34.013
X-98.753 Y-34.189
X-98.846 Y-34.327
X-98.919 Y-34.458
X-98.959 Y-34.552
X-98.978 Y-34.642
X-98.961 Y-34.732
X-98.91 Y-34.809
X-98.638 Y-35.081
X-98.604 Y-35.102
X-98.566 Y-35.108
X-98.528 Y-35.099
X-98.496 Y-35.076
X-98.47 Y-35.048 Z-0.692
X-98.448 Y-35.024 Z-0.671
X-98.433 Y-35.009 Z-0.638
X-98.428 Y-35.003 Z-0.6
Z5
X-84.979 Y-32.998
Z-0.5
Z-0.6
X-84.981 Y-32.99 Z-0.638
X-84.987 Y-32.969 Z-0.671
X-84.995 Y-32.938 Z-0.692
X-85.004 Y-32.901 Z-0.7
G3 X-85.38 Y-32.211 I-1.534 J-0.39
G1 X-85.728 Y-31.864
X-85.839 Y-31.763
X-85.972 Y-31.694
X-86.115 Y-31.649
X-86.262 Y-31.621
X-86.424 Y-31.605
X-86.647 Y-31.602
X-86.951 Y-31.621
X-87.302 Y-31.672
X-87.649 Y-31.743
X-87.992 Y-31.828
X-88.333 Y-31.923
X-88.671 Y-32.029
X-89.007 Y-32.141
X-89.354 Y-32.213
X-89.708 Y-32.214
X-90.058 Y-32.162
X-90.404 Y-32.086
X-90.748 Y-32.002
X-91.093 Y-31.921
X-91.439 Y-31.848
X-91.788 Y-31.785
X-92.138 Y-31.732
X-92.49 Y-31.691
X-92.842 Y-31.662
X-93.196 Y-31.646
X-93.55 Y-31.641
X-93.904 Y-31.65
X-94.258 Y-31.671
X-94.61 Y-31.707
X-94.961 Y-31.756
X-95.309 Y-31.819
X-95.654 Y-31.897
X-95.996 Y-31.991
X-96.332 Y-32.1
X-96.663 Y-32.226
X-96.988 Y-32.369
X-97.304 Y-32.527
X-97.612 Y-32.702
X-97.911 Y-32.892
X-98.198 Y-33.099
X-98.472 Y-33.323
X-98.723 Y-33.558
X-98.909 Y-33.764
X-99.043 Y-33.938
X-99.129 Y-34.072
X-99.201 Y-34.204
X-99.233 Y-34.284
X-99.25 Y-34.373
X-99.232 Y-34.461
X-99.182 Y-34.537
X-98.91 Y-34.809
X-98.877 Y-34.829
X-98.838 Y-34.836
X-98.8 Y-34.827
X-98.769 Y-34.804
X-98.742 Y-34.776 Z-0.692
X-98.72 Y-34.752 Z-0.671
X-98.706 Y-34.736 Z-0.638
X-98.7 Y-34.731 Z-0.6
Z5
X-85.327 Y-32.65
Z-0.5
Z-0.6
X-85.329 Y-32.643 Z-0.638
X-85.334 Y-32.622 Z-0.671
X-85.342 Y-32.591 Z-0.692
X-85.351 Y-32.553 Z-0.7
G3 X-85.728 Y-31.864 I-1.534 J-0.39
G1 X-86.073 Y-31.518
X-86.184 Y-31.418
X-86.318 Y-31.349
X-86.461 Y-31.304
X-86.608 Y-31.277
X-86.771 Y-31.263
X-86.988 Y-31.262
X-87.281 Y-31.284
X-87.631 Y-31.339
X-87.977 Y-31.416
X-88.319 Y-31.506
X-88.658 Y-31.608
X-88.996 Y-31.715
X-89.343 Y-31.785
X-89.697 Y-31.788
X-90.048 Y-31.742
X-90.395 Y-31.671
X-90.74 Y-31.592
X-91.086 Y-31.516
X-91.433 Y-31.445
X-91.781 Y-31.385
X-92.132 Y-31.334
X-92.484 Y-31.295
X-92.837 Y-31.267
X-93.19 Y-31.25
X-93.544 Y-31.246
X-93.898 Y-31.254
X-94.252 Y-31.274
X-94.604 Y-31.308
X-94.955 Y-31.355
X-95.304 Y-31.415
X-95.651 Y-31.489
X-95.993 Y-31.578
X-96.332 Y-31.682
X-96.665 Y-31.802
X-96.992 Y-31.937
X-97.313 Y-32.088
X-97.625 Y-32.254
X-97.93 Y-32.435
X-98.224 Y-32.631
X-98.508 Y-32.843
X-98.778 Y-33.071
X-99.023 Y-33.308
X-99.203 Y-33.513
X-99.332 Y-33.686
X-99.412 Y-33.814
X-99.481 Y-33.947
X-99.507 Y-34.015
X-99.523 Y-34.103
X-99.504 Y-34.19
X-99.455 Y-34.264
X-99.182 Y-34.537
X-99.149 Y-34.557
X-99.11 Y-34.563
X-99.072 Y-34.555
X-99.041 Y-34.532
X-99.015 Y-34.504 Z-0.692
X-98.992 Y-34.48 Z-0.671
X-98.978 Y-34.464 Z-0.638
X-98.972 Y-34.459 Z-0.6
Z5
X-85.672 Y-32.305
Z-0.5
Z-0.6
X-85.674 Y-32.297 Z-0.638
X-85.679 Y-32.276 Z-0.671
X-85.687 Y-32.245 Z-0.692
X-85.697 Y-32.208 Z-0.7
G3 X-86.073 Y-31.518 I-1.534 J-0.39
G1 X-86.426 Y-31.165
X-86.537 Y-31.065
X-86.673 Y-31
X-86.817 Y-30.959
X-86.965 Y-30.935
X-87.136 Y-30.924
X-87.353 Y-30.928
X-87.649 Y-30.956
X-87.998 Y-31.019
X-88.342 Y-31.103
X-88.682 Y-31.2
X-89.022 Y-31.3
X-89.37 Y-31.361
X-89.724 Y-31.362
X-90.076 Y-31.318
X-90.423 Y-31.25
X-90.769 Y-31.175
X-91.116 Y-31.102
X-91.464 Y-31.036
X-91.813 Y-30.979
X-92.164 Y-30.931
X-92.516 Y-30.894
X-92.869 Y-30.868
X-93.223 Y-30.854
X-93.577 Y-30.851
X-93.931 Y-30.86
X-94.285 Y-30.881
X-94.637 Y-30.914
X-94.988 Y-30.96
X-95.337 Y-31.019
X-95.684 Y-31.091
X-96.027 Y-31.177
X-96.367 Y-31.278
X-96.702 Y-31.393
X-97.031 Y-31.523
X-97.354 Y-31.668
X-97.67 Y-31.827
X-97.978 Y-32.002
X-98.278 Y-32.19
X-98.568 Y-32.394
X-98.847 Y-32.612
X-99.112 Y-32.846
X-99.347 Y-33.085
X-99.508 Y-33.277
X-99.631 Y-33.449
X-99.707 Y-33.577
X-99.772 Y-33.713
X-99.785 Y-33.752
X-99.796 Y-33.836
X-99.777 Y-33.92
X-99.728 Y-33.99
X-99.455 Y-34.264
X-99.421 Y-34.284
X-99.383 Y-34.291
X-99.345 Y-34.282
X-99.313 Y-34.259
X-99.287 Y-34.231 Z-0.692
X-99.265 Y-34.207 Z-0.671
X-99.25 Y-34.191 Z-0.638
X-99.245 Y-34.186 Z-0.6
Z5
X-86.025 Y-31.952
Z-0.5
Z-0.6
X-86.027 Y-31.944 Z-0.638
X-86.032 Y-31.923 Z-0.671
X-86.04 Y-31.892 Z-0.692
X-86.05 Y-31.855 Z-0.7
G3 X-86.426 Y-31.165 I-1.534 J-0.39
G1 X-86.748 Y-30.844
X-86.859 Y-30.743
X-86.992 Y-30.673
X-87.135 Y-30.629
X-87.283 Y-30.604
X-87.433 Y-30.593
X-87.644 Y-30.595
X-87.899 Y-30.618
X-88.248 Y-30.677
X-88.591 Y-30.763
X-88.932 Y-30.858
X-89.279 Y-30.931
X-89.632 Y-30.946
X-89.985 Y-30.913
X-90.334 Y-30.854
X-91.028 Y-30.714
X-91.376 Y-30.648
X-91.726 Y-30.591
X-92.076 Y-30.542
X-92.428 Y-30.504
X-92.781 Y-30.477
X-93.135 Y-30.46
X-93.489 Y-30.454
X-93.843 Y-30.459
X-94.197 Y-30.477
X-94.55 Y-30.506
X-94.901 Y-30.547
X-95.251 Y-30.601
X-95.599 Y-30.667
X-95.944 Y-30.747
X-96.286 Y-30.84
X-96.623 Y-30.946
X-96.956 Y-31.067
X-97.283 Y-31.202
X-97.605 Y-31.351
X-97.919 Y-31.514
X-98.226 Y-31.691
X-98.524 Y-31.881
X-98.813 Y-32.086
X-99.092 Y-32.305
X-99.357 Y-32.539
X-99.59 Y-32.773
X-99.776 Y-32.991
X-99.9 Y-33.164
X-99.977 Y-33.293
X-100.043 Y-33.428
X-100.059 Y-33.475
X-100.071 Y-33.56
X-100.052 Y-33.644
X-100.003 Y-33.715
X-99.728 Y-33.99
X-99.695 Y-34.011
X-99.657 Y-34.017
X-99.619 Y-34.008
X-99.587 Y-33.985
X-99.561 Y-33.957 Z-0.692
X-99.539 Y-33.934 Z-0.671
X-99.524 Y-33.918 Z-0.638
X-99.519 Y-33.912 Z-0.6
Z5
X-86.347 Y-31.63
Z-0.5
Z-0.6
X-86.349 Y-31.623 Z-0.638
X-86.354 Y-31.602 Z-0.671
X-86.362 Y-31.57 Z-0.692
X-86.372 Y-31.533 Z-0.7
G3 X-86.748 Y-30.844 I-1.534 J-0.39
G1 X-87.095 Y-30.496
X-87.207 Y-30.396
X-87.342 Y-30.331
X-87.487 Y-30.292
X-87.635 Y-30.27
X-87.812 Y-30.262
X-88.011 Y-30.269
X-88.295 Y-30.303
X-88.642 Y-30.372
X-88.986 Y-30.456
X-89.335 Y-30.516
X-89.689 Y-30.523
X-90.042 Y-30.488
X-90.391 Y-30.43
X-91.087 Y-30.296
X-91.435 Y-30.235
X-91.785 Y-30.181
X-92.136 Y-30.136
X-92.489 Y-30.101
X-92.842 Y-30.076
X-93.196 Y-30.062
X-93.55 Y-30.058
X-93.904 Y-30.066
X-94.257 Y-30.084
X-94.61 Y-30.114
X-94.962 Y-30.156
X-95.312 Y-30.21
X-95.66 Y-30.276
X-96.005 Y-30.354
X-96.347 Y-30.446
X-96.685 Y-30.55
X-97.019 Y-30.668
X-97.348 Y-30.799
X-97.671 Y-30.944
X-97.988 Y-31.102
X-98.298 Y-31.273
X-98.6 Y-31.458
X-98.893 Y-31.656
X-99.177 Y-31.868
X-99.45 Y-32.093
X-99.71 Y-32.334
X-99.939 Y-32.578
X-100.092 Y-32.769
X-100.205 Y-32.936
X-100.278 Y-33.067
X-100.338 Y-33.204
X-100.34 Y-33.212
X-100.347 Y-33.293
X-100.326 Y-33.372
X-100.28 Y-33.439
X-100.003 Y-33.715
X-99.97 Y-33.736
X-99.931 Y-33.742
X-99.893 Y-33.733
X-99.862 Y-33.711
X-99.836 Y-33.683 Z-0.692
X-99.814 Y-33.659 Z-0.671
X-99.799 Y-33.643 Z-0.638
X-99.794 Y-33.637 Z-0.6
Z5
X-86.694 Y-31.283
Z-0.5
Z-0.6
X-86.696 Y-31.275 Z-0.638
X-86.702 Y-31.254 Z-0.671
X-86.71 Y-31.223 Z-0.692
X-86.719 Y-31.186 Z-0.7
G3 X-87.095 Y-30.496 I-1.534 J-0.39
G1 X-87.417 Y-30.175
X-87.528 Y-30.074
X-87.663 Y-30.007
X-87.807 Y-29.966
X-87.955 Y-29.945
X-88.108 Y-29.937
X-88.322 Y-29.945
X-88.674 Y-29.985
X-89.022 Y-30.053
X-89.373 Y-30.1
X-89.727 Y-30.102
X-90.079 Y-30.067
X-90.429 Y-30.011
X-91.125 Y-29.884
X-91.474 Y-29.826
X-91.825 Y-29.775
X-92.176 Y-29.733
X-92.529 Y-29.7
X-92.882 Y-29.677
X-93.236 Y-29.665
X-93.59 Y-29.663
X-93.944 Y-29.671
X-94.298 Y-29.69
X-94.651 Y-29.721
X-95.002 Y-29.762
X-95.352 Y-29.816
X-95.7 Y-29.88
X-96.046 Y-29.957
X-96.389 Y-30.046
X-96.728 Y-30.148
X-97.063 Y-30.262
X-97.394 Y-30.389
X-97.719 Y-30.529
X-98.038 Y-30.682
X-98.351 Y-30.848
X-98.656 Y-31.027
X-98.954 Y-31.218
X-99.244 Y-31.423
X-99.523 Y-31.64
X-99.792 Y-31.871
X-100.046 Y-32.117
X-100.256 Y-32.35
X-100.399 Y-32.537
X-100.503 Y-32.699
X-100.574 Y-32.831
X-100.607 Y-32.914
X-100.623 Y-33.002
X-100.604 Y-33.09
X-100.554 Y-33.164
X-100.28 Y-33.439
X-100.247 Y-33.459
X-100.208 Y-33.466
X-100.17 Y-33.457
X-100.138 Y-33.434
X-100.112 Y-33.406 Z-0.692
X-100.09 Y-33.382 Z-0.671
X-100.075 Y-33.366 Z-0.638
X-100.07 Y-33.361 Z-0.6
Z5
X-87.016 Y-30.961
Z-0.5
Z-0.6
X-87.018 Y-30.953 Z-0.638
X-87.023 Y-30.932 Z-0.671
X-87.031 Y-30.901 Z-0.692
X-87.041 Y-30.864 Z-0.7
G3 X-87.417 Y-30.175 I-1.534 J-0.39
G1 X-87.739 Y-29.853
X-87.85 Y-29.752
X-87.984 Y-29.684
X-88.128 Y-29.643
X-88.277 Y-29.621
X-88.426 Y-29.612
X-88.672 Y-29.618
X-89.024 Y-29.654
X-89.377 Y-29.688
X-89.731 Y-29.686
X-90.083 Y-29.652
X-90.433 Y-29.599
X-91.131 Y-29.478
X-91.481 Y-29.422
X-91.831 Y-29.374
X-92.183 Y-29.333
X-92.536 Y-29.302
X-92.889 Y-29.28
X-93.243 Y-29.269
X-93.597 Y-29.267
X-93.951 Y-29.275
X-94.305 Y-29.294
X-94.658 Y-29.323
X-95.009 Y-29.364
X-95.36 Y-29.415
X-95.708 Y-29.478
X-96.054 Y-29.552
X-96.398 Y-29.638
X-96.738 Y-29.736
X-97.075 Y-29.845
X-97.407 Y-29.968
X-97.735 Y-30.103
X-98.057 Y-30.25
X-98.372 Y-30.41
X-98.682 Y-30.582
X-98.984 Y-30.766
X-99.279 Y-30.962
X-99.565 Y-31.171
X-99.842 Y-31.392
X-100.107 Y-31.627
X-100.358 Y-31.876
X-100.562 Y-32.11
X-100.701 Y-32.298
X-100.785 Y-32.432
X-100.853 Y-32.566
X-100.882 Y-32.64
X-100.898 Y-32.728
X-100.879 Y-32.815
X-100.829 Y-32.889
X-100.554 Y-33.164
X-100.521 Y-33.185
X-100.483 Y-33.191
X-100.445 Y-33.182
X-100.413 Y-33.159
X-100.387 Y-33.131 Z-0.692
X-100.365 Y-33.107 Z-0.671
X-100.35 Y-33.092 Z-0.638
X-100.345 Y-33.086 Z-0.6
Z5
X-87.338 Y-30.639
Z-0.5
Z-0.6
X-87.34 Y-30.632 Z-0.638
X-87.345 Y-30.611 Z-0.671
X-87.353 Y-30.579 Z-0.692
X-87.363 Y-30.542 Z-0.7
G3 X-87.739 Y-29.853 I-1.534 J-0.39
G1 X-88.061 Y-29.531
X-88.172 Y-29.43
X-88.305 Y-29.361
X-88.449 Y-29.317
X-88.597 Y-29.293
X-88.82 Y-29.277
X-89.174 Y-29.278
X-89.528 Y-29.284
X-89.881 Y-29.264
X-90.233 Y-29.221
X-90.582 Y-29.165
X-90.931 Y-29.106
X-91.281 Y-29.05
X-91.631 Y-28.999
X-91.983 Y-28.955
X-92.335 Y-28.92
X-92.688 Y-28.894
X-93.042 Y-28.877
X-93.396 Y-28.87
X-93.75 Y-28.872
X-94.104 Y-28.885
X-94.457 Y-28.908
X-94.81 Y-28.941
X-95.161 Y-28.985
X-95.511 Y-29.039
X-95.859 Y-29.105
X-96.205 Y-29.181
X-96.548 Y-29.269
X-96.887 Y-29.368
X-97.224 Y-29.479
X-97.556 Y-29.602
X-97.883 Y-29.737
X-98.205 Y-29.883
X-98.522 Y-30.042
X-98.832 Y-30.212
X-99.136 Y-30.394
X-99.433 Y-30.588
X-99.721 Y-30.793
X-100.001 Y-31.01
X-100.27 Y-31.24
X-100.527 Y-31.484
X-100.756 Y-31.731
X-100.919 Y-31.937
X-101.033 Y-32.109
X-101.106 Y-32.24
X-101.165 Y-32.378
X-101.168 Y-32.386
X-101.175 Y-32.467
X-101.154 Y-32.545
X-101.107 Y-32.611
X-100.829 Y-32.889
X-100.796 Y-32.91
X-100.758 Y-32.916
X-100.72 Y-32.907
X-100.688 Y-32.884
X-100.662 Y-32.856 Z-0.692
X-100.64 Y-32.833 Z-0.671
X-100.625 Y-32.817 Z-0.638
X-100.62 Y-32.811 Z-0.6
Z5
X-87.66 Y-30.317
Z-0.5
Z-0.6
X-87.662 Y-30.31 Z-0.638
X-87.667 Y-30.289 Z-0.671
X-87.675 Y-30.257 Z-0.692
X-87.684 Y-30.22 Z-0.7
G3 X-88.061 Y-29.531 I-1.534 J-0.39
G1 X-88.406 Y-29.186
X-88.517 Y-29.085
X-88.652 Y-29.018
X-88.795 Y-28.974
X-88.967 Y-28.939
X-89.319 Y-28.898
X-89.672 Y-28.876
X-90.025 Y-28.841
X-90.375 Y-28.791
X-91.074 Y-28.678
X-91.424 Y-28.625
X-91.776 Y-28.579
X-92.127 Y-28.54
X-92.48 Y-28.51
X-92.834 Y-28.488
X-93.188 Y-28.476
X-93.542 Y-28.473
X-93.896 Y-28.48
X-94.249 Y-28.496
X-94.602 Y-28.522
X-94.955 Y-28.559
X-95.306 Y-28.605
X-95.655 Y-28.663
X-96.003 Y-28.73
X-96.348 Y-28.809
X-96.69 Y-28.898
X-97.03 Y-28.998
X-97.366 Y-29.11
X-97.698 Y-29.233
X-98.026 Y-29.367
X-98.348 Y-29.513
X-98.665 Y-29.671
X-98.977 Y-29.839
X-99.282 Y-30.019
X-99.58 Y-30.21
X-99.871 Y-30.412
X-100.153 Y-30.625
X-100.426 Y-30.851
X-100.688 Y-31.09
X-100.936 Y-31.342
X-101.125 Y-31.565
X-101.262 Y-31.756
X-101.352 Y-31.906
X-101.419 Y-32.04
X-101.438 Y-32.094
X-101.451 Y-32.18
X-101.431 Y-32.264
X-101.382 Y-32.336
X-101.107 Y-32.611
X-101.074 Y-32.632
X-101.035 Y-32.638
X-100.997 Y-32.629
X-100.966 Y-32.606
X-100.94 Y-32.579 Z-0.692
X-100.918 Y-32.555 Z-0.671
X-100.903 Y-32.539 Z-0.638
X-100.898 Y-32.533 Z-0.6
Z5
X-88.005 Y-29.972
Z-0.5
Z-0.6
X-88.007 Y-29.964 Z-0.638
X-88.012 Y-29.943 Z-0.671
X-88.02 Y-29.912 Z-0.692
X-88.03 Y-29.875 Z-0.7
G3 X-88.406 Y-29.186 I-1.534 J-0.39
G1 X-88.759 Y-28.832
X-88.871 Y-28.732
X-89.001 Y-28.658
X-89.141 Y-28.605
X-89.358 Y-28.546
X-89.706 Y-28.482
X-90.057 Y-28.432
X-90.407 Y-28.379
X-90.757 Y-28.324
X-91.107 Y-28.269
X-91.457 Y-28.219
X-91.808 Y-28.175
X-92.161 Y-28.138
X-92.513 Y-28.11
X-92.867 Y-28.09
X-93.221 Y-28.079
X-93.575 Y-28.077
X-93.929 Y-28.084
X-94.283 Y-28.101
X-94.636 Y-28.127
X-94.988 Y-28.164
X-95.339 Y-28.21
X-95.689 Y-28.266
X-96.036 Y-28.332
X-96.382 Y-28.409
X-96.725 Y-28.496
X-97.065 Y-28.594
X-97.402 Y-28.703
X-97.736 Y-28.822
X-98.065 Y-28.953
X-98.389 Y-29.095
X-98.709 Y-29.248
X-99.023 Y-29.412
X-99.331 Y-29.586
X-99.632 Y-29.771
X-99.927 Y-29.967
X-100.215 Y-30.174
X-100.494 Y-30.392
X-100.763 Y-30.622
X-101.021 Y-30.865
X-101.264 Y-31.122
X-101.445 Y-31.346
X-101.57 Y-31.528
X-101.645 Y-31.659
X-101.707 Y-31.795
X-101.717 Y-31.826
X-101.727 Y-31.909
X-101.706 Y-31.991
X-101.659 Y-32.06
X-101.382 Y-32.336
X-101.349 Y-32.357
X-101.311 Y-32.363
X-101.273 Y-32.354
X-101.241 Y-32.331
X-101.215 Y-32.303 Z-0.692
X-101.193 Y-32.279 Z-0.671
X-101.178 Y-32.264 Z-0.638
X-101.173 Y-32.258 Z-0.6
Z5
X-88.358 Y-29.619
Z-0.5
Z-0.6
X-88.36 Y-29.611 Z-0.638
X-88.366 Y-29.59 Z-0.671
X-88.374 Y-29.559 Z-0.692
X-88.383 Y-29.522 Z-0.7
G3 X-88.759 Y-28.832 I-1.534 J-0.39
G1 X-89.162 Y-28.43
X-89.273 Y-28.33
X-89.4 Y-28.251
X-89.538 Y-28.19
X-89.744 Y-28.121
X-90.087 Y-28.035
X-90.436 Y-27.972
X-90.785 Y-27.915
X-91.135 Y-27.862
X-91.486 Y-27.814
X-91.838 Y-27.772
X-92.19 Y-27.737
X-92.543 Y-27.71
X-92.897 Y-27.691
X-93.251 Y-27.682
X-93.605 Y-27.68
X-93.959 Y-27.688
X-94.312 Y-27.706
X-94.665 Y-27.732
X-95.018 Y-27.768
X-95.369 Y-27.814
X-95.718 Y-27.869
X-96.067 Y-27.934
X-96.413 Y-28.009
X-96.756 Y-28.094
X-97.097 Y-28.19
X-97.435 Y-28.295
X-97.77 Y-28.412
X-98.1 Y-28.539
X-98.426 Y-28.676
X-98.748 Y-28.825
X-99.064 Y-28.984
X-99.375 Y-29.154
X-99.68 Y-29.334
X-99.978 Y-29.524
X-100.27 Y-29.725
X-100.554 Y-29.936
X-100.83 Y-30.158
X-101.095 Y-30.392
X-101.35 Y-30.639
X-101.589 Y-30.9
X-101.755 Y-31.113
X-101.867 Y-31.284
X-101.939 Y-31.416
X-101.998 Y-31.557
X-102.005 Y-31.638
X-101.984 Y-31.715
X-101.937 Y-31.781
X-101.659 Y-32.06
X-101.626 Y-32.08
X-101.587 Y-32.087
X-101.549 Y-32.078
X-101.517 Y-32.055
X-101.491 Y-32.027 Z-0.692
X-101.469 Y-32.003 Z-0.671
X-101.454 Y-31.987 Z-0.638
X-101.449 Y-31.982 Z-0.6
Z5
X-88.761 Y-29.216
Z-0.5
Z-0.6
X-88.762 Y-29.209 Z-0.638
X-88.768 Y-29.188 Z-0.671
X-88.776 Y-29.157 Z-0.692
X-88.785 Y-29.12 Z-0.7
G3 X-89.162 Y-28.43 I-1.534 J-0.39
G1 X-89.613 Y-27.979
X-89.724 Y-27.878
X-89.85 Y-27.797
X-89.986 Y-27.733
X-90.172 Y-27.664
X-90.487 Y-27.576
X-90.835 Y-27.509
X-90.964 Y-27.489
X-90.989 Y-27.488
X-91.027 Y-27.497 Z-0.65
X-91.058 Y-27.519 Z-0.6
X-91.079 Y-27.552 Z-0.55
X-91.085 Y-27.591 Z-0.5
X-91.076 Y-27.629
X-91.052 Y-27.661
X-91.018 Y-27.682
X-90.631 Y-27.819
X-90.117 Y-28.001
X-89.719 Y-28.141
X-89.684 Y-28.147
X-89.648 Y-28.14
X-89.618 Y-28.12
X-89.595 Y-28.088 Z-0.55
X-89.586 Y-28.051 Z-0.6
X-89.592 Y-28.012 Z-0.65
X-89.613 Y-27.979 Z-0.7
X-89.75 Y-27.841
X-89.775 Y-27.818
X-89.831 Y-27.779
X-90.072 Y-27.618
X-90.138 Y-27.577
X-90.153 Y-27.571
X-90.524 Y-27.496
X-90.555 Y-27.49
X-90.635 Y-27.488
X-95.382
X-95.736 Y-27.505
X-96.084 Y-27.543
X-96.432 Y-27.609
X-96.777 Y-27.69
X-97.119 Y-27.783
X-97.457 Y-27.885
X-97.793 Y-27.998
X-98.125 Y-28.121
X-98.453 Y-28.255
X-98.776 Y-28.399
X-99.095 Y-28.554
X-99.408 Y-28.719
X-99.716 Y-28.894
X-100.018 Y-29.078
X-100.314 Y-29.273
X-100.603 Y-29.478
X-100.884 Y-29.693
X-101.157 Y-29.919
X-101.419 Y-30.156
X-101.67 Y-30.406
X-101.9 Y-30.664
X-102.056 Y-30.871
X-102.163 Y-31.038
X-102.233 Y-31.17
X-102.266 Y-31.256
X-102.281 Y-31.344
X-102.263 Y-31.431
X-102.213 Y-31.505
X-101.937 Y-31.781
X-101.904 Y-31.802
X-101.866 Y-31.808
X-101.828 Y-31.799
X-101.796 Y-31.776
X-101.77 Y-31.748 Z-0.692
X-101.748 Y-31.725 Z-0.671
X-101.733 Y-31.709 Z-0.638
X-101.728 Y-31.703 Z-0.6
Z5
X-94.543 Y-27.76
Z-0.5
Z-0.6
X-94.549 Y-27.756 Z-0.638
X-94.568 Y-27.745 Z-0.671
X-94.596 Y-27.728 Z-0.692
X-94.629 Y-27.709 Z-0.7
G3 X-95.382 Y-27.488 I-0.809 J-1.36
G1 X-97.072
X-97.268 Y-27.497
X-97.461 Y-27.523
X-97.722 Y-27.579
X-98.061 Y-27.68
X-98.393 Y-27.803
X-98.72 Y-27.94
X-99.042 Y-28.087
X-99.359 Y-28.244
X-99.671 Y-28.412
X-99.978 Y-28.589
X-100.279 Y-28.775
X-100.573 Y-28.971
X-100.861 Y-29.177
X-101.142 Y-29.393
X-101.414 Y-29.62
X-101.677 Y-29.857
X-101.928 Y-30.106
X-102.157 Y-30.361
X-102.33 Y-30.588
X-102.43 Y-30.742
X-102.5 Y-30.875
X-102.541 Y-30.975
X-102.559 Y-31.064
X-102.541 Y-31.153
X-102.49 Y-31.228
X-102.213 Y-31.505
X-102.18 Y-31.526
X-102.142 Y-31.532
X-102.104 Y-31.523
X-102.072 Y-31.5
X-102.046 Y-31.472 Z-0.692
X-102.024 Y-31.449 Z-0.671
X-102.009 Y-31.433 Z-0.638
X-102.004 Y-31.427 Z-0.6
Z5
X-96.232 Y-27.76
Z-0.5
Z-0.6
X-96.239 Y-27.756 Z-0.638
X-96.257 Y-27.745 Z-0.671
X-96.285 Y-27.728 Z-0.692
X-96.318 Y-27.709 Z-0.7
G3 X-97.072 Y-27.488 I-0.809 J-1.36
G1 X-98.279
X-98.428 Y-27.495
X-98.577 Y-27.522
X-98.791 Y-27.58
X-99.099 Y-27.69
X-99.422 Y-27.835
X-99.737 Y-27.996
X-100.047 Y-28.169
X-100.35 Y-28.351
X-100.648 Y-28.543
X-100.939 Y-28.744
X-101.224 Y-28.955
X-101.501 Y-29.175
X-101.769 Y-29.406
X-102.028 Y-29.648
X-102.275 Y-29.902
X-102.498 Y-30.161
X-102.636 Y-30.352
X-102.724 Y-30.496
X-102.791 Y-30.63
X-102.826 Y-30.72
X-102.84 Y-30.822
X-102.809 Y-30.921
X-102.738 Y-30.996
X-102.704 Y-31.019
X-102.684 Y-31.036
X-102.602 Y-31.116
X-102.49 Y-31.228
X-102.457 Y-31.249
X-102.419 Y-31.255
X-102.381 Y-31.246
X-102.349 Y-31.223
X-102.323 Y-31.195 Z-0.692
X-102.301 Y-31.171 Z-0.671
X-102.286 Y-31.156 Z-0.638
X-102.281 Y-31.15 Z-0.6
Z5
X-97.439 Y-27.76
Z-0.5
Z-0.6
X-97.446 Y-27.756 Z-0.638
X-97.464 Y-27.745 Z-0.671
X-97.492 Y-27.728 Z-0.692
X-97.525 Y-27.709 Z-0.7
G3 X-98.279 Y-27.488 I-0.809 J-1.36
G1 X-99.164
X-99.313 Y-27.495
X-99.462 Y-27.519
X-99.609 Y-27.558
X-99.823 Y-27.634
X-100.121 Y-27.769
X-100.432 Y-27.939
X-100.733 Y-28.125
X-101.028 Y-28.322
X-101.316 Y-28.528
X-101.597 Y-28.743
X-101.87 Y-28.968
X-102.134 Y-29.204
X-102.389 Y-29.45
X-102.63 Y-29.709
X-102.817 Y-29.939
X-102.944 Y-30.123
X-103.021 Y-30.256
X-103.085 Y-30.391
X-103.134 Y-30.533
X-103.157 Y-30.681
Y-30.695
X-103.126 Y-30.8
X-103.05 Y-30.878
X-102.945 Y-30.911
X-102.865 Y-30.931
X-102.803 Y-30.955
X-102.784 Y-30.965
X-102.738 Y-30.996
X-102.701 Y-31.01
X-102.662 Y-31.009
X-102.627 Y-30.993
X-102.6 Y-30.964
X-102.58 Y-30.932 Z-0.692
X-102.563 Y-30.904 Z-0.671
X-102.551 Y-30.886 Z-0.638
X-102.547 Y-30.879 Z-0.6
Z5
X-98.324 Y-27.76
Z-0.5
Z-0.6
X-98.331 Y-27.756 Z-0.638
X-98.349 Y-27.745 Z-0.671
X-98.377 Y-27.728 Z-0.692
X-98.41 Y-27.709 Z-0.7
G3 X-99.164 Y-27.488 I-0.809 J-1.36
G1 X-100.012
X-100.162 Y-27.495
X-100.309 Y-27.525
X-100.46 Y-27.575
X-100.654 Y-27.656
X-100.935 Y-27.801
X-101.235 Y-27.988
X-101.525 Y-28.191
X-101.807 Y-28.405
X-102.082 Y-28.629
X-102.348 Y-28.863
X-102.604 Y-29.107
X-102.849 Y-29.362
X-103.055 Y-29.607
X-103.204 Y-29.816
X-103.303 Y-29.983
X-103.37 Y-30.117
X-103.424 Y-30.257
X-103.466 Y-30.401
X-103.484 Y-30.55
X-103.478 Y-30.7
X-103.469 Y-30.731
X-103.423 Y-30.816
X-103.346 Y-30.876
X-103.252 Y-30.899
X-103.025 Y-30.906
X-102.945 Y-30.911
X-102.917 Y-30.908 Z-0.664
X-102.891 Y-30.896 Z-0.627
X-102.869 Y-30.878 Z-0.591
X-102.821 Y-30.826 Z-0.5
X-102.464 Y-30.432
X-100.252 Y-27.996
X-99.942 Y-27.655
X-99.923 Y-27.625
X-99.916 Y-27.591
X-99.922 Y-27.552 Z-0.55
X-99.943 Y-27.519 Z-0.6
X-99.974 Y-27.497 Z-0.65
X-100.012 Y-27.488 Z-0.7
X-100.773
X-100.923 Y-27.495
X-101.068 Y-27.531
X-101.209 Y-27.583
X-101.395 Y-27.67
X-101.651 Y-27.816
X-101.943 Y-28.015
X-102.223 Y-28.232
X-102.493 Y-28.461
X-102.754 Y-28.701
X-103.005 Y-28.951
X-103.241 Y-29.214
X-103.416 Y-29.44
X-103.547 Y-29.639
X-103.646 Y-29.821
X-103.713 Y-29.971
X-103.762 Y-30.113
X-103.801 Y-30.258
X-103.824 Y-30.406
X-103.83 Y-30.556
X-103.809 Y-30.704
X-103.799 Y-30.733
X-103.752 Y-30.814
X-103.676 Y-30.869
X-103.585 Y-30.89
X-103.252 Y-30.899
X-103.222 Y-30.894 Z-0.661
X-103.195 Y-30.88 Z-0.623
X-103.173 Y-30.86 Z-0.584
X-103.132 Y-30.807 Z-0.5
X-102.808 Y-30.387
X-100.983 Y-28.02
X-100.697 Y-27.649
X-100.682 Y-27.621
X-100.676 Y-27.591
X-100.683 Y-27.552 Z-0.55
X-100.703 Y-27.519 Z-0.6
X-100.735 Y-27.497 Z-0.65
X-100.773 Y-27.488 Z-0.7
X-101.461
X-101.61 Y-27.495
X-101.755 Y-27.533
X-101.895 Y-27.588
X-102.069 Y-27.676
X-102.28 Y-27.804
X-102.567 Y-28.012
X-102.837 Y-28.241
X-103.096 Y-28.483
X-103.343 Y-28.737
X-103.575 Y-29.004
X-103.754 Y-29.246
X-103.883 Y-29.452
X-103.984 Y-29.648
X-104.061 Y-29.83
X-104.114 Y-29.994
X-104.151 Y-30.147
X-104.175 Y-30.296
X-104.184 Y-30.445
X-104.175 Y-30.595
X-104.142 Y-30.741
X-104.141 Y-30.744
X-104.091 Y-30.815
X-104.019 Y-30.863
X-103.934 Y-30.881
X-103.585 Y-30.89
X-103.553 Y-30.884 Z-0.659
X-103.524 Y-30.869 Z-0.617
X-103.502 Y-30.845 Z-0.576
X-103.47 Y-30.796 Z-0.5
X-103.176 Y-30.353
X-101.644 Y-28.04
X-101.381 Y-27.643
X-101.369 Y-27.618
X-101.364 Y-27.591
X-101.37 Y-27.552 Z-0.55
X-101.391 Y-27.519 Z-0.6
X-101.423 Y-27.497 Z-0.65
X-101.461 Y-27.488 Z-0.7
X-102.104
X-102.254 Y-27.495
X-102.399 Y-27.535
X-102.537 Y-27.593
X-102.697 Y-27.679
X-102.881 Y-27.798
X-103.136 Y-27.995
X-103.398 Y-28.232
X-103.645 Y-28.486
X-103.876 Y-28.755
X-104.063 Y-29.009
X-104.211 Y-29.249
X-104.321 Y-29.465
X-104.405 Y-29.667
X-104.467 Y-29.859
X-104.508 Y-30.035
X-104.533 Y-30.198
X-104.544 Y-30.348
X-104.54 Y-30.497
X-104.52 Y-30.646
X-104.5 Y-30.709
X-104.453 Y-30.793
X-104.376 Y-30.85
X-104.283 Y-30.872
X-103.934 Y-30.881
X-103.9 Y-30.875 Z-0.656
X-103.87 Y-30.857 Z-0.612
X-103.848 Y-30.831 Z-0.567
X-103.822 Y-30.785 Z-0.5
X-103.558 Y-30.324
X-102.261 Y-28.056
X-102.021 Y-27.637
X-102.012 Y-27.615
X-102.008 Y-27.591
X-102.014 Y-27.552 Z-0.55
X-102.035 Y-27.519 Z-0.6
X-102.066 Y-27.497 Z-0.65
X-102.104 Y-27.488 Z-0.7
X-102.704
X-102.853 Y-27.495
X-102.998 Y-27.535
X-103.136 Y-27.595
X-103.284 Y-27.679
X-103.44 Y-27.785
X-103.651 Y-27.955
X-103.898 Y-28.189
X-104.13 Y-28.447
X-104.331 Y-28.711
X-104.497 Y-28.968
X-104.629 Y-29.216
X-104.733 Y-29.453
X-104.81 Y-29.678
X-104.862 Y-29.883
X-104.894 Y-30.069
X-104.909 Y-30.234
X-104.911 Y-30.384
X-104.898 Y-30.534
X-104.866 Y-30.68
X-104.852 Y-30.716
X-104.803 Y-30.792
X-104.729 Y-30.843
X-104.641 Y-30.863
X-104.283 Y-30.872
X-104.247 Y-30.865 Z-0.653
X-104.216 Y-30.846 Z-0.606
X-104.195 Y-30.817 Z-0.56
X-104.174 Y-30.775 Z-0.5
X-103.938 Y-30.299
X-102.834 Y-28.07
X-102.618 Y-27.632
X-102.61 Y-27.612
X-102.607 Y-27.591
Y-27.588 Z-0.504
X-102.614 Y-27.55 Z-0.553
X-102.635 Y-27.518 Z-0.602
X-102.666 Y-27.496 Z-0.651
X-102.704 Y-27.488 Z-0.7
X-103.267
X-103.417 Y-27.495
X-103.561 Y-27.534
X-103.698 Y-27.596
X-103.828 Y-27.673
X-103.965 Y-27.769
X-104.139 Y-27.914
X-104.33 Y-28.101
X-104.514 Y-28.313
X-104.699 Y-28.564
X-104.863 Y-28.829
X-105 Y-29.095
X-105.107 Y-29.351
X-105.183 Y-29.587
X-105.236 Y-29.809
X-105.268 Y-30.014
X-105.281 Y-30.193
X-105.279 Y-30.354
X-105.266 Y-30.503
X-105.235 Y-30.65
X-105.216 Y-30.702
X-105.167 Y-30.78
X-105.092 Y-30.833
X-105.003 Y-30.854
X-104.641 Y-30.863
X-104.603 Y-30.855 Z-0.651
X-104.572 Y-30.834 Z-0.602
X-104.55 Y-30.803 Z-0.553
X-104.534 Y-30.764 Z-0.5
X-104.323 Y-30.277
X-103.374 Y-28.08
X-103.179 Y-27.627
X-103.17 Y-27.591
X-103.177 Y-27.552 Z-0.55
X-103.197 Y-27.519 Z-0.6
X-103.229 Y-27.497 Z-0.65
X-103.267 Y-27.488 Z-0.7
X-103.83
X-103.98 Y-27.495
X-104.123 Y-27.54
X-104.257 Y-27.607
X-104.383 Y-27.689
X-104.518 Y-27.795
X-104.666 Y-27.933
X-104.823 Y-28.104
X-104.995 Y-28.324
X-105.161 Y-28.576
X-105.307 Y-28.842
X-105.427 Y-29.11
X-105.521 Y-29.373
X-105.588 Y-29.625
X-105.631 Y-29.861
X-105.653 Y-30.077
X-105.656 Y-30.247
X-105.647 Y-30.397
X-105.626 Y-30.545
X-105.586 Y-30.69
X-105.577 Y-30.709
X-105.527 Y-30.779
X-105.455 Y-30.826
X-105.371 Y-30.844
X-105.003 Y-30.854
X-104.973 Y-30.849 Z-0.662
X-104.946 Y-30.836 Z-0.623
X-104.924 Y-30.815 Z-0.585
X-104.91 Y-30.789 Z-0.546
X-104.897 Y-30.755 Z-0.5
X-104.713 Y-30.256
X-103.913 Y-28.09
X-103.74 Y-27.622
X-103.734 Y-27.591
X-103.74 Y-27.552 Z-0.55
X-103.76 Y-27.519 Z-0.6
X-103.792 Y-27.497 Z-0.65
X-103.83 Y-27.488 Z-0.7
X-104.357
X-104.507 Y-27.495
X-104.648 Y-27.545
X-104.78 Y-27.617
X-104.902 Y-27.704
X-105.027 Y-27.813
X-105.164 Y-27.953
X-105.306 Y-28.123
X-105.462 Y-28.343
X-105.61 Y-28.594
X-105.742 Y-28.863
X-105.85 Y-29.139
X-105.933 Y-29.413
X-105.99 Y-29.676
X-106.022 Y-29.915
X-106.033 Y-30.129
X-106.029 Y-30.297
X-106.013 Y-30.446
X-105.984 Y-30.594
X-105.955 Y-30.678
X-105.907 Y-30.758
X-105.832 Y-30.814
X-105.74 Y-30.835
X-105.371 Y-30.844
X-105.34 Y-30.839 Z-0.66
X-105.313 Y-30.825 Z-0.62
X-105.291 Y-30.803 Z-0.58
X-105.277 Y-30.775 Z-0.541
X-105.267 Y-30.745 Z-0.5
X-105.105 Y-30.239
X-104.419 Y-28.098
X-104.265 Y-27.618
X-104.261 Y-27.591
X-104.267 Y-27.552 Z-0.55
X-104.287 Y-27.519 Z-0.6
X-104.319 Y-27.497 Z-0.65
X-104.357 Y-27.488 Z-0.7
X-104.84
X-104.99 Y-27.495
X-105.131 Y-27.545
X-105.261 Y-27.62
X-105.381 Y-27.71
X-105.5 Y-27.819
X-105.621 Y-27.95
X-105.754 Y-28.12
X-105.897 Y-28.337
X-106.035 Y-28.586
X-106.157 Y-28.855
X-106.258 Y-29.137
X-106.334 Y-29.42
X-106.383 Y-29.686
X-106.408 Y-29.929
X-106.413 Y-30.146
X-106.403 Y-30.324
X-106.382 Y-30.472
X-106.346 Y-30.618
X-106.323 Y-30.677
X-106.275 Y-30.753
X-106.2 Y-30.806
X-106.112 Y-30.826
X-105.74 Y-30.835
X-105.709 Y-30.83 Z-0.659
X-105.681 Y-30.815 Z-0.618
X-105.659 Y-30.791 Z-0.577
X-105.645 Y-30.762 Z-0.537
X-105.637 Y-30.735 Z-0.5
X-105.492 Y-30.224
X-104.886 Y-28.102
X-104.747 Y-27.615
X-104.743 Y-27.591
X-104.75 Y-27.552 Z-0.55
X-104.77 Y-27.519 Z-0.6
X-104.802 Y-27.497 Z-0.65
X-104.84 Y-27.488 Z-0.7
X-105.322
X-105.472 Y-27.495
X-105.611 Y-27.551
X-105.739 Y-27.63
X-105.855 Y-27.725
X-105.966 Y-27.834
X-106.086 Y-27.974
X-106.208 Y-28.142
X-106.34 Y-28.358
X-106.468 Y-28.612
X-106.581 Y-28.889
X-106.672 Y-29.175
X-106.738 Y-29.459
X-106.778 Y-29.729
X-106.794 Y-29.977
X-106.791 Y-30.187
X-106.775 Y-30.361
X-106.749 Y-30.509
X-106.706 Y-30.653
X-106.693 Y-30.68
X-106.644 Y-30.751
X-106.572 Y-30.798
X-106.487 Y-30.816
X-106.112 Y-30.826
X-106.079 Y-30.82 Z-0.658
X-106.051 Y-30.804 Z-0.616
X-106.029 Y-30.78 Z-0.574
X-106.016 Y-30.75 Z-0.532
X-106.009 Y-30.725 Z-0.5
X-105.88 Y-30.21
X-105.353 Y-28.107
X-105.229 Y-27.612
X-105.226 Y-27.591
X-105.232 Y-27.552 Z-0.55
X-105.253 Y-27.519 Z-0.6
X-105.284 Y-27.497 Z-0.65
X-105.322 Y-27.488 Z-0.7
X-105.761
X-105.911 Y-27.495
X-106.051 Y-27.549
X-106.178 Y-27.628
X-106.294 Y-27.723
X-106.402 Y-27.832
X-106.508 Y-27.96
X-106.627 Y-28.128
X-106.754 Y-28.344
X-106.87 Y-28.581
X-106.975 Y-28.849
X-107.063 Y-29.142
X-107.127 Y-29.441
X-107.165 Y-29.728
X-107.178 Y-29.973
X-107.172 Y-30.187
X-107.152 Y-30.366
X-107.124 Y-30.514
X-107.079 Y-30.657
X-107.07 Y-30.675
X-107.02 Y-30.743
X-106.949 Y-30.789
X-106.866 Y-30.806
X-106.487 Y-30.816
X-106.455 Y-30.81 Z-0.658
X-106.426 Y-30.794 Z-0.615
X-106.404 Y-30.769 Z-0.573
X-106.391 Y-30.739 Z-0.53
X-106.386 Y-30.716 Z-0.5
X-106.266 Y-30.198
X-105.782 Y-28.109
X-105.667 Y-27.61
X-105.664 Y-27.591
X-105.671 Y-27.552 Z-0.55
X-105.691 Y-27.519 Z-0.6
X-105.723 Y-27.497 Z-0.65
X-105.761 Y-27.488 Z-0.7
X-106.207
X-106.357 Y-27.495
X-106.496 Y-27.552
X-106.622 Y-27.634
X-106.736 Y-27.731
X-106.838 Y-27.841
X-106.945 Y-27.975
X-107.053 Y-28.136
X-107.171 Y-28.345
X-107.285 Y-28.594
X-107.382 Y-28.857
X-107.464 Y-29.155
X-107.524 Y-29.465
X-107.555 Y-29.748
X-107.563 Y-29.997
X-107.552 Y-30.21
X-107.528 Y-30.386
X-107.497 Y-30.533
X-107.46 Y-30.64
X-107.412 Y-30.72
X-107.336 Y-30.776
X-107.245 Y-30.797
X-106.866 Y-30.806
X-106.833 Y-30.8 Z-0.657
X-106.804 Y-30.784 Z-0.614
X-106.782 Y-30.758 Z-0.571
X-106.769 Y-30.727 Z-0.528
X-106.765 Y-30.706 Z-0.5
X-106.655 Y-30.186
X-106.219 Y-28.111
X-106.113 Y-27.608
X-106.111 Y-27.591
X-106.117 Y-27.552 Z-0.55
X-106.138 Y-27.519 Z-0.6
X-106.169 Y-27.497 Z-0.65
X-106.207 Y-27.488 Z-0.7
X-106.61
X-106.76 Y-27.495
X-106.901 Y-27.544
X-107.029 Y-27.622
X-107.145 Y-27.718
X-107.248 Y-27.827
X-107.344 Y-27.949
X-107.452 Y-28.109
X-107.566 Y-28.312
X-107.666 Y-28.53
X-107.763 Y-28.796
X-107.847 Y-29.1
X-107.907 Y-29.41
X-107.939 Y-29.705
X-107.947 Y-29.974
X-107.936 Y-30.195
X-107.914 Y-30.361
X-107.882 Y-30.508
X-107.835 Y-30.65
X-107.829 Y-30.661
X-107.779 Y-30.727
X-107.709 Y-30.77
X-107.628 Y-30.787
X-107.245 Y-30.797
X-107.212 Y-30.791 Z-0.657
X-107.183 Y-30.774 Z-0.613
X-107.16 Y-30.748 Z-0.57
X-107.148 Y-30.717 Z-0.527
X-107.144 Y-30.696 Z-0.5
X-107.038 Y-30.176
X-106.618 Y-28.112
X-106.515 Y-27.607
X-106.513 Y-27.591
X-106.52 Y-27.552 Z-0.55
X-106.54 Y-27.519 Z-0.6
X-106.572 Y-27.497 Z-0.65
X-106.61 Y-27.488 Z-0.7
X-107.048
X-107.198 Y-27.495
X-107.338 Y-27.55
X-107.463 Y-27.632
X-107.576 Y-27.731
X-107.677 Y-27.842
X-107.78 Y-27.979
X-107.874 Y-28.127
X-107.98 Y-28.326
X-108.086 Y-28.574
X-108.177 Y-28.841
X-108.252 Y-29.139
X-108.305 Y-29.455
X-108.33 Y-29.757
X-108.332 Y-30.007
X-108.315 Y-30.221
X-108.288 Y-30.397
X-108.253 Y-30.542
X-108.221 Y-30.627
X-108.172 Y-30.704
X-108.097 Y-30.757
X-108.008 Y-30.777
X-107.628 Y-30.787
X-107.594 Y-30.781 Z-0.656
X-107.565 Y-30.764 Z-0.612
X-107.543 Y-30.737 Z-0.568
X-107.531 Y-30.705 Z-0.525
X-107.527 Y-30.686 Z-0.5
X-107.43 Y-30.164
X-107.048 Y-28.113
X-106.953 Y-27.606
X-106.952 Y-27.591
X-106.958 Y-27.552 Z-0.55
X-106.979 Y-27.519 Z-0.6
X-107.01 Y-27.497 Z-0.65
X-107.048 Y-27.488 Z-0.7
X-107.45
X-107.6 Y-27.495
X-107.741 Y-27.546
X-107.868 Y-27.626
X-107.982 Y-27.724
X-108.082 Y-27.835
X-108.177 Y-27.962
X-108.276 Y-28.118
X-108.381 Y-28.32
X-108.477 Y-28.546
X-108.565 Y-28.808
X-108.64 Y-29.114
X-108.692 Y-29.435
X-108.716 Y-29.736
Y-30.004
X-108.699 Y-30.223
X-108.674 Y-30.376
X-108.638 Y-30.522
X-108.604 Y-30.615
X-108.556 Y-30.693
X-108.481 Y-30.747
X-108.391 Y-30.768
X-108.008 Y-30.777
X-107.975 Y-30.771 Z-0.656
X-107.945 Y-30.754 Z-0.612
X-107.923 Y-30.727 Z-0.568
X-107.911 Y-30.695 Z-0.524
X-107.908 Y-30.677 Z-0.5
X-107.814 Y-30.154
X-107.447 Y-28.114
X-107.356 Y-27.605
X-107.354 Y-27.591
X-107.36 Y-27.552 Z-0.55
X-107.381 Y-27.519 Z-0.6
X-107.413 Y-27.497 Z-0.65
X-107.45 Y-27.488 Z-0.7
X-107.897
X-108.047 Y-27.495
X-108.184 Y-27.557
X-108.306 Y-27.644
X-108.415 Y-27.747
X-108.511 Y-27.861
X-108.612 Y-28.004
X-108.703 Y-28.158
X-108.801 Y-28.36
X-108.899 Y-28.611
X-108.984 Y-28.893
X-109.049 Y-29.194
X-109.091 Y-29.515
X-109.107 Y-29.811
X-109.1 Y-30.055
X-109.077 Y-30.262
X-109.049 Y-30.41
X-109.008 Y-30.554
X-108.982 Y-30.614
X-108.933 Y-30.688
X-108.86 Y-30.739
X-108.773 Y-30.758
X-108.391 Y-30.768
X-108.357 Y-30.761 Z-0.655
X-108.327 Y-30.743 Z-0.611
X-108.305 Y-30.716 Z-0.566
X-108.293 Y-30.683 Z-0.521
X-108.291 Y-30.667 Z-0.5
X-108.207 Y-30.142
X-107.883 Y-28.116
X-107.802 Y-27.603
X-107.801 Y-27.591
X-107.807 Y-27.552 Z-0.55
X-107.827 Y-27.519 Z-0.6
X-107.859 Y-27.497 Z-0.65
X-107.897 Y-27.488 Z-0.7
X-108.299
X-108.449 Y-27.495
X-108.587 Y-27.555
X-108.709 Y-27.641
X-108.818 Y-27.744
X-108.915 Y-27.859
X-109.005 Y-27.989
X-109.101 Y-28.153
X-109.203 Y-28.365
X-109.291 Y-28.594
X-109.372 Y-28.866
X-109.438 Y-29.18
X-109.479 Y-29.501
X-109.493 Y-29.8
X-109.484 Y-30.053
X-109.461 Y-30.256
X-109.432 Y-30.404
X-109.39 Y-30.548
X-109.366 Y-30.606
X-109.316 Y-30.679
X-109.243 Y-30.729
X-109.157 Y-30.748
X-108.773 Y-30.758
X-108.738 Y-30.751 Z-0.655
X-108.708 Y-30.733 Z-0.61
X-108.686 Y-30.706 Z-0.565
X-108.675 Y-30.673 Z-0.52
X-108.673 Y-30.657 Z-0.5
X-108.592 Y-30.132
X-108.283 Y-28.116
X-108.204 Y-27.603
X-108.203 Y-27.591
X-108.209 Y-27.552 Z-0.55
X-108.23 Y-27.519 Z-0.6
X-108.261 Y-27.497 Z-0.65
X-108.299 Y-27.488 Z-0.7
X-108.702
X-108.851 Y-27.495
X-108.989 Y-27.554
X-109.112 Y-27.641
X-109.22 Y-27.744
X-109.316 Y-27.86
X-109.406 Y-27.989
X-109.497 Y-28.147
X-109.595 Y-28.352
X-109.682 Y-28.58
X-109.761 Y-28.851
X-109.826 Y-29.164
X-109.866 Y-29.486
X-109.88 Y-29.79
X-109.87 Y-30.046
X-109.846 Y-30.249
X-109.817 Y-30.396
X-109.774 Y-30.54
X-109.75 Y-30.597
X-109.7 Y-30.67
X-109.627 Y-30.719
X-109.541 Y-30.738
X-109.157 Y-30.748
X-109.122 Y-30.742 Z-0.655
X-109.092 Y-30.723 Z-0.61
X-109.07 Y-30.696 Z-0.565
X-109.059 Y-30.663 Z-0.52
X-109.057 Y-30.647 Z-0.5
X-108.979 Y-30.122
X-108.682 Y-28.116
X-108.606 Y-27.602
X-108.605 Y-27.591
X-108.611 Y-27.552 Z-0.55
X-108.632 Y-27.519 Z-0.6
X-108.664 Y-27.497 Z-0.65
X-108.702 Y-27.488 Z-0.7
X-109.104
X-109.254 Y-27.495
X-109.391 Y-27.555
X-109.514 Y-27.641
X-109.622 Y-27.745
X-109.717 Y-27.861
X-109.807 Y-27.993
X-109.896 Y-28.148
X-109.991 Y-28.352
X-110.078 Y-28.585
X-110.155 Y-28.852
X-110.217 Y-29.165
X-110.255 Y-29.49
X-110.266 Y-29.796
X-110.255 Y-30.047
X-110.23 Y-30.249
X-110.2 Y-30.396
X-110.156 Y-30.54
X-110.134 Y-30.59
X-110.084 Y-30.661
X-110.012 Y-30.71
X-109.926 Y-30.728
X-109.541 Y-30.738
X-109.507 Y-30.732 Z-0.655
X-109.476 Y-30.713 Z-0.61
X-109.454 Y-30.686 Z-0.564
X-109.443 Y-30.652 Z-0.519
X-109.441 Y-30.637 Z-0.5
X-109.366 Y-30.112
X-109.082 Y-28.117
X-109.008 Y-27.602
X-109.007 Y-27.591
X-109.014 Y-27.552 Z-0.55
X-109.034 Y-27.519 Z-0.6
X-109.066 Y-27.497 Z-0.65
X-109.104 Y-27.488 Z-0.7
X-109.506
X-109.656 Y-27.495
X-109.793 Y-27.555
X-109.915 Y-27.643
X-110.023 Y-27.747
X-110.117 Y-27.864
X-110.206 Y-27.996
X-110.294 Y-28.153
X-110.388 Y-28.356
X-110.474 Y-28.59
X-110.548 Y-28.857
X-110.608 Y-29.17
X-110.644 Y-29.497
X-110.653 Y-29.801
X-110.641 Y-30.051
X-110.614 Y-30.251
X-110.583 Y-30.398
X-110.537 Y-30.541
X-110.518 Y-30.583
X-110.469 Y-30.653
X-110.397 Y-30.7
X-110.312 Y-30.719
X-109.926 Y-30.728
X-109.892 Y-30.722 Z-0.655
X-109.861 Y-30.703 Z-0.609
X-109.839 Y-30.676 Z-0.564
X-109.828 Y-30.642 Z-0.518
X-109.826 Y-30.628 Z-0.5
X-109.754 Y-30.101
X-109.481 Y-28.117
X-109.411 Y-27.601
X-109.41 Y-27.591
X-109.416 Y-27.552 Z-0.55
X-109.436 Y-27.519 Z-0.6
X-109.468 Y-27.497 Z-0.65
X-109.506 Y-27.488 Z-0.7
X-109.908
X-110.058 Y-27.495
X-110.195 Y-27.557
X-110.316 Y-27.645
X-110.423 Y-27.75
X-110.517 Y-27.868
X-110.605 Y-28
X-110.692 Y-28.158
X-110.784 Y-28.362
X-110.868 Y-28.596
X-110.94 Y-28.863
X-110.999 Y-29.177
X-111.033 Y-29.504
X-111.04 Y-29.807
X-111.026 Y-30.055
X-110.998 Y-30.254
X-110.966 Y-30.4
X-110.919 Y-30.543
X-110.904 Y-30.576
X-110.854 Y-30.645
X-110.782 Y-30.691
X-110.699 Y-30.709
X-110.312 Y-30.719
X-110.277 Y-30.712 Z-0.654
X-110.247 Y-30.693 Z-0.609
X-110.225 Y-30.666 Z-0.563
X-110.214 Y-30.632 Z-0.518
X-110.212 Y-30.618 Z-0.5
X-110.143 Y-30.091
X-109.881 Y-28.118
X-109.813 Y-27.601
X-109.812 Y-27.591
X-109.818 Y-27.552 Z-0.55
X-109.839 Y-27.519 Z-0.6
X-109.87 Y-27.497 Z-0.65
X-109.908 Y-27.488 Z-0.7
X-110.311
X-110.46 Y-27.495
X-110.596 Y-27.558
X-110.717 Y-27.648
X-110.823 Y-27.754
X-110.916 Y-27.872
X-111.003 Y-28.006
X-111.089 Y-28.165
X-111.18 Y-28.369
X-111.263 Y-28.605
X-111.334 Y-28.873
X-111.39 Y-29.188
X-111.422 Y-29.514
X-111.426 Y-29.816
X-111.411 Y-30.062
X-111.382 Y-30.258
X-111.349 Y-30.404
X-111.301 Y-30.546
X-111.289 Y-30.569
X-111.239 Y-30.636
X-111.168 Y-30.682
X-111.086 Y-30.699
X-110.699 Y-30.709
X-110.664 Y-30.702 Z-0.654
X-110.633 Y-30.683 Z-0.609
X-110.611 Y-30.655 Z-0.563
X-110.601 Y-30.621 Z-0.517
X-110.599 Y-30.608 Z-0.5
X-110.532 Y-30.081
X-110.281 Y-28.118
X-110.215 Y-27.6
X-110.214 Y-27.591
X-110.22 Y-27.552 Z-0.55
X-110.241 Y-27.519 Z-0.6
X-110.273 Y-27.497 Z-0.65
X-110.311 Y-27.488 Z-0.7
X-110.713
X-110.863 Y-27.495
X-110.998 Y-27.56
X-111.117 Y-27.651
X-111.222 Y-27.758
X-111.314 Y-27.877
X-111.4 Y-28.011
X-111.486 Y-28.172
X-111.577 Y-28.379
X-111.658 Y-28.615
X-111.727 Y-28.885
X-111.781 Y-29.201
X-111.81 Y-29.527
X-111.813 Y-29.828
X-111.796 Y-30.07
X-111.766 Y-30.263
X-111.732 Y-30.409
X-111.682 Y-30.55
X-111.675 Y-30.563
X-111.625 Y-30.628
X-111.555 Y-30.672
X-111.474 Y-30.689
X-111.086 Y-30.699
X-111.051 Y-30.692 Z-0.654
X-111.02 Y-30.673 Z-0.608
X-110.998 Y-30.645 Z-0.563
X-110.988 Y-30.611 Z-0.517
X-110.986 Y-30.598 Z-0.5
X-110.921 Y-30.071
X-110.681 Y-28.118
X-110.617 Y-27.6
X-110.616 Y-27.591
X-110.623 Y-27.552 Z-0.55
X-110.643 Y-27.519 Z-0.6
X-110.675 Y-27.497 Z-0.65
X-110.713 Y-27.488 Z-0.7
X-111.071
X-111.221 Y-27.495
X-111.361 Y-27.549
X-111.485 Y-27.633
X-111.593 Y-27.737
X-111.688 Y-27.853
X-111.772 Y-27.978
X-111.86 Y-28.136
X-111.949 Y-28.331
X-112.026 Y-28.543
X-112.1 Y-28.815
X-112.159 Y-29.126
X-112.194 Y-29.447
X-112.202 Y-29.748
X-112.187 Y-30.015
X-112.16 Y-30.217
X-112.128 Y-30.363
X-112.083 Y-30.506
X-112.066 Y-30.544
X-112.016 Y-30.614
X-111.944 Y-30.661
X-111.86 Y-30.679
X-111.474 Y-30.689
X-111.439 Y-30.682 Z-0.655
X-111.409 Y-30.664 Z-0.609
X-111.387 Y-30.636 Z-0.564
X-111.376 Y-30.602 Z-0.518
X-111.374 Y-30.588 Z-0.5
X-111.304 Y-30.062
X-111.044 Y-28.117
X-110.975 Y-27.601
X-110.974 Y-27.591
X-110.981 Y-27.552 Z-0.55
X-111.001 Y-27.519 Z-0.6
X-111.033 Y-27.497 Z-0.65
X-111.071 Y-27.488 Z-0.7
X-111.473
X-111.623 Y-27.495
X-111.762 Y-27.553
X-111.884 Y-27.639
X-111.992 Y-27.744
X-112.086 Y-27.861
X-112.173 Y-27.993
X-112.253 Y-28.138
X-112.341 Y-28.335
X-112.424 Y-28.568
X-112.493 Y-28.827
X-112.549 Y-29.134
X-112.582 Y-29.455
X-112.588 Y-29.765
X-112.573 Y-30.019
X-112.545 Y-30.221
X-112.512 Y-30.368
X-112.464 Y-30.51
X-112.451 Y-30.538
X-112.401 Y-30.606
X-112.33 Y-30.652
X-112.247 Y-30.669
X-111.86 Y-30.679
X-111.825 Y-30.672 Z-0.654
X-111.795 Y-30.654 Z-0.609
X-111.773 Y-30.626 Z-0.563
X-111.762 Y-30.592 Z-0.517
X-111.76 Y-30.578 Z-0.5
X-111.692 Y-30.052
X-111.444 Y-28.118
X-111.378 Y-27.6
X-111.377 Y-27.591
X-111.383 Y-27.552 Z-0.55
X-111.404 Y-27.519 Z-0.6
X-111.435 Y-27.497 Z-0.65
X-111.473 Y-27.488 Z-0.7
X-111.875
X-112.025 Y-27.495
X-112.162 Y-27.556
X-112.284 Y-27.644
X-112.39 Y-27.75
X-112.483 Y-27.868
X-112.571 Y-28.003
X-112.653 Y-28.156
X-112.74 Y-28.355
X-112.822 Y-28.594
X-112.888 Y-28.85
X-112.941 Y-29.158
X-112.971 Y-29.484
X-112.975 Y-29.789
X-112.958 Y-30.034
X-112.928 Y-30.229
X-112.894 Y-30.375
X-112.845 Y-30.516
X-112.837 Y-30.532
X-112.786 Y-30.598
X-112.716 Y-30.643
X-112.635 Y-30.659
X-112.247 Y-30.669
X-112.212 Y-30.663 Z-0.654
X-112.181 Y-30.644 Z-0.608
X-112.159 Y-30.616 Z-0.563
X-112.148 Y-30.582 Z-0.517
X-112.147 Y-30.569 Z-0.5
X-112.082 Y-30.041
X-111.844 Y-28.118
X-111.78 Y-27.6
X-111.779 Y-27.591
X-111.785 Y-27.552 Z-0.55
X-111.806 Y-27.519 Z-0.6
X-111.838 Y-27.497 Z-0.65
X-111.875 Y-27.488 Z-0.7
X-112.278
X-112.428 Y-27.495
X-112.563 Y-27.559
X-112.683 Y-27.649
X-112.788 Y-27.756
X-112.88 Y-27.875
X-112.966 Y-28.01
X-113.049 Y-28.169
X-113.136 Y-28.37
X-113.216 Y-28.606
X-113.281 Y-28.866
X-113.332 Y-29.177
X-113.36 Y-29.502
X-113.361 Y-29.803
X-113.343 Y-30.044
X-113.312 Y-30.235
X-113.277 Y-30.381
X-113.226 Y-30.522
X-113.223 Y-30.526
X-113.173 Y-30.59
X-113.104 Y-30.633
X-113.024 Y-30.649
X-112.635 Y-30.659
X-112.599 Y-30.653 Z-0.654
X-112.569 Y-30.634 Z-0.608
X-112.547 Y-30.606 Z-0.562
X-112.536 Y-30.571 Z-0.516
X-112.535 Y-30.559 Z-0.5
X-112.472 Y-30.031
X-112.244 Y-28.118
X-112.182 Y-27.599
X-112.181 Y-27.591
X-112.188 Y-27.552 Z-0.55
X-112.208 Y-27.519 Z-0.6
X-112.24 Y-27.497 Z-0.65
X-112.278 Y-27.488 Z-0.7
X-112.644
X-112.794 Y-27.495
X-112.933 Y-27.551
X-113.056 Y-27.636
X-113.163 Y-27.741
X-113.257 Y-27.858
X-113.34 Y-27.983
X-113.426 Y-28.141
X-113.514 Y-28.338
X-113.587 Y-28.546
X-113.657 Y-28.813
X-113.713 Y-29.121
X-113.744 Y-29.441
X-113.75 Y-29.74
X-113.733 Y-30.004
X-113.705 Y-30.198
X-113.672 Y-30.345
X-113.624 Y-30.487
X-113.613 Y-30.509
X-113.563 Y-30.577
X-113.492 Y-30.622
X-113.41 Y-30.64
X-113.024 Y-30.649
X-112.989 Y-30.643 Z-0.654
X-112.958 Y-30.624 Z-0.609
X-112.936 Y-30.596 Z-0.563
X-112.925 Y-30.562 Z-0.517
X-112.924 Y-30.549 Z-0.5
X-112.857 Y-30.022
X-112.614 Y-28.118
X-112.548 Y-27.6
X-112.547 Y-27.591
X-112.554 Y-27.552 Z-0.55
X-112.574 Y-27.519 Z-0.6
X-112.606 Y-27.497 Z-0.65
X-112.644 Y-27.488 Z-0.7
X-113.046
X-113.196 Y-27.495
X-113.333 Y-27.555
X-113.455 Y-27.643
X-113.561 Y-27.749
X-113.654 Y-27.867
X-113.74 Y-28.001
X-113.818 Y-28.146
X-113.904 Y-28.341
X-113.985 Y-28.577
X-114.05 Y-28.831
X-114.103 Y-29.137
X-114.132 Y-29.456
X-114.136 Y-29.763
X-114.119 Y-30.009
X-114.089 Y-30.205
X-114.055 Y-30.351
X-114.005 Y-30.492
X-113.999 Y-30.504
X-113.948 Y-30.569
X-113.878 Y-30.613
X-113.798 Y-30.63
X-113.41 Y-30.64
X-113.375 Y-30.633 Z-0.654
X-113.344 Y-30.614 Z-0.608
X-113.322 Y-30.586 Z-0.562
X-113.312 Y-30.552 Z-0.517
X-113.31 Y-30.539 Z-0.5
X-113.245 Y-30.012
X-113.014 Y-28.118
X-112.95 Y-27.6
Y-27.591
X-112.956 Y-27.552 Z-0.55
X-112.976 Y-27.519 Z-0.6
X-113.008 Y-27.497 Z-0.65
X-113.046 Y-27.488 Z-0.7
X-113.448
X-113.598 Y-27.495
X-113.734 Y-27.559
X-113.854 Y-27.649
X-113.959 Y-27.756
X-114.05 Y-27.875
X-114.137 Y-28.012
X-114.218 Y-28.167
X-114.303 Y-28.366
X-114.383 Y-28.607
X-114.446 Y-28.862
X-114.495 Y-29.168
X-114.522 Y-29.492
Y-29.791
X-114.503 Y-30.026
X-114.472 Y-30.216
X-114.436 Y-30.361
X-114.397 Y-30.468
X-114.348 Y-30.546
X-114.273 Y-30.6
X-114.184 Y-30.62
X-113.798 Y-30.63
X-113.762 Y-30.623 Z-0.654
X-113.732 Y-30.604 Z-0.608
X-113.71 Y-30.576 Z-0.562
X-113.699 Y-30.541 Z-0.516
X-113.698 Y-30.529 Z-0.5
X-113.636 Y-30.001
X-113.414 Y-28.118
X-113.353 Y-27.599
X-113.352 Y-27.591
X-113.358 Y-27.552 Z-0.55
X-113.379 Y-27.519 Z-0.6
X-113.41 Y-27.497 Z-0.65
X-113.448 Y-27.488 Z-0.7
X-113.851
X-114 Y-27.495
X-114.135 Y-27.562
X-114.253 Y-27.654
X-114.356 Y-27.763
X-114.447 Y-27.883
X-114.531 Y-28.019
X-114.614 Y-28.181
X-114.699 Y-28.384
X-114.776 Y-28.621
X-114.838 Y-28.881
X-114.886 Y-29.191
X-114.91 Y-29.513
X-114.908 Y-29.806
X-114.887 Y-30.038
X-114.858 Y-30.209
X-114.821 Y-30.355
X-114.784 Y-30.457
X-114.735 Y-30.536
X-114.66 Y-30.59
X-114.571 Y-30.61
X-114.184 Y-30.62
X-114.148 Y-30.613 Z-0.654
X-114.118 Y-30.594 Z-0.608
X-114.096 Y-30.566 Z-0.562
X-114.085 Y-30.531 Z-0.515
X-114.084 Y-30.519 Z-0.5
X-114.025 Y-29.991
X-113.813 Y-28.119
X-113.755 Y-27.599
X-113.754 Y-27.591
X-113.761 Y-27.552 Z-0.55
X-113.781 Y-27.519 Z-0.6
X-113.813 Y-27.497 Z-0.65
X-113.851 Y-27.488 Z-0.7
X-114.209
X-114.358 Y-27.495
X-114.497 Y-27.552
X-114.62 Y-27.639
X-114.726 Y-27.744
X-114.819 Y-27.862
X-114.901 Y-27.987
X-114.987 Y-28.147
X-115.072 Y-28.343
X-115.144 Y-28.551
X-115.212 Y-28.818
X-115.265 Y-29.125
X-115.294 Y-29.44
X-115.297 Y-29.733
X-115.279 Y-29.985
X-115.251 Y-30.171
X-115.216 Y-30.317
X-115.168 Y-30.459
X-115.159 Y-30.475
X-115.109 Y-30.54
X-115.039 Y-30.584
X-114.958 Y-30.6
X-114.571 Y-30.61
X-114.535 Y-30.603 Z-0.654
X-114.505 Y-30.585 Z-0.608
X-114.483 Y-30.556 Z-0.563
X-114.472 Y-30.522 Z-0.517
X-114.471 Y-30.509 Z-0.5
X-114.406 Y-29.982
X-114.177 Y-28.118
X-114.113 Y-27.6
X-114.112 Y-27.591
X-114.119 Y-27.552 Z-0.55
X-114.139 Y-27.519 Z-0.6
X-114.171 Y-27.497 Z-0.65
X-114.209 Y-27.488 Z-0.7
X-114.611
X-114.761 Y-27.495
X-114.898 Y-27.557
X-115.018 Y-27.646
X-115.124 Y-27.752
X-115.215 Y-27.871
X-115.301 Y-28.006
X-115.378 Y-28.152
X-115.462 Y-28.348
X-115.541 Y-28.583
X-115.605 Y-28.837
X-115.655 Y-29.14
X-115.681 Y-29.455
X-115.682 Y-29.754
X-115.664 Y-29.988
X-115.634 Y-30.181
X-115.598 Y-30.327
X-115.546 Y-30.468
X-115.496 Y-30.532
X-115.427 Y-30.574
X-115.347 Y-30.59
X-114.958 Y-30.6
X-114.923 Y-30.593 Z-0.654
X-114.892 Y-30.575 Z-0.608
X-114.87 Y-30.546 Z-0.562
X-114.86 Y-30.512 Z-0.516
X-114.858 Y-30.499 Z-0.5
X-114.796 Y-29.972
X-114.577 Y-28.118
X-114.515 Y-27.599
Y-27.591
X-114.521 Y-27.552 Z-0.55
X-114.541 Y-27.519 Z-0.6
X-114.573 Y-27.497 Z-0.65
X-114.611 Y-27.488 Z-0.7
X-114.977
X-115.127 Y-27.495
X-115.267 Y-27.549
X-115.39 Y-27.634
X-115.498 Y-27.738
X-115.592 Y-27.855
X-115.674 Y-27.981
X-115.757 Y-28.134
X-115.843 Y-28.328
X-115.916 Y-28.538
X-115.983 Y-28.795
X-116.036 Y-29.094
X-116.066 Y-29.409
X-116.07 Y-29.701
X-116.053 Y-29.961
X-116.025 Y-30.15
X-115.991 Y-30.296
X-115.943 Y-30.438
X-115.935 Y-30.453
X-115.885 Y-30.519
X-115.815 Y-30.564
X-115.733 Y-30.58
X-115.347 Y-30.59
X-115.312 Y-30.584 Z-0.654
X-115.282 Y-30.565 Z-0.609
X-115.26 Y-30.537 Z-0.563
X-115.249 Y-30.503 Z-0.517
X-115.247 Y-30.49 Z-0.5
X-115.181 Y-29.963
X-114.947 Y-28.118
X-114.881 Y-27.6
Y-27.591
X-114.887 Y-27.552 Z-0.55
X-114.907 Y-27.519 Z-0.6
X-114.939 Y-27.497 Z-0.65
X-114.977 Y-27.488 Z-0.7
X-115.379
X-115.529 Y-27.495
X-115.667 Y-27.554
X-115.789 Y-27.642
X-115.895 Y-27.747
X-115.988 Y-27.866
X-116.074 Y-28
X-116.15 Y-28.144
X-116.233 Y-28.335
X-116.313 Y-28.571
X-116.376 Y-28.818
X-116.426 Y-29.115
X-116.453 Y-29.427
X-116.456 Y-29.729
X-116.438 Y-29.966
X-116.408 Y-30.158
X-116.374 Y-30.304
X-116.321 Y-30.448
X-116.271 Y-30.512
X-116.201 Y-30.554
X-116.121 Y-30.571
X-115.733 Y-30.58
X-115.698 Y-30.574 Z-0.654
X-115.668 Y-30.555 Z-0.608
X-115.646 Y-30.527 Z-0.562
X-115.635 Y-30.493 Z-0.517
X-115.633 Y-30.48 Z-0.5
X-115.569 Y-29.952
X-115.347 Y-28.118
X-115.284 Y-27.6
X-115.283 Y-27.591
X-115.289 Y-27.552 Z-0.55
X-115.31 Y-27.519 Z-0.6
X-115.341 Y-27.497 Z-0.65
X-115.379 Y-27.488 Z-0.7
X-115.782
X-115.931 Y-27.495
X-116.067 Y-27.558
X-116.187 Y-27.648
X-116.292 Y-27.756
X-116.383 Y-27.875
X-116.469 Y-28.013
X-116.549 Y-28.166
X-116.631 Y-28.361
X-116.71 Y-28.601
X-116.771 Y-28.851
X-116.818 Y-29.149
X-116.842 Y-29.465
X-116.841 Y-29.755
X-116.822 Y-29.984
X-116.791 Y-30.17
X-116.755 Y-30.315
X-116.718 Y-30.411
X-116.669 Y-30.488
X-116.595 Y-30.541
X-116.506 Y-30.561
X-116.121 Y-30.571
X-116.086 Y-30.564 Z-0.654
X-116.055 Y-30.545 Z-0.608
X-116.034 Y-30.517 Z-0.562
X-116.023 Y-30.482 Z-0.516
X-116.022 Y-30.47 Z-0.5
X-115.96 Y-29.942
X-115.747 Y-28.119
X-115.686 Y-27.599
X-115.685 Y-27.591
X-115.691 Y-27.552 Z-0.55
X-115.712 Y-27.519 Z-0.6
X-115.744 Y-27.497 Z-0.65
X-115.782 Y-27.488 Z-0.7
X-116.184
X-116.334 Y-27.495
X-116.468 Y-27.562
X-116.586 Y-27.655
X-116.689 Y-27.763
X-116.779 Y-27.884
X-116.863 Y-28.02
X-116.944 Y-28.18
X-117.027 Y-28.381
X-117.103 Y-28.62
X-117.162 Y-28.873
X-117.208 Y-29.176
X-117.229 Y-29.489
X-117.226 Y-29.773
X-117.205 Y-29.998
X-117.177 Y-30.161
X-117.14 Y-30.306
X-117.104 Y-30.4
X-117.056 Y-30.478
X-116.981 Y-30.531
X-116.892 Y-30.551
X-116.506 Y-30.561
X-116.471 Y-30.554 Z-0.654
X-116.44 Y-30.535 Z-0.608
X-116.418 Y-30.506 Z-0.561
X-116.408 Y-30.472 Z-0.515
X-116.406 Y-30.46 Z-0.5
X-116.348 Y-29.932
X-116.146 Y-28.119
X-116.088 Y-27.599
X-116.087 Y-27.591
X-116.094 Y-27.552 Z-0.55
X-116.114 Y-27.519 Z-0.6
X-116.146 Y-27.497 Z-0.65
X-116.184 Y-27.488 Z-0.7
X-116.542
X-116.692 Y-27.495
X-116.83 Y-27.552
X-116.952 Y-27.639
X-117.059 Y-27.745
X-117.151 Y-27.863
X-117.232 Y-27.99
X-117.317 Y-28.149
X-117.401 Y-28.345
X-117.471 Y-28.551
X-117.537 Y-28.812
X-117.587 Y-29.112
X-117.613 Y-29.42
X-117.615 Y-29.706
X-117.596 Y-29.948
X-117.569 Y-30.124
X-117.534 Y-30.27
X-117.484 Y-30.411
X-117.48 Y-30.419
X-117.429 Y-30.482
X-117.36 Y-30.525
X-117.28 Y-30.541
X-116.892 Y-30.551
X-116.857 Y-30.544 Z-0.654
X-116.826 Y-30.525 Z-0.608
X-116.804 Y-30.497 Z-0.562
X-116.794 Y-30.463 Z-0.516
X-116.792 Y-30.45 Z-0.5
X-116.728 Y-29.923
X-116.509 Y-28.118
X-116.446 Y-27.6
X-116.445 Y-27.591
X-116.452 Y-27.552 Z-0.55
X-116.472 Y-27.519 Z-0.6
X-116.504 Y-27.497 Z-0.65
X-116.542 Y-27.488 Z-0.7
X-116.944
X-117.094 Y-27.495
X-117.23 Y-27.557
X-117.35 Y-27.647
X-117.455 Y-27.754
X-117.547 Y-27.874
X-117.631 Y-28.009
X-117.707 Y-28.154
X-117.79 Y-28.348
X-117.868 Y-28.584
X-117.928 Y-28.833
X-117.976 Y-29.129
X-118 Y-29.436
Y-29.724
X-117.981 Y-29.949
X-117.95 Y-30.137
X-117.914 Y-30.283
X-117.877 Y-30.381
X-117.829 Y-30.458
X-117.754 Y-30.511
X-117.665 Y-30.531
X-117.28 Y-30.541
X-117.245 Y-30.534 Z-0.654
X-117.214 Y-30.515 Z-0.608
X-117.192 Y-30.487 Z-0.562
X-117.182 Y-30.453 Z-0.516
X-117.181 Y-30.44 Z-0.5
X-117.119 Y-29.913
X-116.909 Y-28.119
X-116.848 Y-27.599
Y-27.591
X-116.854 Y-27.552 Z-0.55
X-116.875 Y-27.519 Z-0.6
X-116.906 Y-27.497 Z-0.65
X-116.944 Y-27.488 Z-0.7
X-117.31
X-117.46 Y-27.495
X-117.6 Y-27.55
X-117.723 Y-27.636
X-117.83 Y-27.741
X-117.923 Y-27.859
X-118.004 Y-27.985
X-118.086 Y-28.138
X-118.17 Y-28.33
X-118.242 Y-28.541
X-118.306 Y-28.793
X-118.357 Y-29.086
X-118.384 Y-29.393
X-118.387 Y-29.676
X-118.369 Y-29.927
X-118.342 Y-30.1
X-118.308 Y-30.246
X-118.258 Y-30.387
X-118.253 Y-30.398
X-118.203 Y-30.462
X-118.133 Y-30.505
X-118.053 Y-30.521
X-117.665 Y-30.531
X-117.63 Y-30.525 Z-0.654
X-117.599 Y-30.506 Z-0.608
X-117.577 Y-30.478 Z-0.563
X-117.567 Y-30.444 Z-0.517
X-117.565 Y-30.43 Z-0.5
X-117.5 Y-29.903
X-117.279 Y-28.118
X-117.214 Y-27.6
Y-27.591
X-117.22 Y-27.552 Z-0.55
X-117.241 Y-27.519 Z-0.6
X-117.272 Y-27.497 Z-0.65
X-117.31 Y-27.488 Z-0.7
X-117.713
X-117.862 Y-27.495
X-118 Y-27.555
X-118.121 Y-27.644
X-118.226 Y-27.751
X-118.318 Y-27.869
X-118.403 Y-28.005
X-118.479 Y-28.15
X-118.56 Y-28.34
X-118.639 Y-28.574
X-118.699 Y-28.82
X-118.747 Y-29.11
X-118.771 Y-29.414
Y-29.703
X-118.754 Y-29.927
X-118.723 Y-30.115
X-118.688 Y-30.261
X-118.65 Y-30.36
X-118.602 Y-30.438
X-118.527 Y-30.491
X-118.438 Y-30.512
X-118.053 Y-30.521
X-118.018 Y-30.515 Z-0.654
X-117.987 Y-30.496 Z-0.608
X-117.965 Y-30.467 Z-0.562
X-117.955 Y-30.433 Z-0.516
X-117.953 Y-30.421 Z-0.5
X-117.89 Y-29.893
X-117.679 Y-28.118
X-117.617 Y-27.599
X-117.616 Y-27.591
X-117.622 Y-27.552 Z-0.55
X-117.643 Y-27.519 Z-0.6
X-117.675 Y-27.497 Z-0.65
X-117.713 Y-27.488 Z-0.7
X-118.115
X-118.265 Y-27.495
X-118.4 Y-27.56
X-118.519 Y-27.651
X-118.623 Y-27.759
X-118.713 Y-27.879
X-118.799 Y-28.018
X-118.877 Y-28.171
X-118.958 Y-28.367
X-119.034 Y-28.605
X-119.093 Y-28.855
X-119.137 Y-29.146
X-119.159 Y-29.453
X-119.156 Y-29.726
X-119.136 Y-29.948
X-119.108 Y-30.111
X-119.071 Y-30.256
X-119.035 Y-30.35
X-118.987 Y-30.428
X-118.912 Y-30.481
X-118.823 Y-30.502
X-118.438 Y-30.512
X-118.402 Y-30.505 Z-0.654
X-118.372 Y-30.486 Z-0.608
X-118.35 Y-30.457 Z-0.562
X-118.339 Y-30.423 Z-0.515
X-118.338 Y-30.411 Z-0.5
X-118.278 Y-29.883
X-118.078 Y-28.119
X-118.019 Y-27.599
X-118.018 Y-27.591
X-118.025 Y-27.552 Z-0.55
X-118.045 Y-27.519 Z-0.6
X-118.077 Y-27.497 Z-0.65
X-118.115 Y-27.488 Z-0.7
X-118.473
X-118.623 Y-27.495
X-118.762 Y-27.55
X-118.885 Y-27.636
X-118.992 Y-27.741
X-119.085 Y-27.859
X-119.166 Y-27.985
X-119.249 Y-28.142
X-119.333 Y-28.335
X-119.403 Y-28.54
X-119.467 Y-28.793
X-119.516 Y-29.085
X-119.542 Y-29.384
X-119.543 Y-29.663
X-119.526 Y-29.902
X-119.499 Y-30.075
X-119.464 Y-30.221
X-119.414 Y-30.363
X-119.41 Y-30.37
X-119.36 Y-30.433
X-119.291 Y-30.476
X-119.211 Y-30.492
X-118.823 Y-30.502
X-118.788 Y-30.495 Z-0.654
X-118.757 Y-30.476 Z-0.608
X-118.735 Y-30.448 Z-0.563
X-118.725 Y-30.414 Z-0.517
X-118.723 Y-30.401 Z-0.5
X-118.658 Y-29.874
X-118.441 Y-28.118
X-118.377 Y-27.6
X-118.376 Y-27.591
X-118.383 Y-27.552 Z-0.55
X-118.403 Y-27.519 Z-0.6
X-118.435 Y-27.497 Z-0.65
X-118.473 Y-27.488 Z-0.7
X-118.875
X-119.025 Y-27.495
X-119.162 Y-27.556
X-119.283 Y-27.645
X-119.388 Y-27.751
X-119.48 Y-27.87
X-119.565 Y-28.004
X-119.64 Y-28.148
X-119.72 Y-28.338
X-119.798 Y-28.571
X-119.858 Y-28.814
X-119.904 Y-29.101
X-119.928 Y-29.4
Y-29.68
X-119.91 Y-29.902
X-119.88 Y-30.089
X-119.844 Y-30.235
X-119.807 Y-30.332
X-119.759 Y-30.409
X-119.684 Y-30.462
X-119.595 Y-30.482
X-119.211 Y-30.492
X-119.176 Y-30.485 Z-0.654
X-119.145 Y-30.466 Z-0.608
X-119.123 Y-30.438 Z-0.562
X-119.113 Y-30.404 Z-0.516
X-119.111 Y-30.391 Z-0.5
X-119.048 Y-29.864
X-118.841 Y-28.118
X-118.779 Y-27.599
Y-27.591
X-118.785 Y-27.552 Z-0.55
X-118.805 Y-27.519 Z-0.6
X-118.837 Y-27.497 Z-0.65
X-118.875 Y-27.488 Z-0.7
X-119.277
X-119.427 Y-27.495
X-119.562 Y-27.56
X-119.681 Y-27.652
X-119.785 Y-27.76
X-119.875 Y-27.88
X-119.961 Y-28.019
X-120.038 Y-28.172
X-120.118 Y-28.366
X-120.194 Y-28.603
X-120.252 Y-28.855
X-120.295 Y-29.14
X-120.315 Y-29.44
X-120.312 Y-29.707
X-120.292 Y-29.927
X-120.264 Y-30.086
X-120.226 Y-30.231
X-120.192 Y-30.322
X-120.144 Y-30.399
X-120.069 Y-30.452
X-119.98 Y-30.472
X-119.595 Y-30.482
X-119.56 Y-30.475 Z-0.654
X-119.529 Y-30.456 Z-0.608
X-119.507 Y-30.428 Z-0.562
X-119.497 Y-30.393 Z-0.515
X-119.495 Y-30.381 Z-0.5
X-119.436 Y-29.853
X-119.24 Y-28.119
X-119.181 Y-27.599
Y-27.591
X-119.187 Y-27.552 Z-0.55
X-119.208 Y-27.519 Z-0.6
X-119.239 Y-27.497 Z-0.65
X-119.277 Y-27.488 Z-0.7
X-119.643
X-119.793 Y-27.495
X-119.932 Y-27.553
X-120.053 Y-27.641
X-120.159 Y-27.747
X-120.251 Y-27.866
X-120.331 Y-27.992
X-120.413 Y-28.149
X-120.496 Y-28.344
X-120.566 Y-28.553
X-120.628 Y-28.804
X-120.675 Y-29.092
X-120.698 Y-29.386
X-120.699 Y-29.661
X-120.68 Y-29.89
X-120.653 Y-30.057
X-120.617 Y-30.203
X-120.579 Y-30.308
X-120.531 Y-30.388
X-120.456 Y-30.442
X-120.366 Y-30.462
X-119.98 Y-30.472
X-119.945 Y-30.466 Z-0.654
X-119.914 Y-30.447 Z-0.608
X-119.892 Y-30.418 Z-0.562
X-119.882 Y-30.384 Z-0.516
X-119.88 Y-30.371 Z-0.5
X-119.817 Y-29.844
X-119.61 Y-28.118
X-119.548 Y-27.599
X-119.547 Y-27.591
X-119.553 Y-27.552 Z-0.55
X-119.574 Y-27.519 Z-0.6
X-119.605 Y-27.497 Z-0.65
X-119.643 Y-27.488 Z-0.7
X-120.046
X-120.196 Y-27.495
X-120.331 Y-27.559
X-120.451 Y-27.649
X-120.555 Y-27.757
X-120.646 Y-27.877
X-120.73 Y-28.013
X-120.806 Y-28.16
X-120.885 Y-28.351
X-120.961 Y-28.585
X-121.02 Y-28.831
X-121.063 Y-29.114
X-121.085 Y-29.409
X-121.083 Y-29.677
X-121.064 Y-29.894
X-121.035 Y-30.06
X-120.999 Y-30.205
X-120.963 Y-30.3
X-120.915 Y-30.379
X-120.84 Y-30.432
X-120.75 Y-30.453
X-120.366 Y-30.462
X-120.33 Y-30.456 Z-0.654
X-120.3 Y-30.437 Z-0.608
X-120.278 Y-30.408 Z-0.562
X-120.267 Y-30.374 Z-0.516
X-120.266 Y-30.362 Z-0.5
X-120.206 Y-29.834
X-120.009 Y-28.119
X-119.95 Y-27.599
X-119.949 Y-27.591
X-119.956 Y-27.552 Z-0.55
X-119.976 Y-27.519 Z-0.6
X-120.008 Y-27.497 Z-0.65
X-120.046 Y-27.488 Z-0.7
X-120.404
X-120.554 Y-27.495
X-120.694 Y-27.549
X-120.817 Y-27.635
X-120.924 Y-27.739
X-121.017 Y-27.857
X-121.098 Y-27.983
X-121.179 Y-28.136
X-121.262 Y-28.326
X-121.332 Y-28.533
X-121.394 Y-28.778
X-121.442 Y-29.061
X-121.467 Y-29.352
X-121.469 Y-29.624
X-121.452 Y-29.857
X-121.425 Y-30.029
X-121.39 Y-30.175
X-121.34 Y-30.316
X-121.337 Y-30.321
X-121.287 Y-30.384
X-121.218 Y-30.427
X-121.138 Y-30.443
X-120.75 Y-30.453
X-120.715 Y-30.446 Z-0.654
X-120.685 Y-30.427 Z-0.608
X-120.663 Y-30.399 Z-0.563
X-120.652 Y-30.365 Z-0.517
X-120.65 Y-30.352 Z-0.5
X-120.585 Y-29.825
X-120.372 Y-28.118
X-120.308 Y-27.6
X-120.307 Y-27.591
X-120.314 Y-27.552 Z-0.55
X-120.334 Y-27.519 Z-0.6
X-120.366 Y-27.497 Z-0.65
X-120.404 Y-27.488 Z-0.7
X-120.806
X-120.956 Y-27.495
X-121.093 Y-27.555
X-121.214 Y-27.643
X-121.32 Y-27.75
X-121.412 Y-27.869
X-121.496 Y-28.003
X-121.571 Y-28.146
X-121.65 Y-28.332
X-121.726 Y-28.562
X-121.785 Y-28.805
X-121.83 Y-29.082
X-121.853 Y-29.373
Y-29.643
X-121.835 Y-29.861
X-121.805 Y-30.046
X-121.769 Y-30.192
X-121.734 Y-30.283
X-121.685 Y-30.36
X-121.611 Y-30.413
X-121.522 Y-30.433
X-121.138 Y-30.443
X-121.103 Y-30.436 Z-0.654
X-121.073 Y-30.417 Z-0.608
X-121.051 Y-30.389 Z-0.562
X-121.04 Y-30.355 Z-0.516
X-121.038 Y-30.342 Z-0.5
X-120.975 Y-29.815
X-120.772 Y-28.118
X-120.71 Y-27.599
Y-27.591
X-120.716 Y-27.552 Z-0.55
X-120.736 Y-27.519 Z-0.6
X-120.768 Y-27.497 Z-0.65
X-120.806 Y-27.488 Z-0.7
X-121.208
X-121.358 Y-27.495
X-121.493 Y-27.56
X-121.613 Y-27.651
X-121.716 Y-27.759
X-121.807 Y-27.879
X-121.892 Y-28.018
X-121.968 Y-28.169
X-122.047 Y-28.361
X-122.121 Y-28.594
X-122.179 Y-28.845
X-122.22 Y-29.121
X-122.24 Y-29.411
X-122.236 Y-29.669
X-122.216 Y-29.886
X-122.189 Y-30.041
X-122.151 Y-30.187
X-122.118 Y-30.273
X-122.069 Y-30.35
X-121.995 Y-30.403
X-121.906 Y-30.423
X-121.522 Y-30.433
X-121.486 Y-30.426 Z-0.654
X-121.456 Y-30.407 Z-0.608
X-121.434 Y-30.379 Z-0.562
X-121.423 Y-30.344 Z-0.515
X-121.422 Y-30.332 Z-0.5
X-121.362 Y-29.804
X-121.171 Y-28.119
X-121.112 Y-27.599
Y-27.591
X-121.118 Y-27.552 Z-0.55
X-121.139 Y-27.519 Z-0.6
X-121.17 Y-27.497 Z-0.65
X-121.208 Y-27.488 Z-0.7
X-121.574
X-121.724 Y-27.495
X-121.863 Y-27.553
X-121.984 Y-27.64
X-122.09 Y-27.747
X-122.182 Y-27.865
X-122.262 Y-27.992
X-122.343 Y-28.146
X-122.425 Y-28.34
X-122.494 Y-28.549
X-122.554 Y-28.794
X-122.599 Y-29.075
X-122.622 Y-29.36
Y-29.629
X-122.604 Y-29.85
X-122.577 Y-30.013
X-122.541 Y-30.159
X-122.504 Y-30.26
X-122.456 Y-30.339
X-122.381 Y-30.393
X-122.291 Y-30.413
X-121.906 Y-30.423
X-121.871 Y-30.416 Z-0.654
X-121.84 Y-30.398 Z-0.608
X-121.818 Y-30.369 Z-0.562
X-121.807 Y-30.335 Z-0.516
X-121.806 Y-30.322 Z-0.5
X-121.743 Y-29.795
X-121.541 Y-28.118
X-121.479 Y-27.599
X-121.478 Y-27.591
X-121.484 Y-27.552 Z-0.55
X-121.505 Y-27.519 Z-0.6
X-121.536 Y-27.497 Z-0.65
X-121.574 Y-27.488 Z-0.7
X-121.977
X-122.126 Y-27.495
X-122.262 Y-27.558
X-122.382 Y-27.649
X-122.486 Y-27.757
X-122.576 Y-27.877
X-122.661 Y-28.013
X-122.735 Y-28.16
X-122.814 Y-28.348
X-122.888 Y-28.579
X-122.946 Y-28.825
X-122.987 Y-29.099
X-123.008 Y-29.387
X-123.005 Y-29.643
X-122.986 Y-29.856
X-122.958 Y-30.016
X-122.921 Y-30.162
X-122.887 Y-30.252
X-122.839 Y-30.33
X-122.764 Y-30.383
X-122.675 Y-30.404
X-122.291 Y-30.413
X-122.256 Y-30.407 Z-0.654
X-122.225 Y-30.388 Z-0.608
X-122.203 Y-30.359 Z-0.562
X-122.192 Y-30.325 Z-0.516
X-122.191 Y-30.313 Z-0.5
X-122.131 Y-29.785
X-121.94 Y-28.119
X-121.881 Y-27.599
X-121.88 Y-27.591
X-121.886 Y-27.552 Z-0.55
X-121.907 Y-27.519 Z-0.6
X-121.939 Y-27.497 Z-0.65
X-121.977 Y-27.488 Z-0.7
X-122.379
X-122.529 Y-27.495
X-122.662 Y-27.563
X-122.78 Y-27.657
X-122.882 Y-27.766
X-122.971 Y-27.887
X-123.055 Y-28.027
X-123.132 Y-28.182
X-123.21 Y-28.377
X-123.282 Y-28.611
X-123.338 Y-28.863
X-123.377 Y-29.139
X-123.394 Y-29.42
X-123.388 Y-29.662
X-123.367 Y-29.872
X-123.339 Y-30.023
X-123.3 Y-30.168
X-123.269 Y-30.246
X-123.221 Y-30.322
X-123.147 Y-30.374
X-123.058 Y-30.394
X-122.675 Y-30.404
X-122.639 Y-30.397 Z-0.654
X-122.609 Y-30.378 Z-0.607
X-122.587 Y-30.349 Z-0.561
X-122.576 Y-30.314 Z-0.515
X-122.575 Y-30.303 Z-0.5
X-122.518 Y-29.775
X-122.339 Y-28.119
X-122.283 Y-27.598
X-122.282 Y-27.591
X-122.289 Y-27.552 Z-0.55
X-122.309 Y-27.519 Z-0.6
X-122.341 Y-27.497 Z-0.65
X-122.379 Y-27.488 Z-0.7
X-122.737
X-122.887 Y-27.495
X-123.025 Y-27.554
X-123.146 Y-27.642
X-123.251 Y-27.749
X-123.342 Y-27.868
X-123.422 Y-27.995
X-123.503 Y-28.153
X-123.585 Y-28.347
X-123.652 Y-28.553
X-123.711 Y-28.801
X-123.754 Y-29.078
X-123.775 Y-29.354
X-123.774 Y-29.615
X-123.755 Y-29.833
X-123.728 Y-29.991
X-123.691 Y-30.137
X-123.656 Y-30.232
X-123.607 Y-30.31
X-123.533 Y-30.364
X-123.443 Y-30.384
X-123.058 Y-30.394
X-123.023 Y-30.387 Z-0.654
X-122.992 Y-30.368 Z-0.608
X-122.97 Y-30.34 Z-0.562
X-122.96 Y-30.306 Z-0.516
X-122.958 Y-30.293 Z-0.5
X-122.896 Y-29.766
X-122.702 Y-28.118
X-122.641 Y-27.599
X-122.64 Y-27.591
X-122.647 Y-27.552 Z-0.55
X-122.667 Y-27.519 Z-0.6
X-122.699 Y-27.497 Z-0.65
X-122.737 Y-27.488 Z-0.7
X-123.139
X-123.289 Y-27.495
X-123.424 Y-27.56
X-123.543 Y-27.651
X-123.647 Y-27.76
X-123.737 Y-27.88
X-123.82 Y-28.016
X-123.894 Y-28.163
X-123.972 Y-28.353
X-124.045 Y-28.583
X-124.102 Y-28.827
X-124.141 Y-29.096
X-124.16 Y-29.378
X-124.157 Y-29.627
X-124.137 Y-29.837
X-124.109 Y-29.993
X-124.072 Y-30.138
X-124.039 Y-30.224
X-123.99 Y-30.301
X-123.916 Y-30.354
X-123.827 Y-30.374
X-123.443 Y-30.384
X-123.408 Y-30.377 Z-0.654
X-123.377 Y-30.358 Z-0.608
X-123.355 Y-30.33 Z-0.561
X-123.345 Y-30.295 Z-0.515
X-123.343 Y-30.283 Z-0.5
X-123.284 Y-29.755
X-123.101 Y-28.119
X-123.043 Y-27.599
Y-27.591
X-123.049 Y-27.552 Z-0.55
X-123.07 Y-27.519 Z-0.6
X-123.101 Y-27.497 Z-0.65
X-123.139 Y-27.488 Z-0.7
X-123.505
X-123.655 Y-27.495
X-123.793 Y-27.553
X-123.915 Y-27.641
X-124.021 Y-27.748
X-124.112 Y-27.866
X-124.192 Y-27.994
X-124.271 Y-28.146
X-124.351 Y-28.336
X-124.42 Y-28.549
X-124.478 Y-28.786
X-124.521 Y-29.059
X-124.542 Y-29.336
X-124.541 Y-29.596
X-124.523 Y-29.81
X-124.496 Y-29.97
X-124.46 Y-30.115
X-124.424 Y-30.212
X-124.376 Y-30.29
X-124.301 Y-30.344
X-124.211 Y-30.364
X-123.827 Y-30.374
X-123.792 Y-30.367 Z-0.654
X-123.761 Y-30.349 Z-0.608
X-123.739 Y-30.32 Z-0.562
X-123.728 Y-30.286 Z-0.516
X-123.727 Y-30.273 Z-0.5
X-123.664 Y-29.746
X-123.471 Y-28.118
X-123.409 Y-27.599
Y-27.591
X-123.415 Y-27.552 Z-0.55
X-123.436 Y-27.519 Z-0.6
X-123.467 Y-27.497 Z-0.65
X-123.505 Y-27.488 Z-0.7
X-123.908
X-124.057 Y-27.495
X-124.193 Y-27.559
X-124.312 Y-27.65
X-124.416 Y-27.758
X-124.506 Y-27.878
X-124.59 Y-28.016
X-124.664 Y-28.163
X-124.74 Y-28.349
X-124.813 Y-28.576
X-124.87 Y-28.825
X-124.909 Y-29.089
X-124.927 Y-29.368
X-124.924 Y-29.61
X-124.904 Y-29.82
X-124.877 Y-29.975
X-124.839 Y-30.12
X-124.807 Y-30.205
X-124.758 Y-30.282
X-124.684 Y-30.335
X-124.595 Y-30.355
X-124.211 Y-30.364
X-124.176 Y-30.358 Z-0.654
X-124.145 Y-30.339 Z-0.608
X-124.123 Y-30.31 Z-0.562
X-124.113 Y-30.276 Z-0.515
X-124.112 Y-30.264 Z-0.5
X-124.052 Y-29.736
X-123.87 Y-28.119
X-123.812 Y-27.599
X-123.811 Y-27.591
X-123.817 Y-27.552 Z-0.55
X-123.838 Y-27.519 Z-0.6
X-123.87 Y-27.497 Z-0.65
X-123.908 Y-27.488 Z-0.7
X-124.266
X-124.415 Y-27.495
X-124.555 Y-27.55
X-124.678 Y-27.636
X-124.784 Y-27.742
X-124.877 Y-27.86
X-124.957 Y-27.986
X-125.036 Y-28.136
X-125.116 Y-28.326
X-125.185 Y-28.533
X-125.243 Y-28.768
X-125.286 Y-29.038
X-125.308 Y-29.31
Y-29.569
X-125.291 Y-29.785
X-125.265 Y-29.946
X-125.229 Y-30.091
X-125.193 Y-30.192
X-125.144 Y-30.27
X-125.069 Y-30.324
X-124.979 Y-30.345
X-124.595 Y-30.355
X-124.56 Y-30.348 Z-0.654
X-124.529 Y-30.329 Z-0.608
X-124.507 Y-30.301 Z-0.562
X-124.496 Y-30.267 Z-0.517
X-124.495 Y-30.254 Z-0.5
X-124.43 Y-29.727
X-124.233 Y-28.118
X-124.17 Y-27.6
X-124.169 Y-27.591
X-124.175 Y-27.552 Z-0.55
X-124.196 Y-27.519 Z-0.6
X-124.228 Y-27.497 Z-0.65
X-124.266 Y-27.488 Z-0.7
X-124.668
X-124.818 Y-27.495
X-124.955 Y-27.556
X-125.075 Y-27.646
X-125.18 Y-27.753
X-125.271 Y-27.872
X-125.354 Y-28.007
X-125.428 Y-28.152
X-125.504 Y-28.334
X-125.576 Y-28.558
X-125.634 Y-28.803
X-125.674 Y-29.062
X-125.693 Y-29.338
X-125.691 Y-29.581
X-125.672 Y-29.792
X-125.645 Y-29.95
X-125.608 Y-30.095
X-125.575 Y-30.184
X-125.526 Y-30.262
X-125.452 Y-30.315
X-125.362 Y-30.335
X-124.979 Y-30.345
X-124.944 Y-30.338 Z-0.654
X-124.913 Y-30.319 Z-0.608
X-124.891 Y-30.291 Z-0.562
X-124.881 Y-30.256 Z-0.516
X-124.879 Y-30.244 Z-0.5
X-124.818 Y-29.717
X-124.632 Y-28.119
X-124.572 Y-27.599
X-124.571 Y-27.591
X-124.578 Y-27.552 Z-0.55
X-124.598 Y-27.519 Z-0.6
X-124.63 Y-27.497 Z-0.65
X-124.668 Y-27.488 Z-0.7
X-125.034
X-125.184 Y-27.495
X-125.323 Y-27.55
X-125.446 Y-27.636
X-125.553 Y-27.741
X-125.645 Y-27.859
X-125.726 Y-27.986
X-125.802 Y-28.132
X-125.882 Y-28.319
X-125.953 Y-28.531
X-126.009 Y-28.76
X-126.052 Y-29.025
X-126.074 Y-29.296
X-126.075 Y-29.552
X-126.058 Y-29.765
X-126.032 Y-29.926
X-125.996 Y-30.072
X-125.96 Y-30.172
X-125.912 Y-30.251
X-125.837 Y-30.305
X-125.746 Y-30.325
X-125.362 Y-30.335
X-125.327 Y-30.328 Z-0.654
X-125.297 Y-30.31 Z-0.608
X-125.275 Y-30.282 Z-0.563
X-125.264 Y-30.247 Z-0.517
X-125.262 Y-30.234 Z-0.5
X-125.198 Y-29.707
X-125.002 Y-28.118
X-124.938 Y-27.6
X-124.937 Y-27.591
X-124.944 Y-27.552 Z-0.55
X-124.964 Y-27.519 Z-0.6
X-124.996 Y-27.497 Z-0.65
X-125.034 Y-27.488 Z-0.7
X-125.436
X-125.586 Y-27.495
X-125.723 Y-27.556
X-125.844 Y-27.645
X-125.948 Y-27.753
X-126.039 Y-27.872
X-126.123 Y-28.008
X-126.197 Y-28.153
X-126.272 Y-28.334
X-126.343 Y-28.555
X-126.401 Y-28.802
X-126.44 Y-29.058
X-126.46 Y-29.329
X-126.457 Y-29.568
X-126.438 Y-29.777
X-126.411 Y-29.933
X-126.374 Y-30.078
X-126.342 Y-30.165
X-126.293 Y-30.242
X-126.219 Y-30.295
X-126.129 Y-30.316
X-125.746 Y-30.325
X-125.711 Y-30.319 Z-0.654
X-125.681 Y-30.3 Z-0.608
X-125.659 Y-30.271 Z-0.562
X-125.648 Y-30.237 Z-0.516
X-125.647 Y-30.225 Z-0.5
X-125.585 Y-29.697
X-125.401 Y-28.119
X-125.34 Y-27.599
Y-27.591
X-125.346 Y-27.552 Z-0.55
X-125.367 Y-27.519 Z-0.6
X-125.398 Y-27.497 Z-0.65
X-125.436 Y-27.488 Z-0.7
X-125.838
X-125.988 Y-27.495
X-126.123 Y-27.561
X-126.241 Y-27.654
X-126.344 Y-27.763
X-126.433 Y-27.883
X-126.517 Y-28.023
X-126.59 Y-28.172
X-126.667 Y-28.363
X-126.737 Y-28.589
X-126.792 Y-28.839
X-126.829 Y-29.098
X-126.844 Y-29.358
X-126.839 Y-29.589
X-126.818 Y-29.795
X-126.79 Y-29.942
X-126.751 Y-30.087
X-126.722 Y-30.159
X-126.673 Y-30.235
X-126.6 Y-30.286
X-126.512 Y-30.306
X-126.129 Y-30.316
X-126.094 Y-30.309 Z-0.654
X-126.063 Y-30.29 Z-0.608
X-126.041 Y-30.261 Z-0.561
X-126.031 Y-30.227 Z-0.515
X-126.029 Y-30.215 Z-0.5
X-125.972 Y-29.687
X-125.8 Y-28.119
X-125.743 Y-27.598
X-125.742 Y-27.591
X-125.748 Y-27.552 Z-0.55
X-125.769 Y-27.519 Z-0.6
X-125.8 Y-27.497 Z-0.65
X-125.838 Y-27.488 Z-0.7
X-126.196
X-126.346 Y-27.495
X-126.485 Y-27.552
X-126.607 Y-27.64
X-126.712 Y-27.747
X-126.804 Y-27.865
X-126.883 Y-27.993
X-126.961 Y-28.145
X-127.041 Y-28.336
X-127.108 Y-28.542
X-127.164 Y-28.777
X-127.205 Y-29.038
X-127.224 Y-29.301
X-127.222 Y-29.551
X-127.204 Y-29.758
X-127.178 Y-29.91
X-127.142 Y-30.055
X-127.108 Y-30.145
X-127.059 Y-30.223
X-126.985 Y-30.276
X-126.895 Y-30.296
X-126.512 Y-30.306
X-126.476 Y-30.299 Z-0.654
X-126.446 Y-30.28 Z-0.608
X-126.424 Y-30.252 Z-0.562
X-126.413 Y-30.218 Z-0.516
X-126.412 Y-30.205 Z-0.5
X-126.349 Y-29.678
X-126.163 Y-28.118
X-126.101 Y-27.599
X-126.1 Y-27.591
X-126.106 Y-27.552 Z-0.55
X-126.127 Y-27.519 Z-0.6
X-126.159 Y-27.497 Z-0.65
X-126.196 Y-27.488 Z-0.7
X-126.599
X-126.749 Y-27.495
X-126.884 Y-27.559
X-127.004 Y-27.65
X-127.107 Y-27.758
X-127.197 Y-27.878
X-127.28 Y-28.014
X-127.353 Y-28.16
X-127.428 Y-28.344
X-127.498 Y-28.565
X-127.554 Y-28.81
X-127.591 Y-29.064
X-127.608 Y-29.329
X-127.604 Y-29.56
X-127.585 Y-29.765
X-127.558 Y-29.913
X-127.52 Y-30.058
X-127.489 Y-30.137
X-127.441 Y-30.214
X-127.366 Y-30.266
X-127.278 Y-30.286
X-126.895 Y-30.296
X-126.86 Y-30.289 Z-0.654
X-126.829 Y-30.27 Z-0.608
X-126.807 Y-30.242 Z-0.562
X-126.797 Y-30.207 Z-0.515
X-126.796 Y-30.195 Z-0.5
X-126.736 Y-29.667
X-126.561 Y-28.119
X-126.503 Y-27.599
X-126.502 Y-27.591
X-126.509 Y-27.552 Z-0.55
X-126.529 Y-27.519 Z-0.6
X-126.561 Y-27.497 Z-0.65
X-126.599 Y-27.488 Z-0.7
X-126.965
X-127.115 Y-27.495
X-127.253 Y-27.552
X-127.375 Y-27.64
X-127.481 Y-27.747
X-127.572 Y-27.866
X-127.651 Y-27.993
X-127.727 Y-28.14
X-127.805 Y-28.328
X-127.875 Y-28.541
X-127.929 Y-28.767
X-127.969 Y-29.026
X-127.989 Y-29.288
X-127.987 Y-29.533
X-127.969 Y-29.739
X-127.944 Y-29.891
X-127.907 Y-30.036
X-127.873 Y-30.125
X-127.825 Y-30.203
X-127.75 Y-30.256
X-127.661 Y-30.277
X-127.278 Y-30.286
X-127.242 Y-30.28 Z-0.654
X-127.212 Y-30.261 Z-0.608
X-127.19 Y-30.232 Z-0.562
X-127.179 Y-30.198 Z-0.516
X-127.178 Y-30.186 Z-0.5
X-127.115 Y-29.658
X-126.931 Y-28.118
X-126.869 Y-27.599
X-126.868 Y-27.591
X-126.875 Y-27.552 Z-0.55
X-126.895 Y-27.519 Z-0.6
X-126.927 Y-27.497 Z-0.65
X-126.965 Y-27.488 Z-0.7
X-127.367
X-127.517 Y-27.495
X-127.653 Y-27.559
X-127.772 Y-27.65
X-127.876 Y-27.758
X-127.965 Y-27.878
X-128.048 Y-28.016
X-128.122 Y-28.163
X-128.195 Y-28.345
X-128.264 Y-28.564
X-128.32 Y-28.809
X-128.357 Y-29.064
X-128.373 Y-29.321
X-128.368 Y-29.549
X-128.348 Y-29.752
X-128.322 Y-29.9
X-128.283 Y-30.045
X-128.254 Y-30.119
X-128.205 Y-30.195
X-128.131 Y-30.247
X-128.043 Y-30.267
X-127.661 Y-30.277
X-127.626 Y-30.27 Z-0.654
X-127.595 Y-30.251 Z-0.608
X-127.573 Y-30.222 Z-0.562
X-127.562 Y-30.188 Z-0.515
X-127.561 Y-30.176 Z-0.5
X-127.502 Y-29.648
X-127.33 Y-28.119
X-127.271 Y-27.599
Y-27.591
X-127.277 Y-27.552 Z-0.55
X-127.297 Y-27.519 Z-0.6
X-127.329 Y-27.497 Z-0.65
X-127.367 Y-27.488 Z-0.7
X-127.725
X-127.875 Y-27.495
