(Main_3175mm)
(T5 D=3.175 CR=0 - ZMIN=-2.3 - Schaftfrser)
G90 G94
G17
G21
(When using Fusion for Personal Use, the feedrate of rapid)
(moves is reduced to match the feedrate of cutting moves,)
(which can increase machining time. Unrestricted rapid moves)
(are available with a Fusion Subscription.)
G28 G91 Z0
G90

(Bohrfrsen2)
M0
(MANUAL TOOL CHANGE TO T5)
S6000 M3
G17 G90 G94
G54
G0 X-10.081 Y-74.41
Z15
G1 Z1.683 F1000
Z0
Y-74.569
X-10.075 Y-74.6
X-10.057 Y-74.626
X-10.031 Y-74.644
X-10 Y-74.65
G3 X-10 Y-74.325 Z-0.061 I0 J0.162
X-10 Y-74.65 Z-0.122 I0 J-0.162
X-10 Y-74.325 Z-0.183 I0 J0.162
X-10 Y-74.65 Z-0.244 I0 J-0.162
X-10 Y-74.325 Z-0.306 I0 J0.162
X-10 Y-74.65 Z-0.367 I0 J-0.162
X-10 Y-74.325 Z-0.428 I0 J0.162
X-10 Y-74.65 Z-0.489 I0 J-0.162
X-10 Y-74.325 Z-0.55 I0 J0.162
X-10 Y-74.65 Z-0.611 I0 J-0.162
X-10 Y-74.325 Z-0.672 I0 J0.162
X-10 Y-74.65 Z-0.733 I0 J-0.162
X-10 Y-74.325 Z-0.794 I0 J0.162
X-10 Y-74.65 Z-0.856 I0 J-0.162
X-10 Y-74.325 Z-0.917 I0 J0.162
X-10 Y-74.65 Z-0.978 I0 J-0.162
X-10 Y-74.325 Z-1.039 I0 J0.162
X-10 Y-74.65 Z-1.1 I0 J-0.162
X-10 Y-74.325 Z-1.161 I0 J0.162
X-10 Y-74.65 Z-1.222 I0 J-0.162
X-10 Y-74.325 Z-1.283 I0 J0.162
X-10 Y-74.65 Z-1.344 I0 J-0.162
X-10 Y-74.325 Z-1.406 I0 J0.162
X-10 Y-74.65 Z-1.467 I0 J-0.162
X-10 Y-74.325 Z-1.528 I0 J0.162
X-10 Y-74.65 Z-1.589 I0 J-0.162
X-10 Y-74.325 Z-1.65 I0 J0.162
X-10 Y-74.65 Z-1.711 I0 J-0.162
X-10 Y-74.325 Z-1.772 I0 J0.162
X-10 Y-74.65 Z-1.833 I0 J-0.162
X-10 Y-74.325 Z-1.894 I0 J0.162
X-10 Y-74.65 Z-1.956 I0 J-0.162
X-10 Y-74.325 Z-2.017 I0 J0.162
X-10 Y-74.65 Z-2.078 I0 J-0.162
X-10 Y-74.325 Z-2.139 I0 J0.162
X-10 Y-74.65 Z-2.2 I0 J-0.162
X-10 Y-74.325 Z-2.261 I0 J0.162
X-10.148 Y-74.555 Z-2.3 I0 J-0.162
X-9.852 Y-74.42 I0.148 J0.067
X-10.148 Y-74.555 I-0.148 J-0.067
G1 X-10.129 Y-74.581
X-10.102 Y-74.597
X-10.071 Y-74.602
X-10.04 Y-74.595
X-9.896 Y-74.529
Z5
X-10.081 Y-93.41
Z1.683
Z0
Y-93.569
X-10.075 Y-93.6
X-10.057 Y-93.626
X-10.031 Y-93.644
X-10 Y-93.65
G3 X-10 Y-93.325 Z-0.061 I0 J0.162
X-10 Y-93.65 Z-0.122 I0 J-0.162
X-10 Y-93.325 Z-0.183 I0 J0.162
X-10 Y-93.65 Z-0.244 I0 J-0.162
X-10 Y-93.325 Z-0.306 I0 J0.162
X-10 Y-93.65 Z-0.367 I0 J-0.162
X-10 Y-93.325 Z-0.428 I0 J0.162
X-10 Y-93.65 Z-0.489 I0 J-0.162
X-10 Y-93.325 Z-0.55 I0 J0.162
X-10 Y-93.65 Z-0.611 I0 J-0.162
X-10 Y-93.325 Z-0.672 I0 J0.162
X-10 Y-93.65 Z-0.733 I0 J-0.162
X-10 Y-93.325 Z-0.794 I0 J0.162
X-10 Y-93.65 Z-0.856 I0 J-0.162
X-10 Y-93.325 Z-0.917 I0 J0.162
X-10 Y-93.65 Z-0.978 I0 J-0.162
X-10 Y-93.325 Z-1.039 I0 J0.162
X-10 Y-93.65 Z-1.1 I0 J-0.162
X-10 Y-93.325 Z-1.161 I0 J0.162
X-10 Y-93.65 Z-1.222 I0 J-0.162
X-10 Y-93.325 Z-1.283 I0 J0.162
X-10 Y-93.65 Z-1.344 I0 J-0.162
X-10 Y-93.325 Z-1.406 I0 J0.162
X-10 Y-93.65 Z-1.467 I0 J-0.162
X-10 Y-93.325 Z-1.528 I0 J0.162
X-10 Y-93.65 Z-1.589 I0 J-0.162
X-10 Y-93.325 Z-1.65 I0 J0.162
X-10 Y-93.65 Z-1.711 I0 J-0.162
X-10 Y-93.325 Z-1.772 I0 J0.162
X-10 Y-93.65 Z-1.833 I0 J-0.162
X-10 Y-93.325 Z-1.894 I0 J0.162
X-10 Y-93.65 Z-1.956 I0 J-0.162
X-10 Y-93.325 Z-2.017 I0 J0.162
X-10 Y-93.65 Z-2.078 I0 J-0.162
X-10 Y-93.325 Z-2.139 I0 J0.162
X-10 Y-93.65 Z-2.2 I0 J-0.162
X-10 Y-93.325 Z-2.261 I0 J0.162
X-10.148 Y-93.555 Z-2.3 I0 J-0.162
X-9.852 Y-93.42 I0.148 J0.067
X-10.148 Y-93.555 I-0.148 J-0.067
G1 X-10.129 Y-93.581
X-10.102 Y-93.597
X-10.071 Y-93.602
X-10.04 Y-93.595
X-9.896 Y-93.529
Z5
X-60.081 Y-93.41
Z1.683
Z0
Y-93.569
X-60.075 Y-93.6
X-60.057 Y-93.626
X-60.031 Y-93.644
X-60 Y-93.65
G3 X-60 Y-93.325 Z-0.061 I0 J0.162
X-60 Y-93.65 Z-0.122 I0 J-0.162
X-60 Y-93.325 Z-0.183 I0 J0.162
X-60 Y-93.65 Z-0.244 I0 J-0.162
X-60 Y-93.325 Z-0.306 I0 J0.162
X-60 Y-93.65 Z-0.367 I0 J-0.162
X-60 Y-93.325 Z-0.428 I0 J0.162
X-60 Y-93.65 Z-0.489 I0 J-0.162
X-60 Y-93.325 Z-0.55 I0 J0.162
X-60 Y-93.65 Z-0.611 I0 J-0.162
X-60 Y-93.325 Z-0.672 I0 J0.162
X-60 Y-93.65 Z-0.733 I0 J-0.162
X-60 Y-93.325 Z-0.794 I0 J0.162
X-60 Y-93.65 Z-0.856 I0 J-0.162
X-60 Y-93.325 Z-0.917 I0 J0.162
X-60 Y-93.65 Z-0.978 I0 J-0.162
X-60 Y-93.325 Z-1.039 I0 J0.162
X-60 Y-93.65 Z-1.1 I0 J-0.162
X-60 Y-93.325 Z-1.161 I0 J0.162
X-60 Y-93.65 Z-1.222 I0 J-0.162
X-60 Y-93.325 Z-1.283 I0 J0.162
X-60 Y-93.65 Z-1.344 I0 J-0.162
X-60 Y-93.325 Z-1.406 I0 J0.162
X-60 Y-93.65 Z-1.467 I0 J-0.162
X-60 Y-93.325 Z-1.528 I0 J0.162
X-60 Y-93.65 Z-1.589 I0 J-0.162
X-60 Y-93.325 Z-1.65 I0 J0.162
X-60 Y-93.65 Z-1.711 I0 J-0.162
X-60 Y-93.325 Z-1.772 I0 J0.162
X-60 Y-93.65 Z-1.833 I0 J-0.162
X-60 Y-93.325 Z-1.894 I0 J0.162
X-60 Y-93.65 Z-1.956 I0 J-0.162
X-60 Y-93.325 Z-2.017 I0 J0.162
X-60 Y-93.65 Z-2.078 I0 J-0.162
X-60 Y-93.325 Z-2.139 I0 J0.162
X-60 Y-93.65 Z-2.2 I0 J-0.162
X-60 Y-93.325 Z-2.261 I0 J0.162
X-60.148 Y-93.555 Z-2.3 I0 J-0.162
X-59.852 Y-93.42 I0.148 J0.067
X-60.148 Y-93.555 I-0.148 J-0.067
G1 X-60.129 Y-93.581
X-60.102 Y-93.597
X-60.071 Y-93.602
X-60.04 Y-93.595
X-59.896 Y-93.529
Z5
X-60.081 Y-74.41
Z1.683
Z0
Y-74.569
X-60.075 Y-74.6
X-60.057 Y-74.626
X-60.031 Y-74.644
X-60 Y-74.65
G3 X-60 Y-74.325 Z-0.061 I0 J0.162
X-60 Y-74.65 Z-0.122 I0 J-0.162
X-60 Y-74.325 Z-0.183 I0 J0.162
X-60 Y-74.65 Z-0.244 I0 J-0.162
X-60 Y-74.325 Z-0.306 I0 J0.162
X-60 Y-74.65 Z-0.367 I0 J-0.162
X-60 Y-74.325 Z-0.428 I0 J0.162
X-60 Y-74.65 Z-0.489 I0 J-0.162
X-60 Y-74.325 Z-0.55 I0 J0.162
X-60 Y-74.65 Z-0.611 I0 J-0.162
X-60 Y-74.325 Z-0.672 I0 J0.162
X-60 Y-74.65 Z-0.733 I0 J-0.162
X-60 Y-74.325 Z-0.794 I0 J0.162
X-60 Y-74.65 Z-0.856 I0 J-0.162
X-60 Y-74.325 Z-0.917 I0 J0.162
X-60 Y-74.65 Z-0.978 I0 J-0.162
X-60 Y-74.325 Z-1.039 I0 J0.162
X-60 Y-74.65 Z-1.1 I0 J-0.162
X-60 Y-74.325 Z-1.161 I0 J0.162
X-60 Y-74.65 Z-1.222 I0 J-0.162
X-60 Y-74.325 Z-1.283 I0 J0.162
X-60 Y-74.65 Z-1.344 I0 J-0.162
X-60 Y-74.325 Z-1.406 I0 J0.162
X-60 Y-74.65 Z-1.467 I0 J-0.162
X-60 Y-74.325 Z-1.528 I0 J0.162
X-60 Y-74.65 Z-1.589 I0 J-0.162
X-60 Y-74.325 Z-1.65 I0 J0.162
X-60 Y-74.65 Z-1.711 I0 J-0.162
X-60 Y-74.325 Z-1.772 I0 J0.162
X-60 Y-74.65 Z-1.833 I0 J-0.162
X-60 Y-74.325 Z-1.894 I0 J0.162
X-60 Y-74.65 Z-1.956 I0 J-0.162
X-60 Y-74.325 Z-2.017 I0 J0.162
X-60 Y-74.65 Z-2.078 I0 J-0.162
X-60 Y-74.325 Z-2.139 I0 J0.162
X-60 Y-74.65 Z-2.2 I0 J-0.162
X-60 Y-74.325 Z-2.261 I0 J0.162
X-60.148 Y-74.555 Z-2.3 I0 J-0.162
X-59.852 Y-74.42 I0.148 J0.067
X-60.148 Y-74.555 I-0.148 J-0.067
G1 X-60.129 Y-74.581
X-60.102 Y-74.597
X-60.071 Y-74.602
X-60.04 Y-74.595
X-59.896 Y-74.529
Z5
X-70.081 Y-33.41
Z1.683
Z0
Y-33.569
X-70.075 Y-33.6
X-70.057 Y-33.626
X-70.031 Y-33.644
X-70 Y-33.65
G3 X-70 Y-33.325 Z-0.061 I0 J0.162
X-70 Y-33.65 Z-0.122 I0 J-0.162
X-70 Y-33.325 Z-0.183 I0 J0.162
X-70 Y-33.65 Z-0.244 I0 J-0.162
X-70 Y-33.325 Z-0.306 I0 J0.162
X-70 Y-33.65 Z-0.367 I0 J-0.162
X-70 Y-33.325 Z-0.428 I0 J0.162
X-70 Y-33.65 Z-0.489 I0 J-0.162
X-70 Y-33.325 Z-0.55 I0 J0.162
X-70 Y-33.65 Z-0.611 I0 J-0.162
X-70 Y-33.325 Z-0.672 I0 J0.162
X-70 Y-33.65 Z-0.733 I0 J-0.162
X-70 Y-33.325 Z-0.794 I0 J0.162
X-70 Y-33.65 Z-0.856 I0 J-0.162
X-70 Y-33.325 Z-0.917 I0 J0.162
X-70 Y-33.65 Z-0.978 I0 J-0.162
X-70 Y-33.325 Z-1.039 I0 J0.162
X-70 Y-33.65 Z-1.1 I0 J-0.162
X-70 Y-33.325 Z-1.161 I0 J0.162
X-70 Y-33.65 Z-1.222 I0 J-0.162
X-70 Y-33.325 Z-1.283 I0 J0.162
X-70 Y-33.65 Z-1.344 I0 J-0.162
X-70 Y-33.325 Z-1.406 I0 J0.162
X-70 Y-33.65 Z-1.467 I0 J-0.162
X-70 Y-33.325 Z-1.528 I0 J0.162
X-70 Y-33.65 Z-1.589 I0 J-0.162
X-70 Y-33.325 Z-1.65 I0 J0.162
X-70 Y-33.65 Z-1.711 I0 J-0.162
X-70 Y-33.325 Z-1.772 I0 J0.162
X-70 Y-33.65 Z-1.833 I0 J-0.162
X-70 Y-33.325 Z-1.894 I0 J0.162
X-70 Y-33.65 Z-1.956 I0 J-0.162
X-70 Y-33.325 Z-2.017 I0 J0.162
X-70 Y-33.65 Z-2.078 I0 J-0.162
X-70 Y-33.325 Z-2.139 I0 J0.162
X-70 Y-33.65 Z-2.2 I0 J-0.162
X-70 Y-33.325 Z-2.261 I0 J0.162
X-70.148 Y-33.555 Z-2.3 I0 J-0.162
X-69.852 Y-33.42 I0.148 J0.067
X-70.148 Y-33.555 I-0.148 J-0.067
G1 X-70.129 Y-33.581
X-70.102 Y-33.597
X-70.071 Y-33.602
X-70.04 Y-33.595
X-69.896 Y-33.529
Z5
X-70.081 Y-14.41
Z1.683
Z0
Y-14.569
X-70.075 Y-14.6
X-70.057 Y-14.626
X-70.031 Y-14.644
X-70 Y-14.65
G3 X-70 Y-14.325 Z-0.061 I0 J0.162
X-70 Y-14.65 Z-0.122 I0 J-0.162
X-70 Y-14.325 Z-0.183 I0 J0.162
X-70 Y-14.65 Z-0.244 I0 J-0.162
X-70 Y-14.325 Z-0.306 I0 J0.162
X-70 Y-14.65 Z-0.367 I0 J-0.162
X-70 Y-14.325 Z-0.428 I0 J0.162
X-70 Y-14.65 Z-0.489 I0 J-0.162
X-70 Y-14.325 Z-0.55 I0 J0.162
X-70 Y-14.65 Z-0.611 I0 J-0.162
X-70 Y-14.325 Z-0.672 I0 J0.162
X-70 Y-14.65 Z-0.733 I0 J-0.162
X-70 Y-14.325 Z-0.794 I0 J0.162
X-70 Y-14.65 Z-0.856 I0 J-0.162
X-70 Y-14.325 Z-0.917 I0 J0.162
X-70 Y-14.65 Z-0.978 I0 J-0.162
X-70 Y-14.325 Z-1.039 I0 J0.162
X-70 Y-14.65 Z-1.1 I0 J-0.162
X-70 Y-14.325 Z-1.161 I0 J0.162
X-70 Y-14.65 Z-1.222 I0 J-0.162
X-70 Y-14.325 Z-1.283 I0 J0.162
X-70 Y-14.65 Z-1.344 I0 J-0.162
X-70 Y-14.325 Z-1.406 I0 J0.162
X-70 Y-14.65 Z-1.467 I0 J-0.162
X-70 Y-14.325 Z-1.528 I0 J0.162
X-70 Y-14.65 Z-1.589 I0 J-0.162
X-70 Y-14.325 Z-1.65 I0 J0.162
X-70 Y-14.65 Z-1.711 I0 J-0.162
X-70 Y-14.325 Z-1.772 I0 J0.162
X-70 Y-14.65 Z-1.833 I0 J-0.162
X-70 Y-14.325 Z-1.894 I0 J0.162
X-70 Y-14.65 Z-1.956 I0 J-0.162
X-70 Y-14.325 Z-2.017 I0 J0.162
X-70 Y-14.65 Z-2.078 I0 J-0.162
X-70 Y-14.325 Z-2.139 I0 J0.162
X-70 Y-14.65 Z-2.2 I0 J-0.162
X-70 Y-14.325 Z-2.261 I0 J0.162
X-70.148 Y-14.555 Z-2.3 I0 J-0.162
X-69.852 Y-14.42 I0.148 J0.067
X-70.148 Y-14.555 I-0.148 J-0.067
G1 X-70.129 Y-14.581
X-70.102 Y-14.597
X-70.071 Y-14.602
X-70.04 Y-14.595
X-69.896 Y-14.529
Z5
X-120.081 Y-14.41
Z1.683
Z0
Y-14.569
X-120.075 Y-14.6
X-120.057 Y-14.626
X-120.031 Y-14.644
X-120 Y-14.65
G3 X-120 Y-14.325 Z-0.061 I0 J0.162
X-120 Y-14.65 Z-0.122 I0 J-0.162
X-120 Y-14.325 Z-0.183 I0 J0.162
X-120 Y-14.65 Z-0.244 I0 J-0.162
X-120 Y-14.325 Z-0.306 I0 J0.162
X-120 Y-14.65 Z-0.367 I0 J-0.162
X-120 Y-14.325 Z-0.428 I0 J0.162
X-120 Y-14.65 Z-0.489 I0 J-0.162
X-120 Y-14.325 Z-0.55 I0 J0.162
X-120 Y-14.65 Z-0.611 I0 J-0.162
X-120 Y-14.325 Z-0.672 I0 J0.162
X-120 Y-14.65 Z-0.733 I0 J-0.162
X-120 Y-14.325 Z-0.794 I0 J0.162
X-120 Y-14.65 Z-0.856 I0 J-0.162
X-120 Y-14.325 Z-0.917 I0 J0.162
X-120 Y-14.65 Z-0.978 I0 J-0.162
X-120 Y-14.325 Z-1.039 I0 J0.162
X-120 Y-14.65 Z-1.1 I0 J-0.162
X-120 Y-14.325 Z-1.161 I0 J0.162
X-120 Y-14.65 Z-1.222 I0 J-0.162
X-120 Y-14.325 Z-1.283 I0 J0.162
X-120 Y-14.65 Z-1.344 I0 J-0.162
X-120 Y-14.325 Z-1.406 I0 J0.162
X-120 Y-14.65 Z-1.467 I0 J-0.162
X-120 Y-14.325 Z-1.528 I0 J0.162
X-120 Y-14.65 Z-1.589 I0 J-0.162
X-120 Y-14.325 Z-1.65 I0 J0.162
X-120 Y-14.65 Z-1.711 I0 J-0.162
X-120 Y-14.325 Z-1.772 I0 J0.162
X-120 Y-14.65 Z-1.833 I0 J-0.162
X-120 Y-14.325 Z-1.894 I0 J0.162
X-120 Y-14.65 Z-1.956 I0 J-0.162
X-120 Y-14.325 Z-2.017 I0 J0.162
X-120 Y-14.65 Z-2.078 I0 J-0.162
X-120 Y-14.325 Z-2.139 I0 J0.162
X-120 Y-14.65 Z-2.2 I0 J-0.162
X-120 Y-14.325 Z-2.261 I0 J0.162
X-120.148 Y-14.555 Z-2.3 I0 J-0.162
X-119.852 Y-14.42 I0.148 J0.067
X-120.148 Y-14.555 I-0.148 J-0.067
G1 X-120.129 Y-14.581
X-120.102 Y-14.597
X-120.071 Y-14.602
X-120.04 Y-14.595
X-119.896 Y-14.529
Z5
X-120.081 Y-33.41
Z1.683
Z0
Y-33.569
X-120.075 Y-33.6
X-120.057 Y-33.626
X-120.031 Y-33.644
X-120 Y-33.65
G3 X-120 Y-33.325 Z-0.061 I0 J0.162
X-120 Y-33.65 Z-0.122 I0 J-0.162
X-120 Y-33.325 Z-0.183 I0 J0.162
X-120 Y-33.65 Z-0.244 I0 J-0.162
X-120 Y-33.325 Z-0.306 I0 J0.162
X-120 Y-33.65 Z-0.367 I0 J-0.162
X-120 Y-33.325 Z-0.428 I0 J0.162
X-120 Y-33.65 Z-0.489 I0 J-0.162
X-120 Y-33.325 Z-0.55 I0 J0.162
X-120 Y-33.65 Z-0.611 I0 J-0.162
X-120 Y-33.325 Z-0.672 I0 J0.162
X-120 Y-33.65 Z-0.733 I0 J-0.162
X-120 Y-33.325 Z-0.794 I0 J0.162
X-120 Y-33.65 Z-0.856 I0 J-0.162
X-120 Y-33.325 Z-0.917 I0 J0.162
X-120 Y-33.65 Z-0.978 I0 J-0.162
X-120 Y-33.325 Z-1.039 I0 J0.162
X-120 Y-33.65 Z-1.1 I0 J-0.162
X-120 Y-33.325 Z-1.161 I0 J0.162
X-120 Y-33.65 Z-1.222 I0 J-0.162
X-120 Y-33.325 Z-1.283 I0 J0.162
X-120 Y-33.65 Z-1.344 I0 J-0.162
X-120 Y-33.325 Z-1.406 I0 J0.162
X-120 Y-33.65 Z-1.467 I0 J-0.162
X-120 Y-33.325 Z-1.528 I0 J0.162
X-120 Y-33.65 Z-1.589 I0 J-0.162
X-120 Y-33.325 Z-1.65 I0 J0.162
X-120 Y-33.65 Z-1.711 I0 J-0.162
X-120 Y-33.325 Z-1.772 I0 J0.162
X-120 Y-33.65 Z-1.833 I0 J-0.162
X-120 Y-33.325 Z-1.894 I0 J0.162
X-120 Y-33.65 Z-1.956 I0 J-0.162
X-120 Y-33.325 Z-2.017 I0 J0.162
X-120 Y-33.65 Z-2.078 I0 J-0.162
X-120 Y-33.325 Z-2.139 I0 J0.162
X-120 Y-33.65 Z-2.2 I0 J-0.162
X-120 Y-33.325 Z-2.261 I0 J0.162
X-120.148 Y-33.555 Z-2.3 I0 J-0.162
X-119.852 Y-33.42 I0.148 J0.067
X-120.148 Y-33.555 I-0.148 J-0.067
G1 X-120.129 Y-33.581
X-120.102 Y-33.597
X-120.071 Y-33.602
X-120.04 Y-33.595
X-119.896 Y-33.529
Z5
X-133.801 Y-57.415
Z1.683
Z0
Y-57.573
X-133.795 Y-57.604
X-133.777 Y-57.631
X-133.751 Y-57.648
X-133.72 Y-57.655
G3 X-133.72 Y-57.33 Z-0.061 I0 J0.162
X-133.72 Y-57.655 Z-0.122 I0 J-0.162
X-133.72 Y-57.33 Z-0.183 I0 J0.162
X-133.72 Y-57.655 Z-0.244 I0 J-0.162
X-133.72 Y-57.33 Z-0.306 I0 J0.162
X-133.72 Y-57.655 Z-0.367 I0 J-0.163
X-133.72 Y-57.33 Z-0.428 I0 J0.163
X-133.72 Y-57.655 Z-0.489 I0 J-0.163
X-133.72 Y-57.33 Z-0.55 I0 J0.163
X-133.72 Y-57.655 Z-0.611 I0 J-0.163
X-133.72 Y-57.33 Z-0.672 I0 J0.163
X-133.72 Y-57.655 Z-0.733 I0 J-0.163
X-133.72 Y-57.33 Z-0.794 I0 J0.163
X-133.72 Y-57.655 Z-0.856 I0 J-0.163
X-133.72 Y-57.33 Z-0.917 I0 J0.163
X-133.72 Y-57.655 Z-0.978 I0 J-0.163
X-133.72 Y-57.33 Z-1.039 I0 J0.163
X-133.72 Y-57.655 Z-1.1 I0 J-0.163
X-133.72 Y-57.33 Z-1.161 I0 J0.163
X-133.72 Y-57.655 Z-1.222 I0 J-0.163
X-133.72 Y-57.33 Z-1.283 I0 J0.163
X-133.72 Y-57.655 Z-1.344 I0 J-0.163
X-133.72 Y-57.33 Z-1.406 I0 J0.163
X-133.72 Y-57.655 Z-1.467 I0 J-0.163
X-133.72 Y-57.33 Z-1.528 I0 J0.163
X-133.72 Y-57.655 Z-1.589 I0 J-0.163
X-133.72 Y-57.33 Z-1.65 I0 J0.163
X-133.72 Y-57.655 Z-1.711 I0 J-0.163
X-133.72 Y-57.33 Z-1.772 I0 J0.163
X-133.72 Y-57.655 Z-1.833 I0 J-0.163
X-133.72 Y-57.33 Z-1.894 I0 J0.163
X-133.72 Y-57.655 Z-1.956 I0 J-0.163
X-133.72 Y-57.33 Z-2.017 I0 J0.163
X-133.72 Y-57.655 Z-2.078 I0 J-0.163
X-133.72 Y-57.33 Z-2.139 I0 J0.163
X-133.72 Y-57.655 Z-2.2 I0 J-0.163
X-133.72 Y-57.33 Z-2.261 I0 J0.163
X-133.868 Y-57.56 Z-2.3 I0 J-0.163
X-133.572 Y-57.425 I0.148 J0.067
X-133.868 Y-57.56 I-0.148 J-0.067
G1 X-133.849 Y-57.585
X-133.822 Y-57.602
X-133.791 Y-57.607
X-133.76 Y-57.6
X-133.616 Y-57.534
Z5
X-145.081 Y-71.442
Z1.683
Z0
Y-71.6
X-145.075 Y-71.631
X-145.057 Y-71.658
X-145.031 Y-71.675
X-145 Y-71.682
G3 X-145 Y-71.357 Z-0.061 I0 J0.162
X-145 Y-71.682 Z-0.122 I0 J-0.162
X-145 Y-71.357 Z-0.183 I0 J0.162
X-145 Y-71.682 Z-0.244 I0 J-0.162
X-145 Y-71.357 Z-0.306 I0 J0.162
X-145 Y-71.682 Z-0.367 I0 J-0.162
X-145 Y-71.357 Z-0.428 I0 J0.162
X-145 Y-71.682 Z-0.489 I0 J-0.162
X-145 Y-71.357 Z-0.55 I0 J0.162
X-145 Y-71.682 Z-0.611 I0 J-0.162
X-145 Y-71.357 Z-0.672 I0 J0.162
X-145 Y-71.682 Z-0.733 I0 J-0.162
X-145 Y-71.357 Z-0.794 I0 J0.162
X-145 Y-71.682 Z-0.856 I0 J-0.162
X-145 Y-71.357 Z-0.917 I0 J0.162
X-145 Y-71.682 Z-0.978 I0 J-0.162
X-145 Y-71.357 Z-1.039 I0 J0.162
X-145 Y-71.682 Z-1.1 I0 J-0.162
X-145 Y-71.357 Z-1.161 I0 J0.162
X-145 Y-71.682 Z-1.222 I0 J-0.162
X-145 Y-71.357 Z-1.283 I0 J0.162
X-145 Y-71.682 Z-1.344 I0 J-0.162
X-145 Y-71.357 Z-1.406 I0 J0.162
X-145 Y-71.682 Z-1.467 I0 J-0.162
X-145 Y-71.357 Z-1.528 I0 J0.162
X-145 Y-71.682 Z-1.589 I0 J-0.162
X-145 Y-71.357 Z-1.65 I0 J0.162
X-145 Y-71.682 Z-1.711 I0 J-0.162
X-145 Y-71.357 Z-1.772 I0 J0.162
X-145 Y-71.682 Z-1.833 I0 J-0.162
X-145 Y-71.357 Z-1.894 I0 J0.162
X-145 Y-71.682 Z-1.956 I0 J-0.162
X-145 Y-71.357 Z-2.017 I0 J0.162
X-145 Y-71.682 Z-2.078 I0 J-0.162
X-145 Y-71.357 Z-2.139 I0 J0.162
X-145 Y-71.682 Z-2.2 I0 J-0.162
X-145 Y-71.357 Z-2.261 I0 J0.162
X-145.148 Y-71.587 Z-2.3 I0 J-0.162
X-144.852 Y-71.452 I0.148 J0.067
X-145.148 Y-71.587 I-0.148 J-0.067
G1 X-145.129 Y-71.612
X-145.102 Y-71.629
X-145.071 Y-71.634
X-145.04 Y-71.627
X-144.896 Y-71.561
Z5
X-155.344 Y-90.606
Z2
Z0.317
G19 G2 Y-90.924 Z0 J-0.317 K0
G1 Y-91.083
G17 G3 X-155.027 Y-91.4 I0.317 J0
X-155.027 Y-76.575 Z-0.314 I0 J7.412
X-155.027 Y-91.4 Z-0.629 I0 J-7.412
X-155.027 Y-76.575 Z-0.943 I0 J7.412
X-155.027 Y-91.4 Z-1.257 I0 J-7.412
X-155.027 Y-76.575 Z-1.571 I0 J7.412
X-155.027 Y-91.4 Z-1.886 I0 J-7.412
X-155.027 Y-76.575 Z-2.2 I0 J7.412
X-161.262 Y-79.979 Z-2.3 I0 J-7.412
X-148.791 Y-87.996 I6.235 J-4.008
X-161.262 Y-79.979 I-6.235 J4.008
X-161.167 Y-80.418 I0.267 J-0.172
G1 X-161.033 Y-80.504
X-160.974 Y-80.542 Z-2.292
X-160.917 Y-80.579 Z-2.269
X-160.867 Y-80.611 Z-2.231
X-160.825 Y-80.638 Z-2.18
X-160.793 Y-80.659 Z-2.12
X-160.773 Y-80.671 Z-2.053
X-160.766 Y-80.676 Z-1.982
Z5
X-145.081 Y-96.379
Z1.683
Z0
Y-96.537
X-145.075 Y-96.568
X-145.057 Y-96.595
X-145.031 Y-96.612
X-145 Y-96.619
G3 X-145 Y-96.294 Z-0.061 I0 J0.162
X-145 Y-96.619 Z-0.122 I0 J-0.162
X-145 Y-96.294 Z-0.183 I0 J0.162
X-145 Y-96.619 Z-0.244 I0 J-0.162
X-145 Y-96.294 Z-0.306 I0 J0.162
X-145 Y-96.619 Z-0.367 I0 J-0.162
X-145 Y-96.294 Z-0.428 I0 J0.162
X-145 Y-96.619 Z-0.489 I0 J-0.162
X-145 Y-96.294 Z-0.55 I0 J0.162
X-145 Y-96.619 Z-0.611 I0 J-0.162
X-145 Y-96.294 Z-0.672 I0 J0.162
X-145 Y-96.619 Z-0.733 I0 J-0.162
X-145 Y-96.294 Z-0.794 I0 J0.162
X-145 Y-96.619 Z-0.856 I0 J-0.162
X-145 Y-96.294 Z-0.917 I0 J0.162
X-145 Y-96.619 Z-0.978 I0 J-0.162
X-145 Y-96.294 Z-1.039 I0 J0.162
X-145 Y-96.619 Z-1.1 I0 J-0.162
X-145 Y-96.294 Z-1.161 I0 J0.162
X-145 Y-96.619 Z-1.222 I0 J-0.162
X-145 Y-96.294 Z-1.283 I0 J0.162
X-145 Y-96.619 Z-1.344 I0 J-0.162
X-145 Y-96.294 Z-1.406 I0 J0.162
X-145 Y-96.619 Z-1.467 I0 J-0.162
X-145 Y-96.294 Z-1.528 I0 J0.162
X-145 Y-96.619 Z-1.589 I0 J-0.162
X-145 Y-96.294 Z-1.65 I0 J0.162
X-145 Y-96.619 Z-1.711 I0 J-0.162
X-145 Y-96.294 Z-1.772 I0 J0.162
X-145 Y-96.619 Z-1.833 I0 J-0.162
X-145 Y-96.294 Z-1.894 I0 J0.162
X-145 Y-96.619 Z-1.956 I0 J-0.162
X-145 Y-96.294 Z-2.017 I0 J0.162
X-145 Y-96.619 Z-2.078 I0 J-0.162
X-145 Y-96.294 Z-2.139 I0 J0.162
X-145 Y-96.619 Z-2.2 I0 J-0.162
X-145 Y-96.294 Z-2.261 I0 J0.162
X-145.148 Y-96.523 Z-2.3 I0 J-0.162
X-144.852 Y-96.389 I0.148 J0.067
X-145.148 Y-96.523 I-0.148 J-0.067
G1 X-145.129 Y-96.549
X-145.102 Y-96.566
X-145.071 Y-96.571
X-145.04 Y-96.564
X-144.896 Y-96.498
Z5
X-133.801 Y-110.406
Z1.683
Z0
Y-110.564
X-133.795 Y-110.595
X-133.777 Y-110.622
X-133.751 Y-110.639
X-133.72 Y-110.646
G3 X-133.72 Y-110.321 Z-0.061 I0 J0.162
X-133.72 Y-110.646 Z-0.122 I0 J-0.162
X-133.72 Y-110.321 Z-0.183 I0 J0.162
X-133.72 Y-110.646 Z-0.244 I0 J-0.162
X-133.72 Y-110.321 Z-0.306 I0 J0.162
X-133.72 Y-110.646 Z-0.367 I0 J-0.163
X-133.72 Y-110.321 Z-0.428 I0 J0.163
X-133.72 Y-110.646 Z-0.489 I0 J-0.163
X-133.72 Y-110.321 Z-0.55 I0 J0.163
X-133.72 Y-110.646 Z-0.611 I0 J-0.163
X-133.72 Y-110.321 Z-0.672 I0 J0.163
X-133.72 Y-110.646 Z-0.733 I0 J-0.163
X-133.72 Y-110.321 Z-0.794 I0 J0.163
X-133.72 Y-110.646 Z-0.856 I0 J-0.163
X-133.72 Y-110.321 Z-0.917 I0 J0.163
X-133.72 Y-110.646 Z-0.978 I0 J-0.163
X-133.72 Y-110.321 Z-1.039 I0 J0.163
X-133.72 Y-110.646 Z-1.1 I0 J-0.163
X-133.72 Y-110.321 Z-1.161 I0 J0.163
X-133.72 Y-110.646 Z-1.222 I0 J-0.163
X-133.72 Y-110.321 Z-1.283 I0 J0.163
X-133.72 Y-110.646 Z-1.344 I0 J-0.163
X-133.72 Y-110.321 Z-1.406 I0 J0.163
X-133.72 Y-110.646 Z-1.467 I0 J-0.163
X-133.72 Y-110.321 Z-1.528 I0 J0.163
X-133.72 Y-110.646 Z-1.589 I0 J-0.163
X-133.72 Y-110.321 Z-1.65 I0 J0.163
X-133.72 Y-110.646 Z-1.711 I0 J-0.163
X-133.72 Y-110.321 Z-1.772 I0 J0.163
X-133.72 Y-110.646 Z-1.833 I0 J-0.163
X-133.72 Y-110.321 Z-1.894 I0 J0.163
X-133.72 Y-110.646 Z-1.956 I0 J-0.163
X-133.72 Y-110.321 Z-2.017 I0 J0.163
X-133.72 Y-110.646 Z-2.078 I0 J-0.163
X-133.72 Y-110.321 Z-2.139 I0 J0.163
X-133.72 Y-110.646 Z-2.2 I0 J-0.163
X-133.72 Y-110.321 Z-2.261 I0 J0.163
X-133.868 Y-110.55 Z-2.3 I0 J-0.163
X-133.572 Y-110.416 I0.148 J0.067
X-133.868 Y-110.55 I-0.148 J-0.067
G1 X-133.849 Y-110.576
X-133.822 Y-110.593
X-133.791 Y-110.598
X-133.76 Y-110.591
X-133.616 Y-110.525
Z5
X-249.367 Y-69.66
Z1.683
Z0
Y-69.819
X-249.361 Y-69.85
X-249.343 Y-69.876
X-249.317 Y-69.894
X-249.286 Y-69.9
G3 X-249.286 Y-69.575 Z-0.061 I0 J0.162
X-249.286 Y-69.9 Z-0.122 I0 J-0.162
X-249.286 Y-69.575 Z-0.183 I0 J0.162
X-249.286 Y-69.9 Z-0.244 I0 J-0.162
X-249.286 Y-69.575 Z-0.306 I0 J0.162
X-249.286 Y-69.9 Z-0.367 I0 J-0.162
X-249.286 Y-69.575 Z-0.428 I0 J0.162
X-249.286 Y-69.9 Z-0.489 I0 J-0.162
X-249.286 Y-69.575 Z-0.55 I0 J0.162
X-249.286 Y-69.9 Z-0.611 I0 J-0.162
X-249.286 Y-69.575 Z-0.672 I0 J0.162
X-249.286 Y-69.9 Z-0.733 I0 J-0.162
X-249.286 Y-69.575 Z-0.794 I0 J0.162
X-249.286 Y-69.9 Z-0.856 I0 J-0.162
X-249.286 Y-69.575 Z-0.917 I0 J0.162
X-249.286 Y-69.9 Z-0.978 I0 J-0.162
X-249.286 Y-69.575 Z-1.039 I0 J0.162
X-249.286 Y-69.9 Z-1.1 I0 J-0.162
X-249.286 Y-69.575 Z-1.161 I0 J0.162
X-249.286 Y-69.9 Z-1.222 I0 J-0.162
X-249.286 Y-69.575 Z-1.283 I0 J0.162
X-249.286 Y-69.9 Z-1.344 I0 J-0.162
X-249.286 Y-69.575 Z-1.406 I0 J0.162
X-249.286 Y-69.9 Z-1.467 I0 J-0.162
X-249.286 Y-69.575 Z-1.528 I0 J0.162
X-249.286 Y-69.9 Z-1.589 I0 J-0.162
X-249.286 Y-69.575 Z-1.65 I0 J0.162
X-249.286 Y-69.9 Z-1.711 I0 J-0.162
X-249.286 Y-69.575 Z-1.772 I0 J0.162
X-249.286 Y-69.9 Z-1.833 I0 J-0.162
X-249.286 Y-69.575 Z-1.894 I0 J0.162
X-249.286 Y-69.9 Z-1.956 I0 J-0.162
X-249.286 Y-69.575 Z-2.017 I0 J0.162
X-249.286 Y-69.9 Z-2.078 I0 J-0.162
X-249.286 Y-69.575 Z-2.139 I0 J0.162
X-249.286 Y-69.9 Z-2.2 I0 J-0.162
X-249.286 Y-69.575 Z-2.261 I0 J0.162
X-249.434 Y-69.805 Z-2.3 I0 J-0.162
X-249.138 Y-69.67 I0.148 J0.067
X-249.434 Y-69.805 I-0.148 J-0.067
G1 X-249.415 Y-69.831
X-249.388 Y-69.847
X-249.357 Y-69.852
X-249.326 Y-69.845
X-249.182 Y-69.779
Z5
X-249.367 Y-98.16
Z1.683
Z0
Y-98.319
X-249.361 Y-98.35
X-249.343 Y-98.376
X-249.317 Y-98.394
X-249.286 Y-98.4
G3 X-249.286 Y-98.075 Z-0.061 I0 J0.162
X-249.286 Y-98.4 Z-0.122 I0 J-0.162
X-249.286 Y-98.075 Z-0.183 I0 J0.162
X-249.286 Y-98.4 Z-0.244 I0 J-0.162
X-249.286 Y-98.075 Z-0.306 I0 J0.162
X-249.286 Y-98.4 Z-0.367 I0 J-0.162
X-249.286 Y-98.075 Z-0.428 I0 J0.162
X-249.286 Y-98.4 Z-0.489 I0 J-0.162
X-249.286 Y-98.075 Z-0.55 I0 J0.162
X-249.286 Y-98.4 Z-0.611 I0 J-0.162
X-249.286 Y-98.075 Z-0.672 I0 J0.162
X-249.286 Y-98.4 Z-0.733 I0 J-0.162
X-249.286 Y-98.075 Z-0.794 I0 J0.162
X-249.286 Y-98.4 Z-0.856 I0 J-0.162
X-249.286 Y-98.075 Z-0.917 I0 J0.162
X-249.286 Y-98.4 Z-0.978 I0 J-0.162
X-249.286 Y-98.075 Z-1.039 I0 J0.162
X-249.286 Y-98.4 Z-1.1 I0 J-0.162
X-249.286 Y-98.075 Z-1.161 I0 J0.162
X-249.286 Y-98.4 Z-1.222 I0 J-0.162
X-249.286 Y-98.075 Z-1.283 I0 J0.162
X-249.286 Y-98.4 Z-1.344 I0 J-0.162
X-249.286 Y-98.075 Z-1.406 I0 J0.162
X-249.286 Y-98.4 Z-1.467 I0 J-0.162
X-249.286 Y-98.075 Z-1.528 I0 J0.162
X-249.286 Y-98.4 Z-1.589 I0 J-0.162
X-249.286 Y-98.075 Z-1.65 I0 J0.162
X-249.286 Y-98.4 Z-1.711 I0 J-0.162
X-249.286 Y-98.075 Z-1.772 I0 J0.162
X-249.286 Y-98.4 Z-1.833 I0 J-0.162
X-249.286 Y-98.075 Z-1.894 I0 J0.162
X-249.286 Y-98.4 Z-1.956 I0 J-0.162
X-249.286 Y-98.075 Z-2.017 I0 J0.162
X-249.286 Y-98.4 Z-2.078 I0 J-0.162
X-249.286 Y-98.075 Z-2.139 I0 J0.162
X-249.286 Y-98.4 Z-2.2 I0 J-0.162
X-249.286 Y-98.075 Z-2.261 I0 J0.162
X-249.434 Y-98.305 Z-2.3 I0 J-0.162
X-249.138 Y-98.17 I0.148 J0.067
X-249.434 Y-98.305 I-0.148 J-0.067
G1 X-249.415 Y-98.331
X-249.388 Y-98.347
X-249.357 Y-98.352
X-249.326 Y-98.345
X-249.182 Y-98.279
Z5
X-195.336 Y-98.16
Z1.683
Z0
Y-98.319
X-195.33 Y-98.35
X-195.312 Y-98.376
X-195.286 Y-98.394
X-195.255 Y-98.4
G3 X-195.255 Y-98.075 Z-0.061 I0 J0.162
X-195.255 Y-98.4 Z-0.122 I0 J-0.162
X-195.255 Y-98.075 Z-0.183 I0 J0.162
X-195.255 Y-98.4 Z-0.244 I0 J-0.162
X-195.255 Y-98.075 Z-0.306 I0 J0.162
X-195.255 Y-98.4 Z-0.367 I0 J-0.162
X-195.255 Y-98.075 Z-0.428 I0 J0.162
X-195.255 Y-98.4 Z-0.489 I0 J-0.162
X-195.255 Y-98.075 Z-0.55 I0 J0.162
X-195.255 Y-98.4 Z-0.611 I0 J-0.162
X-195.255 Y-98.075 Z-0.672 I0 J0.162
X-195.255 Y-98.4 Z-0.733 I0 J-0.162
X-195.255 Y-98.075 Z-0.794 I0 J0.162
X-195.255 Y-98.4 Z-0.856 I0 J-0.162
X-195.255 Y-98.075 Z-0.917 I0 J0.162
X-195.255 Y-98.4 Z-0.978 I0 J-0.162
X-195.255 Y-98.075 Z-1.039 I0 J0.162
X-195.255 Y-98.4 Z-1.1 I0 J-0.162
X-195.255 Y-98.075 Z-1.161 I0 J0.162
X-195.255 Y-98.4 Z-1.222 I0 J-0.162
X-195.255 Y-98.075 Z-1.283 I0 J0.162
X-195.255 Y-98.4 Z-1.344 I0 J-0.162
X-195.255 Y-98.075 Z-1.406 I0 J0.162
X-195.255 Y-98.4 Z-1.467 I0 J-0.162
X-195.255 Y-98.075 Z-1.528 I0 J0.162
X-195.255 Y-98.4 Z-1.589 I0 J-0.162
X-195.255 Y-98.075 Z-1.65 I0 J0.162
X-195.255 Y-98.4 Z-1.711 I0 J-0.162
X-195.255 Y-98.075 Z-1.772 I0 J0.162
X-195.255 Y-98.4 Z-1.833 I0 J-0.162
X-195.255 Y-98.075 Z-1.894 I0 J0.162
X-195.255 Y-98.4 Z-1.956 I0 J-0.162
X-195.255 Y-98.075 Z-2.017 I0 J0.162
X-195.255 Y-98.4 Z-2.078 I0 J-0.162
X-195.255 Y-98.075 Z-2.139 I0 J0.162
X-195.255 Y-98.4 Z-2.2 I0 J-0.162
X-195.255 Y-98.075 Z-2.261 I0 J0.162
X-195.403 Y-98.305 Z-2.3 I0 J-0.162
X-195.107 Y-98.17 I0.148 J0.067
X-195.403 Y-98.305 I-0.148 J-0.067
G1 X-195.384 Y-98.331
X-195.357 Y-98.347
X-195.326 Y-98.352
X-195.295 Y-98.345
X-195.151 Y-98.279
Z5
X-176.415 Y-110.406
Z1.683
Z0
Y-110.564
X-176.409 Y-110.595
X-176.391 Y-110.622
X-176.365 Y-110.639
X-176.334 Y-110.646
G3 X-176.334 Y-110.321 Z-0.061 I0 J0.162
X-176.334 Y-110.646 Z-0.122 I0 J-0.162
X-176.334 Y-110.321 Z-0.183 I0 J0.162
X-176.334 Y-110.646 Z-0.244 I0 J-0.162
X-176.334 Y-110.321 Z-0.306 I0 J0.162
X-176.334 Y-110.646 Z-0.367 I0 J-0.162
X-176.334 Y-110.321 Z-0.428 I0 J0.162
X-176.334 Y-110.646 Z-0.489 I0 J-0.162
X-176.334 Y-110.321 Z-0.55 I0 J0.162
X-176.334 Y-110.646 Z-0.611 I0 J-0.162
X-176.334 Y-110.321 Z-0.672 I0 J0.162
X-176.334 Y-110.646 Z-0.733 I0 J-0.162
X-176.334 Y-110.321 Z-0.794 I0 J0.162
X-176.334 Y-110.646 Z-0.856 I0 J-0.162
X-176.334 Y-110.321 Z-0.917 I0 J0.162
X-176.334 Y-110.646 Z-0.978 I0 J-0.162
X-176.334 Y-110.321 Z-1.039 I0 J0.162
X-176.334 Y-110.646 Z-1.1 I0 J-0.162
X-176.334 Y-110.321 Z-1.161 I0 J0.162
X-176.334 Y-110.646 Z-1.222 I0 J-0.162
X-176.334 Y-110.321 Z-1.283 I0 J0.162
X-176.334 Y-110.646 Z-1.344 I0 J-0.162
X-176.334 Y-110.321 Z-1.406 I0 J0.162
X-176.334 Y-110.646 Z-1.467 I0 J-0.162
X-176.334 Y-110.321 Z-1.528 I0 J0.162
X-176.334 Y-110.646 Z-1.589 I0 J-0.162
X-176.334 Y-110.321 Z-1.65 I0 J0.162
X-176.334 Y-110.646 Z-1.711 I0 J-0.162
X-176.334 Y-110.321 Z-1.772 I0 J0.162
X-176.334 Y-110.646 Z-1.833 I0 J-0.162
X-176.334 Y-110.321 Z-1.894 I0 J0.162
X-176.334 Y-110.646 Z-1.956 I0 J-0.162
X-176.334 Y-110.321 Z-2.017 I0 J0.162
X-176.334 Y-110.646 Z-2.078 I0 J-0.162
X-176.334 Y-110.321 Z-2.139 I0 J0.162
X-176.334 Y-110.646 Z-2.2 I0 J-0.162
X-176.334 Y-110.321 Z-2.261 I0 J0.162
X-176.482 Y-110.55 Z-2.3 I0 J-0.162
X-176.186 Y-110.416 I0.148 J0.067
X-176.482 Y-110.55 I-0.148 J-0.067
G1 X-176.463 Y-110.576
X-176.436 Y-110.593
X-176.405 Y-110.598
X-176.374 Y-110.591
X-176.23 Y-110.525
Z5
X-165.135 Y-96.379
Z1.683
Z0
Y-96.537
X-165.129 Y-96.568
X-165.111 Y-96.595
X-165.085 Y-96.612
X-165.054 Y-96.619
G3 X-165.054 Y-96.294 Z-0.061 I0 J0.162
X-165.054 Y-96.619 Z-0.122 I0 J-0.162
X-165.054 Y-96.294 Z-0.183 I0 J0.162
X-165.054 Y-96.619 Z-0.244 I0 J-0.162
X-165.054 Y-96.294 Z-0.306 I0 J0.162
X-165.054 Y-96.619 Z-0.367 I0 J-0.162
X-165.054 Y-96.294 Z-0.428 I0 J0.162
X-165.054 Y-96.619 Z-0.489 I0 J-0.162
X-165.054 Y-96.294 Z-0.55 I0 J0.162
X-165.054 Y-96.619 Z-0.611 I0 J-0.162
X-165.054 Y-96.294 Z-0.672 I0 J0.162
X-165.054 Y-96.619 Z-0.733 I0 J-0.162
X-165.054 Y-96.294 Z-0.794 I0 J0.162
X-165.054 Y-96.619 Z-0.856 I0 J-0.162
X-165.054 Y-96.294 Z-0.917 I0 J0.162
X-165.054 Y-96.619 Z-0.978 I0 J-0.162
X-165.054 Y-96.294 Z-1.039 I0 J0.162
X-165.054 Y-96.619 Z-1.1 I0 J-0.162
X-165.054 Y-96.294 Z-1.161 I0 J0.162
X-165.054 Y-96.619 Z-1.222 I0 J-0.162
X-165.054 Y-96.294 Z-1.283 I0 J0.162
X-165.054 Y-96.619 Z-1.344 I0 J-0.162
X-165.054 Y-96.294 Z-1.406 I0 J0.162
X-165.054 Y-96.619 Z-1.467 I0 J-0.162
X-165.054 Y-96.294 Z-1.528 I0 J0.162
X-165.054 Y-96.619 Z-1.589 I0 J-0.162
X-165.054 Y-96.294 Z-1.65 I0 J0.162
X-165.054 Y-96.619 Z-1.711 I0 J-0.162
X-165.054 Y-96.294 Z-1.772 I0 J0.162
X-165.054 Y-96.619 Z-1.833 I0 J-0.162
X-165.054 Y-96.294 Z-1.894 I0 J0.162
X-165.054 Y-96.619 Z-1.956 I0 J-0.162
X-165.054 Y-96.294 Z-2.017 I0 J0.162
X-165.054 Y-96.619 Z-2.078 I0 J-0.162
X-165.054 Y-96.294 Z-2.139 I0 J0.162
X-165.054 Y-96.619 Z-2.2 I0 J-0.162
X-165.054 Y-96.294 Z-2.261 I0 J0.162
X-165.202 Y-96.523 Z-2.3 I0 J-0.162
X-164.906 Y-96.389 I0.148 J0.067
X-165.202 Y-96.523 I-0.148 J-0.067
G1 X-165.183 Y-96.549
X-165.156 Y-96.566
X-165.125 Y-96.571
X-165.094 Y-96.564
X-164.949 Y-96.498
Z5
X-174.983 Y-91.718
Z2
Z0.317
G19 G2 Y-92.035 Z0 J-0.318 K0
G1 Y-92.194
G17 G3 X-174.777 Y-92.4 I0.206 J0
X-174.777 Y-91.575 Z-0.07 I0 J0.412
X-174.777 Y-92.4 Z-0.14 I0 J-0.412
X-174.777 Y-91.575 Z-0.21 I0 J0.412
X-174.777 Y-92.4 Z-0.279 I0 J-0.412
X-174.777 Y-91.575 Z-0.349 I0 J0.412
X-174.777 Y-92.4 Z-0.419 I0 J-0.412
X-174.777 Y-91.575 Z-0.489 I0 J0.412
X-174.777 Y-92.4 Z-0.559 I0 J-0.412
X-174.777 Y-91.575 Z-0.629 I0 J0.412
X-174.777 Y-92.4 Z-0.698 I0 J-0.412
X-174.777 Y-91.575 Z-0.768 I0 J0.412
X-174.777 Y-92.4 Z-0.838 I0 J-0.412
X-174.777 Y-91.575 Z-0.908 I0 J0.412
X-174.777 Y-92.4 Z-0.978 I0 J-0.412
X-174.777 Y-91.575 Z-1.048 I0 J0.412
X-174.777 Y-92.4 Z-1.117 I0 J-0.412
X-174.777 Y-91.575 Z-1.187 I0 J0.412
X-174.777 Y-92.4 Z-1.257 I0 J-0.412
X-174.777 Y-91.575 Z-1.327 I0 J0.412
X-174.777 Y-92.4 Z-1.397 I0 J-0.412
X-174.777 Y-91.575 Z-1.467 I0 J0.412
X-174.777 Y-92.4 Z-1.537 I0 J-0.412
X-174.777 Y-91.575 Z-1.606 I0 J0.412
X-174.777 Y-92.4 Z-1.676 I0 J-0.412
X-174.777 Y-91.575 Z-1.746 I0 J0.412
X-174.777 Y-92.4 Z-1.816 I0 J-0.412
X-174.777 Y-91.575 Z-1.886 I0 J0.412
X-174.777 Y-92.4 Z-1.956 I0 J-0.412
X-174.777 Y-91.575 Z-2.025 I0 J0.412
X-174.777 Y-92.4 Z-2.095 I0 J-0.412
X-174.777 Y-91.575 Z-2.165 I0 J0.412
X-174.777 Y-92.4 Z-2.235 I0 J-0.413
X-174.689 Y-91.585 Z-2.3 I0 J0.413
X-174.865 Y-92.391 I-0.088 J-0.403
X-174.689 Y-91.585 I0.088 J0.403
X-174.934 Y-91.742 I-0.044 J-0.202
G1 X-174.968 Y-91.897
X-174.983 Y-91.966 Z-2.292
X-174.998 Y-92.032 Z-2.269
X-175.01 Y-92.091 Z-2.231
X-175.021 Y-92.14 Z-2.18
X-175.029 Y-92.177 Z-2.12
X-175.034 Y-92.2 Z-2.053
X-175.036 Y-92.207 Z-1.982
Z5
X-174.983 Y-75.718
Z2
Z0.317
G19 G2 Y-76.035 Z0 J-0.318 K0
G1 Y-76.194
G17 G3 X-174.777 Y-76.4 I0.206 J0
X-174.777 Y-75.575 Z-0.07 I0 J0.412
X-174.777 Y-76.4 Z-0.14 I0 J-0.412
X-174.777 Y-75.575 Z-0.21 I0 J0.412
X-174.777 Y-76.4 Z-0.279 I0 J-0.412
X-174.777 Y-75.575 Z-0.349 I0 J0.412
X-174.777 Y-76.4 Z-0.419 I0 J-0.412
X-174.777 Y-75.575 Z-0.489 I0 J0.412
X-174.777 Y-76.4 Z-0.559 I0 J-0.412
X-174.777 Y-75.575 Z-0.629 I0 J0.412
X-174.777 Y-76.4 Z-0.698 I0 J-0.412
X-174.777 Y-75.575 Z-0.768 I0 J0.412
X-174.777 Y-76.4 Z-0.838 I0 J-0.412
X-174.777 Y-75.575 Z-0.908 I0 J0.412
X-174.777 Y-76.4 Z-0.978 I0 J-0.412
X-174.777 Y-75.575 Z-1.048 I0 J0.412
X-174.777 Y-76.4 Z-1.117 I0 J-0.412
X-174.777 Y-75.575 Z-1.187 I0 J0.412
X-174.777 Y-76.4 Z-1.257 I0 J-0.412
X-174.777 Y-75.575 Z-1.327 I0 J0.412
X-174.777 Y-76.4 Z-1.397 I0 J-0.412
X-174.777 Y-75.575 Z-1.467 I0 J0.412
X-174.777 Y-76.4 Z-1.537 I0 J-0.412
X-174.777 Y-75.575 Z-1.606 I0 J0.412
X-174.777 Y-76.4 Z-1.676 I0 J-0.412
X-174.777 Y-75.575 Z-1.746 I0 J0.412
X-174.777 Y-76.4 Z-1.816 I0 J-0.412
X-174.777 Y-75.575 Z-1.886 I0 J0.412
X-174.777 Y-76.4 Z-1.956 I0 J-0.412
X-174.777 Y-75.575 Z-2.025 I0 J0.412
X-174.777 Y-76.4 Z-2.095 I0 J-0.412
X-174.777 Y-75.575 Z-2.165 I0 J0.412
X-174.777 Y-76.4 Z-2.235 I0 J-0.413
X-174.689 Y-75.585 Z-2.3 I0 J0.413
X-174.865 Y-76.391 I-0.088 J-0.403
X-174.689 Y-75.585 I0.088 J0.403
X-174.934 Y-75.742 I-0.044 J-0.202
G1 X-174.968 Y-75.897
X-174.983 Y-75.966 Z-2.292
X-174.998 Y-76.032 Z-2.269
X-175.01 Y-76.091 Z-2.231
X-175.021 Y-76.14 Z-2.18
X-175.029 Y-76.177 Z-2.12
X-175.034 Y-76.2 Z-2.053
X-175.036 Y-76.207 Z-1.982
Z5
X-165.135 Y-71.442
Z1.683
Z0
Y-71.6
X-165.129 Y-71.631
X-165.111 Y-71.658
X-165.085 Y-71.675
X-165.054 Y-71.682
G3 X-165.054 Y-71.357 Z-0.061 I0 J0.162
X-165.054 Y-71.682 Z-0.122 I0 J-0.162
X-165.054 Y-71.357 Z-0.183 I0 J0.162
X-165.054 Y-71.682 Z-0.244 I0 J-0.162
X-165.054 Y-71.357 Z-0.306 I0 J0.162
X-165.054 Y-71.682 Z-0.367 I0 J-0.162
X-165.054 Y-71.357 Z-0.428 I0 J0.162
X-165.054 Y-71.682 Z-0.489 I0 J-0.162
X-165.054 Y-71.357 Z-0.55 I0 J0.162
X-165.054 Y-71.682 Z-0.611 I0 J-0.162
X-165.054 Y-71.357 Z-0.672 I0 J0.162
X-165.054 Y-71.682 Z-0.733 I0 J-0.162
X-165.054 Y-71.357 Z-0.794 I0 J0.162
X-165.054 Y-71.682 Z-0.856 I0 J-0.162
X-165.054 Y-71.357 Z-0.917 I0 J0.162
X-165.054 Y-71.682 Z-0.978 I0 J-0.162
X-165.054 Y-71.357 Z-1.039 I0 J0.162
X-165.054 Y-71.682 Z-1.1 I0 J-0.162
X-165.054 Y-71.357 Z-1.161 I0 J0.162
X-165.054 Y-71.682 Z-1.222 I0 J-0.162
X-165.054 Y-71.357 Z-1.283 I0 J0.162
X-165.054 Y-71.682 Z-1.344 I0 J-0.162
X-165.054 Y-71.357 Z-1.406 I0 J0.162
X-165.054 Y-71.682 Z-1.467 I0 J-0.162
X-165.054 Y-71.357 Z-1.528 I0 J0.162
X-165.054 Y-71.682 Z-1.589 I0 J-0.162
X-165.054 Y-71.357 Z-1.65 I0 J0.162
X-165.054 Y-71.682 Z-1.711 I0 J-0.162
X-165.054 Y-71.357 Z-1.772 I0 J0.162
X-165.054 Y-71.682 Z-1.833 I0 J-0.162
X-165.054 Y-71.357 Z-1.894 I0 J0.162
X-165.054 Y-71.682 Z-1.956 I0 J-0.162
X-165.054 Y-71.357 Z-2.017 I0 J0.162
X-165.054 Y-71.682 Z-2.078 I0 J-0.162
X-165.054 Y-71.357 Z-2.139 I0 J0.162
X-165.054 Y-71.682 Z-2.2 I0 J-0.162
X-165.054 Y-71.357 Z-2.261 I0 J0.162
X-165.202 Y-71.587 Z-2.3 I0 J-0.162
X-164.906 Y-71.452 I0.148 J0.067
X-165.202 Y-71.587 I-0.148 J-0.067
G1 X-165.183 Y-71.612
X-165.156 Y-71.629
X-165.125 Y-71.634
X-165.094 Y-71.627
X-164.949 Y-71.561
Z5
X-176.415 Y-57.415
Z1.683
Z0
Y-57.573
X-176.409 Y-57.604
X-176.391 Y-57.631
X-176.365 Y-57.648
X-176.334 Y-57.655
G3 X-176.334 Y-57.33 Z-0.061 I0 J0.162
X-176.334 Y-57.655 Z-0.122 I0 J-0.162
X-176.334 Y-57.33 Z-0.183 I0 J0.162
X-176.334 Y-57.655 Z-0.244 I0 J-0.162
X-176.334 Y-57.33 Z-0.306 I0 J0.162
X-176.334 Y-57.655 Z-0.367 I0 J-0.162
X-176.334 Y-57.33 Z-0.428 I0 J0.162
X-176.334 Y-57.655 Z-0.489 I0 J-0.162
X-176.334 Y-57.33 Z-0.55 I0 J0.162
X-176.334 Y-57.655 Z-0.611 I0 J-0.162
X-176.334 Y-57.33 Z-0.672 I0 J0.162
X-176.334 Y-57.655 Z-0.733 I0 J-0.162
X-176.334 Y-57.33 Z-0.794 I0 J0.162
X-176.334 Y-57.655 Z-0.856 I0 J-0.162
X-176.334 Y-57.33 Z-0.917 I0 J0.162
X-176.334 Y-57.655 Z-0.978 I0 J-0.162
X-176.334 Y-57.33 Z-1.039 I0 J0.162
X-176.334 Y-57.655 Z-1.1 I0 J-0.162
X-176.334 Y-57.33 Z-1.161 I0 J0.162
X-176.334 Y-57.655 Z-1.222 I0 J-0.162
X-176.334 Y-57.33 Z-1.283 I0 J0.162
X-176.334 Y-57.655 Z-1.344 I0 J-0.162
X-176.334 Y-57.33 Z-1.406 I0 J0.162
X-176.334 Y-57.655 Z-1.467 I0 J-0.162
X-176.334 Y-57.33 Z-1.528 I0 J0.162
X-176.334 Y-57.655 Z-1.589 I0 J-0.162
X-176.334 Y-57.33 Z-1.65 I0 J0.162
X-176.334 Y-57.655 Z-1.711 I0 J-0.162
X-176.334 Y-57.33 Z-1.772 I0 J0.162
X-176.334 Y-57.655 Z-1.833 I0 J-0.162
X-176.334 Y-57.33 Z-1.894 I0 J0.162
X-176.334 Y-57.655 Z-1.956 I0 J-0.162
X-176.334 Y-57.33 Z-2.017 I0 J0.162
X-176.334 Y-57.655 Z-2.078 I0 J-0.162
X-176.334 Y-57.33 Z-2.139 I0 J0.162
X-176.334 Y-57.655 Z-2.2 I0 J-0.162
X-176.334 Y-57.33 Z-2.261 I0 J0.162
X-176.482 Y-57.56 Z-2.3 I0 J-0.162
X-176.186 Y-57.425 I0.148 J0.067
X-176.482 Y-57.56 I-0.148 J-0.067
G1 X-176.463 Y-57.585
X-176.436 Y-57.602
X-176.405 Y-57.607
X-176.374 Y-57.6
X-176.23 Y-57.534
Z5
X-195.336 Y-69.66
Z1.683
Z0
Y-69.819
X-195.33 Y-69.85
X-195.312 Y-69.876
X-195.286 Y-69.894
X-195.255 Y-69.9
G3 X-195.255 Y-69.575 Z-0.061 I0 J0.162
X-195.255 Y-69.9 Z-0.122 I0 J-0.162
X-195.255 Y-69.575 Z-0.183 I0 J0.162
X-195.255 Y-69.9 Z-0.244 I0 J-0.162
X-195.255 Y-69.575 Z-0.306 I0 J0.162
X-195.255 Y-69.9 Z-0.367 I0 J-0.162
X-195.255 Y-69.575 Z-0.428 I0 J0.162
X-195.255 Y-69.9 Z-0.489 I0 J-0.162
X-195.255 Y-69.575 Z-0.55 I0 J0.162
X-195.255 Y-69.9 Z-0.611 I0 J-0.162
X-195.255 Y-69.575 Z-0.672 I0 J0.162
X-195.255 Y-69.9 Z-0.733 I0 J-0.162
X-195.255 Y-69.575 Z-0.794 I0 J0.162
X-195.255 Y-69.9 Z-0.856 I0 J-0.162
X-195.255 Y-69.575 Z-0.917 I0 J0.162
X-195.255 Y-69.9 Z-0.978 I0 J-0.162
X-195.255 Y-69.575 Z-1.039 I0 J0.162
X-195.255 Y-69.9 Z-1.1 I0 J-0.162
X-195.255 Y-69.575 Z-1.161 I0 J0.162
X-195.255 Y-69.9 Z-1.222 I0 J-0.162
X-195.255 Y-69.575 Z-1.283 I0 J0.162
X-195.255 Y-69.9 Z-1.344 I0 J-0.162
X-195.255 Y-69.575 Z-1.406 I0 J0.162
X-195.255 Y-69.9 Z-1.467 I0 J-0.162
X-195.255 Y-69.575 Z-1.528 I0 J0.162
X-195.255 Y-69.9 Z-1.589 I0 J-0.162
X-195.255 Y-69.575 Z-1.65 I0 J0.162
X-195.255 Y-69.9 Z-1.711 I0 J-0.162
X-195.255 Y-69.575 Z-1.772 I0 J0.162
X-195.255 Y-69.9 Z-1.833 I0 J-0.162
X-195.255 Y-69.575 Z-1.894 I0 J0.162
X-195.255 Y-69.9 Z-1.956 I0 J-0.162
X-195.255 Y-69.575 Z-2.017 I0 J0.162
X-195.255 Y-69.9 Z-2.078 I0 J-0.162
X-195.255 Y-69.575 Z-2.139 I0 J0.162
X-195.255 Y-69.9 Z-2.2 I0 J-0.162
X-195.255 Y-69.575 Z-2.261 I0 J0.162
X-195.403 Y-69.805 Z-2.3 I0 J-0.162
X-195.107 Y-69.67 I0.148 J0.067
X-195.403 Y-69.805 I-0.148 J-0.067
G1 X-195.384 Y-69.831
X-195.357 Y-69.847
X-195.326 Y-69.852
X-195.295 Y-69.845
X-195.151 Y-69.779
Z5
X-195.336 Y-38.16
Z1.683
Z0
Y-38.319
X-195.33 Y-38.35
X-195.312 Y-38.376
X-195.286 Y-38.394
X-195.255 Y-38.4
G3 X-195.255 Y-38.075 Z-0.061 I0 J0.162
X-195.255 Y-38.4 Z-0.122 I0 J-0.162
X-195.255 Y-38.075 Z-0.183 I0 J0.162
X-195.255 Y-38.4 Z-0.244 I0 J-0.162
X-195.255 Y-38.075 Z-0.306 I0 J0.162
X-195.255 Y-38.4 Z-0.367 I0 J-0.162
X-195.255 Y-38.075 Z-0.428 I0 J0.162
X-195.255 Y-38.4 Z-0.489 I0 J-0.162
X-195.255 Y-38.075 Z-0.55 I0 J0.162
X-195.255 Y-38.4 Z-0.611 I0 J-0.162
X-195.255 Y-38.075 Z-0.672 I0 J0.162
X-195.255 Y-38.4 Z-0.733 I0 J-0.162
X-195.255 Y-38.075 Z-0.794 I0 J0.162
X-195.255 Y-38.4 Z-0.856 I0 J-0.162
X-195.255 Y-38.075 Z-0.917 I0 J0.162
X-195.255 Y-38.4 Z-0.978 I0 J-0.162
X-195.255 Y-38.075 Z-1.039 I0 J0.162
X-195.255 Y-38.4 Z-1.1 I0 J-0.162
X-195.255 Y-38.075 Z-1.161 I0 J0.162
X-195.255 Y-38.4 Z-1.222 I0 J-0.162
X-195.255 Y-38.075 Z-1.283 I0 J0.162
X-195.255 Y-38.4 Z-1.344 I0 J-0.162
X-195.255 Y-38.075 Z-1.406 I0 J0.162
X-195.255 Y-38.4 Z-1.467 I0 J-0.162
X-195.255 Y-38.075 Z-1.528 I0 J0.162
X-195.255 Y-38.4 Z-1.589 I0 J-0.162
X-195.255 Y-38.075 Z-1.65 I0 J0.162
X-195.255 Y-38.4 Z-1.711 I0 J-0.162
X-195.255 Y-38.075 Z-1.772 I0 J0.162
X-195.255 Y-38.4 Z-1.833 I0 J-0.162
X-195.255 Y-38.075 Z-1.894 I0 J0.162
X-195.255 Y-38.4 Z-1.956 I0 J-0.162
X-195.255 Y-38.075 Z-2.017 I0 J0.162
X-195.255 Y-38.4 Z-2.078 I0 J-0.162
X-195.255 Y-38.075 Z-2.139 I0 J0.162
X-195.255 Y-38.4 Z-2.2 I0 J-0.162
X-195.255 Y-38.075 Z-2.261 I0 J0.162
X-195.403 Y-38.305 Z-2.3 I0 J-0.162
X-195.107 Y-38.17 I0.148 J0.067
X-195.403 Y-38.305 I-0.148 J-0.067
G1 X-195.384 Y-38.331
X-195.357 Y-38.347
X-195.326 Y-38.352
X-195.295 Y-38.345
X-195.151 Y-38.279
Z5
X-225.367 Y-38.16
Z1.683
Z0
Y-38.319
X-225.361 Y-38.35
X-225.343 Y-38.376
X-225.317 Y-38.394
X-225.286 Y-38.4
G3 X-225.286 Y-38.075 Z-0.061 I0 J0.162
X-225.286 Y-38.4 Z-0.122 I0 J-0.162
X-225.286 Y-38.075 Z-0.183 I0 J0.162
X-225.286 Y-38.4 Z-0.244 I0 J-0.162
X-225.286 Y-38.075 Z-0.306 I0 J0.162
X-225.286 Y-38.4 Z-0.367 I0 J-0.162
X-225.286 Y-38.075 Z-0.428 I0 J0.162
X-225.286 Y-38.4 Z-0.489 I0 J-0.162
X-225.286 Y-38.075 Z-0.55 I0 J0.162
X-225.286 Y-38.4 Z-0.611 I0 J-0.162
X-225.286 Y-38.075 Z-0.672 I0 J0.162
X-225.286 Y-38.4 Z-0.733 I0 J-0.162
X-225.286 Y-38.075 Z-0.794 I0 J0.162
X-225.286 Y-38.4 Z-0.856 I0 J-0.162
X-225.286 Y-38.075 Z-0.917 I0 J0.162
X-225.286 Y-38.4 Z-0.978 I0 J-0.162
X-225.286 Y-38.075 Z-1.039 I0 J0.162
X-225.286 Y-38.4 Z-1.1 I0 J-0.162
X-225.286 Y-38.075 Z-1.161 I0 J0.162
X-225.286 Y-38.4 Z-1.222 I0 J-0.162
X-225.286 Y-38.075 Z-1.283 I0 J0.162
X-225.286 Y-38.4 Z-1.344 I0 J-0.162
X-225.286 Y-38.075 Z-1.406 I0 J0.162
X-225.286 Y-38.4 Z-1.467 I0 J-0.162
X-225.286 Y-38.075 Z-1.528 I0 J0.162
X-225.286 Y-38.4 Z-1.589 I0 J-0.162
X-225.286 Y-38.075 Z-1.65 I0 J0.162
X-225.286 Y-38.4 Z-1.711 I0 J-0.162
X-225.286 Y-38.075 Z-1.772 I0 J0.162
X-225.286 Y-38.4 Z-1.833 I0 J-0.162
X-225.286 Y-38.075 Z-1.894 I0 J0.162
X-225.286 Y-38.4 Z-1.956 I0 J-0.162
X-225.286 Y-38.075 Z-2.017 I0 J0.162
X-225.286 Y-38.4 Z-2.078 I0 J-0.162
X-225.286 Y-38.075 Z-2.139 I0 J0.162
X-225.286 Y-38.4 Z-2.2 I0 J-0.162
X-225.286 Y-38.075 Z-2.261 I0 J0.162
X-225.434 Y-38.305 Z-2.3 I0 J-0.162
X-225.138 Y-38.17 I0.148 J0.067
X-225.434 Y-38.305 I-0.148 J-0.067
G1 X-225.415 Y-38.331
X-225.388 Y-38.347
X-225.357 Y-38.352
X-225.326 Y-38.345
X-225.182 Y-38.279
Z5
X-249.367 Y-38.16
Z1.683
Z0
Y-38.319
X-249.361 Y-38.35
X-249.343 Y-38.376
X-249.317 Y-38.394
X-249.286 Y-38.4
G3 X-249.286 Y-38.075 Z-0.061 I0 J0.162
X-249.286 Y-38.4 Z-0.122 I0 J-0.162
X-249.286 Y-38.075 Z-0.183 I0 J0.162
X-249.286 Y-38.4 Z-0.244 I0 J-0.162
X-249.286 Y-38.075 Z-0.306 I0 J0.162
X-249.286 Y-38.4 Z-0.367 I0 J-0.162
X-249.286 Y-38.075 Z-0.428 I0 J0.162
X-249.286 Y-38.4 Z-0.489 I0 J-0.162
X-249.286 Y-38.075 Z-0.55 I0 J0.162
X-249.286 Y-38.4 Z-0.611 I0 J-0.162
X-249.286 Y-38.075 Z-0.672 I0 J0.162
X-249.286 Y-38.4 Z-0.733 I0 J-0.162
X-249.286 Y-38.075 Z-0.794 I0 J0.162
X-249.286 Y-38.4 Z-0.856 I0 J-0.162
X-249.286 Y-38.075 Z-0.917 I0 J0.162
X-249.286 Y-38.4 Z-0.978 I0 J-0.162
X-249.286 Y-38.075 Z-1.039 I0 J0.162
X-249.286 Y-38.4 Z-1.1 I0 J-0.162
X-249.286 Y-38.075 Z-1.161 I0 J0.162
X-249.286 Y-38.4 Z-1.222 I0 J-0.162
X-249.286 Y-38.075 Z-1.283 I0 J0.162
X-249.286 Y-38.4 Z-1.344 I0 J-0.162
X-249.286 Y-38.075 Z-1.406 I0 J0.162
X-249.286 Y-38.4 Z-1.467 I0 J-0.162
X-249.286 Y-38.075 Z-1.528 I0 J0.162
X-249.286 Y-38.4 Z-1.589 I0 J-0.162
X-249.286 Y-38.075 Z-1.65 I0 J0.162
X-249.286 Y-38.4 Z-1.711 I0 J-0.162
X-249.286 Y-38.075 Z-1.772 I0 J0.162
X-249.286 Y-38.4 Z-1.833 I0 J-0.162
X-249.286 Y-38.075 Z-1.894 I0 J0.162
X-249.286 Y-38.4 Z-1.956 I0 J-0.162
X-249.286 Y-38.075 Z-2.017 I0 J0.162
X-249.286 Y-38.4 Z-2.078 I0 J-0.162
X-249.286 Y-38.075 Z-2.139 I0 J0.162
X-249.286 Y-38.4 Z-2.2 I0 J-0.162
X-249.286 Y-38.075 Z-2.261 I0 J0.162
X-249.434 Y-38.305 Z-2.3 I0 J-0.162
X-249.138 Y-38.17 I0.148 J0.067
X-249.434 Y-38.305 I-0.148 J-0.067
G1 X-249.415 Y-38.331
X-249.388 Y-38.347
X-249.357 Y-38.352
X-249.326 Y-38.345
X-249.182 Y-38.279
Z5
X-249.367 Y-9.66
Z1.683
Z0
Y-9.819
X-249.361 Y-9.85
X-249.343 Y-9.876
X-249.317 Y-9.894
X-249.286 Y-9.9
G3 X-249.286 Y-9.575 Z-0.061 I0 J0.162
X-249.286 Y-9.9 Z-0.122 I0 J-0.162
X-249.286 Y-9.575 Z-0.183 I0 J0.162
X-249.286 Y-9.9 Z-0.244 I0 J-0.162
X-249.286 Y-9.575 Z-0.306 I0 J0.162
X-249.286 Y-9.9 Z-0.367 I0 J-0.162
X-249.286 Y-9.575 Z-0.428 I0 J0.162
X-249.286 Y-9.9 Z-0.489 I0 J-0.162
X-249.286 Y-9.575 Z-0.55 I0 J0.162
X-249.286 Y-9.9 Z-0.611 I0 J-0.162
X-249.286 Y-9.575 Z-0.672 I0 J0.162
X-249.286 Y-9.9 Z-0.733 I0 J-0.162
X-249.286 Y-9.575 Z-0.794 I0 J0.162
X-249.286 Y-9.9 Z-0.856 I0 J-0.162
X-249.286 Y-9.575 Z-0.917 I0 J0.162
X-249.286 Y-9.9 Z-0.978 I0 J-0.162
X-249.286 Y-9.575 Z-1.039 I0 J0.162
X-249.286 Y-9.9 Z-1.1 I0 J-0.162
X-249.286 Y-9.575 Z-1.161 I0 J0.162
X-249.286 Y-9.9 Z-1.222 I0 J-0.162
X-249.286 Y-9.575 Z-1.283 I0 J0.162
X-249.286 Y-9.9 Z-1.344 I0 J-0.162
X-249.286 Y-9.575 Z-1.406 I0 J0.162
X-249.286 Y-9.9 Z-1.467 I0 J-0.162
X-249.286 Y-9.575 Z-1.528 I0 J0.162
X-249.286 Y-9.9 Z-1.589 I0 J-0.162
X-249.286 Y-9.575 Z-1.65 I0 J0.162
X-249.286 Y-9.9 Z-1.711 I0 J-0.162
X-249.286 Y-9.575 Z-1.772 I0 J0.162
X-249.286 Y-9.9 Z-1.833 I0 J-0.162
X-249.286 Y-9.575 Z-1.894 I0 J0.162
X-249.286 Y-9.9 Z-1.956 I0 J-0.162
X-249.286 Y-9.575 Z-2.017 I0 J0.162
X-249.286 Y-9.9 Z-2.078 I0 J-0.162
X-249.286 Y-9.575 Z-2.139 I0 J0.162
X-249.286 Y-9.9 Z-2.2 I0 J-0.162
X-249.286 Y-9.575 Z-2.261 I0 J0.162
X-249.434 Y-9.805 Z-2.3 I0 J-0.162
X-249.138 Y-9.67 I0.148 J0.067
X-249.434 Y-9.805 I-0.148 J-0.067
G1 X-249.415 Y-9.831
X-249.388 Y-9.847
X-249.357 Y-9.852
X-249.326 Y-9.845
X-249.182 Y-9.779
Z5
X-225.367 Y-9.66
Z1.683
Z0
Y-9.819
X-225.361 Y-9.85
X-225.343 Y-9.876
X-225.317 Y-9.894
X-225.286 Y-9.9
G3 X-225.286 Y-9.575 Z-0.061 I0 J0.162
X-225.286 Y-9.9 Z-0.122 I0 J-0.162
X-225.286 Y-9.575 Z-0.183 I0 J0.162
X-225.286 Y-9.9 Z-0.244 I0 J-0.162
X-225.286 Y-9.575 Z-0.306 I0 J0.162
X-225.286 Y-9.9 Z-0.367 I0 J-0.162
X-225.286 Y-9.575 Z-0.428 I0 J0.162
X-225.286 Y-9.9 Z-0.489 I0 J-0.162
X-225.286 Y-9.575 Z-0.55 I0 J0.162
X-225.286 Y-9.9 Z-0.611 I0 J-0.162
X-225.286 Y-9.575 Z-0.672 I0 J0.162
X-225.286 Y-9.9 Z-0.733 I0 J-0.162
X-225.286 Y-9.575 Z-0.794 I0 J0.162
X-225.286 Y-9.9 Z-0.856 I0 J-0.162
X-225.286 Y-9.575 Z-0.917 I0 J0.162
X-225.286 Y-9.9 Z-0.978 I0 J-0.162
X-225.286 Y-9.575 Z-1.039 I0 J0.162
X-225.286 Y-9.9 Z-1.1 I0 J-0.162
X-225.286 Y-9.575 Z-1.161 I0 J0.162
X-225.286 Y-9.9 Z-1.222 I0 J-0.162
X-225.286 Y-9.575 Z-1.283 I0 J0.162
X-225.286 Y-9.9 Z-1.344 I0 J-0.162
X-225.286 Y-9.575 Z-1.406 I0 J0.162
X-225.286 Y-9.9 Z-1.467 I0 J-0.162
X-225.286 Y-9.575 Z-1.528 I0 J0.162
X-225.286 Y-9.9 Z-1.589 I0 J-0.162
X-225.286 Y-9.575 Z-1.65 I0 J0.162
X-225.286 Y-9.9 Z-1.711 I0 J-0.162
X-225.286 Y-9.575 Z-1.772 I0 J0.162
X-225.286 Y-9.9 Z-1.833 I0 J-0.162
X-225.286 Y-9.575 Z-1.894 I0 J0.162
X-225.286 Y-9.9 Z-1.956 I0 J-0.162
X-225.286 Y-9.575 Z-2.017 I0 J0.162
X-225.286 Y-9.9 Z-2.078 I0 J-0.162
X-225.286 Y-9.575 Z-2.139 I0 J0.162
X-225.286 Y-9.9 Z-2.2 I0 J-0.162
X-225.286 Y-9.575 Z-2.261 I0 J0.162
X-225.434 Y-9.805 Z-2.3 I0 J-0.162
X-225.138 Y-9.67 I0.148 J0.067
X-225.434 Y-9.805 I-0.148 J-0.067
G1 X-225.415 Y-9.831
X-225.388 Y-9.847
X-225.357 Y-9.852
X-225.326 Y-9.845
X-225.182 Y-9.779
Z5
X-195.336 Y-9.66
Z1.683
Z0
Y-9.819
X-195.33 Y-9.85
X-195.312 Y-9.876
X-195.286 Y-9.894
X-195.255 Y-9.9
G3 X-195.255 Y-9.575 Z-0.061 I0 J0.162
X-195.255 Y-9.9 Z-0.122 I0 J-0.162
X-195.255 Y-9.575 Z-0.183 I0 J0.162
X-195.255 Y-9.9 Z-0.244 I0 J-0.162
X-195.255 Y-9.575 Z-0.306 I0 J0.162
X-195.255 Y-9.9 Z-0.367 I0 J-0.162
X-195.255 Y-9.575 Z-0.428 I0 J0.162
X-195.255 Y-9.9 Z-0.489 I0 J-0.162
X-195.255 Y-9.575 Z-0.55 I0 J0.162
X-195.255 Y-9.9 Z-0.611 I0 J-0.162
X-195.255 Y-9.575 Z-0.672 I0 J0.162
X-195.255 Y-9.9 Z-0.733 I0 J-0.162
X-195.255 Y-9.575 Z-0.794 I0 J0.162
X-195.255 Y-9.9 Z-0.856 I0 J-0.162
X-195.255 Y-9.575 Z-0.917 I0 J0.162
X-195.255 Y-9.9 Z-0.978 I0 J-0.162
X-195.255 Y-9.575 Z-1.039 I0 J0.162
X-195.255 Y-9.9 Z-1.1 I0 J-0.162
X-195.255 Y-9.575 Z-1.161 I0 J0.162
X-195.255 Y-9.9 Z-1.222 I0 J-0.162
X-195.255 Y-9.575 Z-1.283 I0 J0.162
X-195.255 Y-9.9 Z-1.344 I0 J-0.162
X-195.255 Y-9.575 Z-1.406 I0 J0.162
X-195.255 Y-9.9 Z-1.467 I0 J-0.162
X-195.255 Y-9.575 Z-1.528 I0 J0.162
X-195.255 Y-9.9 Z-1.589 I0 J-0.162
X-195.255 Y-9.575 Z-1.65 I0 J0.162
X-195.255 Y-9.9 Z-1.711 I0 J-0.162
X-195.255 Y-9.575 Z-1.772 I0 J0.162
X-195.255 Y-9.9 Z-1.833 I0 J-0.162
X-195.255 Y-9.575 Z-1.894 I0 J0.162
X-195.255 Y-9.9 Z-1.956 I0 J-0.162
X-195.255 Y-9.575 Z-2.017 I0 J0.162
X-195.255 Y-9.9 Z-2.078 I0 J-0.162
X-195.255 Y-9.575 Z-2.139 I0 J0.162
X-195.255 Y-9.9 Z-2.2 I0 J-0.162
X-195.255 Y-9.575 Z-2.261 I0 J0.162
X-195.403 Y-9.805 Z-2.3 I0 J-0.162
X-195.107 Y-9.67 I0.148 J0.067
X-195.403 Y-9.805 I-0.148 J-0.067
G1 X-195.384 Y-9.831
X-195.357 Y-9.847
X-195.326 Y-9.852
X-195.295 Y-9.845
X-195.151 Y-9.779
Z15
(When using Fusion for Personal Use, the feedrate of rapid)
(moves is reduced to match the feedrate of cutting moves,)
(which can increase machining time. Unrestricted rapid moves)
(are available with a Fusion Subscription.)

(Bohrfrsen4)
G0 X-74.037 Y-57.361
G1 Z15 F1000
Z2
Z0.317
G19 G2 Y-57.678 Z0 J-0.318 K0
G1 Y-57.837
G17 G3 X-73.72 Y-58.155 I0.317 J0
X-73.72 Y-56.83 Z-0.079 I0 J0.662
X-73.72 Y-58.155 Z-0.157 I0 J-0.662
X-73.72 Y-56.83 Z-0.236 I0 J0.662
X-73.72 Y-58.155 Z-0.314 I0 J-0.662
X-73.72 Y-56.83 Z-0.393 I0 J0.663
X-73.72 Y-58.155 Z-0.471 I0 J-0.663
X-73.72 Y-56.83 Z-0.55 I0 J0.663
X-73.72 Y-58.155 Z-0.629 I0 J-0.663
X-73.533 Y-56.856 Z-0.7 I0 J0.663
X-73.907 Y-58.128 I-0.187 J-0.636
X-73.533 Y-56.856 I0.187 J0.636
X-73.927 Y-57.072 I-0.089 J-0.305
G1 X-73.972 Y-57.224
X-73.992 Y-57.292 Z-0.692
X-74.011 Y-57.356 Z-0.669
X-74.028 Y-57.414 Z-0.631
X-74.042 Y-57.462 Z-0.58
X-74.053 Y-57.498 Z-0.52
X-74.059 Y-57.521 Z-0.453
X-74.061 Y-57.529 Z-0.382
Z5
X-85.317 Y-71.388
Z2
Z0.317
G19 G2 Y-71.705 Z0 J-0.317 K0
G1 Y-71.864
G17 G3 X-85 Y-72.182 I0.317 J0
X-85 Y-70.857 Z-0.079 I0 J0.662
X-85 Y-72.182 Z-0.157 I0 J-0.662
X-85 Y-70.857 Z-0.236 I0 J0.662
X-85 Y-72.182 Z-0.314 I0 J-0.662
X-85 Y-70.857 Z-0.393 I0 J0.662
X-85 Y-72.182 Z-0.471 I0 J-0.662
X-85 Y-70.857 Z-0.55 I0 J0.662
X-85 Y-72.182 Z-0.629 I0 J-0.662
X-84.813 Y-70.883 Z-0.7 I0 J0.662
X-85.187 Y-72.155 I-0.187 J-0.636
X-84.813 Y-70.883 I0.187 J0.636
X-85.207 Y-71.099 I-0.089 J-0.305
G1 X-85.252 Y-71.251
X-85.272 Y-71.319 Z-0.692
X-85.291 Y-71.383 Z-0.669
X-85.308 Y-71.441 Z-0.631
X-85.322 Y-71.489 Z-0.58
X-85.333 Y-71.525 Z-0.52
X-85.339 Y-71.548 Z-0.453
X-85.342 Y-71.556 Z-0.382
Z5
X-105.371 Y-71.388
Z2
Z0.317
G19 G2 Y-71.705 Z0 J-0.317 K0
G1 Y-71.864
G17 G3 X-105.054 Y-72.182 I0.318 J0
X-105.054 Y-70.857 Z-0.079 I0 J0.662
X-105.054 Y-72.182 Z-0.157 I0 J-0.662
X-105.054 Y-70.857 Z-0.236 I0 J0.662
X-105.054 Y-72.182 Z-0.314 I0 J-0.662
X-105.054 Y-70.857 Z-0.393 I0 J0.662
X-105.054 Y-72.182 Z-0.471 I0 J-0.662
X-105.054 Y-70.857 Z-0.55 I0 J0.662
X-105.054 Y-72.182 Z-0.629 I0 J-0.662
X-104.867 Y-70.883 Z-0.7 I0 J0.662
X-105.24 Y-72.155 I-0.187 J-0.636
X-104.867 Y-70.883 I0.187 J0.636
X-105.261 Y-71.099 I-0.089 J-0.305
G1 X-105.306 Y-71.251
X-105.326 Y-71.319 Z-0.692
X-105.345 Y-71.383 Z-0.669
X-105.362 Y-71.441 Z-0.631
X-105.376 Y-71.489 Z-0.58
X-105.386 Y-71.525 Z-0.52
X-105.393 Y-71.548 Z-0.453
X-105.395 Y-71.556 Z-0.382
Z5
X-116.651 Y-57.361
Z2
Z0.317
G19 G2 Y-57.678 Z0 J-0.318 K0
G1 Y-57.837
G17 G3 X-116.334 Y-58.155 I0.318 J0
X-116.334 Y-56.83 Z-0.079 I0 J0.662
X-116.334 Y-58.155 Z-0.157 I0 J-0.662
X-116.334 Y-56.83 Z-0.236 I0 J0.662
X-116.334 Y-58.155 Z-0.314 I0 J-0.662
X-116.334 Y-56.83 Z-0.393 I0 J0.663
X-116.334 Y-58.155 Z-0.471 I0 J-0.663
X-116.334 Y-56.83 Z-0.55 I0 J0.663
X-116.334 Y-58.155 Z-0.629 I0 J-0.663
X-116.147 Y-56.856 Z-0.7 I0 J0.663
X-116.521 Y-58.128 I-0.187 J-0.636
X-116.147 Y-56.856 I0.187 J0.636
X-116.541 Y-57.072 I-0.089 J-0.305
G1 X-116.586 Y-57.224
X-116.606 Y-57.292 Z-0.692
X-116.625 Y-57.356 Z-0.669
X-116.642 Y-57.414 Z-0.631
X-116.656 Y-57.462 Z-0.58
X-116.667 Y-57.498 Z-0.52
X-116.673 Y-57.521 Z-0.453
X-116.676 Y-57.529 Z-0.382
Z5
X-116.651 Y-110.352
Z2
Z0.317
G19 G2 Y-110.669 Z0 J-0.317 K0
G1 Y-110.828
G17 G3 X-116.334 Y-111.146 I0.318 J0
X-116.334 Y-109.821 Z-0.079 I0 J0.662
X-116.334 Y-111.146 Z-0.157 I0 J-0.662
X-116.334 Y-109.821 Z-0.236 I0 J0.662
X-116.334 Y-111.146 Z-0.314 I0 J-0.662
X-116.334 Y-109.821 Z-0.393 I0 J0.662
X-116.334 Y-111.146 Z-0.471 I0 J-0.662
X-116.334 Y-109.821 Z-0.55 I0 J0.662
X-116.334 Y-111.146 Z-0.629 I0 J-0.662
X-116.147 Y-109.847 Z-0.7 I0 J0.662
X-116.521 Y-111.119 I-0.187 J-0.636
X-116.147 Y-109.847 I0.187 J0.636
X-116.541 Y-110.063 I-0.089 J-0.305
G1 X-116.586 Y-110.215
X-116.606 Y-110.283 Z-0.692
X-116.625 Y-110.347 Z-0.669
X-116.642 Y-110.405 Z-0.631
X-116.656 Y-110.453 Z-0.58
X-116.667 Y-110.489 Z-0.52
X-116.673 Y-110.512 Z-0.453
X-116.676 Y-110.519 Z-0.382
Z5
X-105.371 Y-96.325
Z2
Z0.317
G19 G2 Y-96.642 Z0 J-0.317 K0
G1 Y-96.801
G17 G3 X-105.054 Y-97.119 I0.318 J0
X-105.054 Y-95.794 Z-0.079 I0 J0.662
X-105.054 Y-97.119 Z-0.157 I0 J-0.662
X-105.054 Y-95.794 Z-0.236 I0 J0.662
X-105.054 Y-97.119 Z-0.314 I0 J-0.662
X-105.054 Y-95.794 Z-0.393 I0 J0.662
X-105.054 Y-97.119 Z-0.471 I0 J-0.662
X-105.054 Y-95.794 Z-0.55 I0 J0.662
X-105.054 Y-97.119 Z-0.629 I0 J-0.662
X-104.867 Y-95.82 Z-0.7 I0 J0.662
X-105.24 Y-97.092 I-0.187 J-0.636
X-104.867 Y-95.82 I0.187 J0.636
X-105.261 Y-96.036 I-0.089 J-0.305
G1 X-105.306 Y-96.188
X-105.326 Y-96.256 Z-0.692
X-105.345 Y-96.32 Z-0.669
X-105.362 Y-96.378 Z-0.631
X-105.376 Y-96.426 Z-0.58
X-105.386 Y-96.462 Z-0.52
X-105.393 Y-96.485 Z-0.453
X-105.395 Y-96.492 Z-0.382
Z5
X-85.317 Y-96.325
Z2
Z0.317
G19 G2 Y-96.642 Z0 J-0.317 K0
G1 Y-96.801
G17 G3 X-85 Y-97.119 I0.317 J0
X-85 Y-95.794 Z-0.079 I0 J0.662
X-85 Y-97.119 Z-0.157 I0 J-0.662
X-85 Y-95.794 Z-0.236 I0 J0.662
X-85 Y-97.119 Z-0.314 I0 J-0.662
X-85 Y-95.794 Z-0.393 I0 J0.662
X-85 Y-97.119 Z-0.471 I0 J-0.662
X-85 Y-95.794 Z-0.55 I0 J0.662
X-85 Y-97.119 Z-0.629 I0 J-0.662
X-84.813 Y-95.82 Z-0.7 I0 J0.662
X-85.187 Y-97.092 I-0.187 J-0.636
X-84.813 Y-95.82 I0.187 J0.636
X-85.207 Y-96.036 I-0.089 J-0.305
G1 X-85.252 Y-96.188
X-85.272 Y-96.256 Z-0.692
X-85.291 Y-96.32 Z-0.669
X-85.308 Y-96.378 Z-0.631
X-85.322 Y-96.426 Z-0.58
X-85.333 Y-96.462 Z-0.52
X-85.339 Y-96.485 Z-0.453
X-85.342 Y-96.492 Z-0.382
Z5
X-74.037 Y-110.352
Z2
Z0.317
G19 G2 Y-110.669 Z0 J-0.317 K0
G1 Y-110.828
G17 G3 X-73.72 Y-111.146 I0.317 J0
X-73.72 Y-109.821 Z-0.079 I0 J0.662
X-73.72 Y-111.146 Z-0.157 I0 J-0.662
X-73.72 Y-109.821 Z-0.236 I0 J0.662
X-73.72 Y-111.146 Z-0.314 I0 J-0.662
X-73.72 Y-109.821 Z-0.393 I0 J0.662
X-73.72 Y-111.146 Z-0.471 I0 J-0.662
X-73.72 Y-109.821 Z-0.55 I0 J0.662
X-73.72 Y-111.146 Z-0.629 I0 J-0.662
X-73.533 Y-109.847 Z-0.7 I0 J0.662
X-73.907 Y-111.119 I-0.187 J-0.636
X-73.533 Y-109.847 I0.187 J0.636
X-73.927 Y-110.063 I-0.089 J-0.305
G1 X-73.972 Y-110.215
X-73.992 Y-110.283 Z-0.692
X-74.011 Y-110.347 Z-0.669
X-74.028 Y-110.405 Z-0.631
X-74.042 Y-110.453 Z-0.58
X-74.053 Y-110.489 Z-0.52
X-74.059 Y-110.512 Z-0.453
X-74.061 Y-110.519 Z-0.382
Z15
(When using Fusion for Personal Use, the feedrate of rapid)
(moves is reduced to match the feedrate of cutting moves,)
(which can increase machining time. Unrestricted rapid moves)
(are available with a Fusion Subscription.)

(Bohrfrsen5)
G0 X-73.801 Y-57.415
G1 Z15 F1000
Z0.983
Z-0.7
Y-57.573
X-73.795 Y-57.604
X-73.777 Y-57.631
X-73.751 Y-57.648
X-73.72 Y-57.655
G3 X-73.72 Y-57.33 Z-0.761 I0 J0.162
X-73.72 Y-57.655 Z-0.822 I0 J-0.162
X-73.72 Y-57.33 Z-0.883 I0 J0.162
X-73.72 Y-57.655 Z-0.944 I0 J-0.162
X-73.72 Y-57.33 Z-1.006 I0 J0.162
X-73.72 Y-57.655 Z-1.067 I0 J-0.162
X-73.72 Y-57.33 Z-1.128 I0 J0.162
X-73.72 Y-57.655 Z-1.189 I0 J-0.162
X-73.72 Y-57.33 Z-1.25 I0 J0.162
X-73.72 Y-57.655 Z-1.311 I0 J-0.162
X-73.72 Y-57.33 Z-1.372 I0 J0.162
X-73.72 Y-57.655 Z-1.433 I0 J-0.162
X-73.72 Y-57.33 Z-1.494 I0 J0.162
X-73.72 Y-57.655 Z-1.556 I0 J-0.162
X-73.72 Y-57.33 Z-1.617 I0 J0.162
X-73.72 Y-57.655 Z-1.678 I0 J-0.162
X-73.72 Y-57.33 Z-1.739 I0 J0.162
X-73.72 Y-57.655 Z-1.8 I0 J-0.162
X-73.72 Y-57.33 Z-1.861 I0 J0.163
X-73.72 Y-57.655 Z-1.922 I0 J-0.163
X-73.72 Y-57.33 Z-1.983 I0 J0.163
X-73.72 Y-57.655 Z-2.044 I0 J-0.163
X-73.72 Y-57.33 Z-2.106 I0 J0.163
X-73.72 Y-57.655 Z-2.167 I0 J-0.163
X-73.72 Y-57.33 Z-2.228 I0 J0.163
X-73.72 Y-57.655 Z-2.289 I0 J-0.163
X-73.632 Y-57.629 Z-2.3 I0 J0.163
X-73.808 Y-57.355 I-0.088 J0.137
X-73.632 Y-57.629 I0.088 J-0.137
G1 X-73.609 Y-57.607
X-73.596 Y-57.578
Y-57.546
X-73.608 Y-57.517
X-73.693 Y-57.383
Z5
X-85.081 Y-71.442
Z0.983
Z-0.7
Y-71.6
X-85.075 Y-71.631
X-85.057 Y-71.658
X-85.031 Y-71.675
X-85 Y-71.682
G3 X-85 Y-71.357 Z-0.761 I0 J0.162
X-85 Y-71.682 Z-0.822 I0 J-0.162
X-85 Y-71.357 Z-0.883 I0 J0.162
X-85 Y-71.682 Z-0.944 I0 J-0.162
X-85 Y-71.357 Z-1.006 I0 J0.162
X-85 Y-71.682 Z-1.067 I0 J-0.162
X-85 Y-71.357 Z-1.128 I0 J0.162
X-85 Y-71.682 Z-1.189 I0 J-0.162
X-85 Y-71.357 Z-1.25 I0 J0.163
X-85 Y-71.682 Z-1.311 I0 J-0.163
X-85 Y-71.357 Z-1.372 I0 J0.163
X-85 Y-71.682 Z-1.433 I0 J-0.163
X-85 Y-71.357 Z-1.494 I0 J0.163
X-85 Y-71.682 Z-1.556 I0 J-0.163
X-85 Y-71.357 Z-1.617 I0 J0.163
X-85 Y-71.682 Z-1.678 I0 J-0.163
X-85 Y-71.357 Z-1.739 I0 J0.163
X-85 Y-71.682 Z-1.8 I0 J-0.163
X-85 Y-71.357 Z-1.861 I0 J0.163
X-85 Y-71.682 Z-1.922 I0 J-0.163
X-85 Y-71.357 Z-1.983 I0 J0.163
X-85 Y-71.682 Z-2.044 I0 J-0.163
X-85 Y-71.357 Z-2.106 I0 J0.163
X-85 Y-71.682 Z-2.167 I0 J-0.163
X-85 Y-71.357 Z-2.228 I0 J0.163
X-85 Y-71.682 Z-2.289 I0 J-0.163
X-84.912 Y-71.656 Z-2.3 I0 J0.163
X-85.088 Y-71.382 I-0.088 J0.137
X-84.912 Y-71.656 I0.088 J-0.137
G1 X-84.889 Y-71.634
X-84.877 Y-71.605
X-84.876 Y-71.573
X-84.888 Y-71.544
X-84.974 Y-71.41
Z5
X-105.135 Y-71.442
Z0.983
Z-0.7
Y-71.6
X-105.129 Y-71.631
X-105.111 Y-71.658
X-105.085 Y-71.675
X-105.054 Y-71.682
G3 X-105.054 Y-71.357 Z-0.761 I0 J0.162
X-105.054 Y-71.682 Z-0.822 I0 J-0.162
X-105.054 Y-71.357 Z-0.883 I0 J0.162
X-105.054 Y-71.682 Z-0.944 I0 J-0.162
X-105.054 Y-71.357 Z-1.006 I0 J0.162
X-105.054 Y-71.682 Z-1.067 I0 J-0.162
X-105.054 Y-71.357 Z-1.128 I0 J0.162
X-105.054 Y-71.682 Z-1.189 I0 J-0.162
X-105.054 Y-71.357 Z-1.25 I0 J0.162
X-105.054 Y-71.682 Z-1.311 I0 J-0.162
X-105.054 Y-71.357 Z-1.372 I0 J0.162
X-105.054 Y-71.682 Z-1.433 I0 J-0.162
X-105.054 Y-71.357 Z-1.494 I0 J0.162
X-105.054 Y-71.682 Z-1.556 I0 J-0.162
X-105.054 Y-71.357 Z-1.617 I0 J0.162
X-105.054 Y-71.682 Z-1.678 I0 J-0.162
X-105.054 Y-71.357 Z-1.739 I0 J0.162
X-105.054 Y-71.682 Z-1.8 I0 J-0.162
X-105.054 Y-71.357 Z-1.861 I0 J0.162
X-105.054 Y-71.682 Z-1.922 I0 J-0.162
X-105.054 Y-71.357 Z-1.983 I0 J0.162
X-105.054 Y-71.682 Z-2.044 I0 J-0.162
X-105.054 Y-71.357 Z-2.106 I0 J0.162
X-105.054 Y-71.682 Z-2.167 I0 J-0.162
X-105.054 Y-71.357 Z-2.228 I0 J0.162
X-105.054 Y-71.682 Z-2.289 I0 J-0.162
X-104.966 Y-71.656 Z-2.3 I0 J0.162
X-105.142 Y-71.382 I-0.088 J0.137
X-104.966 Y-71.656 I0.088 J-0.137
G1 X-104.943 Y-71.634
X-104.93 Y-71.605
Y-71.573
X-104.941 Y-71.544
X-105.027 Y-71.41
Z5
X-116.415 Y-57.415
Z0.983
Z-0.7
Y-57.573
X-116.409 Y-57.604
X-116.391 Y-57.631
X-116.365 Y-57.648
X-116.334 Y-57.655
G3 X-116.334 Y-57.33 Z-0.761 I0 J0.162
X-116.334 Y-57.655 Z-0.822 I0 J-0.162
X-116.334 Y-57.33 Z-0.883 I0 J0.162
X-116.334 Y-57.655 Z-0.944 I0 J-0.162
X-116.334 Y-57.33 Z-1.006 I0 J0.162
X-116.334 Y-57.655 Z-1.067 I0 J-0.162
X-116.334 Y-57.33 Z-1.128 I0 J0.162
X-116.334 Y-57.655 Z-1.189 I0 J-0.162
X-116.334 Y-57.33 Z-1.25 I0 J0.162
X-116.334 Y-57.655 Z-1.311 I0 J-0.162
X-116.334 Y-57.33 Z-1.372 I0 J0.162
X-116.334 Y-57.655 Z-1.433 I0 J-0.162
X-116.334 Y-57.33 Z-1.494 I0 J0.162
X-116.334 Y-57.655 Z-1.556 I0 J-0.162
X-116.334 Y-57.33 Z-1.617 I0 J0.162
X-116.334 Y-57.655 Z-1.678 I0 J-0.162
X-116.334 Y-57.33 Z-1.739 I0 J0.162
X-116.334 Y-57.655 Z-1.8 I0 J-0.162
X-116.334 Y-57.33 Z-1.861 I0 J0.162
X-116.334 Y-57.655 Z-1.922 I0 J-0.162
X-116.334 Y-57.33 Z-1.983 I0 J0.162
X-116.334 Y-57.655 Z-2.044 I0 J-0.162
X-116.334 Y-57.33 Z-2.106 I0 J0.162
X-116.334 Y-57.655 Z-2.167 I0 J-0.162
X-116.334 Y-57.33 Z-2.228 I0 J0.162
X-116.334 Y-57.655 Z-2.289 I0 J-0.162
X-116.246 Y-57.629 Z-2.3 I0 J0.162
X-116.422 Y-57.355 I-0.088 J0.137
X-116.246 Y-57.629 I0.088 J-0.137
G1 X-116.223 Y-57.607
X-116.211 Y-57.578
X-116.21 Y-57.546
X-116.222 Y-57.517
X-116.307 Y-57.383
Z5
X-116.415 Y-110.406
Z0.983
Z-0.7
Y-110.564
X-116.409 Y-110.595
X-116.391 Y-110.622
X-116.365 Y-110.639
X-116.334 Y-110.646
G3 X-116.334 Y-110.321 Z-0.761 I0 J0.162
X-116.334 Y-110.646 Z-0.822 I0 J-0.162
X-116.334 Y-110.321 Z-0.883 I0 J0.162
X-116.334 Y-110.646 Z-0.944 I0 J-0.162
X-116.334 Y-110.321 Z-1.006 I0 J0.162
X-116.334 Y-110.646 Z-1.067 I0 J-0.162
X-116.334 Y-110.321 Z-1.128 I0 J0.162
X-116.334 Y-110.646 Z-1.189 I0 J-0.162
X-116.334 Y-110.321 Z-1.25 I0 J0.162
X-116.334 Y-110.646 Z-1.311 I0 J-0.162
X-116.334 Y-110.321 Z-1.372 I0 J0.162
X-116.334 Y-110.646 Z-1.433 I0 J-0.162
X-116.334 Y-110.321 Z-1.494 I0 J0.162
X-116.334 Y-110.646 Z-1.556 I0 J-0.162
X-116.334 Y-110.321 Z-1.617 I0 J0.162
X-116.334 Y-110.646 Z-1.678 I0 J-0.162
X-116.334 Y-110.321 Z-1.739 I0 J0.162
X-116.334 Y-110.646 Z-1.8 I0 J-0.162
X-116.334 Y-110.321 Z-1.861 I0 J0.162
X-116.334 Y-110.646 Z-1.922 I0 J-0.162
X-116.334 Y-110.321 Z-1.983 I0 J0.162
X-116.334 Y-110.646 Z-2.044 I0 J-0.162
X-116.334 Y-110.321 Z-2.106 I0 J0.162
X-116.334 Y-110.646 Z-2.167 I0 J-0.162
X-116.334 Y-110.321 Z-2.228 I0 J0.162
X-116.334 Y-110.646 Z-2.289 I0 J-0.162
X-116.246 Y-110.62 Z-2.3 I0 J0.162
X-116.422 Y-110.346 I-0.088 J0.137
X-116.246 Y-110.62 I0.088 J-0.137
G1 X-116.223 Y-110.598
X-116.211 Y-110.569
X-116.21 Y-110.537
X-116.222 Y-110.507
X-116.307 Y-110.374
Z5
X-105.135 Y-96.379
Z0.983
Z-0.7
Y-96.537
X-105.129 Y-96.568
X-105.111 Y-96.595
X-105.085 Y-96.612
X-105.054 Y-96.619
G3 X-105.054 Y-96.294 Z-0.761 I0 J0.162
X-105.054 Y-96.619 Z-0.822 I0 J-0.162
X-105.054 Y-96.294 Z-0.883 I0 J0.162
X-105.054 Y-96.619 Z-0.944 I0 J-0.162
X-105.054 Y-96.294 Z-1.006 I0 J0.162
X-105.054 Y-96.619 Z-1.067 I0 J-0.162
X-105.054 Y-96.294 Z-1.128 I0 J0.162
X-105.054 Y-96.619 Z-1.189 I0 J-0.162
X-105.054 Y-96.294 Z-1.25 I0 J0.162
X-105.054 Y-96.619 Z-1.311 I0 J-0.162
X-105.054 Y-96.294 Z-1.372 I0 J0.162
X-105.054 Y-96.619 Z-1.433 I0 J-0.162
X-105.054 Y-96.294 Z-1.494 I0 J0.162
X-105.054 Y-96.619 Z-1.556 I0 J-0.162
X-105.054 Y-96.294 Z-1.617 I0 J0.162
X-105.054 Y-96.619 Z-1.678 I0 J-0.162
X-105.054 Y-96.294 Z-1.739 I0 J0.162
X-105.054 Y-96.619 Z-1.8 I0 J-0.162
X-105.054 Y-96.294 Z-1.861 I0 J0.162
X-105.054 Y-96.619 Z-1.922 I0 J-0.162
X-105.054 Y-96.294 Z-1.983 I0 J0.162
X-105.054 Y-96.619 Z-2.044 I0 J-0.162
X-105.054 Y-96.294 Z-2.106 I0 J0.162
X-105.054 Y-96.619 Z-2.167 I0 J-0.162
X-105.054 Y-96.294 Z-2.228 I0 J0.162
X-105.054 Y-96.619 Z-2.289 I0 J-0.162
X-104.966 Y-96.593 Z-2.3 I0 J0.162
X-105.142 Y-96.319 I-0.088 J0.137
X-104.966 Y-96.593 I0.088 J-0.137
G1 X-104.943 Y-96.571
X-104.93 Y-96.542
Y-96.51
X-104.941 Y-96.48
X-105.027 Y-96.347
Z5
X-85.081 Y-96.379
Z0.983
Z-0.7
Y-96.537
X-85.075 Y-96.568
X-85.057 Y-96.595
X-85.031 Y-96.612
X-85 Y-96.619
G3 X-85 Y-96.294 Z-0.761 I0 J0.162
X-85 Y-96.619 Z-0.822 I0 J-0.162
X-85 Y-96.294 Z-0.883 I0 J0.162
X-85 Y-96.619 Z-0.944 I0 J-0.162
X-85 Y-96.294 Z-1.006 I0 J0.162
X-85 Y-96.619 Z-1.067 I0 J-0.162
X-85 Y-96.294 Z-1.128 I0 J0.162
X-85 Y-96.619 Z-1.189 I0 J-0.162
X-85 Y-96.294 Z-1.25 I0 J0.162
X-85 Y-96.619 Z-1.311 I0 J-0.162
X-85 Y-96.294 Z-1.372 I0 J0.162
X-85 Y-96.619 Z-1.433 I0 J-0.162
X-85 Y-96.294 Z-1.494 I0 J0.162
X-85 Y-96.619 Z-1.556 I0 J-0.162
X-85 Y-96.294 Z-1.617 I0 J0.162
X-85 Y-96.619 Z-1.678 I0 J-0.162
X-85 Y-96.294 Z-1.739 I0 J0.162
X-85 Y-96.619 Z-1.8 I0 J-0.162
X-85 Y-96.294 Z-1.861 I0 J0.162
X-85 Y-96.619 Z-1.922 I0 J-0.162
X-85 Y-96.294 Z-1.983 I0 J0.162
X-85 Y-96.619 Z-2.044 I0 J-0.162
X-85 Y-96.294 Z-2.106 I0 J0.162
X-85 Y-96.619 Z-2.167 I0 J-0.162
X-85 Y-96.294 Z-2.228 I0 J0.162
X-85 Y-96.619 Z-2.289 I0 J-0.162
X-84.912 Y-96.593 Z-2.3 I0 J0.162
X-85.088 Y-96.319 I-0.088 J0.137
X-84.912 Y-96.593 I0.088 J-0.137
G1 X-84.889 Y-96.571
X-84.877 Y-96.542
X-84.876 Y-96.51
X-84.888 Y-96.48
X-84.974 Y-96.347
Z5
X-73.801 Y-110.406
Z0.983
Z-0.7
Y-110.564
X-73.795 Y-110.595
X-73.777 Y-110.622
X-73.751 Y-110.639
X-73.72 Y-110.646
G3 X-73.72 Y-110.321 Z-0.761 I0 J0.162
X-73.72 Y-110.646 Z-0.822 I0 J-0.162
X-73.72 Y-110.321 Z-0.883 I0 J0.162
X-73.72 Y-110.646 Z-0.944 I0 J-0.162
X-73.72 Y-110.321 Z-1.006 I0 J0.162
X-73.72 Y-110.646 Z-1.067 I0 J-0.162
X-73.72 Y-110.321 Z-1.128 I0 J0.162
X-73.72 Y-110.646 Z-1.189 I0 J-0.162
X-73.72 Y-110.321 Z-1.25 I0 J0.163
X-73.72 Y-110.646 Z-1.311 I0 J-0.163
X-73.72 Y-110.321 Z-1.372 I0 J0.163
X-73.72 Y-110.646 Z-1.433 I0 J-0.163
X-73.72 Y-110.321 Z-1.494 I0 J0.163
X-73.72 Y-110.646 Z-1.556 I0 J-0.163
X-73.72 Y-110.321 Z-1.617 I0 J0.163
X-73.72 Y-110.646 Z-1.678 I0 J-0.163
X-73.72 Y-110.321 Z-1.739 I0 J0.163
X-73.72 Y-110.646 Z-1.8 I0 J-0.163
X-73.72 Y-110.321 Z-1.861 I0 J0.163
X-73.72 Y-110.646 Z-1.922 I0 J-0.163
X-73.72 Y-110.321 Z-1.983 I0 J0.163
X-73.72 Y-110.646 Z-2.044 I0 J-0.163
X-73.72 Y-110.321 Z-2.106 I0 J0.163
X-73.72 Y-110.646 Z-2.167 I0 J-0.163
X-73.72 Y-110.321 Z-2.228 I0 J0.163
X-73.72 Y-110.646 Z-2.289 I0 J-0.163
X-73.632 Y-110.62 Z-2.3 I0 J0.163
X-73.808 Y-110.346 I-0.088 J0.137
X-73.632 Y-110.62 I0.088 J-0.137
G1 X-73.609 Y-110.598
X-73.596 Y-110.569
Y-110.537
X-73.608 Y-110.507
X-73.693 Y-110.374
Z15
(When using Fusion for Personal Use, the feedrate of rapid)
(moves is reduced to match the feedrate of cutting moves,)
(which can increase machining time. Unrestricted rapid moves)
(are available with a Fusion Subscription.)

(2D-Kontur3)
G0 X-80.619 Y-83.938
G1 Z15 F1000
Z5
Z1 F333.3
S5000
X-80.628 Y-83.748 Z0.998
X-80.664 Y-83.506 Z0.995
X-80.726 Y-83.258 Z0.992
X-80.815 Y-83.003 Z0.989
X-80.935 Y-82.74 Z0.985
X-81.087 Y-82.468 Z0.982
X-81.275 Y-82.188 Z0.978
X-81.5 Y-81.901 Z0.973
X-81.764 Y-81.609 Z0.969
X-82.069 Y-81.313 Z0.963
X-82.416 Y-81.016 Z0.958
X-82.806 Y-80.718 Z0.952
X-83.24 Y-80.422 Z0.946
X-83.719 Y-80.13 Z0.939
X-84.243 Y-79.843 Z0.932
X-84.813 Y-79.563 Z0.925
X-85.43 Y-79.293 Z0.917
X-86.093 Y-79.034 Z0.908
X-86.805 Y-78.788 Z0.899
X-87.564 Y-78.557 Z0.89
X-88.372 Y-78.344 Z0.88
X-89.227 Y-78.151 Z0.87
X-90.128 Y-77.981 Z0.859
X-91.074 Y-77.837 Z0.848
X-92.061 Y-77.721 Z0.836
X-93.081 Y-77.638 Z0.824
X-94.128 Y-77.589 Z0.811
X-95.189 Y-77.576 Z0.799
X-96.252 Y-77.6 Z0.786
X-97.303 Y-77.661 Z0.774
X-98.331 Y-77.757 Z0.761
X-99.323 Y-77.885 Z0.75
X-100.274 Y-78.043 Z0.738
X-101.179 Y-78.227 Z0.727
X-102.035 Y-78.433 Z0.717
X-102.839 Y-78.659 Z0.707
X-103.592 Y-78.903 Z0.697
X-104.295 Y-79.161 Z0.689
X-104.947 Y-79.431 Z0.68
X-105.55 Y-79.711 Z0.672
X-106.104 Y-79.999 Z0.665
X-106.61 Y-80.294 Z0.658
X-107.07 Y-80.592 Z0.652
X-107.483 Y-80.893 Z0.645
X-107.851 Y-81.194 Z0.64
X-108.176 Y-81.494 Z0.635
X-108.457 Y-81.79 Z0.63
X-108.699 Y-82.082 Z0.625
X-108.902 Y-82.367 Z0.621
X-109.068 Y-82.643 Z0.617
X-109.199 Y-82.909 Z0.614
X-109.299 Y-83.169 Z0.61
X-109.371 Y-83.42 Z0.607
X-109.415 Y-83.662 Z0.604
X-109.436 Y-83.906 Z0.602
X-109.433 Y-84.143 Z0.599
X-109.405 Y-84.383 Z0.596
X-109.352 Y-84.631 Z0.593
X-109.273 Y-84.883 Z0.59
X-109.165 Y-85.141 Z0.586
X-109.024 Y-85.411 Z0.583
X-108.848 Y-85.689 Z0.579
X-108.636 Y-85.973 Z0.575
X-108.386 Y-86.264 Z0.57
X-108.096 Y-86.558 Z0.565
X-107.763 Y-86.856 Z0.56
X-107.388 Y-87.154 Z0.554
X-106.97 Y-87.45 Z0.548
X-106.507 Y-87.744 Z0.542
X-105.999 Y-88.033 Z0.535
X-105.445 Y-88.315 Z0.527
X-104.844 Y-88.589 Z0.52
X-104.197 Y-88.852 Z0.511
X-103.503 Y-89.103 Z0.503
X-102.76 Y-89.339 Z0.493
X-101.969 Y-89.559 Z0.484
X-101.131 Y-89.759 Z0.473
X-100.245 Y-89.938 Z0.463
X-99.314 Y-90.091 Z0.452
X-98.341 Y-90.217 Z0.44
X-97.332 Y-90.312 Z0.428
X-96.293 Y-90.373 Z0.416
X-95.236 Y-90.399 Z0.403
X-94.172 Y-90.388 Z0.39
X-93.115 Y-90.339 Z0.378
X-92.078 Y-90.255 Z0.366
X-91.072 Y-90.138 Z0.354
X-90.106 Y-89.99 Z0.342
X-89.184 Y-89.815 Z0.331
X-88.312 Y-89.616 Z0.32
X-87.49 Y-89.397 Z0.31
X-86.718 Y-89.159 Z0.301
X-85.998 Y-88.906 Z0.292
X-85.329 Y-88.64 Z0.283
X-84.709 Y-88.363 Z0.275
X-84.138 Y-88.077 Z0.267
X-83.615 Y-87.785 Z0.26
X-83.139 Y-87.487 Z0.254
X-82.71 Y-87.187 Z0.248
X-82.326 Y-86.886 Z0.242
X-81.986 Y-86.585 Z0.236
X-81.69 Y-86.287 Z0.231
X-81.434 Y-85.994 Z0.227
X-81.218 Y-85.707 Z0.223
X-81.04 Y-85.428 Z0.219
X-80.897 Y-85.157 Z0.215
X-80.786 Y-84.895 Z0.212
X-80.705 Y-84.642 Z0.208
X-80.651 Y-84.396 Z0.205
X-80.621 Y-84.142 Z0.202
X-80.616 Y-83.999 Z0.201
X-80.628 Y-83.748 Z0.198
X-80.664 Y-83.506 Z0.195
X-80.726 Y-83.258 Z0.192
X-80.815 Y-83.003 Z0.189
X-80.935 Y-82.74 Z0.185
X-81.087 Y-82.468 Z0.182
X-81.275 Y-82.188 Z0.178
X-81.5 Y-81.901 Z0.173
X-81.764 Y-81.609 Z0.169
X-82.069 Y-81.313 Z0.163
X-82.416 Y-81.016 Z0.158
X-82.806 Y-80.718 Z0.152
X-83.24 Y-80.422 Z0.146
X-83.719 Y-80.13 Z0.139
X-84.243 Y-79.843 Z0.132
X-84.813 Y-79.563 Z0.125
X-85.43 Y-79.293 Z0.117
X-86.093 Y-79.034 Z0.108
X-86.805 Y-78.788 Z0.099
X-87.564 Y-78.557 Z0.09
X-88.372 Y-78.344 Z0.08
X-89.227 Y-78.151 Z0.07
X-90.128 Y-77.981 Z0.059
X-91.074 Y-77.837 Z0.048
X-92.061 Y-77.721 Z0.036
X-93.081 Y-77.638 Z0.024
X-94.128 Y-77.589 Z0.011
X-95.189 Y-77.576 Z-0.001
X-96.252 Y-77.6 Z-0.014
X-97.303 Y-77.661 Z-0.026
X-98.331 Y-77.757 Z-0.039
X-99.323 Y-77.885 Z-0.05
X-100.274 Y-78.043 Z-0.062
X-101.179 Y-78.227 Z-0.073
X-102.035 Y-78.433 Z-0.083
X-102.839 Y-78.659 Z-0.093
X-103.592 Y-78.903 Z-0.103
X-104.295 Y-79.161 Z-0.111
X-104.947 Y-79.431 Z-0.12
X-105.55 Y-79.711 Z-0.128
X-106.104 Y-79.999 Z-0.135
X-106.61 Y-80.294 Z-0.142
X-107.07 Y-80.592 Z-0.148
X-107.483 Y-80.893 Z-0.155
X-107.851 Y-81.194 Z-0.16
X-108.176 Y-81.494 Z-0.165
X-108.457 Y-81.79 Z-0.17
X-108.699 Y-82.082 Z-0.175
X-108.902 Y-82.367 Z-0.179
X-109.068 Y-82.643 Z-0.183
X-109.199 Y-82.909 Z-0.186
X-109.299 Y-83.169 Z-0.19
X-109.371 Y-83.42 Z-0.193
X-109.415 Y-83.662 Z-0.196
X-109.436 Y-83.906 Z-0.198
X-109.433 Y-84.143 Z-0.201
X-109.405 Y-84.383 Z-0.204
X-109.352 Y-84.631 Z-0.207
X-109.273 Y-84.883 Z-0.21
X-109.165 Y-85.141 Z-0.214
X-109.024 Y-85.411 Z-0.217
X-108.848 Y-85.689 Z-0.221
X-108.636 Y-85.973 Z-0.225
X-108.386 Y-86.264 Z-0.23
X-108.096 Y-86.558 Z-0.235
X-107.763 Y-86.856 Z-0.24
X-107.388 Y-87.154 Z-0.246
X-106.97 Y-87.45 Z-0.252
X-106.507 Y-87.744 Z-0.258
X-105.999 Y-88.033 Z-0.265
X-105.445 Y-88.315 Z-0.273
X-104.844 Y-88.589 Z-0.28
X-104.197 Y-88.852 Z-0.289
X-103.503 Y-89.103 Z-0.297
X-102.76 Y-89.339 Z-0.307
X-101.969 Y-89.559 Z-0.316
X-101.131 Y-89.759 Z-0.327
X-100.245 Y-89.938 Z-0.337
X-99.314 Y-90.091 Z-0.348
X-98.341 Y-90.217 Z-0.36
X-97.332 Y-90.312 Z-0.372
X-96.293 Y-90.373 Z-0.384
X-95.236 Y-90.399 Z-0.397
X-94.172 Y-90.388 Z-0.41
X-93.115 Y-90.339 Z-0.422
X-92.078 Y-90.255 Z-0.434
X-91.072 Y-90.138 Z-0.446
X-90.106 Y-89.99 Z-0.458
X-89.184 Y-89.815 Z-0.469
X-88.312 Y-89.616 Z-0.48
X-87.49 Y-89.397 Z-0.49
X-86.718 Y-89.159 Z-0.499
X-85.998 Y-88.906 Z-0.508
X-85.329 Y-88.64 Z-0.517
X-84.709 Y-88.363 Z-0.525
X-84.138 Y-88.077 Z-0.533
X-83.615 Y-87.785 Z-0.54
X-83.139 Y-87.487 Z-0.546
X-82.71 Y-87.187 Z-0.552
X-82.326 Y-86.886 Z-0.558
X-81.986 Y-86.585 Z-0.564
X-81.69 Y-86.287 Z-0.569
X-81.434 Y-85.994 Z-0.573
X-81.218 Y-85.707 Z-0.577
X-81.04 Y-85.428 Z-0.581
X-80.897 Y-85.157 Z-0.585
X-80.786 Y-84.895 Z-0.588
X-80.705 Y-84.642 Z-0.592
X-80.651 Y-84.396 Z-0.595
X-80.621 Y-84.142 Z-0.598
X-80.616 Y-83.999 Z-0.599
X-80.628 Y-83.748 Z-0.602
X-80.664 Y-83.506 Z-0.605
X-80.726 Y-83.258 Z-0.608
X-80.815 Y-83.003 Z-0.611
X-80.935 Y-82.74 Z-0.615
X-81.087 Y-82.468 Z-0.618
X-81.275 Y-82.188 Z-0.622
X-81.5 Y-81.901 Z-0.627
X-81.764 Y-81.609 Z-0.631
X-82.069 Y-81.313 Z-0.637
X-82.416 Y-81.016 Z-0.642
X-82.806 Y-80.718 Z-0.648
X-83.24 Y-80.422 Z-0.654
X-83.719 Y-80.13 Z-0.661
X-84.243 Y-79.843 Z-0.668
X-84.813 Y-79.563 Z-0.675
X-85.43 Y-79.293 Z-0.683
X-86.093 Y-79.034 Z-0.692
X-86.805 Y-78.788 Z-0.701
X-87.564 Y-78.557 Z-0.71
X-88.372 Y-78.344 Z-0.72
X-89.227 Y-78.151 Z-0.73
X-90.128 Y-77.981 Z-0.741
X-91.074 Y-77.837 Z-0.752
X-92.061 Y-77.721 Z-0.764
X-93.081 Y-77.638 Z-0.776
X-94.128 Y-77.589 Z-0.789
X-95.077 Y-77.577 Z-0.8
S6000
X-95.189 Y-77.576 F1000
X-96.252 Y-77.6
X-97.303 Y-77.661
X-98.331 Y-77.757
X-99.323 Y-77.885
X-100.274 Y-78.043
X-101.179 Y-78.227
X-102.035 Y-78.433
X-102.839 Y-78.659
X-103.592 Y-78.903
X-104.295 Y-79.161
X-104.947 Y-79.431
X-105.55 Y-79.711
X-106.104 Y-79.999
X-106.61 Y-80.294
X-107.07 Y-80.592
X-107.483 Y-80.893
X-107.851 Y-81.194
X-108.176 Y-81.494
X-108.457 Y-81.79
X-108.699 Y-82.082
X-108.902 Y-82.367
X-109.068 Y-82.643
X-109.199 Y-82.909
X-109.299 Y-83.169
X-109.371 Y-83.42
X-109.415 Y-83.662
X-109.436 Y-83.906
X-109.433 Y-84.143
X-109.405 Y-84.383
X-109.352 Y-84.631
X-109.273 Y-84.883
X-109.165 Y-85.141
X-109.024 Y-85.411
X-108.848 Y-85.689
X-108.636 Y-85.973
X-108.386 Y-86.264
X-108.096 Y-86.558
X-107.763 Y-86.856
X-107.388 Y-87.154
X-106.97 Y-87.45
X-106.507 Y-87.744
X-105.999 Y-88.033
X-105.445 Y-88.315
X-104.844 Y-88.589
X-104.197 Y-88.852
X-103.503 Y-89.103
X-102.76 Y-89.339
X-101.969 Y-89.559
X-101.131 Y-89.759
X-100.245 Y-89.938
X-99.314 Y-90.091
X-98.341 Y-90.217
X-97.332 Y-90.312
X-96.293 Y-90.373
X-95.236 Y-90.399
X-94.172 Y-90.388
X-93.115 Y-90.339
X-92.078 Y-90.255
X-91.072 Y-90.138
X-90.106 Y-89.99
X-89.184 Y-89.815
X-88.312 Y-89.616
X-87.49 Y-89.397
X-86.718 Y-89.159
X-85.998 Y-88.906
X-85.329 Y-88.64
X-84.709 Y-88.363
X-84.138 Y-88.077
X-83.615 Y-87.785
X-83.139 Y-87.487
X-82.71 Y-87.187
X-82.326 Y-86.886
X-81.986 Y-86.585
X-81.69 Y-86.287
X-81.434 Y-85.994
X-81.218 Y-85.707
X-81.04 Y-85.428
X-80.897 Y-85.157
X-80.786 Y-84.895
X-80.705 Y-84.642
X-80.651 Y-84.396
X-80.621 Y-84.142
X-80.616 Y-83.999
X-80.628 Y-83.748
X-80.664 Y-83.506
X-80.726 Y-83.258
X-80.815 Y-83.003
X-80.935 Y-82.74
X-81.087 Y-82.468
X-81.275 Y-82.188
X-81.5 Y-81.901
X-81.764 Y-81.609
X-82.069 Y-81.313
X-82.416 Y-81.016
X-82.806 Y-80.718
X-83.24 Y-80.422
X-83.719 Y-80.13
X-84.243 Y-79.843
X-84.813 Y-79.563
X-85.43 Y-79.293
X-86.093 Y-79.034
X-86.805 Y-78.788
X-87.564 Y-78.557
X-88.372 Y-78.344
X-89.227 Y-78.151
X-90.128 Y-77.981
X-91.074 Y-77.837
X-92.061 Y-77.721
X-93.081 Y-77.638
X-94.128 Y-77.589
X-95.077 Y-77.577
S5000
X-95.189 Y-77.576 Z-0.801 F333.3
X-96.252 Y-77.6 Z-0.814
X-97.303 Y-77.661 Z-0.826
X-98.331 Y-77.757 Z-0.839
X-99.323 Y-77.885 Z-0.85
X-100.274 Y-78.043 Z-0.862
X-101.179 Y-78.227 Z-0.873
X-102.035 Y-78.433 Z-0.883
X-102.839 Y-78.659 Z-0.893
X-103.592 Y-78.903 Z-0.903
X-104.295 Y-79.161 Z-0.911
X-104.947 Y-79.431 Z-0.92
X-105.55 Y-79.711 Z-0.928
X-106.104 Y-79.999 Z-0.935
X-106.61 Y-80.294 Z-0.942
X-107.07 Y-80.592 Z-0.948
X-107.483 Y-80.893 Z-0.955
X-107.851 Y-81.194 Z-0.96
X-108.176 Y-81.494 Z-0.965
X-108.457 Y-81.79 Z-0.97
X-108.699 Y-82.082 Z-0.975
X-108.902 Y-82.367 Z-0.979
X-109.068 Y-82.643 Z-0.983
X-109.199 Y-82.909 Z-0.986
X-109.299 Y-83.169 Z-0.99
X-109.371 Y-83.42 Z-0.993
X-109.415 Y-83.662 Z-0.996
X-109.436 Y-83.906 Z-0.998
X-109.433 Y-84.143 Z-1.001
X-109.405 Y-84.383 Z-1.004
X-109.352 Y-84.631 Z-1.007
X-109.273 Y-84.883 Z-1.01
X-109.165 Y-85.141 Z-1.014
X-109.024 Y-85.411 Z-1.017
X-108.848 Y-85.689 Z-1.021
X-108.636 Y-85.973 Z-1.025
X-108.386 Y-86.264 Z-1.03
X-108.096 Y-86.558 Z-1.035
X-107.763 Y-86.856 Z-1.04
X-107.388 Y-87.154 Z-1.046
X-106.97 Y-87.45 Z-1.052
X-106.507 Y-87.744 Z-1.058
X-105.999 Y-88.033 Z-1.065
X-105.445 Y-88.315 Z-1.073
X-104.844 Y-88.589 Z-1.08
X-104.197 Y-88.852 Z-1.089
X-103.503 Y-89.103 Z-1.097
X-102.76 Y-89.339 Z-1.107
X-101.969 Y-89.559 Z-1.116
X-101.131 Y-89.759 Z-1.127
X-100.245 Y-89.938 Z-1.137
X-99.314 Y-90.091 Z-1.148
X-98.341 Y-90.217 Z-1.16
X-97.332 Y-90.312 Z-1.172
X-96.293 Y-90.373 Z-1.184
X-95.236 Y-90.399 Z-1.197
X-94.172 Y-90.388 Z-1.21
X-93.115 Y-90.339 Z-1.222
X-92.078 Y-90.255 Z-1.234
X-91.072 Y-90.138 Z-1.246
X-90.106 Y-89.99 Z-1.258
X-89.184 Y-89.815 Z-1.269
X-88.312 Y-89.616 Z-1.28
X-87.49 Y-89.397 Z-1.29
X-86.718 Y-89.159 Z-1.299
X-85.998 Y-88.906 Z-1.308
X-85.329 Y-88.64 Z-1.317
X-84.709 Y-88.363 Z-1.325
X-84.138 Y-88.077 Z-1.333
X-83.615 Y-87.785 Z-1.34
X-83.139 Y-87.487 Z-1.346
X-82.71 Y-87.187 Z-1.352
X-82.326 Y-86.886 Z-1.358
X-81.986 Y-86.585 Z-1.364
X-81.69 Y-86.287 Z-1.369
X-81.434 Y-85.994 Z-1.373
X-81.218 Y-85.707 Z-1.377
X-81.04 Y-85.428 Z-1.381
X-80.897 Y-85.157 Z-1.385
X-80.786 Y-84.895 Z-1.388
X-80.705 Y-84.642 Z-1.392
X-80.651 Y-84.396 Z-1.395
X-80.621 Y-84.142 Z-1.398
X-80.616 Y-83.999 Z-1.399
X-80.628 Y-83.748 Z-1.402
X-80.664 Y-83.506 Z-1.405
X-80.726 Y-83.258 Z-1.408
X-80.815 Y-83.003 Z-1.411
X-80.935 Y-82.74 Z-1.415
X-81.087 Y-82.468 Z-1.418
X-81.275 Y-82.188 Z-1.422
X-81.5 Y-81.901 Z-1.427
X-81.764 Y-81.609 Z-1.431
X-82.069 Y-81.313 Z-1.437
X-82.416 Y-81.016 Z-1.442
X-82.806 Y-80.718 Z-1.448
X-83.24 Y-80.422 Z-1.454
X-83.719 Y-80.13 Z-1.461
X-84.243 Y-79.843 Z-1.468
X-84.813 Y-79.563 Z-1.475
X-85.43 Y-79.293 Z-1.483
X-86.093 Y-79.034 Z-1.492
X-86.805 Y-78.788 Z-1.501
X-87.564 Y-78.557 Z-1.51
X-88.372 Y-78.344 Z-1.52
X-89.227 Y-78.151 Z-1.53
X-90.128 Y-77.981 Z-1.541
X-91.074 Y-77.837 Z-1.552
X-92.061 Y-77.721 Z-1.564
X-93.081 Y-77.638 Z-1.576
X-94.128 Y-77.589 Z-1.589
X-95.077 Y-77.577 Z-1.6
S6000
X-95.189 Y-77.576 F1000
X-96.252 Y-77.6
X-97.303 Y-77.661
X-98.331 Y-77.757
X-99.323 Y-77.885
X-100.274 Y-78.043
X-101.179 Y-78.227
X-102.035 Y-78.433
X-102.839 Y-78.659
X-103.592 Y-78.903
X-104.295 Y-79.161
X-104.947 Y-79.431
X-105.55 Y-79.711
X-106.104 Y-79.999
X-106.61 Y-80.294
X-107.07 Y-80.592
X-107.483 Y-80.893
X-107.851 Y-81.194
X-108.176 Y-81.494
X-108.457 Y-81.79
X-108.699 Y-82.082
X-108.902 Y-82.367
X-109.068 Y-82.643
X-109.199 Y-82.909
X-109.299 Y-83.169
X-109.371 Y-83.42
X-109.415 Y-83.662
X-109.436 Y-83.906
X-109.433 Y-84.143
X-109.405 Y-84.383
X-109.352 Y-84.631
X-109.273 Y-84.883
X-109.165 Y-85.141
X-109.024 Y-85.411
X-108.848 Y-85.689
X-108.636 Y-85.973
X-108.386 Y-86.264
X-108.096 Y-86.558
X-107.763 Y-86.856
X-107.388 Y-87.154
X-106.97 Y-87.45
X-106.507 Y-87.744
X-105.999 Y-88.033
X-105.445 Y-88.315
X-104.844 Y-88.589
X-104.197 Y-88.852
X-103.503 Y-89.103
X-102.76 Y-89.339
X-101.969 Y-89.559
X-101.131 Y-89.759
X-100.245 Y-89.938
X-99.314 Y-90.091
X-98.341 Y-90.217
X-97.332 Y-90.312
X-96.293 Y-90.373
X-95.236 Y-90.399
X-94.172 Y-90.388
X-93.115 Y-90.339
X-92.078 Y-90.255
X-91.072 Y-90.138
X-90.106 Y-89.99
X-89.184 Y-89.815
X-88.312 Y-89.616
X-87.49 Y-89.397
X-86.718 Y-89.159
X-85.998 Y-88.906
X-85.329 Y-88.64
X-84.709 Y-88.363
X-84.138 Y-88.077
X-83.615 Y-87.785
X-83.139 Y-87.487
X-82.71 Y-87.187
X-82.326 Y-86.886
X-81.986 Y-86.585
X-81.69 Y-86.287
X-81.434 Y-85.994
X-81.218 Y-85.707
X-81.04 Y-85.428
X-80.897 Y-85.157
X-80.786 Y-84.895
X-80.705 Y-84.642
X-80.651 Y-84.396
X-80.621 Y-84.142
X-80.616 Y-83.999
X-80.628 Y-83.748
X-80.664 Y-83.506
X-80.726 Y-83.258
X-80.815 Y-83.003
X-80.935 Y-82.74
X-81.087 Y-82.468
X-81.275 Y-82.188
X-81.5 Y-81.901
X-81.764 Y-81.609
X-82.069 Y-81.313
X-82.416 Y-81.016
X-82.806 Y-80.718
X-83.24 Y-80.422
X-83.719 Y-80.13
X-84.243 Y-79.843
X-84.813 Y-79.563
X-85.43 Y-79.293
X-86.093 Y-79.034
X-86.805 Y-78.788
X-87.564 Y-78.557
X-88.372 Y-78.344
X-89.227 Y-78.151
X-90.128 Y-77.981
X-91.074 Y-77.837
X-92.061 Y-77.721
X-93.081 Y-77.638
X-94.128 Y-77.589
X-95.077 Y-77.577
S5000
X-95.189 Y-77.576 Z-1.601 F333.3
X-96.252 Y-77.6 Z-1.614
X-97.303 Y-77.661 Z-1.626
X-98.331 Y-77.757 Z-1.639
X-99.323 Y-77.885 Z-1.65
X-100.274 Y-78.043 Z-1.662
X-101.179 Y-78.227 Z-1.673
X-102.035 Y-78.433 Z-1.683
X-102.839 Y-78.659 Z-1.693
X-103.592 Y-78.903 Z-1.703
X-104.295 Y-79.161 Z-1.711
X-104.947 Y-79.431 Z-1.72
X-105.55 Y-79.711 Z-1.728
X-106.104 Y-79.999 Z-1.735
X-106.61 Y-80.294 Z-1.742
X-107.07 Y-80.592 Z-1.748
X-107.483 Y-80.893 Z-1.755
X-107.851 Y-81.194 Z-1.76
X-108.176 Y-81.494 Z-1.765
X-108.457 Y-81.79 Z-1.77
X-108.699 Y-82.082 Z-1.775
X-108.902 Y-82.367 Z-1.779
X-109.068 Y-82.643 Z-1.783
X-109.199 Y-82.909 Z-1.786
X-109.299 Y-83.169 Z-1.79
X-109.371 Y-83.42 Z-1.793
X-109.415 Y-83.662 Z-1.796
X-109.436 Y-83.906 Z-1.798
X-109.433 Y-84.143 Z-1.801
X-109.405 Y-84.383 Z-1.804
X-109.352 Y-84.631 Z-1.807
X-109.273 Y-84.883 Z-1.81
X-109.165 Y-85.141 Z-1.814
X-109.024 Y-85.411 Z-1.817
X-108.848 Y-85.689 Z-1.821
X-108.636 Y-85.973 Z-1.825
X-108.386 Y-86.264 Z-1.83
X-108.096 Y-86.558 Z-1.835
X-107.763 Y-86.856 Z-1.84
X-107.388 Y-87.154 Z-1.846
X-106.97 Y-87.45 Z-1.852
X-106.507 Y-87.744 Z-1.858
X-105.999 Y-88.033 Z-1.865
X-105.445 Y-88.315 Z-1.873
X-104.844 Y-88.589 Z-1.88
X-104.197 Y-88.852 Z-1.889
X-103.503 Y-89.103 Z-1.897
X-102.76 Y-89.339 Z-1.907
X-101.969 Y-89.559 Z-1.916
X-101.131 Y-89.759 Z-1.927
X-100.245 Y-89.938 Z-1.937
X-99.314 Y-90.091 Z-1.948
X-98.341 Y-90.217 Z-1.96
X-97.332 Y-90.312 Z-1.972
X-96.293 Y-90.373 Z-1.984
X-95.236 Y-90.399 Z-1.997
X-94.172 Y-90.388 Z-2.01
X-93.115 Y-90.339 Z-2.022
X-92.078 Y-90.255 Z-2.034
X-91.072 Y-90.138 Z-2.046
X-90.106 Y-89.99 Z-2.058
X-89.184 Y-89.815 Z-2.069
X-88.312 Y-89.616 Z-2.08
X-87.49 Y-89.397 Z-2.09
X-86.718 Y-89.159 Z-2.099
X-85.998 Y-88.906 Z-2.108
X-85.329 Y-88.64 Z-2.117
X-84.709 Y-88.363 Z-2.125
X-84.138 Y-88.077 Z-2.133
X-83.615 Y-87.785 Z-2.14
X-83.139 Y-87.487 Z-2.146
X-82.71 Y-87.187 Z-2.152
X-82.326 Y-86.886 Z-2.158
X-81.986 Y-86.585 Z-2.164
X-81.69 Y-86.287 Z-2.169
X-81.434 Y-85.994 Z-2.173
X-81.218 Y-85.707 Z-2.177
X-81.04 Y-85.428 Z-2.181
X-80.897 Y-85.157 Z-2.185
X-80.786 Y-84.895 Z-2.188
X-80.705 Y-84.642 Z-2.192
X-80.651 Y-84.396 Z-2.195
X-80.621 Y-84.142 Z-2.198
X-80.616 Y-83.999 Z-2.199
X-80.628 Y-83.748 Z-2.202
X-80.664 Y-83.506 Z-2.205
X-80.726 Y-83.258 Z-2.208
X-80.815 Y-83.003 Z-2.211
X-80.935 Y-82.74 Z-2.215
X-81.087 Y-82.468 Z-2.218
X-81.275 Y-82.188 Z-2.222
X-81.5 Y-81.901 Z-2.227
X-81.764 Y-81.609 Z-2.231
X-82.069 Y-81.313 Z-2.237
X-82.416 Y-81.016 Z-2.242
X-82.806 Y-80.718 Z-2.248
X-83.24 Y-80.422 Z-2.254
X-83.719 Y-80.13 Z-2.261
X-84.243 Y-79.843 Z-2.268
X-84.813 Y-79.563 Z-2.275
X-85.43 Y-79.293 Z-2.283
X-86.093 Y-79.034 Z-2.292
X-86.761 Y-78.803 Z-2.3
S6000
X-86.805 Y-78.788 F1000
X-87.564 Y-78.557
X-88.372 Y-78.344
X-89.227 Y-78.151
X-90.128 Y-77.981
X-91.074 Y-77.837
X-92.061 Y-77.721
X-93.081 Y-77.638
X-94.128 Y-77.589
X-95.077 Y-77.577
X-95.189 Y-77.576
X-96.252 Y-77.6
X-97.303 Y-77.661
X-98.331 Y-77.757
X-99.323 Y-77.885
X-100.274 Y-78.043
X-101.179 Y-78.227
X-102.035 Y-78.433
X-102.839 Y-78.659
X-103.592 Y-78.903
X-104.295 Y-79.161
X-104.947 Y-79.431
X-105.55 Y-79.711
X-106.104 Y-79.999
X-106.61 Y-80.294
X-107.07 Y-80.592
X-107.483 Y-80.893
X-107.851 Y-81.194
X-108.176 Y-81.494
X-108.457 Y-81.79
X-108.699 Y-82.082
X-108.902 Y-82.367
X-109.068 Y-82.643
X-109.199 Y-82.909
X-109.299 Y-83.169
X-109.371 Y-83.42
X-109.415 Y-83.662
X-109.436 Y-83.906
X-109.433 Y-84.143
X-109.405 Y-84.383
X-109.352 Y-84.631
X-109.273 Y-84.883
X-109.165 Y-85.141
X-109.024 Y-85.411
X-108.848 Y-85.689
X-108.636 Y-85.973
X-108.386 Y-86.264
X-108.096 Y-86.558
X-107.763 Y-86.856
X-107.388 Y-87.154
X-106.97 Y-87.45
X-106.507 Y-87.744
X-105.999 Y-88.033
X-105.445 Y-88.315
X-104.844 Y-88.589
X-104.197 Y-88.852
X-103.503 Y-89.103
X-102.76 Y-89.339
X-101.969 Y-89.559
X-101.131 Y-89.759
X-100.245 Y-89.938
X-99.314 Y-90.091
X-98.341 Y-90.217
X-97.332 Y-90.312
X-96.293 Y-90.373
X-95.236 Y-90.399
X-94.172 Y-90.388
X-93.115 Y-90.339
X-92.078 Y-90.255
X-91.072 Y-90.138
X-90.106 Y-89.99
X-89.184 Y-89.815
X-88.312 Y-89.616
X-87.49 Y-89.397
X-86.718 Y-89.159
X-85.998 Y-88.906
X-85.329 Y-88.64
X-84.709 Y-88.363
X-84.138 Y-88.077
X-83.615 Y-87.785
X-83.139 Y-87.487
X-82.71 Y-87.187
X-82.326 Y-86.886
X-81.986 Y-86.585
X-81.69 Y-86.287
X-81.434 Y-85.994
X-81.218 Y-85.707
X-81.04 Y-85.428
X-80.897 Y-85.157
X-80.786 Y-84.895
X-80.705 Y-84.642
X-80.651 Y-84.396
X-80.621 Y-84.142
X-80.616 Y-83.999
X-80.628 Y-83.748
X-80.664 Y-83.506
X-80.726 Y-83.258
X-80.815 Y-83.003
X-80.935 Y-82.74
X-81.087 Y-82.468
X-81.275 Y-82.188
X-81.5 Y-81.901
X-81.764 Y-81.609
X-82.069 Y-81.313
X-82.416 Y-81.016
X-82.806 Y-80.718
X-83.24 Y-80.422
X-83.719 Y-80.13
X-84.243 Y-79.843
X-84.813 Y-79.563
X-85.43 Y-79.293
X-86.093 Y-79.034
X-86.761 Y-78.803
Z15
(When using Fusion for Personal Use, the feedrate of rapid)
(moves is reduced to match the feedrate of cutting moves,)
(which can increase machining time. Unrestricted rapid moves)
(are available with a Fusion Subscription.)

(2D-Kontur4)
G0 X-128.979 Y-51.621
G1 Z15 F1000
Z5
Z0.635 F333.3
Z-0.483
X-128.984 Y-51.627 Z-0.553 F1000
X-129 Y-51.644 Z-0.62
X-129.025 Y-51.673 Z-0.68
X-129.058 Y-51.71 Z-0.731
X-129.098 Y-51.756 Z-0.769
X-129.142 Y-51.806 Z-0.792
X-129.189 Y-51.859 Z-0.8
X-129.398 Y-52.097
G3 X-129.37 Y-52.546 I0.238 J-0.21
G2 X-128.586 Y-61.62 I-4.35 J-4.947
G1 X-139.789 Y-75.55
G3 X-139.97 Y-77.028 I1.101 J-0.885
G2 X-139.97 Y-90.947 I-15.057 J-6.96
G3 X-139.789 Y-92.425 I1.282 J-0.593
G1 X-128.586 Y-106.355
G2 X-138.85 Y-114.615 I-5.134 J-4.127
G1 X-139.502 Y-113.813
X-140.141 Y-113.045
X-140.769 Y-112.306
X-141.387 Y-111.599
X-141.995 Y-110.92
X-142.592 Y-110.272
X-143.179 Y-109.654
X-143.757 Y-109.063
X-144.323 Y-108.503
X-144.88 Y-107.971
X-145.428 Y-107.468
X-145.965 Y-106.992
X-146.494 Y-106.544
X-147.013 Y-106.123
X-147.522 Y-105.729
X-148.022 Y-105.363
X-148.514 Y-105.022
X-148.997 Y-104.706
X-149.471 Y-104.416
X-149.937 Y-104.15
X-150.393 Y-103.909
X-150.845 Y-103.691
X-151.287 Y-103.496
X-151.722 Y-103.325
X-152.152 Y-103.174
X-152.574 Y-103.046
X-152.992 Y-102.938
X-153.404 Y-102.851
X-153.814 Y-102.783
X-154.219 Y-102.735
X-154.624 Y-102.707
X-155.027 Y-102.697
X-155.43 Y-102.707
X-155.834 Y-102.735
X-156.239 Y-102.783
X-156.65 Y-102.851
X-157.062 Y-102.938
X-157.48 Y-103.046
X-157.902 Y-103.174
X-158.332 Y-103.325
X-158.767 Y-103.496
X-159.209 Y-103.692
X-159.661 Y-103.909
X-160.117 Y-104.15
X-160.583 Y-104.416
X-161.057 Y-104.706
X-161.54 Y-105.022
X-162.032 Y-105.363
X-162.532 Y-105.729
X-163.041 Y-106.123
X-163.56 Y-106.544
X-164.089 Y-106.992
X-164.626 Y-107.468
X-165.174 Y-107.971
X-165.731 Y-108.503
X-166.297 Y-109.063
X-166.875 Y-109.653
X-167.461 Y-110.272
X-168.059 Y-110.921
X-168.667 Y-111.599
X-169.285 Y-112.306
X-169.913 Y-113.045
X-170.552 Y-113.813
X-171.204 Y-114.615
G2 X-181.476 Y-106.367 I-5.13 J4.132
G1 X-181.376 Y-106.237
X-181.298 Y-106.129
X-181.232 Y-106.026
X-181.179 Y-105.939
X-181.143 Y-105.868
X-181.116 Y-105.808
X-181.098 Y-105.762
X-181.138 Y-105.719
X-181.229 Y-105.643
X-181.362 Y-105.549
X-181.529 Y-105.448
X-181.73 Y-105.344
X-181.962 Y-105.238
X-182.214 Y-105.136
X-182.489 Y-105.037
X-182.781 Y-104.942
X-183.075 Y-104.856
X-183.72 Y-104.694
X-184.369 Y-104.562
X-185.023 Y-104.457
X-185.33 Y-104.418
X-185.64 Y-104.384
X-185.94 Y-104.358
X-186.229 Y-104.34
X-186.507 Y-104.329
X-186.787 Y-104.326
X-254.427
G2 X-259.014 Y-99.738 I0 J4.588
G1 Y-68.238
G2 X-254.427 Y-63.65 I4.587 J0
G1 X-186.788
X-186.509 Y-63.646
X-186.229 Y-63.635
X-185.939 Y-63.617
X-185.639 Y-63.591
X-185.33 Y-63.558
X-185.023 Y-63.518
X-184.37 Y-63.413
X-183.72 Y-63.281
X-183.075 Y-63.119
X-182.781 Y-63.033
X-182.489 Y-62.938
X-182.214 Y-62.839
X-181.96 Y-62.736
X-181.73 Y-62.631
X-181.53 Y-62.527
X-181.361 Y-62.425
X-181.229 Y-62.333
X-181.138 Y-62.256
X-181.098 Y-62.214
Y-62.213
X-181.115 Y-62.168
X-181.143 Y-62.107
X-181.18 Y-62.035
X-181.231 Y-61.949
X-181.297 Y-61.848
X-181.376 Y-61.739
X-181.476 Y-61.609
G2 X-171.204 Y-53.36 I5.142 J4.117
G1 X-170.552 Y-54.162
X-169.913 Y-54.93
X-169.285 Y-55.668
X-168.667 Y-56.376
X-168.059 Y-57.054
X-167.461 Y-57.703
X-166.875 Y-58.322
X-166.298 Y-58.912
X-165.731 Y-59.472
X-165.173 Y-60.004
X-164.626 Y-60.508
X-164.089 Y-60.983
X-163.561 Y-61.431
X-163.042 Y-61.852
X-162.532 Y-62.245
X-162.032 Y-62.613
X-161.54 Y-62.954
X-161.057 Y-63.269
X-160.583 Y-63.559
X-160.117 Y-63.825
X-159.66 Y-64.066
X-159.21 Y-64.283
X-158.767 Y-64.478
X-158.332 Y-64.65
X-157.903 Y-64.8
X-157.479 Y-64.929
X-157.062 Y-65.037
X-156.649 Y-65.124
X-156.24 Y-65.192
X-155.834 Y-65.24
X-155.43 Y-65.268
X-155.027 Y-65.278
X-154.624 Y-65.268
X-154.22 Y-65.24
X-153.813 Y-65.192
X-153.405 Y-65.124
X-152.992 Y-65.037
X-152.574 Y-64.929
X-152.152 Y-64.8
X-151.722 Y-64.65
X-151.287 Y-64.478
X-150.844 Y-64.284
X-150.394 Y-64.066
X-149.937 Y-63.825
X-149.471 Y-63.559
X-148.997 Y-63.269
X-148.514 Y-62.954
X-148.022 Y-62.613
X-147.522 Y-62.245
X-147.012 Y-61.852
X-146.493 Y-61.431
X-145.965 Y-60.983
X-145.428 Y-60.508
X-144.881 Y-60.004
X-144.323 Y-59.472
X-143.756 Y-58.912
X-143.179 Y-58.322
X-142.592 Y-57.703
X-141.995 Y-57.055
X-141.387 Y-56.376
X-140.769 Y-55.668
X-140.141 Y-54.93
X-139.502 Y-54.162
X-138.85 Y-53.36
G2 X-129.37 Y-52.546 I5.13 J-4.132
G3 X-128.922 Y-52.517 I0.21 J0.238
G1 X-128.712 Y-52.278
X-128.665 Y-52.225 Z-0.792
X-128.621 Y-52.175 Z-0.769
X-128.581 Y-52.13 Z-0.731
X-128.548 Y-52.092 Z-0.68
X-128.523 Y-52.064 Z-0.62
X-128.507 Y-52.046 Z-0.553
X-128.502 Y-52.04 Z-0.483
Z5
X-128.979 Y-51.621
Z-0.165 F333.3
Z-1.283
X-128.984 Y-51.627 Z-1.353 F1000
X-129 Y-51.644 Z-1.42
X-129.025 Y-51.673 Z-1.48
X-129.058 Y-51.71 Z-1.531
X-129.098 Y-51.756 Z-1.569
X-129.142 Y-51.806 Z-1.592
X-129.189 Y-51.859 Z-1.6
X-129.398 Y-52.097
G3 X-129.37 Y-52.546 I0.238 J-0.21
G2 X-128.586 Y-61.62 I-4.35 J-4.947
G1 X-139.789 Y-75.55
G3 X-139.97 Y-77.028 I1.101 J-0.885
G2 X-139.97 Y-90.947 I-15.057 J-6.96
G3 X-139.789 Y-92.425 I1.282 J-0.593
G1 X-128.586 Y-106.355
G2 X-138.85 Y-114.615 I-5.134 J-4.127
G1 X-139.502 Y-113.813
X-139.888 Y-113.35
Z-1.206
X-140.141 Y-113.045
X-140.769 Y-112.306
X-141.387 Y-111.599
X-141.995 Y-110.92
X-142.592 Y-110.272
X-143.179 Y-109.654
X-143.757 Y-109.063
X-144.323 Y-108.503
X-144.88 Y-107.971
X-145.428 Y-107.468
X-145.965 Y-106.992
X-146.256 Y-106.745
Z-1.6 F333.3
X-146.494 Y-106.544 F1000
X-147.013 Y-106.123
X-147.522 Y-105.729
X-148.022 Y-105.363
X-148.514 Y-105.022
X-148.997 Y-104.706
X-149.471 Y-104.416
X-149.937 Y-104.15
X-150.393 Y-103.909
X-150.845 Y-103.691
X-151.287 Y-103.496
X-151.722 Y-103.325
X-152.152 Y-103.174
X-152.574 Y-103.046
X-152.992 Y-102.938
X-153.404 Y-102.851
X-153.814 Y-102.783
X-154.219 Y-102.735
X-154.624 Y-102.707
X-155.027 Y-102.697
X-155.43 Y-102.707
X-155.834 Y-102.735
X-156.239 Y-102.783
X-156.65 Y-102.851
X-157.062 Y-102.938
X-157.48 Y-103.046
X-157.902 Y-103.174
X-158.332 Y-103.325
X-158.767 Y-103.496
X-159.209 Y-103.692
X-159.661 Y-103.909
X-160.117 Y-104.15
X-160.583 Y-104.416
X-161.057 Y-104.706
X-161.54 Y-105.022
X-162.032 Y-105.363
X-162.532 Y-105.729
X-163.041 Y-106.123
X-163.56 Y-106.544
X-164.089 Y-106.992
X-164.626 Y-107.468
X-165.174 Y-107.971
X-165.731 Y-108.503
X-166.297 Y-109.063
X-166.875 Y-109.653
X-167.461 Y-110.272
X-168.059 Y-110.921
X-168.667 Y-111.599
X-169.285 Y-112.306
X-169.913 Y-113.045
X-170.552 Y-113.813
X-171.204 Y-114.615
G2 X-181.476 Y-106.367 I-5.13 J4.132
G1 X-181.376 Y-106.237
X-181.298 Y-106.129
X-181.232 Y-106.026
X-181.179 Y-105.939
X-181.143 Y-105.868
X-181.116 Y-105.808
X-181.098 Y-105.762
X-181.138 Y-105.719
X-181.229 Y-105.643
X-181.362 Y-105.549
X-181.529 Y-105.448
X-181.73 Y-105.344
X-181.962 Y-105.238
X-182.214 Y-105.136
X-182.489 Y-105.037
X-182.781 Y-104.942
X-183.075 Y-104.856
X-183.72 Y-104.694
X-184.369 Y-104.562
X-185.023 Y-104.457
X-185.33 Y-104.418
X-185.64 Y-104.384
X-185.94 Y-104.358
X-186.229 Y-104.34
X-186.507 Y-104.329
X-186.787 Y-104.326
X-254.427
G2 X-259.014 Y-99.738 I0 J4.588
G1 Y-87.689
Z-1.206
Y-78.514
Z-1.6 F333.3
Y-68.238 F1000
G2 X-254.427 Y-63.65 I4.587 J0
G1 X-186.788
X-186.509 Y-63.646
X-186.229 Y-63.635
X-185.939 Y-63.617
X-185.639 Y-63.591
X-185.33 Y-63.558
X-185.023 Y-63.518
X-184.37 Y-63.413
X-183.72 Y-63.281
X-183.075 Y-63.119
X-182.781 Y-63.033
X-182.489 Y-62.938
X-182.214 Y-62.839
X-181.96 Y-62.736
X-181.73 Y-62.631
X-181.53 Y-62.527
X-181.361 Y-62.425
X-181.229 Y-62.333
X-181.138 Y-62.256
X-181.098 Y-62.214
Y-62.213
X-181.115 Y-62.168
X-181.143 Y-62.107
X-181.18 Y-62.035
X-181.231 Y-61.949
X-181.297 Y-61.848
X-181.376 Y-61.739
X-181.476 Y-61.609
G2 X-176.192 Y-50.906 I5.142 J4.117
G1 Z-1.206
G2 X-171.204 Y-53.36 I-0.142 J-6.586
G1 X-170.552 Y-54.162
X-169.913 Y-54.93
X-169.285 Y-55.668
X-168.67 Y-56.373
Z-1.6 F333.3
X-168.667 Y-56.376 F1000
X-168.059 Y-57.054
X-167.461 Y-57.703
X-166.875 Y-58.322
X-166.298 Y-58.912
X-165.731 Y-59.472
X-165.173 Y-60.004
X-164.626 Y-60.508
X-164.089 Y-60.983
X-163.561 Y-61.431
X-163.042 Y-61.852
X-162.532 Y-62.245
X-162.032 Y-62.613
X-161.54 Y-62.954
X-161.057 Y-63.269
X-160.583 Y-63.559
X-160.117 Y-63.825
X-159.66 Y-64.066
X-159.21 Y-64.283
X-158.767 Y-64.478
X-158.332 Y-64.65
X-157.903 Y-64.8
X-157.479 Y-64.929
X-157.062 Y-65.037
X-156.649 Y-65.124
X-156.24 Y-65.192
X-155.834 Y-65.24
X-155.43 Y-65.268
X-155.027 Y-65.278
X-154.624 Y-65.268
X-154.22 Y-65.24
X-153.813 Y-65.192
X-153.405 Y-65.124
X-152.992 Y-65.037
X-152.574 Y-64.929
X-152.152 Y-64.8
X-151.722 Y-64.65
X-151.287 Y-64.478
X-150.844 Y-64.284
X-150.394 Y-64.066
X-149.937 Y-63.825
X-149.471 Y-63.559
X-148.997 Y-63.269
X-148.514 Y-62.954
X-148.022 Y-62.613
X-147.522 Y-62.245
X-147.012 Y-61.852
X-146.493 Y-61.431
X-145.965 Y-60.983
X-145.428 Y-60.508
X-144.881 Y-60.004
X-144.323 Y-59.472
X-143.756 Y-58.912
X-143.179 Y-58.322
X-142.592 Y-57.703
X-141.995 Y-57.055
X-141.387 Y-56.376
X-140.769 Y-55.668
X-140.141 Y-54.93
X-139.502 Y-54.162
X-138.85 Y-53.36
G2 X-129.37 Y-52.546 I5.13 J-4.132
G3 X-128.922 Y-52.517 I0.21 J0.238
G1 X-128.712 Y-52.278
X-128.665 Y-52.225 Z-1.592
X-128.621 Y-52.175 Z-1.569
X-128.581 Y-52.13 Z-1.531
X-128.548 Y-52.092 Z-1.48
X-128.523 Y-52.064 Z-1.42
X-128.507 Y-52.046 Z-1.353
X-128.502 Y-52.04 Z-1.283
Z5
X-128.979 Y-51.621
Z-0.965 F333.3
Z-1.683
X-128.984 Y-51.627 Z-1.753 F1000
X-129 Y-51.644 Z-1.82
X-129.025 Y-51.673 Z-1.88
X-129.058 Y-51.71 Z-1.931
X-129.098 Y-51.756 Z-1.969
X-129.142 Y-51.806 Z-1.992
X-129.189 Y-51.859 Z-2
X-129.398 Y-52.097
G3 X-129.37 Y-52.546 I0.238 J-0.21
G2 X-128.586 Y-61.62 I-4.35 J-4.947
G1 X-139.789 Y-75.55
G3 X-139.97 Y-77.028 I1.101 J-0.885
G2 X-139.97 Y-90.947 I-15.057 J-6.96
G3 X-139.789 Y-92.425 I1.282 J-0.593
G1 X-128.586 Y-106.355
G2 X-138.85 Y-114.615 I-5.134 J-4.127
G1 X-139.502 Y-113.813
X-139.888 Y-113.35
Z-1.206
X-140.141 Y-113.045
X-140.769 Y-112.306
X-141.387 Y-111.599
X-141.995 Y-110.92
X-142.592 Y-110.272
X-143.179 Y-109.654
X-143.757 Y-109.063
X-144.323 Y-108.503
X-144.88 Y-107.971
X-145.428 Y-107.468
X-145.965 Y-106.992
X-146.256 Y-106.745
Z-2 F333.3
X-146.494 Y-106.544 F1000
X-147.013 Y-106.123
X-147.522 Y-105.729
X-148.022 Y-105.363
X-148.514 Y-105.022
X-148.997 Y-104.706
X-149.471 Y-104.416
X-149.937 Y-104.15
X-150.393 Y-103.909
X-150.845 Y-103.691
X-151.287 Y-103.496
X-151.722 Y-103.325
X-152.152 Y-103.174
X-152.574 Y-103.046
X-152.992 Y-102.938
X-153.404 Y-102.851
X-153.814 Y-102.783
X-154.219 Y-102.735
X-154.624 Y-102.707
X-155.027 Y-102.697
X-155.43 Y-102.707
X-155.834 Y-102.735
X-156.239 Y-102.783
X-156.65 Y-102.851
X-157.062 Y-102.938
X-157.48 Y-103.046
X-157.902 Y-103.174
X-158.332 Y-103.325
X-158.767 Y-103.496
X-159.209 Y-103.692
X-159.661 Y-103.909
X-160.117 Y-104.15
X-160.583 Y-104.416
X-161.057 Y-104.706
X-161.54 Y-105.022
X-162.032 Y-105.363
X-162.532 Y-105.729
X-163.041 Y-106.123
X-163.56 Y-106.544
X-164.089 Y-106.992
X-164.626 Y-107.468
X-165.174 Y-107.971
X-165.731 Y-108.503
X-166.297 Y-109.063
X-166.875 Y-109.653
X-167.461 Y-110.272
X-168.059 Y-110.921
X-168.667 Y-111.599
X-169.285 Y-112.306
X-169.913 Y-113.045
X-170.552 Y-113.813
X-171.204 Y-114.615
G2 X-181.476 Y-106.367 I-5.13 J4.132
G1 X-181.376 Y-106.237
X-181.298 Y-106.129
X-181.232 Y-106.026
X-181.179 Y-105.939
X-181.143 Y-105.868
X-181.116 Y-105.808
X-181.098 Y-105.762
X-181.138 Y-105.719
X-181.229 Y-105.643
X-181.362 Y-105.549
X-181.529 Y-105.448
X-181.73 Y-105.344
X-181.962 Y-105.238
X-182.214 Y-105.136
X-182.489 Y-105.037
X-182.781 Y-104.942
X-183.075 Y-104.856
X-183.72 Y-104.694
X-184.369 Y-104.562
X-185.023 Y-104.457
X-185.33 Y-104.418
X-185.64 Y-104.384
X-185.94 Y-104.358
X-186.229 Y-104.34
X-186.507 Y-104.329
X-186.787 Y-104.326
X-254.427
G2 X-259.014 Y-99.738 I0 J4.588
G1 Y-87.689
Z-1.206
Y-78.514
Z-2 F333.3
Y-68.238 F1000
G2 X-254.427 Y-63.65 I4.587 J0
G1 X-186.788
X-186.509 Y-63.646
X-186.229 Y-63.635
X-185.939 Y-63.617
X-185.639 Y-63.591
X-185.33 Y-63.558
X-185.023 Y-63.518
X-184.37 Y-63.413
X-183.72 Y-63.281
X-183.075 Y-63.119
X-182.781 Y-63.033
X-182.489 Y-62.938
X-182.214 Y-62.839
X-181.96 Y-62.736
X-181.73 Y-62.631
X-181.53 Y-62.527
X-181.361 Y-62.425
X-181.229 Y-62.333
X-181.138 Y-62.256
X-181.098 Y-62.214
Y-62.213
X-181.115 Y-62.168
X-181.143 Y-62.107
X-181.18 Y-62.035
X-181.231 Y-61.949
X-181.297 Y-61.848
X-181.376 Y-61.739
X-181.476 Y-61.609
G2 X-176.192 Y-50.906 I5.142 J4.117
G1 Z-1.206
G2 X-171.204 Y-53.36 I-0.142 J-6.586
G1 X-170.552 Y-54.162
X-169.913 Y-54.93
X-169.285 Y-55.668
X-168.67 Y-56.373
Z-2 F333.3
X-168.667 Y-56.376 F1000
X-168.059 Y-57.054
X-167.461 Y-57.703
X-166.875 Y-58.322
X-166.298 Y-58.912
X-165.731 Y-59.472
X-165.173 Y-60.004
X-164.626 Y-60.508
X-164.089 Y-60.983
X-163.561 Y-61.431
X-163.042 Y-61.852
X-162.532 Y-62.245
X-162.032 Y-62.613
X-161.54 Y-62.954
X-161.057 Y-63.269
X-160.583 Y-63.559
X-160.117 Y-63.825
X-159.66 Y-64.066
X-159.21 Y-64.283
X-158.767 Y-64.478
X-158.332 Y-64.65
X-157.903 Y-64.8
X-157.479 Y-64.929
X-157.062 Y-65.037
X-156.649 Y-65.124
X-156.24 Y-65.192
X-155.834 Y-65.24
X-155.43 Y-65.268
X-155.027 Y-65.278
X-154.624 Y-65.268
X-154.22 Y-65.24
X-153.813 Y-65.192
X-153.405 Y-65.124
X-152.992 Y-65.037
X-152.574 Y-64.929
X-152.152 Y-64.8
X-151.722 Y-64.65
X-151.287 Y-64.478
X-150.844 Y-64.284
X-150.394 Y-64.066
X-149.937 Y-63.825
X-149.471 Y-63.559
X-148.997 Y-63.269
X-148.514 Y-62.954
X-148.022 Y-62.613
X-147.522 Y-62.245
X-147.012 Y-61.852
X-146.493 Y-61.431
X-145.965 Y-60.983
X-145.428 Y-60.508
X-144.881 Y-60.004
X-144.323 Y-59.472
X-143.756 Y-58.912
X-143.179 Y-58.322
X-142.592 Y-57.703
X-141.995 Y-57.055
X-141.387 Y-56.376
X-140.769 Y-55.668
X-140.141 Y-54.93
X-139.502 Y-54.162
X-138.85 Y-53.36
G2 X-129.37 Y-52.546 I5.13 J-4.132
G3 X-128.922 Y-52.517 I0.21 J0.238
G1 X-128.712 Y-52.278
X-128.665 Y-52.225 Z-1.992
X-128.621 Y-52.175 Z-1.969
X-128.581 Y-52.13 Z-1.931
X-128.548 Y-52.092 Z-1.88
X-128.523 Y-52.064 Z-1.82
X-128.507 Y-52.046 Z-1.753
X-128.502 Y-52.04 Z-1.683
Z5
X-121.551
Z0.635 F333.3
Z-0.483
X-121.546 Y-52.046 Z-0.553 F1000
X-121.531 Y-52.064 Z-0.62
X-121.506 Y-52.092 Z-0.68
X-121.472 Y-52.13 Z-0.731
X-121.433 Y-52.175 Z-0.769
X-121.388 Y-52.225 Z-0.792
X-121.342 Y-52.278 Z-0.8
X-121.132 Y-52.517
G3 X-120.684 Y-52.546 I0.238 J0.21
G2 X-111.204 Y-53.36 I4.35 J-4.947
G1 X-110.552 Y-54.162
X-109.913 Y-54.93
X-109.285 Y-55.668
X-108.667 Y-56.376
X-108.059 Y-57.054
X-107.461 Y-57.703
X-106.875 Y-58.322
X-106.298 Y-58.912
X-105.731 Y-59.472
X-105.173 Y-60.004
X-104.626 Y-60.508
X-104.089 Y-60.983
X-103.561 Y-61.431
X-103.042 Y-61.852
X-102.532 Y-62.245
X-102.032 Y-62.613
X-101.54 Y-62.954
X-101.057 Y-63.269
X-100.583 Y-63.559
X-100.117 Y-63.825
X-99.66 Y-64.066
X-99.21 Y-64.284
X-98.767 Y-64.478
X-98.332 Y-64.65
X-97.902 Y-64.8
X-97.48 Y-64.929
X-97.062 Y-65.037
X-96.649 Y-65.124
X-96.24 Y-65.192
X-95.834 Y-65.24
X-95.43 Y-65.268
X-95.027 Y-65.278
X-94.624 Y-65.268
X-94.22 Y-65.24
X-93.814 Y-65.192
X-93.405 Y-65.124
X-92.992 Y-65.037
X-92.574 Y-64.929
X-92.151 Y-64.8
X-91.722 Y-64.65
X-91.287 Y-64.478
X-90.844 Y-64.284
X-90.394 Y-64.066
X-89.936 Y-63.825
X-89.47 Y-63.559
X-88.996 Y-63.269
X-88.513 Y-62.954
X-88.022 Y-62.613
X-87.522 Y-62.245
X-87.012 Y-61.852
X-86.493 Y-61.431
X-85.965 Y-60.983
X-85.428 Y-60.508
X-84.88 Y-60.004
X-84.323 Y-59.472
X-83.756 Y-58.912
X-83.179 Y-58.322
X-82.592 Y-57.703
X-81.995 Y-57.055
X-81.387 Y-56.376
X-80.769 Y-55.668
X-80.141 Y-54.93
X-79.502 Y-54.162
X-78.85 Y-53.36
G2 X-68.586 Y-61.62 I5.131 J-4.132
G1 X-71.081 Y-64.722
G3 X-70.037 Y-67.019 I1.101 J-0.885
G1 X-36.079 Y-68.4
X-8
G2 X-3.412 Y-72.988 I0 J-4.588
G1 Y-94.988
G2 X-8 Y-99.575 I-4.588 J0
G1 X-36.079
X-70.037 Y-100.957
G3 X-71.081 Y-103.253 I0.057 J-1.411
G1 X-68.586 Y-106.355
G2 X-78.85 Y-114.615 I-5.134 J-4.128
G1 X-79.502 Y-113.813
X-80.141 Y-113.045
X-80.769 Y-112.306
X-81.387 Y-111.599
X-81.995 Y-110.921
X-82.592 Y-110.272
X-83.179 Y-109.654
X-83.757 Y-109.063
X-84.323 Y-108.503
X-84.88 Y-107.972
X-85.428 Y-107.468
X-85.965 Y-106.992
X-86.494 Y-106.544
X-87.013 Y-106.123
X-87.521 Y-105.729
X-88.021 Y-105.363
X-88.514 Y-105.022
X-88.996 Y-104.706
X-89.47 Y-104.416
X-89.936 Y-104.15
X-90.393 Y-103.909
X-90.845 Y-103.691
X-91.287 Y-103.496
X-91.722 Y-103.325
X-92.152 Y-103.174
X-92.574 Y-103.046
X-92.992 Y-102.938
X-93.404 Y-102.851
X-93.814 Y-102.783
X-94.219 Y-102.735
X-94.623 Y-102.707
X-95.027 Y-102.697
X-95.43 Y-102.707
X-95.835 Y-102.735
X-96.24 Y-102.783
X-96.65 Y-102.851
X-97.062 Y-102.938
X-97.48 Y-103.046
X-97.902 Y-103.174
X-98.332 Y-103.325
X-98.767 Y-103.496
X-99.209 Y-103.691
X-99.661 Y-103.909
X-100.117 Y-104.15
X-100.583 Y-104.416
X-101.057 Y-104.706
X-101.54 Y-105.022
X-102.032 Y-105.363
X-102.532 Y-105.729
X-103.041 Y-106.123
X-103.56 Y-106.544
X-104.089 Y-106.992
X-104.626 Y-107.468
X-105.174 Y-107.971
X-105.731 Y-108.503
X-106.297 Y-109.063
X-106.875 Y-109.653
X-107.461 Y-110.272
X-108.059 Y-110.921
X-108.667 Y-111.599
X-109.285 Y-112.306
X-109.913 Y-113.045
X-110.552 Y-113.813
X-111.204 Y-114.615
G2 X-121.818 Y-106.832 I-5.13 J4.132
G1 X-121.402 Y-106.203
X-121.01 Y-105.603
X-120.643 Y-105.029
X-120.297 Y-104.479
X-119.974 Y-103.953
X-119.674 Y-103.455
X-119.396 Y-102.978
X-119.141 Y-102.529
X-118.909 Y-102.104
X-118.697 Y-101.701
X-118.507 Y-101.323
X-118.339 Y-100.968
X-118.191 Y-100.637
X-118.063 Y-100.328
X-117.953 Y-100.039
X-117.863 Y-99.775
X-117.79 Y-99.533
X-117.733 Y-99.309
X-117.691 Y-99.107
X-117.662 Y-98.92
X-117.643 Y-98.747
X-117.636 Y-98.59
X-117.637 Y-98.445
X-117.647 Y-98.304
X-117.664 Y-98.164
X-117.689 Y-98.029
X-117.722 Y-97.888
X-117.76 Y-97.755
X-117.88 Y-97.418
X-118.034 Y-97.059
X-118.229 Y-96.655
X-118.458 Y-96.202
X-118.712 Y-95.705
X-118.717 Y-95.696
X-118.849 Y-95.433
X-118.857 Y-95.416
X-118.99 Y-95.143
X-118.994 Y-95.134
X-119.13 Y-94.851
X-119.143 Y-94.825
X-119.278 Y-94.53
X-119.286 Y-94.512
X-119.422 Y-94.204
X-119.433 Y-94.179
X-119.568 Y-93.859
X-119.578 Y-93.834
X-119.712 Y-93.5
X-119.723 Y-93.472
X-119.855 Y-93.125
X-119.866 Y-93.094
X-119.995 Y-92.732
X-120.005 Y-92.703
X-120.131 Y-92.327
X-120.141 Y-92.296
X-120.263 Y-91.905
X-120.272 Y-91.875
X-120.39 Y-91.47
X-120.399 Y-91.438
X-120.512 Y-91.018
X-120.52 Y-90.986
X-120.627 Y-90.551
X-120.635 Y-90.52
X-120.736 Y-90.071
X-120.742 Y-90.043
X-120.837 Y-89.581
X-120.843 Y-89.55
X-120.931 Y-89.076
X-120.936 Y-89.044
X-121.016 Y-88.558
X-121.021 Y-88.527
X-121.093 Y-88.03
X-121.097 Y-88.001
X-121.161 Y-87.494
X-121.165 Y-87.464
X-121.22 Y-86.948
X-121.222 Y-86.922
X-121.269 Y-86.399
X-121.272 Y-86.364
X-121.308 Y-85.835
X-121.309 Y-85.81
X-121.337 Y-85.276
X-121.339 Y-85.243
X-121.356 Y-84.706
Y-84.679
X-121.364 Y-84.14
Y-84.107
X-121.361 Y-83.567
Y-83.538
X-121.348 Y-82.999
X-121.347 Y-82.969
X-121.324 Y-82.433
X-121.322 Y-82.402
X-121.289 Y-81.869
X-121.287 Y-81.839
X-121.244 Y-81.311
X-121.241 Y-81.276
X-121.187 Y-80.755
X-121.184 Y-80.728
X-121.122 Y-80.215
X-121.117 Y-80.178
X-121.044 Y-79.674
X-121.039 Y-79.641
X-120.957 Y-79.147
X-120.951 Y-79.113
X-120.86 Y-78.631
X-120.854 Y-78.598
X-120.754 Y-78.127
X-120.746 Y-78.089
X-120.638 Y-77.632
X-120.63 Y-77.598
X-120.515 Y-77.154
X-120.505 Y-77.119
X-120.383 Y-76.689
X-120.371 Y-76.648
