(Main_1-5)
(Bearbeiten)
(  Hersteller: ChinaCnc)
(  model: 3040T)
(  description: Generic 3-axis)
(T14 D=1.5 CR=0 - ZMIN=-2.3 - Schaftfrser)
G90 G94
G17
G21
(-Attention- Property Safe Retracts is set to Clearance Height.)
(Ensure the clearance height will clear the part and or fixtures.)
(Raise the Z-axis to a safe height before starting the program.)
(When using Fusion 360 for Personal Use, the feedrate of)
(rapid moves is reduced to match the feedrate of cutting)
(moves, which can increase machining time. Unrestricted rapid)
(moves are available with a Fusion 360 Subscription.)

(Bohrfrsen4)
M0
(MANUAL TOOL CHANGE TO T14)
S6000 M3
G17 G90 G94
G54
G0 X-151.947 Y-53.375
Z15
G1 Z2 F600
Z0.15 F400
Y-53.368 Z0.104
Y-53.346 Z0.062
Y-53.313 Z0.029
Y-53.271 Z0.007
Y-53.225 Z0
Y-53.15
X-151.954 Y-53.104
X-151.975 Y-53.062
X-152.009 Y-53.029
X-152.05 Y-53.007
X-152.097 Y-53
G3 X-152.097 Y-54 Z-0.044 I0 J-0.5 F600
X-152.097 Y-53 Z-0.087 I0 J0.5
X-152.097 Y-54 Z-0.131 I0 J-0.5
X-152.097 Y-53 Z-0.175 I0 J0.5
X-152.097 Y-54 Z-0.218 I0 J-0.5
X-152.097 Y-53 Z-0.262 I0 J0.5
X-152.097 Y-54 Z-0.306 I0 J-0.5
X-152.097 Y-53 Z-0.349 I0 J0.5
X-152.097 Y-54 Z-0.393 I0 J-0.5
X-152.097 Y-53 Z-0.437 I0 J0.5
X-152.097 Y-54 Z-0.48 I0 J-0.5
X-152.097 Y-53 Z-0.524 I0 J0.5
X-152.097 Y-54 Z-0.567 I0 J-0.5
X-152.097 Y-53 Z-0.611 I0 J0.5
X-152.097 Y-54 Z-0.655 I0 J-0.5
X-152.097 Y-53 Z-0.698 I0 J0.5
X-152.097 Y-54 Z-0.742 I0 J-0.5
X-152.097 Y-53 Z-0.786 I0 J0.5
X-152.097 Y-54 Z-0.829 I0 J-0.5
X-152.097 Y-53 Z-0.873 I0 J0.5
X-152.097 Y-54 Z-0.917 I0 J-0.5
X-152.097 Y-53 Z-0.96 I0 J0.5
X-152.097 Y-54 Z-1.004 I0 J-0.5
X-152.097 Y-53 Z-1.048 I0 J0.5
X-152.097 Y-54 Z-1.091 I0 J-0.5
X-152.097 Y-53 Z-1.135 I0 J0.5
X-152.097 Y-54 Z-1.179 I0 J-0.5
X-152.097 Y-53 Z-1.222 I0 J0.5
X-152.097 Y-54 Z-1.266 I0 J-0.5
X-152.097 Y-53 Z-1.31 I0 J0.5
X-152.097 Y-54 Z-1.353 I0 J-0.5
X-152.097 Y-53 Z-1.397 I0 J0.5
X-152.097 Y-54 Z-1.44 I0 J-0.5
X-152.097 Y-53 Z-1.484 I0 J0.5
X-152.097 Y-54 Z-1.528 I0 J-0.5
X-152.097 Y-53 Z-1.571 I0 J0.5
X-152.097 Y-54 Z-1.615 I0 J-0.5
X-152.097 Y-53 Z-1.659 I0 J0.5
X-152.097 Y-54 Z-1.702 I0 J-0.5
X-152.097 Y-53 Z-1.746 I0 J0.5
X-152.097 Y-54 Z-1.79 I0 J-0.5
X-152.097 Y-53 Z-1.833 I0 J0.5
X-152.097 Y-54 Z-1.877 I0 J-0.5
X-152.097 Y-53 Z-1.921 I0 J0.5
X-152.097 Y-54 Z-1.964 I0 J-0.5
X-152.097 Y-53 Z-2.008 I0 J0.5
X-152.097 Y-54 Z-2.052 I0 J-0.5
X-152.097 Y-53 Z-2.095 I0 J0.5
X-152.097 Y-54 Z-2.139 I0 J-0.5
X-152.097 Y-53 Z-2.183 I0 J0.5
X-152.097 Y-54 Z-2.226 I0 J-0.5
X-152.097 Y-53 Z-2.27 I0 J0.5
X-152.51 Y-53.782 Z-2.3 I0 J-0.5
X-151.684 Y-53.218 I0.413 J0.282
X-152.51 Y-53.782 I-0.413 J-0.282
G1 X-152.477 Y-53.816
X-152.436 Y-53.839
X-152.39 Y-53.847
X-152.344 Y-53.841
X-152.301 Y-53.821
X-152.239 Y-53.779
X-152.201 Y-53.753 Z-2.293
X-152.166 Y-53.729 Z-2.271
X-152.139 Y-53.711 Z-2.238
X-152.121 Y-53.699 Z-2.196
X-152.115 Y-53.694 Z-2.15
Z5
X-176.947 Y-53.375
Z2
Z0.15 F400
Y-53.368 Z0.104
Y-53.346 Z0.062
Y-53.313 Z0.029
Y-53.271 Z0.007
Y-53.225 Z0
Y-53.15
X-176.954 Y-53.104
X-176.975 Y-53.062
X-177.009 Y-53.029
X-177.05 Y-53.007
X-177.097 Y-53
G3 X-177.097 Y-54 Z-0.044 I0 J-0.5 F600
X-177.097 Y-53 Z-0.087 I0 J0.5
X-177.097 Y-54 Z-0.131 I0 J-0.5
X-177.097 Y-53 Z-0.175 I0 J0.5
X-177.097 Y-54 Z-0.218 I0 J-0.5
X-177.097 Y-53 Z-0.262 I0 J0.5
X-177.097 Y-54 Z-0.306 I0 J-0.5
X-177.097 Y-53 Z-0.349 I0 J0.5
X-177.097 Y-54 Z-0.393 I0 J-0.5
X-177.097 Y-53 Z-0.437 I0 J0.5
X-177.097 Y-54 Z-0.48 I0 J-0.5
X-177.097 Y-53 Z-0.524 I0 J0.5
X-177.097 Y-54 Z-0.567 I0 J-0.5
X-177.097 Y-53 Z-0.611 I0 J0.5
X-177.097 Y-54 Z-0.655 I0 J-0.5
X-177.097 Y-53 Z-0.698 I0 J0.5
X-177.097 Y-54 Z-0.742 I0 J-0.5
X-177.097 Y-53 Z-0.786 I0 J0.5
X-177.097 Y-54 Z-0.829 I0 J-0.5
X-177.097 Y-53 Z-0.873 I0 J0.5
X-177.097 Y-54 Z-0.917 I0 J-0.5
X-177.097 Y-53 Z-0.96 I0 J0.5
X-177.097 Y-54 Z-1.004 I0 J-0.5
X-177.097 Y-53 Z-1.048 I0 J0.5
X-177.097 Y-54 Z-1.091 I0 J-0.5
X-177.097 Y-53 Z-1.135 I0 J0.5
X-177.097 Y-54 Z-1.179 I0 J-0.5
X-177.097 Y-53 Z-1.222 I0 J0.5
X-177.097 Y-54 Z-1.266 I0 J-0.5
X-177.097 Y-53 Z-1.31 I0 J0.5
X-177.097 Y-54 Z-1.353 I0 J-0.5
X-177.097 Y-53 Z-1.397 I0 J0.5
X-177.097 Y-54 Z-1.44 I0 J-0.5
X-177.097 Y-53 Z-1.484 I0 J0.5
X-177.097 Y-54 Z-1.528 I0 J-0.5
X-177.097 Y-53 Z-1.571 I0 J0.5
X-177.097 Y-54 Z-1.615 I0 J-0.5
X-177.097 Y-53 Z-1.659 I0 J0.5
X-177.097 Y-54 Z-1.702 I0 J-0.5
X-177.097 Y-53 Z-1.746 I0 J0.5
X-177.097 Y-54 Z-1.79 I0 J-0.5
X-177.097 Y-53 Z-1.833 I0 J0.5
X-177.097 Y-54 Z-1.877 I0 J-0.5
X-177.097 Y-53 Z-1.921 I0 J0.5
X-177.097 Y-54 Z-1.964 I0 J-0.5
X-177.097 Y-53 Z-2.008 I0 J0.5
X-177.097 Y-54 Z-2.052 I0 J-0.5
X-177.097 Y-53 Z-2.095 I0 J0.5
X-177.097 Y-54 Z-2.139 I0 J-0.5
X-177.097 Y-53 Z-2.183 I0 J0.5
X-177.097 Y-54 Z-2.226 I0 J-0.5
X-177.097 Y-53 Z-2.27 I0 J0.5
X-177.51 Y-53.782 Z-2.3 I0 J-0.5
X-176.684 Y-53.218 I0.413 J0.282
X-177.51 Y-53.782 I-0.413 J-0.282
G1 X-177.477 Y-53.816
X-177.436 Y-53.839
X-177.39 Y-53.847
X-177.344 Y-53.841
X-177.301 Y-53.821
X-177.239 Y-53.779
X-177.201 Y-53.753 Z-2.293
X-177.166 Y-53.729 Z-2.271
X-177.139 Y-53.711 Z-2.238
X-177.121 Y-53.699 Z-2.196
X-177.115 Y-53.694 Z-2.15
Z5
X-176.947 Y-28.375
Z2
Z0.15 F400
Y-28.368 Z0.104
Y-28.346 Z0.062
Y-28.313 Z0.029
Y-28.271 Z0.007
Y-28.225 Z0
Y-28.15
X-176.954 Y-28.104
X-176.975 Y-28.062
X-177.009 Y-28.029
X-177.05 Y-28.007
X-177.097 Y-28
G3 X-177.097 Y-29 Z-0.044 I0 J-0.5 F600
X-177.097 Y-28 Z-0.087 I0 J0.5
X-177.097 Y-29 Z-0.131 I0 J-0.5
X-177.097 Y-28 Z-0.175 I0 J0.5
X-177.097 Y-29 Z-0.218 I0 J-0.5
X-177.097 Y-28 Z-0.262 I0 J0.5
X-177.097 Y-29 Z-0.306 I0 J-0.5
X-177.097 Y-28 Z-0.349 I0 J0.5
X-177.097 Y-29 Z-0.393 I0 J-0.5
X-177.097 Y-28 Z-0.437 I0 J0.5
X-177.097 Y-29 Z-0.48 I0 J-0.5
X-177.097 Y-28 Z-0.524 I0 J0.5
X-177.097 Y-29 Z-0.567 I0 J-0.5
X-177.097 Y-28 Z-0.611 I0 J0.5
X-177.097 Y-29 Z-0.655 I0 J-0.5
X-177.097 Y-28 Z-0.698 I0 J0.5
X-177.097 Y-29 Z-0.742 I0 J-0.5
X-177.097 Y-28 Z-0.786 I0 J0.5
X-177.097 Y-29 Z-0.829 I0 J-0.5
X-177.097 Y-28 Z-0.873 I0 J0.5
X-177.097 Y-29 Z-0.917 I0 J-0.5
X-177.097 Y-28 Z-0.96 I0 J0.5
X-177.097 Y-29 Z-1.004 I0 J-0.5
X-177.097 Y-28 Z-1.048 I0 J0.5
X-177.097 Y-29 Z-1.091 I0 J-0.5
X-177.097 Y-28 Z-1.135 I0 J0.5
X-177.097 Y-29 Z-1.179 I0 J-0.5
X-177.097 Y-28 Z-1.222 I0 J0.5
X-177.097 Y-29 Z-1.266 I0 J-0.5
X-177.097 Y-28 Z-1.31 I0 J0.5
X-177.097 Y-29 Z-1.353 I0 J-0.5
X-177.097 Y-28 Z-1.397 I0 J0.5
X-177.097 Y-29 Z-1.44 I0 J-0.5
X-177.097 Y-28 Z-1.484 I0 J0.5
X-177.097 Y-29 Z-1.528 I0 J-0.5
X-177.097 Y-28 Z-1.571 I0 J0.5
X-177.097 Y-29 Z-1.615 I0 J-0.5
X-177.097 Y-28 Z-1.659 I0 J0.5
X-177.097 Y-29 Z-1.702 I0 J-0.5
X-177.097 Y-28 Z-1.746 I0 J0.5
X-177.097 Y-29 Z-1.79 I0 J-0.5
X-177.097 Y-28 Z-1.833 I0 J0.5
X-177.097 Y-29 Z-1.877 I0 J-0.5
X-177.097 Y-28 Z-1.921 I0 J0.5
X-177.097 Y-29 Z-1.964 I0 J-0.5
X-177.097 Y-28 Z-2.008 I0 J0.5
X-177.097 Y-29 Z-2.052 I0 J-0.5
X-177.097 Y-28 Z-2.095 I0 J0.5
X-177.097 Y-29 Z-2.139 I0 J-0.5
X-177.097 Y-28 Z-2.183 I0 J0.5
X-177.097 Y-29 Z-2.226 I0 J-0.5
X-177.097 Y-28 Z-2.27 I0 J0.5
X-177.51 Y-28.782 Z-2.3 I0 J-0.5
X-176.684 Y-28.218 I0.413 J0.282
X-177.51 Y-28.782 I-0.413 J-0.282
G1 X-177.477 Y-28.816
X-177.436 Y-28.839
X-177.39 Y-28.847
X-177.344 Y-28.841
X-177.301 Y-28.821
X-177.239 Y-28.779
X-177.201 Y-28.753 Z-2.293
X-177.166 Y-28.729 Z-2.271
X-177.139 Y-28.711 Z-2.238
X-177.121 Y-28.699 Z-2.196
X-177.115 Y-28.694 Z-2.15
Z5
X-151.947 Y-28.375
Z2
Z0.15 F400
Y-28.368 Z0.104
Y-28.346 Z0.062
Y-28.313 Z0.029
Y-28.271 Z0.007
Y-28.225 Z0
Y-28.15
X-151.954 Y-28.104
X-151.975 Y-28.062
X-152.009 Y-28.029
X-152.05 Y-28.007
X-152.097 Y-28
G3 X-152.097 Y-29 Z-0.044 I0 J-0.5 F600
X-152.097 Y-28 Z-0.087 I0 J0.5
X-152.097 Y-29 Z-0.131 I0 J-0.5
X-152.097 Y-28 Z-0.175 I0 J0.5
X-152.097 Y-29 Z-0.218 I0 J-0.5
X-152.097 Y-28 Z-0.262 I0 J0.5
X-152.097 Y-29 Z-0.306 I0 J-0.5
X-152.097 Y-28 Z-0.349 I0 J0.5
X-152.097 Y-29 Z-0.393 I0 J-0.5
X-152.097 Y-28 Z-0.437 I0 J0.5
X-152.097 Y-29 Z-0.48 I0 J-0.5
X-152.097 Y-28 Z-0.524 I0 J0.5
X-152.097 Y-29 Z-0.567 I0 J-0.5
X-152.097 Y-28 Z-0.611 I0 J0.5
X-152.097 Y-29 Z-0.655 I0 J-0.5
X-152.097 Y-28 Z-0.698 I0 J0.5
X-152.097 Y-29 Z-0.742 I0 J-0.5
X-152.097 Y-28 Z-0.786 I0 J0.5
X-152.097 Y-29 Z-0.829 I0 J-0.5
X-152.097 Y-28 Z-0.873 I0 J0.5
X-152.097 Y-29 Z-0.917 I0 J-0.5
X-152.097 Y-28 Z-0.96 I0 J0.5
X-152.097 Y-29 Z-1.004 I0 J-0.5
X-152.097 Y-28 Z-1.048 I0 J0.5
X-152.097 Y-29 Z-1.091 I0 J-0.5
X-152.097 Y-28 Z-1.135 I0 J0.5
X-152.097 Y-29 Z-1.179 I0 J-0.5
X-152.097 Y-28 Z-1.222 I0 J0.5
X-152.097 Y-29 Z-1.266 I0 J-0.5
X-152.097 Y-28 Z-1.31 I0 J0.5
X-152.097 Y-29 Z-1.353 I0 J-0.5
X-152.097 Y-28 Z-1.397 I0 J0.5
X-152.097 Y-29 Z-1.44 I0 J-0.5
X-152.097 Y-28 Z-1.484 I0 J0.5
X-152.097 Y-29 Z-1.528 I0 J-0.5
X-152.097 Y-28 Z-1.571 I0 J0.5
X-152.097 Y-29 Z-1.615 I0 J-0.5
X-152.097 Y-28 Z-1.659 I0 J0.5
X-152.097 Y-29 Z-1.702 I0 J-0.5
X-152.097 Y-28 Z-1.746 I0 J0.5
X-152.097 Y-29 Z-1.79 I0 J-0.5
X-152.097 Y-28 Z-1.833 I0 J0.5
X-152.097 Y-29 Z-1.877 I0 J-0.5
X-152.097 Y-28 Z-1.921 I0 J0.5
X-152.097 Y-29 Z-1.964 I0 J-0.5
X-152.097 Y-28 Z-2.008 I0 J0.5
X-152.097 Y-29 Z-2.052 I0 J-0.5
X-152.097 Y-28 Z-2.095 I0 J0.5
X-152.097 Y-29 Z-2.139 I0 J-0.5
X-152.097 Y-28 Z-2.183 I0 J0.5
X-152.097 Y-29 Z-2.226 I0 J-0.5
X-152.097 Y-28 Z-2.27 I0 J0.5
X-152.51 Y-28.782 Z-2.3 I0 J-0.5
X-151.684 Y-28.218 I0.413 J0.282
X-152.51 Y-28.782 I-0.413 J-0.282
G1 X-152.477 Y-28.816
X-152.436 Y-28.839
X-152.39 Y-28.847
X-152.344 Y-28.841
X-152.301 Y-28.821
X-152.239 Y-28.779
X-152.201 Y-28.753 Z-2.293
X-152.166 Y-28.729 Z-2.271
X-152.139 Y-28.711 Z-2.238
X-152.121 Y-28.699 Z-2.196
X-152.115 Y-28.694 Z-2.15
Z15
M5
M30
