(1001)
G90 G94
G17
G21
(When using Fusion 360 for Personal Use, the feedrate of)
(rapid moves is reduced to match the feedrate of cutting)
(moves, which can increase machining time. Unrestricted rapid)
(moves are available with a Fusion 360 Subscription.)

(Bohrfrasen4)
S6000 M3
G54
G0 X-164.381 Y-202.317
Z15
G1 Z2 F1500
Z0.317 F1016
G18 G2 X-164.064 Z0 I0.318 K0
G1 X-163.905
G17 G3 X-163.587 Y-201.999 I0 J0.317
X-182.413 Y-201.999 Z-0.5 I-9.413 J0 F1500
X-163.587 Y-201.999 Z-1 I9.413 J0
X-182.413 Y-201.999 Z-1.5 I-9.413 J0
X-163.587 Y-201.999 Z-2 I9.413 J0
X-182.413 Y-201.999 Z-2.5 I-9.413 J0
X-163.587 Y-201.999 Z-3 I9.413 J0
X-182.413 Y-201.999 Z-3.5 I-9.413 J0
X-163.587 Y-201.999 Z-4 I9.413 J0
X-182.413 Y-201.999 I-9.413 J0
X-163.587 Y-201.999 I9.413 J0
X-163.905 Y-201.682 I-0.318 J0 F1016
G1 X-164.064
G18 G3 X-164.381 Z-3.682 I0 K0.318
G1 Z5 F1500
X-289.077 Y-91.081
Z1.683
Z0 F1016
X-288.918
X-288.887 Y-91.075
X-288.86 Y-91.057
X-288.843 Y-91.031
X-288.837 Y-91
G17 G3 X-289.162 Y-91 Z-0.5 I-0.163 J0 F1500
X-289.08 Y-91.141 Z-0.667 I0.163 J0
X-288.918 Y-90.859 Z-1.167 I0.081 J0.141
X-289.08 Y-90.859 Z-1.333 I-0.081 J-0.141
X-288.918 Y-91.141 Z-1.833 I0.081 J-0.141
X-289.08 Y-90.859 Z-2.333 I-0.081 J0.141
X-289.08 Y-91.141 Z-2.667 I0.081 J-0.141
X-288.918 Y-90.859 Z-3.167 I0.081 J0.141
X-289.08 Y-90.859 Z-3.333 I-0.081 J-0.141
X-288.918 Y-91.141 Z-3.833 I0.081 J-0.141
X-288.837 Y-91 Z-4 I-0.081 J0.141
X-289.162 Y-91 I-0.163 J0
X-288.837 Y-91 I0.163 J0
G1 X-288.843 Y-90.969 F1016
X-288.86 Y-90.943
X-288.887 Y-90.925
X-288.918 Y-90.919
X-289.077
Z5 F1500
X-251.077 Y-91.081
Z1.683
Z0 F1016
X-250.918
X-250.887 Y-91.075
X-250.86 Y-91.057
X-250.843 Y-91.031
X-250.837 Y-91
G3 X-251.162 Y-91 Z-0.5 I-0.163 J0 F1500
X-251.08 Y-91.141 Z-0.667 I0.162 J0
X-250.918 Y-90.859 Z-1.167 I0.081 J0.141
X-251.08 Y-90.859 Z-1.333 I-0.081 J-0.141
X-250.918 Y-91.141 Z-1.833 I0.081 J-0.141
X-251.08 Y-90.859 Z-2.333 I-0.081 J0.141
X-251.08 Y-91.141 Z-2.667 I0.081 J-0.141
X-250.918 Y-90.859 Z-3.167 I0.081 J0.141
X-251.08 Y-90.859 Z-3.333 I-0.081 J-0.141
X-250.918 Y-91.141 Z-3.833 I0.081 J-0.141
X-250.837 Y-91 Z-4 I-0.081 J0.141
X-251.162 Y-91 I-0.163 J0
X-250.837 Y-91 I0.163 J0
G1 X-250.843 Y-90.969 F1016
X-250.86 Y-90.943
X-250.887 Y-90.925
X-250.918 Y-90.919
X-251.077
Z5 F1500
X-213.077 Y-91.081
Z1.683
Z0 F1016
X-212.918
X-212.887 Y-91.075
X-212.86 Y-91.057
X-212.843 Y-91.031
X-212.837 Y-91
G3 X-213.162 Y-91 Z-0.5 I-0.163 J0 F1500
X-213.08 Y-91.141 Z-0.667 I0.162 J0
X-212.918 Y-90.859 Z-1.167 I0.081 J0.141
X-213.08 Y-90.859 Z-1.333 I-0.081 J-0.141
X-212.918 Y-91.141 Z-1.833 I0.081 J-0.141
X-213.08 Y-90.859 Z-2.333 I-0.081 J0.141
X-213.08 Y-91.141 Z-2.667 I0.081 J-0.141
X-212.918 Y-90.859 Z-3.167 I0.081 J0.141
X-213.08 Y-90.859 Z-3.333 I-0.081 J-0.141
X-212.918 Y-91.141 Z-3.833 I0.081 J-0.141
X-212.837 Y-91 Z-4 I-0.081 J0.141
X-213.162 Y-91 I-0.163 J0
X-212.837 Y-91 I0.163 J0
G1 X-212.843 Y-90.969 F1016
X-212.86 Y-90.943
X-212.887 Y-90.925
X-212.918 Y-90.919
X-213.077
Z5 F1500
X-179.856 Y-106.317
Z2
Z0.317 F1016
G18 G2 X-179.539 Z0 I0.317 K0
G1 X-179.38
G17 G3 X-179.063 Y-106 I0 J0.317
X-180.938 Y-106 Z-0.5 I-0.938 J0 F1500
X-179.063 Y-106 Z-1 I0.938 J0
X-180.938 Y-106 Z-1.5 I-0.938 J0
X-179.063 Y-106 Z-2 I0.938 J0
X-180.938 Y-106 Z-2.5 I-0.938 J0
X-179.063 Y-106 Z-3 I0.938 J0
X-180.938 Y-106 Z-3.5 I-0.938 J0
X-179.063 Y-106 Z-4 I0.938 J0
X-180.938 Y-106 I-0.938 J0
X-179.063 Y-106 I0.938 J0
X-179.38 Y-105.683 I-0.318 J0 F1016
G1 X-179.539
G18 G3 X-179.856 Z-3.682 I0 K0.318
G1 Z5 F1500
X-175.077 Y-91.081
Z1.683
Z0 F1016
X-174.918
X-174.887 Y-91.075
X-174.86 Y-91.057
X-174.843 Y-91.031
X-174.837 Y-91
G17 G3 X-175.162 Y-91 Z-0.5 I-0.163 J0 F1500
X-175.08 Y-91.141 Z-0.667 I0.162 J0
X-174.918 Y-90.859 Z-1.167 I0.081 J0.141
X-175.08 Y-90.859 Z-1.333 I-0.081 J-0.141
X-174.918 Y-91.141 Z-1.833 I0.081 J-0.141
X-175.08 Y-90.859 Z-2.333 I-0.081 J0.141
X-175.08 Y-91.141 Z-2.667 I0.081 J-0.141
X-174.918 Y-90.859 Z-3.167 I0.081 J0.141
X-175.08 Y-90.859 Z-3.333 I-0.081 J-0.141
X-174.918 Y-91.141 Z-3.833 I0.081 J-0.141
X-174.837 Y-91 Z-4 I-0.081 J0.141
X-175.162 Y-91 I-0.163 J0
X-174.837 Y-91 I0.163 J0
G1 X-174.843 Y-90.969 F1016
X-174.86 Y-90.943
X-174.887 Y-90.925
X-174.918 Y-90.919
X-175.077
Z5 F1500
X-137.077 Y-91.081
Z1.683
Z0 F1016
X-136.918
X-136.887 Y-91.075
X-136.86 Y-91.057
X-136.843 Y-91.031
X-136.837 Y-91
G3 X-137.162 Y-91 Z-0.5 I-0.163 J0 F1500
X-137.08 Y-91.141 Z-0.667 I0.162 J0
X-136.918 Y-90.859 Z-1.167 I0.081 J0.141
X-137.08 Y-90.859 Z-1.333 I-0.081 J-0.141
X-136.918 Y-91.141 Z-1.833 I0.081 J-0.141
X-137.08 Y-90.859 Z-2.333 I-0.081 J0.141
X-137.08 Y-91.141 Z-2.667 I0.081 J-0.141
X-136.918 Y-90.859 Z-3.167 I0.081 J0.141
X-137.08 Y-90.859 Z-3.333 I-0.081 J-0.141
X-136.918 Y-91.141 Z-3.833 I0.081 J-0.141
X-136.837 Y-91 Z-4 I-0.081 J0.141
X-137.162 Y-91 I-0.163 J0
X-136.837 Y-91 I0.163 J0
G1 X-136.843 Y-90.969 F1016
X-136.86 Y-90.943
X-136.887 Y-90.925
X-136.918 Y-90.919
X-137.077
Z5 F1500
X-99.077 Y-91.081
Z1.683
Z0 F1016
X-98.918
X-98.887 Y-91.075
X-98.86 Y-91.057
X-98.843 Y-91.031
X-98.837 Y-91
G3 X-99.162 Y-91 Z-0.5 I-0.162 J0 F1500
X-98.837 Y-91 Z-1 I0.162 J0
X-99.162 Y-91 Z-1.5 I-0.162 J0
X-98.837 Y-91 Z-2 I0.162 J0
X-99.162 Y-91 Z-2.5 I-0.162 J0
X-98.837 Y-91 Z-3 I0.162 J0
X-99.162 Y-91 Z-3.5 I-0.162 J0
X-98.837 Y-91 Z-4 I0.162 J0
X-99.162 Y-91 I-0.162 J0
X-98.837 Y-91 I0.162 J0
G1 X-98.843 Y-90.969 F1016
X-98.86 Y-90.943
X-98.887 Y-90.925
X-98.918 Y-90.919
X-99.077
Z5 F1500
X-61.077 Y-91.081
Z1.683
Z0 F1016
X-60.918
X-60.887 Y-91.075
X-60.86 Y-91.057
X-60.843 Y-91.031
X-60.837 Y-91
G3 X-61.162 Y-91 Z-0.5 I-0.162 J0 F1500
X-60.837 Y-91 Z-1 I0.162 J0
X-61.162 Y-91 Z-1.5 I-0.162 J0
X-60.837 Y-91 Z-2 I0.162 J0
X-61.162 Y-91 Z-2.5 I-0.162 J0
X-60.837 Y-91 Z-3 I0.162 J0
X-61.162 Y-91 Z-3.5 I-0.162 J0
X-60.837 Y-91 Z-4 I0.162 J0
X-61.162 Y-91 I-0.162 J0
X-60.837 Y-91 I0.162 J0
G1 X-60.843 Y-90.969 F1016
X-60.86 Y-90.943
X-60.887 Y-90.925
X-60.918 Y-90.919
X-61.077
Z5 F1500
X-23.077 Y-91.081
Z1.683
Z0 F1016
X-22.918
X-22.887 Y-91.075
X-22.86 Y-91.057
X-22.843 Y-91.031
X-22.837 Y-91
G3 X-23.162 Y-91 Z-0.5 I-0.163 J0 F1500
X-22.837 Y-91 Z-1 I0.163 J0
X-23.162 Y-91 Z-1.5 I-0.163 J0
X-22.837 Y-91 Z-2 I0.163 J0
X-23.162 Y-91 Z-2.5 I-0.163 J0
X-22.837 Y-91 Z-3 I0.163 J0
X-23.162 Y-91 Z-3.5 I-0.163 J0
X-22.837 Y-91 Z-4 I0.163 J0
X-23.162 Y-91 I-0.163 J0
X-22.837 Y-91 I0.163 J0
G1 X-22.843 Y-90.969 F1016
X-22.86 Y-90.943
X-22.887 Y-90.925
X-22.918 Y-90.919
X-23.077
Z5 F1500
Y-21.081
Z1.683
Z0 F1016
X-22.918
X-22.887 Y-21.075
X-22.86 Y-21.057
X-22.843 Y-21.031
X-22.837 Y-21
G3 X-23.162 Y-21 Z-0.5 I-0.163 J0 F1500
X-22.837 Y-21 Z-1 I0.163 J0
X-23.162 Y-21 Z-1.5 I-0.163 J0
X-22.837 Y-21 Z-2 I0.163 J0
X-23.162 Y-21 Z-2.5 I-0.163 J0
X-22.837 Y-21 Z-3 I0.163 J0
X-23.162 Y-21 Z-3.5 I-0.163 J0
X-22.837 Y-21 Z-4 I0.163 J0
X-23.162 Y-21 I-0.163 J0
X-22.837 Y-21 I0.163 J0
G1 X-22.843 Y-20.969 F1016
X-22.86 Y-20.943
X-22.887 Y-20.925
X-22.918 Y-20.919
X-23.077
Z5 F1500
X-61.077 Y-21.081
Z1.683
Z0 F1016
X-60.918
X-60.887 Y-21.075
X-60.86 Y-21.057
X-60.843 Y-21.031
X-60.837 Y-21
G3 X-61.162 Y-21 Z-0.5 I-0.162 J0 F1500
X-60.837 Y-21 Z-1 I0.162 J0
X-61.162 Y-21 Z-1.5 I-0.162 J0
X-60.837 Y-21 Z-2 I0.162 J0
X-61.162 Y-21 Z-2.5 I-0.162 J0
X-60.837 Y-21 Z-3 I0.162 J0
X-61.162 Y-21 Z-3.5 I-0.162 J0
X-60.837 Y-21 Z-4 I0.162 J0
X-61.162 Y-21 I-0.162 J0
X-60.837 Y-21 I0.162 J0
G1 X-60.843 Y-20.969 F1016
X-60.86 Y-20.943
X-60.887 Y-20.925
X-60.918 Y-20.919
X-61.077
Z5 F1500
X-99.077 Y-21.081
Z1.683
Z0 F1016
X-98.918
X-98.887 Y-21.075
X-98.86 Y-21.057
X-98.843 Y-21.031
X-98.837 Y-21
G3 X-99.162 Y-21 Z-0.5 I-0.162 J0 F1500
X-98.837 Y-21 Z-1 I0.162 J0
X-99.162 Y-21 Z-1.5 I-0.162 J0
X-98.837 Y-21 Z-2 I0.162 J0
X-99.162 Y-21 Z-2.5 I-0.162 J0
X-98.837 Y-21 Z-3 I0.162 J0
X-99.162 Y-21 Z-3.5 I-0.162 J0
X-98.837 Y-21 Z-4 I0.162 J0
X-99.162 Y-21 I-0.162 J0
X-98.837 Y-21 I0.162 J0
G1 X-98.843 Y-20.969 F1016
X-98.86 Y-20.943
X-98.887 Y-20.925
X-98.918 Y-20.919
X-99.077
Z5 F1500
X-137.077 Y-21.081
Z1.683
Z0 F1016
X-136.918
X-136.887 Y-21.075
X-136.86 Y-21.057
X-136.843 Y-21.031
X-136.837 Y-21
G3 X-137.162 Y-21 Z-0.5 I-0.163 J0 F1500
X-137.08 Y-21.141 Z-0.667 I0.162 J0
X-136.918 Y-20.859 Z-1.167 I0.081 J0.141
X-137.08 Y-20.859 Z-1.333 I-0.081 J-0.141
X-136.918 Y-21.141 Z-1.833 I0.081 J-0.141
X-137.08 Y-20.859 Z-2.333 I-0.081 J0.141
X-137.08 Y-21.141 Z-2.667 I0.081 J-0.141
X-136.918 Y-20.859 Z-3.167 I0.081 J0.141
X-137.08 Y-20.859 Z-3.333 I-0.081 J-0.141
X-136.918 Y-21.141 Z-3.833 I0.081 J-0.141
X-136.837 Y-21 Z-4 I-0.081 J0.141
X-137.162 Y-21 I-0.163 J0
X-136.837 Y-21 I0.163 J0
G1 X-136.843 Y-20.969 F1016
X-136.86 Y-20.943
X-136.887 Y-20.925
X-136.918 Y-20.919
X-137.077
Z5 F1500
X-175.077 Y-21.081
Z1.683
Z0 F1016
X-174.918
X-174.887 Y-21.075
X-174.86 Y-21.057
X-174.843 Y-21.031
X-174.837 Y-21
G3 X-175.162 Y-21 Z-0.5 I-0.163 J0 F1500
X-175.08 Y-21.141 Z-0.667 I0.162 J0
X-174.918 Y-20.859 Z-1.167 I0.081 J0.141
X-175.08 Y-20.859 Z-1.333 I-0.081 J-0.141
X-174.918 Y-21.141 Z-1.833 I0.081 J-0.141
X-175.08 Y-20.859 Z-2.333 I-0.081 J0.141
X-175.08 Y-21.141 Z-2.667 I0.081 J-0.141
X-174.918 Y-20.859 Z-3.167 I0.081 J0.141
X-175.08 Y-20.859 Z-3.333 I-0.081 J-0.141
X-174.918 Y-21.141 Z-3.833 I0.081 J-0.141
X-174.837 Y-21 Z-4 I-0.081 J0.141
X-175.162 Y-21 I-0.163 J0
X-174.837 Y-21 I0.163 J0
G1 X-174.843 Y-20.969 F1016
X-174.86 Y-20.943
X-174.887 Y-20.925
X-174.918 Y-20.919
X-175.077
Z5 F1500
X-213.077 Y-21.081
Z1.683
Z0 F1016
X-212.918
X-212.887 Y-21.075
X-212.86 Y-21.057
X-212.843 Y-21.031
X-212.837 Y-21
G3 X-213.162 Y-21 Z-0.5 I-0.163 J0 F1500
X-213.08 Y-21.141 Z-0.667 I0.162 J0
X-212.918 Y-20.859 Z-1.167 I0.081 J0.141
X-213.08 Y-20.859 Z-1.333 I-0.081 J-0.141
X-212.918 Y-21.141 Z-1.833 I0.081 J-0.141
X-213.08 Y-20.859 Z-2.333 I-0.081 J0.141
X-213.08 Y-21.141 Z-2.667 I0.081 J-0.141
X-212.918 Y-20.859 Z-3.167 I0.081 J0.141
X-213.08 Y-20.859 Z-3.333 I-0.081 J-0.141
X-212.918 Y-21.141 Z-3.833 I0.081 J-0.141
X-212.837 Y-21 Z-4 I-0.081 J0.141
X-213.162 Y-21 I-0.163 J0
X-212.837 Y-21 I0.163 J0
G1 X-212.843 Y-20.969 F1016
X-212.86 Y-20.943
X-212.887 Y-20.925
X-212.918 Y-20.919
X-213.077
Z5 F1500
X-251.077 Y-21.081
Z1.683
Z0 F1016
X-250.918
X-250.887 Y-21.075
X-250.86 Y-21.057
X-250.843 Y-21.031
X-250.837 Y-21
G3 X-251.162 Y-21 Z-0.5 I-0.163 J0 F1500
X-251.08 Y-21.141 Z-0.667 I0.162 J0
X-250.918 Y-20.859 Z-1.167 I0.081 J0.141
X-251.08 Y-20.859 Z-1.333 I-0.081 J-0.141
X-250.918 Y-21.141 Z-1.833 I0.081 J-0.141
X-251.08 Y-20.859 Z-2.333 I-0.081 J0.141
X-251.08 Y-21.141 Z-2.667 I0.081 J-0.141
X-250.918 Y-20.859 Z-3.167 I0.081 J0.141
X-251.08 Y-20.859 Z-3.333 I-0.081 J-0.141
X-250.918 Y-21.141 Z-3.833 I0.081 J-0.141
X-250.837 Y-21 Z-4 I-0.081 J0.141
X-251.162 Y-21 I-0.163 J0
X-250.837 Y-21 I0.163 J0
G1 X-250.843 Y-20.969 F1016
X-250.86 Y-20.943
X-250.887 Y-20.925
X-250.918 Y-20.919
X-251.077
Z5 F1500
X-289.077 Y-21.081
Z1.683
Z0 F1016
X-288.918
X-288.887 Y-21.075
X-288.86 Y-21.057
X-288.843 Y-21.031
X-288.837 Y-21
G3 X-289.162 Y-21 Z-0.5 I-0.163 J0 F1500
X-289.08 Y-21.141 Z-0.667 I0.163 J0
X-288.918 Y-20.859 Z-1.167 I0.081 J0.141
X-289.08 Y-20.859 Z-1.333 I-0.081 J-0.141
X-288.918 Y-21.141 Z-1.833 I0.081 J-0.141
X-289.08 Y-20.859 Z-2.333 I-0.081 J0.141
X-289.08 Y-21.141 Z-2.667 I0.081 J-0.141
X-288.918 Y-20.859 Z-3.167 I0.081 J0.141
X-289.08 Y-20.859 Z-3.333 I-0.081 J-0.141
X-288.918 Y-21.141 Z-3.833 I0.081 J-0.141
X-288.837 Y-21 Z-4 I-0.081 J0.141
X-289.162 Y-21 I-0.163 J0
X-288.837 Y-21 I0.163 J0
G1 X-288.843 Y-20.969 F1016
X-288.86 Y-20.943
X-288.887 Y-20.925
X-288.918 Y-20.919
X-289.077
Z15 F1500
(When using Fusion 360 for Personal Use, the feedrate of)
(rapid moves is reduced to match the feedrate of cutting)
(moves, which can increase machining time. Unrestricted rapid)
(moves are available with a Fusion 360 Subscription.)

(2D-Kontur14)
G0 X-89.285 Y-210.411
G1 Z12.8 F1500
Z5
Z2.5 F300
S8000
X-51 Z1.163 F1016
G3 X-42.588 Y-201.999 Z0.702 I0 J8.413
G1 Y-158.999 Z-0.8
S6000
Y-115.999 F1500
G3 X-51 Y-107.587 I-8.412 J0
G1 X-137
G3 X-145.413 Y-115.999 I0 J-8.412
G1 Y-201.999
G3 X-137 Y-210.411 I8.413 J0
G1 X-51
G3 X-42.588 Y-201.999 I0 J8.413
G1 Y-158.999
S8000
Y-132.542 Z-1.6 F1016
S6000
Y-115.999 F1500
G3 X-51 Y-107.587 I-8.412 J0
G1 X-137
G3 X-145.413 Y-115.999 I0 J-8.412
G1 Y-201.999
G3 X-137 Y-210.411 I8.413 J0
G1 X-51
G3 X-42.588 Y-201.999 I0 J8.413
G1 Y-158.999
Y-132.542
S8000
Y-115.999 Z-2.1 F1016
G3 X-47.784 Y-108.226 Z-2.4 I-8.412 J0
S6000
X-51 Y-107.587 I-3.216 J-7.773 F1500
G1 X-137
G3 X-145.413 Y-115.999 I0 J-8.412
G1 Y-201.999
G3 X-137 Y-210.411 I8.413 J0
G1 X-51
G3 X-42.588 Y-201.999 I0 J8.413
G1 Y-132.542
Y-115.999
G3 X-47.784 Y-108.226 I-8.412 J0
S8000
X-51 Y-107.587 Z-2.5 I-3.216 J-7.773 F1016
G1 X-74.157 Z-3.2
S6000
X-89.912 F1500
Z-2.6
X-98.088
Z-3.2 F300
X-137 F1500
G3 X-145.413 Y-115.999 I0 J-8.412
G1 Y-154.911
Z-2.6
Y-163.087
Z-3.2 F300
Y-201.999 F1500
G3 X-137 Y-210.411 I8.413 J0
G1 X-98.088
Z-2.6
X-89.912
Z-3.2 F300
X-51 F1500
G3 X-42.588 Y-201.999 I0 J8.413
G1 Y-163.087
Z-2.6
Y-154.911
Z-3.2 F300
Y-115.999 F1500
G3 X-51 Y-107.587 I-8.412 J0
G1 X-74.157
S8000
X-89.912 Z-3.676 F1016
Z-2.6
X-98.088
S6000
Z-3.924 F300
S8000
X-100.614 Z-4 F1016
S6000
X-137 F1500
G3 X-145.413 Y-115.999 I0 J-8.412
G1 Y-154.911
Z-2.6
Y-163.087
Z-4 F300
Y-201.999 F1500
G3 X-137 Y-210.411 I8.413 J0
G1 X-98.088
Z-2.6
X-89.912
Z-4 F300
X-51 F1500
G3 X-42.588 Y-201.999 I0 J8.413
G1 Y-163.087
Z-2.6
Y-154.911
Z-4 F300
Y-115.999 F1500
G3 X-51 Y-107.587 I-8.412 J0
G1 X-89.912
Z-2.6
X-98.088
Z-4 F300
X-100.614 F1500
Z5
X-139.771 Y-84.412
Z2.5 F300
S8000
X-45.271 Z-0.8 F1016
S6000
X-19.587 F1500
Y-68.5
G2 X-17.999 Y-66.912 I1.587 J0
G1 X-14.587
Y-45.088
X-17.999
G2 X-19.587 Y-43.5 I0 J1.588
G1 Y-27.587
X-146.411
Y-84.412
X-45.271
S8000
X-20.209 Z-1.6 F1016
S6000
X-19.587 F1500
Y-68.5
G2 X-17.999 Y-66.912 I1.587 J0
G1 X-14.587
Y-45.088
X-17.999
G2 X-19.587 Y-43.5 I0 J1.588
G1 Y-27.587
X-146.411
Y-84.412
X-45.271
X-20.209
S8000
X-19.587 Z-1.62 F1016
Y-68.5 Z-2.128
G2 X-17.999 Y-66.912 Z-2.207 I1.587 J0
G1 X-14.587 Z-2.316
Y-64.291 Z-2.4
S6000
Y-45.088 F1500
X-17.999
G2 X-19.587 Y-43.5 I0 J1.588
G1 Y-27.587
X-146.411
Y-84.412
X-20.209
X-19.587
Y-68.5
G2 X-17.999 Y-66.912 I1.587 J0
G1 X-14.587
Y-64.291
S8000
Y-45.088 Z-3.013 F1016
X-17.999 Z-3.122
G2 X-19.586 Y-43.547 Z-3.2 I0 J1.588
S6000
G1 X-19.587 Y-43.5 F1500
Y-27.587
X-78.912
Z-2.6
X-87.087
Z-3.2 F300
X-146.411 F1500
Y-84.412
X-87.087
Z-2.6
X-78.912
Z-3.2 F300
X-19.587 F1500
Y-68.5
G2 X-17.999 Y-66.912 I1.587 J0
G1 X-14.587
Y-45.088
X-17.999
G2 X-19.586 Y-43.547 I0 J1.588
S8000
G1 X-19.587 Y-43.5 Z-3.201 F1016
Y-27.587 Z-3.709
X-28.69 Z-4
S6000
X-78.912 F1500
Z-2.6
X-87.087
Z-4 F300
X-146.411 F1500
Y-84.412
X-87.087
Z-2.6
X-78.912
Z-4 F300
X-19.587 F1500
Y-68.5
G2 X-17.999 Y-66.912 I1.587 J0
G1 X-14.587
Y-45.088
X-17.999
G2 X-19.587 Y-43.5 I0 J1.588
G1 Y-27.587
X-28.69
Z5
X-282.149
Z2.5 F300
S8000
X-291.411 Z2.177 F1016
Y-84.412 Z0.192
X-262.999 Z-0.8
S6000
X-164.587 F1500
Y-68.5
G2 X-162.999 Y-66.912 I1.588 J0
G1 X-159.587
Y-45.088
X-162.999
G2 X-164.587 Y-43.5 I0 J1.588
G1 Y-27.587
X-291.411
Y-84.412
X-262.999
S8000
X-237.937 Z-1.6 F1016
S6000
X-164.587 F1500
Y-68.5
G2 X-162.999 Y-66.912 I1.588 J0
G1 X-159.587
Y-45.088
X-162.999
G2 X-164.587 Y-43.5 I0 J1.588
G1 Y-27.587
X-291.411
Y-84.412
X-262.999
X-237.937
S8000
X-212.874 Z-2.4 F1016
S6000
X-164.587 F1500
Y-68.5
G2 X-162.999 Y-66.912 I1.588 J0
G1 X-159.587
Y-45.088
X-162.999
G2 X-164.587 Y-43.5 I0 J1.588
G1 Y-27.587
X-291.411
Y-84.412
X-237.937
X-212.874
S8000
X-187.812 Z-3.2 F1016
S6000
X-164.587 F1500
Y-68.5
G2 X-162.999 Y-66.912 I1.588 J0
G1 X-159.587
Y-45.088
X-162.999
G2 X-164.587 Y-43.5 I0 J1.588
G1 Y-27.587
X-223.911
Z-2.6
X-232.087
Z-3.2 F300
X-291.411 F1500
Y-84.412
X-232.087
Z-2.6
X-223.911
Z-3.2 F300
X-187.812 F1500
S8000
X-164.587 Z-3.941 F1016
Y-82.575 Z-4
S6000
Y-68.5 F1500
G2 X-162.999 Y-66.912 I1.588 J0
G1 X-159.587
Y-45.088
X-162.999
G2 X-164.587 Y-43.5 I0 J1.588
G1 Y-27.587
X-223.911
Z-2.6
X-232.087
Z-4 F300
X-291.411 F1500
Y-84.412
X-232.087
Z-2.6
X-223.911
Z-4 F300
X-164.587 F1500
Y-82.575
Z12.8
(When using Fusion 360 for Personal Use, the feedrate of)
(rapid moves is reduced to match the feedrate of cutting)
(moves, which can increase machining time. Unrestricted rapid)
(moves are available with a Fusion 360 Subscription.)

(2D-Kontur16)
G0 Z15
X-58.5 Y-233.587
G1 Z5 F1500
Z2.5 F300
S8000
X-152.999 Z-0.8 F1016
S6000
X-195 F1500
G2 X-196.587 Y-231.999 I0 J1.588
G1 Y-107.588
X-304.999
G2 X-306.586 Y-106 I0 J1.588
G1 Y-17.493
Y-17.461
X-306.573 Y-16.809
X-306.571 Y-16.745
X-306.532 Y-16.094
X-306.527 Y-16.033
X-306.463 Y-15.383
X-306.455 Y-15.32
X-306.365 Y-14.674
X-306.355 Y-14.61
X-306.239 Y-13.968
X-306.227 Y-13.907
X-306.086 Y-13.27
X-306.071 Y-13.209
X-305.905 Y-12.578
X-305.888 Y-12.516
X-305.697 Y-11.893
X-305.676 Y-11.83
X-305.459 Y-11.214
X-305.437 Y-11.156
X-305.196 Y-10.549
X-305.172 Y-10.491
X-304.907 Y-9.895
X-304.882 Y-9.841
X-304.594 Y-9.255
X-304.565 Y-9.197
X-304.254 Y-8.624
X-304.223 Y-8.57
X-303.89 Y-8.009
X-303.858 Y-7.957
X-303.504 Y-7.409
X-303.47 Y-7.358
X-303.095 Y-6.824
X-303.058 Y-6.773
X-302.662 Y-6.255
X-302.623 Y-6.206
X-302.207 Y-5.703
X-302.167 Y-5.656
X-301.732 Y-5.17
X-301.689 Y-5.124
X-301.235 Y-4.656
X-301.191 Y-4.611
X-300.719 Y-4.161
X-300.671 Y-4.118
X-300.181 Y-3.687
X-300.132 Y-3.646
X-299.625 Y-3.235
X-299.575 Y-3.196
X-299.052 Y-2.806
X-298.998 Y-2.768
X-298.459 Y-2.4
X-298.406 Y-2.365
X-297.853 Y-2.019
X-297.8 Y-1.987
X-297.234 Y-1.663
X-297.179 Y-1.633
X-296.601 Y-1.331
X-296.544 Y-1.303
X-295.953 Y-1.024
X-295.898 Y-1
X-295.298 Y-0.744
X-295.24 Y-0.721
X-294.63 Y-0.489
X-294.571 Y-0.469
X-293.952 Y-0.261
G2 X-291.878 Y-1.522 I0.505 J-1.505
G3 X-285.094 Y-1 I3.372 J0.522
G2 X-283.506 Y0.587 I1.587 J0
G1 X-17.493
X-17.454
X-16.645 Y0.567
X-16.567 Y0.563
X-15.759 Y0.504
X-15.682 Y0.496
X-14.878 Y0.397
X-14.801 Y0.386
X-14.004 Y0.247
X-13.927 Y0.232
X-13.137 Y0.055
X-13.08 Y0.041
X-12.688 Y-0.062
X-12.65 Y-0.073
X-12.261 Y-0.186
X-12.223 Y-0.198
X-11.837 Y-0.321
X-11.8 Y-0.333
X-11.417 Y-0.466
X-11.362 Y-0.486
X-10.608 Y-0.779
X-10.536 Y-0.809
X-9.797 Y-1.138
X-9.727 Y-1.171
X-9.005 Y-1.536
X-8.937 Y-1.573
X-8.233 Y-1.972
X-8.168 Y-2.012
X-7.484 Y-2.445
X-7.42 Y-2.487
X-6.758 Y-2.953
X-6.697 Y-2.999
X-6.058 Y-3.496
X-5.998 Y-3.544
X-5.384 Y-4.072
X-5.327 Y-4.124
X-4.74 Y-4.68
X-4.698 Y-4.721
X-4.415 Y-5.01
X-4.387 Y-5.039
X-4.112 Y-5.334
X-4.085 Y-5.364
X-3.816 Y-5.666
X-3.79 Y-5.696
X-3.53 Y-6.006
X-3.504 Y-6.037
X-3.251 Y-6.353
X-3.226 Y-6.384
X-2.981 Y-6.706
X-2.958 Y-6.739
X-2.721 Y-7.067
X-2.698 Y-7.099
X-2.47 Y-7.433
X-2.448 Y-7.466
X-2.228 Y-7.806
X-2.207 Y-7.839
X-1.995 Y-8.184
X-1.966 Y-8.235
X-1.569 Y-8.94
X-1.532 Y-9.008
X-1.17 Y-9.732
X-1.137 Y-9.801
X-0.81 Y-10.542
X-0.781 Y-10.613
X-0.49 Y-11.368
X-0.464 Y-11.44
X-0.21 Y-12.209
X-0.188 Y-12.282
X0.029 Y-13.062
X0.047 Y-13.136
X0.226 Y-13.926
X0.241 Y-14.002
X0.381 Y-14.799
X0.393 Y-14.876
X0.494 Y-15.679
X0.5 Y-15.737
X0.535 Y-16.141
X0.538 Y-16.18
X0.564 Y-16.584
X0.566 Y-16.624
X0.581 Y-17.028
X0.582 Y-17.068
X0.587 Y-17.473
Y-17.493
Y-215.506
Y-215.545
X0.567 Y-216.355
X0.563 Y-216.433
X0.504 Y-217.24
X0.496 Y-217.317
X0.397 Y-218.121
X0.386 Y-218.198
X0.247 Y-218.996
X0.232 Y-219.073
X0.055 Y-219.862
X0.041 Y-219.918
X-0.062 Y-220.31
X-0.073 Y-220.35
X-0.186 Y-220.738
X-0.198 Y-220.775
X-0.321 Y-221.161
X-0.333 Y-221.2
X-0.466 Y-221.582
X-0.486 Y-221.636
X-0.778 Y-222.391
X-0.809 Y-222.463
X-1.138 Y-223.202
X-1.171 Y-223.272
X-1.536 Y-223.994
X-1.573 Y-224.062
X-1.972 Y-224.766
X-2.012 Y-224.831
X-2.445 Y-225.515
X-2.487 Y-225.579
X-2.953 Y-226.241
X-2.998 Y-226.303
X-3.495 Y-226.942
X-3.545 Y-227.002
X-4.072 Y-227.615
X-4.123 Y-227.671
X-4.679 Y-228.259
X-4.722 Y-228.302
X-5.01 Y-228.585
X-5.038 Y-228.612
X-5.334 Y-228.888
X-5.365 Y-228.916
X-5.667 Y-229.184
X-5.696 Y-229.208
X-6.005 Y-229.469
X-6.037 Y-229.495
X-6.353 Y-229.748
X-6.384 Y-229.773
X-6.706 Y-230.018
X-6.738 Y-230.041
X-7.066 Y-230.278
X-7.1 Y-230.302
X-7.434 Y-230.53
X-7.466 Y-230.551
X-7.806 Y-230.771
X-7.841 Y-230.793
X-8.186 Y-231.004
X-8.233 Y-231.032
X-8.938 Y-231.43
X-9.009 Y-231.468
X-9.732 Y-231.83
X-9.801 Y-231.862
X-10.542 Y-232.189
X-10.612 Y-232.218
X-11.368 Y-232.509
X-11.44 Y-232.535
X-12.209 Y-232.789
X-12.283 Y-232.812
X-13.063 Y-233.028
X-13.136 Y-233.046
X-13.925 Y-233.225
X-14.002 Y-233.241
X-14.799 Y-233.381
X-14.875 Y-233.392
X-15.679 Y-233.493
X-15.739 Y-233.5
X-16.143 Y-233.535
X-16.178 Y-233.537
X-16.582 Y-233.563
X-16.625 Y-233.565
X-17.029 Y-233.58
X-17.069 Y-233.581
X-17.473 Y-233.586
X-17.493 Y-233.587
X-152.999
S8000
X-195 Z-1.274 F1016
G2 X-196.587 Y-231.999 Z-1.302 I0 J1.588
G1 Y-205.63 Z-1.6
S6000
Y-107.588 F1500
X-304.999
G2 X-306.586 Y-106 I0 J1.588
G1 Y-17.493
Y-17.461
X-306.573 Y-16.809
X-306.571 Y-16.745
X-306.532 Y-16.094
X-306.527 Y-16.033
X-306.463 Y-15.383
X-306.455 Y-15.32
X-306.365 Y-14.674
X-306.355 Y-14.61
X-306.239 Y-13.968
X-306.227 Y-13.907
X-306.086 Y-13.27
X-306.071 Y-13.209
X-305.905 Y-12.578
X-305.888 Y-12.516
X-305.697 Y-11.893
X-305.676 Y-11.83
X-305.459 Y-11.214
X-305.437 Y-11.156
X-305.196 Y-10.549
X-305.172 Y-10.491
X-304.907 Y-9.895
X-304.882 Y-9.841
X-304.594 Y-9.255
X-304.565 Y-9.197
X-304.254 Y-8.624
X-304.223 Y-8.57
X-303.89 Y-8.009
X-303.858 Y-7.957
X-303.504 Y-7.409
X-303.47 Y-7.358
X-303.095 Y-6.824
X-303.058 Y-6.773
X-302.662 Y-6.255
X-302.623 Y-6.206
X-302.207 Y-5.703
X-302.167 Y-5.656
X-301.732 Y-5.17
X-301.689 Y-5.124
X-301.235 Y-4.656
X-301.191 Y-4.611
X-300.719 Y-4.161
X-300.671 Y-4.118
X-300.181 Y-3.687
X-300.132 Y-3.646
X-299.625 Y-3.235
X-299.575 Y-3.196
X-299.052 Y-2.806
X-298.998 Y-2.768
X-298.459 Y-2.4
X-298.406 Y-2.365
X-297.853 Y-2.019
X-297.8 Y-1.987
X-297.234 Y-1.663
X-297.179 Y-1.633
X-296.601 Y-1.331
X-296.544 Y-1.303
X-295.953 Y-1.024
X-295.898 Y-1
X-295.298 Y-0.744
X-295.24 Y-0.721
X-294.63 Y-0.489
X-294.571 Y-0.469
X-293.952 Y-0.261
G2 X-291.878 Y-1.522 I0.505 J-1.505
G3 X-285.094 Y-1 I3.372 J0.522
G2 X-283.506 Y0.587 I1.587 J0
G1 X-17.493
X-17.454
X-16.645 Y0.567
X-16.567 Y0.563
X-15.759 Y0.504
X-15.682 Y0.496
X-14.878 Y0.397
X-14.801 Y0.386
X-14.004 Y0.247
X-13.927 Y0.232
X-13.137 Y0.055
X-13.08 Y0.041
X-12.688 Y-0.062
X-12.65 Y-0.073
X-12.261 Y-0.186
X-12.223 Y-0.198
X-11.837 Y-0.321
X-11.8 Y-0.333
X-11.417 Y-0.466
X-11.362 Y-0.486
X-10.608 Y-0.779
X-10.536 Y-0.809
X-9.797 Y-1.138
X-9.727 Y-1.171
X-9.005 Y-1.536
X-8.937 Y-1.573
X-8.233 Y-1.972
X-8.168 Y-2.012
X-7.484 Y-2.445
X-7.42 Y-2.487
X-6.758 Y-2.953
X-6.697 Y-2.999
X-6.058 Y-3.496
X-5.998 Y-3.544
X-5.384 Y-4.072
X-5.327 Y-4.124
X-4.74 Y-4.68
X-4.698 Y-4.721
X-4.415 Y-5.01
X-4.387 Y-5.039
X-4.112 Y-5.334
X-4.085 Y-5.364
X-3.816 Y-5.666
X-3.79 Y-5.696
X-3.53 Y-6.006
X-3.504 Y-6.037
X-3.251 Y-6.353
X-3.226 Y-6.384
X-2.981 Y-6.706
X-2.958 Y-6.739
X-2.721 Y-7.067
X-2.698 Y-7.099
X-2.47 Y-7.433
X-2.448 Y-7.466
X-2.228 Y-7.806
X-2.207 Y-7.839
X-1.995 Y-8.184
X-1.966 Y-8.235
X-1.569 Y-8.94
X-1.532 Y-9.008
X-1.17 Y-9.732
X-1.137 Y-9.801
X-0.81 Y-10.542
X-0.781 Y-10.613
X-0.49 Y-11.368
X-0.464 Y-11.44
X-0.21 Y-12.209
X-0.188 Y-12.282
X0.029 Y-13.062
X0.047 Y-13.136
X0.226 Y-13.926
X0.241 Y-14.002
X0.381 Y-14.799
X0.393 Y-14.876
X0.494 Y-15.679
X0.5 Y-15.737
X0.535 Y-16.141
X0.538 Y-16.18
X0.564 Y-16.584
X0.566 Y-16.624
X0.581 Y-17.028
X0.582 Y-17.068
X0.587 Y-17.473
Y-17.493
Y-215.506
Y-215.545
X0.567 Y-216.355
X0.563 Y-216.433
X0.504 Y-217.24
X0.496 Y-217.317
X0.397 Y-218.121
X0.386 Y-218.198
X0.247 Y-218.996
X0.232 Y-219.073
X0.055 Y-219.862
X0.041 Y-219.918
X-0.062 Y-220.31
X-0.073 Y-220.35
X-0.186 Y-220.738
X-0.198 Y-220.775
X-0.321 Y-221.161
X-0.333 Y-221.2
X-0.466 Y-221.582
X-0.486 Y-221.636
X-0.778 Y-222.391
X-0.809 Y-222.463
X-1.138 Y-223.202
X-1.171 Y-223.272
X-1.536 Y-223.994
X-1.573 Y-224.062
X-1.972 Y-224.766
X-2.012 Y-224.831
X-2.445 Y-225.515
X-2.487 Y-225.579
X-2.953 Y-226.241
X-2.998 Y-226.303
X-3.495 Y-226.942
X-3.545 Y-227.002
X-4.072 Y-227.615
X-4.123 Y-227.671
X-4.679 Y-228.259
X-4.722 Y-228.302
X-5.01 Y-228.585
X-5.038 Y-228.612
X-5.334 Y-228.888
X-5.365 Y-228.916
X-5.667 Y-229.184
X-5.696 Y-229.208
X-6.005 Y-229.469
X-6.037 Y-229.495
X-6.353 Y-229.748
X-6.384 Y-229.773
X-6.706 Y-230.018
X-6.738 Y-230.041
X-7.066 Y-230.278
X-7.1 Y-230.302
X-7.434 Y-230.53
X-7.466 Y-230.551
X-7.806 Y-230.771
X-7.841 Y-230.793
X-8.186 Y-231.004
X-8.233 Y-231.032
X-8.938 Y-231.43
X-9.009 Y-231.468
X-9.732 Y-231.83
X-9.801 Y-231.862
X-10.542 Y-232.189
X-10.612 Y-232.218
X-11.368 Y-232.509
X-11.44 Y-232.535
X-12.209 Y-232.789
X-12.283 Y-232.812
X-13.063 Y-233.028
X-13.136 Y-233.046
X-13.925 Y-233.225
X-14.002 Y-233.241
X-14.799 Y-233.381
X-14.875 Y-233.392
X-15.679 Y-233.493
X-15.739 Y-233.5
X-16.143 Y-233.535
X-16.178 Y-233.537
X-16.582 Y-233.563
X-16.625 Y-233.565
X-17.029 Y-233.58
X-17.069 Y-233.581
X-17.473 Y-233.586
X-17.493 Y-233.587
X-152.999
X-195
G2 X-196.587 Y-231.999 I0 J1.588
G1 Y-205.63
S8000
Y-134.766 Z-2.4 F1016
S6000
Y-107.588 F1500
X-304.999
G2 X-306.586 Y-106 I0 J1.588
G1 Y-17.493
Y-17.461
X-306.573 Y-16.809
X-306.571 Y-16.745
X-306.532 Y-16.094
X-306.527 Y-16.033
X-306.463 Y-15.383
X-306.455 Y-15.32
X-306.365 Y-14.674
X-306.355 Y-14.61
X-306.239 Y-13.968
X-306.227 Y-13.907
X-306.086 Y-13.27
X-306.071 Y-13.209
X-305.905 Y-12.578
X-305.888 Y-12.516
X-305.697 Y-11.893
X-305.676 Y-11.83
X-305.459 Y-11.214
X-305.437 Y-11.156
X-305.196 Y-10.549
X-305.172 Y-10.491
X-304.907 Y-9.895
X-304.882 Y-9.841
X-304.594 Y-9.255
X-304.565 Y-9.197
X-304.254 Y-8.624
X-304.223 Y-8.57
X-303.89 Y-8.009
X-303.858 Y-7.957
X-303.504 Y-7.409
X-303.47 Y-7.358
X-303.095 Y-6.824
X-303.058 Y-6.773
X-302.662 Y-6.255
X-302.623 Y-6.206
X-302.207 Y-5.703
X-302.167 Y-5.656
X-301.732 Y-5.17
X-301.689 Y-5.124
X-301.235 Y-4.656
X-301.191 Y-4.611
X-300.719 Y-4.161
X-300.671 Y-4.118
X-300.181 Y-3.687
X-300.132 Y-3.646
X-299.625 Y-3.235
X-299.575 Y-3.196
X-299.052 Y-2.806
X-298.998 Y-2.768
X-298.459 Y-2.4
X-298.406 Y-2.365
X-297.853 Y-2.019
X-297.8 Y-1.987
X-297.234 Y-1.663
X-297.179 Y-1.633
X-296.601 Y-1.331
X-296.544 Y-1.303
X-295.953 Y-1.024
X-295.898 Y-1
X-295.298 Y-0.744
X-295.24 Y-0.721
X-294.63 Y-0.489
X-294.571 Y-0.469
X-293.952 Y-0.261
G2 X-291.878 Y-1.522 I0.505 J-1.505
G3 X-285.094 Y-1 I3.372 J0.522
G2 X-283.506 Y0.587 I1.587 J0
G1 X-17.493
X-17.454
X-16.645 Y0.567
X-16.567 Y0.563
X-15.759 Y0.504
X-15.682 Y0.496
X-14.878 Y0.397
X-14.801 Y0.386
X-14.004 Y0.247
X-13.927 Y0.232
X-13.137 Y0.055
X-13.08 Y0.041
X-12.688 Y-0.062
X-12.65 Y-0.073
X-12.261 Y-0.186
X-12.223 Y-0.198
X-11.837 Y-0.321
X-11.8 Y-0.333
X-11.417 Y-0.466
X-11.362 Y-0.486
X-10.608 Y-0.779
X-10.536 Y-0.809
X-9.797 Y-1.138
X-9.727 Y-1.171
X-9.005 Y-1.536
X-8.937 Y-1.573
X-8.233 Y-1.972
X-8.168 Y-2.012
X-7.484 Y-2.445
X-7.42 Y-2.487
X-6.758 Y-2.953
X-6.697 Y-2.999
X-6.058 Y-3.496
X-5.998 Y-3.544
X-5.384 Y-4.072
X-5.327 Y-4.124
X-4.74 Y-4.68
X-4.698 Y-4.721
X-4.415 Y-5.01
X-4.387 Y-5.039
X-4.112 Y-5.334
X-4.085 Y-5.364
X-3.816 Y-5.666
X-3.79 Y-5.696
X-3.53 Y-6.006
X-3.504 Y-6.037
X-3.251 Y-6.353
X-3.226 Y-6.384
X-2.981 Y-6.706
X-2.958 Y-6.739
X-2.721 Y-7.067
X-2.698 Y-7.099
X-2.47 Y-7.433
X-2.448 Y-7.466
X-2.228 Y-7.806
X-2.207 Y-7.839
X-1.995 Y-8.184
X-1.966 Y-8.235
X-1.569 Y-8.94
X-1.532 Y-9.008
X-1.17 Y-9.732
X-1.137 Y-9.801
X-0.81 Y-10.542
X-0.781 Y-10.613
X-0.49 Y-11.368
X-0.464 Y-11.44
X-0.21 Y-12.209
X-0.188 Y-12.282
X0.029 Y-13.062
X0.047 Y-13.136
X0.226 Y-13.926
X0.241 Y-14.002
X0.381 Y-14.799
X0.393 Y-14.876
X0.494 Y-15.679
X0.5 Y-15.737
X0.535 Y-16.141
X0.538 Y-16.18
X0.564 Y-16.584
X0.566 Y-16.624
X0.581 Y-17.028
X0.582 Y-17.068
X0.587 Y-17.473
Y-17.493
Y-215.506
Y-215.545
X0.567 Y-216.355
X0.563 Y-216.433
X0.504 Y-217.24
X0.496 Y-217.317
X0.397 Y-218.121
X0.386 Y-218.198
X0.247 Y-218.996
X0.232 Y-219.073
X0.055 Y-219.862
X0.041 Y-219.918
X-0.062 Y-220.31
X-0.073 Y-220.35
X-0.186 Y-220.738
X-0.198 Y-220.775
X-0.321 Y-221.161
X-0.333 Y-221.2
X-0.466 Y-221.582
X-0.486 Y-221.636
X-0.778 Y-222.391
X-0.809 Y-222.463
X-1.138 Y-223.202
X-1.171 Y-223.272
X-1.536 Y-223.994
X-1.573 Y-224.062
X-1.972 Y-224.766
X-2.012 Y-224.831
X-2.445 Y-225.515
X-2.487 Y-225.579
X-2.953 Y-226.241
X-2.998 Y-226.303
X-3.495 Y-226.942
X-3.545 Y-227.002
X-4.072 Y-227.615
X-4.123 Y-227.671
X-4.679 Y-228.259
X-4.722 Y-228.302
X-5.01 Y-228.585
X-5.038 Y-228.612
X-5.334 Y-228.888
X-5.365 Y-228.916
X-5.667 Y-229.184
X-5.696 Y-229.208
X-6.005 Y-229.469
X-6.037 Y-229.495
X-6.353 Y-229.748
X-6.384 Y-229.773
X-6.706 Y-230.018
X-6.738 Y-230.041
X-7.066 Y-230.278
X-7.1 Y-230.302
X-7.434 Y-230.53
X-7.466 Y-230.551
X-7.806 Y-230.771
X-7.841 Y-230.793
X-8.186 Y-231.004
X-8.233 Y-231.032
X-8.938 Y-231.43
X-9.009 Y-231.468
X-9.732 Y-231.83
X-9.801 Y-231.862
X-10.542 Y-232.189
X-10.612 Y-232.218
X-11.368 Y-232.509
X-11.44 Y-232.535
X-12.209 Y-232.789
X-12.283 Y-232.812
X-13.063 Y-233.028
X-13.136 Y-233.046
X-13.925 Y-233.225
X-14.002 Y-233.241
X-14.799 Y-233.381
X-14.875 Y-233.392
X-15.679 Y-233.493
X-15.739 Y-233.5
X-16.143 Y-233.535
X-16.178 Y-233.537
X-16.582 Y-233.563
X-16.625 Y-233.565
X-17.029 Y-233.58
X-17.069 Y-233.581
X-17.473 Y-233.586
X-17.493 Y-233.587
X-195
G2 X-196.587 Y-231.999 I0 J1.588
G1 Y-134.766
S8000
Y-107.588 Z-2.707 F1016
X-240.272 Z-3.2
S6000
X-304.999 F1500
G2 X-306.586 Y-106 I0 J1.588
G1 Y-17.493
Y-17.461
X-306.573 Y-16.809
X-306.571 Y-16.745
X-306.532 Y-16.094
X-306.527 Y-16.033
X-306.463 Y-15.383
X-306.455 Y-15.32
X-306.365 Y-14.674
X-306.355 Y-14.61
X-306.239 Y-13.968
X-306.227 Y-13.907
X-306.086 Y-13.27
X-306.071 Y-13.209
X-305.905 Y-12.578
X-305.888 Y-12.516
X-305.697 Y-11.893
X-305.676 Y-11.83
X-305.459 Y-11.214
X-305.437 Y-11.156
X-305.196 Y-10.549
X-305.172 Y-10.491
X-304.907 Y-9.895
X-304.882 Y-9.841
X-304.594 Y-9.255
X-304.565 Y-9.197
X-304.254 Y-8.624
X-304.223 Y-8.57
X-303.89 Y-8.009
X-303.858 Y-7.957
X-303.504 Y-7.409
X-303.47 Y-7.358
X-303.095 Y-6.824
X-303.058 Y-6.773
X-302.662 Y-6.255
X-302.623 Y-6.206
X-302.207 Y-5.703
X-302.167 Y-5.656
X-301.732 Y-5.17
X-301.689 Y-5.124
X-301.235 Y-4.656
X-301.191 Y-4.611
X-300.719 Y-4.161
X-300.671 Y-4.118
X-300.181 Y-3.687
X-300.132 Y-3.646
X-299.625 Y-3.235
X-299.575 Y-3.196
X-299.052 Y-2.806
X-298.998 Y-2.768
X-298.459 Y-2.4
X-298.406 Y-2.365
X-297.853 Y-2.019
X-297.8 Y-1.987
X-297.234 Y-1.663
X-297.179 Y-1.633
X-296.601 Y-1.331
X-296.544 Y-1.303
X-295.953 Y-1.024
X-295.898 Y-1
X-295.298 Y-0.744
X-295.24 Y-0.721
X-294.63 Y-0.489
X-294.571 Y-0.469
X-293.952 Y-0.261
G2 X-291.878 Y-1.522 I0.505 J-1.505
G3 X-285.094 Y-1 I3.372 J0.522
G2 X-283.506 Y0.587 I1.587 J0
G1 X-221.09
Z-2.6
X-212.915
Z-3.2 F300
X-88.084 F1500
Z-2.6
X-79.909
Z-3.2 F300
X-17.493 F1500
X-17.454
X-16.645 Y0.567
X-16.567 Y0.563
X-15.759 Y0.504
X-15.682 Y0.496
X-14.878 Y0.397
X-14.801 Y0.386
X-14.004 Y0.247
X-13.927 Y0.232
X-13.137 Y0.055
X-13.08 Y0.041
X-12.688 Y-0.062
X-12.65 Y-0.073
X-12.261 Y-0.186
X-12.223 Y-0.198
X-11.837 Y-0.321
X-11.8 Y-0.333
X-11.417 Y-0.466
X-11.362 Y-0.486
X-10.608 Y-0.779
X-10.536 Y-0.809
X-9.797 Y-1.138
X-9.727 Y-1.171
X-9.005 Y-1.536
X-8.937 Y-1.573
X-8.233 Y-1.972
X-8.168 Y-2.012
X-7.484 Y-2.445
X-7.42 Y-2.487
X-6.758 Y-2.953
X-6.697 Y-2.999
X-6.058 Y-3.496
X-5.998 Y-3.544
X-5.384 Y-4.072
X-5.327 Y-4.124
X-4.74 Y-4.68
X-4.698 Y-4.721
X-4.415 Y-5.01
X-4.387 Y-5.039
X-4.112 Y-5.334
X-4.085 Y-5.364
X-3.816 Y-5.666
X-3.79 Y-5.696
X-3.53 Y-6.006
X-3.504 Y-6.037
X-3.251 Y-6.353
X-3.226 Y-6.384
X-2.981 Y-6.706
X-2.958 Y-6.739
X-2.721 Y-7.067
X-2.698 Y-7.099
X-2.47 Y-7.433
X-2.448 Y-7.466
X-2.228 Y-7.806
X-2.207 Y-7.839
X-1.995 Y-8.184
X-1.966 Y-8.235
X-1.569 Y-8.94
X-1.532 Y-9.008
X-1.17 Y-9.732
X-1.137 Y-9.801
X-0.81 Y-10.542
X-0.781 Y-10.613
X-0.49 Y-11.368
X-0.464 Y-11.44
X-0.21 Y-12.209
X-0.188 Y-12.282
X0.029 Y-13.062
X0.047 Y-13.136
X0.226 Y-13.926
X0.241 Y-14.002
X0.381 Y-14.799
X0.393 Y-14.876
X0.494 Y-15.679
X0.5 Y-15.737
X0.535 Y-16.141
X0.538 Y-16.18
X0.564 Y-16.584
X0.566 Y-16.624
X0.581 Y-17.028
X0.582 Y-17.068
X0.587 Y-17.473
Y-17.493
Y-112.412
Z-2.6
Y-120.588
Z-3.2 F300
Y-215.506 F1500
Y-215.545
X0.567 Y-216.355
X0.563 Y-216.433
X0.504 Y-217.24
X0.496 Y-217.317
X0.397 Y-218.121
X0.386 Y-218.198
X0.247 Y-218.996
X0.232 Y-219.073
X0.055 Y-219.862
X0.041 Y-219.918
X-0.062 Y-220.31
X-0.073 Y-220.35
X-0.186 Y-220.738
X-0.198 Y-220.775
X-0.321 Y-221.161
X-0.333 Y-221.2
X-0.466 Y-221.582
X-0.486 Y-221.636
X-0.778 Y-222.391
X-0.809 Y-222.463
X-1.138 Y-223.202
X-1.171 Y-223.272
X-1.536 Y-223.994
X-1.573 Y-224.062
X-1.972 Y-224.766
X-2.012 Y-224.831
X-2.445 Y-225.515
X-2.487 Y-225.579
X-2.953 Y-226.241
X-2.998 Y-226.303
X-3.495 Y-226.942
X-3.545 Y-227.002
X-4.072 Y-227.615
X-4.123 Y-227.671
X-4.679 Y-228.259
X-4.722 Y-228.302
X-5.01 Y-228.585
X-5.038 Y-228.612
X-5.334 Y-228.888
X-5.365 Y-228.916
X-5.667 Y-229.184
X-5.696 Y-229.208
X-6.005 Y-229.469
X-6.037 Y-229.495
X-6.353 Y-229.748
X-6.384 Y-229.773
X-6.706 Y-230.018
X-6.738 Y-230.041
X-7.066 Y-230.278
X-7.1 Y-230.302
X-7.434 Y-230.53
X-7.466 Y-230.551
X-7.806 Y-230.771
X-7.841 Y-230.793
X-8.186 Y-231.004
X-8.233 Y-231.032
X-8.938 Y-231.43
X-9.009 Y-231.468
X-9.732 Y-231.83
X-9.801 Y-231.862
X-10.542 Y-232.189
X-10.612 Y-232.218
X-11.368 Y-232.509
X-11.44 Y-232.535
X-12.209 Y-232.789
X-12.283 Y-232.812
X-13.063 Y-233.028
X-13.136 Y-233.046
X-13.925 Y-233.225
X-14.002 Y-233.241
X-14.799 Y-233.381
X-14.875 Y-233.392
X-15.679 Y-233.493
X-15.739 Y-233.5
X-16.143 Y-233.535
X-16.178 Y-233.537
X-16.582 Y-233.563
X-16.625 Y-233.565
X-17.029 Y-233.58
X-17.069 Y-233.581
X-17.473 Y-233.586
X-17.493 Y-233.587
X-102.16
Z-2.6
X-110.335
Z-3.2 F300
X-195 F1500
G2 X-196.587 Y-231.999 I0 J1.588
G1 Y-107.588
X-240.272
S8000
X-304.999 Z-3.931 F1016
G2 X-306.586 Y-106 Z-3.959 I0 J1.588
G1 Y-102.357 Z-4
S6000
Y-17.493 F1500
Y-17.461
X-306.573 Y-16.809
X-306.571 Y-16.745
X-306.532 Y-16.094
X-306.527 Y-16.033
X-306.463 Y-15.383
X-306.455 Y-15.32
X-306.365 Y-14.674
X-306.355 Y-14.61
X-306.239 Y-13.968
X-306.227 Y-13.907
X-306.086 Y-13.27
X-306.071 Y-13.209
X-305.905 Y-12.578
X-305.888 Y-12.516
X-305.697 Y-11.893
X-305.676 Y-11.83
X-305.459 Y-11.214
X-305.437 Y-11.156
X-305.196 Y-10.549
X-305.172 Y-10.491
X-304.907 Y-9.895
X-304.882 Y-9.841
X-304.594 Y-9.255
X-304.565 Y-9.197
X-304.254 Y-8.624
X-304.223 Y-8.57
X-303.89 Y-8.009
X-303.858 Y-7.957
X-303.504 Y-7.409
X-303.47 Y-7.358
X-303.095 Y-6.824
X-303.058 Y-6.773
X-302.662 Y-6.255
X-302.623 Y-6.206
X-302.207 Y-5.703
X-302.167 Y-5.656
X-301.732 Y-5.17
X-301.689 Y-5.124
X-301.235 Y-4.656
X-301.191 Y-4.611
X-300.719 Y-4.161
X-300.671 Y-4.118
X-300.181 Y-3.687
X-300.132 Y-3.646
X-299.625 Y-3.235
X-299.575 Y-3.196
X-299.052 Y-2.806
X-298.998 Y-2.768
X-298.459 Y-2.4
X-298.406 Y-2.365
X-297.853 Y-2.019
X-297.8 Y-1.987
X-297.234 Y-1.663
X-297.179 Y-1.633
X-296.601 Y-1.331
X-296.544 Y-1.303
X-295.953 Y-1.024
X-295.898 Y-1
X-295.298 Y-0.744
X-295.24 Y-0.721
X-294.63 Y-0.489
X-294.571 Y-0.469
X-293.952 Y-0.261
G2 X-291.878 Y-1.522 I0.505 J-1.505
G3 X-285.094 Y-1 I3.372 J0.522
G2 X-283.506 Y0.587 I1.587 J0
G1 X-221.09
Z-2.6
X-212.915
Z-4 F300
X-88.084 F1500
Z-2.6
X-79.909
Z-4 F300
X-17.493 F1500
X-17.454
X-16.645 Y0.567
X-16.567 Y0.563
X-15.759 Y0.504
X-15.682 Y0.496
X-14.878 Y0.397
X-14.801 Y0.386
X-14.004 Y0.247
X-13.927 Y0.232
X-13.137 Y0.055
X-13.08 Y0.041
X-12.688 Y-0.062
X-12.65 Y-0.073
X-12.261 Y-0.186
X-12.223 Y-0.198
X-11.837 Y-0.321
X-11.8 Y-0.333
X-11.417 Y-0.466
X-11.362 Y-0.486
X-10.608 Y-0.779
X-10.536 Y-0.809
X-9.797 Y-1.138
X-9.727 Y-1.171
X-9.005 Y-1.536
X-8.937 Y-1.573
X-8.233 Y-1.972
X-8.168 Y-2.012
X-7.484 Y-2.445
X-7.42 Y-2.487
X-6.758 Y-2.953
X-6.697 Y-2.999
X-6.058 Y-3.496
X-5.998 Y-3.544
X-5.384 Y-4.072
X-5.327 Y-4.124
X-4.74 Y-4.68
X-4.698 Y-4.721
X-4.415 Y-5.01
X-4.387 Y-5.039
X-4.112 Y-5.334
X-4.085 Y-5.364
X-3.816 Y-5.666
X-3.79 Y-5.696
X-3.53 Y-6.006
X-3.504 Y-6.037
X-3.251 Y-6.353
X-3.226 Y-6.384
X-2.981 Y-6.706
X-2.958 Y-6.739
X-2.721 Y-7.067
X-2.698 Y-7.099
X-2.47 Y-7.433
X-2.448 Y-7.466
X-2.228 Y-7.806
X-2.207 Y-7.839
X-1.995 Y-8.184
X-1.966 Y-8.235
X-1.569 Y-8.94
X-1.532 Y-9.008
X-1.17 Y-9.732
X-1.137 Y-9.801
X-0.81 Y-10.542
X-0.781 Y-10.613
X-0.49 Y-11.368
X-0.464 Y-11.44
X-0.21 Y-12.209
X-0.188 Y-12.282
X0.029 Y-13.062
X0.047 Y-13.136
X0.226 Y-13.926
X0.241 Y-14.002
X0.381 Y-14.799
X0.393 Y-14.876
X0.494 Y-15.679
X0.5 Y-15.737
X0.535 Y-16.141
X0.538 Y-16.18
X0.564 Y-16.584
X0.566 Y-16.624
X0.581 Y-17.028
X0.582 Y-17.068
X0.587 Y-17.473
Y-17.493
Y-112.412
Z-2.6
Y-120.588
Z-4 F300
Y-215.506 F1500
Y-215.545
X0.567 Y-216.355
X0.563 Y-216.433
X0.504 Y-217.24
X0.496 Y-217.317
X0.397 Y-218.121
X0.386 Y-218.198
X0.247 Y-218.996
X0.232 Y-219.073
X0.055 Y-219.862
X0.041 Y-219.918
X-0.062 Y-220.31
X-0.073 Y-220.35
X-0.186 Y-220.738
X-0.198 Y-220.775
X-0.321 Y-221.161
X-0.333 Y-221.2
X-0.466 Y-221.582
X-0.486 Y-221.636
X-0.778 Y-222.391
X-0.809 Y-222.463
X-1.138 Y-223.202
X-1.171 Y-223.272
X-1.536 Y-223.994
X-1.573 Y-224.062
X-1.972 Y-224.766
X-2.012 Y-224.831
X-2.445 Y-225.515
X-2.487 Y-225.579
X-2.953 Y-226.241
X-2.998 Y-226.303
X-3.495 Y-226.942
X-3.545 Y-227.002
X-4.072 Y-227.615
X-4.123 Y-227.671
X-4.679 Y-228.259
X-4.722 Y-228.302
X-5.01 Y-228.585
X-5.038 Y-228.612
X-5.334 Y-228.888
X-5.365 Y-228.916
X-5.667 Y-229.184
X-5.696 Y-229.208
X-6.005 Y-229.469
X-6.037 Y-229.495
X-6.353 Y-229.748
X-6.384 Y-229.773
X-6.706 Y-230.018
X-6.738 Y-230.041
X-7.066 Y-230.278
X-7.1 Y-230.302
X-7.434 Y-230.53
X-7.466 Y-230.551
X-7.806 Y-230.771
X-7.841 Y-230.793
X-8.186 Y-231.004
X-8.233 Y-231.032
X-8.938 Y-231.43
X-9.009 Y-231.468
X-9.732 Y-231.83
X-9.801 Y-231.862
X-10.542 Y-232.189
X-10.612 Y-232.218
X-11.368 Y-232.509
X-11.44 Y-232.535
X-12.209 Y-232.789
X-12.283 Y-232.812
X-13.063 Y-233.028
X-13.136 Y-233.046
X-13.925 Y-233.225
X-14.002 Y-233.241
X-14.799 Y-233.381
X-14.875 Y-233.392
X-15.679 Y-233.493
X-15.739 Y-233.5
X-16.143 Y-233.535
X-16.178 Y-233.537
X-16.582 Y-233.563
X-16.625 Y-233.565
X-17.029 Y-233.58
X-17.069 Y-233.581
X-17.473 Y-233.586
X-17.493 Y-233.587
X-102.16
Z-2.6
X-110.335
Z-4 F300
X-195 F1500
G2 X-196.587 Y-231.999 I0 J1.588
G1 Y-107.588
X-304.999
G2 X-306.586 Y-106 I0 J1.588
G1 Y-102.357
Z15
M5
M30
