(main_2mm)
(Bearbeiten)
(  Hersteller: ChinaCnc)
(  model: 3040T)
(  description: Generic 3-axis)
(T14 D=3.175 CR=0 - ZMIN=-2.3 - Schaftfrser)
G90 G94
G17
G21
(-Attention- Property Safe Retracts is set to Clearance Height.)
(Ensure the clearance height will clear the part and or fixtures.)
(Raise the Z-axis to a safe height before starting the program.)
(When using Fusion 360 for Personal Use, the feedrate of)
(rapid moves is reduced to match the feedrate of cutting)
(moves, which can increase machining time. Unrestricted rapid)
(moves are available with a Fusion 360 Subscription.)

(Bohrfrsen3)
M0
(MANUAL TOOL CHANGE TO T14)
S6000 M3
G17 G90 G94
G54
G0 X-249.919 Y-21.077
Z15
G1 Z1.683 F1500
Z0 F1016
Y-20.919
X-249.925 Y-20.888
X-249.943 Y-20.861
X-249.969 Y-20.844
X-250 Y-20.837
G3 X-250 Y-21.163 Z-0.061 I0 J-0.163 F1500
X-250 Y-20.837 Z-0.122 I0 J0.163
X-250 Y-21.163 Z-0.183 I0 J-0.163
X-250 Y-20.837 Z-0.244 I0 J0.163
X-250 Y-21.163 Z-0.306 I0 J-0.163
X-250 Y-20.837 Z-0.367 I0 J0.163
X-250 Y-21.162 Z-0.428 I0 J-0.163
X-250 Y-20.838 Z-0.489 I0 J0.162
X-250 Y-21.162 Z-0.55 I0 J-0.162
X-250 Y-20.838 Z-0.611 I0 J0.162
X-250 Y-21.162 Z-0.672 I0 J-0.162
X-250 Y-20.838 Z-0.733 I0 J0.162
X-250 Y-21.162 Z-0.794 I0 J-0.162
X-250 Y-20.838 Z-0.856 I0 J0.162
X-250 Y-21.162 Z-0.917 I0 J-0.162
X-250 Y-20.838 Z-0.978 I0 J0.162
X-250 Y-21.162 Z-1.039 I0 J-0.162
X-250 Y-20.838 Z-1.1 I0 J0.162
X-250 Y-21.162 Z-1.161 I0 J-0.162
X-250 Y-20.838 Z-1.222 I0 J0.162
X-250 Y-21.162 Z-1.283 I0 J-0.162
X-250 Y-20.838 Z-1.344 I0 J0.162
X-250 Y-21.162 Z-1.406 I0 J-0.162
X-250 Y-20.838 Z-1.467 I0 J0.162
X-250 Y-21.162 Z-1.528 I0 J-0.162
X-250 Y-20.838 Z-1.589 I0 J0.162
X-250 Y-21.162 Z-1.65 I0 J-0.162
X-250 Y-20.838 Z-1.711 I0 J0.162
X-250 Y-21.162 Z-1.772 I0 J-0.162
X-250 Y-20.838 Z-1.833 I0 J0.162
X-250 Y-21.162 Z-1.894 I0 J-0.162
X-250 Y-20.838 Z-1.956 I0 J0.162
X-250.123 Y-21.106 Z-2 I0 J-0.162
X-249.877 Y-20.894 I0.123 J0.106
X-250.123 Y-21.106 I-0.123 J-0.106
G1 X-250.098 Y-21.126 F1016
X-250.067 Y-21.134
X-250.036 Y-21.13
X-250.008 Y-21.115
X-249.888 Y-21.011
Z5 F1500
X-249.919 Y-61.077
Z1.683
Z0 F1016
Y-60.919
X-249.925 Y-60.888
X-249.943 Y-60.861
X-249.969 Y-60.844
X-250 Y-60.838
G3 X-250 Y-61.162 Z-0.061 I0 J-0.162 F1500
X-250 Y-60.838 Z-0.122 I0 J0.162
X-250 Y-61.162 Z-0.183 I0 J-0.162
X-250 Y-60.838 Z-0.244 I0 J0.162
X-250 Y-61.162 Z-0.306 I0 J-0.162
X-250 Y-60.838 Z-0.367 I0 J0.162
X-250 Y-61.162 Z-0.428 I0 J-0.162
X-250 Y-60.838 Z-0.489 I0 J0.162
X-250 Y-61.162 Z-0.55 I0 J-0.162
X-250 Y-60.838 Z-0.611 I0 J0.162
X-250 Y-61.162 Z-0.672 I0 J-0.162
X-250 Y-60.838 Z-0.733 I0 J0.162
X-250 Y-61.162 Z-0.794 I0 J-0.162
X-250 Y-60.838 Z-0.856 I0 J0.162
X-250 Y-61.162 Z-0.917 I0 J-0.162
X-250 Y-60.838 Z-0.978 I0 J0.162
X-250 Y-61.162 Z-1.039 I0 J-0.162
X-250 Y-60.838 Z-1.1 I0 J0.162
X-250 Y-61.162 Z-1.161 I0 J-0.162
X-250 Y-60.838 Z-1.222 I0 J0.162
X-250 Y-61.162 Z-1.283 I0 J-0.162
X-250 Y-60.838 Z-1.344 I0 J0.162
X-250 Y-61.162 Z-1.406 I0 J-0.162
X-250 Y-60.838 Z-1.467 I0 J0.162
X-250 Y-61.162 Z-1.528 I0 J-0.162
X-250 Y-60.838 Z-1.589 I0 J0.162
X-250 Y-61.162 Z-1.65 I0 J-0.162
X-250 Y-60.838 Z-1.711 I0 J0.162
X-250 Y-61.162 Z-1.772 I0 J-0.162
X-250 Y-60.838 Z-1.833 I0 J0.162
X-250 Y-61.162 Z-1.894 I0 J-0.162
X-250 Y-60.838 Z-1.956 I0 J0.162
X-250.123 Y-61.106 Z-2 I0 J-0.162
X-249.877 Y-60.894 I0.123 J0.106
X-250.123 Y-61.106 I-0.123 J-0.106
G1 X-250.098 Y-61.126 F1016
X-250.067 Y-61.134
X-250.036 Y-61.13
X-250.008 Y-61.115
X-249.888 Y-61.011
Z5 F1500
X-250.081 Y-95.923
Z1.683
Z0 F1016
Y-96.081
X-250.075 Y-96.112
X-250.057 Y-96.139
X-250.031 Y-96.156
X-250 Y-96.162
G3 X-250 Y-95.838 Z-0.061 I0 J0.162 F1500
X-250 Y-96.162 Z-0.122 I0 J-0.162
X-250 Y-95.838 Z-0.183 I0 J0.162
X-250 Y-96.162 Z-0.244 I0 J-0.162
X-250 Y-95.838 Z-0.306 I0 J0.162
X-250 Y-96.162 Z-0.367 I0 J-0.162
X-250 Y-95.838 Z-0.428 I0 J0.162
X-250 Y-96.162 Z-0.489 I0 J-0.162
X-250 Y-95.838 Z-0.55 I0 J0.162
X-250 Y-96.162 Z-0.611 I0 J-0.162
X-250 Y-95.838 Z-0.672 I0 J0.162
X-250 Y-96.162 Z-0.733 I0 J-0.162
X-250 Y-95.838 Z-0.794 I0 J0.162
X-250 Y-96.162 Z-0.856 I0 J-0.162
X-250 Y-95.838 Z-0.917 I0 J0.162
X-250 Y-96.162 Z-0.978 I0 J-0.162
X-250 Y-95.838 Z-1.039 I0 J0.162
X-250 Y-96.162 Z-1.1 I0 J-0.162
X-250 Y-95.838 Z-1.161 I0 J0.162
X-250 Y-96.162 Z-1.222 I0 J-0.162
X-250 Y-95.838 Z-1.283 I0 J0.162
X-250 Y-96.162 Z-1.344 I0 J-0.162
X-250 Y-95.838 Z-1.406 I0 J0.162
X-250 Y-96.162 Z-1.467 I0 J-0.162
X-250 Y-95.838 Z-1.528 I0 J0.162
X-250 Y-96.162 Z-1.589 I0 J-0.162
X-250 Y-95.838 Z-1.65 I0 J0.162
X-250 Y-96.162 Z-1.711 I0 J-0.162
X-250 Y-95.838 Z-1.772 I0 J0.162
X-250 Y-96.162 Z-1.833 I0 J-0.162
X-250 Y-95.838 Z-1.894 I0 J0.162
X-250 Y-96.162 Z-1.956 I0 J-0.162
X-249.877 Y-95.894 Z-2 I0 J0.162
X-250.123 Y-96.106 I-0.123 J-0.106
X-249.877 Y-95.894 I0.123 J0.106
G1 X-249.902 Y-95.874 F1016
X-249.933 Y-95.866
X-249.964 Y-95.87
X-249.992 Y-95.885
X-250.112 Y-95.989
Z5 F1500
X-210.081 Y-95.923
Z1.683
Z0 F1016
Y-96.081
X-210.075 Y-96.112
X-210.057 Y-96.139
X-210.031 Y-96.156
X-210 Y-96.162
G3 X-210 Y-95.838 Z-0.061 I0 J0.162 F1500
X-210 Y-96.162 Z-0.122 I0 J-0.162
X-210 Y-95.838 Z-0.183 I0 J0.162
X-210 Y-96.162 Z-0.244 I0 J-0.162
X-210 Y-95.838 Z-0.306 I0 J0.162
X-210 Y-96.162 Z-0.367 I0 J-0.162
X-210 Y-95.838 Z-0.428 I0 J0.162
X-210 Y-96.162 Z-0.489 I0 J-0.162
X-210 Y-95.838 Z-0.55 I0 J0.162
X-210 Y-96.162 Z-0.611 I0 J-0.162
X-210 Y-95.838 Z-0.672 I0 J0.162
X-210 Y-96.162 Z-0.733 I0 J-0.162
X-210 Y-95.838 Z-0.794 I0 J0.162
X-210 Y-96.162 Z-0.856 I0 J-0.162
X-210 Y-95.838 Z-0.917 I0 J0.162
X-210 Y-96.162 Z-0.978 I0 J-0.162
X-210 Y-95.838 Z-1.039 I0 J0.162
X-210 Y-96.162 Z-1.1 I0 J-0.162
X-210 Y-95.838 Z-1.161 I0 J0.162
X-210 Y-96.162 Z-1.222 I0 J-0.162
X-210 Y-95.838 Z-1.283 I0 J0.162
X-210 Y-96.162 Z-1.344 I0 J-0.162
X-210 Y-95.838 Z-1.406 I0 J0.162
X-210 Y-96.162 Z-1.467 I0 J-0.162
X-210 Y-95.838 Z-1.528 I0 J0.162
X-210 Y-96.162 Z-1.589 I0 J-0.162
X-210 Y-95.838 Z-1.65 I0 J0.162
X-210 Y-96.162 Z-1.711 I0 J-0.162
X-210 Y-95.838 Z-1.772 I0 J0.162
X-210 Y-96.162 Z-1.833 I0 J-0.162
X-210 Y-95.838 Z-1.894 I0 J0.162
X-210 Y-96.162 Z-1.956 I0 J-0.162
X-209.877 Y-95.894 Z-2 I0 J0.162
X-210.123 Y-96.106 I-0.123 J-0.106
X-209.877 Y-95.894 I0.123 J0.106
G1 X-209.902 Y-95.874 F1016
X-209.933 Y-95.866
X-209.964 Y-95.87
X-209.992 Y-95.885
X-210.112 Y-95.989
Z5 F1500
X-178.268 Y-92.686
Z1.683
Z0 F1016
Y-92.845
X-178.262 Y-92.876
X-178.244 Y-92.902
X-178.218 Y-92.92
X-178.187 Y-92.926
G3 X-178.187 Y-92.601 Z-0.061 I0 J0.162 F1500
X-178.187 Y-92.926 Z-0.122 I0 J-0.162
X-178.187 Y-92.601 Z-0.183 I0 J0.162
X-178.187 Y-92.926 Z-0.244 I0 J-0.162
X-178.187 Y-92.601 Z-0.306 I0 J0.162
X-178.187 Y-92.926 Z-0.367 I0 J-0.162
X-178.187 Y-92.601 Z-0.428 I0 J0.162
X-178.187 Y-92.926 Z-0.489 I0 J-0.162
X-178.187 Y-92.601 Z-0.55 I0 J0.162
X-178.187 Y-92.926 Z-0.611 I0 J-0.162
X-178.187 Y-92.601 Z-0.672 I0 J0.162
X-178.187 Y-92.926 Z-0.733 I0 J-0.162
X-178.187 Y-92.601 Z-0.794 I0 J0.162
X-178.187 Y-92.926 Z-0.856 I0 J-0.162
X-178.187 Y-92.601 Z-0.917 I0 J0.162
X-178.187 Y-92.926 Z-0.978 I0 J-0.162
X-178.187 Y-92.601 Z-1.039 I0 J0.162
X-178.187 Y-92.926 Z-1.1 I0 J-0.162
X-178.187 Y-92.601 Z-1.161 I0 J0.162
X-178.187 Y-92.926 Z-1.222 I0 J-0.162
X-178.187 Y-92.601 Z-1.283 I0 J0.162
X-178.187 Y-92.926 Z-1.344 I0 J-0.162
X-178.187 Y-92.601 Z-1.406 I0 J0.162
X-178.187 Y-92.926 Z-1.467 I0 J-0.162
X-178.187 Y-92.601 Z-1.528 I0 J0.162
X-178.187 Y-92.926 Z-1.589 I0 J-0.162
X-178.187 Y-92.601 Z-1.65 I0 J0.162
X-178.187 Y-92.926 Z-1.711 I0 J-0.162
X-178.187 Y-92.601 Z-1.772 I0 J0.162
X-178.187 Y-92.926 Z-1.833 I0 J-0.162
X-178.187 Y-92.601 Z-1.894 I0 J0.162
X-178.187 Y-92.926 Z-1.956 I0 J-0.162
X-178.064 Y-92.657 Z-2 I0 J0.162
X-178.31 Y-92.87 I-0.123 J-0.106
X-178.064 Y-92.657 I0.123 J0.106
G1 X-178.089 Y-92.638 F1016
X-178.12 Y-92.629
X-178.151 Y-92.633
X-178.179 Y-92.649
X-178.299 Y-92.753
Z5 F1500
X-199.919 Y-61.077
Z1.683
Z0 F1016
Y-60.919
X-199.925 Y-60.888
X-199.943 Y-60.861
X-199.969 Y-60.844
X-200 Y-60.838
G3 X-200 Y-61.162 Z-0.061 I0 J-0.162 F1500
X-200 Y-60.838 Z-0.122 I0 J0.162
X-200 Y-61.162 Z-0.183 I0 J-0.162
X-200 Y-60.838 Z-0.244 I0 J0.162
X-200 Y-61.162 Z-0.306 I0 J-0.162
X-200 Y-60.838 Z-0.367 I0 J0.162
X-200 Y-61.162 Z-0.428 I0 J-0.162
X-200 Y-60.838 Z-0.489 I0 J0.162
X-200 Y-61.162 Z-0.55 I0 J-0.162
X-200 Y-60.838 Z-0.611 I0 J0.162
X-200 Y-61.162 Z-0.672 I0 J-0.162
X-200 Y-60.838 Z-0.733 I0 J0.162
X-200 Y-61.162 Z-0.794 I0 J-0.162
X-200 Y-60.838 Z-0.856 I0 J0.162
X-200 Y-61.162 Z-0.917 I0 J-0.162
X-200 Y-60.838 Z-0.978 I0 J0.162
X-200 Y-61.162 Z-1.039 I0 J-0.162
X-200 Y-60.838 Z-1.1 I0 J0.162
X-200 Y-61.162 Z-1.161 I0 J-0.162
X-200 Y-60.838 Z-1.222 I0 J0.162
X-200 Y-61.162 Z-1.283 I0 J-0.162
X-200 Y-60.838 Z-1.344 I0 J0.162
X-200 Y-61.162 Z-1.406 I0 J-0.162
X-200 Y-60.838 Z-1.467 I0 J0.162
X-200 Y-61.162 Z-1.528 I0 J-0.162
X-200 Y-60.838 Z-1.589 I0 J0.162
X-200 Y-61.162 Z-1.65 I0 J-0.162
X-200 Y-60.838 Z-1.711 I0 J0.162
X-200 Y-61.162 Z-1.772 I0 J-0.162
X-200 Y-60.838 Z-1.833 I0 J0.162
X-200 Y-61.162 Z-1.894 I0 J-0.162
X-200 Y-60.838 Z-1.956 I0 J0.162
X-200.123 Y-61.106 Z-2 I0 J-0.162
X-199.877 Y-60.894 I0.123 J0.106
X-200.123 Y-61.106 I-0.123 J-0.106
G1 X-200.098 Y-61.126 F1016
X-200.067 Y-61.134
X-200.036 Y-61.13
X-200.008 Y-61.115
X-199.888 Y-61.011
Z5 F1500
X-199.919 Y-21.077
Z1.683
Z0 F1016
Y-20.919
X-199.925 Y-20.888
X-199.943 Y-20.861
X-199.969 Y-20.844
X-200 Y-20.837
G3 X-200 Y-21.163 Z-0.061 I0 J-0.163 F1500
X-200 Y-20.837 Z-0.122 I0 J0.163
X-200 Y-21.163 Z-0.183 I0 J-0.163
X-200 Y-20.837 Z-0.244 I0 J0.163
X-200 Y-21.163 Z-0.306 I0 J-0.163
X-200 Y-20.837 Z-0.367 I0 J0.163
X-200 Y-21.162 Z-0.428 I0 J-0.163
X-200 Y-20.838 Z-0.489 I0 J0.162
X-200 Y-21.162 Z-0.55 I0 J-0.162
X-200 Y-20.838 Z-0.611 I0 J0.162
X-200 Y-21.162 Z-0.672 I0 J-0.162
X-200 Y-20.838 Z-0.733 I0 J0.162
X-200 Y-21.162 Z-0.794 I0 J-0.162
X-200 Y-20.838 Z-0.856 I0 J0.162
X-200 Y-21.162 Z-0.917 I0 J-0.162
X-200 Y-20.838 Z-0.978 I0 J0.162
X-200 Y-21.162 Z-1.039 I0 J-0.162
X-200 Y-20.838 Z-1.1 I0 J0.162
X-200 Y-21.162 Z-1.161 I0 J-0.162
X-200 Y-20.838 Z-1.222 I0 J0.162
X-200 Y-21.162 Z-1.283 I0 J-0.162
X-200 Y-20.838 Z-1.344 I0 J0.162
X-200 Y-21.162 Z-1.406 I0 J-0.162
X-200 Y-20.838 Z-1.467 I0 J0.162
X-200 Y-21.162 Z-1.528 I0 J-0.162
X-200 Y-20.838 Z-1.589 I0 J0.162
X-200 Y-21.162 Z-1.65 I0 J-0.162
X-200 Y-20.838 Z-1.711 I0 J0.162
X-200 Y-21.162 Z-1.772 I0 J-0.162
X-200 Y-20.838 Z-1.833 I0 J0.162
X-200 Y-21.162 Z-1.894 I0 J-0.162
X-200 Y-20.838 Z-1.956 I0 J0.162
X-200.123 Y-21.106 Z-2 I0 J-0.162
X-199.877 Y-20.894 I0.123 J0.106
X-200.123 Y-21.106 I-0.123 J-0.106
G1 X-200.098 Y-21.126 F1016
X-200.067 Y-21.134
X-200.036 Y-21.13
X-200.008 Y-21.115
X-199.888 Y-21.011
Z5 F1500
X-145.408 Y-18.493
Z1.683
Z0 F1016
Y-18.334
X-145.414 Y-18.303
X-145.432 Y-18.277
X-145.458 Y-18.259
X-145.489 Y-18.253
G3 X-145.489 Y-18.578 Z-0.061 I0 J-0.163 F1500
X-145.489 Y-18.253 Z-0.122 I0 J0.163
X-145.489 Y-18.578 Z-0.183 I0 J-0.163
X-145.489 Y-18.253 Z-0.244 I0 J0.163
X-145.489 Y-18.578 Z-0.306 I0 J-0.162
X-145.489 Y-18.253 Z-0.367 I0 J0.162
X-145.489 Y-18.578 Z-0.428 I0 J-0.162
X-145.489 Y-18.253 Z-0.489 I0 J0.162
X-145.489 Y-18.578 Z-0.55 I0 J-0.162
X-145.489 Y-18.253 Z-0.611 I0 J0.162
X-145.489 Y-18.578 Z-0.672 I0 J-0.162
X-145.489 Y-18.253 Z-0.733 I0 J0.162
X-145.489 Y-18.578 Z-0.794 I0 J-0.162
X-145.489 Y-18.253 Z-0.856 I0 J0.162
X-145.489 Y-18.578 Z-0.917 I0 J-0.162
X-145.489 Y-18.253 Z-0.978 I0 J0.162
X-145.489 Y-18.578 Z-1.039 I0 J-0.162
X-145.489 Y-18.253 Z-1.1 I0 J0.162
X-145.489 Y-18.578 Z-1.161 I0 J-0.162
X-145.489 Y-18.253 Z-1.222 I0 J0.162
X-145.489 Y-18.578 Z-1.283 I0 J-0.162
X-145.489 Y-18.253 Z-1.344 I0 J0.162
X-145.489 Y-18.578 Z-1.406 I0 J-0.162
X-145.489 Y-18.253 Z-1.467 I0 J0.162
X-145.489 Y-18.578 Z-1.528 I0 J-0.162
X-145.489 Y-18.253 Z-1.589 I0 J0.162
X-145.489 Y-18.578 Z-1.65 I0 J-0.162
X-145.489 Y-18.253 Z-1.711 I0 J0.162
X-145.489 Y-18.578 Z-1.772 I0 J-0.162
X-145.489 Y-18.253 Z-1.833 I0 J0.162
X-145.489 Y-18.578 Z-1.894 I0 J-0.162
X-145.489 Y-18.253 Z-1.956 I0 J0.162
X-145.612 Y-18.522 Z-2 I0 J-0.162
X-145.366 Y-18.309 I0.123 J0.106
X-145.612 Y-18.522 I-0.123 J-0.106
G1 X-145.587 Y-18.541 F1016
X-145.557 Y-18.55
X-145.525 Y-18.546
X-145.498 Y-18.53
X-145.378 Y-18.426
Z5 F1500
X-129.426 Y-25.827
Z1.683
Z0 F1016
Y-25.669
X-129.432 Y-25.638
X-129.45 Y-25.611
X-129.476 Y-25.594
X-129.508 Y-25.587
G3 X-129.508 Y-25.913 Z-0.061 I0 J-0.163 F1500
X-129.508 Y-25.587 Z-0.122 I0 J0.163
X-129.508 Y-25.913 Z-0.183 I0 J-0.163
X-129.508 Y-25.587 Z-0.244 I0 J0.163
X-129.508 Y-25.913 Z-0.306 I0 J-0.163
X-129.508 Y-25.587 Z-0.367 I0 J0.163
X-129.508 Y-25.912 Z-0.428 I0 J-0.163
X-129.508 Y-25.588 Z-0.489 I0 J0.162
X-129.508 Y-25.912 Z-0.55 I0 J-0.162
X-129.508 Y-25.588 Z-0.611 I0 J0.162
X-129.508 Y-25.912 Z-0.672 I0 J-0.162
X-129.508 Y-25.588 Z-0.733 I0 J0.162
X-129.508 Y-25.912 Z-0.794 I0 J-0.162
X-129.508 Y-25.588 Z-0.856 I0 J0.162
X-129.508 Y-25.912 Z-0.917 I0 J-0.162
X-129.508 Y-25.588 Z-0.978 I0 J0.162
X-129.508 Y-25.912 Z-1.039 I0 J-0.162
X-129.508 Y-25.588 Z-1.1 I0 J0.162
X-129.508 Y-25.912 Z-1.161 I0 J-0.162
X-129.508 Y-25.588 Z-1.222 I0 J0.162
X-129.508 Y-25.912 Z-1.283 I0 J-0.162
X-129.508 Y-25.588 Z-1.344 I0 J0.162
X-129.508 Y-25.912 Z-1.406 I0 J-0.162
X-129.508 Y-25.588 Z-1.467 I0 J0.162
X-129.508 Y-25.912 Z-1.528 I0 J-0.162
X-129.508 Y-25.588 Z-1.589 I0 J0.162
X-129.508 Y-25.912 Z-1.65 I0 J-0.162
X-129.508 Y-25.588 Z-1.711 I0 J0.162
X-129.508 Y-25.912 Z-1.772 I0 J-0.162
X-129.508 Y-25.588 Z-1.833 I0 J0.162
X-129.508 Y-25.912 Z-1.894 I0 J-0.162
X-129.508 Y-25.588 Z-1.956 I0 J0.162
X-129.63 Y-25.856 Z-2 I0 J-0.162
X-129.385 Y-25.644 I0.123 J0.106
X-129.63 Y-25.856 I-0.123 J-0.106
G1 X-129.605 Y-25.876 F1016
X-129.575 Y-25.884
X-129.543 Y-25.88
X-129.516 Y-25.865
X-129.396 Y-25.761
Z5 F1500
X-134.408 Y-32.741
Z1.683
Z0 F1016
Y-32.582
X-134.414 Y-32.551
X-134.432 Y-32.525
X-134.458 Y-32.507
X-134.489 Y-32.501
G3 X-134.489 Y-32.826 Z-0.061 I0 J-0.162 F1500
X-134.489 Y-32.501 Z-0.122 I0 J0.162
X-134.489 Y-32.826 Z-0.183 I0 J-0.162
X-134.489 Y-32.501 Z-0.244 I0 J0.162
X-134.489 Y-32.826 Z-0.306 I0 J-0.162
X-134.489 Y-32.501 Z-0.367 I0 J0.162
X-134.489 Y-32.826 Z-0.428 I0 J-0.162
X-134.489 Y-32.501 Z-0.489 I0 J0.162
X-134.489 Y-32.826 Z-0.55 I0 J-0.162
X-134.489 Y-32.501 Z-0.611 I0 J0.162
X-134.489 Y-32.826 Z-0.672 I0 J-0.162
X-134.489 Y-32.501 Z-0.733 I0 J0.162
X-134.489 Y-32.826 Z-0.794 I0 J-0.162
X-134.489 Y-32.501 Z-0.856 I0 J0.162
X-134.489 Y-32.826 Z-0.917 I0 J-0.162
X-134.489 Y-32.501 Z-0.978 I0 J0.162
X-134.489 Y-32.826 Z-1.039 I0 J-0.162
X-134.489 Y-32.501 Z-1.1 I0 J0.162
X-134.489 Y-32.826 Z-1.161 I0 J-0.162
X-134.489 Y-32.501 Z-1.222 I0 J0.162
X-134.489 Y-32.826 Z-1.283 I0 J-0.162
X-134.489 Y-32.501 Z-1.344 I0 J0.162
X-134.489 Y-32.826 Z-1.406 I0 J-0.162
X-134.489 Y-32.501 Z-1.467 I0 J0.162
X-134.489 Y-32.826 Z-1.528 I0 J-0.162
X-134.489 Y-32.501 Z-1.589 I0 J0.162
X-134.489 Y-32.826 Z-1.65 I0 J-0.162
X-134.489 Y-32.501 Z-1.711 I0 J0.162
X-134.489 Y-32.826 Z-1.772 I0 J-0.162
X-134.489 Y-32.501 Z-1.833 I0 J0.162
X-134.489 Y-32.826 Z-1.894 I0 J-0.162
X-134.489 Y-32.501 Z-1.956 I0 J0.162
X-134.612 Y-32.77 Z-2 I0 J-0.162
X-134.366 Y-32.557 I0.123 J0.106
X-134.612 Y-32.77 I-0.123 J-0.106
G1 X-134.587 Y-32.789 F1016
X-134.557 Y-32.797
X-134.525 Y-32.794
X-134.498 Y-32.778
X-134.378 Y-32.674
Z5 F1500
X-134.408 Y-49.414
Z1.683
Z0 F1016
Y-49.255
X-134.414 Y-49.224
X-134.432 Y-49.198
X-134.458 Y-49.18
X-134.489 Y-49.174
G3 X-134.489 Y-49.499 Z-0.061 I0 J-0.163 F1500
X-134.489 Y-49.174 Z-0.122 I0 J0.163
X-134.489 Y-49.499 Z-0.183 I0 J-0.163
X-134.489 Y-49.174 Z-0.244 I0 J0.163
X-134.489 Y-49.499 Z-0.306 I0 J-0.163
X-134.489 Y-49.174 Z-0.367 I0 J0.163
X-134.489 Y-49.499 Z-0.428 I0 J-0.163
X-134.489 Y-49.174 Z-0.489 I0 J0.163
X-134.489 Y-49.499 Z-0.55 I0 J-0.163
X-134.489 Y-49.174 Z-0.611 I0 J0.163
X-134.489 Y-49.499 Z-0.672 I0 J-0.163
X-134.489 Y-49.174 Z-0.733 I0 J0.163
X-134.489 Y-49.499 Z-0.794 I0 J-0.163
X-134.489 Y-49.174 Z-0.856 I0 J0.163
X-134.489 Y-49.499 Z-0.917 I0 J-0.163
X-134.489 Y-49.174 Z-0.978 I0 J0.162
X-134.489 Y-49.499 Z-1.039 I0 J-0.162
X-134.489 Y-49.174 Z-1.1 I0 J0.162
X-134.489 Y-49.499 Z-1.161 I0 J-0.162
X-134.489 Y-49.174 Z-1.222 I0 J0.162
X-134.489 Y-49.499 Z-1.283 I0 J-0.162
X-134.489 Y-49.174 Z-1.344 I0 J0.162
X-134.489 Y-49.499 Z-1.406 I0 J-0.162
X-134.489 Y-49.174 Z-1.467 I0 J0.162
X-134.489 Y-49.499 Z-1.528 I0 J-0.162
X-134.489 Y-49.174 Z-1.589 I0 J0.162
X-134.489 Y-49.499 Z-1.65 I0 J-0.162
X-134.489 Y-49.174 Z-1.711 I0 J0.162
X-134.489 Y-49.499 Z-1.772 I0 J-0.162
X-134.489 Y-49.174 Z-1.833 I0 J0.162
X-134.489 Y-49.499 Z-1.894 I0 J-0.162
X-134.489 Y-49.174 Z-1.956 I0 J0.162
X-134.612 Y-49.443 Z-2 I0 J-0.162
X-134.366 Y-49.23 I0.123 J0.106
X-134.612 Y-49.443 I-0.123 J-0.106
G1 X-134.587 Y-49.463 F1016
X-134.557 Y-49.471
X-134.525 Y-49.467
X-134.498 Y-49.451
X-134.378 Y-49.347
Z5 F1500
X-129.426 Y-56.327
Z1.683
Z0 F1016
Y-56.169
X-129.432 Y-56.138
X-129.45 Y-56.111
X-129.476 Y-56.094
X-129.508 Y-56.088
G3 X-129.508 Y-56.412 Z-0.061 I0 J-0.162 F1500
X-129.508 Y-56.088 Z-0.122 I0 J0.162
X-129.508 Y-56.412 Z-0.183 I0 J-0.162
X-129.508 Y-56.088 Z-0.244 I0 J0.162
X-129.508 Y-56.412 Z-0.306 I0 J-0.162
X-129.508 Y-56.088 Z-0.367 I0 J0.162
X-129.508 Y-56.412 Z-0.428 I0 J-0.162
X-129.508 Y-56.088 Z-0.489 I0 J0.162
X-129.508 Y-56.412 Z-0.55 I0 J-0.162
X-129.508 Y-56.088 Z-0.611 I0 J0.162
X-129.508 Y-56.412 Z-0.672 I0 J-0.162
X-129.508 Y-56.088 Z-0.733 I0 J0.162
X-129.508 Y-56.412 Z-0.794 I0 J-0.162
X-129.508 Y-56.088 Z-0.856 I0 J0.162
X-129.508 Y-56.412 Z-0.917 I0 J-0.162
X-129.508 Y-56.088 Z-0.978 I0 J0.162
X-129.508 Y-56.412 Z-1.039 I0 J-0.162
X-129.508 Y-56.088 Z-1.1 I0 J0.162
X-129.508 Y-56.412 Z-1.161 I0 J-0.162
X-129.508 Y-56.088 Z-1.222 I0 J0.162
X-129.508 Y-56.412 Z-1.283 I0 J-0.162
X-129.508 Y-56.088 Z-1.344 I0 J0.162
X-129.508 Y-56.412 Z-1.406 I0 J-0.162
X-129.508 Y-56.088 Z-1.467 I0 J0.162
X-129.508 Y-56.412 Z-1.528 I0 J-0.162
X-129.508 Y-56.088 Z-1.589 I0 J0.162
X-129.508 Y-56.412 Z-1.65 I0 J-0.162
X-129.508 Y-56.088 Z-1.711 I0 J0.162
X-129.508 Y-56.412 Z-1.772 I0 J-0.162
X-129.508 Y-56.088 Z-1.833 I0 J0.162
X-129.508 Y-56.412 Z-1.894 I0 J-0.162
X-129.508 Y-56.088 Z-1.956 I0 J0.162
X-129.63 Y-56.356 Z-2 I0 J-0.162
X-129.385 Y-56.144 I0.123 J0.106
X-129.63 Y-56.356 I-0.123 J-0.106
G1 X-129.605 Y-56.376 F1016
X-129.575 Y-56.384
X-129.543 Y-56.38
X-129.516 Y-56.365
X-129.396 Y-56.261
Z5 F1500
X-145.408 Y-63.662
Z1.683
Z0 F1016
Y-63.503
X-145.414 Y-63.472
X-145.432 Y-63.446
X-145.458 Y-63.428
X-145.489 Y-63.422
G3 X-145.489 Y-63.747 Z-0.061 I0 J-0.163 F1500
X-145.489 Y-63.422 Z-0.122 I0 J0.163
X-145.489 Y-63.747 Z-0.183 I0 J-0.163
X-145.489 Y-63.422 Z-0.244 I0 J0.163
X-145.489 Y-63.747 Z-0.306 I0 J-0.163
X-145.489 Y-63.422 Z-0.367 I0 J0.163
X-145.489 Y-63.747 Z-0.428 I0 J-0.163
X-145.489 Y-63.422 Z-0.489 I0 J0.163
X-145.489 Y-63.747 Z-0.55 I0 J-0.163
X-145.489 Y-63.422 Z-0.611 I0 J0.163
X-145.489 Y-63.747 Z-0.672 I0 J-0.163
X-145.489 Y-63.422 Z-0.733 I0 J0.163
X-145.489 Y-63.747 Z-0.794 I0 J-0.163
X-145.489 Y-63.422 Z-0.856 I0 J0.163
X-145.489 Y-63.747 Z-0.917 I0 J-0.163
X-145.489 Y-63.422 Z-0.978 I0 J0.162
X-145.489 Y-63.747 Z-1.039 I0 J-0.162
X-145.489 Y-63.422 Z-1.1 I0 J0.162
X-145.489 Y-63.747 Z-1.161 I0 J-0.162
X-145.489 Y-63.422 Z-1.222 I0 J0.162
X-145.489 Y-63.747 Z-1.283 I0 J-0.162
X-145.489 Y-63.422 Z-1.344 I0 J0.162
X-145.489 Y-63.747 Z-1.406 I0 J-0.162
X-145.489 Y-63.422 Z-1.467 I0 J0.162
X-145.489 Y-63.747 Z-1.528 I0 J-0.162
X-145.489 Y-63.422 Z-1.589 I0 J0.162
X-145.489 Y-63.747 Z-1.65 I0 J-0.162
X-145.489 Y-63.422 Z-1.711 I0 J0.162
X-145.489 Y-63.747 Z-1.772 I0 J-0.162
X-145.489 Y-63.422 Z-1.833 I0 J0.162
X-145.489 Y-63.747 Z-1.894 I0 J-0.162
X-145.489 Y-63.422 Z-1.956 I0 J0.162
X-145.612 Y-63.691 Z-2 I0 J-0.162
X-145.366 Y-63.478 I0.123 J0.106
X-145.612 Y-63.691 I-0.123 J-0.106
G1 X-145.587 Y-63.71 F1016
X-145.557 Y-63.719
X-145.525 Y-63.715
X-145.498 Y-63.699
X-145.378 Y-63.595
Z5 F1500
X-134.592 Y-89.423
Z1.683
Z0 F1016
Y-89.581
X-134.586 Y-89.612
X-134.568 Y-89.639
X-134.542 Y-89.656
X-134.511 Y-89.662
G3 X-134.511 Y-89.338 Z-0.061 I0 J0.162 F1500
X-134.511 Y-89.662 Z-0.122 I0 J-0.162
X-134.511 Y-89.338 Z-0.183 I0 J0.162
X-134.511 Y-89.662 Z-0.244 I0 J-0.162
X-134.511 Y-89.338 Z-0.306 I0 J0.162
X-134.511 Y-89.662 Z-0.367 I0 J-0.162
X-134.511 Y-89.338 Z-0.428 I0 J0.162
X-134.511 Y-89.662 Z-0.489 I0 J-0.162
X-134.511 Y-89.338 Z-0.55 I0 J0.162
X-134.511 Y-89.662 Z-0.611 I0 J-0.162
X-134.511 Y-89.338 Z-0.672 I0 J0.162
X-134.511 Y-89.662 Z-0.733 I0 J-0.162
X-134.511 Y-89.338 Z-0.794 I0 J0.162
X-134.511 Y-89.662 Z-0.856 I0 J-0.162
X-134.511 Y-89.338 Z-0.917 I0 J0.162
X-134.511 Y-89.662 Z-0.978 I0 J-0.162
X-134.511 Y-89.338 Z-1.039 I0 J0.162
X-134.511 Y-89.662 Z-1.1 I0 J-0.162
X-134.511 Y-89.338 Z-1.161 I0 J0.162
X-134.511 Y-89.662 Z-1.222 I0 J-0.162
X-134.511 Y-89.338 Z-1.283 I0 J0.162
X-134.511 Y-89.662 Z-1.344 I0 J-0.162
X-134.511 Y-89.338 Z-1.406 I0 J0.162
X-134.511 Y-89.662 Z-1.467 I0 J-0.162
X-134.511 Y-89.338 Z-1.528 I0 J0.162
X-134.511 Y-89.662 Z-1.589 I0 J-0.162
X-134.511 Y-89.338 Z-1.65 I0 J0.162
X-134.511 Y-89.662 Z-1.711 I0 J-0.162
X-134.511 Y-89.338 Z-1.772 I0 J0.162
X-134.511 Y-89.662 Z-1.833 I0 J-0.162
X-134.511 Y-89.338 Z-1.894 I0 J0.162
X-134.511 Y-89.662 Z-1.956 I0 J-0.162
X-134.388 Y-89.394 Z-2 I0 J0.162
X-134.634 Y-89.606 I-0.123 J-0.106
X-134.388 Y-89.394 I0.123 J0.106
G1 X-134.413 Y-89.374 F1016
X-134.443 Y-89.366
X-134.475 Y-89.37
X-134.502 Y-89.385
X-134.622 Y-89.489
Z5 F1500
X-128.828 Y-91.119
Z2
Z0.317 F1016
G19 G2 Y-91.436 Z0 J-0.317 K0
G1 Y-91.595
G17 G3 X-128.511 Y-91.912 I0.318 J0
X-128.511 Y-87.088 Z-0.14 I0 J2.412 F1500
X-128.511 Y-91.912 Z-0.279 I0 J-2.412
X-128.511 Y-87.088 Z-0.419 I0 J2.412
X-128.511 Y-91.912 Z-0.559 I0 J-2.412
X-128.511 Y-87.088 Z-0.698 I0 J2.412
X-128.511 Y-91.912 Z-0.838 I0 J-2.412
X-128.511 Y-87.088 Z-0.978 I0 J2.412
X-128.511 Y-91.912 Z-1.117 I0 J-2.412
X-128.511 Y-87.088 Z-1.257 I0 J2.412
X-128.511 Y-91.912 Z-1.397 I0 J-2.412
X-128.511 Y-87.088 Z-1.537 I0 J2.412
X-128.511 Y-91.912 Z-1.676 I0 J-2.412
X-128.511 Y-87.088 Z-1.816 I0 J2.412
X-128.511 Y-91.912 Z-1.956 I0 J-2.412
X-126.481 Y-90.805 Z-2 I0 J2.412
X-130.54 Y-88.195 I-2.029 J1.305
X-126.481 Y-90.805 I2.029 J-1.305
X-126.577 Y-90.366 I-0.267 J0.172 F1016
G1 X-126.71 Y-90.28
X-126.77 Y-90.242 Z-1.992
X-126.826 Y-90.206 Z-1.969
X-126.877 Y-90.173 Z-1.931
X-126.919 Y-90.146 Z-1.88
X-126.951 Y-90.125 Z-1.82
X-126.971 Y-90.113 Z-1.753
X-126.977 Y-90.108 Z-1.683
Z5 F1500
X-122.592 Y-89.423
Z1.683
Z0 F1016
Y-89.581
X-122.586 Y-89.612
X-122.568 Y-89.639
X-122.542 Y-89.656
X-122.511 Y-89.662
G3 X-122.511 Y-89.338 Z-0.061 I0 J0.162 F1500
X-122.511 Y-89.662 Z-0.122 I0 J-0.162
X-122.511 Y-89.338 Z-0.183 I0 J0.162
X-122.511 Y-89.662 Z-0.244 I0 J-0.162
X-122.511 Y-89.338 Z-0.306 I0 J0.162
X-122.511 Y-89.662 Z-0.367 I0 J-0.162
X-122.511 Y-89.338 Z-0.428 I0 J0.162
X-122.511 Y-89.662 Z-0.489 I0 J-0.162
X-122.511 Y-89.338 Z-0.55 I0 J0.162
X-122.511 Y-89.662 Z-0.611 I0 J-0.162
X-122.511 Y-89.338 Z-0.672 I0 J0.162
X-122.511 Y-89.662 Z-0.733 I0 J-0.162
X-122.511 Y-89.338 Z-0.794 I0 J0.162
X-122.511 Y-89.662 Z-0.856 I0 J-0.162
X-122.511 Y-89.338 Z-0.917 I0 J0.162
X-122.511 Y-89.662 Z-0.978 I0 J-0.162
X-122.511 Y-89.338 Z-1.039 I0 J0.162
X-122.511 Y-89.662 Z-1.1 I0 J-0.162
X-122.511 Y-89.338 Z-1.161 I0 J0.162
X-122.511 Y-89.662 Z-1.222 I0 J-0.162
X-122.511 Y-89.338 Z-1.283 I0 J0.162
X-122.511 Y-89.662 Z-1.344 I0 J-0.162
X-122.511 Y-89.338 Z-1.406 I0 J0.162
X-122.511 Y-89.662 Z-1.467 I0 J-0.162
X-122.511 Y-89.338 Z-1.528 I0 J0.162
X-122.511 Y-89.662 Z-1.589 I0 J-0.162
X-122.511 Y-89.338 Z-1.65 I0 J0.162
X-122.511 Y-89.662 Z-1.711 I0 J-0.162
X-122.511 Y-89.338 Z-1.772 I0 J0.162
X-122.511 Y-89.662 Z-1.833 I0 J-0.162
X-122.511 Y-89.338 Z-1.894 I0 J0.162
X-122.511 Y-89.662 Z-1.956 I0 J-0.162
X-122.388 Y-89.394 Z-2 I0 J0.162
X-122.634 Y-89.606 I-0.123 J-0.106
X-122.388 Y-89.394 I0.123 J0.106
G1 X-122.413 Y-89.374 F1016
X-122.443 Y-89.366
X-122.475 Y-89.37
X-122.502 Y-89.385
X-122.622 Y-89.489
Z5 F1500
X-114.592 Y-93.338
Z1.683
Z0 F1016
Y-93.497
X-114.586 Y-93.528
X-114.568 Y-93.554
X-114.542 Y-93.572
X-114.511 Y-93.578
G3 X-114.511 Y-93.253 Z-0.061 I0 J0.162 F1500
X-114.511 Y-93.578 Z-0.122 I0 J-0.162
X-114.511 Y-93.253 Z-0.183 I0 J0.162
X-114.511 Y-93.578 Z-0.244 I0 J-0.162
X-114.511 Y-93.253 Z-0.306 I0 J0.162
X-114.511 Y-93.578 Z-0.367 I0 J-0.162
X-114.511 Y-93.253 Z-0.428 I0 J0.162
X-114.511 Y-93.578 Z-0.489 I0 J-0.162
X-114.511 Y-93.253 Z-0.55 I0 J0.162
X-114.511 Y-93.578 Z-0.611 I0 J-0.162
X-114.511 Y-93.253 Z-0.672 I0 J0.162
X-114.511 Y-93.578 Z-0.733 I0 J-0.162
X-114.511 Y-93.253 Z-0.794 I0 J0.162
X-114.511 Y-93.578 Z-0.856 I0 J-0.162
X-114.511 Y-93.253 Z-0.917 I0 J0.162
X-114.511 Y-93.578 Z-0.978 I0 J-0.162
X-114.511 Y-93.253 Z-1.039 I0 J0.162
X-114.511 Y-93.578 Z-1.1 I0 J-0.162
X-114.511 Y-93.253 Z-1.161 I0 J0.162
X-114.511 Y-93.578 Z-1.222 I0 J-0.162
X-114.511 Y-93.253 Z-1.283 I0 J0.162
X-114.511 Y-93.578 Z-1.344 I0 J-0.162
X-114.511 Y-93.253 Z-1.406 I0 J0.162
X-114.511 Y-93.578 Z-1.467 I0 J-0.162
X-114.511 Y-93.253 Z-1.528 I0 J0.162
X-114.511 Y-93.578 Z-1.589 I0 J-0.162
X-114.511 Y-93.253 Z-1.65 I0 J0.162
X-114.511 Y-93.578 Z-1.711 I0 J-0.162
X-114.511 Y-93.253 Z-1.772 I0 J0.162
X-114.511 Y-93.578 Z-1.833 I0 J-0.162
X-114.511 Y-93.253 Z-1.894 I0 J0.162
X-114.511 Y-93.578 Z-1.956 I0 J-0.162
X-114.388 Y-93.309 Z-2 I0 J0.162
X-114.634 Y-93.522 I-0.123 J-0.106
X-114.388 Y-93.309 I0.123 J0.106
G1 X-114.413 Y-93.29 F1016
X-114.443 Y-93.281
X-114.475 Y-93.285
X-114.502 Y-93.301
X-114.622 Y-93.405
Z5 F1500
X-114.592 Y-138.507
Z1.683
Z0 F1016
Y-138.666
X-114.586 Y-138.697
X-114.568 Y-138.723
X-114.542 Y-138.741
X-114.511 Y-138.747
G3 X-114.511 Y-138.422 Z-0.061 I0 J0.163 F1500
X-114.511 Y-138.747 Z-0.122 I0 J-0.163
X-114.511 Y-138.422 Z-0.183 I0 J0.163
X-114.511 Y-138.747 Z-0.244 I0 J-0.163
X-114.511 Y-138.422 Z-0.306 I0 J0.163
X-114.511 Y-138.747 Z-0.367 I0 J-0.163
X-114.511 Y-138.422 Z-0.428 I0 J0.163
X-114.511 Y-138.747 Z-0.489 I0 J-0.163
X-114.511 Y-138.422 Z-0.55 I0 J0.163
X-114.511 Y-138.747 Z-0.611 I0 J-0.163
X-114.511 Y-138.422 Z-0.672 I0 J0.163
X-114.511 Y-138.747 Z-0.733 I0 J-0.163
X-114.511 Y-138.422 Z-0.794 I0 J0.163
X-114.511 Y-138.747 Z-0.856 I0 J-0.163
X-114.511 Y-138.422 Z-0.917 I0 J0.163
X-114.511 Y-138.747 Z-0.978 I0 J-0.163
X-114.511 Y-138.422 Z-1.039 I0 J0.163
X-114.511 Y-138.747 Z-1.1 I0 J-0.163
X-114.511 Y-138.422 Z-1.161 I0 J0.163
X-114.511 Y-138.747 Z-1.222 I0 J-0.163
X-114.511 Y-138.422 Z-1.283 I0 J0.163
X-114.511 Y-138.747 Z-1.344 I0 J-0.163
X-114.511 Y-138.422 Z-1.406 I0 J0.163
X-114.511 Y-138.747 Z-1.467 I0 J-0.163
X-114.511 Y-138.422 Z-1.528 I0 J0.163
X-114.511 Y-138.747 Z-1.589 I0 J-0.163
X-114.511 Y-138.422 Z-1.65 I0 J0.163
X-114.511 Y-138.747 Z-1.711 I0 J-0.163
X-114.511 Y-138.422 Z-1.772 I0 J0.163
X-114.511 Y-138.747 Z-1.833 I0 J-0.163
X-114.511 Y-138.422 Z-1.894 I0 J0.163
X-114.511 Y-138.747 Z-1.956 I0 J-0.162
X-114.388 Y-138.478 Z-2 I0 J0.162
X-114.634 Y-138.691 I-0.123 J-0.106
X-114.388 Y-138.478 I0.123 J0.106
G1 X-114.413 Y-138.459 F1016
X-114.443 Y-138.45
X-114.475 Y-138.454
X-114.502 Y-138.47
X-114.622 Y-138.574
Z5 F1500
X-122.592 Y-142.423
Z1.683
Z0 F1016
Y-142.581
X-122.586 Y-142.612
X-122.568 Y-142.639
X-122.542 Y-142.656
X-122.511 Y-142.663
G3 X-122.511 Y-142.337 Z-0.061 I0 J0.163 F1500
X-122.511 Y-142.663 Z-0.122 I0 J-0.163
X-122.511 Y-142.337 Z-0.183 I0 J0.163
X-122.511 Y-142.663 Z-0.244 I0 J-0.163
X-122.511 Y-142.337 Z-0.306 I0 J0.163
X-122.511 Y-142.663 Z-0.367 I0 J-0.163
X-122.511 Y-142.337 Z-0.428 I0 J0.163
X-122.511 Y-142.663 Z-0.489 I0 J-0.163
X-122.511 Y-142.337 Z-0.55 I0 J0.163
X-122.511 Y-142.663 Z-0.611 I0 J-0.163
X-122.511 Y-142.337 Z-0.672 I0 J0.163
X-122.511 Y-142.663 Z-0.733 I0 J-0.163
X-122.511 Y-142.337 Z-0.794 I0 J0.163
X-122.511 Y-142.663 Z-0.856 I0 J-0.163
X-122.511 Y-142.337 Z-0.917 I0 J0.163
X-122.511 Y-142.663 Z-0.978 I0 J-0.163
X-122.511 Y-142.337 Z-1.039 I0 J0.163
X-122.511 Y-142.663 Z-1.1 I0 J-0.163
X-122.511 Y-142.337 Z-1.161 I0 J0.163
X-122.511 Y-142.663 Z-1.222 I0 J-0.163
X-122.511 Y-142.337 Z-1.283 I0 J0.163
X-122.511 Y-142.663 Z-1.344 I0 J-0.163
X-122.511 Y-142.337 Z-1.406 I0 J0.163
X-122.511 Y-142.663 Z-1.467 I0 J-0.163
X-122.511 Y-142.337 Z-1.528 I0 J0.163
X-122.511 Y-142.663 Z-1.589 I0 J-0.163
X-122.511 Y-142.337 Z-1.65 I0 J0.163
X-122.511 Y-142.663 Z-1.711 I0 J-0.163
X-122.511 Y-142.337 Z-1.772 I0 J0.163
X-122.511 Y-142.663 Z-1.833 I0 J-0.163
X-122.511 Y-142.338 Z-1.894 I0 J0.163
X-122.511 Y-142.662 Z-1.956 I0 J-0.162
X-122.388 Y-142.394 Z-2 I0 J0.162
X-122.634 Y-142.606 I-0.123 J-0.106
X-122.388 Y-142.394 I0.123 J0.106
G1 X-122.413 Y-142.374 F1016
X-122.443 Y-142.366
X-122.475 Y-142.37
X-122.502 Y-142.385
X-122.622 Y-142.489
Z5 F1500
X-128.828 Y-144.119
Z2
Z0.317 F1016
G19 G2 Y-144.436 Z0 J-0.318 K0
G1 Y-144.595
G17 G3 X-128.511 Y-144.913 I0.318 J0
X-128.511 Y-140.087 Z-0.14 I0 J2.413 F1500
X-128.511 Y-144.913 Z-0.279 I0 J-2.413
X-128.511 Y-140.087 Z-0.419 I0 J2.413
X-128.511 Y-144.913 Z-0.559 I0 J-2.413
X-128.511 Y-140.087 Z-0.698 I0 J2.413
X-128.511 Y-144.913 Z-0.838 I0 J-2.413
X-128.511 Y-140.087 Z-0.978 I0 J2.413
X-128.511 Y-144.913 Z-1.117 I0 J-2.413
X-128.511 Y-140.088 Z-1.257 I0 J2.413
X-128.511 Y-144.912 Z-1.397 I0 J-2.412
X-128.511 Y-140.088 Z-1.537 I0 J2.412
X-128.511 Y-144.912 Z-1.676 I0 J-2.412
X-128.511 Y-140.088 Z-1.816 I0 J2.412
X-128.511 Y-144.912 Z-1.956 I0 J-2.412
X-126.481 Y-143.805 Z-2 I0 J2.412
X-130.54 Y-141.195 I-2.029 J1.305
X-126.481 Y-143.805 I2.029 J-1.305
X-126.577 Y-143.366 I-0.267 J0.172 F1016
G1 X-126.71 Y-143.28
X-126.77 Y-143.242 Z-1.992
X-126.826 Y-143.206 Z-1.969
X-126.877 Y-143.173 Z-1.931
X-126.919 Y-143.146 Z-1.88
X-126.951 Y-143.125 Z-1.82
X-126.971 Y-143.113 Z-1.753
X-126.977 Y-143.108 Z-1.683
Z5 F1500
X-134.592 Y-142.423
Z1.683
Z0 F1016
Y-142.581
X-134.586 Y-142.612
X-134.568 Y-142.639
X-134.542 Y-142.656
X-134.511 Y-142.663
G3 X-134.511 Y-142.337 Z-0.061 I0 J0.163 F1500
X-134.511 Y-142.663 Z-0.122 I0 J-0.163
X-134.511 Y-142.337 Z-0.183 I0 J0.163
X-134.511 Y-142.663 Z-0.244 I0 J-0.163
X-134.511 Y-142.337 Z-0.306 I0 J0.163
X-134.511 Y-142.663 Z-0.367 I0 J-0.163
X-134.511 Y-142.337 Z-0.428 I0 J0.163
X-134.511 Y-142.663 Z-0.489 I0 J-0.163
X-134.511 Y-142.337 Z-0.55 I0 J0.163
X-134.511 Y-142.663 Z-0.611 I0 J-0.163
X-134.511 Y-142.337 Z-0.672 I0 J0.163
X-134.511 Y-142.663 Z-0.733 I0 J-0.163
X-134.511 Y-142.337 Z-0.794 I0 J0.163
X-134.511 Y-142.663 Z-0.856 I0 J-0.163
X-134.511 Y-142.337 Z-0.917 I0 J0.163
X-134.511 Y-142.663 Z-0.978 I0 J-0.163
X-134.511 Y-142.337 Z-1.039 I0 J0.163
X-134.511 Y-142.663 Z-1.1 I0 J-0.163
X-134.511 Y-142.337 Z-1.161 I0 J0.163
X-134.511 Y-142.663 Z-1.222 I0 J-0.163
X-134.511 Y-142.337 Z-1.283 I0 J0.163
X-134.511 Y-142.663 Z-1.344 I0 J-0.163
X-134.511 Y-142.337 Z-1.406 I0 J0.163
X-134.511 Y-142.663 Z-1.467 I0 J-0.163
X-134.511 Y-142.337 Z-1.528 I0 J0.163
X-134.511 Y-142.663 Z-1.589 I0 J-0.163
X-134.511 Y-142.337 Z-1.65 I0 J0.163
X-134.511 Y-142.663 Z-1.711 I0 J-0.163
X-134.511 Y-142.337 Z-1.772 I0 J0.163
X-134.511 Y-142.663 Z-1.833 I0 J-0.163
X-134.511 Y-142.338 Z-1.894 I0 J0.163
X-134.511 Y-142.662 Z-1.956 I0 J-0.162
X-134.388 Y-142.394 Z-2 I0 J0.162
X-134.634 Y-142.606 I-0.123 J-0.106
X-134.388 Y-142.394 I0.123 J0.106
G1 X-134.413 Y-142.374 F1016
X-134.443 Y-142.366
X-134.475 Y-142.37
X-134.502 Y-142.385
X-134.622 Y-142.489
Z5 F1500
X-178.268 Y-139.159
Z1.683
Z0 F1016
Y-139.318
X-178.262 Y-139.349
X-178.244 Y-139.375
X-178.218 Y-139.393
X-178.187 Y-139.399
G3 X-178.187 Y-139.074 Z-0.061 I0 J0.163 F1500
X-178.187 Y-139.399 Z-0.122 I0 J-0.163
X-178.187 Y-139.074 Z-0.183 I0 J0.163
X-178.187 Y-139.399 Z-0.244 I0 J-0.163
X-178.187 Y-139.074 Z-0.306 I0 J0.163
X-178.187 Y-139.399 Z-0.367 I0 J-0.163
X-178.187 Y-139.074 Z-0.428 I0 J0.163
X-178.187 Y-139.399 Z-0.489 I0 J-0.163
X-178.187 Y-139.074 Z-0.55 I0 J0.163
X-178.187 Y-139.399 Z-0.611 I0 J-0.163
X-178.187 Y-139.074 Z-0.672 I0 J0.163
X-178.187 Y-139.399 Z-0.733 I0 J-0.163
X-178.187 Y-139.074 Z-0.794 I0 J0.163
X-178.187 Y-139.399 Z-0.856 I0 J-0.163
X-178.187 Y-139.074 Z-0.917 I0 J0.163
X-178.187 Y-139.399 Z-0.978 I0 J-0.163
X-178.187 Y-139.074 Z-1.039 I0 J0.163
X-178.187 Y-139.399 Z-1.1 I0 J-0.163
X-178.187 Y-139.074 Z-1.161 I0 J0.163
X-178.187 Y-139.399 Z-1.222 I0 J-0.163
X-178.187 Y-139.074 Z-1.283 I0 J0.163
X-178.187 Y-139.399 Z-1.344 I0 J-0.163
X-178.187 Y-139.074 Z-1.406 I0 J0.163
X-178.187 Y-139.399 Z-1.467 I0 J-0.163
X-178.187 Y-139.074 Z-1.528 I0 J0.163
X-178.187 Y-139.399 Z-1.589 I0 J-0.163
X-178.187 Y-139.074 Z-1.65 I0 J0.163
X-178.187 Y-139.399 Z-1.711 I0 J-0.163
X-178.187 Y-139.074 Z-1.772 I0 J0.163
X-178.187 Y-139.399 Z-1.833 I0 J-0.163
X-178.187 Y-139.074 Z-1.894 I0 J0.163
X-178.187 Y-139.399 Z-1.956 I0 J-0.162
X-178.064 Y-139.13 Z-2 I0 J0.162
X-178.31 Y-139.343 I-0.123 J-0.106
X-178.064 Y-139.13 I0.123 J0.106
G1 X-178.089 Y-139.11 F1016
X-178.12 Y-139.102
X-178.151 Y-139.106
X-178.179 Y-139.122
X-178.299 Y-139.226
Z5 F1500
X-210.081 Y-135.923
Z1.683
Z0 F1016
Y-136.081
X-210.075 Y-136.112
X-210.057 Y-136.139
X-210.031 Y-136.156
X-210 Y-136.163
G3 X-210 Y-135.837 Z-0.061 I0 J0.163 F1500
X-210 Y-136.163 Z-0.122 I0 J-0.163
X-210 Y-135.837 Z-0.183 I0 J0.163
X-210 Y-136.163 Z-0.244 I0 J-0.163
X-210 Y-135.837 Z-0.306 I0 J0.163
X-210 Y-136.163 Z-0.367 I0 J-0.163
X-210 Y-135.837 Z-0.428 I0 J0.163
X-210 Y-136.163 Z-0.489 I0 J-0.163
X-210 Y-135.837 Z-0.55 I0 J0.163
X-210 Y-136.163 Z-0.611 I0 J-0.163
X-210 Y-135.837 Z-0.672 I0 J0.163
X-210 Y-136.163 Z-0.733 I0 J-0.163
X-210 Y-135.837 Z-0.794 I0 J0.163
X-210 Y-136.163 Z-0.856 I0 J-0.163
X-210 Y-135.837 Z-0.917 I0 J0.163
X-210 Y-136.163 Z-0.978 I0 J-0.163
X-210 Y-135.837 Z-1.039 I0 J0.163
X-210 Y-136.163 Z-1.1 I0 J-0.163
X-210 Y-135.837 Z-1.161 I0 J0.163
X-210 Y-136.163 Z-1.222 I0 J-0.163
X-210 Y-135.837 Z-1.283 I0 J0.163
X-210 Y-136.163 Z-1.344 I0 J-0.163
X-210 Y-135.837 Z-1.406 I0 J0.163
X-210 Y-136.163 Z-1.467 I0 J-0.163
X-210 Y-135.837 Z-1.528 I0 J0.163
X-210 Y-136.163 Z-1.589 I0 J-0.163
X-210 Y-135.837 Z-1.65 I0 J0.163
X-210 Y-136.163 Z-1.711 I0 J-0.163
X-210 Y-135.837 Z-1.772 I0 J0.163
X-210 Y-136.163 Z-1.833 I0 J-0.163
X-210 Y-135.838 Z-1.894 I0 J0.163
X-210 Y-136.162 Z-1.956 I0 J-0.162
X-209.877 Y-135.894 Z-2 I0 J0.162
X-210.123 Y-136.106 I-0.123 J-0.106
X-209.877 Y-135.894 I0.123 J0.106
G1 X-209.902 Y-135.874 F1016
X-209.933 Y-135.866
X-209.964 Y-135.87
X-209.992 Y-135.885
X-210.112 Y-135.989
Z5 F1500
X-250.081 Y-135.923
Z1.683
Z0 F1016
Y-136.081
X-250.075 Y-136.112
X-250.057 Y-136.139
X-250.031 Y-136.156
X-250 Y-136.163
G3 X-250 Y-135.837 Z-0.061 I0 J0.163 F1500
X-250 Y-136.163 Z-0.122 I0 J-0.163
X-250 Y-135.837 Z-0.183 I0 J0.163
X-250 Y-136.163 Z-0.244 I0 J-0.163
X-250 Y-135.837 Z-0.306 I0 J0.163
X-250 Y-136.163 Z-0.367 I0 J-0.163
X-250 Y-135.837 Z-0.428 I0 J0.163
X-250 Y-136.163 Z-0.489 I0 J-0.163
X-250 Y-135.837 Z-0.55 I0 J0.163
X-250 Y-136.163 Z-0.611 I0 J-0.163
X-250 Y-135.837 Z-0.672 I0 J0.163
X-250 Y-136.163 Z-0.733 I0 J-0.163
X-250 Y-135.837 Z-0.794 I0 J0.163
X-250 Y-136.163 Z-0.856 I0 J-0.163
X-250 Y-135.837 Z-0.917 I0 J0.163
X-250 Y-136.163 Z-0.978 I0 J-0.163
X-250 Y-135.837 Z-1.039 I0 J0.163
X-250 Y-136.163 Z-1.1 I0 J-0.163
X-250 Y-135.837 Z-1.161 I0 J0.163
X-250 Y-136.163 Z-1.222 I0 J-0.163
X-250 Y-135.837 Z-1.283 I0 J0.163
X-250 Y-136.163 Z-1.344 I0 J-0.163
X-250 Y-135.837 Z-1.406 I0 J0.163
X-250 Y-136.163 Z-1.467 I0 J-0.163
X-250 Y-135.837 Z-1.528 I0 J0.163
X-250 Y-136.163 Z-1.589 I0 J-0.163
X-250 Y-135.837 Z-1.65 I0 J0.163
X-250 Y-136.163 Z-1.711 I0 J-0.163
X-250 Y-135.837 Z-1.772 I0 J0.163
X-250 Y-136.163 Z-1.833 I0 J-0.163
X-250 Y-135.838 Z-1.894 I0 J0.163
X-250 Y-136.162 Z-1.956 I0 J-0.162
X-249.877 Y-135.894 Z-2 I0 J0.162
X-250.123 Y-136.106 I-0.123 J-0.106
X-249.877 Y-135.894 I0.123 J0.106
G1 X-249.902 Y-135.874 F1016
X-249.933 Y-135.866
X-249.964 Y-135.87
X-249.992 Y-135.885
X-250.112 Y-135.989
Z5 F1500
X-60.081 Y-95.923
Z1.683
Z0 F1016
Y-96.081
X-60.075 Y-96.112
X-60.057 Y-96.139
X-60.031 Y-96.156
X-60 Y-96.162
G3 X-60 Y-95.838 Z-0.061 I0 J0.162 F1500
X-60 Y-96.162 Z-0.122 I0 J-0.162
X-60 Y-95.838 Z-0.183 I0 J0.162
X-60 Y-96.162 Z-0.244 I0 J-0.162
X-60 Y-95.838 Z-0.306 I0 J0.162
X-60 Y-96.162 Z-0.367 I0 J-0.162
X-60 Y-95.838 Z-0.428 I0 J0.162
X-60 Y-96.162 Z-0.489 I0 J-0.162
X-60 Y-95.838 Z-0.55 I0 J0.162
X-60 Y-96.162 Z-0.611 I0 J-0.162
X-60 Y-95.838 Z-0.672 I0 J0.162
X-60 Y-96.162 Z-0.733 I0 J-0.162
X-60 Y-95.837 Z-0.794 I0 J0.162
X-60 Y-96.163 Z-0.856 I0 J-0.163
X-60 Y-95.837 Z-0.917 I0 J0.163
X-60 Y-96.163 Z-0.978 I0 J-0.163
X-60 Y-95.837 Z-1.039 I0 J0.163
X-60 Y-96.163 Z-1.1 I0 J-0.163
X-60 Y-95.837 Z-1.161 I0 J0.163
X-60 Y-96.163 Z-1.222 I0 J-0.163
X-60 Y-95.837 Z-1.283 I0 J0.163
X-60 Y-96.163 Z-1.344 I0 J-0.163
X-60 Y-95.837 Z-1.406 I0 J0.163
X-60 Y-96.163 Z-1.467 I0 J-0.163
X-60 Y-95.837 Z-1.528 I0 J0.163
X-60 Y-96.163 Z-1.589 I0 J-0.163
X-60 Y-95.837 Z-1.65 I0 J0.163
X-60 Y-96.163 Z-1.711 I0 J-0.163
X-60 Y-95.837 Z-1.772 I0 J0.163
X-60 Y-96.163 Z-1.833 I0 J-0.163
X-60 Y-95.837 Z-1.894 I0 J0.163
X-60 Y-96.163 Z-1.956 I0 J-0.163
X-59.877 Y-95.894 Z-2 I0 J0.163
X-60.123 Y-96.106 I-0.123 J-0.106
X-59.877 Y-95.894 I0.123 J0.106
G1 X-59.902 Y-95.874 F1016
X-59.933 Y-95.866
X-59.964 Y-95.87
X-59.992 Y-95.885
X-60.112 Y-95.989
Z5 F1500
X-60.081 Y-135.923
Z1.683
Z0 F1016
Y-136.081
X-60.075 Y-136.112
X-60.057 Y-136.139
X-60.031 Y-136.156
X-60 Y-136.163
G3 X-60 Y-135.837 Z-0.061 I0 J0.163 F1500
X-60 Y-136.163 Z-0.122 I0 J-0.163
X-60 Y-135.837 Z-0.183 I0 J0.163
X-60 Y-136.163 Z-0.244 I0 J-0.163
X-60 Y-135.837 Z-0.306 I0 J0.163
X-60 Y-136.163 Z-0.367 I0 J-0.163
X-60 Y-135.837 Z-0.428 I0 J0.163
X-60 Y-136.163 Z-0.489 I0 J-0.163
X-60 Y-135.837 Z-0.55 I0 J0.163
X-60 Y-136.163 Z-0.611 I0 J-0.163
X-60 Y-135.837 Z-0.672 I0 J0.163
X-60 Y-136.163 Z-0.733 I0 J-0.163
X-60 Y-135.837 Z-0.794 I0 J0.163
X-60 Y-136.163 Z-0.856 I0 J-0.163
X-60 Y-135.837 Z-0.917 I0 J0.163
X-60 Y-136.163 Z-0.978 I0 J-0.163
X-60 Y-135.837 Z-1.039 I0 J0.163
X-60 Y-136.163 Z-1.1 I0 J-0.163
X-60 Y-135.837 Z-1.161 I0 J0.163
X-60 Y-136.163 Z-1.222 I0 J-0.163
X-60 Y-135.837 Z-1.283 I0 J0.163
X-60 Y-136.163 Z-1.344 I0 J-0.163
X-60 Y-135.837 Z-1.406 I0 J0.163
X-60 Y-136.163 Z-1.467 I0 J-0.163
X-60 Y-135.837 Z-1.528 I0 J0.163
X-60 Y-136.163 Z-1.589 I0 J-0.163
X-60 Y-135.837 Z-1.65 I0 J0.163
X-60 Y-136.163 Z-1.711 I0 J-0.163
X-60 Y-135.837 Z-1.772 I0 J0.163
X-60 Y-136.163 Z-1.833 I0 J-0.163
X-60 Y-135.837 Z-1.894 I0 J0.163
X-60 Y-136.163 Z-1.956 I0 J-0.163
X-59.877 Y-135.894 Z-2 I0 J0.163
X-60.123 Y-136.106 I-0.123 J-0.106
X-59.877 Y-135.894 I0.123 J0.106
G1 X-59.902 Y-135.874 F1016
X-59.933 Y-135.866
X-59.964 Y-135.87
X-59.992 Y-135.885
X-60.112 Y-135.989
Z5 F1500
X-10.081 Y-135.923
Z1.683
Z0 F1016
Y-136.081
X-10.075 Y-136.112
X-10.057 Y-136.139
X-10.031 Y-136.156
X-10 Y-136.163
G3 X-10 Y-135.837 Z-0.061 I0 J0.163 F1500
X-10 Y-136.163 Z-0.122 I0 J-0.163
X-10 Y-135.837 Z-0.183 I0 J0.163
X-10 Y-136.163 Z-0.244 I0 J-0.163
X-10 Y-135.837 Z-0.306 I0 J0.163
X-10 Y-136.163 Z-0.367 I0 J-0.163
X-10 Y-135.837 Z-0.428 I0 J0.163
X-10 Y-136.163 Z-0.489 I0 J-0.163
X-10 Y-135.837 Z-0.55 I0 J0.163
X-10 Y-136.163 Z-0.611 I0 J-0.163
X-10 Y-135.837 Z-0.672 I0 J0.163
X-10 Y-136.163 Z-0.733 I0 J-0.163
X-10 Y-135.837 Z-0.794 I0 J0.163
X-10 Y-136.163 Z-0.856 I0 J-0.163
X-10 Y-135.837 Z-0.917 I0 J0.163
X-10 Y-136.163 Z-0.978 I0 J-0.163
X-10 Y-135.837 Z-1.039 I0 J0.163
X-10 Y-136.163 Z-1.1 I0 J-0.163
X-10 Y-135.837 Z-1.161 I0 J0.163
X-10 Y-136.163 Z-1.222 I0 J-0.163
X-10 Y-135.837 Z-1.283 I0 J0.163
X-10 Y-136.163 Z-1.344 I0 J-0.163
X-10 Y-135.837 Z-1.406 I0 J0.163
X-10 Y-136.163 Z-1.467 I0 J-0.163
X-10 Y-135.837 Z-1.528 I0 J0.163
X-10 Y-136.163 Z-1.589 I0 J-0.163
X-10 Y-135.837 Z-1.65 I0 J0.163
X-10 Y-136.163 Z-1.711 I0 J-0.163
X-10 Y-135.837 Z-1.772 I0 J0.163
X-10 Y-136.163 Z-1.833 I0 J-0.163
X-10 Y-135.837 Z-1.894 I0 J0.163
X-10 Y-136.163 Z-1.956 I0 J-0.163
X-9.877 Y-135.894 Z-2 I0 J0.163
X-10.123 Y-136.106 I-0.123 J-0.106
X-9.877 Y-135.894 I0.123 J0.106
G1 X-9.902 Y-135.874 F1016
X-9.933 Y-135.866
X-9.964 Y-135.87
X-9.992 Y-135.885
X-10.112 Y-135.989
Z5 F1500
X-10.081 Y-95.923
Z1.683
Z0 F1016
Y-96.081
X-10.075 Y-96.112
X-10.057 Y-96.139
X-10.031 Y-96.156
X-10 Y-96.162
G3 X-10 Y-95.838 Z-0.061 I0 J0.162 F1500
X-10 Y-96.162 Z-0.122 I0 J-0.162
X-10 Y-95.838 Z-0.183 I0 J0.162
X-10 Y-96.162 Z-0.244 I0 J-0.162
X-10 Y-95.838 Z-0.306 I0 J0.162
X-10 Y-96.162 Z-0.367 I0 J-0.162
X-10 Y-95.838 Z-0.428 I0 J0.162
X-10 Y-96.162 Z-0.489 I0 J-0.162
X-10 Y-95.838 Z-0.55 I0 J0.162
X-10 Y-96.162 Z-0.611 I0 J-0.162
X-10 Y-95.838 Z-0.672 I0 J0.162
X-10 Y-96.162 Z-0.733 I0 J-0.162
X-10 Y-95.838 Z-0.794 I0 J0.162
X-10 Y-96.162 Z-0.856 I0 J-0.162
X-10 Y-95.838 Z-0.917 I0 J0.162
X-10 Y-96.163 Z-0.978 I0 J-0.162
X-10 Y-95.837 Z-1.039 I0 J0.163
X-10 Y-96.163 Z-1.1 I0 J-0.163
X-10 Y-95.837 Z-1.161 I0 J0.163
X-10 Y-96.163 Z-1.222 I0 J-0.163
X-10 Y-95.837 Z-1.283 I0 J0.163
X-10 Y-96.163 Z-1.344 I0 J-0.163
X-10 Y-95.837 Z-1.406 I0 J0.163
X-10 Y-96.163 Z-1.467 I0 J-0.163
X-10 Y-95.837 Z-1.528 I0 J0.163
X-10 Y-96.163 Z-1.589 I0 J-0.163
X-10 Y-95.837 Z-1.65 I0 J0.163
X-10 Y-96.163 Z-1.711 I0 J-0.163
X-10 Y-95.837 Z-1.772 I0 J0.163
X-10 Y-96.163 Z-1.833 I0 J-0.163
X-10 Y-95.837 Z-1.894 I0 J0.163
X-10 Y-96.163 Z-1.956 I0 J-0.163
X-9.877 Y-95.894 Z-2 I0 J0.163
X-10.123 Y-96.106 I-0.123 J-0.106
X-9.877 Y-95.894 I0.123 J0.106
G1 X-9.902 Y-95.874 F1016
X-9.933 Y-95.866
X-9.964 Y-95.87
X-9.992 Y-95.885
X-10.112 Y-95.989
Z5 F1500
X-9.919 Y-61.077
Z1.683
Z0 F1016
Y-60.919
X-9.925 Y-60.888
X-9.943 Y-60.861
X-9.969 Y-60.844
X-10 Y-60.838
G3 X-10 Y-61.162 Z-0.061 I0 J-0.162 F1500
X-10 Y-60.838 Z-0.122 I0 J0.162
X-10 Y-61.162 Z-0.183 I0 J-0.162
X-10 Y-60.838 Z-0.244 I0 J0.162
X-10 Y-61.162 Z-0.306 I0 J-0.162
X-10 Y-60.838 Z-0.367 I0 J0.162
X-10 Y-61.162 Z-0.428 I0 J-0.162
X-10 Y-60.838 Z-0.489 I0 J0.162
X-10 Y-61.162 Z-0.55 I0 J-0.162
X-10 Y-60.838 Z-0.611 I0 J0.162
X-10 Y-61.162 Z-0.672 I0 J-0.162
X-10 Y-60.838 Z-0.733 I0 J0.162
X-10 Y-61.162 Z-0.794 I0 J-0.162
X-10 Y-60.838 Z-0.856 I0 J0.162
X-10 Y-61.162 Z-0.917 I0 J-0.162
X-10 Y-60.838 Z-0.978 I0 J0.162
X-10 Y-61.162 Z-1.039 I0 J-0.162
X-10 Y-60.838 Z-1.1 I0 J0.162
X-10 Y-61.162 Z-1.161 I0 J-0.162
X-10 Y-60.838 Z-1.222 I0 J0.162
X-10 Y-61.162 Z-1.283 I0 J-0.162
X-10 Y-60.838 Z-1.344 I0 J0.162
X-10 Y-61.162 Z-1.406 I0 J-0.162
X-10 Y-60.838 Z-1.467 I0 J0.162
X-10 Y-61.162 Z-1.528 I0 J-0.162
X-10 Y-60.838 Z-1.589 I0 J0.162
X-10 Y-61.162 Z-1.65 I0 J-0.162
X-10 Y-60.838 Z-1.711 I0 J0.162
X-10 Y-61.162 Z-1.772 I0 J-0.162
X-10 Y-60.838 Z-1.833 I0 J0.162
X-10 Y-61.162 Z-1.894 I0 J-0.162
X-10 Y-60.838 Z-1.956 I0 J0.162
X-10.123 Y-61.106 Z-2 I0 J-0.162
X-9.877 Y-60.894 I0.123 J0.106
X-10.123 Y-61.106 I-0.123 J-0.106
G1 X-10.098 Y-61.126 F1016
X-10.067 Y-61.134
X-10.036 Y-61.13
X-10.008 Y-61.115
X-9.888 Y-61.011
Z5 F1500
X-49.919 Y-61.077
Z1.683
Z0 F1016
Y-60.919
X-49.925 Y-60.888
X-49.943 Y-60.861
X-49.969 Y-60.844
X-50 Y-60.838
G3 X-50 Y-61.162 Z-0.061 I0 J-0.162 F1500
X-50 Y-60.838 Z-0.122 I0 J0.162
X-50 Y-61.162 Z-0.183 I0 J-0.162
X-50 Y-60.838 Z-0.244 I0 J0.162
X-50 Y-61.162 Z-0.306 I0 J-0.162
X-50 Y-60.838 Z-0.367 I0 J0.162
X-50 Y-61.162 Z-0.428 I0 J-0.162
X-50 Y-60.838 Z-0.489 I0 J0.162
X-50 Y-61.162 Z-0.55 I0 J-0.162
X-50 Y-60.838 Z-0.611 I0 J0.162
X-50 Y-61.162 Z-0.672 I0 J-0.162
X-50 Y-60.838 Z-0.733 I0 J0.162
X-50 Y-61.162 Z-0.794 I0 J-0.162
X-50 Y-60.838 Z-0.856 I0 J0.162
X-50 Y-61.162 Z-0.917 I0 J-0.162
X-50 Y-60.838 Z-0.978 I0 J0.162
X-50 Y-61.162 Z-1.039 I0 J-0.162
X-50 Y-60.838 Z-1.1 I0 J0.162
X-50 Y-61.162 Z-1.161 I0 J-0.162
X-50 Y-60.838 Z-1.222 I0 J0.162
X-50 Y-61.162 Z-1.283 I0 J-0.162
X-50 Y-60.838 Z-1.344 I0 J0.162
X-50 Y-61.162 Z-1.406 I0 J-0.162
X-50 Y-60.838 Z-1.467 I0 J0.162
X-50 Y-61.162 Z-1.528 I0 J-0.162
X-50 Y-60.838 Z-1.589 I0 J0.162
X-50 Y-61.162 Z-1.65 I0 J-0.162
X-50 Y-60.838 Z-1.711 I0 J0.162
X-50 Y-61.162 Z-1.772 I0 J-0.162
X-50 Y-60.838 Z-1.833 I0 J0.162
X-50 Y-61.162 Z-1.894 I0 J-0.162
X-50 Y-60.838 Z-1.956 I0 J0.162
X-50.123 Y-61.106 Z-2 I0 J-0.162
X-49.877 Y-60.894 I0.123 J0.106
X-50.123 Y-61.106 I-0.123 J-0.106
G1 X-50.098 Y-61.126 F1016
X-50.067 Y-61.134
X-50.036 Y-61.13
X-50.008 Y-61.115
X-49.888 Y-61.011
Z5 F1500
X-81.732 Y-64.314
Z1.683
Z0 F1016
Y-64.155
X-81.738 Y-64.124
X-81.756 Y-64.098
X-81.782 Y-64.08
X-81.813 Y-64.074
G3 X-81.813 Y-64.399 Z-0.061 I0 J-0.162 F1500
X-81.813 Y-64.074 Z-0.122 I0 J0.162
X-81.813 Y-64.399 Z-0.183 I0 J-0.162
X-81.813 Y-64.074 Z-0.244 I0 J0.162
X-81.813 Y-64.399 Z-0.306 I0 J-0.162
X-81.813 Y-64.074 Z-0.367 I0 J0.162
X-81.813 Y-64.399 Z-0.428 I0 J-0.162
X-81.813 Y-64.074 Z-0.489 I0 J0.162
X-81.813 Y-64.399 Z-0.55 I0 J-0.162
X-81.813 Y-64.074 Z-0.611 I0 J0.162
X-81.813 Y-64.399 Z-0.672 I0 J-0.162
X-81.813 Y-64.074 Z-0.733 I0 J0.162
X-81.813 Y-64.399 Z-0.794 I0 J-0.162
X-81.813 Y-64.074 Z-0.856 I0 J0.162
X-81.813 Y-64.399 Z-0.917 I0 J-0.162
X-81.813 Y-64.074 Z-0.978 I0 J0.162
X-81.813 Y-64.399 Z-1.039 I0 J-0.162
X-81.813 Y-64.074 Z-1.1 I0 J0.162
X-81.813 Y-64.399 Z-1.161 I0 J-0.162
X-81.813 Y-64.074 Z-1.222 I0 J0.162
X-81.813 Y-64.399 Z-1.283 I0 J-0.162
X-81.813 Y-64.074 Z-1.344 I0 J0.162
X-81.813 Y-64.399 Z-1.406 I0 J-0.162
X-81.813 Y-64.074 Z-1.467 I0 J0.162
X-81.813 Y-64.399 Z-1.528 I0 J-0.162
X-81.813 Y-64.074 Z-1.589 I0 J0.162
X-81.813 Y-64.399 Z-1.65 I0 J-0.162
X-81.813 Y-64.074 Z-1.711 I0 J0.162
X-81.813 Y-64.399 Z-1.772 I0 J-0.162
X-81.813 Y-64.074 Z-1.833 I0 J0.162
X-81.813 Y-64.399 Z-1.894 I0 J-0.162
X-81.813 Y-64.074 Z-1.956 I0 J0.162
X-81.936 Y-64.343 Z-2 I0 J-0.162
X-81.69 Y-64.13 I0.123 J0.106
X-81.936 Y-64.343 I-0.123 J-0.106
G1 X-81.911 Y-64.362 F1016
X-81.88 Y-64.371
X-81.849 Y-64.367
X-81.821 Y-64.351
X-81.701 Y-64.247
Z5 F1500
X-98.926 Y-56.327
Z1.683
Z0 F1016
Y-56.169
X-98.932 Y-56.138
X-98.95 Y-56.111
X-98.976 Y-56.094
X-99.008 Y-56.088
G3 X-99.008 Y-56.412 Z-0.061 I0 J-0.162 F1500
X-99.008 Y-56.088 Z-0.122 I0 J0.162
X-99.008 Y-56.412 Z-0.183 I0 J-0.162
X-99.008 Y-56.088 Z-0.244 I0 J0.162
X-99.008 Y-56.412 Z-0.306 I0 J-0.162
X-99.008 Y-56.088 Z-0.367 I0 J0.162
X-99.008 Y-56.412 Z-0.428 I0 J-0.162
X-99.008 Y-56.088 Z-0.489 I0 J0.162
X-99.008 Y-56.412 Z-0.55 I0 J-0.162
X-99.008 Y-56.088 Z-0.611 I0 J0.162
X-99.008 Y-56.412 Z-0.672 I0 J-0.162
X-99.008 Y-56.088 Z-0.733 I0 J0.162
X-99.008 Y-56.412 Z-0.794 I0 J-0.162
X-99.008 Y-56.088 Z-0.856 I0 J0.162
X-99.008 Y-56.412 Z-0.917 I0 J-0.162
X-99.008 Y-56.088 Z-0.978 I0 J0.162
X-99.008 Y-56.412 Z-1.039 I0 J-0.162
X-99.008 Y-56.088 Z-1.1 I0 J0.162
X-99.008 Y-56.412 Z-1.161 I0 J-0.162
X-99.008 Y-56.088 Z-1.222 I0 J0.162
X-99.008 Y-56.412 Z-1.283 I0 J-0.162
X-99.008 Y-56.088 Z-1.344 I0 J0.162
X-99.008 Y-56.412 Z-1.406 I0 J-0.162
X-99.008 Y-56.088 Z-1.467 I0 J0.162
X-99.008 Y-56.412 Z-1.528 I0 J-0.162
X-99.008 Y-56.088 Z-1.589 I0 J0.162
X-99.008 Y-56.412 Z-1.65 I0 J-0.162
X-99.008 Y-56.088 Z-1.711 I0 J0.162
X-99.008 Y-56.412 Z-1.772 I0 J-0.162
X-99.008 Y-56.088 Z-1.833 I0 J0.162
X-99.008 Y-56.412 Z-1.894 I0 J-0.162
X-99.008 Y-56.088 Z-1.956 I0 J0.162
X-99.13 Y-56.356 Z-2 I0 J-0.162
X-98.885 Y-56.144 I0.123 J0.106
X-99.13 Y-56.356 I-0.123 J-0.106
G1 X-99.105 Y-56.376 F1016
X-99.075 Y-56.384
X-99.043 Y-56.38
X-99.016 Y-56.365
X-98.896 Y-56.261
Z5 F1500
X-88.926 Y-47.814
Z1.683
Z0 F1016
Y-47.655
X-88.932 Y-47.624
X-88.95 Y-47.598
X-88.976 Y-47.58
X-89.008 Y-47.574
G3 X-89.008 Y-47.899 Z-0.061 I0 J-0.162 F1500
X-89.008 Y-47.574 Z-0.122 I0 J0.162
X-89.008 Y-47.899 Z-0.183 I0 J-0.162
X-89.008 Y-47.574 Z-0.244 I0 J0.162
X-89.008 Y-47.899 Z-0.306 I0 J-0.162
X-89.008 Y-47.574 Z-0.367 I0 J0.162
X-89.008 Y-47.899 Z-0.428 I0 J-0.162
X-89.008 Y-47.574 Z-0.489 I0 J0.162
X-89.008 Y-47.899 Z-0.55 I0 J-0.162
X-89.008 Y-47.574 Z-0.611 I0 J0.162
X-89.008 Y-47.899 Z-0.672 I0 J-0.162
X-89.008 Y-47.574 Z-0.733 I0 J0.162
X-89.008 Y-47.899 Z-0.794 I0 J-0.162
X-89.008 Y-47.574 Z-0.856 I0 J0.162
X-89.008 Y-47.899 Z-0.917 I0 J-0.162
X-89.008 Y-47.574 Z-0.978 I0 J0.162
X-89.008 Y-47.899 Z-1.039 I0 J-0.162
X-89.008 Y-47.574 Z-1.1 I0 J0.162
X-89.008 Y-47.899 Z-1.161 I0 J-0.162
X-89.008 Y-47.574 Z-1.222 I0 J0.162
X-89.008 Y-47.899 Z-1.283 I0 J-0.162
X-89.008 Y-47.574 Z-1.344 I0 J0.162
X-89.008 Y-47.899 Z-1.406 I0 J-0.162
X-89.008 Y-47.574 Z-1.467 I0 J0.162
X-89.008 Y-47.899 Z-1.528 I0 J-0.162
X-89.008 Y-47.574 Z-1.589 I0 J0.162
X-89.008 Y-47.899 Z-1.65 I0 J-0.162
X-89.008 Y-47.574 Z-1.711 I0 J0.162
X-89.008 Y-47.899 Z-1.772 I0 J-0.162
X-89.008 Y-47.574 Z-1.833 I0 J0.162
X-89.008 Y-47.899 Z-1.894 I0 J-0.162
X-89.008 Y-47.574 Z-1.956 I0 J0.162
X-89.13 Y-47.843 Z-2 I0 J-0.162
X-88.885 Y-47.63 I0.123 J0.106
X-89.13 Y-47.843 I-0.123 J-0.106
G1 X-89.105 Y-47.862 F1016
X-89.075 Y-47.871
X-89.043 Y-47.867
X-89.016 Y-47.851
X-88.896 Y-47.747
Z5 F1500
X-88.926 Y-34.341
Z1.683
Z0 F1016
Y-34.182
X-88.932 Y-34.151
X-88.95 Y-34.125
X-88.976 Y-34.107
X-89.008 Y-34.101
G3 X-89.008 Y-34.426 Z-0.061 I0 J-0.163 F1500
X-89.008 Y-34.101 Z-0.122 I0 J0.163
X-89.008 Y-34.426 Z-0.183 I0 J-0.163
X-89.008 Y-34.101 Z-0.244 I0 J0.163
X-89.008 Y-34.426 Z-0.306 I0 J-0.163
X-89.008 Y-34.101 Z-0.367 I0 J0.163
X-89.008 Y-34.426 Z-0.428 I0 J-0.163
X-89.008 Y-34.101 Z-0.489 I0 J0.163
X-89.008 Y-34.426 Z-0.55 I0 J-0.163
X-89.008 Y-34.101 Z-0.611 I0 J0.163
X-89.008 Y-34.426 Z-0.672 I0 J-0.163
X-89.008 Y-34.101 Z-0.733 I0 J0.163
X-89.008 Y-34.426 Z-0.794 I0 J-0.163
X-89.008 Y-34.101 Z-0.856 I0 J0.163
X-89.008 Y-34.426 Z-0.917 I0 J-0.163
X-89.008 Y-34.101 Z-0.978 I0 J0.162
X-89.008 Y-34.426 Z-1.039 I0 J-0.162
X-89.008 Y-34.101 Z-1.1 I0 J0.162
X-89.008 Y-34.426 Z-1.161 I0 J-0.162
X-89.008 Y-34.101 Z-1.222 I0 J0.162
X-89.008 Y-34.426 Z-1.283 I0 J-0.162
X-89.008 Y-34.101 Z-1.344 I0 J0.162
X-89.008 Y-34.426 Z-1.406 I0 J-0.162
X-89.008 Y-34.101 Z-1.467 I0 J0.162
X-89.008 Y-34.426 Z-1.528 I0 J-0.162
X-89.008 Y-34.101 Z-1.589 I0 J0.162
X-89.008 Y-34.426 Z-1.65 I0 J-0.162
X-89.008 Y-34.101 Z-1.711 I0 J0.162
X-89.008 Y-34.426 Z-1.772 I0 J-0.162
X-89.008 Y-34.101 Z-1.833 I0 J0.162
X-89.008 Y-34.426 Z-1.894 I0 J-0.162
X-89.008 Y-34.101 Z-1.956 I0 J0.162
X-89.13 Y-34.37 Z-2 I0 J-0.162
X-88.885 Y-34.157 I0.123 J0.106
X-89.13 Y-34.37 I-0.123 J-0.106
G1 X-89.105 Y-34.389 F1016
X-89.075 Y-34.398
X-89.043 Y-34.394
X-89.016 Y-34.378
X-88.896 Y-34.274
Z5 F1500
X-98.926 Y-25.827
Z1.683
Z0 F1016
Y-25.669
X-98.932 Y-25.638
X-98.95 Y-25.611
X-98.976 Y-25.594
X-99.008 Y-25.587
G3 X-99.008 Y-25.913 Z-0.061 I0 J-0.163 F1500
X-99.008 Y-25.587 Z-0.122 I0 J0.163
X-99.008 Y-25.913 Z-0.183 I0 J-0.163
X-99.008 Y-25.587 Z-0.244 I0 J0.163
X-99.008 Y-25.913 Z-0.306 I0 J-0.163
X-99.008 Y-25.587 Z-0.367 I0 J0.163
X-99.008 Y-25.912 Z-0.428 I0 J-0.163
X-99.008 Y-25.588 Z-0.489 I0 J0.162
X-99.008 Y-25.912 Z-0.55 I0 J-0.162
X-99.008 Y-25.588 Z-0.611 I0 J0.162
X-99.008 Y-25.912 Z-0.672 I0 J-0.162
X-99.008 Y-25.588 Z-0.733 I0 J0.162
X-99.008 Y-25.912 Z-0.794 I0 J-0.162
X-99.008 Y-25.588 Z-0.856 I0 J0.162
X-99.008 Y-25.912 Z-0.917 I0 J-0.162
X-99.008 Y-25.588 Z-0.978 I0 J0.162
X-99.008 Y-25.912 Z-1.039 I0 J-0.162
X-99.008 Y-25.588 Z-1.1 I0 J0.162
X-99.008 Y-25.912 Z-1.161 I0 J-0.162
X-99.008 Y-25.588 Z-1.222 I0 J0.162
X-99.008 Y-25.912 Z-1.283 I0 J-0.162
X-99.008 Y-25.588 Z-1.344 I0 J0.162
X-99.008 Y-25.912 Z-1.406 I0 J-0.162
X-99.008 Y-25.588 Z-1.467 I0 J0.162
X-99.008 Y-25.912 Z-1.528 I0 J-0.162
X-99.008 Y-25.588 Z-1.589 I0 J0.162
X-99.008 Y-25.912 Z-1.65 I0 J-0.162
X-99.008 Y-25.588 Z-1.711 I0 J0.162
X-99.008 Y-25.912 Z-1.772 I0 J-0.162
X-99.008 Y-25.588 Z-1.833 I0 J0.162
X-99.008 Y-25.912 Z-1.894 I0 J-0.162
X-99.008 Y-25.588 Z-1.956 I0 J0.162
X-99.13 Y-25.856 Z-2 I0 J-0.162
X-98.885 Y-25.644 I0.123 J0.106
X-99.13 Y-25.856 I-0.123 J-0.106
G1 X-99.105 Y-25.876 F1016
X-99.075 Y-25.884
X-99.043 Y-25.88
X-99.016 Y-25.865
X-98.896 Y-25.761
Z5 F1500
X-81.732 Y-17.841
Z1.683
Z0 F1016
Y-17.682
X-81.738 Y-17.651
X-81.756 Y-17.625
X-81.782 Y-17.607
X-81.813 Y-17.601
G3 X-81.813 Y-17.926 Z-0.061 I0 J-0.163 F1500
X-81.813 Y-17.601 Z-0.122 I0 J0.163
X-81.813 Y-17.926 Z-0.183 I0 J-0.163
X-81.813 Y-17.601 Z-0.244 I0 J0.163
X-81.813 Y-17.926 Z-0.306 I0 J-0.162
X-81.813 Y-17.601 Z-0.367 I0 J0.162
X-81.813 Y-17.926 Z-0.428 I0 J-0.162
X-81.813 Y-17.601 Z-0.489 I0 J0.162
X-81.813 Y-17.926 Z-0.55 I0 J-0.162
X-81.813 Y-17.601 Z-0.611 I0 J0.162
X-81.813 Y-17.926 Z-0.672 I0 J-0.162
X-81.813 Y-17.601 Z-0.733 I0 J0.162
X-81.813 Y-17.926 Z-0.794 I0 J-0.162
X-81.813 Y-17.601 Z-0.856 I0 J0.162
X-81.813 Y-17.926 Z-0.917 I0 J-0.162
X-81.813 Y-17.601 Z-0.978 I0 J0.162
X-81.813 Y-17.926 Z-1.039 I0 J-0.162
X-81.813 Y-17.601 Z-1.1 I0 J0.162
X-81.813 Y-17.926 Z-1.161 I0 J-0.162
X-81.813 Y-17.601 Z-1.222 I0 J0.162
X-81.813 Y-17.926 Z-1.283 I0 J-0.162
X-81.813 Y-17.601 Z-1.344 I0 J0.162
X-81.813 Y-17.926 Z-1.406 I0 J-0.162
X-81.813 Y-17.601 Z-1.467 I0 J0.162
X-81.813 Y-17.926 Z-1.528 I0 J-0.162
X-81.813 Y-17.601 Z-1.589 I0 J0.162
X-81.813 Y-17.926 Z-1.65 I0 J-0.162
X-81.813 Y-17.601 Z-1.711 I0 J0.162
X-81.813 Y-17.926 Z-1.772 I0 J-0.162
X-81.813 Y-17.601 Z-1.833 I0 J0.162
X-81.813 Y-17.926 Z-1.894 I0 J-0.162
X-81.813 Y-17.601 Z-1.956 I0 J0.162
X-81.936 Y-17.87 Z-2 I0 J-0.162
X-81.69 Y-17.657 I0.123 J0.106
X-81.936 Y-17.87 I-0.123 J-0.106
G1 X-81.911 Y-17.89 F1016
X-81.88 Y-17.898
X-81.849 Y-17.894
X-81.821 Y-17.878
X-81.701 Y-17.774
Z5 F1500
X-49.919 Y-21.077
Z1.683
Z0 F1016
Y-20.919
X-49.925 Y-20.888
X-49.943 Y-20.861
X-49.969 Y-20.844
X-50 Y-20.837
G3 X-50 Y-21.163 Z-0.061 I0 J-0.163 F1500
X-50 Y-20.837 Z-0.122 I0 J0.163
X-50 Y-21.163 Z-0.183 I0 J-0.163
X-50 Y-20.837 Z-0.244 I0 J0.163
X-50 Y-21.163 Z-0.306 I0 J-0.163
X-50 Y-20.837 Z-0.367 I0 J0.163
X-50 Y-21.163 Z-0.428 I0 J-0.163
X-50 Y-20.837 Z-0.489 I0 J0.163
X-50 Y-21.163 Z-0.55 I0 J-0.163
X-50 Y-20.837 Z-0.611 I0 J0.163
X-50 Y-21.163 Z-0.672 I0 J-0.163
X-50 Y-20.837 Z-0.733 I0 J0.163
X-50 Y-21.163 Z-0.794 I0 J-0.163
X-50 Y-20.837 Z-0.856 I0 J0.163
X-50 Y-21.163 Z-0.917 I0 J-0.163
X-50 Y-20.837 Z-0.978 I0 J0.163
X-50 Y-21.163 Z-1.039 I0 J-0.163
X-50 Y-20.837 Z-1.1 I0 J0.163
X-50 Y-21.163 Z-1.161 I0 J-0.163
X-50 Y-20.837 Z-1.222 I0 J0.163
X-50 Y-21.163 Z-1.283 I0 J-0.163
X-50 Y-20.837 Z-1.344 I0 J0.163
X-50 Y-21.163 Z-1.406 I0 J-0.163
X-50 Y-20.837 Z-1.467 I0 J0.163
X-50 Y-21.163 Z-1.528 I0 J-0.163
X-50 Y-20.837 Z-1.589 I0 J0.163
X-50 Y-21.163 Z-1.65 I0 J-0.163
X-50 Y-20.837 Z-1.711 I0 J0.163
X-50 Y-21.163 Z-1.772 I0 J-0.163
X-50 Y-20.837 Z-1.833 I0 J0.163
X-50 Y-21.163 Z-1.894 I0 J-0.163
X-50 Y-20.837 Z-1.956 I0 J0.163
X-50.123 Y-21.106 Z-2 I0 J-0.163
X-49.877 Y-20.894 I0.123 J0.106
X-50.123 Y-21.106 I-0.123 J-0.106
G1 X-50.098 Y-21.126 F1016
X-50.067 Y-21.134
X-50.036 Y-21.13
X-50.008 Y-21.115
X-49.888 Y-21.011
Z5 F1500
X-9.919 Y-21.077
Z1.683
Z0 F1016
Y-20.919
X-9.925 Y-20.888
X-9.943 Y-20.861
X-9.969 Y-20.844
X-10 Y-20.837
G3 X-10 Y-21.163 Z-0.061 I0 J-0.163 F1500
X-10 Y-20.837 Z-0.122 I0 J0.163
X-10 Y-21.163 Z-0.183 I0 J-0.163
X-10 Y-20.837 Z-0.244 I0 J0.163
X-10 Y-21.163 Z-0.306 I0 J-0.163
X-10 Y-20.837 Z-0.367 I0 J0.163
X-10 Y-21.163 Z-0.428 I0 J-0.163
X-10 Y-20.837 Z-0.489 I0 J0.163
X-10 Y-21.163 Z-0.55 I0 J-0.163
X-10 Y-20.837 Z-0.611 I0 J0.163
X-10 Y-21.163 Z-0.672 I0 J-0.163
X-10 Y-20.837 Z-0.733 I0 J0.163
X-10 Y-21.163 Z-0.794 I0 J-0.163
X-10 Y-20.837 Z-0.856 I0 J0.163
X-10 Y-21.163 Z-0.917 I0 J-0.163
X-10 Y-20.837 Z-0.978 I0 J0.163
X-10 Y-21.163 Z-1.039 I0 J-0.163
X-10 Y-20.837 Z-1.1 I0 J0.163
X-10 Y-21.163 Z-1.161 I0 J-0.163
X-10 Y-20.837 Z-1.222 I0 J0.163
X-10 Y-21.163 Z-1.283 I0 J-0.163
X-10 Y-20.837 Z-1.344 I0 J0.163
X-10 Y-21.163 Z-1.406 I0 J-0.163
X-10 Y-20.837 Z-1.467 I0 J0.163
X-10 Y-21.163 Z-1.528 I0 J-0.163
X-10 Y-20.837 Z-1.589 I0 J0.163
X-10 Y-21.163 Z-1.65 I0 J-0.163
X-10 Y-20.837 Z-1.711 I0 J0.163
X-10 Y-21.163 Z-1.772 I0 J-0.163
X-10 Y-20.837 Z-1.833 I0 J0.163
X-10 Y-21.163 Z-1.894 I0 J-0.163
X-10 Y-20.837 Z-1.956 I0 J0.163
X-10.123 Y-21.106 Z-2 I0 J-0.163
X-9.877 Y-20.894 I0.123 J0.106
X-10.123 Y-21.106 I-0.123 J-0.106
G1 X-10.098 Y-21.126 F1016
X-10.067 Y-21.134
X-10.036 Y-21.13
X-10.008 Y-21.115
X-9.888 Y-21.011
Z15 F1500
(When using Fusion 360 for Personal Use, the feedrate of)
(rapid moves is reduced to match the feedrate of cutting)
(moves, which can increase machining time. Unrestricted rapid)
(moves are available with a Fusion 360 Subscription.)

(2D-Kontur6)
G0 X-99.5 Y-104.588
G1 Z15 F1500
Z5
Z2 F300
Z1
S8000
X-134.5 Z0.589 F1016
G3 X-134.5 Y-109.412 Z0.5 I0 J-2.412
G1 X-99.5 Z0.089
G3 X-99.5 Y-104.588 Z0 I0 J2.412
G1 X-134.5 Z-0.411
G3 X-134.5 Y-109.412 Z-0.5 I0 J-2.412
G1 X-99.5 Z-0.911
G3 X-99.5 Y-104.588 Z-1 I0 J2.412
S6000
G1 X-134.5 F1500
G3 X-134.5 Y-109.412 I0 J-2.412
G1 X-99.5
G3 X-99.5 Y-104.588 I0 J2.412
S8000
G1 X-134.5 Z-1.411 F1016
G3 X-134.5 Y-109.412 Z-1.5 I0 J-2.412
G1 X-99.5 Z-1.911
G3 X-99.5 Y-104.588 Z-2 I0 J2.412
S6000
G1 X-134.5 F1500
G3 X-134.5 Y-109.412 I0 J-2.412
G1 X-99.5
G3 X-99.5 Y-104.588 I0 J2.412
S8000
G1 X-125.047 Z-2.3 F1016
S6000
X-134.5 F1500
G3 X-134.5 Y-109.412 I0 J-2.412
G1 X-99.5
G3 X-99.5 Y-104.588 I0 J2.412
G1 X-125.047
Z5
X-99.5 Y-122.588
Z2 F300
Z1
S8000
X-134.5 Z0.589 F1016
G3 X-134.5 Y-127.412 Z0.5 I0 J-2.412
G1 X-99.5 Z0.089
G3 X-99.5 Y-122.588 Z0 I0 J2.412
G1 X-134.5 Z-0.411
G3 X-134.5 Y-127.412 Z-0.5 I0 J-2.412
G1 X-99.5 Z-0.911
G3 X-99.5 Y-122.588 Z-1 I0 J2.412
S6000
G1 X-134.5 F1500
G3 X-134.5 Y-127.412 I0 J-2.412
G1 X-99.5
G3 X-99.5 Y-122.588 I0 J2.412
S8000
G1 X-134.5 Z-1.411 F1016
G3 X-134.5 Y-127.412 Z-1.5 I0 J-2.412
G1 X-99.5 Z-1.911
G3 X-99.5 Y-122.588 Z-2 I0 J2.412
S6000
G1 X-134.5 F1500
G3 X-134.5 Y-127.412 I0 J-2.412
G1 X-99.5
G3 X-99.5 Y-122.588 I0 J2.412
S8000
G1 X-125.047 Z-2.3 F1016
S6000
X-134.5 F1500
G3 X-134.5 Y-127.412 I0 J-2.412
G1 X-99.5
G3 X-99.5 Y-122.588 I0 J2.412
G1 X-125.047
Z5
X-93.592 Y-143.087
Z2 F300
Z1
S8000
X-107.184 Z0.731 F1016
X-108.755 Y-144.658 Z0.687
Y-148.842 Z0.604
X-107.184 Y-150.413 Z0.56
X-89.93 Z0.218
Y-143.087 Z0.073
X-107.184 Z-0.269
X-108.755 Y-144.658 Z-0.313
Y-148.842 Z-0.396
X-107.184 Y-150.413 Z-0.44
X-89.93 Z-0.782
Y-143.087 Z-0.927
X-93.592 Z-1
S6000
X-107.184 F1500
X-108.755 Y-144.658
Y-148.842
X-107.184 Y-150.413
X-89.93
Y-143.087
X-93.592
S8000
X-107.184 Z-1.269 F1016
X-108.755 Y-144.658 Z-1.313
Y-148.842 Z-1.396
X-107.184 Y-150.413 Z-1.44
X-89.93 Z-1.782
Y-143.087 Z-1.927
X-93.592 Z-2
S6000
X-107.184 F1500
X-108.755 Y-144.658
Y-148.842
X-107.184 Y-150.413
X-89.93
Y-143.087
X-93.592
S8000
X-107.184 Z-2.269 F1016
X-108.278 Y-144.181 Z-2.3
S6000
X-108.755 Y-144.658 F1500
Y-148.842
X-107.184 Y-150.413
X-89.93
Y-143.087
X-107.184
X-108.278 Y-144.181
Z5
X-65 Y-122.588
Z2 F300
Z1
S8000
G3 X-65 Y-127.412 Z0.916 I0 J-2.412 F1016
G1 X-27.5 Z0.5
G3 X-27.5 Y-122.588 Z0.416 I0 J2.412
G1 X-65 Z0
G3 X-65 Y-127.412 Z-0.084 I0 J-2.412
G1 X-27.5 Z-0.5
G3 X-27.5 Y-122.588 Z-0.584 I0 J2.412
G1 X-65 Z-1
S6000
G3 X-65 Y-127.412 I0 J-2.412 F1500
G1 X-27.5
G3 X-27.5 Y-122.588 I0 J2.412
G1 X-65
S8000
G3 X-65 Y-127.412 Z-1.084 I0 J-2.412 F1016
G1 X-27.5 Z-1.5
G3 X-27.5 Y-122.588 Z-1.584 I0 J2.412
G1 X-65 Z-2
S6000
G3 X-65 Y-127.412 I0 J-2.412 F1500
G1 X-27.5
G3 X-27.5 Y-122.588 I0 J2.412
G1 X-65
S8000
G3 X-65 Y-127.412 Z-2.084 I0 J-2.412 F1016
G1 X-45.532 Z-2.3
S6000
X-27.5 F1500
G3 X-27.5 Y-122.588 I0 J2.412
G1 X-65
G3 X-65 Y-127.412 I0 J-2.412
G1 X-45.532
Z5
X-65 Y-104.588
Z2 F300
Z1
S8000
G3 X-65 Y-109.412 Z0.916 I0 J-2.412 F1016
G1 X-27.5 Z0.5
G3 X-27.5 Y-104.588 Z0.416 I0 J2.412
G1 X-65 Z0
G3 X-65 Y-109.412 Z-0.084 I0 J-2.412
G1 X-27.5 Z-0.5
G3 X-27.5 Y-104.588 Z-0.584 I0 J2.412
G1 X-65 Z-1
S6000
G3 X-65 Y-109.412 I0 J-2.412 F1500
G1 X-27.5
G3 X-27.5 Y-104.588 I0 J2.412
G1 X-65
S8000
G3 X-65 Y-109.412 Z-1.084 I0 J-2.412 F1016
G1 X-27.5 Z-1.5
G3 X-27.5 Y-104.588 Z-1.584 I0 J2.412
G1 X-65 Z-2
S6000
G3 X-65 Y-109.412 I0 J-2.412 F1500
G1 X-27.5
G3 X-27.5 Y-104.588 I0 J2.412
G1 X-65
S8000
G3 X-65 Y-109.412 Z-2.084 I0 J-2.412 F1016
G1 X-45.532 Z-2.3
S6000
X-27.5 F1500
G3 X-27.5 Y-104.588 I0 J2.412
G1 X-65
G3 X-65 Y-109.412 I0 J-2.412
G1 X-45.532
Z5
X-14.25 Y-106.588
Z2 F300
Z1
S8000
X-16.342 Z0.959 F1016
X-17.913 Y-108.158 Z0.915
Y-125.412 Z0.573
X-10.587 Z0.427
Y-108.158 Z0.085
X-12.158 Y-106.588 Z0.041
X-16.342 Z-0.041
X-17.913 Y-108.158 Z-0.085
Y-125.412 Z-0.427
X-10.587 Z-0.573
Y-108.158 Z-0.915
X-12.158 Y-106.588 Z-0.959
X-14.25 Z-1
S6000
X-16.342 F1500
X-17.913 Y-108.158
Y-125.412
X-10.587
Y-108.158
X-12.158 Y-106.588
X-14.25
S8000
X-16.342 Z-1.041 F1016
X-17.913 Y-108.158 Z-1.085
Y-125.412 Z-1.427
X-10.587 Z-1.573
Y-108.158 Z-1.915
X-12.158 Y-106.588 Z-1.959
X-14.25 Z-2
S6000
X-16.342 F1500
X-17.913 Y-108.158
Y-125.412
X-10.587
Y-108.158
X-12.158 Y-106.588
X-14.25
S8000
X-16.342 Z-2.041 F1016
X-17.913 Y-108.158 Z-2.085
Y-118.983 Z-2.3
S6000
Y-125.412 F1500
X-10.587
Y-108.158
X-12.158 Y-106.588
X-16.342
X-17.913 Y-108.158
Y-118.983
Z5
X-30 Y-47.588
Z2 F300
Z1
S8000
X-65 Z0.589 F1016
G3 X-65 Y-52.412 Z0.5 I0 J-2.412
G1 X-30 Z0.089
G3 X-30 Y-47.588 Z0 I0 J2.412
G1 X-65 Z-0.411
G3 X-65 Y-52.412 Z-0.5 I0 J-2.412
G1 X-30 Z-0.911
G3 X-30 Y-47.588 Z-1 I0 J2.412
S6000
G1 X-65 F1500
G3 X-65 Y-52.412 I0 J-2.412
G1 X-30
G3 X-30 Y-47.588 I0 J2.412
S8000
G1 X-65 Z-1.411 F1016
G3 X-65 Y-52.412 Z-1.5 I0 J-2.412
G1 X-30 Z-1.911
G3 X-30 Y-47.588 Z-2 I0 J2.412
S6000
G1 X-65 F1500
G3 X-65 Y-52.412 I0 J-2.412
G1 X-30
G3 X-30 Y-47.588 I0 J2.412
S8000
G1 X-55.547 Z-2.3 F1016
S6000
X-65 F1500
G3 X-65 Y-52.412 I0 J-2.412
G1 X-30
G3 X-30 Y-47.588 I0 J2.412
G1 X-55.547
Z5
X-65 Y-29.587
Z2 F300
Z1
S8000
G3 X-65 Y-34.412 Z0.911 I0 J-2.413 F1016
G1 X-30 Z0.5
G3 X-30 Y-29.587 Z0.411 I0 J2.412
G1 X-65 Z0
G3 X-65 Y-34.412 Z-0.089 I0 J-2.413
G1 X-30 Z-0.5
G3 X-30 Y-29.587 Z-0.589 I0 J2.412
G1 X-65 Z-1
S6000
G3 X-65 Y-34.412 I0 J-2.413 F1500
G1 X-30
G3 X-30 Y-29.587 I0 J2.412
G1 X-65
S8000
G3 X-65 Y-34.412 Z-1.089 I0 J-2.413 F1016
G1 X-30 Z-1.5
G3 X-30 Y-29.587 Z-1.589 I0 J2.412
G1 X-65 Z-2
S6000
G3 X-65 Y-34.412 I0 J-2.413 F1500
G1 X-30
G3 X-30 Y-29.587 I0 J2.412
G1 X-65
S8000
G3 X-65 Y-34.412 Z-2.089 I0 J-2.413 F1016
G1 X-47.032 Z-2.3
S6000
X-30 F1500
G3 X-30 Y-29.587 I0 J2.412
G1 X-65
G3 X-65 Y-34.412 I0 J-2.413
G1 X-47.032
Z5
X-195 Y-29.587
Z2 F300
Z1
S8000
X-230 Z0.589 F1016
G3 X-230 Y-34.412 Z0.5 I0 J-2.413
G1 X-195 Z0.089
G3 X-195 Y-29.587 Z0 I0 J2.412
G1 X-230 Z-0.411
G3 X-230 Y-34.412 Z-0.5 I0 J-2.413
G1 X-195 Z-0.911
G3 X-195 Y-29.587 Z-1 I0 J2.412
S6000
G1 X-230 F1500
G3 X-230 Y-34.412 I0 J-2.413
G1 X-195
G3 X-195 Y-29.587 I0 J2.412
S8000
G1 X-230 Z-1.411 F1016
G3 X-230 Y-34.412 Z-1.5 I0 J-2.413
G1 X-195 Z-1.911
G3 X-195 Y-29.587 Z-2 I0 J2.412
S6000
G1 X-230 F1500
G3 X-230 Y-34.412 I0 J-2.413
G1 X-195
G3 X-195 Y-29.587 I0 J2.412
S8000
G1 X-220.547 Z-2.3 F1016
S6000
X-230 F1500
G3 X-230 Y-34.412 I0 J-2.413
G1 X-195
G3 X-195 Y-29.587 I0 J2.412
G1 X-220.547
Z5
X-195 Y-47.588
Z2 F300
Z1
S8000
X-230 Z0.589 F1016
G3 X-230 Y-52.412 Z0.5 I0 J-2.412
G1 X-195 Z0.089
G3 X-195 Y-47.588 Z0 I0 J2.412
G1 X-230 Z-0.411
G3 X-230 Y-52.412 Z-0.5 I0 J-2.412
G1 X-195 Z-0.911
G3 X-195 Y-47.588 Z-1 I0 J2.412
S6000
G1 X-230 F1500
G3 X-230 Y-52.412 I0 J-2.412
G1 X-195
G3 X-195 Y-47.588 I0 J2.412
S8000
G1 X-230 Z-1.411 F1016
G3 X-230 Y-52.412 Z-1.5 I0 J-2.412
G1 X-195 Z-1.911
G3 X-195 Y-47.588 Z-2 I0 J2.412
S6000
G1 X-230 F1500
G3 X-230 Y-52.412 I0 J-2.412
G1 X-195
G3 X-195 Y-47.588 I0 J2.412
S8000
G1 X-220.547 Z-2.3 F1016
S6000
X-230 F1500
G3 X-230 Y-52.412 I0 J-2.412
G1 X-195
G3 X-195 Y-47.588 I0 J2.412
G1 X-220.547
Z5
X-230 Y-104.588
Z2 F300
Z1
S8000
G3 X-230 Y-109.412 Z0.911 I0 J-2.412 F1016
G1 X-195 Z0.5
G3 X-195 Y-104.588 Z0.411 I0 J2.412
G1 X-230 Z0
G3 X-230 Y-109.412 Z-0.089 I0 J-2.412
G1 X-195 Z-0.5
G3 X-195 Y-104.588 Z-0.589 I0 J2.412
G1 X-230 Z-1
S6000
G3 X-230 Y-109.412 I0 J-2.412 F1500
G1 X-195
G3 X-195 Y-104.588 I0 J2.412
G1 X-230
S8000
G3 X-230 Y-109.412 Z-1.089 I0 J-2.412 F1016
G1 X-195 Z-1.5
G3 X-195 Y-104.588 Z-1.589 I0 J2.412
G1 X-230 Z-2
S6000
G3 X-230 Y-109.412 I0 J-2.412 F1500
G1 X-195
G3 X-195 Y-104.588 I0 J2.412
G1 X-230
S8000
G3 X-230 Y-109.412 Z-2.089 I0 J-2.412 F1016
G1 X-212.032 Z-2.3
S6000
X-195 F1500
G3 X-195 Y-104.588 I0 J2.412
G1 X-230
G3 X-230 Y-109.412 I0 J-2.412
G1 X-212.032
Z5
X-195 Y-122.588
Z2 F300
Z1
S8000
X-230 Z0.589 F1016
G3 X-230 Y-127.412 Z0.5 I0 J-2.412
G1 X-195 Z0.089
G3 X-195 Y-122.588 Z0 I0 J2.412
G1 X-230 Z-0.411
G3 X-230 Y-127.412 Z-0.5 I0 J-2.412
G1 X-195 Z-0.911
G3 X-195 Y-122.588 Z-1 I0 J2.412
S6000
G1 X-230 F1500
G3 X-230 Y-127.412 I0 J-2.412
G1 X-195
G3 X-195 Y-122.588 I0 J2.412
S8000
G1 X-230 Z-1.411 F1016
G3 X-230 Y-127.412 Z-1.5 I0 J-2.412
G1 X-195 Z-1.911
G3 X-195 Y-122.588 Z-2 I0 J2.412
S6000
G1 X-230 F1500
G3 X-230 Y-127.412 I0 J-2.412
G1 X-195
G3 X-195 Y-122.588 I0 J2.412
S8000
G1 X-220.547 Z-2.3 F1016
S6000
X-230 F1500
G3 X-230 Y-127.412 I0 J-2.412
G1 X-195
G3 X-195 Y-122.588 I0 J2.412
G1 X-220.547
Z15
(When using Fusion 360 for Personal Use, the feedrate of)
(rapid moves is reduced to match the feedrate of cutting)
(moves, which can increase machining time. Unrestricted rapid)
(moves are available with a Fusion 360 Subscription.)

(2D-Kontur7)
G0 X-130 Y-3.412
G1 Z15 F1500
Z5
Z2 F300
Z1
S8000
X-86.066 Z0.929 F1016
G2 X-85.432 Y-3.545 Z0.928 I0 J-1.588
G1 X-68.932 Y-10.739 Z0.898
G2 X-68.215 Y-11.362 Z0.897 I-0.635 J-1.455
G3 X-62.754 Y-14.413 Z0.886 I5.46 J3.362
G1 X-9 Z0.799
G2 X-3.412 Y-20 Z0.785 I0 J-5.587
G1 Y-62 Z0.717
G2 X-9 Y-67.588 Z0.702 I-5.588 J0
G1 X-62.754 Z0.615
G3 X-68.215 Y-70.638 Z0.605 I0 J-6.413
G2 X-68.932 Y-71.261 Z0.603 I-1.352 J0.832
G1 X-85.432 Y-78.455 Z0.574
G2 X-86.066 Y-78.588 Z0.573 I-0.635 J1.455
G1 X-144.477 Z0.478
G2 X-145.447 Y-78.257 Z0.476 I0 J1.588
G1 X-159.266 Y-67.588 Z0.448
X-251 Z0.299
G2 X-256.587 Y-62 Z0.285 I0 J5.588
G1 Y-20 Z0.217
G2 X-251 Y-14.413 Z0.202 I5.587 J0
G1 X-159.266 Z0.054
X-145.447 Y-3.743 Z0.025
G2 X-144.477 Y-3.412 Z0.023 I0.97 J-1.257
G1 X-86.066 Z-0.071
G2 X-85.432 Y-3.545 Z-0.072 I0 J-1.588
G1 X-68.932 Y-10.739 Z-0.102
G2 X-68.215 Y-11.362 Z-0.103 I-0.635 J-1.455
G3 X-62.754 Y-14.413 Z-0.114 I5.46 J3.362
G1 X-9 Z-0.201
G2 X-3.412 Y-20 Z-0.215 I0 J-5.587
G1 Y-62 Z-0.283
G2 X-9 Y-67.588 Z-0.298 I-5.588 J0
G1 X-62.754 Z-0.385
G3 X-68.215 Y-70.638 Z-0.395 I0 J-6.413
G2 X-68.932 Y-71.261 Z-0.397 I-1.352 J0.832
G1 X-85.432 Y-78.455 Z-0.426
G2 X-86.066 Y-78.588 Z-0.427 I-0.635 J1.455
G1 X-144.477 Z-0.522
G2 X-145.447 Y-78.257 Z-0.524 I0 J1.588
G1 X-159.266 Y-67.588 Z-0.552
X-251 Z-0.701
G2 X-256.587 Y-62 Z-0.715 I0 J5.588
G1 Y-20 Z-0.783
G2 X-251 Y-14.413 Z-0.798 I5.587 J0
G1 X-159.266 Z-0.946
X-145.447 Y-3.743 Z-0.975
G2 X-144.477 Y-3.412 Z-0.977 I0.97 J-1.257
G1 X-130 Z-1
S6000
X-86.066 F1500
G2 X-85.432 Y-3.545 I0 J-1.588
G1 X-68.932 Y-10.739
G2 X-68.215 Y-11.362 I-0.635 J-1.455
G3 X-62.754 Y-14.413 I5.46 J3.362
G1 X-9
G2 X-3.412 Y-20 I0 J-5.587
G1 Y-62
G2 X-9 Y-67.588 I-5.588 J0
G1 X-62.754
G3 X-68.215 Y-70.638 I0 J-6.413
G2 X-68.932 Y-71.261 I-1.352 J0.832
G1 X-85.432 Y-78.455
G2 X-86.066 Y-78.588 I-0.635 J1.455
G1 X-144.477
G2 X-145.447 Y-78.257 I0 J1.588
G1 X-159.266 Y-67.588
X-251
G2 X-256.587 Y-62 I0 J5.588
G1 Y-20
G2 X-251 Y-14.413 I5.587 J0
G1 X-159.266
X-145.447 Y-3.743
G2 X-144.477 Y-3.412 I0.97 J-1.257
G1 X-130
S8000
X-86.066 Z-1.071 F1016
G2 X-85.432 Y-3.545 Z-1.072 I0 J-1.588
G1 X-68.932 Y-10.739 Z-1.102
G2 X-68.215 Y-11.362 Z-1.103 I-0.635 J-1.455
G3 X-62.754 Y-14.413 Z-1.114 I5.46 J3.362
G1 X-9 Z-1.201
G2 X-3.412 Y-20 Z-1.215 I0 J-5.587
G1 Y-62 Z-1.283
G2 X-9 Y-67.588 Z-1.298 I-5.588 J0
G1 X-36.482 Z-1.342
Z-1.3
X-49.657
S6000
Z-1.364 F300
S8000
X-62.754 Z-1.385 F1016
G3 X-68.215 Y-70.638 Z-1.395 I0 J-6.413
G2 X-68.932 Y-71.261 Z-1.397 I-1.352 J0.832
G1 X-85.432 Y-78.455 Z-1.426
G2 X-86.066 Y-78.588 Z-1.427 I-0.635 J1.455
G1 X-122.206 Z-1.486
Z-1.3
X-135.382
S6000
Z-1.507 F300
S8000
X-144.477 Z-1.522 F1016
G2 X-145.447 Y-78.257 Z-1.524 I0 J1.588
G1 X-159.266 Y-67.588 Z-1.552
X-212.423 Z-1.638
Z-1.3
X-225.598
S6000
Z-1.66 F300
S8000
X-251 Z-1.701 F1016
G2 X-256.587 Y-62 Z-1.715 I0 J5.588
G1 Y-20 Z-1.783
G2 X-251 Y-14.413 Z-1.798 I5.587 J0
G1 X-229.882 Z-1.832
Z-1.3
X-216.706
S6000
Z-1.853 F300
S8000
X-159.266 Z-1.946 F1016
X-145.447 Y-3.743 Z-1.975
G2 X-144.477 Y-3.412 Z-1.977 I0.97 J-1.257
G1 X-130 Z-2
S6000
X-127.441 F1500
Z-1.3
X-114.267
Z-2 F300
X-86.066 F1500
G2 X-85.432 Y-3.545 I0 J-1.588
G1 X-68.932 Y-10.739
G2 X-68.215 Y-11.362 I-0.635 J-1.455
G3 X-62.754 Y-14.413 I5.46 J3.362
G1 X-42.382
Z-1.3
X-29.207
Z-2 F300
X-9 F1500
G2 X-3.412 Y-20 I0 J-5.587
G1 Y-62
G2 X-9 Y-67.588 I-5.588 J0
G1 X-36.482
Z-1.3
X-49.657
Z-2 F300
X-62.754 F1500
G3 X-68.215 Y-70.638 I0 J-6.413
G2 X-68.932 Y-71.261 I-1.352 J0.832
G1 X-85.432 Y-78.455
G2 X-86.066 Y-78.588 I-0.635 J1.455
G1 X-122.206
Z-1.3
X-135.382
Z-2 F300
X-144.477 F1500
G2 X-145.447 Y-78.257 I0 J1.588
G1 X-159.266 Y-67.588
X-212.423
Z-1.3
X-225.598
Z-2 F300
X-251 F1500
G2 X-256.587 Y-62 I0 J5.588
G1 Y-20
G2 X-251 Y-14.413 I5.587 J0
G1 X-229.882
Z-1.3
X-216.706
Z-2 F300
X-159.266 F1500
X-145.447 Y-3.743
G2 X-144.477 Y-3.412 I0.97 J-1.257
G1 X-130
S8000
X-127.441 Z-2.004 F1016
Z-1.3
X-114.267
S6000
Z-2.026 F300
S8000
X-86.066 Z-2.071 F1016
G2 X-85.432 Y-3.545 Z-2.072 I0 J-1.588
G1 X-68.932 Y-10.739 Z-2.102
G2 X-68.215 Y-11.362 Z-2.103 I-0.635 J-1.455
G3 X-62.754 Y-14.413 Z-2.114 I5.46 J3.362
G1 X-42.382 Z-2.147
Z-1.3
X-29.207
S6000
Z-2.168 F300
S8000
X-9 Z-2.201 F1016
G2 X-3.412 Y-20 Z-2.215 I0 J-5.587
G1 Y-62 Z-2.283
G2 X-9 Y-67.588 Z-2.298 I-5.588 J0
G1 X-10.471 Z-2.3
S6000
X-36.482 F1500
Z-1.3
X-49.657
Z-2.3 F300
X-62.754 F1500
G3 X-68.215 Y-70.638 I0 J-6.413
G2 X-68.932 Y-71.261 I-1.352 J0.832
G1 X-85.432 Y-78.455
G2 X-86.066 Y-78.588 I-0.635 J1.455
G1 X-122.206
Z-1.3
X-135.382
Z-2.3 F300
X-144.477 F1500
G2 X-145.447 Y-78.257 I0 J1.588
G1 X-159.266 Y-67.588
X-212.423
Z-1.3
X-225.598
Z-2.3 F300
X-251 F1500
G2 X-256.587 Y-62 I0 J5.588
G1 Y-20
G2 X-251 Y-14.413 I5.587 J0
G1 X-229.882
Z-1.3
X-216.706
Z-2.3 F300
X-159.266 F1500
X-145.447 Y-3.743
G2 X-144.477 Y-3.412 I0.97 J-1.257
G1 X-127.441
Z-1.3
X-114.267
Z-2.3 F300
X-86.066 F1500
G2 X-85.432 Y-3.545 I0 J-1.588
G1 X-68.932 Y-10.739
G2 X-68.215 Y-11.362 I-0.635 J-1.455
G3 X-62.754 Y-14.413 I5.46 J3.362
G1 X-42.382
Z-1.3
X-29.207
Z-2.3 F300
X-9 F1500
G2 X-3.412 Y-20 I0 J-5.587
G1 Y-62
G2 X-9 Y-67.588 I-5.588 J0
G1 X-10.471
Z5
X-110.648 Y-156.582
Z2 F300
Z1
S8000
G2 X-117.96 Y-151.964 Z0.986 I0.306 J8.582 F1016
G3 X-121.875 Y-149.587 Z0.979 I-3.915 J-2.036
G1 X-181.439 Z0.888
G2 X-185.271 Y-148.788 Z0.882 I0 J9.587
G1 X-189.189 Y-147.08 Z0.875
G2 X-192.481 Y-144.709 Z0.869 I3.832 J8.789
G3 X-197.246 Y-142.587 Z0.861 I-4.765 J-4.291
G1 X-251 Z0.778
G2 X-256.587 Y-137 Z0.765 I0 J5.587
G1 Y-132 Z0.757
G2 X-251 Y-126.412 Z0.744 I5.587 J0
G1 X-239 Z0.725
G3 X-236.587 Y-124 Z0.72 I0 J2.412
G1 Y-108 Z0.695
G3 X-239 Y-105.588 Z0.689 I-2.413 J0
G1 X-251 Z0.671
G2 X-256.587 Y-100 Z0.657 I0 J5.588
G1 Y-95 Z0.65
G2 X-251 Y-89.412 Z0.636 I5.587 J0
G1 X-197.246 Z0.554
G3 X-192.482 Y-87.292 Z0.546 I0 J6.412
G2 X-189.189 Y-84.92 Z0.54 I7.123 J-6.417
G1 X-185.272 Y-83.212 Z0.533
G2 X-181.439 Y-82.412 Z0.527 I3.832 J-8.788
G1 X-113.071 Z0.422
G2 X-107.212 Y-84.411 Z0.413 I0 J-9.588
G1 X-100.734 Y-89.412 Z0.4
X-9 Z0.26
G2 X-3.412 Y-95 Z0.246 I0 J-5.588
G1 Y-137 Z0.182
G2 X-9 Y-142.587 Z0.169 I-5.588 J0
G1 X-75.381 Z0.067
G3 X-79.78 Y-147.34 Z0.056 I0 J-4.413
G2 X-88.342 Y-156.587 Z0.034 I-8.562 J-0.66
G1 X-110.342 Z0
G2 X-117.96 Y-151.964 Z-0.014 I0 J8.588
G3 X-121.875 Y-149.587 Z-0.021 I-3.915 J-2.036
G1 X-181.439 Z-0.112
G2 X-185.271 Y-148.788 Z-0.118 I0 J9.587
G1 X-189.189 Y-147.08 Z-0.125
G2 X-192.481 Y-144.709 Z-0.131 I3.832 J8.789
G3 X-197.246 Y-142.587 Z-0.139 I-4.765 J-4.291
G1 X-251 Z-0.222
G2 X-256.587 Y-137 Z-0.235 I0 J5.587
G1 Y-132 Z-0.243
G2 X-251 Y-126.412 Z-0.256 I5.587 J0
G1 X-239 Z-0.275
G3 X-236.587 Y-124 Z-0.28 I0 J2.412
G1 Y-108 Z-0.305
G3 X-239 Y-105.588 Z-0.311 I-2.413 J0
G1 X-251 Z-0.329
G2 X-256.587 Y-100 Z-0.343 I0 J5.588
G1 Y-95 Z-0.35
G2 X-251 Y-89.412 Z-0.364 I5.587 J0
G1 X-197.246 Z-0.446
G3 X-192.482 Y-87.292 Z-0.454 I0 J6.412
G2 X-189.189 Y-84.92 Z-0.46 I7.123 J-6.417
G1 X-185.272 Y-83.212 Z-0.467
G2 X-181.439 Y-82.412 Z-0.473 I3.832 J-8.788
G1 X-113.071 Z-0.578
G2 X-107.212 Y-84.411 Z-0.587 I0 J-9.588
G1 X-100.734 Y-89.412 Z-0.6
X-9 Z-0.74
G2 X-3.412 Y-95 Z-0.754 I0 J-5.588
G1 Y-137 Z-0.818
G2 X-9 Y-142.587 Z-0.831 I-5.588 J0
G1 X-75.381 Z-0.933
G3 X-79.78 Y-147.34 Z-0.944 I0 J-4.413
G2 X-88.342 Y-156.587 Z-0.966 I-8.562 J-0.66
G1 X-110.342 Z-1
G2 X-110.648 Y-156.582 I0 J8.588
S6000
X-117.96 Y-151.964 I0.306 J8.582 F1500
G3 X-121.875 Y-149.587 I-3.915 J-2.036
G1 X-181.439
G2 X-185.271 Y-148.788 I0 J9.587
G1 X-189.189 Y-147.08
G2 X-192.481 Y-144.709 I3.832 J8.789
G3 X-197.246 Y-142.587 I-4.765 J-4.291
G1 X-251
G2 X-256.587 Y-137 I0 J5.587
G1 Y-132
G2 X-251 Y-126.412 I5.587 J0
G1 X-239
G3 X-236.587 Y-124 I0 J2.412
G1 Y-108
G3 X-239 Y-105.588 I-2.413 J0
G1 X-251
G2 X-256.587 Y-100 I0 J5.588
G1 Y-95
G2 X-251 Y-89.412 I5.587 J0
G1 X-197.246
G3 X-192.482 Y-87.292 I0 J6.412
G2 X-189.189 Y-84.92 I7.123 J-6.417
G1 X-185.272 Y-83.212
G2 X-181.439 Y-82.412 I3.832 J-8.788
G1 X-113.071
G2 X-107.212 Y-84.411 I0 J-9.588
G1 X-100.734 Y-89.412
X-9
G2 X-3.412 Y-95 I0 J-5.588
G1 Y-137
G2 X-9 Y-142.587 I-5.588 J0
G1 X-75.381
G3 X-79.78 Y-147.34 I0 J-4.413
G2 X-88.342 Y-156.587 I-8.562 J-0.66
G1 X-110.342
G2 X-110.648 Y-156.582 I0 J8.588
S8000
X-117.96 Y-151.964 Z-1.014 I0.306 J8.582 F1016
G3 X-121.875 Y-149.587 Z-1.021 I-3.915 J-2.036
G1 X-181.439 Z-1.112
G2 X-185.271 Y-148.788 Z-1.118 I0 J9.587
G1 X-189.189 Y-147.08 Z-1.125
G2 X-192.481 Y-144.709 Z-1.131 I3.832 J8.789
G3 X-197.246 Y-142.587 Z-1.139 I-4.765 J-4.291
G1 X-251 Z-1.222
G2 X-256.587 Y-137 Z-1.235 I0 J5.587
G1 Y-132 Z-1.243
G2 X-251 Y-126.412 Z-1.256 I5.587 J0
G1 X-239 Z-1.275
G3 X-236.587 Y-124 Z-1.28 I0 J2.412
G1 Y-108 Z-1.305
G3 X-239 Y-105.588 Z-1.311 I-2.413 J0
G1 X-251 Z-1.329
G2 X-256.587 Y-100 Z-1.343 I0 J5.588
G1 Y-95 Z-1.35
G2 X-251 Y-89.412 Z-1.364 I5.587 J0
G1 X-239.551 Z-1.381
Z-1.3
X-226.376
S6000
Z-1.401 F300
S8000
X-197.246 Z-1.446 F1016
G3 X-192.482 Y-87.292 Z-1.454 I0 J6.412
G2 X-189.189 Y-84.92 Z-1.46 I7.123 J-6.417
G1 X-185.272 Y-83.212 Z-1.467
G2 X-181.439 Y-82.412 Z-1.473 I3.832 J-8.788
G1 X-177.835 Z-1.479
Z-1.3
X-164.661
S6000
Z-1.499 F300
S8000
X-113.071 Z-1.578 F1016
G2 X-107.212 Y-84.411 Z-1.587 I0 J-9.588
G1 X-100.734 Y-89.412 Z-1.6
X-48.781 Z-1.679
Z-1.3
X-35.606
S6000
Z-1.7 F300
S8000
X-9 Z-1.74 F1016
G2 X-3.412 Y-95 Z-1.754 I0 J-5.588
G1 Y-137 Z-1.818
G2 X-9 Y-142.587 Z-1.831 I-5.588 J0
G1 X-44.08 Z-1.885
Z-1.3
X-57.255
S6000
Z-1.905 F300
S8000
X-75.381 Z-1.933 F1016
G3 X-79.78 Y-147.34 Z-1.944 I0 J-4.413
G2 X-88.342 Y-156.587 Z-1.966 I-8.562 J-0.66
G1 X-110.342 Z-2
G2 X-110.648 Y-156.582 I0 J8.588
S6000
X-117.96 Y-151.964 I0.306 J8.582 F1500
G3 X-121.875 Y-149.587 I-3.915 J-2.036
G1 X-132.749
Z-1.3
X-145.924
Z-2 F300
X-181.439 F1500
G2 X-185.271 Y-148.788 I0 J9.587
G1 X-189.189 Y-147.08
G2 X-192.481 Y-144.709 I3.832 J8.789
G3 X-197.246 Y-142.587 I-4.765 J-4.291
G1 X-222.689
Z-1.3
X-235.865
Z-2 F300
X-251 F1500
G2 X-256.587 Y-137 I0 J5.587
G1 Y-132
G2 X-251 Y-126.412 I5.587 J0
G1 X-239
G3 X-236.587 Y-124 I0 J2.412
G1 Y-108
G3 X-239 Y-105.588 I-2.413 J0
G1 X-251
G2 X-256.587 Y-100 I0 J5.588
G1 Y-95
G2 X-251 Y-89.412 I5.587 J0
G1 X-239.551
Z-1.3
X-226.376
Z-2 F300
X-197.246 F1500
G3 X-192.482 Y-87.292 I0 J6.412
G2 X-189.189 Y-84.92 I7.123 J-6.417
G1 X-185.272 Y-83.212
G2 X-181.439 Y-82.412 I3.832 J-8.788
G1 X-177.835
Z-1.3
X-164.661
Z-2 F300
X-113.071 F1500
G2 X-107.212 Y-84.411 I0 J-9.588
G1 X-100.734 Y-89.412
X-48.781
Z-1.3
X-35.606
Z-2 F300
X-9 F1500
G2 X-3.412 Y-95 I0 J-5.588
G1 Y-137
G2 X-9 Y-142.587 I-5.588 J0
G1 X-44.08
Z-1.3
X-57.255
Z-2 F300
X-75.381 F1500
G3 X-79.78 Y-147.34 I0 J-4.413
G2 X-88.342 Y-156.587 I-8.562 J-0.66
G1 X-110.342
G2 X-110.648 Y-156.582 I0 J8.588
S8000
X-117.96 Y-151.964 Z-2.014 I0.306 J8.582 F1016
G3 X-121.875 Y-149.587 Z-2.021 I-3.915 J-2.036
G1 X-132.749 Z-2.038
Z-1.3
X-145.924
S6000
Z-2.058 F300
S8000
X-181.439 Z-2.112 F1016
G2 X-185.271 Y-148.788 Z-2.118 I0 J9.587
G1 X-189.189 Y-147.08 Z-2.125
G2 X-192.481 Y-144.709 Z-2.131 I3.832 J8.789
G3 X-197.246 Y-142.587 Z-2.139 I-4.765 J-4.291
G1 X-222.689 Z-2.178
Z-1.3
X-235.865
S6000
Z-2.199 F300
S8000
X-251 Z-2.222 F1016
G2 X-256.587 Y-137 Z-2.235 I0 J5.587
G1 Y-132 Z-2.243
G2 X-251 Y-126.412 Z-2.256 I5.587 J0
G1 X-239 Z-2.275
G3 X-236.587 Y-124 Z-2.28 I0 J2.412
G1 Y-111.244 Z-2.3
S6000
Y-108 F1500
G3 X-239 Y-105.588 I-2.413 J0
G1 X-251
G2 X-256.587 Y-100 I0 J5.588
G1 Y-95
G2 X-251 Y-89.412 I5.587 J0
G1 X-239.551
Z-1.3
X-226.376
Z-2.3 F300
X-197.246 F1500
G3 X-192.482 Y-87.292 I0 J6.412
G2 X-189.189 Y-84.92 I7.123 J-6.417
G1 X-185.272 Y-83.212
G2 X-181.439 Y-82.412 I3.832 J-8.788
G1 X-177.835
Z-1.3
X-164.661
Z-2.3 F300
X-113.071 F1500
G2 X-107.212 Y-84.411 I0 J-9.588
G1 X-100.734 Y-89.412
X-48.781
Z-1.3
X-35.606
Z-2.3 F300
X-9 F1500
G2 X-3.412 Y-95 I0 J-5.588
G1 Y-137
G2 X-9 Y-142.587 I-5.588 J0
G1 X-44.08
Z-1.3
X-57.255
Z-2.3 F300
X-75.381 F1500
G3 X-79.78 Y-147.34 I0 J-4.413
G2 X-88.342 Y-156.587 I-8.562 J-0.66
G1 X-110.342
G2 X-117.96 Y-151.964 I0 J8.588
G3 X-121.875 Y-149.587 I-3.915 J-2.036
G1 X-132.749
Z-1.3
X-145.924
Z-2.3 F300
X-181.439 F1500
G2 X-185.271 Y-148.788 I0 J9.587
G1 X-189.189 Y-147.08
G2 X-192.481 Y-144.709 I3.832 J8.789
G3 X-197.246 Y-142.587 I-4.765 J-4.291
G1 X-222.689
Z-1.3
X-235.865
Z-2.3 F300
X-251 F1500
G2 X-256.587 Y-137 I0 J5.587
G1 Y-132
G2 X-251 Y-126.412 I5.587 J0
G1 X-239
G3 X-236.587 Y-124 I0 J2.412
G1 Y-111.244
Z15
M5
M30
