(Main_Platte)
(Bearbeiten)
(  Hersteller: ChinaCnc)
(  model: 3040T)
(  description: Generic 3-axis)
(T5 D=3.175 CR=0 - ZMIN=-4.3 - Schaftfrser)
G90 G94
G17
G21
(-Attention- Property Safe Retracts is set to Clearance Height.)
(Ensure the clearance height will clear the part and or fixtures.)
(Raise the Z-axis to a safe height before starting the program.)
(When using Fusion 360 for Personal Use, the feedrate of)
(rapid moves is reduced to match the feedrate of cutting)
(moves, which can increase machining time. Unrestricted rapid)
(moves are available with a Fusion 360 Subscription.)

(Bohrfrsen3)
M0
(MANUAL TOOL CHANGE TO T5)
S4000 M3
G17 G90 G94
G54
G0 X-188.143 Y-22.423
Z15
G1 Z2.682 F1000
Z1
Y-22.581
X-188.137 Y-22.612
X-188.119 Y-22.639
X-188.093 Y-22.656
X-188.061 Y-22.663
G3 X-188.061 Y-22.337 Z0.954 I0 J0.163
X-188.061 Y-22.663 Z0.908 I0 J-0.163
X-188.061 Y-22.337 Z0.863 I0 J0.163
X-188.061 Y-22.663 Z0.817 I0 J-0.163
X-188.061 Y-22.337 Z0.771 I0 J0.163
X-188.061 Y-22.663 Z0.725 I0 J-0.163
X-188.061 Y-22.337 Z0.679 I0 J0.163
X-188.061 Y-22.663 Z0.633 I0 J-0.163
X-188.061 Y-22.337 Z0.588 I0 J0.163
X-188.061 Y-22.663 Z0.542 I0 J-0.163
X-188.061 Y-22.337 Z0.496 I0 J0.163
X-188.061 Y-22.663 Z0.45 I0 J-0.163
X-188.061 Y-22.337 Z0.404 I0 J0.163
X-188.061 Y-22.663 Z0.358 I0 J-0.163
X-188.061 Y-22.337 Z0.313 I0 J0.163
X-188.061 Y-22.663 Z0.267 I0 J-0.163
X-188.061 Y-22.337 Z0.221 I0 J0.163
X-188.061 Y-22.663 Z0.175 I0 J-0.163
X-188.061 Y-22.337 Z0.129 I0 J0.163
X-188.061 Y-22.663 Z0.083 I0 J-0.163
X-188.061 Y-22.337 Z0.038 I0 J0.163
X-188.061 Y-22.663 Z-0.008 I0 J-0.163
X-188.061 Y-22.337 Z-0.054 I0 J0.163
X-188.061 Y-22.663 Z-0.1 I0 J-0.163
X-188.061 Y-22.337 Z-0.146 I0 J0.163
X-188.061 Y-22.663 Z-0.191 I0 J-0.163
X-188.061 Y-22.337 Z-0.237 I0 J0.163
X-188.061 Y-22.663 Z-0.283 I0 J-0.163
X-188.061 Y-22.337 Z-0.329 I0 J0.163
X-188.061 Y-22.663 Z-0.375 I0 J-0.163
X-188.061 Y-22.337 Z-0.421 I0 J0.163
X-188.061 Y-22.663 Z-0.466 I0 J-0.163
X-188.061 Y-22.337 Z-0.512 I0 J0.163
X-188.061 Y-22.663 Z-0.558 I0 J-0.163
X-188.061 Y-22.337 Z-0.604 I0 J0.163
X-188.061 Y-22.663 Z-0.65 I0 J-0.163
X-188.061 Y-22.337 Z-0.696 I0 J0.163
X-188.061 Y-22.663 Z-0.741 I0 J-0.163
X-188.061 Y-22.337 Z-0.787 I0 J0.163
X-188.061 Y-22.663 Z-0.833 I0 J-0.163
X-188.061 Y-22.337 Z-0.879 I0 J0.163
X-188.061 Y-22.663 Z-0.925 I0 J-0.163
X-188.061 Y-22.337 Z-0.97 I0 J0.163
X-188.061 Y-22.663 Z-1.016 I0 J-0.163
X-188.061 Y-22.337 Z-1.062 I0 J0.163
X-188.061 Y-22.663 Z-1.108 I0 J-0.163
X-188.061 Y-22.337 Z-1.154 I0 J0.163
X-188.061 Y-22.663 Z-1.2 I0 J-0.163
X-188.061 Y-22.337 Z-1.245 I0 J0.163
X-188.061 Y-22.663 Z-1.291 I0 J-0.163
X-188.061 Y-22.337 Z-1.337 I0 J0.163
X-188.061 Y-22.663 Z-1.383 I0 J-0.163
X-188.061 Y-22.337 Z-1.429 I0 J0.163
X-188.061 Y-22.663 Z-1.475 I0 J-0.163
X-188.061 Y-22.337 Z-1.52 I0 J0.163
X-188.061 Y-22.663 Z-1.566 I0 J-0.163
X-188.061 Y-22.337 Z-1.612 I0 J0.163
X-188.061 Y-22.663 Z-1.658 I0 J-0.163
X-188.061 Y-22.337 Z-1.704 I0 J0.163
X-188.061 Y-22.663 Z-1.75 I0 J-0.163
X-188.061 Y-22.337 Z-1.795 I0 J0.163
X-188.061 Y-22.663 Z-1.841 I0 J-0.163
X-188.061 Y-22.337 Z-1.887 I0 J0.163
X-188.061 Y-22.663 Z-1.933 I0 J-0.163
X-188.061 Y-22.337 Z-1.979 I0 J0.163
X-188.061 Y-22.663 Z-2.024 I0 J-0.163
X-188.061 Y-22.337 Z-2.07 I0 J0.163
X-188.061 Y-22.663 Z-2.116 I0 J-0.163
X-188.061 Y-22.337 Z-2.162 I0 J0.163
X-188.061 Y-22.663 Z-2.208 I0 J-0.163
X-188.061 Y-22.337 Z-2.254 I0 J0.163
X-188.061 Y-22.663 Z-2.299 I0 J-0.163
X-188.061 Y-22.337 Z-2.345 I0 J0.163
X-188.061 Y-22.663 Z-2.391 I0 J-0.163
X-188.061 Y-22.337 Z-2.437 I0 J0.163
X-188.061 Y-22.663 Z-2.483 I0 J-0.163
X-188.061 Y-22.337 Z-2.529 I0 J0.163
X-188.061 Y-22.663 Z-2.574 I0 J-0.163
X-188.061 Y-22.337 Z-2.62 I0 J0.163
X-188.061 Y-22.663 Z-2.666 I0 J-0.163
X-188.061 Y-22.337 Z-2.712 I0 J0.163
X-188.061 Y-22.663 Z-2.758 I0 J-0.163
X-188.061 Y-22.337 Z-2.804 I0 J0.163
X-188.061 Y-22.663 Z-2.849 I0 J-0.163
X-188.061 Y-22.337 Z-2.895 I0 J0.163
X-188.061 Y-22.663 Z-2.941 I0 J-0.163
X-188.061 Y-22.337 Z-2.987 I0 J0.163
X-188.061 Y-22.663 Z-3.033 I0 J-0.163
X-188.061 Y-22.337 Z-3.078 I0 J0.163
X-188.061 Y-22.663 Z-3.124 I0 J-0.163
X-188.061 Y-22.337 Z-3.17 I0 J0.163
X-188.061 Y-22.663 Z-3.216 I0 J-0.163
X-188.061 Y-22.337 Z-3.262 I0 J0.163
X-188.061 Y-22.663 Z-3.308 I0 J-0.163
X-188.061 Y-22.337 Z-3.353 I0 J0.163
X-188.061 Y-22.663 Z-3.399 I0 J-0.163
X-188.061 Y-22.337 Z-3.445 I0 J0.163
X-188.061 Y-22.663 Z-3.491 I0 J-0.163
X-188.061 Y-22.337 Z-3.537 I0 J0.163
X-188.061 Y-22.663 Z-3.583 I0 J-0.163
X-188.061 Y-22.337 Z-3.628 I0 J0.163
X-188.061 Y-22.663 Z-3.674 I0 J-0.163
X-188.061 Y-22.337 Z-3.72 I0 J0.163
X-188.061 Y-22.663 Z-3.766 I0 J-0.163
X-188.061 Y-22.337 Z-3.812 I0 J0.163
X-188.061 Y-22.663 Z-3.857 I0 J-0.163
X-188.061 Y-22.337 Z-3.903 I0 J0.163
X-188.061 Y-22.663 Z-3.949 I0 J-0.163
X-188.061 Y-22.337 Z-3.995 I0 J0.163
X-188.061 Y-22.663 Z-4.041 I0 J-0.163
X-188.061 Y-22.337 Z-4.087 I0 J0.163
X-188.061 Y-22.663 Z-4.132 I0 J-0.163
X-188.061 Y-22.337 Z-4.178 I0 J0.163
X-188.061 Y-22.663 Z-4.224 I0 J-0.163
X-188.061 Y-22.337 Z-4.27 I0 J0.163
X-188.205 Y-22.577 Z-4.3 I0 J-0.163
X-187.918 Y-22.423 I0.143 J0.077
X-188.205 Y-22.577 I-0.143 J-0.077
G1 X-188.185 Y-22.601
X-188.157 Y-22.616
X-188.125 Y-22.619
X-188.095 Y-22.61
X-187.955 Y-22.535
Z5
X-173.574 Y-42.173
Z2.682
Z1
Y-42.331
X-173.567 Y-42.362
X-173.55 Y-42.389
X-173.524 Y-42.406
X-173.492 Y-42.412
G3 X-173.492 Y-42.088 Z0.954 I0 J0.162
X-173.492 Y-42.412 Z0.908 I0 J-0.162
X-173.492 Y-42.088 Z0.863 I0 J0.162
X-173.492 Y-42.412 Z0.817 I0 J-0.162
X-173.492 Y-42.088 Z0.771 I0 J0.162
X-173.492 Y-42.412 Z0.725 I0 J-0.162
X-173.492 Y-42.088 Z0.679 I0 J0.162
X-173.492 Y-42.412 Z0.633 I0 J-0.162
X-173.492 Y-42.088 Z0.588 I0 J0.162
X-173.492 Y-42.412 Z0.542 I0 J-0.162
X-173.492 Y-42.088 Z0.496 I0 J0.162
X-173.492 Y-42.412 Z0.45 I0 J-0.162
X-173.492 Y-42.088 Z0.404 I0 J0.162
X-173.492 Y-42.412 Z0.358 I0 J-0.162
X-173.492 Y-42.088 Z0.313 I0 J0.162
X-173.492 Y-42.412 Z0.267 I0 J-0.162
X-173.492 Y-42.088 Z0.221 I0 J0.162
X-173.492 Y-42.412 Z0.175 I0 J-0.162
X-173.492 Y-42.088 Z0.129 I0 J0.162
X-173.492 Y-42.412 Z0.083 I0 J-0.162
X-173.492 Y-42.088 Z0.038 I0 J0.162
X-173.492 Y-42.412 Z-0.008 I0 J-0.162
X-173.492 Y-42.088 Z-0.054 I0 J0.162
X-173.492 Y-42.412 Z-0.1 I0 J-0.162
X-173.492 Y-42.088 Z-0.146 I0 J0.162
X-173.492 Y-42.412 Z-0.191 I0 J-0.162
X-173.492 Y-42.088 Z-0.237 I0 J0.162
X-173.492 Y-42.412 Z-0.283 I0 J-0.162
X-173.492 Y-42.088 Z-0.329 I0 J0.162
X-173.492 Y-42.412 Z-0.375 I0 J-0.162
X-173.492 Y-42.088 Z-0.421 I0 J0.162
X-173.492 Y-42.412 Z-0.466 I0 J-0.162
X-173.492 Y-42.088 Z-0.512 I0 J0.162
X-173.492 Y-42.412 Z-0.558 I0 J-0.162
X-173.492 Y-42.088 Z-0.604 I0 J0.162
X-173.492 Y-42.412 Z-0.65 I0 J-0.162
X-173.492 Y-42.088 Z-0.696 I0 J0.162
X-173.492 Y-42.412 Z-0.741 I0 J-0.162
X-173.492 Y-42.088 Z-0.787 I0 J0.162
X-173.492 Y-42.412 Z-0.833 I0 J-0.162
X-173.492 Y-42.088 Z-0.879 I0 J0.162
X-173.492 Y-42.412 Z-0.925 I0 J-0.162
X-173.492 Y-42.088 Z-0.97 I0 J0.162
X-173.492 Y-42.412 Z-1.016 I0 J-0.162
X-173.492 Y-42.088 Z-1.062 I0 J0.162
X-173.492 Y-42.412 Z-1.108 I0 J-0.162
X-173.492 Y-42.088 Z-1.154 I0 J0.162
X-173.492 Y-42.412 Z-1.2 I0 J-0.162
X-173.492 Y-42.088 Z-1.245 I0 J0.162
X-173.492 Y-42.412 Z-1.291 I0 J-0.162
X-173.492 Y-42.088 Z-1.337 I0 J0.162
X-173.492 Y-42.412 Z-1.383 I0 J-0.162
X-173.492 Y-42.088 Z-1.429 I0 J0.162
X-173.492 Y-42.412 Z-1.475 I0 J-0.162
X-173.492 Y-42.088 Z-1.52 I0 J0.162
X-173.492 Y-42.412 Z-1.566 I0 J-0.162
X-173.492 Y-42.088 Z-1.612 I0 J0.162
X-173.492 Y-42.412 Z-1.658 I0 J-0.162
X-173.492 Y-42.088 Z-1.704 I0 J0.162
X-173.492 Y-42.412 Z-1.75 I0 J-0.162
X-173.492 Y-42.088 Z-1.795 I0 J0.162
X-173.492 Y-42.412 Z-1.841 I0 J-0.162
X-173.492 Y-42.088 Z-1.887 I0 J0.162
X-173.492 Y-42.412 Z-1.933 I0 J-0.162
X-173.492 Y-42.088 Z-1.979 I0 J0.162
X-173.492 Y-42.412 Z-2.024 I0 J-0.162
X-173.492 Y-42.088 Z-2.07 I0 J0.162
X-173.492 Y-42.412 Z-2.116 I0 J-0.162
X-173.492 Y-42.088 Z-2.162 I0 J0.162
X-173.492 Y-42.412 Z-2.208 I0 J-0.162
X-173.492 Y-42.088 Z-2.254 I0 J0.162
X-173.492 Y-42.412 Z-2.299 I0 J-0.162
X-173.492 Y-42.088 Z-2.345 I0 J0.162
X-173.492 Y-42.412 Z-2.391 I0 J-0.162
X-173.492 Y-42.088 Z-2.437 I0 J0.162
X-173.492 Y-42.412 Z-2.483 I0 J-0.162
X-173.492 Y-42.088 Z-2.529 I0 J0.162
X-173.492 Y-42.412 Z-2.574 I0 J-0.162
X-173.492 Y-42.088 Z-2.62 I0 J0.162
X-173.492 Y-42.412 Z-2.666 I0 J-0.162
X-173.492 Y-42.088 Z-2.712 I0 J0.162
X-173.492 Y-42.412 Z-2.758 I0 J-0.162
X-173.492 Y-42.088 Z-2.804 I0 J0.162
X-173.492 Y-42.412 Z-2.849 I0 J-0.162
X-173.492 Y-42.088 Z-2.895 I0 J0.162
X-173.492 Y-42.412 Z-2.941 I0 J-0.162
X-173.492 Y-42.088 Z-2.987 I0 J0.162
X-173.492 Y-42.412 Z-3.033 I0 J-0.162
X-173.492 Y-42.088 Z-3.078 I0 J0.162
X-173.492 Y-42.412 Z-3.124 I0 J-0.162
X-173.492 Y-42.088 Z-3.17 I0 J0.162
X-173.492 Y-42.412 Z-3.216 I0 J-0.162
X-173.492 Y-42.088 Z-3.262 I0 J0.162
X-173.492 Y-42.412 Z-3.308 I0 J-0.162
X-173.492 Y-42.088 Z-3.353 I0 J0.162
X-173.492 Y-42.412 Z-3.399 I0 J-0.162
X-173.492 Y-42.088 Z-3.445 I0 J0.162
X-173.492 Y-42.412 Z-3.491 I0 J-0.162
X-173.492 Y-42.088 Z-3.537 I0 J0.162
X-173.492 Y-42.412 Z-3.583 I0 J-0.162
X-173.492 Y-42.088 Z-3.628 I0 J0.162
X-173.492 Y-42.412 Z-3.674 I0 J-0.162
X-173.492 Y-42.088 Z-3.72 I0 J0.162
X-173.492 Y-42.412 Z-3.766 I0 J-0.162
X-173.492 Y-42.088 Z-3.812 I0 J0.162
X-173.492 Y-42.412 Z-3.857 I0 J-0.162
X-173.492 Y-42.088 Z-3.903 I0 J0.162
X-173.492 Y-42.412 Z-3.949 I0 J-0.162
X-173.492 Y-42.088 Z-3.995 I0 J0.162
X-173.492 Y-42.412 Z-4.041 I0 J-0.162
X-173.492 Y-42.088 Z-4.087 I0 J0.162
X-173.492 Y-42.412 Z-4.132 I0 J-0.162
X-173.492 Y-42.088 Z-4.178 I0 J0.162
X-173.492 Y-42.412 Z-4.224 I0 J-0.162
X-173.492 Y-42.088 Z-4.27 I0 J0.162
X-173.636 Y-42.327 Z-4.3 I0 J-0.162
X-173.349 Y-42.173 I0.143 J0.077
X-173.636 Y-42.327 I-0.143 J-0.077
G1 X-173.616 Y-42.351
X-173.588 Y-42.366
X-173.556 Y-42.369
X-173.526 Y-42.36
X-173.386 Y-42.285
Z5
X-157.925 Y-49.881
Z3
Z1.317
G19 G3 Y-49.564 Z1 J0.317 K0
G1 Y-49.405
G17 G3 X-158.242 Y-49.088 I-0.318 J0
X-158.242 Y-65.912 Z0.738 I0 J-8.412
X-158.242 Y-49.088 Z0.476 I0 J8.412
X-158.242 Y-65.912 Z0.214 I0 J-8.412
X-158.242 Y-49.088 Z-0.047 I0 J8.412
X-158.242 Y-65.912 Z-0.309 I0 J-8.412
X-158.242 Y-49.088 Z-0.571 I0 J8.412
X-158.242 Y-65.912 Z-0.833 I0 J-8.412
X-158.242 Y-49.088 Z-1.095 I0 J8.412
X-158.242 Y-65.912 Z-1.357 I0 J-8.412
X-158.242 Y-49.088 Z-1.619 I0 J8.412
X-158.242 Y-65.912 Z-1.88 I0 J-8.412
X-158.242 Y-49.088 Z-2.142 I0 J8.412
X-158.242 Y-65.912 Z-2.404 I0 J-8.412
X-158.242 Y-49.088 Z-2.666 I0 J8.412
X-158.242 Y-65.912 Z-2.928 I0 J-8.412
X-158.242 Y-49.088 Z-3.19 I0 J8.412
X-158.242 Y-65.912 Z-3.452 I0 J-8.412
X-158.242 Y-49.088 Z-3.713 I0 J8.412
X-158.242 Y-65.912 Z-3.975 I0 J-8.412
X-158.242 Y-49.088 Z-4.237 I0 J8.412
X-163.999 Y-51.365 Z-4.3 I0 J-8.412
X-152.486 Y-63.635 I5.757 J-6.135
X-163.999 Y-51.365 I-5.757 J6.135
X-164.013 Y-51.814 I0.217 J-0.232
G1 X-163.905 Y-51.93
X-163.856 Y-51.982 Z-4.292
X-163.81 Y-52.03 Z-4.269
X-163.769 Y-52.074 Z-4.231
X-163.735 Y-52.111 Z-4.18
X-163.709 Y-52.139 Z-4.12
X-163.693 Y-52.156 Z-4.053
X-163.687 Y-52.162 Z-3.983
Z5
X-173.574 Y-72.673
Z2.682
Z1
Y-72.831
X-173.567 Y-72.862
X-173.55 Y-72.889
X-173.524 Y-72.906
X-173.492 Y-72.912
G3 X-173.492 Y-72.588 Z0.954 I0 J0.162
X-173.492 Y-72.912 Z0.908 I0 J-0.162
X-173.492 Y-72.588 Z0.863 I0 J0.162
X-173.492 Y-72.912 Z0.817 I0 J-0.162
X-173.492 Y-72.588 Z0.771 I0 J0.162
X-173.492 Y-72.912 Z0.725 I0 J-0.162
X-173.492 Y-72.588 Z0.679 I0 J0.162
X-173.492 Y-72.912 Z0.633 I0 J-0.162
X-173.492 Y-72.588 Z0.588 I0 J0.162
X-173.492 Y-72.912 Z0.542 I0 J-0.162
X-173.492 Y-72.588 Z0.496 I0 J0.162
X-173.492 Y-72.912 Z0.45 I0 J-0.162
X-173.492 Y-72.588 Z0.404 I0 J0.162
X-173.492 Y-72.912 Z0.358 I0 J-0.162
X-173.492 Y-72.588 Z0.313 I0 J0.162
X-173.492 Y-72.912 Z0.267 I0 J-0.162
X-173.492 Y-72.588 Z0.221 I0 J0.162
X-173.492 Y-72.912 Z0.175 I0 J-0.162
X-173.492 Y-72.588 Z0.129 I0 J0.162
X-173.492 Y-72.912 Z0.083 I0 J-0.162
X-173.492 Y-72.588 Z0.038 I0 J0.162
X-173.492 Y-72.912 Z-0.008 I0 J-0.162
X-173.492 Y-72.588 Z-0.054 I0 J0.162
X-173.492 Y-72.912 Z-0.1 I0 J-0.162
X-173.492 Y-72.588 Z-0.146 I0 J0.162
X-173.492 Y-72.912 Z-0.191 I0 J-0.162
X-173.492 Y-72.588 Z-0.237 I0 J0.162
X-173.492 Y-72.912 Z-0.283 I0 J-0.162
X-173.492 Y-72.588 Z-0.329 I0 J0.162
X-173.492 Y-72.912 Z-0.375 I0 J-0.162
X-173.492 Y-72.588 Z-0.421 I0 J0.162
X-173.492 Y-72.912 Z-0.466 I0 J-0.162
X-173.492 Y-72.588 Z-0.512 I0 J0.162
X-173.492 Y-72.912 Z-0.558 I0 J-0.162
X-173.492 Y-72.588 Z-0.604 I0 J0.162
X-173.492 Y-72.912 Z-0.65 I0 J-0.162
X-173.492 Y-72.588 Z-0.696 I0 J0.162
X-173.492 Y-72.912 Z-0.741 I0 J-0.162
X-173.492 Y-72.588 Z-0.787 I0 J0.162
X-173.492 Y-72.912 Z-0.833 I0 J-0.162
X-173.492 Y-72.588 Z-0.879 I0 J0.162
X-173.492 Y-72.912 Z-0.925 I0 J-0.162
X-173.492 Y-72.588 Z-0.97 I0 J0.162
X-173.492 Y-72.912 Z-1.016 I0 J-0.162
X-173.492 Y-72.588 Z-1.062 I0 J0.162
X-173.492 Y-72.912 Z-1.108 I0 J-0.162
X-173.492 Y-72.588 Z-1.154 I0 J0.162
X-173.492 Y-72.912 Z-1.2 I0 J-0.162
X-173.492 Y-72.588 Z-1.245 I0 J0.162
X-173.492 Y-72.912 Z-1.291 I0 J-0.162
X-173.492 Y-72.588 Z-1.337 I0 J0.162
X-173.492 Y-72.912 Z-1.383 I0 J-0.162
X-173.492 Y-72.588 Z-1.429 I0 J0.162
X-173.492 Y-72.912 Z-1.475 I0 J-0.162
X-173.492 Y-72.588 Z-1.52 I0 J0.162
X-173.492 Y-72.912 Z-1.566 I0 J-0.162
X-173.492 Y-72.588 Z-1.612 I0 J0.162
X-173.492 Y-72.912 Z-1.658 I0 J-0.162
X-173.492 Y-72.588 Z-1.704 I0 J0.162
X-173.492 Y-72.912 Z-1.75 I0 J-0.162
X-173.492 Y-72.588 Z-1.795 I0 J0.162
X-173.492 Y-72.912 Z-1.841 I0 J-0.162
X-173.492 Y-72.588 Z-1.887 I0 J0.162
X-173.492 Y-72.912 Z-1.933 I0 J-0.162
X-173.492 Y-72.588 Z-1.979 I0 J0.162
X-173.492 Y-72.912 Z-2.024 I0 J-0.162
X-173.492 Y-72.588 Z-2.07 I0 J0.162
X-173.492 Y-72.912 Z-2.116 I0 J-0.162
X-173.492 Y-72.588 Z-2.162 I0 J0.162
X-173.492 Y-72.912 Z-2.208 I0 J-0.162
X-173.492 Y-72.588 Z-2.254 I0 J0.162
X-173.492 Y-72.912 Z-2.299 I0 J-0.162
X-173.492 Y-72.588 Z-2.345 I0 J0.162
X-173.492 Y-72.912 Z-2.391 I0 J-0.162
X-173.492 Y-72.588 Z-2.437 I0 J0.162
X-173.492 Y-72.912 Z-2.483 I0 J-0.162
X-173.492 Y-72.588 Z-2.529 I0 J0.162
X-173.492 Y-72.912 Z-2.574 I0 J-0.162
X-173.492 Y-72.588 Z-2.62 I0 J0.162
X-173.492 Y-72.912 Z-2.666 I0 J-0.162
X-173.492 Y-72.588 Z-2.712 I0 J0.162
X-173.492 Y-72.912 Z-2.758 I0 J-0.162
X-173.492 Y-72.588 Z-2.804 I0 J0.162
X-173.492 Y-72.912 Z-2.849 I0 J-0.162
X-173.492 Y-72.588 Z-2.895 I0 J0.162
X-173.492 Y-72.912 Z-2.941 I0 J-0.162
X-173.492 Y-72.588 Z-2.987 I0 J0.162
X-173.492 Y-72.912 Z-3.033 I0 J-0.162
X-173.492 Y-72.588 Z-3.078 I0 J0.162
X-173.492 Y-72.912 Z-3.124 I0 J-0.162
X-173.492 Y-72.588 Z-3.17 I0 J0.162
X-173.492 Y-72.912 Z-3.216 I0 J-0.162
X-173.492 Y-72.588 Z-3.262 I0 J0.162
X-173.492 Y-72.912 Z-3.308 I0 J-0.162
X-173.492 Y-72.588 Z-3.353 I0 J0.162
X-173.492 Y-72.912 Z-3.399 I0 J-0.162
X-173.492 Y-72.588 Z-3.445 I0 J0.162
X-173.492 Y-72.912 Z-3.491 I0 J-0.162
X-173.492 Y-72.588 Z-3.537 I0 J0.162
X-173.492 Y-72.912 Z-3.583 I0 J-0.162
X-173.492 Y-72.588 Z-3.628 I0 J0.162
X-173.492 Y-72.912 Z-3.674 I0 J-0.162
X-173.492 Y-72.588 Z-3.72 I0 J0.162
X-173.492 Y-72.912 Z-3.766 I0 J-0.162
X-173.492 Y-72.588 Z-3.812 I0 J0.162
X-173.492 Y-72.912 Z-3.857 I0 J-0.162
X-173.492 Y-72.588 Z-3.903 I0 J0.162
X-173.492 Y-72.912 Z-3.949 I0 J-0.162
X-173.492 Y-72.588 Z-3.995 I0 J0.162
X-173.492 Y-72.912 Z-4.041 I0 J-0.162
X-173.492 Y-72.588 Z-4.087 I0 J0.162
X-173.492 Y-72.912 Z-4.132 I0 J-0.162
X-173.492 Y-72.588 Z-4.178 I0 J0.162
X-173.492 Y-72.912 Z-4.224 I0 J-0.162
X-173.492 Y-72.588 Z-4.27 I0 J0.162
X-173.636 Y-72.827 Z-4.3 I0 J-0.162
X-173.349 Y-72.673 I0.143 J0.077
X-173.636 Y-72.827 I-0.143 J-0.077
G1 X-173.616 Y-72.851
X-173.588 Y-72.866
X-173.556 Y-72.869
X-173.526 Y-72.86
X-173.386 Y-72.785
Z5
X-188.143 Y-92.423
Z2.682
Z1
Y-92.581
X-188.137 Y-92.612
X-188.119 Y-92.639
X-188.093 Y-92.656
X-188.061 Y-92.662
G3 X-188.061 Y-92.338 Z0.954 I0 J0.162
X-188.061 Y-92.662 Z0.908 I0 J-0.162
X-188.061 Y-92.338 Z0.863 I0 J0.162
X-188.061 Y-92.662 Z0.817 I0 J-0.162
X-188.061 Y-92.338 Z0.771 I0 J0.162
X-188.061 Y-92.662 Z0.725 I0 J-0.162
X-188.061 Y-92.338 Z0.679 I0 J0.162
X-188.061 Y-92.662 Z0.633 I0 J-0.162
X-188.061 Y-92.338 Z0.588 I0 J0.162
X-188.061 Y-92.662 Z0.542 I0 J-0.162
X-188.061 Y-92.338 Z0.496 I0 J0.162
X-188.061 Y-92.662 Z0.45 I0 J-0.162
X-188.061 Y-92.338 Z0.404 I0 J0.162
X-188.061 Y-92.662 Z0.358 I0 J-0.162
X-188.061 Y-92.338 Z0.313 I0 J0.162
X-188.061 Y-92.662 Z0.267 I0 J-0.162
X-188.061 Y-92.338 Z0.221 I0 J0.162
X-188.061 Y-92.662 Z0.175 I0 J-0.162
X-188.061 Y-92.338 Z0.129 I0 J0.162
X-188.061 Y-92.662 Z0.083 I0 J-0.162
X-188.061 Y-92.337 Z0.038 I0 J0.162
X-188.061 Y-92.663 Z-0.008 I0 J-0.163
X-188.061 Y-92.337 Z-0.054 I0 J0.163
X-188.061 Y-92.663 Z-0.1 I0 J-0.163
X-188.061 Y-92.337 Z-0.146 I0 J0.163
X-188.061 Y-92.663 Z-0.191 I0 J-0.163
X-188.061 Y-92.337 Z-0.237 I0 J0.163
X-188.061 Y-92.663 Z-0.283 I0 J-0.163
X-188.061 Y-92.337 Z-0.329 I0 J0.163
X-188.061 Y-92.663 Z-0.375 I0 J-0.163
X-188.061 Y-92.337 Z-0.421 I0 J0.163
X-188.061 Y-92.663 Z-0.466 I0 J-0.163
X-188.061 Y-92.337 Z-0.512 I0 J0.163
X-188.061 Y-92.663 Z-0.558 I0 J-0.163
X-188.061 Y-92.337 Z-0.604 I0 J0.163
X-188.061 Y-92.663 Z-0.65 I0 J-0.163
X-188.061 Y-92.337 Z-0.696 I0 J0.163
X-188.061 Y-92.663 Z-0.741 I0 J-0.163
X-188.061 Y-92.337 Z-0.787 I0 J0.163
X-188.061 Y-92.663 Z-0.833 I0 J-0.163
X-188.061 Y-92.337 Z-0.879 I0 J0.163
X-188.061 Y-92.663 Z-0.925 I0 J-0.163
X-188.061 Y-92.337 Z-0.97 I0 J0.163
X-188.061 Y-92.663 Z-1.016 I0 J-0.163
X-188.061 Y-92.337 Z-1.062 I0 J0.163
X-188.061 Y-92.663 Z-1.108 I0 J-0.163
X-188.061 Y-92.337 Z-1.154 I0 J0.163
X-188.061 Y-92.663 Z-1.2 I0 J-0.163
X-188.061 Y-92.337 Z-1.245 I0 J0.163
X-188.061 Y-92.663 Z-1.291 I0 J-0.163
X-188.061 Y-92.337 Z-1.337 I0 J0.163
X-188.061 Y-92.663 Z-1.383 I0 J-0.163
X-188.061 Y-92.337 Z-1.429 I0 J0.163
X-188.061 Y-92.663 Z-1.475 I0 J-0.163
X-188.061 Y-92.337 Z-1.52 I0 J0.163
X-188.061 Y-92.663 Z-1.566 I0 J-0.163
X-188.061 Y-92.337 Z-1.612 I0 J0.163
X-188.061 Y-92.663 Z-1.658 I0 J-0.163
X-188.061 Y-92.337 Z-1.704 I0 J0.163
X-188.061 Y-92.663 Z-1.75 I0 J-0.163
X-188.061 Y-92.337 Z-1.795 I0 J0.163
X-188.061 Y-92.663 Z-1.841 I0 J-0.163
X-188.061 Y-92.337 Z-1.887 I0 J0.163
X-188.061 Y-92.663 Z-1.933 I0 J-0.163
X-188.061 Y-92.337 Z-1.979 I0 J0.163
X-188.061 Y-92.663 Z-2.024 I0 J-0.163
X-188.061 Y-92.337 Z-2.07 I0 J0.163
X-188.061 Y-92.663 Z-2.116 I0 J-0.163
X-188.061 Y-92.337 Z-2.162 I0 J0.163
X-188.061 Y-92.663 Z-2.208 I0 J-0.163
X-188.061 Y-92.337 Z-2.254 I0 J0.163
X-188.061 Y-92.663 Z-2.299 I0 J-0.163
X-188.061 Y-92.337 Z-2.345 I0 J0.163
X-188.061 Y-92.663 Z-2.391 I0 J-0.163
X-188.061 Y-92.337 Z-2.437 I0 J0.163
X-188.061 Y-92.663 Z-2.483 I0 J-0.163
X-188.061 Y-92.337 Z-2.529 I0 J0.163
X-188.061 Y-92.663 Z-2.574 I0 J-0.163
X-188.061 Y-92.337 Z-2.62 I0 J0.163
X-188.061 Y-92.663 Z-2.666 I0 J-0.163
X-188.061 Y-92.337 Z-2.712 I0 J0.163
X-188.061 Y-92.663 Z-2.758 I0 J-0.163
X-188.061 Y-92.337 Z-2.804 I0 J0.163
X-188.061 Y-92.663 Z-2.849 I0 J-0.163
X-188.061 Y-92.337 Z-2.895 I0 J0.163
X-188.061 Y-92.663 Z-2.941 I0 J-0.163
X-188.061 Y-92.337 Z-2.987 I0 J0.163
X-188.061 Y-92.663 Z-3.033 I0 J-0.163
X-188.061 Y-92.337 Z-3.078 I0 J0.163
X-188.061 Y-92.663 Z-3.124 I0 J-0.163
X-188.061 Y-92.337 Z-3.17 I0 J0.163
X-188.061 Y-92.663 Z-3.216 I0 J-0.163
X-188.061 Y-92.337 Z-3.262 I0 J0.163
X-188.061 Y-92.663 Z-3.308 I0 J-0.163
X-188.061 Y-92.337 Z-3.353 I0 J0.163
X-188.061 Y-92.663 Z-3.399 I0 J-0.163
X-188.061 Y-92.337 Z-3.445 I0 J0.163
X-188.061 Y-92.663 Z-3.491 I0 J-0.163
X-188.061 Y-92.337 Z-3.537 I0 J0.163
X-188.061 Y-92.663 Z-3.583 I0 J-0.163
X-188.061 Y-92.337 Z-3.628 I0 J0.163
X-188.061 Y-92.663 Z-3.674 I0 J-0.163
X-188.061 Y-92.337 Z-3.72 I0 J0.163
X-188.061 Y-92.663 Z-3.766 I0 J-0.163
X-188.061 Y-92.337 Z-3.812 I0 J0.163
X-188.061 Y-92.663 Z-3.857 I0 J-0.163
X-188.061 Y-92.337 Z-3.903 I0 J0.163
X-188.061 Y-92.663 Z-3.949 I0 J-0.163
X-188.061 Y-92.337 Z-3.995 I0 J0.163
X-188.061 Y-92.663 Z-4.041 I0 J-0.163
X-188.061 Y-92.337 Z-4.087 I0 J0.163
X-188.061 Y-92.663 Z-4.132 I0 J-0.163
X-188.061 Y-92.337 Z-4.178 I0 J0.163
X-188.061 Y-92.663 Z-4.224 I0 J-0.163
X-188.061 Y-92.337 Z-4.27 I0 J0.163
X-188.205 Y-92.577 Z-4.3 I0 J-0.163
X-187.918 Y-92.423 I0.143 J0.077
X-188.205 Y-92.577 I-0.143 J-0.077
G1 X-188.185 Y-92.601
X-188.157 Y-92.616
X-188.125 Y-92.619
X-188.095 Y-92.61
X-187.955 Y-92.535
Z5
X-207.324 Y-123.423
Z2.682
Z1
Y-123.581
X-207.317 Y-123.612
X-207.3 Y-123.639
X-207.274 Y-123.656
X-207.242 Y-123.662
G3 X-207.242 Y-123.338 Z0.954 I0 J0.162
X-207.242 Y-123.662 Z0.908 I0 J-0.162
X-207.242 Y-123.338 Z0.863 I0 J0.162
X-207.242 Y-123.662 Z0.817 I0 J-0.162
X-207.242 Y-123.338 Z0.771 I0 J0.162
X-207.242 Y-123.662 Z0.725 I0 J-0.162
X-207.242 Y-123.338 Z0.679 I0 J0.162
X-207.242 Y-123.662 Z0.633 I0 J-0.162
X-207.242 Y-123.338 Z0.588 I0 J0.162
X-207.242 Y-123.662 Z0.542 I0 J-0.162
X-207.242 Y-123.338 Z0.496 I0 J0.162
X-207.242 Y-123.662 Z0.45 I0 J-0.162
X-207.242 Y-123.338 Z0.404 I0 J0.162
X-207.242 Y-123.662 Z0.358 I0 J-0.162
X-207.242 Y-123.338 Z0.313 I0 J0.162
X-207.242 Y-123.662 Z0.267 I0 J-0.162
X-207.242 Y-123.338 Z0.221 I0 J0.162
X-207.242 Y-123.662 Z0.175 I0 J-0.162
X-207.242 Y-123.338 Z0.129 I0 J0.162
X-207.242 Y-123.662 Z0.083 I0 J-0.162
X-207.242 Y-123.338 Z0.038 I0 J0.162
X-207.242 Y-123.662 Z-0.008 I0 J-0.162
X-207.242 Y-123.338 Z-0.054 I0 J0.162
X-207.242 Y-123.662 Z-0.1 I0 J-0.162
X-207.242 Y-123.338 Z-0.146 I0 J0.162
X-207.242 Y-123.662 Z-0.191 I0 J-0.162
X-207.242 Y-123.338 Z-0.237 I0 J0.162
X-207.242 Y-123.662 Z-0.283 I0 J-0.162
X-207.242 Y-123.338 Z-0.329 I0 J0.162
X-207.242 Y-123.662 Z-0.375 I0 J-0.162
X-207.242 Y-123.338 Z-0.421 I0 J0.162
X-207.242 Y-123.662 Z-0.466 I0 J-0.162
X-207.242 Y-123.338 Z-0.512 I0 J0.162
X-207.242 Y-123.662 Z-0.558 I0 J-0.162
X-207.242 Y-123.338 Z-0.604 I0 J0.162
X-207.242 Y-123.662 Z-0.65 I0 J-0.162
X-207.242 Y-123.338 Z-0.696 I0 J0.162
X-207.242 Y-123.662 Z-0.741 I0 J-0.162
X-207.242 Y-123.338 Z-0.787 I0 J0.162
X-207.242 Y-123.662 Z-0.833 I0 J-0.162
X-207.242 Y-123.338 Z-0.879 I0 J0.162
X-207.242 Y-123.662 Z-0.925 I0 J-0.162
X-207.242 Y-123.338 Z-0.97 I0 J0.162
X-207.242 Y-123.662 Z-1.016 I0 J-0.162
X-207.242 Y-123.338 Z-1.062 I0 J0.162
X-207.242 Y-123.662 Z-1.108 I0 J-0.162
X-207.242 Y-123.338 Z-1.154 I0 J0.162
X-207.242 Y-123.662 Z-1.2 I0 J-0.162
X-207.242 Y-123.338 Z-1.245 I0 J0.162
X-207.242 Y-123.662 Z-1.291 I0 J-0.162
X-207.242 Y-123.338 Z-1.337 I0 J0.162
X-207.242 Y-123.662 Z-1.383 I0 J-0.162
X-207.242 Y-123.338 Z-1.429 I0 J0.162
X-207.242 Y-123.662 Z-1.475 I0 J-0.162
X-207.242 Y-123.338 Z-1.52 I0 J0.162
X-207.242 Y-123.662 Z-1.566 I0 J-0.162
X-207.242 Y-123.338 Z-1.612 I0 J0.162
X-207.242 Y-123.662 Z-1.658 I0 J-0.162
X-207.242 Y-123.338 Z-1.704 I0 J0.162
X-207.242 Y-123.662 Z-1.75 I0 J-0.162
X-207.242 Y-123.338 Z-1.795 I0 J0.162
X-207.242 Y-123.662 Z-1.841 I0 J-0.162
X-207.242 Y-123.338 Z-1.887 I0 J0.162
X-207.242 Y-123.662 Z-1.933 I0 J-0.162
X-207.242 Y-123.338 Z-1.979 I0 J0.162
X-207.242 Y-123.662 Z-2.024 I0 J-0.162
X-207.242 Y-123.338 Z-2.07 I0 J0.162
X-207.242 Y-123.662 Z-2.116 I0 J-0.162
X-207.242 Y-123.338 Z-2.162 I0 J0.162
X-207.242 Y-123.662 Z-2.208 I0 J-0.162
X-207.242 Y-123.338 Z-2.254 I0 J0.162
X-207.242 Y-123.662 Z-2.299 I0 J-0.162
X-207.242 Y-123.338 Z-2.345 I0 J0.162
X-207.242 Y-123.662 Z-2.391 I0 J-0.162
X-207.242 Y-123.338 Z-2.437 I0 J0.162
X-207.242 Y-123.662 Z-2.483 I0 J-0.162
X-207.242 Y-123.338 Z-2.529 I0 J0.162
X-207.242 Y-123.662 Z-2.574 I0 J-0.162
X-207.242 Y-123.338 Z-2.62 I0 J0.162
X-207.242 Y-123.662 Z-2.666 I0 J-0.162
X-207.242 Y-123.338 Z-2.712 I0 J0.162
X-207.242 Y-123.662 Z-2.758 I0 J-0.162
X-207.242 Y-123.338 Z-2.804 I0 J0.162
X-207.242 Y-123.662 Z-2.849 I0 J-0.162
X-207.242 Y-123.338 Z-2.895 I0 J0.162
X-207.242 Y-123.662 Z-2.941 I0 J-0.162
X-207.242 Y-123.338 Z-2.987 I0 J0.162
X-207.242 Y-123.662 Z-3.033 I0 J-0.162
X-207.242 Y-123.338 Z-3.078 I0 J0.162
X-207.242 Y-123.662 Z-3.124 I0 J-0.162
X-207.242 Y-123.338 Z-3.17 I0 J0.162
X-207.242 Y-123.662 Z-3.216 I0 J-0.162
X-207.242 Y-123.338 Z-3.262 I0 J0.162
X-207.242 Y-123.662 Z-3.308 I0 J-0.162
X-207.242 Y-123.338 Z-3.353 I0 J0.162
X-207.242 Y-123.662 Z-3.399 I0 J-0.162
X-207.242 Y-123.338 Z-3.445 I0 J0.162
X-207.242 Y-123.662 Z-3.491 I0 J-0.162
X-207.242 Y-123.338 Z-3.537 I0 J0.162
X-207.242 Y-123.662 Z-3.583 I0 J-0.162
X-207.242 Y-123.338 Z-3.628 I0 J0.162
X-207.242 Y-123.662 Z-3.674 I0 J-0.162
X-207.242 Y-123.338 Z-3.72 I0 J0.162
X-207.242 Y-123.662 Z-3.766 I0 J-0.162
X-207.242 Y-123.338 Z-3.812 I0 J0.162
X-207.242 Y-123.662 Z-3.857 I0 J-0.162
X-207.242 Y-123.338 Z-3.903 I0 J0.162
X-207.242 Y-123.662 Z-3.949 I0 J-0.162
X-207.242 Y-123.338 Z-3.995 I0 J0.162
X-207.242 Y-123.662 Z-4.041 I0 J-0.162
X-207.242 Y-123.338 Z-4.087 I0 J0.162
X-207.242 Y-123.662 Z-4.132 I0 J-0.162
X-207.242 Y-123.338 Z-4.178 I0 J0.162
X-207.242 Y-123.662 Z-4.224 I0 J-0.162
X-207.242 Y-123.338 Z-4.27 I0 J0.162
X-207.386 Y-123.577 Z-4.3 I0 J-0.162
X-207.099 Y-123.423 I0.143 J0.077
X-207.386 Y-123.577 I-0.143 J-0.077
G1 X-207.366 Y-123.601
X-207.338 Y-123.616
X-207.306 Y-123.619
X-207.276 Y-123.61
X-207.136 Y-123.535
Z5
X-237.324 Y-123.423
Z2.682
Z1
Y-123.581
X-237.317 Y-123.612
X-237.3 Y-123.639
X-237.274 Y-123.656
X-237.242 Y-123.662
G3 X-237.242 Y-123.338 Z0.954 I0 J0.162
X-237.242 Y-123.662 Z0.908 I0 J-0.162
X-237.242 Y-123.338 Z0.863 I0 J0.162
X-237.242 Y-123.662 Z0.817 I0 J-0.162
X-237.242 Y-123.338 Z0.771 I0 J0.162
X-237.242 Y-123.662 Z0.725 I0 J-0.162
X-237.242 Y-123.338 Z0.679 I0 J0.162
X-237.242 Y-123.662 Z0.633 I0 J-0.162
X-237.242 Y-123.338 Z0.588 I0 J0.162
X-237.242 Y-123.662 Z0.542 I0 J-0.162
X-237.242 Y-123.338 Z0.496 I0 J0.162
X-237.242 Y-123.662 Z0.45 I0 J-0.162
X-237.242 Y-123.338 Z0.404 I0 J0.162
X-237.242 Y-123.662 Z0.358 I0 J-0.162
X-237.242 Y-123.338 Z0.313 I0 J0.162
X-237.242 Y-123.662 Z0.267 I0 J-0.162
X-237.242 Y-123.338 Z0.221 I0 J0.162
X-237.242 Y-123.662 Z0.175 I0 J-0.162
X-237.242 Y-123.338 Z0.129 I0 J0.162
X-237.242 Y-123.662 Z0.083 I0 J-0.162
X-237.242 Y-123.338 Z0.038 I0 J0.162
X-237.242 Y-123.662 Z-0.008 I0 J-0.162
X-237.242 Y-123.338 Z-0.054 I0 J0.162
X-237.242 Y-123.662 Z-0.1 I0 J-0.162
X-237.242 Y-123.338 Z-0.146 I0 J0.162
X-237.242 Y-123.662 Z-0.191 I0 J-0.162
X-237.242 Y-123.338 Z-0.237 I0 J0.162
X-237.242 Y-123.662 Z-0.283 I0 J-0.162
X-237.242 Y-123.338 Z-0.329 I0 J0.162
X-237.242 Y-123.662 Z-0.375 I0 J-0.162
X-237.242 Y-123.338 Z-0.421 I0 J0.162
X-237.242 Y-123.662 Z-0.466 I0 J-0.162
X-237.242 Y-123.338 Z-0.512 I0 J0.162
X-237.242 Y-123.662 Z-0.558 I0 J-0.162
X-237.242 Y-123.338 Z-0.604 I0 J0.162
X-237.242 Y-123.662 Z-0.65 I0 J-0.162
X-237.242 Y-123.338 Z-0.696 I0 J0.162
X-237.242 Y-123.662 Z-0.741 I0 J-0.162
X-237.242 Y-123.338 Z-0.787 I0 J0.162
X-237.242 Y-123.662 Z-0.833 I0 J-0.162
X-237.242 Y-123.338 Z-0.879 I0 J0.162
X-237.242 Y-123.662 Z-0.925 I0 J-0.162
X-237.242 Y-123.338 Z-0.97 I0 J0.162
X-237.242 Y-123.662 Z-1.016 I0 J-0.162
X-237.242 Y-123.338 Z-1.062 I0 J0.162
X-237.242 Y-123.662 Z-1.108 I0 J-0.162
X-237.242 Y-123.338 Z-1.154 I0 J0.162
X-237.242 Y-123.662 Z-1.2 I0 J-0.162
X-237.242 Y-123.338 Z-1.245 I0 J0.162
X-237.242 Y-123.662 Z-1.291 I0 J-0.162
X-237.242 Y-123.338 Z-1.337 I0 J0.162
X-237.242 Y-123.662 Z-1.383 I0 J-0.162
X-237.242 Y-123.338 Z-1.429 I0 J0.162
X-237.242 Y-123.662 Z-1.475 I0 J-0.162
X-237.242 Y-123.338 Z-1.52 I0 J0.162
X-237.242 Y-123.662 Z-1.566 I0 J-0.162
X-237.242 Y-123.338 Z-1.612 I0 J0.162
X-237.242 Y-123.662 Z-1.658 I0 J-0.162
X-237.242 Y-123.338 Z-1.704 I0 J0.162
X-237.242 Y-123.662 Z-1.75 I0 J-0.162
X-237.242 Y-123.338 Z-1.795 I0 J0.162
X-237.242 Y-123.662 Z-1.841 I0 J-0.162
X-237.242 Y-123.338 Z-1.887 I0 J0.162
X-237.242 Y-123.662 Z-1.933 I0 J-0.162
X-237.242 Y-123.338 Z-1.979 I0 J0.162
X-237.242 Y-123.662 Z-2.024 I0 J-0.162
X-237.242 Y-123.338 Z-2.07 I0 J0.162
X-237.242 Y-123.662 Z-2.116 I0 J-0.162
X-237.242 Y-123.338 Z-2.162 I0 J0.162
X-237.242 Y-123.662 Z-2.208 I0 J-0.162
X-237.242 Y-123.338 Z-2.254 I0 J0.162
X-237.242 Y-123.662 Z-2.299 I0 J-0.162
X-237.242 Y-123.338 Z-2.345 I0 J0.162
X-237.242 Y-123.662 Z-2.391 I0 J-0.162
X-237.242 Y-123.338 Z-2.437 I0 J0.162
X-237.242 Y-123.662 Z-2.483 I0 J-0.162
X-237.242 Y-123.338 Z-2.529 I0 J0.162
X-237.242 Y-123.662 Z-2.574 I0 J-0.162
X-237.242 Y-123.338 Z-2.62 I0 J0.162
X-237.242 Y-123.662 Z-2.666 I0 J-0.162
X-237.242 Y-123.338 Z-2.712 I0 J0.162
X-237.242 Y-123.662 Z-2.758 I0 J-0.162
X-237.242 Y-123.338 Z-2.804 I0 J0.162
X-237.242 Y-123.662 Z-2.849 I0 J-0.162
X-237.242 Y-123.338 Z-2.895 I0 J0.162
X-237.242 Y-123.662 Z-2.941 I0 J-0.162
X-237.242 Y-123.338 Z-2.987 I0 J0.162
X-237.242 Y-123.662 Z-3.033 I0 J-0.162
X-237.242 Y-123.338 Z-3.078 I0 J0.162
X-237.242 Y-123.662 Z-3.124 I0 J-0.162
X-237.242 Y-123.338 Z-3.17 I0 J0.162
X-237.242 Y-123.662 Z-3.216 I0 J-0.162
X-237.242 Y-123.338 Z-3.262 I0 J0.162
X-237.242 Y-123.662 Z-3.308 I0 J-0.162
X-237.242 Y-123.338 Z-3.353 I0 J0.162
X-237.242 Y-123.662 Z-3.399 I0 J-0.162
X-237.242 Y-123.338 Z-3.445 I0 J0.162
X-237.242 Y-123.662 Z-3.491 I0 J-0.162
X-237.242 Y-123.338 Z-3.537 I0 J0.162
X-237.242 Y-123.662 Z-3.583 I0 J-0.162
X-237.242 Y-123.338 Z-3.628 I0 J0.162
X-237.242 Y-123.662 Z-3.674 I0 J-0.162
X-237.242 Y-123.338 Z-3.72 I0 J0.162
X-237.242 Y-123.662 Z-3.766 I0 J-0.162
X-237.242 Y-123.338 Z-3.812 I0 J0.162
X-237.242 Y-123.662 Z-3.857 I0 J-0.162
X-237.242 Y-123.338 Z-3.903 I0 J0.162
X-237.242 Y-123.662 Z-3.949 I0 J-0.162
X-237.242 Y-123.338 Z-3.995 I0 J0.162
X-237.242 Y-123.662 Z-4.041 I0 J-0.162
X-237.242 Y-123.338 Z-4.087 I0 J0.162
X-237.242 Y-123.662 Z-4.132 I0 J-0.162
X-237.242 Y-123.338 Z-4.178 I0 J0.162
X-237.242 Y-123.662 Z-4.224 I0 J-0.162
X-237.242 Y-123.338 Z-4.27 I0 J0.162
X-237.386 Y-123.577 Z-4.3 I0 J-0.162
X-237.099 Y-123.423 I0.143 J0.077
X-237.386 Y-123.577 I-0.143 J-0.077
G1 X-237.366 Y-123.601
X-237.338 Y-123.616
X-237.306 Y-123.619
X-237.276 Y-123.61
X-237.136 Y-123.535
Z5
X-237.324 Y-161.423
Z2.682
Z1
Y-161.581
X-237.317 Y-161.612
X-237.3 Y-161.639
X-237.274 Y-161.656
X-237.242 Y-161.663
G3 X-237.242 Y-161.337 Z0.954 I0 J0.163
X-237.242 Y-161.663 Z0.908 I0 J-0.163
X-237.242 Y-161.337 Z0.863 I0 J0.163
X-237.242 Y-161.663 Z0.817 I0 J-0.163
X-237.242 Y-161.337 Z0.771 I0 J0.163
X-237.242 Y-161.663 Z0.725 I0 J-0.163
X-237.242 Y-161.337 Z0.679 I0 J0.163
X-237.242 Y-161.663 Z0.633 I0 J-0.163
X-237.242 Y-161.337 Z0.588 I0 J0.163
X-237.242 Y-161.663 Z0.542 I0 J-0.163
X-237.242 Y-161.337 Z0.496 I0 J0.163
X-237.242 Y-161.663 Z0.45 I0 J-0.163
X-237.242 Y-161.337 Z0.404 I0 J0.163
X-237.242 Y-161.663 Z0.358 I0 J-0.163
X-237.242 Y-161.337 Z0.313 I0 J0.163
X-237.242 Y-161.663 Z0.267 I0 J-0.163
X-237.242 Y-161.337 Z0.221 I0 J0.163
X-237.242 Y-161.663 Z0.175 I0 J-0.163
X-237.242 Y-161.337 Z0.129 I0 J0.163
X-237.242 Y-161.663 Z0.083 I0 J-0.163
X-237.242 Y-161.337 Z0.038 I0 J0.163
X-237.242 Y-161.663 Z-0.008 I0 J-0.163
X-237.242 Y-161.337 Z-0.054 I0 J0.163
X-237.242 Y-161.663 Z-0.1 I0 J-0.163
X-237.242 Y-161.337 Z-0.146 I0 J0.163
X-237.242 Y-161.663 Z-0.191 I0 J-0.163
X-237.242 Y-161.337 Z-0.237 I0 J0.163
X-237.242 Y-161.663 Z-0.283 I0 J-0.163
X-237.242 Y-161.337 Z-0.329 I0 J0.163
X-237.242 Y-161.663 Z-0.375 I0 J-0.163
X-237.242 Y-161.337 Z-0.421 I0 J0.163
X-237.242 Y-161.663 Z-0.466 I0 J-0.163
X-237.242 Y-161.337 Z-0.512 I0 J0.163
X-237.242 Y-161.663 Z-0.558 I0 J-0.163
X-237.242 Y-161.337 Z-0.604 I0 J0.163
X-237.242 Y-161.663 Z-0.65 I0 J-0.163
X-237.242 Y-161.337 Z-0.696 I0 J0.163
X-237.242 Y-161.663 Z-0.741 I0 J-0.163
X-237.242 Y-161.337 Z-0.787 I0 J0.163
X-237.242 Y-161.663 Z-0.833 I0 J-0.163
X-237.242 Y-161.337 Z-0.879 I0 J0.163
X-237.242 Y-161.663 Z-0.925 I0 J-0.163
X-237.242 Y-161.337 Z-0.97 I0 J0.163
X-237.242 Y-161.663 Z-1.016 I0 J-0.163
X-237.242 Y-161.337 Z-1.062 I0 J0.163
X-237.242 Y-161.663 Z-1.108 I0 J-0.163
X-237.242 Y-161.337 Z-1.154 I0 J0.163
X-237.242 Y-161.663 Z-1.2 I0 J-0.163
X-237.242 Y-161.337 Z-1.245 I0 J0.163
X-237.242 Y-161.663 Z-1.291 I0 J-0.163
X-237.242 Y-161.337 Z-1.337 I0 J0.163
X-237.242 Y-161.663 Z-1.383 I0 J-0.163
X-237.242 Y-161.337 Z-1.429 I0 J0.163
X-237.242 Y-161.663 Z-1.475 I0 J-0.163
X-237.242 Y-161.337 Z-1.52 I0 J0.163
X-237.242 Y-161.663 Z-1.566 I0 J-0.163
X-237.242 Y-161.337 Z-1.612 I0 J0.163
X-237.242 Y-161.662 Z-1.658 I0 J-0.163
X-237.242 Y-161.338 Z-1.704 I0 J0.162
X-237.242 Y-161.662 Z-1.75 I0 J-0.162
X-237.242 Y-161.338 Z-1.795 I0 J0.162
X-237.242 Y-161.662 Z-1.841 I0 J-0.162
X-237.242 Y-161.338 Z-1.887 I0 J0.162
X-237.242 Y-161.662 Z-1.933 I0 J-0.162
X-237.242 Y-161.338 Z-1.979 I0 J0.162
X-237.242 Y-161.662 Z-2.024 I0 J-0.162
X-237.242 Y-161.338 Z-2.07 I0 J0.162
X-237.242 Y-161.662 Z-2.116 I0 J-0.162
X-237.242 Y-161.338 Z-2.162 I0 J0.162
X-237.242 Y-161.662 Z-2.208 I0 J-0.162
X-237.242 Y-161.338 Z-2.254 I0 J0.162
X-237.242 Y-161.662 Z-2.299 I0 J-0.162
X-237.242 Y-161.338 Z-2.345 I0 J0.162
X-237.242 Y-161.662 Z-2.391 I0 J-0.162
X-237.242 Y-161.338 Z-2.437 I0 J0.162
X-237.242 Y-161.662 Z-2.483 I0 J-0.162
X-237.242 Y-161.338 Z-2.529 I0 J0.162
X-237.242 Y-161.662 Z-2.574 I0 J-0.162
X-237.242 Y-161.338 Z-2.62 I0 J0.162
X-237.242 Y-161.662 Z-2.666 I0 J-0.162
X-237.242 Y-161.338 Z-2.712 I0 J0.162
X-237.242 Y-161.662 Z-2.758 I0 J-0.162
X-237.242 Y-161.338 Z-2.804 I0 J0.162
X-237.242 Y-161.662 Z-2.849 I0 J-0.162
X-237.242 Y-161.338 Z-2.895 I0 J0.162
X-237.242 Y-161.662 Z-2.941 I0 J-0.162
X-237.242 Y-161.338 Z-2.987 I0 J0.162
X-237.242 Y-161.662 Z-3.033 I0 J-0.162
X-237.242 Y-161.338 Z-3.078 I0 J0.162
X-237.242 Y-161.662 Z-3.124 I0 J-0.162
X-237.242 Y-161.338 Z-3.17 I0 J0.162
X-237.242 Y-161.662 Z-3.216 I0 J-0.162
X-237.242 Y-161.338 Z-3.262 I0 J0.162
X-237.242 Y-161.662 Z-3.308 I0 J-0.162
X-237.242 Y-161.338 Z-3.353 I0 J0.162
X-237.242 Y-161.662 Z-3.399 I0 J-0.162
X-237.242 Y-161.338 Z-3.445 I0 J0.162
X-237.242 Y-161.662 Z-3.491 I0 J-0.162
X-237.242 Y-161.338 Z-3.537 I0 J0.162
X-237.242 Y-161.662 Z-3.583 I0 J-0.162
X-237.242 Y-161.338 Z-3.628 I0 J0.162
X-237.242 Y-161.662 Z-3.674 I0 J-0.162
X-237.242 Y-161.338 Z-3.72 I0 J0.162
X-237.242 Y-161.662 Z-3.766 I0 J-0.162
X-237.242 Y-161.338 Z-3.812 I0 J0.162
X-237.242 Y-161.662 Z-3.857 I0 J-0.162
X-237.242 Y-161.338 Z-3.903 I0 J0.162
X-237.242 Y-161.662 Z-3.949 I0 J-0.162
X-237.242 Y-161.338 Z-3.995 I0 J0.162
X-237.242 Y-161.662 Z-4.041 I0 J-0.162
X-237.242 Y-161.338 Z-4.087 I0 J0.162
X-237.242 Y-161.662 Z-4.132 I0 J-0.162
X-237.242 Y-161.338 Z-4.178 I0 J0.162
X-237.242 Y-161.662 Z-4.224 I0 J-0.162
X-237.242 Y-161.338 Z-4.27 I0 J0.162
X-237.386 Y-161.577 Z-4.3 I0 J-0.162
X-237.099 Y-161.423 I0.143 J0.077
X-237.386 Y-161.577 I-0.143 J-0.077
G1 X-237.366 Y-161.601
X-237.338 Y-161.616
X-237.306 Y-161.619
X-237.276 Y-161.61
X-237.136 Y-161.535
Z5
X-207.324 Y-161.423
Z2.682
Z1
Y-161.581
X-207.317 Y-161.612
X-207.3 Y-161.639
X-207.274 Y-161.656
X-207.242 Y-161.663
G3 X-207.242 Y-161.337 Z0.954 I0 J0.163
X-207.242 Y-161.663 Z0.908 I0 J-0.163
X-207.242 Y-161.337 Z0.863 I0 J0.163
X-207.242 Y-161.663 Z0.817 I0 J-0.163
X-207.242 Y-161.337 Z0.771 I0 J0.163
X-207.242 Y-161.663 Z0.725 I0 J-0.163
X-207.242 Y-161.337 Z0.679 I0 J0.163
X-207.242 Y-161.663 Z0.633 I0 J-0.163
X-207.242 Y-161.337 Z0.588 I0 J0.163
X-207.242 Y-161.663 Z0.542 I0 J-0.163
X-207.242 Y-161.337 Z0.496 I0 J0.163
X-207.242 Y-161.663 Z0.45 I0 J-0.163
X-207.242 Y-161.337 Z0.404 I0 J0.163
X-207.242 Y-161.663 Z0.358 I0 J-0.163
X-207.242 Y-161.337 Z0.313 I0 J0.163
X-207.242 Y-161.663 Z0.267 I0 J-0.163
X-207.242 Y-161.337 Z0.221 I0 J0.163
X-207.242 Y-161.663 Z0.175 I0 J-0.163
X-207.242 Y-161.337 Z0.129 I0 J0.163
X-207.242 Y-161.663 Z0.083 I0 J-0.163
X-207.242 Y-161.337 Z0.038 I0 J0.163
X-207.242 Y-161.663 Z-0.008 I0 J-0.163
X-207.242 Y-161.337 Z-0.054 I0 J0.163
X-207.242 Y-161.663 Z-0.1 I0 J-0.163
X-207.242 Y-161.337 Z-0.146 I0 J0.163
X-207.242 Y-161.663 Z-0.191 I0 J-0.163
X-207.242 Y-161.337 Z-0.237 I0 J0.163
X-207.242 Y-161.663 Z-0.283 I0 J-0.163
X-207.242 Y-161.337 Z-0.329 I0 J0.163
X-207.242 Y-161.663 Z-0.375 I0 J-0.163
X-207.242 Y-161.337 Z-0.421 I0 J0.163
X-207.242 Y-161.663 Z-0.466 I0 J-0.163
X-207.242 Y-161.337 Z-0.512 I0 J0.163
X-207.242 Y-161.663 Z-0.558 I0 J-0.163
X-207.242 Y-161.337 Z-0.604 I0 J0.163
X-207.242 Y-161.663 Z-0.65 I0 J-0.163
X-207.242 Y-161.337 Z-0.696 I0 J0.163
X-207.242 Y-161.663 Z-0.741 I0 J-0.163
X-207.242 Y-161.337 Z-0.787 I0 J0.163
X-207.242 Y-161.663 Z-0.833 I0 J-0.163
X-207.242 Y-161.337 Z-0.879 I0 J0.163
X-207.242 Y-161.663 Z-0.925 I0 J-0.163
X-207.242 Y-161.337 Z-0.97 I0 J0.163
X-207.242 Y-161.663 Z-1.016 I0 J-0.163
X-207.242 Y-161.337 Z-1.062 I0 J0.163
X-207.242 Y-161.663 Z-1.108 I0 J-0.163
X-207.242 Y-161.337 Z-1.154 I0 J0.163
X-207.242 Y-161.663 Z-1.2 I0 J-0.163
X-207.242 Y-161.337 Z-1.245 I0 J0.163
X-207.242 Y-161.663 Z-1.291 I0 J-0.163
X-207.242 Y-161.337 Z-1.337 I0 J0.163
X-207.242 Y-161.663 Z-1.383 I0 J-0.163
X-207.242 Y-161.337 Z-1.429 I0 J0.163
X-207.242 Y-161.663 Z-1.475 I0 J-0.163
X-207.242 Y-161.337 Z-1.52 I0 J0.163
X-207.242 Y-161.663 Z-1.566 I0 J-0.163
X-207.242 Y-161.337 Z-1.612 I0 J0.163
X-207.242 Y-161.662 Z-1.658 I0 J-0.163
X-207.242 Y-161.338 Z-1.704 I0 J0.162
X-207.242 Y-161.662 Z-1.75 I0 J-0.162
X-207.242 Y-161.338 Z-1.795 I0 J0.162
X-207.242 Y-161.662 Z-1.841 I0 J-0.162
X-207.242 Y-161.338 Z-1.887 I0 J0.162
X-207.242 Y-161.662 Z-1.933 I0 J-0.162
X-207.242 Y-161.338 Z-1.979 I0 J0.162
X-207.242 Y-161.662 Z-2.024 I0 J-0.162
X-207.242 Y-161.338 Z-2.07 I0 J0.162
X-207.242 Y-161.662 Z-2.116 I0 J-0.162
X-207.242 Y-161.338 Z-2.162 I0 J0.162
X-207.242 Y-161.662 Z-2.208 I0 J-0.162
X-207.242 Y-161.338 Z-2.254 I0 J0.162
X-207.242 Y-161.662 Z-2.299 I0 J-0.162
X-207.242 Y-161.338 Z-2.345 I0 J0.162
X-207.242 Y-161.662 Z-2.391 I0 J-0.162
X-207.242 Y-161.338 Z-2.437 I0 J0.162
X-207.242 Y-161.662 Z-2.483 I0 J-0.162
X-207.242 Y-161.338 Z-2.529 I0 J0.162
X-207.242 Y-161.662 Z-2.574 I0 J-0.162
X-207.242 Y-161.338 Z-2.62 I0 J0.162
X-207.242 Y-161.662 Z-2.666 I0 J-0.162
X-207.242 Y-161.338 Z-2.712 I0 J0.162
X-207.242 Y-161.662 Z-2.758 I0 J-0.162
X-207.242 Y-161.338 Z-2.804 I0 J0.162
X-207.242 Y-161.662 Z-2.849 I0 J-0.162
X-207.242 Y-161.338 Z-2.895 I0 J0.162
X-207.242 Y-161.662 Z-2.941 I0 J-0.162
X-207.242 Y-161.338 Z-2.987 I0 J0.162
X-207.242 Y-161.662 Z-3.033 I0 J-0.162
X-207.242 Y-161.338 Z-3.078 I0 J0.162
X-207.242 Y-161.662 Z-3.124 I0 J-0.162
X-207.242 Y-161.338 Z-3.17 I0 J0.162
X-207.242 Y-161.662 Z-3.216 I0 J-0.162
X-207.242 Y-161.338 Z-3.262 I0 J0.162
X-207.242 Y-161.662 Z-3.308 I0 J-0.162
X-207.242 Y-161.338 Z-3.353 I0 J0.162
X-207.242 Y-161.662 Z-3.399 I0 J-0.162
X-207.242 Y-161.338 Z-3.445 I0 J0.162
X-207.242 Y-161.662 Z-3.491 I0 J-0.162
X-207.242 Y-161.338 Z-3.537 I0 J0.162
X-207.242 Y-161.662 Z-3.583 I0 J-0.162
X-207.242 Y-161.338 Z-3.628 I0 J0.162
X-207.242 Y-161.662 Z-3.674 I0 J-0.162
X-207.242 Y-161.338 Z-3.72 I0 J0.162
X-207.242 Y-161.662 Z-3.766 I0 J-0.162
X-207.242 Y-161.338 Z-3.812 I0 J0.162
X-207.242 Y-161.662 Z-3.857 I0 J-0.162
X-207.242 Y-161.338 Z-3.903 I0 J0.162
X-207.242 Y-161.662 Z-3.949 I0 J-0.162
X-207.242 Y-161.338 Z-3.995 I0 J0.162
X-207.242 Y-161.662 Z-4.041 I0 J-0.162
X-207.242 Y-161.338 Z-4.087 I0 J0.162
X-207.242 Y-161.662 Z-4.132 I0 J-0.162
X-207.242 Y-161.338 Z-4.178 I0 J0.162
X-207.242 Y-161.662 Z-4.224 I0 J-0.162
X-207.242 Y-161.338 Z-4.27 I0 J0.162
X-207.386 Y-161.577 Z-4.3 I0 J-0.162
X-207.099 Y-161.423 I0.143 J0.077
X-207.386 Y-161.577 I-0.143 J-0.077
G1 X-207.366 Y-161.601
X-207.338 Y-161.616
X-207.306 Y-161.619
X-207.276 Y-161.61
X-207.136 Y-161.535
Z5
X-162.324 Y-161.423
Z2.682
Z1
Y-161.581
X-162.317 Y-161.612
X-162.3 Y-161.639
X-162.274 Y-161.656
X-162.242 Y-161.663
G3 X-162.242 Y-161.337 Z0.954 I0 J0.163
X-162.242 Y-161.663 Z0.908 I0 J-0.163
X-162.242 Y-161.337 Z0.863 I0 J0.163
X-162.242 Y-161.663 Z0.817 I0 J-0.163
X-162.242 Y-161.337 Z0.771 I0 J0.163
X-162.242 Y-161.663 Z0.725 I0 J-0.163
X-162.242 Y-161.337 Z0.679 I0 J0.163
X-162.242 Y-161.663 Z0.633 I0 J-0.163
X-162.242 Y-161.337 Z0.588 I0 J0.163
X-162.242 Y-161.663 Z0.542 I0 J-0.163
X-162.242 Y-161.337 Z0.496 I0 J0.163
X-162.242 Y-161.663 Z0.45 I0 J-0.163
X-162.242 Y-161.337 Z0.404 I0 J0.163
X-162.242 Y-161.663 Z0.358 I0 J-0.163
X-162.242 Y-161.337 Z0.313 I0 J0.163
X-162.242 Y-161.663 Z0.267 I0 J-0.163
X-162.242 Y-161.337 Z0.221 I0 J0.163
X-162.242 Y-161.663 Z0.175 I0 J-0.163
X-162.242 Y-161.337 Z0.129 I0 J0.163
X-162.242 Y-161.663 Z0.083 I0 J-0.163
X-162.242 Y-161.337 Z0.038 I0 J0.163
X-162.242 Y-161.663 Z-0.008 I0 J-0.163
X-162.242 Y-161.337 Z-0.054 I0 J0.163
X-162.242 Y-161.663 Z-0.1 I0 J-0.163
X-162.242 Y-161.337 Z-0.146 I0 J0.163
X-162.242 Y-161.663 Z-0.191 I0 J-0.163
X-162.242 Y-161.337 Z-0.237 I0 J0.163
X-162.242 Y-161.663 Z-0.283 I0 J-0.163
X-162.242 Y-161.337 Z-0.329 I0 J0.163
X-162.242 Y-161.663 Z-0.375 I0 J-0.163
X-162.242 Y-161.337 Z-0.421 I0 J0.163
X-162.242 Y-161.663 Z-0.466 I0 J-0.163
X-162.242 Y-161.337 Z-0.512 I0 J0.163
X-162.242 Y-161.663 Z-0.558 I0 J-0.163
X-162.242 Y-161.337 Z-0.604 I0 J0.163
X-162.242 Y-161.663 Z-0.65 I0 J-0.163
X-162.242 Y-161.337 Z-0.696 I0 J0.163
X-162.242 Y-161.663 Z-0.741 I0 J-0.163
X-162.242 Y-161.337 Z-0.787 I0 J0.163
X-162.242 Y-161.663 Z-0.833 I0 J-0.163
X-162.242 Y-161.337 Z-0.879 I0 J0.163
X-162.242 Y-161.663 Z-0.925 I0 J-0.163
X-162.242 Y-161.337 Z-0.97 I0 J0.163
X-162.242 Y-161.663 Z-1.016 I0 J-0.163
X-162.242 Y-161.337 Z-1.062 I0 J0.163
X-162.242 Y-161.663 Z-1.108 I0 J-0.163
X-162.242 Y-161.337 Z-1.154 I0 J0.163
X-162.242 Y-161.663 Z-1.2 I0 J-0.163
X-162.242 Y-161.337 Z-1.245 I0 J0.163
X-162.242 Y-161.663 Z-1.291 I0 J-0.163
X-162.242 Y-161.337 Z-1.337 I0 J0.163
X-162.242 Y-161.663 Z-1.383 I0 J-0.163
X-162.242 Y-161.337 Z-1.429 I0 J0.163
X-162.242 Y-161.663 Z-1.475 I0 J-0.163
X-162.242 Y-161.337 Z-1.52 I0 J0.163
X-162.242 Y-161.663 Z-1.566 I0 J-0.163
X-162.242 Y-161.337 Z-1.612 I0 J0.163
X-162.242 Y-161.662 Z-1.658 I0 J-0.163
X-162.242 Y-161.338 Z-1.704 I0 J0.162
X-162.242 Y-161.662 Z-1.75 I0 J-0.162
X-162.242 Y-161.338 Z-1.795 I0 J0.162
X-162.242 Y-161.662 Z-1.841 I0 J-0.162
X-162.242 Y-161.338 Z-1.887 I0 J0.162
X-162.242 Y-161.662 Z-1.933 I0 J-0.162
X-162.242 Y-161.338 Z-1.979 I0 J0.162
X-162.242 Y-161.662 Z-2.024 I0 J-0.162
X-162.242 Y-161.338 Z-2.07 I0 J0.162
X-162.242 Y-161.662 Z-2.116 I0 J-0.162
X-162.242 Y-161.338 Z-2.162 I0 J0.162
X-162.242 Y-161.662 Z-2.208 I0 J-0.162
X-162.242 Y-161.338 Z-2.254 I0 J0.162
X-162.242 Y-161.662 Z-2.299 I0 J-0.162
X-162.242 Y-161.338 Z-2.345 I0 J0.162
X-162.242 Y-161.662 Z-2.391 I0 J-0.162
X-162.242 Y-161.338 Z-2.437 I0 J0.162
X-162.242 Y-161.662 Z-2.483 I0 J-0.162
X-162.242 Y-161.338 Z-2.529 I0 J0.162
X-162.242 Y-161.662 Z-2.574 I0 J-0.162
X-162.242 Y-161.338 Z-2.62 I0 J0.162
X-162.242 Y-161.662 Z-2.666 I0 J-0.162
X-162.242 Y-161.338 Z-2.712 I0 J0.162
X-162.242 Y-161.662 Z-2.758 I0 J-0.162
X-162.242 Y-161.338 Z-2.804 I0 J0.162
X-162.242 Y-161.662 Z-2.849 I0 J-0.162
X-162.242 Y-161.338 Z-2.895 I0 J0.162
X-162.242 Y-161.662 Z-2.941 I0 J-0.162
X-162.242 Y-161.338 Z-2.987 I0 J0.162
X-162.242 Y-161.662 Z-3.033 I0 J-0.162
X-162.242 Y-161.338 Z-3.078 I0 J0.162
X-162.242 Y-161.662 Z-3.124 I0 J-0.162
X-162.242 Y-161.338 Z-3.17 I0 J0.162
X-162.242 Y-161.662 Z-3.216 I0 J-0.162
X-162.242 Y-161.338 Z-3.262 I0 J0.162
X-162.242 Y-161.662 Z-3.308 I0 J-0.162
X-162.242 Y-161.338 Z-3.353 I0 J0.162
X-162.242 Y-161.662 Z-3.399 I0 J-0.162
X-162.242 Y-161.338 Z-3.445 I0 J0.162
X-162.242 Y-161.662 Z-3.491 I0 J-0.162
X-162.242 Y-161.338 Z-3.537 I0 J0.162
X-162.242 Y-161.662 Z-3.583 I0 J-0.162
X-162.242 Y-161.338 Z-3.628 I0 J0.162
X-162.242 Y-161.662 Z-3.674 I0 J-0.162
X-162.242 Y-161.338 Z-3.72 I0 J0.162
X-162.242 Y-161.662 Z-3.766 I0 J-0.162
X-162.242 Y-161.338 Z-3.812 I0 J0.162
X-162.242 Y-161.662 Z-3.857 I0 J-0.162
X-162.242 Y-161.338 Z-3.903 I0 J0.162
X-162.242 Y-161.662 Z-3.949 I0 J-0.162
X-162.242 Y-161.338 Z-3.995 I0 J0.162
X-162.242 Y-161.662 Z-4.041 I0 J-0.162
X-162.242 Y-161.338 Z-4.087 I0 J0.162
X-162.242 Y-161.662 Z-4.132 I0 J-0.162
X-162.242 Y-161.338 Z-4.178 I0 J0.162
X-162.242 Y-161.662 Z-4.224 I0 J-0.162
X-162.242 Y-161.338 Z-4.27 I0 J0.162
X-162.386 Y-161.577 Z-4.3 I0 J-0.162
X-162.099 Y-161.423 I0.143 J0.077
X-162.386 Y-161.577 I-0.143 J-0.077
G1 X-162.366 Y-161.601
X-162.338 Y-161.616
X-162.306 Y-161.619
X-162.276 Y-161.61
X-162.136 Y-161.535
Z5
X-162.324 Y-123.423
Z2.682
Z1
Y-123.581
X-162.317 Y-123.612
X-162.3 Y-123.639
X-162.274 Y-123.656
X-162.242 Y-123.662
G3 X-162.242 Y-123.338 Z0.954 I0 J0.162
X-162.242 Y-123.662 Z0.908 I0 J-0.162
X-162.242 Y-123.338 Z0.863 I0 J0.162
X-162.242 Y-123.662 Z0.817 I0 J-0.162
X-162.242 Y-123.338 Z0.771 I0 J0.162
X-162.242 Y-123.662 Z0.725 I0 J-0.162
X-162.242 Y-123.338 Z0.679 I0 J0.162
X-162.242 Y-123.662 Z0.633 I0 J-0.162
X-162.242 Y-123.338 Z0.588 I0 J0.162
X-162.242 Y-123.662 Z0.542 I0 J-0.162
X-162.242 Y-123.338 Z0.496 I0 J0.162
X-162.242 Y-123.662 Z0.45 I0 J-0.162
X-162.242 Y-123.338 Z0.404 I0 J0.162
X-162.242 Y-123.662 Z0.358 I0 J-0.162
X-162.242 Y-123.338 Z0.313 I0 J0.162
X-162.242 Y-123.662 Z0.267 I0 J-0.162
X-162.242 Y-123.338 Z0.221 I0 J0.162
X-162.242 Y-123.662 Z0.175 I0 J-0.162
X-162.242 Y-123.338 Z0.129 I0 J0.162
X-162.242 Y-123.662 Z0.083 I0 J-0.162
X-162.242 Y-123.338 Z0.038 I0 J0.162
X-162.242 Y-123.662 Z-0.008 I0 J-0.162
X-162.242 Y-123.338 Z-0.054 I0 J0.162
X-162.242 Y-123.662 Z-0.1 I0 J-0.162
X-162.242 Y-123.338 Z-0.146 I0 J0.162
X-162.242 Y-123.662 Z-0.191 I0 J-0.162
X-162.242 Y-123.338 Z-0.237 I0 J0.162
X-162.242 Y-123.662 Z-0.283 I0 J-0.162
X-162.242 Y-123.338 Z-0.329 I0 J0.162
X-162.242 Y-123.662 Z-0.375 I0 J-0.162
X-162.242 Y-123.338 Z-0.421 I0 J0.162
X-162.242 Y-123.662 Z-0.466 I0 J-0.162
X-162.242 Y-123.338 Z-0.512 I0 J0.162
X-162.242 Y-123.662 Z-0.558 I0 J-0.162
X-162.242 Y-123.338 Z-0.604 I0 J0.162
X-162.242 Y-123.662 Z-0.65 I0 J-0.162
X-162.242 Y-123.338 Z-0.696 I0 J0.162
X-162.242 Y-123.662 Z-0.741 I0 J-0.162
X-162.242 Y-123.338 Z-0.787 I0 J0.162
X-162.242 Y-123.662 Z-0.833 I0 J-0.162
X-162.242 Y-123.338 Z-0.879 I0 J0.162
X-162.242 Y-123.662 Z-0.925 I0 J-0.162
X-162.242 Y-123.338 Z-0.97 I0 J0.162
X-162.242 Y-123.662 Z-1.016 I0 J-0.162
X-162.242 Y-123.338 Z-1.062 I0 J0.162
X-162.242 Y-123.662 Z-1.108 I0 J-0.162
X-162.242 Y-123.338 Z-1.154 I0 J0.162
X-162.242 Y-123.662 Z-1.2 I0 J-0.162
X-162.242 Y-123.338 Z-1.245 I0 J0.162
X-162.242 Y-123.662 Z-1.291 I0 J-0.162
X-162.242 Y-123.338 Z-1.337 I0 J0.162
X-162.242 Y-123.662 Z-1.383 I0 J-0.162
X-162.242 Y-123.338 Z-1.429 I0 J0.162
X-162.242 Y-123.662 Z-1.475 I0 J-0.162
X-162.242 Y-123.338 Z-1.52 I0 J0.162
X-162.242 Y-123.662 Z-1.566 I0 J-0.162
X-162.242 Y-123.338 Z-1.612 I0 J0.162
X-162.242 Y-123.662 Z-1.658 I0 J-0.162
X-162.242 Y-123.338 Z-1.704 I0 J0.162
X-162.242 Y-123.662 Z-1.75 I0 J-0.162
X-162.242 Y-123.338 Z-1.795 I0 J0.162
X-162.242 Y-123.662 Z-1.841 I0 J-0.162
X-162.242 Y-123.338 Z-1.887 I0 J0.162
X-162.242 Y-123.662 Z-1.933 I0 J-0.162
X-162.242 Y-123.338 Z-1.979 I0 J0.162
X-162.242 Y-123.662 Z-2.024 I0 J-0.162
X-162.242 Y-123.338 Z-2.07 I0 J0.162
X-162.242 Y-123.662 Z-2.116 I0 J-0.162
X-162.242 Y-123.338 Z-2.162 I0 J0.162
X-162.242 Y-123.662 Z-2.208 I0 J-0.162
X-162.242 Y-123.338 Z-2.254 I0 J0.162
X-162.242 Y-123.662 Z-2.299 I0 J-0.162
X-162.242 Y-123.338 Z-2.345 I0 J0.162
X-162.242 Y-123.662 Z-2.391 I0 J-0.162
X-162.242 Y-123.338 Z-2.437 I0 J0.162
X-162.242 Y-123.662 Z-2.483 I0 J-0.162
X-162.242 Y-123.338 Z-2.529 I0 J0.162
X-162.242 Y-123.662 Z-2.574 I0 J-0.162
X-162.242 Y-123.338 Z-2.62 I0 J0.162
X-162.242 Y-123.662 Z-2.666 I0 J-0.162
X-162.242 Y-123.338 Z-2.712 I0 J0.162
X-162.242 Y-123.662 Z-2.758 I0 J-0.162
X-162.242 Y-123.338 Z-2.804 I0 J0.162
X-162.242 Y-123.662 Z-2.849 I0 J-0.162
X-162.242 Y-123.338 Z-2.895 I0 J0.162
X-162.242 Y-123.662 Z-2.941 I0 J-0.162
X-162.242 Y-123.338 Z-2.987 I0 J0.162
X-162.242 Y-123.662 Z-3.033 I0 J-0.162
X-162.242 Y-123.338 Z-3.078 I0 J0.162
X-162.242 Y-123.662 Z-3.124 I0 J-0.162
X-162.242 Y-123.338 Z-3.17 I0 J0.162
X-162.242 Y-123.662 Z-3.216 I0 J-0.162
X-162.242 Y-123.338 Z-3.262 I0 J0.162
X-162.242 Y-123.662 Z-3.308 I0 J-0.162
X-162.242 Y-123.338 Z-3.353 I0 J0.162
X-162.242 Y-123.662 Z-3.399 I0 J-0.162
X-162.242 Y-123.338 Z-3.445 I0 J0.162
X-162.242 Y-123.662 Z-3.491 I0 J-0.162
X-162.242 Y-123.338 Z-3.537 I0 J0.162
X-162.242 Y-123.662 Z-3.583 I0 J-0.162
X-162.242 Y-123.338 Z-3.628 I0 J0.162
X-162.242 Y-123.662 Z-3.674 I0 J-0.162
X-162.242 Y-123.338 Z-3.72 I0 J0.162
X-162.242 Y-123.662 Z-3.766 I0 J-0.162
X-162.242 Y-123.338 Z-3.812 I0 J0.162
X-162.242 Y-123.662 Z-3.857 I0 J-0.162
X-162.242 Y-123.338 Z-3.903 I0 J0.162
X-162.242 Y-123.662 Z-3.949 I0 J-0.162
X-162.242 Y-123.338 Z-3.995 I0 J0.162
X-162.242 Y-123.662 Z-4.041 I0 J-0.162
X-162.242 Y-123.338 Z-4.087 I0 J0.162
X-162.242 Y-123.662 Z-4.132 I0 J-0.162
X-162.242 Y-123.338 Z-4.178 I0 J0.162
X-162.242 Y-123.662 Z-4.224 I0 J-0.162
X-162.242 Y-123.338 Z-4.27 I0 J0.162
X-162.386 Y-123.577 Z-4.3 I0 J-0.162
X-162.099 Y-123.423 I0.143 J0.077
X-162.386 Y-123.577 I-0.143 J-0.077
G1 X-162.366 Y-123.601
X-162.338 Y-123.616
X-162.306 Y-123.619
X-162.276 Y-123.61
X-162.136 Y-123.535
Z5
X-128.505 Y-92.423
Z2.682
Z1
Y-92.581
X-128.498 Y-92.612
X-128.481 Y-92.639
X-128.454 Y-92.656
X-128.423 Y-92.662
G3 X-128.423 Y-92.338 Z0.954 I0 J0.162
X-128.423 Y-92.662 Z0.908 I0 J-0.162
X-128.423 Y-92.338 Z0.863 I0 J0.162
X-128.423 Y-92.662 Z0.817 I0 J-0.162
X-128.423 Y-92.338 Z0.771 I0 J0.162
X-128.423 Y-92.662 Z0.725 I0 J-0.162
X-128.423 Y-92.338 Z0.679 I0 J0.162
X-128.423 Y-92.662 Z0.633 I0 J-0.162
X-128.423 Y-92.338 Z0.588 I0 J0.162
X-128.423 Y-92.662 Z0.542 I0 J-0.162
X-128.423 Y-92.338 Z0.496 I0 J0.162
X-128.423 Y-92.662 Z0.45 I0 J-0.162
X-128.423 Y-92.338 Z0.404 I0 J0.162
X-128.423 Y-92.662 Z0.358 I0 J-0.162
X-128.423 Y-92.338 Z0.313 I0 J0.162
X-128.423 Y-92.662 Z0.267 I0 J-0.162
X-128.423 Y-92.338 Z0.221 I0 J0.162
X-128.423 Y-92.662 Z0.175 I0 J-0.162
X-128.423 Y-92.338 Z0.129 I0 J0.162
X-128.423 Y-92.662 Z0.083 I0 J-0.162
X-128.423 Y-92.338 Z0.038 I0 J0.162
X-128.423 Y-92.662 Z-0.008 I0 J-0.162
X-128.423 Y-92.338 Z-0.054 I0 J0.162
X-128.423 Y-92.662 Z-0.1 I0 J-0.162
X-128.423 Y-92.338 Z-0.146 I0 J0.162
X-128.423 Y-92.662 Z-0.191 I0 J-0.162
X-128.423 Y-92.338 Z-0.237 I0 J0.162
X-128.423 Y-92.662 Z-0.283 I0 J-0.162
X-128.423 Y-92.338 Z-0.329 I0 J0.162
X-128.423 Y-92.662 Z-0.375 I0 J-0.162
X-128.423 Y-92.338 Z-0.421 I0 J0.162
X-128.423 Y-92.662 Z-0.466 I0 J-0.162
X-128.423 Y-92.338 Z-0.512 I0 J0.162
X-128.423 Y-92.662 Z-0.558 I0 J-0.162
X-128.423 Y-92.338 Z-0.604 I0 J0.162
X-128.423 Y-92.662 Z-0.65 I0 J-0.162
X-128.423 Y-92.338 Z-0.696 I0 J0.162
X-128.423 Y-92.662 Z-0.741 I0 J-0.162
X-128.423 Y-92.338 Z-0.787 I0 J0.162
X-128.423 Y-92.662 Z-0.833 I0 J-0.162
X-128.423 Y-92.338 Z-0.879 I0 J0.162
X-128.423 Y-92.662 Z-0.925 I0 J-0.162
X-128.423 Y-92.338 Z-0.97 I0 J0.162
X-128.423 Y-92.662 Z-1.016 I0 J-0.162
X-128.423 Y-92.338 Z-1.062 I0 J0.162
X-128.423 Y-92.662 Z-1.108 I0 J-0.162
X-128.423 Y-92.338 Z-1.154 I0 J0.162
X-128.423 Y-92.662 Z-1.2 I0 J-0.162
X-128.423 Y-92.338 Z-1.245 I0 J0.162
X-128.423 Y-92.662 Z-1.291 I0 J-0.162
X-128.423 Y-92.338 Z-1.337 I0 J0.162
X-128.423 Y-92.662 Z-1.383 I0 J-0.162
X-128.423 Y-92.338 Z-1.429 I0 J0.162
X-128.423 Y-92.662 Z-1.475 I0 J-0.162
X-128.423 Y-92.338 Z-1.52 I0 J0.162
X-128.423 Y-92.662 Z-1.566 I0 J-0.162
X-128.423 Y-92.338 Z-1.612 I0 J0.162
X-128.423 Y-92.662 Z-1.658 I0 J-0.162
X-128.423 Y-92.338 Z-1.704 I0 J0.162
X-128.423 Y-92.662 Z-1.75 I0 J-0.162
X-128.423 Y-92.338 Z-1.795 I0 J0.162
X-128.423 Y-92.662 Z-1.841 I0 J-0.162
X-128.423 Y-92.338 Z-1.887 I0 J0.162
X-128.423 Y-92.662 Z-1.933 I0 J-0.162
X-128.423 Y-92.338 Z-1.979 I0 J0.162
X-128.423 Y-92.662 Z-2.024 I0 J-0.162
X-128.423 Y-92.338 Z-2.07 I0 J0.162
X-128.423 Y-92.662 Z-2.116 I0 J-0.162
X-128.423 Y-92.338 Z-2.162 I0 J0.162
X-128.423 Y-92.662 Z-2.208 I0 J-0.162
X-128.423 Y-92.338 Z-2.254 I0 J0.162
X-128.423 Y-92.662 Z-2.299 I0 J-0.162
X-128.423 Y-92.338 Z-2.345 I0 J0.162
X-128.423 Y-92.662 Z-2.391 I0 J-0.162
X-128.423 Y-92.338 Z-2.437 I0 J0.162
X-128.423 Y-92.662 Z-2.483 I0 J-0.162
X-128.423 Y-92.338 Z-2.529 I0 J0.162
X-128.423 Y-92.662 Z-2.574 I0 J-0.162
X-128.423 Y-92.338 Z-2.62 I0 J0.162
X-128.423 Y-92.662 Z-2.666 I0 J-0.162
X-128.423 Y-92.338 Z-2.712 I0 J0.162
X-128.423 Y-92.662 Z-2.758 I0 J-0.162
X-128.423 Y-92.338 Z-2.804 I0 J0.162
X-128.423 Y-92.662 Z-2.849 I0 J-0.162
X-128.423 Y-92.338 Z-2.895 I0 J0.162
X-128.423 Y-92.662 Z-2.941 I0 J-0.162
X-128.423 Y-92.338 Z-2.987 I0 J0.162
X-128.423 Y-92.662 Z-3.033 I0 J-0.162
X-128.423 Y-92.338 Z-3.078 I0 J0.162
X-128.423 Y-92.662 Z-3.124 I0 J-0.162
X-128.423 Y-92.338 Z-3.17 I0 J0.162
X-128.423 Y-92.662 Z-3.216 I0 J-0.162
X-128.423 Y-92.338 Z-3.262 I0 J0.162
X-128.423 Y-92.662 Z-3.308 I0 J-0.162
X-128.423 Y-92.338 Z-3.353 I0 J0.162
X-128.423 Y-92.662 Z-3.399 I0 J-0.162
X-128.423 Y-92.338 Z-3.445 I0 J0.162
X-128.423 Y-92.662 Z-3.491 I0 J-0.162
X-128.423 Y-92.338 Z-3.537 I0 J0.162
X-128.423 Y-92.662 Z-3.583 I0 J-0.162
X-128.423 Y-92.338 Z-3.628 I0 J0.162
X-128.423 Y-92.662 Z-3.674 I0 J-0.162
X-128.423 Y-92.338 Z-3.72 I0 J0.162
X-128.423 Y-92.662 Z-3.766 I0 J-0.162
X-128.423 Y-92.338 Z-3.812 I0 J0.162
X-128.423 Y-92.662 Z-3.857 I0 J-0.162
X-128.423 Y-92.338 Z-3.903 I0 J0.162
X-128.423 Y-92.662 Z-3.949 I0 J-0.162
X-128.423 Y-92.338 Z-3.995 I0 J0.162
X-128.423 Y-92.662 Z-4.041 I0 J-0.162
X-128.423 Y-92.338 Z-4.087 I0 J0.162
X-128.423 Y-92.662 Z-4.132 I0 J-0.162
X-128.423 Y-92.338 Z-4.178 I0 J0.162
X-128.423 Y-92.662 Z-4.224 I0 J-0.162
X-128.423 Y-92.338 Z-4.27 I0 J0.162
X-128.567 Y-92.577 Z-4.3 I0 J-0.162
X-128.28 Y-92.423 I0.143 J0.077
X-128.567 Y-92.577 I-0.143 J-0.077
G1 X-128.546 Y-92.601
X-128.518 Y-92.616
X-128.487 Y-92.619
X-128.457 Y-92.61
X-128.317 Y-92.535
Z5
X-143.074 Y-72.673
Z2.682
Z1
Y-72.831
X-143.067 Y-72.862
X-143.05 Y-72.889
X-143.024 Y-72.906
X-142.992 Y-72.912
G3 X-142.992 Y-72.588 Z0.954 I0 J0.162
X-142.992 Y-72.912 Z0.908 I0 J-0.162
X-142.992 Y-72.588 Z0.863 I0 J0.162
X-142.992 Y-72.912 Z0.817 I0 J-0.162
X-142.992 Y-72.588 Z0.771 I0 J0.162
X-142.992 Y-72.912 Z0.725 I0 J-0.162
X-142.992 Y-72.588 Z0.679 I0 J0.162
X-142.992 Y-72.912 Z0.633 I0 J-0.162
X-142.992 Y-72.588 Z0.588 I0 J0.162
X-142.992 Y-72.912 Z0.542 I0 J-0.162
X-142.992 Y-72.588 Z0.496 I0 J0.162
X-142.992 Y-72.912 Z0.45 I0 J-0.162
X-142.992 Y-72.588 Z0.404 I0 J0.162
X-142.992 Y-72.912 Z0.358 I0 J-0.162
X-142.992 Y-72.588 Z0.313 I0 J0.162
X-142.992 Y-72.912 Z0.267 I0 J-0.162
X-142.992 Y-72.588 Z0.221 I0 J0.162
X-142.992 Y-72.912 Z0.175 I0 J-0.162
X-142.992 Y-72.588 Z0.129 I0 J0.162
X-142.992 Y-72.912 Z0.083 I0 J-0.162
X-142.992 Y-72.588 Z0.038 I0 J0.162
X-142.992 Y-72.912 Z-0.008 I0 J-0.162
X-142.992 Y-72.588 Z-0.054 I0 J0.162
X-142.992 Y-72.912 Z-0.1 I0 J-0.162
X-142.992 Y-72.588 Z-0.146 I0 J0.162
X-142.992 Y-72.912 Z-0.191 I0 J-0.162
X-142.992 Y-72.588 Z-0.237 I0 J0.162
X-142.992 Y-72.912 Z-0.283 I0 J-0.162
X-142.992 Y-72.588 Z-0.329 I0 J0.162
X-142.992 Y-72.912 Z-0.375 I0 J-0.162
X-142.992 Y-72.588 Z-0.421 I0 J0.162
X-142.992 Y-72.912 Z-0.466 I0 J-0.162
X-142.992 Y-72.588 Z-0.512 I0 J0.162
X-142.992 Y-72.912 Z-0.558 I0 J-0.162
X-142.992 Y-72.588 Z-0.604 I0 J0.162
X-142.992 Y-72.912 Z-0.65 I0 J-0.162
X-142.992 Y-72.588 Z-0.696 I0 J0.162
X-142.992 Y-72.912 Z-0.741 I0 J-0.162
X-142.992 Y-72.588 Z-0.787 I0 J0.162
X-142.992 Y-72.912 Z-0.833 I0 J-0.162
X-142.992 Y-72.588 Z-0.879 I0 J0.162
X-142.992 Y-72.912 Z-0.925 I0 J-0.162
X-142.992 Y-72.588 Z-0.97 I0 J0.162
X-142.992 Y-72.912 Z-1.016 I0 J-0.162
X-142.992 Y-72.588 Z-1.062 I0 J0.162
X-142.992 Y-72.912 Z-1.108 I0 J-0.162
X-142.992 Y-72.588 Z-1.154 I0 J0.162
X-142.992 Y-72.912 Z-1.2 I0 J-0.162
X-142.992 Y-72.588 Z-1.245 I0 J0.162
X-142.992 Y-72.912 Z-1.291 I0 J-0.162
X-142.992 Y-72.588 Z-1.337 I0 J0.162
X-142.992 Y-72.912 Z-1.383 I0 J-0.162
X-142.992 Y-72.588 Z-1.429 I0 J0.162
X-142.992 Y-72.912 Z-1.475 I0 J-0.162
X-142.992 Y-72.588 Z-1.52 I0 J0.162
X-142.992 Y-72.912 Z-1.566 I0 J-0.162
X-142.992 Y-72.588 Z-1.612 I0 J0.162
X-142.992 Y-72.912 Z-1.658 I0 J-0.162
X-142.992 Y-72.588 Z-1.704 I0 J0.162
X-142.992 Y-72.912 Z-1.75 I0 J-0.162
X-142.992 Y-72.588 Z-1.795 I0 J0.162
X-142.992 Y-72.912 Z-1.841 I0 J-0.162
X-142.992 Y-72.588 Z-1.887 I0 J0.162
X-142.992 Y-72.912 Z-1.933 I0 J-0.162
X-142.992 Y-72.588 Z-1.979 I0 J0.162
X-142.992 Y-72.912 Z-2.024 I0 J-0.162
X-142.992 Y-72.588 Z-2.07 I0 J0.162
X-142.992 Y-72.912 Z-2.116 I0 J-0.162
X-142.992 Y-72.588 Z-2.162 I0 J0.162
X-142.992 Y-72.912 Z-2.208 I0 J-0.162
X-142.992 Y-72.588 Z-2.254 I0 J0.162
X-142.992 Y-72.912 Z-2.299 I0 J-0.162
X-142.992 Y-72.588 Z-2.345 I0 J0.162
X-142.992 Y-72.912 Z-2.391 I0 J-0.162
X-142.992 Y-72.588 Z-2.437 I0 J0.162
X-142.992 Y-72.912 Z-2.483 I0 J-0.162
X-142.992 Y-72.588 Z-2.529 I0 J0.162
X-142.992 Y-72.912 Z-2.574 I0 J-0.162
X-142.992 Y-72.588 Z-2.62 I0 J0.162
X-142.992 Y-72.912 Z-2.666 I0 J-0.162
X-142.992 Y-72.588 Z-2.712 I0 J0.162
X-142.992 Y-72.912 Z-2.758 I0 J-0.162
X-142.992 Y-72.588 Z-2.804 I0 J0.162
X-142.992 Y-72.912 Z-2.849 I0 J-0.162
X-142.992 Y-72.588 Z-2.895 I0 J0.162
X-142.992 Y-72.912 Z-2.941 I0 J-0.162
X-142.992 Y-72.588 Z-2.987 I0 J0.162
X-142.992 Y-72.912 Z-3.033 I0 J-0.162
X-142.992 Y-72.588 Z-3.078 I0 J0.162
X-142.992 Y-72.912 Z-3.124 I0 J-0.162
X-142.992 Y-72.588 Z-3.17 I0 J0.162
X-142.992 Y-72.912 Z-3.216 I0 J-0.162
X-142.992 Y-72.588 Z-3.262 I0 J0.162
X-142.992 Y-72.912 Z-3.308 I0 J-0.162
X-142.992 Y-72.588 Z-3.353 I0 J0.162
X-142.992 Y-72.912 Z-3.399 I0 J-0.162
X-142.992 Y-72.588 Z-3.445 I0 J0.162
X-142.992 Y-72.912 Z-3.491 I0 J-0.162
X-142.992 Y-72.588 Z-3.537 I0 J0.162
X-142.992 Y-72.912 Z-3.583 I0 J-0.162
X-142.992 Y-72.588 Z-3.628 I0 J0.162
X-142.992 Y-72.912 Z-3.674 I0 J-0.162
X-142.992 Y-72.588 Z-3.72 I0 J0.162
X-142.992 Y-72.912 Z-3.766 I0 J-0.162
X-142.992 Y-72.588 Z-3.812 I0 J0.162
X-142.992 Y-72.912 Z-3.857 I0 J-0.162
X-142.992 Y-72.588 Z-3.903 I0 J0.162
X-142.992 Y-72.912 Z-3.949 I0 J-0.162
X-142.992 Y-72.588 Z-3.995 I0 J0.162
X-142.992 Y-72.912 Z-4.041 I0 J-0.162
X-142.992 Y-72.588 Z-4.087 I0 J0.162
X-142.992 Y-72.912 Z-4.132 I0 J-0.162
X-142.992 Y-72.588 Z-4.178 I0 J0.162
X-142.992 Y-72.912 Z-4.224 I0 J-0.162
X-142.992 Y-72.588 Z-4.27 I0 J0.162
X-143.136 Y-72.827 Z-4.3 I0 J-0.162
X-142.849 Y-72.673 I0.143 J0.077
X-143.136 Y-72.827 I-0.143 J-0.077
G1 X-143.116 Y-72.851
X-143.088 Y-72.866
X-143.056 Y-72.869
X-143.026 Y-72.86
X-142.886 Y-72.785
Z5
X-143.074 Y-42.173
Z2.682
Z1
Y-42.331
X-143.067 Y-42.362
X-143.05 Y-42.389
X-143.024 Y-42.406
X-142.992 Y-42.412
G3 X-142.992 Y-42.088 Z0.954 I0 J0.162
X-142.992 Y-42.412 Z0.908 I0 J-0.162
X-142.992 Y-42.088 Z0.863 I0 J0.162
X-142.992 Y-42.412 Z0.817 I0 J-0.162
X-142.992 Y-42.088 Z0.771 I0 J0.162
X-142.992 Y-42.412 Z0.725 I0 J-0.162
X-142.992 Y-42.088 Z0.679 I0 J0.162
X-142.992 Y-42.412 Z0.633 I0 J-0.162
X-142.992 Y-42.088 Z0.588 I0 J0.162
X-142.992 Y-42.412 Z0.542 I0 J-0.162
X-142.992 Y-42.088 Z0.496 I0 J0.162
X-142.992 Y-42.412 Z0.45 I0 J-0.162
X-142.992 Y-42.088 Z0.404 I0 J0.162
X-142.992 Y-42.412 Z0.358 I0 J-0.162
X-142.992 Y-42.088 Z0.313 I0 J0.162
X-142.992 Y-42.412 Z0.267 I0 J-0.162
X-142.992 Y-42.088 Z0.221 I0 J0.162
X-142.992 Y-42.412 Z0.175 I0 J-0.162
X-142.992 Y-42.088 Z0.129 I0 J0.162
X-142.992 Y-42.412 Z0.083 I0 J-0.162
X-142.992 Y-42.088 Z0.038 I0 J0.162
X-142.992 Y-42.412 Z-0.008 I0 J-0.162
X-142.992 Y-42.088 Z-0.054 I0 J0.162
X-142.992 Y-42.412 Z-0.1 I0 J-0.162
X-142.992 Y-42.088 Z-0.146 I0 J0.162
X-142.992 Y-42.412 Z-0.191 I0 J-0.162
X-142.992 Y-42.088 Z-0.237 I0 J0.162
X-142.992 Y-42.412 Z-0.283 I0 J-0.162
X-142.992 Y-42.088 Z-0.329 I0 J0.162
X-142.992 Y-42.412 Z-0.375 I0 J-0.162
X-142.992 Y-42.088 Z-0.421 I0 J0.162
X-142.992 Y-42.412 Z-0.466 I0 J-0.162
X-142.992 Y-42.088 Z-0.512 I0 J0.162
X-142.992 Y-42.412 Z-0.558 I0 J-0.162
X-142.992 Y-42.088 Z-0.604 I0 J0.162
X-142.992 Y-42.412 Z-0.65 I0 J-0.162
X-142.992 Y-42.088 Z-0.696 I0 J0.162
X-142.992 Y-42.412 Z-0.741 I0 J-0.162
X-142.992 Y-42.088 Z-0.787 I0 J0.162
X-142.992 Y-42.412 Z-0.833 I0 J-0.162
X-142.992 Y-42.088 Z-0.879 I0 J0.162
X-142.992 Y-42.412 Z-0.925 I0 J-0.162
X-142.992 Y-42.088 Z-0.97 I0 J0.162
X-142.992 Y-42.412 Z-1.016 I0 J-0.162
X-142.992 Y-42.088 Z-1.062 I0 J0.162
X-142.992 Y-42.412 Z-1.108 I0 J-0.162
X-142.992 Y-42.088 Z-1.154 I0 J0.162
X-142.992 Y-42.412 Z-1.2 I0 J-0.162
X-142.992 Y-42.088 Z-1.245 I0 J0.162
X-142.992 Y-42.412 Z-1.291 I0 J-0.162
X-142.992 Y-42.088 Z-1.337 I0 J0.162
X-142.992 Y-42.412 Z-1.383 I0 J-0.162
X-142.992 Y-42.088 Z-1.429 I0 J0.162
X-142.992 Y-42.412 Z-1.475 I0 J-0.162
X-142.992 Y-42.088 Z-1.52 I0 J0.162
X-142.992 Y-42.412 Z-1.566 I0 J-0.162
X-142.992 Y-42.088 Z-1.612 I0 J0.162
X-142.992 Y-42.412 Z-1.658 I0 J-0.162
X-142.992 Y-42.088 Z-1.704 I0 J0.162
X-142.992 Y-42.412 Z-1.75 I0 J-0.162
X-142.992 Y-42.088 Z-1.795 I0 J0.162
X-142.992 Y-42.412 Z-1.841 I0 J-0.162
X-142.992 Y-42.088 Z-1.887 I0 J0.162
X-142.992 Y-42.412 Z-1.933 I0 J-0.162
X-142.992 Y-42.088 Z-1.979 I0 J0.162
X-142.992 Y-42.412 Z-2.024 I0 J-0.162
X-142.992 Y-42.088 Z-2.07 I0 J0.162
X-142.992 Y-42.412 Z-2.116 I0 J-0.162
X-142.992 Y-42.088 Z-2.162 I0 J0.162
X-142.992 Y-42.412 Z-2.208 I0 J-0.162
X-142.992 Y-42.088 Z-2.254 I0 J0.162
X-142.992 Y-42.412 Z-2.299 I0 J-0.162
X-142.992 Y-42.088 Z-2.345 I0 J0.162
X-142.992 Y-42.412 Z-2.391 I0 J-0.162
X-142.992 Y-42.088 Z-2.437 I0 J0.162
X-142.992 Y-42.412 Z-2.483 I0 J-0.162
X-142.992 Y-42.088 Z-2.529 I0 J0.162
X-142.992 Y-42.412 Z-2.574 I0 J-0.162
X-142.992 Y-42.088 Z-2.62 I0 J0.162
X-142.992 Y-42.412 Z-2.666 I0 J-0.162
X-142.992 Y-42.088 Z-2.712 I0 J0.162
X-142.992 Y-42.412 Z-2.758 I0 J-0.162
X-142.992 Y-42.088 Z-2.804 I0 J0.162
X-142.992 Y-42.412 Z-2.849 I0 J-0.162
X-142.992 Y-42.088 Z-2.895 I0 J0.162
X-142.992 Y-42.412 Z-2.941 I0 J-0.162
X-142.992 Y-42.088 Z-2.987 I0 J0.162
X-142.992 Y-42.412 Z-3.033 I0 J-0.162
X-142.992 Y-42.088 Z-3.078 I0 J0.162
X-142.992 Y-42.412 Z-3.124 I0 J-0.162
X-142.992 Y-42.088 Z-3.17 I0 J0.162
X-142.992 Y-42.412 Z-3.216 I0 J-0.162
X-142.992 Y-42.088 Z-3.262 I0 J0.162
X-142.992 Y-42.412 Z-3.308 I0 J-0.162
X-142.992 Y-42.088 Z-3.353 I0 J0.162
X-142.992 Y-42.412 Z-3.399 I0 J-0.162
X-142.992 Y-42.088 Z-3.445 I0 J0.162
X-142.992 Y-42.412 Z-3.491 I0 J-0.162
X-142.992 Y-42.088 Z-3.537 I0 J0.162
X-142.992 Y-42.412 Z-3.583 I0 J-0.162
X-142.992 Y-42.088 Z-3.628 I0 J0.162
X-142.992 Y-42.412 Z-3.674 I0 J-0.162
X-142.992 Y-42.088 Z-3.72 I0 J0.162
X-142.992 Y-42.412 Z-3.766 I0 J-0.162
X-142.992 Y-42.088 Z-3.812 I0 J0.162
X-142.992 Y-42.412 Z-3.857 I0 J-0.162
X-142.992 Y-42.088 Z-3.903 I0 J0.162
X-142.992 Y-42.412 Z-3.949 I0 J-0.162
X-142.992 Y-42.088 Z-3.995 I0 J0.162
X-142.992 Y-42.412 Z-4.041 I0 J-0.162
X-142.992 Y-42.088 Z-4.087 I0 J0.162
X-142.992 Y-42.412 Z-4.132 I0 J-0.162
X-142.992 Y-42.088 Z-4.178 I0 J0.162
X-142.992 Y-42.412 Z-4.224 I0 J-0.162
X-142.992 Y-42.088 Z-4.27 I0 J0.162
X-143.136 Y-42.327 Z-4.3 I0 J-0.162
X-142.849 Y-42.173 I0.143 J0.077
X-143.136 Y-42.327 I-0.143 J-0.077
G1 X-143.116 Y-42.351
X-143.088 Y-42.366
X-143.056 Y-42.369
X-143.026 Y-42.36
X-142.886 Y-42.285
Z5
X-128.505 Y-22.423
Z2.682
Z1
Y-22.581
X-128.498 Y-22.612
X-128.481 Y-22.639
X-128.454 Y-22.656
X-128.423 Y-22.663
G3 X-128.423 Y-22.337 Z0.954 I0 J0.163
X-128.423 Y-22.663 Z0.908 I0 J-0.163
X-128.423 Y-22.337 Z0.863 I0 J0.163
X-128.423 Y-22.663 Z0.817 I0 J-0.163
X-128.423 Y-22.337 Z0.771 I0 J0.163
X-128.423 Y-22.662 Z0.725 I0 J-0.163
X-128.423 Y-22.338 Z0.679 I0 J0.162
X-128.423 Y-22.662 Z0.633 I0 J-0.162
X-128.423 Y-22.338 Z0.588 I0 J0.162
X-128.423 Y-22.662 Z0.542 I0 J-0.162
X-128.423 Y-22.338 Z0.496 I0 J0.162
X-128.423 Y-22.662 Z0.45 I0 J-0.162
X-128.423 Y-22.338 Z0.404 I0 J0.162
X-128.423 Y-22.662 Z0.358 I0 J-0.162
X-128.423 Y-22.338 Z0.313 I0 J0.162
X-128.423 Y-22.662 Z0.267 I0 J-0.162
X-128.423 Y-22.338 Z0.221 I0 J0.162
X-128.423 Y-22.662 Z0.175 I0 J-0.162
X-128.423 Y-22.338 Z0.129 I0 J0.162
X-128.423 Y-22.662 Z0.083 I0 J-0.162
X-128.423 Y-22.338 Z0.038 I0 J0.162
X-128.423 Y-22.662 Z-0.008 I0 J-0.162
X-128.423 Y-22.338 Z-0.054 I0 J0.162
X-128.423 Y-22.662 Z-0.1 I0 J-0.162
X-128.423 Y-22.338 Z-0.146 I0 J0.162
X-128.423 Y-22.662 Z-0.191 I0 J-0.162
X-128.423 Y-22.338 Z-0.237 I0 J0.162
X-128.423 Y-22.662 Z-0.283 I0 J-0.162
X-128.423 Y-22.338 Z-0.329 I0 J0.162
X-128.423 Y-22.662 Z-0.375 I0 J-0.162
X-128.423 Y-22.338 Z-0.421 I0 J0.162
X-128.423 Y-22.662 Z-0.466 I0 J-0.162
X-128.423 Y-22.338 Z-0.512 I0 J0.162
X-128.423 Y-22.662 Z-0.558 I0 J-0.162
X-128.423 Y-22.338 Z-0.604 I0 J0.162
X-128.423 Y-22.662 Z-0.65 I0 J-0.162
X-128.423 Y-22.338 Z-0.696 I0 J0.162
X-128.423 Y-22.662 Z-0.741 I0 J-0.162
X-128.423 Y-22.338 Z-0.787 I0 J0.162
X-128.423 Y-22.662 Z-0.833 I0 J-0.162
X-128.423 Y-22.338 Z-0.879 I0 J0.162
X-128.423 Y-22.662 Z-0.925 I0 J-0.162
X-128.423 Y-22.338 Z-0.97 I0 J0.162
X-128.423 Y-22.662 Z-1.016 I0 J-0.162
X-128.423 Y-22.338 Z-1.062 I0 J0.162
X-128.423 Y-22.662 Z-1.108 I0 J-0.162
X-128.423 Y-22.338 Z-1.154 I0 J0.162
X-128.423 Y-22.662 Z-1.2 I0 J-0.162
X-128.423 Y-22.338 Z-1.245 I0 J0.162
X-128.423 Y-22.662 Z-1.291 I0 J-0.162
X-128.423 Y-22.338 Z-1.337 I0 J0.162
X-128.423 Y-22.662 Z-1.383 I0 J-0.162
X-128.423 Y-22.338 Z-1.429 I0 J0.162
X-128.423 Y-22.662 Z-1.475 I0 J-0.162
X-128.423 Y-22.338 Z-1.52 I0 J0.162
X-128.423 Y-22.662 Z-1.566 I0 J-0.162
X-128.423 Y-22.338 Z-1.612 I0 J0.162
X-128.423 Y-22.662 Z-1.658 I0 J-0.162
X-128.423 Y-22.338 Z-1.704 I0 J0.162
X-128.423 Y-22.662 Z-1.75 I0 J-0.162
X-128.423 Y-22.338 Z-1.795 I0 J0.162
X-128.423 Y-22.662 Z-1.841 I0 J-0.162
X-128.423 Y-22.338 Z-1.887 I0 J0.162
X-128.423 Y-22.662 Z-1.933 I0 J-0.162
X-128.423 Y-22.338 Z-1.979 I0 J0.162
X-128.423 Y-22.662 Z-2.024 I0 J-0.162
X-128.423 Y-22.338 Z-2.07 I0 J0.162
X-128.423 Y-22.662 Z-2.116 I0 J-0.162
X-128.423 Y-22.338 Z-2.162 I0 J0.162
X-128.423 Y-22.662 Z-2.208 I0 J-0.162
X-128.423 Y-22.338 Z-2.254 I0 J0.162
X-128.423 Y-22.662 Z-2.299 I0 J-0.162
X-128.423 Y-22.338 Z-2.345 I0 J0.162
X-128.423 Y-22.662 Z-2.391 I0 J-0.162
X-128.423 Y-22.338 Z-2.437 I0 J0.162
X-128.423 Y-22.662 Z-2.483 I0 J-0.162
X-128.423 Y-22.338 Z-2.529 I0 J0.162
X-128.423 Y-22.662 Z-2.574 I0 J-0.162
X-128.423 Y-22.338 Z-2.62 I0 J0.162
X-128.423 Y-22.662 Z-2.666 I0 J-0.162
X-128.423 Y-22.338 Z-2.712 I0 J0.162
X-128.423 Y-22.662 Z-2.758 I0 J-0.162
X-128.423 Y-22.338 Z-2.804 I0 J0.162
X-128.423 Y-22.662 Z-2.849 I0 J-0.162
X-128.423 Y-22.338 Z-2.895 I0 J0.162
X-128.423 Y-22.662 Z-2.941 I0 J-0.162
X-128.423 Y-22.338 Z-2.987 I0 J0.162
X-128.423 Y-22.662 Z-3.033 I0 J-0.162
X-128.423 Y-22.338 Z-3.078 I0 J0.162
X-128.423 Y-22.662 Z-3.124 I0 J-0.162
X-128.423 Y-22.338 Z-3.17 I0 J0.162
X-128.423 Y-22.662 Z-3.216 I0 J-0.162
X-128.423 Y-22.338 Z-3.262 I0 J0.162
X-128.423 Y-22.662 Z-3.308 I0 J-0.162
X-128.423 Y-22.338 Z-3.353 I0 J0.162
X-128.423 Y-22.662 Z-3.399 I0 J-0.162
X-128.423 Y-22.338 Z-3.445 I0 J0.162
X-128.423 Y-22.662 Z-3.491 I0 J-0.162
X-128.423 Y-22.338 Z-3.537 I0 J0.162
X-128.423 Y-22.662 Z-3.583 I0 J-0.162
X-128.423 Y-22.338 Z-3.628 I0 J0.162
X-128.423 Y-22.662 Z-3.674 I0 J-0.162
X-128.423 Y-22.338 Z-3.72 I0 J0.162
X-128.423 Y-22.662 Z-3.766 I0 J-0.162
X-128.423 Y-22.338 Z-3.812 I0 J0.162
X-128.423 Y-22.662 Z-3.857 I0 J-0.162
X-128.423 Y-22.338 Z-3.903 I0 J0.162
X-128.423 Y-22.662 Z-3.949 I0 J-0.162
X-128.423 Y-22.338 Z-3.995 I0 J0.162
X-128.423 Y-22.662 Z-4.041 I0 J-0.162
X-128.423 Y-22.338 Z-4.087 I0 J0.162
X-128.423 Y-22.662 Z-4.132 I0 J-0.162
X-128.423 Y-22.338 Z-4.178 I0 J0.162
X-128.423 Y-22.662 Z-4.224 I0 J-0.162
X-128.423 Y-22.338 Z-4.27 I0 J0.162
X-128.567 Y-22.577 Z-4.3 I0 J-0.162
X-128.28 Y-22.423 I0.143 J0.077
X-128.567 Y-22.577 I-0.143 J-0.077
G1 X-128.546 Y-22.601
X-128.518 Y-22.616
X-128.487 Y-22.619
X-128.457 Y-22.61
X-128.317 Y-22.535
Z5
X-69.324 Y-38.423
Z2.682
Z1
Y-38.581
X-69.317 Y-38.612
X-69.3 Y-38.639
X-69.274 Y-38.656
X-69.242 Y-38.662
G3 X-69.242 Y-38.338 Z0.954 I0 J0.162
X-69.242 Y-38.662 Z0.908 I0 J-0.162
X-69.242 Y-38.338 Z0.863 I0 J0.162
X-69.242 Y-38.662 Z0.817 I0 J-0.162
X-69.242 Y-38.338 Z0.771 I0 J0.162
X-69.242 Y-38.662 Z0.725 I0 J-0.162
X-69.242 Y-38.338 Z0.679 I0 J0.162
X-69.242 Y-38.662 Z0.633 I0 J-0.162
X-69.242 Y-38.338 Z0.588 I0 J0.162
X-69.242 Y-38.662 Z0.542 I0 J-0.162
X-69.242 Y-38.338 Z0.496 I0 J0.162
X-69.242 Y-38.662 Z0.45 I0 J-0.162
X-69.242 Y-38.338 Z0.404 I0 J0.162
X-69.242 Y-38.662 Z0.358 I0 J-0.162
X-69.242 Y-38.338 Z0.313 I0 J0.162
X-69.242 Y-38.662 Z0.267 I0 J-0.162
X-69.242 Y-38.338 Z0.221 I0 J0.162
X-69.242 Y-38.662 Z0.175 I0 J-0.162
X-69.242 Y-38.338 Z0.129 I0 J0.162
X-69.242 Y-38.662 Z0.083 I0 J-0.162
X-69.242 Y-38.338 Z0.038 I0 J0.162
X-69.242 Y-38.662 Z-0.008 I0 J-0.162
X-69.242 Y-38.338 Z-0.054 I0 J0.162
X-69.242 Y-38.662 Z-0.1 I0 J-0.162
X-69.242 Y-38.338 Z-0.146 I0 J0.162
X-69.242 Y-38.662 Z-0.191 I0 J-0.162
X-69.242 Y-38.338 Z-0.237 I0 J0.162
X-69.242 Y-38.662 Z-0.283 I0 J-0.162
X-69.242 Y-38.338 Z-0.329 I0 J0.162
X-69.242 Y-38.662 Z-0.375 I0 J-0.162
X-69.242 Y-38.338 Z-0.421 I0 J0.162
X-69.242 Y-38.662 Z-0.466 I0 J-0.162
X-69.242 Y-38.338 Z-0.512 I0 J0.162
X-69.242 Y-38.662 Z-0.558 I0 J-0.162
X-69.242 Y-38.338 Z-0.604 I0 J0.162
X-69.242 Y-38.662 Z-0.65 I0 J-0.162
X-69.242 Y-38.338 Z-0.696 I0 J0.162
X-69.242 Y-38.662 Z-0.741 I0 J-0.162
X-69.242 Y-38.338 Z-0.787 I0 J0.162
X-69.242 Y-38.662 Z-0.833 I0 J-0.162
X-69.242 Y-38.338 Z-0.879 I0 J0.162
X-69.242 Y-38.662 Z-0.925 I0 J-0.162
X-69.242 Y-38.338 Z-0.97 I0 J0.162
X-69.242 Y-38.662 Z-1.016 I0 J-0.162
X-69.242 Y-38.338 Z-1.062 I0 J0.162
X-69.242 Y-38.662 Z-1.108 I0 J-0.162
X-69.242 Y-38.338 Z-1.154 I0 J0.162
X-69.242 Y-38.662 Z-1.2 I0 J-0.162
X-69.242 Y-38.338 Z-1.245 I0 J0.162
X-69.242 Y-38.662 Z-1.291 I0 J-0.162
X-69.242 Y-38.338 Z-1.337 I0 J0.162
X-69.242 Y-38.662 Z-1.383 I0 J-0.162
X-69.242 Y-38.338 Z-1.429 I0 J0.162
X-69.242 Y-38.662 Z-1.475 I0 J-0.162
X-69.242 Y-38.338 Z-1.52 I0 J0.162
X-69.242 Y-38.662 Z-1.566 I0 J-0.162
X-69.242 Y-38.338 Z-1.612 I0 J0.162
X-69.242 Y-38.662 Z-1.658 I0 J-0.162
X-69.242 Y-38.338 Z-1.704 I0 J0.162
X-69.242 Y-38.662 Z-1.75 I0 J-0.162
X-69.242 Y-38.338 Z-1.795 I0 J0.162
X-69.242 Y-38.662 Z-1.841 I0 J-0.162
X-69.242 Y-38.338 Z-1.887 I0 J0.162
X-69.242 Y-38.662 Z-1.933 I0 J-0.162
X-69.242 Y-38.338 Z-1.979 I0 J0.162
X-69.242 Y-38.662 Z-2.024 I0 J-0.162
X-69.242 Y-38.338 Z-2.07 I0 J0.162
X-69.242 Y-38.662 Z-2.116 I0 J-0.162
X-69.242 Y-38.338 Z-2.162 I0 J0.162
X-69.242 Y-38.662 Z-2.208 I0 J-0.162
X-69.242 Y-38.338 Z-2.254 I0 J0.162
X-69.242 Y-38.662 Z-2.299 I0 J-0.162
X-69.242 Y-38.338 Z-2.345 I0 J0.162
X-69.242 Y-38.662 Z-2.391 I0 J-0.162
X-69.242 Y-38.338 Z-2.437 I0 J0.162
X-69.242 Y-38.662 Z-2.483 I0 J-0.162
X-69.242 Y-38.338 Z-2.529 I0 J0.162
X-69.242 Y-38.662 Z-2.574 I0 J-0.162
X-69.242 Y-38.338 Z-2.62 I0 J0.162
X-69.242 Y-38.662 Z-2.666 I0 J-0.162
X-69.242 Y-38.338 Z-2.712 I0 J0.162
X-69.242 Y-38.662 Z-2.758 I0 J-0.162
X-69.242 Y-38.338 Z-2.804 I0 J0.162
X-69.242 Y-38.662 Z-2.849 I0 J-0.162
X-69.242 Y-38.338 Z-2.895 I0 J0.162
X-69.242 Y-38.662 Z-2.941 I0 J-0.162
X-69.242 Y-38.338 Z-2.987 I0 J0.162
X-69.242 Y-38.663 Z-3.033 I0 J-0.162
X-69.242 Y-38.337 Z-3.078 I0 J0.163
X-69.242 Y-38.663 Z-3.124 I0 J-0.163
X-69.242 Y-38.337 Z-3.17 I0 J0.163
X-69.242 Y-38.663 Z-3.216 I0 J-0.163
X-69.242 Y-38.337 Z-3.262 I0 J0.163
X-69.242 Y-38.663 Z-3.308 I0 J-0.163
X-69.242 Y-38.337 Z-3.353 I0 J0.163
X-69.242 Y-38.663 Z-3.399 I0 J-0.163
X-69.242 Y-38.337 Z-3.445 I0 J0.163
X-69.242 Y-38.663 Z-3.491 I0 J-0.163
X-69.242 Y-38.337 Z-3.537 I0 J0.163
X-69.242 Y-38.663 Z-3.583 I0 J-0.163
X-69.242 Y-38.337 Z-3.628 I0 J0.163
X-69.242 Y-38.663 Z-3.674 I0 J-0.163
X-69.242 Y-38.337 Z-3.72 I0 J0.163
X-69.242 Y-38.663 Z-3.766 I0 J-0.163
X-69.242 Y-38.337 Z-3.812 I0 J0.163
X-69.242 Y-38.663 Z-3.857 I0 J-0.163
X-69.242 Y-38.337 Z-3.903 I0 J0.163
X-69.242 Y-38.663 Z-3.949 I0 J-0.163
X-69.242 Y-38.337 Z-3.995 I0 J0.163
X-69.242 Y-38.663 Z-4.041 I0 J-0.163
X-69.242 Y-38.337 Z-4.087 I0 J0.163
X-69.242 Y-38.663 Z-4.132 I0 J-0.163
X-69.242 Y-38.337 Z-4.178 I0 J0.163
X-69.242 Y-38.663 Z-4.224 I0 J-0.163
X-69.242 Y-38.337 Z-4.27 I0 J0.163
X-69.386 Y-38.577 Z-4.3 I0 J-0.163
X-69.099 Y-38.423 I0.143 J0.077
X-69.386 Y-38.577 I-0.143 J-0.077
G1 X-69.366 Y-38.601
X-69.338 Y-38.616
X-69.306 Y-38.619
X-69.276 Y-38.61
X-69.136 Y-38.535
Z5
X-57.324 Y-38.423
Z2.682
Z1
Y-38.581
X-57.317 Y-38.612
X-57.3 Y-38.639
X-57.274 Y-38.656
X-57.242 Y-38.662
G3 X-57.242 Y-38.338 Z0.954 I0 J0.162
X-57.242 Y-38.662 Z0.908 I0 J-0.162
X-57.242 Y-38.338 Z0.863 I0 J0.162
X-57.242 Y-38.662 Z0.817 I0 J-0.162
X-57.242 Y-38.338 Z0.771 I0 J0.162
X-57.242 Y-38.662 Z0.725 I0 J-0.162
X-57.242 Y-38.338 Z0.679 I0 J0.162
X-57.242 Y-38.662 Z0.633 I0 J-0.162
X-57.242 Y-38.338 Z0.588 I0 J0.162
X-57.242 Y-38.662 Z0.542 I0 J-0.162
X-57.242 Y-38.338 Z0.496 I0 J0.162
X-57.242 Y-38.662 Z0.45 I0 J-0.162
X-57.242 Y-38.338 Z0.404 I0 J0.162
X-57.242 Y-38.662 Z0.358 I0 J-0.162
X-57.242 Y-38.338 Z0.313 I0 J0.162
X-57.242 Y-38.662 Z0.267 I0 J-0.162
X-57.242 Y-38.338 Z0.221 I0 J0.162
X-57.242 Y-38.662 Z0.175 I0 J-0.162
X-57.242 Y-38.338 Z0.129 I0 J0.162
X-57.242 Y-38.662 Z0.083 I0 J-0.162
X-57.242 Y-38.338 Z0.038 I0 J0.162
X-57.242 Y-38.662 Z-0.008 I0 J-0.162
X-57.242 Y-38.338 Z-0.054 I0 J0.162
X-57.242 Y-38.662 Z-0.1 I0 J-0.162
X-57.242 Y-38.338 Z-0.146 I0 J0.162
X-57.242 Y-38.662 Z-0.191 I0 J-0.162
X-57.242 Y-38.338 Z-0.237 I0 J0.162
X-57.242 Y-38.662 Z-0.283 I0 J-0.162
X-57.242 Y-38.338 Z-0.329 I0 J0.162
X-57.242 Y-38.662 Z-0.375 I0 J-0.162
X-57.242 Y-38.338 Z-0.421 I0 J0.162
X-57.242 Y-38.662 Z-0.466 I0 J-0.162
X-57.242 Y-38.338 Z-0.512 I0 J0.162
X-57.242 Y-38.662 Z-0.558 I0 J-0.162
X-57.242 Y-38.338 Z-0.604 I0 J0.162
X-57.242 Y-38.662 Z-0.65 I0 J-0.162
X-57.242 Y-38.338 Z-0.696 I0 J0.162
X-57.242 Y-38.662 Z-0.741 I0 J-0.162
X-57.242 Y-38.338 Z-0.787 I0 J0.162
X-57.242 Y-38.662 Z-0.833 I0 J-0.162
X-57.242 Y-38.338 Z-0.879 I0 J0.162
X-57.242 Y-38.662 Z-0.925 I0 J-0.162
X-57.242 Y-38.338 Z-0.97 I0 J0.162
X-57.242 Y-38.662 Z-1.016 I0 J-0.162
X-57.242 Y-38.338 Z-1.062 I0 J0.162
X-57.242 Y-38.662 Z-1.108 I0 J-0.162
X-57.242 Y-38.338 Z-1.154 I0 J0.162
X-57.242 Y-38.662 Z-1.2 I0 J-0.162
X-57.242 Y-38.338 Z-1.245 I0 J0.162
X-57.242 Y-38.662 Z-1.291 I0 J-0.162
X-57.242 Y-38.338 Z-1.337 I0 J0.162
X-57.242 Y-38.662 Z-1.383 I0 J-0.162
X-57.242 Y-38.338 Z-1.429 I0 J0.162
X-57.242 Y-38.662 Z-1.475 I0 J-0.162
X-57.242 Y-38.338 Z-1.52 I0 J0.162
X-57.242 Y-38.662 Z-1.566 I0 J-0.162
X-57.242 Y-38.338 Z-1.612 I0 J0.162
X-57.242 Y-38.662 Z-1.658 I0 J-0.162
X-57.242 Y-38.338 Z-1.704 I0 J0.162
X-57.242 Y-38.662 Z-1.75 I0 J-0.162
X-57.242 Y-38.338 Z-1.795 I0 J0.162
X-57.242 Y-38.662 Z-1.841 I0 J-0.162
X-57.242 Y-38.338 Z-1.887 I0 J0.162
X-57.242 Y-38.662 Z-1.933 I0 J-0.162
X-57.242 Y-38.338 Z-1.979 I0 J0.162
X-57.242 Y-38.662 Z-2.024 I0 J-0.162
X-57.242 Y-38.338 Z-2.07 I0 J0.162
X-57.242 Y-38.662 Z-2.116 I0 J-0.162
X-57.242 Y-38.338 Z-2.162 I0 J0.162
X-57.242 Y-38.662 Z-2.208 I0 J-0.162
X-57.242 Y-38.338 Z-2.254 I0 J0.162
X-57.242 Y-38.662 Z-2.299 I0 J-0.162
X-57.242 Y-38.338 Z-2.345 I0 J0.162
X-57.242 Y-38.662 Z-2.391 I0 J-0.162
X-57.242 Y-38.338 Z-2.437 I0 J0.162
X-57.242 Y-38.662 Z-2.483 I0 J-0.162
X-57.242 Y-38.338 Z-2.529 I0 J0.162
X-57.242 Y-38.662 Z-2.574 I0 J-0.162
X-57.242 Y-38.338 Z-2.62 I0 J0.162
X-57.242 Y-38.662 Z-2.666 I0 J-0.162
X-57.242 Y-38.338 Z-2.712 I0 J0.162
X-57.242 Y-38.662 Z-2.758 I0 J-0.162
X-57.242 Y-38.338 Z-2.804 I0 J0.162
X-57.242 Y-38.662 Z-2.849 I0 J-0.162
X-57.242 Y-38.338 Z-2.895 I0 J0.162
X-57.242 Y-38.662 Z-2.941 I0 J-0.162
X-57.242 Y-38.338 Z-2.987 I0 J0.162
X-57.242 Y-38.663 Z-3.033 I0 J-0.162
X-57.242 Y-38.337 Z-3.078 I0 J0.163
X-57.242 Y-38.663 Z-3.124 I0 J-0.163
X-57.242 Y-38.337 Z-3.17 I0 J0.163
X-57.242 Y-38.663 Z-3.216 I0 J-0.163
X-57.242 Y-38.337 Z-3.262 I0 J0.163
X-57.242 Y-38.663 Z-3.308 I0 J-0.163
X-57.242 Y-38.337 Z-3.353 I0 J0.163
X-57.242 Y-38.663 Z-3.399 I0 J-0.163
X-57.242 Y-38.337 Z-3.445 I0 J0.163
X-57.242 Y-38.663 Z-3.491 I0 J-0.163
X-57.242 Y-38.337 Z-3.537 I0 J0.163
X-57.242 Y-38.663 Z-3.583 I0 J-0.163
X-57.242 Y-38.337 Z-3.628 I0 J0.163
X-57.242 Y-38.663 Z-3.674 I0 J-0.163
X-57.242 Y-38.337 Z-3.72 I0 J0.163
X-57.242 Y-38.663 Z-3.766 I0 J-0.163
X-57.242 Y-38.337 Z-3.812 I0 J0.163
X-57.242 Y-38.663 Z-3.857 I0 J-0.163
X-57.242 Y-38.337 Z-3.903 I0 J0.163
X-57.242 Y-38.663 Z-3.949 I0 J-0.163
X-57.242 Y-38.337 Z-3.995 I0 J0.163
X-57.242 Y-38.663 Z-4.041 I0 J-0.163
X-57.242 Y-38.337 Z-4.087 I0 J0.163
X-57.242 Y-38.663 Z-4.132 I0 J-0.163
X-57.242 Y-38.337 Z-4.178 I0 J0.163
X-57.242 Y-38.663 Z-4.224 I0 J-0.163
X-57.242 Y-38.337 Z-4.27 I0 J0.163
X-57.386 Y-38.577 Z-4.3 I0 J-0.163
X-57.099 Y-38.423 I0.143 J0.077
X-57.386 Y-38.577 I-0.143 J-0.077
G1 X-57.366 Y-38.601
X-57.338 Y-38.616
X-57.306 Y-38.619
X-57.276 Y-38.61
X-57.136 Y-38.535
Z5
X-34.79 Y-38.423
Z2.682
Z1
Y-38.581
X-34.784 Y-38.612
X-34.766 Y-38.639
X-34.74 Y-38.656
X-34.709 Y-38.662
G3 X-34.709 Y-38.338 Z0.954 I0 J0.162
X-34.709 Y-38.662 Z0.908 I0 J-0.162
X-34.709 Y-38.338 Z0.863 I0 J0.162
X-34.709 Y-38.662 Z0.817 I0 J-0.162
X-34.709 Y-38.338 Z0.771 I0 J0.162
X-34.709 Y-38.662 Z0.725 I0 J-0.162
X-34.709 Y-38.338 Z0.679 I0 J0.162
X-34.709 Y-38.662 Z0.633 I0 J-0.162
X-34.709 Y-38.338 Z0.588 I0 J0.162
X-34.709 Y-38.662 Z0.542 I0 J-0.162
X-34.709 Y-38.338 Z0.496 I0 J0.162
X-34.709 Y-38.662 Z0.45 I0 J-0.162
X-34.709 Y-38.338 Z0.404 I0 J0.162
X-34.709 Y-38.662 Z0.358 I0 J-0.162
X-34.709 Y-38.338 Z0.313 I0 J0.162
X-34.709 Y-38.662 Z0.267 I0 J-0.162
X-34.709 Y-38.338 Z0.221 I0 J0.162
X-34.709 Y-38.662 Z0.175 I0 J-0.162
X-34.709 Y-38.338 Z0.129 I0 J0.162
X-34.709 Y-38.662 Z0.083 I0 J-0.162
X-34.709 Y-38.338 Z0.038 I0 J0.162
X-34.709 Y-38.662 Z-0.008 I0 J-0.162
X-34.709 Y-38.338 Z-0.054 I0 J0.162
X-34.709 Y-38.662 Z-0.1 I0 J-0.162
X-34.709 Y-38.338 Z-0.146 I0 J0.162
X-34.709 Y-38.662 Z-0.191 I0 J-0.162
X-34.709 Y-38.338 Z-0.237 I0 J0.162
X-34.709 Y-38.662 Z-0.283 I0 J-0.162
X-34.709 Y-38.338 Z-0.329 I0 J0.162
X-34.709 Y-38.662 Z-0.375 I0 J-0.162
X-34.709 Y-38.338 Z-0.421 I0 J0.162
X-34.709 Y-38.662 Z-0.466 I0 J-0.162
X-34.709 Y-38.338 Z-0.512 I0 J0.162
X-34.709 Y-38.662 Z-0.558 I0 J-0.162
X-34.709 Y-38.338 Z-0.604 I0 J0.162
X-34.709 Y-38.662 Z-0.65 I0 J-0.162
X-34.709 Y-38.338 Z-0.696 I0 J0.162
X-34.709 Y-38.662 Z-0.741 I0 J-0.162
X-34.709 Y-38.338 Z-0.787 I0 J0.162
X-34.709 Y-38.662 Z-0.833 I0 J-0.162
X-34.709 Y-38.338 Z-0.879 I0 J0.162
X-34.709 Y-38.662 Z-0.925 I0 J-0.162
X-34.709 Y-38.338 Z-0.97 I0 J0.162
X-34.709 Y-38.662 Z-1.016 I0 J-0.162
X-34.709 Y-38.338 Z-1.062 I0 J0.162
X-34.709 Y-38.662 Z-1.108 I0 J-0.162
X-34.709 Y-38.338 Z-1.154 I0 J0.162
X-34.709 Y-38.662 Z-1.2 I0 J-0.162
X-34.709 Y-38.338 Z-1.245 I0 J0.162
X-34.709 Y-38.662 Z-1.291 I0 J-0.162
X-34.709 Y-38.338 Z-1.337 I0 J0.162
X-34.709 Y-38.662 Z-1.383 I0 J-0.162
X-34.709 Y-38.338 Z-1.429 I0 J0.162
X-34.709 Y-38.662 Z-1.475 I0 J-0.162
X-34.709 Y-38.338 Z-1.52 I0 J0.162
X-34.709 Y-38.662 Z-1.566 I0 J-0.162
X-34.709 Y-38.338 Z-1.612 I0 J0.162
X-34.709 Y-38.662 Z-1.658 I0 J-0.162
X-34.709 Y-38.338 Z-1.704 I0 J0.162
X-34.709 Y-38.662 Z-1.75 I0 J-0.162
X-34.709 Y-38.338 Z-1.795 I0 J0.162
X-34.709 Y-38.662 Z-1.841 I0 J-0.162
X-34.709 Y-38.338 Z-1.887 I0 J0.162
X-34.709 Y-38.662 Z-1.933 I0 J-0.162
X-34.709 Y-38.338 Z-1.979 I0 J0.162
X-34.709 Y-38.662 Z-2.024 I0 J-0.162
X-34.709 Y-38.338 Z-2.07 I0 J0.162
X-34.709 Y-38.662 Z-2.116 I0 J-0.162
X-34.709 Y-38.338 Z-2.162 I0 J0.162
X-34.709 Y-38.662 Z-2.208 I0 J-0.162
X-34.709 Y-38.338 Z-2.254 I0 J0.162
X-34.709 Y-38.662 Z-2.299 I0 J-0.162
X-34.709 Y-38.338 Z-2.345 I0 J0.162
X-34.709 Y-38.662 Z-2.391 I0 J-0.162
X-34.709 Y-38.338 Z-2.437 I0 J0.162
X-34.709 Y-38.662 Z-2.483 I0 J-0.162
X-34.709 Y-38.338 Z-2.529 I0 J0.162
X-34.709 Y-38.662 Z-2.574 I0 J-0.162
X-34.709 Y-38.338 Z-2.62 I0 J0.162
X-34.709 Y-38.662 Z-2.666 I0 J-0.162
X-34.709 Y-38.338 Z-2.712 I0 J0.162
X-34.709 Y-38.662 Z-2.758 I0 J-0.162
X-34.709 Y-38.338 Z-2.804 I0 J0.162
X-34.709 Y-38.662 Z-2.849 I0 J-0.162
X-34.709 Y-38.338 Z-2.895 I0 J0.162
X-34.709 Y-38.662 Z-2.941 I0 J-0.162
X-34.709 Y-38.338 Z-2.987 I0 J0.162
X-34.709 Y-38.663 Z-3.033 I0 J-0.162
X-34.709 Y-38.337 Z-3.078 I0 J0.163
X-34.709 Y-38.663 Z-3.124 I0 J-0.163
X-34.709 Y-38.337 Z-3.17 I0 J0.163
X-34.709 Y-38.663 Z-3.216 I0 J-0.163
X-34.709 Y-38.337 Z-3.262 I0 J0.163
X-34.709 Y-38.663 Z-3.308 I0 J-0.163
X-34.709 Y-38.337 Z-3.353 I0 J0.163
X-34.709 Y-38.663 Z-3.399 I0 J-0.163
X-34.709 Y-38.337 Z-3.445 I0 J0.163
X-34.709 Y-38.663 Z-3.491 I0 J-0.163
X-34.709 Y-38.337 Z-3.537 I0 J0.163
X-34.709 Y-38.663 Z-3.583 I0 J-0.163
X-34.709 Y-38.337 Z-3.628 I0 J0.163
X-34.709 Y-38.663 Z-3.674 I0 J-0.163
X-34.709 Y-38.337 Z-3.72 I0 J0.163
X-34.709 Y-38.663 Z-3.766 I0 J-0.163
X-34.709 Y-38.337 Z-3.812 I0 J0.163
X-34.709 Y-38.663 Z-3.857 I0 J-0.163
X-34.709 Y-38.337 Z-3.903 I0 J0.163
X-34.709 Y-38.663 Z-3.949 I0 J-0.163
X-34.709 Y-38.337 Z-3.995 I0 J0.163
X-34.709 Y-38.663 Z-4.041 I0 J-0.163
X-34.709 Y-38.337 Z-4.087 I0 J0.163
X-34.709 Y-38.663 Z-4.132 I0 J-0.163
X-34.709 Y-38.337 Z-4.178 I0 J0.163
X-34.709 Y-38.663 Z-4.224 I0 J-0.163
X-34.709 Y-38.337 Z-4.27 I0 J0.163
X-34.852 Y-38.577 Z-4.3 I0 J-0.163
X-34.566 Y-38.423 I0.143 J0.077
X-34.852 Y-38.577 I-0.143 J-0.077
G1 X-34.832 Y-38.601
X-34.804 Y-38.616
X-34.772 Y-38.619
X-34.742 Y-38.61
X-34.602 Y-38.535
Z5
X-28.505 Y-177.423
Z2.682
Z1
Y-177.581
X-28.498 Y-177.612
X-28.481 Y-177.639
X-28.454 Y-177.656
X-28.423 Y-177.663
G3 X-28.423 Y-177.337 Z0.954 I0 J0.163
X-28.423 Y-177.663 Z0.908 I0 J-0.163
X-28.423 Y-177.337 Z0.863 I0 J0.163
X-28.423 Y-177.663 Z0.817 I0 J-0.163
X-28.423 Y-177.337 Z0.771 I0 J0.163
X-28.423 Y-177.663 Z0.725 I0 J-0.163
X-28.423 Y-177.337 Z0.679 I0 J0.163
X-28.423 Y-177.663 Z0.633 I0 J-0.163
X-28.423 Y-177.337 Z0.588 I0 J0.163
X-28.423 Y-177.663 Z0.542 I0 J-0.163
X-28.423 Y-177.337 Z0.496 I0 J0.163
X-28.423 Y-177.663 Z0.45 I0 J-0.163
X-28.423 Y-177.337 Z0.404 I0 J0.163
X-28.423 Y-177.663 Z0.358 I0 J-0.163
X-28.423 Y-177.337 Z0.313 I0 J0.163
X-28.423 Y-177.663 Z0.267 I0 J-0.163
X-28.423 Y-177.337 Z0.221 I0 J0.163
X-28.423 Y-177.663 Z0.175 I0 J-0.163
X-28.423 Y-177.337 Z0.129 I0 J0.163
X-28.423 Y-177.663 Z0.083 I0 J-0.163
X-28.423 Y-177.337 Z0.038 I0 J0.163
X-28.423 Y-177.663 Z-0.008 I0 J-0.163
X-28.423 Y-177.337 Z-0.054 I0 J0.163
X-28.423 Y-177.663 Z-0.1 I0 J-0.163
X-28.423 Y-177.337 Z-0.146 I0 J0.163
X-28.423 Y-177.663 Z-0.191 I0 J-0.163
X-28.423 Y-177.337 Z-0.237 I0 J0.163
X-28.423 Y-177.663 Z-0.283 I0 J-0.163
X-28.423 Y-177.337 Z-0.329 I0 J0.163
X-28.423 Y-177.663 Z-0.375 I0 J-0.163
X-28.423 Y-177.337 Z-0.421 I0 J0.163
X-28.423 Y-177.663 Z-0.466 I0 J-0.163
X-28.423 Y-177.337 Z-0.512 I0 J0.163
X-28.423 Y-177.663 Z-0.558 I0 J-0.163
X-28.423 Y-177.337 Z-0.604 I0 J0.163
X-28.423 Y-177.663 Z-0.65 I0 J-0.163
X-28.423 Y-177.337 Z-0.696 I0 J0.163
X-28.423 Y-177.663 Z-0.741 I0 J-0.163
X-28.423 Y-177.337 Z-0.787 I0 J0.163
X-28.423 Y-177.663 Z-0.833 I0 J-0.163
X-28.423 Y-177.337 Z-0.879 I0 J0.163
X-28.423 Y-177.663 Z-0.925 I0 J-0.163
X-28.423 Y-177.337 Z-0.97 I0 J0.163
X-28.423 Y-177.663 Z-1.016 I0 J-0.163
X-28.423 Y-177.337 Z-1.062 I0 J0.163
X-28.423 Y-177.663 Z-1.108 I0 J-0.163
X-28.423 Y-177.337 Z-1.154 I0 J0.163
X-28.423 Y-177.663 Z-1.2 I0 J-0.163
X-28.423 Y-177.337 Z-1.245 I0 J0.163
X-28.423 Y-177.663 Z-1.291 I0 J-0.163
X-28.423 Y-177.337 Z-1.337 I0 J0.163
X-28.423 Y-177.663 Z-1.383 I0 J-0.163
X-28.423 Y-177.337 Z-1.429 I0 J0.163
X-28.423 Y-177.663 Z-1.475 I0 J-0.163
X-28.423 Y-177.337 Z-1.52 I0 J0.163
X-28.423 Y-177.663 Z-1.566 I0 J-0.163
X-28.423 Y-177.337 Z-1.612 I0 J0.163
X-28.423 Y-177.663 Z-1.658 I0 J-0.163
X-28.423 Y-177.337 Z-1.704 I0 J0.163
X-28.423 Y-177.663 Z-1.75 I0 J-0.163
X-28.423 Y-177.337 Z-1.795 I0 J0.163
X-28.423 Y-177.663 Z-1.841 I0 J-0.163
X-28.423 Y-177.337 Z-1.887 I0 J0.163
X-28.423 Y-177.663 Z-1.933 I0 J-0.163
X-28.423 Y-177.337 Z-1.979 I0 J0.163
X-28.423 Y-177.663 Z-2.024 I0 J-0.163
X-28.423 Y-177.337 Z-2.07 I0 J0.163
X-28.423 Y-177.663 Z-2.116 I0 J-0.163
X-28.423 Y-177.337 Z-2.162 I0 J0.163
X-28.423 Y-177.663 Z-2.208 I0 J-0.163
X-28.423 Y-177.337 Z-2.254 I0 J0.163
X-28.423 Y-177.663 Z-2.299 I0 J-0.163
X-28.423 Y-177.337 Z-2.345 I0 J0.163
X-28.423 Y-177.663 Z-2.391 I0 J-0.163
X-28.423 Y-177.337 Z-2.437 I0 J0.163
X-28.423 Y-177.663 Z-2.483 I0 J-0.163
X-28.423 Y-177.337 Z-2.529 I0 J0.163
X-28.423 Y-177.663 Z-2.574 I0 J-0.163
X-28.423 Y-177.337 Z-2.62 I0 J0.163
X-28.423 Y-177.663 Z-2.666 I0 J-0.163
X-28.423 Y-177.337 Z-2.712 I0 J0.163
X-28.423 Y-177.663 Z-2.758 I0 J-0.163
X-28.423 Y-177.337 Z-2.804 I0 J0.163
X-28.423 Y-177.663 Z-2.849 I0 J-0.163
X-28.423 Y-177.337 Z-2.895 I0 J0.163
X-28.423 Y-177.663 Z-2.941 I0 J-0.163
X-28.423 Y-177.337 Z-2.987 I0 J0.163
X-28.423 Y-177.663 Z-3.033 I0 J-0.163
X-28.423 Y-177.337 Z-3.078 I0 J0.163
X-28.423 Y-177.663 Z-3.124 I0 J-0.163
X-28.423 Y-177.337 Z-3.17 I0 J0.163
X-28.423 Y-177.663 Z-3.216 I0 J-0.163
X-28.423 Y-177.337 Z-3.262 I0 J0.163
X-28.423 Y-177.663 Z-3.308 I0 J-0.163
X-28.423 Y-177.337 Z-3.353 I0 J0.163
X-28.423 Y-177.663 Z-3.399 I0 J-0.163
X-28.423 Y-177.337 Z-3.445 I0 J0.163
X-28.423 Y-177.663 Z-3.491 I0 J-0.163
X-28.423 Y-177.337 Z-3.537 I0 J0.163
X-28.423 Y-177.663 Z-3.583 I0 J-0.163
X-28.423 Y-177.337 Z-3.628 I0 J0.163
X-28.423 Y-177.663 Z-3.674 I0 J-0.163
X-28.423 Y-177.337 Z-3.72 I0 J0.163
X-28.423 Y-177.663 Z-3.766 I0 J-0.163
X-28.423 Y-177.337 Z-3.812 I0 J0.163
X-28.423 Y-177.663 Z-3.857 I0 J-0.163
X-28.423 Y-177.337 Z-3.903 I0 J0.163
X-28.423 Y-177.663 Z-3.949 I0 J-0.163
X-28.423 Y-177.337 Z-3.995 I0 J0.163
X-28.423 Y-177.663 Z-4.041 I0 J-0.163
X-28.423 Y-177.337 Z-4.087 I0 J0.163
X-28.423 Y-177.663 Z-4.132 I0 J-0.163
X-28.423 Y-177.337 Z-4.178 I0 J0.163
X-28.423 Y-177.663 Z-4.224 I0 J-0.163
X-28.423 Y-177.337 Z-4.27 I0 J0.163
X-28.567 Y-177.577 Z-4.3 I0 J-0.163
X-28.28 Y-177.423 I0.143 J0.077
X-28.567 Y-177.577 I-0.143 J-0.077
G1 X-28.546 Y-177.601
X-28.518 Y-177.616
X-28.487 Y-177.619
X-28.457 Y-177.61
X-28.317 Y-177.535
Z5
X-43.074 Y-157.673
Z2.682
Z1
Y-157.831
X-43.067 Y-157.862
X-43.05 Y-157.889
X-43.024 Y-157.906
X-42.992 Y-157.913
G3 X-42.992 Y-157.587 Z0.954 I0 J0.163
X-42.992 Y-157.913 Z0.908 I0 J-0.163
X-42.992 Y-157.587 Z0.863 I0 J0.163
X-42.992 Y-157.913 Z0.817 I0 J-0.163
X-42.992 Y-157.587 Z0.771 I0 J0.163
X-42.992 Y-157.913 Z0.725 I0 J-0.163
X-42.992 Y-157.587 Z0.679 I0 J0.163
X-42.992 Y-157.913 Z0.633 I0 J-0.163
X-42.992 Y-157.587 Z0.588 I0 J0.163
X-42.992 Y-157.913 Z0.542 I0 J-0.163
X-42.992 Y-157.587 Z0.496 I0 J0.163
X-42.992 Y-157.913 Z0.45 I0 J-0.163
X-42.992 Y-157.587 Z0.404 I0 J0.163
X-42.992 Y-157.913 Z0.358 I0 J-0.163
X-42.992 Y-157.587 Z0.313 I0 J0.163
X-42.992 Y-157.913 Z0.267 I0 J-0.163
X-42.992 Y-157.587 Z0.221 I0 J0.163
X-42.992 Y-157.913 Z0.175 I0 J-0.163
X-42.992 Y-157.587 Z0.129 I0 J0.163
X-42.992 Y-157.913 Z0.083 I0 J-0.163
X-42.992 Y-157.587 Z0.038 I0 J0.163
X-42.992 Y-157.913 Z-0.008 I0 J-0.163
X-42.992 Y-157.587 Z-0.054 I0 J0.163
X-42.992 Y-157.913 Z-0.1 I0 J-0.163
X-42.992 Y-157.587 Z-0.146 I0 J0.163
X-42.992 Y-157.913 Z-0.191 I0 J-0.163
X-42.992 Y-157.587 Z-0.237 I0 J0.163
X-42.992 Y-157.913 Z-0.283 I0 J-0.163
X-42.992 Y-157.587 Z-0.329 I0 J0.163
X-42.992 Y-157.913 Z-0.375 I0 J-0.163
X-42.992 Y-157.587 Z-0.421 I0 J0.163
X-42.992 Y-157.913 Z-0.466 I0 J-0.163
X-42.992 Y-157.587 Z-0.512 I0 J0.163
X-42.992 Y-157.913 Z-0.558 I0 J-0.163
X-42.992 Y-157.587 Z-0.604 I0 J0.163
X-42.992 Y-157.913 Z-0.65 I0 J-0.163
X-42.992 Y-157.587 Z-0.696 I0 J0.163
X-42.992 Y-157.913 Z-0.741 I0 J-0.163
X-42.992 Y-157.587 Z-0.787 I0 J0.163
X-42.992 Y-157.913 Z-0.833 I0 J-0.163
X-42.992 Y-157.587 Z-0.879 I0 J0.163
X-42.992 Y-157.913 Z-0.925 I0 J-0.163
X-42.992 Y-157.587 Z-0.97 I0 J0.163
X-42.992 Y-157.913 Z-1.016 I0 J-0.163
X-42.992 Y-157.587 Z-1.062 I0 J0.163
X-42.992 Y-157.913 Z-1.108 I0 J-0.163
X-42.992 Y-157.587 Z-1.154 I0 J0.163
X-42.992 Y-157.913 Z-1.2 I0 J-0.163
X-42.992 Y-157.587 Z-1.245 I0 J0.163
X-42.992 Y-157.913 Z-1.291 I0 J-0.163
X-42.992 Y-157.587 Z-1.337 I0 J0.163
X-42.992 Y-157.913 Z-1.383 I0 J-0.163
X-42.992 Y-157.587 Z-1.429 I0 J0.163
X-42.992 Y-157.913 Z-1.475 I0 J-0.163
X-42.992 Y-157.587 Z-1.52 I0 J0.163
X-42.992 Y-157.913 Z-1.566 I0 J-0.163
X-42.992 Y-157.587 Z-1.612 I0 J0.163
X-42.992 Y-157.913 Z-1.658 I0 J-0.163
X-42.992 Y-157.587 Z-1.704 I0 J0.163
X-42.992 Y-157.913 Z-1.75 I0 J-0.163
X-42.992 Y-157.587 Z-1.795 I0 J0.163
X-42.992 Y-157.913 Z-1.841 I0 J-0.163
X-42.992 Y-157.587 Z-1.887 I0 J0.163
X-42.992 Y-157.913 Z-1.933 I0 J-0.163
X-42.992 Y-157.587 Z-1.979 I0 J0.163
X-42.992 Y-157.913 Z-2.024 I0 J-0.163
X-42.992 Y-157.587 Z-2.07 I0 J0.163
X-42.992 Y-157.913 Z-2.116 I0 J-0.163
X-42.992 Y-157.587 Z-2.162 I0 J0.163
X-42.992 Y-157.913 Z-2.208 I0 J-0.163
X-42.992 Y-157.587 Z-2.254 I0 J0.163
X-42.992 Y-157.913 Z-2.299 I0 J-0.163
X-42.992 Y-157.587 Z-2.345 I0 J0.163
X-42.992 Y-157.913 Z-2.391 I0 J-0.163
X-42.992 Y-157.587 Z-2.437 I0 J0.163
X-42.992 Y-157.913 Z-2.483 I0 J-0.163
X-42.992 Y-157.587 Z-2.529 I0 J0.163
X-42.992 Y-157.913 Z-2.574 I0 J-0.163
X-42.992 Y-157.587 Z-2.62 I0 J0.163
X-42.992 Y-157.913 Z-2.666 I0 J-0.163
X-42.992 Y-157.587 Z-2.712 I0 J0.163
X-42.992 Y-157.913 Z-2.758 I0 J-0.163
X-42.992 Y-157.587 Z-2.804 I0 J0.163
X-42.992 Y-157.913 Z-2.849 I0 J-0.163
X-42.992 Y-157.587 Z-2.895 I0 J0.163
X-42.992 Y-157.913 Z-2.941 I0 J-0.163
X-42.992 Y-157.587 Z-2.987 I0 J0.163
X-42.992 Y-157.913 Z-3.033 I0 J-0.163
X-42.992 Y-157.587 Z-3.078 I0 J0.163
X-42.992 Y-157.913 Z-3.124 I0 J-0.163
X-42.992 Y-157.587 Z-3.17 I0 J0.163
X-42.992 Y-157.913 Z-3.216 I0 J-0.163
X-42.992 Y-157.587 Z-3.262 I0 J0.163
X-42.992 Y-157.913 Z-3.308 I0 J-0.163
X-42.992 Y-157.587 Z-3.353 I0 J0.163
X-42.992 Y-157.913 Z-3.399 I0 J-0.163
X-42.992 Y-157.587 Z-3.445 I0 J0.163
X-42.992 Y-157.913 Z-3.491 I0 J-0.163
X-42.992 Y-157.587 Z-3.537 I0 J0.163
X-42.992 Y-157.913 Z-3.583 I0 J-0.163
X-42.992 Y-157.587 Z-3.628 I0 J0.163
X-42.992 Y-157.913 Z-3.674 I0 J-0.163
X-42.992 Y-157.587 Z-3.72 I0 J0.163
X-42.992 Y-157.913 Z-3.766 I0 J-0.163
X-42.992 Y-157.587 Z-3.812 I0 J0.163
X-42.992 Y-157.913 Z-3.857 I0 J-0.163
X-42.992 Y-157.587 Z-3.903 I0 J0.163
X-42.992 Y-157.913 Z-3.949 I0 J-0.163
X-42.992 Y-157.587 Z-3.995 I0 J0.163
X-42.992 Y-157.913 Z-4.041 I0 J-0.163
X-42.992 Y-157.587 Z-4.087 I0 J0.163
X-42.992 Y-157.913 Z-4.132 I0 J-0.163
X-42.992 Y-157.587 Z-4.178 I0 J0.163
X-42.992 Y-157.913 Z-4.224 I0 J-0.163
X-42.992 Y-157.587 Z-4.27 I0 J0.163
X-43.136 Y-157.827 Z-4.3 I0 J-0.163
X-42.849 Y-157.673 I0.143 J0.077
X-43.136 Y-157.827 I-0.143 J-0.077
G1 X-43.116 Y-157.851
X-43.088 Y-157.866
X-43.056 Y-157.869
X-43.026 Y-157.86
X-42.886 Y-157.785
Z5
X-57.925 Y-134.881
Z3
Z1.317
G19 G3 Y-134.564 Z1 J0.318 K0
G1 Y-134.405
G17 G3 X-58.242 Y-134.087 I-0.318 J0
X-58.242 Y-150.913 Z0.738 I0 J-8.413
X-58.242 Y-134.087 Z0.476 I0 J8.413
X-58.242 Y-150.913 Z0.214 I0 J-8.413
X-58.242 Y-134.087 Z-0.047 I0 J8.413
X-58.242 Y-150.913 Z-0.309 I0 J-8.413
X-58.242 Y-134.087 Z-0.571 I0 J8.413
X-58.242 Y-150.913 Z-0.833 I0 J-8.413
X-58.242 Y-134.087 Z-1.095 I0 J8.413
X-58.242 Y-150.913 Z-1.357 I0 J-8.413
X-58.242 Y-134.087 Z-1.619 I0 J8.413
X-58.242 Y-150.912 Z-1.88 I0 J-8.413
X-58.242 Y-134.088 Z-2.142 I0 J8.412
X-58.242 Y-150.912 Z-2.404 I0 J-8.412
X-58.242 Y-134.088 Z-2.666 I0 J8.412
X-58.242 Y-150.912 Z-2.928 I0 J-8.412
X-58.242 Y-134.088 Z-3.19 I0 J8.412
X-58.242 Y-150.912 Z-3.452 I0 J-8.412
X-58.242 Y-134.088 Z-3.713 I0 J8.412
X-58.242 Y-150.912 Z-3.975 I0 J-8.412
X-58.242 Y-134.088 Z-4.237 I0 J8.412
X-63.999 Y-136.365 Z-4.3 I0 J-8.412
X-52.486 Y-148.635 I5.757 J-6.135
X-63.999 Y-136.365 I-5.757 J6.135
X-64.013 Y-136.814 I0.217 J-0.232
G1 X-63.905 Y-136.93
X-63.856 Y-136.982 Z-4.292
X-63.81 Y-137.03 Z-4.269
X-63.769 Y-137.074 Z-4.231
X-63.735 Y-137.111 Z-4.18
X-63.709 Y-137.139 Z-4.12
X-63.693 Y-137.156 Z-4.053
X-63.687 Y-137.162 Z-3.983
Z5
X-43.074 Y-127.173
Z2.682
Z1
Y-127.331
X-43.067 Y-127.362
X-43.05 Y-127.389
X-43.024 Y-127.406
X-42.992 Y-127.412
G3 X-42.992 Y-127.088 Z0.954 I0 J0.162
X-42.992 Y-127.412 Z0.908 I0 J-0.162
X-42.992 Y-127.088 Z0.863 I0 J0.162
X-42.992 Y-127.412 Z0.817 I0 J-0.162
X-42.992 Y-127.088 Z0.771 I0 J0.162
X-42.992 Y-127.412 Z0.725 I0 J-0.162
X-42.992 Y-127.088 Z0.679 I0 J0.162
X-42.992 Y-127.412 Z0.633 I0 J-0.162
X-42.992 Y-127.088 Z0.588 I0 J0.162
X-42.992 Y-127.412 Z0.542 I0 J-0.162
X-42.992 Y-127.088 Z0.496 I0 J0.162
X-42.992 Y-127.412 Z0.45 I0 J-0.162
X-42.992 Y-127.088 Z0.404 I0 J0.162
X-42.992 Y-127.412 Z0.358 I0 J-0.162
X-42.992 Y-127.088 Z0.313 I0 J0.162
X-42.992 Y-127.412 Z0.267 I0 J-0.162
X-42.992 Y-127.088 Z0.221 I0 J0.162
X-42.992 Y-127.412 Z0.175 I0 J-0.162
X-42.992 Y-127.088 Z0.129 I0 J0.162
X-42.992 Y-127.412 Z0.083 I0 J-0.162
X-42.992 Y-127.088 Z0.038 I0 J0.162
X-42.992 Y-127.412 Z-0.008 I0 J-0.162
X-42.992 Y-127.088 Z-0.054 I0 J0.162
X-42.992 Y-127.412 Z-0.1 I0 J-0.162
X-42.992 Y-127.088 Z-0.146 I0 J0.162
X-42.992 Y-127.412 Z-0.191 I0 J-0.162
X-42.992 Y-127.088 Z-0.237 I0 J0.162
X-42.992 Y-127.412 Z-0.283 I0 J-0.162
X-42.992 Y-127.088 Z-0.329 I0 J0.162
X-42.992 Y-127.412 Z-0.375 I0 J-0.162
X-42.992 Y-127.088 Z-0.421 I0 J0.162
X-42.992 Y-127.412 Z-0.466 I0 J-0.162
X-42.992 Y-127.088 Z-0.512 I0 J0.162
X-42.992 Y-127.412 Z-0.558 I0 J-0.162
X-42.992 Y-127.088 Z-0.604 I0 J0.162
X-42.992 Y-127.412 Z-0.65 I0 J-0.162
X-42.992 Y-127.088 Z-0.696 I0 J0.162
X-42.992 Y-127.412 Z-0.741 I0 J-0.162
X-42.992 Y-127.088 Z-0.787 I0 J0.162
X-42.992 Y-127.412 Z-0.833 I0 J-0.162
X-42.992 Y-127.088 Z-0.879 I0 J0.162
X-42.992 Y-127.412 Z-0.925 I0 J-0.162
X-42.992 Y-127.088 Z-0.97 I0 J0.162
X-42.992 Y-127.412 Z-1.016 I0 J-0.162
X-42.992 Y-127.088 Z-1.062 I0 J0.162
X-42.992 Y-127.412 Z-1.108 I0 J-0.162
X-42.992 Y-127.088 Z-1.154 I0 J0.162
X-42.992 Y-127.412 Z-1.2 I0 J-0.162
X-42.992 Y-127.088 Z-1.245 I0 J0.162
X-42.992 Y-127.412 Z-1.291 I0 J-0.162
X-42.992 Y-127.088 Z-1.337 I0 J0.162
X-42.992 Y-127.412 Z-1.383 I0 J-0.162
X-42.992 Y-127.088 Z-1.429 I0 J0.162
X-42.992 Y-127.412 Z-1.475 I0 J-0.162
X-42.992 Y-127.088 Z-1.52 I0 J0.162
X-42.992 Y-127.412 Z-1.566 I0 J-0.162
X-42.992 Y-127.088 Z-1.612 I0 J0.162
X-42.992 Y-127.412 Z-1.658 I0 J-0.162
X-42.992 Y-127.088 Z-1.704 I0 J0.162
X-42.992 Y-127.412 Z-1.75 I0 J-0.162
X-42.992 Y-127.088 Z-1.795 I0 J0.162
X-42.992 Y-127.412 Z-1.841 I0 J-0.162
X-42.992 Y-127.088 Z-1.887 I0 J0.162
X-42.992 Y-127.412 Z-1.933 I0 J-0.162
X-42.992 Y-127.088 Z-1.979 I0 J0.162
X-42.992 Y-127.412 Z-2.024 I0 J-0.162
X-42.992 Y-127.088 Z-2.07 I0 J0.162
X-42.992 Y-127.412 Z-2.116 I0 J-0.162
X-42.992 Y-127.088 Z-2.162 I0 J0.162
X-42.992 Y-127.412 Z-2.208 I0 J-0.162
X-42.992 Y-127.088 Z-2.254 I0 J0.162
X-42.992 Y-127.412 Z-2.299 I0 J-0.162
X-42.992 Y-127.088 Z-2.345 I0 J0.162
X-42.992 Y-127.412 Z-2.391 I0 J-0.162
X-42.992 Y-127.088 Z-2.437 I0 J0.162
X-42.992 Y-127.412 Z-2.483 I0 J-0.162
X-42.992 Y-127.088 Z-2.529 I0 J0.162
X-42.992 Y-127.412 Z-2.574 I0 J-0.162
X-42.992 Y-127.088 Z-2.62 I0 J0.162
X-42.992 Y-127.412 Z-2.666 I0 J-0.162
X-42.992 Y-127.088 Z-2.712 I0 J0.162
X-42.992 Y-127.412 Z-2.758 I0 J-0.162
X-42.992 Y-127.088 Z-2.804 I0 J0.162
X-42.992 Y-127.412 Z-2.849 I0 J-0.162
X-42.992 Y-127.088 Z-2.895 I0 J0.162
X-42.992 Y-127.412 Z-2.941 I0 J-0.162
X-42.992 Y-127.088 Z-2.987 I0 J0.162
X-42.992 Y-127.413 Z-3.033 I0 J-0.162
X-42.992 Y-127.087 Z-3.078 I0 J0.163
X-42.992 Y-127.413 Z-3.124 I0 J-0.163
X-42.992 Y-127.087 Z-3.17 I0 J0.163
X-42.992 Y-127.413 Z-3.216 I0 J-0.163
X-42.992 Y-127.087 Z-3.262 I0 J0.163
X-42.992 Y-127.413 Z-3.308 I0 J-0.163
X-42.992 Y-127.087 Z-3.353 I0 J0.163
X-42.992 Y-127.413 Z-3.399 I0 J-0.163
X-42.992 Y-127.087 Z-3.445 I0 J0.163
X-42.992 Y-127.413 Z-3.491 I0 J-0.163
X-42.992 Y-127.087 Z-3.537 I0 J0.163
X-42.992 Y-127.413 Z-3.583 I0 J-0.163
X-42.992 Y-127.087 Z-3.628 I0 J0.163
X-42.992 Y-127.413 Z-3.674 I0 J-0.163
X-42.992 Y-127.087 Z-3.72 I0 J0.163
X-42.992 Y-127.413 Z-3.766 I0 J-0.163
X-42.992 Y-127.087 Z-3.812 I0 J0.163
X-42.992 Y-127.413 Z-3.857 I0 J-0.163
X-42.992 Y-127.087 Z-3.903 I0 J0.163
X-42.992 Y-127.413 Z-3.949 I0 J-0.163
X-42.992 Y-127.087 Z-3.995 I0 J0.163
X-42.992 Y-127.413 Z-4.041 I0 J-0.163
X-42.992 Y-127.087 Z-4.087 I0 J0.163
X-42.992 Y-127.413 Z-4.132 I0 J-0.163
X-42.992 Y-127.087 Z-4.178 I0 J0.163
X-42.992 Y-127.413 Z-4.224 I0 J-0.163
X-42.992 Y-127.087 Z-4.27 I0 J0.163
X-43.136 Y-127.327 Z-4.3 I0 J-0.163
X-42.849 Y-127.173 I0.143 J0.077
X-43.136 Y-127.327 I-0.143 J-0.077
G1 X-43.116 Y-127.351
X-43.088 Y-127.366
X-43.056 Y-127.369
X-43.026 Y-127.36
X-42.886 Y-127.285
Z5
X-28.505 Y-107.423
Z2.682
Z1
Y-107.581
X-28.498 Y-107.612
X-28.481 Y-107.639
X-28.454 Y-107.656
X-28.423 Y-107.662
G3 X-28.423 Y-107.338 Z0.954 I0 J0.162
X-28.423 Y-107.662 Z0.908 I0 J-0.162
X-28.423 Y-107.338 Z0.863 I0 J0.162
X-28.423 Y-107.662 Z0.817 I0 J-0.162
X-28.423 Y-107.338 Z0.771 I0 J0.162
X-28.423 Y-107.662 Z0.725 I0 J-0.162
X-28.423 Y-107.338 Z0.679 I0 J0.162
X-28.423 Y-107.662 Z0.633 I0 J-0.162
X-28.423 Y-107.338 Z0.588 I0 J0.162
X-28.423 Y-107.662 Z0.542 I0 J-0.162
X-28.423 Y-107.338 Z0.496 I0 J0.162
X-28.423 Y-107.662 Z0.45 I0 J-0.162
X-28.423 Y-107.338 Z0.404 I0 J0.162
X-28.423 Y-107.662 Z0.358 I0 J-0.162
X-28.423 Y-107.338 Z0.313 I0 J0.162
X-28.423 Y-107.662 Z0.267 I0 J-0.162
X-28.423 Y-107.338 Z0.221 I0 J0.162
X-28.423 Y-107.662 Z0.175 I0 J-0.162
X-28.423 Y-107.338 Z0.129 I0 J0.162
X-28.423 Y-107.662 Z0.083 I0 J-0.162
X-28.423 Y-107.338 Z0.038 I0 J0.162
X-28.423 Y-107.662 Z-0.008 I0 J-0.162
X-28.423 Y-107.338 Z-0.054 I0 J0.162
X-28.423 Y-107.662 Z-0.1 I0 J-0.162
X-28.423 Y-107.338 Z-0.146 I0 J0.162
X-28.423 Y-107.662 Z-0.191 I0 J-0.162
X-28.423 Y-107.338 Z-0.237 I0 J0.162
X-28.423 Y-107.662 Z-0.283 I0 J-0.162
X-28.423 Y-107.338 Z-0.329 I0 J0.162
X-28.423 Y-107.662 Z-0.375 I0 J-0.162
X-28.423 Y-107.338 Z-0.421 I0 J0.162
X-28.423 Y-107.662 Z-0.466 I0 J-0.162
X-28.423 Y-107.338 Z-0.512 I0 J0.162
X-28.423 Y-107.662 Z-0.558 I0 J-0.162
X-28.423 Y-107.338 Z-0.604 I0 J0.162
X-28.423 Y-107.662 Z-0.65 I0 J-0.162
X-28.423 Y-107.338 Z-0.696 I0 J0.162
X-28.423 Y-107.662 Z-0.741 I0 J-0.162
X-28.423 Y-107.338 Z-0.787 I0 J0.162
X-28.423 Y-107.662 Z-0.833 I0 J-0.162
X-28.423 Y-107.338 Z-0.879 I0 J0.162
X-28.423 Y-107.662 Z-0.925 I0 J-0.162
X-28.423 Y-107.338 Z-0.97 I0 J0.162
X-28.423 Y-107.662 Z-1.016 I0 J-0.162
X-28.423 Y-107.338 Z-1.062 I0 J0.162
X-28.423 Y-107.662 Z-1.108 I0 J-0.162
X-28.423 Y-107.338 Z-1.154 I0 J0.162
X-28.423 Y-107.662 Z-1.2 I0 J-0.162
X-28.423 Y-107.338 Z-1.245 I0 J0.162
X-28.423 Y-107.662 Z-1.291 I0 J-0.162
X-28.423 Y-107.338 Z-1.337 I0 J0.162
X-28.423 Y-107.662 Z-1.383 I0 J-0.162
X-28.423 Y-107.338 Z-1.429 I0 J0.162
X-28.423 Y-107.662 Z-1.475 I0 J-0.162
X-28.423 Y-107.338 Z-1.52 I0 J0.162
X-28.423 Y-107.662 Z-1.566 I0 J-0.162
X-28.423 Y-107.338 Z-1.612 I0 J0.162
X-28.423 Y-107.662 Z-1.658 I0 J-0.162
X-28.423 Y-107.338 Z-1.704 I0 J0.162
X-28.423 Y-107.662 Z-1.75 I0 J-0.162
X-28.423 Y-107.338 Z-1.795 I0 J0.162
X-28.423 Y-107.662 Z-1.841 I0 J-0.162
X-28.423 Y-107.338 Z-1.887 I0 J0.162
X-28.423 Y-107.662 Z-1.933 I0 J-0.162
X-28.423 Y-107.338 Z-1.979 I0 J0.162
X-28.423 Y-107.662 Z-2.024 I0 J-0.162
X-28.423 Y-107.338 Z-2.07 I0 J0.162
X-28.423 Y-107.662 Z-2.116 I0 J-0.162
X-28.423 Y-107.338 Z-2.162 I0 J0.162
X-28.423 Y-107.662 Z-2.208 I0 J-0.162
X-28.423 Y-107.338 Z-2.254 I0 J0.162
X-28.423 Y-107.662 Z-2.299 I0 J-0.162
X-28.423 Y-107.338 Z-2.345 I0 J0.162
X-28.423 Y-107.662 Z-2.391 I0 J-0.162
X-28.423 Y-107.338 Z-2.437 I0 J0.162
X-28.423 Y-107.662 Z-2.483 I0 J-0.162
X-28.423 Y-107.338 Z-2.529 I0 J0.162
X-28.423 Y-107.662 Z-2.574 I0 J-0.162
X-28.423 Y-107.338 Z-2.62 I0 J0.162
X-28.423 Y-107.662 Z-2.666 I0 J-0.162
X-28.423 Y-107.338 Z-2.712 I0 J0.162
X-28.423 Y-107.662 Z-2.758 I0 J-0.162
X-28.423 Y-107.338 Z-2.804 I0 J0.162
X-28.423 Y-107.662 Z-2.849 I0 J-0.162
X-28.423 Y-107.338 Z-2.895 I0 J0.162
X-28.423 Y-107.662 Z-2.941 I0 J-0.162
X-28.423 Y-107.338 Z-2.987 I0 J0.162
X-28.423 Y-107.663 Z-3.033 I0 J-0.162
X-28.423 Y-107.337 Z-3.078 I0 J0.163
X-28.423 Y-107.663 Z-3.124 I0 J-0.163
X-28.423 Y-107.337 Z-3.17 I0 J0.163
X-28.423 Y-107.663 Z-3.216 I0 J-0.163
X-28.423 Y-107.337 Z-3.262 I0 J0.163
X-28.423 Y-107.663 Z-3.308 I0 J-0.163
X-28.423 Y-107.337 Z-3.353 I0 J0.163
X-28.423 Y-107.663 Z-3.399 I0 J-0.163
X-28.423 Y-107.337 Z-3.445 I0 J0.163
X-28.423 Y-107.663 Z-3.491 I0 J-0.163
X-28.423 Y-107.337 Z-3.537 I0 J0.163
X-28.423 Y-107.663 Z-3.583 I0 J-0.163
X-28.423 Y-107.337 Z-3.628 I0 J0.163
X-28.423 Y-107.663 Z-3.674 I0 J-0.163
X-28.423 Y-107.337 Z-3.72 I0 J0.163
X-28.423 Y-107.663 Z-3.766 I0 J-0.163
X-28.423 Y-107.337 Z-3.812 I0 J0.163
X-28.423 Y-107.663 Z-3.857 I0 J-0.163
X-28.423 Y-107.337 Z-3.903 I0 J0.163
X-28.423 Y-107.663 Z-3.949 I0 J-0.163
X-28.423 Y-107.337 Z-3.995 I0 J0.163
X-28.423 Y-107.663 Z-4.041 I0 J-0.163
X-28.423 Y-107.337 Z-4.087 I0 J0.163
X-28.423 Y-107.663 Z-4.132 I0 J-0.163
X-28.423 Y-107.337 Z-4.178 I0 J0.163
X-28.423 Y-107.663 Z-4.224 I0 J-0.163
X-28.423 Y-107.337 Z-4.27 I0 J0.163
X-28.567 Y-107.577 Z-4.3 I0 J-0.163
X-28.28 Y-107.423 I0.143 J0.077
X-28.567 Y-107.577 I-0.143 J-0.077
G1 X-28.546 Y-107.601
X-28.518 Y-107.616
X-28.487 Y-107.619
X-28.457 Y-107.61
X-28.317 Y-107.535
Z5
