(Mama_Halter)
(Bearbeiten)
(  Hersteller: ChinaCnc)
(  model: 3040T)
(  description: Generic 3-axis)
(T5 D=3.175 CR=0 - ZMIN=-4.3 - Schaftfrser)
G90 G94
G17
G21
(When using Fusion 360 for Personal Use, the feedrate of)
(rapid moves is reduced to match the feedrate of cutting)
(moves, which can increase machining time. Unrestricted rapid)
(moves are available with a Fusion 360 Subscription.)

(2D-Kontur1)
T5
S4000 M3
G54
G0 X-255.533 Y-168.52
Z15
G1 Z5 F1000
Z2.5 F333.3
Z-1.183
X-255.525 Z-1.253 F1000
X-255.501 Y-168.519 Z-1.32
X-255.463 Z-1.38
X-255.413 Y-168.518 Z-1.431
X-255.353 Y-168.516 Z-1.469
X-255.286 Y-168.515 Z-1.492
X-255.215 Y-168.513 Z-1.5
X-254.898 Y-168.507
G3 X-254.587 Y-168.183 I-0.007 J0.317
G1 Y-168.149
Y-111.937
X-271
G2 X-274.587 Y-108.349 I0 J3.588
G1 Y-97.349
G2 X-271 Y-93.761 I3.587 J0
G1 X-253
G2 X-252.549 Y-93.827 I0 J-1.588
G1 X-2.549 Y-167.827
G2 X-1.413 Y-169.349 I-0.451 J-1.522
G1 Y-171.349
G2 X-2.549 Y-172.871 I-1.587 J0
G1 X-252.549 Y-246.871
G2 X-253 Y-246.936 I-0.451 J1.522
G1 X-271
G2 X-274.587 Y-243.349 I0 J3.587
G1 Y-232.349
G2 X-271 Y-228.762 I3.587 J0
G1 X-254.587
Y-172.549
G2 X-253 Y-170.962 I1.587 J0
G1 X-124.588
Y-169.736
X-253
G2 X-254.587 Y-168.183 I0 J1.587
G3 X-254.911 Y-167.872 I-0.317 J-0.007
G1 X-255.229 Y-167.879
X-255.299 Y-167.88 Z-1.492
X-255.366 Y-167.881 Z-1.469
X-255.427 Y-167.883 Z-1.431
X-255.477 Y-167.884 Z-1.38
X-255.515 Y-167.885 Z-1.32
X-255.538 Z-1.253
X-255.546 Z-1.183
Z5
X-255.533 Y-168.52
Z1 F333.3
Z-2.683
X-255.525 Z-2.753 F1000
X-255.501 Y-168.519 Z-2.82
X-255.463 Z-2.88
X-255.413 Y-168.518 Z-2.931
X-255.353 Y-168.516 Z-2.969
X-255.286 Y-168.515 Z-2.992
X-255.215 Y-168.513 Z-3
X-254.898 Y-168.507
G3 X-254.587 Y-168.183 I-0.007 J0.317
G1 Y-168.149
Y-111.937
X-271
G2 X-274.587 Y-108.349 I0 J3.588
G1 Y-97.349
G2 X-271 Y-93.761 I3.587 J0
G1 X-253
G2 X-252.549 Y-93.827 I0 J-1.588
G1 X-2.549 Y-167.827
G2 X-1.413 Y-169.349 I-0.451 J-1.522
G1 Y-171.349
G2 X-2.549 Y-172.871 I-1.587 J0
G1 X-252.549 Y-246.871
G2 X-253 Y-246.936 I-0.451 J1.522
G1 X-271
G2 X-274.587 Y-243.349 I0 J3.587
G1 Y-232.349
G2 X-271 Y-228.762 I3.587 J0
G1 X-254.587
Y-172.549
G2 X-253 Y-170.962 I1.587 J0
G1 X-124.588
Y-169.736
X-253
G2 X-254.587 Y-168.183 I0 J1.587
G3 X-254.911 Y-167.872 I-0.317 J-0.007
G1 X-255.229 Y-167.879
X-255.299 Y-167.88 Z-2.992
X-255.366 Y-167.881 Z-2.969
X-255.427 Y-167.883 Z-2.931
X-255.477 Y-167.884 Z-2.88
X-255.515 Y-167.885 Z-2.82
X-255.538 Z-2.753
X-255.546 Z-2.683
Z5
X-255.533 Y-168.52
Z-0.5 F333.3
Z-3.983
X-255.525 Z-4.053 F1000
X-255.501 Y-168.519 Z-4.12
X-255.463 Z-4.18
X-255.413 Y-168.518 Z-4.231
X-255.353 Y-168.516 Z-4.269
X-255.286 Y-168.515 Z-4.292
X-255.215 Y-168.513 Z-4.3
X-254.898 Y-168.507
G3 X-254.587 Y-168.183 I-0.007 J0.317
G1 Y-168.149
Y-111.937
X-271
G2 X-274.587 Y-108.349 I0 J3.588
G1 Y-97.349
G2 X-271 Y-93.761 I3.587 J0
G1 X-253
G2 X-252.549 Y-93.827 I0 J-1.588
G1 X-2.549 Y-167.827
G2 X-1.413 Y-169.349 I-0.451 J-1.522
G1 Y-171.349
G2 X-2.549 Y-172.871 I-1.587 J0
G1 X-252.549 Y-246.871
G2 X-253 Y-246.936 I-0.451 J1.522
G1 X-271
G2 X-274.587 Y-243.349 I0 J3.587
G1 Y-232.349
G2 X-271 Y-228.762 I3.587 J0
G1 X-254.587
Y-172.549
G2 X-253 Y-170.962 I1.587 J0
G1 X-124.588
Y-169.736
X-253
G2 X-254.587 Y-168.183 I0 J1.587
G3 X-254.911 Y-167.872 I-0.317 J-0.007
G1 X-255.229 Y-167.879
X-255.299 Y-167.88 Z-4.292
X-255.366 Y-167.881 Z-4.269
X-255.427 Y-167.883 Z-4.231
X-255.477 Y-167.884 Z-4.18
X-255.515 Y-167.885 Z-4.12
X-255.538 Z-4.053
X-255.546 Z-3.983
Z5
X-248.813 Y-80.193
Z2.5 F333.3
Z-1.183
X-248.805 Y-80.194 Z-1.253 F1000
X-248.782 Y-80.197 Z-1.32
X-248.744 Y-80.202 Z-1.38
X-248.694 Y-80.208 Z-1.431
X-248.634 Y-80.216 Z-1.469
X-248.568 Y-80.224 Z-1.492
X-248.498 Y-80.233 Z-1.5
X-248.183 Y-80.273
G3 X-247.828 Y-79.999 I0.04 J0.315
G2 X-246.253 Y-78.613 I1.575 J-0.201
G1 X-155.087
Y-77.387
X-246.253
G2 X-246.745 Y-74.291 I0 J1.587
G1 X-23.492 Y-1.491
G2 X-23 Y-1.413 I0.492 J-1.509
G1 X-5
G2 X-1.413 Y-5 I0 J-3.587
G1 Y-16
G2 X-5 Y-19.587 I-3.587 J0
G1 X-21.413
Y-136.413
X-5
G2 X-1.413 Y-140 I0 J-3.587
G1 Y-151
G2 X-5 Y-154.587 I-3.587 J0
G1 X-23
G2 X-23.492 Y-154.509 I0 J1.587
G1 X-246.745 Y-81.709
G2 X-247.828 Y-79.999 I0.492 J1.509
G3 X-248.102 Y-79.643 I-0.315 J0.04
G1 X-248.417 Y-79.603
X-248.487 Y-79.594 Z-1.492
X-248.554 Y-79.586 Z-1.469
X-248.614 Y-79.578 Z-1.431
X-248.664 Y-79.572 Z-1.38
X-248.701 Y-79.567 Z-1.32
X-248.724 Y-79.564 Z-1.253
X-248.732 Y-79.563 Z-1.183
Z5
X-248.813 Y-80.193
Z1 F333.3
Z-2.683
X-248.805 Y-80.194 Z-2.753 F1000
X-248.782 Y-80.197 Z-2.82
X-248.744 Y-80.202 Z-2.88
X-248.694 Y-80.208 Z-2.931
X-248.634 Y-80.216 Z-2.969
X-248.568 Y-80.224 Z-2.992
X-248.498 Y-80.233 Z-3
X-248.183 Y-80.273
G3 X-247.828 Y-79.999 I0.04 J0.315
G2 X-246.253 Y-78.613 I1.575 J-0.201
G1 X-155.087
Y-77.387
X-246.253
G2 X-246.745 Y-74.291 I0 J1.587
G1 X-23.492 Y-1.491
G2 X-23 Y-1.413 I0.492 J-1.509
G1 X-5
G2 X-1.413 Y-5 I0 J-3.587
G1 Y-16
G2 X-5 Y-19.587 I-3.587 J0
G1 X-21.413
Y-136.413
X-5
G2 X-1.413 Y-140 I0 J-3.587
G1 Y-151
G2 X-5 Y-154.587 I-3.587 J0
G1 X-23
G2 X-23.492 Y-154.509 I0 J1.587
G1 X-246.745 Y-81.709
G2 X-247.828 Y-79.999 I0.492 J1.509
G3 X-248.102 Y-79.643 I-0.315 J0.04
G1 X-248.417 Y-79.603
X-248.487 Y-79.594 Z-2.992
X-248.554 Y-79.586 Z-2.969
X-248.614 Y-79.578 Z-2.931
X-248.664 Y-79.572 Z-2.88
X-248.701 Y-79.567 Z-2.82
X-248.724 Y-79.564 Z-2.753
X-248.732 Y-79.563 Z-2.683
Z5
X-248.813 Y-80.193
Z-0.5 F333.3
Z-3.983
X-248.805 Y-80.194 Z-4.053 F1000
X-248.782 Y-80.197 Z-4.12
X-248.744 Y-80.202 Z-4.18
X-248.694 Y-80.208 Z-4.231
X-248.634 Y-80.216 Z-4.269
X-248.568 Y-80.224 Z-4.292
X-248.498 Y-80.233 Z-4.3
X-248.183 Y-80.273
G3 X-247.828 Y-79.999 I0.04 J0.315
G2 X-246.253 Y-78.613 I1.575 J-0.201
G1 X-155.087
Y-77.387
X-246.253
G2 X-246.745 Y-74.291 I0 J1.587
G1 X-23.492 Y-1.491
G2 X-23 Y-1.413 I0.492 J-1.509
G1 X-5
G2 X-1.413 Y-5 I0 J-3.587
G1 Y-16
G2 X-5 Y-19.587 I-3.587 J0
G1 X-21.413
Y-136.413
X-5
G2 X-1.413 Y-140 I0 J-3.587
G1 Y-151
G2 X-5 Y-154.587 I-3.587 J0
G1 X-23
G2 X-23.492 Y-154.509 I0 J1.587
G1 X-246.745 Y-81.709
G2 X-247.828 Y-79.999 I0.492 J1.509
G3 X-248.102 Y-79.643 I-0.315 J0.04
G1 X-248.417 Y-79.603
X-248.487 Y-79.594 Z-4.292
X-248.554 Y-79.586 Z-4.269
X-248.614 Y-79.578 Z-4.231
X-248.664 Y-79.572 Z-4.18
X-248.701 Y-79.567 Z-4.12
X-248.724 Y-79.564 Z-4.053
X-248.732 Y-79.563 Z-3.983
Z15
M5
M30
