(MichiGeb)
(Maschine)
(  Hersteller: ChinaCnc)
(  model: 3040T)
(  description: Generic 3-axis)
(T5 D=3.175 CR=0 - ZMIN=-4.3 - Schaftfrser)
G90 G94
G17
G21
(-Attention- Property Safe Retracts is set to Clearance Height.)
(Ensure the clearance height will clear the part and or fixtures.)
(Raise the Z-axis to a safe height before starting the program.)
(When using Fusion for Personal Use, the feedrate of rapid)
(moves is reduced to match the feedrate of cutting moves,)
(which can increase machining time. Unrestricted rapid moves)
(are available with a Fusion Subscription.)

(Bohrfrsen1)
M0
(MANUAL TOOL CHANGE TO T5)
S2000 M3
G17 G90 G94
G54
G0 X-40.419 Y-182.077
Z15
G1 Z1.683 F1000
Z0
Y-181.919
X-40.425 Y-181.888
X-40.443 Y-181.861
X-40.469 Y-181.844
X-40.5 Y-181.837
G3 X-40.5 Y-182.163 Z-0.061 I0 J-0.163
X-40.5 Y-181.837 Z-0.122 I0 J0.163
X-40.5 Y-182.163 Z-0.183 I0 J-0.163
X-40.5 Y-181.837 Z-0.244 I0 J0.163
X-40.5 Y-182.163 Z-0.306 I0 J-0.163
X-40.5 Y-181.837 Z-0.367 I0 J0.163
X-40.5 Y-182.163 Z-0.428 I0 J-0.163
X-40.5 Y-181.837 Z-0.489 I0 J0.163
X-40.5 Y-182.163 Z-0.55 I0 J-0.163
X-40.5 Y-181.837 Z-0.611 I0 J0.163
X-40.5 Y-182.163 Z-0.672 I0 J-0.163
X-40.5 Y-181.837 Z-0.733 I0 J0.163
X-40.5 Y-182.163 Z-0.794 I0 J-0.163
X-40.5 Y-181.837 Z-0.856 I0 J0.163
X-40.5 Y-182.163 Z-0.917 I0 J-0.163
X-40.5 Y-181.837 Z-0.978 I0 J0.163
X-40.5 Y-182.163 Z-1.039 I0 J-0.163
X-40.5 Y-181.837 Z-1.1 I0 J0.163
X-40.5 Y-182.163 Z-1.161 I0 J-0.163
X-40.5 Y-181.837 Z-1.222 I0 J0.163
X-40.5 Y-182.163 Z-1.283 I0 J-0.163
X-40.5 Y-181.837 Z-1.344 I0 J0.163
X-40.5 Y-182.163 Z-1.406 I0 J-0.163
X-40.5 Y-181.837 Z-1.467 I0 J0.163
X-40.5 Y-182.163 Z-1.528 I0 J-0.163
X-40.5 Y-181.837 Z-1.589 I0 J0.163
X-40.5 Y-182.163 Z-1.65 I0 J-0.163
X-40.5 Y-181.837 Z-1.711 I0 J0.163
X-40.5 Y-182.163 Z-1.772 I0 J-0.163
X-40.5 Y-181.837 Z-1.833 I0 J0.163
X-40.5 Y-182.163 Z-1.894 I0 J-0.163
X-40.5 Y-181.837 Z-1.956 I0 J0.163
X-40.5 Y-182.163 Z-2.017 I0 J-0.163
X-40.5 Y-181.837 Z-2.078 I0 J0.163
X-40.5 Y-182.163 Z-2.139 I0 J-0.163
X-40.5 Y-181.837 Z-2.2 I0 J0.163
X-40.5 Y-182.163 Z-2.261 I0 J-0.163
X-40.5 Y-181.837 Z-2.322 I0 J0.163
X-40.5 Y-182.163 Z-2.383 I0 J-0.163
X-40.5 Y-181.837 Z-2.444 I0 J0.163
X-40.5 Y-182.163 Z-2.506 I0 J-0.163
X-40.5 Y-181.837 Z-2.567 I0 J0.163
X-40.5 Y-182.163 Z-2.628 I0 J-0.163
X-40.5 Y-181.837 Z-2.689 I0 J0.163
X-40.5 Y-182.163 Z-2.75 I0 J-0.163
X-40.5 Y-181.837 Z-2.811 I0 J0.163
X-40.5 Y-182.163 Z-2.872 I0 J-0.163
X-40.5 Y-181.837 Z-2.933 I0 J0.163
X-40.5 Y-182.163 Z-2.994 I0 J-0.163
X-40.5 Y-181.837 Z-3.056 I0 J0.163
X-40.5 Y-182.163 Z-3.117 I0 J-0.163
X-40.5 Y-181.837 Z-3.178 I0 J0.163
X-40.5 Y-182.163 Z-3.239 I0 J-0.163
X-40.5 Y-181.837 Z-3.3 I0 J0.163
X-40.5 Y-182.163 Z-3.361 I0 J-0.163
X-40.5 Y-181.837 Z-3.422 I0 J0.163
X-40.5 Y-182.163 Z-3.483 I0 J-0.163
X-40.5 Y-181.837 Z-3.544 I0 J0.163
X-40.5 Y-182.163 Z-3.606 I0 J-0.163
X-40.5 Y-181.837 Z-3.667 I0 J0.163
X-40.5 Y-182.163 Z-3.728 I0 J-0.163
X-40.5 Y-181.838 Z-3.789 I0 J0.163
X-40.5 Y-182.162 Z-3.85 I0 J-0.162
X-40.5 Y-181.838 Z-3.911 I0 J0.162
X-40.5 Y-182.162 Z-3.972 I0 J-0.162
X-40.5 Y-181.838 Z-4.033 I0 J0.162
X-40.5 Y-182.162 Z-4.094 I0 J-0.162
X-40.5 Y-181.838 Z-4.156 I0 J0.162
X-40.5 Y-182.162 Z-4.217 I0 J-0.162
X-40.5 Y-181.838 Z-4.278 I0 J0.162
X-40.648 Y-181.932 Z-4.3 I0 J-0.162
X-40.352 Y-182.068 I0.148 J-0.068
X-40.648 Y-181.932 I-0.148 J0.068
G1 X-40.655 Y-181.963
X-40.65 Y-181.995
X-40.633 Y-182.022
X-40.608 Y-182.04
X-40.463 Y-182.106
Z5
X-124.419 Y-182.077
Z1.683
Z0
Y-181.919
X-124.425 Y-181.888
X-124.443 Y-181.861
X-124.469 Y-181.844
X-124.5 Y-181.837
G3 X-124.5 Y-182.163 Z-0.061 I0 J-0.163
X-124.5 Y-181.837 Z-0.122 I0 J0.163
X-124.5 Y-182.163 Z-0.183 I0 J-0.163
X-124.5 Y-181.837 Z-0.244 I0 J0.163
X-124.5 Y-182.163 Z-0.306 I0 J-0.163
X-124.5 Y-181.837 Z-0.367 I0 J0.163
X-124.5 Y-182.163 Z-0.428 I0 J-0.163
X-124.5 Y-181.837 Z-0.489 I0 J0.163
X-124.5 Y-182.163 Z-0.55 I0 J-0.163
X-124.5 Y-181.837 Z-0.611 I0 J0.163
X-124.5 Y-182.163 Z-0.672 I0 J-0.163
X-124.5 Y-181.837 Z-0.733 I0 J0.163
X-124.5 Y-182.163 Z-0.794 I0 J-0.163
X-124.5 Y-181.837 Z-0.856 I0 J0.163
X-124.5 Y-182.163 Z-0.917 I0 J-0.163
X-124.5 Y-181.837 Z-0.978 I0 J0.163
X-124.5 Y-182.163 Z-1.039 I0 J-0.163
X-124.5 Y-181.837 Z-1.1 I0 J0.163
X-124.5 Y-182.163 Z-1.161 I0 J-0.163
X-124.5 Y-181.837 Z-1.222 I0 J0.163
X-124.5 Y-182.163 Z-1.283 I0 J-0.163
X-124.5 Y-181.837 Z-1.344 I0 J0.163
X-124.5 Y-182.163 Z-1.406 I0 J-0.163
X-124.5 Y-181.837 Z-1.467 I0 J0.163
X-124.5 Y-182.163 Z-1.528 I0 J-0.163
X-124.5 Y-181.837 Z-1.589 I0 J0.163
X-124.5 Y-182.163 Z-1.65 I0 J-0.163
X-124.5 Y-181.837 Z-1.711 I0 J0.163
X-124.5 Y-182.163 Z-1.772 I0 J-0.163
X-124.5 Y-181.837 Z-1.833 I0 J0.163
X-124.5 Y-182.163 Z-1.894 I0 J-0.163
X-124.5 Y-181.837 Z-1.956 I0 J0.163
X-124.5 Y-182.163 Z-2.017 I0 J-0.163
X-124.5 Y-181.837 Z-2.078 I0 J0.163
X-124.5 Y-182.163 Z-2.139 I0 J-0.163
X-124.5 Y-181.837 Z-2.2 I0 J0.163
X-124.5 Y-182.163 Z-2.261 I0 J-0.163
X-124.5 Y-181.837 Z-2.322 I0 J0.163
X-124.5 Y-182.163 Z-2.383 I0 J-0.163
X-124.5 Y-181.837 Z-2.444 I0 J0.163
X-124.5 Y-182.163 Z-2.506 I0 J-0.163
X-124.5 Y-181.837 Z-2.567 I0 J0.163
X-124.5 Y-182.163 Z-2.628 I0 J-0.163
X-124.5 Y-181.837 Z-2.689 I0 J0.163
X-124.5 Y-182.163 Z-2.75 I0 J-0.163
X-124.5 Y-181.837 Z-2.811 I0 J0.163
X-124.5 Y-182.163 Z-2.872 I0 J-0.163
X-124.5 Y-181.837 Z-2.933 I0 J0.163
X-124.5 Y-182.163 Z-2.994 I0 J-0.163
X-124.5 Y-181.837 Z-3.056 I0 J0.163
X-124.5 Y-182.163 Z-3.117 I0 J-0.163
X-124.5 Y-181.837 Z-3.178 I0 J0.163
X-124.5 Y-182.163 Z-3.239 I0 J-0.163
X-124.5 Y-181.837 Z-3.3 I0 J0.163
X-124.5 Y-182.163 Z-3.361 I0 J-0.163
X-124.5 Y-181.837 Z-3.422 I0 J0.163
X-124.5 Y-182.163 Z-3.483 I0 J-0.163
X-124.5 Y-181.837 Z-3.544 I0 J0.163
X-124.5 Y-182.163 Z-3.606 I0 J-0.163
X-124.5 Y-181.837 Z-3.667 I0 J0.163
X-124.5 Y-182.163 Z-3.728 I0 J-0.163
X-124.5 Y-181.838 Z-3.789 I0 J0.163
X-124.5 Y-182.162 Z-3.85 I0 J-0.162
X-124.5 Y-181.838 Z-3.911 I0 J0.162
X-124.5 Y-182.162 Z-3.972 I0 J-0.162
X-124.5 Y-181.838 Z-4.033 I0 J0.162
X-124.5 Y-182.162 Z-4.094 I0 J-0.162
X-124.5 Y-181.838 Z-4.156 I0 J0.162
X-124.5 Y-182.162 Z-4.217 I0 J-0.162
X-124.5 Y-181.838 Z-4.278 I0 J0.162
X-124.648 Y-181.932 Z-4.3 I0 J-0.162
X-124.352 Y-182.068 I0.148 J-0.068
X-124.648 Y-181.932 I-0.148 J0.068
G1 X-124.655 Y-181.963
X-124.65 Y-181.995
X-124.633 Y-182.022
X-124.608 Y-182.04
X-124.463 Y-182.106
Z5
X-155.581 Y-181.923
Z1.683
Z0
Y-182.081
X-155.575 Y-182.112
X-155.557 Y-182.139
X-155.531 Y-182.156
X-155.5 Y-182.163
G3 X-155.5 Y-181.837 Z-0.061 I0 J0.163
X-155.5 Y-182.163 Z-0.122 I0 J-0.163
X-155.5 Y-181.837 Z-0.183 I0 J0.163
X-155.5 Y-182.163 Z-0.244 I0 J-0.163
X-155.5 Y-181.837 Z-0.306 I0 J0.163
X-155.5 Y-182.163 Z-0.367 I0 J-0.163
X-155.5 Y-181.837 Z-0.428 I0 J0.163
X-155.5 Y-182.163 Z-0.489 I0 J-0.163
X-155.5 Y-181.837 Z-0.55 I0 J0.163
X-155.5 Y-182.163 Z-0.611 I0 J-0.163
X-155.5 Y-181.837 Z-0.672 I0 J0.163
X-155.5 Y-182.163 Z-0.733 I0 J-0.163
X-155.5 Y-181.837 Z-0.794 I0 J0.163
X-155.5 Y-182.163 Z-0.856 I0 J-0.163
X-155.5 Y-181.837 Z-0.917 I0 J0.163
X-155.5 Y-182.163 Z-0.978 I0 J-0.163
X-155.5 Y-181.837 Z-1.039 I0 J0.163
X-155.5 Y-182.163 Z-1.1 I0 J-0.163
X-155.5 Y-181.837 Z-1.161 I0 J0.163
X-155.5 Y-182.163 Z-1.222 I0 J-0.163
X-155.5 Y-181.837 Z-1.283 I0 J0.163
X-155.5 Y-182.163 Z-1.344 I0 J-0.163
X-155.5 Y-181.837 Z-1.406 I0 J0.163
X-155.5 Y-182.163 Z-1.467 I0 J-0.163
X-155.5 Y-181.837 Z-1.528 I0 J0.163
X-155.5 Y-182.163 Z-1.589 I0 J-0.163
X-155.5 Y-181.837 Z-1.65 I0 J0.163
X-155.5 Y-182.163 Z-1.711 I0 J-0.163
X-155.5 Y-181.837 Z-1.772 I0 J0.163
X-155.5 Y-182.163 Z-1.833 I0 J-0.163
X-155.5 Y-181.838 Z-1.894 I0 J0.163
X-155.5 Y-182.162 Z-1.956 I0 J-0.162
X-155.5 Y-181.838 Z-2.017 I0 J0.162
X-155.5 Y-182.162 Z-2.078 I0 J-0.162
X-155.5 Y-181.838 Z-2.139 I0 J0.162
X-155.5 Y-182.162 Z-2.2 I0 J-0.162
X-155.5 Y-181.838 Z-2.261 I0 J0.162
X-155.5 Y-182.162 Z-2.322 I0 J-0.162
X-155.5 Y-181.838 Z-2.383 I0 J0.162
X-155.5 Y-182.162 Z-2.444 I0 J-0.162
X-155.5 Y-181.838 Z-2.506 I0 J0.162
X-155.5 Y-182.162 Z-2.567 I0 J-0.162
X-155.5 Y-181.838 Z-2.628 I0 J0.162
X-155.5 Y-182.162 Z-2.689 I0 J-0.162
X-155.5 Y-181.838 Z-2.75 I0 J0.162
X-155.5 Y-182.162 Z-2.811 I0 J-0.162
X-155.5 Y-181.838 Z-2.872 I0 J0.162
X-155.5 Y-182.162 Z-2.933 I0 J-0.162
X-155.5 Y-181.838 Z-2.994 I0 J0.162
X-155.5 Y-182.162 Z-3.056 I0 J-0.162
X-155.5 Y-181.838 Z-3.117 I0 J0.162
X-155.5 Y-182.162 Z-3.178 I0 J-0.162
X-155.5 Y-181.838 Z-3.239 I0 J0.162
X-155.5 Y-182.162 Z-3.3 I0 J-0.162
X-155.5 Y-181.838 Z-3.361 I0 J0.162
X-155.5 Y-182.162 Z-3.422 I0 J-0.162
X-155.5 Y-181.838 Z-3.483 I0 J0.162
X-155.5 Y-182.162 Z-3.544 I0 J-0.162
X-155.5 Y-181.838 Z-3.606 I0 J0.162
X-155.5 Y-182.162 Z-3.667 I0 J-0.162
X-155.5 Y-181.838 Z-3.728 I0 J0.162
X-155.5 Y-182.162 Z-3.789 I0 J-0.162
X-155.5 Y-181.838 Z-3.85 I0 J0.162
X-155.5 Y-182.162 Z-3.911 I0 J-0.162
X-155.5 Y-181.838 Z-3.972 I0 J0.162
X-155.5 Y-182.162 Z-4.033 I0 J-0.162
X-155.5 Y-181.838 Z-4.094 I0 J0.162
X-155.5 Y-182.162 Z-4.156 I0 J-0.162
X-155.5 Y-181.838 Z-4.217 I0 J0.162
X-155.5 Y-182.162 Z-4.278 I0 J-0.162
X-155.352 Y-182.068 Z-4.3 I0 J0.162
X-155.648 Y-181.932 I-0.148 J0.068
X-155.352 Y-182.068 I0.148 J-0.068
G1 X-155.345 Y-182.037
X-155.35 Y-182.005
X-155.367 Y-181.978
X-155.392 Y-181.96
X-155.537 Y-181.894
Z5
X-239.581 Y-181.923
Z1.683
Z0
Y-182.081
X-239.575 Y-182.112
X-239.557 Y-182.139
X-239.531 Y-182.156
X-239.5 Y-182.163
G3 X-239.5 Y-181.837 Z-0.061 I0 J0.163
X-239.5 Y-182.163 Z-0.122 I0 J-0.163
X-239.5 Y-181.837 Z-0.183 I0 J0.163
X-239.5 Y-182.163 Z-0.244 I0 J-0.163
X-239.5 Y-181.837 Z-0.306 I0 J0.163
X-239.5 Y-182.163 Z-0.367 I0 J-0.163
X-239.5 Y-181.837 Z-0.428 I0 J0.163
X-239.5 Y-182.163 Z-0.489 I0 J-0.163
X-239.5 Y-181.837 Z-0.55 I0 J0.163
X-239.5 Y-182.163 Z-0.611 I0 J-0.163
X-239.5 Y-181.837 Z-0.672 I0 J0.163
X-239.5 Y-182.163 Z-0.733 I0 J-0.163
X-239.5 Y-181.837 Z-0.794 I0 J0.163
X-239.5 Y-182.163 Z-0.856 I0 J-0.163
X-239.5 Y-181.837 Z-0.917 I0 J0.163
X-239.5 Y-182.163 Z-0.978 I0 J-0.163
X-239.5 Y-181.837 Z-1.039 I0 J0.163
X-239.5 Y-182.163 Z-1.1 I0 J-0.163
X-239.5 Y-181.837 Z-1.161 I0 J0.163
X-239.5 Y-182.163 Z-1.222 I0 J-0.163
X-239.5 Y-181.837 Z-1.283 I0 J0.163
X-239.5 Y-182.163 Z-1.344 I0 J-0.163
X-239.5 Y-181.837 Z-1.406 I0 J0.163
X-239.5 Y-182.163 Z-1.467 I0 J-0.163
X-239.5 Y-181.837 Z-1.528 I0 J0.163
X-239.5 Y-182.163 Z-1.589 I0 J-0.163
X-239.5 Y-181.837 Z-1.65 I0 J0.163
X-239.5 Y-182.163 Z-1.711 I0 J-0.163
X-239.5 Y-181.837 Z-1.772 I0 J0.163
X-239.5 Y-182.163 Z-1.833 I0 J-0.163
X-239.5 Y-181.838 Z-1.894 I0 J0.163
X-239.5 Y-182.162 Z-1.956 I0 J-0.162
X-239.5 Y-181.838 Z-2.017 I0 J0.162
X-239.5 Y-182.162 Z-2.078 I0 J-0.162
X-239.5 Y-181.838 Z-2.139 I0 J0.162
X-239.5 Y-182.162 Z-2.2 I0 J-0.162
X-239.5 Y-181.838 Z-2.261 I0 J0.162
X-239.5 Y-182.162 Z-2.322 I0 J-0.162
X-239.5 Y-181.838 Z-2.383 I0 J0.162
X-239.5 Y-182.162 Z-2.444 I0 J-0.162
X-239.5 Y-181.838 Z-2.506 I0 J0.162
X-239.5 Y-182.162 Z-2.567 I0 J-0.162
X-239.5 Y-181.838 Z-2.628 I0 J0.162
X-239.5 Y-182.162 Z-2.689 I0 J-0.162
X-239.5 Y-181.838 Z-2.75 I0 J0.162
X-239.5 Y-182.162 Z-2.811 I0 J-0.162
X-239.5 Y-181.838 Z-2.872 I0 J0.162
X-239.5 Y-182.162 Z-2.933 I0 J-0.162
X-239.5 Y-181.838 Z-2.994 I0 J0.162
X-239.5 Y-182.162 Z-3.056 I0 J-0.162
X-239.5 Y-181.838 Z-3.117 I0 J0.162
X-239.5 Y-182.162 Z-3.178 I0 J-0.162
X-239.5 Y-181.838 Z-3.239 I0 J0.162
X-239.5 Y-182.162 Z-3.3 I0 J-0.162
X-239.5 Y-181.838 Z-3.361 I0 J0.162
X-239.5 Y-182.162 Z-3.422 I0 J-0.162
X-239.5 Y-181.838 Z-3.483 I0 J0.162
X-239.5 Y-182.162 Z-3.544 I0 J-0.162
X-239.5 Y-181.838 Z-3.606 I0 J0.162
X-239.5 Y-182.162 Z-3.667 I0 J-0.162
X-239.5 Y-181.838 Z-3.728 I0 J0.162
X-239.5 Y-182.162 Z-3.789 I0 J-0.162
X-239.5 Y-181.838 Z-3.85 I0 J0.162
X-239.5 Y-182.162 Z-3.911 I0 J-0.162
X-239.5 Y-181.838 Z-3.972 I0 J0.162
X-239.5 Y-182.162 Z-4.033 I0 J-0.162
X-239.5 Y-181.838 Z-4.094 I0 J0.162
X-239.5 Y-182.162 Z-4.156 I0 J-0.162
X-239.5 Y-181.838 Z-4.217 I0 J0.162
X-239.5 Y-182.162 Z-4.278 I0 J-0.162
X-239.352 Y-182.068 Z-4.3 I0 J0.162
X-239.648 Y-181.932 I-0.148 J0.068
X-239.352 Y-182.068 I0.148 J-0.068
G1 X-239.345 Y-182.037
X-239.35 Y-182.005
X-239.367 Y-181.978
X-239.392 Y-181.96
X-239.537 Y-181.894
Z5
X-239.581 Y-17.923
Z1.683
Z0
Y-18.081
X-239.575 Y-18.112
X-239.557 Y-18.139
X-239.531 Y-18.156
X-239.5 Y-18.163
G3 X-239.5 Y-17.837 Z-0.061 I0 J0.163
X-239.5 Y-18.163 Z-0.122 I0 J-0.163
X-239.5 Y-17.837 Z-0.183 I0 J0.163
X-239.5 Y-18.163 Z-0.244 I0 J-0.163
X-239.5 Y-17.838 Z-0.306 I0 J0.163
X-239.5 Y-18.162 Z-0.367 I0 J-0.162
X-239.5 Y-17.838 Z-0.428 I0 J0.162
X-239.5 Y-18.162 Z-0.489 I0 J-0.162
X-239.5 Y-17.838 Z-0.55 I0 J0.162
X-239.5 Y-18.162 Z-0.611 I0 J-0.162
X-239.5 Y-17.838 Z-0.672 I0 J0.162
X-239.5 Y-18.162 Z-0.733 I0 J-0.162
X-239.5 Y-17.838 Z-0.794 I0 J0.162
X-239.5 Y-18.162 Z-0.856 I0 J-0.162
X-239.5 Y-17.838 Z-0.917 I0 J0.162
X-239.5 Y-18.162 Z-0.978 I0 J-0.162
X-239.5 Y-17.838 Z-1.039 I0 J0.162
X-239.5 Y-18.162 Z-1.1 I0 J-0.162
X-239.5 Y-17.838 Z-1.161 I0 J0.162
X-239.5 Y-18.162 Z-1.222 I0 J-0.162
X-239.5 Y-17.838 Z-1.283 I0 J0.162
X-239.5 Y-18.162 Z-1.344 I0 J-0.162
X-239.5 Y-17.838 Z-1.406 I0 J0.162
X-239.5 Y-18.162 Z-1.467 I0 J-0.162
X-239.5 Y-17.838 Z-1.528 I0 J0.162
X-239.5 Y-18.162 Z-1.589 I0 J-0.162
X-239.5 Y-17.838 Z-1.65 I0 J0.162
X-239.5 Y-18.162 Z-1.711 I0 J-0.162
X-239.5 Y-17.838 Z-1.772 I0 J0.162
X-239.5 Y-18.162 Z-1.833 I0 J-0.162
X-239.5 Y-17.838 Z-1.894 I0 J0.162
X-239.5 Y-18.162 Z-1.956 I0 J-0.162
X-239.5 Y-17.838 Z-2.017 I0 J0.162
X-239.5 Y-18.162 Z-2.078 I0 J-0.162
X-239.5 Y-17.838 Z-2.139 I0 J0.162
X-239.5 Y-18.162 Z-2.2 I0 J-0.162
X-239.5 Y-17.838 Z-2.261 I0 J0.162
X-239.5 Y-18.162 Z-2.322 I0 J-0.162
X-239.5 Y-17.838 Z-2.383 I0 J0.162
X-239.5 Y-18.162 Z-2.444 I0 J-0.162
X-239.5 Y-17.838 Z-2.506 I0 J0.162
X-239.5 Y-18.162 Z-2.567 I0 J-0.162
X-239.5 Y-17.838 Z-2.628 I0 J0.162
X-239.5 Y-18.162 Z-2.689 I0 J-0.162
X-239.5 Y-17.838 Z-2.75 I0 J0.162
X-239.5 Y-18.162 Z-2.811 I0 J-0.162
X-239.5 Y-17.838 Z-2.872 I0 J0.162
X-239.5 Y-18.162 Z-2.933 I0 J-0.162
X-239.5 Y-17.838 Z-2.994 I0 J0.162
X-239.5 Y-18.162 Z-3.056 I0 J-0.162
X-239.5 Y-17.838 Z-3.117 I0 J0.162
X-239.5 Y-18.162 Z-3.178 I0 J-0.162
X-239.5 Y-17.838 Z-3.239 I0 J0.162
X-239.5 Y-18.162 Z-3.3 I0 J-0.162
X-239.5 Y-17.838 Z-3.361 I0 J0.162
X-239.5 Y-18.162 Z-3.422 I0 J-0.162
X-239.5 Y-17.838 Z-3.483 I0 J0.162
X-239.5 Y-18.162 Z-3.544 I0 J-0.162
X-239.5 Y-17.838 Z-3.606 I0 J0.162
X-239.5 Y-18.162 Z-3.667 I0 J-0.162
X-239.5 Y-17.838 Z-3.728 I0 J0.162
X-239.5 Y-18.162 Z-3.789 I0 J-0.162
X-239.5 Y-17.838 Z-3.85 I0 J0.162
X-239.5 Y-18.162 Z-3.911 I0 J-0.162
X-239.5 Y-17.838 Z-3.972 I0 J0.162
X-239.5 Y-18.162 Z-4.033 I0 J-0.162
X-239.5 Y-17.838 Z-4.094 I0 J0.162
X-239.5 Y-18.162 Z-4.156 I0 J-0.162
X-239.5 Y-17.838 Z-4.217 I0 J0.162
X-239.5 Y-18.162 Z-4.278 I0 J-0.162
X-239.352 Y-18.068 Z-4.3 I0 J0.162
X-239.648 Y-17.932 I-0.148 J0.068
X-239.352 Y-18.068 I0.148 J-0.068
G1 X-239.345 Y-18.037
X-239.35 Y-18.005
X-239.367 Y-17.979
X-239.392 Y-17.96
X-239.537 Y-17.894
Z5
X-155.581 Y-17.923
Z1.683
Z0
Y-18.081
X-155.575 Y-18.112
X-155.557 Y-18.139
X-155.531 Y-18.156
X-155.5 Y-18.163
G3 X-155.5 Y-17.837 Z-0.061 I0 J0.163
X-155.5 Y-18.163 Z-0.122 I0 J-0.163
X-155.5 Y-17.837 Z-0.183 I0 J0.163
X-155.5 Y-18.163 Z-0.244 I0 J-0.163
X-155.5 Y-17.838 Z-0.306 I0 J0.163
X-155.5 Y-18.162 Z-0.367 I0 J-0.162
X-155.5 Y-17.838 Z-0.428 I0 J0.162
X-155.5 Y-18.162 Z-0.489 I0 J-0.162
X-155.5 Y-17.838 Z-0.55 I0 J0.162
X-155.5 Y-18.162 Z-0.611 I0 J-0.162
X-155.5 Y-17.838 Z-0.672 I0 J0.162
X-155.5 Y-18.162 Z-0.733 I0 J-0.162
X-155.5 Y-17.838 Z-0.794 I0 J0.162
X-155.5 Y-18.162 Z-0.856 I0 J-0.162
X-155.5 Y-17.838 Z-0.917 I0 J0.162
X-155.5 Y-18.162 Z-0.978 I0 J-0.162
X-155.5 Y-17.838 Z-1.039 I0 J0.162
X-155.5 Y-18.162 Z-1.1 I0 J-0.162
X-155.5 Y-17.838 Z-1.161 I0 J0.162
X-155.5 Y-18.162 Z-1.222 I0 J-0.162
X-155.5 Y-17.838 Z-1.283 I0 J0.162
X-155.5 Y-18.162 Z-1.344 I0 J-0.162
X-155.5 Y-17.838 Z-1.406 I0 J0.162
X-155.5 Y-18.162 Z-1.467 I0 J-0.162
X-155.5 Y-17.838 Z-1.528 I0 J0.162
X-155.5 Y-18.162 Z-1.589 I0 J-0.162
X-155.5 Y-17.838 Z-1.65 I0 J0.162
X-155.5 Y-18.162 Z-1.711 I0 J-0.162
X-155.5 Y-17.838 Z-1.772 I0 J0.162
X-155.5 Y-18.162 Z-1.833 I0 J-0.162
X-155.5 Y-17.838 Z-1.894 I0 J0.162
X-155.5 Y-18.162 Z-1.956 I0 J-0.162
X-155.5 Y-17.838 Z-2.017 I0 J0.162
X-155.5 Y-18.162 Z-2.078 I0 J-0.162
X-155.5 Y-17.838 Z-2.139 I0 J0.162
X-155.5 Y-18.162 Z-2.2 I0 J-0.162
X-155.5 Y-17.838 Z-2.261 I0 J0.162
X-155.5 Y-18.162 Z-2.322 I0 J-0.162
X-155.5 Y-17.838 Z-2.383 I0 J0.162
X-155.5 Y-18.162 Z-2.444 I0 J-0.162
X-155.5 Y-17.838 Z-2.506 I0 J0.162
X-155.5 Y-18.162 Z-2.567 I0 J-0.162
X-155.5 Y-17.838 Z-2.628 I0 J0.162
X-155.5 Y-18.162 Z-2.689 I0 J-0.162
X-155.5 Y-17.838 Z-2.75 I0 J0.162
X-155.5 Y-18.162 Z-2.811 I0 J-0.162
X-155.5 Y-17.838 Z-2.872 I0 J0.162
X-155.5 Y-18.162 Z-2.933 I0 J-0.162
X-155.5 Y-17.838 Z-2.994 I0 J0.162
X-155.5 Y-18.162 Z-3.056 I0 J-0.162
X-155.5 Y-17.838 Z-3.117 I0 J0.162
X-155.5 Y-18.162 Z-3.178 I0 J-0.162
X-155.5 Y-17.838 Z-3.239 I0 J0.162
X-155.5 Y-18.162 Z-3.3 I0 J-0.162
X-155.5 Y-17.838 Z-3.361 I0 J0.162
X-155.5 Y-18.162 Z-3.422 I0 J-0.162
X-155.5 Y-17.838 Z-3.483 I0 J0.162
X-155.5 Y-18.162 Z-3.544 I0 J-0.162
X-155.5 Y-17.838 Z-3.606 I0 J0.162
X-155.5 Y-18.162 Z-3.667 I0 J-0.162
X-155.5 Y-17.838 Z-3.728 I0 J0.162
X-155.5 Y-18.162 Z-3.789 I0 J-0.162
X-155.5 Y-17.838 Z-3.85 I0 J0.162
X-155.5 Y-18.162 Z-3.911 I0 J-0.162
X-155.5 Y-17.838 Z-3.972 I0 J0.162
X-155.5 Y-18.162 Z-4.033 I0 J-0.162
X-155.5 Y-17.838 Z-4.094 I0 J0.162
X-155.5 Y-18.162 Z-4.156 I0 J-0.162
X-155.5 Y-17.838 Z-4.217 I0 J0.162
X-155.5 Y-18.162 Z-4.278 I0 J-0.162
X-155.352 Y-18.068 Z-4.3 I0 J0.162
X-155.648 Y-17.932 I-0.148 J0.068
X-155.352 Y-18.068 I0.148 J-0.068
G1 X-155.345 Y-18.037
X-155.35 Y-18.005
X-155.367 Y-17.979
X-155.392 Y-17.96
X-155.537 Y-17.894
Z5
X-124.419 Y-18.077
Z1.683
Z0
Y-17.919
X-124.425 Y-17.888
X-124.443 Y-17.861
X-124.469 Y-17.844
X-124.5 Y-17.837
G3 X-124.5 Y-18.163 Z-0.061 I0 J-0.163
X-124.5 Y-17.837 Z-0.122 I0 J0.163
X-124.5 Y-18.163 Z-0.183 I0 J-0.163
X-124.5 Y-17.837 Z-0.244 I0 J0.163
X-124.5 Y-18.163 Z-0.306 I0 J-0.163
X-124.5 Y-17.837 Z-0.367 I0 J0.163
X-124.5 Y-18.163 Z-0.428 I0 J-0.163
X-124.5 Y-17.837 Z-0.489 I0 J0.163
X-124.5 Y-18.163 Z-0.55 I0 J-0.163
X-124.5 Y-17.837 Z-0.611 I0 J0.163
X-124.5 Y-18.163 Z-0.672 I0 J-0.163
X-124.5 Y-17.837 Z-0.733 I0 J0.163
X-124.5 Y-18.163 Z-0.794 I0 J-0.163
X-124.5 Y-17.837 Z-0.856 I0 J0.163
X-124.5 Y-18.163 Z-0.917 I0 J-0.163
X-124.5 Y-17.837 Z-0.978 I0 J0.163
X-124.5 Y-18.163 Z-1.039 I0 J-0.163
X-124.5 Y-17.837 Z-1.1 I0 J0.163
X-124.5 Y-18.163 Z-1.161 I0 J-0.163
X-124.5 Y-17.837 Z-1.222 I0 J0.163
X-124.5 Y-18.163 Z-1.283 I0 J-0.163
X-124.5 Y-17.837 Z-1.344 I0 J0.163
X-124.5 Y-18.163 Z-1.406 I0 J-0.163
X-124.5 Y-17.837 Z-1.467 I0 J0.163
X-124.5 Y-18.163 Z-1.528 I0 J-0.163
X-124.5 Y-17.837 Z-1.589 I0 J0.163
X-124.5 Y-18.163 Z-1.65 I0 J-0.163
X-124.5 Y-17.837 Z-1.711 I0 J0.163
X-124.5 Y-18.163 Z-1.772 I0 J-0.163
X-124.5 Y-17.837 Z-1.833 I0 J0.163
X-124.5 Y-18.163 Z-1.894 I0 J-0.163
X-124.5 Y-17.837 Z-1.956 I0 J0.163
X-124.5 Y-18.163 Z-2.017 I0 J-0.163
X-124.5 Y-17.837 Z-2.078 I0 J0.163
X-124.5 Y-18.163 Z-2.139 I0 J-0.163
X-124.5 Y-17.837 Z-2.2 I0 J0.163
X-124.5 Y-18.163 Z-2.261 I0 J-0.163
X-124.5 Y-17.837 Z-2.322 I0 J0.163
X-124.5 Y-18.163 Z-2.383 I0 J-0.163
X-124.5 Y-17.837 Z-2.444 I0 J0.163
X-124.5 Y-18.163 Z-2.506 I0 J-0.163
X-124.5 Y-17.837 Z-2.567 I0 J0.163
X-124.5 Y-18.163 Z-2.628 I0 J-0.163
X-124.5 Y-17.837 Z-2.689 I0 J0.163
X-124.5 Y-18.163 Z-2.75 I0 J-0.163
X-124.5 Y-17.837 Z-2.811 I0 J0.163
X-124.5 Y-18.163 Z-2.872 I0 J-0.163
X-124.5 Y-17.837 Z-2.933 I0 J0.163
X-124.5 Y-18.163 Z-2.994 I0 J-0.163
X-124.5 Y-17.837 Z-3.056 I0 J0.163
X-124.5 Y-18.163 Z-3.117 I0 J-0.163
X-124.5 Y-17.837 Z-3.178 I0 J0.163
X-124.5 Y-18.163 Z-3.239 I0 J-0.163
X-124.5 Y-17.837 Z-3.3 I0 J0.163
X-124.5 Y-18.163 Z-3.361 I0 J-0.163
X-124.5 Y-17.837 Z-3.422 I0 J0.163
X-124.5 Y-18.163 Z-3.483 I0 J-0.163
X-124.5 Y-17.837 Z-3.544 I0 J0.163
X-124.5 Y-18.163 Z-3.606 I0 J-0.163
X-124.5 Y-17.837 Z-3.667 I0 J0.163
X-124.5 Y-18.163 Z-3.728 I0 J-0.163
X-124.5 Y-17.837 Z-3.789 I0 J0.163
X-124.5 Y-18.163 Z-3.85 I0 J-0.163
X-124.5 Y-17.837 Z-3.911 I0 J0.163
X-124.5 Y-18.163 Z-3.972 I0 J-0.163
X-124.5 Y-17.837 Z-4.033 I0 J0.163
X-124.5 Y-18.163 Z-4.094 I0 J-0.163
X-124.5 Y-17.837 Z-4.156 I0 J0.163
X-124.5 Y-18.163 Z-4.217 I0 J-0.163
X-124.5 Y-17.837 Z-4.278 I0 J0.163
X-124.648 Y-17.932 Z-4.3 I0 J-0.163
X-124.352 Y-18.068 I0.148 J-0.068
X-124.648 Y-17.932 I-0.148 J0.068
G1 X-124.655 Y-17.963
X-124.65 Y-17.995
X-124.633 Y-18.021
X-124.608 Y-18.04
X-124.463 Y-18.106
Z5
X-40.419 Y-18.077
Z1.683
Z0
Y-17.919
X-40.425 Y-17.888
X-40.443 Y-17.861
X-40.469 Y-17.844
X-40.5 Y-17.837
G3 X-40.5 Y-18.163 Z-0.061 I0 J-0.163
X-40.5 Y-17.837 Z-0.122 I0 J0.163
X-40.5 Y-18.163 Z-0.183 I0 J-0.163
X-40.5 Y-17.837 Z-0.244 I0 J0.163
X-40.5 Y-18.163 Z-0.306 I0 J-0.163
X-40.5 Y-17.837 Z-0.367 I0 J0.163
X-40.5 Y-18.163 Z-0.428 I0 J-0.163
X-40.5 Y-17.837 Z-0.489 I0 J0.163
X-40.5 Y-18.163 Z-0.55 I0 J-0.163
X-40.5 Y-17.837 Z-0.611 I0 J0.163
X-40.5 Y-18.163 Z-0.672 I0 J-0.163
X-40.5 Y-17.837 Z-0.733 I0 J0.163
X-40.5 Y-18.163 Z-0.794 I0 J-0.163
X-40.5 Y-17.837 Z-0.856 I0 J0.163
X-40.5 Y-18.163 Z-0.917 I0 J-0.163
X-40.5 Y-17.837 Z-0.978 I0 J0.163
X-40.5 Y-18.163 Z-1.039 I0 J-0.163
X-40.5 Y-17.837 Z-1.1 I0 J0.163
X-40.5 Y-18.163 Z-1.161 I0 J-0.163
X-40.5 Y-17.837 Z-1.222 I0 J0.163
X-40.5 Y-18.163 Z-1.283 I0 J-0.163
X-40.5 Y-17.837 Z-1.344 I0 J0.163
X-40.5 Y-18.163 Z-1.406 I0 J-0.163
X-40.5 Y-17.837 Z-1.467 I0 J0.163
X-40.5 Y-18.163 Z-1.528 I0 J-0.163
X-40.5 Y-17.837 Z-1.589 I0 J0.163
X-40.5 Y-18.163 Z-1.65 I0 J-0.163
X-40.5 Y-17.837 Z-1.711 I0 J0.163
X-40.5 Y-18.163 Z-1.772 I0 J-0.163
X-40.5 Y-17.837 Z-1.833 I0 J0.163
X-40.5 Y-18.163 Z-1.894 I0 J-0.163
X-40.5 Y-17.837 Z-1.956 I0 J0.163
X-40.5 Y-18.163 Z-2.017 I0 J-0.163
X-40.5 Y-17.837 Z-2.078 I0 J0.163
X-40.5 Y-18.163 Z-2.139 I0 J-0.163
X-40.5 Y-17.837 Z-2.2 I0 J0.163
X-40.5 Y-18.163 Z-2.261 I0 J-0.163
X-40.5 Y-17.837 Z-2.322 I0 J0.163
X-40.5 Y-18.163 Z-2.383 I0 J-0.163
X-40.5 Y-17.837 Z-2.444 I0 J0.163
X-40.5 Y-18.163 Z-2.506 I0 J-0.163
X-40.5 Y-17.837 Z-2.567 I0 J0.163
X-40.5 Y-18.163 Z-2.628 I0 J-0.163
X-40.5 Y-17.837 Z-2.689 I0 J0.163
X-40.5 Y-18.163 Z-2.75 I0 J-0.163
X-40.5 Y-17.837 Z-2.811 I0 J0.163
X-40.5 Y-18.163 Z-2.872 I0 J-0.163
X-40.5 Y-17.837 Z-2.933 I0 J0.163
X-40.5 Y-18.163 Z-2.994 I0 J-0.163
X-40.5 Y-17.837 Z-3.056 I0 J0.163
X-40.5 Y-18.163 Z-3.117 I0 J-0.163
X-40.5 Y-17.837 Z-3.178 I0 J0.163
X-40.5 Y-18.163 Z-3.239 I0 J-0.163
X-40.5 Y-17.837 Z-3.3 I0 J0.163
X-40.5 Y-18.163 Z-3.361 I0 J-0.163
X-40.5 Y-17.837 Z-3.422 I0 J0.163
X-40.5 Y-18.163 Z-3.483 I0 J-0.163
X-40.5 Y-17.837 Z-3.544 I0 J0.163
X-40.5 Y-18.163 Z-3.606 I0 J-0.163
X-40.5 Y-17.837 Z-3.667 I0 J0.163
X-40.5 Y-18.163 Z-3.728 I0 J-0.163
X-40.5 Y-17.837 Z-3.789 I0 J0.163
X-40.5 Y-18.163 Z-3.85 I0 J-0.163
X-40.5 Y-17.837 Z-3.911 I0 J0.163
X-40.5 Y-18.163 Z-3.972 I0 J-0.163
X-40.5 Y-17.837 Z-4.033 I0 J0.163
X-40.5 Y-18.163 Z-4.094 I0 J-0.163
X-40.5 Y-17.837 Z-4.156 I0 J0.163
X-40.5 Y-18.163 Z-4.217 I0 J-0.163
X-40.5 Y-17.837 Z-4.278 I0 J0.163
X-40.648 Y-17.932 Z-4.3 I0 J-0.163
X-40.352 Y-18.068 I0.148 J-0.068
X-40.648 Y-17.932 I-0.148 J0.068
G1 X-40.655 Y-17.963
X-40.65 Y-17.995
X-40.633 Y-18.022
X-40.608 Y-18.04
X-40.463 Y-18.106
Z15
(When using Fusion for Personal Use, the feedrate of rapid)
(moves is reduced to match the feedrate of cutting moves,)
(which can increase machining time. Unrestricted rapid moves)
(are available with a Fusion Subscription.)

(2D-Kontur1)
G0 X-76.842 Y-84.634
G1 Z15 F1000
Z5
Z0.635 F333.3
Z-0.683
X-76.84 Y-84.627 Z-0.753 F1000
X-76.836 Y-84.604 Z-0.82
X-76.828 Y-84.566 Z-0.88
X-76.818 Y-84.517 Z-0.931
X-76.806 Y-84.458 Z-0.969
X-76.793 Y-84.392 Z-0.992
X-76.779 Y-84.323 Z-1
X-76.716 Y-84.012
G3 X-76.964 Y-83.638 I-0.311 J0.063
G1 X-76.979 Y-83.635
X-77.619 Y-83.499
X-77.65 Y-83.492
X-78.287 Y-83.343
X-78.32 Y-83.335
X-78.952 Y-83.173
X-78.984 Y-83.165
X-79.614 Y-82.99
X-79.643 Y-82.981
X-80.27 Y-82.793
X-80.297 Y-82.785
X-80.92 Y-82.586
X-80.946 Y-82.577
X-81.567 Y-82.368
X-81.6 Y-82.356
X-82.834 Y-81.907
X-82.872 Y-81.893
X-84.098 Y-81.412
X-84.128 Y-81.4
X-85.347 Y-80.892
X-85.369 Y-80.882
X-86.583 Y-80.355
X-86.601 Y-80.347
X-89.02 Y-79.26
X-89.14 Y-79.2
X-91.552 Y-77.862
X-91.568 Y-77.853
X-92.764 Y-77.171
X-92.783 Y-77.16
X-93.967 Y-76.462
X-93.993 Y-76.447
X-95.16 Y-75.728
X-95.192 Y-75.708
X-96.34 Y-74.964
X-96.367 Y-74.945
X-96.932 Y-74.562
X-96.953 Y-74.548
X-97.511 Y-74.156
X-97.533 Y-74.14
X-98.083 Y-73.739
X-98.107 Y-73.722
X-98.65 Y-73.311
X-98.674 Y-73.292
X-99.209 Y-72.871
X-99.233 Y-72.852
X-99.76 Y-72.42
X-99.782 Y-72.402
X-100.302 Y-71.961
X-100.322 Y-71.943
X-100.834 Y-71.493
X-100.861 Y-71.469
X-101.867 Y-70.544
X-101.896 Y-70.516
X-102.88 Y-69.564
X-102.903 Y-69.541
X-103.87 Y-68.566
X-103.888 Y-68.548
X-104.841 Y-67.557
X-104.854 Y-67.543
X-106.74 Y-65.532
X-106.796 Y-65.469
X-106.849 Y-65.402
X-108.005 Y-63.871
X-108.018 Y-63.854
X-108.584 Y-63.083
X-108.6 Y-63.061
X-109.15 Y-62.284
X-109.169 Y-62.257
X-109.7 Y-61.472
X-109.724 Y-61.434
X-110.23 Y-60.639
X-110.258 Y-60.593
X-110.734 Y-59.786
X-110.758 Y-59.745
X-110.983 Y-59.336
X-110.998 Y-59.307
X-111.214 Y-58.895
X-111.23 Y-58.865
X-111.437 Y-58.448
X-111.455 Y-58.409
X-111.65 Y-57.988
X-111.667 Y-57.951
X-111.851 Y-57.525
X-111.867 Y-57.487
X-112.04 Y-57.057
X-112.057 Y-57.013
X-112.217 Y-56.578
X-112.231 Y-56.539
X-112.38 Y-56.099
X-112.392 Y-56.061
X-112.53 Y-55.616
X-112.541 Y-55.581
X-112.669 Y-55.133
X-112.681 Y-55.087
X-112.911 Y-54.179
X-112.924 Y-54.123
X-113.122 Y-53.203
X-113.131 Y-53.159
X-113.237 Y-52.588
X-121.554
X-121.434 Y-53.34
X-121.202 Y-54.595
X-121.075 Y-55.205
X-120.939 Y-55.812
X-120.79 Y-56.413
X-120.632 Y-57.008
X-120.461 Y-57.593
X-120.276 Y-58.172
X-120.078 Y-58.744
X-119.866 Y-59.31
X-119.637 Y-59.871
X-119.393 Y-60.431
X-119.136 Y-60.988
X-118.866 Y-61.543
X-118.583 Y-62.094
X-118.288 Y-62.645
X-117.982 Y-63.195
X-117.669 Y-63.738
X-117.005 Y-64.835
X-116.314 Y-65.925
X-115.598 Y-67.013
X-114.158 Y-69.143
X-111.944 Y-71.803
X-110.808 Y-73.134
X-109.656 Y-74.443
X-109.077 Y-75.082
X-108.49 Y-75.715
X-107.899 Y-76.338
X-107.3 Y-76.951
X-106.695 Y-77.552
X-106.081 Y-78.141
X-105.46 Y-78.717
X-104.829 Y-79.28
X-104.186 Y-79.831
X-103.531 Y-80.372
X-102.865 Y-80.903
X-102.189 Y-81.424
X-101.502 Y-81.938
X-100.811 Y-82.441
X-99.39 Y-83.436
X-97.944 Y-84.407
X-96.476 Y-85.363
X-93.549 Y-87.218
X-90.681 Y-88.676
X-89.224 Y-89.391
X-87.762 Y-90.079
X-87.036 Y-90.406
X-86.306 Y-90.723
X-85.575 Y-91.029
X-84.843 Y-91.322
X-84.109 Y-91.6
X-83.374 Y-91.864
X-82.636 Y-92.111
X-81.896 Y-92.342
X-81.153 Y-92.554
X-80.404 Y-92.75
X-79.649 Y-92.928
X-78.886 Y-93.092
X-78.116 Y-93.241
X-77.34 Y-93.378
X-76.558 Y-93.503
X-75.774 Y-93.617
X-74.176 Y-93.819
X-72.566 Y-93.992
X-70.94 Y-94.146
X-69.41 Y-94.281
X-68.15 Y-94.217
X-66.796 Y-94.138
X-65.462 Y-94.039
X-64.145 Y-93.91
X-63.505 Y-93.832
X-62.868 Y-93.743
X-62.238 Y-93.642
X-61.617 Y-93.528
X-61.005 Y-93.399
X-60.402 Y-93.256
X-59.808 Y-93.096
X-59.225 Y-92.919
X-58.651 Y-92.723
X-58.084 Y-92.508
X-57.521 Y-92.271
X-56.96 Y-92.015
X-56.402 Y-91.741
X-55.845 Y-91.448
X-55.289 Y-91.14
X-54.735 Y-90.816
X-54.181 Y-90.479
X-53.631 Y-90.132
X-52.517 Y-89.399
X-51.405 Y-88.637
X-50.451 Y-87.971
X-49.086 Y-86.374
X-48.378 Y-85.511
X-47.699 Y-84.639
X-47.381 Y-84.21
X-47.072 Y-83.775
X-46.776 Y-83.338
X-46.494 Y-82.9
X-46.226 Y-82.46
X-45.974 Y-82.018
X-45.739 Y-81.573
X-45.522 Y-81.126
X-45.322 Y-80.673
X-45.138 Y-80.214
X-44.97 Y-79.744
X-44.816 Y-79.264
X-44.676 Y-78.775
X-44.547 Y-78.276
X-44.431 Y-77.768
X-44.326 Y-77.252
X-44.231 Y-76.727
X-44.146 Y-76.201
X-43.997 Y-75.107
X-43.94 Y-74.588
X-52.43
X-52.485 Y-74.827
X-52.503 Y-74.899
X-52.635 Y-75.372
X-52.66 Y-75.455
X-52.817 Y-75.917
X-52.851 Y-76.01
X-53.035 Y-76.459
X-53.081 Y-76.56
X-53.295 Y-76.994
X-53.345 Y-77.087
X-53.588 Y-77.508
X-53.637 Y-77.587
X-53.907 Y-77.995
X-53.953 Y-78.061
X-54.245 Y-78.458
X-54.287 Y-78.512
X-54.599 Y-78.9
X-54.634 Y-78.943
X-54.962 Y-79.323
X-54.991 Y-79.356
X-55.332 Y-79.73
X-55.354 Y-79.754
X-55.705 Y-80.123
X-55.724 Y-80.142
X-56.442 Y-80.874
G2 X-56.722 Y-81.101 I-1.133 J1.112
G1 X-57.928 Y-81.869
X-57.957 Y-81.887
X-58.565 Y-82.256
X-58.599 Y-82.277
X-59.213 Y-82.629
X-59.261 Y-82.655
X-59.882 Y-82.984
X-59.944 Y-83.015
X-60.575 Y-83.314
X-60.63 Y-83.339
X-60.95 Y-83.476
X-60.993 Y-83.493
X-61.315 Y-83.62
X-61.361 Y-83.638
X-61.687 Y-83.755
X-61.736 Y-83.771
X-62.066 Y-83.878
X-62.114 Y-83.892
X-62.448 Y-83.988
X-62.492 Y-84
X-62.828 Y-84.086
X-62.891 Y-84.101
X-63.572 Y-84.247
X-63.644 Y-84.261
X-64.336 Y-84.375
X-64.396 Y-84.384
X-65.096 Y-84.473
X-65.143 Y-84.478
X-65.85 Y-84.546
X-65.885 Y-84.549
X-66.597 Y-84.601
X-66.626 Y-84.603
X-68.058 Y-84.682
X-68.168 Y-84.684
X-68.277 Y-84.679
X-70.917 Y-84.46
X-70.94 Y-84.458
X-72.255 Y-84.33
X-72.282 Y-84.327
X-73.592 Y-84.178
X-73.628 Y-84.173
X-74.93 Y-83.994
X-74.963 Y-83.989
X-75.611 Y-83.886
X-75.635 Y-83.882
X-76.281 Y-83.769
X-76.308 Y-83.764
X-76.95 Y-83.641
X-76.964 Y-83.638
G3 X-77.338 Y-83.886 I-0.063 J-0.311
G1 X-77.401 Y-84.197
X-77.415 Y-84.267 Z-0.992
X-77.429 Y-84.332 Z-0.969
X-77.441 Y-84.391 Z-0.931
X-77.45 Y-84.441 Z-0.88
X-77.458 Y-84.478 Z-0.82
X-77.463 Y-84.501 Z-0.753
X-77.464 Y-84.509 Z-0.683
Z5
X-76.842 Y-84.634
Z-0.365 F333.3
Z-1.683
X-76.84 Y-84.627 Z-1.753 F1000
X-76.836 Y-84.604 Z-1.82
X-76.828 Y-84.566 Z-1.88
X-76.818 Y-84.517 Z-1.931
X-76.806 Y-84.458 Z-1.969
X-76.793 Y-84.392 Z-1.992
X-76.779 Y-84.323 Z-2
X-76.716 Y-84.012
G3 X-76.964 Y-83.638 I-0.311 J0.063
G1 X-76.979 Y-83.635
X-77.619 Y-83.499
X-77.65 Y-83.492
X-78.287 Y-83.343
X-78.32 Y-83.335
X-78.952 Y-83.173
X-78.984 Y-83.165
X-79.614 Y-82.99
X-79.643 Y-82.981
X-80.27 Y-82.793
X-80.297 Y-82.785
X-80.92 Y-82.586
X-80.946 Y-82.577
X-81.567 Y-82.368
X-81.6 Y-82.356
X-82.834 Y-81.907
X-82.872 Y-81.893
X-84.098 Y-81.412
X-84.128 Y-81.4
X-85.347 Y-80.892
X-85.369 Y-80.882
X-86.583 Y-80.355
X-86.601 Y-80.347
X-89.02 Y-79.26
X-89.14 Y-79.2
X-91.552 Y-77.862
X-91.568 Y-77.853
X-92.764 Y-77.171
X-92.783 Y-77.16
X-93.967 Y-76.462
X-93.993 Y-76.447
X-95.16 Y-75.728
X-95.192 Y-75.708
X-96.34 Y-74.964
X-96.367 Y-74.945
X-96.932 Y-74.562
X-96.953 Y-74.548
X-97.511 Y-74.156
X-97.533 Y-74.14
X-98.083 Y-73.739
X-98.107 Y-73.722
X-98.65 Y-73.311
X-98.674 Y-73.292
X-99.209 Y-72.871
X-99.233 Y-72.852
X-99.76 Y-72.42
X-99.782 Y-72.402
X-100.302 Y-71.961
X-100.322 Y-71.943
X-100.834 Y-71.493
X-100.861 Y-71.469
X-101.867 Y-70.544
X-101.896 Y-70.516
X-102.88 Y-69.564
X-102.903 Y-69.541
X-103.87 Y-68.566
X-103.888 Y-68.548
X-104.841 Y-67.557
X-104.854 Y-67.543
X-106.74 Y-65.532
X-106.796 Y-65.469
X-106.849 Y-65.402
X-108.005 Y-63.871
X-108.018 Y-63.854
X-108.584 Y-63.083
X-108.6 Y-63.061
X-109.15 Y-62.284
X-109.169 Y-62.257
X-109.7 Y-61.472
X-109.724 Y-61.434
X-110.23 Y-60.639
X-110.258 Y-60.593
X-110.734 Y-59.786
X-110.758 Y-59.745
X-110.983 Y-59.336
X-110.998 Y-59.307
X-111.214 Y-58.895
X-111.23 Y-58.865
X-111.437 Y-58.448
X-111.455 Y-58.409
X-111.65 Y-57.988
X-111.667 Y-57.951
X-111.851 Y-57.525
X-111.867 Y-57.487
X-112.04 Y-57.057
X-112.057 Y-57.013
X-112.217 Y-56.578
X-112.231 Y-56.539
X-112.38 Y-56.099
X-112.392 Y-56.061
X-112.53 Y-55.616
X-112.541 Y-55.581
X-112.669 Y-55.133
X-112.681 Y-55.087
X-112.911 Y-54.179
X-112.924 Y-54.123
X-113.122 Y-53.203
X-113.131 Y-53.159
X-113.237 Y-52.588
X-121.554
X-121.434 Y-53.34
X-121.202 Y-54.595
X-121.075 Y-55.205
X-120.939 Y-55.812
X-120.79 Y-56.413
X-120.632 Y-57.008
X-120.461 Y-57.593
X-120.276 Y-58.172
X-120.078 Y-58.744
X-119.866 Y-59.31
X-119.637 Y-59.871
X-119.393 Y-60.431
X-119.136 Y-60.988
X-118.866 Y-61.543
X-118.583 Y-62.094
X-118.288 Y-62.645
X-117.982 Y-63.195
X-117.669 Y-63.738
X-117.005 Y-64.835
X-116.314 Y-65.925
X-115.598 Y-67.013
X-114.158 Y-69.143
X-111.944 Y-71.803
X-110.808 Y-73.134
X-109.656 Y-74.443
X-109.077 Y-75.082
X-108.49 Y-75.715
X-107.899 Y-76.338
X-107.3 Y-76.951
X-106.695 Y-77.552
X-106.081 Y-78.141
X-105.46 Y-78.717
X-104.829 Y-79.28
X-104.186 Y-79.831
X-103.531 Y-80.372
X-102.865 Y-80.903
X-102.189 Y-81.424
X-101.502 Y-81.938
X-100.811 Y-82.441
X-99.39 Y-83.436
X-97.944 Y-84.407
X-96.476 Y-85.363
X-93.549 Y-87.218
X-90.681 Y-88.676
X-89.224 Y-89.391
X-87.762 Y-90.079
X-87.036 Y-90.406
X-86.306 Y-90.723
X-85.575 Y-91.029
X-84.843 Y-91.322
X-84.109 Y-91.6
X-83.374 Y-91.864
X-82.636 Y-92.111
X-81.896 Y-92.342
X-81.153 Y-92.554
X-80.404 Y-92.75
X-79.649 Y-92.928
X-78.886 Y-93.092
X-78.116 Y-93.241
X-77.34 Y-93.378
X-76.558 Y-93.503
X-75.774 Y-93.617
X-74.176 Y-93.819
X-72.566 Y-93.992
X-70.94 Y-94.146
X-69.41 Y-94.281
X-68.15 Y-94.217
X-66.796 Y-94.138
X-65.462 Y-94.039
X-64.145 Y-93.91
X-63.505 Y-93.832
X-62.868 Y-93.743
X-62.238 Y-93.642
X-61.617 Y-93.528
X-61.005 Y-93.399
X-60.402 Y-93.256
X-59.808 Y-93.096
X-59.225 Y-92.919
X-58.651 Y-92.723
X-58.084 Y-92.508
X-57.521 Y-92.271
X-56.96 Y-92.015
X-56.402 Y-91.741
X-55.845 Y-91.448
X-55.289 Y-91.14
X-54.735 Y-90.816
X-54.181 Y-90.479
X-53.631 Y-90.132
X-52.517 Y-89.399
X-51.405 Y-88.637
X-50.451 Y-87.971
X-49.086 Y-86.374
X-48.378 Y-85.511
X-47.699 Y-84.639
X-47.381 Y-84.21
X-47.072 Y-83.775
X-46.776 Y-83.338
X-46.494 Y-82.9
X-46.226 Y-82.46
X-45.974 Y-82.018
X-45.739 Y-81.573
X-45.522 Y-81.126
X-45.322 Y-80.673
X-45.138 Y-80.214
X-44.97 Y-79.744
X-44.816 Y-79.264
X-44.676 Y-78.775
X-44.547 Y-78.276
X-44.431 Y-77.768
X-44.326 Y-77.252
X-44.231 Y-76.727
X-44.146 Y-76.201
X-43.997 Y-75.107
X-43.94 Y-74.588
X-52.43
X-52.485 Y-74.827
X-52.503 Y-74.899
X-52.635 Y-75.372
X-52.66 Y-75.455
X-52.817 Y-75.917
X-52.851 Y-76.01
X-53.035 Y-76.459
X-53.081 Y-76.56
X-53.295 Y-76.994
X-53.345 Y-77.087
X-53.588 Y-77.508
X-53.637 Y-77.587
X-53.907 Y-77.995
X-53.953 Y-78.061
X-54.245 Y-78.458
X-54.287 Y-78.512
X-54.599 Y-78.9
X-54.634 Y-78.943
X-54.962 Y-79.323
X-54.991 Y-79.356
X-55.332 Y-79.73
X-55.354 Y-79.754
X-55.705 Y-80.123
X-55.724 Y-80.142
X-56.442 Y-80.874
G2 X-56.722 Y-81.101 I-1.133 J1.112
G1 X-57.928 Y-81.869
X-57.957 Y-81.887
X-58.565 Y-82.256
X-58.599 Y-82.277
X-59.213 Y-82.629
X-59.261 Y-82.655
X-59.882 Y-82.984
X-59.944 Y-83.015
X-60.575 Y-83.314
X-60.63 Y-83.339
X-60.95 Y-83.476
X-60.993 Y-83.493
X-61.315 Y-83.62
X-61.361 Y-83.638
X-61.687 Y-83.755
X-61.736 Y-83.771
X-62.066 Y-83.878
X-62.114 Y-83.892
X-62.448 Y-83.988
X-62.492 Y-84
X-62.828 Y-84.086
X-62.891 Y-84.101
X-63.572 Y-84.247
X-63.644 Y-84.261
X-64.336 Y-84.375
X-64.396 Y-84.384
X-65.096 Y-84.473
X-65.143 Y-84.478
X-65.85 Y-84.546
X-65.885 Y-84.549
X-66.597 Y-84.601
X-66.626 Y-84.603
X-68.058 Y-84.682
X-68.168 Y-84.684
X-68.277 Y-84.679
X-70.917 Y-84.46
X-70.94 Y-84.458
X-72.255 Y-84.33
X-72.282 Y-84.327
X-73.592 Y-84.178
X-73.628 Y-84.173
X-74.93 Y-83.994
X-74.963 Y-83.989
X-75.611 Y-83.886
X-75.635 Y-83.882
X-76.281 Y-83.769
X-76.308 Y-83.764
X-76.95 Y-83.641
X-76.964 Y-83.638
G3 X-77.338 Y-83.886 I-0.063 J-0.311
G1 X-77.401 Y-84.197
X-77.415 Y-84.267 Z-1.992
X-77.429 Y-84.332 Z-1.969
X-77.441 Y-84.391 Z-1.931
X-77.45 Y-84.441 Z-1.88
X-77.458 Y-84.478 Z-1.82
X-77.463 Y-84.501 Z-1.753
X-77.464 Y-84.509 Z-1.683
Z5
X-76.842 Y-84.634
Z-1.365 F333.3
Z-2.683
X-76.84 Y-84.627 Z-2.753 F1000
X-76.836 Y-84.604 Z-2.82
X-76.828 Y-84.566 Z-2.88
X-76.818 Y-84.517 Z-2.931
X-76.806 Y-84.458 Z-2.969
X-76.793 Y-84.392 Z-2.992
X-76.779 Y-84.323 Z-3
X-76.716 Y-84.012
G3 X-76.964 Y-83.638 I-0.311 J0.063
G1 X-76.979 Y-83.635
X-77.619 Y-83.499
X-77.65 Y-83.492
X-78.287 Y-83.343
X-78.32 Y-83.335
X-78.952 Y-83.173
X-78.984 Y-83.165
X-79.614 Y-82.99
X-79.643 Y-82.981
X-80.27 Y-82.793
X-80.297 Y-82.785
X-80.92 Y-82.586
X-80.946 Y-82.577
X-81.567 Y-82.368
X-81.6 Y-82.356
X-82.834 Y-81.907
X-82.872 Y-81.893
X-84.098 Y-81.412
X-84.128 Y-81.4
X-85.347 Y-80.892
X-85.369 Y-80.882
X-86.583 Y-80.355
X-86.601 Y-80.347
X-89.02 Y-79.26
X-89.14 Y-79.2
X-91.552 Y-77.862
X-91.568 Y-77.853
X-92.764 Y-77.171
X-92.783 Y-77.16
X-93.967 Y-76.462
X-93.993 Y-76.447
X-95.16 Y-75.728
X-95.192 Y-75.708
X-96.34 Y-74.964
X-96.367 Y-74.945
X-96.932 Y-74.562
X-96.953 Y-74.548
X-97.511 Y-74.156
X-97.533 Y-74.14
X-98.083 Y-73.739
X-98.107 Y-73.722
X-98.65 Y-73.311
X-98.674 Y-73.292
X-99.209 Y-72.871
X-99.233 Y-72.852
X-99.76 Y-72.42
X-99.782 Y-72.402
X-100.302 Y-71.961
X-100.322 Y-71.943
X-100.834 Y-71.493
X-100.861 Y-71.469
X-101.867 Y-70.544
X-101.896 Y-70.516
X-102.88 Y-69.564
X-102.903 Y-69.541
X-103.87 Y-68.566
X-103.888 Y-68.548
X-104.841 Y-67.557
X-104.854 Y-67.543
X-106.74 Y-65.532
X-106.796 Y-65.469
X-106.849 Y-65.402
X-108.005 Y-63.871
X-108.018 Y-63.854
X-108.584 Y-63.083
X-108.6 Y-63.061
X-109.15 Y-62.284
X-109.169 Y-62.257
X-109.7 Y-61.472
X-109.724 Y-61.434
X-110.23 Y-60.639
X-110.258 Y-60.593
X-110.734 Y-59.786
X-110.758 Y-59.745
X-110.983 Y-59.336
X-110.998 Y-59.307
X-111.214 Y-58.895
X-111.23 Y-58.865
X-111.437 Y-58.448
X-111.455 Y-58.409
X-111.65 Y-57.988
X-111.667 Y-57.951
X-111.851 Y-57.525
X-111.867 Y-57.487
X-112.04 Y-57.057
X-112.057 Y-57.013
X-112.217 Y-56.578
X-112.231 Y-56.539
X-112.38 Y-56.099
X-112.392 Y-56.061
X-112.53 Y-55.616
X-112.541 Y-55.581
X-112.669 Y-55.133
X-112.681 Y-55.087
X-112.911 Y-54.179
X-112.924 Y-54.123
X-113.122 Y-53.203
X-113.131 Y-53.159
X-113.237 Y-52.588
X-121.554
X-121.434 Y-53.34
X-121.202 Y-54.595
X-121.075 Y-55.205
X-120.939 Y-55.812
X-120.79 Y-56.413
X-120.632 Y-57.008
X-120.461 Y-57.593
X-120.276 Y-58.172
X-120.078 Y-58.744
X-119.866 Y-59.31
X-119.637 Y-59.871
X-119.393 Y-60.431
X-119.136 Y-60.988
X-118.866 Y-61.543
X-118.583 Y-62.094
X-118.288 Y-62.645
X-117.982 Y-63.195
X-117.669 Y-63.738
X-117.005 Y-64.835
X-116.314 Y-65.925
X-115.598 Y-67.013
X-114.158 Y-69.143
X-111.944 Y-71.803
X-110.808 Y-73.134
X-109.656 Y-74.443
X-109.077 Y-75.082
X-108.49 Y-75.715
X-107.899 Y-76.338
X-107.3 Y-76.951
X-106.695 Y-77.552
X-106.081 Y-78.141
X-105.46 Y-78.717
X-104.829 Y-79.28
X-104.186 Y-79.831
X-103.531 Y-80.372
X-102.865 Y-80.903
X-102.189 Y-81.424
X-101.502 Y-81.938
X-100.811 Y-82.441
X-99.39 Y-83.436
X-97.944 Y-84.407
X-96.476 Y-85.363
X-93.549 Y-87.218
X-90.681 Y-88.676
X-89.224 Y-89.391
X-87.762 Y-90.079
X-87.036 Y-90.406
X-86.306 Y-90.723
X-85.575 Y-91.029
X-84.843 Y-91.322
X-84.109 Y-91.6
X-83.374 Y-91.864
X-82.636 Y-92.111
X-81.896 Y-92.342
X-81.153 Y-92.554
X-80.404 Y-92.75
X-79.649 Y-92.928
X-78.886 Y-93.092
X-78.116 Y-93.241
X-77.34 Y-93.378
X-76.558 Y-93.503
X-75.774 Y-93.617
X-74.176 Y-93.819
X-72.566 Y-93.992
X-70.94 Y-94.146
X-69.41 Y-94.281
X-68.15 Y-94.217
X-66.796 Y-94.138
X-65.462 Y-94.039
X-64.145 Y-93.91
X-63.505 Y-93.832
X-62.868 Y-93.743
X-62.238 Y-93.642
X-61.617 Y-93.528
X-61.005 Y-93.399
X-60.402 Y-93.256
X-59.808 Y-93.096
X-59.225 Y-92.919
X-58.651 Y-92.723
X-58.084 Y-92.508
X-57.521 Y-92.271
X-56.96 Y-92.015
X-56.402 Y-91.741
X-55.845 Y-91.448
X-55.289 Y-91.14
X-54.735 Y-90.816
X-54.181 Y-90.479
X-53.631 Y-90.132
X-52.517 Y-89.399
X-51.405 Y-88.637
X-50.451 Y-87.971
X-49.086 Y-86.374
X-48.378 Y-85.511
X-47.699 Y-84.639
X-47.381 Y-84.21
X-47.072 Y-83.775
X-46.776 Y-83.338
X-46.494 Y-82.9
X-46.226 Y-82.46
X-45.974 Y-82.018
X-45.739 Y-81.573
X-45.522 Y-81.126
X-45.322 Y-80.673
X-45.138 Y-80.214
X-44.97 Y-79.744
X-44.816 Y-79.264
X-44.676 Y-78.775
X-44.547 Y-78.276
X-44.431 Y-77.768
X-44.326 Y-77.252
X-44.231 Y-76.727
X-44.146 Y-76.201
X-43.997 Y-75.107
X-43.94 Y-74.588
X-52.43
X-52.485 Y-74.827
X-52.503 Y-74.899
X-52.635 Y-75.372
X-52.66 Y-75.455
X-52.817 Y-75.917
X-52.851 Y-76.01
X-53.035 Y-76.459
X-53.081 Y-76.56
X-53.295 Y-76.994
X-53.345 Y-77.087
X-53.588 Y-77.508
X-53.637 Y-77.587
X-53.907 Y-77.995
X-53.953 Y-78.061
X-54.245 Y-78.458
X-54.287 Y-78.512
X-54.599 Y-78.9
X-54.634 Y-78.943
X-54.962 Y-79.323
X-54.991 Y-79.356
X-55.332 Y-79.73
X-55.354 Y-79.754
X-55.705 Y-80.123
X-55.724 Y-80.142
X-56.442 Y-80.874
G2 X-56.722 Y-81.101 I-1.133 J1.112
G1 X-57.928 Y-81.869
X-57.957 Y-81.887
X-58.565 Y-82.256
X-58.599 Y-82.277
X-59.213 Y-82.629
X-59.261 Y-82.655
X-59.882 Y-82.984
X-59.944 Y-83.015
X-60.575 Y-83.314
X-60.63 Y-83.339
X-60.95 Y-83.476
X-60.993 Y-83.493
X-61.315 Y-83.62
X-61.361 Y-83.638
X-61.687 Y-83.755
X-61.736 Y-83.771
X-62.066 Y-83.878
X-62.114 Y-83.892
X-62.448 Y-83.988
X-62.492 Y-84
X-62.828 Y-84.086
X-62.891 Y-84.101
X-63.572 Y-84.247
X-63.644 Y-84.261
X-64.336 Y-84.375
X-64.396 Y-84.384
X-65.096 Y-84.473
X-65.143 Y-84.478
X-65.85 Y-84.546
X-65.885 Y-84.549
X-66.597 Y-84.601
X-66.626 Y-84.603
X-68.058 Y-84.682
X-68.168 Y-84.684
X-68.277 Y-84.679
X-70.917 Y-84.46
X-70.94 Y-84.458
X-72.255 Y-84.33
X-72.282 Y-84.327
X-73.592 Y-84.178
X-73.628 Y-84.173
X-74.93 Y-83.994
X-74.963 Y-83.989
X-75.611 Y-83.886
X-75.635 Y-83.882
X-76.281 Y-83.769
X-76.308 Y-83.764
X-76.95 Y-83.641
X-76.964 Y-83.638
G3 X-77.338 Y-83.886 I-0.063 J-0.311
G1 X-77.401 Y-84.197
X-77.415 Y-84.267 Z-2.992
X-77.429 Y-84.332 Z-2.969
X-77.441 Y-84.391 Z-2.931
X-77.45 Y-84.441 Z-2.88
X-77.458 Y-84.478 Z-2.82
X-77.463 Y-84.501 Z-2.753
X-77.464 Y-84.509 Z-2.683
Z5
X-76.842 Y-84.634
Z-2.365 F333.3
Z-3.683
X-76.84 Y-84.627 Z-3.753 F1000
X-76.836 Y-84.604 Z-3.82
X-76.828 Y-84.566 Z-3.88
X-76.818 Y-84.517 Z-3.931
X-76.806 Y-84.458 Z-3.969
X-76.793 Y-84.392 Z-3.992
X-76.779 Y-84.323 Z-4
X-76.716 Y-84.012
G3 X-76.964 Y-83.638 I-0.311 J0.063
G1 X-76.979 Y-83.635
X-77.619 Y-83.499
X-77.65 Y-83.492
X-78.287 Y-83.343
X-78.32 Y-83.335
X-78.952 Y-83.173
X-78.984 Y-83.165
X-79.614 Y-82.99
X-79.643 Y-82.981
X-80.27 Y-82.793
X-80.297 Y-82.785
X-80.92 Y-82.586
X-80.946 Y-82.577
X-81.567 Y-82.368
X-81.6 Y-82.356
X-82.834 Y-81.907
X-82.872 Y-81.893
X-84.098 Y-81.412
X-84.128 Y-81.4
X-85.347 Y-80.892
X-85.369 Y-80.882
X-86.583 Y-80.355
X-86.601 Y-80.347
X-89.02 Y-79.26
X-89.14 Y-79.2
X-91.552 Y-77.862
X-91.568 Y-77.853
X-92.764 Y-77.171
X-92.783 Y-77.16
X-93.967 Y-76.462
X-93.993 Y-76.447
X-95.16 Y-75.728
X-95.192 Y-75.708
X-96.34 Y-74.964
X-96.367 Y-74.945
X-96.932 Y-74.562
X-96.953 Y-74.548
X-97.511 Y-74.156
X-97.533 Y-74.14
X-98.083 Y-73.739
X-98.107 Y-73.722
X-98.65 Y-73.311
X-98.674 Y-73.292
X-99.209 Y-72.871
X-99.233 Y-72.852
X-99.76 Y-72.42
X-99.782 Y-72.402
X-100.302 Y-71.961
X-100.322 Y-71.943
X-100.834 Y-71.493
X-100.861 Y-71.469
X-101.867 Y-70.544
X-101.896 Y-70.516
X-102.88 Y-69.564
X-102.903 Y-69.541
X-103.87 Y-68.566
X-103.888 Y-68.548
X-104.841 Y-67.557
X-104.854 Y-67.543
X-106.74 Y-65.532
X-106.796 Y-65.469
X-106.849 Y-65.402
X-108.005 Y-63.871
X-108.018 Y-63.854
X-108.584 Y-63.083
X-108.6 Y-63.061
X-109.15 Y-62.284
X-109.169 Y-62.257
X-109.7 Y-61.472
X-109.724 Y-61.434
X-110.23 Y-60.639
X-110.258 Y-60.593
X-110.734 Y-59.786
X-110.758 Y-59.745
X-110.983 Y-59.336
X-110.998 Y-59.307
X-111.214 Y-58.895
X-111.23 Y-58.865
X-111.437 Y-58.448
X-111.455 Y-58.409
X-111.65 Y-57.988
X-111.667 Y-57.951
X-111.851 Y-57.525
X-111.867 Y-57.487
X-112.04 Y-57.057
X-112.057 Y-57.013
X-112.217 Y-56.578
X-112.231 Y-56.539
X-112.38 Y-56.099
X-112.392 Y-56.061
X-112.53 Y-55.616
X-112.541 Y-55.581
X-112.669 Y-55.133
X-112.681 Y-55.087
X-112.911 Y-54.179
X-112.924 Y-54.123
X-113.122 Y-53.203
X-113.131 Y-53.159
X-113.237 Y-52.588
X-121.554
X-121.434 Y-53.34
X-121.202 Y-54.595
X-121.075 Y-55.205
X-120.939 Y-55.812
X-120.79 Y-56.413
X-120.632 Y-57.008
X-120.461 Y-57.593
X-120.276 Y-58.172
X-120.078 Y-58.744
X-119.866 Y-59.31
X-119.637 Y-59.871
X-119.393 Y-60.431
X-119.136 Y-60.988
X-118.866 Y-61.543
X-118.583 Y-62.094
X-118.288 Y-62.645
X-117.982 Y-63.195
X-117.669 Y-63.738
X-117.005 Y-64.835
X-116.314 Y-65.925
X-115.598 Y-67.013
X-114.158 Y-69.143
X-111.944 Y-71.803
X-110.808 Y-73.134
X-109.656 Y-74.443
X-109.077 Y-75.082
X-108.49 Y-75.715
X-107.899 Y-76.338
X-107.3 Y-76.951
X-106.695 Y-77.552
X-106.081 Y-78.141
X-105.46 Y-78.717
X-104.829 Y-79.28
X-104.186 Y-79.831
X-103.531 Y-80.372
X-102.865 Y-80.903
X-102.189 Y-81.424
X-101.502 Y-81.938
X-100.811 Y-82.441
X-99.39 Y-83.436
X-97.944 Y-84.407
X-96.476 Y-85.363
X-93.549 Y-87.218
X-90.681 Y-88.676
X-89.224 Y-89.391
X-87.762 Y-90.079
X-87.036 Y-90.406
X-86.306 Y-90.723
X-85.575 Y-91.029
X-84.843 Y-91.322
X-84.109 Y-91.6
X-83.374 Y-91.864
X-82.636 Y-92.111
X-81.896 Y-92.342
X-81.153 Y-92.554
X-80.404 Y-92.75
X-79.649 Y-92.928
X-78.886 Y-93.092
X-78.116 Y-93.241
X-77.34 Y-93.378
X-76.558 Y-93.503
X-75.774 Y-93.617
X-74.176 Y-93.819
X-72.566 Y-93.992
X-70.94 Y-94.146
X-69.41 Y-94.281
X-68.15 Y-94.217
X-66.796 Y-94.138
X-65.462 Y-94.039
X-64.145 Y-93.91
X-63.505 Y-93.832
X-62.868 Y-93.743
X-62.238 Y-93.642
X-61.617 Y-93.528
X-61.005 Y-93.399
X-60.402 Y-93.256
X-59.808 Y-93.096
X-59.225 Y-92.919
X-58.651 Y-92.723
X-58.084 Y-92.508
X-57.521 Y-92.271
X-56.96 Y-92.015
X-56.402 Y-91.741
X-55.845 Y-91.448
X-55.289 Y-91.14
X-54.735 Y-90.816
X-54.181 Y-90.479
X-53.631 Y-90.132
X-52.517 Y-89.399
X-51.405 Y-88.637
X-50.451 Y-87.971
X-49.086 Y-86.374
X-48.378 Y-85.511
X-47.699 Y-84.639
X-47.381 Y-84.21
X-47.072 Y-83.775
X-46.776 Y-83.338
X-46.494 Y-82.9
X-46.226 Y-82.46
X-45.974 Y-82.018
X-45.739 Y-81.573
X-45.522 Y-81.126
X-45.322 Y-80.673
X-45.138 Y-80.214
X-44.97 Y-79.744
X-44.816 Y-79.264
X-44.676 Y-78.775
X-44.547 Y-78.276
X-44.431 Y-77.768
X-44.326 Y-77.252
X-44.231 Y-76.727
X-44.146 Y-76.201
X-43.997 Y-75.107
X-43.94 Y-74.588
X-52.43
X-52.485 Y-74.827
X-52.503 Y-74.899
X-52.635 Y-75.372
X-52.66 Y-75.455
X-52.817 Y-75.917
X-52.851 Y-76.01
X-53.035 Y-76.459
X-53.081 Y-76.56
X-53.295 Y-76.994
X-53.345 Y-77.087
X-53.588 Y-77.508
X-53.637 Y-77.587
X-53.907 Y-77.995
X-53.953 Y-78.061
X-54.245 Y-78.458
X-54.287 Y-78.512
X-54.599 Y-78.9
X-54.634 Y-78.943
X-54.962 Y-79.323
X-54.991 Y-79.356
X-55.332 Y-79.73
X-55.354 Y-79.754
X-55.705 Y-80.123
X-55.724 Y-80.142
X-56.442 Y-80.874
G2 X-56.722 Y-81.101 I-1.133 J1.112
G1 X-57.928 Y-81.869
X-57.957 Y-81.887
X-58.565 Y-82.256
X-58.599 Y-82.277
X-59.213 Y-82.629
X-59.261 Y-82.655
X-59.882 Y-82.984
X-59.944 Y-83.015
X-60.575 Y-83.314
X-60.63 Y-83.339
X-60.95 Y-83.476
X-60.993 Y-83.493
X-61.315 Y-83.62
X-61.361 Y-83.638
X-61.687 Y-83.755
X-61.736 Y-83.771
X-62.066 Y-83.878
X-62.114 Y-83.892
X-62.448 Y-83.988
X-62.492 Y-84
X-62.828 Y-84.086
X-62.891 Y-84.101
X-63.572 Y-84.247
X-63.644 Y-84.261
X-64.336 Y-84.375
X-64.396 Y-84.384
X-65.096 Y-84.473
X-65.143 Y-84.478
X-65.85 Y-84.546
X-65.885 Y-84.549
X-66.597 Y-84.601
X-66.626 Y-84.603
X-68.058 Y-84.682
X-68.168 Y-84.684
X-68.277 Y-84.679
X-70.917 Y-84.46
X-70.94 Y-84.458
X-72.255 Y-84.33
X-72.282 Y-84.327
X-73.592 Y-84.178
X-73.628 Y-84.173
X-74.93 Y-83.994
X-74.963 Y-83.989
X-75.611 Y-83.886
X-75.635 Y-83.882
X-76.281 Y-83.769
X-76.308 Y-83.764
X-76.95 Y-83.641
X-76.964 Y-83.638
G3 X-77.338 Y-83.886 I-0.063 J-0.311
G1 X-77.401 Y-84.197
X-77.415 Y-84.267 Z-3.992
X-77.429 Y-84.332 Z-3.969
X-77.441 Y-84.391 Z-3.931
X-77.45 Y-84.441 Z-3.88
X-77.458 Y-84.478 Z-3.82
X-77.463 Y-84.501 Z-3.753
X-77.464 Y-84.509 Z-3.683
Z5
X-76.842 Y-84.634
Z-3.365 F333.3
Z-3.983
X-76.84 Y-84.627 Z-4.053 F1000
X-76.836 Y-84.604 Z-4.12
X-76.828 Y-84.566 Z-4.18
X-76.818 Y-84.517 Z-4.231
X-76.806 Y-84.458 Z-4.269
X-76.793 Y-84.392 Z-4.292
X-76.779 Y-84.323 Z-4.3
X-76.716 Y-84.012
G3 X-76.964 Y-83.638 I-0.311 J0.063
G1 X-76.979 Y-83.635
X-77.619 Y-83.499
X-77.65 Y-83.492
X-78.287 Y-83.343
X-78.32 Y-83.335
X-78.952 Y-83.173
X-78.984 Y-83.165
X-79.614 Y-82.99
X-79.643 Y-82.981
X-80.27 Y-82.793
X-80.297 Y-82.785
X-80.92 Y-82.586
X-80.946 Y-82.577
X-81.567 Y-82.368
X-81.6 Y-82.356
X-82.834 Y-81.907
X-82.872 Y-81.893
X-84.098 Y-81.412
X-84.128 Y-81.4
X-85.347 Y-80.892
X-85.369 Y-80.882
X-86.583 Y-80.355
X-86.601 Y-80.347
X-89.02 Y-79.26
X-89.14 Y-79.2
X-91.552 Y-77.862
X-91.568 Y-77.853
X-92.764 Y-77.171
X-92.783 Y-77.16
X-93.967 Y-76.462
X-93.993 Y-76.447
X-95.16 Y-75.728
X-95.192 Y-75.708
X-96.34 Y-74.964
X-96.367 Y-74.945
X-96.932 Y-74.562
X-96.953 Y-74.548
X-97.511 Y-74.156
X-97.533 Y-74.14
X-98.083 Y-73.739
X-98.107 Y-73.722
X-98.65 Y-73.311
X-98.674 Y-73.292
X-99.209 Y-72.871
X-99.233 Y-72.852
X-99.76 Y-72.42
X-99.782 Y-72.402
X-100.302 Y-71.961
X-100.322 Y-71.943
X-100.834 Y-71.493
X-100.861 Y-71.469
X-101.867 Y-70.544
X-101.896 Y-70.516
X-102.88 Y-69.564
X-102.903 Y-69.541
X-103.87 Y-68.566
X-103.888 Y-68.548
X-104.841 Y-67.557
X-104.854 Y-67.543
X-106.74 Y-65.532
X-106.796 Y-65.469
X-106.849 Y-65.402
X-108.005 Y-63.871
X-108.018 Y-63.854
X-108.584 Y-63.083
X-108.6 Y-63.061
X-109.15 Y-62.284
X-109.169 Y-62.257
X-109.7 Y-61.472
X-109.724 Y-61.434
X-110.23 Y-60.639
X-110.258 Y-60.593
X-110.734 Y-59.786
X-110.758 Y-59.745
X-110.983 Y-59.336
X-110.998 Y-59.307
X-111.214 Y-58.895
X-111.23 Y-58.865
X-111.437 Y-58.448
X-111.455 Y-58.409
X-111.65 Y-57.988
X-111.667 Y-57.951
X-111.851 Y-57.525
X-111.867 Y-57.487
X-112.04 Y-57.057
X-112.057 Y-57.013
X-112.217 Y-56.578
X-112.231 Y-56.539
X-112.38 Y-56.099
X-112.392 Y-56.061
X-112.53 Y-55.616
X-112.541 Y-55.581
X-112.669 Y-55.133
X-112.681 Y-55.087
X-112.911 Y-54.179
X-112.924 Y-54.123
X-113.122 Y-53.203
X-113.131 Y-53.159
X-113.237 Y-52.588
X-121.554
X-121.434 Y-53.34
X-121.202 Y-54.595
X-121.075 Y-55.205
X-120.939 Y-55.812
X-120.79 Y-56.413
X-120.632 Y-57.008
X-120.461 Y-57.593
X-120.276 Y-58.172
X-120.078 Y-58.744
X-119.866 Y-59.31
X-119.637 Y-59.871
X-119.393 Y-60.431
X-119.136 Y-60.988
X-118.866 Y-61.543
X-118.583 Y-62.094
X-118.288 Y-62.645
X-117.982 Y-63.195
X-117.669 Y-63.738
X-117.005 Y-64.835
X-116.314 Y-65.925
X-115.598 Y-67.013
X-114.158 Y-69.143
X-111.944 Y-71.803
X-110.808 Y-73.134
X-109.656 Y-74.443
X-109.077 Y-75.082
X-108.49 Y-75.715
X-107.899 Y-76.338
X-107.3 Y-76.951
X-106.695 Y-77.552
X-106.081 Y-78.141
X-105.46 Y-78.717
X-104.829 Y-79.28
X-104.186 Y-79.831
X-103.531 Y-80.372
X-102.865 Y-80.903
X-102.189 Y-81.424
X-101.502 Y-81.938
X-100.811 Y-82.441
X-99.39 Y-83.436
X-97.944 Y-84.407
X-96.476 Y-85.363
X-93.549 Y-87.218
X-90.681 Y-88.676
X-89.224 Y-89.391
X-87.762 Y-90.079
X-87.036 Y-90.406
X-86.306 Y-90.723
X-85.575 Y-91.029
X-84.843 Y-91.322
X-84.109 Y-91.6
X-83.374 Y-91.864
X-82.636 Y-92.111
X-81.896 Y-92.342
X-81.153 Y-92.554
X-80.404 Y-92.75
X-79.649 Y-92.928
X-78.886 Y-93.092
X-78.116 Y-93.241
X-77.34 Y-93.378
X-76.558 Y-93.503
X-75.774 Y-93.617
X-74.176 Y-93.819
X-72.566 Y-93.992
X-70.94 Y-94.146
X-69.41 Y-94.281
X-68.15 Y-94.217
X-66.796 Y-94.138
X-65.462 Y-94.039
X-64.145 Y-93.91
X-63.505 Y-93.832
X-62.868 Y-93.743
X-62.238 Y-93.642
X-61.617 Y-93.528
X-61.005 Y-93.399
X-60.402 Y-93.256
X-59.808 Y-93.096
X-59.225 Y-92.919
X-58.651 Y-92.723
X-58.084 Y-92.508
X-57.521 Y-92.271
X-56.96 Y-92.015
X-56.402 Y-91.741
X-55.845 Y-91.448
X-55.289 Y-91.14
X-54.735 Y-90.816
X-54.181 Y-90.479
X-53.631 Y-90.132
X-52.517 Y-89.399
X-51.405 Y-88.637
X-50.451 Y-87.971
X-49.086 Y-86.374
X-48.378 Y-85.511
X-47.699 Y-84.639
X-47.381 Y-84.21
X-47.072 Y-83.775
X-46.776 Y-83.338
X-46.494 Y-82.9
X-46.226 Y-82.46
X-45.974 Y-82.018
X-45.739 Y-81.573
X-45.522 Y-81.126
X-45.322 Y-80.673
X-45.138 Y-80.214
X-44.97 Y-79.744
X-44.816 Y-79.264
X-44.676 Y-78.775
X-44.547 Y-78.276
X-44.431 Y-77.768
X-44.326 Y-77.252
X-44.231 Y-76.727
X-44.146 Y-76.201
X-43.997 Y-75.107
X-43.94 Y-74.588
X-52.43
X-52.485 Y-74.827
X-52.503 Y-74.899
X-52.635 Y-75.372
X-52.66 Y-75.455
X-52.817 Y-75.917
X-52.851 Y-76.01
X-53.035 Y-76.459
X-53.081 Y-76.56
X-53.295 Y-76.994
X-53.345 Y-77.087
X-53.588 Y-77.508
X-53.637 Y-77.587
X-53.907 Y-77.995
X-53.953 Y-78.061
X-54.245 Y-78.458
X-54.287 Y-78.512
X-54.599 Y-78.9
X-54.634 Y-78.943
X-54.962 Y-79.323
X-54.991 Y-79.356
X-55.332 Y-79.73
X-55.354 Y-79.754
X-55.705 Y-80.123
X-55.724 Y-80.142
X-56.442 Y-80.874
G2 X-56.722 Y-81.101 I-1.133 J1.112
G1 X-57.928 Y-81.869
X-57.957 Y-81.887
X-58.565 Y-82.256
X-58.599 Y-82.277
X-59.213 Y-82.629
X-59.261 Y-82.655
X-59.882 Y-82.984
X-59.944 Y-83.015
X-60.575 Y-83.314
X-60.63 Y-83.339
X-60.95 Y-83.476
X-60.993 Y-83.493
X-61.315 Y-83.62
X-61.361 Y-83.638
X-61.687 Y-83.755
X-61.736 Y-83.771
X-62.066 Y-83.878
X-62.114 Y-83.892
X-62.448 Y-83.988
X-62.492 Y-84
X-62.828 Y-84.086
X-62.891 Y-84.101
X-63.572 Y-84.247
X-63.644 Y-84.261
X-64.336 Y-84.375
X-64.396 Y-84.384
X-65.096 Y-84.473
X-65.143 Y-84.478
X-65.85 Y-84.546
X-65.885 Y-84.549
X-66.597 Y-84.601
X-66.626 Y-84.603
X-68.058 Y-84.682
X-68.168 Y-84.684
X-68.277 Y-84.679
X-70.917 Y-84.46
X-70.94 Y-84.458
X-72.255 Y-84.33
X-72.282 Y-84.327
X-73.592 Y-84.178
X-73.628 Y-84.173
X-74.93 Y-83.994
X-74.963 Y-83.989
X-75.611 Y-83.886
X-75.635 Y-83.882
X-76.281 Y-83.769
X-76.308 Y-83.764
X-76.95 Y-83.641
X-76.964 Y-83.638
G3 X-77.338 Y-83.886 I-0.063 J-0.311
G1 X-77.401 Y-84.197
X-77.415 Y-84.267 Z-4.292
X-77.429 Y-84.332 Z-4.269
X-77.441 Y-84.391 Z-4.231
X-77.45 Y-84.441 Z-4.18
X-77.458 Y-84.478 Z-4.12
X-77.463 Y-84.501 Z-4.053
X-77.464 Y-84.509 Z-3.983
Z5
X-74.86 Y-119.628
Z0.635 F333.3
Z-0.683
X-74.859 Y-119.635 Z-0.753 F1000
X-74.856 Y-119.659 Z-0.82
X-74.851 Y-119.696 Z-0.88
X-74.845 Y-119.746 Z-0.931
X-74.837 Y-119.806 Z-0.969
X-74.829 Y-119.872 Z-0.992
X-74.82 Y-119.943 Z-1
X-74.78 Y-120.257
G3 X-74.425 Y-120.532 I0.315 J0.04
G1 X-73.79 Y-120.451
X-73.749 Y-120.447
X-73.107 Y-120.382
X-73.07 Y-120.378
X-71.776 Y-120.277
G2 X-71.41 Y-120.291 I0.123 J-1.583
G1 X-69.627 Y-120.566
X-69.586 Y-120.573
X-68.705 Y-120.733
X-68.66 Y-120.742
X-67.791 Y-120.926
X-67.742 Y-120.937
X-67.314 Y-121.042
X-67.279 Y-121.051
X-66.855 Y-121.165
X-66.817 Y-121.176
X-66.399 Y-121.3
X-66.349 Y-121.315
X-65.937 Y-121.452
X-65.89 Y-121.468
X-65.484 Y-121.617
X-65.431 Y-121.638
X-65.031 Y-121.801
X-64.975 Y-121.825
X-64.582 Y-122.003
X-64.527 Y-122.03
X-64.142 Y-122.223
X-64.088 Y-122.251
X-63.71 Y-122.459
X-63.66 Y-122.488
X-63.289 Y-122.71
X-63.247 Y-122.736
X-62.883 Y-122.97
X-62.84 Y-122.998
X-62.481 Y-123.245
X-62.447 Y-123.269
X-62.094 Y-123.526
X-62.06 Y-123.552
X-61.711 Y-123.82
X-61.671 Y-123.851
X-60.987 Y-124.413
X-60.944 Y-124.451
X-60.274 Y-125.043
X-60.244 Y-125.07
X-59.586 Y-125.683
X-59.56 Y-125.707
X-58.261 Y-126.971
G2 X-58.08 Y-127.181 I-1.107 J-1.138
G1 X-57.428 Y-128.085
X-57.42 Y-128.096
X-56.779 Y-129.003
X-56.762 Y-129.026
X-56.14 Y-129.94
X-56.116 Y-129.976
X-55.522 Y-130.901
X-55.5 Y-130.935
X-55.217 Y-131.402
X-55.2 Y-131.432
X-54.927 Y-131.904
X-54.91 Y-131.934
X-54.649 Y-132.409
X-54.63 Y-132.445
X-54.382 Y-132.925
X-54.362 Y-132.966
X-54.129 Y-133.452
X-54.109 Y-133.495
X-53.891 Y-133.986
X-53.87 Y-134.035
X-53.669 Y-134.532
X-53.649 Y-134.583
X-53.466 Y-135.086
X-53.448 Y-135.139
X-53.282 Y-135.649
X-53.267 Y-135.698
X-53.117 Y-136.214
X-53.105 Y-136.26
X-52.97 Y-136.781
X-52.96 Y-136.824
X-52.84 Y-137.351
X-52.831 Y-137.391
X-52.724 Y-137.922
X-52.717 Y-137.958
X-52.622 Y-138.494
X-52.617 Y-138.527
X-52.533 Y-139.066
X-52.529 Y-139.095
X-52.454 Y-139.639
X-52.45 Y-139.676
X-52.326 Y-140.771
X-52.323 Y-140.81
X-52.225 Y-141.915
X-52.223 Y-141.947
X-52.072 Y-144.173
X-52.069 Y-144.283
X-52.073 Y-144.393
X-52.18 Y-145.897
X-52.182 Y-145.915
X-52.306 Y-147.409
X-52.308 Y-147.434
X-52.382 Y-148.174
X-52.384 Y-148.197
X-52.468 Y-148.932
X-52.472 Y-148.96
X-52.568 Y-149.686
X-52.573 Y-149.721
X-52.684 Y-150.438
X-52.691 Y-150.476
X-52.819 Y-151.184
X-52.828 Y-151.23
X-52.975 Y-151.925
X-52.986 Y-151.975
X-53.154 Y-152.659
X-53.169 Y-152.716
X-53.36 Y-153.385
X-53.379 Y-153.448
X-53.595 Y-154.102
X-53.619 Y-154.169
X-53.862 Y-154.807
X-53.892 Y-154.881
X-54.165 Y-155.501
X-54.201 Y-155.578
X-54.505 Y-156.179
X-54.537 Y-156.239
X-54.702 Y-156.532
X-54.725 Y-156.573
X-54.898 Y-156.861
X-54.924 Y-156.902
X-55.106 Y-157.185
X-55.134 Y-157.227
X-55.324 Y-157.504
X-55.364 Y-157.56
X-55.771 Y-158.099
X-55.824 Y-158.166
X-56.262 Y-158.686
X-56.313 Y-158.743
X-56.78 Y-159.246
X-56.828 Y-159.296
X-57.322 Y-159.783
X-57.368 Y-159.826
X-57.885 Y-160.298
X-57.926 Y-160.334
X-58.466 Y-160.793
X-58.503 Y-160.824
X-59.062 Y-161.271
X-59.093 Y-161.295
X-59.669 Y-161.733
X-59.698 Y-161.754
X-60.288 Y-162.182
X-60.311 Y-162.198
X-60.914 Y-162.619
X-60.939 Y-162.637
X-62.171 Y-163.463
X-62.189 Y-163.475
X-63.411 Y-164.269
X-64.094 Y-164.759
X-64.392 Y-164.989
X-64.655 Y-165.214
X-64.889 Y-165.441
X-64.972 Y-165.534
X-65.052 Y-165.63
X-65.12 Y-165.724
X-65.182 Y-165.818
X-65.235 Y-165.912
X-65.285 Y-166.014
X-65.333 Y-166.128
X-65.372 Y-166.235
X-65.457 Y-166.528
X-65.522 Y-166.841
X-65.572 Y-167.191
X-65.608 Y-167.573
X-65.633 Y-167.978
X-65.66 Y-168.745
X-65.596 Y-169.212
X-65.554 Y-169.471
X-65.506 Y-169.71
X-65.453 Y-169.925
X-65.396 Y-170.111
X-65.333 Y-170.27
X-65.266 Y-170.407
X-65.184 Y-170.54
X-65.079 Y-170.684
X-64.947 Y-170.84
X-64.792 Y-171.005
X-64.614 Y-171.177
X-64.417 Y-171.357
X-64.062 Y-171.666
X-63.618 Y-171.932
X-63.075 Y-172.236
X-62.83 Y-172.361
X-62.587 Y-172.473
X-62.349 Y-172.571
X-62.119 Y-172.652
X-61.885 Y-172.718
X-61.634 Y-172.777
X-61.369 Y-172.826
X-61.098 Y-172.866
X-60.48 Y-172.931
X-60.066 Y-172.963
X-59.372 Y-172.803
X-58.466 Y-172.581
X-57.583 Y-172.343
X-57.167 Y-172.219
X-56.754 Y-172.085
X-56.353 Y-171.945
X-55.965 Y-171.796
X-55.587 Y-171.637
X-55.225 Y-171.47
X-54.876 Y-171.291
X-54.54 Y-171.1
X-54.215 Y-170.895
X-53.894 Y-170.673
X-53.577 Y-170.434
X-53.266 Y-170.182
X-52.959 Y-169.913
X-52.654 Y-169.629
X-52.354 Y-169.334
X-52.057 Y-169.024
X-51.761 Y-168.702
X-51.473 Y-168.373
X-50.887 Y-167.67
X-50.314 Y-166.941
X-49.214 Y-165.478
X-47.961 Y-163.272
X-47.345 Y-162.139
X-46.759 Y-161
X-46.484 Y-160.439
X-46.219 Y-159.872
X-45.968 Y-159.306
X-45.73 Y-158.739
X-45.506 Y-158.17
X-45.299 Y-157.6
X-45.108 Y-157.029
X-44.934 Y-156.453
X-44.776 Y-155.872
X-44.633 Y-155.282
X-44.503 Y-154.685
X-44.387 Y-154.081
X-44.283 Y-153.471
X-44.189 Y-152.854
X-44.106 Y-152.231
X-44.033 Y-151.607
X-43.909 Y-150.327
X-43.81 Y-149.036
X-43.658 Y-146.483
X-43.744 Y-144.723
X-43.846 Y-142.894
X-43.975 Y-141.08
X-44.052 Y-140.189
X-44.141 Y-139.302
X-44.243 Y-138.421
X-44.36 Y-137.549
X-44.492 Y-136.685
X-44.641 Y-135.831
X-44.809 Y-134.986
X-44.997 Y-134.152
X-45.207 Y-133.329
X-45.44 Y-132.516
X-45.698 Y-131.715
X-45.982 Y-130.923
X-46.293 Y-130.136
X-46.629 Y-129.353
X-46.989 Y-128.574
X-47.37 Y-127.798
X-47.772 Y-127.026
X-48.193 Y-126.255
X-48.631 Y-125.485
X-49.084 Y-124.717
X-49.549 Y-123.949
X-50.025 Y-123.184
X-51.009 Y-121.644
X-51.913 Y-120.253
X-52.931 Y-119.275
X-54.079 Y-118.194
X-54.65 Y-117.671
X-55.224 Y-117.157
X-55.799 Y-116.659
X-56.378 Y-116.175
X-56.959 Y-115.707
X-57.544 Y-115.26
X-58.134 Y-114.832
X-58.729 Y-114.427
X-59.328 Y-114.045
X-59.934 Y-113.689
X-60.547 Y-113.359
X-61.168 Y-113.056
X-61.802 Y-112.78
X-62.451 Y-112.528
X-63.116 Y-112.299
X-63.796 Y-112.09
X-64.49 Y-111.901
X-65.198 Y-111.73
X-65.919 Y-111.575
X-66.651 Y-111.435
X-67.395 Y-111.31
X-68.149 Y-111.195
X-68.912 Y-111.091
X-69.681 Y-110.996
X-71.249 Y-110.823
X-72.668 Y-110.68
X-73.651 Y-110.79
X-74.781 Y-110.926
X-75.887 Y-111.081
X-76.974 Y-111.265
X-77.493 Y-111.367
X-78.01 Y-111.481
X-78.518 Y-111.606
X-79.016 Y-111.743
X-79.504 Y-111.893
X-79.98 Y-112.056
X-80.444 Y-112.234
X-80.899 Y-112.429
X-81.349 Y-112.643
X-81.794 Y-112.873
X-82.236 Y-113.122
X-82.675 Y-113.386
X-83.113 Y-113.668
X-83.548 Y-113.964
X-83.981 Y-114.273
X-84.408 Y-114.592
X-85.277 Y-115.277
X-86.139 Y-115.994
X-87.004 Y-116.74
X-87.758 Y-117.401
X-88.456 Y-118.31
X-89.228 Y-119.335
X-89.973 Y-120.361
X-90.326 Y-120.869
X-90.67 Y-121.38
X-91 Y-121.891
X-91.315 Y-122.404
X-91.615 Y-122.919
X-91.898 Y-123.435
X-92.162 Y-123.954
X-92.408 Y-124.476
X-92.633 Y-125
X-92.839 Y-125.531
X-93.025 Y-126.071
X-93.195 Y-126.622
X-93.348 Y-127.183
X-93.486 Y-127.755
X-93.61 Y-128.335
X-93.721 Y-128.926
X-93.821 Y-129.524
X-93.909 Y-130.131
X-93.988 Y-130.746
X-94.057 Y-131.363
X-94.177 Y-132.632
X-94.276 Y-133.917
X-94.36 Y-135.129
X-94.281 Y-136.942
X-94.228 Y-137.872
X-94.16 Y-138.791
X-94.072 Y-139.694
X-93.961 Y-140.583
X-93.82 Y-141.464
X-93.739 Y-141.887
X-93.648 Y-142.312
X-93.548 Y-142.733
X-93.44 Y-143.145
X-93.188 Y-143.992
X-92.901 Y-144.833
X-92.584 Y-145.677
X-92.239 Y-146.526
X-91.875 Y-147.377
X-91.101 Y-149.112
G2 X-93.038 Y-151.27 I-1.45 J-0.647
G1 X-95.274 Y-150.549
X-95.285 Y-150.545
X-97.515 Y-149.807
X-97.529 Y-149.802
X-98.64 Y-149.423
X-98.654 Y-149.418
X-99.761 Y-149.028
X-99.776 Y-149.023
X-100.879 Y-148.622
X-100.898 Y-148.615
X-101.995 Y-148.2
X-102.016 Y-148.191
X-103.107 Y-147.76
X-103.126 Y-147.753
X-104.211 Y-147.308
X-104.228 Y-147.301
X-105.308 Y-146.844
X-105.322 Y-146.838
X-106.399 Y-146.37
X-106.414 Y-146.363
X-108.558 Y-145.405
X-108.569 Y-145.4
X-110.706 Y-144.425
G2 X-111.63 Y-143.097 I0.659 J1.444
G1 X-111.956 Y-138.653
X-111.957 Y-138.646
X-112.262 Y-134.202
Y-134.191
X-112.4 Y-131.968
X-112.401 Y-131.96
X-112.527 Y-129.736
X-112.528 Y-129.725
X-112.639 Y-127.501
Y-127.488
X-112.732 Y-125.263
X-112.733 Y-125.251
X-112.809 Y-123.026
Y-123.015
X-112.869 Y-120.789
Y-120.779
X-112.916 Y-118.552
Y-118.545
X-112.952 Y-116.318
Y-116.309
X-113 Y-111.854
Y-111.848
X-113.03 Y-107.443
X-113.079 Y-106.771
X-113.15 Y-106.094
X-113.195 Y-105.801
X-113.251 Y-105.518
X-113.317 Y-105.257
X-113.395 Y-105.017
X-113.488 Y-104.785
X-113.602 Y-104.551
X-113.738 Y-104.309
X-113.898 Y-104.054
X-114.077 Y-103.79
X-114.271 Y-103.52
X-114.596 Y-103.091
X-115 Y-102.762
X-115.254 Y-102.565
X-115.501 Y-102.385
X-115.74 Y-102.224
X-115.969 Y-102.086
X-116.187 Y-101.971
X-116.4 Y-101.878
X-116.623 Y-101.801
X-116.868 Y-101.733
X-117.135 Y-101.676
X-117.423 Y-101.627
X-117.732 Y-101.587
X-118.055 Y-101.553
X-118.683 Y-101.502
X-119.108 Y-101.513
X-119.573 Y-101.541
X-119.758 Y-101.561
X-119.935 Y-101.589
X-120.09 Y-101.622
X-120.22 Y-101.659
X-120.339 Y-101.703
X-120.453 Y-101.757
X-120.578 Y-101.827
X-120.706 Y-101.911
X-121.051 Y-102.172
X-121.205 Y-102.3
X-121.289 Y-102.451
X-121.479 Y-102.815
X-121.629 Y-103.155
X-121.675 Y-103.285
X-121.717 Y-103.429
X-121.752 Y-103.579
X-121.78 Y-103.732
X-121.828 Y-104.124
X-121.857 Y-104.547
X-121.874 Y-104.974
X-121.831 Y-108.095
X-121.776 Y-111.254
X-121.701 Y-114.407
X-121.594 Y-117.555
X-121.45 Y-120.703
X-121.28 Y-123.853
X-120.892 Y-130.17
X-120.643 Y-134.242
X-120.502 Y-136.266
X-120.341 Y-138.282
X-120.154 Y-140.291
X-119.931 Y-142.294
X-119.679 Y-144.303
X-119.441 Y-146.083
X-119.293 Y-146.404
X-119.042 Y-146.909
X-118.923 Y-147.129
X-118.8 Y-147.338
X-118.674 Y-147.533
X-118.537 Y-147.723
X-118.388 Y-147.915
X-118.233 Y-148.099
X-117.864 Y-148.501
X-117.463 Y-148.903
X-117.075 Y-149.278
X-116.367 Y-149.858
X-115.62 Y-150.454
X-114.868 Y-151.017
X-114.499 Y-151.276
X-114.123 Y-151.527
X-113.737 Y-151.77
X-113.346 Y-152.005
X-112.52 Y-152.473
X-111.671 Y-152.927
X-110.846 Y-153.356
X-109.303 Y-154.033
X-107.72 Y-154.711
X-106.134 Y-155.359
X-105.345 Y-155.663
X-104.553 Y-155.958
X-102.936 Y-156.525
X-101.304 Y-157.065
X-99.656 Y-157.587
X-97.995 Y-158.102
X-97.992
X-96.502 Y-158.567
X-95.023 Y-159.012
X-93.546 Y-159.427
X-92.818 Y-159.616
X-92.086 Y-159.793
X-91.354 Y-159.956
X-90.623 Y-160.102
X-89.886 Y-160.232
X-89.146 Y-160.349
X-87.624 Y-160.556
X-86.248 Y-160.723
X-85.874 Y-160.689
X-85.379 Y-160.625
X-85.177 Y-160.589
X-84.986 Y-160.546
X-84.815 Y-160.497
X-84.66 Y-160.442
X-84.509 Y-160.375
X-84.353 Y-160.293
X-84.188 Y-160.193
X-84.019 Y-160.081
X-83.618 Y-159.782
X-83.313 Y-159.538
X-83.072 Y-159.255
X-82.776 Y-158.88
X-82.664 Y-158.723
X-82.564 Y-158.566
X-82.482 Y-158.42
X-82.417 Y-158.283
X-82.363 Y-158.144
X-82.314 Y-157.988
X-82.27 Y-157.81
X-82.234 Y-157.622
X-82.166 Y-157.149
X-82.127 Y-156.781
X-82.211 Y-155.828
X-82.323 Y-154.743
X-82.389 Y-154.221
X-82.465 Y-153.702
X-82.552 Y-153.191
X-82.653 Y-152.682
X-82.766 Y-152.171
X-82.89 Y-151.663
X-83.172 Y-150.618
X-83.482 Y-149.569
X-83.81 Y-148.503
X-83.813 Y-148.495
X-84.209 Y-147.181
X-84.215 Y-147.163
X-84.595 Y-145.846
X-84.602 Y-145.82
X-84.781 Y-145.159
X-84.787 Y-145.136
X-84.956 Y-144.474
X-84.963 Y-144.446
X-85.12 Y-143.781
X-85.127 Y-143.748
X-85.269 Y-143.081
X-85.277 Y-143.043
X-85.403 Y-142.372
X-85.41 Y-142.331
X-85.518 Y-141.658
X-85.524 Y-141.621
X-85.617 Y-140.944
X-85.62 Y-140.914
X-85.7 Y-140.235
X-85.704 Y-140.201
X-85.834 Y-138.838
X-85.836 Y-138.813
X-85.945 Y-137.446
X-85.949 Y-137.362
Y-137.278
X-85.906 Y-135.674
X-85.905 Y-135.645
X-85.87 Y-134.848
X-85.868 Y-134.812
X-85.814 Y-134.02
X-85.81 Y-133.973
X-85.734 Y-133.188
X-85.727 Y-133.127
X-85.621 Y-132.353
X-85.609 Y-132.281
X-85.469 Y-131.517
X-85.456 Y-131.454
X-85.371 Y-131.077
X-85.36 Y-131.031
X-85.263 Y-130.658
X-85.25 Y-130.61
X-85.143 Y-130.24
X-85.127 Y-130.189
X-85.007 Y-129.823
X-84.988 Y-129.769
X-84.855 Y-129.408
X-84.836 Y-129.36
X-84.691 Y-129.002
X-84.671 Y-128.955
X-84.515 Y-128.602
X-84.497 Y-128.564
X-84.33 Y-128.213
X-84.303 Y-128.16
X-83.942 Y-127.468
X-83.911 Y-127.412
X-83.52 Y-126.73
X-83.496 Y-126.69
X-83.081 Y-126.015
X-83.061 Y-125.982
X-82.194 Y-124.645
G2 X-81.865 Y-124.279 I1.332 J-0.864
G1 X-80.86 Y-123.46
X-80.83 Y-123.435
X-80.322 Y-123.041
X-80.286 Y-123.015
X-79.771 Y-122.638
X-79.719 Y-122.602
X-79.194 Y-122.249
X-79.127 Y-122.206
X-78.59 Y-121.883
X-78.53 Y-121.849
X-78.256 Y-121.7
X-78.208 Y-121.675
X-77.931 Y-121.536
X-77.881 Y-121.511
X-77.599 Y-121.382
X-77.539 Y-121.356
X-77.252 Y-121.239
X-77.2 Y-121.219
X-76.909 Y-121.112
X-76.852 Y-121.092
X-76.557 Y-120.996
X-76.484 Y-120.974
X-75.882 Y-120.81
X-75.795 Y-120.789
X-75.18 Y-120.658
X-75.11 Y-120.645
X-74.484 Y-120.541
X-74.425 Y-120.532
G3 X-74.15 Y-120.177 I-0.04 J0.315
G1 X-74.19 Y-119.862
X-74.199 Y-119.792 Z-0.992
X-74.207 Y-119.726 Z-0.969
X-74.215 Y-119.666 Z-0.931
X-74.221 Y-119.616 Z-0.88
X-74.226 Y-119.578 Z-0.82
X-74.229 Y-119.555 Z-0.753
X-74.23 Y-119.547 Z-0.683
Z5
X-74.86 Y-119.628
Z-0.365 F333.3
Z-1.683
X-74.859 Y-119.635 Z-1.753 F1000
X-74.856 Y-119.659 Z-1.82
X-74.851 Y-119.696 Z-1.88
X-74.845 Y-119.746 Z-1.931
X-74.837 Y-119.806 Z-1.969
X-74.829 Y-119.872 Z-1.992
X-74.82 Y-119.943 Z-2
X-74.78 Y-120.257
G3 X-74.425 Y-120.532 I0.315 J0.04
G1 X-73.79 Y-120.451
X-73.749 Y-120.447
X-73.107 Y-120.382
X-73.07 Y-120.378
X-71.776 Y-120.277
G2 X-71.41 Y-120.291 I0.123 J-1.583
G1 X-69.627 Y-120.566
X-69.586 Y-120.573
X-68.705 Y-120.733
X-68.66 Y-120.742
X-67.791 Y-120.926
X-67.742 Y-120.937
X-67.314 Y-121.042
X-67.279 Y-121.051
X-66.855 Y-121.165
X-66.817 Y-121.176
X-66.399 Y-121.3
X-66.349 Y-121.315
X-65.937 Y-121.452
X-65.89 Y-121.468
X-65.484 Y-121.617
X-65.431 Y-121.638
X-65.031 Y-121.801
X-64.975 Y-121.825
X-64.582 Y-122.003
X-64.527 Y-122.03
X-64.142 Y-122.223
X-64.088 Y-122.251
X-63.71 Y-122.459
X-63.66 Y-122.488
X-63.289 Y-122.71
X-63.247 Y-122.736
X-62.883 Y-122.97
X-62.84 Y-122.998
X-62.481 Y-123.245
X-62.447 Y-123.269
X-62.094 Y-123.526
X-62.06 Y-123.552
X-61.711 Y-123.82
X-61.671 Y-123.851
X-60.987 Y-124.413
X-60.944 Y-124.451
X-60.274 Y-125.043
X-60.244 Y-125.07
X-59.586 Y-125.683
X-59.56 Y-125.707
X-58.261 Y-126.971
G2 X-58.08 Y-127.181 I-1.107 J-1.138
G1 X-57.428 Y-128.085
X-57.42 Y-128.096
X-56.779 Y-129.003
X-56.762 Y-129.026
X-56.14 Y-129.94
X-56.116 Y-129.976
X-55.522 Y-130.901
X-55.5 Y-130.935
X-55.217 Y-131.402
X-55.2 Y-131.432
X-54.927 Y-131.904
X-54.91 Y-131.934
X-54.649 Y-132.409
X-54.63 Y-132.445
X-54.382 Y-132.925
X-54.362 Y-132.966
X-54.129 Y-133.452
X-54.109 Y-133.495
X-53.891 Y-133.986
X-53.87 Y-134.035
X-53.669 Y-134.532
X-53.649 Y-134.583
X-53.466 Y-135.086
X-53.448 Y-135.139
X-53.282 Y-135.649
X-53.267 Y-135.698
X-53.117 Y-136.214
X-53.105 Y-136.26
X-52.97 Y-136.781
X-52.96 Y-136.824
X-52.84 Y-137.351
X-52.831 Y-137.391
X-52.724 Y-137.922
X-52.717 Y-137.958
X-52.622 Y-138.494
X-52.617 Y-138.527
X-52.533 Y-139.066
X-52.529 Y-139.095
X-52.454 Y-139.639
X-52.45 Y-139.676
X-52.326 Y-140.771
X-52.323 Y-140.81
X-52.225 Y-141.915
X-52.223 Y-141.947
X-52.072 Y-144.173
X-52.069 Y-144.283
X-52.073 Y-144.393
X-52.18 Y-145.897
X-52.182 Y-145.915
X-52.306 Y-147.409
X-52.308 Y-147.434
X-52.382 Y-148.174
X-52.384 Y-148.197
X-52.468 Y-148.932
X-52.472 Y-148.96
X-52.568 Y-149.686
X-52.573 Y-149.721
X-52.684 Y-150.438
X-52.691 Y-150.476
X-52.819 Y-151.184
X-52.828 Y-151.23
X-52.975 Y-151.925
X-52.986 Y-151.975
X-53.154 Y-152.659
X-53.169 Y-152.716
X-53.36 Y-153.385
X-53.379 Y-153.448
X-53.595 Y-154.102
X-53.619 Y-154.169
X-53.862 Y-154.807
X-53.892 Y-154.881
X-54.165 Y-155.501
X-54.201 Y-155.578
X-54.505 Y-156.179
X-54.537 Y-156.239
X-54.702 Y-156.532
X-54.725 Y-156.573
X-54.898 Y-156.861
X-54.924 Y-156.902
X-55.106 Y-157.185
X-55.134 Y-157.227
X-55.324 Y-157.504
X-55.364 Y-157.56
X-55.771 Y-158.099
X-55.824 Y-158.166
X-56.262 Y-158.686
X-56.313 Y-158.743
X-56.78 Y-159.246
X-56.828 Y-159.296
X-57.322 Y-159.783
X-57.368 Y-159.826
X-57.885 Y-160.298
X-57.926 Y-160.334
X-58.466 Y-160.793
X-58.503 Y-160.824
X-59.062 Y-161.271
X-59.093 Y-161.295
X-59.669 Y-161.733
X-59.698 Y-161.754
X-60.288 Y-162.182
X-60.311 Y-162.198
X-60.914 Y-162.619
X-60.939 Y-162.637
X-62.171 Y-163.463
X-62.189 Y-163.475
X-63.411 Y-164.269
X-64.094 Y-164.759
X-64.392 Y-164.989
X-64.655 Y-165.214
X-64.889 Y-165.441
X-64.972 Y-165.534
X-65.052 Y-165.63
X-65.12 Y-165.724
X-65.182 Y-165.818
X-65.235 Y-165.912
X-65.285 Y-166.014
X-65.333 Y-166.128
X-65.372 Y-166.235
X-65.457 Y-166.528
X-65.522 Y-166.841
X-65.572 Y-167.191
X-65.608 Y-167.573
X-65.633 Y-167.978
X-65.66 Y-168.745
X-65.596 Y-169.212
X-65.554 Y-169.471
X-65.506 Y-169.71
X-65.453 Y-169.925
X-65.396 Y-170.111
X-65.333 Y-170.27
X-65.266 Y-170.407
X-65.184 Y-170.54
X-65.079 Y-170.684
X-64.947 Y-170.84
X-64.792 Y-171.005
X-64.614 Y-171.177
X-64.417 Y-171.357
X-64.062 Y-171.666
X-63.618 Y-171.932
X-63.075 Y-172.236
X-62.83 Y-172.361
X-62.587 Y-172.473
X-62.349 Y-172.571
X-62.119 Y-172.652
X-61.885 Y-172.718
X-61.634 Y-172.777
X-61.369 Y-172.826
X-61.098 Y-172.866
X-60.48 Y-172.931
X-60.066 Y-172.963
X-59.372 Y-172.803
X-58.466 Y-172.581
X-57.583 Y-172.343
X-57.167 Y-172.219
X-56.754 Y-172.085
X-56.353 Y-171.945
X-55.965 Y-171.796
X-55.587 Y-171.637
X-55.225 Y-171.47
X-54.876 Y-171.291
X-54.54 Y-171.1
X-54.215 Y-170.895
X-53.894 Y-170.673
X-53.577 Y-170.434
X-53.266 Y-170.182
X-52.959 Y-169.913
X-52.654 Y-169.629
X-52.354 Y-169.334
X-52.057 Y-169.024
X-51.761 Y-168.702
X-51.473 Y-168.373
X-50.887 Y-167.67
X-50.314 Y-166.941
X-49.214 Y-165.478
X-47.961 Y-163.272
X-47.345 Y-162.139
X-46.759 Y-161
X-46.484 Y-160.439
X-46.219 Y-159.872
X-45.968 Y-159.306
X-45.73 Y-158.739
X-45.506 Y-158.17
X-45.299 Y-157.6
X-45.108 Y-157.029
X-44.934 Y-156.453
X-44.776 Y-155.872
X-44.633 Y-155.282
X-44.503 Y-154.685
X-44.387 Y-154.081
X-44.283 Y-153.471
X-44.189 Y-152.854
X-44.106 Y-152.231
X-44.033 Y-151.607
X-43.909 Y-150.327
X-43.81 Y-149.036
X-43.658 Y-146.483
X-43.744 Y-144.723
X-43.846 Y-142.894
X-43.975 Y-141.08
X-44.052 Y-140.189
X-44.141 Y-139.302
X-44.243 Y-138.421
X-44.36 Y-137.549
X-44.492 Y-136.685
X-44.641 Y-135.831
X-44.809 Y-134.986
X-44.997 Y-134.152
X-45.207 Y-133.329
X-45.44 Y-132.516
X-45.698 Y-131.715
X-45.982 Y-130.923
X-46.293 Y-130.136
X-46.629 Y-129.353
X-46.989 Y-128.574
X-47.37 Y-127.798
X-47.772 Y-127.026
X-48.193 Y-126.255
X-48.631 Y-125.485
X-49.084 Y-124.717
X-49.549 Y-123.949
X-50.025 Y-123.184
X-51.009 Y-121.644
X-51.913 Y-120.253
X-52.931 Y-119.275
X-54.079 Y-118.194
X-54.65 Y-117.671
X-55.224 Y-117.157
X-55.799 Y-116.659
X-56.378 Y-116.175
X-56.959 Y-115.707
X-57.544 Y-115.26
X-58.134 Y-114.832
X-58.729 Y-114.427
X-59.328 Y-114.045
X-59.934 Y-113.689
X-60.547 Y-113.359
X-61.168 Y-113.056
X-61.802 Y-112.78
X-62.451 Y-112.528
X-63.116 Y-112.299
X-63.796 Y-112.09
X-64.49 Y-111.901
X-65.198 Y-111.73
X-65.919 Y-111.575
X-66.651 Y-111.435
X-67.395 Y-111.31
X-68.149 Y-111.195
X-68.912 Y-111.091
X-69.681 Y-110.996
X-71.249 Y-110.823
X-72.668 Y-110.68
X-73.651 Y-110.79
X-74.781 Y-110.926
X-75.887 Y-111.081
X-76.974 Y-111.265
X-77.493 Y-111.367
X-78.01 Y-111.481
X-78.518 Y-111.606
X-79.016 Y-111.743
X-79.504 Y-111.893
X-79.98 Y-112.056
X-80.444 Y-112.234
X-80.899 Y-112.429
X-81.349 Y-112.643
X-81.794 Y-112.873
X-82.236 Y-113.122
X-82.675 Y-113.386
X-83.113 Y-113.668
X-83.548 Y-113.964
X-83.981 Y-114.273
X-84.408 Y-114.592
X-85.277 Y-115.277
X-86.139 Y-115.994
X-87.004 Y-116.74
X-87.758 Y-117.401
X-88.456 Y-118.31
X-89.228 Y-119.335
X-89.973 Y-120.361
X-90.326 Y-120.869
X-90.67 Y-121.38
X-91 Y-121.891
X-91.315 Y-122.404
X-91.615 Y-122.919
X-91.898 Y-123.435
X-92.162 Y-123.954
X-92.408 Y-124.476
X-92.633 Y-125
X-92.839 Y-125.531
X-93.025 Y-126.071
X-93.195 Y-126.622
X-93.348 Y-127.183
X-93.486 Y-127.755
X-93.61 Y-128.335
X-93.721 Y-128.926
X-93.821 Y-129.524
X-93.909 Y-130.131
X-93.988 Y-130.746
X-94.057 Y-131.363
X-94.177 Y-132.632
X-94.276 Y-133.917
X-94.36 Y-135.129
X-94.281 Y-136.942
X-94.228 Y-137.872
X-94.16 Y-138.791
X-94.072 Y-139.694
X-93.961 Y-140.583
X-93.82 Y-141.464
X-93.739 Y-141.887
X-93.648 Y-142.312
X-93.548 Y-142.733
X-93.44 Y-143.145
X-93.188 Y-143.992
X-92.901 Y-144.833
X-92.584 Y-145.677
X-92.239 Y-146.526
X-91.875 Y-147.377
X-91.101 Y-149.112
G2 X-93.038 Y-151.27 I-1.45 J-0.647
G1 X-95.274 Y-150.549
X-95.285 Y-150.545
X-97.515 Y-149.807
X-97.529 Y-149.802
X-98.64 Y-149.423
X-98.654 Y-149.418
X-99.761 Y-149.028
X-99.776 Y-149.023
X-100.879 Y-148.622
X-100.898 Y-148.615
X-101.995 Y-148.2
X-102.016 Y-148.191
X-103.107 Y-147.76
X-103.126 Y-147.753
X-104.211 Y-147.308
X-104.228 Y-147.301
X-105.308 Y-146.844
X-105.322 Y-146.838
X-106.399 Y-146.37
X-106.414 Y-146.363
X-108.558 Y-145.405
X-108.569 Y-145.4
X-110.706 Y-144.425
G2 X-111.63 Y-143.097 I0.659 J1.444
G1 X-111.956 Y-138.653
X-111.957 Y-138.646
X-112.262 Y-134.202
Y-134.191
X-112.4 Y-131.968
X-112.401 Y-131.96
X-112.527 Y-129.736
X-112.528 Y-129.725
X-112.639 Y-127.501
Y-127.488
X-112.732 Y-125.263
X-112.733 Y-125.251
X-112.809 Y-123.026
Y-123.015
X-112.869 Y-120.789
Y-120.779
X-112.916 Y-118.552
Y-118.545
X-112.952 Y-116.318
Y-116.309
X-113 Y-111.854
Y-111.848
X-113.03 Y-107.443
X-113.079 Y-106.771
X-113.15 Y-106.094
X-113.195 Y-105.801
X-113.251 Y-105.518
X-113.317 Y-105.257
X-113.395 Y-105.017
X-113.488 Y-104.785
X-113.602 Y-104.551
X-113.738 Y-104.309
X-113.898 Y-104.054
X-114.077 Y-103.79
X-114.271 Y-103.52
X-114.596 Y-103.091
X-115 Y-102.762
X-115.254 Y-102.565
X-115.501 Y-102.385
X-115.74 Y-102.224
X-115.969 Y-102.086
X-116.187 Y-101.971
X-116.4 Y-101.878
X-116.623 Y-101.801
X-116.868 Y-101.733
X-117.135 Y-101.676
X-117.423 Y-101.627
X-117.732 Y-101.587
X-118.055 Y-101.553
X-118.683 Y-101.502
X-119.108 Y-101.513
X-119.573 Y-101.541
X-119.758 Y-101.561
X-119.935 Y-101.589
X-120.09 Y-101.622
X-120.22 Y-101.659
X-120.339 Y-101.703
X-120.453 Y-101.757
X-120.578 Y-101.827
X-120.706 Y-101.911
X-121.051 Y-102.172
X-121.205 Y-102.3
X-121.289 Y-102.451
X-121.479 Y-102.815
X-121.629 Y-103.155
X-121.675 Y-103.285
X-121.717 Y-103.429
X-121.752 Y-103.579
X-121.78 Y-103.732
X-121.828 Y-104.124
X-121.857 Y-104.547
X-121.874 Y-104.974
X-121.831 Y-108.095
X-121.776 Y-111.254
X-121.701 Y-114.407
X-121.594 Y-117.555
X-121.45 Y-120.703
X-121.28 Y-123.853
X-120.892 Y-130.17
X-120.643 Y-134.242
X-120.502 Y-136.266
X-120.341 Y-138.282
X-120.154 Y-140.291
X-119.931 Y-142.294
X-119.679 Y-144.303
X-119.441 Y-146.083
X-119.293 Y-146.404
X-119.042 Y-146.909
X-118.923 Y-147.129
X-118.8 Y-147.338
X-118.674 Y-147.533
X-118.537 Y-147.723
X-118.388 Y-147.915
X-118.233 Y-148.099
X-117.864 Y-148.501
X-117.463 Y-148.903
X-117.075 Y-149.278
X-116.367 Y-149.858
X-115.62 Y-150.454
X-114.868 Y-151.017
X-114.499 Y-151.276
X-114.123 Y-151.527
X-113.737 Y-151.77
X-113.346 Y-152.005
X-112.52 Y-152.473
X-111.671 Y-152.927
X-110.846 Y-153.356
X-109.303 Y-154.033
X-107.72 Y-154.711
X-106.134 Y-155.359
X-105.345 Y-155.663
X-104.553 Y-155.958
X-102.936 Y-156.525
X-101.304 Y-157.065
X-99.656 Y-157.587
X-97.995 Y-158.102
X-97.992
X-96.502 Y-158.567
X-95.023 Y-159.012
X-93.546 Y-159.427
X-92.818 Y-159.616
X-92.086 Y-159.793
X-91.354 Y-159.956
X-90.623 Y-160.102
X-89.886 Y-160.232
X-89.146 Y-160.349
X-87.624 Y-160.556
X-86.248 Y-160.723
X-85.874 Y-160.689
X-85.379 Y-160.625
X-85.177 Y-160.589
X-84.986 Y-160.546
X-84.815 Y-160.497
X-84.66 Y-160.442
X-84.509 Y-160.375
X-84.353 Y-160.293
X-84.188 Y-160.193
X-84.019 Y-160.081
X-83.618 Y-159.782
X-83.313 Y-159.538
X-83.072 Y-159.255
X-82.776 Y-158.88
X-82.664 Y-158.723
X-82.564 Y-158.566
X-82.482 Y-158.42
X-82.417 Y-158.283
X-82.363 Y-158.144
X-82.314 Y-157.988
X-82.27 Y-157.81
X-82.234 Y-157.622
X-82.166 Y-157.149
X-82.127 Y-156.781
X-82.211 Y-155.828
X-82.323 Y-154.743
X-82.389 Y-154.221
X-82.465 Y-153.702
X-82.552 Y-153.191
X-82.653 Y-152.682
X-82.766 Y-152.171
X-82.89 Y-151.663
X-83.172 Y-150.618
X-83.482 Y-149.569
X-83.81 Y-148.503
X-83.813 Y-148.495
X-84.209 Y-147.181
X-84.215 Y-147.163
X-84.595 Y-145.846
X-84.602 Y-145.82
X-84.781 Y-145.159
X-84.787 Y-145.136
X-84.956 Y-144.474
X-84.963 Y-144.446
X-85.12 Y-143.781
X-85.127 Y-143.748
X-85.269 Y-143.081
X-85.277 Y-143.043
X-85.403 Y-142.372
X-85.41 Y-142.331
X-85.518 Y-141.658
X-85.524 Y-141.621
X-85.617 Y-140.944
X-85.62 Y-140.914
X-85.7 Y-140.235
X-85.704 Y-140.201
X-85.834 Y-138.838
X-85.836 Y-138.813
X-85.945 Y-137.446
X-85.949 Y-137.362
Y-137.278
X-85.906 Y-135.674
X-85.905 Y-135.645
X-85.87 Y-134.848
X-85.868 Y-134.812
X-85.814 Y-134.02
X-85.81 Y-133.973
X-85.734 Y-133.188
X-85.727 Y-133.127
X-85.621 Y-132.353
X-85.609 Y-132.281
X-85.469 Y-131.517
X-85.456 Y-131.454
X-85.371 Y-131.077
X-85.36 Y-131.031
X-85.263 Y-130.658
X-85.25 Y-130.61
X-85.143 Y-130.24
X-85.127 Y-130.189
X-85.007 Y-129.823
X-84.988 Y-129.769
X-84.855 Y-129.408
X-84.836 Y-129.36
X-84.691 Y-129.002
X-84.671 Y-128.955
X-84.515 Y-128.602
X-84.497 Y-128.564
X-84.33 Y-128.213
X-84.303 Y-128.16
X-83.942 Y-127.468
X-83.911 Y-127.412
X-83.52 Y-126.73
X-83.496 Y-126.69
X-83.081 Y-126.015
X-83.061 Y-125.982
X-82.194 Y-124.645
G2 X-81.865 Y-124.279 I1.332 J-0.864
G1 X-80.86 Y-123.46
X-80.83 Y-123.435
X-80.322 Y-123.041
X-80.286 Y-123.015
X-79.771 Y-122.638
X-79.719 Y-122.602
X-79.194 Y-122.249
X-79.127 Y-122.206
X-78.59 Y-121.883
X-78.53 Y-121.849
X-78.256 Y-121.7
X-78.208 Y-121.675
X-77.931 Y-121.536
X-77.881 Y-121.511
X-77.599 Y-121.382
X-77.539 Y-121.356
X-77.252 Y-121.239
X-77.2 Y-121.219
X-76.909 Y-121.112
X-76.852 Y-121.092
X-76.557 Y-120.996
X-76.484 Y-120.974
X-75.882 Y-120.81
X-75.795 Y-120.789
X-75.18 Y-120.658
X-75.11 Y-120.645
X-74.484 Y-120.541
X-74.425 Y-120.532
G3 X-74.15 Y-120.177 I-0.04 J0.315
G1 X-74.19 Y-119.862
X-74.199 Y-119.792 Z-1.992
X-74.207 Y-119.726 Z-1.969
X-74.215 Y-119.666 Z-1.931
X-74.221 Y-119.616 Z-1.88
X-74.226 Y-119.578 Z-1.82
X-74.229 Y-119.555 Z-1.753
X-74.23 Y-119.547 Z-1.683
Z5
X-74.86 Y-119.628
Z-1.365 F333.3
Z-2.683
X-74.859 Y-119.635 Z-2.753 F1000
X-74.856 Y-119.659 Z-2.82
X-74.851 Y-119.696 Z-2.88
X-74.845 Y-119.746 Z-2.931
X-74.837 Y-119.806 Z-2.969
X-74.829 Y-119.872 Z-2.992
X-74.82 Y-119.943 Z-3
X-74.78 Y-120.257
G3 X-74.425 Y-120.532 I0.315 J0.04
G1 X-73.79 Y-120.451
X-73.749 Y-120.447
X-73.107 Y-120.382
X-73.07 Y-120.378
X-71.776 Y-120.277
G2 X-71.41 Y-120.291 I0.123 J-1.583
G1 X-69.627 Y-120.566
X-69.586 Y-120.573
X-68.705 Y-120.733
X-68.66 Y-120.742
X-67.791 Y-120.926
X-67.742 Y-120.937
X-67.314 Y-121.042
X-67.279 Y-121.051
X-66.855 Y-121.165
X-66.817 Y-121.176
X-66.399 Y-121.3
X-66.349 Y-121.315
X-65.937 Y-121.452
X-65.89 Y-121.468
X-65.484 Y-121.617
X-65.431 Y-121.638
X-65.031 Y-121.801
X-64.975 Y-121.825
X-64.582 Y-122.003
X-64.527 Y-122.03
X-64.142 Y-122.223
X-64.088 Y-122.251
X-63.71 Y-122.459
X-63.66 Y-122.488
X-63.289 Y-122.71
X-63.247 Y-122.736
X-62.883 Y-122.97
X-62.84 Y-122.998
X-62.481 Y-123.245
X-62.447 Y-123.269
X-62.094 Y-123.526
X-62.06 Y-123.552
X-61.711 Y-123.82
X-61.671 Y-123.851
X-60.987 Y-124.413
X-60.944 Y-124.451
X-60.274 Y-125.043
X-60.244 Y-125.07
X-59.586 Y-125.683
X-59.56 Y-125.707
X-58.261 Y-126.971
G2 X-58.08 Y-127.181 I-1.107 J-1.138
G1 X-57.428 Y-128.085
X-57.42 Y-128.096
X-56.779 Y-129.003
X-56.762 Y-129.026
X-56.14 Y-129.94
X-56.116 Y-129.976
X-55.522 Y-130.901
X-55.5 Y-130.935
X-55.217 Y-131.402
X-55.2 Y-131.432
X-54.927 Y-131.904
X-54.91 Y-131.934
X-54.649 Y-132.409
X-54.63 Y-132.445
X-54.382 Y-132.925
X-54.362 Y-132.966
X-54.129 Y-133.452
X-54.109 Y-133.495
X-53.891 Y-133.986
X-53.87 Y-134.035
X-53.669 Y-134.532
X-53.649 Y-134.583
X-53.466 Y-135.086
X-53.448 Y-135.139
X-53.282 Y-135.649
X-53.267 Y-135.698
X-53.117 Y-136.214
X-53.105 Y-136.26
X-52.97 Y-136.781
X-52.96 Y-136.824
X-52.84 Y-137.351
X-52.831 Y-137.391
X-52.724 Y-137.922
X-52.717 Y-137.958
X-52.622 Y-138.494
X-52.617 Y-138.527
X-52.533 Y-139.066
X-52.529 Y-139.095
X-52.454 Y-139.639
X-52.45 Y-139.676
X-52.326 Y-140.771
X-52.323 Y-140.81
X-52.225 Y-141.915
X-52.223 Y-141.947
X-52.072 Y-144.173
X-52.069 Y-144.283
X-52.073 Y-144.393
X-52.18 Y-145.897
X-52.182 Y-145.915
X-52.306 Y-147.409
X-52.308 Y-147.434
X-52.382 Y-148.174
X-52.384 Y-148.197
X-52.468 Y-148.932
X-52.472 Y-148.96
X-52.568 Y-149.686
X-52.573 Y-149.721
X-52.684 Y-150.438
X-52.691 Y-150.476
X-52.819 Y-151.184
X-52.828 Y-151.23
X-52.975 Y-151.925
X-52.986 Y-151.975
X-53.154 Y-152.659
X-53.169 Y-152.716
X-53.36 Y-153.385
X-53.379 Y-153.448
X-53.595 Y-154.102
X-53.619 Y-154.169
X-53.862 Y-154.807
X-53.892 Y-154.881
X-54.165 Y-155.501
X-54.201 Y-155.578
X-54.505 Y-156.179
X-54.537 Y-156.239
X-54.702 Y-156.532
X-54.725 Y-156.573
X-54.898 Y-156.861
X-54.924 Y-156.902
X-55.106 Y-157.185
X-55.134 Y-157.227
X-55.324 Y-157.504
X-55.364 Y-157.56
X-55.771 Y-158.099
X-55.824 Y-158.166
X-56.262 Y-158.686
X-56.313 Y-158.743
X-56.78 Y-159.246
X-56.828 Y-159.296
X-57.322 Y-159.783
X-57.368 Y-159.826
X-57.885 Y-160.298
X-57.926 Y-160.334
X-58.466 Y-160.793
X-58.503 Y-160.824
X-59.062 Y-161.271
X-59.093 Y-161.295
X-59.669 Y-161.733
X-59.698 Y-161.754
X-60.288 Y-162.182
X-60.311 Y-162.198
X-60.914 Y-162.619
X-60.939 Y-162.637
X-62.171 Y-163.463
X-62.189 Y-163.475
X-63.411 Y-164.269
X-64.094 Y-164.759
X-64.392 Y-164.989
X-64.655 Y-165.214
X-64.889 Y-165.441
X-64.972 Y-165.534
X-65.052 Y-165.63
X-65.12 Y-165.724
X-65.182 Y-165.818
X-65.235 Y-165.912
X-65.285 Y-166.014
X-65.333 Y-166.128
X-65.372 Y-166.235
X-65.457 Y-166.528
X-65.522 Y-166.841
X-65.572 Y-167.191
X-65.608 Y-167.573
X-65.633 Y-167.978
X-65.66 Y-168.745
X-65.596 Y-169.212
X-65.554 Y-169.471
X-65.506 Y-169.71
X-65.453 Y-169.925
X-65.396 Y-170.111
X-65.333 Y-170.27
X-65.266 Y-170.407
X-65.184 Y-170.54
X-65.079 Y-170.684
X-64.947 Y-170.84
X-64.792 Y-171.005
X-64.614 Y-171.177
X-64.417 Y-171.357
X-64.062 Y-171.666
X-63.618 Y-171.932
X-63.075 Y-172.236
X-62.83 Y-172.361
X-62.587 Y-172.473
X-62.349 Y-172.571
X-62.119 Y-172.652
X-61.885 Y-172.718
X-61.634 Y-172.777
X-61.369 Y-172.826
X-61.098 Y-172.866
X-60.48 Y-172.931
X-60.066 Y-172.963
X-59.372 Y-172.803
X-58.466 Y-172.581
X-57.583 Y-172.343
X-57.167 Y-172.219
X-56.754 Y-172.085
X-56.353 Y-171.945
X-55.965 Y-171.796
X-55.587 Y-171.637
X-55.225 Y-171.47
X-54.876 Y-171.291
X-54.54 Y-171.1
X-54.215 Y-170.895
X-53.894 Y-170.673
X-53.577 Y-170.434
X-53.266 Y-170.182
X-52.959 Y-169.913
X-52.654 Y-169.629
X-52.354 Y-169.334
X-52.057 Y-169.024
X-51.761 Y-168.702
X-51.473 Y-168.373
X-50.887 Y-167.67
X-50.314 Y-166.941
X-49.214 Y-165.478
X-47.961 Y-163.272
X-47.345 Y-162.139
X-46.759 Y-161
X-46.484 Y-160.439
X-46.219 Y-159.872
X-45.968 Y-159.306
X-45.73 Y-158.739
X-45.506 Y-158.17
X-45.299 Y-157.6
X-45.108 Y-157.029
X-44.934 Y-156.453
X-44.776 Y-155.872
X-44.633 Y-155.282
X-44.503 Y-154.685
X-44.387 Y-154.081
X-44.283 Y-153.471
X-44.189 Y-152.854
X-44.106 Y-152.231
X-44.033 Y-151.607
X-43.909 Y-150.327
X-43.81 Y-149.036
X-43.658 Y-146.483
X-43.744 Y-144.723
X-43.846 Y-142.894
X-43.975 Y-141.08
X-44.052 Y-140.189
X-44.141 Y-139.302
X-44.243 Y-138.421
X-44.36 Y-137.549
X-44.492 Y-136.685
X-44.641 Y-135.831
X-44.809 Y-134.986
X-44.997 Y-134.152
X-45.207 Y-133.329
X-45.44 Y-132.516
X-45.698 Y-131.715
X-45.982 Y-130.923
X-46.293 Y-130.136
X-46.629 Y-129.353
X-46.989 Y-128.574
X-47.37 Y-127.798
X-47.772 Y-127.026
X-48.193 Y-126.255
X-48.631 Y-125.485
X-49.084 Y-124.717
X-49.549 Y-123.949
X-50.025 Y-123.184
X-51.009 Y-121.644
X-51.913 Y-120.253
X-52.931 Y-119.275
X-54.079 Y-118.194
X-54.65 Y-117.671
X-55.224 Y-117.157
X-55.799 Y-116.659
X-56.378 Y-116.175
X-56.959 Y-115.707
X-57.544 Y-115.26
X-58.134 Y-114.832
X-58.729 Y-114.427
X-59.328 Y-114.045
X-59.934 Y-113.689
X-60.547 Y-113.359
X-61.168 Y-113.056
X-61.802 Y-112.78
X-62.451 Y-112.528
X-63.116 Y-112.299
X-63.796 Y-112.09
X-64.49 Y-111.901
X-65.198 Y-111.73
X-65.919 Y-111.575
X-66.651 Y-111.435
X-67.395 Y-111.31
X-68.149 Y-111.195
X-68.912 Y-111.091
X-69.681 Y-110.996
X-71.249 Y-110.823
X-72.668 Y-110.68
X-73.651 Y-110.79
X-74.781 Y-110.926
X-75.887 Y-111.081
X-76.974 Y-111.265
X-77.493 Y-111.367
X-78.01 Y-111.481
X-78.518 Y-111.606
X-79.016 Y-111.743
X-79.504 Y-111.893
X-79.98 Y-112.056
X-80.444 Y-112.234
X-80.899 Y-112.429
X-81.349 Y-112.643
X-81.794 Y-112.873
X-82.236 Y-113.122
X-82.675 Y-113.386
X-83.113 Y-113.668
X-83.548 Y-113.964
X-83.981 Y-114.273
X-84.408 Y-114.592
X-85.277 Y-115.277
X-86.139 Y-115.994
X-87.004 Y-116.74
X-87.758 Y-117.401
X-88.456 Y-118.31
X-89.228 Y-119.335
X-89.973 Y-120.361
X-90.326 Y-120.869
X-90.67 Y-121.38
X-91 Y-121.891
X-91.315 Y-122.404
X-91.615 Y-122.919
X-91.898 Y-123.435
X-92.162 Y-123.954
X-92.408 Y-124.476
X-92.633 Y-125
X-92.839 Y-125.531
X-93.025 Y-126.071
X-93.195 Y-126.622
X-93.348 Y-127.183
X-93.486 Y-127.755
X-93.61 Y-128.335
X-93.721 Y-128.926
X-93.821 Y-129.524
X-93.909 Y-130.131
X-93.988 Y-130.746
X-94.057 Y-131.363
X-94.177 Y-132.632
X-94.276 Y-133.917
X-94.36 Y-135.129
X-94.281 Y-136.942
X-94.228 Y-137.872
X-94.16 Y-138.791
X-94.072 Y-139.694
X-93.961 Y-140.583
X-93.82 Y-141.464
X-93.739 Y-141.887
X-93.648 Y-142.312
X-93.548 Y-142.733
X-93.44 Y-143.145
X-93.188 Y-143.992
X-92.901 Y-144.833
X-92.584 Y-145.677
X-92.239 Y-146.526
X-91.875 Y-147.377
X-91.101 Y-149.112
G2 X-93.038 Y-151.27 I-1.45 J-0.647
G1 X-95.274 Y-150.549
X-95.285 Y-150.545
X-97.515 Y-149.807
X-97.529 Y-149.802
X-98.64 Y-149.423
X-98.654 Y-149.418
X-99.761 Y-149.028
X-99.776 Y-149.023
X-100.879 Y-148.622
X-100.898 Y-148.615
X-101.995 Y-148.2
X-102.016 Y-148.191
X-103.107 Y-147.76
X-103.126 Y-147.753
X-104.211 Y-147.308
X-104.228 Y-147.301
X-105.308 Y-146.844
X-105.322 Y-146.838
X-106.399 Y-146.37
X-106.414 Y-146.363
X-108.558 Y-145.405
X-108.569 Y-145.4
X-110.706 Y-144.425
G2 X-111.63 Y-143.097 I0.659 J1.444
G1 X-111.956 Y-138.653
X-111.957 Y-138.646
X-112.262 Y-134.202
Y-134.191
X-112.4 Y-131.968
X-112.401 Y-131.96
X-112.527 Y-129.736
X-112.528 Y-129.725
X-112.639 Y-127.501
Y-127.488
X-112.732 Y-125.263
X-112.733 Y-125.251
X-112.809 Y-123.026
Y-123.015
X-112.869 Y-120.789
Y-120.779
X-112.916 Y-118.552
Y-118.545
X-112.952 Y-116.318
Y-116.309
X-113 Y-111.854
Y-111.848
X-113.03 Y-107.443
X-113.079 Y-106.771
X-113.15 Y-106.094
X-113.195 Y-105.801
X-113.251 Y-105.518
X-113.317 Y-105.257
X-113.395 Y-105.017
X-113.488 Y-104.785
X-113.602 Y-104.551
X-113.738 Y-104.309
X-113.898 Y-104.054
X-114.077 Y-103.79
X-114.271 Y-103.52
X-114.596 Y-103.091
X-115 Y-102.762
X-115.254 Y-102.565
X-115.501 Y-102.385
X-115.74 Y-102.224
X-115.969 Y-102.086
X-116.187 Y-101.971
X-116.4 Y-101.878
X-116.623 Y-101.801
X-116.868 Y-101.733
X-117.135 Y-101.676
X-117.423 Y-101.627
X-117.732 Y-101.587
X-118.055 Y-101.553
X-118.683 Y-101.502
X-119.108 Y-101.513
X-119.573 Y-101.541
X-119.758 Y-101.561
X-119.935 Y-101.589
X-120.09 Y-101.622
X-120.22 Y-101.659
X-120.339 Y-101.703
X-120.453 Y-101.757
X-120.578 Y-101.827
X-120.706 Y-101.911
X-121.051 Y-102.172
X-121.205 Y-102.3
X-121.289 Y-102.451
X-121.479 Y-102.815
X-121.629 Y-103.155
X-121.675 Y-103.285
X-121.717 Y-103.429
X-121.752 Y-103.579
X-121.78 Y-103.732
X-121.828 Y-104.124
X-121.857 Y-104.547
X-121.874 Y-104.974
X-121.831 Y-108.095
X-121.776 Y-111.254
X-121.701 Y-114.407
X-121.594 Y-117.555
X-121.45 Y-120.703
X-121.28 Y-123.853
X-120.892 Y-130.17
X-120.643 Y-134.242
X-120.502 Y-136.266
X-120.341 Y-138.282
X-120.154 Y-140.291
X-119.931 Y-142.294
X-119.679 Y-144.303
X-119.441 Y-146.083
X-119.293 Y-146.404
X-119.042 Y-146.909
X-118.923 Y-147.129
X-118.8 Y-147.338
X-118.674 Y-147.533
X-118.537 Y-147.723
X-118.388 Y-147.915
X-118.233 Y-148.099
X-117.864 Y-148.501
X-117.463 Y-148.903
X-117.075 Y-149.278
X-116.367 Y-149.858
X-115.62 Y-150.454
X-114.868 Y-151.017
X-114.499 Y-151.276
X-114.123 Y-151.527
X-113.737 Y-151.77
X-113.346 Y-152.005
X-112.52 Y-152.473
X-111.671 Y-152.927
X-110.846 Y-153.356
X-109.303 Y-154.033
X-107.72 Y-154.711
X-106.134 Y-155.359
X-105.345 Y-155.663
X-104.553 Y-155.958
X-102.936 Y-156.525
X-101.304 Y-157.065
X-99.656 Y-157.587
X-97.995 Y-158.102
X-97.992
X-96.502 Y-158.567
X-95.023 Y-159.012
X-93.546 Y-159.427
X-92.818 Y-159.616
X-92.086 Y-159.793
X-91.354 Y-159.956
X-90.623 Y-160.102
X-89.886 Y-160.232
X-89.146 Y-160.349
X-87.624 Y-160.556
X-86.248 Y-160.723
X-85.874 Y-160.689
X-85.379 Y-160.625
X-85.177 Y-160.589
X-84.986 Y-160.546
X-84.815 Y-160.497
X-84.66 Y-160.442
X-84.509 Y-160.375
X-84.353 Y-160.293
X-84.188 Y-160.193
X-84.019 Y-160.081
X-83.618 Y-159.782
X-83.313 Y-159.538
X-83.072 Y-159.255
X-82.776 Y-158.88
X-82.664 Y-158.723
X-82.564 Y-158.566
X-82.482 Y-158.42
X-82.417 Y-158.283
X-82.363 Y-158.144
X-82.314 Y-157.988
X-82.27 Y-157.81
X-82.234 Y-157.622
X-82.166 Y-157.149
X-82.127 Y-156.781
X-82.211 Y-155.828
X-82.323 Y-154.743
X-82.389 Y-154.221
X-82.465 Y-153.702
X-82.552 Y-153.191
X-82.653 Y-152.682
X-82.766 Y-152.171
X-82.89 Y-151.663
X-83.172 Y-150.618
X-83.482 Y-149.569
X-83.81 Y-148.503
X-83.813 Y-148.495
X-84.209 Y-147.181
X-84.215 Y-147.163
X-84.595 Y-145.846
X-84.602 Y-145.82
X-84.781 Y-145.159
X-84.787 Y-145.136
X-84.956 Y-144.474
X-84.963 Y-144.446
X-85.12 Y-143.781
X-85.127 Y-143.748
X-85.269 Y-143.081
X-85.277 Y-143.043
X-85.403 Y-142.372
X-85.41 Y-142.331
X-85.518 Y-141.658
X-85.524 Y-141.621
X-85.617 Y-140.944
X-85.62 Y-140.914
X-85.7 Y-140.235
X-85.704 Y-140.201
X-85.834 Y-138.838
X-85.836 Y-138.813
X-85.945 Y-137.446
X-85.949 Y-137.362
Y-137.278
X-85.906 Y-135.674
X-85.905 Y-135.645
X-85.87 Y-134.848
X-85.868 Y-134.812
X-85.814 Y-134.02
X-85.81 Y-133.973
X-85.734 Y-133.188
X-85.727 Y-133.127
X-85.621 Y-132.353
X-85.609 Y-132.281
X-85.469 Y-131.517
X-85.456 Y-131.454
X-85.371 Y-131.077
X-85.36 Y-131.031
X-85.263 Y-130.658
X-85.25 Y-130.61
X-85.143 Y-130.24
X-85.127 Y-130.189
X-85.007 Y-129.823
X-84.988 Y-129.769
X-84.855 Y-129.408
X-84.836 Y-129.36
X-84.691 Y-129.002
X-84.671 Y-128.955
X-84.515 Y-128.602
X-84.497 Y-128.564
X-84.33 Y-128.213
X-84.303 Y-128.16
X-83.942 Y-127.468
X-83.911 Y-127.412
X-83.52 Y-126.73
X-83.496 Y-126.69
X-83.081 Y-126.015
X-83.061 Y-125.982
X-82.194 Y-124.645
G2 X-81.865 Y-124.279 I1.332 J-0.864
G1 X-80.86 Y-123.46
X-80.83 Y-123.435
X-80.322 Y-123.041
X-80.286 Y-123.015
X-79.771 Y-122.638
X-79.719 Y-122.602
X-79.194 Y-122.249
X-79.127 Y-122.206
X-78.59 Y-121.883
X-78.53 Y-121.849
X-78.256 Y-121.7
X-78.208 Y-121.675
X-77.931 Y-121.536
X-77.881 Y-121.511
X-77.599 Y-121.382
X-77.539 Y-121.356
X-77.252 Y-121.239
X-77.2 Y-121.219
X-76.909 Y-121.112
X-76.852 Y-121.092
X-76.557 Y-120.996
X-76.484 Y-120.974
X-75.882 Y-120.81
X-75.795 Y-120.789
X-75.18 Y-120.658
X-75.11 Y-120.645
X-74.484 Y-120.541
X-74.425 Y-120.532
G3 X-74.15 Y-120.177 I-0.04 J0.315
G1 X-74.19 Y-119.862
X-74.199 Y-119.792 Z-2.992
X-74.207 Y-119.726 Z-2.969
X-74.215 Y-119.666 Z-2.931
X-74.221 Y-119.616 Z-2.88
X-74.226 Y-119.578 Z-2.82
X-74.229 Y-119.555 Z-2.753
X-74.23 Y-119.547 Z-2.683
Z5
X-74.86 Y-119.628
Z-2.365 F333.3
Z-3.683
X-74.859 Y-119.635 Z-3.753 F1000
X-74.856 Y-119.659 Z-3.82
X-74.851 Y-119.696 Z-3.88
X-74.845 Y-119.746 Z-3.931
X-74.837 Y-119.806 Z-3.969
X-74.829 Y-119.872 Z-3.992
X-74.82 Y-119.943 Z-4
X-74.78 Y-120.257
G3 X-74.425 Y-120.532 I0.315 J0.04
G1 X-73.79 Y-120.451
X-73.749 Y-120.447
X-73.107 Y-120.382
X-73.07 Y-120.378
X-71.776 Y-120.277
G2 X-71.41 Y-120.291 I0.123 J-1.583
G1 X-69.627 Y-120.566
X-69.586 Y-120.573
X-68.705 Y-120.733
X-68.66 Y-120.742
X-67.791 Y-120.926
X-67.742 Y-120.937
X-67.314 Y-121.042
X-67.279 Y-121.051
X-66.855 Y-121.165
X-66.817 Y-121.176
X-66.399 Y-121.3
X-66.349 Y-121.315
X-65.937 Y-121.452
X-65.89 Y-121.468
X-65.484 Y-121.617
X-65.431 Y-121.638
X-65.031 Y-121.801
X-64.975 Y-121.825
X-64.582 Y-122.003
X-64.527 Y-122.03
X-64.142 Y-122.223
X-64.088 Y-122.251
X-63.71 Y-122.459
X-63.66 Y-122.488
X-63.289 Y-122.71
X-63.247 Y-122.736
X-62.883 Y-122.97
X-62.84 Y-122.998
X-62.481 Y-123.245
X-62.447 Y-123.269
X-62.094 Y-123.526
X-62.06 Y-123.552
X-61.711 Y-123.82
X-61.671 Y-123.851
X-60.987 Y-124.413
X-60.944 Y-124.451
X-60.274 Y-125.043
X-60.244 Y-125.07
X-59.586 Y-125.683
X-59.56 Y-125.707
X-58.261 Y-126.971
G2 X-58.08 Y-127.181 I-1.107 J-1.138
G1 X-57.428 Y-128.085
X-57.42 Y-128.096
X-56.779 Y-129.003
X-56.762 Y-129.026
X-56.14 Y-129.94
X-56.116 Y-129.976
X-55.522 Y-130.901
X-55.5 Y-130.935
X-55.217 Y-131.402
X-55.2 Y-131.432
X-54.927 Y-131.904
X-54.91 Y-131.934
X-54.649 Y-132.409
X-54.63 Y-132.445
X-54.382 Y-132.925
X-54.362 Y-132.966
X-54.129 Y-133.452
X-54.109 Y-133.495
X-53.891 Y-133.986
X-53.87 Y-134.035
X-53.669 Y-134.532
X-53.649 Y-134.583
X-53.466 Y-135.086
X-53.448 Y-135.139
X-53.282 Y-135.649
X-53.267 Y-135.698
X-53.117 Y-136.214
X-53.105 Y-136.26
X-52.97 Y-136.781
X-52.96 Y-136.824
X-52.84 Y-137.351
X-52.831 Y-137.391
X-52.724 Y-137.922
X-52.717 Y-137.958
X-52.622 Y-138.494
X-52.617 Y-138.527
X-52.533 Y-139.066
X-52.529 Y-139.095
X-52.454 Y-139.639
X-52.45 Y-139.676
X-52.326 Y-140.771
X-52.323 Y-140.81
X-52.225 Y-141.915
X-52.223 Y-141.947
X-52.072 Y-144.173
X-52.069 Y-144.283
X-52.073 Y-144.393
X-52.18 Y-145.897
X-52.182 Y-145.915
X-52.306 Y-147.409
X-52.308 Y-147.434
X-52.382 Y-148.174
X-52.384 Y-148.197
X-52.468 Y-148.932
X-52.472 Y-148.96
X-52.568 Y-149.686
X-52.573 Y-149.721
X-52.684 Y-150.438
X-52.691 Y-150.476
X-52.819 Y-151.184
X-52.828 Y-151.23
X-52.975 Y-151.925
X-52.986 Y-151.975
X-53.154 Y-152.659
X-53.169 Y-152.716
X-53.36 Y-153.385
X-53.379 Y-153.448
X-53.595 Y-154.102
X-53.619 Y-154.169
X-53.862 Y-154.807
X-53.892 Y-154.881
X-54.165 Y-155.501
X-54.201 Y-155.578
X-54.505 Y-156.179
X-54.537 Y-156.239
X-54.702 Y-156.532
X-54.725 Y-156.573
X-54.898 Y-156.861
X-54.924 Y-156.902
X-55.106 Y-157.185
X-55.134 Y-157.227
X-55.324 Y-157.504
X-55.364 Y-157.56
X-55.771 Y-158.099
X-55.824 Y-158.166
X-56.262 Y-158.686
X-56.313 Y-158.743
X-56.78 Y-159.246
X-56.828 Y-159.296
X-57.322 Y-159.783
X-57.368 Y-159.826
X-57.885 Y-160.298
X-57.926 Y-160.334
X-58.466 Y-160.793
X-58.503 Y-160.824
X-59.062 Y-161.271
X-59.093 Y-161.295
X-59.669 Y-161.733
X-59.698 Y-161.754
X-60.288 Y-162.182
X-60.311 Y-162.198
X-60.914 Y-162.619
X-60.939 Y-162.637
X-62.171 Y-163.463
X-62.189 Y-163.475
X-63.411 Y-164.269
X-64.094 Y-164.759
X-64.392 Y-164.989
X-64.655 Y-165.214
X-64.889 Y-165.441
X-64.972 Y-165.534
X-65.052 Y-165.63
X-65.12 Y-165.724
X-65.182 Y-165.818
X-65.235 Y-165.912
X-65.285 Y-166.014
X-65.333 Y-166.128
X-65.372 Y-166.235
X-65.457 Y-166.528
X-65.522 Y-166.841
X-65.572 Y-167.191
X-65.608 Y-167.573
X-65.633 Y-167.978
X-65.66 Y-168.745
X-65.596 Y-169.212
X-65.554 Y-169.471
X-65.506 Y-169.71
X-65.453 Y-169.925
X-65.396 Y-170.111
X-65.333 Y-170.27
X-65.266 Y-170.407
X-65.184 Y-170.54
X-65.079 Y-170.684
X-64.947 Y-170.84
X-64.792 Y-171.005
X-64.614 Y-171.177
X-64.417 Y-171.357
X-64.062 Y-171.666
X-63.618 Y-171.932
X-63.075 Y-172.236
X-62.83 Y-172.361
X-62.587 Y-172.473
X-62.349 Y-172.571
X-62.119 Y-172.652
X-61.885 Y-172.718
X-61.634 Y-172.777
X-61.369 Y-172.826
X-61.098 Y-172.866
X-60.48 Y-172.931
X-60.066 Y-172.963
X-59.372 Y-172.803
X-58.466 Y-172.581
X-57.583 Y-172.343
X-57.167 Y-172.219
X-56.754 Y-172.085
X-56.353 Y-171.945
X-55.965 Y-171.796
X-55.587 Y-171.637
X-55.225 Y-171.47
X-54.876 Y-171.291
X-54.54 Y-171.1
X-54.215 Y-170.895
X-53.894 Y-170.673
X-53.577 Y-170.434
X-53.266 Y-170.182
X-52.959 Y-169.913
X-52.654 Y-169.629
X-52.354 Y-169.334
X-52.057 Y-169.024
X-51.761 Y-168.702
X-51.473 Y-168.373
X-50.887 Y-167.67
X-50.314 Y-166.941
X-49.214 Y-165.478
X-47.961 Y-163.272
X-47.345 Y-162.139
X-46.759 Y-161
X-46.484 Y-160.439
X-46.219 Y-159.872
X-45.968 Y-159.306
X-45.73 Y-158.739
X-45.506 Y-158.17
X-45.299 Y-157.6
X-45.108 Y-157.029
X-44.934 Y-156.453
X-44.776 Y-155.872
X-44.633 Y-155.282
X-44.503 Y-154.685
X-44.387 Y-154.081
X-44.283 Y-153.471
X-44.189 Y-152.854
X-44.106 Y-152.231
X-44.033 Y-151.607
X-43.909 Y-150.327
X-43.81 Y-149.036
X-43.658 Y-146.483
X-43.744 Y-144.723
X-43.846 Y-142.894
X-43.975 Y-141.08
X-44.052 Y-140.189
X-44.141 Y-139.302
X-44.243 Y-138.421
X-44.36 Y-137.549
X-44.492 Y-136.685
X-44.641 Y-135.831
X-44.809 Y-134.986
X-44.997 Y-134.152
X-45.207 Y-133.329
X-45.44 Y-132.516
X-45.698 Y-131.715
X-45.982 Y-130.923
X-46.293 Y-130.136
X-46.629 Y-129.353
X-46.989 Y-128.574
X-47.37 Y-127.798
X-47.772 Y-127.026
X-48.193 Y-126.255
X-48.631 Y-125.485
X-49.084 Y-124.717
X-49.549 Y-123.949
X-50.025 Y-123.184
X-51.009 Y-121.644
X-51.913 Y-120.253
X-52.931 Y-119.275
X-54.079 Y-118.194
X-54.65 Y-117.671
X-55.224 Y-117.157
X-55.799 Y-116.659
X-56.378 Y-116.175
X-56.959 Y-115.707
X-57.544 Y-115.26
X-58.134 Y-114.832
X-58.729 Y-114.427
X-59.328 Y-114.045
X-59.934 Y-113.689
X-60.547 Y-113.359
X-61.168 Y-113.056
X-61.802 Y-112.78
X-62.451 Y-112.528
X-63.116 Y-112.299
X-63.796 Y-112.09
X-64.49 Y-111.901
X-65.198 Y-111.73
X-65.919 Y-111.575
X-66.651 Y-111.435
X-67.395 Y-111.31
X-68.149 Y-111.195
X-68.912 Y-111.091
X-69.681 Y-110.996
X-71.249 Y-110.823
X-72.668 Y-110.68
X-73.651 Y-110.79
X-74.781 Y-110.926
X-75.887 Y-111.081
X-76.974 Y-111.265
X-77.493 Y-111.367
X-78.01 Y-111.481
X-78.518 Y-111.606
X-79.016 Y-111.743
X-79.504 Y-111.893
X-79.98 Y-112.056
X-80.444 Y-112.234
X-80.899 Y-112.429
X-81.349 Y-112.643
X-81.794 Y-112.873
X-82.236 Y-113.122
X-82.675 Y-113.386
X-83.113 Y-113.668
X-83.548 Y-113.964
X-83.981 Y-114.273
X-84.408 Y-114.592
X-85.277 Y-115.277
X-86.139 Y-115.994
X-87.004 Y-116.74
X-87.758 Y-117.401
X-88.456 Y-118.31
X-89.228 Y-119.335
X-89.973 Y-120.361
X-90.326 Y-120.869
X-90.67 Y-121.38
X-91 Y-121.891
X-91.315 Y-122.404
X-91.615 Y-122.919
X-91.898 Y-123.435
X-92.162 Y-123.954
X-92.408 Y-124.476
X-92.633 Y-125
X-92.839 Y-125.531
X-93.025 Y-126.071
X-93.195 Y-126.622
X-93.348 Y-127.183
X-93.486 Y-127.755
X-93.61 Y-128.335
X-93.721 Y-128.926
X-93.821 Y-129.524
X-93.909 Y-130.131
X-93.988 Y-130.746
X-94.057 Y-131.363
X-94.177 Y-132.632
X-94.276 Y-133.917
X-94.36 Y-135.129
X-94.281 Y-136.942
X-94.228 Y-137.872
X-94.16 Y-138.791
X-94.072 Y-139.694
X-93.961 Y-140.583
X-93.82 Y-141.464
X-93.739 Y-141.887
X-93.648 Y-142.312
X-93.548 Y-142.733
X-93.44 Y-143.145
X-93.188 Y-143.992
X-92.901 Y-144.833
X-92.584 Y-145.677
X-92.239 Y-146.526
X-91.875 Y-147.377
X-91.101 Y-149.112
G2 X-93.038 Y-151.27 I-1.45 J-0.647
G1 X-95.274 Y-150.549
X-95.285 Y-150.545
X-97.515 Y-149.807
X-97.529 Y-149.802
X-98.64 Y-149.423
X-98.654 Y-149.418
X-99.761 Y-149.028
X-99.776 Y-149.023
X-100.879 Y-148.622
X-100.898 Y-148.615
X-101.995 Y-148.2
X-102.016 Y-148.191
X-103.107 Y-147.76
X-103.126 Y-147.753
X-104.211 Y-147.308
X-104.228 Y-147.301
X-105.308 Y-146.844
X-105.322 Y-146.838
X-106.399 Y-146.37
X-106.414 Y-146.363
X-108.558 Y-145.405
X-108.569 Y-145.4
X-110.706 Y-144.425
G2 X-111.63 Y-143.097 I0.659 J1.444
G1 X-111.956 Y-138.653
X-111.957 Y-138.646
X-112.262 Y-134.202
Y-134.191
X-112.4 Y-131.968
X-112.401 Y-131.96
X-112.527 Y-129.736
X-112.528 Y-129.725
X-112.639 Y-127.501
Y-127.488
X-112.732 Y-125.263
X-112.733 Y-125.251
X-112.809 Y-123.026
Y-123.015
X-112.869 Y-120.789
Y-120.779
X-112.916 Y-118.552
Y-118.545
X-112.952 Y-116.318
Y-116.309
X-113 Y-111.854
Y-111.848
X-113.03 Y-107.443
X-113.079 Y-106.771
X-113.15 Y-106.094
X-113.195 Y-105.801
X-113.251 Y-105.518
X-113.317 Y-105.257
X-113.395 Y-105.017
X-113.488 Y-104.785
X-113.602 Y-104.551
X-113.738 Y-104.309
X-113.898 Y-104.054
X-114.077 Y-103.79
X-114.271 Y-103.52
X-114.596 Y-103.091
X-115 Y-102.762
X-115.254 Y-102.565
X-115.501 Y-102.385
X-115.74 Y-102.224
X-115.969 Y-102.086
X-116.187 Y-101.971
X-116.4 Y-101.878
X-116.623 Y-101.801
X-116.868 Y-101.733
X-117.135 Y-101.676
X-117.423 Y-101.627
X-117.732 Y-101.587
X-118.055 Y-101.553
X-118.683 Y-101.502
X-119.108 Y-101.513
X-119.573 Y-101.541
X-119.758 Y-101.561
X-119.935 Y-101.589
X-120.09 Y-101.622
X-120.22 Y-101.659
X-120.339 Y-101.703
X-120.453 Y-101.757
X-120.578 Y-101.827
X-120.706 Y-101.911
X-121.051 Y-102.172
X-121.205 Y-102.3
X-121.289 Y-102.451
X-121.479 Y-102.815
X-121.629 Y-103.155
X-121.675 Y-103.285
X-121.717 Y-103.429
X-121.752 Y-103.579
X-121.78 Y-103.732
X-121.828 Y-104.124
X-121.857 Y-104.547
X-121.874 Y-104.974
X-121.831 Y-108.095
X-121.776 Y-111.254
X-121.701 Y-114.407
X-121.594 Y-117.555
X-121.45 Y-120.703
X-121.28 Y-123.853
X-120.892 Y-130.17
X-120.643 Y-134.242
X-120.502 Y-136.266
X-120.341 Y-138.282
X-120.154 Y-140.291
X-119.931 Y-142.294
X-119.679 Y-144.303
X-119.441 Y-146.083
X-119.293 Y-146.404
X-119.042 Y-146.909
X-118.923 Y-147.129
X-118.8 Y-147.338
X-118.674 Y-147.533
X-118.537 Y-147.723
X-118.388 Y-147.915
X-118.233 Y-148.099
X-117.864 Y-148.501
X-117.463 Y-148.903
X-117.075 Y-149.278
X-116.367 Y-149.858
X-115.62 Y-150.454
X-114.868 Y-151.017
X-114.499 Y-151.276
X-114.123 Y-151.527
