(Motormount_Macro)
(Bearbeiten)
(  Hersteller: ChinaCnc)
(  model: 3040T)
(  description: Generic 3-axis)
(T5 D=3.175 CR=0 - ZMIN=-2.4 - Schaftfrser)
G90 G94
G17
G21
(When using Fusion 360 for Personal Use, the feedrate of)
(rapid moves is reduced to match the feedrate of cutting)
(moves, which can increase machining time. Unrestricted rapid)
(moves are available with a Fusion 360 Subscription.)

(Bohrfrsen10)
M0
(MANUAL TOOL CHANGE TO T5)
S6000 M3
G54
G0 X0.118 Y22.419
Z15
G1 Z1.683 F1000
Z0
X0.277 Y22.417
X0.308 Y22.423
X0.335 Y22.44
X0.352 Y22.467
X0.359 Y22.498
G3 X0.034 Y22.501 Z-0.061 I-0.162 J0.001
X0.359 Y22.498 Z-0.122 I0.162 J-0.001
X0.034 Y22.501 Z-0.183 I-0.162 J0.001
X0.359 Y22.498 Z-0.244 I0.162 J-0.001
X0.034 Y22.501 Z-0.306 I-0.162 J0.001
X0.359 Y22.498 Z-0.367 I0.162 J-0.001
X0.034 Y22.501 Z-0.428 I-0.162 J0.001
X0.359 Y22.498 Z-0.489 I0.162 J-0.001
X0.034 Y22.501 Z-0.55 I-0.162 J0.001
X0.359 Y22.498 Z-0.611 I0.162 J-0.001
X0.034 Y22.501 Z-0.672 I-0.162 J0.001
X0.359 Y22.498 Z-0.733 I0.162 J-0.001
X0.034 Y22.501 Z-0.794 I-0.162 J0.001
X0.359 Y22.498 Z-0.856 I0.162 J-0.001
X0.034 Y22.501 Z-0.917 I-0.162 J0.001
X0.359 Y22.498 Z-0.978 I0.162 J-0.001
X0.034 Y22.501 Z-1.039 I-0.162 J0.001
X0.359 Y22.498 Z-1.1 I0.162 J-0.001
X0.034 Y22.501 Z-1.161 I-0.162 J0.001
X0.359 Y22.498 Z-1.222 I0.162 J-0.001
X0.034 Y22.501 Z-1.283 I-0.162 J0.001
X0.359 Y22.498 Z-1.344 I0.162 J-0.001
X0.034 Y22.501 Z-1.406 I-0.162 J0.001
X0.359 Y22.498 Z-1.467 I0.162 J-0.001
X0.034 Y22.501 Z-1.528 I-0.162 J0.001
X0.359 Y22.498 Z-1.589 I0.162 J-0.001
X0.034 Y22.501 Z-1.65 I-0.162 J0.001
X0.359 Y22.498 Z-1.711 I0.162 J-0.001
X0.034 Y22.501 Z-1.772 I-0.162 J0.001
X0.359 Y22.498 Z-1.833 I0.162 J-0.001
X0.034 Y22.501 Z-1.894 I-0.162 J0.001
X0.359 Y22.498 Z-1.956 I0.162 J-0.001
X0.034 Y22.501 Z-2.017 I-0.162 J0.001
X0.359 Y22.498 Z-2.078 I0.162 J-0.001
X0.034 Y22.501 Z-2.139 I-0.162 J0.001
X0.359 Y22.498 Z-2.2 I0.162 J-0.001
X0.034 Y22.501 Z-2.261 I-0.162 J0.001
X0.359 Y22.498 Z-2.322 I0.162 J-0.001
X0.034 Y22.501 Z-2.383 I-0.162 J0.001
X0.089 Y22.377 Z-2.4 I0.162 J-0.001
X0.304 Y22.621 I0.108 J0.122
X0.089 Y22.377 I-0.108 J-0.122
G1 X0.116 Y22.361
X0.148 Y22.357
X0.178 Y22.365
X0.203 Y22.384
X0.309 Y22.503
Z5
X2.616 Y-0.34
Z2
Z0.317
X2.624 Z0.247
X2.647 Y-0.341 Z0.18
X2.685 Z0.12
X2.735 Z0.069
X2.796 Y-0.342 Z0.031
X2.863 Z0.008
X2.933 Y-0.343 Z0
X3.092 Y-0.344
G3 X3.412 Y-0.03 I0.003 J0.317
X-3.412 Y0.03 Z-0.175 I-3.412 J0.03
X3.412 Y-0.03 Z-0.349 I3.412 J-0.03
X-3.412 Y0.03 Z-0.524 I-3.412 J0.03
X3.412 Y-0.03 Z-0.698 I3.412 J-0.03
X-3.412 Y0.03 Z-0.873 I-3.412 J0.03
X3.412 Y-0.03 Z-1.048 I3.412 J-0.03
X-3.412 Y0.03 Z-1.222 I-3.412 J0.03
X3.412 Y-0.03 Z-1.397 I3.412 J-0.03
X-3.412 Y0.03 Z-1.571 I-3.412 J0.03
X3.412 Y-0.03 Z-1.746 I3.412 J-0.03
X-3.412 Y0.03 Z-1.921 I-3.412 J0.03
X3.412 Y-0.03 Z-2.095 I3.412 J-0.03
X-3.412 Y0.03 Z-2.27 I-3.412 J0.03
X2.356 Y-2.468 Z-2.4 I3.412 J-0.03
X-2.356 Y2.468 I-2.356 J2.468
X2.356 Y-2.468 I2.356 J-2.468
X2.367 Y-2.019 I-0.219 J0.23
G1 X2.257 Y-1.905
X2.208 Y-1.853 Z-2.392
X2.162 Y-1.805 Z-2.369
X2.121 Y-1.761 Z-2.331
X2.086 Y-1.725 Z-2.28
X2.06 Y-1.698 Z-2.22
X2.043 Y-1.681 Z-2.153
X2.038 Y-1.675 Z-2.082
Z5
X-0.275 Y-22.58
Z1.683
Z0
X-0.116 Y-22.581
X-0.085 Y-22.575
X-0.058 Y-22.558
X-0.04 Y-22.532
X-0.034 Y-22.501
G3 X-0.359 Y-22.498 Z-0.061 I-0.162 J0.001
X-0.034 Y-22.501 Z-0.122 I0.162 J-0.001
X-0.359 Y-22.498 Z-0.183 I-0.162 J0.001
X-0.034 Y-22.501 Z-0.244 I0.162 J-0.001
X-0.359 Y-22.498 Z-0.306 I-0.162 J0.001
X-0.034 Y-22.501 Z-0.367 I0.162 J-0.001
X-0.359 Y-22.498 Z-0.428 I-0.162 J0.001
X-0.034 Y-22.501 Z-0.489 I0.162 J-0.001
X-0.359 Y-22.498 Z-0.55 I-0.162 J0.001
X-0.034 Y-22.501 Z-0.611 I0.162 J-0.001
X-0.359 Y-22.498 Z-0.672 I-0.162 J0.001
X-0.034 Y-22.501 Z-0.733 I0.162 J-0.001
X-0.359 Y-22.498 Z-0.794 I-0.162 J0.001
X-0.034 Y-22.501 Z-0.856 I0.162 J-0.001
X-0.359 Y-22.498 Z-0.917 I-0.162 J0.001
X-0.034 Y-22.501 Z-0.978 I0.162 J-0.001
X-0.359 Y-22.498 Z-1.039 I-0.162 J0.001
X-0.034 Y-22.501 Z-1.1 I0.162 J-0.001
X-0.359 Y-22.498 Z-1.161 I-0.162 J0.001
X-0.034 Y-22.501 Z-1.222 I0.162 J-0.001
X-0.359 Y-22.498 Z-1.283 I-0.162 J0.001
X-0.034 Y-22.501 Z-1.344 I0.162 J-0.001
X-0.359 Y-22.498 Z-1.406 I-0.162 J0.001
X-0.034 Y-22.501 Z-1.467 I0.162 J-0.001
X-0.359 Y-22.498 Z-1.528 I-0.162 J0.001
X-0.034 Y-22.501 Z-1.589 I0.162 J-0.001
X-0.359 Y-22.498 Z-1.65 I-0.162 J0.001
X-0.034 Y-22.501 Z-1.711 I0.162 J-0.001
X-0.359 Y-22.498 Z-1.772 I-0.162 J0.001
X-0.034 Y-22.501 Z-1.833 I0.162 J-0.001
X-0.359 Y-22.498 Z-1.894 I-0.162 J0.001
X-0.034 Y-22.501 Z-1.956 I0.162 J-0.001
X-0.359 Y-22.498 Z-2.017 I-0.162 J0.001
X-0.034 Y-22.501 Z-2.078 I0.162 J-0.001
X-0.359 Y-22.498 Z-2.139 I-0.162 J0.001
X-0.034 Y-22.501 Z-2.2 I0.162 J-0.001
X-0.359 Y-22.498 Z-2.261 I-0.162 J0.001
X-0.034 Y-22.501 Z-2.322 I0.162 J-0.001
X-0.359 Y-22.498 Z-2.383 I-0.162 J0.001
X-0.304 Y-22.621 Z-2.4 I0.162 J-0.001
X-0.089 Y-22.377 I0.108 J0.122
X-0.304 Y-22.621 I-0.108 J-0.122
G1 X-0.276 Y-22.637
X-0.245 Y-22.641
X-0.214 Y-22.633
X-0.189 Y-22.614
X-0.084 Y-22.495
Z15
(When using Fusion 360 for Personal Use, the feedrate of)
(rapid moves is reduced to match the feedrate of cutting)
(moves, which can increase machining time. Unrestricted rapid)
(moves are available with a Fusion 360 Subscription.)

(2D-Kontur19)
G0 X-6.821 Y-6.791
G1 Z15 F1000
Z5
Z1 F333.3
S5000
X-6.375 Y-6.353 Z0.978
X-6.36 Y-6.329 Z0.977
X-6.357 Y-6.302 Z0.976
X-6.366 Y-6.275 Z0.975
X-6.386 Y-6.256 Z0.974
X-6.412 Y-6.246 Z0.973
X-6.439 Y-6.249 Z0.972
X-6.463 Y-6.264 Z0.971
X-7.89 Y-7.665 Z0.901
X-7.905 Y-7.689 Z0.9
X-7.908 Y-7.716
X-7.899 Y-7.743 Z0.899
X-7.879 Y-7.763 Z0.898
X-7.853 Y-7.772 Z0.897
X-7.826 Y-7.769 Z0.896
X-7.802 Y-7.755 Z0.895
X-6.375 Y-6.353 Z0.825
X-6.36 Y-6.329 Z0.824
X-6.357 Y-6.302 Z0.823
X-6.366 Y-6.275 Z0.822
X-6.386 Y-6.256 Z0.821
X-6.412 Y-6.246 Z0.82
X-6.439 Y-6.249 Z0.819
X-6.463 Y-6.264 Z0.818
X-7.89 Y-7.665 Z0.748
X-7.905 Y-7.689 Z0.747
X-7.908 Y-7.716 Z0.746
X-7.899 Y-7.743 Z0.745
X-7.879 Y-7.763 Z0.744
X-7.853 Y-7.772 Z0.743
X-7.826 Y-7.769 Z0.742
X-7.802 Y-7.755 Z0.741
X-6.375 Y-6.353 Z0.671
X-6.36 Y-6.329 Z0.67
X-6.357 Y-6.302 Z0.669
X-6.366 Y-6.275 Z0.668
X-6.386 Y-6.256 Z0.667
X-6.412 Y-6.246 Z0.666
X-6.439 Y-6.249 Z0.665
X-6.463 Y-6.264
X-7.89 Y-7.665 Z0.595
X-7.905 Y-7.689 Z0.594
X-7.908 Y-7.716 Z0.593
X-7.899 Y-7.743 Z0.592
X-7.879 Y-7.763 Z0.591
X-7.853 Y-7.772 Z0.59
X-7.826 Y-7.769 Z0.589
X-7.802 Y-7.755 Z0.588
X-6.375 Y-6.353 Z0.518
X-6.36 Y-6.329 Z0.517
X-6.357 Y-6.302 Z0.516
X-6.366 Y-6.275 Z0.515
X-6.386 Y-6.256 Z0.514
X-6.412 Y-6.246 Z0.513
X-6.439 Y-6.249 Z0.512
X-6.463 Y-6.264 Z0.511
X-7.89 Y-7.665 Z0.441
X-7.905 Y-7.689 Z0.44
X-7.908 Y-7.716 Z0.439
X-7.899 Y-7.743 Z0.438
X-7.879 Y-7.763 Z0.437
X-7.853 Y-7.772 Z0.436
X-7.826 Y-7.769 Z0.435
X-7.802 Y-7.755 Z0.434
X-6.375 Y-6.353 Z0.365
X-6.36 Y-6.329 Z0.364
X-6.357 Y-6.302 Z0.363
X-6.366 Y-6.275 Z0.362
X-6.386 Y-6.256 Z0.361
X-6.412 Y-6.246 Z0.36
X-6.439 Y-6.249 Z0.359
X-6.463 Y-6.264 Z0.358
X-7.89 Y-7.665 Z0.288
X-7.905 Y-7.689 Z0.287
X-7.908 Y-7.716 Z0.286
X-7.899 Y-7.743 Z0.285
X-7.879 Y-7.763 Z0.284
X-7.853 Y-7.772 Z0.283
X-7.826 Y-7.769 Z0.282
X-7.802 Y-7.755 Z0.281
X-6.375 Y-6.353 Z0.211
X-6.36 Y-6.329 Z0.21
X-6.357 Y-6.302 Z0.209
X-6.366 Y-6.275 Z0.208
X-6.386 Y-6.256 Z0.207
X-6.412 Y-6.246 Z0.206
X-6.439 Y-6.249 Z0.205
X-6.463 Y-6.264 Z0.204
X-7.89 Y-7.665 Z0.134
X-7.905 Y-7.689
X-7.908 Y-7.716 Z0.133
X-7.899 Y-7.743 Z0.132
X-7.879 Y-7.763 Z0.131
X-7.853 Y-7.772 Z0.13
X-7.826 Y-7.769 Z0.129
X-7.802 Y-7.755 Z0.128
X-6.375 Y-6.353 Z0.058
X-6.36 Y-6.329 Z0.057
X-6.357 Y-6.302 Z0.056
X-6.366 Y-6.275 Z0.055
X-6.386 Y-6.256 Z0.054
X-6.412 Y-6.246 Z0.053
X-6.439 Y-6.249 Z0.052
X-6.463 Y-6.264 Z0.051
X-7.89 Y-7.665 Z-0.019
X-7.905 Y-7.689 Z-0.02
X-7.908 Y-7.716 Z-0.021
X-7.899 Y-7.743 Z-0.022
X-7.879 Y-7.763 Z-0.023
X-7.853 Y-7.772 Z-0.024
X-7.826 Y-7.769 Z-0.025
X-7.802 Y-7.755 Z-0.026
X-6.375 Y-6.353 Z-0.096
X-6.36 Y-6.329 Z-0.097
X-6.357 Y-6.302 Z-0.098
X-6.366 Y-6.275 Z-0.099
X-6.386 Y-6.256 Z-0.1
X-6.412 Y-6.246 Z-0.101
X-6.439 Y-6.249
X-6.463 Y-6.264 Z-0.102
X-7.89 Y-7.665 Z-0.172
X-7.905 Y-7.689 Z-0.173
X-7.908 Y-7.716 Z-0.174
X-7.899 Y-7.743 Z-0.175
X-7.879 Y-7.763 Z-0.176
X-7.853 Y-7.772 Z-0.177
X-7.826 Y-7.769 Z-0.178
X-7.802 Y-7.755 Z-0.179
X-6.375 Y-6.353 Z-0.249
X-6.36 Y-6.329 Z-0.25
X-6.357 Y-6.302 Z-0.251
X-6.366 Y-6.275 Z-0.252
X-6.386 Y-6.256 Z-0.253
X-6.412 Y-6.246 Z-0.254
X-6.439 Y-6.249 Z-0.255
X-6.463 Y-6.264 Z-0.256
X-7.89 Y-7.665 Z-0.326
X-7.905 Y-7.689 Z-0.327
X-7.908 Y-7.716 Z-0.328
X-7.899 Y-7.743 Z-0.329
X-7.879 Y-7.763 Z-0.33
X-7.853 Y-7.772 Z-0.331
X-7.826 Y-7.769 Z-0.332
X-7.802 Y-7.755 Z-0.333
X-6.375 Y-6.353 Z-0.402
X-6.36 Y-6.329 Z-0.403
X-6.357 Y-6.302 Z-0.404
X-6.366 Y-6.275 Z-0.405
X-6.386 Y-6.256 Z-0.406
X-6.412 Y-6.246 Z-0.407
X-6.439 Y-6.249 Z-0.408
X-6.463 Y-6.264 Z-0.409
X-7.89 Y-7.665 Z-0.479
X-7.905 Y-7.689 Z-0.48
X-7.908 Y-7.716 Z-0.481
X-7.899 Y-7.743 Z-0.482
X-7.879 Y-7.763 Z-0.483
X-7.853 Y-7.772 Z-0.484
X-7.826 Y-7.769 Z-0.485
X-7.802 Y-7.755 Z-0.486
X-6.375 Y-6.353 Z-0.556
X-6.36 Y-6.329 Z-0.557
X-6.357 Y-6.302 Z-0.558
X-6.366 Y-6.275 Z-0.559
X-6.386 Y-6.256 Z-0.56
X-6.412 Y-6.246 Z-0.561
X-6.439 Y-6.249 Z-0.562
X-6.463 Y-6.264 Z-0.563
X-7.89 Y-7.665 Z-0.633
X-7.905 Y-7.689
X-7.908 Y-7.716 Z-0.634
X-7.899 Y-7.743 Z-0.635
X-7.879 Y-7.763 Z-0.636
X-7.853 Y-7.772 Z-0.637
X-7.826 Y-7.769 Z-0.638
X-7.802 Y-7.755 Z-0.639
X-6.375 Y-6.353 Z-0.709
X-6.36 Y-6.329 Z-0.71
X-6.357 Y-6.302 Z-0.711
X-6.366 Y-6.275 Z-0.712
X-6.386 Y-6.256 Z-0.713
X-6.412 Y-6.246 Z-0.714
X-6.439 Y-6.249 Z-0.715
X-6.463 Y-6.264 Z-0.716
X-7.89 Y-7.665 Z-0.786
X-7.905 Y-7.689 Z-0.787
X-7.908 Y-7.716 Z-0.788
X-7.899 Y-7.743 Z-0.789
X-7.879 Y-7.763 Z-0.79
X-7.853 Y-7.772 Z-0.791
X-7.826 Y-7.769 Z-0.792
X-7.802 Y-7.755 Z-0.793
X-6.375 Y-6.353 Z-0.863
X-6.36 Y-6.329 Z-0.864
X-6.357 Y-6.302 Z-0.865
X-6.366 Y-6.275 Z-0.866
X-6.386 Y-6.256 Z-0.867
X-6.412 Y-6.246
X-6.439 Y-6.249 Z-0.868
X-6.463 Y-6.264 Z-0.869
X-7.89 Y-7.665 Z-0.939
X-7.905 Y-7.689 Z-0.94
X-7.908 Y-7.716 Z-0.941
X-7.899 Y-7.743 Z-0.942
X-7.879 Y-7.763 Z-0.943
X-7.853 Y-7.772 Z-0.944
X-7.826 Y-7.769 Z-0.945
X-7.802 Y-7.755 Z-0.946
X-6.375 Y-6.353 Z-1.016
X-6.36 Y-6.329 Z-1.017
X-6.357 Y-6.302 Z-1.018
X-6.366 Y-6.275 Z-1.019
X-6.386 Y-6.256 Z-1.02
X-6.412 Y-6.246 Z-1.021
X-6.439 Y-6.249 Z-1.022
X-6.463 Y-6.264 Z-1.023
X-7.89 Y-7.665 Z-1.093
X-7.905 Y-7.689 Z-1.094
X-7.908 Y-7.716 Z-1.095
X-7.899 Y-7.743 Z-1.096
X-7.879 Y-7.763 Z-1.097
X-7.853 Y-7.772 Z-1.098
X-7.826 Y-7.769 Z-1.099
X-7.802 Y-7.755 Z-1.1
X-6.375 Y-6.353 Z-1.169
X-6.36 Y-6.329 Z-1.17
X-6.357 Y-6.302 Z-1.171
X-6.366 Y-6.275 Z-1.172
X-6.386 Y-6.256 Z-1.173
X-6.412 Y-6.246 Z-1.174
X-6.439 Y-6.249 Z-1.175
X-6.463 Y-6.264 Z-1.176
X-7.89 Y-7.665 Z-1.246
X-7.905 Y-7.689 Z-1.247
X-7.908 Y-7.716 Z-1.248
X-7.899 Y-7.743 Z-1.249
X-7.879 Y-7.763 Z-1.25
X-7.853 Y-7.772 Z-1.251
X-7.826 Y-7.769 Z-1.252
X-7.802 Y-7.755 Z-1.253
X-6.375 Y-6.353 Z-1.323
X-6.36 Y-6.329 Z-1.324
X-6.357 Y-6.302 Z-1.325
X-6.366 Y-6.275 Z-1.326
X-6.386 Y-6.256 Z-1.327
X-6.412 Y-6.246 Z-1.328
X-6.439 Y-6.249 Z-1.329
X-6.463 Y-6.264 Z-1.33
X-7.89 Y-7.665 Z-1.399
X-7.905 Y-7.689 Z-1.4
X-7.908 Y-7.716 Z-1.401
X-7.899 Y-7.743 Z-1.402
X-7.879 Y-7.763 Z-1.403
X-7.853 Y-7.772 Z-1.404
X-7.826 Y-7.769 Z-1.405
X-7.802 Y-7.755 Z-1.406
X-6.375 Y-6.353 Z-1.476
X-6.36 Y-6.329 Z-1.477
X-6.357 Y-6.302 Z-1.478
X-6.366 Y-6.275 Z-1.479
X-6.386 Y-6.256 Z-1.48
X-6.412 Y-6.246 Z-1.481
X-6.439 Y-6.249 Z-1.482
X-6.463 Y-6.264 Z-1.483
X-7.89 Y-7.665 Z-1.553
X-7.905 Y-7.689 Z-1.554
X-7.908 Y-7.716 Z-1.555
X-7.899 Y-7.743 Z-1.556
X-7.879 Y-7.763 Z-1.557
X-7.853 Y-7.772 Z-1.558
X-7.826 Y-7.769 Z-1.559
X-7.802 Y-7.755 Z-1.56
X-6.375 Y-6.353 Z-1.63
X-6.36 Y-6.329 Z-1.631
X-6.357 Y-6.302 Z-1.632
X-6.366 Y-6.275 Z-1.633
X-6.386 Y-6.256 Z-1.634
X-6.412 Y-6.246
X-6.439 Y-6.249 Z-1.635
X-6.463 Y-6.264 Z-1.636
X-7.89 Y-7.665 Z-1.706
X-7.905 Y-7.689 Z-1.707
X-7.908 Y-7.716 Z-1.708
X-7.899 Y-7.743 Z-1.709
X-7.879 Y-7.763 Z-1.71
X-7.853 Y-7.772 Z-1.711
X-7.826 Y-7.769 Z-1.712
X-7.802 Y-7.755 Z-1.713
X-6.375 Y-6.353 Z-1.783
X-6.36 Y-6.329 Z-1.784
X-6.357 Y-6.302 Z-1.785
X-6.366 Y-6.275 Z-1.786
X-6.386 Y-6.256 Z-1.787
X-6.412 Y-6.246 Z-1.788
X-6.439 Y-6.249 Z-1.789
X-6.463 Y-6.264 Z-1.79
X-7.89 Y-7.665 Z-1.86
X-7.905 Y-7.689 Z-1.861
X-7.908 Y-7.716 Z-1.862
X-7.899 Y-7.743 Z-1.863
X-7.879 Y-7.763 Z-1.864
X-7.853 Y-7.772 Z-1.865
X-7.826 Y-7.769 Z-1.866
X-7.802 Y-7.755 Z-1.867
X-6.375 Y-6.353 Z-1.936
X-6.36 Y-6.329 Z-1.937
X-6.357 Y-6.302 Z-1.938
X-6.366 Y-6.275 Z-1.939
X-6.386 Y-6.256 Z-1.94
X-6.412 Y-6.246 Z-1.941
X-6.439 Y-6.249 Z-1.942
X-6.463 Y-6.264 Z-1.943
X-7.89 Y-7.665 Z-2.013
X-7.905 Y-7.689 Z-2.014
X-7.908 Y-7.716 Z-2.015
X-7.899 Y-7.743 Z-2.016
X-7.879 Y-7.763 Z-2.017
X-7.853 Y-7.772 Z-2.018
X-7.826 Y-7.769 Z-2.019
X-7.802 Y-7.755 Z-2.02
X-6.375 Y-6.353 Z-2.09
X-6.36 Y-6.329 Z-2.091
X-6.357 Y-6.302 Z-2.092
X-6.366 Y-6.275 Z-2.093
X-6.386 Y-6.256 Z-2.094
X-6.412 Y-6.246 Z-2.095
X-6.439 Y-6.249 Z-2.096
X-6.463 Y-6.264 Z-2.097
X-7.89 Y-7.665 Z-2.166
X-7.905 Y-7.689 Z-2.167
X-7.908 Y-7.716 Z-2.168
X-7.899 Y-7.743 Z-2.169
X-7.879 Y-7.763 Z-2.17
X-7.853 Y-7.772 Z-2.171
X-7.826 Y-7.769 Z-2.172
X-7.802 Y-7.755 Z-2.173
X-6.375 Y-6.353 Z-2.243
X-6.36 Y-6.329 Z-2.244
X-6.357 Y-6.302 Z-2.245
X-6.366 Y-6.275 Z-2.246
X-6.386 Y-6.256 Z-2.247
X-6.412 Y-6.246 Z-2.248
X-6.439 Y-6.249 Z-2.249
X-6.463 Y-6.264 Z-2.25
X-7.89 Y-7.665 Z-2.32
X-7.905 Y-7.689 Z-2.321
X-7.908 Y-7.716 Z-2.322
X-7.899 Y-7.743 Z-2.323
X-7.879 Y-7.763 Z-2.324
X-7.853 Y-7.772 Z-2.325
X-7.826 Y-7.769 Z-2.326
X-7.802 Y-7.755 Z-2.327
X-6.375 Y-6.353 Z-2.397
X-6.362 Y-6.333
X-6.357 Y-6.309 Z-2.398
X-6.361 Y-6.285 Z-2.399
X-6.375 Y-6.264 Z-2.4
S6000
X-6.395 Y-6.251 F1000
X-6.419 Y-6.246
X-6.443 Y-6.25
X-6.463 Y-6.264
X-7.89 Y-7.665
X-7.905 Y-7.689
X-7.908 Y-7.716
X-7.899 Y-7.743
X-7.879 Y-7.763
X-7.853 Y-7.772
X-7.826 Y-7.769
X-7.802 Y-7.755
X-6.375 Y-6.353
X-6.362 Y-6.333
X-6.357 Y-6.309
X-6.361 Y-6.285
X-6.375 Y-6.264
Z5
X6.86 Y-6.891
Z1 F333.3
S5000
X6.353 Y-6.375 Z0.975
X6.329 Y-6.36 Z0.974
X6.302 Y-6.357 Z0.973
X6.275 Y-6.366 Z0.972
X6.256 Y-6.386 Z0.971
X6.246 Y-6.412 Z0.97
X6.249 Y-6.439 Z0.969
X6.264 Y-6.463 Z0.968
X7.665 Y-7.89 Z0.898
X7.689 Y-7.905 Z0.897
X7.716 Y-7.908 Z0.896
X7.743 Y-7.899 Z0.895
X7.763 Y-7.879 Z0.894
X7.772 Y-7.853 Z0.893
X7.769 Y-7.826 Z0.892
X7.755 Y-7.802 Z0.891
X6.353 Y-6.375 Z0.821
X6.329 Y-6.36 Z0.82
X6.302 Y-6.357 Z0.819
X6.275 Y-6.366 Z0.818
X6.256 Y-6.386 Z0.817
X6.246 Y-6.412 Z0.816
X6.249 Y-6.439 Z0.815
X6.264 Y-6.463 Z0.814
X7.665 Y-7.89 Z0.745
X7.689 Y-7.905 Z0.744
X7.716 Y-7.908 Z0.743
X7.743 Y-7.899 Z0.742
X7.763 Y-7.879 Z0.741
X7.772 Y-7.853 Z0.74
X7.769 Y-7.826 Z0.739
X7.755 Y-7.802 Z0.738
X6.353 Y-6.375 Z0.668
X6.329 Y-6.36 Z0.667
X6.302 Y-6.357 Z0.666
X6.275 Y-6.366 Z0.665
X6.256 Y-6.386 Z0.664
X6.246 Y-6.412 Z0.663
X6.249 Y-6.439 Z0.662
X6.264 Y-6.463 Z0.661
X7.665 Y-7.89 Z0.591
X7.689 Y-7.905 Z0.59
X7.716 Y-7.908 Z0.589
X7.743 Y-7.899 Z0.588
X7.763 Y-7.879 Z0.587
X7.772 Y-7.853 Z0.586
X7.769 Y-7.826 Z0.585
X7.755 Y-7.802 Z0.584
X6.353 Y-6.375 Z0.515
X6.329 Y-6.36 Z0.514
X6.302 Y-6.357 Z0.513
X6.275 Y-6.366 Z0.512
X6.256 Y-6.386 Z0.511
X6.246 Y-6.412 Z0.51
X6.249 Y-6.439 Z0.509
X6.264 Y-6.463 Z0.508
X7.665 Y-7.89 Z0.438
X7.689 Y-7.905 Z0.437
X7.716 Y-7.908 Z0.436
X7.743 Y-7.899 Z0.435
X7.763 Y-7.879 Z0.434
X7.772 Y-7.853 Z0.433
X7.769 Y-7.826 Z0.432
X7.755 Y-7.802 Z0.431
X6.353 Y-6.375 Z0.361
X6.329 Y-6.36 Z0.36
X6.302 Y-6.357 Z0.359
X6.275 Y-6.366 Z0.358
X6.256 Y-6.386 Z0.357
X6.246 Y-6.412 Z0.356
X6.249 Y-6.439 Z0.355
X6.264 Y-6.463 Z0.354
X7.665 Y-7.89 Z0.284
X7.689 Y-7.905 Z0.283
X7.716 Y-7.908 Z0.282
X7.743 Y-7.899
X7.763 Y-7.879 Z0.281
X7.772 Y-7.853 Z0.28
X7.769 Y-7.826 Z0.279
X7.755 Y-7.802 Z0.278
X6.353 Y-6.375 Z0.208
X6.329 Y-6.36 Z0.207
X6.302 Y-6.357 Z0.206
X6.275 Y-6.366 Z0.205
X6.256 Y-6.386 Z0.204
X6.246 Y-6.412 Z0.203
X6.249 Y-6.439 Z0.202
X6.264 Y-6.463 Z0.201
X7.665 Y-7.89 Z0.131
X7.689 Y-7.905 Z0.13
X7.716 Y-7.908 Z0.129
X7.743 Y-7.899 Z0.128
X7.763 Y-7.879 Z0.127
X7.772 Y-7.853 Z0.126
X7.769 Y-7.826 Z0.125
X7.755 Y-7.802 Z0.124
X6.353 Y-6.375 Z0.054
X6.329 Y-6.36 Z0.053
X6.302 Y-6.357 Z0.052
X6.275 Y-6.366 Z0.051
X6.256 Y-6.386 Z0.05
X6.246 Y-6.412 Z0.049
X6.249 Y-6.439 Z0.048
X6.264 Y-6.463 Z0.047
X7.665 Y-7.89 Z-0.022
X7.689 Y-7.905 Z-0.023
X7.716 Y-7.908 Z-0.024
X7.743 Y-7.899 Z-0.025
X7.763 Y-7.879 Z-0.026
X7.772 Y-7.853 Z-0.027
X7.769 Y-7.826 Z-0.028
X7.755 Y-7.802 Z-0.029
X6.353 Y-6.375 Z-0.099
X6.329 Y-6.36 Z-0.1
X6.302 Y-6.357 Z-0.101
X6.275 Y-6.366 Z-0.102
X6.256 Y-6.386 Z-0.103
X6.246 Y-6.412 Z-0.104
X6.249 Y-6.439 Z-0.105
X6.264 Y-6.463 Z-0.106
X7.665 Y-7.89 Z-0.176
X7.689 Y-7.905 Z-0.177
X7.716 Y-7.908 Z-0.178
X7.743 Y-7.899 Z-0.179
X7.763 Y-7.879 Z-0.18
X7.772 Y-7.853 Z-0.181
X7.769 Y-7.826 Z-0.182
X7.755 Y-7.802 Z-0.183
X6.353 Y-6.375 Z-0.252
X6.329 Y-6.36 Z-0.253
X6.302 Y-6.357 Z-0.254
X6.275 Y-6.366 Z-0.255
X6.256 Y-6.386 Z-0.256
X6.246 Y-6.412 Z-0.257
X6.249 Y-6.439 Z-0.258
X6.264 Y-6.463 Z-0.259
X7.665 Y-7.89 Z-0.329
X7.689 Y-7.905 Z-0.33
X7.716 Y-7.908 Z-0.331
X7.743 Y-7.899 Z-0.332
X7.763 Y-7.879 Z-0.333
X7.772 Y-7.853 Z-0.334
X7.769 Y-7.826 Z-0.335
X7.755 Y-7.802 Z-0.336
X6.353 Y-6.375 Z-0.406
X6.329 Y-6.36 Z-0.407
X6.302 Y-6.357 Z-0.408
X6.275 Y-6.366 Z-0.409
X6.256 Y-6.386 Z-0.41
X6.246 Y-6.412 Z-0.411
X6.249 Y-6.439 Z-0.412
X6.264 Y-6.463 Z-0.413
X7.665 Y-7.89 Z-0.483
X7.689 Y-7.905 Z-0.484
X7.716 Y-7.908
X7.743 Y-7.899 Z-0.485
X7.763 Y-7.879 Z-0.486
X7.772 Y-7.853 Z-0.487
X7.769 Y-7.826 Z-0.488
X7.755 Y-7.802 Z-0.489
X6.353 Y-6.375 Z-0.559
X6.329 Y-6.36 Z-0.56
X6.302 Y-6.357 Z-0.561
X6.275 Y-6.366 Z-0.562
X6.256 Y-6.386 Z-0.563
X6.246 Y-6.412 Z-0.564
X6.249 Y-6.439 Z-0.565
X6.264 Y-6.463 Z-0.566
X7.665 Y-7.89 Z-0.636
X7.689 Y-7.905 Z-0.637
X7.716 Y-7.908 Z-0.638
X7.743 Y-7.899 Z-0.639
X7.763 Y-7.879 Z-0.64
X7.772 Y-7.853 Z-0.641
X7.769 Y-7.826 Z-0.642
X7.755 Y-7.802 Z-0.643
X6.353 Y-6.375 Z-0.713
X6.329 Y-6.36 Z-0.714
X6.302 Y-6.357 Z-0.715
X6.275 Y-6.366 Z-0.716
X6.256 Y-6.386 Z-0.717
X6.246 Y-6.412 Z-0.718
X6.249 Y-6.439 Z-0.719
X6.264 Y-6.463
X7.665 Y-7.89 Z-0.789
X7.689 Y-7.905 Z-0.79
X7.716 Y-7.908 Z-0.791
X7.743 Y-7.899 Z-0.792
X7.763 Y-7.879 Z-0.793
X7.772 Y-7.853 Z-0.794
X7.769 Y-7.826 Z-0.795
X7.755 Y-7.802 Z-0.796
X6.353 Y-6.375 Z-0.866
X6.329 Y-6.36 Z-0.867
X6.302 Y-6.357 Z-0.868
X6.275 Y-6.366 Z-0.869
X6.256 Y-6.386 Z-0.87
X6.246 Y-6.412 Z-0.871
X6.249 Y-6.439 Z-0.872
X6.264 Y-6.463 Z-0.873
X7.665 Y-7.89 Z-0.943
X7.689 Y-7.905 Z-0.944
X7.716 Y-7.908 Z-0.945
X7.743 Y-7.899 Z-0.946
X7.763 Y-7.879 Z-0.947
X7.772 Y-7.853 Z-0.948
X7.769 Y-7.826 Z-0.949
X7.755 Y-7.802 Z-0.95
X6.353 Y-6.375 Z-1.019
X6.329 Y-6.36 Z-1.02
X6.302 Y-6.357 Z-1.021
X6.275 Y-6.366 Z-1.022
X6.256 Y-6.386 Z-1.023
X6.246 Y-6.412 Z-1.024
X6.249 Y-6.439 Z-1.025
X6.264 Y-6.463 Z-1.026
X7.665 Y-7.89 Z-1.096
X7.689 Y-7.905 Z-1.097
X7.716 Y-7.908 Z-1.098
X7.743 Y-7.899 Z-1.099
X7.763 Y-7.879 Z-1.1
X7.772 Y-7.853 Z-1.101
X7.769 Y-7.826 Z-1.102
X7.755 Y-7.802 Z-1.103
X6.353 Y-6.375 Z-1.173
X6.329 Y-6.36 Z-1.174
X6.302 Y-6.357 Z-1.175
X6.275 Y-6.366 Z-1.176
X6.256 Y-6.386 Z-1.177
X6.246 Y-6.412 Z-1.178
X6.249 Y-6.439 Z-1.179
X6.264 Y-6.463 Z-1.18
X7.665 Y-7.89 Z-1.25
X7.689 Y-7.905 Z-1.251
X7.716 Y-7.908
X7.743 Y-7.899 Z-1.252
X7.763 Y-7.879 Z-1.253
X7.772 Y-7.853 Z-1.254
X7.769 Y-7.826 Z-1.255
X7.755 Y-7.802 Z-1.256
X6.353 Y-6.375 Z-1.326
X6.329 Y-6.36 Z-1.327
X6.302 Y-6.357 Z-1.328
X6.275 Y-6.366 Z-1.329
X6.256 Y-6.386 Z-1.33
X6.246 Y-6.412 Z-1.331
X6.249 Y-6.439 Z-1.332
X6.264 Y-6.463 Z-1.333
X7.665 Y-7.89 Z-1.403
X7.689 Y-7.905 Z-1.404
X7.716 Y-7.908 Z-1.405
X7.743 Y-7.899 Z-1.406
X7.763 Y-7.879 Z-1.407
X7.772 Y-7.853 Z-1.408
X7.769 Y-7.826 Z-1.409
X7.755 Y-7.802 Z-1.41
X6.353 Y-6.375 Z-1.48
X6.329 Y-6.36 Z-1.481
X6.302 Y-6.357 Z-1.482
X6.275 Y-6.366 Z-1.483
X6.256 Y-6.386 Z-1.484
X6.246 Y-6.412 Z-1.485
X6.249 Y-6.439
X6.264 Y-6.463 Z-1.486
X7.665 Y-7.89 Z-1.556
X7.689 Y-7.905 Z-1.557
X7.716 Y-7.908 Z-1.558
X7.743 Y-7.899 Z-1.559
X7.763 Y-7.879 Z-1.56
X7.772 Y-7.853 Z-1.561
X7.769 Y-7.826 Z-1.562
X7.755 Y-7.802 Z-1.563
X6.353 Y-6.375 Z-1.633
X6.329 Y-6.36 Z-1.634
X6.302 Y-6.357 Z-1.635
X6.275 Y-6.366 Z-1.636
X6.256 Y-6.386 Z-1.637
X6.246 Y-6.412 Z-1.638
X6.249 Y-6.439 Z-1.639
X6.264 Y-6.463 Z-1.64
X7.665 Y-7.89 Z-1.71
X7.689 Y-7.905 Z-1.711
X7.716 Y-7.908 Z-1.712
X7.743 Y-7.899 Z-1.713
X7.763 Y-7.879 Z-1.714
X7.772 Y-7.853 Z-1.715
X7.769 Y-7.826 Z-1.716
X7.755 Y-7.802 Z-1.717
X6.353 Y-6.375 Z-1.786
X6.329 Y-6.36 Z-1.787
X6.302 Y-6.357 Z-1.788
X6.275 Y-6.366 Z-1.789
X6.256 Y-6.386 Z-1.79
X6.246 Y-6.412 Z-1.791
X6.249 Y-6.439 Z-1.792
X6.264 Y-6.463 Z-1.793
X7.665 Y-7.89 Z-1.863
X7.689 Y-7.905 Z-1.864
X7.716 Y-7.908 Z-1.865
X7.743 Y-7.899 Z-1.866
X7.763 Y-7.879 Z-1.867
X7.772 Y-7.853 Z-1.868
X7.769 Y-7.826 Z-1.869
X7.755 Y-7.802 Z-1.87
X6.353 Y-6.375 Z-1.94
X6.329 Y-6.36 Z-1.941
X6.302 Y-6.357 Z-1.942
X6.275 Y-6.366 Z-1.943
X6.256 Y-6.386 Z-1.944
X6.246 Y-6.412 Z-1.945
X6.249 Y-6.439 Z-1.946
X6.264 Y-6.463 Z-1.947
X7.665 Y-7.89 Z-2.017
X7.689 Y-7.905
X7.716 Y-7.908 Z-2.018
X7.743 Y-7.899 Z-2.019
X7.763 Y-7.879 Z-2.02
X7.772 Y-7.853 Z-2.021
X7.769 Y-7.826 Z-2.022
X7.755 Y-7.802 Z-2.023
X6.353 Y-6.375 Z-2.093
X6.329 Y-6.36 Z-2.094
X6.302 Y-6.357 Z-2.095
X6.275 Y-6.366 Z-2.096
X6.256 Y-6.386 Z-2.097
X6.246 Y-6.412 Z-2.098
X6.249 Y-6.439 Z-2.099
X6.264 Y-6.463 Z-2.1
X7.665 Y-7.89 Z-2.17
X7.689 Y-7.905 Z-2.171
X7.716 Y-7.908 Z-2.172
X7.743 Y-7.899 Z-2.173
X7.763 Y-7.879 Z-2.174
X7.772 Y-7.853 Z-2.175
X7.769 Y-7.826 Z-2.176
X7.755 Y-7.802 Z-2.177
X6.353 Y-6.375 Z-2.247
X6.329 Y-6.36 Z-2.248
X6.302 Y-6.357 Z-2.249
X6.275 Y-6.366 Z-2.25
X6.256 Y-6.386 Z-2.251
X6.246 Y-6.412 Z-2.252
X6.249 Y-6.439
X6.264 Y-6.463 Z-2.253
X7.665 Y-7.89 Z-2.323
X7.689 Y-7.905 Z-2.324
X7.716 Y-7.908 Z-2.325
X7.743 Y-7.899 Z-2.326
X7.763 Y-7.879 Z-2.327
X7.772 Y-7.853 Z-2.328
X7.769 Y-7.826 Z-2.329
X7.755 Y-7.802 Z-2.33
X6.353 Y-6.375 Z-2.4
S6000
X6.329 Y-6.36 F1000
X6.302 Y-6.357
X6.275 Y-6.366
X6.256 Y-6.386
X6.246 Y-6.412
X6.249 Y-6.439
X6.264 Y-6.463
X7.665 Y-7.89
X7.689 Y-7.905
X7.716 Y-7.908
X7.743 Y-7.899
X7.763 Y-7.879
X7.772 Y-7.853
X7.769 Y-7.826
X7.755 Y-7.802
X6.353 Y-6.375
Z5
X7.444 Y7.227
Z1 F333.3
S5000
X7.89 Y7.665 Z0.978
X7.905 Y7.689 Z0.977
X7.908 Y7.716 Z0.976
X7.899 Y7.743 Z0.975
X7.879 Y7.763 Z0.974
X7.853 Y7.772 Z0.973
X7.826 Y7.769 Z0.972
X7.802 Y7.755 Z0.971
X6.375 Y6.353 Z0.901
X6.36 Y6.329 Z0.9
X6.357 Y6.302
X6.366 Y6.275 Z0.899
X6.386 Y6.256 Z0.898
X6.412 Y6.246 Z0.897
X6.439 Y6.249 Z0.896
X6.463 Y6.264 Z0.895
X7.89 Y7.665 Z0.825
X7.905 Y7.689 Z0.824
X7.908 Y7.716 Z0.823
X7.899 Y7.743 Z0.822
X7.879 Y7.763 Z0.821
X7.853 Y7.772 Z0.82
X7.826 Y7.769 Z0.819
X7.802 Y7.755 Z0.818
X6.375 Y6.353 Z0.748
X6.36 Y6.329 Z0.747
X6.357 Y6.302 Z0.746
X6.366 Y6.275 Z0.745
X6.386 Y6.256 Z0.744
X6.412 Y6.246 Z0.743
X6.439 Y6.249 Z0.742
X6.463 Y6.264 Z0.741
X7.89 Y7.665 Z0.671
X7.905 Y7.689 Z0.67
X7.908 Y7.716 Z0.669
X7.899 Y7.743 Z0.668
X7.879 Y7.763 Z0.667
X7.853 Y7.772 Z0.666
X7.826 Y7.769 Z0.665
X7.802 Y7.755
X6.375 Y6.353 Z0.595
X6.36 Y6.329 Z0.594
X6.357 Y6.302 Z0.593
X6.366 Y6.275 Z0.592
X6.386 Y6.256 Z0.591
X6.412 Y6.246 Z0.59
X6.439 Y6.249 Z0.589
X6.463 Y6.264 Z0.588
X7.89 Y7.665 Z0.518
X7.905 Y7.689 Z0.517
X7.908 Y7.716 Z0.516
X7.899 Y7.743 Z0.515
X7.879 Y7.763 Z0.514
X7.853 Y7.772 Z0.513
X7.826 Y7.769 Z0.512
X7.802 Y7.755 Z0.511
X6.375 Y6.353 Z0.441
X6.36 Y6.329 Z0.44
X6.357 Y6.302 Z0.439
X6.366 Y6.275 Z0.438
X6.386 Y6.256 Z0.437
X6.412 Y6.246 Z0.436
X6.439 Y6.249 Z0.435
X6.463 Y6.264 Z0.434
X7.89 Y7.665 Z0.365
X7.905 Y7.689 Z0.364
X7.908 Y7.716 Z0.363
X7.899 Y7.743 Z0.362
X7.879 Y7.763 Z0.361
X7.853 Y7.772 Z0.36
X7.826 Y7.769 Z0.359
X7.802 Y7.755 Z0.358
X6.375 Y6.353 Z0.288
X6.36 Y6.329 Z0.287
X6.357 Y6.302 Z0.286
X6.366 Y6.275 Z0.285
X6.386 Y6.256 Z0.284
X6.412 Y6.246 Z0.283
X6.439 Y6.249 Z0.282
X6.463 Y6.264 Z0.281
X7.89 Y7.665 Z0.211
X7.905 Y7.689 Z0.21
X7.908 Y7.716 Z0.209
X7.899 Y7.743 Z0.208
X7.879 Y7.763 Z0.207
X7.853 Y7.772 Z0.206
X7.826 Y7.769 Z0.205
X7.802 Y7.755 Z0.204
X6.375 Y6.353 Z0.134
X6.36 Y6.329
X6.357 Y6.302 Z0.133
X6.366 Y6.275 Z0.132
X6.386 Y6.256 Z0.131
X6.412 Y6.246 Z0.13
X6.439 Y6.249 Z0.129
X6.463 Y6.264 Z0.128
X7.89 Y7.665 Z0.058
X7.905 Y7.689 Z0.057
X7.908 Y7.716 Z0.056
X7.899 Y7.743 Z0.055
X7.879 Y7.763 Z0.054
X7.853 Y7.772 Z0.053
X7.826 Y7.769 Z0.052
X7.802 Y7.755 Z0.051
X6.375 Y6.353 Z-0.019
X6.36 Y6.329 Z-0.02
X6.357 Y6.302 Z-0.021
X6.366 Y6.275 Z-0.022
X6.386 Y6.256 Z-0.023
X6.412 Y6.246 Z-0.024
X6.439 Y6.249 Z-0.025
X6.463 Y6.264 Z-0.026
X7.89 Y7.665 Z-0.096
X7.905 Y7.689 Z-0.097
X7.908 Y7.716 Z-0.098
X7.899 Y7.743 Z-0.099
X7.879 Y7.763 Z-0.1
X7.853 Y7.772 Z-0.101
X7.826 Y7.769
X7.802 Y7.755 Z-0.102
X6.375 Y6.353 Z-0.172
X6.36 Y6.329 Z-0.173
X6.357 Y6.302 Z-0.174
X6.366 Y6.275 Z-0.175
X6.386 Y6.256 Z-0.176
X6.412 Y6.246 Z-0.177
X6.439 Y6.249 Z-0.178
X6.463 Y6.264 Z-0.179
X7.89 Y7.665 Z-0.249
X7.905 Y7.689 Z-0.25
X7.908 Y7.716 Z-0.251
X7.899 Y7.743 Z-0.252
X7.879 Y7.763 Z-0.253
X7.853 Y7.772 Z-0.254
X7.826 Y7.769 Z-0.255
X7.802 Y7.755 Z-0.256
X6.375 Y6.353 Z-0.326
X6.36 Y6.329 Z-0.327
X6.357 Y6.302 Z-0.328
X6.366 Y6.275 Z-0.329
X6.386 Y6.256 Z-0.33
X6.412 Y6.246 Z-0.331
X6.439 Y6.249 Z-0.332
X6.463 Y6.264 Z-0.333
X7.89 Y7.665 Z-0.402
X7.905 Y7.689 Z-0.403
X7.908 Y7.716 Z-0.404
X7.899 Y7.743 Z-0.405
X7.879 Y7.763 Z-0.406
X7.853 Y7.772 Z-0.407
X7.826 Y7.769 Z-0.408
X7.802 Y7.755 Z-0.409
X6.375 Y6.353 Z-0.479
X6.36 Y6.329 Z-0.48
X6.357 Y6.302 Z-0.481
X6.366 Y6.275 Z-0.482
X6.386 Y6.256 Z-0.483
X6.412 Y6.246 Z-0.484
X6.439 Y6.249 Z-0.485
X6.463 Y6.264 Z-0.486
X7.89 Y7.665 Z-0.556
X7.905 Y7.689 Z-0.557
X7.908 Y7.716 Z-0.558
X7.899 Y7.743 Z-0.559
X7.879 Y7.763 Z-0.56
X7.853 Y7.772 Z-0.561
X7.826 Y7.769 Z-0.562
X7.802 Y7.755 Z-0.563
X6.375 Y6.353 Z-0.633
X6.36 Y6.329
X6.357 Y6.302 Z-0.634
X6.366 Y6.275 Z-0.635
X6.386 Y6.256 Z-0.636
X6.412 Y6.246 Z-0.637
X6.439 Y6.249 Z-0.638
X6.463 Y6.264 Z-0.639
X7.89 Y7.665 Z-0.709
X7.905 Y7.689 Z-0.71
X7.908 Y7.716 Z-0.711
X7.899 Y7.743 Z-0.712
X7.879 Y7.763 Z-0.713
X7.853 Y7.772 Z-0.714
X7.826 Y7.769 Z-0.715
X7.802 Y7.755 Z-0.716
X6.375 Y6.353 Z-0.786
X6.36 Y6.329 Z-0.787
X6.357 Y6.302 Z-0.788
X6.366 Y6.275 Z-0.789
X6.386 Y6.256 Z-0.79
X6.412 Y6.246 Z-0.791
X6.439 Y6.249 Z-0.792
X6.463 Y6.264 Z-0.793
X7.89 Y7.665 Z-0.863
X7.905 Y7.689 Z-0.864
X7.908 Y7.716 Z-0.865
X7.899 Y7.743 Z-0.866
X7.879 Y7.763 Z-0.867
X7.853 Y7.772
X7.826 Y7.769 Z-0.868
X7.802 Y7.755 Z-0.869
X6.375 Y6.353 Z-0.939
X6.36 Y6.329 Z-0.94
X6.357 Y6.302 Z-0.941
X6.366 Y6.275 Z-0.942
X6.386 Y6.256 Z-0.943
X6.412 Y6.246 Z-0.944
X6.439 Y6.249 Z-0.945
X6.463 Y6.264 Z-0.946
X7.89 Y7.665 Z-1.016
X7.905 Y7.689 Z-1.017
X7.908 Y7.716 Z-1.018
X7.899 Y7.743 Z-1.019
X7.879 Y7.763 Z-1.02
X7.853 Y7.772 Z-1.021
X7.826 Y7.769 Z-1.022
X7.802 Y7.755 Z-1.023
X6.375 Y6.353 Z-1.093
X6.36 Y6.329 Z-1.094
X6.357 Y6.302 Z-1.095
X6.366 Y6.275 Z-1.096
X6.386 Y6.256 Z-1.097
X6.412 Y6.246 Z-1.098
X6.439 Y6.249 Z-1.099
X6.463 Y6.264 Z-1.1
X7.89 Y7.665 Z-1.169
X7.905 Y7.689 Z-1.17
X7.908 Y7.716 Z-1.171
X7.899 Y7.743 Z-1.172
X7.879 Y7.763 Z-1.173
X7.853 Y7.772 Z-1.174
X7.826 Y7.769 Z-1.175
X7.802 Y7.755 Z-1.176
X6.375 Y6.353 Z-1.246
X6.36 Y6.329 Z-1.247
X6.357 Y6.302 Z-1.248
X6.366 Y6.275 Z-1.249
X6.386 Y6.256 Z-1.25
X6.412 Y6.246 Z-1.251
X6.439 Y6.249 Z-1.252
X6.463 Y6.264 Z-1.253
X7.89 Y7.665 Z-1.323
X7.905 Y7.689 Z-1.324
X7.908 Y7.716 Z-1.325
X7.899 Y7.743 Z-1.326
X7.879 Y7.763 Z-1.327
X7.853 Y7.772 Z-1.328
X7.826 Y7.769 Z-1.329
X7.802 Y7.755 Z-1.33
X6.375 Y6.353 Z-1.399
X6.36 Y6.329 Z-1.4
X6.357 Y6.302 Z-1.401
X6.366 Y6.275 Z-1.402
X6.386 Y6.256 Z-1.403
X6.412 Y6.246 Z-1.404
X6.439 Y6.249 Z-1.405
X6.463 Y6.264 Z-1.406
X7.89 Y7.665 Z-1.476
X7.905 Y7.689 Z-1.477
X7.908 Y7.716 Z-1.478
X7.899 Y7.743 Z-1.479
X7.879 Y7.763 Z-1.48
X7.853 Y7.772 Z-1.481
X7.826 Y7.769 Z-1.482
X7.802 Y7.755 Z-1.483
X6.375 Y6.353 Z-1.553
X6.36 Y6.329 Z-1.554
X6.357 Y6.302 Z-1.555
X6.366 Y6.275 Z-1.556
X6.386 Y6.256 Z-1.557
X6.412 Y6.246 Z-1.558
X6.439 Y6.249 Z-1.559
X6.463 Y6.264 Z-1.56
X7.89 Y7.665 Z-1.63
X7.905 Y7.689 Z-1.631
X7.908 Y7.716 Z-1.632
X7.899 Y7.743 Z-1.633
X7.879 Y7.763 Z-1.634
X7.853 Y7.772
X7.826 Y7.769 Z-1.635
X7.802 Y7.755 Z-1.636
X6.375 Y6.353 Z-1.706
X6.36 Y6.329 Z-1.707
X6.357 Y6.302 Z-1.708
X6.366 Y6.275 Z-1.709
X6.386 Y6.256 Z-1.71
X6.412 Y6.246 Z-1.711
X6.439 Y6.249 Z-1.712
X6.463 Y6.264 Z-1.713
X7.89 Y7.665 Z-1.783
X7.905 Y7.689 Z-1.784
X7.908 Y7.716 Z-1.785
X7.899 Y7.743 Z-1.786
X7.879 Y7.763 Z-1.787
X7.853 Y7.772 Z-1.788
X7.826 Y7.769 Z-1.789
X7.802 Y7.755 Z-1.79
X6.375 Y6.353 Z-1.86
X6.36 Y6.329 Z-1.861
X6.357 Y6.302 Z-1.862
X6.366 Y6.275 Z-1.863
X6.386 Y6.256 Z-1.864
X6.412 Y6.246 Z-1.865
X6.439 Y6.249 Z-1.866
X6.463 Y6.264 Z-1.867
X7.89 Y7.665 Z-1.936
X7.905 Y7.689 Z-1.937
X7.908 Y7.716 Z-1.938
X7.899 Y7.743 Z-1.939
X7.879 Y7.763 Z-1.94
X7.853 Y7.772 Z-1.941
X7.826 Y7.769 Z-1.942
X7.802 Y7.755 Z-1.943
X6.375 Y6.353 Z-2.013
X6.36 Y6.329 Z-2.014
X6.357 Y6.302 Z-2.015
X6.366 Y6.275 Z-2.016
X6.386 Y6.256 Z-2.017
X6.412 Y6.246 Z-2.018
X6.439 Y6.249 Z-2.019
X6.463 Y6.264 Z-2.02
X7.89 Y7.665 Z-2.09
X7.905 Y7.689 Z-2.091
X7.908 Y7.716 Z-2.092
X7.899 Y7.743 Z-2.093
X7.879 Y7.763 Z-2.094
X7.853 Y7.772 Z-2.095
X7.826 Y7.769 Z-2.096
X7.802 Y7.755 Z-2.097
X6.375 Y6.353 Z-2.166
X6.36 Y6.329 Z-2.167
X6.357 Y6.302 Z-2.168
X6.366 Y6.275 Z-2.169
X6.386 Y6.256 Z-2.17
X6.412 Y6.246 Z-2.171
X6.439 Y6.249 Z-2.172
X6.463 Y6.264 Z-2.173
X7.89 Y7.665 Z-2.243
X7.905 Y7.689 Z-2.244
X7.908 Y7.716 Z-2.245
X7.899 Y7.743 Z-2.246
X7.879 Y7.763 Z-2.247
X7.853 Y7.772 Z-2.248
X7.826 Y7.769 Z-2.249
X7.802 Y7.755 Z-2.25
X6.375 Y6.353 Z-2.32
X6.36 Y6.329 Z-2.321
X6.357 Y6.302 Z-2.322
X6.366 Y6.275 Z-2.323
X6.386 Y6.256 Z-2.324
X6.412 Y6.246 Z-2.325
X6.439 Y6.249 Z-2.326
X6.463 Y6.264 Z-2.327
X7.89 Y7.665 Z-2.397
X7.903 Y7.686
X7.908 Y7.709 Z-2.398
X7.904 Y7.733 Z-2.399
X7.89 Y7.754 Z-2.4
S6000
X7.87 Y7.768 F1000
X7.846 Y7.773
X7.822 Y7.768
X7.802 Y7.755
X6.375 Y6.353
X6.36 Y6.329
X6.357 Y6.302
X6.366 Y6.275
X6.386 Y6.256
X6.412 Y6.246
X6.439 Y6.249
X6.463 Y6.264
X7.89 Y7.665
X7.903 Y7.686
X7.908 Y7.709
X7.904 Y7.733
X7.89 Y7.754
Z5
X-6.722 Y6.751
Z1 F333.3
S5000
X-6.353 Y6.375 Z0.982
X-6.329 Y6.36 Z0.981
X-6.302 Y6.357 Z0.98
X-6.275 Y6.366 Z0.979
X-6.256 Y6.386 Z0.978
X-6.246 Y6.412 Z0.977
X-6.249 Y6.439 Z0.976
X-6.264 Y6.463 Z0.975
X-7.665 Y7.89 Z0.905
X-7.689 Y7.905 Z0.904
X-7.716 Y7.908 Z0.903
X-7.743 Y7.899 Z0.902
X-7.763 Y7.879 Z0.901
X-7.772 Y7.853 Z0.9
X-7.769 Y7.826 Z0.899
X-7.755 Y7.802 Z0.898
X-6.353 Y6.375 Z0.828
X-6.329 Y6.36 Z0.827
X-6.302 Y6.357 Z0.826
X-6.275 Y6.366 Z0.825
X-6.256 Y6.386 Z0.824
X-6.246 Y6.412 Z0.823
X-6.249 Y6.439 Z0.822
X-6.264 Y6.463 Z0.821
X-7.665 Y7.89 Z0.751
X-7.689 Y7.905
X-7.716 Y7.908 Z0.75
X-7.743 Y7.899 Z0.749
X-7.763 Y7.879 Z0.748
X-7.772 Y7.853 Z0.747
X-7.769 Y7.826 Z0.746
X-7.755 Y7.802 Z0.745
X-6.353 Y6.375 Z0.675
X-6.329 Y6.36 Z0.674
X-6.302 Y6.357 Z0.673
X-6.275 Y6.366 Z0.672
X-6.256 Y6.386 Z0.671
X-6.246 Y6.412 Z0.67
X-6.249 Y6.439 Z0.669
X-6.264 Y6.463 Z0.668
X-7.665 Y7.89 Z0.598
X-7.689 Y7.905 Z0.597
X-7.716 Y7.908 Z0.596
X-7.743 Y7.899 Z0.595
X-7.763 Y7.879 Z0.594
X-7.772 Y7.853 Z0.593
X-7.769 Y7.826 Z0.592
X-7.755 Y7.802 Z0.591
X-6.353 Y6.375 Z0.521
X-6.329 Y6.36 Z0.52
X-6.302 Y6.357 Z0.519
X-6.275 Y6.366 Z0.518
X-6.256 Y6.386 Z0.517
X-6.246 Y6.412
X-6.249 Y6.439 Z0.516
X-6.264 Y6.463 Z0.515
X-7.665 Y7.89 Z0.445
X-7.689 Y7.905 Z0.444
X-7.716 Y7.908 Z0.443
X-7.743 Y7.899 Z0.442
X-7.763 Y7.879 Z0.441
X-7.772 Y7.853 Z0.44
X-7.769 Y7.826 Z0.439
X-7.755 Y7.802 Z0.438
X-6.353 Y6.375 Z0.368
X-6.329 Y6.36 Z0.367
X-6.302 Y6.357 Z0.366
X-6.275 Y6.366 Z0.365
X-6.256 Y6.386 Z0.364
X-6.246 Y6.412 Z0.363
X-6.249 Y6.439 Z0.362
X-6.264 Y6.463 Z0.361
X-7.665 Y7.89 Z0.291
X-7.689 Y7.905 Z0.29
X-7.716 Y7.908 Z0.289
X-7.743 Y7.899 Z0.288
X-7.763 Y7.879 Z0.287
X-7.772 Y7.853 Z0.286
X-7.769 Y7.826 Z0.285
X-7.755 Y7.802 Z0.284
X-6.353 Y6.375 Z0.215
X-6.329 Y6.36 Z0.214
X-6.302 Y6.357 Z0.213
X-6.275 Y6.366 Z0.212
X-6.256 Y6.386 Z0.211
X-6.246 Y6.412 Z0.21
X-6.249 Y6.439 Z0.209
X-6.264 Y6.463 Z0.208
X-7.665 Y7.89 Z0.138
X-7.689 Y7.905 Z0.137
X-7.716 Y7.908 Z0.136
X-7.743 Y7.899 Z0.135
X-7.763 Y7.879 Z0.134
X-7.772 Y7.853 Z0.133
X-7.769 Y7.826 Z0.132
X-7.755 Y7.802 Z0.131
X-6.353 Y6.375 Z0.061
X-6.329 Y6.36 Z0.06
X-6.302 Y6.357 Z0.059
X-6.275 Y6.366 Z0.058
X-6.256 Y6.386 Z0.057
X-6.246 Y6.412 Z0.056
X-6.249 Y6.439 Z0.055
X-6.264 Y6.463 Z0.054
X-7.665 Y7.89 Z-0.015
X-7.689 Y7.905 Z-0.016
X-7.716 Y7.908 Z-0.017
X-7.743 Y7.899 Z-0.018
X-7.763 Y7.879 Z-0.019
X-7.772 Y7.853 Z-0.02
X-7.769 Y7.826 Z-0.021
X-7.755 Y7.802 Z-0.022
X-6.353 Y6.375 Z-0.092
X-6.329 Y6.36 Z-0.093
X-6.302 Y6.357 Z-0.094
X-6.275 Y6.366 Z-0.095
X-6.256 Y6.386 Z-0.096
X-6.246 Y6.412 Z-0.097
X-6.249 Y6.439 Z-0.098
X-6.264 Y6.463 Z-0.099
X-7.665 Y7.89 Z-0.169
X-7.689 Y7.905 Z-0.17
X-7.716 Y7.908 Z-0.171
X-7.743 Y7.899 Z-0.172
X-7.763 Y7.879 Z-0.173
X-7.772 Y7.853 Z-0.174
X-7.769 Y7.826 Z-0.175
X-7.755 Y7.802 Z-0.176
X-6.353 Y6.375 Z-0.246
X-6.329 Y6.36 Z-0.247
X-6.302 Y6.357 Z-0.248
X-6.275 Y6.366 Z-0.249
X-6.256 Y6.386 Z-0.25
X-6.246 Y6.412
X-6.249 Y6.439 Z-0.251
X-6.264 Y6.463 Z-0.252
X-7.665 Y7.89 Z-0.322
X-7.689 Y7.905 Z-0.323
X-7.716 Y7.908 Z-0.324
X-7.743 Y7.899 Z-0.325
X-7.763 Y7.879 Z-0.326
X-7.772 Y7.853 Z-0.327
X-7.769 Y7.826 Z-0.328
X-7.755 Y7.802 Z-0.329
X-6.353 Y6.375 Z-0.399
X-6.329 Y6.36 Z-0.4
X-6.302 Y6.357 Z-0.401
X-6.275 Y6.366 Z-0.402
X-6.256 Y6.386 Z-0.403
X-6.246 Y6.412 Z-0.404
X-6.249 Y6.439 Z-0.405
X-6.264 Y6.463 Z-0.406
X-7.665 Y7.89 Z-0.476
X-7.689 Y7.905 Z-0.477
X-7.716 Y7.908 Z-0.478
X-7.743 Y7.899 Z-0.479
X-7.763 Y7.879 Z-0.48
X-7.772 Y7.853 Z-0.481
X-7.769 Y7.826 Z-0.482
X-7.755 Y7.802 Z-0.483
X-6.353 Y6.375 Z-0.552
X-6.329 Y6.36 Z-0.553
X-6.302 Y6.357 Z-0.554
X-6.275 Y6.366 Z-0.555
X-6.256 Y6.386 Z-0.556
X-6.246 Y6.412 Z-0.557
X-6.249 Y6.439 Z-0.558
X-6.264 Y6.463 Z-0.559
X-7.665 Y7.89 Z-0.629
X-7.689 Y7.905 Z-0.63
X-7.716 Y7.908 Z-0.631
X-7.743 Y7.899 Z-0.632
X-7.763 Y7.879 Z-0.633
X-7.772 Y7.853 Z-0.634
X-7.769 Y7.826 Z-0.635
X-7.755 Y7.802 Z-0.636
X-6.353 Y6.375 Z-0.706
X-6.329 Y6.36 Z-0.707
X-6.302 Y6.357 Z-0.708
X-6.275 Y6.366 Z-0.709
X-6.256 Y6.386 Z-0.71
X-6.246 Y6.412 Z-0.711
X-6.249 Y6.439 Z-0.712
X-6.264 Y6.463 Z-0.713
X-7.665 Y7.89 Z-0.782
X-7.689 Y7.905 Z-0.783
X-7.716 Y7.908 Z-0.784
X-7.743 Y7.899 Z-0.785
X-7.763 Y7.879 Z-0.786
X-7.772 Y7.853 Z-0.787
X-7.769 Y7.826 Z-0.788
X-7.755 Y7.802 Z-0.789
X-6.353 Y6.375 Z-0.859
X-6.329 Y6.36 Z-0.86
X-6.302 Y6.357 Z-0.861
X-6.275 Y6.366 Z-0.862
X-6.256 Y6.386 Z-0.863
X-6.246 Y6.412 Z-0.864
X-6.249 Y6.439 Z-0.865
X-6.264 Y6.463 Z-0.866
X-7.665 Y7.89 Z-0.936
X-7.689 Y7.905 Z-0.937
X-7.716 Y7.908 Z-0.938
X-7.743 Y7.899 Z-0.939
X-7.763 Y7.879 Z-0.94
X-7.772 Y7.853 Z-0.941
X-7.769 Y7.826 Z-0.942
X-7.755 Y7.802 Z-0.943
X-6.353 Y6.375 Z-1.013
X-6.329 Y6.36 Z-1.014
X-6.302 Y6.357 Z-1.015
X-6.275 Y6.366 Z-1.016
X-6.256 Y6.386
X-6.246 Y6.412 Z-1.017
X-6.249 Y6.439 Z-1.018
X-6.264 Y6.463 Z-1.019
X-7.665 Y7.89 Z-1.089
X-7.689 Y7.905 Z-1.09
X-7.716 Y7.908 Z-1.091
X-7.743 Y7.899 Z-1.092
X-7.763 Y7.879 Z-1.093
X-7.772 Y7.853 Z-1.094
X-7.769 Y7.826 Z-1.095
X-7.755 Y7.802 Z-1.096
X-6.353 Y6.375 Z-1.166
X-6.329 Y6.36 Z-1.167
X-6.302 Y6.357 Z-1.168
X-6.275 Y6.366 Z-1.169
X-6.256 Y6.386 Z-1.17
X-6.246 Y6.412 Z-1.171
X-6.249 Y6.439 Z-1.172
X-6.264 Y6.463 Z-1.173
X-7.665 Y7.89 Z-1.243
X-7.689 Y7.905 Z-1.244
X-7.716 Y7.908 Z-1.245
X-7.743 Y7.899 Z-1.246
X-7.763 Y7.879 Z-1.247
X-7.772 Y7.853 Z-1.248
X-7.769 Y7.826 Z-1.249
X-7.755 Y7.802 Z-1.25
X-6.353 Y6.375 Z-1.319
X-6.329 Y6.36 Z-1.32
X-6.302 Y6.357 Z-1.321
X-6.275 Y6.366 Z-1.322
X-6.256 Y6.386 Z-1.323
X-6.246 Y6.412 Z-1.324
X-6.249 Y6.439 Z-1.325
X-6.264 Y6.463 Z-1.326
X-7.665 Y7.89 Z-1.396
X-7.689 Y7.905 Z-1.397
X-7.716 Y7.908 Z-1.398
X-7.743 Y7.899 Z-1.399
X-7.763 Y7.879 Z-1.4
X-7.772 Y7.853 Z-1.401
X-7.769 Y7.826 Z-1.402
X-7.755 Y7.802 Z-1.403
X-6.353 Y6.375 Z-1.473
X-6.329 Y6.36 Z-1.474
X-6.302 Y6.357 Z-1.475
X-6.275 Y6.366 Z-1.476
X-6.256 Y6.386 Z-1.477
X-6.246 Y6.412 Z-1.478
X-6.249 Y6.439 Z-1.479
X-6.264 Y6.463 Z-1.48
X-7.665 Y7.89 Z-1.549
X-7.689 Y7.905 Z-1.55
X-7.716 Y7.908 Z-1.551
X-7.743 Y7.899 Z-1.552
X-7.763 Y7.879 Z-1.553
X-7.772 Y7.853 Z-1.554
X-7.769 Y7.826 Z-1.555
X-7.755 Y7.802 Z-1.556
X-6.353 Y6.375 Z-1.626
X-6.329 Y6.36 Z-1.627
X-6.302 Y6.357 Z-1.628
X-6.275 Y6.366 Z-1.629
X-6.256 Y6.386 Z-1.63
X-6.246 Y6.412 Z-1.631
X-6.249 Y6.439 Z-1.632
X-6.264 Y6.463 Z-1.633
X-7.665 Y7.89 Z-1.703
X-7.689 Y7.905 Z-1.704
X-7.716 Y7.908 Z-1.705
X-7.743 Y7.899 Z-1.706
X-7.763 Y7.879 Z-1.707
X-7.772 Y7.853 Z-1.708
X-7.769 Y7.826 Z-1.709
X-7.755 Y7.802 Z-1.71
X-6.353 Y6.375 Z-1.78
X-6.329 Y6.36 Z-1.781
X-6.302 Y6.357 Z-1.782
X-6.275 Y6.366
X-6.256 Y6.386 Z-1.783
X-6.246 Y6.412 Z-1.784
X-6.249 Y6.439 Z-1.785
X-6.264 Y6.463 Z-1.786
X-7.665 Y7.89 Z-1.856
X-7.689 Y7.905 Z-1.857
X-7.716 Y7.908 Z-1.858
X-7.743 Y7.899 Z-1.859
X-7.763 Y7.879 Z-1.86
X-7.772 Y7.853 Z-1.861
X-7.769 Y7.826 Z-1.862
X-7.755 Y7.802 Z-1.863
X-6.353 Y6.375 Z-1.933
X-6.329 Y6.36 Z-1.934
X-6.302 Y6.357 Z-1.935
X-6.275 Y6.366 Z-1.936
X-6.256 Y6.386 Z-1.937
X-6.246 Y6.412 Z-1.938
X-6.249 Y6.439 Z-1.939
X-6.264 Y6.463 Z-1.94
X-7.665 Y7.89 Z-2.01
X-7.689 Y7.905 Z-2.011
X-7.716 Y7.908 Z-2.012
X-7.743 Y7.899 Z-2.013
X-7.763 Y7.879 Z-2.014
X-7.772 Y7.853 Z-2.015
X-7.769 Y7.826 Z-2.016
X-7.755 Y7.802 Z-2.017
X-6.353 Y6.375 Z-2.086
X-6.329 Y6.36 Z-2.087
X-6.302 Y6.357 Z-2.088
X-6.275 Y6.366 Z-2.089
X-6.256 Y6.386 Z-2.09
X-6.246 Y6.412 Z-2.091
X-6.249 Y6.439 Z-2.092
X-6.264 Y6.463 Z-2.093
X-7.665 Y7.89 Z-2.163
X-7.689 Y7.905 Z-2.164
X-7.716 Y7.908 Z-2.165
X-7.743 Y7.899 Z-2.166
X-7.763 Y7.879 Z-2.167
X-7.772 Y7.853 Z-2.168
X-7.769 Y7.826 Z-2.169
X-7.755 Y7.802 Z-2.17
X-6.353 Y6.375 Z-2.24
X-6.329 Y6.36 Z-2.241
X-6.302 Y6.357 Z-2.242
X-6.275 Y6.366 Z-2.243
X-6.256 Y6.386 Z-2.244
X-6.246 Y6.412 Z-2.245
X-6.249 Y6.439 Z-2.246
X-6.264 Y6.463 Z-2.247
X-7.665 Y7.89 Z-2.316
X-7.689 Y7.905 Z-2.317
X-7.716 Y7.908 Z-2.318
X-7.743 Y7.899 Z-2.319
X-7.763 Y7.879 Z-2.32
X-7.772 Y7.853 Z-2.321
X-7.769 Y7.826 Z-2.322
X-7.755 Y7.802 Z-2.323
X-6.353 Y6.375 Z-2.393
X-6.329 Y6.36 Z-2.394
X-6.302 Y6.357 Z-2.395
X-6.275 Y6.366 Z-2.396
X-6.256 Y6.386 Z-2.397
X-6.246 Y6.412 Z-2.398
X-6.249 Y6.439 Z-2.399
X-6.264 Y6.463 Z-2.4
S6000
X-7.665 Y7.89 F1000
X-7.689 Y7.905
X-7.716 Y7.908
X-7.743 Y7.899
X-7.763 Y7.879
X-7.772 Y7.853
X-7.769 Y7.826
X-7.755 Y7.802
X-6.353 Y6.375
X-6.329 Y6.36
X-6.302 Y6.357
X-6.275 Y6.366
X-6.256 Y6.386
X-6.246 Y6.412
X-6.249 Y6.439
X-6.264 Y6.463
Z15
(When using Fusion 360 for Personal Use, the feedrate of)
(rapid moves is reduced to match the feedrate of cutting)
(moves, which can increase machining time. Unrestricted rapid)
(moves are available with a Fusion 360 Subscription.)

(2D-Kontur20)
G0 X15.699 Y18.181
G1 Z15 F1000
Z5
Z2.3 F333.3
Z-0.983
X15.691 Z-1.053 F1000
X15.668 Y18.182 Z-1.12
X15.63 Z-1.18
X15.58 Z-1.231
X15.52 Y18.183 Z-1.269
X15.452 Z-1.292
X15.382 Y18.184 Z-1.3
X15.064 Y18.187
G3 X14.744 Y17.872 I-0.003 J-0.317
G1 X14.43 Y-18.127
G2 X-14.744 Y-17.872 I-14.587 J0.127
G1 X-14.43 Y18.127
G2 X14.744 Y17.872 I14.587 J-0.127
G3 X15.059 Y17.552 I0.317 J-0.003
G1 X15.376 Y17.549
X15.447 Y17.548 Z-1.292
X15.514 Z-1.269
X15.574 Y17.547 Z-1.231
X15.624 Z-1.18
X15.662 Z-1.12
X15.686 Y17.546 Z-1.053
X15.694 Z-0.983
Z5
X15.699 Y18.181
Z1 F333.3
Z-2.083
X15.691 Z-2.153 F1000
X15.668 Y18.182 Z-2.22
X15.63 Z-2.28
X15.58 Z-2.331
X15.52 Y18.183 Z-2.369
X15.452 Z-2.392
X15.382 Y18.184 Z-2.4
X15.064 Y18.187
G3 X14.744 Y17.872 I-0.003 J-0.317
G1 X14.43 Y-18.127
G2 X4.309 Y-31.886 I-14.587 J0.127
G1 Z-1.4
G2 X-4.865 Y-31.806 I-4.467 J13.887
G1 Z-2.4 F333.3
G2 X-14.744 Y-17.872 I4.708 J13.807 F1000
G1 X-14.43 Y18.127
G2 X-4.309 Y31.886 I14.587 J-0.127
G1 Z-1.4
G2 X4.865 Y31.806 I4.467 J-13.887
G1 Z-2.4 F333.3
G2 X14.744 Y17.872 I-4.708 J-13.807 F1000
G3 X15.059 Y17.552 I0.317 J-0.003
G1 X15.376 Y17.549
X15.447 Y17.548 Z-2.392
X15.514 Z-2.369
X15.574 Y17.547 Z-2.331
X15.624 Z-2.28
X15.662 Z-2.22
X15.686 Y17.546 Z-2.153
X15.694 Z-2.083
Z15
M5
M30
