(MotorMount)
(Bearbeiten)
(  Hersteller: ChinaCnc)
(  model: 3040T)
(  description: Generic 3-axis)
(T14 D=3.175 CR=0 - ZMIN=-4.3 - Schaftfrser)
G90 G94
G17
G21
(-Attention- Property Safe Retracts is set to Clearance Height.)
(Ensure the clearance height will clear the part and or fixtures.)
(Raise the Z-axis to a safe height before starting the program.)
(When using Fusion 360 for Personal Use, the feedrate of)
(rapid moves is reduced to match the feedrate of cutting)
(moves, which can increase machining time. Unrestricted rapid)
(moves are available with a Fusion 360 Subscription.)

(Bohrfrsen2)
M0
(MANUAL TOOL CHANGE TO T14)
S6000 M3
G17 G90 G94
G54
G0 X-21.077 Y-7.081
Z15
G1 Z1.683 F1500
Z0 F1016
X-20.919
X-20.888 Y-7.075
X-20.861 Y-7.057
X-20.844 Y-7.031
X-20.837 Y-7
G3 X-21.163 Y-7 Z-0.061 I-0.163 J0 F1500
X-20.837 Y-7 Z-0.122 I0.163 J0
X-21.163 Y-7 Z-0.183 I-0.163 J0
X-20.837 Y-7 Z-0.244 I0.163 J0
X-21.163 Y-7 Z-0.306 I-0.163 J0
X-20.837 Y-7 Z-0.367 I0.163 J0
X-21.163 Y-7 Z-0.428 I-0.163 J0
X-20.837 Y-7 Z-0.489 I0.163 J0
X-21.163 Y-7 Z-0.55 I-0.163 J0
X-20.837 Y-7 Z-0.611 I0.163 J0
X-21.163 Y-7 Z-0.672 I-0.163 J0
X-20.837 Y-7 Z-0.733 I0.163 J0
X-21.163 Y-7 Z-0.794 I-0.163 J0
X-20.837 Y-7 Z-0.856 I0.163 J0
X-21.163 Y-7 Z-0.917 I-0.163 J0
X-20.837 Y-7 Z-0.978 I0.163 J0
X-21.163 Y-7 Z-1.039 I-0.163 J0
X-20.837 Y-7 Z-1.1 I0.163 J0
X-21.163 Y-7 Z-1.161 I-0.163 J0
X-20.837 Y-7 Z-1.222 I0.163 J0
X-21.163 Y-7 Z-1.283 I-0.163 J0
X-20.837 Y-7 Z-1.344 I0.163 J0
X-21.163 Y-7 Z-1.406 I-0.163 J0
X-20.837 Y-7 Z-1.467 I0.163 J0
X-21.163 Y-7 Z-1.528 I-0.163 J0
X-20.837 Y-7 Z-1.589 I0.163 J0
X-21.163 Y-7 Z-1.65 I-0.163 J0
X-20.837 Y-7 Z-1.711 I0.163 J0
X-21.163 Y-7 Z-1.772 I-0.163 J0
X-20.837 Y-7 Z-1.833 I0.163 J0
X-21.163 Y-7 Z-1.894 I-0.163 J0
X-20.837 Y-7 Z-1.956 I0.163 J0
X-21.163 Y-7 Z-2.017 I-0.163 J0
X-20.837 Y-7 Z-2.078 I0.163 J0
X-21.163 Y-7 Z-2.139 I-0.163 J0
X-20.837 Y-7 Z-2.2 I0.163 J0
X-21.163 Y-7 Z-2.261 I-0.163 J0
X-20.837 Y-7 Z-2.322 I0.163 J0
X-21.163 Y-7 Z-2.383 I-0.163 J0
X-20.837 Y-7 Z-2.444 I0.163 J0
X-21.163 Y-7 Z-2.506 I-0.163 J0
X-20.837 Y-7 Z-2.567 I0.163 J0
X-21.163 Y-7 Z-2.628 I-0.163 J0
X-20.837 Y-7 Z-2.689 I0.163 J0
X-21.163 Y-7 Z-2.75 I-0.163 J0
X-20.837 Y-7 Z-2.811 I0.163 J0
X-21.163 Y-7 Z-2.872 I-0.163 J0
X-20.837 Y-7 Z-2.933 I0.163 J0
X-21.163 Y-7 Z-2.994 I-0.163 J0
X-20.837 Y-7 Z-3.056 I0.163 J0
X-21.163 Y-7 Z-3.117 I-0.163 J0
X-20.837 Y-7 Z-3.178 I0.163 J0
X-21.162 Y-7 Z-3.239 I-0.163 J0
X-20.838 Y-7 Z-3.3 I0.162 J0
X-21.162 Y-7 Z-3.361 I-0.162 J0
X-20.838 Y-7 Z-3.422 I0.162 J0
X-21.162 Y-7 Z-3.483 I-0.162 J0
X-20.838 Y-7 Z-3.544 I0.162 J0
X-21.162 Y-7 Z-3.606 I-0.162 J0
X-20.838 Y-7 Z-3.667 I0.162 J0
X-21.162 Y-7 Z-3.728 I-0.162 J0
X-20.838 Y-7 Z-3.789 I0.162 J0
X-21.162 Y-7 Z-3.85 I-0.162 J0
X-20.838 Y-7 Z-3.911 I0.162 J0
X-21.162 Y-7 Z-3.972 I-0.162 J0
X-20.838 Y-7 Z-4.033 I0.162 J0
X-21.162 Y-7 Z-4.094 I-0.162 J0
X-20.838 Y-7 Z-4.156 I0.162 J0
X-21.162 Y-7 Z-4.217 I-0.162 J0
X-20.838 Y-7 Z-4.278 I0.162 J0
X-20.932 Y-6.852 Z-4.3 I-0.162 J0
X-21.068 Y-7.148 I-0.068 J-0.148
X-20.932 Y-6.852 I0.068 J0.148
G1 X-20.963 Y-6.845 F1016
X-20.995 Y-6.85
X-21.021 Y-6.867
X-21.04 Y-6.892
X-21.106 Y-7.037
Z5 F1500
X-18.381 Y-25.317
Z2
Z0.317 F1016
G18 G2 X-18.064 Z0 I0.318 K0
G1 X-17.905
G17 G3 X-17.587 Y-25 I0 J0.317
X-24.413 Y-25 Z-0.175 I-3.413 J0 F1500
X-17.587 Y-25 Z-0.349 I3.413 J0
X-24.413 Y-25 Z-0.524 I-3.413 J0
X-17.587 Y-25 Z-0.698 I3.413 J0
X-24.413 Y-25 Z-0.873 I-3.413 J0
X-17.587 Y-25 Z-1.048 I3.413 J0
X-24.413 Y-25 Z-1.222 I-3.413 J0
X-17.587 Y-25 Z-1.397 I3.413 J0
X-24.413 Y-25 Z-1.571 I-3.413 J0
X-17.587 Y-25 Z-1.746 I3.413 J0
X-24.413 Y-25 Z-1.921 I-3.413 J0
X-17.587 Y-25 Z-2.095 I3.413 J0
X-24.413 Y-25 Z-2.27 I-3.413 J0
X-17.587 Y-25 Z-2.444 I3.413 J0
X-24.413 Y-25 Z-2.619 I-3.413 J0
X-17.587 Y-25 Z-2.794 I3.413 J0
X-24.413 Y-25 Z-2.968 I-3.413 J0
X-17.587 Y-25 Z-3.143 I3.413 J0
X-24.413 Y-25 Z-3.317 I-3.413 J0
X-17.587 Y-25 Z-3.492 I3.413 J0
X-24.413 Y-25 Z-3.667 I-3.413 J0
X-17.587 Y-25 Z-3.841 I3.413 J0
X-24.413 Y-25 Z-4.016 I-3.413 J0
X-17.587 Y-25 Z-4.19 I3.413 J0
X-22.327 Y-21.856 Z-4.3 I-3.413 J0
X-19.673 Y-28.144 I1.327 J-3.144
X-22.327 Y-21.856 I-1.327 J3.144
X-22.496 Y-22.272 I0.124 J-0.292 F1016
G1 X-22.435 Y-22.419
X-22.407 Y-22.484 Z-4.292
X-22.381 Y-22.545 Z-4.269
X-22.358 Y-22.601 Z-4.231
X-22.338 Y-22.647 Z-4.18
X-22.323 Y-22.682 Z-4.12
X-22.314 Y-22.704 Z-4.053
X-22.311 Y-22.711 Z-3.983
Z5 F1500
X-21.077 Y-43.081
Z1.683
Z0 F1016
X-20.919
X-20.888 Y-43.075
X-20.861 Y-43.057
X-20.844 Y-43.031
X-20.837 Y-43
G3 X-21.163 Y-43 Z-0.061 I-0.163 J0 F1500
X-20.837 Y-43 Z-0.122 I0.163 J0
X-21.163 Y-43 Z-0.183 I-0.163 J0
X-20.837 Y-43 Z-0.244 I0.163 J0
X-21.163 Y-43 Z-0.306 I-0.163 J0
X-20.837 Y-43 Z-0.367 I0.163 J0
X-21.163 Y-43 Z-0.428 I-0.163 J0
X-20.837 Y-43 Z-0.489 I0.163 J0
X-21.163 Y-43 Z-0.55 I-0.163 J0
X-20.837 Y-43 Z-0.611 I0.163 J0
X-21.163 Y-43 Z-0.672 I-0.163 J0
X-20.837 Y-43 Z-0.733 I0.163 J0
X-21.163 Y-43 Z-0.794 I-0.163 J0
X-20.837 Y-43 Z-0.856 I0.163 J0
X-21.163 Y-43 Z-0.917 I-0.163 J0
X-20.837 Y-43 Z-0.978 I0.163 J0
X-21.163 Y-43 Z-1.039 I-0.163 J0
X-20.837 Y-43 Z-1.1 I0.163 J0
X-21.163 Y-43 Z-1.161 I-0.163 J0
X-20.837 Y-43 Z-1.222 I0.163 J0
X-21.163 Y-43 Z-1.283 I-0.163 J0
X-20.837 Y-43 Z-1.344 I0.163 J0
X-21.163 Y-43 Z-1.406 I-0.163 J0
X-20.837 Y-43 Z-1.467 I0.163 J0
X-21.163 Y-43 Z-1.528 I-0.163 J0
X-20.837 Y-43 Z-1.589 I0.163 J0
X-21.163 Y-43 Z-1.65 I-0.163 J0
X-20.837 Y-43 Z-1.711 I0.163 J0
X-21.163 Y-43 Z-1.772 I-0.163 J0
X-20.837 Y-43 Z-1.833 I0.163 J0
X-21.163 Y-43 Z-1.894 I-0.163 J0
X-20.837 Y-43 Z-1.956 I0.163 J0
X-21.163 Y-43 Z-2.017 I-0.163 J0
X-20.837 Y-43 Z-2.078 I0.163 J0
X-21.163 Y-43 Z-2.139 I-0.163 J0
X-20.837 Y-43 Z-2.2 I0.163 J0
X-21.163 Y-43 Z-2.261 I-0.163 J0
X-20.837 Y-43 Z-2.322 I0.163 J0
X-21.163 Y-43 Z-2.383 I-0.163 J0
X-20.837 Y-43 Z-2.444 I0.163 J0
X-21.163 Y-43 Z-2.506 I-0.163 J0
X-20.837 Y-43 Z-2.567 I0.163 J0
X-21.163 Y-43 Z-2.628 I-0.163 J0
X-20.837 Y-43 Z-2.689 I0.163 J0
X-21.163 Y-43 Z-2.75 I-0.163 J0
X-20.837 Y-43 Z-2.811 I0.163 J0
X-21.163 Y-43 Z-2.872 I-0.163 J0
X-20.837 Y-43 Z-2.933 I0.163 J0
X-21.163 Y-43 Z-2.994 I-0.163 J0
X-20.837 Y-43 Z-3.056 I0.163 J0
X-21.163 Y-43 Z-3.117 I-0.163 J0
X-20.837 Y-43 Z-3.178 I0.163 J0
X-21.163 Y-43 Z-3.239 I-0.163 J0
X-20.837 Y-43 Z-3.3 I0.163 J0
X-21.163 Y-43 Z-3.361 I-0.163 J0
X-20.837 Y-43 Z-3.422 I0.163 J0
X-21.163 Y-43 Z-3.483 I-0.163 J0
X-20.837 Y-43 Z-3.544 I0.163 J0
X-21.163 Y-43 Z-3.606 I-0.163 J0
X-20.837 Y-43 Z-3.667 I0.163 J0
X-21.163 Y-43 Z-3.728 I-0.163 J0
X-20.837 Y-43 Z-3.789 I0.163 J0
X-21.163 Y-43 Z-3.85 I-0.163 J0
X-20.837 Y-43 Z-3.911 I0.163 J0
X-21.163 Y-43 Z-3.972 I-0.163 J0
X-20.837 Y-43 Z-4.033 I0.163 J0
X-21.163 Y-43 Z-4.094 I-0.163 J0
X-20.837 Y-43 Z-4.156 I0.163 J0
X-21.163 Y-43 Z-4.217 I-0.163 J0
X-20.837 Y-43 Z-4.278 I0.163 J0
X-20.932 Y-42.852 Z-4.3 I-0.163 J0
X-21.068 Y-43.148 I-0.068 J-0.148
X-20.932 Y-42.852 I0.068 J0.148
G1 X-20.963 Y-42.845 F1016
X-20.995 Y-42.85
X-21.022 Y-42.867
X-21.04 Y-42.892
X-21.106 Y-43.037
Z5 F1500
X-38.381 Y-25.317
Z2
Z0.317 F1016
G18 G2 X-38.064 Z0 I0.317 K0
G1 X-37.905
G17 G3 X-37.588 Y-25 I0 J0.317
X-44.412 Y-25 Z-0.175 I-3.412 J0 F1500
X-37.588 Y-25 Z-0.349 I3.412 J0
X-44.412 Y-25 Z-0.524 I-3.412 J0
X-37.588 Y-25 Z-0.698 I3.412 J0
X-44.412 Y-25 Z-0.873 I-3.412 J0
X-37.588 Y-25 Z-1.048 I3.412 J0
X-44.412 Y-25 Z-1.222 I-3.412 J0
X-37.588 Y-25 Z-1.397 I3.412 J0
X-44.412 Y-25 Z-1.571 I-3.412 J0
X-37.588 Y-25 Z-1.746 I3.412 J0
X-44.412 Y-25 Z-1.921 I-3.412 J0
X-37.588 Y-25 Z-2.095 I3.412 J0
X-44.412 Y-25 Z-2.27 I-3.412 J0
X-37.588 Y-25 Z-2.444 I3.412 J0
X-44.412 Y-25 Z-2.619 I-3.412 J0
X-37.588 Y-25 Z-2.794 I3.412 J0
X-44.412 Y-25 Z-2.968 I-3.412 J0
X-37.588 Y-25 Z-3.143 I3.412 J0
X-44.412 Y-25 Z-3.317 I-3.412 J0
X-37.588 Y-25 Z-3.492 I3.412 J0
X-44.412 Y-25 Z-3.667 I-3.412 J0
X-37.588 Y-25 Z-3.841 I3.412 J0
X-44.412 Y-25 Z-4.016 I-3.412 J0
X-37.588 Y-25 Z-4.19 I3.412 J0
X-42.327 Y-21.856 Z-4.3 I-3.412 J0
X-39.673 Y-28.144 I1.327 J-3.144
X-42.327 Y-21.856 I-1.327 J3.144
X-42.496 Y-22.272 I0.124 J-0.292 F1016
G1 X-42.435 Y-22.419
X-42.407 Y-22.484 Z-4.292
X-42.381 Y-22.545 Z-4.269
X-42.358 Y-22.601 Z-4.231
X-42.338 Y-22.647 Z-4.18
X-42.323 Y-22.682 Z-4.12
X-42.314 Y-22.704 Z-4.053
X-42.311 Y-22.711 Z-3.983
Z5 F1500
X-61.077 Y-7.081
Z1.683
Z0 F1016
X-60.919
X-60.888 Y-7.075
X-60.861 Y-7.057
X-60.844 Y-7.031
X-60.838 Y-7
G3 X-61.162 Y-7 Z-0.061 I-0.162 J0 F1500
X-60.838 Y-7 Z-0.122 I0.162 J0
X-61.162 Y-7 Z-0.183 I-0.162 J0
X-60.838 Y-7 Z-0.244 I0.162 J0
X-61.162 Y-7 Z-0.306 I-0.162 J0
X-60.838 Y-7 Z-0.367 I0.162 J0
X-61.162 Y-7 Z-0.428 I-0.162 J0
X-60.838 Y-7 Z-0.489 I0.162 J0
X-61.162 Y-7 Z-0.55 I-0.162 J0
X-60.838 Y-7 Z-0.611 I0.162 J0
X-61.162 Y-7 Z-0.672 I-0.162 J0
X-60.838 Y-7 Z-0.733 I0.162 J0
X-61.162 Y-7 Z-0.794 I-0.162 J0
X-60.838 Y-7 Z-0.856 I0.162 J0
X-61.162 Y-7 Z-0.917 I-0.162 J0
X-60.838 Y-7 Z-0.978 I0.162 J0
X-61.162 Y-7 Z-1.039 I-0.162 J0
X-60.838 Y-7 Z-1.1 I0.162 J0
X-61.162 Y-7 Z-1.161 I-0.162 J0
X-60.838 Y-7 Z-1.222 I0.162 J0
X-61.162 Y-7 Z-1.283 I-0.162 J0
X-60.838 Y-7 Z-1.344 I0.162 J0
X-61.162 Y-7 Z-1.406 I-0.162 J0
X-60.838 Y-7 Z-1.467 I0.162 J0
X-61.162 Y-7 Z-1.528 I-0.162 J0
X-60.838 Y-7 Z-1.589 I0.162 J0
X-61.162 Y-7 Z-1.65 I-0.162 J0
X-60.838 Y-7 Z-1.711 I0.162 J0
X-61.162 Y-7 Z-1.772 I-0.162 J0
X-60.838 Y-7 Z-1.833 I0.162 J0
X-61.162 Y-7 Z-1.894 I-0.162 J0
X-60.838 Y-7 Z-1.956 I0.162 J0
X-61.162 Y-7 Z-2.017 I-0.162 J0
X-60.838 Y-7 Z-2.078 I0.162 J0
X-61.162 Y-7 Z-2.139 I-0.162 J0
X-60.838 Y-7 Z-2.2 I0.162 J0
X-61.162 Y-7 Z-2.261 I-0.162 J0
X-60.838 Y-7 Z-2.322 I0.162 J0
X-61.162 Y-7 Z-2.383 I-0.162 J0
X-60.838 Y-7 Z-2.444 I0.162 J0
X-61.162 Y-7 Z-2.506 I-0.162 J0
X-60.838 Y-7 Z-2.567 I0.162 J0
X-61.162 Y-7 Z-2.628 I-0.162 J0
X-60.838 Y-7 Z-2.689 I0.162 J0
X-61.162 Y-7 Z-2.75 I-0.162 J0
X-60.838 Y-7 Z-2.811 I0.162 J0
X-61.162 Y-7 Z-2.872 I-0.162 J0
X-60.838 Y-7 Z-2.933 I0.162 J0
X-61.162 Y-7 Z-2.994 I-0.162 J0
X-60.838 Y-7 Z-3.056 I0.162 J0
X-61.162 Y-7 Z-3.117 I-0.162 J0
X-60.838 Y-7 Z-3.178 I0.162 J0
X-61.162 Y-7 Z-3.239 I-0.162 J0
X-60.838 Y-7 Z-3.3 I0.162 J0
X-61.162 Y-7 Z-3.361 I-0.162 J0
X-60.838 Y-7 Z-3.422 I0.162 J0
X-61.162 Y-7 Z-3.483 I-0.162 J0
X-60.838 Y-7 Z-3.544 I0.162 J0
X-61.162 Y-7 Z-3.606 I-0.162 J0
X-60.838 Y-7 Z-3.667 I0.162 J0
X-61.162 Y-7 Z-3.728 I-0.162 J0
X-60.838 Y-7 Z-3.789 I0.162 J0
X-61.162 Y-7 Z-3.85 I-0.162 J0
X-60.838 Y-7 Z-3.911 I0.162 J0
X-61.162 Y-7 Z-3.972 I-0.162 J0
X-60.838 Y-7 Z-4.033 I0.162 J0
X-61.162 Y-7 Z-4.094 I-0.162 J0
X-60.838 Y-7 Z-4.156 I0.162 J0
X-61.162 Y-7 Z-4.217 I-0.162 J0
X-60.838 Y-7 Z-4.278 I0.162 J0
X-60.932 Y-6.852 Z-4.3 I-0.162 J0
X-61.068 Y-7.148 I-0.068 J-0.148
X-60.932 Y-6.852 I0.068 J0.148
G1 X-60.963 Y-6.845 F1016
X-60.995 Y-6.85
X-61.021 Y-6.867
X-61.04 Y-6.892
X-61.106 Y-7.037
Z5 F1500
X-58.381 Y-25.317
Z2
Z0.317 F1016
G18 G2 X-58.064 Z0 I0.317 K0
G1 X-57.905
G17 G3 X-57.588 Y-25 I0 J0.317
X-64.412 Y-25 Z-0.175 I-3.412 J0 F1500
X-57.588 Y-25 Z-0.349 I3.412 J0
X-64.412 Y-25 Z-0.524 I-3.412 J0
X-57.588 Y-25 Z-0.698 I3.412 J0
X-64.412 Y-25 Z-0.873 I-3.412 J0
X-57.588 Y-25 Z-1.048 I3.412 J0
X-64.412 Y-25 Z-1.222 I-3.412 J0
X-57.588 Y-25 Z-1.397 I3.412 J0
X-64.412 Y-25 Z-1.571 I-3.412 J0
X-57.588 Y-25 Z-1.746 I3.412 J0
X-64.412 Y-25 Z-1.921 I-3.412 J0
X-57.588 Y-25 Z-2.095 I3.412 J0
X-64.412 Y-25 Z-2.27 I-3.412 J0
X-57.588 Y-25 Z-2.444 I3.412 J0
X-64.412 Y-25 Z-2.619 I-3.412 J0
X-57.588 Y-25 Z-2.794 I3.412 J0
X-64.412 Y-25 Z-2.968 I-3.412 J0
X-57.588 Y-25 Z-3.143 I3.412 J0
X-64.412 Y-25 Z-3.317 I-3.412 J0
X-57.588 Y-25 Z-3.492 I3.412 J0
X-64.412 Y-25 Z-3.667 I-3.412 J0
X-57.588 Y-25 Z-3.841 I3.412 J0
X-64.412 Y-25 Z-4.016 I-3.412 J0
X-57.588 Y-25 Z-4.19 I3.412 J0
X-62.327 Y-21.856 Z-4.3 I-3.412 J0
X-59.673 Y-28.144 I1.327 J-3.144
X-62.327 Y-21.856 I-1.327 J3.144
X-62.496 Y-22.272 I0.124 J-0.292 F1016
G1 X-62.435 Y-22.419
X-62.407 Y-22.484 Z-4.292
X-62.381 Y-22.545 Z-4.269
X-62.358 Y-22.601 Z-4.231
X-62.338 Y-22.647 Z-4.18
X-62.323 Y-22.682 Z-4.12
X-62.314 Y-22.704 Z-4.053
X-62.311 Y-22.711 Z-3.983
Z5 F1500
X-61.077 Y-43.081
Z1.683
Z0 F1016
X-60.919
X-60.888 Y-43.075
X-60.861 Y-43.057
X-60.844 Y-43.031
X-60.838 Y-43
G3 X-61.162 Y-43 Z-0.061 I-0.162 J0 F1500
X-60.838 Y-43 Z-0.122 I0.162 J0
X-61.162 Y-43 Z-0.183 I-0.162 J0
X-60.838 Y-43 Z-0.244 I0.162 J0
X-61.162 Y-43 Z-0.306 I-0.162 J0
X-60.838 Y-43 Z-0.367 I0.162 J0
X-61.162 Y-43 Z-0.428 I-0.162 J0
X-60.838 Y-43 Z-0.489 I0.162 J0
X-61.162 Y-43 Z-0.55 I-0.162 J0
X-60.838 Y-43 Z-0.611 I0.162 J0
X-61.162 Y-43 Z-0.672 I-0.162 J0
X-60.838 Y-43 Z-0.733 I0.162 J0
X-61.162 Y-43 Z-0.794 I-0.162 J0
X-60.838 Y-43 Z-0.856 I0.162 J0
X-61.162 Y-43 Z-0.917 I-0.162 J0
X-60.838 Y-43 Z-0.978 I0.162 J0
X-61.162 Y-43 Z-1.039 I-0.162 J0
X-60.838 Y-43 Z-1.1 I0.162 J0
X-61.162 Y-43 Z-1.161 I-0.162 J0
X-60.838 Y-43 Z-1.222 I0.162 J0
X-61.162 Y-43 Z-1.283 I-0.162 J0
X-60.838 Y-43 Z-1.344 I0.162 J0
X-61.162 Y-43 Z-1.406 I-0.162 J0
X-60.838 Y-43 Z-1.467 I0.162 J0
X-61.162 Y-43 Z-1.528 I-0.162 J0
X-60.838 Y-43 Z-1.589 I0.162 J0
X-61.162 Y-43 Z-1.65 I-0.162 J0
X-60.838 Y-43 Z-1.711 I0.162 J0
X-61.162 Y-43 Z-1.772 I-0.162 J0
X-60.838 Y-43 Z-1.833 I0.162 J0
X-61.162 Y-43 Z-1.894 I-0.162 J0
X-60.838 Y-43 Z-1.956 I0.162 J0
X-61.162 Y-43 Z-2.017 I-0.162 J0
X-60.838 Y-43 Z-2.078 I0.162 J0
X-61.162 Y-43 Z-2.139 I-0.162 J0
X-60.838 Y-43 Z-2.2 I0.162 J0
X-61.162 Y-43 Z-2.261 I-0.162 J0
X-60.838 Y-43 Z-2.322 I0.162 J0
X-61.162 Y-43 Z-2.383 I-0.162 J0
X-60.838 Y-43 Z-2.444 I0.162 J0
X-61.162 Y-43 Z-2.506 I-0.162 J0
X-60.838 Y-43 Z-2.567 I0.162 J0
X-61.162 Y-43 Z-2.628 I-0.162 J0
X-60.838 Y-43 Z-2.689 I0.162 J0
X-61.162 Y-43 Z-2.75 I-0.162 J0
X-60.838 Y-43 Z-2.811 I0.162 J0
X-61.162 Y-43 Z-2.872 I-0.162 J0
X-60.837 Y-43 Z-2.933 I0.162 J0
X-61.163 Y-43 Z-2.994 I-0.163 J0
X-60.837 Y-43 Z-3.056 I0.163 J0
X-61.163 Y-43 Z-3.117 I-0.163 J0
X-60.837 Y-43 Z-3.178 I0.163 J0
X-61.163 Y-43 Z-3.239 I-0.163 J0
X-60.837 Y-43 Z-3.3 I0.163 J0
X-61.163 Y-43 Z-3.361 I-0.163 J0
X-60.837 Y-43 Z-3.422 I0.163 J0
X-61.163 Y-43 Z-3.483 I-0.163 J0
X-60.837 Y-43 Z-3.544 I0.163 J0
X-61.163 Y-43 Z-3.606 I-0.163 J0
X-60.837 Y-43 Z-3.667 I0.163 J0
X-61.163 Y-43 Z-3.728 I-0.163 J0
X-60.837 Y-43 Z-3.789 I0.163 J0
X-61.163 Y-43 Z-3.85 I-0.163 J0
X-60.837 Y-43 Z-3.911 I0.163 J0
X-61.163 Y-43 Z-3.972 I-0.163 J0
X-60.837 Y-43 Z-4.033 I0.163 J0
X-61.163 Y-43 Z-4.094 I-0.163 J0
X-60.837 Y-43 Z-4.156 I0.163 J0
X-61.163 Y-43 Z-4.217 I-0.163 J0
X-60.837 Y-43 Z-4.278 I0.163 J0
X-60.932 Y-42.852 Z-4.3 I-0.163 J0
X-61.068 Y-43.148 I-0.068 J-0.148
X-60.932 Y-42.852 I0.068 J0.148
G1 X-60.963 Y-42.845 F1016
X-60.995 Y-42.85
X-61.021 Y-42.867
X-61.04 Y-42.892
X-61.106 Y-43.037
Z15 F1500
(When using Fusion 360 for Personal Use, the feedrate of)
(rapid moves is reduced to match the feedrate of cutting)
(moves, which can increase machining time. Unrestricted rapid)
(moves are available with a Fusion 360 Subscription.)

(2D Adaptive1)
G0 X-40.738 Y2.752
G1 Z15 F1500
Z5
Z-0.865
Z-1.183 F1016
X-40.74 Y2.744 Z-1.253
X-40.746 Y2.722 Z-1.32
X-40.755 Y2.685 Z-1.38
X-40.768 Y2.636 Z-1.431
X-40.783 Y2.578 Z-1.469
X-40.8 Y2.513 Z-1.492
X-40.817 Y2.445 Z-1.5
G3 X-41.066 Y0.716 I7.852 J-2.011
G1 Y0.566 F1500
X-40.985 Y0.448
X-40.861 Y0.378
X-40.718 Y0.371
X-40.587 Y0.429
X-40.495 Y0.538
X-40.463 Y0.678
X-40.47 Y0.73 Z-1.479 F1016
G3 X-40.729 Y1.077 Z-1.3 I-0.527 J-0.124
G1 X-40.804 Y1.112
X-40.883 Y1.135
X-40.965 Y1.146
X-41.023 F1500
X-41.081 Y1.14
X-41.161 Y1.121 F1016
X-41.238 Y1.09
X-41.309 Y1.048
G3 X-41.537 Y0.624 Z-1.5 I0.312 J-0.442
G1 Y0.333 F1500
X-41.536 Y0.296
X-41.415 Y0.153
X-41.255 Y0.056
X-41.072 Y0.015
X-40.886 Y0.035
X-40.716 Y0.113
X-40.581 Y0.242
X-40.493 Y0.407
X-40.463 Y0.592
X-40.471 Y0.65 F1016
X-40.492 Y0.706
X-40.525 Y0.755
X-40.569 Y0.795
G3 X-41.537 Y0.333 I-0.364 J-0.483
G1 Y0.042 F1500
X-41.534 Y-0.033
X-41.468 Y-0.168
X-41.313 Y-0.29
X-41.125 Y-0.353
X-40.928 Y-0.348
X-40.744 Y-0.277
X-40.594 Y-0.149
X-40.496 Y0.023
X-40.463 Y0.218
X-40.47 Y0.273 F1016
X-40.489 Y0.326
X-40.519 Y0.373
G3 X-41.537 Y0.042 I-0.449 J-0.351
G1 Y-0.294 F1500
X-41.53 Y-0.443
X-41.452 Y-0.572
X-41.294 Y-0.684
X-41.107 Y-0.738
X-40.913 Y-0.727
X-40.734 Y-0.653
X-40.589 Y-0.524
X-40.495 Y-0.354
X-40.463 Y-0.162
X-40.472 Y-0.099 F1016
X-40.497 Y-0.04
G3 X-41.05 Y0.239 I-0.485 J-0.273
X-41.537 Y-0.294 I0.069 J-0.552 F1016
G1 Y-0.657 F1500
X-41.53 Y-0.807
X-41.458 Y-0.939
X-41.355 Y-1.048
X-41.165 Y-1.127
X-40.96 Y-1.135
X-40.765 Y-1.07
X-40.604 Y-0.941
X-40.499 Y-0.764
X-40.463 Y-0.562
X-40.468 Y-0.515 F1016
X-40.482 Y-0.471
G3 X-41.031 Y-0.13 I-0.508 J-0.205
G1 X-41.046 Y-0.131 F1500
G3 X-41.537 Y-0.657 I0.056 J-0.545 F1016
G1 Y-1.022 F1500
X-41.53 Y-1.172
X-41.467 Y-1.308
X-41.37 Y-1.422
X-41.181 Y-1.511
X-40.973 Y-1.526
X-40.774 Y-1.466
X-40.609 Y-1.338
X-40.5 Y-1.16
X-40.463 Y-0.955
X-40.466 Y-0.923 Z-1.487 F1016
X-40.473 Y-0.89 Z-1.474
G3 X-40.737 Y-0.563 Z-1.3 I-0.522 J-0.15
G1 X-40.813 Y-0.529
X-40.893 Y-0.507
X-40.975 Y-0.498
X-41.028 Y-0.499 F1500
X-41.082 Y-0.505
X-41.162 Y-0.524 F1016
X-41.239 Y-0.556
X-41.309 Y-0.598
G3 X-41.537 Y-1.022 Z-1.5 I0.315 J-0.443
G1 Y-1.415 F1500
X-41.53 Y-1.565
X-41.465 Y-1.7
X-41.368 Y-1.814
X-41.18 Y-1.902
X-40.972 Y-1.917
X-40.773 Y-1.857
X-40.609 Y-1.73
X-40.5 Y-1.553
X-40.463 Y-1.348
Y-0.955
G3 X-40.691 Y-0.702 Z-1.351 I-0.265 J-0.009 F1016
G1 X-40.755 Y-0.696 Z-1.326
X-40.819 Z-1.3
X-40.901 Y-0.703
X-40.982 Y-0.72
X-41.061 Y-0.745
X-41.118 Y-0.77 F1500
X-41.172 Y-0.799
X-41.241 Y-0.845 F1016
X-41.304 Y-0.898
X-41.361 Y-0.958
G3 X-41.537 Y-1.415 Z-1.5 I0.569 J-0.482
G1 Y-1.786 F1500
X-41.53 Y-1.936
X-41.471 Y-2.074
X-41.378 Y-2.191
X-41.219 Y-2.276
X-41.041 Y-2.306
X-40.863 Y-2.28
X-40.702 Y-2.2
X-40.573 Y-2.073
X-40.491 Y-1.913
X-40.463 Y-1.735
Y-1.348
G3 X-40.679 Y-1.097 Z-1.356 I-0.265 J-0.009 F1016
G1 X-40.749 Y-1.087 Z-1.328
X-40.818 Y-1.085 Z-1.3
X-40.901 Y-1.09
X-40.982 Y-1.105
X-41.061 Y-1.129
X-41.114 Y-1.151 F1500
X-41.165 Y-1.177
X-41.235 Y-1.221 F1016
X-41.299 Y-1.273
X-41.357 Y-1.332
G3 X-41.537 Y-1.786 Z-1.5 I0.546 J-0.48
G1 Y-2.187 F1500
X-41.53 Y-2.337
X-41.469 Y-2.474
X-41.316 Y-2.599
X-41.129 Y-2.665
X-40.932 Y-2.664
X-40.746 Y-2.595
X-40.595 Y-2.467
X-40.497 Y-2.295
X-40.463 Y-2.101
Y-1.735
G3 X-40.687 Y-1.482 Z-1.353 I-0.265 J-0.009 F1016
G1 X-40.753 Y-1.475 Z-1.326
X-40.819 Y-1.474 Z-1.3
X-40.901 Y-1.481
X-40.982 Y-1.497
X-41.061 Y-1.522
X-41.116 Y-1.545 F1500
X-41.17 Y-1.574
X-41.239 Y-1.619 F1016
X-41.302 Y-1.672
X-41.36 Y-1.732
G3 X-41.537 Y-2.187 Z-1.5 I0.561 J-0.481
G1 Y-2.551 F1500
X-41.53 Y-2.7
X-41.469 Y-2.838
X-41.374 Y-2.953
X-41.185 Y-3.043
X-40.976 Y-3.059
X-40.776 Y-2.999
X-40.61 Y-2.872
X-40.501 Y-2.694
X-40.463 Y-2.488
Y-2.101
G3 X-40.686 Y-1.848 Z-1.353 I-0.265 J-0.009 F1016
G1 X-40.752 Y-1.841 Z-1.327
X-40.819 Y-1.839 Z-1.3
X-40.901 Y-1.846
X-40.982 Y-1.862
X-41.061 Y-1.887
X-41.116 Y-1.91 F1500
X-41.169 Y-1.938
X-41.238 Y-1.983 F1016
X-41.302 Y-2.036
X-41.359 Y-2.095
G3 X-41.537 Y-2.551 Z-1.5 I0.559 J-0.481
G1 Y-2.951 F1500
X-41.53 Y-3.101
X-41.464 Y-3.236
X-41.366 Y-3.35
X-41.178 Y-3.437
X-40.971 Y-3.451
X-40.772 Y-3.391
X-40.608 Y-3.264
X-40.5 Y-3.086
X-40.463 Y-2.882
Y-2.488
G3 X-40.694 Y-2.235 Z-1.35 I-0.265 J-0.009 F1016
G1 X-40.756 Y-2.229 Z-1.325
X-40.819 Z-1.3
X-40.901 Y-2.237
X-40.982 Y-2.254
X-41.061 Y-2.28
X-41.118 Y-2.305 F1500
X-41.173 Y-2.335
X-41.242 Y-2.381 F1016
X-41.305 Y-2.435
X-41.362 Y-2.495
G3 X-41.537 Y-2.951 Z-1.5 I0.573 J-0.483
G1 Y-3.352 F1500
X-41.53 Y-3.502
X-41.462 Y-3.636
X-41.362 Y-3.748
X-41.174 Y-3.833
X-40.967 Y-3.846
X-40.77 Y-3.785
X-40.607 Y-3.657
X-40.5 Y-3.48
X-40.463 Y-3.277
Y-2.882
G3 X-40.697 Y-2.628 Z-1.349 I-0.265 J-0.009 F1016
G1 X-40.758 Y-2.624 Z-1.324
X-40.819 Z-1.3
X-40.901 Y-2.633
X-40.982 Y-2.65
X-41.06 Y-2.676
X-41.119 Y-2.703 F1500
X-41.176 Y-2.734
X-41.244 Y-2.781 F1016
X-41.306 Y-2.835
X-41.363 Y-2.895
G3 X-41.537 Y-3.352 Z-1.5 I0.58 J-0.484
G1 Y-3.716 F1500
X-41.53 Y-3.866
X-41.471 Y-4.004
X-41.378 Y-4.121
X-41.219 Y-4.205
X-41.041 Y-4.236
X-40.863 Y-4.209
X-40.701 Y-4.129
X-40.573 Y-4.002
X-40.491 Y-3.842
X-40.463 Y-3.664
Y-3.277
G3 X-40.68 Y-3.025 Z-1.356 I-0.265 J-0.009 F1016
G1 X-40.749 Y-3.016 Z-1.328
X-40.818 Y-3.014 Z-1.3
X-40.901 Y-3.019
X-40.982 Y-3.034
X-41.061 Y-3.058
X-41.114 Y-3.08 F1500
X-41.165 Y-3.106
X-41.235 Y-3.15 F1016
X-41.299 Y-3.202
X-41.357 Y-3.261
G3 X-41.537 Y-3.716 Z-1.5 I0.547 J-0.48
G1 Y-4.117 F1500
X-41.53 Y-4.267
X-41.469 Y-4.404
X-41.316 Y-4.529
X-41.129 Y-4.595
X-40.931 Y-4.593
X-40.746 Y-4.524
X-40.595 Y-4.396
X-40.497 Y-4.225
X-40.463 Y-4.03
Y-3.664
G3 X-40.688 Y-3.411 Z-1.353 I-0.265 J-0.009 F1016
G1 X-40.753 Y-3.404 Z-1.326
X-40.819 Y-3.403 Z-1.3
X-40.901 Y-3.41
X-40.982 Y-3.426
X-41.061 Y-3.451
X-41.117 Y-3.475 F1500
X-41.17 Y-3.503
X-41.239 Y-3.548 F1016
X-41.303 Y-3.601
X-41.36 Y-3.661
G3 X-41.537 Y-4.117 Z-1.5 I0.562 J-0.482
G1 Y-4.474 F1500
X-41.53 Y-4.623
X-41.472 Y-4.762
X-41.377 Y-4.878
X-41.188 Y-4.97
X-40.979 Y-4.987
X-40.778 Y-4.928
X-40.611 Y-4.801
X-40.501 Y-4.623
X-40.463 Y-4.416
Y-4.03
G3 X-40.683 Y-3.778 Z-1.355 I-0.265 J-0.009 F1016
G1 X-40.75 Y-3.769 Z-1.327
X-40.818 Y-3.767 Z-1.3
X-40.901 Y-3.773
X-40.982 Y-3.789
X-41.061 Y-3.813
X-41.115 Y-3.836 F1500
X-41.167 Y-3.862
X-41.236 Y-3.907 F1016
X-41.3 Y-3.96
X-41.358 Y-4.019
G3 X-41.537 Y-4.474 Z-1.5 I0.552 J-0.48
G1 Y-4.881 F1500
X-41.53 Y-5.031
X-41.464 Y-5.166
X-41.365 Y-5.279
X-41.177 Y-5.366
X-40.97 Y-5.38
X-40.772 Y-5.319
X-40.608 Y-5.192
X-40.5 Y-5.015
X-40.463 Y-4.811
Y-4.416
G3 X-40.694 Y-4.163 Z-1.35 I-0.265 J-0.009 F1016
G1 X-40.756 Y-4.158 Z-1.325
X-40.819 Z-1.3
X-40.901 Y-4.166
X-40.982 Y-4.183
X-41.061 Y-4.208
X-41.118 Y-4.234 F1500
X-41.174 Y-4.264
X-41.242 Y-4.31 F1016
X-41.305 Y-4.364
X-41.362 Y-4.424
G3 X-41.537 Y-4.881 Z-1.5 I0.574 J-0.483
G1 Y-5.246 F1500
X-41.53 Y-5.396
X-41.472 Y-5.534
X-41.38 Y-5.652
X-41.22 Y-5.737
X-41.043 Y-5.768
X-40.864 Y-5.742
X-40.702 Y-5.662
X-40.574 Y-5.535
X-40.491 Y-5.375
X-40.463 Y-5.197
Y-4.811
G3 X-40.678 Y-4.56 Z-1.357 I-0.265 J-0.009 F1016
G1 X-40.748 Y-4.55 Z-1.328
X-40.818 Y-4.547 Z-1.3
X-40.901 Y-4.552
X-40.982 Y-4.567
X-41.061 Y-4.591
X-41.114 Y-4.612 F1500
X-41.164 Y-4.637
X-41.234 Y-4.681 F1016
X-41.298 Y-4.733
X-41.357 Y-4.792
G3 X-41.537 Y-5.246 Z-1.5 I0.543 J-0.479
G1 Y-5.639 F1500
X-41.53 Y-5.789
X-41.472 Y-5.927
X-41.32 Y-6.055
X-41.134 Y-6.124
X-40.935
X-40.749 Y-6.057
X-40.596 Y-5.929
X-40.497 Y-5.758
X-40.463 Y-5.562
Y-5.197
G3 X-40.682 Y-4.945 Z-1.355 I-0.265 J-0.009 F1016
G1 X-40.75 Y-4.936 Z-1.328
X-40.818 Y-4.934 Z-1.3
X-40.901 Y-4.94
X-40.982 Y-4.955
X-41.061 Y-4.979
X-41.115 Y-5.002 F1500
X-41.166 Y-5.028
X-41.236 Y-5.073 F1016
X-41.3 Y-5.125
X-41.358 Y-5.184
G3 X-41.537 Y-5.639 Z-1.5 I0.55 J-0.48
G1 Y-6.01 F1500
X-41.53 Y-6.16
X-41.469 Y-6.297
X-41.373 Y-6.413
X-41.184 Y-6.503
X-40.976 Y-6.519
X-40.776 Y-6.459
X-40.61 Y-6.332
X-40.501 Y-6.154
X-40.463 Y-5.948
Y-5.562
G3 X-40.685 Y-5.31 Z-1.354 I-0.265 J-0.009 F1016
G1 X-40.752 Y-5.302 Z-1.327
X-40.818 Y-5.3 Z-1.3
X-40.901 Y-5.307
X-40.982 Y-5.323
X-41.061 Y-5.347
X-41.116 Y-5.37 F1500
X-41.168 Y-5.398
X-41.238 Y-5.443 F1016
X-41.301 Y-5.496
X-41.359 Y-5.555
G3 X-41.537 Y-6.01 Z-1.5 I0.557 J-0.481
G1 Y-6.411 F1500
X-41.53 Y-6.561
X-41.464 Y-6.696
X-41.366 Y-6.809
X-41.178 Y-6.897
X-40.971 Y-6.911
X-40.772 Y-6.851
X-40.608 Y-6.724
X-40.5 Y-6.546
X-40.463 Y-6.342
Y-5.948
G3 X-40.693 Y-5.695 Z-1.35 I-0.265 J-0.009 F1016
G1 X-40.756 Y-5.689 Z-1.325
X-40.819 Z-1.3
X-40.901 Y-5.697
X-40.982 Y-5.714
X-41.061 Y-5.739
X-41.118 Y-5.765 F1500
X-41.173 Y-5.795
X-41.242 Y-5.841 F1016
X-41.305 Y-5.894
X-41.362 Y-5.955
G3 X-41.537 Y-6.411 Z-1.5 I0.573 J-0.483
G1 Y-6.804 F1500
X-41.53 Y-6.954
X-41.464 Y-7.089
X-41.366 Y-7.202
X-41.178 Y-7.29
X-40.971 Y-7.304
X-40.772 Y-7.243
X-40.608 Y-7.116
X-40.5 Y-6.939
X-40.463 Y-6.735
Y-6.342
G3 X-40.693 Y-6.089 Z-1.351 I-0.265 J-0.009 F1016
G1 X-40.756 Y-6.083 Z-1.325
X-40.819 Z-1.3
X-40.901 Y-6.091
X-40.982 Y-6.107
X-41.061 Y-6.133
X-41.118 Y-6.158 F1500
X-41.173 Y-6.188
X-41.242 Y-6.234 F1016
X-41.305 Y-6.288
X-41.361 Y-6.348
G3 X-41.537 Y-6.804 Z-1.5 I0.571 J-0.483
G1 Y-7.176 F1500
X-41.53 Y-7.325
X-41.47 Y-7.463
X-41.377 Y-7.58
X-41.217 Y-7.664
X-41.04 Y-7.694
X-40.862 Y-7.667
X-40.701 Y-7.587
X-40.573 Y-7.46
X-40.491 Y-7.3
X-40.463 Y-7.122
Y-6.735
G3 X-40.681 Y-6.483 Z-1.355 I-0.265 J-0.009 F1016
G1 X-40.749 Y-6.474 Z-1.328
X-40.818 Y-6.472 Z-1.3
X-40.901 Y-6.478
X-40.982 Y-6.493
X-41.061 Y-6.517
X-41.115 Y-6.539 F1500
X-41.166 Y-6.565
X-41.236 Y-6.61 F1016
X-41.3 Y-6.662
X-41.358 Y-6.721
G3 X-41.537 Y-7.176 Z-1.5 I0.549 J-0.48
G1 Y-7.577 F1500
X-41.53 Y-7.726
X-41.468 Y-7.863
X-41.315 Y-7.988
X-41.129 Y-8.053
X-40.931 Y-8.051
X-40.746 Y-7.982
X-40.595 Y-7.854
X-40.497 Y-7.683
X-40.463 Y-7.488
Y-7.122
G3 X-40.689 Y-6.869 Z-1.352 I-0.265 J-0.009 F1016
G1 X-40.753 Y-6.863 Z-1.326
X-40.819 Y-6.862 Z-1.3
X-40.901 Y-6.869
X-40.982 Y-6.885
X-41.061 Y-6.91
X-41.117 Y-6.934 F1500
X-41.17 Y-6.962
X-41.239 Y-7.008 F1016
X-41.303 Y-7.061
X-41.36 Y-7.121
G3 X-41.537 Y-7.577 Z-1.5 I0.563 J-0.482
G1 Y-7.94 F1500
X-41.53 Y-8.09
X-41.469 Y-8.227
X-41.373 Y-8.342
X-41.184 Y-8.431
X-40.975 Y-8.447
X-40.775 Y-8.387
X-40.61 Y-8.26
X-40.501 Y-8.082
X-40.463 Y-7.876
Y-7.488
G3 X-40.687 Y-7.235 Z-1.353 I-0.265 J-0.009 F1016
G1 X-40.753 Y-7.228 Z-1.326
X-40.819 Y-7.227 Z-1.3
X-40.901 Y-7.234
X-40.982 Y-7.25
X-41.061 Y-7.275
X-41.116 Y-7.298 F1500
X-41.17 Y-7.326
X-41.239 Y-7.372 F1016
X-41.302 Y-7.425
X-41.36 Y-7.484
G3 X-41.537 Y-7.94 Z-1.5 I0.561 J-0.481
G1 Y-8.341 F1500
X-41.53 Y-8.491
X-41.464 Y-8.625
X-41.366 Y-8.739
X-41.177 Y-8.826
X-40.97 Y-8.84
X-40.772 Y-8.779
X-40.608 Y-8.652
X-40.5 Y-8.475
X-40.463 Y-8.271
Y-7.876
G3 X-40.694 Y-7.622 Z-1.35 I-0.265 J-0.009 F1016
G1 X-40.756 Y-7.617 Z-1.325
X-40.819 Z-1.3
X-40.901 Y-7.625
X-40.982 Y-7.642
X-41.061 Y-7.668
X-41.118 Y-7.694 F1500
X-41.174 Y-7.724
X-41.242 Y-7.77 F1016
X-41.305 Y-7.824
X-41.362 Y-7.884
G3 X-41.537 Y-8.341 Z-1.5 I0.574 J-0.483
G1 Y-8.742 F1500
X-41.53 Y-8.892
X-41.462 Y-9.025
X-41.362 Y-9.137
X-41.174 Y-9.222
X-40.967 Y-9.235
X-40.77 Y-9.173
X-40.607 Y-9.046
X-40.5 Y-8.869
X-40.463 Y-8.666
Y-8.271
G3 X-40.698 Y-8.017 Z-1.349 I-0.265 J-0.009 F1016
G1 X-40.758 Y-8.012 Z-1.324
X-40.819 Y-8.013 Z-1.3
X-40.901 Y-8.021
X-40.982 Y-8.039
X-41.06 Y-8.065
X-41.119 Y-8.092 F1500
X-41.176 Y-8.123
X-41.244 Y-8.17 F1016
X-41.307 Y-8.224
X-41.363 Y-8.284
G3 X-41.537 Y-8.742 Z-1.5 I0.581 J-0.484
G1 Y-9.105 F1500
X-41.53 Y-9.255
X-41.471 Y-9.393
X-41.378 Y-9.51
X-41.218 Y-9.594
X-41.041 Y-9.625
X-40.862 Y-9.598
X-40.701 Y-9.517
X-40.573 Y-9.391
X-40.491 Y-9.23
X-40.463 Y-9.053
Y-8.666
G3 X-40.68 Y-8.414 Z-1.356 I-0.265 J-0.009 F1016
G1 X-40.749 Y-8.405 Z-1.328
X-40.818 Y-8.402 Z-1.3
X-40.901 Y-8.408
X-40.982 Y-8.423
X-41.061 Y-8.447
X-41.114 Y-8.469 F1500
X-41.165 Y-8.495
X-41.235 Y-8.54 F1016
X-41.3 Y-8.592
X-41.357 Y-8.651
G3 X-41.537 Y-9.105 Z-1.5 I0.548 J-0.48
G1 Y-9.506 F1500
X-41.53 Y-9.656
X-41.469 Y-9.793
X-41.316 Y-9.918
X-41.129 Y-9.984
X-40.931 Y-9.982
X-40.746 Y-9.913
X-40.595 Y-9.785
X-40.497 Y-9.613
X-40.463 Y-9.419
Y-9.053
G3 X-40.688 Y-8.8 Z-1.352 I-0.265 J-0.009 F1016
G1 X-40.753 Y-8.793 Z-1.326
X-40.819 Y-8.792 Z-1.3
X-40.901 Y-8.799
X-40.982 Y-8.815
X-41.061 Y-8.84
X-41.117 Y-8.864 F1500
X-41.17 Y-8.892
X-41.239 Y-8.938 F1016
X-41.303 Y-8.991
X-41.36 Y-9.05
G3 X-41.537 Y-9.506 Z-1.5 I0.562 J-0.482
G1 Y-9.863 F1500
X-41.53 Y-10.013
X-41.471 Y-10.151
X-41.377 Y-10.267
X-41.188 Y-10.359
X-40.979 Y-10.376
X-40.778 Y-10.317
X-40.611 Y-10.19
X-40.501 Y-10.012
X-40.463 Y-9.805
Y-9.419
G3 X-40.683 Y-9.167 Z-1.355 I-0.265 J-0.009 F1016
G1 X-40.75 Y-9.158 Z-1.327
X-40.818 Y-9.156 Z-1.3
X-40.901 Y-9.163
X-40.982 Y-9.178
X-41.061 Y-9.202
X-41.115 Y-9.225 F1500
X-41.167 Y-9.252
X-41.237 Y-9.297 F1016
X-41.301 Y-9.349
X-41.358 Y-9.408
G3 X-41.537 Y-9.863 Z-1.5 I0.553 J-0.48
G1 Y-10.271 F1500
X-41.53 Y-10.42
X-41.464 Y-10.555
X-41.365 Y-10.668
X-41.177 Y-10.755
X-40.97 Y-10.769
X-40.772 Y-10.709
X-40.608 Y-10.581
X-40.5 Y-10.404
X-40.463 Y-10.2
Y-9.805
G3 X-40.694 Y-9.552 Z-1.35 I-0.265 J-0.009 F1016
G1 X-40.756 Y-9.547 Z-1.325
X-40.819 Z-1.3
X-40.901 Y-9.555
X-40.982 Y-9.572
X-41.061 Y-9.598
X-41.118 Y-9.623 F1500
X-41.174 Y-9.653
X-41.242 Y-9.7 F1016
X-41.305 Y-9.753
X-41.362 Y-9.814
G3 X-41.537 Y-10.271 Z-1.5 I0.575 J-0.483
G1 Y-10.635 F1500
X-41.53 Y-10.785
X-41.472 Y-10.924
X-41.38 Y-11.042
X-41.22 Y-11.126
X-41.042 Y-11.158
X-40.864 Y-11.132
X-40.702 Y-11.051
X-40.574 Y-10.925
X-40.491 Y-10.764
X-40.463 Y-10.586
Y-10.2
G3 X-40.678 Y-9.949 Z-1.357 I-0.265 J-0.009 F1016
G1 X-40.748 Y-9.939 Z-1.328
X-40.818 Y-9.936 Z-1.3
X-40.901 Y-9.941
X-40.982 Y-9.956
X-41.061 Y-9.98
X-41.114 Y-10.001 F1500
X-41.164 Y-10.027
X-41.234 Y-10.071 F1016
X-41.299 Y-10.123
X-41.357 Y-10.181
G3 X-41.537 Y-10.635 Z-1.5 I0.543 J-0.479
G1 Y-11.028 F1500
X-41.53 Y-11.178
X-41.472 Y-11.316
X-41.32 Y-11.445
X-41.134 Y-11.513
X-40.935 Y-11.514
X-40.749 Y-11.446
X-40.596 Y-11.319
X-40.497 Y-11.147
X-40.463 Y-10.951
Y-10.586
G3 X-40.682 Y-10.334 Z-1.355 I-0.265 J-0.009 F1016
G1 X-40.75 Y-10.325 Z-1.328
X-40.818 Y-10.323 Z-1.3
X-40.901 Y-10.329
X-40.982 Y-10.344
X-41.061 Y-10.369
X-41.115 Y-10.391 F1500
X-41.166 Y-10.418
X-41.236 Y-10.462 F1016
X-41.3 Y-10.514
X-41.358 Y-10.574
G3 X-41.537 Y-11.028 Z-1.5 I0.551 J-0.48
G1 Y-11.4 F1500
X-41.53 Y-11.55
X-41.469 Y-11.687
X-41.373 Y-11.802
X-41.184 Y-11.892
X-40.976 Y-11.908
X-40.776 Y-11.849
X-40.61 Y-11.721
X-40.501 Y-11.543
X-40.463 Y-11.337
Y-10.951
G3 X-40.685 Y-10.699 Z-1.354 I-0.265 J-0.009 F1016
G1 X-40.752 Y-10.691 Z-1.327
X-40.818 Y-10.69 Z-1.3
X-40.901 Y-10.696
X-40.982 Y-10.712
X-41.061 Y-10.737
X-41.116 Y-10.76 F1500
X-41.168 Y-10.787
X-41.238 Y-10.832 F1016
X-41.302 Y-10.885
X-41.359 Y-10.944
G3 X-41.537 Y-11.4 Z-1.5 I0.557 J-0.481
G1 Y-11.801 F1500
X-41.53 Y-11.95
X-41.464 Y-12.085
X-41.366 Y-12.199
X-41.178 Y-12.286
X-40.971 Y-12.3
X-40.772 Y-12.24
X-40.608 Y-12.113
X-40.5 Y-11.936
X-40.463 Y-11.731
Y-11.337
G3 X-40.693 Y-11.084 Z-1.35 I-0.265 J-0.009 F1016
G1 X-40.756 Y-11.078 Z-1.325
X-40.819 Z-1.3
X-40.901 Y-11.086
X-40.982 Y-11.103
X-41.061 Y-11.129
X-41.118 Y-11.154 F1500
X-41.173 Y-11.184
X-41.242 Y-11.23 F1016
X-41.305 Y-11.284
X-41.362 Y-11.344
G3 X-41.537 Y-11.801 Z-1.5 I0.573 J-0.483
G1 Y-12.194 F1500
X-41.53 Y-12.343
X-41.464 Y-12.478
X-41.366 Y-12.592
X-41.178 Y-12.679
X-40.971 Y-12.693
X-40.772 Y-12.633
X-40.608 Y-12.506
X-40.5 Y-12.328
X-40.463 Y-12.124
Y-11.731
G3 X-40.693 Y-11.478 Z-1.351 I-0.265 J-0.009 F1016
G1 X-40.756 Y-11.472 Z-1.325
X-40.819 Z-1.3
X-40.901 Y-11.48
X-40.982 Y-11.497
X-41.061 Y-11.522
X-41.118 Y-11.547 F1500
X-41.173 Y-11.577
X-41.242 Y-11.623 F1016
X-41.305 Y-11.677
X-41.361 Y-11.737
G3 X-41.537 Y-12.194 Z-1.5 I0.571 J-0.483
G1 Y-12.565 F1500
X-41.53 Y-12.715
X-41.47 Y-12.852
X-41.377 Y-12.97
X-41.217 Y-13.053
X-41.04 Y-13.083
X-40.862 Y-13.057
X-40.701 Y-12.976
X-40.573 Y-12.849
X-40.491 Y-12.689
X-40.463 Y-12.511
Y-12.124
G3 X-40.681 Y-11.872 Z-1.355 I-0.265 J-0.009 F1016
G1 X-40.749 Y-11.864 Z-1.328
X-40.818 Y-11.861 Z-1.3
X-40.901 Y-11.867
X-40.982 Y-11.882
X-41.061 Y-11.906
X-41.115 Y-11.928 F1500
X-41.166 Y-11.955
X-41.236 Y-11.999 F1016
X-41.3 Y-12.051
X-41.358 Y-12.11
G3 X-41.537 Y-12.565 Z-1.5 I0.549 J-0.48
G1 Y-12.966 F1500
X-41.53 Y-13.116
X-41.468 Y-13.253
X-41.315 Y-13.377
X-41.129 Y-13.443
X-40.931 Y-13.441
X-40.746 Y-13.372
X-40.595 Y-13.244
X-40.497 Y-13.072
X-40.463 Y-12.877
Y-12.511
G3 X-40.689 Y-12.259 Z-1.352 I-0.265 J-0.009 F1016
G1 X-40.753 Y-12.252 Z-1.326
X-40.819 Y-12.251 Z-1.3
X-40.901 Y-12.258
X-40.982 Y-12.274
X-41.061 Y-12.299
X-41.117 Y-12.323 F1500
X-41.17 Y-12.352
X-41.239 Y-12.397 F1016
X-41.303 Y-12.45
X-41.36 Y-12.51
G3 X-41.537 Y-12.966 Z-1.5 I0.563 J-0.482
G1 Y-13.329 F1500
X-41.53 Y-13.479
X-41.469 Y-13.616
X-41.373 Y-13.731
X-41.184 Y-13.821
X-40.975 Y-13.836
X-40.775 Y-13.777
X-40.61 Y-13.649
X-40.501 Y-13.471
X-40.463 Y-13.265
Y-12.877
G3 X-40.687 Y-12.625 Z-1.353 I-0.265 J-0.009 F1016
G1 X-40.753 Y-12.618 Z-1.326
X-40.819 Y-12.616 Z-1.3
X-40.901 Y-12.623
X-40.982 Y-12.639
X-41.061 Y-12.664
X-41.116 Y-12.688 F1500
X-41.17 Y-12.716
X-41.239 Y-12.761 F1016
X-41.302 Y-12.814
X-41.36 Y-12.874
G3 X-41.537 Y-13.329 Z-1.5 I0.561 J-0.481
G1 Y-13.73 F1500
X-41.53 Y-13.88
X-41.464 Y-14.015
X-41.366 Y-14.128
X-41.177 Y-14.215
X-40.97 Y-14.229
X-40.772 Y-14.169
X-40.608 Y-14.041
X-40.5 Y-13.864
X-40.463 Y-13.66
Y-13.265
G3 X-40.694 Y-13.012 Z-1.35 I-0.265 J-0.009 F1016
G1 X-40.756 Y-13.007 Z-1.325
X-40.819 Z-1.3
X-40.901 Y-13.015
X-40.982 Y-13.032
X-41.061 Y-13.058
X-41.118 Y-13.083 F1500
X-41.174 Y-13.113
X-41.242 Y-13.16 F1016
X-41.305 Y-13.213
X-41.362 Y-13.274
G3 X-41.537 Y-13.73 Z-1.5 I0.574 J-0.483
G1 Y-14.131 F1500
X-41.53 Y-14.281
X-41.462 Y-14.415
X-41.362 Y-14.527
X-41.174 Y-14.612
X-40.967 Y-14.624
X-40.77 Y-14.563
X-40.607 Y-14.435
X-40.5 Y-14.258
X-40.463 Y-14.055
Y-13.66
G3 X-40.698 Y-13.406 Z-1.349 I-0.265 J-0.009 F1016
G1 X-40.758 Y-13.402 Z-1.324
X-40.819 Z-1.3
X-40.901 Y-13.411
X-40.982 Y-13.428
X-41.06 Y-13.455
X-41.119 Y-13.481 F1500
X-41.176 Y-13.512
X-41.244 Y-13.559 F1016
X-41.307 Y-13.613
X-41.363 Y-13.674
G3 X-41.537 Y-14.131 Z-1.5 I0.581 J-0.484
G1 Y-14.495 F1500
X-41.53 Y-14.644
X-41.471 Y-14.782
X-41.378 Y-14.9
X-41.218 Y-14.984
X-41.041 Y-15.014
X-40.862 Y-14.988
X-40.701 Y-14.907
X-40.573 Y-14.78
X-40.491 Y-14.62
X-40.463 Y-14.442
Y-14.055
G3 X-40.68 Y-13.803 Z-1.356 I-0.265 J-0.009 F1016
G1 X-40.749 Y-13.794 Z-1.328
X-40.818 Y-13.792 Z-1.3
X-40.901 Y-13.798
X-40.982 Y-13.813
X-41.061 Y-13.837
X-41.114 Y-13.859 F1500
X-41.165 Y-13.885
X-41.235 Y-13.929 F1016
X-41.3 Y-13.981
X-41.357 Y-14.04
G3 X-41.537 Y-14.495 Z-1.5 I0.548 J-0.48
G1 Y-14.896 F1500
X-41.53 Y-15.045
X-41.469 Y-15.182
X-41.316 Y-15.307
X-41.129 Y-15.373
X-40.931 Y-15.371
X-40.746 Y-15.302
X-40.595 Y-15.174
X-40.497 Y-15.003
X-40.463 Y-14.808
Y-14.442
G3 X-40.688 Y-14.189 Z-1.352 I-0.265 J-0.009 F1016
G1 X-40.753 Y-14.182 Z-1.326
X-40.819 Y-14.181 Z-1.3
X-40.901 Y-14.188
X-40.982 Y-14.204
X-41.061 Y-14.229
X-41.117 Y-14.253 F1500
X-41.17 Y-14.282
X-41.239 Y-14.327 F1016
X-41.303 Y-14.38
X-41.36 Y-14.44
G3 X-41.537 Y-14.896 Z-1.5 I0.562 J-0.482
G1 Y-15.252 F1500
X-41.53 Y-15.402
X-41.471 Y-15.54
X-41.377 Y-15.657
X-41.188 Y-15.748
X-40.979 Y-15.766
X-40.778 Y-15.707
X-40.611 Y-15.58
X-40.501 Y-15.401
X-40.463 Y-15.195
Y-14.808
G3 X-40.683 Y-14.556 Z-1.355 I-0.265 J-0.009 F1016
G1 X-40.75 Y-14.548 Z-1.327
X-40.818 Y-14.546 Z-1.3
X-40.901 Y-14.552
X-40.982 Y-14.567
X-41.061 Y-14.592
X-41.115 Y-14.614 F1500
X-41.167 Y-14.641
X-41.237 Y-14.686 F1016
X-41.301 Y-14.738
X-41.358 Y-14.798
G3 X-41.537 Y-15.252 Z-1.5 I0.553 J-0.48
G1 Y-15.66 F1500
X-41.53 Y-15.81
X-41.464 Y-15.944
X-41.365 Y-16.057
X-41.177 Y-16.144
X-40.97 Y-16.158
X-40.772 Y-16.098
X-40.608 Y-15.971
X-40.5 Y-15.793
X-40.463 Y-15.59
Y-15.195
G3 X-40.694 Y-14.941 Z-1.35 I-0.265 J-0.009 F1016
G1 X-40.756 Y-14.936 Z-1.325
X-40.819 Z-1.3
X-40.901 Y-14.944
X-40.982 Y-14.961
X-41.061 Y-14.987
X-41.118 Y-15.012 F1500
X-41.174 Y-15.043
X-41.242 Y-15.089 F1016
X-41.305 Y-15.143
X-41.362 Y-15.203
G3 X-41.537 Y-15.66 Z-1.5 I0.575 J-0.483
G1 Y-16.025 F1500
X-41.53 Y-16.175
X-41.472 Y-16.313
X-41.379 Y-16.431
X-41.22 Y-16.516
X-41.042 Y-16.547
X-40.864 Y-16.521
X-40.702 Y-16.441
X-40.574 Y-16.314
X-40.491 Y-16.154
X-40.463 Y-15.975
Y-15.59
G3 X-40.678 Y-15.338 Z-1.357 I-0.265 J-0.009 F1016
G1 X-40.748 Y-15.329 Z-1.328
X-40.818 Y-15.326 Z-1.3
X-40.901 Y-15.331
X-40.982 Y-15.345
X-41.061 Y-15.369
X-41.114 Y-15.391 F1500
X-41.164 Y-15.416
X-41.234 Y-15.46 F1016
X-41.299 Y-15.512
X-41.357 Y-15.571
G3 X-41.537 Y-16.025 Z-1.5 I0.543 J-0.479
G1 Y-16.418 F1500
X-41.53 Y-16.568
X-41.472 Y-16.706
X-41.32 Y-16.834
X-41.134 Y-16.902
X-40.935 Y-16.903
X-40.749 Y-16.835
X-40.596 Y-16.708
X-40.497 Y-16.536
X-40.463 Y-16.341
Y-15.975
G3 X-40.682 Y-15.723 Z-1.355 I-0.265 J-0.009 F1016
G1 X-40.75 Y-15.715 Z-1.328
X-40.818 Y-15.713 Z-1.3
X-40.901 Y-15.719
X-40.982 Y-15.734
X-41.061 Y-15.758
X-41.115 Y-15.78 F1500
X-41.166 Y-15.807
X-41.236 Y-15.852 F1016
X-41.3 Y-15.904
X-41.358 Y-15.963
G3 X-41.537 Y-16.418 Z-1.5 I0.551 J-0.48
G1 Y-16.789 F1500
X-41.53 Y-16.939
X-41.469 Y-17.076
X-41.373 Y-17.191
X-41.184 Y-17.281
X-40.976 Y-17.297
X-40.776 Y-17.238
X-40.61 Y-17.111
X-40.501 Y-16.932
X-40.463 Y-16.727
Y-16.341
G3 X-40.685 Y-16.088 Z-1.354 I-0.265 J-0.009 F1016
G1 X-40.752 Y-16.081 Z-1.327
X-40.818 Y-16.079 Z-1.3
X-40.901 Y-16.086
X-40.982 Y-16.101
X-41.061 Y-16.126
X-41.116 Y-16.149 F1500
X-41.168 Y-16.177
X-41.238 Y-16.222 F1016
X-41.302 Y-16.274
X-41.359 Y-16.334
G3 X-41.537 Y-16.789 Z-1.5 I0.557 J-0.481
G1 Y-17.19 F1500
X-41.53 Y-17.34
X-41.464 Y-17.475
X-41.366 Y-17.588
X-41.178 Y-17.675
X-40.971 Y-17.69
X-40.772 Y-17.629
X-40.608 Y-17.502
X-40.5 Y-17.325
X-40.463 Y-17.121
Y-16.727
G3 X-40.693 Y-16.473 Z-1.35 I-0.265 J-0.009 F1016
G1 X-40.756 Y-16.468 Z-1.325
X-40.819 Z-1.3
X-40.901 Y-16.476
X-40.982 Y-16.493
X-41.061 Y-16.518
X-41.118 Y-16.543 F1500
X-41.173 Y-16.573
X-41.242 Y-16.62 F1016
X-41.305 Y-16.673
X-41.362 Y-16.733
G3 X-41.537 Y-17.19 Z-1.5 I0.573 J-0.483
G1 Y-17.583 F1500
X-41.53 Y-17.733
X-41.464 Y-17.868
X-41.366 Y-17.981
X-41.178 Y-18.068
X-40.971 Y-18.083
X-40.772 Y-18.022
X-40.608 Y-17.895
X-40.5 Y-17.718
X-40.463 Y-17.514
Y-17.121
G3 X-40.693 Y-16.867 Z-1.351 I-0.265 J-0.009 F1016
G1 X-40.756 Y-16.862 Z-1.325
X-40.819 Z-1.3
X-40.901 Y-16.869
X-40.982 Y-16.886
X-41.061 Y-16.912
X-41.118 Y-16.937 F1500
X-41.173 Y-16.967
X-41.242 Y-17.013 F1016
X-41.305 Y-17.066
X-41.361 Y-17.126
G3 X-41.537 Y-17.583 Z-1.5 I0.571 J-0.483
G1 Y-17.954 F1500
X-41.53 Y-18.104
X-41.47 Y-18.242
X-41.377 Y-18.359
X-41.217 Y-18.443
X-41.04 Y-18.473
X-40.862 Y-18.446
X-40.701 Y-18.365
X-40.573 Y-18.239
X-40.491 Y-18.079
X-40.463 Y-17.901
Y-17.514
G3 X-40.681 Y-17.262 Z-1.355 I-0.265 J-0.009 F1016
G1 X-40.749 Y-17.253 Z-1.328
X-40.818 Y-17.251 Z-1.3
X-40.901 Y-17.256
X-40.982 Y-17.272
X-41.061 Y-17.296
X-41.115 Y-17.318 F1500
X-41.166 Y-17.344
X-41.236 Y-17.389 F1016
X-41.3 Y-17.441
X-41.358 Y-17.5
G3 X-41.537 Y-17.954 Z-1.5 I0.549 J-0.48
G1 Y-18.355 F1500
Y-18.386
Y-18.425
X-41.53 Y-18.575
X-41.537 Y-18.676
Y-18.71
X-41.511 Y-18.722 Z-1.488 F1016
G3 X-41.103 Y-18.594 Z-1.3 I0.134 J0.288
G1 X-41.1 Y-18.588
X-40.982 Y-18.377
X-40.766 Y-17.988 F1500
G3 X-41.316 Y-17.672 I-0.277 J0.154
G1 X-41.34 Y-17.712
X-41.395 Y-17.823 F1016
X-41.443 Y-17.938
G3 X-41.537 Y-18.425 Z-1.5 I1.487 J-0.542
G1 Y-20.431 F1500
X-41.532 Y-20.479 Z-1.48 F1016
X-41.519 Y-20.527 Z-1.461
X-41.384 Y-20.904 Z-1.3
X-41.301 Y-21.137
X-41.079 Y-21.757 F1500
X-41.051 Y-21.816
X-41.011 Y-21.868
X-40.964 Y-21.909 F1016
X-40.911 Y-21.94
X-40.852 Y-21.96
X-40.791 Y-21.968
G3 X-40.463 Y-21.661 Z-1.5 I0.011 J0.317
G1 Y-17.901 F1500
G3 X-41.036 Y-17.724 I-0.317 J-0.011 F1016
G1 X-41.078 Y-17.781 Z-1.492
X-41.117 Y-17.835 Z-1.469
X-41.153 Y-17.884 Z-1.431
X-41.183 Y-17.924 Z-1.38
X-41.205 Y-17.955 Z-1.32
X-41.219 Y-17.974 Z-1.253
X-41.224 Y-17.98 Z-1.183
Z15 F1500
X-41.327 Y-52.752
Z5
Z-0.865
Z-1.183 F1016
X-41.325 Y-52.744 Z-1.253
X-41.32 Y-52.722 Z-1.32
X-41.31 Y-52.685 Z-1.38
X-41.298 Y-52.636 Z-1.431
X-41.283 Y-52.578 Z-1.469
X-41.266 Y-52.513 Z-1.492
X-41.249 Y-52.445 Z-1.5
G3 X-41 Y-50.716 I-7.852 J2.011
G1 Y-50.566 F1500
X-41.072 Y-50.461
X-41.183 Y-50.398
X-41.31 Y-50.392
X-41.427 Y-50.443
X-41.508 Y-50.541
X-41.537 Y-50.666
X-41.533 Y-50.706 Z-1.484 F1016
G3 X-41.278 Y-51.07 Z-1.3 I0.531 J0.1
G1 X-41.204 Y-51.107
X-41.125 Y-51.132
X-41.044 Y-51.144
X-40.982 Y-51.145 F1500
X-40.92 Y-51.139
X-40.839 Y-51.121 F1016
X-40.763 Y-51.09
X-40.692 Y-51.047
G3 X-40.463 Y-50.624 Z-1.5 I-0.311 J0.442
G1 Y-50.333 F1500
X-40.464 Y-50.296
X-40.589 Y-50.157
X-40.751 Y-50.065
X-40.934 Y-50.029
X-41.119 Y-50.053
X-41.287 Y-50.134
X-41.421 Y-50.263
X-41.508 Y-50.428
X-41.537 Y-50.612
X-41.528 Y-50.675 F1016
X-41.504 Y-50.733
X-41.467 Y-50.784
X-41.418 Y-50.825
G3 X-40.463 Y-50.333 I0.34 J0.514
G1 Y-50.042 F1500
X-40.466 Y-49.967
X-40.536 Y-49.834
X-40.693 Y-49.716
X-40.881 Y-49.658
X-41.078 Y-49.665
X-41.26 Y-49.738
X-41.408 Y-49.868
X-41.504 Y-50.039
X-41.537 Y-50.233
X-41.529 Y-50.293 F1016
X-41.507 Y-50.349
X-41.472 Y-50.398
G3 X-40.463 Y-50.042 I0.435 J0.377
G1 Y-49.706 F1500
X-40.47 Y-49.557
X-40.551 Y-49.43
X-40.711 Y-49.321
X-40.897 Y-49.27
X-41.091 Y-49.283
X-41.269 Y-49.359
X-41.412 Y-49.489
X-41.505 Y-49.659
X-41.537 Y-49.85
X-41.532 Y-49.895 F1016
X-41.519 Y-49.94
X-41.498 Y-49.981
G3 X-40.463 Y-49.706 I0.476 J0.294
G1 Y-49.379 F1500
X-40.47 Y-49.229
X-40.533 Y-49.093
X-40.631 Y-48.98
X-40.821 Y-48.893
X-41.028 Y-48.879
X-41.227 Y-48.94
X-41.392 Y-49.068
X-41.5 Y-49.246
X-41.537 Y-49.451
X-41.534 Y-49.487 Z-1.486 F1016
X-41.526 Y-49.521 Z-1.471
G3 X-41.26 Y-49.841 Z-1.3 I0.52 J0.161
G1 X-41.184 Y-49.874
X-41.104 Y-49.895
X-41.021 Y-49.904
X-40.969 Y-49.903 F1500
X-40.918 Y-49.897
X-40.838 Y-49.877 F1016
X-40.761 Y-49.846
X-40.69 Y-49.803
G3 X-40.463 Y-49.379 Z-1.5 I-0.316 J0.443
G1 Y-48.978 F1500
X-40.47 Y-48.828
X-40.538 Y-48.695
X-40.638 Y-48.583
X-40.826 Y-48.497
X-41.033 Y-48.485
X-41.23 Y-48.546
X-41.393 Y-48.674
X-41.5 Y-48.851
X-41.537 Y-49.054
X-41.534 Y-49.092 Z-1.485 F1016
X-41.524 Y-49.128 Z-1.47
G3 X-41.257 Y-49.443 Z-1.3 I0.518 J0.169
G1 X-41.181 Y-49.475
X-41.101 Y-49.496
X-41.019 Y-49.504
X-40.968 Y-49.502 F1500
X-40.918 Y-49.496
X-40.837 Y-49.477 F1016
X-40.761 Y-49.445
X-40.69 Y-49.402
G3 X-40.463 Y-48.978 Z-1.5 I-0.317 J0.443
G1 Y-48.615 F1500
X-40.47 Y-48.465
X-40.529 Y-48.327
X-40.622 Y-48.21
X-40.782 Y-48.126
X-40.959 Y-48.095
X-41.137 Y-48.122
X-41.299 Y-48.202
X-41.427 Y-48.329
X-41.509 Y-48.489
X-41.537 Y-48.667
Y-49.054
G3 X-41.32 Y-49.306 Z-1.356 I0.265 J0.009 F1016
G1 X-41.251 Y-49.315 Z-1.328
X-41.182 Y-49.317 Z-1.3
X-41.099 Y-49.312
X-41.018 Y-49.297
X-40.939 Y-49.273
X-40.886 Y-49.251 F1500
X-40.835 Y-49.225
X-40.765 Y-49.18 F1016
X-40.7 Y-49.128
X-40.643 Y-49.069
G3 X-40.463 Y-48.615 Z-1.5 I-0.548 J0.48
G1 Y-48.214 F1500
X-40.47 Y-48.064
X-40.531 Y-47.927
X-40.684 Y-47.802
X-40.871 Y-47.736
X-41.069 Y-47.738
X-41.254 Y-47.807
X-41.405 Y-47.935
X-41.503 Y-48.106
X-41.537 Y-48.301
Y-48.667
G3 X-41.312 Y-48.92 Z-1.353 I0.265 J0.009 F1016
G1 X-41.247 Y-48.927 Z-1.326
X-41.181 Y-48.928 Z-1.3
X-41.099 Y-48.921
X-41.018 Y-48.905
X-40.939 Y-48.88
X-40.883 Y-48.856 F1500
X-40.83 Y-48.828
X-40.761 Y-48.782 F1016
X-40.697 Y-48.729
X-40.64 Y-48.67
G3 X-40.463 Y-48.214 Z-1.5 I-0.562 J0.482
G1 Y-47.857 F1500
X-40.47 Y-47.707
X-40.529 Y-47.569
X-40.623 Y-47.453
X-40.812 Y-47.361
X-41.021 Y-47.344
X-41.222 Y-47.402
X-41.389 Y-47.53
X-41.499 Y-47.708
X-41.537 Y-47.914
Y-48.301
G3 X-41.317 Y-48.553 Z-1.355 I0.265 J0.009 F1016
G1 X-41.25 Y-48.561 Z-1.327
X-41.182 Y-48.563 Z-1.3
X-41.099 Y-48.557
X-41.018 Y-48.542
X-40.939 Y-48.518
X-40.885 Y-48.495 F1500
X-40.833 Y-48.468
X-40.763 Y-48.423 F1016
X-40.699 Y-48.371
X-40.642 Y-48.312
G3 X-40.463 Y-47.857 Z-1.5 I-0.553 J0.48
G1 Y-47.449 F1500
X-40.47 Y-47.3
X-40.536 Y-47.165
X-40.635 Y-47.052
X-40.823 Y-46.965
X-41.03 Y-46.951
X-41.228 Y-47.011
X-41.392 Y-47.139
X-41.5 Y-47.316
X-41.537 Y-47.52
Y-47.914
G3 X-41.306 Y-48.168 Z-1.35 I0.265 J0.009 F1016
G1 X-41.244 Y-48.173 Z-1.325
X-41.181 Z-1.3
X-41.099 Y-48.165
X-41.018 Y-48.148
X-40.939 Y-48.122
X-40.882 Y-48.097 F1500
X-40.826 Y-48.067
X-40.758 Y-48.02 F1016
X-40.695 Y-47.967
X-40.638 Y-47.906
G3 X-40.463 Y-47.449 Z-1.5 I-0.575 J0.483
G1 Y-47.085 F1500
X-40.47 Y-46.935
X-40.528 Y-46.796
X-40.62 Y-46.678
X-40.78 Y-46.593
X-40.958 Y-46.562
X-41.136 Y-46.588
X-41.298 Y-46.669
X-41.426 Y-46.795
X-41.509 Y-46.956
X-41.537 Y-47.134
Y-47.52
G3 X-41.322 Y-47.771 Z-1.357 I0.265 J0.009 F1016
G1 X-41.252 Y-47.781 Z-1.328
X-41.182 Y-47.784 Z-1.3
X-41.099 Y-47.778
X-41.018 Y-47.764
X-40.939 Y-47.74
X-40.886 Y-47.719 F1500
X-40.836 Y-47.693
X-40.766 Y-47.649 F1016
X-40.701 Y-47.597
X-40.643 Y-47.539
G3 X-40.463 Y-47.085 Z-1.5 I-0.543 J0.479
G1 Y-46.692 F1500
X-40.47 Y-46.542
X-40.528 Y-46.404
X-40.68 Y-46.275
X-40.866 Y-46.207
X-41.065 Y-46.206
X-41.251 Y-46.274
X-41.404 Y-46.401
X-41.503 Y-46.573
X-41.537 Y-46.769
Y-47.134
G3 X-41.318 Y-47.386 Z-1.355 I0.265 J0.009 F1016
G1 X-41.25 Y-47.395 Z-1.328
X-41.182 Y-47.397 Z-1.3
X-41.099 Y-47.391
X-41.018 Y-47.376
X-40.939 Y-47.351
X-40.885 Y-47.329 F1500
X-40.834 Y-47.302
X-40.764 Y-47.258 F1016
X-40.7 Y-47.206
X-40.642 Y-47.146
G3 X-40.463 Y-46.692 Z-1.5 I-0.551 J0.48
G1 Y-46.32 F1500
X-40.47 Y-46.17
X-40.531 Y-46.033
X-40.627 Y-45.918
X-40.816 Y-45.828
X-41.024 Y-45.812
X-41.224 Y-45.871
X-41.39 Y-45.999
X-41.499 Y-46.177
X-41.537 Y-46.383
Y-46.769
G3 X-41.315 Y-47.021 Z-1.354 I0.265 J0.009 F1016
G1 X-41.248 Y-47.029 Z-1.327
X-41.182 Y-47.03 Z-1.3
X-41.099 Y-47.024
X-41.018 Y-47.008
X-40.939 Y-46.983
X-40.884 Y-46.96 F1500
X-40.832 Y-46.933
X-40.762 Y-46.888 F1016
X-40.698 Y-46.835
X-40.641 Y-46.775
G3 X-40.463 Y-46.32 Z-1.5 I-0.557 J0.481
G1 Y-45.919 F1500
X-40.47 Y-45.769
X-40.536 Y-45.635
X-40.634 Y-45.521
X-40.822 Y-45.434
X-41.029 Y-45.42
X-41.228 Y-45.48
X-41.392 Y-45.607
X-41.5 Y-45.784
X-41.537 Y-45.989
Y-46.383
G3 X-41.307 Y-46.636 Z-1.35 I0.265 J0.009 F1016
G1 X-41.244 Y-46.641 Z-1.325
X-41.181 Y-46.642 Z-1.3
X-41.099 Y-46.634
X-41.018 Y-46.617
X-40.939 Y-46.591
X-40.882 Y-46.566 F1500
X-40.827 Y-46.536
X-40.758 Y-46.49 F1016
X-40.695 Y-46.436
X-40.638 Y-46.376
G3 X-40.463 Y-45.919 Z-1.5 I-0.573 J0.483
G1 Y-45.526 F1500
X-40.47 Y-45.377
X-40.536 Y-45.242
X-40.634 Y-45.128
X-40.822 Y-45.041
X-41.029 Y-45.027
X-41.228 Y-45.087
X-41.392 Y-45.214
X-41.5 Y-45.392
X-41.537 Y-45.596
Y-45.989
G3 X-41.307 Y-46.242 Z-1.351 I0.265 J0.009 F1016
G1 X-41.244 Y-46.247 Z-1.325
X-41.181 Y-46.248 Z-1.3
X-41.099 Y-46.24
X-41.018 Y-46.223
X-40.939 Y-46.198
X-40.882 Y-46.173 F1500
X-40.827 Y-46.143
X-40.758 Y-46.097 F1016
X-40.695 Y-46.043
X-40.639 Y-45.983
G3 X-40.463 Y-45.526 Z-1.5 I-0.571 J0.483
G1 Y-45.155 F1500
X-40.47 Y-45.005
X-40.53 Y-44.867
X-40.623 Y-44.75
X-40.783 Y-44.667
X-40.96 Y-44.637
X-41.138 Y-44.663
X-41.299 Y-44.744
X-41.427 Y-44.871
X-41.509 Y-45.031
X-41.537 Y-45.209
Y-45.596
G3 X-41.319 Y-45.848 Z-1.355 I0.265 J0.009 F1016
G1 X-41.251 Y-45.856 Z-1.328
X-41.182 Y-45.859 Z-1.3
X-41.099 Y-45.853
X-41.018 Y-45.838
X-40.939 Y-45.814
X-40.885 Y-45.792 F1500
X-40.834 Y-45.765
X-40.764 Y-45.721 F1016
X-40.7 Y-45.669
X-40.642 Y-45.61
G3 X-40.463 Y-45.155 Z-1.5 I-0.549 J0.48
G1 Y-44.754 F1500
X-40.47 Y-44.604
X-40.532 Y-44.467
X-40.685 Y-44.343
X-40.871 Y-44.277
X-41.069 Y-44.279
X-41.254 Y-44.348
X-41.405 Y-44.476
X-41.503 Y-44.648
X-41.537 Y-44.843
Y-45.209
G3 X-41.311 Y-45.461 Z-1.352 I0.265 J0.009 F1016
G1 X-41.247 Y-45.468 Z-1.326
X-41.181 Y-45.469 Z-1.3
X-41.099 Y-45.462
X-41.018 Y-45.446
X-40.939 Y-45.421
X-40.883 Y-45.397 F1500
X-40.83 Y-45.368
X-40.761 Y-45.323 F1016
X-40.697 Y-45.27
X-40.64 Y-45.21
G3 X-40.463 Y-44.754 Z-1.5 I-0.563 J0.482
G1 Y-44.391 F1500
X-40.47 Y-44.241
X-40.531 Y-44.104
X-40.627 Y-43.989
X-40.816 Y-43.899
X-41.025 Y-43.883
X-41.225 Y-43.943
X-41.39 Y-44.071
X-41.499 Y-44.249
X-41.537 Y-44.455
Y-44.843
G3 X-41.313 Y-45.095 Z-1.353 I0.265 J0.009 F1016
G1 X-41.247 Y-45.102 Z-1.326
X-41.181 Y-45.103 Z-1.3
X-41.099 Y-45.097
X-41.018 Y-45.081
X-40.939 Y-45.056
X-40.884 Y-45.032 F1500
X-40.83 Y-45.004
X-40.761 Y-44.959 F1016
X-40.698 Y-44.906
X-40.64 Y-44.846
G3 X-40.463 Y-44.391 Z-1.5 I-0.561 J0.481
G1 Y-43.99 F1500
X-40.47 Y-43.84
X-40.536 Y-43.705
X-40.634 Y-43.592
X-40.823 Y-43.505
X-41.03 Y-43.491
X-41.228 Y-43.551
X-41.392 Y-43.679
X-41.5 Y-43.856
X-41.537 Y-44.06
Y-44.455
G3 X-41.306 Y-44.708 Z-1.35 I0.265 J0.009 F1016
G1 X-41.244 Y-44.713 Z-1.325
X-41.181 Z-1.3
X-41.099 Y-44.705
X-41.018 Y-44.688
X-40.939 Y-44.662
X-40.882 Y-44.637 F1500
X-40.826 Y-44.607
X-40.758 Y-44.56 F1016
X-40.695 Y-44.507
X-40.638 Y-44.446
G3 X-40.463 Y-43.99 Z-1.5 I-0.574 J0.483
G1 Y-43.589 F1500
X-40.47 Y-43.439
X-40.538 Y-43.305
X-40.638 Y-43.193
X-40.826 Y-43.108
X-41.033 Y-43.096
X-41.23 Y-43.157
X-41.393 Y-43.285
X-41.5 Y-43.462
X-41.537 Y-43.665
Y-44.06
G3 X-41.302 Y-44.314 Z-1.349 I0.265 J0.009 F1016
G1 X-41.242 Y-44.318 Z-1.324
X-41.181 Z-1.3
X-41.099 Y-44.309
X-41.018 Y-44.292
X-40.94 Y-44.265
X-40.881 Y-44.239 F1500
X-40.824 Y-44.208
X-40.756 Y-44.161 F1016
X-40.693 Y-44.107
X-40.637 Y-44.046
G3 X-40.463 Y-43.589 Z-1.5 I-0.581 J0.484
G1 Y-43.225 F1500
X-40.47 Y-43.076
X-40.529 Y-42.938
X-40.622 Y-42.82
X-40.782 Y-42.736
X-40.959 Y-42.706
X-41.138 Y-42.732
X-41.299 Y-42.813
X-41.427 Y-42.94
X-41.509 Y-43.1
X-41.537 Y-43.278
Y-43.665
G3 X-41.32 Y-43.917 Z-1.356 I0.265 J0.009 F1016
G1 X-41.251 Y-43.926 Z-1.328
X-41.182 Y-43.928 Z-1.3
X-41.099 Y-43.922
X-41.018 Y-43.907
X-40.939 Y-43.883
X-40.886 Y-43.861 F1500
X-40.835 Y-43.835
X-40.765 Y-43.791 F1016
X-40.7 Y-43.739
X-40.643 Y-43.68
G3 X-40.463 Y-43.225 Z-1.5 I-0.548 J0.48
G1 Y-42.824 F1500
X-40.47 Y-42.675
X-40.531 Y-42.538
X-40.684 Y-42.412
X-40.871 Y-42.347
X-41.069 Y-42.349
X-41.254 Y-42.418
X-41.405 Y-42.545
X-41.503 Y-42.717
X-41.537 Y-42.912
Y-43.278
G3 X-41.312 Y-43.531 Z-1.352 I0.265 J0.009 F1016
G1 X-41.247 Y-43.538 Z-1.326
X-41.181 Y-43.539 Z-1.3
X-41.099 Y-43.532
X-41.018 Y-43.516
X-40.939 Y-43.491
X-40.883 Y-43.467 F1500
X-40.83 Y-43.438
X-40.761 Y-43.393 F1016
X-40.697 Y-43.34
X-40.64 Y-43.28
G3 X-40.463 Y-42.824 Z-1.5 I-0.562 J0.482
G1 Y-42.468 F1500
X-40.47 Y-42.318
X-40.529 Y-42.18
X-40.623 Y-42.063
X-40.812 Y-41.972
X-41.021 Y-41.954
X-41.222 Y-42.013
X-41.389 Y-42.14
X-41.499 Y-42.319
X-41.537 Y-42.525
Y-42.912
G3 X-41.317 Y-43.164 Z-1.355 I0.265 J0.009 F1016
G1 X-41.25 Y-43.172 Z-1.327
X-41.182 Y-43.174 Z-1.3
X-41.099 Y-43.168
X-41.018 Y-43.153
X-40.939 Y-43.128
X-40.885 Y-43.106 F1500
X-40.833 Y-43.079
X-40.763 Y-43.034 F1016
X-40.699 Y-42.982
X-40.642 Y-42.922
G3 X-40.463 Y-42.468 Z-1.5 I-0.553 J0.48
G1 Y-42.06 F1500
X-40.47 Y-41.91
X-40.536 Y-41.776
X-40.635 Y-41.663
X-40.823 Y-41.576
X-41.03 Y-41.562
X-41.228 Y-41.622
X-41.392 Y-41.749
X-41.5 Y-41.926
X-41.537 Y-42.13
Y-42.525
G3 X-41.306 Y-42.779 Z-1.35 I0.265 J0.009 F1016
G1 X-41.244 Y-42.784 Z-1.325
X-41.181 Z-1.3
X-41.099 Y-42.776
X-41.018 Y-42.759
X-40.939 Y-42.733
X-40.882 Y-42.708 F1500
X-40.826 Y-42.677
X-40.758 Y-42.631 F1016
X-40.695 Y-42.577
X-40.638 Y-42.517
G3 X-40.463 Y-42.06 Z-1.5 I-0.575 J0.483
G1 Y-41.695 F1500
X-40.47 Y-41.545
X-40.528 Y-41.407
X-40.621 Y-41.289
X-40.78 Y-41.204
X-40.958 Y-41.173
X-41.136 Y-41.199
X-41.298 Y-41.279
X-41.426 Y-41.406
X-41.509 Y-41.566
X-41.537 Y-41.745
Y-42.13
G3 X-41.322 Y-42.382 Z-1.357 I0.265 J0.009 F1016
G1 X-41.252 Y-42.391 Z-1.328
X-41.182 Y-42.394 Z-1.3
X-41.099 Y-42.389
X-41.018 Y-42.374
X-40.939 Y-42.351
X-40.886 Y-42.329 F1500
X-40.836 Y-42.304
X-40.766 Y-42.26 F1016
X-40.701 Y-42.208
X-40.643 Y-42.149
G3 X-40.463 Y-41.695 Z-1.5 I-0.543 J0.479
G1 Y-41.302 F1500
X-40.47 Y-41.152
X-40.528 Y-41.014
X-40.68 Y-40.886
X-40.866 Y-40.818
X-41.065 Y-40.817
X-41.251 Y-40.885
X-41.404 Y-41.012
X-41.503 Y-41.184
X-41.537 Y-41.379
Y-41.745
G3 X-41.318 Y-41.997 Z-1.355 I0.265 J0.009 F1016
G1 X-41.25 Y-42.005 Z-1.328
X-41.182 Y-42.007 Z-1.3
X-41.099 Y-42.001
X-41.018 Y-41.986
X-40.939 Y-41.962
X-40.885 Y-41.94 F1500
X-40.834 Y-41.913
X-40.764 Y-41.868 F1016
X-40.7 Y-41.816
X-40.642 Y-41.757
G3 X-40.463 Y-41.302 Z-1.5 I-0.551 J0.48
G1 Y-40.931 F1500
X-40.47 Y-40.781
X-40.531 Y-40.644
X-40.627 Y-40.529
X-40.816 Y-40.439
X-41.024 Y-40.422
X-41.224 Y-40.482
X-41.39 Y-40.609
X-41.499 Y-40.788
X-41.537 Y-40.993
Y-41.379
G3 X-41.315 Y-41.632 Z-1.354 I0.265 J0.009 F1016
G1 X-41.248 Y-41.639 Z-1.327
X-41.182 Y-41.641 Z-1.3
X-41.099 Y-41.634
X-41.018 Y-41.619
X-40.939 Y-41.594
X-40.884 Y-41.571 F1500
X-40.832 Y-41.543
X-40.762 Y-41.498 F1016
X-40.698 Y-41.446
X-40.641 Y-41.386
G3 X-40.463 Y-40.931 Z-1.5 I-0.557 J0.481
G1 Y-40.53 F1500
X-40.47 Y-40.38
X-40.536 Y-40.245
X-40.634 Y-40.132
X-40.822 Y-40.045
X-41.029 Y-40.03
X-41.228 Y-40.09
X-41.392 Y-40.218
X-41.5 Y-40.395
X-41.537 Y-40.599
Y-40.993
G3 X-41.307 Y-41.247 Z-1.35 I0.265 J0.009 F1016
G1 X-41.244 Y-41.252 Z-1.325
X-41.181 Z-1.3
X-41.099 Y-41.244
X-41.018 Y-41.227
X-40.939 Y-41.202
X-40.882 Y-41.177 F1500
X-40.827 Y-41.147
X-40.758 Y-41.1 F1016
X-40.695 Y-41.047
X-40.638 Y-40.987
G3 X-40.463 Y-40.53 Z-1.5 I-0.573 J0.483
G1 Y-40.137 F1500
X-40.47 Y-39.987
X-40.536 Y-39.852
X-40.634 Y-39.739
X-40.822 Y-39.652
X-41.029 Y-39.637
X-41.228 Y-39.698
X-41.392 Y-39.825
X-41.5 Y-40.002
X-41.537 Y-40.206
Y-40.599
G3 X-41.307 Y-40.853 Z-1.351 I0.265 J0.009 F1016
G1 X-41.244 Y-40.858 Z-1.325
X-41.181 Z-1.3
X-41.099 Y-40.851
X-41.018 Y-40.834
X-40.939 Y-40.808
X-40.882 Y-40.783 F1500
X-40.827 Y-40.753
X-40.758 Y-40.707 F1016
X-40.695 Y-40.654
X-40.639 Y-40.593
G3 X-40.463 Y-40.137 Z-1.5 I-0.571 J0.483
G1 Y-39.766 F1500
X-40.47 Y-39.616
X-40.53 Y-39.478
X-40.623 Y-39.361
X-40.783 Y-39.277
X-40.96 Y-39.247
X-41.138 Y-39.274
X-41.299 Y-39.355
X-41.427 Y-39.481
X-41.509 Y-39.641
X-41.537 Y-39.819
Y-40.206
G3 X-41.319 Y-40.458 Z-1.355 I0.265 J0.009 F1016
G1 X-41.251 Y-40.467 Z-1.328
X-41.182 Y-40.469 Z-1.3
X-41.099 Y-40.464
X-41.018 Y-40.448
X-40.939 Y-40.424
X-40.885 Y-40.402 F1500
X-40.834 Y-40.376
X-40.764 Y-40.331 F1016
X-40.7 Y-40.279
X-40.642 Y-40.22
G3 X-40.463 Y-39.766 Z-1.5 I-0.549 J0.48
G1 Y-39.365 F1500
X-40.47 Y-39.215
X-40.532 Y-39.078
X-40.685 Y-38.953
X-40.871 Y-38.888
X-41.069 Y-38.89
X-41.254 Y-38.959
X-41.405 Y-39.087
X-41.503 Y-39.258
X-41.537 Y-39.453
Y-39.819
G3 X-41.311 Y-40.072 Z-1.352 I0.265 J0.009 F1016
G1 X-41.247 Y-40.079 Z-1.326
X-41.181 Y-40.08 Z-1.3
X-41.099 Y-40.073
X-41.018 Y-40.056
X-40.939 Y-40.031
X-40.883 Y-40.007 F1500
X-40.83 Y-39.979
X-40.761 Y-39.933 F1016
X-40.697 Y-39.88
X-40.64 Y-39.82
G3 X-40.463 Y-39.365 Z-1.5 I-0.563 J0.482
G1 Y-39.001 F1500
X-40.47 Y-38.851
X-40.531 Y-38.714
X-40.627 Y-38.599
X-40.816 Y-38.51
X-41.025 Y-38.494
X-41.225 Y-38.554
X-41.39 Y-38.681
X-41.499 Y-38.86
X-41.537 Y-39.065
Y-39.453
G3 X-41.313 Y-39.706 Z-1.353 I0.265 J0.009 F1016
G1 X-41.247 Y-39.713 Z-1.326
X-41.181 Y-39.714 Z-1.3
X-41.099 Y-39.707
X-41.018 Y-39.691
X-40.939 Y-39.666
X-40.884 Y-39.643 F1500
X-40.83 Y-39.615
X-40.761 Y-39.569 F1016
X-40.698 Y-39.516
X-40.64 Y-39.457
G3 X-40.463 Y-39.001 Z-1.5 I-0.561 J0.481
G1 Y-38.6 F1500
X-40.47 Y-38.45
X-40.536 Y-38.316
X-40.634 Y-38.203
X-40.823 Y-38.116
X-41.03 Y-38.101
X-41.228 Y-38.162
X-41.392 Y-38.289
X-41.5 Y-38.466
X-41.537 Y-38.671
Y-39.065
G3 X-41.306 Y-39.319 Z-1.35 I0.265 J0.009 F1016
G1 X-41.244 Y-39.324 Z-1.325
X-41.181 Z-1.3
X-41.099 Y-39.316
X-41.018 Y-39.299
X-40.939 Y-39.273
X-40.882 Y-39.248 F1500
X-40.826 Y-39.217
X-40.758 Y-39.171 F1016
X-40.695 Y-39.117
X-40.638 Y-39.057
G3 X-40.463 Y-38.6 Z-1.5 I-0.574 J0.483
G1 Y-38.199 F1500
X-40.47 Y-38.05
X-40.538 Y-37.916
X-40.638 Y-37.804
X-40.826 Y-37.719
X-41.033 Y-37.706
X-41.23 Y-37.768
X-41.393 Y-37.895
X-41.5 Y-38.072
X-41.537 Y-38.276
Y-38.671
G3 X-41.302 Y-38.924 Z-1.349 I0.265 J0.009 F1016
G1 X-41.242 Y-38.929 Z-1.324
X-41.181 Y-38.928 Z-1.3
X-41.099 Y-38.92
X-41.018 Y-38.902
X-40.94 Y-38.876
X-40.881 Y-38.85 F1500
X-40.824 Y-38.818
X-40.756 Y-38.771 F1016
X-40.693 Y-38.717
X-40.637 Y-38.657
G3 X-40.463 Y-38.199 Z-1.5 I-0.581 J0.484
G1 Y-37.836 F1500
X-40.47 Y-37.686
X-40.529 Y-37.548
X-40.622 Y-37.431
X-40.782 Y-37.347
X-40.959 Y-37.317
X-41.138 Y-37.343
X-41.299 Y-37.424
X-41.427 Y-37.55
X-41.509 Y-37.711
X-41.537 Y-37.889
Y-38.276
G3 X-41.32 Y-38.527 Z-1.356 I0.265 J0.009 F1016
G1 X-41.251 Y-38.536 Z-1.328
X-41.182 Y-38.539 Z-1.3
X-41.099 Y-38.533
X-41.018 Y-38.518
X-40.939 Y-38.494
X-40.886 Y-38.472 F1500
X-40.835 Y-38.446
X-40.765 Y-38.401 F1016
X-40.7 Y-38.349
X-40.643 Y-38.29
G3 X-40.463 Y-37.836 Z-1.5 I-0.548 J0.48
G1 Y-37.435 F1500
X-40.47 Y-37.285
X-40.531 Y-37.148
X-40.684 Y-37.023
X-40.871 Y-36.957
X-41.069 Y-36.959
X-41.254 Y-37.028
X-41.405 Y-37.156
X-41.503 Y-37.328
X-41.537 Y-37.522
Y-37.889
G3 X-41.312 Y-38.141 Z-1.352 I0.265 J0.009 F1016
G1 X-41.247 Y-38.148 Z-1.326
X-41.181 Y-38.149 Z-1.3
X-41.099 Y-38.142
X-41.018 Y-38.126
X-40.939 Y-38.101
X-40.883 Y-38.077 F1500
X-40.83 Y-38.049
X-40.761 Y-38.003 F1016
X-40.697 Y-37.95
X-40.64 Y-37.891
G3 X-40.463 Y-37.435 Z-1.5 I-0.562 J0.482
G1 Y-37.078 F1500
X-40.47 Y-36.928
X-40.529 Y-36.79
X-40.623 Y-36.674
X-40.812 Y-36.582
X-41.021 Y-36.565
X-41.222 Y-36.624
X-41.389 Y-36.751
X-41.499 Y-36.93
X-41.537 Y-37.136
Y-37.522
G3 X-41.317 Y-37.775 Z-1.355 I0.265 J0.009 F1016
G1 X-41.25 Y-37.783 Z-1.327
X-41.182 Y-37.785 Z-1.3
X-41.099 Y-37.779
X-41.018 Y-37.763
X-40.939 Y-37.739
X-40.885 Y-37.716 F1500
X-40.833 Y-37.689
X-40.763 Y-37.645 F1016
X-40.699 Y-37.592
X-40.642 Y-37.533
G3 X-40.463 Y-37.078 Z-1.5 I-0.553 J0.48
G1 Y-36.671 F1500
X-40.47 Y-36.521
X-40.536 Y-36.386
X-40.635 Y-36.273
X-40.823 Y-36.186
X-41.03 Y-36.172
X-41.228 Y-36.233
X-41.392 Y-36.36
X-41.5 Y-36.537
X-41.537 Y-36.741
Y-37.136
G3 X-41.306 Y-37.389 Z-1.35 I0.265 J0.009 F1016
G1 X-41.244 Y-37.394 Z-1.325
X-41.181 Z-1.3
X-41.099 Y-37.386
X-41.018 Y-37.369
X-40.939 Y-37.344
X-40.882 Y-37.318 F1500
X-40.826 Y-37.288
X-40.758 Y-37.241 F1016
X-40.695 Y-37.188
X-40.638 Y-37.127
G3 X-40.463 Y-36.671 Z-1.5 I-0.575 J0.483
G1 Y-36.306 F1500
X-40.47 Y-36.156
X-40.528 Y-36.018
X-40.621 Y-35.9
X-40.78 Y-35.815
X-40.958 Y-35.784
X-41.136 Y-35.81
X-41.298 Y-35.89
X-41.426 Y-36.017
X-41.509 Y-36.177
X-41.537 Y-36.355
Y-36.741
G3 X-41.322 Y-36.992 Z-1.357 I0.265 J0.009 F1016
G1 X-41.252 Y-37.002 Z-1.328
X-41.182 Y-37.005 Z-1.3
X-41.099 Y-37
X-41.018 Y-36.985
X-40.939 Y-36.961
X-40.886 Y-36.94 F1500
X-40.836 Y-36.914
X-40.766 Y-36.87 F1016
X-40.701 Y-36.819
X-40.643 Y-36.76
G3 X-40.463 Y-36.306 Z-1.5 I-0.543 J0.479
G1 Y-35.913 F1500
X-40.47 Y-35.763
X-40.528 Y-35.625
X-40.68 Y-35.497
X-40.866 Y-35.428
X-41.065
X-41.251 Y-35.495
X-41.404 Y-35.623
X-41.503 Y-35.794
X-41.537 Y-35.99
Y-36.355
G3 X-41.318 Y-36.607 Z-1.355 I0.265 J0.009 F1016
G1 X-41.25 Y-36.616 Z-1.328
X-41.182 Y-36.618 Z-1.3
X-41.099 Y-36.612
X-41.018 Y-36.597
X-40.939 Y-36.572
X-40.885 Y-36.55 F1500
X-40.834 Y-36.524
X-40.764 Y-36.479 F1016
X-40.7 Y-36.427
X-40.642 Y-36.368
G3 X-40.463 Y-35.913 Z-1.5 I-0.551 J0.48
G1 Y-35.541 F1500
X-40.47 Y-35.392
X-40.531 Y-35.255
X-40.627 Y-35.139
X-40.816 Y-35.049
X-41.024 Y-35.033
X-41.224 Y-35.093
X-41.39 Y-35.22
X-41.499 Y-35.398
X-41.537 Y-35.604
Y-35.99
G3 X-41.315 Y-36.242 Z-1.354 I0.265 J0.009 F1016
G1 X-41.248 Y-36.25 Z-1.327
X-41.182 Y-36.251 Z-1.3
X-41.099 Y-36.245
X-41.018 Y-36.229
X-40.939 Y-36.204
X-40.884 Y-36.181 F1500
X-40.832 Y-36.154
X-40.762 Y-36.109 F1016
X-40.698 Y-36.056
X-40.641 Y-35.997
G3 X-40.463 Y-35.541 Z-1.5 I-0.557 J0.481
G1 Y-35.14 F1500
X-40.47 Y-34.991
X-40.536 Y-34.856
X-40.634 Y-34.742
X-40.822 Y-34.655
X-41.029 Y-34.641
X-41.228 Y-34.701
X-41.392 Y-34.828
X-41.5 Y-35.006
X-41.537 Y-35.21
Y-35.604
G3 X-41.307 Y-35.857 Z-1.35 I0.265 J0.009 F1016
G1 X-41.244 Y-35.863 Z-1.325
X-41.181 Z-1.3
X-41.099 Y-35.855
X-41.018 Y-35.838
X-40.939 Y-35.812
X-40.882 Y-35.787 F1500
X-40.827 Y-35.757
X-40.758 Y-35.711 F1016
X-40.695 Y-35.657
X-40.638 Y-35.597
G3 X-40.463 Y-35.14 Z-1.5 I-0.573 J0.483
G1 Y-34.748 F1500
X-40.47 Y-34.598
X-40.536 Y-34.463
X-40.634 Y-34.349
X-40.822 Y-34.262
X-41.029 Y-34.248
X-41.228 Y-34.308
X-41.392 Y-34.436
X-41.5 Y-34.613
X-41.537 Y-34.817
Y-35.21
G3 X-41.307 Y-35.463 Z-1.351 I0.265 J0.009 F1016
G1 X-41.244 Y-35.469 Z-1.325
X-41.181 Z-1.3
X-41.099 Y-35.461
X-41.018 Y-35.444
X-40.939 Y-35.419
X-40.882 Y-35.394 F1500
X-40.827 Y-35.364
X-40.758 Y-35.318 F1016
X-40.695 Y-35.264
X-40.639 Y-35.204
G3 X-40.463 Y-34.748 Z-1.5 I-0.571 J0.483
G1 Y-34.376 F1500
X-40.47 Y-34.226
X-40.53 Y-34.089
X-40.623 Y-33.972
X-40.783 Y-33.888
X-40.96 Y-33.858
X-41.138 Y-33.885
X-41.299 Y-33.965
X-41.427 Y-34.092
X-41.509 Y-34.252
X-41.537 Y-34.43
Y-34.817
G3 X-41.319 Y-35.069 Z-1.355 I0.265 J0.009 F1016
G1 X-41.251 Y-35.078 Z-1.328
X-41.182 Y-35.08 Z-1.3
X-41.099 Y-35.074
X-41.018 Y-35.059
X-40.939 Y-35.035
X-40.885 Y-35.013 F1500
X-40.834 Y-34.986
X-40.764 Y-34.942 F1016
X-40.7 Y-34.89
X-40.642 Y-34.831
G3 X-40.463 Y-34.376 Z-1.5 I-0.549 J0.48
G1 Y-33.975 F1500
X-40.47 Y-33.825
X-40.532 Y-33.689
X-40.685 Y-33.564
X-40.871 Y-33.498
X-41.069 Y-33.5
X-41.254 Y-33.57
X-41.405 Y-33.697
X-41.503 Y-33.869
X-41.537 Y-34.064
Y-34.43
G3 X-41.311 Y-34.683 Z-1.352 I0.265 J0.009 F1016
G1 X-41.247 Y-34.689 Z-1.326
X-41.181 Y-34.69 Z-1.3
X-41.099 Y-34.683
X-41.018 Y-34.667
X-40.939 Y-34.642
X-40.883 Y-34.618 F1500
X-40.83 Y-34.589
X-40.761 Y-34.544 F1016
X-40.697 Y-34.491
X-40.64 Y-34.431
G3 X-40.463 Y-33.975 Z-1.5 I-0.563 J0.482
G1 Y-33.612 F1500
X-40.47 Y-33.462
X-40.531 Y-33.325
X-40.627 Y-33.21
X-40.816 Y-33.12
X-41.025 Y-33.105
X-41.225 Y-33.164
X-41.39 Y-33.292
X-41.499 Y-33.47
X-41.537 Y-33.676
Y-34.064
G3 X-41.313 Y-34.316 Z-1.353 I0.265 J0.009 F1016
G1 X-41.247 Y-34.323 Z-1.326
X-41.181 Y-34.325 Z-1.3
X-41.099 Y-34.318
X-41.018 Y-34.302
X-40.939 Y-34.277
X-40.884 Y-34.253 F1500
X-40.83 Y-34.225
X-40.761 Y-34.18 F1016
X-40.698 Y-34.127
X-40.64 Y-34.067
G3 X-40.463 Y-33.612 Z-1.5 I-0.561 J0.481
G1 Y-33.211 F1500
X-40.47 Y-33.061
X-40.536 Y-32.926
X-40.634 Y-32.813
X-40.823 Y-32.726
X-41.03 Y-32.712
X-41.228 Y-32.773
X-41.392 Y-32.9
X-41.5 Y-33.077
X-41.537 Y-33.281
Y-33.676
G3 X-41.306 Y-33.929 Z-1.35 I0.265 J0.009 F1016
G1 X-41.244 Y-33.934 Z-1.325
X-41.181 Z-1.3
X-41.099 Y-33.926
X-41.018 Y-33.909
X-40.939 Y-33.884
X-40.882 Y-33.858 F1500
X-40.826 Y-33.828
X-40.758 Y-33.782 F1016
X-40.695 Y-33.728
X-40.638 Y-33.668
G3 X-40.463 Y-33.211 Z-1.5 I-0.574 J0.483
G1 Y-32.81 F1500
X-40.47 Y-32.66
X-40.538 Y-32.526
X-40.638 Y-32.415
X-40.826 Y-32.33
X-41.033 Y-32.317
X-41.23 Y-32.378
X-41.393 Y-32.506
X-41.5 Y-32.683
X-41.537 Y-32.886
Y-33.281
G3 X-41.302 Y-33.535 Z-1.349 I0.265 J0.009 F1016
G1 X-41.242 Y-33.539 Z-1.324
X-41.181 Z-1.3
X-41.099 Y-33.53
X-41.018 Y-33.513
X-40.94 Y-33.487
X-40.881 Y-33.46 F1500
X-40.824 Y-33.429
X-40.756 Y-33.382 F1016
X-40.693 Y-33.328
X-40.637 Y-33.267
G3 X-40.463 Y-32.81 Z-1.5 I-0.581 J0.484
G1 Y-32.446 F1500
X-40.47 Y-32.297
X-40.529 Y-32.159
X-40.622 Y-32.041
X-40.782 Y-31.957
X-40.959 Y-31.927
X-41.138 Y-31.954
X-41.299 Y-32.034
X-41.427 Y-32.161
X-41.509 Y-32.321
X-41.537 Y-32.499
Y-32.886
G3 X-41.32 Y-33.138 Z-1.356 I0.265 J0.009 F1016
G1 X-41.251 Y-33.147 Z-1.328
X-41.182 Y-33.149 Z-1.3
X-41.099 Y-33.144
X-41.018 Y-33.129
X-40.939 Y-33.104
X-40.886 Y-33.083 F1500
X-40.835 Y-33.056
X-40.765 Y-33.012 F1016
X-40.7 Y-32.96
X-40.643 Y-32.901
G3 X-40.463 Y-32.446 Z-1.5 I-0.548 J0.48
G1 Y-32.046 F1500
X-40.47 Y-31.896
X-40.531 Y-31.759
X-40.684 Y-31.634
X-40.871 Y-31.568
X-41.069 Y-31.57
X-41.254 Y-31.639
X-41.405 Y-31.767
X-41.503 Y-31.938
X-41.537 Y-32.133
Y-32.499
G3 X-41.312 Y-32.752 Z-1.352 I0.265 J0.009 F1016
G1 X-41.247 Y-32.759 Z-1.326
X-41.181 Y-32.76 Z-1.3
X-41.099 Y-32.753
X-41.018 Y-32.737
X-40.939 Y-32.712
X-40.883 Y-32.688 F1500
X-40.83 Y-32.66
X-40.761 Y-32.614 F1016
X-40.697 Y-32.561
X-40.64 Y-32.501
G3 X-40.463 Y-32.046 Z-1.5 I-0.562 J0.482
G1 Y-31.689 F1500
X-40.47 Y-31.539
X-40.518 Y-31.397
X-40.605 Y-31.274
X-40.762 Y-31.18
X-40.941 Y-31.141
X-41.123 Y-31.161
X-41.289 Y-31.238
X-41.422 Y-31.364
X-41.508 Y-31.526
X-41.537 Y-31.706
Y-32.133
G3 X-41.317 Y-32.385 Z-1.355 I0.265 J0.009 F1016
G1 X-41.25 Y-32.393 Z-1.327
X-41.182 Y-32.395 Z-1.3
X-41.099 Y-32.389
X-41.018 Y-32.374
X-40.939 Y-32.349
X-40.885 Y-32.327 F1500
X-40.833 Y-32.3
X-40.763 Y-32.255 F1016
X-40.699 Y-32.203
X-40.642 Y-32.144
G3 X-40.463 Y-31.689 Z-1.5 I-0.553 J0.48
G1 Y-29.569 F1500
X-40.468 Y-29.519 Z-1.48 F1016
X-40.482 Y-29.47 Z-1.459
X-40.62 Y-29.098 Z-1.3
X-40.707 Y-28.865
X-40.923 Y-28.283 F1500
X-40.95 Y-28.226
X-40.989 Y-28.176
X-41.036 Y-28.135 F1016
X-41.089 Y-28.104
X-41.148 Y-28.084
X-41.209 Y-28.076
G3 X-41.537 Y-28.383 Z-1.5 I-0.011 J-0.317
G1 Y-31.706 F1500
G3 X-40.964 Y-31.883 I0.317 J0.011 F1016
G1 X-40.922 Y-31.826 Z-1.492
X-40.883 Y-31.772 Z-1.469
X-40.847 Y-31.724 Z-1.431
X-40.817 Y-31.683 Z-1.38
X-40.795 Y-31.653 Z-1.32
X-40.781 Y-31.634 Z-1.253
X-40.776 Y-31.627 Z-1.183
Z15 F1500
(When using Fusion 360 for Personal Use, the feedrate of)
(rapid moves is reduced to match the feedrate of cutting)
(moves, which can increase machining time. Unrestricted rapid)
(moves are available with a Fusion 360 Subscription.)

(2D-Kontur3)
G0 X-4.682 Y-51.54
G1 Z15 F1500
Z5
Z2 F300
Z-0.683
G19 G3 Y-51.222 Z-1 J0.318 K0 F1016
G1 Y-50.905
G17 G3 X-5 Y-50.588 I-0.318 J0
G1 X-77 F1500
G2 X-82.588 Y-45 I0 J5.588
G1 Y-5
G2 X-77 Y0.587 I5.588 J0
G1 X-5
G2 X0.587 Y-5 I0 J-5.587
G1 Y-45
G2 X-5 Y-50.588 I-5.587 J0
G3 X-5.318 Y-50.905 I0 J-0.317 F1016
G1 Y-51.222
G19 G2 Y-51.54 Z-0.683 J0 K0.317
G1 Z5 F1500
X-4.682
Z1 F300
Z-1.683
G3 Y-51.222 Z-2 J0.318 K0 F1016
G1 Y-50.905
G17 G3 X-5 Y-50.588 I-0.318 J0
G1 X-77 F1500
G2 X-82.588 Y-45 I0 J5.588
G1 Y-5
G2 X-77 Y0.587 I5.588 J0
G1 X-5
G2 X0.587 Y-5 I0 J-5.587
G1 Y-45
G2 X-5 Y-50.588 I-5.587 J0
G3 X-5.318 Y-50.905 I0 J-0.317 F1016
G1 Y-51.222
G19 G2 Y-51.54 Z-1.683 J0 K0.317
G1 Z5 F1500
X-4.682
Z0 F300
Z-2.683
G3 Y-51.222 Z-3 J0.318 K0 F1016
G1 Y-50.905
G17 G3 X-5 Y-50.588 I-0.318 J0
G1 X-77 F1500
G2 X-82.588 Y-45 I0 J5.588
G1 Y-5
G2 X-77 Y0.587 I5.588 J0
G1 X-5
G2 X0.587 Y-5 I0 J-5.587
G1 Y-45
G2 X-5 Y-50.588 I-5.587 J0
G3 X-5.318 Y-50.905 I0 J-0.317 F1016
G1 Y-51.222
G19 G2 Y-51.54 Z-2.683 J0 K0.318
G1 Z5 F1500
X-4.682
Z-1 F300
Z-3.683
G3 Y-51.222 Z-4 J0.318 K0 F1016
G1 Y-50.905
G17 G3 X-5 Y-50.588 I-0.318 J0
G1 X-77 F1500
G2 X-82.588 Y-45 I0 J5.588
G1 Y-5
G2 X-77 Y0.587 I5.588 J0
G1 X-5
G2 X0.587 Y-5 I0 J-5.587
G1 Y-45
G2 X-5 Y-50.588 I-5.587 J0
G3 X-5.318 Y-50.905 I0 J-0.317 F1016
G1 Y-51.222
G19 G2 Y-51.54 Z-3.683 J0 K0.318
G1 Z5 F1500
X-4.682
Z-2 F300
Z-3.983
G3 Y-51.222 Z-4.3 J0.318 K0 F1016
G1 Y-50.905
G17 G3 X-5 Y-50.588 I-0.318 J0
G1 X-77 F1500
G2 X-82.588 Y-45 I0 J5.588
G1 Y-5
G2 X-77 Y0.587 I5.588 J0
G1 X-5
G2 X0.587 Y-5 I0 J-5.587
G1 Y-45
G2 X-5 Y-50.588 I-5.587 J0
G3 X-5.318 Y-50.905 I0 J-0.317 F1016
G1 Y-51.222
G19 G2 Y-51.54 Z-3.983 J0 K0.318
G1 Z15 F1500
G17
M5
M30
