(Motortrger_X8)
(Bearbeiten)
(  Hersteller: ChinaCnc)
(  model: 3040T)
(  description: Generic 3-axis)
(T5 D=3.175 CR=0 - ZMIN=-2.4 - Schaftfrser)
G90 G94
G17
G21
(When using Fusion 360 for Personal Use, the feedrate of)
(rapid moves is reduced to match the feedrate of cutting)
(moves, which can increase machining time. Unrestricted rapid)
(moves are available with a Fusion 360 Subscription.)

(Bohrfrsen10)
M0
(MANUAL TOOL CHANGE TO T5)
S6000 M3
G54
G0 X-14.791 Y-46.889
Z15
G1 Z1.683 F1000
Z0
X-14.888 Y-47.015
X-14.902 Y-47.043
X-14.904 Y-47.075
X-14.894 Y-47.105
X-14.873 Y-47.129
G3 X-14.675 Y-46.871 Z-0.061 I0.099 J0.129
X-14.873 Y-47.129 Z-0.122 I-0.099 J-0.129
X-14.675 Y-46.871 Z-0.183 I0.099 J0.129
X-14.873 Y-47.129 Z-0.244 I-0.099 J-0.129
X-14.675 Y-46.871 Z-0.306 I0.099 J0.129
X-14.873 Y-47.129 Z-0.367 I-0.099 J-0.129
X-14.675 Y-46.871 Z-0.428 I0.099 J0.129
X-14.873 Y-47.129 Z-0.489 I-0.099 J-0.129
X-14.675 Y-46.871 Z-0.55 I0.099 J0.129
X-14.873 Y-47.129 Z-0.611 I-0.099 J-0.129
X-14.675 Y-46.871 Z-0.672 I0.099 J0.129
X-14.873 Y-47.129 Z-0.733 I-0.099 J-0.129
X-14.675 Y-46.871 Z-0.794 I0.099 J0.129
X-14.873 Y-47.129 Z-0.856 I-0.099 J-0.129
X-14.675 Y-46.871 Z-0.917 I0.099 J0.129
X-14.873 Y-47.129 Z-0.978 I-0.099 J-0.129
X-14.675 Y-46.871 Z-1.039 I0.099 J0.129
X-14.873 Y-47.129 Z-1.1 I-0.099 J-0.129
X-14.675 Y-46.871 Z-1.161 I0.099 J0.129
X-14.873 Y-47.129 Z-1.222 I-0.099 J-0.129
X-14.675 Y-46.871 Z-1.283 I0.099 J0.129
X-14.873 Y-47.129 Z-1.344 I-0.099 J-0.129
X-14.675 Y-46.871 Z-1.406 I0.099 J0.129
X-14.873 Y-47.129 Z-1.467 I-0.099 J-0.129
X-14.675 Y-46.871 Z-1.528 I0.099 J0.129
X-14.873 Y-47.129 Z-1.589 I-0.099 J-0.129
X-14.675 Y-46.871 Z-1.65 I0.099 J0.129
X-14.873 Y-47.129 Z-1.711 I-0.099 J-0.129
X-14.675 Y-46.871 Z-1.772 I0.099 J0.129
X-14.873 Y-47.129 Z-1.833 I-0.099 J-0.129
X-14.675 Y-46.871 Z-1.894 I0.099 J0.129
X-14.873 Y-47.129 Z-1.956 I-0.099 J-0.129
X-14.675 Y-46.871 Z-2.017 I0.099 J0.129
X-14.873 Y-47.129 Z-2.078 I-0.099 J-0.129
X-14.675 Y-46.871 Z-2.139 I0.099 J0.129
X-14.873 Y-47.129 Z-2.2 I-0.099 J-0.129
X-14.675 Y-46.871 Z-2.261 I0.099 J0.129
X-14.873 Y-47.129 Z-2.322 I-0.099 J-0.129
X-14.675 Y-46.871 Z-2.383 I0.099 J0.129
X-14.806 Y-46.841 Z-2.4 I-0.099 J-0.129
X-14.741 Y-47.159 I0.033 J-0.159
X-14.806 Y-46.841 I-0.033 J0.159
G1 X-14.835 Y-46.853
X-14.858 Y-46.876
X-14.87 Y-46.905
Y-46.937
X-14.838 Y-47.092
Z5
X-21.452 Y-34.663
Z1.683
Z0
X-21.548 Y-34.789
X-21.563 Y-34.817
X-21.565 Y-34.849
X-21.554 Y-34.879
X-21.534 Y-34.903
G3 X-21.336 Y-34.645 Z-0.061 I0.099 J0.129
X-21.534 Y-34.903 Z-0.122 I-0.099 J-0.129
X-21.336 Y-34.645 Z-0.183 I0.099 J0.129
X-21.534 Y-34.903 Z-0.244 I-0.099 J-0.129
X-21.336 Y-34.645 Z-0.306 I0.099 J0.129
X-21.534 Y-34.903 Z-0.367 I-0.099 J-0.129
X-21.336 Y-34.645 Z-0.428 I0.099 J0.129
X-21.534 Y-34.903 Z-0.489 I-0.099 J-0.129
X-21.336 Y-34.645 Z-0.55 I0.099 J0.129
X-21.534 Y-34.903 Z-0.611 I-0.099 J-0.129
X-21.336 Y-34.645 Z-0.672 I0.099 J0.129
X-21.534 Y-34.903 Z-0.733 I-0.099 J-0.129
X-21.336 Y-34.645 Z-0.794 I0.099 J0.129
X-21.534 Y-34.903 Z-0.856 I-0.099 J-0.129
X-21.336 Y-34.645 Z-0.917 I0.099 J0.129
X-21.534 Y-34.903 Z-0.978 I-0.099 J-0.129
X-21.336 Y-34.645 Z-1.039 I0.099 J0.129
X-21.534 Y-34.903 Z-1.1 I-0.099 J-0.129
X-21.336 Y-34.645 Z-1.161 I0.099 J0.129
X-21.534 Y-34.903 Z-1.222 I-0.099 J-0.129
X-21.336 Y-34.645 Z-1.283 I0.099 J0.129
X-21.534 Y-34.903 Z-1.344 I-0.099 J-0.129
X-21.336 Y-34.645 Z-1.406 I0.099 J0.129
X-21.534 Y-34.903 Z-1.467 I-0.099 J-0.129
X-21.336 Y-34.645 Z-1.528 I0.099 J0.129
X-21.534 Y-34.903 Z-1.589 I-0.099 J-0.129
X-21.336 Y-34.645 Z-1.65 I0.099 J0.129
X-21.534 Y-34.903 Z-1.711 I-0.099 J-0.129
X-21.336 Y-34.645 Z-1.772 I0.099 J0.129
X-21.534 Y-34.903 Z-1.833 I-0.099 J-0.129
X-21.336 Y-34.645 Z-1.894 I0.099 J0.129
X-21.534 Y-34.903 Z-1.956 I-0.099 J-0.129
X-21.336 Y-34.645 Z-2.017 I0.099 J0.129
X-21.534 Y-34.903 Z-2.078 I-0.099 J-0.129
X-21.336 Y-34.645 Z-2.139 I0.099 J0.129
X-21.534 Y-34.903 Z-2.2 I-0.099 J-0.129
X-21.336 Y-34.645 Z-2.261 I0.099 J0.129
X-21.534 Y-34.903 Z-2.322 I-0.099 J-0.129
X-21.336 Y-34.645 Z-2.383 I0.099 J0.129
X-21.467 Y-34.614 Z-2.4 I-0.099 J-0.129
X-21.402 Y-34.933 I0.033 J-0.159
X-21.467 Y-34.614 I-0.033 J0.159
G1 X-21.496 Y-34.627
X-21.519 Y-34.649
X-21.531 Y-34.679
X-21.53 Y-34.71
X-21.499 Y-34.866
Z5
X-8.017 Y-34.55
Z1.683
Z0
X-8.114 Y-34.676
X-8.128 Y-34.704
X-8.13 Y-34.736
X-8.12 Y-34.766
X-8.099 Y-34.79
G3 X-7.901 Y-34.532 Z-0.061 I0.099 J0.129
X-8.099 Y-34.79 Z-0.122 I-0.099 J-0.129
X-7.901 Y-34.532 Z-0.183 I0.099 J0.129
X-8.099 Y-34.79 Z-0.244 I-0.099 J-0.129
X-7.901 Y-34.532 Z-0.306 I0.099 J0.129
X-8.099 Y-34.79 Z-0.367 I-0.099 J-0.129
X-7.901 Y-34.532 Z-0.428 I0.099 J0.129
X-8.099 Y-34.79 Z-0.489 I-0.099 J-0.129
X-7.901 Y-34.532 Z-0.55 I0.099 J0.129
X-8.099 Y-34.79 Z-0.611 I-0.099 J-0.129
X-7.901 Y-34.532 Z-0.672 I0.099 J0.129
X-8.099 Y-34.79 Z-0.733 I-0.099 J-0.129
X-7.901 Y-34.532 Z-0.794 I0.099 J0.129
X-8.099 Y-34.79 Z-0.856 I-0.099 J-0.129
X-7.901 Y-34.532 Z-0.917 I0.099 J0.129
X-8.099 Y-34.79 Z-0.978 I-0.099 J-0.129
X-7.901 Y-34.532 Z-1.039 I0.099 J0.129
X-8.099 Y-34.79 Z-1.1 I-0.099 J-0.129
X-7.901 Y-34.532 Z-1.161 I0.099 J0.129
X-8.099 Y-34.79 Z-1.222 I-0.099 J-0.129
X-7.901 Y-34.532 Z-1.283 I0.099 J0.129
X-8.099 Y-34.79 Z-1.344 I-0.099 J-0.129
X-7.901 Y-34.532 Z-1.406 I0.099 J0.129
X-8.099 Y-34.79 Z-1.467 I-0.099 J-0.129
X-7.901 Y-34.532 Z-1.528 I0.099 J0.129
X-8.099 Y-34.79 Z-1.589 I-0.099 J-0.129
X-7.901 Y-34.532 Z-1.65 I0.099 J0.129
X-8.099 Y-34.79 Z-1.711 I-0.099 J-0.129
X-7.901 Y-34.532 Z-1.772 I0.099 J0.129
X-8.099 Y-34.79 Z-1.833 I-0.099 J-0.129
X-7.901 Y-34.532 Z-1.894 I0.099 J0.129
X-8.099 Y-34.79 Z-1.956 I-0.099 J-0.129
X-7.901 Y-34.532 Z-2.017 I0.099 J0.129
X-8.099 Y-34.79 Z-2.078 I-0.099 J-0.129
X-7.901 Y-34.532 Z-2.139 I0.099 J0.129
X-8.099 Y-34.79 Z-2.2 I-0.099 J-0.129
X-7.901 Y-34.532 Z-2.261 I0.099 J0.129
X-8.099 Y-34.79 Z-2.322 I-0.099 J-0.129
X-7.901 Y-34.532 Z-2.383 I0.099 J0.129
X-8.033 Y-34.502 Z-2.4 I-0.099 J-0.129
X-7.967 Y-34.82 I0.033 J-0.159
X-8.033 Y-34.502 I-0.033 J0.159
G1 X-8.062 Y-34.514
X-8.084 Y-34.536
X-8.096 Y-34.566
Y-34.598
X-8.064 Y-34.753
Z5
X-16.62 Y-29.884
Z2
Z0.317
X-16.625 Y-29.89 Z0.247
X-16.64 Y-29.909 Z0.18
X-16.663 Y-29.939 Z0.12
X-16.693 Y-29.979 Z0.069
X-16.73 Y-30.026 Z0.031
X-16.771 Y-30.079 Z0.008
X-16.814 Y-30.136 Z0
X-16.91 Y-30.261
G3 X-16.852 Y-30.707 I0.252 J-0.193
X-12.695 Y-25.293 Z-0.175 I2.078 J2.707
X-16.852 Y-30.707 Z-0.349 I-2.078 J-2.707
X-12.695 Y-25.293 Z-0.524 I2.078 J2.707
X-16.852 Y-30.707 Z-0.698 I-2.078 J-2.707
X-12.695 Y-25.293 Z-0.873 I2.078 J2.707
X-16.852 Y-30.707 Z-1.048 I-2.078 J-2.707
X-12.695 Y-25.293 Z-1.222 I2.078 J2.707
X-16.852 Y-30.707 Z-1.397 I-2.078 J-2.707
X-12.695 Y-25.293 Z-1.571 I2.078 J2.707
X-16.852 Y-30.707 Z-1.746 I-2.078 J-2.707
X-12.695 Y-25.293 Z-1.921 I2.078 J2.707
X-16.852 Y-30.707 Z-2.095 I-2.078 J-2.707
X-12.695 Y-25.293 Z-2.27 I2.078 J2.707
X-18.163 Y-28.395 Z-2.4 I-2.078 J-2.707
X-11.384 Y-27.605 I3.39 J0.395
X-18.163 Y-28.395 I-3.39 J-0.395
X-17.811 Y-28.674 I0.315 J0.037
G1 X-17.653 Y-28.656
X-17.583 Y-28.647 Z-2.392
X-17.517 Y-28.64 Z-2.369
X-17.457 Y-28.633 Z-2.331
X-17.407 Y-28.627 Z-2.28
X-17.369 Y-28.622 Z-2.22
X-17.346 Y-28.62 Z-2.153
X-17.338 Y-28.619 Z-2.082
Z5
X-21.565 Y-21.228
Z1.683
Z0
X-21.661 Y-21.354
X-21.675 Y-21.382
X-21.677 Y-21.414
X-21.667 Y-21.444
X-21.646 Y-21.468
G3 X-21.448 Y-21.21 Z-0.061 I0.099 J0.129
X-21.646 Y-21.468 Z-0.122 I-0.099 J-0.129
X-21.448 Y-21.21 Z-0.183 I0.099 J0.129
X-21.646 Y-21.468 Z-0.244 I-0.099 J-0.129
X-21.448 Y-21.21 Z-0.306 I0.099 J0.129
X-21.646 Y-21.468 Z-0.367 I-0.099 J-0.129
X-21.448 Y-21.21 Z-0.428 I0.099 J0.129
X-21.646 Y-21.468 Z-0.489 I-0.099 J-0.129
X-21.448 Y-21.21 Z-0.55 I0.099 J0.129
X-21.646 Y-21.468 Z-0.611 I-0.099 J-0.129
X-21.448 Y-21.21 Z-0.672 I0.099 J0.129
X-21.646 Y-21.468 Z-0.733 I-0.099 J-0.129
X-21.448 Y-21.21 Z-0.794 I0.099 J0.129
X-21.646 Y-21.468 Z-0.856 I-0.099 J-0.129
X-21.448 Y-21.21 Z-0.917 I0.099 J0.129
X-21.646 Y-21.468 Z-0.978 I-0.099 J-0.129
X-21.448 Y-21.21 Z-1.039 I0.099 J0.129
X-21.646 Y-21.468 Z-1.1 I-0.099 J-0.129
X-21.448 Y-21.21 Z-1.161 I0.099 J0.129
X-21.646 Y-21.468 Z-1.222 I-0.099 J-0.129
X-21.448 Y-21.21 Z-1.283 I0.099 J0.129
X-21.646 Y-21.468 Z-1.344 I-0.099 J-0.129
X-21.448 Y-21.21 Z-1.406 I0.099 J0.129
X-21.646 Y-21.468 Z-1.467 I-0.099 J-0.129
X-21.448 Y-21.21 Z-1.528 I0.099 J0.129
X-21.646 Y-21.468 Z-1.589 I-0.099 J-0.129
X-21.448 Y-21.21 Z-1.65 I0.099 J0.129
X-21.646 Y-21.468 Z-1.711 I-0.099 J-0.129
X-21.448 Y-21.21 Z-1.772 I0.099 J0.129
X-21.646 Y-21.468 Z-1.833 I-0.099 J-0.129
X-21.448 Y-21.21 Z-1.894 I0.099 J0.129
X-21.646 Y-21.468 Z-1.956 I-0.099 J-0.129
X-21.448 Y-21.21 Z-2.017 I0.099 J0.129
X-21.646 Y-21.468 Z-2.078 I-0.099 J-0.129
X-21.448 Y-21.21 Z-2.139 I0.099 J0.129
X-21.646 Y-21.468 Z-2.2 I-0.099 J-0.129
X-21.448 Y-21.21 Z-2.261 I0.099 J0.129
X-21.646 Y-21.468 Z-2.322 I-0.099 J-0.129
X-21.448 Y-21.21 Z-2.383 I0.099 J0.129
X-21.58 Y-21.18 Z-2.4 I-0.099 J-0.129
X-21.515 Y-21.498 I0.033 J-0.159
X-21.58 Y-21.18 I-0.033 J0.159
G1 X-21.609 Y-21.192
X-21.631 Y-21.215
X-21.643 Y-21.244
Y-21.276
X-21.611 Y-21.431
Z5
X-8.13 Y-21.115
Z1.683
Z0
X-8.227 Y-21.241
X-8.241 Y-21.27
X-8.243 Y-21.301
X-8.233 Y-21.331
X-8.212 Y-21.355
G3 X-8.014 Y-21.097 Z-0.061 I0.099 J0.129
X-8.212 Y-21.355 Z-0.122 I-0.099 J-0.129
X-8.014 Y-21.097 Z-0.183 I0.099 J0.129
X-8.212 Y-21.355 Z-0.244 I-0.099 J-0.129
X-8.014 Y-21.097 Z-0.306 I0.099 J0.129
X-8.212 Y-21.355 Z-0.367 I-0.099 J-0.129
X-8.014 Y-21.097 Z-0.428 I0.099 J0.129
X-8.212 Y-21.355 Z-0.489 I-0.099 J-0.129
X-8.014 Y-21.097 Z-0.55 I0.099 J0.129
X-8.212 Y-21.355 Z-0.611 I-0.099 J-0.129
X-8.014 Y-21.097 Z-0.672 I0.099 J0.129
X-8.212 Y-21.355 Z-0.733 I-0.099 J-0.129
X-8.014 Y-21.097 Z-0.794 I0.099 J0.129
X-8.212 Y-21.355 Z-0.856 I-0.099 J-0.129
X-8.014 Y-21.097 Z-0.917 I0.099 J0.129
X-8.212 Y-21.355 Z-0.978 I-0.099 J-0.129
X-8.014 Y-21.097 Z-1.039 I0.099 J0.129
X-8.212 Y-21.355 Z-1.1 I-0.099 J-0.129
X-8.014 Y-21.097 Z-1.161 I0.099 J0.129
X-8.212 Y-21.355 Z-1.222 I-0.099 J-0.129
X-8.014 Y-21.097 Z-1.283 I0.099 J0.129
X-8.212 Y-21.355 Z-1.344 I-0.099 J-0.129
X-8.014 Y-21.097 Z-1.406 I0.099 J0.129
X-8.212 Y-21.355 Z-1.467 I-0.099 J-0.129
X-8.014 Y-21.097 Z-1.528 I0.099 J0.129
X-8.212 Y-21.355 Z-1.589 I-0.099 J-0.129
X-8.014 Y-21.097 Z-1.65 I0.099 J0.129
X-8.212 Y-21.355 Z-1.711 I-0.099 J-0.129
X-8.014 Y-21.097 Z-1.772 I0.099 J0.129
X-8.212 Y-21.355 Z-1.833 I-0.099 J-0.129
X-8.014 Y-21.097 Z-1.894 I0.099 J0.129
X-8.212 Y-21.355 Z-1.956 I-0.099 J-0.129
X-8.014 Y-21.097 Z-2.017 I0.099 J0.129
X-8.212 Y-21.355 Z-2.078 I-0.099 J-0.129
X-8.014 Y-21.097 Z-2.139 I0.099 J0.129
X-8.212 Y-21.355 Z-2.2 I-0.099 J-0.129
X-8.014 Y-21.097 Z-2.261 I0.099 J0.129
X-8.212 Y-21.355 Z-2.322 I-0.099 J-0.129
X-8.014 Y-21.097 Z-2.383 I0.099 J0.129
X-8.145 Y-21.067 Z-2.4 I-0.099 J-0.129
X-8.08 Y-21.386 I0.033 J-0.159
X-8.145 Y-21.067 I-0.033 J0.159
G1 X-8.175 Y-21.079
X-8.197 Y-21.102
X-8.209 Y-21.131
Y-21.163
X-8.177 Y-21.319
Z5
X-14.791 Y-8.889
Z1.683
Z0
X-14.888 Y-9.015
X-14.902 Y-9.043
X-14.904 Y-9.075
X-14.894 Y-9.105
X-14.873 Y-9.129
G3 X-14.675 Y-8.871 Z-0.061 I0.099 J0.129
X-14.873 Y-9.129 Z-0.122 I-0.099 J-0.129
X-14.675 Y-8.871 Z-0.183 I0.099 J0.129
X-14.873 Y-9.129 Z-0.244 I-0.099 J-0.129
X-14.675 Y-8.871 Z-0.306 I0.099 J0.129
X-14.873 Y-9.129 Z-0.367 I-0.099 J-0.129
X-14.675 Y-8.871 Z-0.428 I0.099 J0.129
X-14.873 Y-9.129 Z-0.489 I-0.099 J-0.129
X-14.675 Y-8.871 Z-0.55 I0.099 J0.129
X-14.873 Y-9.129 Z-0.611 I-0.099 J-0.129
X-14.675 Y-8.871 Z-0.672 I0.099 J0.129
X-14.873 Y-9.129 Z-0.733 I-0.099 J-0.129
X-14.675 Y-8.871 Z-0.794 I0.099 J0.129
X-14.873 Y-9.129 Z-0.856 I-0.099 J-0.129
X-14.675 Y-8.871 Z-0.917 I0.099 J0.129
X-14.873 Y-9.129 Z-0.978 I-0.099 J-0.129
X-14.675 Y-8.871 Z-1.039 I0.099 J0.129
X-14.873 Y-9.129 Z-1.1 I-0.099 J-0.129
X-14.675 Y-8.871 Z-1.161 I0.099 J0.129
X-14.873 Y-9.129 Z-1.222 I-0.099 J-0.129
X-14.675 Y-8.871 Z-1.283 I0.099 J0.129
X-14.873 Y-9.129 Z-1.344 I-0.099 J-0.129
X-14.675 Y-8.871 Z-1.406 I0.099 J0.129
X-14.873 Y-9.129 Z-1.467 I-0.099 J-0.129
X-14.675 Y-8.871 Z-1.528 I0.099 J0.129
X-14.873 Y-9.129 Z-1.589 I-0.099 J-0.129
X-14.675 Y-8.871 Z-1.65 I0.099 J0.129
X-14.873 Y-9.129 Z-1.711 I-0.099 J-0.129
X-14.675 Y-8.871 Z-1.772 I0.099 J0.129
X-14.873 Y-9.129 Z-1.833 I-0.099 J-0.129
X-14.675 Y-8.871 Z-1.894 I0.099 J0.129
X-14.873 Y-9.129 Z-1.956 I-0.099 J-0.129
X-14.675 Y-8.871 Z-2.017 I0.099 J0.129
X-14.873 Y-9.129 Z-2.078 I-0.099 J-0.129
X-14.675 Y-8.871 Z-2.139 I0.099 J0.129
X-14.873 Y-9.129 Z-2.2 I-0.099 J-0.129
X-14.675 Y-8.871 Z-2.261 I0.099 J0.129
X-14.873 Y-9.129 Z-2.322 I-0.099 J-0.129
X-14.675 Y-8.871 Z-2.383 I0.099 J0.129
X-14.806 Y-8.841 Z-2.4 I-0.099 J-0.129
X-14.741 Y-9.159 I0.033 J-0.159
X-14.806 Y-8.841 I-0.033 J0.159
G1 X-14.835 Y-8.853
X-14.858 Y-8.876
X-14.87 Y-8.905
Y-8.937
X-14.838 Y-9.092
Z15
(When using Fusion 360 for Personal Use, the feedrate of)
(rapid moves is reduced to match the feedrate of cutting)
(moves, which can increase machining time. Unrestricted rapid)
(moves are available with a Fusion 360 Subscription.)

(2D-Kontur14)
G0 X-27.975 Y-41.318
G1 Z15 F1000
Z5
Z2.3 F333.3
Z-0.983
G18 G2 X-27.657 Z-1.3 I0.317 K0 F1000
G1 X-27.34
G17 G3 X-27.022 Y-41 I0 J0.318
G1 Y-15
G2 X-15.156 Y-2.424 I12.598 J0
X-14.521 Y-2.417 I0.383 J-6.576
X-2.412 Y-15 I-0.484 J-12.583
G1 Y-41
G2 X-14.52 Y-53.583 I-12.592 J0
X-15.156 Y-53.576 I-0.254 J6.583
X-27.022 Y-41 I0.732 J12.576
G3 X-27.34 Y-40.682 I-0.317 J0
G1 X-27.657
G18 G3 X-27.975 Z-0.983 I0 K0.317
G1 Z5
Y-41.318
Z1 F333.3
Z-1.983
G2 X-27.657 Z-2.3 I0.317 K0 F1000
G1 X-27.34
G17 G3 X-27.022 Y-41 I0 J0.318
G1 Y-32.088
Z-1.3
Y-23.913
Z-2.3 F333.3
Y-15 F1000
G2 X-15.156 Y-2.424 I12.598 J0
X-14.521 Y-2.417 I0.383 J-6.576
X-2.412 Y-15 I-0.484 J-12.583
G1 Y-23.913
Z-1.3
Y-32.088
Z-2.3 F333.3
Y-41 F1000
G2 X-14.52 Y-53.583 I-12.592 J0
X-15.156 Y-53.576 I-0.254 J6.583
X-27.022 Y-41 I0.732 J12.576
G3 X-27.34 Y-40.682 I-0.317 J0
G1 X-27.657
G18 G3 X-27.975 Z-1.983 I0 K0.317
G1 Z15
G17
M5
M30
