(Motormount)
(Bearbeiten)
(  Hersteller: ChinaCnc)
(  model: 3040T)
(  description: Generic 3-axis)
(T5 D=3.175 CR=0 - ZMIN=-2.3 - Schaftfrser)
G90 G94
G17
G21
(-Attention- Property Safe Retracts is set to Clearance Height.)
(Ensure the clearance height will clear the part and or fixtures.)
(Raise the Z-axis to a safe height before starting the program.)
(When using Fusion for Personal Use, the feedrate of rapid)
(moves is reduced to match the feedrate of cutting moves,)
(which can increase machining time. Unrestricted rapid moves)
(are available with a Fusion Subscription.)

(Bohrfrsen7)
M0
(MANUAL TOOL CHANGE TO T5)
S6000 M3
G17 G90 G94
G54
G0 X-54.896 Y-17.983
Z15
G1 Z1.683 F1000
Z0
X-54.77 Y-17.886
X-54.75 Y-17.862
X-54.74 Y-17.832
X-54.742 Y-17.8
X-54.756 Y-17.772
G3 X-55.013 Y-17.971 Z-0.061 I-0.128 J-0.1
X-54.756 Y-17.772 Z-0.122 I0.128 J0.1
X-55.013 Y-17.971 Z-0.183 I-0.128 J-0.1
X-54.756 Y-17.772 Z-0.244 I0.128 J0.1
X-55.013 Y-17.971 Z-0.306 I-0.128 J-0.1
X-54.756 Y-17.772 Z-0.367 I0.128 J0.1
X-55.013 Y-17.971 Z-0.428 I-0.128 J-0.1
X-54.756 Y-17.772 Z-0.489 I0.128 J0.1
X-55.013 Y-17.971 Z-0.55 I-0.128 J-0.1
X-54.756 Y-17.772 Z-0.611 I0.128 J0.1
X-55.013 Y-17.971 Z-0.672 I-0.128 J-0.1
X-54.756 Y-17.772 Z-0.733 I0.128 J0.1
X-55.013 Y-17.971 Z-0.794 I-0.128 J-0.1
X-54.756 Y-17.772 Z-0.856 I0.128 J0.1
X-55.013 Y-17.971 Z-0.917 I-0.128 J-0.1
X-54.756 Y-17.772 Z-0.978 I0.128 J0.1
X-55.013 Y-17.971 Z-1.039 I-0.128 J-0.1
X-54.756 Y-17.772 Z-1.1 I0.128 J0.1
X-55.013 Y-17.971 Z-1.161 I-0.128 J-0.1
X-54.756 Y-17.772 Z-1.222 I0.128 J0.1
X-55.013 Y-17.971 Z-1.283 I-0.128 J-0.1
X-54.756 Y-17.772 Z-1.344 I0.128 J0.1
X-55.013 Y-17.971 Z-1.406 I-0.128 J-0.1
X-54.756 Y-17.772 Z-1.467 I0.128 J0.1
X-55.013 Y-17.971 Z-1.528 I-0.128 J-0.1
X-54.756 Y-17.772 Z-1.589 I0.128 J0.1
X-55.013 Y-17.971 Z-1.65 I-0.128 J-0.1
X-54.756 Y-17.772 Z-1.711 I0.128 J0.1
X-55.013 Y-17.971 Z-1.772 I-0.128 J-0.1
X-54.756 Y-17.772 Z-1.833 I0.128 J0.1
X-55.013 Y-17.971 Z-1.894 I-0.128 J-0.1
X-54.756 Y-17.772 Z-1.956 I0.128 J0.1
X-55.013 Y-17.971 Z-2.017 I-0.128 J-0.1
X-54.756 Y-17.772 Z-2.078 I0.128 J0.1
X-55.013 Y-17.971 Z-2.139 I-0.128 J-0.1
X-54.756 Y-17.772 Z-2.2 I0.128 J0.1
X-55.013 Y-17.971 Z-2.261 I-0.128 J-0.1
X-54.74 Y-17.947 Z-2.3 I0.128 J0.1
X-55.028 Y-17.796 I-0.144 J0.075
X-54.74 Y-17.947 I0.144 J-0.075
G1 X-54.731 Y-17.917
X-54.735 Y-17.885
X-54.75 Y-17.857
X-54.775 Y-17.837
X-54.915 Y-17.764
Z5
X-25.678 Y-11.266
Z1.683
Z0
X-25.553 Y-11.168
X-25.532 Y-11.144
X-25.522 Y-11.114
X-25.524 Y-11.083
X-25.538 Y-11.054
G3 X-25.795 Y-11.254 Z-0.061 I-0.128 J-0.1
X-25.538 Y-11.054 Z-0.122 I0.128 J0.1
X-25.795 Y-11.254 Z-0.183 I-0.128 J-0.1
X-25.538 Y-11.054 Z-0.244 I0.128 J0.1
X-25.795 Y-11.254 Z-0.306 I-0.128 J-0.1
X-25.538 Y-11.054 Z-0.367 I0.128 J0.1
X-25.795 Y-11.254 Z-0.428 I-0.128 J-0.1
X-25.538 Y-11.054 Z-0.489 I0.128 J0.1
X-25.795 Y-11.254 Z-0.55 I-0.128 J-0.1
X-25.538 Y-11.054 Z-0.611 I0.128 J0.1
X-25.795 Y-11.254 Z-0.672 I-0.128 J-0.1
X-25.538 Y-11.054 Z-0.733 I0.128 J0.1
X-25.795 Y-11.254 Z-0.794 I-0.128 J-0.1
X-25.538 Y-11.054 Z-0.856 I0.128 J0.1
X-25.795 Y-11.254 Z-0.917 I-0.128 J-0.1
X-25.538 Y-11.054 Z-0.978 I0.128 J0.1
X-25.795 Y-11.254 Z-1.039 I-0.128 J-0.1
X-25.538 Y-11.054 Z-1.1 I0.128 J0.1
X-25.795 Y-11.254 Z-1.161 I-0.128 J-0.1
X-25.538 Y-11.054 Z-1.222 I0.128 J0.1
X-25.795 Y-11.254 Z-1.283 I-0.128 J-0.1
X-25.538 Y-11.054 Z-1.344 I0.128 J0.1
X-25.795 Y-11.254 Z-1.406 I-0.128 J-0.1
X-25.538 Y-11.054 Z-1.467 I0.128 J0.1
X-25.795 Y-11.254 Z-1.528 I-0.128 J-0.1
X-25.538 Y-11.054 Z-1.589 I0.128 J0.1
X-25.795 Y-11.254 Z-1.65 I-0.128 J-0.1
X-25.538 Y-11.054 Z-1.711 I0.128 J0.1
X-25.795 Y-11.254 Z-1.772 I-0.128 J-0.1
X-25.538 Y-11.054 Z-1.833 I0.128 J0.1
X-25.795 Y-11.254 Z-1.894 I-0.128 J-0.1
X-25.538 Y-11.054 Z-1.956 I0.128 J0.1
X-25.795 Y-11.254 Z-2.017 I-0.128 J-0.1
X-25.538 Y-11.054 Z-2.078 I0.128 J0.1
X-25.795 Y-11.254 Z-2.139 I-0.128 J-0.1
X-25.538 Y-11.054 Z-2.2 I0.128 J0.1
X-25.795 Y-11.254 Z-2.261 I-0.128 J-0.1
X-25.523 Y-11.229 Z-2.3 I0.128 J0.1
X-25.811 Y-11.079 I-0.144 J0.075
X-25.523 Y-11.229 I0.144 J-0.075
G1 X-25.514 Y-11.199
X-25.517 Y-11.168
X-25.532 Y-11.14
X-25.557 Y-11.12
X-25.698 Y-11.046
Z5
X-39.113 Y-11.266
Z1.683
Z0
X-38.988 Y-11.168
X-38.967 Y-11.144
X-38.957 Y-11.114
X-38.959 Y-11.083
X-38.973 Y-11.054
G3 X-39.23 Y-11.254 Z-0.061 I-0.128 J-0.1
X-38.973 Y-11.054 Z-0.122 I0.128 J0.1
X-39.23 Y-11.254 Z-0.183 I-0.128 J-0.1
X-38.973 Y-11.054 Z-0.244 I0.128 J0.1
X-39.23 Y-11.254 Z-0.306 I-0.128 J-0.1
X-38.973 Y-11.054 Z-0.367 I0.128 J0.1
X-39.23 Y-11.254 Z-0.428 I-0.128 J-0.1
X-38.973 Y-11.054 Z-0.489 I0.128 J0.1
X-39.23 Y-11.254 Z-0.55 I-0.128 J-0.1
X-38.973 Y-11.054 Z-0.611 I0.128 J0.1
X-39.23 Y-11.254 Z-0.672 I-0.128 J-0.1
X-38.973 Y-11.054 Z-0.733 I0.128 J0.1
X-39.23 Y-11.254 Z-0.794 I-0.128 J-0.1
X-38.973 Y-11.054 Z-0.856 I0.128 J0.1
X-39.23 Y-11.254 Z-0.917 I-0.128 J-0.1
X-38.973 Y-11.054 Z-0.978 I0.128 J0.1
X-39.23 Y-11.254 Z-1.039 I-0.128 J-0.1
X-38.973 Y-11.054 Z-1.1 I0.128 J0.1
X-39.23 Y-11.254 Z-1.161 I-0.128 J-0.1
X-38.973 Y-11.054 Z-1.222 I0.128 J0.1
X-39.23 Y-11.254 Z-1.283 I-0.128 J-0.1
X-38.973 Y-11.054 Z-1.344 I0.128 J0.1
X-39.23 Y-11.254 Z-1.406 I-0.128 J-0.1
X-38.973 Y-11.054 Z-1.467 I0.128 J0.1
X-39.23 Y-11.254 Z-1.528 I-0.128 J-0.1
X-38.973 Y-11.054 Z-1.589 I0.128 J0.1
X-39.23 Y-11.254 Z-1.65 I-0.128 J-0.1
X-38.973 Y-11.054 Z-1.711 I0.128 J0.1
X-39.23 Y-11.254 Z-1.772 I-0.128 J-0.1
X-38.973 Y-11.054 Z-1.833 I0.128 J0.1
X-39.23 Y-11.254 Z-1.894 I-0.128 J-0.1
X-38.973 Y-11.054 Z-1.956 I0.128 J0.1
X-39.23 Y-11.254 Z-2.017 I-0.128 J-0.1
X-38.973 Y-11.054 Z-2.078 I0.128 J0.1
X-39.23 Y-11.254 Z-2.139 I-0.128 J-0.1
X-38.973 Y-11.054 Z-2.2 I0.128 J0.1
X-39.23 Y-11.254 Z-2.261 I-0.128 J-0.1
X-38.958 Y-11.229 Z-2.3 I0.128 J0.1
X-39.246 Y-11.079 I-0.144 J0.075
X-38.958 Y-11.229 I0.144 J-0.075
G1 X-38.949 Y-11.199
X-38.952 Y-11.168
X-38.967 Y-11.14
X-38.992 Y-11.12
X-39.133 Y-11.046
Z5
X-30.911 Y-17.129
Z2
Z0.317
X-30.905 Y-17.124 Z0.247
X-30.886 Y-17.11 Z0.18
X-30.857 Y-17.087 Z0.12
X-30.817 Y-17.056 Z0.069
X-30.769 Y-17.019 Z0.031
X-30.716 Y-16.978 Z0.008
X-30.66 Y-16.934 Z0
X-30.535 Y-16.837
G3 X-30.479 Y-16.391 I-0.195 J0.251
X-34.289 Y-19.352 Z-0.14 I-1.905 J-1.48
X-30.479 Y-16.391 Z-0.279 I1.905 J1.48
X-34.289 Y-19.352 Z-0.419 I-1.905 J-1.48
X-30.479 Y-16.391 Z-0.559 I1.905 J1.48
X-34.289 Y-19.352 Z-0.698 I-1.905 J-1.48
X-30.479 Y-16.391 Z-0.838 I1.905 J1.48
X-34.289 Y-19.352 Z-0.978 I-1.905 J-1.48
X-30.479 Y-16.391 Z-1.117 I1.905 J1.48
X-34.289 Y-19.352 Z-1.257 I-1.905 J-1.48
X-30.479 Y-16.391 Z-1.397 I1.905 J1.48
X-34.289 Y-19.352 Z-1.537 I-1.905 J-1.48
X-30.479 Y-16.391 Z-1.676 I1.905 J1.48
X-34.289 Y-19.352 Z-1.816 I-1.905 J-1.48
X-30.479 Y-16.391 Z-1.956 I1.905 J1.48
X-34.289 Y-19.352 Z-2.095 I-1.905 J-1.48
X-30.479 Y-16.391 Z-2.235 I1.905 J1.48
X-33.652 Y-15.819 Z-2.3 I-1.905 J-1.48
X-31.117 Y-19.924 I1.268 J-2.053
X-33.652 Y-15.819 I-1.268 J2.053
X-33.755 Y-16.256 I0.167 J-0.27
G1 X-33.672 Y-16.391
X-33.635 Y-16.451 Z-2.292
X-33.599 Y-16.508 Z-2.269
X-33.568 Y-16.559 Z-2.231
X-33.541 Y-16.602 Z-2.18
X-33.521 Y-16.634 Z-2.12
X-33.509 Y-16.654 Z-2.053
X-33.505 Y-16.661 Z-1.982
Z5
X-39.113 Y-24.701
Z1.683
Z0
X-38.988 Y-24.603
X-38.967 Y-24.579
X-38.957 Y-24.549
X-38.959 Y-24.518
X-38.973 Y-24.489
G3 X-39.23 Y-24.689 Z-0.061 I-0.128 J-0.1
X-38.973 Y-24.489 Z-0.122 I0.128 J0.1
X-39.23 Y-24.689 Z-0.183 I-0.128 J-0.1
X-38.973 Y-24.489 Z-0.244 I0.128 J0.1
X-39.23 Y-24.689 Z-0.306 I-0.128 J-0.1
X-38.973 Y-24.489 Z-0.367 I0.128 J0.1
X-39.23 Y-24.689 Z-0.428 I-0.128 J-0.1
X-38.973 Y-24.489 Z-0.489 I0.128 J0.1
X-39.23 Y-24.689 Z-0.55 I-0.128 J-0.1
X-38.973 Y-24.489 Z-0.611 I0.128 J0.1
X-39.23 Y-24.689 Z-0.672 I-0.128 J-0.1
X-38.973 Y-24.489 Z-0.733 I0.128 J0.1
X-39.23 Y-24.689 Z-0.794 I-0.128 J-0.1
X-38.973 Y-24.489 Z-0.856 I0.128 J0.1
X-39.23 Y-24.689 Z-0.917 I-0.128 J-0.1
X-38.973 Y-24.489 Z-0.978 I0.128 J0.1
X-39.23 Y-24.689 Z-1.039 I-0.128 J-0.1
X-38.973 Y-24.489 Z-1.1 I0.128 J0.1
X-39.23 Y-24.689 Z-1.161 I-0.128 J-0.1
X-38.973 Y-24.489 Z-1.222 I0.128 J0.1
X-39.23 Y-24.689 Z-1.283 I-0.128 J-0.1
X-38.973 Y-24.489 Z-1.344 I0.128 J0.1
X-39.23 Y-24.689 Z-1.406 I-0.128 J-0.1
X-38.973 Y-24.489 Z-1.467 I0.128 J0.1
X-39.23 Y-24.689 Z-1.528 I-0.128 J-0.1
X-38.973 Y-24.489 Z-1.589 I0.128 J0.1
X-39.23 Y-24.689 Z-1.65 I-0.128 J-0.1
X-38.973 Y-24.489 Z-1.711 I0.128 J0.1
X-39.23 Y-24.689 Z-1.772 I-0.128 J-0.1
X-38.973 Y-24.489 Z-1.833 I0.128 J0.1
X-39.23 Y-24.689 Z-1.894 I-0.128 J-0.1
X-38.973 Y-24.489 Z-1.956 I0.128 J0.1
X-39.23 Y-24.689 Z-2.017 I-0.128 J-0.1
X-38.973 Y-24.489 Z-2.078 I0.128 J0.1
X-39.23 Y-24.689 Z-2.139 I-0.128 J-0.1
X-38.973 Y-24.489 Z-2.2 I0.128 J0.1
X-39.23 Y-24.689 Z-2.261 I-0.128 J-0.1
X-38.958 Y-24.664 Z-2.3 I0.128 J0.1
X-39.246 Y-24.514 I-0.144 J0.075
X-38.958 Y-24.664 I0.144 J-0.075
G1 X-38.949 Y-24.634
X-38.952 Y-24.603
X-38.967 Y-24.575
X-38.992 Y-24.555
X-39.133 Y-24.481
Z5
X-25.678 Y-24.701
Z1.683
Z0
X-25.553 Y-24.603
X-25.532 Y-24.579
X-25.522 Y-24.549
X-25.524 Y-24.518
X-25.538 Y-24.489
G3 X-25.795 Y-24.689 Z-0.061 I-0.128 J-0.1
X-25.538 Y-24.489 Z-0.122 I0.128 J0.1
X-25.795 Y-24.689 Z-0.183 I-0.128 J-0.1
X-25.538 Y-24.489 Z-0.244 I0.128 J0.1
X-25.795 Y-24.689 Z-0.306 I-0.128 J-0.1
X-25.538 Y-24.489 Z-0.367 I0.128 J0.1
X-25.795 Y-24.689 Z-0.428 I-0.128 J-0.1
X-25.538 Y-24.489 Z-0.489 I0.128 J0.1
X-25.795 Y-24.689 Z-0.55 I-0.128 J-0.1
X-25.538 Y-24.489 Z-0.611 I0.128 J0.1
X-25.795 Y-24.689 Z-0.672 I-0.128 J-0.1
X-25.538 Y-24.489 Z-0.733 I0.128 J0.1
X-25.795 Y-24.689 Z-0.794 I-0.128 J-0.1
X-25.538 Y-24.489 Z-0.856 I0.128 J0.1
X-25.795 Y-24.689 Z-0.917 I-0.128 J-0.1
X-25.538 Y-24.489 Z-0.978 I0.128 J0.1
X-25.795 Y-24.689 Z-1.039 I-0.128 J-0.1
X-25.538 Y-24.489 Z-1.1 I0.128 J0.1
X-25.795 Y-24.689 Z-1.161 I-0.128 J-0.1
X-25.538 Y-24.489 Z-1.222 I0.128 J0.1
X-25.795 Y-24.689 Z-1.283 I-0.128 J-0.1
X-25.538 Y-24.489 Z-1.344 I0.128 J0.1
X-25.795 Y-24.689 Z-1.406 I-0.128 J-0.1
X-25.538 Y-24.489 Z-1.467 I0.128 J0.1
X-25.795 Y-24.689 Z-1.528 I-0.128 J-0.1
X-25.538 Y-24.489 Z-1.589 I0.128 J0.1
X-25.795 Y-24.689 Z-1.65 I-0.128 J-0.1
X-25.538 Y-24.489 Z-1.711 I0.128 J0.1
X-25.795 Y-24.689 Z-1.772 I-0.128 J-0.1
X-25.538 Y-24.489 Z-1.833 I0.128 J0.1
X-25.795 Y-24.689 Z-1.894 I-0.128 J-0.1
X-25.538 Y-24.489 Z-1.956 I0.128 J0.1
X-25.795 Y-24.689 Z-2.017 I-0.128 J-0.1
X-25.538 Y-24.489 Z-2.078 I0.128 J0.1
X-25.795 Y-24.689 Z-2.139 I-0.128 J-0.1
X-25.538 Y-24.489 Z-2.2 I0.128 J0.1
X-25.795 Y-24.689 Z-2.261 I-0.128 J-0.1
X-25.523 Y-24.664 Z-2.3 I0.128 J0.1
X-25.811 Y-24.514 I-0.144 J0.075
X-25.523 Y-24.664 I0.144 J-0.075
G1 X-25.514 Y-24.634
X-25.517 Y-24.603
X-25.532 Y-24.575
X-25.557 Y-24.555
X-25.698 Y-24.481
Z5
X-9.896 Y-17.983
Z1.683
Z0
X-9.77 Y-17.886
X-9.75 Y-17.862
X-9.74 Y-17.832
X-9.742 Y-17.8
X-9.756 Y-17.772
G3 X-10.013 Y-17.971 Z-0.061 I-0.128 J-0.1
X-9.756 Y-17.772 Z-0.122 I0.128 J0.1
X-10.013 Y-17.971 Z-0.183 I-0.128 J-0.1
X-9.756 Y-17.772 Z-0.244 I0.128 J0.1
X-10.013 Y-17.971 Z-0.306 I-0.128 J-0.1
X-9.756 Y-17.772 Z-0.367 I0.128 J0.1
X-10.013 Y-17.971 Z-0.428 I-0.128 J-0.1
X-9.756 Y-17.772 Z-0.489 I0.128 J0.1
X-10.013 Y-17.971 Z-0.55 I-0.128 J-0.1
X-9.756 Y-17.772 Z-0.611 I0.128 J0.1
X-10.013 Y-17.971 Z-0.672 I-0.128 J-0.1
X-9.756 Y-17.772 Z-0.733 I0.128 J0.1
X-10.013 Y-17.971 Z-0.794 I-0.128 J-0.1
X-9.756 Y-17.772 Z-0.856 I0.128 J0.1
X-10.013 Y-17.971 Z-0.917 I-0.128 J-0.1
X-9.756 Y-17.772 Z-0.978 I0.128 J0.1
X-10.013 Y-17.971 Z-1.039 I-0.128 J-0.1
X-9.756 Y-17.772 Z-1.1 I0.128 J0.1
X-10.013 Y-17.971 Z-1.161 I-0.128 J-0.1
X-9.756 Y-17.772 Z-1.222 I0.128 J0.1
X-10.013 Y-17.971 Z-1.283 I-0.128 J-0.1
X-9.756 Y-17.772 Z-1.344 I0.128 J0.1
X-10.013 Y-17.971 Z-1.406 I-0.128 J-0.1
X-9.756 Y-17.772 Z-1.467 I0.128 J0.1
X-10.013 Y-17.971 Z-1.528 I-0.128 J-0.1
X-9.756 Y-17.772 Z-1.589 I0.128 J0.1
X-10.013 Y-17.971 Z-1.65 I-0.128 J-0.1
X-9.756 Y-17.772 Z-1.711 I0.128 J0.1
X-10.013 Y-17.971 Z-1.772 I-0.128 J-0.1
X-9.756 Y-17.772 Z-1.833 I0.128 J0.1
X-10.013 Y-17.971 Z-1.894 I-0.128 J-0.1
X-9.756 Y-17.772 Z-1.956 I0.128 J0.1
X-10.013 Y-17.971 Z-2.017 I-0.128 J-0.1
X-9.756 Y-17.772 Z-2.078 I0.128 J0.1
X-10.013 Y-17.971 Z-2.139 I-0.128 J-0.1
X-9.756 Y-17.772 Z-2.2 I0.128 J0.1
X-10.013 Y-17.971 Z-2.261 I-0.128 J-0.1
X-9.74 Y-17.947 Z-2.3 I0.128 J0.1
X-10.028 Y-17.796 I-0.144 J0.075
X-9.74 Y-17.947 I0.144 J-0.075
G1 X-9.731 Y-17.917
X-9.735 Y-17.885
X-9.75 Y-17.857
X-9.775 Y-17.837
X-9.915 Y-17.764
Z5
X-11.942 Y-48.095
Z1.683
Z0
X-11.817 Y-47.997
X-11.796 Y-47.973
X-11.786 Y-47.943
X-11.789 Y-47.912
X-11.803 Y-47.883
G3 X-12.059 Y-48.083 Z-0.061 I-0.128 J-0.1
X-11.803 Y-47.883 Z-0.122 I0.128 J0.1
X-12.059 Y-48.083 Z-0.183 I-0.128 J-0.1
X-11.803 Y-47.883 Z-0.244 I0.128 J0.1
X-12.059 Y-48.083 Z-0.306 I-0.128 J-0.1
X-11.803 Y-47.883 Z-0.367 I0.128 J0.1
X-12.059 Y-48.083 Z-0.428 I-0.128 J-0.1
X-11.803 Y-47.883 Z-0.489 I0.128 J0.1
X-12.059 Y-48.083 Z-0.55 I-0.128 J-0.1
X-11.803 Y-47.883 Z-0.611 I0.128 J0.1
X-12.059 Y-48.083 Z-0.672 I-0.128 J-0.1
X-11.803 Y-47.883 Z-0.733 I0.128 J0.1
X-12.059 Y-48.083 Z-0.794 I-0.128 J-0.1
X-11.803 Y-47.883 Z-0.856 I0.128 J0.1
X-12.059 Y-48.083 Z-0.917 I-0.128 J-0.1
X-11.803 Y-47.883 Z-0.978 I0.128 J0.1
X-12.059 Y-48.083 Z-1.039 I-0.128 J-0.1
X-11.803 Y-47.883 Z-1.1 I0.128 J0.1
X-12.059 Y-48.083 Z-1.161 I-0.128 J-0.1
X-11.803 Y-47.883 Z-1.222 I0.128 J0.1
X-12.059 Y-48.083 Z-1.283 I-0.128 J-0.1
X-11.803 Y-47.883 Z-1.344 I0.128 J0.1
X-12.059 Y-48.083 Z-1.406 I-0.128 J-0.1
X-11.803 Y-47.883 Z-1.467 I0.128 J0.1
X-12.059 Y-48.083 Z-1.528 I-0.128 J-0.1
X-11.803 Y-47.883 Z-1.589 I0.128 J0.1
X-12.059 Y-48.083 Z-1.65 I-0.128 J-0.1
X-11.803 Y-47.883 Z-1.711 I0.128 J0.1
X-12.059 Y-48.083 Z-1.772 I-0.128 J-0.1
X-11.803 Y-47.883 Z-1.833 I0.128 J0.1
X-12.059 Y-48.083 Z-1.894 I-0.128 J-0.1
X-11.803 Y-47.883 Z-1.956 I0.128 J0.1
X-12.059 Y-48.083 Z-2.017 I-0.128 J-0.1
X-11.803 Y-47.883 Z-2.078 I0.128 J0.1
X-12.059 Y-48.083 Z-2.139 I-0.128 J-0.1
X-11.803 Y-47.883 Z-2.2 I0.128 J0.1
X-12.059 Y-48.083 Z-2.261 I-0.128 J-0.1
X-11.787 Y-48.058 Z-2.3 I0.128 J0.1
X-12.075 Y-47.908 I-0.144 J0.075
X-11.787 Y-48.058 I0.144 J-0.075
G1 X-11.778 Y-48.028
X-11.782 Y-47.996
X-11.797 Y-47.968
X-11.821 Y-47.949
X-11.962 Y-47.875
Z5
X-27.725 Y-54.812
Z1.683
Z0
X-27.6 Y-54.715
X-27.579 Y-54.691
X-27.569 Y-54.661
X-27.571 Y-54.629
X-27.585 Y-54.601
G3 X-27.842 Y-54.8 Z-0.061 I-0.128 J-0.1
X-27.585 Y-54.601 Z-0.122 I0.128 J0.1
X-27.842 Y-54.8 Z-0.183 I-0.128 J-0.1
X-27.585 Y-54.601 Z-0.244 I0.128 J0.1
X-27.842 Y-54.8 Z-0.306 I-0.128 J-0.1
X-27.585 Y-54.601 Z-0.367 I0.128 J0.1
X-27.842 Y-54.8 Z-0.428 I-0.128 J-0.1
X-27.585 Y-54.601 Z-0.489 I0.128 J0.1
X-27.842 Y-54.8 Z-0.55 I-0.128 J-0.1
X-27.585 Y-54.601 Z-0.611 I0.128 J0.1
X-27.842 Y-54.8 Z-0.672 I-0.128 J-0.1
X-27.585 Y-54.601 Z-0.733 I0.128 J0.1
X-27.842 Y-54.8 Z-0.794 I-0.128 J-0.1
X-27.585 Y-54.601 Z-0.856 I0.128 J0.1
X-27.842 Y-54.8 Z-0.917 I-0.128 J-0.1
X-27.585 Y-54.601 Z-0.978 I0.128 J0.1
X-27.842 Y-54.8 Z-1.039 I-0.128 J-0.1
X-27.585 Y-54.601 Z-1.1 I0.128 J0.1
X-27.842 Y-54.8 Z-1.161 I-0.128 J-0.1
X-27.585 Y-54.601 Z-1.222 I0.128 J0.1
X-27.842 Y-54.8 Z-1.283 I-0.128 J-0.1
X-27.585 Y-54.601 Z-1.344 I0.128 J0.1
X-27.842 Y-54.8 Z-1.406 I-0.128 J-0.1
X-27.585 Y-54.601 Z-1.467 I0.128 J0.1
X-27.842 Y-54.8 Z-1.528 I-0.128 J-0.1
X-27.585 Y-54.601 Z-1.589 I0.128 J0.1
X-27.842 Y-54.8 Z-1.65 I-0.128 J-0.1
X-27.585 Y-54.601 Z-1.711 I0.128 J0.1
X-27.842 Y-54.8 Z-1.772 I-0.128 J-0.1
X-27.585 Y-54.601 Z-1.833 I0.128 J0.1
X-27.842 Y-54.8 Z-1.894 I-0.128 J-0.1
X-27.585 Y-54.601 Z-1.956 I0.128 J0.1
X-27.842 Y-54.8 Z-2.017 I-0.128 J-0.1
X-27.585 Y-54.601 Z-2.078 I0.128 J0.1
X-27.842 Y-54.8 Z-2.139 I-0.128 J-0.1
X-27.585 Y-54.601 Z-2.2 I0.128 J0.1
X-27.842 Y-54.8 Z-2.261 I-0.128 J-0.1
X-27.57 Y-54.776 Z-2.3 I0.128 J0.1
X-27.858 Y-54.625 I-0.144 J0.075
X-27.57 Y-54.776 I0.144 J-0.075
G1 X-27.561 Y-54.745
X-27.564 Y-54.714
X-27.579 Y-54.686
X-27.604 Y-54.666
X-27.745 Y-54.592
Z5
X-41.16 Y-54.812
Z1.683
Z0
X-41.035 Y-54.715
X-41.014 Y-54.691
X-41.004 Y-54.661
X-41.006 Y-54.629
X-41.02 Y-54.601
G3 X-41.277 Y-54.8 Z-0.061 I-0.128 J-0.1
X-41.02 Y-54.601 Z-0.122 I0.128 J0.1
X-41.277 Y-54.8 Z-0.183 I-0.128 J-0.1
X-41.02 Y-54.601 Z-0.244 I0.128 J0.1
X-41.277 Y-54.8 Z-0.306 I-0.128 J-0.1
X-41.02 Y-54.601 Z-0.367 I0.128 J0.1
X-41.277 Y-54.8 Z-0.428 I-0.128 J-0.1
X-41.02 Y-54.601 Z-0.489 I0.128 J0.1
X-41.277 Y-54.8 Z-0.55 I-0.128 J-0.1
X-41.02 Y-54.601 Z-0.611 I0.128 J0.1
X-41.277 Y-54.8 Z-0.672 I-0.128 J-0.1
X-41.02 Y-54.601 Z-0.733 I0.128 J0.1
X-41.277 Y-54.8 Z-0.794 I-0.128 J-0.1
X-41.02 Y-54.601 Z-0.856 I0.128 J0.1
X-41.277 Y-54.8 Z-0.917 I-0.128 J-0.1
X-41.02 Y-54.601 Z-0.978 I0.128 J0.1
X-41.277 Y-54.8 Z-1.039 I-0.128 J-0.1
X-41.02 Y-54.601 Z-1.1 I0.128 J0.1
X-41.277 Y-54.8 Z-1.161 I-0.128 J-0.1
X-41.02 Y-54.601 Z-1.222 I0.128 J0.1
X-41.277 Y-54.8 Z-1.283 I-0.128 J-0.1
X-41.02 Y-54.601 Z-1.344 I0.128 J0.1
X-41.277 Y-54.8 Z-1.406 I-0.128 J-0.1
X-41.02 Y-54.601 Z-1.467 I0.128 J0.1
X-41.277 Y-54.8 Z-1.528 I-0.128 J-0.1
X-41.02 Y-54.601 Z-1.589 I0.128 J0.1
X-41.277 Y-54.8 Z-1.65 I-0.128 J-0.1
X-41.02 Y-54.601 Z-1.711 I0.128 J0.1
X-41.277 Y-54.8 Z-1.772 I-0.128 J-0.1
X-41.02 Y-54.601 Z-1.833 I0.128 J0.1
X-41.277 Y-54.8 Z-1.894 I-0.128 J-0.1
X-41.02 Y-54.601 Z-1.956 I0.128 J0.1
X-41.277 Y-54.8 Z-2.017 I-0.128 J-0.1
X-41.02 Y-54.601 Z-2.078 I0.128 J0.1
X-41.277 Y-54.8 Z-2.139 I-0.128 J-0.1
X-41.02 Y-54.601 Z-2.2 I0.128 J0.1
X-41.277 Y-54.8 Z-2.261 I-0.128 J-0.1
X-41.005 Y-54.776 Z-2.3 I0.128 J0.1
X-41.293 Y-54.625 I-0.144 J0.075
X-41.005 Y-54.776 I0.144 J-0.075
G1 X-40.996 Y-54.745
X-40.999 Y-54.714
X-41.014 Y-54.686
X-41.039 Y-54.666
X-41.18 Y-54.592
Z5
X-32.958 Y-47.24
Z2
Z0.317
X-32.952 Y-47.236 Z0.247
X-32.933 Y-47.221 Z0.18
X-32.903 Y-47.198 Z0.12
X-32.864 Y-47.167 Z0.069
X-32.816 Y-47.13 Z0.031
X-32.763 Y-47.089 Z0.008
X-32.707 Y-47.046 Z0
X-32.582 Y-46.948
G3 X-32.526 Y-46.503 I-0.195 J0.251
X-36.336 Y-49.463 Z-0.14 I-1.905 J-1.48
X-32.526 Y-46.503 Z-0.279 I1.905 J1.48
X-36.336 Y-49.463 Z-0.419 I-1.905 J-1.48
X-32.526 Y-46.503 Z-0.559 I1.905 J1.48
X-36.336 Y-49.463 Z-0.698 I-1.905 J-1.48
X-32.526 Y-46.503 Z-0.838 I1.905 J1.48
X-36.336 Y-49.463 Z-0.978 I-1.905 J-1.48
X-32.526 Y-46.503 Z-1.117 I1.905 J1.48
X-36.336 Y-49.463 Z-1.257 I-1.905 J-1.48
X-32.526 Y-46.503 Z-1.397 I1.905 J1.48
X-36.336 Y-49.463 Z-1.537 I-1.905 J-1.48
X-32.526 Y-46.503 Z-1.676 I1.905 J1.48
X-36.336 Y-49.463 Z-1.816 I-1.905 J-1.48
X-32.526 Y-46.503 Z-1.956 I1.905 J1.48
X-36.336 Y-49.463 Z-2.095 I-1.905 J-1.48
X-32.526 Y-46.503 Z-2.235 I1.905 J1.48
X-35.699 Y-45.93 Z-2.3 I-1.905 J-1.48
X-33.164 Y-50.036 I1.268 J-2.053
X-35.699 Y-45.93 I-1.268 J2.053
X-35.802 Y-46.367 I0.167 J-0.27
G1 X-35.719 Y-46.502
X-35.681 Y-46.562 Z-2.292
X-35.646 Y-46.619 Z-2.269
X-35.615 Y-46.671 Z-2.231
X-35.588 Y-46.713 Z-2.18
X-35.568 Y-46.746 Z-2.12
X-35.556 Y-46.766 Z-2.053
X-35.552 Y-46.772 Z-1.982
Z5
X-41.16 Y-41.377
Z1.683
Z0
X-41.035 Y-41.28
X-41.014 Y-41.256
X-41.004 Y-41.226
X-41.006 Y-41.194
X-41.02 Y-41.166
G3 X-41.277 Y-41.365 Z-0.061 I-0.128 J-0.1
X-41.02 Y-41.166 Z-0.122 I0.128 J0.1
X-41.277 Y-41.365 Z-0.183 I-0.128 J-0.1
X-41.02 Y-41.166 Z-0.244 I0.128 J0.1
X-41.277 Y-41.365 Z-0.306 I-0.128 J-0.1
X-41.02 Y-41.166 Z-0.367 I0.128 J0.1
X-41.277 Y-41.365 Z-0.428 I-0.128 J-0.1
X-41.02 Y-41.166 Z-0.489 I0.128 J0.1
X-41.277 Y-41.365 Z-0.55 I-0.128 J-0.1
X-41.02 Y-41.166 Z-0.611 I0.128 J0.1
X-41.277 Y-41.365 Z-0.672 I-0.128 J-0.1
X-41.02 Y-41.166 Z-0.733 I0.128 J0.1
X-41.277 Y-41.365 Z-0.794 I-0.128 J-0.1
X-41.02 Y-41.166 Z-0.856 I0.128 J0.1
X-41.277 Y-41.365 Z-0.917 I-0.128 J-0.1
X-41.02 Y-41.166 Z-0.978 I0.128 J0.1
X-41.277 Y-41.365 Z-1.039 I-0.128 J-0.1
X-41.02 Y-41.166 Z-1.1 I0.128 J0.1
X-41.277 Y-41.365 Z-1.161 I-0.128 J-0.1
X-41.02 Y-41.166 Z-1.222 I0.128 J0.1
X-41.277 Y-41.365 Z-1.283 I-0.128 J-0.1
X-41.02 Y-41.166 Z-1.344 I0.128 J0.1
X-41.277 Y-41.365 Z-1.406 I-0.128 J-0.1
X-41.02 Y-41.166 Z-1.467 I0.128 J0.1
X-41.277 Y-41.365 Z-1.528 I-0.128 J-0.1
X-41.02 Y-41.166 Z-1.589 I0.128 J0.1
X-41.277 Y-41.365 Z-1.65 I-0.128 J-0.1
X-41.02 Y-41.166 Z-1.711 I0.128 J0.1
X-41.277 Y-41.365 Z-1.772 I-0.128 J-0.1
X-41.02 Y-41.166 Z-1.833 I0.128 J0.1
X-41.277 Y-41.365 Z-1.894 I-0.128 J-0.1
X-41.02 Y-41.166 Z-1.956 I0.128 J0.1
X-41.277 Y-41.365 Z-2.017 I-0.128 J-0.1
X-41.02 Y-41.166 Z-2.078 I0.128 J0.1
X-41.277 Y-41.365 Z-2.139 I-0.128 J-0.1
X-41.02 Y-41.166 Z-2.2 I0.128 J0.1
X-41.277 Y-41.365 Z-2.261 I-0.128 J-0.1
X-41.005 Y-41.341 Z-2.3 I0.128 J0.1
X-41.293 Y-41.19 I-0.144 J0.075
X-41.005 Y-41.341 I0.144 J-0.075
G1 X-40.996 Y-41.31
X-40.999 Y-41.279
X-41.014 Y-41.251
X-41.039 Y-41.231
X-41.18 Y-41.157
Z5
X-27.725 Y-41.377
Z1.683
Z0
X-27.6 Y-41.28
X-27.579 Y-41.256
X-27.569 Y-41.226
X-27.571 Y-41.194
X-27.585 Y-41.166
G3 X-27.842 Y-41.365 Z-0.061 I-0.128 J-0.1
X-27.585 Y-41.166 Z-0.122 I0.128 J0.1
X-27.842 Y-41.365 Z-0.183 I-0.128 J-0.1
X-27.585 Y-41.166 Z-0.244 I0.128 J0.1
X-27.842 Y-41.365 Z-0.306 I-0.128 J-0.1
X-27.585 Y-41.166 Z-0.367 I0.128 J0.1
X-27.842 Y-41.365 Z-0.428 I-0.128 J-0.1
X-27.585 Y-41.166 Z-0.489 I0.128 J0.1
X-27.842 Y-41.365 Z-0.55 I-0.128 J-0.1
X-27.585 Y-41.166 Z-0.611 I0.128 J0.1
X-27.842 Y-41.365 Z-0.672 I-0.128 J-0.1
X-27.585 Y-41.166 Z-0.733 I0.128 J0.1
X-27.842 Y-41.365 Z-0.794 I-0.128 J-0.1
X-27.585 Y-41.166 Z-0.856 I0.128 J0.1
X-27.842 Y-41.365 Z-0.917 I-0.128 J-0.1
X-27.585 Y-41.166 Z-0.978 I0.128 J0.1
X-27.842 Y-41.365 Z-1.039 I-0.128 J-0.1
X-27.585 Y-41.166 Z-1.1 I0.128 J0.1
X-27.842 Y-41.365 Z-1.161 I-0.128 J-0.1
X-27.585 Y-41.166 Z-1.222 I0.128 J0.1
X-27.842 Y-41.365 Z-1.283 I-0.128 J-0.1
X-27.585 Y-41.166 Z-1.344 I0.128 J0.1
X-27.842 Y-41.365 Z-1.406 I-0.128 J-0.1
X-27.585 Y-41.166 Z-1.467 I0.128 J0.1
X-27.842 Y-41.365 Z-1.528 I-0.128 J-0.1
X-27.585 Y-41.166 Z-1.589 I0.128 J0.1
X-27.842 Y-41.365 Z-1.65 I-0.128 J-0.1
X-27.585 Y-41.166 Z-1.711 I0.128 J0.1
X-27.842 Y-41.365 Z-1.772 I-0.128 J-0.1
X-27.585 Y-41.166 Z-1.833 I0.128 J0.1
X-27.842 Y-41.365 Z-1.894 I-0.128 J-0.1
X-27.585 Y-41.166 Z-1.956 I0.128 J0.1
X-27.842 Y-41.365 Z-2.017 I-0.128 J-0.1
X-27.585 Y-41.166 Z-2.078 I0.128 J0.1
X-27.842 Y-41.365 Z-2.139 I-0.128 J-0.1
X-27.585 Y-41.166 Z-2.2 I0.128 J0.1
X-27.842 Y-41.365 Z-2.261 I-0.128 J-0.1
X-27.57 Y-41.341 Z-2.3 I0.128 J0.1
X-27.858 Y-41.19 I-0.144 J0.075
X-27.57 Y-41.341 I0.144 J-0.075
G1 X-27.561 Y-41.31
X-27.564 Y-41.279
X-27.579 Y-41.251
X-27.604 Y-41.231
X-27.745 Y-41.157
Z5
X-56.942 Y-48.095
Z1.683
Z0
X-56.817 Y-47.997
X-56.796 Y-47.973
X-56.786 Y-47.943
X-56.789 Y-47.912
X-56.803 Y-47.883
G3 X-57.059 Y-48.083 Z-0.061 I-0.128 J-0.1
X-56.803 Y-47.883 Z-0.122 I0.128 J0.1
X-57.059 Y-48.083 Z-0.183 I-0.128 J-0.1
X-56.803 Y-47.883 Z-0.244 I0.128 J0.1
X-57.059 Y-48.083 Z-0.306 I-0.128 J-0.1
X-56.803 Y-47.883 Z-0.367 I0.128 J0.1
X-57.059 Y-48.083 Z-0.428 I-0.128 J-0.1
X-56.803 Y-47.883 Z-0.489 I0.128 J0.1
X-57.059 Y-48.083 Z-0.55 I-0.128 J-0.1
X-56.803 Y-47.883 Z-0.611 I0.128 J0.1
X-57.059 Y-48.083 Z-0.672 I-0.128 J-0.1
X-56.803 Y-47.883 Z-0.733 I0.128 J0.1
X-57.059 Y-48.083 Z-0.794 I-0.128 J-0.1
X-56.803 Y-47.883 Z-0.856 I0.128 J0.1
X-57.059 Y-48.083 Z-0.917 I-0.128 J-0.1
X-56.803 Y-47.883 Z-0.978 I0.128 J0.1
X-57.059 Y-48.083 Z-1.039 I-0.128 J-0.1
X-56.803 Y-47.883 Z-1.1 I0.128 J0.1
X-57.059 Y-48.083 Z-1.161 I-0.128 J-0.1
X-56.803 Y-47.883 Z-1.222 I0.128 J0.1
X-57.059 Y-48.083 Z-1.283 I-0.128 J-0.1
X-56.803 Y-47.883 Z-1.344 I0.128 J0.1
X-57.059 Y-48.083 Z-1.406 I-0.128 J-0.1
X-56.803 Y-47.883 Z-1.467 I0.128 J0.1
X-57.059 Y-48.083 Z-1.528 I-0.128 J-0.1
X-56.803 Y-47.883 Z-1.589 I0.128 J0.1
X-57.059 Y-48.083 Z-1.65 I-0.128 J-0.1
X-56.803 Y-47.883 Z-1.711 I0.128 J0.1
X-57.059 Y-48.083 Z-1.772 I-0.128 J-0.1
X-56.803 Y-47.883 Z-1.833 I0.128 J0.1
X-57.059 Y-48.083 Z-1.894 I-0.128 J-0.1
X-56.803 Y-47.883 Z-1.956 I0.128 J0.1
X-57.059 Y-48.083 Z-2.017 I-0.128 J-0.1
X-56.803 Y-47.883 Z-2.078 I0.128 J0.1
X-57.059 Y-48.083 Z-2.139 I-0.128 J-0.1
X-56.803 Y-47.883 Z-2.2 I0.128 J0.1
X-57.059 Y-48.083 Z-2.261 I-0.128 J-0.1
X-56.787 Y-48.058 Z-2.3 I0.128 J0.1
X-57.075 Y-47.908 I-0.144 J0.075
X-56.787 Y-48.058 I0.144 J-0.075
G1 X-56.778 Y-48.028
X-56.782 Y-47.996
X-56.797 Y-47.968
X-56.821 Y-47.949
X-56.962 Y-47.875
Z5
X-58.454 Y-79.554
Z1.683
Z0
X-58.329 Y-79.457
X-58.308 Y-79.433
X-58.298 Y-79.403
X-58.3 Y-79.371
X-58.315 Y-79.343
G3 X-58.571 Y-79.542 Z-0.061 I-0.128 J-0.1
X-58.315 Y-79.343 Z-0.122 I0.128 J0.1
X-58.571 Y-79.542 Z-0.183 I-0.128 J-0.1
X-58.315 Y-79.343 Z-0.244 I0.128 J0.1
X-58.571 Y-79.542 Z-0.306 I-0.128 J-0.1
X-58.315 Y-79.343 Z-0.367 I0.128 J0.1
X-58.571 Y-79.542 Z-0.428 I-0.128 J-0.1
X-58.315 Y-79.343 Z-0.489 I0.128 J0.1
X-58.571 Y-79.542 Z-0.55 I-0.128 J-0.1
X-58.315 Y-79.343 Z-0.611 I0.128 J0.1
X-58.571 Y-79.542 Z-0.672 I-0.128 J-0.1
X-58.315 Y-79.343 Z-0.733 I0.128 J0.1
X-58.571 Y-79.542 Z-0.794 I-0.128 J-0.1
X-58.315 Y-79.343 Z-0.856 I0.128 J0.1
X-58.571 Y-79.542 Z-0.917 I-0.128 J-0.1
X-58.315 Y-79.343 Z-0.978 I0.128 J0.1
X-58.571 Y-79.542 Z-1.039 I-0.128 J-0.1
X-58.315 Y-79.343 Z-1.1 I0.128 J0.1
X-58.571 Y-79.542 Z-1.161 I-0.128 J-0.1
X-58.315 Y-79.343 Z-1.222 I0.128 J0.1
X-58.571 Y-79.542 Z-1.283 I-0.128 J-0.1
X-58.315 Y-79.343 Z-1.344 I0.128 J0.1
X-58.571 Y-79.542 Z-1.406 I-0.128 J-0.1
X-58.315 Y-79.343 Z-1.467 I0.128 J0.1
X-58.571 Y-79.542 Z-1.528 I-0.128 J-0.1
X-58.315 Y-79.343 Z-1.589 I0.128 J0.1
X-58.571 Y-79.542 Z-1.65 I-0.128 J-0.1
X-58.315 Y-79.343 Z-1.711 I0.128 J0.1
X-58.571 Y-79.542 Z-1.772 I-0.128 J-0.1
X-58.315 Y-79.343 Z-1.833 I0.128 J0.1
X-58.571 Y-79.542 Z-1.894 I-0.128 J-0.1
X-58.315 Y-79.343 Z-1.956 I0.128 J0.1
X-58.571 Y-79.542 Z-2.017 I-0.128 J-0.1
X-58.315 Y-79.343 Z-2.078 I0.128 J0.1
X-58.571 Y-79.542 Z-2.139 I-0.128 J-0.1
X-58.315 Y-79.343 Z-2.2 I0.128 J0.1
X-58.571 Y-79.542 Z-2.261 I-0.128 J-0.1
X-58.299 Y-79.518 Z-2.3 I0.128 J0.1
X-58.587 Y-79.367 I-0.144 J0.075
X-58.299 Y-79.518 I0.144 J-0.075
G1 X-58.29 Y-79.488
X-58.293 Y-79.456
X-58.309 Y-79.428
X-58.333 Y-79.408
X-58.474 Y-79.335
Z5
X-42.672 Y-72.837
Z1.683
Z0
X-42.546 Y-72.739
X-42.526 Y-72.715
X-42.516 Y-72.685
X-42.518 Y-72.654
X-42.532 Y-72.625
G3 X-42.789 Y-72.825 Z-0.061 I-0.128 J-0.1
X-42.532 Y-72.625 Z-0.122 I0.128 J0.1
X-42.789 Y-72.825 Z-0.183 I-0.128 J-0.1
X-42.532 Y-72.625 Z-0.244 I0.128 J0.1
X-42.789 Y-72.825 Z-0.306 I-0.128 J-0.1
X-42.532 Y-72.625 Z-0.367 I0.128 J0.1
X-42.789 Y-72.825 Z-0.428 I-0.128 J-0.1
X-42.532 Y-72.625 Z-0.489 I0.128 J0.1
X-42.789 Y-72.825 Z-0.55 I-0.128 J-0.1
X-42.532 Y-72.625 Z-0.611 I0.128 J0.1
X-42.789 Y-72.825 Z-0.672 I-0.128 J-0.1
X-42.532 Y-72.625 Z-0.733 I0.128 J0.1
X-42.789 Y-72.825 Z-0.794 I-0.128 J-0.1
X-42.532 Y-72.625 Z-0.856 I0.128 J0.1
X-42.789 Y-72.825 Z-0.917 I-0.128 J-0.1
X-42.532 Y-72.625 Z-0.978 I0.128 J0.1
X-42.789 Y-72.825 Z-1.039 I-0.128 J-0.1
X-42.532 Y-72.625 Z-1.1 I0.128 J0.1
X-42.789 Y-72.825 Z-1.161 I-0.128 J-0.1
X-42.532 Y-72.625 Z-1.222 I0.128 J0.1
X-42.789 Y-72.825 Z-1.283 I-0.128 J-0.1
X-42.532 Y-72.625 Z-1.344 I0.128 J0.1
X-42.789 Y-72.825 Z-1.406 I-0.128 J-0.1
X-42.532 Y-72.625 Z-1.467 I0.128 J0.1
X-42.789 Y-72.825 Z-1.528 I-0.128 J-0.1
X-42.532 Y-72.625 Z-1.589 I0.128 J0.1
X-42.789 Y-72.825 Z-1.65 I-0.128 J-0.1
X-42.532 Y-72.625 Z-1.711 I0.128 J0.1
X-42.789 Y-72.825 Z-1.772 I-0.128 J-0.1
X-42.532 Y-72.625 Z-1.833 I0.128 J0.1
X-42.789 Y-72.825 Z-1.894 I-0.128 J-0.1
X-42.532 Y-72.625 Z-1.956 I0.128 J0.1
X-42.789 Y-72.825 Z-2.017 I-0.128 J-0.1
X-42.532 Y-72.625 Z-2.078 I0.128 J0.1
X-42.789 Y-72.825 Z-2.139 I-0.128 J-0.1
X-42.532 Y-72.625 Z-2.2 I0.128 J0.1
X-42.789 Y-72.825 Z-2.261 I-0.128 J-0.1
X-42.516 Y-72.801 Z-2.3 I0.128 J0.1
X-42.804 Y-72.65 I-0.144 J0.075
X-42.516 Y-72.801 I0.144 J-0.075
G1 X-42.507 Y-72.77
X-42.511 Y-72.739
X-42.526 Y-72.711
X-42.551 Y-72.691
X-42.691 Y-72.617
Z5
X-29.237 Y-72.837
Z1.683
Z0
X-29.111 Y-72.739
X-29.091 Y-72.715
X-29.081 Y-72.685
X-29.083 Y-72.654
X-29.097 Y-72.625
G3 X-29.354 Y-72.825 Z-0.061 I-0.128 J-0.1
X-29.097 Y-72.625 Z-0.122 I0.128 J0.1
X-29.354 Y-72.825 Z-0.183 I-0.128 J-0.1
X-29.097 Y-72.625 Z-0.244 I0.128 J0.1
X-29.354 Y-72.825 Z-0.306 I-0.128 J-0.1
X-29.097 Y-72.625 Z-0.367 I0.128 J0.1
X-29.354 Y-72.825 Z-0.428 I-0.128 J-0.1
X-29.097 Y-72.625 Z-0.489 I0.128 J0.1
X-29.354 Y-72.825 Z-0.55 I-0.128 J-0.1
X-29.097 Y-72.625 Z-0.611 I0.128 J0.1
X-29.354 Y-72.825 Z-0.672 I-0.128 J-0.1
X-29.097 Y-72.625 Z-0.733 I0.128 J0.1
X-29.354 Y-72.825 Z-0.794 I-0.128 J-0.1
X-29.097 Y-72.625 Z-0.856 I0.128 J0.1
X-29.354 Y-72.825 Z-0.917 I-0.128 J-0.1
X-29.097 Y-72.625 Z-0.978 I0.128 J0.1
X-29.354 Y-72.825 Z-1.039 I-0.128 J-0.1
X-29.097 Y-72.625 Z-1.1 I0.128 J0.1
X-29.354 Y-72.825 Z-1.161 I-0.128 J-0.1
X-29.097 Y-72.625 Z-1.222 I0.128 J0.1
X-29.354 Y-72.825 Z-1.283 I-0.128 J-0.1
X-29.097 Y-72.625 Z-1.344 I0.128 J0.1
X-29.354 Y-72.825 Z-1.406 I-0.128 J-0.1
X-29.097 Y-72.625 Z-1.467 I0.128 J0.1
X-29.354 Y-72.825 Z-1.528 I-0.128 J-0.1
X-29.097 Y-72.625 Z-1.589 I0.128 J0.1
X-29.354 Y-72.825 Z-1.65 I-0.128 J-0.1
X-29.097 Y-72.625 Z-1.711 I0.128 J0.1
X-29.354 Y-72.825 Z-1.772 I-0.128 J-0.1
X-29.097 Y-72.625 Z-1.833 I0.128 J0.1
X-29.354 Y-72.825 Z-1.894 I-0.128 J-0.1
X-29.097 Y-72.625 Z-1.956 I0.128 J0.1
X-29.354 Y-72.825 Z-2.017 I-0.128 J-0.1
X-29.097 Y-72.625 Z-2.078 I0.128 J0.1
X-29.354 Y-72.825 Z-2.139 I-0.128 J-0.1
X-29.097 Y-72.625 Z-2.2 I0.128 J0.1
X-29.354 Y-72.825 Z-2.261 I-0.128 J-0.1
X-29.081 Y-72.801 Z-2.3 I0.128 J0.1
X-29.369 Y-72.65 I-0.144 J0.075
X-29.081 Y-72.801 I0.144 J-0.075
G1 X-29.072 Y-72.77
X-29.076 Y-72.739
X-29.091 Y-72.711
X-29.116 Y-72.691
X-29.256 Y-72.617
Z5
X-34.47 Y-78.7
Z2
Z0.317
X-34.464 Y-78.695 Z0.247
X-34.445 Y-78.681 Z0.18
X-34.415 Y-78.658 Z0.12
X-34.375 Y-78.627 Z0.069
X-34.328 Y-78.59 Z0.031
X-34.275 Y-78.549 Z0.008
X-34.219 Y-78.505 Z0
X-34.094 Y-78.408
G3 X-34.038 Y-77.963 I-0.195 J0.251
X-37.848 Y-80.923 Z-0.14 I-1.905 J-1.48
X-34.038 Y-77.963 Z-0.279 I1.905 J1.48
X-37.848 Y-80.923 Z-0.419 I-1.905 J-1.48
X-34.038 Y-77.963 Z-0.559 I1.905 J1.48
X-37.848 Y-80.923 Z-0.698 I-1.905 J-1.48
X-34.038 Y-77.963 Z-0.838 I1.905 J1.48
X-37.848 Y-80.923 Z-0.978 I-1.905 J-1.48
X-34.038 Y-77.963 Z-1.117 I1.905 J1.48
X-37.848 Y-80.923 Z-1.257 I-1.905 J-1.48
X-34.038 Y-77.963 Z-1.397 I1.905 J1.48
X-37.848 Y-80.923 Z-1.537 I-1.905 J-1.48
X-34.038 Y-77.963 Z-1.676 I1.905 J1.48
X-37.848 Y-80.923 Z-1.816 I-1.905 J-1.48
X-34.038 Y-77.963 Z-1.956 I1.905 J1.48
X-37.848 Y-80.923 Z-2.095 I-1.905 J-1.48
X-34.038 Y-77.963 Z-2.235 I1.905 J1.48
X-37.21 Y-77.39 Z-2.3 I-1.905 J-1.48
X-34.675 Y-81.495 I1.268 J-2.053
X-37.21 Y-77.39 I-1.268 J2.053
X-37.314 Y-77.827 I0.167 J-0.27
G1 X-37.23 Y-77.962
X-37.193 Y-78.022 Z-2.292
X-37.158 Y-78.079 Z-2.269
X-37.126 Y-78.13 Z-2.231
X-37.1 Y-78.173 Z-2.18
X-37.08 Y-78.205 Z-2.12
X-37.068 Y-78.225 Z-2.053
X-37.064 Y-78.232 Z-1.982
Z5
X-42.672 Y-86.272
Z1.683
Z0
X-42.546 Y-86.174
X-42.526 Y-86.151
X-42.516 Y-86.12
X-42.518 Y-86.089
X-42.532 Y-86.06
G3 X-42.789 Y-86.26 Z-0.061 I-0.128 J-0.1
X-42.532 Y-86.06 Z-0.122 I0.128 J0.1
X-42.789 Y-86.26 Z-0.183 I-0.128 J-0.1
X-42.532 Y-86.06 Z-0.244 I0.128 J0.1
X-42.789 Y-86.26 Z-0.306 I-0.128 J-0.1
X-42.532 Y-86.06 Z-0.367 I0.128 J0.1
X-42.789 Y-86.26 Z-0.428 I-0.128 J-0.1
X-42.532 Y-86.06 Z-0.489 I0.128 J0.1
X-42.789 Y-86.26 Z-0.55 I-0.128 J-0.1
X-42.532 Y-86.06 Z-0.611 I0.128 J0.1
X-42.789 Y-86.26 Z-0.672 I-0.128 J-0.1
X-42.532 Y-86.06 Z-0.733 I0.128 J0.1
X-42.789 Y-86.26 Z-0.794 I-0.128 J-0.1
X-42.532 Y-86.06 Z-0.856 I0.128 J0.1
X-42.789 Y-86.26 Z-0.917 I-0.128 J-0.1
X-42.532 Y-86.06 Z-0.978 I0.128 J0.1
X-42.789 Y-86.26 Z-1.039 I-0.128 J-0.1
X-42.532 Y-86.06 Z-1.1 I0.128 J0.1
X-42.789 Y-86.26 Z-1.161 I-0.128 J-0.1
X-42.532 Y-86.06 Z-1.222 I0.128 J0.1
X-42.789 Y-86.26 Z-1.283 I-0.128 J-0.1
X-42.532 Y-86.06 Z-1.344 I0.128 J0.1
X-42.789 Y-86.26 Z-1.406 I-0.128 J-0.1
X-42.532 Y-86.06 Z-1.467 I0.128 J0.1
X-42.789 Y-86.26 Z-1.528 I-0.128 J-0.1
X-42.532 Y-86.06 Z-1.589 I0.128 J0.1
X-42.789 Y-86.26 Z-1.65 I-0.128 J-0.1
X-42.532 Y-86.06 Z-1.711 I0.128 J0.1
X-42.789 Y-86.26 Z-1.772 I-0.128 J-0.1
X-42.532 Y-86.06 Z-1.833 I0.128 J0.1
X-42.789 Y-86.26 Z-1.894 I-0.128 J-0.1
X-42.532 Y-86.06 Z-1.956 I0.128 J0.1
X-42.789 Y-86.26 Z-2.017 I-0.128 J-0.1
X-42.532 Y-86.06 Z-2.078 I0.128 J0.1
X-42.789 Y-86.26 Z-2.139 I-0.128 J-0.1
X-42.532 Y-86.06 Z-2.2 I0.128 J0.1
X-42.789 Y-86.26 Z-2.261 I-0.128 J-0.1
X-42.516 Y-86.236 Z-2.3 I0.128 J0.1
X-42.804 Y-86.085 I-0.144 J0.075
X-42.516 Y-86.236 I0.144 J-0.075
G1 X-42.507 Y-86.205
X-42.511 Y-86.174
X-42.526 Y-86.146
X-42.551 Y-86.126
X-42.691 Y-86.052
Z5
X-29.237 Y-86.272
Z1.683
Z0
X-29.111 Y-86.174
X-29.091 Y-86.151
X-29.081 Y-86.12
X-29.083 Y-86.089
X-29.097 Y-86.06
G3 X-29.354 Y-86.26 Z-0.061 I-0.128 J-0.1
X-29.097 Y-86.06 Z-0.122 I0.128 J0.1
X-29.354 Y-86.26 Z-0.183 I-0.128 J-0.1
X-29.097 Y-86.06 Z-0.244 I0.128 J0.1
X-29.354 Y-86.26 Z-0.306 I-0.128 J-0.1
X-29.097 Y-86.06 Z-0.367 I0.128 J0.1
X-29.354 Y-86.26 Z-0.428 I-0.128 J-0.1
X-29.097 Y-86.06 Z-0.489 I0.128 J0.1
X-29.354 Y-86.26 Z-0.55 I-0.128 J-0.1
X-29.097 Y-86.06 Z-0.611 I0.128 J0.1
X-29.354 Y-86.26 Z-0.672 I-0.128 J-0.1
X-29.097 Y-86.06 Z-0.733 I0.128 J0.1
X-29.354 Y-86.26 Z-0.794 I-0.128 J-0.1
X-29.097 Y-86.06 Z-0.856 I0.128 J0.1
X-29.354 Y-86.26 Z-0.917 I-0.128 J-0.1
X-29.097 Y-86.06 Z-0.978 I0.128 J0.1
X-29.354 Y-86.26 Z-1.039 I-0.128 J-0.1
X-29.097 Y-86.06 Z-1.1 I0.128 J0.1
X-29.354 Y-86.26 Z-1.161 I-0.128 J-0.1
X-29.097 Y-86.06 Z-1.222 I0.128 J0.1
X-29.354 Y-86.26 Z-1.283 I-0.128 J-0.1
X-29.097 Y-86.06 Z-1.344 I0.128 J0.1
X-29.354 Y-86.26 Z-1.406 I-0.128 J-0.1
X-29.097 Y-86.06 Z-1.467 I0.128 J0.1
X-29.354 Y-86.26 Z-1.528 I-0.128 J-0.1
X-29.097 Y-86.06 Z-1.589 I0.128 J0.1
X-29.354 Y-86.26 Z-1.65 I-0.128 J-0.1
X-29.097 Y-86.06 Z-1.711 I0.128 J0.1
X-29.354 Y-86.26 Z-1.772 I-0.128 J-0.1
X-29.097 Y-86.06 Z-1.833 I0.128 J0.1
X-29.354 Y-86.26 Z-1.894 I-0.128 J-0.1
X-29.097 Y-86.06 Z-1.956 I0.128 J0.1
X-29.354 Y-86.26 Z-2.017 I-0.128 J-0.1
X-29.097 Y-86.06 Z-2.078 I0.128 J0.1
X-29.354 Y-86.26 Z-2.139 I-0.128 J-0.1
X-29.097 Y-86.06 Z-2.2 I0.128 J0.1
X-29.354 Y-86.26 Z-2.261 I-0.128 J-0.1
X-29.081 Y-86.236 Z-2.3 I0.128 J0.1
X-29.369 Y-86.085 I-0.144 J0.075
X-29.081 Y-86.236 I0.144 J-0.075
G1 X-29.072 Y-86.205
X-29.076 Y-86.174
X-29.091 Y-86.146
X-29.116 Y-86.126
X-29.256 Y-86.052
Z5
X-13.454 Y-79.554
Z1.683
Z0
X-13.329 Y-79.457
X-13.308 Y-79.433
X-13.298 Y-79.403
X-13.3 Y-79.371
X-13.315 Y-79.343
G3 X-13.571 Y-79.542 Z-0.061 I-0.128 J-0.1
X-13.315 Y-79.343 Z-0.122 I0.128 J0.1
X-13.571 Y-79.542 Z-0.183 I-0.128 J-0.1
X-13.315 Y-79.343 Z-0.244 I0.128 J0.1
X-13.571 Y-79.542 Z-0.306 I-0.128 J-0.1
X-13.315 Y-79.343 Z-0.367 I0.128 J0.1
X-13.571 Y-79.542 Z-0.428 I-0.128 J-0.1
X-13.315 Y-79.343 Z-0.489 I0.128 J0.1
X-13.571 Y-79.542 Z-0.55 I-0.128 J-0.1
X-13.315 Y-79.343 Z-0.611 I0.128 J0.1
X-13.571 Y-79.542 Z-0.672 I-0.128 J-0.1
X-13.315 Y-79.343 Z-0.733 I0.128 J0.1
X-13.571 Y-79.542 Z-0.794 I-0.128 J-0.1
X-13.315 Y-79.343 Z-0.856 I0.128 J0.1
X-13.571 Y-79.542 Z-0.917 I-0.128 J-0.1
X-13.315 Y-79.343 Z-0.978 I0.128 J0.1
X-13.571 Y-79.542 Z-1.039 I-0.128 J-0.1
X-13.315 Y-79.343 Z-1.1 I0.128 J0.1
X-13.571 Y-79.542 Z-1.161 I-0.128 J-0.1
X-13.315 Y-79.343 Z-1.222 I0.128 J0.1
X-13.571 Y-79.542 Z-1.283 I-0.128 J-0.1
X-13.315 Y-79.343 Z-1.344 I0.128 J0.1
X-13.571 Y-79.542 Z-1.406 I-0.128 J-0.1
X-13.315 Y-79.343 Z-1.467 I0.128 J0.1
X-13.571 Y-79.542 Z-1.528 I-0.128 J-0.1
X-13.315 Y-79.343 Z-1.589 I0.128 J0.1
X-13.571 Y-79.542 Z-1.65 I-0.128 J-0.1
X-13.315 Y-79.343 Z-1.711 I0.128 J0.1
X-13.571 Y-79.542 Z-1.772 I-0.128 J-0.1
X-13.315 Y-79.343 Z-1.833 I0.128 J0.1
X-13.571 Y-79.542 Z-1.894 I-0.128 J-0.1
X-13.315 Y-79.343 Z-1.956 I0.128 J0.1
X-13.571 Y-79.542 Z-2.017 I-0.128 J-0.1
X-13.315 Y-79.343 Z-2.078 I0.128 J0.1
X-13.571 Y-79.542 Z-2.139 I-0.128 J-0.1
X-13.315 Y-79.343 Z-2.2 I0.128 J0.1
X-13.571 Y-79.542 Z-2.261 I-0.128 J-0.1
X-13.299 Y-79.518 Z-2.3 I0.128 J0.1
X-13.587 Y-79.367 I-0.144 J0.075
X-13.299 Y-79.518 I0.144 J-0.075
G1 X-13.29 Y-79.488
X-13.293 Y-79.456
X-13.309 Y-79.428
X-13.333 Y-79.408
X-13.474 Y-79.335
Z5
X-16.377 Y-112.24
Z1.683
Z0
X-16.252 Y-112.143
X-16.231 Y-112.119
X-16.221 Y-112.089
X-16.223 Y-112.057
X-16.237 Y-112.029
G3 X-16.494 Y-112.228 Z-0.061 I-0.128 J-0.1
X-16.237 Y-112.029 Z-0.122 I0.128 J0.1
X-16.494 Y-112.228 Z-0.183 I-0.128 J-0.1
X-16.237 Y-112.029 Z-0.244 I0.128 J0.1
X-16.494 Y-112.228 Z-0.306 I-0.128 J-0.1
X-16.237 Y-112.029 Z-0.367 I0.128 J0.1
X-16.494 Y-112.228 Z-0.428 I-0.128 J-0.1
X-16.237 Y-112.029 Z-0.489 I0.128 J0.1
X-16.494 Y-112.228 Z-0.55 I-0.128 J-0.1
X-16.237 Y-112.029 Z-0.611 I0.128 J0.1
X-16.494 Y-112.228 Z-0.672 I-0.128 J-0.1
X-16.237 Y-112.029 Z-0.733 I0.128 J0.1
X-16.494 Y-112.228 Z-0.794 I-0.128 J-0.1
X-16.237 Y-112.029 Z-0.856 I0.128 J0.1
X-16.494 Y-112.228 Z-0.917 I-0.128 J-0.1
X-16.237 Y-112.029 Z-0.978 I0.128 J0.1
X-16.494 Y-112.228 Z-1.039 I-0.128 J-0.1
X-16.237 Y-112.029 Z-1.1 I0.128 J0.1
X-16.494 Y-112.228 Z-1.161 I-0.128 J-0.1
X-16.237 Y-112.029 Z-1.222 I0.128 J0.1
X-16.494 Y-112.228 Z-1.283 I-0.128 J-0.1
X-16.237 Y-112.029 Z-1.344 I0.128 J0.1
X-16.494 Y-112.228 Z-1.406 I-0.128 J-0.1
X-16.237 Y-112.029 Z-1.467 I0.128 J0.1
X-16.494 Y-112.228 Z-1.528 I-0.128 J-0.1
X-16.237 Y-112.029 Z-1.589 I0.128 J0.1
X-16.494 Y-112.228 Z-1.65 I-0.128 J-0.1
X-16.237 Y-112.029 Z-1.711 I0.128 J0.1
X-16.494 Y-112.228 Z-1.772 I-0.128 J-0.1
X-16.237 Y-112.029 Z-1.833 I0.128 J0.1
X-16.494 Y-112.228 Z-1.894 I-0.128 J-0.1
X-16.237 Y-112.029 Z-1.956 I0.128 J0.1
X-16.494 Y-112.228 Z-2.017 I-0.128 J-0.1
X-16.237 Y-112.029 Z-2.078 I0.128 J0.1
X-16.494 Y-112.228 Z-2.139 I-0.128 J-0.1
X-16.237 Y-112.029 Z-2.2 I0.128 J0.1
X-16.494 Y-112.228 Z-2.261 I-0.128 J-0.1
X-16.222 Y-112.204 Z-2.3 I0.128 J0.1
X-16.51 Y-112.053 I-0.144 J0.075
X-16.222 Y-112.204 I0.144 J-0.075
G1 X-16.213 Y-112.173
X-16.216 Y-112.142
X-16.231 Y-112.114
X-16.256 Y-112.094
X-16.397 Y-112.021
Z5
X-32.16 Y-118.958
Z1.683
Z0
X-32.034 Y-118.86
X-32.013 Y-118.836
X-32.003 Y-118.806
X-32.006 Y-118.775
X-32.02 Y-118.746
G3 X-32.277 Y-118.946 Z-0.061 I-0.128 J-0.1
X-32.02 Y-118.746 Z-0.122 I0.128 J0.1
X-32.277 Y-118.946 Z-0.183 I-0.128 J-0.1
X-32.02 Y-118.746 Z-0.244 I0.128 J0.1
X-32.277 Y-118.946 Z-0.306 I-0.128 J-0.1
X-32.02 Y-118.746 Z-0.367 I0.128 J0.1
X-32.277 Y-118.946 Z-0.428 I-0.128 J-0.1
X-32.02 Y-118.746 Z-0.489 I0.128 J0.1
X-32.277 Y-118.946 Z-0.55 I-0.128 J-0.1
X-32.02 Y-118.746 Z-0.611 I0.128 J0.1
X-32.277 Y-118.946 Z-0.672 I-0.128 J-0.1
X-32.02 Y-118.746 Z-0.733 I0.128 J0.1
X-32.277 Y-118.946 Z-0.794 I-0.128 J-0.1
X-32.02 Y-118.746 Z-0.856 I0.128 J0.1
X-32.277 Y-118.946 Z-0.917 I-0.128 J-0.1
X-32.02 Y-118.746 Z-0.978 I0.128 J0.1
X-32.277 Y-118.946 Z-1.039 I-0.128 J-0.1
X-32.02 Y-118.746 Z-1.1 I0.128 J0.1
X-32.277 Y-118.946 Z-1.161 I-0.128 J-0.1
X-32.02 Y-118.746 Z-1.222 I0.128 J0.1
X-32.277 Y-118.946 Z-1.283 I-0.128 J-0.1
X-32.02 Y-118.746 Z-1.344 I0.128 J0.1
X-32.277 Y-118.946 Z-1.406 I-0.128 J-0.1
X-32.02 Y-118.746 Z-1.467 I0.128 J0.1
X-32.277 Y-118.946 Z-1.528 I-0.128 J-0.1
X-32.02 Y-118.746 Z-1.589 I0.128 J0.1
X-32.277 Y-118.946 Z-1.65 I-0.128 J-0.1
X-32.02 Y-118.746 Z-1.711 I0.128 J0.1
X-32.277 Y-118.946 Z-1.772 I-0.128 J-0.1
X-32.02 Y-118.746 Z-1.833 I0.128 J0.1
X-32.277 Y-118.946 Z-1.894 I-0.128 J-0.1
X-32.02 Y-118.746 Z-1.956 I0.128 J0.1
X-32.277 Y-118.946 Z-2.017 I-0.128 J-0.1
X-32.02 Y-118.746 Z-2.078 I0.128 J0.1
X-32.277 Y-118.946 Z-2.139 I-0.128 J-0.1
X-32.02 Y-118.746 Z-2.2 I0.128 J0.1
X-32.277 Y-118.946 Z-2.261 I-0.128 J-0.1
X-32.004 Y-118.921 Z-2.3 I0.128 J0.1
X-32.292 Y-118.771 I-0.144 J0.075
X-32.004 Y-118.921 I0.144 J-0.075
G1 X-31.995 Y-118.891
X-31.999 Y-118.859
X-32.014 Y-118.832
X-32.039 Y-118.812
X-32.179 Y-118.738
Z5
X-45.595 Y-118.958
Z1.683
Z0
X-45.469 Y-118.86
X-45.448 Y-118.836
X-45.438 Y-118.806
X-45.441 Y-118.775
X-45.455 Y-118.746
G3 X-45.712 Y-118.946 Z-0.061 I-0.128 J-0.1
X-45.455 Y-118.746 Z-0.122 I0.128 J0.1
X-45.712 Y-118.946 Z-0.183 I-0.128 J-0.1
X-45.455 Y-118.746 Z-0.244 I0.128 J0.1
X-45.712 Y-118.946 Z-0.306 I-0.128 J-0.1
X-45.455 Y-118.746 Z-0.367 I0.128 J0.1
X-45.712 Y-118.946 Z-0.428 I-0.128 J-0.1
X-45.455 Y-118.746 Z-0.489 I0.128 J0.1
X-45.712 Y-118.946 Z-0.55 I-0.128 J-0.1
X-45.455 Y-118.746 Z-0.611 I0.128 J0.1
X-45.712 Y-118.946 Z-0.672 I-0.128 J-0.1
X-45.455 Y-118.746 Z-0.733 I0.128 J0.1
X-45.712 Y-118.946 Z-0.794 I-0.128 J-0.1
X-45.455 Y-118.746 Z-0.856 I0.128 J0.1
X-45.712 Y-118.946 Z-0.917 I-0.128 J-0.1
X-45.455 Y-118.746 Z-0.978 I0.128 J0.1
X-45.712 Y-118.946 Z-1.039 I-0.128 J-0.1
X-45.455 Y-118.746 Z-1.1 I0.128 J0.1
X-45.712 Y-118.946 Z-1.161 I-0.128 J-0.1
X-45.455 Y-118.746 Z-1.222 I0.128 J0.1
X-45.712 Y-118.946 Z-1.283 I-0.128 J-0.1
X-45.455 Y-118.746 Z-1.344 I0.128 J0.1
X-45.712 Y-118.946 Z-1.406 I-0.128 J-0.1
X-45.455 Y-118.746 Z-1.467 I0.128 J0.1
X-45.712 Y-118.946 Z-1.528 I-0.128 J-0.1
X-45.455 Y-118.746 Z-1.589 I0.128 J0.1
X-45.712 Y-118.946 Z-1.65 I-0.128 J-0.1
X-45.455 Y-118.746 Z-1.711 I0.128 J0.1
X-45.712 Y-118.946 Z-1.772 I-0.128 J-0.1
X-45.455 Y-118.746 Z-1.833 I0.128 J0.1
X-45.712 Y-118.946 Z-1.894 I-0.128 J-0.1
X-45.455 Y-118.746 Z-1.956 I0.128 J0.1
X-45.712 Y-118.946 Z-2.017 I-0.128 J-0.1
X-45.455 Y-118.746 Z-2.078 I0.128 J0.1
X-45.712 Y-118.946 Z-2.139 I-0.128 J-0.1
X-45.455 Y-118.746 Z-2.2 I0.128 J0.1
X-45.712 Y-118.946 Z-2.261 I-0.128 J-0.1
X-45.439 Y-118.921 Z-2.3 I0.128 J0.1
X-45.727 Y-118.771 I-0.144 J0.075
X-45.439 Y-118.921 I0.144 J-0.075
G1 X-45.43 Y-118.891
X-45.434 Y-118.859
X-45.449 Y-118.832
X-45.474 Y-118.812
X-45.614 Y-118.738
Z5
X-37.393 Y-111.386
Z2
Z0.317
X-37.386 Y-111.381 Z0.247
X-37.368 Y-111.367 Z0.18
X-37.338 Y-111.344 Z0.12
X-37.298 Y-111.313 Z0.069
X-37.251 Y-111.276 Z0.031
X-37.198 Y-111.235 Z0.008
X-37.142 Y-111.191 Z0
X-37.017 Y-111.094
G3 X-36.961 Y-110.648 I-0.195 J0.251
X-40.771 Y-113.609 Z-0.14 I-1.905 J-1.48
X-36.961 Y-110.648 Z-0.279 I1.905 J1.48
X-40.771 Y-113.609 Z-0.419 I-1.905 J-1.48
X-36.961 Y-110.648 Z-0.559 I1.905 J1.48
X-40.771 Y-113.609 Z-0.698 I-1.905 J-1.48
X-36.961 Y-110.648 Z-0.838 I1.905 J1.48
X-40.771 Y-113.609 Z-0.978 I-1.905 J-1.48
X-36.961 Y-110.648 Z-1.117 I1.905 J1.48
X-40.771 Y-113.609 Z-1.257 I-1.905 J-1.48
X-36.961 Y-110.648 Z-1.397 I1.905 J1.48
X-40.771 Y-113.609 Z-1.537 I-1.905 J-1.48
X-36.961 Y-110.648 Z-1.676 I1.905 J1.48
X-40.771 Y-113.609 Z-1.816 I-1.905 J-1.48
X-36.961 Y-110.648 Z-1.956 I1.905 J1.48
X-40.771 Y-113.609 Z-2.095 I-1.905 J-1.48
X-36.961 Y-110.648 Z-2.235 I1.905 J1.48
X-40.133 Y-110.076 Z-2.3 I-1.905 J-1.48
X-37.598 Y-114.181 I1.268 J-2.053
X-40.133 Y-110.076 I-1.268 J2.053
X-40.237 Y-110.513 I0.167 J-0.27
G1 X-40.153 Y-110.648
X-40.116 Y-110.708 Z-2.292
X-40.081 Y-110.765 Z-2.269
X-40.049 Y-110.816 Z-2.231
X-40.023 Y-110.859 Z-2.18
X-40.003 Y-110.891 Z-2.12
X-39.991 Y-110.911 Z-2.053
X-39.986 Y-110.918 Z-1.982
Z5
X-45.595 Y-105.523
Z1.683
Z0
X-45.469 Y-105.425
X-45.448 Y-105.401
X-45.438 Y-105.371
X-45.441 Y-105.34
X-45.455 Y-105.311
G3 X-45.712 Y-105.511 Z-0.061 I-0.128 J-0.1
X-45.455 Y-105.311 Z-0.122 I0.128 J0.1
X-45.712 Y-105.511 Z-0.183 I-0.128 J-0.1
X-45.455 Y-105.311 Z-0.244 I0.128 J0.1
X-45.712 Y-105.511 Z-0.306 I-0.128 J-0.1
X-45.455 Y-105.311 Z-0.367 I0.128 J0.1
X-45.712 Y-105.511 Z-0.428 I-0.128 J-0.1
X-45.455 Y-105.311 Z-0.489 I0.128 J0.1
X-45.712 Y-105.511 Z-0.55 I-0.128 J-0.1
X-45.455 Y-105.311 Z-0.611 I0.128 J0.1
X-45.712 Y-105.511 Z-0.672 I-0.128 J-0.1
X-45.455 Y-105.311 Z-0.733 I0.128 J0.1
X-45.712 Y-105.511 Z-0.794 I-0.128 J-0.1
X-45.455 Y-105.311 Z-0.856 I0.128 J0.1
X-45.712 Y-105.511 Z-0.917 I-0.128 J-0.1
X-45.455 Y-105.311 Z-0.978 I0.128 J0.1
X-45.712 Y-105.511 Z-1.039 I-0.128 J-0.1
X-45.455 Y-105.311 Z-1.1 I0.128 J0.1
X-45.712 Y-105.511 Z-1.161 I-0.128 J-0.1
X-45.455 Y-105.311 Z-1.222 I0.128 J0.1
X-45.712 Y-105.511 Z-1.283 I-0.128 J-0.1
X-45.455 Y-105.311 Z-1.344 I0.128 J0.1
X-45.712 Y-105.511 Z-1.406 I-0.128 J-0.1
X-45.455 Y-105.311 Z-1.467 I0.128 J0.1
X-45.712 Y-105.511 Z-1.528 I-0.128 J-0.1
X-45.455 Y-105.311 Z-1.589 I0.128 J0.1
X-45.712 Y-105.511 Z-1.65 I-0.128 J-0.1
X-45.455 Y-105.311 Z-1.711 I0.128 J0.1
X-45.712 Y-105.511 Z-1.772 I-0.128 J-0.1
X-45.455 Y-105.311 Z-1.833 I0.128 J0.1
X-45.712 Y-105.511 Z-1.894 I-0.128 J-0.1
X-45.455 Y-105.311 Z-1.956 I0.128 J0.1
X-45.712 Y-105.511 Z-2.017 I-0.128 J-0.1
X-45.455 Y-105.311 Z-2.078 I0.128 J0.1
X-45.712 Y-105.511 Z-2.139 I-0.128 J-0.1
X-45.455 Y-105.311 Z-2.2 I0.128 J0.1
X-45.712 Y-105.511 Z-2.261 I-0.128 J-0.1
X-45.439 Y-105.486 Z-2.3 I0.128 J0.1
X-45.727 Y-105.336 I-0.144 J0.075
X-45.439 Y-105.486 I0.144 J-0.075
G1 X-45.43 Y-105.456
X-45.434 Y-105.424
X-45.449 Y-105.397
X-45.474 Y-105.377
X-45.614 Y-105.303
Z5
X-32.16 Y-105.523
Z1.683
Z0
X-32.034 Y-105.425
X-32.013 Y-105.401
X-32.003 Y-105.371
X-32.006 Y-105.34
X-32.02 Y-105.311
G3 X-32.277 Y-105.511 Z-0.061 I-0.128 J-0.1
X-32.02 Y-105.311 Z-0.122 I0.128 J0.1
X-32.277 Y-105.511 Z-0.183 I-0.128 J-0.1
X-32.02 Y-105.311 Z-0.244 I0.128 J0.1
X-32.277 Y-105.511 Z-0.306 I-0.128 J-0.1
X-32.02 Y-105.311 Z-0.367 I0.128 J0.1
X-32.277 Y-105.511 Z-0.428 I-0.128 J-0.1
X-32.02 Y-105.311 Z-0.489 I0.128 J0.1
X-32.277 Y-105.511 Z-0.55 I-0.128 J-0.1
X-32.02 Y-105.311 Z-0.611 I0.128 J0.1
X-32.277 Y-105.511 Z-0.672 I-0.128 J-0.1
X-32.02 Y-105.311 Z-0.733 I0.128 J0.1
X-32.277 Y-105.511 Z-0.794 I-0.128 J-0.1
X-32.02 Y-105.311 Z-0.856 I0.128 J0.1
X-32.277 Y-105.511 Z-0.917 I-0.128 J-0.1
X-32.02 Y-105.311 Z-0.978 I0.128 J0.1
X-32.277 Y-105.511 Z-1.039 I-0.128 J-0.1
X-32.02 Y-105.311 Z-1.1 I0.128 J0.1
X-32.277 Y-105.511 Z-1.161 I-0.128 J-0.1
X-32.02 Y-105.311 Z-1.222 I0.128 J0.1
X-32.277 Y-105.511 Z-1.283 I-0.128 J-0.1
X-32.02 Y-105.311 Z-1.344 I0.128 J0.1
X-32.277 Y-105.511 Z-1.406 I-0.128 J-0.1
X-32.02 Y-105.311 Z-1.467 I0.128 J0.1
X-32.277 Y-105.511 Z-1.528 I-0.128 J-0.1
X-32.02 Y-105.311 Z-1.589 I0.128 J0.1
X-32.277 Y-105.511 Z-1.65 I-0.128 J-0.1
X-32.02 Y-105.311 Z-1.711 I0.128 J0.1
X-32.277 Y-105.511 Z-1.772 I-0.128 J-0.1
X-32.02 Y-105.311 Z-1.833 I0.128 J0.1
X-32.277 Y-105.511 Z-1.894 I-0.128 J-0.1
X-32.02 Y-105.311 Z-1.956 I0.128 J0.1
X-32.277 Y-105.511 Z-2.017 I-0.128 J-0.1
X-32.02 Y-105.311 Z-2.078 I0.128 J0.1
X-32.277 Y-105.511 Z-2.139 I-0.128 J-0.1
X-32.02 Y-105.311 Z-2.2 I0.128 J0.1
X-32.277 Y-105.511 Z-2.261 I-0.128 J-0.1
X-32.004 Y-105.486 Z-2.3 I0.128 J0.1
X-32.292 Y-105.336 I-0.144 J0.075
X-32.004 Y-105.486 I0.144 J-0.075
G1 X-31.995 Y-105.456
X-31.999 Y-105.424
X-32.014 Y-105.397
X-32.039 Y-105.377
X-32.179 Y-105.303
Z5
X-61.377 Y-112.24
Z1.683
Z0
X-61.252 Y-112.143
X-61.231 Y-112.119
X-61.221 Y-112.089
X-61.223 Y-112.057
X-61.237 Y-112.029
G3 X-61.494 Y-112.228 Z-0.061 I-0.128 J-0.1
X-61.237 Y-112.029 Z-0.122 I0.128 J0.1
X-61.494 Y-112.228 Z-0.183 I-0.128 J-0.1
X-61.237 Y-112.029 Z-0.244 I0.128 J0.1
X-61.494 Y-112.228 Z-0.306 I-0.128 J-0.1
X-61.237 Y-112.029 Z-0.367 I0.128 J0.1
X-61.494 Y-112.228 Z-0.428 I-0.128 J-0.1
X-61.237 Y-112.029 Z-0.489 I0.128 J0.1
X-61.494 Y-112.228 Z-0.55 I-0.128 J-0.1
X-61.237 Y-112.029 Z-0.611 I0.128 J0.1
X-61.494 Y-112.228 Z-0.672 I-0.128 J-0.1
X-61.237 Y-112.029 Z-0.733 I0.128 J0.1
X-61.494 Y-112.228 Z-0.794 I-0.128 J-0.1
X-61.237 Y-112.029 Z-0.856 I0.128 J0.1
X-61.494 Y-112.228 Z-0.917 I-0.128 J-0.1
X-61.237 Y-112.029 Z-0.978 I0.128 J0.1
X-61.494 Y-112.228 Z-1.039 I-0.128 J-0.1
X-61.237 Y-112.029 Z-1.1 I0.128 J0.1
X-61.494 Y-112.228 Z-1.161 I-0.128 J-0.1
X-61.237 Y-112.029 Z-1.222 I0.128 J0.1
X-61.494 Y-112.228 Z-1.283 I-0.128 J-0.1
X-61.237 Y-112.029 Z-1.344 I0.128 J0.1
X-61.494 Y-112.228 Z-1.406 I-0.128 J-0.1
X-61.237 Y-112.029 Z-1.467 I0.128 J0.1
X-61.494 Y-112.228 Z-1.528 I-0.128 J-0.1
X-61.237 Y-112.029 Z-1.589 I0.128 J0.1
X-61.494 Y-112.228 Z-1.65 I-0.128 J-0.1
X-61.237 Y-112.029 Z-1.711 I0.128 J0.1
X-61.494 Y-112.228 Z-1.772 I-0.128 J-0.1
X-61.237 Y-112.029 Z-1.833 I0.128 J0.1
X-61.494 Y-112.228 Z-1.894 I-0.128 J-0.1
X-61.237 Y-112.029 Z-1.956 I0.128 J0.1
X-61.494 Y-112.228 Z-2.017 I-0.128 J-0.1
X-61.237 Y-112.029 Z-2.078 I0.128 J0.1
X-61.494 Y-112.228 Z-2.139 I-0.128 J-0.1
X-61.237 Y-112.029 Z-2.2 I0.128 J0.1
X-61.494 Y-112.228 Z-2.261 I-0.128 J-0.1
X-61.222 Y-112.204 Z-2.3 I0.128 J0.1
X-61.51 Y-112.053 I-0.144 J0.075
X-61.222 Y-112.204 I0.144 J-0.075
G1 X-61.213 Y-112.173
X-61.216 Y-112.142
X-61.231 Y-112.114
X-61.256 Y-112.094
X-61.397 Y-112.021
Z15
(When using Fusion for Personal Use, the feedrate of rapid)
(moves is reduced to match the feedrate of cutting moves,)
(which can increase machining time. Unrestricted rapid moves)
(are available with a Fusion Subscription.)

(2D-Kontur6)
G0 X-33.844 Y-64.947
G1 Z15 F1000
Z5
Z0.635 F333.3
Z-0.683
X-33.84 Y-64.954 Z-0.753 F1000
X-33.829 Y-64.975 Z-0.82
X-33.81 Y-65.008 Z-0.88
X-33.786 Y-65.052 Z-0.931
X-33.757 Y-65.105 Z-0.969
X-33.725 Y-65.164 Z-0.992
X-33.691 Y-65.226 Z-1
X-33.539 Y-65.504
G3 X-33.108 Y-65.631 I0.279 J0.152
G2 X-21.543 Y-70.197 I3.883 J-7.095
G3 X-19.252 Y-71.855 I2.292 J0.754
G1 X-11.443
G2 X-5.855 Y-77.443 I0 J-5.588
G1 Y-81.443
G2 X-11.443 Y-87.03 I-5.588 J0
G1 X-19.252
G3 X-21.543 Y-88.688 I0 J-2.413
G2 X-34.399 Y-92.376 I-7.682 J2.528
G3 X-37.486 Y-92.376 I-1.543 J-1.854
G2 X-50.446 Y-88.35 I-5.174 J6.216
G3 X-52.458 Y-86.61 I-2.322 J-0.653
G1 X-59.259 Y-85.727
G2 X-59.259 Y-73.158 I0.816 J6.285
G1 X-52.458 Y-72.275
G3 X-50.446 Y-70.536 I-0.311 J2.392
G2 X-37.486 Y-66.509 I7.786 J-2.189
G3 X-34.399 Y-66.509 I1.543 J1.854
G2 X-33.108 Y-65.631 I5.174 J-6.216
G3 X-32.982 Y-65.2 I-0.152 J0.279
G1 X-33.134 Y-64.921
X-33.168 Y-64.859 Z-0.992
X-33.2 Y-64.8 Z-0.969
X-33.229 Y-64.747 Z-0.931
X-33.253 Y-64.703 Z-0.88
X-33.272 Y-64.67 Z-0.82
X-33.283 Y-64.65 Z-0.753
X-33.287 Y-64.643 Z-0.683
Z5
X-33.064 Y-61.994
Z0.635 F333.3
Z-0.683
X-33.06 Y-61.987 Z-0.753 F1000
X-33.045 Y-61.969 Z-0.82
X-33.022 Y-61.939 Z-0.88
X-32.99 Y-61.9 Z-0.931
X-32.953 Y-61.852 Z-0.969
X-32.912 Y-61.8 Z-0.992
X-32.868 Y-61.744 Z-1
X-32.671 Y-61.495
G3 X-32.724 Y-61.049 I-0.249 J0.197
G1 X-32.888 Y-60.916
G3 X-35.974 Y-60.916 I-1.543 J-1.854
G2 X-48.934 Y-56.89 I-5.174 J6.216
G3 X-50.946 Y-55.15 I-2.322 J-0.653
G1 X-57.747 Y-54.268
G2 X-57.747 Y-41.698 I0.816 J6.285
G1 X-50.946 Y-40.815
G3 X-48.934 Y-39.076 I-0.311 J2.392
G2 X-35.974 Y-35.05 I7.786 J-2.189
G3 X-32.888 Y-35.05 I1.543 J1.854
G2 X-20.031 Y-38.737 I5.174 J-6.216
G3 X-17.74 Y-40.395 I2.292 J0.754
G1 X-9.931
G2 X-4.344 Y-45.983 I0 J-5.587
G1 Y-49.983
G2 X-9.931 Y-55.57 I-5.588 J0
G1 X-17.74
G3 X-20.031 Y-57.229 I0 J-2.412
G2 X-32.724 Y-61.049 I-7.682 J2.528
G3 X-33.17 Y-61.102 I-0.197 J-0.249
G1 X-33.366 Y-61.351
X-33.41 Y-61.406 Z-0.992
X-33.452 Y-61.459 Z-0.969
X-33.489 Y-61.506 Z-0.931
X-33.52 Y-61.546 Z-0.88
X-33.543 Y-61.575 Z-0.82
X-33.558 Y-61.594 Z-0.753
X-33.563 Y-61.6 Z-0.683
Z5
X-33.844 Y-64.947
Z-0.365 F333.3
Z-1.683
X-33.84 Y-64.954 Z-1.753 F1000
X-33.829 Y-64.975 Z-1.82
X-33.81 Y-65.008 Z-1.88
X-33.786 Y-65.052 Z-1.931
X-33.757 Y-65.105 Z-1.969
X-33.725 Y-65.164 Z-1.992
X-33.691 Y-65.226 Z-2
X-33.539 Y-65.504
G3 X-33.108 Y-65.631 I0.279 J0.152
G2 X-21.543 Y-70.197 I3.883 J-7.095
G3 X-19.252 Y-71.855 I2.292 J0.754
G1 X-18.028
Z-1.3
X-11.678
Z-2 F333.3
X-11.443 F1000
G2 X-5.855 Y-77.443 I0 J-5.588
G1 Y-81.443
G2 X-11.443 Y-87.03 I-5.588 J0
G1 X-19.252
G3 X-21.543 Y-88.688 I0 J-2.413
G2 X-34.399 Y-92.376 I-7.682 J2.528
G3 X-37.486 Y-92.376 I-1.543 J-1.854
G2 X-50.446 Y-88.35 I-5.174 J6.216
G3 X-52.329 Y-86.631 I-2.322 J-0.653
G1 Z-1.3
X-52.458 Y-86.61
X-58.626 Y-85.81
Z-2 F333.3
X-59.259 Y-85.727 F1000
G2 X-59.259 Y-73.158 I0.816 J6.285
G1 X-52.458 Y-72.275
G3 X-50.446 Y-70.536 I-0.311 J2.392
G2 X-37.486 Y-66.509 I7.786 J-2.189
G3 X-34.399 Y-66.509 I1.543 J1.854
G2 X-33.108 Y-65.631 I5.174 J-6.216
G3 X-32.982 Y-65.2 I-0.152 J0.279
G1 X-33.134 Y-64.921
X-33.168 Y-64.859 Z-1.992
X-33.2 Y-64.8 Z-1.969
X-33.229 Y-64.747 Z-1.931
X-33.253 Y-64.703 Z-1.88
X-33.272 Y-64.67 Z-1.82
X-33.283 Y-64.65 Z-1.753
X-33.287 Y-64.643 Z-1.683
Z5
X-32.802 Y-31.224
Z0.635 F333.3
Z-0.683
X-32.805 Y-31.217 Z-0.753 F1000
X-32.817 Y-31.197 Z-0.82
X-32.835 Y-31.164 Z-0.88
X-32.859 Y-31.119 Z-0.931
X-32.887 Y-31.066 Z-0.969
X-32.919 Y-31.007 Z-0.992
X-32.953 Y-30.945 Z-1
X-33.105 Y-30.666
G3 X-33.535 Y-30.539 I-0.279 J-0.151
X-33.928 Y-30.805 I1.151 J-2.12
G2 X-46.887 Y-26.779 I-5.174 J6.216
G3 X-48.899 Y-25.039 I-2.322 J-0.653
G1 X-55.7 Y-24.156
G2 X-55.7 Y-11.587 I0.816 J6.285
G1 X-48.899 Y-10.704
G3 X-46.887 Y-8.965 I-0.311 J2.392
G2 X-33.928 Y-4.938 I7.785 J-2.189
G3 X-30.841 Y-4.938 I1.543 J1.854
G2 X-17.985 Y-8.626 I5.174 J-6.216
G3 X-15.693 Y-10.284 I2.292 J0.754
G1 X-7.884
G2 X-2.297 Y-15.872 I0 J-5.588
G1 Y-19.872
G2 X-7.884 Y-25.459 I-5.588 J0
G1 X-15.693
G3 X-17.985 Y-27.117 I0 J-2.412
G2 X-30.841 Y-30.805 I-7.682 J2.528
G3 X-33.535 Y-30.539 I-1.543 J-1.854
X-33.663 Y-30.969 I0.151 J-0.279
G1 X-33.511 Y-31.248
X-33.478 Y-31.31 Z-0.992
X-33.446 Y-31.369 Z-0.969
X-33.417 Y-31.422 Z-0.931
X-33.393 Y-31.466 Z-0.88
X-33.375 Y-31.5 Z-0.82
X-33.364 Y-31.52 Z-0.753
X-33.36 Y-31.527 Z-0.683
Z5
X-32.802 Y-31.224
Z-0.365 F333.3
Z-1.683
X-32.805 Y-31.217 Z-1.753 F1000
X-32.817 Y-31.197 Z-1.82
X-32.835 Y-31.164 Z-1.88
X-32.859 Y-31.119 Z-1.931
X-32.887 Y-31.066 Z-1.969
X-32.919 Y-31.007 Z-1.992
X-32.953 Y-30.945 Z-2
X-33.105 Y-30.666
G3 X-33.535 Y-30.539 I-0.279 J-0.151
X-33.928 Y-30.805 I1.151 J-2.12
G2 X-46.887 Y-26.779 I-5.174 J6.216
G3 X-47.959 Y-25.369 I-2.322 J-0.653
G1 Z-1.3
G3 X-48.899 Y-25.039 I-1.251 J-2.063
G1 X-54.229 Y-24.347
Z-2 F333.3
X-55.7 Y-24.156 F1000
G2 X-55.7 Y-11.587 I0.816 J6.285
G1 X-48.899 Y-10.704
G3 X-46.887 Y-8.965 I-0.311 J2.392
G2 X-33.928 Y-4.938 I7.785 J-2.189
G3 X-30.841 Y-4.938 I1.543 J1.854
G2 X-17.985 Y-8.626 I5.174 J-6.216
G3 X-15.72 Y-10.284 I2.292 J0.754
G1 Z-1.3
X-15.693
X-9.37
Z-2 F333.3
X-7.884 F1000
G2 X-2.297 Y-15.872 I0 J-5.588
G1 Y-19.872
G2 X-7.884 Y-25.459 I-5.588 J0
G1 X-15.693
G3 X-17.985 Y-27.117 I0 J-2.412
G2 X-30.841 Y-30.805 I-7.682 J2.528
G3 X-33.535 Y-30.539 I-1.543 J-1.854
X-33.663 Y-30.969 I0.151 J-0.279
G1 X-33.511 Y-31.248
X-33.478 Y-31.31 Z-1.992
X-33.446 Y-31.369 Z-1.969
X-33.417 Y-31.422 Z-1.931
X-33.393 Y-31.466 Z-1.88
X-33.375 Y-31.5 Z-1.82
X-33.364 Y-31.52 Z-1.753
X-33.36 Y-31.527 Z-1.683
Z5
X-32.305 Y-33.472
Z-0.365 F333.3
Z-1.683
X-32.301 Y-33.479 Z-1.753 F1000
X-32.29 Y-33.499 Z-1.82
X-32.272 Y-33.532 Z-1.88
X-32.248 Y-33.577 Z-1.931
X-32.219 Y-33.63 Z-1.969
X-32.187 Y-33.689 Z-1.992
X-32.153 Y-33.751 Z-2
X-32.002 Y-34.03
G3 X-31.571 Y-34.157 I0.279 J0.151
G2 X-20.031 Y-38.737 I3.858 J-7.108
G3 X-17.74 Y-40.395 I2.292 J0.754
G1 X-17.062
Z-1.3
X-10.712
Z-2 F333.3
X-9.931 F1000
G2 X-4.344 Y-45.983 I0 J-5.587
G1 Y-49.983
G2 X-9.931 Y-55.57 I-5.588 J0
G1 X-17.74
G3 X-20.031 Y-57.229 I0 J-2.412
G2 X-32.888 Y-60.916 I-7.682 J2.528
G3 X-35.974 Y-60.916 I-1.543 J-1.854
G2 X-48.934 Y-56.89 I-5.174 J6.216
G3 X-50.846 Y-55.166 I-2.322 J-0.653
G1 Z-1.3
X-50.946 Y-55.15
X-57.143 Y-54.346
Z-2 F333.3
X-57.747 Y-54.268 F1000
G2 X-57.747 Y-41.698 I0.816 J6.285
G1 X-50.946 Y-40.815
G3 X-48.934 Y-39.076 I-0.311 J2.392
G2 X-35.974 Y-35.05 I7.786 J-2.189
G3 X-32.888 Y-35.05 I1.543 J1.854
G2 X-31.571 Y-34.157 I5.174 J-6.216
G3 X-31.444 Y-33.727 I-0.151 J0.279
G1 X-31.595 Y-33.448
X-31.629 Y-33.386 Z-1.992
X-31.661 Y-33.327 Z-1.969
X-31.689 Y-33.274 Z-1.931
X-31.713 Y-33.23 Z-1.88
X-31.732 Y-33.196 Z-1.82
X-31.743 Y-33.176 Z-1.753
X-31.747 Y-33.169 Z-1.683
Z5
X-32.305 Y-33.472
Z-1.365 F333.3
Z-1.983
X-32.301 Y-33.479 Z-2.053 F1000
X-32.29 Y-33.499 Z-2.12
X-32.272 Y-33.532 Z-2.18
X-32.248 Y-33.577 Z-2.231
X-32.219 Y-33.63 Z-2.269
X-32.187 Y-33.689 Z-2.292
X-32.153 Y-33.751 Z-2.3
X-32.002 Y-34.03
G3 X-31.571 Y-34.157 I0.279 J0.151
G2 X-20.031 Y-38.737 I3.858 J-7.108
G3 X-17.74 Y-40.395 I2.292 J0.754
G1 X-17.062
Z-1.3
X-10.712
Z-2.3 F333.3
X-9.931 F1000
G2 X-4.344 Y-45.983 I0 J-5.587
G1 Y-49.983
G2 X-9.931 Y-55.57 I-5.588 J0
G1 X-17.74
G3 X-20.031 Y-57.229 I0 J-2.412
G2 X-32.888 Y-60.916 I-7.682 J2.528
G3 X-35.974 Y-60.916 I-1.543 J-1.854
G2 X-48.934 Y-56.89 I-5.174 J6.216
G3 X-50.846 Y-55.166 I-2.322 J-0.653
G1 Z-1.3
X-50.946 Y-55.15
X-57.143 Y-54.346
Z-2.3 F333.3
X-57.747 Y-54.268 F1000
G2 X-57.747 Y-41.698 I0.816 J6.285
G1 X-50.946 Y-40.815
G3 X-48.934 Y-39.076 I-0.311 J2.392
G2 X-35.974 Y-35.05 I7.786 J-2.189
G3 X-32.888 Y-35.05 I1.543 J1.854
G2 X-31.571 Y-34.157 I5.174 J-6.216
G3 X-31.444 Y-33.727 I-0.151 J0.279
G1 X-31.595 Y-33.448
X-31.629 Y-33.386 Z-2.292
X-31.661 Y-33.327 Z-2.269
X-31.689 Y-33.274 Z-2.231
X-31.713 Y-33.23 Z-2.18
X-31.732 Y-33.196 Z-2.12
X-31.743 Y-33.176 Z-2.053
X-31.747 Y-33.169 Z-1.983
Z5
X-32.802 Y-31.224
Z-1.365 F333.3
Z-1.983
X-32.805 Y-31.217 Z-2.053 F1000
X-32.817 Y-31.197 Z-2.12
X-32.835 Y-31.164 Z-2.18
X-32.859 Y-31.119 Z-2.231
X-32.887 Y-31.066 Z-2.269
X-32.919 Y-31.007 Z-2.292
X-32.953 Y-30.945 Z-2.3
X-33.105 Y-30.666
G3 X-33.535 Y-30.539 I-0.279 J-0.151
X-33.928 Y-30.805 I1.151 J-2.12
G2 X-46.887 Y-26.779 I-5.174 J6.216
G3 X-47.959 Y-25.369 I-2.322 J-0.653
G1 Z-1.3
G3 X-48.899 Y-25.039 I-1.251 J-2.063
G1 X-54.229 Y-24.347
Z-2.3 F333.3
X-55.7 Y-24.156 F1000
G2 X-55.7 Y-11.587 I0.816 J6.285
G1 X-48.899 Y-10.704
G3 X-46.887 Y-8.965 I-0.311 J2.392
G2 X-33.928 Y-4.938 I7.785 J-2.189
G3 X-30.841 Y-4.938 I1.543 J1.854
G2 X-17.985 Y-8.626 I5.174 J-6.216
G3 X-15.72 Y-10.284 I2.292 J0.754
G1 Z-1.3
X-15.693
X-9.37
Z-2.3 F333.3
X-7.884 F1000
G2 X-2.297 Y-15.872 I0 J-5.588
G1 Y-19.872
G2 X-7.884 Y-25.459 I-5.588 J0
G1 X-15.693
G3 X-17.985 Y-27.117 I0 J-2.412
G2 X-30.841 Y-30.805 I-7.682 J2.528
G3 X-33.535 Y-30.539 I-1.543 J-1.854
X-33.663 Y-30.969 I0.151 J-0.279
G1 X-33.511 Y-31.248
X-33.478 Y-31.31 Z-2.292
X-33.446 Y-31.369 Z-2.269
X-33.417 Y-31.422 Z-2.231
X-33.393 Y-31.466 Z-2.18
X-33.375 Y-31.5 Z-2.12
X-33.364 Y-31.52 Z-2.053
X-33.36 Y-31.527 Z-1.983
Z5
X-33.844 Y-64.947
Z-1.365 F333.3
Z-1.983
X-33.84 Y-64.954 Z-2.053 F1000
X-33.829 Y-64.975 Z-2.12
X-33.81 Y-65.008 Z-2.18
X-33.786 Y-65.052 Z-2.231
X-33.757 Y-65.105 Z-2.269
X-33.725 Y-65.164 Z-2.292
X-33.691 Y-65.226 Z-2.3
X-33.539 Y-65.504
G3 X-33.108 Y-65.631 I0.279 J0.152
G2 X-21.543 Y-70.197 I3.883 J-7.095
G3 X-19.252 Y-71.855 I2.292 J0.754
G1 X-18.028
Z-1.3
X-11.678
Z-2.3 F333.3
X-11.443 F1000
G2 X-5.855 Y-77.443 I0 J-5.588
G1 Y-81.443
G2 X-11.443 Y-87.03 I-5.588 J0
G1 X-19.252
G3 X-21.543 Y-88.688 I0 J-2.413
G2 X-34.399 Y-92.376 I-7.682 J2.528
G3 X-37.486 Y-92.376 I-1.543 J-1.854
G2 X-50.446 Y-88.35 I-5.174 J6.216
G3 X-52.329 Y-86.631 I-2.322 J-0.653
G1 Z-1.3
X-52.458 Y-86.61
X-58.626 Y-85.81
Z-2.3 F333.3
X-59.259 Y-85.727 F1000
G2 X-59.259 Y-73.158 I0.816 J6.285
G1 X-52.458 Y-72.275
G3 X-50.446 Y-70.536 I-0.311 J2.392
G2 X-37.486 Y-66.509 I7.786 J-2.189
G3 X-34.399 Y-66.509 I1.543 J1.854
G2 X-33.108 Y-65.631 I5.174 J-6.216
G3 X-32.982 Y-65.2 I-0.152 J0.279
G1 X-33.134 Y-64.921
X-33.168 Y-64.859 Z-2.292
X-33.2 Y-64.8 Z-2.269
X-33.229 Y-64.747 Z-2.231
X-33.253 Y-64.703 Z-2.18
X-33.272 Y-64.67 Z-2.12
X-33.283 Y-64.65 Z-2.053
X-33.287 Y-64.643 Z-1.983
Z5
X-35.539 Y-97.025
Z0.635 F333.3
Z-0.683
X-35.536 Y-97.032 Z-0.753 F1000
X-35.528 Y-97.054 Z-0.82
X-35.515 Y-97.09 Z-0.88
X-35.498 Y-97.137 Z-0.931
X-35.478 Y-97.194 Z-0.969
X-35.455 Y-97.257 Z-0.992
X-35.43 Y-97.323 Z-1
X-35.322 Y-97.622
G3 X-34.915 Y-97.811 I0.298 J0.109
G2 X-24.466 Y-102.883 I2.767 J-7.6
G3 X-22.175 Y-104.54 I2.292 J0.755
G1 X-14.366
G2 X-8.778 Y-110.128 I0 J-5.588
G1 Y-114.128
G2 X-14.366 Y-119.715 I-5.587 J0
G1 X-22.174
G3 X-24.466 Y-121.374 I0 J-2.412
G2 X-37.322 Y-125.062 I-7.682 J2.528
G3 X-40.409 Y-125.062 I-1.544 J-1.854
G2 X-53.369 Y-121.036 I-5.174 J6.216
G3 X-55.38 Y-119.296 I-2.322 J-0.652
G1 X-62.182 Y-118.413
G2 X-62.182 Y-105.844 I0.816 J6.285
G1 X-55.381 Y-104.961
G3 X-53.369 Y-103.221 I-0.311 J2.393
G2 X-40.409 Y-99.195 I7.786 J-2.19
G3 X-37.322 Y-99.195 I1.544 J1.854
G2 X-34.915 Y-97.811 I5.174 J-6.216
G3 X-34.725 Y-97.404 I-0.109 J0.298
G1 X-34.834 Y-97.106
X-34.858 Y-97.04 Z-0.992
X-34.881 Y-96.977 Z-0.969
X-34.901 Y-96.92 Z-0.931
X-34.919 Y-96.873 Z-0.88
X-34.932 Y-96.837 Z-0.82
X-34.94 Y-96.815 Z-0.753
X-34.942 Y-96.808 Z-0.683
Z5
X-35.539 Y-97.025
Z-0.365 F333.3
Z-1.683
X-35.536 Y-97.032 Z-1.753 F1000
X-35.528 Y-97.054 Z-1.82
X-35.515 Y-97.09 Z-1.88
X-35.498 Y-97.137 Z-1.931
X-35.478 Y-97.194 Z-1.969
X-35.455 Y-97.257 Z-1.992
X-35.43 Y-97.323 Z-2
X-35.322 Y-97.622
G3 X-34.915 Y-97.811 I0.298 J0.109
G2 X-24.466 Y-102.883 I2.767 J-7.6
G3 X-22.175 Y-104.54 I2.292 J0.755
G1 X-21.387
Z-1.3
X-15.037
Z-2 F333.3
X-14.366 F1000
G2 X-8.778 Y-110.128 I0 J-5.588
G1 Y-114.128
G2 X-14.366 Y-119.715 I-5.587 J0
G1 X-22.174
G3 X-24.466 Y-121.374 I0 J-2.412
G2 X-37.322 Y-125.062 I-7.682 J2.528
G3 X-40.409 Y-125.062 I-1.544 J-1.854
G2 X-53.369 Y-121.036 I-5.174 J6.216
G3 X-55.38 Y-119.296 I-2.322 J-0.652
G1 X-55.584 Y-119.27
Z-1.3
X-61.881 Y-118.452
Z-2 F333.3
X-62.182 Y-118.413 F1000
G2 X-62.182 Y-105.844 I0.816 J6.285
G1 X-55.381 Y-104.961
G3 X-53.369 Y-103.221 I-0.311 J2.393
G2 X-40.409 Y-99.195 I7.786 J-2.19
G3 X-37.322 Y-99.195 I1.544 J1.854
G2 X-34.915 Y-97.811 I5.174 J-6.216
G3 X-34.725 Y-97.404 I-0.109 J0.298
G1 X-34.834 Y-97.106
X-34.858 Y-97.04 Z-1.992
X-34.881 Y-96.977 Z-1.969
X-34.901 Y-96.92 Z-1.931
X-34.919 Y-96.873 Z-1.88
X-34.932 Y-96.837 Z-1.82
X-34.94 Y-96.815 Z-1.753
X-34.942 Y-96.808 Z-1.683
Z5
X-35.539 Y-97.025
Z-1.365 F333.3
Z-1.983
X-35.536 Y-97.032 Z-2.053 F1000
X-35.528 Y-97.054 Z-2.12
X-35.515 Y-97.09 Z-2.18
X-35.498 Y-97.137 Z-2.231
X-35.478 Y-97.194 Z-2.269
X-35.455 Y-97.257 Z-2.292
X-35.43 Y-97.323 Z-2.3
X-35.322 Y-97.622
G3 X-34.915 Y-97.811 I0.298 J0.109
G2 X-24.466 Y-102.883 I2.767 J-7.6
G3 X-22.175 Y-104.54 I2.292 J0.755
G1 X-21.387
Z-1.3
X-15.037
Z-2.3 F333.3
X-14.366 F1000
G2 X-8.778 Y-110.128 I0 J-5.588
G1 Y-114.128
G2 X-14.366 Y-119.715 I-5.587 J0
G1 X-22.174
G3 X-24.466 Y-121.374 I0 J-2.412
G2 X-37.322 Y-125.062 I-7.682 J2.528
G3 X-40.409 Y-125.062 I-1.544 J-1.854
G2 X-53.369 Y-121.036 I-5.174 J6.216
G3 X-55.38 Y-119.296 I-2.322 J-0.652
G1 X-55.584 Y-119.27
Z-1.3
X-61.881 Y-118.452
Z-2.3 F333.3
X-62.182 Y-118.413 F1000
G2 X-62.182 Y-105.844 I0.816 J6.285
G1 X-55.381 Y-104.961
G3 X-53.369 Y-103.221 I-0.311 J2.393
G2 X-40.409 Y-99.195 I7.786 J-2.19
G3 X-37.322 Y-99.195 I1.544 J1.854
G2 X-34.915 Y-97.811 I5.174 J-6.216
G3 X-34.725 Y-97.404 I-0.109 J0.298
G1 X-34.834 Y-97.106
X-34.858 Y-97.04 Z-2.292
X-34.881 Y-96.977 Z-2.269
X-34.901 Y-96.92 Z-2.231
X-34.919 Y-96.873 Z-2.18
X-34.932 Y-96.837 Z-2.12
X-34.94 Y-96.815 Z-2.053
X-34.942 Y-96.808 Z-1.983
Z15

M5
M30
