(Motormount_3mm)
(Bearbeiten)
(  Hersteller: ChinaCnc)
(  model: 3040T)
(  description: Generic 3-axis)
(T14  D=1.5 CR=0 - ZMIN=-4.2 - Schaftfraser)
G90 G94
G17
G21
(When using Fusion 360 for Personal Use, the feedrate of)
(rapid moves is reduced to match the feedrate of cutting)
(moves, which can increase machining time. Unrestricted rapid)
(moves are available with a Fusion 360 Subscription.)
G28 G91 Z0
G90

(Bohrfrasen10)
T14
S6000 M3
G54
G0 X-99.51 Y-16.146
Z15
G1 Z1 F600
Z-0.85 F400
X-99.517 Z-0.896
X-99.538 Z-0.938
X-99.572 Z-0.971
X-99.613 Z-0.993
X-99.66 Z-1
X-99.735
X-99.781 Y-16.153
X-99.823 Y-16.174
X-99.856 Y-16.207
X-99.877 Y-16.249
X-99.885 Y-16.296
G3 X-96.385 Y-16.296 Z-1.3 I1.75 J0 F600
X-99.885 Y-16.296 Z-1.6 I-1.75 J0
X-96.385 Y-16.296 Z-1.9 I1.75 J0
X-99.885 Y-16.296 Z-2.2 I-1.75 J0
X-96.385 Y-16.296 Z-2.5 I1.75 J0
X-99.885 Y-16.296 Z-2.8 I-1.75 J0
X-96.385 Y-16.296 Z-3.1 I1.75 J0
X-99.885 Y-16.296 Z-3.4 I-1.75 J0
X-96.385 Y-16.296 Z-3.7 I1.75 J0
X-99.885 Y-16.296 Z-4 I-1.75 J0
X-97.26 Y-17.811 Z-4.2 I1.75 J0
X-99.01 Y-14.78 I-0.875 J1.516
X-97.26 Y-17.811 I0.875 J-1.516
G1 X-97.223 Y-17.782
X-97.198 Y-17.742
X-97.186 Y-17.697
X-97.188 Y-17.65
X-97.205 Y-17.606
X-97.242 Y-17.541
X-97.265 Y-17.501 Z-4.193
X-97.286 Y-17.465 Z-4.171
X-97.303 Y-17.436 Z-4.138
X-97.314 Y-17.418 Z-4.096
X-97.317 Y-17.411 Z-4.05
Z5
X-122.038 Y-20.362
Z1
Z-0.85 F400
X-122.03 Z-0.896
X-122.009 Z-0.938
X-121.976 Z-0.971
X-121.934 Z-0.993
X-121.888 Z-1
X-121.813
X-121.766 Y-20.355
X-121.725 Y-20.333
X-121.691 Y-20.3
X-121.67 Y-20.258
X-121.663 Y-20.212
G3 X-123.663 Y-20.212 Z-1.3 I-1 J0 F600
X-121.663 Y-20.212 Z-1.6 I1 J0
X-123.663 Y-20.212 Z-1.9 I-1 J0
X-121.663 Y-20.212 Z-2.2 I1 J0
X-123.663 Y-20.212 Z-2.5 I-1 J0
X-121.663 Y-20.212 Z-2.8 I1 J0
X-123.663 Y-20.212 Z-3.1 I-1 J0
X-121.663 Y-20.212 Z-3.4 I1 J0
X-123.663 Y-20.212 Z-3.7 I-1 J0
X-121.663 Y-20.212 Z-4 I1 J0
X-123.163 Y-19.346 Z-4.2 I-1 J0
X-122.163 Y-21.078 I0.5 J-0.866
X-123.163 Y-19.346 I-0.5 J0.866
G1 X-123.199 Y-19.375
X-123.225 Y-19.415
X-123.237 Y-19.46
X-123.234 Y-19.507
X-123.218 Y-19.551
X-123.18 Y-19.616
X-123.157 Y-19.656 Z-4.193
X-123.136 Y-19.692 Z-4.171
X-123.119 Y-19.721 Z-4.138
X-123.109 Y-19.739 Z-4.096
X-123.105 Y-19.746 Z-4.05
Z5
X-115.652 Y-30.48
Z1
Z-0.85 F400
X-115.645 Z-0.896
X-115.624 Z-0.938
X-115.59 Z-0.971
X-115.549 Z-0.993
X-115.502 Z-1
X-115.427
X-115.381 Y-30.473
X-115.339 Y-30.452
X-115.306 Y-30.418
X-115.285 Y-30.377
X-115.277 Y-30.33
G3 X-116.277 Y-30.33 Z-1.3 I-0.5 J0 F600
X-115.277 Y-30.33 Z-1.6 I0.5 J0
X-116.277 Y-30.33 Z-1.9 I-0.5 J0
X-115.277 Y-30.33 Z-2.2 I0.5 J0
X-116.277 Y-30.33 Z-2.5 I-0.5 J0
X-115.277 Y-30.33 Z-2.8 I0.5 J0
X-116.277 Y-30.33 Z-3.1 I-0.5 J0
X-115.277 Y-30.33 Z-3.4 I0.5 J0
X-116.277 Y-30.33 Z-3.7 I-0.5 J0
X-115.277 Y-30.33 Z-4 I0.5 J0
X-116.027 Y-29.897 Z-4.2 I-0.5 J0
X-115.527 Y-30.763 I0.25 J-0.433
X-116.027 Y-29.897 I-0.25 J0.433
G1 X-116.064 Y-29.927
X-116.089 Y-29.966
X-116.101 Y-30.011
X-116.099 Y-30.058
X-116.082 Y-30.102
X-116.045 Y-30.167
X-116.021 Y-30.207 Z-4.193
X-116.001 Y-30.243 Z-4.171
X-115.984 Y-30.272 Z-4.138
X-115.973 Y-30.291 Z-4.096
X-115.97 Y-30.297 Z-4.05
Z5
X-106.678 Y-29.805
Z1
Z-0.85 F400
X-106.67 Z-0.896
X-106.649 Z-0.938
X-106.616 Z-0.971
X-106.574 Z-0.993
X-106.528 Z-1
X-106.453
X-106.406 Y-29.797
X-106.364 Y-29.776
X-106.331 Y-29.743
X-106.31 Y-29.701
X-106.303 Y-29.655
G3 X-107.303 Y-29.655 Z-1.3 I-0.5 J0 F600
X-106.303 Y-29.655 Z-1.6 I0.5 J0
X-107.303 Y-29.655 Z-1.9 I-0.5 J0
X-106.303 Y-29.655 Z-2.2 I0.5 J0
X-107.303 Y-29.655 Z-2.5 I-0.5 J0
X-106.303 Y-29.655 Z-2.8 I0.5 J0
X-107.303 Y-29.655 Z-3.1 I-0.5 J0
X-106.303 Y-29.655 Z-3.4 I0.5 J0
X-107.303 Y-29.655 Z-3.7 I-0.5 J0
X-106.303 Y-29.655 Z-4 I0.5 J0
X-107.053 Y-29.222 Z-4.2 I-0.5 J0
X-106.553 Y-30.088 I0.25 J-0.433
X-107.053 Y-29.222 I-0.25 J0.433
G1 X-107.089 Y-29.251
X-107.115 Y-29.291
X-107.127 Y-29.336
X-107.124 Y-29.383
X-107.107 Y-29.427
X-107.07 Y-29.492
X-107.047 Y-29.532 Z-4.193
X-107.026 Y-29.568 Z-4.171
X-107.009 Y-29.597 Z-4.138
X-106.999 Y-29.615 Z-4.096
X-106.995 Y-29.621 Z-4.05
Z5
X-99.292 Y-39.923
Z1
Z-0.85 F400
X-99.285 Z-0.896
X-99.263 Z-0.938
X-99.23 Z-0.971
X-99.188 Z-0.993
X-99.142 Z-1
X-99.067
X-99.021 Y-39.916
X-98.979 Y-39.894
X-98.946 Y-39.861
X-98.924 Y-39.819
X-98.917 Y-39.773
G3 X-100.917 Y-39.773 Z-1.3 I-1 J0 F600
X-98.917 Y-39.773 Z-1.6 I1 J0
X-100.917 Y-39.773 Z-1.9 I-1 J0
X-98.917 Y-39.773 Z-2.2 I1 J0
X-100.917 Y-39.773 Z-2.5 I-1 J0
X-98.917 Y-39.773 Z-2.8 I1 J0
X-100.917 Y-39.773 Z-3.1 I-1 J0
X-98.917 Y-39.773 Z-3.4 I1 J0
X-100.917 Y-39.773 Z-3.7 I-1 J0
X-98.917 Y-39.773 Z-4 I1 J0
X-100.417 Y-38.907 Z-4.2 I-1 J0
X-99.417 Y-40.639 I0.5 J-0.866
X-100.417 Y-38.907 I-0.5 J0.866
G1 X-100.454 Y-38.937
X-100.479 Y-38.976
X-100.491 Y-39.021
X-100.489 Y-39.068
X-100.472 Y-39.112
X-100.435 Y-39.177
X-100.411 Y-39.217 Z-4.193
X-100.39 Y-39.253 Z-4.171
X-100.374 Y-39.282 Z-4.138
X-100.363 Y-39.3 Z-4.096
X-100.36 Y-39.307 Z-4.05
Z5
X-76.772 Y-35.055
Z1
Z-0.85 F400
X-76.78 Z-0.896
X-76.801 Z-0.938
X-76.834 Z-0.971
X-76.876 Z-0.993
X-76.922 Z-1
X-76.997
X-77.044 Y-35.062
X-77.085 Y-35.083
X-77.119 Y-35.117
X-77.14 Y-35.158
X-77.147 Y-35.205
G3 X-75.147 Y-35.205 Z-1.3 I1 J0 F600
X-77.147 Y-35.205 Z-1.6 I-1 J0
X-75.147 Y-35.205 Z-1.9 I1 J0
X-77.147 Y-35.205 Z-2.2 I-1 J0
X-75.147 Y-35.205 Z-2.5 I1 J0
X-77.147 Y-35.205 Z-2.8 I-1 J0
X-75.147 Y-35.205 Z-3.1 I1 J0
X-77.147 Y-35.205 Z-3.4 I-1 J0
X-75.147 Y-35.205 Z-3.7 I1 J0
X-77.147 Y-35.205 Z-4 I-1 J0
X-75.647 Y-36.071 Z-4.2 I1 J0
X-76.647 Y-34.339 I-0.5 J0.866
X-75.647 Y-36.071 I0.5 J-0.866
G1 X-75.611 Y-36.041
X-75.585 Y-36.002
X-75.573 Y-35.957
X-75.576 Y-35.91
X-75.592 Y-35.866
X-75.63 Y-35.801
X-75.653 Y-35.761 Z-4.193
X-75.674 Y-35.725 Z-4.171
X-75.691 Y-35.696 Z-4.138
X-75.701 Y-35.677 Z-4.096
X-75.705 Y-35.671 Z-4.05
Z5
X-69.387 Y-45.173
Z1
Z-0.85 F400
X-69.394 Z-0.896
X-69.415 Z-0.938
X-69.449 Z-0.971
X-69.49 Z-0.993
X-69.537 Z-1
X-69.612
X-69.658 Y-45.18
X-69.7 Y-45.202
X-69.733 Y-45.235
X-69.755 Y-45.277
X-69.762 Y-45.323
G3 X-68.762 Y-45.323 Z-1.3 I0.5 J0 F600
X-69.762 Y-45.323 Z-1.6 I-0.5 J0
X-68.762 Y-45.323 Z-1.9 I0.5 J0
X-69.762 Y-45.323 Z-2.2 I-0.5 J0
X-68.762 Y-45.323 Z-2.5 I0.5 J0
X-69.762 Y-45.323 Z-2.8 I-0.5 J0
X-68.762 Y-45.323 Z-3.1 I0.5 J0
X-69.762 Y-45.323 Z-3.4 I-0.5 J0
X-68.762 Y-45.323 Z-3.7 I0.5 J0
X-69.762 Y-45.323 Z-4 I-0.5 J0
X-69.012 Y-45.756 Z-4.2 I0.5 J0
X-69.512 Y-44.89 I-0.25 J0.433
X-69.012 Y-45.756 I0.25 J-0.433
G1 X-68.975 Y-45.727
X-68.95 Y-45.687
X-68.938 Y-45.642
X-68.94 Y-45.595
X-68.957 Y-45.551
X-68.994 Y-45.486
X-69.018 Y-45.446 Z-4.193
X-69.039 Y-45.41 Z-4.171
X-69.055 Y-45.381 Z-4.138
X-69.066 Y-45.363 Z-4.096
X-69.069 Y-45.356 Z-4.05
Z5
X-60.412 Y-44.498
Z1
Z-0.85 F400
X-60.42 Z-0.896
X-60.441 Z-0.938
X-60.474 Z-0.971
X-60.516 Z-0.993
X-60.562 Z-1
X-60.637
X-60.684 Y-44.505
X-60.725 Y-44.526
X-60.759 Y-44.559
X-60.78 Y-44.601
X-60.787 Y-44.648
G3 X-59.787 Y-44.648 Z-1.3 I0.5 J0 F600
X-60.787 Y-44.648 Z-1.6 I-0.5 J0
X-59.787 Y-44.648 Z-1.9 I0.5 J0
X-60.787 Y-44.648 Z-2.2 I-0.5 J0
X-59.787 Y-44.648 Z-2.5 I0.5 J0
X-60.787 Y-44.648 Z-2.8 I-0.5 J0
X-59.787 Y-44.648 Z-3.1 I0.5 J0
X-60.787 Y-44.648 Z-3.4 I-0.5 J0
X-59.787 Y-44.648 Z-3.7 I0.5 J0
X-60.787 Y-44.648 Z-4 I-0.5 J0
X-60.037 Y-45.081 Z-4.2 I0.5 J0
X-60.537 Y-44.215 I-0.25 J0.433
X-60.037 Y-45.081 I0.25 J-0.433
G1 X-60.001 Y-45.051
X-59.975 Y-45.012
X-59.963 Y-44.966
X-59.966 Y-44.92
X-59.982 Y-44.876
X-60.02 Y-44.811
X-60.043 Y-44.771 Z-4.193
X-60.064 Y-44.734 Z-4.171
X-60.081 Y-44.706 Z-4.138
X-60.091 Y-44.687 Z-4.096
X-60.095 Y-44.681 Z-4.05
Z5
X-54.027 Y-54.616
Z1
Z-0.85 F400
X-54.034 Z-0.896
X-54.055 Z-0.938
X-54.089 Z-0.971
X-54.13 Z-0.993
X-54.177 Z-1
X-54.252
X-54.298 Y-54.623
X-54.34 Y-54.645
X-54.373 Y-54.678
X-54.394 Y-54.72
X-54.402 Y-54.766
G3 X-52.402 Y-54.766 Z-1.3 I1 J0 F600
X-54.402 Y-54.766 Z-1.6 I-1 J0
X-52.402 Y-54.766 Z-1.9 I1 J0
X-54.402 Y-54.766 Z-2.2 I-1 J0
X-52.402 Y-54.766 Z-2.5 I1 J0
X-54.402 Y-54.766 Z-2.8 I-1 J0
X-52.402 Y-54.766 Z-3.1 I1 J0
X-54.402 Y-54.766 Z-3.4 I-1 J0
X-52.402 Y-54.766 Z-3.7 I1 J0
X-54.402 Y-54.766 Z-4 I-1 J0
X-52.902 Y-55.632 Z-4.2 I1 J0
X-53.902 Y-53.9 I-0.5 J0.866
X-52.902 Y-55.632 I0.5 J-0.866
G1 X-52.865 Y-55.602
X-52.84 Y-55.563
X-52.828 Y-55.518
X-52.83 Y-55.471
X-52.847 Y-55.427
X-52.884 Y-55.362
X-52.908 Y-55.322 Z-4.193
X-52.928 Y-55.286 Z-4.171
X-52.945 Y-55.257 Z-4.138
X-52.956 Y-55.239 Z-4.096
X-52.959 Y-55.232 Z-4.05
Z5
X-76.555 Y-58.832
Z1
Z-0.85 F400
X-76.547 Z-0.896
X-76.526 Z-0.938
X-76.493 Z-0.971
X-76.451 Z-0.993
X-76.405 Z-1
X-76.33
X-76.283 Y-58.825
X-76.242 Y-58.804
X-76.208 Y-58.77
X-76.187 Y-58.729
X-76.18 Y-58.682
G3 X-79.68 Y-58.682 Z-1.3 I-1.75 J0 F600
X-76.18 Y-58.682 Z-1.6 I1.75 J0
X-79.68 Y-58.682 Z-1.9 I-1.75 J0
X-76.18 Y-58.682 Z-2.2 I1.75 J0
X-79.68 Y-58.682 Z-2.5 I-1.75 J0
X-76.18 Y-58.682 Z-2.8 I1.75 J0
X-79.68 Y-58.682 Z-3.1 I-1.75 J0
X-76.18 Y-58.682 Z-3.4 I1.75 J0
X-79.68 Y-58.682 Z-3.7 I-1.75 J0
X-76.18 Y-58.682 Z-4 I1.75 J0
X-78.805 Y-57.167 Z-4.2 I-1.75 J0
X-77.055 Y-60.198 I0.875 J-1.516
X-78.805 Y-57.167 I-0.875 J1.516
G1 X-78.841 Y-57.196
X-78.867 Y-57.236
X-78.879 Y-57.281
X-78.876 Y-57.328
X-78.86 Y-57.372
X-78.822 Y-57.436
X-78.799 Y-57.477 Z-4.193
X-78.778 Y-57.513 Z-4.171
X-78.761 Y-57.542 Z-4.138
X-78.751 Y-57.56 Z-4.096
X-78.747 Y-57.566 Z-4.05
Z5
X-27.797 Y-48.537
Z1
Z-0.85 F400
X-27.79 Z-0.896
X-27.769 Z-0.938
X-27.735 Z-0.971
X-27.694 Z-0.993
X-27.647 Z-1
X-27.572
X-27.526 Y-48.529
X-27.484 Y-48.508
X-27.451 Y-48.475
X-27.43 Y-48.433
X-27.422 Y-48.387
G3 X-30.922 Y-48.387 Z-1.3 I-1.75 J0 F600
X-27.422 Y-48.387 Z-1.6 I1.75 J0
X-30.922 Y-48.387 Z-1.9 I-1.75 J0
X-27.422 Y-48.387 Z-2.2 I1.75 J0
X-30.922 Y-48.387 Z-2.5 I-1.75 J0
X-27.422 Y-48.387 Z-2.8 I1.75 J0
X-30.922 Y-48.387 Z-3.1 I-1.75 J0
X-27.422 Y-48.387 Z-3.4 I1.75 J0
X-30.922 Y-48.387 Z-3.7 I-1.75 J0
X-27.422 Y-48.387 Z-4 I1.75 J0
X-30.047 Y-46.871 Z-4.2 I-1.75 J0
X-28.297 Y-49.902 I0.875 J-1.516
X-30.047 Y-46.871 I-0.875 J1.516
G1 X-30.084 Y-46.901
X-30.109 Y-46.94
X-30.121 Y-46.985
X-30.119 Y-47.032
X-30.102 Y-47.076
X-30.065 Y-47.141
X-30.041 Y-47.181 Z-4.193
X-30.021 Y-47.217 Z-4.171
X-30.004 Y-47.246 Z-4.138
X-29.993 Y-47.264 Z-4.096
X-29.99 Y-47.271 Z-4.05
Z5
X-5.269 Y-44.32
Z1
Z-0.85 F400
X-5.277 Z-0.896
X-5.298 Z-0.938
X-5.331 Z-0.971
X-5.373 Z-0.993
X-5.419 Z-1
X-5.494
X-5.541 Y-44.328
X-5.582 Y-44.349
X-5.616 Y-44.382
X-5.637 Y-44.424
X-5.644 Y-44.47
G3 X-3.644 Y-44.47 Z-1.3 I1 J0 F600
X-5.644 Y-44.47 Z-1.6 I-1 J0
X-3.644 Y-44.47 Z-1.9 I1 J0
X-5.644 Y-44.47 Z-2.2 I-1 J0
X-3.644 Y-44.47 Z-2.5 I1 J0
X-5.644 Y-44.47 Z-2.8 I-1 J0
X-3.644 Y-44.47 Z-3.1 I1 J0
X-5.644 Y-44.47 Z-3.4 I-1 J0
X-3.644 Y-44.47 Z-3.7 I1 J0
X-5.644 Y-44.47 Z-4 I-1 J0
X-4.144 Y-45.336 Z-4.2 I1 J0
X-5.144 Y-43.604 I-0.5 J0.866
X-4.144 Y-45.336 I0.5 J-0.866
G1 X-4.108 Y-45.307
X-4.082 Y-45.267
X-4.07 Y-45.222
X-4.073 Y-45.175
X-4.089 Y-45.131
X-4.127 Y-45.066
X-4.15 Y-45.026 Z-4.193
X-4.171 Y-44.99 Z-4.171
X-4.188 Y-44.961 Z-4.138
X-4.198 Y-44.943 Z-4.096
X-4.202 Y-44.937 Z-4.05
Z5
X-11.655 Y-34.202
Z1
Z-0.85 F400
X-11.662 Z-0.896
X-11.683 Z-0.938
X-11.717 Z-0.971
X-11.758 Z-0.993
X-11.805 Z-1
X-11.88
X-11.926 Y-34.209
X-11.968 Y-34.231
X-12.001 Y-34.264
X-12.022 Y-34.306
X-12.03 Y-34.352
G3 X-11.03 Y-34.352 Z-1.3 I0.5 J0 F600
X-12.03 Y-34.352 Z-1.6 I-0.5 J0
X-11.03 Y-34.352 Z-1.9 I0.5 J0
X-12.03 Y-34.352 Z-2.2 I-0.5 J0
X-11.03 Y-34.352 Z-2.5 I0.5 J0
X-12.03 Y-34.352 Z-2.8 I-0.5 J0
X-11.03 Y-34.352 Z-3.1 I0.5 J0
X-12.03 Y-34.352 Z-3.4 I-0.5 J0
X-11.03 Y-34.352 Z-3.7 I0.5 J0
X-12.03 Y-34.352 Z-4 I-0.5 J0
X-11.28 Y-34.785 Z-4.2 I0.5 J0
X-11.78 Y-33.919 I-0.25 J0.433
X-11.28 Y-34.785 I0.25 J-0.433
G1 X-11.243 Y-34.755
X-11.218 Y-34.716
X-11.206 Y-34.671
X-11.208 Y-34.624
X-11.225 Y-34.58
X-11.262 Y-34.515
X-11.285 Y-34.475 Z-4.193
X-11.306 Y-34.439 Z-4.171
X-11.323 Y-34.41 Z-4.138
X-11.334 Y-34.392 Z-4.096
X-11.337 Y-34.385 Z-4.05
Z5
X-20.629 Y-34.877
Z1
Z-0.85 F400
X-20.637 Z-0.896
X-20.658 Z-0.938
X-20.691 Z-0.971
X-20.733 Z-0.993
X-20.779 Z-1
X-20.854
X-20.901 Y-34.885
X-20.943 Y-34.906
X-20.976 Y-34.939
X-20.997 Y-34.981
X-21.004 Y-35.027
G3 X-20.004 Y-35.027 Z-1.3 I0.5 J0 F600
X-21.004 Y-35.027 Z-1.6 I-0.5 J0
X-20.004 Y-35.027 Z-1.9 I0.5 J0
X-21.004 Y-35.027 Z-2.2 I-0.5 J0
X-20.004 Y-35.027 Z-2.5 I0.5 J0
X-21.004 Y-35.027 Z-2.8 I-0.5 J0
X-20.004 Y-35.027 Z-3.1 I0.5 J0
X-21.004 Y-35.027 Z-3.4 I-0.5 J0
X-20.004 Y-35.027 Z-3.7 I0.5 J0
X-21.004 Y-35.027 Z-4 I-0.5 J0
X-20.254 Y-35.46 Z-4.2 I0.5 J0
X-20.754 Y-34.594 I-0.25 J0.433
X-20.254 Y-35.46 I0.25 J-0.433
G1 X-20.218 Y-35.431
X-20.192 Y-35.392
X-20.18 Y-35.346
X-20.183 Y-35.299
X-20.199 Y-35.256
X-20.237 Y-35.191
X-20.26 Y-35.15 Z-4.193
X-20.281 Y-35.114 Z-4.171
X-20.298 Y-35.086 Z-4.138
X-20.308 Y-35.067 Z-4.096
X-20.312 Y-35.061 Z-4.05
Z5
X-28.015 Y-24.759
Z1
Z-0.85 F400
X-28.022 Z-0.896
X-28.043 Z-0.938
X-28.077 Z-0.971
X-28.118 Z-0.993
X-28.165 Z-1
X-28.24
X-28.286 Y-24.766
X-28.328 Y-24.788
X-28.361 Y-24.821
X-28.382 Y-24.863
X-28.39 Y-24.909
G3 X-26.39 Y-24.909 Z-1.3 I1 J0 F600
X-28.39 Y-24.909 Z-1.6 I-1 J0
X-26.39 Y-24.909 Z-1.9 I1 J0
X-28.39 Y-24.909 Z-2.2 I-1 J0
X-26.39 Y-24.909 Z-2.5 I1 J0
X-28.39 Y-24.909 Z-2.8 I-1 J0
X-26.39 Y-24.909 Z-3.1 I1 J0
X-28.39 Y-24.909 Z-3.4 I-1 J0
X-26.39 Y-24.909 Z-3.7 I1 J0
X-28.39 Y-24.909 Z-4 I-1 J0
X-26.89 Y-25.775 Z-4.2 I1 J0
X-27.89 Y-24.043 I-0.5 J0.866
X-26.89 Y-25.775 I0.5 J-0.866
G1 X-26.853 Y-25.746
X-26.828 Y-25.706
X-26.816 Y-25.661
X-26.818 Y-25.614
X-26.835 Y-25.57
X-26.872 Y-25.505
X-26.896 Y-25.465 Z-4.193
X-26.916 Y-25.429 Z-4.171
X-26.933 Y-25.4 Z-4.138
X-26.944 Y-25.382 Z-4.096
X-26.947 Y-25.375 Z-4.05
Z5
X-50.535 Y-29.627
Z1
Z-0.85 F400
X-50.527 Z-0.896
X-50.506 Z-0.938
X-50.473 Z-0.971
X-50.431 Z-0.993
X-50.385 Z-1
X-50.31
X-50.263 Y-29.62
X-50.221 Y-29.599
X-50.188 Y-29.566
X-50.167 Y-29.524
X-50.16 Y-29.477
G3 X-52.16 Y-29.477 Z-1.3 I-1 J0 F600
X-50.16 Y-29.477 Z-1.6 I1 J0
X-52.16 Y-29.477 Z-1.9 I-1 J0
X-50.16 Y-29.477 Z-2.2 I1 J0
X-52.16 Y-29.477 Z-2.5 I-1 J0
X-50.16 Y-29.477 Z-2.8 I1 J0
X-52.16 Y-29.477 Z-3.1 I-1 J0
X-50.16 Y-29.477 Z-3.4 I1 J0
X-52.16 Y-29.477 Z-3.7 I-1 J0
X-50.16 Y-29.477 Z-4 I1 J0
X-51.66 Y-28.611 Z-4.2 I-1 J0
X-50.66 Y-30.343 I0.5 J-0.866
X-51.66 Y-28.611 I-0.5 J0.866
G1 X-51.696 Y-28.641
X-51.722 Y-28.68
X-51.734 Y-28.726
X-51.731 Y-28.772
X-51.715 Y-28.816
X-51.677 Y-28.881
X-51.654 Y-28.921 Z-4.193
X-51.633 Y-28.958 Z-4.171
X-51.616 Y-28.986 Z-4.138
X-51.606 Y-29.005 Z-4.096
X-51.602 Y-29.011 Z-4.05
Z5
X-57.92 Y-19.509
Z1
Z-0.85 F400
X-57.913 Z-0.896
X-57.891 Z-0.938
X-57.858 Z-0.971
X-57.816 Z-0.993
X-57.77 Z-1
X-57.695
X-57.649 Y-19.502
X-57.607 Y-19.48
X-57.574 Y-19.447
X-57.552 Y-19.405
X-57.545 Y-19.359
G3 X-58.545 Y-19.359 Z-1.3 I-0.5 J0 F600
X-57.545 Y-19.359 Z-1.6 I0.5 J0
X-58.545 Y-19.359 Z-1.9 I-0.5 J0
X-57.545 Y-19.359 Z-2.2 I0.5 J0
X-58.545 Y-19.359 Z-2.5 I-0.5 J0
X-57.545 Y-19.359 Z-2.8 I0.5 J0
X-58.545 Y-19.359 Z-3.1 I-0.5 J0
X-57.545 Y-19.359 Z-3.4 I0.5 J0
X-58.545 Y-19.359 Z-3.7 I-0.5 J0
X-57.545 Y-19.359 Z-4 I0.5 J0
X-58.295 Y-18.926 Z-4.2 I-0.5 J0
X-57.795 Y-19.792 I0.25 J-0.433
X-58.295 Y-18.926 I-0.25 J0.433
G1 X-58.332 Y-18.956
X-58.357 Y-18.995
X-58.369 Y-19.04
X-58.367 Y-19.087
X-58.35 Y-19.131
X-58.312 Y-19.196
X-58.289 Y-19.236 Z-4.193
X-58.268 Y-19.272 Z-4.171
X-58.252 Y-19.301 Z-4.138
X-58.241 Y-19.319 Z-4.096
X-58.237 Y-19.326 Z-4.05
Z5
X-66.895 Y-20.185
Z1
Z-0.85 F400
X-66.887 Z-0.896
X-66.866 Z-0.938
X-66.833 Z-0.971
X-66.791 Z-0.993
X-66.745 Z-1
X-66.67
X-66.623 Y-20.177
X-66.582 Y-20.156
X-66.548 Y-20.123
X-66.527 Y-20.081
X-66.52 Y-20.035
G3 X-67.52 Y-20.035 Z-1.3 I-0.5 J0 F600
X-66.52 Y-20.035 Z-1.6 I0.5 J0
X-67.52 Y-20.035 Z-1.9 I-0.5 J0
X-66.52 Y-20.035 Z-2.2 I0.5 J0
X-67.52 Y-20.035 Z-2.5 I-0.5 J0
X-66.52 Y-20.035 Z-2.8 I0.5 J0
X-67.52 Y-20.035 Z-3.1 I-0.5 J0
X-66.52 Y-20.035 Z-3.4 I0.5 J0
X-67.52 Y-20.035 Z-3.7 I-0.5 J0
X-66.52 Y-20.035 Z-4 I0.5 J0
X-67.27 Y-19.602 Z-4.2 I-0.5 J0
X-66.77 Y-20.468 I0.25 J-0.433
X-67.27 Y-19.602 I-0.25 J0.433
G1 X-67.306 Y-19.631
X-67.332 Y-19.67
X-67.344 Y-19.716
X-67.341 Y-19.763
X-67.325 Y-19.806
X-67.287 Y-19.871
X-67.264 Y-19.912 Z-4.193
X-67.243 Y-19.948 Z-4.171
X-67.226 Y-19.976 Z-4.138
X-67.216 Y-19.995 Z-4.096
X-67.212 Y-20.001 Z-4.05
Z5
X-73.28 Y-10.066
Z1
Z-0.85 F400
X-73.273 Z-0.896
X-73.252 Z-0.938
X-73.218 Z-0.971
X-73.177 Z-0.993
X-73.13 Z-1
X-73.055
X-73.009 Y-10.059
X-72.967 Y-10.038
X-72.934 Y-10.004
X-72.913 Y-9.963
X-72.905 Y-9.916
G3 X-74.905 Y-9.916 Z-1.3 I-1 J0 F600
X-72.905 Y-9.916 Z-1.6 I1 J0
X-74.905 Y-9.916 Z-1.9 I-1 J0
X-72.905 Y-9.916 Z-2.2 I1 J0
X-74.905 Y-9.916 Z-2.5 I-1 J0
X-72.905 Y-9.916 Z-2.8 I1 J0
X-74.905 Y-9.916 Z-3.1 I-1 J0
X-72.905 Y-9.916 Z-3.4 I1 J0
X-74.905 Y-9.916 Z-3.7 I-1 J0
X-72.905 Y-9.916 Z-4 I1 J0
X-74.405 Y-9.05 Z-4.2 I-1 J0
X-73.405 Y-10.782 I0.5 J-0.866
X-74.405 Y-9.05 I-0.5 J0.866
G1 X-74.442 Y-9.08
X-74.467 Y-9.119
X-74.479 Y-9.164
X-74.477 Y-9.211
X-74.46 Y-9.255
X-74.423 Y-9.32
X-74.399 Y-9.36 Z-4.193
X-74.378 Y-9.396 Z-4.171
X-74.362 Y-9.425 Z-4.138
X-74.351 Y-9.444 Z-4.096
X-74.348 Y-9.45 Z-4.05
Z5
X-50.752 Y-5.85
Z1
Z-0.85 F400
X-50.76 Z-0.896
X-50.781 Z-0.938
X-50.814 Z-0.971
X-50.856 Z-0.993
X-50.902 Z-1
X-50.977
X-51.024 Y-5.857
X-51.065 Y-5.879
X-51.099 Y-5.912
X-51.12 Y-5.954
X-51.127 Y-6
G3 X-47.627 Y-6 Z-1.3 I1.75 J0 F600
X-51.127 Y-6 Z-1.6 I-1.75 J0
X-47.627 Y-6 Z-1.9 I1.75 J0
X-51.127 Y-6 Z-2.2 I-1.75 J0
X-47.627 Y-6 Z-2.5 I1.75 J0
X-51.127 Y-6 Z-2.8 I-1.75 J0
X-47.627 Y-6 Z-3.1 I1.75 J0
X-51.127 Y-6 Z-3.4 I-1.75 J0
X-47.627 Y-6 Z-3.7 I1.75 J0
X-51.127 Y-6 Z-4 I-1.75 J0
X-48.502 Y-7.516 Z-4.2 I1.75 J0
X-50.252 Y-4.484 I-0.875 J1.516
X-48.502 Y-7.516 I0.875 J-1.516
G1 X-48.466 Y-7.486
X-48.44 Y-7.447
X-48.428 Y-7.401
X-48.43 Y-7.354
X-48.447 Y-7.311
X-48.485 Y-7.246
X-48.508 Y-7.206 Z-4.193
X-48.529 Y-7.169 Z-4.171
X-48.545 Y-7.141 Z-4.138
X-48.556 Y-7.122 Z-4.096
X-48.56 Y-7.116 Z-4.05
Z15
(When using Fusion 360 for Personal Use, the feedrate of)
(rapid moves is reduced to match the feedrate of cutting)
(moves, which can increase machining time. Unrestricted rapid)
(moves are available with a Fusion 360 Subscription.)

(2D Adaptive1)
G0 X-16.756 Y-29.373
G1 Z15 F600
Z5
Z-0.1
Z-0.25 F400
X-16.758 Y-29.38 Z-0.296
X-16.763 Y-29.4 Z-0.338
X-16.772 Y-29.432 Z-0.371
X-16.782 Y-29.473 Z-0.393
X-16.793 Y-29.518 Z-0.4
G3 X-17.017 Y-31.073 I7.063 J-1.809
G1 Y-31.223 F600
X-16.982 Y-31.369
X-16.903 Y-31.496
X-16.791 Y-31.596
X-16.66 Y-31.668
X-16.519 Y-31.72
X-16.374 Y-31.758
X-16.224 Y-31.769
X-16.075 Y-31.759
X-15.914 Y-31.732
X-15.769 Y-31.695
X-15.629 Y-31.641
X-15.619 Y-31.635
X-15.534 Y-31.57
X-15.473 Y-31.481
X-15.442 Y-31.379
X-15.433 Y-31.318
X-15.422 Y-31.249
X-15.355 Y-30.922
X-15.347 Y-30.892
X-15.345 Y-30.85
X-15.354 Y-30.809
X-15.374 Y-30.772
X-15.403 Y-30.742
X-15.439 Y-30.722
X-15.48 Y-30.712
X-16.012 Y-30.661
X-16.795 Y-30.586
X-17.247 Y-30.543 F400
G3 X-17.391 Y-30.769 I-0.014 J-0.149
G1 X-17.306 Y-30.9 F600
X-17.294 Y-30.922
X-17.253 Y-31.021
X-17.106 Y-31.417
X-17.075 Y-31.516
X-17.07 Y-31.546
X-17.038 Y-31.693
X-16.976 Y-31.829
X-16.884 Y-31.948
X-16.771 Y-32.046
X-16.643 Y-32.125
X-16.505 Y-32.184
X-16.36 Y-32.224
X-16.212 Y-32.248
X-16.062 Y-32.256
X-15.913 Y-32.25
X-15.764 Y-32.227
X-15.62 Y-32.187
X-15.589 Y-32.173
X-15.461 Y-32.076
X-15.39 Y-31.934
Y-31.774
X-15.426 Y-31.616
X-15.446 Y-31.516
X-15.447 Y-31.417
X-15.442 Y-31.379
X-15.444 Y-31.334
X-15.459 Y-31.292
X-15.486 Y-31.256
X-15.522 Y-31.23
X-15.565 Y-31.215
X-15.609 Y-31.214
X-16.121 Y-31.277
X-16.395 Y-31.311
X-16.94 Y-31.378 F400
X-16.985 Y-31.391
X-17.024 Y-31.418
X-17.053 Y-31.455
X-17.069 Y-31.499
X-17.07 Y-31.546
X-17.059 Y-31.616 F600
X-17.055 Y-31.665
X-17.054 Y-31.715
X-17.074 Y-31.913
X-17.083 Y-32.063
X-17.029 Y-32.203
X-16.995 Y-32.307
X-16.98 Y-32.525
X-17.092 Y-32.948
X-17.31 Y-33.327
X-17.368 Y-33.42
X-17.449 Y-33.554
X-17.543 Y-33.744
X-17.657 Y-34.032
X-17.701 Y-34.176
X-17.728 Y-34.323
X-17.746 Y-34.511
X-17.749 Y-34.733
X-17.74 Y-34.883
X-17.711 Y-35.03
X-17.661 Y-35.202
X-17.589 Y-35.391
X-17.524 Y-35.527
X-17.443 Y-35.652
X-17.335 Y-35.789
X-17.199 Y-35.935
X-17.088 Y-36.037
X-16.965 Y-36.122
X-16.815 Y-36.207
X-16.633 Y-36.291
X-16.492 Y-36.343
X-16.346 Y-36.375
X-16.177 Y-36.396
X-15.975 Y-36.404
X-15.825 Y-36.399
X-15.677 Y-36.373
X-15.513 Y-36.328
X-15.323 Y-36.258
X-15.186 Y-36.195
X-15.06 Y-36.115
X-14.926 Y-36.011
X-14.776 Y-35.873
X-14.674 Y-35.763
X-14.587 Y-35.641
X-14.504 Y-35.493
X-14.417 Y-35.308
X-14.365 Y-35.168
X-14.332 Y-35.021
X-14.311 Y-34.853
X-14.302 Y-34.649
X-14.308 Y-34.499
X-14.334 Y-34.352
X-14.378 Y-34.188
X-14.448 Y-33.996
X-14.511 Y-33.86
X-14.591 Y-33.733
X-14.695 Y-33.599
X-14.843 Y-33.438
X-14.897 Y-33.343
X-14.947 Y-33.13
X-14.94 Y-32.766
X-14.949 Y-32.68
X-14.979 Y-32.599
X-15.028 Y-32.528
X-15.124 Y-32.416
X-15.208 Y-32.31
X-15.224 Y-32.287
X-15.263 Y-32.211
X-15.298 Y-32.111
X-15.368 Y-31.859
X-15.38 Y-31.814
X-15.39 Y-31.774
X-15.406 Y-31.736
X-15.432 Y-31.703
X-15.466 Y-31.679
X-15.506 Y-31.666
X-15.548 Y-31.663
X-16.121 Y-31.714
X-16.356 Y-31.734
X-16.938 Y-31.785 F400
X-16.977 Y-31.794
X-17.013 Y-31.813
X-17.042 Y-31.84
X-17.063 Y-31.875
X-17.074 Y-31.913
X-17.095 Y-32.111 F600
X-17.108 Y-32.214
X-17.125 Y-32.31
X-17.151 Y-32.409
X-17.173 Y-32.459
X-17.2 Y-32.508
X-17.306 Y-32.682
X-17.386 Y-32.806
X-17.604 Y-33.124
X-17.901 Y-33.534
X-18.02 Y-33.698
X-18.032 Y-33.723
X-18.041 Y-33.748
X-18.167 Y-34.194
X-18.183 Y-34.248
X-18.216 Y-34.395
X-18.233 Y-34.519
X-18.235 Y-34.543
X-18.236 Y-34.567
X-18.235 Y-34.591
G3 X-17.955 Y-34.648 I0.149 J0.016
G1 X-17.944 Y-34.624 F400
X-17.937 Y-34.599
X-17.892 Y-34.318
G3 X-18.183 Y-34.248 I-0.148 J0.024
G1 X-18.237 Y-34.442 F600
X-18.241 Y-34.467
X-18.242 Y-34.491
X-18.212 Y-34.888
X-18.205 Y-34.987
X-18.202 Y-35.03
X-18.183 Y-35.179
X-18.154 Y-35.298
X-18.148 Y-35.32
X-18.141 Y-35.341
X-18.133 Y-35.361
G3 X-17.852 Y-35.326 I0.134 J0.067
G1 X-17.848 Y-35.296 F400
X-17.851 Y-35.265
X-17.905 Y-34.995
G3 X-18.202 Y-35.03 I-0.147 J-0.029
G1 X-18.19 Y-35.186 F600
X-18.185 Y-35.235
X-18.178 Y-35.26
X-18.167 Y-35.285
X-18.001 Y-35.652
X-17.987 Y-35.681
X-17.962 Y-35.736
X-17.894 Y-35.869
X-17.803 Y-36.008
X-17.778 Y-36.04
X-17.759 Y-36.061
G3 X-17.52 Y-35.889 I0.103 J0.109
G1 X-17.528 Y-35.874 F400
X-17.696 Y-35.6
G3 X-17.962 Y-35.736 I-0.128 J-0.078
G1 X-17.874 Y-35.929 F600
X-17.859 Y-35.954
X-17.84 Y-35.979
X-17.548 Y-36.276
X-17.393 Y-36.419
X-17.281 Y-36.52
X-17.162 Y-36.611
X-17.035 Y-36.691
X-16.903 Y-36.761
X-16.765 Y-36.82
X-16.623 Y-36.868
X-16.478 Y-36.907
X-16.331 Y-36.936
X-16.182 Y-36.954
X-16.032 Y-36.962
X-15.882 Y-36.959
X-15.733 Y-36.945
X-15.584 Y-36.922
X-15.438 Y-36.891
X-15.294 Y-36.848
X-15.153 Y-36.796
X-15.016 Y-36.735
X-14.884 Y-36.664
X-14.756 Y-36.585
X-14.634 Y-36.499
X-14.59 Y-36.464
X-14.565 Y-36.441
X-14.542 Y-36.417
X-14.522 Y-36.39
X-14.43 Y-36.256
X-14.229 Y-35.979
X-14.158 Y-35.88
X-14.133 Y-35.845
X-14.051 Y-35.719
X-13.979 Y-35.575
X-13.967 Y-35.54
G3 X-14.211 Y-35.391 I-0.146 J0.036
G1 X-14.229 Y-35.41 F400
X-14.244 Y-35.432
X-14.382 Y-35.68
G3 X-14.133 Y-35.845 I0.131 J-0.073
G1 X-14.014 Y-35.681 F600
X-14.002 Y-35.657
X-13.993 Y-35.632
X-13.895 Y-35.285
X-13.867 Y-35.186
X-13.851 Y-35.131
X-13.818 Y-34.985
X-13.8 Y-34.825
Y-34.79
Y-34.778
G3 X-14.085 Y-34.73 I-0.149 J-0.016
G1 X-14.098 Y-34.772 F400
X-14.142 Y-35.062
G3 X-13.851 Y-35.131 I0.148 J-0.023
G1 X-13.797 Y-34.938 F600
X-13.793 Y-34.913
X-13.792 Y-34.888
X-13.822 Y-34.491
X-13.829 Y-34.392
X-13.832 Y-34.35
X-13.851 Y-34.201
X-13.882 Y-34.075
X-13.888 Y-34.054
X-13.895 Y-34.034
X-13.903 Y-34.014
G3 X-14.185 Y-34.054 I-0.134 J-0.067
G1 X-14.188 Y-34.082 F400
X-14.185 Y-34.11
X-14.129 Y-34.386
G3 X-13.832 Y-34.35 I0.147 J0.03
G1 X-13.844 Y-34.194 F600
X-13.849 Y-34.144
X-13.856 Y-34.12
X-13.867 Y-34.095
X-14.16 Y-33.45
X-14.175 Y-33.425
X-14.194 Y-33.401
X-14.779 Y-32.806
X-14.827 Y-32.755
X-15.028 Y-32.528
X-15.064 Y-32.501
X-15.106 Y-32.485
X-15.151 Y-32.482
X-15.194 Y-32.493
X-15.233 Y-32.516
X-15.263 Y-32.55
X-15.543 Y-32.981
X-17.243 Y-35.6
X-17.563 Y-36.093 F400
X-17.58 Y-36.129
X-17.587 Y-36.168
X-17.584 Y-36.207
X-17.57 Y-36.244
X-17.548 Y-36.276
X-17.255 Y-36.574 F600
X-17.207 Y-36.624
X-16.988 Y-36.871
X-16.904 Y-36.97
X-16.826 Y-37.07
X-16.81 Y-37.093
X-16.771 Y-37.169
X-16.736 Y-37.268
X-16.681 Y-37.466
X-16.654 Y-37.565
X-16.608 Y-37.764
X-16.588 Y-37.863
X-16.587 Y-37.962
X-16.601 Y-38.061
X-16.612 Y-38.13
X-16.679 Y-38.458
X-16.687 Y-38.488
X-16.689 Y-38.53
X-16.68 Y-38.57
X-16.66 Y-38.607
X-16.631 Y-38.637
X-16.595 Y-38.657
X-16.554 Y-38.667
X-16.023 Y-38.718
X-15.239 Y-38.793
X-14.787 Y-38.837 F400
G3 X-14.643 Y-38.611 I0.014 J0.149
G1 X-14.728 Y-38.48 F600
X-14.74 Y-38.458
X-14.781 Y-38.359
X-14.928 Y-37.962
X-14.959 Y-37.863
X-14.975 Y-37.764
X-14.979 Y-37.714
X-14.98 Y-37.665
X-14.96 Y-37.466
X-14.939 Y-37.268
X-14.926 Y-37.165
X-14.909 Y-37.07
X-14.883 Y-36.97
X-14.861 Y-36.921
X-14.834 Y-36.871
X-14.728 Y-36.697
X-14.648 Y-36.574
X-14.522 Y-36.39
G3 X-14.648 Y-36.159 I-0.127 J0.08
G1 X-14.649
G3 X-14.778 Y-36.385 I0 J-0.15
G1 X-14.748 Y-36.41 Z-0.394
X-14.72 Y-36.432 Z-0.379
X-14.696 Y-36.452 Z-0.354
X-14.674 Y-36.456 Z-0.324
X-14.66 Y-36.458 Z-0.288
X-14.655 Y-36.459 Z-0.25
Z5
X-16.756 Y-29.373
Z-0.5
Z-0.65 F400
X-16.758 Y-29.38 Z-0.696
X-16.763 Y-29.4 Z-0.738
X-16.772 Y-29.432 Z-0.771
X-16.782 Y-29.473 Z-0.793
X-16.793 Y-29.518 Z-0.8
G3 X-17.017 Y-31.073 I7.063 J-1.809
G1 Y-31.223 F600
X-16.982 Y-31.369
X-16.903 Y-31.496
X-16.791 Y-31.596
X-16.66 Y-31.668
X-16.519 Y-31.72
X-16.374 Y-31.758
X-16.224 Y-31.769
X-16.075 Y-31.759
X-15.914 Y-31.732
X-15.769 Y-31.695
X-15.629 Y-31.641
X-15.619 Y-31.635
X-15.534 Y-31.57
X-15.473 Y-31.481
X-15.442 Y-31.379
X-15.433 Y-31.318
X-15.422 Y-31.249
X-15.355 Y-30.922
X-15.347 Y-30.892
X-15.345 Y-30.85
X-15.354 Y-30.809
X-15.374 Y-30.772
X-15.403 Y-30.742
X-15.439 Y-30.722
X-15.48 Y-30.712
X-16.012 Y-30.661
X-16.795 Y-30.586
X-17.247 Y-30.543 F400
G3 X-17.391 Y-30.769 I-0.014 J-0.149
G1 X-17.306 Y-30.9 F600
X-17.294 Y-30.922
X-17.253 Y-31.021
X-17.106 Y-31.417
X-17.075 Y-31.516
X-17.07 Y-31.546
X-17.038 Y-31.693
X-16.976 Y-31.829
X-16.884 Y-31.948
X-16.771 Y-32.046
X-16.643 Y-32.125
X-16.505 Y-32.184
X-16.36 Y-32.224
X-16.212 Y-32.248
X-16.062 Y-32.256
X-15.913 Y-32.25
X-15.764 Y-32.227
X-15.62 Y-32.187
X-15.589 Y-32.173
X-15.461 Y-32.076
X-15.39 Y-31.934
Y-31.774
X-15.426 Y-31.616
X-15.446 Y-31.516
X-15.447 Y-31.417
X-15.442 Y-31.379
X-15.444 Y-31.334
X-15.459 Y-31.292
X-15.486 Y-31.256
X-15.522 Y-31.23
X-15.565 Y-31.215
X-15.609 Y-31.214
X-16.121 Y-31.277
X-16.395 Y-31.311
X-16.94 Y-31.378 F400
X-16.985 Y-31.391
X-17.024 Y-31.418
X-17.053 Y-31.455
X-17.069 Y-31.499
X-17.07 Y-31.546
X-17.059 Y-31.616 F600
X-17.055 Y-31.665
X-17.054 Y-31.715
X-17.074 Y-31.913
X-17.083 Y-32.063
X-17.029 Y-32.203
X-16.995 Y-32.307
X-16.98 Y-32.525
X-17.092 Y-32.948
X-17.31 Y-33.327
X-17.368 Y-33.42
X-17.449 Y-33.554
X-17.543 Y-33.744
X-17.657 Y-34.032
X-17.701 Y-34.176
X-17.728 Y-34.323
X-17.746 Y-34.511
X-17.749 Y-34.733
X-17.74 Y-34.883
X-17.711 Y-35.03
X-17.661 Y-35.202
X-17.589 Y-35.391
X-17.524 Y-35.527
X-17.443 Y-35.652
X-17.335 Y-35.789
X-17.199 Y-35.935
X-17.088 Y-36.037
X-16.965 Y-36.122
X-16.815 Y-36.207
X-16.633 Y-36.291
X-16.492 Y-36.343
X-16.346 Y-36.375
X-16.177 Y-36.396
X-15.975 Y-36.404
X-15.825 Y-36.399
X-15.677 Y-36.373
X-15.513 Y-36.328
X-15.323 Y-36.258
X-15.186 Y-36.195
X-15.06 Y-36.115
X-14.926 Y-36.011
X-14.776 Y-35.873
X-14.674 Y-35.763
X-14.587 Y-35.641
X-14.504 Y-35.493
X-14.417 Y-35.308
X-14.365 Y-35.168
X-14.332 Y-35.021
X-14.311 Y-34.853
X-14.302 Y-34.649
X-14.308 Y-34.499
X-14.334 Y-34.352
X-14.378 Y-34.188
X-14.448 Y-33.996
X-14.511 Y-33.86
X-14.591 Y-33.733
X-14.695 Y-33.599
X-14.843 Y-33.438
X-14.897 Y-33.343
X-14.947 Y-33.13
X-14.94 Y-32.766
X-14.949 Y-32.68
X-14.979 Y-32.599
X-15.028 Y-32.528
X-15.124 Y-32.416
X-15.208 Y-32.31
X-15.224 Y-32.287
X-15.263 Y-32.211
X-15.298 Y-32.111
X-15.368 Y-31.859
X-15.38 Y-31.814
X-15.39 Y-31.774
X-15.406 Y-31.736
X-15.432 Y-31.703
X-15.466 Y-31.679
X-15.506 Y-31.666
X-15.548 Y-31.663
X-16.121 Y-31.714
X-16.356 Y-31.734
X-16.938 Y-31.785 F400
X-16.977 Y-31.794
X-17.013 Y-31.813
X-17.042 Y-31.84
X-17.063 Y-31.875
X-17.074 Y-31.913
X-17.095 Y-32.111 F600
X-17.108 Y-32.214
X-17.125 Y-32.31
X-17.151 Y-32.409
X-17.173 Y-32.459
X-17.2 Y-32.508
X-17.306 Y-32.682
X-17.386 Y-32.806
X-17.604 Y-33.124
X-17.901 Y-33.534
X-18.02 Y-33.698
X-18.032 Y-33.723
X-18.041 Y-33.748
X-18.167 Y-34.194
X-18.183 Y-34.248
X-18.216 Y-34.395
X-18.233 Y-34.519
X-18.235 Y-34.543
X-18.236 Y-34.567
X-18.235 Y-34.591
G3 X-17.955 Y-34.648 I0.149 J0.016
G1 X-17.944 Y-34.624 F400
X-17.937 Y-34.599
X-17.892 Y-34.318
G3 X-18.183 Y-34.248 I-0.148 J0.024
G1 X-18.237 Y-34.442 F600
X-18.241 Y-34.467
X-18.242 Y-34.491
X-18.212 Y-34.888
X-18.205 Y-34.987
X-18.202 Y-35.03
X-18.183 Y-35.179
X-18.154 Y-35.298
X-18.148 Y-35.32
X-18.141 Y-35.341
X-18.133 Y-35.361
G3 X-17.852 Y-35.326 I0.134 J0.067
G1 X-17.848 Y-35.296 F400
X-17.851 Y-35.265
X-17.905 Y-34.995
G3 X-18.202 Y-35.03 I-0.147 J-0.029
G1 X-18.19 Y-35.186 F600
X-18.185 Y-35.235
X-18.178 Y-35.26
X-18.167 Y-35.285
X-18.001 Y-35.652
X-17.987 Y-35.681
X-17.962 Y-35.736
X-17.894 Y-35.869
X-17.803 Y-36.008
X-17.778 Y-36.04
X-17.759 Y-36.061
G3 X-17.52 Y-35.889 I0.103 J0.109
G1 X-17.528 Y-35.874 F400
X-17.696 Y-35.6
G3 X-17.962 Y-35.736 I-0.128 J-0.078
G1 X-17.874 Y-35.929 F600
X-17.859 Y-35.954
X-17.84 Y-35.979
X-17.548 Y-36.276
X-17.393 Y-36.419
X-17.281 Y-36.52
X-17.162 Y-36.611
X-17.035 Y-36.691
X-16.903 Y-36.761
X-16.765 Y-36.82
X-16.623 Y-36.868
X-16.478 Y-36.907
X-16.331 Y-36.936
X-16.182 Y-36.954
X-16.032 Y-36.962
X-15.882 Y-36.959
X-15.733 Y-36.945
X-15.584 Y-36.922
X-15.438 Y-36.891
X-15.294 Y-36.848
X-15.153 Y-36.796
X-15.016 Y-36.735
X-14.884 Y-36.664
X-14.756 Y-36.585
X-14.634 Y-36.499
X-14.59 Y-36.464
X-14.565 Y-36.441
X-14.542 Y-36.417
X-14.522 Y-36.39
X-14.43 Y-36.256
X-14.229 Y-35.979
X-14.158 Y-35.88
X-14.133 Y-35.845
X-14.051 Y-35.719
X-13.979 Y-35.575
X-13.967 Y-35.54
G3 X-14.211 Y-35.391 I-0.146 J0.036
G1 X-14.229 Y-35.41 F400
X-14.244 Y-35.432
X-14.382 Y-35.68
G3 X-14.133 Y-35.845 I0.131 J-0.073
G1 X-14.014 Y-35.681 F600
X-14.002 Y-35.657
X-13.993 Y-35.632
X-13.895 Y-35.285
X-13.867 Y-35.186
X-13.851 Y-35.131
X-13.818 Y-34.985
X-13.8 Y-34.825
Y-34.79
Y-34.778
G3 X-14.085 Y-34.73 I-0.149 J-0.016
G1 X-14.098 Y-34.772 F400
X-14.142 Y-35.062
G3 X-13.851 Y-35.131 I0.148 J-0.023
G1 X-13.797 Y-34.938 F600
X-13.793 Y-34.913
X-13.792 Y-34.888
X-13.822 Y-34.491
X-13.829 Y-34.392
X-13.832 Y-34.35
X-13.851 Y-34.201
X-13.882 Y-34.075
X-13.888 Y-34.054
X-13.895 Y-34.034
X-13.903 Y-34.014
G3 X-14.185 Y-34.054 I-0.134 J-0.067
G1 X-14.188 Y-34.082 F400
X-14.185 Y-34.11
X-14.129 Y-34.386
G3 X-13.832 Y-34.35 I0.147 J0.03
G1 X-13.844 Y-34.194 F600
X-13.849 Y-34.144
X-13.856 Y-34.12
X-13.867 Y-34.095
X-14.16 Y-33.45
X-14.175 Y-33.425
X-14.194 Y-33.401
X-14.779 Y-32.806
X-14.827 Y-32.755
X-15.028 Y-32.528
X-15.064 Y-32.501
X-15.106 Y-32.485
X-15.151 Y-32.482
X-15.194 Y-32.493
X-15.233 Y-32.516
X-15.263 Y-32.55
X-15.543 Y-32.981
X-17.243 Y-35.6
X-17.563 Y-36.093 F400
X-17.58 Y-36.129
X-17.587 Y-36.168
X-17.584 Y-36.207
X-17.57 Y-36.244
X-17.548 Y-36.276
X-17.255 Y-36.574 F600
X-17.207 Y-36.624
X-16.988 Y-36.871
X-16.904 Y-36.97
X-16.826 Y-37.07
X-16.81 Y-37.093
X-16.771 Y-37.169
X-16.736 Y-37.268
X-16.681 Y-37.466
X-16.654 Y-37.565
X-16.608 Y-37.764
X-16.588 Y-37.863
X-16.587 Y-37.962
X-16.601 Y-38.061
X-16.612 Y-38.13
X-16.679 Y-38.458
X-16.687 Y-38.488
X-16.689 Y-38.53
X-16.68 Y-38.57
X-16.66 Y-38.607
X-16.631 Y-38.637
X-16.595 Y-38.657
X-16.554 Y-38.667
X-16.023 Y-38.718
X-15.239 Y-38.793
X-14.787 Y-38.837 F400
G3 X-14.643 Y-38.611 I0.014 J0.149
G1 X-14.728 Y-38.48 F600
X-14.74 Y-38.458
X-14.781 Y-38.359
X-14.928 Y-37.962
X-14.959 Y-37.863
X-14.975 Y-37.764
X-14.979 Y-37.714
X-14.98 Y-37.665
X-14.96 Y-37.466
X-14.939 Y-37.268
X-14.926 Y-37.165
X-14.909 Y-37.07
X-14.883 Y-36.97
X-14.861 Y-36.921
X-14.834 Y-36.871
X-14.728 Y-36.697
X-14.648 Y-36.574
X-14.522 Y-36.39
G3 X-14.648 Y-36.159 I-0.127 J0.08
G1 X-14.649
G3 X-14.778 Y-36.385 I0 J-0.15
G1 X-14.748 Y-36.41 Z-0.794
X-14.72 Y-36.432 Z-0.779
X-14.696 Y-36.452 Z-0.754
X-14.674 Y-36.456 Z-0.724
X-14.66 Y-36.458 Z-0.688
X-14.655 Y-36.459 Z-0.65
Z5
X-16.756 Y-29.373
Z-0.9
Z-1.05 F400
X-16.758 Y-29.38 Z-1.096
X-16.763 Y-29.4 Z-1.138
X-16.772 Y-29.432 Z-1.171
X-16.782 Y-29.473 Z-1.193
X-16.793 Y-29.518 Z-1.2
G3 X-17.017 Y-31.073 I7.063 J-1.809
G1 Y-31.223 F600
X-16.982 Y-31.369
X-16.903 Y-31.496
X-16.791 Y-31.596
X-16.66 Y-31.668
X-16.519 Y-31.72
X-16.374 Y-31.758
X-16.224 Y-31.769
X-16.075 Y-31.759
X-15.914 Y-31.732
X-15.769 Y-31.695
X-15.629 Y-31.641
X-15.619 Y-31.635
X-15.534 Y-31.57
X-15.473 Y-31.481
X-15.442 Y-31.379
X-15.433 Y-31.318
X-15.422 Y-31.249
X-15.355 Y-30.922
X-15.347 Y-30.892
X-15.345 Y-30.85
X-15.354 Y-30.809
X-15.374 Y-30.772
X-15.403 Y-30.742
X-15.439 Y-30.722
X-15.48 Y-30.712
X-16.012 Y-30.661
X-16.795 Y-30.586
X-17.247 Y-30.543 F400
G3 X-17.391 Y-30.769 I-0.014 J-0.149
G1 X-17.306 Y-30.9 F600
X-17.294 Y-30.922
X-17.253 Y-31.021
X-17.106 Y-31.417
X-17.075 Y-31.516
X-17.07 Y-31.546
X-17.038 Y-31.693
X-16.976 Y-31.829
X-16.884 Y-31.948
X-16.771 Y-32.046
X-16.643 Y-32.125
X-16.505 Y-32.184
X-16.36 Y-32.224
X-16.212 Y-32.248
X-16.062 Y-32.256
X-15.913 Y-32.25
X-15.764 Y-32.227
X-15.62 Y-32.187
X-15.589 Y-32.173
X-15.461 Y-32.076
X-15.39 Y-31.934
Y-31.774
X-15.426 Y-31.616
X-15.446 Y-31.516
X-15.447 Y-31.417
X-15.442 Y-31.379
X-15.444 Y-31.334
X-15.459 Y-31.292
X-15.486 Y-31.256
X-15.522 Y-31.23
X-15.565 Y-31.215
X-15.609 Y-31.214
X-16.121 Y-31.277
X-16.395 Y-31.311
X-16.94 Y-31.378 F400
X-16.985 Y-31.391
X-17.024 Y-31.418
X-17.053 Y-31.455
X-17.069 Y-31.499
X-17.07 Y-31.546
X-17.059 Y-31.616 F600
X-17.055 Y-31.665
X-17.054 Y-31.715
X-17.074 Y-31.913
X-17.083 Y-32.063
X-17.029 Y-32.203
X-16.995 Y-32.307
X-16.98 Y-32.525
X-17.092 Y-32.948
X-17.31 Y-33.327
X-17.368 Y-33.42
X-17.449 Y-33.554
X-17.543 Y-33.744
X-17.657 Y-34.032
X-17.701 Y-34.176
X-17.728 Y-34.323
X-17.746 Y-34.511
X-17.749 Y-34.733
X-17.74 Y-34.883
X-17.711 Y-35.03
X-17.661 Y-35.202
X-17.589 Y-35.391
X-17.524 Y-35.527
X-17.443 Y-35.652
X-17.335 Y-35.789
X-17.199 Y-35.935
X-17.088 Y-36.037
X-16.965 Y-36.122
X-16.815 Y-36.207
X-16.633 Y-36.291
X-16.492 Y-36.343
X-16.346 Y-36.375
X-16.177 Y-36.396
X-15.975 Y-36.404
X-15.825 Y-36.399
X-15.677 Y-36.373
X-15.513 Y-36.328
X-15.323 Y-36.258
X-15.186 Y-36.195
X-15.06 Y-36.115
X-14.926 Y-36.011
X-14.776 Y-35.873
X-14.674 Y-35.763
X-14.587 Y-35.641
X-14.504 Y-35.493
X-14.417 Y-35.308
X-14.365 Y-35.168
X-14.332 Y-35.021
X-14.311 Y-34.853
X-14.302 Y-34.649
X-14.308 Y-34.499
X-14.334 Y-34.352
X-14.378 Y-34.188
X-14.448 Y-33.996
X-14.511 Y-33.86
X-14.591 Y-33.733
X-14.695 Y-33.599
X-14.843 Y-33.438
X-14.897 Y-33.343
X-14.947 Y-33.13
X-14.94 Y-32.766
X-14.949 Y-32.68
X-14.979 Y-32.599
X-15.028 Y-32.528
X-15.124 Y-32.416
X-15.208 Y-32.31
X-15.224 Y-32.287
X-15.263 Y-32.211
X-15.298 Y-32.111
X-15.368 Y-31.859
X-15.38 Y-31.814
X-15.39 Y-31.774
X-15.406 Y-31.736
X-15.432 Y-31.703
X-15.466 Y-31.679
X-15.506 Y-31.666
X-15.548 Y-31.663
X-16.121 Y-31.714
X-16.356 Y-31.734
X-16.938 Y-31.785 F400
X-16.977 Y-31.794
X-17.013 Y-31.813
X-17.042 Y-31.84
X-17.063 Y-31.875
X-17.074 Y-31.913
X-17.095 Y-32.111 F600
X-17.108 Y-32.214
X-17.125 Y-32.31
X-17.151 Y-32.409
X-17.173 Y-32.459
X-17.2 Y-32.508
X-17.306 Y-32.682
X-17.386 Y-32.806
X-17.604 Y-33.124
X-17.901 Y-33.534
X-18.02 Y-33.698
X-18.032 Y-33.723
X-18.041 Y-33.748
X-18.167 Y-34.194
X-18.183 Y-34.248
X-18.216 Y-34.395
X-18.233 Y-34.519
X-18.235 Y-34.543
X-18.236 Y-34.567
X-18.235 Y-34.591
G3 X-17.955 Y-34.648 I0.149 J0.016
G1 X-17.944 Y-34.624 F400
X-17.937 Y-34.599
X-17.892 Y-34.318
G3 X-18.183 Y-34.248 I-0.148 J0.024
G1 X-18.237 Y-34.442 F600
X-18.241 Y-34.467
X-18.242 Y-34.491
X-18.212 Y-34.888
X-18.205 Y-34.987
X-18.202 Y-35.03
X-18.183 Y-35.179
X-18.154 Y-35.298
X-18.148 Y-35.32
X-18.141 Y-35.341
X-18.133 Y-35.361
G3 X-17.852 Y-35.326 I0.134 J0.067
G1 X-17.848 Y-35.296 F400
X-17.851 Y-35.265
X-17.905 Y-34.995
G3 X-18.202 Y-35.03 I-0.147 J-0.029
G1 X-18.19 Y-35.186 F600
X-18.185 Y-35.235
X-18.178 Y-35.26
X-18.167 Y-35.285
X-18.001 Y-35.652
X-17.987 Y-35.681
X-17.962 Y-35.736
X-17.894 Y-35.869
X-17.803 Y-36.008
X-17.778 Y-36.04
X-17.759 Y-36.061
G3 X-17.52 Y-35.889 I0.103 J0.109
G1 X-17.528 Y-35.874 F400
X-17.696 Y-35.6
G3 X-17.962 Y-35.736 I-0.128 J-0.078
G1 X-17.874 Y-35.929 F600
X-17.859 Y-35.954
X-17.84 Y-35.979
X-17.548 Y-36.276
X-17.393 Y-36.419
X-17.281 Y-36.52
X-17.162 Y-36.611
X-17.035 Y-36.691
X-16.903 Y-36.761
X-16.765 Y-36.82
X-16.623 Y-36.868
X-16.478 Y-36.907
X-16.331 Y-36.936
X-16.182 Y-36.954
X-16.032 Y-36.962
X-15.882 Y-36.959
X-15.733 Y-36.945
X-15.584 Y-36.922
X-15.438 Y-36.891
X-15.294 Y-36.848
X-15.153 Y-36.796
X-15.016 Y-36.735
X-14.884 Y-36.664
X-14.756 Y-36.585
X-14.634 Y-36.499
X-14.59 Y-36.464
X-14.565 Y-36.441
X-14.542 Y-36.417
X-14.522 Y-36.39
X-14.43 Y-36.256
X-14.229 Y-35.979
X-14.158 Y-35.88
X-14.133 Y-35.845
X-14.051 Y-35.719
X-13.979 Y-35.575
X-13.967 Y-35.54
G3 X-14.211 Y-35.391 I-0.146 J0.036
G1 X-14.229 Y-35.41 F400
X-14.244 Y-35.432
X-14.382 Y-35.68
G3 X-14.133 Y-35.845 I0.131 J-0.073
G1 X-14.014 Y-35.681 F600
X-14.002 Y-35.657
X-13.993 Y-35.632
X-13.895 Y-35.285
X-13.867 Y-35.186
X-13.851 Y-35.131
X-13.818 Y-34.985
X-13.8 Y-34.825
Y-34.79
Y-34.778
G3 X-14.085 Y-34.73 I-0.149 J-0.016
G1 X-14.098 Y-34.772 F400
X-14.142 Y-35.062
G3 X-13.851 Y-35.131 I0.148 J-0.023
G1 X-13.797 Y-34.938 F600
X-13.793 Y-34.913
X-13.792 Y-34.888
X-13.822 Y-34.491
X-13.829 Y-34.392
X-13.832 Y-34.35
X-13.851 Y-34.201
X-13.882 Y-34.075
X-13.888 Y-34.054
X-13.895 Y-34.034
X-13.903 Y-34.014
G3 X-14.185 Y-34.054 I-0.134 J-0.067
G1 X-14.188 Y-34.082 F400
X-14.185 Y-34.11
X-14.129 Y-34.386
G3 X-13.832 Y-34.35 I0.147 J0.03
G1 X-13.844 Y-34.194 F600
X-13.849 Y-34.144
X-13.856 Y-34.12
X-13.867 Y-34.095
X-14.16 Y-33.45
X-14.175 Y-33.425
X-14.194 Y-33.401
X-14.779 Y-32.806
X-14.827 Y-32.755
X-15.028 Y-32.528
X-15.064 Y-32.501
X-15.106 Y-32.485
X-15.151 Y-32.482
X-15.194 Y-32.493
X-15.233 Y-32.516
X-15.263 Y-32.55
X-15.543 Y-32.981
X-17.243 Y-35.6
X-17.563 Y-36.093 F400
X-17.58 Y-36.129
X-17.587 Y-36.168
X-17.584 Y-36.207
X-17.57 Y-36.244
X-17.548 Y-36.276
X-17.255 Y-36.574 F600
X-17.207 Y-36.624
X-16.988 Y-36.871
X-16.904 Y-36.97
X-16.826 Y-37.07
X-16.81 Y-37.093
X-16.771 Y-37.169
X-16.736 Y-37.268
X-16.681 Y-37.466
X-16.654 Y-37.565
X-16.608 Y-37.764
X-16.588 Y-37.863
X-16.587 Y-37.962
X-16.601 Y-38.061
X-16.612 Y-38.13
X-16.679 Y-38.458
X-16.687 Y-38.488
X-16.689 Y-38.53
X-16.68 Y-38.57
X-16.66 Y-38.607
X-16.631 Y-38.637
X-16.595 Y-38.657
X-16.554 Y-38.667
X-16.023 Y-38.718
X-15.239 Y-38.793
X-14.787 Y-38.837 F400
G3 X-14.643 Y-38.611 I0.014 J0.149
G1 X-14.728 Y-38.48 F600
X-14.74 Y-38.458
X-14.781 Y-38.359
X-14.928 Y-37.962
X-14.959 Y-37.863
X-14.975 Y-37.764
X-14.979 Y-37.714
X-14.98 Y-37.665
X-14.96 Y-37.466
X-14.939 Y-37.268
X-14.926 Y-37.165
X-14.909 Y-37.07
X-14.883 Y-36.97
X-14.861 Y-36.921
X-14.834 Y-36.871
X-14.728 Y-36.697
X-14.648 Y-36.574
X-14.522 Y-36.39
G3 X-14.648 Y-36.159 I-0.127 J0.08
G1 X-14.649
G3 X-14.778 Y-36.385 I0 J-0.15
G1 X-14.748 Y-36.41 Z-1.194
X-14.72 Y-36.432 Z-1.179
X-14.696 Y-36.452 Z-1.154
X-14.674 Y-36.456 Z-1.124
X-14.66 Y-36.458 Z-1.088
X-14.655 Y-36.459 Z-1.05
Z5
X-16.756 Y-29.373
Z-1.3
Z-1.45 F400
X-16.758 Y-29.38 Z-1.496
X-16.763 Y-29.4 Z-1.538
X-16.772 Y-29.432 Z-1.571
X-16.782 Y-29.473 Z-1.593
X-16.793 Y-29.518 Z-1.6
G3 X-17.017 Y-31.073 I7.063 J-1.809
G1 Y-31.223 F600
X-16.982 Y-31.369
X-16.903 Y-31.496
X-16.791 Y-31.596
X-16.66 Y-31.668
X-16.519 Y-31.72
X-16.374 Y-31.758
X-16.224 Y-31.769
X-16.075 Y-31.759
X-15.914 Y-31.732
X-15.769 Y-31.695
X-15.629 Y-31.641
X-15.619 Y-31.635
X-15.534 Y-31.57
X-15.473 Y-31.481
X-15.442 Y-31.379
X-15.433 Y-31.318
X-15.422 Y-31.249
X-15.355 Y-30.922
X-15.347 Y-30.892
X-15.345 Y-30.85
X-15.354 Y-30.809
X-15.374 Y-30.772
X-15.403 Y-30.742
X-15.439 Y-30.722
X-15.48 Y-30.712
X-16.012 Y-30.661
X-16.795 Y-30.586
X-17.247 Y-30.543 F400
G3 X-17.391 Y-30.769 I-0.014 J-0.149
G1 X-17.306 Y-30.9 F600
X-17.294 Y-30.922
X-17.253 Y-31.021
X-17.106 Y-31.417
X-17.075 Y-31.516
X-17.07 Y-31.546
X-17.038 Y-31.693
X-16.976 Y-31.829
X-16.884 Y-31.948
X-16.771 Y-32.046
X-16.643 Y-32.125
X-16.505 Y-32.184
X-16.36 Y-32.224
X-16.212 Y-32.248
X-16.062 Y-32.256
X-15.913 Y-32.25
X-15.764 Y-32.227
X-15.62 Y-32.187
X-15.589 Y-32.173
X-15.461 Y-32.076
X-15.39 Y-31.934
Y-31.774
X-15.426 Y-31.616
X-15.446 Y-31.516
X-15.447 Y-31.417
X-15.442 Y-31.379
X-15.444 Y-31.334
X-15.459 Y-31.292
X-15.486 Y-31.256
X-15.522 Y-31.23
X-15.565 Y-31.215
X-15.609 Y-31.214
X-16.121 Y-31.277
X-16.395 Y-31.311
X-16.94 Y-31.378 F400
X-16.985 Y-31.391
X-17.024 Y-31.418
X-17.053 Y-31.455
X-17.069 Y-31.499
X-17.07 Y-31.546
X-17.059 Y-31.616 F600
X-17.055 Y-31.665
X-17.054 Y-31.715
X-17.074 Y-31.913
X-17.083 Y-32.063
X-17.029 Y-32.203
X-16.995 Y-32.307
X-16.98 Y-32.525
X-17.092 Y-32.948
X-17.31 Y-33.327
X-17.368 Y-33.42
X-17.449 Y-33.554
X-17.543 Y-33.744
X-17.657 Y-34.032
X-17.701 Y-34.176
X-17.728 Y-34.323
X-17.746 Y-34.511
X-17.749 Y-34.733
X-17.74 Y-34.883
X-17.711 Y-35.03
X-17.661 Y-35.202
X-17.589 Y-35.391
X-17.524 Y-35.527
X-17.443 Y-35.652
X-17.335 Y-35.789
X-17.199 Y-35.935
X-17.088 Y-36.037
X-16.965 Y-36.122
X-16.815 Y-36.207
X-16.633 Y-36.291
X-16.492 Y-36.343
X-16.346 Y-36.375
X-16.177 Y-36.396
X-15.975 Y-36.404
X-15.825 Y-36.399
X-15.677 Y-36.373
X-15.513 Y-36.328
X-15.323 Y-36.258
X-15.186 Y-36.195
X-15.06 Y-36.115
X-14.926 Y-36.011
X-14.776 Y-35.873
X-14.674 Y-35.763
X-14.587 Y-35.641
X-14.504 Y-35.493
X-14.417 Y-35.308
X-14.365 Y-35.168
X-14.332 Y-35.021
X-14.311 Y-34.853
X-14.302 Y-34.649
X-14.308 Y-34.499
X-14.334 Y-34.352
X-14.378 Y-34.188
X-14.448 Y-33.996
X-14.511 Y-33.86
X-14.591 Y-33.733
X-14.695 Y-33.599
X-14.843 Y-33.438
X-14.897 Y-33.343
X-14.947 Y-33.13
X-14.94 Y-32.766
X-14.949 Y-32.68
X-14.979 Y-32.599
X-15.028 Y-32.528
X-15.124 Y-32.416
X-15.208 Y-32.31
X-15.224 Y-32.287
X-15.263 Y-32.211
X-15.298 Y-32.111
X-15.368 Y-31.859
X-15.38 Y-31.814
X-15.39 Y-31.774
X-15.406 Y-31.736
X-15.432 Y-31.703
X-15.466 Y-31.679
X-15.506 Y-31.666
X-15.548 Y-31.663
X-16.121 Y-31.714
X-16.356 Y-31.734
X-16.938 Y-31.785 F400
X-16.977 Y-31.794
X-17.013 Y-31.813
X-17.042 Y-31.84
X-17.063 Y-31.875
X-17.074 Y-31.913
X-17.095 Y-32.111 F600
X-17.108 Y-32.214
X-17.125 Y-32.31
X-17.151 Y-32.409
X-17.173 Y-32.459
X-17.2 Y-32.508
X-17.306 Y-32.682
X-17.386 Y-32.806
X-17.604 Y-33.124
X-17.901 Y-33.534
X-18.02 Y-33.698
X-18.032 Y-33.723
X-18.041 Y-33.748
X-18.167 Y-34.194
X-18.183 Y-34.248
X-18.216 Y-34.395
X-18.233 Y-34.519
X-18.235 Y-34.543
X-18.236 Y-34.567
X-18.235 Y-34.591
G3 X-17.955 Y-34.648 I0.149 J0.016
G1 X-17.944 Y-34.624 F400
X-17.937 Y-34.599
X-17.892 Y-34.318
G3 X-18.183 Y-34.248 I-0.148 J0.024
G1 X-18.237 Y-34.442 F600
X-18.241 Y-34.467
X-18.242 Y-34.491
X-18.212 Y-34.888
X-18.205 Y-34.987
X-18.202 Y-35.03
X-18.183 Y-35.179
X-18.154 Y-35.298
X-18.148 Y-35.32
X-18.141 Y-35.341
X-18.133 Y-35.361
G3 X-17.852 Y-35.326 I0.134 J0.067
G1 X-17.848 Y-35.296 F400
X-17.851 Y-35.265
X-17.905 Y-34.995
G3 X-18.202 Y-35.03 I-0.147 J-0.029
G1 X-18.19 Y-35.186 F600
X-18.185 Y-35.235
X-18.178 Y-35.26
X-18.167 Y-35.285
X-18.001 Y-35.652
X-17.987 Y-35.681
X-17.962 Y-35.736
X-17.894 Y-35.869
X-17.803 Y-36.008
X-17.778 Y-36.04
X-17.759 Y-36.061
G3 X-17.52 Y-35.889 I0.103 J0.109
G1 X-17.528 Y-35.874 F400
X-17.696 Y-35.6
G3 X-17.962 Y-35.736 I-0.128 J-0.078
G1 X-17.874 Y-35.929 F600
X-17.859 Y-35.954
X-17.84 Y-35.979
X-17.548 Y-36.276
X-17.393 Y-36.419
X-17.281 Y-36.52
X-17.162 Y-36.611
X-17.035 Y-36.691
X-16.903 Y-36.761
X-16.765 Y-36.82
X-16.623 Y-36.868
X-16.478 Y-36.907
X-16.331 Y-36.936
X-16.182 Y-36.954
X-16.032 Y-36.962
X-15.882 Y-36.959
X-15.733 Y-36.945
X-15.584 Y-36.922
X-15.438 Y-36.891
X-15.294 Y-36.848
X-15.153 Y-36.796
X-15.016 Y-36.735
X-14.884 Y-36.664
X-14.756 Y-36.585
X-14.634 Y-36.499
X-14.59 Y-36.464
X-14.565 Y-36.441
X-14.542 Y-36.417
X-14.522 Y-36.39
X-14.43 Y-36.256
X-14.229 Y-35.979
X-14.158 Y-35.88
X-14.133 Y-35.845
X-14.051 Y-35.719
X-13.979 Y-35.575
X-13.967 Y-35.54
G3 X-14.211 Y-35.391 I-0.146 J0.036
G1 X-14.229 Y-35.41 F400
X-14.244 Y-35.432
X-14.382 Y-35.68
G3 X-14.133 Y-35.845 I0.131 J-0.073
G1 X-14.014 Y-35.681 F600
X-14.002 Y-35.657
X-13.993 Y-35.632
X-13.895 Y-35.285
X-13.867 Y-35.186
X-13.851 Y-35.131
X-13.818 Y-34.985
X-13.8 Y-34.825
Y-34.79
Y-34.778
G3 X-14.085 Y-34.73 I-0.149 J-0.016
G1 X-14.098 Y-34.772 F400
X-14.142 Y-35.062
G3 X-13.851 Y-35.131 I0.148 J-0.023
G1 X-13.797 Y-34.938 F600
X-13.793 Y-34.913
X-13.792 Y-34.888
X-13.822 Y-34.491
X-13.829 Y-34.392
X-13.832 Y-34.35
X-13.851 Y-34.201
X-13.882 Y-34.075
X-13.888 Y-34.054
X-13.895 Y-34.034
X-13.903 Y-34.014
G3 X-14.185 Y-34.054 I-0.134 J-0.067
G1 X-14.188 Y-34.082 F400
X-14.185 Y-34.11
X-14.129 Y-34.386
G3 X-13.832 Y-34.35 I0.147 J0.03
G1 X-13.844 Y-34.194 F600
X-13.849 Y-34.144
X-13.856 Y-34.12
X-13.867 Y-34.095
X-14.16 Y-33.45
X-14.175 Y-33.425
X-14.194 Y-33.401
X-14.779 Y-32.806
X-14.827 Y-32.755
X-15.028 Y-32.528
X-15.064 Y-32.501
X-15.106 Y-32.485
X-15.151 Y-32.482
X-15.194 Y-32.493
X-15.233 Y-32.516
X-15.263 Y-32.55
X-15.543 Y-32.981
X-17.243 Y-35.6
X-17.563 Y-36.093 F400
X-17.58 Y-36.129
X-17.587 Y-36.168
X-17.584 Y-36.207
X-17.57 Y-36.244
X-17.548 Y-36.276
X-17.255 Y-36.574 F600
X-17.207 Y-36.624
X-16.988 Y-36.871
X-16.904 Y-36.97
X-16.826 Y-37.07
X-16.81 Y-37.093
X-16.771 Y-37.169
X-16.736 Y-37.268
X-16.681 Y-37.466
X-16.654 Y-37.565
X-16.608 Y-37.764
X-16.588 Y-37.863
X-16.587 Y-37.962
X-16.601 Y-38.061
X-16.612 Y-38.13
X-16.679 Y-38.458
X-16.687 Y-38.488
X-16.689 Y-38.53
X-16.68 Y-38.57
X-16.66 Y-38.607
X-16.631 Y-38.637
X-16.595 Y-38.657
X-16.554 Y-38.667
X-16.023 Y-38.718
X-15.239 Y-38.793
X-14.787 Y-38.837 F400
G3 X-14.643 Y-38.611 I0.014 J0.149
G1 X-14.728 Y-38.48 F600
X-14.74 Y-38.458
X-14.781 Y-38.359
X-14.928 Y-37.962
X-14.959 Y-37.863
X-14.975 Y-37.764
X-14.979 Y-37.714
X-14.98 Y-37.665
X-14.96 Y-37.466
X-14.939 Y-37.268
X-14.926 Y-37.165
X-14.909 Y-37.07
X-14.883 Y-36.97
X-14.861 Y-36.921
X-14.834 Y-36.871
X-14.728 Y-36.697
X-14.648 Y-36.574
X-14.522 Y-36.39
G3 X-14.648 Y-36.159 I-0.127 J0.08
G1 X-14.649
G3 X-14.778 Y-36.385 I0 J-0.15
G1 X-14.748 Y-36.41 Z-1.594
X-14.72 Y-36.432 Z-1.579
X-14.696 Y-36.452 Z-1.554
X-14.674 Y-36.456 Z-1.524
X-14.66 Y-36.458 Z-1.488
X-14.655 Y-36.459 Z-1.45
Z5
X-16.756 Y-29.373
Z-1.7
Z-1.85 F400
X-16.758 Y-29.38 Z-1.896
X-16.763 Y-29.4 Z-1.938
X-16.772 Y-29.432 Z-1.971
X-16.782 Y-29.473 Z-1.993
X-16.793 Y-29.518 Z-2
G3 X-17.017 Y-31.073 I7.063 J-1.809
G1 Y-31.223 F600
X-16.982 Y-31.369
X-16.903 Y-31.496
X-16.791 Y-31.596
X-16.66 Y-31.668
X-16.519 Y-31.72
X-16.374 Y-31.758
X-16.224 Y-31.769
X-16.075 Y-31.759
X-15.914 Y-31.732
X-15.769 Y-31.695
X-15.629 Y-31.641
X-15.619 Y-31.635
X-15.534 Y-31.57
X-15.473 Y-31.481
X-15.442 Y-31.379
X-15.433 Y-31.318
X-15.422 Y-31.249
X-15.355 Y-30.922
X-15.347 Y-30.892
X-15.345 Y-30.85
X-15.354 Y-30.809
X-15.374 Y-30.772
X-15.403 Y-30.742
X-15.439 Y-30.722
X-15.48 Y-30.712
X-16.012 Y-30.661
X-16.795 Y-30.586
X-17.247 Y-30.543 F400
G3 X-17.391 Y-30.769 I-0.014 J-0.149
G1 X-17.306 Y-30.9 F600
X-17.294 Y-30.922
X-17.253 Y-31.021
X-17.106 Y-31.417
X-17.075 Y-31.516
X-17.07 Y-31.546
X-17.038 Y-31.693
X-16.976 Y-31.829
X-16.884 Y-31.948
X-16.771 Y-32.046
X-16.643 Y-32.125
X-16.505 Y-32.184
X-16.36 Y-32.224
X-16.212 Y-32.248
X-16.062 Y-32.256
X-15.913 Y-32.25
X-15.764 Y-32.227
X-15.62 Y-32.187
X-15.589 Y-32.173
X-15.461 Y-32.076
X-15.39 Y-31.934
Y-31.774
X-15.426 Y-31.616
X-15.446 Y-31.516
X-15.447 Y-31.417
X-15.442 Y-31.379
X-15.444 Y-31.334
X-15.459 Y-31.292
X-15.486 Y-31.256
X-15.522 Y-31.23
X-15.565 Y-31.215
X-15.609 Y-31.214
X-16.121 Y-31.277
X-16.395 Y-31.311
X-16.94 Y-31.378 F400
X-16.985 Y-31.391
X-17.024 Y-31.418
X-17.053 Y-31.455
X-17.069 Y-31.499
X-17.07 Y-31.546
X-17.059 Y-31.616 F600
X-17.055 Y-31.665
X-17.054 Y-31.715
X-17.074 Y-31.913
X-17.083 Y-32.063
X-17.029 Y-32.203
X-16.995 Y-32.307
X-16.98 Y-32.525
X-17.092 Y-32.948
X-17.31 Y-33.327
X-17.368 Y-33.42
X-17.449 Y-33.554
X-17.543 Y-33.744
X-17.657 Y-34.032
X-17.701 Y-34.176
X-17.728 Y-34.323
X-17.746 Y-34.511
X-17.749 Y-34.733
X-17.74 Y-34.883
X-17.711 Y-35.03
X-17.661 Y-35.202
X-17.589 Y-35.391
X-17.524 Y-35.527
X-17.443 Y-35.652
X-17.335 Y-35.789
X-17.199 Y-35.935
X-17.088 Y-36.037
X-16.965 Y-36.122
X-16.815 Y-36.207
X-16.633 Y-36.291
X-16.492 Y-36.343
X-16.346 Y-36.375
X-16.177 Y-36.396
X-15.975 Y-36.404
X-15.825 Y-36.399
X-15.677 Y-36.373
X-15.513 Y-36.328
X-15.323 Y-36.258
X-15.186 Y-36.195
X-15.06 Y-36.115
X-14.926 Y-36.011
X-14.776 Y-35.873
X-14.674 Y-35.763
X-14.587 Y-35.641
X-14.504 Y-35.493
X-14.417 Y-35.308
X-14.365 Y-35.168
X-14.332 Y-35.021
X-14.311 Y-34.853
X-14.302 Y-34.649
X-14.308 Y-34.499
X-14.334 Y-34.352
X-14.378 Y-34.188
X-14.448 Y-33.996
X-14.511 Y-33.86
X-14.591 Y-33.733
X-14.695 Y-33.599
X-14.843 Y-33.438
X-14.897 Y-33.343
X-14.947 Y-33.13
X-14.94 Y-32.766
X-14.949 Y-32.68
X-14.979 Y-32.599
X-15.028 Y-32.528
X-15.124 Y-32.416
X-15.208 Y-32.31
X-15.224 Y-32.287
X-15.263 Y-32.211
X-15.298 Y-32.111
X-15.368 Y-31.859
X-15.38 Y-31.814
X-15.39 Y-31.774
X-15.406 Y-31.736
X-15.432 Y-31.703
X-15.466 Y-31.679
X-15.506 Y-31.666
X-15.548 Y-31.663
X-16.121 Y-31.714
X-16.356 Y-31.734
X-16.938 Y-31.785 F400
X-16.977 Y-31.794
X-17.013 Y-31.813
X-17.042 Y-31.84
X-17.063 Y-31.875
X-17.074 Y-31.913
X-17.095 Y-32.111 F600
X-17.108 Y-32.214
X-17.125 Y-32.31
X-17.151 Y-32.409
X-17.173 Y-32.459
X-17.2 Y-32.508
X-17.306 Y-32.682
X-17.386 Y-32.806
X-17.604 Y-33.124
X-17.901 Y-33.534
X-18.02 Y-33.698
X-18.032 Y-33.723
X-18.041 Y-33.748
X-18.167 Y-34.194
X-18.183 Y-34.248
X-18.216 Y-34.395
X-18.233 Y-34.519
X-18.235 Y-34.543
X-18.236 Y-34.567
X-18.235 Y-34.591
G3 X-17.955 Y-34.648 I0.149 J0.016
G1 X-17.944 Y-34.624 F400
X-17.937 Y-34.599
X-17.892 Y-34.318
G3 X-18.183 Y-34.248 I-0.148 J0.024
G1 X-18.237 Y-34.442 F600
X-18.241 Y-34.467
X-18.242 Y-34.491
X-18.212 Y-34.888
X-18.205 Y-34.987
X-18.202 Y-35.03
X-18.183 Y-35.179
X-18.154 Y-35.298
X-18.148 Y-35.32
X-18.141 Y-35.341
X-18.133 Y-35.361
G3 X-17.852 Y-35.326 I0.134 J0.067
G1 X-17.848 Y-35.296 F400
X-17.851 Y-35.265
X-17.905 Y-34.995
G3 X-18.202 Y-35.03 I-0.147 J-0.029
G1 X-18.19 Y-35.186 F600
X-18.185 Y-35.235
X-18.178 Y-35.26
X-18.167 Y-35.285
X-18.001 Y-35.652
X-17.987 Y-35.681
X-17.962 Y-35.736
X-17.894 Y-35.869
X-17.803 Y-36.008
X-17.778 Y-36.04
X-17.759 Y-36.061
G3 X-17.52 Y-35.889 I0.103 J0.109
G1 X-17.528 Y-35.874 F400
X-17.696 Y-35.6
G3 X-17.962 Y-35.736 I-0.128 J-0.078
G1 X-17.874 Y-35.929 F600
X-17.859 Y-35.954
X-17.84 Y-35.979
X-17.548 Y-36.276
X-17.393 Y-36.419
X-17.281 Y-36.52
X-17.162 Y-36.611
X-17.035 Y-36.691
X-16.903 Y-36.761
X-16.765 Y-36.82
X-16.623 Y-36.868
X-16.478 Y-36.907
X-16.331 Y-36.936
X-16.182 Y-36.954
X-16.032 Y-36.962
X-15.882 Y-36.959
X-15.733 Y-36.945
X-15.584 Y-36.922
X-15.438 Y-36.891
X-15.294 Y-36.848
X-15.153 Y-36.796
X-15.016 Y-36.735
X-14.884 Y-36.664
X-14.756 Y-36.585
X-14.634 Y-36.499
X-14.59 Y-36.464
X-14.565 Y-36.441
X-14.542 Y-36.417
X-14.522 Y-36.39
X-14.43 Y-36.256
X-14.229 Y-35.979
X-14.158 Y-35.88
X-14.133 Y-35.845
X-14.051 Y-35.719
X-13.979 Y-35.575
X-13.967 Y-35.54
G3 X-14.211 Y-35.391 I-0.146 J0.036
G1 X-14.229 Y-35.41 F400
X-14.244 Y-35.432
X-14.382 Y-35.68
G3 X-14.133 Y-35.845 I0.131 J-0.073
G1 X-14.014 Y-35.681 F600
X-14.002 Y-35.657
X-13.993 Y-35.632
X-13.895 Y-35.285
X-13.867 Y-35.186
X-13.851 Y-35.131
X-13.818 Y-34.985
X-13.8 Y-34.825
Y-34.79
Y-34.778
G3 X-14.085 Y-34.73 I-0.149 J-0.016
G1 X-14.098 Y-34.772 F400
X-14.142 Y-35.062
G3 X-13.851 Y-35.131 I0.148 J-0.023
G1 X-13.797 Y-34.938 F600
X-13.793 Y-34.913
X-13.792 Y-34.888
X-13.822 Y-34.491
X-13.829 Y-34.392
X-13.832 Y-34.35
X-13.851 Y-34.201
X-13.882 Y-34.075
X-13.888 Y-34.054
X-13.895 Y-34.034
X-13.903 Y-34.014
G3 X-14.185 Y-34.054 I-0.134 J-0.067
G1 X-14.188 Y-34.082 F400
X-14.185 Y-34.11
X-14.129 Y-34.386
G3 X-13.832 Y-34.35 I0.147 J0.03
G1 X-13.844 Y-34.194 F600
X-13.849 Y-34.144
X-13.856 Y-34.12
X-13.867 Y-34.095
X-14.16 Y-33.45
X-14.175 Y-33.425
X-14.194 Y-33.401
X-14.779 Y-32.806
X-14.827 Y-32.755
X-15.028 Y-32.528
X-15.064 Y-32.501
X-15.106 Y-32.485
X-15.151 Y-32.482
X-15.194 Y-32.493
X-15.233 Y-32.516
X-15.263 Y-32.55
X-15.543 Y-32.981
X-17.243 Y-35.6
X-17.563 Y-36.093 F400
X-17.58 Y-36.129
X-17.587 Y-36.168
X-17.584 Y-36.207
X-17.57 Y-36.244
X-17.548 Y-36.276
X-17.255 Y-36.574 F600
X-17.207 Y-36.624
X-16.988 Y-36.871
X-16.904 Y-36.97
X-16.826 Y-37.07
X-16.81 Y-37.093
X-16.771 Y-37.169
X-16.736 Y-37.268
X-16.681 Y-37.466
X-16.654 Y-37.565
X-16.608 Y-37.764
X-16.588 Y-37.863
X-16.587 Y-37.962
X-16.601 Y-38.061
X-16.612 Y-38.13
X-16.679 Y-38.458
X-16.687 Y-38.488
X-16.689 Y-38.53
X-16.68 Y-38.57
X-16.66 Y-38.607
X-16.631 Y-38.637
X-16.595 Y-38.657
X-16.554 Y-38.667
X-16.023 Y-38.718
X-15.239 Y-38.793
X-14.787 Y-38.837 F400
G3 X-14.643 Y-38.611 I0.014 J0.149
G1 X-14.728 Y-38.48 F600
X-14.74 Y-38.458
X-14.781 Y-38.359
X-14.928 Y-37.962
X-14.959 Y-37.863
X-14.975 Y-37.764
X-14.979 Y-37.714
X-14.98 Y-37.665
X-14.96 Y-37.466
X-14.939 Y-37.268
X-14.926 Y-37.165
X-14.909 Y-37.07
X-14.883 Y-36.97
X-14.861 Y-36.921
X-14.834 Y-36.871
X-14.728 Y-36.697
X-14.648 Y-36.574
X-14.522 Y-36.39
G3 X-14.648 Y-36.159 I-0.127 J0.08
G1 X-14.649
G3 X-14.655 Y-36.459 I0 J-0.15
G1 Z15
X-62.58 Y-14.585
Z5
Z-0.1
Z-0.25 F400
X-62.582 Y-14.592 Z-0.296
X-62.587 Y-14.612 Z-0.338
X-62.595 Y-14.644 Z-0.371
X-62.606 Y-14.685 Z-0.393
X-62.617 Y-14.73 Z-0.4
G3 X-62.841 Y-16.285 I7.063 J-1.809
G1 Y-16.36 F600
X-62.805 Y-16.426
X-62.702 Y-16.534
X-62.559 Y-16.581
X-62.41 Y-16.593
X-62.26 Y-16.584
X-62.195 Y-16.566
X-62.076 Y-16.507
X-61.987 Y-16.409
X-61.942 Y-16.284
X-61.937 Y-16.257
X-61.87 Y-15.929
X-61.863 Y-15.899
X-61.86 Y-15.857
X-61.869 Y-15.816
X-61.889 Y-15.779
X-61.918 Y-15.75
X-61.955 Y-15.729
X-61.995 Y-15.719
X-62.527 Y-15.668
X-63.31 Y-15.593
X-63.763 Y-15.55 F400
G3 X-63.906 Y-15.776 I-0.014 J-0.149
G1 X-63.822 Y-15.907 F600
X-63.81 Y-15.929
X-63.769 Y-16.028
X-63.694 Y-16.226
X-63.635 Y-16.364
X-63.547 Y-16.485
X-63.425 Y-16.618
X-63.315 Y-16.72
X-63.196 Y-16.811
X-63.068 Y-16.89
X-62.933 Y-16.954
X-62.791 Y-17.004
X-62.645 Y-17.038
X-62.496 Y-17.055
X-62.346 Y-17.051
X-62.198 Y-17.027
X-62.174 Y-17.02
X-62.064 Y-16.959
X-61.982 Y-16.863
X-61.94 Y-16.744
X-61.942 Y-16.618
X-61.956 Y-16.583
X-61.978 Y-16.551
X-62.007 Y-16.527
X-62.042 Y-16.511
X-62.643 Y-16.316
X-63.073 Y-16.176
X-63.506 Y-16.036 F400
G3 X-63.694 Y-16.226 I-0.046 J-0.143
G1 X-63.621 Y-16.424 F600
X-63.59 Y-16.524
X-63.574 Y-16.623
X-63.57 Y-16.672
X-63.56 Y-16.822
X-63.501 Y-16.96
X-63.416 Y-17.084
X-63.313 Y-17.192
X-63.277 Y-17.296
X-63.275 Y-17.405
X-63.337 Y-17.615
X-63.542 Y-18.001
X-63.8 Y-18.355
X-63.862 Y-18.445
X-63.944 Y-18.57
X-64.032 Y-18.734
X-64.137 Y-18.975
X-64.186 Y-19.118
X-64.223 Y-19.263
X-64.246 Y-19.419
X-64.26 Y-19.63
X-64.258 Y-19.781
X-64.243 Y-19.93
X-64.212 Y-20.077
X-64.156 Y-20.257
X-64.093 Y-20.416
X-64.027 Y-20.55
X-63.944 Y-20.675
X-63.832 Y-20.815
X-63.705 Y-20.949
X-63.594 Y-21.049
X-63.47 Y-21.134
X-63.318 Y-21.219
X-63.143 Y-21.299
X-63.002 Y-21.35
X-62.856 Y-21.382
X-62.685 Y-21.403
X-62.487 Y-21.411
X-62.337 Y-21.405
X-62.19 Y-21.379
X-62.025 Y-21.333
X-61.837 Y-21.264
X-61.701 Y-21.202
X-61.574 Y-21.121
X-61.44 Y-21.017
X-61.291 Y-20.88
X-61.189 Y-20.77
X-61.102 Y-20.647
X-61.019 Y-20.499
X-60.933 Y-20.315
X-60.88 Y-20.174
X-60.848 Y-20.028
X-60.827 Y-19.86
X-60.818 Y-19.656
X-60.823 Y-19.506
X-60.849 Y-19.358
X-60.894 Y-19.195
X-60.964 Y-19.003
X-61.026 Y-18.867
X-61.106 Y-18.74
X-61.21 Y-18.606
X-61.348 Y-18.456
X-61.458 Y-18.354
X-61.581 Y-18.267
X-61.636 Y-18.173
X-61.659 Y-18.066
X-61.614 Y-17.631
X-61.617 Y-17.532
X-61.645 Y-17.437
X-61.695 Y-17.352
X-61.723 Y-17.317
X-61.739 Y-17.294
X-61.779 Y-17.218
X-61.813 Y-17.119
X-61.869 Y-16.92
X-61.896 Y-16.821
X-61.942 Y-16.618
X-61.957 Y-16.581
X-61.981 Y-16.548
X-62.013 Y-16.523
X-62.05 Y-16.508
X-62.091 Y-16.503
X-62.673 Y-16.513
X-62.867 Y-16.516
X-63.423 Y-16.526 F400
X-63.468 Y-16.533
X-63.509 Y-16.554
X-63.541 Y-16.587
X-63.562 Y-16.627
X-63.57 Y-16.672
Y-16.722 F600
X-63.589 Y-16.92
X-63.611 Y-17.119
X-63.623 Y-17.222
X-63.64 Y-17.317
X-63.667 Y-17.416
X-63.688 Y-17.466
X-63.715 Y-17.515
X-63.822 Y-17.69
X-63.902 Y-17.813
X-64.119 Y-18.131
X-64.392 Y-18.507
X-64.535 Y-18.705
X-64.547 Y-18.73
X-64.556 Y-18.755
X-64.683 Y-19.201
X-64.698 Y-19.256
X-64.732 Y-19.402
X-64.748 Y-19.533
X-64.75 Y-19.556
X-64.751 Y-19.579
X-64.75 Y-19.602
G3 X-64.468 Y-19.656 I0.149 J0.016
G1 X-64.458 Y-19.633 F400
X-64.452 Y-19.609
X-64.407 Y-19.325
G3 X-64.698 Y-19.256 I-0.148 J0.024
G1 X-64.752 Y-19.449 F600
X-64.757 Y-19.474
Y-19.498
X-64.728 Y-19.895
X-64.72 Y-19.994
X-64.717 Y-20.036
X-64.698 Y-20.185
X-64.668 Y-20.309
X-64.662 Y-20.33
X-64.655 Y-20.351
X-64.647 Y-20.371
G3 X-64.365 Y-20.333 I0.134 J0.067
G1 X-64.362 Y-20.304 F400
X-64.365 Y-20.275
X-64.42 Y-20.001
G3 X-64.717 Y-20.036 I-0.147 J-0.029
G1 X-64.705 Y-20.193 F600
X-64.7 Y-20.242
X-64.693 Y-20.267
X-64.683 Y-20.292
X-64.516 Y-20.659
X-64.503 Y-20.688
X-64.478 Y-20.743
X-64.409 Y-20.876
X-64.316 Y-21.018
X-64.291 Y-21.05
X-64.272 Y-21.071
G3 X-64.035 Y-20.895 I0.103 J0.109
G1 X-64.041 Y-20.883 F400
X-64.211 Y-20.607
G3 X-64.478 Y-20.743 I-0.128 J-0.079
G1 X-64.39 Y-20.936 F600
X-64.374 Y-20.961
X-64.356 Y-20.986
X-64.063 Y-21.283
X-63.91 Y-21.424
X-63.799 Y-21.525
X-63.68 Y-21.616
X-63.553 Y-21.696
X-63.42 Y-21.766
X-63.282 Y-21.825
X-63.14 Y-21.874
X-62.996 Y-21.913
X-62.848 Y-21.942
X-62.7 Y-21.961
X-62.55 Y-21.968
X-62.4 Y-21.965
X-62.25 Y-21.952
X-62.102 Y-21.929
X-61.955 Y-21.898
X-61.811 Y-21.856
X-61.671 Y-21.804
X-61.534 Y-21.742
X-61.402 Y-21.672
X-61.274 Y-21.593
X-61.151 Y-21.507
X-61.105 Y-21.47
X-61.08 Y-21.448
X-61.057 Y-21.423
X-61.037 Y-21.396
X-60.946 Y-21.263
X-60.747 Y-20.989
X-60.745 Y-20.986
X-60.673 Y-20.887
X-60.591 Y-20.761
X-60.519 Y-20.626
X-60.481 Y-20.537
X-60.471 Y-20.508
G3 X-60.749 Y-20.401 I-0.146 J0.036
G1 X-60.762 Y-20.425
X-60.923 Y-20.723 F400
G3 X-60.673 Y-20.887 I0.132 J-0.071
G1 X-60.53 Y-20.688 F600
X-60.518 Y-20.664
X-60.509 Y-20.639
X-60.41 Y-20.292
X-60.382 Y-20.193
X-60.367 Y-20.138
X-60.333 Y-19.992
X-60.315 Y-19.832
Y-19.798
X-60.316 Y-19.785
G3 X-60.6 Y-19.737 I-0.149 J-0.016
G1 X-60.613 Y-19.779 F400
X-60.658 Y-20.069
G3 X-60.367 Y-20.138 I0.148 J-0.023
G1 X-60.312 Y-19.945 F600
X-60.308 Y-19.92
X-60.307 Y-19.895
X-60.337 Y-19.498
X-60.345 Y-19.399
X-60.348 Y-19.357
X-60.367 Y-19.208
X-60.398 Y-19.082
X-60.404 Y-19.061
X-60.411 Y-19.041
X-60.419 Y-19.021
G3 X-60.701 Y-19.061 I-0.134 J-0.067
G1 X-60.703 Y-19.089 F400
X-60.7 Y-19.117
X-60.645 Y-19.393
G3 X-60.348 Y-19.357 I0.147 J0.03
G1 X-60.36 Y-19.201 F600
X-60.365 Y-19.151
X-60.372 Y-19.127
X-60.382 Y-19.102
X-60.549 Y-18.735
X-60.675 Y-18.457
X-60.69 Y-18.432
X-60.709 Y-18.408
X-61.294 Y-17.813
X-61.342 Y-17.762
X-61.561 Y-17.515
X-61.645 Y-17.416
X-61.695 Y-17.352
X-61.732 Y-17.321
X-61.776 Y-17.303
X-61.823 Y-17.3
X-61.87 Y-17.311
X-61.91 Y-17.337
X-61.94 Y-17.374
X-62.188 Y-17.806
X-63.786 Y-20.591
X-64.083 Y-21.107 F400
X-64.099 Y-21.151
X-64.102 Y-21.199
X-64.089 Y-21.244
X-64.063 Y-21.283
X-63.77 Y-21.581 F600
X-63.723 Y-21.631
X-63.504 Y-21.878
X-63.42 Y-21.978
X-63.342 Y-22.077
X-63.326 Y-22.1
X-63.286 Y-22.176
X-63.251 Y-22.275
X-63.196 Y-22.473
X-63.169 Y-22.573
X-63.123 Y-22.771
X-63.103 Y-22.87
X-63.102 Y-22.969
X-63.116 Y-23.068
X-63.127 Y-23.137
X-63.195 Y-23.465
X-63.202 Y-23.495
X-63.205 Y-23.537
X-63.196 Y-23.577
X-63.176 Y-23.614
X-63.146 Y-23.644
X-63.11 Y-23.665
X-63.069 Y-23.674
X-62.538 Y-23.725
X-61.755 Y-23.8
X-61.302 Y-23.844 F400
G3 X-61.159 Y-23.618 I0.014 J0.149
G1 X-61.243 Y-23.487 F600
X-61.255 Y-23.465
X-61.296 Y-23.366
X-61.444 Y-22.969
X-61.474 Y-22.87
X-61.491 Y-22.771
X-61.494 Y-22.721
X-61.495 Y-22.672
X-61.476 Y-22.473
X-61.454 Y-22.275
X-61.441 Y-22.172
X-61.425 Y-22.077
X-61.398 Y-21.978
X-61.377 Y-21.928
X-61.35 Y-21.878
X-61.243 Y-21.704
X-61.163 Y-21.581
X-61.037 Y-21.396
G3 X-61.163 Y-21.166 I-0.127 J0.08
G1 X-61.164
G3 X-61.293 Y-21.392 I0 J-0.15
G1 X-61.263 Y-21.416 Z-0.394
X-61.235 Y-21.439 Z-0.379
X-61.211 Y-21.458 Z-0.354
X-61.189 Y-21.462 Z-0.324
X-61.175 Y-21.465 Z-0.288
X-61.17 Y-21.466 Z-0.25
Z5
X-62.58 Y-14.585
Z-0.5
Z-0.65 F400
X-62.582 Y-14.592 Z-0.696
X-62.587 Y-14.612 Z-0.738
X-62.595 Y-14.644 Z-0.771
X-62.606 Y-14.685 Z-0.793
X-62.617 Y-14.73 Z-0.8
G3 X-62.841 Y-16.285 I7.063 J-1.809
G1 Y-16.36 F600
X-62.805 Y-16.426
X-62.702 Y-16.534
X-62.559 Y-16.581
X-62.41 Y-16.593
X-62.26 Y-16.584
X-62.195 Y-16.566
X-62.076 Y-16.507
X-61.987 Y-16.409
X-61.942 Y-16.284
X-61.937 Y-16.257
X-61.87 Y-15.929
X-61.863 Y-15.899
X-61.86 Y-15.857
X-61.869 Y-15.816
X-61.889 Y-15.779
X-61.918 Y-15.75
X-61.955 Y-15.729
X-61.995 Y-15.719
X-62.527 Y-15.668
X-63.31 Y-15.593
X-63.763 Y-15.55 F400
G3 X-63.906 Y-15.776 I-0.014 J-0.149
G1 X-63.822 Y-15.907 F600
X-63.81 Y-15.929
X-63.769 Y-16.028
X-63.694 Y-16.226
X-63.635 Y-16.364
X-63.547 Y-16.485
X-63.425 Y-16.618
X-63.315 Y-16.72
X-63.196 Y-16.811
X-63.068 Y-16.89
X-62.933 Y-16.954
X-62.791 Y-17.004
X-62.645 Y-17.038
X-62.496 Y-17.055
X-62.346 Y-17.051
X-62.198 Y-17.027
X-62.174 Y-17.02
X-62.064 Y-16.959
X-61.982 Y-16.863
X-61.94 Y-16.744
X-61.942 Y-16.618
X-61.956 Y-16.583
X-61.978 Y-16.551
X-62.007 Y-16.527
X-62.042 Y-16.511
X-62.643 Y-16.316
X-63.073 Y-16.176
X-63.506 Y-16.036 F400
G3 X-63.694 Y-16.226 I-0.046 J-0.143
G1 X-63.621 Y-16.424 F600
X-63.59 Y-16.524
X-63.574 Y-16.623
X-63.57 Y-16.672
X-63.56 Y-16.822
X-63.501 Y-16.96
X-63.416 Y-17.084
X-63.313 Y-17.192
X-63.277 Y-17.296
X-63.275 Y-17.405
X-63.337 Y-17.615
X-63.542 Y-18.001
X-63.8 Y-18.355
X-63.862 Y-18.445
X-63.944 Y-18.57
X-64.032 Y-18.734
X-64.137 Y-18.975
X-64.186 Y-19.118
X-64.223 Y-19.263
X-64.246 Y-19.419
X-64.26 Y-19.63
X-64.258 Y-19.781
X-64.243 Y-19.93
X-64.212 Y-20.077
X-64.156 Y-20.257
X-64.093 Y-20.416
X-64.027 Y-20.55
X-63.944 Y-20.675
X-63.832 Y-20.815
X-63.705 Y-20.949
X-63.594 Y-21.049
X-63.47 Y-21.134
X-63.318 Y-21.219
X-63.143 Y-21.299
X-63.002 Y-21.35
X-62.856 Y-21.382
X-62.685 Y-21.403
X-62.487 Y-21.411
X-62.337 Y-21.405
X-62.19 Y-21.379
X-62.025 Y-21.333
X-61.837 Y-21.264
X-61.701 Y-21.202
X-61.574 Y-21.121
X-61.44 Y-21.017
X-61.291 Y-20.88
X-61.189 Y-20.77
X-61.102 Y-20.647
X-61.019 Y-20.499
X-60.933 Y-20.315
X-60.88 Y-20.174
X-60.848 Y-20.028
X-60.827 Y-19.86
X-60.818 Y-19.656
X-60.823 Y-19.506
X-60.849 Y-19.358
X-60.894 Y-19.195
X-60.964 Y-19.003
X-61.026 Y-18.867
X-61.106 Y-18.74
X-61.21 Y-18.606
X-61.348 Y-18.456
X-61.458 Y-18.354
X-61.581 Y-18.267
X-61.636 Y-18.173
X-61.659 Y-18.066
X-61.614 Y-17.631
X-61.617 Y-17.532
X-61.645 Y-17.437
X-61.695 Y-17.352
X-61.723 Y-17.317
X-61.739 Y-17.294
X-61.779 Y-17.218
X-61.813 Y-17.119
X-61.869 Y-16.92
X-61.896 Y-16.821
X-61.942 Y-16.618
X-61.957 Y-16.581
X-61.981 Y-16.548
X-62.013 Y-16.523
X-62.05 Y-16.508
X-62.091 Y-16.503
X-62.673 Y-16.513
X-62.867 Y-16.516
X-63.423 Y-16.526 F400
X-63.468 Y-16.533
X-63.509 Y-16.554
X-63.541 Y-16.587
X-63.562 Y-16.627
X-63.57 Y-16.672
Y-16.722 F600
X-63.589 Y-16.92
X-63.611 Y-17.119
X-63.623 Y-17.222
X-63.64 Y-17.317
X-63.667 Y-17.416
X-63.688 Y-17.466
X-63.715 Y-17.515
X-63.822 Y-17.69
X-63.902 Y-17.813
X-64.119 Y-18.131
X-64.392 Y-18.507
X-64.535 Y-18.705
X-64.547 Y-18.73
X-64.556 Y-18.755
X-64.683 Y-19.201
X-64.698 Y-19.256
X-64.732 Y-19.402
X-64.748 Y-19.533
X-64.75 Y-19.556
X-64.751 Y-19.579
X-64.75 Y-19.602
G3 X-64.468 Y-19.656 I0.149 J0.016
G1 X-64.458 Y-19.633 F400
X-64.452 Y-19.609
X-64.407 Y-19.325
G3 X-64.698 Y-19.256 I-0.148 J0.024
G1 X-64.752 Y-19.449 F600
X-64.757 Y-19.474
Y-19.498
X-64.728 Y-19.895
X-64.72 Y-19.994
X-64.717 Y-20.036
X-64.698 Y-20.185
X-64.668 Y-20.309
X-64.662 Y-20.33
X-64.655 Y-20.351
X-64.647 Y-20.371
G3 X-64.365 Y-20.333 I0.134 J0.067
G1 X-64.362 Y-20.304 F400
X-64.365 Y-20.275
X-64.42 Y-20.001
G3 X-64.717 Y-20.036 I-0.147 J-0.029
G1 X-64.705 Y-20.193 F600
X-64.7 Y-20.242
X-64.693 Y-20.267
X-64.683 Y-20.292
X-64.516 Y-20.659
X-64.503 Y-20.688
X-64.478 Y-20.743
X-64.409 Y-20.876
X-64.316 Y-21.018
X-64.291 Y-21.05
X-64.272 Y-21.071
G3 X-64.035 Y-20.895 I0.103 J0.109
G1 X-64.041 Y-20.883 F400
X-64.211 Y-20.607
G3 X-64.478 Y-20.743 I-0.128 J-0.079
G1 X-64.39 Y-20.936 F600
X-64.374 Y-20.961
X-64.356 Y-20.986
X-64.063 Y-21.283
X-63.91 Y-21.424
X-63.799 Y-21.525
X-63.68 Y-21.616
X-63.553 Y-21.696
X-63.42 Y-21.766
X-63.282 Y-21.825
X-63.14 Y-21.874
X-62.996 Y-21.913
X-62.848 Y-21.942
X-62.7 Y-21.961
X-62.55 Y-21.968
X-62.4 Y-21.965
X-62.25 Y-21.952
X-62.102 Y-21.929
X-61.955 Y-21.898
X-61.811 Y-21.856
X-61.671 Y-21.804
X-61.534 Y-21.742
X-61.402 Y-21.672
X-61.274 Y-21.593
X-61.151 Y-21.507
X-61.105 Y-21.47
X-61.08 Y-21.448
X-61.057 Y-21.423
X-61.037 Y-21.396
X-60.946 Y-21.263
X-60.747 Y-20.989
X-60.745 Y-20.986
X-60.673 Y-20.887
X-60.591 Y-20.761
X-60.519 Y-20.626
X-60.481 Y-20.537
X-60.471 Y-20.508
G3 X-60.749 Y-20.401 I-0.146 J0.036
G1 X-60.762 Y-20.425
X-60.923 Y-20.723 F400
G3 X-60.673 Y-20.887 I0.132 J-0.071
G1 X-60.53 Y-20.688 F600
X-60.518 Y-20.664
X-60.509 Y-20.639
X-60.41 Y-20.292
X-60.382 Y-20.193
X-60.367 Y-20.138
X-60.333 Y-19.992
X-60.315 Y-19.832
Y-19.798
X-60.316 Y-19.785
G3 X-60.6 Y-19.737 I-0.149 J-0.016
G1 X-60.613 Y-19.779 F400
X-60.658 Y-20.069
G3 X-60.367 Y-20.138 I0.148 J-0.023
G1 X-60.312 Y-19.945 F600
X-60.308 Y-19.92
X-60.307 Y-19.895
X-60.337 Y-19.498
X-60.345 Y-19.399
X-60.348 Y-19.357
X-60.367 Y-19.208
X-60.398 Y-19.082
X-60.404 Y-19.061
X-60.411 Y-19.041
X-60.419 Y-19.021
G3 X-60.701 Y-19.061 I-0.134 J-0.067
G1 X-60.703 Y-19.089 F400
X-60.7 Y-19.117
X-60.645 Y-19.393
G3 X-60.348 Y-19.357 I0.147 J0.03
G1 X-60.36 Y-19.201 F600
X-60.365 Y-19.151
X-60.372 Y-19.127
X-60.382 Y-19.102
X-60.549 Y-18.735
X-60.675 Y-18.457
X-60.69 Y-18.432
X-60.709 Y-18.408
X-61.294 Y-17.813
X-61.342 Y-17.762
X-61.561 Y-17.515
X-61.645 Y-17.416
X-61.695 Y-17.352
X-61.732 Y-17.321
X-61.776 Y-17.303
X-61.823 Y-17.3
X-61.87 Y-17.311
X-61.91 Y-17.337
X-61.94 Y-17.374
X-62.188 Y-17.806
X-63.786 Y-20.591
X-64.083 Y-21.107 F400
X-64.099 Y-21.151
X-64.102 Y-21.199
X-64.089 Y-21.244
X-64.063 Y-21.283
X-63.77 Y-21.581 F600
X-63.723 Y-21.631
X-63.504 Y-21.878
X-63.42 Y-21.978
X-63.342 Y-22.077
X-63.326 Y-22.1
X-63.286 Y-22.176
X-63.251 Y-22.275
X-63.196 Y-22.473
X-63.169 Y-22.573
X-63.123 Y-22.771
X-63.103 Y-22.87
X-63.102 Y-22.969
X-63.116 Y-23.068
X-63.127 Y-23.137
X-63.195 Y-23.465
X-63.202 Y-23.495
X-63.205 Y-23.537
X-63.196 Y-23.577
X-63.176 Y-23.614
X-63.146 Y-23.644
X-63.11 Y-23.665
X-63.069 Y-23.674
X-62.538 Y-23.725
X-61.755 Y-23.8
X-61.302 Y-23.844 F400
G3 X-61.159 Y-23.618 I0.014 J0.149
G1 X-61.243 Y-23.487 F600
X-61.255 Y-23.465
X-61.296 Y-23.366
X-61.444 Y-22.969
X-61.474 Y-22.87
X-61.491 Y-22.771
X-61.494 Y-22.721
X-61.495 Y-22.672
X-61.476 Y-22.473
X-61.454 Y-22.275
X-61.441 Y-22.172
X-61.425 Y-22.077
X-61.398 Y-21.978
X-61.377 Y-21.928
X-61.35 Y-21.878
X-61.243 Y-21.704
X-61.163 Y-21.581
X-61.037 Y-21.396
G3 X-61.163 Y-21.166 I-0.127 J0.08
G1 X-61.164
G3 X-61.293 Y-21.392 I0 J-0.15
G1 X-61.263 Y-21.416 Z-0.794
X-61.235 Y-21.439 Z-0.779
X-61.211 Y-21.458 Z-0.754
X-61.189 Y-21.462 Z-0.724
X-61.175 Y-21.465 Z-0.688
X-61.17 Y-21.466 Z-0.65
Z5
X-62.58 Y-14.585
Z-0.9
Z-1.05 F400
X-62.582 Y-14.592 Z-1.096
X-62.587 Y-14.612 Z-1.138
X-62.595 Y-14.644 Z-1.171
X-62.606 Y-14.685 Z-1.193
X-62.617 Y-14.73 Z-1.2
G3 X-62.841 Y-16.285 I7.063 J-1.809
G1 Y-16.36 F600
X-62.805 Y-16.426
X-62.702 Y-16.534
X-62.559 Y-16.581
X-62.41 Y-16.593
X-62.26 Y-16.584
X-62.195 Y-16.566
X-62.076 Y-16.507
X-61.987 Y-16.409
X-61.942 Y-16.284
X-61.937 Y-16.257
X-61.87 Y-15.929
X-61.863 Y-15.899
X-61.86 Y-15.857
X-61.869 Y-15.816
X-61.889 Y-15.779
X-61.918 Y-15.75
X-61.955 Y-15.729
X-61.995 Y-15.719
X-62.527 Y-15.668
X-63.31 Y-15.593
X-63.763 Y-15.55 F400
G3 X-63.906 Y-15.776 I-0.014 J-0.149
G1 X-63.822 Y-15.907 F600
X-63.81 Y-15.929
X-63.769 Y-16.028
X-63.694 Y-16.226
X-63.635 Y-16.364
X-63.547 Y-16.485
X-63.425 Y-16.618
X-63.315 Y-16.72
X-63.196 Y-16.811
X-63.068 Y-16.89
X-62.933 Y-16.954
X-62.791 Y-17.004
X-62.645 Y-17.038
X-62.496 Y-17.055
X-62.346 Y-17.051
X-62.198 Y-17.027
X-62.174 Y-17.02
X-62.064 Y-16.959
X-61.982 Y-16.863
X-61.94 Y-16.744
X-61.942 Y-16.618
X-61.956 Y-16.583
X-61.978 Y-16.551
X-62.007 Y-16.527
X-62.042 Y-16.511
X-62.643 Y-16.316
X-63.073 Y-16.176
X-63.506 Y-16.036 F400
G3 X-63.694 Y-16.226 I-0.046 J-0.143
G1 X-63.621 Y-16.424 F600
X-63.59 Y-16.524
X-63.574 Y-16.623
X-63.57 Y-16.672
X-63.56 Y-16.822
X-63.501 Y-16.96
X-63.416 Y-17.084
X-63.313 Y-17.192
X-63.277 Y-17.296
X-63.275 Y-17.405
X-63.337 Y-17.615
X-63.542 Y-18.001
X-63.8 Y-18.355
X-63.862 Y-18.445
X-63.944 Y-18.57
X-64.032 Y-18.734
X-64.137 Y-18.975
X-64.186 Y-19.118
X-64.223 Y-19.263
X-64.246 Y-19.419
X-64.26 Y-19.63
X-64.258 Y-19.781
X-64.243 Y-19.93
X-64.212 Y-20.077
X-64.156 Y-20.257
X-64.093 Y-20.416
X-64.027 Y-20.55
X-63.944 Y-20.675
X-63.832 Y-20.815
X-63.705 Y-20.949
X-63.594 Y-21.049
X-63.47 Y-21.134
X-63.318 Y-21.219
X-63.143 Y-21.299
X-63.002 Y-21.35
X-62.856 Y-21.382
X-62.685 Y-21.403
X-62.487 Y-21.411
X-62.337 Y-21.405
X-62.19 Y-21.379
X-62.025 Y-21.333
X-61.837 Y-21.264
X-61.701 Y-21.202
X-61.574 Y-21.121
X-61.44 Y-21.017
X-61.291 Y-20.88
X-61.189 Y-20.77
X-61.102 Y-20.647
X-61.019 Y-20.499
X-60.933 Y-20.315
X-60.88 Y-20.174
X-60.848 Y-20.028
X-60.827 Y-19.86
X-60.818 Y-19.656
X-60.823 Y-19.506
X-60.849 Y-19.358
X-60.894 Y-19.195
X-60.964 Y-19.003
X-61.026 Y-18.867
X-61.106 Y-18.74
X-61.21 Y-18.606
X-61.348 Y-18.456
X-61.458 Y-18.354
X-61.581 Y-18.267
X-61.636 Y-18.173
X-61.659 Y-18.066
X-61.614 Y-17.631
X-61.617 Y-17.532
X-61.645 Y-17.437
X-61.695 Y-17.352
X-61.723 Y-17.317
X-61.739 Y-17.294
X-61.779 Y-17.218
X-61.813 Y-17.119
X-61.869 Y-16.92
X-61.896 Y-16.821
X-61.942 Y-16.618
X-61.957 Y-16.581
X-61.981 Y-16.548
X-62.013 Y-16.523
X-62.05 Y-16.508
X-62.091 Y-16.503
X-62.673 Y-16.513
X-62.867 Y-16.516
X-63.423 Y-16.526 F400
X-63.468 Y-16.533
X-63.509 Y-16.554
X-63.541 Y-16.587
X-63.562 Y-16.627
X-63.57 Y-16.672
Y-16.722 F600
X-63.589 Y-16.92
X-63.611 Y-17.119
X-63.623 Y-17.222
X-63.64 Y-17.317
X-63.667 Y-17.416
X-63.688 Y-17.466
X-63.715 Y-17.515
X-63.822 Y-17.69
X-63.902 Y-17.813
X-64.119 Y-18.131
X-64.392 Y-18.507
X-64.535 Y-18.705
X-64.547 Y-18.73
X-64.556 Y-18.755
X-64.683 Y-19.201
X-64.698 Y-19.256
X-64.732 Y-19.402
X-64.748 Y-19.533
X-64.75 Y-19.556
X-64.751 Y-19.579
X-64.75 Y-19.602
G3 X-64.468 Y-19.656 I0.149 J0.016
G1 X-64.458 Y-19.633 F400
X-64.452 Y-19.609
X-64.407 Y-19.325
G3 X-64.698 Y-19.256 I-0.148 J0.024
G1 X-64.752 Y-19.449 F600
X-64.757 Y-19.474
Y-19.498
X-64.728 Y-19.895
X-64.72 Y-19.994
X-64.717 Y-20.036
X-64.698 Y-20.185
X-64.668 Y-20.309
X-64.662 Y-20.33
X-64.655 Y-20.351
X-64.647 Y-20.371
G3 X-64.365 Y-20.333 I0.134 J0.067
G1 X-64.362 Y-20.304 F400
X-64.365 Y-20.275
X-64.42 Y-20.001
G3 X-64.717 Y-20.036 I-0.147 J-0.029
G1 X-64.705 Y-20.193 F600
X-64.7 Y-20.242
X-64.693 Y-20.267
X-64.683 Y-20.292
X-64.516 Y-20.659
X-64.503 Y-20.688
X-64.478 Y-20.743
X-64.409 Y-20.876
X-64.316 Y-21.018
X-64.291 Y-21.05
X-64.272 Y-21.071
G3 X-64.035 Y-20.895 I0.103 J0.109
G1 X-64.041 Y-20.883 F400
X-64.211 Y-20.607
G3 X-64.478 Y-20.743 I-0.128 J-0.079
G1 X-64.39 Y-20.936 F600
X-64.374 Y-20.961
X-64.356 Y-20.986
X-64.063 Y-21.283
X-63.91 Y-21.424
X-63.799 Y-21.525
X-63.68 Y-21.616
X-63.553 Y-21.696
X-63.42 Y-21.766
X-63.282 Y-21.825
X-63.14 Y-21.874
X-62.996 Y-21.913
X-62.848 Y-21.942
X-62.7 Y-21.961
X-62.55 Y-21.968
X-62.4 Y-21.965
X-62.25 Y-21.952
X-62.102 Y-21.929
X-61.955 Y-21.898
X-61.811 Y-21.856
X-61.671 Y-21.804
X-61.534 Y-21.742
X-61.402 Y-21.672
X-61.274 Y-21.593
X-61.151 Y-21.507
X-61.105 Y-21.47
X-61.08 Y-21.448
X-61.057 Y-21.423
X-61.037 Y-21.396
X-60.946 Y-21.263
X-60.747 Y-20.989
X-60.745 Y-20.986
X-60.673 Y-20.887
X-60.591 Y-20.761
X-60.519 Y-20.626
X-60.481 Y-20.537
X-60.471 Y-20.508
G3 X-60.749 Y-20.401 I-0.146 J0.036
G1 X-60.762 Y-20.425
X-60.923 Y-20.723 F400
G3 X-60.673 Y-20.887 I0.132 J-0.071
G1 X-60.53 Y-20.688 F600
X-60.518 Y-20.664
X-60.509 Y-20.639
X-60.41 Y-20.292
X-60.382 Y-20.193
X-60.367 Y-20.138
X-60.333 Y-19.992
X-60.315 Y-19.832
Y-19.798
X-60.316 Y-19.785
G3 X-60.6 Y-19.737 I-0.149 J-0.016
G1 X-60.613 Y-19.779 F400
X-60.658 Y-20.069
G3 X-60.367 Y-20.138 I0.148 J-0.023
G1 X-60.312 Y-19.945 F600
X-60.308 Y-19.92
X-60.307 Y-19.895
X-60.337 Y-19.498
X-60.345 Y-19.399
X-60.348 Y-19.357
X-60.367 Y-19.208
X-60.398 Y-19.082
X-60.404 Y-19.061
X-60.411 Y-19.041
X-60.419 Y-19.021
G3 X-60.701 Y-19.061 I-0.134 J-0.067
G1 X-60.703 Y-19.089 F400
X-60.7 Y-19.117
X-60.645 Y-19.393
G3 X-60.348 Y-19.357 I0.147 J0.03
G1 X-60.36 Y-19.201 F600
X-60.365 Y-19.151
X-60.372 Y-19.127
X-60.382 Y-19.102
X-60.549 Y-18.735
X-60.675 Y-18.457
X-60.69 Y-18.432
X-60.709 Y-18.408
X-61.294 Y-17.813
X-61.342 Y-17.762
X-61.561 Y-17.515
X-61.645 Y-17.416
X-61.695 Y-17.352
X-61.732 Y-17.321
X-61.776 Y-17.303
X-61.823 Y-17.3
X-61.87 Y-17.311
X-61.91 Y-17.337
X-61.94 Y-17.374
X-62.188 Y-17.806
X-63.786 Y-20.591
X-64.083 Y-21.107 F400
X-64.099 Y-21.151
X-64.102 Y-21.199
X-64.089 Y-21.244
X-64.063 Y-21.283
X-63.77 Y-21.581 F600
X-63.723 Y-21.631
X-63.504 Y-21.878
X-63.42 Y-21.978
X-63.342 Y-22.077
X-63.326 Y-22.1
X-63.286 Y-22.176
X-63.251 Y-22.275
X-63.196 Y-22.473
X-63.169 Y-22.573
X-63.123 Y-22.771
X-63.103 Y-22.87
X-63.102 Y-22.969
X-63.116 Y-23.068
X-63.127 Y-23.137
X-63.195 Y-23.465
X-63.202 Y-23.495
X-63.205 Y-23.537
X-63.196 Y-23.577
X-63.176 Y-23.614
X-63.146 Y-23.644
X-63.11 Y-23.665
X-63.069 Y-23.674
X-62.538 Y-23.725
X-61.755 Y-23.8
X-61.302 Y-23.844 F400
G3 X-61.159 Y-23.618 I0.014 J0.149
G1 X-61.243 Y-23.487 F600
X-61.255 Y-23.465
X-61.296 Y-23.366
X-61.444 Y-22.969
X-61.474 Y-22.87
X-61.491 Y-22.771
X-61.494 Y-22.721
X-61.495 Y-22.672
X-61.476 Y-22.473
X-61.454 Y-22.275
X-61.441 Y-22.172
X-61.425 Y-22.077
X-61.398 Y-21.978
X-61.377 Y-21.928
X-61.35 Y-21.878
X-61.243 Y-21.704
X-61.163 Y-21.581
X-61.037 Y-21.396
G3 X-61.163 Y-21.166 I-0.127 J0.08
G1 X-61.164
G3 X-61.293 Y-21.392 I0 J-0.15
G1 X-61.263 Y-21.416 Z-1.194
X-61.235 Y-21.439 Z-1.179
X-61.211 Y-21.458 Z-1.154
X-61.189 Y-21.462 Z-1.124
X-61.175 Y-21.465 Z-1.088
X-61.17 Y-21.466 Z-1.05
Z5
X-62.58 Y-14.585
Z-1.3
Z-1.45 F400
X-62.582 Y-14.592 Z-1.496
X-62.587 Y-14.612 Z-1.538
X-62.595 Y-14.644 Z-1.571
X-62.606 Y-14.685 Z-1.593
X-62.617 Y-14.73 Z-1.6
G3 X-62.841 Y-16.285 I7.063 J-1.809
G1 Y-16.36 F600
X-62.805 Y-16.426
X-62.702 Y-16.534
X-62.559 Y-16.581
X-62.41 Y-16.593
X-62.26 Y-16.584
X-62.195 Y-16.566
X-62.076 Y-16.507
X-61.987 Y-16.409
X-61.942 Y-16.284
X-61.937 Y-16.257
X-61.87 Y-15.929
X-61.863 Y-15.899
X-61.86 Y-15.857
X-61.869 Y-15.816
X-61.889 Y-15.779
X-61.918 Y-15.75
X-61.955 Y-15.729
X-61.995 Y-15.719
X-62.527 Y-15.668
X-63.31 Y-15.593
X-63.763 Y-15.55 F400
G3 X-63.906 Y-15.776 I-0.014 J-0.149
G1 X-63.822 Y-15.907 F600
X-63.81 Y-15.929
X-63.769 Y-16.028
X-63.694 Y-16.226
X-63.635 Y-16.364
X-63.547 Y-16.485
X-63.425 Y-16.618
X-63.315 Y-16.72
X-63.196 Y-16.811
X-63.068 Y-16.89
X-62.933 Y-16.954
X-62.791 Y-17.004
X-62.645 Y-17.038
X-62.496 Y-17.055
X-62.346 Y-17.051
X-62.198 Y-17.027
X-62.174 Y-17.02
X-62.064 Y-16.959
X-61.982 Y-16.863
X-61.94 Y-16.744
X-61.942 Y-16.618
X-61.956 Y-16.583
X-61.978 Y-16.551
X-62.007 Y-16.527
X-62.042 Y-16.511
X-62.643 Y-16.316
X-63.073 Y-16.176
X-63.506 Y-16.036 F400
G3 X-63.694 Y-16.226 I-0.046 J-0.143
G1 X-63.621 Y-16.424 F600
X-63.59 Y-16.524
X-63.574 Y-16.623
X-63.57 Y-16.672
X-63.56 Y-16.822
X-63.501 Y-16.96
X-63.416 Y-17.084
X-63.313 Y-17.192
X-63.277 Y-17.296
X-63.275 Y-17.405
X-63.337 Y-17.615
X-63.542 Y-18.001
X-63.8 Y-18.355
X-63.862 Y-18.445
X-63.944 Y-18.57
X-64.032 Y-18.734
X-64.137 Y-18.975
X-64.186 Y-19.118
X-64.223 Y-19.263
X-64.246 Y-19.419
X-64.26 Y-19.63
X-64.258 Y-19.781
X-64.243 Y-19.93
X-64.212 Y-20.077
X-64.156 Y-20.257
X-64.093 Y-20.416
X-64.027 Y-20.55
X-63.944 Y-20.675
X-63.832 Y-20.815
X-63.705 Y-20.949
X-63.594 Y-21.049
X-63.47 Y-21.134
X-63.318 Y-21.219
X-63.143 Y-21.299
X-63.002 Y-21.35
X-62.856 Y-21.382
X-62.685 Y-21.403
X-62.487 Y-21.411
X-62.337 Y-21.405
X-62.19 Y-21.379
X-62.025 Y-21.333
X-61.837 Y-21.264
X-61.701 Y-21.202
X-61.574 Y-21.121
X-61.44 Y-21.017
X-61.291 Y-20.88
X-61.189 Y-20.77
X-61.102 Y-20.647
X-61.019 Y-20.499
X-60.933 Y-20.315
X-60.88 Y-20.174
X-60.848 Y-20.028
X-60.827 Y-19.86
X-60.818 Y-19.656
X-60.823 Y-19.506
X-60.849 Y-19.358
X-60.894 Y-19.195
X-60.964 Y-19.003
X-61.026 Y-18.867
X-61.106 Y-18.74
X-61.21 Y-18.606
X-61.348 Y-18.456
X-61.458 Y-18.354
X-61.581 Y-18.267
X-61.636 Y-18.173
X-61.659 Y-18.066
X-61.614 Y-17.631
X-61.617 Y-17.532
X-61.645 Y-17.437
X-61.695 Y-17.352
X-61.723 Y-17.317
X-61.739 Y-17.294
X-61.779 Y-17.218
X-61.813 Y-17.119
X-61.869 Y-16.92
X-61.896 Y-16.821
X-61.942 Y-16.618
X-61.957 Y-16.581
X-61.981 Y-16.548
X-62.013 Y-16.523
X-62.05 Y-16.508
X-62.091 Y-16.503
X-62.673 Y-16.513
X-62.867 Y-16.516
X-63.423 Y-16.526 F400
X-63.468 Y-16.533
X-63.509 Y-16.554
X-63.541 Y-16.587
X-63.562 Y-16.627
X-63.57 Y-16.672
Y-16.722 F600
X-63.589 Y-16.92
X-63.611 Y-17.119
X-63.623 Y-17.222
X-63.64 Y-17.317
X-63.667 Y-17.416
X-63.688 Y-17.466
X-63.715 Y-17.515
X-63.822 Y-17.69
X-63.902 Y-17.813
X-64.119 Y-18.131
X-64.392 Y-18.507
X-64.535 Y-18.705
X-64.547 Y-18.73
X-64.556 Y-18.755
X-64.683 Y-19.201
X-64.698 Y-19.256
X-64.732 Y-19.402
X-64.748 Y-19.533
X-64.75 Y-19.556
X-64.751 Y-19.579
X-64.75 Y-19.602
G3 X-64.468 Y-19.656 I0.149 J0.016
G1 X-64.458 Y-19.633 F400
X-64.452 Y-19.609
X-64.407 Y-19.325
G3 X-64.698 Y-19.256 I-0.148 J0.024
G1 X-64.752 Y-19.449 F600
X-64.757 Y-19.474
Y-19.498
X-64.728 Y-19.895
X-64.72 Y-19.994
X-64.717 Y-20.036
X-64.698 Y-20.185
X-64.668 Y-20.309
X-64.662 Y-20.33
X-64.655 Y-20.351
X-64.647 Y-20.371
G3 X-64.365 Y-20.333 I0.134 J0.067
G1 X-64.362 Y-20.304 F400
X-64.365 Y-20.275
X-64.42 Y-20.001
G3 X-64.717 Y-20.036 I-0.147 J-0.029
G1 X-64.705 Y-20.193 F600
X-64.7 Y-20.242
X-64.693 Y-20.267
X-64.683 Y-20.292
X-64.516 Y-20.659
X-64.503 Y-20.688
X-64.478 Y-20.743
X-64.409 Y-20.876
X-64.316 Y-21.018
X-64.291 Y-21.05
X-64.272 Y-21.071
G3 X-64.035 Y-20.895 I0.103 J0.109
G1 X-64.041 Y-20.883 F400
X-64.211 Y-20.607
G3 X-64.478 Y-20.743 I-0.128 J-0.079
G1 X-64.39 Y-20.936 F600
X-64.374 Y-20.961
X-64.356 Y-20.986
X-64.063 Y-21.283
X-63.91 Y-21.424
X-63.799 Y-21.525
X-63.68 Y-21.616
X-63.553 Y-21.696
X-63.42 Y-21.766
X-63.282 Y-21.825
X-63.14 Y-21.874
X-62.996 Y-21.913
X-62.848 Y-21.942
X-62.7 Y-21.961
X-62.55 Y-21.968
X-62.4 Y-21.965
X-62.25 Y-21.952
X-62.102 Y-21.929
X-61.955 Y-21.898
X-61.811 Y-21.856
X-61.671 Y-21.804
X-61.534 Y-21.742
X-61.402 Y-21.672
X-61.274 Y-21.593
X-61.151 Y-21.507
X-61.105 Y-21.47
X-61.08 Y-21.448
X-61.057 Y-21.423
X-61.037 Y-21.396
X-60.946 Y-21.263
X-60.747 Y-20.989
X-60.745 Y-20.986
X-60.673 Y-20.887
X-60.591 Y-20.761
X-60.519 Y-20.626
X-60.481 Y-20.537
X-60.471 Y-20.508
G3 X-60.749 Y-20.401 I-0.146 J0.036
G1 X-60.762 Y-20.425
X-60.923 Y-20.723 F400
G3 X-60.673 Y-20.887 I0.132 J-0.071
G1 X-60.53 Y-20.688 F600
X-60.518 Y-20.664
X-60.509 Y-20.639
X-60.41 Y-20.292
X-60.382 Y-20.193
X-60.367 Y-20.138
X-60.333 Y-19.992
X-60.315 Y-19.832
Y-19.798
X-60.316 Y-19.785
G3 X-60.6 Y-19.737 I-0.149 J-0.016
G1 X-60.613 Y-19.779 F400
X-60.658 Y-20.069
G3 X-60.367 Y-20.138 I0.148 J-0.023
G1 X-60.312 Y-19.945 F600
X-60.308 Y-19.92
X-60.307 Y-19.895
X-60.337 Y-19.498
X-60.345 Y-19.399
X-60.348 Y-19.357
X-60.367 Y-19.208
X-60.398 Y-19.082
X-60.404 Y-19.061
X-60.411 Y-19.041
X-60.419 Y-19.021
G3 X-60.701 Y-19.061 I-0.134 J-0.067
G1 X-60.703 Y-19.089 F400
X-60.7 Y-19.117
X-60.645 Y-19.393
G3 X-60.348 Y-19.357 I0.147 J0.03
G1 X-60.36 Y-19.201 F600
X-60.365 Y-19.151
X-60.372 Y-19.127
X-60.382 Y-19.102
X-60.549 Y-18.735
X-60.675 Y-18.457
X-60.69 Y-18.432
X-60.709 Y-18.408
X-61.294 Y-17.813
X-61.342 Y-17.762
X-61.561 Y-17.515
X-61.645 Y-17.416
X-61.695 Y-17.352
X-61.732 Y-17.321
X-61.776 Y-17.303
X-61.823 Y-17.3
X-61.87 Y-17.311
X-61.91 Y-17.337
X-61.94 Y-17.374
X-62.188 Y-17.806
X-63.786 Y-20.591
X-64.083 Y-21.107 F400
X-64.099 Y-21.151
X-64.102 Y-21.199
X-64.089 Y-21.244
X-64.063 Y-21.283
X-63.77 Y-21.581 F600
X-63.723 Y-21.631
X-63.504 Y-21.878
X-63.42 Y-21.978
X-63.342 Y-22.077
X-63.326 Y-22.1
X-63.286 Y-22.176
X-63.251 Y-22.275
X-63.196 Y-22.473
X-63.169 Y-22.573
X-63.123 Y-22.771
X-63.103 Y-22.87
X-63.102 Y-22.969
X-63.116 Y-23.068
X-63.127 Y-23.137
X-63.195 Y-23.465
X-63.202 Y-23.495
X-63.205 Y-23.537
X-63.196 Y-23.577
X-63.176 Y-23.614
X-63.146 Y-23.644
X-63.11 Y-23.665
X-63.069 Y-23.674
X-62.538 Y-23.725
X-61.755 Y-23.8
X-61.302 Y-23.844 F400
G3 X-61.159 Y-23.618 I0.014 J0.149
G1 X-61.243 Y-23.487 F600
X-61.255 Y-23.465
X-61.296 Y-23.366
X-61.444 Y-22.969
X-61.474 Y-22.87
X-61.491 Y-22.771
X-61.494 Y-22.721
X-61.495 Y-22.672
X-61.476 Y-22.473
X-61.454 Y-22.275
X-61.441 Y-22.172
X-61.425 Y-22.077
X-61.398 Y-21.978
X-61.377 Y-21.928
X-61.35 Y-21.878
X-61.243 Y-21.704
X-61.163 Y-21.581
X-61.037 Y-21.396
G3 X-61.163 Y-21.166 I-0.127 J0.08
G1 X-61.164
G3 X-61.293 Y-21.392 I0 J-0.15
G1 X-61.263 Y-21.416 Z-1.594
X-61.235 Y-21.439 Z-1.579
X-61.211 Y-21.458 Z-1.554
X-61.189 Y-21.462 Z-1.524
X-61.175 Y-21.465 Z-1.488
X-61.17 Y-21.466 Z-1.45
Z5
X-62.58 Y-14.585
Z-1.7
Z-1.85 F400
X-62.582 Y-14.592 Z-1.896
X-62.587 Y-14.612 Z-1.938
X-62.595 Y-14.644 Z-1.971
X-62.606 Y-14.685 Z-1.993
X-62.617 Y-14.73 Z-2
G3 X-62.841 Y-16.285 I7.063 J-1.809
G1 Y-16.36 F600
X-62.805 Y-16.426
X-62.702 Y-16.534
X-62.559 Y-16.581
X-62.41 Y-16.593
X-62.26 Y-16.584
X-62.195 Y-16.566
X-62.076 Y-16.507
X-61.987 Y-16.409
X-61.942 Y-16.284
X-61.937 Y-16.257
X-61.87 Y-15.929
X-61.863 Y-15.899
X-61.86 Y-15.857
X-61.869 Y-15.816
X-61.889 Y-15.779
X-61.918 Y-15.75
X-61.955 Y-15.729
X-61.995 Y-15.719
X-62.527 Y-15.668
X-63.31 Y-15.593
X-63.763 Y-15.55 F400
G3 X-63.906 Y-15.776 I-0.014 J-0.149
G1 X-63.822 Y-15.907 F600
X-63.81 Y-15.929
X-63.769 Y-16.028
X-63.694 Y-16.226
X-63.635 Y-16.364
X-63.547 Y-16.485
X-63.425 Y-16.618
X-63.315 Y-16.72
X-63.196 Y-16.811
X-63.068 Y-16.89
X-62.933 Y-16.954
X-62.791 Y-17.004
X-62.645 Y-17.038
X-62.496 Y-17.055
X-62.346 Y-17.051
X-62.198 Y-17.027
X-62.174 Y-17.02
X-62.064 Y-16.959
X-61.982 Y-16.863
X-61.94 Y-16.744
X-61.942 Y-16.618
X-61.956 Y-16.583
X-61.978 Y-16.551
X-62.007 Y-16.527
X-62.042 Y-16.511
X-62.643 Y-16.316
X-63.073 Y-16.176
X-63.506 Y-16.036 F400
G3 X-63.694 Y-16.226 I-0.046 J-0.143
G1 X-63.621 Y-16.424 F600
X-63.59 Y-16.524
X-63.574 Y-16.623
X-63.57 Y-16.672
X-63.56 Y-16.822
X-63.501 Y-16.96
X-63.416 Y-17.084
X-63.313 Y-17.192
X-63.277 Y-17.296
X-63.275 Y-17.405
X-63.337 Y-17.615
X-63.542 Y-18.001
X-63.8 Y-18.355
X-63.862 Y-18.445
X-63.944 Y-18.57
X-64.032 Y-18.734
X-64.137 Y-18.975
X-64.186 Y-19.118
X-64.223 Y-19.263
X-64.246 Y-19.419
X-64.26 Y-19.63
X-64.258 Y-19.781
X-64.243 Y-19.93
X-64.212 Y-20.077
X-64.156 Y-20.257
X-64.093 Y-20.416
X-64.027 Y-20.55
X-63.944 Y-20.675
X-63.832 Y-20.815
X-63.705 Y-20.949
X-63.594 Y-21.049
X-63.47 Y-21.134
X-63.318 Y-21.219
X-63.143 Y-21.299
X-63.002 Y-21.35
X-62.856 Y-21.382
X-62.685 Y-21.403
X-62.487 Y-21.411
X-62.337 Y-21.405
X-62.19 Y-21.379
X-62.025 Y-21.333
X-61.837 Y-21.264
X-61.701 Y-21.202
X-61.574 Y-21.121
X-61.44 Y-21.017
X-61.291 Y-20.88
X-61.189 Y-20.77
X-61.102 Y-20.647
X-61.019 Y-20.499
X-60.933 Y-20.315
X-60.88 Y-20.174
X-60.848 Y-20.028
X-60.827 Y-19.86
X-60.818 Y-19.656
X-60.823 Y-19.506
X-60.849 Y-19.358
X-60.894 Y-19.195
X-60.964 Y-19.003
X-61.026 Y-18.867
X-61.106 Y-18.74
X-61.21 Y-18.606
X-61.348 Y-18.456
X-61.458 Y-18.354
X-61.581 Y-18.267
X-61.636 Y-18.173
X-61.659 Y-18.066
X-61.614 Y-17.631
X-61.617 Y-17.532
X-61.645 Y-17.437
X-61.695 Y-17.352
X-61.723 Y-17.317
X-61.739 Y-17.294
X-61.779 Y-17.218
X-61.813 Y-17.119
X-61.869 Y-16.92
X-61.896 Y-16.821
X-61.942 Y-16.618
X-61.957 Y-16.581
X-61.981 Y-16.548
X-62.013 Y-16.523
X-62.05 Y-16.508
X-62.091 Y-16.503
X-62.673 Y-16.513
X-62.867 Y-16.516
X-63.423 Y-16.526 F400
X-63.468 Y-16.533
X-63.509 Y-16.554
X-63.541 Y-16.587
X-63.562 Y-16.627
X-63.57 Y-16.672
Y-16.722 F600
X-63.589 Y-16.92
X-63.611 Y-17.119
X-63.623 Y-17.222
X-63.64 Y-17.317
X-63.667 Y-17.416
X-63.688 Y-17.466
X-63.715 Y-17.515
X-63.822 Y-17.69
X-63.902 Y-17.813
X-64.119 Y-18.131
X-64.392 Y-18.507
X-64.535 Y-18.705
X-64.547 Y-18.73
X-64.556 Y-18.755
X-64.683 Y-19.201
X-64.698 Y-19.256
X-64.732 Y-19.402
X-64.748 Y-19.533
X-64.75 Y-19.556
X-64.751 Y-19.579
X-64.75 Y-19.602
G3 X-64.468 Y-19.656 I0.149 J0.016
G1 X-64.458 Y-19.633 F400
X-64.452 Y-19.609
X-64.407 Y-19.325
G3 X-64.698 Y-19.256 I-0.148 J0.024
G1 X-64.752 Y-19.449 F600
X-64.757 Y-19.474
Y-19.498
X-64.728 Y-19.895
X-64.72 Y-19.994
X-64.717 Y-20.036
X-64.698 Y-20.185
X-64.668 Y-20.309
X-64.662 Y-20.33
X-64.655 Y-20.351
X-64.647 Y-20.371
G3 X-64.365 Y-20.333 I0.134 J0.067
G1 X-64.362 Y-20.304 F400
X-64.365 Y-20.275
X-64.42 Y-20.001
G3 X-64.717 Y-20.036 I-0.147 J-0.029
G1 X-64.705 Y-20.193 F600
X-64.7 Y-20.242
X-64.693 Y-20.267
X-64.683 Y-20.292
X-64.516 Y-20.659
X-64.503 Y-20.688
X-64.478 Y-20.743
X-64.409 Y-20.876
X-64.316 Y-21.018
X-64.291 Y-21.05
X-64.272 Y-21.071
G3 X-64.035 Y-20.895 I0.103 J0.109
G1 X-64.041 Y-20.883 F400
X-64.211 Y-20.607
G3 X-64.478 Y-20.743 I-0.128 J-0.079
G1 X-64.39 Y-20.936 F600
X-64.374 Y-20.961
X-64.356 Y-20.986
X-64.063 Y-21.283
X-63.91 Y-21.424
X-63.799 Y-21.525
X-63.68 Y-21.616
X-63.553 Y-21.696
X-63.42 Y-21.766
X-63.282 Y-21.825
X-63.14 Y-21.874
X-62.996 Y-21.913
X-62.848 Y-21.942
X-62.7 Y-21.961
X-62.55 Y-21.968
X-62.4 Y-21.965
X-62.25 Y-21.952
X-62.102 Y-21.929
X-61.955 Y-21.898
X-61.811 Y-21.856
X-61.671 Y-21.804
X-61.534 Y-21.742
X-61.402 Y-21.672
X-61.274 Y-21.593
X-61.151 Y-21.507
X-61.105 Y-21.47
X-61.08 Y-21.448
X-61.057 Y-21.423
X-61.037 Y-21.396
X-60.946 Y-21.263
X-60.747 Y-20.989
X-60.745 Y-20.986
X-60.673 Y-20.887
X-60.591 Y-20.761
X-60.519 Y-20.626
X-60.481 Y-20.537
X-60.471 Y-20.508
G3 X-60.749 Y-20.401 I-0.146 J0.036
G1 X-60.762 Y-20.425
X-60.923 Y-20.723 F400
G3 X-60.673 Y-20.887 I0.132 J-0.071
G1 X-60.53 Y-20.688 F600
X-60.518 Y-20.664
X-60.509 Y-20.639
X-60.41 Y-20.292
X-60.382 Y-20.193
X-60.367 Y-20.138
X-60.333 Y-19.992
X-60.315 Y-19.832
Y-19.798
X-60.316 Y-19.785
G3 X-60.6 Y-19.737 I-0.149 J-0.016
G1 X-60.613 Y-19.779 F400
X-60.658 Y-20.069
G3 X-60.367 Y-20.138 I0.148 J-0.023
G1 X-60.312 Y-19.945 F600
X-60.308 Y-19.92
X-60.307 Y-19.895
X-60.337 Y-19.498
X-60.345 Y-19.399
X-60.348 Y-19.357
X-60.367 Y-19.208
X-60.398 Y-19.082
X-60.404 Y-19.061
X-60.411 Y-19.041
X-60.419 Y-19.021
G3 X-60.701 Y-19.061 I-0.134 J-0.067
G1 X-60.703 Y-19.089 F400
X-60.7 Y-19.117
X-60.645 Y-19.393
G3 X-60.348 Y-19.357 I0.147 J0.03
G1 X-60.36 Y-19.201 F600
X-60.365 Y-19.151
X-60.372 Y-19.127
X-60.382 Y-19.102
X-60.549 Y-18.735
X-60.675 Y-18.457
X-60.69 Y-18.432
X-60.709 Y-18.408
X-61.294 Y-17.813
X-61.342 Y-17.762
X-61.561 Y-17.515
X-61.645 Y-17.416
X-61.695 Y-17.352
X-61.732 Y-17.321
X-61.776 Y-17.303
X-61.823 Y-17.3
X-61.87 Y-17.311
X-61.91 Y-17.337
X-61.94 Y-17.374
X-62.188 Y-17.806
X-63.786 Y-20.591
X-64.083 Y-21.107 F400
X-64.099 Y-21.151
X-64.102 Y-21.199
X-64.089 Y-21.244
X-64.063 Y-21.283
X-63.77 Y-21.581 F600
X-63.723 Y-21.631
X-63.504 Y-21.878
X-63.42 Y-21.978
X-63.342 Y-22.077
X-63.326 Y-22.1
X-63.286 Y-22.176
X-63.251 Y-22.275
X-63.196 Y-22.473
X-63.169 Y-22.573
X-63.123 Y-22.771
X-63.103 Y-22.87
X-63.102 Y-22.969
X-63.116 Y-23.068
X-63.127 Y-23.137
X-63.195 Y-23.465
X-63.202 Y-23.495
X-63.205 Y-23.537
X-63.196 Y-23.577
X-63.176 Y-23.614
X-63.146 Y-23.644
X-63.11 Y-23.665
X-63.069 Y-23.674
X-62.538 Y-23.725
X-61.755 Y-23.8
X-61.302 Y-23.844 F400
G3 X-61.159 Y-23.618 I0.014 J0.149
G1 X-61.243 Y-23.487 F600
X-61.255 Y-23.465
X-61.296 Y-23.366
X-61.444 Y-22.969
X-61.474 Y-22.87
X-61.491 Y-22.771
X-61.494 Y-22.721
X-61.495 Y-22.672
X-61.476 Y-22.473
X-61.454 Y-22.275
X-61.441 Y-22.172
X-61.425 Y-22.077
X-61.398 Y-21.978
X-61.377 Y-21.928
X-61.35 Y-21.878
X-61.243 Y-21.704
X-61.163 Y-21.581
X-61.037 Y-21.396
G3 X-61.163 Y-21.166 I-0.127 J0.08
G1 X-61.164
G3 X-61.17 Y-21.466 I0 J-0.15
G1 Z15
X-64.631 Y-39.861
Z5
Z-0.1
Z-0.25 F400
X-64.633 Y-39.868 Z-0.296
X-64.638 Y-39.888 Z-0.338
X-64.646 Y-39.92 Z-0.371
X-64.657 Y-39.961 Z-0.393
X-64.668 Y-40.006 Z-0.4
G3 X-64.892 Y-41.561 I7.063 J-1.809
G1 Y-41.636 F600
X-64.874 Y-41.669
X-64.76 Y-41.766
X-64.614 Y-41.8
X-64.464 Y-41.804
X-64.433 Y-41.796
X-64.315 Y-41.742
X-64.225 Y-41.648
X-64.176 Y-41.527
X-64.112 Y-41.217
X-64.105 Y-41.187
X-64.102 Y-41.146
X-64.111 Y-41.105
X-64.131 Y-41.068
X-64.161 Y-41.038
X-64.197 Y-41.018
X-64.238 Y-41.008
X-64.769 Y-40.957
X-65.552 Y-40.882
X-66.005 Y-40.839 F400
G3 X-66.148 Y-41.065 I-0.014 J-0.149
G1 X-66.064 Y-41.196 F600
X-66.052 Y-41.217
X-66.011 Y-41.316
X-65.936 Y-41.515
X-65.877 Y-41.653
X-65.789 Y-41.774
X-65.684 Y-41.881
X-65.462 Y-42.025
X-65.301 Y-42.112
X-65.164 Y-42.173
X-65.022 Y-42.221
X-64.876 Y-42.258
X-64.728 Y-42.276
X-64.578 Y-42.274
X-64.487 Y-42.261
X-64.355 Y-42.212
X-64.253 Y-42.115
X-64.197 Y-41.986
Y-41.845
X-64.211 Y-41.808
X-64.234 Y-41.776
X-64.265 Y-41.752
X-64.302 Y-41.736
X-64.904 Y-41.565
X-65.311 Y-41.449
X-65.753 Y-41.323 F400
G3 X-65.936 Y-41.515 I-0.041 J-0.144
G1 X-65.863 Y-41.713 F600
X-65.833 Y-41.812
X-65.816 Y-41.911
X-65.812 Y-41.961
X-65.802 Y-42.111
X-65.735 Y-42.245
X-65.645 Y-42.365
X-65.538 Y-42.47
X-65.418 Y-42.561
X-65.367 Y-42.657
X-65.348 Y-42.765
X-65.363 Y-42.873
X-65.411 Y-42.972
X-65.714 Y-43.287
X-65.819 Y-43.394
X-65.921 Y-43.504
X-66.019 Y-43.618
X-66.114 Y-43.734
X-66.203 Y-43.854
X-66.28 Y-43.983
X-66.347 Y-44.117
X-66.407 Y-44.255
X-66.46 Y-44.395
X-66.501 Y-44.54
X-66.526 Y-44.687
X-66.539 Y-44.837
X-66.544 Y-44.987
X-66.541 Y-45.137
X-66.52 Y-45.285
X-66.484 Y-45.431
X-66.437 Y-45.573
X-66.382 Y-45.713
X-66.318 Y-45.849
X-66.237 Y-45.975
X-66.145 Y-46.093
X-66.045 Y-46.205
X-65.94 Y-46.312
X-65.823 Y-46.406
X-65.697 Y-46.488
X-65.565 Y-46.559
X-65.429 Y-46.621
X-65.289 Y-46.676
X-65.144 Y-46.712
X-64.995 Y-46.734
X-64.846 Y-46.745
X-64.696 Y-46.747
X-64.546 Y-46.737
X-64.399 Y-46.709
X-64.254 Y-46.668
X-64.113 Y-46.617
X-63.975 Y-46.559
X-63.844 Y-46.486
X-63.722 Y-46.399
X-63.607 Y-46.303
X-63.498 Y-46.199
X-63.396 Y-46.09
X-63.308 Y-45.968
X-63.233 Y-45.838
X-63.167 Y-45.703
X-63.108 Y-45.565
X-63.064 Y-45.422
X-63.035 Y-45.275
X-63.02 Y-45.125
X-63.014 Y-44.976
X-63.015 Y-44.826
X-63.036 Y-44.677
X-63.072 Y-44.531
X-63.118 Y-44.389
X-63.173 Y-44.249
X-63.238 Y-44.114
X-63.32 Y-43.988
X-63.412 Y-43.87
X-63.512 Y-43.758
X-63.618 Y-43.652
X-63.735 Y-43.558
X-63.862 Y-43.478
X-63.994 Y-43.408
X-64.061 Y-43.321
X-64.097 Y-43.217
X-64.1 Y-43.108
X-63.996 Y-42.76
X-63.982 Y-42.674
X-63.991 Y-42.588
X-64.021 Y-42.506
X-64.056 Y-42.407
X-64.111 Y-42.209
X-64.138 Y-42.11
X-64.184 Y-41.911
X-64.197 Y-41.845
X-64.212 Y-41.806
X-64.238 Y-41.773
X-64.271 Y-41.748
X-64.311 Y-41.734
X-64.352 Y-41.73
X-64.927 Y-41.767
X-65.111 Y-41.779
X-65.672 Y-41.814 F400
X-65.715 Y-41.824
X-65.754 Y-41.845
X-65.785 Y-41.878
X-65.805 Y-41.917
X-65.812 Y-41.961
Y-42.011 F600
X-65.831 Y-42.209
X-65.853 Y-42.407
X-65.865 Y-42.51
X-65.882 Y-42.605
X-65.909 Y-42.705
X-65.93 Y-42.754
X-65.957 Y-42.804
X-66.064 Y-42.978
X-66.144 Y-43.101
X-66.361 Y-43.419
X-66.706 Y-43.895
X-66.777 Y-43.994
X-66.789 Y-44.019
X-66.798 Y-44.043
X-66.995 Y-44.737
X-66.999 Y-44.762
X-67 Y-44.787
X-66.947 Y-45.481
X-66.942 Y-45.531
X-66.935 Y-45.556
X-66.925 Y-45.58
X-66.632 Y-46.225
X-66.617 Y-46.25
X-66.598 Y-46.275
X-66.208 Y-46.671
X-66.073 Y-46.795
X-65.962 Y-46.895
X-65.842 Y-46.985
X-65.714 Y-47.063
X-65.579 Y-47.129
X-65.44 Y-47.184
X-65.296 Y-47.229
X-65.15 Y-47.263
X-65.002 Y-47.287
X-64.853 Y-47.3
X-64.703 Y-47.302
X-64.553 Y-47.294
X-64.404 Y-47.276
X-64.257 Y-47.249
X-64.111 Y-47.212
X-63.969 Y-47.166
X-63.83 Y-47.11
X-63.695 Y-47.044
X-63.564 Y-46.97
X-63.461 Y-46.903
X-63.424 Y-46.876
X-63.391 Y-46.844
X-63.363 Y-46.807
X-63.188 Y-46.551
X-62.89 Y-46.141
X-62.772 Y-45.977
X-62.76 Y-45.952
X-62.751 Y-45.927
X-62.555 Y-45.233
X-62.55 Y-45.209
Y-45.184
X-62.602 Y-44.49
X-62.607 Y-44.44
X-62.614 Y-44.415
X-62.624 Y-44.39
X-62.917 Y-43.746
X-62.933 Y-43.721
X-62.951 Y-43.696
X-63.537 Y-43.101
X-63.584 Y-43.051
X-63.803 Y-42.804
X-63.887 Y-42.705
X-63.965 Y-42.605
X-63.981 Y-42.583
X-64.021 Y-42.506
G3 X-64.286 Y-42.515 I-0.13 J-0.074
G1 X-64.488 Y-42.928
X-65.966 Y-45.959
X-66.232 Y-46.504 F400
X-66.245 Y-46.547
X-66.246 Y-46.591
X-66.233 Y-46.634
X-66.208 Y-46.671
X-66.013 Y-46.869 F600
X-65.965 Y-46.92
X-65.746 Y-47.167
X-65.662 Y-47.266
X-65.584 Y-47.365
X-65.568 Y-47.388
X-65.528 Y-47.464
X-65.494 Y-47.564
X-65.438 Y-47.762
X-65.411 Y-47.861
X-65.366 Y-48.059
X-65.346 Y-48.159
X-65.344 Y-48.258
X-65.358 Y-48.357
X-65.37 Y-48.425
X-65.437 Y-48.754
X-65.444 Y-48.784
X-65.447 Y-48.825
X-65.438 Y-48.866
X-65.418 Y-48.903
X-65.389 Y-48.933
X-65.352 Y-48.953
X-65.312 Y-48.963
X-64.78 Y-49.014
X-63.997 Y-49.089
X-63.544 Y-49.132 F400
G3 X-63.401 Y-48.906 I0.014 J0.149
G1 X-63.485 Y-48.775 F600
X-63.497 Y-48.754
X-63.538 Y-48.654
X-63.686 Y-48.258
X-63.716 Y-48.159
X-63.733 Y-48.059
X-63.737 Y-48.01
Y-47.96
X-63.718 Y-47.762
X-63.696 Y-47.564
X-63.684 Y-47.461
X-63.667 Y-47.365
X-63.64 Y-47.266
X-63.619 Y-47.217
X-63.592 Y-47.167
X-63.485 Y-46.993
X-63.405 Y-46.869
X-63.363 Y-46.807
G3 X-63.489 Y-46.577 I-0.127 J0.08
G1 X-63.49
G3 X-63.619 Y-46.803 I0 J-0.15
G1 X-63.589 Y-46.827 Z-0.394
X-63.561 Y-46.85 Z-0.379
X-63.537 Y-46.869 Z-0.354
X-63.515 Y-46.873 Z-0.324
X-63.501 Y-46.876 Z-0.288
X-63.496 Y-46.877 Z-0.25
Z5
X-64.631 Y-39.861
Z-0.5
Z-0.65 F400
X-64.633 Y-39.868 Z-0.696
X-64.638 Y-39.888 Z-0.738
X-64.646 Y-39.92 Z-0.771
X-64.657 Y-39.961 Z-0.793
X-64.668 Y-40.006 Z-0.8
G3 X-64.892 Y-41.561 I7.063 J-1.809
G1 Y-41.636 F600
X-64.874 Y-41.669
X-64.76 Y-41.766
X-64.614 Y-41.8
X-64.464 Y-41.804
X-64.433 Y-41.796
X-64.315 Y-41.742
X-64.225 Y-41.648
X-64.176 Y-41.527
X-64.112 Y-41.217
X-64.105 Y-41.187
X-64.102 Y-41.146
X-64.111 Y-41.105
X-64.131 Y-41.068
X-64.161 Y-41.038
X-64.197 Y-41.018
X-64.238 Y-41.008
X-64.769 Y-40.957
X-65.552 Y-40.882
X-66.005 Y-40.839 F400
G3 X-66.148 Y-41.065 I-0.014 J-0.149
G1 X-66.064 Y-41.196 F600
X-66.052 Y-41.217
X-66.011 Y-41.316
X-65.936 Y-41.515
X-65.877 Y-41.653
X-65.789 Y-41.774
X-65.684 Y-41.881
X-65.462 Y-42.025
X-65.301 Y-42.112
X-65.164 Y-42.173
X-65.022 Y-42.221
X-64.876 Y-42.258
X-64.728 Y-42.276
X-64.578 Y-42.274
X-64.487 Y-42.261
X-64.355 Y-42.212
X-64.253 Y-42.115
X-64.197 Y-41.986
Y-41.845
X-64.211 Y-41.808
X-64.234 Y-41.776
X-64.265 Y-41.752
X-64.302 Y-41.736
X-64.904 Y-41.565
X-65.311 Y-41.449
X-65.753 Y-41.323 F400
G3 X-65.936 Y-41.515 I-0.041 J-0.144
G1 X-65.863 Y-41.713 F600
X-65.833 Y-41.812
X-65.816 Y-41.911
X-65.812 Y-41.961
X-65.802 Y-42.111
X-65.735 Y-42.245
X-65.645 Y-42.365
X-65.538 Y-42.47
X-65.418 Y-42.561
X-65.367 Y-42.657
X-65.348 Y-42.765
X-65.363 Y-42.873
X-65.411 Y-42.972
X-65.714 Y-43.287
X-65.819 Y-43.394
X-65.921 Y-43.504
X-66.019 Y-43.618
X-66.114 Y-43.734
X-66.203 Y-43.854
X-66.28 Y-43.983
X-66.347 Y-44.117
X-66.407 Y-44.255
X-66.46 Y-44.395
X-66.501 Y-44.54
X-66.526 Y-44.687
X-66.539 Y-44.837
X-66.544 Y-44.987
X-66.541 Y-45.137
X-66.52 Y-45.285
X-66.484 Y-45.431
X-66.437 Y-45.573
X-66.382 Y-45.713
X-66.318 Y-45.849
X-66.237 Y-45.975
X-66.145 Y-46.093
X-66.045 Y-46.205
X-65.94 Y-46.312
X-65.823 Y-46.406
X-65.697 Y-46.488
X-65.565 Y-46.559
X-65.429 Y-46.621
X-65.289 Y-46.676
X-65.144 Y-46.712
X-64.995 Y-46.734
X-64.846 Y-46.745
X-64.696 Y-46.747
X-64.546 Y-46.737
X-64.399 Y-46.709
X-64.254 Y-46.668
X-64.113 Y-46.617
X-63.975 Y-46.559
X-63.844 Y-46.486
X-63.722 Y-46.399
X-63.607 Y-46.303
X-63.498 Y-46.199
X-63.396 Y-46.09
X-63.308 Y-45.968
X-63.233 Y-45.838
X-63.167 Y-45.703
X-63.108 Y-45.565
X-63.064 Y-45.422
X-63.035 Y-45.275
X-63.02 Y-45.125
X-63.014 Y-44.976
X-63.015 Y-44.826
X-63.036 Y-44.677
X-63.072 Y-44.531
X-63.118 Y-44.389
X-63.173 Y-44.249
X-63.238 Y-44.114
X-63.32 Y-43.988
X-63.412 Y-43.87
X-63.512 Y-43.758
X-63.618 Y-43.652
X-63.735 Y-43.558
X-63.862 Y-43.478
X-63.994 Y-43.408
X-64.061 Y-43.321
X-64.097 Y-43.217
X-64.1 Y-43.108
X-63.996 Y-42.76
X-63.982 Y-42.674
X-63.991 Y-42.588
X-64.021 Y-42.506
X-64.056 Y-42.407
X-64.111 Y-42.209
X-64.138 Y-42.11
X-64.184 Y-41.911
X-64.197 Y-41.845
X-64.212 Y-41.806
X-64.238 Y-41.773
X-64.271 Y-41.748
X-64.311 Y-41.734
X-64.352 Y-41.73
X-64.927 Y-41.767
X-65.111 Y-41.779
X-65.672 Y-41.814 F400
X-65.715 Y-41.824
X-65.754 Y-41.845
X-65.785 Y-41.878
X-65.805 Y-41.917
X-65.812 Y-41.961
Y-42.011 F600
X-65.831 Y-42.209
X-65.853 Y-42.407
X-65.865 Y-42.51
X-65.882 Y-42.605
X-65.909 Y-42.705
X-65.93 Y-42.754
X-65.957 Y-42.804
X-66.064 Y-42.978
X-66.144 Y-43.101
X-66.361 Y-43.419
X-66.706 Y-43.895
X-66.777 Y-43.994
X-66.789 Y-44.019
X-66.798 Y-44.043
X-66.995 Y-44.737
X-66.999 Y-44.762
X-67 Y-44.787
X-66.947 Y-45.481
X-66.942 Y-45.531
X-66.935 Y-45.556
X-66.925 Y-45.58
X-66.632 Y-46.225
X-66.617 Y-46.25
X-66.598 Y-46.275
X-66.208 Y-46.671
X-66.073 Y-46.795
X-65.962 Y-46.895
X-65.842 Y-46.985
X-65.714 Y-47.063
X-65.579 Y-47.129
X-65.44 Y-47.184
X-65.296 Y-47.229
X-65.15 Y-47.263
X-65.002 Y-47.287
X-64.853 Y-47.3
X-64.703 Y-47.302
X-64.553 Y-47.294
X-64.404 Y-47.276
X-64.257 Y-47.249
X-64.111 Y-47.212
X-63.969 Y-47.166
X-63.83 Y-47.11
X-63.695 Y-47.044
X-63.564 Y-46.97
X-63.461 Y-46.903
X-63.424 Y-46.876
X-63.391 Y-46.844
X-63.363 Y-46.807
X-63.188 Y-46.551
X-62.89 Y-46.141
X-62.772 Y-45.977
X-62.76 Y-45.952
X-62.751 Y-45.927
X-62.555 Y-45.233
X-62.55 Y-45.209
Y-45.184
X-62.602 Y-44.49
X-62.607 Y-44.44
X-62.614 Y-44.415
X-62.624 Y-44.39
X-62.917 Y-43.746
X-62.933 Y-43.721
X-62.951 Y-43.696
X-63.537 Y-43.101
X-63.584 Y-43.051
X-63.803 Y-42.804
X-63.887 Y-42.705
X-63.965 Y-42.605
X-63.981 Y-42.583
X-64.021 Y-42.506
G3 X-64.286 Y-42.515 I-0.13 J-0.074
G1 X-64.488 Y-42.928
X-65.966 Y-45.959
X-66.232 Y-46.504 F400
X-66.245 Y-46.547
X-66.246 Y-46.591
X-66.233 Y-46.634
X-66.208 Y-46.671
X-66.013 Y-46.869 F600
X-65.965 Y-46.92
X-65.746 Y-47.167
X-65.662 Y-47.266
X-65.584 Y-47.365
X-65.568 Y-47.388
X-65.528 Y-47.464
X-65.494 Y-47.564
X-65.438 Y-47.762
X-65.411 Y-47.861
X-65.366 Y-48.059
X-65.346 Y-48.159
X-65.344 Y-48.258
X-65.358 Y-48.357
X-65.37 Y-48.425
X-65.437 Y-48.754
X-65.444 Y-48.784
X-65.447 Y-48.825
X-65.438 Y-48.866
X-65.418 Y-48.903
X-65.389 Y-48.933
X-65.352 Y-48.953
X-65.312 Y-48.963
X-64.78 Y-49.014
X-63.997 Y-49.089
X-63.544 Y-49.132 F400
G3 X-63.401 Y-48.906 I0.014 J0.149
G1 X-63.485 Y-48.775 F600
X-63.497 Y-48.754
X-63.538 Y-48.654
X-63.686 Y-48.258
X-63.716 Y-48.159
X-63.733 Y-48.059
X-63.737 Y-48.01
Y-47.96
X-63.718 Y-47.762
X-63.696 Y-47.564
X-63.684 Y-47.461
X-63.667 Y-47.365
X-63.64 Y-47.266
X-63.619 Y-47.217
X-63.592 Y-47.167
X-63.485 Y-46.993
X-63.405 Y-46.869
X-63.363 Y-46.807
G3 X-63.489 Y-46.577 I-0.127 J0.08
G1 X-63.49
G3 X-63.619 Y-46.803 I0 J-0.15
G1 X-63.589 Y-46.827 Z-0.794
X-63.561 Y-46.85 Z-0.779
X-63.537 Y-46.869 Z-0.754
X-63.515 Y-46.873 Z-0.724
X-63.501 Y-46.876 Z-0.688
X-63.496 Y-46.877 Z-0.65
Z5
X-64.631 Y-39.861
Z-0.9
Z-1.05 F400
X-64.633 Y-39.868 Z-1.096
X-64.638 Y-39.888 Z-1.138
X-64.646 Y-39.92 Z-1.171
X-64.657 Y-39.961 Z-1.193
X-64.668 Y-40.006 Z-1.2
G3 X-64.892 Y-41.561 I7.063 J-1.809
G1 Y-41.636 F600
X-64.874 Y-41.669
X-64.76 Y-41.766
X-64.614 Y-41.8
X-64.464 Y-41.804
X-64.433 Y-41.796
X-64.315 Y-41.742
X-64.225 Y-41.648
X-64.176 Y-41.527
X-64.112 Y-41.217
X-64.105 Y-41.187
X-64.102 Y-41.146
X-64.111 Y-41.105
X-64.131 Y-41.068
X-64.161 Y-41.038
X-64.197 Y-41.018
X-64.238 Y-41.008
X-64.769 Y-40.957
X-65.552 Y-40.882
X-66.005 Y-40.839 F400
G3 X-66.148 Y-41.065 I-0.014 J-0.149
G1 X-66.064 Y-41.196 F600
X-66.052 Y-41.217
X-66.011 Y-41.316
X-65.936 Y-41.515
X-65.877 Y-41.653
X-65.789 Y-41.774
X-65.684 Y-41.881
X-65.462 Y-42.025
X-65.301 Y-42.112
X-65.164 Y-42.173
X-65.022 Y-42.221
X-64.876 Y-42.258
X-64.728 Y-42.276
X-64.578 Y-42.274
X-64.487 Y-42.261
X-64.355 Y-42.212
X-64.253 Y-42.115
X-64.197 Y-41.986
Y-41.845
X-64.211 Y-41.808
X-64.234 Y-41.776
X-64.265 Y-41.752
X-64.302 Y-41.736
X-64.904 Y-41.565
X-65.311 Y-41.449
X-65.753 Y-41.323 F400
G3 X-65.936 Y-41.515 I-0.041 J-0.144
G1 X-65.863 Y-41.713 F600
X-65.833 Y-41.812
X-65.816 Y-41.911
X-65.812 Y-41.961
X-65.802 Y-42.111
X-65.735 Y-42.245
X-65.645 Y-42.365
X-65.538 Y-42.47
X-65.418 Y-42.561
X-65.367 Y-42.657
X-65.348 Y-42.765
X-65.363 Y-42.873
X-65.411 Y-42.972
X-65.714 Y-43.287
X-65.819 Y-43.394
X-65.921 Y-43.504
X-66.019 Y-43.618
X-66.114 Y-43.734
X-66.203 Y-43.854
X-66.28 Y-43.983
X-66.347 Y-44.117
X-66.407 Y-44.255
X-66.46 Y-44.395
X-66.501 Y-44.54
X-66.526 Y-44.687
X-66.539 Y-44.837
X-66.544 Y-44.987
X-66.541 Y-45.137
X-66.52 Y-45.285
X-66.484 Y-45.431
