(Motor_X)
(Bearbeiten)
(  Hersteller: ChinaCnc)
(  model: 3040T)
(  description: Generic 3-axis)
(T14 D=3.175 CR=0 - ZMIN=-2.3 - Schaftfrser)
G90 G94
G17
G21
(-Attention- Property Safe Retracts is set to Clearance Height.)
(Ensure the clearance height will clear the part and or fixtures.)
(Raise the Z-axis to a safe height before starting the program.)
(When using Fusion 360 for Personal Use, the feedrate of)
(rapid moves is reduced to match the feedrate of cutting)
(moves, which can increase machining time. Unrestricted rapid)
(moves are available with a Fusion 360 Subscription.)

(Bohrfrsen1)
M0
(MANUAL TOOL CHANGE TO T14)
S6000 M3
G17 G90 G94
G54
G0 X-42.081 Y-5.923
Z15
G1 Z1.683 F1500
Z0 F1016
Y-6.081
X-42.075 Y-6.112
X-42.057 Y-6.139
X-42.031 Y-6.156
X-42 Y-6.163
G3 X-42 Y-5.838 Z-0.061 I0 J0.162 F1500
X-42 Y-6.163 Z-0.122 I0 J-0.162
X-42 Y-5.838 Z-0.183 I0 J0.162
X-42 Y-6.163 Z-0.244 I0 J-0.162
X-42 Y-5.838 Z-0.306 I0 J0.162
X-42 Y-6.163 Z-0.367 I0 J-0.162
X-42 Y-5.838 Z-0.428 I0 J0.162
X-42 Y-6.163 Z-0.489 I0 J-0.162
X-42 Y-5.838 Z-0.55 I0 J0.162
X-42 Y-6.163 Z-0.611 I0 J-0.162
X-42 Y-5.838 Z-0.672 I0 J0.163
X-42 Y-6.163 Z-0.733 I0 J-0.163
X-42 Y-5.838 Z-0.794 I0 J0.163
X-42 Y-6.163 Z-0.856 I0 J-0.163
X-42 Y-5.838 Z-0.917 I0 J0.163
X-42 Y-6.163 Z-0.978 I0 J-0.163
X-42 Y-5.838 Z-1.039 I0 J0.163
X-42 Y-6.163 Z-1.1 I0 J-0.163
X-42 Y-5.838 Z-1.161 I0 J0.163
X-42 Y-6.163 Z-1.222 I0 J-0.163
X-42 Y-5.838 Z-1.283 I0 J0.163
X-42 Y-6.163 Z-1.344 I0 J-0.163
X-42 Y-5.838 Z-1.406 I0 J0.163
X-42 Y-6.163 Z-1.467 I0 J-0.163
X-42 Y-5.838 Z-1.528 I0 J0.163
X-42 Y-6.163 Z-1.589 I0 J-0.163
X-42 Y-5.838 Z-1.65 I0 J0.163
X-42 Y-6.163 Z-1.711 I0 J-0.163
X-42 Y-5.838 Z-1.772 I0 J0.163
X-42 Y-6.163 Z-1.833 I0 J-0.163
X-42 Y-5.838 Z-1.894 I0 J0.163
X-42 Y-6.163 Z-1.956 I0 J-0.163
X-42 Y-5.838 Z-2.017 I0 J0.163
X-42 Y-6.163 Z-2.078 I0 J-0.163
X-42 Y-5.838 Z-2.139 I0 J0.163
X-42 Y-6.163 Z-2.2 I0 J-0.163
X-42 Y-5.838 Z-2.261 I0 J0.163
X-42.148 Y-6.067 Z-2.3 I0 J-0.163
X-41.852 Y-5.933 I0.148 J0.067
X-42.148 Y-6.067 I-0.148 J-0.067
G1 X-42.129 Y-6.093 F1016
X-42.102 Y-6.11
X-42.071 Y-6.115
X-42.04 Y-6.108
X-41.896 Y-6.042
Z5 F1500
X-24.317 Y-28.619
Z2
Z0.317 F1016
G19 G2 Y-28.936 Z0 J-0.318 K0
G1 Y-29.095
G17 G3 X-24 Y-29.413 I0.317 J0
X-24 Y-22.587 Z-0.175 I0 J3.413 F1500
X-24 Y-29.413 Z-0.349 I0 J-3.413
X-24 Y-22.587 Z-0.524 I0 J3.413
X-24 Y-29.412 Z-0.698 I0 J-3.413
X-24 Y-22.588 Z-0.873 I0 J3.412
X-24 Y-29.412 Z-1.048 I0 J-3.412
X-24 Y-22.588 Z-1.222 I0 J3.412
X-24 Y-29.412 Z-1.397 I0 J-3.412
X-24 Y-22.588 Z-1.571 I0 J3.412
X-24 Y-29.412 Z-1.746 I0 J-3.412
X-24 Y-22.588 Z-1.921 I0 J3.412
X-24 Y-29.412 Z-2.095 I0 J-3.412
X-24 Y-22.588 Z-2.27 I0 J3.412
X-25.762 Y-23.077 Z-2.3 I0 J-3.412
X-22.238 Y-28.923 I1.762 J-2.923
X-25.762 Y-23.077 I-1.762 J2.923
X-25.87 Y-23.513 I0.164 J-0.272 F1016
G1 X-25.788 Y-23.649
X-25.751 Y-23.71 Z-2.292
X-25.717 Y-23.767 Z-2.269
X-25.686 Y-23.819 Z-2.231
X-25.66 Y-23.862 Z-2.18
X-25.64 Y-23.894 Z-2.12
X-25.628 Y-23.914 Z-2.053
X-25.624 Y-23.921 Z-1.982
Z5 F1500
X-6.081 Y-5.923
Z1.683
Z0 F1016
Y-6.081
X-6.075 Y-6.112
X-6.057 Y-6.139
X-6.031 Y-6.156
X-6 Y-6.163
G3 X-6 Y-5.838 Z-0.061 I0 J0.162 F1500
X-6 Y-6.163 Z-0.122 I0 J-0.162
X-6 Y-5.838 Z-0.183 I0 J0.162
X-6 Y-6.163 Z-0.244 I0 J-0.162
X-6 Y-5.838 Z-0.306 I0 J0.162
X-6 Y-6.163 Z-0.367 I0 J-0.162
X-6 Y-5.838 Z-0.428 I0 J0.162
X-6 Y-6.163 Z-0.489 I0 J-0.162
X-6 Y-5.838 Z-0.55 I0 J0.162
X-6 Y-6.163 Z-0.611 I0 J-0.162
X-6 Y-5.838 Z-0.672 I0 J0.162
X-6 Y-6.163 Z-0.733 I0 J-0.162
X-6 Y-5.838 Z-0.794 I0 J0.162
X-6 Y-6.163 Z-0.856 I0 J-0.162
X-6 Y-5.838 Z-0.917 I0 J0.162
X-6 Y-6.163 Z-0.978 I0 J-0.162
X-6 Y-5.838 Z-1.039 I0 J0.162
X-6 Y-6.163 Z-1.1 I0 J-0.162
X-6 Y-5.838 Z-1.161 I0 J0.162
X-6 Y-6.163 Z-1.222 I0 J-0.162
X-6 Y-5.838 Z-1.283 I0 J0.162
X-6 Y-6.163 Z-1.344 I0 J-0.162
X-6 Y-5.838 Z-1.406 I0 J0.162
X-6 Y-6.163 Z-1.467 I0 J-0.162
X-6 Y-5.838 Z-1.528 I0 J0.162
X-6 Y-6.163 Z-1.589 I0 J-0.162
X-6 Y-5.838 Z-1.65 I0 J0.162
X-6 Y-6.163 Z-1.711 I0 J-0.162
X-6 Y-5.838 Z-1.772 I0 J0.162
X-6 Y-6.163 Z-1.833 I0 J-0.162
X-6 Y-5.838 Z-1.894 I0 J0.162
X-6 Y-6.163 Z-1.956 I0 J-0.162
X-6 Y-5.838 Z-2.017 I0 J0.162
X-6 Y-6.163 Z-2.078 I0 J-0.162
X-6 Y-5.838 Z-2.139 I0 J0.162
X-6 Y-6.163 Z-2.2 I0 J-0.162
X-6 Y-5.838 Z-2.261 I0 J0.162
X-6.148 Y-6.067 Z-2.3 I0 J-0.162
X-5.852 Y-5.933 I0.148 J0.067
X-6.148 Y-6.067 I-0.148 J-0.067
G1 X-6.129 Y-6.093 F1016
X-6.102 Y-6.11
X-6.071 Y-6.115
X-6.04 Y-6.108
X-5.896 Y-6.042
Z5 F1500
X-6.081 Y-45.923
Z1.683
Z0 F1016
Y-46.081
X-6.075 Y-46.112
X-6.057 Y-46.139
X-6.031 Y-46.156
X-6 Y-46.162
G3 X-6 Y-45.838 Z-0.061 I0 J0.162 F1500
X-6 Y-46.162 Z-0.122 I0 J-0.162
X-6 Y-45.838 Z-0.183 I0 J0.162
X-6 Y-46.162 Z-0.244 I0 J-0.162
X-6 Y-45.838 Z-0.306 I0 J0.162
X-6 Y-46.162 Z-0.367 I0 J-0.162
X-6 Y-45.838 Z-0.428 I0 J0.162
X-6 Y-46.162 Z-0.489 I0 J-0.162
X-6 Y-45.838 Z-0.55 I0 J0.162
X-6 Y-46.162 Z-0.611 I0 J-0.162
X-6 Y-45.838 Z-0.672 I0 J0.162
X-6 Y-46.162 Z-0.733 I0 J-0.162
X-6 Y-45.838 Z-0.794 I0 J0.162
X-6 Y-46.162 Z-0.856 I0 J-0.162
X-6 Y-45.838 Z-0.917 I0 J0.162
X-6 Y-46.162 Z-0.978 I0 J-0.162
X-6 Y-45.838 Z-1.039 I0 J0.162
X-6 Y-46.162 Z-1.1 I0 J-0.162
X-6 Y-45.838 Z-1.161 I0 J0.162
X-6 Y-46.162 Z-1.222 I0 J-0.162
X-6 Y-45.838 Z-1.283 I0 J0.162
X-6 Y-46.162 Z-1.344 I0 J-0.162
X-6 Y-45.838 Z-1.406 I0 J0.162
X-6 Y-46.162 Z-1.467 I0 J-0.162
X-6 Y-45.838 Z-1.528 I0 J0.162
X-6 Y-46.162 Z-1.589 I0 J-0.162
X-6 Y-45.838 Z-1.65 I0 J0.162
X-6 Y-46.162 Z-1.711 I0 J-0.162
X-6 Y-45.838 Z-1.772 I0 J0.162
X-6 Y-46.162 Z-1.833 I0 J-0.162
X-6 Y-45.838 Z-1.894 I0 J0.162
X-6 Y-46.162 Z-1.956 I0 J-0.162
X-6 Y-45.838 Z-2.017 I0 J0.162
X-6 Y-46.162 Z-2.078 I0 J-0.162
X-6 Y-45.838 Z-2.139 I0 J0.162
X-6 Y-46.162 Z-2.2 I0 J-0.162
X-6 Y-45.838 Z-2.261 I0 J0.162
X-6.148 Y-46.067 Z-2.3 I0 J-0.162
X-5.852 Y-45.933 I0.148 J0.067
X-6.148 Y-46.067 I-0.148 J-0.067
G1 X-6.129 Y-46.093 F1016
X-6.102 Y-46.11
X-6.071 Y-46.115
X-6.04 Y-46.108
X-5.896 Y-46.042
Z5 F1500
X-42.081 Y-45.923
Z1.683
Z0 F1016
Y-46.081
X-42.075 Y-46.112
X-42.057 Y-46.139
X-42.031 Y-46.156
X-42 Y-46.162
G3 X-42 Y-45.838 Z-0.061 I0 J0.162 F1500
X-42 Y-46.162 Z-0.122 I0 J-0.162
X-42 Y-45.838 Z-0.183 I0 J0.162
X-42 Y-46.162 Z-0.244 I0 J-0.162
X-42 Y-45.838 Z-0.306 I0 J0.162
X-42 Y-46.162 Z-0.367 I0 J-0.162
X-42 Y-45.838 Z-0.428 I0 J0.162
X-42 Y-46.162 Z-0.489 I0 J-0.162
X-42 Y-45.838 Z-0.55 I0 J0.162
X-42 Y-46.162 Z-0.611 I0 J-0.162
X-42 Y-45.838 Z-0.672 I0 J0.162
X-42 Y-46.162 Z-0.733 I0 J-0.162
X-42 Y-45.838 Z-0.794 I0 J0.162
X-42 Y-46.162 Z-0.856 I0 J-0.162
X-42 Y-45.838 Z-0.917 I0 J0.162
X-42 Y-46.162 Z-0.978 I0 J-0.162
X-42 Y-45.838 Z-1.039 I0 J0.162
X-42 Y-46.162 Z-1.1 I0 J-0.162
X-42 Y-45.838 Z-1.161 I0 J0.162
X-42 Y-46.162 Z-1.222 I0 J-0.162
X-42 Y-45.838 Z-1.283 I0 J0.162
X-42 Y-46.162 Z-1.344 I0 J-0.162
X-42 Y-45.838 Z-1.406 I0 J0.162
X-42 Y-46.162 Z-1.467 I0 J-0.162
X-42 Y-45.838 Z-1.528 I0 J0.162
X-42 Y-46.162 Z-1.589 I0 J-0.162
X-42 Y-45.838 Z-1.65 I0 J0.162
X-42 Y-46.162 Z-1.711 I0 J-0.162
X-42 Y-45.838 Z-1.772 I0 J0.162
X-42 Y-46.162 Z-1.833 I0 J-0.162
X-42 Y-45.838 Z-1.894 I0 J0.162
X-42 Y-46.162 Z-1.956 I0 J-0.162
X-42 Y-45.838 Z-2.017 I0 J0.162
X-42 Y-46.162 Z-2.078 I0 J-0.162
X-42 Y-45.838 Z-2.139 I0 J0.162
X-42 Y-46.162 Z-2.2 I0 J-0.162
X-42 Y-45.838 Z-2.261 I0 J0.162
X-42.148 Y-46.067 Z-2.3 I0 J-0.162
X-41.852 Y-45.933 I0.148 J0.067
X-42.148 Y-46.067 I-0.148 J-0.067
G1 X-42.129 Y-46.093 F1016
X-42.102 Y-46.11
X-42.071 Y-46.115
X-42.04 Y-46.108
X-41.896 Y-46.042
Z15 F1500
(When using Fusion 360 for Personal Use, the feedrate of)
(rapid moves is reduced to match the feedrate of cutting)
(moves, which can increase machining time. Unrestricted rapid)
(moves are available with a Fusion 360 Subscription.)

(2D-Kontur1)
G0 X-33.373 Y-16.397
G1 Z15 F1500
Z5
Z1 F300
S8000
X-33.431 Y-16.339 Z0.997 F1016
G3 X-33.661 Y-16.569 Z0.979 I-0.115 J-0.115
G1 X-29.595 Y-20.635 Z0.779
G3 X-29.365 Y-20.405 Z0.761 I0.115 J0.115
G1 X-33.431 Y-16.339 Z0.56
G3 X-33.661 Y-16.569 Z0.542 I-0.115 J-0.115
G1 X-29.595 Y-20.635 Z0.341
G3 X-29.365 Y-20.405 Z0.323 I0.115 J0.115
G1 X-33.431 Y-16.339 Z0.123
G3 X-33.661 Y-16.569 Z0.105 I-0.115 J-0.115
G1 X-29.595 Y-20.635 Z-0.096
G3 X-29.365 Y-20.405 Z-0.114 I0.115 J0.115
G1 X-33.431 Y-16.339 Z-0.315
G3 X-33.661 Y-16.569 Z-0.332 I-0.115 J-0.115
G1 X-29.595 Y-20.635 Z-0.533
G3 X-29.365 Y-20.405 Z-0.551 I0.115 J0.115
G1 X-33.431 Y-16.339 Z-0.752
G3 X-33.661 Y-16.569 Z-0.77 I-0.115 J-0.115
G1 X-29.595 Y-20.635 Z-0.97
G3 X-29.365 Y-20.405 Z-0.988 I0.115 J0.115
G1 X-33.431 Y-16.339 Z-1.189
G3 X-33.661 Y-16.569 Z-1.207 I-0.115 J-0.115
G1 X-29.595 Y-20.635 Z-1.408
G3 X-29.365 Y-20.405 Z-1.426 I0.115 J0.115
G1 X-33.431 Y-16.339 Z-1.626
G3 X-33.661 Y-16.569 Z-1.644 I-0.115 J-0.115
G1 X-29.595 Y-20.635 Z-1.845
G3 X-29.365 Y-20.405 Z-1.863 I0.115 J0.115
G1 X-33.431 Y-16.339 Z-2.064
G3 X-33.661 Y-16.569 Z-2.081 I-0.115 J-0.115
G1 X-29.595 Y-20.635 Z-2.282
G3 X-29.365 Y-20.405 Z-2.3 I0.115 J0.115
S6000
G1 X-33.431 Y-16.339 F1500
G3 X-33.661 Y-16.569 I-0.115 J-0.115
G1 X-29.595 Y-20.635
G3 X-29.365 Y-20.405 I0.115 J0.115
G1 Z5
X-14.758 Y-16.988
Z1 F300
S8000
X-14.339 Y-16.569 Z0.979 F1016
G3 X-14.569 Y-16.339 Z0.961 I-0.115 J0.115
G1 X-18.635 Y-20.405 Z0.761
G3 X-18.405 Y-20.635 Z0.743 I0.115 J-0.115
G1 X-14.339 Y-16.569 Z0.542
G3 X-14.569 Y-16.339 Z0.524 I-0.115 J0.115
G1 X-18.635 Y-20.405 Z0.323
G3 X-18.405 Y-20.635 Z0.306 I0.115 J-0.115
G1 X-14.339 Y-16.569 Z0.105
G3 X-14.569 Y-16.339 Z0.087 I-0.115 J0.115
G1 X-18.635 Y-20.405 Z-0.114
G3 X-18.405 Y-20.635 Z-0.132 I0.115 J-0.115
G1 X-14.339 Y-16.569 Z-0.332
G3 X-14.569 Y-16.339 Z-0.35 I-0.115 J0.115
G1 X-18.635 Y-20.405 Z-0.551
G3 X-18.405 Y-20.635 Z-0.569 I0.115 J-0.115
G1 X-14.339 Y-16.569 Z-0.77
G3 X-14.569 Y-16.339 Z-0.787 I-0.115 J0.115
G1 X-18.635 Y-20.405 Z-0.988
G3 X-18.405 Y-20.635 Z-1.006 I0.115 J-0.115
G1 X-14.339 Y-16.569 Z-1.207
G3 X-14.569 Y-16.339 Z-1.225 I-0.115 J0.115
G1 X-18.635 Y-20.405 Z-1.426
G3 X-18.405 Y-20.635 Z-1.443 I0.115 J-0.115
G1 X-14.339 Y-16.569 Z-1.644
G3 X-14.569 Y-16.339 Z-1.662 I-0.115 J0.115
G1 X-18.635 Y-20.405 Z-1.863
G3 X-18.405 Y-20.635 Z-1.881 I0.115 J-0.115
G1 X-14.339 Y-16.569 Z-2.081
G3 X-14.569 Y-16.339 Z-2.099 I-0.115 J0.115
G1 X-18.635 Y-20.405 Z-2.3
S6000
G3 X-18.405 Y-20.635 I0.115 J-0.115 F1500
G1 X-14.339 Y-16.569
G3 X-14.569 Y-16.339 I-0.115 J0.115
G1 X-18.635 Y-20.405
Z5
X-14.988 Y-35.242
Z1 F300
S8000
X-14.569 Y-35.661 Z0.979 F1016
G3 X-14.339 Y-35.431 Z0.961 I0.115 J0.115
G1 X-18.405 Y-31.365 Z0.761
G3 X-18.635 Y-31.595 Z0.743 I-0.115 J-0.115
G1 X-14.569 Y-35.661 Z0.542
G3 X-14.339 Y-35.431 Z0.524 I0.115 J0.115
G1 X-18.405 Y-31.365 Z0.323
G3 X-18.635 Y-31.595 Z0.306 I-0.115 J-0.115
G1 X-14.569 Y-35.661 Z0.105
G3 X-14.339 Y-35.431 Z0.087 I0.115 J0.115
G1 X-18.405 Y-31.365 Z-0.114
G3 X-18.635 Y-31.595 Z-0.132 I-0.115 J-0.115
G1 X-14.569 Y-35.661 Z-0.332
G3 X-14.339 Y-35.431 Z-0.35 I0.115 J0.115
G1 X-18.405 Y-31.365 Z-0.551
G3 X-18.635 Y-31.595 Z-0.569 I-0.115 J-0.115
G1 X-14.569 Y-35.661 Z-0.77
G3 X-14.339 Y-35.431 Z-0.787 I0.115 J0.115
G1 X-18.405 Y-31.365 Z-0.988
G3 X-18.635 Y-31.595 Z-1.006 I-0.115 J-0.115
G1 X-14.569 Y-35.661 Z-1.207
G3 X-14.339 Y-35.431 Z-1.225 I0.115 J0.115
G1 X-18.405 Y-31.365 Z-1.426
G3 X-18.635 Y-31.595 Z-1.443 I-0.115 J-0.115
G1 X-14.569 Y-35.661 Z-1.644
G3 X-14.339 Y-35.431 Z-1.662 I0.115 J0.115
G1 X-18.405 Y-31.365 Z-1.863
G3 X-18.635 Y-31.595 Z-1.881 I-0.115 J-0.115
G1 X-14.569 Y-35.661 Z-2.081
G3 X-14.339 Y-35.431 Z-2.099 I0.115 J0.115
G1 X-18.405 Y-31.365 Z-2.3
S6000
G3 X-18.635 Y-31.595 I-0.115 J-0.115 F1500
G1 X-14.569 Y-35.661
G3 X-14.339 Y-35.431 I0.115 J0.115
G1 X-18.405 Y-31.365
Z5
X-33.422 Y-35.193
Z1 F300
S8000
X-33.661 Y-35.431 Z0.988 F1016
G3 X-33.431 Y-35.661 Z0.97 I0.115 J-0.115
G1 X-29.365 Y-31.595 Z0.77
G3 X-29.595 Y-31.365 Z0.752 I-0.115 J0.115
G1 X-33.661 Y-35.431 Z0.551
G3 X-33.431 Y-35.661 Z0.533 I0.115 J-0.115
G1 X-29.365 Y-31.595 Z0.332
G3 X-29.595 Y-31.365 Z0.315 I-0.115 J0.115
G1 X-33.661 Y-35.431 Z0.114
G3 X-33.431 Y-35.661 Z0.096 I0.115 J-0.115
G1 X-29.365 Y-31.595 Z-0.105
G3 X-29.595 Y-31.365 Z-0.123 I-0.115 J0.115
G1 X-33.661 Y-35.431 Z-0.323
G3 X-33.431 Y-35.661 Z-0.341 I0.115 J-0.115
G1 X-29.365 Y-31.595 Z-0.542
G3 X-29.595 Y-31.365 Z-0.56 I-0.115 J0.115
G1 X-33.661 Y-35.431 Z-0.761
G3 X-33.431 Y-35.661 Z-0.779 I0.115 J-0.115
G1 X-29.365 Y-31.595 Z-0.979
G3 X-29.595 Y-31.365 Z-0.997 I-0.115 J0.115
G1 X-33.661 Y-35.431 Z-1.198
G3 X-33.431 Y-35.661 Z-1.216 I0.115 J-0.115
G1 X-29.365 Y-31.595 Z-1.417
G3 X-29.595 Y-31.365 Z-1.434 I-0.115 J0.115
G1 X-33.661 Y-35.431 Z-1.635
G3 X-33.431 Y-35.661 Z-1.653 I0.115 J-0.115
G1 X-29.365 Y-31.595 Z-1.854
G3 X-29.595 Y-31.365 Z-1.872 I-0.115 J0.115
G1 X-33.661 Y-35.431 Z-2.072
G3 X-33.431 Y-35.661 Z-2.09 I0.115 J-0.115
G1 X-29.365 Y-31.595 Z-2.291
X-29.339 Y-31.561 Z-2.293
X-29.323 Y-31.522 Z-2.294
X-29.318 Y-31.48 Z-2.296
X-29.323 Y-31.438 Z-2.297
X-29.339 Y-31.399 Z-2.299
X-29.365 Y-31.365 Z-2.3
S6000
X-29.399 Y-31.339 F1500
X-29.438 Y-31.323
X-29.48 Y-31.318
X-29.522 Y-31.323
X-29.561 Y-31.339
X-29.595 Y-31.365
X-33.661 Y-35.431
G3 X-33.431 Y-35.661 I0.115 J-0.115
G1 X-29.365 Y-31.595
X-29.339 Y-31.561
X-29.323 Y-31.522
X-29.318 Y-31.48
X-29.323 Y-31.438
X-29.339 Y-31.399
X-29.365 Y-31.365
Z15
(When using Fusion 360 for Personal Use, the feedrate of)
(rapid moves is reduced to match the feedrate of cutting)
(moves, which can increase machining time. Unrestricted rapid)
(moves are available with a Fusion 360 Subscription.)

(2D-Kontur2)
G0 X-11.863 Y1.437
G1 Z15 F1500
Z5
Z2.1 F300
Z-0.783
X-11.862 Y1.429 Z-0.853 F1016
X-11.857 Y1.406 Z-0.92
X-11.851 Y1.369 Z-0.98
X-11.842 Y1.319 Z-1.031
X-11.831 Y1.26 Z-1.069
X-11.819 Y1.194 Z-1.092
X-11.806 Y1.124 Z-1.1
X-11.75 Y0.812
G3 X-11.381 Y0.556 I0.312 J0.056
G1 X-11.289 Y0.57 F1500
X-11.197 Y0.578
X-11.098 Y0.584
X-11 Y0.587
X-5
G2 X0.587 Y-5 I0 J-5.587
G1 Y-11
X0.584 Y-11.101
X0.578 Y-11.197
X0.569 Y-11.292
X0.555 Y-11.386
X0.536 Y-11.484
X0.518 Y-11.568
X0.496 Y-11.651
X0.466 Y-11.753
X0.415 Y-11.896
X0.372 Y-12.001
X0.318 Y-12.12
X0.263 Y-12.228
X0.208 Y-12.327
X0.142 Y-12.437
X0.089 Y-12.519
X0.011 Y-12.632
X-0.038 Y-12.699
X-0.127 Y-12.815
X-0.172 Y-12.87
X-0.272 Y-12.99
X-0.312 Y-13.035
X-0.423 Y-13.157
X-0.458 Y-13.194
X-0.58 Y-13.32
X-0.611 Y-13.351
X-0.743 Y-13.48
X-0.769 Y-13.505
X-0.911 Y-13.637
X-0.934 Y-13.658
X-1.085 Y-13.794
X-1.112 Y-13.817
X-1.443 Y-14.101
X-1.467 Y-14.122
X-1.832 Y-14.422
X-1.846 Y-14.433
X-2.24 Y-14.75
X-2.245 Y-14.754
X-2.663 Y-15.088
X-3.099 Y-15.437
X-3.546 Y-15.802
X-4.001 Y-16.182
X-4.46 Y-16.58
X-4.919 Y-16.996
X-5.374 Y-17.43
X-5.82 Y-17.883
X-6.255 Y-18.355
X-6.674 Y-18.846
X-7.074 Y-19.356
X-7.45 Y-19.884
X-7.801 Y-20.43
X-8.129 Y-21.004
X-8.273 Y-21.283
X-8.415 Y-21.576
X-8.548 Y-21.872
X-8.672 Y-22.173
X-8.788 Y-22.478
X-8.894 Y-22.786
X-8.991 Y-23.097
X-9.078 Y-23.412
X-9.156 Y-23.729
X-9.223 Y-24.049
X-9.281 Y-24.371
X-9.328 Y-24.694
X-9.365 Y-25.02
X-9.391 Y-25.346
X-9.407 Y-25.673
X-9.412 Y-26
X-9.407 Y-26.327
X-9.391 Y-26.654
X-9.365 Y-26.98
X-9.328 Y-27.306
X-9.281 Y-27.629
X-9.223 Y-27.951
X-9.156 Y-28.271
X-9.078 Y-28.588
X-8.991 Y-28.903
X-8.894 Y-29.214
X-8.788 Y-29.522
X-8.672 Y-29.827
X-8.548 Y-30.128
X-8.415 Y-30.424
X-8.273 Y-30.717
X-8.129 Y-30.996
X-7.801 Y-31.57
X-7.45 Y-32.116
X-7.074 Y-32.644
X-6.674 Y-33.154
X-6.255 Y-33.645
X-5.82 Y-34.117
X-5.374 Y-34.57
X-4.919 Y-35.004
X-4.46 Y-35.42
X-4.001 Y-35.818
X-3.546 Y-36.198
X-3.099 Y-36.563
X-2.663 Y-36.912
X-2.245 Y-37.246
X-2.24 Y-37.25
X-1.846 Y-37.567
X-1.832 Y-37.578
X-1.467 Y-37.878
X-1.443 Y-37.899
X-1.112 Y-38.183
X-1.085 Y-38.206
X-0.934 Y-38.342
X-0.911 Y-38.363
X-0.769 Y-38.495
X-0.743 Y-38.52
X-0.611 Y-38.649
X-0.58 Y-38.68
X-0.458 Y-38.806
X-0.423 Y-38.843
X-0.312 Y-38.965
X-0.272 Y-39.01
X-0.172 Y-39.13
X-0.127 Y-39.185
X-0.038 Y-39.301
X0.011 Y-39.368
X0.089 Y-39.481
X0.142 Y-39.563
X0.208 Y-39.673
X0.263 Y-39.772
X0.318 Y-39.88
X0.372 Y-39.999
X0.415 Y-40.104
X0.466 Y-40.247
X0.496 Y-40.349
X0.518 Y-40.432
X0.536 Y-40.516
X0.555 Y-40.614
X0.569 Y-40.708
X0.578 Y-40.803
X0.584 Y-40.899
X0.587 Y-41
Y-47
G2 X-5 Y-52.588 I-5.587 J0
G1 X-11
X-11.098 Y-52.584
X-11.197 Y-52.578
X-11.295 Y-52.569
X-11.393 Y-52.554
X-11.49 Y-52.536
X-11.585 Y-52.515
X-11.679 Y-52.488
X-11.774 Y-52.457
X-11.861 Y-52.427
X-11.947 Y-52.391
X-12.041 Y-52.348
X-12.117 Y-52.312
X-12.191 Y-52.271
X-12.283 Y-52.216
X-12.411 Y-52.133
X-12.502 Y-52.066
X-12.608 Y-51.982
X-12.698 Y-51.904
X-12.782 Y-51.826
X-12.871 Y-51.737
X-12.939 Y-51.665
X-13.028 Y-51.564
X-13.083 Y-51.499
X-13.171 Y-51.387
X-13.214 Y-51.331
X-13.301 Y-51.208
X-13.335 Y-51.16
X-13.423 Y-51.027
X-13.461 Y-50.968
X-13.638 Y-50.674
X-13.671 Y-50.617
X-13.852 Y-50.286
X-13.871 Y-50.252
X-14.059 Y-49.887
X-14.067 Y-49.871
X-14.265 Y-49.476
Y-49.475
X-14.472 Y-49.061
X-14.689 Y-48.637
X-14.919 Y-48.204
X-15.164 Y-47.768
X-15.428 Y-47.33
X-15.712 Y-46.894
X-16.018 Y-46.463
X-16.349 Y-46.041
X-16.705 Y-45.631
X-17.097 Y-45.228
X-17.291 Y-45.045
X-17.5 Y-44.858
X-17.717 Y-44.677
X-17.942 Y-44.502
X-18.175 Y-44.332
X-18.416 Y-44.168
X-18.665 Y-44.01
X-18.923 Y-43.859
X-19.188 Y-43.715
X-19.463 Y-43.578
X-19.745 Y-43.448
X-20.036 Y-43.326
X-20.335 Y-43.213
X-20.641 Y-43.108
X-20.955 Y-43.011
X-21.275 Y-42.924
X-21.602 Y-42.847
X-21.934 Y-42.779
X-22.27 Y-42.721
X-22.611 Y-42.673
X-22.956 Y-42.636
X-23.302 Y-42.609
X-23.651 Y-42.593
X-24 Y-42.588
X-24.349 Y-42.593
X-24.698 Y-42.609
X-25.044 Y-42.636
X-25.389 Y-42.673
X-25.73 Y-42.721
X-26.066 Y-42.779
X-26.398 Y-42.847
X-26.725 Y-42.924
X-27.045 Y-43.011
X-27.359 Y-43.108
X-27.665 Y-43.213
X-27.964 Y-43.326
X-28.255 Y-43.448
X-28.537 Y-43.578
X-28.812 Y-43.715
X-29.077 Y-43.859
X-29.335 Y-44.01
X-29.584 Y-44.168
X-29.825 Y-44.332
X-30.058 Y-44.502
X-30.283 Y-44.677
X-30.5 Y-44.858
X-30.709 Y-45.045
X-30.903 Y-45.228
X-31.295 Y-45.631
X-31.651 Y-46.041
X-31.982 Y-46.463
X-32.288 Y-46.894
X-32.572 Y-47.33
X-32.836 Y-47.768
X-33.081 Y-48.204
X-33.311 Y-48.637
X-33.528 Y-49.061
X-33.735 Y-49.475
Y-49.476
X-33.933 Y-49.871
X-33.941 Y-49.887
X-34.129 Y-50.252
X-34.148 Y-50.286
X-34.329 Y-50.617
X-34.362 Y-50.674
X-34.539 Y-50.968
X-34.577 Y-51.027
X-34.665 Y-51.16
X-34.699 Y-51.208
X-34.786 Y-51.331
X-34.829 Y-51.387
X-34.917 Y-51.499
X-34.972 Y-51.564
X-35.061 Y-51.665
X-35.129 Y-51.737
X-35.218 Y-51.826
X-35.302 Y-51.904
X-35.392 Y-51.982
X-35.498 Y-52.066
X-35.589 Y-52.133
X-35.717 Y-52.216
X-35.809 Y-52.271
X-35.883 Y-52.312
X-35.959 Y-52.348
X-36.053 Y-52.391
X-36.139 Y-52.427
X-36.226 Y-52.457
X-36.321 Y-52.488
X-36.415 Y-52.515
X-36.51 Y-52.536
X-36.607 Y-52.554
X-36.705 Y-52.569
X-36.803 Y-52.578
X-36.902 Y-52.584
X-37 Y-52.588
X-43
G2 X-48.588 Y-47 I0 J5.588
G1 Y-41
X-48.584 Y-40.899
X-48.578 Y-40.803
X-48.569 Y-40.709
X-48.555 Y-40.615
X-48.537 Y-40.516
X-48.519 Y-40.432
X-48.496 Y-40.349
X-48.466 Y-40.247
X-48.415 Y-40.103
X-48.372 Y-39.999
X-48.318 Y-39.88
X-48.263 Y-39.773
X-48.208 Y-39.673
X-48.142 Y-39.563
X-48.089 Y-39.481
X-48.011 Y-39.368
X-47.962 Y-39.301
X-47.873 Y-39.185
X-47.828 Y-39.13
X-47.728 Y-39.01
X-47.688 Y-38.965
X-47.577 Y-38.843
X-47.542 Y-38.806
X-47.42 Y-38.68
X-47.389 Y-38.649
X-47.257 Y-38.52
X-47.231 Y-38.495
X-47.089 Y-38.363
X-47.066 Y-38.342
X-46.914 Y-38.206
X-46.888 Y-38.183
X-46.557 Y-37.899
X-46.533 Y-37.878
X-46.168 Y-37.578
X-46.154 Y-37.567
X-45.76 Y-37.25
X-45.755 Y-37.246
X-45.337 Y-36.912
X-44.901 Y-36.563
X-44.454 Y-36.198
X-43.999 Y-35.818
X-43.54 Y-35.42
X-43.081 Y-35.004
X-42.627 Y-34.57
X-42.18 Y-34.117
X-41.745 Y-33.645
X-41.326 Y-33.154
X-40.926 Y-32.644
X-40.55 Y-32.116
X-40.199 Y-31.57
X-39.871 Y-30.996
X-39.727 Y-30.717
X-39.585 Y-30.425
X-39.452 Y-30.128
X-39.328 Y-29.827
X-39.212 Y-29.522
X-39.106 Y-29.214
X-39.009 Y-28.903
X-38.922 Y-28.588
X-38.844 Y-28.271
X-38.777 Y-27.951
X-38.719 Y-27.629
X-38.672 Y-27.306
X-38.635 Y-26.98
X-38.609 Y-26.654
X-38.593 Y-26.327
X-38.588 Y-26
X-38.593 Y-25.673
X-38.609 Y-25.346
X-38.635 Y-25.02
X-38.672 Y-24.694
X-38.719 Y-24.371
X-38.777 Y-24.049
X-38.844 Y-23.729
X-38.922 Y-23.412
X-39.009 Y-23.097
X-39.106 Y-22.786
X-39.212 Y-22.478
X-39.328 Y-22.173
X-39.452 Y-21.872
X-39.585 Y-21.575
X-39.727 Y-21.283
X-39.871 Y-21.004
X-40.199 Y-20.43
X-40.55 Y-19.884
X-40.926 Y-19.356
X-41.326 Y-18.846
X-41.745 Y-18.355
X-42.18 Y-17.883
X-42.627 Y-17.43
X-43.081 Y-16.996
X-43.54 Y-16.58
X-43.999 Y-16.182
X-44.454 Y-15.802
X-44.901 Y-15.437
X-45.337 Y-15.088
X-45.755 Y-14.754
X-45.76 Y-14.75
X-46.154 Y-14.433
X-46.168 Y-14.422
X-46.533 Y-14.122
X-46.557 Y-14.101
X-46.888 Y-13.817
X-46.914 Y-13.794
X-47.066 Y-13.658
X-47.089 Y-13.637
X-47.231 Y-13.505
X-47.257 Y-13.48
X-47.389 Y-13.351
X-47.42 Y-13.32
X-47.542 Y-13.194
X-47.577 Y-13.157
X-47.688 Y-13.035
X-47.728 Y-12.99
X-47.828 Y-12.87
X-47.873 Y-12.815
X-47.962 Y-12.699
X-48.011 Y-12.632
X-48.089 Y-12.519
X-48.142 Y-12.437
X-48.208 Y-12.327
X-48.263 Y-12.227
X-48.318 Y-12.12
X-48.372 Y-12.001
X-48.415 Y-11.897
X-48.466 Y-11.753
X-48.496 Y-11.651
X-48.519 Y-11.568
X-48.537 Y-11.484
X-48.555 Y-11.385
X-48.569 Y-11.291
X-48.578 Y-11.197
X-48.584 Y-11.101
X-48.588 Y-11
Y-5
G2 X-43 Y0.587 I5.588 J0
G1 X-37
X-36.902 Y0.584
X-36.803 Y0.578
X-36.705 Y0.569
X-36.607 Y0.554
X-36.51 Y0.535
X-36.415 Y0.515
X-36.321 Y0.488
X-36.226 Y0.457
X-36.139 Y0.427
X-36.054 Y0.391
X-35.96 Y0.349
X-35.883 Y0.312
X-35.809 Y0.27
X-35.717 Y0.216
X-35.589 Y0.132
X-35.498 Y0.066
X-35.393 Y-0.017
X-35.303 Y-0.095
X-35.218 Y-0.174
X-35.129 Y-0.263
X-35.061 Y-0.335
X-34.972 Y-0.436
X-34.917 Y-0.501
X-34.829 Y-0.613
X-34.787 Y-0.669
X-34.699 Y-0.791
X-34.665 Y-0.84
X-34.577 Y-0.972
X-34.539 Y-1.032
X-34.362 Y-1.326
X-34.329 Y-1.383
X-34.148 Y-1.714
X-34.129 Y-1.748
X-33.941 Y-2.113
X-33.933 Y-2.129
X-33.735 Y-2.523
Y-2.525
X-33.528 Y-2.939
X-33.311 Y-3.363
X-33.081 Y-3.796
X-32.836 Y-4.232
X-32.572 Y-4.67
X-32.288 Y-5.106
X-31.982 Y-5.537
X-31.651 Y-5.959
X-31.295 Y-6.369
X-30.903 Y-6.772
X-30.709 Y-6.956
X-30.5 Y-7.142
X-30.283 Y-7.323
X-30.058 Y-7.498
X-29.825 Y-7.668
X-29.584 Y-7.832
X-29.335 Y-7.99
X-29.077 Y-8.141
X-28.812 Y-8.285
X-28.537 Y-8.422
X-28.255 Y-8.552
X-27.964 Y-8.674
X-27.665 Y-8.787
X-27.359 Y-8.892
X-27.045 Y-8.989
X-26.725 Y-9.076
X-26.398 Y-9.153
X-26.066 Y-9.221
X-25.73 Y-9.279
X-25.389 Y-9.327
X-25.044 Y-9.364
X-24.698 Y-9.391
X-24.349 Y-9.407
X-24 Y-9.412
X-23.651 Y-9.407
X-23.302 Y-9.391
X-22.956 Y-9.364
X-22.611 Y-9.327
X-22.27 Y-9.279
X-21.934 Y-9.221
X-21.602 Y-9.153
X-21.275 Y-9.076
X-20.955 Y-8.989
X-20.641 Y-8.892
X-20.335 Y-8.787
X-20.036 Y-8.674
X-19.745 Y-8.552
X-19.463 Y-8.422
X-19.188 Y-8.285
X-18.923 Y-8.141
X-18.665 Y-7.99
X-18.416 Y-7.832
X-18.175 Y-7.668
X-17.942 Y-7.498
X-17.717 Y-7.323
X-17.5 Y-7.142
X-17.291 Y-6.956
X-17.097 Y-6.772
X-16.705 Y-6.369
X-16.349 Y-5.959
X-16.018 Y-5.537
X-15.712 Y-5.106
X-15.428 Y-4.67
X-15.164 Y-4.232
X-14.919 Y-3.796
X-14.689 Y-3.363
X-14.472 Y-2.939
X-14.265 Y-2.525
Y-2.523
X-14.067 Y-2.129
X-14.059 Y-2.113
X-13.871 Y-1.748
X-13.852 Y-1.714
X-13.671 Y-1.383
X-13.638 Y-1.326
X-13.461 Y-1.032
X-13.423 Y-0.972
X-13.335 Y-0.84
X-13.301 Y-0.791
X-13.213 Y-0.669
X-13.171 Y-0.613
X-13.083 Y-0.501
X-13.028 Y-0.436
X-12.939 Y-0.335
X-12.871 Y-0.263
X-12.782 Y-0.174
X-12.697 Y-0.095
X-12.607 Y-0.017
X-12.502 Y0.066
X-12.411 Y0.132
X-12.283 Y0.216
X-12.191 Y0.27
X-12.117 Y0.312
X-12.04 Y0.349
X-11.946 Y0.391
X-11.861 Y0.427
X-11.774 Y0.457
X-11.679 Y0.488
X-11.585 Y0.515
X-11.49 Y0.535
X-11.393 Y0.554
X-11.381 Y0.556
G3 X-11.125 Y0.925 I-0.056 J0.312 F1016
G1 X-11.182 Y1.237
X-11.194 Y1.307 Z-1.092
X-11.206 Y1.373 Z-1.069
X-11.217 Y1.432 Z-1.031
X-11.226 Y1.482 Z-0.98
X-11.233 Y1.519 Z-0.92
X-11.237 Y1.542 Z-0.853
X-11.238 Y1.55 Z-0.783
Z5 F1500
X-11.863 Y1.437
Z1 F300
Z-1.3
X-11.806 Y1.124 F1016
X-11.75 Y0.812
G3 X-11.381 Y0.556 I0.312 J0.056
G1 X-11.289 Y0.57 F1500
X-11.197 Y0.578
X-11.098 Y0.584
X-11 Y0.587
X-6.592
Z-1.7 F300
X-5 F1500
G2 X0.587 Y-5 I0 J-5.587
G1 Y-11
X0.584 Y-11.101
X0.578 Y-11.197
X0.569 Y-11.292
X0.555 Y-11.386
X0.536 Y-11.484
X0.518 Y-11.568
X0.496 Y-11.651
X0.466 Y-11.753
X0.415 Y-11.896
X0.372 Y-12.001
X0.318 Y-12.12
X0.263 Y-12.228
X0.208 Y-12.327
X0.142 Y-12.437
X0.089 Y-12.519
X0.011 Y-12.632
X-0.038 Y-12.699
X-0.127 Y-12.815
X-0.172 Y-12.87
X-0.272 Y-12.99
X-0.312 Y-13.035
X-0.423 Y-13.157
X-0.458 Y-13.194
X-0.58 Y-13.32
X-0.611 Y-13.351
X-0.743 Y-13.48
X-0.769 Y-13.505
X-0.911 Y-13.637
X-0.934 Y-13.658
X-1.085 Y-13.794
X-1.112 Y-13.817
X-1.443 Y-14.101
X-1.467 Y-14.122
X-1.832 Y-14.422
X-1.846 Y-14.433
X-2.24 Y-14.75
X-2.245 Y-14.754
X-2.663 Y-15.088
X-3.099 Y-15.437
X-3.546 Y-15.802
X-4.001 Y-16.182
X-4.46 Y-16.58
X-4.919 Y-16.996
X-5.374 Y-17.43
X-5.82 Y-17.883
X-6.255 Y-18.355
X-6.674 Y-18.846
X-7.074 Y-19.356
X-7.45 Y-19.884
X-7.801 Y-20.43
X-8.129 Y-21.004
X-8.273 Y-21.283
X-8.415 Y-21.576
X-8.548 Y-21.872
X-8.672 Y-22.173
X-8.788 Y-22.478
X-8.894 Y-22.786
X-8.991 Y-23.097
X-9.078 Y-23.412
X-9.156 Y-23.729
X-9.223 Y-24.049
X-9.281 Y-24.371
X-9.328 Y-24.694
X-9.365 Y-25.02
X-9.391 Y-25.346
X-9.407 Y-25.673
X-9.412 Y-26
X-9.407 Y-26.327
X-9.391 Y-26.654
X-9.365 Y-26.98
X-9.328 Y-27.306
X-9.281 Y-27.629
X-9.223 Y-27.951
X-9.156 Y-28.271
X-9.078 Y-28.588
X-8.991 Y-28.903
X-8.894 Y-29.214
X-8.788 Y-29.522
X-8.672 Y-29.827
X-8.548 Y-30.128
X-8.415 Y-30.424
X-8.273 Y-30.717
X-8.129 Y-30.996
X-7.801 Y-31.57
X-7.45 Y-32.116
X-7.074 Y-32.644
X-6.674 Y-33.154
X-6.255 Y-33.645
X-5.82 Y-34.117
X-5.374 Y-34.57
X-4.919 Y-35.004
X-4.46 Y-35.42
X-4.001 Y-35.818
X-3.546 Y-36.198
X-3.099 Y-36.563
X-2.663 Y-36.912
X-2.245 Y-37.246
X-2.24 Y-37.25
X-1.846 Y-37.567
X-1.832 Y-37.578
X-1.467 Y-37.878
X-1.443 Y-37.899
X-1.112 Y-38.183
X-1.085 Y-38.206
X-0.934 Y-38.342
X-0.911 Y-38.363
X-0.769 Y-38.495
X-0.743 Y-38.52
X-0.611 Y-38.649
X-0.58 Y-38.68
X-0.458 Y-38.806
X-0.423 Y-38.843
X-0.312 Y-38.965
X-0.272 Y-39.01
X-0.172 Y-39.13
X-0.127 Y-39.185
X-0.038 Y-39.301
X0.011 Y-39.368
X0.089 Y-39.481
X0.142 Y-39.563
X0.208 Y-39.673
X0.263 Y-39.772
X0.318 Y-39.88
X0.372 Y-39.999
X0.415 Y-40.104
X0.466 Y-40.247
X0.496 Y-40.349
X0.518 Y-40.432
X0.536 Y-40.516
X0.555 Y-40.614
X0.569 Y-40.708
X0.578 Y-40.803
X0.584 Y-40.899
X0.587 Y-41
Y-47
G2 X-5 Y-52.588 I-5.587 J0
G1 X-11
X-11.098 Y-52.584
X-11.197 Y-52.578
X-11.295 Y-52.569
X-11.393 Y-52.554
X-11.49 Y-52.536
X-11.585 Y-52.515
X-11.679 Y-52.488
X-11.774 Y-52.457
X-11.861 Y-52.427
X-11.947 Y-52.391
X-12.041 Y-52.348
X-12.117 Y-52.312
X-12.191 Y-52.271
X-12.283 Y-52.216
X-12.411 Y-52.133
X-12.502 Y-52.066
X-12.608 Y-51.982
X-12.698 Y-51.904
X-12.782 Y-51.826
X-12.871 Y-51.737
X-12.939 Y-51.665
X-13.028 Y-51.564
X-13.083 Y-51.499
X-13.171 Y-51.387
X-13.214 Y-51.331
X-13.301 Y-51.208
X-13.335 Y-51.16
X-13.423 Y-51.027
X-13.461 Y-50.968
X-13.638 Y-50.674
X-13.671 Y-50.617
X-13.852 Y-50.286
X-13.871 Y-50.252
X-14.059 Y-49.887
X-14.067 Y-49.871
X-14.265 Y-49.476
Y-49.475
X-14.472 Y-49.061
X-14.689 Y-48.637
X-14.919 Y-48.204
X-15.164 Y-47.768
X-15.428 Y-47.33
X-15.712 Y-46.894
X-16.018 Y-46.463
X-16.349 Y-46.041
X-16.705 Y-45.631
X-17.097 Y-45.228
X-17.291 Y-45.045
X-17.5 Y-44.858
X-17.717 Y-44.677
X-17.942 Y-44.502
X-18.175 Y-44.332
X-18.416 Y-44.168
X-18.665 Y-44.01
X-18.923 Y-43.859
X-19.188 Y-43.715
X-19.463 Y-43.578
X-19.745 Y-43.448
X-20.036 Y-43.326
X-20.335 Y-43.213
X-20.641 Y-43.108
X-20.955 Y-43.011
X-21.275 Y-42.924
X-21.602 Y-42.847
X-21.934 Y-42.779
X-22.27 Y-42.721
X-22.611 Y-42.673
X-22.956 Y-42.636
X-23.302 Y-42.609
X-23.651 Y-42.593
X-24 Y-42.588
X-24.349 Y-42.593
X-24.698 Y-42.609
X-25.044 Y-42.636
X-25.389 Y-42.673
X-25.73 Y-42.721
X-26.066 Y-42.779
X-26.398 Y-42.847
X-26.725 Y-42.924
X-27.045 Y-43.011
X-27.359 Y-43.108
X-27.665 Y-43.213
X-27.964 Y-43.326
X-28.255 Y-43.448
X-28.537 Y-43.578
X-28.812 Y-43.715
X-29.077 Y-43.859
X-29.335 Y-44.01
X-29.584 Y-44.168
X-29.825 Y-44.332
X-30.058 Y-44.502
X-30.283 Y-44.677
X-30.5 Y-44.858
X-30.709 Y-45.045
X-30.903 Y-45.228
X-31.295 Y-45.631
X-31.651 Y-46.041
X-31.982 Y-46.463
X-32.288 Y-46.894
X-32.572 Y-47.33
X-32.836 Y-47.768
X-33.081 Y-48.204
X-33.311 Y-48.637
X-33.528 Y-49.061
X-33.735 Y-49.475
Y-49.476
X-33.933 Y-49.871
X-33.941 Y-49.887
X-34.129 Y-50.252
X-34.148 Y-50.286
X-34.329 Y-50.617
X-34.362 Y-50.674
X-34.539 Y-50.968
X-34.577 Y-51.027
X-34.665 Y-51.16
X-34.699 Y-51.208
X-34.786 Y-51.331
X-34.829 Y-51.387
X-34.917 Y-51.499
X-34.972 Y-51.564
X-35.058 Y-51.662
Z-1.3
X-35.061 Y-51.665
X-35.129 Y-51.737
X-35.218 Y-51.826
X-35.302 Y-51.904
X-35.392 Y-51.982
X-35.498 Y-52.066
X-35.589 Y-52.133
X-35.717 Y-52.216
X-35.809 Y-52.271
X-35.883 Y-52.312
X-35.959 Y-52.348
X-36.053 Y-52.391
X-36.139 Y-52.427
X-36.226 Y-52.457
X-36.321 Y-52.488
X-36.415 Y-52.515
X-36.51 Y-52.536
X-36.607 Y-52.554
X-36.705 Y-52.569
X-36.803 Y-52.578
X-36.902 Y-52.584
X-37 Y-52.588
X-41.408
Z-1.7 F300
X-43 F1500
G2 X-48.588 Y-47 I0 J5.588
G1 Y-41
X-48.584 Y-40.899
X-48.578 Y-40.803
X-48.569 Y-40.709
X-48.555 Y-40.615
X-48.537 Y-40.516
X-48.519 Y-40.432
X-48.496 Y-40.349
X-48.466 Y-40.247
X-48.415 Y-40.103
X-48.372 Y-39.999
X-48.318 Y-39.88
X-48.263 Y-39.773
X-48.208 Y-39.673
X-48.142 Y-39.563
X-48.089 Y-39.481
X-48.011 Y-39.368
X-47.962 Y-39.301
X-47.873 Y-39.185
X-47.828 Y-39.13
X-47.728 Y-39.01
X-47.688 Y-38.965
X-47.577 Y-38.843
X-47.542 Y-38.806
X-47.42 Y-38.68
X-47.389 Y-38.649
X-47.257 Y-38.52
X-47.231 Y-38.495
X-47.089 Y-38.363
X-47.066 Y-38.342
X-46.914 Y-38.206
X-46.888 Y-38.183
X-46.557 Y-37.899
X-46.533 Y-37.878
X-46.168 Y-37.578
X-46.154 Y-37.567
X-45.76 Y-37.25
X-45.755 Y-37.246
X-45.337 Y-36.912
X-44.901 Y-36.563
X-44.454 Y-36.198
X-43.999 Y-35.818
X-43.54 Y-35.42
X-43.081 Y-35.004
X-42.627 Y-34.57
X-42.18 Y-34.117
X-41.745 Y-33.645
X-41.326 Y-33.154
X-40.926 Y-32.644
X-40.55 Y-32.116
X-40.199 Y-31.57
X-39.871 Y-30.996
X-39.727 Y-30.717
X-39.585 Y-30.425
X-39.452 Y-30.128
X-39.328 Y-29.827
X-39.212 Y-29.522
X-39.106 Y-29.214
X-39.009 Y-28.903
X-38.922 Y-28.588
X-38.844 Y-28.271
X-38.777 Y-27.951
X-38.719 Y-27.629
X-38.672 Y-27.306
X-38.635 Y-26.98
X-38.609 Y-26.654
X-38.593 Y-26.327
X-38.588 Y-26
X-38.593 Y-25.673
X-38.609 Y-25.346
X-38.635 Y-25.02
X-38.672 Y-24.694
X-38.719 Y-24.371
X-38.777 Y-24.049
X-38.844 Y-23.729
X-38.922 Y-23.412
X-39.009 Y-23.097
X-39.106 Y-22.786
X-39.212 Y-22.478
X-39.328 Y-22.173
X-39.452 Y-21.872
X-39.585 Y-21.575
X-39.727 Y-21.283
X-39.871 Y-21.004
X-40.199 Y-20.43
X-40.55 Y-19.884
X-40.926 Y-19.356
X-41.326 Y-18.846
X-41.745 Y-18.355
X-42.18 Y-17.883
X-42.627 Y-17.43
X-43.081 Y-16.996
X-43.54 Y-16.58
X-43.999 Y-16.182
X-44.454 Y-15.802
X-44.901 Y-15.437
X-45.337 Y-15.088
X-45.755 Y-14.754
X-45.76 Y-14.75
X-46.154 Y-14.433
X-46.168 Y-14.422
X-46.533 Y-14.122
X-46.557 Y-14.101
X-46.888 Y-13.817
X-46.914 Y-13.794
X-47.066 Y-13.658
X-47.089 Y-13.637
X-47.231 Y-13.505
X-47.257 Y-13.48
X-47.389 Y-13.351
X-47.42 Y-13.32
X-47.542 Y-13.194
X-47.577 Y-13.157
X-47.688 Y-13.035
X-47.728 Y-12.99
X-47.828 Y-12.87
X-47.873 Y-12.815
X-47.962 Y-12.699
X-48.011 Y-12.632
X-48.089 Y-12.519
X-48.142 Y-12.437
X-48.208 Y-12.327
X-48.263 Y-12.227
X-48.318 Y-12.12
X-48.372 Y-12.001
X-48.415 Y-11.897
X-48.466 Y-11.753
X-48.496 Y-11.651
X-48.519 Y-11.568
X-48.537 Y-11.484
X-48.555 Y-11.385
X-48.569 Y-11.291
X-48.578 Y-11.197
X-48.584 Y-11.101
X-48.588 Y-11
Y-5
G2 X-43 Y0.587 I5.588 J0
G1 X-37
X-36.902 Y0.584
X-36.803 Y0.578
X-36.705 Y0.569
X-36.607 Y0.554
X-36.51 Y0.535
X-36.415 Y0.515
X-36.321 Y0.488
X-36.226 Y0.457
X-36.139 Y0.427
X-36.054 Y0.391
X-35.96 Y0.349
X-35.883 Y0.312
X-35.809 Y0.27
X-35.717 Y0.216
X-35.589 Y0.132
X-35.498 Y0.066
X-35.393 Y-0.017
X-35.303 Y-0.095
X-35.218 Y-0.174
X-35.129 Y-0.263
X-35.061 Y-0.335
X-34.972 Y-0.436
X-34.917 Y-0.501
X-34.829 Y-0.613
X-34.787 Y-0.669
X-34.699 Y-0.791
X-34.665 Y-0.84
X-34.577 Y-0.972
X-34.539 Y-1.032
X-34.362 Y-1.326
X-34.329 Y-1.383
X-34.148 Y-1.714
X-34.129 Y-1.748
X-33.941 Y-2.113
X-33.933 Y-2.129
X-33.735 Y-2.523
Y-2.525
X-33.528 Y-2.939
X-33.311 Y-3.363
X-33.081 Y-3.796
X-32.836 Y-4.232
X-32.572 Y-4.67
X-32.288 Y-5.106
X-31.982 Y-5.537
X-31.651 Y-5.959
X-31.295 Y-6.369
X-30.903 Y-6.772
X-30.709 Y-6.956
X-30.5 Y-7.142
X-30.283 Y-7.323
X-30.058 Y-7.498
X-29.825 Y-7.668
X-29.584 Y-7.832
X-29.335 Y-7.99
X-29.077 Y-8.141
X-28.812 Y-8.285
X-28.537 Y-8.422
X-28.255 Y-8.552
X-27.964 Y-8.674
X-27.665 Y-8.787
X-27.359 Y-8.892
X-27.045 Y-8.989
X-26.725 Y-9.076
X-26.398 Y-9.153
X-26.066 Y-9.221
X-25.73 Y-9.279
X-25.389 Y-9.327
X-25.044 Y-9.364
X-24.698 Y-9.391
X-24.349 Y-9.407
X-24 Y-9.412
X-23.651 Y-9.407
X-23.302 Y-9.391
X-22.956 Y-9.364
X-22.611 Y-9.327
X-22.27 Y-9.279
X-21.934 Y-9.221
X-21.602 Y-9.153
X-21.275 Y-9.076
X-20.955 Y-8.989
X-20.641 Y-8.892
X-20.335 Y-8.787
X-20.036 Y-8.674
X-19.745 Y-8.552
X-19.463 Y-8.422
X-19.188 Y-8.285
X-18.923 Y-8.141
X-18.665 Y-7.99
X-18.416 Y-7.832
X-18.175 Y-7.668
X-17.942 Y-7.498
X-17.717 Y-7.323
X-17.5 Y-7.142
X-17.291 Y-6.956
X-17.097 Y-6.772
X-16.705 Y-6.369
X-16.349 Y-5.959
X-16.018 Y-5.537
X-15.712 Y-5.106
X-15.428 Y-4.67
X-15.164 Y-4.232
X-14.919 Y-3.796
X-14.689 Y-3.363
X-14.472 Y-2.939
X-14.265 Y-2.525
Y-2.523
X-14.067 Y-2.129
X-14.059 Y-2.113
X-13.871 Y-1.748
X-13.852 Y-1.714
X-13.671 Y-1.383
X-13.638 Y-1.326
X-13.461 Y-1.032
X-13.423 Y-0.972
X-13.335 Y-0.84
X-13.301 Y-0.791
X-13.213 Y-0.669
X-13.171 Y-0.613
X-13.083 Y-0.501
X-13.028 Y-0.436
X-12.942 Y-0.338
Z-1.3
X-12.939 Y-0.335
X-12.871 Y-0.263
X-12.782 Y-0.174
X-12.697 Y-0.095
X-12.607 Y-0.017
X-12.502 Y0.066
X-12.411 Y0.132
X-12.283 Y0.216
X-12.191 Y0.27
X-12.117 Y0.312
X-12.04 Y0.349
X-11.946 Y0.391
X-11.861 Y0.427
X-11.774 Y0.457
X-11.679 Y0.488
X-11.585 Y0.515
X-11.49 Y0.535
X-11.393 Y0.554
X-11.381 Y0.556
G3 X-11.125 Y0.925 I-0.056 J0.312 F1016
G1 X-11.238 Y1.55
Z5 F1500
X-11.863 Y1.437
Z0.4 F300
Z-1.3
X-11.806 Y1.124 F1016
X-11.75 Y0.812
G3 X-11.381 Y0.556 I0.312 J0.056
G1 X-11.289 Y0.57 F1500
X-11.197 Y0.578
X-11.098 Y0.584
X-11 Y0.587
X-6.592
Z-2.3 F300
X-5 F1500
G2 X0.587 Y-5 I0 J-5.587
G1 Y-11
X0.584 Y-11.101
X0.578 Y-11.197
X0.569 Y-11.292
X0.555 Y-11.386
X0.536 Y-11.484
X0.518 Y-11.568
X0.496 Y-11.651
X0.466 Y-11.753
X0.415 Y-11.896
X0.372 Y-12.001
X0.318 Y-12.12
X0.263 Y-12.228
X0.208 Y-12.327
X0.142 Y-12.437
X0.089 Y-12.519
X0.011 Y-12.632
X-0.038 Y-12.699
X-0.127 Y-12.815
X-0.172 Y-12.87
X-0.272 Y-12.99
X-0.312 Y-13.035
X-0.423 Y-13.157
X-0.458 Y-13.194
X-0.58 Y-13.32
X-0.611 Y-13.351
X-0.743 Y-13.48
X-0.769 Y-13.505
X-0.911 Y-13.637
X-0.934 Y-13.658
X-1.085 Y-13.794
X-1.112 Y-13.817
X-1.443 Y-14.101
X-1.467 Y-14.122
X-1.832 Y-14.422
X-1.846 Y-14.433
X-2.24 Y-14.75
X-2.245 Y-14.754
X-2.663 Y-15.088
X-3.099 Y-15.437
X-3.546 Y-15.802
X-4.001 Y-16.182
X-4.46 Y-16.58
X-4.919 Y-16.996
X-5.374 Y-17.43
X-5.82 Y-17.883
X-6.255 Y-18.355
X-6.674 Y-18.846
X-7.074 Y-19.356
X-7.45 Y-19.884
X-7.801 Y-20.43
X-8.129 Y-21.004
X-8.273 Y-21.283
X-8.415 Y-21.576
X-8.548 Y-21.872
X-8.672 Y-22.173
X-8.788 Y-22.478
X-8.894 Y-22.786
X-8.991 Y-23.097
X-9.078 Y-23.412
X-9.156 Y-23.729
X-9.223 Y-24.049
X-9.281 Y-24.371
X-9.328 Y-24.694
X-9.365 Y-25.02
X-9.391 Y-25.346
X-9.407 Y-25.673
X-9.412 Y-26
X-9.407 Y-26.327
X-9.391 Y-26.654
X-9.365 Y-26.98
X-9.328 Y-27.306
X-9.281 Y-27.629
X-9.223 Y-27.951
X-9.156 Y-28.271
X-9.078 Y-28.588
X-8.991 Y-28.903
X-8.894 Y-29.214
X-8.788 Y-29.522
X-8.672 Y-29.827
X-8.548 Y-30.128
X-8.415 Y-30.424
X-8.273 Y-30.717
X-8.129 Y-30.996
X-7.801 Y-31.57
X-7.45 Y-32.116
X-7.074 Y-32.644
X-6.674 Y-33.154
X-6.255 Y-33.645
X-5.82 Y-34.117
X-5.374 Y-34.57
X-4.919 Y-35.004
X-4.46 Y-35.42
X-4.001 Y-35.818
X-3.546 Y-36.198
X-3.099 Y-36.563
X-2.663 Y-36.912
X-2.245 Y-37.246
X-2.24 Y-37.25
X-1.846 Y-37.567
X-1.832 Y-37.578
X-1.467 Y-37.878
X-1.443 Y-37.899
X-1.112 Y-38.183
X-1.085 Y-38.206
X-0.934 Y-38.342
X-0.911 Y-38.363
X-0.769 Y-38.495
X-0.743 Y-38.52
X-0.611 Y-38.649
X-0.58 Y-38.68
X-0.458 Y-38.806
X-0.423 Y-38.843
X-0.312 Y-38.965
X-0.272 Y-39.01
X-0.172 Y-39.13
X-0.127 Y-39.185
X-0.038 Y-39.301
X0.011 Y-39.368
X0.089 Y-39.481
X0.142 Y-39.563
X0.208 Y-39.673
X0.263 Y-39.772
X0.318 Y-39.88
X0.372 Y-39.999
X0.415 Y-40.104
X0.466 Y-40.247
X0.496 Y-40.349
X0.518 Y-40.432
X0.536 Y-40.516
X0.555 Y-40.614
X0.569 Y-40.708
X0.578 Y-40.803
X0.584 Y-40.899
X0.587 Y-41
Y-47
G2 X-5 Y-52.588 I-5.587 J0
G1 X-11
X-11.098 Y-52.584
X-11.197 Y-52.578
X-11.295 Y-52.569
X-11.393 Y-52.554
X-11.49 Y-52.536
X-11.585 Y-52.515
X-11.679 Y-52.488
X-11.774 Y-52.457
X-11.861 Y-52.427
X-11.947 Y-52.391
X-12.041 Y-52.348
X-12.117 Y-52.312
X-12.191 Y-52.271
X-12.283 Y-52.216
X-12.411 Y-52.133
X-12.502 Y-52.066
X-12.608 Y-51.982
X-12.698 Y-51.904
X-12.782 Y-51.826
X-12.871 Y-51.737
X-12.939 Y-51.665
X-13.028 Y-51.564
X-13.083 Y-51.499
X-13.171 Y-51.387
X-13.214 Y-51.331
X-13.301 Y-51.208
X-13.335 Y-51.16
X-13.423 Y-51.027
X-13.461 Y-50.968
X-13.638 Y-50.674
X-13.671 Y-50.617
X-13.852 Y-50.286
X-13.871 Y-50.252
X-14.059 Y-49.887
X-14.067 Y-49.871
X-14.265 Y-49.476
Y-49.475
X-14.472 Y-49.061
X-14.689 Y-48.637
X-14.919 Y-48.204
X-15.164 Y-47.768
X-15.428 Y-47.33
X-15.712 Y-46.894
X-16.018 Y-46.463
X-16.349 Y-46.041
X-16.705 Y-45.631
X-17.097 Y-45.228
X-17.291 Y-45.045
X-17.5 Y-44.858
X-17.717 Y-44.677
X-17.942 Y-44.502
X-18.175 Y-44.332
X-18.416 Y-44.168
X-18.665 Y-44.01
X-18.923 Y-43.859
X-19.188 Y-43.715
X-19.463 Y-43.578
X-19.745 Y-43.448
X-20.036 Y-43.326
X-20.335 Y-43.213
X-20.641 Y-43.108
X-20.955 Y-43.011
X-21.275 Y-42.924
X-21.602 Y-42.847
X-21.934 Y-42.779
X-22.27 Y-42.721
X-22.611 Y-42.673
X-22.956 Y-42.636
X-23.302 Y-42.609
X-23.651 Y-42.593
X-24 Y-42.588
X-24.349 Y-42.593
X-24.698 Y-42.609
X-25.044 Y-42.636
X-25.389 Y-42.673
X-25.73 Y-42.721
X-26.066 Y-42.779
X-26.398 Y-42.847
X-26.725 Y-42.924
X-27.045 Y-43.011
X-27.359 Y-43.108
X-27.665 Y-43.213
X-27.964 Y-43.326
X-28.255 Y-43.448
X-28.537 Y-43.578
X-28.812 Y-43.715
X-29.077 Y-43.859
X-29.335 Y-44.01
X-29.584 Y-44.168
X-29.825 Y-44.332
X-30.058 Y-44.502
X-30.283 Y-44.677
X-30.5 Y-44.858
X-30.709 Y-45.045
X-30.903 Y-45.228
X-31.295 Y-45.631
X-31.651 Y-46.041
X-31.982 Y-46.463
X-32.288 Y-46.894
X-32.572 Y-47.33
X-32.836 Y-47.768
X-33.081 Y-48.204
X-33.311 Y-48.637
X-33.528 Y-49.061
X-33.735 Y-49.475
Y-49.476
X-33.933 Y-49.871
X-33.941 Y-49.887
X-34.129 Y-50.252
X-34.148 Y-50.286
X-34.329 Y-50.617
X-34.362 Y-50.674
X-34.539 Y-50.968
X-34.577 Y-51.027
X-34.665 Y-51.16
X-34.699 Y-51.208
X-34.786 Y-51.331
X-34.829 Y-51.387
X-34.917 Y-51.499
X-34.972 Y-51.564
X-35.058 Y-51.662
Z-1.3
X-35.061 Y-51.665
X-35.129 Y-51.737
X-35.218 Y-51.826
X-35.302 Y-51.904
X-35.392 Y-51.982
X-35.498 Y-52.066
X-35.589 Y-52.133
X-35.717 Y-52.216
X-35.809 Y-52.271
X-35.883 Y-52.312
X-35.959 Y-52.348
X-36.053 Y-52.391
X-36.139 Y-52.427
X-36.226 Y-52.457
X-36.321 Y-52.488
X-36.415 Y-52.515
X-36.51 Y-52.536
X-36.607 Y-52.554
X-36.705 Y-52.569
X-36.803 Y-52.578
X-36.902 Y-52.584
X-37 Y-52.588
X-41.408
Z-2.3 F300
X-43 F1500
G2 X-48.588 Y-47 I0 J5.588
G1 Y-41
X-48.584 Y-40.899
X-48.578 Y-40.803
X-48.569 Y-40.709
X-48.555 Y-40.615
X-48.537 Y-40.516
X-48.519 Y-40.432
X-48.496 Y-40.349
X-48.466 Y-40.247
X-48.415 Y-40.103
X-48.372 Y-39.999
X-48.318 Y-39.88
X-48.263 Y-39.773
X-48.208 Y-39.673
X-48.142 Y-39.563
X-48.089 Y-39.481
X-48.011 Y-39.368
X-47.962 Y-39.301
X-47.873 Y-39.185
X-47.828 Y-39.13
X-47.728 Y-39.01
X-47.688 Y-38.965
X-47.577 Y-38.843
X-47.542 Y-38.806
X-47.42 Y-38.68
X-47.389 Y-38.649
X-47.257 Y-38.52
X-47.231 Y-38.495
X-47.089 Y-38.363
X-47.066 Y-38.342
X-46.914 Y-38.206
X-46.888 Y-38.183
X-46.557 Y-37.899
X-46.533 Y-37.878
X-46.168 Y-37.578
X-46.154 Y-37.567
X-45.76 Y-37.25
X-45.755 Y-37.246
X-45.337 Y-36.912
X-44.901 Y-36.563
X-44.454 Y-36.198
X-43.999 Y-35.818
X-43.54 Y-35.42
X-43.081 Y-35.004
X-42.627 Y-34.57
X-42.18 Y-34.117
X-41.745 Y-33.645
X-41.326 Y-33.154
X-40.926 Y-32.644
X-40.55 Y-32.116
X-40.199 Y-31.57
X-39.871 Y-30.996
X-39.727 Y-30.717
X-39.585 Y-30.425
X-39.452 Y-30.128
X-39.328 Y-29.827
X-39.212 Y-29.522
X-39.106 Y-29.214
X-39.009 Y-28.903
X-38.922 Y-28.588
X-38.844 Y-28.271
X-38.777 Y-27.951
X-38.719 Y-27.629
X-38.672 Y-27.306
X-38.635 Y-26.98
X-38.609 Y-26.654
X-38.593 Y-26.327
X-38.588 Y-26
X-38.593 Y-25.673
X-38.609 Y-25.346
X-38.635 Y-25.02
X-38.672 Y-24.694
X-38.719 Y-24.371
X-38.777 Y-24.049
X-38.844 Y-23.729
X-38.922 Y-23.412
X-39.009 Y-23.097
X-39.106 Y-22.786
X-39.212 Y-22.478
X-39.328 Y-22.173
X-39.452 Y-21.872
X-39.585 Y-21.575
X-39.727 Y-21.283
X-39.871 Y-21.004
X-40.199 Y-20.43
X-40.55 Y-19.884
X-40.926 Y-19.356
X-41.326 Y-18.846
X-41.745 Y-18.355
X-42.18 Y-17.883
X-42.627 Y-17.43
X-43.081 Y-16.996
X-43.54 Y-16.58
X-43.999 Y-16.182
X-44.454 Y-15.802
X-44.901 Y-15.437
X-45.337 Y-15.088
X-45.755 Y-14.754
X-45.76 Y-14.75
X-46.154 Y-14.433
X-46.168 Y-14.422
X-46.533 Y-14.122
X-46.557 Y-14.101
X-46.888 Y-13.817
X-46.914 Y-13.794
X-47.066 Y-13.658
X-47.089 Y-13.637
X-47.231 Y-13.505
X-47.257 Y-13.48
X-47.389 Y-13.351
X-47.42 Y-13.32
X-47.542 Y-13.194
X-47.577 Y-13.157
X-47.688 Y-13.035
X-47.728 Y-12.99
X-47.828 Y-12.87
X-47.873 Y-12.815
X-47.962 Y-12.699
X-48.011 Y-12.632
X-48.089 Y-12.519
X-48.142 Y-12.437
X-48.208 Y-12.327
X-48.263 Y-12.227
X-48.318 Y-12.12
X-48.372 Y-12.001
X-48.415 Y-11.897
X-48.466 Y-11.753
X-48.496 Y-11.651
X-48.519 Y-11.568
X-48.537 Y-11.484
X-48.555 Y-11.385
X-48.569 Y-11.291
X-48.578 Y-11.197
X-48.584 Y-11.101
X-48.588 Y-11
Y-5
G2 X-43 Y0.587 I5.588 J0
G1 X-37
X-36.902 Y0.584
X-36.803 Y0.578
X-36.705 Y0.569
X-36.607 Y0.554
X-36.51 Y0.535
X-36.415 Y0.515
X-36.321 Y0.488
X-36.226 Y0.457
X-36.139 Y0.427
X-36.054 Y0.391
X-35.96 Y0.349
X-35.883 Y0.312
X-35.809 Y0.27
X-35.717 Y0.216
X-35.589 Y0.132
X-35.498 Y0.066
X-35.393 Y-0.017
X-35.303 Y-0.095
X-35.218 Y-0.174
X-35.129 Y-0.263
X-35.061 Y-0.335
X-34.972 Y-0.436
X-34.917 Y-0.501
X-34.829 Y-0.613
X-34.787 Y-0.669
X-34.699 Y-0.791
X-34.665 Y-0.84
X-34.577 Y-0.972
X-34.539 Y-1.032
X-34.362 Y-1.326
X-34.329 Y-1.383
X-34.148 Y-1.714
X-34.129 Y-1.748
X-33.941 Y-2.113
X-33.933 Y-2.129
X-33.735 Y-2.523
Y-2.525
X-33.528 Y-2.939
X-33.311 Y-3.363
X-33.081 Y-3.796
X-32.836 Y-4.232
X-32.572 Y-4.67
X-32.288 Y-5.106
X-31.982 Y-5.537
X-31.651 Y-5.959
X-31.295 Y-6.369
X-30.903 Y-6.772
X-30.709 Y-6.956
X-30.5 Y-7.142
X-30.283 Y-7.323
X-30.058 Y-7.498
X-29.825 Y-7.668
X-29.584 Y-7.832
X-29.335 Y-7.99
X-29.077 Y-8.141
X-28.812 Y-8.285
X-28.537 Y-8.422
X-28.255 Y-8.552
X-27.964 Y-8.674
X-27.665 Y-8.787
X-27.359 Y-8.892
X-27.045 Y-8.989
X-26.725 Y-9.076
X-26.398 Y-9.153
X-26.066 Y-9.221
X-25.73 Y-9.279
X-25.389 Y-9.327
X-25.044 Y-9.364
X-24.698 Y-9.391
X-24.349 Y-9.407
X-24 Y-9.412
X-23.651 Y-9.407
X-23.302 Y-9.391
X-22.956 Y-9.364
X-22.611 Y-9.327
X-22.27 Y-9.279
X-21.934 Y-9.221
X-21.602 Y-9.153
X-21.275 Y-9.076
X-20.955 Y-8.989
X-20.641 Y-8.892
X-20.335 Y-8.787
X-20.036 Y-8.674
X-19.745 Y-8.552
X-19.463 Y-8.422
X-19.188 Y-8.285
X-18.923 Y-8.141
X-18.665 Y-7.99
X-18.416 Y-7.832
X-18.175 Y-7.668
X-17.942 Y-7.498
X-17.717 Y-7.323
X-17.5 Y-7.142
X-17.291 Y-6.956
X-17.097 Y-6.772
X-16.705 Y-6.369
X-16.349 Y-5.959
X-16.018 Y-5.537
X-15.712 Y-5.106
X-15.428 Y-4.67
X-15.164 Y-4.232
X-14.919 Y-3.796
X-14.689 Y-3.363
X-14.472 Y-2.939
X-14.265 Y-2.525
Y-2.523
X-14.067 Y-2.129
X-14.059 Y-2.113
X-13.871 Y-1.748
X-13.852 Y-1.714
X-13.671 Y-1.383
X-13.638 Y-1.326
X-13.461 Y-1.032
X-13.423 Y-0.972
X-13.335 Y-0.84
X-13.301 Y-0.791
X-13.213 Y-0.669
X-13.171 Y-0.613
X-13.083 Y-0.501
X-13.028 Y-0.436
X-12.942 Y-0.338
Z-1.3
X-12.939 Y-0.335
X-12.871 Y-0.263
X-12.782 Y-0.174
X-12.697 Y-0.095
X-12.607 Y-0.017
X-12.502 Y0.066
X-12.411 Y0.132
X-12.283 Y0.216
X-12.191 Y0.27
X-12.117 Y0.312
X-12.04 Y0.349
X-11.946 Y0.391
X-11.861 Y0.427
X-11.774 Y0.457
X-11.679 Y0.488
X-11.585 Y0.515
X-11.49 Y0.535
X-11.393 Y0.554
X-11.381 Y0.556
G3 X-11.125 Y0.925 I-0.056 J0.312 F1016
G1 X-11.238 Y1.55
Z15 F1500
M5
M30
