(Motormount)
(Bearbeiten)
(  Hersteller: ChinaCnc)
(  model: 3040T)
(  description: Generic 3-axis)
(T5  D=3.175 CR=0 - ZMIN=-3.2 - Schaftfraser)
G90 G94
G17
G21
G28 G91 Z0
G90

(Bohrfrasen12)
T5
S6000 M3
G54
G0 X-35.021 Y-3.979
Z15
Z1.683
G1 Z0 F1000
X-34.99 Y-4.01
X-34.974 Y-4.006
X-34.963 Y-3.995
X-34.958 Y-3.979
X-34.966 Y-3.949 Z-0.048
X-34.987 Y-3.927 Z-0.096
X-35.016 Y-3.917 Z-0.143
X-35.047 Y-3.922 Z-0.191
X-35.071 Y-3.942 Z-0.239
X-35.083 Y-3.97 Z-0.287
X-35.079 Y-4.001 Z-0.334
X-35.062 Y-4.027 Z-0.382
X-35.034 Y-4.04 Z-0.43
X-35.003 Y-4.039 Z-0.478
X-34.976 Y-4.023 Z-0.525
X-34.961 Y-3.997 Z-0.573
X-34.96 Y-3.966 Z-0.621
X-34.974 Y-3.938 Z-0.669
X-34.999 Y-3.921 Z-0.716
X-35.03 Y-3.917 Z-0.764
X-35.059 Y-3.929 Z-0.812
X-35.078 Y-3.954 Z-0.86
X-35.083 Y-3.984 Z-0.907
X-35.073 Y-4.013 Z-0.955
X-35.05 Y-4.034 Z-1.003
X-35.02 Y-4.042 Z-1.051
X-34.99 Y-4.034 Z-1.099
X-34.968 Y-4.013 Z-1.146
X-34.958 Y-3.983 Z-1.194
X-34.964 Y-3.953 Z-1.242
X-34.984 Y-3.929 Z-1.29
X-35.013 Y-3.917 Z-1.337
X-35.043 Y-3.921 Z-1.385
X-35.068 Y-3.939 Z-1.433
X-35.082 Y-3.967 Z-1.481
X-35.081 Y-3.997 Z-1.528
X-35.064 Y-4.024 Z-1.576
X-35.038 Y-4.039 Z-1.624
X-35.007 Y-4.04 Z-1.672
X-34.979 Y-4.026 Z-1.719
X-34.962 Y-4 Z-1.767
X-34.959 Y-3.969 Z-1.815
X-34.971 Y-3.941 Z-1.863
X-34.996 Y-3.922 Z-1.91
X-35.026 Y-3.917 Z-1.958
X-35.055 Y-3.927 Z-2.006
X-35.076 Y-3.95 Z-2.054
X-35.083 Y-3.98 Z-2.101
X-35.075 Y-4.01 Z-2.149
X-35.054 Y-4.032 Z-2.197
X-35.024 Y-4.042 Z-2.245
X-34.994 Y-4.036 Z-2.293
X-34.97 Y-4.016 Z-2.34
X-34.959 Y-3.987 Z-2.388
X-34.963 Y-3.956 Z-2.436
X-34.981 Y-3.931 Z-2.484
X-35.009 Y-3.918 Z-2.531
X-35.04 Y-3.92 Z-2.579
X-35.066 Y-3.936 Z-2.627
X-35.081 Y-3.963 Z-2.675
X-35.082 Y-3.994 Z-2.722
X-35.067 Y-4.021 Z-2.77
X-35.041 Y-4.038 Z-2.818
X-35.011 Y-4.041 Z-2.866
X-34.982 Y-4.028 Z-2.913
X-34.963 Y-4.004 Z-2.961
X-34.959 Y-3.973 Z-3.009
X-34.969 Y-3.944 Z-3.057
X-34.992 Y-3.924 Z-3.104
X-35.022 Y-3.917 Z-3.152
X-35.052 Y-3.925 Z-3.2
G3 X-34.99 Y-4.033 I0.031 J-0.054
X-35.052 Y-3.925 I-0.031 J0.054
G1 X-35.064 Y-3.936
X-35.068 Y-3.952
X-35.064 Y-3.968
X-35.021 Y-3.979
G0 Z5
X-10.979
Z1.683
G1 Z0 F1000
X-10.948 Y-4.01
X-10.932 Y-4.006
X-10.921 Y-3.995
X-10.917 Y-3.979
X-10.924 Y-3.949 Z-0.048
X-10.945 Y-3.927 Z-0.096
X-10.975 Y-3.917 Z-0.143
X-11.005 Y-3.922 Z-0.191
X-11.029 Y-3.942 Z-0.239
X-11.041 Y-3.97 Z-0.287
X-11.038 Y-4.001 Z-0.334
X-11.02 Y-4.027 Z-0.382
X-10.992 Y-4.04 Z-0.43
X-10.961 Y-4.039 Z-0.478
X-10.935 Y-4.023 Z-0.525
X-10.919 Y-3.997 Z-0.573
X-10.918 Y-3.966 Z-0.621
X-10.932 Y-3.938 Z-0.669
X-10.958 Y-3.921 Z-0.716
X-10.988 Y-3.917 Z-0.764
X-11.017 Y-3.929 Z-0.812
X-11.036 Y-3.954 Z-0.86
X-11.041 Y-3.984 Z-0.907
X-11.032 Y-4.013 Z-0.955
X-11.009 Y-4.034 Z-1.003
X-10.979 Y-4.042 Z-1.051
X-10.949 Y-4.034 Z-1.099
X-10.926 Y-4.013 Z-1.146
X-10.917 Y-3.983 Z-1.194
X-10.923 Y-3.953 Z-1.242
X-10.942 Y-3.929 Z-1.29
X-10.971 Y-3.917 Z-1.337
X-11.002 Y-3.921 Z-1.385
X-11.027 Y-3.939 Z-1.433
X-11.04 Y-3.967 Z-1.481
X-11.039 Y-3.997 Z-1.528
X-11.023 Y-4.024 Z-1.576
X-10.996 Y-4.039 Z-1.624
X-10.965 Y-4.04 Z-1.672
X-10.938 Y-4.026 Z-1.719
X-10.92 Y-4 Z-1.767
X-10.917 Y-3.969 Z-1.815
X-10.93 Y-3.941 Z-1.863
X-10.954 Y-3.922 Z-1.91
X-10.985 Y-3.917 Z-1.958
X-11.014 Y-3.927 Z-2.006
X-11.034 Y-3.95 Z-2.054
X-11.042 Y-3.98 Z-2.101
X-11.034 Y-4.01 Z-2.149
X-11.012 Y-4.032 Z-2.197
X-10.983 Y-4.042 Z-2.245
X-10.952 Y-4.036 Z-2.293
X-10.929 Y-4.016 Z-2.34
X-10.917 Y-3.987 Z-2.388
X-10.921 Y-3.956 Z-2.436
X-10.939 Y-3.931 Z-2.484
X-10.967 Y-3.918 Z-2.531
X-10.998 Y-3.92 Z-2.579
X-11.024 Y-3.936 Z-2.627
X-11.039 Y-3.963 Z-2.675
X-11.04 Y-3.994 Z-2.722
X-11.026 Y-4.021 Z-2.77
X-11 Y-4.038 Z-2.818
X-10.969 Y-4.041 Z-2.866
X-10.941 Y-4.028 Z-2.913
X-10.922 Y-4.004 Z-2.961
X-10.917 Y-3.973 Z-3.009
X-10.927 Y-3.944 Z-3.057
X-10.951 Y-3.924 Z-3.104
X-10.981 Y-3.917 Z-3.152
X-11.01 Y-3.925 Z-3.2
G3 X-10.948 Y-4.033 I0.031 J-0.054
X-11.01 Y-3.925 I-0.031 J0.054
G1 X-11.022 Y-3.936
X-11.026 Y-3.952
X-11.022 Y-3.968
X-10.979 Y-3.979
G0 Z5
Y-28.021
Z1.683
G1 Z0 F1000
X-10.948 Y-28.052
X-10.932 Y-28.048
X-10.921 Y-28.036
X-10.917 Y-28.021
X-10.924 Y-27.991 Z-0.048
X-10.945 Y-27.968 Z-0.096
X-10.975 Y-27.958 Z-0.143
X-11.005 Y-27.964 Z-0.191
X-11.029 Y-27.983 Z-0.239
X-11.041 Y-28.012 Z-0.287
X-11.038 Y-28.043 Z-0.334
X-11.02 Y-28.068 Z-0.382
X-10.992 Y-28.082 Z-0.43
X-10.961 Y-28.081 Z-0.478
X-10.935 Y-28.065 Z-0.525
X-10.919 Y-28.038 Z-0.573
X-10.918 Y-28.007 Z-0.621
X-10.932 Y-27.98 Z-0.669
X-10.958 Y-27.962 Z-0.716
X-10.988 Y-27.959 Z-0.764
X-11.017 Y-27.971 Z-0.812
X-11.036 Y-27.995 Z-0.86
X-11.041 Y-28.026 Z-0.907
X-11.032 Y-28.055 Z-0.955
X-11.009 Y-28.076 Z-1.003
X-10.979 Y-28.083 Z-1.051
X-10.949 Y-28.075 Z-1.099
X-10.926 Y-28.054 Z-1.146
X-10.917 Y-28.025 Z-1.194
X-10.923 Y-27.994 Z-1.242
X-10.942 Y-27.97 Z-1.29
X-10.971 Y-27.959 Z-1.337
X-11.002 Y-27.962 Z-1.385
X-11.027 Y-27.98 Z-1.433
X-11.04 Y-28.008 Z-1.481
X-11.039 Y-28.039 Z-1.528
X-11.023 Y-28.066 Z-1.576
X-10.996 Y-28.081 Z-1.624
X-10.965 Y-28.082 Z-1.672
X-10.938 Y-28.068 Z-1.719
X-10.92 Y-28.042 Z-1.767
X-10.917 Y-28.011 Z-1.815
X-10.93 Y-27.983 Z-1.863
X-10.954 Y-27.964 Z-1.91
X-10.985 Y-27.959 Z-1.958
X-11.014 Y-27.969 Z-2.006
X-11.034 Y-27.992 Z-2.054
X-11.042 Y-28.022 Z-2.101
X-11.034 Y-28.052 Z-2.149
X-11.012 Y-28.074 Z-2.197
X-10.983 Y-28.083 Z-2.245
X-10.952 Y-28.077 Z-2.293
X-10.929 Y-28.057 Z-2.34
X-10.917 Y-28.029 Z-2.388
X-10.921 Y-27.998 Z-2.436
X-10.939 Y-27.973 Z-2.484
X-10.967 Y-27.96 Z-2.531
X-10.998 Y-27.961 Z-2.579
X-11.024 Y-27.977 Z-2.627
X-11.039 Y-28.004 Z-2.675
X-11.04 Y-28.035 Z-2.722
X-11.026 Y-28.063 Z-2.77
X-11 Y-28.08 Z-2.818
X-10.969 Y-28.082 Z-2.866
X-10.941 Y-28.07 Z-2.913
X-10.922 Y-28.046 Z-2.961
X-10.917 Y-28.015 Z-3.009
X-10.927 Y-27.986 Z-3.057
X-10.951 Y-27.965 Z-3.104
X-10.981 Y-27.958 Z-3.152
X-11.01 Y-27.967 Z-3.2
G3 X-10.948 Y-28.075 I0.031 J-0.054
X-11.01 Y-27.967 I-0.031 J0.054
G1 X-11.022 Y-27.978
X-11.026 Y-27.994
X-11.022 Y-28.009
X-10.979 Y-28.021
G0 Z5
X-21.662 Y-13.727
Z2
G1 Z0.317 F1000
X-21.658 Y-13.72 Z0.247
X-21.649 Y-13.698 Z0.18
X-21.634 Y-13.663 Z0.12
X-21.614 Y-13.617 Z0.069
X-21.59 Y-13.562 Z0.031
X-21.563 Y-13.501 Z0.008
X-21.535 Y-13.436 Z0
X-21.471 Y-13.29
G3 X-21.635 Y-12.872 I-0.291 J0.127
X-24.365 Y-19.128 Z-0.3 I-1.365 J-3.128
X-21.635 Y-12.872 Z-0.6 I1.365 J3.128
X-24.365 Y-19.128 Z-0.9 I-1.365 J-3.128
X-21.635 Y-12.872 Z-1.2 I1.365 J3.128
X-24.365 Y-19.128 Z-1.5 I-1.365 J-3.128
X-21.635 Y-12.872 Z-1.8 I1.365 J3.128
X-24.365 Y-19.128 Z-2.1 I-1.365 J-3.128
X-21.635 Y-12.872 Z-2.4 I1.365 J3.128
X-24.365 Y-19.128 Z-2.7 I-1.365 J-3.128
X-21.635 Y-12.872 Z-3 I1.365 J3.128
X-26.391 Y-16.382 Z-3.2 I-1.365 J-3.128
X-19.609 Y-15.618 I3.391 J0.382
X-26.391 Y-16.382 I-3.391 J-0.382
X-26.04 Y-16.662 I0.316 J0.036
G1 X-25.882 Y-16.644
X-25.812 Y-16.636 Z-3.192
X-25.745 Y-16.629 Z-3.169
X-25.686 Y-16.622 Z-3.131
X-25.636 Y-16.616 Z-3.08
X-25.598 Y-16.612 Z-3.02
X-25.575 Y-16.609 Z-2.953
X-25.567 Y-16.608 Z-2.882
G0 Z5
X-35.021 Y-28.021
Z1.683
G1 Z0 F1000
X-34.99 Y-28.052
X-34.974 Y-28.048
X-34.963 Y-28.036
X-34.958 Y-28.021
X-34.966 Y-27.991 Z-0.048
X-34.987 Y-27.968 Z-0.096
X-35.016 Y-27.958 Z-0.143
X-35.047 Y-27.964 Z-0.191
X-35.071 Y-27.983 Z-0.239
X-35.083 Y-28.012 Z-0.287
X-35.079 Y-28.043 Z-0.334
X-35.062 Y-28.068 Z-0.382
X-35.034 Y-28.082 Z-0.43
X-35.003 Y-28.081 Z-0.478
X-34.976 Y-28.065 Z-0.525
X-34.961 Y-28.038 Z-0.573
X-34.96 Y-28.007 Z-0.621
X-34.974 Y-27.98 Z-0.669
X-34.999 Y-27.962 Z-0.716
X-35.03 Y-27.959 Z-0.764
X-35.059 Y-27.971 Z-0.812
X-35.078 Y-27.995 Z-0.86
X-35.083 Y-28.026 Z-0.907
X-35.073 Y-28.055 Z-0.955
X-35.05 Y-28.076 Z-1.003
X-35.02 Y-28.083 Z-1.051
X-34.99 Y-28.075 Z-1.099
X-34.968 Y-28.054 Z-1.146
X-34.958 Y-28.025 Z-1.194
X-34.964 Y-27.994 Z-1.242
X-34.984 Y-27.97 Z-1.29
X-35.013 Y-27.959 Z-1.337
X-35.043 Y-27.962 Z-1.385
X-35.068 Y-27.98 Z-1.433
X-35.082 Y-28.008 Z-1.481
X-35.081 Y-28.039 Z-1.528
X-35.064 Y-28.066 Z-1.576
X-35.038 Y-28.081 Z-1.624
X-35.007 Y-28.082 Z-1.672
X-34.979 Y-28.068 Z-1.719
X-34.962 Y-28.042 Z-1.767
X-34.959 Y-28.011 Z-1.815
X-34.971 Y-27.983 Z-1.863
X-34.996 Y-27.964 Z-1.91
X-35.026 Y-27.959 Z-1.958
X-35.055 Y-27.969 Z-2.006
X-35.076 Y-27.992 Z-2.054
X-35.083 Y-28.022 Z-2.101
X-35.075 Y-28.052 Z-2.149
X-35.054 Y-28.074 Z-2.197
X-35.024 Y-28.083 Z-2.245
X-34.994 Y-28.077 Z-2.293
X-34.97 Y-28.057 Z-2.34
X-34.959 Y-28.029 Z-2.388
X-34.963 Y-27.998 Z-2.436
X-34.981 Y-27.973 Z-2.484
X-35.009 Y-27.96 Z-2.531
X-35.04 Y-27.961 Z-2.579
X-35.066 Y-27.977 Z-2.627
X-35.081 Y-28.004 Z-2.675
X-35.082 Y-28.035 Z-2.722
X-35.067 Y-28.063 Z-2.77
X-35.041 Y-28.08 Z-2.818
X-35.011 Y-28.082 Z-2.866
X-34.982 Y-28.07 Z-2.913
X-34.963 Y-28.046 Z-2.961
X-34.959 Y-28.015 Z-3.009
X-34.969 Y-27.986 Z-3.057
X-34.992 Y-27.965 Z-3.104
X-35.022 Y-27.958 Z-3.152
X-35.052 Y-27.967 Z-3.2
G3 X-34.99 Y-28.075 I0.031 J-0.054
X-35.052 Y-27.967 I-0.031 J0.054
G1 X-35.064 Y-27.978
X-35.068 Y-27.994
X-35.064 Y-28.009
X-35.021 Y-28.021
G0 Z15

(2D-Kontur32)
X-29.475 Y-9.613
Z15
Z5
G1 Z2.5 F333.3
S5000
X-28.701 Y-10.387 Z2.462
X-28.678 Y-10.402 Z2.461
X-28.65 Y-10.405 Z2.46
X-28.624 Y-10.396 Z2.459
X-28.604 Y-10.376 Z2.458
X-28.595 Y-10.35 Z2.457
X-28.598 Y-10.322 Z2.456
X-28.613 Y-10.299 Z2.455
X-29.673 Y-9.238 Z2.403
X-29.697 Y-9.224 Z2.402
X-29.724 Y-9.22 Z2.401
X-29.751 Y-9.23 Z2.4
X-29.77 Y-9.249 Z2.399
X-29.78 Y-9.275 Z2.398
X-29.776 Y-9.303 Z2.397
X-29.762 Y-9.327 Z2.396
X-28.701 Y-10.387 Z2.343
X-28.678 Y-10.402 Z2.342
X-28.65 Y-10.405 Z2.341
X-28.624 Y-10.396 Z2.34
X-28.604 Y-10.376 Z2.339
X-28.595 Y-10.35 Z2.338
X-28.598 Y-10.322 Z2.337
X-28.613 Y-10.299 Z2.336
X-29.673 Y-9.238 Z2.284
X-29.697 Y-9.224 Z2.283
X-29.724 Y-9.22 Z2.282
X-29.751 Y-9.23 Z2.281
X-29.77 Y-9.249 Z2.28
X-29.78 Y-9.275 Z2.279
X-29.776 Y-9.303 Z2.278
X-29.762 Y-9.327 Z2.277
X-28.701 Y-10.387 Z2.225
X-28.678 Y-10.402 Z2.224
X-28.65 Y-10.405 Z2.223
X-28.624 Y-10.396 Z2.222
X-28.604 Y-10.376 Z2.221
X-28.595 Y-10.35 Z2.22
X-28.598 Y-10.322 Z2.219
X-28.613 Y-10.299 Z2.218
X-29.673 Y-9.238 Z2.166
X-29.697 Y-9.224 Z2.165
X-29.724 Y-9.22 Z2.164
X-29.751 Y-9.23 Z2.163
X-29.77 Y-9.249 Z2.162
X-29.78 Y-9.275 Z2.161
X-29.776 Y-9.303 Z2.16
X-29.762 Y-9.327 Z2.159
X-28.701 Y-10.387 Z2.106
X-28.678 Y-10.402 Z2.105
X-28.65 Y-10.405 Z2.104
X-28.624 Y-10.396 Z2.103
X-28.604 Y-10.376 Z2.102
X-28.595 Y-10.35 Z2.101
X-28.598 Y-10.322 Z2.1
X-28.613 Y-10.299 Z2.099
X-29.673 Y-9.238 Z2.047
X-29.697 Y-9.224 Z2.046
X-29.724 Y-9.22 Z2.045
X-29.751 Y-9.23 Z2.044
X-29.77 Y-9.249 Z2.043
X-29.78 Y-9.275 Z2.042
X-29.776 Y-9.303 Z2.041
X-29.762 Y-9.327 Z2.04
X-28.701 Y-10.387 Z1.988
X-28.678 Y-10.402 Z1.987
X-28.65 Y-10.405 Z1.986
X-28.624 Y-10.396 Z1.985
X-28.604 Y-10.376 Z1.984
X-28.595 Y-10.35 Z1.983
X-28.598 Y-10.322 Z1.982
X-28.613 Y-10.299 Z1.981
X-29.673 Y-9.238 Z1.929
X-29.697 Y-9.224 Z1.928
X-29.724 Y-9.22 Z1.927
X-29.751 Y-9.23 Z1.926
X-29.77 Y-9.249 Z1.925
X-29.78 Y-9.275 Z1.924
X-29.776 Y-9.303 Z1.923
X-29.762 Y-9.327 Z1.922
X-28.701 Y-10.387 Z1.869
X-28.678 Y-10.402 Z1.868
X-28.65 Y-10.405 Z1.867
X-28.624 Y-10.396 Z1.866
X-28.604 Y-10.376 Z1.865
X-28.595 Y-10.35
X-28.598 Y-10.322 Z1.864
X-28.613 Y-10.299 Z1.863
X-29.673 Y-9.238 Z1.81
X-29.697 Y-9.224 Z1.809
X-29.724 Y-9.22 Z1.808
X-29.751 Y-9.23 Z1.807
X-29.77 Y-9.249 Z1.806
X-29.78 Y-9.275 Z1.805
X-29.776 Y-9.303 Z1.804
X-29.762 Y-9.327 Z1.803
X-28.701 Y-10.387 Z1.751
X-28.678 Y-10.402 Z1.75
X-28.65 Y-10.405 Z1.749
X-28.624 Y-10.396 Z1.748
X-28.604 Y-10.376 Z1.747
X-28.595 Y-10.35 Z1.746
X-28.598 Y-10.322 Z1.745
X-28.613 Y-10.299 Z1.744
X-29.673 Y-9.238 Z1.692
X-29.697 Y-9.224 Z1.691
X-29.724 Y-9.22 Z1.69
X-29.751 Y-9.23 Z1.689
X-29.77 Y-9.249 Z1.688
X-29.78 Y-9.275 Z1.687
X-29.776 Y-9.303 Z1.686
X-29.762 Y-9.327 Z1.685
X-28.701 Y-10.387 Z1.632
X-28.678 Y-10.402 Z1.631
X-28.65 Y-10.405
X-28.624 Y-10.396 Z1.63
X-28.604 Y-10.376 Z1.629
X-28.595 Y-10.35 Z1.628
X-28.598 Y-10.322 Z1.627
X-28.613 Y-10.299 Z1.626
X-29.673 Y-9.238 Z1.573
X-29.697 Y-9.224 Z1.572
X-29.724 Y-9.22 Z1.571
X-29.751 Y-9.23 Z1.57
X-29.77 Y-9.249 Z1.569
X-29.78 Y-9.275 Z1.568
X-29.776 Y-9.303 Z1.567
X-29.762 Y-9.327 Z1.566
X-28.701 Y-10.387 Z1.514
X-28.678 Y-10.402 Z1.513
X-28.65 Y-10.405 Z1.512
X-28.624 Y-10.396 Z1.511
X-28.604 Y-10.376 Z1.51
X-28.595 Y-10.35 Z1.509
X-28.598 Y-10.322 Z1.508
X-28.613 Y-10.299 Z1.507
X-29.673 Y-9.238 Z1.455
X-29.697 Y-9.224 Z1.454
X-29.724 Y-9.22 Z1.453
X-29.751 Y-9.23 Z1.452
X-29.77 Y-9.249 Z1.451
X-29.78 Y-9.275 Z1.45
X-29.776 Y-9.303 Z1.449
X-29.762 Y-9.327 Z1.448
X-28.701 Y-10.387 Z1.396
X-28.678 Y-10.402 Z1.395
X-28.65 Y-10.405 Z1.394
X-28.624 Y-10.396 Z1.393
X-28.604 Y-10.376 Z1.392
X-28.595 Y-10.35 Z1.391
X-28.598 Y-10.322 Z1.39
X-28.613 Y-10.299 Z1.389
X-29.673 Y-9.238 Z1.336
X-29.697 Y-9.224 Z1.335
X-29.724 Y-9.22 Z1.334
X-29.751 Y-9.23 Z1.333
X-29.77 Y-9.249 Z1.332
X-29.78 Y-9.275 Z1.331
X-29.776 Y-9.303 Z1.33
X-29.762 Y-9.327 Z1.329
X-28.701 Y-10.387 Z1.277
X-28.678 Y-10.402 Z1.276
X-28.65 Y-10.405 Z1.275
X-28.624 Y-10.396 Z1.274
X-28.604 Y-10.376 Z1.273
X-28.595 Y-10.35 Z1.272
X-28.598 Y-10.322 Z1.271
X-28.613 Y-10.299 Z1.27
X-29.673 Y-9.238 Z1.218
X-29.697 Y-9.224 Z1.217
X-29.724 Y-9.22 Z1.216
X-29.751 Y-9.23 Z1.215
X-29.77 Y-9.249 Z1.214
X-29.78 Y-9.275 Z1.213
X-29.776 Y-9.303 Z1.212
X-29.762 Y-9.327 Z1.211
X-28.701 Y-10.387 Z1.159
X-28.678 Y-10.402 Z1.158
X-28.65 Y-10.405 Z1.157
X-28.624 Y-10.396 Z1.156
X-28.604 Y-10.376 Z1.155
X-28.595 Y-10.35 Z1.154
X-28.598 Y-10.322 Z1.153
X-28.613 Y-10.299 Z1.152
X-29.673 Y-9.238 Z1.099
X-29.697 Y-9.224 Z1.098
X-29.724 Y-9.22 Z1.097
X-29.751 Y-9.23 Z1.096
X-29.77 Y-9.249 Z1.095
X-29.78 Y-9.275 Z1.094
X-29.776 Y-9.303 Z1.093
X-29.762 Y-9.327 Z1.092
X-28.701 Y-10.387 Z1.04
X-28.678 Y-10.402 Z1.039
X-28.65 Y-10.405 Z1.038
X-28.624 Y-10.396 Z1.037
X-28.604 Y-10.376 Z1.036
X-28.595 Y-10.35 Z1.035
X-28.598 Y-10.322 Z1.034
X-28.613 Y-10.299 Z1.033
X-29.673 Y-9.238 Z0.981
X-29.697 Y-9.224 Z0.98
X-29.724 Y-9.22 Z0.979
X-29.751 Y-9.23 Z0.978
X-29.77 Y-9.249 Z0.977
X-29.78 Y-9.275 Z0.976
X-29.776 Y-9.303 Z0.975
X-29.762 Y-9.327 Z0.974
X-28.701 Y-10.387 Z0.922
X-28.678 Y-10.402 Z0.921
X-28.65 Y-10.405 Z0.92
X-28.624 Y-10.396 Z0.919
X-28.604 Y-10.376 Z0.918
X-28.595 Y-10.35 Z0.917
X-28.598 Y-10.322 Z0.916
X-28.613 Y-10.299 Z0.915
X-29.673 Y-9.238 Z0.862
X-29.697 Y-9.224 Z0.861
X-29.724 Y-9.22 Z0.86
X-29.751 Y-9.23 Z0.859
X-29.77 Y-9.249 Z0.858
X-29.78 Y-9.275
X-29.776 Y-9.303 Z0.857
X-29.762 Y-9.327 Z0.856
X-28.701 Y-10.387 Z0.803
X-28.678 Y-10.402 Z0.802
X-28.65 Y-10.405 Z0.801
X-28.624 Y-10.396 Z0.8
X-28.604 Y-10.376 Z0.799
X-28.595 Y-10.35 Z0.798
X-28.598 Y-10.322 Z0.797
X-28.613 Y-10.299 Z0.796
X-29.673 Y-9.238 Z0.744
X-29.697 Y-9.224 Z0.743
X-29.724 Y-9.22 Z0.742
X-29.751 Y-9.23 Z0.741
X-29.77 Y-9.249 Z0.74
X-29.78 Y-9.275 Z0.739
X-29.776 Y-9.303 Z0.738
X-29.762 Y-9.327 Z0.737
X-28.701 Y-10.387 Z0.685
X-28.678 Y-10.402 Z0.684
X-28.65 Y-10.405 Z0.683
X-28.624 Y-10.396 Z0.682
X-28.604 Y-10.376 Z0.681
X-28.595 Y-10.35 Z0.68
X-28.598 Y-10.322 Z0.679
X-28.613 Y-10.299 Z0.678
X-29.673 Y-9.238 Z0.625
X-29.697 Y-9.224 Z0.624
X-29.724 Y-9.22
X-29.751 Y-9.23 Z0.623
X-29.77 Y-9.249 Z0.622
X-29.78 Y-9.275 Z0.621
X-29.776 Y-9.303 Z0.62
X-29.762 Y-9.327 Z0.619
X-28.701 Y-10.387 Z0.566
X-28.678 Y-10.402 Z0.565
X-28.65 Y-10.405 Z0.564
X-28.624 Y-10.396 Z0.563
X-28.604 Y-10.376 Z0.562
X-28.595 Y-10.35 Z0.561
X-28.598 Y-10.322 Z0.56
X-28.613 Y-10.299 Z0.559
X-29.673 Y-9.238 Z0.507
X-29.697 Y-9.224 Z0.506
X-29.724 Y-9.22 Z0.505
X-29.751 Y-9.23 Z0.504
X-29.77 Y-9.249 Z0.503
X-29.78 Y-9.275 Z0.502
X-29.776 Y-9.303 Z0.501
X-29.762 Y-9.327 Z0.5
X-28.701 Y-10.387 Z0.448
X-28.678 Y-10.402 Z0.447
X-28.65 Y-10.405 Z0.446
X-28.624 Y-10.396 Z0.445
X-28.604 Y-10.376 Z0.444
X-28.595 Y-10.35 Z0.443
X-28.598 Y-10.322 Z0.442
X-28.613 Y-10.299 Z0.441
X-29.673 Y-9.238 Z0.389
X-29.697 Y-9.224 Z0.388
X-29.724 Y-9.22 Z0.387
X-29.751 Y-9.23 Z0.386
X-29.77 Y-9.249 Z0.385
X-29.78 Y-9.275 Z0.384
X-29.776 Y-9.303 Z0.383
X-29.762 Y-9.327 Z0.382
X-28.701 Y-10.387 Z0.329
X-28.678 Y-10.402 Z0.328
X-28.65 Y-10.405 Z0.327
X-28.624 Y-10.396 Z0.326
X-28.604 Y-10.376 Z0.325
X-28.595 Y-10.35 Z0.324
X-28.598 Y-10.322 Z0.323
X-28.613 Y-10.299 Z0.322
X-29.673 Y-9.238 Z0.27
X-29.697 Y-9.224 Z0.269
X-29.724 Y-9.22 Z0.268
X-29.751 Y-9.23 Z0.267
X-29.77 Y-9.249 Z0.266
X-29.78 Y-9.275 Z0.265
X-29.776 Y-9.303 Z0.264
X-29.762 Y-9.327 Z0.263
X-28.701 Y-10.387 Z0.211
X-28.678 Y-10.402 Z0.21
X-28.65 Y-10.405 Z0.209
X-28.624 Y-10.396 Z0.208
X-28.604 Y-10.376 Z0.207
X-28.595 Y-10.35 Z0.206
X-28.598 Y-10.322 Z0.205
X-28.613 Y-10.299 Z0.204
X-29.673 Y-9.238 Z0.152
X-29.697 Y-9.224 Z0.151
X-29.724 Y-9.22 Z0.15
X-29.751 Y-9.23 Z0.149
X-29.77 Y-9.249 Z0.148
X-29.78 Y-9.275 Z0.147
X-29.776 Y-9.303 Z0.146
X-29.762 Y-9.327 Z0.145
X-28.701 Y-10.387 Z0.092
X-28.678 Y-10.402 Z0.091
X-28.65 Y-10.405 Z0.09
X-28.624 Y-10.396 Z0.089
X-28.604 Y-10.376 Z0.088
X-28.595 Y-10.35 Z0.087
X-28.598 Y-10.322 Z0.086
X-28.613 Y-10.299 Z0.085
X-29.673 Y-9.238 Z0.033
X-29.697 Y-9.224 Z0.032
X-29.724 Y-9.22 Z0.031
X-29.751 Y-9.23 Z0.03
X-29.77 Y-9.249 Z0.029
X-29.78 Y-9.275 Z0.028
X-29.776 Y-9.303 Z0.027
X-29.762 Y-9.327 Z0.026
X-28.701 Y-10.387 Z-0.026
X-28.678 Y-10.402 Z-0.027
X-28.65 Y-10.405 Z-0.028
X-28.624 Y-10.396 Z-0.029
X-28.604 Y-10.376 Z-0.03
X-28.595 Y-10.35 Z-0.031
X-28.598 Y-10.322 Z-0.032
X-28.613 Y-10.299 Z-0.033
X-29.673 Y-9.238 Z-0.085
X-29.697 Y-9.224 Z-0.086
X-29.724 Y-9.22 Z-0.087
X-29.751 Y-9.23 Z-0.088
X-29.77 Y-9.249 Z-0.089
X-29.78 Y-9.275 Z-0.09
X-29.776 Y-9.303 Z-0.091
X-29.762 Y-9.327 Z-0.092
X-28.701 Y-10.387 Z-0.145
X-28.678 Y-10.402 Z-0.146
X-28.65 Y-10.405 Z-0.147
X-28.624 Y-10.396 Z-0.148
X-28.604 Y-10.376 Z-0.149
X-28.595 Y-10.35
X-28.598 Y-10.322 Z-0.15
X-28.613 Y-10.299 Z-0.151
X-29.673 Y-9.238 Z-0.204
X-29.697 Y-9.224 Z-0.205
X-29.724 Y-9.22 Z-0.206
X-29.751 Y-9.23 Z-0.207
X-29.77 Y-9.249 Z-0.208
X-29.78 Y-9.275 Z-0.209
X-29.776 Y-9.303 Z-0.21
X-29.762 Y-9.327 Z-0.211
X-28.701 Y-10.387 Z-0.263
X-28.678 Y-10.402 Z-0.264
X-28.65 Y-10.405 Z-0.265
X-28.624 Y-10.396 Z-0.266
X-28.604 Y-10.376 Z-0.267
X-28.595 Y-10.35 Z-0.268
X-28.598 Y-10.322 Z-0.269
X-28.613 Y-10.299 Z-0.27
X-29.673 Y-9.238 Z-0.322
X-29.697 Y-9.224 Z-0.323
X-29.724 Y-9.22 Z-0.324
X-29.751 Y-9.23 Z-0.325
X-29.77 Y-9.249 Z-0.326
X-29.78 Y-9.275 Z-0.327
X-29.776 Y-9.303 Z-0.328
X-29.762 Y-9.327 Z-0.329
X-28.701 Y-10.387 Z-0.382
X-28.678 Y-10.402 Z-0.383
X-28.65 Y-10.405
X-28.624 Y-10.396 Z-0.384
X-28.604 Y-10.376 Z-0.385
X-28.595 Y-10.35 Z-0.386
X-28.598 Y-10.322 Z-0.387
X-28.613 Y-10.299 Z-0.388
X-29.673 Y-9.238 Z-0.441
X-29.697 Y-9.224 Z-0.442
X-29.724 Y-9.22 Z-0.443
X-29.751 Y-9.23 Z-0.444
X-29.77 Y-9.249 Z-0.445
X-29.78 Y-9.275 Z-0.446
X-29.776 Y-9.303 Z-0.447
X-29.762 Y-9.327 Z-0.448
X-28.701 Y-10.387 Z-0.5
S6000
X-28.678 Y-10.402 F1000
X-28.65 Y-10.405
X-28.624 Y-10.396
X-28.604 Y-10.376
X-28.595 Y-10.35
X-28.598 Y-10.322
X-28.613 Y-10.299
X-29.673 Y-9.238
X-29.697 Y-9.224
X-29.724 Y-9.22
X-29.751 Y-9.23
X-29.77 Y-9.249
X-29.78 Y-9.275
X-29.776 Y-9.303
X-29.762 Y-9.327
X-28.701 Y-10.387
S5000
X-28.678 Y-10.402 Z-0.501 F333.3
X-28.65 Y-10.405 Z-0.502
X-28.624 Y-10.396 Z-0.503
X-28.604 Y-10.376 Z-0.504
X-28.595 Y-10.35 Z-0.505
X-28.598 Y-10.322 Z-0.506
X-28.613 Y-10.299 Z-0.507
X-29.673 Y-9.238 Z-0.559
X-29.697 Y-9.224 Z-0.56
X-29.724 Y-9.22 Z-0.561
X-29.751 Y-9.23 Z-0.562
X-29.77 Y-9.249 Z-0.563
X-29.78 Y-9.275 Z-0.564
X-29.776 Y-9.303 Z-0.565
X-29.762 Y-9.327 Z-0.566
X-28.701 Y-10.387 Z-0.618
X-28.678 Y-10.402 Z-0.619
X-28.65 Y-10.405 Z-0.62
X-28.624 Y-10.396 Z-0.621
X-28.604 Y-10.376 Z-0.622
X-28.595 Y-10.35 Z-0.623
X-28.598 Y-10.322 Z-0.624
X-28.613 Y-10.299 Z-0.625
X-29.673 Y-9.238 Z-0.678
X-29.697 Y-9.224 Z-0.679
X-29.724 Y-9.22 Z-0.68
X-29.751 Y-9.23 Z-0.681
X-29.77 Y-9.249 Z-0.682
X-29.78 Y-9.275 Z-0.683
X-29.776 Y-9.303 Z-0.684
X-29.762 Y-9.327 Z-0.685
X-28.701 Y-10.387 Z-0.737
X-28.678 Y-10.402 Z-0.738
X-28.65 Y-10.405 Z-0.739
X-28.624 Y-10.396 Z-0.74
X-28.604 Y-10.376 Z-0.741
X-28.595 Y-10.35 Z-0.742
X-28.598 Y-10.322 Z-0.743
X-28.613 Y-10.299 Z-0.744
X-29.673 Y-9.238 Z-0.796
X-29.697 Y-9.224 Z-0.797
X-29.724 Y-9.22 Z-0.798
X-29.751 Y-9.23 Z-0.799
X-29.77 Y-9.249 Z-0.8
X-29.78 Y-9.275 Z-0.801
X-29.776 Y-9.303 Z-0.802
X-29.762 Y-9.327 Z-0.803
X-28.701 Y-10.387 Z-0.855
X-28.678 Y-10.402 Z-0.856
X-28.65 Y-10.405 Z-0.857
X-28.624 Y-10.396 Z-0.858
X-28.604 Y-10.376 Z-0.859
X-28.595 Y-10.35 Z-0.86
X-28.598 Y-10.322 Z-0.861
X-28.613 Y-10.299 Z-0.862
X-29.673 Y-9.238 Z-0.915
X-29.697 Y-9.224 Z-0.916
X-29.724 Y-9.22 Z-0.917
X-29.751 Y-9.23 Z-0.918
X-29.77 Y-9.249 Z-0.919
X-29.78 Y-9.275 Z-0.92
X-29.776 Y-9.303 Z-0.921
X-29.762 Y-9.327 Z-0.922
X-28.701 Y-10.387 Z-0.974
X-28.678 Y-10.402 Z-0.975
X-28.65 Y-10.405 Z-0.976
X-28.624 Y-10.396 Z-0.977
X-28.604 Y-10.376 Z-0.978
X-28.595 Y-10.35 Z-0.979
X-28.598 Y-10.322 Z-0.98
X-28.613 Y-10.299 Z-0.981
X-29.003 Y-9.909 Z-1
S6000
X-29.673 Y-9.238 F1000
X-29.697 Y-9.224
X-29.724 Y-9.22
X-29.751 Y-9.23
X-29.77 Y-9.249
X-29.78 Y-9.275
X-29.776 Y-9.303
X-29.762 Y-9.327
X-28.701 Y-10.387
X-28.678 Y-10.402
X-28.65 Y-10.405
X-28.624 Y-10.396
X-28.604 Y-10.376
X-28.595 Y-10.35
X-28.598 Y-10.322
X-28.613 Y-10.299
X-29.003 Y-9.909
S5000
X-29.673 Y-9.238 Z-1.033 F333.3
X-29.697 Y-9.224 Z-1.034
X-29.724 Y-9.22 Z-1.035
X-29.751 Y-9.23 Z-1.036
X-29.77 Y-9.249 Z-1.037
X-29.78 Y-9.275 Z-1.038
X-29.776 Y-9.303 Z-1.039
X-29.762 Y-9.327 Z-1.04
X-28.701 Y-10.387 Z-1.092
X-28.678 Y-10.402 Z-1.093
X-28.65 Y-10.405 Z-1.094
X-28.624 Y-10.396 Z-1.095
X-28.604 Y-10.376 Z-1.096
X-28.595 Y-10.35 Z-1.097
X-28.598 Y-10.322 Z-1.098
X-28.613 Y-10.299 Z-1.099
X-29.673 Y-9.238 Z-1.152
X-29.697 Y-9.224 Z-1.153
X-29.724 Y-9.22 Z-1.154
X-29.751 Y-9.23 Z-1.155
X-29.77 Y-9.249 Z-1.156
X-29.78 Y-9.275
X-29.776 Y-9.303 Z-1.157
X-29.762 Y-9.327 Z-1.158
X-28.701 Y-10.387 Z-1.211
X-28.678 Y-10.402 Z-1.212
X-28.65 Y-10.405 Z-1.213
X-28.624 Y-10.396 Z-1.214
X-28.604 Y-10.376 Z-1.215
X-28.595 Y-10.35 Z-1.216
X-28.598 Y-10.322 Z-1.217
X-28.613 Y-10.299 Z-1.218
X-29.673 Y-9.238 Z-1.27
X-29.697 Y-9.224 Z-1.271
X-29.724 Y-9.22 Z-1.272
X-29.751 Y-9.23 Z-1.273
X-29.77 Y-9.249 Z-1.274
X-29.78 Y-9.275 Z-1.275
X-29.776 Y-9.303 Z-1.276
X-29.762 Y-9.327 Z-1.277
X-28.701 Y-10.387 Z-1.329
X-28.678 Y-10.402 Z-1.33
X-28.65 Y-10.405 Z-1.331
X-28.624 Y-10.396 Z-1.332
X-28.604 Y-10.376 Z-1.333
X-28.595 Y-10.35 Z-1.334
X-28.598 Y-10.322 Z-1.335
X-28.613 Y-10.299 Z-1.336
X-29.673 Y-9.238 Z-1.389
X-29.697 Y-9.224 Z-1.39
X-29.724 Y-9.22
X-29.751 Y-9.23 Z-1.391
X-29.77 Y-9.249 Z-1.392
X-29.78 Y-9.275 Z-1.393
X-29.776 Y-9.303 Z-1.394
X-29.762 Y-9.327 Z-1.395
X-28.701 Y-10.387 Z-1.448
X-28.678 Y-10.402 Z-1.449
X-28.65 Y-10.405 Z-1.45
X-28.624 Y-10.396 Z-1.451
X-28.604 Y-10.376 Z-1.452
X-28.595 Y-10.35 Z-1.453
X-28.598 Y-10.322 Z-1.454
X-28.613 Y-10.299 Z-1.455
X-29.532 Y-9.38 Z-1.5
S6000
X-29.673 Y-9.238 F1000
X-29.697 Y-9.224
X-29.724 Y-9.22
X-29.751 Y-9.23
X-29.77 Y-9.249
X-29.78 Y-9.275
X-29.776 Y-9.303
X-29.762 Y-9.327
X-28.701 Y-10.387
X-28.678 Y-10.402
X-28.65 Y-10.405
X-28.624 Y-10.396
X-28.604 Y-10.376
X-28.595 Y-10.35
X-28.598 Y-10.322
X-28.613 Y-10.299
X-29.532 Y-9.38
S5000
X-29.673 Y-9.238 Z-1.507 F333.3
X-29.697 Y-9.224 Z-1.508
X-29.724 Y-9.22 Z-1.509
X-29.751 Y-9.23 Z-1.51
X-29.77 Y-9.249 Z-1.511
X-29.78 Y-9.275 Z-1.512
X-29.776 Y-9.303 Z-1.513
X-29.762 Y-9.327 Z-1.514
X-28.701 Y-10.387 Z-1.566
X-28.678 Y-10.402 Z-1.567
X-28.65 Y-10.405 Z-1.568
X-28.624 Y-10.396 Z-1.569
X-28.604 Y-10.376 Z-1.57
X-28.595 Y-10.35 Z-1.571
X-28.598 Y-10.322 Z-1.572
X-28.613 Y-10.299 Z-1.573
X-29.673 Y-9.238 Z-1.625
X-29.697 Y-9.224 Z-1.626
X-29.724 Y-9.22 Z-1.627
X-29.751 Y-9.23 Z-1.628
X-29.77 Y-9.249 Z-1.629
X-29.78 Y-9.275 Z-1.63
X-29.776 Y-9.303 Z-1.631
X-29.762 Y-9.327 Z-1.632
X-28.701 Y-10.387 Z-1.685
X-28.678 Y-10.402 Z-1.686
X-28.65 Y-10.405 Z-1.687
X-28.624 Y-10.396 Z-1.688
X-28.604 Y-10.376 Z-1.689
X-28.595 Y-10.35 Z-1.69
X-28.598 Y-10.322 Z-1.691
X-28.613 Y-10.299 Z-1.692
X-29.673 Y-9.238 Z-1.744
X-29.697 Y-9.224 Z-1.745
X-29.724 Y-9.22 Z-1.746
X-29.751 Y-9.23 Z-1.747
X-29.77 Y-9.249 Z-1.748
X-29.78 Y-9.275 Z-1.749
X-29.776 Y-9.303 Z-1.75
X-29.762 Y-9.327 Z-1.751
X-28.701 Y-10.387 Z-1.803
X-28.678 Y-10.402 Z-1.804
X-28.65 Y-10.405 Z-1.805
X-28.624 Y-10.396 Z-1.806
X-28.604 Y-10.376 Z-1.807
X-28.595 Y-10.35 Z-1.808
X-28.598 Y-10.322 Z-1.809
X-28.613 Y-10.299 Z-1.81
X-29.673 Y-9.238 Z-1.862
X-29.697 Y-9.224 Z-1.863
X-29.724 Y-9.22 Z-1.864
X-29.751 Y-9.23 Z-1.865
X-29.77 Y-9.249 Z-1.866
X-29.78 Y-9.275 Z-1.867
X-29.776 Y-9.303 Z-1.868
X-29.762 Y-9.327 Z-1.869
X-28.701 Y-10.387 Z-1.922
X-28.678 Y-10.402 Z-1.923
X-28.65 Y-10.405 Z-1.924
X-28.624 Y-10.396 Z-1.925
X-28.604 Y-10.376 Z-1.926
X-28.595 Y-10.35 Z-1.927
X-28.598 Y-10.322 Z-1.928
X-28.613 Y-10.299 Z-1.929
X-29.673 Y-9.238 Z-1.981
X-29.697 Y-9.224 Z-1.982
X-29.724 Y-9.22 Z-1.983
X-29.751 Y-9.23 Z-1.984
X-29.77 Y-9.249 Z-1.985
X-29.78 Y-9.275 Z-1.986
X-29.776 Y-9.303 Z-1.987
X-29.762 Y-9.327 Z-1.988
X-29.513 Y-9.575 Z-2
S6000
X-28.701 Y-10.387 F1000
X-28.678 Y-10.402
X-28.65 Y-10.405
X-28.624 Y-10.396
X-28.604 Y-10.376
X-28.595 Y-10.35
X-28.598 Y-10.322
X-28.613 Y-10.299
X-29.532 Y-9.38
X-29.673 Y-9.238
X-29.697 Y-9.224
X-29.724 Y-9.22
X-29.751 Y-9.23
X-29.77 Y-9.249
X-29.78 Y-9.275
X-29.776 Y-9.303
X-29.762 Y-9.327
X-29.513 Y-9.575
S5000
X-28.701 Y-10.387 Z-2.04 F333.3
X-28.678 Y-10.402 Z-2.041
X-28.65 Y-10.405 Z-2.042
X-28.624 Y-10.396 Z-2.043
X-28.604 Y-10.376 Z-2.044
X-28.595 Y-10.35 Z-2.045
X-28.598 Y-10.322 Z-2.046
X-28.613 Y-10.299 Z-2.047
X-29.673 Y-9.238 Z-2.099
X-29.697 Y-9.224 Z-2.1
X-29.724 Y-9.22 Z-2.101
X-29.751 Y-9.23 Z-2.102
X-29.77 Y-9.249 Z-2.103
X-29.78 Y-9.275 Z-2.104
X-29.776 Y-9.303 Z-2.105
X-29.762 Y-9.327 Z-2.106
X-28.701 Y-10.387 Z-2.159
X-28.678 Y-10.402 Z-2.16
X-28.65 Y-10.405 Z-2.161
X-28.624 Y-10.396 Z-2.162
X-28.604 Y-10.376 Z-2.163
X-28.595 Y-10.35
X-28.598 Y-10.322 Z-2.164
X-28.613 Y-10.299 Z-2.165
X-29.673 Y-9.238 Z-2.218
X-29.697 Y-9.224 Z-2.219
X-29.724 Y-9.22 Z-2.22
X-29.751 Y-9.23 Z-2.221
X-29.77 Y-9.249 Z-2.222
X-29.78 Y-9.275 Z-2.223
X-29.776 Y-9.303 Z-2.224
X-29.762 Y-9.327 Z-2.225
X-28.701 Y-10.387 Z-2.277
X-28.678 Y-10.402 Z-2.278
X-28.65 Y-10.405 Z-2.279
X-28.624 Y-10.396 Z-2.28
X-28.604 Y-10.376 Z-2.281
X-28.595 Y-10.35 Z-2.282
X-28.598 Y-10.322 Z-2.283
X-28.613 Y-10.299 Z-2.284
X-29.673 Y-9.238 Z-2.336
X-29.697 Y-9.224 Z-2.337
X-29.724 Y-9.22 Z-2.338
X-29.751 Y-9.23 Z-2.339
X-29.77 Y-9.249 Z-2.34
X-29.78 Y-9.275 Z-2.341
X-29.776 Y-9.303 Z-2.342
X-29.762 Y-9.327 Z-2.343
X-28.701 Y-10.387 Z-2.396
X-28.678 Y-10.402 Z-2.397
X-28.65 Y-10.405
X-28.624 Y-10.396 Z-2.398
X-28.604 Y-10.376 Z-2.399
X-28.595 Y-10.35 Z-2.4
X-28.598 Y-10.322 Z-2.401
X-28.613 Y-10.299 Z-2.402
X-29.673 Y-9.238 Z-2.455
X-29.697 Y-9.224 Z-2.456
X-29.724 Y-9.22 Z-2.457
X-29.751 Y-9.23 Z-2.458
X-29.77 Y-9.249 Z-2.459
X-29.78 Y-9.275 Z-2.46
X-29.776 Y-9.303 Z-2.461
X-29.762 Y-9.327 Z-2.462
X-28.985 Y-10.104 Z-2.5
S6000
X-28.701 Y-10.387 F1000
X-28.678 Y-10.402
X-28.65 Y-10.405
X-28.624 Y-10.396
X-28.604 Y-10.376
X-28.595 Y-10.35
X-28.598 Y-10.322
X-28.613 Y-10.299
X-29.673 Y-9.238
X-29.697 Y-9.224
X-29.724 Y-9.22
X-29.751 Y-9.23
X-29.77 Y-9.249
X-29.78 Y-9.275
X-29.776 Y-9.303
X-29.762 Y-9.327
X-28.985 Y-10.104
S5000
X-28.701 Y-10.387 Z-2.514 F333.3
X-28.678 Y-10.402 Z-2.515
X-28.65 Y-10.405 Z-2.516
X-28.624 Y-10.396 Z-2.517
X-28.604 Y-10.376 Z-2.518
X-28.595 Y-10.35 Z-2.519
X-28.598 Y-10.322 Z-2.52
X-28.613 Y-10.299 Z-2.521
X-29.673 Y-9.238 Z-2.573
X-29.697 Y-9.224 Z-2.574
X-29.724 Y-9.22 Z-2.575
X-29.751 Y-9.23 Z-2.576
X-29.77 Y-9.249 Z-2.577
X-29.78 Y-9.275 Z-2.578
X-29.776 Y-9.303 Z-2.579
X-29.762 Y-9.327 Z-2.58
X-28.701 Y-10.387 Z-2.632
X-28.678 Y-10.402 Z-2.633
X-28.65 Y-10.405 Z-2.634
X-28.624 Y-10.396 Z-2.635
X-28.604 Y-10.376 Z-2.636
X-28.595 Y-10.35 Z-2.637
X-28.598 Y-10.322 Z-2.638
X-28.613 Y-10.299 Z-2.639
X-29.673 Y-9.238 Z-2.692
X-29.697 Y-9.224 Z-2.693
X-29.724 Y-9.22 Z-2.694
X-29.751 Y-9.23 Z-2.695
X-29.77 Y-9.249 Z-2.696
X-29.78 Y-9.275 Z-2.697
X-29.776 Y-9.303 Z-2.698
X-29.762 Y-9.327 Z-2.699
X-28.701 Y-10.387 Z-2.751
X-28.678 Y-10.402 Z-2.752
X-28.65 Y-10.405 Z-2.753
X-28.624 Y-10.396 Z-2.754
X-28.604 Y-10.376 Z-2.755
X-28.595 Y-10.35 Z-2.756
X-28.598 Y-10.322 Z-2.757
X-28.613 Y-10.299 Z-2.758
X-29.673 Y-9.238 Z-2.81
X-29.697 Y-9.224 Z-2.811
X-29.724 Y-9.22 Z-2.812
X-29.751 Y-9.23 Z-2.813
X-29.77 Y-9.249 Z-2.814
X-29.78 Y-9.275 Z-2.815
X-29.776 Y-9.303 Z-2.816
X-29.762 Y-9.327 Z-2.817
X-28.701 Y-10.387 Z-2.869
X-28.678 Y-10.402 Z-2.87
X-28.65 Y-10.405 Z-2.871
X-28.624 Y-10.396 Z-2.872
X-28.604 Y-10.376 Z-2.873
X-28.595 Y-10.35 Z-2.874
X-28.598 Y-10.322 Z-2.875
X-28.613 Y-10.299 Z-2.876
X-29.673 Y-9.238 Z-2.929
X-29.697 Y-9.224 Z-2.93
X-29.724 Y-9.22 Z-2.931
X-29.751 Y-9.23 Z-2.932
X-29.77 Y-9.249 Z-2.933
X-29.78 Y-9.275 Z-2.934
X-29.776 Y-9.303 Z-2.935
X-29.762 Y-9.327 Z-2.936
X-28.701 Y-10.387 Z-2.988
X-28.678 Y-10.402 Z-2.989
X-28.65 Y-10.405 Z-2.99
X-28.624 Y-10.396 Z-2.991
X-28.604 Y-10.376 Z-2.992
X-28.595 Y-10.35 Z-2.993
X-28.598 Y-10.322 Z-2.994
X-28.613 Y-10.299 Z-2.995
X-28.719 Y-10.192 Z-3
S6000
X-29.673 Y-9.238 F1000
X-29.697 Y-9.224
X-29.724 Y-9.22
X-29.751 Y-9.23
X-29.77 Y-9.249
X-29.78 Y-9.275
X-29.776 Y-9.303
X-29.762 Y-9.327
X-28.985 Y-10.104
X-28.701 Y-10.387
X-28.678 Y-10.402
X-28.65 Y-10.405
X-28.624 Y-10.396
X-28.604 Y-10.376
X-28.595 Y-10.35
X-28.598 Y-10.322
X-28.613 Y-10.299
X-28.719 Y-10.192
S5000
X-29.673 Y-9.238 Z-3.047 F333.3
X-29.697 Y-9.224 Z-3.048
X-29.724 Y-9.22 Z-3.049
X-29.751 Y-9.23 Z-3.05
X-29.77 Y-9.249 Z-3.051
X-29.78 Y-9.275 Z-3.052
X-29.776 Y-9.303 Z-3.053
X-29.762 Y-9.327 Z-3.054
X-28.701 Y-10.387 Z-3.106
X-28.678 Y-10.402 Z-3.107
X-28.65 Y-10.405 Z-3.108
X-28.624 Y-10.396 Z-3.109
X-28.604 Y-10.376 Z-3.11
X-28.595 Y-10.35 Z-3.111
X-28.598 Y-10.322 Z-3.112
X-28.613 Y-10.299 Z-3.113
X-29.673 Y-9.238 Z-3.166
X-29.697 Y-9.224 Z-3.167
X-29.724 Y-9.22 Z-3.168
X-29.751 Y-9.23 Z-3.169
X-29.77 Y-9.249 Z-3.17
X-29.78 Y-9.275
X-29.776 Y-9.303 Z-3.171
X-29.762 Y-9.327 Z-3.172
X-29.204 Y-9.885 Z-3.2
S6000
X-28.701 Y-10.387 F1000
X-28.678 Y-10.402
X-28.65 Y-10.405
X-28.624 Y-10.396
X-28.604 Y-10.376
X-28.595 Y-10.35
X-28.598 Y-10.322
X-28.613 Y-10.299
X-29.673 Y-9.238
X-29.697 Y-9.224
X-29.724 Y-9.22
X-29.751 Y-9.23
X-29.77 Y-9.249
X-29.78 Y-9.275
X-29.776 Y-9.303
X-29.762 Y-9.327
X-29.204 Y-9.885
G0 Z5
X-28.987 Y-21.898
G1 Z2.5 F333.3
S5000
X-29.762 Y-22.673 Z2.462
X-29.776 Y-22.697 Z2.461
X-29.78 Y-22.724 Z2.46
X-29.77 Y-22.751 Z2.459
X-29.751 Y-22.77 Z2.458
X-29.725 Y-22.78 Z2.457
X-29.697 Y-22.776 Z2.456
X-29.673 Y-22.762 Z2.455
X-28.613 Y-21.701 Z2.402
X-28.598 Y-21.678
X-28.595 Y-21.65 Z2.401
X-28.604 Y-21.624 Z2.4
X-28.624 Y-21.604 Z2.399
X-28.65 Y-21.595 Z2.398
X-28.678 Y-21.598 Z2.397
X-28.701 Y-21.613 Z2.396
X-29.762 Y-22.673 Z2.343
X-29.776 Y-22.697 Z2.342
X-29.78 Y-22.724 Z2.341
X-29.77 Y-22.751 Z2.34
X-29.751 Y-22.77 Z2.339
X-29.725 Y-22.78 Z2.338
X-29.697 Y-22.776 Z2.337
X-29.673 Y-22.762 Z2.336
X-28.613 Y-21.701 Z2.284
X-28.598 Y-21.678 Z2.283
X-28.595 Y-21.65 Z2.282
X-28.604 Y-21.624 Z2.281
X-28.624 Y-21.604 Z2.28
X-28.65 Y-21.595 Z2.279
X-28.678 Y-21.598 Z2.278
X-28.701 Y-21.613 Z2.277
X-29.762 Y-22.673 Z2.225
X-29.776 Y-22.697 Z2.224
X-29.78 Y-22.724 Z2.223
X-29.77 Y-22.751 Z2.222
X-29.751 Y-22.77 Z2.221
X-29.725 Y-22.78 Z2.22
X-29.697 Y-22.776 Z2.219
X-29.673 Y-22.762 Z2.218
X-28.613 Y-21.701 Z2.166
X-28.598 Y-21.678 Z2.165
X-28.595 Y-21.65 Z2.164
X-28.604 Y-21.624 Z2.163
X-28.624 Y-21.604 Z2.162
X-28.65 Y-21.595 Z2.161
X-28.678 Y-21.598 Z2.16
X-28.701 Y-21.613 Z2.159
X-29.762 Y-22.673 Z2.106
X-29.776 Y-22.697 Z2.105
X-29.78 Y-22.724 Z2.104
X-29.77 Y-22.751 Z2.103
X-29.751 Y-22.77 Z2.102
X-29.725 Y-22.78 Z2.101
X-29.697 Y-22.776 Z2.1
X-29.673 Y-22.762 Z2.099
X-28.613 Y-21.701 Z2.047
X-28.598 Y-21.678 Z2.046
X-28.595 Y-21.65 Z2.045
X-28.604 Y-21.624 Z2.044
X-28.624 Y-21.604 Z2.043
X-28.65 Y-21.595 Z2.042
X-28.678 Y-21.598 Z2.041
X-28.701 Y-21.613 Z2.04
X-29.762 Y-22.673 Z1.988
X-29.776 Y-22.697 Z1.987
X-29.78 Y-22.724 Z1.986
X-29.77 Y-22.751 Z1.985
X-29.751 Y-22.77 Z1.984
X-29.725 Y-22.78 Z1.983
X-29.697 Y-22.776 Z1.982
X-29.673 Y-22.762 Z1.981
X-28.613 Y-21.701 Z1.929
X-28.598 Y-21.678 Z1.928
X-28.595 Y-21.65 Z1.927
X-28.604 Y-21.624 Z1.926
X-28.624 Y-21.604 Z1.925
X-28.65 Y-21.595 Z1.924
X-28.678 Y-21.598 Z1.923
X-28.701 Y-21.613 Z1.922
X-29.762 Y-22.673 Z1.869
X-29.776 Y-22.697 Z1.868
X-29.78 Y-22.724 Z1.867
X-29.77 Y-22.751 Z1.866
X-29.751 Y-22.77 Z1.865
X-29.725 Y-22.78 Z1.864
X-29.697 Y-22.776
X-29.673 Y-22.762 Z1.863
X-28.613 Y-21.701 Z1.81
X-28.598 Y-21.678 Z1.809
X-28.595 Y-21.65 Z1.808
X-28.604 Y-21.624 Z1.807
X-28.624 Y-21.604 Z1.806
X-28.65 Y-21.595 Z1.805
X-28.678 Y-21.598 Z1.804
X-28.701 Y-21.613 Z1.803
X-29.762 Y-22.673 Z1.751
X-29.776 Y-22.697 Z1.75
X-29.78 Y-22.724 Z1.749
X-29.77 Y-22.751 Z1.748
X-29.751 Y-22.77 Z1.747
X-29.725 Y-22.78 Z1.746
X-29.697 Y-22.776 Z1.745
X-29.673 Y-22.762 Z1.744
X-28.613 Y-21.701 Z1.692
X-28.598 Y-21.678 Z1.691
X-28.595 Y-21.65 Z1.69
X-28.604 Y-21.624 Z1.689
X-28.624 Y-21.604 Z1.688
X-28.65 Y-21.595 Z1.687
X-28.678 Y-21.598 Z1.686
X-28.701 Y-21.613 Z1.685
X-29.762 Y-22.673 Z1.632
X-29.776 Y-22.697 Z1.631
X-29.78 Y-22.724 Z1.63
X-29.77 Y-22.751
X-29.751 Y-22.77 Z1.629
X-29.725 Y-22.78 Z1.628
X-29.697 Y-22.776 Z1.627
X-29.673 Y-22.762 Z1.626
X-28.613 Y-21.701 Z1.573
X-28.598 Y-21.678 Z1.572
X-28.595 Y-21.65 Z1.571
X-28.604 Y-21.624 Z1.57
X-28.624 Y-21.604 Z1.569
X-28.65 Y-21.595 Z1.568
X-28.678 Y-21.598 Z1.567
X-28.701 Y-21.613 Z1.566
X-29.762 Y-22.673 Z1.514
X-29.776 Y-22.697 Z1.513
X-29.78 Y-22.724 Z1.512
X-29.77 Y-22.751 Z1.511
X-29.751 Y-22.77 Z1.51
X-29.725 Y-22.78 Z1.509
X-29.697 Y-22.776 Z1.508
X-29.673 Y-22.762 Z1.507
X-28.613 Y-21.701 Z1.455
X-28.598 Y-21.678 Z1.454
X-28.595 Y-21.65 Z1.453
X-28.604 Y-21.624 Z1.452
X-28.624 Y-21.604 Z1.451
X-28.65 Y-21.595 Z1.45
X-28.678 Y-21.598 Z1.449
X-28.701 Y-21.613 Z1.448
X-29.762 Y-22.673 Z1.396
X-29.776 Y-22.697 Z1.395
X-29.78 Y-22.724 Z1.394
X-29.77 Y-22.751 Z1.393
X-29.751 Y-22.77 Z1.392
X-29.725 Y-22.78 Z1.391
X-29.697 Y-22.776 Z1.39
X-29.673 Y-22.762 Z1.389
X-28.613 Y-21.701 Z1.336
X-28.598 Y-21.678 Z1.335
X-28.595 Y-21.65 Z1.334
X-28.604 Y-21.624 Z1.333
X-28.624 Y-21.604 Z1.332
X-28.65 Y-21.595 Z1.331
X-28.678 Y-21.598 Z1.33
X-28.701 Y-21.613 Z1.329
X-29.762 Y-22.673 Z1.277
X-29.776 Y-22.697 Z1.276
X-29.78 Y-22.724 Z1.275
X-29.77 Y-22.751 Z1.274
X-29.751 Y-22.77 Z1.273
X-29.725 Y-22.78 Z1.272
X-29.697 Y-22.776 Z1.271
X-29.673 Y-22.762 Z1.27
X-28.613 Y-21.701 Z1.218
X-28.598 Y-21.678 Z1.217
X-28.595 Y-21.65 Z1.216
X-28.604 Y-21.624 Z1.215
X-28.624 Y-21.604 Z1.214
X-28.65 Y-21.595 Z1.213
X-28.678 Y-21.598 Z1.212
X-28.701 Y-21.613 Z1.211
X-29.762 Y-22.673 Z1.159
X-29.776 Y-22.697 Z1.158
X-29.78 Y-22.724 Z1.157
X-29.77 Y-22.751 Z1.156
X-29.751 Y-22.77 Z1.155
X-29.725 Y-22.78 Z1.154
X-29.697 Y-22.776 Z1.153
X-29.673 Y-22.762 Z1.152
X-28.613 Y-21.701 Z1.099
X-28.598 Y-21.678 Z1.098
X-28.595 Y-21.65 Z1.097
X-28.604 Y-21.624 Z1.096
X-28.624 Y-21.604 Z1.095
X-28.65 Y-21.595 Z1.094
X-28.678 Y-21.598 Z1.093
X-28.701 Y-21.613 Z1.092
X-29.762 Y-22.673 Z1.04
X-29.776 Y-22.697 Z1.039
X-29.78 Y-22.724 Z1.038
X-29.77 Y-22.751 Z1.037
X-29.751 Y-22.77 Z1.036
X-29.725 Y-22.78 Z1.035
X-29.697 Y-22.776 Z1.034
X-29.673 Y-22.762 Z1.033
X-28.613 Y-21.701 Z0.981
X-28.598 Y-21.678 Z0.98
X-28.595 Y-21.65 Z0.979
X-28.604 Y-21.624 Z0.978
X-28.624 Y-21.604 Z0.977
X-28.65 Y-21.595 Z0.976
X-28.678 Y-21.598 Z0.975
X-28.701 Y-21.613 Z0.974
X-29.762 Y-22.673 Z0.922
X-29.776 Y-22.697 Z0.921
X-29.78 Y-22.724 Z0.92
X-29.77 Y-22.751 Z0.919
X-29.751 Y-22.77 Z0.918
X-29.725 Y-22.78 Z0.917
X-29.697 Y-22.776 Z0.916
X-29.673 Y-22.762 Z0.915
X-28.613 Y-21.701 Z0.862
X-28.598 Y-21.678 Z0.861
X-28.595 Y-21.65 Z0.86
X-28.604 Y-21.624 Z0.859
X-28.624 Y-21.604 Z0.858
X-28.65 Y-21.595 Z0.857
X-28.678 Y-21.598
X-28.701 Y-21.613 Z0.856
X-29.762 Y-22.673 Z0.803
X-29.776 Y-22.697 Z0.802
X-29.78 Y-22.724 Z0.801
X-29.77 Y-22.751 Z0.8
X-29.751 Y-22.77 Z0.799
X-29.725 Y-22.78 Z0.798
X-29.697 Y-22.776 Z0.797
X-29.673 Y-22.762 Z0.796
X-28.613 Y-21.701 Z0.744
X-28.598 Y-21.678 Z0.743
X-28.595 Y-21.65 Z0.742
X-28.604 Y-21.624 Z0.741
X-28.624 Y-21.604 Z0.74
X-28.65 Y-21.595 Z0.739
X-28.678 Y-21.598 Z0.738
X-28.701 Y-21.613 Z0.737
X-29.762 Y-22.673 Z0.685
X-29.776 Y-22.697 Z0.684
X-29.78 Y-22.724 Z0.683
X-29.77 Y-22.751 Z0.682
X-29.751 Y-22.77 Z0.681
X-29.725 Y-22.78 Z0.68
X-29.697 Y-22.776 Z0.679
X-29.673 Y-22.762 Z0.678
X-28.613 Y-21.701 Z0.625
X-28.598 Y-21.678 Z0.624
X-28.595 Y-21.65 Z0.623
X-28.604 Y-21.624
X-28.624 Y-21.604 Z0.622
X-28.65 Y-21.595 Z0.621
X-28.678 Y-21.598 Z0.62
X-28.701 Y-21.613 Z0.619
X-29.762 Y-22.673 Z0.566
X-29.776 Y-22.697 Z0.565
X-29.78 Y-22.724 Z0.564
X-29.77 Y-22.751 Z0.563
X-29.751 Y-22.77 Z0.562
X-29.725 Y-22.78 Z0.561
X-29.697 Y-22.776 Z0.56
X-29.673 Y-22.762 Z0.559
X-28.613 Y-21.701 Z0.507
X-28.598 Y-21.678 Z0.506
X-28.595 Y-21.65 Z0.505
X-28.604 Y-21.624 Z0.504
X-28.624 Y-21.604 Z0.503
X-28.65 Y-21.595 Z0.502
X-28.678 Y-21.598 Z0.501
X-28.701 Y-21.613 Z0.5
X-29.762 Y-22.673 Z0.448
X-29.776 Y-22.697 Z0.447
X-29.78 Y-22.724 Z0.446
X-29.77 Y-22.751 Z0.445
X-29.751 Y-22.77 Z0.444
X-29.725 Y-22.78 Z0.443
X-29.697 Y-22.776 Z0.442
X-29.673 Y-22.762 Z0.441
X-28.613 Y-21.701 Z0.389
X-28.598 Y-21.678 Z0.388
X-28.595 Y-21.65 Z0.387
X-28.604 Y-21.624 Z0.386
X-28.624 Y-21.604 Z0.385
X-28.65 Y-21.595 Z0.384
X-28.678 Y-21.598 Z0.383
X-28.701 Y-21.613 Z0.382
X-29.762 Y-22.673 Z0.329
X-29.776 Y-22.697 Z0.328
X-29.78 Y-22.724 Z0.327
X-29.77 Y-22.751 Z0.326
X-29.751 Y-22.77 Z0.325
X-29.725 Y-22.78 Z0.324
X-29.697 Y-22.776 Z0.323
X-29.673 Y-22.762 Z0.322
X-28.613 Y-21.701 Z0.27
X-28.598 Y-21.678 Z0.269
X-28.595 Y-21.65 Z0.268
X-28.604 Y-21.624 Z0.267
X-28.624 Y-21.604 Z0.266
X-28.65 Y-21.595 Z0.265
X-28.678 Y-21.598 Z0.264
X-28.701 Y-21.613 Z0.263
X-29.762 Y-22.673 Z0.211
X-29.776 Y-22.697 Z0.21
X-29.78 Y-22.724 Z0.209
X-29.77 Y-22.751 Z0.208
X-29.751 Y-22.77 Z0.207
X-29.725 Y-22.78 Z0.206
X-29.697 Y-22.776 Z0.205
X-29.673 Y-22.762 Z0.204
X-28.613 Y-21.701 Z0.152
X-28.598 Y-21.678 Z0.151
X-28.595 Y-21.65 Z0.15
X-28.604 Y-21.624 Z0.149
X-28.624 Y-21.604 Z0.148
X-28.65 Y-21.595 Z0.147
X-28.678 Y-21.598 Z0.146
X-28.701 Y-21.613 Z0.145
X-29.762 Y-22.673 Z0.092
X-29.776 Y-22.697 Z0.091
X-29.78 Y-22.724 Z0.09
X-29.77 Y-22.751 Z0.089
X-29.751 Y-22.77 Z0.088
X-29.725 Y-22.78 Z0.087
X-29.697 Y-22.776 Z0.086
X-29.673 Y-22.762 Z0.085
X-28.613 Y-21.701 Z0.033
X-28.598 Y-21.678 Z0.032
X-28.595 Y-21.65 Z0.031
X-28.604 Y-21.624 Z0.03
X-28.624 Y-21.604 Z0.029
X-28.65 Y-21.595 Z0.028
X-28.678 Y-21.598 Z0.027
X-28.701 Y-21.613 Z0.026
X-29.762 Y-22.673 Z-0.026
X-29.776 Y-22.697 Z-0.027
X-29.78 Y-22.724 Z-0.028
X-29.77 Y-22.751 Z-0.029
X-29.751 Y-22.77 Z-0.03
X-29.725 Y-22.78 Z-0.031
X-29.697 Y-22.776 Z-0.032
X-29.673 Y-22.762 Z-0.033
X-28.613 Y-21.701 Z-0.085
X-28.598 Y-21.678 Z-0.086
X-28.595 Y-21.65 Z-0.087
X-28.604 Y-21.624 Z-0.088
X-28.624 Y-21.604 Z-0.089
X-28.65 Y-21.595 Z-0.09
X-28.678 Y-21.598 Z-0.091
X-28.701 Y-21.613 Z-0.092
X-29.762 Y-22.673 Z-0.145
X-29.776 Y-22.697 Z-0.146
X-29.78 Y-22.724 Z-0.147
X-29.77 Y-22.751 Z-0.148
X-29.751 Y-22.77 Z-0.149
X-29.725 Y-22.78
X-29.697 Y-22.776 Z-0.15
X-29.673 Y-22.762 Z-0.151
X-28.613 Y-21.701 Z-0.204
X-28.598 Y-21.678 Z-0.205
X-28.595 Y-21.65 Z-0.206
X-28.604 Y-21.624 Z-0.207
X-28.624 Y-21.604 Z-0.208
X-28.65 Y-21.595 Z-0.209
X-28.678 Y-21.598 Z-0.21
X-28.701 Y-21.613 Z-0.211
X-29.762 Y-22.673 Z-0.263
X-29.776 Y-22.697 Z-0.264
X-29.78 Y-22.724 Z-0.265
X-29.77 Y-22.751 Z-0.266
X-29.751 Y-22.77 Z-0.267
X-29.725 Y-22.78 Z-0.268
X-29.697 Y-22.776 Z-0.269
X-29.673 Y-22.762 Z-0.27
X-28.613 Y-21.701 Z-0.322
X-28.598 Y-21.678 Z-0.323
X-28.595 Y-21.65 Z-0.324
X-28.604 Y-21.624 Z-0.325
X-28.624 Y-21.604 Z-0.326
X-28.65 Y-21.595 Z-0.327
X-28.678 Y-21.598 Z-0.328
X-28.701 Y-21.613 Z-0.329
X-29.762 Y-22.673 Z-0.382
X-29.776 Y-22.697 Z-0.383
X-29.78 Y-22.724
X-29.77 Y-22.751 Z-0.384
X-29.751 Y-22.77 Z-0.385
X-29.725 Y-22.78 Z-0.386
X-29.697 Y-22.776 Z-0.387
X-29.673 Y-22.762 Z-0.388
X-28.613 Y-21.701 Z-0.441
X-28.598 Y-21.678 Z-0.442
X-28.595 Y-21.65 Z-0.443
X-28.604 Y-21.624 Z-0.444
X-28.624 Y-21.604 Z-0.445
X-28.65 Y-21.595 Z-0.446
X-28.678 Y-21.598 Z-0.447
X-28.701 Y-21.613 Z-0.448
X-29.762 Y-22.673 Z-0.5
S6000
X-29.776 Y-22.697 F1000
X-29.78 Y-22.724
X-29.77 Y-22.751
X-29.751 Y-22.77
X-29.725 Y-22.78
X-29.697 Y-22.776
X-29.673 Y-22.762
X-28.613 Y-21.701
X-28.598 Y-21.678
X-28.595 Y-21.65
X-28.604 Y-21.624
X-28.624 Y-21.604
X-28.65 Y-21.595
X-28.678 Y-21.598
X-28.701 Y-21.613
X-29.762 Y-22.673
S5000
X-29.776 Y-22.697 Z-0.501 F333.3
X-29.78 Y-22.724 Z-0.502
X-29.77 Y-22.751 Z-0.503
X-29.751 Y-22.77 Z-0.504
X-29.725 Y-22.78 Z-0.505
X-29.697 Y-22.776 Z-0.506
X-29.673 Y-22.762 Z-0.507
X-28.613 Y-21.701 Z-0.559
X-28.598 Y-21.678 Z-0.56
X-28.595 Y-21.65 Z-0.561
X-28.604 Y-21.624 Z-0.562
X-28.624 Y-21.604 Z-0.563
X-28.65 Y-21.595 Z-0.564
X-28.678 Y-21.598 Z-0.565
X-28.701 Y-21.613 Z-0.566
X-29.762 Y-22.673 Z-0.618
X-29.776 Y-22.697 Z-0.619
X-29.78 Y-22.724 Z-0.62
X-29.77 Y-22.751 Z-0.621
X-29.751 Y-22.77 Z-0.622
X-29.725 Y-22.78 Z-0.623
X-29.697 Y-22.776 Z-0.624
X-29.673 Y-22.762 Z-0.625
X-28.613 Y-21.701 Z-0.678
X-28.598 Y-21.678 Z-0.679
X-28.595 Y-21.65 Z-0.68
X-28.604 Y-21.624 Z-0.681
X-28.624 Y-21.604 Z-0.682
X-28.65 Y-21.595 Z-0.683
X-28.678 Y-21.598 Z-0.684
X-28.701 Y-21.613 Z-0.685
X-29.762 Y-22.673 Z-0.737
X-29.776 Y-22.697 Z-0.738
X-29.78 Y-22.724 Z-0.739
X-29.77 Y-22.751 Z-0.74
X-29.751 Y-22.77 Z-0.741
X-29.725 Y-22.78 Z-0.742
X-29.697 Y-22.776 Z-0.743
X-29.673 Y-22.762 Z-0.744
X-28.613 Y-21.701 Z-0.796
X-28.598 Y-21.678 Z-0.797
X-28.595 Y-21.65 Z-0.798
X-28.604 Y-21.624 Z-0.799
X-28.624 Y-21.604 Z-0.8
X-28.65 Y-21.595 Z-0.801
X-28.678 Y-21.598 Z-0.802
X-28.701 Y-21.613 Z-0.803
X-29.762 Y-22.673 Z-0.855
X-29.776 Y-22.697 Z-0.856
X-29.78 Y-22.724 Z-0.857
X-29.77 Y-22.751 Z-0.858
X-29.751 Y-22.77 Z-0.859
X-29.725 Y-22.78 Z-0.86
X-29.697 Y-22.776 Z-0.861
X-29.673 Y-22.762 Z-0.862
X-28.613 Y-21.701 Z-0.915
X-28.598 Y-21.678 Z-0.916
X-28.595 Y-21.65 Z-0.917
X-28.604 Y-21.624 Z-0.918
X-28.624 Y-21.604 Z-0.919
X-28.65 Y-21.595 Z-0.92
X-28.678 Y-21.598 Z-0.921
X-28.701 Y-21.613
X-29.762 Y-22.673 Z-0.974
X-29.776 Y-22.697 Z-0.975
X-29.78 Y-22.724 Z-0.976
X-29.77 Y-22.751 Z-0.977
X-29.751 Y-22.77 Z-0.978
X-29.725 Y-22.78 Z-0.979
X-29.697 Y-22.776 Z-0.98
X-29.673 Y-22.762 Z-0.981
X-29.283 Y-22.372 Z-1
S6000
X-28.613 Y-21.701 F1000
X-28.598 Y-21.678
X-28.595 Y-21.65
X-28.604 Y-21.624
X-28.624 Y-21.604
X-28.65 Y-21.595
X-28.678 Y-21.598
X-28.701 Y-21.613
X-29.762 Y-22.673
X-29.776 Y-22.697
X-29.78 Y-22.724
X-29.77 Y-22.751
X-29.751 Y-22.77
X-29.725 Y-22.78
X-29.697 Y-22.776
X-29.673 Y-22.762
X-29.283 Y-22.372
S5000
X-28.613 Y-21.701 Z-1.033 F333.3
X-28.598 Y-21.678 Z-1.034
X-28.595 Y-21.65 Z-1.035
X-28.604 Y-21.624 Z-1.036
X-28.624 Y-21.604 Z-1.037
X-28.65 Y-21.595 Z-1.038
X-28.678 Y-21.598 Z-1.039
X-28.701 Y-21.613 Z-1.04
X-29.762 Y-22.673 Z-1.092
X-29.776 Y-22.697 Z-1.093
X-29.78 Y-22.724 Z-1.094
X-29.77 Y-22.751 Z-1.095
X-29.751 Y-22.77 Z-1.096
X-29.725 Y-22.78 Z-1.097
X-29.697 Y-22.776 Z-1.098
X-29.673 Y-22.762 Z-1.099
X-28.613 Y-21.701 Z-1.152
X-28.598 Y-21.678 Z-1.153
X-28.595 Y-21.65 Z-1.154
X-28.604 Y-21.624 Z-1.155
X-28.624 Y-21.604 Z-1.156
X-28.65 Y-21.595
X-28.678 Y-21.598 Z-1.157
X-28.701 Y-21.613 Z-1.158
X-29.762 Y-22.673 Z-1.211
X-29.776 Y-22.697 Z-1.212
X-29.78 Y-22.724 Z-1.213
X-29.77 Y-22.751 Z-1.214
X-29.751 Y-22.77 Z-1.215
X-29.725 Y-22.78 Z-1.216
X-29.697 Y-22.776 Z-1.217
X-29.673 Y-22.762 Z-1.218
X-28.613 Y-21.701 Z-1.27
X-28.598 Y-21.678 Z-1.271
X-28.595 Y-21.65 Z-1.272
X-28.604 Y-21.624 Z-1.273
X-28.624 Y-21.604 Z-1.274
X-28.65 Y-21.595 Z-1.275
X-28.678 Y-21.598 Z-1.276
X-28.701 Y-21.613 Z-1.277
X-29.762 Y-22.673 Z-1.329
X-29.776 Y-22.697 Z-1.33
X-29.78 Y-22.724 Z-1.331
X-29.77 Y-22.751 Z-1.332
X-29.751 Y-22.77 Z-1.333
X-29.725 Y-22.78 Z-1.334
X-29.697 Y-22.776 Z-1.335
X-29.673 Y-22.762 Z-1.336
X-28.613 Y-21.701 Z-1.389
X-28.598 Y-21.678 Z-1.39
X-28.595 Y-21.65
X-28.604 Y-21.624 Z-1.391
X-28.624 Y-21.604 Z-1.392
X-28.65 Y-21.595 Z-1.393
X-28.678 Y-21.598 Z-1.394
X-28.701 Y-21.613 Z-1.395
X-29.762 Y-22.673 Z-1.448
X-29.776 Y-22.697 Z-1.449
X-29.78 Y-22.724 Z-1.45
X-29.77 Y-22.751 Z-1.451
X-29.751 Y-22.77 Z-1.452
X-29.725 Y-22.78 Z-1.453
X-29.697 Y-22.776 Z-1.454
X-29.673 Y-22.762 Z-1.455
X-28.754 Y-21.843 Z-1.5
S6000
X-28.613 Y-21.701 F1000
X-28.598 Y-21.678
X-28.595 Y-21.65
X-28.604 Y-21.624
X-28.624 Y-21.604
X-28.65 Y-21.595
X-28.678 Y-21.598
X-28.701 Y-21.613
X-29.762 Y-22.673
X-29.776 Y-22.697
X-29.78 Y-22.724
X-29.77 Y-22.751
X-29.751 Y-22.77
X-29.725 Y-22.78
X-29.697 Y-22.776
X-29.673 Y-22.762
X-28.754 Y-21.843
S5000
X-28.613 Y-21.701 Z-1.507 F333.3
X-28.598 Y-21.678 Z-1.508
X-28.595 Y-21.65 Z-1.509
X-28.604 Y-21.624 Z-1.51
X-28.624 Y-21.604 Z-1.511
X-28.65 Y-21.595 Z-1.512
X-28.678 Y-21.598 Z-1.513
X-28.701 Y-21.613 Z-1.514
X-29.762 Y-22.673 Z-1.566
X-29.776 Y-22.697 Z-1.567
X-29.78 Y-22.724 Z-1.568
X-29.77 Y-22.751 Z-1.569
X-29.751 Y-22.77 Z-1.57
X-29.725 Y-22.78 Z-1.571
X-29.697 Y-22.776 Z-1.572
X-29.673 Y-22.762 Z-1.573
X-28.613 Y-21.701 Z-1.625
X-28.598 Y-21.678 Z-1.626
X-28.595 Y-21.65 Z-1.627
X-28.604 Y-21.624 Z-1.628
X-28.624 Y-21.604 Z-1.629
X-28.65 Y-21.595 Z-1.63
X-28.678 Y-21.598 Z-1.631
X-28.701 Y-21.613 Z-1.632
X-29.762 Y-22.673 Z-1.685
X-29.776 Y-22.697 Z-1.686
X-29.78 Y-22.724 Z-1.687
X-29.77 Y-22.751 Z-1.688
X-29.751 Y-22.77 Z-1.689
X-29.725 Y-22.78 Z-1.69
X-29.697 Y-22.776 Z-1.691
X-29.673 Y-22.762 Z-1.692
X-28.613 Y-21.701 Z-1.744
X-28.598 Y-21.678 Z-1.745
X-28.595 Y-21.65 Z-1.746
X-28.604 Y-21.624 Z-1.747
X-28.624 Y-21.604 Z-1.748
X-28.65 Y-21.595 Z-1.749
X-28.678 Y-21.598 Z-1.75
X-28.701 Y-21.613 Z-1.751
X-29.762 Y-22.673 Z-1.803
X-29.776 Y-22.697 Z-1.804
X-29.78 Y-22.724 Z-1.805
X-29.77 Y-22.751 Z-1.806
X-29.751 Y-22.77 Z-1.807
X-29.725 Y-22.78 Z-1.808
X-29.697 Y-22.776 Z-1.809
X-29.673 Y-22.762 Z-1.81
X-28.613 Y-21.701 Z-1.862
X-28.598 Y-21.678 Z-1.863
X-28.595 Y-21.65 Z-1.864
X-28.604 Y-21.624 Z-1.865
X-28.624 Y-21.604 Z-1.866
X-28.65 Y-21.595 Z-1.867
X-28.678 Y-21.598 Z-1.868
X-28.701 Y-21.613 Z-1.869
X-29.762 Y-22.673 Z-1.922
X-29.776 Y-22.697 Z-1.923
X-29.78 Y-22.724 Z-1.924
X-29.77 Y-22.751 Z-1.925
X-29.751 Y-22.77 Z-1.926
X-29.725 Y-22.78 Z-1.927
X-29.697 Y-22.776 Z-1.928
X-29.673 Y-22.762
X-28.613 Y-21.701 Z-1.981
X-28.598 Y-21.678 Z-1.982
X-28.595 Y-21.65 Z-1.983
X-28.604 Y-21.624 Z-1.984
X-28.624 Y-21.604 Z-1.985
X-28.65 Y-21.595 Z-1.986
X-28.678 Y-21.598 Z-1.987
X-28.701 Y-21.613 Z-1.988
X-28.95 Y-21.861 Z-2
S6000
X-29.762 Y-22.673 F1000
X-29.776 Y-22.697
X-29.78 Y-22.724
X-29.77 Y-22.751
X-29.751 Y-22.77
X-29.725 Y-22.78
X-29.697 Y-22.776
X-29.673 Y-22.762
X-28.754 Y-21.843
X-28.613 Y-21.701
X-28.598 Y-21.678
X-28.595 Y-21.65
X-28.604 Y-21.624
X-28.624 Y-21.604
X-28.65 Y-21.595
X-28.678 Y-21.598
X-28.701 Y-21.613
X-28.95 Y-21.861
S5000
X-29.762 Y-22.673 Z-2.04 F333.3
X-29.776 Y-22.697 Z-2.041
X-29.78 Y-22.724 Z-2.042
X-29.77 Y-22.751 Z-2.043
X-29.751 Y-22.77 Z-2.044
X-29.725 Y-22.78 Z-2.045
X-29.697 Y-22.776 Z-2.046
X-29.673 Y-22.762 Z-2.047
X-28.613 Y-21.701 Z-2.099
X-28.598 Y-21.678 Z-2.1
X-28.595 Y-21.65 Z-2.101
X-28.604 Y-21.624 Z-2.102
X-28.624 Y-21.604 Z-2.103
X-28.65 Y-21.595 Z-2.104
X-28.678 Y-21.598 Z-2.105
X-28.701 Y-21.613 Z-2.106
X-29.762 Y-22.673 Z-2.159
X-29.776 Y-22.697 Z-2.16
X-29.78 Y-22.724 Z-2.161
X-29.77 Y-22.751 Z-2.162
X-29.751 Y-22.77
X-29.725 Y-22.78 Z-2.163
X-29.697 Y-22.776 Z-2.164
X-29.673 Y-22.762 Z-2.165
X-28.613 Y-21.701 Z-2.218
X-28.598 Y-21.678 Z-2.219
X-28.595 Y-21.65 Z-2.22
X-28.604 Y-21.624 Z-2.221
X-28.624 Y-21.604 Z-2.222
X-28.65 Y-21.595 Z-2.223
X-28.678 Y-21.598 Z-2.224
X-28.701 Y-21.613 Z-2.225
X-29.762 Y-22.673 Z-2.277
X-29.776 Y-22.697 Z-2.278
X-29.78 Y-22.724 Z-2.279
X-29.77 Y-22.751 Z-2.28
X-29.751 Y-22.77 Z-2.281
X-29.725 Y-22.78 Z-2.282
X-29.697 Y-22.776 Z-2.283
X-29.673 Y-22.762 Z-2.284
X-28.613 Y-21.701 Z-2.336
X-28.598 Y-21.678 Z-2.337
X-28.595 Y-21.65 Z-2.338
X-28.604 Y-21.624 Z-2.339
X-28.624 Y-21.604 Z-2.34
X-28.65 Y-21.595 Z-2.341
X-28.678 Y-21.598 Z-2.342
X-28.701 Y-21.613 Z-2.343
X-29.762 Y-22.673 Z-2.396
X-29.776 Y-22.697
X-29.78 Y-22.724 Z-2.397
X-29.77 Y-22.751 Z-2.398
X-29.751 Y-22.77 Z-2.399
X-29.725 Y-22.78 Z-2.4
X-29.697 Y-22.776 Z-2.401
X-29.673 Y-22.762 Z-2.402
X-28.613 Y-21.701 Z-2.455
X-28.598 Y-21.678 Z-2.456
X-28.595 Y-21.65 Z-2.457
X-28.604 Y-21.624 Z-2.458
X-28.624 Y-21.604 Z-2.459
X-28.65 Y-21.595 Z-2.46
X-28.678 Y-21.598 Z-2.461
X-28.701 Y-21.613 Z-2.462
X-29.479 Y-22.39 Z-2.5
S6000
X-29.762 Y-22.673 F1000
X-29.776 Y-22.697
X-29.78 Y-22.724
X-29.77 Y-22.751
X-29.751 Y-22.77
X-29.725 Y-22.78
X-29.697 Y-22.776
X-29.673 Y-22.762
X-28.613 Y-21.701
X-28.598 Y-21.678
X-28.595 Y-21.65
X-28.604 Y-21.624
X-28.624 Y-21.604
X-28.65 Y-21.595
X-28.678 Y-21.598
X-28.701 Y-21.613
X-29.479 Y-22.39
S5000
X-29.762 Y-22.673 Z-2.514 F333.3
X-29.776 Y-22.697 Z-2.515
X-29.78 Y-22.724 Z-2.516
X-29.77 Y-22.751 Z-2.517
X-29.751 Y-22.77 Z-2.518
X-29.725 Y-22.78 Z-2.519
X-29.697 Y-22.776 Z-2.52
X-29.673 Y-22.762 Z-2.521
X-28.613 Y-21.701 Z-2.573
X-28.598 Y-21.678 Z-2.574
X-28.595 Y-21.65 Z-2.575
X-28.604 Y-21.624 Z-2.576
X-28.624 Y-21.604 Z-2.577
X-28.65 Y-21.595 Z-2.578
X-28.678 Y-21.598 Z-2.579
X-28.701 Y-21.613 Z-2.58
X-29.762 Y-22.673 Z-2.632
X-29.776 Y-22.697 Z-2.633
X-29.78 Y-22.724 Z-2.634
X-29.77 Y-22.751 Z-2.635
X-29.751 Y-22.77 Z-2.636
X-29.725 Y-22.78 Z-2.637
X-29.697 Y-22.776 Z-2.638
X-29.673 Y-22.762 Z-2.639
X-28.613 Y-21.701 Z-2.692
X-28.598 Y-21.678 Z-2.693
X-28.595 Y-21.65 Z-2.694
X-28.604 Y-21.624 Z-2.695
X-28.624 Y-21.604 Z-2.696
X-28.65 Y-21.595 Z-2.697
X-28.678 Y-21.598 Z-2.698
X-28.701 Y-21.613 Z-2.699
X-29.762 Y-22.673 Z-2.751
X-29.776 Y-22.697 Z-2.752
X-29.78 Y-22.724 Z-2.753
X-29.77 Y-22.751 Z-2.754
X-29.751 Y-22.77 Z-2.755
X-29.725 Y-22.78 Z-2.756
X-29.697 Y-22.776 Z-2.757
X-29.673 Y-22.762 Z-2.758
X-28.613 Y-21.701 Z-2.81
X-28.598 Y-21.678 Z-2.811
X-28.595 Y-21.65 Z-2.812
X-28.604 Y-21.624 Z-2.813
X-28.624 Y-21.604 Z-2.814
X-28.65 Y-21.595 Z-2.815
X-28.678 Y-21.598 Z-2.816
X-28.701 Y-21.613 Z-2.817
X-29.762 Y-22.673 Z-2.869
X-29.776 Y-22.697 Z-2.87
X-29.78 Y-22.724 Z-2.871
X-29.77 Y-22.751 Z-2.872
X-29.751 Y-22.77 Z-2.873
X-29.725 Y-22.78 Z-2.874
X-29.697 Y-22.776 Z-2.875
X-29.673 Y-22.762 Z-2.876
X-28.613 Y-21.701 Z-2.929
X-28.598 Y-21.678 Z-2.93
X-28.595 Y-21.65 Z-2.931
X-28.604 Y-21.624 Z-2.932
X-28.624 Y-21.604 Z-2.933
X-28.65 Y-21.595 Z-2.934
X-28.678 Y-21.598
X-28.701 Y-21.613 Z-2.935
X-29.762 Y-22.673 Z-2.988
X-29.776 Y-22.697 Z-2.989
X-29.78 Y-22.724 Z-2.99
X-29.77 Y-22.751 Z-2.991
X-29.751 Y-22.77 Z-2.992
X-29.725 Y-22.78 Z-2.993
X-29.697 Y-22.776 Z-2.994
X-29.673 Y-22.762 Z-2.995
X-29.566 Y-22.655 Z-3
S6000
X-28.613 Y-21.701 F1000
X-28.598 Y-21.678
X-28.595 Y-21.65
X-28.604 Y-21.624
X-28.624 Y-21.604
X-28.65 Y-21.595
X-28.678 Y-21.598
X-28.701 Y-21.613
X-29.479 Y-22.39
X-29.762 Y-22.673
X-29.776 Y-22.697
X-29.78 Y-22.724
X-29.77 Y-22.751
X-29.751 Y-22.77
X-29.725 Y-22.78
X-29.697 Y-22.776
X-29.673 Y-22.762
X-29.566 Y-22.655
S5000
X-28.613 Y-21.701 Z-3.047 F333.3
X-28.598 Y-21.678 Z-3.048
X-28.595 Y-21.65 Z-3.049
X-28.604 Y-21.624 Z-3.05
X-28.624 Y-21.604 Z-3.051
X-28.65 Y-21.595 Z-3.052
X-28.678 Y-21.598 Z-3.053
X-28.701 Y-21.613 Z-3.054
X-29.762 Y-22.673 Z-3.106
X-29.776 Y-22.697 Z-3.107
X-29.78 Y-22.724 Z-3.108
X-29.77 Y-22.751 Z-3.109
X-29.751 Y-22.77 Z-3.11
X-29.725 Y-22.78 Z-3.111
X-29.697 Y-22.776 Z-3.112
X-29.673 Y-22.762 Z-3.113
X-28.613 Y-21.701 Z-3.166
X-28.598 Y-21.678 Z-3.167
X-28.595 Y-21.65 Z-3.168
X-28.604 Y-21.624
X-28.624 Y-21.604 Z-3.169
X-28.65 Y-21.595 Z-3.17
X-28.678 Y-21.598 Z-3.171
X-28.701 Y-21.613 Z-3.172
X-29.26 Y-22.171 Z-3.2
S6000
X-29.762 Y-22.673 F1000
X-29.776 Y-22.697
X-29.78 Y-22.724
X-29.77 Y-22.751
X-29.751 Y-22.77
X-29.725 Y-22.78
X-29.697 Y-22.776
X-29.673 Y-22.762
X-28.613 Y-21.701
X-28.598 Y-21.678
X-28.595 Y-21.65
X-28.604 Y-21.624
X-28.624 Y-21.604
X-28.65 Y-21.595
X-28.678 Y-21.598
X-28.701 Y-21.613
X-29.26 Y-22.171
G0 Z5
X-16.663 Y-22.249
G1 Z2.5 F333.3
S5000
X-17.299 Y-21.613 Z2.469
X-17.322 Y-21.598 Z2.468
X-17.35 Y-21.595 Z2.467
X-17.376 Y-21.604 Z2.466
X-17.396 Y-21.624 Z2.465
X-17.405 Y-21.65 Z2.464
X-17.402 Y-21.678 Z2.463
X-17.387 Y-21.701 Z2.462
X-16.327 Y-22.762 Z2.409
X-16.303 Y-22.776 Z2.408
X-16.276 Y-22.78 Z2.407
X-16.249 Y-22.77 Z2.406
X-16.23 Y-22.751 Z2.405
X-16.22 Y-22.725 Z2.404
X-16.224 Y-22.697 Z2.403
X-16.238 Y-22.673
X-17.299 Y-21.613 Z2.35
X-17.322 Y-21.598 Z2.349
X-17.35 Y-21.595 Z2.348
X-17.376 Y-21.604 Z2.347
X-17.396 Y-21.624 Z2.346
X-17.405 Y-21.65 Z2.345
X-17.402 Y-21.678 Z2.344
X-17.387 Y-21.701 Z2.343
X-16.327 Y-22.762 Z2.291
X-16.303 Y-22.776 Z2.29
X-16.276 Y-22.78 Z2.289
X-16.249 Y-22.77 Z2.288
X-16.23 Y-22.751 Z2.287
X-16.22 Y-22.725 Z2.286
X-16.224 Y-22.697 Z2.285
X-16.238 Y-22.673 Z2.284
X-17.299 Y-21.613 Z2.232
X-17.322 Y-21.598 Z2.231
X-17.35 Y-21.595 Z2.23
X-17.376 Y-21.604 Z2.229
X-17.396 Y-21.624 Z2.228
X-17.405 Y-21.65 Z2.227
X-17.402 Y-21.678 Z2.226
X-17.387 Y-21.701 Z2.225
X-16.327 Y-22.762 Z2.172
X-16.303 Y-22.776 Z2.171
X-16.276 Y-22.78 Z2.17
X-16.249 Y-22.77 Z2.169
X-16.23 Y-22.751
X-16.22 Y-22.725 Z2.168
X-16.224 Y-22.697 Z2.167
X-16.238 Y-22.673 Z2.166
X-17.299 Y-21.613 Z2.113
X-17.322 Y-21.598 Z2.112
X-17.35 Y-21.595 Z2.111
X-17.376 Y-21.604 Z2.11
X-17.396 Y-21.624 Z2.109
X-17.405 Y-21.65 Z2.108
X-17.402 Y-21.678 Z2.107
X-17.387 Y-21.701 Z2.106
X-16.327 Y-22.762 Z2.054
X-16.303 Y-22.776 Z2.053
X-16.276 Y-22.78 Z2.052
X-16.249 Y-22.77 Z2.051
X-16.23 Y-22.751 Z2.05
X-16.22 Y-22.725 Z2.049
X-16.224 Y-22.697 Z2.048
X-16.238 Y-22.673 Z2.047
X-17.299 Y-21.613 Z1.995
X-17.322 Y-21.598 Z1.994
X-17.35 Y-21.595 Z1.993
X-17.376 Y-21.604 Z1.992
X-17.396 Y-21.624 Z1.991
X-17.405 Y-21.65 Z1.99
X-17.402 Y-21.678 Z1.989
X-17.387 Y-21.701 Z1.988
X-16.327 Y-22.762 Z1.935
X-16.303 Y-22.776
X-16.276 Y-22.78 Z1.934
X-16.249 Y-22.77 Z1.933
X-16.23 Y-22.751 Z1.932
X-16.22 Y-22.725 Z1.931
X-16.224 Y-22.697 Z1.93
X-16.238 Y-22.673 Z1.929
X-17.299 Y-21.613 Z1.876
X-17.322 Y-21.598 Z1.875
X-17.35 Y-21.595 Z1.874
X-17.376 Y-21.604 Z1.873
X-17.396 Y-21.624 Z1.872
X-17.405 Y-21.65 Z1.871
X-17.402 Y-21.678 Z1.87
X-17.387 Y-21.701 Z1.869
X-16.327 Y-22.762 Z1.817
X-16.303 Y-22.776 Z1.816
X-16.276 Y-22.78 Z1.815
X-16.249 Y-22.77 Z1.814
X-16.23 Y-22.751 Z1.813
X-16.22 Y-22.725 Z1.812
X-16.224 Y-22.697 Z1.811
X-16.238 Y-22.673 Z1.81
X-17.299 Y-21.613 Z1.758
X-17.322 Y-21.598 Z1.757
X-17.35 Y-21.595 Z1.756
X-17.376 Y-21.604 Z1.755
X-17.396 Y-21.624 Z1.754
X-17.405 Y-21.65 Z1.753
X-17.402 Y-21.678 Z1.752
X-17.387 Y-21.701 Z1.751
X-16.327 Y-22.762 Z1.699
X-16.303 Y-22.776 Z1.698
X-16.276 Y-22.78 Z1.697
X-16.249 Y-22.77 Z1.696
X-16.23 Y-22.751 Z1.695
X-16.22 Y-22.725 Z1.694
X-16.224 Y-22.697 Z1.693
X-16.238 Y-22.673 Z1.692
X-17.299 Y-21.613 Z1.639
X-17.322 Y-21.598 Z1.638
X-17.35 Y-21.595 Z1.637
X-17.376 Y-21.604 Z1.636
X-17.396 Y-21.624 Z1.635
X-17.405 Y-21.65 Z1.634
X-17.402 Y-21.678 Z1.633
X-17.387 Y-21.701 Z1.632
X-16.327 Y-22.762 Z1.58
X-16.303 Y-22.776 Z1.579
X-16.276 Y-22.78 Z1.578
X-16.249 Y-22.77 Z1.577
X-16.23 Y-22.751 Z1.576
X-16.22 Y-22.725 Z1.575
X-16.224 Y-22.697 Z1.574
X-16.238 Y-22.673 Z1.573
X-17.299 Y-21.613 Z1.521
X-17.322 Y-21.598 Z1.52
X-17.35 Y-21.595 Z1.519
X-17.376 Y-21.604 Z1.518
X-17.396 Y-21.624 Z1.517
X-17.405 Y-21.65 Z1.516
X-17.402 Y-21.678 Z1.515
X-17.387 Y-21.701 Z1.514
X-16.327 Y-22.762 Z1.462
X-16.303 Y-22.776 Z1.461
X-16.276 Y-22.78 Z1.46
X-16.249 Y-22.77 Z1.459
X-16.23 Y-22.751 Z1.458
X-16.22 Y-22.725 Z1.457
X-16.224 Y-22.697 Z1.456
X-16.238 Y-22.673 Z1.455
X-17.299 Y-21.613 Z1.402
X-17.322 Y-21.598 Z1.401
X-17.35 Y-21.595 Z1.4
X-17.376 Y-21.604 Z1.399
X-17.396 Y-21.624 Z1.398
X-17.405 Y-21.65 Z1.397
X-17.402 Y-21.678 Z1.396
X-17.387 Y-21.701
X-16.327 Y-22.762 Z1.343
X-16.303 Y-22.776 Z1.342
X-16.276 Y-22.78 Z1.341
X-16.249 Y-22.77 Z1.34
X-16.23 Y-22.751 Z1.339
X-16.22 Y-22.725 Z1.338
X-16.224 Y-22.697 Z1.337
X-16.238 Y-22.673 Z1.336
X-17.299 Y-21.613 Z1.284
X-17.322 Y-21.598 Z1.283
X-17.35 Y-21.595 Z1.282
X-17.376 Y-21.604 Z1.281
X-17.396 Y-21.624 Z1.28
X-17.405 Y-21.65 Z1.279
X-17.402 Y-21.678 Z1.278
X-17.387 Y-21.701 Z1.277
X-16.327 Y-22.762 Z1.225
X-16.303 Y-22.776 Z1.224
X-16.276 Y-22.78 Z1.223
X-16.249 Y-22.77 Z1.222
X-16.23 Y-22.751 Z1.221
X-16.22 Y-22.725 Z1.22
X-16.224 Y-22.697 Z1.219
X-16.238 Y-22.673 Z1.218
X-17.299 Y-21.613 Z1.165
X-17.322 Y-21.598 Z1.164
X-17.35 Y-21.595 Z1.163
X-17.376 Y-21.604 Z1.162
X-17.396 Y-21.624
X-17.405 Y-21.65 Z1.161
X-17.402 Y-21.678 Z1.16
X-17.387 Y-21.701 Z1.159
X-16.327 Y-22.762 Z1.106
X-16.303 Y-22.776 Z1.105
X-16.276 Y-22.78 Z1.104
X-16.249 Y-22.77 Z1.103
X-16.23 Y-22.751 Z1.102
X-16.22 Y-22.725 Z1.101
X-16.224 Y-22.697 Z1.1
X-16.238 Y-22.673 Z1.099
X-17.299 Y-21.613 Z1.047
X-17.322 Y-21.598 Z1.046
X-17.35 Y-21.595 Z1.045
X-17.376 Y-21.604 Z1.044
X-17.396 Y-21.624 Z1.043
X-17.405 Y-21.65 Z1.042
X-17.402 Y-21.678 Z1.041
X-17.387 Y-21.701 Z1.04
X-16.327 Y-22.762 Z0.988
X-16.303 Y-22.776 Z0.987
X-16.276 Y-22.78 Z0.986
X-16.249 Y-22.77 Z0.985
X-16.23 Y-22.751 Z0.984
X-16.22 Y-22.725 Z0.983
X-16.224 Y-22.697 Z0.982
X-16.238 Y-22.673 Z0.981
X-17.299 Y-21.613 Z0.928
X-17.322 Y-21.598
X-17.35 Y-21.595 Z0.927
X-17.376 Y-21.604 Z0.926
X-17.396 Y-21.624 Z0.925
X-17.405 Y-21.65 Z0.924
X-17.402 Y-21.678 Z0.923
X-17.387 Y-21.701 Z0.922
X-16.327 Y-22.762 Z0.869
X-16.303 Y-22.776 Z0.868
X-16.276 Y-22.78 Z0.867
X-16.249 Y-22.77 Z0.866
X-16.23 Y-22.751 Z0.865
X-16.22 Y-22.725 Z0.864
X-16.224 Y-22.697 Z0.863
X-16.238 Y-22.673 Z0.862
X-17.299 Y-21.613 Z0.81
X-17.322 Y-21.598 Z0.809
X-17.35 Y-21.595 Z0.808
X-17.376 Y-21.604 Z0.807
X-17.396 Y-21.624 Z0.806
X-17.405 Y-21.65 Z0.805
X-17.402 Y-21.678 Z0.804
X-17.387 Y-21.701 Z0.803
X-16.327 Y-22.762 Z0.751
X-16.303 Y-22.776 Z0.75
X-16.276 Y-22.78 Z0.749
X-16.249 Y-22.77 Z0.748
X-16.23 Y-22.751 Z0.747
X-16.22 Y-22.725 Z0.746
X-16.224 Y-22.697 Z0.745
X-16.238 Y-22.673 Z0.744
X-17.299 Y-21.613 Z0.692
X-17.322 Y-21.598 Z0.691
X-17.35 Y-21.595 Z0.69
X-17.376 Y-21.604 Z0.689
X-17.396 Y-21.624 Z0.688
X-17.405 Y-21.65 Z0.687
X-17.402 Y-21.678 Z0.686
X-17.387 Y-21.701 Z0.685
X-16.327 Y-22.762 Z0.632
X-16.303 Y-22.776 Z0.631
X-16.276 Y-22.78 Z0.63
X-16.249 Y-22.77 Z0.629
X-16.23 Y-22.751 Z0.628
X-16.22 Y-22.725 Z0.627
X-16.224 Y-22.697 Z0.626
X-16.238 Y-22.673 Z0.625
X-17.299 Y-21.613 Z0.573
X-17.322 Y-21.598 Z0.572
X-17.35 Y-21.595 Z0.571
X-17.376 Y-21.604 Z0.57
X-17.396 Y-21.624 Z0.569
X-17.405 Y-21.65 Z0.568
X-17.402 Y-21.678 Z0.567
X-17.387 Y-21.701 Z0.566
X-16.327 Y-22.762 Z0.514
X-16.303 Y-22.776 Z0.513
X-16.276 Y-22.78 Z0.512
X-16.249 Y-22.77 Z0.511
X-16.23 Y-22.751 Z0.51
X-16.22 Y-22.725 Z0.509
X-16.224 Y-22.697 Z0.508
X-16.238 Y-22.673 Z0.507
X-17.299 Y-21.613 Z0.455
X-17.322 Y-21.598 Z0.454
X-17.35 Y-21.595 Z0.453
X-17.376 Y-21.604 Z0.452
X-17.396 Y-21.624 Z0.451
X-17.405 Y-21.65 Z0.45
X-17.402 Y-21.678 Z0.449
X-17.387 Y-21.701 Z0.448
X-16.327 Y-22.762 Z0.395
X-16.303 Y-22.776 Z0.394
X-16.276 Y-22.78 Z0.393
X-16.249 Y-22.77 Z0.392
X-16.23 Y-22.751 Z0.391
X-16.22 Y-22.725 Z0.39
X-16.224 Y-22.697
X-16.238 Y-22.673 Z0.389
X-17.299 Y-21.613 Z0.336
X-17.322 Y-21.598 Z0.335
X-17.35 Y-21.595 Z0.334
X-17.376 Y-21.604 Z0.333
X-17.396 Y-21.624 Z0.332
X-17.405 Y-21.65 Z0.331
X-17.402 Y-21.678 Z0.33
X-17.387 Y-21.701 Z0.329
X-16.327 Y-22.762 Z0.277
X-16.303 Y-22.776 Z0.276
X-16.276 Y-22.78 Z0.275
X-16.249 Y-22.77 Z0.274
X-16.23 Y-22.751 Z0.273
X-16.22 Y-22.725 Z0.272
X-16.224 Y-22.697 Z0.271
X-16.238 Y-22.673 Z0.27
X-17.299 Y-21.613 Z0.218
X-17.322 Y-21.598 Z0.217
X-17.35 Y-21.595 Z0.216
X-17.376 Y-21.604 Z0.215
X-17.396 Y-21.624 Z0.214
X-17.405 Y-21.65 Z0.213
X-17.402 Y-21.678 Z0.212
X-17.387 Y-21.701 Z0.211
X-16.327 Y-22.762 Z0.158
X-16.303 Y-22.776 Z0.157
X-16.276 Y-22.78 Z0.156
X-16.249 Y-22.77
X-16.23 Y-22.751 Z0.155
X-16.22 Y-22.725 Z0.154
X-16.224 Y-22.697 Z0.153
X-16.238 Y-22.673 Z0.152
X-17.299 Y-21.613 Z0.099
X-17.322 Y-21.598 Z0.098
X-17.35 Y-21.595 Z0.097
X-17.376 Y-21.604 Z0.096
X-17.396 Y-21.624 Z0.095
X-17.405 Y-21.65 Z0.094
X-17.402 Y-21.678 Z0.093
X-17.387 Y-21.701 Z0.092
X-16.327 Y-22.762 Z0.04
X-16.303 Y-22.776 Z0.039
X-16.276 Y-22.78 Z0.038
X-16.249 Y-22.77 Z0.037
X-16.23 Y-22.751 Z0.036
X-16.22 Y-22.725 Z0.035
X-16.224 Y-22.697 Z0.034
X-16.238 Y-22.673 Z0.033
X-17.299 Y-21.613 Z-0.019
X-17.322 Y-21.598 Z-0.02
X-17.35 Y-21.595 Z-0.021
X-17.376 Y-21.604 Z-0.022
X-17.396 Y-21.624 Z-0.023
X-17.405 Y-21.65 Z-0.024
X-17.402 Y-21.678 Z-0.025
X-17.387 Y-21.701 Z-0.026
X-16.327 Y-22.762 Z-0.078
X-16.303 Y-22.776 Z-0.079
X-16.276 Y-22.78 Z-0.08
X-16.249 Y-22.77 Z-0.081
X-16.23 Y-22.751 Z-0.082
X-16.22 Y-22.725 Z-0.083
X-16.224 Y-22.697 Z-0.084
X-16.238 Y-22.673 Z-0.085
X-17.299 Y-21.613 Z-0.138
X-17.322 Y-21.598 Z-0.139
X-17.35 Y-21.595 Z-0.14
X-17.376 Y-21.604 Z-0.141
X-17.396 Y-21.624 Z-0.142
X-17.405 Y-21.65 Z-0.143
X-17.402 Y-21.678 Z-0.144
X-17.387 Y-21.701 Z-0.145
X-16.327 Y-22.762 Z-0.197
X-16.303 Y-22.776 Z-0.198
X-16.276 Y-22.78 Z-0.199
X-16.249 Y-22.77 Z-0.2
X-16.23 Y-22.751 Z-0.201
X-16.22 Y-22.725 Z-0.202
X-16.224 Y-22.697 Z-0.203
X-16.238 Y-22.673 Z-0.204
X-17.299 Y-21.613 Z-0.256
X-17.322 Y-21.598 Z-0.257
X-17.35 Y-21.595 Z-0.258
X-17.376 Y-21.604 Z-0.259
X-17.396 Y-21.624 Z-0.26
X-17.405 Y-21.65 Z-0.261
X-17.402 Y-21.678 Z-0.262
X-17.387 Y-21.701 Z-0.263
X-16.327 Y-22.762 Z-0.315
X-16.303 Y-22.776 Z-0.316
X-16.276 Y-22.78 Z-0.317
X-16.249 Y-22.77 Z-0.318
X-16.23 Y-22.751 Z-0.319
X-16.22 Y-22.725 Z-0.32
X-16.224 Y-22.697 Z-0.321
X-16.238 Y-22.673 Z-0.322
X-17.299 Y-21.613 Z-0.375
X-17.322 Y-21.598 Z-0.376
X-17.35 Y-21.595 Z-0.377
X-17.376 Y-21.604 Z-0.378
X-17.396 Y-21.624 Z-0.379
X-17.405 Y-21.65 Z-0.38
X-17.402 Y-21.678 Z-0.381
X-17.387 Y-21.701 Z-0.382
X-16.327 Y-22.762 Z-0.434
X-16.303 Y-22.776 Z-0.435
X-16.276 Y-22.78 Z-0.436
X-16.249 Y-22.77 Z-0.437
X-16.23 Y-22.751 Z-0.438
X-16.22 Y-22.725 Z-0.439
X-16.224 Y-22.697 Z-0.44
X-16.238 Y-22.673 Z-0.441
X-17.299 Y-21.613 Z-0.493
X-17.322 Y-21.598 Z-0.494
X-17.35 Y-21.595 Z-0.495
X-17.376 Y-21.604 Z-0.496
X-17.396 Y-21.624 Z-0.497
X-17.405 Y-21.65 Z-0.498
X-17.402 Y-21.678 Z-0.499
X-17.387 Y-21.701 Z-0.5
S6000
X-16.327 Y-22.762 F1000
X-16.303 Y-22.776
X-16.276 Y-22.78
X-16.249 Y-22.77
X-16.23 Y-22.751
X-16.22 Y-22.725
X-16.224 Y-22.697
X-16.238 Y-22.673
X-17.299 Y-21.613
X-17.322 Y-21.598
X-17.35 Y-21.595
X-17.376 Y-21.604
X-17.396 Y-21.624
X-17.405 Y-21.65
X-17.402 Y-21.678
X-17.387 Y-21.701
S5000
X-16.327 Y-22.762 Z-0.552 F333.3
X-16.303 Y-22.776 Z-0.553
X-16.276 Y-22.78 Z-0.554
X-16.249 Y-22.77 Z-0.555
X-16.23 Y-22.751 Z-0.556
X-16.22 Y-22.725 Z-0.557
X-16.224 Y-22.697 Z-0.558
X-16.238 Y-22.673 Z-0.559
X-17.299 Y-21.613 Z-0.612
X-17.322 Y-21.598 Z-0.613
X-17.35 Y-21.595 Z-0.614
X-17.376 Y-21.604 Z-0.615
X-17.396 Y-21.624 Z-0.616
X-17.405 Y-21.65 Z-0.617
X-17.402 Y-21.678
X-17.387 Y-21.701 Z-0.618
X-16.327 Y-22.762 Z-0.671
X-16.303 Y-22.776 Z-0.672
X-16.276 Y-22.78 Z-0.673
X-16.249 Y-22.77 Z-0.674
X-16.23 Y-22.751 Z-0.675
X-16.22 Y-22.725 Z-0.676
X-16.224 Y-22.697 Z-0.677
X-16.238 Y-22.673 Z-0.678
X-17.299 Y-21.613 Z-0.73
X-17.322 Y-21.598 Z-0.731
X-17.35 Y-21.595 Z-0.732
X-17.376 Y-21.604 Z-0.733
X-17.396 Y-21.624 Z-0.734
X-17.405 Y-21.65 Z-0.735
X-17.402 Y-21.678 Z-0.736
X-17.387 Y-21.701 Z-0.737
X-16.327 Y-22.762 Z-0.789
X-16.303 Y-22.776 Z-0.79
X-16.276 Y-22.78 Z-0.791
X-16.249 Y-22.77 Z-0.792
X-16.23 Y-22.751 Z-0.793
X-16.22 Y-22.725 Z-0.794
X-16.224 Y-22.697 Z-0.795
X-16.238 Y-22.673 Z-0.796
X-17.299 Y-21.613 Z-0.849
X-17.322 Y-21.598 Z-0.85
X-17.35 Y-21.595 Z-0.851
X-17.376 Y-21.604
X-17.396 Y-21.624 Z-0.852
X-17.405 Y-21.65 Z-0.853
X-17.402 Y-21.678 Z-0.854
X-17.387 Y-21.701 Z-0.855
X-16.327 Y-22.762 Z-0.908
X-16.303 Y-22.776 Z-0.909
X-16.276 Y-22.78 Z-0.91
X-16.249 Y-22.77 Z-0.911
X-16.23 Y-22.751 Z-0.912
X-16.22 Y-22.725 Z-0.913
X-16.224 Y-22.697 Z-0.914
X-16.238 Y-22.673 Z-0.915
X-17.299 Y-21.613 Z-0.967
X-17.322 Y-21.598 Z-0.968
X-17.35 Y-21.595 Z-0.969
X-17.376 Y-21.604 Z-0.97
X-17.396 Y-21.624 Z-0.971
X-17.405 Y-21.65 Z-0.972
X-17.402 Y-21.678 Z-0.973
X-17.387 Y-21.701 Z-0.974
X-16.858 Y-22.23 Z-1
S6000
X-16.327 Y-22.762 F1000
X-16.303 Y-22.776
X-16.276 Y-22.78
X-16.249 Y-22.77
X-16.23 Y-22.751
X-16.22 Y-22.725
X-16.224 Y-22.697
X-16.238 Y-22.673
X-17.299 Y-21.613
X-17.322 Y-21.598
X-17.35 Y-21.595
X-17.376 Y-21.604
X-17.396 Y-21.624
X-17.405 Y-21.65
X-17.402 Y-21.678
X-17.387 Y-21.701
X-16.858 Y-22.23
S5000
X-16.327 Y-22.762 Z-1.026 F333.3
X-16.303 Y-22.776 Z-1.027
X-16.276 Y-22.78 Z-1.028
X-16.249 Y-22.77 Z-1.029
X-16.23 Y-22.751 Z-1.03
X-16.22 Y-22.725 Z-1.031
X-16.224 Y-22.697 Z-1.032
X-16.238 Y-22.673 Z-1.033
X-17.299 Y-21.613 Z-1.085
X-17.322 Y-21.598 Z-1.086
X-17.35 Y-21.595 Z-1.087
X-17.376 Y-21.604 Z-1.088
X-17.396 Y-21.624 Z-1.089
X-17.405 Y-21.65 Z-1.09
X-17.402 Y-21.678 Z-1.091
X-17.387 Y-21.701 Z-1.092
X-16.327 Y-22.762 Z-1.145
X-16.303 Y-22.776 Z-1.146
X-16.276 Y-22.78 Z-1.147
X-16.249 Y-22.77 Z-1.148
X-16.23 Y-22.751 Z-1.149
X-16.22 Y-22.725 Z-1.15
X-16.224 Y-22.697 Z-1.151
X-16.238 Y-22.673 Z-1.152
X-17.299 Y-21.613 Z-1.204
X-17.322 Y-21.598 Z-1.205
X-17.35 Y-21.595 Z-1.206
X-17.376 Y-21.604 Z-1.207
X-17.396 Y-21.624 Z-1.208
X-17.405 Y-21.65 Z-1.209
X-17.402 Y-21.678 Z-1.21
X-17.387 Y-21.701 Z-1.211
X-16.327 Y-22.762 Z-1.263
X-16.303 Y-22.776 Z-1.264
X-16.276 Y-22.78 Z-1.265
X-16.249 Y-22.77 Z-1.266
X-16.23 Y-22.751 Z-1.267
X-16.22 Y-22.725 Z-1.268
X-16.224 Y-22.697 Z-1.269
X-16.238 Y-22.673 Z-1.27
X-17.299 Y-21.613 Z-1.322
X-17.322 Y-21.598 Z-1.323
X-17.35 Y-21.595 Z-1.324
X-17.376 Y-21.604 Z-1.325
X-17.396 Y-21.624 Z-1.326
X-17.405 Y-21.65 Z-1.327
X-17.402 Y-21.678 Z-1.328
X-17.387 Y-21.701 Z-1.329
X-16.327 Y-22.762 Z-1.382
X-16.303 Y-22.776 Z-1.383
X-16.276 Y-22.78 Z-1.384
X-16.249 Y-22.77 Z-1.385
X-16.23 Y-22.751 Z-1.386
X-16.22 Y-22.725 Z-1.387
X-16.224 Y-22.697 Z-1.388
X-16.238 Y-22.673 Z-1.389
X-17.299 Y-21.613 Z-1.441
X-17.322 Y-21.598 Z-1.442
X-17.35 Y-21.595 Z-1.443
X-17.376 Y-21.604 Z-1.444
X-17.396 Y-21.624 Z-1.445
X-17.405 Y-21.65 Z-1.446
X-17.402 Y-21.678 Z-1.447
X-17.387 Y-21.701 Z-1.448
X-16.329 Y-22.759 Z-1.5
S6000
X-16.327 Y-22.762 F1000
X-16.303 Y-22.776
X-16.276 Y-22.78
X-16.249 Y-22.77
X-16.23 Y-22.751
X-16.22 Y-22.725
X-16.224 Y-22.697
X-16.238 Y-22.673
X-17.299 Y-21.613
X-17.322 Y-21.598
X-17.35 Y-21.595
X-17.376 Y-21.604
X-17.396 Y-21.624
X-17.405 Y-21.65
X-17.402 Y-21.678
X-17.387 Y-21.701
X-16.858 Y-22.23
X-16.329 Y-22.759
S5000
X-16.327 Y-22.762 F333.3
X-16.303 Y-22.776 Z-1.501
X-16.276 Y-22.78 Z-1.502
X-16.249 Y-22.77 Z-1.503
X-16.23 Y-22.751 Z-1.504
X-16.22 Y-22.725 Z-1.505
X-16.224 Y-22.697 Z-1.506
X-16.238 Y-22.673 Z-1.507
X-17.299 Y-21.613 Z-1.559
X-17.322 Y-21.598 Z-1.56
X-17.35 Y-21.595 Z-1.561
X-17.376 Y-21.604 Z-1.562
X-17.396 Y-21.624 Z-1.563
X-17.405 Y-21.65 Z-1.564
X-17.402 Y-21.678 Z-1.565
X-17.387 Y-21.701 Z-1.566
X-16.327 Y-22.762 Z-1.619
X-16.303 Y-22.776 Z-1.62
X-16.276 Y-22.78 Z-1.621
X-16.249 Y-22.77 Z-1.622
X-16.23 Y-22.751 Z-1.623
X-16.22 Y-22.725
X-16.224 Y-22.697 Z-1.624
X-16.238 Y-22.673 Z-1.625
X-17.299 Y-21.613 Z-1.678
X-17.322 Y-21.598 Z-1.679
X-17.35 Y-21.595 Z-1.68
X-17.376 Y-21.604 Z-1.681
X-17.396 Y-21.624 Z-1.682
X-17.405 Y-21.65 Z-1.683
X-17.402 Y-21.678 Z-1.684
X-17.387 Y-21.701 Z-1.685
X-16.327 Y-22.762 Z-1.737
X-16.303 Y-22.776 Z-1.738
X-16.276 Y-22.78 Z-1.739
X-16.249 Y-22.77 Z-1.74
X-16.23 Y-22.751 Z-1.741
X-16.22 Y-22.725 Z-1.742
X-16.224 Y-22.697 Z-1.743
X-16.238 Y-22.673 Z-1.744
X-17.299 Y-21.613 Z-1.796
X-17.322 Y-21.598 Z-1.797
X-17.35 Y-21.595 Z-1.798
X-17.376 Y-21.604 Z-1.799
X-17.396 Y-21.624 Z-1.8
X-17.405 Y-21.65 Z-1.801
X-17.402 Y-21.678 Z-1.802
X-17.387 Y-21.701 Z-1.803
X-16.327 Y-22.762 Z-1.856
X-16.303 Y-22.776 Z-1.857
X-16.276 Y-22.78
X-16.249 Y-22.77 Z-1.858
X-16.23 Y-22.751 Z-1.859
X-16.22 Y-22.725 Z-1.86
X-16.224 Y-22.697 Z-1.861
X-16.238 Y-22.673 Z-1.862
X-17.299 Y-21.613 Z-1.915
X-17.322 Y-21.598 Z-1.916
X-17.35 Y-21.595 Z-1.917
X-17.376 Y-21.604 Z-1.918
X-17.396 Y-21.624 Z-1.919
X-17.405 Y-21.65 Z-1.92
X-17.402 Y-21.678 Z-1.921
X-17.387 Y-21.701 Z-1.922
X-16.327 Y-22.762 Z-1.974
X-16.303 Y-22.776 Z-1.975
X-16.276 Y-22.78 Z-1.976
X-16.249 Y-22.77 Z-1.977
X-16.23 Y-22.751 Z-1.978
X-16.22 Y-22.725 Z-1.979
X-16.224 Y-22.697 Z-1.98
X-16.238 Y-22.673 Z-1.981
X-16.626 Y-22.286 Z-2
S6000
X-17.299 Y-21.613 F1000
X-17.322 Y-21.598
X-17.35 Y-21.595
X-17.376 Y-21.604
X-17.396 Y-21.624
X-17.405 Y-21.65
X-17.402 Y-21.678
X-17.387 Y-21.701
X-16.329 Y-22.759
X-16.327 Y-22.762
X-16.303 Y-22.776
X-16.276 Y-22.78
X-16.249 Y-22.77
X-16.23 Y-22.751
X-16.22 Y-22.725
X-16.224 Y-22.697
X-16.238 Y-22.673
X-16.626 Y-22.286
S5000
X-17.299 Y-21.613 Z-2.033 F333.3
X-17.322 Y-21.598 Z-2.034
X-17.35 Y-21.595 Z-2.035
X-17.376 Y-21.604 Z-2.036
X-17.396 Y-21.624 Z-2.037
X-17.405 Y-21.65 Z-2.038
X-17.402 Y-21.678 Z-2.039
X-17.387 Y-21.701 Z-2.04
X-16.327 Y-22.762 Z-2.092
X-16.303 Y-22.776 Z-2.093
X-16.276 Y-22.78 Z-2.094
X-16.249 Y-22.77 Z-2.095
X-16.23 Y-22.751 Z-2.096
X-16.22 Y-22.725 Z-2.097
X-16.224 Y-22.697 Z-2.098
X-16.238 Y-22.673 Z-2.099
X-17.299 Y-21.613 Z-2.152
X-17.322 Y-21.598 Z-2.153
X-17.35 Y-21.595 Z-2.154
X-17.376 Y-21.604 Z-2.155
X-17.396 Y-21.624 Z-2.156
X-17.405 Y-21.65 Z-2.157
X-17.402 Y-21.678 Z-2.158
X-17.387 Y-21.701 Z-2.159
X-16.327 Y-22.762 Z-2.211
X-16.303 Y-22.776 Z-2.212
X-16.276 Y-22.78 Z-2.213
X-16.249 Y-22.77 Z-2.214
X-16.23 Y-22.751 Z-2.215
X-16.22 Y-22.725 Z-2.216
X-16.224 Y-22.697 Z-2.217
X-16.238 Y-22.673 Z-2.218
X-17.299 Y-21.613 Z-2.27
X-17.322 Y-21.598 Z-2.271
X-17.35 Y-21.595 Z-2.272
X-17.376 Y-21.604 Z-2.273
X-17.396 Y-21.624 Z-2.274
X-17.405 Y-21.65 Z-2.275
X-17.402 Y-21.678 Z-2.276
X-17.387 Y-21.701 Z-2.277
X-16.327 Y-22.762 Z-2.329
X-16.303 Y-22.776 Z-2.33
X-16.276 Y-22.78 Z-2.331
X-16.249 Y-22.77 Z-2.332
X-16.23 Y-22.751 Z-2.333
X-16.22 Y-22.725 Z-2.334
X-16.224 Y-22.697 Z-2.335
X-16.238 Y-22.673 Z-2.336
X-17.299 Y-21.613 Z-2.389
X-17.322 Y-21.598 Z-2.39
X-17.35 Y-21.595 Z-2.391
X-17.376 Y-21.604 Z-2.392
X-17.396 Y-21.624 Z-2.393
X-17.405 Y-21.65 Z-2.394
X-17.402 Y-21.678 Z-2.395
X-17.387 Y-21.701 Z-2.396
X-16.327 Y-22.762 Z-2.448
X-16.303 Y-22.776 Z-2.449
X-16.276 Y-22.78 Z-2.45
X-16.249 Y-22.77 Z-2.451
X-16.23 Y-22.751 Z-2.452
X-16.22 Y-22.725 Z-2.453
X-16.224 Y-22.697 Z-2.454
X-16.238 Y-22.673 Z-2.455
X-17.155 Y-21.757 Z-2.5
S6000
X-17.299 Y-21.613 F1000
X-17.322 Y-21.598
X-17.35 Y-21.595
X-17.376 Y-21.604
X-17.396 Y-21.624
X-17.405 Y-21.65
X-17.402 Y-21.678
X-17.387 Y-21.701
X-16.327 Y-22.762
X-16.303 Y-22.776
X-16.276 Y-22.78
X-16.249 Y-22.77
X-16.23 Y-22.751
X-16.22 Y-22.725
X-16.224 Y-22.697
X-16.238 Y-22.673
X-17.155 Y-21.757
S5000
X-17.299 Y-21.613 Z-2.507 F333.3
X-17.322 Y-21.598 Z-2.508
X-17.35 Y-21.595 Z-2.509
X-17.376 Y-21.604 Z-2.51
X-17.396 Y-21.624 Z-2.511
X-17.405 Y-21.65 Z-2.512
X-17.402 Y-21.678 Z-2.513
X-17.387 Y-21.701 Z-2.514
X-16.327 Y-22.762 Z-2.566
X-16.303 Y-22.776 Z-2.567
X-16.276 Y-22.78 Z-2.568
X-16.249 Y-22.77 Z-2.569
X-16.23 Y-22.751 Z-2.57
X-16.22 Y-22.725 Z-2.571
X-16.224 Y-22.697 Z-2.572
X-16.238 Y-22.673 Z-2.573
X-17.299 Y-21.613 Z-2.626
X-17.322 Y-21.598 Z-2.627
X-17.35 Y-21.595 Z-2.628
X-17.376 Y-21.604 Z-2.629
X-17.396 Y-21.624 Z-2.63
X-17.405 Y-21.65
X-17.402 Y-21.678 Z-2.631
X-17.387 Y-21.701 Z-2.632
X-16.327 Y-22.762 Z-2.685
X-16.303 Y-22.776 Z-2.686
X-16.276 Y-22.78 Z-2.687
X-16.249 Y-22.77 Z-2.688
X-16.23 Y-22.751 Z-2.689
X-16.22 Y-22.725 Z-2.69
X-16.224 Y-22.697 Z-2.691
X-16.238 Y-22.673 Z-2.692
X-17.299 Y-21.613 Z-2.744
X-17.322 Y-21.598 Z-2.745
X-17.35 Y-21.595 Z-2.746
X-17.376 Y-21.604 Z-2.747
X-17.396 Y-21.624 Z-2.748
X-17.405 Y-21.65 Z-2.749
X-17.402 Y-21.678 Z-2.75
X-17.387 Y-21.701 Z-2.751
X-16.327 Y-22.762 Z-2.803
X-16.303 Y-22.776 Z-2.804
X-16.276 Y-22.78 Z-2.805
X-16.249 Y-22.77 Z-2.806
X-16.23 Y-22.751 Z-2.807
X-16.22 Y-22.725 Z-2.808
X-16.224 Y-22.697 Z-2.809
X-16.238 Y-22.673 Z-2.81
X-17.299 Y-21.613 Z-2.863
X-17.322 Y-21.598 Z-2.864
X-17.35 Y-21.595
X-17.376 Y-21.604 Z-2.865
X-17.396 Y-21.624 Z-2.866
X-17.405 Y-21.65 Z-2.867
X-17.402 Y-21.678 Z-2.868
X-17.387 Y-21.701 Z-2.869
X-16.327 Y-22.762 Z-2.922
X-16.303 Y-22.776 Z-2.923
X-16.276 Y-22.78 Z-2.924
X-16.249 Y-22.77 Z-2.925
X-16.23 Y-22.751 Z-2.926
X-16.22 Y-22.725 Z-2.927
X-16.224 Y-22.697 Z-2.928
X-16.238 Y-22.673 Z-2.929
X-17.299 Y-21.613 Z-2.981
X-17.322 Y-21.598 Z-2.982
X-17.35 Y-21.595 Z-2.983
X-17.376 Y-21.604 Z-2.984
X-17.396 Y-21.624 Z-2.985
X-17.405 Y-21.65 Z-2.986
X-17.402 Y-21.678 Z-2.987
X-17.387 Y-21.701 Z-2.988
X-17.141 Y-21.947 Z-3
S6000
X-16.327 Y-22.762 F1000
X-16.303 Y-22.776
X-16.276 Y-22.78
X-16.249 Y-22.77
X-16.23 Y-22.751
X-16.22 Y-22.725
X-16.224 Y-22.697
X-16.238 Y-22.673
X-17.155 Y-21.757
X-17.299 Y-21.613
X-17.322 Y-21.598
X-17.35 Y-21.595
X-17.376 Y-21.604
X-17.396 Y-21.624
X-17.405 Y-21.65
X-17.402 Y-21.678
X-17.387 Y-21.701
X-17.141 Y-21.947
S5000
X-16.327 Y-22.762 Z-3.04 F333.3
X-16.303 Y-22.776 Z-3.041
X-16.276 Y-22.78 Z-3.042
X-16.249 Y-22.77 Z-3.043
X-16.23 Y-22.751 Z-3.044
X-16.22 Y-22.725 Z-3.045
X-16.224 Y-22.697 Z-3.046
X-16.238 Y-22.673 Z-3.047
X-17.299 Y-21.613 Z-3.099
X-17.322 Y-21.598 Z-3.1
X-17.35 Y-21.595 Z-3.101
X-17.376 Y-21.604 Z-3.102
X-17.396 Y-21.624 Z-3.103
X-17.405 Y-21.65 Z-3.104
X-17.402 Y-21.678 Z-3.105
X-17.387 Y-21.701 Z-3.106
X-16.327 Y-22.762 Z-3.159
X-16.303 Y-22.776 Z-3.16
X-16.276 Y-22.78 Z-3.161
X-16.249 Y-22.77 Z-3.162
X-16.23 Y-22.751 Z-3.163
X-16.22 Y-22.725 Z-3.164
X-16.224 Y-22.697 Z-3.165
X-16.238 Y-22.673 Z-3.166
X-16.936 Y-21.976 Z-3.2
S6000
X-17.299 Y-21.613 F1000
X-17.322 Y-21.598
X-17.35 Y-21.595
X-17.376 Y-21.604
X-17.396 Y-21.624
X-17.405 Y-21.65
X-17.402 Y-21.678
X-17.387 Y-21.701
X-16.327 Y-22.762
X-16.303 Y-22.776
X-16.276 Y-22.78
X-16.249 Y-22.77
X-16.23 Y-22.751
X-16.22 Y-22.725
X-16.224 Y-22.697
X-16.238 Y-22.673
X-16.936 Y-21.976
G0 Z5
X-16.752 Y-9.663
G1 Z2.5 F333.3
S5000
X-17.387 Y-10.299 Z2.469
X-17.402 Y-10.322 Z2.468
X-17.405 Y-10.35 Z2.467
X-17.396 Y-10.376 Z2.466
X-17.376 Y-10.396 Z2.465
X-17.35 Y-10.405 Z2.464
X-17.322 Y-10.402 Z2.463
X-17.299 Y-10.387 Z2.462
X-16.238 Y-9.327 Z2.409
X-16.224 Y-9.303 Z2.408
X-16.22 Y-9.276 Z2.407
X-16.23 Y-9.249 Z2.406
X-16.249 Y-9.23 Z2.405
X-16.275 Y-9.22 Z2.404
X-16.303 Y-9.224
X-16.327 Y-9.238 Z2.403
X-17.387 Y-10.299 Z2.35
X-17.402 Y-10.322 Z2.349
X-17.405 Y-10.35 Z2.348
X-17.396 Y-10.376 Z2.347
X-17.376 Y-10.396 Z2.346
X-17.35 Y-10.405 Z2.345
X-17.322 Y-10.402 Z2.344
X-17.299 Y-10.387 Z2.343
X-16.238 Y-9.327 Z2.291
X-16.224 Y-9.303 Z2.29
X-16.22 Y-9.276 Z2.289
X-16.23 Y-9.249 Z2.288
X-16.249 Y-9.23 Z2.287
X-16.275 Y-9.22 Z2.286
X-16.303 Y-9.224 Z2.285
X-16.327 Y-9.238 Z2.284
X-17.387 Y-10.299 Z2.232
X-17.402 Y-10.322 Z2.231
X-17.405 Y-10.35 Z2.23
X-17.396 Y-10.376 Z2.229
X-17.376 Y-10.396 Z2.228
X-17.35 Y-10.405 Z2.227
X-17.322 Y-10.402 Z2.226
X-17.299 Y-10.387 Z2.225
X-16.238 Y-9.327 Z2.172
X-16.224 Y-9.303 Z2.171
X-16.22 Y-9.276 Z2.17
X-16.23 Y-9.249
X-16.249 Y-9.23 Z2.169
X-16.275 Y-9.22 Z2.168
X-16.303 Y-9.224 Z2.167
X-16.327 Y-9.238 Z2.166
X-17.387 Y-10.299 Z2.113
X-17.402 Y-10.322 Z2.112
X-17.405 Y-10.35 Z2.111
X-17.396 Y-10.376 Z2.11
X-17.376 Y-10.396 Z2.109
X-17.35 Y-10.405 Z2.108
X-17.322 Y-10.402 Z2.107
X-17.299 Y-10.387 Z2.106
X-16.238 Y-9.327 Z2.054
X-16.224 Y-9.303 Z2.053
X-16.22 Y-9.276 Z2.052
X-16.23 Y-9.249 Z2.051
X-16.249 Y-9.23 Z2.05
X-16.275 Y-9.22 Z2.049
X-16.303 Y-9.224 Z2.048
X-16.327 Y-9.238 Z2.047
X-17.387 Y-10.299 Z1.995
X-17.402 Y-10.322 Z1.994
X-17.405 Y-10.35 Z1.993
X-17.396 Y-10.376 Z1.992
X-17.376 Y-10.396 Z1.991
X-17.35 Y-10.405 Z1.99
X-17.322 Y-10.402 Z1.989
X-17.299 Y-10.387 Z1.988
X-16.238 Y-9.327 Z1.936
X-16.224 Y-9.303 Z1.935
X-16.22 Y-9.276 Z1.934
X-16.23 Y-9.249 Z1.933
X-16.249 Y-9.23 Z1.932
X-16.275 Y-9.22 Z1.931
X-16.303 Y-9.224 Z1.93
X-16.327 Y-9.238 Z1.929
X-17.387 Y-10.299 Z1.876
X-17.402 Y-10.322 Z1.875
X-17.405 Y-10.35 Z1.874
X-17.396 Y-10.376 Z1.873
X-17.376 Y-10.396 Z1.872
X-17.35 Y-10.405 Z1.871
X-17.322 Y-10.402 Z1.87
X-17.299 Y-10.387 Z1.869
X-16.238 Y-9.327 Z1.817
X-16.224 Y-9.303 Z1.816
X-16.22 Y-9.276 Z1.815
X-16.23 Y-9.249 Z1.814
X-16.249 Y-9.23 Z1.813
X-16.275 Y-9.22 Z1.812
X-16.303 Y-9.224 Z1.811
X-16.327 Y-9.238 Z1.81
X-17.387 Y-10.299 Z1.758
X-17.402 Y-10.322 Z1.757
X-17.405 Y-10.35 Z1.756
X-17.396 Y-10.376 Z1.755
X-17.376 Y-10.396 Z1.754
X-17.35 Y-10.405 Z1.753
X-17.322 Y-10.402 Z1.752
X-17.299 Y-10.387 Z1.751
X-16.238 Y-9.327 Z1.699
X-16.224 Y-9.303 Z1.698
X-16.22 Y-9.276 Z1.697
X-16.23 Y-9.249 Z1.696
X-16.249 Y-9.23 Z1.695
X-16.275 Y-9.22 Z1.694
X-16.303 Y-9.224 Z1.693
X-16.327 Y-9.238 Z1.692
X-17.387 Y-10.299 Z1.639
X-17.402 Y-10.322 Z1.638
X-17.405 Y-10.35 Z1.637
X-17.396 Y-10.376 Z1.636
X-17.376 Y-10.396 Z1.635
X-17.35 Y-10.405 Z1.634
X-17.322 Y-10.402 Z1.633
X-17.299 Y-10.387 Z1.632
X-16.238 Y-9.327 Z1.58
X-16.224 Y-9.303 Z1.579
X-16.22 Y-9.276 Z1.578
X-16.23 Y-9.249 Z1.577
X-16.249 Y-9.23 Z1.576
X-16.275 Y-9.22 Z1.575
X-16.303 Y-9.224 Z1.574
X-16.327 Y-9.238 Z1.573
X-17.387 Y-10.299 Z1.521
X-17.402 Y-10.322 Z1.52
X-17.405 Y-10.35 Z1.519
X-17.396 Y-10.376 Z1.518
X-17.376 Y-10.396 Z1.517
X-17.35 Y-10.405 Z1.516
X-17.322 Y-10.402 Z1.515
X-17.299 Y-10.387 Z1.514
X-16.238 Y-9.327 Z1.462
X-16.224 Y-9.303 Z1.461
X-16.22 Y-9.276 Z1.46
X-16.23 Y-9.249 Z1.459
X-16.249 Y-9.23 Z1.458
X-16.275 Y-9.22 Z1.457
X-16.303 Y-9.224 Z1.456
X-16.327 Y-9.238 Z1.455
X-17.387 Y-10.299 Z1.402
X-17.402 Y-10.322 Z1.401
X-17.405 Y-10.35 Z1.4
X-17.396 Y-10.376 Z1.399
X-17.376 Y-10.396 Z1.398
X-17.35 Y-10.405 Z1.397
X-17.322 Y-10.402
X-17.299 Y-10.387 Z1.396
X-16.238 Y-9.327 Z1.343
X-16.224 Y-9.303 Z1.342
X-16.22 Y-9.276 Z1.341
X-16.23 Y-9.249 Z1.34
X-16.249 Y-9.23 Z1.339
X-16.275 Y-9.22 Z1.338
X-16.303 Y-9.224 Z1.337
X-16.327 Y-9.238 Z1.336
X-17.387 Y-10.299 Z1.284
X-17.402 Y-10.322 Z1.283
X-17.405 Y-10.35 Z1.282
X-17.396 Y-10.376 Z1.281
X-17.376 Y-10.396 Z1.28
X-17.35 Y-10.405 Z1.279
X-17.322 Y-10.402 Z1.278
X-17.299 Y-10.387 Z1.277
X-16.238 Y-9.327 Z1.225
X-16.224 Y-9.303 Z1.224
X-16.22 Y-9.276 Z1.223
X-16.23 Y-9.249 Z1.222
X-16.249 Y-9.23 Z1.221
X-16.275 Y-9.22 Z1.22
X-16.303 Y-9.224 Z1.219
X-16.327 Y-9.238 Z1.218
X-17.387 Y-10.299 Z1.165
X-17.402 Y-10.322 Z1.164
X-17.405 Y-10.35 Z1.163
X-17.396 Y-10.376
X-17.376 Y-10.396 Z1.162
X-17.35 Y-10.405 Z1.161
X-17.322 Y-10.402 Z1.16
X-17.299 Y-10.387 Z1.159
X-16.238 Y-9.327 Z1.106
X-16.224 Y-9.303 Z1.105
X-16.22 Y-9.276 Z1.104
X-16.23 Y-9.249 Z1.103
X-16.249 Y-9.23 Z1.102
X-16.275 Y-9.22 Z1.101
X-16.303 Y-9.224 Z1.1
X-16.327 Y-9.238 Z1.099
X-17.387 Y-10.299 Z1.047
X-17.402 Y-10.322 Z1.046
X-17.405 Y-10.35 Z1.045
X-17.396 Y-10.376 Z1.044
X-17.376 Y-10.396 Z1.043
X-17.35 Y-10.405 Z1.042
X-17.322 Y-10.402 Z1.041
X-17.299 Y-10.387 Z1.04
X-16.238 Y-9.327 Z0.988
X-16.224 Y-9.303 Z0.987
X-16.22 Y-9.276 Z0.986
X-16.23 Y-9.249 Z0.985
X-16.249 Y-9.23 Z0.984
X-16.275 Y-9.22 Z0.983
X-16.303 Y-9.224 Z0.982
X-16.327 Y-9.238 Z0.981
X-17.387 Y-10.299 Z0.929
X-17.402 Y-10.322 Z0.928
X-17.405 Y-10.35 Z0.927
X-17.396 Y-10.376 Z0.926
X-17.376 Y-10.396 Z0.925
X-17.35 Y-10.405 Z0.924
X-17.322 Y-10.402 Z0.923
X-17.299 Y-10.387 Z0.922
X-16.238 Y-9.327 Z0.869
X-16.224 Y-9.303 Z0.868
X-16.22 Y-9.276 Z0.867
X-16.23 Y-9.249 Z0.866
X-16.249 Y-9.23 Z0.865
X-16.275 Y-9.22 Z0.864
X-16.303 Y-9.224 Z0.863
X-16.327 Y-9.238 Z0.862
X-17.387 Y-10.299 Z0.81
X-17.402 Y-10.322 Z0.809
X-17.405 Y-10.35 Z0.808
X-17.396 Y-10.376 Z0.807
X-17.376 Y-10.396 Z0.806
X-17.35 Y-10.405 Z0.805
X-17.322 Y-10.402 Z0.804
X-17.299 Y-10.387 Z0.803
X-16.238 Y-9.327 Z0.751
X-16.224 Y-9.303 Z0.75
X-16.22 Y-9.276 Z0.749
X-16.23 Y-9.249 Z0.748
X-16.249 Y-9.23 Z0.747
X-16.275 Y-9.22 Z0.746
X-16.303 Y-9.224 Z0.745
X-16.327 Y-9.238 Z0.744
X-17.387 Y-10.299 Z0.692
X-17.402 Y-10.322 Z0.691
X-17.405 Y-10.35 Z0.69
X-17.396 Y-10.376 Z0.689
X-17.376 Y-10.396 Z0.688
X-17.35 Y-10.405 Z0.687
X-17.322 Y-10.402 Z0.686
X-17.299 Y-10.387 Z0.685
X-16.238 Y-9.327 Z0.632
X-16.224 Y-9.303 Z0.631
X-16.22 Y-9.276 Z0.63
X-16.23 Y-9.249 Z0.629
X-16.249 Y-9.23 Z0.628
X-16.275 Y-9.22 Z0.627
X-16.303 Y-9.224 Z0.626
X-16.327 Y-9.238 Z0.625
X-17.387 Y-10.299 Z0.573
X-17.402 Y-10.322 Z0.572
X-17.405 Y-10.35 Z0.571
X-17.396 Y-10.376 Z0.57
X-17.376 Y-10.396 Z0.569
X-17.35 Y-10.405 Z0.568
X-17.322 Y-10.402 Z0.567
X-17.299 Y-10.387 Z0.566
X-16.238 Y-9.327 Z0.514
X-16.224 Y-9.303 Z0.513
X-16.22 Y-9.276 Z0.512
X-16.23 Y-9.249 Z0.511
X-16.249 Y-9.23 Z0.51
X-16.275 Y-9.22 Z0.509
X-16.303 Y-9.224 Z0.508
X-16.327 Y-9.238 Z0.507
X-17.387 Y-10.299 Z0.455
X-17.402 Y-10.322 Z0.454
X-17.405 Y-10.35 Z0.453
X-17.396 Y-10.376 Z0.452
X-17.376 Y-10.396 Z0.451
X-17.35 Y-10.405 Z0.45
X-17.322 Y-10.402 Z0.449
X-17.299 Y-10.387 Z0.448
X-16.238 Y-9.327 Z0.395
X-16.224 Y-9.303 Z0.394
X-16.22 Y-9.276 Z0.393
X-16.23 Y-9.249 Z0.392
X-16.249 Y-9.23 Z0.391
X-16.275 Y-9.22 Z0.39
X-16.303 Y-9.224
X-16.327 Y-9.238 Z0.389
X-17.387 Y-10.299 Z0.336
X-17.402 Y-10.322 Z0.335
X-17.405 Y-10.35 Z0.334
X-17.396 Y-10.376 Z0.333
X-17.376 Y-10.396 Z0.332
X-17.35 Y-10.405 Z0.331
X-17.322 Y-10.402 Z0.33
X-17.299 Y-10.387 Z0.329
X-16.238 Y-9.327 Z0.277
X-16.224 Y-9.303 Z0.276
X-16.22 Y-9.276 Z0.275
X-16.23 Y-9.249 Z0.274
X-16.249 Y-9.23 Z0.273
X-16.275 Y-9.22 Z0.272
X-16.303 Y-9.224 Z0.271
X-16.327 Y-9.238 Z0.27
X-17.387 Y-10.299 Z0.218
X-17.402 Y-10.322 Z0.217
X-17.405 Y-10.35 Z0.216
X-17.396 Y-10.376 Z0.215
X-17.376 Y-10.396 Z0.214
X-17.35 Y-10.405 Z0.213
X-17.322 Y-10.402 Z0.212
X-17.299 Y-10.387 Z0.211
X-16.238 Y-9.327 Z0.158
X-16.224 Y-9.303 Z0.157
X-16.22 Y-9.276 Z0.156
X-16.23 Y-9.249
X-16.249 Y-9.23 Z0.155
X-16.275 Y-9.22 Z0.154
X-16.303 Y-9.224 Z0.153
X-16.327 Y-9.238 Z0.152
X-17.387 Y-10.299 Z0.099
X-17.402 Y-10.322 Z0.098
X-17.405 Y-10.35 Z0.097
X-17.396 Y-10.376 Z0.096
X-17.376 Y-10.396 Z0.095
X-17.35 Y-10.405 Z0.094
X-17.322 Y-10.402 Z0.093
X-17.299 Y-10.387 Z0.092
X-16.238 Y-9.327 Z0.04
X-16.224 Y-9.303 Z0.039
X-16.22 Y-9.276 Z0.038
X-16.23 Y-9.249 Z0.037
X-16.249 Y-9.23 Z0.036
X-16.275 Y-9.22 Z0.035
X-16.303 Y-9.224 Z0.034
X-16.327 Y-9.238 Z0.033
X-17.387 Y-10.299 Z-0.019
X-17.402 Y-10.322 Z-0.02
X-17.405 Y-10.35 Z-0.021
X-17.396 Y-10.376 Z-0.022
X-17.376 Y-10.396 Z-0.023
X-17.35 Y-10.405 Z-0.024
X-17.322 Y-10.402 Z-0.025
X-17.299 Y-10.387 Z-0.026
X-16.238 Y-9.327 Z-0.078
X-16.224 Y-9.303 Z-0.079
X-16.22 Y-9.276 Z-0.08
X-16.23 Y-9.249 Z-0.081
X-16.249 Y-9.23 Z-0.082
X-16.275 Y-9.22 Z-0.083
X-16.303 Y-9.224 Z-0.084
X-16.327 Y-9.238 Z-0.085
X-17.387 Y-10.299 Z-0.138
X-17.402 Y-10.322 Z-0.139
X-17.405 Y-10.35 Z-0.14
X-17.396 Y-10.376 Z-0.141
X-17.376 Y-10.396 Z-0.142
X-17.35 Y-10.405 Z-0.143
X-17.322 Y-10.402 Z-0.144
X-17.299 Y-10.387 Z-0.145
X-16.238 Y-9.327 Z-0.197
X-16.224 Y-9.303 Z-0.198
X-16.22 Y-9.276 Z-0.199
X-16.23 Y-9.249 Z-0.2
X-16.249 Y-9.23 Z-0.201
X-16.275 Y-9.22 Z-0.202
X-16.303 Y-9.224 Z-0.203
X-16.327 Y-9.238 Z-0.204
X-17.387 Y-10.299 Z-0.256
X-17.402 Y-10.322 Z-0.257
X-17.405 Y-10.35 Z-0.258
X-17.396 Y-10.376 Z-0.259
X-17.376 Y-10.396 Z-0.26
X-17.35 Y-10.405 Z-0.261
X-17.322 Y-10.402 Z-0.262
X-17.299 Y-10.387 Z-0.263
X-16.238 Y-9.327 Z-0.315
X-16.224 Y-9.303 Z-0.316
X-16.22 Y-9.276 Z-0.317
X-16.23 Y-9.249 Z-0.318
X-16.249 Y-9.23 Z-0.319
X-16.275 Y-9.22 Z-0.32
X-16.303 Y-9.224 Z-0.321
X-16.327 Y-9.238 Z-0.322
X-17.387 Y-10.299 Z-0.375
X-17.402 Y-10.322 Z-0.376
X-17.405 Y-10.35 Z-0.377
X-17.396 Y-10.376 Z-0.378
X-17.376 Y-10.396 Z-0.379
X-17.35 Y-10.405 Z-0.38
X-17.322 Y-10.402 Z-0.381
X-17.299 Y-10.387 Z-0.382
X-16.238 Y-9.327 Z-0.434
X-16.224 Y-9.303 Z-0.435
X-16.22 Y-9.276 Z-0.436
X-16.23 Y-9.249 Z-0.437
X-16.249 Y-9.23 Z-0.438
X-16.275 Y-9.22 Z-0.439
X-16.303 Y-9.224 Z-0.44
X-16.327 Y-9.238 Z-0.441
X-17.387 Y-10.299 Z-0.493
X-17.402 Y-10.322 Z-0.494
X-17.405 Y-10.35 Z-0.495
X-17.396 Y-10.376 Z-0.496
X-17.376 Y-10.396 Z-0.497
X-17.35 Y-10.405 Z-0.498
X-17.322 Y-10.402 Z-0.499
X-17.299 Y-10.387 Z-0.5
S6000
X-16.238 Y-9.327 F1000
X-16.224 Y-9.303
X-16.22 Y-9.276
X-16.23 Y-9.249
X-16.249 Y-9.23
X-16.275 Y-9.22
X-16.303 Y-9.224
X-16.327 Y-9.238
X-17.387 Y-10.299
X-17.402 Y-10.322
X-17.405 Y-10.35
X-17.396 Y-10.376
X-17.376 Y-10.396
X-17.35 Y-10.405
X-17.322 Y-10.402
X-17.299 Y-10.387
S5000
X-16.238 Y-9.327 Z-0.552 F333.3
X-16.224 Y-9.303 Z-0.553
X-16.22 Y-9.276 Z-0.554
X-16.23 Y-9.249 Z-0.555
X-16.249 Y-9.23 Z-0.556
X-16.275 Y-9.22 Z-0.557
X-16.303 Y-9.224 Z-0.558
X-16.327 Y-9.238 Z-0.559
X-17.387 Y-10.299 Z-0.612
X-17.402 Y-10.322 Z-0.613
X-17.405 Y-10.35 Z-0.614
X-17.396 Y-10.376 Z-0.615
X-17.376 Y-10.396 Z-0.616
X-17.35 Y-10.405 Z-0.617
X-17.322 Y-10.402
X-17.299 Y-10.387 Z-0.618
X-16.238 Y-9.327 Z-0.671
X-16.224 Y-9.303 Z-0.672
X-16.22 Y-9.276 Z-0.673
X-16.23 Y-9.249 Z-0.674
X-16.249 Y-9.23 Z-0.675
X-16.275 Y-9.22 Z-0.676
X-16.303 Y-9.224 Z-0.677
X-16.327 Y-9.238 Z-0.678
X-17.387 Y-10.299 Z-0.73
X-17.402 Y-10.322 Z-0.731
X-17.405 Y-10.35 Z-0.732
X-17.396 Y-10.376 Z-0.733
X-17.376 Y-10.396 Z-0.734
X-17.35 Y-10.405 Z-0.735
X-17.322 Y-10.402 Z-0.736
X-17.299 Y-10.387 Z-0.737
X-16.238 Y-9.327 Z-0.789
X-16.224 Y-9.303 Z-0.79
X-16.22 Y-9.276 Z-0.791
X-16.23 Y-9.249 Z-0.792
X-16.249 Y-9.23 Z-0.793
X-16.275 Y-9.22 Z-0.794
X-16.303 Y-9.224 Z-0.795
X-16.327 Y-9.238 Z-0.796
X-17.387 Y-10.299 Z-0.849
X-17.402 Y-10.322 Z-0.85
X-17.405 Y-10.35 Z-0.851
X-17.396 Y-10.376
X-17.376 Y-10.396 Z-0.852
X-17.35 Y-10.405 Z-0.853
X-17.322 Y-10.402 Z-0.854
X-17.299 Y-10.387 Z-0.855
X-16.238 Y-9.327 Z-0.908
X-16.224 Y-9.303 Z-0.909
X-16.22 Y-9.276 Z-0.91
X-16.23 Y-9.249 Z-0.911
X-16.249 Y-9.23 Z-0.912
X-16.275 Y-9.22 Z-0.913
X-16.303 Y-9.224 Z-0.914
X-16.327 Y-9.238 Z-0.915
X-17.387 Y-10.299 Z-0.967
X-17.402 Y-10.322 Z-0.968
X-17.405 Y-10.35 Z-0.969
X-17.396 Y-10.376 Z-0.97
X-17.376 Y-10.396 Z-0.971
X-17.35 Y-10.405 Z-0.972
X-17.322 Y-10.402 Z-0.973
X-17.299 Y-10.387 Z-0.974
X-16.77 Y-9.858 Z-1
S6000
X-16.238 Y-9.327 F1000
X-16.224 Y-9.303
X-16.22 Y-9.276
X-16.23 Y-9.249
X-16.249 Y-9.23
X-16.275 Y-9.22
X-16.303 Y-9.224
X-16.327 Y-9.238
X-17.387 Y-10.299
X-17.402 Y-10.322
X-17.405 Y-10.35
X-17.396 Y-10.376
X-17.376 Y-10.396
X-17.35 Y-10.405
X-17.322 Y-10.402
X-17.299 Y-10.387
X-16.77 Y-9.858
S5000
X-16.238 Y-9.327 Z-1.026 F333.3
X-16.224 Y-9.303 Z-1.027
X-16.22 Y-9.276 Z-1.028
X-16.23 Y-9.249 Z-1.029
X-16.249 Y-9.23 Z-1.03
X-16.275 Y-9.22 Z-1.031
X-16.303 Y-9.224 Z-1.032
X-16.327 Y-9.238 Z-1.033
X-17.387 Y-10.299 Z-1.085
X-17.402 Y-10.322 Z-1.086
X-17.405 Y-10.35 Z-1.087
X-17.396 Y-10.376 Z-1.088
X-17.376 Y-10.396 Z-1.089
X-17.35 Y-10.405 Z-1.09
X-17.322 Y-10.402 Z-1.091
X-17.299 Y-10.387 Z-1.092
X-16.238 Y-9.327 Z-1.145
X-16.224 Y-9.303 Z-1.146
X-16.22 Y-9.276 Z-1.147
X-16.23 Y-9.249 Z-1.148
X-16.249 Y-9.23 Z-1.149
X-16.275 Y-9.22 Z-1.15
X-16.303 Y-9.224 Z-1.151
X-16.327 Y-9.238 Z-1.152
X-17.387 Y-10.299 Z-1.204
X-17.402 Y-10.322 Z-1.205
X-17.405 Y-10.35 Z-1.206
X-17.396 Y-10.376 Z-1.207
X-17.376 Y-10.396 Z-1.208
X-17.35 Y-10.405 Z-1.209
X-17.322 Y-10.402 Z-1.21
X-17.299 Y-10.387 Z-1.211
X-16.238 Y-9.327 Z-1.263
X-16.224 Y-9.303 Z-1.264
X-16.22 Y-9.276 Z-1.265
X-16.23 Y-9.249 Z-1.266
X-16.249 Y-9.23 Z-1.267
X-16.275 Y-9.22 Z-1.268
X-16.303 Y-9.224 Z-1.269
X-16.327 Y-9.238 Z-1.27
X-17.387 Y-10.299 Z-1.322
X-17.402 Y-10.322 Z-1.323
X-17.405 Y-10.35 Z-1.324
X-17.396 Y-10.376 Z-1.325
X-17.376 Y-10.396 Z-1.326
X-17.35 Y-10.405 Z-1.327
X-17.322 Y-10.402 Z-1.328
X-17.299 Y-10.387 Z-1.329
X-16.238 Y-9.327 Z-1.382
X-16.224 Y-9.303 Z-1.383
X-16.22 Y-9.276 Z-1.384
X-16.23 Y-9.249 Z-1.385
X-16.249 Y-9.23 Z-1.386
X-16.275 Y-9.22 Z-1.387
X-16.303 Y-9.224 Z-1.388
X-16.327 Y-9.238 Z-1.389
X-17.387 Y-10.299 Z-1.441
X-17.402 Y-10.322 Z-1.442
X-17.405 Y-10.35 Z-1.443
X-17.396 Y-10.376 Z-1.444
X-17.376 Y-10.396 Z-1.445
X-17.35 Y-10.405 Z-1.446
X-17.322 Y-10.402 Z-1.447
X-17.299 Y-10.387 Z-1.448
X-16.241 Y-9.33 Z-1.5
S6000
X-16.238 Y-9.327 F1000
X-16.224 Y-9.303
X-16.22 Y-9.276
X-16.23 Y-9.249
X-16.249 Y-9.23
X-16.275 Y-9.22
X-16.303 Y-9.224
X-16.327 Y-9.238
X-17.387 Y-10.299
X-17.402 Y-10.322
X-17.405 Y-10.35
X-17.396 Y-10.376
X-17.376 Y-10.396
X-17.35 Y-10.405
X-17.322 Y-10.402
X-17.299 Y-10.387
X-16.77 Y-9.858
X-16.241 Y-9.33
S5000
X-16.238 Y-9.327 F333.3
X-16.224 Y-9.303 Z-1.501
X-16.22 Y-9.276 Z-1.502
X-16.23 Y-9.249 Z-1.503
X-16.249 Y-9.23 Z-1.504
X-16.275 Y-9.22 Z-1.505
X-16.303 Y-9.224 Z-1.506
X-16.327 Y-9.238 Z-1.507
X-17.387 Y-10.299 Z-1.559
X-17.402 Y-10.322 Z-1.56
X-17.405 Y-10.35 Z-1.561
X-17.396 Y-10.376 Z-1.562
X-17.376 Y-10.396 Z-1.563
X-17.35 Y-10.405 Z-1.564
X-17.322 Y-10.402 Z-1.565
X-17.299 Y-10.387 Z-1.566
X-16.238 Y-9.327 Z-1.619
X-16.224 Y-9.303 Z-1.62
X-16.22 Y-9.276 Z-1.621
X-16.23 Y-9.249 Z-1.622
X-16.249 Y-9.23 Z-1.623
X-16.275 Y-9.22 Z-1.624
X-16.303 Y-9.224
X-16.327 Y-9.238 Z-1.625
X-17.387 Y-10.299 Z-1.678
X-17.402 Y-10.322 Z-1.679
X-17.405 Y-10.35 Z-1.68
X-17.396 Y-10.376 Z-1.681
X-17.376 Y-10.396 Z-1.682
X-17.35 Y-10.405 Z-1.683
X-17.322 Y-10.402 Z-1.684
X-17.299 Y-10.387 Z-1.685
X-16.238 Y-9.327 Z-1.737
X-16.224 Y-9.303 Z-1.738
X-16.22 Y-9.276 Z-1.739
X-16.23 Y-9.249 Z-1.74
X-16.249 Y-9.23 Z-1.741
X-16.275 Y-9.22 Z-1.742
X-16.303 Y-9.224 Z-1.743
X-16.327 Y-9.238 Z-1.744
X-17.387 Y-10.299 Z-1.796
X-17.402 Y-10.322 Z-1.797
X-17.405 Y-10.35 Z-1.798
X-17.396 Y-10.376 Z-1.799
X-17.376 Y-10.396 Z-1.8
X-17.35 Y-10.405 Z-1.801
X-17.322 Y-10.402 Z-1.802
X-17.299 Y-10.387 Z-1.803
X-16.238 Y-9.327 Z-1.856
X-16.224 Y-9.303 Z-1.857
X-16.22 Y-9.276 Z-1.858
X-16.23 Y-9.249
X-16.249 Y-9.23 Z-1.859
X-16.275 Y-9.22 Z-1.86
X-16.303 Y-9.224 Z-1.861
X-16.327 Y-9.238 Z-1.862
X-17.387 Y-10.299 Z-1.915
X-17.402 Y-10.322 Z-1.916
X-17.405 Y-10.35 Z-1.917
X-17.396 Y-10.376 Z-1.918
X-17.376 Y-10.396 Z-1.919
X-17.35 Y-10.405 Z-1.92
X-17.322 Y-10.402 Z-1.921
X-17.299 Y-10.387 Z-1.922
X-16.238 Y-9.327 Z-1.974
X-16.224 Y-9.303 Z-1.975
X-16.22 Y-9.276 Z-1.976
X-16.23 Y-9.249 Z-1.977
X-16.249 Y-9.23 Z-1.978
X-16.275 Y-9.22 Z-1.979
X-16.303 Y-9.224 Z-1.98
X-16.327 Y-9.238 Z-1.981
X-16.714 Y-9.626 Z-2
S6000
X-17.387 Y-10.299 F1000
X-17.402 Y-10.322
X-17.405 Y-10.35
X-17.396 Y-10.376
X-17.376 Y-10.396
X-17.35 Y-10.405
X-17.322 Y-10.402
X-17.299 Y-10.387
X-16.241 Y-9.33
X-16.238 Y-9.327
X-16.224 Y-9.303
X-16.22 Y-9.276
X-16.23 Y-9.249
X-16.249 Y-9.23
X-16.275 Y-9.22
X-16.303 Y-9.224
X-16.327 Y-9.238
X-16.714 Y-9.626
S5000
X-17.387 Y-10.299 Z-2.033 F333.3
X-17.402 Y-10.322 Z-2.034
X-17.405 Y-10.35 Z-2.035
X-17.396 Y-10.376 Z-2.036
X-17.376 Y-10.396 Z-2.037
X-17.35 Y-10.405 Z-2.038
X-17.322 Y-10.402 Z-2.039
X-17.299 Y-10.387 Z-2.04
X-16.238 Y-9.327 Z-2.092
X-16.224 Y-9.303 Z-2.093
X-16.22 Y-9.276 Z-2.094
X-16.23 Y-9.249 Z-2.095
X-16.249 Y-9.23 Z-2.096
X-16.275 Y-9.22 Z-2.097
X-16.303 Y-9.224 Z-2.098
X-16.327 Y-9.238 Z-2.099
X-17.387 Y-10.299 Z-2.152
X-17.402 Y-10.322 Z-2.153
X-17.405 Y-10.35 Z-2.154
X-17.396 Y-10.376 Z-2.155
X-17.376 Y-10.396 Z-2.156
X-17.35 Y-10.405 Z-2.157
X-17.322 Y-10.402 Z-2.158
X-17.299 Y-10.387 Z-2.159
X-16.238 Y-9.327 Z-2.211
X-16.224 Y-9.303 Z-2.212
X-16.22 Y-9.276 Z-2.213
X-16.23 Y-9.249 Z-2.214
X-16.249 Y-9.23 Z-2.215
X-16.275 Y-9.22 Z-2.216
X-16.303 Y-9.224 Z-2.217
X-16.327 Y-9.238 Z-2.218
X-17.387 Y-10.299 Z-2.27
X-17.402 Y-10.322 Z-2.271
X-17.405 Y-10.35 Z-2.272
X-17.396 Y-10.376 Z-2.273
X-17.376 Y-10.396 Z-2.274
X-17.35 Y-10.405 Z-2.275
X-17.322 Y-10.402 Z-2.276
X-17.299 Y-10.387 Z-2.277
X-16.238 Y-9.327 Z-2.329
X-16.224 Y-9.303 Z-2.33
X-16.22 Y-9.276 Z-2.331
X-16.23 Y-9.249 Z-2.332
X-16.249 Y-9.23 Z-2.333
X-16.275 Y-9.22 Z-2.334
X-16.303 Y-9.224 Z-2.335
X-16.327 Y-9.238 Z-2.336
X-17.387 Y-10.299 Z-2.389
X-17.402 Y-10.322 Z-2.39
X-17.405 Y-10.35 Z-2.391
X-17.396 Y-10.376 Z-2.392
X-17.376 Y-10.396 Z-2.393
X-17.35 Y-10.405 Z-2.394
X-17.322 Y-10.402 Z-2.395
X-17.299 Y-10.387 Z-2.396
X-16.238 Y-9.327 Z-2.448
X-16.224 Y-9.303 Z-2.449
X-16.22 Y-9.276 Z-2.45
X-16.23 Y-9.249 Z-2.451
X-16.249 Y-9.23 Z-2.452
X-16.275 Y-9.22 Z-2.453
X-16.303 Y-9.224 Z-2.454
X-16.327 Y-9.238 Z-2.455
X-17.243 Y-10.154 Z-2.5
S6000
X-17.387 Y-10.299 F1000
X-17.402 Y-10.322
X-17.405 Y-10.35
X-17.396 Y-10.376
X-17.376 Y-10.396
X-17.35 Y-10.405
X-17.322 Y-10.402
X-17.299 Y-10.387
X-16.238 Y-9.327
X-16.224 Y-9.303
X-16.22 Y-9.276
X-16.23 Y-9.249
X-16.249 Y-9.23
X-16.275 Y-9.22
X-16.303 Y-9.224
X-16.327 Y-9.238
X-17.243 Y-10.154
S5000
X-17.387 Y-10.299 Z-2.507 F333.3
X-17.402 Y-10.322 Z-2.508
X-17.405 Y-10.35 Z-2.509
X-17.396 Y-10.376 Z-2.51
X-17.376 Y-10.396 Z-2.511
X-17.35 Y-10.405 Z-2.512
X-17.322 Y-10.402 Z-2.513
X-17.299 Y-10.387 Z-2.514
X-16.238 Y-9.327 Z-2.566
X-16.224 Y-9.303 Z-2.567
X-16.22 Y-9.276 Z-2.568
X-16.23 Y-9.249 Z-2.569
X-16.249 Y-9.23 Z-2.57
X-16.275 Y-9.22 Z-2.571
X-16.303 Y-9.224 Z-2.572
X-16.327 Y-9.238 Z-2.573
X-17.387 Y-10.299 Z-2.626
X-17.402 Y-10.322 Z-2.627
X-17.405 Y-10.35 Z-2.628
X-17.396 Y-10.376 Z-2.629
X-17.376 Y-10.396 Z-2.63
X-17.35 Y-10.405 Z-2.631
X-17.322 Y-10.402
X-17.299 Y-10.387 Z-2.632
X-16.238 Y-9.327 Z-2.685
X-16.224 Y-9.303 Z-2.686
X-16.22 Y-9.276 Z-2.687
X-16.23 Y-9.249 Z-2.688
X-16.249 Y-9.23 Z-2.689
X-16.275 Y-9.22 Z-2.69
X-16.303 Y-9.224 Z-2.691
X-16.327 Y-9.238 Z-2.692
X-17.387 Y-10.299 Z-2.744
X-17.402 Y-10.322 Z-2.745
X-17.405 Y-10.35 Z-2.746
X-17.396 Y-10.376 Z-2.747
X-17.376 Y-10.396 Z-2.748
X-17.35 Y-10.405 Z-2.749
X-17.322 Y-10.402 Z-2.75
X-17.299 Y-10.387 Z-2.751
X-16.238 Y-9.327 Z-2.803
X-16.224 Y-9.303 Z-2.804
X-16.22 Y-9.276 Z-2.805
X-16.23 Y-9.249 Z-2.806
X-16.249 Y-9.23 Z-2.807
X-16.275 Y-9.22 Z-2.808
X-16.303 Y-9.224 Z-2.809
X-16.327 Y-9.238 Z-2.81
X-17.387 Y-10.299 Z-2.863
X-17.402 Y-10.322 Z-2.864
X-17.405 Y-10.35 Z-2.865
X-17.396 Y-10.376
X-17.376 Y-10.396 Z-2.866
X-17.35 Y-10.405 Z-2.867
X-17.322 Y-10.402 Z-2.868
X-17.299 Y-10.387 Z-2.869
X-16.238 Y-9.327 Z-2.922
X-16.224 Y-9.303 Z-2.923
X-16.22 Y-9.276 Z-2.924
X-16.23 Y-9.249 Z-2.925
X-16.249 Y-9.23 Z-2.926
X-16.275 Y-9.22 Z-2.927
X-16.303 Y-9.224 Z-2.928
X-16.327 Y-9.238 Z-2.929
X-17.387 Y-10.299 Z-2.981
X-17.402 Y-10.322 Z-2.982
X-17.405 Y-10.35 Z-2.983
X-17.396 Y-10.376 Z-2.984
X-17.376 Y-10.396 Z-2.985
X-17.35 Y-10.405 Z-2.986
X-17.322 Y-10.402 Z-2.987
X-17.299 Y-10.387 Z-2.988
X-17.053 Y-10.142 Z-3
S6000
X-16.238 Y-9.327 F1000
X-16.224 Y-9.303
X-16.22 Y-9.276
X-16.23 Y-9.249
X-16.249 Y-9.23
X-16.275 Y-9.22
X-16.303 Y-9.224
X-16.327 Y-9.238
X-17.243 Y-10.154
X-17.387 Y-10.299
X-17.402 Y-10.322
X-17.405 Y-10.35
X-17.396 Y-10.376
X-17.376 Y-10.396
X-17.35 Y-10.405
X-17.322 Y-10.402
X-17.299 Y-10.387
X-17.053 Y-10.142
S5000
X-16.238 Y-9.327 Z-3.04 F333.3
X-16.224 Y-9.303 Z-3.041
X-16.22 Y-9.276 Z-3.042
X-16.23 Y-9.249 Z-3.043
X-16.249 Y-9.23 Z-3.044
X-16.275 Y-9.22 Z-3.045
X-16.303 Y-9.224 Z-3.046
X-16.327 Y-9.238 Z-3.047
X-17.387 Y-10.299 Z-3.099
X-17.402 Y-10.322 Z-3.1
X-17.405 Y-10.35 Z-3.101
X-17.396 Y-10.376 Z-3.102
X-17.376 Y-10.396 Z-3.103
X-17.35 Y-10.405 Z-3.104
X-17.322 Y-10.402 Z-3.105
X-17.299 Y-10.387 Z-3.106
X-16.238 Y-9.327 Z-3.159
X-16.224 Y-9.303 Z-3.16
X-16.22 Y-9.276 Z-3.161
X-16.23 Y-9.249 Z-3.162
X-16.249 Y-9.23 Z-3.163
X-16.275 Y-9.22 Z-3.164
X-16.303 Y-9.224 Z-3.165
X-16.327 Y-9.238 Z-3.166
X-17.024 Y-9.935 Z-3.2
S6000
X-17.387 Y-10.299 F1000
X-17.402 Y-10.322
X-17.405 Y-10.35
X-17.396 Y-10.376
X-17.376 Y-10.396
X-17.35 Y-10.405
X-17.322 Y-10.402
X-17.299 Y-10.387
X-16.238 Y-9.327
X-16.224 Y-9.303
X-16.22 Y-9.276
X-16.23 Y-9.249
X-16.249 Y-9.23
X-16.275 Y-9.22
X-16.303 Y-9.224
X-16.327 Y-9.238
X-17.024 Y-9.935
G0 Z15

(2D Adaptive23)
X-22.665 Y2.644
Z15
Z5
Z0.235
G1 Z-0.083 F1000
X-22.667 Y2.637 Z-0.153
X-22.673 Y2.614 Z-0.22
X-22.683 Y2.577 Z-0.28
X-22.695 Y2.529 Z-0.331
X-22.71 Y2.47 Z-0.369
X-22.727 Y2.405 Z-0.392
X-22.744 Y2.337 Z-0.4
G3 X-22.993 Y0.608 I7.852 J-2.011
G1 Y0.458
X-22.908 Y0.386
X-22.799 Y0.363
X-22.692 Y0.397
X-22.615 Y0.477
X-22.587 Y0.585
X-22.588 Y0.593
G3 X-23.413 Y0.59 I-0.412 J-0.017
G1 Y0.298
X-23.411 Y0.261
X-23.3 Y0.141
X-23.153 Y0.069
X-22.99 Y0.055
X-22.833 Y0.101
X-22.703 Y0.2
X-22.617 Y0.339
X-22.587 Y0.499
X-22.594 Y0.545
X-22.611 Y0.587
X-22.637 Y0.625
X-22.67 Y0.657
G3 X-23.413 Y0.298 I-0.277 J-0.374
G1 Y0.051
X-23.409 Y-0.024
X-23.334 Y-0.154
X-23.187 Y-0.24
X-23.018 Y-0.265
X-22.852 Y-0.226
X-22.712 Y-0.127
X-22.62 Y0.016
X-22.587 Y0.184
X-22.593 Y0.226
X-22.608 Y0.265
X-22.63 Y0.301
G3 X-23.413 Y0.051 I-0.347 J-0.265
G1 Y-0.21
X-23.405 Y-0.36
X-23.324 Y-0.487
X-23.177 Y-0.568
X-23.01 Y-0.59
X-22.846 Y-0.548
X-22.71 Y-0.449
X-22.619 Y-0.307
X-22.587 Y-0.141
X-22.591 Y-0.107
X-22.601 Y-0.075
G3 X-23.413 Y-0.21 I-0.392 J-0.15
G1 Y-0.531
X-23.405 Y-0.681
X-23.326 Y-0.808
X-23.178 Y-0.891
X-23.011 Y-0.913
X-22.847 Y-0.872
X-22.71 Y-0.773
X-22.619 Y-0.631
X-22.587 Y-0.465
X-22.591 Y-0.432
X-22.6 Y-0.401
G3 X-23.413 Y-0.531 I-0.393 J-0.145
G1 Y-0.866
X-23.409 Y-0.941
X-23.351 Y-1.079
X-23.208 Y-1.179
X-23.037 Y-1.216
X-22.866 Y-1.184
X-22.72 Y-1.089
X-22.622 Y-0.944
X-22.587 Y-0.773
X-22.594 Y-0.728
X-22.61 Y-0.686
G3 X-23.413 Y-0.866 I-0.377 J-0.195
G1 Y-1.157
X-23.405 Y-1.307
X-23.325 Y-1.434
X-23.178 Y-1.517
X-23.011 Y-1.54
X-22.847 Y-1.5
X-22.71 Y-1.401
X-22.619 Y-1.259
X-22.587 Y-1.094
Y-0.773
G3 X-22.78 Y-0.577 I-0.203 J-0.007
X-23.413 Y-1.157 I-0.031 J-0.601
G1 Y-1.479
X-23.405 Y-1.629
X-23.327 Y-1.757
X-23.179 Y-1.84
X-23.012 Y-1.863
X-22.848 Y-1.822
X-22.71 Y-1.724
X-22.619 Y-1.581
X-22.587 Y-1.415
Y-1.094
G3 X-22.781 Y-0.898 I-0.203 J-0.007
X-23.413 Y-1.479 I-0.029 J-0.602
G1 Y-1.776
X-23.405 Y-1.926
X-23.335 Y-2.058
X-23.19 Y-2.148
X-23.021 Y-2.177
X-22.854 Y-2.14
X-22.714 Y-2.042
X-22.62 Y-1.899
X-22.587 Y-1.732
Y-1.415
G3 X-22.767 Y-1.22 I-0.203 J-0.007
X-23.413 Y-1.776 I-0.066 J-0.575
G1 Y-2.103
X-23.405 Y-2.253
X-23.33 Y-2.383
X-23.184 Y-2.47
X-23.017 Y-2.496
X-22.851 Y-2.457
X-22.712 Y-2.359
X-22.62 Y-2.217
X-22.587 Y-2.05
Y-1.732
G3 X-22.773 Y-1.536 I-0.203 J-0.007
X-23.413 Y-2.103 I-0.051 J-0.587
G1 Y-2.424
X-23.405 Y-2.573
X-23.33 Y-2.703
X-23.184 Y-2.789
X-23.016 Y-2.815
X-22.851 Y-2.776
X-22.712 Y-2.678
X-22.62 Y-2.535
X-22.587 Y-2.369
Y-2.05
G3 X-22.774 Y-1.854 I-0.203 J-0.007
X-23.413 Y-2.424 I-0.047 J-0.59
G1 Y-2.759
X-23.405 Y-2.909
X-23.325 Y-3.035
X-23.177 Y-3.117
X-23.01 Y-3.139
X-22.847 Y-3.098
X-22.71 Y-2.999
X-22.619 Y-2.857
X-22.587 Y-2.691
Y-2.369
G3 X-22.783 Y-2.173 I-0.203 J-0.007
X-23.413 Y-2.759 I-0.022 J-0.607
G1 Y-3.081
X-23.405 Y-3.23
X-23.326 Y-3.358
X-23.178 Y-3.44
X-23.011 Y-3.463
X-22.847 Y-3.422
X-22.71 Y-3.323
X-22.619 Y-3.18
X-22.587 Y-3.014
Y-2.691
G3 X-22.782 Y-2.495 I-0.203 J-0.007
X-23.413 Y-3.081 I-0.024 J-0.606
G1 Y-3.377
X-23.405 Y-3.527
X-23.335 Y-3.659
X-23.189 Y-3.749
X-23.021 Y-3.777
X-22.854 Y-3.74
X-22.714 Y-3.642
X-22.62 Y-3.499
X-22.587 Y-3.332
Y-3.014
G3 X-22.769 Y-2.82 I-0.203 J-0.007
X-23.413 Y-3.377 I-0.063 J-0.578
G1 Y-3.704
X-23.405 Y-3.854
X-23.33 Y-3.984
X-23.184 Y-4.07
X-23.016 Y-4.096
X-22.851 Y-4.057
X-22.712 Y-3.959
X-22.62 Y-3.817
X-22.587 Y-3.65
Y-3.332
G3 X-22.774 Y-3.136 I-0.203 J-0.007
X-23.413 Y-3.704 I-0.048 J-0.589
G1 Y-4.025
X-23.405 Y-4.175
X-23.33 Y-4.304
X-23.183 Y-4.39
X-23.015 Y-4.416
X-22.85 Y-4.376
X-22.712 Y-4.278
X-22.62 Y-4.136
X-22.587 Y-3.969
Y-3.65
G3 X-22.775 Y-3.455 I-0.203 J-0.007
X-23.413 Y-4.025 I-0.045 J-0.591
G1 Y-4.36
X-23.405 Y-4.51
X-23.325 Y-4.637
X-23.177 Y-4.719
X-23.01 Y-4.74
X-22.846 Y-4.699
X-22.71 Y-4.6
X-22.619 Y-4.458
X-22.587 Y-4.292
Y-3.969
G3 X-22.783 Y-3.773 I-0.203 J-0.007
X-23.413 Y-4.36 I-0.021 J-0.608
G1 Y-4.651
X-23.405 Y-4.801
X-23.336 Y-4.934
X-23.19 Y-5.024
X-23.022 Y-5.053
X-22.855 Y-5.016
X-22.714 Y-4.919
X-22.62 Y-4.776
X-22.587 Y-4.608
Y-4.292
G3 X-22.767 Y-4.097 I-0.203 J-0.007
X-23.413 Y-4.651 I-0.068 J-0.574
G1 Y-4.979
X-23.405 Y-5.128
X-23.331 Y-5.259
X-23.185 Y-5.346
X-23.017 Y-5.372
X-22.851 Y-5.333
X-22.712 Y-5.236
X-22.62 Y-5.093
X-22.587 Y-4.926
Y-4.608
G3 X-22.773 Y-4.413 I-0.203 J-0.007
X-23.413 Y-4.979 I-0.052 J-0.586
G1 Y-5.306
X-23.405 Y-5.456
X-23.328 Y-5.584
X-23.181 Y-5.669
X-23.014 Y-5.693
X-22.849 Y-5.653
X-22.711 Y-5.555
X-22.62 Y-5.413
X-22.587 Y-5.246
Y-4.926
G3 X-22.777 Y-4.731 I-0.203 J-0.007
X-23.413 Y-5.306 I-0.038 J-0.596
G1 Y-5.626
X-23.405 Y-5.776
X-23.328 Y-5.905
X-23.182 Y-5.99
X-23.014 Y-6.014
X-22.849 Y-5.974
X-22.711 Y-5.876
X-22.62 Y-5.733
X-22.587 Y-5.567
Y-5.246
G3 X-22.778 Y-5.051 I-0.203 J-0.007
X-23.413 Y-5.626 I-0.037 J-0.597
G1 Y-5.962
X-23.405 Y-6.111
X-23.324 Y-6.237
X-23.176 Y-6.319
X-23.009 Y-6.34
X-22.846 Y-6.298
X-22.709 Y-6.199
X-22.619 Y-6.056
X-22.587 Y-5.891
Y-5.567
G3 X-22.785 Y-5.371 I-0.203 J-0.007
X-23.413 Y-5.962 I-0.016 J-0.612
G1 Y-6.253
X-23.405 Y-6.403
X-23.335 Y-6.535
X-23.19 Y-6.625
X-23.021 Y-6.653
X-22.854 Y-6.616
X-22.714 Y-6.519
X-22.62 Y-6.376
X-22.587 Y-6.208
Y-5.891
G3 X-22.768 Y-5.696 I-0.203 J-0.007
X-23.413 Y-6.253 I-0.064 J-0.577
G1 Y-6.58
X-23.405 Y-6.73
X-23.33 Y-6.86
X-23.184 Y-6.946
X-23.016 Y-6.972
X-22.851 Y-6.933
X-22.712 Y-6.836
X-22.62 Y-6.693
X-22.587 Y-6.526
Y-6.208
G3 X-22.773 Y-6.013 I-0.203 J-0.007
