(Motormount)
(Bearbeiten)
(  Hersteller: ChinaCnc)
(  model: 3040T)
(  description: Generic 3-axis)
(T5 D=3.175 CR=0 - ZMIN=-2.3 - Schaftfrser)
G90 G94
G17
G21
(-Attention- Property Safe Retracts is set to Clearance Height.)
(Ensure the clearance height will clear the part and or fixtures.)
(Raise the Z-axis to a safe height before starting the program.)
(When using Fusion for Personal Use, the feedrate of rapid)
(moves is reduced to match the feedrate of cutting moves,)
(which can increase machining time. Unrestricted rapid moves)
(are available with a Fusion Subscription.)

(Bohrfrsen7)
M0
(MANUAL TOOL CHANGE TO T5)
S6000 M3
G17 G90 G94
G54
G0 X-53.512 Y-112.352
Z15
G1 Z1.683 F1000
Z0
X-53.393 Y-112.246
X-53.374 Y-112.221
X-53.366 Y-112.19
X-53.37 Y-112.159
X-53.386 Y-112.132
G3 X-53.629 Y-112.347 Z-0.061 I-0.121 J-0.108
X-53.386 Y-112.132 Z-0.122 I0.121 J0.108
X-53.629 Y-112.347 Z-0.183 I-0.121 J-0.108
X-53.386 Y-112.132 Z-0.244 I0.121 J0.108
X-53.629 Y-112.347 Z-0.306 I-0.121 J-0.108
X-53.386 Y-112.132 Z-0.367 I0.121 J0.108
X-53.629 Y-112.347 Z-0.428 I-0.121 J-0.108
X-53.386 Y-112.132 Z-0.489 I0.121 J0.108
X-53.629 Y-112.347 Z-0.55 I-0.121 J-0.108
X-53.386 Y-112.132 Z-0.611 I0.121 J0.108
X-53.629 Y-112.347 Z-0.672 I-0.121 J-0.108
X-53.386 Y-112.132 Z-0.733 I0.121 J0.108
X-53.629 Y-112.347 Z-0.794 I-0.121 J-0.108
X-53.386 Y-112.132 Z-0.856 I0.121 J0.108
X-53.629 Y-112.347 Z-0.917 I-0.121 J-0.108
X-53.386 Y-112.132 Z-0.978 I0.121 J0.108
X-53.629 Y-112.347 Z-1.039 I-0.121 J-0.108
X-53.386 Y-112.132 Z-1.1 I0.121 J0.108
X-53.629 Y-112.347 Z-1.161 I-0.121 J-0.108
X-53.386 Y-112.132 Z-1.222 I0.121 J0.108
X-53.629 Y-112.347 Z-1.283 I-0.121 J-0.108
X-53.386 Y-112.132 Z-1.344 I0.121 J0.108
X-53.629 Y-112.347 Z-1.406 I-0.121 J-0.108
X-53.386 Y-112.132 Z-1.467 I0.121 J0.108
X-53.629 Y-112.347 Z-1.528 I-0.121 J-0.108
X-53.386 Y-112.132 Z-1.589 I0.121 J0.108
X-53.629 Y-112.347 Z-1.65 I-0.121 J-0.108
X-53.386 Y-112.132 Z-1.711 I0.121 J0.108
X-53.629 Y-112.347 Z-1.772 I-0.121 J-0.108
X-53.386 Y-112.132 Z-1.833 I0.121 J0.108
X-53.629 Y-112.347 Z-1.894 I-0.121 J-0.108
X-53.386 Y-112.132 Z-1.956 I0.121 J0.108
X-53.629 Y-112.347 Z-2.017 I-0.121 J-0.108
X-53.386 Y-112.132 Z-2.078 I0.121 J0.108
X-53.629 Y-112.347 Z-2.139 I-0.121 J-0.108
X-53.386 Y-112.132 Z-2.2 I0.121 J0.108
X-53.629 Y-112.347 Z-2.261 I-0.121 J-0.108
X-53.359 Y-112.305 Z-2.3 I0.121 J0.108
X-53.656 Y-112.174 I-0.149 J0.066
X-53.359 Y-112.305 I0.149 J-0.066
G1 X-53.352 Y-112.274
X-53.358 Y-112.243
X-53.375 Y-112.216
X-53.4 Y-112.198
X-53.546 Y-112.134
Z5
X-37.729 Y-119.069
Z1.683
Z0
X-37.61 Y-118.964
X-37.591 Y-118.939
X-37.583 Y-118.908
X-37.588 Y-118.876
X-37.604 Y-118.849
G3 X-37.847 Y-119.065 Z-0.061 I-0.121 J-0.108
X-37.604 Y-118.849 Z-0.122 I0.121 J0.108
X-37.847 Y-119.065 Z-0.183 I-0.121 J-0.108
X-37.604 Y-118.849 Z-0.244 I0.121 J0.108
X-37.847 Y-119.065 Z-0.306 I-0.121 J-0.108
X-37.604 Y-118.849 Z-0.367 I0.121 J0.108
X-37.847 Y-119.065 Z-0.428 I-0.121 J-0.108
X-37.604 Y-118.849 Z-0.489 I0.121 J0.108
X-37.847 Y-119.065 Z-0.55 I-0.121 J-0.108
X-37.604 Y-118.849 Z-0.611 I0.121 J0.108
X-37.847 Y-119.065 Z-0.672 I-0.121 J-0.108
X-37.604 Y-118.849 Z-0.733 I0.121 J0.108
X-37.847 Y-119.065 Z-0.794 I-0.121 J-0.108
X-37.604 Y-118.849 Z-0.856 I0.121 J0.108
X-37.847 Y-119.065 Z-0.917 I-0.121 J-0.108
X-37.604 Y-118.849 Z-0.978 I0.121 J0.108
X-37.847 Y-119.065 Z-1.039 I-0.121 J-0.108
X-37.604 Y-118.849 Z-1.1 I0.121 J0.108
X-37.847 Y-119.065 Z-1.161 I-0.121 J-0.108
X-37.604 Y-118.849 Z-1.222 I0.121 J0.108
X-37.847 Y-119.065 Z-1.283 I-0.121 J-0.108
X-37.604 Y-118.849 Z-1.344 I0.121 J0.108
X-37.847 Y-119.065 Z-1.406 I-0.121 J-0.108
X-37.604 Y-118.849 Z-1.467 I0.121 J0.108
X-37.847 Y-119.065 Z-1.528 I-0.121 J-0.108
X-37.604 Y-118.849 Z-1.589 I0.121 J0.108
X-37.847 Y-119.065 Z-1.65 I-0.121 J-0.108
X-37.604 Y-118.849 Z-1.711 I0.121 J0.108
X-37.847 Y-119.065 Z-1.772 I-0.121 J-0.108
X-37.604 Y-118.849 Z-1.833 I0.121 J0.108
X-37.847 Y-119.065 Z-1.894 I-0.121 J-0.108
X-37.604 Y-118.849 Z-1.956 I0.121 J0.108
X-37.847 Y-119.065 Z-2.017 I-0.121 J-0.108
X-37.604 Y-118.849 Z-2.078 I0.121 J0.108
X-37.847 Y-119.065 Z-2.139 I-0.121 J-0.108
X-37.604 Y-118.849 Z-2.2 I0.121 J0.108
X-37.847 Y-119.065 Z-2.261 I-0.121 J-0.108
X-37.577 Y-119.023 Z-2.3 I0.121 J0.108
X-37.874 Y-118.891 I-0.149 J0.066
X-37.577 Y-119.023 I0.149 J-0.066
G1 X-37.57 Y-118.992
X-37.575 Y-118.961
X-37.592 Y-118.934
X-37.618 Y-118.916
X-37.763 Y-118.851
Z5
X-24.294 Y-119.069
Z1.683
Z0
X-24.175 Y-118.964
X-24.156 Y-118.939
X-24.148 Y-118.908
X-24.153 Y-118.876
X-24.169 Y-118.849
G3 X-24.412 Y-119.065 Z-0.061 I-0.121 J-0.108
X-24.169 Y-118.849 Z-0.122 I0.121 J0.108
X-24.412 Y-119.065 Z-0.183 I-0.121 J-0.108
X-24.169 Y-118.849 Z-0.244 I0.121 J0.108
X-24.412 Y-119.065 Z-0.306 I-0.121 J-0.108
X-24.169 Y-118.849 Z-0.367 I0.121 J0.108
X-24.412 Y-119.065 Z-0.428 I-0.121 J-0.108
X-24.169 Y-118.849 Z-0.489 I0.121 J0.108
X-24.412 Y-119.065 Z-0.55 I-0.121 J-0.108
X-24.169 Y-118.849 Z-0.611 I0.121 J0.108
X-24.412 Y-119.065 Z-0.672 I-0.121 J-0.108
X-24.169 Y-118.849 Z-0.733 I0.121 J0.108
X-24.412 Y-119.065 Z-0.794 I-0.121 J-0.108
X-24.169 Y-118.849 Z-0.856 I0.121 J0.108
X-24.412 Y-119.065 Z-0.917 I-0.121 J-0.108
X-24.169 Y-118.849 Z-0.978 I0.121 J0.108
X-24.412 Y-119.065 Z-1.039 I-0.121 J-0.108
X-24.169 Y-118.849 Z-1.1 I0.121 J0.108
X-24.412 Y-119.065 Z-1.161 I-0.121 J-0.108
X-24.169 Y-118.849 Z-1.222 I0.121 J0.108
X-24.412 Y-119.065 Z-1.283 I-0.121 J-0.108
X-24.169 Y-118.849 Z-1.344 I0.121 J0.108
X-24.412 Y-119.065 Z-1.406 I-0.121 J-0.108
X-24.169 Y-118.849 Z-1.467 I0.121 J0.108
X-24.412 Y-119.065 Z-1.528 I-0.121 J-0.108
X-24.169 Y-118.849 Z-1.589 I0.121 J0.108
X-24.412 Y-119.065 Z-1.65 I-0.121 J-0.108
X-24.169 Y-118.849 Z-1.711 I0.121 J0.108
X-24.412 Y-119.065 Z-1.772 I-0.121 J-0.108
X-24.169 Y-118.849 Z-1.833 I0.121 J0.108
X-24.412 Y-119.065 Z-1.894 I-0.121 J-0.108
X-24.169 Y-118.849 Z-1.956 I0.121 J0.108
X-24.412 Y-119.065 Z-2.017 I-0.121 J-0.108
X-24.169 Y-118.849 Z-2.078 I0.121 J0.108
X-24.412 Y-119.065 Z-2.139 I-0.121 J-0.108
X-24.169 Y-118.849 Z-2.2 I0.121 J0.108
X-24.412 Y-119.065 Z-2.261 I-0.121 J-0.108
X-24.142 Y-119.023 Z-2.3 I0.121 J0.108
X-24.439 Y-118.891 I-0.149 J0.066
X-24.142 Y-119.023 I0.149 J-0.066
G1 X-24.135 Y-118.992
X-24.14 Y-118.961
X-24.157 Y-118.934
X-24.183 Y-118.916
X-24.328 Y-118.851
Z5
X-29.587 Y-111.402
Z2
Z0.317
X-29.581 Y-111.397 Z0.247
X-29.563 Y-111.381 Z0.18
X-29.535 Y-111.356 Z0.12
X-29.497 Y-111.322 Z0.069
X-29.452 Y-111.282 Z0.031
X-29.402 Y-111.238 Z0.008
X-29.349 Y-111.191 Z0
X-29.231 Y-111.085
G3 X-29.204 Y-110.637 I-0.211 J0.237
X-32.811 Y-113.842 Z-0.14 I-1.804 J-1.602
X-29.204 Y-110.637 Z-0.279 I1.804 J1.602
X-32.811 Y-113.842 Z-0.419 I-1.804 J-1.602
X-29.204 Y-110.637 Z-0.559 I1.804 J1.602
X-32.811 Y-113.842 Z-0.698 I-1.804 J-1.602
X-29.204 Y-110.637 Z-0.838 I1.804 J1.602
X-32.811 Y-113.842 Z-0.978 I-1.804 J-1.602
X-29.204 Y-110.637 Z-1.117 I1.804 J1.602
X-32.811 Y-113.842 Z-1.257 I-1.804 J-1.602
X-29.204 Y-110.637 Z-1.397 I1.804 J1.602
X-32.811 Y-113.842 Z-1.537 I-1.804 J-1.602
X-29.204 Y-110.637 Z-1.676 I1.804 J1.602
X-32.811 Y-113.842 Z-1.816 I-1.804 J-1.602
X-29.204 Y-110.637 Z-1.956 I1.804 J1.602
X-32.811 Y-113.842 Z-2.095 I-1.804 J-1.602
X-29.204 Y-110.637 Z-2.235 I1.804 J1.602
X-32.408 Y-110.275 Z-2.3 I-1.804 J-1.602
X-29.608 Y-114.204 I1.4 J-1.965
X-32.408 Y-110.275 I-1.4 J1.965
X-32.482 Y-110.718 I0.184 J-0.259
G1 X-32.39 Y-110.847
X-32.349 Y-110.904 Z-2.292
X-32.31 Y-110.959 Z-2.269
X-32.275 Y-111.008 Z-2.231
X-32.246 Y-111.049 Z-2.18
X-32.224 Y-111.08 Z-2.12
X-32.21 Y-111.099 Z-2.053
X-32.206 Y-111.105 Z-1.982
Z5
X-37.729 Y-105.634
Z1.683
Z0
X-37.61 Y-105.529
X-37.591 Y-105.504
X-37.583 Y-105.473
X-37.588 Y-105.441
X-37.604 Y-105.414
G3 X-37.847 Y-105.63 Z-0.061 I-0.121 J-0.108
X-37.604 Y-105.414 Z-0.122 I0.121 J0.108
X-37.847 Y-105.63 Z-0.183 I-0.121 J-0.108
X-37.604 Y-105.414 Z-0.244 I0.121 J0.108
X-37.847 Y-105.63 Z-0.306 I-0.121 J-0.108
X-37.604 Y-105.414 Z-0.367 I0.121 J0.108
X-37.847 Y-105.63 Z-0.428 I-0.121 J-0.108
X-37.604 Y-105.414 Z-0.489 I0.121 J0.108
X-37.847 Y-105.63 Z-0.55 I-0.121 J-0.108
X-37.604 Y-105.414 Z-0.611 I0.121 J0.108
X-37.847 Y-105.63 Z-0.672 I-0.121 J-0.108
X-37.604 Y-105.414 Z-0.733 I0.121 J0.108
X-37.847 Y-105.63 Z-0.794 I-0.121 J-0.108
X-37.604 Y-105.414 Z-0.856 I0.121 J0.108
X-37.847 Y-105.63 Z-0.917 I-0.121 J-0.108
X-37.604 Y-105.414 Z-0.978 I0.121 J0.108
X-37.847 Y-105.63 Z-1.039 I-0.121 J-0.108
X-37.604 Y-105.414 Z-1.1 I0.121 J0.108
X-37.847 Y-105.63 Z-1.161 I-0.121 J-0.108
X-37.604 Y-105.414 Z-1.222 I0.121 J0.108
X-37.847 Y-105.63 Z-1.283 I-0.121 J-0.108
X-37.604 Y-105.414 Z-1.344 I0.121 J0.108
X-37.847 Y-105.63 Z-1.406 I-0.121 J-0.108
X-37.604 Y-105.414 Z-1.467 I0.121 J0.108
X-37.847 Y-105.63 Z-1.528 I-0.121 J-0.108
X-37.604 Y-105.414 Z-1.589 I0.121 J0.108
X-37.847 Y-105.63 Z-1.65 I-0.121 J-0.108
X-37.604 Y-105.414 Z-1.711 I0.121 J0.108
X-37.847 Y-105.63 Z-1.772 I-0.121 J-0.108
X-37.604 Y-105.414 Z-1.833 I0.121 J0.108
X-37.847 Y-105.63 Z-1.894 I-0.121 J-0.108
X-37.604 Y-105.414 Z-1.956 I0.121 J0.108
X-37.847 Y-105.63 Z-2.017 I-0.121 J-0.108
X-37.604 Y-105.414 Z-2.078 I0.121 J0.108
X-37.847 Y-105.63 Z-2.139 I-0.121 J-0.108
X-37.604 Y-105.414 Z-2.2 I0.121 J0.108
X-37.847 Y-105.63 Z-2.261 I-0.121 J-0.108
X-37.577 Y-105.588 Z-2.3 I0.121 J0.108
X-37.874 Y-105.456 I-0.149 J0.066
X-37.577 Y-105.588 I0.149 J-0.066
G1 X-37.57 Y-105.557
X-37.575 Y-105.526
X-37.592 Y-105.499
X-37.618 Y-105.481
X-37.763 Y-105.416
Z5
X-24.294 Y-105.634
Z1.683
Z0
X-24.175 Y-105.529
X-24.156 Y-105.504
X-24.148 Y-105.473
X-24.153 Y-105.441
X-24.169 Y-105.414
G3 X-24.412 Y-105.63 Z-0.061 I-0.121 J-0.108
X-24.169 Y-105.414 Z-0.122 I0.121 J0.108
X-24.412 Y-105.63 Z-0.183 I-0.121 J-0.108
X-24.169 Y-105.414 Z-0.244 I0.121 J0.108
X-24.412 Y-105.63 Z-0.306 I-0.121 J-0.108
X-24.169 Y-105.414 Z-0.367 I0.121 J0.108
X-24.412 Y-105.63 Z-0.428 I-0.121 J-0.108
X-24.169 Y-105.414 Z-0.489 I0.121 J0.108
X-24.412 Y-105.63 Z-0.55 I-0.121 J-0.108
X-24.169 Y-105.414 Z-0.611 I0.121 J0.108
X-24.412 Y-105.63 Z-0.672 I-0.121 J-0.108
X-24.169 Y-105.414 Z-0.733 I0.121 J0.108
X-24.412 Y-105.63 Z-0.794 I-0.121 J-0.108
X-24.169 Y-105.414 Z-0.856 I0.121 J0.108
X-24.412 Y-105.63 Z-0.917 I-0.121 J-0.108
X-24.169 Y-105.414 Z-0.978 I0.121 J0.108
X-24.412 Y-105.63 Z-1.039 I-0.121 J-0.108
X-24.169 Y-105.414 Z-1.1 I0.121 J0.108
X-24.412 Y-105.63 Z-1.161 I-0.121 J-0.108
X-24.169 Y-105.414 Z-1.222 I0.121 J0.108
X-24.412 Y-105.63 Z-1.283 I-0.121 J-0.108
X-24.169 Y-105.414 Z-1.344 I0.121 J0.108
X-24.412 Y-105.63 Z-1.406 I-0.121 J-0.108
X-24.169 Y-105.414 Z-1.467 I0.121 J0.108
X-24.412 Y-105.63 Z-1.528 I-0.121 J-0.108
X-24.169 Y-105.414 Z-1.589 I0.121 J0.108
X-24.412 Y-105.63 Z-1.65 I-0.121 J-0.108
X-24.169 Y-105.414 Z-1.711 I0.121 J0.108
X-24.412 Y-105.63 Z-1.772 I-0.121 J-0.108
X-24.169 Y-105.414 Z-1.833 I0.121 J0.108
X-24.412 Y-105.63 Z-1.894 I-0.121 J-0.108
X-24.169 Y-105.414 Z-1.956 I0.121 J0.108
X-24.412 Y-105.63 Z-2.017 I-0.121 J-0.108
X-24.169 Y-105.414 Z-2.078 I0.121 J0.108
X-24.412 Y-105.63 Z-2.139 I-0.121 J-0.108
X-24.169 Y-105.414 Z-2.2 I0.121 J0.108
X-24.412 Y-105.63 Z-2.261 I-0.121 J-0.108
X-24.142 Y-105.588 Z-2.3 I0.121 J0.108
X-24.439 Y-105.456 I-0.149 J0.066
X-24.142 Y-105.588 I0.149 J-0.066
G1 X-24.135 Y-105.557
X-24.14 Y-105.526
X-24.157 Y-105.499
X-24.183 Y-105.481
X-24.328 Y-105.416
Z5
X-8.512 Y-112.352
Z1.683
Z0
X-8.393 Y-112.246
X-8.374 Y-112.221
X-8.366 Y-112.19
X-8.37 Y-112.159
X-8.386 Y-112.132
G3 X-8.629 Y-112.347 Z-0.061 I-0.121 J-0.108
X-8.386 Y-112.132 Z-0.122 I0.121 J0.108
X-8.629 Y-112.347 Z-0.183 I-0.121 J-0.108
X-8.386 Y-112.132 Z-0.244 I0.121 J0.108
X-8.629 Y-112.347 Z-0.306 I-0.121 J-0.108
X-8.386 Y-112.132 Z-0.367 I0.121 J0.108
X-8.629 Y-112.347 Z-0.428 I-0.121 J-0.108
X-8.386 Y-112.132 Z-0.489 I0.121 J0.108
X-8.629 Y-112.347 Z-0.55 I-0.121 J-0.108
X-8.386 Y-112.132 Z-0.611 I0.121 J0.108
X-8.629 Y-112.347 Z-0.672 I-0.121 J-0.108
X-8.386 Y-112.132 Z-0.733 I0.121 J0.108
X-8.629 Y-112.347 Z-0.794 I-0.121 J-0.108
X-8.386 Y-112.132 Z-0.856 I0.121 J0.108
X-8.629 Y-112.347 Z-0.917 I-0.121 J-0.108
X-8.386 Y-112.132 Z-0.978 I0.121 J0.108
X-8.629 Y-112.347 Z-1.039 I-0.121 J-0.108
X-8.386 Y-112.132 Z-1.1 I0.121 J0.108
X-8.629 Y-112.347 Z-1.161 I-0.121 J-0.108
X-8.386 Y-112.132 Z-1.222 I0.121 J0.108
X-8.629 Y-112.347 Z-1.283 I-0.121 J-0.108
X-8.386 Y-112.132 Z-1.344 I0.121 J0.108
X-8.629 Y-112.347 Z-1.406 I-0.121 J-0.108
X-8.386 Y-112.132 Z-1.467 I0.121 J0.108
X-8.629 Y-112.347 Z-1.528 I-0.121 J-0.108
X-8.386 Y-112.132 Z-1.589 I0.121 J0.108
X-8.629 Y-112.347 Z-1.65 I-0.121 J-0.108
X-8.386 Y-112.132 Z-1.711 I0.121 J0.108
X-8.629 Y-112.347 Z-1.772 I-0.121 J-0.108
X-8.386 Y-112.132 Z-1.833 I0.121 J0.108
X-8.629 Y-112.347 Z-1.894 I-0.121 J-0.108
X-8.386 Y-112.132 Z-1.956 I0.121 J0.108
X-8.629 Y-112.347 Z-2.017 I-0.121 J-0.108
X-8.386 Y-112.132 Z-2.078 I0.121 J0.108
X-8.629 Y-112.347 Z-2.139 I-0.121 J-0.108
X-8.386 Y-112.132 Z-2.2 I0.121 J0.108
X-8.629 Y-112.347 Z-2.261 I-0.121 J-0.108
X-8.359 Y-112.305 Z-2.3 I0.121 J0.108
X-8.656 Y-112.174 I-0.149 J0.066
X-8.359 Y-112.305 I0.149 J-0.066
G1 X-8.352 Y-112.274
X-8.358 Y-112.243
X-8.375 Y-112.216
X-8.4 Y-112.198
X-8.546 Y-112.134
Z5
X-7.746 Y-79.544
Z1.683
Z0
X-7.628 Y-79.439
X-7.609 Y-79.414
X-7.601 Y-79.383
X-7.605 Y-79.352
X-7.621 Y-79.324
G3 X-7.864 Y-79.54 Z-0.061 I-0.121 J-0.108
X-7.621 Y-79.324 Z-0.122 I0.121 J0.108
X-7.864 Y-79.54 Z-0.183 I-0.121 J-0.108
X-7.621 Y-79.324 Z-0.244 I0.121 J0.108
X-7.864 Y-79.54 Z-0.306 I-0.121 J-0.108
X-7.621 Y-79.324 Z-0.367 I0.121 J0.108
X-7.864 Y-79.54 Z-0.428 I-0.121 J-0.108
X-7.621 Y-79.324 Z-0.489 I0.121 J0.108
X-7.864 Y-79.54 Z-0.55 I-0.121 J-0.108
X-7.621 Y-79.324 Z-0.611 I0.121 J0.108
X-7.864 Y-79.54 Z-0.672 I-0.121 J-0.108
X-7.621 Y-79.324 Z-0.733 I0.121 J0.108
X-7.864 Y-79.54 Z-0.794 I-0.121 J-0.108
X-7.621 Y-79.324 Z-0.856 I0.121 J0.108
X-7.864 Y-79.54 Z-0.917 I-0.121 J-0.108
X-7.621 Y-79.324 Z-0.978 I0.121 J0.108
X-7.864 Y-79.54 Z-1.039 I-0.121 J-0.108
X-7.621 Y-79.324 Z-1.1 I0.121 J0.108
X-7.864 Y-79.54 Z-1.161 I-0.121 J-0.108
X-7.621 Y-79.324 Z-1.222 I0.121 J0.108
X-7.864 Y-79.54 Z-1.283 I-0.121 J-0.108
X-7.621 Y-79.324 Z-1.344 I0.121 J0.108
X-7.864 Y-79.54 Z-1.406 I-0.121 J-0.108
X-7.621 Y-79.324 Z-1.467 I0.121 J0.108
X-7.864 Y-79.54 Z-1.528 I-0.121 J-0.108
X-7.621 Y-79.324 Z-1.589 I0.121 J0.108
X-7.864 Y-79.54 Z-1.65 I-0.121 J-0.108
X-7.621 Y-79.324 Z-1.711 I0.121 J0.108
X-7.864 Y-79.54 Z-1.772 I-0.121 J-0.108
X-7.621 Y-79.324 Z-1.833 I0.121 J0.108
X-7.864 Y-79.54 Z-1.894 I-0.121 J-0.108
X-7.621 Y-79.324 Z-1.956 I0.121 J0.108
X-7.864 Y-79.54 Z-2.017 I-0.121 J-0.108
X-7.621 Y-79.324 Z-2.078 I0.121 J0.108
X-7.864 Y-79.54 Z-2.139 I-0.121 J-0.108
X-7.621 Y-79.324 Z-2.2 I0.121 J0.108
X-7.864 Y-79.54 Z-2.261 I-0.121 J-0.108
X-7.594 Y-79.498 Z-2.3 I0.121 J0.108
X-7.891 Y-79.367 I-0.149 J0.066
X-7.594 Y-79.498 I0.149 J-0.066
G1 X-7.587 Y-79.467
X-7.592 Y-79.436
X-7.609 Y-79.409
X-7.635 Y-79.391
X-7.78 Y-79.327
Z5
X-23.529 Y-86.262
Z1.683
Z0
X-23.41 Y-86.157
X-23.391 Y-86.131
X-23.383 Y-86.101
X-23.387 Y-86.069
X-23.403 Y-86.042
G3 X-23.646 Y-86.258 Z-0.061 I-0.121 J-0.108
X-23.403 Y-86.042 Z-0.122 I0.121 J0.108
X-23.646 Y-86.258 Z-0.183 I-0.121 J-0.108
X-23.403 Y-86.042 Z-0.244 I0.121 J0.108
X-23.646 Y-86.258 Z-0.306 I-0.121 J-0.108
X-23.403 Y-86.042 Z-0.367 I0.121 J0.108
X-23.646 Y-86.258 Z-0.428 I-0.121 J-0.108
X-23.403 Y-86.042 Z-0.489 I0.121 J0.108
X-23.646 Y-86.258 Z-0.55 I-0.121 J-0.108
X-23.403 Y-86.042 Z-0.611 I0.121 J0.108
X-23.646 Y-86.258 Z-0.672 I-0.121 J-0.108
X-23.403 Y-86.042 Z-0.733 I0.121 J0.108
X-23.646 Y-86.258 Z-0.794 I-0.121 J-0.108
X-23.403 Y-86.042 Z-0.856 I0.121 J0.108
X-23.646 Y-86.258 Z-0.917 I-0.121 J-0.108
X-23.403 Y-86.042 Z-0.978 I0.121 J0.108
X-23.646 Y-86.258 Z-1.039 I-0.121 J-0.108
X-23.403 Y-86.042 Z-1.1 I0.121 J0.108
X-23.646 Y-86.258 Z-1.161 I-0.121 J-0.108
X-23.403 Y-86.042 Z-1.222 I0.121 J0.108
X-23.646 Y-86.258 Z-1.283 I-0.121 J-0.108
X-23.403 Y-86.042 Z-1.344 I0.121 J0.108
X-23.646 Y-86.258 Z-1.406 I-0.121 J-0.108
X-23.403 Y-86.042 Z-1.467 I0.121 J0.108
X-23.646 Y-86.258 Z-1.528 I-0.121 J-0.108
X-23.403 Y-86.042 Z-1.589 I0.121 J0.108
X-23.646 Y-86.258 Z-1.65 I-0.121 J-0.108
X-23.403 Y-86.042 Z-1.711 I0.121 J0.108
X-23.646 Y-86.258 Z-1.772 I-0.121 J-0.108
X-23.403 Y-86.042 Z-1.833 I0.121 J0.108
X-23.646 Y-86.258 Z-1.894 I-0.121 J-0.108
X-23.403 Y-86.042 Z-1.956 I0.121 J0.108
X-23.646 Y-86.258 Z-2.017 I-0.121 J-0.108
X-23.403 Y-86.042 Z-2.078 I0.121 J0.108
X-23.646 Y-86.258 Z-2.139 I-0.121 J-0.108
X-23.403 Y-86.042 Z-2.2 I0.121 J0.108
X-23.646 Y-86.258 Z-2.261 I-0.121 J-0.108
X-23.376 Y-86.216 Z-2.3 I0.121 J0.108
X-23.673 Y-86.084 I-0.149 J0.066
X-23.376 Y-86.216 I0.149 J-0.066
G1 X-23.369 Y-86.185
X-23.375 Y-86.153
X-23.392 Y-86.127
X-23.418 Y-86.108
X-23.563 Y-86.044
Z5
X-36.964 Y-86.262
Z1.683
Z0
X-36.845 Y-86.157
X-36.826 Y-86.131
X-36.818 Y-86.101
X-36.822 Y-86.069
X-36.838 Y-86.042
G3 X-37.081 Y-86.258 Z-0.061 I-0.121 J-0.108
X-36.838 Y-86.042 Z-0.122 I0.121 J0.108
X-37.081 Y-86.258 Z-0.183 I-0.121 J-0.108
X-36.838 Y-86.042 Z-0.244 I0.121 J0.108
X-37.081 Y-86.258 Z-0.306 I-0.121 J-0.108
X-36.838 Y-86.042 Z-0.367 I0.121 J0.108
X-37.081 Y-86.258 Z-0.428 I-0.121 J-0.108
X-36.838 Y-86.042 Z-0.489 I0.121 J0.108
X-37.081 Y-86.258 Z-0.55 I-0.121 J-0.108
X-36.838 Y-86.042 Z-0.611 I0.121 J0.108
X-37.081 Y-86.258 Z-0.672 I-0.121 J-0.108
X-36.838 Y-86.042 Z-0.733 I0.121 J0.108
X-37.081 Y-86.258 Z-0.794 I-0.121 J-0.108
X-36.838 Y-86.042 Z-0.856 I0.121 J0.108
X-37.081 Y-86.258 Z-0.917 I-0.121 J-0.108
X-36.838 Y-86.042 Z-0.978 I0.121 J0.108
X-37.081 Y-86.258 Z-1.039 I-0.121 J-0.108
X-36.838 Y-86.042 Z-1.1 I0.121 J0.108
X-37.081 Y-86.258 Z-1.161 I-0.121 J-0.108
X-36.838 Y-86.042 Z-1.222 I0.121 J0.108
X-37.081 Y-86.258 Z-1.283 I-0.121 J-0.108
X-36.838 Y-86.042 Z-1.344 I0.121 J0.108
X-37.081 Y-86.258 Z-1.406 I-0.121 J-0.108
X-36.838 Y-86.042 Z-1.467 I0.121 J0.108
X-37.081 Y-86.258 Z-1.528 I-0.121 J-0.108
X-36.838 Y-86.042 Z-1.589 I0.121 J0.108
X-37.081 Y-86.258 Z-1.65 I-0.121 J-0.108
X-36.838 Y-86.042 Z-1.711 I0.121 J0.108
X-37.081 Y-86.258 Z-1.772 I-0.121 J-0.108
X-36.838 Y-86.042 Z-1.833 I0.121 J0.108
X-37.081 Y-86.258 Z-1.894 I-0.121 J-0.108
X-36.838 Y-86.042 Z-1.956 I0.121 J0.108
X-37.081 Y-86.258 Z-2.017 I-0.121 J-0.108
X-36.838 Y-86.042 Z-2.078 I0.121 J0.108
X-37.081 Y-86.258 Z-2.139 I-0.121 J-0.108
X-36.838 Y-86.042 Z-2.2 I0.121 J0.108
X-37.081 Y-86.258 Z-2.261 I-0.121 J-0.108
X-36.811 Y-86.216 Z-2.3 I0.121 J0.108
X-37.108 Y-86.084 I-0.149 J0.066
X-36.811 Y-86.216 I0.149 J-0.066
G1 X-36.804 Y-86.185
X-36.81 Y-86.153
X-36.827 Y-86.127
X-36.853 Y-86.108
X-36.998 Y-86.044
Z5
X-28.821 Y-78.595
Z2
Z0.317
X-28.815 Y-78.589 Z0.247
X-28.798 Y-78.574 Z0.18
X-28.77 Y-78.549 Z0.12
X-28.732 Y-78.515 Z0.069
X-28.687 Y-78.475 Z0.031
X-28.637 Y-78.431 Z0.008
X-28.584 Y-78.384 Z0
X-28.465 Y-78.278
G3 X-28.439 Y-77.83 I-0.211 J0.237
X-32.046 Y-81.035 Z-0.14 I-1.804 J-1.602
X-28.439 Y-77.83 Z-0.279 I1.804 J1.602
X-32.046 Y-81.035 Z-0.419 I-1.804 J-1.602
X-28.439 Y-77.83 Z-0.559 I1.804 J1.602
X-32.046 Y-81.035 Z-0.698 I-1.804 J-1.602
X-28.439 Y-77.83 Z-0.838 I1.804 J1.602
X-32.046 Y-81.035 Z-0.978 I-1.804 J-1.602
X-28.439 Y-77.83 Z-1.117 I1.804 J1.602
X-32.046 Y-81.035 Z-1.257 I-1.804 J-1.602
X-28.439 Y-77.83 Z-1.397 I1.804 J1.602
X-32.046 Y-81.035 Z-1.537 I-1.804 J-1.602
X-28.439 Y-77.83 Z-1.676 I1.804 J1.602
X-32.046 Y-81.035 Z-1.816 I-1.804 J-1.602
X-28.439 Y-77.83 Z-1.956 I1.804 J1.602
X-32.046 Y-81.035 Z-2.095 I-1.804 J-1.602
X-28.439 Y-77.83 Z-2.235 I1.804 J1.602
X-31.642 Y-77.467 Z-2.3 I-1.804 J-1.602
X-28.842 Y-81.397 I1.4 J-1.965
X-31.642 Y-77.467 I-1.4 J1.965
X-31.717 Y-77.91 I0.184 J-0.259
G1 X-31.625 Y-78.04
X-31.584 Y-78.097 Z-2.292
X-31.545 Y-78.152 Z-2.269
X-31.51 Y-78.201 Z-2.231
X-31.48 Y-78.242 Z-2.18
X-31.459 Y-78.273 Z-2.12
X-31.445 Y-78.292 Z-2.053
X-31.44 Y-78.298 Z-1.982
Z5
X-36.964 Y-72.827
Z1.683
Z0
X-36.845 Y-72.722
X-36.826 Y-72.696
X-36.818 Y-72.666
X-36.822 Y-72.634
X-36.838 Y-72.607
G3 X-37.081 Y-72.823 Z-0.061 I-0.121 J-0.108
X-36.838 Y-72.607 Z-0.122 I0.121 J0.108
X-37.081 Y-72.823 Z-0.183 I-0.121 J-0.108
X-36.838 Y-72.607 Z-0.244 I0.121 J0.108
X-37.081 Y-72.823 Z-0.306 I-0.121 J-0.108
X-36.838 Y-72.607 Z-0.367 I0.121 J0.108
X-37.081 Y-72.823 Z-0.428 I-0.121 J-0.108
X-36.838 Y-72.607 Z-0.489 I0.121 J0.108
X-37.081 Y-72.823 Z-0.55 I-0.121 J-0.108
X-36.838 Y-72.607 Z-0.611 I0.121 J0.108
X-37.081 Y-72.823 Z-0.672 I-0.121 J-0.108
X-36.838 Y-72.607 Z-0.733 I0.121 J0.108
X-37.081 Y-72.823 Z-0.794 I-0.121 J-0.108
X-36.838 Y-72.607 Z-0.856 I0.121 J0.108
X-37.081 Y-72.823 Z-0.917 I-0.121 J-0.108
X-36.838 Y-72.607 Z-0.978 I0.121 J0.108
X-37.081 Y-72.823 Z-1.039 I-0.121 J-0.108
X-36.838 Y-72.607 Z-1.1 I0.121 J0.108
X-37.081 Y-72.823 Z-1.161 I-0.121 J-0.108
X-36.838 Y-72.607 Z-1.222 I0.121 J0.108
X-37.081 Y-72.823 Z-1.283 I-0.121 J-0.108
X-36.838 Y-72.607 Z-1.344 I0.121 J0.108
X-37.081 Y-72.823 Z-1.406 I-0.121 J-0.108
X-36.838 Y-72.607 Z-1.467 I0.121 J0.108
X-37.081 Y-72.823 Z-1.528 I-0.121 J-0.108
X-36.838 Y-72.607 Z-1.589 I0.121 J0.108
X-37.081 Y-72.823 Z-1.65 I-0.121 J-0.108
X-36.838 Y-72.607 Z-1.711 I0.121 J0.108
X-37.081 Y-72.823 Z-1.772 I-0.121 J-0.108
X-36.838 Y-72.607 Z-1.833 I0.121 J0.108
X-37.081 Y-72.823 Z-1.894 I-0.121 J-0.108
X-36.838 Y-72.607 Z-1.956 I0.121 J0.108
X-37.081 Y-72.823 Z-2.017 I-0.121 J-0.108
X-36.838 Y-72.607 Z-2.078 I0.121 J0.108
X-37.081 Y-72.823 Z-2.139 I-0.121 J-0.108
X-36.838 Y-72.607 Z-2.2 I0.121 J0.108
X-37.081 Y-72.823 Z-2.261 I-0.121 J-0.108
X-36.811 Y-72.78 Z-2.3 I0.121 J0.108
X-37.108 Y-72.649 I-0.149 J0.066
X-36.811 Y-72.78 I0.149 J-0.066
G1 X-36.804 Y-72.75
X-36.81 Y-72.718
X-36.827 Y-72.692
X-36.853 Y-72.673
X-36.998 Y-72.609
Z5
X-23.529 Y-72.827
Z1.683
Z0
X-23.41 Y-72.722
X-23.391 Y-72.696
X-23.383 Y-72.666
X-23.387 Y-72.634
X-23.403 Y-72.607
G3 X-23.646 Y-72.823 Z-0.061 I-0.121 J-0.108
X-23.403 Y-72.607 Z-0.122 I0.121 J0.108
X-23.646 Y-72.823 Z-0.183 I-0.121 J-0.108
X-23.403 Y-72.607 Z-0.244 I0.121 J0.108
X-23.646 Y-72.823 Z-0.306 I-0.121 J-0.108
X-23.403 Y-72.607 Z-0.367 I0.121 J0.108
X-23.646 Y-72.823 Z-0.428 I-0.121 J-0.108
X-23.403 Y-72.607 Z-0.489 I0.121 J0.108
X-23.646 Y-72.823 Z-0.55 I-0.121 J-0.108
X-23.403 Y-72.607 Z-0.611 I0.121 J0.108
X-23.646 Y-72.823 Z-0.672 I-0.121 J-0.108
X-23.403 Y-72.607 Z-0.733 I0.121 J0.108
X-23.646 Y-72.823 Z-0.794 I-0.121 J-0.108
X-23.403 Y-72.607 Z-0.856 I0.121 J0.108
X-23.646 Y-72.823 Z-0.917 I-0.121 J-0.108
X-23.403 Y-72.607 Z-0.978 I0.121 J0.108
X-23.646 Y-72.823 Z-1.039 I-0.121 J-0.108
X-23.403 Y-72.607 Z-1.1 I0.121 J0.108
X-23.646 Y-72.823 Z-1.161 I-0.121 J-0.108
X-23.403 Y-72.607 Z-1.222 I0.121 J0.108
X-23.646 Y-72.823 Z-1.283 I-0.121 J-0.108
X-23.403 Y-72.607 Z-1.344 I0.121 J0.108
X-23.646 Y-72.823 Z-1.406 I-0.121 J-0.108
X-23.403 Y-72.607 Z-1.467 I0.121 J0.108
X-23.646 Y-72.823 Z-1.528 I-0.121 J-0.108
X-23.403 Y-72.607 Z-1.589 I0.121 J0.108
X-23.646 Y-72.823 Z-1.65 I-0.121 J-0.108
X-23.403 Y-72.607 Z-1.711 I0.121 J0.108
X-23.646 Y-72.823 Z-1.772 I-0.121 J-0.108
X-23.403 Y-72.607 Z-1.833 I0.121 J0.108
X-23.646 Y-72.823 Z-1.894 I-0.121 J-0.108
X-23.403 Y-72.607 Z-1.956 I0.121 J0.108
X-23.646 Y-72.823 Z-2.017 I-0.121 J-0.108
X-23.403 Y-72.607 Z-2.078 I0.121 J0.108
X-23.646 Y-72.823 Z-2.139 I-0.121 J-0.108
X-23.403 Y-72.607 Z-2.2 I0.121 J0.108
X-23.646 Y-72.823 Z-2.261 I-0.121 J-0.108
X-23.376 Y-72.78 Z-2.3 I0.121 J0.108
X-23.673 Y-72.649 I-0.149 J0.066
X-23.376 Y-72.78 I0.149 J-0.066
G1 X-23.369 Y-72.75
X-23.375 Y-72.718
X-23.392 Y-72.692
X-23.418 Y-72.673
X-23.563 Y-72.609
Z5
X-52.746 Y-79.544
Z1.683
Z0
X-52.628 Y-79.439
X-52.609 Y-79.414
X-52.601 Y-79.383
X-52.605 Y-79.352
X-52.621 Y-79.324
G3 X-52.864 Y-79.54 Z-0.061 I-0.121 J-0.108
X-52.621 Y-79.324 Z-0.122 I0.121 J0.108
X-52.864 Y-79.54 Z-0.183 I-0.121 J-0.108
X-52.621 Y-79.324 Z-0.244 I0.121 J0.108
X-52.864 Y-79.54 Z-0.306 I-0.121 J-0.108
X-52.621 Y-79.324 Z-0.367 I0.121 J0.108
X-52.864 Y-79.54 Z-0.428 I-0.121 J-0.108
X-52.621 Y-79.324 Z-0.489 I0.121 J0.108
X-52.864 Y-79.54 Z-0.55 I-0.121 J-0.108
X-52.621 Y-79.324 Z-0.611 I0.121 J0.108
X-52.864 Y-79.54 Z-0.672 I-0.121 J-0.108
X-52.621 Y-79.324 Z-0.733 I0.121 J0.108
X-52.864 Y-79.54 Z-0.794 I-0.121 J-0.108
X-52.621 Y-79.324 Z-0.856 I0.121 J0.108
X-52.864 Y-79.54 Z-0.917 I-0.121 J-0.108
X-52.621 Y-79.324 Z-0.978 I0.121 J0.108
X-52.864 Y-79.54 Z-1.039 I-0.121 J-0.108
X-52.621 Y-79.324 Z-1.1 I0.121 J0.108
X-52.864 Y-79.54 Z-1.161 I-0.121 J-0.108
X-52.621 Y-79.324 Z-1.222 I0.121 J0.108
X-52.864 Y-79.54 Z-1.283 I-0.121 J-0.108
X-52.621 Y-79.324 Z-1.344 I0.121 J0.108
X-52.864 Y-79.54 Z-1.406 I-0.121 J-0.108
X-52.621 Y-79.324 Z-1.467 I0.121 J0.108
X-52.864 Y-79.54 Z-1.528 I-0.121 J-0.108
X-52.621 Y-79.324 Z-1.589 I0.121 J0.108
X-52.864 Y-79.54 Z-1.65 I-0.121 J-0.108
X-52.621 Y-79.324 Z-1.711 I0.121 J0.108
X-52.864 Y-79.54 Z-1.772 I-0.121 J-0.108
X-52.621 Y-79.324 Z-1.833 I0.121 J0.108
X-52.864 Y-79.54 Z-1.894 I-0.121 J-0.108
X-52.621 Y-79.324 Z-1.956 I0.121 J0.108
X-52.864 Y-79.54 Z-2.017 I-0.121 J-0.108
X-52.621 Y-79.324 Z-2.078 I0.121 J0.108
X-52.864 Y-79.54 Z-2.139 I-0.121 J-0.108
X-52.621 Y-79.324 Z-2.2 I0.121 J0.108
X-52.864 Y-79.54 Z-2.261 I-0.121 J-0.108
X-52.594 Y-79.498 Z-2.3 I0.121 J0.108
X-52.891 Y-79.367 I-0.149 J0.066
X-52.594 Y-79.498 I0.149 J-0.066
G1 X-52.587 Y-79.467
X-52.592 Y-79.436
X-52.609 Y-79.409
X-52.635 Y-79.391
X-52.78 Y-79.327
Z5
X-53.308 Y-48.053
Z1.683
Z0
X-53.19 Y-47.948
X-53.171 Y-47.923
X-53.163 Y-47.892
X-53.167 Y-47.861
X-53.183 Y-47.833
G3 X-53.426 Y-48.049 Z-0.061 I-0.121 J-0.108
X-53.183 Y-47.833 Z-0.122 I0.121 J0.108
X-53.426 Y-48.049 Z-0.183 I-0.121 J-0.108
X-53.183 Y-47.833 Z-0.244 I0.121 J0.108
X-53.426 Y-48.049 Z-0.306 I-0.121 J-0.108
X-53.183 Y-47.833 Z-0.367 I0.121 J0.108
X-53.426 Y-48.049 Z-0.428 I-0.121 J-0.108
X-53.183 Y-47.833 Z-0.489 I0.121 J0.108
X-53.426 Y-48.049 Z-0.55 I-0.121 J-0.108
X-53.183 Y-47.833 Z-0.611 I0.121 J0.108
X-53.426 Y-48.049 Z-0.672 I-0.121 J-0.108
X-53.183 Y-47.833 Z-0.733 I0.121 J0.108
X-53.426 Y-48.049 Z-0.794 I-0.121 J-0.108
X-53.183 Y-47.833 Z-0.856 I0.121 J0.108
X-53.426 Y-48.049 Z-0.917 I-0.121 J-0.108
X-53.183 Y-47.833 Z-0.978 I0.121 J0.108
X-53.426 Y-48.049 Z-1.039 I-0.121 J-0.108
X-53.183 Y-47.833 Z-1.1 I0.121 J0.108
X-53.426 Y-48.049 Z-1.161 I-0.121 J-0.108
X-53.183 Y-47.833 Z-1.222 I0.121 J0.108
X-53.426 Y-48.049 Z-1.283 I-0.121 J-0.108
X-53.183 Y-47.833 Z-1.344 I0.121 J0.108
X-53.426 Y-48.049 Z-1.406 I-0.121 J-0.108
X-53.183 Y-47.833 Z-1.467 I0.121 J0.108
X-53.426 Y-48.049 Z-1.528 I-0.121 J-0.108
X-53.183 Y-47.833 Z-1.589 I0.121 J0.108
X-53.426 Y-48.049 Z-1.65 I-0.121 J-0.108
X-53.183 Y-47.833 Z-1.711 I0.121 J0.108
X-53.426 Y-48.049 Z-1.772 I-0.121 J-0.108
X-53.183 Y-47.833 Z-1.833 I0.121 J0.108
X-53.426 Y-48.049 Z-1.894 I-0.121 J-0.108
X-53.183 Y-47.833 Z-1.956 I0.121 J0.108
X-53.426 Y-48.049 Z-2.017 I-0.121 J-0.108
X-53.183 Y-47.833 Z-2.078 I0.121 J0.108
X-53.426 Y-48.049 Z-2.139 I-0.121 J-0.108
X-53.183 Y-47.833 Z-2.2 I0.121 J0.108
X-53.426 Y-48.049 Z-2.261 I-0.121 J-0.108
X-53.156 Y-48.007 Z-2.3 I0.121 J0.108
X-53.453 Y-47.875 I-0.149 J0.066
X-53.156 Y-48.007 I0.149 J-0.066
G1 X-53.149 Y-47.976
X-53.154 Y-47.945
X-53.171 Y-47.918
X-53.197 Y-47.9
X-53.342 Y-47.836
Z5
X-37.526 Y-54.771
Z1.683
Z0
X-37.407 Y-54.666
X-37.388 Y-54.64
X-37.38 Y-54.61
X-37.384 Y-54.578
X-37.4 Y-54.551
G3 X-37.643 Y-54.767 Z-0.061 I-0.121 J-0.108
X-37.4 Y-54.551 Z-0.122 I0.121 J0.108
X-37.643 Y-54.767 Z-0.183 I-0.121 J-0.108
X-37.4 Y-54.551 Z-0.244 I0.121 J0.108
X-37.643 Y-54.767 Z-0.306 I-0.121 J-0.108
X-37.4 Y-54.551 Z-0.367 I0.121 J0.108
X-37.643 Y-54.767 Z-0.428 I-0.121 J-0.108
X-37.4 Y-54.551 Z-0.489 I0.121 J0.108
X-37.643 Y-54.767 Z-0.55 I-0.121 J-0.108
X-37.4 Y-54.551 Z-0.611 I0.121 J0.108
X-37.643 Y-54.767 Z-0.672 I-0.121 J-0.108
X-37.4 Y-54.551 Z-0.733 I0.121 J0.108
X-37.643 Y-54.767 Z-0.794 I-0.121 J-0.108
X-37.4 Y-54.551 Z-0.856 I0.121 J0.108
X-37.643 Y-54.767 Z-0.917 I-0.121 J-0.108
X-37.4 Y-54.551 Z-0.978 I0.121 J0.108
X-37.643 Y-54.767 Z-1.039 I-0.121 J-0.108
X-37.4 Y-54.551 Z-1.1 I0.121 J0.108
X-37.643 Y-54.767 Z-1.161 I-0.121 J-0.108
X-37.4 Y-54.551 Z-1.222 I0.121 J0.108
X-37.643 Y-54.767 Z-1.283 I-0.121 J-0.108
X-37.4 Y-54.551 Z-1.344 I0.121 J0.108
X-37.643 Y-54.767 Z-1.406 I-0.121 J-0.108
X-37.4 Y-54.551 Z-1.467 I0.121 J0.108
X-37.643 Y-54.767 Z-1.528 I-0.121 J-0.108
X-37.4 Y-54.551 Z-1.589 I0.121 J0.108
X-37.643 Y-54.767 Z-1.65 I-0.121 J-0.108
X-37.4 Y-54.551 Z-1.711 I0.121 J0.108
X-37.643 Y-54.767 Z-1.772 I-0.121 J-0.108
X-37.4 Y-54.551 Z-1.833 I0.121 J0.108
X-37.643 Y-54.767 Z-1.894 I-0.121 J-0.108
X-37.4 Y-54.551 Z-1.956 I0.121 J0.108
X-37.643 Y-54.767 Z-2.017 I-0.121 J-0.108
X-37.4 Y-54.551 Z-2.078 I0.121 J0.108
X-37.643 Y-54.767 Z-2.139 I-0.121 J-0.108
X-37.4 Y-54.551 Z-2.2 I0.121 J0.108
X-37.643 Y-54.767 Z-2.261 I-0.121 J-0.108
X-37.373 Y-54.724 Z-2.3 I0.121 J0.108
X-37.671 Y-54.593 I-0.149 J0.066
X-37.373 Y-54.724 I0.149 J-0.066
G1 X-37.366 Y-54.694
X-37.372 Y-54.662
X-37.389 Y-54.636
X-37.415 Y-54.617
X-37.56 Y-54.553
Z5
X-24.091 Y-54.771
Z1.683
Z0
X-23.972 Y-54.666
X-23.953 Y-54.64
X-23.945 Y-54.61
X-23.949 Y-54.578
X-23.965 Y-54.551
G3 X-24.208 Y-54.767 Z-0.061 I-0.121 J-0.108
X-23.965 Y-54.551 Z-0.122 I0.121 J0.108
X-24.208 Y-54.767 Z-0.183 I-0.121 J-0.108
X-23.965 Y-54.551 Z-0.244 I0.121 J0.108
X-24.208 Y-54.767 Z-0.306 I-0.121 J-0.108
X-23.965 Y-54.551 Z-0.367 I0.121 J0.108
X-24.208 Y-54.767 Z-0.428 I-0.121 J-0.108
X-23.965 Y-54.551 Z-0.489 I0.121 J0.108
X-24.208 Y-54.767 Z-0.55 I-0.121 J-0.108
X-23.965 Y-54.551 Z-0.611 I0.121 J0.108
X-24.208 Y-54.767 Z-0.672 I-0.121 J-0.108
X-23.965 Y-54.551 Z-0.733 I0.121 J0.108
X-24.208 Y-54.767 Z-0.794 I-0.121 J-0.108
X-23.965 Y-54.551 Z-0.856 I0.121 J0.108
X-24.208 Y-54.767 Z-0.917 I-0.121 J-0.108
X-23.965 Y-54.551 Z-0.978 I0.121 J0.108
X-24.208 Y-54.767 Z-1.039 I-0.121 J-0.108
X-23.965 Y-54.551 Z-1.1 I0.121 J0.108
X-24.208 Y-54.767 Z-1.161 I-0.121 J-0.108
X-23.965 Y-54.551 Z-1.222 I0.121 J0.108
X-24.208 Y-54.767 Z-1.283 I-0.121 J-0.108
X-23.965 Y-54.551 Z-1.344 I0.121 J0.108
X-24.208 Y-54.767 Z-1.406 I-0.121 J-0.108
X-23.965 Y-54.551 Z-1.467 I0.121 J0.108
X-24.208 Y-54.767 Z-1.528 I-0.121 J-0.108
X-23.965 Y-54.551 Z-1.589 I0.121 J0.108
X-24.208 Y-54.767 Z-1.65 I-0.121 J-0.108
X-23.965 Y-54.551 Z-1.711 I0.121 J0.108
X-24.208 Y-54.767 Z-1.772 I-0.121 J-0.108
X-23.965 Y-54.551 Z-1.833 I0.121 J0.108
X-24.208 Y-54.767 Z-1.894 I-0.121 J-0.108
X-23.965 Y-54.551 Z-1.956 I0.121 J0.108
X-24.208 Y-54.767 Z-2.017 I-0.121 J-0.108
X-23.965 Y-54.551 Z-2.078 I0.121 J0.108
X-24.208 Y-54.767 Z-2.139 I-0.121 J-0.108
X-23.965 Y-54.551 Z-2.2 I0.121 J0.108
X-24.208 Y-54.767 Z-2.261 I-0.121 J-0.108
X-23.938 Y-54.724 Z-2.3 I0.121 J0.108
X-24.235 Y-54.593 I-0.149 J0.066
X-23.938 Y-54.724 I0.149 J-0.066
G1 X-23.931 Y-54.694
X-23.937 Y-54.662
X-23.954 Y-54.636
X-23.98 Y-54.617
X-24.125 Y-54.553
Z5
X-29.383 Y-47.103
Z2
Z0.317
X-29.377 Y-47.098 Z0.247
X-29.36 Y-47.083 Z0.18
X-29.332 Y-47.057 Z0.12
X-29.294 Y-47.024 Z0.069
X-29.249 Y-46.984 Z0.031
X-29.199 Y-46.94 Z0.008
X-29.146 Y-46.893 Z0
X-29.027 Y-46.787
G3 X-29.001 Y-46.339 I-0.211 J0.237
X-32.608 Y-49.543 Z-0.14 I-1.804 J-1.602
X-29.001 Y-46.339 Z-0.279 I1.804 J1.602
X-32.608 Y-49.543 Z-0.419 I-1.804 J-1.602
X-29.001 Y-46.339 Z-0.559 I1.804 J1.602
X-32.608 Y-49.543 Z-0.698 I-1.804 J-1.602
X-29.001 Y-46.339 Z-0.838 I1.804 J1.602
X-32.608 Y-49.543 Z-0.978 I-1.804 J-1.602
X-29.001 Y-46.339 Z-1.117 I1.804 J1.602
X-32.608 Y-49.543 Z-1.257 I-1.804 J-1.602
X-29.001 Y-46.339 Z-1.397 I1.804 J1.602
X-32.608 Y-49.543 Z-1.537 I-1.804 J-1.602
X-29.001 Y-46.339 Z-1.676 I1.804 J1.602
X-32.608 Y-49.543 Z-1.816 I-1.804 J-1.602
X-29.001 Y-46.339 Z-1.956 I1.804 J1.602
X-32.608 Y-49.543 Z-2.095 I-1.804 J-1.602
X-29.001 Y-46.339 Z-2.235 I1.804 J1.602
X-32.204 Y-45.976 Z-2.3 I-1.804 J-1.602
X-29.404 Y-49.906 I1.4 J-1.965
X-32.204 Y-45.976 I-1.4 J1.965
X-32.279 Y-46.419 I0.184 J-0.259
G1 X-32.187 Y-46.549
X-32.146 Y-46.606 Z-2.292
X-32.107 Y-46.661 Z-2.269
X-32.072 Y-46.71 Z-2.231
X-32.042 Y-46.751 Z-2.18
X-32.021 Y-46.781 Z-2.12
X-32.007 Y-46.801 Z-2.053
X-32.002 Y-46.807 Z-1.982
Z5
X-24.091 Y-41.336
Z1.683
Z0
X-23.972 Y-41.23
X-23.953 Y-41.205
X-23.945 Y-41.175
X-23.949 Y-41.143
X-23.965 Y-41.116
G3 X-24.208 Y-41.332 Z-0.061 I-0.121 J-0.108
X-23.965 Y-41.116 Z-0.122 I0.121 J0.108
X-24.208 Y-41.332 Z-0.183 I-0.121 J-0.108
X-23.965 Y-41.116 Z-0.244 I0.121 J0.108
X-24.208 Y-41.332 Z-0.306 I-0.121 J-0.108
X-23.965 Y-41.116 Z-0.367 I0.121 J0.108
X-24.208 Y-41.332 Z-0.428 I-0.121 J-0.108
X-23.965 Y-41.116 Z-0.489 I0.121 J0.108
X-24.208 Y-41.332 Z-0.55 I-0.121 J-0.108
X-23.965 Y-41.116 Z-0.611 I0.121 J0.108
X-24.208 Y-41.332 Z-0.672 I-0.121 J-0.108
X-23.965 Y-41.116 Z-0.733 I0.121 J0.108
X-24.208 Y-41.332 Z-0.794 I-0.121 J-0.108
X-23.965 Y-41.116 Z-0.856 I0.121 J0.108
X-24.208 Y-41.332 Z-0.917 I-0.121 J-0.108
X-23.965 Y-41.116 Z-0.978 I0.121 J0.108
X-24.208 Y-41.332 Z-1.039 I-0.121 J-0.108
X-23.965 Y-41.116 Z-1.1 I0.121 J0.108
X-24.208 Y-41.332 Z-1.161 I-0.121 J-0.108
X-23.965 Y-41.116 Z-1.222 I0.121 J0.108
X-24.208 Y-41.332 Z-1.283 I-0.121 J-0.108
X-23.965 Y-41.116 Z-1.344 I0.121 J0.108
X-24.208 Y-41.332 Z-1.406 I-0.121 J-0.108
X-23.965 Y-41.116 Z-1.467 I0.121 J0.108
X-24.208 Y-41.332 Z-1.528 I-0.121 J-0.108
X-23.965 Y-41.116 Z-1.589 I0.121 J0.108
X-24.208 Y-41.332 Z-1.65 I-0.121 J-0.108
X-23.965 Y-41.116 Z-1.711 I0.121 J0.108
X-24.208 Y-41.332 Z-1.772 I-0.121 J-0.108
X-23.965 Y-41.116 Z-1.833 I0.121 J0.108
X-24.208 Y-41.332 Z-1.894 I-0.121 J-0.108
X-23.965 Y-41.116 Z-1.956 I0.121 J0.108
X-24.208 Y-41.332 Z-2.017 I-0.121 J-0.108
X-23.965 Y-41.116 Z-2.078 I0.121 J0.108
X-24.208 Y-41.332 Z-2.139 I-0.121 J-0.108
X-23.965 Y-41.116 Z-2.2 I0.121 J0.108
X-24.208 Y-41.332 Z-2.261 I-0.121 J-0.108
X-23.938 Y-41.289 Z-2.3 I0.121 J0.108
X-24.235 Y-41.158 I-0.149 J0.066
X-23.938 Y-41.289 I0.149 J-0.066
G1 X-23.931 Y-41.258
X-23.937 Y-41.227
X-23.954 Y-41.2
X-23.98 Y-41.182
X-24.125 Y-41.118
Z5
X-37.526 Y-41.336
Z1.683
Z0
X-37.407 Y-41.23
X-37.388 Y-41.205
X-37.38 Y-41.175
X-37.384 Y-41.143
X-37.4 Y-41.116
G3 X-37.643 Y-41.332 Z-0.061 I-0.121 J-0.108
X-37.4 Y-41.116 Z-0.122 I0.121 J0.108
X-37.643 Y-41.332 Z-0.183 I-0.121 J-0.108
X-37.4 Y-41.116 Z-0.244 I0.121 J0.108
X-37.643 Y-41.332 Z-0.306 I-0.121 J-0.108
X-37.4 Y-41.116 Z-0.367 I0.121 J0.108
X-37.643 Y-41.332 Z-0.428 I-0.121 J-0.108
X-37.4 Y-41.116 Z-0.489 I0.121 J0.108
X-37.643 Y-41.332 Z-0.55 I-0.121 J-0.108
X-37.4 Y-41.116 Z-0.611 I0.121 J0.108
X-37.643 Y-41.332 Z-0.672 I-0.121 J-0.108
X-37.4 Y-41.116 Z-0.733 I0.121 J0.108
X-37.643 Y-41.332 Z-0.794 I-0.121 J-0.108
X-37.4 Y-41.116 Z-0.856 I0.121 J0.108
X-37.643 Y-41.332 Z-0.917 I-0.121 J-0.108
X-37.4 Y-41.116 Z-0.978 I0.121 J0.108
X-37.643 Y-41.332 Z-1.039 I-0.121 J-0.108
X-37.4 Y-41.116 Z-1.1 I0.121 J0.108
X-37.643 Y-41.332 Z-1.161 I-0.121 J-0.108
X-37.4 Y-41.116 Z-1.222 I0.121 J0.108
X-37.643 Y-41.332 Z-1.283 I-0.121 J-0.108
X-37.4 Y-41.116 Z-1.344 I0.121 J0.108
X-37.643 Y-41.332 Z-1.406 I-0.121 J-0.108
X-37.4 Y-41.116 Z-1.467 I0.121 J0.108
X-37.643 Y-41.332 Z-1.528 I-0.121 J-0.108
X-37.4 Y-41.116 Z-1.589 I0.121 J0.108
X-37.643 Y-41.332 Z-1.65 I-0.121 J-0.108
X-37.4 Y-41.116 Z-1.711 I0.121 J0.108
X-37.643 Y-41.332 Z-1.772 I-0.121 J-0.108
X-37.4 Y-41.116 Z-1.833 I0.121 J0.108
X-37.643 Y-41.332 Z-1.894 I-0.121 J-0.108
X-37.4 Y-41.116 Z-1.956 I0.121 J0.108
X-37.643 Y-41.332 Z-2.017 I-0.121 J-0.108
X-37.4 Y-41.116 Z-2.078 I0.121 J0.108
X-37.643 Y-41.332 Z-2.139 I-0.121 J-0.108
X-37.4 Y-41.116 Z-2.2 I0.121 J0.108
X-37.643 Y-41.332 Z-2.261 I-0.121 J-0.108
X-37.373 Y-41.289 Z-2.3 I0.121 J0.108
X-37.671 Y-41.158 I-0.149 J0.066
X-37.373 Y-41.289 I0.149 J-0.066
G1 X-37.366 Y-41.258
X-37.372 Y-41.227
X-37.389 Y-41.2
X-37.415 Y-41.182
X-37.56 Y-41.118
Z5
X-8.308 Y-48.053
Z1.683
Z0
X-8.19 Y-47.948
X-8.171 Y-47.923
X-8.163 Y-47.892
X-8.167 Y-47.861
X-8.183 Y-47.833
G3 X-8.426 Y-48.049 Z-0.061 I-0.121 J-0.108
X-8.183 Y-47.833 Z-0.122 I0.121 J0.108
X-8.426 Y-48.049 Z-0.183 I-0.121 J-0.108
X-8.183 Y-47.833 Z-0.244 I0.121 J0.108
X-8.426 Y-48.049 Z-0.306 I-0.121 J-0.108
X-8.183 Y-47.833 Z-0.367 I0.121 J0.108
X-8.426 Y-48.049 Z-0.428 I-0.121 J-0.108
X-8.183 Y-47.833 Z-0.489 I0.121 J0.108
X-8.426 Y-48.049 Z-0.55 I-0.121 J-0.108
X-8.183 Y-47.833 Z-0.611 I0.121 J0.108
X-8.426 Y-48.049 Z-0.672 I-0.121 J-0.108
X-8.183 Y-47.833 Z-0.733 I0.121 J0.108
X-8.426 Y-48.049 Z-0.794 I-0.121 J-0.108
X-8.183 Y-47.833 Z-0.856 I0.121 J0.108
X-8.426 Y-48.049 Z-0.917 I-0.121 J-0.108
X-8.183 Y-47.833 Z-0.978 I0.121 J0.108
X-8.426 Y-48.049 Z-1.039 I-0.121 J-0.108
X-8.183 Y-47.833 Z-1.1 I0.121 J0.108
X-8.426 Y-48.049 Z-1.161 I-0.121 J-0.108
X-8.183 Y-47.833 Z-1.222 I0.121 J0.108
X-8.426 Y-48.049 Z-1.283 I-0.121 J-0.108
X-8.183 Y-47.833 Z-1.344 I0.121 J0.108
X-8.426 Y-48.049 Z-1.406 I-0.121 J-0.108
X-8.183 Y-47.833 Z-1.467 I0.121 J0.108
X-8.426 Y-48.049 Z-1.528 I-0.121 J-0.108
X-8.183 Y-47.833 Z-1.589 I0.121 J0.108
X-8.426 Y-48.049 Z-1.65 I-0.121 J-0.108
X-8.183 Y-47.833 Z-1.711 I0.121 J0.108
X-8.426 Y-48.049 Z-1.772 I-0.121 J-0.108
X-8.183 Y-47.833 Z-1.833 I0.121 J0.108
X-8.426 Y-48.049 Z-1.894 I-0.121 J-0.108
X-8.183 Y-47.833 Z-1.956 I0.121 J0.108
X-8.426 Y-48.049 Z-2.017 I-0.121 J-0.108
X-8.183 Y-47.833 Z-2.078 I0.121 J0.108
X-8.426 Y-48.049 Z-2.139 I-0.121 J-0.108
X-8.183 Y-47.833 Z-2.2 I0.121 J0.108
X-8.426 Y-48.049 Z-2.261 I-0.121 J-0.108
X-8.156 Y-48.007 Z-2.3 I0.121 J0.108
X-8.453 Y-47.875 I-0.149 J0.066
X-8.156 Y-48.007 I0.149 J-0.066
G1 X-8.149 Y-47.976
X-8.154 Y-47.945
X-8.171 Y-47.918
X-8.197 Y-47.9
X-8.342 Y-47.836
Z5
X-8.248 Y-17.873
Z1.683
Z0
X-8.129 Y-17.767
X-8.11 Y-17.742
X-8.102 Y-17.711
X-8.106 Y-17.68
X-8.122 Y-17.653
G3 X-8.365 Y-17.868 Z-0.061 I-0.121 J-0.108
X-8.122 Y-17.653 Z-0.122 I0.121 J0.108
X-8.365 Y-17.868 Z-0.183 I-0.121 J-0.108
X-8.122 Y-17.653 Z-0.244 I0.121 J0.108
X-8.365 Y-17.868 Z-0.306 I-0.121 J-0.108
X-8.122 Y-17.653 Z-0.367 I0.121 J0.108
X-8.365 Y-17.868 Z-0.428 I-0.121 J-0.108
X-8.122 Y-17.653 Z-0.489 I0.121 J0.108
X-8.365 Y-17.868 Z-0.55 I-0.121 J-0.108
X-8.122 Y-17.653 Z-0.611 I0.121 J0.108
X-8.365 Y-17.868 Z-0.672 I-0.121 J-0.108
X-8.122 Y-17.653 Z-0.733 I0.121 J0.108
X-8.365 Y-17.868 Z-0.794 I-0.121 J-0.108
X-8.122 Y-17.653 Z-0.856 I0.121 J0.108
X-8.365 Y-17.868 Z-0.917 I-0.121 J-0.108
X-8.122 Y-17.653 Z-0.978 I0.121 J0.108
X-8.365 Y-17.868 Z-1.039 I-0.121 J-0.108
X-8.122 Y-17.653 Z-1.1 I0.121 J0.108
X-8.365 Y-17.868 Z-1.161 I-0.121 J-0.108
X-8.122 Y-17.653 Z-1.222 I0.121 J0.108
X-8.365 Y-17.868 Z-1.283 I-0.121 J-0.108
X-8.122 Y-17.653 Z-1.344 I0.121 J0.108
X-8.365 Y-17.868 Z-1.406 I-0.121 J-0.108
X-8.122 Y-17.653 Z-1.467 I0.121 J0.108
X-8.365 Y-17.868 Z-1.528 I-0.121 J-0.108
X-8.122 Y-17.653 Z-1.589 I0.121 J0.108
X-8.365 Y-17.868 Z-1.65 I-0.121 J-0.108
X-8.122 Y-17.653 Z-1.711 I0.121 J0.108
X-8.365 Y-17.868 Z-1.772 I-0.121 J-0.108
X-8.122 Y-17.653 Z-1.833 I0.121 J0.108
X-8.365 Y-17.868 Z-1.894 I-0.121 J-0.108
X-8.122 Y-17.653 Z-1.956 I0.121 J0.108
X-8.365 Y-17.868 Z-2.017 I-0.121 J-0.108
X-8.122 Y-17.653 Z-2.078 I0.121 J0.108
X-8.365 Y-17.868 Z-2.139 I-0.121 J-0.108
X-8.122 Y-17.653 Z-2.2 I0.121 J0.108
X-8.365 Y-17.868 Z-2.261 I-0.121 J-0.108
X-8.095 Y-17.826 Z-2.3 I0.121 J0.108
X-8.392 Y-17.695 I-0.149 J0.066
X-8.095 Y-17.826 I0.149 J-0.066
G1 X-8.088 Y-17.795
X-8.094 Y-17.764
X-8.111 Y-17.737
X-8.137 Y-17.719
X-8.282 Y-17.655
Z5
X-37.465 Y-11.155
Z1.683
Z0
X-37.347 Y-11.05
X-37.327 Y-11.024
X-37.319 Y-10.994
X-37.324 Y-10.962
X-37.34 Y-10.935
G3 X-37.583 Y-11.151 Z-0.061 I-0.121 J-0.108
X-37.34 Y-10.935 Z-0.122 I0.121 J0.108
X-37.583 Y-11.151 Z-0.183 I-0.121 J-0.108
X-37.34 Y-10.935 Z-0.244 I0.121 J0.108
X-37.583 Y-11.151 Z-0.306 I-0.121 J-0.108
X-37.34 Y-10.935 Z-0.367 I0.121 J0.108
X-37.583 Y-11.151 Z-0.428 I-0.121 J-0.108
X-37.34 Y-10.935 Z-0.489 I0.121 J0.108
X-37.583 Y-11.151 Z-0.55 I-0.121 J-0.108
X-37.34 Y-10.935 Z-0.611 I0.121 J0.108
X-37.583 Y-11.151 Z-0.672 I-0.121 J-0.108
X-37.34 Y-10.935 Z-0.733 I0.121 J0.108
X-37.583 Y-11.151 Z-0.794 I-0.121 J-0.108
X-37.34 Y-10.935 Z-0.856 I0.121 J0.108
X-37.583 Y-11.151 Z-0.917 I-0.121 J-0.108
X-37.34 Y-10.935 Z-0.978 I0.121 J0.108
X-37.583 Y-11.151 Z-1.039 I-0.121 J-0.108
X-37.34 Y-10.935 Z-1.1 I0.121 J0.108
X-37.583 Y-11.151 Z-1.161 I-0.121 J-0.108
X-37.34 Y-10.935 Z-1.222 I0.121 J0.108
X-37.583 Y-11.151 Z-1.283 I-0.121 J-0.108
X-37.34 Y-10.935 Z-1.344 I0.121 J0.108
X-37.583 Y-11.151 Z-1.406 I-0.121 J-0.108
X-37.34 Y-10.935 Z-1.467 I0.121 J0.108
X-37.583 Y-11.151 Z-1.528 I-0.121 J-0.108
X-37.34 Y-10.935 Z-1.589 I0.121 J0.108
X-37.583 Y-11.151 Z-1.65 I-0.121 J-0.108
X-37.34 Y-10.935 Z-1.711 I0.121 J0.108
X-37.583 Y-11.151 Z-1.772 I-0.121 J-0.108
X-37.34 Y-10.935 Z-1.833 I0.121 J0.108
X-37.583 Y-11.151 Z-1.894 I-0.121 J-0.108
X-37.34 Y-10.935 Z-1.956 I0.121 J0.108
X-37.583 Y-11.151 Z-2.017 I-0.121 J-0.108
X-37.34 Y-10.935 Z-2.078 I0.121 J0.108
X-37.583 Y-11.151 Z-2.139 I-0.121 J-0.108
X-37.34 Y-10.935 Z-2.2 I0.121 J0.108
X-37.583 Y-11.151 Z-2.261 I-0.121 J-0.108
X-37.313 Y-11.109 Z-2.3 I0.121 J0.108
X-37.61 Y-10.977 I-0.149 J0.066
X-37.313 Y-11.109 I0.149 J-0.066
G1 X-37.306 Y-11.078
X-37.311 Y-11.047
X-37.328 Y-11.02
X-37.354 Y-11.002
X-37.499 Y-10.937
Z5
X-24.03 Y-11.155
Z1.683
Z0
X-23.912 Y-11.05
X-23.892 Y-11.024
X-23.884 Y-10.994
X-23.889 Y-10.962
X-23.905 Y-10.935
G3 X-24.148 Y-11.151 Z-0.061 I-0.121 J-0.108
X-23.905 Y-10.935 Z-0.122 I0.121 J0.108
X-24.148 Y-11.151 Z-0.183 I-0.121 J-0.108
X-23.905 Y-10.935 Z-0.244 I0.121 J0.108
X-24.148 Y-11.151 Z-0.306 I-0.121 J-0.108
X-23.905 Y-10.935 Z-0.367 I0.121 J0.108
X-24.148 Y-11.151 Z-0.428 I-0.121 J-0.108
X-23.905 Y-10.935 Z-0.489 I0.121 J0.108
X-24.148 Y-11.151 Z-0.55 I-0.121 J-0.108
X-23.905 Y-10.935 Z-0.611 I0.121 J0.108
X-24.148 Y-11.151 Z-0.672 I-0.121 J-0.108
X-23.905 Y-10.935 Z-0.733 I0.121 J0.108
X-24.148 Y-11.151 Z-0.794 I-0.121 J-0.108
X-23.905 Y-10.935 Z-0.856 I0.121 J0.108
X-24.148 Y-11.151 Z-0.917 I-0.121 J-0.108
X-23.905 Y-10.935 Z-0.978 I0.121 J0.108
X-24.148 Y-11.151 Z-1.039 I-0.121 J-0.108
X-23.905 Y-10.935 Z-1.1 I0.121 J0.108
X-24.148 Y-11.151 Z-1.161 I-0.121 J-0.108
X-23.905 Y-10.935 Z-1.222 I0.121 J0.108
X-24.148 Y-11.151 Z-1.283 I-0.121 J-0.108
X-23.905 Y-10.935 Z-1.344 I0.121 J0.108
X-24.148 Y-11.151 Z-1.406 I-0.121 J-0.108
X-23.905 Y-10.935 Z-1.467 I0.121 J0.108
X-24.148 Y-11.151 Z-1.528 I-0.121 J-0.108
X-23.905 Y-10.935 Z-1.589 I0.121 J0.108
X-24.148 Y-11.151 Z-1.65 I-0.121 J-0.108
X-23.905 Y-10.935 Z-1.711 I0.121 J0.108
X-24.148 Y-11.151 Z-1.772 I-0.121 J-0.108
X-23.905 Y-10.935 Z-1.833 I0.121 J0.108
X-24.148 Y-11.151 Z-1.894 I-0.121 J-0.108
X-23.905 Y-10.935 Z-1.956 I0.121 J0.108
X-24.148 Y-11.151 Z-2.017 I-0.121 J-0.108
X-23.905 Y-10.935 Z-2.078 I0.121 J0.108
X-24.148 Y-11.151 Z-2.139 I-0.121 J-0.108
X-23.905 Y-10.935 Z-2.2 I0.121 J0.108
X-24.148 Y-11.151 Z-2.261 I-0.121 J-0.108
X-23.878 Y-11.109 Z-2.3 I0.121 J0.108
X-24.175 Y-10.977 I-0.149 J0.066
X-23.878 Y-11.109 I0.149 J-0.066
G1 X-23.871 Y-11.078
X-23.876 Y-11.047
X-23.893 Y-11.02
X-23.919 Y-11.002
X-24.064 Y-10.937
Z5
X-29.323 Y-16.923
Z2
Z0.317
X-29.317 Y-16.917 Z0.247
X-29.299 Y-16.902 Z0.18
X-29.271 Y-16.877 Z0.12
X-29.233 Y-16.843 Z0.069
X-29.188 Y-16.803 Z0.031
X-29.138 Y-16.759 Z0.008
X-29.085 Y-16.712 Z0
X-28.967 Y-16.606
G3 X-28.94 Y-16.158 I-0.211 J0.237
X-32.547 Y-19.363 Z-0.14 I-1.804 J-1.602
X-28.94 Y-16.158 Z-0.279 I1.804 J1.602
X-32.547 Y-19.363 Z-0.419 I-1.804 J-1.602
X-28.94 Y-16.158 Z-0.559 I1.804 J1.602
X-32.547 Y-19.363 Z-0.698 I-1.804 J-1.602
X-28.94 Y-16.158 Z-0.838 I1.804 J1.602
X-32.547 Y-19.363 Z-0.978 I-1.804 J-1.602
X-28.94 Y-16.158 Z-1.117 I1.804 J1.602
X-32.547 Y-19.363 Z-1.257 I-1.804 J-1.602
X-28.94 Y-16.158 Z-1.397 I1.804 J1.602
X-32.547 Y-19.363 Z-1.537 I-1.804 J-1.602
X-28.94 Y-16.158 Z-1.676 I1.804 J1.602
X-32.547 Y-19.363 Z-1.816 I-1.804 J-1.602
X-28.94 Y-16.158 Z-1.956 I1.804 J1.602
X-32.547 Y-19.363 Z-2.095 I-1.804 J-1.602
X-28.94 Y-16.158 Z-2.235 I1.804 J1.602
X-32.144 Y-15.796 Z-2.3 I-1.804 J-1.602
X-29.344 Y-19.725 I1.4 J-1.965
X-32.144 Y-15.796 I-1.4 J1.965
X-32.218 Y-16.238 I0.184 J-0.259
G1 X-32.126 Y-16.368
X-32.085 Y-16.425 Z-2.292
X-32.046 Y-16.48 Z-2.269
X-32.011 Y-16.529 Z-2.231
X-31.982 Y-16.57 Z-2.18
X-31.96 Y-16.601 Z-2.12
X-31.946 Y-16.62 Z-2.053
X-31.942 Y-16.626 Z-1.982
Z5
X-24.03 Y-24.59
Z1.683
Z0
X-23.912 Y-24.485
X-23.892 Y-24.459
X-23.884 Y-24.429
X-23.889 Y-24.397
X-23.905 Y-24.37
G3 X-24.148 Y-24.586 Z-0.061 I-0.121 J-0.108
X-23.905 Y-24.37 Z-0.122 I0.121 J0.108
X-24.148 Y-24.586 Z-0.183 I-0.121 J-0.108
X-23.905 Y-24.37 Z-0.244 I0.121 J0.108
X-24.148 Y-24.586 Z-0.306 I-0.121 J-0.108
X-23.905 Y-24.37 Z-0.367 I0.121 J0.108
X-24.148 Y-24.586 Z-0.428 I-0.121 J-0.108
X-23.905 Y-24.37 Z-0.489 I0.121 J0.108
X-24.148 Y-24.586 Z-0.55 I-0.121 J-0.108
X-23.905 Y-24.37 Z-0.611 I0.121 J0.108
X-24.148 Y-24.586 Z-0.672 I-0.121 J-0.108
X-23.905 Y-24.37 Z-0.733 I0.121 J0.108
X-24.148 Y-24.586 Z-0.794 I-0.121 J-0.108
X-23.905 Y-24.37 Z-0.856 I0.121 J0.108
X-24.148 Y-24.586 Z-0.917 I-0.121 J-0.108
X-23.905 Y-24.37 Z-0.978 I0.121 J0.108
X-24.148 Y-24.586 Z-1.039 I-0.121 J-0.108
X-23.905 Y-24.37 Z-1.1 I0.121 J0.108
X-24.148 Y-24.586 Z-1.161 I-0.121 J-0.108
X-23.905 Y-24.37 Z-1.222 I0.121 J0.108
X-24.148 Y-24.586 Z-1.283 I-0.121 J-0.108
X-23.905 Y-24.37 Z-1.344 I0.121 J0.108
X-24.148 Y-24.586 Z-1.406 I-0.121 J-0.108
X-23.905 Y-24.37 Z-1.467 I0.121 J0.108
X-24.148 Y-24.586 Z-1.528 I-0.121 J-0.108
X-23.905 Y-24.37 Z-1.589 I0.121 J0.108
X-24.148 Y-24.586 Z-1.65 I-0.121 J-0.108
X-23.905 Y-24.37 Z-1.711 I0.121 J0.108
X-24.148 Y-24.586 Z-1.772 I-0.121 J-0.108
X-23.905 Y-24.37 Z-1.833 I0.121 J0.108
X-24.148 Y-24.586 Z-1.894 I-0.121 J-0.108
X-23.905 Y-24.37 Z-1.956 I0.121 J0.108
X-24.148 Y-24.586 Z-2.017 I-0.121 J-0.108
X-23.905 Y-24.37 Z-2.078 I0.121 J0.108
X-24.148 Y-24.586 Z-2.139 I-0.121 J-0.108
X-23.905 Y-24.37 Z-2.2 I0.121 J0.108
X-24.148 Y-24.586 Z-2.261 I-0.121 J-0.108
X-23.878 Y-24.544 Z-2.3 I0.121 J0.108
X-24.175 Y-24.412 I-0.149 J0.066
X-23.878 Y-24.544 I0.149 J-0.066
G1 X-23.871 Y-24.513
X-23.876 Y-24.482
X-23.893 Y-24.455
X-23.919 Y-24.437
X-24.064 Y-24.372
Z5
X-37.465 Y-24.59
Z1.683
Z0
X-37.347 Y-24.485
X-37.327 Y-24.459
X-37.319 Y-24.429
X-37.324 Y-24.397
X-37.34 Y-24.37
G3 X-37.583 Y-24.586 Z-0.061 I-0.121 J-0.108
X-37.34 Y-24.37 Z-0.122 I0.121 J0.108
X-37.583 Y-24.586 Z-0.183 I-0.121 J-0.108
X-37.34 Y-24.37 Z-0.244 I0.121 J0.108
X-37.583 Y-24.586 Z-0.306 I-0.121 J-0.108
X-37.34 Y-24.37 Z-0.367 I0.121 J0.108
X-37.583 Y-24.586 Z-0.428 I-0.121 J-0.108
X-37.34 Y-24.37 Z-0.489 I0.121 J0.108
X-37.583 Y-24.586 Z-0.55 I-0.121 J-0.108
X-37.34 Y-24.37 Z-0.611 I0.121 J0.108
X-37.583 Y-24.586 Z-0.672 I-0.121 J-0.108
X-37.34 Y-24.37 Z-0.733 I0.121 J0.108
X-37.583 Y-24.586 Z-0.794 I-0.121 J-0.108
X-37.34 Y-24.37 Z-0.856 I0.121 J0.108
X-37.583 Y-24.586 Z-0.917 I-0.121 J-0.108
X-37.34 Y-24.37 Z-0.978 I0.121 J0.108
X-37.583 Y-24.586 Z-1.039 I-0.121 J-0.108
X-37.34 Y-24.37 Z-1.1 I0.121 J0.108
X-37.583 Y-24.586 Z-1.161 I-0.121 J-0.108
X-37.34 Y-24.37 Z-1.222 I0.121 J0.108
X-37.583 Y-24.586 Z-1.283 I-0.121 J-0.108
X-37.34 Y-24.37 Z-1.344 I0.121 J0.108
X-37.583 Y-24.586 Z-1.406 I-0.121 J-0.108
X-37.34 Y-24.37 Z-1.467 I0.121 J0.108
X-37.583 Y-24.586 Z-1.528 I-0.121 J-0.108
X-37.34 Y-24.37 Z-1.589 I0.121 J0.108
X-37.583 Y-24.586 Z-1.65 I-0.121 J-0.108
X-37.34 Y-24.37 Z-1.711 I0.121 J0.108
X-37.583 Y-24.586 Z-1.772 I-0.121 J-0.108
X-37.34 Y-24.37 Z-1.833 I0.121 J0.108
X-37.583 Y-24.586 Z-1.894 I-0.121 J-0.108
X-37.34 Y-24.37 Z-1.956 I0.121 J0.108
X-37.583 Y-24.586 Z-2.017 I-0.121 J-0.108
X-37.34 Y-24.37 Z-2.078 I0.121 J0.108
X-37.583 Y-24.586 Z-2.139 I-0.121 J-0.108
X-37.34 Y-24.37 Z-2.2 I0.121 J0.108
X-37.583 Y-24.586 Z-2.261 I-0.121 J-0.108
X-37.313 Y-24.544 Z-2.3 I0.121 J0.108
X-37.61 Y-24.412 I-0.149 J0.066
X-37.313 Y-24.544 I0.149 J-0.066
G1 X-37.306 Y-24.513
X-37.311 Y-24.482
X-37.328 Y-24.455
X-37.354 Y-24.437
X-37.499 Y-24.372
Z5
X-53.248 Y-17.873
Z1.683
Z0
X-53.129 Y-17.767
X-53.11 Y-17.742
X-53.102 Y-17.711
X-53.106 Y-17.68
X-53.122 Y-17.653
G3 X-53.365 Y-17.868 Z-0.061 I-0.121 J-0.108
X-53.122 Y-17.653 Z-0.122 I0.121 J0.108
X-53.365 Y-17.868 Z-0.183 I-0.121 J-0.108
X-53.122 Y-17.653 Z-0.244 I0.121 J0.108
X-53.365 Y-17.868 Z-0.306 I-0.121 J-0.108
X-53.122 Y-17.653 Z-0.367 I0.121 J0.108
X-53.365 Y-17.868 Z-0.428 I-0.121 J-0.108
X-53.122 Y-17.653 Z-0.489 I0.121 J0.108
X-53.365 Y-17.868 Z-0.55 I-0.121 J-0.108
X-53.122 Y-17.653 Z-0.611 I0.121 J0.108
X-53.365 Y-17.868 Z-0.672 I-0.121 J-0.108
X-53.122 Y-17.653 Z-0.733 I0.121 J0.108
X-53.365 Y-17.868 Z-0.794 I-0.121 J-0.108
X-53.122 Y-17.653 Z-0.856 I0.121 J0.108
X-53.365 Y-17.868 Z-0.917 I-0.121 J-0.108
X-53.122 Y-17.653 Z-0.978 I0.121 J0.108
X-53.365 Y-17.868 Z-1.039 I-0.121 J-0.108
X-53.122 Y-17.653 Z-1.1 I0.121 J0.108
X-53.365 Y-17.868 Z-1.161 I-0.121 J-0.108
X-53.122 Y-17.653 Z-1.222 I0.121 J0.108
X-53.365 Y-17.868 Z-1.283 I-0.121 J-0.108
X-53.122 Y-17.653 Z-1.344 I0.121 J0.108
X-53.365 Y-17.868 Z-1.406 I-0.121 J-0.108
X-53.122 Y-17.653 Z-1.467 I0.121 J0.108
X-53.365 Y-17.868 Z-1.528 I-0.121 J-0.108
X-53.122 Y-17.653 Z-1.589 I0.121 J0.108
X-53.365 Y-17.868 Z-1.65 I-0.121 J-0.108
X-53.122 Y-17.653 Z-1.711 I0.121 J0.108
X-53.365 Y-17.868 Z-1.772 I-0.121 J-0.108
X-53.122 Y-17.653 Z-1.833 I0.121 J0.108
X-53.365 Y-17.868 Z-1.894 I-0.121 J-0.108
X-53.122 Y-17.653 Z-1.956 I0.121 J0.108
X-53.365 Y-17.868 Z-2.017 I-0.121 J-0.108
X-53.122 Y-17.653 Z-2.078 I0.121 J0.108
X-53.365 Y-17.868 Z-2.139 I-0.121 J-0.108
X-53.122 Y-17.653 Z-2.2 I0.121 J0.108
X-53.365 Y-17.868 Z-2.261 I-0.121 J-0.108
X-53.095 Y-17.826 Z-2.3 I0.121 J0.108
X-53.392 Y-17.695 I-0.149 J0.066
X-53.095 Y-17.826 I0.149 J-0.066
G1 X-53.088 Y-17.795
X-53.094 Y-17.764
X-53.111 Y-17.737
X-53.137 Y-17.719
X-53.282 Y-17.655
Z15
(When using Fusion for Personal Use, the feedrate of rapid)
(moves is reduced to match the feedrate of cutting moves,)
(which can increase machining time. Unrestricted rapid moves)
(are available with a Fusion Subscription.)

(2D-Kontur6)
G0 X-29.252 Y-65.713
G1 Z15 F1000
Z5
Z0.635 F333.3
Z-0.683
X-29.247 Y-65.719 Z-0.753 F1000
X-29.233 Y-65.738 Z-0.82
X-29.21 Y-65.768 Z-0.88
X-29.179 Y-65.808 Z-0.931
X-29.143 Y-65.856 Z-0.969
X-29.102 Y-65.909 Z-0.992
X-29.06 Y-65.966 Z-1
X-28.867 Y-66.218
G3 X-28.422 Y-66.279 I0.253 J0.192
G2 X-15.843 Y-70.186 I4.898 J-6.436
G3 X-13.551 Y-71.845 I2.292 J0.754
G1 X-5.742
G2 X-0.155 Y-77.432 I0 J-5.587
G1 Y-81.432
G2 X-5.742 Y-87.02 I-5.588 J0
G1 X-13.551
G3 X-15.843 Y-88.678 I0 J-2.412
G2 X-28.699 Y-92.366 I-7.682 J2.528
G3 X-31.786 Y-92.366 I-1.543 J-1.854
G2 X-44.745 Y-88.339 I-5.174 J6.216
G3 X-46.757 Y-86.6 I-2.322 J-0.653
G1 X-53.558 Y-85.717
G2 X-53.558 Y-73.148 I0.816 J6.285
G1 X-46.757 Y-72.265
G3 X-44.745 Y-70.525 I-0.311 J2.392
G2 X-31.786 Y-66.499 I7.786 J-2.189
G3 X-28.699 Y-66.499 I1.543 J1.854
G2 X-28.422 Y-66.279 I5.174 J-6.216
G3 X-28.362 Y-65.834 I-0.192 J0.253
G1 X-28.554 Y-65.581
X-28.597 Y-65.525 Z-0.992
X-28.638 Y-65.472 Z-0.969
X-28.674 Y-65.424 Z-0.931
X-28.705 Y-65.384 Z-0.88
X-28.727 Y-65.353 Z-0.82
X-28.742 Y-65.335 Z-0.753
X-28.747 Y-65.328 Z-0.683
Z5
X-28.839 Y-62.355
Z0.635 F333.3
Z-0.683
X-28.835 Y-62.349 Z-0.753 F1000
X-28.822 Y-62.329 Z-0.82
X-28.801 Y-62.298 Z-0.88
X-28.773 Y-62.256 Z-0.931
X-28.739 Y-62.206 Z-0.969
X-28.702 Y-62.15 Z-0.992
X-28.663 Y-62.091 Z-1
X-28.487 Y-61.827
G3 X-28.575 Y-61.387 I-0.264 J0.176
G2 X-29.261 Y-60.875 I4.488 J6.728
G3 X-32.348 Y-60.875 I-1.543 J-1.854
G2 X-45.307 Y-56.848 I-5.174 J6.216
G3 X-47.319 Y-55.109 I-2.322 J-0.653
G1 X-54.12 Y-54.226
G2 X-54.12 Y-41.656 I0.816 J6.285
G1 X-47.319 Y-40.774
G3 X-45.307 Y-39.034 I-0.311 J2.392
G2 X-32.348 Y-35.008 I7.786 J-2.189
G3 X-29.261 Y-35.008 I1.543 J1.854
G2 X-16.405 Y-38.695 I5.174 J-6.216
G3 X-14.113 Y-40.354 I2.292 J0.754
G1 X-6.304
G2 X-0.717 Y-45.941 I0 J-5.588
G1 Y-49.941
G2 X-6.304 Y-55.529 I-5.587 J0
G1 X-14.113
G3 X-16.405 Y-57.187 I0 J-2.413
G2 X-28.575 Y-61.387 I-7.682 J2.528
G3 X-29.015 Y-61.475 I-0.176 J-0.264
G1 X-29.191 Y-61.739
X-29.23 Y-61.798 Z-0.992
X-29.268 Y-61.853 Z-0.969
X-29.301 Y-61.904 Z-0.931
X-29.329 Y-61.945 Z-0.88
X-29.35 Y-61.977 Z-0.82
X-29.363 Y-61.996 Z-0.753
X-29.367 Y-62.003 Z-0.683
Z5
X-29.252 Y-65.713
Z-0.365 F333.3
Z-1.683
X-29.247 Y-65.719 Z-1.753 F1000
X-29.233 Y-65.738 Z-1.82
X-29.21 Y-65.768 Z-1.88
X-29.179 Y-65.808 Z-1.931
X-29.143 Y-65.856 Z-1.969
X-29.102 Y-65.909 Z-1.992
X-29.06 Y-65.966 Z-2
X-28.867 Y-66.218
G3 X-28.422 Y-66.279 I0.253 J0.192
G2 X-15.843 Y-70.186 I4.898 J-6.436
G3 X-13.551 Y-71.845 I2.292 J0.754
G1 X-12.327
Z-1.3
X-5.977
Z-2 F333.3
X-5.742 F1000
G2 X-0.155 Y-77.432 I0 J-5.587
G1 Y-81.432
G2 X-5.742 Y-87.02 I-5.588 J0
G1 X-13.551
G3 X-15.843 Y-88.678 I0 J-2.412
G2 X-28.699 Y-92.366 I-7.682 J2.528
G3 X-31.786 Y-92.366 I-1.543 J-1.854
G2 X-44.745 Y-88.339 I-5.174 J6.216
G3 X-46.628 Y-86.62 I-2.322 J-0.653
G1 Z-1.3
X-46.757 Y-86.6
X-52.925 Y-85.799
Z-2 F333.3
X-53.558 Y-85.717 F1000
G2 X-53.558 Y-73.148 I0.816 J6.285
G1 X-46.757 Y-72.265
G3 X-44.745 Y-70.525 I-0.311 J2.392
G2 X-31.786 Y-66.499 I7.786 J-2.189
G3 X-28.699 Y-66.499 I1.543 J1.854
G2 X-28.422 Y-66.279 I5.174 J-6.216
G3 X-28.362 Y-65.834 I-0.192 J0.253
G1 X-28.554 Y-65.581
X-28.597 Y-65.525 Z-1.992
X-28.638 Y-65.472 Z-1.969
X-28.674 Y-65.424 Z-1.931
X-28.705 Y-65.384 Z-1.88
X-28.727 Y-65.353 Z-1.82
X-28.742 Y-65.335 Z-1.753
X-28.747 Y-65.328 Z-1.683
Z5
X-29.208 Y-97.93
Z0.635 F333.3
Z-0.683
X-29.204 Y-97.937 Z-0.753 F1000
X-29.192 Y-97.957 Z-0.82
X-29.173 Y-97.989 Z-0.88
X-29.147 Y-98.032 Z-0.931
X-29.116 Y-98.084 Z-0.969
X-29.081 Y-98.142 Z-0.992
X-29.045 Y-98.202 Z-1
X-28.882 Y-98.475
G3 X-28.446 Y-98.584 I0.272 J0.163
G2 X-16.608 Y-102.994 I4.156 J-6.938
G3 X-14.316 Y-104.652 I2.292 J0.754
G1 X-6.508
G2 X-0.92 Y-110.24 I0 J-5.588
G1 Y-114.24
G2 X-6.508 Y-119.827 I-5.587 J0
G1 X-14.316
G3 X-16.608 Y-121.485 I0 J-2.413
G2 X-29.464 Y-125.173 I-7.682 J2.528
G3 X-32.551 Y-125.173 I-1.543 J-1.854
G2 X-45.511 Y-121.147 I-5.174 J6.216
G3 X-47.523 Y-119.407 I-2.323 J-0.653
G1 X-54.323 Y-118.524
G2 X-54.323 Y-105.955 I0.816 J6.285
G1 X-47.523 Y-105.072
G3 X-45.511 Y-103.332 I-0.311 J2.393
G2 X-32.551 Y-99.306 I7.786 J-2.19
G3 X-29.464 Y-99.306 I1.543 J1.854
G2 X-28.446 Y-98.584 I5.174 J-6.216
G3 X-28.337 Y-98.148 I-0.163 J0.272
G1 X-28.5 Y-97.876
X-28.537 Y-97.815 Z-0.992
X-28.571 Y-97.758 Z-0.969
X-28.602 Y-97.706 Z-0.931
X-28.628 Y-97.663 Z-0.88
X-28.647 Y-97.631 Z-0.82
X-28.659 Y-97.61 Z-0.753
X-28.663 Y-97.604 Z-0.683
Z5
X-29.208 Y-97.93
Z-0.365 F333.3
Z-1.683
X-29.204 Y-97.937 Z-1.753 F1000
X-29.192 Y-97.957 Z-1.82
X-29.173 Y-97.989 Z-1.88
X-29.147 Y-98.032 Z-1.931
X-29.116 Y-98.084 Z-1.969
X-29.081 Y-98.142 Z-1.992
X-29.045 Y-98.202 Z-2
X-28.882 Y-98.475
G3 X-28.446 Y-98.584 I0.272 J0.163
G2 X-16.608 Y-102.994 I4.156 J-6.938
G3 X-14.316 Y-104.652 I2.292 J0.754
G1 X-13.529
Z-1.3
X-7.179
Z-2 F333.3
X-6.508 F1000
G2 X-0.92 Y-110.24 I0 J-5.588
G1 Y-114.24
G2 X-6.508 Y-119.827 I-5.587 J0
G1 X-14.316
G3 X-16.608 Y-121.485 I0 J-2.413
G2 X-29.464 Y-125.173 I-7.682 J2.528
G3 X-32.551 Y-125.173 I-1.543 J-1.854
G2 X-45.511 Y-121.147 I-5.174 J6.216
G3 X-47.523 Y-119.407 I-2.323 J-0.653
G1 X-47.726 Y-119.381
Z-1.3
X-54.023 Y-118.563
Z-2 F333.3
X-54.323 Y-118.524 F1000
G2 X-54.323 Y-105.955 I0.816 J6.285
G1 X-47.523 Y-105.072
G3 X-45.511 Y-103.332 I-0.311 J2.393
G2 X-32.551 Y-99.306 I7.786 J-2.19
G3 X-29.464 Y-99.306 I1.543 J1.854
G2 X-28.446 Y-98.584 I5.174 J-6.216
G3 X-28.337 Y-98.148 I-0.163 J0.272
G1 X-28.5 Y-97.876
X-28.537 Y-97.815 Z-1.992
X-28.571 Y-97.758 Z-1.969
X-28.602 Y-97.706 Z-1.931
X-28.628 Y-97.663 Z-1.88
X-28.647 Y-97.631 Z-1.82
X-28.659 Y-97.61 Z-1.753
X-28.663 Y-97.604 Z-1.683
Z5
X-29.208 Y-97.93
Z-1.365 F333.3
Z-1.983
X-29.204 Y-97.937 Z-2.053 F1000
X-29.192 Y-97.957 Z-2.12
X-29.173 Y-97.989 Z-2.18
X-29.147 Y-98.032 Z-2.231
X-29.116 Y-98.084 Z-2.269
X-29.081 Y-98.142 Z-2.292
X-29.045 Y-98.202 Z-2.3
X-28.882 Y-98.475
G3 X-28.446 Y-98.584 I0.272 J0.163
G2 X-16.608 Y-102.994 I4.156 J-6.938
G3 X-14.316 Y-104.652 I2.292 J0.754
G1 X-13.529
Z-1.3
X-7.179
Z-2.3 F333.3
X-6.508 F1000
G2 X-0.92 Y-110.24 I0 J-5.588
G1 Y-114.24
G2 X-6.508 Y-119.827 I-5.587 J0
G1 X-14.316
G3 X-16.608 Y-121.485 I0 J-2.413
G2 X-29.464 Y-125.173 I-7.682 J2.528
G3 X-32.551 Y-125.173 I-1.543 J-1.854
G2 X-45.511 Y-121.147 I-5.174 J6.216
G3 X-47.523 Y-119.407 I-2.323 J-0.653
G1 X-47.726 Y-119.381
Z-1.3
X-54.023 Y-118.563
Z-2.3 F333.3
X-54.323 Y-118.524 F1000
G2 X-54.323 Y-105.955 I0.816 J6.285
G1 X-47.523 Y-105.072
G3 X-45.511 Y-103.332 I-0.311 J2.393
G2 X-32.551 Y-99.306 I7.786 J-2.19
G3 X-29.464 Y-99.306 I1.543 J1.854
G2 X-28.446 Y-98.584 I5.174 J-6.216
G3 X-28.337 Y-98.148 I-0.163 J0.272
G1 X-28.5 Y-97.876
X-28.537 Y-97.815 Z-2.292
X-28.571 Y-97.758 Z-2.269
X-28.602 Y-97.706 Z-2.231
X-28.628 Y-97.663 Z-2.18
X-28.647 Y-97.631 Z-2.12
X-28.659 Y-97.61 Z-2.053
X-28.663 Y-97.604 Z-1.983
Z5
X-29.446 Y-31.72
Z0.635 F333.3
Z-0.683
X-29.441 Y-31.714 Z-0.753 F1000
X-29.426 Y-31.696 Z-0.82
X-29.403 Y-31.666 Z-0.88
X-29.371 Y-31.627 Z-0.931
X-29.333 Y-31.58 Z-0.969
X-29.291 Y-31.528 Z-0.992
X-29.247 Y-31.473 Z-1
X-29.048 Y-31.225
G3 X-29.096 Y-30.779 I-0.247 J0.199
G1 X-29.2 Y-30.694
G3 X-32.287 Y-30.694 I-1.543 J-1.854
G2 X-45.247 Y-26.667 I-5.174 J6.216
G3 X-47.259 Y-24.928 I-2.322 J-0.653
G1 X-54.06 Y-24.045
G2 X-54.06 Y-11.476 I0.816 J6.285
G1 X-47.259 Y-10.593
G3 X-45.247 Y-8.854 I-0.311 J2.392
G2 X-32.287 Y-4.827 I7.785 J-2.189
G3 X-29.2 Y-4.827 I1.543 J1.854
G2 X-16.344 Y-8.515 I5.174 J-6.216
G3 X-14.053 Y-10.173 I2.292 J0.754
G1 X-6.244
G2 X-0.656 Y-15.76 I0 J-5.587
G1 Y-19.76
G2 X-6.244 Y-25.348 I-5.588 J0
G1 X-14.053
G3 X-16.344 Y-27.006 I0 J-2.412
G2 X-29.096 Y-30.779 I-7.682 J2.528
G3 X-29.543 Y-30.827 I-0.199 J-0.247
G1 X-29.742 Y-31.075
X-29.786 Y-31.13 Z-0.992
X-29.828 Y-31.182 Z-0.969
X-29.866 Y-31.229 Z-0.931
X-29.897 Y-31.268 Z-0.88
X-29.921 Y-31.298 Z-0.82
X-29.936 Y-31.316 Z-0.753
X-29.941 Y-31.322 Z-0.683
Z5
X-29.446 Y-31.72
Z-0.365 F333.3
Z-1.683
X-29.441 Y-31.714 Z-1.753 F1000
X-29.426 Y-31.696 Z-1.82
X-29.403 Y-31.666 Z-1.88
X-29.371 Y-31.627 Z-1.931
X-29.333 Y-31.58 Z-1.969
X-29.291 Y-31.528 Z-1.992
X-29.247 Y-31.473 Z-2
X-29.048 Y-31.225
G3 X-29.096 Y-30.779 I-0.247 J0.199
G1 X-29.2 Y-30.694
G3 X-32.287 Y-30.694 I-1.543 J-1.854
G2 X-45.247 Y-26.667 I-5.174 J6.216
G3 X-46.318 Y-25.258 I-2.322 J-0.653
G1 Z-1.3
G3 X-47.259 Y-24.928 I-1.251 J-2.063
G1 X-52.589 Y-24.236
Z-2 F333.3
X-54.06 Y-24.045 F1000
G2 X-54.06 Y-11.476 I0.816 J6.285
G1 X-47.259 Y-10.593
G3 X-45.247 Y-8.854 I-0.311 J2.392
G2 X-32.287 Y-4.827 I7.785 J-2.189
G3 X-29.2 Y-4.827 I1.543 J1.854
G2 X-16.344 Y-8.515 I5.174 J-6.216
G3 X-14.079 Y-10.173 I2.292 J0.754
G1 Z-1.3
X-14.053
X-7.729
Z-2 F333.3
X-6.244 F1000
G2 X-0.656 Y-15.76 I0 J-5.587
G1 Y-19.76
G2 X-6.244 Y-25.348 I-5.588 J0
G1 X-14.053
G3 X-16.344 Y-27.006 I0 J-2.412
G2 X-29.096 Y-30.779 I-7.682 J2.528
G3 X-29.543 Y-30.827 I-0.199 J-0.247
G1 X-29.742 Y-31.075
X-29.786 Y-31.13 Z-1.992
X-29.828 Y-31.182 Z-1.969
X-29.866 Y-31.229 Z-1.931
X-29.897 Y-31.268 Z-1.88
X-29.921 Y-31.298 Z-1.82
X-29.936 Y-31.316 Z-1.753
X-29.941 Y-31.322 Z-1.683
Z5
X-29.952 Y-34.337
Z-0.365 F333.3
Z-1.683
X-29.947 Y-34.343 Z-1.753 F1000
X-29.932 Y-34.362 Z-1.82
X-29.909 Y-34.391 Z-1.88
X-29.877 Y-34.431 Z-1.931
X-29.84 Y-34.478 Z-1.969
X-29.798 Y-34.53 Z-1.992
X-29.754 Y-34.586 Z-2
X-29.557 Y-34.835
G3 X-29.111 Y-34.886 I0.249 J0.197
G2 X-16.405 Y-38.695 I5.024 J-6.338
G3 X-14.113 Y-40.354 I2.292 J0.754
G1 X-13.435
Z-1.3
X-7.085
Z-2 F333.3
X-6.304 F1000
G2 X-0.717 Y-45.941 I0 J-5.588
G1 Y-49.941
G2 X-6.304 Y-55.529 I-5.587 J0
G1 X-14.113
G3 X-16.405 Y-57.187 I0 J-2.413
G2 X-29.261 Y-60.875 I-7.682 J2.528
G3 X-32.348 Y-60.875 I-1.543 J-1.854
G2 X-45.307 Y-56.848 I-5.174 J6.216
G3 X-47.219 Y-55.124 I-2.322 J-0.653
G1 Z-1.3
X-47.319 Y-55.109
X-53.516 Y-54.304
Z-2 F333.3
X-54.12 Y-54.226 F1000
G2 X-54.12 Y-41.656 I0.816 J6.285
G1 X-47.319 Y-40.774
G3 X-45.307 Y-39.034 I-0.311 J2.392
G2 X-32.348 Y-35.008 I7.786 J-2.189
G3 X-29.261 Y-35.008 I1.543 J1.854
G1 X-29.111 Y-34.886
G3 X-29.06 Y-34.44 I-0.197 J0.249
G1 X-29.257 Y-34.191
X-29.301 Y-34.136 Z-1.992
X-29.342 Y-34.083 Z-1.969
X-29.38 Y-34.036 Z-1.931
X-29.411 Y-33.997 Z-1.88
X-29.435 Y-33.967 Z-1.82
X-29.449 Y-33.949 Z-1.753
X-29.454 Y-33.943 Z-1.683
Z5
X-29.952 Y-34.337
Z-1.365 F333.3
Z-1.983
X-29.947 Y-34.343 Z-2.053 F1000
X-29.932 Y-34.362 Z-2.12
X-29.909 Y-34.391 Z-2.18
X-29.877 Y-34.431 Z-2.231
X-29.84 Y-34.478 Z-2.269
X-29.798 Y-34.53 Z-2.292
X-29.754 Y-34.586 Z-2.3
X-29.557 Y-34.835
G3 X-29.111 Y-34.886 I0.249 J0.197
G2 X-16.405 Y-38.695 I5.024 J-6.338
G3 X-14.113 Y-40.354 I2.292 J0.754
G1 X-13.435
Z-1.3
X-7.085
Z-2.3 F333.3
X-6.304 F1000
G2 X-0.717 Y-45.941 I0 J-5.588
G1 Y-49.941
G2 X-6.304 Y-55.529 I-5.587 J0
G1 X-14.113
G3 X-16.405 Y-57.187 I0 J-2.413
G2 X-29.261 Y-60.875 I-7.682 J2.528
G3 X-32.348 Y-60.875 I-1.543 J-1.854
G2 X-45.307 Y-56.848 I-5.174 J6.216
G3 X-47.219 Y-55.124 I-2.322 J-0.653
G1 Z-1.3
X-47.319 Y-55.109
X-53.516 Y-54.304
Z-2.3 F333.3
X-54.12 Y-54.226 F1000
G2 X-54.12 Y-41.656 I0.816 J6.285
G1 X-47.319 Y-40.774
G3 X-45.307 Y-39.034 I-0.311 J2.392
G2 X-32.348 Y-35.008 I7.786 J-2.189
G3 X-29.261 Y-35.008 I1.543 J1.854
G1 X-29.111 Y-34.886
G3 X-29.06 Y-34.44 I-0.197 J0.249
G1 X-29.257 Y-34.191
X-29.301 Y-34.136 Z-2.292
X-29.342 Y-34.083 Z-2.269
X-29.38 Y-34.036 Z-2.231
X-29.411 Y-33.997 Z-2.18
X-29.435 Y-33.967 Z-2.12
X-29.449 Y-33.949 Z-2.053
X-29.454 Y-33.943 Z-1.983
Z5
X-29.446 Y-31.72
Z-1.365 F333.3
Z-1.983
X-29.441 Y-31.714 Z-2.053 F1000
X-29.426 Y-31.696 Z-2.12
X-29.403 Y-31.666 Z-2.18
X-29.371 Y-31.627 Z-2.231
X-29.333 Y-31.58 Z-2.269
X-29.291 Y-31.528 Z-2.292
X-29.247 Y-31.473 Z-2.3
X-29.048 Y-31.225
G3 X-29.096 Y-30.779 I-0.247 J0.199
G1 X-29.2 Y-30.694
G3 X-32.287 Y-30.694 I-1.543 J-1.854
G2 X-45.247 Y-26.667 I-5.174 J6.216
G3 X-46.318 Y-25.258 I-2.322 J-0.653
G1 Z-1.3
G3 X-47.259 Y-24.928 I-1.251 J-2.063
G1 X-52.589 Y-24.236
Z-2.3 F333.3
X-54.06 Y-24.045 F1000
G2 X-54.06 Y-11.476 I0.816 J6.285
G1 X-47.259 Y-10.593
G3 X-45.247 Y-8.854 I-0.311 J2.392
G2 X-32.287 Y-4.827 I7.785 J-2.189
G3 X-29.2 Y-4.827 I1.543 J1.854
G2 X-16.344 Y-8.515 I5.174 J-6.216
G3 X-14.079 Y-10.173 I2.292 J0.754
G1 Z-1.3
X-14.053
X-7.729
Z-2.3 F333.3
X-6.244 F1000
G2 X-0.656 Y-15.76 I0 J-5.587
G1 Y-19.76
G2 X-6.244 Y-25.348 I-5.588 J0
G1 X-14.053
G3 X-16.344 Y-27.006 I0 J-2.412
G2 X-29.096 Y-30.779 I-7.682 J2.528
G3 X-29.543 Y-30.827 I-0.199 J-0.247
G1 X-29.742 Y-31.075
X-29.786 Y-31.13 Z-2.292
X-29.828 Y-31.182 Z-2.269
X-29.866 Y-31.229 Z-2.231
X-29.897 Y-31.268 Z-2.18
X-29.921 Y-31.298 Z-2.12
X-29.936 Y-31.316 Z-2.053
X-29.941 Y-31.322 Z-1.983
Z5
X-29.252 Y-65.713
Z-1.365 F333.3
Z-1.983
X-29.247 Y-65.719 Z-2.053 F1000
X-29.233 Y-65.738 Z-2.12
X-29.21 Y-65.768 Z-2.18
X-29.179 Y-65.808 Z-2.231
X-29.143 Y-65.856 Z-2.269
X-29.102 Y-65.909 Z-2.292
X-29.06 Y-65.966 Z-2.3
X-28.867 Y-66.218
G3 X-28.422 Y-66.279 I0.253 J0.192
G2 X-15.843 Y-70.186 I4.898 J-6.436
G3 X-13.551 Y-71.845 I2.292 J0.754
G1 X-12.327
Z-1.3
X-5.977
Z-2.3 F333.3
X-5.742 F1000
G2 X-0.155 Y-77.432 I0 J-5.587
G1 Y-81.432
G2 X-5.742 Y-87.02 I-5.588 J0
G1 X-13.551
G3 X-15.843 Y-88.678 I0 J-2.412
G2 X-28.699 Y-92.366 I-7.682 J2.528
G3 X-31.786 Y-92.366 I-1.543 J-1.854
G2 X-44.745 Y-88.339 I-5.174 J6.216
G3 X-46.628 Y-86.62 I-2.322 J-0.653
G1 Z-1.3
X-46.757 Y-86.6
X-52.925 Y-85.799
Z-2.3 F333.3
X-53.558 Y-85.717 F1000
G2 X-53.558 Y-73.148 I0.816 J6.285
G1 X-46.757 Y-72.265
G3 X-44.745 Y-70.525 I-0.311 J2.392
G2 X-31.786 Y-66.499 I7.786 J-2.189
G3 X-28.699 Y-66.499 I1.543 J1.854
G2 X-28.422 Y-66.279 I5.174 J-6.216
G3 X-28.362 Y-65.834 I-0.192 J0.253
G1 X-28.554 Y-65.581
X-28.597 Y-65.525 Z-2.292
X-28.638 Y-65.472 Z-2.269
X-28.674 Y-65.424 Z-2.231
X-28.705 Y-65.384 Z-2.18
X-28.727 Y-65.353 Z-2.12
X-28.742 Y-65.335 Z-2.053
X-28.747 Y-65.328 Z-1.983
Z15

M5
M30
