(Mhwerkdeichsel)
(Bearbeiten)
(  Hersteller: ChinaCnc)
(  model: 3040T)
(  description: Generic 3-axis)
(T14 D=1.5 CR=0 - ZMIN=-2.4 - Schaftfrser)
G90 G94
G17
G21
(-Attention- Property Safe Retracts is set to Clearance Height.)
(Ensure the clearance height will clear the part and or fixtures.)
(Raise the Z-axis to a safe height before starting the program.)
(When using Fusion 360 for Personal Use, the feedrate of)
(rapid moves is reduced to match the feedrate of cutting)
(moves, which can increase machining time. Unrestricted rapid)
(moves are available with a Fusion 360 Subscription.)

(Bohrfrsen2)
M0
(MANUAL TOOL CHANGE TO T14)
S6000 M3
G17 G90 G94
G54
G0 X-0.1 Y20.125
Z15
G1 Z2 F600
Z0.15 F400
X-0.093 Z0.104
X-0.071 Z0.062
X-0.038 Z0.029
X0.004 Z0.007
X0.05 Z0
X0.125
X0.164 Y20.131
X0.198 Y20.149
X0.226 Y20.177
X0.244 Y20.211
X0.25 Y20.25
G3 X-0.25 Y20.25 Z-0.017 I-0.25 J0 F600
X0.25 Y20.25 Z-0.035 I0.25 J0
X-0.25 Y20.25 Z-0.052 I-0.25 J0
X0.25 Y20.25 Z-0.07 I0.25 J0
X-0.25 Y20.25 Z-0.087 I-0.25 J0
X0.25 Y20.25 Z-0.105 I0.25 J0
X-0.25 Y20.25 Z-0.122 I-0.25 J0
X0.25 Y20.25 Z-0.14 I0.25 J0
X-0.25 Y20.25 Z-0.157 I-0.25 J0
X0.25 Y20.25 Z-0.175 I0.25 J0
X-0.25 Y20.25 Z-0.192 I-0.25 J0
X0.25 Y20.25 Z-0.209 I0.25 J0
X-0.25 Y20.25 Z-0.227 I-0.25 J0
X0.25 Y20.25 Z-0.244 I0.25 J0
X-0.25 Y20.25 Z-0.262 I-0.25 J0
X0.25 Y20.25 Z-0.279 I0.25 J0
X-0.25 Y20.25 Z-0.297 I-0.25 J0
X0.25 Y20.25 Z-0.314 I0.25 J0
X-0.25 Y20.25 Z-0.332 I-0.25 J0
X0.25 Y20.25 Z-0.349 I0.25 J0
X-0.25 Y20.25 Z-0.367 I-0.25 J0
X0.25 Y20.25 Z-0.384 I0.25 J0
X-0.25 Y20.25 Z-0.401 I-0.25 J0
X0.25 Y20.25 Z-0.419 I0.25 J0
X-0.25 Y20.25 Z-0.436 I-0.25 J0
X0.25 Y20.25 Z-0.454 I0.25 J0
X-0.25 Y20.25 Z-0.471 I-0.25 J0
X0.25 Y20.25 Z-0.489 I0.25 J0
X-0.25 Y20.25 Z-0.506 I-0.25 J0
X0.25 Y20.25 Z-0.524 I0.25 J0
X-0.25 Y20.25 Z-0.541 I-0.25 J0
X0.25 Y20.25 Z-0.559 I0.25 J0
X-0.25 Y20.25 Z-0.576 I-0.25 J0
X0.25 Y20.25 Z-0.593 I0.25 J0
X-0.25 Y20.25 Z-0.611 I-0.25 J0
X0.25 Y20.25 Z-0.628 I0.25 J0
X-0.25 Y20.25 Z-0.646 I-0.25 J0
X0.25 Y20.25 Z-0.663 I0.25 J0
X-0.25 Y20.25 Z-0.681 I-0.25 J0
X0.25 Y20.25 Z-0.698 I0.25 J0
X-0.25 Y20.25 Z-0.716 I-0.25 J0
X0.25 Y20.25 Z-0.733 I0.25 J0
X-0.25 Y20.25 Z-0.751 I-0.25 J0
X0.25 Y20.25 Z-0.768 I0.25 J0
X-0.25 Y20.25 Z-0.785 I-0.25 J0
X0.25 Y20.25 Z-0.803 I0.25 J0
X-0.25 Y20.25 Z-0.82 I-0.25 J0
X0.25 Y20.25 Z-0.838 I0.25 J0
X-0.25 Y20.25 Z-0.855 I-0.25 J0
X0.25 Y20.25 Z-0.873 I0.25 J0
X-0.25 Y20.25 Z-0.89 I-0.25 J0
X0.25 Y20.25 Z-0.908 I0.25 J0
X-0.25 Y20.25 Z-0.925 I-0.25 J0
X0.25 Y20.25 Z-0.943 I0.25 J0
X-0.25 Y20.25 Z-0.96 I-0.25 J0
X0.25 Y20.25 Z-0.977 I0.25 J0
X-0.25 Y20.25 Z-0.995 I-0.25 J0
X0.25 Y20.25 Z-1.012 I0.25 J0
X-0.25 Y20.25 Z-1.03 I-0.25 J0
X0.25 Y20.25 Z-1.047 I0.25 J0
X-0.25 Y20.25 Z-1.065 I-0.25 J0
X0.25 Y20.25 Z-1.082 I0.25 J0
X-0.25 Y20.25 Z-1.1 I-0.25 J0
X0.25 Y20.25 Z-1.117 I0.25 J0
X-0.25 Y20.25 Z-1.135 I-0.25 J0
X0.25 Y20.25 Z-1.152 I0.25 J0
X-0.25 Y20.25 Z-1.169 I-0.25 J0
X0.25 Y20.25 Z-1.187 I0.25 J0
X-0.25 Y20.25 Z-1.204 I-0.25 J0
X0.25 Y20.25 Z-1.222 I0.25 J0
X-0.25 Y20.25 Z-1.239 I-0.25 J0
X0.25 Y20.25 Z-1.257 I0.25 J0
X-0.25 Y20.25 Z-1.274 I-0.25 J0
X0.25 Y20.25 Z-1.292 I0.25 J0
X-0.25 Y20.25 Z-1.309 I-0.25 J0
X0.25 Y20.25 Z-1.327 I0.25 J0
X-0.25 Y20.25 Z-1.344 I-0.25 J0
X0.25 Y20.25 Z-1.361 I0.25 J0
X-0.25 Y20.25 Z-1.379 I-0.25 J0
X0.25 Y20.25 Z-1.396 I0.25 J0
X-0.25 Y20.25 Z-1.414 I-0.25 J0
X0.25 Y20.25 Z-1.431 I0.25 J0
X-0.25 Y20.25 Z-1.449 I-0.25 J0
X0.25 Y20.25 Z-1.466 I0.25 J0
X-0.25 Y20.25 Z-1.484 I-0.25 J0
X0.25 Y20.25 Z-1.501 I0.25 J0
X-0.25 Y20.25 Z-1.519 I-0.25 J0
X0.25 Y20.25 Z-1.536 I0.25 J0
X-0.25 Y20.25 Z-1.554 I-0.25 J0
X0.25 Y20.25 Z-1.571 I0.25 J0
X-0.25 Y20.25 Z-1.588 I-0.25 J0
X0.25 Y20.25 Z-1.606 I0.25 J0
X-0.25 Y20.25 Z-1.623 I-0.25 J0
X0.25 Y20.25 Z-1.641 I0.25 J0
X-0.25 Y20.25 Z-1.658 I-0.25 J0
X0.25 Y20.25 Z-1.676 I0.25 J0
X-0.25 Y20.25 Z-1.693 I-0.25 J0
X0.25 Y20.25 Z-1.711 I0.25 J0
X-0.25 Y20.25 Z-1.728 I-0.25 J0
X0.25 Y20.25 Z-1.746 I0.25 J0
X-0.25 Y20.25 Z-1.763 I-0.25 J0
X0.25 Y20.25 Z-1.78 I0.25 J0
X-0.25 Y20.25 Z-1.798 I-0.25 J0
X0.25 Y20.25 Z-1.815 I0.25 J0
X-0.25 Y20.25 Z-1.833 I-0.25 J0
X0.25 Y20.25 Z-1.85 I0.25 J0
X-0.25 Y20.25 Z-1.868 I-0.25 J0
X0.25 Y20.25 Z-1.885 I0.25 J0
X-0.25 Y20.25 Z-1.903 I-0.25 J0
X0.25 Y20.25 Z-1.92 I0.25 J0
X-0.25 Y20.25 Z-1.938 I-0.25 J0
X0.25 Y20.25 Z-1.955 I0.25 J0
X-0.25 Y20.25 Z-1.972 I-0.25 J0
X0.25 Y20.25 Z-1.99 I0.25 J0
X-0.25 Y20.25 Z-2.007 I-0.25 J0
X0.25 Y20.25 Z-2.025 I0.25 J0
X-0.25 Y20.25 Z-2.042 I-0.25 J0
X0.25 Y20.25 Z-2.06 I0.25 J0
X-0.25 Y20.25 Z-2.077 I-0.25 J0
X0.25 Y20.25 Z-2.095 I0.25 J0
X-0.25 Y20.25 Z-2.112 I-0.25 J0
X0.25 Y20.25 Z-2.13 I0.25 J0
X-0.25 Y20.25 Z-2.147 I-0.25 J0
X0.25 Y20.25 Z-2.164 I0.25 J0
X-0.25 Y20.25 Z-2.182 I-0.25 J0
X0.25 Y20.25 Z-2.199 I0.25 J0
X-0.25 Y20.25 Z-2.217 I-0.25 J0
X0.25 Y20.25 Z-2.234 I0.25 J0
X-0.25 Y20.25 Z-2.252 I-0.25 J0
X0.25 Y20.25 Z-2.269 I0.25 J0
X-0.25 Y20.25 Z-2.287 I-0.25 J0
X0.25 Y20.25 Z-2.304 I0.25 J0
X-0.25 Y20.25 Z-2.322 I-0.25 J0
X0.25 Y20.25 Z-2.339 I0.25 J0
X-0.25 Y20.25 Z-2.356 I-0.25 J0
X0.25 Y20.25 Z-2.374 I0.25 J0
X-0.25 Y20.25 Z-2.391 I-0.25 J0
X-0.003 Y20 Z-2.4 I0.25 J0
X0.003 Y20.5 I0.003 J0.25
X-0.003 Y20 I-0.003 J-0.25
G1 X0.035 Y20.006
X0.071 Y20.023
X0.099 Y20.05
X0.117 Y20.085
X0.123 Y20.123
X0.124 Y20.198
X0.125 Y20.245 Z-2.393
Y20.287 Z-2.371
X0.126 Y20.32 Z-2.338
Y20.341 Z-2.296
Y20.348 Z-2.25
Z15
(When using Fusion 360 for Personal Use, the feedrate of)
(rapid moves is reduced to match the feedrate of cutting)
(moves, which can increase machining time. Unrestricted rapid)
(moves are available with a Fusion 360 Subscription.)

(2D-Kontur3)
S3000 M3
G0 X3.7 Y20.4
G1 Z15 F600
Z5
Z1.7 F300
Z-0.55
X3.693 Z-0.596 F400
X3.671 Z-0.638
X3.638 Z-0.671
X3.596 Z-0.693
X3.55 Z-0.7
X3.4
X3.354 Y20.393
X3.312 Y20.371
X3.279 Y20.338
X3.257 Y20.296
X3.25 Y20.25
Y-17.75 F600
G3 X4.5 Y-19 I1.25 J0
G1 X15
G2 X15.75 Y-19.75 I0 J-0.75
G1 Y-22.75
G2 X15 Y-23.5 I-0.75 J0
G1 X-15
G2 X-15.75 Y-22.75 I0 J0.75
G1 Y-19.75
G2 X-15 Y-19 I0.75 J0
G1 X-4.5
G3 X-3.25 Y-17.75 I0 J1.25
G1 Y20.25
G2 X3.25 Y20.25 I3.25 J0
G1 X3.257 Y20.204
X3.279 Y20.162
X3.312 Y20.129
X3.354 Y20.107
X3.4 Y20.1
X3.55
X3.596 Z-0.693
X3.638 Z-0.671
X3.671 Z-0.638
X3.693 Z-0.596
X3.7 Z-0.55
Z5
Y20.4
Z1 F300
Z-1.25
X3.693 Z-1.296 F400
X3.671 Z-1.338
X3.638 Z-1.371
X3.596 Z-1.393
X3.55 Z-1.4
X3.4
X3.354 Y20.393
X3.312 Y20.371
X3.279 Y20.338
X3.257 Y20.296
X3.25 Y20.25
Y-17.75 F600
G3 X4.5 Y-19 I1.25 J0
G1 X15
G2 X15.75 Y-19.75 I0 J-0.75
G1 Y-22.75
G2 X15 Y-23.5 I-0.75 J0
G1 X-15
G2 X-15.75 Y-22.75 I0 J0.75
G1 Y-19.75
G2 X-15 Y-19 I0.75 J0
G1 X-4.5
G3 X-3.25 Y-17.75 I0 J1.25
G1 Y20.25
G2 X3.25 Y20.25 I3.25 J0
G1 X3.257 Y20.204
X3.279 Y20.162
X3.312 Y20.129
X3.354 Y20.107
X3.4 Y20.1
X3.55
X3.596 Z-1.393
X3.638 Z-1.371
X3.671 Z-1.338
X3.693 Z-1.296
X3.7 Z-1.25
Z5
Y20.4
Z0.3 F300
Z-1.95
X3.693 Z-1.996 F400
X3.671 Z-2.038
X3.638 Z-2.071
X3.596 Z-2.093
X3.55 Z-2.1
X3.4
X3.354 Y20.393
X3.312 Y20.371
X3.279 Y20.338
X3.257 Y20.296
X3.25 Y20.25
Y-17.75 F600
G3 X4.5 Y-19 I1.25 J0
G1 X15
G2 X15.75 Y-19.75 I0 J-0.75
G1 Y-22.75
G2 X15 Y-23.5 I-0.75 J0
G1 X-15
G2 X-15.75 Y-22.75 I0 J0.75
G1 Y-19.75
G2 X-15 Y-19 I0.75 J0
G1 X-4.5
G3 X-3.25 Y-17.75 I0 J1.25
G1 Y20.25
G2 X3.25 Y20.25 I3.25 J0
G1 X3.257 Y20.204
X3.279 Y20.162
X3.312 Y20.129
X3.354 Y20.107
X3.4 Y20.1
X3.55
X3.596 Z-2.093
X3.638 Z-2.071
X3.671 Z-2.038
X3.693 Z-1.996
X3.7 Z-1.95
Z5
Y20.4
Z-0.4 F300
Z-2.25
X3.693 Z-2.296 F400
X3.671 Z-2.338
X3.638 Z-2.371
X3.596 Z-2.393
X3.55 Z-2.4
X3.4
X3.354 Y20.393
X3.312 Y20.371
X3.279 Y20.338
X3.257 Y20.296
X3.25 Y20.25
Y-17.75 F600
G3 X4.5 Y-19 I1.25 J0
G1 X15
G2 X15.75 Y-19.75 I0 J-0.75
G1 Y-22.75
G2 X15 Y-23.5 I-0.75 J0
G1 X-15
G2 X-15.75 Y-22.75 I0 J0.75
G1 Y-19.75
G2 X-15 Y-19 I0.75 J0
G1 X-4.5
G3 X-3.25 Y-17.75 I0 J1.25
G1 Y20.25
G2 X3.25 Y20.25 I3.25 J0
G1 X3.257 Y20.204
X3.279 Y20.162
X3.312 Y20.129
X3.354 Y20.107
X3.4 Y20.1
X3.55
X3.596 Z-2.393
X3.638 Z-2.371
X3.671 Z-2.338
X3.693 Z-2.296
X3.7 Z-2.25
Z15
M5
M30
