(Nico2)
(T5 D=3.175 CR=0 - ZMIN=-4.3 - Schaftfrser)
G90 G94
G17
G21
(-Attention- Property Safe Retracts is set to Clearance Height.)
(Ensure the clearance height will clear the part and or fixtures.)
(Raise the Z-axis to a safe height before starting the program.)
(When using Fusion for Personal Use, the feedrate of rapid)
(moves is reduced to match the feedrate of cutting moves,)
(which can increase machining time. Unrestricted rapid moves)
(are available with a Fusion Subscription.)

(Bohrfrsen4 2)
M0
(MANUAL TOOL CHANGE TO T5)
S2000 M3
G17 G90 G94
G54
G0 X-17.397 Y-16.182
Z15
G1 Z1.683 F1000
Z0
X-17.306 Y-16.312
X-17.283 Y-16.334
X-17.254 Y-16.346
X-17.222 Y-16.345
X-17.193 Y-16.332
G3 X-17.38 Y-16.066 Z-0.061 I-0.093 J0.133
X-17.193 Y-16.332 Z-0.122 I0.093 J-0.133
X-17.38 Y-16.066 Z-0.183 I-0.093 J0.133
X-17.193 Y-16.332 Z-0.244 I0.093 J-0.133
X-17.38 Y-16.066 Z-0.306 I-0.093 J0.133
X-17.193 Y-16.332 Z-0.367 I0.093 J-0.133
X-17.38 Y-16.066 Z-0.428 I-0.093 J0.133
X-17.193 Y-16.332 Z-0.489 I0.093 J-0.133
X-17.38 Y-16.066 Z-0.55 I-0.093 J0.133
X-17.193 Y-16.332 Z-0.611 I0.093 J-0.133
X-17.38 Y-16.066 Z-0.672 I-0.093 J0.133
X-17.193 Y-16.332 Z-0.733 I0.093 J-0.133
X-17.38 Y-16.066 Z-0.794 I-0.093 J0.133
X-17.193 Y-16.332 Z-0.856 I0.093 J-0.133
X-17.38 Y-16.066 Z-0.917 I-0.093 J0.133
X-17.193 Y-16.332 Z-0.978 I0.093 J-0.133
X-17.38 Y-16.066 Z-1.039 I-0.093 J0.133
X-17.193 Y-16.332 Z-1.1 I0.093 J-0.133
X-17.38 Y-16.066 Z-1.161 I-0.093 J0.133
X-17.193 Y-16.332 Z-1.222 I0.093 J-0.133
X-17.38 Y-16.066 Z-1.283 I-0.093 J0.133
X-17.193 Y-16.332 Z-1.344 I0.093 J-0.133
X-17.38 Y-16.066 Z-1.406 I-0.093 J0.133
X-17.193 Y-16.332 Z-1.467 I0.093 J-0.133
X-17.38 Y-16.066 Z-1.528 I-0.093 J0.133
X-17.193 Y-16.332 Z-1.589 I0.093 J-0.133
X-17.38 Y-16.066 Z-1.65 I-0.093 J0.133
X-17.193 Y-16.332 Z-1.711 I0.093 J-0.133
X-17.38 Y-16.066 Z-1.772 I-0.093 J0.133
X-17.193 Y-16.332 Z-1.833 I0.093 J-0.133
X-17.38 Y-16.066 Z-1.894 I-0.093 J0.133
X-17.193 Y-16.332 Z-1.956 I0.093 J-0.133
X-17.38 Y-16.066 Z-2.017 I-0.093 J0.133
X-17.193 Y-16.332 Z-2.078 I0.093 J-0.133
X-17.38 Y-16.066 Z-2.139 I-0.093 J0.133
X-17.193 Y-16.332 Z-2.2 I0.093 J-0.133
X-17.38 Y-16.066 Z-2.261 I-0.093 J0.133
X-17.193 Y-16.332 Z-2.322 I0.093 J-0.133
X-17.38 Y-16.066 Z-2.383 I-0.093 J0.133
X-17.193 Y-16.332 Z-2.444 I0.093 J-0.133
X-17.38 Y-16.066 Z-2.506 I-0.093 J0.133
X-17.193 Y-16.332 Z-2.567 I0.093 J-0.133
X-17.38 Y-16.066 Z-2.628 I-0.093 J0.133
X-17.193 Y-16.332 Z-2.689 I0.093 J-0.133
X-17.38 Y-16.066 Z-2.75 I-0.093 J0.133
X-17.193 Y-16.332 Z-2.811 I0.093 J-0.133
X-17.38 Y-16.066 Z-2.872 I-0.093 J0.133
X-17.193 Y-16.332 Z-2.933 I0.093 J-0.133
X-17.38 Y-16.066 Z-2.994 I-0.093 J0.133
X-17.193 Y-16.332 Z-3.056 I0.093 J-0.133
X-17.38 Y-16.066 Z-3.117 I-0.093 J0.133
X-17.193 Y-16.332 Z-3.178 I0.093 J-0.133
X-17.38 Y-16.066 Z-3.239 I-0.093 J0.133
X-17.193 Y-16.332 Z-3.3 I0.093 J-0.133
X-17.38 Y-16.066 Z-3.361 I-0.093 J0.133
X-17.193 Y-16.332 Z-3.422 I0.093 J-0.133
X-17.38 Y-16.066 Z-3.483 I-0.093 J0.133
X-17.193 Y-16.332 Z-3.544 I0.093 J-0.133
X-17.38 Y-16.066 Z-3.606 I-0.093 J0.133
X-17.193 Y-16.332 Z-3.667 I0.093 J-0.133
X-17.38 Y-16.066 Z-3.728 I-0.093 J0.133
X-17.193 Y-16.332 Z-3.789 I0.093 J-0.133
X-17.38 Y-16.066 Z-3.85 I-0.093 J0.133
X-17.193 Y-16.332 Z-3.911 I0.093 J-0.133
X-17.38 Y-16.066 Z-3.972 I-0.093 J0.133
X-17.193 Y-16.332 Z-4.033 I0.093 J-0.133
X-17.38 Y-16.066 Z-4.094 I-0.093 J0.133
X-17.193 Y-16.332 Z-4.156 I0.093 J-0.133
X-17.38 Y-16.066 Z-4.217 I-0.093 J0.133
X-17.193 Y-16.332 Z-4.278 I0.093 J-0.133
X-17.127 Y-16.17 Z-4.3 I-0.093 J0.133
X-17.446 Y-16.228 I-0.16 J-0.029
X-17.127 Y-16.17 I0.16 J0.029
G1 X-17.138 Y-16.14
X-17.16 Y-16.118
X-17.189 Y-16.105
X-17.221
X-17.377 Y-16.133
Z5
X-18.686 Y-23.494
Z1.683
Z0
X-18.595 Y-23.624
X-18.573 Y-23.645
X-18.543 Y-23.657
X-18.511 Y-23.656
X-18.482 Y-23.644
G3 X-18.669 Y-23.377 Z-0.061 I-0.093 J0.133
X-18.482 Y-23.644 Z-0.122 I0.093 J-0.133
X-18.669 Y-23.377 Z-0.183 I-0.093 J0.133
X-18.482 Y-23.644 Z-0.244 I0.093 J-0.133
X-18.669 Y-23.377 Z-0.306 I-0.093 J0.133
X-18.482 Y-23.644 Z-0.367 I0.093 J-0.133
X-18.669 Y-23.377 Z-0.428 I-0.093 J0.133
X-18.482 Y-23.644 Z-0.489 I0.093 J-0.133
X-18.669 Y-23.377 Z-0.55 I-0.093 J0.133
X-18.482 Y-23.644 Z-0.611 I0.093 J-0.133
X-18.669 Y-23.377 Z-0.672 I-0.093 J0.133
X-18.482 Y-23.644 Z-0.733 I0.093 J-0.133
X-18.669 Y-23.377 Z-0.794 I-0.093 J0.133
X-18.482 Y-23.644 Z-0.856 I0.093 J-0.133
X-18.669 Y-23.377 Z-0.917 I-0.093 J0.133
X-18.482 Y-23.644 Z-0.978 I0.093 J-0.133
X-18.669 Y-23.377 Z-1.039 I-0.093 J0.133
X-18.482 Y-23.644 Z-1.1 I0.093 J-0.133
X-18.669 Y-23.377 Z-1.161 I-0.093 J0.133
X-18.482 Y-23.644 Z-1.222 I0.093 J-0.133
X-18.669 Y-23.377 Z-1.283 I-0.093 J0.133
X-18.482 Y-23.644 Z-1.344 I0.093 J-0.133
X-18.669 Y-23.377 Z-1.406 I-0.093 J0.133
X-18.482 Y-23.644 Z-1.467 I0.093 J-0.133
X-18.669 Y-23.377 Z-1.528 I-0.093 J0.133
X-18.482 Y-23.644 Z-1.589 I0.093 J-0.133
X-18.669 Y-23.377 Z-1.65 I-0.093 J0.133
X-18.482 Y-23.644 Z-1.711 I0.093 J-0.133
X-18.669 Y-23.377 Z-1.772 I-0.093 J0.133
X-18.482 Y-23.644 Z-1.833 I0.093 J-0.133
X-18.669 Y-23.377 Z-1.894 I-0.093 J0.133
X-18.482 Y-23.644 Z-1.956 I0.093 J-0.133
X-18.669 Y-23.377 Z-2.017 I-0.093 J0.133
X-18.482 Y-23.644 Z-2.078 I0.093 J-0.133
X-18.669 Y-23.377 Z-2.139 I-0.093 J0.133
X-18.482 Y-23.644 Z-2.2 I0.093 J-0.133
X-18.669 Y-23.377 Z-2.261 I-0.093 J0.133
X-18.482 Y-23.644 Z-2.322 I0.093 J-0.133
X-18.669 Y-23.377 Z-2.383 I-0.093 J0.133
X-18.482 Y-23.644 Z-2.444 I0.093 J-0.133
X-18.669 Y-23.377 Z-2.506 I-0.093 J0.133
X-18.482 Y-23.644 Z-2.567 I0.093 J-0.133
X-18.669 Y-23.377 Z-2.628 I-0.093 J0.133
X-18.482 Y-23.644 Z-2.689 I0.093 J-0.133
X-18.669 Y-23.377 Z-2.75 I-0.093 J0.133
X-18.482 Y-23.644 Z-2.811 I0.093 J-0.133
X-18.669 Y-23.377 Z-2.872 I-0.093 J0.133
X-18.482 Y-23.644 Z-2.933 I0.093 J-0.133
X-18.669 Y-23.377 Z-2.994 I-0.093 J0.133
X-18.482 Y-23.644 Z-3.056 I0.093 J-0.133
X-18.669 Y-23.377 Z-3.117 I-0.093 J0.133
X-18.482 Y-23.644 Z-3.178 I0.093 J-0.133
X-18.669 Y-23.377 Z-3.239 I-0.093 J0.133
X-18.482 Y-23.644 Z-3.3 I0.093 J-0.133
X-18.669 Y-23.377 Z-3.361 I-0.093 J0.133
X-18.482 Y-23.644 Z-3.422 I0.093 J-0.133
X-18.669 Y-23.377 Z-3.483 I-0.093 J0.133
X-18.482 Y-23.644 Z-3.544 I0.093 J-0.133
X-18.669 Y-23.377 Z-3.606 I-0.093 J0.133
X-18.482 Y-23.644 Z-3.667 I0.093 J-0.133
X-18.669 Y-23.377 Z-3.728 I-0.093 J0.133
X-18.482 Y-23.644 Z-3.789 I0.093 J-0.133
X-18.669 Y-23.377 Z-3.85 I-0.093 J0.133
X-18.482 Y-23.644 Z-3.911 I0.093 J-0.133
X-18.669 Y-23.377 Z-3.972 I-0.093 J0.133
X-18.482 Y-23.644 Z-4.033 I0.093 J-0.133
X-18.669 Y-23.377 Z-4.094 I-0.093 J0.133
X-18.482 Y-23.644 Z-4.156 I0.093 J-0.133
X-18.669 Y-23.377 Z-4.217 I-0.093 J0.133
X-18.482 Y-23.644 Z-4.278 I0.093 J-0.133
X-18.416 Y-23.481 Z-4.3 I-0.093 J0.133
X-18.735 Y-23.54 I-0.16 J-0.029
X-18.416 Y-23.481 I0.16 J0.029
G1 X-18.427 Y-23.452
X-18.449 Y-23.429
X-18.479 Y-23.416
X-18.51
X-18.666 Y-23.444
Z5
X-19.045 Y-142.082
Z2
Z0.317
X-19.04 Y-142.089 Z0.247
X-19.027 Y-142.108 Z0.18
X-19.005 Y-142.139 Z0.12
X-18.976 Y-142.18 Z0.069
X-18.942 Y-142.23 Z0.031
X-18.903 Y-142.285 Z0.008
X-18.863 Y-142.342 Z0
X-18.772 Y-142.472
G3 X-18.329 Y-142.55 I0.26 J0.182
X-21.671 Y-137.779 Z-0.157 I-1.671 J2.386
X-18.329 Y-142.55 Z-0.314 I1.671 J-2.386
X-21.671 Y-137.779 Z-0.471 I-1.671 J2.386
X-18.329 Y-142.55 Z-0.629 I1.671 J-2.386
X-21.671 Y-137.779 Z-0.786 I-1.671 J2.386
X-18.329 Y-142.55 Z-0.943 I1.671 J-2.386
X-21.671 Y-137.779 Z-1.1 I-1.671 J2.386
X-18.329 Y-142.55 Z-1.257 I1.671 J-2.386
X-21.671 Y-137.779 Z-1.414 I-1.671 J2.386
X-18.329 Y-142.55 Z-1.571 I1.671 J-2.386
X-21.671 Y-137.779 Z-1.729 I-1.671 J2.386
X-18.329 Y-142.55 Z-1.886 I1.671 J-2.386
X-21.671 Y-137.779 Z-2.043 I-1.671 J2.386
X-18.329 Y-142.55 Z-2.2 I1.671 J-2.386
X-21.671 Y-137.779 Z-2.357 I-1.671 J2.386
X-18.329 Y-142.55 Z-2.514 I1.671 J-2.386
X-21.671 Y-137.779 Z-2.671 I-1.671 J2.386
X-18.329 Y-142.55 Z-2.829 I1.671 J-2.386
X-21.671 Y-137.779 Z-2.986 I-1.671 J2.386
X-18.329 Y-142.55 Z-3.143 I1.671 J-2.386
X-21.671 Y-137.779 Z-3.3 I-1.671 J2.386
X-18.329 Y-142.55 Z-3.457 I1.671 J-2.386
X-21.671 Y-137.779 Z-3.614 I-1.671 J2.386
X-18.329 Y-142.55 Z-3.771 I1.671 J-2.386
X-21.671 Y-137.779 Z-3.929 I-1.671 J2.386
X-18.329 Y-142.55 Z-4.086 I1.671 J-2.386
X-21.671 Y-137.779 Z-4.243 I-1.671 J2.386
X-22.864 Y-140.692 Z-4.3 I1.671 J-2.386
X-17.136 Y-139.637 I2.864 J0.528
X-22.864 Y-140.692 I-2.864 J-0.528
X-22.495 Y-140.947 I0.312 J0.058
G1 X-22.338 Y-140.918
X-22.269 Y-140.905 Z-4.292
X-22.203 Y-140.893 Z-4.269
X-22.144 Y-140.882 Z-4.231
X-22.094 Y-140.873 Z-4.18
X-22.057 Y-140.866 Z-4.12
X-22.034 Y-140.862 Z-4.053
X-22.026 Y-140.861 Z-3.983
Z15
(When using Fusion for Personal Use, the feedrate of rapid)
(moves is reduced to match the feedrate of cutting moves,)
(which can increase machining time. Unrestricted rapid moves)
(are available with a Fusion Subscription.)

(2D-Kontur3 2)
G0 Z16
X-27.598 Y-132.611
G1 Z6 F1000
Z3.5 F333.3
S5000
X-26.751 Y-133.479 Z3.466
G3 X-26.521 Y-133.482 Z3.459 I0.116 J0.114
X-26.518 Y-133.252 Z3.452 I-0.114 J0.116
G1 X-27.566 Y-132.179 Z3.41
G3 X-27.796 Y-132.176 Z3.403 I-0.117 J-0.113
X-27.799 Y-132.405 Z3.396 I0.113 J-0.116
G1 X-26.751 Y-133.479 Z3.354
G3 X-26.521 Y-133.482 Z3.347 I0.116 J0.114
X-26.518 Y-133.252 Z3.339 I-0.114 J0.116
G1 X-27.566 Y-132.179 Z3.298
G3 X-27.796 Y-132.176 Z3.29 I-0.117 J-0.113
X-27.799 Y-132.405 Z3.283 I0.113 J-0.116
G1 X-26.751 Y-133.479 Z3.241
G3 X-26.521 Y-133.482 Z3.234 I0.116 J0.114
X-26.518 Y-133.252 Z3.227 I-0.114 J0.116
G1 X-27.566 Y-132.179 Z3.185
G3 X-27.796 Y-132.176 Z3.178 I-0.117 J-0.113
X-27.799 Y-132.405 Z3.171 I0.113 J-0.116
G1 X-26.751 Y-133.479 Z3.129
G3 X-26.521 Y-133.482 Z3.122 I0.116 J0.114
X-26.518 Y-133.252 Z3.115 I-0.114 J0.116
G1 X-27.566 Y-132.179 Z3.073
G3 X-27.796 Y-132.176 Z3.066 I-0.117 J-0.113
X-27.799 Y-132.405 Z3.059 I0.113 J-0.116
G1 X-26.751 Y-133.479 Z3.017
G3 X-26.521 Y-133.482 Z3.01 I0.116 J0.114
X-26.518 Y-133.252 Z3.002 I-0.114 J0.116
G1 X-27.566 Y-132.179 Z2.961
G3 X-27.796 Y-132.176 Z2.953 I-0.117 J-0.113
X-27.799 Y-132.405 Z2.946 I0.113 J-0.116
G1 X-26.751 Y-133.479 Z2.904
G3 X-26.521 Y-133.482 Z2.897 I0.116 J0.114
X-26.518 Y-133.252 Z2.89 I-0.114 J0.116
G1 X-27.566 Y-132.179 Z2.848
G3 X-27.796 Y-132.176 Z2.841 I-0.117 J-0.113
X-27.799 Y-132.405 Z2.834 I0.113 J-0.116
G1 X-26.751 Y-133.479 Z2.792
G3 X-26.521 Y-133.482 Z2.785 I0.116 J0.114
X-26.518 Y-133.252 Z2.778 I-0.114 J0.116
G1 X-27.566 Y-132.179 Z2.736
G3 X-27.796 Y-132.176 Z2.729 I-0.117 J-0.113
X-27.799 Y-132.405 Z2.722 I0.113 J-0.116
G1 X-26.751 Y-133.479 Z2.68
G3 X-26.521 Y-133.482 Z2.673 I0.116 J0.114
X-26.518 Y-133.252 Z2.665 I-0.114 J0.116
G1 X-27.566 Y-132.179 Z2.624
G3 X-27.796 Y-132.176 Z2.616 I-0.117 J-0.113
X-27.799 Y-132.405 Z2.609 I0.113 J-0.116
G1 X-26.751 Y-133.479 Z2.567
G3 X-26.521 Y-133.482 Z2.56 I0.116 J0.114
X-26.518 Y-133.252 Z2.553 I-0.114 J0.116
G1 X-27.566 Y-132.179 Z2.511
G3 X-27.796 Y-132.176 Z2.504 I-0.117 J-0.113
X-27.799 Y-132.405 Z2.497 I0.113 J-0.116
G1 X-26.751 Y-133.479 Z2.455
G3 X-26.521 Y-133.482 Z2.448 I0.116 J0.114
X-26.518 Y-133.252 Z2.441 I-0.114 J0.116
G1 X-27.566 Y-132.179 Z2.399
G3 X-27.796 Y-132.176 Z2.392 I-0.117 J-0.113
X-27.799 Y-132.405 Z2.385 I0.113 J-0.116
G1 X-26.751 Y-133.479 Z2.343
G3 X-26.521 Y-133.482 Z2.336 I0.116 J0.114
X-26.518 Y-133.252 Z2.328 I-0.114 J0.116
G1 X-27.566 Y-132.179 Z2.286
G3 X-27.796 Y-132.176 Z2.279 I-0.117 J-0.113
X-27.799 Y-132.405 Z2.272 I0.113 J-0.116
G1 X-26.751 Y-133.479 Z2.23
G3 X-26.521 Y-133.482 Z2.223 I0.116 J0.114
X-26.518 Y-133.252 Z2.216 I-0.114 J0.116
G1 X-27.566 Y-132.179 Z2.174
G3 X-27.796 Y-132.176 Z2.167 I-0.117 J-0.113
X-27.799 Y-132.405 Z2.16 I0.113 J-0.116
G1 X-26.751 Y-133.479 Z2.118
G3 X-26.521 Y-133.482 Z2.111 I0.116 J0.114
X-26.518 Y-133.252 Z2.104 I-0.114 J0.116
G1 X-27.566 Y-132.179 Z2.062
G3 X-27.796 Y-132.176 Z2.055 I-0.117 J-0.113
X-27.799 Y-132.405 Z2.048 I0.113 J-0.116
G1 X-26.751 Y-133.479 Z2.006
G3 X-26.521 Y-133.482 Z1.998 I0.116 J0.114
X-26.518 Y-133.252 Z1.991 I-0.114 J0.116
G1 X-27.566 Y-132.179 Z1.949
G3 X-27.796 Y-132.176 Z1.942 I-0.117 J-0.113
X-27.799 Y-132.405 Z1.935 I0.113 J-0.116
G1 X-26.751 Y-133.479 Z1.893
G3 X-26.521 Y-133.482 Z1.886 I0.116 J0.114
X-26.518 Y-133.252 Z1.879 I-0.114 J0.116
G1 X-27.566 Y-132.179 Z1.837
G3 X-27.796 Y-132.176 Z1.83 I-0.117 J-0.113
X-27.799 Y-132.405 Z1.823 I0.113 J-0.116
G1 X-26.751 Y-133.479 Z1.781
G3 X-26.521 Y-133.482 Z1.774 I0.116 J0.114
X-26.518 Y-133.252 Z1.767 I-0.114 J0.116
G1 X-27.566 Y-132.179 Z1.725
G3 X-27.796 Y-132.176 Z1.718 I-0.117 J-0.113
X-27.799 Y-132.405 Z1.71 I0.113 J-0.116
G1 X-26.751 Y-133.479 Z1.669
G3 X-26.521 Y-133.482 Z1.661 I0.116 J0.114
X-26.518 Y-133.252 Z1.654 I-0.114 J0.116
G1 X-27.566 Y-132.179 Z1.612
G3 X-27.796 Y-132.176 Z1.605 I-0.117 J-0.113
X-27.799 Y-132.405 Z1.598 I0.113 J-0.116
G1 X-26.751 Y-133.479 Z1.556
G3 X-26.521 Y-133.482 Z1.549 I0.116 J0.114
X-26.518 Y-133.252 Z1.542 I-0.114 J0.116
G1 X-27.566 Y-132.179 Z1.5
G3 X-27.796 Y-132.176 Z1.493 I-0.117 J-0.113
X-27.799 Y-132.405 Z1.486 I0.113 J-0.116
G1 X-26.751 Y-133.479 Z1.444
G3 X-26.521 Y-133.482 Z1.437 I0.116 J0.114
X-26.518 Y-133.252 Z1.43 I-0.114 J0.116
G1 X-27.566 Y-132.179 Z1.388
G3 X-27.796 Y-132.176 Z1.381 I-0.117 J-0.113
X-27.799 Y-132.405 Z1.373 I0.113 J-0.116
G1 X-26.751 Y-133.479 Z1.332
G3 X-26.521 Y-133.482 Z1.324 I0.116 J0.114
X-26.518 Y-133.252 Z1.317 I-0.114 J0.116
G1 X-27.566 Y-132.179 Z1.275
G3 X-27.796 Y-132.176 Z1.268 I-0.117 J-0.113
X-27.799 Y-132.405 Z1.261 I0.113 J-0.116
G1 X-26.751 Y-133.479 Z1.219
G3 X-26.521 Y-133.482 Z1.212 I0.116 J0.114
X-26.518 Y-133.252 Z1.205 I-0.114 J0.116
G1 X-27.566 Y-132.179 Z1.163
G3 X-27.796 Y-132.176 Z1.156 I-0.117 J-0.113
X-27.799 Y-132.405 Z1.149 I0.113 J-0.116
G1 X-26.751 Y-133.479 Z1.107
G3 X-26.521 Y-133.482 Z1.1 I0.116 J0.114
X-26.518 Y-133.252 Z1.093 I-0.114 J0.116
G1 X-27.566 Y-132.179 Z1.051
G3 X-27.796 Y-132.176 Z1.044 I-0.117 J-0.113
X-27.799 Y-132.405 Z1.036 I0.113 J-0.116
G1 X-26.751 Y-133.479 Z0.995
G3 X-26.521 Y-133.482 Z0.987 I0.116 J0.114
X-26.518 Y-133.252 Z0.98 I-0.114 J0.116
G1 X-27.566 Y-132.179 Z0.938
G3 X-27.796 Y-132.176 Z0.931 I-0.117 J-0.113
X-27.799 Y-132.405 Z0.924 I0.113 J-0.116
G1 X-26.751 Y-133.479 Z0.882
G3 X-26.521 Y-133.482 Z0.875 I0.116 J0.114
X-26.518 Y-133.252 Z0.868 I-0.114 J0.116
G1 X-27.566 Y-132.179 Z0.826
G3 X-27.796 Y-132.176 Z0.819 I-0.117 J-0.113
X-27.799 Y-132.405 Z0.812 I0.113 J-0.116
G1 X-26.751 Y-133.479 Z0.77
G3 X-26.521 Y-133.482 Z0.763 I0.116 J0.114
X-26.518 Y-133.252 Z0.756 I-0.114 J0.116
G1 X-27.566 Y-132.179 Z0.714
G3 X-27.796 Y-132.176 Z0.707 I-0.117 J-0.113
X-27.799 Y-132.405 Z0.699 I0.113 J-0.116
G1 X-26.751 Y-133.479 Z0.657
G3 X-26.521 Y-133.482 Z0.65 I0.116 J0.114
X-26.518 Y-133.252 Z0.643 I-0.114 J0.116
G1 X-27.566 Y-132.179 Z0.601
G3 X-27.796 Y-132.176 Z0.594 I-0.117 J-0.113
X-27.799 Y-132.405 Z0.587 I0.113 J-0.116
G1 X-26.751 Y-133.479 Z0.545
G3 X-26.521 Y-133.482 Z0.538 I0.116 J0.114
X-26.518 Y-133.252 Z0.531 I-0.114 J0.116
G1 X-27.566 Y-132.179 Z0.489
G3 X-27.796 Y-132.176 Z0.482 I-0.117 J-0.113
X-27.799 Y-132.405 Z0.475 I0.113 J-0.116
G1 X-26.751 Y-133.479 Z0.433
G3 X-26.521 Y-133.482 Z0.426 I0.116 J0.114
X-26.518 Y-133.252 Z0.419 I-0.114 J0.116
G1 X-27.566 Y-132.179 Z0.377
G3 X-27.796 Y-132.176 Z0.369 I-0.117 J-0.113
X-27.799 Y-132.405 Z0.362 I0.113 J-0.116
G1 X-26.751 Y-133.479 Z0.32
G3 X-26.521 Y-133.482 Z0.313 I0.116 J0.114
X-26.518 Y-133.252 Z0.306 I-0.114 J0.116
G1 X-27.566 Y-132.179 Z0.264
G3 X-27.796 Y-132.176 Z0.257 I-0.117 J-0.113
X-27.799 Y-132.405 Z0.25 I0.113 J-0.116
G1 X-26.751 Y-133.479 Z0.208
G3 X-26.521 Y-133.482 Z0.201 I0.116 J0.114
X-26.518 Y-133.252 Z0.194 I-0.114 J0.116
G1 X-27.566 Y-132.179 Z0.152
G3 X-27.796 Y-132.176 Z0.145 I-0.117 J-0.113
X-27.799 Y-132.405 Z0.138 I0.113 J-0.116
G1 X-26.751 Y-133.479 Z0.096
G3 X-26.521 Y-133.482 Z0.089 I0.116 J0.114
X-26.518 Y-133.252 Z0.081 I-0.114 J0.116
G1 X-27.566 Y-132.179 Z0.04
G3 X-27.796 Y-132.176 Z0.032 I-0.117 J-0.113
X-27.799 Y-132.405 Z0.025 I0.113 J-0.116
G1 X-26.751 Y-133.479 Z-0.017
G3 X-26.521 Y-133.482 Z-0.024 I0.116 J0.114
X-26.518 Y-133.252 Z-0.031 I-0.114 J0.116
G1 X-27.566 Y-132.179 Z-0.073
G3 X-27.796 Y-132.176 Z-0.08 I-0.117 J-0.113
X-27.799 Y-132.405 Z-0.087 I0.113 J-0.116
G1 X-26.751 Y-133.479 Z-0.129
G3 X-26.521 Y-133.482 Z-0.136 I0.116 J0.114
X-26.518 Y-133.252 Z-0.143 I-0.114 J0.116
G1 X-27.566 Y-132.179 Z-0.185
G3 X-27.796 Y-132.176 Z-0.192 I-0.117 J-0.113
X-27.799 Y-132.405 Z-0.199 I0.113 J-0.116
G1 X-26.751 Y-133.479 Z-0.241
G3 X-26.521 Y-133.482 Z-0.248 I0.116 J0.114
X-26.518 Y-133.252 Z-0.256 I-0.114 J0.116
G1 X-27.566 Y-132.179 Z-0.297
G3 X-27.796 Y-132.176 Z-0.305 I-0.117 J-0.113
X-27.799 Y-132.405 Z-0.312 I0.113 J-0.116
G1 X-26.751 Y-133.479 Z-0.354
G3 X-26.521 Y-133.482 Z-0.361 I0.116 J0.114
X-26.518 Y-133.252 Z-0.368 I-0.114 J0.116
G1 X-27.566 Y-132.179 Z-0.41
G3 X-27.796 Y-132.176 Z-0.417 I-0.117 J-0.113
X-27.799 Y-132.405 Z-0.424 I0.113 J-0.116
G1 X-26.751 Y-133.479 Z-0.466
G3 X-26.521 Y-133.482 Z-0.473 I0.116 J0.114
X-26.518 Y-133.252 Z-0.48 I-0.114 J0.116
G1 X-27.566 Y-132.179 Z-0.522
G3 X-27.796 Y-132.176 Z-0.529 I-0.117 J-0.113
X-27.799 Y-132.405 Z-0.536 I0.113 J-0.116
G1 X-26.751 Y-133.479 Z-0.578
G3 X-26.521 Y-133.482 Z-0.585 I0.116 J0.114
X-26.518 Y-133.252 Z-0.593 I-0.114 J0.116
G1 X-27.566 Y-132.179 Z-0.635
G3 X-27.796 Y-132.176 Z-0.642 I-0.117 J-0.113
X-27.799 Y-132.405 Z-0.649 I0.113 J-0.116
G1 X-26.751 Y-133.479 Z-0.691
G3 X-26.521 Y-133.482 Z-0.698 I0.116 J0.114
X-26.518 Y-133.252 Z-0.705 I-0.114 J0.116
G1 X-27.566 Y-132.179 Z-0.747
G3 X-27.796 Y-132.176 Z-0.754 I-0.117 J-0.113
X-27.799 Y-132.405 Z-0.761 I0.113 J-0.116
G1 X-26.751 Y-133.479 Z-0.803
G3 X-26.521 Y-133.482 Z-0.81 I0.116 J0.114
X-26.518 Y-133.252 Z-0.817 I-0.114 J0.116
G1 X-27.566 Y-132.179 Z-0.859
G3 X-27.796 Y-132.176 Z-0.866 I-0.117 J-0.113
X-27.799 Y-132.405 Z-0.873 I0.113 J-0.116
G1 X-26.751 Y-133.479 Z-0.915
G3 X-26.521 Y-133.482 Z-0.923 I0.116 J0.114
X-26.518 Y-133.252 Z-0.93 I-0.114 J0.116
G1 X-27.566 Y-132.179 Z-0.972
G3 X-27.796 Y-132.176 Z-0.979 I-0.117 J-0.113
X-27.799 Y-132.405 Z-0.986 I0.113 J-0.116
G1 X-26.751 Y-133.479 Z-1.028
G3 X-26.521 Y-133.482 Z-1.035 I0.116 J0.114
X-26.518 Y-133.252 Z-1.042 I-0.114 J0.116
G1 X-27.566 Y-132.179 Z-1.084
G3 X-27.796 Y-132.176 Z-1.091 I-0.117 J-0.113
X-27.799 Y-132.405 Z-1.098 I0.113 J-0.116
G1 X-26.751 Y-133.479 Z-1.14
G3 X-26.521 Y-133.482 Z-1.147 I0.116 J0.114
X-26.518 Y-133.252 Z-1.154 I-0.114 J0.116
G1 X-27.566 Y-132.179 Z-1.196
G3 X-27.796 Y-132.176 Z-1.203 I-0.117 J-0.113
X-27.799 Y-132.405 Z-1.21 I0.113 J-0.116
G1 X-26.751 Y-133.479 Z-1.252
G3 X-26.521 Y-133.482 Z-1.26 I0.116 J0.114
X-26.518 Y-133.252 Z-1.267 I-0.114 J0.116
G1 X-27.566 Y-132.179 Z-1.309
G3 X-27.796 Y-132.176 Z-1.316 I-0.117 J-0.113
X-27.799 Y-132.405 Z-1.323 I0.113 J-0.116
G1 X-26.751 Y-133.479 Z-1.365
G3 X-26.521 Y-133.482 Z-1.372 I0.116 J0.114
X-26.518 Y-133.252 Z-1.379 I-0.114 J0.116
G1 X-27.566 Y-132.179 Z-1.421
G3 X-27.796 Y-132.176 Z-1.428 I-0.117 J-0.113
X-27.799 Y-132.405 Z-1.435 I0.113 J-0.116
G1 X-26.751 Y-133.479 Z-1.477
G3 X-26.521 Y-133.482 Z-1.484 I0.116 J0.114
X-26.518 Y-133.252 Z-1.491 I-0.114 J0.116
G1 X-27.566 Y-132.179 Z-1.533
G3 X-27.796 Y-132.176 Z-1.54 I-0.117 J-0.113
X-27.799 Y-132.405 Z-1.548 I0.113 J-0.116
G1 X-26.751 Y-133.479 Z-1.589
G3 X-26.521 Y-133.482 Z-1.597 I0.116 J0.114
X-26.518 Y-133.252 Z-1.604 I-0.114 J0.116
G1 X-27.566 Y-132.179 Z-1.646
G3 X-27.796 Y-132.176 Z-1.653 I-0.117 J-0.113
X-27.799 Y-132.405 Z-1.66 I0.113 J-0.116
G1 X-26.751 Y-133.479 Z-1.702
G3 X-26.521 Y-133.482 Z-1.709 I0.116 J0.114
X-26.518 Y-133.252 Z-1.716 I-0.114 J0.116
G1 X-27.566 Y-132.179 Z-1.758
G3 X-27.796 Y-132.176 Z-1.765 I-0.117 J-0.113
X-27.799 Y-132.405 Z-1.772 I0.113 J-0.116
G1 X-26.751 Y-133.479 Z-1.814
G3 X-26.521 Y-133.482 Z-1.821 I0.116 J0.114
X-26.518 Y-133.252 Z-1.828 I-0.114 J0.116
G1 X-27.566 Y-132.179 Z-1.87
G3 X-27.796 Y-132.176 Z-1.877 I-0.117 J-0.113
X-27.799 Y-132.405 Z-1.885 I0.113 J-0.116
G1 X-26.751 Y-133.479 Z-1.926
G3 X-26.521 Y-133.482 Z-1.934 I0.116 J0.114
X-26.518 Y-133.252 Z-1.941 I-0.114 J0.116
G1 X-27.566 Y-132.179 Z-1.983
G3 X-27.796 Y-132.176 Z-1.99 I-0.117 J-0.113
X-27.799 Y-132.405 Z-1.997 I0.113 J-0.116
G1 X-26.751 Y-133.479 Z-2.039
G3 X-26.521 Y-133.482 Z-2.046 I0.116 J0.114
X-26.518 Y-133.252 Z-2.053 I-0.114 J0.116
G1 X-27.566 Y-132.179 Z-2.095
G3 X-27.796 Y-132.176 Z-2.102 I-0.117 J-0.113
X-27.799 Y-132.405 Z-2.109 I0.113 J-0.116
G1 X-26.751 Y-133.479 Z-2.151
G3 X-26.521 Y-133.482 Z-2.158 I0.116 J0.114
X-26.518 Y-133.252 Z-2.165 I-0.114 J0.116
G1 X-27.566 Y-132.179 Z-2.207
G3 X-27.796 Y-132.176 Z-2.214 I-0.117 J-0.113
X-27.799 Y-132.405 Z-2.222 I0.113 J-0.116
G1 X-26.751 Y-133.479 Z-2.264
G3 X-26.521 Y-133.482 Z-2.271 I0.116 J0.114
X-26.518 Y-133.252 Z-2.278 I-0.114 J0.116
G1 X-27.566 Y-132.179 Z-2.32
G3 X-27.796 Y-132.176 Z-2.327 I-0.117 J-0.113
X-27.799 Y-132.405 Z-2.334 I0.113 J-0.116
G1 X-26.751 Y-133.479 Z-2.376
G3 X-26.521 Y-133.482 Z-2.383 I0.116 J0.114
X-26.518 Y-133.252 Z-2.39 I-0.114 J0.116
G1 X-27.566 Y-132.179 Z-2.432
G3 X-27.796 Y-132.176 Z-2.439 I-0.117 J-0.113
X-27.799 Y-132.405 Z-2.446 I0.113 J-0.116
G1 X-26.751 Y-133.479 Z-2.488
G3 X-26.521 Y-133.482 Z-2.495 I0.116 J0.114
X-26.518 Y-133.252 Z-2.502 I-0.114 J0.116
G1 X-27.566 Y-132.179 Z-2.544
G3 X-27.796 Y-132.176 Z-2.552 I-0.117 J-0.113
X-27.799 Y-132.405 Z-2.559 I0.113 J-0.116
G1 X-26.751 Y-133.479 Z-2.601
G3 X-26.521 Y-133.482 Z-2.608 I0.116 J0.114
X-26.518 Y-133.252 Z-2.615 I-0.114 J0.116
G1 X-27.566 Y-132.179 Z-2.657
G3 X-27.796 Y-132.176 Z-2.664 I-0.117 J-0.113
X-27.799 Y-132.405 Z-2.671 I0.113 J-0.116
G1 X-26.751 Y-133.479 Z-2.713
G3 X-26.521 Y-133.482 Z-2.72 I0.116 J0.114
X-26.518 Y-133.252 Z-2.727 I-0.114 J0.116
G1 X-27.566 Y-132.179 Z-2.769
G3 X-27.796 Y-132.176 Z-2.776 I-0.117 J-0.113
X-27.799 Y-132.405 Z-2.783 I0.113 J-0.116
G1 X-26.751 Y-133.479 Z-2.825
G3 X-26.521 Y-133.482 Z-2.832 I0.116 J0.114
X-26.518 Y-133.252 Z-2.84 I-0.114 J0.116
G1 X-27.566 Y-132.179 Z-2.881
G3 X-27.796 Y-132.176 Z-2.889 I-0.117 J-0.113
X-27.799 Y-132.405 Z-2.896 I0.113 J-0.116
G1 X-26.751 Y-133.479 Z-2.938
G3 X-26.521 Y-133.482 Z-2.945 I0.116 J0.114
X-26.518 Y-133.252 Z-2.952 I-0.114 J0.116
G1 X-27.566 Y-132.179 Z-2.994
G3 X-27.796 Y-132.176 Z-3.001 I-0.117 J-0.113
X-27.799 Y-132.405 Z-3.008 I0.113 J-0.116
G1 X-26.751 Y-133.479 Z-3.05
G3 X-26.521 Y-133.482 Z-3.057 I0.116 J0.114
X-26.518 Y-133.252 Z-3.064 I-0.114 J0.116
G1 X-27.566 Y-132.179 Z-3.106
G3 X-27.796 Y-132.176 Z-3.113 I-0.117 J-0.113
X-27.799 Y-132.405 Z-3.12 I0.113 J-0.116
G1 X-26.751 Y-133.479 Z-3.162
G3 X-26.521 Y-133.482 Z-3.169 I0.116 J0.114
X-26.518 Y-133.252 Z-3.177 I-0.114 J0.116
G1 X-27.566 Y-132.179 Z-3.218
G3 X-27.796 Y-132.176 Z-3.226 I-0.117 J-0.113
X-27.799 Y-132.405 Z-3.233 I0.113 J-0.116
G1 X-26.751 Y-133.479 Z-3.275
G3 X-26.521 Y-133.482 Z-3.282 I0.116 J0.114
X-26.518 Y-133.252 Z-3.289 I-0.114 J0.116
G1 X-27.566 Y-132.179 Z-3.331
G3 X-27.796 Y-132.176 Z-3.338 I-0.117 J-0.113
X-27.799 Y-132.405 Z-3.345 I0.113 J-0.116
G1 X-26.751 Y-133.479 Z-3.387
G3 X-26.521 Y-133.482 Z-3.394 I0.116 J0.114
X-26.518 Y-133.252 Z-3.401 I-0.114 J0.116
G1 X-27.566 Y-132.179 Z-3.443
G3 X-27.796 Y-132.176 Z-3.45 I-0.117 J-0.113
X-27.799 Y-132.405 Z-3.457 I0.113 J-0.116
G1 X-26.751 Y-133.479 Z-3.499
G3 X-26.521 Y-133.482 Z-3.506 I0.116 J0.114
X-26.518 Y-133.252 Z-3.514 I-0.114 J0.116
G1 X-27.566 Y-132.179 Z-3.555
G3 X-27.796 Y-132.176 Z-3.563 I-0.117 J-0.113
X-27.799 Y-132.405 Z-3.57 I0.113 J-0.116
G1 X-26.751 Y-133.479 Z-3.612
G3 X-26.521 Y-133.482 Z-3.619 I0.116 J0.114
X-26.518 Y-133.252 Z-3.626 I-0.114 J0.116
G1 X-27.566 Y-132.179 Z-3.668
G3 X-27.796 Y-132.176 Z-3.675 I-0.117 J-0.113
X-27.799 Y-132.405 Z-3.682 I0.113 J-0.116
G1 X-26.751 Y-133.479 Z-3.724
G3 X-26.521 Y-133.482 Z-3.731 I0.116 J0.114
X-26.518 Y-133.252 Z-3.738 I-0.114 J0.116
G1 X-27.566 Y-132.179 Z-3.78
G3 X-27.796 Y-132.176 Z-3.787 I-0.117 J-0.113
X-27.799 Y-132.405 Z-3.794 I0.113 J-0.116
G1 X-26.751 Y-133.479 Z-3.836
G3 X-26.521 Y-133.482 Z-3.843 I0.116 J0.114
X-26.518 Y-133.252 Z-3.851 I-0.114 J0.116
G1 X-27.566 Y-132.179 Z-3.893
G3 X-27.796 Y-132.176 Z-3.9 I-0.117 J-0.113
X-27.799 Y-132.405 Z-3.907 I0.113 J-0.116
G1 X-26.751 Y-133.479 Z-3.949
G3 X-26.521 Y-133.482 Z-3.956 I0.116 J0.114
X-26.518 Y-133.252 Z-3.963 I-0.114 J0.116
G1 X-27.566 Y-132.179 Z-4.005
G3 X-27.796 Y-132.176 Z-4.012 I-0.117 J-0.113
X-27.799 Y-132.405 Z-4.019 I0.113 J-0.116
G1 X-26.751 Y-133.479 Z-4.061
G3 X-26.521 Y-133.482 Z-4.068 I0.116 J0.114
X-26.518 Y-133.252 Z-4.075 I-0.114 J0.116
G1 X-27.566 Y-132.179 Z-4.117
G3 X-27.796 Y-132.176 Z-4.124 I-0.117 J-0.113
X-27.799 Y-132.405 Z-4.131 I0.113 J-0.116
G1 X-26.751 Y-133.479 Z-4.173
G3 X-26.521 Y-133.482 Z-4.181 I0.116 J0.114
X-26.518 Y-133.252 Z-4.188 I-0.114 J0.116
G1 X-27.566 Y-132.179 Z-4.23
G3 X-27.796 Y-132.176 Z-4.237 I-0.117 J-0.113
X-27.799 Y-132.405 Z-4.244 I0.113 J-0.116
G1 X-26.751 Y-133.479 Z-4.286
G3 X-26.521 Y-133.482 Z-4.293 I0.116 J0.114
X-26.518 Y-133.252 Z-4.3 I-0.114 J0.116
S2000
G1 X-27.566 Y-132.179 F1000
G3 X-27.796 Y-132.176 I-0.117 J-0.113
X-27.799 Y-132.405 I0.113 J-0.116
G1 X-26.751 Y-133.479
G3 X-26.521 Y-133.482 I0.116 J0.114
X-26.518 Y-133.252 I-0.114 J0.116
G1 Z6
X-12.931 Y-133.494
Z3.5 F333.3
S5000
X-12.014 Y-132.598 Z3.464
G3 X-12.011 Y-132.369 Z3.457 I-0.113 J0.116
X-12.241 Y-132.366 Z3.45 I-0.116 J-0.113
G1 X-13.315 Y-133.413 Z3.408
G3 X-13.318 Y-133.643 Z3.401 I0.113 J-0.116
X-13.088 Y-133.646 Z3.394 I0.116 J0.114
G1 X-12.014 Y-132.598 Z3.352
G3 X-12.011 Y-132.369 Z3.345 I-0.113 J0.116
X-12.241 Y-132.366 Z3.338 I-0.116 J-0.113
G1 X-13.315 Y-133.413 Z3.296
G3 X-13.318 Y-133.643 Z3.289 I0.113 J-0.116
X-13.088 Y-133.646 Z3.281 I0.116 J0.114
G1 X-12.014 Y-132.598 Z3.24
G3 X-12.011 Y-132.369 Z3.232 I-0.113 J0.116
X-12.241 Y-132.366 Z3.225 I-0.116 J-0.113
G1 X-13.315 Y-133.413 Z3.183
G3 X-13.318 Y-133.643 Z3.176 I0.113 J-0.116
X-13.088 Y-133.646 Z3.169 I0.116 J0.114
G1 X-12.014 Y-132.598 Z3.127
G3 X-12.011 Y-132.369 Z3.12 I-0.113 J0.116
X-12.241 Y-132.366 Z3.113 I-0.116 J-0.113
G1 X-13.315 Y-133.413 Z3.071
G3 X-13.318 Y-133.643 Z3.064 I0.113 J-0.116
X-13.088 Y-133.646 Z3.057 I0.116 J0.114
G1 X-12.014 Y-132.598 Z3.015
G3 X-12.011 Y-132.369 Z3.008 I-0.113 J0.116
X-12.241 Y-132.366 Z3.001 I-0.116 J-0.113
G1 X-13.315 Y-133.413 Z2.959
G3 X-13.318 Y-133.643 Z2.952 I0.113 J-0.116
X-13.088 Y-133.646 Z2.945 I0.116 J0.114
G1 X-12.014 Y-132.598 Z2.903
G3 X-12.011 Y-132.369 Z2.895 I-0.113 J0.116
X-12.241 Y-132.366 Z2.888 I-0.116 J-0.113
G1 X-13.315 Y-133.413 Z2.846
G3 X-13.318 Y-133.643 Z2.839 I0.113 J-0.116
X-13.088 Y-133.646 Z2.832 I0.116 J0.114
G1 X-12.014 Y-132.598 Z2.79
G3 X-12.011 Y-132.369 Z2.783 I-0.113 J0.116
X-12.241 Y-132.366 Z2.776 I-0.116 J-0.113
G1 X-13.315 Y-133.413 Z2.734
G3 X-13.318 Y-133.643 Z2.727 I0.113 J-0.116
X-13.088 Y-133.646 Z2.72 I0.116 J0.114
G1 X-12.014 Y-132.598 Z2.678
G3 X-12.011 Y-132.369 Z2.671 I-0.113 J0.116
X-12.241 Y-132.366 Z2.664 I-0.116 J-0.113
G1 X-13.315 Y-133.413 Z2.622
G3 X-13.318 Y-133.643 Z2.615 I0.113 J-0.116
X-13.088 Y-133.646 Z2.608 I0.116 J0.114
G1 X-12.014 Y-132.598 Z2.566
G3 X-12.011 Y-132.369 Z2.559 I-0.113 J0.116
X-12.241 Y-132.366 Z2.551 I-0.116 J-0.113
G1 X-13.315 Y-133.413 Z2.51
G3 X-13.318 Y-133.643 Z2.502 I0.113 J-0.116
X-13.088 Y-133.646 Z2.495 I0.116 J0.114
G1 X-12.014 Y-132.598 Z2.453
G3 X-12.011 Y-132.369 Z2.446 I-0.113 J0.116
X-12.241 Y-132.366 Z2.439 I-0.116 J-0.113
G1 X-13.315 Y-133.413 Z2.397
G3 X-13.318 Y-133.643 Z2.39 I0.113 J-0.116
X-13.088 Y-133.646 Z2.383 I0.116 J0.114
G1 X-12.014 Y-132.598 Z2.341
G3 X-12.011 Y-132.369 Z2.334 I-0.113 J0.116
X-12.241 Y-132.366 Z2.327 I-0.116 J-0.113
G1 X-13.315 Y-133.413 Z2.285
G3 X-13.318 Y-133.643 Z2.278 I0.113 J-0.116
X-13.088 Y-133.646 Z2.271 I0.116 J0.114
G1 X-12.014 Y-132.598 Z2.229
G3 X-12.011 Y-132.369 Z2.222 I-0.113 J0.116
X-12.241 Y-132.366 Z2.214 I-0.116 J-0.113
G1 X-13.315 Y-133.413 Z2.173
G3 X-13.318 Y-133.643 Z2.165 I0.113 J-0.116
X-13.088 Y-133.646 Z2.158 I0.116 J0.114
G1 X-12.014 Y-132.598 Z2.116
G3 X-12.011 Y-132.369 Z2.109 I-0.113 J0.116
X-12.241 Y-132.366 Z2.102 I-0.116 J-0.113
G1 X-13.315 Y-133.413 Z2.06
G3 X-13.318 Y-133.643 Z2.053 I0.113 J-0.116
X-13.088 Y-133.646 Z2.046 I0.116 J0.114
G1 X-12.014 Y-132.598 Z2.004
G3 X-12.011 Y-132.369 Z1.997 I-0.113 J0.116
X-12.241 Y-132.366 Z1.99 I-0.116 J-0.113
G1 X-13.315 Y-133.413 Z1.948
G3 X-13.318 Y-133.643 Z1.941 I0.113 J-0.116
X-13.088 Y-133.646 Z1.934 I0.116 J0.114
G1 X-12.014 Y-132.598 Z1.892
G3 X-12.011 Y-132.369 Z1.885 I-0.113 J0.116
X-12.241 Y-132.366 Z1.878 I-0.116 J-0.113
G1 Z1.877
X-13.315 Y-133.413 Z1.836
G3 X-13.318 Y-133.643 Z1.828 I0.113 J-0.116
X-13.088 Y-133.646 Z1.821 I0.116 J0.114
G1 X-12.014 Y-132.598 Z1.779
G3 X-12.011 Y-132.369 Z1.772 I-0.113 J0.116
X-12.241 Y-132.366 Z1.765 I-0.116 J-0.113
G1 X-13.315 Y-133.413 Z1.723
G3 X-13.318 Y-133.643 Z1.716 I0.113 J-0.116
X-13.088 Y-133.646 Z1.709 I0.116 J0.114
G1 X-12.014 Y-132.598 Z1.667
G3 X-12.011 Y-132.369 Z1.66 I-0.113 J0.116
X-12.241 Y-132.366 Z1.653 I-0.116 J-0.113
G1 X-13.315 Y-133.413 Z1.611
G3 X-13.318 Y-133.643 Z1.604 I0.113 J-0.116
X-13.088 Y-133.646 Z1.597 I0.116 J0.114
G1 X-12.014 Y-132.598 Z1.555
G3 X-12.011 Y-132.369 Z1.548 I-0.113 J0.116
X-12.241 Y-132.366 Z1.541 I-0.116 J-0.113
G1 X-13.315 Y-133.413 Z1.499
G3 X-13.318 Y-133.643 Z1.492 I0.113 J-0.116
X-13.088 Y-133.646 Z1.484 I0.116 J0.114
G1 X-12.014 Y-132.598 Z1.442
G3 X-12.011 Y-132.369 Z1.435 I-0.113 J0.116
X-12.241 Y-132.366 Z1.428 I-0.116 J-0.113
G1 X-13.315 Y-133.413 Z1.386
G3 X-13.318 Y-133.643 Z1.379 I0.113 J-0.116
X-13.088 Y-133.646 Z1.372 I0.116 J0.114
G1 X-12.014 Y-132.598 Z1.33
G3 X-12.011 Y-132.369 Z1.323 I-0.113 J0.116
X-12.241 Y-132.366 Z1.316 I-0.116 J-0.113
G1 X-13.315 Y-133.413 Z1.274
G3 X-13.318 Y-133.643 Z1.267 I0.113 J-0.116
X-13.088 Y-133.646 Z1.26 I0.116 J0.114
G1 X-12.014 Y-132.598 Z1.218
G3 X-12.011 Y-132.369 Z1.211 I-0.113 J0.116
X-12.241 Y-132.366 Z1.204 I-0.116 J-0.113
G1 X-13.315 Y-133.413 Z1.162
G3 X-13.318 Y-133.643 Z1.155 I0.113 J-0.116
X-13.088 Y-133.646 Z1.147 I0.116 J0.114
G1 X-12.014 Y-132.598 Z1.106
G3 X-12.011 Y-132.369 Z1.098 I-0.113 J0.116
X-12.241 Y-132.366 Z1.091 I-0.116 J-0.113
G1 X-13.315 Y-133.413 Z1.049
G3 X-13.318 Y-133.643 Z1.042 I0.113 J-0.116
X-13.088 Y-133.646 Z1.035 I0.116 J0.114
G1 X-12.014 Y-132.598 Z0.993
G3 X-12.011 Y-132.369 Z0.986 I-0.113 J0.116
X-12.241 Y-132.366 Z0.979 I-0.116 J-0.113
G1 X-13.315 Y-133.413 Z0.937
G3 X-13.318 Y-133.643 Z0.93 I0.113 J-0.116
X-13.088 Y-133.646 Z0.923 I0.116 J0.114
G1 X-12.014 Y-132.598 Z0.881
G3 X-12.011 Y-132.369 Z0.874 I-0.113 J0.116
X-12.241 Y-132.366 Z0.867 I-0.116 J-0.113
G1 X-13.315 Y-133.413 Z0.825
G3 X-13.318 Y-133.643 Z0.818 I0.113 J-0.116
X-13.088 Y-133.646 Z0.81 I0.116 J0.114
G1 X-12.014 Y-132.598 Z0.769
G3 X-12.011 Y-132.369 Z0.761 I-0.113 J0.116
X-12.241 Y-132.366 Z0.754 I-0.116 J-0.113
G1 X-13.315 Y-133.413 Z0.712
G3 X-13.318 Y-133.643 Z0.705 I0.113 J-0.116
X-13.088 Y-133.646 Z0.698 I0.116 J0.114
G1 X-12.014 Y-132.598 Z0.656
G3 X-12.011 Y-132.369 Z0.649 I-0.113 J0.116
X-12.241 Y-132.366 Z0.642 I-0.116 J-0.113
G1 X-13.315 Y-133.413 Z0.6
G3 X-13.318 Y-133.643 Z0.593 I0.113 J-0.116
X-13.088 Y-133.646 Z0.586 I0.116 J0.114
G1 X-12.014 Y-132.598 Z0.544
G3 X-12.011 Y-132.369 Z0.537 I-0.113 J0.116
X-12.241 Y-132.366 Z0.53 I-0.116 J-0.113
G1 X-13.315 Y-133.413 Z0.488
G3 X-13.318 Y-133.643 Z0.481 I0.113 J-0.116
X-13.088 Y-133.646 Z0.474 I0.116 J0.114
G1 X-12.014 Y-132.598 Z0.432
G3 X-12.011 Y-132.369 Z0.424 I-0.113 J0.116
X-12.241 Y-132.366 Z0.417 I-0.116 J-0.113
G1 X-13.315 Y-133.413 Z0.375
G3 X-13.318 Y-133.643 Z0.368 I0.113 J-0.116
X-13.088 Y-133.646 Z0.361 I0.116 J0.114
G1 X-12.014 Y-132.598 Z0.319
G3 X-12.011 Y-132.369 Z0.312 I-0.113 J0.116
X-12.241 Y-132.366 Z0.305 I-0.116 J-0.113
G1 X-13.315 Y-133.413 Z0.263
G3 X-13.318 Y-133.643 Z0.256 I0.113 J-0.116
X-13.088 Y-133.646 Z0.249 I0.116 J0.114
G1 X-12.014 Y-132.598 Z0.207
G3 X-12.011 Y-132.369 Z0.2 I-0.113 J0.116
X-12.241 Y-132.366 Z0.193 I-0.116 J-0.113
G1 X-13.315 Y-133.413 Z0.151
G3 X-13.318 Y-133.643 Z0.144 I0.113 J-0.116
X-13.088 Y-133.646 Z0.137 I0.116 J0.114
G1 X-12.014 Y-132.598 Z0.095
G3 X-12.011 Y-132.369 Z0.088 I-0.113 J0.116
X-12.241 Y-132.366 Z0.08 I-0.116 J-0.113
G1 X-13.315 Y-133.413 Z0.039
G3 X-13.318 Y-133.643 Z0.031 I0.113 J-0.116
X-13.088 Y-133.646 Z0.024 I0.116 J0.114
G1 X-12.014 Y-132.598 Z-0.018
G3 X-12.011 Y-132.369 Z-0.025 I-0.113 J0.116
X-12.241 Y-132.366 Z-0.032 I-0.116 J-0.113
G1 X-13.315 Y-133.413 Z-0.074
G3 X-13.318 Y-133.643 Z-0.081 I0.113 J-0.116
X-13.088 Y-133.646 Z-0.088 I0.116 J0.114
G1 X-12.014 Y-132.598 Z-0.13
G3 X-12.011 Y-132.369 Z-0.137 I-0.113 J0.116
X-12.241 Y-132.366 Z-0.144 I-0.116 J-0.113
G1 X-13.315 Y-133.413 Z-0.186
G3 X-13.318 Y-133.643 Z-0.193 I0.113 J-0.116
X-13.088 Y-133.646 Z-0.2 I0.116 J0.114
G1 X-12.014 Y-132.598 Z-0.242
G3 X-12.011 Y-132.369 Z-0.249 I-0.113 J0.116
X-12.241 Y-132.366 Z-0.257 I-0.116 J-0.113
G1 X-13.315 Y-133.413 Z-0.298
G3 X-13.318 Y-133.643 Z-0.306 I0.113 J-0.116
X-13.088 Y-133.646 Z-0.313 I0.116 J0.114
G1 X-12.014 Y-132.598 Z-0.355
G3 X-12.011 Y-132.369 Z-0.362 I-0.113 J0.116
X-12.241 Y-132.366 Z-0.369 I-0.116 J-0.113
G1 X-13.315 Y-133.413 Z-0.411
G3 X-13.318 Y-133.643 Z-0.418 I0.113 J-0.116
X-13.088 Y-133.646 Z-0.425 I0.116 J0.114
G1 X-12.014 Y-132.598 Z-0.467
G3 X-12.011 Y-132.369 Z-0.474 I-0.113 J0.116
X-12.241 Y-132.366 Z-0.481 I-0.116 J-0.113
G1 X-13.315 Y-133.413 Z-0.523
G3 X-13.318 Y-133.643 Z-0.53 I0.113 J-0.116
X-13.088 Y-133.646 Z-0.537 I0.116 J0.114
G1 X-12.014 Y-132.598 Z-0.579
G3 X-12.011 Y-132.369 Z-0.586 I-0.113 J0.116
X-12.241 Y-132.366 Z-0.593 I-0.116 J-0.113
G1 Z-0.594
X-13.315 Y-133.413 Z-0.635
G3 X-13.318 Y-133.643 Z-0.643 I0.113 J-0.116
X-13.088 Y-133.646 Z-0.65 I0.116 J0.114
G1 X-12.014 Y-132.598 Z-0.692
G3 X-12.011 Y-132.369 Z-0.699 I-0.113 J0.116
X-12.241 Y-132.366 Z-0.706 I-0.116 J-0.113
G1 X-13.315 Y-133.413 Z-0.748
G3 X-13.318 Y-133.643 Z-0.755 I0.113 J-0.116
X-13.088 Y-133.646 Z-0.762 I0.116 J0.114
G1 X-12.014 Y-132.598 Z-0.804
G3 X-12.011 Y-132.369 Z-0.811 I-0.113 J0.116
X-12.241 Y-132.366 Z-0.818 I-0.116 J-0.113
G1 X-13.315 Y-133.413 Z-0.86
G3 X-13.318 Y-133.643 Z-0.867 I0.113 J-0.116
X-13.088 Y-133.646 Z-0.874 I0.116 J0.114
G1 X-12.014 Y-132.598 Z-0.916
G3 X-12.011 Y-132.369 Z-0.923 I-0.113 J0.116
X-12.241 Y-132.366 Z-0.93 I-0.116 J-0.113
G1 X-13.315 Y-133.413 Z-0.972
G3 X-13.318 Y-133.643 Z-0.979 I0.113 J-0.116
X-13.088 Y-133.646 Z-0.987 I0.116 J0.114
G1 X-12.014 Y-132.598 Z-1.029
G3 X-12.011 Y-132.369 Z-1.036 I-0.113 J0.116
X-12.241 Y-132.366 Z-1.043 I-0.116 J-0.113
G1 X-13.315 Y-133.413 Z-1.085
G3 X-13.318 Y-133.643 Z-1.092 I0.113 J-0.116
X-13.088 Y-133.646 Z-1.099 I0.116 J0.114
G1 X-12.014 Y-132.598 Z-1.141
G3 X-12.011 Y-132.369 Z-1.148 I-0.113 J0.116
X-12.241 Y-132.366 Z-1.155 I-0.116 J-0.113
G1 X-13.315 Y-133.413 Z-1.197
G3 X-13.318 Y-133.643 Z-1.204 I0.113 J-0.116
X-13.088 Y-133.646 Z-1.211 I0.116 J0.114
G1 X-12.014 Y-132.598 Z-1.253
G3 X-12.011 Y-132.369 Z-1.26 I-0.113 J0.116
X-12.241 Y-132.366 Z-1.267 I-0.116 J-0.113
G1 X-13.315 Y-133.413 Z-1.309
G3 X-13.318 Y-133.643 Z-1.316 I0.113 J-0.116
X-13.088 Y-133.646 Z-1.324 I0.116 J0.114
G1 X-12.014 Y-132.598 Z-1.365
G3 X-12.011 Y-132.369 Z-1.373 I-0.113 J0.116
X-12.241 Y-132.366 Z-1.38 I-0.116 J-0.113
G1 X-13.315 Y-133.413 Z-1.422
G3 X-13.318 Y-133.643 Z-1.429 I0.113 J-0.116
X-13.088 Y-133.646 Z-1.436 I0.116 J0.114
G1 X-12.014 Y-132.598 Z-1.478
G3 X-12.011 Y-132.369 Z-1.485 I-0.113 J0.116
X-12.241 Y-132.366 Z-1.492 I-0.116 J-0.113
G1 X-13.315 Y-133.413 Z-1.534
G3 X-13.318 Y-133.643 Z-1.541 I0.113 J-0.116
X-13.088 Y-133.646 Z-1.548 I0.116 J0.114
G1 X-12.014 Y-132.598 Z-1.59
G3 X-12.011 Y-132.369 Z-1.597 I-0.113 J0.116
X-12.241 Y-132.366 Z-1.604 I-0.116 J-0.113
G1 X-13.315 Y-133.413 Z-1.646
G3 X-13.318 Y-133.643 Z-1.653 I0.113 J-0.116
X-13.088 Y-133.646 Z-1.661 I0.116 J0.114
G1 X-12.014 Y-132.598 Z-1.702
G3 X-12.011 Y-132.369 Z-1.71 I-0.113 J0.116
X-12.241 Y-132.366 Z-1.717 I-0.116 J-0.113
G1 X-13.315 Y-133.413 Z-1.759
G3 X-13.318 Y-133.643 Z-1.766 I0.113 J-0.116
X-13.088 Y-133.646 Z-1.773 I0.116 J0.114
G1 X-12.014 Y-132.598 Z-1.815
G3 X-12.011 Y-132.369 Z-1.822 I-0.113 J0.116
X-12.241 Y-132.366 Z-1.829 I-0.116 J-0.113
G1 X-13.315 Y-133.413 Z-1.871
G3 X-13.318 Y-133.643 Z-1.878 I0.113 J-0.116
X-13.088 Y-133.646 Z-1.885 I0.116 J0.114
G1 X-12.014 Y-132.598 Z-1.927
G3 X-12.011 Y-132.369 Z-1.934 I-0.113 J0.116
X-12.241 Y-132.366 Z-1.941 I-0.116 J-0.113
G1 X-13.315 Y-133.413 Z-1.983
G3 X-13.318 Y-133.643 Z-1.99 I0.113 J-0.116
X-13.088 Y-133.646 Z-1.997 I0.116 J0.114
G1 X-12.014 Y-132.598 Z-2.039
G3 X-12.011 Y-132.369 Z-2.047 I-0.113 J0.116
X-12.241 Y-132.366 Z-2.054 I-0.116 J-0.113
G1 X-13.315 Y-133.413 Z-2.096
G3 X-13.318 Y-133.643 Z-2.103 I0.113 J-0.116
X-13.088 Y-133.646 Z-2.11 I0.116 J0.114
G1 X-12.014 Y-132.598 Z-2.152
G3 X-12.011 Y-132.369 Z-2.159 I-0.113 J0.116
X-12.241 Y-132.366 Z-2.166 I-0.116 J-0.113
G1 X-13.315 Y-133.413 Z-2.208
G3 X-13.318 Y-133.643 Z-2.215 I0.113 J-0.116
X-13.088 Y-133.646 Z-2.222 I0.116 J0.114
G1 X-12.014 Y-132.598 Z-2.264
G3 X-12.011 Y-132.369 Z-2.271 I-0.113 J0.116
X-12.241 Y-132.366 Z-2.278 I-0.116 J-0.113
G1 X-13.315 Y-133.413 Z-2.32
G3 X-13.318 Y-133.643 Z-2.327 I0.113 J-0.116
X-13.088 Y-133.646 Z-2.334 I0.116 J0.114
G1 X-12.014 Y-132.598 Z-2.376
G3 X-12.011 Y-132.369 Z-2.383 I-0.113 J0.116
X-12.241 Y-132.366 Z-2.391 I-0.116 J-0.113
G1 X-13.315 Y-133.413 Z-2.432
G3 X-13.318 Y-133.643 Z-2.44 I0.113 J-0.116
X-13.088 Y-133.646 Z-2.447 I0.116 J0.114
G1 X-12.014 Y-132.598 Z-2.489
G3 X-12.011 Y-132.369 Z-2.496 I-0.113 J0.116
X-12.241 Y-132.366 Z-2.503 I-0.116 J-0.113
G1 X-13.315 Y-133.413 Z-2.545
G3 X-13.318 Y-133.643 Z-2.552 I0.113 J-0.116
X-13.088 Y-133.646 Z-2.559 I0.116 J0.114
G1 X-12.014 Y-132.598 Z-2.601
G3 X-12.011 Y-132.369 Z-2.608 I-0.113 J0.116
X-12.241 Y-132.366 Z-2.615 I-0.116 J-0.113
G1 X-13.315 Y-133.413 Z-2.657
G3 X-13.318 Y-133.643 Z-2.664 I0.113 J-0.116
X-13.088 Y-133.646 Z-2.671 I0.116 J0.114
G1 X-12.014 Y-132.598 Z-2.713
G3 X-12.011 Y-132.369 Z-2.72 I-0.113 J0.116
X-12.241 Y-132.366 Z-2.728 I-0.116 J-0.113
G1 X-13.315 Y-133.413 Z-2.769
G3 X-13.318 Y-133.643 Z-2.777 I0.113 J-0.116
X-13.088 Y-133.646 Z-2.784 I0.116 J0.114
G1 X-12.014 Y-132.598 Z-2.826
G3 X-12.011 Y-132.369 Z-2.833 I-0.113 J0.116
X-12.241 Y-132.366 Z-2.84 I-0.116 J-0.113
G1 X-13.315 Y-133.413 Z-2.882
G3 X-13.318 Y-133.643 Z-2.889 I0.113 J-0.116
X-13.088 Y-133.646 Z-2.896 I0.116 J0.114
G1 X-12.014 Y-132.598 Z-2.938
G3 X-12.011 Y-132.369 Z-2.945 I-0.113 J0.116
X-12.241 Y-132.366 Z-2.952 I-0.116 J-0.113
G1 X-13.315 Y-133.413 Z-2.994
G3 X-13.318 Y-133.643 Z-3.001 I0.113 J-0.116
X-13.088 Y-133.646 Z-3.008 I0.116 J0.114
G1 X-12.014 Y-132.598 Z-3.05
G3 X-12.011 Y-132.369 Z-3.057 I-0.113 J0.116
X-12.241 Y-132.366 Z-3.064 I-0.116 J-0.113
G1 Z-3.065
X-13.315 Y-133.413 Z-3.106
G3 X-13.318 Y-133.643 Z-3.114 I0.113 J-0.116
X-13.088 Y-133.646 Z-3.121 I0.116 J0.114
G1 X-12.014 Y-132.598 Z-3.163
G3 X-12.011 Y-132.369 Z-3.17 I-0.113 J0.116
X-12.241 Y-132.366 Z-3.177 I-0.116 J-0.113
G1 X-13.315 Y-133.413 Z-3.219
G3 X-13.318 Y-133.643 Z-3.226 I0.113 J-0.116
X-13.088 Y-133.646 Z-3.233 I0.116 J0.114
G1 X-12.014 Y-132.598 Z-3.275
G3 X-12.011 Y-132.369 Z-3.282 I-0.113 J0.116
X-12.241 Y-132.366 Z-3.289 I-0.116 J-0.113
G1 X-13.315 Y-133.413 Z-3.331
G3 X-13.318 Y-133.643 Z-3.338 I0.113 J-0.116
X-13.088 Y-133.646 Z-3.345 I0.116 J0.114
G1 X-12.014 Y-132.598 Z-3.387
G3 X-12.011 Y-132.369 Z-3.394 I-0.113 J0.116
X-12.241 Y-132.366 Z-3.401 I-0.116 J-0.113
G1 X-13.315 Y-133.413 Z-3.443
G3 X-13.318 Y-133.643 Z-3.45 I0.113 J-0.116
X-13.088 Y-133.646 Z-3.458 I0.116 J0.114
G1 X-12.014 Y-132.598 Z-3.5
G3 X-12.011 Y-132.369 Z-3.507 I-0.113 J0.116
X-12.241 Y-132.366 Z-3.514 I-0.116 J-0.113
G1 X-13.315 Y-133.413 Z-3.556
G3 X-13.318 Y-133.643 Z-3.563 I0.113 J-0.116
X-13.088 Y-133.646 Z-3.57 I0.116 J0.114
G1 X-12.014 Y-132.598 Z-3.612
G3 X-12.011 Y-132.369 Z-3.619 I-0.113 J0.116
X-12.241 Y-132.366 Z-3.626 I-0.116 J-0.113
G1 X-13.315 Y-133.413 Z-3.668
G3 X-13.318 Y-133.643 Z-3.675 I0.113 J-0.116
X-13.088 Y-133.646 Z-3.682 I0.116 J0.114
G1 X-12.014 Y-132.598 Z-3.724
G3 X-12.011 Y-132.369 Z-3.731 I-0.113 J0.116
X-12.241 Y-132.366 Z-3.738 I-0.116 J-0.113
G1 X-13.315 Y-133.413 Z-3.78
G3 X-13.318 Y-133.643 Z-3.787 I0.113 J-0.116
X-13.088 Y-133.646 Z-3.795 I0.116 J0.114
G1 X-12.014 Y-132.598 Z-3.836
G3 X-12.011 Y-132.369 Z-3.844 I-0.113 J0.116
X-12.241 Y-132.366 Z-3.851 I-0.116 J-0.113
G1 X-13.315 Y-133.413 Z-3.893
G3 X-13.318 Y-133.643 Z-3.9 I0.113 J-0.116
X-13.088 Y-133.646 Z-3.907 I0.116 J0.114
G1 X-12.014 Y-132.598 Z-3.949
G3 X-12.011 Y-132.369 Z-3.956 I-0.113 J0.116
X-12.241 Y-132.366 Z-3.963 I-0.116 J-0.113
G1 X-13.315 Y-133.413 Z-4.005
G3 X-13.318 Y-133.643 Z-4.012 I0.113 J-0.116
X-13.088 Y-133.646 Z-4.019 I0.116 J0.114
G1 X-12.014 Y-132.598 Z-4.061
G3 X-12.011 Y-132.369 Z-4.068 I-0.113 J0.116
X-12.241 Y-132.366 Z-4.075 I-0.116 J-0.113
G1 X-13.315 Y-133.413 Z-4.117
G3 X-13.318 Y-133.643 Z-4.124 I0.113 J-0.116
X-13.088 Y-133.646 Z-4.132 I0.116 J0.114
G1 X-12.014 Y-132.598 Z-4.173
G3 X-12.011 Y-132.369 Z-4.181 I-0.113 J0.116
X-12.241 Y-132.366 Z-4.188 I-0.116 J-0.113
G1 X-13.315 Y-133.413 Z-4.23
G3 X-13.318 Y-133.643 Z-4.237 I0.113 J-0.116
X-13.088 Y-133.646 Z-4.244 I0.116 J0.114
G1 X-12.014 Y-132.598 Z-4.286
G3 X-12.011 Y-132.369 Z-4.293 I-0.113 J0.116
X-12.241 Y-132.366 Z-4.3 I-0.116 J-0.113
S2000
G1 X-13.315 Y-133.413 F1000
G3 X-13.318 Y-133.643 I0.113 J-0.116
X-13.088 Y-133.646 I0.116 J0.114
G1 X-12.014 Y-132.598
G3 X-12.011 Y-132.369 I-0.113 J0.116
X-12.241 Y-132.366 I-0.116 J-0.113
G1 Z6
X-12.301 Y-148.198
Z3.5 F333.3
S5000
G3 X-12.201 Y-147.924 Z3.49 I-0.016 J0.161
G1 X-13.248 Y-146.85 Z3.448
G3 X-13.481 Y-147.077 Z3.434 I-0.116 J-0.114
G1 X-12.434 Y-148.15 Z3.392
G3 X-12.204 Y-148.153 Z3.385 I0.117 J0.113
X-12.201 Y-147.924 Z3.378 I-0.113 J0.116
G1 X-13.248 Y-146.85 Z3.336
G3 X-13.481 Y-147.077 Z3.321 I-0.116 J-0.114
G1 X-12.434 Y-148.15 Z3.28
G3 X-12.204 Y-148.153 Z3.272 I0.117 J0.113
X-12.201 Y-147.924 Z3.265 I-0.113 J0.116
G1 X-13.248 Y-146.85 Z3.223
G3 X-13.481 Y-147.077 Z3.209 I-0.116 J-0.114
G1 X-12.434 Y-148.15 Z3.167
G3 X-12.204 Y-148.153 Z3.16 I0.117 J0.113
X-12.201 Y-147.924 Z3.153 I-0.113 J0.116
G1 X-13.248 Y-146.85 Z3.111
G3 X-13.481 Y-147.077 Z3.097 I-0.116 J-0.114
G1 X-12.434 Y-148.15 Z3.055
G3 X-12.204 Y-148.153 Z3.048 I0.117 J0.113
X-12.201 Y-147.924 Z3.041 I-0.113 J0.116
G1 X-13.248 Y-146.85 Z2.999
G3 X-13.481 Y-147.077 Z2.985 I-0.116 J-0.114
G1 X-12.434 Y-148.15 Z2.943
G3 X-12.204 Y-148.153 Z2.936 I0.117 J0.113
X-12.201 Y-147.924 Z2.928 I-0.113 J0.116
G1 X-13.248 Y-146.85 Z2.886
G3 X-13.481 Y-147.077 Z2.872 I-0.116 J-0.114
G1 X-12.434 Y-148.15 Z2.83
G3 X-12.204 Y-148.153 Z2.823 I0.117 J0.113
X-12.201 Y-147.924 Z2.816 I-0.113 J0.116
G1 X-13.248 Y-146.85 Z2.774
G3 X-13.481 Y-147.077 Z2.76 I-0.116 J-0.114
G1 X-12.434 Y-148.15 Z2.718
G3 X-12.204 Y-148.153 Z2.711 I0.117 J0.113
X-12.201 Y-147.924 Z2.704 I-0.113 J0.116
G1 X-13.248 Y-146.85 Z2.662
G3 X-13.481 Y-147.077 Z2.648 I-0.116 J-0.114
G1 X-12.434 Y-148.15 Z2.606
G3 X-12.204 Y-148.153 Z2.599 I0.117 J0.113
X-12.201 Y-147.924 Z2.592 I-0.113 J0.116
G1 X-13.248 Y-146.85 Z2.55
G3 X-13.481 Y-147.077 Z2.535 I-0.116 J-0.114
G1 X-12.434 Y-148.15 Z2.493
G3 X-12.204 Y-148.153 Z2.486 I0.117 J0.113
X-12.201 Y-147.924 Z2.479 I-0.113 J0.116
G1 X-13.248 Y-146.85 Z2.437
G3 X-13.481 Y-147.077 Z2.423 I-0.116 J-0.114
G1 X-12.434 Y-148.15 Z2.381
G3 X-12.204 Y-148.153 Z2.374 I0.117 J0.113
X-12.201 Y-147.924 Z2.367 I-0.113 J0.116
G1 X-13.248 Y-146.85 Z2.325
G3 X-13.481 Y-147.077 Z2.311 I-0.116 J-0.114
G1 X-12.434 Y-148.15 Z2.269
G3 X-12.204 Y-148.153 Z2.262 I0.117 J0.113
X-12.201 Y-147.924 Z2.255 I-0.113 J0.116
G1 X-13.248 Y-146.85 Z2.213
G3 X-13.481 Y-147.077 Z2.198 I-0.116 J-0.114
G1 X-12.434 Y-148.15 Z2.157
G3 X-12.204 Y-148.153 Z2.149 I0.117 J0.113
X-12.201 Y-147.924 Z2.142 I-0.113 J0.116
G1 X-13.248 Y-146.85 Z2.1
G3 X-13.481 Y-147.077 Z2.086 I-0.116 J-0.114
G1 X-12.434 Y-148.15 Z2.044
G3 X-12.204 Y-148.153 Z2.037 I0.117 J0.113
X-12.201 Y-147.924 Z2.03 I-0.113 J0.116
G1 X-13.248 Y-146.85 Z1.988
G3 X-13.481 Y-147.077 Z1.974 I-0.116 J-0.114
G1 X-12.434 Y-148.15 Z1.932
G3 X-12.204 Y-148.153 Z1.925 I0.117 J0.113
X-12.201 Y-147.924 Z1.918 I-0.113 J0.116
G1 X-13.248 Y-146.85 Z1.876
G3 X-13.481 Y-147.077 Z1.862 I-0.116 J-0.114
G1 X-12.434 Y-148.15 Z1.82
G3 X-12.204 Y-148.153 Z1.813 I0.117 J0.113
X-12.201 Y-147.924 Z1.805 I-0.113 J0.116
G1 X-13.248 Y-146.85 Z1.764
G3 X-13.481 Y-147.077 Z1.749 I-0.116 J-0.114
G1 X-12.434 Y-148.15 Z1.707
G3 X-12.204 Y-148.153 Z1.7 I0.117 J0.113
X-12.201 Y-147.924 Z1.693 I-0.113 J0.116
G1 X-13.248 Y-146.85 Z1.651
G3 X-13.481 Y-147.077 Z1.637 I-0.116 J-0.114
G1 X-12.434 Y-148.15 Z1.595
G3 X-12.204 Y-148.153 Z1.588 I0.117 J0.113
X-12.201 Y-147.924 Z1.581 I-0.113 J0.116
G1 X-13.248 Y-146.85 Z1.539
G3 X-13.481 Y-147.077 Z1.525 I-0.116 J-0.114
G1 X-12.434 Y-148.15 Z1.483
G3 X-12.204 Y-148.153 Z1.476 I0.117 J0.113
X-12.201 Y-147.924 Z1.469 I-0.113 J0.116
G1 X-13.248 Y-146.85 Z1.427
G3 X-13.481 Y-147.077 Z1.412 I-0.116 J-0.114
G1 X-12.434 Y-148.15 Z1.371
G3 X-12.204 Y-148.153 Z1.363 I0.117 J0.113
X-12.201 Y-147.924 Z1.356 I-0.113 J0.116
G1 X-13.248 Y-146.85 Z1.314
G3 X-13.481 Y-147.077 Z1.3 I-0.116 J-0.114
G1 X-12.434 Y-148.15 Z1.258
G3 X-12.204 Y-148.153 Z1.251 I0.117 J0.113
X-12.201 Y-147.924 Z1.244 I-0.113 J0.116
G1 X-13.248 Y-146.85 Z1.202
G3 X-13.481 Y-147.077 Z1.188 I-0.116 J-0.114
G1 X-12.434 Y-148.15 Z1.146
G3 X-12.204 Y-148.153 Z1.139 I0.117 J0.113
X-12.201 Y-147.924 Z1.132 I-0.113 J0.116
G1 X-13.248 Y-146.85 Z1.09
G3 X-13.481 Y-147.077 Z1.076 I-0.116 J-0.114
G1 X-12.434 Y-148.15 Z1.034
G3 X-12.204 Y-148.153 Z1.027 I0.117 J0.113
X-12.201 Y-147.924 Z1.019 I-0.113 J0.116
G1 X-13.248 Y-146.85 Z0.978
G3 X-13.481 Y-147.077 Z0.963 I-0.116 J-0.114
G1 X-12.434 Y-148.15 Z0.921
G3 X-12.204 Y-148.153 Z0.914 I0.117 J0.113
X-12.201 Y-147.924 Z0.907 I-0.113 J0.116
G1 X-13.248 Y-146.85 Z0.865
G3 X-13.481 Y-147.077 Z0.851 I-0.116 J-0.114
G1 X-12.434 Y-148.15 Z0.809
G3 X-12.204 Y-148.153 Z0.802 I0.117 J0.113
X-12.201 Y-147.924 Z0.795 I-0.113 J0.116
G1 X-13.248 Y-146.85 Z0.753
G3 X-13.481 Y-147.077 Z0.739 I-0.116 J-0.114
G1 X-12.434 Y-148.15 Z0.697
G3 X-12.204 Y-148.153 Z0.69 I0.117 J0.113
X-12.201 Y-147.924 Z0.683 I-0.113 J0.116
G1 X-13.248 Y-146.85 Z0.641
G3 X-13.481 Y-147.077 Z0.626 I-0.116 J-0.114
G1 X-12.434 Y-148.15 Z0.585
G3 X-12.204 Y-148.153 Z0.577 I0.117 J0.113
X-12.201 Y-147.924 Z0.57 I-0.113 J0.116
G1 X-13.248 Y-146.85 Z0.528
G3 X-13.481 Y-147.077 Z0.514 I-0.116 J-0.114
G1 X-12.434 Y-148.15 Z0.472
G3 X-12.204 Y-148.153 Z0.465 I0.117 J0.113
X-12.201 Y-147.924 Z0.458 I-0.113 J0.116
G1 X-13.248 Y-146.85 Z0.416
G3 X-13.481 Y-147.077 Z0.402 I-0.116 J-0.114
G1 X-12.434 Y-148.15 Z0.36
G3 X-12.204 Y-148.153 Z0.353 I0.117 J0.113
X-12.201 Y-147.924 Z0.346 I-0.113 J0.116
G1 X-13.248 Y-146.85 Z0.304
G3 X-13.481 Y-147.077 Z0.29 I-0.116 J-0.114
G1 X-12.434 Y-148.15 Z0.248
G3 X-12.204 Y-148.153 Z0.241 I0.117 J0.113
X-12.201 Y-147.924 Z0.233 I-0.113 J0.116
G1 X-13.248 Y-146.85 Z0.192
G3 X-13.481 Y-147.077 Z0.177 I-0.116 J-0.114
G1 X-12.434 Y-148.15 Z0.135
G3 X-12.204 Y-148.153 Z0.128 I0.117 J0.113
X-12.201 Y-147.924 Z0.121 I-0.113 J0.116
G1 X-13.248 Y-146.85 Z0.079
G3 X-13.481 Y-147.077 Z0.065 I-0.116 J-0.114
G1 X-12.434 Y-148.15 Z0.023
G3 X-12.204 Y-148.153 Z0.016 I0.117 J0.113
X-12.201 Y-147.924 Z0.009 I-0.113 J0.116
G1 X-13.248 Y-146.85 Z-0.033
G3 X-13.481 Y-147.077 Z-0.047 I-0.116 J-0.114
G1 X-12.434 Y-148.15 Z-0.089
G3 X-12.204 Y-148.153 Z-0.096 I0.117 J0.113
X-12.201 Y-147.924 Z-0.103 I-0.113 J0.116
G1 X-13.248 Y-146.85 Z-0.145
G3 X-13.481 Y-147.077 Z-0.16 I-0.116 J-0.114
G1 X-12.434 Y-148.15 Z-0.201
G3 X-12.204 Y-148.153 Z-0.209 I0.117 J0.113
X-12.201 Y-147.924 Z-0.216 I-0.113 J0.116
G1 X-13.248 Y-146.85 Z-0.258
G3 X-13.481 Y-147.077 Z-0.272 I-0.116 J-0.114
G1 X-12.434 Y-148.15 Z-0.314
G3 X-12.204 Y-148.153 Z-0.321 I0.117 J0.113
X-12.201 Y-147.924 Z-0.328 I-0.113 J0.116
G1 X-13.248 Y-146.85 Z-0.37
G3 X-13.481 Y-147.077 Z-0.384 I-0.116 J-0.114
G1 X-12.434 Y-148.15 Z-0.426
G3 X-12.204 Y-148.153 Z-0.433 I0.117 J0.113
X-12.201 Y-147.924 Z-0.44 I-0.113 J0.116
G1 X-13.248 Y-146.85 Z-0.482
G3 X-13.481 Y-147.077 Z-0.496 I-0.116 J-0.114
G1 X-12.434 Y-148.15 Z-0.538
G3 X-12.204 Y-148.153 Z-0.545 I0.117 J0.113
X-12.201 Y-147.924 Z-0.553 I-0.113 J0.116
G1 X-13.248 Y-146.85 Z-0.594
G3 X-13.481 Y-147.077 Z-0.609 I-0.116 J-0.114
G1 X-12.434 Y-148.15 Z-0.651
G3 X-12.204 Y-148.153 Z-0.658 I0.117 J0.113
X-12.201 Y-147.924 Z-0.665 I-0.113 J0.116
G1 X-13.248 Y-146.85 Z-0.707
G3 X-13.481 Y-147.077 Z-0.721 I-0.116 J-0.114
G1 X-12.434 Y-148.15 Z-0.763
G3 X-12.204 Y-148.153 Z-0.77 I0.117 J0.113
X-12.201 Y-147.924 Z-0.777 I-0.113 J0.116
G1 X-13.248 Y-146.85 Z-0.819
G3 X-13.481 Y-147.077 Z-0.833 I-0.116 J-0.114
G1 X-12.434 Y-148.15 Z-0.875
G3 X-12.204 Y-148.153 Z-0.882 I0.117 J0.113
X-12.201 Y-147.924 Z-0.889 I-0.113 J0.116
G1 X-13.248 Y-146.85 Z-0.931
G3 X-13.481 Y-147.077 Z-0.946 I-0.116 J-0.114
G1 X-12.434 Y-148.15 Z-0.987
G3 X-12.204 Y-148.153 Z-0.995 I0.117 J0.113
X-12.201 Y-147.924 Z-1.002 I-0.113 J0.116
G1 X-13.248 Y-146.85 Z-1.044
G3 X-13.481 Y-147.077 Z-1.058 I-0.116 J-0.114
G1 X-12.434 Y-148.15 Z-1.1
G3 X-12.204 Y-148.153 Z-1.107 I0.117 J0.113
X-12.201 Y-147.924 Z-1.114 I-0.113 J0.116
G1 X-13.248 Y-146.85 Z-1.156
G3 X-13.481 Y-147.077 Z-1.17 I-0.116 J-0.114
G1 X-12.434 Y-148.15 Z-1.212
G3 X-12.204 Y-148.153 Z-1.219 I0.117 J0.113
X-12.201 Y-147.924 Z-1.226 I-0.113 J0.116
G1 X-13.248 Y-146.85 Z-1.268
G3 X-13.481 Y-147.077 Z-1.282 I-0.116 J-0.114
G1 X-12.434 Y-148.15 Z-1.324
G3 X-12.204 Y-148.153 Z-1.331 I0.117 J0.113
X-12.201 Y-147.924 Z-1.339 I-0.113 J0.116
G1 X-13.248 Y-146.85 Z-1.38
G3 X-13.481 Y-147.077 Z-1.395 I-0.116 J-0.114
G1 X-12.434 Y-148.15 Z-1.437
G3 X-12.204 Y-148.153 Z-1.444 I0.117 J0.113
X-12.201 Y-147.924 Z-1.451 I-0.113 J0.116
G1 X-13.248 Y-146.85 Z-1.493
G3 X-13.481 Y-147.077 Z-1.507 I-0.116 J-0.114
G1 X-12.434 Y-148.15 Z-1.549
G3 X-12.204 Y-148.153 Z-1.556 I0.117 J0.113
X-12.201 Y-147.924 Z-1.563 I-0.113 J0.116
G1 X-13.248 Y-146.85 Z-1.605
G3 X-13.481 Y-147.077 Z-1.619 I-0.116 J-0.114
G1 X-12.434 Y-148.15 Z-1.661
G3 X-12.204 Y-148.153 Z-1.668 I0.117 J0.113
X-12.201 Y-147.924 Z-1.675 I-0.113 J0.116
G1 X-13.248 Y-146.85 Z-1.717
G3 X-13.481 Y-147.077 Z-1.732 I-0.116 J-0.114
G1 X-12.434 Y-148.15 Z-1.773
G3 X-12.204 Y-148.153 Z-1.781 I0.117 J0.113
X-12.201 Y-147.924 Z-1.788 I-0.113 J0.116
G1 X-13.248 Y-146.85 Z-1.83
G3 X-13.481 Y-147.077 Z-1.844 I-0.116 J-0.114
G1 X-12.434 Y-148.15 Z-1.886
G3 X-12.204 Y-148.153 Z-1.893 I0.117 J0.113
X-12.201 Y-147.924 Z-1.9 I-0.113 J0.116
G1 X-13.248 Y-146.85 Z-1.942
G3 X-13.481 Y-147.077 Z-1.956 I-0.116 J-0.114
G1 X-12.434 Y-148.15 Z-1.998
G3 X-12.204 Y-148.153 Z-2.005 I0.117 J0.113
X-12.201 Y-147.924 Z-2.012 I-0.113 J0.116
G1 X-13.248 Y-146.85 Z-2.054
G3 X-13.481 Y-147.077 Z-2.068 I-0.116 J-0.114
G1 X-12.434 Y-148.15 Z-2.11
G3 X-12.204 Y-148.153 Z-2.117 I0.117 J0.113
X-12.201 Y-147.924 Z-2.125 I-0.113 J0.116
G1 X-13.248 Y-146.85 Z-2.167
G3 X-13.481 Y-147.077 Z-2.181 I-0.116 J-0.114
G1 X-12.434 Y-148.15 Z-2.223
G3 X-12.204 Y-148.153 Z-2.23 I0.117 J0.113
X-12.201 Y-147.924 Z-2.237 I-0.113 J0.116
G1 X-13.248 Y-146.85 Z-2.279
G3 X-13.481 Y-147.077 Z-2.293 I-0.116 J-0.114
G1 X-12.434 Y-148.15 Z-2.335
G3 X-12.204 Y-148.153 Z-2.342 I0.117 J0.113
X-12.201 Y-147.924 Z-2.349 I-0.113 J0.116
G1 X-13.248 Y-146.85 Z-2.391
G3 X-13.481 Y-147.077 Z-2.405 I-0.116 J-0.114
G1 X-12.434 Y-148.15 Z-2.447
G3 X-12.204 Y-148.153 Z-2.454 I0.117 J0.113
X-12.201 Y-147.924 Z-2.461 I-0.113 J0.116
G1 X-13.248 Y-146.85 Z-2.503
G3 X-13.481 Y-147.077 Z-2.518 I-0.116 J-0.114
G1 X-12.434 Y-148.15 Z-2.56
G3 X-12.204 Y-148.153 Z-2.567 I0.117 J0.113
X-12.201 Y-147.924 Z-2.574 I-0.113 J0.116
G1 X-13.248 Y-146.85 Z-2.616
G3 X-13.481 Y-147.077 Z-2.63 I-0.116 J-0.114
G1 X-12.434 Y-148.15 Z-2.672
G3 X-12.204 Y-148.153 Z-2.679 I0.117 J0.113
X-12.201 Y-147.924 Z-2.686 I-0.113 J0.116
G1 X-13.248 Y-146.85 Z-2.728
G3 X-13.481 Y-147.077 Z-2.742 I-0.116 J-0.114
G1 X-12.434 Y-148.15 Z-2.784
G3 X-12.204 Y-148.153 Z-2.791 I0.117 J0.113
X-12.201 Y-147.924 Z-2.798 I-0.113 J0.116
G1 X-13.248 Y-146.85 Z-2.84
G3 X-13.481 Y-147.077 Z-2.855 I-0.116 J-0.114
G1 X-12.434 Y-148.15 Z-2.896
G3 X-12.204 Y-148.153 Z-2.904 I0.117 J0.113
X-12.201 Y-147.924 Z-2.911 I-0.113 J0.116
G1 X-13.248 Y-146.85 Z-2.953
G3 X-13.481 Y-147.077 Z-2.967 I-0.116 J-0.114
G1 X-12.434 Y-148.15 Z-3.009
G3 X-12.204 Y-148.153 Z-3.016 I0.117 J0.113
X-12.201 Y-147.924 Z-3.023 I-0.113 J0.116
G1 X-13.248 Y-146.85 Z-3.065
G3 X-13.481 Y-147.077 Z-3.079 I-0.116 J-0.114
G1 X-12.434 Y-148.15 Z-3.121
G3 X-12.204 Y-148.153 Z-3.128 I0.117 J0.113
X-12.201 Y-147.924 Z-3.135 I-0.113 J0.116
G1 X-13.248 Y-146.85 Z-3.177
G3 X-13.481 Y-147.077 Z-3.191 I-0.116 J-0.114
G1 X-12.434 Y-148.15 Z-3.233
G3 X-12.204 Y-148.153 Z-3.24 I0.117 J0.113
X-12.201 Y-147.924 Z-3.248 I-0.113 J0.116
G1 X-13.248 Y-146.85 Z-3.289
G3 X-13.481 Y-147.077 Z-3.304 I-0.116 J-0.114
G1 X-12.434 Y-148.15 Z-3.346
G3 X-12.204 Y-148.153 Z-3.353 I0.117 J0.113
X-12.201 Y-147.924 Z-3.36 I-0.113 J0.116
G1 X-13.248 Y-146.85 Z-3.402
G3 X-13.481 Y-147.077 Z-3.416 I-0.116 J-0.114
G1 X-12.434 Y-148.15 Z-3.458
G3 X-12.204 Y-148.153 Z-3.465 I0.117 J0.113
X-12.201 Y-147.924 Z-3.472 I-0.113 J0.116
G1 X-13.248 Y-146.85 Z-3.514
G3 X-13.481 Y-147.077 Z-3.528 I-0.116 J-0.114
G1 X-12.434 Y-148.15 Z-3.57
G3 X-12.204 Y-148.153 Z-3.577 I0.117 J0.113
X-12.201 Y-147.924 Z-3.584 I-0.113 J0.116
G1 X-13.248 Y-146.85 Z-3.626
G3 X-13.481 Y-147.077 Z-3.641 I-0.116 J-0.114
G1 X-12.434 Y-148.15 Z-3.682
G3 X-12.204 Y-148.153 Z-3.69 I0.117 J0.113
X-12.201 Y-147.924 Z-3.697 I-0.113 J0.116
G1 X-13.248 Y-146.85 Z-3.739
G3 X-13.481 Y-147.077 Z-3.753 I-0.116 J-0.114
G1 X-12.434 Y-148.15 Z-3.795
G3 X-12.204 Y-148.153 Z-3.802 I0.117 J0.113
X-12.201 Y-147.924 Z-3.809 I-0.113 J0.116
G1 X-13.248 Y-146.85 Z-3.851
G3 X-13.481 Y-147.077 Z-3.865 I-0.116 J-0.114
G1 X-12.434 Y-148.15 Z-3.907
G3 X-12.204 Y-148.153 Z-3.914 I0.117 J0.113
X-12.201 Y-147.924 Z-3.921 I-0.113 J0.116
G1 X-13.248 Y-146.85 Z-3.963
G3 X-13.481 Y-147.077 Z-3.977 I-0.116 J-0.114
G1 X-12.434 Y-148.15 Z-4.019
G3 X-12.204 Y-148.153 Z-4.026 I0.117 J0.113
X-12.201 Y-147.924 Z-4.034 I-0.113 J0.116
G1 X-13.248 Y-146.85 Z-4.075
G3 X-13.481 Y-147.077 Z-4.09 I-0.116 J-0.114
G1 X-12.434 Y-148.15 Z-4.132
G3 X-12.204 Y-148.153 Z-4.139 I0.117 J0.113
X-12.201 Y-147.924 Z-4.146 I-0.113 J0.116
G1 X-13.248 Y-146.85 Z-4.188
G3 X-13.481 Y-147.077 Z-4.202 I-0.116 J-0.114
G1 X-12.434 Y-148.15 Z-4.244
G3 X-12.204 Y-148.153 Z-4.251 I0.117 J0.113
X-12.201 Y-147.924 Z-4.258 I-0.113 J0.116
G1 X-13.248 Y-146.85 Z-4.3
S2000
G3 X-13.481 Y-147.077 I-0.116 J-0.114 F1000
G1 X-12.434 Y-148.15
G3 X-12.204 Y-148.153 I0.117 J0.113
X-12.201 Y-147.924 I-0.113 J0.116
G1 X-13.248 Y-146.85
Z6
X-27.873 Y-148.01
Z3.5 F333.3
S5000
X-27.832 Y-148.005 Z3.499
X-27.793 Y-147.989 Z3.498
X-27.759 Y-147.964 Z3.496
X-26.686 Y-146.916 Z3.455
G3 X-26.913 Y-146.683 Z3.44 I-0.114 J0.116
G1 X-27.986 Y-147.731 Z3.398
G3 X-27.759 Y-147.964 Z3.384 I0.114 J-0.116
G1 X-26.686 Y-146.916 Z3.342
G3 X-26.913 Y-146.683 Z3.328 I-0.114 J0.116
G1 X-27.986 Y-147.731 Z3.286
G3 X-27.759 Y-147.964 Z3.272 I0.114 J-0.116
G1 X-26.686 Y-146.916 Z3.23
G3 X-26.913 Y-146.683 Z3.216 I-0.114 J0.116
G1 X-27.986 Y-147.731 Z3.174
G3 X-27.759 Y-147.964 Z3.16 I0.114 J-0.116
G1 X-26.686 Y-146.916 Z3.118
G3 X-26.913 Y-146.683 Z3.103 I-0.114 J0.116
G1 X-27.986 Y-147.731 Z3.062
G3 X-27.759 Y-147.964 Z3.047 I0.114 J-0.116
G1 X-26.686 Y-146.916 Z3.005
G3 X-26.913 Y-146.683 Z2.991 I-0.114 J0.116
G1 X-27.986 Y-147.731 Z2.949
G3 X-27.759 Y-147.964 Z2.935 I0.114 J-0.116
G1 X-26.686 Y-146.916 Z2.893
G3 X-26.913 Y-146.683 Z2.879 I-0.114 J0.116
G1 X-27.986 Y-147.731 Z2.837
G3 X-27.759 Y-147.964 Z2.823 I0.114 J-0.116
G1 X-26.686 Y-146.916 Z2.781
G3 X-26.913 Y-146.683 Z2.767 I-0.114 J0.116
G1 X-27.986 Y-147.731 Z2.725
G3 X-27.759 Y-147.964 Z2.71 I0.114 J-0.116
G1 X-26.686 Y-146.916 Z2.669
G3 X-26.913 Y-146.683 Z2.654 I-0.114 J0.116
G1 X-27.986 Y-147.731 Z2.612
G3 X-27.759 Y-147.964 Z2.598 I0.114 J-0.116
G1 X-26.686 Y-146.916 Z2.556
G3 X-26.913 Y-146.683 Z2.542 I-0.114 J0.116
G1 X-27.986 Y-147.731 Z2.5
G3 X-27.759 Y-147.964 Z2.486 I0.114 J-0.116
G1 X-26.686 Y-146.916 Z2.444
G3 X-26.913 Y-146.683 Z2.43 I-0.114 J0.116
G1 X-27.986 Y-147.731 Z2.388
G3 X-27.759 Y-147.964 Z2.374 I0.114 J-0.116
G1 X-26.686 Y-146.916 Z2.332
G3 X-26.913 Y-146.683 Z2.318 I-0.114 J0.116
G1 X-27.986 Y-147.731 Z2.276
G3 X-27.759 Y-147.964 Z2.261 I0.114 J-0.116
G1 X-26.686 Y-146.916 Z2.219
G3 X-26.913 Y-146.683 Z2.205 I-0.114 J0.116
G1 X-27.986 Y-147.731 Z2.163
G3 X-27.759 Y-147.964 Z2.149 I0.114 J-0.116
G1 X-26.686 Y-146.916 Z2.107
G3 X-26.913 Y-146.683 Z2.093 I-0.114 J0.116
G1 X-27.986 Y-147.731 Z2.051
G3 X-27.759 Y-147.964 Z2.037 I0.114 J-0.116
G1 X-26.686 Y-146.916 Z1.995
G3 X-26.913 Y-146.683 Z1.981 I-0.114 J0.116
G1 X-27.986 Y-147.731 Z1.939
G3 X-27.759 Y-147.964 Z1.925 I0.114 J-0.116
G1 X-26.686 Y-146.916 Z1.883
G3 X-26.913 Y-146.683 Z1.868 I-0.114 J0.116
G1 X-27.986 Y-147.731 Z1.826
G3 X-27.759 Y-147.964 Z1.812 I0.114 J-0.116
G1 X-26.686 Y-146.916 Z1.77
G3 X-26.913 Y-146.683 Z1.756 I-0.114 J0.116
G1 X-27.986 Y-147.731 Z1.714
G3 X-27.759 Y-147.964 Z1.7 I0.114 J-0.116
G1 X-26.686 Y-146.916 Z1.658
G3 X-26.913 Y-146.683 Z1.644 I-0.114 J0.116
G1 X-27.986 Y-147.731 Z1.602
G3 X-27.759 Y-147.964 Z1.588 I0.114 J-0.116
G1 X-26.686 Y-146.916 Z1.546
G3 X-26.913 Y-146.683 Z1.532 I-0.114 J0.116
G1 X-27.986 Y-147.731 Z1.49
G3 X-27.759 Y-147.964 Z1.475 I0.114 J-0.116
G1 X-26.686 Y-146.916 Z1.434
G3 X-26.913 Y-146.683 Z1.419 I-0.114 J0.116
G1 X-27.986 Y-147.731 Z1.377
G3 X-27.759 Y-147.964 Z1.363 I0.114 J-0.116
G1 X-26.686 Y-146.916 Z1.321
G3 X-26.913 Y-146.683 Z1.307 I-0.114 J0.116
G1 X-27.986 Y-147.731 Z1.265
G3 X-27.759 Y-147.964 Z1.251 I0.114 J-0.116
G1 X-26.686 Y-146.916 Z1.209
G3 X-26.913 Y-146.683 Z1.195 I-0.114 J0.116
G1 X-27.986 Y-147.731 Z1.153
G3 X-27.759 Y-147.964 Z1.139 I0.114 J-0.116
G1 X-26.686 Y-146.916 Z1.097
G3 X-26.913 Y-146.683 Z1.082 I-0.114 J0.116
G1 X-27.986 Y-147.731 Z1.041
G3 X-27.759 Y-147.964 Z1.026 I0.114 J-0.116
G1 X-26.686 Y-146.916 Z0.984
G3 X-26.913 Y-146.683 Z0.97 I-0.114 J0.116
G1 X-27.986 Y-147.731 Z0.928
G3 X-27.759 Y-147.964 Z0.914 I0.114 J-0.116
G1 X-26.686 Y-146.916 Z0.872
G3 X-26.913 Y-146.683 Z0.858 I-0.114 J0.116
G1 X-27.986 Y-147.731 Z0.816
G3 X-27.759 Y-147.964 Z0.802 I0.114 J-0.116
G1 X-26.686 Y-146.916 Z0.76
G3 X-26.913 Y-146.683 Z0.746 I-0.114 J0.116
G1 X-27.986 Y-147.731 Z0.704
G3 X-27.759 Y-147.964 Z0.689 I0.114 J-0.116
G1 X-26.686 Y-146.916 Z0.648
G3 X-26.913 Y-146.683 Z0.633 I-0.114 J0.116
G1 X-27.986 Y-147.731 Z0.591
G3 X-27.759 Y-147.964 Z0.577 I0.114 J-0.116
G1 X-26.686 Y-146.916 Z0.535
G3 X-26.913 Y-146.683 Z0.521 I-0.114 J0.116
G1 X-27.986 Y-147.731 Z0.479
G3 X-27.759 Y-147.964 Z0.465 I0.114 J-0.116
G1 X-26.686 Y-146.916 Z0.423
G3 X-26.913 Y-146.683 Z0.409 I-0.114 J0.116
G1 X-27.986 Y-147.731 Z0.367
G3 X-27.759 Y-147.964 Z0.353 I0.114 J-0.116
G1 X-26.686 Y-146.916 Z0.311
G3 X-26.913 Y-146.683 Z0.296 I-0.114 J0.116
G1 X-27.986 Y-147.731 Z0.255
G3 X-27.759 Y-147.964 Z0.24 I0.114 J-0.116
G1 X-26.686 Y-146.916 Z0.198
G3 X-26.913 Y-146.683 Z0.184 I-0.114 J0.116
G1 X-27.986 Y-147.731 Z0.142
G3 X-27.759 Y-147.964 Z0.128 I0.114 J-0.116
G1 X-26.686 Y-146.916 Z0.086
G3 X-26.913 Y-146.683 Z0.072 I-0.114 J0.116
G1 X-27.986 Y-147.731 Z0.03
G3 X-27.759 Y-147.964 Z0.016 I0.114 J-0.116
G1 X-26.686 Y-146.916 Z-0.026
G3 X-26.913 Y-146.683 Z-0.04 I-0.114 J0.116
G1 X-27.986 Y-147.731 Z-0.082
G3 X-27.759 Y-147.964 Z-0.097 I0.114 J-0.116
G1 X-26.686 Y-146.916 Z-0.138
G3 X-26.913 Y-146.683 Z-0.153 I-0.114 J0.116
G1 X-27.986 Y-147.731 Z-0.195
G3 X-27.759 Y-147.964 Z-0.209 I0.114 J-0.116
G1 X-26.686 Y-146.916 Z-0.251
G3 X-26.913 Y-146.683 Z-0.265 I-0.114 J0.116
G1 X-27.986 Y-147.731 Z-0.307
G3 X-27.759 Y-147.964 Z-0.321 I0.114 J-0.116
G1 X-26.686 Y-146.916 Z-0.363
G3 X-26.913 Y-146.683 Z-0.377 I-0.114 J0.116
G1 X-27.986 Y-147.731 Z-0.419
G3 X-27.759 Y-147.964 Z-0.433 I0.114 J-0.116
G1 X-26.686 Y-146.916 Z-0.475
G3 X-26.913 Y-146.683 Z-0.49 I-0.114 J0.116
G1 X-27.986 Y-147.731 Z-0.531
G3 X-27.759 Y-147.964 Z-0.546 I0.114 J-0.116
G1 X-26.686 Y-146.916 Z-0.588
G3 X-26.913 Y-146.683 Z-0.602 I-0.114 J0.116
G1 X-27.986 Y-147.731 Z-0.644
G3 X-27.759 Y-147.964 Z-0.658 I0.114 J-0.116
G1 X-26.686 Y-146.916 Z-0.7
G3 X-26.913 Y-146.683 Z-0.714 I-0.114 J0.116
G1 X-27.986 Y-147.731 Z-0.756
G3 X-27.759 Y-147.964 Z-0.77 I0.114 J-0.116
G1 X-26.686 Y-146.916 Z-0.812
G3 X-26.913 Y-146.683 Z-0.826 I-0.114 J0.116
G1 X-27.986 Y-147.731 Z-0.868
G3 X-27.759 Y-147.964 Z-0.883 I0.114 J-0.116
G1 X-26.686 Y-146.916 Z-0.924
G3 X-26.913 Y-146.683 Z-0.939 I-0.114 J0.116
G1 X-27.986 Y-147.731 Z-0.981
G3 X-27.759 Y-147.964 Z-0.995 I0.114 J-0.116
G1 X-26.686 Y-146.916 Z-1.037
G3 X-26.913 Y-146.683 Z-1.051 I-0.114 J0.116
G1 X-27.986 Y-147.731 Z-1.093
G3 X-27.759 Y-147.964 Z-1.107 I0.114 J-0.116
G1 X-26.686 Y-146.916 Z-1.149
G3 X-26.913 Y-146.683 Z-1.163 I-0.114 J0.116
G1 X-27.986 Y-147.731 Z-1.205
G3 X-27.759 Y-147.964 Z-1.219 I0.114 J-0.116
G1 X-26.686 Y-146.916 Z-1.261
G3 X-26.913 Y-146.683 Z-1.276 I-0.114 J0.116
G1 X-27.986 Y-147.731 Z-1.317
G3 X-27.759 Y-147.964 Z-1.332 I0.114 J-0.116
G1 X-26.686 Y-146.916 Z-1.374
G3 X-26.913 Y-146.683 Z-1.388 I-0.114 J0.116
G1 X-27.986 Y-147.731 Z-1.43
G3 X-27.759 Y-147.964 Z-1.444 I0.114 J-0.116
G1 X-26.686 Y-146.916 Z-1.486
G3 X-26.913 Y-146.683 Z-1.5 I-0.114 J0.116
G1 X-27.986 Y-147.731 Z-1.542
G3 X-27.759 Y-147.964 Z-1.556 I0.114 J-0.116
G1 X-26.686 Y-146.916 Z-1.598
G3 X-26.913 Y-146.683 Z-1.612 I-0.114 J0.116
G1 X-27.986 Y-147.731 Z-1.654
G3 X-27.759 Y-147.964 Z-1.669 I0.114 J-0.116
G1 X-26.686 Y-146.916 Z-1.71
G3 X-26.913 Y-146.683 Z-1.725 I-0.114 J0.116
G1 X-27.986 Y-147.731 Z-1.767
G3 X-27.759 Y-147.964 Z-1.781 I0.114 J-0.116
G1 X-26.686 Y-146.916 Z-1.823
G3 X-26.913 Y-146.683 Z-1.837 I-0.114 J0.116
G1 X-27.986 Y-147.731 Z-1.879
G3 X-27.759 Y-147.964 Z-1.893 I0.114 J-0.116
G1 X-26.686 Y-146.916 Z-1.935
G3 X-26.913 Y-146.683 Z-1.949 I-0.114 J0.116
G1 X-27.986 Y-147.731 Z-1.991
G3 X-27.759 Y-147.964 Z-2.005 I0.114 J-0.116
G1 X-26.686 Y-146.916 Z-2.047
G3 X-26.913 Y-146.683 Z-2.061 I-0.114 J0.116
G1 X-27.986 Y-147.731 Z-2.103
G3 X-27.759 Y-147.964 Z-2.118 I0.114 J-0.116
G1 X-26.686 Y-146.916 Z-2.16
G3 X-26.913 Y-146.683 Z-2.174 I-0.114 J0.116
G1 X-27.986 Y-147.731 Z-2.216
G3 X-27.759 Y-147.964 Z-2.23 I0.114 J-0.116
G1 X-26.686 Y-146.916 Z-2.272
G3 X-26.913 Y-146.683 Z-2.286 I-0.114 J0.116
G1 X-27.986 Y-147.731 Z-2.328
G3 X-27.759 Y-147.964 Z-2.342 I0.114 J-0.116
G1 X-26.686 Y-146.916 Z-2.384
G3 X-26.913 Y-146.683 Z-2.398 I-0.114 J0.116
G1 X-27.986 Y-147.731 Z-2.44
G3 X-27.759 Y-147.964 Z-2.454 I0.114 J-0.116
G1 X-26.686 Y-146.916 Z-2.496
G3 X-26.913 Y-146.683 Z-2.511 I-0.114 J0.116
G1 X-27.986 Y-147.731 Z-2.553
G3 X-27.759 Y-147.964 Z-2.567 I0.114 J-0.116
G1 X-26.686 Y-146.916 Z-2.609
G3 X-26.913 Y-146.683 Z-2.623 I-0.114 J0.116
G1 X-27.986 Y-147.731 Z-2.665
G3 X-27.759 Y-147.964 Z-2.679 I0.114 J-0.116
G1 X-26.686 Y-146.916 Z-2.721
G3 X-26.913 Y-146.683 Z-2.735 I-0.114 J0.116
G1 X-27.986 Y-147.731 Z-2.777
G3 X-27.759 Y-147.964 Z-2.791 I0.114 J-0.116
G1 X-26.686 Y-146.916 Z-2.833
G3 X-26.913 Y-146.683 Z-2.847 I-0.114 J0.116
G1 X-27.986 Y-147.731 Z-2.889
G3 X-27.759 Y-147.964 Z-2.904 I0.114 J-0.116
G1 X-26.686 Y-146.916 Z-2.945
G3 X-26.913 Y-146.683 Z-2.96 I-0.114 J0.116
G1 X-27.986 Y-147.731 Z-3.002
G3 X-27.759 Y-147.964 Z-3.016 I0.114 J-0.116
G1 X-26.686 Y-146.916 Z-3.058
G3 X-26.913 Y-146.683 Z-3.072 I-0.114 J0.116
G1 X-27.986 Y-147.731 Z-3.114
G3 X-27.759 Y-147.964 Z-3.128 I0.114 J-0.116
G1 X-26.686 Y-146.916 Z-3.17
G3 X-26.913 Y-146.683 Z-3.184 I-0.114 J0.116
G1 X-27.986 Y-147.731 Z-3.226
G3 X-27.759 Y-147.964 Z-3.24 I0.114 J-0.116
G1 X-26.686 Y-146.916 Z-3.282
G3 X-26.913 Y-146.683 Z-3.297 I-0.114 J0.116
G1 X-27.986 Y-147.731 Z-3.338
G3 X-27.759 Y-147.964 Z-3.353 I0.114 J-0.116
G1 X-26.686 Y-146.916 Z-3.395
G3 X-26.913 Y-146.683 Z-3.409 I-0.114 J0.116
G1 X-27.986 Y-147.731 Z-3.451
G3 X-27.759 Y-147.964 Z-3.465 I0.114 J-0.116
G1 X-26.686 Y-146.916 Z-3.507
G3 X-26.913 Y-146.683 Z-3.521 I-0.114 J0.116
G1 X-27.986 Y-147.731 Z-3.563
G3 X-27.759 Y-147.964 Z-3.577 I0.114 J-0.116
G1 X-26.686 Y-146.916 Z-3.619
G3 X-26.913 Y-146.683 Z-3.633 I-0.114 J0.116
G1 X-27.986 Y-147.731 Z-3.675
G3 X-27.759 Y-147.964 Z-3.69 I0.114 J-0.116
G1 X-26.686 Y-146.916 Z-3.731
G3 X-26.913 Y-146.683 Z-3.746 I-0.114 J0.116
G1 X-27.986 Y-147.731 Z-3.788
G3 X-27.759 Y-147.964 Z-3.802 I0.114 J-0.116
G1 X-26.686 Y-146.916 Z-3.844
G3 X-26.913 Y-146.683 Z-3.858 I-0.114 J0.116
G1 X-27.986 Y-147.731 Z-3.9
G3 X-27.759 Y-147.964 Z-3.914 I0.114 J-0.116
G1 X-26.686 Y-146.916 Z-3.956
G3 X-26.913 Y-146.683 Z-3.97 I-0.114 J0.116
G1 X-27.986 Y-147.731 Z-4.012
G3 X-27.759 Y-147.964 Z-4.026 I0.114 J-0.116
G1 X-26.686 Y-146.916 Z-4.068
G3 X-26.913 Y-146.683 Z-4.083 I-0.114 J0.116
G1 X-27.986 Y-147.731 Z-4.124
G3 X-27.759 Y-147.964 Z-4.139 I0.114 J-0.116
G1 X-26.686 Y-146.916 Z-4.181
G3 X-26.913 Y-146.683 Z-4.195 I-0.114 J0.116
G1 X-27.986 Y-147.731 Z-4.237
G3 X-27.759 Y-147.964 Z-4.251 I0.114 J-0.116
G1 X-26.686 Y-146.916 Z-4.293
X-26.66 Y-146.883 Z-4.294
X-26.643 Y-146.844 Z-4.295
X-26.637 Y-146.802 Z-4.296
X-26.642 Y-146.76 Z-4.298
X-26.658 Y-146.72 Z-4.299
X-26.683 Y-146.686 Z-4.3
S2000
X-26.724 Y-146.656 F1000
X-26.772 Y-146.64
X-26.823 Y-146.639
X-26.871 Y-146.654
X-26.913 Y-146.683
X-27.986 Y-147.731
G3 X-27.759 Y-147.964 I0.114 J-0.116
G1 X-26.686 Y-146.916
X-26.66 Y-146.883
X-26.643 Y-146.844
X-26.637 Y-146.802
X-26.642 Y-146.76
X-26.658 Y-146.72
X-26.683 Y-146.686
Z16
(When using Fusion for Personal Use, the feedrate of rapid)
(moves is reduced to match the feedrate of cutting moves,)
(which can increase machining time. Unrestricted rapid moves)
(are available with a Fusion Subscription.)

(2D-Kontur4 2)
G0 X-9.852 Y-160.269
G1 Z15 F1000
Z5
Z0.635 F333.3
Z-0.983
X-9.851 Y-160.261 Z-1.053 F1000
X-9.849 Y-160.238 Z-1.12
X-9.845 Y-160.2 Z-1.18
X-9.84 Y-160.15 Z-1.231
X-9.835 Y-160.09 Z-1.269
X-9.829 Y-160.024 Z-1.292
X-9.822 Y-159.953 Z-1.3
X-9.792 Y-159.637
G3 X-10.079 Y-159.291 I-0.316 J0.03
G2 X-13.557 Y-157.631 I0.521 J5.563
G1 X-15.652 Y-155.484
G3 X-24.72 Y-155.373 I-4.589 J-4.478
G1 X-26.868 Y-157.468
G2 X-34.769 Y-157.372 I-3.902 J3.999
G1 X-37.563 Y-154.509
G2 X-37.466 Y-146.608 I3.999 J3.902
G1 X-35.319 Y-144.512
G3 X-35.208 Y-135.445 I-4.478 J4.589
G1 X-37.304 Y-133.297
G2 X-37.207 Y-125.396 I3.999 J3.902
G1 X-31.503 Y-119.83
X-31.363 Y-119.682
X-31.233 Y-119.526
X-31.097 Y-119.342
X-30.955 Y-119.125
X-30.808 Y-118.878
X-30.659 Y-118.601
X-30.509 Y-118.295
X-30.359 Y-117.961
X-30.209 Y-117.599
X-30.06 Y-117.211
X-29.912 Y-116.796
X-29.766 Y-116.357
X-29.622 Y-115.895
X-29.481 Y-115.41
X-29.343 Y-114.903
X-29.207 Y-114.376
X-29.074 Y-113.829
X-28.945 Y-113.263
X-28.818 Y-112.679
X-28.695 Y-112.078
X-28.576 Y-111.462
X-28.459 Y-110.83
X-28.346 Y-110.184
X-28.237 Y-109.525
X-28.131 Y-108.854
X-28.029 Y-108.175
X-27.834 Y-106.777
X-27.654 Y-105.348
X-27.488 Y-103.891
X-27.337 Y-102.414
X-27.199 Y-100.921
X-27.075 Y-99.417
X-26.965 Y-97.908
X-26.868 Y-96.397
X-26.785 Y-94.886
X-26.713 Y-93.376
X-26.654 Y-91.868
X-26.607 Y-90.361
X-26.57 Y-88.854
X-26.544 Y-87.343
X-26.527 Y-85.824
X-26.518 Y-84.293
Y-82.745
X-26.525 Y-81.175
X-26.537 Y-79.58
X-26.556 Y-77.956
X-26.579 Y-76.302
X-26.605 Y-74.615
X-26.636 Y-72.898
X-26.668 Y-71.149
X-26.703 Y-69.372
X-26.738 Y-67.567
X-26.775 Y-65.738
X-26.811 Y-63.886
X-26.847 Y-62.014
Y-62.013
X-26.881 Y-60.126
Y-60.125
X-26.914 Y-58.225
Y-58.222
X-26.972 Y-54.399
Y-54.394
X-27.018 Y-50.567
Y-50.562
X-27.034 Y-48.657
Y-48.653
X-27.046 Y-46.761
Y-46.757
X-27.053 Y-44.881
Y-44.876
X-27.055 Y-43.022
Y-43.017
X-27.051 Y-41.188
Y-41.183
X-27.041 Y-39.384
Y-39.378
X-27.025 Y-37.613
Y-37.608
X-27.014 Y-36.74
Y-36.736
X-27.002 Y-35.878
Y-35.874
X-26.988 Y-35.026
Y-35.023
X-26.972 Y-34.186
Y-34.182
X-26.954 Y-33.356
Y-33.352
X-26.935 Y-32.538
Y-32.534
X-26.913 Y-31.732
Y-31.727
X-26.89 Y-30.938
Y-30.933
X-26.865 Y-30.156
Y-30.152
X-26.838 Y-29.388
Y-29.383
X-26.809 Y-28.633
Y-28.627
X-26.778 Y-27.891
Y-27.885
X-26.745 Y-27.162
Y-27.157
X-26.711 Y-26.448
X-26.71 Y-26.442
X-26.674 Y-25.747
Y-25.741
X-26.635 Y-25.061
Y-25.055
X-26.594 Y-24.389
Y-24.382
X-26.557 Y-23.818
G2 X-26.426 Y-22.039 I7.982 J0.307
G1 X-25.922 Y-19.348
G3 X-24.49 Y-7.827 I-92.798 J17.387
G2 X-23.816 Y-6.625 I1.584 J-0.099
G1 X-20.69 Y-4.437
G2 X-18.479 Y-4.827 I0.911 J-1.3
G3 X-18.206 Y-4.651 I0.133 J0.093
G2 X-18.423 Y-3.831 I1.371 J0.801
G1 X-18.421 Y-3.654
G2 X-17.744 Y-2.374 I1.587 J-0.02
G1 X-15.741 Y-0.971
G2 X-13.53 Y-1.361 I0.911 J-1.3
G1 X-11.811 Y-3.816
G2 X-11.541 Y-4.954 I-1.3 J-0.911
G3 X-11.19 Y-11.936 I17.958 J-2.597
G1 X-11.189 Y-11.939
X-11.115 Y-12.238
X-11.044 Y-12.503
X-10.974 Y-12.749
X-10.903 Y-12.978
X-10.833 Y-13.191
X-10.764 Y-13.392
X-10.696 Y-13.585
X-10.627 Y-13.772
G2 X-10.285 Y-17.303 I-6.659 J-2.427
G3 X-10.598 Y-23.119 I28.066 J-4.424
G2 X-10.588 Y-23.469 I-7.978 J-0.391
G1 X-10.59 Y-23.55
X-10.644 Y-24.734
X-10.696 Y-25.905
X-10.746 Y-27.064
X-10.793 Y-28.212
X-10.839 Y-29.347
X-10.883 Y-30.471
X-10.924 Y-31.584
X-10.964 Y-32.685
X-11.002 Y-33.774
X-11.038 Y-34.853
X-11.072 Y-35.92
X-11.105 Y-36.976
X-11.135 Y-38.021
X-11.165 Y-39.056
X-11.193 Y-40.079
X-11.219 Y-41.092
X-11.244 Y-42.095
X-11.268 Y-43.087
X-11.29 Y-44.069
X-11.312 Y-45.041
X-11.351 Y-46.957
X-11.387 Y-48.833
X-11.421 Y-50.673
X-11.451 Y-52.478
X-11.48 Y-54.248
X-11.507 Y-55.985
X-11.534 Y-57.691
X-11.56 Y-59.367
X-11.587 Y-61.015
Y-61.016
X-11.614 Y-62.637
Y-62.638
X-11.642 Y-64.234
Y-64.236
X-11.671 Y-65.808
Y-65.81
X-11.702 Y-67.361
Y-67.363
X-11.733 Y-68.895
Y-68.897
X-11.767 Y-70.412
Y-70.414
X-11.802 Y-71.912
Y-71.914
X-11.838 Y-73.399
Y-73.4
X-11.876 Y-74.872
Y-74.874
X-11.954 Y-77.79
X-12.032 Y-80.68
X-12.102 Y-83.563
X-12.156 Y-86.462
X-12.172 Y-87.92
X-12.181 Y-89.389
X-12.18 Y-90.868
X-12.169 Y-92.358
X-12.145 Y-93.858
X-12.11 Y-95.366
X-12.06 Y-96.88
X-11.996 Y-98.397
X-11.918 Y-99.913
X-11.825 Y-101.423
X-11.716 Y-102.921
X-11.592 Y-104.403
X-11.452 Y-105.862
X-11.297 Y-107.293
X-11.215 Y-107.991
X-11.128 Y-108.682
X-11.038 Y-109.361
X-10.944 Y-110.029
X-10.846 Y-110.683
X-10.745 Y-111.324
X-10.641 Y-111.95
X-10.533 Y-112.561
X-10.422 Y-113.154
X-10.307 Y-113.731
X-10.19 Y-114.291
X-10.07 Y-114.829
X-9.946 Y-115.348
X-9.82 Y-115.846
X-9.691 Y-116.322
X-9.561 Y-116.775
X-9.428 Y-117.205
X-9.293 Y-117.61
X-9.158 Y-117.988
X-9.021 Y-118.341
X-8.884 Y-118.665
X-8.749 Y-118.961
X-8.614 Y-119.228
X-8.483 Y-119.464
X-8.357 Y-119.668
X-8.235 Y-119.843
X-8.125 Y-119.984
X-8.004 Y-120.116
X-2.438 Y-125.82
G2 X-2.534 Y-133.722 I-3.999 J-3.903
G1 X-4.681 Y-135.817
G3 X-4.792 Y-144.885 I4.479 J-4.589
G1 X-2.697 Y-147.032
G2 X-2.793 Y-154.933 I-3.999 J-3.902
G1 X-5.656 Y-157.727
G2 X-10.079 Y-159.291 I-3.903 J3.999
G3 X-10.425 Y-159.578 I-0.03 J-0.316
G1 X-10.454 Y-159.894
X-10.461 Y-159.964 Z-1.292
X-10.467 Y-160.031 Z-1.269
X-10.473 Y-160.091 Z-1.231
X-10.477 Y-160.141 Z-1.18
X-10.481 Y-160.179 Z-1.12
X-10.483 Y-160.202 Z-1.053
X-10.484 Y-160.21 Z-0.983
Z5
X-9.852 Y-160.269
Z-0.665 F333.3
Z-2.283
X-9.851 Y-160.261 Z-2.353 F1000
X-9.849 Y-160.238 Z-2.42
X-9.845 Y-160.2 Z-2.48
X-9.84 Y-160.15 Z-2.531
X-9.835 Y-160.09 Z-2.569
X-9.829 Y-160.024 Z-2.592
X-9.822 Y-159.953 Z-2.6
X-9.792 Y-159.637
G3 X-10.079 Y-159.291 I-0.316 J0.03
G2 X-13.557 Y-157.631 I0.521 J5.563
G1 X-15.652 Y-155.484
G3 X-24.72 Y-155.373 I-4.589 J-4.478
G1 X-26.868 Y-157.468
G2 X-34.769 Y-157.372 I-3.902 J3.999
G1 X-37.563 Y-154.509
G2 X-37.466 Y-146.608 I3.999 J3.902
G1 X-35.319 Y-144.512
G3 X-35.208 Y-135.445 I-4.478 J4.589
G1 X-37.304 Y-133.297
G2 X-37.207 Y-125.396 I3.999 J3.902
G1 X-31.503 Y-119.83
X-31.363 Y-119.682
X-31.233 Y-119.526
X-31.097 Y-119.342
X-30.955 Y-119.125
X-30.808 Y-118.878
X-30.659 Y-118.601
X-30.509 Y-118.295
X-30.359 Y-117.961
X-30.209 Y-117.599
X-30.06 Y-117.211
X-29.912 Y-116.796
X-29.766 Y-116.357
X-29.622 Y-115.895
X-29.481 Y-115.41
X-29.343 Y-114.903
X-29.207 Y-114.376
X-29.074 Y-113.829
X-28.945 Y-113.263
X-28.818 Y-112.679
X-28.695 Y-112.078
X-28.576 Y-111.462
X-28.459 Y-110.83
X-28.346 Y-110.184
X-28.237 Y-109.525
X-28.131 Y-108.854
X-28.029 Y-108.175
X-27.834 Y-106.777
X-27.654 Y-105.348
X-27.488 Y-103.891
X-27.337 Y-102.414
X-27.199 Y-100.921
X-27.075 Y-99.417
X-26.965 Y-97.908
X-26.868 Y-96.397
X-26.785 Y-94.886
X-26.713 Y-93.376
X-26.654 Y-91.868
X-26.607 Y-90.361
X-26.57 Y-88.854
X-26.544 Y-87.343
X-26.527 Y-85.824
X-26.518 Y-84.293
Y-82.745
X-26.525 Y-81.175
X-26.537 Y-79.58
X-26.556 Y-77.956
X-26.579 Y-76.302
X-26.605 Y-74.615
X-26.636 Y-72.898
X-26.668 Y-71.149
X-26.703 Y-69.372
X-26.738 Y-67.567
X-26.775 Y-65.738
X-26.811 Y-63.886
X-26.847 Y-62.014
Y-62.013
X-26.881 Y-60.126
Y-60.125
X-26.914 Y-58.225
Y-58.222
X-26.972 Y-54.399
Y-54.394
X-27.018 Y-50.567
Y-50.562
X-27.034 Y-48.657
Y-48.653
X-27.046 Y-46.761
Y-46.757
X-27.053 Y-44.881
Y-44.876
X-27.055 Y-43.022
Y-43.017
X-27.051 Y-41.188
Y-41.183
X-27.041 Y-39.384
Y-39.378
X-27.025 Y-37.613
Y-37.608
X-27.014 Y-36.74
Y-36.736
X-27.002 Y-35.878
Y-35.874
X-26.988 Y-35.026
Y-35.023
X-26.972 Y-34.186
Y-34.182
X-26.954 Y-33.356
Y-33.352
X-26.935 Y-32.538
Y-32.534
X-26.913 Y-31.732
Y-31.727
X-26.89 Y-30.938
Y-30.933
X-26.865 Y-30.156
Y-30.152
X-26.838 Y-29.388
Y-29.383
X-26.809 Y-28.633
Y-28.627
X-26.778 Y-27.891
Y-27.885
X-26.745 Y-27.162
Y-27.157
X-26.711 Y-26.448
X-26.71 Y-26.442
X-26.674 Y-25.747
Y-25.741
X-26.635 Y-25.061
Y-25.055
X-26.594 Y-24.389
Y-24.382
X-26.557 Y-23.818
G2 X-26.426 Y-22.039 I7.982 J0.307
G1 X-25.922 Y-19.348
G3 X-24.49 Y-7.827 I-92.798 J17.387
G2 X-23.816 Y-6.625 I1.584 J-0.099
G1 X-20.69 Y-4.437
G2 X-18.479 Y-4.827 I0.911 J-1.3
G3 X-18.206 Y-4.651 I0.133 J0.093
G2 X-18.423 Y-3.831 I1.371 J0.801
G1 X-18.421 Y-3.654
G2 X-17.744 Y-2.374 I1.587 J-0.02
G1 X-15.741 Y-0.971
G2 X-13.53 Y-1.361 I0.911 J-1.3
G1 X-11.811 Y-3.816
G2 X-11.541 Y-4.954 I-1.3 J-0.911
G3 X-11.19 Y-11.936 I17.958 J-2.597
G1 X-11.189 Y-11.939
X-11.115 Y-12.238
X-11.044 Y-12.503
X-10.974 Y-12.749
X-10.903 Y-12.978
X-10.833 Y-13.191
X-10.764 Y-13.392
X-10.696 Y-13.585
X-10.627 Y-13.772
G2 X-10.285 Y-17.303 I-6.659 J-2.427
G3 X-10.598 Y-23.119 I28.066 J-4.424
G2 X-10.588 Y-23.469 I-7.978 J-0.391
G1 X-10.59 Y-23.55
X-10.644 Y-24.734
X-10.696 Y-25.905
X-10.746 Y-27.064
X-10.793 Y-28.212
X-10.839 Y-29.347
X-10.883 Y-30.471
X-10.924 Y-31.584
X-10.964 Y-32.685
X-11.002 Y-33.774
X-11.038 Y-34.853
X-11.072 Y-35.92
X-11.105 Y-36.976
X-11.135 Y-38.021
X-11.165 Y-39.056
X-11.193 Y-40.079
X-11.219 Y-41.092
X-11.244 Y-42.095
X-11.268 Y-43.087
X-11.29 Y-44.069
X-11.312 Y-45.041
X-11.351 Y-46.957
X-11.387 Y-48.833
X-11.421 Y-50.673
X-11.451 Y-52.478
X-11.48 Y-54.248
X-11.507 Y-55.985
X-11.534 Y-57.691
X-11.56 Y-59.367
X-11.587 Y-61.015
Y-61.016
X-11.614 Y-62.637
Y-62.638
X-11.642 Y-64.234
Y-64.236
X-11.671 Y-65.808
Y-65.81
X-11.702 Y-67.361
Y-67.363
X-11.733 Y-68.895
Y-68.897
X-11.767 Y-70.412
Y-70.414
X-11.802 Y-71.912
Y-71.914
X-11.838 Y-73.399
Y-73.4
X-11.876 Y-74.872
Y-74.874
X-11.954 Y-77.79
X-12.032 Y-80.68
X-12.102 Y-83.563
X-12.156 Y-86.462
X-12.172 Y-87.92
X-12.181 Y-89.389
X-12.18 Y-90.868
X-12.169 Y-92.358
X-12.145 Y-93.858
X-12.11 Y-95.366
X-12.06 Y-96.88
X-11.996 Y-98.397
X-11.918 Y-99.913
X-11.825 Y-101.423
X-11.716 Y-102.921
X-11.592 Y-104.403
X-11.452 Y-105.862
X-11.297 Y-107.293
X-11.215 Y-107.991
X-11.128 Y-108.682
X-11.038 Y-109.361
X-10.944 Y-110.029
X-10.846 Y-110.683
X-10.745 Y-111.324
X-10.641 Y-111.95
X-10.533 Y-112.561
X-10.422 Y-113.154
X-10.307 Y-113.731
X-10.19 Y-114.291
X-10.07 Y-114.829
X-9.946 Y-115.348
X-9.82 Y-115.846
X-9.691 Y-116.322
X-9.561 Y-116.775
X-9.428 Y-117.205
X-9.293 Y-117.61
X-9.158 Y-117.988
X-9.021 Y-118.341
X-8.884 Y-118.665
X-8.749 Y-118.961
X-8.614 Y-119.228
X-8.483 Y-119.464
X-8.357 Y-119.668
X-8.235 Y-119.843
X-8.125 Y-119.984
X-8.004 Y-120.116
X-2.438 Y-125.82
G2 X-2.534 Y-133.722 I-3.999 J-3.903
G1 X-4.681 Y-135.817
G3 X-4.792 Y-144.885 I4.479 J-4.589
G1 X-2.697 Y-147.032
G2 X-2.793 Y-154.933 I-3.999 J-3.902
G1 X-5.656 Y-157.727
G2 X-10.079 Y-159.291 I-3.903 J3.999
G3 X-10.425 Y-159.578 I-0.03 J-0.316
G1 X-10.454 Y-159.894
X-10.461 Y-159.964 Z-2.592
X-10.467 Y-160.031 Z-2.569
X-10.473 Y-160.091 Z-2.531
X-10.477 Y-160.141 Z-2.48
X-10.481 Y-160.179 Z-2.42
X-10.483 Y-160.202 Z-2.353
X-10.484 Y-160.21 Z-2.283
Z5
X-9.852 Y-160.269
Z-1.965 F333.3
Z-3.583
X-9.851 Y-160.261 Z-3.653 F1000
X-9.849 Y-160.238 Z-3.72
X-9.845 Y-160.2 Z-3.78
X-9.84 Y-160.15 Z-3.831
X-9.835 Y-160.09 Z-3.869
X-9.829 Y-160.024 Z-3.892
X-9.822 Y-159.953 Z-3.9
X-9.792 Y-159.637
G3 X-10.079 Y-159.291 I-0.316 J0.03
G2 X-13.557 Y-157.631 I0.521 J5.563
G1 X-15.652 Y-155.484
G3 X-24.72 Y-155.373 I-4.589 J-4.478
G1 X-26.868 Y-157.468
G2 X-28.668 Y-158.646 I-3.902 J3.999
G1 Z-3.506
G2 X-34.769 Y-157.372 I-2.102 J5.177
G1 X-34.867 Y-157.271
Z-3.9 F333.3
X-37.563 Y-154.509 F1000
G2 X-37.466 Y-146.608 I3.999 J3.902
G1 X-35.319 Y-144.512
G3 X-35.208 Y-135.445 I-4.478 J4.589
G1 X-37.304 Y-133.297
G2 X-37.207 Y-125.396 I3.999 J3.902
G1 X-31.503 Y-119.83
X-31.363 Y-119.682
X-31.233 Y-119.526
X-31.097 Y-119.342
X-30.955 Y-119.125
X-30.808 Y-118.878
X-30.659 Y-118.601
X-30.509 Y-118.295
X-30.359 Y-117.961
X-30.209 Y-117.599
X-30.06 Y-117.211
X-29.912 Y-116.796
X-29.766 Y-116.357
X-29.622 Y-115.895
X-29.481 Y-115.41
X-29.343 Y-114.903
X-29.207 Y-114.376
X-29.074 Y-113.829
X-28.945 Y-113.263
X-28.818 Y-112.679
X-28.695 Y-112.078
X-28.576 Y-111.462
X-28.459 Y-110.83
X-28.346 Y-110.184
X-28.237 Y-109.525
X-28.131 Y-108.854
X-28.029 Y-108.175
X-27.834 Y-106.777
X-27.654 Y-105.348
X-27.488 Y-103.891
X-27.337 Y-102.414
X-27.199 Y-100.921
X-27.075 Y-99.417
X-26.965 Y-97.908
X-26.868 Y-96.397
X-26.785 Y-94.886
X-26.713 Y-93.376
X-26.654 Y-91.868
X-26.607 Y-90.361
X-26.57 Y-88.854
X-26.544 Y-87.343
X-26.527 Y-85.824
X-26.518 Y-84.293
Y-82.745
X-26.525 Y-81.175
X-26.537 Y-79.58
X-26.538 Y-79.517
Z-3.506
X-26.556 Y-77.956
X-26.579 Y-76.302
X-26.605 Y-74.615
X-26.631 Y-73.167
Z-3.9 F333.3
X-26.636 Y-72.898 F1000
X-26.668 Y-71.149
X-26.703 Y-69.372
X-26.738 Y-67.567
X-26.775 Y-65.738
X-26.811 Y-63.886
X-26.847 Y-62.014
Y-62.013
X-26.881 Y-60.126
Y-60.125
X-26.914 Y-58.225
Y-58.222
X-26.972 Y-54.399
Y-54.394
X-27.018 Y-50.567
Y-50.562
X-27.034 Y-48.657
Y-48.653
X-27.046 Y-46.761
Y-46.757
X-27.053 Y-44.881
Y-44.876
X-27.055 Y-43.022
Y-43.017
X-27.051 Y-41.188
Y-41.183
X-27.041 Y-39.384
Y-39.378
X-27.025 Y-37.613
Y-37.608
X-27.014 Y-36.74
Y-36.736
X-27.002 Y-35.878
Y-35.874
X-26.988 Y-35.026
Y-35.023
X-26.972 Y-34.186
Y-34.182
X-26.954 Y-33.356
Y-33.352
X-26.935 Y-32.538
Y-32.534
X-26.913 Y-31.732
Y-31.727
X-26.89 Y-30.938
Y-30.933
X-26.865 Y-30.156
Y-30.152
X-26.838 Y-29.388
Y-29.383
X-26.809 Y-28.633
Y-28.627
X-26.778 Y-27.891
Y-27.885
X-26.745 Y-27.162
Y-27.157
X-26.711 Y-26.448
X-26.71 Y-26.442
X-26.674 Y-25.747
Y-25.741
X-26.635 Y-25.061
Y-25.055
X-26.594 Y-24.389
Y-24.382
X-26.557 Y-23.818
G2 X-26.426 Y-22.039 I7.982 J0.307
G1 X-25.922 Y-19.348
G3 X-24.49 Y-7.827 I-92.798 J17.387
G2 X-23.816 Y-6.625 I1.584 J-0.099
G1 X-20.69 Y-4.437
G2 X-18.479 Y-4.827 I0.911 J-1.3
G3 X-18.206 Y-4.651 I0.133 J0.093
G2 X-18.423 Y-3.831 I1.371 J0.801
G1 X-18.421 Y-3.654
G2 X-17.744 Y-2.374 I1.587 J-0.02
G1 X-15.741 Y-0.971
G2 X-13.53 Y-1.361 I0.911 J-1.3
G1 X-11.811 Y-3.816
G2 X-11.541 Y-4.954 I-1.3 J-0.911
G3 X-11.691 Y-8.696 I17.958 J-2.597
G1 Z-3.506
G3 X-11.19 Y-11.936 I18.109 J1.146
G1 X-11.189 Y-11.939
X-11.115 Y-12.238
X-11.044 Y-12.503
X-10.974 Y-12.749
X-10.903 Y-12.978
X-10.833 Y-13.191
X-10.764 Y-13.392
X-10.696 Y-13.585
X-10.627 Y-13.772
G2 X-10.319 Y-14.898 I-6.659 J-2.427
G1 Z-3.9 F333.3
G2 X-10.285 Y-17.303 I-6.967 J-1.301 F1000
G3 X-10.598 Y-23.119 I28.066 J-4.424
G2 X-10.588 Y-23.469 I-7.978 J-0.391
G1 X-10.59 Y-23.55
X-10.644 Y-24.734
X-10.696 Y-25.905
X-10.746 Y-27.064
X-10.793 Y-28.212
X-10.839 Y-29.347
X-10.883 Y-30.471
X-10.924 Y-31.584
X-10.964 Y-32.685
X-11.002 Y-33.774
X-11.038 Y-34.853
X-11.072 Y-35.92
X-11.105 Y-36.976
X-11.135 Y-38.021
X-11.165 Y-39.056
X-11.193 Y-40.079
X-11.219 Y-41.092
X-11.244 Y-42.095
X-11.268 Y-43.087
X-11.29 Y-44.069
X-11.312 Y-45.041
X-11.351 Y-46.957
X-11.387 Y-48.833
X-11.421 Y-50.673
X-11.451 Y-52.478
X-11.48 Y-54.248
X-11.507 Y-55.985
X-11.534 Y-57.691
X-11.56 Y-59.367
X-11.587 Y-61.015
Y-61.016
X-11.614 Y-62.637
Y-62.638
X-11.642 Y-64.234
Y-64.236
X-11.671 Y-65.808
Y-65.81
X-11.702 Y-67.361
Y-67.363
X-11.733 Y-68.895
Y-68.897
X-11.767 Y-70.412
Y-70.414
X-11.802 Y-71.912
Y-71.914
X-11.838 Y-73.399
Y-73.4
X-11.876 Y-74.872
Y-74.874
X-11.954 Y-77.79
X-12.032 Y-80.68
X-12.102 Y-83.563
X-12.156 Y-86.462
X-12.172 Y-87.92
X-12.181 Y-89.389
X-12.18 Y-90.868
X-12.169 Y-92.358
X-12.145 Y-93.858
X-12.11 Y-95.366
X-12.06 Y-96.88
X-11.996 Y-98.397
X-11.932 Y-99.638
Z-3.506
X-11.918 Y-99.913
X-11.825 Y-101.423
X-11.716 Y-102.921
X-11.592 Y-104.403
X-11.452 Y-105.862
X-11.441 Y-105.969
Z-3.9 F333.3
X-11.297 Y-107.293 F1000
X-11.215 Y-107.991
X-11.128 Y-108.682
X-11.038 Y-109.361
X-10.944 Y-110.029
X-10.846 Y-110.683
X-10.745 Y-111.324
X-10.641 Y-111.95
X-10.533 Y-112.561
X-10.422 Y-113.154
X-10.307 Y-113.731
X-10.19 Y-114.291
X-10.07 Y-114.829
X-9.946 Y-115.348
X-9.82 Y-115.846
X-9.691 Y-116.322
X-9.561 Y-116.775
X-9.428 Y-117.205
X-9.293 Y-117.61
X-9.158 Y-117.988
X-9.021 Y-118.341
X-8.884 Y-118.665
X-8.749 Y-118.961
X-8.614 Y-119.228
X-8.483 Y-119.464
X-8.357 Y-119.668
X-8.235 Y-119.843
X-8.125 Y-119.984
X-8.004 Y-120.116
X-2.438 Y-125.82
G2 X-2.534 Y-133.722 I-3.999 J-3.903
G1 X-4.681 Y-135.817
G3 X-4.792 Y-144.885 I4.479 J-4.589
G1 X-2.697 Y-147.032
G2 X-2.793 Y-154.933 I-3.999 J-3.902
G1 X-5.656 Y-157.727
G2 X-10.079 Y-159.291 I-3.903 J3.999
G3 X-10.425 Y-159.578 I-0.03 J-0.316
G1 X-10.454 Y-159.894
X-10.461 Y-159.964 Z-3.892
X-10.467 Y-160.031 Z-3.869
X-10.473 Y-160.091 Z-3.831
X-10.477 Y-160.141 Z-3.78
X-10.481 Y-160.179 Z-3.72
X-10.483 Y-160.202 Z-3.653
X-10.484 Y-160.21 Z-3.583
Z5
X-9.852 Y-160.269
Z-3.265 F333.3
Z-3.983
X-9.851 Y-160.261 Z-4.053 F1000
X-9.849 Y-160.238 Z-4.12
X-9.845 Y-160.2 Z-4.18
X-9.84 Y-160.15 Z-4.231
X-9.835 Y-160.09 Z-4.269
X-9.829 Y-160.024 Z-4.292
X-9.822 Y-159.953 Z-4.3
X-9.792 Y-159.637
G3 X-10.079 Y-159.291 I-0.316 J0.03
G2 X-13.557 Y-157.631 I0.521 J5.563
G1 X-15.652 Y-155.484
G3 X-24.72 Y-155.373 I-4.589 J-4.478
G1 X-26.868 Y-157.468
G2 X-28.668 Y-158.646 I-3.902 J3.999
G1 Z-3.506
G2 X-34.769 Y-157.372 I-2.102 J5.177
G1 X-34.867 Y-157.271
Z-4.3 F333.3
X-37.563 Y-154.509 F1000
G2 X-37.466 Y-146.608 I3.999 J3.902
G1 X-35.319 Y-144.512
G3 X-35.208 Y-135.445 I-4.478 J4.589
G1 X-37.304 Y-133.297
G2 X-37.207 Y-125.396 I3.999 J3.902
G1 X-31.503 Y-119.83
X-31.363 Y-119.682
X-31.233 Y-119.526
X-31.097 Y-119.342
X-30.955 Y-119.125
X-30.808 Y-118.878
X-30.659 Y-118.601
X-30.509 Y-118.295
X-30.359 Y-117.961
X-30.209 Y-117.599
X-30.06 Y-117.211
X-29.912 Y-116.796
X-29.766 Y-116.357
X-29.622 Y-115.895
X-29.481 Y-115.41
X-29.343 Y-114.903
X-29.207 Y-114.376
X-29.074 Y-113.829
X-28.945 Y-113.263
X-28.818 Y-112.679
X-28.695 Y-112.078
X-28.576 Y-111.462
X-28.459 Y-110.83
X-28.346 Y-110.184
X-28.237 Y-109.525
X-28.131 Y-108.854
X-28.029 Y-108.175
X-27.834 Y-106.777
X-27.654 Y-105.348
X-27.488 Y-103.891
X-27.337 Y-102.414
X-27.199 Y-100.921
X-27.075 Y-99.417
X-26.965 Y-97.908
X-26.868 Y-96.397
X-26.785 Y-94.886
X-26.713 Y-93.376
X-26.654 Y-91.868
X-26.607 Y-90.361
X-26.57 Y-88.854
X-26.544 Y-87.343
X-26.527 Y-85.824
X-26.518 Y-84.293
Y-82.745
X-26.525 Y-81.175
X-26.537 Y-79.58
X-26.538 Y-79.517
Z-3.506
X-26.556 Y-77.956
X-26.579 Y-76.302
X-26.605 Y-74.615
X-26.631 Y-73.167
Z-4.3 F333.3
X-26.636 Y-72.898 F1000
X-26.668 Y-71.149
X-26.703 Y-69.372
X-26.738 Y-67.567
X-26.775 Y-65.738
X-26.811 Y-63.886
X-26.847 Y-62.014
Y-62.013
X-26.881 Y-60.126
Y-60.125
X-26.914 Y-58.225
Y-58.222
X-26.972 Y-54.399
Y-54.394
X-27.018 Y-50.567
Y-50.562
X-27.034 Y-48.657
Y-48.653
X-27.046 Y-46.761
Y-46.757
X-27.053 Y-44.881
Y-44.876
X-27.055 Y-43.022
Y-43.017
X-27.051 Y-41.188
Y-41.183
X-27.041 Y-39.384
Y-39.378
X-27.025 Y-37.613
Y-37.608
X-27.014 Y-36.74
Y-36.736
X-27.002 Y-35.878
Y-35.874
X-26.988 Y-35.026
Y-35.023
X-26.972 Y-34.186
Y-34.182
X-26.954 Y-33.356
Y-33.352
X-26.935 Y-32.538
Y-32.534
X-26.913 Y-31.732
Y-31.727
X-26.89 Y-30.938
Y-30.933
X-26.865 Y-30.156
Y-30.152
X-26.838 Y-29.388
Y-29.383
X-26.809 Y-28.633
Y-28.627
X-26.778 Y-27.891
Y-27.885
X-26.745 Y-27.162
Y-27.157
X-26.711 Y-26.448
X-26.71 Y-26.442
X-26.674 Y-25.747
Y-25.741
X-26.635 Y-25.061
Y-25.055
X-26.594 Y-24.389
Y-24.382
X-26.557 Y-23.818
G2 X-26.426 Y-22.039 I7.982 J0.307
G1 X-25.922 Y-19.348
G3 X-24.49 Y-7.827 I-92.798 J17.387
G2 X-23.816 Y-6.625 I1.584 J-0.099
G1 X-20.69 Y-4.437
G2 X-18.479 Y-4.827 I0.911 J-1.3
G3 X-18.206 Y-4.651 I0.133 J0.093
G2 X-18.423 Y-3.831 I1.371 J0.801
G1 X-18.421 Y-3.654
G2 X-17.744 Y-2.374 I1.587 J-0.02
G1 X-15.741 Y-0.971
G2 X-13.53 Y-1.361 I0.911 J-1.3
G1 X-11.811 Y-3.816
G2 X-11.541 Y-4.954 I-1.3 J-0.911
G3 X-11.691 Y-8.696 I17.958 J-2.597
G1 Z-3.506
G3 X-11.19 Y-11.936 I18.109 J1.146
G1 X-11.189 Y-11.939
X-11.115 Y-12.238
X-11.044 Y-12.503
X-10.974 Y-12.749
X-10.903 Y-12.978
X-10.833 Y-13.191
X-10.764 Y-13.392
X-10.696 Y-13.585
X-10.627 Y-13.772
G2 X-10.319 Y-14.898 I-6.659 J-2.427
G1 Z-4.3 F333.3
G2 X-10.285 Y-17.303 I-6.967 J-1.301 F1000
G3 X-10.598 Y-23.119 I28.066 J-4.424
G2 X-10.588 Y-23.469 I-7.978 J-0.391
G1 X-10.59 Y-23.55
X-10.644 Y-24.734
X-10.696 Y-25.905
X-10.746 Y-27.064
X-10.793 Y-28.212
X-10.839 Y-29.347
X-10.883 Y-30.471
X-10.924 Y-31.584
X-10.964 Y-32.685
X-11.002 Y-33.774
X-11.038 Y-34.853
X-11.072 Y-35.92
X-11.105 Y-36.976
X-11.135 Y-38.021
X-11.165 Y-39.056
X-11.193 Y-40.079
X-11.219 Y-41.092
X-11.244 Y-42.095
X-11.268 Y-43.087
X-11.29 Y-44.069
X-11.312 Y-45.041
X-11.351 Y-46.957
X-11.387 Y-48.833
X-11.421 Y-50.673
X-11.451 Y-52.478
X-11.48 Y-54.248
X-11.507 Y-55.985
X-11.534 Y-57.691
X-11.56 Y-59.367
X-11.587 Y-61.015
Y-61.016
X-11.614 Y-62.637
Y-62.638
X-11.642 Y-64.234
Y-64.236
X-11.671 Y-65.808
Y-65.81
X-11.702 Y-67.361
Y-67.363
X-11.733 Y-68.895
Y-68.897
X-11.767 Y-70.412
Y-70.414
X-11.802 Y-71.912
Y-71.914
X-11.838 Y-73.399
Y-73.4
X-11.876 Y-74.872
Y-74.874
X-11.954 Y-77.79
X-12.032 Y-80.68
X-12.102 Y-83.563
X-12.156 Y-86.462
X-12.172 Y-87.92
X-12.181 Y-89.389
X-12.18 Y-90.868
X-12.169 Y-92.358
X-12.145 Y-93.858
X-12.11 Y-95.366
X-12.06 Y-96.88
X-11.996 Y-98.397
X-11.932 Y-99.638
Z-3.506
X-11.918 Y-99.913
X-11.825 Y-101.423
X-11.716 Y-102.921
X-11.592 Y-104.403
X-11.452 Y-105.862
X-11.441 Y-105.969
Z-4.3 F333.3
X-11.297 Y-107.293 F1000
X-11.215 Y-107.991
X-11.128 Y-108.682
X-11.038 Y-109.361
X-10.944 Y-110.029
X-10.846 Y-110.683
X-10.745 Y-111.324
X-10.641 Y-111.95
X-10.533 Y-112.561
X-10.422 Y-113.154
X-10.307 Y-113.731
X-10.19 Y-114.291
X-10.07 Y-114.829
X-9.946 Y-115.348
X-9.82 Y-115.846
X-9.691 Y-116.322
X-9.561 Y-116.775
X-9.428 Y-117.205
X-9.293 Y-117.61
X-9.158 Y-117.988
X-9.021 Y-118.341
X-8.884 Y-118.665
X-8.749 Y-118.961
X-8.614 Y-119.228
X-8.483 Y-119.464
X-8.357 Y-119.668
X-8.235 Y-119.843
X-8.125 Y-119.984
X-8.004 Y-120.116
X-2.438 Y-125.82
G2 X-2.534 Y-133.722 I-3.999 J-3.903
G1 X-4.681 Y-135.817
G3 X-4.792 Y-144.885 I4.479 J-4.589
G1 X-2.697 Y-147.032
G2 X-2.793 Y-154.933 I-3.999 J-3.902
G1 X-5.656 Y-157.727
G2 X-10.079 Y-159.291 I-3.903 J3.999
G3 X-10.425 Y-159.578 I-0.03 J-0.316
G1 X-10.454 Y-159.894
X-10.461 Y-159.964 Z-4.292
X-10.467 Y-160.031 Z-4.269
X-10.473 Y-160.091 Z-4.231
X-10.477 Y-160.141 Z-4.18
X-10.481 Y-160.179 Z-4.12
X-10.483 Y-160.202 Z-4.053
X-10.484 Y-160.21 Z-3.983
Z15

M5
M30
