(Nico1)
(T5 D=3.175 CR=0 - ZMIN=-4.3 - Schaftfrser)
G90 G94
G17
G21
(-Attention- Property Safe Retracts is set to Clearance Height.)
(Ensure the clearance height will clear the part and or fixtures.)
(Raise the Z-axis to a safe height before starting the program.)
(When using Fusion for Personal Use, the feedrate of rapid)
(moves is reduced to match the feedrate of cutting moves,)
(which can increase machining time. Unrestricted rapid moves)
(are available with a Fusion Subscription.)

(Bohrfrsen4)
M0
(MANUAL TOOL CHANGE TO T5)
S2000 M3
G17 G90 G94
G54
G0 X-143.818 Y-17.397
Z15
G1 Z1.683 F1000
Z0
X-143.688 Y-17.306
X-143.666 Y-17.283
X-143.654 Y-17.254
X-143.655 Y-17.222
X-143.668 Y-17.193
G3 X-143.934 Y-17.38 Z-0.061 I-0.133 J-0.093
X-143.668 Y-17.193 Z-0.122 I0.133 J0.093
X-143.934 Y-17.38 Z-0.183 I-0.133 J-0.093
X-143.668 Y-17.193 Z-0.244 I0.133 J0.093
X-143.934 Y-17.38 Z-0.306 I-0.133 J-0.093
X-143.668 Y-17.193 Z-0.367 I0.133 J0.093
X-143.934 Y-17.38 Z-0.428 I-0.133 J-0.093
X-143.668 Y-17.193 Z-0.489 I0.133 J0.093
X-143.934 Y-17.38 Z-0.55 I-0.133 J-0.093
X-143.668 Y-17.193 Z-0.611 I0.133 J0.093
X-143.934 Y-17.38 Z-0.672 I-0.133 J-0.093
X-143.668 Y-17.193 Z-0.733 I0.133 J0.093
X-143.934 Y-17.38 Z-0.794 I-0.133 J-0.093
X-143.668 Y-17.193 Z-0.856 I0.133 J0.093
X-143.934 Y-17.38 Z-0.917 I-0.133 J-0.093
X-143.668 Y-17.193 Z-0.978 I0.133 J0.093
X-143.934 Y-17.38 Z-1.039 I-0.133 J-0.093
X-143.668 Y-17.193 Z-1.1 I0.133 J0.093
X-143.934 Y-17.38 Z-1.161 I-0.133 J-0.093
X-143.668 Y-17.193 Z-1.222 I0.133 J0.093
X-143.934 Y-17.38 Z-1.283 I-0.133 J-0.093
X-143.668 Y-17.193 Z-1.344 I0.133 J0.093
X-143.934 Y-17.38 Z-1.406 I-0.133 J-0.093
X-143.668 Y-17.193 Z-1.467 I0.133 J0.093
X-143.934 Y-17.38 Z-1.528 I-0.133 J-0.093
X-143.668 Y-17.193 Z-1.589 I0.133 J0.093
X-143.934 Y-17.38 Z-1.65 I-0.133 J-0.093
X-143.668 Y-17.193 Z-1.711 I0.133 J0.093
X-143.934 Y-17.38 Z-1.772 I-0.133 J-0.093
X-143.668 Y-17.193 Z-1.833 I0.133 J0.093
X-143.934 Y-17.38 Z-1.894 I-0.133 J-0.093
X-143.668 Y-17.193 Z-1.956 I0.133 J0.093
X-143.934 Y-17.38 Z-2.017 I-0.133 J-0.093
X-143.668 Y-17.193 Z-2.078 I0.133 J0.093
X-143.934 Y-17.38 Z-2.139 I-0.133 J-0.093
X-143.668 Y-17.193 Z-2.2 I0.133 J0.093
X-143.934 Y-17.38 Z-2.261 I-0.133 J-0.093
X-143.668 Y-17.193 Z-2.322 I0.133 J0.093
X-143.934 Y-17.38 Z-2.383 I-0.133 J-0.093
X-143.668 Y-17.193 Z-2.444 I0.133 J0.093
X-143.934 Y-17.38 Z-2.506 I-0.133 J-0.093
X-143.668 Y-17.193 Z-2.567 I0.133 J0.093
X-143.934 Y-17.38 Z-2.628 I-0.133 J-0.093
X-143.668 Y-17.193 Z-2.689 I0.133 J0.093
X-143.934 Y-17.38 Z-2.75 I-0.133 J-0.093
X-143.668 Y-17.193 Z-2.811 I0.133 J0.093
X-143.934 Y-17.38 Z-2.872 I-0.133 J-0.093
X-143.668 Y-17.193 Z-2.933 I0.133 J0.093
X-143.934 Y-17.38 Z-2.994 I-0.133 J-0.093
X-143.668 Y-17.193 Z-3.056 I0.133 J0.093
X-143.934 Y-17.38 Z-3.117 I-0.133 J-0.093
X-143.668 Y-17.193 Z-3.178 I0.133 J0.093
X-143.934 Y-17.38 Z-3.239 I-0.133 J-0.093
X-143.668 Y-17.193 Z-3.3 I0.133 J0.093
X-143.934 Y-17.38 Z-3.361 I-0.133 J-0.093
X-143.668 Y-17.193 Z-3.422 I0.133 J0.093
X-143.934 Y-17.38 Z-3.483 I-0.133 J-0.093
X-143.668 Y-17.193 Z-3.544 I0.133 J0.093
X-143.934 Y-17.38 Z-3.606 I-0.133 J-0.093
X-143.668 Y-17.193 Z-3.667 I0.133 J0.093
X-143.934 Y-17.38 Z-3.728 I-0.133 J-0.093
X-143.668 Y-17.193 Z-3.789 I0.133 J0.093
X-143.934 Y-17.38 Z-3.85 I-0.133 J-0.093
X-143.668 Y-17.193 Z-3.911 I0.133 J0.093
X-143.934 Y-17.38 Z-3.972 I-0.133 J-0.093
X-143.668 Y-17.193 Z-4.033 I0.133 J0.093
X-143.934 Y-17.38 Z-4.094 I-0.133 J-0.093
X-143.668 Y-17.193 Z-4.156 I0.133 J0.093
X-143.934 Y-17.38 Z-4.217 I-0.133 J-0.093
X-143.668 Y-17.193 Z-4.278 I0.133 J0.093
X-143.83 Y-17.127 Z-4.3 I-0.133 J-0.093
X-143.772 Y-17.446 I0.029 J-0.16
X-143.83 Y-17.127 I-0.029 J0.16
G1 X-143.86 Y-17.138
X-143.882 Y-17.16
X-143.895 Y-17.189
Y-17.221
X-143.867 Y-17.377
Z5
X-136.506 Y-18.686
Z1.683
Z0
X-136.376 Y-18.595
X-136.355 Y-18.573
X-136.343 Y-18.543
X-136.344 Y-18.511
X-136.356 Y-18.482
G3 X-136.623 Y-18.669 Z-0.061 I-0.133 J-0.093
X-136.356 Y-18.482 Z-0.122 I0.133 J0.093
X-136.623 Y-18.669 Z-0.183 I-0.133 J-0.093
X-136.356 Y-18.482 Z-0.244 I0.133 J0.093
X-136.623 Y-18.669 Z-0.306 I-0.133 J-0.093
X-136.356 Y-18.482 Z-0.367 I0.133 J0.093
X-136.623 Y-18.669 Z-0.428 I-0.133 J-0.093
X-136.356 Y-18.482 Z-0.489 I0.133 J0.093
X-136.623 Y-18.669 Z-0.55 I-0.133 J-0.093
X-136.356 Y-18.482 Z-0.611 I0.133 J0.093
X-136.623 Y-18.669 Z-0.672 I-0.133 J-0.093
X-136.356 Y-18.482 Z-0.733 I0.133 J0.093
X-136.623 Y-18.669 Z-0.794 I-0.133 J-0.093
X-136.356 Y-18.482 Z-0.856 I0.133 J0.093
X-136.623 Y-18.669 Z-0.917 I-0.133 J-0.093
X-136.356 Y-18.482 Z-0.978 I0.133 J0.093
X-136.623 Y-18.669 Z-1.039 I-0.133 J-0.093
X-136.356 Y-18.482 Z-1.1 I0.133 J0.093
X-136.623 Y-18.669 Z-1.161 I-0.133 J-0.093
X-136.356 Y-18.482 Z-1.222 I0.133 J0.093
X-136.623 Y-18.669 Z-1.283 I-0.133 J-0.093
X-136.356 Y-18.482 Z-1.344 I0.133 J0.093
X-136.623 Y-18.669 Z-1.406 I-0.133 J-0.093
X-136.356 Y-18.482 Z-1.467 I0.133 J0.093
X-136.623 Y-18.669 Z-1.528 I-0.133 J-0.093
X-136.356 Y-18.482 Z-1.589 I0.133 J0.093
X-136.623 Y-18.669 Z-1.65 I-0.133 J-0.093
X-136.356 Y-18.482 Z-1.711 I0.133 J0.093
X-136.623 Y-18.669 Z-1.772 I-0.133 J-0.093
X-136.356 Y-18.482 Z-1.833 I0.133 J0.093
X-136.623 Y-18.669 Z-1.894 I-0.133 J-0.093
X-136.356 Y-18.482 Z-1.956 I0.133 J0.093
X-136.623 Y-18.669 Z-2.017 I-0.133 J-0.093
X-136.356 Y-18.482 Z-2.078 I0.133 J0.093
X-136.623 Y-18.669 Z-2.139 I-0.133 J-0.093
X-136.356 Y-18.482 Z-2.2 I0.133 J0.093
X-136.623 Y-18.669 Z-2.261 I-0.133 J-0.093
X-136.356 Y-18.482 Z-2.322 I0.133 J0.093
X-136.623 Y-18.669 Z-2.383 I-0.133 J-0.093
X-136.356 Y-18.482 Z-2.444 I0.133 J0.093
X-136.623 Y-18.669 Z-2.506 I-0.133 J-0.093
X-136.356 Y-18.482 Z-2.567 I0.133 J0.093
X-136.623 Y-18.669 Z-2.628 I-0.133 J-0.093
X-136.356 Y-18.482 Z-2.689 I0.133 J0.093
X-136.623 Y-18.669 Z-2.75 I-0.133 J-0.093
X-136.356 Y-18.482 Z-2.811 I0.133 J0.093
X-136.623 Y-18.669 Z-2.872 I-0.133 J-0.093
X-136.356 Y-18.482 Z-2.933 I0.133 J0.093
X-136.623 Y-18.669 Z-2.994 I-0.133 J-0.093
X-136.356 Y-18.482 Z-3.056 I0.133 J0.093
X-136.623 Y-18.669 Z-3.117 I-0.133 J-0.093
X-136.356 Y-18.482 Z-3.178 I0.133 J0.093
X-136.623 Y-18.669 Z-3.239 I-0.133 J-0.093
X-136.356 Y-18.482 Z-3.3 I0.133 J0.093
X-136.623 Y-18.669 Z-3.361 I-0.133 J-0.093
X-136.356 Y-18.482 Z-3.422 I0.133 J0.093
X-136.623 Y-18.669 Z-3.483 I-0.133 J-0.093
X-136.356 Y-18.482 Z-3.544 I0.133 J0.093
X-136.623 Y-18.669 Z-3.606 I-0.133 J-0.093
X-136.356 Y-18.482 Z-3.667 I0.133 J0.093
X-136.623 Y-18.669 Z-3.728 I-0.133 J-0.093
X-136.356 Y-18.482 Z-3.789 I0.133 J0.093
X-136.623 Y-18.669 Z-3.85 I-0.133 J-0.093
X-136.356 Y-18.482 Z-3.911 I0.133 J0.093
X-136.623 Y-18.669 Z-3.972 I-0.133 J-0.093
X-136.356 Y-18.482 Z-4.033 I0.133 J0.093
X-136.623 Y-18.669 Z-4.094 I-0.133 J-0.093
X-136.356 Y-18.482 Z-4.156 I0.133 J0.093
X-136.623 Y-18.669 Z-4.217 I-0.133 J-0.093
X-136.356 Y-18.482 Z-4.278 I0.133 J0.093
X-136.519 Y-18.416 Z-4.3 I-0.133 J-0.093
X-136.46 Y-18.735 I0.029 J-0.16
X-136.519 Y-18.416 I-0.029 J0.16
G1 X-136.548 Y-18.427
X-136.571 Y-18.449
X-136.584 Y-18.479
Y-18.51
X-136.556 Y-18.666
Z5
X-17.918 Y-19.045
Z2
Z0.317
X-17.911 Y-19.04 Z0.247
X-17.892 Y-19.027 Z0.18
X-17.861 Y-19.005 Z0.12
X-17.82 Y-18.976 Z0.069
X-17.77 Y-18.942 Z0.031
X-17.715 Y-18.903 Z0.008
X-17.658 Y-18.863 Z0
X-17.528 Y-18.772
G3 X-17.45 Y-18.329 I-0.182 J0.26
X-22.221 Y-21.671 Z-0.157 I-2.386 J-1.671
X-17.45 Y-18.329 Z-0.314 I2.386 J1.671
X-22.221 Y-21.671 Z-0.471 I-2.386 J-1.671
X-17.45 Y-18.329 Z-0.629 I2.386 J1.671
X-22.221 Y-21.671 Z-0.786 I-2.386 J-1.671
X-17.45 Y-18.329 Z-0.943 I2.386 J1.671
X-22.221 Y-21.671 Z-1.1 I-2.386 J-1.671
X-17.45 Y-18.329 Z-1.257 I2.386 J1.671
X-22.221 Y-21.671 Z-1.414 I-2.386 J-1.671
X-17.45 Y-18.329 Z-1.571 I2.386 J1.671
X-22.221 Y-21.671 Z-1.729 I-2.386 J-1.671
X-17.45 Y-18.329 Z-1.886 I2.386 J1.671
X-22.221 Y-21.671 Z-2.043 I-2.386 J-1.671
X-17.45 Y-18.329 Z-2.2 I2.386 J1.671
X-22.221 Y-21.671 Z-2.357 I-2.386 J-1.671
X-17.45 Y-18.329 Z-2.514 I2.386 J1.671
X-22.221 Y-21.671 Z-2.671 I-2.386 J-1.671
X-17.45 Y-18.329 Z-2.829 I2.386 J1.671
X-22.221 Y-21.671 Z-2.986 I-2.386 J-1.671
X-17.45 Y-18.329 Z-3.143 I2.386 J1.671
X-22.221 Y-21.671 Z-3.3 I-2.386 J-1.671
X-17.45 Y-18.329 Z-3.457 I2.386 J1.671
X-22.221 Y-21.671 Z-3.614 I-2.386 J-1.671
X-17.45 Y-18.329 Z-3.771 I2.386 J1.671
X-22.221 Y-21.671 Z-3.929 I-2.386 J-1.671
X-17.45 Y-18.329 Z-4.086 I2.386 J1.671
X-22.221 Y-21.671 Z-4.243 I-2.386 J-1.671
X-19.308 Y-22.864 Z-4.3 I2.386 J1.671
X-20.363 Y-17.136 I-0.528 J2.864
X-19.308 Y-22.864 I0.528 J-2.864
X-19.053 Y-22.495 I-0.058 J0.312
G1 X-19.082 Y-22.338
X-19.095 Y-22.269 Z-4.292
X-19.107 Y-22.203 Z-4.269
X-19.118 Y-22.144 Z-4.231
X-19.127 Y-22.094 Z-4.18
X-19.134 Y-22.057 Z-4.12
X-19.138 Y-22.034 Z-4.053
X-19.139 Y-22.026 Z-3.983
Z15
(When using Fusion for Personal Use, the feedrate of rapid)
(moves is reduced to match the feedrate of cutting moves,)
(which can increase machining time. Unrestricted rapid moves)
(are available with a Fusion Subscription.)

(2D-Kontur3)
G0 Z16
X-27.471 Y-12.408
G1 Z6 F1000
Z3.5 F333.3
S5000
X-26.587 Y-13.314 Z3.465
G3 X-26.357 Y-13.317 Z3.457 I0.116 J0.113
X-26.354 Y-13.087 Z3.45 I-0.113 J0.116
G1 X-27.402 Y-12.014 Z3.408
G3 X-27.631 Y-12.011 Z3.401 I-0.116 J-0.113
X-27.634 Y-12.241 Z3.394 I0.113 J-0.116
G1 X-26.587 Y-13.314 Z3.352
G3 X-26.357 Y-13.317 Z3.345 I0.116 J0.113
X-26.354 Y-13.087 Z3.338 I-0.113 J0.116
G1 X-27.402 Y-12.014 Z3.296
G3 X-27.631 Y-12.011 Z3.289 I-0.116 J-0.113
X-27.634 Y-12.241 Z3.282 I0.113 J-0.116
G1 X-26.587 Y-13.314 Z3.24
G3 X-26.357 Y-13.317 Z3.233 I0.116 J0.113
X-26.354 Y-13.087 Z3.226 I-0.113 J0.116
G1 X-27.402 Y-12.014 Z3.184
G3 X-27.631 Y-12.011 Z3.177 I-0.116 J-0.113
X-27.634 Y-12.241 Z3.17 I0.113 J-0.116
G1 X-26.587 Y-13.314 Z3.128
G3 X-26.357 Y-13.317 Z3.121 I0.116 J0.113
X-26.354 Y-13.087 Z3.113 I-0.113 J0.116
G1 X-27.402 Y-12.014 Z3.071
G3 X-27.631 Y-12.011 Z3.064 I-0.116 J-0.113
X-27.634 Y-12.241 Z3.057 I0.113 J-0.116
G1 X-26.587 Y-13.314 Z3.015
G3 X-26.357 Y-13.317 Z3.008 I0.116 J0.113
X-26.354 Y-13.087 Z3.001 I-0.113 J0.116
G1 X-27.402 Y-12.014 Z2.959
G3 X-27.631 Y-12.011 Z2.952 I-0.116 J-0.113
X-27.634 Y-12.241 Z2.945 I0.113 J-0.116
G1 X-26.587 Y-13.314 Z2.903
G3 X-26.357 Y-13.317 Z2.896 I0.116 J0.113
X-26.354 Y-13.087 Z2.889 I-0.113 J0.116
G1 X-27.402 Y-12.014 Z2.847
G3 X-27.631 Y-12.011 Z2.84 I-0.116 J-0.113
X-27.634 Y-12.241 Z2.833 I0.113 J-0.116
G1 X-26.587 Y-13.314 Z2.791
G3 X-26.357 Y-13.317 Z2.784 I0.116 J0.113
X-26.354 Y-13.087 Z2.776 I-0.113 J0.116
G1 X-27.402 Y-12.014 Z2.735
G3 X-27.631 Y-12.011 Z2.727 I-0.116 J-0.113
X-27.634 Y-12.241 Z2.72 I0.113 J-0.116
G1 X-26.587 Y-13.314 Z2.678
G3 X-26.357 Y-13.317 Z2.671 I0.116 J0.113
X-26.354 Y-13.087 Z2.664 I-0.113 J0.116
G1 X-27.402 Y-12.014 Z2.622
G3 X-27.631 Y-12.011 Z2.615 I-0.116 J-0.113
X-27.634 Y-12.241 Z2.608 I0.113 J-0.116
G1 X-26.587 Y-13.314 Z2.566
G3 X-26.357 Y-13.317 Z2.559 I0.116 J0.113
X-26.354 Y-13.087 Z2.552 I-0.113 J0.116
G1 X-27.402 Y-12.014 Z2.51
G3 X-27.631 Y-12.011 Z2.503 I-0.116 J-0.113
X-27.634 Y-12.241 Z2.496 I0.113 J-0.116
G1 X-26.587 Y-13.314 Z2.454
G3 X-26.357 Y-13.317 Z2.447 I0.116 J0.113
X-26.354 Y-13.087 Z2.439 I-0.113 J0.116
G1 X-27.402 Y-12.014 Z2.398
G3 X-27.631 Y-12.011 Z2.39 I-0.116 J-0.113
X-27.634 Y-12.241 Z2.383 I0.113 J-0.116
G1 X-26.587 Y-13.314 Z2.341
G3 X-26.357 Y-13.317 Z2.334 I0.116 J0.113
X-26.354 Y-13.087 Z2.327 I-0.113 J0.116
G1 X-27.402 Y-12.014 Z2.285
G3 X-27.631 Y-12.011 Z2.278 I-0.116 J-0.113
X-27.634 Y-12.241 Z2.271 I0.113 J-0.116
G1 X-26.587 Y-13.314 Z2.229
G3 X-26.357 Y-13.317 Z2.222 I0.116 J0.113
X-26.354 Y-13.087 Z2.215 I-0.113 J0.116
G1 X-27.402 Y-12.014 Z2.173
G3 X-27.631 Y-12.011 Z2.166 I-0.116 J-0.113
X-27.634 Y-12.241 Z2.159 I0.113 J-0.116
G1 X-26.587 Y-13.314 Z2.117
G3 X-26.357 Y-13.317 Z2.11 I0.116 J0.113
X-26.354 Y-13.087 Z2.102 I-0.113 J0.116
G1 X-27.402 Y-12.014 Z2.061
G3 X-27.631 Y-12.011 Z2.053 I-0.116 J-0.113
X-27.634 Y-12.241 Z2.046 I0.113 J-0.116
G1 X-26.587 Y-13.314 Z2.004
G3 X-26.357 Y-13.317 Z1.997 I0.116 J0.113
X-26.354 Y-13.087 Z1.99 I-0.113 J0.116
G1 X-27.402 Y-12.014 Z1.948
G3 X-27.631 Y-12.011 Z1.941 I-0.116 J-0.113
X-27.634 Y-12.241 Z1.934 I0.113 J-0.116
G1 X-26.587 Y-13.314 Z1.892
G3 X-26.357 Y-13.317 Z1.885 I0.116 J0.113
X-26.354 Y-13.087 Z1.878 I-0.113 J0.116
G1 X-27.402 Y-12.014 Z1.836
G3 X-27.631 Y-12.011 Z1.829 I-0.116 J-0.113
X-27.634 Y-12.241 Z1.822 I0.113 J-0.116
G1 X-26.587 Y-13.314 Z1.78
G3 X-26.357 Y-13.317 Z1.773 I0.116 J0.113
X-26.354 Y-13.087 Z1.765 I-0.113 J0.116
G1 X-27.402 Y-12.014 Z1.724
G3 X-27.631 Y-12.011 Z1.716 I-0.116 J-0.113
X-27.634 Y-12.241 Z1.709 I0.113 J-0.116
G1 X-26.587 Y-13.314 Z1.667
G3 X-26.357 Y-13.317 Z1.66 I0.116 J0.113
X-26.354 Y-13.087 Z1.653 I-0.113 J0.116
G1 X-27.402 Y-12.014 Z1.611
G3 X-27.631 Y-12.011 Z1.604 I-0.116 J-0.113
X-27.634 Y-12.241 Z1.597 I0.113 J-0.116
G1 X-26.587 Y-13.314 Z1.555
G3 X-26.357 Y-13.317 Z1.548 I0.116 J0.113
X-26.354 Y-13.087 Z1.541 I-0.113 J0.116
G1 X-27.402 Y-12.014 Z1.499
G3 X-27.631 Y-12.011 Z1.492 I-0.116 J-0.113
X-27.634 Y-12.241 Z1.485 I0.113 J-0.116
G1 X-26.587 Y-13.314 Z1.443
G3 X-26.357 Y-13.317 Z1.436 I0.116 J0.113
X-26.354 Y-13.087 Z1.429 I-0.113 J0.116
G1 X-27.402 Y-12.014 Z1.387
G3 X-27.631 Y-12.011 Z1.379 I-0.116 J-0.113
X-27.634 Y-12.241 Z1.372 I0.113 J-0.116
G1 X-26.587 Y-13.314 Z1.33
G3 X-26.357 Y-13.317 Z1.323 I0.116 J0.113
X-26.354 Y-13.087 Z1.316 I-0.113 J0.116
G1 X-27.402 Y-12.014 Z1.274
G3 X-27.631 Y-12.011 Z1.267 I-0.116 J-0.113
X-27.634 Y-12.241 Z1.26 I0.113 J-0.116
G1 X-26.587 Y-13.314 Z1.218
G3 X-26.357 Y-13.317 Z1.211 I0.116 J0.113
X-26.354 Y-13.087 Z1.204 I-0.113 J0.116
G1 X-27.402 Y-12.014 Z1.162
G3 X-27.631 Y-12.011 Z1.155 I-0.116 J-0.113
X-27.634 Y-12.241 Z1.148 I0.113 J-0.116
G1 X-26.587 Y-13.314 Z1.106
G3 X-26.357 Y-13.317 Z1.099 I0.116 J0.113
X-26.354 Y-13.087 Z1.092 I-0.113 J0.116
G1 X-27.402 Y-12.014 Z1.05
G3 X-27.631 Y-12.011 Z1.043 I-0.116 J-0.113
X-27.634 Y-12.241 Z1.035 I0.113 J-0.116
G1 X-26.587 Y-13.314 Z0.993
G3 X-26.357 Y-13.317 Z0.986 I0.116 J0.113
X-26.354 Y-13.087 Z0.979 I-0.113 J0.116
G1 X-27.402 Y-12.014 Z0.937
G3 X-27.631 Y-12.011 Z0.93 I-0.116 J-0.113
X-27.634 Y-12.241 Z0.923 I0.113 J-0.116
G1 X-26.587 Y-13.314 Z0.881
G3 X-26.357 Y-13.317 Z0.874 I0.116 J0.113
X-26.354 Y-13.087 Z0.867 I-0.113 J0.116
G1 X-27.402 Y-12.014 Z0.825
G3 X-27.631 Y-12.011 Z0.818 I-0.116 J-0.113
X-27.634 Y-12.241 Z0.811 I0.113 J-0.116
G1 X-26.587 Y-13.314 Z0.769
G3 X-26.357 Y-13.317 Z0.762 I0.116 J0.113
X-26.354 Y-13.087 Z0.755 I-0.113 J0.116
G1 X-27.402 Y-12.014 Z0.713
G3 X-27.631 Y-12.011 Z0.706 I-0.116 J-0.113
X-27.634 Y-12.241 Z0.698 I0.113 J-0.116
G1 X-26.587 Y-13.314 Z0.657
G3 X-26.357 Y-13.317 Z0.649 I0.116 J0.113
X-26.354 Y-13.087 Z0.642 I-0.113 J0.116
G1 X-27.402 Y-12.014 Z0.6
G3 X-27.631 Y-12.011 Z0.593 I-0.116 J-0.113
X-27.634 Y-12.241 Z0.586 I0.113 J-0.116
G1 X-26.587 Y-13.314 Z0.544
G3 X-26.357 Y-13.317 Z0.537 I0.116 J0.113
X-26.354 Y-13.087 Z0.53 I-0.113 J0.116
G1 X-27.402 Y-12.014 Z0.488
G3 X-27.631 Y-12.011 Z0.481 I-0.116 J-0.113
X-27.634 Y-12.241 Z0.474 I0.113 J-0.116
G1 X-26.587 Y-13.314 Z0.432
G3 X-26.357 Y-13.317 Z0.425 I0.116 J0.113
X-26.354 Y-13.087 Z0.418 I-0.113 J0.116
G1 X-27.402 Y-12.014 Z0.376
G3 X-27.631 Y-12.011 Z0.369 I-0.116 J-0.113
X-27.634 Y-12.241 Z0.361 I0.113 J-0.116
G1 X-26.587 Y-13.314 Z0.32
G3 X-26.357 Y-13.317 Z0.312 I0.116 J0.113
X-26.354 Y-13.087 Z0.305 I-0.113 J0.116
G1 X-27.402 Y-12.014 Z0.263
G3 X-27.631 Y-12.011 Z0.256 I-0.116 J-0.113
X-27.634 Y-12.241 Z0.249 I0.113 J-0.116
G1 X-26.587 Y-13.314 Z0.207
G3 X-26.357 Y-13.317 Z0.2 I0.116 J0.113
X-26.354 Y-13.087 Z0.193 I-0.113 J0.116
G1 X-27.402 Y-12.014 Z0.151
G3 X-27.631 Y-12.011 Z0.144 I-0.116 J-0.113
X-27.634 Y-12.241 Z0.137 I0.113 J-0.116
G1 X-26.587 Y-13.314 Z0.095
G3 X-26.357 Y-13.317 Z0.088 I0.116 J0.113
X-26.354 Y-13.087 Z0.081 I-0.113 J0.116
G1 X-27.402 Y-12.014 Z0.039
G3 X-27.631 Y-12.011 Z0.032 I-0.116 J-0.113
X-27.634 Y-12.241 Z0.024 I0.113 J-0.116
G1 X-26.587 Y-13.314 Z-0.017
G3 X-26.357 Y-13.317 Z-0.025 I0.116 J0.113
X-26.354 Y-13.087 Z-0.032 I-0.113 J0.116
G1 X-27.402 Y-12.014 Z-0.074
G3 X-27.631 Y-12.011 Z-0.081 I-0.116 J-0.113
X-27.634 Y-12.241 Z-0.088 I0.113 J-0.116
G1 X-26.587 Y-13.314 Z-0.13
G3 X-26.357 Y-13.317 Z-0.137 I0.116 J0.113
X-26.354 Y-13.087 Z-0.144 I-0.113 J0.116
G1 X-27.402 Y-12.014 Z-0.186
G3 X-27.631 Y-12.011 Z-0.193 I-0.116 J-0.113
X-27.634 Y-12.241 Z-0.2 I0.113 J-0.116
G1 X-26.587 Y-13.314 Z-0.242
G3 X-26.357 Y-13.317 Z-0.249 I0.116 J0.113
X-26.354 Y-13.087 Z-0.256 I-0.113 J0.116
G1 X-27.402 Y-12.014 Z-0.298
G3 X-27.631 Y-12.011 Z-0.305 I-0.116 J-0.113
X-27.634 Y-12.241 Z-0.313 I0.113 J-0.116
G1 X-26.587 Y-13.314 Z-0.354
G3 X-26.357 Y-13.317 Z-0.362 I0.116 J0.113
X-26.354 Y-13.087 Z-0.369 I-0.113 J0.116
G1 X-27.402 Y-12.014 Z-0.411
G3 X-27.631 Y-12.011 Z-0.418 I-0.116 J-0.113
X-27.634 Y-12.241 Z-0.425 I0.113 J-0.116
G1 X-26.587 Y-13.314 Z-0.467
G3 X-26.357 Y-13.317 Z-0.474 I0.116 J0.113
X-26.354 Y-13.087 Z-0.481 I-0.113 J0.116
G1 X-27.402 Y-12.014 Z-0.523
G3 X-27.631 Y-12.011 Z-0.53 I-0.116 J-0.113
X-27.634 Y-12.241 Z-0.537 I0.113 J-0.116
G1 X-26.587 Y-13.314 Z-0.579
G3 X-26.357 Y-13.317 Z-0.586 I0.116 J0.113
X-26.354 Y-13.087 Z-0.593 I-0.113 J0.116
G1 X-27.402 Y-12.014 Z-0.635
G3 X-27.631 Y-12.011 Z-0.642 I-0.116 J-0.113
X-27.634 Y-12.241 Z-0.649 I0.113 J-0.116
G1 X-26.587 Y-13.314 Z-0.691
G3 X-26.357 Y-13.317 Z-0.699 I0.116 J0.113
X-26.354 Y-13.087 Z-0.706 I-0.113 J0.116
G1 X-27.402 Y-12.014 Z-0.748
G3 X-27.631 Y-12.011 Z-0.755 I-0.116 J-0.113
X-27.634 Y-12.241 Z-0.762 I0.113 J-0.116
G1 X-26.587 Y-13.314 Z-0.804
G3 X-26.357 Y-13.317 Z-0.811 I0.116 J0.113
X-26.354 Y-13.087 Z-0.818 I-0.113 J0.116
G1 X-27.402 Y-12.014 Z-0.86
G3 X-27.631 Y-12.011 Z-0.867 I-0.116 J-0.113
X-27.634 Y-12.241 Z-0.874 I0.113 J-0.116
G1 X-26.587 Y-13.314 Z-0.916
G3 X-26.357 Y-13.317 Z-0.923 I0.116 J0.113
X-26.354 Y-13.087 Z-0.93 I-0.113 J0.116
G1 X-27.402 Y-12.014 Z-0.972
G3 X-27.631 Y-12.011 Z-0.979 I-0.116 J-0.113
X-27.634 Y-12.241 Z-0.986 I0.113 J-0.116
G1 X-26.587 Y-13.314 Z-1.028
G3 X-26.357 Y-13.317 Z-1.035 I0.116 J0.113
X-26.354 Y-13.087 Z-1.043 I-0.113 J0.116
G1 X-27.402 Y-12.014 Z-1.085
G3 X-27.631 Y-12.011 Z-1.092 I-0.116 J-0.113
X-27.634 Y-12.241 Z-1.099 I0.113 J-0.116
G1 X-26.587 Y-13.314 Z-1.141
G3 X-26.357 Y-13.317 Z-1.148 I0.116 J0.113
X-26.354 Y-13.087 Z-1.155 I-0.113 J0.116
G1 X-27.402 Y-12.014 Z-1.197
G3 X-27.631 Y-12.011 Z-1.204 I-0.116 J-0.113
X-27.634 Y-12.241 Z-1.211 I0.113 J-0.116
G1 X-26.587 Y-13.314 Z-1.253
G3 X-26.357 Y-13.317 Z-1.26 I0.116 J0.113
X-26.354 Y-13.087 Z-1.267 I-0.113 J0.116
G1 X-27.402 Y-12.014 Z-1.309
G3 X-27.631 Y-12.011 Z-1.316 I-0.116 J-0.113
X-27.634 Y-12.241 Z-1.323 I0.113 J-0.116
G1 X-26.587 Y-13.314 Z-1.365
G3 X-26.357 Y-13.317 Z-1.372 I0.116 J0.113
X-26.354 Y-13.087 Z-1.38 I-0.113 J0.116
G1 X-27.402 Y-12.014 Z-1.421
G3 X-27.631 Y-12.011 Z-1.429 I-0.116 J-0.113
X-27.634 Y-12.241 Z-1.436 I0.113 J-0.116
G1 X-26.587 Y-13.314 Z-1.478
G3 X-26.357 Y-13.317 Z-1.485 I0.116 J0.113
X-26.354 Y-13.087 Z-1.492 I-0.113 J0.116
G1 X-27.402 Y-12.014 Z-1.534
G3 X-27.631 Y-12.011 Z-1.541 I-0.116 J-0.113
X-27.634 Y-12.241 Z-1.548 I0.113 J-0.116
G1 X-26.587 Y-13.314 Z-1.59
G3 X-26.357 Y-13.317 Z-1.597 I0.116 J0.113
X-26.354 Y-13.087 Z-1.604 I-0.113 J0.116
G1 X-27.402 Y-12.014 Z-1.646
G3 X-27.631 Y-12.011 Z-1.653 I-0.116 J-0.113
X-27.634 Y-12.241 Z-1.66 I0.113 J-0.116
G1 X-26.587 Y-13.314 Z-1.702
G3 X-26.357 Y-13.317 Z-1.709 I0.116 J0.113
X-26.354 Y-13.087 Z-1.717 I-0.113 J0.116
G1 X-27.402 Y-12.014 Z-1.758
G3 X-27.631 Y-12.011 Z-1.766 I-0.116 J-0.113
X-27.634 Y-12.241 Z-1.773 I0.113 J-0.116
G1 X-26.587 Y-13.314 Z-1.815
G3 X-26.357 Y-13.317 Z-1.822 I0.116 J0.113
X-26.354 Y-13.087 Z-1.829 I-0.113 J0.116
G1 X-27.402 Y-12.014 Z-1.871
G3 X-27.631 Y-12.011 Z-1.878 I-0.116 J-0.113
X-27.634 Y-12.241 Z-1.885 I0.113 J-0.116
G1 X-26.587 Y-13.314 Z-1.927
G3 X-26.357 Y-13.317 Z-1.934 I0.116 J0.113
X-26.354 Y-13.087 Z-1.941 I-0.113 J0.116
G1 X-27.402 Y-12.014 Z-1.983
G3 X-27.631 Y-12.011 Z-1.99 I-0.116 J-0.113
X-27.634 Y-12.241 Z-1.997 I0.113 J-0.116
G1 X-26.587 Y-13.314 Z-2.039
G3 X-26.357 Y-13.317 Z-2.046 I0.116 J0.113
X-26.354 Y-13.087 Z-2.054 I-0.113 J0.116
G1 X-27.402 Y-12.014 Z-2.095
G3 X-27.631 Y-12.011 Z-2.103 I-0.116 J-0.113
X-27.634 Y-12.241 Z-2.11 I0.113 J-0.116
G1 X-26.587 Y-13.314 Z-2.152
G3 X-26.357 Y-13.317 Z-2.159 I0.116 J0.113
X-26.354 Y-13.087 Z-2.166 I-0.113 J0.116
G1 X-27.402 Y-12.014 Z-2.208
G3 X-27.631 Y-12.011 Z-2.215 I-0.116 J-0.113
X-27.634 Y-12.241 Z-2.222 I0.113 J-0.116
G1 X-26.587 Y-13.314 Z-2.264
G3 X-26.357 Y-13.317 Z-2.271 I0.116 J0.113
X-26.354 Y-13.087 Z-2.278 I-0.113 J0.116
G1 X-27.402 Y-12.014 Z-2.32
G3 X-27.631 Y-12.011 Z-2.327 I-0.116 J-0.113
X-27.634 Y-12.241 Z-2.334 I0.113 J-0.116
G1 X-26.587 Y-13.314 Z-2.376
G3 X-26.357 Y-13.317 Z-2.383 I0.116 J0.113
X-26.354 Y-13.087 Z-2.39 I-0.113 J0.116
G1 X-27.402 Y-12.014 Z-2.432
G3 X-27.631 Y-12.011 Z-2.44 I-0.116 J-0.113
X-27.634 Y-12.241 Z-2.447 I0.113 J-0.116
G1 X-26.587 Y-13.314 Z-2.489
G3 X-26.357 Y-13.317 Z-2.496 I0.116 J0.113
X-26.354 Y-13.087 Z-2.503 I-0.113 J0.116
G1 X-27.402 Y-12.014 Z-2.545
G3 X-27.631 Y-12.011 Z-2.552 I-0.116 J-0.113
X-27.634 Y-12.241 Z-2.559 I0.113 J-0.116
G1 X-26.587 Y-13.314 Z-2.601
G3 X-26.357 Y-13.317 Z-2.608 I0.116 J0.113
X-26.354 Y-13.087 Z-2.615 I-0.113 J0.116
G1 X-27.402 Y-12.014 Z-2.657
G3 X-27.631 Y-12.011 Z-2.664 I-0.116 J-0.113
X-27.634 Y-12.241 Z-2.671 I0.113 J-0.116
G1 X-26.587 Y-13.314 Z-2.713
G3 X-26.357 Y-13.317 Z-2.72 I0.116 J0.113
X-26.354 Y-13.087 Z-2.727 I-0.113 J0.116
G1 X-27.402 Y-12.014 Z-2.769
G3 X-27.631 Y-12.011 Z-2.776 I-0.116 J-0.113
X-27.634 Y-12.241 Z-2.784 I0.113 J-0.116
G1 X-26.587 Y-13.314 Z-2.826
G3 X-26.357 Y-13.317 Z-2.833 I0.116 J0.113
X-26.354 Y-13.087 Z-2.84 I-0.113 J0.116
G1 X-27.402 Y-12.014 Z-2.882
G3 X-27.631 Y-12.011 Z-2.889 I-0.116 J-0.113
X-27.634 Y-12.241 Z-2.896 I0.113 J-0.116
G1 X-26.587 Y-13.314 Z-2.938
G3 X-26.357 Y-13.317 Z-2.945 I0.116 J0.113
X-26.354 Y-13.087 Z-2.952 I-0.113 J0.116
G1 X-27.402 Y-12.014 Z-2.994
G3 X-27.631 Y-12.011 Z-3.001 I-0.116 J-0.113
X-27.634 Y-12.241 Z-3.008 I0.113 J-0.116
G1 X-26.587 Y-13.314 Z-3.05
G3 X-26.357 Y-13.317 Z-3.057 I0.116 J0.113
X-26.354 Y-13.087 Z-3.064 I-0.113 J0.116
G1 X-27.402 Y-12.014 Z-3.106
G3 X-27.631 Y-12.011 Z-3.113 I-0.116 J-0.113
X-27.634 Y-12.241 Z-3.121 I0.113 J-0.116
G1 X-26.587 Y-13.314 Z-3.162
G3 X-26.357 Y-13.317 Z-3.17 I0.116 J0.113
X-26.354 Y-13.087 Z-3.177 I-0.113 J0.116
G1 X-27.402 Y-12.014 Z-3.219
G3 X-27.631 Y-12.011 Z-3.226 I-0.116 J-0.113
X-27.634 Y-12.241 Z-3.233 I0.113 J-0.116
G1 X-26.587 Y-13.314 Z-3.275
G3 X-26.357 Y-13.317 Z-3.282 I0.116 J0.113
X-26.354 Y-13.087 Z-3.289 I-0.113 J0.116
G1 X-27.402 Y-12.014 Z-3.331
G3 X-27.631 Y-12.011 Z-3.338 I-0.116 J-0.113
X-27.634 Y-12.241 Z-3.345 I0.113 J-0.116
G1 X-26.587 Y-13.314 Z-3.387
G3 X-26.357 Y-13.317 Z-3.394 I0.116 J0.113
X-26.354 Y-13.087 Z-3.401 I-0.113 J0.116
G1 X-27.402 Y-12.014 Z-3.443
G3 X-27.631 Y-12.011 Z-3.45 I-0.116 J-0.113
X-27.634 Y-12.241 Z-3.458 I0.113 J-0.116
G1 X-26.587 Y-13.314 Z-3.499
G3 X-26.357 Y-13.317 Z-3.507 I0.116 J0.113
X-26.354 Y-13.087 Z-3.514 I-0.113 J0.116
G1 X-27.402 Y-12.014 Z-3.556
G3 X-27.631 Y-12.011 Z-3.563 I-0.116 J-0.113
X-27.634 Y-12.241 Z-3.57 I0.113 J-0.116
G1 X-26.587 Y-13.314 Z-3.612
G3 X-26.357 Y-13.317 Z-3.619 I0.116 J0.113
X-26.354 Y-13.087 Z-3.626 I-0.113 J0.116
G1 X-27.402 Y-12.014 Z-3.668
G3 X-27.631 Y-12.011 Z-3.675 I-0.116 J-0.113
X-27.634 Y-12.241 Z-3.682 I0.113 J-0.116
G1 X-26.587 Y-13.314 Z-3.724
G3 X-26.357 Y-13.317 Z-3.731 I0.116 J0.113
X-26.354 Y-13.087 Z-3.738 I-0.113 J0.116
G1 X-27.402 Y-12.014 Z-3.78
G3 X-27.631 Y-12.011 Z-3.787 I-0.116 J-0.113
X-27.634 Y-12.241 Z-3.795 I0.113 J-0.116
G1 X-26.587 Y-13.314 Z-3.836
G3 X-26.357 Y-13.317 Z-3.844 I0.116 J0.113
X-26.354 Y-13.087 Z-3.851 I-0.113 J0.116
G1 X-27.402 Y-12.014 Z-3.893
G3 X-27.631 Y-12.011 Z-3.9 I-0.116 J-0.113
X-27.634 Y-12.241 Z-3.907 I0.113 J-0.116
G1 X-26.587 Y-13.314 Z-3.949
G3 X-26.357 Y-13.317 Z-3.956 I0.116 J0.113
X-26.354 Y-13.087 Z-3.963 I-0.113 J0.116
G1 X-27.402 Y-12.014 Z-4.005
G3 X-27.631 Y-12.011 Z-4.012 I-0.116 J-0.113
X-27.634 Y-12.241 Z-4.019 I0.113 J-0.116
G1 X-26.587 Y-13.314 Z-4.061
G3 X-26.357 Y-13.317 Z-4.068 I0.116 J0.113
X-26.354 Y-13.087 Z-4.075 I-0.113 J0.116
G1 X-27.402 Y-12.014 Z-4.117
G3 X-27.631 Y-12.011 Z-4.124 I-0.116 J-0.113
X-27.634 Y-12.241 Z-4.132 I0.113 J-0.116
G1 X-26.587 Y-13.314 Z-4.173
G3 X-26.357 Y-13.317 Z-4.181 I0.116 J0.113
X-26.354 Y-13.087 Z-4.188 I-0.113 J0.116
G1 X-27.402 Y-12.014 Z-4.23
G3 X-27.631 Y-12.011 Z-4.237 I-0.116 J-0.113
X-27.634 Y-12.241 Z-4.244 I0.113 J-0.116
G1 X-26.587 Y-13.314 Z-4.286
G3 X-26.357 Y-13.317 Z-4.293 I0.116 J0.113
X-26.354 Y-13.087 Z-4.3 I-0.113 J0.116
S2000
G1 X-27.402 Y-12.014 F1000
G3 X-27.631 Y-12.011 I-0.116 J-0.113
X-27.634 Y-12.241 I0.113 J-0.116
G1 X-26.587 Y-13.314
G3 X-26.357 Y-13.317 I0.116 J0.113
X-26.354 Y-13.087 I-0.113 J0.116
G1 Z6
X-11.817 Y-12.246
Z3.5 F333.3
S5000
G3 X-12.076 Y-12.201 Z3.491 I-0.146 J-0.072
G1 X-13.15 Y-13.249 Z3.45
G3 X-12.923 Y-13.481 Z3.435 I0.114 J-0.116
G1 X-11.849 Y-12.434 Z3.393
G3 X-11.847 Y-12.204 Z3.386 I-0.113 J0.116
X-12.076 Y-12.201 Z3.379 I-0.116 J-0.113
G1 X-13.15 Y-13.249 Z3.337
G3 X-12.923 Y-13.481 Z3.323 I0.114 J-0.116
G1 X-11.849 Y-12.434 Z3.281
G3 X-11.847 Y-12.204 Z3.274 I-0.113 J0.116
X-12.076 Y-12.201 Z3.267 I-0.116 J-0.113
G1 X-13.15 Y-13.249 Z3.225
G3 X-12.923 Y-13.481 Z3.211 I0.114 J-0.116
G1 X-11.849 Y-12.434 Z3.169
G3 X-11.847 Y-12.204 Z3.162 I-0.113 J0.116
X-12.076 Y-12.201 Z3.154 I-0.116 J-0.113
G1 X-13.15 Y-13.249 Z3.113
G3 X-12.923 Y-13.481 Z3.098 I0.114 J-0.116
G1 X-11.849 Y-12.434 Z3.056
G3 X-11.847 Y-12.204 Z3.049 I-0.113 J0.116
X-12.076 Y-12.201 Z3.042 I-0.116 J-0.113
G1 X-13.15 Y-13.249 Z3
G3 X-12.923 Y-13.481 Z2.986 I0.114 J-0.116
G1 X-11.849 Y-12.434 Z2.944
G3 X-11.847 Y-12.204 Z2.937 I-0.113 J0.116
X-12.076 Y-12.201 Z2.93 I-0.116 J-0.113
G1 X-13.15 Y-13.249 Z2.888
G3 X-12.923 Y-13.481 Z2.874 I0.114 J-0.116
G1 X-11.849 Y-12.434 Z2.832
G3 X-11.847 Y-12.204 Z2.825 I-0.113 J0.116
X-12.076 Y-12.201 Z2.818 I-0.116 J-0.113
G1 X-13.15 Y-13.249 Z2.776
G3 X-12.923 Y-13.481 Z2.761 I0.114 J-0.116
G1 X-11.849 Y-12.434 Z2.72
G3 X-11.847 Y-12.204 Z2.712 I-0.113 J0.116
X-12.076 Y-12.201 Z2.705 I-0.116 J-0.113
G1 X-13.15 Y-13.249 Z2.663
G3 X-12.923 Y-13.481 Z2.649 I0.114 J-0.116
G1 X-11.849 Y-12.434 Z2.607
G3 X-11.847 Y-12.204 Z2.6 I-0.113 J0.116
X-12.076 Y-12.201 Z2.593 I-0.116 J-0.113
G1 X-13.15 Y-13.249 Z2.551
G3 X-12.923 Y-13.481 Z2.537 I0.114 J-0.116
G1 X-11.849 Y-12.434 Z2.495
G3 X-11.847 Y-12.204 Z2.488 I-0.113 J0.116
X-12.076 Y-12.201 Z2.481 I-0.116 J-0.113
G1 X-13.15 Y-13.249 Z2.439
G3 X-12.923 Y-13.481 Z2.424 I0.114 J-0.116
G1 X-11.849 Y-12.434 Z2.383
G3 X-11.847 Y-12.204 Z2.375 I-0.113 J0.116
X-12.076 Y-12.201 Z2.368 I-0.116 J-0.113
G1 X-13.15 Y-13.249 Z2.326
G3 X-12.923 Y-13.481 Z2.312 I0.114 J-0.116
G1 X-11.849 Y-12.434 Z2.27
G3 X-11.847 Y-12.204 Z2.263 I-0.113 J0.116
X-12.076 Y-12.201 Z2.256 I-0.116 J-0.113
G1 X-13.15 Y-13.249 Z2.214
G3 X-12.923 Y-13.481 Z2.2 I0.114 J-0.116
G1 X-11.849 Y-12.434 Z2.158
G3 X-11.847 Y-12.204 Z2.151 I-0.113 J0.116
X-12.076 Y-12.201 Z2.144 I-0.116 J-0.113
G1 X-13.15 Y-13.249 Z2.102
G3 X-12.923 Y-13.481 Z2.088 I0.114 J-0.116
G1 X-11.849 Y-12.434 Z2.046
G3 X-11.847 Y-12.204 Z2.039 I-0.113 J0.116
X-12.076 Y-12.201 Z2.031 I-0.116 J-0.113
G1 X-13.15 Y-13.249 Z1.989
G3 X-12.923 Y-13.481 Z1.975 I0.114 J-0.116
G1 X-11.849 Y-12.434 Z1.933
G3 X-11.847 Y-12.204 Z1.926 I-0.113 J0.116
X-12.076 Y-12.201 Z1.919 I-0.116 J-0.113
G1 X-13.15 Y-13.249 Z1.877
G3 X-12.923 Y-13.481 Z1.863 I0.114 J-0.116
G1 X-11.849 Y-12.434 Z1.821
G3 X-11.847 Y-12.204 Z1.814 I-0.113 J0.116
X-12.076 Y-12.201 Z1.807 I-0.116 J-0.113
G1 X-13.15 Y-13.249 Z1.765
G3 X-12.923 Y-13.481 Z1.751 I0.114 J-0.116
G1 X-11.849 Y-12.434 Z1.709
G3 X-11.847 Y-12.204 Z1.702 I-0.113 J0.116
X-12.076 Y-12.201 Z1.694 I-0.116 J-0.113
G1 X-13.15 Y-13.249 Z1.653
G3 X-12.923 Y-13.481 Z1.638 I0.114 J-0.116
G1 X-11.849 Y-12.434 Z1.596
G3 X-11.847 Y-12.204 Z1.589 I-0.113 J0.116
X-12.076 Y-12.201 Z1.582 I-0.116 J-0.113
G1 X-13.15 Y-13.249 Z1.54
G3 X-12.923 Y-13.481 Z1.526 I0.114 J-0.116
G1 X-11.849 Y-12.434 Z1.484
G3 X-11.847 Y-12.204 Z1.477 I-0.113 J0.116
X-12.076 Y-12.201 Z1.47 I-0.116 J-0.113
G1 X-13.15 Y-13.249 Z1.428
G3 X-12.923 Y-13.481 Z1.414 I0.114 J-0.116
G1 X-11.849 Y-12.434 Z1.372
G3 X-11.847 Y-12.204 Z1.365 I-0.113 J0.116
X-12.076 Y-12.201 Z1.358 I-0.116 J-0.113
G1 X-13.15 Y-13.249 Z1.316
G3 X-12.923 Y-13.481 Z1.301 I0.114 J-0.116
G1 X-11.849 Y-12.434 Z1.259
G3 X-11.847 Y-12.204 Z1.252 I-0.113 J0.116
X-12.076 Y-12.201 Z1.245 I-0.116 J-0.113
G1 X-13.15 Y-13.249 Z1.203
G3 X-12.923 Y-13.481 Z1.189 I0.114 J-0.116
G1 X-11.849 Y-12.434 Z1.147
G3 X-11.847 Y-12.204 Z1.14 I-0.113 J0.116
X-12.076 Y-12.201 Z1.133 I-0.116 J-0.113
G1 X-13.15 Y-13.249 Z1.091
G3 X-12.923 Y-13.481 Z1.077 I0.114 J-0.116
G1 X-11.849 Y-12.434 Z1.035
G3 X-11.847 Y-12.204 Z1.028 I-0.113 J0.116
X-12.076 Y-12.201 Z1.021 I-0.116 J-0.113
G1 X-13.15 Y-13.249 Z0.979
G3 X-12.923 Y-13.481 Z0.964 I0.114 J-0.116
G1 X-11.849 Y-12.434 Z0.923
G3 X-11.847 Y-12.204 Z0.915 I-0.113 J0.116
X-12.076 Y-12.201 Z0.908 I-0.116 J-0.113
G1 X-13.15 Y-13.249 Z0.866
G3 X-12.923 Y-13.481 Z0.852 I0.114 J-0.116
G1 X-11.849 Y-12.434 Z0.81
G3 X-11.847 Y-12.204 Z0.803 I-0.113 J0.116
X-12.076 Y-12.201 Z0.796 I-0.116 J-0.113
G1 X-13.15 Y-13.249 Z0.754
G3 X-12.923 Y-13.481 Z0.74 I0.114 J-0.116
G1 X-11.849 Y-12.434 Z0.698
G3 X-11.847 Y-12.204 Z0.691 I-0.113 J0.116
X-12.076 Y-12.201 Z0.684 I-0.116 J-0.113
G1 X-13.15 Y-13.249 Z0.642
G3 X-12.923 Y-13.481 Z0.627 I0.114 J-0.116
G1 X-11.849 Y-12.434 Z0.586
G3 X-11.847 Y-12.204 Z0.578 I-0.113 J0.116
X-12.076 Y-12.201 Z0.571 I-0.116 J-0.113
G1 X-13.15 Y-13.249 Z0.529
G3 X-12.923 Y-13.481 Z0.515 I0.114 J-0.116
G1 X-11.849 Y-12.434 Z0.473
G3 X-11.847 Y-12.204 Z0.466 I-0.113 J0.116
X-12.076 Y-12.201 Z0.459 I-0.116 J-0.113
G1 X-13.15 Y-13.249 Z0.417
G3 X-12.923 Y-13.481 Z0.403 I0.114 J-0.116
G1 X-11.849 Y-12.434 Z0.361
G3 X-11.847 Y-12.204 Z0.354 I-0.113 J0.116
X-12.076 Y-12.201 Z0.347 I-0.116 J-0.113
G1 X-13.15 Y-13.249 Z0.305
G3 X-12.923 Y-13.481 Z0.291 I0.114 J-0.116
G1 X-11.849 Y-12.434 Z0.249
G3 X-11.847 Y-12.204 Z0.242 I-0.113 J0.116
X-12.076 Y-12.201 Z0.234 I-0.116 J-0.113
G1 X-13.15 Y-13.249 Z0.192
G3 X-12.923 Y-13.481 Z0.178 I0.114 J-0.116
G1 X-11.849 Y-12.434 Z0.136
G3 X-11.847 Y-12.204 Z0.129 I-0.113 J0.116
X-12.076 Y-12.201 Z0.122 I-0.116 J-0.113
G1 X-13.15 Y-13.249 Z0.08
G3 X-12.923 Y-13.481 Z0.066 I0.114 J-0.116
G1 X-11.849 Y-12.434 Z0.024
G3 X-11.847 Y-12.204 Z0.017 I-0.113 J0.116
X-12.076 Y-12.201 Z0.01 I-0.116 J-0.113
G1 X-13.15 Y-13.249 Z-0.032
G3 X-12.923 Y-13.481 Z-0.046 I0.114 J-0.116
G1 X-11.849 Y-12.434 Z-0.088
G3 X-11.847 Y-12.204 Z-0.095 I-0.113 J0.116
X-12.076 Y-12.201 Z-0.103 I-0.116 J-0.113
G1 X-13.15 Y-13.249 Z-0.144
G3 X-12.923 Y-13.481 Z-0.159 I0.114 J-0.116
G1 X-11.849 Y-12.434 Z-0.201
G3 X-11.847 Y-12.204 Z-0.208 I-0.113 J0.116
X-12.076 Y-12.201 Z-0.215 I-0.116 J-0.113
G1 X-13.15 Y-13.249 Z-0.257
G3 X-12.923 Y-13.481 Z-0.271 I0.114 J-0.116
G1 X-11.849 Y-12.434 Z-0.313
G3 X-11.847 Y-12.204 Z-0.32 I-0.113 J0.116
X-12.076 Y-12.201 Z-0.327 I-0.116 J-0.113
G1 X-13.15 Y-13.249 Z-0.369
G3 X-12.923 Y-13.481 Z-0.383 I0.114 J-0.116
G1 X-11.849 Y-12.434 Z-0.425
G3 X-11.847 Y-12.204 Z-0.432 I-0.113 J0.116
X-12.076 Y-12.201 Z-0.439 I-0.116 J-0.113
G1 X-13.15 Y-13.249 Z-0.481
G3 X-12.923 Y-13.481 Z-0.496 I0.114 J-0.116
G1 X-11.849 Y-12.434 Z-0.538
G3 X-11.847 Y-12.204 Z-0.545 I-0.113 J0.116
X-12.076 Y-12.201 Z-0.552 I-0.116 J-0.113
G1 X-13.15 Y-13.249 Z-0.594
G3 X-12.923 Y-13.481 Z-0.608 I0.114 J-0.116
G1 X-11.849 Y-12.434 Z-0.65
G3 X-11.847 Y-12.204 Z-0.657 I-0.113 J0.116
X-12.076 Y-12.201 Z-0.664 I-0.116 J-0.113
G1 X-13.15 Y-13.249 Z-0.706
G3 X-12.923 Y-13.481 Z-0.72 I0.114 J-0.116
G1 X-11.849 Y-12.434 Z-0.762
G3 X-11.847 Y-12.204 Z-0.769 I-0.113 J0.116
X-12.076 Y-12.201 Z-0.776 I-0.116 J-0.113
G1 X-13.15 Y-13.249 Z-0.818
G3 X-12.923 Y-13.481 Z-0.833 I0.114 J-0.116
G1 X-11.849 Y-12.434 Z-0.874
G3 X-11.847 Y-12.204 Z-0.882 I-0.113 J0.116
X-12.076 Y-12.201 Z-0.889 I-0.116 J-0.113
G1 X-13.15 Y-13.249 Z-0.931
G3 X-12.923 Y-13.481 Z-0.945 I0.114 J-0.116
G1 X-11.849 Y-12.434 Z-0.987
G3 X-11.847 Y-12.204 Z-0.994 I-0.113 J0.116
X-12.076 Y-12.201 Z-1.001 I-0.116 J-0.113
G1 X-13.15 Y-13.249 Z-1.043
G3 X-12.923 Y-13.481 Z-1.057 I0.114 J-0.116
G1 X-11.849 Y-12.434 Z-1.099
G3 X-11.847 Y-12.204 Z-1.106 I-0.113 J0.116
X-12.076 Y-12.201 Z-1.113 I-0.116 J-0.113
G1 X-13.15 Y-13.249 Z-1.155
G3 X-12.923 Y-13.481 Z-1.17 I0.114 J-0.116
G1 X-11.849 Y-12.434 Z-1.211
G3 X-11.847 Y-12.204 Z-1.219 I-0.113 J0.116
X-12.076 Y-12.201 Z-1.226 I-0.116 J-0.113
G1 X-13.15 Y-13.249 Z-1.268
G3 X-12.923 Y-13.481 Z-1.282 I0.114 J-0.116
G1 X-11.849 Y-12.434 Z-1.324
G3 X-11.847 Y-12.204 Z-1.331 I-0.113 J0.116
X-12.076 Y-12.201 Z-1.338 I-0.116 J-0.113
G1 X-13.15 Y-13.249 Z-1.38
G3 X-12.923 Y-13.481 Z-1.394 I0.114 J-0.116
G1 X-11.849 Y-12.434 Z-1.436
G3 X-11.847 Y-12.204 Z-1.443 I-0.113 J0.116
X-12.076 Y-12.201 Z-1.45 I-0.116 J-0.113
G1 X-13.15 Y-13.249 Z-1.492
G3 X-12.923 Y-13.481 Z-1.506 I0.114 J-0.116
G1 X-11.849 Y-12.434 Z-1.548
G3 X-11.847 Y-12.204 Z-1.555 I-0.113 J0.116
X-12.076 Y-12.201 Z-1.563 I-0.116 J-0.113
G1 X-13.15 Y-13.249 Z-1.605
G3 X-12.923 Y-13.481 Z-1.619 I0.114 J-0.116
G1 X-11.849 Y-12.434 Z-1.661
G3 X-11.847 Y-12.204 Z-1.668 I-0.113 J0.116
X-12.076 Y-12.201 Z-1.675 I-0.116 J-0.113
G1 X-13.15 Y-13.249 Z-1.717
G3 X-12.923 Y-13.481 Z-1.731 I0.114 J-0.116
G1 X-11.849 Y-12.434 Z-1.773
G3 X-11.847 Y-12.204 Z-1.78 I-0.113 J0.116
X-12.076 Y-12.201 Z-1.787 I-0.116 J-0.113
G1 X-13.15 Y-13.249 Z-1.829
G3 X-12.923 Y-13.481 Z-1.843 I0.114 J-0.116
G1 X-11.849 Y-12.434 Z-1.885
G3 X-11.847 Y-12.204 Z-1.892 I-0.113 J0.116
X-12.076 Y-12.201 Z-1.9 I-0.116 J-0.113
G1 X-13.15 Y-13.249 Z-1.941
G3 X-12.923 Y-13.481 Z-1.956 I0.114 J-0.116
G1 X-11.849 Y-12.434 Z-1.998
G3 X-11.847 Y-12.204 Z-2.005 I-0.113 J0.116
X-12.076 Y-12.201 Z-2.012 I-0.116 J-0.113
G1 X-13.15 Y-13.249 Z-2.054
G3 X-12.923 Y-13.481 Z-2.068 I0.114 J-0.116
G1 X-11.849 Y-12.434 Z-2.11
G3 X-11.847 Y-12.204 Z-2.117 I-0.113 J0.116
X-12.076 Y-12.201 Z-2.124 I-0.116 J-0.113
G1 X-13.15 Y-13.249 Z-2.166
G3 X-12.923 Y-13.481 Z-2.18 I0.114 J-0.116
G1 X-11.849 Y-12.434 Z-2.222
G3 X-11.847 Y-12.204 Z-2.229 I-0.113 J0.116
X-12.076 Y-12.201 Z-2.236 I-0.116 J-0.113
G1 X-13.15 Y-13.249 Z-2.278
G3 X-12.923 Y-13.481 Z-2.293 I0.114 J-0.116
G1 X-11.849 Y-12.434 Z-2.335
G3 X-11.847 Y-12.204 Z-2.342 I-0.113 J0.116
X-12.076 Y-12.201 Z-2.349 I-0.116 J-0.113
G1 X-13.15 Y-13.249 Z-2.391
G3 X-12.923 Y-13.481 Z-2.405 I0.114 J-0.116
G1 X-11.849 Y-12.434 Z-2.447
G3 X-11.847 Y-12.204 Z-2.454 I-0.113 J0.116
X-12.076 Y-12.201 Z-2.461 I-0.116 J-0.113
G1 X-13.15 Y-13.249 Z-2.503
G3 X-12.923 Y-13.481 Z-2.517 I0.114 J-0.116
G1 X-11.849 Y-12.434 Z-2.559
G3 X-11.847 Y-12.204 Z-2.566 I-0.113 J0.116
X-12.076 Y-12.201 Z-2.573 I-0.116 J-0.113
G1 X-13.15 Y-13.249 Z-2.615
G3 X-12.923 Y-13.481 Z-2.63 I0.114 J-0.116
G1 X-11.849 Y-12.434 Z-2.671
G3 X-11.847 Y-12.204 Z-2.679 I-0.113 J0.116
X-12.076 Y-12.201 Z-2.686 I-0.116 J-0.113
G1 X-13.15 Y-13.249 Z-2.728
G3 X-12.923 Y-13.481 Z-2.742 I0.114 J-0.116
G1 X-11.849 Y-12.434 Z-2.784
G3 X-11.847 Y-12.204 Z-2.791 I-0.113 J0.116
X-12.076 Y-12.201 Z-2.798 I-0.116 J-0.113
G1 X-13.15 Y-13.249 Z-2.84
G3 X-12.923 Y-13.481 Z-2.854 I0.114 J-0.116
G1 X-11.849 Y-12.434 Z-2.896
G3 X-11.847 Y-12.204 Z-2.903 I-0.113 J0.116
X-12.076 Y-12.201 Z-2.91 I-0.116 J-0.113
G1 X-13.15 Y-13.249 Z-2.952
G3 X-12.923 Y-13.481 Z-2.967 I0.114 J-0.116
G1 X-11.849 Y-12.434 Z-3.008
G3 X-11.847 Y-12.204 Z-3.016 I-0.113 J0.116
X-12.076 Y-12.201 Z-3.023 I-0.116 J-0.113
G1 X-13.15 Y-13.249 Z-3.065
G3 X-12.923 Y-13.481 Z-3.079 I0.114 J-0.116
G1 X-11.849 Y-12.434 Z-3.121
G3 X-11.847 Y-12.204 Z-3.128 I-0.113 J0.116
X-12.076 Y-12.201 Z-3.135 I-0.116 J-0.113
G1 X-13.15 Y-13.249 Z-3.177
G3 X-12.923 Y-13.481 Z-3.191 I0.114 J-0.116
G1 X-11.849 Y-12.434 Z-3.233
G3 X-11.847 Y-12.204 Z-3.24 I-0.113 J0.116
X-12.076 Y-12.201 Z-3.247 I-0.116 J-0.113
G1 X-13.15 Y-13.249 Z-3.289
G3 X-12.923 Y-13.481 Z-3.303 I0.114 J-0.116
G1 X-11.849 Y-12.434 Z-3.345
G3 X-11.847 Y-12.204 Z-3.352 I-0.113 J0.116
X-12.076 Y-12.201 Z-3.36 I-0.116 J-0.113
G1 X-13.15 Y-13.249 Z-3.402
G3 X-12.923 Y-13.481 Z-3.416 I0.114 J-0.116
G1 X-11.849 Y-12.434 Z-3.458
G3 X-11.847 Y-12.204 Z-3.465 I-0.113 J0.116
X-12.076 Y-12.201 Z-3.472 I-0.116 J-0.113
G1 X-13.15 Y-13.249 Z-3.514
G3 X-12.923 Y-13.481 Z-3.528 I0.114 J-0.116
G1 X-11.849 Y-12.434 Z-3.57
G3 X-11.847 Y-12.204 Z-3.577 I-0.113 J0.116
X-12.076 Y-12.201 Z-3.584 I-0.116 J-0.113
G1 X-13.15 Y-13.249 Z-3.626
G3 X-12.923 Y-13.481 Z-3.64 I0.114 J-0.116
G1 X-11.849 Y-12.434 Z-3.682
G3 X-11.847 Y-12.204 Z-3.689 I-0.113 J0.116
X-12.076 Y-12.201 Z-3.697 I-0.116 J-0.113
G1 X-13.15 Y-13.249 Z-3.738
G3 X-12.923 Y-13.481 Z-3.753 I0.114 J-0.116
G1 X-11.849 Y-12.434 Z-3.795
G3 X-11.847 Y-12.204 Z-3.802 I-0.113 J0.116
X-12.076 Y-12.201 Z-3.809 I-0.116 J-0.113
G1 X-13.15 Y-13.249 Z-3.851
G3 X-12.923 Y-13.481 Z-3.865 I0.114 J-0.116
G1 X-11.849 Y-12.434 Z-3.907
G3 X-11.847 Y-12.204 Z-3.914 I-0.113 J0.116
X-12.076 Y-12.201 Z-3.921 I-0.116 J-0.113
G1 X-13.15 Y-13.249 Z-3.963
G3 X-12.923 Y-13.481 Z-3.977 I0.114 J-0.116
G1 X-11.849 Y-12.434 Z-4.019
G3 X-11.847 Y-12.204 Z-4.026 I-0.113 J0.116
X-12.076 Y-12.201 Z-4.033 I-0.116 J-0.113
G1 X-13.15 Y-13.249 Z-4.075
G3 X-12.923 Y-13.481 Z-4.09 I0.114 J-0.116
G1 X-11.849 Y-12.434 Z-4.132
G3 X-11.847 Y-12.204 Z-4.139 I-0.113 J0.116
X-12.076 Y-12.201 Z-4.146 I-0.116 J-0.113
G1 X-13.15 Y-13.249 Z-4.188
G3 X-12.923 Y-13.481 Z-4.202 I0.114 J-0.116
G1 X-11.849 Y-12.434 Z-4.244
G3 X-11.847 Y-12.204 Z-4.251 I-0.113 J0.116
X-12.076 Y-12.201 Z-4.258 I-0.116 J-0.113
G1 X-13.15 Y-13.249 Z-4.3
S2000
G3 X-12.923 Y-13.481 I0.114 J-0.116 F1000
G1 X-11.849 Y-12.434
G3 X-11.847 Y-12.204 I-0.113 J0.116
X-12.076 Y-12.201 I-0.116 J-0.113
G1 X-13.15 Y-13.249
Z6
X-13.154 Y-27.079
Z3.5 F333.3
S5000
X-12.269 Y-27.986 Z3.465
G3 X-12.039 Y-27.989 Z3.457 I0.116 J0.113
X-12.036 Y-27.759 Z3.45 I-0.113 J0.116
G1 X-13.084 Y-26.686 Z3.408
G3 X-13.314 Y-26.683 Z3.401 I-0.116 J-0.113
X-13.317 Y-26.913 Z3.394 I0.113 J-0.116
G1 X-12.269 Y-27.986 Z3.352
G3 X-12.039 Y-27.989 Z3.345 I0.116 J0.113
X-12.036 Y-27.759 Z3.338 I-0.113 J0.116
G1 X-13.084 Y-26.686 Z3.296
G3 X-13.314 Y-26.683 Z3.289 I-0.116 J-0.113
X-13.317 Y-26.913 Z3.282 I0.113 J-0.116
G1 X-12.269 Y-27.986 Z3.24
G3 X-12.039 Y-27.989 Z3.233 I0.116 J0.113
X-12.036 Y-27.759 Z3.226 I-0.113 J0.116
G1 X-13.084 Y-26.686 Z3.184
G3 X-13.314 Y-26.683 Z3.177 I-0.116 J-0.113
X-13.317 Y-26.913 Z3.17 I0.113 J-0.116
G1 X-12.269 Y-27.986 Z3.128
G3 X-12.039 Y-27.989 Z3.121 I0.116 J0.113
X-12.036 Y-27.759 Z3.113 I-0.113 J0.116
G1 X-13.084 Y-26.686 Z3.071
G3 X-13.314 Y-26.683 Z3.064 I-0.116 J-0.113
X-13.317 Y-26.913 Z3.057 I0.113 J-0.116
G1 X-12.269 Y-27.986 Z3.015
G3 X-12.039 Y-27.989 Z3.008 I0.116 J0.113
X-12.036 Y-27.759 Z3.001 I-0.113 J0.116
G1 X-13.084 Y-26.686 Z2.959
G3 X-13.314 Y-26.683 Z2.952 I-0.116 J-0.113
X-13.317 Y-26.913 Z2.945 I0.113 J-0.116
G1 X-12.269 Y-27.986 Z2.903
G3 X-12.039 Y-27.989 Z2.896 I0.116 J0.113
X-12.036 Y-27.759 Z2.889 I-0.113 J0.116
G1 X-13.084 Y-26.686 Z2.847
G3 X-13.314 Y-26.683 Z2.84 I-0.116 J-0.113
X-13.317 Y-26.913 Z2.833 I0.113 J-0.116
G1 X-12.269 Y-27.986 Z2.791
G3 X-12.039 Y-27.989 Z2.784 I0.116 J0.113
X-12.036 Y-27.759 Z2.776 I-0.113 J0.116
G1 X-13.084 Y-26.686 Z2.735
G3 X-13.314 Y-26.683 Z2.727 I-0.116 J-0.113
X-13.317 Y-26.913 Z2.72 I0.113 J-0.116
G1 X-12.269 Y-27.986 Z2.678
G3 X-12.039 Y-27.989 Z2.671 I0.116 J0.113
X-12.036 Y-27.759 Z2.664 I-0.113 J0.116
G1 X-13.084 Y-26.686 Z2.622
G3 X-13.314 Y-26.683 Z2.615 I-0.116 J-0.113
X-13.317 Y-26.913 Z2.608 I0.113 J-0.116
G1 X-12.269 Y-27.986 Z2.566
G3 X-12.039 Y-27.989 Z2.559 I0.116 J0.113
X-12.036 Y-27.759 Z2.552 I-0.113 J0.116
G1 X-13.084 Y-26.686 Z2.51
G3 X-13.314 Y-26.683 Z2.503 I-0.116 J-0.113
X-13.317 Y-26.913 Z2.496 I0.113 J-0.116
G1 X-12.269 Y-27.986 Z2.454
G3 X-12.039 Y-27.989 Z2.447 I0.116 J0.113
X-12.036 Y-27.759 Z2.439 I-0.113 J0.116
G1 X-13.084 Y-26.686 Z2.398
G3 X-13.314 Y-26.683 Z2.39 I-0.116 J-0.113
X-13.317 Y-26.913 Z2.383 I0.113 J-0.116
G1 X-12.269 Y-27.986 Z2.341
G3 X-12.039 Y-27.989 Z2.334 I0.116 J0.113
X-12.036 Y-27.759 Z2.327 I-0.113 J0.116
G1 X-13.084 Y-26.686 Z2.285
G3 X-13.314 Y-26.683 Z2.278 I-0.116 J-0.113
X-13.317 Y-26.913 Z2.271 I0.113 J-0.116
G1 X-12.269 Y-27.986 Z2.229
G3 X-12.039 Y-27.989 Z2.222 I0.116 J0.113
X-12.036 Y-27.759 Z2.215 I-0.113 J0.116
G1 X-13.084 Y-26.686 Z2.173
G3 X-13.314 Y-26.683 Z2.166 I-0.116 J-0.113
X-13.317 Y-26.913 Z2.159 I0.113 J-0.116
G1 X-12.269 Y-27.986 Z2.117
G3 X-12.039 Y-27.989 Z2.11 I0.116 J0.113
X-12.036 Y-27.759 Z2.102 I-0.113 J0.116
G1 X-13.084 Y-26.686 Z2.061
G3 X-13.314 Y-26.683 Z2.053 I-0.116 J-0.113
X-13.317 Y-26.913 Z2.046 I0.113 J-0.116
G1 X-12.269 Y-27.986 Z2.004
G3 X-12.039 Y-27.989 Z1.997 I0.116 J0.113
X-12.036 Y-27.759 Z1.99 I-0.113 J0.116
G1 X-13.084 Y-26.686 Z1.948
G3 X-13.314 Y-26.683 Z1.941 I-0.116 J-0.113
X-13.317 Y-26.913 Z1.934 I0.113 J-0.116
G1 X-12.269 Y-27.986 Z1.892
G3 X-12.039 Y-27.989 Z1.885 I0.116 J0.113
X-12.036 Y-27.759 Z1.878 I-0.113 J0.116
G1 X-13.084 Y-26.686 Z1.836
G3 X-13.314 Y-26.683 Z1.829 I-0.116 J-0.113
X-13.317 Y-26.913 Z1.822 I0.113 J-0.116
G1 X-12.269 Y-27.986 Z1.78
G3 X-12.039 Y-27.989 Z1.773 I0.116 J0.113
X-12.036 Y-27.759 Z1.765 I-0.113 J0.116
G1 X-13.084 Y-26.686 Z1.724
G3 X-13.314 Y-26.683 Z1.716 I-0.116 J-0.113
X-13.317 Y-26.913 Z1.709 I0.113 J-0.116
G1 X-12.269 Y-27.986 Z1.667
G3 X-12.039 Y-27.989 Z1.66 I0.116 J0.113
X-12.036 Y-27.759 Z1.653 I-0.113 J0.116
G1 X-13.084 Y-26.686 Z1.611
G3 X-13.314 Y-26.683 Z1.604 I-0.116 J-0.113
X-13.317 Y-26.913 Z1.597 I0.113 J-0.116
G1 X-12.269 Y-27.986 Z1.555
G3 X-12.039 Y-27.989 Z1.548 I0.116 J0.113
X-12.036 Y-27.759 Z1.541 I-0.113 J0.116
G1 X-13.084 Y-26.686 Z1.499
G3 X-13.314 Y-26.683 Z1.492 I-0.116 J-0.113
X-13.317 Y-26.913 Z1.485 I0.113 J-0.116
G1 X-12.269 Y-27.986 Z1.443
G3 X-12.039 Y-27.989 Z1.436 I0.116 J0.113
X-12.036 Y-27.759 Z1.429 I-0.113 J0.116
G1 X-13.084 Y-26.686 Z1.387
G3 X-13.314 Y-26.683 Z1.379 I-0.116 J-0.113
X-13.317 Y-26.913 Z1.372 I0.113 J-0.116
G1 X-12.269 Y-27.986 Z1.33
G3 X-12.039 Y-27.989 Z1.323 I0.116 J0.113
X-12.036 Y-27.759 Z1.316 I-0.113 J0.116
G1 X-13.084 Y-26.686 Z1.274
G3 X-13.314 Y-26.683 Z1.267 I-0.116 J-0.113
X-13.317 Y-26.913 Z1.26 I0.113 J-0.116
G1 X-12.269 Y-27.986 Z1.218
G3 X-12.039 Y-27.989 Z1.211 I0.116 J0.113
X-12.036 Y-27.759 Z1.204 I-0.113 J0.116
G1 X-13.084 Y-26.686 Z1.162
G3 X-13.314 Y-26.683 Z1.155 I-0.116 J-0.113
X-13.317 Y-26.913 Z1.148 I0.113 J-0.116
G1 X-12.269 Y-27.986 Z1.106
G3 X-12.039 Y-27.989 Z1.099 I0.116 J0.113
X-12.036 Y-27.759 Z1.092 I-0.113 J0.116
G1 X-13.084 Y-26.686 Z1.05
G3 X-13.314 Y-26.683 Z1.043 I-0.116 J-0.113
X-13.317 Y-26.913 Z1.035 I0.113 J-0.116
G1 X-12.269 Y-27.986 Z0.993
G3 X-12.039 Y-27.989 Z0.986 I0.116 J0.113
X-12.036 Y-27.759 Z0.979 I-0.113 J0.116
G1 X-13.084 Y-26.686 Z0.937
G3 X-13.314 Y-26.683 Z0.93 I-0.116 J-0.113
X-13.317 Y-26.913 Z0.923 I0.113 J-0.116
G1 X-12.269 Y-27.986 Z0.881
G3 X-12.039 Y-27.989 Z0.874 I0.116 J0.113
X-12.036 Y-27.759 Z0.867 I-0.113 J0.116
G1 X-13.084 Y-26.686 Z0.825
G3 X-13.314 Y-26.683 Z0.818 I-0.116 J-0.113
X-13.317 Y-26.913 Z0.811 I0.113 J-0.116
G1 X-12.269 Y-27.986 Z0.769
G3 X-12.039 Y-27.989 Z0.762 I0.116 J0.113
X-12.036 Y-27.759 Z0.755 I-0.113 J0.116
G1 X-13.084 Y-26.686 Z0.713
G3 X-13.314 Y-26.683 Z0.706 I-0.116 J-0.113
X-13.317 Y-26.913 Z0.698 I0.113 J-0.116
G1 X-12.269 Y-27.986 Z0.657
G3 X-12.039 Y-27.989 Z0.649 I0.116 J0.113
X-12.036 Y-27.759 Z0.642 I-0.113 J0.116
G1 X-13.084 Y-26.686 Z0.6
G3 X-13.314 Y-26.683 Z0.593 I-0.116 J-0.113
X-13.317 Y-26.913 Z0.586 I0.113 J-0.116
G1 X-12.269 Y-27.986 Z0.544
G3 X-12.039 Y-27.989 Z0.537 I0.116 J0.113
X-12.036 Y-27.759 Z0.53 I-0.113 J0.116
G1 X-13.084 Y-26.686 Z0.488
G3 X-13.314 Y-26.683 Z0.481 I-0.116 J-0.113
X-13.317 Y-26.913 Z0.474 I0.113 J-0.116
G1 X-12.269 Y-27.986 Z0.432
G3 X-12.039 Y-27.989 Z0.425 I0.116 J0.113
X-12.036 Y-27.759 Z0.418 I-0.113 J0.116
G1 X-13.084 Y-26.686 Z0.376
G3 X-13.314 Y-26.683 Z0.369 I-0.116 J-0.113
X-13.317 Y-26.913 Z0.361 I0.113 J-0.116
G1 X-12.269 Y-27.986 Z0.32
G3 X-12.039 Y-27.989 Z0.312 I0.116 J0.113
X-12.036 Y-27.759 Z0.305 I-0.113 J0.116
G1 X-13.084 Y-26.686 Z0.263
G3 X-13.314 Y-26.683 Z0.256 I-0.116 J-0.113
X-13.317 Y-26.913 Z0.249 I0.113 J-0.116
G1 X-12.269 Y-27.986 Z0.207
G3 X-12.039 Y-27.989 Z0.2 I0.116 J0.113
X-12.036 Y-27.759 Z0.193 I-0.113 J0.116
G1 X-13.084 Y-26.686 Z0.151
G3 X-13.314 Y-26.683 Z0.144 I-0.116 J-0.113
X-13.317 Y-26.913 Z0.137 I0.113 J-0.116
G1 X-12.269 Y-27.986 Z0.095
G3 X-12.039 Y-27.989 Z0.088 I0.116 J0.113
X-12.036 Y-27.759 Z0.081 I-0.113 J0.116
G1 X-13.084 Y-26.686 Z0.039
G3 X-13.314 Y-26.683 Z0.032 I-0.116 J-0.113
X-13.317 Y-26.913 Z0.024 I0.113 J-0.116
G1 X-12.269 Y-27.986 Z-0.017
G3 X-12.039 Y-27.989 Z-0.025 I0.116 J0.113
X-12.036 Y-27.759 Z-0.032 I-0.113 J0.116
G1 X-13.084 Y-26.686 Z-0.074
G3 X-13.314 Y-26.683 Z-0.081 I-0.116 J-0.113
X-13.317 Y-26.913 Z-0.088 I0.113 J-0.116
G1 X-12.269 Y-27.986 Z-0.13
G3 X-12.039 Y-27.989 Z-0.137 I0.116 J0.113
X-12.036 Y-27.759 Z-0.144 I-0.113 J0.116
G1 X-13.084 Y-26.686 Z-0.186
G3 X-13.314 Y-26.683 Z-0.193 I-0.116 J-0.113
X-13.317 Y-26.913 Z-0.2 I0.113 J-0.116
G1 X-12.269 Y-27.986 Z-0.242
G3 X-12.039 Y-27.989 Z-0.249 I0.116 J0.113
X-12.036 Y-27.759 Z-0.256 I-0.113 J0.116
G1 X-13.084 Y-26.686 Z-0.298
G3 X-13.314 Y-26.683 Z-0.305 I-0.116 J-0.113
X-13.317 Y-26.913 Z-0.313 I0.113 J-0.116
G1 X-12.269 Y-27.986 Z-0.354
G3 X-12.039 Y-27.989 Z-0.362 I0.116 J0.113
X-12.036 Y-27.759 Z-0.369 I-0.113 J0.116
G1 X-13.084 Y-26.686 Z-0.411
G3 X-13.314 Y-26.683 Z-0.418 I-0.116 J-0.113
X-13.317 Y-26.913 Z-0.425 I0.113 J-0.116
G1 X-12.269 Y-27.986 Z-0.467
G3 X-12.039 Y-27.989 Z-0.474 I0.116 J0.113
X-12.036 Y-27.759 Z-0.481 I-0.113 J0.116
G1 X-13.084 Y-26.686 Z-0.523
G3 X-13.314 Y-26.683 Z-0.53 I-0.116 J-0.113
X-13.317 Y-26.913 Z-0.537 I0.113 J-0.116
G1 X-12.269 Y-27.986 Z-0.579
G3 X-12.039 Y-27.989 Z-0.586 I0.116 J0.113
X-12.036 Y-27.759 Z-0.593 I-0.113 J0.116
G1 X-13.084 Y-26.686 Z-0.635
G3 X-13.314 Y-26.683 Z-0.642 I-0.116 J-0.113
X-13.317 Y-26.913 Z-0.649 I0.113 J-0.116
G1 X-12.269 Y-27.986 Z-0.691
G3 X-12.039 Y-27.989 Z-0.699 I0.116 J0.113
X-12.036 Y-27.759 Z-0.706 I-0.113 J0.116
G1 X-13.084 Y-26.686 Z-0.748
G3 X-13.314 Y-26.683 Z-0.755 I-0.116 J-0.113
X-13.317 Y-26.913 Z-0.762 I0.113 J-0.116
G1 X-12.269 Y-27.986 Z-0.804
G3 X-12.039 Y-27.989 Z-0.811 I0.116 J0.113
X-12.036 Y-27.759 Z-0.818 I-0.113 J0.116
G1 X-13.084 Y-26.686 Z-0.86
G3 X-13.314 Y-26.683 Z-0.867 I-0.116 J-0.113
X-13.317 Y-26.913 Z-0.874 I0.113 J-0.116
G1 X-12.269 Y-27.986 Z-0.916
G3 X-12.039 Y-27.989 Z-0.923 I0.116 J0.113
X-12.036 Y-27.759 Z-0.93 I-0.113 J0.116
G1 X-13.084 Y-26.686 Z-0.972
G3 X-13.314 Y-26.683 Z-0.979 I-0.116 J-0.113
X-13.317 Y-26.913 Z-0.986 I0.113 J-0.116
G1 X-12.269 Y-27.986 Z-1.028
G3 X-12.039 Y-27.989 Z-1.035 I0.116 J0.113
X-12.036 Y-27.759 Z-1.043 I-0.113 J0.116
G1 X-13.084 Y-26.686 Z-1.085
G3 X-13.314 Y-26.683 Z-1.092 I-0.116 J-0.113
X-13.317 Y-26.913 Z-1.099 I0.113 J-0.116
G1 X-12.269 Y-27.986 Z-1.141
G3 X-12.039 Y-27.989 Z-1.148 I0.116 J0.113
X-12.036 Y-27.759 Z-1.155 I-0.113 J0.116
G1 X-13.084 Y-26.686 Z-1.197
G3 X-13.314 Y-26.683 Z-1.204 I-0.116 J-0.113
X-13.317 Y-26.913 Z-1.211 I0.113 J-0.116
G1 X-12.269 Y-27.986 Z-1.253
G3 X-12.039 Y-27.989 Z-1.26 I0.116 J0.113
X-12.036 Y-27.759 Z-1.267 I-0.113 J0.116
G1 X-13.084 Y-26.686 Z-1.309
G3 X-13.314 Y-26.683 Z-1.316 I-0.116 J-0.113
X-13.317 Y-26.913 Z-1.323 I0.113 J-0.116
G1 X-12.269 Y-27.986 Z-1.365
G3 X-12.039 Y-27.989 Z-1.372 I0.116 J0.113
X-12.036 Y-27.759 Z-1.38 I-0.113 J0.116
G1 X-13.084 Y-26.686 Z-1.421
G3 X-13.314 Y-26.683 Z-1.429 I-0.116 J-0.113
X-13.317 Y-26.913 Z-1.436 I0.113 J-0.116
G1 X-12.269 Y-27.986 Z-1.478
G3 X-12.039 Y-27.989 Z-1.485 I0.116 J0.113
X-12.036 Y-27.759 Z-1.492 I-0.113 J0.116
G1 X-13.084 Y-26.686 Z-1.534
G3 X-13.314 Y-26.683 Z-1.541 I-0.116 J-0.113
X-13.317 Y-26.913 Z-1.548 I0.113 J-0.116
G1 X-12.269 Y-27.986 Z-1.59
G3 X-12.039 Y-27.989 Z-1.597 I0.116 J0.113
X-12.036 Y-27.759 Z-1.604 I-0.113 J0.116
G1 X-13.084 Y-26.686 Z-1.646
G3 X-13.314 Y-26.683 Z-1.653 I-0.116 J-0.113
X-13.317 Y-26.913 Z-1.66 I0.113 J-0.116
G1 X-12.269 Y-27.986 Z-1.702
G3 X-12.039 Y-27.989 Z-1.709 I0.116 J0.113
X-12.036 Y-27.759 Z-1.717 I-0.113 J0.116
G1 X-13.084 Y-26.686 Z-1.758
G3 X-13.314 Y-26.683 Z-1.766 I-0.116 J-0.113
X-13.317 Y-26.913 Z-1.773 I0.113 J-0.116
G1 X-12.269 Y-27.986 Z-1.815
G3 X-12.039 Y-27.989 Z-1.822 I0.116 J0.113
X-12.036 Y-27.759 Z-1.829 I-0.113 J0.116
G1 X-13.084 Y-26.686 Z-1.871
G3 X-13.314 Y-26.683 Z-1.878 I-0.116 J-0.113
X-13.317 Y-26.913 Z-1.885 I0.113 J-0.116
G1 X-12.269 Y-27.986 Z-1.927
G3 X-12.039 Y-27.989 Z-1.934 I0.116 J0.113
X-12.036 Y-27.759 Z-1.941 I-0.113 J0.116
G1 X-13.084 Y-26.686 Z-1.983
G3 X-13.314 Y-26.683 Z-1.99 I-0.116 J-0.113
X-13.317 Y-26.913 Z-1.997 I0.113 J-0.116
G1 X-12.269 Y-27.986 Z-2.039
G3 X-12.039 Y-27.989 Z-2.046 I0.116 J0.113
X-12.036 Y-27.759 Z-2.054 I-0.113 J0.116
G1 X-13.084 Y-26.686 Z-2.095
G3 X-13.314 Y-26.683 Z-2.103 I-0.116 J-0.113
X-13.317 Y-26.913 Z-2.11 I0.113 J-0.116
G1 X-12.269 Y-27.986 Z-2.152
G3 X-12.039 Y-27.989 Z-2.159 I0.116 J0.113
X-12.036 Y-27.759 Z-2.166 I-0.113 J0.116
G1 X-13.084 Y-26.686 Z-2.208
G3 X-13.314 Y-26.683 Z-2.215 I-0.116 J-0.113
X-13.317 Y-26.913 Z-2.222 I0.113 J-0.116
G1 X-12.269 Y-27.986 Z-2.264
G3 X-12.039 Y-27.989 Z-2.271 I0.116 J0.113
X-12.036 Y-27.759 Z-2.278 I-0.113 J0.116
G1 X-13.084 Y-26.686 Z-2.32
G3 X-13.314 Y-26.683 Z-2.327 I-0.116 J-0.113
X-13.317 Y-26.913 Z-2.334 I0.113 J-0.116
G1 X-12.269 Y-27.986 Z-2.376
G3 X-12.039 Y-27.989 Z-2.383 I0.116 J0.113
X-12.036 Y-27.759 Z-2.39 I-0.113 J0.116
G1 X-13.084 Y-26.686 Z-2.432
G3 X-13.314 Y-26.683 Z-2.44 I-0.116 J-0.113
X-13.317 Y-26.913 Z-2.447 I0.113 J-0.116
G1 X-12.269 Y-27.986 Z-2.489
G3 X-12.039 Y-27.989 Z-2.496 I0.116 J0.113
X-12.036 Y-27.759 Z-2.503 I-0.113 J0.116
G1 X-13.084 Y-26.686 Z-2.545
G3 X-13.314 Y-26.683 Z-2.552 I-0.116 J-0.113
X-13.317 Y-26.913 Z-2.559 I0.113 J-0.116
G1 X-12.269 Y-27.986 Z-2.601
G3 X-12.039 Y-27.989 Z-2.608 I0.116 J0.113
X-12.036 Y-27.759 Z-2.615 I-0.113 J0.116
G1 X-13.084 Y-26.686 Z-2.657
G3 X-13.314 Y-26.683 Z-2.664 I-0.116 J-0.113
X-13.317 Y-26.913 Z-2.671 I0.113 J-0.116
G1 X-12.269 Y-27.986 Z-2.713
G3 X-12.039 Y-27.989 Z-2.72 I0.116 J0.113
X-12.036 Y-27.759 Z-2.727 I-0.113 J0.116
G1 X-13.084 Y-26.686 Z-2.769
G3 X-13.314 Y-26.683 Z-2.776 I-0.116 J-0.113
X-13.317 Y-26.913 Z-2.784 I0.113 J-0.116
G1 X-12.269 Y-27.986 Z-2.826
G3 X-12.039 Y-27.989 Z-2.833 I0.116 J0.113
X-12.036 Y-27.759 Z-2.84 I-0.113 J0.116
G1 X-13.084 Y-26.686 Z-2.882
G3 X-13.314 Y-26.683 Z-2.889 I-0.116 J-0.113
X-13.317 Y-26.913 Z-2.896 I0.113 J-0.116
G1 X-12.269 Y-27.986 Z-2.938
G3 X-12.039 Y-27.989 Z-2.945 I0.116 J0.113
X-12.036 Y-27.759 Z-2.952 I-0.113 J0.116
G1 X-13.084 Y-26.686 Z-2.994
G3 X-13.314 Y-26.683 Z-3.001 I-0.116 J-0.113
X-13.317 Y-26.913 Z-3.008 I0.113 J-0.116
G1 X-12.269 Y-27.986 Z-3.05
G3 X-12.039 Y-27.989 Z-3.057 I0.116 J0.113
X-12.036 Y-27.759 Z-3.064 I-0.113 J0.116
G1 X-13.084 Y-26.686 Z-3.106
G3 X-13.314 Y-26.683 Z-3.113 I-0.116 J-0.113
X-13.317 Y-26.913 Z-3.121 I0.113 J-0.116
G1 X-12.269 Y-27.986 Z-3.162
G3 X-12.039 Y-27.989 Z-3.17 I0.116 J0.113
X-12.036 Y-27.759 Z-3.177 I-0.113 J0.116
G1 X-13.084 Y-26.686 Z-3.219
G3 X-13.314 Y-26.683 Z-3.226 I-0.116 J-0.113
X-13.317 Y-26.913 Z-3.233 I0.113 J-0.116
G1 X-12.269 Y-27.986 Z-3.275
G3 X-12.039 Y-27.989 Z-3.282 I0.116 J0.113
X-12.036 Y-27.759 Z-3.289 I-0.113 J0.116
G1 X-13.084 Y-26.686 Z-3.331
G3 X-13.314 Y-26.683 Z-3.338 I-0.116 J-0.113
X-13.317 Y-26.913 Z-3.345 I0.113 J-0.116
G1 X-12.269 Y-27.986 Z-3.387
G3 X-12.039 Y-27.989 Z-3.394 I0.116 J0.113
X-12.036 Y-27.759 Z-3.401 I-0.113 J0.116
G1 X-13.084 Y-26.686 Z-3.443
G3 X-13.314 Y-26.683 Z-3.45 I-0.116 J-0.113
X-13.317 Y-26.913 Z-3.458 I0.113 J-0.116
G1 X-12.269 Y-27.986 Z-3.499
G3 X-12.039 Y-27.989 Z-3.507 I0.116 J0.113
X-12.036 Y-27.759 Z-3.514 I-0.113 J0.116
G1 X-13.084 Y-26.686 Z-3.556
G3 X-13.314 Y-26.683 Z-3.563 I-0.116 J-0.113
X-13.317 Y-26.913 Z-3.57 I0.113 J-0.116
G1 X-12.269 Y-27.986 Z-3.612
G3 X-12.039 Y-27.989 Z-3.619 I0.116 J0.113
X-12.036 Y-27.759 Z-3.626 I-0.113 J0.116
G1 X-13.084 Y-26.686 Z-3.668
G3 X-13.314 Y-26.683 Z-3.675 I-0.116 J-0.113
X-13.317 Y-26.913 Z-3.682 I0.113 J-0.116
G1 X-12.269 Y-27.986 Z-3.724
G3 X-12.039 Y-27.989 Z-3.731 I0.116 J0.113
X-12.036 Y-27.759 Z-3.738 I-0.113 J0.116
G1 X-13.084 Y-26.686 Z-3.78
G3 X-13.314 Y-26.683 Z-3.787 I-0.116 J-0.113
X-13.317 Y-26.913 Z-3.795 I0.113 J-0.116
G1 X-12.269 Y-27.986 Z-3.836
G3 X-12.039 Y-27.989 Z-3.844 I0.116 J0.113
X-12.036 Y-27.759 Z-3.851 I-0.113 J0.116
G1 X-13.084 Y-26.686 Z-3.893
G3 X-13.314 Y-26.683 Z-3.9 I-0.116 J-0.113
X-13.317 Y-26.913 Z-3.907 I0.113 J-0.116
G1 X-12.269 Y-27.986 Z-3.949
G3 X-12.039 Y-27.989 Z-3.956 I0.116 J0.113
X-12.036 Y-27.759 Z-3.963 I-0.113 J0.116
G1 X-13.084 Y-26.686 Z-4.005
G3 X-13.314 Y-26.683 Z-4.012 I-0.116 J-0.113
X-13.317 Y-26.913 Z-4.019 I0.113 J-0.116
G1 X-12.269 Y-27.986 Z-4.061
G3 X-12.039 Y-27.989 Z-4.068 I0.116 J0.113
X-12.036 Y-27.759 Z-4.075 I-0.113 J0.116
G1 X-13.084 Y-26.686 Z-4.117
G3 X-13.314 Y-26.683 Z-4.124 I-0.116 J-0.113
X-13.317 Y-26.913 Z-4.132 I0.113 J-0.116
G1 X-12.269 Y-27.986 Z-4.173
G3 X-12.039 Y-27.989 Z-4.181 I0.116 J0.113
X-12.036 Y-27.759 Z-4.188 I-0.113 J0.116
G1 X-13.084 Y-26.686 Z-4.23
G3 X-13.314 Y-26.683 Z-4.237 I-0.116 J-0.113
X-13.317 Y-26.913 Z-4.244 I0.113 J-0.116
G1 X-12.269 Y-27.986 Z-4.286
G3 X-12.039 Y-27.989 Z-4.293 I0.116 J0.113
X-12.036 Y-27.759 Z-4.3 I-0.113 J0.116
S2000
G1 X-13.084 Y-26.686 F1000
G3 X-13.314 Y-26.683 I-0.116 J-0.113
X-13.317 Y-26.913 I0.113 J-0.116
G1 X-12.269 Y-27.986
G3 X-12.039 Y-27.989 I0.116 J0.113
X-12.036 Y-27.759 I-0.113 J0.116
G1 Z6
X-26.489 Y-26.563
Z3.5 F333.3
S5000
G3 X-26.748 Y-26.519 Z3.491 I-0.146 J-0.072
G1 X-27.821 Y-27.566 Z3.45
G3 X-27.594 Y-27.799 Z3.435 I0.114 J-0.116
G1 X-26.521 Y-26.751 Z3.393
G3 X-26.518 Y-26.522 Z3.386 I-0.113 J0.116
X-26.748 Y-26.519 Z3.379 I-0.116 J-0.113
G1 X-27.821 Y-27.566 Z3.337
G3 X-27.594 Y-27.799 Z3.323 I0.114 J-0.116
G1 X-26.521 Y-26.751 Z3.281
G3 X-26.518 Y-26.522 Z3.274 I-0.113 J0.116
X-26.748 Y-26.519 Z3.267 I-0.116 J-0.113
G1 X-27.821 Y-27.566 Z3.225
G3 X-27.594 Y-27.799 Z3.211 I0.114 J-0.116
G1 X-26.521 Y-26.751 Z3.169
G3 X-26.518 Y-26.522 Z3.162 I-0.113 J0.116
X-26.748 Y-26.519 Z3.154 I-0.116 J-0.113
G1 X-27.821 Y-27.566 Z3.113
G3 X-27.594 Y-27.799 Z3.098 I0.114 J-0.116
G1 X-26.521 Y-26.751 Z3.056
G3 X-26.518 Y-26.522 Z3.049 I-0.113 J0.116
X-26.748 Y-26.519 Z3.042 I-0.116 J-0.113
G1 X-27.821 Y-27.566 Z3
G3 X-27.594 Y-27.799 Z2.986 I0.114 J-0.116
G1 X-26.521 Y-26.751 Z2.944
G3 X-26.518 Y-26.522 Z2.937 I-0.113 J0.116
X-26.748 Y-26.519 Z2.93 I-0.116 J-0.113
G1 X-27.821 Y-27.566 Z2.888
G3 X-27.594 Y-27.799 Z2.874 I0.114 J-0.116
G1 X-26.521 Y-26.751 Z2.832
G3 X-26.518 Y-26.522 Z2.825 I-0.113 J0.116
X-26.748 Y-26.519 Z2.818 I-0.116 J-0.113
G1 X-27.821 Y-27.566 Z2.776
G3 X-27.594 Y-27.799 Z2.761 I0.114 J-0.116
G1 X-26.521 Y-26.751 Z2.72
G3 X-26.518 Y-26.522 Z2.712 I-0.113 J0.116
X-26.748 Y-26.519 Z2.705 I-0.116 J-0.113
G1 X-27.821 Y-27.566 Z2.663
G3 X-27.594 Y-27.799 Z2.649 I0.114 J-0.116
G1 X-26.521 Y-26.751 Z2.607
G3 X-26.518 Y-26.522 Z2.6 I-0.113 J0.116
X-26.748 Y-26.519 Z2.593 I-0.116 J-0.113
G1 X-27.821 Y-27.566 Z2.551
G3 X-27.594 Y-27.799 Z2.537 I0.114 J-0.116
G1 X-26.521 Y-26.751 Z2.495
G3 X-26.518 Y-26.522 Z2.488 I-0.113 J0.116
X-26.748 Y-26.519 Z2.481 I-0.116 J-0.113
G1 X-27.821 Y-27.566 Z2.439
G3 X-27.594 Y-27.799 Z2.424 I0.114 J-0.116
G1 X-26.521 Y-26.751 Z2.383
G3 X-26.518 Y-26.522 Z2.375 I-0.113 J0.116
X-26.748 Y-26.519 Z2.368 I-0.116 J-0.113
G1 X-27.821 Y-27.566 Z2.326
G3 X-27.594 Y-27.799 Z2.312 I0.114 J-0.116
G1 X-26.521 Y-26.751 Z2.27
G3 X-26.518 Y-26.522 Z2.263 I-0.113 J0.116
X-26.748 Y-26.519 Z2.256 I-0.116 J-0.113
G1 X-27.821 Y-27.566 Z2.214
G3 X-27.594 Y-27.799 Z2.2 I0.114 J-0.116
G1 X-26.521 Y-26.751 Z2.158
G3 X-26.518 Y-26.522 Z2.151 I-0.113 J0.116
X-26.748 Y-26.519 Z2.144 I-0.116 J-0.113
G1 X-27.821 Y-27.566 Z2.102
G3 X-27.594 Y-27.799 Z2.088 I0.114 J-0.116
G1 X-26.521 Y-26.751 Z2.046
G3 X-26.518 Y-26.522 Z2.039 I-0.113 J0.116
X-26.748 Y-26.519 Z2.031 I-0.116 J-0.113
G1 X-27.821 Y-27.566 Z1.989
G3 X-27.594 Y-27.799 Z1.975 I0.114 J-0.116
G1 X-26.521 Y-26.751 Z1.933
G3 X-26.518 Y-26.522 Z1.926 I-0.113 J0.116
X-26.748 Y-26.519 Z1.919 I-0.116 J-0.113
G1 X-27.821 Y-27.566 Z1.877
G3 X-27.594 Y-27.799 Z1.863 I0.114 J-0.116
G1 X-26.521 Y-26.751 Z1.821
G3 X-26.518 Y-26.522 Z1.814 I-0.113 J0.116
X-26.748 Y-26.519 Z1.807 I-0.116 J-0.113
G1 X-27.821 Y-27.566 Z1.765
G3 X-27.594 Y-27.799 Z1.751 I0.114 J-0.116
G1 X-26.521 Y-26.751 Z1.709
G3 X-26.518 Y-26.522 Z1.702 I-0.113 J0.116
X-26.748 Y-26.519 Z1.694 I-0.116 J-0.113
G1 X-27.821 Y-27.566 Z1.653
G3 X-27.594 Y-27.799 Z1.638 I0.114 J-0.116
G1 X-26.521 Y-26.751 Z1.596
G3 X-26.518 Y-26.522 Z1.589 I-0.113 J0.116
X-26.748 Y-26.519 Z1.582 I-0.116 J-0.113
G1 X-27.821 Y-27.566 Z1.54
G3 X-27.594 Y-27.799 Z1.526 I0.114 J-0.116
G1 X-26.521 Y-26.751 Z1.484
G3 X-26.518 Y-26.522 Z1.477 I-0.113 J0.116
X-26.748 Y-26.519 Z1.47 I-0.116 J-0.113
G1 X-27.821 Y-27.566 Z1.428
G3 X-27.594 Y-27.799 Z1.414 I0.114 J-0.116
G1 X-26.521 Y-26.751 Z1.372
G3 X-26.518 Y-26.522 Z1.365 I-0.113 J0.116
X-26.748 Y-26.519 Z1.358 I-0.116 J-0.113
G1 X-27.821 Y-27.566 Z1.316
G3 X-27.594 Y-27.799 Z1.301 I0.114 J-0.116
G1 X-26.521 Y-26.751 Z1.259
G3 X-26.518 Y-26.522 Z1.252 I-0.113 J0.116
X-26.748 Y-26.519 Z1.245 I-0.116 J-0.113
G1 X-27.821 Y-27.566 Z1.203
G3 X-27.594 Y-27.799 Z1.189 I0.114 J-0.116
G1 X-26.521 Y-26.751 Z1.147
G3 X-26.518 Y-26.522 Z1.14 I-0.113 J0.116
X-26.748 Y-26.519 Z1.133 I-0.116 J-0.113
G1 X-27.821 Y-27.566 Z1.091
G3 X-27.594 Y-27.799 Z1.077 I0.114 J-0.116
G1 X-26.521 Y-26.751 Z1.035
G3 X-26.518 Y-26.522 Z1.028 I-0.113 J0.116
X-26.748 Y-26.519 Z1.021 I-0.116 J-0.113
G1 X-27.821 Y-27.566 Z0.979
G3 X-27.594 Y-27.799 Z0.964 I0.114 J-0.116
G1 X-26.521 Y-26.751 Z0.923
G3 X-26.518 Y-26.522 Z0.915 I-0.113 J0.116
X-26.748 Y-26.519 Z0.908 I-0.116 J-0.113
G1 X-27.821 Y-27.566 Z0.866
G3 X-27.594 Y-27.799 Z0.852 I0.114 J-0.116
G1 X-26.521 Y-26.751 Z0.81
G3 X-26.518 Y-26.522 Z0.803 I-0.113 J0.116
X-26.748 Y-26.519 Z0.796 I-0.116 J-0.113
G1 X-27.821 Y-27.566 Z0.754
G3 X-27.594 Y-27.799 Z0.74 I0.114 J-0.116
G1 X-26.521 Y-26.751 Z0.698
G3 X-26.518 Y-26.522 Z0.691 I-0.113 J0.116
X-26.748 Y-26.519 Z0.684 I-0.116 J-0.113
G1 X-27.821 Y-27.566 Z0.642
G3 X-27.594 Y-27.799 Z0.627 I0.114 J-0.116
G1 X-26.521 Y-26.751 Z0.586
G3 X-26.518 Y-26.522 Z0.578 I-0.113 J0.116
X-26.748 Y-26.519 Z0.571 I-0.116 J-0.113
G1 X-27.821 Y-27.566 Z0.529
G3 X-27.594 Y-27.799 Z0.515 I0.114 J-0.116
G1 X-26.521 Y-26.751 Z0.473
G3 X-26.518 Y-26.522 Z0.466 I-0.113 J0.116
X-26.748 Y-26.519 Z0.459 I-0.116 J-0.113
G1 X-27.821 Y-27.566 Z0.417
G3 X-27.594 Y-27.799 Z0.403 I0.114 J-0.116
G1 X-26.521 Y-26.751 Z0.361
G3 X-26.518 Y-26.522 Z0.354 I-0.113 J0.116
X-26.748 Y-26.519 Z0.347 I-0.116 J-0.113
G1 X-27.821 Y-27.566 Z0.305
G3 X-27.594 Y-27.799 Z0.291 I0.114 J-0.116
G1 X-26.521 Y-26.751 Z0.249
G3 X-26.518 Y-26.522 Z0.242 I-0.113 J0.116
X-26.748 Y-26.519 Z0.234 I-0.116 J-0.113
G1 X-27.821 Y-27.566 Z0.192
G3 X-27.594 Y-27.799 Z0.178 I0.114 J-0.116
G1 X-26.521 Y-26.751 Z0.136
G3 X-26.518 Y-26.522 Z0.129 I-0.113 J0.116
X-26.748 Y-26.519 Z0.122 I-0.116 J-0.113
G1 X-27.821 Y-27.566 Z0.08
G3 X-27.594 Y-27.799 Z0.066 I0.114 J-0.116
G1 X-26.521 Y-26.751 Z0.024
G3 X-26.518 Y-26.522 Z0.017 I-0.113 J0.116
X-26.748 Y-26.519 Z0.01 I-0.116 J-0.113
G1 X-27.821 Y-27.566 Z-0.032
G3 X-27.594 Y-27.799 Z-0.046 I0.114 J-0.116
G1 X-26.521 Y-26.751 Z-0.088
G3 X-26.518 Y-26.522 Z-0.095 I-0.113 J0.116
X-26.748 Y-26.519 Z-0.103 I-0.116 J-0.113
G1 X-27.821 Y-27.566 Z-0.144
G3 X-27.594 Y-27.799 Z-0.159 I0.114 J-0.116
G1 X-26.521 Y-26.751 Z-0.201
G3 X-26.518 Y-26.522 Z-0.208 I-0.113 J0.116
X-26.748 Y-26.519 Z-0.215 I-0.116 J-0.113
G1 X-27.821 Y-27.566 Z-0.257
G3 X-27.594 Y-27.799 Z-0.271 I0.114 J-0.116
G1 X-26.521 Y-26.751 Z-0.313
G3 X-26.518 Y-26.522 Z-0.32 I-0.113 J0.116
X-26.748 Y-26.519 Z-0.327 I-0.116 J-0.113
G1 X-27.821 Y-27.566 Z-0.369
G3 X-27.594 Y-27.799 Z-0.383 I0.114 J-0.116
G1 X-26.521 Y-26.751 Z-0.425
G3 X-26.518 Y-26.522 Z-0.432 I-0.113 J0.116
X-26.748 Y-26.519 Z-0.439 I-0.116 J-0.113
G1 X-27.821 Y-27.566 Z-0.481
G3 X-27.594 Y-27.799 Z-0.496 I0.114 J-0.116
G1 X-26.521 Y-26.751 Z-0.538
G3 X-26.518 Y-26.522 Z-0.545 I-0.113 J0.116
X-26.748 Y-26.519 Z-0.552 I-0.116 J-0.113
G1 X-27.821 Y-27.566 Z-0.594
G3 X-27.594 Y-27.799 Z-0.608 I0.114 J-0.116
G1 X-26.521 Y-26.751 Z-0.65
G3 X-26.518 Y-26.522 Z-0.657 I-0.113 J0.116
X-26.748 Y-26.519 Z-0.664 I-0.116 J-0.113
G1 X-27.821 Y-27.566 Z-0.706
G3 X-27.594 Y-27.799 Z-0.72 I0.114 J-0.116
G1 X-26.521 Y-26.751 Z-0.762
G3 X-26.518 Y-26.522 Z-0.769 I-0.113 J0.116
X-26.748 Y-26.519 Z-0.776 I-0.116 J-0.113
G1 X-27.821 Y-27.566 Z-0.818
G3 X-27.594 Y-27.799 Z-0.833 I0.114 J-0.116
G1 X-26.521 Y-26.751 Z-0.874
G3 X-26.518 Y-26.522 Z-0.882 I-0.113 J0.116
X-26.748 Y-26.519 Z-0.889 I-0.116 J-0.113
G1 X-27.821 Y-27.566 Z-0.931
G3 X-27.594 Y-27.799 Z-0.945 I0.114 J-0.116
G1 X-26.521 Y-26.751 Z-0.987
G3 X-26.518 Y-26.522 Z-0.994 I-0.113 J0.116
X-26.748 Y-26.519 Z-1.001 I-0.116 J-0.113
G1 X-27.821 Y-27.566 Z-1.043
G3 X-27.594 Y-27.799 Z-1.057 I0.114 J-0.116
G1 X-26.521 Y-26.751 Z-1.099
G3 X-26.518 Y-26.522 Z-1.106 I-0.113 J0.116
X-26.748 Y-26.519 Z-1.113 I-0.116 J-0.113
G1 X-27.821 Y-27.566 Z-1.155
G3 X-27.594 Y-27.799 Z-1.17 I0.114 J-0.116
G1 X-26.521 Y-26.751 Z-1.211
G3 X-26.518 Y-26.522 Z-1.219 I-0.113 J0.116
X-26.748 Y-26.519 Z-1.226 I-0.116 J-0.113
G1 X-27.821 Y-27.566 Z-1.268
G3 X-27.594 Y-27.799 Z-1.282 I0.114 J-0.116
G1 X-26.521 Y-26.751 Z-1.324
G3 X-26.518 Y-26.522 Z-1.331 I-0.113 J0.116
X-26.748 Y-26.519 Z-1.338 I-0.116 J-0.113
G1 X-27.821 Y-27.566 Z-1.38
G3 X-27.594 Y-27.799 Z-1.394 I0.114 J-0.116
G1 X-26.521 Y-26.751 Z-1.436
G3 X-26.518 Y-26.522 Z-1.443 I-0.113 J0.116
X-26.748 Y-26.519 Z-1.45 I-0.116 J-0.113
G1 X-27.821 Y-27.566 Z-1.492
G3 X-27.594 Y-27.799 Z-1.506 I0.114 J-0.116
G1 X-26.521 Y-26.751 Z-1.548
G3 X-26.518 Y-26.522 Z-1.555 I-0.113 J0.116
X-26.748 Y-26.519 Z-1.563 I-0.116 J-0.113
G1 X-27.821 Y-27.566 Z-1.605
G3 X-27.594 Y-27.799 Z-1.619 I0.114 J-0.116
G1 X-26.521 Y-26.751 Z-1.661
G3 X-26.518 Y-26.522 Z-1.668 I-0.113 J0.116
X-26.748 Y-26.519 Z-1.675 I-0.116 J-0.113
G1 X-27.821 Y-27.566 Z-1.717
G3 X-27.594 Y-27.799 Z-1.731 I0.114 J-0.116
G1 X-26.521 Y-26.751 Z-1.773
G3 X-26.518 Y-26.522 Z-1.78 I-0.113 J0.116
X-26.748 Y-26.519 Z-1.787 I-0.116 J-0.113
G1 X-27.821 Y-27.566 Z-1.829
G3 X-27.594 Y-27.799 Z-1.843 I0.114 J-0.116
G1 X-26.521 Y-26.751 Z-1.885
G3 X-26.518 Y-26.522 Z-1.892 I-0.113 J0.116
X-26.748 Y-26.519 Z-1.9 I-0.116 J-0.113
G1 X-27.821 Y-27.566 Z-1.941
G3 X-27.594 Y-27.799 Z-1.956 I0.114 J-0.116
G1 X-26.521 Y-26.751 Z-1.998
G3 X-26.518 Y-26.522 Z-2.005 I-0.113 J0.116
X-26.748 Y-26.519 Z-2.012 I-0.116 J-0.113
G1 X-27.821 Y-27.566 Z-2.054
G3 X-27.594 Y-27.799 Z-2.068 I0.114 J-0.116
G1 X-26.521 Y-26.751 Z-2.11
G3 X-26.518 Y-26.522 Z-2.117 I-0.113 J0.116
X-26.748 Y-26.519 Z-2.124 I-0.116 J-0.113
G1 X-27.821 Y-27.566 Z-2.166
G3 X-27.594 Y-27.799 Z-2.18 I0.114 J-0.116
G1 X-26.521 Y-26.751 Z-2.222
G3 X-26.518 Y-26.522 Z-2.229 I-0.113 J0.116
X-26.748 Y-26.519 Z-2.236 I-0.116 J-0.113
G1 X-27.821 Y-27.566 Z-2.278
G3 X-27.594 Y-27.799 Z-2.293 I0.114 J-0.116
G1 X-26.521 Y-26.751 Z-2.335
G3 X-26.518 Y-26.522 Z-2.342 I-0.113 J0.116
X-26.748 Y-26.519 Z-2.349 I-0.116 J-0.113
G1 X-27.821 Y-27.566 Z-2.391
G3 X-27.594 Y-27.799 Z-2.405 I0.114 J-0.116
G1 X-26.521 Y-26.751 Z-2.447
G3 X-26.518 Y-26.522 Z-2.454 I-0.113 J0.116
X-26.748 Y-26.519 Z-2.461 I-0.116 J-0.113
G1 X-27.821 Y-27.566 Z-2.503
G3 X-27.594 Y-27.799 Z-2.517 I0.114 J-0.116
G1 X-26.521 Y-26.751 Z-2.559
G3 X-26.518 Y-26.522 Z-2.566 I-0.113 J0.116
X-26.748 Y-26.519 Z-2.573 I-0.116 J-0.113
G1 X-27.821 Y-27.566 Z-2.615
G3 X-27.594 Y-27.799 Z-2.63 I0.114 J-0.116
G1 X-26.521 Y-26.751 Z-2.671
G3 X-26.518 Y-26.522 Z-2.679 I-0.113 J0.116
X-26.748 Y-26.519 Z-2.686 I-0.116 J-0.113
G1 X-27.821 Y-27.566 Z-2.728
G3 X-27.594 Y-27.799 Z-2.742 I0.114 J-0.116
G1 X-26.521 Y-26.751 Z-2.784
G3 X-26.518 Y-26.522 Z-2.791 I-0.113 J0.116
X-26.748 Y-26.519 Z-2.798 I-0.116 J-0.113
G1 X-27.821 Y-27.566 Z-2.84
G3 X-27.594 Y-27.799 Z-2.854 I0.114 J-0.116
G1 X-26.521 Y-26.751 Z-2.896
G3 X-26.518 Y-26.522 Z-2.903 I-0.113 J0.116
X-26.748 Y-26.519 Z-2.91 I-0.116 J-0.113
G1 X-27.821 Y-27.566 Z-2.952
G3 X-27.594 Y-27.799 Z-2.967 I0.114 J-0.116
G1 X-26.521 Y-26.751 Z-3.008
G3 X-26.518 Y-26.522 Z-3.016 I-0.113 J0.116
X-26.748 Y-26.519 Z-3.023 I-0.116 J-0.113
G1 X-27.821 Y-27.566 Z-3.065
G3 X-27.594 Y-27.799 Z-3.079 I0.114 J-0.116
G1 X-26.521 Y-26.751 Z-3.121
G3 X-26.518 Y-26.522 Z-3.128 I-0.113 J0.116
X-26.748 Y-26.519 Z-3.135 I-0.116 J-0.113
G1 X-27.821 Y-27.566 Z-3.177
G3 X-27.594 Y-27.799 Z-3.191 I0.114 J-0.116
G1 X-26.521 Y-26.751 Z-3.233
G3 X-26.518 Y-26.522 Z-3.24 I-0.113 J0.116
X-26.748 Y-26.519 Z-3.247 I-0.116 J-0.113
G1 X-27.821 Y-27.566 Z-3.289
G3 X-27.594 Y-27.799 Z-3.303 I0.114 J-0.116
G1 X-26.521 Y-26.751 Z-3.345
G3 X-26.518 Y-26.522 Z-3.352 I-0.113 J0.116
X-26.748 Y-26.519 Z-3.36 I-0.116 J-0.113
G1 X-27.821 Y-27.566 Z-3.402
G3 X-27.594 Y-27.799 Z-3.416 I0.114 J-0.116
G1 X-26.521 Y-26.751 Z-3.458
G3 X-26.518 Y-26.522 Z-3.465 I-0.113 J0.116
X-26.748 Y-26.519 Z-3.472 I-0.116 J-0.113
G1 X-27.821 Y-27.566 Z-3.514
G3 X-27.594 Y-27.799 Z-3.528 I0.114 J-0.116
G1 X-26.521 Y-26.751 Z-3.57
G3 X-26.518 Y-26.522 Z-3.577 I-0.113 J0.116
X-26.748 Y-26.519 Z-3.584 I-0.116 J-0.113
G1 X-27.821 Y-27.566 Z-3.626
G3 X-27.594 Y-27.799 Z-3.64 I0.114 J-0.116
G1 X-26.521 Y-26.751 Z-3.682
G3 X-26.518 Y-26.522 Z-3.689 I-0.113 J0.116
X-26.748 Y-26.519 Z-3.697 I-0.116 J-0.113
G1 X-27.821 Y-27.566 Z-3.738
G3 X-27.594 Y-27.799 Z-3.753 I0.114 J-0.116
G1 X-26.521 Y-26.751 Z-3.795
G3 X-26.518 Y-26.522 Z-3.802 I-0.113 J0.116
X-26.748 Y-26.519 Z-3.809 I-0.116 J-0.113
G1 X-27.821 Y-27.566 Z-3.851
G3 X-27.594 Y-27.799 Z-3.865 I0.114 J-0.116
G1 X-26.521 Y-26.751 Z-3.907
G3 X-26.518 Y-26.522 Z-3.914 I-0.113 J0.116
X-26.748 Y-26.519 Z-3.921 I-0.116 J-0.113
G1 X-27.821 Y-27.566 Z-3.963
G3 X-27.594 Y-27.799 Z-3.977 I0.114 J-0.116
G1 X-26.521 Y-26.751 Z-4.019
G3 X-26.518 Y-26.522 Z-4.026 I-0.113 J0.116
X-26.748 Y-26.519 Z-4.033 I-0.116 J-0.113
G1 X-27.821 Y-27.566 Z-4.075
G3 X-27.594 Y-27.799 Z-4.09 I0.114 J-0.116
G1 X-26.521 Y-26.751 Z-4.132
G3 X-26.518 Y-26.522 Z-4.139 I-0.113 J0.116
X-26.748 Y-26.519 Z-4.146 I-0.116 J-0.113
G1 X-27.821 Y-27.566 Z-4.188
G3 X-27.594 Y-27.799 Z-4.202 I0.114 J-0.116
G1 X-26.521 Y-26.751 Z-4.244
G3 X-26.518 Y-26.522 Z-4.251 I-0.113 J0.116
X-26.748 Y-26.519 Z-4.258 I-0.116 J-0.113
G1 X-27.821 Y-27.566 Z-4.3
S2000
G3 X-27.594 Y-27.799 I0.114 J-0.116 F1000
G1 X-26.521 Y-26.751
G3 X-26.518 Y-26.522 I-0.113 J0.116
X-26.748 Y-26.519 I-0.116 J-0.113
G1 X-27.821 Y-27.566
Z16
(When using Fusion for Personal Use, the feedrate of rapid)
(moves is reduced to match the feedrate of cutting moves,)
(which can increase machining time. Unrestricted rapid moves)
(are available with a Fusion Subscription.)

(2D-Kontur4)
G0 X0.269 Y-9.852
G1 Z15 F1000
Z5
Z0.635 F333.3
Z-0.983
X0.261 Y-9.851 Z-1.053 F1000
X0.238 Y-9.849 Z-1.12
X0.2 Y-9.845 Z-1.18
X0.15 Y-9.84 Z-1.231
X0.09 Y-9.835 Z-1.269
X0.024 Y-9.829 Z-1.292
X-0.047 Y-9.822 Z-1.3
X-0.363 Y-9.792
G3 X-0.709 Y-10.079 I-0.03 J-0.316
G2 X-2.369 Y-13.557 I-5.563 J0.521
G1 X-4.516 Y-15.652
G3 X-4.627 Y-24.72 I4.479 J-4.589
G1 X-2.532 Y-26.867
G2 X-2.628 Y-34.769 I-3.999 J-3.902
G1 X-5.491 Y-37.562
G2 X-13.392 Y-37.466 I-3.902 J3.999
G1 X-15.488 Y-35.319
G3 X-24.556 Y-35.208 I-4.589 J-4.479
G1 X-26.703 Y-37.303
G2 X-34.604 Y-37.207 I-3.902 J3.999
G1 X-40.171 Y-31.502
X-40.318 Y-31.362
X-40.473 Y-31.233
X-40.658 Y-31.097
X-40.875 Y-30.955
X-41.122 Y-30.808
X-41.398 Y-30.659
X-41.705 Y-30.509
X-42.039 Y-30.359
X-42.401 Y-30.209
X-42.79 Y-30.059
X-43.204 Y-29.912
X-43.643 Y-29.766
X-44.105 Y-29.622
X-44.59 Y-29.481
X-45.097 Y-29.343
X-45.624 Y-29.207
X-46.171 Y-29.074
X-46.737 Y-28.945
X-47.321 Y-28.818
X-47.921 Y-28.695
X-48.538 Y-28.576
X-49.17 Y-28.459
X-49.815 Y-28.346
X-50.474 Y-28.237
X-51.145 Y-28.131
X-51.825 Y-28.029
X-53.223 Y-27.834
X-54.652 Y-27.654
X-56.109 Y-27.488
X-57.586 Y-27.337
X-59.079 Y-27.199
X-60.583 Y-27.075
X-62.092 Y-26.965
X-63.603 Y-26.868
X-65.114 Y-26.785
X-66.624 Y-26.713
X-68.132 Y-26.654
X-69.639 Y-26.607
X-71.146 Y-26.57
X-72.657 Y-26.544
X-74.176 Y-26.527
X-75.707 Y-26.518
X-77.255
X-78.825 Y-26.525
X-80.42 Y-26.537
X-82.044 Y-26.556
X-83.698 Y-26.579
X-85.385 Y-26.605
X-87.102 Y-26.636
X-88.851 Y-26.668
X-90.628 Y-26.703
X-92.433 Y-26.738
X-94.262 Y-26.775
X-96.114 Y-26.811
X-97.986 Y-26.847
X-97.987
X-99.874 Y-26.881
X-99.875
X-101.775 Y-26.914
X-101.778
X-105.601 Y-26.972
X-105.606
X-109.433 Y-27.018
X-109.438
X-111.343 Y-27.034
X-111.347
X-113.239 Y-27.046
X-113.243
X-115.119 Y-27.053
X-115.124
X-116.979 Y-27.055
X-116.983
X-118.811 Y-27.051
X-118.817
X-120.616 Y-27.041
X-120.622
X-122.387 Y-27.025
X-122.392
X-123.261 Y-27.014
X-123.264
X-124.122 Y-27.002
X-124.125
X-124.973 Y-26.988
X-124.977
X-125.814 Y-26.972
X-125.818
X-126.644 Y-26.954
X-126.648
X-127.462 Y-26.935
X-127.466
X-128.268 Y-26.913
X-128.272
X-129.062 Y-26.89
X-129.067
X-129.844 Y-26.865
X-129.849
X-130.612 Y-26.838
X-130.617
X-131.368 Y-26.809
X-131.373
X-132.109 Y-26.778
X-132.115
X-132.838 Y-26.745
X-132.843
X-133.552 Y-26.711
X-133.558 Y-26.71
X-134.252 Y-26.674
X-134.259
X-134.939 Y-26.635
X-134.945
X-135.611 Y-26.594
X-135.618
X-136.183 Y-26.557
G2 X-137.96 Y-26.426 I-0.307 J7.982
G1 X-140.652 Y-25.922
G3 X-152.173 Y-24.49 I-17.387 J-92.798
G2 X-153.374 Y-23.816 I0.099 J1.584
G1 X-155.563 Y-20.69
G2 X-155.174 Y-18.479 I1.3 J0.911
G3 X-155.349 Y-18.206 I-0.093 J0.133
G2 X-156.17 Y-18.423 I-0.801 J1.371
G1 X-156.346 Y-18.421
G2 X-157.626 Y-17.744 I0.02 J1.587
G1 X-159.028 Y-15.741
G2 X-158.639 Y-13.53 I1.3 J0.91
G1 X-156.185 Y-11.812
G2 X-155.047 Y-11.541 I0.911 J-1.3
G3 X-148.065 Y-11.19 I2.597 J17.958
G1 X-148.061 Y-11.189
X-147.762 Y-11.115
X-147.496 Y-11.044
X-147.251 Y-10.974
X-147.023 Y-10.903
X-146.809 Y-10.834
X-146.608 Y-10.764
X-146.415 Y-10.696
X-146.229 Y-10.628
G2 X-142.698 Y-10.285 I2.428 J-6.659
G3 X-136.881 Y-10.598 I4.424 J28.066
G2 X-136.531 Y-10.588 I0.391 J-7.978
G1 X-136.45 Y-10.59
X-135.267 Y-10.644
X-134.095 Y-10.696
X-132.936 Y-10.746
X-131.788 Y-10.793
X-130.652 Y-10.839
X-129.529 Y-10.883
X-128.417 Y-10.924
X-127.315 Y-10.964
X-126.226 Y-11.002
X-125.147 Y-11.038
X-124.08 Y-11.072
X-123.024 Y-11.105
X-121.979 Y-11.135
X-120.945 Y-11.165
X-119.921 Y-11.193
X-118.908 Y-11.219
X-117.905 Y-11.244
X-116.913 Y-11.268
X-115.93 Y-11.29
X-114.959 Y-11.312
X-113.043 Y-11.351
X-111.166 Y-11.387
X-109.326 Y-11.421
X-107.523 Y-11.451
X-105.753 Y-11.48
X-104.015 Y-11.507
X-102.309 Y-11.534
X-100.633 Y-11.56
X-98.985 Y-11.587
X-98.984
X-97.363 Y-11.614
X-97.362
X-95.766 Y-11.642
X-95.764
X-94.192 Y-11.671
X-94.19
X-92.639 Y-11.702
X-92.637
X-91.105 Y-11.733
X-91.103
X-89.588 Y-11.767
X-89.586
X-88.088 Y-11.802
X-88.086
X-86.601 Y-11.838
X-86.6
X-85.128 Y-11.876
X-85.126
X-82.21 Y-11.954
X-79.32 Y-12.032
X-76.437 Y-12.102
X-73.538 Y-12.156
X-72.08 Y-12.172
X-70.611 Y-12.181
X-69.132 Y-12.18
X-67.642 Y-12.169
X-66.142 Y-12.145
X-64.634 Y-12.11
X-63.12 Y-12.06
X-61.603 Y-11.996
X-60.087 Y-11.918
X-58.577 Y-11.825
X-57.078 Y-11.716
X-55.597 Y-11.592
X-54.138 Y-11.452
X-52.707 Y-11.297
X-52.009 Y-11.215
X-51.319 Y-11.128
X-50.639 Y-11.038
X-49.971 Y-10.944
X-49.317 Y-10.846
X-48.676 Y-10.745
X-48.05 Y-10.641
X-47.439 Y-10.533
X-46.845 Y-10.422
X-46.268 Y-10.307
X-45.71 Y-10.19
X-45.171 Y-10.069
X-44.652 Y-9.946
X-44.154 Y-9.82
X-43.678 Y-9.691
X-43.224 Y-9.561
X-42.795 Y-9.428
X-42.39 Y-9.293
X-42.011 Y-9.158
X-41.659 Y-9.021
X-41.334 Y-8.884
X-41.038 Y-8.748
X-40.772 Y-8.614
X-40.536 Y-8.483
X-40.331 Y-8.356
X-40.159 Y-8.236
X-40.017 Y-8.125
X-39.884 Y-8.004
X-34.18 Y-2.438
G2 X-26.278 Y-2.534 I3.902 J-3.999
G1 X-24.183 Y-4.681
G3 X-15.115 Y-4.792 I4.589 J4.479
G1 X-12.968 Y-2.697
G2 X-5.067 Y-2.793 I3.902 J-3.999
G1 X-2.273 Y-5.656
G2 X-0.709 Y-10.079 I-3.999 J-3.902
G3 X-0.422 Y-10.425 I0.316 J-0.03
G1 X-0.106 Y-10.454
X-0.036 Y-10.461 Z-1.292
X0.031 Y-10.467 Z-1.269
X0.091 Y-10.473 Z-1.231
X0.141 Y-10.477 Z-1.18
X0.179 Y-10.481 Z-1.12
X0.202 Y-10.483 Z-1.053
X0.21 Y-10.484 Z-0.983
Z5
X0.269 Y-9.852
Z-0.665 F333.3
Z-2.283
X0.261 Y-9.851 Z-2.353 F1000
X0.238 Y-9.849 Z-2.42
X0.2 Y-9.845 Z-2.48
X0.15 Y-9.84 Z-2.531
X0.09 Y-9.835 Z-2.569
X0.024 Y-9.829 Z-2.592
X-0.047 Y-9.822 Z-2.6
X-0.363 Y-9.792
G3 X-0.709 Y-10.079 I-0.03 J-0.316
G2 X-2.369 Y-13.557 I-5.563 J0.521
G1 X-4.516 Y-15.652
G3 X-4.627 Y-24.72 I4.479 J-4.589
G1 X-2.532 Y-26.867
G2 X-2.628 Y-34.769 I-3.999 J-3.902
G1 X-5.491 Y-37.562
G2 X-13.392 Y-37.466 I-3.902 J3.999
G1 X-15.488 Y-35.319
G3 X-24.556 Y-35.208 I-4.589 J-4.479
G1 X-26.703 Y-37.303
G2 X-34.604 Y-37.207 I-3.902 J3.999
G1 X-40.171 Y-31.502
X-40.318 Y-31.362
X-40.473 Y-31.233
X-40.658 Y-31.097
X-40.875 Y-30.955
X-41.122 Y-30.808
X-41.398 Y-30.659
X-41.705 Y-30.509
X-42.039 Y-30.359
X-42.401 Y-30.209
X-42.79 Y-30.059
X-43.204 Y-29.912
X-43.643 Y-29.766
X-44.105 Y-29.622
X-44.59 Y-29.481
X-45.097 Y-29.343
X-45.624 Y-29.207
X-46.171 Y-29.074
X-46.737 Y-28.945
X-47.321 Y-28.818
X-47.921 Y-28.695
X-48.538 Y-28.576
X-49.17 Y-28.459
X-49.815 Y-28.346
X-50.474 Y-28.237
X-51.145 Y-28.131
X-51.825 Y-28.029
X-53.223 Y-27.834
X-54.652 Y-27.654
X-56.109 Y-27.488
X-57.586 Y-27.337
X-59.079 Y-27.199
X-60.583 Y-27.075
X-62.092 Y-26.965
X-63.603 Y-26.868
X-65.114 Y-26.785
X-66.624 Y-26.713
X-68.132 Y-26.654
X-69.639 Y-26.607
X-71.146 Y-26.57
X-72.657 Y-26.544
X-74.176 Y-26.527
X-75.707 Y-26.518
X-77.255
X-78.825 Y-26.525
X-80.42 Y-26.537
X-82.044 Y-26.556
X-83.698 Y-26.579
X-85.385 Y-26.605
X-87.102 Y-26.636
X-88.851 Y-26.668
X-90.628 Y-26.703
X-92.433 Y-26.738
X-94.262 Y-26.775
X-96.114 Y-26.811
X-97.986 Y-26.847
X-97.987
X-99.874 Y-26.881
X-99.875
X-101.775 Y-26.914
X-101.778
X-105.601 Y-26.972
X-105.606
X-109.433 Y-27.018
X-109.438
X-111.343 Y-27.034
X-111.347
X-113.239 Y-27.046
X-113.243
X-115.119 Y-27.053
X-115.124
X-116.979 Y-27.055
X-116.983
X-118.811 Y-27.051
X-118.817
X-120.616 Y-27.041
X-120.622
X-122.387 Y-27.025
X-122.392
X-123.261 Y-27.014
X-123.264
X-124.122 Y-27.002
X-124.125
X-124.973 Y-26.988
X-124.977
X-125.814 Y-26.972
X-125.818
X-126.644 Y-26.954
X-126.648
X-127.462 Y-26.935
X-127.466
X-128.268 Y-26.913
X-128.272
X-129.062 Y-26.89
X-129.067
X-129.844 Y-26.865
X-129.849
X-130.612 Y-26.838
X-130.617
X-131.368 Y-26.809
X-131.373
X-132.109 Y-26.778
X-132.115
X-132.838 Y-26.745
X-132.843
X-133.552 Y-26.711
X-133.558 Y-26.71
X-134.252 Y-26.674
X-134.259
X-134.939 Y-26.635
X-134.945
X-135.611 Y-26.594
X-135.618
X-136.183 Y-26.557
G2 X-137.96 Y-26.426 I-0.307 J7.982
G1 X-140.652 Y-25.922
G3 X-152.173 Y-24.49 I-17.387 J-92.798
G2 X-153.374 Y-23.816 I0.099 J1.584
G1 X-155.563 Y-20.69
G2 X-155.174 Y-18.479 I1.3 J0.911
G3 X-155.349 Y-18.206 I-0.093 J0.133
G2 X-156.17 Y-18.423 I-0.801 J1.371
G1 X-156.346 Y-18.421
G2 X-157.626 Y-17.744 I0.02 J1.587
G1 X-159.028 Y-15.741
G2 X-158.639 Y-13.53 I1.3 J0.91
G1 X-156.185 Y-11.812
G2 X-155.047 Y-11.541 I0.911 J-1.3
G3 X-148.065 Y-11.19 I2.597 J17.958
G1 X-148.061 Y-11.189
X-147.762 Y-11.115
X-147.496 Y-11.044
X-147.251 Y-10.974
X-147.023 Y-10.903
X-146.809 Y-10.834
X-146.608 Y-10.764
X-146.415 Y-10.696
X-146.229 Y-10.628
G2 X-142.698 Y-10.285 I2.428 J-6.659
G3 X-136.881 Y-10.598 I4.424 J28.066
G2 X-136.531 Y-10.588 I0.391 J-7.978
G1 X-136.45 Y-10.59
X-135.267 Y-10.644
X-134.095 Y-10.696
X-132.936 Y-10.746
X-131.788 Y-10.793
X-130.652 Y-10.839
X-129.529 Y-10.883
X-128.417 Y-10.924
X-127.315 Y-10.964
X-126.226 Y-11.002
X-125.147 Y-11.038
X-124.08 Y-11.072
X-123.024 Y-11.105
X-121.979 Y-11.135
X-120.945 Y-11.165
X-119.921 Y-11.193
X-118.908 Y-11.219
X-117.905 Y-11.244
X-116.913 Y-11.268
X-115.93 Y-11.29
X-114.959 Y-11.312
X-113.043 Y-11.351
X-111.166 Y-11.387
X-109.326 Y-11.421
X-107.523 Y-11.451
X-105.753 Y-11.48
X-104.015 Y-11.507
X-102.309 Y-11.534
X-100.633 Y-11.56
X-98.985 Y-11.587
X-98.984
X-97.363 Y-11.614
X-97.362
X-95.766 Y-11.642
X-95.764
X-94.192 Y-11.671
X-94.19
X-92.639 Y-11.702
X-92.637
X-91.105 Y-11.733
X-91.103
X-89.588 Y-11.767
X-89.586
X-88.088 Y-11.802
X-88.086
X-86.601 Y-11.838
X-86.6
X-85.128 Y-11.876
X-85.126
X-82.21 Y-11.954
X-79.32 Y-12.032
X-76.437 Y-12.102
X-73.538 Y-12.156
X-72.08 Y-12.172
X-70.611 Y-12.181
X-69.132 Y-12.18
X-67.642 Y-12.169
X-66.142 Y-12.145
X-64.634 Y-12.11
X-63.12 Y-12.06
X-61.603 Y-11.996
X-60.087 Y-11.918
X-58.577 Y-11.825
X-57.078 Y-11.716
X-55.597 Y-11.592
X-54.138 Y-11.452
X-52.707 Y-11.297
X-52.009 Y-11.215
X-51.319 Y-11.128
X-50.639 Y-11.038
X-49.971 Y-10.944
X-49.317 Y-10.846
X-48.676 Y-10.745
X-48.05 Y-10.641
X-47.439 Y-10.533
X-46.845 Y-10.422
X-46.268 Y-10.307
X-45.71 Y-10.19
X-45.171 Y-10.069
X-44.652 Y-9.946
X-44.154 Y-9.82
X-43.678 Y-9.691
X-43.224 Y-9.561
X-42.795 Y-9.428
X-42.39 Y-9.293
X-42.011 Y-9.158
X-41.659 Y-9.021
X-41.334 Y-8.884
X-41.038 Y-8.748
X-40.772 Y-8.614
X-40.536 Y-8.483
X-40.331 Y-8.356
X-40.159 Y-8.236
X-40.017 Y-8.125
X-39.884 Y-8.004
X-34.18 Y-2.438
G2 X-26.278 Y-2.534 I3.902 J-3.999
G1 X-24.183 Y-4.681
G3 X-15.115 Y-4.792 I4.589 J4.479
G1 X-12.968 Y-2.697
G2 X-5.067 Y-2.793 I3.902 J-3.999
G1 X-2.273 Y-5.656
G2 X-0.709 Y-10.079 I-3.999 J-3.902
G3 X-0.422 Y-10.425 I0.316 J-0.03
G1 X-0.106 Y-10.454
X-0.036 Y-10.461 Z-2.592
X0.031 Y-10.467 Z-2.569
X0.091 Y-10.473 Z-2.531
X0.141 Y-10.477 Z-2.48
X0.179 Y-10.481 Z-2.42
X0.202 Y-10.483 Z-2.353
X0.21 Y-10.484 Z-2.283
Z5
X0.269 Y-9.852
Z-1.965 F333.3
Z-3.583
X0.261 Y-9.851 Z-3.653 F1000
X0.238 Y-9.849 Z-3.72
X0.2 Y-9.845 Z-3.78
X0.15 Y-9.84 Z-3.831
X0.09 Y-9.835 Z-3.869
X0.024 Y-9.829 Z-3.892
X-0.047 Y-9.822 Z-3.9
X-0.363 Y-9.792
G3 X-0.709 Y-10.079 I-0.03 J-0.316
G2 X-2.369 Y-13.557 I-5.563 J0.521
G1 X-4.516 Y-15.652
G3 X-4.627 Y-24.72 I4.479 J-4.589
G1 X-2.532 Y-26.867
G2 X-1.354 Y-28.668 I-3.999 J-3.902
G1 Z-3.506
G2 X-2.628 Y-34.769 I-5.177 J-2.102
G1 X-2.729 Y-34.867
Z-3.9 F333.3
X-5.491 Y-37.562 F1000
G2 X-13.392 Y-37.466 I-3.902 J3.999
G1 X-15.488 Y-35.319
G3 X-24.556 Y-35.208 I-4.589 J-4.479
G1 X-26.703 Y-37.303
G2 X-34.604 Y-37.207 I-3.902 J3.999
G1 X-40.171 Y-31.502
X-40.318 Y-31.362
X-40.473 Y-31.233
X-40.658 Y-31.097
X-40.875 Y-30.955
X-41.122 Y-30.808
X-41.398 Y-30.659
X-41.705 Y-30.509
X-42.039 Y-30.359
X-42.401 Y-30.209
X-42.79 Y-30.059
X-43.204 Y-29.912
X-43.643 Y-29.766
X-44.105 Y-29.622
X-44.59 Y-29.481
X-45.097 Y-29.343
X-45.624 Y-29.207
X-46.171 Y-29.074
X-46.737 Y-28.945
X-47.321 Y-28.818
X-47.921 Y-28.695
X-48.538 Y-28.576
X-49.17 Y-28.459
X-49.815 Y-28.346
X-50.474 Y-28.237
X-51.145 Y-28.131
X-51.825 Y-28.029
X-53.223 Y-27.834
X-54.652 Y-27.654
X-56.109 Y-27.488
X-57.586 Y-27.337
X-59.079 Y-27.199
X-60.583 Y-27.075
X-62.092 Y-26.965
X-63.603 Y-26.868
X-65.114 Y-26.785
X-66.624 Y-26.713
X-68.132 Y-26.654
X-69.639 Y-26.607
X-71.146 Y-26.57
X-72.657 Y-26.544
X-74.176 Y-26.527
X-75.707 Y-26.518
X-77.255
X-78.825 Y-26.525
X-80.42 Y-26.537
X-80.483 Y-26.538
Z-3.506
X-82.044 Y-26.556
X-83.698 Y-26.579
X-85.385 Y-26.605
X-86.833 Y-26.631
Z-3.9 F333.3
X-87.102 Y-26.636 F1000
X-88.851 Y-26.668
X-90.628 Y-26.703
X-92.433 Y-26.738
X-94.262 Y-26.775
X-96.114 Y-26.811
X-97.986 Y-26.847
X-97.987
X-99.874 Y-26.881
X-99.875
X-101.775 Y-26.914
X-101.778
X-105.601 Y-26.972
X-105.606
X-109.433 Y-27.018
X-109.438
X-111.343 Y-27.034
X-111.347
X-113.239 Y-27.046
X-113.243
X-115.119 Y-27.053
X-115.124
X-116.979 Y-27.055
X-116.983
X-118.811 Y-27.051
X-118.817
X-120.616 Y-27.041
X-120.622
X-122.387 Y-27.025
X-122.392
X-123.261 Y-27.014
X-123.264
X-124.122 Y-27.002
X-124.125
X-124.973 Y-26.988
X-124.977
X-125.814 Y-26.972
X-125.818
X-126.644 Y-26.954
X-126.648
X-127.462 Y-26.935
X-127.466
X-128.268 Y-26.913
X-128.272
X-129.062 Y-26.89
X-129.067
X-129.844 Y-26.865
X-129.849
X-130.612 Y-26.838
X-130.617
X-131.368 Y-26.809
X-131.373
X-132.109 Y-26.778
X-132.115
X-132.838 Y-26.745
X-132.843
X-133.552 Y-26.711
X-133.558 Y-26.71
X-134.252 Y-26.674
X-134.259
X-134.939 Y-26.635
X-134.945
X-135.611 Y-26.594
X-135.618
X-136.183 Y-26.557
G2 X-137.96 Y-26.426 I-0.307 J7.982
G1 X-140.652 Y-25.922
G3 X-152.173 Y-24.49 I-17.387 J-92.798
G2 X-153.374 Y-23.816 I0.099 J1.584
G1 X-155.563 Y-20.69
G2 X-155.174 Y-18.479 I1.3 J0.911
G3 X-155.349 Y-18.206 I-0.093 J0.133
G2 X-156.17 Y-18.423 I-0.801 J1.371
G1 X-156.346 Y-18.421
G2 X-157.626 Y-17.744 I0.02 J1.587
G1 X-159.028 Y-15.741
G2 X-158.639 Y-13.53 I1.3 J0.91
G1 X-156.185 Y-11.812
G2 X-155.047 Y-11.541 I0.911 J-1.3
G3 X-151.303 Y-11.691 I2.597 J17.958
G1 Z-3.506
G3 X-148.065 Y-11.19 I-1.147 J18.109
G1 X-148.061 Y-11.189
X-147.762 Y-11.115
X-147.496 Y-11.044
X-147.251 Y-10.974
X-147.023 Y-10.903
X-146.809 Y-10.834
X-146.608 Y-10.764
X-146.415 Y-10.696
X-146.229 Y-10.628
G2 X-145.102 Y-10.319 I2.428 J-6.659
G1 Z-3.9 F333.3
G2 X-142.698 Y-10.285 I1.301 J-6.967 F1000
G3 X-136.881 Y-10.598 I4.424 J28.066
G2 X-136.531 Y-10.588 I0.391 J-7.978
G1 X-136.45 Y-10.59
X-135.267 Y-10.644
X-134.095 Y-10.696
X-132.936 Y-10.746
X-131.788 Y-10.793
X-130.652 Y-10.839
X-129.529 Y-10.883
X-128.417 Y-10.924
X-127.315 Y-10.964
X-126.226 Y-11.002
X-125.147 Y-11.038
X-124.08 Y-11.072
X-123.024 Y-11.105
X-121.979 Y-11.135
X-120.945 Y-11.165
X-119.921 Y-11.193
X-118.908 Y-11.219
X-117.905 Y-11.244
X-116.913 Y-11.268
X-115.93 Y-11.29
X-114.959 Y-11.312
X-113.043 Y-11.351
X-111.166 Y-11.387
X-109.326 Y-11.421
X-107.523 Y-11.451
X-105.753 Y-11.48
X-104.015 Y-11.507
X-102.309 Y-11.534
X-100.633 Y-11.56
X-98.985 Y-11.587
X-98.984
X-97.363 Y-11.614
X-97.362
X-95.766 Y-11.642
X-95.764
X-94.192 Y-11.671
X-94.19
X-92.639 Y-11.702
X-92.637
X-91.105 Y-11.733
X-91.103
X-89.588 Y-11.767
X-89.586
X-88.088 Y-11.802
X-88.086
X-86.601 Y-11.838
X-86.6
X-85.128 Y-11.876
X-85.126
X-82.21 Y-11.954
X-79.32 Y-12.032
X-76.437 Y-12.102
X-73.538 Y-12.156
X-72.08 Y-12.172
X-70.611 Y-12.181
X-69.132 Y-12.18
X-67.642 Y-12.169
X-66.142 Y-12.145
X-64.634 Y-12.11
X-63.12 Y-12.06
X-61.603 Y-11.996
X-60.361 Y-11.932
Z-3.506
X-60.087 Y-11.918
X-58.577 Y-11.825
X-57.078 Y-11.716
X-55.597 Y-11.592
X-54.138 Y-11.452
X-54.03 Y-11.441
Z-3.9 F333.3
X-52.707 Y-11.297 F1000
X-52.009 Y-11.215
X-51.319 Y-11.128
X-50.639 Y-11.038
X-49.971 Y-10.944
X-49.317 Y-10.846
X-48.676 Y-10.745
X-48.05 Y-10.641
X-47.439 Y-10.533
X-46.845 Y-10.422
X-46.268 Y-10.307
X-45.71 Y-10.19
X-45.171 Y-10.069
X-44.652 Y-9.946
X-44.154 Y-9.82
X-43.678 Y-9.691
X-43.224 Y-9.561
X-42.795 Y-9.428
X-42.39 Y-9.293
X-42.011 Y-9.158
X-41.659 Y-9.021
X-41.334 Y-8.884
X-41.038 Y-8.748
X-40.772 Y-8.614
X-40.536 Y-8.483
X-40.331 Y-8.356
X-40.159 Y-8.236
X-40.017 Y-8.125
X-39.884 Y-8.004
X-34.18 Y-2.438
G2 X-26.278 Y-2.534 I3.902 J-3.999
G1 X-24.183 Y-4.681
G3 X-15.115 Y-4.792 I4.589 J4.479
G1 X-12.968 Y-2.697
G2 X-5.067 Y-2.793 I3.902 J-3.999
G1 X-2.273 Y-5.656
G2 X-0.709 Y-10.079 I-3.999 J-3.902
G3 X-0.422 Y-10.425 I0.316 J-0.03
G1 X-0.106 Y-10.454
X-0.036 Y-10.461 Z-3.892
X0.031 Y-10.467 Z-3.869
X0.091 Y-10.473 Z-3.831
X0.141 Y-10.477 Z-3.78
X0.179 Y-10.481 Z-3.72
X0.202 Y-10.483 Z-3.653
X0.21 Y-10.484 Z-3.583
Z5
X0.269 Y-9.852
Z-3.265 F333.3
Z-3.983
X0.261 Y-9.851 Z-4.053 F1000
X0.238 Y-9.849 Z-4.12
X0.2 Y-9.845 Z-4.18
X0.15 Y-9.84 Z-4.231
X0.09 Y-9.835 Z-4.269
X0.024 Y-9.829 Z-4.292
X-0.047 Y-9.822 Z-4.3
X-0.363 Y-9.792
G3 X-0.709 Y-10.079 I-0.03 J-0.316
G2 X-2.369 Y-13.557 I-5.563 J0.521
G1 X-4.516 Y-15.652
G3 X-4.627 Y-24.72 I4.479 J-4.589
G1 X-2.532 Y-26.867
G2 X-1.354 Y-28.668 I-3.999 J-3.902
G1 Z-3.506
G2 X-2.628 Y-34.769 I-5.177 J-2.102
G1 X-2.729 Y-34.867
Z-4.3 F333.3
X-5.491 Y-37.562 F1000
G2 X-13.392 Y-37.466 I-3.902 J3.999
G1 X-15.488 Y-35.319
G3 X-24.556 Y-35.208 I-4.589 J-4.479
G1 X-26.703 Y-37.303
G2 X-34.604 Y-37.207 I-3.902 J3.999
G1 X-40.171 Y-31.502
X-40.318 Y-31.362
X-40.473 Y-31.233
X-40.658 Y-31.097
X-40.875 Y-30.955
X-41.122 Y-30.808
X-41.398 Y-30.659
X-41.705 Y-30.509
X-42.039 Y-30.359
X-42.401 Y-30.209
X-42.79 Y-30.059
X-43.204 Y-29.912
X-43.643 Y-29.766
X-44.105 Y-29.622
X-44.59 Y-29.481
X-45.097 Y-29.343
X-45.624 Y-29.207
X-46.171 Y-29.074
X-46.737 Y-28.945
X-47.321 Y-28.818
X-47.921 Y-28.695
X-48.538 Y-28.576
X-49.17 Y-28.459
X-49.815 Y-28.346
X-50.474 Y-28.237
X-51.145 Y-28.131
X-51.825 Y-28.029
X-53.223 Y-27.834
X-54.652 Y-27.654
X-56.109 Y-27.488
X-57.586 Y-27.337
X-59.079 Y-27.199
X-60.583 Y-27.075
X-62.092 Y-26.965
X-63.603 Y-26.868
X-65.114 Y-26.785
X-66.624 Y-26.713
X-68.132 Y-26.654
X-69.639 Y-26.607
X-71.146 Y-26.57
X-72.657 Y-26.544
X-74.176 Y-26.527
X-75.707 Y-26.518
X-77.255
X-78.825 Y-26.525
X-80.42 Y-26.537
X-80.483 Y-26.538
Z-3.506
X-82.044 Y-26.556
X-83.698 Y-26.579
X-85.385 Y-26.605
X-86.833 Y-26.631
Z-4.3 F333.3
X-87.102 Y-26.636 F1000
X-88.851 Y-26.668
X-90.628 Y-26.703
X-92.433 Y-26.738
X-94.262 Y-26.775
X-96.114 Y-26.811
X-97.986 Y-26.847
X-97.987
X-99.874 Y-26.881
X-99.875
X-101.775 Y-26.914
X-101.778
X-105.601 Y-26.972
X-105.606
X-109.433 Y-27.018
X-109.438
X-111.343 Y-27.034
X-111.347
X-113.239 Y-27.046
X-113.243
X-115.119 Y-27.053
X-115.124
X-116.979 Y-27.055
X-116.983
X-118.811 Y-27.051
X-118.817
X-120.616 Y-27.041
X-120.622
X-122.387 Y-27.025
X-122.392
X-123.261 Y-27.014
X-123.264
X-124.122 Y-27.002
X-124.125
X-124.973 Y-26.988
X-124.977
X-125.814 Y-26.972
X-125.818
X-126.644 Y-26.954
X-126.648
X-127.462 Y-26.935
X-127.466
X-128.268 Y-26.913
X-128.272
X-129.062 Y-26.89
X-129.067
X-129.844 Y-26.865
X-129.849
X-130.612 Y-26.838
X-130.617
X-131.368 Y-26.809
X-131.373
X-132.109 Y-26.778
X-132.115
X-132.838 Y-26.745
X-132.843
X-133.552 Y-26.711
X-133.558 Y-26.71
X-134.252 Y-26.674
X-134.259
X-134.939 Y-26.635
X-134.945
X-135.611 Y-26.594
X-135.618
X-136.183 Y-26.557
G2 X-137.96 Y-26.426 I-0.307 J7.982
G1 X-140.652 Y-25.922
G3 X-152.173 Y-24.49 I-17.387 J-92.798
G2 X-153.374 Y-23.816 I0.099 J1.584
G1 X-155.563 Y-20.69
G2 X-155.174 Y-18.479 I1.3 J0.911
G3 X-155.349 Y-18.206 I-0.093 J0.133
G2 X-156.17 Y-18.423 I-0.801 J1.371
G1 X-156.346 Y-18.421
G2 X-157.626 Y-17.744 I0.02 J1.587
G1 X-159.028 Y-15.741
G2 X-158.639 Y-13.53 I1.3 J0.91
G1 X-156.185 Y-11.812
G2 X-155.047 Y-11.541 I0.911 J-1.3
G3 X-151.303 Y-11.691 I2.597 J17.958
G1 Z-3.506
G3 X-148.065 Y-11.19 I-1.147 J18.109
G1 X-148.061 Y-11.189
X-147.762 Y-11.115
X-147.496 Y-11.044
X-147.251 Y-10.974
X-147.023 Y-10.903
X-146.809 Y-10.834
X-146.608 Y-10.764
X-146.415 Y-10.696
X-146.229 Y-10.628
G2 X-145.102 Y-10.319 I2.428 J-6.659
G1 Z-4.3 F333.3
G2 X-142.698 Y-10.285 I1.301 J-6.967 F1000
G3 X-136.881 Y-10.598 I4.424 J28.066
G2 X-136.531 Y-10.588 I0.391 J-7.978
G1 X-136.45 Y-10.59
X-135.267 Y-10.644
X-134.095 Y-10.696
X-132.936 Y-10.746
X-131.788 Y-10.793
X-130.652 Y-10.839
X-129.529 Y-10.883
X-128.417 Y-10.924
X-127.315 Y-10.964
X-126.226 Y-11.002
X-125.147 Y-11.038
X-124.08 Y-11.072
X-123.024 Y-11.105
X-121.979 Y-11.135
X-120.945 Y-11.165
X-119.921 Y-11.193
X-118.908 Y-11.219
X-117.905 Y-11.244
X-116.913 Y-11.268
X-115.93 Y-11.29
X-114.959 Y-11.312
X-113.043 Y-11.351
X-111.166 Y-11.387
X-109.326 Y-11.421
X-107.523 Y-11.451
X-105.753 Y-11.48
X-104.015 Y-11.507
X-102.309 Y-11.534
X-100.633 Y-11.56
X-98.985 Y-11.587
X-98.984
X-97.363 Y-11.614
X-97.362
X-95.766 Y-11.642
X-95.764
X-94.192 Y-11.671
X-94.19
X-92.639 Y-11.702
X-92.637
X-91.105 Y-11.733
X-91.103
X-89.588 Y-11.767
X-89.586
X-88.088 Y-11.802
X-88.086
X-86.601 Y-11.838
X-86.6
X-85.128 Y-11.876
X-85.126
X-82.21 Y-11.954
X-79.32 Y-12.032
X-76.437 Y-12.102
X-73.538 Y-12.156
X-72.08 Y-12.172
X-70.611 Y-12.181
X-69.132 Y-12.18
X-67.642 Y-12.169
X-66.142 Y-12.145
X-64.634 Y-12.11
X-63.12 Y-12.06
X-61.603 Y-11.996
X-60.361 Y-11.932
Z-3.506
X-60.087 Y-11.918
X-58.577 Y-11.825
X-57.078 Y-11.716
X-55.597 Y-11.592
X-54.138 Y-11.452
X-54.03 Y-11.441
Z-4.3 F333.3
X-52.707 Y-11.297 F1000
X-52.009 Y-11.215
X-51.319 Y-11.128
X-50.639 Y-11.038
X-49.971 Y-10.944
X-49.317 Y-10.846
X-48.676 Y-10.745
X-48.05 Y-10.641
X-47.439 Y-10.533
X-46.845 Y-10.422
X-46.268 Y-10.307
X-45.71 Y-10.19
X-45.171 Y-10.069
X-44.652 Y-9.946
X-44.154 Y-9.82
X-43.678 Y-9.691
X-43.224 Y-9.561
X-42.795 Y-9.428
X-42.39 Y-9.293
X-42.011 Y-9.158
X-41.659 Y-9.021
X-41.334 Y-8.884
X-41.038 Y-8.748
X-40.772 Y-8.614
X-40.536 Y-8.483
X-40.331 Y-8.356
X-40.159 Y-8.236
X-40.017 Y-8.125
X-39.884 Y-8.004
X-34.18 Y-2.438
G2 X-26.278 Y-2.534 I3.902 J-3.999
G1 X-24.183 Y-4.681
G3 X-15.115 Y-4.792 I4.589 J4.479
G1 X-12.968 Y-2.697
G2 X-5.067 Y-2.793 I3.902 J-3.999
G1 X-2.273 Y-5.656
G2 X-0.709 Y-10.079 I-3.999 J-3.902
G3 X-0.422 Y-10.425 I0.316 J-0.03
G1 X-0.106 Y-10.454
X-0.036 Y-10.461 Z-4.292
X0.031 Y-10.467 Z-4.269
X0.091 Y-10.473 Z-4.231
X0.141 Y-10.477 Z-4.18
X0.179 Y-10.481 Z-4.12
X0.202 Y-10.483 Z-4.053
X0.21 Y-10.484 Z-3.983
Z15

M5
M30
