(1001)
G90 G94
G17
G21
(When using Fusion 360 for Personal Use, the feedrate of)
(rapid moves is reduced to match the feedrate of cutting)
(moves, which can increase machining time. Unrestricted rapid)
(moves are available with a Fusion 360 Subscription.)

(Bohrfrasen2)
S6000 M3
G54
G0 X-31.825 Y-21.359
Z15
G1 Z2 F600
Z0.15 F400
X-31.818 Z0.104
X-31.796 Z0.062
X-31.763 Z0.029
X-31.721 Z0.007
X-31.675 Z0
X-31.6
X-31.554 Y-21.351
X-31.512 Y-21.33
X-31.479 Y-21.297
X-31.457 Y-21.255
X-31.45 Y-21.209
G3 X-32.15 Y-21.209 Z-0.5 I-0.35 J0 F600
X-31.45 Y-21.209 Z-1 I0.35 J0
X-32.15 Y-21.209 I-0.35 J0
X-31.45 Y-21.209 I0.35 J0
G1 X-31.457 Y-21.162
X-31.479 Y-21.12
X-31.512 Y-21.087
X-31.554 Y-21.066
X-31.6 Y-21.059
X-31.675
X-31.721 Z-0.993
X-31.763 Z-0.971
X-31.796 Z-0.938
X-31.818 Z-0.896
X-31.825 Z-0.85
Z5
X-39.025 Y-17.359
Z2
Z0.15 F400
X-39.018 Z0.104
X-38.996 Z0.062
X-38.963 Z0.029
X-38.921 Z0.007
X-38.875 Z0
X-38.8
X-38.754 Y-17.351
X-38.712 Y-17.33
X-38.679 Y-17.297
X-38.657 Y-17.255
X-38.65 Y-17.209
G3 X-40.55 Y-17.209 Z-0.5 I-0.95 J0 F600
X-38.65 Y-17.209 Z-1 I0.95 J0
X-40.55 Y-17.209 I-0.95 J0
X-38.65 Y-17.209 I0.95 J0
G1 X-38.657 Y-17.162
X-38.679 Y-17.12
X-38.712 Y-17.087
X-38.754 Y-17.066
X-38.8 Y-17.059
X-38.875
X-38.921 Z-0.993
X-38.963 Z-0.971
X-38.996 Z-0.938
X-39.018 Z-0.896
X-39.025 Z-0.85
Z5
X-31.825 Y-4.359
Z2
Z0.15 F400
X-31.818 Z0.104
X-31.796 Z0.062
X-31.763 Z0.029
X-31.721 Z0.007
X-31.675 Z0
X-31.6
X-31.554 Y-4.351
X-31.512 Y-4.33
X-31.479 Y-4.297
X-31.457 Y-4.255
X-31.45 Y-4.209
G3 X-32.15 Y-4.209 Z-0.5 I-0.35 J0 F600
X-31.45 Y-4.209 Z-1 I0.35 J0
X-32.15 Y-4.209 I-0.35 J0
X-31.45 Y-4.209 I0.35 J0
G1 X-31.457 Y-4.162
X-31.479 Y-4.12
X-31.512 Y-4.087
X-31.554 Y-4.066
X-31.6 Y-4.059
X-31.675
X-31.721 Z-0.993
X-31.763 Z-0.971
X-31.796 Z-0.938
X-31.818 Z-0.896
X-31.825 Z-0.85
Z5
X-11.825 Y-4.359
Z2
Z0.15 F400
X-11.818 Z0.104
X-11.796 Z0.062
X-11.763 Z0.029
X-11.721 Z0.007
X-11.675 Z0
X-11.6
X-11.554 Y-4.351
X-11.512 Y-4.33
X-11.479 Y-4.297
X-11.457 Y-4.255
X-11.45 Y-4.209
G3 X-12.15 Y-4.209 Z-0.5 I-0.35 J0 F600
X-11.45 Y-4.209 Z-1 I0.35 J0
X-12.15 Y-4.209 I-0.35 J0
X-11.45 Y-4.209 I0.35 J0
G1 X-11.457 Y-4.162
X-11.479 Y-4.12
X-11.512 Y-4.087
X-11.554 Y-4.066
X-11.6 Y-4.059
X-11.675
X-11.721 Z-0.993
X-11.763 Z-0.971
X-11.796 Z-0.938
X-11.818 Z-0.896
X-11.825 Z-0.85
Z5
X-3.425 Y-17.359
Z2
Z0.15 F400
X-3.418 Z0.104
X-3.396 Z0.062
X-3.363 Z0.029
X-3.321 Z0.007
X-3.275 Z0
X-3.2
X-3.154 Y-17.351
X-3.112 Y-17.33
X-3.079 Y-17.297
X-3.057 Y-17.255
X-3.05 Y-17.209
G3 X-4.95 Y-17.209 Z-0.5 I-0.95 J0 F600
X-3.05 Y-17.209 Z-1 I0.95 J0
X-4.95 Y-17.209 I-0.95 J0
X-3.05 Y-17.209 I0.95 J0
G1 X-3.057 Y-17.162
X-3.079 Y-17.12
X-3.112 Y-17.087
X-3.154 Y-17.066
X-3.2 Y-17.059
X-3.275
X-3.321 Z-0.993
X-3.363 Z-0.971
X-3.396 Z-0.938
X-3.418 Z-0.896
X-3.425 Z-0.85
Z5
X-11.825 Y-21.359
Z2
Z0.15 F400
X-11.818 Z0.104
X-11.796 Z0.062
X-11.763 Z0.029
X-11.721 Z0.007
X-11.675 Z0
X-11.6
X-11.554 Y-21.351
X-11.512 Y-21.33
X-11.479 Y-21.297
X-11.457 Y-21.255
X-11.45 Y-21.209
G3 X-12.15 Y-21.209 Z-0.5 I-0.35 J0 F600
X-11.45 Y-21.209 Z-1 I0.35 J0
X-12.15 Y-21.209 I-0.35 J0
X-11.45 Y-21.209 I0.35 J0
G1 X-11.457 Y-21.162
X-11.479 Y-21.12
X-11.512 Y-21.087
X-11.554 Y-21.066
X-11.6 Y-21.059
X-11.675
X-11.721 Z-0.993
X-11.763 Z-0.971
X-11.796 Z-0.938
X-11.818 Z-0.896
X-11.825 Z-0.85
Z5
X-3.425 Y-45.359
Z2
Z0.15 F400
X-3.418 Z0.104
X-3.396 Z0.062
X-3.363 Z0.029
X-3.321 Z0.007
X-3.275 Z0
X-3.2
X-3.154 Y-45.351
X-3.112 Y-45.33
X-3.079 Y-45.297
X-3.057 Y-45.255
X-3.05 Y-45.209
G3 X-4.95 Y-45.209 Z-0.5 I-0.95 J0 F600
X-3.05 Y-45.209 Z-1 I0.95 J0
X-4.95 Y-45.209 I-0.95 J0
X-3.05 Y-45.209 I0.95 J0
G1 X-3.057 Y-45.162
X-3.079 Y-45.12
X-3.112 Y-45.087
X-3.154 Y-45.066
X-3.2 Y-45.059
X-3.275
X-3.321 Z-0.993
X-3.363 Z-0.971
X-3.396 Z-0.938
X-3.418 Z-0.896
X-3.425 Z-0.85
Z5
X-11.825 Y-41.359
Z2
Z0.15 F400
X-11.818 Z0.104
X-11.796 Z0.062
X-11.763 Z0.029
X-11.721 Z0.007
X-11.675 Z0
X-11.6
X-11.554 Y-41.351
X-11.512 Y-41.33
X-11.479 Y-41.297
X-11.457 Y-41.255
X-11.45 Y-41.209
G3 X-12.15 Y-41.209 Z-0.5 I-0.35 J0 F600
X-11.45 Y-41.209 Z-1 I0.35 J0
X-12.15 Y-41.209 I-0.35 J0
X-11.45 Y-41.209 I0.35 J0
G1 X-11.457 Y-41.162
X-11.479 Y-41.12
X-11.512 Y-41.087
X-11.554 Y-41.066
X-11.6 Y-41.059
X-11.675
X-11.721 Z-0.993
X-11.763 Z-0.971
X-11.796 Z-0.938
X-11.818 Z-0.896
X-11.825 Z-0.85
Z5
X-31.825 Y-41.359
Z2
Z0.15 F400
X-31.818 Z0.104
X-31.796 Z0.062
X-31.763 Z0.029
X-31.721 Z0.007
X-31.675 Z0
X-31.6
X-31.554 Y-41.351
X-31.512 Y-41.33
X-31.479 Y-41.297
X-31.457 Y-41.255
X-31.45 Y-41.209
G3 X-32.15 Y-41.209 Z-0.5 I-0.35 J0 F600
X-31.45 Y-41.209 Z-1 I0.35 J0
X-32.15 Y-41.209 I-0.35 J0
X-31.45 Y-41.209 I0.35 J0
G1 X-31.457 Y-41.162
X-31.479 Y-41.12
X-31.512 Y-41.087
X-31.554 Y-41.066
X-31.6 Y-41.059
X-31.675
X-31.721 Z-0.993
X-31.763 Z-0.971
X-31.796 Z-0.938
X-31.818 Z-0.896
X-31.825 Z-0.85
Z5
X-39.025 Y-45.359
Z2
Z0.15 F400
X-39.018 Z0.104
X-38.996 Z0.062
X-38.963 Z0.029
X-38.921 Z0.007
X-38.875 Z0
X-38.8
X-38.754 Y-45.351
X-38.712 Y-45.33
X-38.679 Y-45.297
X-38.657 Y-45.255
X-38.65 Y-45.209
G3 X-40.55 Y-45.209 Z-0.5 I-0.95 J0 F600
X-38.65 Y-45.209 Z-1 I0.95 J0
X-40.55 Y-45.209 I-0.95 J0
X-38.65 Y-45.209 I0.95 J0
G1 X-38.657 Y-45.162
X-38.679 Y-45.12
X-38.712 Y-45.087
X-38.754 Y-45.066
X-38.8 Y-45.059
X-38.875
X-38.921 Z-0.993
X-38.963 Z-0.971
X-38.996 Z-0.938
X-39.018 Z-0.896
X-39.025 Z-0.85
Z5
X-24.925 Y-59.359
Z2
Z0.15 F400
X-24.918 Z0.104
X-24.896 Z0.062
X-24.863 Z0.029
X-24.821 Z0.007
X-24.775 Z0
X-24.7
X-24.654 Y-59.351
X-24.612 Y-59.33
X-24.579 Y-59.297
X-24.557 Y-59.255
X-24.55 Y-59.209
G3 X-27.05 Y-59.209 Z-0.5 I-1.25 J0 F600
X-24.55 Y-59.209 Z-1 I1.25 J0
X-27.05 Y-59.209 I-1.25 J0
X-24.55 Y-59.209 I1.25 J0
G1 X-24.557 Y-59.162
X-24.579 Y-59.12
X-24.612 Y-59.087
X-24.654 Y-59.066
X-24.7 Y-59.059
X-24.775
X-24.821 Z-0.993
X-24.863 Z-0.971
X-24.896 Z-0.938
X-24.918 Z-0.896
X-24.925 Z-0.85
Z5
X-16.925 Y-59.359
Z2
Z0.15 F400
X-16.918 Z0.104
X-16.896 Z0.062
X-16.863 Z0.029
X-16.821 Z0.007
X-16.775 Z0
X-16.7
X-16.654 Y-59.351
X-16.612 Y-59.33
X-16.579 Y-59.297
X-16.557 Y-59.255
X-16.55 Y-59.209
G3 X-19.05 Y-59.209 Z-0.5 I-1.25 J0 F600
X-16.55 Y-59.209 Z-1 I1.25 J0
X-19.05 Y-59.209 I-1.25 J0
X-16.55 Y-59.209 I1.25 J0
G1 X-16.557 Y-59.162
X-16.579 Y-59.12
X-16.612 Y-59.087
X-16.654 Y-59.066
X-16.7 Y-59.059
X-16.775
X-16.821 Z-0.993
X-16.863 Z-0.971
X-16.896 Z-0.938
X-16.918 Z-0.896
X-16.925 Z-0.85
Z15
(When using Fusion 360 for Personal Use, the feedrate of)
(rapid moves is reduced to match the feedrate of cutting)
(moves, which can increase machining time. Unrestricted rapid)
(moves are available with a Fusion 360 Subscription.)

(2D-Kontur2)
G0 X-20.177 Y-25.173
G1 Z15 F600
Z5
Z2.5 F300
G3 X-23.423 Y-37.244 Z1.814 I-1.623 J-6.036 F1016
X-20.177 Y-25.173 Z1.129 I1.623 J6.036
X-23.423 Y-37.244 Z0.443 I-1.623 J-6.036
X-15.604 Y-32.027 Z0.071 I1.623 J6.036
X-21.8 Y-24.959 Z-0.3 I-6.196 J0.818
X-21.8 Y-37.459 I0 J-6.25 F600
X-21.8 Y-24.959 I0 J6.25
X-27.93 Y-29.99 Z-0.6 I0 J-6.25 F1016
X-15.67 Y-32.427 I6.13 J-1.219 F600
X-27.93 Y-29.99 I-6.13 J1.219
X-24.191 Y-36.983 Z-0.9 I6.13 J-1.219 F1016
X-19.409 Y-25.434 I2.391 J5.775 F600
X-24.191 Y-36.983 I-2.391 J-5.775
X-21.39 Y-37.445 Z-1 I2.391 J5.775 F1016
X-22.21 Y-24.972 I-0.41 J6.237 F600
X-21.39 Y-37.445 I0.41 J-6.237
G1 Z5
X-28.549 Y-46.265
Z2.5 F300
G3 X-26.8 Y-47.959 Z2.406 I1.749 J0.056 F1016
G1 X-16.8 Z2.057
G3 X-16.8 Y-44.459 Z1.865 I0 J1.75
G1 X-26.8 Z1.516
G3 X-26.8 Y-47.959 Z1.324 I0 J-1.75
G1 X-16.8 Z0.974
G3 X-16.8 Y-44.459 Z0.782 I0 J1.75
G1 X-26.8 Z0.433
G3 X-26.8 Y-47.959 Z0.241 I0 J-1.75
G1 X-16.8 Z-0.108
G3 X-16.8 Y-44.459 Z-0.3 I0 J1.75
G1 X-26.8 F600
G3 X-26.8 Y-47.959 I0 J-1.75
G1 X-16.8
G3 X-16.8 Y-44.459 I0 J1.75
G1 X-25.391 Z-0.6 F1016
X-26.8 F600
G3 X-26.8 Y-47.959 I0 J-1.75
G1 X-16.8
G3 X-16.8 Y-44.459 I0 J1.75
G1 X-25.391
X-26.8 Z-0.649 F1016
G3 X-26.8 Y-47.959 Z-0.841 I0 J-1.75
G1 X-25.116 Z-0.9
X-16.8 F600
G3 X-16.8 Y-44.459 I0 J1.75
G1 X-25.391
X-26.8
G3 X-26.8 Y-47.959 I0 J-1.75
G1 X-25.116
X-22.252 Z-1 F1016
X-16.8 F600
G3 X-16.8 Y-44.459 I0 J1.75
G1 X-26.8
G3 X-26.8 Y-47.959 I0 J-1.75
G1 X-22.252
Z5
X-38.55 Y-31.255
Z2.5 F300
Y-25.709 Z2.306 F1016
G3 X-41.05 Y-25.709 Z2.169 I-1.25 J0
G1 Y-36.709 Z1.785
G3 X-38.55 Y-36.709 Z1.648 I1.25 J0
G1 Y-25.709 Z1.264
G3 X-41.05 Y-25.709 Z1.127 I-1.25 J0
G1 Y-36.709 Z0.743
G3 X-38.55 Y-36.709 Z0.605 I1.25 J0
G1 Y-25.709 Z0.221
G3 X-41.05 Y-25.709 Z0.084 I-1.25 J0
G1 Y-36.709 Z-0.3
G3 X-38.55 Y-36.709 I1.25 J0 F600
G1 Y-25.709
G3 X-41.05 Y-25.709 I-1.25 J0
G1 Y-36.709
G3 X-38.55 Y-36.709 Z-0.437 I1.25 J0 F1016
G1 Y-32.045 Z-0.6
Y-25.709 F600
G3 X-41.05 Y-25.709 I-1.25 J0
G1 Y-36.709
G3 X-38.55 Y-36.709 I1.25 J0
G1 Y-32.045
Y-25.709 Z-0.821 F1016
G3 X-40.089 Y-24.492 Z-0.9 I-1.25 J0
X-41.05 Y-25.709 I0.289 J-1.216 F600
G1 Y-36.709
G3 X-38.55 Y-36.709 I1.25 J0
G1 Y-25.709
G3 X-40.089 Y-24.492 I-1.25 J0
X-41.05 Y-25.709 Z-0.958 I0.289 J-1.216 F1016
G1 Y-26.9 Z-1
Y-36.709 F600
G3 X-38.55 Y-36.709 I1.25 J0
G1 Y-25.709
G3 X-41.05 Y-25.709 I-1.25 J0
G1 Y-26.9
Z5
X-28.549 Y-10.764
Z2.5 F300
G3 X-26.8 Y-12.459 Z2.406 I1.749 J0.056 F1016
G1 X-16.8 Z2.057
G3 X-16.8 Y-8.959 Z1.865 I0 J1.75
G1 X-26.8 Z1.516
G3 X-26.8 Y-12.459 Z1.324 I0 J-1.75
G1 X-16.8 Z0.974
G3 X-16.8 Y-8.959 Z0.782 I0 J1.75
G1 X-26.8 Z0.433
G3 X-26.8 Y-12.459 Z0.241 I0 J-1.75
G1 X-16.8 Z-0.108
G3 X-16.8 Y-8.959 Z-0.3 I0 J1.75
G1 X-26.8 F600
G3 X-26.8 Y-12.459 I0 J-1.75
G1 X-16.8
G3 X-16.8 Y-8.959 I0 J1.75
G1 X-25.391 Z-0.6 F1016
X-26.8 F600
G3 X-26.8 Y-12.459 I0 J-1.75
G1 X-16.8
G3 X-16.8 Y-8.959 I0 J1.75
G1 X-25.391
X-26.8 Z-0.649 F1016
G3 X-26.8 Y-12.459 Z-0.841 I0 J-1.75
G1 X-25.116 Z-0.9
X-16.8 F600
G3 X-16.8 Y-8.959 I0 J1.75
G1 X-25.391
X-26.8
G3 X-26.8 Y-12.459 I0 J-1.75
G1 X-25.116
X-22.252 Z-1 F1016
X-16.8 F600
G3 X-16.8 Y-8.959 I0 J1.75
G1 X-26.8
G3 X-26.8 Y-12.459 I0 J-1.75
G1 X-22.252
Z5
X-5.05 Y-31.162
Z2.5 F300
Y-36.709 Z2.306 F1016
G3 X-2.55 Y-36.709 Z2.169 I1.25 J0
G1 Y-25.709 Z1.785
G3 X-5.05 Y-25.709 Z1.648 I-1.25 J0
G1 Y-36.709 Z1.264
G3 X-2.55 Y-36.709 Z1.127 I1.25 J0
G1 Y-25.709 Z0.743
G3 X-5.05 Y-25.709 Z0.605 I-1.25 J0
G1 Y-36.709 Z0.221
G3 X-2.55 Y-36.709 Z0.084 I1.25 J0
G1 Y-25.709 Z-0.3
G3 X-5.05 Y-25.709 I-1.25 J0 F600
G1 Y-36.709
G3 X-2.55 Y-36.709 I1.25 J0
G1 Y-25.709
G3 X-5.05 Y-25.709 Z-0.437 I-1.25 J0 F1016
G1 Y-30.372 Z-0.6
Y-36.709 F600
G3 X-2.55 Y-36.709 I1.25 J0
G1 Y-25.709
G3 X-5.05 Y-25.709 I-1.25 J0
G1 Y-30.372
Y-36.709 Z-0.821 F1016
G3 X-3.511 Y-37.925 Z-0.9 I1.25 J0
X-2.55 Y-36.709 I-0.289 J1.216 F600
G1 Y-25.709
G3 X-5.05 Y-25.709 I-1.25 J0
G1 Y-36.709
G3 X-3.511 Y-37.925 I1.25 J0
X-2.55 Y-36.709 Z-0.958 I-0.289 J1.216 F1016
G1 Y-35.517 Z-1
Y-25.709 F600
G3 X-5.05 Y-25.709 I-1.25 J0
G1 Y-36.709
G3 X-2.55 Y-36.709 I1.25 J0
G1 Y-35.517
Z15
(When using Fusion 360 for Personal Use, the feedrate of)
(rapid moves is reduced to match the feedrate of cutting)
(moves, which can increase machining time. Unrestricted rapid)
(moves are available with a Fusion 360 Subscription.)

(2D-Kontur3)
G0 X-44.236 Y-14.777
G1 Z15 F600
Z5
Z2.5 F300
X-44.235 Y-14.762 Z2.499 F1016
X-44.233 Y-14.743
X-44.17 Y-14.178 Z2.479
X-44.168 Y-14.159 Z2.478
X-44.092 Y-13.607 Z2.459
X-44.089 Y-13.588 Z2.458
X-44.001 Y-13.048 Z2.439
X-43.998 Y-13.029 Z2.438
X-43.897 Y-12.502 Z2.42
X-43.894 Y-12.483 Z2.419
X-43.782 Y-11.968 Z2.401
X-43.777 Y-11.949 Z2.4
X-43.655 Y-11.447 Z2.382
X-43.65 Y-11.428 Z2.381
X-43.517 Y-10.938 Z2.363
X-43.511 Y-10.92
X-43.369 Y-10.443 Z2.345
X-43.363 Y-10.425
X-43.211 Y-9.959 Z2.328
X-43.205 Y-9.942 Z2.327
X-43.045 Y-9.489 Z2.31
X-43.039 Y-9.472
X-42.871 Y-9.031 Z2.293
X-42.864 Y-9.015 Z2.292
X-42.689 Y-8.585 Z2.276
X-42.683 Y-8.569
X-42.501 Y-8.152 Z2.26
X-42.494 Y-8.137 Z2.259
X-42.307 Y-7.732 Z2.244
X-42.3 Y-7.716 Z2.243
X-42.107 Y-7.323 Z2.228
X-42.1 Y-7.308 Z2.227
X-41.902 Y-6.926 Z2.212
X-41.894 Y-6.912
X-41.692 Y-6.542 Z2.197
X-41.684 Y-6.528 Z2.196
X-41.479 Y-6.169 Z2.182
X-41.47 Y-6.155 Z2.181
X-41.26 Y-5.808 Z2.167
X-41.252 Y-5.793
X-41.038 Y-5.458 Z2.153
X-41.029 Y-5.443 Z2.152
X-40.812 Y-5.119 Z2.138
X-40.802 Y-5.104
X-40.582 Y-4.791 Z2.124
X-40.572 Y-4.776
X-40.349 Y-4.474 Z2.111
X-40.337 Y-4.459 Z2.11
X-40.11 Y-4.167 Z2.097
X-40.098 Y-4.152 Z2.096
X-39.867 Y-3.871 Z2.084
X-39.854 Y-3.855 Z2.083
X-39.619 Y-3.584 Z2.07
X-39.604 Y-3.568
X-39.364 Y-3.308 Z2.057
X-39.348 Y-3.291
X-39.102 Y-3.041 Z2.044
X-39.084 Y-3.024 Z2.043
X-38.833 Y-2.784 Z2.031
X-38.813 Y-2.766 Z2.03
X-38.554 Y-2.536 Z2.018
X-38.532 Y-2.518 Z2.017
X-38.264 Y-2.298 Z2.005
X-38.24 Y-2.279 Z2.004
X-37.961 Y-2.069 Z1.992
X-37.936 Y-2.051 Z1.991
X-37.645 Y-1.85 Z1.978
X-37.618 Y-1.832 Z1.977
X-37.313 Y-1.641 Z1.965
X-37.285 Y-1.624 Z1.964
X-36.965 Y-1.441 Z1.951
X-36.936 Y-1.426 Z1.95
X-36.598 Y-1.252 Z1.936
X-36.569 Y-1.239 Z1.935
X-36.212 Y-1.073 Z1.921
X-36.184 Y-1.061 Z1.92
X-35.805 Y-0.905 Z1.906
X-35.779 Y-0.894 Z1.905
X-35.377 Y-0.746 Z1.89
X-35.353 Y-0.737 Z1.889
X-34.928 Y-0.597 Z1.874
X-34.905 Y-0.59 Z1.873
X-34.456 Y-0.457 Z1.856
X-34.434 Y-0.451
X-33.961 Y-0.327 Z1.839
X-33.941 Y-0.322 Z1.838
X-33.442 Y-0.205 Z1.82
X-33.425 Y-0.201 Z1.819
X-32.901 Y-0.091 Z1.801
X-32.885 Y-0.088 Z1.8
X-32.338 Y0.014 Z1.781
X-32.323 Y0.017 Z1.78
X-31.751 Y0.112 Z1.76
X-31.738 Y0.114 Z1.759
X-31.143 Y0.202 Z1.738
X-31.131 Y0.204
X-30.514 Y0.285 Z1.716
X-30.503 Y0.286
X-29.865 Y0.36 Z1.693
X-29.855 Y0.362
X-29.197 Y0.429 Z1.67
X-29.188 Y0.43
X-28.511 Y0.491 Z1.646
X-28.503
X-27.809 Y0.546 Z1.621
X-27.801
X-27.092 Y0.594 Z1.596
X-27.085
X-26.362 Y0.635 Z1.571
X-26.355 Y0.636 Z1.57
X-25.62 Y0.671 Z1.545
X-25.613
X-24.869 Y0.699 Z1.519
X-24.859 Z1.518
X-23.347 Y0.737 Z1.465
X-23.335
X-21.806 Y0.75 Z1.412
X-21.794 Z1.411
X-20.265 Y0.737 Z1.358
X-20.253 Z1.357
X-18.741 Y0.699 Z1.304
X-18.731
X-17.987 Y0.671 Z1.278
X-17.98
X-17.245 Y0.636 Z1.252
X-17.238 Y0.635
X-16.515 Y0.594 Z1.227
X-16.508 Z1.226
X-15.799 Y0.546 Z1.202
X-15.791 Z1.201
X-15.097 Y0.491 Z1.177
X-15.089
X-14.412 Y0.43 Z1.153
X-14.403 Y0.429
X-13.745 Y0.362 Z1.13
X-13.735 Y0.36 Z1.129
X-13.097 Y0.286 Z1.107
X-13.086 Y0.285 Z1.106
X-12.469 Y0.204 Z1.085
X-12.457 Y0.202 Z1.084
X-11.862 Y0.114 Z1.063
X-11.849 Y0.112
X-11.277 Y0.017 Z1.043
X-11.262 Y0.014 Z1.042
X-10.715 Y-0.088 Z1.023
X-10.699 Y-0.091 Z1.022
X-10.175 Y-0.201 Z1.003
X-10.158 Y-0.205
X-9.659 Y-0.322 Z0.985
X-9.639 Y-0.327 Z0.984
X-9.166 Y-0.451 Z0.967
X-9.144 Y-0.457 Z0.966
X-8.695 Y-0.59 Z0.95
X-8.672 Y-0.597 Z0.949
X-8.247 Y-0.737 Z0.933
X-8.223 Y-0.746
X-7.821 Y-0.894 Z0.918
X-7.795 Y-0.905 Z0.917
X-7.416 Y-1.061 Z0.902
X-7.388 Y-1.073 Z0.901
X-7.031 Y-1.239 Z0.887
X-7.002 Y-1.252 Z0.886
X-6.664 Y-1.426 Z0.873
X-6.635 Y-1.441 Z0.872
X-6.315 Y-1.624 Z0.859
X-6.287 Y-1.641 Z0.858
X-5.982 Y-1.832 Z0.845
X-5.955 Y-1.85 Z0.844
X-5.664 Y-2.051 Z0.832
X-5.639 Y-2.069 Z0.831
X-5.36 Y-2.279 Z0.819
X-5.336 Y-2.298 Z0.818
X-5.068 Y-2.518 Z0.805
X-5.046 Y-2.536 Z0.804
X-4.787 Y-2.766 Z0.792
X-4.767 Y-2.784 Z0.791
X-4.516 Y-3.024 Z0.779
X-4.498 Y-3.041 Z0.778
X-4.252 Y-3.291 Z0.766
X-4.236 Y-3.308 Z0.765
X-3.996 Y-3.568 Z0.753
X-3.981 Y-3.584 Z0.752
X-3.746 Y-3.855 Z0.74
X-3.733 Y-3.871 Z0.739
X-3.502 Y-4.152 Z0.726
X-3.49 Y-4.167
X-3.263 Y-4.459 Z0.713
X-3.251 Y-4.474 Z0.712
X-3.028 Y-4.776 Z0.699
X-3.017 Y-4.791 Z0.698
X-2.797 Y-5.104 Z0.685
X-2.788 Y-5.119 Z0.684
X-2.571 Y-5.443 Z0.671
X-2.562 Y-5.458 Z0.67
X-2.348 Y-5.793 Z0.656
X-2.34 Y-5.808
X-2.13 Y-6.155 Z0.641
X-2.121 Y-6.169
X-1.916 Y-6.528 Z0.626
X-1.908 Y-6.542
X-1.706 Y-6.912 Z0.611
X-1.698 Y-6.927
X-1.5 Y-7.308 Z0.596
X-1.493 Y-7.323 Z0.595
X-1.3 Y-7.716 Z0.58
X-1.293 Y-7.732 Z0.579
X-1.106 Y-8.137 Z0.563
X-1.099 Y-8.152
X-0.917 Y-8.569 Z0.547
X-0.911 Y-8.585 Z0.546
X-0.736 Y-9.015 Z0.53
X-0.729 Y-9.031
X-0.561 Y-9.472 Z0.513
X-0.555 Y-9.489 Z0.512
X-0.395 Y-9.942 Z0.496
X-0.389 Y-9.959 Z0.495
X-0.237 Y-10.425 Z0.478
X-0.231 Y-10.443 Z0.477
X-0.089 Y-10.92 Z0.46
X-0.083 Y-10.939 Z0.459
X0.05 Y-11.429 Z0.441
X0.055 Y-11.447
X0.177 Y-11.949 Z0.423
X0.182 Y-11.968 Z0.422
X0.294 Y-12.483 Z0.404
X0.297 Y-12.502 Z0.403
X0.398 Y-13.029 Z0.384
X0.401 Y-13.048
X0.489 Y-13.588 Z0.365
X0.492 Y-13.607 Z0.364
X0.568 Y-14.159 Z0.344
X0.57 Y-14.178
X0.633 Y-14.743 Z0.324
X0.635 Y-14.762 Z0.323
X0.684 Y-15.339 Z0.303
X0.685 Y-15.357 Z0.302
X0.72 Y-15.947 Z0.282
X0.721 Y-15.965 Z0.281
X0.742 Y-16.567 Z0.26
X0.743 Y-16.585 Z0.259
X0.75 Y-17.2 Z0.238
Y-17.209
Y-32.604 Z-0.3
Y-45.209 F600
G2 X-4 Y-49.959 I-4.75 J0
G1 X-8.8
G3 X-11.05 Y-52.209 I0 J-2.25
G1 Y-62.209
G2 X-14.8 Y-65.959 I-3.75 J0
G1 X-28.8
G2 X-32.55 Y-62.209 I0 J3.75
G1 Y-52.209
G3 X-34.8 Y-49.959 I-2.25 J0
G1 X-39.599
G2 X-44.35 Y-45.209 I-0.001 J4.75
G1 Y-17.209
Y-17.2
X-44.343 Y-16.585
X-44.342 Y-16.567
X-44.321 Y-15.965
X-44.32 Y-15.947
X-44.285 Y-15.358
X-44.284 Y-15.339
X-44.235 Y-14.762
X-44.233 Y-14.743
X-44.17 Y-14.178
X-44.168 Y-14.159
X-44.092 Y-13.607
X-44.089 Y-13.588
X-44.001 Y-13.048
X-43.998 Y-13.029
X-43.897 Y-12.502
X-43.894 Y-12.483
X-43.782 Y-11.968
X-43.777 Y-11.949
X-43.655 Y-11.447
X-43.65 Y-11.428
X-43.517 Y-10.938
X-43.511 Y-10.92
X-43.369 Y-10.443
X-43.363 Y-10.425
X-43.211 Y-9.959
X-43.205 Y-9.942
X-43.045 Y-9.489
X-43.039 Y-9.472
X-42.871 Y-9.031
X-42.864 Y-9.015
X-42.689 Y-8.585
X-42.683 Y-8.569
X-42.501 Y-8.152
X-42.494 Y-8.137
X-42.307 Y-7.732
X-42.3 Y-7.716
X-42.107 Y-7.323
X-42.1 Y-7.308
X-41.902 Y-6.926
X-41.894 Y-6.912
X-41.692 Y-6.542
X-41.684 Y-6.528
X-41.479 Y-6.169
X-41.47 Y-6.155
X-41.26 Y-5.808
X-41.252 Y-5.793
X-41.038 Y-5.458
X-41.029 Y-5.443
X-40.812 Y-5.119
X-40.802 Y-5.104
X-40.582 Y-4.791
X-40.572 Y-4.776
X-40.349 Y-4.474
X-40.337 Y-4.459
X-40.11 Y-4.167
X-40.098 Y-4.152
X-39.867 Y-3.871
X-39.854 Y-3.855
X-39.619 Y-3.584
X-39.604 Y-3.568
X-39.364 Y-3.308
X-39.348 Y-3.291
X-39.102 Y-3.041
X-39.084 Y-3.024
X-38.833 Y-2.784
X-38.813 Y-2.766
X-38.554 Y-2.536
X-38.532 Y-2.518
X-38.264 Y-2.298
X-38.24 Y-2.279
X-37.961 Y-2.069
X-37.936 Y-2.051
X-37.645 Y-1.85
X-37.618 Y-1.832
X-37.313 Y-1.641
X-37.285 Y-1.624
X-36.965 Y-1.441
X-36.936 Y-1.426
X-36.598 Y-1.252
X-36.569 Y-1.239
X-36.212 Y-1.073
X-36.184 Y-1.061
X-35.805 Y-0.905
X-35.779 Y-0.894
X-35.377 Y-0.746
X-35.353 Y-0.737
X-34.928 Y-0.597
X-34.905 Y-0.59
X-34.456 Y-0.457
X-34.434 Y-0.451
X-33.961 Y-0.327
X-33.941 Y-0.322
X-33.442 Y-0.205
X-33.425 Y-0.201
X-32.901 Y-0.091
X-32.885 Y-0.088
X-32.338 Y0.014
X-32.323 Y0.017
X-31.751 Y0.112
X-31.738 Y0.114
X-31.143 Y0.202
X-31.131 Y0.204
X-30.514 Y0.285
X-30.503 Y0.286
X-29.865 Y0.36
X-29.855 Y0.362
X-29.197 Y0.429
X-29.188 Y0.43
X-28.511 Y0.491
X-28.503
X-27.809 Y0.546
X-27.801
X-27.092 Y0.594
X-27.085
X-26.362 Y0.635
X-26.355 Y0.636
X-25.62 Y0.671
X-25.613
X-24.869 Y0.699
X-24.859
X-23.347 Y0.737
X-23.335
X-21.806 Y0.75
X-21.794
X-20.265 Y0.737
X-20.253
X-18.741 Y0.699
X-18.731
X-17.987 Y0.671
X-17.98
X-17.245 Y0.636
X-17.238 Y0.635
X-16.515 Y0.594
X-16.508
X-15.799 Y0.546
X-15.791
X-15.097 Y0.491
X-15.089
X-14.412 Y0.43
X-14.403 Y0.429
X-13.745 Y0.362
X-13.735 Y0.36
X-13.097 Y0.286
X-13.086 Y0.285
X-12.469 Y0.204
X-12.457 Y0.202
X-11.862 Y0.114
X-11.849 Y0.112
X-11.277 Y0.017
X-11.262 Y0.014
X-10.715 Y-0.088
X-10.699 Y-0.091
X-10.175 Y-0.201
X-10.158 Y-0.205
X-9.659 Y-0.322
X-9.639 Y-0.327
X-9.166 Y-0.451
X-9.144 Y-0.457
X-8.695 Y-0.59
X-8.672 Y-0.597
X-8.247 Y-0.737
X-8.223 Y-0.746
X-7.821 Y-0.894
X-7.795 Y-0.905
X-7.416 Y-1.061
X-7.388 Y-1.073
X-7.031 Y-1.239
X-7.002 Y-1.252
X-6.664 Y-1.426
X-6.635 Y-1.441
X-6.315 Y-1.624
X-6.287 Y-1.641
X-5.982 Y-1.832
X-5.955 Y-1.85
X-5.664 Y-2.051
X-5.639 Y-2.069
X-5.36 Y-2.279
X-5.336 Y-2.298
X-5.068 Y-2.518
X-5.046 Y-2.536
X-4.787 Y-2.766
X-4.767 Y-2.784
X-4.516 Y-3.024
X-4.498 Y-3.041
X-4.252 Y-3.291
X-4.236 Y-3.308
X-3.996 Y-3.568
X-3.981 Y-3.584
X-3.746 Y-3.855
X-3.733 Y-3.871
X-3.502 Y-4.152
X-3.49 Y-4.167
X-3.263 Y-4.459
X-3.251 Y-4.474
X-3.028 Y-4.776
X-3.017 Y-4.791
X-2.797 Y-5.104
X-2.788 Y-5.119
X-2.571 Y-5.443
X-2.562 Y-5.458
X-2.348 Y-5.793
X-2.34 Y-5.808
X-2.13 Y-6.155
X-2.121 Y-6.169
X-1.916 Y-6.528
X-1.908 Y-6.542
X-1.706 Y-6.912
X-1.698 Y-6.927
X-1.5 Y-7.308
X-1.493 Y-7.323
X-1.3 Y-7.716
X-1.293 Y-7.732
X-1.106 Y-8.137
X-1.099 Y-8.152
X-0.917 Y-8.569
X-0.911 Y-8.585
X-0.736 Y-9.015
X-0.729 Y-9.031
X-0.561 Y-9.472
X-0.555 Y-9.489
X-0.395 Y-9.942
X-0.389 Y-9.959
X-0.237 Y-10.425
X-0.231 Y-10.443
X-0.089 Y-10.92
X-0.083 Y-10.939
X0.05 Y-11.429
X0.055 Y-11.447
X0.177 Y-11.949
X0.182 Y-11.968
X0.294 Y-12.483
X0.297 Y-12.502
X0.398 Y-13.029
X0.401 Y-13.048
X0.489 Y-13.588
X0.492 Y-13.607
X0.568 Y-14.159
X0.57 Y-14.178
X0.633 Y-14.743
X0.635 Y-14.762
X0.684 Y-15.339
X0.685 Y-15.357
X0.72 Y-15.947
X0.721 Y-15.965
X0.742 Y-16.567
X0.743 Y-16.585
X0.75 Y-17.2
Y-17.209
Y-32.604
Y-41.195 Z-0.6 F1016
Y-45.209 F600
G2 X-4 Y-49.959 I-4.75 J0
G1 X-8.8
G3 X-11.05 Y-52.209 I0 J-2.25
G1 Y-62.209
G2 X-14.8 Y-65.959 I-3.75 J0
G1 X-28.8
G2 X-32.55 Y-62.209 I0 J3.75
G1 Y-52.209
G3 X-34.8 Y-49.959 I-2.25 J0
G1 X-39.599
G2 X-44.35 Y-45.209 I-0.001 J4.75
G1 Y-17.209
Y-17.2
X-44.343 Y-16.585
X-44.342 Y-16.567
X-44.321 Y-15.965
X-44.32 Y-15.947
X-44.285 Y-15.358
X-44.284 Y-15.339
X-44.235 Y-14.762
X-44.233 Y-14.743
X-44.17 Y-14.178
X-44.168 Y-14.159
X-44.092 Y-13.607
X-44.089 Y-13.588
X-44.001 Y-13.048
X-43.998 Y-13.029
X-43.897 Y-12.502
X-43.894 Y-12.483
X-43.782 Y-11.968
X-43.777 Y-11.949
X-43.655 Y-11.447
X-43.65 Y-11.428
X-43.517 Y-10.938
X-43.511 Y-10.92
X-43.369 Y-10.443
X-43.363 Y-10.425
X-43.211 Y-9.959
X-43.205 Y-9.942
X-43.045 Y-9.489
X-43.039 Y-9.472
X-42.871 Y-9.031
X-42.864 Y-9.015
X-42.689 Y-8.585
X-42.683 Y-8.569
X-42.501 Y-8.152
X-42.494 Y-8.137
X-42.307 Y-7.732
X-42.3 Y-7.716
X-42.107 Y-7.323
X-42.1 Y-7.308
X-41.902 Y-6.926
X-41.894 Y-6.912
X-41.692 Y-6.542
X-41.684 Y-6.528
X-41.479 Y-6.169
X-41.47 Y-6.155
X-41.26 Y-5.808
X-41.252 Y-5.793
X-41.038 Y-5.458
X-41.029 Y-5.443
X-40.812 Y-5.119
X-40.802 Y-5.104
X-40.582 Y-4.791
X-40.572 Y-4.776
X-40.349 Y-4.474
X-40.337 Y-4.459
X-40.11 Y-4.167
X-40.098 Y-4.152
X-39.867 Y-3.871
X-39.854 Y-3.855
X-39.619 Y-3.584
X-39.604 Y-3.568
X-39.364 Y-3.308
X-39.348 Y-3.291
X-39.102 Y-3.041
X-39.084 Y-3.024
X-38.833 Y-2.784
X-38.813 Y-2.766
X-38.554 Y-2.536
X-38.532 Y-2.518
X-38.264 Y-2.298
X-38.24 Y-2.279
X-37.961 Y-2.069
X-37.936 Y-2.051
X-37.645 Y-1.85
X-37.618 Y-1.832
X-37.313 Y-1.641
X-37.285 Y-1.624
X-36.965 Y-1.441
X-36.936 Y-1.426
X-36.598 Y-1.252
X-36.569 Y-1.239
X-36.212 Y-1.073
X-36.184 Y-1.061
X-35.805 Y-0.905
X-35.779 Y-0.894
X-35.377 Y-0.746
X-35.353 Y-0.737
X-34.928 Y-0.597
X-34.905 Y-0.59
X-34.456 Y-0.457
X-34.434 Y-0.451
X-33.961 Y-0.327
X-33.941 Y-0.322
X-33.442 Y-0.205
X-33.425 Y-0.201
X-32.901 Y-0.091
X-32.885 Y-0.088
X-32.338 Y0.014
X-32.323 Y0.017
X-31.751 Y0.112
X-31.738 Y0.114
X-31.143 Y0.202
X-31.131 Y0.204
X-30.514 Y0.285
X-30.503 Y0.286
X-29.865 Y0.36
X-29.855 Y0.362
X-29.197 Y0.429
X-29.188 Y0.43
X-28.511 Y0.491
X-28.503
X-27.809 Y0.546
X-27.801
X-27.092 Y0.594
X-27.085
X-26.362 Y0.635
X-26.355 Y0.636
X-25.62 Y0.671
X-25.613
X-24.869 Y0.699
X-24.859
X-23.347 Y0.737
X-23.335
X-21.806 Y0.75
X-21.794
X-20.265 Y0.737
X-20.253
X-18.741 Y0.699
X-18.731
X-17.987 Y0.671
X-17.98
X-17.245 Y0.636
X-17.238 Y0.635
X-16.515 Y0.594
X-16.508
X-15.799 Y0.546
X-15.791
X-15.097 Y0.491
X-15.089
X-14.412 Y0.43
X-14.403 Y0.429
X-13.745 Y0.362
X-13.735 Y0.36
X-13.097 Y0.286
X-13.086 Y0.285
X-12.469 Y0.204
X-12.457 Y0.202
X-11.862 Y0.114
X-11.849 Y0.112
X-11.277 Y0.017
X-11.262 Y0.014
X-10.715 Y-0.088
X-10.699 Y-0.091
X-10.175 Y-0.201
X-10.158 Y-0.205
X-9.659 Y-0.322
X-9.639 Y-0.327
X-9.166 Y-0.451
X-9.144 Y-0.457
X-8.695 Y-0.59
X-8.672 Y-0.597
X-8.247 Y-0.737
X-8.223 Y-0.746
X-7.821 Y-0.894
X-7.795 Y-0.905
X-7.416 Y-1.061
X-7.388 Y-1.073
X-7.031 Y-1.239
X-7.002 Y-1.252
X-6.664 Y-1.426
X-6.635 Y-1.441
X-6.315 Y-1.624
X-6.287 Y-1.641
X-5.982 Y-1.832
X-5.955 Y-1.85
X-5.664 Y-2.051
X-5.639 Y-2.069
X-5.36 Y-2.279
X-5.336 Y-2.298
X-5.068 Y-2.518
X-5.046 Y-2.536
X-4.787 Y-2.766
X-4.767 Y-2.784
X-4.516 Y-3.024
X-4.498 Y-3.041
X-4.252 Y-3.291
X-4.236 Y-3.308
X-3.996 Y-3.568
X-3.981 Y-3.584
X-3.746 Y-3.855
X-3.733 Y-3.871
X-3.502 Y-4.152
X-3.49 Y-4.167
X-3.263 Y-4.459
X-3.251 Y-4.474
X-3.028 Y-4.776
X-3.017 Y-4.791
X-2.797 Y-5.104
X-2.788 Y-5.119
X-2.571 Y-5.443
X-2.562 Y-5.458
X-2.348 Y-5.793
X-2.34 Y-5.808
X-2.13 Y-6.155
X-2.121 Y-6.169
X-1.916 Y-6.528
X-1.908 Y-6.542
X-1.706 Y-6.912
X-1.698 Y-6.927
X-1.5 Y-7.308
X-1.493 Y-7.323
X-1.3 Y-7.716
X-1.293 Y-7.732
X-1.106 Y-8.137
X-1.099 Y-8.152
X-0.917 Y-8.569
X-0.911 Y-8.585
X-0.736 Y-9.015
X-0.729 Y-9.031
X-0.561 Y-9.472
X-0.555 Y-9.489
X-0.395 Y-9.942
X-0.389 Y-9.959
X-0.237 Y-10.425
X-0.231 Y-10.443
X-0.089 Y-10.92
X-0.083 Y-10.939
X0.05 Y-11.429
X0.055 Y-11.447
X0.177 Y-11.949
X0.182 Y-11.968
X0.294 Y-12.483
X0.297 Y-12.502
X0.398 Y-13.029
X0.401 Y-13.048
X0.489 Y-13.588
X0.492 Y-13.607
X0.568 Y-14.159
X0.57 Y-14.178
X0.633 Y-14.743
X0.635 Y-14.762
X0.684 Y-15.339
X0.685 Y-15.357
X0.72 Y-15.947
X0.721 Y-15.965
X0.742 Y-16.567
X0.743 Y-16.585
X0.75 Y-17.2
Y-17.209
Y-32.604
Y-41.195
Y-45.209 Z-0.74 F1016
G2 X-1.29 Y-49.11 Z-0.9 I-4.75 J0
X-4 Y-49.959 I-2.71 J3.901 F600
G1 X-8.8
G3 X-11.05 Y-52.209 I0 J-2.25
G1 Y-62.209
G2 X-14.8 Y-65.959 I-3.75 J0
G1 X-28.8
G2 X-32.55 Y-62.209 I0 J3.75
G1 Y-52.209
G3 X-34.8 Y-49.959 I-2.25 J0
G1 X-39.599
G2 X-44.35 Y-45.209 I-0.001 J4.75
G1 Y-32.959
Z-0.625
Y-29.459
Z-0.9 F300
Y-17.209 F600
Y-17.2
X-44.343 Y-16.585
X-44.342 Y-16.567
X-44.321 Y-15.965
X-44.32 Y-15.947
X-44.285 Y-15.358
X-44.284 Y-15.339
X-44.235 Y-14.762
X-44.233 Y-14.743
X-44.17 Y-14.178
X-44.168 Y-14.159
X-44.092 Y-13.607
X-44.089 Y-13.588
X-44.001 Y-13.048
X-43.998 Y-13.029
X-43.897 Y-12.502
X-43.894 Y-12.483
X-43.782 Y-11.968
X-43.777 Y-11.949
X-43.655 Y-11.447
X-43.65 Y-11.428
X-43.517 Y-10.938
X-43.511 Y-10.92
X-43.369 Y-10.443
X-43.363 Y-10.425
X-43.211 Y-9.959
X-43.205 Y-9.942
X-43.045 Y-9.489
X-43.039 Y-9.472
X-42.871 Y-9.031
X-42.864 Y-9.015
X-42.689 Y-8.585
X-42.683 Y-8.569
X-42.501 Y-8.152
X-42.494 Y-8.137
X-42.307 Y-7.732
X-42.3 Y-7.716
X-42.107 Y-7.323
X-42.1 Y-7.308
X-41.902 Y-6.926
X-41.894 Y-6.912
X-41.692 Y-6.542
X-41.684 Y-6.528
X-41.479 Y-6.169
X-41.47 Y-6.155
X-41.26 Y-5.808
X-41.252 Y-5.793
X-41.038 Y-5.458
X-41.029 Y-5.443
X-40.812 Y-5.119
X-40.802 Y-5.104
X-40.582 Y-4.791
X-40.572 Y-4.776
X-40.349 Y-4.474
X-40.337 Y-4.459
X-40.253 Y-4.35
Z-0.625
X-40.11 Y-4.167
X-40.098 Y-4.152
X-39.867 Y-3.871
X-39.854 Y-3.855
X-39.619 Y-3.584
X-39.604 Y-3.568
X-39.364 Y-3.308
X-39.348 Y-3.291
X-39.102 Y-3.041
X-39.084 Y-3.024
X-38.833 Y-2.784
X-38.813 Y-2.766
X-38.554 Y-2.536
X-38.532 Y-2.518
X-38.264 Y-2.298
X-38.24 Y-2.279
X-37.961 Y-2.069
X-37.936 Y-2.051
X-37.738 Y-1.915
Z-0.9 F300
X-37.645 Y-1.85 F600
X-37.618 Y-1.832
X-37.313 Y-1.641
X-37.285 Y-1.624
X-36.965 Y-1.441
X-36.936 Y-1.426
X-36.598 Y-1.252
X-36.569 Y-1.239
X-36.212 Y-1.073
X-36.184 Y-1.061
X-35.805 Y-0.905
X-35.779 Y-0.894
X-35.377 Y-0.746
X-35.353 Y-0.737
X-34.928 Y-0.597
X-34.905 Y-0.59
X-34.456 Y-0.457
X-34.434 Y-0.451
X-33.961 Y-0.327
X-33.941 Y-0.322
X-33.442 Y-0.205
X-33.425 Y-0.201
X-32.901 Y-0.091
X-32.885 Y-0.088
X-32.338 Y0.014
X-32.323 Y0.017
X-31.751 Y0.112
X-31.738 Y0.114
X-31.143 Y0.202
X-31.131 Y0.204
X-30.514 Y0.285
X-30.503 Y0.286
X-29.865 Y0.36
X-29.855 Y0.362
X-29.197 Y0.429
X-29.188 Y0.43
X-28.511 Y0.491
X-28.503
X-27.809 Y0.546
X-27.801
X-27.092 Y0.594
X-27.085
X-26.362 Y0.635
X-26.355 Y0.636
X-25.62 Y0.671
X-25.613
X-24.869 Y0.699
X-24.859
X-23.347 Y0.737
X-23.335
X-21.806 Y0.75
X-21.794
X-20.265 Y0.737
X-20.253
X-18.741 Y0.699
X-18.731
X-17.987 Y0.671
X-17.98
X-17.245 Y0.636
X-17.238 Y0.635
X-16.515 Y0.594
X-16.508
X-15.799 Y0.546
X-15.791
X-15.097 Y0.491
X-15.089
X-14.412 Y0.43
X-14.403 Y0.429
X-13.745 Y0.362
X-13.735 Y0.36
X-13.097 Y0.286
X-13.086 Y0.285
X-12.469 Y0.204
X-12.457 Y0.202
X-11.862 Y0.114
X-11.849 Y0.112
X-11.277 Y0.017
X-11.262 Y0.014
X-10.715 Y-0.088
X-10.699 Y-0.091
X-10.175 Y-0.201
X-10.158 Y-0.205
X-9.659 Y-0.322
X-9.639 Y-0.327
X-9.166 Y-0.451
X-9.144 Y-0.457
X-8.695 Y-0.59
X-8.672 Y-0.597
X-8.247 Y-0.737
X-8.223 Y-0.746
X-7.821 Y-0.894
X-7.795 Y-0.905
X-7.416 Y-1.061
X-7.388 Y-1.073
X-7.031 Y-1.239
X-7.002 Y-1.252
X-6.664 Y-1.426
X-6.635 Y-1.441
X-6.315 Y-1.624
X-6.287 Y-1.641
X-5.982 Y-1.832
X-5.955 Y-1.85
X-5.862 Y-1.915
Z-0.625
X-5.664 Y-2.051
X-5.639 Y-2.069
X-5.36 Y-2.279
X-5.336 Y-2.298
X-5.068 Y-2.518
X-5.046 Y-2.536
X-4.787 Y-2.766
X-4.767 Y-2.784
X-4.516 Y-3.024
X-4.498 Y-3.041
X-4.252 Y-3.291
X-4.236 Y-3.308
X-3.996 Y-3.568
X-3.981 Y-3.584
X-3.746 Y-3.855
X-3.733 Y-3.871
X-3.502 Y-4.152
X-3.49 Y-4.167
X-3.347 Y-4.35
Z-0.9 F300
X-3.263 Y-4.459 F600
X-3.251 Y-4.474
X-3.028 Y-4.776
X-3.017 Y-4.791
X-2.797 Y-5.104
X-2.788 Y-5.119
X-2.571 Y-5.443
X-2.562 Y-5.458
X-2.348 Y-5.793
X-2.34 Y-5.808
X-2.13 Y-6.155
X-2.121 Y-6.169
X-1.916 Y-6.528
X-1.908 Y-6.542
X-1.706 Y-6.912
X-1.698 Y-6.927
X-1.5 Y-7.308
X-1.493 Y-7.323
X-1.3 Y-7.716
X-1.293 Y-7.732
X-1.106 Y-8.137
X-1.099 Y-8.152
X-0.917 Y-8.569
X-0.911 Y-8.585
X-0.736 Y-9.015
X-0.729 Y-9.031
X-0.561 Y-9.472
X-0.555 Y-9.489
X-0.395 Y-9.942
X-0.389 Y-9.959
X-0.237 Y-10.425
X-0.231 Y-10.443
X-0.089 Y-10.92
X-0.083 Y-10.939
X0.05 Y-11.429
X0.055 Y-11.447
X0.177 Y-11.949
X0.182 Y-11.968
X0.294 Y-12.483
X0.297 Y-12.502
X0.398 Y-13.029
X0.401 Y-13.048
X0.489 Y-13.588
X0.492 Y-13.607
X0.568 Y-14.159
X0.57 Y-14.178
X0.633 Y-14.743
X0.635 Y-14.762
X0.684 Y-15.339
X0.685 Y-15.357
X0.72 Y-15.947
X0.721 Y-15.965
X0.742 Y-16.567
X0.743 Y-16.585
X0.75 Y-17.2
Y-17.209
Y-29.459
Z-0.625
Y-32.959
Z-0.9 F300
Y-45.209 F600
G2 X-1.29 Y-49.11 I-4.75 J0
X-3.98 Y-49.959 Z-1 I-2.71 J3.901 F1016
G1 X-4 F600
X-8.8
G3 X-11.05 Y-52.209 I0 J-2.25
G1 Y-62.209
G2 X-14.8 Y-65.959 I-3.75 J0
G1 X-28.8
G2 X-32.55 Y-62.209 I0 J3.75
G1 Y-52.209
G3 X-34.8 Y-49.959 I-2.25 J0
G1 X-39.599
G2 X-44.35 Y-45.209 I-0.001 J4.75
G1 Y-32.959
Z-0.625
Y-29.459
Z-1 F300
Y-17.209 F600
Y-17.2
X-44.343 Y-16.585
X-44.342 Y-16.567
X-44.321 Y-15.965
X-44.32 Y-15.947
X-44.285 Y-15.358
X-44.284 Y-15.339
X-44.235 Y-14.762
X-44.233 Y-14.743
X-44.17 Y-14.178
X-44.168 Y-14.159
X-44.092 Y-13.607
X-44.089 Y-13.588
X-44.001 Y-13.048
X-43.998 Y-13.029
X-43.897 Y-12.502
X-43.894 Y-12.483
X-43.782 Y-11.968
X-43.777 Y-11.949
X-43.655 Y-11.447
X-43.65 Y-11.428
X-43.517 Y-10.938
X-43.511 Y-10.92
X-43.369 Y-10.443
X-43.363 Y-10.425
X-43.211 Y-9.959
X-43.205 Y-9.942
X-43.045 Y-9.489
X-43.039 Y-9.472
X-42.871 Y-9.031
X-42.864 Y-9.015
X-42.689 Y-8.585
X-42.683 Y-8.569
X-42.501 Y-8.152
X-42.494 Y-8.137
X-42.307 Y-7.732
X-42.3 Y-7.716
X-42.107 Y-7.323
X-42.1 Y-7.308
X-41.902 Y-6.926
X-41.894 Y-6.912
X-41.692 Y-6.542
X-41.684 Y-6.528
X-41.479 Y-6.169
X-41.47 Y-6.155
X-41.26 Y-5.808
X-41.252 Y-5.793
X-41.038 Y-5.458
X-41.029 Y-5.443
X-40.812 Y-5.119
X-40.802 Y-5.104
X-40.582 Y-4.791
X-40.572 Y-4.776
X-40.349 Y-4.474
X-40.337 Y-4.459
X-40.253 Y-4.35
Z-0.625
X-40.11 Y-4.167
X-40.098 Y-4.152
X-39.867 Y-3.871
X-39.854 Y-3.855
X-39.619 Y-3.584
X-39.604 Y-3.568
X-39.364 Y-3.308
X-39.348 Y-3.291
X-39.102 Y-3.041
X-39.084 Y-3.024
X-38.833 Y-2.784
X-38.813 Y-2.766
X-38.554 Y-2.536
X-38.532 Y-2.518
X-38.264 Y-2.298
X-38.24 Y-2.279
X-37.961 Y-2.069
X-37.936 Y-2.051
X-37.738 Y-1.915
Z-1 F300
X-37.645 Y-1.85 F600
X-37.618 Y-1.832
X-37.313 Y-1.641
X-37.285 Y-1.624
X-36.965 Y-1.441
X-36.936 Y-1.426
X-36.598 Y-1.252
X-36.569 Y-1.239
X-36.212 Y-1.073
X-36.184 Y-1.061
X-35.805 Y-0.905
X-35.779 Y-0.894
X-35.377 Y-0.746
X-35.353 Y-0.737
X-34.928 Y-0.597
X-34.905 Y-0.59
X-34.456 Y-0.457
X-34.434 Y-0.451
X-33.961 Y-0.327
X-33.941 Y-0.322
X-33.442 Y-0.205
X-33.425 Y-0.201
X-32.901 Y-0.091
X-32.885 Y-0.088
X-32.338 Y0.014
X-32.323 Y0.017
X-31.751 Y0.112
X-31.738 Y0.114
X-31.143 Y0.202
X-31.131 Y0.204
X-30.514 Y0.285
X-30.503 Y0.286
X-29.865 Y0.36
X-29.855 Y0.362
X-29.197 Y0.429
X-29.188 Y0.43
X-28.511 Y0.491
X-28.503
X-27.809 Y0.546
X-27.801
X-27.092 Y0.594
X-27.085
X-26.362 Y0.635
X-26.355 Y0.636
X-25.62 Y0.671
X-25.613
X-24.869 Y0.699
X-24.859
X-23.347 Y0.737
X-23.335
X-21.806 Y0.75
X-21.794
X-20.265 Y0.737
X-20.253
X-18.741 Y0.699
X-18.731
X-17.987 Y0.671
X-17.98
X-17.245 Y0.636
X-17.238 Y0.635
X-16.515 Y0.594
X-16.508
X-15.799 Y0.546
X-15.791
X-15.097 Y0.491
X-15.089
X-14.412 Y0.43
X-14.403 Y0.429
X-13.745 Y0.362
X-13.735 Y0.36
X-13.097 Y0.286
X-13.086 Y0.285
X-12.469 Y0.204
X-12.457 Y0.202
X-11.862 Y0.114
X-11.849 Y0.112
X-11.277 Y0.017
X-11.262 Y0.014
X-10.715 Y-0.088
X-10.699 Y-0.091
X-10.175 Y-0.201
X-10.158 Y-0.205
X-9.659 Y-0.322
X-9.639 Y-0.327
X-9.166 Y-0.451
X-9.144 Y-0.457
X-8.695 Y-0.59
X-8.672 Y-0.597
X-8.247 Y-0.737
X-8.223 Y-0.746
X-7.821 Y-0.894
X-7.795 Y-0.905
X-7.416 Y-1.061
X-7.388 Y-1.073
X-7.031 Y-1.239
X-7.002 Y-1.252
X-6.664 Y-1.426
X-6.635 Y-1.441
X-6.315 Y-1.624
X-6.287 Y-1.641
X-5.982 Y-1.832
X-5.955 Y-1.85
X-5.862 Y-1.915
Z-0.625
X-5.664 Y-2.051
X-5.639 Y-2.069
X-5.36 Y-2.279
X-5.336 Y-2.298
X-5.068 Y-2.518
X-5.046 Y-2.536
X-4.787 Y-2.766
X-4.767 Y-2.784
X-4.516 Y-3.024
X-4.498 Y-3.041
X-4.252 Y-3.291
X-4.236 Y-3.308
X-3.996 Y-3.568
X-3.981 Y-3.584
X-3.746 Y-3.855
X-3.733 Y-3.871
X-3.502 Y-4.152
X-3.49 Y-4.167
X-3.347 Y-4.35
Z-1 F300
X-3.263 Y-4.459 F600
X-3.251 Y-4.474
X-3.028 Y-4.776
X-3.017 Y-4.791
X-2.797 Y-5.104
X-2.788 Y-5.119
X-2.571 Y-5.443
X-2.562 Y-5.458
X-2.348 Y-5.793
X-2.34 Y-5.808
X-2.13 Y-6.155
X-2.121 Y-6.169
X-1.916 Y-6.528
X-1.908 Y-6.542
X-1.706 Y-6.912
X-1.698 Y-6.927
X-1.5 Y-7.308
X-1.493 Y-7.323
X-1.3 Y-7.716
X-1.293 Y-7.732
X-1.106 Y-8.137
X-1.099 Y-8.152
X-0.917 Y-8.569
X-0.911 Y-8.585
X-0.736 Y-9.015
X-0.729 Y-9.031
X-0.561 Y-9.472
X-0.555 Y-9.489
X-0.395 Y-9.942
X-0.389 Y-9.959
X-0.237 Y-10.425
X-0.231 Y-10.443
X-0.089 Y-10.92
X-0.083 Y-10.939
X0.05 Y-11.429
X0.055 Y-11.447
X0.177 Y-11.949
X0.182 Y-11.968
X0.294 Y-12.483
X0.297 Y-12.502
X0.398 Y-13.029
X0.401 Y-13.048
X0.489 Y-13.588
X0.492 Y-13.607
X0.568 Y-14.159
X0.57 Y-14.178
X0.633 Y-14.743
X0.635 Y-14.762
X0.684 Y-15.339
X0.685 Y-15.357
X0.72 Y-15.947
X0.721 Y-15.965
X0.742 Y-16.567
X0.743 Y-16.585
X0.75 Y-17.2
Y-17.209
Y-29.459
Z-0.625
Y-32.959
Z-1 F300
Y-45.209 F600
G2 X-3.98 Y-49.959 I-4.75 J0
G1 Z15
M5
M30
