(1001)
G90 G94
G17
G21
(When using Fusion 360 for Personal Use, the feedrate of)
(rapid moves is reduced to match the feedrate of cutting)
(moves, which can increase machining time. Unrestricted rapid)
(moves are available with a Fusion 360 Subscription.)

(Bohrfrasen3)
S6000 M3
G54
G0 X-23.195 Y-20.367
Z15
G1 Z1.8 F600
Z-0.05 F400
X-23.188 Z-0.096
X-23.166 Z-0.138
X-23.133 Z-0.171
X-23.091 Z-0.193
X-23.045 Z-0.2
X-22.97
X-22.924 Y-20.36
X-22.882 Y-20.338
X-22.849 Y-20.305
X-22.827 Y-20.263
X-22.82 Y-20.217
G3 X-24.42 Y-20.217 Z-0.7 I-0.8 J0 F600
X-22.82 Y-20.217 Z-1.2 I0.8 J0
X-24.42 Y-20.217 I-0.8 J0
X-22.82 Y-20.217 I0.8 J0
G1 X-22.827 Y-20.171
X-22.849 Y-20.129
X-22.882 Y-20.096
X-22.924 Y-20.074
X-22.97 Y-20.067
X-23.045
X-23.091 Z-1.193
X-23.133 Z-1.171
X-23.166 Z-1.138
X-23.188 Z-1.096
X-23.195 Z-1.05
Z5
X-16.757 Y-18.985
Z1.8
Z-0.05 F400
X-16.75 Z-0.096
X-16.729 Z-0.138
X-16.696 Z-0.171
X-16.654 Z-0.193
X-16.607 Z-0.2
X-16.532
X-16.486 Y-18.977
X-16.444 Y-18.956
X-16.411 Y-18.923
X-16.39 Y-18.881
X-16.382 Y-18.835
G3 X-16.982 Y-18.835 Z-0.7 I-0.3 J0 F600
X-16.382 Y-18.835 Z-1.2 I0.3 J0
X-16.982 Y-18.835 I-0.3 J0
X-16.382 Y-18.835 I0.3 J0
G1 X-16.39 Y-18.788
X-16.411 Y-18.747
X-16.444 Y-18.713
X-16.486 Y-18.692
X-16.532 Y-18.685
X-16.607
X-16.654 Z-1.193
X-16.696 Z-1.171
X-16.729 Z-1.138
X-16.75 Z-1.096
X-16.757 Z-1.05
Z5
X-11.043 Y-15.067
Z1.8
Z-0.05 F400
X-11.035 Z-0.096
X-11.014 Z-0.138
X-10.981 Z-0.171
X-10.939 Z-0.193
X-10.893 Z-0.2
X-10.818
X-10.771 Y-15.059
X-10.729 Y-15.038
X-10.696 Y-15.005
X-10.675 Y-14.963
X-10.668 Y-14.917
G3 X-12.668 Y-14.917 Z-0.7 I-1 J0 F600
X-10.668 Y-14.917 Z-1.2 I1 J0
X-12.668 Y-14.917 I-1 J0
X-10.668 Y-14.917 I1 J0
G1 X-10.675 Y-14.87
X-10.696 Y-14.829
X-10.729 Y-14.795
X-10.771 Y-14.774
X-10.818 Y-14.767
X-10.893
X-10.939 Z-1.193
X-10.981 Z-1.171
X-11.014 Z-1.138
X-11.035 Z-1.096
X-11.043 Z-1.05
Z5
X-14.559 Y-14.518
Z1.8
Z-0.05 F400
X-14.552 Z-0.096
X-14.53 Z-0.138
X-14.497 Z-0.171
X-14.455 Z-0.193
X-14.409 Z-0.2
X-14.334
X-14.288 Y-14.511
X-14.246 Y-14.49
X-14.213 Y-14.456
X-14.191 Y-14.415
X-14.184 Y-14.368
G3 X-18.084 Y-14.368 Z-0.7 I-1.95 J0 F600
X-14.184 Y-14.368 Z-1.2 I1.95 J0
X-18.084 Y-14.368 I-1.95 J0
X-14.184 Y-14.368 I1.95 J0
G1 X-14.191 Y-14.322
X-14.213 Y-14.28
X-14.246 Y-14.247
X-14.288 Y-14.226
X-14.334 Y-14.218
X-14.409
X-14.455 Z-1.193
X-14.497 Z-1.171
X-14.53 Z-1.138
X-14.552 Z-1.096
X-14.559 Z-1.05
Z5
X-19.975 Y-13.97
Z1.8
Z-0.05 F400
X-19.968 Z-0.096
X-19.947 Z-0.138
X-19.914 Z-0.171
X-19.872 Z-0.193
X-19.825 Z-0.2
X-19.75
X-19.704 Y-13.963
X-19.662 Y-13.941
X-19.629 Y-13.908
X-19.608 Y-13.866
X-19.6 Y-13.82
G3 X-21.6 Y-13.82 Z-0.7 I-1 J0 F600
X-19.6 Y-13.82 Z-1.2 I1 J0
X-21.6 Y-13.82 I-1 J0
X-19.6 Y-13.82 I1 J0
G1 X-19.608 Y-13.774
X-19.629 Y-13.732
X-19.662 Y-13.699
X-19.704 Y-13.677
X-19.75 Y-13.67
X-19.825
X-19.872 Z-1.193
X-19.914 Z-1.171
X-19.947 Z-1.138
X-19.968 Z-1.096
X-19.975 Z-1.05
Z5
X-15.661 Y-10.052
Z1.8
Z-0.05 F400
X-15.653 Z-0.096
X-15.632 Z-0.138
X-15.599 Z-0.171
X-15.557 Z-0.193
X-15.511 Z-0.2
X-15.436
X-15.389 Y-10.045
X-15.347 Y-10.023
X-15.314 Y-9.99
X-15.293 Y-9.948
X-15.286 Y-9.902
G3 X-15.886 Y-9.902 Z-0.7 I-0.3 J0 F600
X-15.286 Y-9.902 Z-1.2 I0.3 J0
X-15.886 Y-9.902 I-0.3 J0
X-15.286 Y-9.902 I0.3 J0
G1 X-15.293 Y-9.856
X-15.314 Y-9.814
X-15.347 Y-9.781
X-15.389 Y-9.759
X-15.436 Y-9.752
X-15.511
X-15.557 Z-1.193
X-15.599 Z-1.171
X-15.632 Z-1.138
X-15.653 Z-1.096
X-15.661 Z-1.05
Z5
X-8.223 Y-8.67
Z1.8
Z-0.05 F400
X-8.216 Z-0.096
X-8.194 Z-0.138
X-8.161 Z-0.171
X-8.119 Z-0.193
X-8.073 Z-0.2
X-7.998
X-7.952 Y-8.662
X-7.91 Y-8.641
X-7.877 Y-8.608
X-7.855 Y-8.566
X-7.848 Y-8.52
G3 X-9.448 Y-8.52 Z-0.7 I-0.8 J0 F600
X-7.848 Y-8.52 Z-1.2 I0.8 J0
X-9.448 Y-8.52 I-0.8 J0
X-7.848 Y-8.52 I0.8 J0
G1 X-7.855 Y-8.473
X-7.877 Y-8.431
X-7.91 Y-8.398
X-7.952 Y-8.377
X-7.998 Y-8.37
X-8.073
X-8.119 Z-1.193
X-8.161 Z-1.171
X-8.194 Z-1.138
X-8.216 Z-1.096
X-8.223 Z-1.05
Z15
(When using Fusion 360 for Personal Use, the feedrate of)
(rapid moves is reduced to match the feedrate of cutting)
(moves, which can increase machining time. Unrestricted rapid)
(moves are available with a Fusion 360 Subscription.)

(2D-Kontur4)
G0 X-49.405 Y-25.409
G1 Z15 F600
Z5
Z2.5 F300
X-49.586 Y-25.312 Z2.493 F1016
X-49.609 Y-25.298 Z2.492
X-50.335 Y-24.872 Z2.462
X-50.358 Y-24.858
X-51.077 Y-24.4 Z2.432
X-51.1 Y-24.385 Z2.431
X-51.813 Y-23.893 Z2.401
X-51.835 Y-23.877 Z2.4
X-52.54 Y-23.352 Z2.369
X-52.562 Y-23.336 Z2.368
X-53.259 Y-22.777 Z2.337
X-53.279 Y-22.76 Z2.336
X-53.968 Y-22.168 Z2.304
X-53.987 Y-22.151 Z2.303
X-54.666 Y-21.524 Z2.271
X-54.684 Y-21.507 Z2.27
X-55.353 Y-20.847 Z2.237
X-55.37 Y-20.829 Z2.236
X-56.013 Y-20.152 Z2.204
X-56.034 Y-20.132 Z2.203
X-56.033 Y-20.155 Z2.202
G3 X-32.907 Y-49.365 Z0.843 I37.665 J6.061
G1 X-32.885 Y-49.372 Z0.842
X-32.898 Y-49.344 Z0.841
X-33.299 Y-48.635 Z0.812
X-33.312 Y-48.611 Z0.811
X-33.691 Y-47.879 Z0.783
X-33.704 Y-47.854 Z0.782
X-34.05 Y-47.12 Z0.753
X-34.062 Y-47.094 Z0.752
X-34.376 Y-46.359 Z0.724
X-34.387 Y-46.332 Z0.723
X-34.668 Y-45.595 Z0.696
X-34.678 Y-45.568 Z0.695
X-34.928 Y-44.83 Z0.668
X-34.937 Y-44.802 Z0.667
X-35.154 Y-44.066 Z0.64
X-35.162 Y-44.038 Z0.639
X-35.348 Y-43.303 Z0.612
X-35.354 Y-43.275 Z0.611
X-35.51 Y-42.543 Z0.585
X-35.515 Y-42.515 Z0.584
X-35.641 Y-41.786 Z0.558
X-35.645 Y-41.757 Z0.557
X-35.742 Y-41.032 Z0.532
X-35.745 Y-41.004 Z0.531
X-35.814 Y-40.283 Z0.506
X-35.816 Y-40.255 Z0.505
X-35.857 Y-39.54 Z0.48
X-35.858 Y-39.512 Z0.479
X-35.873 Y-38.802 Z0.454
Y-38.774 Z0.453
X-35.862 Y-38.07 Z0.428
X-35.861 Y-38.043 Z0.427
X-35.825 Y-37.346 Z0.403
X-35.823 Y-37.319 Z0.402
X-35.762 Y-36.629 Z0.378
X-35.759 Y-36.603 Z0.377
X-35.676 Y-35.921 Z0.353
X-35.672 Y-35.895 Z0.352
X-35.565 Y-35.222 Z0.328
X-35.561 Y-35.197 Z0.327
X-35.433 Y-34.532 Z0.304
X-35.427 Y-34.508 Z0.303
X-35.278 Y-33.853 Z0.279
X-35.272 Y-33.829 Z0.278
X-35.102 Y-33.185 Z0.255
X-35.096 Y-33.162 Z0.254
X-34.907 Y-32.528 Z0.231
X-34.9 Y-32.505 Z0.23
X-34.693 Y-31.881 Z0.207
X-34.685 Y-31.859
X-34.46 Y-31.245 Z0.184
X-34.451 Y-31.223 Z0.183
X-34.207 Y-30.619 Z0.16
X-34.198 Y-30.597 Z0.159
X-33.937 Y-30.005 Z0.137
X-33.926 Y-29.983 Z0.136
X-33.647 Y-29.402 Z0.113
X-33.636 Y-29.38
X-33.34 Y-28.811 Z0.09
X-33.328 Y-28.79 Z0.089
X-33.015 Y-28.232 Z0.067
X-33.002 Y-28.211 Z0.066
X-32.672 Y-27.666 Z0.044
X-32.658 Y-27.645 Z0.043
X-32.324 Y-27.133 Z0.022
X-32.309 Y-27.107 Z0.021
X-32.339 Y-27.115 Z0.02
X-32.989 Y-27.331 Z-0.004
X-33.018 Y-27.34 Z-0.005
X-33.698 Y-27.536 Z-0.03
X-33.727 Y-27.544 Z-0.031
X-34.416 Y-27.713 Z-0.056
X-34.445 Y-27.719 Z-0.057
X-35.142 Y-27.862 Z-0.082
X-35.17 Y-27.867 Z-0.083
X-35.874 Y-27.983 Z-0.108
X-35.903 Y-27.987 Z-0.109
X-36.613 Y-28.076 Z-0.134
X-36.641 Y-28.079 Z-0.135
X-37.358 Y-28.142 Z-0.16
X-37.386 Y-28.144 Z-0.161
X-38.108 Y-28.18 Z-0.186
X-38.135 Y-28.181 Z-0.187
X-38.862 Y-28.191 Z-0.212
X-38.889 Z-0.213
X-39.62 Y-28.175 Z-0.239
X-39.646 Y-28.174 Z-0.24
X-40.381 Y-28.132 Z-0.266
X-40.408 Y-28.13
X-41.146 Y-28.061 Z-0.292
X-41.172 Y-28.058 Z-0.293
X-41.362 Y-28.033 Z-0.3
X-41.913 Y-27.962 F600
X-41.94 Y-27.958
X-42.684 Y-27.833
X-42.71 Y-27.828
X-43.455 Y-27.676
X-43.482 Y-27.67
X-44.227 Y-27.488
X-44.254 Y-27.482
X-44.999 Y-27.271
X-45.026 Y-27.263
X-45.771 Y-27.023
X-45.797 Y-27.014
X-46.54 Y-26.745
X-46.566 Y-26.735
X-47.307 Y-26.434
X-47.333 Y-26.424
X-48.071 Y-26.093
X-48.096 Y-26.081
X-48.831 Y-25.718
X-48.855 Y-25.706
X-49.586 Y-25.312
X-49.609 Y-25.298
X-50.335 Y-24.872
X-50.358 Y-24.858
X-51.077 Y-24.4
X-51.1 Y-24.385
X-51.813 Y-23.893
X-51.835 Y-23.877
X-52.54 Y-23.352
X-52.562 Y-23.336
X-53.259 Y-22.777
X-53.279 Y-22.76
X-53.968 Y-22.168
X-53.987 Y-22.151
X-54.666 Y-21.524
X-54.684 Y-21.507
X-55.353 Y-20.847
X-55.37 Y-20.829
X-56.013 Y-20.152
X-56.034 Y-20.132
X-56.033 Y-20.155
G3 X-32.907 Y-49.365 I37.665 J6.061
G1 X-32.885 Y-49.372
X-32.898 Y-49.344
X-33.299 Y-48.635
X-33.312 Y-48.611
X-33.691 Y-47.879
X-33.704 Y-47.854
X-34.05 Y-47.12
X-34.062 Y-47.094
X-34.376 Y-46.359
X-34.387 Y-46.332
X-34.668 Y-45.595
X-34.678 Y-45.568
X-34.928 Y-44.83
X-34.937 Y-44.802
X-35.154 Y-44.066
X-35.162 Y-44.038
X-35.348 Y-43.303
X-35.354 Y-43.275
X-35.51 Y-42.543
X-35.515 Y-42.515
X-35.641 Y-41.786
X-35.645 Y-41.757
X-35.742 Y-41.032
X-35.745 Y-41.004
X-35.814 Y-40.283
X-35.816 Y-40.255
X-35.857 Y-39.54
X-35.858 Y-39.512
X-35.873 Y-38.802
Y-38.774
X-35.862 Y-38.07
X-35.861 Y-38.043
X-35.825 Y-37.346
X-35.823 Y-37.319
X-35.762 Y-36.629
X-35.759 Y-36.603
X-35.676 Y-35.921
X-35.672 Y-35.895
X-35.565 Y-35.222
X-35.561 Y-35.197
X-35.433 Y-34.532
X-35.427 Y-34.508
X-35.278 Y-33.853
X-35.272 Y-33.829
X-35.102 Y-33.185
X-35.096 Y-33.162
X-34.907 Y-32.528
X-34.9 Y-32.505
X-34.693 Y-31.881
X-34.685 Y-31.859
X-34.46 Y-31.245
X-34.451 Y-31.223
X-34.207 Y-30.619
X-34.198 Y-30.597
X-33.937 Y-30.005
X-33.926 Y-29.983
X-33.647 Y-29.402
X-33.636 Y-29.38
X-33.34 Y-28.811
X-33.328 Y-28.79
X-33.015 Y-28.232
X-33.002 Y-28.211
X-32.672 Y-27.666
X-32.658 Y-27.645
X-32.324 Y-27.133
X-32.309 Y-27.107
X-32.339 Y-27.115
X-32.989 Y-27.331
X-33.018 Y-27.34
X-33.698 Y-27.536
X-33.727 Y-27.544
X-34.416 Y-27.713
X-34.445 Y-27.719
X-35.142 Y-27.862
X-35.17 Y-27.867
X-35.874 Y-27.983
X-35.903 Y-27.987
X-36.613 Y-28.076
X-36.641 Y-28.079
X-37.358 Y-28.142
X-37.386 Y-28.144
X-38.108 Y-28.18
X-38.135 Y-28.181
X-38.862 Y-28.191
X-38.889
X-39.62 Y-28.175
X-39.646 Y-28.174
X-40.381 Y-28.132
X-40.408 Y-28.13
X-41.146 Y-28.061
X-41.172 Y-28.058
X-41.362 Y-28.033
X-41.913 Y-27.962 Z-0.319 F1016
X-41.94 Y-27.958 Z-0.32
X-42.684 Y-27.833 Z-0.347
X-42.71 Y-27.828 Z-0.348
X-43.455 Y-27.676 Z-0.374
X-43.482 Y-27.67 Z-0.375
X-44.227 Y-27.488 Z-0.402
X-44.254 Y-27.482 Z-0.403
X-44.999 Y-27.271 Z-0.43
X-45.026 Y-27.263 Z-0.431
X-45.771 Y-27.023 Z-0.458
X-45.797 Y-27.014 Z-0.459
X-46.54 Y-26.745 Z-0.487
X-46.566 Y-26.735 Z-0.488
X-47.307 Y-26.434 Z-0.516
X-47.333 Y-26.424 Z-0.517
X-48.071 Y-26.093 Z-0.545
X-48.096 Y-26.081 Z-0.546
X-48.831 Y-25.718 Z-0.574
X-48.855 Y-25.706 Z-0.575
X-49.474 Y-25.372 Z-0.6
X-49.586 Y-25.312 F600
X-49.609 Y-25.298
X-50.335 Y-24.872
X-50.358 Y-24.858
X-51.077 Y-24.4
X-51.1 Y-24.385
X-51.813 Y-23.893
X-51.835 Y-23.877
X-52.54 Y-23.352
X-52.562 Y-23.336
X-53.259 Y-22.777
X-53.279 Y-22.76
X-53.968 Y-22.168
X-53.987 Y-22.151
X-54.666 Y-21.524
X-54.684 Y-21.507
X-55.353 Y-20.847
X-55.37 Y-20.829
X-56.013 Y-20.152
X-56.034 Y-20.132
X-56.033 Y-20.155
G3 X-32.907 Y-49.365 I37.665 J6.061
G1 X-32.885 Y-49.372
X-32.898 Y-49.344
X-33.299 Y-48.635
X-33.312 Y-48.611
X-33.691 Y-47.879
X-33.704 Y-47.854
X-34.05 Y-47.12
X-34.062 Y-47.094
X-34.376 Y-46.359
X-34.387 Y-46.332
X-34.668 Y-45.595
X-34.678 Y-45.568
X-34.928 Y-44.83
X-34.937 Y-44.802
X-35.154 Y-44.066
X-35.162 Y-44.038
X-35.348 Y-43.303
X-35.354 Y-43.275
X-35.51 Y-42.543
X-35.515 Y-42.515
X-35.641 Y-41.786
X-35.645 Y-41.757
X-35.742 Y-41.032
X-35.745 Y-41.004
X-35.814 Y-40.283
X-35.816 Y-40.255
X-35.857 Y-39.54
X-35.858 Y-39.512
X-35.873 Y-38.802
Y-38.774
X-35.862 Y-38.07
X-35.861 Y-38.043
X-35.825 Y-37.346
X-35.823 Y-37.319
X-35.762 Y-36.629
X-35.759 Y-36.603
X-35.676 Y-35.921
X-35.672 Y-35.895
X-35.565 Y-35.222
X-35.561 Y-35.197
X-35.433 Y-34.532
X-35.427 Y-34.508
X-35.278 Y-33.853
X-35.272 Y-33.829
X-35.102 Y-33.185
X-35.096 Y-33.162
X-34.907 Y-32.528
X-34.9 Y-32.505
X-34.693 Y-31.881
X-34.685 Y-31.859
X-34.46 Y-31.245
X-34.451 Y-31.223
X-34.207 Y-30.619
X-34.198 Y-30.597
X-33.937 Y-30.005
X-33.926 Y-29.983
X-33.647 Y-29.402
X-33.636 Y-29.38
X-33.34 Y-28.811
X-33.328 Y-28.79
X-33.015 Y-28.232
X-33.002 Y-28.211
X-32.672 Y-27.666
X-32.658 Y-27.645
X-32.324 Y-27.133
X-32.309 Y-27.107
X-32.339 Y-27.115
X-32.989 Y-27.331
X-33.018 Y-27.34
X-33.698 Y-27.536
X-33.727 Y-27.544
X-34.416 Y-27.713
X-34.445 Y-27.719
X-35.142 Y-27.862
X-35.17 Y-27.867
X-35.874 Y-27.983
X-35.903 Y-27.987
X-36.613 Y-28.076
X-36.641 Y-28.079
X-37.358 Y-28.142
X-37.386 Y-28.144
X-38.108 Y-28.18
X-38.135 Y-28.181
X-38.862 Y-28.191
X-38.889
X-39.62 Y-28.175
X-39.646 Y-28.174
X-40.381 Y-28.132
X-40.408 Y-28.13
X-41.146 Y-28.061
X-41.172 Y-28.058
X-41.913 Y-27.962
X-41.94 Y-27.958
X-42.684 Y-27.833
X-42.71 Y-27.828
X-43.455 Y-27.676
X-43.482 Y-27.67
X-44.227 Y-27.488
X-44.254 Y-27.482
X-44.999 Y-27.271
X-45.026 Y-27.263
X-45.771 Y-27.023
X-45.797 Y-27.014
X-46.54 Y-26.745
X-46.566 Y-26.735
X-47.307 Y-26.434
X-47.333 Y-26.424
X-48.071 Y-26.093
X-48.096 Y-26.081
X-48.831 Y-25.718
X-48.855 Y-25.706
X-49.474 Y-25.372
X-49.586 Y-25.312 Z-0.604 F1016
X-49.609 Y-25.298 Z-0.605
X-50.335 Y-24.872 Z-0.635
X-50.358 Y-24.858 Z-0.636
X-51.077 Y-24.4 Z-0.666
X-51.1 Y-24.385
X-51.813 Y-23.893 Z-0.697
X-51.835 Y-23.877 Z-0.698
X-52.54 Y-23.352 Z-0.728
X-52.562 Y-23.336 Z-0.729
X-53.259 Y-22.777 Z-0.76
X-53.279 Y-22.76 Z-0.761
X-53.968 Y-22.168 Z-0.793
X-53.987 Y-22.151 Z-0.794
X-54.666 Y-21.524 Z-0.826
X-54.684 Y-21.507 Z-0.827
X-55.353 Y-20.847 Z-0.86
X-55.37 Y-20.829 Z-0.861
X-56.013 Y-20.152 Z-0.893
X-56.034 Y-20.132 Z-0.894
X-56.033 Y-20.155 Z-0.895
X-56.011 Y-20.288 Z-0.9
G3 X-32.907 Y-49.365 I37.644 J6.194 F600
G1 X-32.885 Y-49.372
X-32.898 Y-49.344
X-33.299 Y-48.635
X-33.312 Y-48.611
X-33.691 Y-47.879
X-33.704 Y-47.854
X-34.05 Y-47.12
X-34.062 Y-47.094
X-34.376 Y-46.359
X-34.387 Y-46.332
X-34.668 Y-45.595
X-34.678 Y-45.568
X-34.928 Y-44.83
X-34.937 Y-44.802
X-35.154 Y-44.066
X-35.162 Y-44.038
X-35.348 Y-43.303
X-35.354 Y-43.275
X-35.51 Y-42.543
X-35.515 Y-42.515
X-35.641 Y-41.786
X-35.645 Y-41.757
X-35.742 Y-41.032
X-35.745 Y-41.004
X-35.814 Y-40.283
X-35.816 Y-40.255
X-35.857 Y-39.54
X-35.858 Y-39.512
X-35.873 Y-38.802
Y-38.774
X-35.862 Y-38.07
X-35.861 Y-38.043
X-35.825 Y-37.346
X-35.823 Y-37.319
X-35.762 Y-36.629
X-35.759 Y-36.603
X-35.676 Y-35.921
X-35.672 Y-35.895
X-35.565 Y-35.222
X-35.561 Y-35.197
X-35.433 Y-34.532
X-35.427 Y-34.508
X-35.278 Y-33.853
X-35.272 Y-33.829
X-35.102 Y-33.185
X-35.096 Y-33.162
X-34.907 Y-32.528
X-34.9 Y-32.505
X-34.693 Y-31.881
X-34.685 Y-31.859
X-34.46 Y-31.245
X-34.451 Y-31.223
X-34.207 Y-30.619
X-34.198 Y-30.597
X-33.937 Y-30.005
X-33.926 Y-29.983
X-33.647 Y-29.402
X-33.636 Y-29.38
X-33.34 Y-28.811
X-33.328 Y-28.79
X-33.015 Y-28.232
X-33.002 Y-28.211
X-32.672 Y-27.666
X-32.658 Y-27.645
X-32.324 Y-27.133
X-32.309 Y-27.107
X-32.339 Y-27.115
X-32.989 Y-27.331
X-33.018 Y-27.34
X-33.698 Y-27.536
X-33.727 Y-27.544
X-34.416 Y-27.713
X-34.445 Y-27.719
X-35.142 Y-27.862
X-35.17 Y-27.867
X-35.874 Y-27.983
X-35.903 Y-27.987
X-36.613 Y-28.076
X-36.641 Y-28.079
X-37.358 Y-28.142
X-37.386 Y-28.144
X-38.108 Y-28.18
X-38.135 Y-28.181
X-38.862 Y-28.191
X-38.889
X-39.62 Y-28.175
X-39.646 Y-28.174
X-40.381 Y-28.132
X-40.408 Y-28.13
X-41.146 Y-28.061
X-41.172 Y-28.058
X-41.913 Y-27.962
X-41.94 Y-27.958
X-42.684 Y-27.833
X-42.71 Y-27.828
X-43.455 Y-27.676
X-43.482 Y-27.67
X-44.227 Y-27.488
X-44.254 Y-27.482
X-44.999 Y-27.271
X-45.026 Y-27.263
X-45.771 Y-27.023
X-45.797 Y-27.014
X-46.54 Y-26.745
X-46.566 Y-26.735
X-47.307 Y-26.434
X-47.333 Y-26.424
X-48.071 Y-26.093
X-48.096 Y-26.081
X-48.831 Y-25.718
X-48.855 Y-25.706
X-49.474 Y-25.372
X-49.586 Y-25.312
X-49.609 Y-25.298
X-50.335 Y-24.872
X-50.358 Y-24.858
X-51.077 Y-24.4
X-51.1 Y-24.385
X-51.813 Y-23.893
X-51.835 Y-23.877
X-52.54 Y-23.352
X-52.562 Y-23.336
X-53.259 Y-22.777
X-53.279 Y-22.76
X-53.968 Y-22.168
X-53.987 Y-22.151
X-54.666 Y-21.524
X-54.684 Y-21.507
X-55.353 Y-20.847
X-55.37 Y-20.829
X-56.013 Y-20.152
X-56.034 Y-20.132
X-56.033 Y-20.155
X-56.011 Y-20.288
G3 X-53.677 Y-28.537 Z-1.2 I37.644 J6.194 F1016
X-32.907 Y-49.365 I35.31 J14.443 F600
G1 X-32.885 Y-49.372
X-32.898 Y-49.344
X-33.299 Y-48.635
X-33.312 Y-48.611
X-33.691 Y-47.879
X-33.704 Y-47.854
X-34.05 Y-47.12
X-34.062 Y-47.094
X-34.376 Y-46.359
X-34.387 Y-46.332
X-34.668 Y-45.595
X-34.678 Y-45.568
X-34.928 Y-44.83
X-34.937 Y-44.802
X-35.154 Y-44.066
X-35.162 Y-44.038
X-35.348 Y-43.303
X-35.354 Y-43.275
X-35.51 Y-42.543
X-35.515 Y-42.515
X-35.641 Y-41.786
X-35.645 Y-41.757
X-35.742 Y-41.032
X-35.745 Y-41.004
X-35.814 Y-40.283
X-35.816 Y-40.255
X-35.857 Y-39.54
X-35.858 Y-39.512
X-35.873 Y-38.802
Y-38.774
X-35.862 Y-38.07
X-35.861 Y-38.043
X-35.825 Y-37.346
X-35.823 Y-37.319
X-35.762 Y-36.629
X-35.759 Y-36.603
X-35.676 Y-35.921
X-35.672 Y-35.895
X-35.565 Y-35.222
X-35.561 Y-35.197
X-35.433 Y-34.532
X-35.427 Y-34.508
X-35.278 Y-33.853
X-35.272 Y-33.829
X-35.102 Y-33.185
X-35.096 Y-33.162
X-34.907 Y-32.528
X-34.9 Y-32.505
X-34.693 Y-31.881
X-34.685 Y-31.859
X-34.46 Y-31.245
X-34.451 Y-31.223
X-34.207 Y-30.619
X-34.198 Y-30.597
X-33.937 Y-30.005
X-33.926 Y-29.983
X-33.647 Y-29.402
X-33.636 Y-29.38
X-33.34 Y-28.811
X-33.328 Y-28.79
X-33.015 Y-28.232
X-33.002 Y-28.211
X-32.672 Y-27.666
X-32.658 Y-27.645
X-32.324 Y-27.133
X-32.309 Y-27.107
X-32.339 Y-27.115
X-32.989 Y-27.331
X-33.018 Y-27.34
X-33.698 Y-27.536
X-33.727 Y-27.544
X-34.416 Y-27.713
X-34.445 Y-27.719
X-35.142 Y-27.862
X-35.17 Y-27.867
X-35.874 Y-27.983
X-35.903 Y-27.987
X-36.613 Y-28.076
X-36.641 Y-28.079
X-37.358 Y-28.142
X-37.386 Y-28.144
X-38.108 Y-28.18
X-38.135 Y-28.181
X-38.862 Y-28.191
X-38.889
X-39.62 Y-28.175
X-39.646 Y-28.174
X-40.381 Y-28.132
X-40.408 Y-28.13
X-41.146 Y-28.061
X-41.172 Y-28.058
X-41.913 Y-27.962
X-41.94 Y-27.958
X-42.684 Y-27.833
X-42.71 Y-27.828
X-43.455 Y-27.676
X-43.482 Y-27.67
X-44.227 Y-27.488
X-44.254 Y-27.482
X-44.999 Y-27.271
X-45.026 Y-27.263
X-45.771 Y-27.023
X-45.797 Y-27.014
X-46.54 Y-26.745
X-46.566 Y-26.735
X-47.307 Y-26.434
X-47.333 Y-26.424
X-48.071 Y-26.093
X-48.096 Y-26.081
X-48.831 Y-25.718
X-48.855 Y-25.706
X-49.586 Y-25.312
X-49.609 Y-25.298
X-50.335 Y-24.872
X-50.358 Y-24.858
X-51.077 Y-24.4
X-51.1 Y-24.385
X-51.813 Y-23.893
X-51.835 Y-23.877
X-52.54 Y-23.352
X-52.562 Y-23.336
X-53.259 Y-22.777
X-53.279 Y-22.76
X-53.968 Y-22.168
X-53.987 Y-22.151
X-54.666 Y-21.524
X-54.684 Y-21.507
X-55.353 Y-20.847
X-55.37 Y-20.829
X-56.013 Y-20.152
X-56.034 Y-20.132
X-56.033 Y-20.155
G3 X-53.677 Y-28.537 I37.665 J6.061
G1 Z15
(When using Fusion 360 for Personal Use, the feedrate of)
(rapid moves is reduced to match the feedrate of cutting)
(moves, which can increase machining time. Unrestricted rapid)
(moves are available with a Fusion 360 Subscription.)

(2D-Kontur5)
G0 X-16.26 Y-5.768
G1 Z15 F600
Z5
Z2.5 F300
X-16.121 Y-5.718 Z2.495 F1016
X-16.098 Y-5.71 Z2.494
X-15.189 Y-5.415 Z2.461
X-15.16 Y-5.406 Z2.46
X-14.704 Y-5.278 Z2.443
X-14.696 Y-5.276
X-14.249 Y-5.156 Z2.427
X-14.242 Y-5.154 Z2.426
X-13.805 Y-5.041 Z2.411
X-13.797 Y-5.039 Z2.41
X-13.369 Y-4.934 Z2.395
X-13.36 Y-4.932
X-12.942 Y-4.834 Z2.38
X-12.933 Y-4.832 Z2.379
X-12.525 Y-4.742 Z2.365
X-12.515 Y-4.739 Z2.364
X-12.117 Y-4.657 Z2.35
X-12.107 Y-4.655
X-11.718 Y-4.58 Z2.336
X-11.707 Y-4.578
X-11.328 Y-4.511 Z2.322
X-11.316 Y-4.509
X-10.947 Y-4.449 Z2.309
X-10.935 Y-4.447 Z2.308
X-10.576 Y-4.396 Z2.296
X-10.562 Y-4.394 Z2.295
X-10.214 Y-4.351 Z2.283
X-10.199 Y-4.349 Z2.282
X-9.861 Y-4.313 Z2.27
X-9.845 Y-4.312
X-9.517 Y-4.285 Z2.258
X-9.5 Y-4.283
X-9.183 Y-4.264 Z2.247
X-9.164 Z2.246
X-8.858 Y-4.253 Z2.235
X-8.837 Y-4.252
X-8.541 Y-4.25 Z2.224
X-8.519 Z2.223
X-8.234 Y-4.257 Z2.214
X-8.21 Y-4.258 Z2.213
X-7.936 Y-4.273 Z2.203
X-7.91 Y-4.275 Z2.202
X-7.647 Y-4.299 Z2.193
X-7.618 Y-4.302 Z2.192
X-7.367 Y-4.335 Z2.183
X-7.335 Y-4.34 Z2.182
X-7.096 Y-4.382 Z2.173
X-7.061 Y-4.388 Z2.172
X-6.834 Y-4.439 Z2.164
X-6.796 Y-4.449 Z2.163
X-6.58 Y-4.509 Z2.155
X-6.54 Y-4.522 Z2.153
X-6.336 Y-4.591 Z2.146
X-6.293 Y-4.608 Z2.144
X-6.101 Y-4.687 Z2.137
X-6.055 Y-4.708 Z2.135
X-5.875 Y-4.796 Z2.128
X-5.827 Y-4.822 Z2.126
X-5.66 Y-4.92 Z2.12
X-5.611 Y-4.952 Z2.118
X-5.457 Y-5.059 Z2.111
X-5.408 Y-5.097 Z2.109
X-5.265 Y-5.214 Z2.102
X-5.218 Y-5.257 Z2.1
X-5.088 Y-5.384 Z2.094
X-5.043 Y-5.432 Z2.092
X-4.926 Y-5.569 Z2.085
X-4.885 Y-5.622 Z2.083
X-4.78 Y-5.769 Z2.077
X-4.745 Y-5.824 Z2.074
X-4.652 Y-5.981 Z2.068
X-4.622 Y-6.037 Z2.066
X-4.543 Y-6.204 Z2.059
X-4.519 Y-6.26 Z2.057
X-4.451 Y-6.436 Z2.051
X-4.433 Y-6.491 Z2.049
X-4.378 Y-6.677 Z2.042
X-4.364 Y-6.73 Z2.04
X-4.322 Y-6.926 Z2.033
X-4.313 Y-6.975 Z2.031
X-4.283 Y-7.18 Z2.024
X-4.277 Y-7.227 Z2.022
X-4.259 Y-7.441 Z2.015
X-4.257 Y-7.484 Z2.013
X-4.25 Y-7.708 Z2.005
Y-7.746 Z2.004
X-4.256 Y-7.98 Z1.996
X-4.257 Y-8.015 Z1.995
X-4.275 Y-8.257 Z1.986
X-4.278 Y-8.289 Z1.985
X-4.307 Y-8.541 Z1.976
X-4.31 Y-8.57 Z1.975
X-4.351 Y-8.83 Z1.966
X-4.355 Y-8.856 Z1.965
X-4.407 Y-9.126 Z1.956
X-4.412 Y-9.149 Z1.955
X-4.474 Y-9.427 Z1.945
X-4.48 Y-9.449 Z1.944
X-4.553 Y-9.735 Z1.934
X-4.559 Y-9.755 Z1.933
X-4.643 Y-10.05 Z1.922
X-4.649 Y-10.068
X-4.744 Y-10.371 Z1.91
X-4.749 Y-10.388
X-4.855 Y-10.699 Z1.898
X-4.86 Y-10.714
X-4.976 Y-11.034 Z1.886
X-4.982 Y-11.048 Z1.885
X-5.108 Y-11.375 Z1.873
X-5.113 Y-11.388
X-5.25 Y-11.724 Z1.86
X-5.255 Y-11.735
X-5.402 Y-12.079 Z1.846
X-5.407 Y-12.09
X-5.563 Y-12.441 Z1.833
X-5.568 Y-12.451 Z1.832
X-5.735 Y-12.81 Z1.818
X-5.739 Y-12.82
X-5.916 Y-13.187 Z1.804
X-5.92 Y-13.195 Z1.803
X-6.106 Y-13.57 Z1.789
X-6.111 Y-13.578
X-6.307 Y-13.96 Z1.774
X-6.311 Y-13.968 Z1.773
X-6.516 Y-14.357 Z1.758
X-6.52 Y-14.365
X-6.736 Y-14.762 Z1.742
X-6.739 Y-14.768
X-6.964 Y-15.173 Z1.725
X-6.968 Y-15.179
X-7.202 Y-15.591 Z1.709
X-7.218 Y-15.618 Z1.708
X-7.724 Y-16.428 Z1.674
X-7.737 Y-16.448 Z1.673
X-8.002 Y-16.844 Z1.657
X-8.012 Y-16.859 Z1.656
X-8.286 Y-17.248 Z1.639
X-8.297 Y-17.263
X-8.58 Y-17.644 Z1.622
X-8.592 Y-17.66
X-8.884 Y-18.032 Z1.605
X-8.898 Y-18.049 Z1.604
X-9.2 Y-18.411 Z1.588
X-9.215 Y-18.428 Z1.587
X-9.528 Y-18.78 Z1.571
X-9.544 Y-18.797 Z1.57
X-9.868 Y-19.138 Z1.553
X-9.885 Y-19.156 Z1.552
X-10.22 Y-19.487 Z1.536
X-10.238 Y-19.504 Z1.535
X-10.584 Y-19.824 Z1.519
X-10.603 Y-19.841 Z1.518
X-10.962 Y-20.151 Z1.501
X-10.981 Y-20.167 Z1.5
X-11.352 Y-20.467 Z1.484
X-11.371 Y-20.482 Z1.483
X-11.755 Y-20.772 Z1.466
X-11.774 Y-20.786 Z1.465
X-12.17 Y-21.066 Z1.448
X-12.189 Y-21.079 Z1.447
X-12.598 Y-21.351 Z1.43
X-12.616 Y-21.362
X-13.038 Y-21.625 Z1.412
X-13.056 Y-21.636 Z1.411
X-13.49 Y-21.89 Z1.394
X-13.506 Y-21.899 Z1.393
X-13.952 Y-22.145 Z1.375
X-13.968 Y-22.154
X-14.425 Y-22.391 Z1.357
X-14.441 Y-22.399 Z1.356
X-14.908 Y-22.629 Z1.338
X-14.923 Y-22.636 Z1.337
X-15.4 Y-22.857 Z1.319
X-15.414 Y-22.864
X-15.9 Y-23.077 Z1.3
X-15.914 Y-23.083
X-16.408 Y-23.288 Z1.281
X-16.421 Y-23.294 Z1.28
X-16.921 Y-23.49 Z1.262
X-16.934 Y-23.495 Z1.261
X-17.439 Y-23.683 Z1.242
X-17.453 Y-23.688
X-17.962 Y-23.866 Z1.223
X-17.975 Y-23.87 Z1.222
X-18.486 Y-24.039 Z1.204
X-18.499 Y-24.043 Z1.203
X-19.011 Y-24.201 Z1.184
X-19.025 Y-24.205
X-19.536 Y-24.352 Z1.165
X-19.55 Y-24.356
X-20.059 Y-24.491 Z1.147
X-20.073 Y-24.495 Z1.146
X-20.575 Y-24.618 Z1.128
X-21.04 Y-24.736 Z1.111
X-21.485 Y-24.866 Z1.095
X-21.92 Y-25.013 Z1.079
X-22.346 Y-25.175 Z1.063
X-22.763 Y-25.353 Z1.047
X-23.17 Y-25.546 Z1.031
X-23.569 Y-25.754 Z1.016
X-23.959 Y-25.978 Z1
X-24.34 Y-26.216 Z0.984
X-24.712 Y-26.469 Z0.969
X-25.076 Y-26.737 Z0.953
X-25.43 Y-27.018 Z0.937
X-25.775 Y-27.314 Z0.921
X-26.112 Y-27.624 Z0.905
X-26.439 Y-27.946 Z0.889
X-26.756 Y-28.282 Z0.873
X-27.065 Y-28.631 Z0.857
X-27.363 Y-28.992 Z0.84
X-27.651 Y-29.365 Z0.824
X-27.929 Y-29.75 Z0.807
X-28.196 Y-30.145 Z0.791
X-28.452 Y-30.552 Z0.774
X-28.697 Y-30.969 Z0.757
X-28.931 Y-31.396 Z0.74
X-29.152 Y-31.832 Z0.723
X-29.361 Y-32.278 Z0.706
X-29.558 Y-32.732 Z0.689
X-29.742 Y-33.195 Z0.671
X-29.912 Y-33.665 Z0.654
X-30.068 Y-34.143 Z0.636
X-30.21 Y-34.628 Z0.618
X-30.337 Y-35.119 Z0.601
X-30.449 Y-35.617 Z0.583
X-30.546 Y-36.121 Z0.565
X-30.626 Y-36.63 Z0.547
X-30.689 Y-37.144 Z0.529
X-30.736 Y-37.664 Z0.511
X-30.765 Y-38.188 Z0.492
X-30.775 Y-38.716 Z0.474
X-30.767 Y-39.249 Z0.455
X-30.739 Y-39.785 Z0.437
X-30.691 Y-40.326 Z0.418
X-30.623 Y-40.869 Z0.398
X-30.534 Y-41.416 Z0.379
X-30.423 Y-41.966 Z0.36
X-30.289 Y-42.52 Z0.34
X-30.132 Y-43.076 Z0.319
X-29.952 Y-43.635 Z0.299
X-29.747 Y-44.197 Z0.278
X-29.517 Y-44.762 Z0.257
X-29.261 Y-45.329 Z0.235
X-28.978 Y-45.899 Z0.213
X-28.669 Y-46.472 Z0.19
X-28.331 Y-47.047 Z0.167
X-27.965 Y-47.624 Z0.143
X-27.57 Y-48.204 Z0.118
X-27.145 Y-48.785 Z0.093
X-26.689 Y-49.369 Z0.067
X-26.203 Y-49.956 Z0.041
X-25.686 Y-50.544 Z0.013
X-25.137 Y-51.133 Z-0.015
X-24.555 Y-51.725 Z-0.044
X-23.942 Y-52.319 Z-0.073
X-23.293 Y-52.917 Z-0.104
G2 X-24.993 Y-56.828 Z-0.3 I-1.509 J-1.669
G1 X-25.155 Y-56.808 F600
G2 X-61.455 Y-10.347 I6.788 J42.714
X-57.228 Y-9.482 I2.241 J-0.195
G1 X-56.762 Y-10.338
X-56.292 Y-11.158
X-55.817 Y-11.947
X-55.336 Y-12.704
X-54.85 Y-13.43
X-54.358 Y-14.126
X-53.862 Y-14.791
X-53.361 Y-15.425
X-52.855 Y-16.031
X-52.345 Y-16.607
X-51.831 Y-17.154
X-51.313 Y-17.674
X-50.791 Y-18.165
X-50.266 Y-18.63
X-49.737 Y-19.069
X-49.206 Y-19.481
X-48.672 Y-19.868
X-48.136 Y-20.231
X-47.597 Y-20.57
X-47.057 Y-20.884
X-46.515 Y-21.176
X-45.972 Y-21.445
X-45.428 Y-21.692
X-44.883 Y-21.918
X-44.338 Y-22.122
X-43.794 Y-22.306
X-43.25 Y-22.47
X-42.706 Y-22.613
X-42.164 Y-22.737
X-41.624 Y-22.842
X-41.086 Y-22.928
X-40.55 Y-22.996
X-40.017 Y-23.045
X-39.487 Y-23.076
X-38.961 Y-23.09
X-38.44 Y-23.086
X-37.923 Y-23.065
X-37.411 Y-23.027
X-36.905 Y-22.972
X-36.405 Y-22.9
X-35.911 Y-22.811
X-35.424 Y-22.706
X-34.945 Y-22.585
X-34.474 Y-22.447
X-34.01 Y-22.293
X-33.556 Y-22.123
X-33.11 Y-21.936
X-32.673 Y-21.734
X-32.246 Y-21.515
X-31.829 Y-21.28
X-31.423 Y-21.029
X-31.026 Y-20.761
X-30.641 Y-20.477
X-30.266 Y-20.176
X-29.903 Y-19.859
X-29.551 Y-19.524
X-29.21 Y-19.172
X-28.881 Y-18.803
X-28.564 Y-18.416
X-28.259 Y-18.011
X-27.965 Y-17.588
X-27.684 Y-17.147
X-27.415 Y-16.687
X-27.154 Y-16.199
X-26.913 Y-15.741
X-26.906 Y-15.728
X-26.652 Y-15.267
X-26.644 Y-15.254
X-26.378 Y-14.794
X-26.371 Y-14.782
X-26.094 Y-14.323
X-26.086 Y-14.311
X-25.799 Y-13.856
X-25.792 Y-13.844
X-25.496 Y-13.394
X-25.488 Y-13.382
X-25.184 Y-12.937
X-25.176 Y-12.926
X-24.864 Y-12.488
X-24.856 Y-12.476
X-24.537 Y-12.047
X-24.528 Y-12.035
X-24.203 Y-11.615
X-24.194 Y-11.603
X-23.863 Y-11.193
X-23.853 Y-11.181
X-23.517 Y-10.783
X-23.505 Y-10.77
X-23.164 Y-10.384
X-23.152 Y-10.37
X-22.806 Y-9.997
X-22.793 Y-9.983
X-22.441 Y-9.624
X-22.426 Y-9.609
X-22.07 Y-9.263
X-22.054 Y-9.248
X-21.691 Y-8.917
X-21.674 Y-8.902
X-21.306 Y-8.585
X-21.288 Y-8.57
X-20.914 Y-8.268
X-20.895 Y-8.253
X-20.514 Y-7.965
X-20.494 Y-7.951
X-20.106 Y-7.678
X-20.086 Y-7.664
X-19.691 Y-7.405
X-19.67 Y-7.391
X-19.268 Y-7.147
X-19.247 Y-7.134
X-18.837 Y-6.903
X-18.816 Y-6.891
X-18.399 Y-6.673
X-18.379 Y-6.663
X-17.955 Y-6.457
X-17.935 Y-6.448
X-17.504 Y-6.254
X-17.485 Y-6.246
X-17.047 Y-6.064
X-17.029 Y-6.057
X-16.586 Y-5.885
X-16.569 Y-5.879
X-16.121 Y-5.718
X-16.098 Y-5.71
X-15.189 Y-5.415
X-15.16 Y-5.406
X-14.704 Y-5.278
X-14.696 Y-5.276
X-14.249 Y-5.156
X-14.242 Y-5.154
X-13.805 Y-5.041
X-13.797 Y-5.039
X-13.369 Y-4.934
X-13.36 Y-4.932
X-12.942 Y-4.834
X-12.933 Y-4.832
X-12.525 Y-4.742
X-12.515 Y-4.739
X-12.117 Y-4.657
X-12.107 Y-4.655
X-11.718 Y-4.58
X-11.707 Y-4.578
X-11.328 Y-4.511
X-11.316 Y-4.509
X-10.947 Y-4.449
X-10.935 Y-4.447
X-10.576 Y-4.396
X-10.562 Y-4.394
X-10.214 Y-4.351
X-10.199 Y-4.349
X-9.861 Y-4.313
X-9.845 Y-4.312
X-9.517 Y-4.285
X-9.5 Y-4.283
X-9.183 Y-4.264
X-9.164
X-8.858 Y-4.253
X-8.837 Y-4.252
X-8.541 Y-4.25
X-8.519
X-8.234 Y-4.257
X-8.21 Y-4.258
X-7.936 Y-4.273
X-7.91 Y-4.275
X-7.647 Y-4.299
X-7.618 Y-4.302
X-7.367 Y-4.335
X-7.335 Y-4.34
X-7.096 Y-4.382
X-7.061 Y-4.388
X-6.834 Y-4.439
X-6.796 Y-4.449
X-6.58 Y-4.509
X-6.54 Y-4.522
X-6.336 Y-4.591
X-6.293 Y-4.608
X-6.101 Y-4.687
X-6.055 Y-4.708
X-5.875 Y-4.796
X-5.827 Y-4.822
X-5.66 Y-4.92
X-5.611 Y-4.952
X-5.457 Y-5.059
X-5.408 Y-5.097
X-5.265 Y-5.214
X-5.218 Y-5.257
X-5.088 Y-5.384
X-5.043 Y-5.432
X-4.926 Y-5.569
X-4.885 Y-5.622
X-4.78 Y-5.769
X-4.745 Y-5.824
X-4.652 Y-5.981
X-4.622 Y-6.037
X-4.543 Y-6.204
X-4.519 Y-6.26
X-4.451 Y-6.436
X-4.433 Y-6.491
X-4.378 Y-6.677
X-4.364 Y-6.73
X-4.322 Y-6.926
X-4.313 Y-6.975
X-4.283 Y-7.18
X-4.277 Y-7.227
X-4.259 Y-7.441
X-4.257 Y-7.484
X-4.25 Y-7.708
Y-7.746
X-4.256 Y-7.98
X-4.257 Y-8.015
X-4.275 Y-8.257
X-4.278 Y-8.289
X-4.307 Y-8.541
X-4.31 Y-8.57
X-4.351 Y-8.83
X-4.355 Y-8.856
X-4.407 Y-9.126
X-4.412 Y-9.149
X-4.474 Y-9.427
X-4.48 Y-9.449
X-4.553 Y-9.735
X-4.559 Y-9.755
X-4.643 Y-10.05
X-4.649 Y-10.068
X-4.744 Y-10.371
X-4.749 Y-10.388
X-4.855 Y-10.699
X-4.86 Y-10.714
X-4.976 Y-11.034
X-4.982 Y-11.048
X-5.108 Y-11.375
X-5.113 Y-11.388
X-5.25 Y-11.724
X-5.255 Y-11.735
X-5.402 Y-12.079
X-5.407 Y-12.09
X-5.563 Y-12.441
X-5.568 Y-12.451
X-5.735 Y-12.81
X-5.739 Y-12.82
X-5.916 Y-13.187
X-5.92 Y-13.195
X-6.106 Y-13.57
X-6.111 Y-13.578
X-6.307 Y-13.96
X-6.311 Y-13.968
X-6.516 Y-14.357
X-6.52 Y-14.365
X-6.736 Y-14.762
X-6.739 Y-14.768
X-6.964 Y-15.173
X-6.968 Y-15.179
X-7.202 Y-15.591
X-7.218 Y-15.618
X-7.724 Y-16.428
X-7.737 Y-16.448
X-8.002 Y-16.844
X-8.012 Y-16.859
X-8.286 Y-17.248
X-8.297 Y-17.263
X-8.58 Y-17.644
X-8.592 Y-17.66
X-8.884 Y-18.032
X-8.898 Y-18.049
X-9.2 Y-18.411
X-9.215 Y-18.428
X-9.528 Y-18.78
X-9.544 Y-18.797
X-9.868 Y-19.138
X-9.885 Y-19.156
X-10.22 Y-19.487
X-10.238 Y-19.504
X-10.584 Y-19.824
X-10.603 Y-19.841
X-10.962 Y-20.151
X-10.981 Y-20.167
X-11.352 Y-20.467
X-11.371 Y-20.482
X-11.755 Y-20.772
X-11.774 Y-20.786
X-12.17 Y-21.066
X-12.189 Y-21.079
X-12.598 Y-21.351
X-12.616 Y-21.362
X-13.038 Y-21.625
X-13.056 Y-21.636
X-13.49 Y-21.89
X-13.506 Y-21.899
X-13.952 Y-22.145
X-13.968 Y-22.154
X-14.425 Y-22.391
X-14.441 Y-22.399
X-14.908 Y-22.629
X-14.923 Y-22.636
X-15.4 Y-22.857
X-15.414 Y-22.864
X-15.9 Y-23.077
X-15.914 Y-23.083
X-16.408 Y-23.288
X-16.421 Y-23.294
X-16.921 Y-23.49
X-16.934 Y-23.495
X-17.439 Y-23.683
X-17.453 Y-23.688
X-17.962 Y-23.866
X-17.975 Y-23.87
X-18.486 Y-24.039
X-18.499 Y-24.043
X-19.011 Y-24.201
X-19.025 Y-24.205
X-19.536 Y-24.352
X-19.55 Y-24.356
X-20.059 Y-24.491
X-20.073 Y-24.495
X-20.575 Y-24.618
X-21.04 Y-24.736
X-21.485 Y-24.866
X-21.92 Y-25.013
X-22.346 Y-25.175
X-22.763 Y-25.353
X-23.17 Y-25.546
X-23.569 Y-25.754
X-23.959 Y-25.978
X-24.34 Y-26.216
X-24.712 Y-26.469
X-25.076 Y-26.737
X-25.43 Y-27.018
X-25.775 Y-27.314
X-26.112 Y-27.624
X-26.439 Y-27.946
X-26.756 Y-28.282
X-27.065 Y-28.631
X-27.363 Y-28.992
X-27.651 Y-29.365
X-27.929 Y-29.75
X-28.196 Y-30.145
X-28.452 Y-30.552
X-28.697 Y-30.969
X-28.931 Y-31.396
X-29.152 Y-31.832
X-29.361 Y-32.278
X-29.558 Y-32.732
X-29.742 Y-33.195
X-29.912 Y-33.665
X-30.068 Y-34.143
X-30.21 Y-34.628
X-30.337 Y-35.119
X-30.449 Y-35.617
X-30.546 Y-36.121
X-30.626 Y-36.63
X-30.689 Y-37.144
X-30.736 Y-37.664
X-30.765 Y-38.188
X-30.775 Y-38.716
X-30.767 Y-39.249
X-30.739 Y-39.785
X-30.691 Y-40.326
X-30.623 Y-40.869
X-30.534 Y-41.416
X-30.423 Y-41.966
X-30.289 Y-42.52
X-30.132 Y-43.076
X-29.952 Y-43.635
X-29.747 Y-44.197
X-29.517 Y-44.762
X-29.261 Y-45.329
X-28.978 Y-45.899
X-28.669 Y-46.472
X-28.331 Y-47.047
X-27.965 Y-47.624
X-27.57 Y-48.204
X-27.145 Y-48.785
X-26.689 Y-49.369
X-26.203 Y-49.956
X-25.686 Y-50.544
X-25.137 Y-51.133
X-24.555 Y-51.725
X-23.942 Y-52.319
X-23.293 Y-52.917
G2 X-24.993 Y-56.828 I-1.509 J-1.669
G1 X-25.155 Y-56.808 Z-0.306 F1016
G2 X-33.297 Y-54.686 Z-0.6 I6.788 J42.714
X-61.455 Y-10.347 I14.93 J40.591 F600
X-57.228 Y-9.482 I2.241 J-0.195
G1 X-56.762 Y-10.338
X-56.292 Y-11.158
X-55.817 Y-11.947
X-55.336 Y-12.704
X-54.85 Y-13.43
X-54.358 Y-14.126
X-53.862 Y-14.791
X-53.361 Y-15.425
X-52.855 Y-16.031
X-52.345 Y-16.607
X-51.831 Y-17.154
X-51.313 Y-17.674
X-50.791 Y-18.165
X-50.266 Y-18.63
X-49.737 Y-19.069
X-49.206 Y-19.481
X-48.672 Y-19.868
X-48.136 Y-20.231
X-47.597 Y-20.57
X-47.057 Y-20.884
X-46.515 Y-21.176
X-45.972 Y-21.445
X-45.428 Y-21.692
X-44.883 Y-21.918
X-44.338 Y-22.122
X-43.794 Y-22.306
X-43.25 Y-22.47
X-42.706 Y-22.613
X-42.164 Y-22.737
X-41.624 Y-22.842
X-41.086 Y-22.928
X-40.55 Y-22.996
X-40.017 Y-23.045
X-39.487 Y-23.076
X-38.961 Y-23.09
X-38.44 Y-23.086
X-37.923 Y-23.065
X-37.411 Y-23.027
X-36.905 Y-22.972
X-36.405 Y-22.9
X-35.911 Y-22.811
X-35.424 Y-22.706
X-34.945 Y-22.585
X-34.474 Y-22.447
X-34.01 Y-22.293
X-33.556 Y-22.123
X-33.11 Y-21.936
X-32.673 Y-21.734
X-32.246 Y-21.515
X-31.829 Y-21.28
X-31.423 Y-21.029
X-31.026 Y-20.761
X-30.641 Y-20.477
X-30.266 Y-20.176
X-29.903 Y-19.859
X-29.551 Y-19.524
X-29.21 Y-19.172
X-28.881 Y-18.803
X-28.564 Y-18.416
X-28.259 Y-18.011
X-27.965 Y-17.588
X-27.684 Y-17.147
X-27.415 Y-16.687
X-27.154 Y-16.199
X-26.913 Y-15.741
X-26.906 Y-15.728
X-26.652 Y-15.267
X-26.644 Y-15.254
X-26.378 Y-14.794
X-26.371 Y-14.782
X-26.094 Y-14.323
X-26.086 Y-14.311
X-25.799 Y-13.856
X-25.792 Y-13.844
X-25.496 Y-13.394
X-25.488 Y-13.382
X-25.184 Y-12.937
X-25.176 Y-12.926
X-24.864 Y-12.488
X-24.856 Y-12.476
X-24.537 Y-12.047
X-24.528 Y-12.035
X-24.203 Y-11.615
X-24.194 Y-11.603
X-23.863 Y-11.193
X-23.853 Y-11.181
X-23.517 Y-10.783
X-23.505 Y-10.77
X-23.164 Y-10.384
X-23.152 Y-10.37
X-22.806 Y-9.997
X-22.793 Y-9.983
X-22.441 Y-9.624
X-22.426 Y-9.609
X-22.07 Y-9.263
X-22.054 Y-9.248
X-21.691 Y-8.917
X-21.674 Y-8.902
X-21.306 Y-8.585
X-21.288 Y-8.57
X-20.914 Y-8.268
X-20.895 Y-8.253
X-20.514 Y-7.965
X-20.494 Y-7.951
X-20.106 Y-7.678
X-20.086 Y-7.664
X-19.691 Y-7.405
X-19.67 Y-7.391
X-19.268 Y-7.147
X-19.247 Y-7.134
X-18.837 Y-6.903
X-18.816 Y-6.891
X-18.399 Y-6.673
X-18.379 Y-6.663
X-17.955 Y-6.457
X-17.935 Y-6.448
X-17.504 Y-6.254
X-17.485 Y-6.246
X-17.047 Y-6.064
X-17.029 Y-6.057
X-16.586 Y-5.885
X-16.569 Y-5.879
X-16.121 Y-5.718
X-16.098 Y-5.71
X-15.189 Y-5.415
X-15.16 Y-5.406
X-14.704 Y-5.278
X-14.696 Y-5.276
X-14.249 Y-5.156
X-14.242 Y-5.154
X-13.805 Y-5.041
X-13.797 Y-5.039
X-13.369 Y-4.934
X-13.36 Y-4.932
X-12.942 Y-4.834
X-12.933 Y-4.832
X-12.525 Y-4.742
X-12.515 Y-4.739
X-12.117 Y-4.657
X-12.107 Y-4.655
X-11.718 Y-4.58
X-11.707 Y-4.578
X-11.328 Y-4.511
X-11.316 Y-4.509
X-10.947 Y-4.449
X-10.935 Y-4.447
X-10.576 Y-4.396
X-10.562 Y-4.394
X-10.214 Y-4.351
X-10.199 Y-4.349
X-9.861 Y-4.313
X-9.845 Y-4.312
X-9.517 Y-4.285
X-9.5 Y-4.283
X-9.183 Y-4.264
X-9.164
X-8.858 Y-4.253
X-8.837 Y-4.252
X-8.541 Y-4.25
X-8.519
X-8.234 Y-4.257
X-8.21 Y-4.258
X-7.936 Y-4.273
X-7.91 Y-4.275
X-7.647 Y-4.299
X-7.618 Y-4.302
X-7.367 Y-4.335
X-7.335 Y-4.34
X-7.096 Y-4.382
X-7.061 Y-4.388
X-6.834 Y-4.439
X-6.796 Y-4.449
X-6.58 Y-4.509
X-6.54 Y-4.522
X-6.336 Y-4.591
X-6.293 Y-4.608
X-6.101 Y-4.687
X-6.055 Y-4.708
X-5.875 Y-4.796
X-5.827 Y-4.822
X-5.66 Y-4.92
X-5.611 Y-4.952
X-5.457 Y-5.059
X-5.408 Y-5.097
X-5.265 Y-5.214
X-5.218 Y-5.257
X-5.088 Y-5.384
X-5.043 Y-5.432
X-4.926 Y-5.569
X-4.885 Y-5.622
X-4.78 Y-5.769
X-4.745 Y-5.824
X-4.652 Y-5.981
X-4.622 Y-6.037
X-4.543 Y-6.204
X-4.519 Y-6.26
X-4.451 Y-6.436
X-4.433 Y-6.491
X-4.378 Y-6.677
X-4.364 Y-6.73
X-4.322 Y-6.926
X-4.313 Y-6.975
X-4.283 Y-7.18
X-4.277 Y-7.227
X-4.259 Y-7.441
X-4.257 Y-7.484
X-4.25 Y-7.708
Y-7.746
X-4.256 Y-7.98
X-4.257 Y-8.015
X-4.275 Y-8.257
X-4.278 Y-8.289
X-4.307 Y-8.541
X-4.31 Y-8.57
X-4.351 Y-8.83
X-4.355 Y-8.856
X-4.407 Y-9.126
X-4.412 Y-9.149
X-4.474 Y-9.427
X-4.48 Y-9.449
X-4.553 Y-9.735
X-4.559 Y-9.755
X-4.643 Y-10.05
X-4.649 Y-10.068
X-4.744 Y-10.371
X-4.749 Y-10.388
X-4.855 Y-10.699
X-4.86 Y-10.714
X-4.976 Y-11.034
X-4.982 Y-11.048
X-5.108 Y-11.375
X-5.113 Y-11.388
X-5.25 Y-11.724
X-5.255 Y-11.735
X-5.402 Y-12.079
X-5.407 Y-12.09
X-5.563 Y-12.441
X-5.568 Y-12.451
X-5.735 Y-12.81
X-5.739 Y-12.82
X-5.916 Y-13.187
X-5.92 Y-13.195
X-6.106 Y-13.57
X-6.111 Y-13.578
X-6.307 Y-13.96
X-6.311 Y-13.968
X-6.516 Y-14.357
X-6.52 Y-14.365
X-6.736 Y-14.762
X-6.739 Y-14.768
X-6.964 Y-15.173
X-6.968 Y-15.179
X-7.202 Y-15.591
X-7.218 Y-15.618
X-7.724 Y-16.428
X-7.737 Y-16.448
X-8.002 Y-16.844
X-8.012 Y-16.859
X-8.286 Y-17.248
X-8.297 Y-17.263
X-8.58 Y-17.644
X-8.592 Y-17.66
X-8.884 Y-18.032
X-8.898 Y-18.049
X-9.2 Y-18.411
X-9.215 Y-18.428
X-9.528 Y-18.78
X-9.544 Y-18.797
X-9.868 Y-19.138
X-9.885 Y-19.156
X-10.22 Y-19.487
X-10.238 Y-19.504
X-10.584 Y-19.824
X-10.603 Y-19.841
X-10.962 Y-20.151
X-10.981 Y-20.167
X-11.352 Y-20.467
X-11.371 Y-20.482
X-11.755 Y-20.772
X-11.774 Y-20.786
X-12.17 Y-21.066
X-12.189 Y-21.079
X-12.598 Y-21.351
X-12.616 Y-21.362
X-13.038 Y-21.625
X-13.056 Y-21.636
X-13.49 Y-21.89
X-13.506 Y-21.899
X-13.952 Y-22.145
X-13.968 Y-22.154
X-14.425 Y-22.391
X-14.441 Y-22.399
X-14.908 Y-22.629
X-14.923 Y-22.636
X-15.4 Y-22.857
X-15.414 Y-22.864
X-15.9 Y-23.077
X-15.914 Y-23.083
X-16.408 Y-23.288
X-16.421 Y-23.294
X-16.921 Y-23.49
X-16.934 Y-23.495
X-17.439 Y-23.683
X-17.453 Y-23.688
X-17.962 Y-23.866
X-17.975 Y-23.87
X-18.486 Y-24.039
X-18.499 Y-24.043
X-19.011 Y-24.201
X-19.025 Y-24.205
X-19.536 Y-24.352
X-19.55 Y-24.356
X-20.059 Y-24.491
X-20.073 Y-24.495
X-20.575 Y-24.618
X-21.04 Y-24.736
X-21.485 Y-24.866
X-21.92 Y-25.013
X-22.346 Y-25.175
X-22.763 Y-25.353
X-23.17 Y-25.546
X-23.569 Y-25.754
X-23.959 Y-25.978
X-24.34 Y-26.216
X-24.712 Y-26.469
X-25.076 Y-26.737
X-25.43 Y-27.018
X-25.775 Y-27.314
X-26.112 Y-27.624
X-26.439 Y-27.946
X-26.756 Y-28.282
X-27.065 Y-28.631
X-27.363 Y-28.992
X-27.651 Y-29.365
X-27.929 Y-29.75
X-28.196 Y-30.145
X-28.452 Y-30.552
X-28.697 Y-30.969
X-28.931 Y-31.396
X-29.152 Y-31.832
X-29.361 Y-32.278
X-29.558 Y-32.732
X-29.742 Y-33.195
X-29.912 Y-33.665
X-30.068 Y-34.143
X-30.21 Y-34.628
X-30.337 Y-35.119
X-30.449 Y-35.617
X-30.546 Y-36.121
X-30.626 Y-36.63
X-30.689 Y-37.144
X-30.736 Y-37.664
X-30.765 Y-38.188
X-30.775 Y-38.716
X-30.767 Y-39.249
X-30.739 Y-39.785
X-30.691 Y-40.326
X-30.623 Y-40.869
X-30.534 Y-41.416
X-30.423 Y-41.966
X-30.289 Y-42.52
X-30.132 Y-43.076
X-29.952 Y-43.635
X-29.747 Y-44.197
X-29.517 Y-44.762
X-29.261 Y-45.329
X-28.978 Y-45.899
X-28.669 Y-46.472
X-28.331 Y-47.047
X-27.965 Y-47.624
X-27.57 Y-48.204
X-27.145 Y-48.785
X-26.689 Y-49.369
X-26.203 Y-49.956
X-25.686 Y-50.544
X-25.137 Y-51.133
X-24.555 Y-51.725
X-23.942 Y-52.319
X-23.293 Y-52.917
G2 X-25.155 Y-56.808 I-1.509 J-1.669
X-33.297 Y-54.686 I6.788 J42.714
X-39.156 Y-52.02 Z-0.825 I14.93 J40.591 F1016
X-41.013 Y-50.941 I20.789 J37.926
G1 Z5 F600
Z-0.825 F300
G2 X-41.818 Y-50.435 I22.646 J36.847 F600
G1 Z-0.9 F300
G2 X-59.302 Y-28.056 I23.45 J36.341 F600
G1 Z-0.825
G2 X-60.296 Y-24.701 I40.934 J13.962
G1 Z-0.9 F300
G2 X-61.455 Y-10.347 I41.929 J10.607 F600
X-57.228 Y-9.482 I2.241 J-0.195
G1 X-56.762 Y-10.338
X-56.292 Y-11.158
X-55.817 Y-11.947
X-55.336 Y-12.704
X-54.85 Y-13.43
X-54.358 Y-14.126
X-53.862 Y-14.791
X-53.361 Y-15.425
X-52.855 Y-16.031
X-52.345 Y-16.607
X-51.831 Y-17.154
X-51.313 Y-17.674
X-50.791 Y-18.165
X-50.266 Y-18.63
X-49.737 Y-19.069
X-49.206 Y-19.481
X-48.672 Y-19.868
X-48.136 Y-20.231
X-47.597 Y-20.57
X-47.057 Y-20.884
X-46.515 Y-21.176
X-45.972 Y-21.445
X-45.428 Y-21.692
X-44.883 Y-21.918
X-44.338 Y-22.122
X-43.794 Y-22.306
X-43.25 Y-22.47
X-42.706 Y-22.613
X-42.279 Y-22.711
Z-0.825
X-42.164 Y-22.737
X-41.624 Y-22.842
X-41.086 Y-22.928
X-40.55 Y-22.996
X-40.017 Y-23.045
X-39.487 Y-23.076
X-38.961 Y-23.09
X-38.799 Y-23.089
Z-0.9 F300
X-38.44 Y-23.086 F600
X-37.923 Y-23.065
X-37.411 Y-23.027
X-36.905 Y-22.972
X-36.405 Y-22.9
X-35.911 Y-22.811
X-35.424 Y-22.706
X-34.945 Y-22.585
X-34.474 Y-22.447
X-34.01 Y-22.293
X-33.556 Y-22.123
X-33.11 Y-21.936
X-32.673 Y-21.734
X-32.246 Y-21.515
X-31.829 Y-21.28
X-31.423 Y-21.029
X-31.026 Y-20.761
X-30.641 Y-20.477
X-30.266 Y-20.176
X-29.903 Y-19.859
X-29.551 Y-19.524
X-29.21 Y-19.172
X-28.881 Y-18.803
X-28.564 Y-18.416
X-28.259 Y-18.011
X-27.965 Y-17.588
X-27.684 Y-17.147
X-27.415 Y-16.687
X-27.154 Y-16.199
X-26.913 Y-15.741
X-26.906 Y-15.728
X-26.652 Y-15.267
X-26.644 Y-15.254
X-26.378 Y-14.794
X-26.371 Y-14.782
X-26.094 Y-14.323
X-26.086 Y-14.311
X-25.799 Y-13.856
X-25.792 Y-13.844
X-25.496 Y-13.394
X-25.488 Y-13.382
X-25.184 Y-12.937
X-25.176 Y-12.926
X-24.864 Y-12.488
X-24.856 Y-12.476
X-24.537 Y-12.047
X-24.528 Y-12.035
X-24.203 Y-11.615
X-24.194 Y-11.603
X-23.863 Y-11.193
X-23.853 Y-11.181
X-23.517 Y-10.783
X-23.505 Y-10.77
X-23.164 Y-10.384
X-23.152 Y-10.37
X-22.806 Y-9.997
X-22.793 Y-9.983
X-22.441 Y-9.624
X-22.426 Y-9.609
X-22.07 Y-9.263
X-22.054 Y-9.248
X-21.691 Y-8.917
X-21.674 Y-8.902
X-21.306 Y-8.585
X-21.288 Y-8.57
X-20.914 Y-8.268
X-20.895 Y-8.253
X-20.514 Y-7.965
X-20.494 Y-7.951
X-20.106 Y-7.678
X-20.086 Y-7.664
X-19.691 Y-7.405
X-19.67 Y-7.391
X-19.268 Y-7.147
X-19.247 Y-7.134
X-18.837 Y-6.903
X-18.816 Y-6.891
X-18.399 Y-6.673
X-18.379 Y-6.663
X-17.955 Y-6.457
X-17.935 Y-6.448
X-17.504 Y-6.254
X-17.485 Y-6.246
X-17.047 Y-6.064
X-17.029 Y-6.057
X-16.586 Y-5.885
X-16.569 Y-5.879
X-16.121 Y-5.718
X-16.098 Y-5.71
X-15.189 Y-5.415
X-15.16 Y-5.406
X-14.704 Y-5.278
X-14.696 Y-5.276
X-14.249 Y-5.156
X-14.242 Y-5.154
X-13.805 Y-5.041
X-13.797 Y-5.039
X-13.369 Y-4.934
X-13.36 Y-4.932
X-12.942 Y-4.834
X-12.933 Y-4.832
X-12.525 Y-4.742
X-12.515 Y-4.739
X-12.117 Y-4.657
X-12.107 Y-4.655
X-11.718 Y-4.58
X-11.707 Y-4.578
X-11.328 Y-4.511
X-11.316 Y-4.509
X-10.947 Y-4.449
X-10.935 Y-4.447
X-10.576 Y-4.396
X-10.562 Y-4.394
X-10.214 Y-4.351
X-10.199 Y-4.349
X-9.861 Y-4.313
X-9.845 Y-4.312
X-9.517 Y-4.285
X-9.5 Y-4.283
X-9.183 Y-4.264
X-9.164
X-8.858 Y-4.253
X-8.837 Y-4.252
X-8.541 Y-4.25
X-8.519
X-8.234 Y-4.257
X-8.21 Y-4.258
X-7.936 Y-4.273
X-7.91 Y-4.275
X-7.647 Y-4.299
X-7.618 Y-4.302
X-7.367 Y-4.335
X-7.335 Y-4.34
X-7.096 Y-4.382
X-7.061 Y-4.388
X-6.834 Y-4.439
X-6.796 Y-4.449
X-6.58 Y-4.509
X-6.54 Y-4.522
X-6.336 Y-4.591
X-6.293 Y-4.608
X-6.101 Y-4.687
X-6.055 Y-4.708
X-5.875 Y-4.796
X-5.827 Y-4.822
X-5.66 Y-4.92
X-5.611 Y-4.952
X-5.457 Y-5.059
X-5.408 Y-5.097
X-5.265 Y-5.214
X-5.218 Y-5.257
X-5.088 Y-5.384
X-5.043 Y-5.432
X-4.926 Y-5.569
X-4.885 Y-5.622
X-4.78 Y-5.769
X-4.745 Y-5.824
X-4.652 Y-5.981
X-4.622 Y-6.037
X-4.543 Y-6.204
X-4.519 Y-6.26
X-4.451 Y-6.436
X-4.433 Y-6.491
X-4.378 Y-6.677
X-4.364 Y-6.73
X-4.322 Y-6.926
X-4.313 Y-6.975
X-4.283 Y-7.18
X-4.277 Y-7.227
X-4.259 Y-7.441
X-4.257 Y-7.484
X-4.25 Y-7.708
Y-7.746
X-4.256 Y-7.98
X-4.257 Y-8.015
X-4.275 Y-8.257
X-4.278 Y-8.289
X-4.307 Y-8.541
X-4.31 Y-8.57
X-4.351 Y-8.83
X-4.355 Y-8.856
X-4.407 Y-9.126
X-4.412 Y-9.149
X-4.474 Y-9.427
X-4.48 Y-9.449
X-4.553 Y-9.735
X-4.559 Y-9.755
X-4.643 Y-10.05
X-4.649 Y-10.068
X-4.744 Y-10.371
X-4.749 Y-10.388
X-4.855 Y-10.699
X-4.86 Y-10.714
X-4.976 Y-11.034
X-4.982 Y-11.048
X-5.108 Y-11.375
X-5.113 Y-11.388
X-5.25 Y-11.724
X-5.255 Y-11.735
X-5.402 Y-12.079
X-5.407 Y-12.09
X-5.563 Y-12.441
X-5.568 Y-12.451
X-5.735 Y-12.81
X-5.739 Y-12.82
X-5.916 Y-13.187
X-5.92 Y-13.195
X-6.106 Y-13.57
X-6.111 Y-13.578
X-6.307 Y-13.96
X-6.311 Y-13.968
X-6.516 Y-14.357
X-6.52 Y-14.365
X-6.736 Y-14.762
X-6.739 Y-14.768
X-6.964 Y-15.173
X-6.968 Y-15.179
X-7.202 Y-15.591
X-7.218 Y-15.618
X-7.724 Y-16.428
X-7.737 Y-16.448
X-8.002 Y-16.844
X-8.012 Y-16.859
X-8.286 Y-17.248
X-8.297 Y-17.263
X-8.58 Y-17.644
X-8.592 Y-17.66
X-8.884 Y-18.032
X-8.898 Y-18.049
X-9.2 Y-18.411
X-9.215 Y-18.428
X-9.528 Y-18.78
X-9.544 Y-18.797
X-9.868 Y-19.138
X-9.885 Y-19.156
X-10.22 Y-19.487
X-10.238 Y-19.504
X-10.584 Y-19.824
X-10.603 Y-19.841
X-10.962 Y-20.151
X-10.981 Y-20.167
X-11.352 Y-20.467
X-11.371 Y-20.482
X-11.755 Y-20.772
X-11.774 Y-20.786
X-12.17 Y-21.066
X-12.189 Y-21.079
X-12.598 Y-21.351
X-12.616 Y-21.362
X-13.038 Y-21.625
X-13.056 Y-21.636
X-13.49 Y-21.89
X-13.506 Y-21.899
X-13.952 Y-22.145
X-13.968 Y-22.154
X-14.425 Y-22.391
X-14.441 Y-22.399
X-14.908 Y-22.629
X-14.923 Y-22.636
X-15.4 Y-22.857
X-15.414 Y-22.864
X-15.9 Y-23.077
X-15.914 Y-23.083
X-16.408 Y-23.288
X-16.421 Y-23.294
X-16.921 Y-23.49
X-16.934 Y-23.495
X-17.439 Y-23.683
X-17.453 Y-23.688
X-17.962 Y-23.866
X-17.975 Y-23.87
X-18.486 Y-24.039
X-18.499 Y-24.043
X-19.011 Y-24.201
X-19.025 Y-24.205
X-19.536 Y-24.352
X-19.55 Y-24.356
X-20.059 Y-24.491
X-20.073 Y-24.495
X-20.575 Y-24.618
X-21.04 Y-24.736
X-21.485 Y-24.866
X-21.92 Y-25.013
X-22.346 Y-25.175
X-22.763 Y-25.353
X-23.17 Y-25.546
X-23.569 Y-25.754
X-23.959 Y-25.978
X-24.34 Y-26.216
X-24.712 Y-26.469
X-25.076 Y-26.737
X-25.43 Y-27.018
X-25.775 Y-27.314
X-26.112 Y-27.624
X-26.439 Y-27.946
X-26.756 Y-28.282
X-27.065 Y-28.631
X-27.363 Y-28.992
X-27.651 Y-29.365
X-27.929 Y-29.75
X-28.196 Y-30.145
X-28.452 Y-30.552
X-28.697 Y-30.969
X-28.931 Y-31.396
X-29.152 Y-31.832
X-29.361 Y-32.278
X-29.558 Y-32.732
X-29.742 Y-33.195
X-29.831 Y-33.441
Z-0.825
X-29.912 Y-33.665
X-30.068 Y-34.143
X-30.21 Y-34.628
X-30.337 Y-35.119
X-30.449 Y-35.617
X-30.546 Y-36.121
X-30.626 Y-36.63
X-30.652 Y-36.843
Z-0.9 F300
X-30.689 Y-37.144 F600
X-30.736 Y-37.664
X-30.765 Y-38.188
X-30.775 Y-38.716
X-30.767 Y-39.249
X-30.739 Y-39.785
X-30.691 Y-40.326
X-30.623 Y-40.869
X-30.534 Y-41.416
X-30.423 Y-41.966
X-30.289 Y-42.52
X-30.132 Y-43.076
X-29.952 Y-43.635
X-29.747 Y-44.197
X-29.517 Y-44.762
X-29.261 Y-45.329
X-28.978 Y-45.899
X-28.669 Y-46.472
X-28.331 Y-47.047
X-27.965 Y-47.624
X-27.57 Y-48.204
X-27.145 Y-48.785
X-26.689 Y-49.369
X-26.203 Y-49.956
X-25.686 Y-50.544
X-25.137 Y-51.133
X-24.555 Y-51.725
X-23.942 Y-52.319
X-23.293 Y-52.917
G2 X-25.155 Y-56.808 I-1.509 J-1.669
X-38.802 Y-52.212 I6.788 J42.714
G1 Z-0.825
G2 X-41.013 Y-50.941 I20.435 J38.118
X-41.818 Y-50.435 I22.646 J36.847 F1016
G1 Z-0.933 F300
G2 X-47.839 Y-45.748 Z-1.2 I23.45 J36.341 F1016
X-59.302 Y-28.056 I29.472 J31.654 F600
G1 Z-0.825
G2 X-60.296 Y-24.701 I40.934 J13.962
G1 Z-1.2 F300
G2 X-61.455 Y-10.347 I41.929 J10.607 F600
X-57.228 Y-9.482 I2.241 J-0.195
G1 X-56.762 Y-10.338
X-56.292 Y-11.158
X-55.817 Y-11.947
X-55.336 Y-12.704
X-54.85 Y-13.43
X-54.358 Y-14.126
X-53.862 Y-14.791
X-53.361 Y-15.425
X-52.855 Y-16.031
X-52.345 Y-16.607
X-51.831 Y-17.154
X-51.313 Y-17.674
X-50.791 Y-18.165
X-50.266 Y-18.63
X-49.737 Y-19.069
X-49.206 Y-19.481
X-48.672 Y-19.868
X-48.136 Y-20.231
X-47.597 Y-20.57
X-47.057 Y-20.884
X-46.515 Y-21.176
X-45.972 Y-21.445
X-45.428 Y-21.692
X-44.883 Y-21.918
X-44.338 Y-22.122
X-43.794 Y-22.306
X-43.25 Y-22.47
X-42.706 Y-22.613
X-42.279 Y-22.711
Z-0.825
X-42.164 Y-22.737
X-41.624 Y-22.842
X-41.086 Y-22.928
X-40.55 Y-22.996
X-40.017 Y-23.045
X-39.487 Y-23.076
X-38.961 Y-23.09
X-38.799 Y-23.089
Z-1.2 F300
X-38.44 Y-23.086 F600
X-37.923 Y-23.065
X-37.411 Y-23.027
X-36.905 Y-22.972
X-36.405 Y-22.9
X-35.911 Y-22.811
X-35.424 Y-22.706
X-34.945 Y-22.585
X-34.474 Y-22.447
X-34.01 Y-22.293
X-33.556 Y-22.123
X-33.11 Y-21.936
X-32.673 Y-21.734
X-32.246 Y-21.515
X-31.829 Y-21.28
X-31.423 Y-21.029
X-31.026 Y-20.761
X-30.641 Y-20.477
X-30.266 Y-20.176
X-29.903 Y-19.859
X-29.551 Y-19.524
X-29.21 Y-19.172
X-28.881 Y-18.803
X-28.564 Y-18.416
X-28.259 Y-18.011
X-27.965 Y-17.588
X-27.684 Y-17.147
X-27.415 Y-16.687
X-27.154 Y-16.199
X-26.913 Y-15.741
X-26.906 Y-15.728
X-26.652 Y-15.267
X-26.644 Y-15.254
X-26.378 Y-14.794
X-26.371 Y-14.782
X-26.094 Y-14.323
X-26.086 Y-14.311
X-25.799 Y-13.856
X-25.792 Y-13.844
X-25.496 Y-13.394
X-25.488 Y-13.382
X-25.184 Y-12.937
X-25.176 Y-12.926
X-24.864 Y-12.488
X-24.856 Y-12.476
X-24.537 Y-12.047
X-24.528 Y-12.035
X-24.203 Y-11.615
X-24.194 Y-11.603
X-23.863 Y-11.193
X-23.853 Y-11.181
X-23.517 Y-10.783
X-23.505 Y-10.77
X-23.164 Y-10.384
X-23.152 Y-10.37
X-22.806 Y-9.997
X-22.793 Y-9.983
X-22.441 Y-9.624
X-22.426 Y-9.609
X-22.07 Y-9.263
X-22.054 Y-9.248
X-21.691 Y-8.917
X-21.674 Y-8.902
X-21.306 Y-8.585
X-21.288 Y-8.57
X-20.914 Y-8.268
X-20.895 Y-8.253
X-20.514 Y-7.965
X-20.494 Y-7.951
X-20.106 Y-7.678
X-20.086 Y-7.664
X-19.691 Y-7.405
X-19.67 Y-7.391
X-19.268 Y-7.147
X-19.247 Y-7.134
X-18.837 Y-6.903
X-18.816 Y-6.891
X-18.399 Y-6.673
X-18.379 Y-6.663
X-17.955 Y-6.457
X-17.935 Y-6.448
X-17.504 Y-6.254
X-17.485 Y-6.246
X-17.047 Y-6.064
X-17.029 Y-6.057
X-16.586 Y-5.885
X-16.569 Y-5.879
X-16.121 Y-5.718
X-16.098 Y-5.71
X-15.189 Y-5.415
X-15.16 Y-5.406
X-14.704 Y-5.278
X-14.696 Y-5.276
X-14.249 Y-5.156
X-14.242 Y-5.154
X-13.805 Y-5.041
X-13.797 Y-5.039
X-13.369 Y-4.934
X-13.36 Y-4.932
X-12.942 Y-4.834
X-12.933 Y-4.832
X-12.525 Y-4.742
X-12.515 Y-4.739
X-12.117 Y-4.657
X-12.107 Y-4.655
X-11.718 Y-4.58
X-11.707 Y-4.578
X-11.328 Y-4.511
X-11.316 Y-4.509
X-10.947 Y-4.449
X-10.935 Y-4.447
X-10.576 Y-4.396
X-10.562 Y-4.394
X-10.214 Y-4.351
X-10.199 Y-4.349
X-9.861 Y-4.313
X-9.845 Y-4.312
X-9.517 Y-4.285
X-9.5 Y-4.283
X-9.183 Y-4.264
X-9.164
X-8.858 Y-4.253
X-8.837 Y-4.252
X-8.541 Y-4.25
X-8.519
X-8.234 Y-4.257
X-8.21 Y-4.258
X-7.936 Y-4.273
X-7.91 Y-4.275
X-7.647 Y-4.299
X-7.618 Y-4.302
X-7.367 Y-4.335
X-7.335 Y-4.34
X-7.096 Y-4.382
X-7.061 Y-4.388
X-6.834 Y-4.439
X-6.796 Y-4.449
X-6.58 Y-4.509
X-6.54 Y-4.522
X-6.336 Y-4.591
X-6.293 Y-4.608
X-6.101 Y-4.687
X-6.055 Y-4.708
X-5.875 Y-4.796
X-5.827 Y-4.822
X-5.66 Y-4.92
X-5.611 Y-4.952
X-5.457 Y-5.059
X-5.408 Y-5.097
X-5.265 Y-5.214
X-5.218 Y-5.257
X-5.088 Y-5.384
X-5.043 Y-5.432
X-4.926 Y-5.569
X-4.885 Y-5.622
X-4.78 Y-5.769
X-4.745 Y-5.824
X-4.652 Y-5.981
X-4.622 Y-6.037
X-4.543 Y-6.204
X-4.519 Y-6.26
X-4.451 Y-6.436
X-4.433 Y-6.491
X-4.378 Y-6.677
X-4.364 Y-6.73
X-4.322 Y-6.926
X-4.313 Y-6.975
X-4.283 Y-7.18
X-4.277 Y-7.227
X-4.259 Y-7.441
X-4.257 Y-7.484
X-4.25 Y-7.708
Y-7.746
X-4.256 Y-7.98
X-4.257 Y-8.015
X-4.275 Y-8.257
X-4.278 Y-8.289
X-4.307 Y-8.541
X-4.31 Y-8.57
X-4.351 Y-8.83
X-4.355 Y-8.856
X-4.407 Y-9.126
X-4.412 Y-9.149
X-4.474 Y-9.427
X-4.48 Y-9.449
X-4.553 Y-9.735
X-4.559 Y-9.755
X-4.643 Y-10.05
X-4.649 Y-10.068
X-4.744 Y-10.371
X-4.749 Y-10.388
X-4.855 Y-10.699
X-4.86 Y-10.714
X-4.976 Y-11.034
X-4.982 Y-11.048
X-5.108 Y-11.375
X-5.113 Y-11.388
X-5.25 Y-11.724
X-5.255 Y-11.735
X-5.402 Y-12.079
X-5.407 Y-12.09
X-5.563 Y-12.441
X-5.568 Y-12.451
X-5.735 Y-12.81
X-5.739 Y-12.82
X-5.916 Y-13.187
X-5.92 Y-13.195
X-6.106 Y-13.57
X-6.111 Y-13.578
X-6.307 Y-13.96
X-6.311 Y-13.968
X-6.516 Y-14.357
X-6.52 Y-14.365
X-6.736 Y-14.762
X-6.739 Y-14.768
X-6.964 Y-15.173
X-6.968 Y-15.179
X-7.202 Y-15.591
X-7.218 Y-15.618
X-7.724 Y-16.428
X-7.737 Y-16.448
X-8.002 Y-16.844
X-8.012 Y-16.859
X-8.286 Y-17.248
X-8.297 Y-17.263
X-8.58 Y-17.644
X-8.592 Y-17.66
X-8.884 Y-18.032
X-8.898 Y-18.049
X-9.2 Y-18.411
X-9.215 Y-18.428
X-9.528 Y-18.78
X-9.544 Y-18.797
X-9.868 Y-19.138
X-9.885 Y-19.156
X-10.22 Y-19.487
X-10.238 Y-19.504
X-10.584 Y-19.824
X-10.603 Y-19.841
X-10.962 Y-20.151
X-10.981 Y-20.167
X-11.352 Y-20.467
X-11.371 Y-20.482
X-11.755 Y-20.772
X-11.774 Y-20.786
X-12.17 Y-21.066
X-12.189 Y-21.079
X-12.598 Y-21.351
X-12.616 Y-21.362
X-13.038 Y-21.625
X-13.056 Y-21.636
X-13.49 Y-21.89
X-13.506 Y-21.899
X-13.952 Y-22.145
X-13.968 Y-22.154
X-14.425 Y-22.391
X-14.441 Y-22.399
X-14.908 Y-22.629
X-14.923 Y-22.636
X-15.4 Y-22.857
X-15.414 Y-22.864
X-15.9 Y-23.077
X-15.914 Y-23.083
X-16.408 Y-23.288
X-16.421 Y-23.294
X-16.921 Y-23.49
X-16.934 Y-23.495
X-17.439 Y-23.683
X-17.453 Y-23.688
X-17.962 Y-23.866
X-17.975 Y-23.87
X-18.486 Y-24.039
X-18.499 Y-24.043
X-19.011 Y-24.201
X-19.025 Y-24.205
X-19.536 Y-24.352
X-19.55 Y-24.356
X-20.059 Y-24.491
X-20.073 Y-24.495
X-20.575 Y-24.618
X-21.04 Y-24.736
X-21.485 Y-24.866
X-21.92 Y-25.013
X-22.346 Y-25.175
X-22.763 Y-25.353
X-23.17 Y-25.546
X-23.569 Y-25.754
X-23.959 Y-25.978
X-24.34 Y-26.216
X-24.712 Y-26.469
X-25.076 Y-26.737
X-25.43 Y-27.018
X-25.775 Y-27.314
X-26.112 Y-27.624
X-26.439 Y-27.946
X-26.756 Y-28.282
X-27.065 Y-28.631
X-27.363 Y-28.992
X-27.651 Y-29.365
X-27.929 Y-29.75
X-28.196 Y-30.145
X-28.452 Y-30.552
X-28.697 Y-30.969
X-28.931 Y-31.396
X-29.152 Y-31.832
X-29.361 Y-32.278
X-29.558 Y-32.732
X-29.742 Y-33.195
X-29.831 Y-33.441
Z-0.825
X-29.912 Y-33.665
X-30.068 Y-34.143
X-30.21 Y-34.628
X-30.337 Y-35.119
X-30.449 Y-35.617
X-30.546 Y-36.121
X-30.626 Y-36.63
X-30.652 Y-36.843
Z-1.2 F300
X-30.689 Y-37.144 F600
X-30.736 Y-37.664
X-30.765 Y-38.188
X-30.775 Y-38.716
X-30.767 Y-39.249
X-30.739 Y-39.785
X-30.691 Y-40.326
X-30.623 Y-40.869
X-30.534 Y-41.416
X-30.423 Y-41.966
X-30.289 Y-42.52
X-30.132 Y-43.076
X-29.952 Y-43.635
X-29.747 Y-44.197
X-29.517 Y-44.762
X-29.261 Y-45.329
X-28.978 Y-45.899
X-28.669 Y-46.472
X-28.331 Y-47.047
X-27.965 Y-47.624
X-27.57 Y-48.204
X-27.145 Y-48.785
X-26.689 Y-49.369
X-26.203 Y-49.956
X-25.686 Y-50.544
X-25.137 Y-51.133
X-24.555 Y-51.725
X-23.942 Y-52.319
X-23.293 Y-52.917
G2 X-25.155 Y-56.808 I-1.509 J-1.669
X-38.802 Y-52.212 I6.788 J42.714
G1 Z-0.825
G2 X-41.818 Y-50.435 I20.435 J38.118
G1 Z-1.2 F300
G2 X-47.839 Y-45.748 I23.45 J36.341 F600
G1 Z15
(When using Fusion 360 for Personal Use, the feedrate of)
(rapid moves is reduced to match the feedrate of cutting)
(moves, which can increase machining time. Unrestricted rapid)
(moves are available with a Fusion 360 Subscription.)

(Bohrfrasen3)
G0 X-81.195 Y-20.367
G1 Z15 F600
Z1.8
Z-0.05 F400
X-81.188 Z-0.096
X-81.166 Z-0.138
X-81.133 Z-0.171
X-81.091 Z-0.193
X-81.045 Z-0.2
X-80.97
X-80.924 Y-20.36
X-80.882 Y-20.338
X-80.849 Y-20.305
X-80.827 Y-20.263
X-80.82 Y-20.217
G3 X-82.42 Y-20.217 Z-0.7 I-0.8 J0 F600
X-80.82 Y-20.217 Z-1.2 I0.8 J0
X-82.42 Y-20.217 I-0.8 J0
X-80.82 Y-20.217 I0.8 J0
G1 X-80.827 Y-20.171
X-80.849 Y-20.129
X-80.882 Y-20.096
X-80.924 Y-20.074
X-80.97 Y-20.067
X-81.045
X-81.091 Z-1.193
X-81.133 Z-1.171
X-81.166 Z-1.138
X-81.188 Z-1.096
X-81.195 Z-1.05
Z5
X-74.757 Y-18.985
Z1.8
Z-0.05 F400
X-74.75 Z-0.096
X-74.729 Z-0.138
X-74.696 Z-0.171
X-74.654 Z-0.193
X-74.607 Z-0.2
X-74.532
X-74.486 Y-18.977
X-74.444 Y-18.956
X-74.411 Y-18.923
X-74.39 Y-18.881
X-74.382 Y-18.835
G3 X-74.982 Y-18.835 Z-0.7 I-0.3 J0 F600
X-74.382 Y-18.835 Z-1.2 I0.3 J0
X-74.982 Y-18.835 I-0.3 J0
X-74.382 Y-18.835 I0.3 J0
G1 X-74.39 Y-18.788
X-74.411 Y-18.747
X-74.444 Y-18.713
X-74.486 Y-18.692
X-74.532 Y-18.685
X-74.607
X-74.654 Z-1.193
X-74.696 Z-1.171
X-74.729 Z-1.138
X-74.75 Z-1.096
X-74.757 Z-1.05
Z5
X-69.043 Y-15.067
Z1.8
Z-0.05 F400
X-69.035 Z-0.096
X-69.014 Z-0.138
X-68.981 Z-0.171
X-68.939 Z-0.193
X-68.893 Z-0.2
X-68.818
X-68.771 Y-15.059
X-68.729 Y-15.038
X-68.696 Y-15.005
X-68.675 Y-14.963
X-68.668 Y-14.917
G3 X-70.668 Y-14.917 Z-0.7 I-1 J0 F600
X-68.668 Y-14.917 Z-1.2 I1 J0
X-70.668 Y-14.917 I-1 J0
X-68.668 Y-14.917 I1 J0
G1 X-68.675 Y-14.87
X-68.696 Y-14.829
X-68.729 Y-14.795
X-68.771 Y-14.774
X-68.818 Y-14.767
X-68.893
X-68.939 Z-1.193
X-68.981 Z-1.171
X-69.014 Z-1.138
X-69.035 Z-1.096
X-69.043 Z-1.05
Z5
X-72.559 Y-14.518
Z1.8
Z-0.05 F400
X-72.552 Z-0.096
X-72.53 Z-0.138
X-72.497 Z-0.171
X-72.455 Z-0.193
X-72.409 Z-0.2
X-72.334
X-72.288 Y-14.511
X-72.246 Y-14.49
X-72.213 Y-14.456
X-72.191 Y-14.415
X-72.184 Y-14.368
G3 X-76.084 Y-14.368 Z-0.7 I-1.95 J0 F600
X-72.184 Y-14.368 Z-1.2 I1.95 J0
X-76.084 Y-14.368 I-1.95 J0
X-72.184 Y-14.368 I1.95 J0
G1 X-72.191 Y-14.322
X-72.213 Y-14.28
X-72.246 Y-14.247
X-72.288 Y-14.226
X-72.334 Y-14.218
X-72.409
X-72.455 Z-1.193
X-72.497 Z-1.171
X-72.53 Z-1.138
X-72.552 Z-1.096
X-72.559 Z-1.05
Z5
X-77.975 Y-13.97
Z1.8
Z-0.05 F400
X-77.968 Z-0.096
X-77.947 Z-0.138
X-77.914 Z-0.171
X-77.872 Z-0.193
X-77.825 Z-0.2
X-77.75
X-77.704 Y-13.963
X-77.662 Y-13.941
X-77.629 Y-13.908
X-77.608 Y-13.866
X-77.6 Y-13.82
G3 X-79.6 Y-13.82 Z-0.7 I-1 J0 F600
X-77.6 Y-13.82 Z-1.2 I1 J0
X-79.6 Y-13.82 I-1 J0
X-77.6 Y-13.82 I1 J0
G1 X-77.608 Y-13.774
X-77.629 Y-13.732
X-77.662 Y-13.699
X-77.704 Y-13.677
X-77.75 Y-13.67
X-77.825
X-77.872 Z-1.193
X-77.914 Z-1.171
X-77.947 Z-1.138
X-77.968 Z-1.096
X-77.975 Z-1.05
Z5
X-73.661 Y-10.052
Z1.8
Z-0.05 F400
X-73.653 Z-0.096
X-73.632 Z-0.138
X-73.599 Z-0.171
X-73.557 Z-0.193
X-73.511 Z-0.2
X-73.436
X-73.389 Y-10.045
X-73.347 Y-10.023
X-73.314 Y-9.99
X-73.293 Y-9.948
X-73.286 Y-9.902
G3 X-73.886 Y-9.902 Z-0.7 I-0.3 J0 F600
X-73.286 Y-9.902 Z-1.2 I0.3 J0
X-73.886 Y-9.902 I-0.3 J0
X-73.286 Y-9.902 I0.3 J0
G1 X-73.293 Y-9.856
X-73.314 Y-9.814
X-73.347 Y-9.781
X-73.389 Y-9.759
X-73.436 Y-9.752
X-73.511
X-73.557 Z-1.193
X-73.599 Z-1.171
X-73.632 Z-1.138
X-73.653 Z-1.096
X-73.661 Z-1.05
Z5
X-66.223 Y-8.67
Z1.8
Z-0.05 F400
X-66.216 Z-0.096
X-66.194 Z-0.138
X-66.161 Z-0.171
X-66.119 Z-0.193
X-66.073 Z-0.2
X-65.998
X-65.952 Y-8.662
X-65.91 Y-8.641
X-65.877 Y-8.608
X-65.855 Y-8.566
X-65.848 Y-8.52
G3 X-67.448 Y-8.52 Z-0.7 I-0.8 J0 F600
X-65.848 Y-8.52 Z-1.2 I0.8 J0
X-67.448 Y-8.52 I-0.8 J0
X-65.848 Y-8.52 I0.8 J0
G1 X-65.855 Y-8.473
X-65.877 Y-8.431
X-65.91 Y-8.398
X-65.952 Y-8.377
X-65.998 Y-8.37
X-66.073
X-66.119 Z-1.193
X-66.161 Z-1.171
X-66.194 Z-1.138
X-66.216 Z-1.096
X-66.223 Z-1.05
Z15
(When using Fusion 360 for Personal Use, the feedrate of)
(rapid moves is reduced to match the feedrate of cutting)
(moves, which can increase machining time. Unrestricted rapid)
(moves are available with a Fusion 360 Subscription.)

(2D-Kontur4)
G0 X-107.405 Y-25.409
G1 Z15 F600
Z5
Z2.5 F300
X-107.586 Y-25.312 Z2.493 F1016
X-107.609 Y-25.298 Z2.492
X-108.335 Y-24.872 Z2.462
X-108.358 Y-24.858
X-109.077 Y-24.4 Z2.432
X-109.1 Y-24.385 Z2.431
X-109.813 Y-23.893 Z2.401
X-109.835 Y-23.877 Z2.4
X-110.54 Y-23.352 Z2.369
X-110.562 Y-23.336 Z2.368
X-111.259 Y-22.777 Z2.337
X-111.279 Y-22.76 Z2.336
X-111.968 Y-22.168 Z2.304
X-111.987 Y-22.151 Z2.303
X-112.666 Y-21.524 Z2.271
X-112.684 Y-21.507 Z2.27
X-113.353 Y-20.847 Z2.237
X-113.37 Y-20.829 Z2.236
X-114.013 Y-20.152 Z2.204
X-114.034 Y-20.132 Z2.203
X-114.033 Y-20.155 Z2.202
G3 X-90.907 Y-49.365 Z0.843 I37.665 J6.061
G1 X-90.885 Y-49.372 Z0.842
X-90.898 Y-49.344 Z0.841
X-91.299 Y-48.635 Z0.812
X-91.312 Y-48.611 Z0.811
X-91.691 Y-47.879 Z0.783
X-91.704 Y-47.854 Z0.782
X-92.05 Y-47.12 Z0.753
X-92.062 Y-47.094 Z0.752
X-92.376 Y-46.359 Z0.724
X-92.387 Y-46.332 Z0.723
X-92.668 Y-45.595 Z0.696
X-92.678 Y-45.568 Z0.695
X-92.928 Y-44.83 Z0.668
X-92.937 Y-44.802 Z0.667
X-93.154 Y-44.066 Z0.64
X-93.162 Y-44.038 Z0.639
X-93.348 Y-43.303 Z0.612
X-93.354 Y-43.275 Z0.611
X-93.51 Y-42.543 Z0.585
X-93.515 Y-42.515 Z0.584
X-93.641 Y-41.786 Z0.558
X-93.645 Y-41.757 Z0.557
X-93.742 Y-41.032 Z0.532
X-93.745 Y-41.004 Z0.531
X-93.814 Y-40.283 Z0.506
X-93.816 Y-40.255 Z0.505
X-93.857 Y-39.54 Z0.48
X-93.858 Y-39.512 Z0.479
X-93.873 Y-38.802 Z0.454
Y-38.774 Z0.453
X-93.862 Y-38.07 Z0.428
X-93.861 Y-38.043 Z0.427
X-93.825 Y-37.346 Z0.403
X-93.823 Y-37.319 Z0.402
X-93.762 Y-36.629 Z0.378
X-93.759 Y-36.603 Z0.377
X-93.676 Y-35.921 Z0.353
X-93.672 Y-35.895 Z0.352
X-93.565 Y-35.222 Z0.328
X-93.561 Y-35.197 Z0.327
X-93.433 Y-34.532 Z0.304
X-93.427 Y-34.508 Z0.303
X-93.278 Y-33.853 Z0.279
X-93.272 Y-33.829 Z0.278
X-93.102 Y-33.185 Z0.255
X-93.096 Y-33.162 Z0.254
X-92.907 Y-32.528 Z0.231
X-92.9 Y-32.505 Z0.23
X-92.693 Y-31.881 Z0.207
X-92.685 Y-31.859
X-92.46 Y-31.245 Z0.184
X-92.451 Y-31.223 Z0.183
X-92.207 Y-30.619 Z0.16
X-92.198 Y-30.597 Z0.159
X-91.937 Y-30.005 Z0.137
X-91.926 Y-29.983 Z0.136
X-91.647 Y-29.402 Z0.113
X-91.636 Y-29.38
X-91.34 Y-28.811 Z0.09
X-91.328 Y-28.79 Z0.089
X-91.015 Y-28.232 Z0.067
X-91.002 Y-28.211 Z0.066
X-90.672 Y-27.666 Z0.044
X-90.658 Y-27.645 Z0.043
X-90.324 Y-27.133 Z0.022
X-90.309 Y-27.107 Z0.021
X-90.339 Y-27.115 Z0.02
X-90.989 Y-27.331 Z-0.004
X-91.018 Y-27.34 Z-0.005
X-91.698 Y-27.536 Z-0.03
X-91.727 Y-27.544 Z-0.031
X-92.416 Y-27.713 Z-0.056
X-92.445 Y-27.719 Z-0.057
X-93.142 Y-27.862 Z-0.082
X-93.17 Y-27.867 Z-0.083
X-93.874 Y-27.983 Z-0.108
X-93.903 Y-27.987 Z-0.109
X-94.613 Y-28.076 Z-0.134
X-94.641 Y-28.079 Z-0.135
X-95.358 Y-28.142 Z-0.16
X-95.386 Y-28.144 Z-0.161
X-96.108 Y-28.18 Z-0.186
X-96.135 Y-28.181 Z-0.187
X-96.862 Y-28.191 Z-0.212
X-96.889 Z-0.213
X-97.62 Y-28.175 Z-0.239
X-97.646 Y-28.174 Z-0.24
X-98.381 Y-28.132 Z-0.266
X-98.408 Y-28.13
X-99.146 Y-28.061 Z-0.292
X-99.172 Y-28.058 Z-0.293
X-99.362 Y-28.033 Z-0.3
X-99.913 Y-27.962 F600
X-99.94 Y-27.958
X-100.684 Y-27.833
X-100.71 Y-27.828
X-101.455 Y-27.676
X-101.482 Y-27.67
X-102.227 Y-27.488
X-102.254 Y-27.482
X-102.999 Y-27.271
X-103.026 Y-27.263
X-103.771 Y-27.023
X-103.797 Y-27.014
X-104.54 Y-26.745
X-104.566 Y-26.735
X-105.307 Y-26.434
X-105.333 Y-26.424
X-106.071 Y-26.093
X-106.096 Y-26.081
X-106.831 Y-25.718
X-106.855 Y-25.706
X-107.586 Y-25.312
X-107.609 Y-25.298
X-108.335 Y-24.872
X-108.358 Y-24.858
X-109.077 Y-24.4
X-109.1 Y-24.385
X-109.813 Y-23.893
X-109.835 Y-23.877
X-110.54 Y-23.352
X-110.562 Y-23.336
X-111.259 Y-22.777
X-111.279 Y-22.76
X-111.968 Y-22.168
X-111.987 Y-22.151
X-112.666 Y-21.524
X-112.684 Y-21.507
X-113.353 Y-20.847
X-113.37 Y-20.829
X-114.013 Y-20.152
X-114.034 Y-20.132
X-114.033 Y-20.155
G3 X-90.907 Y-49.365 I37.665 J6.061
G1 X-90.885 Y-49.372
X-90.898 Y-49.344
X-91.299 Y-48.635
X-91.312 Y-48.611
X-91.691 Y-47.879
X-91.704 Y-47.854
X-92.05 Y-47.12
X-92.062 Y-47.094
X-92.376 Y-46.359
X-92.387 Y-46.332
X-92.668 Y-45.595
X-92.678 Y-45.568
X-92.928 Y-44.83
X-92.937 Y-44.802
X-93.154 Y-44.066
X-93.162 Y-44.038
X-93.348 Y-43.303
X-93.354 Y-43.275
X-93.51 Y-42.543
X-93.515 Y-42.515
X-93.641 Y-41.786
X-93.645 Y-41.757
X-93.742 Y-41.032
X-93.745 Y-41.004
X-93.814 Y-40.283
X-93.816 Y-40.255
X-93.857 Y-39.54
X-93.858 Y-39.512
X-93.873 Y-38.802
Y-38.774
X-93.862 Y-38.07
X-93.861 Y-38.043
X-93.825 Y-37.346
X-93.823 Y-37.319
X-93.762 Y-36.629
X-93.759 Y-36.603
X-93.676 Y-35.921
X-93.672 Y-35.895
X-93.565 Y-35.222
X-93.561 Y-35.197
X-93.433 Y-34.532
X-93.427 Y-34.508
X-93.278 Y-33.853
X-93.272 Y-33.829
X-93.102 Y-33.185
X-93.096 Y-33.162
X-92.907 Y-32.528
X-92.9 Y-32.505
X-92.693 Y-31.881
X-92.685 Y-31.859
X-92.46 Y-31.245
X-92.451 Y-31.223
X-92.207 Y-30.619
X-92.198 Y-30.597
X-91.937 Y-30.005
X-91.926 Y-29.983
X-91.647 Y-29.402
X-91.636 Y-29.38
X-91.34 Y-28.811
X-91.328 Y-28.79
X-91.015 Y-28.232
X-91.002 Y-28.211
X-90.672 Y-27.666
X-90.658 Y-27.645
X-90.324 Y-27.133
X-90.309 Y-27.107
X-90.339 Y-27.115
X-90.989 Y-27.331
X-91.018 Y-27.34
X-91.698 Y-27.536
X-91.727 Y-27.544
X-92.416 Y-27.713
X-92.445 Y-27.719
X-93.142 Y-27.862
X-93.17 Y-27.867
X-93.874 Y-27.983
X-93.903 Y-27.987
X-94.613 Y-28.076
X-94.641 Y-28.079
X-95.358 Y-28.142
X-95.386 Y-28.144
X-96.108 Y-28.18
X-96.135 Y-28.181
X-96.862 Y-28.191
X-96.889
X-97.62 Y-28.175
X-97.646 Y-28.174
X-98.381 Y-28.132
X-98.408 Y-28.13
X-99.146 Y-28.061
X-99.172 Y-28.058
X-99.362 Y-28.033
X-99.913 Y-27.962 Z-0.319 F1016
X-99.94 Y-27.958 Z-0.32
X-100.684 Y-27.833 Z-0.347
X-100.71 Y-27.828 Z-0.348
X-101.455 Y-27.676 Z-0.374
X-101.482 Y-27.67 Z-0.375
X-102.227 Y-27.488 Z-0.402
X-102.254 Y-27.482 Z-0.403
X-102.999 Y-27.271 Z-0.43
X-103.026 Y-27.263 Z-0.431
X-103.771 Y-27.023 Z-0.458
X-103.797 Y-27.014 Z-0.459
X-104.54 Y-26.745 Z-0.487
X-104.566 Y-26.735 Z-0.488
X-105.307 Y-26.434 Z-0.516
X-105.333 Y-26.424 Z-0.517
X-106.071 Y-26.093 Z-0.545
X-106.096 Y-26.081 Z-0.546
X-106.831 Y-25.718 Z-0.574
X-106.855 Y-25.706 Z-0.575
X-107.474 Y-25.372 Z-0.6
X-107.586 Y-25.312 F600
X-107.609 Y-25.298
X-108.335 Y-24.872
X-108.358 Y-24.858
X-109.077 Y-24.4
X-109.1 Y-24.385
X-109.813 Y-23.893
X-109.835 Y-23.877
X-110.54 Y-23.352
X-110.562 Y-23.336
X-111.259 Y-22.777
X-111.279 Y-22.76
X-111.968 Y-22.168
X-111.987 Y-22.151
X-112.666 Y-21.524
X-112.684 Y-21.507
X-113.353 Y-20.847
X-113.37 Y-20.829
X-114.013 Y-20.152
X-114.034 Y-20.132
X-114.033 Y-20.155
G3 X-90.907 Y-49.365 I37.665 J6.061
G1 X-90.885 Y-49.372
X-90.898 Y-49.344
X-91.299 Y-48.635
X-91.312 Y-48.611
X-91.691 Y-47.879
X-91.704 Y-47.854
X-92.05 Y-47.12
X-92.062 Y-47.094
X-92.376 Y-46.359
X-92.387 Y-46.332
X-92.668 Y-45.595
X-92.678 Y-45.568
X-92.928 Y-44.83
X-92.937 Y-44.802
X-93.154 Y-44.066
X-93.162 Y-44.038
X-93.348 Y-43.303
X-93.354 Y-43.275
X-93.51 Y-42.543
X-93.515 Y-42.515
X-93.641 Y-41.786
X-93.645 Y-41.757
X-93.742 Y-41.032
X-93.745 Y-41.004
X-93.814 Y-40.283
X-93.816 Y-40.255
X-93.857 Y-39.54
X-93.858 Y-39.512
X-93.873 Y-38.802
Y-38.774
X-93.862 Y-38.07
X-93.861 Y-38.043
X-93.825 Y-37.346
X-93.823 Y-37.319
X-93.762 Y-36.629
X-93.759 Y-36.603
X-93.676 Y-35.921
X-93.672 Y-35.895
X-93.565 Y-35.222
X-93.561 Y-35.197
X-93.433 Y-34.532
X-93.427 Y-34.508
X-93.278 Y-33.853
X-93.272 Y-33.829
X-93.102 Y-33.185
X-93.096 Y-33.162
X-92.907 Y-32.528
X-92.9 Y-32.505
X-92.693 Y-31.881
X-92.685 Y-31.859
X-92.46 Y-31.245
X-92.451 Y-31.223
X-92.207 Y-30.619
X-92.198 Y-30.597
X-91.937 Y-30.005
X-91.926 Y-29.983
X-91.647 Y-29.402
X-91.636 Y-29.38
X-91.34 Y-28.811
X-91.328 Y-28.79
X-91.015 Y-28.232
X-91.002 Y-28.211
X-90.672 Y-27.666
X-90.658 Y-27.645
X-90.324 Y-27.133
X-90.309 Y-27.107
X-90.339 Y-27.115
X-90.989 Y-27.331
X-91.018 Y-27.34
X-91.698 Y-27.536
X-91.727 Y-27.544
X-92.416 Y-27.713
X-92.445 Y-27.719
X-93.142 Y-27.862
X-93.17 Y-27.867
X-93.874 Y-27.983
X-93.903 Y-27.987
X-94.613 Y-28.076
X-94.641 Y-28.079
X-95.358 Y-28.142
X-95.386 Y-28.144
X-96.108 Y-28.18
X-96.135 Y-28.181
X-96.862 Y-28.191
X-96.889
X-97.62 Y-28.175
X-97.646 Y-28.174
X-98.381 Y-28.132
X-98.408 Y-28.13
X-99.146 Y-28.061
X-99.172 Y-28.058
X-99.913 Y-27.962
X-99.94 Y-27.958
X-100.684 Y-27.833
X-100.71 Y-27.828
X-101.455 Y-27.676
X-101.482 Y-27.67
X-102.227 Y-27.488
X-102.254 Y-27.482
X-102.999 Y-27.271
X-103.026 Y-27.263
X-103.771 Y-27.023
X-103.797 Y-27.014
X-104.54 Y-26.745
X-104.566 Y-26.735
X-105.307 Y-26.434
X-105.333 Y-26.424
X-106.071 Y-26.093
X-106.096 Y-26.081
X-106.831 Y-25.718
X-106.855 Y-25.706
X-107.474 Y-25.372
X-107.586 Y-25.312 Z-0.604 F1016
X-107.609 Y-25.298 Z-0.605
X-108.335 Y-24.872 Z-0.635
X-108.358 Y-24.858 Z-0.636
X-109.077 Y-24.4 Z-0.666
X-109.1 Y-24.385
X-109.813 Y-23.893 Z-0.697
X-109.835 Y-23.877 Z-0.698
X-110.54 Y-23.352 Z-0.728
X-110.562 Y-23.336 Z-0.729
X-111.259 Y-22.777 Z-0.76
X-111.279 Y-22.76 Z-0.761
X-111.968 Y-22.168 Z-0.793
X-111.987 Y-22.151 Z-0.794
X-112.666 Y-21.524 Z-0.826
X-112.684 Y-21.507 Z-0.827
X-113.353 Y-20.847 Z-0.86
X-113.37 Y-20.829 Z-0.861
X-114.013 Y-20.152 Z-0.893
X-114.034 Y-20.132 Z-0.894
X-114.033 Y-20.155 Z-0.895
X-114.011 Y-20.288 Z-0.9
G3 X-90.907 Y-49.365 I37.644 J6.194 F600
G1 X-90.885 Y-49.372
X-90.898 Y-49.344
X-91.299 Y-48.635
X-91.312 Y-48.611
X-91.691 Y-47.879
X-91.704 Y-47.854
X-92.05 Y-47.12
X-92.062 Y-47.094
X-92.376 Y-46.359
X-92.387 Y-46.332
X-92.668 Y-45.595
X-92.678 Y-45.568
X-92.928 Y-44.83
X-92.937 Y-44.802
X-93.154 Y-44.066
X-93.162 Y-44.038
X-93.348 Y-43.303
X-93.354 Y-43.275
X-93.51 Y-42.543
X-93.515 Y-42.515
X-93.641 Y-41.786
X-93.645 Y-41.757
X-93.742 Y-41.032
X-93.745 Y-41.004
X-93.814 Y-40.283
X-93.816 Y-40.255
X-93.857 Y-39.54
X-93.858 Y-39.512
X-93.873 Y-38.802
Y-38.774
X-93.862 Y-38.07
X-93.861 Y-38.043
X-93.825 Y-37.346
X-93.823 Y-37.319
X-93.762 Y-36.629
X-93.759 Y-36.603
X-93.676 Y-35.921
X-93.672 Y-35.895
X-93.565 Y-35.222
X-93.561 Y-35.197
X-93.433 Y-34.532
X-93.427 Y-34.508
X-93.278 Y-33.853
X-93.272 Y-33.829
X-93.102 Y-33.185
X-93.096 Y-33.162
X-92.907 Y-32.528
X-92.9 Y-32.505
X-92.693 Y-31.881
X-92.685 Y-31.859
X-92.46 Y-31.245
X-92.451 Y-31.223
X-92.207 Y-30.619
X-92.198 Y-30.597
X-91.937 Y-30.005
X-91.926 Y-29.983
X-91.647 Y-29.402
X-91.636 Y-29.38
X-91.34 Y-28.811
X-91.328 Y-28.79
X-91.015 Y-28.232
X-91.002 Y-28.211
X-90.672 Y-27.666
X-90.658 Y-27.645
X-90.324 Y-27.133
X-90.309 Y-27.107
X-90.339 Y-27.115
X-90.989 Y-27.331
X-91.018 Y-27.34
X-91.698 Y-27.536
X-91.727 Y-27.544
X-92.416 Y-27.713
X-92.445 Y-27.719
X-93.142 Y-27.862
X-93.17 Y-27.867
X-93.874 Y-27.983
X-93.903 Y-27.987
X-94.613 Y-28.076
X-94.641 Y-28.079
X-95.358 Y-28.142
X-95.386 Y-28.144
X-96.108 Y-28.18
X-96.135 Y-28.181
X-96.862 Y-28.191
X-96.889
X-97.62 Y-28.175
X-97.646 Y-28.174
X-98.381 Y-28.132
X-98.408 Y-28.13
X-99.146 Y-28.061
X-99.172 Y-28.058
X-99.913 Y-27.962
X-99.94 Y-27.958
X-100.684 Y-27.833
X-100.71 Y-27.828
X-101.455 Y-27.676
X-101.482 Y-27.67
X-102.227 Y-27.488
X-102.254 Y-27.482
X-102.999 Y-27.271
X-103.026 Y-27.263
X-103.771 Y-27.023
X-103.797 Y-27.014
X-104.54 Y-26.745
X-104.566 Y-26.735
X-105.307 Y-26.434
X-105.333 Y-26.424
X-106.071 Y-26.093
X-106.096 Y-26.081
X-106.831 Y-25.718
X-106.855 Y-25.706
X-107.474 Y-25.372
X-107.586 Y-25.312
X-107.609 Y-25.298
X-108.335 Y-24.872
X-108.358 Y-24.858
X-109.077 Y-24.4
X-109.1 Y-24.385
X-109.813 Y-23.893
X-109.835 Y-23.877
X-110.54 Y-23.352
X-110.562 Y-23.336
X-111.259 Y-22.777
X-111.279 Y-22.76
X-111.968 Y-22.168
X-111.987 Y-22.151
X-112.666 Y-21.524
X-112.684 Y-21.507
X-113.353 Y-20.847
X-113.37 Y-20.829
X-114.013 Y-20.152
X-114.034 Y-20.132
X-114.033 Y-20.155
X-114.011 Y-20.288
G3 X-111.677 Y-28.537 Z-1.2 I37.644 J6.194 F1016
X-90.907 Y-49.365 I35.31 J14.443 F600
G1 X-90.885 Y-49.372
X-90.898 Y-49.344
X-91.299 Y-48.635
X-91.312 Y-48.611
X-91.691 Y-47.879
X-91.704 Y-47.854
X-92.05 Y-47.12
X-92.062 Y-47.094
X-92.376 Y-46.359
X-92.387 Y-46.332
X-92.668 Y-45.595
X-92.678 Y-45.568
X-92.928 Y-44.83
X-92.937 Y-44.802
X-93.154 Y-44.066
X-93.162 Y-44.038
X-93.348 Y-43.303
X-93.354 Y-43.275
X-93.51 Y-42.543
X-93.515 Y-42.515
X-93.641 Y-41.786
X-93.645 Y-41.757
X-93.742 Y-41.032
X-93.745 Y-41.004
X-93.814 Y-40.283
X-93.816 Y-40.255
X-93.857 Y-39.54
X-93.858 Y-39.512
X-93.873 Y-38.802
Y-38.774
X-93.862 Y-38.07
X-93.861 Y-38.043
X-93.825 Y-37.346
X-93.823 Y-37.319
X-93.762 Y-36.629
X-93.759 Y-36.603
X-93.676 Y-35.921
X-93.672 Y-35.895
X-93.565 Y-35.222
X-93.561 Y-35.197
X-93.433 Y-34.532
X-93.427 Y-34.508
X-93.278 Y-33.853
X-93.272 Y-33.829
X-93.102 Y-33.185
X-93.096 Y-33.162
X-92.907 Y-32.528
X-92.9 Y-32.505
X-92.693 Y-31.881
X-92.685 Y-31.859
X-92.46 Y-31.245
X-92.451 Y-31.223
X-92.207 Y-30.619
X-92.198 Y-30.597
X-91.937 Y-30.005
X-91.926 Y-29.983
X-91.647 Y-29.402
X-91.636 Y-29.38
X-91.34 Y-28.811
X-91.328 Y-28.79
X-91.015 Y-28.232
X-91.002 Y-28.211
X-90.672 Y-27.666
X-90.658 Y-27.645
X-90.324 Y-27.133
X-90.309 Y-27.107
X-90.339 Y-27.115
X-90.989 Y-27.331
X-91.018 Y-27.34
X-91.698 Y-27.536
X-91.727 Y-27.544
X-92.416 Y-27.713
X-92.445 Y-27.719
X-93.142 Y-27.862
X-93.17 Y-27.867
X-93.874 Y-27.983
X-93.903 Y-27.987
X-94.613 Y-28.076
X-94.641 Y-28.079
X-95.358 Y-28.142
X-95.386 Y-28.144
X-96.108 Y-28.18
X-96.135 Y-28.181
X-96.862 Y-28.191
X-96.889
X-97.62 Y-28.175
X-97.646 Y-28.174
X-98.381 Y-28.132
X-98.408 Y-28.13
X-99.146 Y-28.061
X-99.172 Y-28.058
X-99.913 Y-27.962
X-99.94 Y-27.958
X-100.684 Y-27.833
X-100.71 Y-27.828
X-101.455 Y-27.676
X-101.482 Y-27.67
X-102.227 Y-27.488
X-102.254 Y-27.482
X-102.999 Y-27.271
X-103.026 Y-27.263
X-103.771 Y-27.023
X-103.797 Y-27.014
X-104.54 Y-26.745
X-104.566 Y-26.735
X-105.307 Y-26.434
X-105.333 Y-26.424
X-106.071 Y-26.093
X-106.096 Y-26.081
X-106.831 Y-25.718
X-106.855 Y-25.706
X-107.586 Y-25.312
X-107.609 Y-25.298
X-108.335 Y-24.872
X-108.358 Y-24.858
X-109.077 Y-24.4
X-109.1 Y-24.385
X-109.813 Y-23.893
X-109.835 Y-23.877
X-110.54 Y-23.352
X-110.562 Y-23.336
X-111.259 Y-22.777
X-111.279 Y-22.76
X-111.968 Y-22.168
X-111.987 Y-22.151
X-112.666 Y-21.524
X-112.684 Y-21.507
X-113.353 Y-20.847
X-113.37 Y-20.829
X-114.013 Y-20.152
X-114.034 Y-20.132
X-114.033 Y-20.155
G3 X-111.677 Y-28.537 I37.665 J6.061
G1 Z15
(When using Fusion 360 for Personal Use, the feedrate of)
(rapid moves is reduced to match the feedrate of cutting)
(moves, which can increase machining time. Unrestricted rapid)
(moves are available with a Fusion 360 Subscription.)

(2D-Kontur5)
G0 X-74.26 Y-5.768
G1 Z15 F600
Z5
Z2.5 F300
X-74.121 Y-5.718 Z2.495 F1016
X-74.098 Y-5.71 Z2.494
X-73.189 Y-5.415 Z2.461
X-73.16 Y-5.406 Z2.46
X-72.704 Y-5.278 Z2.443
X-72.696 Y-5.276
X-72.249 Y-5.156 Z2.427
X-72.242 Y-5.154 Z2.426
X-71.805 Y-5.041 Z2.411
X-71.797 Y-5.039 Z2.41
X-71.369 Y-4.934 Z2.395
X-71.36 Y-4.932
X-70.942 Y-4.834 Z2.38
X-70.933 Y-4.832 Z2.379
X-70.525 Y-4.742 Z2.365
X-70.515 Y-4.739 Z2.364
X-70.117 Y-4.657 Z2.35
X-70.107 Y-4.655
X-69.718 Y-4.58 Z2.336
X-69.707 Y-4.578
X-69.328 Y-4.511 Z2.322
X-69.316 Y-4.509
X-68.947 Y-4.449 Z2.309
X-68.935 Y-4.447 Z2.308
X-68.576 Y-4.396 Z2.296
X-68.562 Y-4.394 Z2.295
X-68.214 Y-4.351 Z2.283
X-68.199 Y-4.349 Z2.282
X-67.861 Y-4.313 Z2.27
X-67.845 Y-4.312
X-67.517 Y-4.285 Z2.258
X-67.5 Y-4.283
X-67.183 Y-4.264 Z2.247
X-67.164 Z2.246
X-66.858 Y-4.253 Z2.235
X-66.837 Y-4.252
X-66.541 Y-4.25 Z2.224
X-66.519 Z2.223
X-66.234 Y-4.257 Z2.214
X-66.21 Y-4.258 Z2.213
X-65.936 Y-4.273 Z2.203
X-65.91 Y-4.275 Z2.202
X-65.647 Y-4.299 Z2.193
X-65.618 Y-4.302 Z2.192
X-65.367 Y-4.335 Z2.183
X-65.335 Y-4.34 Z2.182
X-65.096 Y-4.382 Z2.173
X-65.061 Y-4.388 Z2.172
X-64.834 Y-4.439 Z2.164
X-64.796 Y-4.449 Z2.163
X-64.58 Y-4.509 Z2.155
X-64.54 Y-4.522 Z2.153
X-64.336 Y-4.591 Z2.146
X-64.293 Y-4.608 Z2.144
X-64.101 Y-4.687 Z2.137
X-64.055 Y-4.708 Z2.135
X-63.875 Y-4.796 Z2.128
X-63.827 Y-4.822 Z2.126
X-63.66 Y-4.92 Z2.12
X-63.611 Y-4.952 Z2.118
X-63.457 Y-5.059 Z2.111
X-63.408 Y-5.097 Z2.109
X-63.265 Y-5.214 Z2.102
X-63.218 Y-5.257 Z2.1
X-63.088 Y-5.384 Z2.094
X-63.043 Y-5.432 Z2.092
X-62.926 Y-5.569 Z2.085
X-62.885 Y-5.622 Z2.083
X-62.78 Y-5.769 Z2.077
X-62.745 Y-5.824 Z2.074
X-62.652 Y-5.981 Z2.068
X-62.622 Y-6.037 Z2.066
X-62.543 Y-6.204 Z2.059
X-62.519 Y-6.26 Z2.057
X-62.451 Y-6.436 Z2.051
X-62.433 Y-6.491 Z2.049
X-62.378 Y-6.677 Z2.042
X-62.364 Y-6.73 Z2.04
X-62.322 Y-6.926 Z2.033
X-62.313 Y-6.975 Z2.031
X-62.283 Y-7.18 Z2.024
X-62.277 Y-7.227 Z2.022
X-62.259 Y-7.441 Z2.015
X-62.257 Y-7.484 Z2.013
X-62.25 Y-7.708 Z2.005
Y-7.746 Z2.004
X-62.256 Y-7.98 Z1.996
X-62.257 Y-8.015 Z1.995
X-62.275 Y-8.257 Z1.986
X-62.278 Y-8.289 Z1.985
X-62.307 Y-8.541 Z1.976
X-62.31 Y-8.57 Z1.975
X-62.351 Y-8.83 Z1.966
X-62.355 Y-8.856 Z1.965
X-62.407 Y-9.126 Z1.956
X-62.412 Y-9.149 Z1.955
X-62.474 Y-9.427 Z1.945
X-62.48 Y-9.449 Z1.944
X-62.553 Y-9.735 Z1.934
X-62.559 Y-9.755 Z1.933
X-62.643 Y-10.05 Z1.922
X-62.649 Y-10.068
X-62.744 Y-10.371 Z1.91
X-62.749 Y-10.388
X-62.855 Y-10.699 Z1.898
X-62.86 Y-10.714
X-62.976 Y-11.034 Z1.886
X-62.982 Y-11.048 Z1.885
X-63.108 Y-11.375 Z1.873
X-63.113 Y-11.388
X-63.25 Y-11.724 Z1.86
X-63.255 Y-11.735
X-63.402 Y-12.079 Z1.846
X-63.407 Y-12.09
X-63.563 Y-12.441 Z1.833
X-63.568 Y-12.451 Z1.832
X-63.735 Y-12.81 Z1.818
X-63.739 Y-12.82
X-63.916 Y-13.187 Z1.804
X-63.92 Y-13.195 Z1.803
X-64.106 Y-13.57 Z1.789
X-64.111 Y-13.578
X-64.307 Y-13.96 Z1.774
X-64.311 Y-13.968 Z1.773
X-64.516 Y-14.357 Z1.758
X-64.52 Y-14.365
X-64.736 Y-14.762 Z1.742
X-64.739 Y-14.768
X-64.964 Y-15.173 Z1.725
X-64.968 Y-15.179
X-65.202 Y-15.591 Z1.709
X-65.218 Y-15.618 Z1.708
X-65.724 Y-16.428 Z1.674
X-65.737 Y-16.448 Z1.673
X-66.002 Y-16.844 Z1.657
X-66.012 Y-16.859 Z1.656
X-66.286 Y-17.248 Z1.639
X-66.297 Y-17.263
X-66.58 Y-17.644 Z1.622
X-66.592 Y-17.66
X-66.884 Y-18.032 Z1.605
X-66.898 Y-18.049 Z1.604
X-67.2 Y-18.411 Z1.588
X-67.215 Y-18.428 Z1.587
X-67.528 Y-18.78 Z1.571
X-67.544 Y-18.797 Z1.57
X-67.868 Y-19.138 Z1.553
X-67.885 Y-19.156 Z1.552
X-68.22 Y-19.487 Z1.536
X-68.238 Y-19.504 Z1.535
X-68.584 Y-19.824 Z1.519
X-68.603 Y-19.841 Z1.518
X-68.962 Y-20.151 Z1.501
X-68.981 Y-20.167 Z1.5
X-69.352 Y-20.467 Z1.484
X-69.371 Y-20.482 Z1.483
X-69.755 Y-20.772 Z1.466
X-69.774 Y-20.786 Z1.465
X-70.17 Y-21.066 Z1.448
X-70.189 Y-21.079 Z1.447
X-70.598 Y-21.351 Z1.43
X-70.616 Y-21.362
X-71.038 Y-21.625 Z1.412
X-71.056 Y-21.636 Z1.411
X-71.49 Y-21.89 Z1.394
X-71.506 Y-21.899 Z1.393
X-71.952 Y-22.145 Z1.375
X-71.968 Y-22.154
X-72.425 Y-22.391 Z1.357
X-72.441 Y-22.399 Z1.356
X-72.908 Y-22.629 Z1.338
X-72.923 Y-22.636 Z1.337
X-73.4 Y-22.857 Z1.319
X-73.414 Y-22.864
X-73.9 Y-23.077 Z1.3
X-73.914 Y-23.083
X-74.408 Y-23.288 Z1.281
X-74.421 Y-23.294 Z1.28
X-74.921 Y-23.49 Z1.262
X-74.934 Y-23.495 Z1.261
X-75.439 Y-23.683 Z1.242
X-75.453 Y-23.688
X-75.962 Y-23.866 Z1.223
X-75.975 Y-23.87 Z1.222
X-76.486 Y-24.039 Z1.204
X-76.499 Y-24.043 Z1.203
X-77.011 Y-24.201 Z1.184
X-77.025 Y-24.205
X-77.536 Y-24.352 Z1.165
X-77.55 Y-24.356
X-78.059 Y-24.491 Z1.147
X-78.073 Y-24.495 Z1.146
X-78.575 Y-24.618 Z1.128
X-79.04 Y-24.736 Z1.111
X-79.485 Y-24.866 Z1.095
X-79.92 Y-25.013 Z1.079
X-80.346 Y-25.175 Z1.063
X-80.763 Y-25.353 Z1.047
X-81.17 Y-25.546 Z1.031
X-81.569 Y-25.754 Z1.016
X-81.959 Y-25.978 Z1
X-82.34 Y-26.216 Z0.984
X-82.712 Y-26.469 Z0.969
X-83.076 Y-26.737 Z0.953
X-83.43 Y-27.018 Z0.937
X-83.775 Y-27.314 Z0.921
X-84.112 Y-27.624 Z0.905
X-84.439 Y-27.946 Z0.889
X-84.756 Y-28.282 Z0.873
X-85.065 Y-28.631 Z0.857
X-85.363 Y-28.992 Z0.84
X-85.651 Y-29.365 Z0.824
X-85.929 Y-29.75 Z0.807
X-86.196 Y-30.145 Z0.791
X-86.452 Y-30.552 Z0.774
X-86.697 Y-30.969 Z0.757
X-86.931 Y-31.396 Z0.74
X-87.152 Y-31.832 Z0.723
X-87.361 Y-32.278 Z0.706
X-87.558 Y-32.732 Z0.689
X-87.742 Y-33.195 Z0.671
X-87.912 Y-33.665 Z0.654
X-88.068 Y-34.143 Z0.636
X-88.21 Y-34.628 Z0.618
X-88.337 Y-35.119 Z0.601
X-88.449 Y-35.617 Z0.583
X-88.546 Y-36.121 Z0.565
X-88.626 Y-36.63 Z0.547
X-88.689 Y-37.144 Z0.529
X-88.736 Y-37.664 Z0.511
X-88.765 Y-38.188 Z0.492
X-88.775 Y-38.716 Z0.474
X-88.767 Y-39.249 Z0.455
X-88.739 Y-39.785 Z0.437
X-88.691 Y-40.326 Z0.418
X-88.623 Y-40.869 Z0.398
X-88.534 Y-41.416 Z0.379
X-88.423 Y-41.966 Z0.36
X-88.289 Y-42.52 Z0.34
X-88.132 Y-43.076 Z0.319
X-87.952 Y-43.635 Z0.299
X-87.747 Y-44.197 Z0.278
X-87.517 Y-44.762 Z0.257
X-87.261 Y-45.329 Z0.235
X-86.978 Y-45.899 Z0.213
X-86.669 Y-46.472 Z0.19
X-86.331 Y-47.047 Z0.167
X-85.965 Y-47.624 Z0.143
X-85.57 Y-48.204 Z0.118
X-85.145 Y-48.785 Z0.093
X-84.689 Y-49.369 Z0.067
X-84.203 Y-49.956 Z0.041
X-83.686 Y-50.544 Z0.013
X-83.137 Y-51.133 Z-0.015
X-82.555 Y-51.725 Z-0.044
X-81.942 Y-52.319 Z-0.073
X-81.293 Y-52.917 Z-0.104
G2 X-82.993 Y-56.828 Z-0.3 I-1.509 J-1.669
G1 X-83.155 Y-56.808 F600
G2 X-119.455 Y-10.347 I6.788 J42.714
X-115.228 Y-9.482 I2.241 J-0.195
G1 X-114.762 Y-10.338
X-114.292 Y-11.158
X-113.817 Y-11.947
X-113.336 Y-12.704
X-112.85 Y-13.43
X-112.358 Y-14.126
X-111.862 Y-14.791
X-111.361 Y-15.425
X-110.855 Y-16.031
X-110.345 Y-16.607
X-109.831 Y-17.154
X-109.313 Y-17.674
X-108.791 Y-18.165
X-108.266 Y-18.63
X-107.737 Y-19.069
X-107.206 Y-19.481
X-106.672 Y-19.868
X-106.136 Y-20.231
X-105.597 Y-20.57
X-105.057 Y-20.884
X-104.515 Y-21.176
X-103.972 Y-21.445
X-103.428 Y-21.692
X-102.883 Y-21.918
X-102.338 Y-22.122
X-101.794 Y-22.306
X-101.25 Y-22.47
X-100.706 Y-22.613
X-100.164 Y-22.737
X-99.624 Y-22.842
X-99.086 Y-22.928
X-98.55 Y-22.996
X-98.017 Y-23.045
X-97.487 Y-23.076
X-96.961 Y-23.09
X-96.44 Y-23.086
X-95.923 Y-23.065
X-95.411 Y-23.027
X-94.905 Y-22.972
X-94.405 Y-22.9
X-93.911 Y-22.811
X-93.424 Y-22.706
X-92.945 Y-22.585
X-92.474 Y-22.447
X-92.01 Y-22.293
X-91.556 Y-22.123
X-91.11 Y-21.936
X-90.673 Y-21.734
X-90.246 Y-21.515
X-89.829 Y-21.28
X-89.423 Y-21.029
X-89.026 Y-20.761
X-88.641 Y-20.477
X-88.266 Y-20.176
X-87.903 Y-19.859
X-87.551 Y-19.524
X-87.21 Y-19.172
X-86.881 Y-18.803
X-86.564 Y-18.416
X-86.259 Y-18.011
X-85.965 Y-17.588
X-85.684 Y-17.147
X-85.415 Y-16.687
X-85.154 Y-16.199
X-84.913 Y-15.741
X-84.906 Y-15.728
X-84.652 Y-15.267
X-84.644 Y-15.254
X-84.378 Y-14.794
X-84.371 Y-14.782
X-84.094 Y-14.323
X-84.086 Y-14.311
X-83.799 Y-13.856
X-83.792 Y-13.844
X-83.496 Y-13.394
X-83.488 Y-13.382
X-83.184 Y-12.937
X-83.176 Y-12.926
X-82.864 Y-12.488
X-82.856 Y-12.476
X-82.537 Y-12.047
X-82.528 Y-12.035
X-82.203 Y-11.615
X-82.194 Y-11.603
X-81.863 Y-11.193
X-81.853 Y-11.181
X-81.517 Y-10.783
X-81.505 Y-10.77
X-81.164 Y-10.384
X-81.152 Y-10.37
X-80.806 Y-9.997
X-80.793 Y-9.983
X-80.441 Y-9.624
X-80.426 Y-9.609
X-80.07 Y-9.263
X-80.054 Y-9.248
X-79.691 Y-8.917
X-79.674 Y-8.902
X-79.306 Y-8.585
X-79.288 Y-8.57
X-78.914 Y-8.268
X-78.895 Y-8.253
X-78.514 Y-7.965
X-78.494 Y-7.951
X-78.106 Y-7.678
X-78.086 Y-7.664
X-77.691 Y-7.405
X-77.67 Y-7.391
X-77.268 Y-7.147
X-77.247 Y-7.134
X-76.837 Y-6.903
X-76.816 Y-6.891
X-76.399 Y-6.673
X-76.379 Y-6.663
X-75.955 Y-6.457
X-75.935 Y-6.448
X-75.504 Y-6.254
X-75.485 Y-6.246
X-75.047 Y-6.064
X-75.029 Y-6.057
X-74.586 Y-5.885
X-74.569 Y-5.879
X-74.121 Y-5.718
X-74.098 Y-5.71
X-73.189 Y-5.415
X-73.16 Y-5.406
X-72.704 Y-5.278
X-72.696 Y-5.276
X-72.249 Y-5.156
X-72.242 Y-5.154
X-71.805 Y-5.041
X-71.797 Y-5.039
X-71.369 Y-4.934
X-71.36 Y-4.932
X-70.942 Y-4.834
X-70.933 Y-4.832
X-70.525 Y-4.742
X-70.515 Y-4.739
X-70.117 Y-4.657
X-70.107 Y-4.655
X-69.718 Y-4.58
X-69.707 Y-4.578
X-69.328 Y-4.511
X-69.316 Y-4.509
X-68.947 Y-4.449
X-68.935 Y-4.447
X-68.576 Y-4.396
X-68.562 Y-4.394
X-68.214 Y-4.351
X-68.199 Y-4.349
X-67.861 Y-4.313
X-67.845 Y-4.312
X-67.517 Y-4.285
X-67.5 Y-4.283
X-67.183 Y-4.264
X-67.164
X-66.858 Y-4.253
X-66.837 Y-4.252
X-66.541 Y-4.25
X-66.519
X-66.234 Y-4.257
X-66.21 Y-4.258
X-65.936 Y-4.273
X-65.91 Y-4.275
X-65.647 Y-4.299
X-65.618 Y-4.302
X-65.367 Y-4.335
X-65.335 Y-4.34
X-65.096 Y-4.382
X-65.061 Y-4.388
X-64.834 Y-4.439
X-64.796 Y-4.449
X-64.58 Y-4.509
X-64.54 Y-4.522
X-64.336 Y-4.591
X-64.293 Y-4.608
X-64.101 Y-4.687
X-64.055 Y-4.708
X-63.875 Y-4.796
X-63.827 Y-4.822
X-63.66 Y-4.92
X-63.611 Y-4.952
X-63.457 Y-5.059
X-63.408 Y-5.097
X-63.265 Y-5.214
X-63.218 Y-5.257
X-63.088 Y-5.384
X-63.043 Y-5.432
X-62.926 Y-5.569
X-62.885 Y-5.622
X-62.78 Y-5.769
X-62.745 Y-5.824
X-62.652 Y-5.981
X-62.622 Y-6.037
X-62.543 Y-6.204
X-62.519 Y-6.26
X-62.451 Y-6.436
X-62.433 Y-6.491
X-62.378 Y-6.677
X-62.364 Y-6.73
X-62.322 Y-6.926
X-62.313 Y-6.975
X-62.283 Y-7.18
X-62.277 Y-7.227
X-62.259 Y-7.441
X-62.257 Y-7.484
X-62.25 Y-7.708
Y-7.746
X-62.256 Y-7.98
X-62.257 Y-8.015
X-62.275 Y-8.257
X-62.278 Y-8.289
X-62.307 Y-8.541
X-62.31 Y-8.57
X-62.351 Y-8.83
X-62.355 Y-8.856
X-62.407 Y-9.126
X-62.412 Y-9.149
X-62.474 Y-9.427
X-62.48 Y-9.449
X-62.553 Y-9.735
X-62.559 Y-9.755
X-62.643 Y-10.05
X-62.649 Y-10.068
X-62.744 Y-10.371
X-62.749 Y-10.388
X-62.855 Y-10.699
X-62.86 Y-10.714
X-62.976 Y-11.034
X-62.982 Y-11.048
X-63.108 Y-11.375
X-63.113 Y-11.388
X-63.25 Y-11.724
X-63.255 Y-11.735
X-63.402 Y-12.079
X-63.407 Y-12.09
X-63.563 Y-12.441
X-63.568 Y-12.451
X-63.735 Y-12.81
X-63.739 Y-12.82
X-63.916 Y-13.187
X-63.92 Y-13.195
X-64.106 Y-13.57
X-64.111 Y-13.578
X-64.307 Y-13.96
X-64.311 Y-13.968
X-64.516 Y-14.357
X-64.52 Y-14.365
X-64.736 Y-14.762
X-64.739 Y-14.768
X-64.964 Y-15.173
X-64.968 Y-15.179
X-65.202 Y-15.591
X-65.218 Y-15.618
X-65.724 Y-16.428
X-65.737 Y-16.448
X-66.002 Y-16.844
X-66.012 Y-16.859
X-66.286 Y-17.248
X-66.297 Y-17.263
X-66.58 Y-17.644
X-66.592 Y-17.66
X-66.884 Y-18.032
X-66.898 Y-18.049
X-67.2 Y-18.411
X-67.215 Y-18.428
X-67.528 Y-18.78
X-67.544 Y-18.797
X-67.868 Y-19.138
X-67.885 Y-19.156
X-68.22 Y-19.487
X-68.238 Y-19.504
X-68.584 Y-19.824
X-68.603 Y-19.841
X-68.962 Y-20.151
X-68.981 Y-20.167
X-69.352 Y-20.467
X-69.371 Y-20.482
X-69.755 Y-20.772
X-69.774 Y-20.786
X-70.17 Y-21.066
X-70.189 Y-21.079
X-70.598 Y-21.351
X-70.616 Y-21.362
X-71.038 Y-21.625
X-71.056 Y-21.636
X-71.49 Y-21.89
X-71.506 Y-21.899
X-71.952 Y-22.145
X-71.968 Y-22.154
X-72.425 Y-22.391
X-72.441 Y-22.399
X-72.908 Y-22.629
X-72.923 Y-22.636
X-73.4 Y-22.857
X-73.414 Y-22.864
X-73.9 Y-23.077
X-73.914 Y-23.083
X-74.408 Y-23.288
X-74.421 Y-23.294
X-74.921 Y-23.49
X-74.934 Y-23.495
X-75.439 Y-23.683
X-75.453 Y-23.688
X-75.962 Y-23.866
X-75.975 Y-23.87
X-76.486 Y-24.039
X-76.499 Y-24.043
X-77.011 Y-24.201
X-77.025 Y-24.205
X-77.536 Y-24.352
X-77.55 Y-24.356
X-78.059 Y-24.491
X-78.073 Y-24.495
X-78.575 Y-24.618
X-79.04 Y-24.736
X-79.485 Y-24.866
X-79.92 Y-25.013
X-80.346 Y-25.175
X-80.763 Y-25.353
X-81.17 Y-25.546
X-81.569 Y-25.754
X-81.959 Y-25.978
X-82.34 Y-26.216
X-82.712 Y-26.469
X-83.076 Y-26.737
X-83.43 Y-27.018
X-83.775 Y-27.314
X-84.112 Y-27.624
X-84.439 Y-27.946
X-84.756 Y-28.282
X-85.065 Y-28.631
X-85.363 Y-28.992
X-85.651 Y-29.365
X-85.929 Y-29.75
X-86.196 Y-30.145
X-86.452 Y-30.552
X-86.697 Y-30.969
X-86.931 Y-31.396
X-87.152 Y-31.832
X-87.361 Y-32.278
X-87.558 Y-32.732
X-87.742 Y-33.195
X-87.912 Y-33.665
X-88.068 Y-34.143
X-88.21 Y-34.628
X-88.337 Y-35.119
X-88.449 Y-35.617
X-88.546 Y-36.121
X-88.626 Y-36.63
X-88.689 Y-37.144
X-88.736 Y-37.664
X-88.765 Y-38.188
X-88.775 Y-38.716
X-88.767 Y-39.249
X-88.739 Y-39.785
X-88.691 Y-40.326
X-88.623 Y-40.869
X-88.534 Y-41.416
X-88.423 Y-41.966
X-88.289 Y-42.52
X-88.132 Y-43.076
X-87.952 Y-43.635
X-87.747 Y-44.197
X-87.517 Y-44.762
X-87.261 Y-45.329
X-86.978 Y-45.899
X-86.669 Y-46.472
X-86.331 Y-47.047
X-85.965 Y-47.624
X-85.57 Y-48.204
X-85.145 Y-48.785
X-84.689 Y-49.369
X-84.203 Y-49.956
X-83.686 Y-50.544
X-83.137 Y-51.133
X-82.555 Y-51.725
X-81.942 Y-52.319
X-81.293 Y-52.917
G2 X-82.993 Y-56.828 I-1.509 J-1.669
G1 X-83.155 Y-56.808 Z-0.306 F1016
G2 X-91.297 Y-54.686 Z-0.6 I6.788 J42.714
X-119.455 Y-10.347 I14.93 J40.591 F600
X-115.228 Y-9.482 I2.241 J-0.195
G1 X-114.762 Y-10.338
X-114.292 Y-11.158
X-113.817 Y-11.947
X-113.336 Y-12.704
X-112.85 Y-13.43
X-112.358 Y-14.126
X-111.862 Y-14.791
X-111.361 Y-15.425
X-110.855 Y-16.031
X-110.345 Y-16.607
X-109.831 Y-17.154
X-109.313 Y-17.674
X-108.791 Y-18.165
X-108.266 Y-18.63
X-107.737 Y-19.069
X-107.206 Y-19.481
X-106.672 Y-19.868
X-106.136 Y-20.231
X-105.597 Y-20.57
X-105.057 Y-20.884
X-104.515 Y-21.176
X-103.972 Y-21.445
X-103.428 Y-21.692
X-102.883 Y-21.918
X-102.338 Y-22.122
X-101.794 Y-22.306
X-101.25 Y-22.47
X-100.706 Y-22.613
X-100.164 Y-22.737
X-99.624 Y-22.842
X-99.086 Y-22.928
X-98.55 Y-22.996
X-98.017 Y-23.045
X-97.487 Y-23.076
X-96.961 Y-23.09
X-96.44 Y-23.086
X-95.923 Y-23.065
X-95.411 Y-23.027
X-94.905 Y-22.972
X-94.405 Y-22.9
X-93.911 Y-22.811
X-93.424 Y-22.706
X-92.945 Y-22.585
X-92.474 Y-22.447
X-92.01 Y-22.293
X-91.556 Y-22.123
X-91.11 Y-21.936
X-90.673 Y-21.734
X-90.246 Y-21.515
X-89.829 Y-21.28
X-89.423 Y-21.029
X-89.026 Y-20.761
X-88.641 Y-20.477
X-88.266 Y-20.176
X-87.903 Y-19.859
X-87.551 Y-19.524
X-87.21 Y-19.172
X-86.881 Y-18.803
X-86.564 Y-18.416
X-86.259 Y-18.011
X-85.965 Y-17.588
X-85.684 Y-17.147
X-85.415 Y-16.687
X-85.154 Y-16.199
X-84.913 Y-15.741
X-84.906 Y-15.728
X-84.652 Y-15.267
X-84.644 Y-15.254
X-84.378 Y-14.794
X-84.371 Y-14.782
X-84.094 Y-14.323
X-84.086 Y-14.311
X-83.799 Y-13.856
X-83.792 Y-13.844
X-83.496 Y-13.394
X-83.488 Y-13.382
X-83.184 Y-12.937
X-83.176 Y-12.926
X-82.864 Y-12.488
X-82.856 Y-12.476
X-82.537 Y-12.047
X-82.528 Y-12.035
X-82.203 Y-11.615
X-82.194 Y-11.603
X-81.863 Y-11.193
X-81.853 Y-11.181
X-81.517 Y-10.783
X-81.505 Y-10.77
X-81.164 Y-10.384
X-81.152 Y-10.37
X-80.806 Y-9.997
X-80.793 Y-9.983
X-80.441 Y-9.624
X-80.426 Y-9.609
X-80.07 Y-9.263
X-80.054 Y-9.248
X-79.691 Y-8.917
X-79.674 Y-8.902
X-79.306 Y-8.585
X-79.288 Y-8.57
X-78.914 Y-8.268
X-78.895 Y-8.253
X-78.514 Y-7.965
X-78.494 Y-7.951
X-78.106 Y-7.678
X-78.086 Y-7.664
X-77.691 Y-7.405
X-77.67 Y-7.391
X-77.268 Y-7.147
X-77.247 Y-7.134
X-76.837 Y-6.903
X-76.816 Y-6.891
X-76.399 Y-6.673
X-76.379 Y-6.663
X-75.955 Y-6.457
X-75.935 Y-6.448
X-75.504 Y-6.254
X-75.485 Y-6.246
X-75.047 Y-6.064
X-75.029 Y-6.057
X-74.586 Y-5.885
X-74.569 Y-5.879
X-74.121 Y-5.718
X-74.098 Y-5.71
X-73.189 Y-5.415
X-73.16 Y-5.406
X-72.704 Y-5.278
X-72.696 Y-5.276
X-72.249 Y-5.156
X-72.242 Y-5.154
X-71.805 Y-5.041
X-71.797 Y-5.039
X-71.369 Y-4.934
X-71.36 Y-4.932
X-70.942 Y-4.834
X-70.933 Y-4.832
X-70.525 Y-4.742
X-70.515 Y-4.739
X-70.117 Y-4.657
X-70.107 Y-4.655
X-69.718 Y-4.58
X-69.707 Y-4.578
X-69.328 Y-4.511
X-69.316 Y-4.509
X-68.947 Y-4.449
X-68.935 Y-4.447
X-68.576 Y-4.396
X-68.562 Y-4.394
X-68.214 Y-4.351
X-68.199 Y-4.349
X-67.861 Y-4.313
X-67.845 Y-4.312
X-67.517 Y-4.285
X-67.5 Y-4.283
X-67.183 Y-4.264
X-67.164
X-66.858 Y-4.253
X-66.837 Y-4.252
X-66.541 Y-4.25
X-66.519
X-66.234 Y-4.257
X-66.21 Y-4.258
X-65.936 Y-4.273
X-65.91 Y-4.275
X-65.647 Y-4.299
X-65.618 Y-4.302
X-65.367 Y-4.335
X-65.335 Y-4.34
X-65.096 Y-4.382
X-65.061 Y-4.388
X-64.834 Y-4.439
X-64.796 Y-4.449
X-64.58 Y-4.509
X-64.54 Y-4.522
X-64.336 Y-4.591
X-64.293 Y-4.608
X-64.101 Y-4.687
X-64.055 Y-4.708
X-63.875 Y-4.796
X-63.827 Y-4.822
X-63.66 Y-4.92
X-63.611 Y-4.952
X-63.457 Y-5.059
X-63.408 Y-5.097
X-63.265 Y-5.214
X-63.218 Y-5.257
X-63.088 Y-5.384
X-63.043 Y-5.432
X-62.926 Y-5.569
X-62.885 Y-5.622
X-62.78 Y-5.769
X-62.745 Y-5.824
X-62.652 Y-5.981
X-62.622 Y-6.037
X-62.543 Y-6.204
X-62.519 Y-6.26
X-62.451 Y-6.436
X-62.433 Y-6.491
X-62.378 Y-6.677
X-62.364 Y-6.73
X-62.322 Y-6.926
X-62.313 Y-6.975
X-62.283 Y-7.18
X-62.277 Y-7.227
X-62.259 Y-7.441
X-62.257 Y-7.484
X-62.25 Y-7.708
Y-7.746
X-62.256 Y-7.98
X-62.257 Y-8.015
X-62.275 Y-8.257
X-62.278 Y-8.289
X-62.307 Y-8.541
X-62.31 Y-8.57
X-62.351 Y-8.83
X-62.355 Y-8.856
X-62.407 Y-9.126
X-62.412 Y-9.149
X-62.474 Y-9.427
X-62.48 Y-9.449
X-62.553 Y-9.735
X-62.559 Y-9.755
X-62.643 Y-10.05
X-62.649 Y-10.068
X-62.744 Y-10.371
X-62.749 Y-10.388
X-62.855 Y-10.699
X-62.86 Y-10.714
X-62.976 Y-11.034
X-62.982 Y-11.048
X-63.108 Y-11.375
X-63.113 Y-11.388
X-63.25 Y-11.724
X-63.255 Y-11.735
X-63.402 Y-12.079
X-63.407 Y-12.09
X-63.563 Y-12.441
X-63.568 Y-12.451
X-63.735 Y-12.81
X-63.739 Y-12.82
X-63.916 Y-13.187
X-63.92 Y-13.195
X-64.106 Y-13.57
X-64.111 Y-13.578
X-64.307 Y-13.96
X-64.311 Y-13.968
X-64.516 Y-14.357
X-64.52 Y-14.365
X-64.736 Y-14.762
X-64.739 Y-14.768
X-64.964 Y-15.173
X-64.968 Y-15.179
X-65.202 Y-15.591
X-65.218 Y-15.618
X-65.724 Y-16.428
X-65.737 Y-16.448
X-66.002 Y-16.844
X-66.012 Y-16.859
X-66.286 Y-17.248
X-66.297 Y-17.263
X-66.58 Y-17.644
X-66.592 Y-17.66
X-66.884 Y-18.032
X-66.898 Y-18.049
X-67.2 Y-18.411
X-67.215 Y-18.428
X-67.528 Y-18.78
X-67.544 Y-18.797
X-67.868 Y-19.138
X-67.885 Y-19.156
X-68.22 Y-19.487
X-68.238 Y-19.504
X-68.584 Y-19.824
X-68.603 Y-19.841
X-68.962 Y-20.151
X-68.981 Y-20.167
X-69.352 Y-20.467
X-69.371 Y-20.482
X-69.755 Y-20.772
X-69.774 Y-20.786
X-70.17 Y-21.066
X-70.189 Y-21.079
X-70.598 Y-21.351
X-70.616 Y-21.362
X-71.038 Y-21.625
X-71.056 Y-21.636
X-71.49 Y-21.89
X-71.506 Y-21.899
X-71.952 Y-22.145
X-71.968 Y-22.154
X-72.425 Y-22.391
X-72.441 Y-22.399
X-72.908 Y-22.629
X-72.923 Y-22.636
X-73.4 Y-22.857
X-73.414 Y-22.864
X-73.9 Y-23.077
X-73.914 Y-23.083
X-74.408 Y-23.288
X-74.421 Y-23.294
X-74.921 Y-23.49
X-74.934 Y-23.495
X-75.439 Y-23.683
X-75.453 Y-23.688
X-75.962 Y-23.866
X-75.975 Y-23.87
X-76.486 Y-24.039
X-76.499 Y-24.043
X-77.011 Y-24.201
X-77.025 Y-24.205
X-77.536 Y-24.352
X-77.55 Y-24.356
X-78.059 Y-24.491
X-78.073 Y-24.495
X-78.575 Y-24.618
X-79.04 Y-24.736
X-79.485 Y-24.866
X-79.92 Y-25.013
X-80.346 Y-25.175
X-80.763 Y-25.353
X-81.17 Y-25.546
X-81.569 Y-25.754
X-81.959 Y-25.978
X-82.34 Y-26.216
X-82.712 Y-26.469
X-83.076 Y-26.737
X-83.43 Y-27.018
X-83.775 Y-27.314
X-84.112 Y-27.624
X-84.439 Y-27.946
X-84.756 Y-28.282
X-85.065 Y-28.631
X-85.363 Y-28.992
X-85.651 Y-29.365
X-85.929 Y-29.75
X-86.196 Y-30.145
X-86.452 Y-30.552
X-86.697 Y-30.969
X-86.931 Y-31.396
X-87.152 Y-31.832
X-87.361 Y-32.278
X-87.558 Y-32.732
X-87.742 Y-33.195
X-87.912 Y-33.665
X-88.068 Y-34.143
X-88.21 Y-34.628
X-88.337 Y-35.119
X-88.449 Y-35.617
X-88.546 Y-36.121
X-88.626 Y-36.63
X-88.689 Y-37.144
X-88.736 Y-37.664
X-88.765 Y-38.188
X-88.775 Y-38.716
X-88.767 Y-39.249
X-88.739 Y-39.785
X-88.691 Y-40.326
X-88.623 Y-40.869
X-88.534 Y-41.416
X-88.423 Y-41.966
X-88.289 Y-42.52
X-88.132 Y-43.076
X-87.952 Y-43.635
X-87.747 Y-44.197
X-87.517 Y-44.762
X-87.261 Y-45.329
X-86.978 Y-45.899
X-86.669 Y-46.472
X-86.331 Y-47.047
X-85.965 Y-47.624
X-85.57 Y-48.204
X-85.145 Y-48.785
X-84.689 Y-49.369
X-84.203 Y-49.956
X-83.686 Y-50.544
X-83.137 Y-51.133
X-82.555 Y-51.725
X-81.942 Y-52.319
X-81.293 Y-52.917
G2 X-83.155 Y-56.808 I-1.509 J-1.669
X-91.297 Y-54.686 I6.788 J42.714
X-97.156 Y-52.02 Z-0.825 I14.93 J40.591 F1016
X-99.013 Y-50.941 I20.789 J37.926
G1 Z5 F600
Z-0.825 F300
G2 X-99.818 Y-50.435 I22.646 J36.847 F600
G1 Z-0.9 F300
G2 X-117.302 Y-28.056 I23.45 J36.341 F600
G1 Z-0.825
G2 X-118.296 Y-24.701 I40.934 J13.962
G1 Z-0.9 F300
G2 X-119.455 Y-10.347 I41.929 J10.607 F600
X-115.228 Y-9.482 I2.241 J-0.195
G1 X-114.762 Y-10.338
X-114.292 Y-11.158
X-113.817 Y-11.947
X-113.336 Y-12.704
X-112.85 Y-13.43
X-112.358 Y-14.126
X-111.862 Y-14.791
X-111.361 Y-15.425
X-110.855 Y-16.031
X-110.345 Y-16.607
X-109.831 Y-17.154
X-109.313 Y-17.674
X-108.791 Y-18.165
X-108.266 Y-18.63
X-107.737 Y-19.069
X-107.206 Y-19.481
X-106.672 Y-19.868
X-106.136 Y-20.231
X-105.597 Y-20.57
X-105.057 Y-20.884
X-104.515 Y-21.176
X-103.972 Y-21.445
X-103.428 Y-21.692
X-102.883 Y-21.918
X-102.338 Y-22.122
X-101.794 Y-22.306
X-101.25 Y-22.47
X-100.706 Y-22.613
X-100.279 Y-22.711
Z-0.825
X-100.164 Y-22.737
X-99.624 Y-22.842
X-99.086 Y-22.928
X-98.55 Y-22.996
X-98.017 Y-23.045
X-97.487 Y-23.076
X-96.961 Y-23.09
X-96.799 Y-23.089
Z-0.9 F300
X-96.44 Y-23.086 F600
X-95.923 Y-23.065
X-95.411 Y-23.027
X-94.905 Y-22.972
X-94.405 Y-22.9
X-93.911 Y-22.811
X-93.424 Y-22.706
X-92.945 Y-22.585
X-92.474 Y-22.447
X-92.01 Y-22.293
X-91.556 Y-22.123
X-91.11 Y-21.936
X-90.673 Y-21.734
X-90.246 Y-21.515
X-89.829 Y-21.28
X-89.423 Y-21.029
X-89.026 Y-20.761
X-88.641 Y-20.477
X-88.266 Y-20.176
X-87.903 Y-19.859
X-87.551 Y-19.524
X-87.21 Y-19.172
X-86.881 Y-18.803
X-86.564 Y-18.416
X-86.259 Y-18.011
X-85.965 Y-17.588
X-85.684 Y-17.147
X-85.415 Y-16.687
X-85.154 Y-16.199
X-84.913 Y-15.741
X-84.906 Y-15.728
X-84.652 Y-15.267
X-84.644 Y-15.254
X-84.378 Y-14.794
X-84.371 Y-14.782
X-84.094 Y-14.323
X-84.086 Y-14.311
X-83.799 Y-13.856
X-83.792 Y-13.844
X-83.496 Y-13.394
X-83.488 Y-13.382
X-83.184 Y-12.937
X-83.176 Y-12.926
X-82.864 Y-12.488
X-82.856 Y-12.476
X-82.537 Y-12.047
X-82.528 Y-12.035
X-82.203 Y-11.615
X-82.194 Y-11.603
X-81.863 Y-11.193
X-81.853 Y-11.181
X-81.517 Y-10.783
X-81.505 Y-10.77
X-81.164 Y-10.384
X-81.152 Y-10.37
X-80.806 Y-9.997
X-80.793 Y-9.983
X-80.441 Y-9.624
X-80.426 Y-9.609
X-80.07 Y-9.263
X-80.054 Y-9.248
X-79.691 Y-8.917
X-79.674 Y-8.902
X-79.306 Y-8.585
X-79.288 Y-8.57
X-78.914 Y-8.268
X-78.895 Y-8.253
X-78.514 Y-7.965
X-78.494 Y-7.951
X-78.106 Y-7.678
X-78.086 Y-7.664
X-77.691 Y-7.405
X-77.67 Y-7.391
X-77.268 Y-7.147
X-77.247 Y-7.134
X-76.837 Y-6.903
X-76.816 Y-6.891
X-76.399 Y-6.673
X-76.379 Y-6.663
X-75.955 Y-6.457
X-75.935 Y-6.448
X-75.504 Y-6.254
X-75.485 Y-6.246
X-75.047 Y-6.064
X-75.029 Y-6.057
X-74.586 Y-5.885
X-74.569 Y-5.879
X-74.121 Y-5.718
X-74.098 Y-5.71
X-73.189 Y-5.415
X-73.16 Y-5.406
X-72.704 Y-5.278
X-72.696 Y-5.276
X-72.249 Y-5.156
X-72.242 Y-5.154
X-71.805 Y-5.041
X-71.797 Y-5.039
X-71.369 Y-4.934
X-71.36 Y-4.932
X-70.942 Y-4.834
X-70.933 Y-4.832
X-70.525 Y-4.742
X-70.515 Y-4.739
X-70.117 Y-4.657
X-70.107 Y-4.655
X-69.718 Y-4.58
X-69.707 Y-4.578
X-69.328 Y-4.511
X-69.316 Y-4.509
X-68.947 Y-4.449
X-68.935 Y-4.447
X-68.576 Y-4.396
X-68.562 Y-4.394
X-68.214 Y-4.351
X-68.199 Y-4.349
X-67.861 Y-4.313
X-67.845 Y-4.312
X-67.517 Y-4.285
X-67.5 Y-4.283
X-67.183 Y-4.264
X-67.164
X-66.858 Y-4.253
X-66.837 Y-4.252
X-66.541 Y-4.25
X-66.519
X-66.234 Y-4.257
X-66.21 Y-4.258
X-65.936 Y-4.273
X-65.91 Y-4.275
X-65.647 Y-4.299
X-65.618 Y-4.302
X-65.367 Y-4.335
X-65.335 Y-4.34
X-65.096 Y-4.382
X-65.061 Y-4.388
X-64.834 Y-4.439
X-64.796 Y-4.449
X-64.58 Y-4.509
X-64.54 Y-4.522
X-64.336 Y-4.591
X-64.293 Y-4.608
X-64.101 Y-4.687
X-64.055 Y-4.708
X-63.875 Y-4.796
X-63.827 Y-4.822
X-63.66 Y-4.92
X-63.611 Y-4.952
X-63.457 Y-5.059
X-63.408 Y-5.097
X-63.265 Y-5.214
X-63.218 Y-5.257
X-63.088 Y-5.384
X-63.043 Y-5.432
X-62.926 Y-5.569
X-62.885 Y-5.622
X-62.78 Y-5.769
X-62.745 Y-5.824
X-62.652 Y-5.981
X-62.622 Y-6.037
X-62.543 Y-6.204
X-62.519 Y-6.26
X-62.451 Y-6.436
X-62.433 Y-6.491
X-62.378 Y-6.677
X-62.364 Y-6.73
X-62.322 Y-6.926
X-62.313 Y-6.975
X-62.283 Y-7.18
X-62.277 Y-7.227
X-62.259 Y-7.441
X-62.257 Y-7.484
X-62.25 Y-7.708
Y-7.746
X-62.256 Y-7.98
X-62.257 Y-8.015
X-62.275 Y-8.257
X-62.278 Y-8.289
X-62.307 Y-8.541
X-62.31 Y-8.57
X-62.351 Y-8.83
X-62.355 Y-8.856
X-62.407 Y-9.126
X-62.412 Y-9.149
X-62.474 Y-9.427
X-62.48 Y-9.449
X-62.553 Y-9.735
X-62.559 Y-9.755
X-62.643 Y-10.05
X-62.649 Y-10.068
X-62.744 Y-10.371
X-62.749 Y-10.388
X-62.855 Y-10.699
X-62.86 Y-10.714
X-62.976 Y-11.034
X-62.982 Y-11.048
X-63.108 Y-11.375
X-63.113 Y-11.388
X-63.25 Y-11.724
X-63.255 Y-11.735
X-63.402 Y-12.079
X-63.407 Y-12.09
X-63.563 Y-12.441
X-63.568 Y-12.451
X-63.735 Y-12.81
X-63.739 Y-12.82
X-63.916 Y-13.187
X-63.92 Y-13.195
X-64.106 Y-13.57
X-64.111 Y-13.578
X-64.307 Y-13.96
X-64.311 Y-13.968
X-64.516 Y-14.357
X-64.52 Y-14.365
X-64.736 Y-14.762
X-64.739 Y-14.768
X-64.964 Y-15.173
X-64.968 Y-15.179
X-65.202 Y-15.591
X-65.218 Y-15.618
X-65.724 Y-16.428
X-65.737 Y-16.448
X-66.002 Y-16.844
X-66.012 Y-16.859
X-66.286 Y-17.248
X-66.297 Y-17.263
X-66.58 Y-17.644
X-66.592 Y-17.66
X-66.884 Y-18.032
X-66.898 Y-18.049
X-67.2 Y-18.411
X-67.215 Y-18.428
X-67.528 Y-18.78
X-67.544 Y-18.797
X-67.868 Y-19.138
X-67.885 Y-19.156
X-68.22 Y-19.487
X-68.238 Y-19.504
X-68.584 Y-19.824
X-68.603 Y-19.841
X-68.962 Y-20.151
X-68.981 Y-20.167
X-69.352 Y-20.467
X-69.371 Y-20.482
X-69.755 Y-20.772
X-69.774 Y-20.786
X-70.17 Y-21.066
X-70.189 Y-21.079
X-70.598 Y-21.351
X-70.616 Y-21.362
X-71.038 Y-21.625
X-71.056 Y-21.636
X-71.49 Y-21.89
X-71.506 Y-21.899
X-71.952 Y-22.145
X-71.968 Y-22.154
X-72.425 Y-22.391
X-72.441 Y-22.399
X-72.908 Y-22.629
X-72.923 Y-22.636
X-73.4 Y-22.857
X-73.414 Y-22.864
X-73.9 Y-23.077
X-73.914 Y-23.083
X-74.408 Y-23.288
X-74.421 Y-23.294
X-74.921 Y-23.49
X-74.934 Y-23.495
X-75.439 Y-23.683
X-75.453 Y-23.688
X-75.962 Y-23.866
X-75.975 Y-23.87
X-76.486 Y-24.039
X-76.499 Y-24.043
X-77.011 Y-24.201
X-77.025 Y-24.205
X-77.536 Y-24.352
X-77.55 Y-24.356
X-78.059 Y-24.491
X-78.073 Y-24.495
X-78.575 Y-24.618
X-79.04 Y-24.736
X-79.485 Y-24.866
X-79.92 Y-25.013
X-80.346 Y-25.175
X-80.763 Y-25.353
X-81.17 Y-25.546
X-81.569 Y-25.754
X-81.959 Y-25.978
X-82.34 Y-26.216
X-82.712 Y-26.469
X-83.076 Y-26.737
X-83.43 Y-27.018
X-83.775 Y-27.314
X-84.112 Y-27.624
X-84.439 Y-27.946
X-84.756 Y-28.282
X-85.065 Y-28.631
X-85.363 Y-28.992
X-85.651 Y-29.365
X-85.929 Y-29.75
X-86.196 Y-30.145
X-86.452 Y-30.552
X-86.697 Y-30.969
X-86.931 Y-31.396
X-87.152 Y-31.832
X-87.361 Y-32.278
X-87.558 Y-32.732
X-87.742 Y-33.195
X-87.831 Y-33.441
Z-0.825
X-87.912 Y-33.665
X-88.068 Y-34.143
X-88.21 Y-34.628
X-88.337 Y-35.119
X-88.449 Y-35.617
X-88.546 Y-36.121
X-88.626 Y-36.63
X-88.652 Y-36.843
Z-0.9 F300
X-88.689 Y-37.144 F600
X-88.736 Y-37.664
X-88.765 Y-38.188
X-88.775 Y-38.716
X-88.767 Y-39.249
X-88.739 Y-39.785
X-88.691 Y-40.326
X-88.623 Y-40.869
X-88.534 Y-41.416
X-88.423 Y-41.966
X-88.289 Y-42.52
X-88.132 Y-43.076
X-87.952 Y-43.635
X-87.747 Y-44.197
X-87.517 Y-44.762
X-87.261 Y-45.329
X-86.978 Y-45.899
X-86.669 Y-46.472
X-86.331 Y-47.047
X-85.965 Y-47.624
X-85.57 Y-48.204
X-85.145 Y-48.785
X-84.689 Y-49.369
X-84.203 Y-49.956
X-83.686 Y-50.544
X-83.137 Y-51.133
X-82.555 Y-51.725
X-81.942 Y-52.319
X-81.293 Y-52.917
G2 X-83.155 Y-56.808 I-1.509 J-1.669
X-96.802 Y-52.212 I6.788 J42.714
G1 Z-0.825
G2 X-99.013 Y-50.941 I20.435 J38.118
X-99.818 Y-50.435 I22.646 J36.847 F1016
G1 Z-0.933 F300
G2 X-105.839 Y-45.748 Z-1.2 I23.45 J36.341 F1016
X-117.302 Y-28.056 I29.472 J31.654 F600
G1 Z-0.825
G2 X-118.296 Y-24.701 I40.934 J13.962
G1 Z-1.2 F300
G2 X-119.455 Y-10.347 I41.929 J10.607 F600
X-115.228 Y-9.482 I2.241 J-0.195
G1 X-114.762 Y-10.338
X-114.292 Y-11.158
X-113.817 Y-11.947
X-113.336 Y-12.704
X-112.85 Y-13.43
X-112.358 Y-14.126
X-111.862 Y-14.791
X-111.361 Y-15.425
X-110.855 Y-16.031
X-110.345 Y-16.607
X-109.831 Y-17.154
X-109.313 Y-17.674
X-108.791 Y-18.165
X-108.266 Y-18.63
X-107.737 Y-19.069
X-107.206 Y-19.481
X-106.672 Y-19.868
X-106.136 Y-20.231
X-105.597 Y-20.57
X-105.057 Y-20.884
X-104.515 Y-21.176
X-103.972 Y-21.445
X-103.428 Y-21.692
X-102.883 Y-21.918
X-102.338 Y-22.122
X-101.794 Y-22.306
X-101.25 Y-22.47
X-100.706 Y-22.613
X-100.279 Y-22.711
Z-0.825
X-100.164 Y-22.737
X-99.624 Y-22.842
X-99.086 Y-22.928
X-98.55 Y-22.996
X-98.017 Y-23.045
X-97.487 Y-23.076
X-96.961 Y-23.09
X-96.799 Y-23.089
Z-1.2 F300
X-96.44 Y-23.086 F600
X-95.923 Y-23.065
X-95.411 Y-23.027
X-94.905 Y-22.972
X-94.405 Y-22.9
X-93.911 Y-22.811
X-93.424 Y-22.706
X-92.945 Y-22.585
X-92.474 Y-22.447
X-92.01 Y-22.293
X-91.556 Y-22.123
X-91.11 Y-21.936
X-90.673 Y-21.734
X-90.246 Y-21.515
X-89.829 Y-21.28
X-89.423 Y-21.029
X-89.026 Y-20.761
X-88.641 Y-20.477
X-88.266 Y-20.176
X-87.903 Y-19.859
X-87.551 Y-19.524
X-87.21 Y-19.172
X-86.881 Y-18.803
X-86.564 Y-18.416
X-86.259 Y-18.011
X-85.965 Y-17.588
X-85.684 Y-17.147
X-85.415 Y-16.687
X-85.154 Y-16.199
X-84.913 Y-15.741
X-84.906 Y-15.728
X-84.652 Y-15.267
X-84.644 Y-15.254
X-84.378 Y-14.794
X-84.371 Y-14.782
X-84.094 Y-14.323
X-84.086 Y-14.311
X-83.799 Y-13.856
X-83.792 Y-13.844
X-83.496 Y-13.394
X-83.488 Y-13.382
X-83.184 Y-12.937
X-83.176 Y-12.926
X-82.864 Y-12.488
X-82.856 Y-12.476
X-82.537 Y-12.047
X-82.528 Y-12.035
X-82.203 Y-11.615
X-82.194 Y-11.603
X-81.863 Y-11.193
X-81.853 Y-11.181
X-81.517 Y-10.783
X-81.505 Y-10.77
X-81.164 Y-10.384
X-81.152 Y-10.37
X-80.806 Y-9.997
X-80.793 Y-9.983
X-80.441 Y-9.624
X-80.426 Y-9.609
X-80.07 Y-9.263
X-80.054 Y-9.248
X-79.691 Y-8.917
X-79.674 Y-8.902
X-79.306 Y-8.585
X-79.288 Y-8.57
X-78.914 Y-8.268
X-78.895 Y-8.253
X-78.514 Y-7.965
X-78.494 Y-7.951
X-78.106 Y-7.678
X-78.086 Y-7.664
X-77.691 Y-7.405
X-77.67 Y-7.391
X-77.268 Y-7.147
X-77.247 Y-7.134
X-76.837 Y-6.903
X-76.816 Y-6.891
X-76.399 Y-6.673
X-76.379 Y-6.663
X-75.955 Y-6.457
X-75.935 Y-6.448
X-75.504 Y-6.254
X-75.485 Y-6.246
X-75.047 Y-6.064
X-75.029 Y-6.057
X-74.586 Y-5.885
X-74.569 Y-5.879
X-74.121 Y-5.718
X-74.098 Y-5.71
X-73.189 Y-5.415
X-73.16 Y-5.406
X-72.704 Y-5.278
X-72.696 Y-5.276
X-72.249 Y-5.156
X-72.242 Y-5.154
X-71.805 Y-5.041
X-71.797 Y-5.039
X-71.369 Y-4.934
X-71.36 Y-4.932
X-70.942 Y-4.834
X-70.933 Y-4.832
X-70.525 Y-4.742
X-70.515 Y-4.739
X-70.117 Y-4.657
X-70.107 Y-4.655
X-69.718 Y-4.58
X-69.707 Y-4.578
X-69.328 Y-4.511
X-69.316 Y-4.509
X-68.947 Y-4.449
X-68.935 Y-4.447
X-68.576 Y-4.396
X-68.562 Y-4.394
X-68.214 Y-4.351
X-68.199 Y-4.349
X-67.861 Y-4.313
X-67.845 Y-4.312
X-67.517 Y-4.285
X-67.5 Y-4.283
X-67.183 Y-4.264
X-67.164
X-66.858 Y-4.253
X-66.837 Y-4.252
X-66.541 Y-4.25
X-66.519
X-66.234 Y-4.257
X-66.21 Y-4.258
X-65.936 Y-4.273
X-65.91 Y-4.275
X-65.647 Y-4.299
X-65.618 Y-4.302
X-65.367 Y-4.335
X-65.335 Y-4.34
X-65.096 Y-4.382
X-65.061 Y-4.388
X-64.834 Y-4.439
X-64.796 Y-4.449
X-64.58 Y-4.509
X-64.54 Y-4.522
X-64.336 Y-4.591
X-64.293 Y-4.608
X-64.101 Y-4.687
X-64.055 Y-4.708
