(1001)
(Bearbeiten)
(  Hersteller: ChinaCnc)
(  model: 3040T)
(  description: Generic 3-axis)
(T14  D=1.5 CR=0 - ZMIN=-1 - Schaftfraser)
G90 G94
G17
G21
G28 G91 Z0
G90

(Bohrfrasen3)
T14
S6000 M3
G54
G0 X-23.243 Y-20.363
Z15
Z2
G1 Z0.15 F400
X-23.236 Z0.104
X-23.215 Z0.062
X-23.181 Z0.029
X-23.14 Z0.007
X-23.093 Z0
X-23.018
X-22.972 Y-20.356
X-22.93 Y-20.334
X-22.897 Y-20.301
X-22.876 Y-20.259
X-22.868 Y-20.213
G3 X-24.368 Y-20.213 Z-0.5 I-0.75 J0 F600
X-22.868 Y-20.213 Z-1 I0.75 J0
X-24.368 Y-20.213 I-0.75 J0
X-22.868 Y-20.213 I0.75 J0
G1 X-22.876 Y-20.167
X-22.897 Y-20.125
X-22.93 Y-20.092
X-22.972 Y-20.07
X-23.018 Y-20.063
X-23.093
X-23.14 Z-0.993
X-23.181 Z-0.971
X-23.215 Z-0.938
X-23.236 Z-0.896
X-23.243 Z-0.85
G0 Z5
X-10.891 Y-15.063
Z2
G1 Z0.15 F400
X-10.883 Z0.104
X-10.862 Z0.062
X-10.829 Z0.029
X-10.787 Z0.007
X-10.741 Z0
X-10.666
X-10.619 Y-15.055
X-10.577 Y-15.034
X-10.544 Y-15.001
X-10.523 Y-14.959
X-10.516 Y-14.913
G3 X-12.816 Y-14.913 Z-0.5 I-1.15 J0 F600
X-10.516 Y-14.913 Z-1 I1.15 J0
X-12.816 Y-14.913 I-1.15 J0
X-10.516 Y-14.913 I1.15 J0
G1 X-10.523 Y-14.866
X-10.544 Y-14.824
X-10.577 Y-14.791
X-10.619 Y-14.77
X-10.666 Y-14.763
X-10.741
X-10.787 Z-0.993
X-10.829 Z-0.971
X-10.862 Z-0.938
X-10.883 Z-0.896
X-10.891 Z-0.85
G0 Z5
X-16.606 Y-18.981
Z2
G1 Z0.15 F400
X-16.598 Z0.104
X-16.577 Z0.062
X-16.544 Z0.029
X-16.502 Z0.007
X-16.456 Z0
X-16.381
X-16.334 Y-18.973
X-16.292 Y-18.952
X-16.259 Y-18.919
X-16.238 Y-18.877
X-16.231 Y-18.831
G3 X-17.131 Y-18.831 Z-0.5 I-0.45 J0 F600
X-16.231 Y-18.831 Z-1 I0.45 J0
X-17.131 Y-18.831 I-0.45 J0
X-16.231 Y-18.831 I0.45 J0
G1 X-16.238 Y-18.784
X-16.259 Y-18.742
X-16.292 Y-18.709
X-16.334 Y-18.688
X-16.381 Y-18.681
X-16.456
X-16.502 Z-0.993
X-16.544 Z-0.971
X-16.577 Z-0.938
X-16.598 Z-0.896
X-16.606 Z-0.85
G0 Z5
X-19.824 Y-13.966
Z2
G1 Z0.15 F400
X-19.816 Z0.104
X-19.795 Z0.062
X-19.762 Z0.029
X-19.72 Z0.007
X-19.674 Z0
X-19.599
X-19.552 Y-13.958
X-19.51 Y-13.937
X-19.477 Y-13.904
X-19.456 Y-13.862
X-19.449 Y-13.816
G3 X-21.749 Y-13.816 Z-0.5 I-1.15 J0 F600
X-19.449 Y-13.816 Z-1 I1.15 J0
X-21.749 Y-13.816 I-1.15 J0
X-19.449 Y-13.816 I1.15 J0
G1 X-19.456 Y-13.769
X-19.477 Y-13.728
X-19.51 Y-13.694
X-19.552 Y-13.673
X-19.599 Y-13.666
X-19.674
X-19.72 Z-0.993
X-19.762 Z-0.971
X-19.795 Z-0.938
X-19.816 Z-0.896
X-19.824 Z-0.85
G0 Z5
X-15.509 Y-10.048
Z2
G1 Z0.15 F400
X-15.501 Z0.104
X-15.48 Z0.062
X-15.447 Z0.029
X-15.405 Z0.007
X-15.359 Z0
X-15.284
X-15.237 Y-10.04
X-15.196 Y-10.019
X-15.162 Y-9.986
X-15.141 Y-9.944
X-15.134 Y-9.898
G3 X-16.034 Y-9.898 Z-0.5 I-0.45 J0 F600
X-15.134 Y-9.898 Z-1 I0.45 J0
X-16.034 Y-9.898 I-0.45 J0
X-15.134 Y-9.898 I0.45 J0
G1 X-15.141 Y-9.851
X-15.162 Y-9.81
X-15.196 Y-9.776
X-15.237 Y-9.755
X-15.284 Y-9.748
X-15.359
X-15.405 Z-0.993
X-15.447 Z-0.971
X-15.48 Z-0.938
X-15.501 Z-0.896
X-15.509 Z-0.85
G0 Z5
X-8.271 Y-8.665
Z2
G1 Z0.15 F400
X-8.264 Z0.104
X-8.242 Z0.062
X-8.209 Z0.029
X-8.167 Z0.007
X-8.121 Z0
X-8.046
X-8 Y-8.658
X-7.958 Y-8.637
X-7.925 Y-8.604
X-7.903 Y-8.562
X-7.896 Y-8.515
G3 X-9.396 Y-8.515 Z-0.5 I-0.75 J0 F600
X-7.896 Y-8.515 Z-1 I0.75 J0
X-9.396 Y-8.515 I-0.75 J0
X-7.896 Y-8.515 I0.75 J0
G1 X-7.903 Y-8.469
X-7.925 Y-8.427
X-7.958 Y-8.394
X-8 Y-8.373
X-8.046 Y-8.365
X-8.121
X-8.167 Z-0.993
X-8.209 Z-0.971
X-8.242 Z-0.938
X-8.264 Z-0.896
X-8.271 Z-0.85
G0 Z15

(2D-Kontur4)
X-45.698 Y-37.756
Z15
Z5
G1 Z1.3 F300
Z-0.15
X-45.704 Y-37.761 Z-0.196 F400
X-45.72 Y-37.774 Z-0.238
X-45.746 Y-37.795 Z-0.271
X-45.779 Y-37.821 Z-0.293
X-45.815 Y-37.85 Z-0.3
X-45.932 Y-37.943
X-45.964 Y-37.978
X-45.983 Y-38.021
X-45.989 Y-38.067
X-45.979 Y-38.113
X-45.956 Y-38.154
G3 X-30.827 Y-49.57 I29.824 J23.79 F600
G1 X-30.804 Y-49.578
X-30.818 Y-49.551
X-31.253 Y-48.82
X-31.265 Y-48.798
X-31.679 Y-48.045
X-31.691 Y-48.022
X-32.073 Y-47.266
X-32.085 Y-47.243
X-32.435 Y-46.485
X-32.446 Y-46.461
X-32.764 Y-45.703
X-32.774 Y-45.678
X-33.061 Y-44.921
X-33.07 Y-44.895
X-33.327 Y-44.138
X-33.335 Y-44.113
X-33.561 Y-43.357
X-33.568 Y-43.332
X-33.765 Y-42.578
X-33.771 Y-42.552
X-33.939 Y-41.801
X-33.945 Y-41.774
X-34.084 Y-41.026
X-34.089 Y-41
X-34.2 Y-40.255
X-34.203 Y-40.229
X-34.288 Y-39.489
X-34.29 Y-39.463
X-34.348 Y-38.727
X-34.35 Y-38.701
X-34.381 Y-37.971
X-34.382 Y-37.945
X-34.388 Y-37.22
Y-37.194
X-34.369 Y-36.477
X-34.367 Y-36.451
X-34.324 Y-35.74
X-34.322 Y-35.715
X-34.255 Y-35.012
X-34.252 Y-34.986
X-34.162 Y-34.292
X-34.158 Y-34.267
X-34.045 Y-33.581
X-34.04 Y-33.556
X-33.905 Y-32.88
X-33.9 Y-32.855
X-33.743 Y-32.188
X-33.737 Y-32.163
X-33.558 Y-31.505
X-33.551 Y-31.48
X-33.351 Y-30.832
X-33.343 Y-30.807
X-33.122 Y-30.168
X-33.112 Y-30.143
X-32.869 Y-29.516
X-32.859 Y-29.491
X-32.594 Y-28.875
X-32.582 Y-28.849
X-32.295 Y-28.246
X-32.283 Y-28.221
X-31.974 Y-27.631
X-31.96 Y-27.605
X-31.63 Y-27.029
X-31.614 Y-27.003
X-31.274 Y-26.46
X-31.259 Y-26.432
X-31.289 Y-26.441
X-31.902 Y-26.664
X-31.932 Y-26.674
X-32.575 Y-26.877
X-32.604 Y-26.885
X-33.255 Y-27.062
X-33.285 Y-27.069
X-33.944 Y-27.22
X-33.974 Y-27.226
X-34.64 Y-27.35
X-34.669 Y-27.355
X-35.342 Y-27.453
X-35.371 Y-27.457
X-36.05 Y-27.529
X-36.078 Y-27.532
X-36.763 Y-27.579
X-36.79 Y-27.58
X-37.479 Y-27.602
X-37.507
X-38.199 Y-27.599
X-38.226 Y-27.598
X-38.922 Y-27.569
X-38.949 Y-27.568
X-39.648 Y-27.514
X-39.675 Y-27.511
X-40.377 Y-27.431
X-40.404 Y-27.428
X-41.108 Y-27.321
X-41.135 Y-27.316
X-41.841 Y-27.183
X-41.868 Y-27.178
X-42.575 Y-27.017
X-42.601 Y-27.011
X-43.308 Y-26.823
X-43.335 Y-26.815
X-44.042 Y-26.6
X-44.068 Y-26.591
X-44.773 Y-26.347
X-44.799 Y-26.338
X-45.503 Y-26.065
X-45.528 Y-26.055
X-46.23 Y-25.754
X-46.255 Y-25.742
X-46.953 Y-25.411
X-46.977 Y-25.399
X-47.671 Y-25.039
X-47.695 Y-25.026
X-48.385 Y-24.635
X-48.408 Y-24.621
X-49.093 Y-24.2
X-49.115 Y-24.186
X-49.793 Y-23.734
X-49.816 Y-23.718
X-50.487 Y-23.235
X-50.508 Y-23.219
X-51.172 Y-22.705
X-51.193 Y-22.688
X-51.849 Y-22.141
X-51.868 Y-22.124
X-52.515 Y-21.546
X-52.534 Y-21.529
X-53.171 Y-20.918
X-53.189 Y-20.901
X-53.8 Y-20.276
X-53.822 Y-20.256
X-53.821 Y-20.28
G3 X-45.956 Y-38.154 I37.689 J5.915
G1 X-45.921 Y-38.186
X-45.879 Y-38.205
X-45.832 Y-38.21
X-45.786 Y-38.201
X-45.745 Y-38.178
X-45.628 Y-38.084
X-45.592 Y-38.055 Z-0.293
X-45.559 Y-38.029 Z-0.271
X-45.533 Y-38.009 Z-0.238
X-45.516 Y-37.995 Z-0.196
X-45.511 Y-37.991 Z-0.15
G0 Z5
X-45.698 Y-37.756
G1 Z1 F300
Z-0.45
X-45.704 Y-37.761 Z-0.496 F400
X-45.72 Y-37.774 Z-0.538
X-45.746 Y-37.795 Z-0.571
X-45.779 Y-37.821 Z-0.593
X-45.815 Y-37.85 Z-0.6
X-45.932 Y-37.943
X-45.964 Y-37.978
X-45.983 Y-38.021
X-45.989 Y-38.067
X-45.979 Y-38.113
X-45.956 Y-38.154
G3 X-30.827 Y-49.57 I29.824 J23.79 F600
G1 X-30.804 Y-49.578
X-30.818 Y-49.551
X-31.253 Y-48.82
X-31.265 Y-48.798
X-31.679 Y-48.045
X-31.691 Y-48.022
X-32.073 Y-47.266
X-32.085 Y-47.243
X-32.435 Y-46.485
X-32.446 Y-46.461
X-32.764 Y-45.703
X-32.774 Y-45.678
X-33.061 Y-44.921
X-33.07 Y-44.895
X-33.327 Y-44.138
X-33.335 Y-44.113
X-33.561 Y-43.357
X-33.568 Y-43.332
X-33.765 Y-42.578
X-33.771 Y-42.552
X-33.939 Y-41.801
X-33.945 Y-41.774
X-34.084 Y-41.026
X-34.089 Y-41
X-34.2 Y-40.255
X-34.203 Y-40.229
X-34.288 Y-39.489
X-34.29 Y-39.463
X-34.348 Y-38.727
X-34.35 Y-38.701
X-34.381 Y-37.971
X-34.382 Y-37.945
X-34.388 Y-37.22
Y-37.194
X-34.369 Y-36.477
X-34.367 Y-36.451
X-34.324 Y-35.74
X-34.322 Y-35.715
X-34.255 Y-35.012
X-34.252 Y-34.986
X-34.162 Y-34.292
X-34.158 Y-34.267
X-34.045 Y-33.581
X-34.04 Y-33.556
X-33.905 Y-32.88
X-33.9 Y-32.855
X-33.743 Y-32.188
X-33.737 Y-32.163
X-33.558 Y-31.505
X-33.551 Y-31.48
X-33.351 Y-30.832
X-33.343 Y-30.807
X-33.122 Y-30.168
X-33.112 Y-30.143
X-32.869 Y-29.516
X-32.859 Y-29.491
X-32.594 Y-28.875
X-32.582 Y-28.849
X-32.295 Y-28.246
X-32.283 Y-28.221
X-31.974 Y-27.631
X-31.96 Y-27.605
X-31.63 Y-27.029
X-31.614 Y-27.003
X-31.274 Y-26.46
X-31.259 Y-26.432
X-31.289 Y-26.441
X-31.902 Y-26.664
X-31.932 Y-26.674
X-32.575 Y-26.877
X-32.604 Y-26.885
X-33.255 Y-27.062
X-33.285 Y-27.069
X-33.944 Y-27.22
X-33.974 Y-27.226
X-34.64 Y-27.35
X-34.669 Y-27.355
X-35.342 Y-27.453
X-35.371 Y-27.457
X-36.05 Y-27.529
X-36.078 Y-27.532
X-36.763 Y-27.579
X-36.79 Y-27.58
X-37.479 Y-27.602
X-37.507
X-38.199 Y-27.599
X-38.226 Y-27.598
X-38.922 Y-27.569
X-38.949 Y-27.568
X-39.648 Y-27.514
X-39.675 Y-27.511
X-40.377 Y-27.431
X-40.404 Y-27.428
X-41.108 Y-27.321
X-41.135 Y-27.316
X-41.841 Y-27.183
X-41.868 Y-27.178
X-42.575 Y-27.017
X-42.601 Y-27.011
X-43.308 Y-26.823
X-43.335 Y-26.815
X-44.042 Y-26.6
X-44.068 Y-26.591
X-44.773 Y-26.347
X-44.799 Y-26.338
X-45.503 Y-26.065
X-45.528 Y-26.055
X-46.23 Y-25.754
X-46.255 Y-25.742
X-46.953 Y-25.411
X-46.977 Y-25.399
X-47.671 Y-25.039
X-47.695 Y-25.026
X-48.385 Y-24.635
X-48.408 Y-24.621
X-49.093 Y-24.2
X-49.115 Y-24.186
X-49.793 Y-23.734
X-49.816 Y-23.718
X-50.487 Y-23.235
X-50.508 Y-23.219
X-51.172 Y-22.705
X-51.193 Y-22.688
X-51.849 Y-22.141
X-51.868 Y-22.124
X-52.515 Y-21.546
X-52.534 Y-21.529
X-53.171 Y-20.918
X-53.189 Y-20.901
X-53.8 Y-20.276
X-53.822 Y-20.256
X-53.821 Y-20.28
G3 X-45.956 Y-38.154 I37.689 J5.915
G1 X-45.921 Y-38.186
X-45.879 Y-38.205
X-45.832 Y-38.21
X-45.786 Y-38.201
X-45.745 Y-38.178
X-45.628 Y-38.084
X-45.592 Y-38.055 Z-0.593
X-45.559 Y-38.029 Z-0.571
X-45.533 Y-38.009 Z-0.538
X-45.516 Y-37.995 Z-0.496
X-45.511 Y-37.991 Z-0.45
G0 Z5
X-45.698 Y-37.756
G1 Z0.7 F300
Z-0.75
X-45.704 Y-37.761 Z-0.796 F400
X-45.72 Y-37.774 Z-0.838
X-45.746 Y-37.795 Z-0.871
X-45.779 Y-37.821 Z-0.893
X-45.815 Y-37.85 Z-0.9
X-45.932 Y-37.943
X-45.964 Y-37.978
X-45.983 Y-38.021
X-45.989 Y-38.067
X-45.979 Y-38.113
X-45.956 Y-38.154
G3 X-30.827 Y-49.57 I29.824 J23.79 F600
G1 X-30.804 Y-49.578
X-30.818 Y-49.551
X-31.253 Y-48.82
X-31.265 Y-48.798
X-31.679 Y-48.045
X-31.691 Y-48.022
X-32.073 Y-47.266
X-32.085 Y-47.243
X-32.435 Y-46.485
X-32.446 Y-46.461
X-32.764 Y-45.703
X-32.774 Y-45.678
X-33.061 Y-44.921
X-33.07 Y-44.895
X-33.327 Y-44.138
X-33.335 Y-44.113
X-33.561 Y-43.357
X-33.568 Y-43.332
X-33.765 Y-42.578
X-33.771 Y-42.552
X-33.939 Y-41.801
X-33.945 Y-41.774
X-34.084 Y-41.026
X-34.089 Y-41
X-34.2 Y-40.255
X-34.203 Y-40.229
X-34.288 Y-39.489
X-34.29 Y-39.463
X-34.348 Y-38.727
X-34.35 Y-38.701
X-34.381 Y-37.971
X-34.382 Y-37.945
X-34.388 Y-37.22
Y-37.194
X-34.369 Y-36.477
X-34.367 Y-36.451
X-34.324 Y-35.74
X-34.322 Y-35.715
X-34.255 Y-35.012
X-34.252 Y-34.986
X-34.162 Y-34.292
X-34.158 Y-34.267
X-34.045 Y-33.581
X-34.04 Y-33.556
X-33.905 Y-32.88
X-33.9 Y-32.855
X-33.743 Y-32.188
X-33.737 Y-32.163
X-33.558 Y-31.505
X-33.551 Y-31.48
X-33.351 Y-30.832
X-33.343 Y-30.807
X-33.122 Y-30.168
X-33.112 Y-30.143
X-32.869 Y-29.516
X-32.859 Y-29.491
X-32.594 Y-28.875
X-32.582 Y-28.849
X-32.295 Y-28.246
X-32.283 Y-28.221
X-31.974 Y-27.631
X-31.96 Y-27.605
X-31.63 Y-27.029
X-31.614 Y-27.003
X-31.274 Y-26.46
X-31.259 Y-26.432
X-31.289 Y-26.441
X-31.902 Y-26.664
X-31.932 Y-26.674
X-32.575 Y-26.877
X-32.604 Y-26.885
X-33.255 Y-27.062
X-33.285 Y-27.069
X-33.944 Y-27.22
X-33.974 Y-27.226
X-34.64 Y-27.35
X-34.669 Y-27.355
X-35.342 Y-27.453
X-35.371 Y-27.457
X-36.05 Y-27.529
X-36.078 Y-27.532
X-36.763 Y-27.579
X-36.79 Y-27.58
X-37.479 Y-27.602
X-37.507
X-38.199 Y-27.599
X-38.226 Y-27.598
X-38.922 Y-27.569
X-38.949 Y-27.568
X-39.648 Y-27.514
X-39.675 Y-27.511
X-40.377 Y-27.431
X-40.404 Y-27.428
X-41.108 Y-27.321
X-41.135 Y-27.316
X-41.841 Y-27.183
X-41.868 Y-27.178
X-42.575 Y-27.017
X-42.601 Y-27.011
X-43.308 Y-26.823
X-43.335 Y-26.815
X-44.042 Y-26.6
X-44.068 Y-26.591
X-44.773 Y-26.347
X-44.799 Y-26.338
X-45.503 Y-26.065
X-45.528 Y-26.055
X-46.23 Y-25.754
X-46.255 Y-25.742
X-46.953 Y-25.411
X-46.977 Y-25.399
X-47.671 Y-25.039
X-47.695 Y-25.026
X-48.385 Y-24.635
X-48.408 Y-24.621
X-49.093 Y-24.2
X-49.115 Y-24.186
X-49.793 Y-23.734
X-49.816 Y-23.718
X-50.487 Y-23.235
X-50.508 Y-23.219
X-51.172 Y-22.705
X-51.193 Y-22.688
X-51.849 Y-22.141
X-51.868 Y-22.124
X-52.515 Y-21.546
X-52.534 Y-21.529
X-53.171 Y-20.918
X-53.189 Y-20.901
X-53.8 Y-20.276
X-53.822 Y-20.256
X-53.821 Y-20.28
G3 X-45.956 Y-38.154 I37.689 J5.915
G1 X-45.921 Y-38.186
X-45.879 Y-38.205
X-45.832 Y-38.21
X-45.786 Y-38.201
X-45.745 Y-38.178
X-45.628 Y-38.084
X-45.592 Y-38.055 Z-0.893
X-45.559 Y-38.029 Z-0.871
X-45.533 Y-38.009 Z-0.838
X-45.516 Y-37.995 Z-0.796
X-45.511 Y-37.991 Z-0.75
G0 Z5
X-45.698 Y-37.756
G1 Z0.4 F300
Z-0.85
X-45.704 Y-37.761 Z-0.896 F400
X-45.72 Y-37.774 Z-0.938
X-45.746 Y-37.795 Z-0.971
X-45.779 Y-37.821 Z-0.993
X-45.815 Y-37.85 Z-1
X-45.932 Y-37.943
X-45.964 Y-37.978
X-45.983 Y-38.021
X-45.989 Y-38.067
X-45.979 Y-38.113
X-45.956 Y-38.154
G3 X-30.827 Y-49.57 I29.824 J23.79 F600
G1 X-30.804 Y-49.578
X-30.818 Y-49.551
X-31.253 Y-48.82
X-31.265 Y-48.798
X-31.679 Y-48.045
X-31.691 Y-48.022
X-32.073 Y-47.266
X-32.085 Y-47.243
X-32.435 Y-46.485
X-32.446 Y-46.461
X-32.764 Y-45.703
X-32.774 Y-45.678
X-33.061 Y-44.921
X-33.07 Y-44.895
X-33.327 Y-44.138
X-33.335 Y-44.113
X-33.561 Y-43.357
X-33.568 Y-43.332
X-33.765 Y-42.578
X-33.771 Y-42.552
X-33.939 Y-41.801
X-33.945 Y-41.774
X-34.084 Y-41.026
X-34.089 Y-41
X-34.2 Y-40.255
X-34.203 Y-40.229
X-34.288 Y-39.489
X-34.29 Y-39.463
X-34.348 Y-38.727
X-34.35 Y-38.701
X-34.381 Y-37.971
X-34.382 Y-37.945
X-34.388 Y-37.22
Y-37.194
X-34.369 Y-36.477
X-34.367 Y-36.451
X-34.324 Y-35.74
X-34.322 Y-35.715
X-34.255 Y-35.012
X-34.252 Y-34.986
X-34.162 Y-34.292
X-34.158 Y-34.267
X-34.045 Y-33.581
X-34.04 Y-33.556
X-33.905 Y-32.88
X-33.9 Y-32.855
X-33.743 Y-32.188
X-33.737 Y-32.163
X-33.558 Y-31.505
X-33.551 Y-31.48
X-33.351 Y-30.832
X-33.343 Y-30.807
X-33.122 Y-30.168
X-33.112 Y-30.143
X-32.869 Y-29.516
X-32.859 Y-29.491
X-32.594 Y-28.875
X-32.582 Y-28.849
X-32.295 Y-28.246
X-32.283 Y-28.221
X-31.974 Y-27.631
X-31.96 Y-27.605
X-31.63 Y-27.029
X-31.614 Y-27.003
X-31.274 Y-26.46
X-31.259 Y-26.432
X-31.289 Y-26.441
X-31.902 Y-26.664
X-31.932 Y-26.674
X-32.575 Y-26.877
X-32.604 Y-26.885
X-33.255 Y-27.062
X-33.285 Y-27.069
X-33.944 Y-27.22
X-33.974 Y-27.226
X-34.64 Y-27.35
X-34.669 Y-27.355
X-35.342 Y-27.453
X-35.371 Y-27.457
X-36.05 Y-27.529
X-36.078 Y-27.532
X-36.763 Y-27.579
X-36.79 Y-27.58
X-37.479 Y-27.602
X-37.507
X-38.199 Y-27.599
X-38.226 Y-27.598
X-38.922 Y-27.569
X-38.949 Y-27.568
X-39.648 Y-27.514
X-39.675 Y-27.511
X-40.377 Y-27.431
X-40.404 Y-27.428
X-41.108 Y-27.321
X-41.135 Y-27.316
X-41.841 Y-27.183
X-41.868 Y-27.178
X-42.575 Y-27.017
X-42.601 Y-27.011
X-43.308 Y-26.823
X-43.335 Y-26.815
X-44.042 Y-26.6
X-44.068 Y-26.591
X-44.773 Y-26.347
X-44.799 Y-26.338
X-45.503 Y-26.065
X-45.528 Y-26.055
X-46.23 Y-25.754
X-46.255 Y-25.742
X-46.953 Y-25.411
X-46.977 Y-25.399
X-47.671 Y-25.039
X-47.695 Y-25.026
X-48.385 Y-24.635
X-48.408 Y-24.621
X-49.093 Y-24.2
X-49.115 Y-24.186
X-49.793 Y-23.734
X-49.816 Y-23.718
X-50.487 Y-23.235
X-50.508 Y-23.219
X-51.172 Y-22.705
X-51.193 Y-22.688
X-51.849 Y-22.141
X-51.868 Y-22.124
X-52.515 Y-21.546
X-52.534 Y-21.529
X-53.171 Y-20.918
X-53.189 Y-20.901
X-53.8 Y-20.276
X-53.822 Y-20.256
X-53.821 Y-20.28
G3 X-45.956 Y-38.154 I37.689 J5.915
G1 X-45.921 Y-38.186
X-45.879 Y-38.205
X-45.832 Y-38.21
X-45.786 Y-38.201
X-45.745 Y-38.178
X-45.628 Y-38.084
X-45.592 Y-38.055 Z-0.993
X-45.559 Y-38.029 Z-0.971
X-45.533 Y-38.009 Z-0.938
X-45.516 Y-37.995 Z-0.896
X-45.511 Y-37.991 Z-0.85
G0 Z15

(2D-Kontur5)
X-59.436 Y-20.237
Z15
Z5
G1 Z1.3 F300
Z-0.15
X-59.429 Y-20.236 Z-0.196 F400
X-59.408 Y-20.233 Z-0.238
X-59.375 Y-20.229 Z-0.271
X-59.333 Y-20.223 Z-0.293
X-59.287 Y-20.217 Z-0.3
X-59.139 Y-20.198
X-59.094 Y-20.184
X-59.055 Y-20.158
X-59.026 Y-20.12
X-59.011 Y-20.076
X-59.01 Y-20.029
G2 X-59.219 Y-10.617 I42.877 J5.665 F600
X-54.993 Y-9.752 I2.242 J-0.195
G1 X-54.561 Y-10.546
X-54.125 Y-11.307
X-53.684 Y-12.04
X-53.238 Y-12.743
X-52.787 Y-13.418
X-52.331 Y-14.064
X-51.871 Y-14.683
X-51.407 Y-15.273
X-50.938 Y-15.837
X-50.465 Y-16.374
X-49.988 Y-16.884
X-49.508 Y-17.369
X-49.024 Y-17.828
X-48.537 Y-18.263
X-48.048 Y-18.673
X-47.555 Y-19.059
X-47.06 Y-19.422
X-46.563 Y-19.763
X-46.064 Y-20.081
X-45.563 Y-20.377
X-45.061 Y-20.653
X-44.558 Y-20.907
X-44.054 Y-21.141
X-43.55 Y-21.355
X-43.045 Y-21.55
X-42.54 Y-21.725
X-42.036 Y-21.882
X-41.533 Y-22.02
X-41.031 Y-22.141
X-40.531 Y-22.243
X-40.032 Y-22.329
X-39.536 Y-22.397
X-39.043 Y-22.448
X-38.552 Y-22.482
X-38.066 Y-22.5
X-37.583 Y-22.502
X-37.105 Y-22.487
X-36.631 Y-22.457
X-36.163 Y-22.411
X-35.7 Y-22.349
X-35.243 Y-22.272
X-34.793 Y-22.18
X-34.35 Y-22.072
X-33.914 Y-21.948
X-33.485 Y-21.81
X-33.065 Y-21.657
X-32.653 Y-21.488
X-32.25 Y-21.304
X-31.855 Y-21.105
X-31.47 Y-20.891
X-31.094 Y-20.661
X-30.728 Y-20.416
X-30.371 Y-20.156
X-30.025 Y-19.88
X-29.689 Y-19.588
X-29.363 Y-19.28
X-29.048 Y-18.955
X-28.744 Y-18.615
X-28.45 Y-18.257
X-28.167 Y-17.883
X-27.896 Y-17.491
X-27.635 Y-17.081
X-27.385 Y-16.654
X-27.142 Y-16.2
X-26.898 Y-15.734
X-26.89 Y-15.72
X-26.631 Y-15.251
X-26.624 Y-15.238
X-26.353 Y-14.77
X-26.346 Y-14.757
X-26.064 Y-14.291
X-26.056 Y-14.279
X-25.765 Y-13.816
X-25.757 Y-13.804
X-25.456 Y-13.347
X-25.448 Y-13.335
X-25.14 Y-12.884
X-25.131 Y-12.873
X-24.815 Y-12.429
X-24.806 Y-12.417
X-24.484 Y-11.983
X-24.474 Y-11.971
X-24.145 Y-11.548
X-24.136 Y-11.535
X-23.801 Y-11.123
X-23.791 Y-11.11
X-23.451 Y-10.709
X-23.439 Y-10.696
X-23.095 Y-10.309
X-23.083 Y-10.295
X-22.733 Y-9.922
X-22.72 Y-9.908
X-22.366 Y-9.548
X-22.351 Y-9.534
X-21.992 Y-9.19
X-21.976 Y-9.175
X-21.613 Y-8.845
X-21.595 Y-8.83
X-21.226 Y-8.516
X-21.208 Y-8.501
X-20.833 Y-8.203
X-20.814 Y-8.188
X-20.434 Y-7.905
X-20.413 Y-7.89
X-20.027 Y-7.622
X-20.006 Y-7.608
X-19.613 Y-7.354
X-19.592 Y-7.341
X-19.192 Y-7.102
X-19.171 Y-7.089
X-18.765 Y-6.864
X-18.744 Y-6.853
X-18.331 Y-6.64
X-18.31 Y-6.63
X-17.891 Y-6.43
X-17.871 Y-6.421
X-17.445 Y-6.233
X-17.427 Y-6.225
X-16.995 Y-6.048
X-16.978 Y-6.042
X-16.543 Y-5.875
X-16.527 Y-5.869
X-16.087 Y-5.713
X-16.066 Y-5.706
X-15.18 Y-5.419
X-15.152 Y-5.411
X-14.696 Y-5.283
X-14.688 Y-5.281
X-14.242 Y-5.16
X-14.234 Y-5.158
X-13.797 Y-5.045
X-13.789 Y-5.043
X-13.362 Y-4.937
X-13.353 Y-4.935
X-12.935 Y-4.837
X-12.926 Y-4.835
X-12.518 Y-4.745
X-12.508 Y-4.743
X-12.11 Y-4.66
X-12.1 Y-4.658
X-11.711 Y-4.582
X-11.7 Y-4.58
X-11.322 Y-4.513
X-11.31 Y-4.511
X-10.941 Y-4.451
X-10.929 Y-4.449
X-10.57 Y-4.398
X-10.557 Y-4.396
X-10.208 Y-4.352
X-10.194 Y-4.35
X-9.856 Y-4.315
X-9.84 Y-4.313
X-9.512 Y-4.285
X-9.495 Y-4.284
X-9.178 Y-4.265
X-9.159 Y-4.264
X-8.853 Y-4.253
X-8.832
X-8.537 Y-4.25
X-8.515
X-8.23 Y-4.257
X-8.206
X-7.932 Y-4.272
X-7.906 Y-4.274
X-7.644 Y-4.298
X-7.614 Y-4.301
X-7.364 Y-4.334
X-7.332 Y-4.338
X-7.093 Y-4.38
X-7.058 Y-4.387
X-6.831 Y-4.438
X-6.793 Y-4.447
X-6.577 Y-4.507
X-6.537 Y-4.52
X-6.333 Y-4.589
X-6.29 Y-4.605
X-6.098 Y-4.684
X-6.052 Y-4.705
X-5.873 Y-4.793
X-5.825 Y-4.819
X-5.658 Y-4.917
X-5.609 Y-4.948
X-5.454 Y-5.056
X-5.405 Y-5.093
X-5.263 Y-5.21
X-5.216 Y-5.253
X-5.086 Y-5.38
X-5.041 Y-5.428
X-4.924 Y-5.565
X-4.883 Y-5.618
X-4.779 Y-5.764
X-4.743 Y-5.819
X-4.651 Y-5.976
X-4.621 Y-6.033
X-4.541 Y-6.199
X-4.517 Y-6.255
X-4.45 Y-6.431
X-4.432 Y-6.487
X-4.377 Y-6.672
X-4.363 Y-6.725
X-4.321 Y-6.92
X-4.312 Y-6.97
X-4.282 Y-7.175
X-4.277 Y-7.221
X-4.259 Y-7.435
X-4.256 Y-7.478
X-4.25 Y-7.702
Y-7.741
X-4.256 Y-7.973
X-4.258 Y-8.009
X-4.275 Y-8.251
X-4.278 Y-8.283
X-4.307 Y-8.534
X-4.311 Y-8.563
X-4.352 Y-8.823
X-4.356 Y-8.849
X-4.408 Y-9.118
X-4.413 Y-9.142
X-4.476 Y-9.42
X-4.481 Y-9.441
X-4.555 Y-9.727
X-4.56 Y-9.747
X-4.645 Y-10.042
X-4.651 Y-10.06
X-4.746 Y-10.363
X-4.751 Y-10.379
X-4.857 Y-10.69
X-4.863 Y-10.705
X-4.979 Y-11.025
X-4.984 Y-11.039
X-5.111 Y-11.366
X-5.116 Y-11.379
X-5.253 Y-11.714
X-5.258 Y-11.726
X-5.405 Y-12.069
X-5.41 Y-12.08
X-5.567 Y-12.431
X-5.571 Y-12.441
X-5.738 Y-12.8
X-5.743 Y-12.81
X-5.92 Y-13.176
X-5.924 Y-13.185
X-6.11 Y-13.559
X-6.115 Y-13.567
X-6.311 Y-13.949
X-6.315 Y-13.957
X-6.521 Y-14.346
X-6.525 Y-14.353
X-6.74 Y-14.75
X-6.744 Y-14.757
X-6.969 Y-15.161
X-6.973 Y-15.167
X-7.207 Y-15.579
X-7.222 Y-15.604
X-7.715 Y-16.395
X-7.727 Y-16.413
X-7.985 Y-16.802
X-7.995 Y-16.816
X-8.261 Y-17.199
X-8.272 Y-17.214
X-8.548 Y-17.589
X-8.56 Y-17.605
X-8.846 Y-17.973
X-8.859 Y-17.99
X-9.155 Y-18.348
X-9.169 Y-18.366
X-9.475 Y-18.715
X-9.491 Y-18.733
X-9.809 Y-19.073
X-9.826 Y-19.09
X-10.154 Y-19.42
X-10.173 Y-19.438
X-10.514 Y-19.757
X-10.532 Y-19.774
X-10.886 Y-20.084
X-10.905 Y-20.101
X-11.272 Y-20.401
X-11.291 Y-20.416
X-11.671 Y-20.707
X-11.69 Y-20.722
X-12.084 Y-21.004
X-12.103 Y-21.017
X-12.51 Y-21.29
X-12.529 Y-21.302
X-12.949 Y-21.567
X-12.967 Y-21.578
X-13.401 Y-21.834
X-13.418 Y-21.844
X-13.865 Y-22.093
X-13.882 Y-22.101
X-14.341 Y-22.342
X-14.356 Y-22.35
X-14.827 Y-22.582
X-14.842 Y-22.59
X-15.323 Y-22.814
X-15.337 Y-22.821
X-15.828 Y-23.037
X-15.842 Y-23.043
X-16.341 Y-23.252
X-16.355 Y-23.257
X-16.861 Y-23.457
X-16.875 Y-23.462
X-17.387 Y-23.653
X-17.401 Y-23.657
X-17.917 Y-23.839
X-17.931 Y-23.843
X-18.45 Y-24.014
X-18.463 Y-24.019
X-18.984 Y-24.179
X-18.998 Y-24.183
X-19.518 Y-24.333
X-19.532 Y-24.337
X-20.05 Y-24.475
X-20.065 Y-24.478
X-20.566 Y-24.601
X-21.027 Y-24.731
X-21.474 Y-24.876
X-21.907 Y-25.036
X-22.327 Y-25.211
X-22.734 Y-25.401
X-23.129 Y-25.606
X-23.511 Y-25.825
X-23.881 Y-26.06
X-24.24 Y-26.308
X-24.586 Y-26.571
X-24.921 Y-26.848
X-25.243 Y-27.138
X-25.555 Y-27.442
X-25.855 Y-27.76
X-26.143 Y-28.09
X-26.42 Y-28.433
X-26.685 Y-28.789
X-26.938 Y-29.157
X-27.18 Y-29.537
X-27.409 Y-29.928
X-27.627 Y-30.33
X-27.832 Y-30.743
X-28.024 Y-31.166
X-28.205 Y-31.599
X-28.372 Y-32.042
X-28.526 Y-32.494
X-28.667 Y-32.954
X-28.794 Y-33.423
X-28.907 Y-33.899
X-29.006 Y-34.383
X-29.091 Y-34.874
X-29.161 Y-35.372
X-29.216 Y-35.875
X-29.256 Y-36.385
X-29.279 Y-36.9
X-29.287 Y-37.421
X-29.278 Y-37.946
X-29.252 Y-38.476
X-29.209 Y-39.01
X-29.148 Y-39.549
X-29.069 Y-40.091
X-28.971 Y-40.636
X-28.854 Y-41.185
X-28.717 Y-41.736
X-28.56 Y-42.291
X-28.383 Y-42.848
X-28.184 Y-43.408
X-27.964 Y-43.97
X-27.721 Y-44.534
X-27.456 Y-45.1
X-27.167 Y-45.669
X-26.854 Y-46.239
X-26.517 Y-46.81
X-26.155 Y-47.384
X-25.767 Y-47.958
X-25.354 Y-48.535
X-24.914 Y-49.112
X-24.447 Y-49.691
X-23.953 Y-50.271
X-23.431 Y-50.851
X-22.881 Y-51.433
X-22.303 Y-52.016
X-21.696 Y-52.6
X-21.058 Y-53.187
G2 X-22.92 Y-57.078 I-1.509 J-1.669
X-59.01 Y-20.029 I6.788 J42.714
G1 X-59.023 Y-19.984
X-59.049 Y-19.946
X-59.087 Y-19.917
X-59.131 Y-19.901
X-59.178 Y-19.9
X-59.327 Y-19.92
X-59.373 Y-19.926 Z-0.293
X-59.414 Y-19.931 Z-0.271
X-59.447 Y-19.936 Z-0.238
X-59.468 Y-19.938 Z-0.196
X-59.475 Y-19.939 Z-0.15
G0 Z5
X-59.436 Y-20.237
G1 Z1 F300
Z-0.45
X-59.429 Y-20.236 Z-0.496 F400
X-59.408 Y-20.233 Z-0.538
X-59.375 Y-20.229 Z-0.571
X-59.333 Y-20.223 Z-0.593
X-59.287 Y-20.217 Z-0.6
X-59.139 Y-20.198
X-59.094 Y-20.184
X-59.055 Y-20.158
X-59.026 Y-20.12
X-59.011 Y-20.076
X-59.01 Y-20.029
G2 X-59.219 Y-10.617 I42.877 J5.665 F600
X-54.993 Y-9.752 I2.242 J-0.195
G1 X-54.561 Y-10.546
X-54.125 Y-11.307
X-53.684 Y-12.04
X-53.238 Y-12.743
X-52.787 Y-13.418
X-52.331 Y-14.064
X-51.871 Y-14.683
X-51.407 Y-15.273
X-50.938 Y-15.837
X-50.465 Y-16.374
X-49.988 Y-16.884
X-49.508 Y-17.369
X-49.024 Y-17.828
X-48.537 Y-18.263
X-48.048 Y-18.673
X-47.555 Y-19.059
X-47.06 Y-19.422
X-46.563 Y-19.763
X-46.064 Y-20.081
X-45.563 Y-20.377
X-45.061 Y-20.653
X-44.558 Y-20.907
X-44.054 Y-21.141
X-43.55 Y-21.355
X-43.045 Y-21.55
X-42.54 Y-21.725
X-42.036 Y-21.882
X-41.533 Y-22.02
X-41.031 Y-22.141
X-40.531 Y-22.243
X-40.032 Y-22.329
X-39.536 Y-22.397
X-39.043 Y-22.448
X-38.552 Y-22.482
X-38.066 Y-22.5
X-37.583 Y-22.502
X-37.105 Y-22.487
X-36.631 Y-22.457
X-36.163 Y-22.411
X-35.7 Y-22.349
X-35.243 Y-22.272
X-34.793 Y-22.18
X-34.35 Y-22.072
X-33.914 Y-21.948
X-33.485 Y-21.81
X-33.065 Y-21.657
X-32.653 Y-21.488
X-32.25 Y-21.304
X-31.855 Y-21.105
X-31.47 Y-20.891
X-31.094 Y-20.661
X-30.728 Y-20.416
X-30.371 Y-20.156
X-30.025 Y-19.88
X-29.689 Y-19.588
X-29.363 Y-19.28
X-29.048 Y-18.955
X-28.744 Y-18.615
X-28.45 Y-18.257
X-28.167 Y-17.883
X-27.896 Y-17.491
X-27.635 Y-17.081
X-27.385 Y-16.654
X-27.142 Y-16.2
X-26.898 Y-15.734
X-26.89 Y-15.72
X-26.631 Y-15.251
X-26.624 Y-15.238
X-26.353 Y-14.77
X-26.346 Y-14.757
X-26.064 Y-14.291
X-26.056 Y-14.279
X-25.765 Y-13.816
X-25.757 Y-13.804
X-25.456 Y-13.347
X-25.448 Y-13.335
X-25.14 Y-12.884
X-25.131 Y-12.873
X-24.815 Y-12.429
X-24.806 Y-12.417
X-24.484 Y-11.983
X-24.474 Y-11.971
X-24.145 Y-11.548
X-24.136 Y-11.535
X-23.801 Y-11.123
X-23.791 Y-11.11
X-23.451 Y-10.709
X-23.439 Y-10.696
X-23.095 Y-10.309
X-23.083 Y-10.295
X-22.733 Y-9.922
X-22.72 Y-9.908
X-22.366 Y-9.548
X-22.351 Y-9.534
X-21.992 Y-9.19
X-21.976 Y-9.175
X-21.613 Y-8.845
X-21.595 Y-8.83
X-21.226 Y-8.516
X-21.208 Y-8.501
X-20.833 Y-8.203
X-20.814 Y-8.188
X-20.434 Y-7.905
X-20.413 Y-7.89
X-20.027 Y-7.622
X-20.006 Y-7.608
X-19.613 Y-7.354
X-19.592 Y-7.341
X-19.192 Y-7.102
X-19.171 Y-7.089
X-18.765 Y-6.864
X-18.744 Y-6.853
X-18.331 Y-6.64
X-18.31 Y-6.63
X-17.891 Y-6.43
X-17.871 Y-6.421
X-17.445 Y-6.233
X-17.427 Y-6.225
X-16.995 Y-6.048
X-16.978 Y-6.042
X-16.543 Y-5.875
X-16.527 Y-5.869
X-16.087 Y-5.713
X-16.066 Y-5.706
X-15.18 Y-5.419
X-15.152 Y-5.411
X-14.696 Y-5.283
X-14.688 Y-5.281
X-14.242 Y-5.16
X-14.234 Y-5.158
X-13.797 Y-5.045
X-13.789 Y-5.043
X-13.362 Y-4.937
X-13.353 Y-4.935
X-12.935 Y-4.837
X-12.926 Y-4.835
X-12.518 Y-4.745
X-12.508 Y-4.743
X-12.11 Y-4.66
X-12.1 Y-4.658
X-11.711 Y-4.582
X-11.7 Y-4.58
X-11.322 Y-4.513
X-11.31 Y-4.511
X-10.941 Y-4.451
X-10.929 Y-4.449
X-10.57 Y-4.398
X-10.557 Y-4.396
X-10.208 Y-4.352
X-10.194 Y-4.35
X-9.856 Y-4.315
X-9.84 Y-4.313
X-9.512 Y-4.285
X-9.495 Y-4.284
X-9.178 Y-4.265
X-9.159 Y-4.264
X-8.853 Y-4.253
X-8.832
X-8.537 Y-4.25
X-8.515
X-8.23 Y-4.257
X-8.206
X-7.932 Y-4.272
X-7.906 Y-4.274
X-7.644 Y-4.298
X-7.614 Y-4.301
X-7.364 Y-4.334
X-7.332 Y-4.338
X-7.093 Y-4.38
X-7.058 Y-4.387
X-6.831 Y-4.438
X-6.793 Y-4.447
X-6.577 Y-4.507
X-6.537 Y-4.52
X-6.333 Y-4.589
X-6.29 Y-4.605
X-6.098 Y-4.684
X-6.052 Y-4.705
X-5.873 Y-4.793
X-5.825 Y-4.819
X-5.658 Y-4.917
X-5.609 Y-4.948
X-5.454 Y-5.056
X-5.405 Y-5.093
X-5.263 Y-5.21
X-5.216 Y-5.253
X-5.086 Y-5.38
X-5.041 Y-5.428
X-4.924 Y-5.565
X-4.883 Y-5.618
X-4.779 Y-5.764
X-4.743 Y-5.819
X-4.651 Y-5.976
X-4.621 Y-6.033
X-4.541 Y-6.199
X-4.517 Y-6.255
X-4.45 Y-6.431
X-4.432 Y-6.487
X-4.377 Y-6.672
X-4.363 Y-6.725
X-4.321 Y-6.92
X-4.312 Y-6.97
X-4.282 Y-7.175
X-4.277 Y-7.221
X-4.259 Y-7.435
X-4.256 Y-7.478
X-4.25 Y-7.702
Y-7.741
X-4.256 Y-7.973
X-4.258 Y-8.009
X-4.275 Y-8.251
X-4.278 Y-8.283
X-4.307 Y-8.534
X-4.311 Y-8.563
X-4.352 Y-8.823
X-4.356 Y-8.849
X-4.408 Y-9.118
X-4.413 Y-9.142
X-4.476 Y-9.42
X-4.481 Y-9.441
X-4.555 Y-9.727
X-4.56 Y-9.747
X-4.645 Y-10.042
X-4.651 Y-10.06
X-4.746 Y-10.363
X-4.751 Y-10.379
X-4.857 Y-10.69
X-4.863 Y-10.705
X-4.979 Y-11.025
X-4.984 Y-11.039
X-5.111 Y-11.366
X-5.116 Y-11.379
X-5.253 Y-11.714
X-5.258 Y-11.726
X-5.405 Y-12.069
X-5.41 Y-12.08
X-5.567 Y-12.431
X-5.571 Y-12.441
X-5.738 Y-12.8
X-5.743 Y-12.81
X-5.92 Y-13.176
X-5.924 Y-13.185
X-6.11 Y-13.559
X-6.115 Y-13.567
X-6.311 Y-13.949
X-6.315 Y-13.957
X-6.521 Y-14.346
X-6.525 Y-14.353
X-6.74 Y-14.75
X-6.744 Y-14.757
X-6.969 Y-15.161
X-6.973 Y-15.167
X-7.207 Y-15.579
X-7.222 Y-15.604
X-7.715 Y-16.395
X-7.727 Y-16.413
X-7.985 Y-16.802
X-7.995 Y-16.816
X-8.261 Y-17.199
X-8.272 Y-17.214
X-8.548 Y-17.589
X-8.56 Y-17.605
X-8.846 Y-17.973
X-8.859 Y-17.99
X-9.155 Y-18.348
X-9.169 Y-18.366
X-9.475 Y-18.715
X-9.491 Y-18.733
X-9.809 Y-19.073
X-9.826 Y-19.09
X-10.154 Y-19.42
X-10.173 Y-19.438
X-10.514 Y-19.757
X-10.532 Y-19.774
X-10.886 Y-20.084
X-10.905 Y-20.101
X-11.272 Y-20.401
X-11.291 Y-20.416
X-11.671 Y-20.707
X-11.69 Y-20.722
X-12.084 Y-21.004
X-12.103 Y-21.017
X-12.51 Y-21.29
X-12.529 Y-21.302
X-12.949 Y-21.567
X-12.967 Y-21.578
X-13.401 Y-21.834
X-13.418 Y-21.844
X-13.865 Y-22.093
X-13.882 Y-22.101
X-14.341 Y-22.342
X-14.356 Y-22.35
X-14.827 Y-22.582
X-14.842 Y-22.59
X-15.323 Y-22.814
X-15.337 Y-22.821
X-15.828 Y-23.037
X-15.842 Y-23.043
X-16.341 Y-23.252
X-16.355 Y-23.257
X-16.861 Y-23.457
X-16.875 Y-23.462
X-17.387 Y-23.653
X-17.401 Y-23.657
X-17.917 Y-23.839
X-17.931 Y-23.843
X-18.45 Y-24.014
X-18.463 Y-24.019
X-18.984 Y-24.179
X-18.998 Y-24.183
X-19.518 Y-24.333
X-19.532 Y-24.337
X-20.05 Y-24.475
X-20.065 Y-24.478
X-20.566 Y-24.601
X-21.027 Y-24.731
X-21.474 Y-24.876
X-21.907 Y-25.036
X-22.327 Y-25.211
X-22.734 Y-25.401
X-23.129 Y-25.606
X-23.511 Y-25.825
X-23.881 Y-26.06
X-24.24 Y-26.308
X-24.586 Y-26.571
X-24.921 Y-26.848
X-25.243 Y-27.138
X-25.555 Y-27.442
X-25.855 Y-27.76
X-26.143 Y-28.09
X-26.42 Y-28.433
X-26.685 Y-28.789
X-26.938 Y-29.157
X-27.18 Y-29.537
X-27.409 Y-29.928
X-27.627 Y-30.33
X-27.832 Y-30.743
X-28.024 Y-31.166
X-28.205 Y-31.599
X-28.372 Y-32.042
X-28.526 Y-32.494
X-28.667 Y-32.954
X-28.794 Y-33.423
X-28.907 Y-33.899
X-29.006 Y-34.383
X-29.091 Y-34.874
X-29.161 Y-35.372
X-29.216 Y-35.875
X-29.256 Y-36.385
X-29.279 Y-36.9
X-29.287 Y-37.421
X-29.278 Y-37.946
X-29.252 Y-38.476
X-29.209 Y-39.01
X-29.148 Y-39.549
X-29.069 Y-40.091
X-28.971 Y-40.636
X-28.854 Y-41.185
X-28.717 Y-41.736
X-28.56 Y-42.291
X-28.383 Y-42.848
X-28.184 Y-43.408
X-27.964 Y-43.97
X-27.721 Y-44.534
X-27.456 Y-45.1
X-27.167 Y-45.669
X-26.854 Y-46.239
X-26.517 Y-46.81
X-26.155 Y-47.384
X-25.767 Y-47.958
X-25.354 Y-48.535
X-24.914 Y-49.112
X-24.447 Y-49.691
X-23.953 Y-50.271
X-23.431 Y-50.851
X-22.881 Y-51.433
X-22.303 Y-52.016
X-21.696 Y-52.6
X-21.058 Y-53.187
G2 X-22.92 Y-57.078 I-1.509 J-1.669
X-59.01 Y-20.029 I6.788 J42.714
G1 X-59.023 Y-19.984
X-59.049 Y-19.946
X-59.087 Y-19.917
X-59.131 Y-19.901
X-59.178 Y-19.9
X-59.327 Y-19.92
X-59.373 Y-19.926 Z-0.593
X-59.414 Y-19.931 Z-0.571
X-59.447 Y-19.936 Z-0.538
X-59.468 Y-19.938 Z-0.496
X-59.475 Y-19.939 Z-0.45
G0 Z5
X-59.436 Y-20.237
G1 Z0.7 F300
Z-0.75
X-59.429 Y-20.236 Z-0.796 F400
X-59.408 Y-20.233 Z-0.838
X-59.375 Y-20.229 Z-0.871
X-59.333 Y-20.223 Z-0.893
X-59.287 Y-20.217 Z-0.9
X-59.139 Y-20.198
X-59.094 Y-20.184
X-59.055 Y-20.158
X-59.026 Y-20.12
X-59.011 Y-20.076
X-59.01 Y-20.029
G2 X-59.219 Y-10.617 I42.877 J5.665 F600
X-54.993 Y-9.752 I2.242 J-0.195
G1 X-54.561 Y-10.546
X-54.125 Y-11.307
X-53.684 Y-12.04
X-53.238 Y-12.743
X-52.787 Y-13.418
X-52.331 Y-14.064
X-51.871 Y-14.683
X-51.407 Y-15.273
X-50.938 Y-15.837
X-50.465 Y-16.374
X-49.988 Y-16.884
X-49.508 Y-17.369
X-49.024 Y-17.828
X-48.537 Y-18.263
X-48.048 Y-18.673
X-47.555 Y-19.059
X-47.06 Y-19.422
X-46.563 Y-19.763
X-46.064 Y-20.081
X-45.563 Y-20.377
X-45.061 Y-20.653
X-44.558 Y-20.907
X-44.054 Y-21.141
X-43.55 Y-21.355
X-43.045 Y-21.55
X-42.54 Y-21.725
X-42.036 Y-21.882
X-41.533 Y-22.02
X-41.261 Y-22.086
Z-0.625
X-41.031 Y-22.141
X-40.531 Y-22.243
X-40.032 Y-22.329
X-39.536 Y-22.397
X-39.043 Y-22.448
X-38.552 Y-22.482
X-38.066 Y-22.5
X-37.786 Y-22.501
Z-0.9 F300
X-37.583 Y-22.502 F600
X-37.105 Y-22.487
X-36.631 Y-22.457
X-36.163 Y-22.411
X-35.7 Y-22.349
X-35.243 Y-22.272
X-34.793 Y-22.18
X-34.35 Y-22.072
X-33.914 Y-21.948
X-33.485 Y-21.81
X-33.065 Y-21.657
X-32.653 Y-21.488
X-32.25 Y-21.304
X-31.855 Y-21.105
X-31.47 Y-20.891
X-31.094 Y-20.661
X-30.728 Y-20.416
X-30.371 Y-20.156
X-30.025 Y-19.88
X-29.689 Y-19.588
X-29.363 Y-19.28
X-29.048 Y-18.955
X-28.744 Y-18.615
X-28.45 Y-18.257
X-28.167 Y-17.883
X-27.896 Y-17.491
X-27.635 Y-17.081
X-27.385 Y-16.654
X-27.142 Y-16.2
X-26.898 Y-15.734
X-26.89 Y-15.72
X-26.631 Y-15.251
X-26.624 Y-15.238
X-26.353 Y-14.77
X-26.346 Y-14.757
X-26.064 Y-14.291
X-26.056 Y-14.279
X-25.765 Y-13.816
X-25.757 Y-13.804
X-25.456 Y-13.347
X-25.448 Y-13.335
X-25.14 Y-12.884
X-25.131 Y-12.873
X-24.815 Y-12.429
X-24.806 Y-12.417
X-24.484 Y-11.983
X-24.474 Y-11.971
X-24.145 Y-11.548
X-24.136 Y-11.535
X-23.801 Y-11.123
X-23.791 Y-11.11
X-23.451 Y-10.709
X-23.439 Y-10.696
X-23.095 Y-10.309
X-23.083 Y-10.295
X-22.733 Y-9.922
X-22.72 Y-9.908
X-22.366 Y-9.548
X-22.351 Y-9.534
X-21.992 Y-9.19
X-21.976 Y-9.175
X-21.613 Y-8.845
X-21.595 Y-8.83
X-21.226 Y-8.516
X-21.208 Y-8.501
X-20.833 Y-8.203
X-20.814 Y-8.188
X-20.434 Y-7.905
X-20.413 Y-7.89
X-20.027 Y-7.622
X-20.006 Y-7.608
X-19.613 Y-7.354
X-19.592 Y-7.341
X-19.192 Y-7.102
X-19.171 Y-7.089
X-18.765 Y-6.864
X-18.744 Y-6.853
X-18.331 Y-6.64
X-18.31 Y-6.63
X-17.891 Y-6.43
X-17.871 Y-6.421
X-17.445 Y-6.233
X-17.427 Y-6.225
X-16.995 Y-6.048
X-16.978 Y-6.042
X-16.543 Y-5.875
X-16.527 Y-5.869
X-16.087 Y-5.713
X-16.066 Y-5.706
X-15.18 Y-5.419
X-15.152 Y-5.411
X-14.696 Y-5.283
X-14.688 Y-5.281
X-14.242 Y-5.16
X-14.234 Y-5.158
X-13.797 Y-5.045
X-13.789 Y-5.043
X-13.362 Y-4.937
X-13.353 Y-4.935
X-12.935 Y-4.837
X-12.926 Y-4.835
X-12.518 Y-4.745
X-12.508 Y-4.743
X-12.11 Y-4.66
X-12.1 Y-4.658
X-11.711 Y-4.582
X-11.7 Y-4.58
X-11.322 Y-4.513
X-11.31 Y-4.511
X-10.941 Y-4.451
X-10.929 Y-4.449
X-10.57 Y-4.398
X-10.557 Y-4.396
X-10.208 Y-4.352
X-10.194 Y-4.35
X-9.856 Y-4.315
X-9.84 Y-4.313
X-9.512 Y-4.285
X-9.495 Y-4.284
X-9.178 Y-4.265
X-9.159 Y-4.264
X-8.853 Y-4.253
X-8.832
X-8.537 Y-4.25
X-8.515
X-8.23 Y-4.257
X-8.206
X-7.932 Y-4.272
X-7.906 Y-4.274
X-7.644 Y-4.298
X-7.614 Y-4.301
X-7.364 Y-4.334
X-7.332 Y-4.338
X-7.093 Y-4.38
X-7.058 Y-4.387
X-6.831 Y-4.438
X-6.793 Y-4.447
X-6.577 Y-4.507
X-6.537 Y-4.52
X-6.333 Y-4.589
X-6.29 Y-4.605
X-6.098 Y-4.684
X-6.052 Y-4.705
X-5.873 Y-4.793
X-5.825 Y-4.819
X-5.658 Y-4.917
X-5.609 Y-4.948
X-5.454 Y-5.056
X-5.405 Y-5.093
X-5.263 Y-5.21
X-5.216 Y-5.253
X-5.086 Y-5.38
X-5.041 Y-5.428
X-4.924 Y-5.565
X-4.883 Y-5.618
X-4.779 Y-5.764
X-4.743 Y-5.819
X-4.651 Y-5.976
X-4.621 Y-6.033
X-4.541 Y-6.199
X-4.517 Y-6.255
X-4.45 Y-6.431
X-4.432 Y-6.487
X-4.377 Y-6.672
X-4.363 Y-6.725
X-4.321 Y-6.92
X-4.312 Y-6.97
X-4.282 Y-7.175
X-4.277 Y-7.221
X-4.259 Y-7.435
X-4.256 Y-7.478
X-4.25 Y-7.702
Y-7.741
X-4.256 Y-7.973
X-4.258 Y-8.009
X-4.275 Y-8.251
X-4.278 Y-8.283
X-4.307 Y-8.534
X-4.311 Y-8.563
X-4.352 Y-8.823
X-4.356 Y-8.849
X-4.408 Y-9.118
X-4.413 Y-9.142
X-4.476 Y-9.42
X-4.481 Y-9.441
X-4.555 Y-9.727
X-4.56 Y-9.747
X-4.645 Y-10.042
X-4.651 Y-10.06
X-4.746 Y-10.363
X-4.751 Y-10.379
X-4.857 Y-10.69
X-4.863 Y-10.705
X-4.979 Y-11.025
X-4.984 Y-11.039
X-5.111 Y-11.366
X-5.116 Y-11.379
X-5.253 Y-11.714
X-5.258 Y-11.726
X-5.405 Y-12.069
X-5.41 Y-12.08
X-5.567 Y-12.431
X-5.571 Y-12.441
X-5.738 Y-12.8
X-5.743 Y-12.81
X-5.92 Y-13.176
X-5.924 Y-13.185
X-6.11 Y-13.559
X-6.115 Y-13.567
X-6.311 Y-13.949
X-6.315 Y-13.957
X-6.521 Y-14.346
X-6.525 Y-14.353
X-6.74 Y-14.75
X-6.744 Y-14.757
X-6.969 Y-15.161
X-6.973 Y-15.167
X-7.207 Y-15.579
X-7.222 Y-15.604
X-7.715 Y-16.395
X-7.727 Y-16.413
X-7.985 Y-16.802
X-7.995 Y-16.816
X-8.261 Y-17.199
X-8.272 Y-17.214
X-8.548 Y-17.589
X-8.56 Y-17.605
X-8.846 Y-17.973
X-8.859 Y-17.99
X-9.155 Y-18.348
X-9.169 Y-18.366
X-9.475 Y-18.715
X-9.491 Y-18.733
X-9.809 Y-19.073
X-9.826 Y-19.09
X-10.154 Y-19.42
X-10.173 Y-19.438
X-10.514 Y-19.757
X-10.532 Y-19.774
X-10.886 Y-20.084
X-10.905 Y-20.101
X-11.272 Y-20.401
X-11.291 Y-20.416
X-11.671 Y-20.707
X-11.69 Y-20.722
X-12.084 Y-21.004
X-12.103 Y-21.017
X-12.51 Y-21.29
X-12.529 Y-21.302
X-12.949 Y-21.567
X-12.967 Y-21.578
X-13.401 Y-21.834
X-13.418 Y-21.844
X-13.865 Y-22.093
X-13.882 Y-22.101
X-14.341 Y-22.342
X-14.356 Y-22.35
X-14.827 Y-22.582
X-14.842 Y-22.59
X-15.323 Y-22.814
X-15.337 Y-22.821
X-15.828 Y-23.037
X-15.842 Y-23.043
X-16.341 Y-23.252
X-16.355 Y-23.257
X-16.861 Y-23.457
X-16.875 Y-23.462
X-17.387 Y-23.653
X-17.401 Y-23.657
X-17.917 Y-23.839
X-17.931 Y-23.843
X-18.45 Y-24.014
X-18.463 Y-24.019
X-18.984 Y-24.179
X-18.998 Y-24.183
X-19.518 Y-24.333
X-19.532 Y-24.337
X-20.05 Y-24.475
X-20.065 Y-24.478
X-20.566 Y-24.601
X-21.027 Y-24.731
X-21.474 Y-24.876
X-21.907 Y-25.036
X-22.327 Y-25.211
X-22.734 Y-25.401
X-23.129 Y-25.606
X-23.511 Y-25.825
X-23.881 Y-26.06
X-24.24 Y-26.308
X-24.586 Y-26.571
X-24.921 Y-26.848
X-25.243 Y-27.138
X-25.555 Y-27.442
X-25.855 Y-27.76
X-26.143 Y-28.09
X-26.42 Y-28.433
X-26.685 Y-28.789
X-26.938 Y-29.157
X-27.18 Y-29.537
X-27.409 Y-29.928
X-27.627 Y-30.33
X-27.832 Y-30.743
X-28.024 Y-31.166
X-28.205 Y-31.599
X-28.372 Y-32.042
X-28.526 Y-32.494
X-28.667 Y-32.954
X-28.794 Y-33.423
X-28.847 Y-33.647
Z-0.625
X-28.907 Y-33.899
X-29.006 Y-34.383
X-29.091 Y-34.874
X-29.161 Y-35.372
X-29.216 Y-35.875
X-29.256 Y-36.385
X-29.279 Y-36.9
X-29.282 Y-37.12
Z-0.9 F300
X-29.287 Y-37.421 F600
X-29.278 Y-37.946
X-29.252 Y-38.476
X-29.209 Y-39.01
X-29.148 Y-39.549
X-29.069 Y-40.091
X-28.971 Y-40.636
X-28.854 Y-41.185
X-28.717 Y-41.736
X-28.56 Y-42.291
X-28.383 Y-42.848
X-28.184 Y-43.408
X-27.964 Y-43.97
X-27.721 Y-44.534
X-27.456 Y-45.1
X-27.167 Y-45.669
X-26.854 Y-46.239
X-26.517 Y-46.81
X-26.155 Y-47.384
X-25.767 Y-47.958
X-25.354 Y-48.535
X-24.914 Y-49.112
X-24.447 Y-49.691
X-23.953 Y-50.271
X-23.431 Y-50.851
X-22.881 Y-51.433
X-22.303 Y-52.016
X-21.696 Y-52.6
X-21.058 Y-53.187
G2 X-22.92 Y-57.078 I-1.509 J-1.669
X-36.567 Y-52.482 I6.788 J42.714
G1 Z-0.625
G2 X-39.582 Y-50.705 I20.435 J38.118
G1 Z-0.9 F300
G2 X-57.066 Y-28.326 I23.45 J36.341 F600
G1 Z-0.625
G2 X-58.061 Y-24.971 I40.934 J13.962
G1 Z-0.9 F300
G2 X-59.01 Y-20.029 I41.929 J10.607 F600
G1 X-59.023 Y-19.984
X-59.049 Y-19.946
X-59.087 Y-19.917
X-59.131 Y-19.901
X-59.178 Y-19.9
X-59.327 Y-19.92
X-59.373 Y-19.926 Z-0.893
X-59.414 Y-19.931 Z-0.871
X-59.447 Y-19.936 Z-0.838
X-59.468 Y-19.938 Z-0.796
X-59.475 Y-19.939 Z-0.75
G0 Z5
X-59.436 Y-20.237
G1 Z0.4 F300
Z-0.85
X-59.429 Y-20.236 Z-0.896 F400
X-59.408 Y-20.233 Z-0.938
X-59.375 Y-20.229 Z-0.971
X-59.333 Y-20.223 Z-0.993
X-59.287 Y-20.217 Z-1
X-59.139 Y-20.198
X-59.094 Y-20.184
X-59.055 Y-20.158
X-59.026 Y-20.12
X-59.011 Y-20.076
X-59.01 Y-20.029
G2 X-59.219 Y-10.617 I42.877 J5.665 F600
X-54.993 Y-9.752 I2.242 J-0.195
G1 X-54.561 Y-10.546
X-54.125 Y-11.307
X-53.684 Y-12.04
X-53.238 Y-12.743
X-52.787 Y-13.418
X-52.331 Y-14.064
X-51.871 Y-14.683
X-51.407 Y-15.273
X-50.938 Y-15.837
X-50.465 Y-16.374
X-49.988 Y-16.884
X-49.508 Y-17.369
X-49.024 Y-17.828
X-48.537 Y-18.263
X-48.048 Y-18.673
X-47.555 Y-19.059
X-47.06 Y-19.422
X-46.563 Y-19.763
X-46.064 Y-20.081
X-45.563 Y-20.377
X-45.061 Y-20.653
X-44.558 Y-20.907
X-44.054 Y-21.141
X-43.55 Y-21.355
X-43.045 Y-21.55
X-42.54 Y-21.725
X-42.036 Y-21.882
X-41.533 Y-22.02
X-41.261 Y-22.086
Z-0.625
X-41.031 Y-22.141
X-40.531 Y-22.243
X-40.032 Y-22.329
X-39.536 Y-22.397
X-39.043 Y-22.448
X-38.552 Y-22.482
X-38.066 Y-22.5
X-37.786 Y-22.501
Z-1 F300
X-37.583 Y-22.502 F600
X-37.105 Y-22.487
X-36.631 Y-22.457
X-36.163 Y-22.411
X-35.7 Y-22.349
X-35.243 Y-22.272
X-34.793 Y-22.18
X-34.35 Y-22.072
X-33.914 Y-21.948
X-33.485 Y-21.81
X-33.065 Y-21.657
X-32.653 Y-21.488
X-32.25 Y-21.304
X-31.855 Y-21.105
X-31.47 Y-20.891
X-31.094 Y-20.661
X-30.728 Y-20.416
X-30.371 Y-20.156
X-30.025 Y-19.88
X-29.689 Y-19.588
X-29.363 Y-19.28
X-29.048 Y-18.955
X-28.744 Y-18.615
X-28.45 Y-18.257
X-28.167 Y-17.883
X-27.896 Y-17.491
X-27.635 Y-17.081
X-27.385 Y-16.654
X-27.142 Y-16.2
X-26.898 Y-15.734
X-26.89 Y-15.72
X-26.631 Y-15.251
X-26.624 Y-15.238
X-26.353 Y-14.77
X-26.346 Y-14.757
X-26.064 Y-14.291
X-26.056 Y-14.279
X-25.765 Y-13.816
X-25.757 Y-13.804
X-25.456 Y-13.347
X-25.448 Y-13.335
X-25.14 Y-12.884
X-25.131 Y-12.873
X-24.815 Y-12.429
X-24.806 Y-12.417
X-24.484 Y-11.983
X-24.474 Y-11.971
X-24.145 Y-11.548
X-24.136 Y-11.535
X-23.801 Y-11.123
X-23.791 Y-11.11
X-23.451 Y-10.709
X-23.439 Y-10.696
X-23.095 Y-10.309
X-23.083 Y-10.295
X-22.733 Y-9.922
X-22.72 Y-9.908
X-22.366 Y-9.548
X-22.351 Y-9.534
X-21.992 Y-9.19
X-21.976 Y-9.175
X-21.613 Y-8.845
X-21.595 Y-8.83
X-21.226 Y-8.516
X-21.208 Y-8.501
X-20.833 Y-8.203
X-20.814 Y-8.188
X-20.434 Y-7.905
X-20.413 Y-7.89
X-20.027 Y-7.622
X-20.006 Y-7.608
X-19.613 Y-7.354
X-19.592 Y-7.341
X-19.192 Y-7.102
X-19.171 Y-7.089
X-18.765 Y-6.864
X-18.744 Y-6.853
X-18.331 Y-6.64
X-18.31 Y-6.63
X-17.891 Y-6.43
X-17.871 Y-6.421
X-17.445 Y-6.233
X-17.427 Y-6.225
X-16.995 Y-6.048
X-16.978 Y-6.042
X-16.543 Y-5.875
X-16.527 Y-5.869
X-16.087 Y-5.713
X-16.066 Y-5.706
X-15.18 Y-5.419
X-15.152 Y-5.411
X-14.696 Y-5.283
X-14.688 Y-5.281
X-14.242 Y-5.16
X-14.234 Y-5.158
X-13.797 Y-5.045
X-13.789 Y-5.043
X-13.362 Y-4.937
X-13.353 Y-4.935
X-12.935 Y-4.837
X-12.926 Y-4.835
X-12.518 Y-4.745
X-12.508 Y-4.743
X-12.11 Y-4.66
X-12.1 Y-4.658
X-11.711 Y-4.582
X-11.7 Y-4.58
X-11.322 Y-4.513
X-11.31 Y-4.511
X-10.941 Y-4.451
X-10.929 Y-4.449
X-10.57 Y-4.398
X-10.557 Y-4.396
X-10.208 Y-4.352
X-10.194 Y-4.35
X-9.856 Y-4.315
X-9.84 Y-4.313
X-9.512 Y-4.285
X-9.495 Y-4.284
X-9.178 Y-4.265
X-9.159 Y-4.264
X-8.853 Y-4.253
X-8.832
X-8.537 Y-4.25
X-8.515
X-8.23 Y-4.257
X-8.206
X-7.932 Y-4.272
X-7.906 Y-4.274
X-7.644 Y-4.298
X-7.614 Y-4.301
X-7.364 Y-4.334
X-7.332 Y-4.338
X-7.093 Y-4.38
X-7.058 Y-4.387
X-6.831 Y-4.438
X-6.793 Y-4.447
X-6.577 Y-4.507
X-6.537 Y-4.52
X-6.333 Y-4.589
X-6.29 Y-4.605
X-6.098 Y-4.684
X-6.052 Y-4.705
X-5.873 Y-4.793
X-5.825 Y-4.819
X-5.658 Y-4.917
X-5.609 Y-4.948
X-5.454 Y-5.056
X-5.405 Y-5.093
X-5.263 Y-5.21
X-5.216 Y-5.253
X-5.086 Y-5.38
X-5.041 Y-5.428
X-4.924 Y-5.565
X-4.883 Y-5.618
X-4.779 Y-5.764
X-4.743 Y-5.819
X-4.651 Y-5.976
X-4.621 Y-6.033
X-4.541 Y-6.199
X-4.517 Y-6.255
X-4.45 Y-6.431
X-4.432 Y-6.487
X-4.377 Y-6.672
X-4.363 Y-6.725
X-4.321 Y-6.92
X-4.312 Y-6.97
X-4.282 Y-7.175
X-4.277 Y-7.221
X-4.259 Y-7.435
X-4.256 Y-7.478
X-4.25 Y-7.702
Y-7.741
X-4.256 Y-7.973
X-4.258 Y-8.009
X-4.275 Y-8.251
X-4.278 Y-8.283
X-4.307 Y-8.534
X-4.311 Y-8.563
X-4.352 Y-8.823
X-4.356 Y-8.849
X-4.408 Y-9.118
X-4.413 Y-9.142
X-4.476 Y-9.42
X-4.481 Y-9.441
X-4.555 Y-9.727
X-4.56 Y-9.747
X-4.645 Y-10.042
X-4.651 Y-10.06
X-4.746 Y-10.363
X-4.751 Y-10.379
X-4.857 Y-10.69
X-4.863 Y-10.705
X-4.979 Y-11.025
X-4.984 Y-11.039
X-5.111 Y-11.366
X-5.116 Y-11.379
X-5.253 Y-11.714
X-5.258 Y-11.726
X-5.405 Y-12.069
X-5.41 Y-12.08
X-5.567 Y-12.431
X-5.571 Y-12.441
X-5.738 Y-12.8
X-5.743 Y-12.81
X-5.92 Y-13.176
X-5.924 Y-13.185
X-6.11 Y-13.559
X-6.115 Y-13.567
X-6.311 Y-13.949
X-6.315 Y-13.957
X-6.521 Y-14.346
X-6.525 Y-14.353
X-6.74 Y-14.75
X-6.744 Y-14.757
X-6.969 Y-15.161
X-6.973 Y-15.167
X-7.207 Y-15.579
X-7.222 Y-15.604
X-7.715 Y-16.395
X-7.727 Y-16.413
X-7.985 Y-16.802
X-7.995 Y-16.816
X-8.261 Y-17.199
X-8.272 Y-17.214
X-8.548 Y-17.589
X-8.56 Y-17.605
X-8.846 Y-17.973
X-8.859 Y-17.99
X-9.155 Y-18.348
X-9.169 Y-18.366
X-9.475 Y-18.715
X-9.491 Y-18.733
X-9.809 Y-19.073
X-9.826 Y-19.09
X-10.154 Y-19.42
X-10.173 Y-19.438
X-10.514 Y-19.757
X-10.532 Y-19.774
X-10.886 Y-20.084
X-10.905 Y-20.101
X-11.272 Y-20.401
X-11.291 Y-20.416
X-11.671 Y-20.707
X-11.69 Y-20.722
X-12.084 Y-21.004
X-12.103 Y-21.017
X-12.51 Y-21.29
X-12.529 Y-21.302
X-12.949 Y-21.567
X-12.967 Y-21.578
X-13.401 Y-21.834
X-13.418 Y-21.844
X-13.865 Y-22.093
X-13.882 Y-22.101
X-14.341 Y-22.342
X-14.356 Y-22.35
X-14.827 Y-22.582
X-14.842 Y-22.59
X-15.323 Y-22.814
X-15.337 Y-22.821
X-15.828 Y-23.037
X-15.842 Y-23.043
X-16.341 Y-23.252
X-16.355 Y-23.257
X-16.861 Y-23.457
X-16.875 Y-23.462
X-17.387 Y-23.653
X-17.401 Y-23.657
X-17.917 Y-23.839
X-17.931 Y-23.843
X-18.45 Y-24.014
X-18.463 Y-24.019
X-18.984 Y-24.179
X-18.998 Y-24.183
X-19.518 Y-24.333
X-19.532 Y-24.337
X-20.05 Y-24.475
X-20.065 Y-24.478
X-20.566 Y-24.601
X-21.027 Y-24.731
X-21.474 Y-24.876
X-21.907 Y-25.036
X-22.327 Y-25.211
X-22.734 Y-25.401
X-23.129 Y-25.606
X-23.511 Y-25.825
X-23.881 Y-26.06
X-24.24 Y-26.308
X-24.586 Y-26.571
X-24.921 Y-26.848
X-25.243 Y-27.138
X-25.555 Y-27.442
X-25.855 Y-27.76
X-26.143 Y-28.09
X-26.42 Y-28.433
X-26.685 Y-28.789
X-26.938 Y-29.157
X-27.18 Y-29.537
X-27.409 Y-29.928
X-27.627 Y-30.33
X-27.832 Y-30.743
X-28.024 Y-31.166
X-28.205 Y-31.599
X-28.372 Y-32.042
X-28.526 Y-32.494
X-28.667 Y-32.954
X-28.794 Y-33.423
X-28.847 Y-33.647
Z-0.625
X-28.907 Y-33.899
X-29.006 Y-34.383
X-29.091 Y-34.874
X-29.161 Y-35.372
X-29.216 Y-35.875
X-29.256 Y-36.385
X-29.279 Y-36.9
X-29.282 Y-37.12
Z-1 F300
X-29.287 Y-37.421 F600
X-29.278 Y-37.946
X-29.252 Y-38.476
X-29.209 Y-39.01
X-29.148 Y-39.549
X-29.069 Y-40.091
X-28.971 Y-40.636
X-28.854 Y-41.185
X-28.717 Y-41.736
X-28.56 Y-42.291
X-28.383 Y-42.848
X-28.184 Y-43.408
X-27.964 Y-43.97
X-27.721 Y-44.534
X-27.456 Y-45.1
X-27.167 Y-45.669
X-26.854 Y-46.239
X-26.517 Y-46.81
X-26.155 Y-47.384
X-25.767 Y-47.958
X-25.354 Y-48.535
X-24.914 Y-49.112
X-24.447 Y-49.691
X-23.953 Y-50.271
X-23.431 Y-50.851
X-22.881 Y-51.433
X-22.303 Y-52.016
X-21.696 Y-52.6
X-21.058 Y-53.187
G2 X-22.92 Y-57.078 I-1.509 J-1.669
X-36.567 Y-52.482 I6.788 J42.714
G1 Z-0.625
G2 X-39.582 Y-50.705 I20.435 J38.118
G1 Z-1 F300
G2 X-57.066 Y-28.326 I23.45 J36.341 F600
G1 Z-0.625
G2 X-58.061 Y-24.971 I40.934 J13.962
G1 Z-1 F300
G2 X-59.01 Y-20.029 I41.929 J10.607 F600
G1 X-59.023 Y-19.984
X-59.049 Y-19.946
X-59.087 Y-19.917
X-59.131 Y-19.901
X-59.178 Y-19.9
X-59.327 Y-19.92
X-59.373 Y-19.926 Z-0.993
X-59.414 Y-19.931 Z-0.971
X-59.447 Y-19.936 Z-0.938
X-59.468 Y-19.938 Z-0.896
X-59.475 Y-19.939 Z-0.85
G0 Z15

(Bohrfrasen3)
X-81.243 Y-20.363
Z15
Z2
G1 Z0.15 F400
X-81.236 Z0.104
X-81.215 Z0.062
X-81.181 Z0.029
X-81.14 Z0.007
X-81.093 Z0
X-81.018
X-80.972 Y-20.356
X-80.93 Y-20.334
X-80.897 Y-20.301
X-80.876 Y-20.259
X-80.868 Y-20.213
G3 X-82.368 Y-20.213 Z-0.5 I-0.75 J0 F600
X-80.868 Y-20.213 Z-1 I0.75 J0
X-82.368 Y-20.213 I-0.75 J0
X-80.868 Y-20.213 I0.75 J0
G1 X-80.876 Y-20.167
X-80.897 Y-20.125
X-80.93 Y-20.092
X-80.972 Y-20.07
X-81.018 Y-20.063
X-81.093
X-81.14 Z-0.993
X-81.181 Z-0.971
X-81.215 Z-0.938
X-81.236 Z-0.896
X-81.243 Z-0.85
G0 Z5
X-68.891 Y-15.063
Z2
G1 Z0.15 F400
X-68.883 Z0.104
X-68.862 Z0.062
X-68.829 Z0.029
X-68.787 Z0.007
X-68.741 Z0
X-68.666
X-68.619 Y-15.055
X-68.577 Y-15.034
X-68.544 Y-15.001
X-68.523 Y-14.959
X-68.516 Y-14.913
G3 X-70.816 Y-14.913 Z-0.5 I-1.15 J0 F600
X-68.516 Y-14.913 Z-1 I1.15 J0
X-70.816 Y-14.913 I-1.15 J0
X-68.516 Y-14.913 I1.15 J0
G1 X-68.523 Y-14.866
X-68.544 Y-14.824
X-68.577 Y-14.791
X-68.619 Y-14.77
X-68.666 Y-14.763
X-68.741
X-68.787 Z-0.993
X-68.829 Z-0.971
X-68.862 Z-0.938
X-68.883 Z-0.896
X-68.891 Z-0.85
G0 Z5
X-74.606 Y-18.981
Z2
G1 Z0.15 F400
X-74.598 Z0.104
X-74.577 Z0.062
X-74.544 Z0.029
X-74.502 Z0.007
X-74.456 Z0
X-74.381
X-74.334 Y-18.973
X-74.292 Y-18.952
X-74.259 Y-18.919
X-74.238 Y-18.877
X-74.231 Y-18.831
G3 X-75.131 Y-18.831 Z-0.5 I-0.45 J0 F600
X-74.231 Y-18.831 Z-1 I0.45 J0
X-75.131 Y-18.831 I-0.45 J0
X-74.231 Y-18.831 I0.45 J0
G1 X-74.238 Y-18.784
X-74.259 Y-18.742
X-74.292 Y-18.709
X-74.334 Y-18.688
X-74.381 Y-18.681
X-74.456
X-74.502 Z-0.993
X-74.544 Z-0.971
X-74.577 Z-0.938
X-74.598 Z-0.896
X-74.606 Z-0.85
G0 Z5
X-77.824 Y-13.966
Z2
G1 Z0.15 F400
X-77.816 Z0.104
X-77.795 Z0.062
X-77.762 Z0.029
X-77.72 Z0.007
X-77.674 Z0
X-77.599
X-77.552 Y-13.958
X-77.51 Y-13.937
X-77.477 Y-13.904
X-77.456 Y-13.862
X-77.449 Y-13.816
G3 X-79.749 Y-13.816 Z-0.5 I-1.15 J0 F600
X-77.449 Y-13.816 Z-1 I1.15 J0
X-79.749 Y-13.816 I-1.15 J0
X-77.449 Y-13.816 I1.15 J0
G1 X-77.456 Y-13.769
X-77.477 Y-13.728
X-77.51 Y-13.694
X-77.552 Y-13.673
X-77.599 Y-13.666
X-77.674
X-77.72 Z-0.993
X-77.762 Z-0.971
X-77.795 Z-0.938
X-77.816 Z-0.896
X-77.824 Z-0.85
G0 Z5
X-73.509 Y-10.048
Z2
G1 Z0.15 F400
X-73.501 Z0.104
X-73.48 Z0.062
X-73.447 Z0.029
X-73.405 Z0.007
X-73.359 Z0
X-73.284
X-73.237 Y-10.04
X-73.196 Y-10.019
X-73.162 Y-9.986
X-73.141 Y-9.944
X-73.134 Y-9.898
G3 X-74.034 Y-9.898 Z-0.5 I-0.45 J0 F600
X-73.134 Y-9.898 Z-1 I0.45 J0
X-74.034 Y-9.898 I-0.45 J0
X-73.134 Y-9.898 I0.45 J0
G1 X-73.141 Y-9.851
X-73.162 Y-9.81
X-73.196 Y-9.776
X-73.237 Y-9.755
X-73.284 Y-9.748
X-73.359
X-73.405 Z-0.993
X-73.447 Z-0.971
X-73.48 Z-0.938
X-73.501 Z-0.896
X-73.509 Z-0.85
G0 Z5
X-66.271 Y-8.665
Z2
G1 Z0.15 F400
X-66.264 Z0.104
X-66.242 Z0.062
X-66.209 Z0.029
X-66.167 Z0.007
X-66.121 Z0
X-66.046
X-66 Y-8.658
X-65.958 Y-8.637
X-65.925 Y-8.604
X-65.903 Y-8.562
X-65.896 Y-8.515
G3 X-67.396 Y-8.515 Z-0.5 I-0.75 J0 F600
X-65.896 Y-8.515 Z-1 I0.75 J0
X-67.396 Y-8.515 I-0.75 J0
X-65.896 Y-8.515 I0.75 J0
G1 X-65.903 Y-8.469
X-65.925 Y-8.427
X-65.958 Y-8.394
X-66 Y-8.373
X-66.046 Y-8.365
X-66.121
X-66.167 Z-0.993
X-66.209 Z-0.971
X-66.242 Z-0.938
X-66.264 Z-0.896
X-66.271 Z-0.85
G0 Z15

(2D-Kontur4)
X-103.698 Y-37.756
Z15
Z5
G1 Z1.3 F300
Z-0.15
X-103.704 Y-37.761 Z-0.196 F400
X-103.72 Y-37.774 Z-0.238
X-103.746 Y-37.795 Z-0.271
X-103.779 Y-37.821 Z-0.293
X-103.815 Y-37.85 Z-0.3
X-103.932 Y-37.943
X-103.964 Y-37.978
X-103.983 Y-38.021
X-103.989 Y-38.067
X-103.979 Y-38.113
X-103.956 Y-38.154
G3 X-88.827 Y-49.57 I29.824 J23.79 F600
G1 X-88.804 Y-49.578
X-88.818 Y-49.551
X-89.253 Y-48.82
X-89.265 Y-48.798
X-89.679 Y-48.045
X-89.691 Y-48.022
X-90.073 Y-47.266
X-90.085 Y-47.243
X-90.435 Y-46.485
X-90.446 Y-46.461
X-90.764 Y-45.703
X-90.774 Y-45.678
X-91.061 Y-44.921
X-91.07 Y-44.895
X-91.327 Y-44.138
X-91.335 Y-44.113
X-91.561 Y-43.357
X-91.568 Y-43.332
X-91.765 Y-42.578
X-91.771 Y-42.552
X-91.939 Y-41.801
X-91.945 Y-41.774
X-92.084 Y-41.026
X-92.089 Y-41
X-92.2 Y-40.255
X-92.203 Y-40.229
X-92.288 Y-39.489
X-92.29 Y-39.463
X-92.348 Y-38.727
X-92.35 Y-38.701
X-92.381 Y-37.971
X-92.382 Y-37.945
X-92.388 Y-37.22
Y-37.194
X-92.369 Y-36.477
X-92.367 Y-36.451
X-92.324 Y-35.74
X-92.322 Y-35.715
X-92.255 Y-35.012
X-92.252 Y-34.986
X-92.162 Y-34.292
X-92.158 Y-34.267
X-92.045 Y-33.581
X-92.04 Y-33.556
X-91.905 Y-32.88
X-91.9 Y-32.855
X-91.743 Y-32.188
X-91.737 Y-32.163
X-91.558 Y-31.505
X-91.551 Y-31.48
X-91.351 Y-30.832
X-91.343 Y-30.807
X-91.122 Y-30.168
X-91.112 Y-30.143
X-90.869 Y-29.516
X-90.859 Y-29.491
X-90.594 Y-28.875
X-90.582 Y-28.849
X-90.295 Y-28.246
X-90.283 Y-28.221
X-89.974 Y-27.631
X-89.96 Y-27.605
X-89.63 Y-27.029
X-89.614 Y-27.003
X-89.274 Y-26.46
X-89.259 Y-26.432
X-89.289 Y-26.441
X-89.902 Y-26.664
X-89.932 Y-26.674
X-90.575 Y-26.877
X-90.604 Y-26.885
X-91.255 Y-27.062
X-91.285 Y-27.069
X-91.944 Y-27.22
X-91.974 Y-27.226
X-92.64 Y-27.35
X-92.669 Y-27.355
X-93.342 Y-27.453
X-93.371 Y-27.457
X-94.05 Y-27.529
X-94.078 Y-27.532
X-94.763 Y-27.579
X-94.79 Y-27.58
X-95.479 Y-27.602
X-95.507
X-96.199 Y-27.599
X-96.226 Y-27.598
X-96.922 Y-27.569
X-96.949 Y-27.568
X-97.648 Y-27.514
X-97.675 Y-27.511
X-98.377 Y-27.431
X-98.404 Y-27.428
X-99.108 Y-27.321
X-99.135 Y-27.316
X-99.841 Y-27.183
X-99.868 Y-27.178
X-100.575 Y-27.017
X-100.601 Y-27.011
X-101.308 Y-26.823
X-101.335 Y-26.815
X-102.042 Y-26.6
X-102.068 Y-26.591
X-102.773 Y-26.347
X-102.799 Y-26.338
X-103.503 Y-26.065
X-103.528 Y-26.055
X-104.23 Y-25.754
X-104.255 Y-25.742
X-104.953 Y-25.411
X-104.977 Y-25.399
X-105.671 Y-25.039
X-105.695 Y-25.026
X-106.385 Y-24.635
X-106.408 Y-24.621
X-107.093 Y-24.2
X-107.115 Y-24.186
X-107.793 Y-23.734
X-107.816 Y-23.718
X-108.487 Y-23.235
X-108.508 Y-23.219
X-109.172 Y-22.705
X-109.193 Y-22.688
X-109.849 Y-22.141
X-109.868 Y-22.124
X-110.515 Y-21.546
X-110.534 Y-21.529
X-111.171 Y-20.918
X-111.189 Y-20.901
X-111.8 Y-20.276
X-111.822 Y-20.256
X-111.821 Y-20.28
G3 X-103.956 Y-38.154 I37.689 J5.915
G1 X-103.921 Y-38.186
X-103.879 Y-38.205
X-103.832 Y-38.21
X-103.786 Y-38.201
X-103.745 Y-38.178
X-103.628 Y-38.084
X-103.592 Y-38.055 Z-0.293
X-103.559 Y-38.029 Z-0.271
X-103.533 Y-38.009 Z-0.238
X-103.516 Y-37.995 Z-0.196
X-103.511 Y-37.991 Z-0.15
G0 Z5
X-103.698 Y-37.756
G1 Z1 F300
Z-0.45
X-103.704 Y-37.761 Z-0.496 F400
X-103.72 Y-37.774 Z-0.538
X-103.746 Y-37.795 Z-0.571
X-103.779 Y-37.821 Z-0.593
X-103.815 Y-37.85 Z-0.6
X-103.932 Y-37.943
X-103.964 Y-37.978
X-103.983 Y-38.021
X-103.989 Y-38.067
X-103.979 Y-38.113
X-103.956 Y-38.154
G3 X-88.827 Y-49.57 I29.824 J23.79 F600
G1 X-88.804 Y-49.578
X-88.818 Y-49.551
X-89.253 Y-48.82
X-89.265 Y-48.798
X-89.679 Y-48.045
X-89.691 Y-48.022
X-90.073 Y-47.266
X-90.085 Y-47.243
X-90.435 Y-46.485
X-90.446 Y-46.461
X-90.764 Y-45.703
X-90.774 Y-45.678
X-91.061 Y-44.921
X-91.07 Y-44.895
X-91.327 Y-44.138
X-91.335 Y-44.113
X-91.561 Y-43.357
X-91.568 Y-43.332
X-91.765 Y-42.578
X-91.771 Y-42.552
X-91.939 Y-41.801
X-91.945 Y-41.774
X-92.084 Y-41.026
X-92.089 Y-41
X-92.2 Y-40.255
X-92.203 Y-40.229
X-92.288 Y-39.489
X-92.29 Y-39.463
X-92.348 Y-38.727
X-92.35 Y-38.701
X-92.381 Y-37.971
X-92.382 Y-37.945
X-92.388 Y-37.22
Y-37.194
X-92.369 Y-36.477
X-92.367 Y-36.451
X-92.324 Y-35.74
X-92.322 Y-35.715
X-92.255 Y-35.012
X-92.252 Y-34.986
X-92.162 Y-34.292
X-92.158 Y-34.267
X-92.045 Y-33.581
X-92.04 Y-33.556
X-91.905 Y-32.88
X-91.9 Y-32.855
X-91.743 Y-32.188
X-91.737 Y-32.163
X-91.558 Y-31.505
X-91.551 Y-31.48
X-91.351 Y-30.832
X-91.343 Y-30.807
X-91.122 Y-30.168
X-91.112 Y-30.143
X-90.869 Y-29.516
X-90.859 Y-29.491
X-90.594 Y-28.875
X-90.582 Y-28.849
X-90.295 Y-28.246
X-90.283 Y-28.221
X-89.974 Y-27.631
X-89.96 Y-27.605
X-89.63 Y-27.029
X-89.614 Y-27.003
X-89.274 Y-26.46
X-89.259 Y-26.432
X-89.289 Y-26.441
X-89.902 Y-26.664
X-89.932 Y-26.674
X-90.575 Y-26.877
X-90.604 Y-26.885
X-91.255 Y-27.062
X-91.285 Y-27.069
X-91.944 Y-27.22
X-91.974 Y-27.226
X-92.64 Y-27.35
X-92.669 Y-27.355
X-93.342 Y-27.453
X-93.371 Y-27.457
X-94.05 Y-27.529
X-94.078 Y-27.532
X-94.763 Y-27.579
X-94.79 Y-27.58
X-95.479 Y-27.602
X-95.507
X-96.199 Y-27.599
X-96.226 Y-27.598
X-96.922 Y-27.569
X-96.949 Y-27.568
X-97.648 Y-27.514
X-97.675 Y-27.511
X-98.377 Y-27.431
X-98.404 Y-27.428
X-99.108 Y-27.321
X-99.135 Y-27.316
X-99.841 Y-27.183
X-99.868 Y-27.178
X-100.575 Y-27.017
X-100.601 Y-27.011
X-101.308 Y-26.823
X-101.335 Y-26.815
X-102.042 Y-26.6
X-102.068 Y-26.591
X-102.773 Y-26.347
X-102.799 Y-26.338
X-103.503 Y-26.065
X-103.528 Y-26.055
X-104.23 Y-25.754
X-104.255 Y-25.742
X-104.953 Y-25.411
X-104.977 Y-25.399
X-105.671 Y-25.039
X-105.695 Y-25.026
X-106.385 Y-24.635
X-106.408 Y-24.621
X-107.093 Y-24.2
X-107.115 Y-24.186
X-107.793 Y-23.734
X-107.816 Y-23.718
X-108.487 Y-23.235
X-108.508 Y-23.219
X-109.172 Y-22.705
X-109.193 Y-22.688
X-109.849 Y-22.141
X-109.868 Y-22.124
X-110.515 Y-21.546
X-110.534 Y-21.529
X-111.171 Y-20.918
X-111.189 Y-20.901
X-111.8 Y-20.276
X-111.822 Y-20.256
X-111.821 Y-20.28
G3 X-103.956 Y-38.154 I37.689 J5.915
G1 X-103.921 Y-38.186
X-103.879 Y-38.205
X-103.832 Y-38.21
X-103.786 Y-38.201
X-103.745 Y-38.178
X-103.628 Y-38.084
X-103.592 Y-38.055 Z-0.593
X-103.559 Y-38.029 Z-0.571
X-103.533 Y-38.009 Z-0.538
X-103.516 Y-37.995 Z-0.496
X-103.511 Y-37.991 Z-0.45
G0 Z5
X-103.698 Y-37.756
G1 Z0.7 F300
Z-0.75
X-103.704 Y-37.761 Z-0.796 F400
X-103.72 Y-37.774 Z-0.838
X-103.746 Y-37.795 Z-0.871
X-103.779 Y-37.821 Z-0.893
X-103.815 Y-37.85 Z-0.9
X-103.932 Y-37.943
X-103.964 Y-37.978
X-103.983 Y-38.021
X-103.989 Y-38.067
X-103.979 Y-38.113
X-103.956 Y-38.154
G3 X-88.827 Y-49.57 I29.824 J23.79 F600
G1 X-88.804 Y-49.578
X-88.818 Y-49.551
X-89.253 Y-48.82
X-89.265 Y-48.798
X-89.679 Y-48.045
X-89.691 Y-48.022
X-90.073 Y-47.266
X-90.085 Y-47.243
X-90.435 Y-46.485
X-90.446 Y-46.461
X-90.764 Y-45.703
X-90.774 Y-45.678
X-91.061 Y-44.921
X-91.07 Y-44.895
X-91.327 Y-44.138
X-91.335 Y-44.113
X-91.561 Y-43.357
X-91.568 Y-43.332
X-91.765 Y-42.578
X-91.771 Y-42.552
X-91.939 Y-41.801
X-91.945 Y-41.774
X-92.084 Y-41.026
X-92.089 Y-41
X-92.2 Y-40.255
X-92.203 Y-40.229
X-92.288 Y-39.489
X-92.29 Y-39.463
X-92.348 Y-38.727
X-92.35 Y-38.701
X-92.381 Y-37.971
X-92.382 Y-37.945
X-92.388 Y-37.22
Y-37.194
X-92.369 Y-36.477
X-92.367 Y-36.451
X-92.324 Y-35.74
X-92.322 Y-35.715
X-92.255 Y-35.012
X-92.252 Y-34.986
X-92.162 Y-34.292
X-92.158 Y-34.267
X-92.045 Y-33.581
X-92.04 Y-33.556
X-91.905 Y-32.88
X-91.9 Y-32.855
X-91.743 Y-32.188
X-91.737 Y-32.163
X-91.558 Y-31.505
X-91.551 Y-31.48
X-91.351 Y-30.832
X-91.343 Y-30.807
X-91.122 Y-30.168
X-91.112 Y-30.143
X-90.869 Y-29.516
X-90.859 Y-29.491
X-90.594 Y-28.875
X-90.582 Y-28.849
X-90.295 Y-28.246
X-90.283 Y-28.221
X-89.974 Y-27.631
X-89.96 Y-27.605
X-89.63 Y-27.029
X-89.614 Y-27.003
X-89.274 Y-26.46
X-89.259 Y-26.432
X-89.289 Y-26.441
X-89.902 Y-26.664
X-89.932 Y-26.674
X-90.575 Y-26.877
X-90.604 Y-26.885
X-91.255 Y-27.062
X-91.285 Y-27.069
X-91.944 Y-27.22
X-91.974 Y-27.226
X-92.64 Y-27.35
X-92.669 Y-27.355
X-93.342 Y-27.453
X-93.371 Y-27.457
X-94.05 Y-27.529
X-94.078 Y-27.532
X-94.763 Y-27.579
X-94.79 Y-27.58
X-95.479 Y-27.602
X-95.507
X-96.199 Y-27.599
X-96.226 Y-27.598
X-96.922 Y-27.569
X-96.949 Y-27.568
X-97.648 Y-27.514
X-97.675 Y-27.511
X-98.377 Y-27.431
X-98.404 Y-27.428
X-99.108 Y-27.321
X-99.135 Y-27.316
X-99.841 Y-27.183
X-99.868 Y-27.178
X-100.575 Y-27.017
X-100.601 Y-27.011
X-101.308 Y-26.823
X-101.335 Y-26.815
X-102.042 Y-26.6
X-102.068 Y-26.591
X-102.773 Y-26.347
X-102.799 Y-26.338
X-103.503 Y-26.065
X-103.528 Y-26.055
X-104.23 Y-25.754
X-104.255 Y-25.742
X-104.953 Y-25.411
X-104.977 Y-25.399
X-105.671 Y-25.039
X-105.695 Y-25.026
X-106.385 Y-24.635
X-106.408 Y-24.621
X-107.093 Y-24.2
X-107.115 Y-24.186
X-107.793 Y-23.734
X-107.816 Y-23.718
X-108.487 Y-23.235
X-108.508 Y-23.219
X-109.172 Y-22.705
X-109.193 Y-22.688
X-109.849 Y-22.141
X-109.868 Y-22.124
X-110.515 Y-21.546
X-110.534 Y-21.529
X-111.171 Y-20.918
X-111.189 Y-20.901
X-111.8 Y-20.276
X-111.822 Y-20.256
X-111.821 Y-20.28
G3 X-103.956 Y-38.154 I37.689 J5.915
G1 X-103.921 Y-38.186
X-103.879 Y-38.205
X-103.832 Y-38.21
X-103.786 Y-38.201
X-103.745 Y-38.178
X-103.628 Y-38.084
X-103.592 Y-38.055 Z-0.893
X-103.559 Y-38.029 Z-0.871
X-103.533 Y-38.009 Z-0.838
X-103.516 Y-37.995 Z-0.796
X-103.511 Y-37.991 Z-0.75
G0 Z5
X-103.698 Y-37.756
G1 Z0.4 F300
Z-0.85
X-103.704 Y-37.761 Z-0.896 F400
X-103.72 Y-37.774 Z-0.938
X-103.746 Y-37.795 Z-0.971
X-103.779 Y-37.821 Z-0.993
X-103.815 Y-37.85 Z-1
X-103.932 Y-37.943
X-103.964 Y-37.978
X-103.983 Y-38.021
X-103.989 Y-38.067
X-103.979 Y-38.113
X-103.956 Y-38.154
G3 X-88.827 Y-49.57 I29.824 J23.79 F600
G1 X-88.804 Y-49.578
X-88.818 Y-49.551
X-89.253 Y-48.82
X-89.265 Y-48.798
X-89.679 Y-48.045
X-89.691 Y-48.022
X-90.073 Y-47.266
X-90.085 Y-47.243
X-90.435 Y-46.485
X-90.446 Y-46.461
X-90.764 Y-45.703
X-90.774 Y-45.678
X-91.061 Y-44.921
X-91.07 Y-44.895
X-91.327 Y-44.138
X-91.335 Y-44.113
X-91.561 Y-43.357
X-91.568 Y-43.332
X-91.765 Y-42.578
X-91.771 Y-42.552
X-91.939 Y-41.801
X-91.945 Y-41.774
X-92.084 Y-41.026
X-92.089 Y-41
X-92.2 Y-40.255
X-92.203 Y-40.229
X-92.288 Y-39.489
X-92.29 Y-39.463
X-92.348 Y-38.727
X-92.35 Y-38.701
X-92.381 Y-37.971
X-92.382 Y-37.945
X-92.388 Y-37.22
Y-37.194
X-92.369 Y-36.477
X-92.367 Y-36.451
X-92.324 Y-35.74
X-92.322 Y-35.715
X-92.255 Y-35.012
X-92.252 Y-34.986
X-92.162 Y-34.292
X-92.158 Y-34.267
X-92.045 Y-33.581
X-92.04 Y-33.556
X-91.905 Y-32.88
X-91.9 Y-32.855
X-91.743 Y-32.188
X-91.737 Y-32.163
X-91.558 Y-31.505
X-91.551 Y-31.48
X-91.351 Y-30.832
X-91.343 Y-30.807
X-91.122 Y-30.168
X-91.112 Y-30.143
X-90.869 Y-29.516
X-90.859 Y-29.491
X-90.594 Y-28.875
X-90.582 Y-28.849
X-90.295 Y-28.246
X-90.283 Y-28.221
X-89.974 Y-27.631
X-89.96 Y-27.605
X-89.63 Y-27.029
X-89.614 Y-27.003
X-89.274 Y-26.46
X-89.259 Y-26.432
X-89.289 Y-26.441
X-89.902 Y-26.664
X-89.932 Y-26.674
X-90.575 Y-26.877
X-90.604 Y-26.885
X-91.255 Y-27.062
X-91.285 Y-27.069
X-91.944 Y-27.22
X-91.974 Y-27.226
X-92.64 Y-27.35
X-92.669 Y-27.355
X-93.342 Y-27.453
X-93.371 Y-27.457
X-94.05 Y-27.529
X-94.078 Y-27.532
X-94.763 Y-27.579
X-94.79 Y-27.58
X-95.479 Y-27.602
X-95.507
X-96.199 Y-27.599
X-96.226 Y-27.598
X-96.922 Y-27.569
X-96.949 Y-27.568
X-97.648 Y-27.514
X-97.675 Y-27.511
X-98.377 Y-27.431
X-98.404 Y-27.428
X-99.108 Y-27.321
X-99.135 Y-27.316
X-99.841 Y-27.183
X-99.868 Y-27.178
X-100.575 Y-27.017
X-100.601 Y-27.011
X-101.308 Y-26.823
X-101.335 Y-26.815
X-102.042 Y-26.6
X-102.068 Y-26.591
X-102.773 Y-26.347
X-102.799 Y-26.338
X-103.503 Y-26.065
X-103.528 Y-26.055
X-104.23 Y-25.754
X-104.255 Y-25.742
X-104.953 Y-25.411
X-104.977 Y-25.399
X-105.671 Y-25.039
X-105.695 Y-25.026
X-106.385 Y-24.635
X-106.408 Y-24.621
X-107.093 Y-24.2
X-107.115 Y-24.186
X-107.793 Y-23.734
X-107.816 Y-23.718
X-108.487 Y-23.235
X-108.508 Y-23.219
X-109.172 Y-22.705
X-109.193 Y-22.688
X-109.849 Y-22.141
X-109.868 Y-22.124
X-110.515 Y-21.546
X-110.534 Y-21.529
X-111.171 Y-20.918
X-111.189 Y-20.901
X-111.8 Y-20.276
X-111.822 Y-20.256
X-111.821 Y-20.28
G3 X-103.956 Y-38.154 I37.689 J5.915
G1 X-103.921 Y-38.186
X-103.879 Y-38.205
X-103.832 Y-38.21
X-103.786 Y-38.201
X-103.745 Y-38.178
X-103.628 Y-38.084
X-103.592 Y-38.055 Z-0.993
X-103.559 Y-38.029 Z-0.971
X-103.533 Y-38.009 Z-0.938
X-103.516 Y-37.995 Z-0.896
X-103.511 Y-37.991 Z-0.85
G0 Z15

(2D-Kontur5)
X-117.436 Y-20.237
Z15
Z5
G1 Z1.3 F300
Z-0.15
X-117.429 Y-20.236 Z-0.196 F400
X-117.408 Y-20.233 Z-0.238
X-117.375 Y-20.229 Z-0.271
X-117.333 Y-20.223 Z-0.293
X-117.287 Y-20.217 Z-0.3
X-117.139 Y-20.198
X-117.094 Y-20.184
X-117.055 Y-20.158
X-117.026 Y-20.12
X-117.011 Y-20.076
X-117.01 Y-20.029
G2 X-117.219 Y-10.617 I42.877 J5.665 F600
X-112.993 Y-9.752 I2.242 J-0.195
G1 X-112.561 Y-10.546
X-112.125 Y-11.307
X-111.684 Y-12.04
X-111.238 Y-12.743
X-110.787 Y-13.418
X-110.331 Y-14.064
X-109.871 Y-14.683
X-109.407 Y-15.273
X-108.938 Y-15.837
X-108.465 Y-16.374
X-107.988 Y-16.884
X-107.508 Y-17.369
X-107.024 Y-17.828
X-106.537 Y-18.263
X-106.048 Y-18.673
X-105.555 Y-19.059
X-105.06 Y-19.422
X-104.563 Y-19.763
X-104.064 Y-20.081
X-103.563 Y-20.377
X-103.061 Y-20.653
X-102.558 Y-20.907
X-102.054 Y-21.141
X-101.55 Y-21.355
X-101.045 Y-21.55
X-100.54 Y-21.725
X-100.036 Y-21.882
X-99.533 Y-22.02
X-99.031 Y-22.141
X-98.531 Y-22.243
X-98.032 Y-22.329
X-97.536 Y-22.397
X-97.043 Y-22.448
X-96.552 Y-22.482
X-96.066 Y-22.5
X-95.583 Y-22.502
X-95.105 Y-22.487
X-94.631 Y-22.457
X-94.163 Y-22.411
X-93.7 Y-22.349
X-93.243 Y-22.272
X-92.793 Y-22.18
X-92.35 Y-22.072
X-91.914 Y-21.948
X-91.485 Y-21.81
X-91.065 Y-21.657
X-90.653 Y-21.488
X-90.25 Y-21.304
X-89.855 Y-21.105
X-89.47 Y-20.891
X-89.094 Y-20.661
X-88.728 Y-20.416
X-88.371 Y-20.156
X-88.025 Y-19.88
X-87.689 Y-19.588
X-87.363 Y-19.28
X-87.048 Y-18.955
X-86.744 Y-18.615
X-86.45 Y-18.257
X-86.167 Y-17.883
X-85.896 Y-17.491
X-85.635 Y-17.081
X-85.385 Y-16.654
X-85.142 Y-16.2
X-84.898 Y-15.734
X-84.89 Y-15.72
X-84.631 Y-15.251
X-84.624 Y-15.238
X-84.353 Y-14.77
X-84.346 Y-14.757
X-84.064 Y-14.291
X-84.056 Y-14.279
X-83.765 Y-13.816
X-83.757 Y-13.804
X-83.456 Y-13.347
X-83.448 Y-13.335
X-83.14 Y-12.884
X-83.131 Y-12.873
X-82.815 Y-12.429
X-82.806 Y-12.417
X-82.484 Y-11.983
X-82.474 Y-11.971
X-82.145 Y-11.548
X-82.136 Y-11.535
X-81.801 Y-11.123
X-81.791 Y-11.11
X-81.451 Y-10.709
X-81.439 Y-10.696
X-81.095 Y-10.309
X-81.083 Y-10.295
X-80.733 Y-9.922
X-80.72 Y-9.908
X-80.366 Y-9.548
X-80.351 Y-9.534
X-79.992 Y-9.19
X-79.976 Y-9.175
X-79.613 Y-8.845
X-79.595 Y-8.83
X-79.226 Y-8.516
X-79.208 Y-8.501
X-78.833 Y-8.203
X-78.814 Y-8.188
X-78.434 Y-7.905
X-78.413 Y-7.89
X-78.027 Y-7.622
X-78.006 Y-7.608
X-77.613 Y-7.354
X-77.592 Y-7.341
X-77.192 Y-7.102
X-77.171 Y-7.089
X-76.765 Y-6.864
X-76.744 Y-6.853
X-76.331 Y-6.64
X-76.31 Y-6.63
X-75.891 Y-6.43
X-75.871 Y-6.421
X-75.445 Y-6.233
X-75.427 Y-6.225
X-74.995 Y-6.048
X-74.978 Y-6.042
X-74.543 Y-5.875
X-74.527 Y-5.869
X-74.087 Y-5.713
X-74.066 Y-5.706
X-73.18 Y-5.419
X-73.152 Y-5.411
X-72.696 Y-5.283
X-72.688 Y-5.281
X-72.242 Y-5.16
X-72.234 Y-5.158
X-71.797 Y-5.045
X-71.789 Y-5.043
X-71.362 Y-4.937
X-71.353 Y-4.935
X-70.935 Y-4.837
X-70.926 Y-4.835
X-70.518 Y-4.745
X-70.508 Y-4.743
X-70.11 Y-4.66
X-70.1 Y-4.658
X-69.711 Y-4.582
X-69.7 Y-4.58
X-69.322 Y-4.513
X-69.31 Y-4.511
X-68.941 Y-4.451
X-68.929 Y-4.449
X-68.57 Y-4.398
X-68.557 Y-4.396
X-68.208 Y-4.352
X-68.194 Y-4.35
X-67.856 Y-4.315
X-67.84 Y-4.313
X-67.512 Y-4.285
X-67.495 Y-4.284
X-67.178 Y-4.265
X-67.159 Y-4.264
X-66.853 Y-4.253
X-66.832
X-66.537 Y-4.25
X-66.515
X-66.23 Y-4.257
X-66.206
X-65.932 Y-4.272
X-65.906 Y-4.274
X-65.644 Y-4.298
X-65.614 Y-4.301
X-65.364 Y-4.334
X-65.332 Y-4.338
X-65.093 Y-4.38
X-65.058 Y-4.387
X-64.831 Y-4.438
X-64.793 Y-4.447
X-64.577 Y-4.507
X-64.537 Y-4.52
X-64.333 Y-4.589
X-64.29 Y-4.605
X-64.098 Y-4.684
X-64.052 Y-4.705
X-63.873 Y-4.793
X-63.825 Y-4.819
X-63.658 Y-4.917
X-63.609 Y-4.948
X-63.454 Y-5.056
X-63.405 Y-5.093
X-63.263 Y-5.21
X-63.216 Y-5.253
X-63.086 Y-5.38
X-63.041 Y-5.428
X-62.924 Y-5.565
X-62.883 Y-5.618
X-62.779 Y-5.764
X-62.743 Y-5.819
X-62.651 Y-5.976
X-62.621 Y-6.033
X-62.541 Y-6.199
X-62.517 Y-6.255
X-62.45 Y-6.431
X-62.432 Y-6.487
X-62.377 Y-6.672
X-62.363 Y-6.725
X-62.321 Y-6.92
X-62.312 Y-6.97
X-62.282 Y-7.175
X-62.277 Y-7.221
X-62.259 Y-7.435
X-62.256 Y-7.478
X-62.25 Y-7.702
Y-7.741
X-62.256 Y-7.973
X-62.258 Y-8.009
X-62.275 Y-8.251
X-62.278 Y-8.283
X-62.307 Y-8.534
X-62.311 Y-8.563
X-62.352 Y-8.823
X-62.356 Y-8.849
X-62.408 Y-9.118
X-62.413 Y-9.142
X-62.476 Y-9.42
X-62.481 Y-9.441
X-62.555 Y-9.727
X-62.56 Y-9.747
X-62.645 Y-10.042
X-62.651 Y-10.06
X-62.746 Y-10.363
X-62.751 Y-10.379
X-62.857 Y-10.69
X-62.863 Y-10.705
X-62.979 Y-11.025
X-62.984 Y-11.039
X-63.111 Y-11.366
X-63.116 Y-11.379
X-63.253 Y-11.714
X-63.258 Y-11.726
X-63.405 Y-12.069
X-63.41 Y-12.08
X-63.567 Y-12.431
X-63.571 Y-12.441
X-63.738 Y-12.8
X-63.743 Y-12.81
X-63.92 Y-13.176
X-63.924 Y-13.185
X-64.11 Y-13.559
X-64.115 Y-13.567
X-64.311 Y-13.949
X-64.315 Y-13.957
X-64.521 Y-14.346
X-64.525 Y-14.353
X-64.74 Y-14.75
X-64.744 Y-14.757
X-64.969 Y-15.161
X-64.973 Y-15.167
X-65.207 Y-15.579
X-65.222 Y-15.604
X-65.715 Y-16.395
X-65.727 Y-16.413
X-65.985 Y-16.802
X-65.995 Y-16.816
X-66.261 Y-17.199
X-66.272 Y-17.214
X-66.548 Y-17.589
X-66.56 Y-17.605
X-66.846 Y-17.973
X-66.859 Y-17.99
X-67.155 Y-18.348
X-67.169 Y-18.366
X-67.475 Y-18.715
X-67.491 Y-18.733
X-67.809 Y-19.073
X-67.826 Y-19.09
X-68.154 Y-19.42
X-68.173 Y-19.438
X-68.514 Y-19.757
X-68.532 Y-19.774
X-68.886 Y-20.084
X-68.905 Y-20.101
X-69.272 Y-20.401
X-69.291 Y-20.416
X-69.671 Y-20.707
X-69.69 Y-20.722
X-70.084 Y-21.004
X-70.103 Y-21.017
X-70.51 Y-21.29
X-70.529 Y-21.302
X-70.949 Y-21.567
X-70.967 Y-21.578
X-71.401 Y-21.834
X-71.418 Y-21.844
X-71.865 Y-22.093
X-71.882 Y-22.101
X-72.341 Y-22.342
X-72.356 Y-22.35
X-72.827 Y-22.582
X-72.842 Y-22.59
X-73.323 Y-22.814
X-73.337 Y-22.821
X-73.828 Y-23.037
X-73.842 Y-23.043
X-74.341 Y-23.252
X-74.355 Y-23.257
X-74.861 Y-23.457
X-74.875 Y-23.462
X-75.387 Y-23.653
X-75.401 Y-23.657
X-75.917 Y-23.839
X-75.931 Y-23.843
X-76.45 Y-24.014
X-76.463 Y-24.019
X-76.984 Y-24.179
X-76.998 Y-24.183
X-77.518 Y-24.333
X-77.532 Y-24.337
X-78.05 Y-24.475
X-78.065 Y-24.478
X-78.566 Y-24.601
X-79.027 Y-24.731
X-79.474 Y-24.876
X-79.907 Y-25.036
X-80.327 Y-25.211
X-80.734 Y-25.401
X-81.129 Y-25.606
X-81.511 Y-25.825
X-81.881 Y-26.06
X-82.24 Y-26.308
X-82.586 Y-26.571
X-82.921 Y-26.848
X-83.243 Y-27.138
X-83.555 Y-27.442
X-83.855 Y-27.76
X-84.143 Y-28.09
X-84.42 Y-28.433
X-84.685 Y-28.789
X-84.938 Y-29.157
X-85.18 Y-29.537
X-85.409 Y-29.928
X-85.627 Y-30.33
X-85.832 Y-30.743
X-86.024 Y-31.166
X-86.205 Y-31.599
X-86.372 Y-32.042
X-86.526 Y-32.494
X-86.667 Y-32.954
X-86.794 Y-33.423
X-86.907 Y-33.899
X-87.006 Y-34.383
X-87.091 Y-34.874
X-87.161 Y-35.372
X-87.216 Y-35.875
X-87.256 Y-36.385
X-87.279 Y-36.9
X-87.287 Y-37.421
X-87.278 Y-37.946
X-87.252 Y-38.476
X-87.209 Y-39.01
X-87.148 Y-39.549
X-87.069 Y-40.091
X-86.971 Y-40.636
X-86.854 Y-41.185
X-86.717 Y-41.736
X-86.56 Y-42.291
X-86.383 Y-42.848
X-86.184 Y-43.408
X-85.964 Y-43.97
X-85.721 Y-44.534
X-85.456 Y-45.1
X-85.167 Y-45.669
X-84.854 Y-46.239
X-84.517 Y-46.81
X-84.155 Y-47.384
X-83.767 Y-47.958
X-83.354 Y-48.535
X-82.914 Y-49.112
X-82.447 Y-49.691
X-81.953 Y-50.271
X-81.431 Y-50.851
X-80.881 Y-51.433
X-80.303 Y-52.016
X-79.696 Y-52.6
X-79.058 Y-53.187
G2 X-80.92 Y-57.078 I-1.509 J-1.669
X-117.01 Y-20.029 I6.788 J42.714
G1 X-117.023 Y-19.984
X-117.049 Y-19.946
X-117.087 Y-19.917
X-117.131 Y-19.901
X-117.178 Y-19.9
X-117.327 Y-19.92
X-117.373 Y-19.926 Z-0.293
X-117.414 Y-19.931 Z-0.271
X-117.447 Y-19.936 Z-0.238
X-117.468 Y-19.938 Z-0.196
X-117.475 Y-19.939 Z-0.15
G0 Z5
X-117.436 Y-20.237
G1 Z1 F300
Z-0.45
X-117.429 Y-20.236 Z-0.496 F400
X-117.408 Y-20.233 Z-0.538
X-117.375 Y-20.229 Z-0.571
X-117.333 Y-20.223 Z-0.593
X-117.287 Y-20.217 Z-0.6
X-117.139 Y-20.198
X-117.094 Y-20.184
X-117.055 Y-20.158
X-117.026 Y-20.12
X-117.011 Y-20.076
X-117.01 Y-20.029
G2 X-117.219 Y-10.617 I42.877 J5.665 F600
X-112.993 Y-9.752 I2.242 J-0.195
G1 X-112.561 Y-10.546
X-112.125 Y-11.307
X-111.684 Y-12.04
X-111.238 Y-12.743
X-110.787 Y-13.418
X-110.331 Y-14.064
X-109.871 Y-14.683
X-109.407 Y-15.273
X-108.938 Y-15.837
X-108.465 Y-16.374
X-107.988 Y-16.884
X-107.508 Y-17.369
X-107.024 Y-17.828
X-106.537 Y-18.263
X-106.048 Y-18.673
X-105.555 Y-19.059
X-105.06 Y-19.422
X-104.563 Y-19.763
X-104.064 Y-20.081
X-103.563 Y-20.377
X-103.061 Y-20.653
X-102.558 Y-20.907
X-102.054 Y-21.141
X-101.55 Y-21.355
X-101.045 Y-21.55
X-100.54 Y-21.725
X-100.036 Y-21.882
X-99.533 Y-22.02
X-99.031 Y-22.141
X-98.531 Y-22.243
X-98.032 Y-22.329
X-97.536 Y-22.397
X-97.043 Y-22.448
X-96.552 Y-22.482
X-96.066 Y-22.5
X-95.583 Y-22.502
X-95.105 Y-22.487
X-94.631 Y-22.457
X-94.163 Y-22.411
X-93.7 Y-22.349
X-93.243 Y-22.272
X-92.793 Y-22.18
X-92.35 Y-22.072
X-91.914 Y-21.948
X-91.485 Y-21.81
X-91.065 Y-21.657
X-90.653 Y-21.488
X-90.25 Y-21.304
X-89.855 Y-21.105
X-89.47 Y-20.891
X-89.094 Y-20.661
X-88.728 Y-20.416
X-88.371 Y-20.156
X-88.025 Y-19.88
X-87.689 Y-19.588
X-87.363 Y-19.28
X-87.048 Y-18.955
X-86.744 Y-18.615
X-86.45 Y-18.257
X-86.167 Y-17.883
X-85.896 Y-17.491
X-85.635 Y-17.081
X-85.385 Y-16.654
X-85.142 Y-16.2
X-84.898 Y-15.734
X-84.89 Y-15.72
X-84.631 Y-15.251
X-84.624 Y-15.238
X-84.353 Y-14.77
X-84.346 Y-14.757
X-84.064 Y-14.291
X-84.056 Y-14.279
X-83.765 Y-13.816
X-83.757 Y-13.804
X-83.456 Y-13.347
X-83.448 Y-13.335
X-83.14 Y-12.884
X-83.131 Y-12.873
X-82.815 Y-12.429
X-82.806 Y-12.417
X-82.484 Y-11.983
X-82.474 Y-11.971
X-82.145 Y-11.548
X-82.136 Y-11.535
X-81.801 Y-11.123
X-81.791 Y-11.11
X-81.451 Y-10.709
X-81.439 Y-10.696
X-81.095 Y-10.309
X-81.083 Y-10.295
X-80.733 Y-9.922
X-80.72 Y-9.908
X-80.366 Y-9.548
X-80.351 Y-9.534
X-79.992 Y-9.19
X-79.976 Y-9.175
X-79.613 Y-8.845
X-79.595 Y-8.83
X-79.226 Y-8.516
X-79.208 Y-8.501
X-78.833 Y-8.203
X-78.814 Y-8.188
X-78.434 Y-7.905
X-78.413 Y-7.89
X-78.027 Y-7.622
X-78.006 Y-7.608
X-77.613 Y-7.354
X-77.592 Y-7.341
X-77.192 Y-7.102
X-77.171 Y-7.089
X-76.765 Y-6.864
X-76.744 Y-6.853
X-76.331 Y-6.64
X-76.31 Y-6.63
X-75.891 Y-6.43
X-75.871 Y-6.421
X-75.445 Y-6.233
X-75.427 Y-6.225
X-74.995 Y-6.048
X-74.978 Y-6.042
X-74.543 Y-5.875
X-74.527 Y-5.869
X-74.087 Y-5.713
X-74.066 Y-5.706
X-73.18 Y-5.419
X-73.152 Y-5.411
X-72.696 Y-5.283
X-72.688 Y-5.281
X-72.242 Y-5.16
X-72.234 Y-5.158
X-71.797 Y-5.045
X-71.789 Y-5.043
X-71.362 Y-4.937
X-71.353 Y-4.935
X-70.935 Y-4.837
X-70.926 Y-4.835
X-70.518 Y-4.745
X-70.508 Y-4.743
X-70.11 Y-4.66
X-70.1 Y-4.658
X-69.711 Y-4.582
X-69.7 Y-4.58
X-69.322 Y-4.513
X-69.31 Y-4.511
X-68.941 Y-4.451
X-68.929 Y-4.449
X-68.57 Y-4.398
X-68.557 Y-4.396
X-68.208 Y-4.352
X-68.194 Y-4.35
X-67.856 Y-4.315
X-67.84 Y-4.313
X-67.512 Y-4.285
X-67.495 Y-4.284
X-67.178 Y-4.265
X-67.159 Y-4.264
X-66.853 Y-4.253
X-66.832
X-66.537 Y-4.25
X-66.515
X-66.23 Y-4.257
X-66.206
X-65.932 Y-4.272
X-65.906 Y-4.274
X-65.644 Y-4.298
X-65.614 Y-4.301
X-65.364 Y-4.334
X-65.332 Y-4.338
X-65.093 Y-4.38
X-65.058 Y-4.387
X-64.831 Y-4.438
X-64.793 Y-4.447
X-64.577 Y-4.507
X-64.537 Y-4.52
X-64.333 Y-4.589
X-64.29 Y-4.605
X-64.098 Y-4.684
X-64.052 Y-4.705
X-63.873 Y-4.793
X-63.825 Y-4.819
X-63.658 Y-4.917
X-63.609 Y-4.948
X-63.454 Y-5.056
X-63.405 Y-5.093
X-63.263 Y-5.21
X-63.216 Y-5.253
X-63.086 Y-5.38
X-63.041 Y-5.428
X-62.924 Y-5.565
X-62.883 Y-5.618
X-62.779 Y-5.764
X-62.743 Y-5.819
X-62.651 Y-5.976
X-62.621 Y-6.033
X-62.541 Y-6.199
X-62.517 Y-6.255
X-62.45 Y-6.431
X-62.432 Y-6.487
X-62.377 Y-6.672
X-62.363 Y-6.725
X-62.321 Y-6.92
X-62.312 Y-6.97
X-62.282 Y-7.175
X-62.277 Y-7.221
X-62.259 Y-7.435
X-62.256 Y-7.478
X-62.25 Y-7.702
Y-7.741
X-62.256 Y-7.973
X-62.258 Y-8.009
X-62.275 Y-8.251
X-62.278 Y-8.283
X-62.307 Y-8.534
X-62.311 Y-8.563
X-62.352 Y-8.823
X-62.356 Y-8.849
X-62.408 Y-9.118
X-62.413 Y-9.142
X-62.476 Y-9.42
X-62.481 Y-9.441
X-62.555 Y-9.727
X-62.56 Y-9.747
X-62.645 Y-10.042
X-62.651 Y-10.06
X-62.746 Y-10.363
X-62.751 Y-10.379
X-62.857 Y-10.69
X-62.863 Y-10.705
X-62.979 Y-11.025
X-62.984 Y-11.039
X-63.111 Y-11.366
X-63.116 Y-11.379
X-63.253 Y-11.714
X-63.258 Y-11.726
X-63.405 Y-12.069
X-63.41 Y-12.08
X-63.567 Y-12.431
X-63.571 Y-12.441
X-63.738 Y-12.8
X-63.743 Y-12.81
X-63.92 Y-13.176
X-63.924 Y-13.185
X-64.11 Y-13.559
X-64.115 Y-13.567
X-64.311 Y-13.949
X-64.315 Y-13.957
X-64.521 Y-14.346
X-64.525 Y-14.353
X-64.74 Y-14.75
X-64.744 Y-14.757
X-64.969 Y-15.161
X-64.973 Y-15.167
X-65.207 Y-15.579
X-65.222 Y-15.604
X-65.715 Y-16.395
X-65.727 Y-16.413
X-65.985 Y-16.802
X-65.995 Y-16.816
X-66.261 Y-17.199
X-66.272 Y-17.214
X-66.548 Y-17.589
X-66.56 Y-17.605
X-66.846 Y-17.973
X-66.859 Y-17.99
X-67.155 Y-18.348
X-67.169 Y-18.366
X-67.475 Y-18.715
X-67.491 Y-18.733
X-67.809 Y-19.073
X-67.826 Y-19.09
X-68.154 Y-19.42
X-68.173 Y-19.438
X-68.514 Y-19.757
X-68.532 Y-19.774
X-68.886 Y-20.084
X-68.905 Y-20.101
X-69.272 Y-20.401
X-69.291 Y-20.416
X-69.671 Y-20.707
X-69.69 Y-20.722
X-70.084 Y-21.004
X-70.103 Y-21.017
X-70.51 Y-21.29
X-70.529 Y-21.302
X-70.949 Y-21.567
X-70.967 Y-21.578
X-71.401 Y-21.834
X-71.418 Y-21.844
X-71.865 Y-22.093
X-71.882 Y-22.101
X-72.341 Y-22.342
X-72.356 Y-22.35
X-72.827 Y-22.582
X-72.842 Y-22.59
X-73.323 Y-22.814
X-73.337 Y-22.821
X-73.828 Y-23.037
X-73.842 Y-23.043
X-74.341 Y-23.252
X-74.355 Y-23.257
X-74.861 Y-23.457
X-74.875 Y-23.462
X-75.387 Y-23.653
X-75.401 Y-23.657
X-75.917 Y-23.839
X-75.931 Y-23.843
X-76.45 Y-24.014
X-76.463 Y-24.019
X-76.984 Y-24.179
X-76.998 Y-24.183
X-77.518 Y-24.333
X-77.532 Y-24.337
X-78.05 Y-24.475
X-78.065 Y-24.478
X-78.566 Y-24.601
X-79.027 Y-24.731
X-79.474 Y-24.876
X-79.907 Y-25.036
X-80.327 Y-25.211
X-80.734 Y-25.401
X-81.129 Y-25.606
X-81.511 Y-25.825
X-81.881 Y-26.06
X-82.24 Y-26.308
X-82.586 Y-26.571
X-82.921 Y-26.848
X-83.243 Y-27.138
X-83.555 Y-27.442
X-83.855 Y-27.76
X-84.143 Y-28.09
X-84.42 Y-28.433
X-84.685 Y-28.789
X-84.938 Y-29.157
X-85.18 Y-29.537
X-85.409 Y-29.928
X-85.627 Y-30.33
X-85.832 Y-30.743
X-86.024 Y-31.166
X-86.205 Y-31.599
X-86.372 Y-32.042
X-86.526 Y-32.494
X-86.667 Y-32.954
X-86.794 Y-33.423
X-86.907 Y-33.899
X-87.006 Y-34.383
X-87.091 Y-34.874
X-87.161 Y-35.372
X-87.216 Y-35.875
X-87.256 Y-36.385
X-87.279 Y-36.9
X-87.287 Y-37.421
X-87.278 Y-37.946
X-87.252 Y-38.476
X-87.209 Y-39.01
X-87.148 Y-39.549
X-87.069 Y-40.091
X-86.971 Y-40.636
X-86.854 Y-41.185
X-86.717 Y-41.736
X-86.56 Y-42.291
X-86.383 Y-42.848
X-86.184 Y-43.408
X-85.964 Y-43.97
X-85.721 Y-44.534
X-85.456 Y-45.1
X-85.167 Y-45.669
X-84.854 Y-46.239
X-84.517 Y-46.81
X-84.155 Y-47.384
X-83.767 Y-47.958
X-83.354 Y-48.535
X-82.914 Y-49.112
X-82.447 Y-49.691
X-81.953 Y-50.271
X-81.431 Y-50.851
X-80.881 Y-51.433
X-80.303 Y-52.016
X-79.696 Y-52.6
X-79.058 Y-53.187
G2 X-80.92 Y-57.078 I-1.509 J-1.669
X-117.01 Y-20.029 I6.788 J42.714
G1 X-117.023 Y-19.984
X-117.049 Y-19.946
X-117.087 Y-19.917
X-117.131 Y-19.901
X-117.178 Y-19.9
X-117.327 Y-19.92
X-117.373 Y-19.926 Z-0.593
X-117.414 Y-19.931 Z-0.571
X-117.447 Y-19.936 Z-0.538
X-117.468 Y-19.938 Z-0.496
X-117.475 Y-19.939 Z-0.45
G0 Z5
X-117.436 Y-20.237
G1 Z0.7 F300
Z-0.75
X-117.429 Y-20.236 Z-0.796 F400
X-117.408 Y-20.233 Z-0.838
X-117.375 Y-20.229 Z-0.871
X-117.333 Y-20.223 Z-0.893
X-117.287 Y-20.217 Z-0.9
X-117.139 Y-20.198
X-117.094 Y-20.184
X-117.055 Y-20.158
X-117.026 Y-20.12
X-117.011 Y-20.076
X-117.01 Y-20.029
G2 X-117.219 Y-10.617 I42.877 J5.665 F600
X-112.993 Y-9.752 I2.242 J-0.195
G1 X-112.561 Y-10.546
X-112.125 Y-11.307
X-111.684 Y-12.04
X-111.238 Y-12.743
X-110.787 Y-13.418
X-110.331 Y-14.064
X-109.871 Y-14.683
X-109.407 Y-15.273
X-108.938 Y-15.837
X-108.465 Y-16.374
X-107.988 Y-16.884
X-107.508 Y-17.369
X-107.024 Y-17.828
X-106.537 Y-18.263
X-106.048 Y-18.673
X-105.555 Y-19.059
X-105.06 Y-19.422
X-104.563 Y-19.763
X-104.064 Y-20.081
X-103.563 Y-20.377
X-103.061 Y-20.653
X-102.558 Y-20.907
X-102.054 Y-21.141
X-101.55 Y-21.355
X-101.045 Y-21.55
X-100.54 Y-21.725
X-100.036 Y-21.882
X-99.533 Y-22.02
X-99.261 Y-22.086
Z-0.625
X-99.031 Y-22.141
X-98.531 Y-22.243
X-98.032 Y-22.329
X-97.536 Y-22.397
X-97.043 Y-22.448
X-96.552 Y-22.482
X-96.066 Y-22.5
X-95.786 Y-22.501
Z-0.9 F300
X-95.583 Y-22.502 F600
X-95.105 Y-22.487
X-94.631 Y-22.457
X-94.163 Y-22.411
X-93.7 Y-22.349
X-93.243 Y-22.272
X-92.793 Y-22.18
X-92.35 Y-22.072
X-91.914 Y-21.948
X-91.485 Y-21.81
X-91.065 Y-21.657
X-90.653 Y-21.488
X-90.25 Y-21.304
X-89.855 Y-21.105
X-89.47 Y-20.891
X-89.094 Y-20.661
X-88.728 Y-20.416
X-88.371 Y-20.156
X-88.025 Y-19.88
X-87.689 Y-19.588
X-87.363 Y-19.28
X-87.048 Y-18.955
X-86.744 Y-18.615
X-86.45 Y-18.257
X-86.167 Y-17.883
X-85.896 Y-17.491
X-85.635 Y-17.081
X-85.385 Y-16.654
X-85.142 Y-16.2
X-84.898 Y-15.734
X-84.89 Y-15.72
X-84.631 Y-15.251
X-84.624 Y-15.238
X-84.353 Y-14.77
X-84.346 Y-14.757
X-84.064 Y-14.291
X-84.056 Y-14.279
X-83.765 Y-13.816
X-83.757 Y-13.804
X-83.456 Y-13.347
X-83.448 Y-13.335
X-83.14 Y-12.884
X-83.131 Y-12.873
X-82.815 Y-12.429
X-82.806 Y-12.417
X-82.484 Y-11.983
X-82.474 Y-11.971
X-82.145 Y-11.548
X-82.136 Y-11.535
X-81.801 Y-11.123
X-81.791 Y-11.11
X-81.451 Y-10.709
X-81.439 Y-10.696
X-81.095 Y-10.309
X-81.083 Y-10.295
X-80.733 Y-9.922
X-80.72 Y-9.908
X-80.366 Y-9.548
X-80.351 Y-9.534
X-79.992 Y-9.19
X-79.976 Y-9.175
X-79.613 Y-8.845
X-79.595 Y-8.83
X-79.226 Y-8.516
X-79.208 Y-8.501
X-78.833 Y-8.203
X-78.814 Y-8.188
X-78.434 Y-7.905
X-78.413 Y-7.89
X-78.027 Y-7.622
X-78.006 Y-7.608
X-77.613 Y-7.354
X-77.592 Y-7.341
X-77.192 Y-7.102
X-77.171 Y-7.089
X-76.765 Y-6.864
X-76.744 Y-6.853
X-76.331 Y-6.64
X-76.31 Y-6.63
X-75.891 Y-6.43
X-75.871 Y-6.421
X-75.445 Y-6.233
X-75.427 Y-6.225
X-74.995 Y-6.048
X-74.978 Y-6.042
X-74.543 Y-5.875
X-74.527 Y-5.869
X-74.087 Y-5.713
X-74.066 Y-5.706
X-73.18 Y-5.419
X-73.152 Y-5.411
X-72.696 Y-5.283
X-72.688 Y-5.281
X-72.242 Y-5.16
X-72.234 Y-5.158
X-71.797 Y-5.045
X-71.789 Y-5.043
X-71.362 Y-4.937
X-71.353 Y-4.935
X-70.935 Y-4.837
X-70.926 Y-4.835
X-70.518 Y-4.745
X-70.508 Y-4.743
X-70.11 Y-4.66
X-70.1 Y-4.658
X-69.711 Y-4.582
X-69.7 Y-4.58
X-69.322 Y-4.513
X-69.31 Y-4.511
X-68.941 Y-4.451
X-68.929 Y-4.449
X-68.57 Y-4.398
X-68.557 Y-4.396
X-68.208 Y-4.352
X-68.194 Y-4.35
X-67.856 Y-4.315
X-67.84 Y-4.313
X-67.512 Y-4.285
X-67.495 Y-4.284
X-67.178 Y-4.265
X-67.159 Y-4.264
X-66.853 Y-4.253
X-66.832
X-66.537 Y-4.25
X-66.515
X-66.23 Y-4.257
X-66.206
X-65.932 Y-4.272
X-65.906 Y-4.274
X-65.644 Y-4.298
X-65.614 Y-4.301
X-65.364 Y-4.334
X-65.332 Y-4.338
X-65.093 Y-4.38
X-65.058 Y-4.387
X-64.831 Y-4.438
X-64.793 Y-4.447
X-64.577 Y-4.507
X-64.537 Y-4.52
X-64.333 Y-4.589
X-64.29 Y-4.605
X-64.098 Y-4.684
X-64.052 Y-4.705
X-63.873 Y-4.793
X-63.825 Y-4.819
X-63.658 Y-4.917
X-63.609 Y-4.948
X-63.454 Y-5.056
X-63.405 Y-5.093
X-63.263 Y-5.21
X-63.216 Y-5.253
X-63.086 Y-5.38
X-63.041 Y-5.428
X-62.924 Y-5.565
X-62.883 Y-5.618
X-62.779 Y-5.764
X-62.743 Y-5.819
X-62.651 Y-5.976
X-62.621 Y-6.033
X-62.541 Y-6.199
X-62.517 Y-6.255
X-62.45 Y-6.431
X-62.432 Y-6.487
X-62.377 Y-6.672
X-62.363 Y-6.725
X-62.321 Y-6.92
X-62.312 Y-6.97
X-62.282 Y-7.175
X-62.277 Y-7.221
X-62.259 Y-7.435
X-62.256 Y-7.478
X-62.25 Y-7.702
Y-7.741
X-62.256 Y-7.973
X-62.258 Y-8.009
X-62.275 Y-8.251
X-62.278 Y-8.283
X-62.307 Y-8.534
X-62.311 Y-8.563
X-62.352 Y-8.823
X-62.356 Y-8.849
X-62.408 Y-9.118
X-62.413 Y-9.142
X-62.476 Y-9.42
X-62.481 Y-9.441
X-62.555 Y-9.727
X-62.56 Y-9.747
X-62.645 Y-10.042
X-62.651 Y-10.06
X-62.746 Y-10.363
X-62.751 Y-10.379
X-62.857 Y-10.69
X-62.863 Y-10.705
X-62.979 Y-11.025
X-62.984 Y-11.039
X-63.111 Y-11.366
X-63.116 Y-11.379
X-63.253 Y-11.714
X-63.258 Y-11.726
X-63.405 Y-12.069
X-63.41 Y-12.08
X-63.567 Y-12.431
X-63.571 Y-12.441
X-63.738 Y-12.8
X-63.743 Y-12.81
X-63.92 Y-13.176
X-63.924 Y-13.185
X-64.11 Y-13.559
X-64.115 Y-13.567
X-64.311 Y-13.949
X-64.315 Y-13.957
X-64.521 Y-14.346
X-64.525 Y-14.353
X-64.74 Y-14.75
X-64.744 Y-14.757
X-64.969 Y-15.161
X-64.973 Y-15.167
X-65.207 Y-15.579
X-65.222 Y-15.604
X-65.715 Y-16.395
X-65.727 Y-16.413
X-65.985 Y-16.802
X-65.995 Y-16.816
X-66.261 Y-17.199
X-66.272 Y-17.214
X-66.548 Y-17.589
X-66.56 Y-17.605
X-66.846 Y-17.973
X-66.859 Y-17.99
X-67.155 Y-18.348
X-67.169 Y-18.366
X-67.475 Y-18.715
X-67.491 Y-18.733
X-67.809 Y-19.073
X-67.826 Y-19.09
X-68.154 Y-19.42
X-68.173 Y-19.438
X-68.514 Y-19.757
X-68.532 Y-19.774
X-68.886 Y-20.084
X-68.905 Y-20.101
X-69.272 Y-20.401
X-69.291 Y-20.416
X-69.671 Y-20.707
X-69.69 Y-20.722
X-70.084 Y-21.004
X-70.103 Y-21.017
X-70.51 Y-21.29
X-70.529 Y-21.302
X-70.949 Y-21.567
X-70.967 Y-21.578
X-71.401 Y-21.834
X-71.418 Y-21.844
X-71.865 Y-22.093
X-71.882 Y-22.101
X-72.341 Y-22.342
X-72.356 Y-22.35
X-72.827 Y-22.582
X-72.842 Y-22.59
X-73.323 Y-22.814
X-73.337 Y-22.821
X-73.828 Y-23.037
X-73.842 Y-23.043
X-74.341 Y-23.252
X-74.355 Y-23.257
X-74.861 Y-23.457
X-74.875 Y-23.462
X-75.387 Y-23.653
X-75.401 Y-23.657
X-75.917 Y-23.839
X-75.931 Y-23.843
X-76.45 Y-24.014
X-76.463 Y-24.019
X-76.984 Y-24.179
X-76.998 Y-24.183
X-77.518 Y-24.333
X-77.532 Y-24.337
X-78.05 Y-24.475
X-78.065 Y-24.478
X-78.566 Y-24.601
X-79.027 Y-24.731
X-79.474 Y-24.876
X-79.907 Y-25.036
X-80.327 Y-25.211
X-80.734 Y-25.401
X-81.129 Y-25.606
X-81.511 Y-25.825
X-81.881 Y-26.06
X-82.24 Y-26.308
X-82.586 Y-26.571
X-82.921 Y-26.848
X-83.243 Y-27.138
X-83.555 Y-27.442
X-83.855 Y-27.76
X-84.143 Y-28.09
X-84.42 Y-28.433
X-84.685 Y-28.789
X-84.938 Y-29.157
X-85.18 Y-29.537
X-85.409 Y-29.928
X-85.627 Y-30.33
X-85.832 Y-30.743
X-86.024 Y-31.166
X-86.205 Y-31.599
X-86.372 Y-32.042
X-86.526 Y-32.494
X-86.667 Y-32.954
X-86.794 Y-33.423
X-86.847 Y-33.647
Z-0.625
X-86.907 Y-33.899
X-87.006 Y-34.383
X-87.091 Y-34.874
X-87.161 Y-35.372
X-87.216 Y-35.875
X-87.256 Y-36.385
X-87.279 Y-36.9
X-87.282 Y-37.12
Z-0.9 F300
X-87.287 Y-37.421 F600
X-87.278 Y-37.946
X-87.252 Y-38.476
X-87.209 Y-39.01
X-87.148 Y-39.549
X-87.069 Y-40.091
X-86.971 Y-40.636
X-86.854 Y-41.185
X-86.717 Y-41.736
X-86.56 Y-42.291
X-86.383 Y-42.848
X-86.184 Y-43.408
X-85.964 Y-43.97
X-85.721 Y-44.534
X-85.456 Y-45.1
X-85.167 Y-45.669
X-84.854 Y-46.239
X-84.517 Y-46.81
X-84.155 Y-47.384
X-83.767 Y-47.958
X-83.354 Y-48.535
X-82.914 Y-49.112
X-82.447 Y-49.691
X-81.953 Y-50.271
X-81.431 Y-50.851
X-80.881 Y-51.433
X-80.303 Y-52.016
X-79.696 Y-52.6
X-79.058 Y-53.187
G2 X-80.92 Y-57.078 I-1.509 J-1.669
X-94.567 Y-52.482 I6.788 J42.714
G1 Z-0.625
G2 X-97.582 Y-50.705 I20.435 J38.118
G1 Z-0.9 F300
G2 X-115.066 Y-28.326 I23.45 J36.341 F600
G1 Z-0.625
G2 X-116.061 Y-24.971 I40.934 J13.962
G1 Z-0.9 F300
G2 X-117.01 Y-20.029 I41.929 J10.607 F600
G1 X-117.023 Y-19.984
X-117.049 Y-19.946
X-117.087 Y-19.917
X-117.131 Y-19.901
X-117.178 Y-19.9
X-117.327 Y-19.92
X-117.373 Y-19.926 Z-0.893
X-117.414 Y-19.931 Z-0.871
X-117.447 Y-19.936 Z-0.838
X-117.468 Y-19.938 Z-0.796
X-117.475 Y-19.939 Z-0.75
G0 Z5
X-117.436 Y-20.237
G1 Z0.4 F300
Z-0.85
X-117.429 Y-20.236 Z-0.896 F400
X-117.408 Y-20.233 Z-0.938
X-117.375 Y-20.229 Z-0.971
X-117.333 Y-20.223 Z-0.993
X-117.287 Y-20.217 Z-1
X-117.139 Y-20.198
X-117.094 Y-20.184
X-117.055 Y-20.158
X-117.026 Y-20.12
X-117.011 Y-20.076
X-117.01 Y-20.029
G2 X-117.219 Y-10.617 I42.877 J5.665 F600
X-112.993 Y-9.752 I2.242 J-0.195
G1 X-112.561 Y-10.546
X-112.125 Y-11.307
X-111.684 Y-12.04
X-111.238 Y-12.743
X-110.787 Y-13.418
X-110.331 Y-14.064
X-109.871 Y-14.683
X-109.407 Y-15.273
X-108.938 Y-15.837
X-108.465 Y-16.374
X-107.988 Y-16.884
X-107.508 Y-17.369
X-107.024 Y-17.828
X-106.537 Y-18.263
X-106.048 Y-18.673
X-105.555 Y-19.059
X-105.06 Y-19.422
X-104.563 Y-19.763
X-104.064 Y-20.081
X-103.563 Y-20.377
X-103.061 Y-20.653
X-102.558 Y-20.907
X-102.054 Y-21.141
X-101.55 Y-21.355
X-101.045 Y-21.55
X-100.54 Y-21.725
X-100.036 Y-21.882
X-99.533 Y-22.02
X-99.261 Y-22.086
Z-0.625
X-99.031 Y-22.141
X-98.531 Y-22.243
X-98.032 Y-22.329
X-97.536 Y-22.397
X-97.043 Y-22.448
X-96.552 Y-22.482
X-96.066 Y-22.5
X-95.786 Y-22.501
Z-1 F300
X-95.583 Y-22.502 F600
X-95.105 Y-22.487
X-94.631 Y-22.457
X-94.163 Y-22.411
X-93.7 Y-22.349
X-93.243 Y-22.272
X-92.793 Y-22.18
X-92.35 Y-22.072
X-91.914 Y-21.948
X-91.485 Y-21.81
X-91.065 Y-21.657
X-90.653 Y-21.488
X-90.25 Y-21.304
X-89.855 Y-21.105
X-89.47 Y-20.891
X-89.094 Y-20.661
X-88.728 Y-20.416
X-88.371 Y-20.156
X-88.025 Y-19.88
X-87.689 Y-19.588
X-87.363 Y-19.28
X-87.048 Y-18.955
X-86.744 Y-18.615
X-86.45 Y-18.257
X-86.167 Y-17.883
X-85.896 Y-17.491
X-85.635 Y-17.081
X-85.385 Y-16.654
X-85.142 Y-16.2
X-84.898 Y-15.734
X-84.89 Y-15.72
X-84.631 Y-15.251
X-84.624 Y-15.238
X-84.353 Y-14.77
X-84.346 Y-14.757
X-84.064 Y-14.291
X-84.056 Y-14.279
X-83.765 Y-13.816
X-83.757 Y-13.804
X-83.456 Y-13.347
X-83.448 Y-13.335
X-83.14 Y-12.884
X-83.131 Y-12.873
X-82.815 Y-12.429
X-82.806 Y-12.417
X-82.484 Y-11.983
X-82.474 Y-11.971
X-82.145 Y-11.548
X-82.136 Y-11.535
X-81.801 Y-11.123
X-81.791 Y-11.11
X-81.451 Y-10.709
X-81.439 Y-10.696
X-81.095 Y-10.309
X-81.083 Y-10.295
X-80.733 Y-9.922
X-80.72 Y-9.908
X-80.366 Y-9.548
X-80.351 Y-9.534
X-79.992 Y-9.19
X-79.976 Y-9.175
X-79.613 Y-8.845
X-79.595 Y-8.83
X-79.226 Y-8.516
X-79.208 Y-8.501
X-78.833 Y-8.203
X-78.814 Y-8.188
X-78.434 Y-7.905
X-78.413 Y-7.89
X-78.027 Y-7.622
X-78.006 Y-7.608
X-77.613 Y-7.354
X-77.592 Y-7.341
X-77.192 Y-7.102
X-77.171 Y-7.089
X-76.765 Y-6.864
X-76.744 Y-6.853
X-76.331 Y-6.64
X-76.31 Y-6.63
X-75.891 Y-6.43
X-75.871 Y-6.421
X-75.445 Y-6.233
X-75.427 Y-6.225
X-74.995 Y-6.048
X-74.978 Y-6.042
X-74.543 Y-5.875
X-74.527 Y-5.869
X-74.087 Y-5.713
X-74.066 Y-5.706
X-73.18 Y-5.419
X-73.152 Y-5.411
X-72.696 Y-5.283
X-72.688 Y-5.281
X-72.242 Y-5.16
X-72.234 Y-5.158
X-71.797 Y-5.045
X-71.789 Y-5.043
X-71.362 Y-4.937
X-71.353 Y-4.935
X-70.935 Y-4.837
X-70.926 Y-4.835
X-70.518 Y-4.745
X-70.508 Y-4.743
X-70.11 Y-4.66
X-70.1 Y-4.658
X-69.711 Y-4.582
X-69.7 Y-4.58
X-69.322 Y-4.513
X-69.31 Y-4.511
X-68.941 Y-4.451
X-68.929 Y-4.449
X-68.57 Y-4.398
X-68.557 Y-4.396
X-68.208 Y-4.352
X-68.194 Y-4.35
X-67.856 Y-4.315
X-67.84 Y-4.313
X-67.512 Y-4.285
X-67.495 Y-4.284
X-67.178 Y-4.265
X-67.159 Y-4.264
X-66.853 Y-4.253
X-66.832
X-66.537 Y-4.25
X-66.515
X-66.23 Y-4.257
X-66.206
X-65.932 Y-4.272
X-65.906 Y-4.274
X-65.644 Y-4.298
X-65.614 Y-4.301
X-65.364 Y-4.334
X-65.332 Y-4.338
X-65.093 Y-4.38
X-65.058 Y-4.387
X-64.831 Y-4.438
X-64.793 Y-4.447
X-64.577 Y-4.507
X-64.537 Y-4.52
X-64.333 Y-4.589
X-64.29 Y-4.605
X-64.098 Y-4.684
X-64.052 Y-4.705
X-63.873 Y-4.793
X-63.825 Y-4.819
X-63.658 Y-4.917
X-63.609 Y-4.948
X-63.454 Y-5.056
X-63.405 Y-5.093
X-63.263 Y-5.21
X-63.216 Y-5.253
X-63.086 Y-5.38
X-63.041 Y-5.428
X-62.924 Y-5.565
X-62.883 Y-5.618
X-62.779 Y-5.764
X-62.743 Y-5.819
X-62.651 Y-5.976
X-62.621 Y-6.033
X-62.541 Y-6.199
X-62.517 Y-6.255
X-62.45 Y-6.431
X-62.432 Y-6.487
X-62.377 Y-6.672
X-62.363 Y-6.725
X-62.321 Y-6.92
X-62.312 Y-6.97
X-62.282 Y-7.175
X-62.277 Y-7.221
X-62.259 Y-7.435
X-62.256 Y-7.478
X-62.25 Y-7.702
Y-7.741
X-62.256 Y-7.973
X-62.258 Y-8.009
X-62.275 Y-8.251
X-62.278 Y-8.283
X-62.307 Y-8.534
X-62.311 Y-8.563
X-62.352 Y-8.823
X-62.356 Y-8.849
X-62.408 Y-9.118
X-62.413 Y-9.142
X-62.476 Y-9.42
X-62.481 Y-9.441
X-62.555 Y-9.727
X-62.56 Y-9.747
X-62.645 Y-10.042
X-62.651 Y-10.06
X-62.746 Y-10.363
X-62.751 Y-10.379
X-62.857 Y-10.69
X-62.863 Y-10.705
X-62.979 Y-11.025
X-62.984 Y-11.039
X-63.111 Y-11.366
X-63.116 Y-11.379
X-63.253 Y-11.714
X-63.258 Y-11.726
X-63.405 Y-12.069
X-63.41 Y-12.08
X-63.567 Y-12.431
X-63.571 Y-12.441
X-63.738 Y-12.8
X-63.743 Y-12.81
X-63.92 Y-13.176
X-63.924 Y-13.185
X-64.11 Y-13.559
X-64.115 Y-13.567
X-64.311 Y-13.949
X-64.315 Y-13.957
X-64.521 Y-14.346
X-64.525 Y-14.353
X-64.74 Y-14.75
X-64.744 Y-14.757
X-64.969 Y-15.161
X-64.973 Y-15.167
X-65.207 Y-15.579
X-65.222 Y-15.604
X-65.715 Y-16.395
X-65.727 Y-16.413
X-65.985 Y-16.802
X-65.995 Y-16.816
X-66.261 Y-17.199
X-66.272 Y-17.214
X-66.548 Y-17.589
X-66.56 Y-17.605
X-66.846 Y-17.973
X-66.859 Y-17.99
X-67.155 Y-18.348
X-67.169 Y-18.366
X-67.475 Y-18.715
X-67.491 Y-18.733
X-67.809 Y-19.073
X-67.826 Y-19.09
X-68.154 Y-19.42
X-68.173 Y-19.438
X-68.514 Y-19.757
X-68.532 Y-19.774
X-68.886 Y-20.084
X-68.905 Y-20.101
X-69.272 Y-20.401
X-69.291 Y-20.416
X-69.671 Y-20.707
X-69.69 Y-20.722
X-70.084 Y-21.004
X-70.103 Y-21.017
X-70.51 Y-21.29
X-70.529 Y-21.302
X-70.949 Y-21.567
X-70.967 Y-21.578
X-71.401 Y-21.834
X-71.418 Y-21.844
X-71.865 Y-22.093
X-71.882 Y-22.101
X-72.341 Y-22.342
X-72.356 Y-22.35
X-72.827 Y-22.582
X-72.842 Y-22.59
X-73.323 Y-22.814
X-73.337 Y-22.821
X-73.828 Y-23.037
X-73.842 Y-23.043
X-74.341 Y-23.252
X-74.355 Y-23.257
X-74.861 Y-23.457
X-74.875 Y-23.462
X-75.387 Y-23.653
X-75.401 Y-23.657
X-75.917 Y-23.839
X-75.931 Y-23.843
X-76.45 Y-24.014
X-76.463 Y-24.019
X-76.984 Y-24.179
X-76.998 Y-24.183
X-77.518 Y-24.333
X-77.532 Y-24.337
X-78.05 Y-24.475
X-78.065 Y-24.478
X-78.566 Y-24.601
X-79.027 Y-24.731
X-79.474 Y-24.876
X-79.907 Y-25.036
X-80.327 Y-25.211
X-80.734 Y-25.401
X-81.129 Y-25.606
X-81.511 Y-25.825
X-81.881 Y-26.06
X-82.24 Y-26.308
X-82.586 Y-26.571
X-82.921 Y-26.848
X-83.243 Y-27.138
X-83.555 Y-27.442
X-83.855 Y-27.76
X-84.143 Y-28.09
X-84.42 Y-28.433
X-84.685 Y-28.789
X-84.938 Y-29.157
X-85.18 Y-29.537
X-85.409 Y-29.928
X-85.627 Y-30.33
X-85.832 Y-30.743
X-86.024 Y-31.166
X-86.205 Y-31.599
X-86.372 Y-32.042
X-86.526 Y-32.494
X-86.667 Y-32.954
X-86.794 Y-33.423
X-86.847 Y-33.647
Z-0.625
X-86.907 Y-33.899
X-87.006 Y-34.383
X-87.091 Y-34.874
X-87.161 Y-35.372
X-87.216 Y-35.875
X-87.256 Y-36.385
X-87.279 Y-36.9
X-87.282 Y-37.12
Z-1 F300
X-87.287 Y-37.421 F600
X-87.278 Y-37.946
X-87.252 Y-38.476
X-87.209 Y-39.01
X-87.148 Y-39.549
X-87.069 Y-40.091
X-86.971 Y-40.636
X-86.854 Y-41.185
X-86.717 Y-41.736
X-86.56 Y-42.291
X-86.383 Y-42.848
X-86.184 Y-43.408
X-85.964 Y-43.97
X-85.721 Y-44.534
X-85.456 Y-45.1
X-85.167 Y-45.669
X-84.854 Y-46.239
X-84.517 Y-46.81
X-84.155 Y-47.384
X-83.767 Y-47.958
X-83.354 Y-48.535
X-82.914 Y-49.112
X-82.447 Y-49.691
X-81.953 Y-50.271
X-81.431 Y-50.851
X-80.881 Y-51.433
X-80.303 Y-52.016
X-79.696 Y-52.6
X-79.058 Y-53.187
G2 X-80.92 Y-57.078 I-1.509 J-1.669
X-94.567 Y-52.482 I6.788 J42.714
G1 Z-0.625
G2 X-97.582 Y-50.705 I20.435 J38.118
G1 Z-1 F300
G2 X-115.066 Y-28.326 I23.45 J36.341 F600
G1 Z-0.625
G2 X-116.061 Y-24.971 I40.934 J13.962
G1 Z-1 F300
G2 X-117.01 Y-20.029 I41.929 J10.607 F600
G1 X-117.023 Y-19.984
X-117.049 Y-19.946
X-117.087 Y-19.917
X-117.131 Y-19.901
X-117.178 Y-19.9
X-117.327 Y-19.92
X-117.373 Y-19.926 Z-0.993
X-117.414 Y-19.931 Z-0.971
X-117.447 Y-19.936 Z-0.938
X-117.468 Y-19.938 Z-0.896
X-117.475 Y-19.939 Z-0.85
G0 Z15

(Bohrfrasen3)
X-23.243 Y-70.363
Z15
Z2
G1 Z0.15 F400
X-23.236 Z0.104
X-23.215 Z0.062
X-23.181 Z0.029
X-23.14 Z0.007
X-23.093 Z0
X-23.018
X-22.972 Y-70.356
X-22.93 Y-70.334
X-22.897 Y-70.301
X-22.876 Y-70.259
X-22.868 Y-70.213
G3 X-24.368 Y-70.213 Z-0.5 I-0.75 J0 F600
X-22.868 Y-70.213 Z-1 I0.75 J0
X-24.368 Y-70.213 I-0.75 J0
X-22.868 Y-70.213 I0.75 J0
G1 X-22.876 Y-70.167
X-22.897 Y-70.125
X-22.93 Y-70.092
X-22.972 Y-70.07
X-23.018 Y-70.063
X-23.093
X-23.14 Z-0.993
X-23.181 Z-0.971
X-23.215 Z-0.938
X-23.236 Z-0.896
X-23.243 Z-0.85
G0 Z5
X-10.891 Y-65.063
Z2
G1 Z0.15 F400
X-10.883 Z0.104
X-10.862 Z0.062
X-10.829 Z0.029
X-10.787 Z0.007
X-10.741 Z0
X-10.666
X-10.619 Y-65.055
X-10.577 Y-65.034
X-10.544 Y-65.001
X-10.523 Y-64.959
X-10.516 Y-64.913
G3 X-12.816 Y-64.913 Z-0.5 I-1.15 J0 F600
X-10.516 Y-64.913 Z-1 I1.15 J0
X-12.816 Y-64.913 I-1.15 J0
X-10.516 Y-64.913 I1.15 J0
G1 X-10.523 Y-64.866
X-10.544 Y-64.824
X-10.577 Y-64.791
X-10.619 Y-64.77
X-10.666 Y-64.763
X-10.741
X-10.787 Z-0.993
X-10.829 Z-0.971
X-10.862 Z-0.938
X-10.883 Z-0.896
X-10.891 Z-0.85
G0 Z5
X-16.606 Y-68.981
Z2
G1 Z0.15 F400
X-16.598 Z0.104
X-16.577 Z0.062
X-16.544 Z0.029
X-16.502 Z0.007
X-16.456 Z0
X-16.381
X-16.334 Y-68.973
X-16.292 Y-68.952
X-16.259 Y-68.919
X-16.238 Y-68.877
X-16.231 Y-68.831
G3 X-17.131 Y-68.831 Z-0.5 I-0.45 J0 F600
X-16.231 Y-68.831 Z-1 I0.45 J0
X-17.131 Y-68.831 I-0.45 J0
X-16.231 Y-68.831 I0.45 J0
G1 X-16.238 Y-68.784
X-16.259 Y-68.742
X-16.292 Y-68.709
X-16.334 Y-68.688
X-16.381 Y-68.681
X-16.456
X-16.502 Z-0.993
X-16.544 Z-0.971
X-16.577 Z-0.938
X-16.598 Z-0.896
X-16.606 Z-0.85
G0 Z5
X-19.824 Y-63.966
Z2
G1 Z0.15 F400
X-19.816 Z0.104
X-19.795 Z0.062
X-19.762 Z0.029
X-19.72 Z0.007
X-19.674 Z0
X-19.599
X-19.552 Y-63.958
X-19.51 Y-63.937
X-19.477 Y-63.904
X-19.456 Y-63.862
X-19.449 Y-63.816
G3 X-21.749 Y-63.816 Z-0.5 I-1.15 J0 F600
X-19.449 Y-63.816 Z-1 I1.15 J0
X-21.749 Y-63.816 I-1.15 J0
X-19.449 Y-63.816 I1.15 J0
G1 X-19.456 Y-63.769
X-19.477 Y-63.728
X-19.51 Y-63.694
X-19.552 Y-63.673
X-19.599 Y-63.666
X-19.674
X-19.72 Z-0.993
X-19.762 Z-0.971
X-19.795 Z-0.938
X-19.816 Z-0.896
X-19.824 Z-0.85
G0 Z5
X-15.509 Y-60.048
Z2
G1 Z0.15 F400
X-15.501 Z0.104
X-15.48 Z0.062
X-15.447 Z0.029
X-15.405 Z0.007
X-15.359 Z0
X-15.284
X-15.237 Y-60.04
X-15.196 Y-60.019
X-15.162 Y-59.986
X-15.141 Y-59.944
X-15.134 Y-59.898
G3 X-16.034 Y-59.898 Z-0.5 I-0.45 J0 F600
X-15.134 Y-59.898 Z-1 I0.45 J0
X-16.034 Y-59.898 I-0.45 J0
X-15.134 Y-59.898 I0.45 J0
G1 X-15.141 Y-59.851
X-15.162 Y-59.81
X-15.196 Y-59.776
X-15.237 Y-59.755
X-15.284 Y-59.748
X-15.359
X-15.405 Z-0.993
X-15.447 Z-0.971
X-15.48 Z-0.938
X-15.501 Z-0.896
X-15.509 Z-0.85
G0 Z5
X-8.271 Y-58.665
Z2
G1 Z0.15 F400
X-8.264 Z0.104
X-8.242 Z0.062
X-8.209 Z0.029
X-8.167 Z0.007
X-8.121 Z0
X-8.046
X-8 Y-58.658
X-7.958 Y-58.637
X-7.925 Y-58.604
X-7.903 Y-58.562
X-7.896 Y-58.515
G3 X-9.396 Y-58.515 Z-0.5 I-0.75 J0 F600
X-7.896 Y-58.515 Z-1 I0.75 J0
X-9.396 Y-58.515 I-0.75 J0
X-7.896 Y-58.515 I0.75 J0
G1 X-7.903 Y-58.469
X-7.925 Y-58.427
X-7.958 Y-58.394
X-8 Y-58.373
X-8.046 Y-58.365
X-8.121
X-8.167 Z-0.993
X-8.209 Z-0.971
X-8.242 Z-0.938
X-8.264 Z-0.896
X-8.271 Z-0.85
G0 Z15

(2D-Kontur4)
X-45.698 Y-87.756
Z15
Z5
G1 Z1.3 F300
Z-0.15
X-45.704 Y-87.761 Z-0.196 F400
X-45.72 Y-87.774 Z-0.238
X-45.746 Y-87.795 Z-0.271
X-45.779 Y-87.821 Z-0.293
X-45.815 Y-87.85 Z-0.3
X-45.932 Y-87.943
X-45.964 Y-87.978
X-45.983 Y-88.021
X-45.989 Y-88.067
X-45.979 Y-88.113
X-45.956 Y-88.154
G3 X-30.827 Y-99.57 I29.824 J23.79 F600
G1 X-30.804 Y-99.578
X-30.818 Y-99.551
X-31.253 Y-98.82
X-31.265 Y-98.798
X-31.679 Y-98.045
X-31.691 Y-98.022
X-32.073 Y-97.266
X-32.085 Y-97.243
X-32.435 Y-96.485
X-32.446 Y-96.461
X-32.764 Y-95.703
X-32.774 Y-95.678
X-33.061 Y-94.921
X-33.07 Y-94.895
X-33.327 Y-94.138
X-33.335 Y-94.113
X-33.561 Y-93.357
X-33.568 Y-93.332
X-33.765 Y-92.578
X-33.771 Y-92.552
X-33.939 Y-91.801
X-33.945 Y-91.774
X-34.084 Y-91.026
X-34.089 Y-91
X-34.2 Y-90.255
X-34.203 Y-90.229
X-34.288 Y-89.489
X-34.29 Y-89.463
X-34.348 Y-88.727
X-34.35 Y-88.701
X-34.381 Y-87.971
X-34.382 Y-87.945
X-34.388 Y-87.22
Y-87.194
X-34.369 Y-86.477
X-34.367 Y-86.451
X-34.324 Y-85.74
X-34.322 Y-85.715
X-34.255 Y-85.012
X-34.252 Y-84.986
X-34.162 Y-84.292
X-34.158 Y-84.267
X-34.045 Y-83.581
X-34.04 Y-83.556
X-33.905 Y-82.88
X-33.9 Y-82.855
X-33.743 Y-82.188
X-33.737 Y-82.163
X-33.558 Y-81.505
X-33.551 Y-81.48
X-33.351 Y-80.832
X-33.343 Y-80.807
X-33.122 Y-80.168
X-33.112 Y-80.143
X-32.869 Y-79.516
X-32.859 Y-79.491
X-32.594 Y-78.875
X-32.582 Y-78.849
X-32.295 Y-78.246
X-32.283 Y-78.221
X-31.974 Y-77.631
X-31.96 Y-77.605
X-31.63 Y-77.029
X-31.614 Y-77.003
X-31.274 Y-76.46
X-31.259 Y-76.432
X-31.289 Y-76.441
X-31.902 Y-76.664
X-31.932 Y-76.674
X-32.575 Y-76.877
X-32.604 Y-76.885
X-33.255 Y-77.062
X-33.285 Y-77.069
X-33.944 Y-77.22
X-33.974 Y-77.226
X-34.64 Y-77.35
X-34.669 Y-77.355
X-35.342 Y-77.453
X-35.371 Y-77.457
X-36.05 Y-77.529
X-36.078 Y-77.532
X-36.763 Y-77.579
X-36.79 Y-77.58
X-37.479 Y-77.602
X-37.507
X-38.199 Y-77.599
X-38.226 Y-77.598
X-38.922 Y-77.569
X-38.949 Y-77.568
X-39.648 Y-77.514
X-39.675 Y-77.511
X-40.377 Y-77.431
X-40.404 Y-77.428
X-41.108 Y-77.321
X-41.135 Y-77.316
X-41.841 Y-77.183
X-41.868 Y-77.178
X-42.575 Y-77.017
X-42.601 Y-77.011
X-43.308 Y-76.823
X-43.335 Y-76.815
X-44.042 Y-76.6
X-44.068 Y-76.591
X-44.773 Y-76.347
X-44.799 Y-76.338
X-45.503 Y-76.065
X-45.528 Y-76.055
X-46.23 Y-75.754
X-46.255 Y-75.742
X-46.953 Y-75.411
X-46.977 Y-75.399
X-47.671 Y-75.039
X-47.695 Y-75.026
X-48.385 Y-74.635
X-48.408 Y-74.621
X-49.093 Y-74.2
X-49.115 Y-74.186
X-49.793 Y-73.734
X-49.816 Y-73.718
X-50.487 Y-73.235
X-50.508 Y-73.219
X-51.172 Y-72.705
X-51.193 Y-72.688
X-51.849 Y-72.141
X-51.868 Y-72.124
X-52.515 Y-71.546
X-52.534 Y-71.529
X-53.171 Y-70.918
X-53.189 Y-70.901
X-53.8 Y-70.276
X-53.822 Y-70.256
X-53.821 Y-70.28
G3 X-45.956 Y-88.154 I37.689 J5.915
G1 X-45.921 Y-88.186
X-45.879 Y-88.205
X-45.832 Y-88.21
X-45.786 Y-88.201
X-45.745 Y-88.178
X-45.628 Y-88.084
X-45.592 Y-88.055 Z-0.293
X-45.559 Y-88.029 Z-0.271
X-45.533 Y-88.009 Z-0.238
X-45.516 Y-87.995 Z-0.196
X-45.511 Y-87.991 Z-0.15
G0 Z5
X-45.698 Y-87.756
G1 Z1 F300
Z-0.45
X-45.704 Y-87.761 Z-0.496 F400
X-45.72 Y-87.774 Z-0.538
X-45.746 Y-87.795 Z-0.571
X-45.779 Y-87.821 Z-0.593
X-45.815 Y-87.85 Z-0.6
X-45.932 Y-87.943
X-45.964 Y-87.978
X-45.983 Y-88.021
X-45.989 Y-88.067
X-45.979 Y-88.113
X-45.956 Y-88.154
G3 X-30.827 Y-99.57 I29.824 J23.79 F600
G1 X-30.804 Y-99.578
X-30.818 Y-99.551
X-31.253 Y-98.82
X-31.265 Y-98.798
X-31.679 Y-98.045
X-31.691 Y-98.022
X-32.073 Y-97.266
X-32.085 Y-97.243
X-32.435 Y-96.485
X-32.446 Y-96.461
X-32.764 Y-95.703
X-32.774 Y-95.678
X-33.061 Y-94.921
X-33.07 Y-94.895
X-33.327 Y-94.138
X-33.335 Y-94.113
X-33.561 Y-93.357
X-33.568 Y-93.332
X-33.765 Y-92.578
X-33.771 Y-92.552
X-33.939 Y-91.801
X-33.945 Y-91.774
X-34.084 Y-91.026
X-34.089 Y-91
X-34.2 Y-90.255
X-34.203 Y-90.229
X-34.288 Y-89.489
X-34.29 Y-89.463
X-34.348 Y-88.727
X-34.35 Y-88.701
X-34.381 Y-87.971
X-34.382 Y-87.945
X-34.388 Y-87.22
Y-87.194
X-34.369 Y-86.477
X-34.367 Y-86.451
X-34.324 Y-85.74
X-34.322 Y-85.715
X-34.255 Y-85.012
X-34.252 Y-84.986
X-34.162 Y-84.292
X-34.158 Y-84.267
X-34.045 Y-83.581
X-34.04 Y-83.556
X-33.905 Y-82.88
X-33.9 Y-82.855
X-33.743 Y-82.188
X-33.737 Y-82.163
X-33.558 Y-81.505
X-33.551 Y-81.48
X-33.351 Y-80.832
X-33.343 Y-80.807
X-33.122 Y-80.168
X-33.112 Y-80.143
X-32.869 Y-79.516
X-32.859 Y-79.491
X-32.594 Y-78.875
X-32.582 Y-78.849
X-32.295 Y-78.246
X-32.283 Y-78.221
X-31.974 Y-77.631
X-31.96 Y-77.605
X-31.63 Y-77.029
X-31.614 Y-77.003
X-31.274 Y-76.46
X-31.259 Y-76.432
X-31.289 Y-76.441
X-31.902 Y-76.664
X-31.932 Y-76.674
X-32.575 Y-76.877
X-32.604 Y-76.885
X-33.255 Y-77.062
X-33.285 Y-77.069
X-33.944 Y-77.22
X-33.974 Y-77.226
X-34.64 Y-77.35
X-34.669 Y-77.355
X-35.342 Y-77.453
X-35.371 Y-77.457
X-36.05 Y-77.529
X-36.078 Y-77.532
X-36.763 Y-77.579
X-36.79 Y-77.58
X-37.479 Y-77.602
X-37.507
X-38.199 Y-77.599
X-38.226 Y-77.598
X-38.922 Y-77.569
X-38.949 Y-77.568
X-39.648 Y-77.514
X-39.675 Y-77.511
X-40.377 Y-77.431
X-40.404 Y-77.428
X-41.108 Y-77.321
X-41.135 Y-77.316
X-41.841 Y-77.183
X-41.868 Y-77.178
X-42.575 Y-77.017
X-42.601 Y-77.011
X-43.308 Y-76.823
X-43.335 Y-76.815
X-44.042 Y-76.6
X-44.068 Y-76.591
X-44.773 Y-76.347
X-44.799 Y-76.338
X-45.503 Y-76.065
X-45.528 Y-76.055
X-46.23 Y-75.754
X-46.255 Y-75.742
X-46.953 Y-75.411
X-46.977 Y-75.399
X-47.671 Y-75.039
X-47.695 Y-75.026
X-48.385 Y-74.635
X-48.408 Y-74.621
X-49.093 Y-74.2
X-49.115 Y-74.186
X-49.793 Y-73.734
X-49.816 Y-73.718
X-50.487 Y-73.235
X-50.508 Y-73.219
X-51.172 Y-72.705
X-51.193 Y-72.688
X-51.849 Y-72.141
X-51.868 Y-72.124
X-52.515 Y-71.546
X-52.534 Y-71.529
X-53.171 Y-70.918
X-53.189 Y-70.901
X-53.8 Y-70.276
X-53.822 Y-70.256
X-53.821 Y-70.28
G3 X-45.956 Y-88.154 I37.689 J5.915
G1 X-45.921 Y-88.186
X-45.879 Y-88.205
X-45.832 Y-88.21
X-45.786 Y-88.201
X-45.745 Y-88.178
X-45.628 Y-88.084
X-45.592 Y-88.055 Z-0.593
X-45.559 Y-88.029 Z-0.571
X-45.533 Y-88.009 Z-0.538
X-45.516 Y-87.995 Z-0.496
X-45.511 Y-87.991 Z-0.45
G0 Z5
X-45.698 Y-87.756
G1 Z0.7 F300
Z-0.75
X-45.704 Y-87.761 Z-0.796 F400
X-45.72 Y-87.774 Z-0.838
X-45.746 Y-87.795 Z-0.871
X-45.779 Y-87.821 Z-0.893
X-45.815 Y-87.85 Z-0.9
X-45.932 Y-87.943
X-45.964 Y-87.978
X-45.983 Y-88.021
X-45.989 Y-88.067
X-45.979 Y-88.113
X-45.956 Y-88.154
G3 X-30.827 Y-99.57 I29.824 J23.79 F600
G1 X-30.804 Y-99.578
X-30.818 Y-99.551
X-31.253 Y-98.82
X-31.265 Y-98.798
X-31.679 Y-98.045
X-31.691 Y-98.022
X-32.073 Y-97.266
X-32.085 Y-97.243
X-32.435 Y-96.485
X-32.446 Y-96.461
X-32.764 Y-95.703
X-32.774 Y-95.678
X-33.061 Y-94.921
X-33.07 Y-94.895
X-33.327 Y-94.138
X-33.335 Y-94.113
X-33.561 Y-93.357
X-33.568 Y-93.332
X-33.765 Y-92.578
X-33.771 Y-92.552
X-33.939 Y-91.801
X-33.945 Y-91.774
X-34.084 Y-91.026
X-34.089 Y-91
X-34.2 Y-90.255
X-34.203 Y-90.229
X-34.288 Y-89.489
X-34.29 Y-89.463
X-34.348 Y-88.727
X-34.35 Y-88.701
X-34.381 Y-87.971
X-34.382 Y-87.945
X-34.388 Y-87.22
Y-87.194
X-34.369 Y-86.477
X-34.367 Y-86.451
X-34.324 Y-85.74
X-34.322 Y-85.715
X-34.255 Y-85.012
X-34.252 Y-84.986
X-34.162 Y-84.292
X-34.158 Y-84.267
X-34.045 Y-83.581
X-34.04 Y-83.556
X-33.905 Y-82.88
X-33.9 Y-82.855
X-33.743 Y-82.188
X-33.737 Y-82.163
X-33.558 Y-81.505
X-33.551 Y-81.48
X-33.351 Y-80.832
X-33.343 Y-80.807
X-33.122 Y-80.168
X-33.112 Y-80.143
X-32.869 Y-79.516
X-32.859 Y-79.491
X-32.594 Y-78.875
X-32.582 Y-78.849
X-32.295 Y-78.246
X-32.283 Y-78.221
X-31.974 Y-77.631
X-31.96 Y-77.605
X-31.63 Y-77.029
X-31.614 Y-77.003
X-31.274 Y-76.46
X-31.259 Y-76.432
X-31.289 Y-76.441
X-31.902 Y-76.664
X-31.932 Y-76.674
X-32.575 Y-76.877
X-32.604 Y-76.885
X-33.255 Y-77.062
X-33.285 Y-77.069
X-33.944 Y-77.22
X-33.974 Y-77.226
X-34.64 Y-77.35
X-34.669 Y-77.355
X-35.342 Y-77.453
X-35.371 Y-77.457
X-36.05 Y-77.529
X-36.078 Y-77.532
X-36.763 Y-77.579
X-36.79 Y-77.58
X-37.479 Y-77.602
X-37.507
X-38.199 Y-77.599
X-38.226 Y-77.598
X-38.922 Y-77.569
X-38.949 Y-77.568
X-39.648 Y-77.514
X-39.675 Y-77.511
X-40.377 Y-77.431
X-40.404 Y-77.428
X-41.108 Y-77.321
X-41.135 Y-77.316
