(1001)
(Bearbeiten)
(  Hersteller: ChinaCnc)
(  model: 3040T)
(  description: Generic 3-axis)
(T14  D=1.5 CR=0 - ZMIN=-1 - Schaftfraser)
G90 G94
G17
G21
G28 G91 Z0
G90

(Bohrfrasen1)
T14
S6000 M3
G54
G0 X-7.425 Y-26.15
Z15
Z2
G1 Z0.15 F400
X-7.418 Z0.104
X-7.396 Z0.062
X-7.363 Z0.029
X-7.321 Z0.007
X-7.275 Z0
X-7.2
X-7.154 Y-26.143
X-7.112 Y-26.121
X-7.079 Y-26.088
X-7.057 Y-26.046
X-7.05 Y-26
G3 X-7.95 Y-26 Z-0.5 I-0.45 J0 F600
X-7.05 Y-26 Z-1 I0.45 J0
X-7.95 Y-26 I-0.45 J0
X-7.05 Y-26 I0.45 J0
G1 X-7.057 Y-25.954
X-7.079 Y-25.912
X-7.112 Y-25.879
X-7.154 Y-25.857
X-7.2 Y-25.85
X-7.275
X-7.321 Z-0.993
X-7.363 Z-0.971
X-7.396 Z-0.938
X-7.418 Z-0.896
X-7.425 Z-0.85
G0 Z5
X-27.425 Y-26.15
Z2
G1 Z0.15 F400
X-27.418 Z0.104
X-27.396 Z0.062
X-27.363 Z0.029
X-27.321 Z0.007
X-27.275 Z0
X-27.2
X-27.154 Y-26.143
X-27.112 Y-26.121
X-27.079 Y-26.088
X-27.057 Y-26.046
X-27.05 Y-26
G3 X-27.95 Y-26 Z-0.5 I-0.45 J0 F600
X-27.05 Y-26 Z-1 I0.45 J0
X-27.95 Y-26 I-0.45 J0
X-27.05 Y-26 I0.45 J0
G1 X-27.057 Y-25.954
X-27.079 Y-25.912
X-27.112 Y-25.879
X-27.154 Y-25.857
X-27.2 Y-25.85
X-27.275
X-27.321 Z-0.993
X-27.363 Z-0.971
X-27.396 Z-0.938
X-27.418 Z-0.896
X-27.425 Z-0.85
G0 Z5
Y-6.15
Z2
G1 Z0.15 F400
X-27.418 Z0.104
X-27.396 Z0.062
X-27.363 Z0.029
X-27.321 Z0.007
X-27.275 Z0
X-27.2
X-27.154 Y-6.143
X-27.112 Y-6.121
X-27.079 Y-6.088
X-27.057 Y-6.046
X-27.05 Y-6
G3 X-27.95 Y-6 Z-0.5 I-0.45 J0 F600
X-27.05 Y-6 Z-1 I0.45 J0
X-27.95 Y-6 I-0.45 J0
X-27.05 Y-6 I0.45 J0
G1 X-27.057 Y-5.954
X-27.079 Y-5.912
X-27.112 Y-5.879
X-27.154 Y-5.857
X-27.2 Y-5.85
X-27.275
X-27.321 Z-0.993
X-27.363 Z-0.971
X-27.396 Z-0.938
X-27.418 Z-0.896
X-27.425 Z-0.85
G0 Z5
X-7.425 Y-6.15
Z2
G1 Z0.15 F400
X-7.418 Z0.104
X-7.396 Z0.062
X-7.363 Z0.029
X-7.321 Z0.007
X-7.275 Z0
X-7.2
X-7.154 Y-6.143
X-7.112 Y-6.121
X-7.079 Y-6.088
X-7.057 Y-6.046
X-7.05 Y-6
G3 X-7.95 Y-6 Z-0.5 I-0.45 J0 F600
X-7.05 Y-6 Z-1 I0.45 J0
X-7.95 Y-6 I-0.45 J0
X-7.05 Y-6 I0.45 J0
G1 X-7.057 Y-5.954
X-7.079 Y-5.912
X-7.112 Y-5.879
X-7.154 Y-5.857
X-7.2 Y-5.85
X-7.275
X-7.321 Z-0.993
X-7.363 Z-0.971
X-7.396 Z-0.938
X-7.418 Z-0.896
X-7.425 Z-0.85
G0 Z15

(2D-Kontur1)
X-30.042 Y0.75
Z15
Z5
G1 Z2.5 F300
X-2 Z1.521 F1016
G2 X0.75 Y-2 Z1.37 I0 J-2.75
G1 Y-30 Z0.392
G2 X-2 Y-32.75 Z0.241 I-2.75 J0
G1 X-17.5 Z-0.3
X-33 F600
G2 X-35.75 Y-30 I0 J2.75
G1 Y-2
G2 X-33 Y0.75 I2.75 J0
G1 X-2
G2 X0.75 Y-2 I0 J-2.75
G1 Y-30
G2 X-2 Y-32.75 I-2.75 J0
G1 X-17.5
X-26.091 Z-0.6 F1016
X-33 F600
G2 X-35.75 Y-30 I0 J2.75
G1 Y-2
G2 X-33 Y0.75 I2.75 J0
G1 X-2
G2 X0.75 Y-2 I0 J-2.75
G1 Y-30
G2 X-2 Y-32.75 I-2.75 J0
G1 X-17.5
X-26.091
X-33 Z-0.841 F1016
G2 X-34.579 Y-32.252 Z-0.9 I0 J2.75
X-35.75 Y-30 I1.579 J2.252 F600
G1 Y-17.5
Z-0.65
Y-14.5
Z-0.9 F300
Y-2 F600
G2 X-33 Y0.75 I2.75 J0
G1 X-19
Z-0.65
X-16
Z-0.9 F300
X-2 F600
G2 X0.75 Y-2 I0 J-2.75
G1 Y-14.5
Z-0.65
Y-17.5
Z-0.9 F300
Y-30 F600
G2 X-2 Y-32.75 I-2.75 J0
G1 X-16
Z-0.65
X-19
Z-0.9 F300
X-33 F600
G2 X-34.579 Y-32.252 I0 J2.75
X-35.75 Y-30 Z-0.992 I1.579 J2.252 F1016
G1 Y-29.774 Z-1
Y-17.5 F600
Z-0.65
Y-14.5
Z-1 F300
Y-2 F600
G2 X-33 Y0.75 I2.75 J0
G1 X-19
Z-0.65
X-16
Z-1 F300
X-2 F600
G2 X0.75 Y-2 I0 J-2.75
G1 Y-14.5
Z-0.65
Y-17.5
Z-1 F300
Y-30 F600
G2 X-2 Y-32.75 I-2.75 J0
G1 X-16
Z-0.65
X-19
Z-1 F300
X-33 F600
G2 X-35.75 Y-30 I0 J2.75
G1 Y-29.774
G0 Z15
G28 G91 Z0
G90
G28 G91 X0 Y0
G90
M5
M30
