(1001)
G90 G94
G17
G21
(When using Fusion 360 for Personal Use, the feedrate of)
(rapid moves is reduced to match the feedrate of cutting)
(moves, which can increase machining time. Unrestricted rapid)
(moves are available with a Fusion 360 Subscription.)

(Bohrfrasen3)
S6000 M3
G54
G0 X-23.193 Y-20.363
Z15
G1 Z2 F600
Z0.15 F400
X-23.186 Z0.104
X-23.165 Z0.062
X-23.131 Z0.029
X-23.09 Z0.007
X-23.043 Z0
X-22.968
X-22.922 Y-20.356
X-22.88 Y-20.334
X-22.847 Y-20.301
X-22.826 Y-20.259
X-22.818 Y-20.213
G3 X-24.418 Y-20.213 Z-0.5 I-0.8 J0 F600
X-22.818 Y-20.213 Z-1 I0.8 J0
X-24.418 Y-20.213 I-0.8 J0
X-22.818 Y-20.213 I0.8 J0
G1 X-22.826 Y-20.167
X-22.847 Y-20.125
X-22.88 Y-20.092
X-22.922 Y-20.07
X-22.968 Y-20.063
X-23.043
X-23.09 Z-0.993
X-23.131 Z-0.971
X-23.165 Z-0.938
X-23.186 Z-0.896
X-23.193 Z-0.85
Z5
X-16.756 Y-18.981
Z2
Z0.15 F400
X-16.748 Z0.104
X-16.727 Z0.062
X-16.694 Z0.029
X-16.652 Z0.007
X-16.606 Z0
X-16.531
X-16.484 Y-18.973
X-16.442 Y-18.952
X-16.409 Y-18.919
X-16.388 Y-18.877
X-16.381 Y-18.831
G3 X-16.981 Y-18.831 Z-0.5 I-0.3 J0 F600
X-16.381 Y-18.831 Z-1 I0.3 J0
X-16.981 Y-18.831 I-0.3 J0
X-16.381 Y-18.831 I0.3 J0
G1 X-16.388 Y-18.784
X-16.409 Y-18.742
X-16.442 Y-18.709
X-16.484 Y-18.688
X-16.531 Y-18.681
X-16.606
X-16.652 Z-0.993
X-16.694 Z-0.971
X-16.727 Z-0.938
X-16.748 Z-0.896
X-16.756 Z-0.85
Z5
X-11.041 Y-15.063
Z2
Z0.15 F400
X-11.033 Z0.104
X-11.012 Z0.062
X-10.979 Z0.029
X-10.937 Z0.007
X-10.891 Z0
X-10.816
X-10.769 Y-15.055
X-10.727 Y-15.034
X-10.694 Y-15.001
X-10.673 Y-14.959
X-10.666 Y-14.913
G3 X-12.666 Y-14.913 Z-0.5 I-1 J0 F600
X-10.666 Y-14.913 Z-1 I1 J0
X-12.666 Y-14.913 I-1 J0
X-10.666 Y-14.913 I1 J0
G1 X-10.673 Y-14.866
X-10.694 Y-14.824
X-10.727 Y-14.791
X-10.769 Y-14.77
X-10.816 Y-14.763
X-10.891
X-10.937 Z-0.993
X-10.979 Z-0.971
X-11.012 Z-0.938
X-11.033 Z-0.896
X-11.041 Z-0.85
Z5
X-14.557 Y-14.514
Z2
Z0.15 F400
X-14.55 Z0.104
X-14.528 Z0.062
X-14.495 Z0.029
X-14.453 Z0.007
X-14.407 Z0
X-14.332
X-14.286 Y-14.507
X-14.244 Y-14.486
X-14.211 Y-14.452
X-14.189 Y-14.411
X-14.182 Y-14.364
G3 X-18.082 Y-14.364 Z-0.5 I-1.95 J0 F600
X-14.182 Y-14.364 Z-1 I1.95 J0
X-18.082 Y-14.364 I-1.95 J0
X-14.182 Y-14.364 I1.95 J0
G1 X-14.189 Y-14.318
X-14.211 Y-14.276
X-14.244 Y-14.243
X-14.286 Y-14.222
X-14.332 Y-14.214
X-14.407
X-14.453 Z-0.993
X-14.495 Z-0.971
X-14.528 Z-0.938
X-14.55 Z-0.896
X-14.557 Z-0.85
Z5
X-19.974 Y-13.966
Z2
Z0.15 F400
X-19.966 Z0.104
X-19.945 Z0.062
X-19.912 Z0.029
X-19.87 Z0.007
X-19.824 Z0
X-19.749
X-19.702 Y-13.958
X-19.66 Y-13.937
X-19.627 Y-13.904
X-19.606 Y-13.862
X-19.599 Y-13.816
G3 X-21.599 Y-13.816 Z-0.5 I-1 J0 F600
X-19.599 Y-13.816 Z-1 I1 J0
X-21.599 Y-13.816 I-1 J0
X-19.599 Y-13.816 I1 J0
G1 X-19.606 Y-13.769
X-19.627 Y-13.728
X-19.66 Y-13.694
X-19.702 Y-13.673
X-19.749 Y-13.666
X-19.824
X-19.87 Z-0.993
X-19.912 Z-0.971
X-19.945 Z-0.938
X-19.966 Z-0.896
X-19.974 Z-0.85
Z5
X-15.659 Y-10.048
Z2
Z0.15 F400
X-15.651 Z0.104
X-15.63 Z0.062
X-15.597 Z0.029
X-15.555 Z0.007
X-15.509 Z0
X-15.434
X-15.387 Y-10.04
X-15.346 Y-10.019
X-15.312 Y-9.986
X-15.291 Y-9.944
X-15.284 Y-9.898
G3 X-15.884 Y-9.898 Z-0.5 I-0.3 J0 F600
X-15.284 Y-9.898 Z-1 I0.3 J0
X-15.884 Y-9.898 I-0.3 J0
X-15.284 Y-9.898 I0.3 J0
G1 X-15.291 Y-9.851
X-15.312 Y-9.81
X-15.346 Y-9.776
X-15.387 Y-9.755
X-15.434 Y-9.748
X-15.509
X-15.555 Z-0.993
X-15.597 Z-0.971
X-15.63 Z-0.938
X-15.651 Z-0.896
X-15.659 Z-0.85
Z5
X-8.221 Y-8.665
Z2
Z0.15 F400
X-8.214 Z0.104
X-8.192 Z0.062
X-8.159 Z0.029
X-8.117 Z0.007
X-8.071 Z0
X-7.996
X-7.95 Y-8.658
X-7.908 Y-8.637
X-7.875 Y-8.604
X-7.853 Y-8.562
X-7.846 Y-8.515
G3 X-9.446 Y-8.515 Z-0.5 I-0.8 J0 F600
X-7.846 Y-8.515 Z-1 I0.8 J0
X-9.446 Y-8.515 I-0.8 J0
X-7.846 Y-8.515 I0.8 J0
G1 X-7.853 Y-8.469
X-7.875 Y-8.427
X-7.908 Y-8.394
X-7.95 Y-8.373
X-7.996 Y-8.365
X-8.071
X-8.117 Z-0.993
X-8.159 Z-0.971
X-8.192 Z-0.938
X-8.214 Z-0.896
X-8.221 Z-0.85
Z15
(When using Fusion 360 for Personal Use, the feedrate of)
(rapid moves is reduced to match the feedrate of cutting)
(moves, which can increase machining time. Unrestricted rapid)
(moves are available with a Fusion 360 Subscription.)

(2D-Kontur4)
G0 X-32.758 Y-27.787
G1 Z15 F600
Z5
Z2.5 F300
X-32.696 Y-27.685 Z2.496 F1016
X-32.683 Y-27.664 Z2.495
X-32.35 Y-27.151 Z2.474
X-32.336 Y-27.125 Z2.473
X-32.366 Y-27.133 Z2.471
X-33.016 Y-27.347 Z2.448
X-33.044 Y-27.356 Z2.447
X-33.724 Y-27.551 Z2.422
X-33.753 Y-27.558 Z2.421
X-34.441 Y-27.726 Z2.396
X-34.47 Y-27.732 Z2.395
X-35.166 Y-27.873 Z2.37
X-35.195 Y-27.878 Z2.369
X-35.898 Y-27.992 Z2.344
X-35.927 Y-27.996 Z2.343
X-36.637 Y-28.084 Z2.318
X-36.665 Y-28.087 Z2.317
X-37.381 Y-28.149 Z2.292
X-37.409 Y-28.151 Z2.291
X-38.13 Y-28.186 Z2.266
X-38.157 Y-28.187 Z2.265
X-38.883 Y-28.196 Z2.24
X-38.91 Y-28.195 Z2.239
X-39.64 Y-28.178 Z2.213
X-39.667 Y-28.177 Z2.212
X-40.4 Y-28.134 Z2.187
X-40.427 Y-28.132 Z2.186
X-41.164 Y-28.062 Z2.16
X-41.191 Y-28.059 Z2.159
X-41.931 Y-27.961 Z2.133
X-41.958 Y-27.957 Z2.132
X-42.7 Y-27.832 Z2.106
X-42.727 Y-27.827 Z2.105
X-43.471 Y-27.674 Z2.078
X-43.498 Y-27.668 Z2.077
X-44.242 Y-27.486 Z2.051
X-44.269 Y-27.479 Z2.05
X-45.013 Y-27.268 Z2.023
X-45.039 Y-27.26 Z2.022
X-45.783 Y-27.019 Z1.994
X-45.809 Y-27.01 Z1.993
X-46.552 Y-26.74 Z1.966
X-46.577 Y-26.73 Z1.965
X-47.318 Y-26.429 Z1.937
X-47.343 Y-26.418 Z1.936
X-48.081 Y-26.087 Z1.908
X-48.105 Y-26.075 Z1.907
X-48.839 Y-25.713 Z1.878
X-48.863 Y-25.7 Z1.877
X-49.593 Y-25.306 Z1.848
X-49.617 Y-25.292 Z1.847
X-50.341 Y-24.866 Z1.818
X-50.364 Y-24.852 Z1.817
X-51.083 Y-24.393 Z1.787
X-51.105 Y-24.378 Z1.786
X-51.817 Y-23.887 Z1.756
X-51.839 Y-23.871 Z1.755
X-52.543 Y-23.346 Z1.724
X-52.564 Y-23.33 Z1.723
X-53.261 Y-22.771 Z1.692
X-53.281 Y-22.755 Z1.691
X-53.968 Y-22.163 Z1.66
X-53.988 Y-22.145 Z1.659
X-54.666 Y-21.52 Z1.627
X-54.684 Y-21.502 Z1.626
X-55.352 Y-20.843 Z1.593
X-55.369 Y-20.825 Z1.592
X-56.011 Y-20.149 Z1.56
X-56.032 Y-20.129 Z1.558
X-56.031 Y-20.153
G3 X-32.907 Y-49.36 Z0.199 I37.665 J6.063
G1 X-32.884 Y-49.367 Z0.198
X-32.897 Y-49.34 Z0.197
X-33.298 Y-48.631 Z0.168
X-33.311 Y-48.608 Z0.167
X-33.69 Y-47.877 Z0.139
X-33.702 Y-47.852 Z0.138
X-34.048 Y-47.119 Z0.109
X-34.06 Y-47.093 Z0.108
X-34.374 Y-46.359 Z0.08
X-34.385 Y-46.332 Z0.079
X-34.666 Y-45.596 Z0.052
X-34.676 Y-45.569 Z0.051
X-34.926 Y-44.832 Z0.024
X-34.935 Y-44.805 Z0.023
X-35.152 Y-44.069 Z-0.004
X-35.16 Y-44.041 Z-0.005
X-35.346 Y-43.308 Z-0.032
X-35.353 Y-43.279 Z-0.033
X-35.509 Y-42.549 Z-0.059
X-35.514 Y-42.52 Z-0.06
X-35.641 Y-41.793 Z-0.085
X-35.645 Y-41.764 Z-0.086
X-35.742 Y-41.04 Z-0.112
X-35.746 Y-41.012 Z-0.113
X-35.815 Y-40.292 Z-0.138
X-35.817 Y-40.264 Z-0.139
X-35.859 Y-39.549 Z-0.164
X-35.86 Y-39.522 Z-0.165
X-35.876 Y-38.812 Z-0.19
Y-38.785 Z-0.191
X-35.865 Y-38.082 Z-0.215
Y-38.055 Z-0.216
X-35.829 Y-37.358 Z-0.241
X-35.827 Y-37.331 Z-0.242
X-35.768 Y-36.642 Z-0.266
X-35.765 Y-36.616 Z-0.267
X-35.683 Y-35.935 Z-0.291
X-35.679 Y-35.909 Z-0.292
X-35.642 Y-35.672 Z-0.3
X-35.574 Y-35.236 F600
X-35.569 Y-35.211
X-35.442 Y-34.547
X-35.437 Y-34.523
X-35.289 Y-33.869
X-35.283 Y-33.845
X-35.114 Y-33.201
X-35.108 Y-33.178
X-34.92 Y-32.544
X-34.913 Y-32.522
X-34.707 Y-31.898
X-34.7 Y-31.876
X-34.476 Y-31.262
X-34.467 Y-31.24
X-34.225 Y-30.637
X-34.215 Y-30.615
X-33.955 Y-30.023
X-33.945 Y-30.001
X-33.668 Y-29.42
X-33.657 Y-29.399
X-33.362 Y-28.829
X-33.35 Y-28.808
X-33.038 Y-28.251
X-33.026 Y-28.23
X-32.696 Y-27.685
X-32.683 Y-27.664
X-32.35 Y-27.151
X-32.336 Y-27.125
X-32.366 Y-27.133
X-33.016 Y-27.347
X-33.044 Y-27.356
X-33.724 Y-27.551
X-33.753 Y-27.558
X-34.441 Y-27.726
X-34.47 Y-27.732
X-35.166 Y-27.873
X-35.195 Y-27.878
X-35.898 Y-27.992
X-35.927 Y-27.996
X-36.637 Y-28.084
X-36.665 Y-28.087
X-37.381 Y-28.149
X-37.409 Y-28.151
X-38.13 Y-28.186
X-38.157 Y-28.187
X-38.883 Y-28.196
X-38.91 Y-28.195
X-39.64 Y-28.178
X-39.667 Y-28.177
X-40.4 Y-28.134
X-40.427 Y-28.132
X-41.164 Y-28.062
X-41.191 Y-28.059
X-41.931 Y-27.961
X-41.958 Y-27.957
X-42.7 Y-27.832
X-42.727 Y-27.827
X-43.471 Y-27.674
X-43.498 Y-27.668
X-44.242 Y-27.486
X-44.269 Y-27.479
X-45.013 Y-27.268
X-45.039 Y-27.26
X-45.783 Y-27.019
X-45.809 Y-27.01
X-46.552 Y-26.74
X-46.577 Y-26.73
X-47.318 Y-26.429
X-47.343 Y-26.418
X-48.081 Y-26.087
X-48.105 Y-26.075
X-48.839 Y-25.713
X-48.863 Y-25.7
X-49.593 Y-25.306
X-49.617 Y-25.292
X-50.341 Y-24.866
X-50.364 Y-24.852
X-51.083 Y-24.393
X-51.105 Y-24.378
X-51.817 Y-23.887
X-51.839 Y-23.871
X-52.543 Y-23.346
X-52.564 Y-23.33
X-53.261 Y-22.771
X-53.281 Y-22.755
X-53.968 Y-22.163
X-53.988 Y-22.145
X-54.666 Y-21.52
X-54.684 Y-21.502
X-55.352 Y-20.843
X-55.369 Y-20.825
X-56.011 Y-20.149
X-56.032 Y-20.129
X-56.031 Y-20.153
G3 X-32.907 Y-49.36 I37.665 J6.063
G1 X-32.884 Y-49.367
X-32.897 Y-49.34
X-33.298 Y-48.631
X-33.311 Y-48.608
X-33.69 Y-47.877
X-33.702 Y-47.852
X-34.048 Y-47.119
X-34.06 Y-47.093
X-34.374 Y-46.359
X-34.385 Y-46.332
X-34.666 Y-45.596
X-34.676 Y-45.569
X-34.926 Y-44.832
X-34.935 Y-44.805
X-35.152 Y-44.069
X-35.16 Y-44.041
X-35.346 Y-43.308
X-35.353 Y-43.279
X-35.509 Y-42.549
X-35.514 Y-42.52
X-35.641 Y-41.793
X-35.645 Y-41.764
X-35.742 Y-41.04
X-35.746 Y-41.012
X-35.815 Y-40.292
X-35.817 Y-40.264
X-35.859 Y-39.549
X-35.86 Y-39.522
X-35.876 Y-38.812
Y-38.785
X-35.865 Y-38.082
Y-38.055
X-35.829 Y-37.358
X-35.827 Y-37.331
X-35.768 Y-36.642
X-35.765 Y-36.616
X-35.683 Y-35.935
X-35.679 Y-35.909
X-35.642 Y-35.672
X-35.574 Y-35.236 Z-0.315 F1016
X-35.569 Y-35.211 Z-0.316
X-35.442 Y-34.547 Z-0.34
X-35.437 Y-34.523 Z-0.341
X-35.289 Y-33.869 Z-0.364
X-35.283 Y-33.845 Z-0.365
X-35.114 Y-33.201 Z-0.388
X-35.108 Y-33.178 Z-0.389
X-34.92 Y-32.544 Z-0.412
X-34.913 Y-32.522 Z-0.413
X-34.707 Y-31.898 Z-0.436
X-34.7 Y-31.876 Z-0.437
X-34.476 Y-31.262 Z-0.46
X-34.467 Y-31.24
X-34.225 Y-30.637 Z-0.483
X-34.215 Y-30.615 Z-0.484
X-33.955 Y-30.023 Z-0.507
X-33.945 Y-30.001
X-33.668 Y-29.42 Z-0.53
X-33.657 Y-29.399 Z-0.531
X-33.362 Y-28.829 Z-0.553
X-33.35 Y-28.808 Z-0.554
X-33.038 Y-28.251 Z-0.576
X-33.026 Y-28.23 Z-0.577
X-32.696 Y-27.685 Z-0.599
X-32.687 Y-27.669 Z-0.6
X-32.683 Y-27.664 F600
X-32.35 Y-27.151
X-32.336 Y-27.125
X-32.366 Y-27.133
X-33.016 Y-27.347
X-33.044 Y-27.356
X-33.724 Y-27.551
X-33.753 Y-27.558
X-34.441 Y-27.726
X-34.47 Y-27.732
X-35.166 Y-27.873
X-35.195 Y-27.878
X-35.898 Y-27.992
X-35.927 Y-27.996
X-36.637 Y-28.084
X-36.665 Y-28.087
X-37.381 Y-28.149
X-37.409 Y-28.151
X-38.13 Y-28.186
X-38.157 Y-28.187
X-38.883 Y-28.196
X-38.91 Y-28.195
X-39.64 Y-28.178
X-39.667 Y-28.177
X-40.4 Y-28.134
X-40.427 Y-28.132
X-41.164 Y-28.062
X-41.191 Y-28.059
X-41.931 Y-27.961
X-41.958 Y-27.957
X-42.7 Y-27.832
X-42.727 Y-27.827
X-43.471 Y-27.674
X-43.498 Y-27.668
X-44.242 Y-27.486
X-44.269 Y-27.479
X-45.013 Y-27.268
X-45.039 Y-27.26
X-45.783 Y-27.019
X-45.809 Y-27.01
X-46.552 Y-26.74
X-46.577 Y-26.73
X-47.318 Y-26.429
X-47.343 Y-26.418
X-48.081 Y-26.087
X-48.105 Y-26.075
X-48.839 Y-25.713
X-48.863 Y-25.7
X-49.593 Y-25.306
X-49.617 Y-25.292
X-50.341 Y-24.866
X-50.364 Y-24.852
X-51.083 Y-24.393
X-51.105 Y-24.378
X-51.817 Y-23.887
X-51.839 Y-23.871
X-52.543 Y-23.346
X-52.564 Y-23.33
X-53.261 Y-22.771
X-53.281 Y-22.755
X-53.968 Y-22.163
X-53.988 Y-22.145
X-54.666 Y-21.52
X-54.684 Y-21.502
X-55.352 Y-20.843
X-55.369 Y-20.825
X-56.011 Y-20.149
X-56.032 Y-20.129
X-56.031 Y-20.153
G3 X-32.907 Y-49.36 I37.665 J6.063
G1 X-32.884 Y-49.367
X-32.897 Y-49.34
X-33.298 Y-48.631
X-33.311 Y-48.608
X-33.69 Y-47.877
X-33.702 Y-47.852
X-34.048 Y-47.119
X-34.06 Y-47.093
X-34.374 Y-46.359
X-34.385 Y-46.332
X-34.666 Y-45.596
X-34.676 Y-45.569
X-34.926 Y-44.832
X-34.935 Y-44.805
X-35.152 Y-44.069
X-35.16 Y-44.041
X-35.346 Y-43.308
X-35.353 Y-43.279
X-35.509 Y-42.549
X-35.514 Y-42.52
X-35.641 Y-41.793
X-35.645 Y-41.764
X-35.742 Y-41.04
X-35.746 Y-41.012
X-35.815 Y-40.292
X-35.817 Y-40.264
X-35.859 Y-39.549
X-35.86 Y-39.522
X-35.876 Y-38.812
Y-38.785
X-35.865 Y-38.082
Y-38.055
X-35.829 Y-37.358
X-35.827 Y-37.331
X-35.768 Y-36.642
X-35.765 Y-36.616
X-35.683 Y-35.935
X-35.679 Y-35.909
X-35.574 Y-35.236
X-35.569 Y-35.211
X-35.442 Y-34.547
X-35.437 Y-34.523
X-35.289 Y-33.869
X-35.283 Y-33.845
X-35.114 Y-33.201
X-35.108 Y-33.178
X-34.92 Y-32.544
X-34.913 Y-32.522
X-34.707 Y-31.898
X-34.7 Y-31.876
X-34.476 Y-31.262
X-34.467 Y-31.24
X-34.225 Y-30.637
X-34.215 Y-30.615
X-33.955 Y-30.023
X-33.945 Y-30.001
X-33.668 Y-29.42
X-33.657 Y-29.399
X-33.362 Y-28.829
X-33.35 Y-28.808
X-33.038 Y-28.251
X-33.026 Y-28.23
X-32.696 Y-27.685
X-32.687 Y-27.669
X-32.683 Y-27.664 F1016
X-32.35 Y-27.151 Z-0.622
X-32.336 Y-27.125 Z-0.623
X-32.366 Y-27.133 Z-0.624
X-33.016 Y-27.347 Z-0.648
X-33.044 Y-27.356 Z-0.649
X-33.724 Y-27.551 Z-0.673
X-33.753 Y-27.558 Z-0.674
X-34.441 Y-27.726 Z-0.699
X-34.47 Y-27.732 Z-0.7
X-35.166 Y-27.873 Z-0.725
X-35.195 Y-27.878 Z-0.726
X-35.898 Y-27.992 Z-0.751
X-35.927 Y-27.996 Z-0.752
X-36.637 Y-28.084 Z-0.777
X-36.665 Y-28.087 Z-0.778
X-37.381 Y-28.149 Z-0.803
X-37.409 Y-28.151 Z-0.804
X-38.13 Y-28.186 Z-0.829
X-38.157 Y-28.187 Z-0.83
X-38.883 Y-28.196 Z-0.855
X-38.91 Y-28.195 Z-0.856
X-39.64 Y-28.178 Z-0.882
X-39.667 Y-28.177 Z-0.883
X-40.159 Y-28.148 Z-0.9
X-40.4 Y-28.134 F600
X-40.427 Y-28.132
X-41.164 Y-28.062
X-41.191 Y-28.059
X-41.931 Y-27.961
X-41.958 Y-27.957
X-42.7 Y-27.832
X-42.727 Y-27.827
X-43.471 Y-27.674
X-43.498 Y-27.668
X-44.242 Y-27.486
X-44.269 Y-27.479
X-45.013 Y-27.268
X-45.039 Y-27.26
X-45.783 Y-27.019
X-45.809 Y-27.01
X-46.552 Y-26.74
X-46.577 Y-26.73
X-47.318 Y-26.429
X-47.343 Y-26.418
X-48.081 Y-26.087
X-48.105 Y-26.075
X-48.839 Y-25.713
X-48.863 Y-25.7
X-49.593 Y-25.306
X-49.617 Y-25.292
X-50.341 Y-24.866
X-50.364 Y-24.852
X-51.083 Y-24.393
X-51.105 Y-24.378
X-51.817 Y-23.887
X-51.839 Y-23.871
X-52.543 Y-23.346
X-52.564 Y-23.33
X-53.261 Y-22.771
X-53.281 Y-22.755
X-53.968 Y-22.163
X-53.988 Y-22.145
X-54.666 Y-21.52
X-54.684 Y-21.502
X-55.352 Y-20.843
X-55.369 Y-20.825
X-56.011 Y-20.149
X-56.032 Y-20.129
X-56.031 Y-20.153
G3 X-32.907 Y-49.36 I37.665 J6.063
G1 X-32.884 Y-49.367
X-32.897 Y-49.34
X-33.298 Y-48.631
X-33.311 Y-48.608
X-33.69 Y-47.877
X-33.702 Y-47.852
X-34.048 Y-47.119
X-34.06 Y-47.093
X-34.374 Y-46.359
X-34.385 Y-46.332
X-34.666 Y-45.596
X-34.676 Y-45.569
X-34.926 Y-44.832
X-34.935 Y-44.805
X-35.152 Y-44.069
X-35.16 Y-44.041
X-35.346 Y-43.308
X-35.353 Y-43.279
X-35.509 Y-42.549
X-35.514 Y-42.52
X-35.641 Y-41.793
X-35.645 Y-41.764
X-35.742 Y-41.04
X-35.746 Y-41.012
X-35.815 Y-40.292
X-35.817 Y-40.264
X-35.859 Y-39.549
X-35.86 Y-39.522
X-35.876 Y-38.812
Y-38.785
X-35.865 Y-38.082
Y-38.055
X-35.829 Y-37.358
X-35.827 Y-37.331
X-35.768 Y-36.642
X-35.765 Y-36.616
X-35.683 Y-35.935
X-35.679 Y-35.909
X-35.574 Y-35.236
X-35.569 Y-35.211
X-35.442 Y-34.547
X-35.437 Y-34.523
X-35.289 Y-33.869
X-35.283 Y-33.845
X-35.114 Y-33.201
X-35.108 Y-33.178
X-34.92 Y-32.544
X-34.913 Y-32.522
X-34.707 Y-31.898
X-34.7 Y-31.876
X-34.476 Y-31.262
X-34.467 Y-31.24
X-34.225 Y-30.637
X-34.215 Y-30.615
X-33.955 Y-30.023
X-33.945 Y-30.001
X-33.668 Y-29.42
X-33.657 Y-29.399
X-33.362 Y-28.829
X-33.35 Y-28.808
X-33.038 Y-28.251
X-33.026 Y-28.23
X-32.696 Y-27.685
X-32.683 Y-27.664
X-32.35 Y-27.151
X-32.336 Y-27.125
X-32.366 Y-27.133
X-33.016 Y-27.347
X-33.044 Y-27.356
X-33.724 Y-27.551
X-33.753 Y-27.558
X-34.441 Y-27.726
X-34.47 Y-27.732
X-35.166 Y-27.873
X-35.195 Y-27.878
X-35.898 Y-27.992
X-35.927 Y-27.996
X-36.637 Y-28.084
X-36.665 Y-28.087
X-37.381 Y-28.149
X-37.409 Y-28.151
X-38.13 Y-28.186
X-38.157 Y-28.187
X-38.883 Y-28.196
X-38.91 Y-28.195
X-39.64 Y-28.178
X-39.667 Y-28.177
X-40.159 Y-28.148
X-40.4 Y-28.134 Z-0.908 F1016
X-40.427 Y-28.132 Z-0.909
X-41.164 Y-28.062 Z-0.935
X-41.191 Y-28.059 Z-0.936
X-41.931 Y-27.961 Z-0.962
X-41.958 Y-27.957 Z-0.963
X-42.7 Y-27.832 Z-0.989
X-42.727 Y-27.827 Z-0.99
X-42.995 Y-27.772 Z-1
X-43.471 Y-27.674 F600
X-43.498 Y-27.668
X-44.242 Y-27.486
X-44.269 Y-27.479
X-45.013 Y-27.268
X-45.039 Y-27.26
X-45.783 Y-27.019
X-45.809 Y-27.01
X-46.552 Y-26.74
X-46.577 Y-26.73
X-47.318 Y-26.429
X-47.343 Y-26.418
X-48.081 Y-26.087
X-48.105 Y-26.075
X-48.839 Y-25.713
X-48.863 Y-25.7
X-49.593 Y-25.306
X-49.617 Y-25.292
X-50.341 Y-24.866
X-50.364 Y-24.852
X-51.083 Y-24.393
X-51.105 Y-24.378
X-51.817 Y-23.887
X-51.839 Y-23.871
X-52.543 Y-23.346
X-52.564 Y-23.33
X-53.261 Y-22.771
X-53.281 Y-22.755
X-53.968 Y-22.163
X-53.988 Y-22.145
X-54.666 Y-21.52
X-54.684 Y-21.502
X-55.352 Y-20.843
X-55.369 Y-20.825
X-56.011 Y-20.149
X-56.032 Y-20.129
X-56.031 Y-20.153
G3 X-32.907 Y-49.36 I37.665 J6.063
G1 X-32.884 Y-49.367
X-32.897 Y-49.34
X-33.298 Y-48.631
X-33.311 Y-48.608
X-33.69 Y-47.877
X-33.702 Y-47.852
X-34.048 Y-47.119
X-34.06 Y-47.093
X-34.374 Y-46.359
X-34.385 Y-46.332
X-34.666 Y-45.596
X-34.676 Y-45.569
X-34.926 Y-44.832
X-34.935 Y-44.805
X-35.152 Y-44.069
X-35.16 Y-44.041
X-35.346 Y-43.308
X-35.353 Y-43.279
X-35.509 Y-42.549
X-35.514 Y-42.52
X-35.641 Y-41.793
X-35.645 Y-41.764
X-35.742 Y-41.04
X-35.746 Y-41.012
X-35.815 Y-40.292
X-35.817 Y-40.264
X-35.859 Y-39.549
X-35.86 Y-39.522
X-35.876 Y-38.812
Y-38.785
X-35.865 Y-38.082
Y-38.055
X-35.829 Y-37.358
X-35.827 Y-37.331
X-35.768 Y-36.642
X-35.765 Y-36.616
X-35.683 Y-35.935
X-35.679 Y-35.909
X-35.574 Y-35.236
X-35.569 Y-35.211
X-35.442 Y-34.547
X-35.437 Y-34.523
X-35.289 Y-33.869
X-35.283 Y-33.845
X-35.114 Y-33.201
X-35.108 Y-33.178
X-34.92 Y-32.544
X-34.913 Y-32.522
X-34.707 Y-31.898
X-34.7 Y-31.876
X-34.476 Y-31.262
X-34.467 Y-31.24
X-34.225 Y-30.637
X-34.215 Y-30.615
X-33.955 Y-30.023
X-33.945 Y-30.001
X-33.668 Y-29.42
X-33.657 Y-29.399
X-33.362 Y-28.829
X-33.35 Y-28.808
X-33.038 Y-28.251
X-33.026 Y-28.23
X-32.696 Y-27.685
X-32.683 Y-27.664
X-32.35 Y-27.151
X-32.336 Y-27.125
X-32.366 Y-27.133
X-33.016 Y-27.347
X-33.044 Y-27.356
X-33.724 Y-27.551
X-33.753 Y-27.558
X-34.441 Y-27.726
X-34.47 Y-27.732
X-35.166 Y-27.873
X-35.195 Y-27.878
X-35.898 Y-27.992
X-35.927 Y-27.996
X-36.637 Y-28.084
X-36.665 Y-28.087
X-37.381 Y-28.149
X-37.409 Y-28.151
X-38.13 Y-28.186
X-38.157 Y-28.187
X-38.883 Y-28.196
X-38.91 Y-28.195
X-39.64 Y-28.178
X-39.667 Y-28.177
X-40.159 Y-28.148
X-40.4 Y-28.134
X-40.427 Y-28.132
X-41.164 Y-28.062
X-41.191 Y-28.059
X-41.931 Y-27.961
X-41.958 Y-27.957
X-42.7 Y-27.832
X-42.727 Y-27.827
X-42.995 Y-27.772
Z15
(When using Fusion 360 for Personal Use, the feedrate of)
(rapid moves is reduced to match the feedrate of cutting)
(moves, which can increase machining time. Unrestricted rapid)
(moves are available with a Fusion 360 Subscription.)

(2D-Kontur5)
G0 X-16.25 Y-5.771
G1 Z15 F600
Z5
Z2.5 F300
X-16.087 Y-5.713 Z2.494 F1016
X-16.066 Y-5.706 Z2.493
X-15.18 Y-5.419 Z2.461
X-15.152 Y-5.411 Z2.46
X-14.696 Y-5.283 Z2.443
X-14.688 Y-5.281
X-14.242 Y-5.16 Z2.427
X-14.234 Y-5.158 Z2.426
X-13.797 Y-5.045 Z2.411
X-13.789 Y-5.043 Z2.41
X-13.362 Y-4.937 Z2.395
X-13.353 Y-4.935
X-12.935 Y-4.837 Z2.38
X-12.926 Y-4.835 Z2.379
X-12.518 Y-4.745 Z2.365
X-12.508 Y-4.743 Z2.364
X-12.11 Y-4.66 Z2.35
X-12.1 Y-4.658
X-11.711 Y-4.582 Z2.336
X-11.7 Y-4.58
X-11.322 Y-4.513 Z2.322
X-11.31 Y-4.511
X-10.941 Y-4.451 Z2.309
X-10.929 Y-4.449 Z2.308
X-10.57 Y-4.398 Z2.296
X-10.557 Y-4.396 Z2.295
X-10.208 Y-4.352 Z2.283
X-10.194 Y-4.35 Z2.282
X-9.856 Y-4.315 Z2.271
X-9.84 Y-4.313 Z2.27
X-9.512 Y-4.285 Z2.258
X-9.495 Y-4.284
X-9.178 Y-4.265 Z2.247
X-9.159 Y-4.264 Z2.246
X-8.853 Y-4.253 Z2.235
X-8.832
X-8.537 Y-4.25 Z2.224
X-8.515
X-8.23 Y-4.257 Z2.214
X-8.206 Z2.213
X-7.932 Y-4.272 Z2.203
X-7.906 Y-4.274 Z2.202
X-7.644 Y-4.298 Z2.193
X-7.614 Y-4.301 Z2.192
X-7.364 Y-4.334 Z2.183
X-7.332 Y-4.338 Z2.182
X-7.093 Y-4.38 Z2.174
X-7.058 Y-4.387 Z2.172
X-6.831 Y-4.438 Z2.164
X-6.793 Y-4.447 Z2.163
X-6.577 Y-4.507 Z2.155
X-6.537 Y-4.52 Z2.154
X-6.333 Y-4.589 Z2.146
X-6.29 Y-4.605 Z2.145
X-6.098 Y-4.684 Z2.137
X-6.052 Y-4.705 Z2.136
X-5.873 Y-4.793 Z2.129
X-5.825 Y-4.819 Z2.127
X-5.658 Y-4.917 Z2.12
X-5.609 Y-4.948 Z2.118
X-5.454 Y-5.056 Z2.111
X-5.405 Y-5.093 Z2.109
X-5.263 Y-5.21 Z2.103
X-5.216 Y-5.253 Z2.1
X-5.086 Y-5.38 Z2.094
X-5.041 Y-5.428 Z2.092
X-4.924 Y-5.565 Z2.086
X-4.883 Y-5.618 Z2.083
X-4.779 Y-5.764 Z2.077
X-4.743 Y-5.819 Z2.075
X-4.651 Y-5.976 Z2.068
X-4.621 Y-6.033 Z2.066
X-4.541 Y-6.199 Z2.06
X-4.517 Y-6.255 Z2.057
X-4.45 Y-6.431 Z2.051
X-4.432 Y-6.487 Z2.049
X-4.377 Y-6.672 Z2.042
X-4.363 Y-6.725 Z2.04
X-4.321 Y-6.92 Z2.033
X-4.312 Y-6.97 Z2.031
X-4.282 Y-7.175 Z2.024
X-4.277 Y-7.221 Z2.023
X-4.259 Y-7.435 Z2.015
X-4.256 Y-7.478 Z2.014
X-4.25 Y-7.702 Z2.006
Y-7.741 Z2.004
X-4.256 Y-7.973 Z1.996
X-4.258 Y-8.009 Z1.995
X-4.275 Y-8.251 Z1.987
X-4.278 Y-8.283 Z1.985
X-4.307 Y-8.534 Z1.977
X-4.311 Y-8.563 Z1.976
X-4.352 Y-8.823 Z1.966
X-4.356 Y-8.849 Z1.965
X-4.408 Y-9.118 Z1.956
X-4.413 Y-9.142 Z1.955
X-4.476 Y-9.42 Z1.945
X-4.481 Y-9.441 Z1.944
X-4.555 Y-9.727 Z1.934
X-4.56 Y-9.747 Z1.933
X-4.645 Y-10.042 Z1.923
X-4.651 Y-10.06 Z1.922
X-4.746 Y-10.363 Z1.911
X-4.751 Y-10.379 Z1.91
X-4.857 Y-10.69 Z1.899
X-4.863 Y-10.705 Z1.898
X-4.979 Y-11.025 Z1.886
X-4.984 Y-11.039
X-5.111 Y-11.366 Z1.874
X-5.116 Y-11.379 Z1.873
X-5.253 Y-11.714 Z1.86
X-5.258 Y-11.726
X-5.405 Y-12.069 Z1.847
X-5.41 Y-12.08
X-5.567 Y-12.431 Z1.833
X-5.571 Y-12.441
X-5.738 Y-12.8 Z1.819
X-5.743 Y-12.81
X-5.92 Y-13.176 Z1.804
X-5.924 Y-13.185
X-6.11 Y-13.559 Z1.789
X-6.115 Y-13.567
X-6.311 Y-13.949 Z1.774
X-6.315 Y-13.957
X-6.521 Y-14.346 Z1.758
X-6.525 Y-14.353
X-6.74 Y-14.75 Z1.742
X-6.744 Y-14.757
X-6.969 Y-15.161 Z1.726
X-6.973 Y-15.167
X-7.207 Y-15.579 Z1.709
X-7.222 Y-15.604 Z1.708
X-7.715 Y-16.395 Z1.676
X-7.727 Y-16.413 Z1.675
X-7.985 Y-16.802 Z1.658
X-7.995 Y-16.816
X-8.261 Y-17.199 Z1.642
X-8.272 Y-17.214 Z1.641
X-8.548 Y-17.589 Z1.625
X-8.56 Y-17.605 Z1.624
X-8.846 Y-17.973 Z1.608
X-8.859 Y-17.99 Z1.607
X-9.155 Y-18.348 Z1.591
X-9.169 Y-18.366 Z1.59
X-9.475 Y-18.715 Z1.574
X-9.491 Y-18.733 Z1.573
X-9.809 Y-19.073 Z1.557
X-9.826 Y-19.09 Z1.556
X-10.154 Y-19.42 Z1.54
X-10.173 Y-19.438 Z1.539
X-10.514 Y-19.757 Z1.522
X-10.532 Y-19.774 Z1.521
X-10.886 Y-20.084 Z1.505
X-10.905 Y-20.101 Z1.504
X-11.272 Y-20.401 Z1.488
X-11.291 Y-20.416 Z1.487
X-11.671 Y-20.707 Z1.47
X-11.69 Y-20.722 Z1.469
X-12.084 Y-21.004 Z1.452
X-12.103 Y-21.017 Z1.451
X-12.51 Y-21.29 Z1.434
X-12.529 Y-21.302
X-12.949 Y-21.567 Z1.416
X-12.967 Y-21.578
X-13.401 Y-21.834 Z1.398
X-13.418 Y-21.844 Z1.397
X-13.865 Y-22.093 Z1.379
X-13.882 Y-22.101
X-14.341 Y-22.342 Z1.361
X-14.356 Y-22.35 Z1.36
X-14.827 Y-22.582 Z1.342
X-14.842 Y-22.59 Z1.341
X-15.323 Y-22.814 Z1.323
X-15.337 Y-22.821 Z1.322
X-15.828 Y-23.037 Z1.303
X-15.842 Y-23.043
X-16.341 Y-23.252 Z1.284
X-16.355 Y-23.257 Z1.283
X-16.861 Y-23.457 Z1.264
X-16.875 Y-23.462
X-17.387 Y-23.653 Z1.245
X-17.401 Y-23.657 Z1.244
X-17.917 Y-23.839 Z1.225
X-17.931 Y-23.843
X-18.45 Y-24.014 Z1.206
X-18.463 Y-24.019 Z1.205
X-18.984 Y-24.179 Z1.186
X-18.998 Y-24.183 Z1.185
X-19.518 Y-24.333 Z1.167
X-19.532 Y-24.337 Z1.166
X-20.05 Y-24.475 Z1.147
X-20.065 Y-24.478
X-20.576 Y-24.603 Z1.128
X-21.041 Y-24.721 Z1.112
X-21.486 Y-24.852 Z1.096
X-21.922 Y-24.998 Z1.079
X-22.348 Y-25.16 Z1.064
X-22.765 Y-25.338 Z1.048
X-23.173 Y-25.531 Z1.032
X-23.572 Y-25.739 Z1.016
X-23.962 Y-25.962 Z1.001
X-24.343 Y-26.2 Z0.985
X-24.716 Y-26.453 Z0.969
X-25.079 Y-26.721 Z0.953
X-25.434 Y-27.002 Z0.938
X-25.779 Y-27.298 Z0.922
X-26.116 Y-27.608 Z0.906
X-26.443 Y-27.931 Z0.89
X-26.76 Y-28.267 Z0.874
X-27.068 Y-28.615 Z0.857
X-27.367 Y-28.976 Z0.841
X-27.655 Y-29.349 Z0.824
X-27.933 Y-29.734 Z0.808
X-28.2 Y-30.13 Z0.791
X-28.456 Y-30.537 Z0.774
X-28.701 Y-30.954 Z0.758
X-28.935 Y-31.381 Z0.741
X-29.156 Y-31.818 Z0.723
X-29.365 Y-32.263 Z0.706
X-29.562 Y-32.718 Z0.689
X-29.746 Y-33.18 Z0.672
X-29.916 Y-33.651 Z0.654
X-30.072 Y-34.129 Z0.637
X-30.214 Y-34.614 Z0.619
X-30.341 Y-35.106 Z0.601
X-30.453 Y-35.604 Z0.583
X-30.549 Y-36.108 Z0.565
X-30.629 Y-36.617 Z0.547
X-30.693 Y-37.132 Z0.529
X-30.739 Y-37.652 Z0.511
X-30.767 Y-38.177 Z0.493
X-30.778 Y-38.705 Z0.474
X-30.769 Y-39.238 Z0.456
X-30.741 Y-39.775 Z0.437
X-30.694 Y-40.315 Z0.418
X-30.625 Y-40.859 Z0.399
X-30.536 Y-41.407 Z0.379
X-30.424 Y-41.957 Z0.36
X-30.291 Y-42.511 Z0.34
X-30.134 Y-43.067 Z0.32
X-29.953 Y-43.627 Z0.299
X-29.748 Y-44.189 Z0.278
X-29.518 Y-44.754 Z0.257
X-29.262 Y-45.322 Z0.235
X-28.979 Y-45.892 Z0.213
X-28.669 Y-46.465 Z0.19
X-28.331 Y-47.04 Z0.167
X-27.965 Y-47.618 Z0.143
X-27.57 Y-48.198 Z0.119
X-27.144 Y-48.78 Z0.093
X-26.689 Y-49.364 Z0.067
X-26.202 Y-49.95 Z0.041
X-25.685 Y-50.538 Z0.014
X-25.135 Y-51.129 Z-0.015
X-24.554 Y-51.721 Z-0.044
X-23.94 Y-52.314 Z-0.073
X-23.291 Y-52.913 Z-0.104
G2 X-24.991 Y-56.824 Z-0.3 I-1.509 J-1.669
G1 X-25.153 Y-56.804 F600
G2 X-61.453 Y-10.343 I6.788 J42.714
X-57.226 Y-9.478 I2.242 J-0.195
G1 X-56.76 Y-10.334
X-56.29 Y-11.155
X-55.814 Y-11.944
X-55.333 Y-12.701
X-54.847 Y-13.428
X-54.355 Y-14.123
X-53.859 Y-14.789
X-53.357 Y-15.424
X-52.852 Y-16.029
X-52.341 Y-16.606
X-51.827 Y-17.153
X-51.308 Y-17.673
X-50.786 Y-18.165
X-50.261 Y-18.63
X-49.732 Y-19.069
X-49.201 Y-19.482
X-48.666 Y-19.869
X-48.13 Y-20.232
X-47.591 Y-20.571
X-47.05 Y-20.886
X-46.508 Y-21.178
X-45.965 Y-21.447
X-45.421 Y-21.695
X-44.876 Y-21.92
X-44.331 Y-22.125
X-43.786 Y-22.309
X-43.241 Y-22.473
X-42.698 Y-22.616
X-42.156 Y-22.741
X-41.615 Y-22.846
X-41.076 Y-22.932
X-40.54 Y-23
X-40.007 Y-23.049
X-39.477 Y-23.081
X-38.951 Y-23.094
X-38.429 Y-23.091
X-37.912 Y-23.07
X-37.4 Y-23.032
X-36.894 Y-22.976
X-36.394 Y-22.905
X-35.9 Y-22.816
X-35.413 Y-22.711
X-34.934 Y-22.59
X-34.462 Y-22.452
X-33.998 Y-22.298
X-33.544 Y-22.127
X-33.098 Y-21.941
X-32.661 Y-21.738
X-32.234 Y-21.52
X-31.817 Y-21.284
X-31.41 Y-21.033
X-31.014 Y-20.765
X-30.629 Y-20.481
X-30.254 Y-20.18
X-29.891 Y-19.862
X-29.539 Y-19.528
X-29.198 Y-19.176
X-28.869 Y-18.806
X-28.552 Y-18.419
X-28.247 Y-18.014
X-27.953 Y-17.59
X-27.672 Y-17.149
X-27.404 Y-16.688
X-27.142 Y-16.199
X-26.897 Y-15.733
X-26.89 Y-15.72
X-26.631 Y-15.251
X-26.624 Y-15.238
X-26.353 Y-14.769
X-26.345 Y-14.757
X-26.064 Y-14.291
X-26.056 Y-14.279
X-25.765 Y-13.816
X-25.757 Y-13.804
X-25.456 Y-13.347
X-25.448 Y-13.335
X-25.139 Y-12.884
X-25.131 Y-12.872
X-24.815 Y-12.429
X-24.806 Y-12.417
X-24.483 Y-11.983
X-24.474 Y-11.971
X-24.145 Y-11.547
X-24.135 Y-11.535
X-23.801 Y-11.122
X-23.79 Y-11.11
X-23.451 Y-10.709
X-23.439 Y-10.696
X-23.095 Y-10.309
X-23.082 Y-10.295
X-22.733 Y-9.922
X-22.72 Y-9.907
X-22.366 Y-9.548
X-22.351 Y-9.534
X-21.992 Y-9.189
X-21.976 Y-9.174
X-21.612 Y-8.845
X-21.595 Y-8.83
X-21.226 Y-8.516
X-21.208 Y-8.501
X-20.833 Y-8.203
X-20.814 Y-8.188
X-20.434 Y-7.905
X-20.413 Y-7.89
X-20.027 Y-7.622
X-20.006 Y-7.608
X-19.613 Y-7.354
X-19.592 Y-7.341
X-19.192 Y-7.102
X-19.171 Y-7.089
X-18.764 Y-6.864
X-18.744 Y-6.853
X-18.33 Y-6.64
X-18.31 Y-6.63
X-17.89 Y-6.43
X-17.871 Y-6.421
X-17.445 Y-6.233
X-17.427 Y-6.225
X-16.995 Y-6.048
X-16.978 Y-6.042
X-16.542 Y-5.875
X-16.527 Y-5.869
X-16.087 Y-5.713
X-16.066 Y-5.706
X-15.18 Y-5.419
X-15.152 Y-5.411
X-14.696 Y-5.283
X-14.688 Y-5.281
X-14.242 Y-5.16
X-14.234 Y-5.158
X-13.797 Y-5.045
X-13.789 Y-5.043
X-13.362 Y-4.937
X-13.353 Y-4.935
X-12.935 Y-4.837
X-12.926 Y-4.835
X-12.518 Y-4.745
X-12.508 Y-4.743
X-12.11 Y-4.66
X-12.1 Y-4.658
X-11.711 Y-4.582
X-11.7 Y-4.58
X-11.322 Y-4.513
X-11.31 Y-4.511
X-10.941 Y-4.451
X-10.929 Y-4.449
X-10.57 Y-4.398
X-10.557 Y-4.396
X-10.208 Y-4.352
X-10.194 Y-4.35
X-9.856 Y-4.315
X-9.84 Y-4.313
X-9.512 Y-4.285
X-9.495 Y-4.284
X-9.178 Y-4.265
X-9.159 Y-4.264
X-8.853 Y-4.253
X-8.832
X-8.537 Y-4.25
X-8.515
X-8.23 Y-4.257
X-8.206
X-7.932 Y-4.272
X-7.906 Y-4.274
X-7.644 Y-4.298
X-7.614 Y-4.301
X-7.364 Y-4.334
X-7.332 Y-4.338
X-7.093 Y-4.38
X-7.058 Y-4.387
X-6.831 Y-4.438
X-6.793 Y-4.447
X-6.577 Y-4.507
X-6.537 Y-4.52
X-6.333 Y-4.589
X-6.29 Y-4.605
X-6.098 Y-4.684
X-6.052 Y-4.705
X-5.873 Y-4.793
X-5.825 Y-4.819
X-5.658 Y-4.917
X-5.609 Y-4.948
X-5.454 Y-5.056
X-5.405 Y-5.093
X-5.263 Y-5.21
X-5.216 Y-5.253
X-5.086 Y-5.38
X-5.041 Y-5.428
X-4.924 Y-5.565
X-4.883 Y-5.618
X-4.779 Y-5.764
X-4.743 Y-5.819
X-4.651 Y-5.976
X-4.621 Y-6.033
X-4.541 Y-6.199
X-4.517 Y-6.255
X-4.45 Y-6.431
X-4.432 Y-6.487
X-4.377 Y-6.672
X-4.363 Y-6.725
X-4.321 Y-6.92
X-4.312 Y-6.97
X-4.282 Y-7.175
X-4.277 Y-7.221
X-4.259 Y-7.435
X-4.256 Y-7.478
X-4.25 Y-7.702
Y-7.741
X-4.256 Y-7.973
X-4.258 Y-8.009
X-4.275 Y-8.251
X-4.278 Y-8.283
X-4.307 Y-8.534
X-4.311 Y-8.563
X-4.352 Y-8.823
X-4.356 Y-8.849
X-4.408 Y-9.118
X-4.413 Y-9.142
X-4.476 Y-9.42
X-4.481 Y-9.441
X-4.555 Y-9.727
X-4.56 Y-9.747
X-4.645 Y-10.042
X-4.651 Y-10.06
X-4.746 Y-10.363
X-4.751 Y-10.379
X-4.857 Y-10.69
X-4.863 Y-10.705
X-4.979 Y-11.025
X-4.984 Y-11.039
X-5.111 Y-11.366
X-5.116 Y-11.379
X-5.253 Y-11.714
X-5.258 Y-11.726
X-5.405 Y-12.069
X-5.41 Y-12.08
X-5.567 Y-12.431
X-5.571 Y-12.441
X-5.738 Y-12.8
X-5.743 Y-12.81
X-5.92 Y-13.176
X-5.924 Y-13.185
X-6.11 Y-13.559
X-6.115 Y-13.567
X-6.311 Y-13.949
X-6.315 Y-13.957
X-6.521 Y-14.346
X-6.525 Y-14.353
X-6.74 Y-14.75
X-6.744 Y-14.757
X-6.969 Y-15.161
X-6.973 Y-15.167
X-7.207 Y-15.579
X-7.222 Y-15.604
X-7.715 Y-16.395
X-7.727 Y-16.413
X-7.985 Y-16.802
X-7.995 Y-16.816
X-8.261 Y-17.199
X-8.272 Y-17.214
X-8.548 Y-17.589
X-8.56 Y-17.605
X-8.846 Y-17.973
X-8.859 Y-17.99
X-9.155 Y-18.348
X-9.169 Y-18.366
X-9.475 Y-18.715
X-9.491 Y-18.733
X-9.809 Y-19.073
X-9.826 Y-19.09
X-10.154 Y-19.42
X-10.173 Y-19.438
X-10.514 Y-19.757
X-10.532 Y-19.774
X-10.886 Y-20.084
X-10.905 Y-20.101
X-11.272 Y-20.401
X-11.291 Y-20.416
X-11.671 Y-20.707
X-11.69 Y-20.722
X-12.084 Y-21.004
X-12.103 Y-21.017
X-12.51 Y-21.29
X-12.529 Y-21.302
X-12.949 Y-21.567
X-12.967 Y-21.578
X-13.401 Y-21.834
X-13.418 Y-21.844
X-13.865 Y-22.093
X-13.882 Y-22.101
X-14.341 Y-22.342
X-14.356 Y-22.35
X-14.827 Y-22.582
X-14.842 Y-22.59
X-15.323 Y-22.814
X-15.337 Y-22.821
X-15.828 Y-23.037
X-15.842 Y-23.043
X-16.341 Y-23.252
X-16.355 Y-23.257
X-16.861 Y-23.457
X-16.875 Y-23.462
X-17.387 Y-23.653
X-17.401 Y-23.657
X-17.917 Y-23.839
X-17.931 Y-23.843
X-18.45 Y-24.014
X-18.463 Y-24.019
X-18.984 Y-24.179
X-18.998 Y-24.183
X-19.518 Y-24.333
X-19.532 Y-24.337
X-20.05 Y-24.475
X-20.065 Y-24.478
X-20.576 Y-24.603
X-21.041 Y-24.721
X-21.486 Y-24.852
X-21.922 Y-24.998
X-22.348 Y-25.16
X-22.765 Y-25.338
X-23.173 Y-25.531
X-23.572 Y-25.739
X-23.962 Y-25.962
X-24.343 Y-26.2
X-24.716 Y-26.453
X-25.079 Y-26.721
X-25.434 Y-27.002
X-25.779 Y-27.298
X-26.116 Y-27.608
X-26.443 Y-27.931
X-26.76 Y-28.267
X-27.068 Y-28.615
X-27.367 Y-28.976
X-27.655 Y-29.349
X-27.933 Y-29.734
X-28.2 Y-30.13
X-28.456 Y-30.537
X-28.701 Y-30.954
X-28.935 Y-31.381
X-29.156 Y-31.818
X-29.365 Y-32.263
X-29.562 Y-32.718
X-29.746 Y-33.18
X-29.916 Y-33.651
X-30.072 Y-34.129
X-30.214 Y-34.614
X-30.341 Y-35.106
X-30.453 Y-35.604
X-30.549 Y-36.108
X-30.629 Y-36.617
X-30.693 Y-37.132
X-30.739 Y-37.652
X-30.767 Y-38.177
X-30.778 Y-38.705
X-30.769 Y-39.238
X-30.741 Y-39.775
X-30.694 Y-40.315
X-30.625 Y-40.859
X-30.536 Y-41.407
X-30.424 Y-41.957
X-30.291 Y-42.511
X-30.134 Y-43.067
X-29.953 Y-43.627
X-29.748 Y-44.189
X-29.518 Y-44.754
X-29.262 Y-45.322
X-28.979 Y-45.892
X-28.669 Y-46.465
X-28.331 Y-47.04
X-27.965 Y-47.618
X-27.57 Y-48.198
X-27.144 Y-48.78
X-26.689 Y-49.364
X-26.202 Y-49.95
X-25.685 Y-50.538
X-25.135 Y-51.129
X-24.554 Y-51.721
X-23.94 Y-52.314
X-23.291 Y-52.913
G2 X-24.991 Y-56.824 I-1.509 J-1.669
G1 X-25.153 Y-56.804 Z-0.306 F1016
G2 X-33.295 Y-54.681 Z-0.6 I6.788 J42.714
X-61.453 Y-10.343 I14.93 J40.591 F600
X-57.226 Y-9.478 I2.242 J-0.195
G1 X-56.76 Y-10.334
X-56.29 Y-11.155
X-55.814 Y-11.944
X-55.333 Y-12.701
X-54.847 Y-13.428
X-54.355 Y-14.123
X-53.859 Y-14.789
X-53.357 Y-15.424
X-52.852 Y-16.029
X-52.341 Y-16.606
X-51.827 Y-17.153
X-51.308 Y-17.673
X-50.786 Y-18.165
X-50.261 Y-18.63
X-49.732 Y-19.069
X-49.201 Y-19.482
X-48.666 Y-19.869
X-48.13 Y-20.232
X-47.591 Y-20.571
X-47.05 Y-20.886
X-46.508 Y-21.178
X-45.965 Y-21.447
X-45.421 Y-21.695
X-44.876 Y-21.92
X-44.331 Y-22.125
X-43.786 Y-22.309
X-43.241 Y-22.473
X-42.698 Y-22.616
X-42.156 Y-22.741
X-41.615 Y-22.846
X-41.076 Y-22.932
X-40.54 Y-23
X-40.007 Y-23.049
X-39.477 Y-23.081
X-38.951 Y-23.094
X-38.429 Y-23.091
X-37.912 Y-23.07
X-37.4 Y-23.032
X-36.894 Y-22.976
X-36.394 Y-22.905
X-35.9 Y-22.816
X-35.413 Y-22.711
X-34.934 Y-22.59
X-34.462 Y-22.452
X-33.998 Y-22.298
X-33.544 Y-22.127
X-33.098 Y-21.941
X-32.661 Y-21.738
X-32.234 Y-21.52
X-31.817 Y-21.284
X-31.41 Y-21.033
X-31.014 Y-20.765
X-30.629 Y-20.481
X-30.254 Y-20.18
X-29.891 Y-19.862
X-29.539 Y-19.528
X-29.198 Y-19.176
X-28.869 Y-18.806
X-28.552 Y-18.419
X-28.247 Y-18.014
X-27.953 Y-17.59
X-27.672 Y-17.149
X-27.404 Y-16.688
X-27.142 Y-16.199
X-26.897 Y-15.733
X-26.89 Y-15.72
X-26.631 Y-15.251
X-26.624 Y-15.238
X-26.353 Y-14.769
X-26.345 Y-14.757
X-26.064 Y-14.291
X-26.056 Y-14.279
X-25.765 Y-13.816
X-25.757 Y-13.804
X-25.456 Y-13.347
X-25.448 Y-13.335
X-25.139 Y-12.884
X-25.131 Y-12.872
X-24.815 Y-12.429
X-24.806 Y-12.417
X-24.483 Y-11.983
X-24.474 Y-11.971
X-24.145 Y-11.547
X-24.135 Y-11.535
X-23.801 Y-11.122
X-23.79 Y-11.11
X-23.451 Y-10.709
X-23.439 Y-10.696
X-23.095 Y-10.309
X-23.082 Y-10.295
X-22.733 Y-9.922
X-22.72 Y-9.907
X-22.366 Y-9.548
X-22.351 Y-9.534
X-21.992 Y-9.189
X-21.976 Y-9.174
X-21.612 Y-8.845
X-21.595 Y-8.83
X-21.226 Y-8.516
X-21.208 Y-8.501
X-20.833 Y-8.203
X-20.814 Y-8.188
X-20.434 Y-7.905
X-20.413 Y-7.89
X-20.027 Y-7.622
X-20.006 Y-7.608
X-19.613 Y-7.354
X-19.592 Y-7.341
X-19.192 Y-7.102
X-19.171 Y-7.089
X-18.764 Y-6.864
X-18.744 Y-6.853
X-18.33 Y-6.64
X-18.31 Y-6.63
X-17.89 Y-6.43
X-17.871 Y-6.421
X-17.445 Y-6.233
X-17.427 Y-6.225
X-16.995 Y-6.048
X-16.978 Y-6.042
X-16.542 Y-5.875
X-16.527 Y-5.869
X-16.087 Y-5.713
X-16.066 Y-5.706
X-15.18 Y-5.419
X-15.152 Y-5.411
X-14.696 Y-5.283
X-14.688 Y-5.281
X-14.242 Y-5.16
X-14.234 Y-5.158
X-13.797 Y-5.045
X-13.789 Y-5.043
X-13.362 Y-4.937
X-13.353 Y-4.935
X-12.935 Y-4.837
X-12.926 Y-4.835
X-12.518 Y-4.745
X-12.508 Y-4.743
X-12.11 Y-4.66
X-12.1 Y-4.658
X-11.711 Y-4.582
X-11.7 Y-4.58
X-11.322 Y-4.513
X-11.31 Y-4.511
X-10.941 Y-4.451
X-10.929 Y-4.449
X-10.57 Y-4.398
X-10.557 Y-4.396
X-10.208 Y-4.352
X-10.194 Y-4.35
X-9.856 Y-4.315
X-9.84 Y-4.313
X-9.512 Y-4.285
X-9.495 Y-4.284
X-9.178 Y-4.265
X-9.159 Y-4.264
X-8.853 Y-4.253
X-8.832
X-8.537 Y-4.25
X-8.515
X-8.23 Y-4.257
X-8.206
X-7.932 Y-4.272
X-7.906 Y-4.274
X-7.644 Y-4.298
X-7.614 Y-4.301
X-7.364 Y-4.334
X-7.332 Y-4.338
X-7.093 Y-4.38
X-7.058 Y-4.387
X-6.831 Y-4.438
X-6.793 Y-4.447
X-6.577 Y-4.507
X-6.537 Y-4.52
X-6.333 Y-4.589
X-6.29 Y-4.605
X-6.098 Y-4.684
X-6.052 Y-4.705
X-5.873 Y-4.793
X-5.825 Y-4.819
X-5.658 Y-4.917
X-5.609 Y-4.948
X-5.454 Y-5.056
X-5.405 Y-5.093
X-5.263 Y-5.21
X-5.216 Y-5.253
X-5.086 Y-5.38
X-5.041 Y-5.428
X-4.924 Y-5.565
X-4.883 Y-5.618
X-4.779 Y-5.764
X-4.743 Y-5.819
X-4.651 Y-5.976
X-4.621 Y-6.033
X-4.541 Y-6.199
X-4.517 Y-6.255
X-4.45 Y-6.431
X-4.432 Y-6.487
X-4.377 Y-6.672
X-4.363 Y-6.725
X-4.321 Y-6.92
X-4.312 Y-6.97
X-4.282 Y-7.175
X-4.277 Y-7.221
X-4.259 Y-7.435
X-4.256 Y-7.478
X-4.25 Y-7.702
Y-7.741
X-4.256 Y-7.973
X-4.258 Y-8.009
X-4.275 Y-8.251
X-4.278 Y-8.283
X-4.307 Y-8.534
X-4.311 Y-8.563
X-4.352 Y-8.823
X-4.356 Y-8.849
X-4.408 Y-9.118
X-4.413 Y-9.142
X-4.476 Y-9.42
X-4.481 Y-9.441
X-4.555 Y-9.727
X-4.56 Y-9.747
X-4.645 Y-10.042
X-4.651 Y-10.06
X-4.746 Y-10.363
X-4.751 Y-10.379
X-4.857 Y-10.69
X-4.863 Y-10.705
X-4.979 Y-11.025
X-4.984 Y-11.039
X-5.111 Y-11.366
X-5.116 Y-11.379
X-5.253 Y-11.714
X-5.258 Y-11.726
X-5.405 Y-12.069
X-5.41 Y-12.08
X-5.567 Y-12.431
X-5.571 Y-12.441
X-5.738 Y-12.8
X-5.743 Y-12.81
X-5.92 Y-13.176
X-5.924 Y-13.185
X-6.11 Y-13.559
X-6.115 Y-13.567
X-6.311 Y-13.949
X-6.315 Y-13.957
X-6.521 Y-14.346
X-6.525 Y-14.353
X-6.74 Y-14.75
X-6.744 Y-14.757
X-6.969 Y-15.161
X-6.973 Y-15.167
X-7.207 Y-15.579
X-7.222 Y-15.604
X-7.715 Y-16.395
X-7.727 Y-16.413
X-7.985 Y-16.802
X-7.995 Y-16.816
X-8.261 Y-17.199
X-8.272 Y-17.214
X-8.548 Y-17.589
X-8.56 Y-17.605
X-8.846 Y-17.973
X-8.859 Y-17.99
X-9.155 Y-18.348
X-9.169 Y-18.366
X-9.475 Y-18.715
X-9.491 Y-18.733
X-9.809 Y-19.073
X-9.826 Y-19.09
X-10.154 Y-19.42
X-10.173 Y-19.438
X-10.514 Y-19.757
X-10.532 Y-19.774
X-10.886 Y-20.084
X-10.905 Y-20.101
X-11.272 Y-20.401
X-11.291 Y-20.416
X-11.671 Y-20.707
X-11.69 Y-20.722
X-12.084 Y-21.004
X-12.103 Y-21.017
X-12.51 Y-21.29
X-12.529 Y-21.302
X-12.949 Y-21.567
X-12.967 Y-21.578
X-13.401 Y-21.834
X-13.418 Y-21.844
X-13.865 Y-22.093
X-13.882 Y-22.101
X-14.341 Y-22.342
X-14.356 Y-22.35
X-14.827 Y-22.582
X-14.842 Y-22.59
X-15.323 Y-22.814
X-15.337 Y-22.821
X-15.828 Y-23.037
X-15.842 Y-23.043
X-16.341 Y-23.252
X-16.355 Y-23.257
X-16.861 Y-23.457
X-16.875 Y-23.462
X-17.387 Y-23.653
X-17.401 Y-23.657
X-17.917 Y-23.839
X-17.931 Y-23.843
X-18.45 Y-24.014
X-18.463 Y-24.019
X-18.984 Y-24.179
X-18.998 Y-24.183
X-19.518 Y-24.333
X-19.532 Y-24.337
X-20.05 Y-24.475
X-20.065 Y-24.478
X-20.576 Y-24.603
X-21.041 Y-24.721
X-21.486 Y-24.852
X-21.922 Y-24.998
X-22.348 Y-25.16
X-22.765 Y-25.338
X-23.173 Y-25.531
X-23.572 Y-25.739
X-23.962 Y-25.962
X-24.343 Y-26.2
X-24.716 Y-26.453
X-25.079 Y-26.721
X-25.434 Y-27.002
X-25.779 Y-27.298
X-26.116 Y-27.608
X-26.443 Y-27.931
X-26.76 Y-28.267
X-27.068 Y-28.615
X-27.367 Y-28.976
X-27.655 Y-29.349
X-27.933 Y-29.734
X-28.2 Y-30.13
X-28.456 Y-30.537
X-28.701 Y-30.954
X-28.935 Y-31.381
X-29.156 Y-31.818
X-29.365 Y-32.263
X-29.562 Y-32.718
X-29.746 Y-33.18
X-29.916 Y-33.651
X-30.072 Y-34.129
X-30.214 Y-34.614
X-30.341 Y-35.106
X-30.453 Y-35.604
X-30.549 Y-36.108
X-30.629 Y-36.617
X-30.693 Y-37.132
X-30.739 Y-37.652
X-30.767 Y-38.177
X-30.778 Y-38.705
X-30.769 Y-39.238
X-30.741 Y-39.775
X-30.694 Y-40.315
X-30.625 Y-40.859
X-30.536 Y-41.407
X-30.424 Y-41.957
X-30.291 Y-42.511
X-30.134 Y-43.067
X-29.953 Y-43.627
X-29.748 Y-44.189
X-29.518 Y-44.754
X-29.262 Y-45.322
X-28.979 Y-45.892
X-28.669 Y-46.465
X-28.331 Y-47.04
X-27.965 Y-47.618
X-27.57 Y-48.198
X-27.144 Y-48.78
X-26.689 Y-49.364
X-26.202 Y-49.95
X-25.685 Y-50.538
X-25.135 Y-51.129
X-24.554 Y-51.721
X-23.94 Y-52.314
X-23.291 Y-52.913
G2 X-25.153 Y-56.804 I-1.509 J-1.669
X-33.295 Y-54.681 I6.788 J42.714
X-38.8 Y-52.208 Z-0.811 I14.93 J40.591 F1016
G1 Z-0.625
G2 X-41.011 Y-50.937 I20.435 J38.118
X-41.816 Y-50.431 I22.646 J36.847 F600
G1 Z-0.9 F300
G2 X-59.3 Y-28.052 I23.45 J36.341 F600
G1 Z-0.625
G2 X-60.295 Y-24.697 I40.934 J13.962
G1 Z-0.9 F300
G2 X-61.453 Y-10.343 I41.929 J10.607 F600
X-57.226 Y-9.478 I2.242 J-0.195
G1 X-56.76 Y-10.334
X-56.29 Y-11.155
X-55.814 Y-11.944
X-55.333 Y-12.701
X-54.847 Y-13.428
X-54.355 Y-14.123
X-53.859 Y-14.789
X-53.357 Y-15.424
X-52.852 Y-16.029
X-52.341 Y-16.606
X-51.827 Y-17.153
X-51.308 Y-17.673
X-50.786 Y-18.165
X-50.261 Y-18.63
X-49.732 Y-19.069
X-49.201 Y-19.482
X-48.666 Y-19.869
X-48.13 Y-20.232
X-47.591 Y-20.571
X-47.05 Y-20.886
X-46.508 Y-21.178
X-45.965 Y-21.447
X-45.421 Y-21.695
X-44.876 Y-21.92
X-44.331 Y-22.125
X-43.786 Y-22.309
X-43.241 Y-22.473
X-42.698 Y-22.616
X-42.269 Y-22.715
Z-0.625
X-42.156 Y-22.741
X-41.615 Y-22.846
X-41.076 Y-22.932
X-40.54 Y-23
X-40.007 Y-23.049
X-39.477 Y-23.081
X-38.951 Y-23.094
X-38.79 Y-23.093
Z-0.9 F300
X-38.429 Y-23.091 F600
X-37.912 Y-23.07
X-37.4 Y-23.032
X-36.894 Y-22.976
X-36.394 Y-22.905
X-35.9 Y-22.816
X-35.413 Y-22.711
X-34.934 Y-22.59
X-34.462 Y-22.452
X-33.998 Y-22.298
X-33.544 Y-22.127
X-33.098 Y-21.941
X-32.661 Y-21.738
X-32.234 Y-21.52
X-31.817 Y-21.284
X-31.41 Y-21.033
X-31.014 Y-20.765
X-30.629 Y-20.481
X-30.254 Y-20.18
X-29.891 Y-19.862
X-29.539 Y-19.528
X-29.198 Y-19.176
X-28.869 Y-18.806
X-28.552 Y-18.419
X-28.247 Y-18.014
X-27.953 Y-17.59
X-27.672 Y-17.149
X-27.404 Y-16.688
X-27.142 Y-16.199
X-26.897 Y-15.733
X-26.89 Y-15.72
X-26.631 Y-15.251
X-26.624 Y-15.238
X-26.353 Y-14.769
X-26.345 Y-14.757
X-26.064 Y-14.291
X-26.056 Y-14.279
X-25.765 Y-13.816
X-25.757 Y-13.804
X-25.456 Y-13.347
X-25.448 Y-13.335
X-25.139 Y-12.884
X-25.131 Y-12.872
X-24.815 Y-12.429
X-24.806 Y-12.417
X-24.483 Y-11.983
X-24.474 Y-11.971
X-24.145 Y-11.547
X-24.135 Y-11.535
X-23.801 Y-11.122
X-23.79 Y-11.11
X-23.451 Y-10.709
X-23.439 Y-10.696
X-23.095 Y-10.309
X-23.082 Y-10.295
X-22.733 Y-9.922
X-22.72 Y-9.907
X-22.366 Y-9.548
X-22.351 Y-9.534
X-21.992 Y-9.189
X-21.976 Y-9.174
X-21.612 Y-8.845
X-21.595 Y-8.83
X-21.226 Y-8.516
X-21.208 Y-8.501
X-20.833 Y-8.203
X-20.814 Y-8.188
X-20.434 Y-7.905
X-20.413 Y-7.89
X-20.027 Y-7.622
X-20.006 Y-7.608
X-19.613 Y-7.354
X-19.592 Y-7.341
X-19.192 Y-7.102
X-19.171 Y-7.089
X-18.764 Y-6.864
X-18.744 Y-6.853
X-18.33 Y-6.64
X-18.31 Y-6.63
X-17.89 Y-6.43
X-17.871 Y-6.421
X-17.445 Y-6.233
X-17.427 Y-6.225
X-16.995 Y-6.048
X-16.978 Y-6.042
X-16.542 Y-5.875
X-16.527 Y-5.869
X-16.087 Y-5.713
X-16.066 Y-5.706
X-15.18 Y-5.419
X-15.152 Y-5.411
X-14.696 Y-5.283
X-14.688 Y-5.281
X-14.242 Y-5.16
X-14.234 Y-5.158
X-13.797 Y-5.045
X-13.789 Y-5.043
X-13.362 Y-4.937
X-13.353 Y-4.935
X-12.935 Y-4.837
X-12.926 Y-4.835
X-12.518 Y-4.745
X-12.508 Y-4.743
X-12.11 Y-4.66
X-12.1 Y-4.658
X-11.711 Y-4.582
X-11.7 Y-4.58
X-11.322 Y-4.513
X-11.31 Y-4.511
X-10.941 Y-4.451
X-10.929 Y-4.449
X-10.57 Y-4.398
X-10.557 Y-4.396
X-10.208 Y-4.352
X-10.194 Y-4.35
X-9.856 Y-4.315
X-9.84 Y-4.313
X-9.512 Y-4.285
X-9.495 Y-4.284
X-9.178 Y-4.265
X-9.159 Y-4.264
X-8.853 Y-4.253
X-8.832
X-8.537 Y-4.25
X-8.515
X-8.23 Y-4.257
X-8.206
X-7.932 Y-4.272
X-7.906 Y-4.274
X-7.644 Y-4.298
X-7.614 Y-4.301
X-7.364 Y-4.334
X-7.332 Y-4.338
X-7.093 Y-4.38
X-7.058 Y-4.387
X-6.831 Y-4.438
X-6.793 Y-4.447
X-6.577 Y-4.507
X-6.537 Y-4.52
X-6.333 Y-4.589
X-6.29 Y-4.605
X-6.098 Y-4.684
X-6.052 Y-4.705
X-5.873 Y-4.793
X-5.825 Y-4.819
X-5.658 Y-4.917
X-5.609 Y-4.948
X-5.454 Y-5.056
X-5.405 Y-5.093
X-5.263 Y-5.21
X-5.216 Y-5.253
X-5.086 Y-5.38
X-5.041 Y-5.428
X-4.924 Y-5.565
X-4.883 Y-5.618
X-4.779 Y-5.764
X-4.743 Y-5.819
X-4.651 Y-5.976
X-4.621 Y-6.033
X-4.541 Y-6.199
X-4.517 Y-6.255
X-4.45 Y-6.431
X-4.432 Y-6.487
X-4.377 Y-6.672
X-4.363 Y-6.725
X-4.321 Y-6.92
X-4.312 Y-6.97
X-4.282 Y-7.175
X-4.277 Y-7.221
X-4.259 Y-7.435
X-4.256 Y-7.478
X-4.25 Y-7.702
Y-7.741
X-4.256 Y-7.973
X-4.258 Y-8.009
X-4.275 Y-8.251
X-4.278 Y-8.283
X-4.307 Y-8.534
X-4.311 Y-8.563
X-4.352 Y-8.823
X-4.356 Y-8.849
X-4.408 Y-9.118
X-4.413 Y-9.142
X-4.476 Y-9.42
X-4.481 Y-9.441
X-4.555 Y-9.727
X-4.56 Y-9.747
X-4.645 Y-10.042
X-4.651 Y-10.06
X-4.746 Y-10.363
X-4.751 Y-10.379
X-4.857 Y-10.69
X-4.863 Y-10.705
X-4.979 Y-11.025
X-4.984 Y-11.039
X-5.111 Y-11.366
X-5.116 Y-11.379
X-5.253 Y-11.714
X-5.258 Y-11.726
X-5.405 Y-12.069
X-5.41 Y-12.08
X-5.567 Y-12.431
X-5.571 Y-12.441
X-5.738 Y-12.8
X-5.743 Y-12.81
X-5.92 Y-13.176
X-5.924 Y-13.185
X-6.11 Y-13.559
X-6.115 Y-13.567
X-6.311 Y-13.949
X-6.315 Y-13.957
X-6.521 Y-14.346
X-6.525 Y-14.353
X-6.74 Y-14.75
X-6.744 Y-14.757
X-6.969 Y-15.161
X-6.973 Y-15.167
X-7.207 Y-15.579
X-7.222 Y-15.604
X-7.715 Y-16.395
X-7.727 Y-16.413
X-7.985 Y-16.802
X-7.995 Y-16.816
X-8.261 Y-17.199
X-8.272 Y-17.214
X-8.548 Y-17.589
X-8.56 Y-17.605
X-8.846 Y-17.973
X-8.859 Y-17.99
X-9.155 Y-18.348
X-9.169 Y-18.366
X-9.475 Y-18.715
X-9.491 Y-18.733
X-9.809 Y-19.073
X-9.826 Y-19.09
X-10.154 Y-19.42
X-10.173 Y-19.438
X-10.514 Y-19.757
X-10.532 Y-19.774
X-10.886 Y-20.084
X-10.905 Y-20.101
X-11.272 Y-20.401
X-11.291 Y-20.416
X-11.671 Y-20.707
X-11.69 Y-20.722
X-12.084 Y-21.004
X-12.103 Y-21.017
X-12.51 Y-21.29
X-12.529 Y-21.302
X-12.949 Y-21.567
X-12.967 Y-21.578
X-13.401 Y-21.834
X-13.418 Y-21.844
X-13.865 Y-22.093
X-13.882 Y-22.101
X-14.341 Y-22.342
X-14.356 Y-22.35
X-14.827 Y-22.582
X-14.842 Y-22.59
X-15.323 Y-22.814
X-15.337 Y-22.821
X-15.828 Y-23.037
X-15.842 Y-23.043
X-16.341 Y-23.252
X-16.355 Y-23.257
X-16.861 Y-23.457
X-16.875 Y-23.462
X-17.387 Y-23.653
X-17.401 Y-23.657
X-17.917 Y-23.839
X-17.931 Y-23.843
X-18.45 Y-24.014
X-18.463 Y-24.019
X-18.984 Y-24.179
X-18.998 Y-24.183
X-19.518 Y-24.333
X-19.532 Y-24.337
X-20.05 Y-24.475
X-20.065 Y-24.478
X-20.576 Y-24.603
X-21.041 Y-24.721
X-21.486 Y-24.852
X-21.922 Y-24.998
X-22.348 Y-25.16
X-22.765 Y-25.338
X-23.173 Y-25.531
X-23.572 Y-25.739
X-23.962 Y-25.962
X-24.343 Y-26.2
X-24.716 Y-26.453
X-25.079 Y-26.721
X-25.434 Y-27.002
X-25.779 Y-27.298
X-26.116 Y-27.608
X-26.443 Y-27.931
X-26.76 Y-28.267
X-27.068 Y-28.615
X-27.367 Y-28.976
X-27.655 Y-29.349
X-27.933 Y-29.734
X-28.2 Y-30.13
X-28.456 Y-30.537
X-28.701 Y-30.954
X-28.935 Y-31.381
X-29.156 Y-31.818
X-29.365 Y-32.263
X-29.562 Y-32.718
X-29.746 Y-33.18
X-29.835 Y-33.428
Z-0.625
X-29.916 Y-33.651
X-30.072 Y-34.129
X-30.214 Y-34.614
X-30.341 Y-35.106
X-30.453 Y-35.604
X-30.549 Y-36.108
X-30.629 Y-36.617
X-30.655 Y-36.83
Z-0.9 F300
X-30.693 Y-37.132 F600
X-30.739 Y-37.652
X-30.767 Y-38.177
X-30.778 Y-38.705
X-30.769 Y-39.238
X-30.741 Y-39.775
X-30.694 Y-40.315
X-30.625 Y-40.859
X-30.536 Y-41.407
X-30.424 Y-41.957
X-30.291 Y-42.511
X-30.134 Y-43.067
X-29.953 Y-43.627
X-29.748 Y-44.189
X-29.518 Y-44.754
X-29.262 Y-45.322
X-28.979 Y-45.892
X-28.669 Y-46.465
X-28.331 Y-47.04
X-27.965 Y-47.618
X-27.57 Y-48.198
X-27.144 Y-48.78
X-26.689 Y-49.364
X-26.202 Y-49.95
X-25.685 Y-50.538
X-25.135 Y-51.129
X-24.554 Y-51.721
X-23.94 Y-52.314
X-23.291 Y-52.913
G2 X-25.153 Y-56.804 I-1.509 J-1.669
X-38.8 Y-52.208 I6.788 J42.714
G1 Z-0.625
G2 X-41.011 Y-50.937 I20.435 J38.118
X-41.816 Y-50.431 I22.646 J36.847 F1016
G1 Z-0.933 F300
G2 X-43.4 Y-49.358 Z-1 I23.45 J36.341 F1016
X-59.3 Y-28.052 I25.034 J35.268 F600
G1 Z-0.625
G2 X-60.295 Y-24.697 I40.934 J13.962
G1 Z-1 F300
G2 X-61.453 Y-10.343 I41.929 J10.607 F600
X-57.226 Y-9.478 I2.242 J-0.195
G1 X-56.76 Y-10.334
X-56.29 Y-11.155
X-55.814 Y-11.944
X-55.333 Y-12.701
X-54.847 Y-13.428
X-54.355 Y-14.123
X-53.859 Y-14.789
X-53.357 Y-15.424
X-52.852 Y-16.029
X-52.341 Y-16.606
X-51.827 Y-17.153
X-51.308 Y-17.673
X-50.786 Y-18.165
X-50.261 Y-18.63
X-49.732 Y-19.069
X-49.201 Y-19.482
X-48.666 Y-19.869
X-48.13 Y-20.232
X-47.591 Y-20.571
X-47.05 Y-20.886
X-46.508 Y-21.178
X-45.965 Y-21.447
X-45.421 Y-21.695
X-44.876 Y-21.92
X-44.331 Y-22.125
X-43.786 Y-22.309
X-43.241 Y-22.473
X-42.698 Y-22.616
X-42.269 Y-22.715
Z-0.625
X-42.156 Y-22.741
X-41.615 Y-22.846
X-41.076 Y-22.932
X-40.54 Y-23
X-40.007 Y-23.049
X-39.477 Y-23.081
X-38.951 Y-23.094
X-38.79 Y-23.093
Z-1 F300
X-38.429 Y-23.091 F600
X-37.912 Y-23.07
X-37.4 Y-23.032
X-36.894 Y-22.976
X-36.394 Y-22.905
X-35.9 Y-22.816
X-35.413 Y-22.711
X-34.934 Y-22.59
X-34.462 Y-22.452
X-33.998 Y-22.298
X-33.544 Y-22.127
X-33.098 Y-21.941
X-32.661 Y-21.738
X-32.234 Y-21.52
X-31.817 Y-21.284
X-31.41 Y-21.033
X-31.014 Y-20.765
X-30.629 Y-20.481
X-30.254 Y-20.18
X-29.891 Y-19.862
X-29.539 Y-19.528
X-29.198 Y-19.176
X-28.869 Y-18.806
X-28.552 Y-18.419
X-28.247 Y-18.014
X-27.953 Y-17.59
X-27.672 Y-17.149
X-27.404 Y-16.688
X-27.142 Y-16.199
X-26.897 Y-15.733
X-26.89 Y-15.72
X-26.631 Y-15.251
X-26.624 Y-15.238
X-26.353 Y-14.769
X-26.345 Y-14.757
X-26.064 Y-14.291
X-26.056 Y-14.279
X-25.765 Y-13.816
X-25.757 Y-13.804
X-25.456 Y-13.347
X-25.448 Y-13.335
X-25.139 Y-12.884
X-25.131 Y-12.872
X-24.815 Y-12.429
X-24.806 Y-12.417
X-24.483 Y-11.983
X-24.474 Y-11.971
X-24.145 Y-11.547
X-24.135 Y-11.535
X-23.801 Y-11.122
X-23.79 Y-11.11
X-23.451 Y-10.709
X-23.439 Y-10.696
X-23.095 Y-10.309
X-23.082 Y-10.295
X-22.733 Y-9.922
X-22.72 Y-9.907
X-22.366 Y-9.548
X-22.351 Y-9.534
X-21.992 Y-9.189
X-21.976 Y-9.174
X-21.612 Y-8.845
X-21.595 Y-8.83
X-21.226 Y-8.516
X-21.208 Y-8.501
X-20.833 Y-8.203
X-20.814 Y-8.188
X-20.434 Y-7.905
X-20.413 Y-7.89
X-20.027 Y-7.622
X-20.006 Y-7.608
X-19.613 Y-7.354
X-19.592 Y-7.341
X-19.192 Y-7.102
X-19.171 Y-7.089
X-18.764 Y-6.864
X-18.744 Y-6.853
X-18.33 Y-6.64
X-18.31 Y-6.63
X-17.89 Y-6.43
X-17.871 Y-6.421
X-17.445 Y-6.233
X-17.427 Y-6.225
X-16.995 Y-6.048
X-16.978 Y-6.042
X-16.542 Y-5.875
X-16.527 Y-5.869
X-16.087 Y-5.713
X-16.066 Y-5.706
X-15.18 Y-5.419
X-15.152 Y-5.411
X-14.696 Y-5.283
X-14.688 Y-5.281
X-14.242 Y-5.16
X-14.234 Y-5.158
X-13.797 Y-5.045
X-13.789 Y-5.043
X-13.362 Y-4.937
X-13.353 Y-4.935
X-12.935 Y-4.837
X-12.926 Y-4.835
X-12.518 Y-4.745
X-12.508 Y-4.743
X-12.11 Y-4.66
X-12.1 Y-4.658
X-11.711 Y-4.582
X-11.7 Y-4.58
X-11.322 Y-4.513
X-11.31 Y-4.511
X-10.941 Y-4.451
X-10.929 Y-4.449
X-10.57 Y-4.398
X-10.557 Y-4.396
X-10.208 Y-4.352
X-10.194 Y-4.35
X-9.856 Y-4.315
X-9.84 Y-4.313
X-9.512 Y-4.285
X-9.495 Y-4.284
X-9.178 Y-4.265
X-9.159 Y-4.264
X-8.853 Y-4.253
X-8.832
X-8.537 Y-4.25
X-8.515
X-8.23 Y-4.257
X-8.206
X-7.932 Y-4.272
X-7.906 Y-4.274
X-7.644 Y-4.298
X-7.614 Y-4.301
X-7.364 Y-4.334
X-7.332 Y-4.338
X-7.093 Y-4.38
X-7.058 Y-4.387
X-6.831 Y-4.438
X-6.793 Y-4.447
X-6.577 Y-4.507
X-6.537 Y-4.52
X-6.333 Y-4.589
X-6.29 Y-4.605
X-6.098 Y-4.684
X-6.052 Y-4.705
X-5.873 Y-4.793
X-5.825 Y-4.819
X-5.658 Y-4.917
X-5.609 Y-4.948
X-5.454 Y-5.056
X-5.405 Y-5.093
X-5.263 Y-5.21
X-5.216 Y-5.253
X-5.086 Y-5.38
X-5.041 Y-5.428
X-4.924 Y-5.565
X-4.883 Y-5.618
X-4.779 Y-5.764
X-4.743 Y-5.819
X-4.651 Y-5.976
X-4.621 Y-6.033
X-4.541 Y-6.199
X-4.517 Y-6.255
X-4.45 Y-6.431
X-4.432 Y-6.487
X-4.377 Y-6.672
X-4.363 Y-6.725
X-4.321 Y-6.92
X-4.312 Y-6.97
X-4.282 Y-7.175
X-4.277 Y-7.221
X-4.259 Y-7.435
X-4.256 Y-7.478
X-4.25 Y-7.702
Y-7.741
X-4.256 Y-7.973
X-4.258 Y-8.009
X-4.275 Y-8.251
X-4.278 Y-8.283
X-4.307 Y-8.534
X-4.311 Y-8.563
X-4.352 Y-8.823
X-4.356 Y-8.849
X-4.408 Y-9.118
X-4.413 Y-9.142
X-4.476 Y-9.42
X-4.481 Y-9.441
X-4.555 Y-9.727
X-4.56 Y-9.747
X-4.645 Y-10.042
X-4.651 Y-10.06
X-4.746 Y-10.363
X-4.751 Y-10.379
X-4.857 Y-10.69
X-4.863 Y-10.705
X-4.979 Y-11.025
X-4.984 Y-11.039
X-5.111 Y-11.366
X-5.116 Y-11.379
X-5.253 Y-11.714
X-5.258 Y-11.726
X-5.405 Y-12.069
X-5.41 Y-12.08
X-5.567 Y-12.431
X-5.571 Y-12.441
X-5.738 Y-12.8
X-5.743 Y-12.81
X-5.92 Y-13.176
X-5.924 Y-13.185
X-6.11 Y-13.559
X-6.115 Y-13.567
X-6.311 Y-13.949
X-6.315 Y-13.957
X-6.521 Y-14.346
X-6.525 Y-14.353
X-6.74 Y-14.75
X-6.744 Y-14.757
X-6.969 Y-15.161
X-6.973 Y-15.167
X-7.207 Y-15.579
X-7.222 Y-15.604
X-7.715 Y-16.395
X-7.727 Y-16.413
X-7.985 Y-16.802
X-7.995 Y-16.816
X-8.261 Y-17.199
X-8.272 Y-17.214
X-8.548 Y-17.589
X-8.56 Y-17.605
X-8.846 Y-17.973
X-8.859 Y-17.99
X-9.155 Y-18.348
X-9.169 Y-18.366
X-9.475 Y-18.715
X-9.491 Y-18.733
X-9.809 Y-19.073
X-9.826 Y-19.09
X-10.154 Y-19.42
X-10.173 Y-19.438
X-10.514 Y-19.757
X-10.532 Y-19.774
X-10.886 Y-20.084
X-10.905 Y-20.101
X-11.272 Y-20.401
X-11.291 Y-20.416
X-11.671 Y-20.707
X-11.69 Y-20.722
X-12.084 Y-21.004
X-12.103 Y-21.017
X-12.51 Y-21.29
X-12.529 Y-21.302
X-12.949 Y-21.567
X-12.967 Y-21.578
X-13.401 Y-21.834
X-13.418 Y-21.844
X-13.865 Y-22.093
X-13.882 Y-22.101
X-14.341 Y-22.342
X-14.356 Y-22.35
X-14.827 Y-22.582
X-14.842 Y-22.59
X-15.323 Y-22.814
X-15.337 Y-22.821
X-15.828 Y-23.037
X-15.842 Y-23.043
X-16.341 Y-23.252
X-16.355 Y-23.257
X-16.861 Y-23.457
X-16.875 Y-23.462
X-17.387 Y-23.653
X-17.401 Y-23.657
X-17.917 Y-23.839
X-17.931 Y-23.843
X-18.45 Y-24.014
X-18.463 Y-24.019
X-18.984 Y-24.179
X-18.998 Y-24.183
X-19.518 Y-24.333
X-19.532 Y-24.337
X-20.05 Y-24.475
X-20.065 Y-24.478
X-20.576 Y-24.603
X-21.041 Y-24.721
X-21.486 Y-24.852
X-21.922 Y-24.998
X-22.348 Y-25.16
X-22.765 Y-25.338
X-23.173 Y-25.531
X-23.572 Y-25.739
X-23.962 Y-25.962
X-24.343 Y-26.2
X-24.716 Y-26.453
X-25.079 Y-26.721
X-25.434 Y-27.002
X-25.779 Y-27.298
X-26.116 Y-27.608
X-26.443 Y-27.931
X-26.76 Y-28.267
X-27.068 Y-28.615
X-27.367 Y-28.976
X-27.655 Y-29.349
X-27.933 Y-29.734
X-28.2 Y-30.13
X-28.456 Y-30.537
X-28.701 Y-30.954
X-28.935 Y-31.381
X-29.156 Y-31.818
X-29.365 Y-32.263
X-29.562 Y-32.718
X-29.746 Y-33.18
X-29.835 Y-33.428
Z-0.625
X-29.916 Y-33.651
X-30.072 Y-34.129
X-30.214 Y-34.614
X-30.341 Y-35.106
X-30.453 Y-35.604
X-30.549 Y-36.108
X-30.629 Y-36.617
X-30.655 Y-36.83
Z-1 F300
X-30.693 Y-37.132 F600
X-30.739 Y-37.652
X-30.767 Y-38.177
X-30.778 Y-38.705
X-30.769 Y-39.238
X-30.741 Y-39.775
X-30.694 Y-40.315
X-30.625 Y-40.859
X-30.536 Y-41.407
X-30.424 Y-41.957
X-30.291 Y-42.511
X-30.134 Y-43.067
X-29.953 Y-43.627
X-29.748 Y-44.189
X-29.518 Y-44.754
X-29.262 Y-45.322
X-28.979 Y-45.892
X-28.669 Y-46.465
X-28.331 Y-47.04
X-27.965 Y-47.618
X-27.57 Y-48.198
X-27.144 Y-48.78
X-26.689 Y-49.364
X-26.202 Y-49.95
X-25.685 Y-50.538
X-25.135 Y-51.129
X-24.554 Y-51.721
X-23.94 Y-52.314
X-23.291 Y-52.913
G2 X-25.153 Y-56.804 I-1.509 J-1.669
X-38.8 Y-52.208 I6.788 J42.714
G1 Z-0.625
G2 X-41.816 Y-50.431 I20.435 J38.118
G1 Z-1 F300
G2 X-43.4 Y-49.358 I23.45 J36.341 F600
G1 Z15
(When using Fusion 360 for Personal Use, the feedrate of)
(rapid moves is reduced to match the feedrate of cutting)
(moves, which can increase machining time. Unrestricted rapid)
(moves are available with a Fusion 360 Subscription.)

(Bohrfrasen3)
G0 X-81.193 Y-20.363
G1 Z15 F600
Z2
Z0.15 F400
X-81.186 Z0.104
X-81.165 Z0.062
X-81.131 Z0.029
X-81.09 Z0.007
X-81.043 Z0
X-80.968
X-80.922 Y-20.356
X-80.88 Y-20.334
X-80.847 Y-20.301
X-80.826 Y-20.259
X-80.818 Y-20.213
G3 X-82.418 Y-20.213 Z-0.5 I-0.8 J0 F600
X-80.818 Y-20.213 Z-1 I0.8 J0
X-82.418 Y-20.213 I-0.8 J0
X-80.818 Y-20.213 I0.8 J0
G1 X-80.826 Y-20.167
X-80.847 Y-20.125
X-80.88 Y-20.092
X-80.922 Y-20.07
X-80.968 Y-20.063
X-81.043
X-81.09 Z-0.993
X-81.131 Z-0.971
X-81.165 Z-0.938
X-81.186 Z-0.896
X-81.193 Z-0.85
Z5
X-74.756 Y-18.981
Z2
Z0.15 F400
X-74.748 Z0.104
X-74.727 Z0.062
X-74.694 Z0.029
X-74.652 Z0.007
X-74.606 Z0
X-74.531
X-74.484 Y-18.973
X-74.442 Y-18.952
X-74.409 Y-18.919
X-74.388 Y-18.877
X-74.381 Y-18.831
G3 X-74.981 Y-18.831 Z-0.5 I-0.3 J0 F600
X-74.381 Y-18.831 Z-1 I0.3 J0
X-74.981 Y-18.831 I-0.3 J0
X-74.381 Y-18.831 I0.3 J0
G1 X-74.388 Y-18.784
X-74.409 Y-18.742
X-74.442 Y-18.709
X-74.484 Y-18.688
X-74.531 Y-18.681
X-74.606
X-74.652 Z-0.993
X-74.694 Z-0.971
X-74.727 Z-0.938
X-74.748 Z-0.896
X-74.756 Z-0.85
Z5
X-69.041 Y-15.063
Z2
Z0.15 F400
X-69.033 Z0.104
X-69.012 Z0.062
X-68.979 Z0.029
X-68.937 Z0.007
X-68.891 Z0
X-68.816
X-68.769 Y-15.055
X-68.727 Y-15.034
X-68.694 Y-15.001
X-68.673 Y-14.959
X-68.666 Y-14.913
G3 X-70.666 Y-14.913 Z-0.5 I-1 J0 F600
X-68.666 Y-14.913 Z-1 I1 J0
X-70.666 Y-14.913 I-1 J0
X-68.666 Y-14.913 I1 J0
G1 X-68.673 Y-14.866
X-68.694 Y-14.824
X-68.727 Y-14.791
X-68.769 Y-14.77
X-68.816 Y-14.763
X-68.891
X-68.937 Z-0.993
X-68.979 Z-0.971
X-69.012 Z-0.938
X-69.033 Z-0.896
X-69.041 Z-0.85
Z5
X-72.557 Y-14.514
Z2
Z0.15 F400
X-72.55 Z0.104
X-72.528 Z0.062
X-72.495 Z0.029
X-72.453 Z0.007
X-72.407 Z0
X-72.332
X-72.286 Y-14.507
X-72.244 Y-14.486
X-72.211 Y-14.452
X-72.189 Y-14.411
X-72.182 Y-14.364
G3 X-76.082 Y-14.364 Z-0.5 I-1.95 J0 F600
X-72.182 Y-14.364 Z-1 I1.95 J0
X-76.082 Y-14.364 I-1.95 J0
X-72.182 Y-14.364 I1.95 J0
G1 X-72.189 Y-14.318
X-72.211 Y-14.276
X-72.244 Y-14.243
X-72.286 Y-14.222
X-72.332 Y-14.214
X-72.407
X-72.453 Z-0.993
X-72.495 Z-0.971
X-72.528 Z-0.938
X-72.55 Z-0.896
X-72.557 Z-0.85
Z5
X-77.974 Y-13.966
Z2
Z0.15 F400
X-77.966 Z0.104
X-77.945 Z0.062
X-77.912 Z0.029
X-77.87 Z0.007
X-77.824 Z0
X-77.749
X-77.702 Y-13.958
X-77.66 Y-13.937
X-77.627 Y-13.904
X-77.606 Y-13.862
X-77.599 Y-13.816
G3 X-79.599 Y-13.816 Z-0.5 I-1 J0 F600
X-77.599 Y-13.816 Z-1 I1 J0
X-79.599 Y-13.816 I-1 J0
X-77.599 Y-13.816 I1 J0
G1 X-77.606 Y-13.769
X-77.627 Y-13.728
X-77.66 Y-13.694
X-77.702 Y-13.673
X-77.749 Y-13.666
X-77.824
X-77.87 Z-0.993
X-77.912 Z-0.971
X-77.945 Z-0.938
X-77.966 Z-0.896
X-77.974 Z-0.85
Z5
X-73.659 Y-10.048
Z2
Z0.15 F400
X-73.651 Z0.104
X-73.63 Z0.062
X-73.597 Z0.029
X-73.555 Z0.007
X-73.509 Z0
X-73.434
X-73.387 Y-10.04
X-73.346 Y-10.019
X-73.312 Y-9.986
X-73.291 Y-9.944
X-73.284 Y-9.898
G3 X-73.884 Y-9.898 Z-0.5 I-0.3 J0 F600
X-73.284 Y-9.898 Z-1 I0.3 J0
X-73.884 Y-9.898 I-0.3 J0
X-73.284 Y-9.898 I0.3 J0
G1 X-73.291 Y-9.851
X-73.312 Y-9.81
X-73.346 Y-9.776
X-73.387 Y-9.755
X-73.434 Y-9.748
X-73.509
X-73.555 Z-0.993
X-73.597 Z-0.971
X-73.63 Z-0.938
X-73.651 Z-0.896
X-73.659 Z-0.85
Z5
X-66.221 Y-8.665
Z2
Z0.15 F400
X-66.214 Z0.104
X-66.192 Z0.062
X-66.159 Z0.029
X-66.117 Z0.007
X-66.071 Z0
X-65.996
X-65.95 Y-8.658
X-65.908 Y-8.637
X-65.875 Y-8.604
X-65.853 Y-8.562
X-65.846 Y-8.515
G3 X-67.446 Y-8.515 Z-0.5 I-0.8 J0 F600
X-65.846 Y-8.515 Z-1 I0.8 J0
X-67.446 Y-8.515 I-0.8 J0
X-65.846 Y-8.515 I0.8 J0
G1 X-65.853 Y-8.469
X-65.875 Y-8.427
X-65.908 Y-8.394
X-65.95 Y-8.373
X-65.996 Y-8.365
X-66.071
X-66.117 Z-0.993
X-66.159 Z-0.971
X-66.192 Z-0.938
X-66.214 Z-0.896
X-66.221 Z-0.85
Z15
(When using Fusion 360 for Personal Use, the feedrate of)
(rapid moves is reduced to match the feedrate of cutting)
(moves, which can increase machining time. Unrestricted rapid)
(moves are available with a Fusion 360 Subscription.)

(2D-Kontur4)
G0 X-90.758 Y-27.787
G1 Z15 F600
Z5
Z2.5 F300
X-90.696 Y-27.685 Z2.496 F1016
X-90.683 Y-27.664 Z2.495
X-90.35 Y-27.151 Z2.474
X-90.336 Y-27.125 Z2.473
X-90.366 Y-27.133 Z2.471
X-91.016 Y-27.347 Z2.448
X-91.044 Y-27.356 Z2.447
X-91.724 Y-27.551 Z2.422
X-91.753 Y-27.558 Z2.421
X-92.441 Y-27.726 Z2.396
X-92.47 Y-27.732 Z2.395
X-93.166 Y-27.873 Z2.37
X-93.195 Y-27.878 Z2.369
X-93.898 Y-27.992 Z2.344
X-93.927 Y-27.996 Z2.343
X-94.637 Y-28.084 Z2.318
X-94.665 Y-28.087 Z2.317
X-95.381 Y-28.149 Z2.292
X-95.409 Y-28.151 Z2.291
X-96.13 Y-28.186 Z2.266
X-96.157 Y-28.187 Z2.265
X-96.883 Y-28.196 Z2.24
X-96.91 Y-28.195 Z2.239
X-97.64 Y-28.178 Z2.213
X-97.667 Y-28.177 Z2.212
X-98.4 Y-28.134 Z2.187
X-98.427 Y-28.132 Z2.186
X-99.164 Y-28.062 Z2.16
X-99.191 Y-28.059 Z2.159
X-99.931 Y-27.961 Z2.133
X-99.958 Y-27.957 Z2.132
X-100.7 Y-27.832 Z2.106
X-100.727 Y-27.827 Z2.105
X-101.471 Y-27.674 Z2.078
X-101.498 Y-27.668 Z2.077
X-102.242 Y-27.486 Z2.051
X-102.269 Y-27.479 Z2.05
X-103.013 Y-27.268 Z2.023
X-103.039 Y-27.26 Z2.022
X-103.783 Y-27.019 Z1.994
X-103.809 Y-27.01 Z1.993
X-104.552 Y-26.74 Z1.966
X-104.577 Y-26.73 Z1.965
X-105.318 Y-26.429 Z1.937
X-105.343 Y-26.418 Z1.936
X-106.081 Y-26.087 Z1.908
X-106.105 Y-26.075 Z1.907
X-106.839 Y-25.713 Z1.878
X-106.863 Y-25.7 Z1.877
X-107.593 Y-25.306 Z1.848
X-107.617 Y-25.292 Z1.847
X-108.341 Y-24.866 Z1.818
X-108.364 Y-24.852 Z1.817
X-109.083 Y-24.393 Z1.787
X-109.105 Y-24.378 Z1.786
X-109.817 Y-23.887 Z1.756
X-109.839 Y-23.871 Z1.755
X-110.543 Y-23.346 Z1.724
X-110.564 Y-23.33 Z1.723
X-111.261 Y-22.771 Z1.692
X-111.281 Y-22.755 Z1.691
X-111.968 Y-22.163 Z1.66
X-111.988 Y-22.145 Z1.659
X-112.666 Y-21.52 Z1.627
X-112.684 Y-21.502 Z1.626
X-113.352 Y-20.843 Z1.593
X-113.369 Y-20.825 Z1.592
X-114.011 Y-20.149 Z1.56
X-114.032 Y-20.129 Z1.558
X-114.031 Y-20.153
G3 X-90.907 Y-49.36 Z0.199 I37.665 J6.063
G1 X-90.884 Y-49.367 Z0.198
X-90.897 Y-49.34 Z0.197
X-91.298 Y-48.631 Z0.168
X-91.311 Y-48.608 Z0.167
X-91.69 Y-47.877 Z0.139
X-91.702 Y-47.852 Z0.138
X-92.048 Y-47.119 Z0.109
X-92.06 Y-47.093 Z0.108
X-92.374 Y-46.359 Z0.08
X-92.385 Y-46.332 Z0.079
X-92.666 Y-45.596 Z0.052
X-92.676 Y-45.569 Z0.051
X-92.926 Y-44.832 Z0.024
X-92.935 Y-44.805 Z0.023
X-93.152 Y-44.069 Z-0.004
X-93.16 Y-44.041 Z-0.005
X-93.346 Y-43.308 Z-0.032
X-93.353 Y-43.279 Z-0.033
X-93.509 Y-42.549 Z-0.059
X-93.514 Y-42.52 Z-0.06
X-93.641 Y-41.793 Z-0.085
X-93.645 Y-41.764 Z-0.086
X-93.742 Y-41.04 Z-0.112
X-93.746 Y-41.012 Z-0.113
X-93.815 Y-40.292 Z-0.138
X-93.817 Y-40.264 Z-0.139
X-93.859 Y-39.549 Z-0.164
X-93.86 Y-39.522 Z-0.165
X-93.876 Y-38.812 Z-0.19
Y-38.785 Z-0.191
X-93.865 Y-38.082 Z-0.215
Y-38.055 Z-0.216
X-93.829 Y-37.358 Z-0.241
X-93.827 Y-37.331 Z-0.242
X-93.768 Y-36.642 Z-0.266
X-93.765 Y-36.616 Z-0.267
X-93.683 Y-35.935 Z-0.291
X-93.679 Y-35.909 Z-0.292
X-93.642 Y-35.672 Z-0.3
X-93.574 Y-35.236 F600
X-93.569 Y-35.211
X-93.442 Y-34.547
X-93.437 Y-34.523
X-93.289 Y-33.869
X-93.283 Y-33.845
X-93.114 Y-33.201
X-93.108 Y-33.178
X-92.92 Y-32.544
X-92.913 Y-32.522
X-92.707 Y-31.898
X-92.7 Y-31.876
X-92.476 Y-31.262
X-92.467 Y-31.24
X-92.225 Y-30.637
X-92.215 Y-30.615
X-91.955 Y-30.023
X-91.945 Y-30.001
X-91.668 Y-29.42
X-91.657 Y-29.399
X-91.362 Y-28.829
X-91.35 Y-28.808
X-91.038 Y-28.251
X-91.026 Y-28.23
X-90.696 Y-27.685
X-90.683 Y-27.664
X-90.35 Y-27.151
X-90.336 Y-27.125
X-90.366 Y-27.133
X-91.016 Y-27.347
X-91.044 Y-27.356
X-91.724 Y-27.551
X-91.753 Y-27.558
X-92.441 Y-27.726
X-92.47 Y-27.732
X-93.166 Y-27.873
X-93.195 Y-27.878
X-93.898 Y-27.992
X-93.927 Y-27.996
X-94.637 Y-28.084
X-94.665 Y-28.087
X-95.381 Y-28.149
X-95.409 Y-28.151
X-96.13 Y-28.186
X-96.157 Y-28.187
X-96.883 Y-28.196
X-96.91 Y-28.195
X-97.64 Y-28.178
X-97.667 Y-28.177
X-98.4 Y-28.134
X-98.427 Y-28.132
X-99.164 Y-28.062
X-99.191 Y-28.059
X-99.931 Y-27.961
X-99.958 Y-27.957
X-100.7 Y-27.832
X-100.727 Y-27.827
X-101.471 Y-27.674
X-101.498 Y-27.668
X-102.242 Y-27.486
X-102.269 Y-27.479
X-103.013 Y-27.268
X-103.039 Y-27.26
X-103.783 Y-27.019
X-103.809 Y-27.01
X-104.552 Y-26.74
X-104.577 Y-26.73
X-105.318 Y-26.429
X-105.343 Y-26.418
X-106.081 Y-26.087
X-106.105 Y-26.075
X-106.839 Y-25.713
X-106.863 Y-25.7
X-107.593 Y-25.306
X-107.617 Y-25.292
X-108.341 Y-24.866
X-108.364 Y-24.852
X-109.083 Y-24.393
X-109.105 Y-24.378
X-109.817 Y-23.887
X-109.839 Y-23.871
X-110.543 Y-23.346
X-110.564 Y-23.33
X-111.261 Y-22.771
X-111.281 Y-22.755
X-111.968 Y-22.163
X-111.988 Y-22.145
X-112.666 Y-21.52
X-112.684 Y-21.502
X-113.352 Y-20.843
X-113.369 Y-20.825
X-114.011 Y-20.149
X-114.032 Y-20.129
X-114.031 Y-20.153
G3 X-90.907 Y-49.36 I37.665 J6.063
G1 X-90.884 Y-49.367
X-90.897 Y-49.34
X-91.298 Y-48.631
X-91.311 Y-48.608
X-91.69 Y-47.877
X-91.702 Y-47.852
X-92.048 Y-47.119
X-92.06 Y-47.093
X-92.374 Y-46.359
X-92.385 Y-46.332
X-92.666 Y-45.596
X-92.676 Y-45.569
X-92.926 Y-44.832
X-92.935 Y-44.805
X-93.152 Y-44.069
X-93.16 Y-44.041
X-93.346 Y-43.308
X-93.353 Y-43.279
X-93.509 Y-42.549
X-93.514 Y-42.52
X-93.641 Y-41.793
X-93.645 Y-41.764
X-93.742 Y-41.04
X-93.746 Y-41.012
X-93.815 Y-40.292
X-93.817 Y-40.264
X-93.859 Y-39.549
X-93.86 Y-39.522
X-93.876 Y-38.812
Y-38.785
X-93.865 Y-38.082
Y-38.055
X-93.829 Y-37.358
X-93.827 Y-37.331
X-93.768 Y-36.642
X-93.765 Y-36.616
X-93.683 Y-35.935
X-93.679 Y-35.909
X-93.642 Y-35.672
X-93.574 Y-35.236 Z-0.315 F1016
X-93.569 Y-35.211 Z-0.316
X-93.442 Y-34.547 Z-0.34
X-93.437 Y-34.523 Z-0.341
X-93.289 Y-33.869 Z-0.364
X-93.283 Y-33.845 Z-0.365
X-93.114 Y-33.201 Z-0.388
X-93.108 Y-33.178 Z-0.389
X-92.92 Y-32.544 Z-0.412
X-92.913 Y-32.522 Z-0.413
X-92.707 Y-31.898 Z-0.436
X-92.7 Y-31.876 Z-0.437
X-92.476 Y-31.262 Z-0.46
X-92.467 Y-31.24
X-92.225 Y-30.637 Z-0.483
X-92.215 Y-30.615 Z-0.484
X-91.955 Y-30.023 Z-0.507
X-91.945 Y-30.001
X-91.668 Y-29.42 Z-0.53
X-91.657 Y-29.399 Z-0.531
X-91.362 Y-28.829 Z-0.553
X-91.35 Y-28.808 Z-0.554
X-91.038 Y-28.251 Z-0.576
X-91.026 Y-28.23 Z-0.577
X-90.696 Y-27.685 Z-0.599
X-90.687 Y-27.669 Z-0.6
X-90.683 Y-27.664 F600
X-90.35 Y-27.151
X-90.336 Y-27.125
X-90.366 Y-27.133
X-91.016 Y-27.347
X-91.044 Y-27.356
X-91.724 Y-27.551
X-91.753 Y-27.558
X-92.441 Y-27.726
X-92.47 Y-27.732
X-93.166 Y-27.873
X-93.195 Y-27.878
X-93.898 Y-27.992
X-93.927 Y-27.996
X-94.637 Y-28.084
X-94.665 Y-28.087
X-95.381 Y-28.149
X-95.409 Y-28.151
X-96.13 Y-28.186
X-96.157 Y-28.187
X-96.883 Y-28.196
X-96.91 Y-28.195
X-97.64 Y-28.178
X-97.667 Y-28.177
X-98.4 Y-28.134
X-98.427 Y-28.132
X-99.164 Y-28.062
X-99.191 Y-28.059
X-99.931 Y-27.961
X-99.958 Y-27.957
X-100.7 Y-27.832
X-100.727 Y-27.827
X-101.471 Y-27.674
X-101.498 Y-27.668
X-102.242 Y-27.486
X-102.269 Y-27.479
X-103.013 Y-27.268
X-103.039 Y-27.26
X-103.783 Y-27.019
X-103.809 Y-27.01
X-104.552 Y-26.74
X-104.577 Y-26.73
X-105.318 Y-26.429
X-105.343 Y-26.418
X-106.081 Y-26.087
X-106.105 Y-26.075
X-106.839 Y-25.713
X-106.863 Y-25.7
X-107.593 Y-25.306
X-107.617 Y-25.292
X-108.341 Y-24.866
X-108.364 Y-24.852
X-109.083 Y-24.393
X-109.105 Y-24.378
X-109.817 Y-23.887
X-109.839 Y-23.871
X-110.543 Y-23.346
X-110.564 Y-23.33
X-111.261 Y-22.771
X-111.281 Y-22.755
X-111.968 Y-22.163
X-111.988 Y-22.145
X-112.666 Y-21.52
X-112.684 Y-21.502
X-113.352 Y-20.843
X-113.369 Y-20.825
X-114.011 Y-20.149
X-114.032 Y-20.129
X-114.031 Y-20.153
G3 X-90.907 Y-49.36 I37.665 J6.063
G1 X-90.884 Y-49.367
X-90.897 Y-49.34
X-91.298 Y-48.631
X-91.311 Y-48.608
X-91.69 Y-47.877
X-91.702 Y-47.852
X-92.048 Y-47.119
X-92.06 Y-47.093
X-92.374 Y-46.359
X-92.385 Y-46.332
X-92.666 Y-45.596
X-92.676 Y-45.569
X-92.926 Y-44.832
X-92.935 Y-44.805
X-93.152 Y-44.069
X-93.16 Y-44.041
X-93.346 Y-43.308
X-93.353 Y-43.279
X-93.509 Y-42.549
X-93.514 Y-42.52
X-93.641 Y-41.793
X-93.645 Y-41.764
X-93.742 Y-41.04
X-93.746 Y-41.012
X-93.815 Y-40.292
X-93.817 Y-40.264
X-93.859 Y-39.549
X-93.86 Y-39.522
X-93.876 Y-38.812
Y-38.785
X-93.865 Y-38.082
Y-38.055
X-93.829 Y-37.358
X-93.827 Y-37.331
X-93.768 Y-36.642
X-93.765 Y-36.616
X-93.683 Y-35.935
X-93.679 Y-35.909
X-93.574 Y-35.236
X-93.569 Y-35.211
X-93.442 Y-34.547
X-93.437 Y-34.523
X-93.289 Y-33.869
X-93.283 Y-33.845
X-93.114 Y-33.201
X-93.108 Y-33.178
X-92.92 Y-32.544
X-92.913 Y-32.522
X-92.707 Y-31.898
X-92.7 Y-31.876
X-92.476 Y-31.262
X-92.467 Y-31.24
X-92.225 Y-30.637
X-92.215 Y-30.615
X-91.955 Y-30.023
X-91.945 Y-30.001
X-91.668 Y-29.42
X-91.657 Y-29.399
X-91.362 Y-28.829
X-91.35 Y-28.808
X-91.038 Y-28.251
X-91.026 Y-28.23
X-90.696 Y-27.685
X-90.687 Y-27.669
X-90.683 Y-27.664 F1016
X-90.35 Y-27.151 Z-0.622
X-90.336 Y-27.125 Z-0.623
X-90.366 Y-27.133 Z-0.624
X-91.016 Y-27.347 Z-0.648
X-91.044 Y-27.356 Z-0.649
X-91.724 Y-27.551 Z-0.673
X-91.753 Y-27.558 Z-0.674
X-92.441 Y-27.726 Z-0.699
X-92.47 Y-27.732 Z-0.7
X-93.166 Y-27.873 Z-0.725
X-93.195 Y-27.878 Z-0.726
X-93.898 Y-27.992 Z-0.751
X-93.927 Y-27.996 Z-0.752
X-94.637 Y-28.084 Z-0.777
X-94.665 Y-28.087 Z-0.778
X-95.381 Y-28.149 Z-0.803
X-95.409 Y-28.151 Z-0.804
X-96.13 Y-28.186 Z-0.829
X-96.157 Y-28.187 Z-0.83
X-96.883 Y-28.196 Z-0.855
X-96.91 Y-28.195 Z-0.856
X-97.64 Y-28.178 Z-0.882
X-97.667 Y-28.177 Z-0.883
X-98.159 Y-28.148 Z-0.9
X-98.4 Y-28.134 F600
X-98.427 Y-28.132
X-99.164 Y-28.062
X-99.191 Y-28.059
X-99.931 Y-27.961
X-99.958 Y-27.957
X-100.7 Y-27.832
X-100.727 Y-27.827
X-101.471 Y-27.674
X-101.498 Y-27.668
X-102.242 Y-27.486
X-102.269 Y-27.479
X-103.013 Y-27.268
X-103.039 Y-27.26
X-103.783 Y-27.019
X-103.809 Y-27.01
X-104.552 Y-26.74
X-104.577 Y-26.73
X-105.318 Y-26.429
X-105.343 Y-26.418
X-106.081 Y-26.087
X-106.105 Y-26.075
X-106.839 Y-25.713
X-106.863 Y-25.7
X-107.593 Y-25.306
X-107.617 Y-25.292
X-108.341 Y-24.866
X-108.364 Y-24.852
X-109.083 Y-24.393
X-109.105 Y-24.378
X-109.817 Y-23.887
X-109.839 Y-23.871
X-110.543 Y-23.346
X-110.564 Y-23.33
X-111.261 Y-22.771
X-111.281 Y-22.755
X-111.968 Y-22.163
X-111.988 Y-22.145
X-112.666 Y-21.52
X-112.684 Y-21.502
X-113.352 Y-20.843
X-113.369 Y-20.825
X-114.011 Y-20.149
X-114.032 Y-20.129
X-114.031 Y-20.153
G3 X-90.907 Y-49.36 I37.665 J6.063
G1 X-90.884 Y-49.367
X-90.897 Y-49.34
X-91.298 Y-48.631
X-91.311 Y-48.608
X-91.69 Y-47.877
X-91.702 Y-47.852
X-92.048 Y-47.119
X-92.06 Y-47.093
X-92.374 Y-46.359
X-92.385 Y-46.332
X-92.666 Y-45.596
X-92.676 Y-45.569
X-92.926 Y-44.832
X-92.935 Y-44.805
X-93.152 Y-44.069
X-93.16 Y-44.041
X-93.346 Y-43.308
X-93.353 Y-43.279
X-93.509 Y-42.549
X-93.514 Y-42.52
X-93.641 Y-41.793
X-93.645 Y-41.764
X-93.742 Y-41.04
X-93.746 Y-41.012
X-93.815 Y-40.292
X-93.817 Y-40.264
X-93.859 Y-39.549
X-93.86 Y-39.522
X-93.876 Y-38.812
Y-38.785
X-93.865 Y-38.082
Y-38.055
X-93.829 Y-37.358
X-93.827 Y-37.331
X-93.768 Y-36.642
X-93.765 Y-36.616
X-93.683 Y-35.935
X-93.679 Y-35.909
X-93.574 Y-35.236
X-93.569 Y-35.211
X-93.442 Y-34.547
X-93.437 Y-34.523
X-93.289 Y-33.869
X-93.283 Y-33.845
X-93.114 Y-33.201
X-93.108 Y-33.178
X-92.92 Y-32.544
X-92.913 Y-32.522
X-92.707 Y-31.898
X-92.7 Y-31.876
X-92.476 Y-31.262
X-92.467 Y-31.24
X-92.225 Y-30.637
X-92.215 Y-30.615
X-91.955 Y-30.023
X-91.945 Y-30.001
X-91.668 Y-29.42
X-91.657 Y-29.399
X-91.362 Y-28.829
X-91.35 Y-28.808
X-91.038 Y-28.251
X-91.026 Y-28.23
X-90.696 Y-27.685
X-90.683 Y-27.664
X-90.35 Y-27.151
X-90.336 Y-27.125
X-90.366 Y-27.133
X-91.016 Y-27.347
X-91.044 Y-27.356
X-91.724 Y-27.551
X-91.753 Y-27.558
X-92.441 Y-27.726
X-92.47 Y-27.732
X-93.166 Y-27.873
X-93.195 Y-27.878
X-93.898 Y-27.992
X-93.927 Y-27.996
X-94.637 Y-28.084
X-94.665 Y-28.087
X-95.381 Y-28.149
X-95.409 Y-28.151
X-96.13 Y-28.186
X-96.157 Y-28.187
X-96.883 Y-28.196
X-96.91 Y-28.195
X-97.64 Y-28.178
X-97.667 Y-28.177
X-98.159 Y-28.148
X-98.4 Y-28.134 Z-0.908 F1016
X-98.427 Y-28.132 Z-0.909
X-99.164 Y-28.062 Z-0.935
X-99.191 Y-28.059 Z-0.936
X-99.931 Y-27.961 Z-0.962
X-99.958 Y-27.957 Z-0.963
X-100.7 Y-27.832 Z-0.989
X-100.727 Y-27.827 Z-0.99
X-100.995 Y-27.772 Z-1
X-101.471 Y-27.674 F600
X-101.498 Y-27.668
X-102.242 Y-27.486
X-102.269 Y-27.479
X-103.013 Y-27.268
X-103.039 Y-27.26
X-103.783 Y-27.019
X-103.809 Y-27.01
X-104.552 Y-26.74
X-104.577 Y-26.73
X-105.318 Y-26.429
X-105.343 Y-26.418
X-106.081 Y-26.087
X-106.105 Y-26.075
X-106.839 Y-25.713
X-106.863 Y-25.7
X-107.593 Y-25.306
X-107.617 Y-25.292
X-108.341 Y-24.866
X-108.364 Y-24.852
X-109.083 Y-24.393
X-109.105 Y-24.378
X-109.817 Y-23.887
X-109.839 Y-23.871
X-110.543 Y-23.346
X-110.564 Y-23.33
X-111.261 Y-22.771
X-111.281 Y-22.755
X-111.968 Y-22.163
X-111.988 Y-22.145
X-112.666 Y-21.52
X-112.684 Y-21.502
X-113.352 Y-20.843
X-113.369 Y-20.825
X-114.011 Y-20.149
X-114.032 Y-20.129
X-114.031 Y-20.153
G3 X-90.907 Y-49.36 I37.665 J6.063
G1 X-90.884 Y-49.367
X-90.897 Y-49.34
X-91.298 Y-48.631
X-91.311 Y-48.608
X-91.69 Y-47.877
X-91.702 Y-47.852
X-92.048 Y-47.119
X-92.06 Y-47.093
X-92.374 Y-46.359
X-92.385 Y-46.332
X-92.666 Y-45.596
X-92.676 Y-45.569
X-92.926 Y-44.832
X-92.935 Y-44.805
X-93.152 Y-44.069
X-93.16 Y-44.041
X-93.346 Y-43.308
X-93.353 Y-43.279
X-93.509 Y-42.549
X-93.514 Y-42.52
X-93.641 Y-41.793
X-93.645 Y-41.764
X-93.742 Y-41.04
X-93.746 Y-41.012
X-93.815 Y-40.292
X-93.817 Y-40.264
X-93.859 Y-39.549
X-93.86 Y-39.522
X-93.876 Y-38.812
Y-38.785
X-93.865 Y-38.082
Y-38.055
X-93.829 Y-37.358
X-93.827 Y-37.331
X-93.768 Y-36.642
X-93.765 Y-36.616
X-93.683 Y-35.935
X-93.679 Y-35.909
X-93.574 Y-35.236
X-93.569 Y-35.211
X-93.442 Y-34.547
X-93.437 Y-34.523
X-93.289 Y-33.869
X-93.283 Y-33.845
X-93.114 Y-33.201
X-93.108 Y-33.178
X-92.92 Y-32.544
X-92.913 Y-32.522
X-92.707 Y-31.898
X-92.7 Y-31.876
X-92.476 Y-31.262
X-92.467 Y-31.24
X-92.225 Y-30.637
X-92.215 Y-30.615
X-91.955 Y-30.023
X-91.945 Y-30.001
X-91.668 Y-29.42
X-91.657 Y-29.399
X-91.362 Y-28.829
X-91.35 Y-28.808
X-91.038 Y-28.251
X-91.026 Y-28.23
X-90.696 Y-27.685
X-90.683 Y-27.664
X-90.35 Y-27.151
X-90.336 Y-27.125
X-90.366 Y-27.133
X-91.016 Y-27.347
X-91.044 Y-27.356
X-91.724 Y-27.551
X-91.753 Y-27.558
X-92.441 Y-27.726
X-92.47 Y-27.732
X-93.166 Y-27.873
X-93.195 Y-27.878
X-93.898 Y-27.992
X-93.927 Y-27.996
X-94.637 Y-28.084
X-94.665 Y-28.087
X-95.381 Y-28.149
X-95.409 Y-28.151
X-96.13 Y-28.186
X-96.157 Y-28.187
X-96.883 Y-28.196
X-96.91 Y-28.195
X-97.64 Y-28.178
X-97.667 Y-28.177
X-98.159 Y-28.148
X-98.4 Y-28.134
X-98.427 Y-28.132
X-99.164 Y-28.062
X-99.191 Y-28.059
X-99.931 Y-27.961
X-99.958 Y-27.957
X-100.7 Y-27.832
X-100.727 Y-27.827
X-100.995 Y-27.772
Z15
(When using Fusion 360 for Personal Use, the feedrate of)
(rapid moves is reduced to match the feedrate of cutting)
(moves, which can increase machining time. Unrestricted rapid)
(moves are available with a Fusion 360 Subscription.)

(2D-Kontur5)
G0 X-74.25 Y-5.771
G1 Z15 F600
Z5
Z2.5 F300
X-74.087 Y-5.713 Z2.494 F1016
X-74.066 Y-5.706 Z2.493
X-73.18 Y-5.419 Z2.461
X-73.152 Y-5.411 Z2.46
X-72.696 Y-5.283 Z2.443
X-72.688 Y-5.281
X-72.242 Y-5.16 Z2.427
X-72.234 Y-5.158 Z2.426
X-71.797 Y-5.045 Z2.411
X-71.789 Y-5.043 Z2.41
X-71.362 Y-4.937 Z2.395
X-71.353 Y-4.935
X-70.935 Y-4.837 Z2.38
X-70.926 Y-4.835 Z2.379
X-70.518 Y-4.745 Z2.365
X-70.508 Y-4.743 Z2.364
X-70.11 Y-4.66 Z2.35
X-70.1 Y-4.658
X-69.711 Y-4.582 Z2.336
X-69.7 Y-4.58
X-69.322 Y-4.513 Z2.322
X-69.31 Y-4.511
X-68.941 Y-4.451 Z2.309
X-68.929 Y-4.449 Z2.308
X-68.57 Y-4.398 Z2.296
X-68.557 Y-4.396 Z2.295
X-68.208 Y-4.352 Z2.283
X-68.194 Y-4.35 Z2.282
X-67.856 Y-4.315 Z2.271
X-67.84 Y-4.313 Z2.27
X-67.512 Y-4.285 Z2.258
X-67.495 Y-4.284
X-67.178 Y-4.265 Z2.247
X-67.159 Y-4.264 Z2.246
X-66.853 Y-4.253 Z2.235
X-66.832
X-66.537 Y-4.25 Z2.224
X-66.515
X-66.23 Y-4.257 Z2.214
X-66.206 Z2.213
X-65.932 Y-4.272 Z2.203
X-65.906 Y-4.274 Z2.202
X-65.644 Y-4.298 Z2.193
X-65.614 Y-4.301 Z2.192
X-65.364 Y-4.334 Z2.183
X-65.332 Y-4.338 Z2.182
X-65.093 Y-4.38 Z2.174
X-65.058 Y-4.387 Z2.172
X-64.831 Y-4.438 Z2.164
X-64.793 Y-4.447 Z2.163
X-64.577 Y-4.507 Z2.155
X-64.537 Y-4.52 Z2.154
X-64.333 Y-4.589 Z2.146
X-64.29 Y-4.605 Z2.145
X-64.098 Y-4.684 Z2.137
X-64.052 Y-4.705 Z2.136
X-63.873 Y-4.793 Z2.129
X-63.825 Y-4.819 Z2.127
X-63.658 Y-4.917 Z2.12
X-63.609 Y-4.948 Z2.118
X-63.454 Y-5.056 Z2.111
X-63.405 Y-5.093 Z2.109
X-63.263 Y-5.21 Z2.103
X-63.216 Y-5.253 Z2.1
X-63.086 Y-5.38 Z2.094
X-63.041 Y-5.428 Z2.092
X-62.924 Y-5.565 Z2.086
X-62.883 Y-5.618 Z2.083
X-62.779 Y-5.764 Z2.077
X-62.743 Y-5.819 Z2.075
X-62.651 Y-5.976 Z2.068
X-62.621 Y-6.033 Z2.066
X-62.541 Y-6.199 Z2.06
X-62.517 Y-6.255 Z2.057
X-62.45 Y-6.431 Z2.051
X-62.432 Y-6.487 Z2.049
X-62.377 Y-6.672 Z2.042
X-62.363 Y-6.725 Z2.04
X-62.321 Y-6.92 Z2.033
X-62.312 Y-6.97 Z2.031
X-62.282 Y-7.175 Z2.024
X-62.277 Y-7.221 Z2.023
X-62.259 Y-7.435 Z2.015
X-62.256 Y-7.478 Z2.014
X-62.25 Y-7.702 Z2.006
Y-7.741 Z2.004
X-62.256 Y-7.973 Z1.996
X-62.258 Y-8.009 Z1.995
X-62.275 Y-8.251 Z1.987
X-62.278 Y-8.283 Z1.985
X-62.307 Y-8.534 Z1.977
X-62.311 Y-8.563 Z1.976
X-62.352 Y-8.823 Z1.966
X-62.356 Y-8.849 Z1.965
X-62.408 Y-9.118 Z1.956
X-62.413 Y-9.142 Z1.955
X-62.476 Y-9.42 Z1.945
X-62.481 Y-9.441 Z1.944
X-62.555 Y-9.727 Z1.934
X-62.56 Y-9.747 Z1.933
X-62.645 Y-10.042 Z1.923
X-62.651 Y-10.06 Z1.922
X-62.746 Y-10.363 Z1.911
X-62.751 Y-10.379 Z1.91
X-62.857 Y-10.69 Z1.899
X-62.863 Y-10.705 Z1.898
X-62.979 Y-11.025 Z1.886
X-62.984 Y-11.039
X-63.111 Y-11.366 Z1.874
X-63.116 Y-11.379 Z1.873
X-63.253 Y-11.714 Z1.86
X-63.258 Y-11.726
X-63.405 Y-12.069 Z1.847
X-63.41 Y-12.08
X-63.567 Y-12.431 Z1.833
X-63.571 Y-12.441
X-63.738 Y-12.8 Z1.819
X-63.743 Y-12.81
X-63.92 Y-13.176 Z1.804
X-63.924 Y-13.185
X-64.11 Y-13.559 Z1.789
X-64.115 Y-13.567
X-64.311 Y-13.949 Z1.774
X-64.315 Y-13.957
X-64.521 Y-14.346 Z1.758
X-64.525 Y-14.353
X-64.74 Y-14.75 Z1.742
X-64.744 Y-14.757
X-64.969 Y-15.161 Z1.726
X-64.973 Y-15.167
X-65.207 Y-15.579 Z1.709
X-65.222 Y-15.604 Z1.708
X-65.715 Y-16.395 Z1.676
X-65.727 Y-16.413 Z1.675
X-65.985 Y-16.802 Z1.658
X-65.995 Y-16.816
X-66.261 Y-17.199 Z1.642
X-66.272 Y-17.214 Z1.641
X-66.548 Y-17.589 Z1.625
X-66.56 Y-17.605 Z1.624
X-66.846 Y-17.973 Z1.608
X-66.859 Y-17.99 Z1.607
X-67.155 Y-18.348 Z1.591
X-67.169 Y-18.366 Z1.59
X-67.475 Y-18.715 Z1.574
X-67.491 Y-18.733 Z1.573
X-67.809 Y-19.073 Z1.557
X-67.826 Y-19.09 Z1.556
X-68.154 Y-19.42 Z1.54
X-68.173 Y-19.438 Z1.539
X-68.514 Y-19.757 Z1.522
X-68.532 Y-19.774 Z1.521
X-68.886 Y-20.084 Z1.505
X-68.905 Y-20.101 Z1.504
X-69.272 Y-20.401 Z1.488
X-69.291 Y-20.416 Z1.487
X-69.671 Y-20.707 Z1.47
X-69.69 Y-20.722 Z1.469
X-70.084 Y-21.004 Z1.452
X-70.103 Y-21.017 Z1.451
X-70.51 Y-21.29 Z1.434
X-70.529 Y-21.302
X-70.949 Y-21.567 Z1.416
X-70.967 Y-21.578
X-71.401 Y-21.834 Z1.398
X-71.418 Y-21.844 Z1.397
X-71.865 Y-22.093 Z1.379
X-71.882 Y-22.101
X-72.341 Y-22.342 Z1.361
X-72.356 Y-22.35 Z1.36
X-72.827 Y-22.582 Z1.342
X-72.842 Y-22.59 Z1.341
X-73.323 Y-22.814 Z1.323
X-73.337 Y-22.821 Z1.322
X-73.828 Y-23.037 Z1.303
X-73.842 Y-23.043
X-74.341 Y-23.252 Z1.284
X-74.355 Y-23.257 Z1.283
X-74.861 Y-23.457 Z1.264
X-74.875 Y-23.462
X-75.387 Y-23.653 Z1.245
X-75.401 Y-23.657 Z1.244
X-75.917 Y-23.839 Z1.225
X-75.931 Y-23.843
X-76.45 Y-24.014 Z1.206
X-76.463 Y-24.019 Z1.205
X-76.984 Y-24.179 Z1.186
X-76.998 Y-24.183 Z1.185
X-77.518 Y-24.333 Z1.167
X-77.532 Y-24.337 Z1.166
X-78.05 Y-24.475 Z1.147
X-78.065 Y-24.478
X-78.576 Y-24.603 Z1.128
X-79.041 Y-24.721 Z1.112
X-79.486 Y-24.852 Z1.096
X-79.922 Y-24.998 Z1.079
X-80.348 Y-25.16 Z1.064
X-80.765 Y-25.338 Z1.048
X-81.173 Y-25.531 Z1.032
X-81.572 Y-25.739 Z1.016
X-81.962 Y-25.962 Z1.001
X-82.343 Y-26.2 Z0.985
X-82.716 Y-26.453 Z0.969
X-83.079 Y-26.721 Z0.953
X-83.434 Y-27.002 Z0.938
X-83.779 Y-27.298 Z0.922
X-84.116 Y-27.608 Z0.906
X-84.443 Y-27.931 Z0.89
X-84.76 Y-28.267 Z0.874
X-85.068 Y-28.615 Z0.857
X-85.367 Y-28.976 Z0.841
X-85.655 Y-29.349 Z0.824
X-85.933 Y-29.734 Z0.808
X-86.2 Y-30.13 Z0.791
X-86.456 Y-30.537 Z0.774
X-86.701 Y-30.954 Z0.758
X-86.935 Y-31.381 Z0.741
X-87.156 Y-31.818 Z0.723
X-87.365 Y-32.263 Z0.706
X-87.562 Y-32.718 Z0.689
X-87.746 Y-33.18 Z0.672
X-87.916 Y-33.651 Z0.654
X-88.072 Y-34.129 Z0.637
X-88.214 Y-34.614 Z0.619
X-88.341 Y-35.106 Z0.601
X-88.453 Y-35.604 Z0.583
X-88.549 Y-36.108 Z0.565
X-88.629 Y-36.617 Z0.547
X-88.693 Y-37.132 Z0.529
X-88.739 Y-37.652 Z0.511
X-88.767 Y-38.177 Z0.493
X-88.778 Y-38.705 Z0.474
X-88.769 Y-39.238 Z0.456
X-88.741 Y-39.775 Z0.437
X-88.694 Y-40.315 Z0.418
X-88.625 Y-40.859 Z0.399
X-88.536 Y-41.407 Z0.379
X-88.424 Y-41.957 Z0.36
X-88.291 Y-42.511 Z0.34
X-88.134 Y-43.067 Z0.32
X-87.953 Y-43.627 Z0.299
X-87.748 Y-44.189 Z0.278
X-87.518 Y-44.754 Z0.257
X-87.262 Y-45.322 Z0.235
X-86.979 Y-45.892 Z0.213
X-86.669 Y-46.465 Z0.19
X-86.331 Y-47.04 Z0.167
X-85.965 Y-47.618 Z0.143
X-85.57 Y-48.198 Z0.119
X-85.144 Y-48.78 Z0.093
X-84.689 Y-49.364 Z0.067
X-84.202 Y-49.95 Z0.041
X-83.685 Y-50.538 Z0.014
X-83.135 Y-51.129 Z-0.015
X-82.554 Y-51.721 Z-0.044
X-81.94 Y-52.314 Z-0.073
X-81.291 Y-52.913 Z-0.104
G2 X-82.991 Y-56.824 Z-0.3 I-1.509 J-1.669
G1 X-83.153 Y-56.804 F600
G2 X-119.453 Y-10.343 I6.788 J42.714
X-115.226 Y-9.478 I2.242 J-0.195
G1 X-114.76 Y-10.334
X-114.29 Y-11.155
X-113.814 Y-11.944
X-113.333 Y-12.701
X-112.847 Y-13.428
X-112.355 Y-14.123
X-111.859 Y-14.789
X-111.357 Y-15.424
X-110.852 Y-16.029
X-110.341 Y-16.606
X-109.827 Y-17.153
X-109.308 Y-17.673
X-108.786 Y-18.165
X-108.261 Y-18.63
X-107.732 Y-19.069
X-107.201 Y-19.482
X-106.666 Y-19.869
X-106.13 Y-20.232
X-105.591 Y-20.571
X-105.05 Y-20.886
X-104.508 Y-21.178
X-103.965 Y-21.447
X-103.421 Y-21.695
X-102.876 Y-21.92
X-102.331 Y-22.125
X-101.786 Y-22.309
X-101.241 Y-22.473
X-100.698 Y-22.616
X-100.156 Y-22.741
X-99.615 Y-22.846
X-99.076 Y-22.932
X-98.54 Y-23
X-98.007 Y-23.049
X-97.477 Y-23.081
X-96.951 Y-23.094
X-96.429 Y-23.091
X-95.912 Y-23.07
X-95.4 Y-23.032
X-94.894 Y-22.976
X-94.394 Y-22.905
X-93.9 Y-22.816
X-93.413 Y-22.711
X-92.934 Y-22.59
X-92.462 Y-22.452
X-91.998 Y-22.298
X-91.544 Y-22.127
X-91.098 Y-21.941
X-90.661 Y-21.738
X-90.234 Y-21.52
X-89.817 Y-21.284
X-89.41 Y-21.033
X-89.014 Y-20.765
X-88.629 Y-20.481
X-88.254 Y-20.18
X-87.891 Y-19.862
X-87.539 Y-19.528
X-87.198 Y-19.176
X-86.869 Y-18.806
X-86.552 Y-18.419
X-86.247 Y-18.014
X-85.953 Y-17.59
X-85.672 Y-17.149
X-85.404 Y-16.688
X-85.142 Y-16.199
X-84.897 Y-15.733
X-84.89 Y-15.72
X-84.631 Y-15.251
X-84.624 Y-15.238
X-84.353 Y-14.769
X-84.345 Y-14.757
X-84.064 Y-14.291
X-84.056 Y-14.279
X-83.765 Y-13.816
X-83.757 Y-13.804
X-83.456 Y-13.347
X-83.448 Y-13.335
X-83.139 Y-12.884
X-83.131 Y-12.872
X-82.815 Y-12.429
X-82.806 Y-12.417
X-82.483 Y-11.983
X-82.474 Y-11.971
X-82.145 Y-11.547
X-82.135 Y-11.535
X-81.801 Y-11.122
X-81.79 Y-11.11
X-81.451 Y-10.709
X-81.439 Y-10.696
X-81.095 Y-10.309
X-81.082 Y-10.295
X-80.733 Y-9.922
X-80.72 Y-9.907
X-80.366 Y-9.548
X-80.351 Y-9.534
X-79.992 Y-9.189
X-79.976 Y-9.174
X-79.612 Y-8.845
X-79.595 Y-8.83
X-79.226 Y-8.516
X-79.208 Y-8.501
X-78.833 Y-8.203
X-78.814 Y-8.188
X-78.434 Y-7.905
X-78.413 Y-7.89
X-78.027 Y-7.622
X-78.006 Y-7.608
X-77.613 Y-7.354
X-77.592 Y-7.341
X-77.192 Y-7.102
X-77.171 Y-7.089
X-76.764 Y-6.864
X-76.744 Y-6.853
X-76.33 Y-6.64
X-76.31 Y-6.63
X-75.89 Y-6.43
X-75.871 Y-6.421
X-75.445 Y-6.233
X-75.427 Y-6.225
X-74.995 Y-6.048
X-74.978 Y-6.042
X-74.542 Y-5.875
X-74.527 Y-5.869
X-74.087 Y-5.713
X-74.066 Y-5.706
X-73.18 Y-5.419
X-73.152 Y-5.411
X-72.696 Y-5.283
X-72.688 Y-5.281
X-72.242 Y-5.16
X-72.234 Y-5.158
X-71.797 Y-5.045
X-71.789 Y-5.043
X-71.362 Y-4.937
X-71.353 Y-4.935
X-70.935 Y-4.837
X-70.926 Y-4.835
X-70.518 Y-4.745
X-70.508 Y-4.743
X-70.11 Y-4.66
X-70.1 Y-4.658
X-69.711 Y-4.582
X-69.7 Y-4.58
X-69.322 Y-4.513
X-69.31 Y-4.511
X-68.941 Y-4.451
X-68.929 Y-4.449
X-68.57 Y-4.398
X-68.557 Y-4.396
X-68.208 Y-4.352
X-68.194 Y-4.35
X-67.856 Y-4.315
X-67.84 Y-4.313
X-67.512 Y-4.285
X-67.495 Y-4.284
X-67.178 Y-4.265
X-67.159 Y-4.264
X-66.853 Y-4.253
X-66.832
X-66.537 Y-4.25
X-66.515
X-66.23 Y-4.257
X-66.206
X-65.932 Y-4.272
X-65.906 Y-4.274
X-65.644 Y-4.298
X-65.614 Y-4.301
X-65.364 Y-4.334
X-65.332 Y-4.338
X-65.093 Y-4.38
X-65.058 Y-4.387
X-64.831 Y-4.438
X-64.793 Y-4.447
X-64.577 Y-4.507
X-64.537 Y-4.52
X-64.333 Y-4.589
X-64.29 Y-4.605
X-64.098 Y-4.684
X-64.052 Y-4.705
X-63.873 Y-4.793
X-63.825 Y-4.819
X-63.658 Y-4.917
X-63.609 Y-4.948
X-63.454 Y-5.056
X-63.405 Y-5.093
X-63.263 Y-5.21
X-63.216 Y-5.253
X-63.086 Y-5.38
X-63.041 Y-5.428
X-62.924 Y-5.565
X-62.883 Y-5.618
X-62.779 Y-5.764
X-62.743 Y-5.819
X-62.651 Y-5.976
X-62.621 Y-6.033
X-62.541 Y-6.199
X-62.517 Y-6.255
X-62.45 Y-6.431
X-62.432 Y-6.487
X-62.377 Y-6.672
X-62.363 Y-6.725
X-62.321 Y-6.92
X-62.312 Y-6.97
X-62.282 Y-7.175
X-62.277 Y-7.221
X-62.259 Y-7.435
X-62.256 Y-7.478
X-62.25 Y-7.702
Y-7.741
X-62.256 Y-7.973
X-62.258 Y-8.009
X-62.275 Y-8.251
X-62.278 Y-8.283
X-62.307 Y-8.534
X-62.311 Y-8.563
X-62.352 Y-8.823
X-62.356 Y-8.849
X-62.408 Y-9.118
X-62.413 Y-9.142
X-62.476 Y-9.42
X-62.481 Y-9.441
X-62.555 Y-9.727
X-62.56 Y-9.747
X-62.645 Y-10.042
X-62.651 Y-10.06
X-62.746 Y-10.363
X-62.751 Y-10.379
X-62.857 Y-10.69
X-62.863 Y-10.705
X-62.979 Y-11.025
X-62.984 Y-11.039
X-63.111 Y-11.366
X-63.116 Y-11.379
X-63.253 Y-11.714
X-63.258 Y-11.726
X-63.405 Y-12.069
X-63.41 Y-12.08
X-63.567 Y-12.431
X-63.571 Y-12.441
X-63.738 Y-12.8
X-63.743 Y-12.81
X-63.92 Y-13.176
X-63.924 Y-13.185
X-64.11 Y-13.559
X-64.115 Y-13.567
X-64.311 Y-13.949
X-64.315 Y-13.957
X-64.521 Y-14.346
X-64.525 Y-14.353
X-64.74 Y-14.75
X-64.744 Y-14.757
X-64.969 Y-15.161
X-64.973 Y-15.167
X-65.207 Y-15.579
X-65.222 Y-15.604
X-65.715 Y-16.395
X-65.727 Y-16.413
X-65.985 Y-16.802
X-65.995 Y-16.816
X-66.261 Y-17.199
X-66.272 Y-17.214
X-66.548 Y-17.589
X-66.56 Y-17.605
X-66.846 Y-17.973
X-66.859 Y-17.99
X-67.155 Y-18.348
X-67.169 Y-18.366
X-67.475 Y-18.715
X-67.491 Y-18.733
X-67.809 Y-19.073
X-67.826 Y-19.09
X-68.154 Y-19.42
X-68.173 Y-19.438
X-68.514 Y-19.757
X-68.532 Y-19.774
X-68.886 Y-20.084
X-68.905 Y-20.101
X-69.272 Y-20.401
X-69.291 Y-20.416
X-69.671 Y-20.707
X-69.69 Y-20.722
X-70.084 Y-21.004
X-70.103 Y-21.017
X-70.51 Y-21.29
X-70.529 Y-21.302
X-70.949 Y-21.567
X-70.967 Y-21.578
X-71.401 Y-21.834
X-71.418 Y-21.844
X-71.865 Y-22.093
X-71.882 Y-22.101
X-72.341 Y-22.342
X-72.356 Y-22.35
X-72.827 Y-22.582
X-72.842 Y-22.59
X-73.323 Y-22.814
X-73.337 Y-22.821
X-73.828 Y-23.037
X-73.842 Y-23.043
X-74.341 Y-23.252
X-74.355 Y-23.257
X-74.861 Y-23.457
X-74.875 Y-23.462
X-75.387 Y-23.653
X-75.401 Y-23.657
X-75.917 Y-23.839
X-75.931 Y-23.843
X-76.45 Y-24.014
X-76.463 Y-24.019
X-76.984 Y-24.179
X-76.998 Y-24.183
X-77.518 Y-24.333
X-77.532 Y-24.337
X-78.05 Y-24.475
X-78.065 Y-24.478
X-78.576 Y-24.603
X-79.041 Y-24.721
X-79.486 Y-24.852
X-79.922 Y-24.998
X-80.348 Y-25.16
X-80.765 Y-25.338
X-81.173 Y-25.531
X-81.572 Y-25.739
X-81.962 Y-25.962
X-82.343 Y-26.2
X-82.716 Y-26.453
X-83.079 Y-26.721
X-83.434 Y-27.002
X-83.779 Y-27.298
X-84.116 Y-27.608
X-84.443 Y-27.931
X-84.76 Y-28.267
X-85.068 Y-28.615
X-85.367 Y-28.976
X-85.655 Y-29.349
X-85.933 Y-29.734
X-86.2 Y-30.13
X-86.456 Y-30.537
X-86.701 Y-30.954
X-86.935 Y-31.381
X-87.156 Y-31.818
X-87.365 Y-32.263
X-87.562 Y-32.718
X-87.746 Y-33.18
X-87.916 Y-33.651
X-88.072 Y-34.129
X-88.214 Y-34.614
X-88.341 Y-35.106
X-88.453 Y-35.604
X-88.549 Y-36.108
X-88.629 Y-36.617
X-88.693 Y-37.132
X-88.739 Y-37.652
X-88.767 Y-38.177
X-88.778 Y-38.705
X-88.769 Y-39.238
X-88.741 Y-39.775
X-88.694 Y-40.315
X-88.625 Y-40.859
X-88.536 Y-41.407
X-88.424 Y-41.957
X-88.291 Y-42.511
X-88.134 Y-43.067
X-87.953 Y-43.627
X-87.748 Y-44.189
X-87.518 Y-44.754
X-87.262 Y-45.322
X-86.979 Y-45.892
X-86.669 Y-46.465
X-86.331 Y-47.04
X-85.965 Y-47.618
X-85.57 Y-48.198
X-85.144 Y-48.78
X-84.689 Y-49.364
X-84.202 Y-49.95
X-83.685 Y-50.538
X-83.135 Y-51.129
X-82.554 Y-51.721
X-81.94 Y-52.314
X-81.291 Y-52.913
G2 X-82.991 Y-56.824 I-1.509 J-1.669
G1 X-83.153 Y-56.804 Z-0.306 F1016
G2 X-91.295 Y-54.681 Z-0.6 I6.788 J42.714
X-119.453 Y-10.343 I14.93 J40.591 F600
X-115.226 Y-9.478 I2.242 J-0.195
G1 X-114.76 Y-10.334
X-114.29 Y-11.155
X-113.814 Y-11.944
X-113.333 Y-12.701
X-112.847 Y-13.428
X-112.355 Y-14.123
X-111.859 Y-14.789
X-111.357 Y-15.424
X-110.852 Y-16.029
X-110.341 Y-16.606
X-109.827 Y-17.153
X-109.308 Y-17.673
X-108.786 Y-18.165
X-108.261 Y-18.63
X-107.732 Y-19.069
X-107.201 Y-19.482
X-106.666 Y-19.869
X-106.13 Y-20.232
X-105.591 Y-20.571
X-105.05 Y-20.886
X-104.508 Y-21.178
X-103.965 Y-21.447
X-103.421 Y-21.695
X-102.876 Y-21.92
X-102.331 Y-22.125
X-101.786 Y-22.309
X-101.241 Y-22.473
X-100.698 Y-22.616
X-100.156 Y-22.741
X-99.615 Y-22.846
X-99.076 Y-22.932
X-98.54 Y-23
X-98.007 Y-23.049
X-97.477 Y-23.081
X-96.951 Y-23.094
X-96.429 Y-23.091
X-95.912 Y-23.07
X-95.4 Y-23.032
X-94.894 Y-22.976
X-94.394 Y-22.905
X-93.9 Y-22.816
X-93.413 Y-22.711
X-92.934 Y-22.59
X-92.462 Y-22.452
X-91.998 Y-22.298
X-91.544 Y-22.127
X-91.098 Y-21.941
X-90.661 Y-21.738
X-90.234 Y-21.52
X-89.817 Y-21.284
X-89.41 Y-21.033
X-89.014 Y-20.765
X-88.629 Y-20.481
X-88.254 Y-20.18
X-87.891 Y-19.862
X-87.539 Y-19.528
X-87.198 Y-19.176
X-86.869 Y-18.806
X-86.552 Y-18.419
X-86.247 Y-18.014
X-85.953 Y-17.59
X-85.672 Y-17.149
X-85.404 Y-16.688
X-85.142 Y-16.199
X-84.897 Y-15.733
X-84.89 Y-15.72
X-84.631 Y-15.251
X-84.624 Y-15.238
X-84.353 Y-14.769
X-84.345 Y-14.757
X-84.064 Y-14.291
X-84.056 Y-14.279
X-83.765 Y-13.816
X-83.757 Y-13.804
X-83.456 Y-13.347
X-83.448 Y-13.335
X-83.139 Y-12.884
X-83.131 Y-12.872
X-82.815 Y-12.429
X-82.806 Y-12.417
X-82.483 Y-11.983
X-82.474 Y-11.971
X-82.145 Y-11.547
X-82.135 Y-11.535
X-81.801 Y-11.122
X-81.79 Y-11.11
X-81.451 Y-10.709
X-81.439 Y-10.696
X-81.095 Y-10.309
X-81.082 Y-10.295
X-80.733 Y-9.922
X-80.72 Y-9.907
X-80.366 Y-9.548
X-80.351 Y-9.534
X-79.992 Y-9.189
X-79.976 Y-9.174
X-79.612 Y-8.845
X-79.595 Y-8.83
X-79.226 Y-8.516
X-79.208 Y-8.501
X-78.833 Y-8.203
X-78.814 Y-8.188
X-78.434 Y-7.905
X-78.413 Y-7.89
X-78.027 Y-7.622
X-78.006 Y-7.608
X-77.613 Y-7.354
X-77.592 Y-7.341
X-77.192 Y-7.102
X-77.171 Y-7.089
X-76.764 Y-6.864
X-76.744 Y-6.853
X-76.33 Y-6.64
X-76.31 Y-6.63
X-75.89 Y-6.43
X-75.871 Y-6.421
X-75.445 Y-6.233
X-75.427 Y-6.225
X-74.995 Y-6.048
X-74.978 Y-6.042
X-74.542 Y-5.875
X-74.527 Y-5.869
X-74.087 Y-5.713
X-74.066 Y-5.706
X-73.18 Y-5.419
X-73.152 Y-5.411
X-72.696 Y-5.283
X-72.688 Y-5.281
X-72.242 Y-5.16
X-72.234 Y-5.158
X-71.797 Y-5.045
X-71.789 Y-5.043
X-71.362 Y-4.937
X-71.353 Y-4.935
X-70.935 Y-4.837
X-70.926 Y-4.835
X-70.518 Y-4.745
X-70.508 Y-4.743
X-70.11 Y-4.66
X-70.1 Y-4.658
X-69.711 Y-4.582
X-69.7 Y-4.58
X-69.322 Y-4.513
X-69.31 Y-4.511
X-68.941 Y-4.451
X-68.929 Y-4.449
X-68.57 Y-4.398
X-68.557 Y-4.396
X-68.208 Y-4.352
X-68.194 Y-4.35
X-67.856 Y-4.315
X-67.84 Y-4.313
X-67.512 Y-4.285
X-67.495 Y-4.284
X-67.178 Y-4.265
X-67.159 Y-4.264
X-66.853 Y-4.253
X-66.832
X-66.537 Y-4.25
X-66.515
X-66.23 Y-4.257
X-66.206
X-65.932 Y-4.272
X-65.906 Y-4.274
X-65.644 Y-4.298
X-65.614 Y-4.301
X-65.364 Y-4.334
X-65.332 Y-4.338
X-65.093 Y-4.38
X-65.058 Y-4.387
X-64.831 Y-4.438
X-64.793 Y-4.447
X-64.577 Y-4.507
X-64.537 Y-4.52
X-64.333 Y-4.589
X-64.29 Y-4.605
X-64.098 Y-4.684
X-64.052 Y-4.705
X-63.873 Y-4.793
X-63.825 Y-4.819
X-63.658 Y-4.917
X-63.609 Y-4.948
X-63.454 Y-5.056
X-63.405 Y-5.093
X-63.263 Y-5.21
X-63.216 Y-5.253
X-63.086 Y-5.38
X-63.041 Y-5.428
X-62.924 Y-5.565
X-62.883 Y-5.618
X-62.779 Y-5.764
X-62.743 Y-5.819
X-62.651 Y-5.976
X-62.621 Y-6.033
X-62.541 Y-6.199
X-62.517 Y-6.255
X-62.45 Y-6.431
X-62.432 Y-6.487
X-62.377 Y-6.672
X-62.363 Y-6.725
X-62.321 Y-6.92
X-62.312 Y-6.97
X-62.282 Y-7.175
X-62.277 Y-7.221
X-62.259 Y-7.435
X-62.256 Y-7.478
X-62.25 Y-7.702
Y-7.741
X-62.256 Y-7.973
X-62.258 Y-8.009
X-62.275 Y-8.251
X-62.278 Y-8.283
X-62.307 Y-8.534
X-62.311 Y-8.563
X-62.352 Y-8.823
X-62.356 Y-8.849
X-62.408 Y-9.118
X-62.413 Y-9.142
X-62.476 Y-9.42
X-62.481 Y-9.441
X-62.555 Y-9.727
X-62.56 Y-9.747
X-62.645 Y-10.042
X-62.651 Y-10.06
X-62.746 Y-10.363
X-62.751 Y-10.379
X-62.857 Y-10.69
X-62.863 Y-10.705
X-62.979 Y-11.025
X-62.984 Y-11.039
X-63.111 Y-11.366
X-63.116 Y-11.379
X-63.253 Y-11.714
X-63.258 Y-11.726
X-63.405 Y-12.069
X-63.41 Y-12.08
X-63.567 Y-12.431
X-63.571 Y-12.441
X-63.738 Y-12.8
X-63.743 Y-12.81
X-63.92 Y-13.176
X-63.924 Y-13.185
X-64.11 Y-13.559
X-64.115 Y-13.567
X-64.311 Y-13.949
X-64.315 Y-13.957
X-64.521 Y-14.346
X-64.525 Y-14.353
X-64.74 Y-14.75
X-64.744 Y-14.757
X-64.969 Y-15.161
X-64.973 Y-15.167
X-65.207 Y-15.579
X-65.222 Y-15.604
X-65.715 Y-16.395
X-65.727 Y-16.413
X-65.985 Y-16.802
X-65.995 Y-16.816
X-66.261 Y-17.199
X-66.272 Y-17.214
X-66.548 Y-17.589
X-66.56 Y-17.605
X-66.846 Y-17.973
X-66.859 Y-17.99
X-67.155 Y-18.348
X-67.169 Y-18.366
X-67.475 Y-18.715
X-67.491 Y-18.733
X-67.809 Y-19.073
X-67.826 Y-19.09
X-68.154 Y-19.42
X-68.173 Y-19.438
X-68.514 Y-19.757
X-68.532 Y-19.774
X-68.886 Y-20.084
X-68.905 Y-20.101
X-69.272 Y-20.401
X-69.291 Y-20.416
X-69.671 Y-20.707
X-69.69 Y-20.722
X-70.084 Y-21.004
X-70.103 Y-21.017
X-70.51 Y-21.29
X-70.529 Y-21.302
X-70.949 Y-21.567
X-70.967 Y-21.578
X-71.401 Y-21.834
X-71.418 Y-21.844
X-71.865 Y-22.093
X-71.882 Y-22.101
X-72.341 Y-22.342
X-72.356 Y-22.35
X-72.827 Y-22.582
X-72.842 Y-22.59
X-73.323 Y-22.814
X-73.337 Y-22.821
X-73.828 Y-23.037
X-73.842 Y-23.043
X-74.341 Y-23.252
X-74.355 Y-23.257
X-74.861 Y-23.457
X-74.875 Y-23.462
X-75.387 Y-23.653
X-75.401 Y-23.657
X-75.917 Y-23.839
X-75.931 Y-23.843
X-76.45 Y-24.014
X-76.463 Y-24.019
X-76.984 Y-24.179
X-76.998 Y-24.183
X-77.518 Y-24.333
X-77.532 Y-24.337
X-78.05 Y-24.475
X-78.065 Y-24.478
X-78.576 Y-24.603
X-79.041 Y-24.721
X-79.486 Y-24.852
X-79.922 Y-24.998
X-80.348 Y-25.16
X-80.765 Y-25.338
X-81.173 Y-25.531
X-81.572 Y-25.739
X-81.962 Y-25.962
X-82.343 Y-26.2
X-82.716 Y-26.453
X-83.079 Y-26.721
X-83.434 Y-27.002
X-83.779 Y-27.298
X-84.116 Y-27.608
X-84.443 Y-27.931
X-84.76 Y-28.267
X-85.068 Y-28.615
X-85.367 Y-28.976
X-85.655 Y-29.349
X-85.933 Y-29.734
X-86.2 Y-30.13
X-86.456 Y-30.537
X-86.701 Y-30.954
X-86.935 Y-31.381
X-87.156 Y-31.818
X-87.365 Y-32.263
X-87.562 Y-32.718
X-87.746 Y-33.18
X-87.916 Y-33.651
X-88.072 Y-34.129
X-88.214 Y-34.614
X-88.341 Y-35.106
X-88.453 Y-35.604
X-88.549 Y-36.108
X-88.629 Y-36.617
X-88.693 Y-37.132
X-88.739 Y-37.652
X-88.767 Y-38.177
X-88.778 Y-38.705
X-88.769 Y-39.238
X-88.741 Y-39.775
X-88.694 Y-40.315
X-88.625 Y-40.859
X-88.536 Y-41.407
X-88.424 Y-41.957
X-88.291 Y-42.511
X-88.134 Y-43.067
X-87.953 Y-43.627
X-87.748 Y-44.189
X-87.518 Y-44.754
X-87.262 Y-45.322
X-86.979 Y-45.892
X-86.669 Y-46.465
X-86.331 Y-47.04
X-85.965 Y-47.618
X-85.57 Y-48.198
X-85.144 Y-48.78
X-84.689 Y-49.364
X-84.202 Y-49.95
X-83.685 Y-50.538
X-83.135 Y-51.129
X-82.554 Y-51.721
X-81.94 Y-52.314
X-81.291 Y-52.913
G2 X-83.153 Y-56.804 I-1.509 J-1.669
X-91.295 Y-54.681 I6.788 J42.714
X-96.8 Y-52.208 Z-0.811 I14.93 J40.591 F1016
G1 Z-0.625
G2 X-99.011 Y-50.937 I20.435 J38.118
X-99.816 Y-50.431 I22.646 J36.847 F600
G1 Z-0.9 F300
G2 X-117.3 Y-28.052 I23.45 J36.341 F600
G1 Z-0.625
G2 X-118.295 Y-24.697 I40.934 J13.962
G1 Z-0.9 F300
G2 X-119.453 Y-10.343 I41.929 J10.607 F600
X-115.226 Y-9.478 I2.242 J-0.195
G1 X-114.76 Y-10.334
X-114.29 Y-11.155
X-113.814 Y-11.944
X-113.333 Y-12.701
X-112.847 Y-13.428
X-112.355 Y-14.123
X-111.859 Y-14.789
X-111.357 Y-15.424
X-110.852 Y-16.029
X-110.341 Y-16.606
X-109.827 Y-17.153
X-109.308 Y-17.673
X-108.786 Y-18.165
X-108.261 Y-18.63
X-107.732 Y-19.069
X-107.201 Y-19.482
X-106.666 Y-19.869
X-106.13 Y-20.232
X-105.591 Y-20.571
X-105.05 Y-20.886
X-104.508 Y-21.178
X-103.965 Y-21.447
X-103.421 Y-21.695
X-102.876 Y-21.92
X-102.331 Y-22.125
X-101.786 Y-22.309
X-101.241 Y-22.473
X-100.698 Y-22.616
X-100.269 Y-22.715
Z-0.625
X-100.156 Y-22.741
X-99.615 Y-22.846
X-99.076 Y-22.932
X-98.54 Y-23
X-98.007 Y-23.049
X-97.477 Y-23.081
X-96.951 Y-23.094
X-96.79 Y-23.093
Z-0.9 F300
X-96.429 Y-23.091 F600
X-95.912 Y-23.07
X-95.4 Y-23.032
X-94.894 Y-22.976
X-94.394 Y-22.905
X-93.9 Y-22.816
X-93.413 Y-22.711
X-92.934 Y-22.59
X-92.462 Y-22.452
X-91.998 Y-22.298
X-91.544 Y-22.127
X-91.098 Y-21.941
X-90.661 Y-21.738
X-90.234 Y-21.52
X-89.817 Y-21.284
X-89.41 Y-21.033
X-89.014 Y-20.765
X-88.629 Y-20.481
X-88.254 Y-20.18
X-87.891 Y-19.862
X-87.539 Y-19.528
X-87.198 Y-19.176
X-86.869 Y-18.806
X-86.552 Y-18.419
X-86.247 Y-18.014
X-85.953 Y-17.59
X-85.672 Y-17.149
X-85.404 Y-16.688
X-85.142 Y-16.199
X-84.897 Y-15.733
X-84.89 Y-15.72
X-84.631 Y-15.251
X-84.624 Y-15.238
X-84.353 Y-14.769
X-84.345 Y-14.757
X-84.064 Y-14.291
X-84.056 Y-14.279
X-83.765 Y-13.816
X-83.757 Y-13.804
X-83.456 Y-13.347
X-83.448 Y-13.335
X-83.139 Y-12.884
X-83.131 Y-12.872
X-82.815 Y-12.429
X-82.806 Y-12.417
X-82.483 Y-11.983
X-82.474 Y-11.971
X-82.145 Y-11.547
X-82.135 Y-11.535
X-81.801 Y-11.122
X-81.79 Y-11.11
X-81.451 Y-10.709
X-81.439 Y-10.696
X-81.095 Y-10.309
X-81.082 Y-10.295
X-80.733 Y-9.922
X-80.72 Y-9.907
X-80.366 Y-9.548
X-80.351 Y-9.534
X-79.992 Y-9.189
X-79.976 Y-9.174
X-79.612 Y-8.845
X-79.595 Y-8.83
X-79.226 Y-8.516
X-79.208 Y-8.501
X-78.833 Y-8.203
X-78.814 Y-8.188
X-78.434 Y-7.905
X-78.413 Y-7.89
X-78.027 Y-7.622
X-78.006 Y-7.608
X-77.613 Y-7.354
X-77.592 Y-7.341
X-77.192 Y-7.102
X-77.171 Y-7.089
X-76.764 Y-6.864
X-76.744 Y-6.853
X-76.33 Y-6.64
X-76.31 Y-6.63
X-75.89 Y-6.43
X-75.871 Y-6.421
X-75.445 Y-6.233
X-75.427 Y-6.225
X-74.995 Y-6.048
X-74.978 Y-6.042
X-74.542 Y-5.875
X-74.527 Y-5.869
X-74.087 Y-5.713
X-74.066 Y-5.706
X-73.18 Y-5.419
X-73.152 Y-5.411
X-72.696 Y-5.283
X-72.688 Y-5.281
X-72.242 Y-5.16
X-72.234 Y-5.158
X-71.797 Y-5.045
X-71.789 Y-5.043
X-71.362 Y-4.937
X-71.353 Y-4.935
X-70.935 Y-4.837
X-70.926 Y-4.835
X-70.518 Y-4.745
X-70.508 Y-4.743
X-70.11 Y-4.66
X-70.1 Y-4.658
X-69.711 Y-4.582
X-69.7 Y-4.58
X-69.322 Y-4.513
X-69.31 Y-4.511
X-68.941 Y-4.451
X-68.929 Y-4.449
X-68.57 Y-4.398
X-68.557 Y-4.396
X-68.208 Y-4.352
X-68.194 Y-4.35
X-67.856 Y-4.315
X-67.84 Y-4.313
X-67.512 Y-4.285
X-67.495 Y-4.284
X-67.178 Y-4.265
X-67.159 Y-4.264
X-66.853 Y-4.253
X-66.832
X-66.537 Y-4.25
X-66.515
X-66.23 Y-4.257
X-66.206
X-65.932 Y-4.272
X-65.906 Y-4.274
X-65.644 Y-4.298
X-65.614 Y-4.301
X-65.364 Y-4.334
X-65.332 Y-4.338
X-65.093 Y-4.38
X-65.058 Y-4.387
X-64.831 Y-4.438
X-64.793 Y-4.447
X-64.577 Y-4.507
X-64.537 Y-4.52
X-64.333 Y-4.589
X-64.29 Y-4.605
X-64.098 Y-4.684
X-64.052 Y-4.705
X-63.873 Y-4.793
X-63.825 Y-4.819
X-63.658 Y-4.917
X-63.609 Y-4.948
X-63.454 Y-5.056
X-63.405 Y-5.093
X-63.263 Y-5.21
X-63.216 Y-5.253
X-63.086 Y-5.38
X-63.041 Y-5.428
X-62.924 Y-5.565
X-62.883 Y-5.618
X-62.779 Y-5.764
X-62.743 Y-5.819
X-62.651 Y-5.976
X-62.621 Y-6.033
X-62.541 Y-6.199
X-62.517 Y-6.255
X-62.45 Y-6.431
X-62.432 Y-6.487
X-62.377 Y-6.672
X-62.363 Y-6.725
X-62.321 Y-6.92
X-62.312 Y-6.97
X-62.282 Y-7.175
X-62.277 Y-7.221
X-62.259 Y-7.435
X-62.256 Y-7.478
X-62.25 Y-7.702
Y-7.741
X-62.256 Y-7.973
X-62.258 Y-8.009
X-62.275 Y-8.251
X-62.278 Y-8.283
X-62.307 Y-8.534
X-62.311 Y-8.563
X-62.352 Y-8.823
X-62.356 Y-8.849
X-62.408 Y-9.118
X-62.413 Y-9.142
X-62.476 Y-9.42
X-62.481 Y-9.441
X-62.555 Y-9.727
X-62.56 Y-9.747
X-62.645 Y-10.042
X-62.651 Y-10.06
X-62.746 Y-10.363
X-62.751 Y-10.379
X-62.857 Y-10.69
X-62.863 Y-10.705
X-62.979 Y-11.025
X-62.984 Y-11.039
X-63.111 Y-11.366
X-63.116 Y-11.379
X-63.253 Y-11.714
X-63.258 Y-11.726
X-63.405 Y-12.069
X-63.41 Y-12.08
X-63.567 Y-12.431
X-63.571 Y-12.441
X-63.738 Y-12.8
X-63.743 Y-12.81
X-63.92 Y-13.176
X-63.924 Y-13.185
X-64.11 Y-13.559
X-64.115 Y-13.567
X-64.311 Y-13.949
X-64.315 Y-13.957
X-64.521 Y-14.346
X-64.525 Y-14.353
X-64.74 Y-14.75
X-64.744 Y-14.757
X-64.969 Y-15.161
X-64.973 Y-15.167
X-65.207 Y-15.579
X-65.222 Y-15.604
X-65.715 Y-16.395
X-65.727 Y-16.413
X-65.985 Y-16.802
X-65.995 Y-16.816
X-66.261 Y-17.199
X-66.272 Y-17.214
X-66.548 Y-17.589
X-66.56 Y-17.605
X-66.846 Y-17.973
X-66.859 Y-17.99
X-67.155 Y-18.348
X-67.169 Y-18.366
X-67.475 Y-18.715
X-67.491 Y-18.733
X-67.809 Y-19.073
X-67.826 Y-19.09
X-68.154 Y-19.42
X-68.173 Y-19.438
X-68.514 Y-19.757
X-68.532 Y-19.774
X-68.886 Y-20.084
X-68.905 Y-20.101
X-69.272 Y-20.401
X-69.291 Y-20.416
X-69.671 Y-20.707
X-69.69 Y-20.722
X-70.084 Y-21.004
X-70.103 Y-21.017
X-70.51 Y-21.29
X-70.529 Y-21.302
X-70.949 Y-21.567
X-70.967 Y-21.578
X-71.401 Y-21.834
X-71.418 Y-21.844
X-71.865 Y-22.093
X-71.882 Y-22.101
X-72.341 Y-22.342
X-72.356 Y-22.35
X-72.827 Y-22.582
X-72.842 Y-22.59
X-73.323 Y-22.814
X-73.337 Y-22.821
X-73.828 Y-23.037
X-73.842 Y-23.043
X-74.341 Y-23.252
X-74.355 Y-23.257
X-74.861 Y-23.457
X-74.875 Y-23.462
X-75.387 Y-23.653
X-75.401 Y-23.657
X-75.917 Y-23.839
X-75.931 Y-23.843
X-76.45 Y-24.014
X-76.463 Y-24.019
X-76.984 Y-24.179
X-76.998 Y-24.183
X-77.518 Y-24.333
X-77.532 Y-24.337
X-78.05 Y-24.475
X-78.065 Y-24.478
X-78.576 Y-24.603
X-79.041 Y-24.721
X-79.486 Y-24.852
X-79.922 Y-24.998
X-80.348 Y-25.16
X-80.765 Y-25.338
X-81.173 Y-25.531
X-81.572 Y-25.739
X-81.962 Y-25.962
X-82.343 Y-26.2
X-82.716 Y-26.453
X-83.079 Y-26.721
X-83.434 Y-27.002
X-83.779 Y-27.298
X-84.116 Y-27.608
X-84.443 Y-27.931
X-84.76 Y-28.267
X-85.068 Y-28.615
X-85.367 Y-28.976
X-85.655 Y-29.349
X-85.933 Y-29.734
X-86.2 Y-30.13
X-86.456 Y-30.537
X-86.701 Y-30.954
X-86.935 Y-31.381
X-87.156 Y-31.818
X-87.365 Y-32.263
X-87.562 Y-32.718
X-87.746 Y-33.18
X-87.835 Y-33.428
Z-0.625
X-87.916 Y-33.651
X-88.072 Y-34.129
X-88.214 Y-34.614
X-88.341 Y-35.106
X-88.453 Y-35.604
X-88.549 Y-36.108
X-88.629 Y-36.617
X-88.655 Y-36.83
Z-0.9 F300
X-88.693 Y-37.132 F600
X-88.739 Y-37.652
X-88.767 Y-38.177
X-88.778 Y-38.705
X-88.769 Y-39.238
X-88.741 Y-39.775
X-88.694 Y-40.315
X-88.625 Y-40.859
X-88.536 Y-41.407
X-88.424 Y-41.957
X-88.291 Y-42.511
X-88.134 Y-43.067
X-87.953 Y-43.627
X-87.748 Y-44.189
X-87.518 Y-44.754
X-87.262 Y-45.322
X-86.979 Y-45.892
X-86.669 Y-46.465
X-86.331 Y-47.04
X-85.965 Y-47.618
X-85.57 Y-48.198
X-85.144 Y-48.78
X-84.689 Y-49.364
X-84.202 Y-49.95
X-83.685 Y-50.538
X-83.135 Y-51.129
X-82.554 Y-51.721
X-81.94 Y-52.314
X-81.291 Y-52.913
G2 X-83.153 Y-56.804 I-1.509 J-1.669
X-96.8 Y-52.208 I6.788 J42.714
G1 Z-0.625
G2 X-99.011 Y-50.937 I20.435 J38.118
X-99.816 Y-50.431 I22.646 J36.847 F1016
G1 Z-0.933 F300
G2 X-101.4 Y-49.358 Z-1 I23.45 J36.341 F1016
X-117.3 Y-28.052 I25.034 J35.268 F600
G1 Z-0.625
G2 X-118.295 Y-24.697 I40.934 J13.962
G1 Z-1 F300
G2 X-119.453 Y-10.343 I41.929 J10.607 F600
X-115.226 Y-9.478 I2.242 J-0.195
G1 X-114.76 Y-10.334
X-114.29 Y-11.155
X-113.814 Y-11.944
X-113.333 Y-12.701
X-112.847 Y-13.428
X-112.355 Y-14.123
X-111.859 Y-14.789
X-111.357 Y-15.424
X-110.852 Y-16.029
X-110.341 Y-16.606
X-109.827 Y-17.153
X-109.308 Y-17.673
X-108.786 Y-18.165
X-108.261 Y-18.63
X-107.732 Y-19.069
X-107.201 Y-19.482
X-106.666 Y-19.869
X-106.13 Y-20.232
X-105.591 Y-20.571
X-105.05 Y-20.886
X-104.508 Y-21.178
X-103.965 Y-21.447
X-103.421 Y-21.695
X-102.876 Y-21.92
X-102.331 Y-22.125
X-101.786 Y-22.309
X-101.241 Y-22.473
X-100.698 Y-22.616
X-100.269 Y-22.715
Z-0.625
X-100.156 Y-22.741
X-99.615 Y-22.846
X-99.076 Y-22.932
X-98.54 Y-23
X-98.007 Y-23.049
X-97.477 Y-23.081
X-96.951 Y-23.094
X-96.79 Y-23.093
Z-1 F300
X-96.429 Y-23.091 F600
X-95.912 Y-23.07
X-95.4 Y-23.032
X-94.894 Y-22.976
X-94.394 Y-22.905
X-93.9 Y-22.816
X-93.413 Y-22.711
X-92.934 Y-22.59
X-92.462 Y-22.452
X-91.998 Y-22.298
X-91.544 Y-22.127
X-91.098 Y-21.941
X-90.661 Y-21.738
X-90.234 Y-21.52
X-89.817 Y-21.284
X-89.41 Y-21.033
X-89.014 Y-20.765
X-88.629 Y-20.481
X-88.254 Y-20.18
X-87.891 Y-19.862
X-87.539 Y-19.528
X-87.198 Y-19.176
X-86.869 Y-18.806
X-86.552 Y-18.419
X-86.247 Y-18.014
X-85.953 Y-17.59
X-85.672 Y-17.149
X-85.404 Y-16.688
X-85.142 Y-16.199
X-84.897 Y-15.733
X-84.89 Y-15.72
X-84.631 Y-15.251
X-84.624 Y-15.238
X-84.353 Y-14.769
X-84.345 Y-14.757
X-84.064 Y-14.291
X-84.056 Y-14.279
X-83.765 Y-13.816
X-83.757 Y-13.804
X-83.456 Y-13.347
X-83.448 Y-13.335
X-83.139 Y-12.884
X-83.131 Y-12.872
X-82.815 Y-12.429
X-82.806 Y-12.417
X-82.483 Y-11.983
X-82.474 Y-11.971
X-82.145 Y-11.547
X-82.135 Y-11.535
X-81.801 Y-11.122
X-81.79 Y-11.11
X-81.451 Y-10.709
X-81.439 Y-10.696
X-81.095 Y-10.309
X-81.082 Y-10.295
X-80.733 Y-9.922
X-80.72 Y-9.907
X-80.366 Y-9.548
X-80.351 Y-9.534
X-79.992 Y-9.189
X-79.976 Y-9.174
X-79.612 Y-8.845
X-79.595 Y-8.83
X-79.226 Y-8.516
X-79.208 Y-8.501
X-78.833 Y-8.203
X-78.814 Y-8.188
X-78.434 Y-7.905
X-78.413 Y-7.89
X-78.027 Y-7.622
X-78.006 Y-7.608
X-77.613 Y-7.354
X-77.592 Y-7.341
X-77.192 Y-7.102
X-77.171 Y-7.089
X-76.764 Y-6.864
X-76.744 Y-6.853
X-76.33 Y-6.64
X-76.31 Y-6.63
X-75.89 Y-6.43
X-75.871 Y-6.421
X-75.445 Y-6.233
X-75.427 Y-6.225
X-74.995 Y-6.048
X-74.978 Y-6.042
X-74.542 Y-5.875
X-74.527 Y-5.869
X-74.087 Y-5.713
X-74.066 Y-5.706
X-73.18 Y-5.419
X-73.152 Y-5.411
X-72.696 Y-5.283
X-72.688 Y-5.281
X-72.242 Y-5.16
X-72.234 Y-5.158
X-71.797 Y-5.045
X-71.789 Y-5.043
X-71.362 Y-4.937
X-71.353 Y-4.935
X-70.935 Y-4.837
X-70.926 Y-4.835
X-70.518 Y-4.745
X-70.508 Y-4.743
X-70.11 Y-4.66
X-70.1 Y-4.658
X-69.711 Y-4.582
X-69.7 Y-4.58
X-69.322 Y-4.513
X-69.31 Y-4.511
X-68.941 Y-4.451
X-68.929 Y-4.449
X-68.57 Y-4.398
X-68.557 Y-4.396
X-68.208 Y-4.352
X-68.194 Y-4.35
X-67.856 Y-4.315
X-67.84 Y-4.313
X-67.512 Y-4.285
X-67.495 Y-4.284
X-67.178 Y-4.265
X-67.159 Y-4.264
X-66.853 Y-4.253
X-66.832
X-66.537 Y-4.25
X-66.515
X-66.23 Y-4.257
X-66.206
X-65.932 Y-4.272
X-65.906 Y-4.274
X-65.644 Y-4.298
X-65.614 Y-4.301
X-65.364 Y-4.334
X-65.332 Y-4.338
X-65.093 Y-4.38
X-65.058 Y-4.387
