(Paul_Main_2mm)
(T14 D=1.95 CR=0 - ZMIN=-2 - Schaftfrser)
G90 G94
G17
G21
(-Attention- Property Safe Retracts is set to Clearance Height.)
(Ensure the clearance height will clear the part and or fixtures.)
(Raise the Z-axis to a safe height before starting the program.)
(When using Fusion for Personal Use, the feedrate of rapid)
(moves is reduced to match the feedrate of cutting moves,)
(which can increase machining time. Unrestricted rapid moves)
(are available with a Fusion Subscription.)

(Bohrfrsen3)
M0
(MANUAL TOOL CHANGE TO T14)
S5000 M3
G17 G90 G94
G54
G0 X-8.167 Y74.586
Z15
G1 Z2 F1200
Z0.195 F1016
G18 G2 X-7.972 Z0 I0.195 K0
G1 X-7.875
X-7.832 Y74.592
X-7.794 Y74.612
X-7.764 Y74.642
X-7.744 Y74.681
X-7.737 Y74.723
G17 G3 X-8.287 Y74.723 Z-0.044 I-0.275 J0 F1200
X-7.737 Y74.723 Z-0.087 I0.275 J0
X-8.287 Y74.723 Z-0.131 I-0.275 J0
X-7.737 Y74.723 Z-0.175 I0.275 J0
X-8.287 Y74.723 Z-0.218 I-0.275 J0
X-7.737 Y74.723 Z-0.262 I0.275 J0
X-8.287 Y74.723 Z-0.306 I-0.275 J0
X-7.737 Y74.723 Z-0.349 I0.275 J0
X-8.287 Y74.723 Z-0.393 I-0.275 J0
X-7.737 Y74.723 Z-0.437 I0.275 J0
X-8.287 Y74.723 Z-0.48 I-0.275 J0
X-7.737 Y74.723 Z-0.524 I0.275 J0
X-8.287 Y74.723 Z-0.567 I-0.275 J0
X-7.737 Y74.723 Z-0.611 I0.275 J0
X-8.287 Y74.723 Z-0.655 I-0.275 J0
X-7.737 Y74.723 Z-0.698 I0.275 J0
X-8.287 Y74.723 Z-0.742 I-0.275 J0
X-7.737 Y74.723 Z-0.786 I0.275 J0
X-8.287 Y74.723 Z-0.829 I-0.275 J0
X-7.737 Y74.723 Z-0.873 I0.275 J0
X-8.287 Y74.723 Z-0.917 I-0.275 J0
X-7.737 Y74.723 Z-0.96 I0.275 J0
X-8.287 Y74.723 Z-1.004 I-0.275 J0
X-7.737 Y74.723 Z-1.048 I0.275 J0
X-8.287 Y74.723 Z-1.091 I-0.275 J0
X-7.737 Y74.723 Z-1.135 I0.275 J0
X-8.287 Y74.723 Z-1.179 I-0.275 J0
X-7.737 Y74.723 Z-1.222 I0.275 J0
X-8.287 Y74.723 Z-1.266 I-0.275 J0
X-7.737 Y74.723 Z-1.31 I0.275 J0
X-8.287 Y74.723 Z-1.353 I-0.275 J0
X-7.737 Y74.723 Z-1.397 I0.275 J0
X-8.287 Y74.723 Z-1.44 I-0.275 J0
X-7.737 Y74.723 Z-1.484 I0.275 J0
X-8.287 Y74.723 Z-1.528 I-0.275 J0
X-7.737 Y74.723 Z-1.571 I0.275 J0
X-8.287 Y74.723 Z-1.615 I-0.275 J0
X-7.737 Y74.723 Z-1.659 I0.275 J0
X-8.287 Y74.723 Z-1.702 I-0.275 J0
X-7.737 Y74.723 Z-1.746 I0.275 J0
X-8.287 Y74.723 Z-1.79 I-0.275 J0
X-7.737 Y74.723 Z-1.833 I0.275 J0
X-8.287 Y74.723 Z-1.877 I-0.275 J0
X-7.737 Y74.723 Z-1.921 I0.275 J0
X-8.287 Y74.723 Z-1.964 I-0.275 J0
X-7.781 Y74.574 Z-2 I0.275 J0
X-8.244 Y74.872 I-0.231 J0.149
X-7.781 Y74.574 I0.231 J-0.149
G1 X-7.764 Y74.614 F1016
X-7.76 Y74.657
X-7.769 Y74.699
X-7.79 Y74.736
X-7.822 Y74.764
X-7.904 Y74.817
X-7.947 Y74.844 Z-1.993
X-7.986 Y74.87 Z-1.974
X-8.02 Y74.892 Z-1.943
X-8.046 Y74.909 Z-1.902
X-8.063 Y74.919 Z-1.855
X-8.068 Y74.923 Z-1.805
Z5 F1200
X-24.167 Y74.586
Z2
Z0.195 F1016
G18 G2 X-23.972 Z0 I0.195 K0
G1 X-23.875
X-23.832 Y74.592
X-23.794 Y74.612
X-23.764 Y74.642
X-23.744 Y74.681
X-23.737 Y74.723
G17 G3 X-24.287 Y74.723 Z-0.044 I-0.275 J0 F1200
X-23.737 Y74.723 Z-0.087 I0.275 J0
X-24.287 Y74.723 Z-0.131 I-0.275 J0
X-23.737 Y74.723 Z-0.175 I0.275 J0
X-24.287 Y74.723 Z-0.218 I-0.275 J0
X-23.737 Y74.723 Z-0.262 I0.275 J0
X-24.287 Y74.723 Z-0.306 I-0.275 J0
X-23.737 Y74.723 Z-0.349 I0.275 J0
X-24.287 Y74.723 Z-0.393 I-0.275 J0
X-23.737 Y74.723 Z-0.437 I0.275 J0
X-24.287 Y74.723 Z-0.48 I-0.275 J0
X-23.737 Y74.723 Z-0.524 I0.275 J0
X-24.287 Y74.723 Z-0.567 I-0.275 J0
X-23.737 Y74.723 Z-0.611 I0.275 J0
X-24.287 Y74.723 Z-0.655 I-0.275 J0
X-23.737 Y74.723 Z-0.698 I0.275 J0
X-24.287 Y74.723 Z-0.742 I-0.275 J0
X-23.737 Y74.723 Z-0.786 I0.275 J0
X-24.287 Y74.723 Z-0.829 I-0.275 J0
X-23.737 Y74.723 Z-0.873 I0.275 J0
X-24.287 Y74.723 Z-0.917 I-0.275 J0
X-23.737 Y74.723 Z-0.96 I0.275 J0
X-24.287 Y74.723 Z-1.004 I-0.275 J0
X-23.737 Y74.723 Z-1.048 I0.275 J0
X-24.287 Y74.723 Z-1.091 I-0.275 J0
X-23.737 Y74.723 Z-1.135 I0.275 J0
X-24.287 Y74.723 Z-1.179 I-0.275 J0
X-23.737 Y74.723 Z-1.222 I0.275 J0
X-24.287 Y74.723 Z-1.266 I-0.275 J0
X-23.737 Y74.723 Z-1.31 I0.275 J0
X-24.287 Y74.723 Z-1.353 I-0.275 J0
X-23.737 Y74.723 Z-1.397 I0.275 J0
X-24.287 Y74.723 Z-1.44 I-0.275 J0
X-23.737 Y74.723 Z-1.484 I0.275 J0
X-24.287 Y74.723 Z-1.528 I-0.275 J0
X-23.737 Y74.723 Z-1.571 I0.275 J0
X-24.287 Y74.723 Z-1.615 I-0.275 J0
X-23.737 Y74.723 Z-1.659 I0.275 J0
X-24.287 Y74.723 Z-1.702 I-0.275 J0
X-23.737 Y74.723 Z-1.746 I0.275 J0
X-24.287 Y74.723 Z-1.79 I-0.275 J0
X-23.737 Y74.723 Z-1.833 I0.275 J0
X-24.287 Y74.723 Z-1.877 I-0.275 J0
X-23.737 Y74.723 Z-1.921 I0.275 J0
X-24.287 Y74.723 Z-1.964 I-0.275 J0
X-23.781 Y74.574 Z-2 I0.275 J0
X-24.244 Y74.872 I-0.231 J0.149
X-23.781 Y74.574 I0.231 J-0.149
G1 X-23.764 Y74.614 F1016
X-23.76 Y74.657
X-23.769 Y74.699
X-23.79 Y74.736
X-23.822 Y74.764
X-23.904 Y74.817
X-23.947 Y74.844 Z-1.993
X-23.986 Y74.87 Z-1.974
X-24.02 Y74.892 Z-1.943
X-24.046 Y74.909 Z-1.902
X-24.063 Y74.919 Z-1.855
X-24.068 Y74.923 Z-1.805
Z5 F1200
X-24.167 Y35.086
Z2
Z0.195 F1016
G18 G2 X-23.972 Z0 I0.195 K0
G1 X-23.875
X-23.832 Y35.092
X-23.794 Y35.112
X-23.764 Y35.142
X-23.744 Y35.181
X-23.737 Y35.223
G17 G3 X-24.287 Y35.223 Z-0.044 I-0.275 J0 F1200
X-23.737 Y35.223 Z-0.087 I0.275 J0
X-24.287 Y35.223 Z-0.131 I-0.275 J0
X-23.737 Y35.223 Z-0.175 I0.275 J0
X-24.287 Y35.223 Z-0.218 I-0.275 J0
X-23.737 Y35.223 Z-0.262 I0.275 J0
X-24.287 Y35.223 Z-0.306 I-0.275 J0
X-23.737 Y35.223 Z-0.349 I0.275 J0
X-24.287 Y35.223 Z-0.393 I-0.275 J0
X-23.737 Y35.223 Z-0.437 I0.275 J0
X-24.287 Y35.223 Z-0.48 I-0.275 J0
X-23.737 Y35.223 Z-0.524 I0.275 J0
X-24.287 Y35.223 Z-0.567 I-0.275 J0
X-23.737 Y35.223 Z-0.611 I0.275 J0
X-24.287 Y35.223 Z-0.655 I-0.275 J0
X-23.737 Y35.223 Z-0.698 I0.275 J0
X-24.287 Y35.223 Z-0.742 I-0.275 J0
X-23.737 Y35.223 Z-0.786 I0.275 J0
X-24.287 Y35.223 Z-0.829 I-0.275 J0
X-23.737 Y35.223 Z-0.873 I0.275 J0
X-24.287 Y35.223 Z-0.917 I-0.275 J0
X-23.737 Y35.223 Z-0.96 I0.275 J0
X-24.287 Y35.223 Z-1.004 I-0.275 J0
X-23.737 Y35.223 Z-1.048 I0.275 J0
X-24.287 Y35.223 Z-1.091 I-0.275 J0
X-23.737 Y35.223 Z-1.135 I0.275 J0
X-24.287 Y35.223 Z-1.179 I-0.275 J0
X-23.737 Y35.223 Z-1.222 I0.275 J0
X-24.287 Y35.223 Z-1.266 I-0.275 J0
X-23.737 Y35.223 Z-1.31 I0.275 J0
X-24.287 Y35.223 Z-1.353 I-0.275 J0
X-23.737 Y35.223 Z-1.397 I0.275 J0
X-24.287 Y35.223 Z-1.44 I-0.275 J0
X-23.737 Y35.223 Z-1.484 I0.275 J0
X-24.287 Y35.223 Z-1.528 I-0.275 J0
X-23.737 Y35.223 Z-1.571 I0.275 J0
X-24.287 Y35.223 Z-1.615 I-0.275 J0
X-23.737 Y35.223 Z-1.659 I0.275 J0
X-24.287 Y35.223 Z-1.702 I-0.275 J0
X-23.737 Y35.223 Z-1.746 I0.275 J0
X-24.287 Y35.223 Z-1.79 I-0.275 J0
X-23.737 Y35.223 Z-1.833 I0.275 J0
X-24.287 Y35.223 Z-1.877 I-0.275 J0
X-23.737 Y35.223 Z-1.921 I0.275 J0
X-24.287 Y35.223 Z-1.964 I-0.275 J0
X-23.781 Y35.074 Z-2 I0.275 J0
X-24.244 Y35.372 I-0.231 J0.149
X-23.781 Y35.074 I0.231 J-0.149
G1 X-23.764 Y35.114 F1016
X-23.76 Y35.157
X-23.769 Y35.199
X-23.79 Y35.236
X-23.822 Y35.264
X-23.904 Y35.317
X-23.947 Y35.344 Z-1.993
X-23.986 Y35.37 Z-1.974
X-24.02 Y35.392 Z-1.943
X-24.046 Y35.409 Z-1.902
X-24.063 Y35.419 Z-1.855
X-24.068 Y35.423 Z-1.805
Z5 F1200
X-8.167 Y35.086
Z2
Z0.195 F1016
G18 G2 X-7.972 Z0 I0.195 K0
G1 X-7.875
X-7.832 Y35.092
X-7.794 Y35.112
X-7.764 Y35.142
X-7.744 Y35.181
X-7.737 Y35.223
G17 G3 X-8.287 Y35.223 Z-0.044 I-0.275 J0 F1200
X-7.737 Y35.223 Z-0.087 I0.275 J0
X-8.287 Y35.223 Z-0.131 I-0.275 J0
X-7.737 Y35.223 Z-0.175 I0.275 J0
X-8.287 Y35.223 Z-0.218 I-0.275 J0
X-7.737 Y35.223 Z-0.262 I0.275 J0
X-8.287 Y35.223 Z-0.306 I-0.275 J0
X-7.737 Y35.223 Z-0.349 I0.275 J0
X-8.287 Y35.223 Z-0.393 I-0.275 J0
X-7.737 Y35.223 Z-0.437 I0.275 J0
X-8.287 Y35.223 Z-0.48 I-0.275 J0
X-7.737 Y35.223 Z-0.524 I0.275 J0
X-8.287 Y35.223 Z-0.567 I-0.275 J0
X-7.737 Y35.223 Z-0.611 I0.275 J0
X-8.287 Y35.223 Z-0.655 I-0.275 J0
X-7.737 Y35.223 Z-0.698 I0.275 J0
X-8.287 Y35.223 Z-0.742 I-0.275 J0
X-7.737 Y35.223 Z-0.786 I0.275 J0
X-8.287 Y35.223 Z-0.829 I-0.275 J0
X-7.737 Y35.223 Z-0.873 I0.275 J0
X-8.287 Y35.223 Z-0.917 I-0.275 J0
X-7.737 Y35.223 Z-0.96 I0.275 J0
X-8.287 Y35.223 Z-1.004 I-0.275 J0
X-7.737 Y35.223 Z-1.048 I0.275 J0
X-8.287 Y35.223 Z-1.091 I-0.275 J0
X-7.737 Y35.223 Z-1.135 I0.275 J0
X-8.287 Y35.223 Z-1.179 I-0.275 J0
X-7.737 Y35.223 Z-1.222 I0.275 J0
X-8.287 Y35.223 Z-1.266 I-0.275 J0
X-7.737 Y35.223 Z-1.31 I0.275 J0
X-8.287 Y35.223 Z-1.353 I-0.275 J0
X-7.737 Y35.223 Z-1.397 I0.275 J0
X-8.287 Y35.223 Z-1.44 I-0.275 J0
X-7.737 Y35.223 Z-1.484 I0.275 J0
X-8.287 Y35.223 Z-1.528 I-0.275 J0
X-7.737 Y35.223 Z-1.571 I0.275 J0
X-8.287 Y35.223 Z-1.615 I-0.275 J0
X-7.737 Y35.223 Z-1.659 I0.275 J0
X-8.287 Y35.223 Z-1.702 I-0.275 J0
X-7.737 Y35.223 Z-1.746 I0.275 J0
X-8.287 Y35.223 Z-1.79 I-0.275 J0
X-7.737 Y35.223 Z-1.833 I0.275 J0
X-8.287 Y35.223 Z-1.877 I-0.275 J0
X-7.737 Y35.223 Z-1.921 I0.275 J0
X-8.287 Y35.223 Z-1.964 I-0.275 J0
X-7.781 Y35.074 Z-2 I0.275 J0
X-8.244 Y35.372 I-0.231 J0.149
X-7.781 Y35.074 I0.231 J-0.149
G1 X-7.764 Y35.114 F1016
X-7.76 Y35.157
X-7.769 Y35.199
X-7.79 Y35.236
X-7.822 Y35.264
X-7.904 Y35.317
X-7.947 Y35.344 Z-1.993
X-7.986 Y35.37 Z-1.974
X-8.02 Y35.392 Z-1.943
X-8.046 Y35.409 Z-1.902
X-8.063 Y35.419 Z-1.855
X-8.068 Y35.423 Z-1.805
Z15 F1200
(When using Fusion for Personal Use, the feedrate of rapid)
(moves is reduced to match the feedrate of cutting moves,)
(which can increase machining time. Unrestricted rapid moves)
(are available with a Fusion Subscription.)

(2D Adaptive4)
G0 X-59.185 Y71.784
G1 Z15 F1200
Z5
Z-0.31
Z-0.505 F1016
X-59.192 Y71.783 Z-0.555
X-59.211 Y71.778 Z-0.603
X-59.241 Y71.77 Z-0.643
X-59.28 Y71.76 Z-0.674
X-59.325 Y71.749 Z-0.693
X-59.374 Y71.736 Z-0.7
G3 X-60.753 Y70.983 I0.78 J-3.068
G1 X-60.915 Y70.821 F1200
X-61.016 Y70.71
X-61.099 Y70.585
X-61.166 Y70.451
X-61.228 Y70.293
X-61.293 Y70.082
X-61.357 Y69.785
X-61.42 Y69.32
X-61.446 Y68.82
X-61.452 Y68.319
X-61.448 Y67.819
X-61.44 Y67.318
X-61.429 Y66.817
X-61.405 Y65.816
X-61.389 Y65.316
X-61.341 Y64.817
X-61.309 Y64.569
X-61.271 Y64.305
X-61.184 Y63.925
X-61.035 Y63.447
X-60.94 Y63.198
X-60.804 Y62.91
X-60.554 Y62.476
X-60.27 Y62.063
X-59.98 Y61.655
X-59.7 Y61.24
X-59.504 Y60.779
X-59.399 Y60.289
X-59.391 Y59.789
X-59.516 Y59.304
X-59.741 Y58.857
X-60.069 Y58.478
X-60.482 Y58.195
X-60.588 Y58.129
X-60.692 Y58.021
X-60.775 Y57.896
X-60.843 Y57.762
X-60.905 Y57.604
X-60.969 Y57.393
X-61.034 Y57.096
X-61.037 Y57.071
X-61.03 Y56.91
X-60.967 Y56.762
X-60.857 Y56.645
X-60.713 Y56.573
X-60.552 Y56.557
X-60.396 Y56.597
X-60.264 Y56.689
G3 X-60.55 Y56.955 I-0.143 J0.133 F1016
X-60.6 Y56.795 I0.143 J-0.133
G1 X-60.593 Y56.745 Z-0.693
X-60.587 Y56.699 Z-0.674
X-60.581 Y56.659 Z-0.643
X-60.577 Y56.628 Z-0.603
X-60.575 Y56.609 Z-0.555
X-60.574 Y56.602 Z-0.505
Z5 F1200
X-60.037 Y71.246
Z-0.31
Z-0.505 F1016
X-60.043 Y71.244 Z-0.555
X-60.062 Y71.239 Z-0.603
X-60.092 Y71.232 Z-0.643
X-60.131 Y71.222 Z-0.674
X-60.177 Y71.21 Z-0.693
X-60.226 Y71.198 Z-0.7
G3 X-60.915 Y70.821 I0.39 J-1.534
G1 X-61.597 Y70.139 F1200
X-61.698 Y70.028
X-61.782 Y69.904
X-61.854 Y69.769
X-61.927 Y69.601
X-61.999 Y69.392
X-62.072 Y69.107
X-62.142 Y68.699
X-62.187 Y68.2
X-62.204 Y67.699
X-62.206 Y67.199
X-62.2 Y66.698
X-62.191 Y66.197
X-62.178 Y65.697
X-62.146 Y65.197
X-62.096 Y64.699
X-62.018 Y64.204
X-61.903 Y63.717
X-61.77 Y63.289
X-61.588 Y62.836
X-61.365 Y62.387
X-61.108 Y61.957
X-60.834 Y61.538
X-60.571 Y61.112
X-60.373 Y60.652
X-60.3 Y60.157
X-60.35 Y59.912
X-60.537 Y59.447
X-60.846 Y59.053
X-61.066 Y58.776
X-61.228 Y58.535
X-61.368 Y58.286
X-61.495 Y58.008
X-61.565 Y57.817
X-61.617 Y57.631
X-61.645 Y57.484
X-61.66 Y57.334
X-61.662 Y57.184
X-61.649 Y57.035
X-61.618 Y56.888
X-61.572 Y56.745
X-61.413 Y56.404
X-61.311 Y56.263
X-61.163 Y56.171
X-60.992 Y56.141
X-60.822 Y56.177
X-60.679 Y56.274
G3 X-60.964 Y56.54 I-0.143 J0.133 F1016
X-61.014 Y56.381 I0.143 J-0.133
G1 X-61.008 Y56.331 Z-0.693
X-61.001 Y56.284 Z-0.674
X-60.996 Y56.244 Z-0.643
X-60.992 Y56.214 Z-0.603
X-60.989 Y56.194 Z-0.555
X-60.988 Y56.188 Z-0.505
Z5 F1200
X-60.719 Y70.564
Z-0.31
Z-0.505 F1016
X-60.725 Y70.562 Z-0.555
X-60.744 Y70.557 Z-0.603
X-60.774 Y70.549 Z-0.643
X-60.814 Y70.54 Z-0.674
X-60.859 Y70.528 Z-0.693
X-60.908 Y70.516 Z-0.7
G3 X-61.597 Y70.139 I0.39 J-1.534
G1 X-62.286 Y69.45 F1200
X-62.387 Y69.339
X-62.478 Y69.22
X-62.556 Y69.091
X-62.629 Y68.943
X-62.704 Y68.757
X-62.78 Y68.51
X-62.854 Y68.178
X-62.924 Y67.683
X-62.954 Y67.183
X-62.963 Y66.682
X-62.961 Y66.181
X-62.945 Y65.681
X-62.912 Y65.181
X-62.86 Y64.683
X-62.781 Y64.189
X-62.674 Y63.699
X-62.535 Y63.219
X-62.362 Y62.749
X-62.156 Y62.292
X-61.921 Y61.85
X-61.667 Y61.419
X-61.42 Y60.983
X-61.355 Y60.741
X-61.346 Y60.491
X-61.419 Y59.996
X-61.61 Y59.533
X-61.836 Y59.086
X-62.051 Y58.636
X-62.172 Y58.319
X-62.251 Y58.049
X-62.301 Y57.81
X-62.327 Y57.597
X-62.336 Y57.397
X-62.329 Y57.211
X-62.304 Y56.991
X-62.262 Y56.785
X-62.21 Y56.6
X-62.156 Y56.456
X-62.092 Y56.32
X-62.015 Y56.191
X-61.927 Y56.07
X-61.75 Y55.876
X-61.602 Y55.769
X-61.424 Y55.728
X-61.244 Y55.76
X-61.092 Y55.861
G3 X-61.377 Y56.127 I-0.143 J0.133 F1016
X-61.428 Y55.967 I0.143 J-0.133
G1 X-61.421 Y55.917 Z-0.693
X-61.415 Y55.871 Z-0.674
X-61.409 Y55.831 Z-0.643
X-61.405 Y55.8 Z-0.603
X-61.402 Y55.781 Z-0.555
X-61.401 Y55.774 Z-0.505
Z5 F1200
X-61.408 Y69.874
Z-0.31
Z-0.505 F1016
X-61.415 Y69.873 Z-0.555
X-61.433 Y69.868 Z-0.603
X-61.464 Y69.86 Z-0.643
X-61.503 Y69.85 Z-0.674
X-61.548 Y69.839 Z-0.693
X-61.597 Y69.826 Z-0.7
G3 X-62.286 Y69.45 I0.39 J-1.534
G1 X-63.076 Y68.661 F1200
X-63.176 Y68.55
X-63.262 Y68.426
X-63.335 Y68.296
X-63.413 Y68.126
X-63.489 Y67.918
X-63.566 Y67.639
X-63.639 Y67.259
X-63.694 Y66.761
X-63.712 Y66.261
X-63.707 Y65.76
X-63.681 Y65.26
X-63.634 Y64.761
X-63.563 Y64.266
X-63.467 Y63.774
X-63.343 Y63.289
X-63.19 Y62.812
X-63.009 Y62.345
X-62.799 Y61.891
X-62.565 Y61.448
X-62.457 Y61.222
X-62.385 Y60.982
X-62.327 Y60.485
X-62.411 Y59.992
X-62.565 Y59.515
X-62.737 Y59.045
X-62.888 Y58.579
X-62.971 Y58.226
X-63.02 Y57.909
X-63.042 Y57.602
X-63.039 Y57.307
X-63.015 Y57.034
X-62.973 Y56.789
X-62.917 Y56.569
X-62.847 Y56.365
X-62.762 Y56.169
X-62.667 Y55.991
X-62.567 Y55.836
X-62.472 Y55.71
X-62.372 Y55.599
X-62.261 Y55.498
X-62.141 Y55.408
X-62.071 Y55.367
X-61.931 Y55.313
X-61.782 Y55.307
X-61.638 Y55.349
X-61.517 Y55.436
G3 X-61.802 Y55.702 I-0.143 J0.133 F1016
X-61.852 Y55.543 I0.143 J-0.133
G1 X-61.846 Y55.493 Z-0.693
X-61.839 Y55.446 Z-0.674
X-61.834 Y55.406 Z-0.643
X-61.83 Y55.376 Z-0.602
X-61.827 Y55.356 Z-0.555
X-61.826 Y55.35 Z-0.505
Z5 F1200
X-62.197 Y69.085
Z-0.31
Z-0.505 F1016
X-62.204 Y69.084 Z-0.555
X-62.223 Y69.079 Z-0.603
X-62.253 Y69.071 Z-0.643
X-62.292 Y69.061 Z-0.674
X-62.337 Y69.05 Z-0.693
X-62.386 Y69.037 Z-0.7
G3 X-63.076 Y68.661 I0.39 J-1.534
G1 X-63.824 Y67.913 F1200
X-63.924 Y67.802
X-64.011 Y67.679
X-64.087 Y67.546
X-64.159 Y67.392
X-64.236 Y67.186
X-64.306 Y66.941
X-64.374 Y66.605
X-64.425 Y66.169
X-64.444 Y65.669
X-64.428 Y65.168
X-64.384 Y64.67
X-64.315 Y64.174
X-64.22 Y63.682
X-64.1 Y63.196
X-63.954 Y62.717
X-63.782 Y62.247
X-63.585 Y61.786
X-63.374 Y61.332
X-63.256 Y60.846
X-63.264 Y60.345
X-63.356 Y59.853
X-63.607 Y58.883
X-63.704 Y58.412
X-63.758 Y57.983
X-63.775 Y57.589
X-63.762 Y57.238
X-63.725 Y56.921
X-63.665 Y56.622
X-63.585 Y56.341
X-63.488 Y56.081
X-63.378 Y55.848
X-63.265 Y55.649
X-63.143 Y55.472
X-63.021 Y55.32
X-62.91 Y55.204
X-62.789 Y55.095
X-62.67 Y55.004
X-62.542 Y54.926
X-62.488 Y54.899
X-62.353 Y54.858
X-62.213 Y54.86
X-62.08 Y54.904
X-61.966 Y54.987
G3 X-62.252 Y55.253 I-0.143 J0.133 F1016
X-62.302 Y55.093 I0.143 J-0.133
G1 X-62.295 Y55.043 Z-0.693
X-62.289 Y54.997 Z-0.674
X-62.283 Y54.957 Z-0.643
X-62.279 Y54.926 Z-0.603
X-62.277 Y54.907 Z-0.555
X-62.276 Y54.9 Z-0.505
Z5 F1200
X-62.945 Y68.337
Z-0.31
Z-0.505 F1016
X-62.952 Y68.336 Z-0.555
X-62.971 Y68.331 Z-0.603
X-63.001 Y68.323 Z-0.643
X-63.04 Y68.313 Z-0.674
X-63.086 Y68.302 Z-0.693
X-63.134 Y68.289 Z-0.7
G3 X-63.824 Y67.913 I0.39 J-1.534
G1 X-64.554 Y67.183 F1200
X-64.655 Y67.071
X-64.743 Y66.951
X-64.82 Y66.821
X-64.892 Y66.67
X-64.964 Y66.479
X-65.027 Y66.263
X-65.086 Y65.972
X-65.129 Y65.622
X-65.147 Y65.176
X-65.128 Y64.676
X-65.073 Y64.178
X-64.99 Y63.685
X-64.88 Y63.196
X-64.746 Y62.714
X-64.587 Y62.239
X-64.406 Y61.772
X-64.229 Y61.303
X-64.144 Y60.81
X-64.155 Y60.309
X-64.226 Y59.814
X-64.32 Y59.322
X-64.411 Y58.829
X-64.481 Y58.334
X-64.516 Y57.843
X-64.512 Y57.4
X-64.476 Y57
X-64.413 Y56.632
X-64.326 Y56.289
X-64.217 Y55.973
X-64.092 Y55.684
X-63.953 Y55.424
X-63.81 Y55.202
X-63.662 Y55.007
X-63.511 Y54.84
X-63.377 Y54.713
X-63.243 Y54.605
X-63.119 Y54.52
X-62.988 Y54.447
X-62.937 Y54.425
X-62.761 Y54.387
X-62.584 Y54.42
X-62.433 Y54.52
X-61.966 Y54.987
G3 X-62.252 Y55.253 I-0.143 J0.133 F1016
X-62.302 Y55.093 I0.143 J-0.133
G1 X-62.295 Y55.043 Z-0.693
X-62.289 Y54.997 Z-0.674
X-62.283 Y54.957 Z-0.643
X-62.279 Y54.926 Z-0.603
X-62.277 Y54.907 Z-0.555
X-62.276 Y54.9 Z-0.505
Z5 F1200
X-63.676 Y67.607
Z-0.31
Z-0.505 F1016
X-63.682 Y67.605 Z-0.555
X-63.701 Y67.601 Z-0.603
X-63.731 Y67.593 Z-0.643
X-63.77 Y67.583 Z-0.674
X-63.816 Y67.571 Z-0.693
X-63.865 Y67.559 Z-0.7
G3 X-64.554 Y67.183 I0.39 J-1.534
G1 X-65.302 Y66.434 F1200
X-65.403 Y66.323
X-65.488 Y66.199
X-65.559 Y66.067
X-65.624 Y65.917
X-65.685 Y65.74
X-65.745 Y65.504
X-65.789 Y65.25
X-65.82 Y64.907
X-65.824 Y64.487
X-65.789 Y63.987
X-65.714 Y63.492
X-65.608 Y63.002
X-65.477 Y62.519
X-65.322 Y62.043
X-65.154 Y61.571
X-65.039 Y61.084
X-65.004 Y60.584
X-65.032 Y60.084
X-65.093 Y59.587
X-65.162 Y59.092
X-65.222 Y58.594
X-65.26 Y58.095
X-65.267 Y57.594
X-65.237 Y57.113
X-65.172 Y56.665
X-65.078 Y56.249
X-64.96 Y55.872
X-64.822 Y55.531
X-64.667 Y55.22
X-64.497 Y54.94
X-64.321 Y54.696
X-64.146 Y54.49
X-63.974 Y54.319
X-63.828 Y54.194
X-63.693 Y54.097
X-63.556 Y54.014
X-63.421 Y53.947
X-63.396 Y53.937
X-63.225 Y53.907
X-63.056 Y53.944
X-62.912 Y54.041
X-62.433 Y54.52
G3 X-62.718 Y54.786 I-0.143 J0.133 F1016
X-62.769 Y54.626 I0.143 J-0.133
G1 X-62.762 Y54.576 Z-0.693
X-62.756 Y54.53 Z-0.674
X-62.75 Y54.49 Z-0.643
X-62.746 Y54.459 Z-0.603
X-62.743 Y54.44 Z-0.555
Y54.433 Z-0.505
Z5 F1200
X-64.424 Y66.859
Z-0.31
Z-0.505 F1016
X-64.43 Y66.857 Z-0.555
X-64.449 Y66.852 Z-0.603
X-64.479 Y66.845 Z-0.643
X-64.518 Y66.835 Z-0.674
X-64.564 Y66.823 Z-0.693
X-64.613 Y66.811 Z-0.7
G3 X-65.302 Y66.434 I0.39 J-1.534
G1 X-65.985 Y65.752 F1200
X-66.085 Y65.641
X-66.171 Y65.518
X-66.242 Y65.386
X-66.305 Y65.239
X-66.361 Y65.075
X-66.415 Y64.857
X-66.454 Y64.618
X-66.481 Y64.306
X-66.482 Y63.955
X-66.447 Y63.501
X-66.368 Y63.006
X-66.256 Y62.518
X-66.118 Y62.037
X-65.977 Y61.556
X-65.879 Y61.065
X-65.847 Y60.566
X-65.863 Y60.065
X-65.906 Y59.566
X-65.957 Y59.068
X-66.001 Y58.569
X-66.025 Y58.069
X-66.022 Y57.568
X-65.986 Y57.069
X-65.915 Y56.573
X-65.809 Y56.103
X-65.677 Y55.678
X-65.52 Y55.286
X-65.342 Y54.927
X-65.147 Y54.604
X-64.942 Y54.318
X-64.743 Y54.083
X-64.552 Y53.891
X-64.364 Y53.731
X-64.226 Y53.631
X-64.077 Y53.54
X-63.943 Y53.472
X-63.891 Y53.452
X-63.718 Y53.419
X-63.546 Y53.455
X-63.4 Y53.552
X-62.912 Y54.041
G3 X-63.198 Y54.306 I-0.143 J0.133 F1016
X-63.248 Y54.147 I0.143 J-0.133
G1 X-63.241 Y54.097 Z-0.693
X-63.235 Y54.051 Z-0.674
X-63.23 Y54.011 Z-0.643
X-63.225 Y53.98 Z-0.602
X-63.223 Y53.961 Z-0.555
X-63.222 Y53.954 Z-0.505
Z5 F1200
X-65.106 Y66.176
Z-0.31
Z-0.505 F1016
X-65.113 Y66.175 Z-0.555
X-65.132 Y66.17 Z-0.603
X-65.162 Y66.162 Z-0.643
X-65.201 Y66.152 Z-0.674
X-65.246 Y66.141 Z-0.693
X-65.295 Y66.128 Z-0.7
G3 X-65.985 Y65.752 I0.39 J-1.534
G1 X-66.667 Y65.07 F1200
X-66.768 Y64.958
X-66.85 Y64.833
X-66.918 Y64.699
X-66.974 Y64.56
X-67.028 Y64.384
X-67.072 Y64.181
X-67.105 Y63.941
X-67.122 Y63.644
X-67.114 Y63.281
X-67.068 Y62.847
X-66.976 Y62.354
X-66.859 Y61.868
X-66.752 Y61.379
X-66.69 Y60.882
X-66.674 Y60.381
X-66.69 Y59.881
X-66.723 Y59.381
X-66.757 Y58.881
X-66.782 Y58.381
X-66.788 Y57.881
X-66.771 Y57.38
X-66.724 Y56.882
X-66.644 Y56.387
X-66.53 Y55.9
X-66.379 Y55.422
X-66.201 Y54.985
X-66 Y54.586
X-65.782 Y54.228
X-65.554 Y53.913
X-65.32 Y53.64
X-65.108 Y53.43
X-64.904 Y53.257
X-64.749 Y53.145
X-64.589 Y53.049
X-64.455 Y52.983
X-64.387 Y52.956
X-64.214 Y52.923
X-64.042 Y52.959
X-63.896 Y53.056
X-63.4 Y53.552
G3 X-63.686 Y53.818 I-0.143 J0.133 F1016
X-63.736 Y53.659 I0.143 J-0.133
G1 X-63.729 Y53.609 Z-0.693
X-63.723 Y53.562 Z-0.674
X-63.718 Y53.522 Z-0.643
X-63.713 Y53.492 Z-0.603
X-63.711 Y53.472 Z-0.555
X-63.71 Y53.466 Z-0.505
Z5 F1200
X-65.789 Y65.494
Z-0.31
Z-0.505 F1016
X-65.795 Y65.492 Z-0.555
X-65.814 Y65.488 Z-0.603
X-65.844 Y65.48 Z-0.643
X-65.883 Y65.47 Z-0.674
X-65.929 Y65.458 Z-0.693
X-65.978 Y65.446 Z-0.7
G3 X-66.667 Y65.07 I0.39 J-1.534
G1 X-67.283 Y64.453 F1200
X-67.384 Y64.342
X-67.471 Y64.22
X-67.541 Y64.088
X-67.599 Y63.949
X-67.649 Y63.793
X-67.695 Y63.594
X-67.726 Y63.385
X-67.745 Y63.1
X-67.741 Y62.773
X-67.694 Y62.274
X-67.613 Y61.78
X-67.538 Y61.285
X-67.496 Y60.786
X-67.485 Y60.285
X-67.497 Y59.785
X-67.542 Y58.784
X-67.555 Y58.284
X-67.552 Y57.783
X-67.526 Y57.283
X-67.474 Y56.785
X-67.392 Y56.291
X-67.28 Y55.803
X-67.136 Y55.323
X-66.958 Y54.855
X-66.745 Y54.402
X-66.507 Y53.986
X-66.252 Y53.612
X-66 Y53.3
X-65.765 Y53.052
X-65.533 Y52.844
X-65.333 Y52.692
X-65.177 Y52.592
X-65.018 Y52.507
X-64.88 Y52.448
X-64.863 Y52.442
X-64.699 Y52.42
X-64.537 Y52.459
X-64.4 Y52.553
X-63.896 Y53.056
G3 X-64.182 Y53.322 I-0.143 J0.133 F1016
X-64.232 Y53.163 I0.143 J-0.133
G1 X-64.225 Y53.113 Z-0.693
X-64.219 Y53.066 Z-0.674
X-64.214 Y53.026 Z-0.643
X-64.209 Y52.996 Z-0.603
X-64.207 Y52.976 Z-0.555
X-64.206 Y52.97 Z-0.505
Z5 F1200
X-66.405 Y64.878
Z-0.31
Z-0.505 F1016
X-66.411 Y64.876 Z-0.555
X-66.43 Y64.871 Z-0.603
X-66.46 Y64.864 Z-0.643
X-66.499 Y64.854 Z-0.674
X-66.545 Y64.842 Z-0.693
X-66.594 Y64.83 Z-0.7
G3 X-67.283 Y64.453 I0.39 J-1.534
G1 X-67.918 Y63.819 F1200
X-68.019 Y63.707
X-68.103 Y63.584
X-68.173 Y63.45
X-68.228 Y63.311
X-68.279 Y63.141
X-68.322 Y62.943
X-68.354 Y62.702
X-68.372 Y62.346
X-68.358 Y61.845
X-68.321 Y61.346
X-68.293 Y60.846
X-68.284 Y60.345
X-68.29 Y59.845
X-68.32 Y58.843
X-68.327 Y58.343
X-68.319 Y57.842
X-68.293 Y57.342
X-68.244 Y56.844
X-68.17 Y56.348
X-68.069 Y55.858
X-67.941 Y55.374
X-67.782 Y54.899
X-67.594 Y54.435
X-67.373 Y53.986
X-67.12 Y53.554
X-66.854 Y53.172
X-66.582 Y52.841
X-66.313 Y52.563
X-66.067 Y52.346
X-65.845 Y52.181
X-65.689 Y52.082
X-65.526 Y51.997
X-65.388 Y51.939
X-65.371 Y51.933
X-65.206 Y51.912
X-65.045 Y51.95
X-64.909 Y52.044
X-64.4 Y52.553
G3 X-64.685 Y52.819 I-0.143 J0.133 F1016
X-64.736 Y52.659 I0.143 J-0.133
G1 X-64.729 Y52.609 Z-0.693
X-64.723 Y52.563 Z-0.674
X-64.717 Y52.523 Z-0.643
X-64.713 Y52.492 Z-0.603
X-64.71 Y52.473 Z-0.555
Y52.466 Z-0.505
Z5 F1200
X-67.04 Y64.243
Z-0.31
Z-0.505 F1016
X-67.046 Y64.241 Z-0.555
X-67.065 Y64.236 Z-0.603
X-67.095 Y64.229 Z-0.643
X-67.134 Y64.219 Z-0.674
X-67.18 Y64.207 Z-0.693
X-67.229 Y64.195 Z-0.7
G3 X-67.918 Y63.819 I0.39 J-1.534
G1 X-68.534 Y63.203 F1200
X-68.635 Y63.091
X-68.721 Y62.969
X-68.792 Y62.837
X-68.853 Y62.69
X-68.909 Y62.516
X-68.963 Y62.291
X-69.015 Y61.951
X-69.052 Y61.451
X-69.06 Y60.95
X-69.064 Y60.45
X-69.073 Y59.949
X-69.085 Y59.448
X-69.095 Y58.948
X-69.099 Y58.447
X-69.09 Y57.946
X-69.065 Y57.446
X-69.021 Y56.948
X-68.955 Y56.451
X-68.866 Y55.958
X-68.752 Y55.471
X-68.612 Y54.99
X-68.446 Y54.518
X-68.25 Y54.057
X-68.024 Y53.61
X-67.769 Y53.179
X-67.484 Y52.767
X-67.186 Y52.402
X-66.905 Y52.108
X-66.641 Y51.874
X-66.399 Y51.691
X-66.227 Y51.582
X-66.06 Y51.494
X-65.922 Y51.435
X-65.887 Y51.423
X-65.722 Y51.4
X-65.559 Y51.438
X-65.42 Y51.532
X-64.909 Y52.044
G3 X-65.194 Y52.31 I-0.143 J0.133 F1016
X-65.244 Y52.151 I0.143 J-0.133
G1 X-65.238 Y52.101 Z-0.693
X-65.231 Y52.054 Z-0.674
X-65.226 Y52.014 Z-0.643
X-65.222 Y51.984 Z-0.603
X-65.219 Y51.964 Z-0.555
X-65.218 Y51.958 Z-0.505
Z5 F1200
X-67.656 Y63.627
Z-0.31
Z-0.505 F1016
X-67.662 Y63.625 Z-0.555
X-67.681 Y63.621 Z-0.603
X-67.711 Y63.613 Z-0.643
X-67.75 Y63.603 Z-0.674
X-67.796 Y63.591 Z-0.693
X-67.845 Y63.579 Z-0.7
G3 X-68.534 Y63.203 I0.39 J-1.534
G1 X-69.216 Y62.52 F1200
X-69.317 Y62.409
X-69.4 Y62.284
X-69.471 Y62.152
X-69.54 Y61.992
X-69.613 Y61.777
X-69.688 Y61.479
X-69.77 Y60.988
X-69.813 Y60.489
X-69.839 Y59.989
X-69.857 Y59.489
X-69.868 Y58.988
X-69.87 Y58.487
X-69.86 Y57.987
X-69.835 Y57.487
X-69.792 Y56.988
X-69.73 Y56.491
X-69.647 Y55.997
X-69.542 Y55.508
X-69.413 Y55.024
X-69.261 Y54.547
X-69.083 Y54.079
X-68.879 Y53.621
X-68.647 Y53.177
X-68.387 Y52.749
X-68.1 Y52.339
X-67.784 Y51.951
X-67.484 Y51.637
X-67.207 Y51.389
X-66.95 Y51.194
X-66.764 Y51.076
X-66.592 Y50.985
X-66.449 Y50.923
X-66.404 Y50.908
X-66.238 Y50.884
X-66.075 Y50.922
X-65.936 Y51.017
X-65.42 Y51.532
G3 X-65.706 Y51.798 I-0.143 J0.133 F1016
X-65.756 Y51.639 I0.143 J-0.133
G1 X-65.749 Y51.589 Z-0.693
X-65.743 Y51.542 Z-0.674
X-65.738 Y51.502 Z-0.643
X-65.733 Y51.472 Z-0.603
X-65.731 Y51.452 Z-0.555
X-65.73 Y51.446 Z-0.505
Z5 F1200
X-68.338 Y62.945
Z-0.31
Z-0.505 F1016
X-68.344 Y62.943 Z-0.555
X-68.363 Y62.938 Z-0.603
X-68.393 Y62.931 Z-0.643
X-68.432 Y62.921 Z-0.674
X-68.478 Y62.909 Z-0.693
X-68.527 Y62.897 Z-0.7
G3 X-69.216 Y62.52 I0.39 J-1.534
G1 X-69.898 Y61.838 F1200
X-70.004 Y61.721
X-70.095 Y61.602
X-70.173 Y61.474
X-70.253 Y61.315
X-70.332 Y61.116
X-70.417 Y60.842
X-70.505 Y60.45
X-70.575 Y59.954
X-70.613 Y59.455
X-70.633 Y58.954
X-70.637 Y58.454
X-70.626 Y57.953
X-70.6 Y57.453
X-70.557 Y56.954
X-70.495 Y56.457
X-70.415 Y55.963
X-70.313 Y55.472
X-70.191 Y54.987
X-70.047 Y54.507
X-69.879 Y54.036
X-69.688 Y53.573
X-69.473 Y53.121
X-69.232 Y52.681
X-68.966 Y52.257
X-68.674 Y51.851
X-68.355 Y51.465
X-68.04 Y51.138
X-67.749 Y50.881
X-67.482 Y50.68
X-67.287 Y50.557
X-67.112 Y50.465
X-66.967 Y50.403
X-66.921 Y50.388
X-66.755 Y50.365
X-66.593 Y50.404
X-66.455 Y50.498
X-65.936 Y51.017
G3 X-66.221 Y51.283 I-0.143 J0.133 F1016
X-66.272 Y51.123 I0.143 J-0.133
G1 X-66.265 Y51.073 Z-0.693
X-66.259 Y51.027 Z-0.674
X-66.253 Y50.987 Z-0.643
X-66.249 Y50.956 Z-0.603
X-66.246 Y50.937 Z-0.555
Y50.93 Z-0.505
Z5 F1200
X-69.02 Y62.262
Z-0.31
Z-0.505 F1016
X-69.027 Y62.261 Z-0.555
X-69.045 Y62.256 Z-0.603
X-69.075 Y62.248 Z-0.643
X-69.115 Y62.238 Z-0.674
X-69.16 Y62.227 Z-0.693
X-69.209 Y62.214 Z-0.7
G3 X-69.898 Y61.838 I0.39 J-1.534
G1 X-70.694 Y61.042 F1200
X-70.795 Y60.931
X-70.883 Y60.81
X-70.96 Y60.681
X-71.04 Y60.518
X-71.125 Y60.304
X-71.206 Y60.035
X-71.288 Y59.664
X-71.355 Y59.168
X-71.385 Y58.668
X-71.39 Y58.168
X-71.376 Y57.667
X-71.343 Y57.168
X-71.293 Y56.669
X-71.224 Y56.173
X-71.137 Y55.68
X-71.031 Y55.191
X-70.904 Y54.706
X-70.756 Y54.228
X-70.586 Y53.757
X-70.394 Y53.295
X-70.18 Y52.842
X-69.942 Y52.401
X-69.681 Y51.974
X-69.397 Y51.562
X-69.088 Y51.167
X-68.753 Y50.795
X-68.42 Y50.479
X-68.141 Y50.254
X-67.895 Y50.086
X-67.723 Y49.988
X-67.551 Y49.908
X-67.457 Y49.872
X-67.287 Y49.844
X-67.119 Y49.88
X-66.976 Y49.977
X-66.455 Y50.498
G3 X-66.74 Y50.764 I-0.143 J0.133 F1016
X-66.791 Y50.605 I0.143 J-0.133
G1 X-66.784 Y50.555 Z-0.693
X-66.778 Y50.508 Z-0.674
X-66.772 Y50.468 Z-0.643
X-66.768 Y50.437 Z-0.602
X-66.765 Y50.418 Z-0.555
X-66.764 Y50.411 Z-0.505
Z5 F1200
X-69.816 Y61.466
Z-0.31
Z-0.505 F1016
X-69.823 Y61.465 Z-0.555
X-69.841 Y61.46 Z-0.603
X-69.871 Y61.452 Z-0.643
X-69.911 Y61.442 Z-0.674
X-69.956 Y61.431 Z-0.693
X-70.005 Y61.418 Z-0.7
G3 X-70.694 Y61.042 I0.39 J-1.534
G1 X-71.49 Y60.246 F1200
X-71.591 Y60.135
X-71.677 Y60.012
X-71.752 Y59.882
X-71.829 Y59.719
X-71.909 Y59.506
X-71.983 Y59.249
X-72.028 Y59.025
X-72.033 Y58.995
X-72.036 Y58.965
X-72.037 Y58.934
G3 X-71.836 Y58.746 Z-0.5 I0.195 J0.007 F1016
G1 X-71.781 Y58.756
X-71.732 Y58.781
X-71.691 Y58.818
X-71.663 Y58.866
X-71.587 Y59.048
X-71.253 Y59.847 F1200
X-71.178 Y60.028 F1016
X-71.164 Y60.082
X-71.166 Y60.138
X-71.183 Y60.191
X-71.215 Y60.237
G3 X-71.49 Y60.246 Z-0.7 I-0.143 J-0.133
G1 X-71.784 Y59.953 F1200
X-71.81 Y59.925
X-71.833 Y59.895
X-71.964 Y59.697
X-71.978 Y59.668
X-72.004 Y59.554
X-72.027 Y59.44
X-72.036 Y59.383
X-72.037 Y59.326
Y57.279
X-72.012 Y56.779
X-71.983 Y56.279
X-71.918 Y55.782
X-71.828 Y55.29
X-71.716 Y54.802
X-71.582 Y54.319
X-71.427 Y53.843
X-71.252 Y53.374
X-71.056 Y52.913
X-70.839 Y52.462
X-70.599 Y52.022
X-70.338 Y51.595
X-70.055 Y51.182
X-69.749 Y50.786
X-69.419 Y50.409
X-69.072 Y50.063
X-68.767 Y49.805
X-68.498 Y49.612
X-68.307 Y49.497
X-68.122 Y49.405
X-67.983 Y49.35
X-67.955 Y49.341
X-67.792 Y49.322
X-67.633 Y49.361
X-67.499 Y49.454
X-66.976 Y49.977
X-66.944 Y50.018 Z-0.666 F1016
X-66.925 Y50.067 Z-0.632
X-66.919 Y50.119 Z-0.597
X-66.927 Y50.17 Z-0.563
X-66.948 Y50.218 Z-0.529
X-66.971 Y50.256 Z-0.5
X-67.181 Y50.619
X-71.48 Y58.031 F1200
G3 X-71.816 Y58.032 I-0.169 J-0.098
G1 X-71.849 Y57.973
G3 X-71.997 Y57.582 I1.394 J-0.75 F1016
X-72.037 Y57.279 Z-0.7 I1.541 J-0.358
G1 Y54.094 F1200
X-72.024 Y53.833
X-71.99 Y53.571
X-71.922 Y53.255
X-71.801 Y52.848
X-71.619 Y52.382
X-71.403 Y51.93
X-71.161 Y51.492
X-70.895 Y51.067
X-70.608 Y50.657
X-70.298 Y50.264
X-69.965 Y49.89
X-69.609 Y49.54
X-69.302 Y49.283
X-69.018 Y49.082
X-68.823 Y48.966
X-68.645 Y48.879
X-68.501 Y48.822
X-68.478 Y48.815
X-68.316 Y48.796
X-68.158 Y48.836
X-68.024 Y48.929
X-67.499 Y49.454
G3 X-67.499 Y49.72 Z-0.509 I-0.143 J0.133 F1016
G1 X-67.508 Y49.73 Z-0.5
X-67.795 Y50.037
X-71.518 Y54.025 F1200
X-71.7 Y54.22 F1016
X-71.739 Y54.253
X-71.786 Y54.274
X-71.836 Y54.282
G3 X-72.037 Y54.094 Z-0.7 I-0.007 J-0.195
G1 Y52.274 F1200
X-72.03 Y52.124
X-72.003 Y51.94
X-71.957 Y51.736
X-71.873 Y51.468
X-71.752 Y51.17
X-71.566 Y50.798
X-71.306 Y50.37
X-71.014 Y49.964
X-70.695 Y49.577
X-70.352 Y49.213
X-70.003 Y48.894
X-69.699 Y48.659
X-69.447 Y48.494
X-69.274 Y48.4
X-69.102 Y48.323
X-69.022 Y48.296
X-68.855 Y48.27
X-68.69 Y48.308
X-68.55 Y48.403
X-68.024 Y48.929
G3 X-68.034 Y49.204 Z-0.5 I-0.143 J0.133 F1016
G1 X-68.039 Y49.209
X-68.35 Y49.48
X-71.498 Y52.226 F1200
X-71.714 Y52.414 F1016
X-71.751 Y52.439
X-71.792 Y52.455
X-71.836 Y52.462
G3 X-72.037 Y52.274 Z-0.7 I-0.007 J-0.195
G1 Y50.909 F1200
X-72.03 Y50.759
X-72.009 Y50.611
X-71.969 Y50.441
X-71.906 Y50.246
X-71.815 Y50.026
X-71.678 Y49.759
X-71.486 Y49.448
X-71.252 Y49.128
X-70.956 Y48.787
X-70.636 Y48.472
X-70.333 Y48.219
X-70.07 Y48.032
X-69.877 Y47.917
X-69.692 Y47.827
X-69.552 Y47.772
X-69.528 Y47.765
X-69.366 Y47.746
X-69.208 Y47.786
X-69.075 Y47.878
X-68.55 Y48.403
G3 X-68.559 Y48.679 Z-0.5 I-0.143 J0.133 F1016
G1 X-68.575 Y48.692
X-68.894 Y48.932
X-71.485 Y50.877 F1200
X-71.725 Y51.058 F1016
X-71.759 Y51.078
X-71.797 Y51.092
X-71.836 Y51.097
G3 X-72.037 Y50.909 Z-0.7 I-0.007 J-0.195
G1 Y49.771 F1200
X-72.029 Y49.606
X-72.01 Y49.458
X-71.976 Y49.312
X-71.922 Y49.147
X-71.847 Y48.97
X-71.743 Y48.77
X-71.603 Y48.546
X-71.418 Y48.298
X-71.21 Y48.061
X-70.969 Y47.827
X-70.731 Y47.631
X-70.506 Y47.473
X-70.343 Y47.378
X-70.175 Y47.297
X-70.035 Y47.243
X-69.974 Y47.225
X-69.821 Y47.208
X-69.671 Y47.243
X-69.542 Y47.326
X-69.447 Y47.447
X-69.42 Y47.496
X-69.33 Y47.619
X-69.216 Y47.736
X-69.075 Y47.878
G3 X-69.084 Y48.154 Z-0.5 I-0.143 J0.133 F1016
G1 X-69.109 Y48.173
X-69.432 Y48.389
X-71.475 Y49.754 F1200
X-71.734 Y49.927 F1016
X-71.783 Y49.95
X-71.836 Y49.96
G3 X-72.037 Y49.771 Z-0.7 I-0.007 J-0.195
G1 Y48.634 F1200
X-72.03 Y48.484
X-71.999 Y48.337
X-71.954 Y48.194
X-71.889 Y48.04
X-71.809 Y47.888
X-71.699 Y47.711
X-71.568 Y47.535
X-71.412 Y47.358
X-71.242 Y47.192
X-71.058 Y47.041
X-70.884 Y46.919
X-70.738 Y46.833
X-70.588 Y46.761
X-70.448 Y46.707
X-70.303 Y46.667
X-70.156 Y46.641
X-70.067 Y46.634
X-69.892 Y46.656
X-69.737 Y46.739
X-69.623 Y46.874
X-69.567 Y47.041
X-69.568 Y47.091 Z-0.667 F1016
X-69.582 Y47.139 Z-0.635
X-69.608 Y47.182 Z-0.602
X-69.644 Y47.217 Z-0.569
X-69.728 Y47.281 Z-0.5
X-70.064 Y47.533
X-71.485 Y48.602 F1200
X-71.725 Y48.783 F1016
X-71.759 Y48.803
X-71.797 Y48.817
X-71.836 Y48.822
G3 X-72.037 Y48.634 Z-0.7 I-0.007 J-0.195
G1 Y47.724 F1200
X-72.03 Y47.574
X-72 Y47.427
X-71.953 Y47.285
X-71.891 Y47.148
X-71.817 Y47.018
X-71.728 Y46.888
X-71.623 Y46.757
X-71.501 Y46.628
X-71.366 Y46.507
X-71.224 Y46.398
X-71.076 Y46.303
X-70.924 Y46.222
X-70.786 Y46.162
X-70.644 Y46.113
X-70.499 Y46.076
X-70.351 Y46.052
X-70.201 Y46.044
X-70.051 Y46.053
X-69.901 Y46.079
X-69.775 Y46.141
X-69.674 Y46.239
X-69.608 Y46.363
X-69.583 Y46.501
X-69.572 Y46.928
X-69.567 Y47.041
X-69.573 Y47.09 Z-0.668 F1016
X-69.591 Y47.136 Z-0.636
X-69.619 Y47.176 Z-0.603
X-69.657 Y47.208 Z-0.571
X-69.702 Y47.229 Z-0.539
X-69.758 Y47.247 Z-0.5
X-70.158 Y47.376
X-71.435 Y47.79 F1200
X-71.782 Y47.903 F1016
X-71.836 Y47.912
G3 X-72.037 Y47.724 Z-0.7 I-0.007 J-0.195
G1 Y46.928 F1200
X-72.03 Y46.778
X-72.002 Y46.631
X-71.952 Y46.489
X-71.885 Y46.355
X-71.805 Y46.228
X-71.712 Y46.11
X-71.61 Y46
X-71.496 Y45.897
X-71.368 Y45.799
X-71.23 Y45.71
X-71.091 Y45.635
X-70.942 Y45.57
X-70.786 Y45.516
X-70.631 Y45.476
X-70.483 Y45.45
X-70.334 Y45.436
X-70.184 Y45.438
X-70.035 Y45.454
X-69.952 Y45.473
X-69.813 Y45.529
X-69.701 Y45.628
X-69.626 Y45.758
X-69.598 Y45.905
X-69.583 Y46.501
X-69.591 Y46.553 Z-0.665 F1016
X-69.612 Y46.602 Z-0.631
X-69.646 Y46.642 Z-0.596
X-69.689 Y46.673 Z-0.561
X-69.739 Y46.69 Z-0.527
X-69.779 Y46.698 Z-0.5
X-70.19 Y46.782
X-71.424 Y47.035 F1200
X-71.803 Y47.112 F1016
X-71.836 Y47.116
G3 X-72.037 Y46.928 Z-0.7 I-0.007 J-0.195
G1 Y46.183 F1200
X-72.03 Y46.033
X-71.996 Y45.887
X-71.939 Y45.748
X-71.865 Y45.617
X-71.777 Y45.496
X-71.676 Y45.385
X-71.566 Y45.283
X-71.447 Y45.191
X-71.313 Y45.105
X-71.169 Y45.027
X-71.021 Y44.961
X-70.867 Y44.908
X-70.706 Y44.866
X-70.555 Y44.839
X-70.406 Y44.825
X-70.256 Y44.824
X-70.107 Y44.836
X-69.96 Y44.865
X-69.934 Y44.873
X-69.807 Y44.935
X-69.706 Y45.033
X-69.639 Y45.158
X-69.614 Y45.296
X-69.598 Y45.905
G3 X-69.767 Y46.096 Z-0.518 I-0.195 J-0.002 F1016
G1 X-69.795 Y46.1 Z-0.5
X-70.211 Y46.155
X-71.42 Y46.316 F1200
X-71.817 Y46.369 F1016
X-71.836 Y46.371
G3 X-72.037 Y46.183 Z-0.7 I-0.007 J-0.195
G1 Y45.5 F1200
X-72.03 Y45.35
X-71.993 Y45.205
X-71.932 Y45.068
X-71.854 Y44.94
X-71.761 Y44.822
X-71.656 Y44.715
X-71.542 Y44.618
X-71.419 Y44.531
X-71.287 Y44.452
X-71.144 Y44.382
X-70.99 Y44.321
X-70.827 Y44.271
X-70.667 Y44.236
X-70.515 Y44.215
X-70.365 Y44.207
X-70.215 Y44.213
X-70.066 Y44.232
X-69.975 Y44.254
X-69.84 Y44.312
X-69.73 Y44.411
X-69.657 Y44.539
X-69.629 Y44.684
X-69.614 Y45.296
G3 X-69.79 Y45.488 Z-0.514 I-0.195 J-0.002 F1016
G1 X-69.81 Y45.491 Z-0.5
X-70.228 Y45.531
X-71.418 Y45.648 F1200
X-71.824 Y45.687 F1016
X-71.836 Y45.688
G3 X-72.037 Y45.5 Z-0.7 I-0.007 J-0.195
G1 Y44.88 F1200
X-72.03 Y44.73
X-71.997 Y44.584
X-71.939 Y44.446
X-71.862 Y44.317
X-71.769 Y44.199
X-71.665 Y44.092
X-71.55 Y43.995
X-71.428 Y43.908
X-71.294 Y43.83
X-71.148 Y43.76
X-70.995 Y43.7
X-70.837 Y43.653
X-70.679 Y43.62
X-70.53 Y43.6
X-70.38 Y43.593
X-70.23 Y43.599
X-70.081 Y43.618
X-69.99 Y43.641
X-69.855 Y43.699
X-69.745 Y43.798
X-69.672 Y43.926
X-69.645 Y44.071
X-69.629 Y44.684
G3 X-69.806 Y44.877 Z-0.513 I-0.195 J-0.002 F1016
G1 X-69.826 Y44.878 Z-0.5
X-70.244 Y44.918
X-71.418 Y45.029 F1200
X-71.824 Y45.068 F1016
X-71.836
G3 X-72.037 Y44.88 Z-0.7 I-0.007 J-0.195
G1 Y44.198 F1200
X-72.03 Y44.048
X-71.986 Y43.904
X-71.92 Y43.77
X-71.836 Y43.646
X-71.738 Y43.532
X-71.628 Y43.43
X-71.51 Y43.338
X-71.384 Y43.256
X-71.249 Y43.183
X-71.102 Y43.119
X-70.945 Y43.065
X-70.781 Y43.022
X-70.626 Y42.995
X-70.476 Y42.981
X-70.326 Y42.98
X-70.177 Y42.992
X-70.029 Y43.019
X-69.985 Y43.032
X-69.857 Y43.094
X-69.754 Y43.192
X-69.686 Y43.317
X-69.661 Y43.457
X-69.645 Y44.071
G3 X-69.828 Y44.264 Z-0.509 I-0.195 J-0.002 F1016
G1 X-69.842 Y44.265 Z-0.5
X-70.26 Y44.29
X-71.417 Y44.36 F1200
X-71.831 Y44.386 F1016
X-71.836
G3 X-72.037 Y44.198 Z-0.7 I-0.007 J-0.195
G1 Y43.595 F1200
X-72.03 Y43.445
X-71.99 Y43.3
X-71.927 Y43.164
X-71.845 Y43.039
X-71.748 Y42.924
X-71.64 Y42.82
X-71.522 Y42.727
X-71.397 Y42.645
X-71.26 Y42.571
X-71.113 Y42.506
X-70.959 Y42.452
X-70.803 Y42.411
X-70.641 Y42.382
X-70.492 Y42.368
X-70.342 Y42.367
X-70.193 Y42.379
X-70.045 Y42.405
X-70 Y42.419
X-69.872 Y42.48
X-69.769 Y42.578
X-69.702 Y42.703
X-69.676 Y42.843
X-69.661 Y43.457
G3 X-69.843 Y43.65 Z-0.51 I-0.195 J-0.002 F1016
G1 X-69.857 Y43.651 Z-0.5
X-70.276 Y43.679
X-71.417 Y43.755 F1200
X-71.83 Y43.782 F1016
X-71.836 Y43.783
G3 X-72.037 Y43.595 Z-0.7 I-0.007 J-0.195
G1 Y42.998 F1200
X-72.03 Y42.848
X-71.995 Y42.702
X-71.935 Y42.565
X-71.855 Y42.438
X-71.76 Y42.321
X-71.653 Y42.216
X-71.537 Y42.122
X-71.412 Y42.038
X-71.278 Y41.964
X-71.133 Y41.899
X-70.981 Y41.844
X-70.826 Y41.803
X-70.665 Y41.773
X-70.516 Y41.757
X-70.366 Y41.755
X-70.216 Y41.765
X-70.069 Y41.791
X-70.019 Y41.806
X-69.89 Y41.867
X-69.786 Y41.965
X-69.718 Y42.09
X-69.692 Y42.231
X-69.676 Y42.843
G3 X-69.856 Y43.036 Z-0.511 I-0.195 J-0.002 F1016
G1 X-69.873 Y43.037 Z-0.5
X-70.291 Y43.069
X-71.417 Y43.154 F1200
X-71.828 Y43.185 F1016
X-71.836 Y43.186
G3 X-72.037 Y42.998 Z-0.7 I-0.007 J-0.195
G1 Y42.378 F1200
X-72.03 Y42.228
X-71.994 Y42.082
X-71.933 Y41.945
X-71.853 Y41.818
X-71.758 Y41.703
X-71.65 Y41.598
X-71.533 Y41.504
X-71.408 Y41.421
X-71.275 Y41.349
X-71.131 Y41.284
X-70.977 Y41.23
X-70.823 Y41.189
X-70.666 Y41.161
X-70.516 Y41.146
X-70.366 Y41.145
X-70.217 Y41.157
X-70.069 Y41.184
X-70.031 Y41.195
X-69.903 Y41.257
X-69.8 Y41.355
X-69.733 Y41.48
X-69.707 Y41.619
X-69.692 Y42.231
G3 X-69.873 Y42.423 Z-0.51 I-0.195 J-0.002 F1016
G1 X-69.888 Y42.425 Z-0.5
X-70.307 Y42.455
X-71.417 Y42.536 F1200
X-71.828 Y42.565 F1016
X-71.836 Y42.566
G3 X-72.037 Y42.378 Z-0.7 I-0.007 J-0.195
G1 Y41.746 F1200
X-72.03 Y41.597
X-71.991 Y41.452
X-71.927 Y41.316
X-71.845 Y41.191
X-71.748 Y41.076
X-71.639 Y40.973
X-71.521 Y40.881
X-71.395 Y40.799
X-71.262 Y40.729
X-71.117 Y40.666
X-70.962 Y40.614
X-70.809 Y40.575
X-70.654 Y40.549
X-70.504 Y40.536
X-70.354 Y40.537
X-70.205 Y40.55
X-70.058 Y40.581
X-70.038 Y40.587
X-69.913 Y40.65
X-69.813 Y40.748
X-69.748 Y40.871
X-69.723 Y41.008
X-69.707 Y41.619
G3 X-69.89 Y41.812 Z-0.509 I-0.195 J-0.002 F1016
G1 X-69.904 Y41.813 Z-0.5
X-70.323 Y41.839
X-71.417 Y41.908 F1200
X-71.83 Y41.934 F1016
X-71.836 Y41.935
G3 X-72.037 Y41.746 Z-0.7 I-0.007 J-0.195
G1 Y41.127 F1200
X-72.03 Y40.977
X-71.989 Y40.832
X-71.925 Y40.697
X-71.842 Y40.572
X-71.744 Y40.458
X-71.634 Y40.356
X-71.515 Y40.264
X-71.389 Y40.184
X-71.255 Y40.114
X-71.11 Y40.052
X-70.957 Y40.001
X-70.806 Y39.964
X-70.649 Y39.939
X-70.5 Y39.927
X-70.35 Y39.929
X-70.201 Y39.944
X-70.054 Y39.977
X-70.048 Y39.979
X-69.925 Y40.042
X-69.827 Y40.14
X-69.763 Y40.262
X-69.738 Y40.398
X-69.723 Y41.008
G3 X-69.906 Y41.201 Z-0.509 I-0.195 J-0.002 F1016
G1 X-69.92 Y41.202 Z-0.5
X-70.339 Y41.227
X-71.417 Y41.29 F1200
X-71.831 Y41.314 F1016
X-71.836 Y41.315
G3 X-72.037 Y41.127 Z-0.7 I-0.007 J-0.195
G1 Y40.495 F1200
X-72.03 Y40.345
X-71.986 Y40.202
X-71.918 Y40.068
X-71.832 Y39.945
X-71.733 Y39.833
X-71.622 Y39.732
X-71.501 Y39.642
X-71.374 Y39.563
X-71.24 Y39.495
X-71.094 Y39.436
X-70.94 Y39.387
X-70.789 Y39.352
X-70.635 Y39.329
X-70.486 Y39.319
X-70.336 Y39.323
X-70.187 Y39.341
X-70.102 Y39.362
X-69.965 Y39.419
X-69.855 Y39.518
X-69.782 Y39.647
X-69.754 Y39.792
X-69.738 Y40.398
G3 X-69.924 Y40.591 Z-0.507 I-0.195 J-0.002 F1016
G1 X-69.935 Y40.592 Z-0.5
X-70.354 Y40.612
X-71.417 Y40.663 F1200
X-71.833 Y40.683 F1016
X-71.836
G3 X-72.037 Y40.495 Z-0.7 I-0.007 J-0.195
G1 Y39.926 F1200
X-72.03 Y39.777
X-71.995 Y39.631
X-71.934 Y39.494
X-71.853 Y39.367
X-71.758 Y39.252
X-71.65 Y39.148
X-71.532 Y39.055
X-71.406 Y38.974
X-71.271 Y38.902
X-71.131 Y38.842
X-70.986 Y38.792
X-70.833 Y38.753
X-70.685 Y38.728
X-70.536 Y38.715
X-70.386 Y38.716
X-70.236 Y38.73
X-70.09 Y38.762
X-70.082 Y38.765
X-69.958 Y38.828
X-69.859 Y38.925
X-69.794 Y39.048
X-69.769 Y39.185
X-69.754 Y39.792
G3 X-69.936 Y39.985 Z-0.51 I-0.195 J-0.002 F1016
G1 X-69.951 Y39.986 Z-0.5
X-70.369 Y40.015
X-71.417 Y40.086 F1200
X-71.829 Y40.114 F1016
X-71.836 Y40.115
G3 X-72.037 Y39.926 Z-0.7 I-0.007 J-0.195
G1 Y39.307 F1200
X-72.03 Y39.157
X-71.992 Y39.012
X-71.929 Y38.875
X-71.847 Y38.75
X-71.75 Y38.635
X-71.641 Y38.532
X-71.523 Y38.441
X-71.396 Y38.36
X-71.263 Y38.291
X-71.121 Y38.231
X-70.969 Y38.181
X-70.822 Y38.146
X-70.671 Y38.122
X-70.521 Y38.11
X-70.371 Y38.113
X-70.222 Y38.13
X-70.136 Y38.151
X-69.998 Y38.208
X-69.887 Y38.307
X-69.813 Y38.436
X-69.785 Y38.582
X-69.769 Y39.185
G3 X-69.952 Y39.378 Z-0.509 I-0.195 J-0.002 F1016
G1 X-69.966 Y39.379 Z-0.5
X-70.385 Y39.405
X-71.417 Y39.469 F1200
X-71.83 Y39.494 F1016
X-71.836 Y39.495
G3 X-72.037 Y39.307 Z-0.7 I-0.007 J-0.195
G1 Y38.675 F1200
X-72.03 Y38.525
X-71.987 Y38.382
X-71.921 Y38.247
X-71.836 Y38.124
X-71.736 Y38.011
X-71.625 Y37.91
X-71.505 Y37.821
X-71.377 Y37.742
X-71.243 Y37.675
X-71.1 Y37.617
X-70.949 Y37.57
X-70.803 Y37.537
X-70.654 Y37.516
X-70.504 Y37.508
X-70.354 Y37.513
X-70.206 Y37.534
X-70.141 Y37.551
X-70.007 Y37.61
X-69.899 Y37.708
X-69.827 Y37.836
X-69.8 Y37.98
X-69.785 Y38.582
G3 X-69.971 Y38.775 Z-0.507 I-0.195 J-0.002 F1016
G1 X-69.981 Y38.776 Z-0.5
X-70.401 Y38.795
X-71.417 Y38.843 F1200
X-71.833 Y38.863 F1016
X-71.836
G3 X-72.037 Y38.675 Z-0.7 I-0.007 J-0.195
G1 Y38.078 F1200
X-72.03 Y37.929
X-71.989 Y37.784
X-71.924 Y37.649
X-71.841 Y37.525
X-71.742 Y37.412
X-71.632 Y37.31
X-71.512 Y37.22
X-71.384 Y37.141
X-71.25 Y37.073
X-71.106 Y37.015
X-70.962 Y36.97
X-70.814 Y36.936
X-70.665 Y36.915
X-70.515 Y36.907
X-70.365 Y36.912
X-70.217 Y36.933
X-70.155 Y36.949
X-70.022 Y37.009
X-69.914 Y37.107
X-69.843 Y37.235
X-69.815 Y37.378
X-69.8 Y37.98
G3 X-69.985 Y38.172 Z-0.508 I-0.195 J-0.002 F1016
G1 X-69.997 Y38.173 Z-0.5
X-70.416 Y38.194
X-71.417 Y38.245 F1200
X-71.833 Y38.266 F1016
X-71.836
G3 X-72.037 Y38.078 Z-0.7 I-0.007 J-0.195
G1 Y37.487 F1200
X-72.03 Y37.337
X-71.992 Y37.191
X-71.929 Y37.055
X-71.847 Y36.93
X-71.75 Y36.816
X-71.64 Y36.714
X-71.521 Y36.623
X-71.394 Y36.543
X-71.26 Y36.475
X-71.117 Y36.417
X-70.974 Y36.372
X-70.827 Y36.338
X-70.679 Y36.316
X-70.529 Y36.308
X-70.379 Y36.313
X-70.231 Y36.334
X-70.171 Y36.349
X-70.037 Y36.408
X-69.929 Y36.507
X-69.858 Y36.634
X-69.831 Y36.778
X-69.815 Y37.378
G3 X-69.999 Y37.571 Z-0.508 I-0.195 J-0.002 F1016
G1 X-70.012 Y37.572 Z-0.5
X-70.431 Y37.595
X-71.417 Y37.651 F1200
X-71.832 Y37.674 F1016
X-71.836 Y37.675
G3 X-72.037 Y37.487 Z-0.7 I-0.007 J-0.195
G1 Y36.855 F1200
X-72.03 Y36.705
X-71.986 Y36.562
X-71.919 Y36.428
X-71.833 Y36.305
X-71.733 Y36.193
X-71.621 Y36.094
X-71.5 Y36.005
X-71.371 Y35.928
X-71.236 Y35.862
X-71.094 Y35.807
X-70.946 Y35.763
X-70.799 Y35.732
X-70.65 Y35.714
X-70.5 Y35.709
X-70.351 Y35.719
X-70.203 Y35.744
X-70.173 Y35.753
X-70.044 Y35.814
X-69.94 Y35.913
X-69.872 Y36.038
X-69.846 Y36.178
X-69.831 Y36.778
G3 X-70.018 Y36.971 Z-0.506 I-0.195 J-0.002 F1016
G1 X-70.027 Z-0.5
X-70.447 Y36.988
X-71.416 Y37.027 F1200
X-71.835 Y37.043 F1016
X-71.836
G3 X-72.037 Y36.855 Z-0.7 I-0.007 J-0.195
G1 Y36.286 F1200
X-72.03 Y36.137
X-71.994 Y35.991
X-71.932 Y35.854
X-71.85 Y35.729
X-71.753 Y35.615
X-71.643 Y35.512
X-71.524 Y35.421
X-71.396 Y35.342
X-71.263 Y35.275
X-71.123 Y35.218
X-70.98 Y35.174
X-70.831 Y35.14
X-70.683 Y35.119
X-70.533 Y35.112
X-70.383 Y35.119
X-70.235 Y35.143
X-70.194 Y35.154
X-70.063 Y35.214
X-69.957 Y35.313
X-69.888 Y35.439
X-69.861 Y35.581
X-69.846 Y36.178
G3 X-70.03 Y36.371 Z-0.508 I-0.195 J-0.002 F1016
G1 X-70.043 Y36.372 Z-0.5
X-70.462 Y36.396
X-71.417 Y36.451 F1200
X-71.831 Y36.474 F1016
X-71.836 Y36.475
G3 X-72.037 Y36.286 Z-0.7 I-0.007 J-0.195
G1 Y35.667 F1200
X-72.03 Y35.517
X-71.989 Y35.372
X-71.924 Y35.237
X-71.84 Y35.113
X-71.74 Y35.001
X-71.629 Y34.9
X-71.508 Y34.811
X-71.38 Y34.734
X-71.245 Y34.668
X-71.104 Y34.613
X-70.96 Y34.571
X-70.814 Y34.54
X-70.665 Y34.521
X-70.515 Y34.517
X-70.365 Y34.527
X-70.218 Y34.554
X-70.199 Y34.56
X-70.072 Y34.622
X-69.969 Y34.719
X-69.902 Y34.844
X-69.876 Y34.984
X-69.861 Y35.581
G3 X-70.047 Y35.774 Z-0.507 I-0.195 J-0.002 F1016
G1 X-70.058 Z-0.5
X-70.477 Y35.793
X-71.417 Y35.836 F1200
X-71.834 Y35.855 F1016
X-71.836
G3 X-72.037 Y35.667 Z-0.7 I-0.007 J-0.195
G1 Y35.063 F1200
X-72.03 Y34.914
X-71.989 Y34.769
X-71.923 Y34.635
X-71.837 Y34.511
X-71.738 Y34.399
X-71.626 Y34.299
X-71.505 Y34.21
X-71.376 Y34.134
X-71.241 Y34.069
X-71.1 Y34.015
X-70.956 Y33.973
X-70.809 Y33.943
X-70.66 Y33.926
X-70.51 Y33.923
X-70.36 Y33.935
X-70.213 Y33.964
X-70.208 Y33.965
X-70.083 Y34.028
X-69.983 Y34.126
X-69.917 Y34.249
X-69.892 Y34.387
X-69.876 Y34.984
G3 X-70.063 Y35.177 Z-0.506 I-0.195 J-0.002 F1016
G1 X-70.073 Z-0.5
X-70.492 Y35.195
X-71.417 Y35.234 F1200
X-71.834 Y35.251 F1016
X-71.836
G3 X-72.037 Y35.063 Z-0.7 I-0.007 J-0.195
G1 Y34.467 F1200
X-72.03 Y34.317
X-71.989 Y34.172
X-71.923 Y34.038
X-71.838 Y33.914
X-71.738 Y33.802
X-71.627 Y33.702
X-71.505 Y33.614
X-71.376 Y33.537
X-71.241 Y33.472
X-71.101 Y33.419
X-70.957 Y33.378
X-70.809 Y33.349
X-70.66 Y33.332
X-70.51 Y33.33
X-70.361 Y33.343
X-70.269 Y33.362
X-70.128 Y33.417
X-70.012 Y33.516
X-69.936 Y33.647
X-69.907 Y33.796
X-69.892 Y34.387
G3 X-70.078 Y34.58 Z-0.506 I-0.195 J-0.002 F1016
G1 X-70.088 Y34.581 Z-0.5
X-70.508 Y34.598
X-71.417 Y34.637 F1200
X-71.834 Y34.655 F1016
X-71.836
G3 X-72.037 Y34.467 Z-0.7 I-0.007 J-0.195
G1 Y33.87 F1200
X-72.03 Y33.72
X-71.989 Y33.576
X-71.923 Y33.441
X-71.838 Y33.317
X-71.738 Y33.206
X-71.626 Y33.106
X-71.505 Y33.017
X-71.375 Y32.941
X-71.24 Y32.877
X-71.099 Y32.824
X-70.955 Y32.783
X-70.808 Y32.755
X-70.658 Y32.74
X-70.508 Y32.739
X-70.359 Y32.754
X-70.279 Y32.772
X-70.139 Y32.828
X-70.026 Y32.927
X-69.95 Y33.057
X-69.922 Y33.205
X-69.907 Y33.796
G3 X-70.094 Y33.989 Z-0.506 I-0.195 J-0.002 F1016
G1 X-70.103 Z-0.5
X-70.523 Y34.006
X-71.416 Y34.041 F1200
X-71.835 Y34.058 F1016
X-71.836
G3 X-72.037 Y33.87 Z-0.7 I-0.007 J-0.195
G1 Y33.278 F1200
X-72.03 Y33.128
X-71.99 Y32.983
X-71.924 Y32.849
X-71.84 Y32.725
X-71.74 Y32.613
X-71.628 Y32.513
X-71.507 Y32.425
X-71.377 Y32.349
X-71.242 Y32.285
X-71.101 Y32.232
X-70.957 Y32.192
X-70.809 Y32.164
X-70.66 Y32.151
X-70.51
X-70.361 Y32.167
X-70.29 Y32.183
X-70.151 Y32.24
X-70.039 Y32.339
X-69.965 Y32.468
X-69.937 Y32.615
X-69.922 Y33.205
G3 X-70.109 Y33.398 Z-0.506 I-0.195 J-0.002 F1016
G1 X-70.118 Z-0.5
X-70.538 Y33.415
X-71.416 Y33.449 F1200
X-71.835 Y33.466 F1016
X-71.836
G3 X-72.037 Y33.278 Z-0.7 I-0.007 J-0.195
G1 Y32.675 F1200
X-72.03 Y32.525
X-71.988 Y32.381
X-71.921 Y32.247
X-71.835 Y32.124
X-71.734 Y32.013
X-71.621 Y31.914
X-71.499 Y31.827
X-71.369 Y31.752
X-71.233 Y31.689
X-71.092 Y31.638
X-70.947 Y31.599
X-70.799 Y31.573
X-70.649 Y31.562
X-70.499 Y31.564
X-70.351 Y31.583
X-70.297 Y31.596
X-70.162 Y31.654
X-70.052 Y31.753
X-69.979 Y31.881
X-69.952 Y32.026
X-69.937 Y32.615
G3 X-70.126 Y32.808 Z-0.505 I-0.195 J-0.002 F1016
G1 X-70.133 Z-0.5
X-70.553 Y32.822
X-71.416 Y32.849 F1200
X-71.836 Y32.863 F1016
G3 X-72.037 Y32.675 Z-0.7 I-0.006 J-0.195
G1 Y32.078 F1200
X-72.03 Y31.928
X-71.987 Y31.784
X-71.919 Y31.651
X-71.832 Y31.528
X-71.731 Y31.418
X-71.618 Y31.319
X-71.495 Y31.233
X-71.364 Y31.159
X-71.228 Y31.097
X-71.086 Y31.047
X-70.941 Y31.009
X-70.793 Y30.984
X-70.644 Y30.974
X-70.494 Y30.978
X-70.345 Y30.999
X-70.306 Y31.01
X-70.172 Y31.069
X-70.065 Y31.167
X-69.994 Y31.295
X-69.967 Y31.438
X-69.952 Y32.026
G3 X-70.141 Y32.219 Z-0.505 I-0.195 J-0.002 F1016
G1 X-70.148 Z-0.5
X-70.568 Y32.231
X-71.416 Y32.254 F1200
X-71.836 Y32.266 F1016
X-71.837 Z-0.501
G3 X-72.037 Y32.078 Z-0.7 I-0.005 J-0.195
G1 Y31.509 F1200
X-72.03 Y31.359
X-71.992 Y31.214
X-71.928 Y31.079
X-71.844 Y30.954
X-71.744 Y30.842
X-71.632 Y30.742
X-71.511 Y30.654
X-71.381 Y30.579
X-71.245 Y30.516
X-71.104 Y30.465
X-70.959 Y30.426
X-70.811 Y30.4
X-70.662 Y30.389
X-70.512 Y30.392
X-70.363 Y30.413
X-70.322 Y30.423
X-70.188 Y30.482
X-70.08 Y30.581
X-70.009 Y30.708
X-69.982 Y30.852
X-69.967 Y31.438
G3 X-70.154 Y31.631 Z-0.506 I-0.195 J-0.002 F1016
G1 X-70.163 Y31.632 Z-0.5
X-70.583 Y31.648
X-71.416 Y31.681 F1200
X-71.835 Y31.697 F1016
X-71.836
G3 X-72.037 Y31.509 Z-0.7 I-0.007 J-0.195
G1 Y30.889 F1200
X-72.03 Y30.739
X-71.985 Y30.596
X-71.915 Y30.463
X-71.827 Y30.342
X-71.724 Y30.233
X-71.61 Y30.135
X-71.487 Y30.05
X-71.355 Y29.978
X-71.218 Y29.918
X-71.076 Y29.87
X-70.93 Y29.834
X-70.782 Y29.811
X-70.632 Y29.804
X-70.482 Y29.812
X-70.334 Y29.837
X-70.323 Y29.841
X-70.194 Y29.902
X-70.091 Y30
X-70.023 Y30.126
X-69.997 Y30.266
X-69.982 Y30.852
G3 X-70.173 Y31.045 Z-0.504 I-0.195 J-0.002 F1016
G1 X-70.178 Z-0.5
X-70.598 Y31.053
X-71.416 Y31.069 F1200
X-71.836 Y31.077 F1016
X-71.839 Z-0.502
G3 X-72.037 Y30.889 Z-0.7 I-0.004 J-0.195
G1 Y30.32 F1200
X-72.03 Y30.171
X-71.989 Y30.026
X-71.923 Y29.892
X-71.837 Y29.768
X-71.737 Y29.658
X-71.623 Y29.559
X-71.501 Y29.473
X-71.37 Y29.399
X-71.233 Y29.338
X-71.091 Y29.289
X-70.946 Y29.253
X-70.798 Y29.229
X-70.648 Y29.221
X-70.498 Y29.228
X-70.35 Y29.253
X-70.339 Y29.256
X-70.209 Y29.318
X-70.106 Y29.416
X-70.037 Y29.541
X-70.012 Y29.682
X-69.997 Y30.266
G3 X-70.186 Y30.459 Z-0.505 I-0.195 J-0.002 F1016
G1 X-70.193 Z-0.5
X-70.613 Y30.472
X-71.416 Y30.496 F1200
X-71.836 Y30.508 F1016
X-71.837 Z-0.501
G3 X-72.037 Y30.32 Z-0.7 I-0.006 J-0.195
G1 Y29.752 F1200
X-72.03 Y29.602
X-71.993 Y29.456
X-71.93 Y29.32
X-71.846 Y29.196
X-71.747 Y29.084
X-71.635 Y28.984
X-71.513 Y28.897
X-71.383 Y28.822
X-71.246 Y28.76
X-71.105 Y28.71
X-70.96 Y28.673
X-70.811 Y28.648
X-70.662 Y28.64
X-70.512 Y28.647
X-70.364 Y28.671
X-70.354 Y28.674
X-70.225 Y28.735
X-70.121 Y28.833
X-70.052 Y28.959
X-70.026 Y29.099
X-70.012 Y29.682
G3 X-70.199 Y29.875 Z-0.506 I-0.195 J-0.002 F1016
G1 X-70.208 Z-0.5
X-70.628 Y29.892
X-71.416 Y29.923 F1200
X-71.835 Y29.94 F1016
X-71.836
G3 X-72.037 Y29.752 Z-0.7 I-0.007 J-0.195
G1 Y29.148 F1200
X-72.03 Y28.999
X-71.989 Y28.854
X-71.922 Y28.72
X-71.836 Y28.597
X-71.734 Y28.487
X-71.621 Y28.389
X-71.498 Y28.303
X-71.367 Y28.23
X-71.229 Y28.17
X-71.087 Y28.122
X-70.941 Y28.087
X-70.793 Y28.065
X-70.643 Y28.06
X-70.493 Y28.07
X-70.409 Y28.086
X-70.266 Y28.141
X-70.148 Y28.239
X-70.071 Y28.371
X-70.041 Y28.521
X-70.026 Y29.099
G3 X-70.216 Y29.292 Z-0.505 I-0.195 J-0.002 F1016
G1 X-70.223 Y29.293 Z-0.5
X-70.643 Y29.304
X-71.416 Y29.325 F1200
X-71.836 Y29.337 F1016
X-71.837 Z-0.501
G3 X-72.037 Y29.148 Z-0.7 I-0.005 J-0.195
G1 Y28.552 F1200
X-72.03 Y28.402
X-71.986 Y28.258
X-71.917 Y28.125
X-71.829 Y28.004
X-71.726 Y27.894
X-71.612 Y27.798
X-71.487 Y27.713
X-71.355 Y27.642
X-71.217 Y27.583
X-71.075 Y27.537
X-70.928 Y27.504
X-70.779 Y27.486
X-70.629 Y27.483
X-70.48 Y27.497
X-70.415 Y27.511
X-70.275 Y27.566
X-70.16 Y27.665
X-70.085 Y27.796
X-70.056 Y27.944
X-70.041 Y28.521
G3 X-70.233 Y28.714 Z-0.503 I-0.195 J-0.002 F1016
G1 X-70.238 Y28.715 Z-0.5
X-70.657 Y28.721
X-71.416 Y28.733 F1200
X-71.836 Y28.74 F1016
X-71.839 Z-0.502
G3 X-72.037 Y28.552 Z-0.7 I-0.003 J-0.195
G1 Y27.983 F1200
X-72.03 Y27.833
X-71.989 Y27.689
X-71.923 Y27.554
X-71.836 Y27.432
X-71.735 Y27.321
X-71.621 Y27.224
X-71.497 Y27.139
X-71.365 Y27.067
X-71.228 Y27.008
X-71.085 Y26.961
X-70.939 Y26.928
X-70.79 Y26.91
X-70.64 Y26.907
X-70.49 Y26.921
X-70.428 Y26.934
X-70.289 Y26.99
X-70.175 Y27.089
X-70.099 Y27.22
X-70.07 Y27.367
X-70.056 Y27.944
G3 X-70.247 Y28.137 Z-0.504 I-0.195 J-0.002 F1016
G1 X-70.252 Z-0.5
X-70.672 Y28.146
X-71.416 Y28.162 F1200
X-71.836 Y28.171 F1016
X-71.838 Z-0.502
G3 X-72.037 Y27.983 Z-0.7 I-0.004 J-0.195
G1 Y27.414 F1200
X-72.03 Y27.264
X-71.992 Y27.119
X-71.927 Y26.984
X-71.842 Y26.86
X-71.741 Y26.749
X-71.628 Y26.651
X-71.505 Y26.566
X-71.373 Y26.493
X-71.236 Y26.434
X-71.093 Y26.387
X-70.947 Y26.354
X-70.798 Y26.336
X-70.648 Y26.333
X-70.498 Y26.347
X-70.442 Y26.36
X-70.302 Y26.416
X-70.189 Y26.515
X-70.114 Y26.645
X-70.085 Y26.793
X-70.07 Y27.367
G3 X-70.26 Y27.561 Z-0.504 I-0.195 J-0.002 F1016
G1 X-70.267 Z-0.5
X-70.687 Y27.572
X-71.416 Y27.591 F1200
X-71.836 Y27.602 F1016
X-71.837 Z-0.501
G3 X-72.037 Y27.414 Z-0.7 I-0.005 J-0.195
G1 Y26.817 F1200
X-72.03 Y26.667
X-71.987 Y26.524
X-71.919 Y26.39
X-71.832 Y26.268
X-71.729 Y26.159
X-71.614 Y26.062
X-71.489 Y25.979
X-71.357 Y25.909
X-71.218 Y25.851
X-71.075 Y25.807
X-70.928 Y25.776
X-70.779 Y25.762
X-70.629
X-70.48 Y25.78
X-70.446 Y25.788
X-70.31 Y25.847
X-70.2 Y25.945
X-70.127 Y26.074
X-70.1 Y26.219
X-70.085 Y26.793
G3 X-70.278 Y26.986 Z-0.503 I-0.195 J-0.002 F1016
G1 X-70.282 Z-0.5
X-70.701 Y26.991
X-71.416 Y27 F1200
X-71.836 Y27.005 F1016
X-71.84 Z-0.503
G3 X-72.037 Y26.817 Z-0.7 I-0.002 J-0.195
G1 Y26.225 F1200
X-72.03 Y26.076
X-71.984 Y25.933
X-71.913 Y25.8
X-71.824 Y25.68
X-71.72 Y25.572
X-71.603 Y25.478
X-71.477 Y25.396
X-71.344 Y25.328
X-71.205 Y25.272
X-71.061 Y25.229
X-70.914 Y25.201
X-70.764 Y25.189
X-70.614 Y25.192
X-70.466 Y25.213
X-70.451 Y25.217
X-70.318 Y25.277
X-70.211 Y25.375
X-70.141 Y25.502
X-70.114 Y25.645
X-70.1 Y26.219
G3 X-70.295 Y26.412 Z-0.501 I-0.195 J-0.002 F1016
G1 X-70.296 Z-0.5
X-70.716
X-71.416 Y26.413 F1200
X-71.836 Y26.414 F1016
X-71.843 Z-0.504
G3 X-72.037 Y26.225 Z-0.7 I0 J-0.195
G1 Y25.657 F1200
X-72.03 Y25.507
X-71.986 Y25.363
X-71.917 Y25.23
X-71.828 Y25.11
X-71.724 Y25.001
X-71.608 Y24.906
X-71.482 Y24.825
X-71.349 Y24.756
X-71.209 Y24.7
X-71.065 Y24.658
X-70.918 Y24.63
X-70.769 Y24.618
X-70.619 Y24.621
X-70.47 Y24.644
X-70.462 Y24.646
X-70.331 Y24.706
X-70.225 Y24.805
X-70.155 Y24.931
X-70.129 Y25.073
X-70.114 Y25.645
G3 X-70.308 Y25.838 Z-0.502 I-0.195 J-0.002 F1016
G1 X-70.311 Z-0.5
X-70.731 Y25.84
X-71.416 Y25.843 F1200
X-71.836 Y25.845 F1016
X-71.842 Z-0.504
X-71.843
G3 X-72.037 Y25.657 Z-0.7 I0 J-0.195
G1 Y25.088 F1200
X-72.03 Y24.938
X-71.987 Y24.794
X-71.919 Y24.661
X-71.83 Y24.54
X-71.726 Y24.431
X-71.611 Y24.336
X-71.485 Y24.254
X-71.352 Y24.186
X-71.212 Y24.13
X-71.068 Y24.088
X-70.921 Y24.06
X-70.771 Y24.049
X-70.621 Y24.053
X-70.527 Y24.068
X-70.378 Y24.119
X-70.256 Y24.218
X-70.174 Y24.352
X-70.143 Y24.506
X-70.129 Y25.073
G3 X-70.323 Y25.266 Z-0.502 I-0.195 J-0.002 F1016
G1 X-70.326 Z-0.5
X-70.745 Y25.269
X-71.416 Y25.273 F1200
X-71.836 Y25.276 F1016
X-71.841 Z-0.504
G3 X-72.037 Y25.088 Z-0.7 I-0.001 J-0.195
G1 Y24.519 F1200
X-72.03 Y24.369
X-71.988 Y24.225
X-71.92 Y24.092
X-71.832 Y23.97
X-71.728 Y23.862
X-71.612 Y23.766
X-71.487 Y23.685
X-71.353 Y23.616
X-71.214 Y23.561
X-71.07 Y23.519
X-70.922 Y23.493
X-70.772 Y23.482
X-70.623 Y23.488
X-70.537 Y23.503
X-70.39 Y23.555
X-70.269 Y23.653
X-70.188 Y23.787
X-70.158 Y23.94
X-70.143 Y24.506
G3 X-70.337 Y24.699 Z-0.502 I-0.195 J-0.002 F1016
G1 X-70.34 Z-0.5
X-70.76 Y24.701
X-71.416 Y24.705 F1200
X-71.836 Y24.707 F1016
X-71.841 Z-0.504
G3 X-72.037 Y24.519 Z-0.7 I-0.001 J-0.195
G1 Y23.95 F1200
X-72.03 Y23.801
X-71.988 Y23.656
X-71.92 Y23.523
X-71.833 Y23.401
X-71.729 Y23.293
X-71.613 Y23.198
X-71.487 Y23.116
X-71.353 Y23.048
X-71.214 Y22.993
X-71.069 Y22.952
X-70.921 Y22.928
X-70.772 Y22.918
X-70.622 Y22.925
X-70.547 Y22.939
X-70.401 Y22.992
X-70.282 Y23.09
X-70.202 Y23.223
X-70.172 Y23.375
X-70.158 Y23.94
G3 X-70.352 Y24.133 Z-0.502 I-0.195 J-0.002 F1016
G1 X-70.354 Z-0.5
X-70.774 Y24.135
X-71.416 Y24.137 F1200
X-71.836 Y24.139 F1016
X-71.842 Z-0.504
X-71.843
G3 X-72.037 Y23.95 Z-0.7 I0 J-0.195
G1 Y23.382 F1200
X-72.03 Y23.232
X-71.988 Y23.088
X-71.92 Y22.954
X-71.832 Y22.833
X-71.728 Y22.724
X-71.612 Y22.63
X-71.486 Y22.549
X-71.352 Y22.481
X-71.212 Y22.427
X-71.067 Y22.387
X-70.919 Y22.364
X-70.769 Y22.355
X-70.62 Y22.365
X-70.556 Y22.377
X-70.412 Y22.431
X-70.294 Y22.529
X-70.216 Y22.661
X-70.187 Y22.812
X-70.172 Y23.375
G3 X-70.367 Y23.568 Z-0.501 I-0.195 J-0.002 F1016
G1 X-70.369 Z-0.5
X-70.789 Y23.569
X-71.416 F1200
X-71.836 Y23.57 F1016
X-71.843 Z-0.504
G3 X-72.037 Y23.382 Z-0.7 I0 J-0.195
G1 Y22.813 F1200
X-72.03 Y22.663
X-71.988 Y22.519
X-71.919 Y22.386
X-71.831 Y22.265
X-71.727 Y22.157
X-71.61 Y22.063
X-71.483 Y21.982
X-71.349 Y21.915
X-71.209 Y21.862
X-71.064 Y21.823
X-70.915 Y21.801
X-70.766 Y21.794
X-70.616 Y21.806
X-70.565 Y21.816
X-70.423 Y21.871
X-70.307 Y21.97
X-70.23 Y22.101
X-70.201 Y22.25
X-70.187 Y22.812
G3 X-70.382 Y23.005 Z-0.501 I-0.195 J-0.002 F1016
G1 X-70.383 Z-0.5
X-70.803 Y23.004
X-71.416 Y23.002 F1200
X-71.836 Y23.001 F1016
X-71.843 Z-0.505
G3 X-72.037 Y22.813 Z-0.7 I0.001 J-0.195
G1 Y22.244 F1200
X-72.03 Y22.094
X-71.987 Y21.951
X-71.918 Y21.818
X-71.829 Y21.697
X-71.724 Y21.59
X-71.606 Y21.496
X-71.479 Y21.417
X-71.344 Y21.351
X-71.204 Y21.299
X-71.059 Y21.261
X-70.91 Y21.24
X-70.76 Y21.235
X-70.611 Y21.249
X-70.573 Y21.257
X-70.433 Y21.313
X-70.319 Y21.412
X-70.244 Y21.542
X-70.215 Y21.69
X-70.201 Y22.25
G3 X-70.397 Y22.443 Z-0.5 I-0.195 J-0.002 F1016
G1 X-70.398
X-70.817 Y22.44
X-71.416 Y22.436 F1200
X-71.836 Y22.432 F1016
X-71.844 Z-0.505
G3 X-72.037 Y22.244 Z-0.7 I0.001 J-0.195
G1 Y21.675 F1200
X-72.03 Y21.526
X-71.986 Y21.382
X-71.916 Y21.25
X-71.825 Y21.13
X-71.72 Y21.023
X-71.602 Y20.931
X-71.474 Y20.852
X-71.339 Y20.787
X-71.198 Y20.736
X-71.052 Y20.7
X-70.903 Y20.681
X-70.754 Y20.677
X-70.604 Y20.693
X-70.58 Y20.699
X-70.443 Y20.756
X-70.331 Y20.855
X-70.257 Y20.984
X-70.229 Y21.13
X-70.215 Y21.69
G3 X-70.412 Y21.883 Z-0.5 I-0.195 J-0.002 F1016
G1 X-70.413
X-70.831 Y21.877
X-71.416 Y21.869 F1200
X-71.836 Y21.864 F1016
X-71.845 Z-0.506
G3 X-72.037 Y21.675 Z-0.7 I0.003 J-0.195
G1 Y21.107 F1200
X-72.03 Y20.957
X-71.984 Y20.814
X-71.913 Y20.682
X-71.822 Y20.563
X-71.715 Y20.457
X-71.596 Y20.366
X-71.468 Y20.288
X-71.332 Y20.224
X-71.191 Y20.175
X-71.045 Y20.14
X-70.896 Y20.123
X-70.746 Y20.121
X-70.597 Y20.14
X-70.587 Y20.142
X-70.452 Y20.201
X-70.343 Y20.299
X-70.271 Y20.428
X-70.244 Y20.572
X-70.229 Y21.13
G3 X-70.426 Y21.324 Z-0.5 I-0.195 J-0.002 F1016
G1 X-70.428
X-70.846 Y21.315
X-71.416 Y21.304 F1200
X-71.836 Y21.295 F1016
X-71.846 Z-0.507
G3 X-72.037 Y21.107 Z-0.7 I0.004 J-0.195
G1 Y20.538 F1200
X-72.03 Y20.388
X-71.982 Y20.246
X-71.909 Y20.115
X-71.817 Y19.997
X-71.709 Y19.892
X-71.59 Y19.802
X-71.461 Y19.725
X-71.324 Y19.663
X-71.182 Y19.615
X-71.036 Y19.581
X-70.887 Y19.566
X-70.737 Y19.567
X-70.648 Y19.579
X-70.497 Y19.629
X-70.373 Y19.727
X-70.289 Y19.863
X-70.258 Y20.018
X-70.244 Y20.572
G3 X-70.44 Y20.765 Z-0.5 I-0.195 J-0.002 F1016
G1 X-70.444
X-70.86 Y20.754
X-71.416 Y20.738 F1200
X-71.836 Y20.726 F1016
X-71.848 Z-0.508
G3 X-72.037 Y20.538 Z-0.7 I0.005 J-0.195
G1 Y20.02 F1200
X-72.03 Y19.871
X-71.992 Y19.725
X-71.925 Y19.591
X-71.838 Y19.469
X-71.734 Y19.361
X-71.617 Y19.267
X-71.491 Y19.187
X-71.356 Y19.121
X-71.215 Y19.07
X-71.069 Y19.035
X-70.92 Y19.016
X-70.77 Y19.014
X-70.621 Y19.033
X-70.616 Y19.034
X-70.481 Y19.092
X-70.372 Y19.191
X-70.299 Y19.319
X-70.272 Y19.464
X-70.258 Y20.018
G3 X-70.453 Y20.211 Z-0.501 I-0.195 J-0.002 F1016
G1 X-70.454 Z-0.5
X-70.874
X-71.416 Y20.209 F1200
X-71.836 F1016
X-71.843 Z-0.505
G3 X-72.037 Y20.02 Z-0.7 I0 J-0.195
G1 Y19.452 F1200
X-72.03 Y19.302
X-71.989 Y19.158
X-71.92 Y19.024
X-71.831 Y18.904
X-71.726 Y18.797
X-71.607 Y18.704
X-71.479 Y18.626
X-71.344 Y18.562
X-71.202 Y18.513
X-71.056 Y18.479
X-70.907 Y18.463
X-70.757 Y18.464
X-70.675 Y18.476
X-70.525 Y18.526
X-70.4 Y18.624
X-70.317 Y18.759
X-70.286 Y18.914
X-70.272 Y19.464
G3 X-70.469 Y19.657 Z-0.5 I-0.195 J-0.002 F1016
G1 X-70.888 Y19.652
X-71.416 Y19.645 F1200
X-71.836 Y19.64 F1016
X-71.845 Z-0.506
G3 X-72.037 Y19.452 Z-0.7 I0.002 J-0.195
G1 Y18.883 F1200
X-72.03 Y18.733
X-71.985 Y18.59
X-71.914 Y18.458
X-71.823 Y18.339
X-71.716 Y18.233
X-71.597 Y18.143
X-71.468 Y18.066
X-71.331 Y18.004
X-71.189 Y17.957
X-71.042 Y17.927
X-70.892 Y17.913
X-70.742 Y17.918
X-70.68 Y17.929
X-70.533 Y17.98
X-70.411 Y18.079
X-70.331 Y18.213
X-70.3 Y18.366
X-70.286 Y18.914
G3 X-70.482 Y19.108 Z-0.5 I-0.195 J-0.002 F1016
G1 X-70.486
X-70.902 Y19.096
X-71.416 Y19.083 F1200
X-71.836 Y19.071 F1016
X-71.848 Z-0.508
G3 X-72.037 Y18.883 Z-0.7 I0.005 J-0.195
G1 Y18.314 F1200
X-72.03 Y18.164
X-71.982 Y18.022
X-71.908 Y17.892
X-71.815 Y17.774
X-71.706 Y17.671
X-71.585 Y17.582
X-71.455 Y17.508
X-71.317 Y17.448
X-71.174 Y17.403
X-71.026 Y17.376
X-70.877 Y17.366
X-70.727 Y17.375
X-70.684 Y17.383
X-70.54 Y17.437
X-70.422 Y17.535
X-70.344 Y17.667
X-70.314 Y17.818
X-70.3 Y18.366
G3 X-70.496 Y18.559 Z-0.5 I-0.195 J-0.002 F1016
G1 X-70.503
X-70.916 Y18.542
X-71.417 Y18.52 F1200
X-71.836 Y18.503 F1016
X-71.851 Y18.502 Z-0.51
G3 X-72.037 Y18.314 Z-0.7 I0.008 J-0.195
G1 Y17.774 F1200
X-72.03 Y17.624
X-71.984 Y17.481
X-71.912 Y17.349
X-71.82 Y17.231
X-71.712 Y17.127
X-71.591 Y17.038
X-71.461 Y16.963
X-71.324 Y16.903
X-71.181 Y16.858
X-71.033 Y16.831
X-70.884 Y16.82
X-70.734 Y16.83
X-70.696 Y16.837
X-70.552 Y16.891
X-70.435 Y16.99
X-70.357 Y17.122
X-70.328 Y17.272
X-70.314 Y17.818
G3 X-70.51 Y18.011 Z-0.5 I-0.195 J-0.002 F1016
G1 X-70.516
X-70.93 Y17.996
X-71.416 Y17.978 F1200
X-71.836 Y17.962 F1016
X-71.85 Z-0.509
G3 X-72.037 Y17.774 Z-0.7 I0.007 J-0.195
G1 Y17.239 F1200
X-72.03 Y17.089
X-71.988 Y16.945
X-71.918 Y16.813
X-71.827 Y16.693
X-71.72 Y16.588
X-71.6 Y16.498
X-71.471 Y16.422
X-71.334 Y16.361
X-71.191 Y16.316
X-71.043 Y16.288
X-70.894 Y16.277
X-70.744 Y16.287
X-70.709 Y16.294
X-70.566 Y16.348
X-70.449 Y16.446
X-70.371 Y16.578
X-70.342 Y16.729
X-70.328 Y17.272
G3 X-70.524 Y17.465 Z-0.5 I-0.195 J-0.002 F1016
G1 X-70.528
X-70.944 Y17.453
X-71.416 Y17.44 F1200
X-71.836 Y17.428 F1016
X-71.848 Y17.427 Z-0.508
G3 X-72.037 Y17.239 Z-0.7 I0.006 J-0.195
G1 Y16.67 F1200
X-72.03 Y16.521
X-71.982 Y16.378
X-71.909 Y16.248
X-71.815 Y16.131
X-71.706 Y16.028
X-71.584 Y15.94
X-71.453 Y15.867
X-71.315 Y15.809
X-71.171 Y15.767
X-71.023 Y15.743
X-70.873 Y15.736
X-70.724 Y15.75
X-70.711 Y15.753
X-70.572 Y15.809
X-70.459 Y15.908
X-70.384 Y16.038
X-70.355 Y16.185
X-70.342 Y16.729
G3 X-70.538 Y16.922 Z-0.5 I-0.195 J-0.002 F1016
G1 X-70.546
X-70.957 Y16.902
X-71.417 Y16.879 F1200
X-71.836 Y16.859 F1016
X-71.852 Y16.858 Z-0.51
G3 X-72.037 Y16.67 Z-0.7 I0.009 J-0.195
G1 Y16.153 F1200
X-72.03 Y16.003
X-71.989 Y15.859
X-71.919 Y15.726
X-71.829 Y15.606
X-71.722 Y15.501
X-71.602 Y15.411
X-71.473 Y15.335
X-71.335 Y15.275
X-71.192 Y15.231
X-71.044 Y15.205
X-70.894 Y15.196
X-70.745 Y15.208
X-70.729 Y15.212
X-70.588 Y15.267
X-70.474 Y15.366
X-70.398 Y15.497
X-70.369 Y15.645
X-70.355 Y16.185
G3 X-70.552 Y16.378 Z-0.5 I-0.195 J-0.002 F1016
G1 X-70.556
X-70.972 Y16.366
X-71.416 Y16.353 F1200
X-71.836 Y16.341 F1016
X-71.848 Z-0.508
G3 X-72.037 Y16.153 Z-0.7 I0.006 J-0.195
G1 Y15.584 F1200
X-72.03 Y15.434
X-71.983 Y15.292
X-71.909 Y15.161
X-71.815 Y15.044
X-71.705 Y14.942
X-71.583 Y14.855
X-71.452 Y14.782
X-71.313 Y14.725
X-71.169 Y14.685
X-71.021 Y14.663
X-70.871 Y14.658
X-70.786 Y14.668
X-70.631 Y14.715
X-70.502 Y14.813
X-70.416 Y14.95
X-70.383 Y15.109
X-70.369 Y15.645
G3 X-70.566 Y15.838 Z-0.5 I-0.195 J-0.002 F1016
G1 X-70.574
X-70.985 Y15.817
X-71.417 Y15.794 F1200
X-71.836 Y15.773 F1016
X-71.853 Y15.772 Z-0.511
G3 X-72.037 Y15.584 Z-0.7 I0.01 J-0.195
G1 Y15.044 F1200
X-72.03 Y14.894
X-71.983 Y14.751
X-71.909 Y14.621
X-71.815 Y14.504
X-71.705 Y14.402
X-71.583 Y14.314
X-71.452 Y14.242
X-71.313 Y14.186
X-71.168 Y14.148
X-71.019 Y14.126
X-70.869 Y14.124
X-70.795 Y14.134
X-70.642 Y14.181
X-70.514 Y14.28
X-70.429 Y14.416
X-70.396 Y14.574
X-70.383 Y15.109
G3 X-70.579 Y15.302 Z-0.5 I-0.195 J-0.002 F1016
G1 X-70.589 Y15.301
X-70.999 Y15.279
X-71.417 Y15.256 F1200
X-71.836 Y15.232 F1016
X-71.853 Y15.231 Z-0.511
G3 X-72.037 Y15.044 Z-0.7 I0.011 J-0.195
G1 Y14.509 F1200
X-72.03 Y14.359
X-71.984 Y14.217
X-71.911 Y14.085
X-71.818 Y13.968
X-71.708 Y13.866
X-71.586 Y13.779
X-71.454 Y13.707
X-71.315 Y13.651
X-71.17 Y13.614
X-71.021 Y13.593
X-70.871 Y13.592
X-70.806 Y13.601
X-70.653 Y13.649
X-70.527 Y13.748
X-70.442 Y13.884
X-70.41 Y14.041
X-70.396 Y14.574
G3 X-70.593 Y14.767 Z-0.5 I-0.195 J-0.002 F1016
G1 X-70.602 Y14.766
X-71.012 Y14.744
X-71.417 Y14.721 F1200
X-71.836 Y14.698 F1016
X-71.853 Y14.697 Z-0.511
G3 X-72.037 Y14.509 Z-0.7 I0.011 J-0.195
G1 Y13.992 F1200
X-72.03 Y13.842
X-71.989 Y13.698
X-71.919 Y13.565
X-71.827 Y13.446
X-71.719 Y13.342
X-71.598 Y13.253
X-71.467 Y13.18
X-71.328 Y13.123
X-71.183 Y13.085
X-71.035 Y13.063
X-70.885 Y13.062
X-70.82 Y13.07
X-70.667 Y13.118
X-70.541 Y13.217
X-70.456 Y13.353
X-70.424 Y13.51
X-70.41 Y14.041
G3 X-70.607 Y14.234 Z-0.5 I-0.195 J-0.002 F1016
G1 X-70.613 Y14.233
X-71.026 Y14.216
X-71.417 Y14.199 F1200
X-71.836 Y14.18 F1016
X-71.851 Z-0.51
G3 X-72.037 Y13.992 Z-0.7 I0.008 J-0.195
G1 Y13.423 F1200
X-72.03 Y13.273
X-71.981 Y13.131
X-71.905 Y13.002
X-71.809 Y12.887
X-71.697 Y12.787
X-71.573 Y12.703
X-71.44 Y12.634
X-71.299 Y12.581
X-71.153 Y12.548
X-71.004 Y12.531
X-70.854 Y12.536
X-70.818 Y12.542
X-70.67 Y12.594
X-70.549 Y12.693
X-70.468 Y12.826
X-70.437 Y12.98
X-70.424 Y13.51
G3 X-70.62 Y13.703 Z-0.5 I-0.195 J-0.002 F1016
G1 X-70.633 Y13.702
X-71.039 Y13.672
X-71.417 Y13.644 F1200
X-71.836 Y13.612 F1016
X-71.857 Y13.611 Z-0.514
G3 X-72.037 Y13.423 Z-0.7 I0.015 J-0.194
G1 Y12.917 F1200
X-72.03 Y12.767
X-71.987 Y12.623
X-71.915 Y12.491
X-71.822 Y12.374
X-71.713 Y12.271
X-71.591 Y12.184
X-71.458 Y12.113
X-71.319 Y12.059
X-71.173 Y12.023
X-71.024 Y12.005
X-70.874 Y12.008
X-70.834 Y12.014
X-70.686 Y12.065
X-70.563 Y12.164
X-70.482 Y12.298
X-70.45 Y12.452
X-70.437 Y12.98
G3 X-70.634 Y13.173 Z-0.5 I-0.195 J-0.002 F1016
G1 X-70.643
X-71.053 Y13.15
X-71.417 Y13.129 F1200
X-71.836 Y13.106 F1016
X-71.853 Y13.105 Z-0.511
G3 X-72.037 Y12.917 Z-0.7 I0.011 J-0.195
G1 Y12.399 F1200
X-72.03 Y12.249
X-71.99 Y12.105
X-71.92 Y11.972
X-71.828 Y11.853
X-71.72 Y11.75
X-71.598 Y11.662
X-71.467 Y11.59
X-71.327 Y11.535
X-71.182 Y11.499
X-71.033 Y11.481
X-70.883 Y11.484
X-70.847 Y11.49
X-70.699 Y11.541
X-70.576 Y11.639
X-70.495 Y11.773
X-70.464 Y11.927
X-70.45 Y12.452
G3 X-70.647 Y12.645 Z-0.5 I-0.195 J-0.002 F1016
G1 X-70.655
X-71.066 Y12.625
X-71.417 Y12.608 F1200
X-71.836 Y12.588 F1016
X-71.852 Y12.587 Z-0.511
G3 X-72.037 Y12.399 Z-0.7 I0.009 J-0.195
G1 Y11.83 F1200
X-72.03 Y11.681
X-71.98 Y11.539
X-71.903 Y11.41
X-71.806 Y11.296
X-71.693 Y11.197
X-71.568 Y11.114
X-71.434 Y11.047
X-71.293 Y10.998
X-71.146 Y10.967
X-70.996 Y10.955
X-70.847 Y10.966
X-70.841 Y10.967
X-70.699 Y11.022
X-70.583 Y11.121
X-70.507 Y11.252
X-70.477 Y11.401
X-70.464 Y11.927
G3 X-70.661 Y12.121 Z-0.5 I-0.195 J-0.002 F1016
G1 X-70.676 Y12.12
X-71.079 Y12.085
X-71.418 Y12.056 F1200
X-71.836 Y12.02 F1016
X-71.859 Y12.018 Z-0.515
G3 X-72.037 Y11.83 Z-0.7 I0.017 J-0.194
G1 Y11.324 F1200
X-72.03 Y11.174
X-71.985 Y11.031
X-71.912 Y10.901
X-71.817 Y10.784
X-71.706 Y10.683
X-71.582 Y10.598
X-71.449 Y10.53
X-71.308 Y10.478
X-71.161 Y10.447
X-71.012 Y10.434
X-70.862 Y10.443
X-70.844 Y10.446
X-70.697 Y10.503
X-70.579 Y10.607
X-70.502 Y10.744
X-70.478 Y10.899
X-70.482 Y11.211
X-70.477 Y11.401
G3 X-70.674 Y11.594 Z-0.5 I-0.195 J-0.002 F1016
G1 X-70.686
X-71.093 Y11.565
X-71.417 Y11.543 F1200
X-71.836 Y11.513 F1016
X-71.856 Y11.512 Z-0.513
G3 X-72.037 Y11.324 Z-0.7 I0.014 J-0.195
G1 Y10.807 F1200
X-72.03 Y10.657
X-71.986 Y10.513
X-71.914 Y10.382
X-71.82 Y10.265
X-71.71 Y10.164
X-71.586 Y10.078
X-71.453 Y10.01
X-71.312 Y9.958
X-71.166 Y9.926
X-71.016 Y9.913
X-70.866 Y9.921
X-70.719 Y9.95
X-70.668 Y9.968
X-70.537 Y10.041
X-70.436 Y10.152
X-70.375 Y10.289
X-70.362 Y10.439
X-70.398 Y10.585
X-70.421 Y10.622 Z-0.671 F1016
X-70.452 Y10.654 Z-0.642
X-70.489 Y10.677 Z-0.614
X-70.53 Y10.692 Z-0.585
X-70.657 Y10.722 Z-0.5
X-71.065 Y10.818
X-71.427 Y10.903 F1200
X-71.798 Y10.99 F1016
X-71.836 Y10.995
G3 X-72.037 Y10.807 Z-0.7 I-0.007 J-0.195
G1 Y10.266 F1200
X-72.03 Y10.116
X-71.982 Y9.974
X-71.907 Y9.844
X-71.81 Y9.73
X-71.697 Y9.631
X-71.573 Y9.547
X-71.438 Y9.481
X-71.297 Y9.431
X-71.151 Y9.397
X-71.002 Y9.381
X-70.852 Y9.383
X-70.703 Y9.404
X-70.559 Y9.445
X-70.421 Y9.504
X-70.294 Y9.584
X-70.234 Y9.633
X-70.135 Y9.747
X-70.079 Y9.887
X-70.072 Y10.037
X-70.114 Y10.182
X-70.202 Y10.305
X-70.238 Y10.332 Z-0.671 F1016
X-70.279 Y10.349 Z-0.642
X-70.322 Y10.357 Z-0.613
X-70.494 Y10.368 Z-0.5
X-70.913 Y10.395
X-71.417 Y10.427 F1200
X-71.83 Y10.454 F1016
X-71.836
G3 X-72.037 Y10.266 Z-0.7 I-0.007 J-0.195
G1 Y9.732 F1200
X-72.03 Y9.582
X-71.979 Y9.441
X-71.902 Y9.312
X-71.804 Y9.199
X-71.691 Y9.1
X-71.566 Y9.016
X-71.433 Y8.948
X-71.292 Y8.896
X-71.147 Y8.859
X-70.998 Y8.838
X-70.848 Y8.831
X-70.699 Y8.84
X-70.55 Y8.862
X-70.405 Y8.9
X-70.265 Y8.953
X-70.131 Y9.02
X-70.006 Y9.104
X-69.892 Y9.201
X-69.792 Y9.313
X-69.709 Y9.438
X-69.686 Y9.484
X-69.64 Y9.657
X-69.664 Y9.835
X-69.755 Y9.989
X-69.899 Y10.096
X-69.946 Y10.11 Z-0.667 F1016
X-69.996 Y10.111 Z-0.635
X-70.201 Y10.09 Z-0.5
X-70.619 Y10.047
X-71.418 Y9.965 F1200
X-71.836 Y9.922 F1016
X-71.862 Y9.919 Z-0.517
G3 X-72.037 Y9.732 Z-0.7 I0.02 J-0.194
G1 Y9.214 F1200
X-72.03 Y9.064
X-71.982 Y8.922
X-71.907 Y8.792
X-71.812 Y8.677
X-71.701 Y8.575
X-71.579 Y8.488
X-71.447 Y8.416
X-71.309 Y8.358
X-71.166 Y8.314
X-71.019 Y8.283
X-70.87 Y8.265
X-70.72 Y8.261
X-70.57 Y8.269
X-70.422 Y8.289
X-70.275 Y8.321
X-70.132 Y8.366
X-69.993 Y8.422
X-69.859 Y8.49
X-69.731 Y8.569
X-69.611 Y8.658
X-69.499 Y8.758
X-69.399 Y8.87
X-69.31 Y8.99
X-69.235 Y9.121
X-69.179 Y9.26
X-69.138 Y9.404
X-69.129 Y9.479
X-69.133 Y9.632
X-69.186 Y9.776
X-69.281 Y9.896
X-69.409 Y9.98
X-69.557 Y10.019
X-69.589 Y10.018 Z-0.679 F1016
X-69.621 Y10.012 Z-0.658
X-69.854 Y9.949 Z-0.5
X-70.259 Y9.839
X-71.432 Y9.521 F1200
X-71.837 Y9.411 F1016
X-71.894 Y9.396 Z-0.538
X-71.939 Y9.377 Z-0.57
X-71.979 Y9.347 Z-0.603
X-72.009 Y9.308 Z-0.635
X-72.029 Y9.263 Z-0.668
X-72.037 Y9.214 Z-0.7
Y8.708 F1200
X-72.03 Y8.558
X-71.99 Y8.414
X-71.921 Y8.28
X-71.831 Y8.16
X-71.725 Y8.054
X-71.607 Y7.961
X-71.48 Y7.882
X-71.346 Y7.816
X-71.205 Y7.763
X-71.061 Y7.722
X-70.908 Y7.692
X-70.749 Y7.674
X-70.584 Y7.669
X-70.416 Y7.677
X-70.245 Y7.7
X-70.072 Y7.737
X-69.899 Y7.788
X-69.73 Y7.854
X-69.572 Y7.93
X-69.423 Y8.017
X-69.285 Y8.114
X-69.154 Y8.223
X-69.038 Y8.336
X-68.935 Y8.453
X-68.841 Y8.58
X-68.762 Y8.707
X-68.694 Y8.841
X-68.638 Y8.98
X-68.596 Y9.124
X-68.57 Y9.272
X-68.561 Y9.422
X-68.57 Y9.571
X-68.598 Y9.719
X-68.621 Y9.79
X-68.713 Y9.948
X-68.859 Y10.056
X-69.037 Y10.096
X-69.216 Y10.062
X-69.33 Y10.036
X-69.444 Y10.021
X-69.557 Y10.019
X-69.595 Y10.013 Z-0.675 F1016
X-69.632 Y9.999 Z-0.65
X-69.837 Y9.899 Z-0.5
X-70.214 Y9.714
X-71.465 Y9.103 F1200
X-71.843 Y8.918 F1016
X-71.928 Y8.876 Z-0.562
X-71.972 Y8.847 Z-0.597
X-72.006 Y8.807 Z-0.631
X-72.029 Y8.76 Z-0.666
X-72.037 Y8.708 Z-0.7
Y8.139 F1200
X-72.03 Y7.989
X-71.986 Y7.846
X-71.915 Y7.714
X-71.825 Y7.594
X-71.72 Y7.487
X-71.603 Y7.393
X-71.477 Y7.311
X-71.344 Y7.242
X-71.205 Y7.185
X-71.057 Y7.137
X-70.894 Y7.098
X-70.717 Y7.07
X-70.53 Y7.057
X-70.338 Y7.058
X-70.14 Y7.076
X-69.939 Y7.11
X-69.736 Y7.161
X-69.535 Y7.23
X-69.339 Y7.315
X-69.149 Y7.416
X-68.97 Y7.531
X-68.801 Y7.66
X-68.645 Y7.799
X-68.505 Y7.947
X-68.38 Y8.101
X-68.272 Y8.26
X-68.18 Y8.421
X-68.103 Y8.585
X-68.045 Y8.741
X-67.999 Y8.9
X-67.967 Y9.064
X-67.949 Y9.213
X-67.944 Y9.363
X-67.953 Y9.513
X-67.975 Y9.661
X-68.012 Y9.807
X-68.066 Y9.946
X-68.137 Y10.079
X-68.195 Y10.162
X-68.302 Y10.271
X-68.439 Y10.34
X-68.591 Y10.361
X-68.742 Y10.333
X-68.875 Y10.257
X-68.877 Y10.255 Z-0.698 F1016
G2 X-69.077 Y10.027 Z-0.5 I-5.182 J4.359
X-69.277 Y9.82 I-4.982 J4.586
G1 X-69.306 Y9.796
X-69.384 Y9.744
X-71.373 Y8.417 F1200
X-71.437 Y8.375 F1016
X-71.47 Y8.357
G2 X-71.754 Y8.247 I-2.589 J6.257
X-72.026 Y8.155 Z-0.687 I-2.305 J6.367
G1 X-72.037 Y8.139 Z-0.7
Y7.571 F1200
X-72.03 Y7.421
X-71.986 Y7.277
X-71.916 Y7.145
X-71.828 Y7.023
X-71.724 Y6.914
X-71.61 Y6.818
X-71.486 Y6.733
X-71.355 Y6.659
X-71.214 Y6.594
X-71.055 Y6.536
X-70.877 Y6.487
X-70.688 Y6.45
X-70.49 Y6.428
X-70.277 Y6.422
X-70.052 Y6.433
X-69.819 Y6.464
X-69.582 Y6.515
X-69.345 Y6.586
X-69.11 Y6.678
X-68.881 Y6.789
X-68.661 Y6.919
X-68.452 Y7.066
X-68.257 Y7.228
X-68.077 Y7.404
X-67.915 Y7.59
X-67.772 Y7.784
X-67.647 Y7.984
X-67.541 Y8.191
X-67.454 Y8.399
X-67.386 Y8.606
X-67.338 Y8.809
X-67.307 Y9.01
X-67.292 Y9.204
X-67.293 Y9.387
X-67.308 Y9.56
X-67.336 Y9.725
X-67.374 Y9.875
X-67.422 Y10.017
X-67.482 Y10.155
X-67.554 Y10.286
X-67.64 Y10.409
X-67.738 Y10.523
X-67.849 Y10.623
X-67.918 Y10.672
X-68.061 Y10.739
X-68.219 Y10.753
X-68.372 Y10.713
X-68.502 Y10.622
X-68.709 Y10.414
X-68.829 Y10.301
X-68.875 Y10.257
X-69.111 Y10.063 Z-0.5 F1016
X-69.436 Y9.796
X-71.533 Y8.07 F1200
X-71.858 Y7.804 F1016
X-71.966 Y7.714 Z-0.592
X-72.003 Y7.674 Z-0.628
X-72.028 Y7.625 Z-0.664
X-72.037 Y7.571 Z-0.7
Y7.002 F1200
X-72.03 Y6.852
X-71.989 Y6.708
X-71.923 Y6.573
X-71.838 Y6.45
X-71.738 Y6.337
X-71.627 Y6.237
X-71.506 Y6.148
X-71.377 Y6.069
X-71.233 Y5.995
X-71.066 Y5.927
X-70.884 Y5.868
X-70.689 Y5.822
X-70.472 Y5.789
X-70.236 Y5.773
X-69.985 Y5.776
X-69.73 Y5.799
X-69.467 Y5.844
X-69.197 Y5.914
X-68.924 Y6.008
X-68.654 Y6.126
X-68.391 Y6.268
X-68.137 Y6.431
X-67.897 Y6.615
X-67.674 Y6.816
X-67.469 Y7.033
X-67.285 Y7.263
X-67.121 Y7.505
X-66.98 Y7.754
X-66.862 Y8.008
X-66.767 Y8.264
X-66.695 Y8.52
X-66.645 Y8.77
X-66.617 Y9.014
X-66.609 Y9.25
X-66.62 Y9.479
X-66.648 Y9.698
X-66.691 Y9.904
X-66.748 Y10.094
X-66.817 Y10.274
X-66.894 Y10.435
X-66.98 Y10.581
X-67.066 Y10.704
X-67.161 Y10.82
X-67.266 Y10.927
X-67.38 Y11.024
X-67.505 Y11.108
X-67.542 Y11.127
X-67.678 Y11.174
X-67.822 Y11.175
X-67.96 Y11.132
X-68.077 Y11.047
X-68.502 Y10.622
X-68.718 Y10.405 Z-0.5 F1016
X-69.014 Y10.108
X-71.571 Y7.543 F1200
X-71.868 Y7.246 F1016
X-71.981 Y7.133 Z-0.605
X-72.01 Y7.094 Z-0.636
X-72.03 Y7.05 Z-0.668
X-72.037 Y7.002 Z-0.7
Y6.399 F1200
X-72.03 Y6.249
X-71.988 Y6.105
X-71.922 Y5.97
X-71.838 Y5.846
X-71.74 Y5.733
X-71.63 Y5.63
X-71.511 Y5.538
X-71.379 Y5.452
X-71.23 Y5.373
X-71.055 Y5.295
X-70.864 Y5.229
X-70.655 Y5.175
X-70.421 Y5.134
X-70.165 Y5.11
X-69.894 Y5.107
X-69.616 Y5.126
X-69.323 Y5.169
X-69.017 Y5.24
X-68.706 Y5.34
X-68.395 Y5.467
X-68.089 Y5.623
X-67.793 Y5.804
X-67.51 Y6.011
X-67.244 Y6.24
X-66.997 Y6.489
X-66.773 Y6.755
X-66.573 Y7.036
X-66.398 Y7.328
X-66.25 Y7.629
X-66.128 Y7.934
X-66.034 Y8.24
X-65.967 Y8.544
X-65.926 Y8.845
X-65.909 Y9.14
X-65.916 Y9.425
X-65.944 Y9.697
X-65.992 Y9.955
X-66.058 Y10.198
X-66.139 Y10.424
X-66.234 Y10.635
X-66.341 Y10.828
X-66.455 Y10.999
X-66.576 Y11.154
X-66.683 Y11.269
X-66.798 Y11.375
X-66.916 Y11.467
X-67.043 Y11.548
X-67.104 Y11.579
X-67.239 Y11.622
X-67.381 Y11.621
X-67.515 Y11.577
X-67.63 Y11.494
X-68.077 Y11.047
X-68.277 Y10.816 Z-0.5 F1016
X-68.551 Y10.498
X-71.602 Y6.969 F1200
X-71.876 Y6.651 F1016
X-71.99 Y6.519 Z-0.614
X-72.015 Y6.483 Z-0.642
X-72.031 Y6.442 Z-0.671
X-72.037 Y6.399 Z-0.7
Y5.802 F1200
X-72.03 Y5.652
X-71.992 Y5.507
X-71.93 Y5.37
X-71.849 Y5.244
X-71.754 Y5.128
X-71.647 Y5.023
X-71.53 Y4.926
X-71.402 Y4.837
X-71.248 Y4.748
X-71.07 Y4.663
X-70.88 Y4.59
X-70.657 Y4.524
X-70.408 Y4.472
X-70.146 Y4.439
X-69.865 Y4.427
X-69.558 Y4.438
X-69.23 Y4.476
X-68.888 Y4.544
X-68.538 Y4.643
X-68.186 Y4.775
X-67.839 Y4.937
X-67.501 Y5.129
X-67.173 Y5.353
X-66.861 Y5.604
X-66.568 Y5.882
X-66.298 Y6.182
X-66.055 Y6.502
X-65.839 Y6.836
X-65.655 Y7.182
X-65.501 Y7.535
X-65.379 Y7.892
X-65.287 Y8.25
X-65.226 Y8.606
X-65.195 Y8.957
X-65.192 Y9.299
X-65.216 Y9.631
X-65.265 Y9.949
X-65.337 Y10.253
X-65.429 Y10.54
X-65.54 Y10.807
X-65.665 Y11.051
X-65.797 Y11.264
X-65.937 Y11.455
X-66.082 Y11.622
X-66.212 Y11.75
X-66.343 Y11.859
X-66.465 Y11.946
X-66.595 Y12.021
X-66.655 Y12.049
X-66.834 Y12.09
X-67.014 Y12.058
X-67.167 Y11.957
X-67.63 Y11.494
X-67.818 Y11.253 Z-0.5 F1016
X-68.077 Y10.922
X-71.624 Y6.39 F1200
X-71.883 Y6.06 F1016
X-71.996 Y5.915 Z-0.62
X-72.018 Y5.881 Z-0.647
X-72.032 Y5.842 Z-0.673
X-72.037 Y5.802 Z-0.7
Y5.182 F1200
X-72.03 Y5.032
X-71.994 Y4.886
X-71.933 Y4.749
X-71.854 Y4.622
X-71.761 Y4.504
X-71.657 Y4.396
X-71.539 Y4.295
X-71.41 Y4.201
X-71.252 Y4.105
X-71.07 Y4.013
X-70.874 Y3.933
X-70.645 Y3.86
X-70.383 Y3.799
X-70.11 Y3.759
X-69.807 Y3.739
X-69.472 Y3.744
X-69.112 Y3.778
X-68.734 Y3.845
X-68.347 Y3.946
X-67.961 Y4.08
X-67.577 Y4.25
X-67.194 Y4.457
X-66.82 Y4.7
X-66.461 Y4.977
X-66.122 Y5.285
X-65.808 Y5.62
X-65.523 Y5.978
X-65.269 Y6.356
X-65.048 Y6.748
X-64.862 Y7.152
X-64.711 Y7.562
X-64.596 Y7.976
X-64.516 Y8.388
X-64.471 Y8.795
X-64.459 Y9.194
X-64.479 Y9.583
X-64.528 Y9.959
X-64.606 Y10.321
X-64.708 Y10.664
X-64.833 Y10.983
X-64.976 Y11.278
X-65.134 Y11.547
X-65.298 Y11.78
X-65.462 Y11.977
X-65.627 Y12.147
X-65.77 Y12.271
X-65.903 Y12.369
X-66.038 Y12.453
X-66.171 Y12.522
X-66.203 Y12.535
X-66.375 Y12.566
X-66.546 Y12.53
X-66.691 Y12.433
X-67.167 Y11.957
X-67.346 Y11.709 Z-0.5 F1016
X-67.593 Y11.369
X-71.642 Y5.784 F1200
X-71.889 Y5.444 F1016
X-72 Y5.289 Z-0.625
X-72.02 Y5.256 Z-0.65
X-72.032 Y5.22 Z-0.675
X-72.037 Y5.182 Z-0.7
Y4.55 F1200
X-72.03 Y4.401
X-71.996 Y4.255
X-71.937 Y4.116
X-71.861 Y3.988
X-71.77 Y3.868
X-71.667 Y3.759
X-71.549 Y3.653
X-71.42 Y3.556
X-71.26 Y3.453
X-71.079 Y3.357
X-70.876 Y3.269
X-70.637 Y3.188
X-70.369 Y3.12
X-70.084 Y3.072
X-69.756 Y3.044
X-69.393 Y3.041
X-69.001 Y3.07
X-68.597 Y3.133
X-68.189 Y3.231
X-67.766 Y3.369
X-67.335 Y3.549
X-66.904 Y3.771
X-66.482 Y4.033
X-66.079 Y4.331
X-65.702 Y4.659
X-65.351 Y5.016
X-65.028 Y5.4
X-64.737 Y5.807
X-64.479 Y6.236
X-64.255 Y6.684
X-64.07 Y7.144
X-63.924 Y7.611
X-63.818 Y8.08
X-63.751 Y8.547
X-63.723 Y9.008
X-63.731 Y9.46
X-63.775 Y9.9
X-63.852 Y10.325
X-63.96 Y10.729
X-64.094 Y11.11
X-64.25 Y11.459
X-64.422 Y11.772
X-64.608 Y12.055
X-64.798 Y12.3
X-64.989 Y12.508
X-65.174 Y12.68
X-65.324 Y12.798
X-65.463 Y12.891
X-65.601 Y12.968
X-65.695 Y13.011
X-65.873 Y13.051
X-66.053 Y13.019
X-66.205 Y12.918
X-66.691 Y12.433
X-66.864 Y12.18 Z-0.5 F1016
X-67.1 Y11.833
X-71.656 Y5.162 F1200
X-71.893 Y4.816 F1016
X-72.004 Y4.654 Z-0.628
X-72.028 Y4.604 Z-0.664
X-72.037 Y4.55 Z-0.7
Y3.868 F1200
X-72.03 Y3.718
X-71.99 Y3.574
X-71.928 Y3.437
X-71.849 Y3.31
X-71.756 Y3.192
X-71.653 Y3.083
X-71.529 Y2.974
X-71.391 Y2.87
X-71.224 Y2.765
X-71.027 Y2.661
X-70.817 Y2.571
X-70.563 Y2.487
X-70.267 Y2.413
X-69.959 Y2.363
X-69.606 Y2.334
X-69.213
X-68.792 Y2.367
X-68.348 Y2.439
X-67.888 Y2.551
X-67.428 Y2.703
X-66.967 Y2.899
X-66.523 Y3.13
X-66.097 Y3.393
X-65.691 Y3.687
X-65.308 Y4.008
X-64.947 Y4.356
X-64.612 Y4.728
X-64.303 Y5.122
X-64.022 Y5.536
X-63.771 Y5.97
X-63.553 Y6.42
X-63.368 Y6.886
X-63.218 Y7.364
X-63.103 Y7.851
X-63.025 Y8.345
X-62.984 Y8.845
X-62.982 Y9.345
X-63.019 Y9.844
X-63.095 Y10.329
X-63.207 Y10.794
X-63.351 Y11.234
X-63.521 Y11.642
X-63.713 Y12.014
X-63.917 Y12.342
X-64.131 Y12.631
X-64.345 Y12.876
X-64.554 Y13.08
X-64.741 Y13.234
X-64.891 Y13.34
X-65.049 Y13.433
X-65.184 Y13.498
X-65.23 Y13.516
X-65.4 Y13.545
X-65.569 Y13.508
X-65.712 Y13.412
X-66.205 Y12.918
G3 X-65.92 Y12.652 I0.143 J-0.133 F1016
X-65.87 Y12.812 I-0.143 J0.133
G1 X-65.876 Y12.862 Z-0.693
X-65.883 Y12.908 Z-0.674
X-65.888 Y12.948 Z-0.643
X-65.892 Y12.979 Z-0.603
X-65.895 Y12.998 Z-0.555
X-65.896 Y13.005 Z-0.505
Z5 F1200
X-71.716 Y4.789
Z-0.31
Z-0.505 F1016
X-71.72 Y4.783 Z-0.555
X-71.73 Y4.767 Z-0.602
X-71.746 Y4.74 Z-0.643
X-71.766 Y4.705 Z-0.674
X-71.79 Y4.665 Z-0.693
X-71.816 Y4.622 Z-0.7
G3 X-72.037 Y3.868 I1.36 J-0.809
G1 Y3.248 F1200
X-72.03 Y3.098
X-71.998 Y2.952
X-71.943 Y2.812
X-71.869 Y2.681
X-71.782 Y2.56
X-71.682 Y2.447
X-71.573 Y2.343
X-71.436 Y2.232
X-71.277 Y2.123
X-71.092 Y2.017
X-70.869 Y1.911
X-70.628 Y1.82
X-70.347 Y1.74
X-70.016 Y1.673
X-69.648 Y1.629
X-69.266 Y1.614
X-68.833 Y1.632
X-68.363 Y1.689
X-67.872 Y1.79
X-67.391 Y1.929
X-66.922 Y2.104
X-66.467 Y2.312
X-66.027 Y2.551
X-65.604 Y2.82
X-65.201 Y3.117
X-64.818 Y3.439
X-64.456 Y3.785
X-64.116 Y4.154
X-63.8 Y4.542
X-63.509 Y4.949
X-63.245 Y5.375
X-63.008 Y5.816
X-62.829 Y6.21
X-62.807 Y6.267
X-62.794 Y6.326
X-62.788 Y6.387
X-62.677 Y10.756
X-62.682 Y10.967
X-62.704 Y11.18
X-62.749 Y11.421
X-62.822 Y11.688
X-62.932 Y11.993
X-63.075 Y12.307
X-63.246 Y12.616
X-63.447 Y12.918
X-63.662 Y13.191
X-63.874 Y13.42
X-64.089 Y13.617
X-64.283 Y13.768
X-64.429 Y13.865
X-64.586 Y13.951
X-64.723 Y14.012
X-64.744 Y14.019
X-64.911 Y14.043
X-65.074 Y14.005
X-65.213 Y13.911
X-65.244 Y13.867 Z-0.665 F1016
X-65.262 Y13.816 Z-0.63
X-65.265 Y13.762 Z-0.594
X-65.253 Y13.71 Z-0.559
X-65.228 Y13.663 Z-0.524
X-65.206 Y13.633 Z-0.5
X-64.959 Y13.294
X-63.175 Y10.853 F1200
X-63.029 Y10.652 F1016
X-63 Y10.621
X-62.965 Y10.596
X-62.925 Y10.58
X-62.883 Y10.573
G3 X-62.677 Y10.756 Z-0.7 I0.012 J0.195
G1 X-62.639 Y12.234 F1200
X-62.643 Y12.384
X-62.661 Y12.533
X-62.693 Y12.68
X-62.746 Y12.856
X-62.815 Y13.031
X-62.914 Y13.234
X-63.038 Y13.443
X-63.185 Y13.651
X-63.356 Y13.856
X-63.536 Y14.039
X-63.721 Y14.2
X-63.875 Y14.313
X-64.016 Y14.4
X-64.154 Y14.471
X-64.226 Y14.501
X-64.4 Y14.535
X-64.574 Y14.501
X-64.722 Y14.402
G3 X-64.727 Y14.142 Z-0.514 I0.143 J-0.133 F1016
G1 X-64.713 Y14.126 Z-0.5
X-64.439 Y13.808
X-63.154 Y12.318 F1200
X-62.981 Y12.119 F1016
X-62.942 Y12.084
X-62.896 Y12.061
X-62.845 Y12.051
G3 X-62.639 Y12.234 Z-0.7 I0.012 J0.195
G1 X-62.611 Y13.321 F1200
X-62.615 Y13.471
X-62.639 Y13.619
X-62.68 Y13.763
X-62.734 Y13.903
X-62.807 Y14.051
X-62.894 Y14.198
X-62.998 Y14.345
X-63.118 Y14.489
X-63.253 Y14.626
X-63.376 Y14.733
X-63.499 Y14.824
X-63.627 Y14.903
X-63.761 Y14.971
X-63.77 Y14.974
X-63.94 Y15.004
X-64.11 Y14.967
X-64.253 Y14.871
G3 X-64.253 Y14.605 Z-0.509 I0.143 J-0.133 F1016
G1 X-64.244 Y14.595 Z-0.5
X-63.958 Y14.287
X-63.133 Y13.398 F1200
X-62.949 Y13.2 F1016
X-62.911 Y13.168
X-62.866 Y13.147
X-62.818 Y13.138
G3 X-62.611 Y13.321 Z-0.7 I0.012 J0.195
G1 X-62.59 Y14.168 F1200
X-62.593 Y14.318
X-62.615 Y14.466
X-62.658 Y14.61
X-62.718 Y14.748
X-62.792 Y14.878
X-62.879 Y15.001
X-62.976 Y15.115
X-63.084 Y15.219
X-63.203 Y15.31
X-63.274 Y15.354
X-63.414 Y15.411
X-63.566 Y15.419
X-63.711 Y15.377
X-63.835 Y15.289
G3 X-63.835 Y15.023 Z-0.509 I0.143 J-0.133 F1016
G1 X-63.826 Y15.013 Z-0.5
X-63.54 Y14.706
X-63.112 Y14.245 F1200
X-62.927 Y14.047 F1016
X-62.889 Y14.015
X-62.844 Y13.994
X-62.796 Y13.985
G3 X-62.59 Y14.168 Z-0.7 I0.012 J0.195
G1 X-62.569 Y14.964 F1200
X-62.573 Y15.114
X-62.609 Y15.26
X-62.669 Y15.397
X-62.751 Y15.523
X-62.85 Y15.636
X-62.859 Y15.644
X-62.979 Y15.714
X-63.115 Y15.745
X-63.254 Y15.733
X-63.383 Y15.679
G3 X-63.439 Y15.409 Z-0.5 I0.107 J-0.163 F1016
G1 X-63.418 Y15.382
X-63.153 Y15.103
X-63.093 Y15.04 F1200
X-62.906 Y14.842 F1016
X-62.868 Y14.811
X-62.824 Y14.79
X-62.776 Y14.781
G3 X-62.569 Y14.964 Z-0.7 I0.012 J0.195
G1 X-62.565 Y15.135 F1200
X-62.566 Y15.163
X-62.57 Y15.192
X-62.621 Y15.427
X-62.633 Y15.48
X-62.643 Y15.506
X-62.658 Y15.533
X-62.75 Y15.647
X-62.775 Y15.673
X-62.799 Y15.691
X-62.824 Y15.707
X-62.848 Y15.718
X-62.962 Y15.767
X-62.99 Y15.776
X-63.019 Y15.781
X-63.076 Y15.78
X-63.189 Y15.771
X-63.216 Y15.768
X-63.242 Y15.76
X-63.273 Y15.747
X-63.531 Y15.589
X-63.591 Y15.533
X-65.712 Y13.412
G3 X-65.427 Y13.146 I0.143 J-0.133 F1016
X-65.376 Y13.305 I-0.143 J0.133
G1 X-65.383 Y13.355 Z-0.693
X-65.389 Y13.402 Z-0.674
X-65.395 Y13.442 Z-0.643
X-65.399 Y13.472 Z-0.602
X-65.402 Y13.492 Z-0.555
X-65.403 Y13.498 Z-0.505
Z5 F1200
X-71.716 Y4.169
Z-0.31
Z-0.505 F1016
X-71.72 Y4.164 Z-0.555
X-71.73 Y4.147 Z-0.602
X-71.746 Y4.12 Z-0.643
X-71.766 Y4.085 Z-0.674
X-71.79 Y4.045 Z-0.693
X-71.816 Y4.002 Z-0.7
G3 X-72.037 Y3.248 I1.36 J-0.809
G1 Y2.566 F1200
X-72.03 Y2.416
X-71.996 Y2.27
X-71.94 Y2.131
X-71.865 Y2
X-71.777 Y1.879
X-71.678 Y1.766
X-71.557 Y1.651
X-71.424 Y1.543
X-71.256 Y1.427
X-71.066 Y1.318
X-70.842 Y1.211
X-70.568 Y1.108
X-70.279 Y1.024
X-69.946 Y0.956
X-69.559 Y0.91
X-69.122 Y0.892
X-68.662 Y0.91
X-68.178 Y0.969
X-67.687 Y1.069
X-67.205 Y1.205
X-66.734 Y1.374
X-66.275 Y1.573
X-65.829 Y1.802
X-65.398 Y2.057
X-64.984 Y2.339
X-64.588 Y2.645
X-64.21 Y2.973
X-63.852 Y3.324
X-63.516 Y3.694
X-63.201 Y4.084
X-62.91 Y4.491
X-62.9 Y4.506
X-62.863 Y4.579
X-62.839 Y4.657
X-62.83 Y4.738
X-62.788 Y6.387
G3 X-63.178 Y6.383 I-0.195 J-0.002 F1016
X-63.105 Y6.233 I0.195 J0.002
G1 X-63.065 Y6.201 Z-0.693
X-63.029 Y6.172 Z-0.674
X-62.997 Y6.147 Z-0.643
X-62.973 Y6.127 Z-0.602
X-62.958 Y6.115 Z-0.555
X-62.953 Y6.111 Z-0.505
Z5 F1200
X-71.716 Y3.487
Z-0.31
Z-0.505 F1016
X-71.72 Y3.481 Z-0.555
X-71.73 Y3.464 Z-0.602
X-71.746 Y3.438 Z-0.643
X-71.766 Y3.403 Z-0.674
X-71.79 Y3.363 Z-0.693
X-71.816 Y3.319 Z-0.7
G3 X-72.037 Y2.566 I1.36 J-0.809
G1 Y1.883 F1200
X-72.03 Y1.733
X-71.996 Y1.587
X-71.939 Y1.448
X-71.865 Y1.318
X-71.778 Y1.196
X-71.679 Y1.083
X-71.56 Y0.967
X-71.42 Y0.852
X-71.246 Y0.73
X-71.058 Y0.62
X-70.824 Y0.507
X-70.551 Y0.402
X-70.254 Y0.314
X-69.892 Y0.237
X-69.476 Y0.184
X-69.033 Y0.163
X-68.565 Y0.178
X-68.068 Y0.235
X-67.576 Y0.329
X-67.092 Y0.457
X-66.617 Y0.616
X-66.153 Y0.804
X-65.7 Y1.019
X-65.261 Y1.259
X-64.836 Y1.524
X-64.427 Y1.812
X-64.033 Y2.122
X-63.658 Y2.454
X-63.302 Y2.806
X-62.965 Y3.177
X-62.911 Y3.26
X-62.876 Y3.354
X-62.863 Y3.453
X-62.83 Y4.738
G3 X-63.02 Y4.938 Z-0.5 I-0.195 J0.005 F1016
G1 X-63.073 Y4.932
X-63.428 Y4.841
X-71.697 Y2.726 F1200
X-71.744 Y2.707
X-71.785 Y2.677
X-71.816 Y2.637
X-71.849 Y2.578
G3 X-71.997 Y2.186 I1.394 J-0.75 F1016
X-72.037 Y1.883 Z-0.7 I1.541 J-0.358
G1 Y1.201 F1200
X-72.03 Y1.051
X-71.997 Y0.904
X-71.941 Y0.765
X-71.869 Y0.634
X-71.782 Y0.511
X-71.685 Y0.397
X-71.568 Y0.282
X-71.427 Y0.163
X-71.256 Y0.04
X-71.065 Y-0.075
X-70.822 Y-0.195
X-70.555 Y-0.302
X-70.238 Y-0.4
X-69.861 Y-0.484
X-69.438 Y-0.543
X-69.001 Y-0.569
X-68.502 Y-0.558
X-68.004 Y-0.507
X-67.511 Y-0.421
X-67.024 Y-0.303
X-66.546 Y-0.155
X-66.077 Y0.02
X-65.618 Y0.22
X-65.17 Y0.445
X-64.735 Y0.693
X-64.314 Y0.963
X-63.907 Y1.255
X-63.516 Y1.568
X-63.142 Y1.901
X-63.027 Y2.014
X-62.955 Y2.105
X-62.909 Y2.212
X-62.891 Y2.326
X-62.863 Y3.453
G3 X-63.059 Y3.646 Z-0.5 I-0.195 J-0.002 F1016
G1 X-63.106 Y3.64
X-63.467 Y3.547
X-71.431 Y1.501 F1200
X-71.837 Y1.397 F1016
X-71.891 Y1.383 Z-0.536
X-71.937 Y1.364 Z-0.569
X-71.978 Y1.334 Z-0.602
X-72.009 Y1.295 Z-0.635
X-72.029 Y1.25 Z-0.667
X-72.037 Y1.201 Z-0.7
Y0.518 F1200
X-72.03 Y0.368
X-71.999 Y0.221
X-71.946 Y0.081
X-71.875 Y-0.051
X-71.79 Y-0.175
X-71.693 Y-0.29
X-71.579 Y-0.407
X-71.439 Y-0.528
X-71.27 Y-0.653
X-71.076 Y-0.773
X-70.827 Y-0.9
X-70.563 Y-1.01
X-70.236 Y-1.115
X-69.856 Y-1.205
X-69.432 Y-1.27
X-68.982 Y-1.303
X-68.481 Y-1.298
X-67.982 Y-1.256
X-67.487 Y-1.179
X-66.998 Y-1.072
X-66.516 Y-0.937
X-66.042 Y-0.776
X-65.577 Y-0.59
X-65.122 Y-0.381
X-64.678 Y-0.149
X-64.275 Y0.086
X-64.242 Y0.107
X-64.212 Y0.131
X-64.183 Y0.157
X-63.14 Y1.201
X-63.076 Y1.29
X-62.983 Y1.428
X-62.971 Y1.453
X-62.962 Y1.477
X-62.91 Y1.712
X-62.906 Y1.769
X-62.891 Y2.326
G3 X-63.088 Y2.519 Z-0.5 I-0.195 J-0.002 F1016
G1 X-63.126 Y2.515
X-63.5 Y2.438
X-71.426 Y0.797 F1200
X-71.837 Y0.712 F1016
X-71.882 Y0.702 Z-0.53
X-71.931 Y0.685 Z-0.564
X-71.974 Y0.656 Z-0.598
X-72.007 Y0.616 Z-0.632
X-72.029 Y0.569 Z-0.666
X-72.037 Y0.518 Z-0.7
Y-0.227 F1200
X-72.03 Y-0.377
X-71.991 Y-0.522
X-71.931 Y-0.659
X-71.856 Y-0.789
X-71.767 Y-0.91
X-71.667 Y-1.026
X-71.539 Y-1.151
X-71.395 Y-1.271
X-71.207 Y-1.404
X-71.003 Y-1.524
X-70.744 Y-1.651
X-70.437 Y-1.771
X-70.107 Y-1.871
X-69.711 Y-1.956
X-69.253 Y-2.018
X-68.753 Y-2.044
X-68.252 Y-2.03
X-67.754 Y-1.982
X-67.259 Y-1.902
X-66.771 Y-1.793
X-66.289 Y-1.658
X-65.951 Y-1.544
X-65.887 Y-1.517
X-65.828 Y-1.48
X-65.775 Y-1.435
X-64.183 Y0.157
G3 X-64.192 Y0.433 Z-0.5 I-0.143 J0.133 F1016
G1 X-64.236 Y0.463
X-64.286 Y0.481
X-64.339 Y0.485
X-64.598 Y0.467
X-71.417 Y-0.009 F1200
X-71.836 Y-0.038 F1016
X-71.856 Y-0.039 Z-0.513
G3 X-72.037 Y-0.227 Z-0.7 I0.014 J-0.195
G1 Y-0.909 F1200
X-72.03 Y-1.059
X-71.996 Y-1.205
X-71.94 Y-1.345
X-71.867 Y-1.476
X-71.782 Y-1.599
X-71.679 Y-1.722
X-71.563 Y-1.839
X-71.409 Y-1.973
X-71.24 Y-2.096
X-71.025 Y-2.228
X-70.775 Y-2.355
X-70.489 Y-2.473
X-70.132 Y-2.587
X-69.725 Y-2.682
X-69.288 Y-2.748
X-68.789 Y-2.782
X-68.288 Y-2.778
X-67.789 Y-2.74
X-67.293 Y-2.671
X-67.079 Y-2.629
X-66.993 Y-2.603
X-66.914 Y-2.561
X-66.845 Y-2.504
X-65.775 Y-1.435
G3 X-65.784 Y-1.159 Z-0.5 I-0.143 J0.133 F1016
G1 X-65.82 Y-1.133
X-65.861 Y-1.115
X-65.905 Y-1.107
X-66.19 Y-1.088
X-71.417 Y-0.749 F1200
X-71.83 Y-0.722 F1016
X-71.836 Y-0.721
G3 X-72.037 Y-0.909 Z-0.7 I-0.007 J-0.195
G1 Y-1.643 F1200
X-72.03 Y-1.793
X-71.992 Y-1.938
X-71.933 Y-2.076
X-71.859 Y-2.206
X-71.772 Y-2.329
X-71.667 Y-2.451
X-71.544 Y-2.574
X-71.392 Y-2.703
X-71.208 Y-2.835
X-70.992 Y-2.966
X-70.716 Y-3.104
X-70.423 Y-3.221
X-70.066 Y-3.333
X-69.637 Y-3.429
X-69.157 Y-3.497
X-68.657 Y-3.528
X-68.156 Y-3.522
X-68.004 Y-3.51
X-67.899 Y-3.489
X-67.802 Y-3.444
X-67.718 Y-3.378
X-66.845 Y-2.504
G3 X-66.854 Y-2.229 Z-0.5 I-0.143 J0.133 F1016
G1 X-66.885 Y-2.205
X-66.921 Y-2.188
X-66.959 Y-2.179
X-67.257 Y-2.134
X-71.421 Y-1.516 F1200
X-71.814 Y-1.457 F1016
X-71.836 Y-1.455
G3 X-72.037 Y-1.643 Z-0.7 I-0.007 J-0.195
G1 Y-2.326 F1200
X-72.03 Y-2.475
X-71.998 Y-2.622
X-71.944 Y-2.762
X-71.874 Y-2.894
X-71.79 Y-3.019
X-71.69 Y-3.142
X-71.572 Y-3.265
X-71.421 Y-3.399
X-71.253 Y-3.526
X-71.033 Y-3.666
X-70.791 Y-3.793
X-70.488 Y-3.923
X-70.115 Y-4.049
X-69.722 Y-4.147
X-69.254 Y-4.224
X-68.828 Y-4.26
X-68.697 Y-4.252
X-68.574 Y-4.207
X-68.469 Y-4.129
X-67.718 Y-3.378
G3 X-67.727 Y-3.102 Z-0.5 I-0.143 J0.133 F1016
G1 X-67.769 Y-3.072
X-67.817 Y-3.055
X-68.126 Y-2.984
X-71.426 Y-2.228 F1200
X-71.799 Y-2.142 F1016
X-71.836 Y-2.138
G3 X-72.037 Y-2.326 Z-0.7 I-0.007 J-0.195
G1 Y-3.071 F1200
X-72.03 Y-3.221
X-71.993 Y-3.366
X-71.937 Y-3.505
X-71.864 Y-3.636
X-71.778 Y-3.759
X-71.676 Y-3.882
X-71.554 Y-4.007
X-71.4 Y-4.141
X-71.217 Y-4.276
X-70.995 Y-4.414
X-70.718 Y-4.556
X-70.424 Y-4.679
X-70.055 Y-4.799
X-69.659 Y-4.893
X-69.518 Y-4.915
X-69.376 Y-4.914
X-69.242 Y-4.87
X-69.127 Y-4.787
X-68.469 Y-4.129
G3 X-68.478 Y-3.853 Z-0.5 I-0.143 J0.133 F1016
G1 X-68.515 Y-3.826
X-68.558 Y-3.808
X-68.873 Y-3.719
X-71.431 Y-2.992 F1200
X-71.789 Y-2.89 F1016
X-71.836 Y-2.883
G3 X-72.037 Y-3.071 Z-0.7 I-0.007 J-0.195
G1 Y-3.804 F1200
X-72.03 Y-3.954
X-71.992 Y-4.099
X-71.934 Y-4.238
X-71.86 Y-4.368
X-71.774 Y-4.491
X-71.665 Y-4.621
X-71.543 Y-4.745
X-71.382 Y-4.884
X-71.202 Y-5.016
X-70.972 Y-5.157
X-70.698 Y-5.296
X-70.42 Y-5.411
X-70.205 Y-5.48
X-70.14 Y-5.495
X-69.987 Y-5.505
X-69.839 Y-5.463
X-69.714 Y-5.374
X-69.127 Y-4.787
G3 X-69.136 Y-4.511 Z-0.5 I-0.143 J0.133 F1016
G1 X-69.17 Y-4.486
X-69.209 Y-4.469
X-69.527 Y-4.364
X-71.435 Y-3.739 F1200
X-71.782 Y-3.626 F1016
X-71.836 Y-3.616
G3 X-72.037 Y-3.804 Z-0.7 I-0.007 J-0.195
G1 Y-4.487 F1200
X-72.03 Y-4.637
X-72 Y-4.784
X-71.948 Y-4.924
X-71.88 Y-5.058
X-71.798 Y-5.183
X-71.702 Y-5.305
X-71.583 Y-5.433
X-71.437 Y-5.567
X-71.271 Y-5.696
X-71.082 Y-5.82
X-70.929 Y-5.904
X-70.769 Y-5.976
X-70.699 Y-6
X-70.524 Y-6.026
X-70.352 Y-5.983
X-70.21 Y-5.877
X-70.126 Y-5.786
X-69.714 Y-5.374
G3 X-69.724 Y-5.099 Z-0.5 I-0.143 J0.133 F1016
G1 X-69.754 Y-5.075
X-69.788 Y-5.059
X-70.109 Y-4.938
X-71.44 Y-4.437 F1200
X-71.774 Y-4.311 F1016
X-71.804 Y-4.302
X-71.836 Y-4.299
G3 X-72.037 Y-4.487 Z-0.7 I-0.007 J-0.195
G1 Y-5.232 F1200
X-72.03 Y-5.382
X-71.997 Y-5.528
X-71.943 Y-5.668
X-71.873 Y-5.801
X-71.789 Y-5.925
X-71.694 Y-6.041
X-71.59 Y-6.149
X-71.478 Y-6.248
X-71.356 Y-6.337
X-71.228 Y-6.414
X-71.092 Y-6.478
X-70.998 Y-6.508
X-70.823 Y-6.53
X-70.653 Y-6.483
X-70.513 Y-6.375
X-70.425 Y-6.222
X-70.417 Y-6.175 Z-0.669 F1016
X-70.421 Y-6.128 Z-0.638
X-70.435 Y-6.083 Z-0.607
X-70.461 Y-6.043 Z-0.576
X-70.495 Y-6.01 Z-0.545
X-70.55 Y-5.969 Z-0.5
X-70.885 Y-5.716
X-71.485 Y-5.264 F1200
X-71.725 Y-5.083 F1016
X-71.759 Y-5.062
X-71.797 Y-5.049
X-71.836 Y-5.044
G3 X-72.037 Y-5.232 Z-0.7 I-0.007 J-0.195
G1 Y-5.966 F1200
X-72.03 Y-6.115
X-71.992 Y-6.261
X-71.932 Y-6.398
X-71.854 Y-6.526
X-71.761 Y-6.644
X-71.655 Y-6.75
X-71.537 Y-6.842
X-71.408 Y-6.92
X-71.271 Y-6.98
X-71.127 Y-7.02
X-70.978 Y-7.042
X-70.936
X-70.766 Y-7.007
X-70.622 Y-6.911
X-70.524 Y-6.768
X-70.486 Y-6.599
X-70.493 Y-6.548 Z-0.666 F1016
X-70.514 Y-6.5 Z-0.632
X-70.546 Y-6.46 Z-0.598
X-70.588 Y-6.429 Z-0.564
X-70.675 Y-6.382 Z-0.5
X-71.044 Y-6.183
X-71.46 Y-5.958 F1200
X-71.75 Y-5.801 F1016
X-71.791 Y-5.784
X-71.836 Y-5.778
G3 X-72.037 Y-5.966 Z-0.7 I-0.007 J-0.195
G1 Y-6.597 F1200
X-72.03 Y-6.747
X-71.991 Y-6.892
X-71.925 Y-7.026
X-71.838 Y-7.149
X-71.735 Y-7.258
X-71.618 Y-7.352
X-71.49 Y-7.43
X-71.352 Y-7.489
X-71.208 Y-7.531
X-71.06 Y-7.552
X-70.91 Y-7.55
X-70.876 Y-7.545
X-70.724 Y-7.494
X-70.598 Y-7.393
X-70.516 Y-7.254
X-70.487 Y-7.095
Y-6.648
X-70.486 Y-6.599
G3 X-70.682 Y-6.406 Z-0.501 I-0.195 J-0.002 F1016
G1 Z-0.5
X-71.102 Y-6.407
X-71.416 Y-6.408 F1200
X-71.836 Y-6.409 F1016
X-71.843 Z-0.505
G3 X-72.037 Y-6.597 Z-0.7 I0.001 J-0.195
G1 Y-7.166 F1200
X-72.03 Y-7.315
X-71.989 Y-7.46
X-71.918 Y-7.592
X-71.826 Y-7.71
X-71.717 Y-7.813
X-71.595 Y-7.9
X-71.462 Y-7.971
X-71.322 Y-8.024
X-71.176 Y-8.057
X-71.026 Y-8.071
X-70.877 Y-8.063
X-70.857 Y-8.059
X-70.711 Y-8.004
X-70.592 Y-7.902
X-70.514 Y-7.766
X-70.487 Y-7.612
Y-7.095
G3 X-70.689 Y-6.907 Z-0.5 I-0.195 J-0.007 F1016
G1 X-70.694
X-71.108 Y-6.932
X-71.417 Y-6.951 F1200
X-71.836 Y-6.977 F1016
X-71.854 Y-6.978 Z-0.512
G3 X-72.037 Y-7.166 Z-0.7 I0.012 J-0.195
G1 Y-7.706 F1200
X-72.03 Y-7.856
X-71.985 Y-7.999
X-71.912 Y-8.13
X-71.817 Y-8.246
X-71.705 Y-8.347
X-71.582 Y-8.431
X-71.448 Y-8.499
X-71.306 Y-8.549
X-71.16 Y-8.579
X-71.01 Y-8.591
X-70.86 Y-8.58
X-70.849 Y-8.578
X-70.705 Y-8.521
X-70.589 Y-8.419
X-70.514 Y-8.285
X-70.487 Y-8.132
Y-7.612
G3 X-70.689 Y-7.424 Z-0.5 I-0.195 J-0.007 F1016
G1 X-70.698 Y-7.425
X-71.107 Y-7.458
X-71.418 Y-7.483 F1200
X-71.836 Y-7.517 F1016
X-71.858 Y-7.519 Z-0.515
G3 X-72.037 Y-7.706 Z-0.7 I0.016 J-0.194
G1 Y-8.241 F1200
X-72.03 Y-8.39
X-71.982 Y-8.533
X-71.906 Y-8.662
X-71.809 Y-8.777
X-71.697 Y-8.875
X-71.572 Y-8.958
X-71.437 Y-9.024
X-71.295 Y-9.073
X-71.148 Y-9.102
X-70.998 Y-9.112
X-70.849 Y-9.099
X-70.844 Y-9.098
X-70.702 Y-9.04
X-70.587 Y-8.938
X-70.513 Y-8.804
X-70.487 Y-8.654
Y-8.132
G3 X-70.689 Y-7.944 Z-0.5 I-0.195 J-0.007 F1016
G1 X-70.7 Y-7.945
X-71.107 Y-7.983
X-71.418 Y-8.012 F1200
X-71.836 Y-8.051 F1016
X-71.861 Y-8.053 Z-0.516
G3 X-72.037 Y-8.241 Z-0.7 I0.018 J-0.194
G1 Y-8.758 F1200
X-72.03 Y-8.908
X-71.983 Y-9.05
X-71.907 Y-9.18
X-71.811 Y-9.295
X-71.699 Y-9.394
X-71.574 Y-9.478
X-71.439 Y-9.544
X-71.298 Y-9.593
X-71.15 Y-9.622
X-71.001 Y-9.632
X-70.851 Y-9.62
X-70.845 Y-9.619
X-70.703 Y-9.561
X-70.588 Y-9.459
X-70.513 Y-9.325
X-70.487 Y-9.174
Y-8.654
G3 X-70.689 Y-8.466 Z-0.5 I-0.195 J-0.007 F1016
G1 X-70.7
X-71.107 Y-8.503
X-71.418 Y-8.531 F1200
X-71.836 Y-8.569 F1016
X-71.86 Y-8.571 Z-0.516
G3 X-72.037 Y-8.758 Z-0.7 I0.018 J-0.194
G1 Y-9.264 F1200
X-72.03 Y-9.414
X-71.986 Y-9.558
X-71.913 Y-9.689
X-71.819 Y-9.805
X-71.708 Y-9.906
X-71.584 Y-9.991
X-71.45 Y-10.059
X-71.309 Y-10.11
X-71.163 Y-10.14
X-71.013 Y-10.153
X-70.863 Y-10.142
X-70.85 Y-10.14
X-70.706 Y-10.083
X-70.589 Y-9.981
X-70.514 Y-9.846
X-70.487 Y-9.694
Y-9.174
G3 X-70.689 Y-8.986 Z-0.5 I-0.195 J-0.007 F1016
G1 X-70.697 Y-8.987
X-71.107 Y-9.019
X-71.417 Y-9.043 F1200
X-71.836 Y-9.075 F1016
X-71.858 Y-9.077 Z-0.514
G3 X-72.037 Y-9.264 Z-0.7 I0.015 J-0.194
G1 Y-9.782 F1200
X-72.03 Y-9.932
X-71.987 Y-10.075
X-71.914 Y-10.207
X-71.82 Y-10.324
X-71.71 Y-10.425
X-71.586 Y-10.51
X-71.452 Y-10.578
X-71.311 Y-10.629
X-71.165 Y-10.66
X-71.015 Y-10.672
X-70.865 Y-10.662
X-70.851 Y-10.659
X-70.707 Y-10.603
X-70.59 Y-10.501
X-70.514 Y-10.366
X-70.487 Y-10.214
Y-9.694
G3 X-70.689 Y-9.506 Z-0.5 I-0.195 J-0.007 F1016
G1 X-70.697
X-71.107 Y-9.538
X-71.417 Y-9.561 F1200
X-71.836 Y-9.593 F1016
X-71.857 Y-9.594 Z-0.514
G3 X-72.037 Y-9.782 Z-0.7 I0.015 J-0.194
G1 Y-10.322 F1200
X-72.03 Y-10.472
X-71.982 Y-10.614
X-71.906 Y-10.744
X-71.809 Y-10.858
X-71.696 Y-10.957
X-71.571 Y-11.04
X-71.436 Y-11.106
X-71.295 Y-11.155
X-71.147 Y-11.183
X-70.998 Y-11.193
X-70.848 Y-11.18
X-70.843 Y-11.179
X-70.702 Y-11.121
X-70.587 Y-11.019
X-70.513 Y-10.886
X-70.487 Y-10.735
Y-10.214
G3 X-70.689 Y-10.026 Z-0.5 I-0.195 J-0.007 F1016
G1 X-70.7
X-71.107 Y-10.064
X-71.418 Y-10.094 F1200
X-71.836 Y-10.133 F1016
X-71.861 Y-10.135 Z-0.516
G3 X-72.037 Y-10.322 Z-0.7 I0.018 J-0.194
G1 Y-10.834 F1200
X-72.03 Y-10.984
X-71.984 Y-11.126
X-71.91 Y-11.257
X-71.814 Y-11.372
X-71.702 Y-11.472
X-71.578 Y-11.556
X-71.444 Y-11.623
X-71.302 Y-11.673
X-71.155 Y-11.702
X-71.006 Y-11.713
X-70.856 Y-11.702
X-70.847 Y-11.7
X-70.704 Y-11.643
X-70.588 Y-11.541
X-70.513 Y-11.407
X-70.487 Y-11.255
Y-10.735
G3 X-70.689 Y-10.547 Z-0.5 I-0.195 J-0.007 F1016
G1 X-70.699
X-71.107 Y-10.582
X-71.418 Y-10.609 F1200
X-71.836 Y-10.644 F1016
X-71.859 Y-10.646 Z-0.515
G3 X-72.037 Y-10.834 Z-0.7 I0.017 J-0.194
G1 Y-11.374 F1200
X-72.03 Y-11.524
X-71.979 Y-11.665
X-71.902 Y-11.794
X-71.803 Y-11.907
X-71.689 Y-12.005
X-71.564 Y-12.086
X-71.428 Y-12.151
X-71.286 Y-12.199
X-71.138 Y-12.226
X-70.989 Y-12.234
X-70.9 Y-12.226
X-70.739 Y-12.18
X-70.606 Y-12.079
X-70.518 Y-11.937
X-70.487 Y-11.773
Y-11.255
G3 X-70.689 Y-11.067 Z-0.5 I-0.195 J-0.007 F1016
G1 X-70.702 Y-11.068
X-71.106 Y-11.11
X-71.418 Y-11.142 F1200
X-71.836 Y-11.184 F1016
X-71.862 Y-11.187 Z-0.517
G3 X-72.037 Y-11.374 Z-0.7 I0.02 J-0.194
G1 Y-11.881 F1200
X-72.03 Y-12.03
X-71.983 Y-12.173
X-71.908 Y-12.303
X-71.812 Y-12.418
X-71.699 Y-12.517
X-71.574 Y-12.6
X-71.44 Y-12.666
X-71.297 Y-12.714
X-71.15 Y-12.743
X-71.001 Y-12.753
X-70.851 Y-12.741
X-70.845 Y-12.739
X-70.703 Y-12.681
X-70.588 Y-12.58
X-70.513 Y-12.446
X-70.487 Y-12.295
Y-11.773
G3 X-70.689 Y-11.585 Z-0.5 I-0.195 J-0.007 F1016
G1 X-70.7 Y-11.586
X-71.107 Y-11.623
X-71.418 Y-11.652 F1200
X-71.836 Y-11.691 F1016
X-71.861 Y-11.693 Z-0.516
G3 X-72.037 Y-11.881 Z-0.7 I0.018 J-0.194
G1 Y-12.398 F1200
X-72.03 Y-12.548
X-71.984 Y-12.691
X-71.909 Y-12.821
X-71.812 Y-12.936
X-71.7 Y-13.035
X-71.575 Y-13.118
X-71.441 Y-13.185
X-71.299 Y-13.234
X-71.152 Y-13.263
X-71.002 Y-13.274
X-70.853 Y-13.262
X-70.845 Y-13.26
X-70.703 Y-13.203
X-70.588 Y-13.101
X-70.513 Y-12.967
X-70.487 Y-12.816
Y-12.295
G3 X-70.689 Y-12.107 Z-0.5 I-0.195 J-0.007 F1016
G1 X-70.7
X-71.107 Y-12.144
X-71.418 Y-12.171 F1200
X-71.836 Y-12.209 F1016
X-71.86 Y-12.211 Z-0.516
G3 X-72.037 Y-12.398 Z-0.7 I0.017 J-0.194
G1 Y-12.904 F1200
X-72.03 Y-13.054
X-71.987 Y-13.198
X-71.914 Y-13.329
X-71.82 Y-13.446
X-71.709 Y-13.547
X-71.586 Y-13.632
X-71.452 Y-13.7
X-71.311 Y-13.751
X-71.164 Y-13.782
X-71.014 Y-13.794
X-70.865 Y-13.784
X-70.85 Y-13.781
X-70.706 Y-13.724
X-70.59 Y-13.623
X-70.514 Y-13.488
X-70.487 Y-13.335
Y-12.816
G3 X-70.689 Y-12.628 Z-0.5 I-0.195 J-0.007 F1016
G1 X-70.697
X-71.107 Y-12.659
X-71.417 Y-12.683 F1200
X-71.836 Y-12.715 F1016
X-71.857 Y-12.717 Z-0.514
G3 X-72.037 Y-12.904 Z-0.7 I0.015 J-0.194
G1 Y-13.422 F1200
X-72.03 Y-13.572
X-71.987 Y-13.715
X-71.915 Y-13.847
X-71.821 Y-13.964
X-71.711 Y-14.065
X-71.587 Y-14.15
X-71.453 Y-14.219
X-71.313 Y-14.27
X-71.166 Y-14.301
X-71.016 Y-14.314
X-70.867 Y-14.304
X-70.851 Y-14.301
X-70.707 Y-14.244
X-70.59 Y-14.143
X-70.514 Y-14.008
X-70.487 Y-13.855
Y-13.335
G3 X-70.689 Y-13.147 Z-0.5 I-0.195 J-0.007 F1016
G1 X-70.697 Y-13.148
X-71.107 Y-13.178
X-71.417 Y-13.201 F1200
X-71.836 Y-13.233 F1016
X-71.857 Y-13.234 Z-0.514
G3 X-72.037 Y-13.422 Z-0.7 I0.014 J-0.194
G1 Y-13.962 F1200
X-72.03 Y-14.112
X-71.982 Y-14.254
X-71.907 Y-14.384
X-71.81 Y-14.499
X-71.697 Y-14.598
X-71.572 Y-14.681
X-71.437 Y-14.747
X-71.296 Y-14.796
X-71.148 Y-14.824
X-70.999 Y-14.834
X-70.849 Y-14.821
X-70.844 Y-14.82
X-70.702 Y-14.762
X-70.588 Y-14.661
X-70.513 Y-14.527
X-70.487 Y-14.376
Y-13.855
G3 X-70.689 Y-13.667 Z-0.5 I-0.195 J-0.007 F1016
G1 X-70.7 Y-13.668
X-71.107 Y-13.705
X-71.418 Y-13.734 F1200
X-71.836 Y-13.773 F1016
X-71.861 Y-13.775 Z-0.516
G3 X-72.037 Y-13.962 Z-0.7 I0.018 J-0.194
G1 Y-14.474 F1200
X-72.03 Y-14.624
X-71.984 Y-14.766
X-71.91 Y-14.897
X-71.815 Y-15.013
X-71.703 Y-15.113
X-71.579 Y-15.197
X-71.445 Y-15.263
X-71.303 Y-15.314
X-71.156 Y-15.343
X-71.007 Y-15.355
X-70.857 Y-15.343
X-70.847 Y-15.341
X-70.704 Y-15.284
X-70.589 Y-15.182
X-70.513 Y-15.048
X-70.487 Y-14.896
Y-14.376
G3 X-70.689 Y-14.188 Z-0.5 I-0.195 J-0.007 F1016
G1 X-70.699 Y-14.189
X-71.107 Y-14.223
X-71.418 Y-14.249 F1200
X-71.836 Y-14.284 F1016
X-71.859 Y-14.286 Z-0.515
G3 X-72.037 Y-14.474 Z-0.7 I0.016 J-0.194
G1 Y-15.014 F1200
X-72.03 Y-15.164
X-71.98 Y-15.305
X-71.902 Y-15.434
X-71.804 Y-15.547
X-71.69 Y-15.645
X-71.564 Y-15.727
X-71.429 Y-15.792
X-71.287 Y-15.839
X-71.139 Y-15.867
X-70.99 Y-15.876
X-70.84 Y-15.862
X-70.7 Y-15.803
X-70.586 Y-15.701
X-70.513 Y-15.568
X-70.487 Y-15.418
Y-14.896
G3 X-70.689 Y-14.708 Z-0.5 I-0.195 J-0.007 F1016
G1 X-70.702 Y-14.709
X-71.107 Y-14.75
X-71.418 Y-14.782 F1200
X-71.836 Y-14.824 F1016
X-71.862 Y-14.827 Z-0.517
G3 X-72.037 Y-15.014 Z-0.7 I0.02 J-0.194
G1 Y-15.521 F1200
X-72.03 Y-15.67
X-71.983 Y-15.813
X-71.908 Y-15.943
X-71.812 Y-16.058
X-71.7 Y-16.158
X-71.575 Y-16.241
X-71.441 Y-16.307
X-71.299 Y-16.357
X-71.152 Y-16.386
X-71.002 Y-16.397
X-70.853 Y-16.385
X-70.845 Y-16.383
X-70.703 Y-16.326
X-70.588 Y-16.224
X-70.513 Y-16.09
X-70.487 Y-15.939
Y-15.418
G3 X-70.689 Y-15.23 Z-0.5 I-0.195 J-0.007 F1016
G1 X-70.699 Y-15.231
X-71.107 Y-15.267
X-71.418 Y-15.294 F1200
X-71.836 Y-15.331 F1016
X-71.86 Y-15.333 Z-0.516
G3 X-72.037 Y-15.521 Z-0.7 I0.017 J-0.194
G1 Y-16.038 F1200
X-72.03 Y-16.188
X-71.984 Y-16.331
X-71.909 Y-16.461
X-71.814 Y-16.576
X-71.702 Y-16.676
X-71.577 Y-16.76
X-71.443 Y-16.827
X-71.301 Y-16.877
X-71.154 Y-16.906
X-71.005 Y-16.917
X-70.855 Y-16.906
X-70.846 Y-16.904
X-70.704 Y-16.846
X-70.588 Y-16.745
X-70.513 Y-16.611
X-70.487 Y-16.459
Y-15.939
G3 X-70.689 Y-15.751 Z-0.5 I-0.195 J-0.007 F1016
G1 X-70.699
