(Paul_Arme)
(T5 D=3.175 CR=0 - ZMIN=-9.3 - Schaftfrser)
G90 G94
G17
G21
(When using Fusion for Personal Use, the feedrate of rapid)
(moves is reduced to match the feedrate of cutting moves,)
(which can increase machining time. Unrestricted rapid moves)
(are available with a Fusion Subscription.)
G28 G91 Z0
G90

(Bohrfrsen6)
M0
(MANUAL TOOL CHANGE TO T5)
S6000 M3
G17 G90 G94
G54
G0 X-31.458 Y-35.071
Z15
G1 Z1 F1000
Z-0.683
X-31.464 Y-35.076 Z-0.753
X-31.482 Y-35.091 Z-0.82
X-31.512 Y-35.114 Z-0.88
X-31.551 Y-35.146 Z-0.931
X-31.597 Y-35.184 Z-0.969
X-31.65 Y-35.226 Z-0.992
X-31.704 Y-35.271 Z-1
X-31.828 Y-35.37
G3 X-31.875 Y-35.817 I0.2 J-0.247
X-28.125 Y-32.781 Z-1.14 I1.875 J1.518
X-31.875 Y-35.817 Z-1.279 I-1.875 J-1.518
X-28.125 Y-32.781 Z-1.419 I1.875 J1.518
X-31.875 Y-35.817 Z-1.559 I-1.875 J-1.518
X-28.125 Y-32.781 Z-1.698 I1.875 J1.518
X-31.875 Y-35.817 Z-1.838 I-1.875 J-1.518
X-28.125 Y-32.781 Z-1.978 I1.875 J1.518
X-31.875 Y-35.817 Z-2.117 I-1.875 J-1.518
X-28.125 Y-32.781 Z-2.257 I1.875 J1.518
X-31.875 Y-35.817 Z-2.397 I-1.875 J-1.518
X-28.125 Y-32.781 Z-2.537 I1.875 J1.518
X-31.875 Y-35.817 Z-2.676 I-1.875 J-1.518
X-28.125 Y-32.781 Z-2.816 I1.875 J1.518
X-31.875 Y-35.817 Z-2.956 I-1.875 J-1.518
X-28.125 Y-32.781 Z-3.095 I1.875 J1.518
X-31.875 Y-35.817 Z-3.235 I-1.875 J-1.518
X-28.125 Y-32.781 Z-3.375 I1.875 J1.518
X-31.875 Y-35.817 Z-3.514 I-1.875 J-1.518
X-28.125 Y-32.781 Z-3.654 I1.875 J1.518
X-31.875 Y-35.817 Z-3.794 I-1.875 J-1.518
X-28.125 Y-32.781 Z-3.933 I1.875 J1.518
X-31.875 Y-35.817 Z-4.073 I-1.875 J-1.518
X-28.125 Y-32.781 Z-4.213 I1.875 J1.518
X-31.875 Y-35.817 Z-4.352 I-1.875 J-1.518
X-28.125 Y-32.781 Z-4.492 I1.875 J1.518
X-31.875 Y-35.817 Z-4.632 I-1.875 J-1.518
X-28.125 Y-32.781 Z-4.771 I1.875 J1.518
X-31.875 Y-35.817 Z-4.911 I-1.875 J-1.518
X-28.125 Y-32.781 Z-5.051 I1.875 J1.518
X-31.875 Y-35.817 Z-5.19 I-1.875 J-1.518
X-28.125 Y-32.781 Z-5.33 I1.875 J1.518
X-31.875 Y-35.817 Z-5.47 I-1.875 J-1.518
X-28.125 Y-32.781 Z-5.61 I1.875 J1.518
X-31.875 Y-35.817 Z-5.749 I-1.875 J-1.518
X-28.125 Y-32.781 Z-5.889 I1.875 J1.518
X-31.875 Y-35.817 Z-6.029 I-1.875 J-1.518
X-28.125 Y-32.781 Z-6.168 I1.875 J1.518
X-31.875 Y-35.817 Z-6.308 I-1.875 J-1.518
X-28.125 Y-32.781 Z-6.448 I1.875 J1.518
X-31.875 Y-35.817 Z-6.587 I-1.875 J-1.518
X-28.125 Y-32.781 Z-6.727 I1.875 J1.518
X-31.875 Y-35.817 Z-6.867 I-1.875 J-1.518
X-28.125 Y-32.781 Z-7.006 I1.875 J1.518
X-31.875 Y-35.817 Z-7.146 I-1.875 J-1.518
X-28.125 Y-32.781 Z-7.286 I1.875 J1.518
X-31.875 Y-35.817 Z-7.425 I-1.875 J-1.518
X-28.125 Y-32.781 Z-7.565 I1.875 J1.518
X-31.875 Y-35.817 Z-7.705 I-1.875 J-1.518
X-28.125 Y-32.781 Z-7.844 I1.875 J1.518
X-31.875 Y-35.817 Z-7.984 I-1.875 J-1.518
X-28.125 Y-32.781 Z-8.124 I1.875 J1.518
X-31.875 Y-35.817 Z-8.264 I-1.875 J-1.518
X-28.125 Y-32.781 Z-8.403 I1.875 J1.518
X-31.875 Y-35.817 Z-8.543 I-1.875 J-1.518
X-28.125 Y-32.781 Z-8.683 I1.875 J1.518
X-31.875 Y-35.817 Z-8.822 I-1.875 J-1.518
X-28.125 Y-32.781 Z-8.962 I1.875 J1.518
X-31.875 Y-35.817 Z-9.102 I-1.875 J-1.518
X-28.125 Y-32.781 Z-9.241 I1.875 J1.518
X-31.006 Y-32.106 Z-9.3 I-1.875 J-1.518
X-28.994 Y-36.492 I1.006 J-2.193
X-31.006 Y-32.106 I-1.006 J2.193
X-31.162 Y-32.527 I0.132 J-0.289
G1 X-31.096 Y-32.671
X-31.066 Y-32.735 Z-9.292
X-31.038 Y-32.796 Z-9.269
X-31.013 Y-32.851 Z-9.231
X-30.992 Y-32.897 Z-9.18
X-30.976 Y-32.931 Z-9.12
X-30.967 Y-32.953 Z-9.053
X-30.963 Y-32.96 Z-8.983
Z5
X-16.846 Y-35.334
Z1
Z-0.683
X-16.853 Y-35.339 Z-0.753
X-16.871 Y-35.354 Z-0.82
X-16.9 Y-35.378 Z-0.88
X-16.939 Y-35.41 Z-0.931
X-16.986 Y-35.448 Z-0.969
X-17.038 Y-35.49 Z-0.992
X-17.093 Y-35.534 Z-1
X-17.216 Y-35.634
G3 X-17.263 Y-36.081 I0.2 J-0.247
X-12.737 Y-32.415 Z-1.157 I2.263 J1.833
X-17.263 Y-36.081 Z-1.314 I-2.263 J-1.833
X-12.737 Y-32.415 Z-1.471 I2.263 J1.833
X-17.263 Y-36.081 Z-1.629 I-2.263 J-1.833
X-12.737 Y-32.415 Z-1.786 I2.263 J1.833
X-17.263 Y-36.081 Z-1.943 I-2.263 J-1.833
X-12.737 Y-32.415 Z-2.1 I2.263 J1.833
X-17.263 Y-36.081 Z-2.257 I-2.263 J-1.833
X-12.737 Y-32.415 Z-2.414 I2.263 J1.833
X-17.263 Y-36.081 Z-2.571 I-2.263 J-1.833
X-12.737 Y-32.415 Z-2.729 I2.263 J1.833
X-17.263 Y-36.081 Z-2.886 I-2.263 J-1.833
X-12.737 Y-32.415 Z-3.043 I2.263 J1.833
X-17.263 Y-36.081 Z-3.2 I-2.263 J-1.833
X-12.737 Y-32.415 Z-3.357 I2.263 J1.833
X-17.263 Y-36.081 Z-3.514 I-2.263 J-1.833
X-12.737 Y-32.415 Z-3.671 I2.263 J1.833
X-17.263 Y-36.081 Z-3.829 I-2.263 J-1.833
X-12.737 Y-32.415 Z-3.986 I2.263 J1.833
X-17.263 Y-36.081 Z-4.143 I-2.263 J-1.833
X-12.737 Y-32.415 Z-4.3 I2.263 J1.833
X-17.263 Y-36.081 Z-4.457 I-2.263 J-1.833
X-12.737 Y-32.415 Z-4.614 I2.263 J1.833
X-17.263 Y-36.081 Z-4.771 I-2.263 J-1.833
X-12.737 Y-32.415 Z-4.929 I2.263 J1.833
X-17.263 Y-36.081 Z-5.086 I-2.263 J-1.833
X-12.737 Y-32.415 Z-5.243 I2.263 J1.833
X-17.263 Y-36.081 Z-5.4 I-2.263 J-1.833
X-12.737 Y-32.415 Z-5.557 I2.263 J1.833
X-17.263 Y-36.081 Z-5.714 I-2.263 J-1.833
X-12.737 Y-32.415 Z-5.871 I2.263 J1.833
X-17.263 Y-36.081 Z-6.029 I-2.263 J-1.833
X-12.737 Y-32.415 Z-6.186 I2.263 J1.833
X-17.263 Y-36.081 Z-6.343 I-2.263 J-1.833
X-12.737 Y-32.415 Z-6.5 I2.263 J1.833
X-17.263 Y-36.081 Z-6.657 I-2.263 J-1.833
X-12.737 Y-32.415 Z-6.814 I2.263 J1.833
X-17.263 Y-36.081 Z-6.971 I-2.263 J-1.833
X-12.737 Y-32.415 Z-7.129 I2.263 J1.833
X-17.263 Y-36.081 Z-7.286 I-2.263 J-1.833
X-12.737 Y-32.415 Z-7.443 I2.263 J1.833
X-17.263 Y-36.081 Z-7.6 I-2.263 J-1.833
X-12.737 Y-32.415 Z-7.757 I2.263 J1.833
X-17.263 Y-36.081 Z-7.914 I-2.263 J-1.833
X-12.737 Y-32.415 Z-8.071 I2.263 J1.833
X-17.263 Y-36.081 Z-8.229 I-2.263 J-1.833
X-12.737 Y-32.415 Z-8.386 I2.263 J1.833
X-17.263 Y-36.081 Z-8.543 I-2.263 J-1.833
X-12.737 Y-32.415 Z-8.7 I2.263 J1.833
X-17.263 Y-36.081 Z-8.857 I-2.263 J-1.833
X-12.737 Y-32.415 Z-9.014 I2.263 J1.833
X-17.263 Y-36.081 Z-9.171 I-2.263 J-1.833
X-12.105 Y-33.931 Z-9.3 I2.263 J1.833
X-17.895 Y-34.564 I-2.895 J-0.316
X-12.105 Y-33.931 I2.895 J0.316
X-12.455 Y-33.65 I-0.316 J-0.034
G1 X-12.613 Y-33.668
X-12.683 Y-33.675 Z-9.292
X-12.75 Y-33.683 Z-9.269
X-12.809 Y-33.689 Z-9.231
X-12.859 Y-33.695 Z-9.18
X-12.897 Y-33.699 Z-9.12
X-12.92 Y-33.701 Z-9.053
X-12.928 Y-33.702 Z-8.983
Z5
X-16.846 Y-69.334
Z1
Z-0.683
X-16.853 Y-69.339 Z-0.753
X-16.871 Y-69.354 Z-0.82
X-16.9 Y-69.378 Z-0.88
X-16.939 Y-69.41 Z-0.931
X-16.986 Y-69.448 Z-0.969
X-17.038 Y-69.49 Z-0.992
X-17.093 Y-69.534 Z-1
X-17.216 Y-69.634
G3 X-17.263 Y-70.081 I0.2 J-0.247
X-12.737 Y-66.415 Z-1.157 I2.263 J1.833
X-17.263 Y-70.081 Z-1.314 I-2.263 J-1.833
X-12.737 Y-66.415 Z-1.471 I2.263 J1.833
X-17.263 Y-70.081 Z-1.629 I-2.263 J-1.833
X-12.737 Y-66.415 Z-1.786 I2.263 J1.833
X-17.263 Y-70.081 Z-1.943 I-2.263 J-1.833
X-12.737 Y-66.415 Z-2.1 I2.263 J1.833
X-17.263 Y-70.081 Z-2.257 I-2.263 J-1.833
X-12.737 Y-66.415 Z-2.414 I2.263 J1.833
X-17.263 Y-70.081 Z-2.571 I-2.263 J-1.833
X-12.737 Y-66.415 Z-2.729 I2.263 J1.833
X-17.263 Y-70.081 Z-2.886 I-2.263 J-1.833
X-12.737 Y-66.415 Z-3.043 I2.263 J1.833
X-17.263 Y-70.081 Z-3.2 I-2.263 J-1.833
X-12.737 Y-66.415 Z-3.357 I2.263 J1.833
X-17.263 Y-70.081 Z-3.514 I-2.263 J-1.833
X-12.737 Y-66.415 Z-3.671 I2.263 J1.833
X-17.263 Y-70.081 Z-3.829 I-2.263 J-1.833
X-12.737 Y-66.415 Z-3.986 I2.263 J1.833
X-17.263 Y-70.081 Z-4.143 I-2.263 J-1.833
X-12.737 Y-66.415 Z-4.3 I2.263 J1.833
X-17.263 Y-70.081 Z-4.457 I-2.263 J-1.833
X-12.737 Y-66.415 Z-4.614 I2.263 J1.833
X-17.263 Y-70.081 Z-4.771 I-2.263 J-1.833
X-12.737 Y-66.415 Z-4.929 I2.263 J1.833
X-17.263 Y-70.081 Z-5.086 I-2.263 J-1.833
X-12.737 Y-66.415 Z-5.243 I2.263 J1.833
X-17.263 Y-70.081 Z-5.4 I-2.263 J-1.833
X-12.737 Y-66.415 Z-5.557 I2.263 J1.833
X-17.263 Y-70.081 Z-5.714 I-2.263 J-1.833
X-12.737 Y-66.415 Z-5.871 I2.263 J1.833
X-17.263 Y-70.081 Z-6.029 I-2.263 J-1.833
X-12.737 Y-66.415 Z-6.186 I2.263 J1.833
X-17.263 Y-70.081 Z-6.343 I-2.263 J-1.833
X-12.737 Y-66.415 Z-6.5 I2.263 J1.833
X-17.263 Y-70.081 Z-6.657 I-2.263 J-1.833
X-12.737 Y-66.415 Z-6.814 I2.263 J1.833
X-17.263 Y-70.081 Z-6.971 I-2.263 J-1.833
X-12.737 Y-66.415 Z-7.129 I2.263 J1.833
X-17.263 Y-70.081 Z-7.286 I-2.263 J-1.833
X-12.737 Y-66.415 Z-7.443 I2.263 J1.833
X-17.263 Y-70.081 Z-7.6 I-2.263 J-1.833
X-12.737 Y-66.415 Z-7.757 I2.263 J1.833
X-17.263 Y-70.081 Z-7.914 I-2.263 J-1.833
X-12.737 Y-66.415 Z-8.071 I2.263 J1.833
X-17.263 Y-70.081 Z-8.229 I-2.263 J-1.833
X-12.737 Y-66.415 Z-8.386 I2.263 J1.833
X-17.263 Y-70.081 Z-8.543 I-2.263 J-1.833
X-12.737 Y-66.415 Z-8.7 I2.263 J1.833
X-17.263 Y-70.081 Z-8.857 I-2.263 J-1.833
X-12.737 Y-66.415 Z-9.014 I2.263 J1.833
X-17.263 Y-70.081 Z-9.171 I-2.263 J-1.833
X-12.105 Y-67.931 Z-9.3 I2.263 J1.833
X-17.895 Y-68.564 I-2.895 J-0.316
X-12.105 Y-67.931 I2.895 J0.316
X-12.455 Y-67.65 I-0.316 J-0.034
G1 X-12.613 Y-67.668
X-12.683 Y-67.675 Z-9.292
X-12.75 Y-67.683 Z-9.269
X-12.809 Y-67.689 Z-9.231
X-12.859 Y-67.695 Z-9.18
X-12.897 Y-67.699 Z-9.12
X-12.92 Y-67.701 Z-9.053
X-12.928 Y-67.702 Z-8.983
Z5
X-31.458 Y-69.071
Z1
Z-0.683
X-31.464 Y-69.076 Z-0.753
X-31.482 Y-69.091 Z-0.82
X-31.512 Y-69.114 Z-0.88
X-31.551 Y-69.146 Z-0.931
X-31.597 Y-69.184 Z-0.969
X-31.65 Y-69.226 Z-0.992
X-31.704 Y-69.271 Z-1
X-31.828 Y-69.37
G3 X-31.875 Y-69.817 I0.2 J-0.247
X-28.125 Y-66.781 Z-1.14 I1.875 J1.518
X-31.875 Y-69.817 Z-1.279 I-1.875 J-1.518
X-28.125 Y-66.781 Z-1.419 I1.875 J1.518
X-31.875 Y-69.817 Z-1.559 I-1.875 J-1.518
X-28.125 Y-66.781 Z-1.698 I1.875 J1.518
X-31.875 Y-69.817 Z-1.838 I-1.875 J-1.518
X-28.125 Y-66.781 Z-1.978 I1.875 J1.518
X-31.875 Y-69.817 Z-2.117 I-1.875 J-1.518
X-28.125 Y-66.781 Z-2.257 I1.875 J1.518
X-31.875 Y-69.817 Z-2.397 I-1.875 J-1.518
X-28.125 Y-66.781 Z-2.537 I1.875 J1.518
X-31.875 Y-69.817 Z-2.676 I-1.875 J-1.518
X-28.125 Y-66.781 Z-2.816 I1.875 J1.518
X-31.875 Y-69.817 Z-2.956 I-1.875 J-1.518
X-28.125 Y-66.781 Z-3.095 I1.875 J1.518
X-31.875 Y-69.817 Z-3.235 I-1.875 J-1.518
X-28.125 Y-66.781 Z-3.375 I1.875 J1.518
X-31.875 Y-69.817 Z-3.514 I-1.875 J-1.518
X-28.125 Y-66.781 Z-3.654 I1.875 J1.518
X-31.875 Y-69.817 Z-3.794 I-1.875 J-1.518
X-28.125 Y-66.781 Z-3.933 I1.875 J1.518
X-31.875 Y-69.817 Z-4.073 I-1.875 J-1.518
X-28.125 Y-66.781 Z-4.213 I1.875 J1.518
X-31.875 Y-69.817 Z-4.352 I-1.875 J-1.518
X-28.125 Y-66.781 Z-4.492 I1.875 J1.518
X-31.875 Y-69.817 Z-4.632 I-1.875 J-1.518
X-28.125 Y-66.781 Z-4.771 I1.875 J1.518
X-31.875 Y-69.817 Z-4.911 I-1.875 J-1.518
X-28.125 Y-66.781 Z-5.051 I1.875 J1.518
X-31.875 Y-69.817 Z-5.19 I-1.875 J-1.518
X-28.125 Y-66.781 Z-5.33 I1.875 J1.518
X-31.875 Y-69.817 Z-5.47 I-1.875 J-1.518
X-28.125 Y-66.781 Z-5.61 I1.875 J1.518
X-31.875 Y-69.817 Z-5.749 I-1.875 J-1.518
X-28.125 Y-66.781 Z-5.889 I1.875 J1.518
X-31.875 Y-69.817 Z-6.029 I-1.875 J-1.518
X-28.125 Y-66.781 Z-6.168 I1.875 J1.518
X-31.875 Y-69.817 Z-6.308 I-1.875 J-1.518
X-28.125 Y-66.781 Z-6.448 I1.875 J1.518
X-31.875 Y-69.817 Z-6.587 I-1.875 J-1.518
X-28.125 Y-66.781 Z-6.727 I1.875 J1.518
X-31.875 Y-69.817 Z-6.867 I-1.875 J-1.518
X-28.125 Y-66.781 Z-7.006 I1.875 J1.518
X-31.875 Y-69.817 Z-7.146 I-1.875 J-1.518
X-28.125 Y-66.781 Z-7.286 I1.875 J1.518
X-31.875 Y-69.817 Z-7.425 I-1.875 J-1.518
X-28.125 Y-66.781 Z-7.565 I1.875 J1.518
X-31.875 Y-69.817 Z-7.705 I-1.875 J-1.518
X-28.125 Y-66.781 Z-7.844 I1.875 J1.518
X-31.875 Y-69.817 Z-7.984 I-1.875 J-1.518
X-28.125 Y-66.781 Z-8.124 I1.875 J1.518
X-31.875 Y-69.817 Z-8.264 I-1.875 J-1.518
X-28.125 Y-66.781 Z-8.403 I1.875 J1.518
X-31.875 Y-69.817 Z-8.543 I-1.875 J-1.518
X-28.125 Y-66.781 Z-8.683 I1.875 J1.518
X-31.875 Y-69.817 Z-8.822 I-1.875 J-1.518
X-28.125 Y-66.781 Z-8.962 I1.875 J1.518
X-31.875 Y-69.817 Z-9.102 I-1.875 J-1.518
X-28.125 Y-66.781 Z-9.241 I1.875 J1.518
X-31.006 Y-66.106 Z-9.3 I-1.875 J-1.518
X-28.994 Y-70.492 I1.006 J-2.193
X-31.006 Y-66.106 I-1.006 J2.193
X-31.162 Y-66.527 I0.132 J-0.289
G1 X-31.096 Y-66.671
X-31.066 Y-66.735 Z-9.292
X-31.038 Y-66.796 Z-9.269
X-31.013 Y-66.851 Z-9.231
X-30.992 Y-66.897 Z-9.18
X-30.976 Y-66.931 Z-9.12
X-30.967 Y-66.953 Z-9.053
X-30.963 Y-66.96 Z-8.983
Z5
X-31.458 Y-103.071
Z1
Z-0.683
X-31.464 Y-103.076 Z-0.753
X-31.482 Y-103.091 Z-0.82
X-31.512 Y-103.114 Z-0.88
X-31.551 Y-103.146 Z-0.931
X-31.597 Y-103.184 Z-0.969
X-31.65 Y-103.226 Z-0.992
X-31.704 Y-103.271 Z-1
X-31.828 Y-103.37
G3 X-31.875 Y-103.817 I0.2 J-0.247
X-28.125 Y-100.781 Z-1.14 I1.875 J1.518
X-31.875 Y-103.817 Z-1.279 I-1.875 J-1.518
X-28.125 Y-100.781 Z-1.419 I1.875 J1.518
X-31.875 Y-103.817 Z-1.559 I-1.875 J-1.518
X-28.125 Y-100.781 Z-1.698 I1.875 J1.518
X-31.875 Y-103.817 Z-1.838 I-1.875 J-1.518
X-28.125 Y-100.781 Z-1.978 I1.875 J1.518
X-31.875 Y-103.817 Z-2.117 I-1.875 J-1.518
X-28.125 Y-100.781 Z-2.257 I1.875 J1.518
X-31.875 Y-103.817 Z-2.397 I-1.875 J-1.518
X-28.125 Y-100.781 Z-2.537 I1.875 J1.518
X-31.875 Y-103.817 Z-2.676 I-1.875 J-1.518
X-28.125 Y-100.781 Z-2.816 I1.875 J1.518
X-31.875 Y-103.817 Z-2.956 I-1.875 J-1.518
X-28.125 Y-100.781 Z-3.095 I1.875 J1.518
X-31.875 Y-103.817 Z-3.235 I-1.875 J-1.518
X-28.125 Y-100.781 Z-3.375 I1.875 J1.518
X-31.875 Y-103.817 Z-3.514 I-1.875 J-1.518
X-28.125 Y-100.781 Z-3.654 I1.875 J1.518
X-31.875 Y-103.817 Z-3.794 I-1.875 J-1.518
X-28.125 Y-100.781 Z-3.933 I1.875 J1.518
X-31.875 Y-103.817 Z-4.073 I-1.875 J-1.518
X-28.125 Y-100.781 Z-4.213 I1.875 J1.518
X-31.875 Y-103.817 Z-4.352 I-1.875 J-1.518
X-28.125 Y-100.781 Z-4.492 I1.875 J1.518
X-31.875 Y-103.817 Z-4.632 I-1.875 J-1.518
X-28.125 Y-100.781 Z-4.771 I1.875 J1.518
X-31.875 Y-103.817 Z-4.911 I-1.875 J-1.518
X-28.125 Y-100.781 Z-5.051 I1.875 J1.518
X-31.875 Y-103.817 Z-5.19 I-1.875 J-1.518
X-28.125 Y-100.781 Z-5.33 I1.875 J1.518
X-31.875 Y-103.817 Z-5.47 I-1.875 J-1.518
X-28.125 Y-100.781 Z-5.61 I1.875 J1.518
X-31.875 Y-103.817 Z-5.749 I-1.875 J-1.518
X-28.125 Y-100.781 Z-5.889 I1.875 J1.518
X-31.875 Y-103.817 Z-6.029 I-1.875 J-1.518
X-28.125 Y-100.781 Z-6.168 I1.875 J1.518
X-31.875 Y-103.817 Z-6.308 I-1.875 J-1.518
X-28.125 Y-100.781 Z-6.448 I1.875 J1.518
X-31.875 Y-103.817 Z-6.587 I-1.875 J-1.518
X-28.125 Y-100.781 Z-6.727 I1.875 J1.518
X-31.875 Y-103.817 Z-6.867 I-1.875 J-1.518
X-28.125 Y-100.781 Z-7.006 I1.875 J1.518
X-31.875 Y-103.817 Z-7.146 I-1.875 J-1.518
X-28.125 Y-100.781 Z-7.286 I1.875 J1.518
X-31.875 Y-103.817 Z-7.425 I-1.875 J-1.518
X-28.125 Y-100.781 Z-7.565 I1.875 J1.518
X-31.875 Y-103.817 Z-7.705 I-1.875 J-1.518
X-28.125 Y-100.781 Z-7.844 I1.875 J1.518
X-31.875 Y-103.817 Z-7.984 I-1.875 J-1.518
X-28.125 Y-100.781 Z-8.124 I1.875 J1.518
X-31.875 Y-103.817 Z-8.264 I-1.875 J-1.518
X-28.125 Y-100.781 Z-8.403 I1.875 J1.518
X-31.875 Y-103.817 Z-8.543 I-1.875 J-1.518
X-28.125 Y-100.781 Z-8.683 I1.875 J1.518
X-31.875 Y-103.817 Z-8.822 I-1.875 J-1.518
X-28.125 Y-100.781 Z-8.962 I1.875 J1.518
X-31.875 Y-103.817 Z-9.102 I-1.875 J-1.518
X-28.125 Y-100.781 Z-9.241 I1.875 J1.518
X-31.006 Y-100.106 Z-9.3 I-1.875 J-1.518
X-28.994 Y-104.492 I1.006 J-2.193
X-31.006 Y-100.106 I-1.006 J2.193
X-31.162 Y-100.527 I0.132 J-0.289
G1 X-31.096 Y-100.671
X-31.066 Y-100.735 Z-9.292
X-31.038 Y-100.796 Z-9.269
X-31.013 Y-100.851 Z-9.231
X-30.992 Y-100.897 Z-9.18
X-30.976 Y-100.931 Z-9.12
X-30.967 Y-100.953 Z-9.053
X-30.963 Y-100.96 Z-8.983
Z5
X-16.846 Y-103.334
Z1
Z-0.683
X-16.853 Y-103.339 Z-0.753
X-16.871 Y-103.354 Z-0.82
X-16.9 Y-103.378 Z-0.88
X-16.939 Y-103.41 Z-0.931
X-16.986 Y-103.448 Z-0.969
X-17.038 Y-103.49 Z-0.992
X-17.093 Y-103.534 Z-1
X-17.216 Y-103.634
G3 X-17.263 Y-104.081 I0.2 J-0.247
X-12.737 Y-100.415 Z-1.157 I2.263 J1.833
X-17.263 Y-104.081 Z-1.314 I-2.263 J-1.833
X-12.737 Y-100.415 Z-1.471 I2.263 J1.833
X-17.263 Y-104.081 Z-1.629 I-2.263 J-1.833
X-12.737 Y-100.415 Z-1.786 I2.263 J1.833
X-17.263 Y-104.081 Z-1.943 I-2.263 J-1.833
X-12.737 Y-100.415 Z-2.1 I2.263 J1.833
X-17.263 Y-104.081 Z-2.257 I-2.263 J-1.833
X-12.737 Y-100.415 Z-2.414 I2.263 J1.833
X-17.263 Y-104.081 Z-2.571 I-2.263 J-1.833
X-12.737 Y-100.415 Z-2.729 I2.263 J1.833
X-17.263 Y-104.081 Z-2.886 I-2.263 J-1.833
X-12.737 Y-100.415 Z-3.043 I2.263 J1.833
X-17.263 Y-104.081 Z-3.2 I-2.263 J-1.833
X-12.737 Y-100.415 Z-3.357 I2.263 J1.833
X-17.263 Y-104.081 Z-3.514 I-2.263 J-1.833
X-12.737 Y-100.415 Z-3.671 I2.263 J1.833
X-17.263 Y-104.081 Z-3.829 I-2.263 J-1.833
X-12.737 Y-100.415 Z-3.986 I2.263 J1.833
X-17.263 Y-104.081 Z-4.143 I-2.263 J-1.833
X-12.737 Y-100.415 Z-4.3 I2.263 J1.833
X-17.263 Y-104.081 Z-4.457 I-2.263 J-1.833
X-12.737 Y-100.415 Z-4.614 I2.263 J1.833
X-17.263 Y-104.081 Z-4.771 I-2.263 J-1.833
X-12.737 Y-100.415 Z-4.929 I2.263 J1.833
X-17.263 Y-104.081 Z-5.086 I-2.263 J-1.833
X-12.737 Y-100.415 Z-5.243 I2.263 J1.833
X-17.263 Y-104.081 Z-5.4 I-2.263 J-1.833
X-12.737 Y-100.415 Z-5.557 I2.263 J1.833
X-17.263 Y-104.081 Z-5.714 I-2.263 J-1.833
X-12.737 Y-100.415 Z-5.871 I2.263 J1.833
X-17.263 Y-104.081 Z-6.029 I-2.263 J-1.833
X-12.737 Y-100.415 Z-6.186 I2.263 J1.833
X-17.263 Y-104.081 Z-6.343 I-2.263 J-1.833
X-12.737 Y-100.415 Z-6.5 I2.263 J1.833
X-17.263 Y-104.081 Z-6.657 I-2.263 J-1.833
X-12.737 Y-100.415 Z-6.814 I2.263 J1.833
X-17.263 Y-104.081 Z-6.971 I-2.263 J-1.833
X-12.737 Y-100.415 Z-7.129 I2.263 J1.833
X-17.263 Y-104.081 Z-7.286 I-2.263 J-1.833
X-12.737 Y-100.415 Z-7.443 I2.263 J1.833
X-17.263 Y-104.081 Z-7.6 I-2.263 J-1.833
X-12.737 Y-100.415 Z-7.757 I2.263 J1.833
X-17.263 Y-104.081 Z-7.914 I-2.263 J-1.833
X-12.737 Y-100.415 Z-8.071 I2.263 J1.833
X-17.263 Y-104.081 Z-8.229 I-2.263 J-1.833
X-12.737 Y-100.415 Z-8.386 I2.263 J1.833
X-17.263 Y-104.081 Z-8.543 I-2.263 J-1.833
X-12.737 Y-100.415 Z-8.7 I2.263 J1.833
X-17.263 Y-104.081 Z-8.857 I-2.263 J-1.833
X-12.737 Y-100.415 Z-9.014 I2.263 J1.833
X-17.263 Y-104.081 Z-9.171 I-2.263 J-1.833
X-12.105 Y-101.931 Z-9.3 I2.263 J1.833
X-17.895 Y-102.564 I-2.895 J-0.316
X-12.105 Y-101.931 I2.895 J0.316
X-12.455 Y-101.65 I-0.316 J-0.034
G1 X-12.613 Y-101.668
X-12.683 Y-101.675 Z-9.292
X-12.75 Y-101.683 Z-9.269
X-12.809 Y-101.689 Z-9.231
X-12.859 Y-101.695 Z-9.18
X-12.897 Y-101.699 Z-9.12
X-12.92 Y-101.701 Z-9.053
X-12.928 Y-101.702 Z-8.983
Z5
X-77.433 Y-86.284
Z0.683
Z-1
X-77.309 Y-86.184
X-77.289 Y-86.16
X-77.28 Y-86.13
X-77.283 Y-86.098
X-77.297 Y-86.07
G3 X-77.55 Y-86.275 Z-1.061 I-0.126 J-0.102
X-77.297 Y-86.07 Z-1.122 I0.126 J0.102
X-77.55 Y-86.275 Z-1.183 I-0.126 J-0.102
X-77.297 Y-86.07 Z-1.244 I0.126 J0.102
X-77.55 Y-86.275 Z-1.306 I-0.126 J-0.102
X-77.297 Y-86.07 Z-1.367 I0.126 J0.102
X-77.55 Y-86.275 Z-1.428 I-0.126 J-0.102
X-77.297 Y-86.07 Z-1.489 I0.126 J0.102
X-77.55 Y-86.275 Z-1.55 I-0.126 J-0.102
X-77.297 Y-86.07 Z-1.611 I0.126 J0.102
X-77.55 Y-86.275 Z-1.672 I-0.126 J-0.102
X-77.297 Y-86.07 Z-1.733 I0.126 J0.102
X-77.55 Y-86.275 Z-1.794 I-0.126 J-0.102
X-77.297 Y-86.07 Z-1.856 I0.126 J0.102
X-77.55 Y-86.275 Z-1.917 I-0.126 J-0.102
X-77.297 Y-86.07 Z-1.978 I0.126 J0.102
X-77.55 Y-86.275 Z-2.039 I-0.126 J-0.102
X-77.297 Y-86.07 Z-2.1 I0.126 J0.102
X-77.55 Y-86.275 Z-2.161 I-0.126 J-0.102
X-77.297 Y-86.07 Z-2.222 I0.126 J0.102
X-77.55 Y-86.275 Z-2.283 I-0.126 J-0.102
X-77.297 Y-86.07 Z-2.344 I0.126 J0.102
X-77.55 Y-86.275 Z-2.406 I-0.126 J-0.102
X-77.297 Y-86.07 Z-2.467 I0.126 J0.102
X-77.55 Y-86.275 Z-2.528 I-0.126 J-0.102
X-77.297 Y-86.07 Z-2.589 I0.126 J0.102
X-77.55 Y-86.275 Z-2.65 I-0.126 J-0.102
X-77.297 Y-86.07 Z-2.711 I0.126 J0.102
X-77.55 Y-86.275 Z-2.772 I-0.126 J-0.102
X-77.297 Y-86.07 Z-2.833 I0.126 J0.102
X-77.55 Y-86.275 Z-2.894 I-0.126 J-0.102
X-77.297 Y-86.07 Z-2.956 I0.126 J0.102
X-77.55 Y-86.275 Z-3.017 I-0.126 J-0.102
X-77.297 Y-86.07 Z-3.078 I0.126 J0.102
X-77.55 Y-86.275 Z-3.139 I-0.126 J-0.102
X-77.297 Y-86.07 Z-3.2 I0.126 J0.102
X-77.55 Y-86.275 Z-3.261 I-0.126 J-0.102
X-77.297 Y-86.07 Z-3.322 I0.126 J0.102
X-77.55 Y-86.275 Z-3.383 I-0.126 J-0.102
X-77.297 Y-86.07 Z-3.444 I0.126 J0.102
X-77.55 Y-86.275 Z-3.506 I-0.126 J-0.102
X-77.297 Y-86.07 Z-3.567 I0.126 J0.102
X-77.55 Y-86.275 Z-3.628 I-0.126 J-0.102
X-77.297 Y-86.07 Z-3.689 I0.126 J0.102
X-77.55 Y-86.275 Z-3.75 I-0.126 J-0.102
X-77.297 Y-86.07 Z-3.811 I0.126 J0.102
X-77.55 Y-86.275 Z-3.872 I-0.126 J-0.102
X-77.297 Y-86.07 Z-3.933 I0.126 J0.102
X-77.55 Y-86.275 Z-3.994 I-0.126 J-0.102
X-77.297 Y-86.07 Z-4.056 I0.126 J0.102
X-77.55 Y-86.275 Z-4.117 I-0.126 J-0.102
X-77.297 Y-86.07 Z-4.178 I0.126 J0.102
X-77.55 Y-86.275 Z-4.239 I-0.126 J-0.102
X-77.297 Y-86.07 Z-4.3 I0.126 J0.102
X-77.55 Y-86.275 Z-4.361 I-0.126 J-0.102
X-77.297 Y-86.07 Z-4.422 I0.126 J0.102
X-77.55 Y-86.275 Z-4.483 I-0.126 J-0.102
X-77.297 Y-86.07 Z-4.544 I0.126 J0.102
X-77.55 Y-86.275 Z-4.606 I-0.126 J-0.102
X-77.297 Y-86.07 Z-4.667 I0.126 J0.102
X-77.55 Y-86.275 Z-4.728 I-0.126 J-0.102
X-77.297 Y-86.07 Z-4.789 I0.126 J0.102
X-77.55 Y-86.275 Z-4.85 I-0.126 J-0.102
X-77.297 Y-86.07 Z-4.911 I0.126 J0.102
X-77.55 Y-86.275 Z-4.972 I-0.126 J-0.102
X-77.297 Y-86.07 Z-5.033 I0.126 J0.102
X-77.55 Y-86.275 Z-5.094 I-0.126 J-0.102
X-77.297 Y-86.07 Z-5.156 I0.126 J0.102
X-77.55 Y-86.275 Z-5.217 I-0.126 J-0.102
X-77.297 Y-86.07 Z-5.278 I0.126 J0.102
X-77.55 Y-86.275 Z-5.339 I-0.126 J-0.102
X-77.297 Y-86.07 Z-5.4 I0.126 J0.102
X-77.55 Y-86.275 Z-5.461 I-0.126 J-0.102
X-77.297 Y-86.07 Z-5.522 I0.126 J0.102
X-77.55 Y-86.275 Z-5.583 I-0.126 J-0.102
X-77.297 Y-86.07 Z-5.644 I0.126 J0.102
X-77.55 Y-86.275 Z-5.706 I-0.126 J-0.102
X-77.297 Y-86.07 Z-5.767 I0.126 J0.102
X-77.55 Y-86.275 Z-5.828 I-0.126 J-0.102
X-77.297 Y-86.07 Z-5.889 I0.126 J0.102
X-77.55 Y-86.275 Z-5.95 I-0.126 J-0.102
X-77.297 Y-86.07 Z-6.011 I0.126 J0.102
X-77.55 Y-86.275 Z-6.072 I-0.126 J-0.102
X-77.297 Y-86.07 Z-6.133 I0.126 J0.102
X-77.55 Y-86.275 Z-6.194 I-0.126 J-0.102
X-77.297 Y-86.07 Z-6.256 I0.126 J0.102
X-77.55 Y-86.275 Z-6.317 I-0.126 J-0.102
X-77.297 Y-86.07 Z-6.378 I0.126 J0.102
X-77.55 Y-86.275 Z-6.439 I-0.126 J-0.102
X-77.297 Y-86.07 Z-6.5 I0.126 J0.102
X-77.55 Y-86.275 Z-6.561 I-0.126 J-0.102
X-77.297 Y-86.07 Z-6.622 I0.126 J0.102
X-77.55 Y-86.275 Z-6.683 I-0.126 J-0.102
X-77.297 Y-86.07 Z-6.744 I0.126 J0.102
X-77.55 Y-86.275 Z-6.806 I-0.126 J-0.102
X-77.297 Y-86.07 Z-6.867 I0.126 J0.102
X-77.55 Y-86.275 Z-6.928 I-0.126 J-0.102
X-77.297 Y-86.07 Z-6.989 I0.126 J0.102
X-77.55 Y-86.275 Z-7.05 I-0.126 J-0.102
X-77.297 Y-86.07 Z-7.111 I0.126 J0.102
X-77.55 Y-86.275 Z-7.172 I-0.126 J-0.102
X-77.297 Y-86.07 Z-7.233 I0.126 J0.102
X-77.55 Y-86.275 Z-7.294 I-0.126 J-0.102
X-77.297 Y-86.07 Z-7.356 I0.126 J0.102
X-77.55 Y-86.275 Z-7.417 I-0.126 J-0.102
X-77.297 Y-86.07 Z-7.478 I0.126 J0.102
X-77.55 Y-86.275 Z-7.539 I-0.126 J-0.102
X-77.297 Y-86.07 Z-7.6 I0.126 J0.102
X-77.55 Y-86.275 Z-7.661 I-0.126 J-0.102
X-77.297 Y-86.07 Z-7.722 I0.126 J0.102
X-77.55 Y-86.275 Z-7.783 I-0.126 J-0.102
X-77.297 Y-86.07 Z-7.844 I0.126 J0.102
X-77.55 Y-86.275 Z-7.906 I-0.126 J-0.102
X-77.297 Y-86.07 Z-7.967 I0.126 J0.102
X-77.55 Y-86.275 Z-8.028 I-0.126 J-0.102
X-77.297 Y-86.07 Z-8.089 I0.126 J0.102
X-77.55 Y-86.275 Z-8.15 I-0.126 J-0.102
X-77.297 Y-86.07 Z-8.211 I0.126 J0.102
X-77.55 Y-86.275 Z-8.272 I-0.126 J-0.102
X-77.297 Y-86.07 Z-8.333 I0.126 J0.102
X-77.55 Y-86.275 Z-8.394 I-0.126 J-0.102
X-77.297 Y-86.07 Z-8.456 I0.126 J0.102
X-77.55 Y-86.275 Z-8.517 I-0.126 J-0.102
X-77.297 Y-86.07 Z-8.578 I0.126 J0.102
X-77.55 Y-86.275 Z-8.639 I-0.126 J-0.102
X-77.297 Y-86.07 Z-8.7 I0.126 J0.102
X-77.55 Y-86.275 Z-8.761 I-0.126 J-0.102
X-77.297 Y-86.07 Z-8.822 I0.126 J0.102
X-77.55 Y-86.275 Z-8.883 I-0.126 J-0.102
X-77.297 Y-86.07 Z-8.944 I0.126 J0.102
X-77.55 Y-86.275 Z-9.006 I-0.126 J-0.102
X-77.297 Y-86.07 Z-9.067 I0.126 J0.102
X-77.55 Y-86.275 Z-9.128 I-0.126 J-0.102
X-77.297 Y-86.07 Z-9.189 I0.126 J0.102
X-77.55 Y-86.275 Z-9.25 I-0.126 J-0.102
X-77.262 Y-86.155 Z-9.3 I0.126 J0.102
X-77.585 Y-86.19 I-0.162 J-0.017
X-77.262 Y-86.155 I0.162 J0.017
G1 X-77.272 Y-86.125
X-77.292 Y-86.1
X-77.32 Y-86.086
X-77.352 Y-86.083
X-77.509 Y-86.1
Z5
X-95.433 Y-86.345
Z0.683
Z-1
X-95.309 Y-86.246
X-95.289 Y-86.221
X-95.28 Y-86.191
X-95.282 Y-86.159
X-95.297 Y-86.131
G3 X-95.55 Y-86.336 Z-1.061 I-0.126 J-0.102
X-95.297 Y-86.131 Z-1.122 I0.126 J0.102
X-95.55 Y-86.336 Z-1.183 I-0.126 J-0.102
X-95.297 Y-86.131 Z-1.244 I0.126 J0.102
X-95.55 Y-86.336 Z-1.306 I-0.126 J-0.102
X-95.297 Y-86.131 Z-1.367 I0.126 J0.102
X-95.55 Y-86.336 Z-1.428 I-0.126 J-0.102
X-95.297 Y-86.131 Z-1.489 I0.126 J0.102
X-95.55 Y-86.336 Z-1.55 I-0.126 J-0.102
X-95.297 Y-86.131 Z-1.611 I0.126 J0.102
X-95.55 Y-86.336 Z-1.672 I-0.126 J-0.102
X-95.297 Y-86.131 Z-1.733 I0.126 J0.102
X-95.55 Y-86.336 Z-1.794 I-0.126 J-0.102
X-95.297 Y-86.131 Z-1.856 I0.126 J0.102
X-95.55 Y-86.336 Z-1.917 I-0.126 J-0.102
X-95.297 Y-86.131 Z-1.978 I0.126 J0.102
X-95.55 Y-86.336 Z-2.039 I-0.126 J-0.102
X-95.297 Y-86.131 Z-2.1 I0.126 J0.102
X-95.55 Y-86.336 Z-2.161 I-0.126 J-0.102
X-95.297 Y-86.131 Z-2.222 I0.126 J0.102
X-95.55 Y-86.336 Z-2.283 I-0.126 J-0.102
X-95.297 Y-86.131 Z-2.344 I0.126 J0.102
X-95.55 Y-86.336 Z-2.406 I-0.126 J-0.102
X-95.297 Y-86.131 Z-2.467 I0.126 J0.102
X-95.55 Y-86.336 Z-2.528 I-0.126 J-0.102
X-95.297 Y-86.131 Z-2.589 I0.126 J0.102
X-95.55 Y-86.336 Z-2.65 I-0.126 J-0.102
X-95.297 Y-86.131 Z-2.711 I0.126 J0.102
X-95.55 Y-86.336 Z-2.772 I-0.126 J-0.102
X-95.297 Y-86.131 Z-2.833 I0.126 J0.102
X-95.55 Y-86.336 Z-2.894 I-0.126 J-0.102
X-95.297 Y-86.131 Z-2.956 I0.126 J0.102
X-95.55 Y-86.336 Z-3.017 I-0.126 J-0.102
X-95.297 Y-86.131 Z-3.078 I0.126 J0.102
X-95.55 Y-86.336 Z-3.139 I-0.126 J-0.102
X-95.297 Y-86.131 Z-3.2 I0.126 J0.102
X-95.55 Y-86.336 Z-3.261 I-0.126 J-0.102
X-95.297 Y-86.131 Z-3.322 I0.126 J0.102
X-95.55 Y-86.336 Z-3.383 I-0.126 J-0.102
X-95.297 Y-86.131 Z-3.444 I0.126 J0.102
X-95.55 Y-86.336 Z-3.506 I-0.126 J-0.102
X-95.297 Y-86.131 Z-3.567 I0.126 J0.102
X-95.55 Y-86.336 Z-3.628 I-0.126 J-0.102
X-95.297 Y-86.131 Z-3.689 I0.126 J0.102
X-95.55 Y-86.336 Z-3.75 I-0.126 J-0.102
X-95.297 Y-86.131 Z-3.811 I0.126 J0.102
X-95.55 Y-86.336 Z-3.872 I-0.126 J-0.102
X-95.297 Y-86.131 Z-3.933 I0.126 J0.102
X-95.55 Y-86.336 Z-3.994 I-0.126 J-0.102
X-95.297 Y-86.131 Z-4.056 I0.126 J0.102
X-95.55 Y-86.336 Z-4.117 I-0.126 J-0.102
X-95.297 Y-86.131 Z-4.178 I0.126 J0.102
X-95.55 Y-86.336 Z-4.239 I-0.126 J-0.102
X-95.297 Y-86.131 Z-4.3 I0.126 J0.102
X-95.55 Y-86.336 Z-4.361 I-0.126 J-0.102
X-95.297 Y-86.131 Z-4.422 I0.126 J0.102
X-95.55 Y-86.336 Z-4.483 I-0.126 J-0.102
X-95.297 Y-86.131 Z-4.544 I0.126 J0.102
X-95.55 Y-86.336 Z-4.606 I-0.126 J-0.102
X-95.297 Y-86.131 Z-4.667 I0.126 J0.102
X-95.55 Y-86.336 Z-4.728 I-0.126 J-0.102
X-95.297 Y-86.131 Z-4.789 I0.126 J0.102
X-95.55 Y-86.336 Z-4.85 I-0.126 J-0.102
X-95.297 Y-86.131 Z-4.911 I0.126 J0.102
X-95.55 Y-86.336 Z-4.972 I-0.126 J-0.102
X-95.297 Y-86.131 Z-5.033 I0.126 J0.102
X-95.55 Y-86.336 Z-5.094 I-0.126 J-0.102
X-95.297 Y-86.131 Z-5.156 I0.126 J0.102
X-95.55 Y-86.336 Z-5.217 I-0.126 J-0.102
X-95.297 Y-86.131 Z-5.278 I0.126 J0.102
X-95.55 Y-86.336 Z-5.339 I-0.126 J-0.102
X-95.297 Y-86.131 Z-5.4 I0.126 J0.102
X-95.55 Y-86.336 Z-5.461 I-0.126 J-0.102
X-95.297 Y-86.131 Z-5.522 I0.126 J0.102
X-95.55 Y-86.336 Z-5.583 I-0.126 J-0.102
X-95.297 Y-86.131 Z-5.644 I0.126 J0.102
X-95.55 Y-86.336 Z-5.706 I-0.126 J-0.102
X-95.297 Y-86.131 Z-5.767 I0.126 J0.102
X-95.55 Y-86.336 Z-5.828 I-0.126 J-0.102
X-95.297 Y-86.131 Z-5.889 I0.126 J0.102
X-95.55 Y-86.336 Z-5.95 I-0.126 J-0.102
X-95.297 Y-86.131 Z-6.011 I0.126 J0.102
X-95.55 Y-86.336 Z-6.072 I-0.126 J-0.102
X-95.297 Y-86.131 Z-6.133 I0.126 J0.102
X-95.55 Y-86.336 Z-6.194 I-0.126 J-0.102
X-95.297 Y-86.131 Z-6.256 I0.126 J0.102
X-95.55 Y-86.336 Z-6.317 I-0.126 J-0.102
X-95.297 Y-86.131 Z-6.378 I0.126 J0.102
X-95.55 Y-86.336 Z-6.439 I-0.126 J-0.102
X-95.297 Y-86.131 Z-6.5 I0.126 J0.102
X-95.55 Y-86.336 Z-6.561 I-0.126 J-0.102
X-95.297 Y-86.131 Z-6.622 I0.126 J0.102
X-95.55 Y-86.336 Z-6.683 I-0.126 J-0.102
X-95.297 Y-86.131 Z-6.744 I0.126 J0.102
X-95.55 Y-86.336 Z-6.806 I-0.126 J-0.102
X-95.297 Y-86.131 Z-6.867 I0.126 J0.102
X-95.55 Y-86.336 Z-6.928 I-0.126 J-0.102
X-95.297 Y-86.131 Z-6.989 I0.126 J0.102
X-95.55 Y-86.336 Z-7.05 I-0.126 J-0.102
X-95.297 Y-86.131 Z-7.111 I0.126 J0.102
X-95.55 Y-86.336 Z-7.172 I-0.126 J-0.102
X-95.297 Y-86.131 Z-7.233 I0.126 J0.102
X-95.55 Y-86.336 Z-7.294 I-0.126 J-0.102
X-95.297 Y-86.131 Z-7.356 I0.126 J0.102
X-95.55 Y-86.336 Z-7.417 I-0.126 J-0.102
X-95.297 Y-86.131 Z-7.478 I0.126 J0.102
X-95.55 Y-86.336 Z-7.539 I-0.126 J-0.102
X-95.297 Y-86.131 Z-7.6 I0.126 J0.102
X-95.55 Y-86.336 Z-7.661 I-0.126 J-0.102
X-95.297 Y-86.131 Z-7.722 I0.126 J0.102
X-95.55 Y-86.336 Z-7.783 I-0.126 J-0.102
X-95.297 Y-86.131 Z-7.844 I0.126 J0.102
X-95.55 Y-86.336 Z-7.906 I-0.126 J-0.102
X-95.297 Y-86.131 Z-7.967 I0.126 J0.102
X-95.55 Y-86.336 Z-8.028 I-0.126 J-0.102
X-95.297 Y-86.131 Z-8.089 I0.126 J0.102
X-95.55 Y-86.336 Z-8.15 I-0.126 J-0.102
X-95.297 Y-86.131 Z-8.211 I0.126 J0.102
X-95.55 Y-86.336 Z-8.272 I-0.126 J-0.102
X-95.297 Y-86.131 Z-8.333 I0.126 J0.102
X-95.55 Y-86.336 Z-8.394 I-0.126 J-0.102
X-95.297 Y-86.131 Z-8.456 I0.126 J0.102
X-95.55 Y-86.336 Z-8.517 I-0.126 J-0.102
X-95.297 Y-86.131 Z-8.578 I0.126 J0.102
X-95.55 Y-86.336 Z-8.639 I-0.126 J-0.102
X-95.297 Y-86.131 Z-8.7 I0.126 J0.102
X-95.55 Y-86.336 Z-8.761 I-0.126 J-0.102
X-95.297 Y-86.131 Z-8.822 I0.126 J0.102
X-95.55 Y-86.336 Z-8.883 I-0.126 J-0.102
X-95.297 Y-86.131 Z-8.944 I0.126 J0.102
X-95.55 Y-86.336 Z-9.006 I-0.126 J-0.102
X-95.297 Y-86.131 Z-9.067 I0.126 J0.102
X-95.55 Y-86.336 Z-9.128 I-0.126 J-0.102
X-95.297 Y-86.131 Z-9.189 I0.126 J0.102
X-95.55 Y-86.336 Z-9.25 I-0.126 J-0.102
X-95.262 Y-86.216 Z-9.3 I0.126 J0.102
X-95.585 Y-86.251 I-0.162 J-0.017
X-95.262 Y-86.216 I0.162 J0.017
G1 X-95.271 Y-86.186
X-95.292 Y-86.161
X-95.32 Y-86.147
X-95.351 Y-86.144
X-95.509 Y-86.161
Z5
X-95.433 Y-52.345
Z0.683
Z-1
X-95.309 Y-52.246
X-95.289 Y-52.221
X-95.28 Y-52.191
X-95.282 Y-52.159
X-95.297 Y-52.131
G3 X-95.55 Y-52.336 Z-1.061 I-0.126 J-0.102
X-95.297 Y-52.131 Z-1.122 I0.126 J0.102
X-95.55 Y-52.336 Z-1.183 I-0.126 J-0.102
X-95.297 Y-52.131 Z-1.244 I0.126 J0.102
X-95.55 Y-52.336 Z-1.306 I-0.126 J-0.102
X-95.297 Y-52.131 Z-1.367 I0.126 J0.102
X-95.55 Y-52.336 Z-1.428 I-0.126 J-0.102
X-95.297 Y-52.131 Z-1.489 I0.126 J0.102
X-95.55 Y-52.336 Z-1.55 I-0.126 J-0.102
X-95.297 Y-52.131 Z-1.611 I0.126 J0.102
X-95.55 Y-52.336 Z-1.672 I-0.126 J-0.102
X-95.297 Y-52.131 Z-1.733 I0.126 J0.102
X-95.55 Y-52.336 Z-1.794 I-0.126 J-0.102
X-95.297 Y-52.131 Z-1.856 I0.126 J0.102
X-95.55 Y-52.336 Z-1.917 I-0.126 J-0.102
X-95.297 Y-52.131 Z-1.978 I0.126 J0.102
X-95.55 Y-52.336 Z-2.039 I-0.126 J-0.102
X-95.297 Y-52.131 Z-2.1 I0.126 J0.102
X-95.55 Y-52.336 Z-2.161 I-0.126 J-0.102
X-95.297 Y-52.131 Z-2.222 I0.126 J0.102
X-95.55 Y-52.336 Z-2.283 I-0.126 J-0.102
X-95.297 Y-52.131 Z-2.344 I0.126 J0.102
X-95.55 Y-52.336 Z-2.406 I-0.126 J-0.102
X-95.297 Y-52.131 Z-2.467 I0.126 J0.102
X-95.55 Y-52.336 Z-2.528 I-0.126 J-0.102
X-95.297 Y-52.131 Z-2.589 I0.126 J0.102
X-95.55 Y-52.336 Z-2.65 I-0.126 J-0.102
X-95.297 Y-52.131 Z-2.711 I0.126 J0.102
X-95.55 Y-52.336 Z-2.772 I-0.126 J-0.102
X-95.297 Y-52.131 Z-2.833 I0.126 J0.102
X-95.55 Y-52.336 Z-2.894 I-0.126 J-0.102
X-95.297 Y-52.131 Z-2.956 I0.126 J0.102
X-95.55 Y-52.336 Z-3.017 I-0.126 J-0.102
X-95.297 Y-52.131 Z-3.078 I0.126 J0.102
X-95.55 Y-52.336 Z-3.139 I-0.126 J-0.102
X-95.297 Y-52.131 Z-3.2 I0.126 J0.102
X-95.55 Y-52.336 Z-3.261 I-0.126 J-0.102
X-95.297 Y-52.131 Z-3.322 I0.126 J0.102
X-95.55 Y-52.336 Z-3.383 I-0.126 J-0.102
X-95.297 Y-52.131 Z-3.444 I0.126 J0.102
X-95.55 Y-52.336 Z-3.506 I-0.126 J-0.102
X-95.297 Y-52.131 Z-3.567 I0.126 J0.102
X-95.55 Y-52.336 Z-3.628 I-0.126 J-0.102
X-95.297 Y-52.131 Z-3.689 I0.126 J0.102
X-95.55 Y-52.336 Z-3.75 I-0.126 J-0.102
X-95.297 Y-52.131 Z-3.811 I0.126 J0.102
X-95.55 Y-52.336 Z-3.872 I-0.126 J-0.102
X-95.297 Y-52.131 Z-3.933 I0.126 J0.102
X-95.55 Y-52.336 Z-3.994 I-0.126 J-0.102
X-95.297 Y-52.131 Z-4.056 I0.126 J0.102
X-95.55 Y-52.336 Z-4.117 I-0.126 J-0.102
X-95.297 Y-52.131 Z-4.178 I0.126 J0.102
X-95.55 Y-52.336 Z-4.239 I-0.126 J-0.102
X-95.297 Y-52.131 Z-4.3 I0.126 J0.102
X-95.55 Y-52.336 Z-4.361 I-0.126 J-0.102
X-95.297 Y-52.131 Z-4.422 I0.126 J0.102
X-95.55 Y-52.336 Z-4.483 I-0.126 J-0.102
X-95.297 Y-52.131 Z-4.544 I0.126 J0.102
X-95.55 Y-52.336 Z-4.606 I-0.126 J-0.102
X-95.297 Y-52.131 Z-4.667 I0.126 J0.102
X-95.55 Y-52.336 Z-4.728 I-0.126 J-0.102
X-95.297 Y-52.131 Z-4.789 I0.126 J0.102
X-95.55 Y-52.336 Z-4.85 I-0.126 J-0.102
X-95.297 Y-52.131 Z-4.911 I0.126 J0.102
X-95.55 Y-52.336 Z-4.972 I-0.126 J-0.102
X-95.297 Y-52.131 Z-5.033 I0.126 J0.102
X-95.55 Y-52.336 Z-5.094 I-0.126 J-0.102
X-95.297 Y-52.131 Z-5.156 I0.126 J0.102
X-95.55 Y-52.336 Z-5.217 I-0.126 J-0.102
X-95.297 Y-52.131 Z-5.278 I0.126 J0.102
X-95.55 Y-52.336 Z-5.339 I-0.126 J-0.102
X-95.297 Y-52.131 Z-5.4 I0.126 J0.102
X-95.55 Y-52.336 Z-5.461 I-0.126 J-0.102
X-95.297 Y-52.131 Z-5.522 I0.126 J0.102
X-95.55 Y-52.336 Z-5.583 I-0.126 J-0.102
X-95.297 Y-52.131 Z-5.644 I0.126 J0.102
X-95.55 Y-52.336 Z-5.706 I-0.126 J-0.102
X-95.297 Y-52.131 Z-5.767 I0.126 J0.102
X-95.55 Y-52.336 Z-5.828 I-0.126 J-0.102
X-95.297 Y-52.131 Z-5.889 I0.126 J0.102
X-95.55 Y-52.336 Z-5.95 I-0.126 J-0.102
X-95.297 Y-52.131 Z-6.011 I0.126 J0.102
X-95.55 Y-52.336 Z-6.072 I-0.126 J-0.102
X-95.297 Y-52.131 Z-6.133 I0.126 J0.102
X-95.55 Y-52.336 Z-6.194 I-0.126 J-0.102
X-95.297 Y-52.131 Z-6.256 I0.126 J0.102
X-95.55 Y-52.336 Z-6.317 I-0.126 J-0.102
X-95.297 Y-52.131 Z-6.378 I0.126 J0.102
X-95.55 Y-52.336 Z-6.439 I-0.126 J-0.102
X-95.297 Y-52.131 Z-6.5 I0.126 J0.102
X-95.55 Y-52.336 Z-6.561 I-0.126 J-0.102
X-95.297 Y-52.131 Z-6.622 I0.126 J0.102
X-95.55 Y-52.336 Z-6.683 I-0.126 J-0.102
X-95.297 Y-52.131 Z-6.744 I0.126 J0.102
X-95.55 Y-52.336 Z-6.806 I-0.126 J-0.102
X-95.297 Y-52.131 Z-6.867 I0.126 J0.102
X-95.55 Y-52.336 Z-6.928 I-0.126 J-0.102
X-95.297 Y-52.131 Z-6.989 I0.126 J0.102
X-95.55 Y-52.336 Z-7.05 I-0.126 J-0.102
X-95.297 Y-52.131 Z-7.111 I0.126 J0.102
X-95.55 Y-52.336 Z-7.172 I-0.126 J-0.102
X-95.297 Y-52.131 Z-7.233 I0.126 J0.102
X-95.55 Y-52.336 Z-7.294 I-0.126 J-0.102
X-95.297 Y-52.131 Z-7.356 I0.126 J0.102
X-95.55 Y-52.336 Z-7.417 I-0.126 J-0.102
X-95.297 Y-52.131 Z-7.478 I0.126 J0.102
X-95.55 Y-52.336 Z-7.539 I-0.126 J-0.102
X-95.297 Y-52.131 Z-7.6 I0.126 J0.102
X-95.55 Y-52.336 Z-7.661 I-0.126 J-0.102
X-95.297 Y-52.131 Z-7.722 I0.126 J0.102
X-95.55 Y-52.336 Z-7.783 I-0.126 J-0.102
X-95.297 Y-52.131 Z-7.844 I0.126 J0.102
X-95.55 Y-52.336 Z-7.906 I-0.126 J-0.102
X-95.297 Y-52.131 Z-7.967 I0.126 J0.102
X-95.55 Y-52.336 Z-8.028 I-0.126 J-0.102
X-95.297 Y-52.131 Z-8.089 I0.126 J0.102
X-95.55 Y-52.336 Z-8.15 I-0.126 J-0.102
X-95.297 Y-52.131 Z-8.211 I0.126 J0.102
X-95.55 Y-52.336 Z-8.272 I-0.126 J-0.102
X-95.297 Y-52.131 Z-8.333 I0.126 J0.102
X-95.55 Y-52.336 Z-8.394 I-0.126 J-0.102
X-95.297 Y-52.131 Z-8.456 I0.126 J0.102
X-95.55 Y-52.336 Z-8.517 I-0.126 J-0.102
X-95.297 Y-52.131 Z-8.578 I0.126 J0.102
X-95.55 Y-52.336 Z-8.639 I-0.126 J-0.102
X-95.297 Y-52.131 Z-8.7 I0.126 J0.102
X-95.55 Y-52.336 Z-8.761 I-0.126 J-0.102
X-95.297 Y-52.131 Z-8.822 I0.126 J0.102
X-95.55 Y-52.336 Z-8.883 I-0.126 J-0.102
X-95.297 Y-52.131 Z-8.944 I0.126 J0.102
X-95.55 Y-52.336 Z-9.006 I-0.126 J-0.102
X-95.297 Y-52.131 Z-9.067 I0.126 J0.102
X-95.55 Y-52.336 Z-9.128 I-0.126 J-0.102
X-95.297 Y-52.131 Z-9.189 I0.126 J0.102
X-95.55 Y-52.336 Z-9.25 I-0.126 J-0.102
X-95.262 Y-52.216 Z-9.3 I0.126 J0.102
X-95.585 Y-52.251 I-0.162 J-0.017
X-95.262 Y-52.216 I0.162 J0.017
G1 X-95.271 Y-52.186
X-95.292 Y-52.161
X-95.32 Y-52.147
X-95.351 Y-52.144
X-95.509 Y-52.161
Z5
X-77.433 Y-52.284
Z0.683
Z-1
X-77.309 Y-52.184
X-77.289 Y-52.16
X-77.28 Y-52.13
X-77.283 Y-52.098
X-77.297 Y-52.07
G3 X-77.55 Y-52.275 Z-1.061 I-0.126 J-0.102
X-77.297 Y-52.07 Z-1.122 I0.126 J0.102
X-77.55 Y-52.275 Z-1.183 I-0.126 J-0.102
X-77.297 Y-52.07 Z-1.244 I0.126 J0.102
X-77.55 Y-52.275 Z-1.306 I-0.126 J-0.102
X-77.297 Y-52.07 Z-1.367 I0.126 J0.102
X-77.55 Y-52.275 Z-1.428 I-0.126 J-0.102
X-77.297 Y-52.07 Z-1.489 I0.126 J0.102
X-77.55 Y-52.275 Z-1.55 I-0.126 J-0.102
X-77.297 Y-52.07 Z-1.611 I0.126 J0.102
X-77.55 Y-52.275 Z-1.672 I-0.126 J-0.102
X-77.297 Y-52.07 Z-1.733 I0.126 J0.102
X-77.55 Y-52.275 Z-1.794 I-0.126 J-0.102
X-77.297 Y-52.07 Z-1.856 I0.126 J0.102
X-77.55 Y-52.275 Z-1.917 I-0.126 J-0.102
X-77.297 Y-52.07 Z-1.978 I0.126 J0.102
X-77.55 Y-52.275 Z-2.039 I-0.126 J-0.102
X-77.297 Y-52.07 Z-2.1 I0.126 J0.102
X-77.55 Y-52.275 Z-2.161 I-0.126 J-0.102
X-77.297 Y-52.07 Z-2.222 I0.126 J0.102
X-77.55 Y-52.275 Z-2.283 I-0.126 J-0.102
X-77.297 Y-52.07 Z-2.344 I0.126 J0.102
X-77.55 Y-52.275 Z-2.406 I-0.126 J-0.102
X-77.297 Y-52.07 Z-2.467 I0.126 J0.102
X-77.55 Y-52.275 Z-2.528 I-0.126 J-0.102
X-77.297 Y-52.07 Z-2.589 I0.126 J0.102
X-77.55 Y-52.275 Z-2.65 I-0.126 J-0.102
X-77.297 Y-52.07 Z-2.711 I0.126 J0.102
X-77.55 Y-52.275 Z-2.772 I-0.126 J-0.102
X-77.297 Y-52.07 Z-2.833 I0.126 J0.102
X-77.55 Y-52.275 Z-2.894 I-0.126 J-0.102
X-77.297 Y-52.07 Z-2.956 I0.126 J0.102
X-77.55 Y-52.275 Z-3.017 I-0.126 J-0.102
X-77.297 Y-52.07 Z-3.078 I0.126 J0.102
X-77.55 Y-52.275 Z-3.139 I-0.126 J-0.102
X-77.297 Y-52.07 Z-3.2 I0.126 J0.102
X-77.55 Y-52.275 Z-3.261 I-0.126 J-0.102
X-77.297 Y-52.07 Z-3.322 I0.126 J0.102
X-77.55 Y-52.275 Z-3.383 I-0.126 J-0.102
X-77.297 Y-52.07 Z-3.444 I0.126 J0.102
X-77.55 Y-52.275 Z-3.506 I-0.126 J-0.102
X-77.297 Y-52.07 Z-3.567 I0.126 J0.102
X-77.55 Y-52.275 Z-3.628 I-0.126 J-0.102
X-77.297 Y-52.07 Z-3.689 I0.126 J0.102
X-77.55 Y-52.275 Z-3.75 I-0.126 J-0.102
X-77.297 Y-52.07 Z-3.811 I0.126 J0.102
X-77.55 Y-52.275 Z-3.872 I-0.126 J-0.102
X-77.297 Y-52.07 Z-3.933 I0.126 J0.102
X-77.55 Y-52.275 Z-3.994 I-0.126 J-0.102
X-77.297 Y-52.07 Z-4.056 I0.126 J0.102
X-77.55 Y-52.275 Z-4.117 I-0.126 J-0.102
X-77.297 Y-52.07 Z-4.178 I0.126 J0.102
X-77.55 Y-52.275 Z-4.239 I-0.126 J-0.102
X-77.297 Y-52.07 Z-4.3 I0.126 J0.102
X-77.55 Y-52.275 Z-4.361 I-0.126 J-0.102
X-77.297 Y-52.07 Z-4.422 I0.126 J0.102
X-77.55 Y-52.275 Z-4.483 I-0.126 J-0.102
X-77.297 Y-52.07 Z-4.544 I0.126 J0.102
X-77.55 Y-52.275 Z-4.606 I-0.126 J-0.102
X-77.297 Y-52.07 Z-4.667 I0.126 J0.102
X-77.55 Y-52.275 Z-4.728 I-0.126 J-0.102
X-77.297 Y-52.07 Z-4.789 I0.126 J0.102
X-77.55 Y-52.275 Z-4.85 I-0.126 J-0.102
X-77.297 Y-52.07 Z-4.911 I0.126 J0.102
X-77.55 Y-52.275 Z-4.972 I-0.126 J-0.102
X-77.297 Y-52.07 Z-5.033 I0.126 J0.102
X-77.55 Y-52.275 Z-5.094 I-0.126 J-0.102
X-77.297 Y-52.07 Z-5.156 I0.126 J0.102
X-77.55 Y-52.275 Z-5.217 I-0.126 J-0.102
X-77.297 Y-52.07 Z-5.278 I0.126 J0.102
X-77.55 Y-52.275 Z-5.339 I-0.126 J-0.102
X-77.297 Y-52.07 Z-5.4 I0.126 J0.102
X-77.55 Y-52.275 Z-5.461 I-0.126 J-0.102
X-77.297 Y-52.07 Z-5.522 I0.126 J0.102
X-77.55 Y-52.275 Z-5.583 I-0.126 J-0.102
X-77.297 Y-52.07 Z-5.644 I0.126 J0.102
X-77.55 Y-52.275 Z-5.706 I-0.126 J-0.102
X-77.297 Y-52.07 Z-5.767 I0.126 J0.102
X-77.55 Y-52.275 Z-5.828 I-0.126 J-0.102
X-77.297 Y-52.07 Z-5.889 I0.126 J0.102
X-77.55 Y-52.275 Z-5.95 I-0.126 J-0.102
X-77.297 Y-52.07 Z-6.011 I0.126 J0.102
X-77.55 Y-52.275 Z-6.072 I-0.126 J-0.102
X-77.297 Y-52.07 Z-6.133 I0.126 J0.102
X-77.55 Y-52.275 Z-6.194 I-0.126 J-0.102
X-77.297 Y-52.07 Z-6.256 I0.126 J0.102
X-77.55 Y-52.275 Z-6.317 I-0.126 J-0.102
X-77.297 Y-52.07 Z-6.378 I0.126 J0.102
X-77.55 Y-52.275 Z-6.439 I-0.126 J-0.102
X-77.297 Y-52.07 Z-6.5 I0.126 J0.102
X-77.55 Y-52.275 Z-6.561 I-0.126 J-0.102
X-77.297 Y-52.07 Z-6.622 I0.126 J0.102
X-77.55 Y-52.275 Z-6.683 I-0.126 J-0.102
X-77.297 Y-52.07 Z-6.744 I0.126 J0.102
X-77.55 Y-52.275 Z-6.806 I-0.126 J-0.102
X-77.297 Y-52.07 Z-6.867 I0.126 J0.102
X-77.55 Y-52.275 Z-6.928 I-0.126 J-0.102
X-77.297 Y-52.07 Z-6.989 I0.126 J0.102
X-77.55 Y-52.275 Z-7.05 I-0.126 J-0.102
X-77.297 Y-52.07 Z-7.111 I0.126 J0.102
X-77.55 Y-52.275 Z-7.172 I-0.126 J-0.102
X-77.297 Y-52.07 Z-7.233 I0.126 J0.102
X-77.55 Y-52.275 Z-7.294 I-0.126 J-0.102
X-77.297 Y-52.07 Z-7.356 I0.126 J0.102
X-77.55 Y-52.275 Z-7.417 I-0.126 J-0.102
X-77.297 Y-52.07 Z-7.478 I0.126 J0.102
X-77.55 Y-52.275 Z-7.539 I-0.126 J-0.102
X-77.297 Y-52.07 Z-7.6 I0.126 J0.102
X-77.55 Y-52.275 Z-7.661 I-0.126 J-0.102
X-77.297 Y-52.07 Z-7.722 I0.126 J0.102
X-77.55 Y-52.275 Z-7.783 I-0.126 J-0.102
X-77.297 Y-52.07 Z-7.844 I0.126 J0.102
X-77.55 Y-52.275 Z-7.906 I-0.126 J-0.102
X-77.297 Y-52.07 Z-7.967 I0.126 J0.102
X-77.55 Y-52.275 Z-8.028 I-0.126 J-0.102
X-77.297 Y-52.07 Z-8.089 I0.126 J0.102
X-77.55 Y-52.275 Z-8.15 I-0.126 J-0.102
X-77.297 Y-52.07 Z-8.211 I0.126 J0.102
X-77.55 Y-52.275 Z-8.272 I-0.126 J-0.102
X-77.297 Y-52.07 Z-8.333 I0.126 J0.102
X-77.55 Y-52.275 Z-8.394 I-0.126 J-0.102
X-77.297 Y-52.07 Z-8.456 I0.126 J0.102
X-77.55 Y-52.275 Z-8.517 I-0.126 J-0.102
X-77.297 Y-52.07 Z-8.578 I0.126 J0.102
X-77.55 Y-52.275 Z-8.639 I-0.126 J-0.102
X-77.297 Y-52.07 Z-8.7 I0.126 J0.102
X-77.55 Y-52.275 Z-8.761 I-0.126 J-0.102
X-77.297 Y-52.07 Z-8.822 I0.126 J0.102
X-77.55 Y-52.275 Z-8.883 I-0.126 J-0.102
X-77.297 Y-52.07 Z-8.944 I0.126 J0.102
X-77.55 Y-52.275 Z-9.006 I-0.126 J-0.102
X-77.297 Y-52.07 Z-9.067 I0.126 J0.102
X-77.55 Y-52.275 Z-9.128 I-0.126 J-0.102
X-77.297 Y-52.07 Z-9.189 I0.126 J0.102
X-77.55 Y-52.275 Z-9.25 I-0.126 J-0.102
X-77.262 Y-52.155 Z-9.3 I0.126 J0.102
X-77.585 Y-52.19 I-0.162 J-0.017
X-77.262 Y-52.155 I0.162 J0.017
G1 X-77.272 Y-52.125
X-77.292 Y-52.1
X-77.32 Y-52.086
X-77.352 Y-52.083
X-77.509 Y-52.1
Z5
X-77.433 Y-18.284
Z0.683
Z-1
X-77.309 Y-18.184
X-77.289 Y-18.16
X-77.28 Y-18.13
X-77.283 Y-18.098
X-77.297 Y-18.07
G3 X-77.55 Y-18.275 Z-1.061 I-0.126 J-0.102
X-77.297 Y-18.07 Z-1.122 I0.126 J0.102
X-77.55 Y-18.275 Z-1.183 I-0.126 J-0.102
X-77.297 Y-18.07 Z-1.244 I0.126 J0.102
X-77.55 Y-18.275 Z-1.306 I-0.126 J-0.102
X-77.297 Y-18.07 Z-1.367 I0.126 J0.102
X-77.55 Y-18.275 Z-1.428 I-0.126 J-0.102
X-77.297 Y-18.07 Z-1.489 I0.126 J0.102
X-77.55 Y-18.275 Z-1.55 I-0.126 J-0.102
X-77.297 Y-18.07 Z-1.611 I0.126 J0.102
X-77.55 Y-18.275 Z-1.672 I-0.126 J-0.102
X-77.297 Y-18.07 Z-1.733 I0.126 J0.102
X-77.55 Y-18.275 Z-1.794 I-0.126 J-0.102
X-77.297 Y-18.07 Z-1.856 I0.126 J0.102
X-77.55 Y-18.275 Z-1.917 I-0.126 J-0.102
X-77.297 Y-18.07 Z-1.978 I0.126 J0.102
X-77.55 Y-18.275 Z-2.039 I-0.126 J-0.102
X-77.297 Y-18.07 Z-2.1 I0.126 J0.102
X-77.55 Y-18.275 Z-2.161 I-0.126 J-0.102
X-77.297 Y-18.07 Z-2.222 I0.126 J0.102
X-77.55 Y-18.275 Z-2.283 I-0.126 J-0.102
X-77.297 Y-18.07 Z-2.344 I0.126 J0.102
X-77.55 Y-18.275 Z-2.406 I-0.126 J-0.102
X-77.297 Y-18.07 Z-2.467 I0.126 J0.102
X-77.55 Y-18.275 Z-2.528 I-0.126 J-0.102
X-77.297 Y-18.07 Z-2.589 I0.126 J0.102
X-77.55 Y-18.275 Z-2.65 I-0.126 J-0.102
X-77.297 Y-18.07 Z-2.711 I0.126 J0.102
X-77.55 Y-18.275 Z-2.772 I-0.126 J-0.102
X-77.297 Y-18.07 Z-2.833 I0.126 J0.102
X-77.55 Y-18.275 Z-2.894 I-0.126 J-0.102
X-77.297 Y-18.07 Z-2.956 I0.126 J0.102
X-77.55 Y-18.275 Z-3.017 I-0.126 J-0.102
X-77.297 Y-18.07 Z-3.078 I0.126 J0.102
X-77.55 Y-18.275 Z-3.139 I-0.126 J-0.102
X-77.297 Y-18.07 Z-3.2 I0.126 J0.102
X-77.55 Y-18.275 Z-3.261 I-0.126 J-0.102
X-77.297 Y-18.07 Z-3.322 I0.126 J0.102
X-77.55 Y-18.275 Z-3.383 I-0.126 J-0.102
X-77.297 Y-18.07 Z-3.444 I0.126 J0.102
X-77.55 Y-18.275 Z-3.506 I-0.126 J-0.102
X-77.297 Y-18.07 Z-3.567 I0.126 J0.102
X-77.55 Y-18.275 Z-3.628 I-0.126 J-0.102
X-77.297 Y-18.07 Z-3.689 I0.126 J0.102
X-77.55 Y-18.275 Z-3.75 I-0.126 J-0.102
X-77.297 Y-18.07 Z-3.811 I0.126 J0.102
X-77.55 Y-18.275 Z-3.872 I-0.126 J-0.102
X-77.297 Y-18.07 Z-3.933 I0.126 J0.102
X-77.55 Y-18.275 Z-3.994 I-0.126 J-0.102
X-77.297 Y-18.07 Z-4.056 I0.126 J0.102
X-77.55 Y-18.275 Z-4.117 I-0.126 J-0.102
X-77.297 Y-18.07 Z-4.178 I0.126 J0.102
X-77.55 Y-18.275 Z-4.239 I-0.126 J-0.102
X-77.297 Y-18.07 Z-4.3 I0.126 J0.102
X-77.55 Y-18.275 Z-4.361 I-0.126 J-0.102
X-77.297 Y-18.07 Z-4.422 I0.126 J0.102
X-77.55 Y-18.275 Z-4.483 I-0.126 J-0.102
X-77.297 Y-18.07 Z-4.544 I0.126 J0.102
X-77.55 Y-18.275 Z-4.606 I-0.126 J-0.102
X-77.297 Y-18.07 Z-4.667 I0.126 J0.102
X-77.55 Y-18.275 Z-4.728 I-0.126 J-0.102
X-77.297 Y-18.07 Z-4.789 I0.126 J0.102
X-77.55 Y-18.275 Z-4.85 I-0.126 J-0.102
X-77.297 Y-18.07 Z-4.911 I0.126 J0.102
X-77.55 Y-18.275 Z-4.972 I-0.126 J-0.102
X-77.297 Y-18.07 Z-5.033 I0.126 J0.102
X-77.55 Y-18.275 Z-5.094 I-0.126 J-0.102
X-77.297 Y-18.07 Z-5.156 I0.126 J0.102
X-77.55 Y-18.275 Z-5.217 I-0.126 J-0.102
X-77.297 Y-18.07 Z-5.278 I0.126 J0.102
X-77.55 Y-18.275 Z-5.339 I-0.126 J-0.102
X-77.297 Y-18.07 Z-5.4 I0.126 J0.102
X-77.55 Y-18.275 Z-5.461 I-0.126 J-0.102
X-77.297 Y-18.07 Z-5.522 I0.126 J0.102
X-77.55 Y-18.275 Z-5.583 I-0.126 J-0.102
X-77.297 Y-18.07 Z-5.644 I0.126 J0.102
X-77.55 Y-18.275 Z-5.706 I-0.126 J-0.102
X-77.297 Y-18.07 Z-5.767 I0.126 J0.102
X-77.55 Y-18.275 Z-5.828 I-0.126 J-0.102
X-77.297 Y-18.07 Z-5.889 I0.126 J0.102
X-77.55 Y-18.275 Z-5.95 I-0.126 J-0.102
X-77.297 Y-18.07 Z-6.011 I0.126 J0.102
X-77.55 Y-18.275 Z-6.072 I-0.126 J-0.102
X-77.297 Y-18.07 Z-6.133 I0.126 J0.102
X-77.55 Y-18.275 Z-6.194 I-0.126 J-0.102
X-77.297 Y-18.07 Z-6.256 I0.126 J0.102
X-77.55 Y-18.275 Z-6.317 I-0.126 J-0.102
X-77.297 Y-18.07 Z-6.378 I0.126 J0.102
X-77.55 Y-18.275 Z-6.439 I-0.126 J-0.102
X-77.297 Y-18.07 Z-6.5 I0.126 J0.102
X-77.55 Y-18.275 Z-6.561 I-0.126 J-0.102
X-77.297 Y-18.07 Z-6.622 I0.126 J0.102
X-77.55 Y-18.275 Z-6.683 I-0.126 J-0.102
X-77.297 Y-18.07 Z-6.744 I0.126 J0.102
X-77.55 Y-18.275 Z-6.806 I-0.126 J-0.102
X-77.297 Y-18.07 Z-6.867 I0.126 J0.102
X-77.55 Y-18.275 Z-6.928 I-0.126 J-0.102
X-77.297 Y-18.07 Z-6.989 I0.126 J0.102
X-77.55 Y-18.275 Z-7.05 I-0.126 J-0.102
X-77.297 Y-18.07 Z-7.111 I0.126 J0.102
X-77.55 Y-18.275 Z-7.172 I-0.126 J-0.102
X-77.297 Y-18.07 Z-7.233 I0.126 J0.102
X-77.55 Y-18.275 Z-7.294 I-0.126 J-0.102
X-77.297 Y-18.07 Z-7.356 I0.126 J0.102
X-77.55 Y-18.275 Z-7.417 I-0.126 J-0.102
X-77.297 Y-18.07 Z-7.478 I0.126 J0.102
X-77.55 Y-18.275 Z-7.539 I-0.126 J-0.102
X-77.297 Y-18.07 Z-7.6 I0.126 J0.102
X-77.55 Y-18.275 Z-7.661 I-0.126 J-0.102
X-77.297 Y-18.07 Z-7.722 I0.126 J0.102
X-77.55 Y-18.275 Z-7.783 I-0.126 J-0.102
X-77.297 Y-18.07 Z-7.844 I0.126 J0.102
X-77.55 Y-18.275 Z-7.906 I-0.126 J-0.102
X-77.297 Y-18.07 Z-7.967 I0.126 J0.102
X-77.55 Y-18.275 Z-8.028 I-0.126 J-0.102
X-77.297 Y-18.07 Z-8.089 I0.126 J0.102
X-77.55 Y-18.275 Z-8.15 I-0.126 J-0.102
X-77.297 Y-18.07 Z-8.211 I0.126 J0.102
X-77.55 Y-18.275 Z-8.272 I-0.126 J-0.102
X-77.297 Y-18.07 Z-8.333 I0.126 J0.102
X-77.55 Y-18.275 Z-8.394 I-0.126 J-0.102
X-77.297 Y-18.07 Z-8.456 I0.126 J0.102
X-77.55 Y-18.275 Z-8.517 I-0.126 J-0.102
X-77.297 Y-18.07 Z-8.578 I0.126 J0.102
X-77.55 Y-18.275 Z-8.639 I-0.126 J-0.102
X-77.297 Y-18.07 Z-8.7 I0.126 J0.102
X-77.55 Y-18.275 Z-8.761 I-0.126 J-0.102
X-77.297 Y-18.07 Z-8.822 I0.126 J0.102
X-77.55 Y-18.275 Z-8.883 I-0.126 J-0.102
X-77.297 Y-18.07 Z-8.944 I0.126 J0.102
X-77.55 Y-18.275 Z-9.006 I-0.126 J-0.102
X-77.297 Y-18.07 Z-9.067 I0.126 J0.102
X-77.55 Y-18.275 Z-9.128 I-0.126 J-0.102
X-77.297 Y-18.07 Z-9.189 I0.126 J0.102
X-77.55 Y-18.275 Z-9.25 I-0.126 J-0.102
X-77.262 Y-18.155 Z-9.3 I0.126 J0.102
X-77.585 Y-18.19 I-0.162 J-0.017
X-77.262 Y-18.155 I0.162 J0.017
G1 X-77.272 Y-18.125
X-77.292 Y-18.1
X-77.32 Y-18.086
X-77.352 Y-18.083
X-77.509 Y-18.1
Z5
X-95.433 Y-18.345
Z0.683
Z-1
X-95.309 Y-18.246
X-95.289 Y-18.221
X-95.28 Y-18.191
X-95.282 Y-18.159
X-95.297 Y-18.131
G3 X-95.55 Y-18.336 Z-1.061 I-0.126 J-0.102
X-95.297 Y-18.131 Z-1.122 I0.126 J0.102
X-95.55 Y-18.336 Z-1.183 I-0.126 J-0.102
X-95.297 Y-18.131 Z-1.244 I0.126 J0.102
X-95.55 Y-18.336 Z-1.306 I-0.126 J-0.102
X-95.297 Y-18.131 Z-1.367 I0.126 J0.102
X-95.55 Y-18.336 Z-1.428 I-0.126 J-0.102
X-95.297 Y-18.131 Z-1.489 I0.126 J0.102
X-95.55 Y-18.336 Z-1.55 I-0.126 J-0.102
X-95.297 Y-18.131 Z-1.611 I0.126 J0.102
X-95.55 Y-18.336 Z-1.672 I-0.126 J-0.102
X-95.297 Y-18.131 Z-1.733 I0.126 J0.102
X-95.55 Y-18.336 Z-1.794 I-0.126 J-0.102
X-95.297 Y-18.131 Z-1.856 I0.126 J0.102
X-95.55 Y-18.336 Z-1.917 I-0.126 J-0.102
X-95.297 Y-18.131 Z-1.978 I0.126 J0.102
X-95.55 Y-18.336 Z-2.039 I-0.126 J-0.102
X-95.297 Y-18.131 Z-2.1 I0.126 J0.102
X-95.55 Y-18.336 Z-2.161 I-0.126 J-0.102
X-95.297 Y-18.131 Z-2.222 I0.126 J0.102
X-95.55 Y-18.336 Z-2.283 I-0.126 J-0.102
X-95.297 Y-18.131 Z-2.344 I0.126 J0.102
X-95.55 Y-18.336 Z-2.406 I-0.126 J-0.102
X-95.297 Y-18.131 Z-2.467 I0.126 J0.102
X-95.55 Y-18.336 Z-2.528 I-0.126 J-0.102
X-95.297 Y-18.131 Z-2.589 I0.126 J0.102
X-95.55 Y-18.336 Z-2.65 I-0.126 J-0.102
X-95.297 Y-18.131 Z-2.711 I0.126 J0.102
X-95.55 Y-18.336 Z-2.772 I-0.126 J-0.102
X-95.297 Y-18.131 Z-2.833 I0.126 J0.102
X-95.55 Y-18.336 Z-2.894 I-0.126 J-0.102
X-95.297 Y-18.131 Z-2.956 I0.126 J0.102
X-95.55 Y-18.336 Z-3.017 I-0.126 J-0.102
X-95.297 Y-18.131 Z-3.078 I0.126 J0.102
X-95.55 Y-18.336 Z-3.139 I-0.126 J-0.102
X-95.297 Y-18.131 Z-3.2 I0.126 J0.102
X-95.55 Y-18.336 Z-3.261 I-0.126 J-0.102
X-95.297 Y-18.131 Z-3.322 I0.126 J0.102
X-95.55 Y-18.336 Z-3.383 I-0.126 J-0.102
X-95.297 Y-18.131 Z-3.444 I0.126 J0.102
X-95.55 Y-18.336 Z-3.506 I-0.126 J-0.102
X-95.297 Y-18.131 Z-3.567 I0.126 J0.102
X-95.55 Y-18.336 Z-3.628 I-0.126 J-0.102
X-95.297 Y-18.131 Z-3.689 I0.126 J0.102
X-95.55 Y-18.336 Z-3.75 I-0.126 J-0.102
X-95.297 Y-18.131 Z-3.811 I0.126 J0.102
X-95.55 Y-18.336 Z-3.872 I-0.126 J-0.102
X-95.297 Y-18.131 Z-3.933 I0.126 J0.102
X-95.55 Y-18.336 Z-3.994 I-0.126 J-0.102
X-95.297 Y-18.131 Z-4.056 I0.126 J0.102
X-95.55 Y-18.336 Z-4.117 I-0.126 J-0.102
X-95.297 Y-18.131 Z-4.178 I0.126 J0.102
X-95.55 Y-18.336 Z-4.239 I-0.126 J-0.102
X-95.297 Y-18.131 Z-4.3 I0.126 J0.102
X-95.55 Y-18.336 Z-4.361 I-0.126 J-0.102
X-95.297 Y-18.131 Z-4.422 I0.126 J0.102
X-95.55 Y-18.336 Z-4.483 I-0.126 J-0.102
X-95.297 Y-18.131 Z-4.544 I0.126 J0.102
X-95.55 Y-18.336 Z-4.606 I-0.126 J-0.102
X-95.297 Y-18.131 Z-4.667 I0.126 J0.102
X-95.55 Y-18.336 Z-4.728 I-0.126 J-0.102
X-95.297 Y-18.131 Z-4.789 I0.126 J0.102
X-95.55 Y-18.336 Z-4.85 I-0.126 J-0.102
X-95.297 Y-18.131 Z-4.911 I0.126 J0.102
X-95.55 Y-18.336 Z-4.972 I-0.126 J-0.102
X-95.297 Y-18.131 Z-5.033 I0.126 J0.102
X-95.55 Y-18.336 Z-5.094 I-0.126 J-0.102
X-95.297 Y-18.131 Z-5.156 I0.126 J0.102
X-95.55 Y-18.336 Z-5.217 I-0.126 J-0.102
X-95.297 Y-18.131 Z-5.278 I0.126 J0.102
X-95.55 Y-18.336 Z-5.339 I-0.126 J-0.102
X-95.297 Y-18.131 Z-5.4 I0.126 J0.102
X-95.55 Y-18.336 Z-5.461 I-0.126 J-0.102
X-95.297 Y-18.131 Z-5.522 I0.126 J0.102
X-95.55 Y-18.336 Z-5.583 I-0.126 J-0.102
X-95.297 Y-18.131 Z-5.644 I0.126 J0.102
X-95.55 Y-18.336 Z-5.706 I-0.126 J-0.102
X-95.297 Y-18.131 Z-5.767 I0.126 J0.102
X-95.55 Y-18.336 Z-5.828 I-0.126 J-0.102
X-95.297 Y-18.131 Z-5.889 I0.126 J0.102
X-95.55 Y-18.336 Z-5.95 I-0.126 J-0.102
X-95.297 Y-18.131 Z-6.011 I0.126 J0.102
X-95.55 Y-18.336 Z-6.072 I-0.126 J-0.102
X-95.297 Y-18.131 Z-6.133 I0.126 J0.102
X-95.55 Y-18.336 Z-6.194 I-0.126 J-0.102
X-95.297 Y-18.131 Z-6.256 I0.126 J0.102
X-95.55 Y-18.336 Z-6.317 I-0.126 J-0.102
X-95.297 Y-18.131 Z-6.378 I0.126 J0.102
X-95.55 Y-18.336 Z-6.439 I-0.126 J-0.102
X-95.297 Y-18.131 Z-6.5 I0.126 J0.102
X-95.55 Y-18.336 Z-6.561 I-0.126 J-0.102
X-95.297 Y-18.131 Z-6.622 I0.126 J0.102
X-95.55 Y-18.336 Z-6.683 I-0.126 J-0.102
X-95.297 Y-18.131 Z-6.744 I0.126 J0.102
X-95.55 Y-18.336 Z-6.806 I-0.126 J-0.102
X-95.297 Y-18.131 Z-6.867 I0.126 J0.102
X-95.55 Y-18.336 Z-6.928 I-0.126 J-0.102
X-95.297 Y-18.131 Z-6.989 I0.126 J0.102
X-95.55 Y-18.336 Z-7.05 I-0.126 J-0.102
X-95.297 Y-18.131 Z-7.111 I0.126 J0.102
X-95.55 Y-18.336 Z-7.172 I-0.126 J-0.102
X-95.297 Y-18.131 Z-7.233 I0.126 J0.102
X-95.55 Y-18.336 Z-7.294 I-0.126 J-0.102
X-95.297 Y-18.131 Z-7.356 I0.126 J0.102
X-95.55 Y-18.336 Z-7.417 I-0.126 J-0.102
X-95.297 Y-18.131 Z-7.478 I0.126 J0.102
X-95.55 Y-18.336 Z-7.539 I-0.126 J-0.102
X-95.297 Y-18.131 Z-7.6 I0.126 J0.102
X-95.55 Y-18.336 Z-7.661 I-0.126 J-0.102
X-95.297 Y-18.131 Z-7.722 I0.126 J0.102
X-95.55 Y-18.336 Z-7.783 I-0.126 J-0.102
X-95.297 Y-18.131 Z-7.844 I0.126 J0.102
X-95.55 Y-18.336 Z-7.906 I-0.126 J-0.102
X-95.297 Y-18.131 Z-7.967 I0.126 J0.102
X-95.55 Y-18.336 Z-8.028 I-0.126 J-0.102
X-95.297 Y-18.131 Z-8.089 I0.126 J0.102
X-95.55 Y-18.336 Z-8.15 I-0.126 J-0.102
X-95.297 Y-18.131 Z-8.211 I0.126 J0.102
X-95.55 Y-18.336 Z-8.272 I-0.126 J-0.102
X-95.297 Y-18.131 Z-8.333 I0.126 J0.102
X-95.55 Y-18.336 Z-8.394 I-0.126 J-0.102
X-95.297 Y-18.131 Z-8.456 I0.126 J0.102
X-95.55 Y-18.336 Z-8.517 I-0.126 J-0.102
X-95.297 Y-18.131 Z-8.578 I0.126 J0.102
X-95.55 Y-18.336 Z-8.639 I-0.126 J-0.102
X-95.297 Y-18.131 Z-8.7 I0.126 J0.102
X-95.55 Y-18.336 Z-8.761 I-0.126 J-0.102
X-95.297 Y-18.131 Z-8.822 I0.126 J0.102
X-95.55 Y-18.336 Z-8.883 I-0.126 J-0.102
X-95.297 Y-18.131 Z-8.944 I0.126 J0.102
X-95.55 Y-18.336 Z-9.006 I-0.126 J-0.102
X-95.297 Y-18.131 Z-9.067 I0.126 J0.102
X-95.55 Y-18.336 Z-9.128 I-0.126 J-0.102
X-95.297 Y-18.131 Z-9.189 I0.126 J0.102
X-95.55 Y-18.336 Z-9.25 I-0.126 J-0.102
X-95.262 Y-18.216 Z-9.3 I0.126 J0.102
X-95.585 Y-18.251 I-0.162 J-0.017
X-95.262 Y-18.216 I0.162 J0.017
G1 X-95.271 Y-18.186
X-95.292 Y-18.161
X-95.32 Y-18.147
X-95.351 Y-18.144
X-95.509 Y-18.161
Z5
X-143.434 Y-34.572
Z0.683
Z-1
X-143.558 Y-34.672
X-143.578 Y-34.696
X-143.587 Y-34.727
X-143.584 Y-34.758
X-143.57 Y-34.786
G3 X-143.317 Y-34.582 Z-1.061 I0.126 J0.102
X-143.57 Y-34.786 Z-1.122 I-0.126 J-0.102
X-143.317 Y-34.582 Z-1.183 I0.126 J0.102
X-143.57 Y-34.786 Z-1.244 I-0.126 J-0.102
X-143.317 Y-34.582 Z-1.306 I0.126 J0.102
X-143.57 Y-34.786 Z-1.367 I-0.126 J-0.102
X-143.317 Y-34.582 Z-1.428 I0.126 J0.102
X-143.57 Y-34.786 Z-1.489 I-0.126 J-0.102
X-143.317 Y-34.582 Z-1.55 I0.126 J0.102
X-143.57 Y-34.786 Z-1.611 I-0.126 J-0.102
X-143.317 Y-34.582 Z-1.672 I0.126 J0.102
X-143.57 Y-34.786 Z-1.733 I-0.126 J-0.102
X-143.317 Y-34.582 Z-1.794 I0.126 J0.102
X-143.57 Y-34.786 Z-1.856 I-0.126 J-0.102
X-143.317 Y-34.582 Z-1.917 I0.126 J0.102
X-143.57 Y-34.786 Z-1.978 I-0.126 J-0.102
X-143.317 Y-34.582 Z-2.039 I0.126 J0.102
X-143.57 Y-34.786 Z-2.1 I-0.126 J-0.102
X-143.317 Y-34.582 Z-2.161 I0.126 J0.102
X-143.57 Y-34.786 Z-2.222 I-0.126 J-0.102
X-143.317 Y-34.582 Z-2.283 I0.126 J0.102
X-143.57 Y-34.786 Z-2.344 I-0.126 J-0.102
X-143.317 Y-34.582 Z-2.406 I0.126 J0.102
X-143.57 Y-34.786 Z-2.467 I-0.126 J-0.102
X-143.317 Y-34.582 Z-2.528 I0.126 J0.102
X-143.57 Y-34.786 Z-2.589 I-0.126 J-0.102
X-143.317 Y-34.582 Z-2.65 I0.126 J0.102
X-143.57 Y-34.786 Z-2.711 I-0.126 J-0.102
X-143.317 Y-34.582 Z-2.772 I0.126 J0.102
X-143.57 Y-34.786 Z-2.833 I-0.126 J-0.102
X-143.317 Y-34.582 Z-2.894 I0.126 J0.102
X-143.57 Y-34.786 Z-2.956 I-0.126 J-0.102
X-143.317 Y-34.582 Z-3.017 I0.126 J0.102
X-143.57 Y-34.786 Z-3.078 I-0.126 J-0.102
X-143.317 Y-34.582 Z-3.139 I0.126 J0.102
X-143.57 Y-34.786 Z-3.2 I-0.126 J-0.102
X-143.317 Y-34.582 Z-3.261 I0.126 J0.102
X-143.57 Y-34.786 Z-3.322 I-0.126 J-0.102
X-143.317 Y-34.582 Z-3.383 I0.126 J0.102
X-143.57 Y-34.786 Z-3.444 I-0.126 J-0.102
X-143.317 Y-34.582 Z-3.506 I0.126 J0.102
X-143.57 Y-34.786 Z-3.567 I-0.126 J-0.102
X-143.317 Y-34.582 Z-3.628 I0.126 J0.102
X-143.57 Y-34.786 Z-3.689 I-0.126 J-0.102
X-143.317 Y-34.582 Z-3.75 I0.126 J0.102
X-143.57 Y-34.786 Z-3.811 I-0.126 J-0.102
X-143.317 Y-34.582 Z-3.872 I0.126 J0.102
X-143.57 Y-34.786 Z-3.933 I-0.126 J-0.102
X-143.317 Y-34.582 Z-3.994 I0.126 J0.102
X-143.57 Y-34.786 Z-4.056 I-0.126 J-0.102
X-143.317 Y-34.582 Z-4.117 I0.126 J0.102
X-143.57 Y-34.786 Z-4.178 I-0.126 J-0.102
X-143.317 Y-34.582 Z-4.239 I0.126 J0.102
X-143.57 Y-34.786 Z-4.3 I-0.126 J-0.102
X-143.317 Y-34.582 Z-4.361 I0.126 J0.102
X-143.57 Y-34.786 Z-4.422 I-0.126 J-0.102
X-143.317 Y-34.582 Z-4.483 I0.126 J0.102
X-143.57 Y-34.786 Z-4.544 I-0.126 J-0.102
X-143.317 Y-34.582 Z-4.606 I0.126 J0.102
X-143.57 Y-34.786 Z-4.667 I-0.126 J-0.102
X-143.317 Y-34.582 Z-4.728 I0.126 J0.102
X-143.57 Y-34.786 Z-4.789 I-0.126 J-0.102
X-143.317 Y-34.582 Z-4.85 I0.126 J0.102
X-143.57 Y-34.786 Z-4.911 I-0.126 J-0.102
X-143.317 Y-34.582 Z-4.972 I0.126 J0.102
X-143.57 Y-34.786 Z-5.033 I-0.126 J-0.102
X-143.317 Y-34.582 Z-5.094 I0.126 J0.102
X-143.57 Y-34.786 Z-5.156 I-0.126 J-0.102
X-143.317 Y-34.582 Z-5.217 I0.126 J0.102
X-143.57 Y-34.786 Z-5.278 I-0.126 J-0.102
X-143.317 Y-34.582 Z-5.339 I0.126 J0.102
X-143.57 Y-34.786 Z-5.4 I-0.126 J-0.102
X-143.317 Y-34.582 Z-5.461 I0.126 J0.102
X-143.57 Y-34.786 Z-5.522 I-0.126 J-0.102
X-143.317 Y-34.582 Z-5.583 I0.126 J0.102
X-143.57 Y-34.786 Z-5.644 I-0.126 J-0.102
X-143.317 Y-34.582 Z-5.706 I0.126 J0.102
X-143.57 Y-34.786 Z-5.767 I-0.126 J-0.102
X-143.317 Y-34.582 Z-5.828 I0.126 J0.102
X-143.57 Y-34.786 Z-5.889 I-0.126 J-0.102
X-143.317 Y-34.582 Z-5.95 I0.126 J0.102
X-143.57 Y-34.786 Z-6.011 I-0.126 J-0.102
X-143.317 Y-34.582 Z-6.072 I0.126 J0.102
X-143.57 Y-34.786 Z-6.133 I-0.126 J-0.102
X-143.317 Y-34.582 Z-6.194 I0.126 J0.102
X-143.57 Y-34.786 Z-6.256 I-0.126 J-0.102
X-143.317 Y-34.582 Z-6.317 I0.126 J0.102
X-143.57 Y-34.786 Z-6.378 I-0.126 J-0.102
X-143.317 Y-34.582 Z-6.439 I0.126 J0.102
X-143.57 Y-34.786 Z-6.5 I-0.126 J-0.102
X-143.317 Y-34.582 Z-6.561 I0.126 J0.102
X-143.57 Y-34.786 Z-6.622 I-0.126 J-0.102
X-143.317 Y-34.582 Z-6.683 I0.126 J0.102
X-143.57 Y-34.786 Z-6.744 I-0.126 J-0.102
X-143.317 Y-34.582 Z-6.806 I0.126 J0.102
X-143.57 Y-34.786 Z-6.867 I-0.126 J-0.102
X-143.317 Y-34.582 Z-6.928 I0.126 J0.102
X-143.57 Y-34.786 Z-6.989 I-0.126 J-0.102
X-143.317 Y-34.582 Z-7.05 I0.126 J0.102
X-143.57 Y-34.786 Z-7.111 I-0.126 J-0.102
X-143.317 Y-34.582 Z-7.172 I0.126 J0.102
X-143.57 Y-34.786 Z-7.233 I-0.126 J-0.102
X-143.317 Y-34.582 Z-7.294 I0.126 J0.102
X-143.57 Y-34.786 Z-7.356 I-0.126 J-0.102
X-143.317 Y-34.582 Z-7.417 I0.126 J0.102
X-143.57 Y-34.786 Z-7.478 I-0.126 J-0.102
X-143.317 Y-34.582 Z-7.539 I0.126 J0.102
X-143.57 Y-34.786 Z-7.6 I-0.126 J-0.102
X-143.317 Y-34.582 Z-7.661 I0.126 J0.102
X-143.57 Y-34.786 Z-7.722 I-0.126 J-0.102
X-143.317 Y-34.582 Z-7.783 I0.126 J0.102
X-143.57 Y-34.786 Z-7.844 I-0.126 J-0.102
X-143.317 Y-34.582 Z-7.906 I0.126 J0.102
X-143.57 Y-34.786 Z-7.967 I-0.126 J-0.102
X-143.317 Y-34.582 Z-8.028 I0.126 J0.102
X-143.57 Y-34.786 Z-8.089 I-0.126 J-0.102
X-143.317 Y-34.582 Z-8.15 I0.126 J0.102
X-143.57 Y-34.786 Z-8.211 I-0.126 J-0.102
X-143.317 Y-34.582 Z-8.272 I0.126 J0.102
X-143.57 Y-34.786 Z-8.333 I-0.126 J-0.102
X-143.317 Y-34.582 Z-8.394 I0.126 J0.102
X-143.57 Y-34.786 Z-8.456 I-0.126 J-0.102
X-143.317 Y-34.582 Z-8.517 I0.126 J0.102
X-143.57 Y-34.786 Z-8.578 I-0.126 J-0.102
X-143.317 Y-34.582 Z-8.639 I0.126 J0.102
X-143.57 Y-34.786 Z-8.7 I-0.126 J-0.102
X-143.317 Y-34.582 Z-8.761 I0.126 J0.102
X-143.57 Y-34.786 Z-8.822 I-0.126 J-0.102
X-143.317 Y-34.582 Z-8.883 I0.126 J0.102
X-143.57 Y-34.786 Z-8.944 I-0.126 J-0.102
X-143.317 Y-34.582 Z-9.006 I0.126 J0.102
X-143.57 Y-34.786 Z-9.067 I-0.126 J-0.102
X-143.317 Y-34.582 Z-9.128 I0.126 J0.102
X-143.57 Y-34.786 Z-9.189 I-0.126 J-0.102
X-143.317 Y-34.582 Z-9.25 I0.126 J0.102
X-143.605 Y-34.701 Z-9.3 I-0.126 J-0.102
X-143.282 Y-34.666 I0.162 J0.017
X-143.605 Y-34.701 I-0.162 J-0.017
G1 X-143.595 Y-34.732
X-143.575 Y-34.756
X-143.547 Y-34.771
X-143.515 Y-34.773
X-143.358 Y-34.756
Z5
X-161.434 Y-34.633
Z0.683
Z-1
X-161.558 Y-34.733
X-161.578 Y-34.757
X-161.587 Y-34.788
X-161.584 Y-34.819
X-161.57 Y-34.847
G3 X-161.317 Y-34.643 Z-1.061 I0.126 J0.102
X-161.57 Y-34.847 Z-1.122 I-0.126 J-0.102
X-161.317 Y-34.643 Z-1.183 I0.126 J0.102
X-161.57 Y-34.847 Z-1.244 I-0.126 J-0.102
X-161.317 Y-34.643 Z-1.306 I0.126 J0.102
X-161.57 Y-34.847 Z-1.367 I-0.126 J-0.102
X-161.317 Y-34.643 Z-1.428 I0.126 J0.102
X-161.57 Y-34.847 Z-1.489 I-0.126 J-0.102
X-161.317 Y-34.643 Z-1.55 I0.126 J0.102
X-161.57 Y-34.847 Z-1.611 I-0.126 J-0.102
X-161.317 Y-34.643 Z-1.672 I0.126 J0.102
X-161.57 Y-34.847 Z-1.733 I-0.126 J-0.102
X-161.317 Y-34.643 Z-1.794 I0.126 J0.102
X-161.57 Y-34.847 Z-1.856 I-0.126 J-0.102
X-161.317 Y-34.643 Z-1.917 I0.126 J0.102
X-161.57 Y-34.847 Z-1.978 I-0.126 J-0.102
X-161.317 Y-34.643 Z-2.039 I0.126 J0.102
X-161.57 Y-34.847 Z-2.1 I-0.126 J-0.102
X-161.317 Y-34.643 Z-2.161 I0.126 J0.102
X-161.57 Y-34.847 Z-2.222 I-0.126 J-0.102
X-161.317 Y-34.643 Z-2.283 I0.126 J0.102
X-161.57 Y-34.847 Z-2.344 I-0.126 J-0.102
X-161.317 Y-34.643 Z-2.406 I0.126 J0.102
X-161.57 Y-34.847 Z-2.467 I-0.126 J-0.102
X-161.317 Y-34.643 Z-2.528 I0.126 J0.102
X-161.57 Y-34.847 Z-2.589 I-0.126 J-0.102
X-161.317 Y-34.643 Z-2.65 I0.126 J0.102
X-161.57 Y-34.847 Z-2.711 I-0.126 J-0.102
X-161.317 Y-34.643 Z-2.772 I0.126 J0.102
X-161.57 Y-34.847 Z-2.833 I-0.126 J-0.102
X-161.317 Y-34.643 Z-2.894 I0.126 J0.102
X-161.57 Y-34.847 Z-2.956 I-0.126 J-0.102
X-161.317 Y-34.643 Z-3.017 I0.126 J0.102
X-161.57 Y-34.847 Z-3.078 I-0.126 J-0.102
X-161.317 Y-34.643 Z-3.139 I0.126 J0.102
X-161.57 Y-34.847 Z-3.2 I-0.126 J-0.102
X-161.317 Y-34.643 Z-3.261 I0.126 J0.102
X-161.57 Y-34.847 Z-3.322 I-0.126 J-0.102
X-161.317 Y-34.643 Z-3.383 I0.126 J0.102
X-161.57 Y-34.847 Z-3.444 I-0.126 J-0.102
X-161.317 Y-34.643 Z-3.506 I0.126 J0.102
X-161.57 Y-34.847 Z-3.567 I-0.126 J-0.102
X-161.317 Y-34.643 Z-3.628 I0.126 J0.102
X-161.57 Y-34.847 Z-3.689 I-0.126 J-0.102
X-161.317 Y-34.643 Z-3.75 I0.126 J0.102
X-161.57 Y-34.847 Z-3.811 I-0.126 J-0.102
X-161.317 Y-34.643 Z-3.872 I0.126 J0.102
X-161.57 Y-34.847 Z-3.933 I-0.126 J-0.102
X-161.317 Y-34.643 Z-3.994 I0.126 J0.102
X-161.57 Y-34.847 Z-4.056 I-0.126 J-0.102
X-161.317 Y-34.643 Z-4.117 I0.126 J0.102
X-161.57 Y-34.847 Z-4.178 I-0.126 J-0.102
X-161.317 Y-34.643 Z-4.239 I0.126 J0.102
X-161.57 Y-34.847 Z-4.3 I-0.126 J-0.102
X-161.317 Y-34.643 Z-4.361 I0.126 J0.102
X-161.57 Y-34.847 Z-4.422 I-0.126 J-0.102
X-161.317 Y-34.643 Z-4.483 I0.126 J0.102
X-161.57 Y-34.847 Z-4.544 I-0.126 J-0.102
X-161.317 Y-34.643 Z-4.606 I0.126 J0.102
X-161.57 Y-34.847 Z-4.667 I-0.126 J-0.102
X-161.317 Y-34.643 Z-4.728 I0.126 J0.102
X-161.57 Y-34.847 Z-4.789 I-0.126 J-0.102
X-161.317 Y-34.643 Z-4.85 I0.126 J0.102
X-161.57 Y-34.847 Z-4.911 I-0.126 J-0.102
X-161.317 Y-34.643 Z-4.972 I0.126 J0.102
X-161.57 Y-34.847 Z-5.033 I-0.126 J-0.102
X-161.317 Y-34.643 Z-5.094 I0.126 J0.102
X-161.57 Y-34.847 Z-5.156 I-0.126 J-0.102
X-161.317 Y-34.643 Z-5.217 I0.126 J0.102
X-161.57 Y-34.847 Z-5.278 I-0.126 J-0.102
X-161.317 Y-34.643 Z-5.339 I0.126 J0.102
X-161.57 Y-34.847 Z-5.4 I-0.126 J-0.102
X-161.317 Y-34.643 Z-5.461 I0.126 J0.102
X-161.57 Y-34.847 Z-5.522 I-0.126 J-0.102
X-161.317 Y-34.643 Z-5.583 I0.126 J0.102
X-161.57 Y-34.847 Z-5.644 I-0.126 J-0.102
X-161.317 Y-34.643 Z-5.706 I0.126 J0.102
X-161.57 Y-34.847 Z-5.767 I-0.126 J-0.102
X-161.317 Y-34.643 Z-5.828 I0.126 J0.102
X-161.57 Y-34.847 Z-5.889 I-0.126 J-0.102
X-161.317 Y-34.643 Z-5.95 I0.126 J0.102
X-161.57 Y-34.847 Z-6.011 I-0.126 J-0.102
X-161.317 Y-34.643 Z-6.072 I0.126 J0.102
X-161.57 Y-34.847 Z-6.133 I-0.126 J-0.102
X-161.317 Y-34.643 Z-6.194 I0.126 J0.102
X-161.57 Y-34.847 Z-6.256 I-0.126 J-0.102
X-161.317 Y-34.643 Z-6.317 I0.126 J0.102
X-161.57 Y-34.847 Z-6.378 I-0.126 J-0.102
X-161.317 Y-34.643 Z-6.439 I0.126 J0.102
X-161.57 Y-34.847 Z-6.5 I-0.126 J-0.102
X-161.317 Y-34.643 Z-6.561 I0.126 J0.102
X-161.57 Y-34.847 Z-6.622 I-0.126 J-0.102
X-161.317 Y-34.643 Z-6.683 I0.126 J0.102
X-161.57 Y-34.847 Z-6.744 I-0.126 J-0.102
X-161.317 Y-34.643 Z-6.806 I0.126 J0.102
X-161.57 Y-34.847 Z-6.867 I-0.126 J-0.102
X-161.317 Y-34.643 Z-6.928 I0.126 J0.102
X-161.57 Y-34.847 Z-6.989 I-0.126 J-0.102
X-161.317 Y-34.643 Z-7.05 I0.126 J0.102
X-161.57 Y-34.847 Z-7.111 I-0.126 J-0.102
X-161.317 Y-34.643 Z-7.172 I0.126 J0.102
X-161.57 Y-34.847 Z-7.233 I-0.126 J-0.102
X-161.317 Y-34.643 Z-7.294 I0.126 J0.102
X-161.57 Y-34.847 Z-7.356 I-0.126 J-0.102
X-161.317 Y-34.643 Z-7.417 I0.126 J0.102
X-161.57 Y-34.847 Z-7.478 I-0.126 J-0.102
X-161.317 Y-34.643 Z-7.539 I0.126 J0.102
X-161.57 Y-34.847 Z-7.6 I-0.126 J-0.102
X-161.317 Y-34.643 Z-7.661 I0.126 J0.102
X-161.57 Y-34.847 Z-7.722 I-0.126 J-0.102
X-161.317 Y-34.643 Z-7.783 I0.126 J0.102
X-161.57 Y-34.847 Z-7.844 I-0.126 J-0.102
X-161.317 Y-34.643 Z-7.906 I0.126 J0.102
X-161.57 Y-34.847 Z-7.967 I-0.126 J-0.102
X-161.317 Y-34.643 Z-8.028 I0.126 J0.102
X-161.57 Y-34.847 Z-8.089 I-0.126 J-0.102
X-161.317 Y-34.643 Z-8.15 I0.126 J0.102
X-161.57 Y-34.847 Z-8.211 I-0.126 J-0.102
X-161.317 Y-34.643 Z-8.272 I0.126 J0.102
X-161.57 Y-34.847 Z-8.333 I-0.126 J-0.102
X-161.317 Y-34.643 Z-8.394 I0.126 J0.102
X-161.57 Y-34.847 Z-8.456 I-0.126 J-0.102
X-161.317 Y-34.643 Z-8.517 I0.126 J0.102
X-161.57 Y-34.847 Z-8.578 I-0.126 J-0.102
X-161.317 Y-34.643 Z-8.639 I0.126 J0.102
X-161.57 Y-34.847 Z-8.7 I-0.126 J-0.102
X-161.317 Y-34.643 Z-8.761 I0.126 J0.102
X-161.57 Y-34.847 Z-8.822 I-0.126 J-0.102
X-161.317 Y-34.643 Z-8.883 I0.126 J0.102
X-161.57 Y-34.847 Z-8.944 I-0.126 J-0.102
X-161.317 Y-34.643 Z-9.006 I0.126 J0.102
X-161.57 Y-34.847 Z-9.067 I-0.126 J-0.102
X-161.317 Y-34.643 Z-9.128 I0.126 J0.102
X-161.57 Y-34.847 Z-9.189 I-0.126 J-0.102
X-161.317 Y-34.643 Z-9.25 I0.126 J0.102
X-161.605 Y-34.763 Z-9.3 I-0.126 J-0.102
X-161.282 Y-34.728 I0.162 J0.017
X-161.605 Y-34.763 I-0.162 J-0.017
G1 X-161.595 Y-34.793
X-161.575 Y-34.817
X-161.547 Y-34.832
X-161.515 Y-34.835
X-161.357 Y-34.818
Z5
X-161.434 Y-68.633
Z0.683
Z-1
X-161.558 Y-68.733
X-161.578 Y-68.757
X-161.587 Y-68.788
X-161.584 Y-68.819
X-161.57 Y-68.847
G3 X-161.317 Y-68.643 Z-1.061 I0.126 J0.102
X-161.57 Y-68.847 Z-1.122 I-0.126 J-0.102
X-161.317 Y-68.643 Z-1.183 I0.126 J0.102
X-161.57 Y-68.847 Z-1.244 I-0.126 J-0.102
X-161.317 Y-68.643 Z-1.306 I0.126 J0.102
X-161.57 Y-68.847 Z-1.367 I-0.126 J-0.102
X-161.317 Y-68.643 Z-1.428 I0.126 J0.102
X-161.57 Y-68.847 Z-1.489 I-0.126 J-0.102
X-161.317 Y-68.643 Z-1.55 I0.126 J0.102
X-161.57 Y-68.847 Z-1.611 I-0.126 J-0.102
X-161.317 Y-68.643 Z-1.672 I0.126 J0.102
X-161.57 Y-68.847 Z-1.733 I-0.126 J-0.102
X-161.317 Y-68.643 Z-1.794 I0.126 J0.102
X-161.57 Y-68.847 Z-1.856 I-0.126 J-0.102
X-161.317 Y-68.643 Z-1.917 I0.126 J0.102
X-161.57 Y-68.847 Z-1.978 I-0.126 J-0.102
X-161.317 Y-68.643 Z-2.039 I0.126 J0.102
X-161.57 Y-68.847 Z-2.1 I-0.126 J-0.102
X-161.317 Y-68.643 Z-2.161 I0.126 J0.102
X-161.57 Y-68.847 Z-2.222 I-0.126 J-0.102
X-161.317 Y-68.643 Z-2.283 I0.126 J0.102
X-161.57 Y-68.847 Z-2.344 I-0.126 J-0.102
X-161.317 Y-68.643 Z-2.406 I0.126 J0.102
X-161.57 Y-68.847 Z-2.467 I-0.126 J-0.102
X-161.317 Y-68.643 Z-2.528 I0.126 J0.102
X-161.57 Y-68.847 Z-2.589 I-0.126 J-0.102
X-161.317 Y-68.643 Z-2.65 I0.126 J0.102
X-161.57 Y-68.847 Z-2.711 I-0.126 J-0.102
X-161.317 Y-68.643 Z-2.772 I0.126 J0.102
X-161.57 Y-68.847 Z-2.833 I-0.126 J-0.102
X-161.317 Y-68.643 Z-2.894 I0.126 J0.102
X-161.57 Y-68.847 Z-2.956 I-0.126 J-0.102
X-161.317 Y-68.643 Z-3.017 I0.126 J0.102
X-161.57 Y-68.847 Z-3.078 I-0.126 J-0.102
X-161.317 Y-68.643 Z-3.139 I0.126 J0.102
X-161.57 Y-68.847 Z-3.2 I-0.126 J-0.102
X-161.317 Y-68.643 Z-3.261 I0.126 J0.102
X-161.57 Y-68.847 Z-3.322 I-0.126 J-0.102
X-161.317 Y-68.643 Z-3.383 I0.126 J0.102
X-161.57 Y-68.847 Z-3.444 I-0.126 J-0.102
X-161.317 Y-68.643 Z-3.506 I0.126 J0.102
X-161.57 Y-68.847 Z-3.567 I-0.126 J-0.102
X-161.317 Y-68.643 Z-3.628 I0.126 J0.102
X-161.57 Y-68.847 Z-3.689 I-0.126 J-0.102
X-161.317 Y-68.643 Z-3.75 I0.126 J0.102
X-161.57 Y-68.847 Z-3.811 I-0.126 J-0.102
X-161.317 Y-68.643 Z-3.872 I0.126 J0.102
X-161.57 Y-68.847 Z-3.933 I-0.126 J-0.102
X-161.317 Y-68.643 Z-3.994 I0.126 J0.102
X-161.57 Y-68.847 Z-4.056 I-0.126 J-0.102
X-161.317 Y-68.643 Z-4.117 I0.126 J0.102
X-161.57 Y-68.847 Z-4.178 I-0.126 J-0.102
X-161.317 Y-68.643 Z-4.239 I0.126 J0.102
X-161.57 Y-68.847 Z-4.3 I-0.126 J-0.102
X-161.317 Y-68.643 Z-4.361 I0.126 J0.102
X-161.57 Y-68.847 Z-4.422 I-0.126 J-0.102
X-161.317 Y-68.643 Z-4.483 I0.126 J0.102
X-161.57 Y-68.847 Z-4.544 I-0.126 J-0.102
X-161.317 Y-68.643 Z-4.606 I0.126 J0.102
X-161.57 Y-68.847 Z-4.667 I-0.126 J-0.102
X-161.317 Y-68.643 Z-4.728 I0.126 J0.102
X-161.57 Y-68.847 Z-4.789 I-0.126 J-0.102
X-161.317 Y-68.643 Z-4.85 I0.126 J0.102
X-161.57 Y-68.847 Z-4.911 I-0.126 J-0.102
X-161.317 Y-68.643 Z-4.972 I0.126 J0.102
X-161.57 Y-68.847 Z-5.033 I-0.126 J-0.102
X-161.317 Y-68.643 Z-5.094 I0.126 J0.102
X-161.57 Y-68.847 Z-5.156 I-0.126 J-0.102
X-161.317 Y-68.643 Z-5.217 I0.126 J0.102
X-161.57 Y-68.847 Z-5.278 I-0.126 J-0.102
X-161.317 Y-68.643 Z-5.339 I0.126 J0.102
X-161.57 Y-68.847 Z-5.4 I-0.126 J-0.102
X-161.317 Y-68.643 Z-5.461 I0.126 J0.102
X-161.57 Y-68.847 Z-5.522 I-0.126 J-0.102
X-161.317 Y-68.643 Z-5.583 I0.126 J0.102
X-161.57 Y-68.847 Z-5.644 I-0.126 J-0.102
X-161.317 Y-68.643 Z-5.706 I0.126 J0.102
X-161.57 Y-68.847 Z-5.767 I-0.126 J-0.102
X-161.317 Y-68.643 Z-5.828 I0.126 J0.102
X-161.57 Y-68.847 Z-5.889 I-0.126 J-0.102
X-161.317 Y-68.643 Z-5.95 I0.126 J0.102
X-161.57 Y-68.847 Z-6.011 I-0.126 J-0.102
X-161.317 Y-68.643 Z-6.072 I0.126 J0.102
X-161.57 Y-68.847 Z-6.133 I-0.126 J-0.102
X-161.317 Y-68.643 Z-6.194 I0.126 J0.102
X-161.57 Y-68.847 Z-6.256 I-0.126 J-0.102
X-161.317 Y-68.643 Z-6.317 I0.126 J0.102
X-161.57 Y-68.847 Z-6.378 I-0.126 J-0.102
X-161.317 Y-68.643 Z-6.439 I0.126 J0.102
X-161.57 Y-68.847 Z-6.5 I-0.126 J-0.102
X-161.317 Y-68.643 Z-6.561 I0.126 J0.102
X-161.57 Y-68.847 Z-6.622 I-0.126 J-0.102
X-161.317 Y-68.643 Z-6.683 I0.126 J0.102
X-161.57 Y-68.847 Z-6.744 I-0.126 J-0.102
X-161.317 Y-68.643 Z-6.806 I0.126 J0.102
X-161.57 Y-68.847 Z-6.867 I-0.126 J-0.102
X-161.317 Y-68.643 Z-6.928 I0.126 J0.102
X-161.57 Y-68.847 Z-6.989 I-0.126 J-0.102
X-161.317 Y-68.643 Z-7.05 I0.126 J0.102
X-161.57 Y-68.847 Z-7.111 I-0.126 J-0.102
X-161.317 Y-68.643 Z-7.172 I0.126 J0.102
X-161.57 Y-68.847 Z-7.233 I-0.126 J-0.102
X-161.317 Y-68.643 Z-7.294 I0.126 J0.102
X-161.57 Y-68.847 Z-7.356 I-0.126 J-0.102
X-161.317 Y-68.643 Z-7.417 I0.126 J0.102
X-161.57 Y-68.847 Z-7.478 I-0.126 J-0.102
X-161.317 Y-68.643 Z-7.539 I0.126 J0.102
X-161.57 Y-68.847 Z-7.6 I-0.126 J-0.102
X-161.317 Y-68.643 Z-7.661 I0.126 J0.102
X-161.57 Y-68.847 Z-7.722 I-0.126 J-0.102
X-161.317 Y-68.643 Z-7.783 I0.126 J0.102
X-161.57 Y-68.847 Z-7.844 I-0.126 J-0.102
X-161.317 Y-68.643 Z-7.906 I0.126 J0.102
X-161.57 Y-68.847 Z-7.967 I-0.126 J-0.102
X-161.317 Y-68.643 Z-8.028 I0.126 J0.102
X-161.57 Y-68.847 Z-8.089 I-0.126 J-0.102
X-161.317 Y-68.643 Z-8.15 I0.126 J0.102
X-161.57 Y-68.847 Z-8.211 I-0.126 J-0.102
X-161.317 Y-68.643 Z-8.272 I0.126 J0.102
X-161.57 Y-68.847 Z-8.333 I-0.126 J-0.102
X-161.317 Y-68.643 Z-8.394 I0.126 J0.102
X-161.57 Y-68.847 Z-8.456 I-0.126 J-0.102
X-161.317 Y-68.643 Z-8.517 I0.126 J0.102
X-161.57 Y-68.847 Z-8.578 I-0.126 J-0.102
X-161.317 Y-68.643 Z-8.639 I0.126 J0.102
X-161.57 Y-68.847 Z-8.7 I-0.126 J-0.102
X-161.317 Y-68.643 Z-8.761 I0.126 J0.102
X-161.57 Y-68.847 Z-8.822 I-0.126 J-0.102
X-161.317 Y-68.643 Z-8.883 I0.126 J0.102
X-161.57 Y-68.847 Z-8.944 I-0.126 J-0.102
X-161.317 Y-68.643 Z-9.006 I0.126 J0.102
X-161.57 Y-68.847 Z-9.067 I-0.126 J-0.102
X-161.317 Y-68.643 Z-9.128 I0.126 J0.102
X-161.57 Y-68.847 Z-9.189 I-0.126 J-0.102
X-161.317 Y-68.643 Z-9.25 I0.126 J0.102
X-161.605 Y-68.763 Z-9.3 I-0.126 J-0.102
X-161.282 Y-68.728 I0.162 J0.017
X-161.605 Y-68.763 I-0.162 J-0.017
G1 X-161.595 Y-68.793
X-161.575 Y-68.817
X-161.547 Y-68.832
X-161.515 Y-68.835
X-161.357 Y-68.818
Z5
X-143.434 Y-68.572
Z0.683
Z-1
X-143.558 Y-68.672
X-143.578 Y-68.696
X-143.587 Y-68.727
X-143.584 Y-68.758
X-143.57 Y-68.786
G3 X-143.317 Y-68.582 Z-1.061 I0.126 J0.102
X-143.57 Y-68.786 Z-1.122 I-0.126 J-0.102
X-143.317 Y-68.582 Z-1.183 I0.126 J0.102
X-143.57 Y-68.786 Z-1.244 I-0.126 J-0.102
X-143.317 Y-68.582 Z-1.306 I0.126 J0.102
X-143.57 Y-68.786 Z-1.367 I-0.126 J-0.102
X-143.317 Y-68.582 Z-1.428 I0.126 J0.102
X-143.57 Y-68.786 Z-1.489 I-0.126 J-0.102
X-143.317 Y-68.582 Z-1.55 I0.126 J0.102
X-143.57 Y-68.786 Z-1.611 I-0.126 J-0.102
X-143.317 Y-68.582 Z-1.672 I0.126 J0.102
X-143.57 Y-68.786 Z-1.733 I-0.126 J-0.102
X-143.317 Y-68.582 Z-1.794 I0.126 J0.102
X-143.57 Y-68.786 Z-1.856 I-0.126 J-0.102
X-143.317 Y-68.582 Z-1.917 I0.126 J0.102
X-143.57 Y-68.786 Z-1.978 I-0.126 J-0.102
X-143.317 Y-68.582 Z-2.039 I0.126 J0.102
X-143.57 Y-68.786 Z-2.1 I-0.126 J-0.102
X-143.317 Y-68.582 Z-2.161 I0.126 J0.102
X-143.57 Y-68.786 Z-2.222 I-0.126 J-0.102
X-143.317 Y-68.582 Z-2.283 I0.126 J0.102
X-143.57 Y-68.786 Z-2.344 I-0.126 J-0.102
X-143.317 Y-68.582 Z-2.406 I0.126 J0.102
X-143.57 Y-68.786 Z-2.467 I-0.126 J-0.102
X-143.317 Y-68.582 Z-2.528 I0.126 J0.102
X-143.57 Y-68.786 Z-2.589 I-0.126 J-0.102
X-143.317 Y-68.582 Z-2.65 I0.126 J0.102
X-143.57 Y-68.786 Z-2.711 I-0.126 J-0.102
X-143.317 Y-68.582 Z-2.772 I0.126 J0.102
X-143.57 Y-68.786 Z-2.833 I-0.126 J-0.102
X-143.317 Y-68.582 Z-2.894 I0.126 J0.102
X-143.57 Y-68.786 Z-2.956 I-0.126 J-0.102
X-143.317 Y-68.582 Z-3.017 I0.126 J0.102
X-143.57 Y-68.786 Z-3.078 I-0.126 J-0.102
X-143.317 Y-68.582 Z-3.139 I0.126 J0.102
X-143.57 Y-68.786 Z-3.2 I-0.126 J-0.102
X-143.317 Y-68.582 Z-3.261 I0.126 J0.102
X-143.57 Y-68.786 Z-3.322 I-0.126 J-0.102
X-143.317 Y-68.582 Z-3.383 I0.126 J0.102
X-143.57 Y-68.786 Z-3.444 I-0.126 J-0.102
X-143.317 Y-68.582 Z-3.506 I0.126 J0.102
X-143.57 Y-68.786 Z-3.567 I-0.126 J-0.102
X-143.317 Y-68.582 Z-3.628 I0.126 J0.102
X-143.57 Y-68.786 Z-3.689 I-0.126 J-0.102
X-143.317 Y-68.582 Z-3.75 I0.126 J0.102
X-143.57 Y-68.786 Z-3.811 I-0.126 J-0.102
X-143.317 Y-68.582 Z-3.872 I0.126 J0.102
X-143.57 Y-68.786 Z-3.933 I-0.126 J-0.102
X-143.317 Y-68.582 Z-3.994 I0.126 J0.102
X-143.57 Y-68.786 Z-4.056 I-0.126 J-0.102
X-143.317 Y-68.582 Z-4.117 I0.126 J0.102
X-143.57 Y-68.786 Z-4.178 I-0.126 J-0.102
X-143.317 Y-68.582 Z-4.239 I0.126 J0.102
X-143.57 Y-68.786 Z-4.3 I-0.126 J-0.102
X-143.317 Y-68.582 Z-4.361 I0.126 J0.102
X-143.57 Y-68.786 Z-4.422 I-0.126 J-0.102
X-143.317 Y-68.582 Z-4.483 I0.126 J0.102
X-143.57 Y-68.786 Z-4.544 I-0.126 J-0.102
X-143.317 Y-68.582 Z-4.606 I0.126 J0.102
X-143.57 Y-68.786 Z-4.667 I-0.126 J-0.102
X-143.317 Y-68.582 Z-4.728 I0.126 J0.102
X-143.57 Y-68.786 Z-4.789 I-0.126 J-0.102
X-143.317 Y-68.582 Z-4.85 I0.126 J0.102
X-143.57 Y-68.786 Z-4.911 I-0.126 J-0.102
X-143.317 Y-68.582 Z-4.972 I0.126 J0.102
X-143.57 Y-68.786 Z-5.033 I-0.126 J-0.102
X-143.317 Y-68.582 Z-5.094 I0.126 J0.102
X-143.57 Y-68.786 Z-5.156 I-0.126 J-0.102
X-143.317 Y-68.582 Z-5.217 I0.126 J0.102
X-143.57 Y-68.786 Z-5.278 I-0.126 J-0.102
X-143.317 Y-68.582 Z-5.339 I0.126 J0.102
X-143.57 Y-68.786 Z-5.4 I-0.126 J-0.102
X-143.317 Y-68.582 Z-5.461 I0.126 J0.102
X-143.57 Y-68.786 Z-5.522 I-0.126 J-0.102
X-143.317 Y-68.582 Z-5.583 I0.126 J0.102
X-143.57 Y-68.786 Z-5.644 I-0.126 J-0.102
X-143.317 Y-68.582 Z-5.706 I0.126 J0.102
X-143.57 Y-68.786 Z-5.767 I-0.126 J-0.102
X-143.317 Y-68.582 Z-5.828 I0.126 J0.102
X-143.57 Y-68.786 Z-5.889 I-0.126 J-0.102
X-143.317 Y-68.582 Z-5.95 I0.126 J0.102
X-143.57 Y-68.786 Z-6.011 I-0.126 J-0.102
X-143.317 Y-68.582 Z-6.072 I0.126 J0.102
X-143.57 Y-68.786 Z-6.133 I-0.126 J-0.102
X-143.317 Y-68.582 Z-6.194 I0.126 J0.102
X-143.57 Y-68.786 Z-6.256 I-0.126 J-0.102
X-143.317 Y-68.582 Z-6.317 I0.126 J0.102
X-143.57 Y-68.786 Z-6.378 I-0.126 J-0.102
X-143.317 Y-68.582 Z-6.439 I0.126 J0.102
X-143.57 Y-68.786 Z-6.5 I-0.126 J-0.102
X-143.317 Y-68.582 Z-6.561 I0.126 J0.102
X-143.57 Y-68.786 Z-6.622 I-0.126 J-0.102
X-143.317 Y-68.582 Z-6.683 I0.126 J0.102
X-143.57 Y-68.786 Z-6.744 I-0.126 J-0.102
X-143.317 Y-68.582 Z-6.806 I0.126 J0.102
X-143.57 Y-68.786 Z-6.867 I-0.126 J-0.102
X-143.317 Y-68.582 Z-6.928 I0.126 J0.102
X-143.57 Y-68.786 Z-6.989 I-0.126 J-0.102
X-143.317 Y-68.582 Z-7.05 I0.126 J0.102
X-143.57 Y-68.786 Z-7.111 I-0.126 J-0.102
X-143.317 Y-68.582 Z-7.172 I0.126 J0.102
X-143.57 Y-68.786 Z-7.233 I-0.126 J-0.102
X-143.317 Y-68.582 Z-7.294 I0.126 J0.102
X-143.57 Y-68.786 Z-7.356 I-0.126 J-0.102
X-143.317 Y-68.582 Z-7.417 I0.126 J0.102
X-143.57 Y-68.786 Z-7.478 I-0.126 J-0.102
X-143.317 Y-68.582 Z-7.539 I0.126 J0.102
X-143.57 Y-68.786 Z-7.6 I-0.126 J-0.102
X-143.317 Y-68.582 Z-7.661 I0.126 J0.102
X-143.57 Y-68.786 Z-7.722 I-0.126 J-0.102
X-143.317 Y-68.582 Z-7.783 I0.126 J0.102
X-143.57 Y-68.786 Z-7.844 I-0.126 J-0.102
X-143.317 Y-68.582 Z-7.906 I0.126 J0.102
X-143.57 Y-68.786 Z-7.967 I-0.126 J-0.102
X-143.317 Y-68.582 Z-8.028 I0.126 J0.102
X-143.57 Y-68.786 Z-8.089 I-0.126 J-0.102
X-143.317 Y-68.582 Z-8.15 I0.126 J0.102
X-143.57 Y-68.786 Z-8.211 I-0.126 J-0.102
X-143.317 Y-68.582 Z-8.272 I0.126 J0.102
X-143.57 Y-68.786 Z-8.333 I-0.126 J-0.102
X-143.317 Y-68.582 Z-8.394 I0.126 J0.102
X-143.57 Y-68.786 Z-8.456 I-0.126 J-0.102
X-143.317 Y-68.582 Z-8.517 I0.126 J0.102
X-143.57 Y-68.786 Z-8.578 I-0.126 J-0.102
X-143.317 Y-68.582 Z-8.639 I0.126 J0.102
X-143.57 Y-68.786 Z-8.7 I-0.126 J-0.102
X-143.317 Y-68.582 Z-8.761 I0.126 J0.102
X-143.57 Y-68.786 Z-8.822 I-0.126 J-0.102
X-143.317 Y-68.582 Z-8.883 I0.126 J0.102
X-143.57 Y-68.786 Z-8.944 I-0.126 J-0.102
X-143.317 Y-68.582 Z-9.006 I0.126 J0.102
X-143.57 Y-68.786 Z-9.067 I-0.126 J-0.102
X-143.317 Y-68.582 Z-9.128 I0.126 J0.102
X-143.57 Y-68.786 Z-9.189 I-0.126 J-0.102
X-143.317 Y-68.582 Z-9.25 I0.126 J0.102
X-143.605 Y-68.701 Z-9.3 I-0.126 J-0.102
X-143.282 Y-68.666 I0.162 J0.017
X-143.605 Y-68.701 I-0.162 J-0.017
G1 X-143.595 Y-68.732
X-143.575 Y-68.756
X-143.547 Y-68.771
X-143.515 Y-68.773
X-143.358 Y-68.756
Z5
X-143.434 Y-102.572
Z0.683
Z-1
X-143.558 Y-102.672
X-143.578 Y-102.696
X-143.587 Y-102.727
X-143.584 Y-102.758
X-143.57 Y-102.786
G3 X-143.317 Y-102.582 Z-1.061 I0.126 J0.102
X-143.57 Y-102.786 Z-1.122 I-0.126 J-0.102
X-143.317 Y-102.582 Z-1.183 I0.126 J0.102
X-143.57 Y-102.786 Z-1.244 I-0.126 J-0.102
X-143.317 Y-102.582 Z-1.306 I0.126 J0.102
X-143.57 Y-102.786 Z-1.367 I-0.126 J-0.102
X-143.317 Y-102.582 Z-1.428 I0.126 J0.102
X-143.57 Y-102.786 Z-1.489 I-0.126 J-0.102
X-143.317 Y-102.582 Z-1.55 I0.126 J0.102
X-143.57 Y-102.786 Z-1.611 I-0.126 J-0.102
X-143.317 Y-102.582 Z-1.672 I0.126 J0.102
X-143.57 Y-102.786 Z-1.733 I-0.126 J-0.102
X-143.317 Y-102.582 Z-1.794 I0.126 J0.102
X-143.57 Y-102.786 Z-1.856 I-0.126 J-0.102
X-143.317 Y-102.582 Z-1.917 I0.126 J0.102
X-143.57 Y-102.786 Z-1.978 I-0.126 J-0.102
X-143.317 Y-102.582 Z-2.039 I0.126 J0.102
X-143.57 Y-102.786 Z-2.1 I-0.126 J-0.102
X-143.317 Y-102.582 Z-2.161 I0.126 J0.102
X-143.57 Y-102.786 Z-2.222 I-0.126 J-0.102
X-143.317 Y-102.582 Z-2.283 I0.126 J0.102
X-143.57 Y-102.786 Z-2.344 I-0.126 J-0.102
X-143.317 Y-102.582 Z-2.406 I0.126 J0.102
X-143.57 Y-102.786 Z-2.467 I-0.126 J-0.102
X-143.317 Y-102.582 Z-2.528 I0.126 J0.102
X-143.57 Y-102.786 Z-2.589 I-0.126 J-0.102
X-143.317 Y-102.582 Z-2.65 I0.126 J0.102
X-143.57 Y-102.786 Z-2.711 I-0.126 J-0.102
X-143.317 Y-102.582 Z-2.772 I0.126 J0.102
X-143.57 Y-102.786 Z-2.833 I-0.126 J-0.102
X-143.317 Y-102.582 Z-2.894 I0.126 J0.102
X-143.57 Y-102.786 Z-2.956 I-0.126 J-0.102
X-143.317 Y-102.582 Z-3.017 I0.126 J0.102
X-143.57 Y-102.786 Z-3.078 I-0.126 J-0.102
X-143.317 Y-102.582 Z-3.139 I0.126 J0.102
X-143.57 Y-102.786 Z-3.2 I-0.126 J-0.102
X-143.317 Y-102.582 Z-3.261 I0.126 J0.102
X-143.57 Y-102.786 Z-3.322 I-0.126 J-0.102
X-143.317 Y-102.582 Z-3.383 I0.126 J0.102
X-143.57 Y-102.786 Z-3.444 I-0.126 J-0.102
X-143.317 Y-102.582 Z-3.506 I0.126 J0.102
X-143.57 Y-102.786 Z-3.567 I-0.126 J-0.102
X-143.317 Y-102.582 Z-3.628 I0.126 J0.102
X-143.57 Y-102.786 Z-3.689 I-0.126 J-0.102
X-143.317 Y-102.582 Z-3.75 I0.126 J0.102
X-143.57 Y-102.786 Z-3.811 I-0.126 J-0.102
X-143.317 Y-102.582 Z-3.872 I0.126 J0.102
X-143.57 Y-102.786 Z-3.933 I-0.126 J-0.102
X-143.317 Y-102.582 Z-3.994 I0.126 J0.102
X-143.57 Y-102.786 Z-4.056 I-0.126 J-0.102
X-143.317 Y-102.582 Z-4.117 I0.126 J0.102
X-143.57 Y-102.786 Z-4.178 I-0.126 J-0.102
X-143.317 Y-102.582 Z-4.239 I0.126 J0.102
X-143.57 Y-102.786 Z-4.3 I-0.126 J-0.102
X-143.317 Y-102.582 Z-4.361 I0.126 J0.102
X-143.57 Y-102.786 Z-4.422 I-0.126 J-0.102
X-143.317 Y-102.582 Z-4.483 I0.126 J0.102
X-143.57 Y-102.786 Z-4.544 I-0.126 J-0.102
X-143.317 Y-102.582 Z-4.606 I0.126 J0.102
X-143.57 Y-102.786 Z-4.667 I-0.126 J-0.102
X-143.317 Y-102.582 Z-4.728 I0.126 J0.102
X-143.57 Y-102.786 Z-4.789 I-0.126 J-0.102
X-143.317 Y-102.582 Z-4.85 I0.126 J0.102
X-143.57 Y-102.786 Z-4.911 I-0.126 J-0.102
X-143.317 Y-102.582 Z-4.972 I0.126 J0.102
X-143.57 Y-102.786 Z-5.033 I-0.126 J-0.102
X-143.317 Y-102.582 Z-5.094 I0.126 J0.102
X-143.57 Y-102.786 Z-5.156 I-0.126 J-0.102
X-143.317 Y-102.582 Z-5.217 I0.126 J0.102
X-143.57 Y-102.786 Z-5.278 I-0.126 J-0.102
X-143.317 Y-102.582 Z-5.339 I0.126 J0.102
X-143.57 Y-102.786 Z-5.4 I-0.126 J-0.102
X-143.317 Y-102.582 Z-5.461 I0.126 J0.102
X-143.57 Y-102.786 Z-5.522 I-0.126 J-0.102
X-143.317 Y-102.582 Z-5.583 I0.126 J0.102
X-143.57 Y-102.786 Z-5.644 I-0.126 J-0.102
X-143.317 Y-102.582 Z-5.706 I0.126 J0.102
X-143.57 Y-102.786 Z-5.767 I-0.126 J-0.102
X-143.317 Y-102.582 Z-5.828 I0.126 J0.102
X-143.57 Y-102.786 Z-5.889 I-0.126 J-0.102
X-143.317 Y-102.582 Z-5.95 I0.126 J0.102
X-143.57 Y-102.786 Z-6.011 I-0.126 J-0.102
X-143.317 Y-102.582 Z-6.072 I0.126 J0.102
X-143.57 Y-102.786 Z-6.133 I-0.126 J-0.102
X-143.317 Y-102.582 Z-6.194 I0.126 J0.102
X-143.57 Y-102.786 Z-6.256 I-0.126 J-0.102
X-143.317 Y-102.582 Z-6.317 I0.126 J0.102
X-143.57 Y-102.786 Z-6.378 I-0.126 J-0.102
X-143.317 Y-102.582 Z-6.439 I0.126 J0.102
X-143.57 Y-102.786 Z-6.5 I-0.126 J-0.102
X-143.317 Y-102.582 Z-6.561 I0.126 J0.102
X-143.57 Y-102.786 Z-6.622 I-0.126 J-0.102
X-143.317 Y-102.582 Z-6.683 I0.126 J0.102
X-143.57 Y-102.786 Z-6.744 I-0.126 J-0.102
X-143.317 Y-102.582 Z-6.806 I0.126 J0.102
X-143.57 Y-102.786 Z-6.867 I-0.126 J-0.102
X-143.317 Y-102.582 Z-6.928 I0.126 J0.102
X-143.57 Y-102.786 Z-6.989 I-0.126 J-0.102
X-143.317 Y-102.582 Z-7.05 I0.126 J0.102
X-143.57 Y-102.786 Z-7.111 I-0.126 J-0.102
X-143.317 Y-102.582 Z-7.172 I0.126 J0.102
X-143.57 Y-102.786 Z-7.233 I-0.126 J-0.102
X-143.317 Y-102.582 Z-7.294 I0.126 J0.102
X-143.57 Y-102.786 Z-7.356 I-0.126 J-0.102
X-143.317 Y-102.582 Z-7.417 I0.126 J0.102
X-143.57 Y-102.786 Z-7.478 I-0.126 J-0.102
X-143.317 Y-102.582 Z-7.539 I0.126 J0.102
X-143.57 Y-102.786 Z-7.6 I-0.126 J-0.102
X-143.317 Y-102.582 Z-7.661 I0.126 J0.102
X-143.57 Y-102.786 Z-7.722 I-0.126 J-0.102
X-143.317 Y-102.582 Z-7.783 I0.126 J0.102
X-143.57 Y-102.786 Z-7.844 I-0.126 J-0.102
X-143.317 Y-102.582 Z-7.906 I0.126 J0.102
X-143.57 Y-102.786 Z-7.967 I-0.126 J-0.102
X-143.317 Y-102.582 Z-8.028 I0.126 J0.102
X-143.57 Y-102.786 Z-8.089 I-0.126 J-0.102
X-143.317 Y-102.582 Z-8.15 I0.126 J0.102
X-143.57 Y-102.786 Z-8.211 I-0.126 J-0.102
X-143.317 Y-102.582 Z-8.272 I0.126 J0.102
X-143.57 Y-102.786 Z-8.333 I-0.126 J-0.102
X-143.317 Y-102.582 Z-8.394 I0.126 J0.102
X-143.57 Y-102.786 Z-8.456 I-0.126 J-0.102
X-143.317 Y-102.582 Z-8.517 I0.126 J0.102
X-143.57 Y-102.786 Z-8.578 I-0.126 J-0.102
X-143.317 Y-102.582 Z-8.639 I0.126 J0.102
X-143.57 Y-102.786 Z-8.7 I-0.126 J-0.102
X-143.317 Y-102.582 Z-8.761 I0.126 J0.102
X-143.57 Y-102.786 Z-8.822 I-0.126 J-0.102
X-143.317 Y-102.582 Z-8.883 I0.126 J0.102
X-143.57 Y-102.786 Z-8.944 I-0.126 J-0.102
X-143.317 Y-102.582 Z-9.006 I0.126 J0.102
X-143.57 Y-102.786 Z-9.067 I-0.126 J-0.102
X-143.317 Y-102.582 Z-9.128 I0.126 J0.102
X-143.57 Y-102.786 Z-9.189 I-0.126 J-0.102
X-143.317 Y-102.582 Z-9.25 I0.126 J0.102
X-143.605 Y-102.701 Z-9.3 I-0.126 J-0.102
X-143.282 Y-102.666 I0.162 J0.017
X-143.605 Y-102.701 I-0.162 J-0.017
G1 X-143.595 Y-102.732
X-143.575 Y-102.756
X-143.547 Y-102.771
X-143.515 Y-102.773
X-143.358 Y-102.756
Z5
X-161.434 Y-102.633
Z0.683
Z-1
X-161.558 Y-102.733
X-161.578 Y-102.757
X-161.587 Y-102.788
X-161.584 Y-102.819
X-161.57 Y-102.847
G3 X-161.317 Y-102.643 Z-1.061 I0.126 J0.102
X-161.57 Y-102.847 Z-1.122 I-0.126 J-0.102
X-161.317 Y-102.643 Z-1.183 I0.126 J0.102
X-161.57 Y-102.847 Z-1.244 I-0.126 J-0.102
X-161.317 Y-102.643 Z-1.306 I0.126 J0.102
X-161.57 Y-102.847 Z-1.367 I-0.126 J-0.102
X-161.317 Y-102.643 Z-1.428 I0.126 J0.102
X-161.57 Y-102.847 Z-1.489 I-0.126 J-0.102
X-161.317 Y-102.643 Z-1.55 I0.126 J0.102
X-161.57 Y-102.847 Z-1.611 I-0.126 J-0.102
X-161.317 Y-102.643 Z-1.672 I0.126 J0.102
X-161.57 Y-102.847 Z-1.733 I-0.126 J-0.102
X-161.317 Y-102.643 Z-1.794 I0.126 J0.102
X-161.57 Y-102.847 Z-1.856 I-0.126 J-0.102
X-161.317 Y-102.643 Z-1.917 I0.126 J0.102
X-161.57 Y-102.847 Z-1.978 I-0.126 J-0.102
X-161.317 Y-102.643 Z-2.039 I0.126 J0.102
X-161.57 Y-102.847 Z-2.1 I-0.126 J-0.102
X-161.317 Y-102.643 Z-2.161 I0.126 J0.102
X-161.57 Y-102.847 Z-2.222 I-0.126 J-0.102
X-161.317 Y-102.643 Z-2.283 I0.126 J0.102
X-161.57 Y-102.847 Z-2.344 I-0.126 J-0.102
X-161.317 Y-102.643 Z-2.406 I0.126 J0.102
X-161.57 Y-102.847 Z-2.467 I-0.126 J-0.102
X-161.317 Y-102.643 Z-2.528 I0.126 J0.102
X-161.57 Y-102.847 Z-2.589 I-0.126 J-0.102
X-161.317 Y-102.643 Z-2.65 I0.126 J0.102
X-161.57 Y-102.847 Z-2.711 I-0.126 J-0.102
X-161.317 Y-102.643 Z-2.772 I0.126 J0.102
X-161.57 Y-102.847 Z-2.833 I-0.126 J-0.102
X-161.317 Y-102.643 Z-2.894 I0.126 J0.102
X-161.57 Y-102.847 Z-2.956 I-0.126 J-0.102
X-161.317 Y-102.643 Z-3.017 I0.126 J0.102
X-161.57 Y-102.847 Z-3.078 I-0.126 J-0.102
X-161.317 Y-102.643 Z-3.139 I0.126 J0.102
X-161.57 Y-102.847 Z-3.2 I-0.126 J-0.102
X-161.317 Y-102.643 Z-3.261 I0.126 J0.102
X-161.57 Y-102.847 Z-3.322 I-0.126 J-0.102
X-161.317 Y-102.643 Z-3.383 I0.126 J0.102
X-161.57 Y-102.847 Z-3.444 I-0.126 J-0.102
X-161.317 Y-102.643 Z-3.506 I0.126 J0.102
X-161.57 Y-102.847 Z-3.567 I-0.126 J-0.102
X-161.317 Y-102.643 Z-3.628 I0.126 J0.102
X-161.57 Y-102.847 Z-3.689 I-0.126 J-0.102
X-161.317 Y-102.643 Z-3.75 I0.126 J0.102
X-161.57 Y-102.847 Z-3.811 I-0.126 J-0.102
X-161.317 Y-102.643 Z-3.872 I0.126 J0.102
X-161.57 Y-102.847 Z-3.933 I-0.126 J-0.102
X-161.317 Y-102.643 Z-3.994 I0.126 J0.102
X-161.57 Y-102.847 Z-4.056 I-0.126 J-0.102
X-161.317 Y-102.643 Z-4.117 I0.126 J0.102
X-161.57 Y-102.847 Z-4.178 I-0.126 J-0.102
X-161.317 Y-102.643 Z-4.239 I0.126 J0.102
X-161.57 Y-102.847 Z-4.3 I-0.126 J-0.102
X-161.317 Y-102.643 Z-4.361 I0.126 J0.102
X-161.57 Y-102.847 Z-4.422 I-0.126 J-0.102
X-161.317 Y-102.643 Z-4.483 I0.126 J0.102
X-161.57 Y-102.847 Z-4.544 I-0.126 J-0.102
X-161.317 Y-102.643 Z-4.606 I0.126 J0.102
X-161.57 Y-102.847 Z-4.667 I-0.126 J-0.102
X-161.317 Y-102.643 Z-4.728 I0.126 J0.102
X-161.57 Y-102.847 Z-4.789 I-0.126 J-0.102
X-161.317 Y-102.643 Z-4.85 I0.126 J0.102
X-161.57 Y-102.847 Z-4.911 I-0.126 J-0.102
X-161.317 Y-102.643 Z-4.972 I0.126 J0.102
X-161.57 Y-102.847 Z-5.033 I-0.126 J-0.102
X-161.317 Y-102.643 Z-5.094 I0.126 J0.102
X-161.57 Y-102.847 Z-5.156 I-0.126 J-0.102
X-161.317 Y-102.643 Z-5.217 I0.126 J0.102
X-161.57 Y-102.847 Z-5.278 I-0.126 J-0.102
X-161.317 Y-102.643 Z-5.339 I0.126 J0.102
X-161.57 Y-102.847 Z-5.4 I-0.126 J-0.102
X-161.317 Y-102.643 Z-5.461 I0.126 J0.102
X-161.57 Y-102.847 Z-5.522 I-0.126 J-0.102
X-161.317 Y-102.643 Z-5.583 I0.126 J0.102
X-161.57 Y-102.847 Z-5.644 I-0.126 J-0.102
X-161.317 Y-102.643 Z-5.706 I0.126 J0.102
X-161.57 Y-102.847 Z-5.767 I-0.126 J-0.102
X-161.317 Y-102.643 Z-5.828 I0.126 J0.102
X-161.57 Y-102.847 Z-5.889 I-0.126 J-0.102
X-161.317 Y-102.643 Z-5.95 I0.126 J0.102
X-161.57 Y-102.847 Z-6.011 I-0.126 J-0.102
X-161.317 Y-102.643 Z-6.072 I0.126 J0.102
X-161.57 Y-102.847 Z-6.133 I-0.126 J-0.102
X-161.317 Y-102.643 Z-6.194 I0.126 J0.102
X-161.57 Y-102.847 Z-6.256 I-0.126 J-0.102
X-161.317 Y-102.643 Z-6.317 I0.126 J0.102
X-161.57 Y-102.847 Z-6.378 I-0.126 J-0.102
X-161.317 Y-102.643 Z-6.439 I0.126 J0.102
X-161.57 Y-102.847 Z-6.5 I-0.126 J-0.102
X-161.317 Y-102.643 Z-6.561 I0.126 J0.102
X-161.57 Y-102.847 Z-6.622 I-0.126 J-0.102
X-161.317 Y-102.643 Z-6.683 I0.126 J0.102
X-161.57 Y-102.847 Z-6.744 I-0.126 J-0.102
X-161.317 Y-102.643 Z-6.806 I0.126 J0.102
X-161.57 Y-102.847 Z-6.867 I-0.126 J-0.102
X-161.317 Y-102.643 Z-6.928 I0.126 J0.102
X-161.57 Y-102.847 Z-6.989 I-0.126 J-0.102
X-161.317 Y-102.643 Z-7.05 I0.126 J0.102
X-161.57 Y-102.847 Z-7.111 I-0.126 J-0.102
X-161.317 Y-102.643 Z-7.172 I0.126 J0.102
X-161.57 Y-102.847 Z-7.233 I-0.126 J-0.102
X-161.317 Y-102.643 Z-7.294 I0.126 J0.102
X-161.57 Y-102.847 Z-7.356 I-0.126 J-0.102
X-161.317 Y-102.643 Z-7.417 I0.126 J0.102
X-161.57 Y-102.847 Z-7.478 I-0.126 J-0.102
X-161.317 Y-102.643 Z-7.539 I0.126 J0.102
X-161.57 Y-102.847 Z-7.6 I-0.126 J-0.102
X-161.317 Y-102.643 Z-7.661 I0.126 J0.102
X-161.57 Y-102.847 Z-7.722 I-0.126 J-0.102
X-161.317 Y-102.643 Z-7.783 I0.126 J0.102
X-161.57 Y-102.847 Z-7.844 I-0.126 J-0.102
X-161.317 Y-102.643 Z-7.906 I0.126 J0.102
X-161.57 Y-102.847 Z-7.967 I-0.126 J-0.102
X-161.317 Y-102.643 Z-8.028 I0.126 J0.102
X-161.57 Y-102.847 Z-8.089 I-0.126 J-0.102
X-161.317 Y-102.643 Z-8.15 I0.126 J0.102
X-161.57 Y-102.847 Z-8.211 I-0.126 J-0.102
X-161.317 Y-102.643 Z-8.272 I0.126 J0.102
X-161.57 Y-102.847 Z-8.333 I-0.126 J-0.102
X-161.317 Y-102.643 Z-8.394 I0.126 J0.102
X-161.57 Y-102.847 Z-8.456 I-0.126 J-0.102
X-161.317 Y-102.643 Z-8.517 I0.126 J0.102
X-161.57 Y-102.847 Z-8.578 I-0.126 J-0.102
X-161.317 Y-102.643 Z-8.639 I0.126 J0.102
X-161.57 Y-102.847 Z-8.7 I-0.126 J-0.102
X-161.317 Y-102.643 Z-8.761 I0.126 J0.102
X-161.57 Y-102.847 Z-8.822 I-0.126 J-0.102
X-161.317 Y-102.643 Z-8.883 I0.126 J0.102
X-161.57 Y-102.847 Z-8.944 I-0.126 J-0.102
X-161.317 Y-102.643 Z-9.006 I0.126 J0.102
X-161.57 Y-102.847 Z-9.067 I-0.126 J-0.102
X-161.317 Y-102.643 Z-9.128 I0.126 J0.102
X-161.57 Y-102.847 Z-9.189 I-0.126 J-0.102
X-161.317 Y-102.643 Z-9.25 I0.126 J0.102
X-161.605 Y-102.763 Z-9.3 I-0.126 J-0.102
X-161.282 Y-102.728 I0.162 J0.017
X-161.605 Y-102.763 I-0.162 J-0.017
G1 X-161.595 Y-102.793
X-161.575 Y-102.817
X-161.547 Y-102.832
X-161.515 Y-102.835
X-161.357 Y-102.818
Z5
X-222.021 Y-85.583
Z1
Z-0.683
X-222.014 Y-85.578 Z-0.753
X-221.996 Y-85.563 Z-0.82
X-221.967 Y-85.539 Z-0.88
X-221.928 Y-85.508 Z-0.931
X-221.881 Y-85.47 Z-0.969
X-221.829 Y-85.428 Z-0.992
X-221.774 Y-85.383 Z-1
X-221.65 Y-85.283
G3 X-221.603 Y-84.837 I-0.2 J0.247
X-226.13 Y-88.503 Z-1.157 I-2.263 J-1.833
X-221.603 Y-84.837 Z-1.314 I2.263 J1.833
X-226.13 Y-88.503 Z-1.471 I-2.263 J-1.833
X-221.603 Y-84.837 Z-1.629 I2.263 J1.833
X-226.13 Y-88.503 Z-1.786 I-2.263 J-1.833
X-221.603 Y-84.837 Z-1.943 I2.263 J1.833
X-226.13 Y-88.503 Z-2.1 I-2.263 J-1.833
X-221.603 Y-84.837 Z-2.257 I2.263 J1.833
X-226.13 Y-88.503 Z-2.414 I-2.263 J-1.833
X-221.603 Y-84.837 Z-2.571 I2.263 J1.833
X-226.13 Y-88.503 Z-2.729 I-2.263 J-1.833
X-221.603 Y-84.837 Z-2.886 I2.263 J1.833
X-226.13 Y-88.503 Z-3.043 I-2.263 J-1.833
X-221.603 Y-84.837 Z-3.2 I2.263 J1.833
X-226.13 Y-88.503 Z-3.357 I-2.263 J-1.833
X-221.603 Y-84.837 Z-3.514 I2.263 J1.833
X-226.13 Y-88.503 Z-3.671 I-2.263 J-1.833
X-221.603 Y-84.837 Z-3.829 I2.263 J1.833
X-226.13 Y-88.503 Z-3.986 I-2.263 J-1.833
X-221.603 Y-84.837 Z-4.143 I2.263 J1.833
X-226.13 Y-88.503 Z-4.3 I-2.263 J-1.833
X-221.603 Y-84.837 Z-4.457 I2.263 J1.833
X-226.13 Y-88.503 Z-4.614 I-2.263 J-1.833
X-221.603 Y-84.837 Z-4.771 I2.263 J1.833
X-226.13 Y-88.503 Z-4.929 I-2.263 J-1.833
X-221.603 Y-84.837 Z-5.086 I2.263 J1.833
X-226.13 Y-88.503 Z-5.243 I-2.263 J-1.833
X-221.603 Y-84.837 Z-5.4 I2.263 J1.833
X-226.13 Y-88.503 Z-5.557 I-2.263 J-1.833
X-221.603 Y-84.837 Z-5.714 I2.263 J1.833
X-226.13 Y-88.503 Z-5.871 I-2.263 J-1.833
X-221.603 Y-84.837 Z-6.029 I2.263 J1.833
X-226.13 Y-88.503 Z-6.186 I-2.263 J-1.833
X-221.603 Y-84.837 Z-6.343 I2.263 J1.833
X-226.13 Y-88.503 Z-6.5 I-2.263 J-1.833
X-221.603 Y-84.837 Z-6.657 I2.263 J1.833
X-226.13 Y-88.503 Z-6.814 I-2.263 J-1.833
X-221.603 Y-84.837 Z-6.971 I2.263 J1.833
X-226.13 Y-88.503 Z-7.129 I-2.263 J-1.833
X-221.603 Y-84.837 Z-7.286 I2.263 J1.833
X-226.13 Y-88.503 Z-7.443 I-2.263 J-1.833
X-221.603 Y-84.837 Z-7.6 I2.263 J1.833
X-226.13 Y-88.503 Z-7.757 I-2.263 J-1.833
X-221.603 Y-84.837 Z-7.914 I2.263 J1.833
X-226.13 Y-88.503 Z-8.071 I-2.263 J-1.833
X-221.603 Y-84.837 Z-8.229 I2.263 J1.833
X-226.13 Y-88.503 Z-8.386 I-2.263 J-1.833
X-221.603 Y-84.837 Z-8.543 I2.263 J1.833
X-226.13 Y-88.503 Z-8.7 I-2.263 J-1.833
X-221.603 Y-84.837 Z-8.857 I2.263 J1.833
X-226.13 Y-88.503 Z-9.014 I-2.263 J-1.833
X-221.603 Y-84.837 Z-9.171 I2.263 J1.833
X-226.762 Y-86.986 Z-9.3 I-2.263 J-1.833
X-220.972 Y-86.353 I2.895 J0.316
X-226.762 Y-86.986 I-2.895 J-0.316
X-226.412 Y-87.267 I0.316 J0.034
G1 X-226.254 Y-87.25
X-226.184 Y-87.242 Z-9.292
X-226.117 Y-87.235 Z-9.269
X-226.057 Y-87.228 Z-9.231
X-226.007 Y-87.223 Z-9.18
X-225.97 Y-87.219 Z-9.12
X-225.947 Y-87.216 Z-9.053
X-225.939 Y-87.215 Z-8.983
Z5
X-207.409 Y-85.847
Z1
Z-0.683
X-207.403 Y-85.842 Z-0.753
X-207.385 Y-85.827 Z-0.82
X-207.355 Y-85.803 Z-0.88
X-207.316 Y-85.772 Z-0.931
X-207.269 Y-85.734 Z-0.969
X-207.217 Y-85.691 Z-0.992
X-207.162 Y-85.647 Z-1
X-207.039 Y-85.547
G3 X-206.992 Y-85.1 I-0.2 J0.247
X-210.742 Y-88.137 Z-1.14 I-1.875 J-1.518
X-206.992 Y-85.1 Z-1.279 I1.875 J1.518
X-210.742 Y-88.137 Z-1.419 I-1.875 J-1.518
X-206.992 Y-85.1 Z-1.559 I1.875 J1.518
X-210.742 Y-88.137 Z-1.698 I-1.875 J-1.518
X-206.992 Y-85.1 Z-1.838 I1.875 J1.518
X-210.742 Y-88.137 Z-1.978 I-1.875 J-1.518
X-206.992 Y-85.1 Z-2.117 I1.875 J1.518
X-210.742 Y-88.137 Z-2.257 I-1.875 J-1.518
X-206.992 Y-85.1 Z-2.397 I1.875 J1.518
X-210.742 Y-88.137 Z-2.537 I-1.875 J-1.518
X-206.992 Y-85.1 Z-2.676 I1.875 J1.518
X-210.742 Y-88.137 Z-2.816 I-1.875 J-1.518
X-206.992 Y-85.1 Z-2.956 I1.875 J1.518
X-210.742 Y-88.137 Z-3.095 I-1.875 J-1.518
X-206.992 Y-85.1 Z-3.235 I1.875 J1.518
X-210.742 Y-88.137 Z-3.375 I-1.875 J-1.518
X-206.992 Y-85.1 Z-3.514 I1.875 J1.518
X-210.742 Y-88.137 Z-3.654 I-1.875 J-1.518
X-206.992 Y-85.1 Z-3.794 I1.875 J1.518
X-210.742 Y-88.137 Z-3.933 I-1.875 J-1.518
X-206.992 Y-85.1 Z-4.073 I1.875 J1.518
X-210.742 Y-88.137 Z-4.213 I-1.875 J-1.518
X-206.992 Y-85.1 Z-4.352 I1.875 J1.518
X-210.742 Y-88.137 Z-4.492 I-1.875 J-1.518
X-206.992 Y-85.1 Z-4.632 I1.875 J1.518
X-210.742 Y-88.137 Z-4.771 I-1.875 J-1.518
X-206.992 Y-85.1 Z-4.911 I1.875 J1.518
X-210.742 Y-88.137 Z-5.051 I-1.875 J-1.518
X-206.992 Y-85.1 Z-5.19 I1.875 J1.518
X-210.742 Y-88.137 Z-5.33 I-1.875 J-1.518
X-206.992 Y-85.1 Z-5.47 I1.875 J1.518
X-210.742 Y-88.137 Z-5.61 I-1.875 J-1.518
X-206.992 Y-85.1 Z-5.749 I1.875 J1.518
X-210.742 Y-88.137 Z-5.889 I-1.875 J-1.518
X-206.992 Y-85.1 Z-6.029 I1.875 J1.518
X-210.742 Y-88.137 Z-6.168 I-1.875 J-1.518
X-206.992 Y-85.1 Z-6.308 I1.875 J1.518
X-210.742 Y-88.137 Z-6.448 I-1.875 J-1.518
X-206.992 Y-85.1 Z-6.587 I1.875 J1.518
X-210.742 Y-88.137 Z-6.727 I-1.875 J-1.518
X-206.992 Y-85.1 Z-6.867 I1.875 J1.518
X-210.742 Y-88.137 Z-7.006 I-1.875 J-1.518
X-206.992 Y-85.1 Z-7.146 I1.875 J1.518
X-210.742 Y-88.137 Z-7.286 I-1.875 J-1.518
X-206.992 Y-85.1 Z-7.425 I1.875 J1.518
X-210.742 Y-88.137 Z-7.565 I-1.875 J-1.518
X-206.992 Y-85.1 Z-7.705 I1.875 J1.518
X-210.742 Y-88.137 Z-7.844 I-1.875 J-1.518
X-206.992 Y-85.1 Z-7.984 I1.875 J1.518
X-210.742 Y-88.137 Z-8.124 I-1.875 J-1.518
X-206.992 Y-85.1 Z-8.264 I1.875 J1.518
X-210.742 Y-88.137 Z-8.403 I-1.875 J-1.518
X-206.992 Y-85.1 Z-8.543 I1.875 J1.518
X-210.742 Y-88.137 Z-8.683 I-1.875 J-1.518
X-206.992 Y-85.1 Z-8.822 I1.875 J1.518
X-210.742 Y-88.137 Z-8.962 I-1.875 J-1.518
X-206.992 Y-85.1 Z-9.102 I1.875 J1.518
X-210.742 Y-88.137 Z-9.241 I-1.875 J-1.518
X-207.861 Y-88.812 Z-9.3 I1.875 J1.518
X-209.873 Y-84.426 I-1.006 J2.193
X-207.861 Y-88.812 I1.006 J-2.193
X-207.705 Y-88.391 I-0.132 J0.289
G1 X-207.771 Y-88.246
X-207.801 Y-88.182 Z-9.292
X-207.829 Y-88.121 Z-9.269
X-207.854 Y-88.066 Z-9.231
X-207.875 Y-88.021 Z-9.18
X-207.89 Y-87.986 Z-9.12
X-207.9 Y-87.965 Z-9.053
X-207.904 Y-87.958 Z-8.983
Z5
X-207.409 Y-51.847
Z1
Z-0.683
X-207.403 Y-51.842 Z-0.753
X-207.385 Y-51.827 Z-0.82
X-207.355 Y-51.803 Z-0.88
X-207.316 Y-51.772 Z-0.931
X-207.269 Y-51.734 Z-0.969
X-207.217 Y-51.691 Z-0.992
X-207.162 Y-51.647 Z-1
X-207.039 Y-51.547
G3 X-206.992 Y-51.1 I-0.2 J0.247
X-210.742 Y-54.137 Z-1.14 I-1.875 J-1.518
X-206.992 Y-51.1 Z-1.279 I1.875 J1.518
X-210.742 Y-54.137 Z-1.419 I-1.875 J-1.518
X-206.992 Y-51.1 Z-1.559 I1.875 J1.518
X-210.742 Y-54.137 Z-1.698 I-1.875 J-1.518
X-206.992 Y-51.1 Z-1.838 I1.875 J1.518
X-210.742 Y-54.137 Z-1.978 I-1.875 J-1.518
X-206.992 Y-51.1 Z-2.117 I1.875 J1.518
X-210.742 Y-54.137 Z-2.257 I-1.875 J-1.518
X-206.992 Y-51.1 Z-2.397 I1.875 J1.518
X-210.742 Y-54.137 Z-2.537 I-1.875 J-1.518
X-206.992 Y-51.1 Z-2.676 I1.875 J1.518
X-210.742 Y-54.137 Z-2.816 I-1.875 J-1.518
X-206.992 Y-51.1 Z-2.956 I1.875 J1.518
X-210.742 Y-54.137 Z-3.095 I-1.875 J-1.518
X-206.992 Y-51.1 Z-3.235 I1.875 J1.518
X-210.742 Y-54.137 Z-3.375 I-1.875 J-1.518
X-206.992 Y-51.1 Z-3.514 I1.875 J1.518
X-210.742 Y-54.137 Z-3.654 I-1.875 J-1.518
X-206.992 Y-51.1 Z-3.794 I1.875 J1.518
X-210.742 Y-54.137 Z-3.933 I-1.875 J-1.518
X-206.992 Y-51.1 Z-4.073 I1.875 J1.518
X-210.742 Y-54.137 Z-4.213 I-1.875 J-1.518
X-206.992 Y-51.1 Z-4.352 I1.875 J1.518
X-210.742 Y-54.137 Z-4.492 I-1.875 J-1.518
X-206.992 Y-51.1 Z-4.632 I1.875 J1.518
X-210.742 Y-54.137 Z-4.771 I-1.875 J-1.518
X-206.992 Y-51.1 Z-4.911 I1.875 J1.518
X-210.742 Y-54.137 Z-5.051 I-1.875 J-1.518
X-206.992 Y-51.1 Z-5.19 I1.875 J1.518
X-210.742 Y-54.137 Z-5.33 I-1.875 J-1.518
X-206.992 Y-51.1 Z-5.47 I1.875 J1.518
X-210.742 Y-54.137 Z-5.61 I-1.875 J-1.518
X-206.992 Y-51.1 Z-5.749 I1.875 J1.518
X-210.742 Y-54.137 Z-5.889 I-1.875 J-1.518
X-206.992 Y-51.1 Z-6.029 I1.875 J1.518
X-210.742 Y-54.137 Z-6.168 I-1.875 J-1.518
X-206.992 Y-51.1 Z-6.308 I1.875 J1.518
X-210.742 Y-54.137 Z-6.448 I-1.875 J-1.518
X-206.992 Y-51.1 Z-6.587 I1.875 J1.518
X-210.742 Y-54.137 Z-6.727 I-1.875 J-1.518
X-206.992 Y-51.1 Z-6.867 I1.875 J1.518
X-210.742 Y-54.137 Z-7.006 I-1.875 J-1.518
X-206.992 Y-51.1 Z-7.146 I1.875 J1.518
X-210.742 Y-54.137 Z-7.286 I-1.875 J-1.518
X-206.992 Y-51.1 Z-7.425 I1.875 J1.518
X-210.742 Y-54.137 Z-7.565 I-1.875 J-1.518
X-206.992 Y-51.1 Z-7.705 I1.875 J1.518
X-210.742 Y-54.137 Z-7.844 I-1.875 J-1.518
X-206.992 Y-51.1 Z-7.984 I1.875 J1.518
X-210.742 Y-54.137 Z-8.124 I-1.875 J-1.518
X-206.992 Y-51.1 Z-8.264 I1.875 J1.518
X-210.742 Y-54.137 Z-8.403 I-1.875 J-1.518
X-206.992 Y-51.1 Z-8.543 I1.875 J1.518
X-210.742 Y-54.137 Z-8.683 I-1.875 J-1.518
X-206.992 Y-51.1 Z-8.822 I1.875 J1.518
X-210.742 Y-54.137 Z-8.962 I-1.875 J-1.518
X-206.992 Y-51.1 Z-9.102 I1.875 J1.518
X-210.742 Y-54.137 Z-9.241 I-1.875 J-1.518
X-207.861 Y-54.812 Z-9.3 I1.875 J1.518
X-209.873 Y-50.426 I-1.006 J2.193
X-207.861 Y-54.812 I1.006 J-2.193
X-207.705 Y-54.391 I-0.132 J0.289
G1 X-207.771 Y-54.246
X-207.801 Y-54.182 Z-9.292
X-207.829 Y-54.121 Z-9.269
X-207.854 Y-54.066 Z-9.231
X-207.875 Y-54.021 Z-9.18
X-207.89 Y-53.986 Z-9.12
X-207.9 Y-53.965 Z-9.053
X-207.904 Y-53.958 Z-8.983
Z5
X-222.021 Y-51.583
Z1
Z-0.683
X-222.014 Y-51.578 Z-0.753
X-221.996 Y-51.563 Z-0.82
X-221.967 Y-51.539 Z-0.88
X-221.928 Y-51.508 Z-0.931
X-221.881 Y-51.47 Z-0.969
X-221.829 Y-51.428 Z-0.992
X-221.774 Y-51.383 Z-1
X-221.65 Y-51.283
G3 X-221.603 Y-50.837 I-0.2 J0.247
X-226.13 Y-54.503 Z-1.157 I-2.263 J-1.833
X-221.603 Y-50.837 Z-1.314 I2.263 J1.833
X-226.13 Y-54.503 Z-1.471 I-2.263 J-1.833
X-221.603 Y-50.837 Z-1.629 I2.263 J1.833
X-226.13 Y-54.503 Z-1.786 I-2.263 J-1.833
X-221.603 Y-50.837 Z-1.943 I2.263 J1.833
X-226.13 Y-54.503 Z-2.1 I-2.263 J-1.833
X-221.603 Y-50.837 Z-2.257 I2.263 J1.833
X-226.13 Y-54.503 Z-2.414 I-2.263 J-1.833
X-221.603 Y-50.837 Z-2.571 I2.263 J1.833
X-226.13 Y-54.503 Z-2.729 I-2.263 J-1.833
X-221.603 Y-50.837 Z-2.886 I2.263 J1.833
X-226.13 Y-54.503 Z-3.043 I-2.263 J-1.833
X-221.603 Y-50.837 Z-3.2 I2.263 J1.833
X-226.13 Y-54.503 Z-3.357 I-2.263 J-1.833
X-221.603 Y-50.837 Z-3.514 I2.263 J1.833
X-226.13 Y-54.503 Z-3.671 I-2.263 J-1.833
X-221.603 Y-50.837 Z-3.829 I2.263 J1.833
X-226.13 Y-54.503 Z-3.986 I-2.263 J-1.833
X-221.603 Y-50.837 Z-4.143 I2.263 J1.833
X-226.13 Y-54.503 Z-4.3 I-2.263 J-1.833
X-221.603 Y-50.837 Z-4.457 I2.263 J1.833
X-226.13 Y-54.503 Z-4.614 I-2.263 J-1.833
X-221.603 Y-50.837 Z-4.771 I2.263 J1.833
X-226.13 Y-54.503 Z-4.929 I-2.263 J-1.833
X-221.603 Y-50.837 Z-5.086 I2.263 J1.833
X-226.13 Y-54.503 Z-5.243 I-2.263 J-1.833
X-221.603 Y-50.837 Z-5.4 I2.263 J1.833
X-226.13 Y-54.503 Z-5.557 I-2.263 J-1.833
X-221.603 Y-50.837 Z-5.714 I2.263 J1.833
X-226.13 Y-54.503 Z-5.871 I-2.263 J-1.833
X-221.603 Y-50.837 Z-6.029 I2.263 J1.833
X-226.13 Y-54.503 Z-6.186 I-2.263 J-1.833
X-221.603 Y-50.837 Z-6.343 I2.263 J1.833
X-226.13 Y-54.503 Z-6.5 I-2.263 J-1.833
X-221.603 Y-50.837 Z-6.657 I2.263 J1.833
X-226.13 Y-54.503 Z-6.814 I-2.263 J-1.833
X-221.603 Y-50.837 Z-6.971 I2.263 J1.833
X-226.13 Y-54.503 Z-7.129 I-2.263 J-1.833
X-221.603 Y-50.837 Z-7.286 I2.263 J1.833
X-226.13 Y-54.503 Z-7.443 I-2.263 J-1.833
X-221.603 Y-50.837 Z-7.6 I2.263 J1.833
X-226.13 Y-54.503 Z-7.757 I-2.263 J-1.833
X-221.603 Y-50.837 Z-7.914 I2.263 J1.833
X-226.13 Y-54.503 Z-8.071 I-2.263 J-1.833
X-221.603 Y-50.837 Z-8.229 I2.263 J1.833
X-226.13 Y-54.503 Z-8.386 I-2.263 J-1.833
X-221.603 Y-50.837 Z-8.543 I2.263 J1.833
X-226.13 Y-54.503 Z-8.7 I-2.263 J-1.833
X-221.603 Y-50.837 Z-8.857 I2.263 J1.833
X-226.13 Y-54.503 Z-9.014 I-2.263 J-1.833
X-221.603 Y-50.837 Z-9.171 I2.263 J1.833
X-226.762 Y-52.986 Z-9.3 I-2.263 J-1.833
X-220.972 Y-52.353 I2.895 J0.316
X-226.762 Y-52.986 I-2.895 J-0.316
X-226.412 Y-53.267 I0.316 J0.034
G1 X-226.254 Y-53.25
X-226.184 Y-53.242 Z-9.292
X-226.117 Y-53.235 Z-9.269
X-226.057 Y-53.228 Z-9.231
X-226.007 Y-53.223 Z-9.18
X-225.97 Y-53.219 Z-9.12
X-225.947 Y-53.216 Z-9.053
X-225.939 Y-53.215 Z-8.983
Z5
X-222.021 Y-17.583
Z1
Z-0.683
X-222.014 Y-17.578 Z-0.753
X-221.996 Y-17.563 Z-0.82
X-221.967 Y-17.539 Z-0.88
X-221.928 Y-17.508 Z-0.931
X-221.881 Y-17.47 Z-0.969
X-221.829 Y-17.428 Z-0.992
X-221.774 Y-17.383 Z-1
X-221.65 Y-17.283
G3 X-221.603 Y-16.837 I-0.2 J0.247
X-226.13 Y-20.503 Z-1.157 I-2.263 J-1.833
X-221.603 Y-16.837 Z-1.314 I2.263 J1.833
X-226.13 Y-20.503 Z-1.471 I-2.263 J-1.833
X-221.603 Y-16.837 Z-1.629 I2.263 J1.833
X-226.13 Y-20.503 Z-1.786 I-2.263 J-1.833
X-221.603 Y-16.837 Z-1.943 I2.263 J1.833
