(Podracer10)
(Bearbeiten)
(  Hersteller: ChinaCnc)
(  model: 3040T)
(  description: Generic 3-axis)
(T5 D=3.175 CR=0 - ZMIN=-4.3 - Schaftfrser)
G90 G94
G17
G21
(When using Fusion for Personal Use, the feedrate of rapid)
(moves is reduced to match the feedrate of cutting moves,)
(which can increase machining time. Unrestricted rapid moves)
(are available with a Fusion Subscription.)
G28 G91 Z0
G90

(Bohrfrsen5)
M0
(MANUAL TOOL CHANGE TO T5)
S4000 M3
G17 G90 G94
G54
G0 X-159.081 Y-13.256
Z15
G1 Z2 F1000
Z0.317
G18 G2 X-158.764 Z0 I0.317 K0
G1 X-158.605
G17 G3 X-158.349 Y-13 I0 J0.256
X-159.374 Y-13 Z-0.073 I-0.512 J0
X-158.349 Y-13 Z-0.147 I0.512 J0
X-159.374 Y-13 Z-0.22 I-0.512 J0
X-158.349 Y-13 Z-0.293 I0.512 J0
X-159.374 Y-13 Z-0.367 I-0.512 J0
X-158.349 Y-13 Z-0.44 I0.512 J0
X-159.374 Y-13 Z-0.513 I-0.512 J0
X-158.349 Y-13 Z-0.587 I0.512 J0
X-159.374 Y-13 Z-0.66 I-0.512 J0
X-158.349 Y-13 Z-0.733 I0.512 J0
X-159.374 Y-13 Z-0.807 I-0.512 J0
X-158.349 Y-13 Z-0.88 I0.512 J0
X-159.374 Y-13 Z-0.953 I-0.512 J0
X-158.349 Y-13 Z-1.027 I0.512 J0
X-159.374 Y-13 Z-1.1 I-0.512 J0
X-158.349 Y-13 Z-1.173 I0.512 J0
X-159.374 Y-13 Z-1.247 I-0.512 J0
X-158.349 Y-13 Z-1.32 I0.512 J0
X-159.374 Y-13 Z-1.393 I-0.512 J0
X-158.349 Y-13 Z-1.467 I0.512 J0
X-158.788 Y-12.493 Z-1.5 I-0.512 J0
X-158.934 Y-13.507 I-0.073 J-0.507
X-158.788 Y-12.493 I0.073 J0.507
X-159.078 Y-12.71 I-0.037 J-0.254
G1 X-159.101 Y-12.867
X-159.111 Y-12.937 Z-1.492
X-159.121 Y-13.003 Z-1.469
X-159.129 Y-13.063 Z-1.431
X-159.136 Y-13.113 Z-1.38
X-159.142 Y-13.15 Z-1.32
X-159.145 Y-13.173 Z-1.253
X-159.146 Y-13.181 Z-1.183
Z5
X-139.331 Y-27.825
Z2
Z0.317
G18 G2 X-139.014 Z0 I0.317 K0
G1 X-138.855
G17 G3 X-138.599 Y-27.569 I0 J0.256
X-139.624 Y-27.569 Z-0.073 I-0.512 J0
X-138.599 Y-27.569 Z-0.147 I0.512 J0
X-139.624 Y-27.569 Z-0.22 I-0.512 J0
X-138.599 Y-27.569 Z-0.293 I0.512 J0
X-139.624 Y-27.569 Z-0.367 I-0.512 J0
X-138.599 Y-27.569 Z-0.44 I0.512 J0
X-139.624 Y-27.569 Z-0.513 I-0.512 J0
X-138.599 Y-27.569 Z-0.587 I0.512 J0
X-139.624 Y-27.569 Z-0.66 I-0.512 J0
X-138.599 Y-27.569 Z-0.733 I0.512 J0
X-139.624 Y-27.569 Z-0.807 I-0.512 J0
X-138.599 Y-27.569 Z-0.88 I0.512 J0
X-139.624 Y-27.569 Z-0.953 I-0.512 J0
X-138.599 Y-27.569 Z-1.027 I0.512 J0
X-139.624 Y-27.569 Z-1.1 I-0.512 J0
X-138.599 Y-27.569 Z-1.173 I0.512 J0
X-139.624 Y-27.569 Z-1.247 I-0.512 J0
X-138.599 Y-27.569 Z-1.32 I0.512 J0
X-139.624 Y-27.569 Z-1.393 I-0.512 J0
X-138.599 Y-27.569 Z-1.467 I0.512 J0
X-139.038 Y-27.062 Z-1.5 I-0.512 J0
X-139.184 Y-28.076 I-0.073 J-0.507
X-139.038 Y-27.062 I0.073 J0.507
X-139.328 Y-27.279 I-0.037 J-0.254
G1 X-139.351 Y-27.436
X-139.361 Y-27.506 Z-1.492
X-139.371 Y-27.572 Z-1.469
X-139.379 Y-27.632 Z-1.431
X-139.386 Y-27.682 Z-1.38
X-139.392 Y-27.719 Z-1.32
X-139.395 Y-27.742 Z-1.253
X-139.396 Y-27.75 Z-1.183
Z5
X-108.831 Y-27.825
Z2
Z0.317
G18 G2 X-108.514 Z0 I0.318 K0
G1 X-108.355
G17 G3 X-108.099 Y-27.569 I0 J0.256
X-109.124 Y-27.569 Z-0.073 I-0.512 J0
X-108.099 Y-27.569 Z-0.147 I0.512 J0
X-109.124 Y-27.569 Z-0.22 I-0.512 J0
X-108.099 Y-27.569 Z-0.293 I0.512 J0
X-109.124 Y-27.569 Z-0.367 I-0.512 J0
X-108.099 Y-27.569 Z-0.44 I0.512 J0
X-109.124 Y-27.569 Z-0.513 I-0.512 J0
X-108.099 Y-27.569 Z-0.587 I0.512 J0
X-109.124 Y-27.569 Z-0.66 I-0.512 J0
X-108.099 Y-27.569 Z-0.733 I0.512 J0
X-109.124 Y-27.569 Z-0.807 I-0.512 J0
X-108.099 Y-27.569 Z-0.88 I0.512 J0
X-109.124 Y-27.569 Z-0.953 I-0.512 J0
X-108.099 Y-27.569 Z-1.027 I0.512 J0
X-109.124 Y-27.569 Z-1.1 I-0.512 J0
X-108.099 Y-27.569 Z-1.173 I0.512 J0
X-109.124 Y-27.569 Z-1.247 I-0.512 J0
X-108.099 Y-27.569 Z-1.32 I0.512 J0
X-109.124 Y-27.569 Z-1.393 I-0.512 J0
X-108.099 Y-27.569 Z-1.467 I0.512 J0
X-108.538 Y-27.062 Z-1.5 I-0.512 J0
X-108.684 Y-28.076 I-0.073 J-0.507
X-108.538 Y-27.062 I0.073 J0.507
X-108.828 Y-27.279 I-0.037 J-0.254
G1 X-108.851 Y-27.436
X-108.861 Y-27.506 Z-1.492
X-108.871 Y-27.572 Z-1.469
X-108.879 Y-27.632 Z-1.431
X-108.886 Y-27.682 Z-1.38
X-108.892 Y-27.719 Z-1.32
X-108.895 Y-27.742 Z-1.253
X-108.896 Y-27.75 Z-1.183
Z5
X-89.081 Y-13.256
Z2
Z0.317
G18 G2 X-88.764 Z0 I0.318 K0
G1 X-88.605
G17 G3 X-88.349 Y-13 I0 J0.256
X-89.374 Y-13 Z-0.073 I-0.512 J0
X-88.349 Y-13 Z-0.147 I0.512 J0
X-89.374 Y-13 Z-0.22 I-0.512 J0
X-88.349 Y-13 Z-0.293 I0.512 J0
X-89.374 Y-13 Z-0.367 I-0.512 J0
X-88.349 Y-13 Z-0.44 I0.512 J0
X-89.374 Y-13 Z-0.513 I-0.512 J0
X-88.349 Y-13 Z-0.587 I0.512 J0
X-89.374 Y-13 Z-0.66 I-0.512 J0
X-88.349 Y-13 Z-0.733 I0.512 J0
X-89.374 Y-13 Z-0.807 I-0.512 J0
X-88.349 Y-13 Z-0.88 I0.512 J0
X-89.374 Y-13 Z-0.953 I-0.512 J0
X-88.349 Y-13 Z-1.027 I0.512 J0
X-89.374 Y-13 Z-1.1 I-0.512 J0
X-88.349 Y-13 Z-1.173 I0.512 J0
X-89.374 Y-13 Z-1.247 I-0.512 J0
X-88.349 Y-13 Z-1.32 I0.512 J0
X-89.374 Y-13 Z-1.393 I-0.512 J0
X-88.349 Y-13 Z-1.467 I0.512 J0
X-88.788 Y-12.493 Z-1.5 I-0.512 J0
X-88.934 Y-13.507 I-0.073 J-0.507
X-88.788 Y-12.493 I0.073 J0.507
X-89.078 Y-12.71 I-0.037 J-0.254
G1 X-89.101 Y-12.867
X-89.111 Y-12.937 Z-1.492
X-89.121 Y-13.003 Z-1.469
X-89.129 Y-13.063 Z-1.431
X-89.136 Y-13.113 Z-1.38
X-89.142 Y-13.15 Z-1.32
X-89.145 Y-13.173 Z-1.253
X-89.146 Y-13.181 Z-1.183
Z5
X-89.081 Y-72.894
Z2
Z0.317
G18 G2 X-88.764 Z0 I0.318 K0
G1 X-88.605
G17 G3 X-88.349 Y-72.638 I0 J0.256
X-89.374 Y-72.638 Z-0.073 I-0.512 J0
X-88.349 Y-72.638 Z-0.147 I0.512 J0
X-89.374 Y-72.638 Z-0.22 I-0.512 J0
X-88.349 Y-72.638 Z-0.293 I0.512 J0
X-89.374 Y-72.638 Z-0.367 I-0.512 J0
X-88.349 Y-72.638 Z-0.44 I0.512 J0
X-89.374 Y-72.638 Z-0.513 I-0.512 J0
X-88.349 Y-72.638 Z-0.587 I0.512 J0
X-89.374 Y-72.638 Z-0.66 I-0.513 J0
X-88.349 Y-72.638 Z-0.733 I0.513 J0
X-89.374 Y-72.638 Z-0.807 I-0.513 J0
X-88.349 Y-72.638 Z-0.88 I0.513 J0
X-89.374 Y-72.638 Z-0.953 I-0.513 J0
X-88.349 Y-72.638 Z-1.027 I0.513 J0
X-89.374 Y-72.638 Z-1.1 I-0.513 J0
X-88.349 Y-72.638 Z-1.173 I0.513 J0
X-89.374 Y-72.638 Z-1.247 I-0.513 J0
X-88.349 Y-72.638 Z-1.32 I0.513 J0
X-89.374 Y-72.638 Z-1.393 I-0.513 J0
X-88.349 Y-72.638 Z-1.467 I0.513 J0
X-88.788 Y-72.131 Z-1.5 I-0.513 J0
X-88.934 Y-73.145 I-0.073 J-0.507
X-88.788 Y-72.131 I0.073 J0.507
X-89.078 Y-72.348 I-0.037 J-0.254
G1 X-89.101 Y-72.505
X-89.111 Y-72.575 Z-1.492
X-89.121 Y-72.641 Z-1.469
X-89.129 Y-72.701 Z-1.431
X-89.136 Y-72.751 Z-1.38
X-89.142 Y-72.788 Z-1.32
X-89.145 Y-72.812 Z-1.253
X-89.146 Y-72.819 Z-1.183
Z5
X-108.831 Y-58.325
Z2
Z0.317
G18 G2 X-108.514 Z0 I0.318 K0
G1 X-108.355
G17 G3 X-108.099 Y-58.069 I0 J0.256
X-109.124 Y-58.069 Z-0.073 I-0.512 J0
X-108.099 Y-58.069 Z-0.147 I0.512 J0
X-109.124 Y-58.069 Z-0.22 I-0.512 J0
X-108.099 Y-58.069 Z-0.293 I0.512 J0
X-109.124 Y-58.069 Z-0.367 I-0.512 J0
X-108.099 Y-58.069 Z-0.44 I0.512 J0
X-109.124 Y-58.069 Z-0.513 I-0.512 J0
X-108.099 Y-58.069 Z-0.587 I0.512 J0
X-109.124 Y-58.069 Z-0.66 I-0.512 J0
X-108.099 Y-58.069 Z-0.733 I0.512 J0
X-109.124 Y-58.069 Z-0.807 I-0.512 J0
X-108.099 Y-58.069 Z-0.88 I0.512 J0
X-109.124 Y-58.069 Z-0.953 I-0.512 J0
X-108.099 Y-58.069 Z-1.027 I0.512 J0
X-109.124 Y-58.069 Z-1.1 I-0.512 J0
X-108.099 Y-58.069 Z-1.173 I0.513 J0
X-109.124 Y-58.069 Z-1.247 I-0.513 J0
X-108.099 Y-58.069 Z-1.32 I0.513 J0
X-109.124 Y-58.069 Z-1.393 I-0.513 J0
X-108.099 Y-58.069 Z-1.467 I0.513 J0
X-108.538 Y-57.562 Z-1.5 I-0.513 J0
X-108.684 Y-58.576 I-0.073 J-0.507
X-108.538 Y-57.562 I0.073 J0.507
X-108.828 Y-57.779 I-0.037 J-0.254
G1 X-108.851 Y-57.936
X-108.861 Y-58.006 Z-1.492
X-108.871 Y-58.072 Z-1.469
X-108.879 Y-58.132 Z-1.431
X-108.886 Y-58.182 Z-1.38
X-108.892 Y-58.219 Z-1.32
X-108.895 Y-58.242 Z-1.253
X-108.896 Y-58.25 Z-1.183
Z5
X-139.331 Y-58.325
Z2
Z0.317
G18 G2 X-139.014 Z0 I0.317 K0
G1 X-138.855
G17 G3 X-138.599 Y-58.069 I0 J0.256
X-139.624 Y-58.069 Z-0.073 I-0.512 J0
X-138.599 Y-58.069 Z-0.147 I0.512 J0
X-139.624 Y-58.069 Z-0.22 I-0.512 J0
X-138.599 Y-58.069 Z-0.293 I0.512 J0
X-139.624 Y-58.069 Z-0.367 I-0.512 J0
X-138.599 Y-58.069 Z-0.44 I0.512 J0
X-139.624 Y-58.069 Z-0.513 I-0.512 J0
X-138.599 Y-58.069 Z-0.587 I0.512 J0
X-139.624 Y-58.069 Z-0.66 I-0.512 J0
X-138.599 Y-58.069 Z-0.733 I0.512 J0
X-139.624 Y-58.069 Z-0.807 I-0.512 J0
X-138.599 Y-58.069 Z-0.88 I0.512 J0
X-139.624 Y-58.069 Z-0.953 I-0.512 J0
X-138.599 Y-58.069 Z-1.027 I0.512 J0
X-139.624 Y-58.069 Z-1.1 I-0.512 J0
X-138.599 Y-58.069 Z-1.173 I0.513 J0
X-139.624 Y-58.069 Z-1.247 I-0.513 J0
X-138.599 Y-58.069 Z-1.32 I0.513 J0
X-139.624 Y-58.069 Z-1.393 I-0.513 J0
X-138.599 Y-58.069 Z-1.467 I0.513 J0
X-139.038 Y-57.562 Z-1.5 I-0.513 J0
X-139.184 Y-58.576 I-0.073 J-0.507
X-139.038 Y-57.562 I0.073 J0.507
X-139.328 Y-57.779 I-0.037 J-0.254
G1 X-139.351 Y-57.936
X-139.361 Y-58.006 Z-1.492
X-139.371 Y-58.072 Z-1.469
X-139.379 Y-58.132 Z-1.431
X-139.386 Y-58.182 Z-1.38
X-139.392 Y-58.219 Z-1.32
X-139.395 Y-58.242 Z-1.253
X-139.396 Y-58.25 Z-1.183
Z5
X-159.081 Y-72.894
Z2
Z0.317
G18 G2 X-158.764 Z0 I0.317 K0
G1 X-158.605
G17 G3 X-158.349 Y-72.638 I0 J0.256
X-159.374 Y-72.638 Z-0.073 I-0.512 J0
X-158.349 Y-72.638 Z-0.147 I0.512 J0
X-159.374 Y-72.638 Z-0.22 I-0.512 J0
X-158.349 Y-72.638 Z-0.293 I0.512 J0
X-159.374 Y-72.638 Z-0.367 I-0.512 J0
X-158.349 Y-72.638 Z-0.44 I0.512 J0
X-159.374 Y-72.638 Z-0.513 I-0.512 J0
X-158.349 Y-72.638 Z-0.587 I0.512 J0
X-159.374 Y-72.638 Z-0.66 I-0.513 J0
X-158.349 Y-72.638 Z-0.733 I0.513 J0
X-159.374 Y-72.638 Z-0.807 I-0.513 J0
X-158.349 Y-72.638 Z-0.88 I0.513 J0
X-159.374 Y-72.638 Z-0.953 I-0.513 J0
X-158.349 Y-72.638 Z-1.027 I0.513 J0
X-159.374 Y-72.638 Z-1.1 I-0.513 J0
X-158.349 Y-72.638 Z-1.173 I0.513 J0
X-159.374 Y-72.638 Z-1.247 I-0.513 J0
X-158.349 Y-72.638 Z-1.32 I0.513 J0
X-159.374 Y-72.638 Z-1.393 I-0.513 J0
X-158.349 Y-72.638 Z-1.467 I0.513 J0
X-158.788 Y-72.131 Z-1.5 I-0.513 J0
X-158.934 Y-73.145 I-0.073 J-0.507
X-158.788 Y-72.131 I0.073 J0.507
X-159.078 Y-72.348 I-0.037 J-0.254
G1 X-159.101 Y-72.505
X-159.111 Y-72.575 Z-1.492
X-159.121 Y-72.641 Z-1.469
X-159.129 Y-72.701 Z-1.431
X-159.136 Y-72.751 Z-1.38
X-159.142 Y-72.788 Z-1.32
X-159.145 Y-72.812 Z-1.253
X-159.146 Y-72.819 Z-1.183
Z5
X-62.932 Y-149.867
Z2
Z0.317
G19 G3 Y-149.549 Z0 J0.318 K0
G1 Y-149.39
G17 G3 X-63.25 Y-149.073 I-0.318 J0
X-63.25 Y-153.898 Z-0.14 I0 J-2.413
X-63.25 Y-149.073 Z-0.279 I0 J2.413
X-63.25 Y-153.898 Z-0.419 I0 J-2.413
X-63.25 Y-149.073 Z-0.559 I0 J2.413
X-63.25 Y-153.898 Z-0.698 I0 J-2.413
X-63.25 Y-149.073 Z-0.838 I0 J2.413
X-63.25 Y-153.898 Z-0.978 I0 J-2.413
X-63.25 Y-149.073 Z-1.117 I0 J2.413
X-63.25 Y-153.898 Z-1.257 I0 J-2.413
X-63.25 Y-149.073 Z-1.397 I0 J2.413
X-63.25 Y-153.898 Z-1.537 I0 J-2.413
X-63.25 Y-149.073 Z-1.676 I0 J2.413
X-63.25 Y-153.898 Z-1.816 I0 J-2.413
X-63.25 Y-149.073 Z-1.956 I0 J2.413
X-65.279 Y-150.181 Z-2 I0 J-2.413
X-61.221 Y-152.79 I2.029 J-1.305
X-65.279 Y-150.181 I-2.029 J1.305
X-65.184 Y-150.62 I0.267 J-0.172
G1 X-65.05 Y-150.705
X-64.991 Y-150.744 Z-1.992
X-64.935 Y-150.78 Z-1.969
X-64.884 Y-150.812 Z-1.931
X-64.842 Y-150.84 Z-1.88
X-64.81 Y-150.86 Z-1.82
X-64.79 Y-150.873 Z-1.753
X-64.783 Y-150.877 Z-1.683
Z5
X-32.432 Y-149.867
Z2
Z0.317
G19 G3 Y-149.549 Z0 J0.318 K0
G1 Y-149.39
G17 G3 X-32.75 Y-149.073 I-0.318 J0
X-32.75 Y-153.898 Z-0.14 I0 J-2.413
X-32.75 Y-149.073 Z-0.279 I0 J2.413
X-32.75 Y-153.898 Z-0.419 I0 J-2.413
X-32.75 Y-149.073 Z-0.559 I0 J2.413
X-32.75 Y-153.898 Z-0.698 I0 J-2.413
X-32.75 Y-149.073 Z-0.838 I0 J2.413
X-32.75 Y-153.898 Z-0.978 I0 J-2.413
X-32.75 Y-149.073 Z-1.117 I0 J2.413
X-32.75 Y-153.898 Z-1.257 I0 J-2.413
X-32.75 Y-149.073 Z-1.397 I0 J2.413
X-32.75 Y-153.898 Z-1.537 I0 J-2.413
X-32.75 Y-149.073 Z-1.676 I0 J2.413
X-32.75 Y-153.898 Z-1.816 I0 J-2.413
X-32.75 Y-149.073 Z-1.956 I0 J2.413
X-34.779 Y-150.181 Z-2 I0 J-2.413
X-30.721 Y-152.79 I2.029 J-1.305
X-34.779 Y-150.181 I-2.029 J1.305
X-34.684 Y-150.62 I0.267 J-0.172
G1 X-34.55 Y-150.705
X-34.491 Y-150.744 Z-1.992
X-34.435 Y-150.78 Z-1.969
X-34.384 Y-150.812 Z-1.931
X-34.342 Y-150.84 Z-1.88
X-34.31 Y-150.86 Z-1.82
X-34.29 Y-150.873 Z-1.753
X-34.283 Y-150.877 Z-1.683
Z5
X-32.432 Y-180.367
Z2
Z0.317
G19 G3 Y-180.049 Z0 J0.318 K0
G1 Y-179.89
G17 G3 X-32.75 Y-179.573 I-0.318 J0
X-32.75 Y-184.398 Z-0.14 I0 J-2.413
X-32.75 Y-179.573 Z-0.279 I0 J2.413
X-32.75 Y-184.398 Z-0.419 I0 J-2.413
X-32.75 Y-179.573 Z-0.559 I0 J2.413
X-32.75 Y-184.398 Z-0.698 I0 J-2.413
X-32.75 Y-179.573 Z-0.838 I0 J2.413
X-32.75 Y-184.398 Z-0.978 I0 J-2.413
X-32.75 Y-179.573 Z-1.117 I0 J2.413
X-32.75 Y-184.398 Z-1.257 I0 J-2.413
X-32.75 Y-179.573 Z-1.397 I0 J2.413
X-32.75 Y-184.398 Z-1.537 I0 J-2.413
X-32.75 Y-179.573 Z-1.676 I0 J2.413
X-32.75 Y-184.398 Z-1.816 I0 J-2.413
X-32.75 Y-179.573 Z-1.956 I0 J2.413
X-34.779 Y-180.681 Z-2 I0 J-2.413
X-30.721 Y-183.29 I2.029 J-1.305
X-34.779 Y-180.681 I-2.029 J1.305
X-34.684 Y-181.12 I0.267 J-0.172
G1 X-34.55 Y-181.205
X-34.491 Y-181.244 Z-1.992
X-34.435 Y-181.28 Z-1.969
X-34.384 Y-181.312 Z-1.931
X-34.342 Y-181.34 Z-1.88
X-34.31 Y-181.36 Z-1.82
X-34.29 Y-181.373 Z-1.753
X-34.283 Y-181.377 Z-1.683
Z5
X-62.932 Y-180.367
Z2
Z0.317
G19 G3 Y-180.049 Z0 J0.318 K0
G1 Y-179.89
G17 G3 X-63.25 Y-179.573 I-0.318 J0
X-63.25 Y-184.398 Z-0.14 I0 J-2.413
X-63.25 Y-179.573 Z-0.279 I0 J2.413
X-63.25 Y-184.398 Z-0.419 I0 J-2.413
X-63.25 Y-179.573 Z-0.559 I0 J2.413
X-63.25 Y-184.398 Z-0.698 I0 J-2.413
X-63.25 Y-179.573 Z-0.838 I0 J2.413
X-63.25 Y-184.398 Z-0.978 I0 J-2.413
X-63.25 Y-179.573 Z-1.117 I0 J2.413
X-63.25 Y-184.398 Z-1.257 I0 J-2.413
X-63.25 Y-179.573 Z-1.397 I0 J2.413
X-63.25 Y-184.398 Z-1.537 I0 J-2.413
X-63.25 Y-179.573 Z-1.676 I0 J2.413
X-63.25 Y-184.398 Z-1.816 I0 J-2.413
X-63.25 Y-179.573 Z-1.956 I0 J2.413
X-65.279 Y-180.681 Z-2 I0 J-2.413
X-61.221 Y-183.29 I2.029 J-1.305
X-65.279 Y-180.681 I-2.029 J1.305
X-65.184 Y-181.12 I0.267 J-0.172
G1 X-65.05 Y-181.205
X-64.991 Y-181.244 Z-1.992
X-64.935 Y-181.28 Z-1.969
X-64.884 Y-181.312 Z-1.931
X-64.842 Y-181.34 Z-1.88
X-64.81 Y-181.36 Z-1.82
X-64.79 Y-181.373 Z-1.753
X-64.783 Y-181.377 Z-1.683
Z15
(When using Fusion for Personal Use, the feedrate of rapid)
(moves is reduced to match the feedrate of cutting moves,)
(which can increase machining time. Unrestricted rapid moves)
(are available with a Fusion Subscription.)

(Bohrfrsen6)
G0 X-158.939 Y-72.719
G1 Z15 F1000
Z0.183
Z-1.5
X-158.78
X-158.749 Y-72.713
X-158.723 Y-72.696
X-158.705 Y-72.669
X-158.699 Y-72.638
G3 X-159.024 Y-72.638 Z-1.561 I-0.162 J0
X-158.699 Y-72.638 Z-1.622 I0.162 J0
X-159.024 Y-72.638 Z-1.683 I-0.162 J0
X-158.699 Y-72.638 Z-1.744 I0.162 J0
X-159.024 Y-72.638 Z-1.806 I-0.162 J0
X-158.699 Y-72.638 Z-1.867 I0.162 J0
X-159.024 Y-72.638 Z-1.928 I-0.162 J0
X-158.699 Y-72.638 Z-1.989 I0.162 J0
X-159.024 Y-72.638 Z-2.05 I-0.162 J0
X-158.699 Y-72.638 Z-2.111 I0.162 J0
X-159.024 Y-72.638 Z-2.172 I-0.162 J0
X-158.699 Y-72.638 Z-2.233 I0.162 J0
X-159.024 Y-72.638 Z-2.294 I-0.162 J0
X-158.699 Y-72.638 Z-2.356 I0.162 J0
X-159.024 Y-72.638 Z-2.417 I-0.162 J0
X-158.699 Y-72.638 Z-2.478 I0.162 J0
X-159.024 Y-72.638 Z-2.539 I-0.162 J0
X-158.699 Y-72.638 Z-2.6 I0.162 J0
X-159.024 Y-72.638 Z-2.661 I-0.162 J0
X-158.699 Y-72.638 Z-2.722 I0.162 J0
X-159.024 Y-72.638 Z-2.783 I-0.162 J0
X-158.699 Y-72.638 Z-2.844 I0.162 J0
X-159.024 Y-72.638 Z-2.906 I-0.162 J0
X-158.699 Y-72.638 Z-2.967 I0.162 J0
X-159.024 Y-72.638 Z-3.028 I-0.162 J0
X-158.699 Y-72.638 Z-3.089 I0.162 J0
X-159.024 Y-72.638 Z-3.15 I-0.162 J0
X-158.699 Y-72.638 Z-3.211 I0.162 J0
X-159.024 Y-72.638 Z-3.272 I-0.162 J0
X-158.699 Y-72.638 Z-3.333 I0.162 J0
X-159.024 Y-72.638 Z-3.394 I-0.162 J0
X-158.699 Y-72.638 Z-3.456 I0.162 J0
X-159.024 Y-72.638 Z-3.517 I-0.162 J0
X-158.699 Y-72.638 Z-3.578 I0.162 J0
X-159.024 Y-72.638 Z-3.639 I-0.162 J0
X-158.699 Y-72.638 Z-3.7 I0.162 J0
X-159.024 Y-72.638 Z-3.761 I-0.162 J0
X-158.699 Y-72.638 Z-3.822 I0.162 J0
X-159.024 Y-72.638 Z-3.883 I-0.162 J0
X-158.699 Y-72.638 Z-3.944 I0.162 J0
X-159.024 Y-72.638 Z-4.006 I-0.162 J0
X-158.699 Y-72.638 Z-4.067 I0.162 J0
X-159.024 Y-72.638 Z-4.128 I-0.162 J0
X-158.699 Y-72.638 Z-4.189 I0.162 J0
X-159.024 Y-72.638 Z-4.25 I-0.162 J0
X-158.725 Y-72.726 Z-4.3 I0.162 J0
X-158.998 Y-72.55 I-0.137 J0.088
X-158.725 Y-72.726 I0.137 J-0.088
G1 X-158.713 Y-72.697
X-158.714 Y-72.665
X-158.726 Y-72.636
X-158.749 Y-72.614
X-158.883 Y-72.528
Z5
X-139.189 Y-58.15
Z0.183
Z-1.5
X-139.03
X-138.999 Y-58.144
X-138.973 Y-58.127
X-138.955 Y-58.1
X-138.949 Y-58.069
G3 X-139.274 Y-58.069 Z-1.561 I-0.162 J0
X-138.949 Y-58.069 Z-1.622 I0.162 J0
X-139.274 Y-58.069 Z-1.683 I-0.162 J0
X-138.949 Y-58.069 Z-1.744 I0.162 J0
X-139.274 Y-58.069 Z-1.806 I-0.162 J0
X-138.949 Y-58.069 Z-1.867 I0.162 J0
X-139.274 Y-58.069 Z-1.928 I-0.162 J0
X-138.949 Y-58.069 Z-1.989 I0.162 J0
X-139.274 Y-58.069 Z-2.05 I-0.162 J0
X-138.949 Y-58.069 Z-2.111 I0.162 J0
X-139.274 Y-58.069 Z-2.172 I-0.162 J0
X-138.949 Y-58.069 Z-2.233 I0.162 J0
X-139.274 Y-58.069 Z-2.294 I-0.162 J0
X-138.949 Y-58.069 Z-2.356 I0.162 J0
X-139.274 Y-58.069 Z-2.417 I-0.162 J0
X-138.949 Y-58.069 Z-2.478 I0.162 J0
X-139.274 Y-58.069 Z-2.539 I-0.162 J0
X-138.949 Y-58.069 Z-2.6 I0.162 J0
X-139.274 Y-58.069 Z-2.661 I-0.162 J0
X-138.949 Y-58.069 Z-2.722 I0.162 J0
X-139.274 Y-58.069 Z-2.783 I-0.162 J0
X-138.949 Y-58.069 Z-2.844 I0.162 J0
X-139.274 Y-58.069 Z-2.906 I-0.162 J0
X-138.949 Y-58.069 Z-2.967 I0.162 J0
X-139.274 Y-58.069 Z-3.028 I-0.162 J0
X-138.949 Y-58.069 Z-3.089 I0.162 J0
X-139.274 Y-58.069 Z-3.15 I-0.162 J0
X-138.949 Y-58.069 Z-3.211 I0.162 J0
X-139.274 Y-58.069 Z-3.272 I-0.162 J0
X-138.949 Y-58.069 Z-3.333 I0.162 J0
X-139.274 Y-58.069 Z-3.394 I-0.162 J0
X-138.949 Y-58.069 Z-3.456 I0.162 J0
X-139.274 Y-58.069 Z-3.517 I-0.162 J0
X-138.949 Y-58.069 Z-3.578 I0.162 J0
X-139.274 Y-58.069 Z-3.639 I-0.162 J0
X-138.949 Y-58.069 Z-3.7 I0.162 J0
X-139.274 Y-58.069 Z-3.761 I-0.162 J0
X-138.949 Y-58.069 Z-3.822 I0.162 J0
X-139.274 Y-58.069 Z-3.883 I-0.162 J0
X-138.949 Y-58.069 Z-3.944 I0.162 J0
X-139.274 Y-58.069 Z-4.006 I-0.162 J0
X-138.949 Y-58.069 Z-4.067 I0.162 J0
X-139.274 Y-58.069 Z-4.128 I-0.162 J0
X-138.949 Y-58.069 Z-4.189 I0.162 J0
X-139.274 Y-58.069 Z-4.25 I-0.162 J0
X-138.975 Y-58.157 Z-4.3 I0.162 J0
X-139.248 Y-57.981 I-0.137 J0.088
X-138.975 Y-58.157 I0.137 J-0.088
G1 X-138.963 Y-58.128
X-138.964 Y-58.096
X-138.976 Y-58.067
X-138.999 Y-58.045
X-139.133 Y-57.959
Z5
X-158.939 Y-13.081
Z0.183
Z-1.5
X-158.78
X-158.749 Y-13.075
X-158.723 Y-13.057
X-158.705 Y-13.031
X-158.699 Y-13
G3 X-159.024 Y-13 Z-1.561 I-0.162 J0
X-158.699 Y-13 Z-1.622 I0.162 J0
X-159.024 Y-13 Z-1.683 I-0.162 J0
X-158.699 Y-13 Z-1.744 I0.162 J0
X-159.024 Y-13 Z-1.806 I-0.162 J0
X-158.699 Y-13 Z-1.867 I0.162 J0
X-159.024 Y-13 Z-1.928 I-0.162 J0
X-158.699 Y-13 Z-1.989 I0.162 J0
X-159.024 Y-13 Z-2.05 I-0.162 J0
X-158.699 Y-13 Z-2.111 I0.162 J0
X-159.024 Y-13 Z-2.172 I-0.162 J0
X-158.699 Y-13 Z-2.233 I0.162 J0
X-159.024 Y-13 Z-2.294 I-0.162 J0
X-158.699 Y-13 Z-2.356 I0.162 J0
X-159.024 Y-13 Z-2.417 I-0.162 J0
X-158.699 Y-13 Z-2.478 I0.162 J0
X-159.024 Y-13 Z-2.539 I-0.162 J0
X-158.699 Y-13 Z-2.6 I0.162 J0
X-159.024 Y-13 Z-2.661 I-0.162 J0
X-158.699 Y-13 Z-2.722 I0.162 J0
X-159.024 Y-13 Z-2.783 I-0.162 J0
X-158.699 Y-13 Z-2.844 I0.162 J0
X-159.024 Y-13 Z-2.906 I-0.162 J0
X-158.699 Y-13 Z-2.967 I0.162 J0
X-159.024 Y-13 Z-3.028 I-0.162 J0
X-158.699 Y-13 Z-3.089 I0.162 J0
X-159.024 Y-13 Z-3.15 I-0.162 J0
X-158.699 Y-13 Z-3.211 I0.162 J0
X-159.024 Y-13 Z-3.272 I-0.162 J0
X-158.699 Y-13 Z-3.333 I0.162 J0
X-159.024 Y-13 Z-3.394 I-0.162 J0
X-158.699 Y-13 Z-3.456 I0.162 J0
X-159.024 Y-13 Z-3.517 I-0.162 J0
X-158.699 Y-13 Z-3.578 I0.162 J0
X-159.024 Y-13 Z-3.639 I-0.162 J0
X-158.699 Y-13 Z-3.7 I0.162 J0
X-159.024 Y-13 Z-3.761 I-0.162 J0
X-158.699 Y-13 Z-3.822 I0.162 J0
X-159.024 Y-13 Z-3.883 I-0.162 J0
X-158.699 Y-13 Z-3.944 I0.162 J0
X-159.024 Y-13 Z-4.006 I-0.162 J0
X-158.699 Y-13 Z-4.067 I0.162 J0
X-159.024 Y-13 Z-4.128 I-0.162 J0
X-158.699 Y-13 Z-4.189 I0.162 J0
X-159.024 Y-13 Z-4.25 I-0.162 J0
X-158.725 Y-13.088 Z-4.3 I0.162 J0
X-158.998 Y-12.912 I-0.137 J0.088
X-158.725 Y-13.088 I0.137 J-0.088
G1 X-158.713 Y-13.058
X-158.714 Y-13.027
X-158.726 Y-12.998
X-158.749 Y-12.976
X-158.883 Y-12.89
Z5
X-139.189 Y-27.65
Z0.183
Z-1.5
X-139.03
X-138.999 Y-27.644
X-138.973 Y-27.627
X-138.955 Y-27.6
X-138.949 Y-27.569
G3 X-139.274 Y-27.569 Z-1.561 I-0.162 J0
X-138.949 Y-27.569 Z-1.622 I0.162 J0
X-139.274 Y-27.569 Z-1.683 I-0.162 J0
X-138.949 Y-27.569 Z-1.744 I0.162 J0
X-139.274 Y-27.569 Z-1.806 I-0.162 J0
X-138.949 Y-27.569 Z-1.867 I0.162 J0
X-139.274 Y-27.569 Z-1.928 I-0.162 J0
X-138.949 Y-27.569 Z-1.989 I0.162 J0
X-139.274 Y-27.569 Z-2.05 I-0.162 J0
X-138.949 Y-27.569 Z-2.111 I0.162 J0
X-139.274 Y-27.569 Z-2.172 I-0.162 J0
X-138.949 Y-27.569 Z-2.233 I0.162 J0
X-139.274 Y-27.569 Z-2.294 I-0.162 J0
X-138.949 Y-27.569 Z-2.356 I0.162 J0
X-139.274 Y-27.569 Z-2.417 I-0.162 J0
X-138.949 Y-27.569 Z-2.478 I0.162 J0
X-139.274 Y-27.569 Z-2.539 I-0.162 J0
X-138.949 Y-27.569 Z-2.6 I0.162 J0
X-139.274 Y-27.569 Z-2.661 I-0.162 J0
X-138.949 Y-27.569 Z-2.722 I0.162 J0
X-139.274 Y-27.569 Z-2.783 I-0.162 J0
X-138.949 Y-27.569 Z-2.844 I0.162 J0
X-139.274 Y-27.569 Z-2.906 I-0.162 J0
X-138.949 Y-27.569 Z-2.967 I0.162 J0
X-139.274 Y-27.569 Z-3.028 I-0.162 J0
X-138.949 Y-27.569 Z-3.089 I0.162 J0
X-139.274 Y-27.569 Z-3.15 I-0.162 J0
X-138.949 Y-27.569 Z-3.211 I0.162 J0
X-139.274 Y-27.569 Z-3.272 I-0.162 J0
X-138.949 Y-27.569 Z-3.333 I0.162 J0
X-139.274 Y-27.569 Z-3.394 I-0.162 J0
X-138.949 Y-27.569 Z-3.456 I0.162 J0
X-139.274 Y-27.569 Z-3.517 I-0.162 J0
X-138.949 Y-27.569 Z-3.578 I0.162 J0
X-139.274 Y-27.569 Z-3.639 I-0.162 J0
X-138.949 Y-27.569 Z-3.7 I0.162 J0
X-139.274 Y-27.569 Z-3.761 I-0.162 J0
X-138.949 Y-27.569 Z-3.822 I0.162 J0
X-139.274 Y-27.569 Z-3.883 I-0.162 J0
X-138.949 Y-27.569 Z-3.944 I0.162 J0
X-139.274 Y-27.569 Z-4.006 I-0.162 J0
X-138.949 Y-27.569 Z-4.067 I0.162 J0
X-139.274 Y-27.569 Z-4.128 I-0.162 J0
X-138.949 Y-27.569 Z-4.189 I0.162 J0
X-139.274 Y-27.569 Z-4.25 I-0.162 J0
X-138.975 Y-27.657 Z-4.3 I0.162 J0
X-139.248 Y-27.481 I-0.137 J0.088
X-138.975 Y-27.657 I0.137 J-0.088
G1 X-138.963 Y-27.628
X-138.964 Y-27.596
X-138.976 Y-27.567
X-138.999 Y-27.545
X-139.133 Y-27.459
Z5
X-108.689 Y-27.65
Z0.183
Z-1.5
X-108.53
X-108.499 Y-27.644
X-108.473 Y-27.627
X-108.455 Y-27.6
X-108.449 Y-27.569
G3 X-108.774 Y-27.569 Z-1.561 I-0.162 J0
X-108.449 Y-27.569 Z-1.622 I0.162 J0
X-108.774 Y-27.569 Z-1.683 I-0.162 J0
X-108.449 Y-27.569 Z-1.744 I0.162 J0
X-108.774 Y-27.569 Z-1.806 I-0.162 J0
X-108.449 Y-27.569 Z-1.867 I0.162 J0
X-108.774 Y-27.569 Z-1.928 I-0.162 J0
X-108.449 Y-27.569 Z-1.989 I0.162 J0
X-108.774 Y-27.569 Z-2.05 I-0.162 J0
X-108.449 Y-27.569 Z-2.111 I0.162 J0
X-108.774 Y-27.569 Z-2.172 I-0.162 J0
X-108.449 Y-27.569 Z-2.233 I0.162 J0
X-108.774 Y-27.569 Z-2.294 I-0.162 J0
X-108.449 Y-27.569 Z-2.356 I0.162 J0
X-108.774 Y-27.569 Z-2.417 I-0.162 J0
X-108.449 Y-27.569 Z-2.478 I0.162 J0
X-108.774 Y-27.569 Z-2.539 I-0.162 J0
X-108.449 Y-27.569 Z-2.6 I0.163 J0
X-108.774 Y-27.569 Z-2.661 I-0.163 J0
X-108.449 Y-27.569 Z-2.722 I0.163 J0
X-108.774 Y-27.569 Z-2.783 I-0.163 J0
X-108.449 Y-27.569 Z-2.844 I0.163 J0
X-108.774 Y-27.569 Z-2.906 I-0.163 J0
X-108.449 Y-27.569 Z-2.967 I0.163 J0
X-108.774 Y-27.569 Z-3.028 I-0.163 J0
X-108.449 Y-27.569 Z-3.089 I0.163 J0
X-108.774 Y-27.569 Z-3.15 I-0.163 J0
X-108.449 Y-27.569 Z-3.211 I0.163 J0
X-108.774 Y-27.569 Z-3.272 I-0.163 J0
X-108.449 Y-27.569 Z-3.333 I0.163 J0
X-108.774 Y-27.569 Z-3.394 I-0.163 J0
X-108.449 Y-27.569 Z-3.456 I0.163 J0
X-108.774 Y-27.569 Z-3.517 I-0.163 J0
X-108.449 Y-27.569 Z-3.578 I0.163 J0
X-108.774 Y-27.569 Z-3.639 I-0.163 J0
X-108.449 Y-27.569 Z-3.7 I0.163 J0
X-108.774 Y-27.569 Z-3.761 I-0.163 J0
X-108.449 Y-27.569 Z-3.822 I0.163 J0
X-108.774 Y-27.569 Z-3.883 I-0.163 J0
X-108.449 Y-27.569 Z-3.944 I0.163 J0
X-108.774 Y-27.569 Z-4.006 I-0.163 J0
X-108.449 Y-27.569 Z-4.067 I0.163 J0
X-108.774 Y-27.569 Z-4.128 I-0.163 J0
X-108.449 Y-27.569 Z-4.189 I0.163 J0
X-108.774 Y-27.569 Z-4.25 I-0.163 J0
X-108.475 Y-27.657 Z-4.3 I0.163 J0
X-108.748 Y-27.481 I-0.137 J0.088
X-108.475 Y-27.657 I0.137 J-0.088
G1 X-108.463 Y-27.628
X-108.464 Y-27.596
X-108.476 Y-27.567
X-108.499 Y-27.545
X-108.633 Y-27.459
Z5
X-88.939 Y-13.081
Z0.183
Z-1.5
X-88.78
X-88.749 Y-13.075
X-88.723 Y-13.057
X-88.705 Y-13.031
X-88.699 Y-13
G3 X-89.024 Y-13 Z-1.561 I-0.162 J0
X-88.699 Y-13 Z-1.622 I0.162 J0
X-89.024 Y-13 Z-1.683 I-0.162 J0
X-88.699 Y-13 Z-1.744 I0.162 J0
X-89.024 Y-13 Z-1.806 I-0.162 J0
X-88.699 Y-13 Z-1.867 I0.162 J0
X-89.024 Y-13 Z-1.928 I-0.162 J0
X-88.699 Y-13 Z-1.989 I0.162 J0
X-89.024 Y-13 Z-2.05 I-0.162 J0
X-88.699 Y-13 Z-2.111 I0.162 J0
X-89.024 Y-13 Z-2.172 I-0.162 J0
X-88.699 Y-13 Z-2.233 I0.162 J0
X-89.024 Y-13 Z-2.294 I-0.162 J0
X-88.699 Y-13 Z-2.356 I0.162 J0
X-89.024 Y-13 Z-2.417 I-0.162 J0
X-88.699 Y-13 Z-2.478 I0.162 J0
X-89.024 Y-13 Z-2.539 I-0.162 J0
X-88.699 Y-13 Z-2.6 I0.162 J0
X-89.024 Y-13 Z-2.661 I-0.162 J0
X-88.699 Y-13 Z-2.722 I0.163 J0
X-89.024 Y-13 Z-2.783 I-0.163 J0
X-88.699 Y-13 Z-2.844 I0.163 J0
X-89.024 Y-13 Z-2.906 I-0.163 J0
X-88.699 Y-13 Z-2.967 I0.163 J0
X-89.024 Y-13 Z-3.028 I-0.163 J0
X-88.699 Y-13 Z-3.089 I0.163 J0
X-89.024 Y-13 Z-3.15 I-0.163 J0
X-88.699 Y-13 Z-3.211 I0.163 J0
X-89.024 Y-13 Z-3.272 I-0.163 J0
X-88.699 Y-13 Z-3.333 I0.163 J0
X-89.024 Y-13 Z-3.394 I-0.163 J0
X-88.699 Y-13 Z-3.456 I0.163 J0
X-89.024 Y-13 Z-3.517 I-0.163 J0
X-88.699 Y-13 Z-3.578 I0.163 J0
X-89.024 Y-13 Z-3.639 I-0.163 J0
X-88.699 Y-13 Z-3.7 I0.163 J0
X-89.024 Y-13 Z-3.761 I-0.163 J0
X-88.699 Y-13 Z-3.822 I0.163 J0
X-89.024 Y-13 Z-3.883 I-0.163 J0
X-88.699 Y-13 Z-3.944 I0.163 J0
X-89.024 Y-13 Z-4.006 I-0.163 J0
X-88.699 Y-13 Z-4.067 I0.163 J0
X-89.024 Y-13 Z-4.128 I-0.163 J0
X-88.699 Y-13 Z-4.189 I0.163 J0
X-89.024 Y-13 Z-4.25 I-0.163 J0
X-88.725 Y-13.088 Z-4.3 I0.163 J0
X-88.998 Y-12.912 I-0.137 J0.088
X-88.725 Y-13.088 I0.137 J-0.088
G1 X-88.713 Y-13.058
X-88.714 Y-13.027
X-88.726 Y-12.998
X-88.749 Y-12.976
X-88.883 Y-12.89
Z5
X-58.881 Y-24.053
Z2
Z0.317
G18 G2 X-58.564 Z0 I0.317 K0
G1 X-58.405
G17 G3 X-58.088 Y-23.735 I0 J0.318
X-59.912 Y-23.735 Z-0.087 I-0.912 J0
X-58.088 Y-23.735 Z-0.175 I0.912 J0
X-59.912 Y-23.735 Z-0.262 I-0.912 J0
X-58.088 Y-23.735 Z-0.349 I0.912 J0
X-59.912 Y-23.735 Z-0.437 I-0.912 J0
X-58.088 Y-23.735 Z-0.524 I0.912 J0
X-59.912 Y-23.735 Z-0.611 I-0.912 J0
X-58.088 Y-23.735 Z-0.698 I0.912 J0
X-59.912 Y-23.735 Z-0.786 I-0.912 J0
X-58.088 Y-23.735 Z-0.873 I0.912 J0
X-59.912 Y-23.735 Z-0.96 I-0.912 J0
X-58.088 Y-23.735 Z-1.048 I0.912 J0
X-59.912 Y-23.735 Z-1.135 I-0.912 J0
X-58.088 Y-23.735 Z-1.222 I0.912 J0
X-59.912 Y-23.735 Z-1.31 I-0.912 J0
X-58.088 Y-23.735 Z-1.397 I0.912 J0
X-59.912 Y-23.735 Z-1.484 I-0.912 J0
X-58.088 Y-23.735 Z-1.571 I0.912 J0
X-59.912 Y-23.735 Z-1.659 I-0.912 J0
X-58.088 Y-23.735 Z-1.746 I0.912 J0
X-59.912 Y-23.735 Z-1.833 I-0.912 J0
X-58.088 Y-23.735 Z-1.921 I0.912 J0
X-59.912 Y-23.735 Z-2.008 I-0.912 J0
X-58.088 Y-23.735 Z-2.095 I0.912 J0
X-59.912 Y-23.735 Z-2.183 I-0.912 J0
X-58.088 Y-23.735 Z-2.27 I0.912 J0
X-59.912 Y-23.735 Z-2.357 I-0.912 J0
X-58.088 Y-23.735 Z-2.444 I0.912 J0
X-59.912 Y-23.735 Z-2.532 I-0.912 J0
X-58.088 Y-23.735 Z-2.619 I0.912 J0
X-59.912 Y-23.735 Z-2.706 I-0.912 J0
X-58.088 Y-23.735 Z-2.794 I0.912 J0
X-59.912 Y-23.735 Z-2.881 I-0.912 J0
X-58.088 Y-23.735 Z-2.968 I0.912 J0
X-59.912 Y-23.735 Z-3.056 I-0.912 J0
X-58.088 Y-23.735 Z-3.143 I0.912 J0
X-59.912 Y-23.735 Z-3.23 I-0.912 J0
X-58.088 Y-23.735 Z-3.317 I0.912 J0
X-59.912 Y-23.735 Z-3.405 I-0.912 J0
X-58.088 Y-23.735 Z-3.492 I0.912 J0
X-59.912 Y-23.735 Z-3.579 I-0.912 J0
X-58.088 Y-23.735 Z-3.667 I0.912 J0
X-59.912 Y-23.735 Z-3.754 I-0.912 J0
X-58.088 Y-23.735 Z-3.841 I0.912 J0
X-59.912 Y-23.735 Z-3.929 I-0.912 J0
X-58.088 Y-23.735 Z-4.016 I0.912 J0
X-59.912 Y-23.735 Z-4.103 I-0.912 J0
X-58.088 Y-23.735 Z-4.19 I0.912 J0
X-59.912 Y-23.735 Z-4.278 I-0.912 J0
X-59.636 Y-24.389 Z-4.3 I0.912 J0
X-58.364 Y-23.081 I0.636 J0.654
X-59.636 Y-24.389 I-0.636 J-0.654
X-59.187 Y-24.383 I0.221 J0.228
G1 X-59.077 Y-24.269
X-59.027 Y-24.219 Z-4.292
X-58.981 Y-24.171 Z-4.269
X-58.939 Y-24.128 Z-4.231
X-58.904 Y-24.092 Z-4.18
X-58.877 Y-24.064 Z-4.12
X-58.861 Y-24.048 Z-4.053
X-58.855 Y-24.042 Z-3.983
Z5
X-36.881 Y-24.053
Z2
Z0.317
G18 G2 X-36.564 Z0 I0.317 K0
G1 X-36.405
G17 G3 X-36.088 Y-23.735 I0 J0.318
X-37.912 Y-23.735 Z-0.087 I-0.912 J0
X-36.088 Y-23.735 Z-0.175 I0.912 J0
X-37.912 Y-23.735 Z-0.262 I-0.912 J0
X-36.088 Y-23.735 Z-0.349 I0.912 J0
X-37.912 Y-23.735 Z-0.437 I-0.912 J0
X-36.088 Y-23.735 Z-0.524 I0.912 J0
X-37.912 Y-23.735 Z-0.611 I-0.912 J0
X-36.088 Y-23.735 Z-0.698 I0.912 J0
X-37.912 Y-23.735 Z-0.786 I-0.912 J0
X-36.088 Y-23.735 Z-0.873 I0.912 J0
X-37.912 Y-23.735 Z-0.96 I-0.912 J0
X-36.088 Y-23.735 Z-1.048 I0.912 J0
X-37.912 Y-23.735 Z-1.135 I-0.912 J0
X-36.088 Y-23.735 Z-1.222 I0.912 J0
X-37.912 Y-23.735 Z-1.31 I-0.912 J0
X-36.088 Y-23.735 Z-1.397 I0.912 J0
X-37.912 Y-23.735 Z-1.484 I-0.912 J0
X-36.088 Y-23.735 Z-1.571 I0.912 J0
X-37.912 Y-23.735 Z-1.659 I-0.912 J0
X-36.088 Y-23.735 Z-1.746 I0.912 J0
X-37.912 Y-23.735 Z-1.833 I-0.912 J0
X-36.088 Y-23.735 Z-1.921 I0.912 J0
X-37.912 Y-23.735 Z-2.008 I-0.912 J0
X-36.088 Y-23.735 Z-2.095 I0.912 J0
X-37.912 Y-23.735 Z-2.183 I-0.912 J0
X-36.088 Y-23.735 Z-2.27 I0.912 J0
X-37.912 Y-23.735 Z-2.357 I-0.912 J0
X-36.088 Y-23.735 Z-2.444 I0.912 J0
X-37.912 Y-23.735 Z-2.532 I-0.912 J0
X-36.088 Y-23.735 Z-2.619 I0.912 J0
X-37.912 Y-23.735 Z-2.706 I-0.912 J0
X-36.088 Y-23.735 Z-2.794 I0.912 J0
X-37.912 Y-23.735 Z-2.881 I-0.912 J0
X-36.088 Y-23.735 Z-2.968 I0.912 J0
X-37.912 Y-23.735 Z-3.056 I-0.912 J0
X-36.088 Y-23.735 Z-3.143 I0.912 J0
X-37.912 Y-23.735 Z-3.23 I-0.912 J0
X-36.088 Y-23.735 Z-3.317 I0.912 J0
X-37.912 Y-23.735 Z-3.405 I-0.912 J0
X-36.088 Y-23.735 Z-3.492 I0.912 J0
X-37.912 Y-23.735 Z-3.579 I-0.912 J0
X-36.088 Y-23.735 Z-3.667 I0.912 J0
X-37.912 Y-23.735 Z-3.754 I-0.912 J0
X-36.088 Y-23.735 Z-3.841 I0.912 J0
X-37.912 Y-23.735 Z-3.929 I-0.912 J0
X-36.088 Y-23.735 Z-4.016 I0.912 J0
X-37.912 Y-23.735 Z-4.103 I-0.912 J0
X-36.088 Y-23.735 Z-4.19 I0.912 J0
X-37.912 Y-23.735 Z-4.278 I-0.912 J0
X-37.636 Y-24.389 Z-4.3 I0.912 J0
X-36.364 Y-23.081 I0.636 J0.654
X-37.636 Y-24.389 I-0.636 J-0.654
X-37.187 Y-24.383 I0.221 J0.228
G1 X-37.077 Y-24.269
X-37.027 Y-24.219 Z-4.292
X-36.981 Y-24.171 Z-4.269
X-36.939 Y-24.128 Z-4.231
X-36.904 Y-24.092 Z-4.18
X-36.877 Y-24.064 Z-4.12
X-36.861 Y-24.048 Z-4.053
X-36.855 Y-24.042 Z-3.983
Z5
X-13.078 Y-47.498
Z1.683
Z0
X-12.919
X-12.888 Y-47.491
X-12.861 Y-47.474
X-12.844 Y-47.447
X-12.837 Y-47.416
G3 X-13.163 Y-47.416 Z-0.061 I-0.163 J0
X-12.837 Y-47.416 Z-0.122 I0.163 J0
X-13.163 Y-47.416 Z-0.183 I-0.163 J0
X-12.837 Y-47.416 Z-0.244 I0.163 J0
X-13.163 Y-47.416 Z-0.306 I-0.163 J0
X-12.837 Y-47.416 Z-0.367 I0.163 J0
X-13.163 Y-47.416 Z-0.428 I-0.163 J0
X-12.837 Y-47.416 Z-0.489 I0.163 J0
X-13.162 Y-47.416 Z-0.55 I-0.163 J0
X-12.838 Y-47.416 Z-0.611 I0.162 J0
X-13.162 Y-47.416 Z-0.672 I-0.162 J0
X-12.838 Y-47.416 Z-0.733 I0.162 J0
X-13.162 Y-47.416 Z-0.794 I-0.162 J0
X-12.838 Y-47.416 Z-0.856 I0.162 J0
X-13.162 Y-47.416 Z-0.917 I-0.162 J0
X-12.838 Y-47.416 Z-0.978 I0.162 J0
X-13.162 Y-47.416 Z-1.039 I-0.162 J0
X-12.838 Y-47.416 Z-1.1 I0.162 J0
X-13.162 Y-47.416 Z-1.161 I-0.162 J0
X-12.838 Y-47.416 Z-1.222 I0.162 J0
X-13.162 Y-47.416 Z-1.283 I-0.162 J0
X-12.838 Y-47.416 Z-1.344 I0.162 J0
X-13.162 Y-47.416 Z-1.406 I-0.162 J0
X-12.838 Y-47.416 Z-1.467 I0.162 J0
X-13.162 Y-47.416 Z-1.528 I-0.162 J0
X-12.838 Y-47.416 Z-1.589 I0.162 J0
X-13.162 Y-47.416 Z-1.65 I-0.162 J0
X-12.838 Y-47.416 Z-1.711 I0.162 J0
X-13.162 Y-47.416 Z-1.772 I-0.162 J0
X-12.838 Y-47.416 Z-1.833 I0.162 J0
X-13.162 Y-47.416 Z-1.894 I-0.162 J0
X-12.838 Y-47.416 Z-1.956 I0.162 J0
X-13.162 Y-47.416 Z-2.017 I-0.162 J0
X-12.838 Y-47.416 Z-2.078 I0.162 J0
X-13.162 Y-47.416 Z-2.139 I-0.162 J0
X-12.838 Y-47.416 Z-2.2 I0.162 J0
X-13.162 Y-47.416 Z-2.261 I-0.162 J0
X-12.838 Y-47.416 Z-2.322 I0.162 J0
X-13.162 Y-47.416 Z-2.383 I-0.162 J0
X-12.838 Y-47.416 Z-2.444 I0.162 J0
X-13.162 Y-47.416 Z-2.506 I-0.162 J0
X-12.838 Y-47.416 Z-2.567 I0.162 J0
X-13.162 Y-47.416 Z-2.628 I-0.162 J0
X-12.838 Y-47.416 Z-2.689 I0.162 J0
X-13.162 Y-47.416 Z-2.75 I-0.162 J0
X-12.838 Y-47.416 Z-2.811 I0.162 J0
X-13.162 Y-47.416 Z-2.872 I-0.162 J0
X-12.838 Y-47.416 Z-2.933 I0.162 J0
X-13.162 Y-47.416 Z-2.994 I-0.162 J0
X-12.838 Y-47.416 Z-3.056 I0.162 J0
X-13.162 Y-47.416 Z-3.117 I-0.162 J0
X-12.838 Y-47.416 Z-3.178 I0.162 J0
X-13.162 Y-47.416 Z-3.239 I-0.162 J0
X-12.838 Y-47.416 Z-3.3 I0.162 J0
X-13.162 Y-47.416 Z-3.361 I-0.162 J0
X-12.838 Y-47.416 Z-3.422 I0.162 J0
X-13.162 Y-47.416 Z-3.483 I-0.162 J0
X-12.838 Y-47.416 Z-3.544 I0.162 J0
X-13.162 Y-47.416 Z-3.606 I-0.162 J0
X-12.838 Y-47.416 Z-3.667 I0.162 J0
X-13.162 Y-47.416 Z-3.728 I-0.162 J0
X-12.838 Y-47.416 Z-3.789 I0.162 J0
X-13.162 Y-47.416 Z-3.85 I-0.162 J0
X-12.838 Y-47.416 Z-3.911 I0.162 J0
X-13.162 Y-47.416 Z-3.972 I-0.162 J0
X-12.838 Y-47.416 Z-4.033 I0.162 J0
X-13.162 Y-47.416 Z-4.094 I-0.162 J0
X-12.838 Y-47.416 Z-4.156 I0.162 J0
X-13.162 Y-47.416 Z-4.217 I-0.162 J0
X-12.838 Y-47.416 Z-4.278 I0.162 J0
X-12.932 Y-47.269 Z-4.3 I-0.162 J0
X-13.068 Y-47.564 I-0.068 J-0.148
X-12.932 Y-47.269 I0.068 J0.148
G1 X-12.963 Y-47.261
X-12.995 Y-47.266
X-13.021 Y-47.283
X-13.04 Y-47.309
X-13.106 Y-47.453
Z5
X-32.827 Y-62.067
Z1.683
Z0
X-32.669
X-32.638 Y-62.06
X-32.611 Y-62.043
X-32.594 Y-62.016
X-32.588 Y-61.985
G3 X-32.912 Y-61.985 Z-0.061 I-0.162 J0
X-32.588 Y-61.985 Z-0.122 I0.162 J0
X-32.912 Y-61.985 Z-0.183 I-0.162 J0
X-32.588 Y-61.985 Z-0.244 I0.162 J0
X-32.912 Y-61.985 Z-0.306 I-0.162 J0
X-32.588 Y-61.985 Z-0.367 I0.162 J0
X-32.912 Y-61.985 Z-0.428 I-0.162 J0
X-32.588 Y-61.985 Z-0.489 I0.162 J0
X-32.912 Y-61.985 Z-0.55 I-0.162 J0
X-32.588 Y-61.985 Z-0.611 I0.162 J0
X-32.912 Y-61.985 Z-0.672 I-0.162 J0
X-32.588 Y-61.985 Z-0.733 I0.162 J0
X-32.912 Y-61.985 Z-0.794 I-0.162 J0
X-32.588 Y-61.985 Z-0.856 I0.162 J0
X-32.912 Y-61.985 Z-0.917 I-0.162 J0
X-32.588 Y-61.985 Z-0.978 I0.162 J0
X-32.912 Y-61.985 Z-1.039 I-0.162 J0
X-32.588 Y-61.985 Z-1.1 I0.162 J0
X-32.912 Y-61.985 Z-1.161 I-0.162 J0
X-32.588 Y-61.985 Z-1.222 I0.162 J0
X-32.912 Y-61.985 Z-1.283 I-0.162 J0
X-32.588 Y-61.985 Z-1.344 I0.162 J0
X-32.912 Y-61.985 Z-1.406 I-0.162 J0
X-32.588 Y-61.985 Z-1.467 I0.162 J0
X-32.912 Y-61.985 Z-1.528 I-0.162 J0
X-32.588 Y-61.985 Z-1.589 I0.162 J0
X-32.912 Y-61.985 Z-1.65 I-0.162 J0
X-32.588 Y-61.985 Z-1.711 I0.162 J0
X-32.912 Y-61.985 Z-1.772 I-0.162 J0
X-32.588 Y-61.985 Z-1.833 I0.162 J0
X-32.912 Y-61.985 Z-1.894 I-0.162 J0
X-32.588 Y-61.985 Z-1.956 I0.162 J0
X-32.912 Y-61.985 Z-2.017 I-0.162 J0
X-32.588 Y-61.985 Z-2.078 I0.162 J0
X-32.912 Y-61.985 Z-2.139 I-0.162 J0
X-32.588 Y-61.985 Z-2.2 I0.162 J0
X-32.912 Y-61.985 Z-2.261 I-0.162 J0
X-32.588 Y-61.985 Z-2.322 I0.162 J0
X-32.912 Y-61.985 Z-2.383 I-0.162 J0
X-32.588 Y-61.985 Z-2.444 I0.162 J0
X-32.912 Y-61.985 Z-2.506 I-0.162 J0
X-32.588 Y-61.985 Z-2.567 I0.162 J0
X-32.912 Y-61.985 Z-2.628 I-0.162 J0
X-32.588 Y-61.985 Z-2.689 I0.162 J0
X-32.912 Y-61.985 Z-2.75 I-0.162 J0
X-32.588 Y-61.985 Z-2.811 I0.162 J0
X-32.912 Y-61.985 Z-2.872 I-0.162 J0
X-32.587 Y-61.985 Z-2.933 I0.162 J0
X-32.913 Y-61.985 Z-2.994 I-0.163 J0
X-32.587 Y-61.985 Z-3.056 I0.163 J0
X-32.913 Y-61.985 Z-3.117 I-0.163 J0
X-32.587 Y-61.985 Z-3.178 I0.163 J0
X-32.913 Y-61.985 Z-3.239 I-0.163 J0
X-32.587 Y-61.985 Z-3.3 I0.163 J0
X-32.913 Y-61.985 Z-3.361 I-0.163 J0
X-32.587 Y-61.985 Z-3.422 I0.163 J0
X-32.913 Y-61.985 Z-3.483 I-0.163 J0
X-32.587 Y-61.985 Z-3.544 I0.163 J0
X-32.913 Y-61.985 Z-3.606 I-0.163 J0
X-32.587 Y-61.985 Z-3.667 I0.163 J0
X-32.913 Y-61.985 Z-3.728 I-0.163 J0
X-32.587 Y-61.985 Z-3.789 I0.163 J0
X-32.913 Y-61.985 Z-3.85 I-0.163 J0
X-32.587 Y-61.985 Z-3.911 I0.163 J0
X-32.913 Y-61.985 Z-3.972 I-0.163 J0
X-32.587 Y-61.985 Z-4.033 I0.163 J0
X-32.913 Y-61.985 Z-4.094 I-0.163 J0
X-32.587 Y-61.985 Z-4.156 I0.163 J0
X-32.913 Y-61.985 Z-4.217 I-0.163 J0
X-32.587 Y-61.985 Z-4.278 I0.163 J0
X-32.682 Y-61.838 Z-4.3 I-0.163 J0
X-32.818 Y-62.133 I-0.068 J-0.148
X-32.682 Y-61.838 I0.068 J0.148
G1 X-32.713 Y-61.83
X-32.745 Y-61.835
X-32.771 Y-61.852
X-32.79 Y-61.878
X-32.856 Y-62.022
Z5
X-42.881 Y-77.553
Z2
Z0.317
G18 G2 X-42.564 Z0 I0.317 K0
G1 X-42.405
G17 G3 X-42.088 Y-77.235 I0 J0.317
X-53.912 Y-77.235 Z-0.262 I-5.912 J0
X-42.088 Y-77.235 Z-0.524 I5.912 J0
X-53.912 Y-77.235 Z-0.786 I-5.912 J0
X-42.088 Y-77.235 Z-1.048 I5.912 J0
X-53.912 Y-77.235 Z-1.31 I-5.912 J0
X-42.088 Y-77.235 Z-1.571 I5.912 J0
X-53.912 Y-77.235 Z-1.833 I-5.912 J0
X-42.088 Y-77.235 Z-2.095 I5.912 J0
X-53.912 Y-77.235 Z-2.357 I-5.912 J0
X-42.088 Y-77.235 Z-2.619 I5.912 J0
X-53.912 Y-77.235 Z-2.881 I-5.912 J0
X-42.088 Y-77.235 Z-3.143 I5.912 J0
X-53.912 Y-77.235 Z-3.405 I-5.912 J0
X-42.088 Y-77.235 Z-3.667 I5.912 J0
X-53.912 Y-77.235 Z-3.929 I-5.912 J0
X-42.088 Y-77.235 Z-4.19 I5.912 J0
X-46.496 Y-71.517 Z-4.3 I-5.912 J0
X-49.504 Y-82.953 I-1.504 J-5.718
X-46.496 Y-71.517 I1.504 J5.718
X-46.884 Y-71.744 I-0.081 J-0.307
G1 X-46.924 Y-71.897
X-46.942 Y-71.966 Z-4.292
X-46.959 Y-72.03 Z-4.269
X-46.974 Y-72.089 Z-4.231
X-46.987 Y-72.137 Z-4.18
X-46.997 Y-72.174 Z-4.12
X-47.003 Y-72.197 Z-4.053
X-47.005 Y-72.204 Z-3.983
Z5
X-63.327 Y-62.067
Z1.683
Z0
X-63.169
X-63.138 Y-62.06
X-63.111 Y-62.043
X-63.094 Y-62.016
X-63.088 Y-61.985
G3 X-63.412 Y-61.985 Z-0.061 I-0.162 J0
X-63.088 Y-61.985 Z-0.122 I0.162 J0
X-63.412 Y-61.985 Z-0.183 I-0.162 J0
X-63.088 Y-61.985 Z-0.244 I0.162 J0
X-63.412 Y-61.985 Z-0.306 I-0.162 J0
X-63.088 Y-61.985 Z-0.367 I0.162 J0
X-63.412 Y-61.985 Z-0.428 I-0.162 J0
X-63.088 Y-61.985 Z-0.489 I0.162 J0
X-63.412 Y-61.985 Z-0.55 I-0.162 J0
X-63.088 Y-61.985 Z-0.611 I0.162 J0
X-63.412 Y-61.985 Z-0.672 I-0.162 J0
X-63.088 Y-61.985 Z-0.733 I0.162 J0
X-63.412 Y-61.985 Z-0.794 I-0.162 J0
X-63.088 Y-61.985 Z-0.856 I0.162 J0
X-63.412 Y-61.985 Z-0.917 I-0.162 J0
X-63.088 Y-61.985 Z-0.978 I0.162 J0
X-63.412 Y-61.985 Z-1.039 I-0.162 J0
X-63.088 Y-61.985 Z-1.1 I0.162 J0
X-63.412 Y-61.985 Z-1.161 I-0.162 J0
X-63.088 Y-61.985 Z-1.222 I0.162 J0
X-63.412 Y-61.985 Z-1.283 I-0.162 J0
X-63.088 Y-61.985 Z-1.344 I0.162 J0
X-63.412 Y-61.985 Z-1.406 I-0.162 J0
X-63.088 Y-61.985 Z-1.467 I0.162 J0
X-63.412 Y-61.985 Z-1.528 I-0.162 J0
X-63.088 Y-61.985 Z-1.589 I0.162 J0
X-63.412 Y-61.985 Z-1.65 I-0.162 J0
X-63.088 Y-61.985 Z-1.711 I0.162 J0
X-63.412 Y-61.985 Z-1.772 I-0.162 J0
X-63.088 Y-61.985 Z-1.833 I0.162 J0
X-63.412 Y-61.985 Z-1.894 I-0.162 J0
X-63.088 Y-61.985 Z-1.956 I0.162 J0
X-63.412 Y-61.985 Z-2.017 I-0.162 J0
X-63.088 Y-61.985 Z-2.078 I0.162 J0
X-63.412 Y-61.985 Z-2.139 I-0.162 J0
X-63.088 Y-61.985 Z-2.2 I0.162 J0
X-63.412 Y-61.985 Z-2.261 I-0.162 J0
X-63.088 Y-61.985 Z-2.322 I0.162 J0
X-63.412 Y-61.985 Z-2.383 I-0.162 J0
X-63.088 Y-61.985 Z-2.444 I0.162 J0
X-63.412 Y-61.985 Z-2.506 I-0.162 J0
X-63.088 Y-61.985 Z-2.567 I0.162 J0
X-63.412 Y-61.985 Z-2.628 I-0.162 J0
X-63.088 Y-61.985 Z-2.689 I0.162 J0
X-63.412 Y-61.985 Z-2.75 I-0.162 J0
X-63.088 Y-61.985 Z-2.811 I0.162 J0
X-63.412 Y-61.985 Z-2.872 I-0.162 J0
X-63.087 Y-61.985 Z-2.933 I0.162 J0
X-63.413 Y-61.985 Z-2.994 I-0.163 J0
X-63.087 Y-61.985 Z-3.056 I0.163 J0
X-63.413 Y-61.985 Z-3.117 I-0.163 J0
X-63.087 Y-61.985 Z-3.178 I0.163 J0
X-63.413 Y-61.985 Z-3.239 I-0.163 J0
X-63.087 Y-61.985 Z-3.3 I0.163 J0
X-63.413 Y-61.985 Z-3.361 I-0.163 J0
X-63.087 Y-61.985 Z-3.422 I0.163 J0
X-63.413 Y-61.985 Z-3.483 I-0.163 J0
X-63.087 Y-61.985 Z-3.544 I0.163 J0
X-63.413 Y-61.985 Z-3.606 I-0.163 J0
X-63.087 Y-61.985 Z-3.667 I0.163 J0
X-63.413 Y-61.985 Z-3.728 I-0.163 J0
X-63.087 Y-61.985 Z-3.789 I0.163 J0
X-63.413 Y-61.985 Z-3.85 I-0.163 J0
X-63.087 Y-61.985 Z-3.911 I0.163 J0
X-63.413 Y-61.985 Z-3.972 I-0.163 J0
X-63.087 Y-61.985 Z-4.033 I0.163 J0
X-63.413 Y-61.985 Z-4.094 I-0.163 J0
X-63.087 Y-61.985 Z-4.156 I0.163 J0
X-63.413 Y-61.985 Z-4.217 I-0.163 J0
X-63.087 Y-61.985 Z-4.278 I0.163 J0
X-63.182 Y-61.838 Z-4.3 I-0.163 J0
X-63.318 Y-62.133 I-0.068 J-0.148
X-63.182 Y-61.838 I0.068 J0.148
G1 X-63.213 Y-61.83
X-63.245 Y-61.835
X-63.271 Y-61.852
X-63.29 Y-61.878
X-63.356 Y-62.022
Z5
X-83.077 Y-47.498
Z1.683
Z0
X-82.919
X-82.888 Y-47.491
X-82.861 Y-47.474
X-82.844 Y-47.447
X-82.838 Y-47.416
G3 X-83.162 Y-47.416 Z-0.061 I-0.162 J0
X-82.838 Y-47.416 Z-0.122 I0.162 J0
X-83.162 Y-47.416 Z-0.183 I-0.162 J0
X-82.838 Y-47.416 Z-0.244 I0.162 J0
X-83.162 Y-47.416 Z-0.306 I-0.162 J0
X-82.838 Y-47.416 Z-0.367 I0.162 J0
X-83.162 Y-47.416 Z-0.428 I-0.162 J0
X-82.838 Y-47.416 Z-0.489 I0.162 J0
X-83.162 Y-47.416 Z-0.55 I-0.162 J0
X-82.838 Y-47.416 Z-0.611 I0.162 J0
X-83.162 Y-47.416 Z-0.672 I-0.162 J0
X-82.838 Y-47.416 Z-0.733 I0.162 J0
X-83.162 Y-47.416 Z-0.794 I-0.162 J0
X-82.838 Y-47.416 Z-0.856 I0.162 J0
X-83.162 Y-47.416 Z-0.917 I-0.162 J0
X-82.838 Y-47.416 Z-0.978 I0.162 J0
X-83.162 Y-47.416 Z-1.039 I-0.162 J0
X-82.838 Y-47.416 Z-1.1 I0.162 J0
X-83.162 Y-47.416 Z-1.161 I-0.162 J0
X-82.838 Y-47.416 Z-1.222 I0.162 J0
X-83.162 Y-47.416 Z-1.283 I-0.162 J0
X-82.838 Y-47.416 Z-1.344 I0.162 J0
X-83.162 Y-47.416 Z-1.406 I-0.162 J0
X-82.838 Y-47.416 Z-1.467 I0.162 J0
X-83.162 Y-47.416 Z-1.528 I-0.162 J0
X-82.838 Y-47.416 Z-1.589 I0.162 J0
X-83.162 Y-47.416 Z-1.65 I-0.162 J0
X-82.838 Y-47.416 Z-1.711 I0.162 J0
X-83.162 Y-47.416 Z-1.772 I-0.162 J0
X-82.838 Y-47.416 Z-1.833 I0.162 J0
X-83.162 Y-47.416 Z-1.894 I-0.162 J0
X-82.838 Y-47.416 Z-1.956 I0.162 J0
X-83.162 Y-47.416 Z-2.017 I-0.162 J0
X-82.838 Y-47.416 Z-2.078 I0.162 J0
X-83.162 Y-47.416 Z-2.139 I-0.162 J0
X-82.838 Y-47.416 Z-2.2 I0.162 J0
X-83.162 Y-47.416 Z-2.261 I-0.162 J0
X-82.838 Y-47.416 Z-2.322 I0.162 J0
X-83.162 Y-47.416 Z-2.383 I-0.162 J0
X-82.838 Y-47.416 Z-2.444 I0.162 J0
X-83.162 Y-47.416 Z-2.506 I-0.162 J0
X-82.838 Y-47.416 Z-2.567 I0.162 J0
X-83.162 Y-47.416 Z-2.628 I-0.162 J0
X-82.838 Y-47.416 Z-2.689 I0.162 J0
X-83.162 Y-47.416 Z-2.75 I-0.162 J0
X-82.838 Y-47.416 Z-2.811 I0.162 J0
X-83.162 Y-47.416 Z-2.872 I-0.162 J0
X-82.838 Y-47.416 Z-2.933 I0.162 J0
X-83.162 Y-47.416 Z-2.994 I-0.162 J0
X-82.838 Y-47.416 Z-3.056 I0.162 J0
X-83.162 Y-47.416 Z-3.117 I-0.162 J0
X-82.838 Y-47.416 Z-3.178 I0.162 J0
X-83.162 Y-47.416 Z-3.239 I-0.162 J0
X-82.838 Y-47.416 Z-3.3 I0.162 J0
X-83.162 Y-47.416 Z-3.361 I-0.162 J0
X-82.838 Y-47.416 Z-3.422 I0.162 J0
X-83.162 Y-47.416 Z-3.483 I-0.162 J0
X-82.838 Y-47.416 Z-3.544 I0.162 J0
X-83.162 Y-47.416 Z-3.606 I-0.162 J0
X-82.838 Y-47.416 Z-3.667 I0.162 J0
X-83.162 Y-47.416 Z-3.728 I-0.162 J0
X-82.838 Y-47.416 Z-3.789 I0.162 J0
X-83.162 Y-47.416 Z-3.85 I-0.162 J0
X-82.838 Y-47.416 Z-3.911 I0.162 J0
X-83.162 Y-47.416 Z-3.972 I-0.162 J0
X-82.838 Y-47.416 Z-4.033 I0.162 J0
X-83.162 Y-47.416 Z-4.094 I-0.162 J0
X-82.838 Y-47.416 Z-4.156 I0.162 J0
X-83.162 Y-47.416 Z-4.217 I-0.162 J0
X-82.838 Y-47.416 Z-4.278 I0.162 J0
X-82.932 Y-47.269 Z-4.3 I-0.162 J0
X-83.068 Y-47.564 I-0.068 J-0.148
X-82.932 Y-47.269 I0.068 J0.148
G1 X-82.963 Y-47.261
X-82.995 Y-47.266
X-83.021 Y-47.283
X-83.04 Y-47.309
X-83.106 Y-47.453
Z5
X-108.689 Y-58.15
Z0.183
Z-1.5
X-108.53
X-108.499 Y-58.144
X-108.473 Y-58.127
X-108.455 Y-58.1
X-108.449 Y-58.069
G3 X-108.774 Y-58.069 Z-1.561 I-0.162 J0
X-108.449 Y-58.069 Z-1.622 I0.162 J0
X-108.774 Y-58.069 Z-1.683 I-0.162 J0
X-108.449 Y-58.069 Z-1.744 I0.162 J0
X-108.774 Y-58.069 Z-1.806 I-0.162 J0
X-108.449 Y-58.069 Z-1.867 I0.162 J0
X-108.774 Y-58.069 Z-1.928 I-0.162 J0
X-108.449 Y-58.069 Z-1.989 I0.162 J0
X-108.774 Y-58.069 Z-2.05 I-0.162 J0
X-108.449 Y-58.069 Z-2.111 I0.162 J0
X-108.774 Y-58.069 Z-2.172 I-0.162 J0
X-108.449 Y-58.069 Z-2.233 I0.162 J0
X-108.774 Y-58.069 Z-2.294 I-0.162 J0
X-108.449 Y-58.069 Z-2.356 I0.162 J0
X-108.774 Y-58.069 Z-2.417 I-0.162 J0
X-108.449 Y-58.069 Z-2.478 I0.162 J0
X-108.774 Y-58.069 Z-2.539 I-0.162 J0
X-108.449 Y-58.069 Z-2.6 I0.162 J0
X-108.774 Y-58.069 Z-2.661 I-0.162 J0
X-108.449 Y-58.069 Z-2.722 I0.162 J0
X-108.774 Y-58.069 Z-2.783 I-0.162 J0
X-108.449 Y-58.069 Z-2.844 I0.162 J0
X-108.774 Y-58.069 Z-2.906 I-0.163 J0
X-108.449 Y-58.069 Z-2.967 I0.163 J0
X-108.774 Y-58.069 Z-3.028 I-0.163 J0
X-108.449 Y-58.069 Z-3.089 I0.163 J0
X-108.774 Y-58.069 Z-3.15 I-0.163 J0
X-108.449 Y-58.069 Z-3.211 I0.163 J0
X-108.774 Y-58.069 Z-3.272 I-0.163 J0
X-108.449 Y-58.069 Z-3.333 I0.163 J0
X-108.774 Y-58.069 Z-3.394 I-0.163 J0
X-108.449 Y-58.069 Z-3.456 I0.163 J0
X-108.774 Y-58.069 Z-3.517 I-0.163 J0
X-108.449 Y-58.069 Z-3.578 I0.163 J0
X-108.774 Y-58.069 Z-3.639 I-0.163 J0
X-108.449 Y-58.069 Z-3.7 I0.163 J0
X-108.774 Y-58.069 Z-3.761 I-0.163 J0
X-108.449 Y-58.069 Z-3.822 I0.163 J0
X-108.774 Y-58.069 Z-3.883 I-0.163 J0
X-108.449 Y-58.069 Z-3.944 I0.163 J0
X-108.774 Y-58.069 Z-4.006 I-0.163 J0
X-108.449 Y-58.069 Z-4.067 I0.163 J0
X-108.774 Y-58.069 Z-4.128 I-0.163 J0
X-108.449 Y-58.069 Z-4.189 I0.163 J0
X-108.774 Y-58.069 Z-4.25 I-0.163 J0
X-108.475 Y-58.157 Z-4.3 I0.163 J0
X-108.748 Y-57.981 I-0.137 J0.088
X-108.475 Y-58.157 I0.137 J-0.088
G1 X-108.463 Y-58.128
X-108.464 Y-58.096
X-108.476 Y-58.067
X-108.499 Y-58.045
X-108.633 Y-57.959
Z5
X-88.939 Y-72.719
Z0.183
Z-1.5
X-88.78
X-88.749 Y-72.713
X-88.723 Y-72.696
X-88.705 Y-72.669
X-88.699 Y-72.638
G3 X-89.024 Y-72.638 Z-1.561 I-0.162 J0
X-88.699 Y-72.638 Z-1.622 I0.162 J0
X-89.024 Y-72.638 Z-1.683 I-0.162 J0
X-88.699 Y-72.638 Z-1.744 I0.162 J0
X-89.024 Y-72.638 Z-1.806 I-0.162 J0
X-88.699 Y-72.638 Z-1.867 I0.162 J0
X-89.024 Y-72.638 Z-1.928 I-0.162 J0
X-88.699 Y-72.638 Z-1.989 I0.162 J0
X-89.024 Y-72.638 Z-2.05 I-0.162 J0
X-88.699 Y-72.638 Z-2.111 I0.162 J0
X-89.024 Y-72.638 Z-2.172 I-0.162 J0
X-88.699 Y-72.638 Z-2.233 I0.162 J0
X-89.024 Y-72.638 Z-2.294 I-0.162 J0
X-88.699 Y-72.638 Z-2.356 I0.162 J0
X-89.024 Y-72.638 Z-2.417 I-0.162 J0
X-88.699 Y-72.638 Z-2.478 I0.162 J0
X-89.024 Y-72.638 Z-2.539 I-0.162 J0
X-88.699 Y-72.638 Z-2.6 I0.162 J0
X-89.024 Y-72.638 Z-2.661 I-0.162 J0
X-88.699 Y-72.638 Z-2.722 I0.162 J0
X-89.024 Y-72.638 Z-2.783 I-0.162 J0
X-88.699 Y-72.638 Z-2.844 I0.162 J0
X-89.024 Y-72.638 Z-2.906 I-0.163 J0
X-88.699 Y-72.638 Z-2.967 I0.163 J0
X-89.024 Y-72.638 Z-3.028 I-0.163 J0
X-88.699 Y-72.638 Z-3.089 I0.163 J0
X-89.024 Y-72.638 Z-3.15 I-0.163 J0
X-88.699 Y-72.638 Z-3.211 I0.163 J0
X-89.024 Y-72.638 Z-3.272 I-0.163 J0
X-88.699 Y-72.638 Z-3.333 I0.163 J0
X-89.024 Y-72.638 Z-3.394 I-0.163 J0
X-88.699 Y-72.638 Z-3.456 I0.163 J0
X-89.024 Y-72.638 Z-3.517 I-0.163 J0
X-88.699 Y-72.638 Z-3.578 I0.163 J0
X-89.024 Y-72.638 Z-3.639 I-0.163 J0
X-88.699 Y-72.638 Z-3.7 I0.163 J0
X-89.024 Y-72.638 Z-3.761 I-0.163 J0
X-88.699 Y-72.638 Z-3.822 I0.163 J0
X-89.024 Y-72.638 Z-3.883 I-0.163 J0
X-88.699 Y-72.638 Z-3.944 I0.163 J0
X-89.024 Y-72.638 Z-4.006 I-0.163 J0
X-88.699 Y-72.638 Z-4.067 I0.163 J0
X-89.024 Y-72.638 Z-4.128 I-0.163 J0
X-88.699 Y-72.638 Z-4.189 I0.163 J0
X-89.024 Y-72.638 Z-4.25 I-0.163 J0
X-88.725 Y-72.726 Z-4.3 I0.163 J0
X-88.998 Y-72.55 I-0.137 J0.088
X-88.725 Y-72.726 I0.137 J-0.088
G1 X-88.713 Y-72.697
X-88.714 Y-72.665
X-88.726 Y-72.636
X-88.749 Y-72.614
X-88.883 Y-72.528
Z5
X-83.077 Y-107.136
Z1.683
Z0
X-82.919
X-82.888 Y-107.13
X-82.861 Y-107.112
X-82.844 Y-107.086
X-82.838 Y-107.054
G3 X-83.162 Y-107.054 Z-0.061 I-0.162 J0
X-82.838 Y-107.054 Z-0.122 I0.162 J0
X-83.162 Y-107.054 Z-0.183 I-0.162 J0
X-82.838 Y-107.054 Z-0.244 I0.162 J0
X-83.162 Y-107.054 Z-0.306 I-0.162 J0
X-82.838 Y-107.054 Z-0.367 I0.162 J0
X-83.162 Y-107.054 Z-0.428 I-0.162 J0
X-82.838 Y-107.054 Z-0.489 I0.162 J0
X-83.162 Y-107.054 Z-0.55 I-0.162 J0
X-82.838 Y-107.054 Z-0.611 I0.162 J0
X-83.162 Y-107.054 Z-0.672 I-0.162 J0
X-82.838 Y-107.054 Z-0.733 I0.162 J0
X-83.162 Y-107.054 Z-0.794 I-0.162 J0
X-82.838 Y-107.054 Z-0.856 I0.162 J0
X-83.162 Y-107.054 Z-0.917 I-0.162 J0
X-82.838 Y-107.054 Z-0.978 I0.162 J0
X-83.162 Y-107.054 Z-1.039 I-0.162 J0
X-82.838 Y-107.054 Z-1.1 I0.162 J0
X-83.162 Y-107.054 Z-1.161 I-0.162 J0
X-82.838 Y-107.054 Z-1.222 I0.162 J0
X-83.162 Y-107.054 Z-1.283 I-0.162 J0
X-82.838 Y-107.054 Z-1.344 I0.162 J0
X-83.162 Y-107.054 Z-1.406 I-0.162 J0
X-82.838 Y-107.054 Z-1.467 I0.162 J0
X-83.162 Y-107.054 Z-1.528 I-0.162 J0
X-82.838 Y-107.054 Z-1.589 I0.162 J0
X-83.162 Y-107.054 Z-1.65 I-0.162 J0
X-82.837 Y-107.054 Z-1.711 I0.162 J0
X-83.163 Y-107.054 Z-1.772 I-0.163 J0
X-82.837 Y-107.054 Z-1.833 I0.163 J0
X-83.163 Y-107.054 Z-1.894 I-0.163 J0
X-82.837 Y-107.054 Z-1.956 I0.163 J0
X-83.163 Y-107.054 Z-2.017 I-0.163 J0
X-82.837 Y-107.054 Z-2.078 I0.163 J0
X-83.163 Y-107.054 Z-2.139 I-0.163 J0
X-82.837 Y-107.054 Z-2.2 I0.163 J0
X-83.163 Y-107.054 Z-2.261 I-0.163 J0
X-82.837 Y-107.054 Z-2.322 I0.163 J0
X-83.163 Y-107.054 Z-2.383 I-0.163 J0
X-82.837 Y-107.054 Z-2.444 I0.163 J0
X-83.163 Y-107.054 Z-2.506 I-0.163 J0
X-82.837 Y-107.054 Z-2.567 I0.163 J0
X-83.163 Y-107.054 Z-2.628 I-0.163 J0
X-82.837 Y-107.054 Z-2.689 I0.163 J0
X-83.163 Y-107.054 Z-2.75 I-0.163 J0
X-82.837 Y-107.054 Z-2.811 I0.163 J0
X-83.163 Y-107.054 Z-2.872 I-0.163 J0
X-82.837 Y-107.054 Z-2.933 I0.163 J0
X-83.163 Y-107.054 Z-2.994 I-0.163 J0
X-82.837 Y-107.054 Z-3.056 I0.163 J0
X-83.163 Y-107.054 Z-3.117 I-0.163 J0
X-82.837 Y-107.054 Z-3.178 I0.163 J0
X-83.163 Y-107.054 Z-3.239 I-0.163 J0
X-82.837 Y-107.054 Z-3.3 I0.163 J0
X-83.163 Y-107.054 Z-3.361 I-0.163 J0
X-82.837 Y-107.054 Z-3.422 I0.163 J0
X-83.163 Y-107.054 Z-3.483 I-0.163 J0
X-82.837 Y-107.054 Z-3.544 I0.163 J0
X-83.163 Y-107.054 Z-3.606 I-0.163 J0
X-82.837 Y-107.054 Z-3.667 I0.163 J0
X-83.163 Y-107.054 Z-3.728 I-0.163 J0
X-82.837 Y-107.054 Z-3.789 I0.163 J0
X-83.163 Y-107.054 Z-3.85 I-0.163 J0
X-82.837 Y-107.054 Z-3.911 I0.163 J0
X-83.163 Y-107.054 Z-3.972 I-0.163 J0
X-82.837 Y-107.054 Z-4.033 I0.163 J0
X-83.163 Y-107.054 Z-4.094 I-0.163 J0
X-82.837 Y-107.054 Z-4.156 I0.163 J0
X-83.163 Y-107.054 Z-4.217 I-0.163 J0
X-82.837 Y-107.054 Z-4.278 I0.163 J0
X-82.932 Y-106.907 Z-4.3 I-0.163 J0
X-83.068 Y-107.202 I-0.068 J-0.148
X-82.932 Y-106.907 I0.068 J0.148
G1 X-82.963 Y-106.899
X-82.995 Y-106.904
X-83.021 Y-106.921
X-83.04 Y-106.947
X-83.106 Y-107.091
Z5
X-63.327 Y-92.567
Z1.683
Z0
X-63.169
X-63.138 Y-92.56
X-63.111 Y-92.543
X-63.094 Y-92.516
X-63.088 Y-92.485
G3 X-63.412 Y-92.485 Z-0.061 I-0.162 J0
X-63.088 Y-92.485 Z-0.122 I0.162 J0
X-63.412 Y-92.485 Z-0.183 I-0.162 J0
X-63.088 Y-92.485 Z-0.244 I0.162 J0
X-63.412 Y-92.485 Z-0.306 I-0.162 J0
X-63.088 Y-92.485 Z-0.367 I0.162 J0
X-63.412 Y-92.485 Z-0.428 I-0.162 J0
X-63.088 Y-92.485 Z-0.489 I0.162 J0
X-63.412 Y-92.485 Z-0.55 I-0.162 J0
X-63.088 Y-92.485 Z-0.611 I0.162 J0
X-63.412 Y-92.485 Z-0.672 I-0.162 J0
X-63.088 Y-92.485 Z-0.733 I0.162 J0
X-63.412 Y-92.485 Z-0.794 I-0.162 J0
X-63.088 Y-92.485 Z-0.856 I0.162 J0
X-63.412 Y-92.485 Z-0.917 I-0.162 J0
X-63.088 Y-92.485 Z-0.978 I0.162 J0
X-63.412 Y-92.485 Z-1.039 I-0.162 J0
X-63.088 Y-92.485 Z-1.1 I0.162 J0
X-63.412 Y-92.485 Z-1.161 I-0.162 J0
X-63.088 Y-92.485 Z-1.222 I0.162 J0
X-63.412 Y-92.485 Z-1.283 I-0.162 J0
X-63.088 Y-92.485 Z-1.344 I0.162 J0
X-63.412 Y-92.485 Z-1.406 I-0.162 J0
X-63.088 Y-92.485 Z-1.467 I0.162 J0
X-63.412 Y-92.485 Z-1.528 I-0.162 J0
X-63.088 Y-92.485 Z-1.589 I0.162 J0
X-63.412 Y-92.485 Z-1.65 I-0.162 J0
X-63.088 Y-92.485 Z-1.711 I0.162 J0
X-63.412 Y-92.485 Z-1.772 I-0.162 J0
X-63.088 Y-92.485 Z-1.833 I0.162 J0
X-63.412 Y-92.485 Z-1.894 I-0.162 J0
X-63.088 Y-92.485 Z-1.956 I0.162 J0
X-63.412 Y-92.485 Z-2.017 I-0.162 J0
X-63.088 Y-92.485 Z-2.078 I0.162 J0
X-63.412 Y-92.485 Z-2.139 I-0.162 J0
X-63.088 Y-92.485 Z-2.2 I0.162 J0
X-63.412 Y-92.485 Z-2.261 I-0.162 J0
X-63.088 Y-92.485 Z-2.322 I0.162 J0
X-63.412 Y-92.485 Z-2.383 I-0.162 J0
X-63.088 Y-92.485 Z-2.444 I0.162 J0
X-63.412 Y-92.485 Z-2.506 I-0.162 J0
X-63.088 Y-92.485 Z-2.567 I0.162 J0
X-63.412 Y-92.485 Z-2.628 I-0.162 J0
X-63.088 Y-92.485 Z-2.689 I0.162 J0
X-63.412 Y-92.485 Z-2.75 I-0.162 J0
X-63.088 Y-92.485 Z-2.811 I0.162 J0
X-63.412 Y-92.485 Z-2.872 I-0.162 J0
X-63.087 Y-92.485 Z-2.933 I0.162 J0
X-63.413 Y-92.485 Z-2.994 I-0.163 J0
X-63.087 Y-92.485 Z-3.056 I0.163 J0
X-63.413 Y-92.485 Z-3.117 I-0.163 J0
X-63.087 Y-92.485 Z-3.178 I0.163 J0
X-63.413 Y-92.485 Z-3.239 I-0.163 J0
X-63.087 Y-92.485 Z-3.3 I0.163 J0
X-63.413 Y-92.485 Z-3.361 I-0.163 J0
X-63.087 Y-92.485 Z-3.422 I0.163 J0
X-63.413 Y-92.485 Z-3.483 I-0.163 J0
X-63.087 Y-92.485 Z-3.544 I0.163 J0
X-63.413 Y-92.485 Z-3.606 I-0.163 J0
X-63.087 Y-92.485 Z-3.667 I0.163 J0
X-63.413 Y-92.485 Z-3.728 I-0.163 J0
X-63.087 Y-92.485 Z-3.789 I0.163 J0
X-63.413 Y-92.485 Z-3.85 I-0.163 J0
X-63.087 Y-92.485 Z-3.911 I0.163 J0
X-63.413 Y-92.485 Z-3.972 I-0.163 J0
X-63.087 Y-92.485 Z-4.033 I0.163 J0
X-63.413 Y-92.485 Z-4.094 I-0.163 J0
X-63.087 Y-92.485 Z-4.156 I0.163 J0
X-63.413 Y-92.485 Z-4.217 I-0.163 J0
X-63.087 Y-92.485 Z-4.278 I0.163 J0
X-63.182 Y-92.338 Z-4.3 I-0.163 J0
X-63.318 Y-92.633 I-0.068 J-0.148
X-63.182 Y-92.338 I0.068 J0.148
G1 X-63.213 Y-92.33
X-63.245 Y-92.335
X-63.271 Y-92.352
X-63.29 Y-92.378
X-63.356 Y-92.522
Z5
X-32.827 Y-92.567
Z1.683
Z0
X-32.669
X-32.638 Y-92.56
X-32.611 Y-92.543
X-32.594 Y-92.516
X-32.588 Y-92.485
G3 X-32.912 Y-92.485 Z-0.061 I-0.162 J0
X-32.588 Y-92.485 Z-0.122 I0.162 J0
X-32.912 Y-92.485 Z-0.183 I-0.162 J0
X-32.588 Y-92.485 Z-0.244 I0.162 J0
X-32.912 Y-92.485 Z-0.306 I-0.162 J0
X-32.588 Y-92.485 Z-0.367 I0.162 J0
X-32.912 Y-92.485 Z-0.428 I-0.162 J0
X-32.588 Y-92.485 Z-0.489 I0.162 J0
X-32.912 Y-92.485 Z-0.55 I-0.162 J0
X-32.588 Y-92.485 Z-0.611 I0.162 J0
X-32.912 Y-92.485 Z-0.672 I-0.162 J0
X-32.588 Y-92.485 Z-0.733 I0.162 J0
X-32.912 Y-92.485 Z-0.794 I-0.162 J0
X-32.588 Y-92.485 Z-0.856 I0.162 J0
X-32.912 Y-92.485 Z-0.917 I-0.162 J0
X-32.588 Y-92.485 Z-0.978 I0.162 J0
X-32.912 Y-92.485 Z-1.039 I-0.162 J0
X-32.588 Y-92.485 Z-1.1 I0.162 J0
X-32.912 Y-92.485 Z-1.161 I-0.162 J0
X-32.588 Y-92.485 Z-1.222 I0.162 J0
X-32.912 Y-92.485 Z-1.283 I-0.162 J0
X-32.588 Y-92.485 Z-1.344 I0.162 J0
X-32.912 Y-92.485 Z-1.406 I-0.162 J0
X-32.588 Y-92.485 Z-1.467 I0.162 J0
X-32.912 Y-92.485 Z-1.528 I-0.162 J0
X-32.588 Y-92.485 Z-1.589 I0.162 J0
X-32.912 Y-92.485 Z-1.65 I-0.162 J0
X-32.588 Y-92.485 Z-1.711 I0.162 J0
X-32.912 Y-92.485 Z-1.772 I-0.162 J0
X-32.588 Y-92.485 Z-1.833 I0.162 J0
X-32.912 Y-92.485 Z-1.894 I-0.162 J0
X-32.588 Y-92.485 Z-1.956 I0.162 J0
X-32.912 Y-92.485 Z-2.017 I-0.162 J0
X-32.588 Y-92.485 Z-2.078 I0.162 J0
X-32.912 Y-92.485 Z-2.139 I-0.162 J0
X-32.588 Y-92.485 Z-2.2 I0.162 J0
X-32.912 Y-92.485 Z-2.261 I-0.162 J0
X-32.588 Y-92.485 Z-2.322 I0.162 J0
X-32.912 Y-92.485 Z-2.383 I-0.162 J0
X-32.588 Y-92.485 Z-2.444 I0.162 J0
X-32.912 Y-92.485 Z-2.506 I-0.162 J0
X-32.588 Y-92.485 Z-2.567 I0.162 J0
X-32.912 Y-92.485 Z-2.628 I-0.162 J0
X-32.588 Y-92.485 Z-2.689 I0.162 J0
X-32.912 Y-92.485 Z-2.75 I-0.162 J0
X-32.588 Y-92.485 Z-2.811 I0.162 J0
X-32.912 Y-92.485 Z-2.872 I-0.162 J0
X-32.587 Y-92.485 Z-2.933 I0.162 J0
X-32.913 Y-92.485 Z-2.994 I-0.163 J0
X-32.587 Y-92.485 Z-3.056 I0.163 J0
X-32.913 Y-92.485 Z-3.117 I-0.163 J0
X-32.587 Y-92.485 Z-3.178 I0.163 J0
X-32.913 Y-92.485 Z-3.239 I-0.163 J0
X-32.587 Y-92.485 Z-3.3 I0.163 J0
X-32.913 Y-92.485 Z-3.361 I-0.163 J0
X-32.587 Y-92.485 Z-3.422 I0.163 J0
X-32.913 Y-92.485 Z-3.483 I-0.163 J0
X-32.587 Y-92.485 Z-3.544 I0.163 J0
X-32.913 Y-92.485 Z-3.606 I-0.163 J0
X-32.587 Y-92.485 Z-3.667 I0.163 J0
X-32.913 Y-92.485 Z-3.728 I-0.163 J0
X-32.587 Y-92.485 Z-3.789 I0.163 J0
X-32.913 Y-92.485 Z-3.85 I-0.163 J0
X-32.587 Y-92.485 Z-3.911 I0.163 J0
X-32.913 Y-92.485 Z-3.972 I-0.163 J0
X-32.587 Y-92.485 Z-4.033 I0.163 J0
X-32.913 Y-92.485 Z-4.094 I-0.163 J0
X-32.587 Y-92.485 Z-4.156 I0.163 J0
X-32.913 Y-92.485 Z-4.217 I-0.163 J0
X-32.587 Y-92.485 Z-4.278 I0.163 J0
X-32.682 Y-92.338 Z-4.3 I-0.163 J0
X-32.818 Y-92.633 I-0.068 J-0.148
X-32.682 Y-92.338 I0.068 J0.148
G1 X-32.713 Y-92.33
X-32.745 Y-92.335
X-32.771 Y-92.352
X-32.79 Y-92.378
X-32.856 Y-92.522
Z5
X-13.078 Y-107.136
Z1.683
Z0
X-12.919
X-12.888 Y-107.13
X-12.861 Y-107.112
X-12.844 Y-107.086
X-12.837 Y-107.054
G3 X-13.163 Y-107.054 Z-0.061 I-0.163 J0
X-12.837 Y-107.054 Z-0.122 I0.163 J0
X-13.163 Y-107.054 Z-0.183 I-0.163 J0
X-12.837 Y-107.054 Z-0.244 I0.163 J0
X-13.163 Y-107.054 Z-0.306 I-0.163 J0
X-12.837 Y-107.054 Z-0.367 I0.163 J0
X-13.163 Y-107.054 Z-0.428 I-0.163 J0
X-12.837 Y-107.054 Z-0.489 I0.163 J0
X-13.163 Y-107.054 Z-0.55 I-0.163 J0
X-12.837 Y-107.054 Z-0.611 I0.163 J0
X-13.163 Y-107.054 Z-0.672 I-0.163 J0
X-12.837 Y-107.054 Z-0.733 I0.163 J0
X-13.163 Y-107.054 Z-0.794 I-0.163 J0
X-12.837 Y-107.054 Z-0.856 I0.163 J0
X-13.163 Y-107.054 Z-0.917 I-0.163 J0
X-12.837 Y-107.054 Z-0.978 I0.163 J0
X-13.163 Y-107.054 Z-1.039 I-0.163 J0
X-12.837 Y-107.054 Z-1.1 I0.163 J0
X-13.163 Y-107.054 Z-1.161 I-0.163 J0
X-12.837 Y-107.054 Z-1.222 I0.163 J0
X-13.163 Y-107.054 Z-1.283 I-0.163 J0
X-12.837 Y-107.054 Z-1.344 I0.163 J0
X-13.163 Y-107.054 Z-1.406 I-0.163 J0
X-12.837 Y-107.054 Z-1.467 I0.163 J0
X-13.163 Y-107.054 Z-1.528 I-0.163 J0
X-12.837 Y-107.054 Z-1.589 I0.163 J0
X-13.163 Y-107.054 Z-1.65 I-0.163 J0
X-12.837 Y-107.054 Z-1.711 I0.163 J0
X-13.163 Y-107.054 Z-1.772 I-0.163 J0
X-12.837 Y-107.054 Z-1.833 I0.163 J0
X-13.163 Y-107.054 Z-1.894 I-0.163 J0
X-12.837 Y-107.054 Z-1.956 I0.163 J0
X-13.163 Y-107.054 Z-2.017 I-0.163 J0
X-12.837 Y-107.054 Z-2.078 I0.163 J0
X-13.163 Y-107.054 Z-2.139 I-0.163 J0
X-12.837 Y-107.054 Z-2.2 I0.163 J0
X-13.163 Y-107.054 Z-2.261 I-0.163 J0
X-12.837 Y-107.054 Z-2.322 I0.163 J0
X-13.163 Y-107.054 Z-2.383 I-0.163 J0
X-12.837 Y-107.054 Z-2.444 I0.163 J0
X-13.163 Y-107.054 Z-2.506 I-0.163 J0
X-12.837 Y-107.054 Z-2.567 I0.163 J0
X-13.163 Y-107.054 Z-2.628 I-0.163 J0
X-12.837 Y-107.054 Z-2.689 I0.163 J0
X-13.163 Y-107.054 Z-2.75 I-0.163 J0
X-12.837 Y-107.054 Z-2.811 I0.163 J0
X-13.163 Y-107.054 Z-2.872 I-0.163 J0
X-12.837 Y-107.054 Z-2.933 I0.163 J0
X-13.163 Y-107.054 Z-2.994 I-0.163 J0
X-12.837 Y-107.054 Z-3.056 I0.163 J0
X-13.163 Y-107.054 Z-3.117 I-0.163 J0
X-12.837 Y-107.054 Z-3.178 I0.163 J0
X-13.163 Y-107.054 Z-3.239 I-0.163 J0
X-12.837 Y-107.054 Z-3.3 I0.163 J0
X-13.163 Y-107.054 Z-3.361 I-0.163 J0
X-12.837 Y-107.054 Z-3.422 I0.163 J0
X-13.163 Y-107.054 Z-3.483 I-0.163 J0
X-12.837 Y-107.054 Z-3.544 I0.163 J0
X-13.163 Y-107.054 Z-3.606 I-0.163 J0
X-12.837 Y-107.054 Z-3.667 I0.163 J0
X-13.163 Y-107.054 Z-3.728 I-0.163 J0
X-12.837 Y-107.054 Z-3.789 I0.163 J0
X-13.163 Y-107.054 Z-3.85 I-0.163 J0
X-12.837 Y-107.054 Z-3.911 I0.163 J0
X-13.163 Y-107.054 Z-3.972 I-0.163 J0
X-12.837 Y-107.054 Z-4.033 I0.163 J0
X-13.163 Y-107.054 Z-4.094 I-0.163 J0
X-12.837 Y-107.054 Z-4.156 I0.163 J0
X-13.163 Y-107.054 Z-4.217 I-0.163 J0
X-12.837 Y-107.054 Z-4.278 I0.163 J0
X-12.932 Y-106.907 Z-4.3 I-0.163 J0
X-13.068 Y-107.202 I-0.068 J-0.148
X-12.932 Y-106.907 I0.068 J0.148
G1 X-12.963 Y-106.899
X-12.995 Y-106.904
X-13.022 Y-106.921
X-13.04 Y-106.947
X-13.106 Y-107.091
Z5
X-32.669 Y-151.563
Z-0.317
Z-2
Y-151.404
X-32.675 Y-151.373
X-32.693 Y-151.347
X-32.719 Y-151.329
X-32.75 Y-151.323
G3 X-32.75 Y-151.648 Z-2.061 I0 J-0.163
X-32.75 Y-151.323 Z-2.122 I0 J0.163
X-32.75 Y-151.648 Z-2.183 I0 J-0.163
X-32.75 Y-151.323 Z-2.244 I0 J0.163
X-32.75 Y-151.648 Z-2.306 I0 J-0.163
X-32.75 Y-151.323 Z-2.367 I0 J0.163
X-32.75 Y-151.648 Z-2.428 I0 J-0.163
X-32.75 Y-151.323 Z-2.489 I0 J0.163
X-32.75 Y-151.648 Z-2.55 I0 J-0.163
X-32.75 Y-151.323 Z-2.611 I0 J0.163
X-32.75 Y-151.648 Z-2.672 I0 J-0.163
X-32.75 Y-151.323 Z-2.733 I0 J0.163
X-32.75 Y-151.648 Z-2.794 I0 J-0.163
X-32.75 Y-151.323 Z-2.856 I0 J0.163
X-32.75 Y-151.648 Z-2.917 I0 J-0.163
X-32.75 Y-151.323 Z-2.978 I0 J0.163
X-32.75 Y-151.648 Z-3.039 I0 J-0.163
X-32.75 Y-151.323 Z-3.1 I0 J0.163
X-32.75 Y-151.648 Z-3.161 I0 J-0.163
X-32.75 Y-151.323 Z-3.222 I0 J0.163
X-32.75 Y-151.648 Z-3.283 I0 J-0.163
X-32.75 Y-151.323 Z-3.344 I0 J0.163
X-32.75 Y-151.648 Z-3.406 I0 J-0.163
X-32.75 Y-151.323 Z-3.467 I0 J0.163
X-32.75 Y-151.648 Z-3.528 I0 J-0.163
X-32.75 Y-151.323 Z-3.589 I0 J0.163
X-32.75 Y-151.648 Z-3.65 I0 J-0.163
X-32.75 Y-151.323 Z-3.711 I0 J0.163
X-32.75 Y-151.648 Z-3.772 I0 J-0.163
X-32.75 Y-151.323 Z-3.833 I0 J0.163
X-32.75 Y-151.648 Z-3.894 I0 J-0.163
X-32.75 Y-151.323 Z-3.956 I0 J0.163
X-32.75 Y-151.648 Z-4.017 I0 J-0.163
X-32.75 Y-151.323 Z-4.078 I0 J0.163
X-32.75 Y-151.648 Z-4.139 I0 J-0.163
X-32.75 Y-151.323 Z-4.2 I0 J0.163
X-32.75 Y-151.648 Z-4.261 I0 J-0.163
X-32.602 Y-151.418 Z-4.3 I0 J0.163
X-32.898 Y-151.553 I-0.148 J-0.067
X-32.602 Y-151.418 I0.148 J0.067
G1 X-32.621 Y-151.392
X-32.648 Y-151.376
X-32.679 Y-151.37
X-32.71 Y-151.378
X-32.854 Y-151.444
Z5
X-63.169 Y-151.563
Z-0.317
Z-2
Y-151.404
X-63.175 Y-151.373
X-63.193 Y-151.347
X-63.219 Y-151.329
X-63.25 Y-151.323
G3 X-63.25 Y-151.648 Z-2.061 I0 J-0.163
X-63.25 Y-151.323 Z-2.122 I0 J0.163
X-63.25 Y-151.648 Z-2.183 I0 J-0.163
X-63.25 Y-151.323 Z-2.244 I0 J0.163
X-63.25 Y-151.648 Z-2.306 I0 J-0.163
X-63.25 Y-151.323 Z-2.367 I0 J0.163
X-63.25 Y-151.648 Z-2.428 I0 J-0.163
X-63.25 Y-151.323 Z-2.489 I0 J0.163
X-63.25 Y-151.648 Z-2.55 I0 J-0.163
X-63.25 Y-151.323 Z-2.611 I0 J0.163
X-63.25 Y-151.648 Z-2.672 I0 J-0.163
X-63.25 Y-151.323 Z-2.733 I0 J0.163
X-63.25 Y-151.648 Z-2.794 I0 J-0.163
X-63.25 Y-151.323 Z-2.856 I0 J0.163
X-63.25 Y-151.648 Z-2.917 I0 J-0.163
X-63.25 Y-151.323 Z-2.978 I0 J0.163
X-63.25 Y-151.648 Z-3.039 I0 J-0.163
X-63.25 Y-151.323 Z-3.1 I0 J0.163
X-63.25 Y-151.648 Z-3.161 I0 J-0.163
X-63.25 Y-151.323 Z-3.222 I0 J0.163
X-63.25 Y-151.648 Z-3.283 I0 J-0.163
X-63.25 Y-151.323 Z-3.344 I0 J0.163
X-63.25 Y-151.648 Z-3.406 I0 J-0.163
X-63.25 Y-151.323 Z-3.467 I0 J0.163
X-63.25 Y-151.648 Z-3.528 I0 J-0.163
X-63.25 Y-151.323 Z-3.589 I0 J0.163
X-63.25 Y-151.648 Z-3.65 I0 J-0.163
X-63.25 Y-151.323 Z-3.711 I0 J0.163
X-63.25 Y-151.648 Z-3.772 I0 J-0.163
X-63.25 Y-151.323 Z-3.833 I0 J0.163
X-63.25 Y-151.648 Z-3.894 I0 J-0.163
X-63.25 Y-151.323 Z-3.956 I0 J0.163
X-63.25 Y-151.648 Z-4.017 I0 J-0.163
X-63.25 Y-151.323 Z-4.078 I0 J0.163
X-63.25 Y-151.648 Z-4.139 I0 J-0.163
X-63.25 Y-151.323 Z-4.2 I0 J0.163
X-63.25 Y-151.648 Z-4.261 I0 J-0.163
X-63.102 Y-151.418 Z-4.3 I0 J0.163
X-63.398 Y-151.553 I-0.148 J-0.067
X-63.102 Y-151.418 I0.148 J0.067
G1 X-63.121 Y-151.392
X-63.148 Y-151.376
X-63.179 Y-151.37
X-63.21 Y-151.378
X-63.354 Y-151.444
Z5
X-63.169 Y-182.063
Z-0.317
Z-2
Y-181.904
X-63.175 Y-181.873
X-63.193 Y-181.847
X-63.219 Y-181.829
X-63.25 Y-181.823
G3 X-63.25 Y-182.148 Z-2.061 I0 J-0.163
X-63.25 Y-181.823 Z-2.122 I0 J0.163
X-63.25 Y-182.148 Z-2.183 I0 J-0.163
X-63.25 Y-181.823 Z-2.244 I0 J0.163
X-63.25 Y-182.148 Z-2.306 I0 J-0.163
X-63.25 Y-181.823 Z-2.367 I0 J0.163
X-63.25 Y-182.148 Z-2.428 I0 J-0.163
X-63.25 Y-181.823 Z-2.489 I0 J0.163
X-63.25 Y-182.148 Z-2.55 I0 J-0.163
X-63.25 Y-181.823 Z-2.611 I0 J0.163
X-63.25 Y-182.148 Z-2.672 I0 J-0.163
X-63.25 Y-181.823 Z-2.733 I0 J0.163
X-63.25 Y-182.148 Z-2.794 I0 J-0.163
X-63.25 Y-181.823 Z-2.856 I0 J0.163
X-63.25 Y-182.148 Z-2.917 I0 J-0.163
X-63.25 Y-181.823 Z-2.978 I0 J0.163
X-63.25 Y-182.148 Z-3.039 I0 J-0.163
X-63.25 Y-181.823 Z-3.1 I0 J0.163
X-63.25 Y-182.148 Z-3.161 I0 J-0.163
X-63.25 Y-181.823 Z-3.222 I0 J0.163
X-63.25 Y-182.148 Z-3.283 I0 J-0.163
X-63.25 Y-181.823 Z-3.344 I0 J0.163
X-63.25 Y-182.148 Z-3.406 I0 J-0.163
X-63.25 Y-181.823 Z-3.467 I0 J0.163
X-63.25 Y-182.148 Z-3.528 I0 J-0.163
X-63.25 Y-181.823 Z-3.589 I0 J0.163
X-63.25 Y-182.148 Z-3.65 I0 J-0.163
X-63.25 Y-181.823 Z-3.711 I0 J0.163
X-63.25 Y-182.148 Z-3.772 I0 J-0.163
X-63.25 Y-181.823 Z-3.833 I0 J0.163
X-63.25 Y-182.148 Z-3.894 I0 J-0.163
X-63.25 Y-181.823 Z-3.956 I0 J0.163
X-63.25 Y-182.148 Z-4.017 I0 J-0.163
X-63.25 Y-181.823 Z-4.078 I0 J0.163
X-63.25 Y-182.148 Z-4.139 I0 J-0.163
X-63.25 Y-181.823 Z-4.2 I0 J0.163
X-63.25 Y-182.148 Z-4.261 I0 J-0.163
X-63.102 Y-181.918 Z-4.3 I0 J0.163
X-63.398 Y-182.053 I-0.148 J-0.067
X-63.102 Y-181.918 I0.148 J0.067
G1 X-63.121 Y-181.892
X-63.148 Y-181.876
X-63.179 Y-181.87
X-63.21 Y-181.878
X-63.354 Y-181.944
Z5
X-32.669 Y-182.063
Z-0.317
Z-2
Y-181.904
X-32.675 Y-181.873
X-32.693 Y-181.847
X-32.719 Y-181.829
X-32.75 Y-181.823
G3 X-32.75 Y-182.148 Z-2.061 I0 J-0.163
X-32.75 Y-181.823 Z-2.122 I0 J0.163
X-32.75 Y-182.148 Z-2.183 I0 J-0.163
X-32.75 Y-181.823 Z-2.244 I0 J0.163
X-32.75 Y-182.148 Z-2.306 I0 J-0.163
X-32.75 Y-181.823 Z-2.367 I0 J0.163
X-32.75 Y-182.148 Z-2.428 I0 J-0.163
X-32.75 Y-181.823 Z-2.489 I0 J0.163
X-32.75 Y-182.148 Z-2.55 I0 J-0.163
X-32.75 Y-181.823 Z-2.611 I0 J0.163
X-32.75 Y-182.148 Z-2.672 I0 J-0.163
X-32.75 Y-181.823 Z-2.733 I0 J0.163
X-32.75 Y-182.148 Z-2.794 I0 J-0.163
X-32.75 Y-181.823 Z-2.856 I0 J0.163
X-32.75 Y-182.148 Z-2.917 I0 J-0.163
X-32.75 Y-181.823 Z-2.978 I0 J0.163
X-32.75 Y-182.148 Z-3.039 I0 J-0.163
X-32.75 Y-181.823 Z-3.1 I0 J0.163
X-32.75 Y-182.148 Z-3.161 I0 J-0.163
X-32.75 Y-181.823 Z-3.222 I0 J0.163
X-32.75 Y-182.148 Z-3.283 I0 J-0.163
X-32.75 Y-181.823 Z-3.344 I0 J0.163
X-32.75 Y-182.148 Z-3.406 I0 J-0.163
X-32.75 Y-181.823 Z-3.467 I0 J0.163
X-32.75 Y-182.148 Z-3.528 I0 J-0.163
X-32.75 Y-181.823 Z-3.589 I0 J0.163
X-32.75 Y-182.148 Z-3.65 I0 J-0.163
X-32.75 Y-181.823 Z-3.711 I0 J0.163
X-32.75 Y-182.148 Z-3.772 I0 J-0.163
X-32.75 Y-181.823 Z-3.833 I0 J0.163
X-32.75 Y-182.148 Z-3.894 I0 J-0.163
X-32.75 Y-181.823 Z-3.956 I0 J0.163
X-32.75 Y-182.148 Z-4.017 I0 J-0.163
X-32.75 Y-181.823 Z-4.078 I0 J0.163
X-32.75 Y-182.148 Z-4.139 I0 J-0.163
X-32.75 Y-181.823 Z-4.2 I0 J0.163
X-32.75 Y-182.148 Z-4.261 I0 J-0.163
X-32.602 Y-181.918 Z-4.3 I0 J0.163
X-32.898 Y-182.053 I-0.148 J-0.067
X-32.602 Y-181.918 I0.148 J0.067
G1 X-32.621 Y-181.892
X-32.648 Y-181.876
X-32.679 Y-181.87
X-32.71 Y-181.878
X-32.854 Y-181.944
Z15
(When using Fusion for Personal Use, the feedrate of rapid)
(moves is reduced to match the feedrate of cutting moves,)
(which can increase machining time. Unrestricted rapid moves)
(are available with a Fusion Subscription.)

(2D-Kontur8)
G0 X-44.588 Y-121.062
G1 Z15 F1000
Z5
Z2.5 F333.3
Y-104.823 Z1.933
X-51.412 Z1.695
Y-131.648 Z0.758
X-44.588 Z0.52
Y-104.823 Z-0.417
X-51.412 Z-0.656
Y-131.648 Z-1.592
X-44.588 Z-1.831
Y-104.823 Z-2.767
X-51.412 Z-3.006
Y-131.648 Z-3.942
X-44.588 Z-4.181
Y-128.235 Z-4.3
Y-104.823 F1000
X-51.412
Y-131.648
X-44.588
Y-128.235
G3 X-44.905 Y-127.917 I-0.317 J0
G1 X-45.222
G18 G3 X-45.54 Z-3.983 I0 K0.318
G1 Z5
X-23.587 Y-114.437
Z2.5 F333.3
Y-109.823 Z2.339
X-25.413 Z2.275
Y-131.648 Z1.513
X-23.587 Z1.449
Y-109.823 Z0.687
X-25.413 Z0.623
Y-131.648 Z-0.139
X-23.587 Z-0.202
Y-109.823 Z-0.965
X-25.413 Z-1.028
Y-131.648 Z-1.791
X-23.587 Z-1.854
Y-109.823 Z-2.616
X-25.413 Z-2.68
Y-131.648 Z-3.442
X-23.587 Z-3.506
Y-109.823 Z-4.268
X-24.5 Z-4.3
X-25.413 F1000
Y-131.648
X-23.587
Y-109.823
X-24.5
G17 G3 X-24.817 Y-110.14 I0 J-0.317
G1 Y-110.457
G19 G2 Y-110.775 Z-3.983 J0 K0.318
G1 Z5
X-72.412 Y-128.858
Z2.5 F333.3
Y-131.648 Z2.403
X-70.588 Z2.339
Y-109.823 Z1.577
X-72.412 Z1.513
Y-131.648 Z0.751
X-70.588 Z0.687
Y-109.823 Z-0.075
X-72.412 Z-0.139
Y-131.648 Z-0.901
X-70.588 Z-0.965
Y-109.823 Z-1.727
X-72.412 Z-1.791
Y-131.648 Z-2.553
X-70.588 Z-2.616
Y-109.823 Z-3.379
X-72.412 Z-3.442
Y-131.648 Z-4.204
X-70.588 Z-4.268
Y-130.735 Z-4.3
Y-109.823 F1000
X-72.412
Y-131.648
X-70.588
Y-130.735
G17 G3 X-70.905 Y-130.417 I-0.317 J0
G1 X-71.223
G18 G3 X-71.54 Z-3.983 I0 K0.318
G1 Z5
X-44.588 Y-39.062
Z2.5 F333.3
Y-22.823 Z1.933
X-51.412 Z1.695
Y-49.648 Z0.758
X-44.588 Z0.52
Y-22.823 Z-0.417
X-51.412 Z-0.656
Y-49.648 Z-1.592
X-44.588 Z-1.831
Y-22.823 Z-2.767
X-51.412 Z-3.006
Y-49.648 Z-3.942
X-44.588 Z-4.181
Y-46.235 Z-4.3
Y-22.823 F1000
X-51.412
Y-49.648
X-44.588
Y-46.235
G17 G3 X-44.905 Y-45.918 I-0.317 J0
G1 X-45.222
G18 G3 X-45.54 Z-3.983 I0 K0.318
G1 Z5
X-25.413 Y-41.859
Z2.5 F333.3
Y-44.648 Z2.403
X-23.587 Z2.339
Y-22.823 Z1.577
X-25.413 Z1.513
Y-44.648 Z0.751
X-23.587 Z0.687
Y-22.823 Z-0.075
X-25.413 Z-0.139
Y-44.648 Z-0.901
X-23.587 Z-0.965
Y-22.823 Z-1.727
X-25.413 Z-1.791
Y-44.648 Z-2.553
X-23.587 Z-2.616
Y-22.823 Z-3.379
X-25.413 Z-3.442
Y-44.648 Z-4.204
X-23.587 Z-4.268
Y-43.735 Z-4.3
Y-22.823 F1000
X-25.413
Y-44.648
X-23.587
Y-43.735
G17 G3 X-23.905 Y-43.418 I-0.318 J0
G1 X-24.222
G18 G3 X-24.54 Z-3.983 I0 K0.318
G1 Z5
X-70.588 Y-27.437
Z2.5 F333.3
Y-22.823 Z2.339
X-72.412 Z2.275
Y-44.648 Z1.513
X-70.588 Z1.449
Y-22.823 Z0.687
X-72.412 Z0.623
Y-44.648 Z-0.139
X-70.588 Z-0.202
Y-22.823 Z-0.965
X-72.412 Z-1.028
Y-44.648 Z-1.791
X-70.588 Z-1.854
Y-22.823 Z-2.616
X-72.412 Z-2.68
Y-44.648 Z-3.442
X-70.588 Z-3.506
Y-22.823 Z-4.268
X-71.5 Z-4.3
X-72.412 F1000
Y-44.648
X-70.588
Y-22.823
X-71.5
G17 G3 X-71.817 Y-23.14 I0 J-0.317
G1 Y-23.458
G19 G2 Y-23.775 Z-3.983 J0 K0.318
G1 Z15
G17
(When using Fusion for Personal Use, the feedrate of rapid)
(moves is reduced to match the feedrate of cutting moves,)
(which can increase machining time. Unrestricted rapid moves)
(are available with a Fusion Subscription.)

(2D-Kontur9)
G0 X-70.373 Y-81.468
G1 Z15 F1000
Z5
Z0.635 F333.3
Z-0.683
X-70.366 Y-81.472 Z-0.753 F1000
X-70.345 Y-81.481 Z-0.82
X-70.31 Y-81.497 Z-0.88
X-70.265 Y-81.518 Z-0.931
X-70.21 Y-81.543 Z-0.969
X-70.149 Y-81.571 Z-0.992
X-70.085 Y-81.601 Z-1
X-69.796 Y-81.733
G3 X-69.375 Y-81.577 I0.132 J0.289
X-72.087 Y-69.309 I-9.464 J4.341
G1 X-89.218 Y-54.714
G2 X-79.588 Y-38.457 I6.218 J7.298
G1 Y-22.235
G2 X-73 Y-15.648 I6.588 J0
G1 X-23
G2 X-16.413 Y-22.235 I0 J-6.587
G1 Y-38.457
G2 X-6.782 Y-54.714 I3.413 J-8.96
G1 X-23.913 Y-69.309
G3 X-23.913 Y-85.161 I6.753 J-7.926
G1 X-6.782 Y-99.757
G2 X-16.413 Y-116.014 I-6.218 J-7.298
G1 Y-132.235
G2 X-23 Y-138.822 I-6.587 J0
G1 X-73
G2 X-79.588 Y-132.235 I0 J6.587
G1 Y-116.014
G2 X-89.218 Y-99.757 I-3.412 J8.959
G1 X-72.087 Y-85.161
G3 X-69.375 Y-81.577 I-6.753 J7.926
X-69.531 Y-81.156 I-0.289 J0.132
G1 X-69.82 Y-81.023
X-69.884 Y-80.994 Z-0.992
X-69.945 Y-80.966 Z-0.969
X-70 Y-80.941 Z-0.931
X-70.046 Y-80.92 Z-0.88
X-70.08 Y-80.904 Z-0.82
X-70.101 Y-80.894 Z-0.753
X-70.109 Y-80.891 Z-0.683
Z5
X-79.149 Y-76.744
Z0.635 F333.3
Z-0.683
X-79.156 Y-76.741 Z-0.753 F1000
X-79.177 Y-76.731 Z-0.82
X-79.212 Y-76.715 Z-0.88
X-79.257 Y-76.694 Z-0.931
X-79.312 Y-76.669 Z-0.969
X-79.373 Y-76.641 Z-0.992
X-79.437 Y-76.612 Z-1
X-79.726 Y-76.479
G3 X-80.147 Y-76.636 I-0.132 J-0.289
G2 X-95.079 Y-79.936 I-8.714 J3.997
G1 X-119.703 Y-58.957
G3 X-128.019 Y-58.957 I-4.158 J-4.881
G1 X-152.643 Y-79.936
G2 X-166.159 Y-78.856 I-6.218 J7.298
X-165.079 Y-65.34 I7.298 J6.218
G1 X-144.375 Y-47.7
G3 X-144.375 Y-37.938 I-4.158 J4.881
G1 X-165.079 Y-20.298
G2 X-152.643 Y-5.702 I6.218 J7.298
G1 X-128.019 Y-26.681
G3 X-119.703 Y-26.681 I4.158 J4.881
G1 X-95.079 Y-5.702
G2 X-81.563 Y-6.782 I6.218 J-7.298
X-82.644 Y-20.298 I-7.298 J-6.218
G1 X-103.348 Y-37.938
G3 X-103.348 Y-47.7 I4.159 J-4.881
G1 X-82.644 Y-65.34
G2 X-80.147 Y-76.636 I-6.218 J-7.298
G3 X-79.991 Y-77.057 I0.289 J-0.132
G1 X-79.702 Y-77.189
X-79.638 Y-77.218 Z-0.992
X-79.577 Y-77.246 Z-0.969
X-79.522 Y-77.271 Z-0.931
X-79.477 Y-77.292 Z-0.88
X-79.442 Y-77.308 Z-0.82
X-79.421 Y-77.318 Z-0.753
X-79.414 Y-77.321 Z-0.683
Z5
X-79.149 Y-76.744
Z-0.365 F333.3
Z-1.683
X-79.156 Y-76.741 Z-1.753 F1000
X-79.177 Y-76.731 Z-1.82
X-79.212 Y-76.715 Z-1.88
X-79.257 Y-76.694 Z-1.931
X-79.312 Y-76.669 Z-1.969
X-79.373 Y-76.641 Z-1.992
X-79.437 Y-76.612 Z-2
X-79.726 Y-76.479
G3 X-80.147 Y-76.636 I-0.132 J-0.289
G2 X-95.079 Y-79.936 I-8.714 J3.997
G1 X-119.703 Y-58.957
G3 X-128.019 Y-58.957 I-4.158 J-4.881
G1 X-152.643 Y-79.936
G2 X-166.159 Y-78.856 I-6.218 J7.298
X-165.079 Y-65.34 I7.298 J6.218
G1 X-144.375 Y-47.7
G3 X-144.375 Y-37.938 I-4.158 J4.881
G1 X-165.079 Y-20.298
G2 X-152.643 Y-5.702 I6.218 J7.298
G1 X-128.019 Y-26.681
G3 X-119.703 Y-26.681 I4.158 J4.881
G1 X-95.079 Y-5.702
G2 X-81.563 Y-6.782 I6.218 J-7.298
X-82.644 Y-20.298 I-7.298 J-6.218
G1 X-103.348 Y-37.938
G3 X-103.348 Y-47.7 I4.159 J-4.881
G1 X-82.644 Y-65.34
G2 X-80.147 Y-76.636 I-6.218 J-7.298
G3 X-79.991 Y-77.057 I0.289 J-0.132
G1 X-79.702 Y-77.189
X-79.638 Y-77.218 Z-1.992
X-79.577 Y-77.246 Z-1.969
X-79.522 Y-77.271 Z-1.931
X-79.477 Y-77.292 Z-1.88
X-79.442 Y-77.308 Z-1.82
X-79.421 Y-77.318 Z-1.753
X-79.414 Y-77.321 Z-1.683
Z5
X-70.373 Y-81.468
Z-0.365 F333.3
Z-1.683
X-70.366 Y-81.472 Z-1.753 F1000
X-70.345 Y-81.481 Z-1.82
X-70.31 Y-81.497 Z-1.88
X-70.265 Y-81.518 Z-1.931
X-70.21 Y-81.543 Z-1.969
X-70.149 Y-81.571 Z-1.992
X-70.085 Y-81.601 Z-2
X-69.796 Y-81.733
G3 X-69.375 Y-81.577 I0.132 J0.289
X-72.087 Y-69.309 I-9.464 J4.341
G1 X-89.218 Y-54.714
G2 X-79.588 Y-38.457 I6.218 J7.298
G1 Y-22.235
G2 X-73 Y-15.648 I6.588 J0
G1 X-23
G2 X-16.413 Y-22.235 I0 J-6.587
G1 Y-38.457
G2 X-6.782 Y-54.714 I3.413 J-8.96
G1 X-23.913 Y-69.309
G3 X-23.913 Y-85.161 I6.753 J-7.926
G1 X-6.782 Y-99.757
G2 X-16.413 Y-116.014 I-6.218 J-7.298
G1 Y-132.235
G2 X-23 Y-138.822 I-6.587 J0
G1 X-73
G2 X-79.588 Y-132.235 I0 J6.587
G1 Y-116.014
G2 X-89.218 Y-99.757 I-3.412 J8.959
G1 X-72.087 Y-85.161
G3 X-69.375 Y-81.577 I-6.753 J7.926
X-69.531 Y-81.156 I-0.289 J0.132
G1 X-69.82 Y-81.023
X-69.884 Y-80.994 Z-1.992
X-69.945 Y-80.966 Z-1.969
X-70 Y-80.941 Z-1.931
X-70.046 Y-80.92 Z-1.88
X-70.08 Y-80.904 Z-1.82
X-70.101 Y-80.894 Z-1.753
X-70.109 Y-80.891 Z-1.683
Z5
X-70.373 Y-81.468
Z-1.365 F333.3
Z-2.683
X-70.366 Y-81.472 Z-2.753 F1000
X-70.345 Y-81.481 Z-2.82
X-70.31 Y-81.497 Z-2.88
X-70.265 Y-81.518 Z-2.931
X-70.21 Y-81.543 Z-2.969
X-70.149 Y-81.571 Z-2.992
X-70.085 Y-81.601 Z-3
X-69.796 Y-81.733
G3 X-69.375 Y-81.577 I0.132 J0.289
X-72.087 Y-69.309 I-9.464 J4.341
G1 X-89.218 Y-54.714
G2 X-79.588 Y-38.457 I6.218 J7.298
G1 Y-22.235
G2 X-73 Y-15.648 I6.588 J0
G1 X-23
G2 X-16.413 Y-22.235 I0 J-6.587
G1 Y-38.457
G2 X-6.782 Y-54.714 I3.413 J-8.96
G1 X-23.913 Y-69.309
G3 X-23.913 Y-85.161 I6.753 J-7.926
G1 X-6.782 Y-99.757
G2 X-16.413 Y-116.014 I-6.218 J-7.298
G1 Y-132.235
G2 X-23 Y-138.822 I-6.587 J0
G1 X-73
G2 X-79.588 Y-132.235 I0 J6.587
G1 Y-116.014
G2 X-89.218 Y-99.757 I-3.412 J8.959
G1 X-72.087 Y-85.161
G3 X-69.375 Y-81.577 I-6.753 J7.926
X-69.531 Y-81.156 I-0.289 J0.132
G1 X-69.82 Y-81.023
X-69.884 Y-80.994 Z-2.992
X-69.945 Y-80.966 Z-2.969
X-70 Y-80.941 Z-2.931
X-70.046 Y-80.92 Z-2.88
X-70.08 Y-80.904 Z-2.82
X-70.101 Y-80.894 Z-2.753
X-70.109 Y-80.891 Z-2.683
Z5
X-79.149 Y-76.744
Z-1.365 F333.3
Z-2.683
X-79.156 Y-76.741 Z-2.753 F1000
X-79.177 Y-76.731 Z-2.82
X-79.212 Y-76.715 Z-2.88
X-79.257 Y-76.694 Z-2.931
X-79.312 Y-76.669 Z-2.969
X-79.373 Y-76.641 Z-2.992
X-79.437 Y-76.612 Z-3
X-79.726 Y-76.479
G3 X-80.147 Y-76.636 I-0.132 J-0.289
G2 X-95.079 Y-79.936 I-8.714 J3.997
G1 X-119.703 Y-58.957
G3 X-128.019 Y-58.957 I-4.158 J-4.881
G1 X-152.643 Y-79.936
G2 X-166.159 Y-78.856 I-6.218 J7.298
X-165.079 Y-65.34 I7.298 J6.218
G1 X-144.375 Y-47.7
G3 X-144.375 Y-37.938 I-4.158 J4.881
G1 X-165.079 Y-20.298
G2 X-152.643 Y-5.702 I6.218 J7.298
G1 X-128.019 Y-26.681
G3 X-119.703 Y-26.681 I4.158 J4.881
G1 X-95.079 Y-5.702
G2 X-81.563 Y-6.782 I6.218 J-7.298
X-82.644 Y-20.298 I-7.298 J-6.218
G1 X-103.348 Y-37.938
G3 X-103.348 Y-47.7 I4.159 J-4.881
G1 X-82.644 Y-65.34
G2 X-80.147 Y-76.636 I-6.218 J-7.298
G3 X-79.991 Y-77.057 I0.289 J-0.132
G1 X-79.702 Y-77.189
X-79.638 Y-77.218 Z-2.992
X-79.577 Y-77.246 Z-2.969
X-79.522 Y-77.271 Z-2.931
X-79.477 Y-77.292 Z-2.88
X-79.442 Y-77.308 Z-2.82
X-79.421 Y-77.318 Z-2.753
X-79.414 Y-77.321 Z-2.683
Z5
X-79.149 Y-76.744
Z-2.365 F333.3
Z-3.683
X-79.156 Y-76.741 Z-3.753 F1000
X-79.177 Y-76.731 Z-3.82
X-79.212 Y-76.715 Z-3.88
X-79.257 Y-76.694 Z-3.931
X-79.312 Y-76.669 Z-3.969
X-79.373 Y-76.641 Z-3.992
X-79.437 Y-76.612 Z-4
X-79.726 Y-76.479
G3 X-80.147 Y-76.636 I-0.132 J-0.289
G2 X-95.079 Y-79.936 I-8.714 J3.997
G1 X-119.703 Y-58.957
G3 X-128.019 Y-58.957 I-4.158 J-4.881
G1 X-152.643 Y-79.936
G2 X-166.159 Y-78.856 I-6.218 J7.298
X-165.079 Y-65.34 I7.298 J6.218
G1 X-144.375 Y-47.7
G3 X-144.375 Y-37.938 I-4.158 J4.881
G1 X-165.079 Y-20.298
G2 X-152.643 Y-5.702 I6.218 J7.298
G1 X-131.511 Y-23.706
Z-3.506
X-128.019 Y-26.681
G3 X-123.312 Y-28.188 I4.158 J4.881
G1 Z-4 F333.3
G3 X-119.703 Y-26.681 I-0.549 J6.389 F1000
G1 X-95.079 Y-5.702
G2 X-81.563 Y-6.782 I6.218 J-7.298
X-82.644 Y-20.298 I-7.298 J-6.218
G1 X-103.348 Y-37.938
G3 X-103.348 Y-47.7 I4.159 J-4.881
G1 X-82.644 Y-65.34
G2 X-80.147 Y-76.636 I-6.218 J-7.298
G3 X-79.991 Y-77.057 I0.289 J-0.132
G1 X-79.702 Y-77.189
X-79.638 Y-77.218 Z-3.992
X-79.577 Y-77.246 Z-3.969
X-79.522 Y-77.271 Z-3.931
X-79.477 Y-77.292 Z-3.88
X-79.442 Y-77.308 Z-3.82
X-79.421 Y-77.318 Z-3.753
X-79.414 Y-77.321 Z-3.683
Z5
X-70.373 Y-81.468
Z-2.365 F333.3
Z-3.683
X-70.366 Y-81.472 Z-3.753 F1000
X-70.345 Y-81.481 Z-3.82
X-70.31 Y-81.497 Z-3.88
X-70.265 Y-81.518 Z-3.931
X-70.21 Y-81.543 Z-3.969
X-70.149 Y-81.571 Z-3.992
X-70.085 Y-81.601 Z-4
X-69.796 Y-81.733
G3 X-69.375 Y-81.577 I0.132 J0.289
X-72.087 Y-69.309 I-9.464 J4.341
G1 X-79.722 Y-62.804
Z-3.506
X-86.706 Y-56.854
Z-4 F333.3
X-89.218 Y-54.714 F1000
G2 X-79.588 Y-38.457 I6.218 J7.298
G1 Y-22.235
G2 X-73 Y-15.648 I6.588 J0
G1 X-23
G2 X-16.413 Y-22.235 I0 J-6.587
G1 Y-38.457
G2 X-6.782 Y-54.714 I3.413 J-8.96
G1 X-23.913 Y-69.309
G3 X-23.913 Y-85.161 I6.753 J-7.926
G1 X-16.278 Y-91.666
Z-3.506
X-9.294 Y-97.617
Z-4 F333.3
X-6.782 Y-99.757 F1000
G2 X-16.413 Y-116.014 I-6.218 J-7.298
G1 Y-132.235
G2 X-23 Y-138.822 I-6.587 J0
G1 X-73
G2 X-79.588 Y-132.235 I0 J6.587
G1 Y-116.014
G2 X-89.218 Y-99.757 I-3.412 J8.959
G1 X-72.087 Y-85.161
G3 X-69.375 Y-81.577 I-6.753 J7.926
X-69.531 Y-81.156 I-0.289 J0.132
G1 X-69.82 Y-81.023
X-69.884 Y-80.994 Z-3.992
X-69.945 Y-80.966 Z-3.969
X-70 Y-80.941 Z-3.931
X-70.046 Y-80.92 Z-3.88
X-70.08 Y-80.904 Z-3.82
X-70.101 Y-80.894 Z-3.753
X-70.109 Y-80.891 Z-3.683
Z5
X-70.373 Y-81.468
Z-3.365 F333.3
Z-3.983
X-70.366 Y-81.472 Z-4.053 F1000
X-70.345 Y-81.481 Z-4.12
X-70.31 Y-81.497 Z-4.18
X-70.265 Y-81.518 Z-4.231
X-70.21 Y-81.543 Z-4.269
X-70.149 Y-81.571 Z-4.292
X-70.085 Y-81.601 Z-4.3
X-69.796 Y-81.733
G3 X-69.375 Y-81.577 I0.132 J0.289
X-72.087 Y-69.309 I-9.464 J4.341
G1 X-79.722 Y-62.804
Z-3.506
X-86.706 Y-56.854
Z-4.3 F333.3
X-89.218 Y-54.714 F1000
G2 X-79.588 Y-38.457 I6.218 J7.298
G1 Y-22.235
G2 X-73 Y-15.648 I6.588 J0
G1 X-23
G2 X-16.413 Y-22.235 I0 J-6.587
G1 Y-38.457
G2 X-6.782 Y-54.714 I3.413 J-8.96
G1 X-23.913 Y-69.309
G3 X-23.913 Y-85.161 I6.753 J-7.926
G1 X-16.278 Y-91.666
Z-3.506
X-9.294 Y-97.617
Z-4.3 F333.3
X-6.782 Y-99.757 F1000
G2 X-16.413 Y-116.014 I-6.218 J-7.298
G1 Y-132.235
G2 X-23 Y-138.822 I-6.587 J0
G1 X-73
G2 X-79.588 Y-132.235 I0 J6.587
G1 Y-116.014
G2 X-89.218 Y-99.757 I-3.412 J8.959
G1 X-72.087 Y-85.161
G3 X-69.375 Y-81.577 I-6.753 J7.926
X-69.531 Y-81.156 I-0.289 J0.132
G1 X-69.82 Y-81.023
X-69.884 Y-80.994 Z-4.292
X-69.945 Y-80.966 Z-4.269
X-70 Y-80.941 Z-4.231
X-70.046 Y-80.92 Z-4.18
X-70.08 Y-80.904 Z-4.12
X-70.101 Y-80.894 Z-4.053
X-70.109 Y-80.891 Z-3.983
Z5
X-79.149 Y-76.744
Z-3.365 F333.3
Z-3.983
X-79.156 Y-76.741 Z-4.053 F1000
X-79.177 Y-76.731 Z-4.12
X-79.212 Y-76.715 Z-4.18
X-79.257 Y-76.694 Z-4.231
X-79.312 Y-76.669 Z-4.269
X-79.373 Y-76.641 Z-4.292
X-79.437 Y-76.612 Z-4.3
X-79.726 Y-76.479
G3 X-80.147 Y-76.636 I-0.132 J-0.289
G2 X-95.079 Y-79.936 I-8.714 J3.997
G1 X-119.703 Y-58.957
G3 X-128.019 Y-58.957 I-4.158 J-4.881
G1 X-152.643 Y-79.936
G2 X-166.159 Y-78.856 I-6.218 J7.298
X-165.079 Y-65.34 I7.298 J6.218
G1 X-144.375 Y-47.7
G3 X-144.375 Y-37.938 I-4.158 J4.881
G1 X-165.079 Y-20.298
G2 X-152.643 Y-5.702 I6.218 J7.298
G1 X-131.511 Y-23.706
Z-3.506
X-128.019 Y-26.681
G3 X-123.312 Y-28.188 I4.158 J4.881
G1 Z-4.3 F333.3
G3 X-119.703 Y-26.681 I-0.549 J6.389 F1000
G1 X-95.079 Y-5.702
G2 X-81.563 Y-6.782 I6.218 J-7.298
X-82.644 Y-20.298 I-7.298 J-6.218
G1 X-103.348 Y-37.938
G3 X-103.348 Y-47.7 I4.159 J-4.881
G1 X-82.644 Y-65.34
G2 X-80.147 Y-76.636 I-6.218 J-7.298
G3 X-79.991 Y-77.057 I0.289 J-0.132
G1 X-79.702 Y-77.189
X-79.638 Y-77.218 Z-4.292
X-79.577 Y-77.246 Z-4.269
X-79.522 Y-77.271 Z-4.231
X-79.477 Y-77.292 Z-4.18
X-79.442 Y-77.308 Z-4.12
X-79.421 Y-77.318 Z-4.053
X-79.414 Y-77.321 Z-3.983
Z5
X-76.159 Y-186.623
Z0.635 F333.3
Z-0.683
X-76.151 Y-186.62 Z-0.753 F1000
X-76.129 Y-186.614 Z-0.82
X-76.092 Y-186.604 Z-0.88
X-76.044 Y-186.59 Z-0.931
X-75.986 Y-186.573 Z-0.969
X-75.922 Y-186.554 Z-0.992
X-75.854 Y-186.535 Z-1
X-75.549 Y-186.447
G3 X-75.331 Y-186.054 I-0.088 J0.305
G2 X-75.588 Y-184.235 I6.331 J1.819
G1 Y-149.235
G2 X-69 Y-142.648 I6.588 J0
G1 X-27
G2 X-20.413 Y-149.235 I0 J-6.587
G1 Y-184.235
G2 X-27 Y-190.822 I-6.587 J0
G1 X-69
G2 X-75.331 Y-186.054 I0 J6.587
G3 X-75.724 Y-185.837 I-0.305 J-0.088
G1 X-76.029 Y-185.925
X-76.097 Y-185.944 Z-0.992
X-76.162 Y-185.963 Z-0.969
X-76.22 Y-185.979 Z-0.931
X-76.268 Y-185.993 Z-0.88
X-76.304 Y-186.004 Z-0.82
X-76.327 Y-186.01 Z-0.753
X-76.334 Y-186.012 Z-0.683
Z5
X-76.159 Y-186.623
Z-0.365 F333.3
Z-1.683
X-76.151 Y-186.62 Z-1.753 F1000
X-76.129 Y-186.614 Z-1.82
X-76.092 Y-186.604 Z-1.88
X-76.044 Y-186.59 Z-1.931
X-75.986 Y-186.573 Z-1.969
X-75.922 Y-186.554 Z-1.992
X-75.854 Y-186.535 Z-2
X-75.549 Y-186.447
G3 X-75.331 Y-186.054 I-0.088 J0.305
G2 X-75.588 Y-184.235 I6.331 J1.819
G1 Y-149.235
G2 X-69 Y-142.648 I6.588 J0
G1 X-27
G2 X-20.413 Y-149.235 I0 J-6.587
G1 Y-184.235
G2 X-27 Y-190.822 I-6.587 J0
G1 X-69
G2 X-75.331 Y-186.054 I0 J6.587
G3 X-75.724 Y-185.837 I-0.305 J-0.088
G1 X-76.029 Y-185.925
X-76.097 Y-185.944 Z-1.992
X-76.162 Y-185.963 Z-1.969
X-76.22 Y-185.979 Z-1.931
X-76.268 Y-185.993 Z-1.88
X-76.304 Y-186.004 Z-1.82
X-76.327 Y-186.01 Z-1.753
X-76.334 Y-186.012 Z-1.683
Z5
X-76.159 Y-186.623
Z-1.365 F333.3
Z-2.683
X-76.151 Y-186.62 Z-2.753 F1000
X-76.129 Y-186.614 Z-2.82
X-76.092 Y-186.604 Z-2.88
X-76.044 Y-186.59 Z-2.931
X-75.986 Y-186.573 Z-2.969
X-75.922 Y-186.554 Z-2.992
X-75.854 Y-186.535 Z-3
X-75.549 Y-186.447
G3 X-75.331 Y-186.054 I-0.088 J0.305
G2 X-75.588 Y-184.235 I6.331 J1.819
G1 Y-149.235
G2 X-69 Y-142.648 I6.588 J0
G1 X-27
G2 X-20.413 Y-149.235 I0 J-6.587
G1 Y-184.235
G2 X-27 Y-190.822 I-6.587 J0
G1 X-69
G2 X-75.331 Y-186.054 I0 J6.587
G3 X-75.724 Y-185.837 I-0.305 J-0.088
G1 X-76.029 Y-185.925
X-76.097 Y-185.944 Z-2.992
X-76.162 Y-185.963 Z-2.969
X-76.22 Y-185.979 Z-2.931
X-76.268 Y-185.993 Z-2.88
X-76.304 Y-186.004 Z-2.82
X-76.327 Y-186.01 Z-2.753
X-76.334 Y-186.012 Z-2.683
Z5
X-76.159 Y-186.623
Z-2.365 F333.3
Z-3.683
X-76.151 Y-186.62 Z-3.753 F1000
X-76.129 Y-186.614 Z-3.82
X-76.092 Y-186.604 Z-3.88
X-76.044 Y-186.59 Z-3.931
X-75.986 Y-186.573 Z-3.969
X-75.922 Y-186.554 Z-3.992
X-75.854 Y-186.535 Z-4
X-75.549 Y-186.447
G3 X-75.331 Y-186.054 I-0.088 J0.305
G2 X-75.588 Y-184.235 I6.331 J1.819
G1 Y-149.235
G2 X-69 Y-142.648 I6.588 J0
G1 X-27
G2 X-20.413 Y-149.235 I0 J-6.587
G1 Y-184.235
G2 X-27 Y-190.822 I-6.587 J0
G1 X-69
G2 X-75.331 Y-186.054 I0 J6.587
G3 X-75.724 Y-185.837 I-0.305 J-0.088
G1 X-76.029 Y-185.925
X-76.097 Y-185.944 Z-3.992
X-76.162 Y-185.963 Z-3.969
X-76.22 Y-185.979 Z-3.931
X-76.268 Y-185.993 Z-3.88
X-76.304 Y-186.004 Z-3.82
X-76.327 Y-186.01 Z-3.753
X-76.334 Y-186.012 Z-3.683
Z5
X-76.159 Y-186.623
Z-3.365 F333.3
Z-3.983
X-76.151 Y-186.62 Z-4.053 F1000
X-76.129 Y-186.614 Z-4.12
X-76.092 Y-186.604 Z-4.18
X-76.044 Y-186.59 Z-4.231
X-75.986 Y-186.573 Z-4.269
X-75.922 Y-186.554 Z-4.292
X-75.854 Y-186.535 Z-4.3
X-75.549 Y-186.447
G3 X-75.331 Y-186.054 I-0.088 J0.305
G2 X-75.588 Y-184.235 I6.331 J1.819
G1 Y-149.235
G2 X-69 Y-142.648 I6.588 J0
G1 X-27
G2 X-20.413 Y-149.235 I0 J-6.587
G1 Y-184.235
G2 X-27 Y-190.822 I-6.587 J0
G1 X-69
G2 X-75.331 Y-186.054 I0 J6.587
G3 X-75.724 Y-185.837 I-0.305 J-0.088
G1 X-76.029 Y-185.925
X-76.097 Y-185.944 Z-4.292
X-76.162 Y-185.963 Z-4.269
X-76.22 Y-185.979 Z-4.231
X-76.268 Y-185.993 Z-4.18
X-76.304 Y-186.004 Z-4.12
X-76.327 Y-186.01 Z-4.053
X-76.334 Y-186.012 Z-3.983
Z15

G28 G91 Z0
G90
G28 G91 X0 Y0
G90
M5
M30
