(Podracer10)
(Bearbeiten)
(  Hersteller: ChinaCnc)
(  model: 3040T)
(  description: Generic 3-axis)
(T5 D=3.175 CR=0 - ZMIN=-3.3 - Schaftfrser)
G90 G94
G17
G21
(-Attention- Property Safe Retracts is set to Clearance Height.)
(Ensure the clearance height will clear the part and or fixtures.)
(Raise the Z-axis to a safe height before starting the program.)
(When using Fusion for Personal Use, the feedrate of rapid)
(moves is reduced to match the feedrate of cutting moves,)
(which can increase machining time. Unrestricted rapid moves)
(are available with a Fusion Subscription.)

(Bohrfrsen5)
M0
(MANUAL TOOL CHANGE TO T5)
S4000 M3
G17 G90 G94
G54
G0 X-157.817 Y-13.256
Z15
G1 Z2 F1000
Z0.317
G18 G2 X-157.499 Z0 I0.317 K0
G1 X-157.34
G17 G3 X-157.084 Y-13 I0 J0.256
X-158.109 Y-13 Z-0.073 I-0.512 J0
X-157.084 Y-13 Z-0.147 I0.512 J0
X-158.109 Y-13 Z-0.22 I-0.512 J0
X-157.084 Y-13 Z-0.293 I0.512 J0
X-158.109 Y-13 Z-0.367 I-0.512 J0
X-157.084 Y-13 Z-0.44 I0.512 J0
X-158.109 Y-13 Z-0.513 I-0.512 J0
X-157.084 Y-13 Z-0.587 I0.512 J0
X-158.109 Y-13 Z-0.66 I-0.512 J0
X-157.084 Y-13 Z-0.733 I0.512 J0
X-158.109 Y-13 Z-0.807 I-0.512 J0
X-157.084 Y-13 Z-0.88 I0.512 J0
X-158.109 Y-13 Z-0.953 I-0.512 J0
X-157.084 Y-13 Z-1.027 I0.512 J0
X-158.109 Y-13 Z-1.1 I-0.512 J0
X-157.084 Y-13 Z-1.173 I0.512 J0
X-158.109 Y-13 Z-1.247 I-0.512 J0
X-157.084 Y-13 Z-1.32 I0.512 J0
X-158.109 Y-13 Z-1.393 I-0.512 J0
X-157.084 Y-13 Z-1.467 I0.512 J0
X-157.524 Y-12.493 Z-1.5 I-0.512 J0
X-157.67 Y-13.507 I-0.073 J-0.507
X-157.524 Y-12.493 I0.073 J0.507
X-157.814 Y-12.71 I-0.037 J-0.254
G1 X-157.836 Y-12.867
X-157.846 Y-12.937 Z-1.492
X-157.856 Y-13.003 Z-1.469
X-157.865 Y-13.063 Z-1.431
X-157.872 Y-13.113 Z-1.38
X-157.877 Y-13.15 Z-1.32
X-157.88 Y-13.173 Z-1.253
X-157.882 Y-13.181 Z-1.183
Z5
X-138.067 Y-27.825
Z2
Z0.317
G18 G2 X-137.749 Z0 I0.317 K0
G1 X-137.59
G17 G3 X-137.334 Y-27.569 I0 J0.256
X-138.359 Y-27.569 Z-0.073 I-0.512 J0
X-137.334 Y-27.569 Z-0.147 I0.512 J0
X-138.359 Y-27.569 Z-0.22 I-0.512 J0
X-137.334 Y-27.569 Z-0.293 I0.512 J0
X-138.359 Y-27.569 Z-0.367 I-0.512 J0
X-137.334 Y-27.569 Z-0.44 I0.512 J0
X-138.359 Y-27.569 Z-0.513 I-0.512 J0
X-137.334 Y-27.569 Z-0.587 I0.512 J0
X-138.359 Y-27.569 Z-0.66 I-0.512 J0
X-137.334 Y-27.569 Z-0.733 I0.512 J0
X-138.359 Y-27.569 Z-0.807 I-0.512 J0
X-137.334 Y-27.569 Z-0.88 I0.512 J0
X-138.359 Y-27.569 Z-0.953 I-0.512 J0
X-137.334 Y-27.569 Z-1.027 I0.512 J0
X-138.359 Y-27.569 Z-1.1 I-0.512 J0
X-137.334 Y-27.569 Z-1.173 I0.512 J0
X-138.359 Y-27.569 Z-1.247 I-0.512 J0
X-137.334 Y-27.569 Z-1.32 I0.512 J0
X-138.359 Y-27.569 Z-1.393 I-0.512 J0
X-137.334 Y-27.569 Z-1.467 I0.512 J0
X-137.774 Y-27.062 Z-1.5 I-0.512 J0
X-137.92 Y-28.076 I-0.073 J-0.507
X-137.774 Y-27.062 I0.073 J0.507
X-138.064 Y-27.279 I-0.037 J-0.254
G1 X-138.086 Y-27.436
X-138.096 Y-27.506 Z-1.492
X-138.106 Y-27.572 Z-1.469
X-138.115 Y-27.632 Z-1.431
X-138.122 Y-27.682 Z-1.38
X-138.127 Y-27.719 Z-1.32
X-138.13 Y-27.742 Z-1.253
X-138.132 Y-27.75 Z-1.183
Z5
X-107.567 Y-27.825
Z2
Z0.317
G18 G2 X-107.249 Z0 I0.318 K0
G1 X-107.09
G17 G3 X-106.834 Y-27.569 I0 J0.256
X-107.859 Y-27.569 Z-0.073 I-0.513 J0
X-106.834 Y-27.569 Z-0.147 I0.513 J0
X-107.859 Y-27.569 Z-0.22 I-0.513 J0
X-106.834 Y-27.569 Z-0.293 I0.513 J0
X-107.859 Y-27.569 Z-0.367 I-0.513 J0
X-106.834 Y-27.569 Z-0.44 I0.513 J0
X-107.859 Y-27.569 Z-0.513 I-0.513 J0
X-106.834 Y-27.569 Z-0.587 I0.513 J0
X-107.859 Y-27.569 Z-0.66 I-0.513 J0
X-106.834 Y-27.569 Z-0.733 I0.513 J0
X-107.859 Y-27.569 Z-0.807 I-0.513 J0
X-106.834 Y-27.569 Z-0.88 I0.513 J0
X-107.859 Y-27.569 Z-0.953 I-0.513 J0
X-106.834 Y-27.569 Z-1.027 I0.513 J0
X-107.859 Y-27.569 Z-1.1 I-0.513 J0
X-106.834 Y-27.569 Z-1.173 I0.513 J0
X-107.859 Y-27.569 Z-1.247 I-0.513 J0
X-106.834 Y-27.569 Z-1.32 I0.513 J0
X-107.859 Y-27.569 Z-1.393 I-0.513 J0
X-106.834 Y-27.569 Z-1.467 I0.513 J0
X-107.274 Y-27.062 Z-1.5 I-0.513 J0
X-107.42 Y-28.076 I-0.073 J-0.507
X-107.274 Y-27.062 I0.073 J0.507
X-107.564 Y-27.279 I-0.037 J-0.254
G1 X-107.586 Y-27.436
X-107.596 Y-27.506 Z-1.492
X-107.606 Y-27.572 Z-1.469
X-107.615 Y-27.632 Z-1.431
X-107.622 Y-27.682 Z-1.38
X-107.627 Y-27.719 Z-1.32
X-107.63 Y-27.742 Z-1.253
X-107.632 Y-27.75 Z-1.183
Z5
X-87.817 Y-13.256
Z2
Z0.317
G18 G2 X-87.499 Z0 I0.318 K0
G1 X-87.34
G17 G3 X-87.084 Y-13 I0 J0.256
X-88.109 Y-13 Z-0.073 I-0.513 J0
X-87.084 Y-13 Z-0.147 I0.513 J0
X-88.109 Y-13 Z-0.22 I-0.513 J0
X-87.084 Y-13 Z-0.293 I0.513 J0
X-88.109 Y-13 Z-0.367 I-0.513 J0
X-87.084 Y-13 Z-0.44 I0.513 J0
X-88.109 Y-13 Z-0.513 I-0.513 J0
X-87.084 Y-13 Z-0.587 I0.513 J0
X-88.109 Y-13 Z-0.66 I-0.513 J0
X-87.084 Y-13 Z-0.733 I0.513 J0
X-88.109 Y-13 Z-0.807 I-0.513 J0
X-87.084 Y-13 Z-0.88 I0.513 J0
X-88.109 Y-13 Z-0.953 I-0.513 J0
X-87.084 Y-13 Z-1.027 I0.513 J0
X-88.109 Y-13 Z-1.1 I-0.513 J0
X-87.084 Y-13 Z-1.173 I0.513 J0
X-88.109 Y-13 Z-1.247 I-0.513 J0
X-87.084 Y-13 Z-1.32 I0.513 J0
X-88.109 Y-13 Z-1.393 I-0.513 J0
X-87.084 Y-13 Z-1.467 I0.513 J0
X-87.524 Y-12.493 Z-1.5 I-0.513 J0
X-87.67 Y-13.507 I-0.073 J-0.507
X-87.524 Y-12.493 I0.073 J0.507
X-87.814 Y-12.71 I-0.037 J-0.254
G1 X-87.836 Y-12.867
X-87.846 Y-12.937 Z-1.492
X-87.856 Y-13.003 Z-1.469
X-87.865 Y-13.063 Z-1.431
X-87.872 Y-13.113 Z-1.38
X-87.877 Y-13.15 Z-1.32
X-87.88 Y-13.173 Z-1.253
X-87.882 Y-13.181 Z-1.183
Z5
X-87.817 Y-72.894
Z2
Z0.317
G18 G2 X-87.499 Z0 I0.318 K0
G1 X-87.34
G17 G3 X-87.084 Y-72.638 I0 J0.256
X-88.109 Y-72.638 Z-0.073 I-0.513 J0
X-87.084 Y-72.638 Z-0.147 I0.513 J0
X-88.109 Y-72.638 Z-0.22 I-0.513 J0
X-87.084 Y-72.638 Z-0.293 I0.513 J0
X-88.109 Y-72.638 Z-0.367 I-0.513 J0
X-87.084 Y-72.638 Z-0.44 I0.513 J0
X-88.109 Y-72.638 Z-0.513 I-0.513 J0
X-87.084 Y-72.638 Z-0.587 I0.513 J0
X-88.109 Y-72.638 Z-0.66 I-0.513 J0
X-87.084 Y-72.638 Z-0.733 I0.513 J0
X-88.109 Y-72.638 Z-0.807 I-0.513 J0
X-87.084 Y-72.638 Z-0.88 I0.513 J0
X-88.109 Y-72.638 Z-0.953 I-0.513 J0
X-87.084 Y-72.638 Z-1.027 I0.513 J0
X-88.109 Y-72.638 Z-1.1 I-0.513 J0
X-87.084 Y-72.638 Z-1.173 I0.513 J0
X-88.109 Y-72.638 Z-1.247 I-0.513 J0
X-87.084 Y-72.638 Z-1.32 I0.513 J0
X-88.109 Y-72.638 Z-1.393 I-0.513 J0
X-87.084 Y-72.638 Z-1.467 I0.513 J0
X-87.524 Y-72.131 Z-1.5 I-0.513 J0
X-87.67 Y-73.145 I-0.073 J-0.507
X-87.524 Y-72.131 I0.073 J0.507
X-87.814 Y-72.348 I-0.037 J-0.254
G1 X-87.836 Y-72.505
X-87.846 Y-72.575 Z-1.492
X-87.856 Y-72.641 Z-1.469
X-87.865 Y-72.701 Z-1.431
X-87.872 Y-72.751 Z-1.38
X-87.877 Y-72.788 Z-1.32
X-87.88 Y-72.812 Z-1.253
X-87.882 Y-72.819 Z-1.183
Z5
X-107.567 Y-58.325
Z2
Z0.317
G18 G2 X-107.249 Z0 I0.318 K0
G1 X-107.09
G17 G3 X-106.834 Y-58.069 I0 J0.256
X-107.859 Y-58.069 Z-0.073 I-0.513 J0
X-106.834 Y-58.069 Z-0.147 I0.513 J0
X-107.859 Y-58.069 Z-0.22 I-0.513 J0
X-106.834 Y-58.069 Z-0.293 I0.513 J0
X-107.859 Y-58.069 Z-0.367 I-0.513 J0
X-106.834 Y-58.069 Z-0.44 I0.513 J0
X-107.859 Y-58.069 Z-0.513 I-0.513 J0
X-106.834 Y-58.069 Z-0.587 I0.513 J0
X-107.859 Y-58.069 Z-0.66 I-0.513 J0
X-106.834 Y-58.069 Z-0.733 I0.513 J0
X-107.859 Y-58.069 Z-0.807 I-0.513 J0
X-106.834 Y-58.069 Z-0.88 I0.513 J0
X-107.859 Y-58.069 Z-0.953 I-0.513 J0
X-106.834 Y-58.069 Z-1.027 I0.513 J0
X-107.859 Y-58.069 Z-1.1 I-0.513 J0
X-106.834 Y-58.069 Z-1.173 I0.513 J0
X-107.859 Y-58.069 Z-1.247 I-0.513 J0
X-106.834 Y-58.069 Z-1.32 I0.513 J0
X-107.859 Y-58.069 Z-1.393 I-0.513 J0
X-106.834 Y-58.069 Z-1.467 I0.513 J0
X-107.274 Y-57.562 Z-1.5 I-0.513 J0
X-107.42 Y-58.576 I-0.073 J-0.507
X-107.274 Y-57.562 I0.073 J0.507
X-107.564 Y-57.779 I-0.037 J-0.254
G1 X-107.586 Y-57.936
X-107.596 Y-58.006 Z-1.492
X-107.606 Y-58.072 Z-1.469
X-107.615 Y-58.132 Z-1.431
X-107.622 Y-58.182 Z-1.38
X-107.627 Y-58.219 Z-1.32
X-107.63 Y-58.242 Z-1.253
X-107.632 Y-58.25 Z-1.183
Z5
X-138.067 Y-58.325
Z2
Z0.317
G18 G2 X-137.749 Z0 I0.317 K0
G1 X-137.59
G17 G3 X-137.334 Y-58.069 I0 J0.256
X-138.359 Y-58.069 Z-0.073 I-0.512 J0
X-137.334 Y-58.069 Z-0.147 I0.512 J0
X-138.359 Y-58.069 Z-0.22 I-0.512 J0
X-137.334 Y-58.069 Z-0.293 I0.512 J0
X-138.359 Y-58.069 Z-0.367 I-0.512 J0
X-137.334 Y-58.069 Z-0.44 I0.512 J0
X-138.359 Y-58.069 Z-0.513 I-0.512 J0
X-137.334 Y-58.069 Z-0.587 I0.512 J0
X-138.359 Y-58.069 Z-0.66 I-0.512 J0
X-137.334 Y-58.069 Z-0.733 I0.512 J0
X-138.359 Y-58.069 Z-0.807 I-0.512 J0
X-137.334 Y-58.069 Z-0.88 I0.512 J0
X-138.359 Y-58.069 Z-0.953 I-0.512 J0
X-137.334 Y-58.069 Z-1.027 I0.512 J0
X-138.359 Y-58.069 Z-1.1 I-0.512 J0
X-137.334 Y-58.069 Z-1.173 I0.513 J0
X-138.359 Y-58.069 Z-1.247 I-0.513 J0
X-137.334 Y-58.069 Z-1.32 I0.513 J0
X-138.359 Y-58.069 Z-1.393 I-0.513 J0
X-137.334 Y-58.069 Z-1.467 I0.513 J0
X-137.774 Y-57.562 Z-1.5 I-0.513 J0
X-137.92 Y-58.576 I-0.073 J-0.507
X-137.774 Y-57.562 I0.073 J0.507
X-138.064 Y-57.779 I-0.037 J-0.254
G1 X-138.086 Y-57.936
X-138.096 Y-58.006 Z-1.492
X-138.106 Y-58.072 Z-1.469
X-138.115 Y-58.132 Z-1.431
X-138.122 Y-58.182 Z-1.38
X-138.127 Y-58.219 Z-1.32
X-138.13 Y-58.242 Z-1.253
X-138.132 Y-58.25 Z-1.183
Z5
X-157.817 Y-72.894
Z2
Z0.317
G18 G2 X-157.499 Z0 I0.317 K0
G1 X-157.34
G17 G3 X-157.084 Y-72.638 I0 J0.256
X-158.109 Y-72.638 Z-0.073 I-0.512 J0
X-157.084 Y-72.638 Z-0.147 I0.512 J0
X-158.109 Y-72.638 Z-0.22 I-0.512 J0
X-157.084 Y-72.638 Z-0.293 I0.512 J0
X-158.109 Y-72.638 Z-0.367 I-0.512 J0
X-157.084 Y-72.638 Z-0.44 I0.512 J0
X-158.109 Y-72.638 Z-0.513 I-0.512 J0
X-157.084 Y-72.638 Z-0.587 I0.512 J0
X-158.109 Y-72.638 Z-0.66 I-0.513 J0
X-157.084 Y-72.638 Z-0.733 I0.513 J0
X-158.109 Y-72.638 Z-0.807 I-0.513 J0
X-157.084 Y-72.638 Z-0.88 I0.513 J0
X-158.109 Y-72.638 Z-0.953 I-0.513 J0
X-157.084 Y-72.638 Z-1.027 I0.513 J0
X-158.109 Y-72.638 Z-1.1 I-0.513 J0
X-157.084 Y-72.638 Z-1.173 I0.513 J0
X-158.109 Y-72.638 Z-1.247 I-0.513 J0
X-157.084 Y-72.638 Z-1.32 I0.513 J0
X-158.109 Y-72.638 Z-1.393 I-0.513 J0
X-157.084 Y-72.638 Z-1.467 I0.513 J0
X-157.524 Y-72.131 Z-1.5 I-0.513 J0
X-157.67 Y-73.145 I-0.073 J-0.507
X-157.524 Y-72.131 I0.073 J0.507
X-157.814 Y-72.348 I-0.037 J-0.254
G1 X-157.836 Y-72.505
X-157.846 Y-72.575 Z-1.492
X-157.856 Y-72.641 Z-1.469
X-157.865 Y-72.701 Z-1.431
X-157.872 Y-72.751 Z-1.38
X-157.877 Y-72.788 Z-1.32
X-157.88 Y-72.812 Z-1.253
X-157.882 Y-72.819 Z-1.183
Z5
X-33.068 Y-153.654
Z2
Z0.317
G19 G2 Y-153.972 Z0 J-0.317 K0
G1 Y-154.13
G17 G3 X-32.75 Y-154.448 I0.318 J0
X-32.75 Y-149.623 Z-0.14 I0 J2.413
X-32.75 Y-154.448 Z-0.279 I0 J-2.413
X-32.75 Y-149.623 Z-0.419 I0 J2.413
X-32.75 Y-154.448 Z-0.559 I0 J-2.413
X-32.75 Y-149.623 Z-0.698 I0 J2.413
X-32.75 Y-154.448 Z-0.838 I0 J-2.413
X-32.75 Y-149.623 Z-0.978 I0 J2.413
X-32.75 Y-154.448 Z-1.117 I0 J-2.413
X-32.75 Y-149.623 Z-1.257 I0 J2.413
X-32.75 Y-154.448 Z-1.397 I0 J-2.413
X-32.75 Y-149.623 Z-1.537 I0 J2.413
X-32.75 Y-154.448 Z-1.676 I0 J-2.413
X-32.75 Y-149.623 Z-1.816 I0 J2.413
X-32.75 Y-154.448 Z-1.956 I0 J-2.413
X-30.721 Y-153.34 Z-2 I0 J2.413
X-34.779 Y-150.731 I-2.029 J1.305
X-30.721 Y-153.34 I2.029 J-1.305
X-30.816 Y-152.901 I-0.267 J0.172
G1 X-30.95 Y-152.815
X-31.009 Y-152.777 Z-1.992
X-31.065 Y-152.741 Z-1.969
X-31.116 Y-152.708 Z-1.931
X-31.158 Y-152.681 Z-1.88
X-31.19 Y-152.661 Z-1.82
X-31.21 Y-152.648 Z-1.753
X-31.217 Y-152.644 Z-1.683
Z5
X-63.568 Y-153.654
Z2
Z0.317
G19 G2 Y-153.972 Z0 J-0.317 K0
G1 Y-154.13
G17 G3 X-63.25 Y-154.448 I0.318 J0
X-63.25 Y-149.623 Z-0.14 I0 J2.413
X-63.25 Y-154.448 Z-0.279 I0 J-2.413
X-63.25 Y-149.623 Z-0.419 I0 J2.413
X-63.25 Y-154.448 Z-0.559 I0 J-2.413
X-63.25 Y-149.623 Z-0.698 I0 J2.413
X-63.25 Y-154.448 Z-0.838 I0 J-2.413
X-63.25 Y-149.623 Z-0.978 I0 J2.413
X-63.25 Y-154.448 Z-1.117 I0 J-2.413
X-63.25 Y-149.623 Z-1.257 I0 J2.413
X-63.25 Y-154.448 Z-1.397 I0 J-2.413
X-63.25 Y-149.623 Z-1.537 I0 J2.413
X-63.25 Y-154.448 Z-1.676 I0 J-2.413
X-63.25 Y-149.623 Z-1.816 I0 J2.413
X-63.25 Y-154.448 Z-1.956 I0 J-2.413
X-61.221 Y-153.34 Z-2 I0 J2.413
X-65.279 Y-150.731 I-2.029 J1.305
X-61.221 Y-153.34 I2.029 J-1.305
X-61.316 Y-152.901 I-0.267 J0.172
G1 X-61.45 Y-152.815
X-61.509 Y-152.777 Z-1.992
X-61.565 Y-152.741 Z-1.969
X-61.616 Y-152.708 Z-1.931
X-61.658 Y-152.681 Z-1.88
X-61.69 Y-152.661 Z-1.82
X-61.71 Y-152.648 Z-1.753
X-61.717 Y-152.644 Z-1.683
Z5
X-63.568 Y-184.154
Z2
Z0.317
G19 G2 Y-184.472 Z0 J-0.317 K0
G1 Y-184.63
G17 G3 X-63.25 Y-184.948 I0.318 J0
X-63.25 Y-180.123 Z-0.14 I0 J2.413
X-63.25 Y-184.948 Z-0.279 I0 J-2.413
X-63.25 Y-180.123 Z-0.419 I0 J2.413
X-63.25 Y-184.948 Z-0.559 I0 J-2.413
X-63.25 Y-180.123 Z-0.698 I0 J2.413
X-63.25 Y-184.948 Z-0.838 I0 J-2.413
X-63.25 Y-180.123 Z-0.978 I0 J2.413
X-63.25 Y-184.948 Z-1.117 I0 J-2.413
X-63.25 Y-180.123 Z-1.257 I0 J2.413
X-63.25 Y-184.948 Z-1.397 I0 J-2.413
X-63.25 Y-180.123 Z-1.537 I0 J2.413
X-63.25 Y-184.948 Z-1.676 I0 J-2.413
X-63.25 Y-180.123 Z-1.816 I0 J2.413
X-63.25 Y-184.948 Z-1.956 I0 J-2.413
X-61.221 Y-183.84 Z-2 I0 J2.413
X-65.279 Y-181.231 I-2.029 J1.305
X-61.221 Y-183.84 I2.029 J-1.305
X-61.316 Y-183.401 I-0.267 J0.172
G1 X-61.45 Y-183.315
X-61.509 Y-183.277 Z-1.992
X-61.565 Y-183.241 Z-1.969
X-61.616 Y-183.208 Z-1.931
X-61.658 Y-183.181 Z-1.88
X-61.69 Y-183.161 Z-1.82
X-61.71 Y-183.148 Z-1.753
X-61.717 Y-183.144 Z-1.683
Z5
X-33.068 Y-184.154
Z2
Z0.317
G19 G2 Y-184.472 Z0 J-0.317 K0
G1 Y-184.63
G17 G3 X-32.75 Y-184.948 I0.318 J0
X-32.75 Y-180.123 Z-0.14 I0 J2.413
X-32.75 Y-184.948 Z-0.279 I0 J-2.413
X-32.75 Y-180.123 Z-0.419 I0 J2.413
X-32.75 Y-184.948 Z-0.559 I0 J-2.413
X-32.75 Y-180.123 Z-0.698 I0 J2.413
X-32.75 Y-184.948 Z-0.838 I0 J-2.413
X-32.75 Y-180.123 Z-0.978 I0 J2.413
X-32.75 Y-184.948 Z-1.117 I0 J-2.413
X-32.75 Y-180.123 Z-1.257 I0 J2.413
X-32.75 Y-184.948 Z-1.397 I0 J-2.413
X-32.75 Y-180.123 Z-1.537 I0 J2.413
X-32.75 Y-184.948 Z-1.676 I0 J-2.413
X-32.75 Y-180.123 Z-1.816 I0 J2.413
X-32.75 Y-184.948 Z-1.956 I0 J-2.413
X-30.721 Y-183.84 Z-2 I0 J2.413
X-34.779 Y-181.231 I-2.029 J1.305
X-30.721 Y-183.84 I2.029 J-1.305
X-30.816 Y-183.401 I-0.267 J0.172
G1 X-30.95 Y-183.315
X-31.009 Y-183.277 Z-1.992
X-31.065 Y-183.241 Z-1.969
X-31.116 Y-183.208 Z-1.931
X-31.158 Y-183.181 Z-1.88
X-31.19 Y-183.161 Z-1.82
X-31.21 Y-183.148 Z-1.753
X-31.217 Y-183.144 Z-1.683
Z15
(When using Fusion for Personal Use, the feedrate of rapid)
(moves is reduced to match the feedrate of cutting moves,)
(which can increase machining time. Unrestricted rapid moves)
(are available with a Fusion Subscription.)

(Bohrfrsen6)
G0 X-157.674 Y-72.719
G1 Z15 F1000
Z2.182
Z0.5
X-157.515
X-157.484 Y-72.713
X-157.458 Y-72.696
X-157.44 Y-72.669
X-157.434 Y-72.638
G3 X-157.759 Y-72.638 Z0.439 I-0.162 J0
X-157.434 Y-72.638 Z0.378 I0.162 J0
X-157.759 Y-72.638 Z0.317 I-0.162 J0
X-157.434 Y-72.638 Z0.256 I0.162 J0
X-157.759 Y-72.638 Z0.194 I-0.162 J0
X-157.434 Y-72.638 Z0.133 I0.162 J0
X-157.759 Y-72.638 Z0.072 I-0.162 J0
X-157.434 Y-72.638 Z0.011 I0.162 J0
X-157.759 Y-72.638 Z-0.05 I-0.162 J0
X-157.434 Y-72.638 Z-0.111 I0.162 J0
X-157.759 Y-72.638 Z-0.172 I-0.162 J0
X-157.434 Y-72.638 Z-0.233 I0.162 J0
X-157.759 Y-72.638 Z-0.294 I-0.162 J0
X-157.434 Y-72.638 Z-0.356 I0.162 J0
X-157.759 Y-72.638 Z-0.417 I-0.162 J0
X-157.434 Y-72.638 Z-0.478 I0.162 J0
X-157.759 Y-72.638 Z-0.539 I-0.162 J0
X-157.434 Y-72.638 Z-0.6 I0.162 J0
X-157.759 Y-72.638 Z-0.661 I-0.162 J0
X-157.434 Y-72.638 Z-0.722 I0.162 J0
X-157.759 Y-72.638 Z-0.783 I-0.162 J0
X-157.434 Y-72.638 Z-0.844 I0.162 J0
X-157.759 Y-72.638 Z-0.906 I-0.162 J0
X-157.434 Y-72.638 Z-0.967 I0.162 J0
X-157.759 Y-72.638 Z-1.028 I-0.162 J0
X-157.434 Y-72.638 Z-1.089 I0.162 J0
X-157.759 Y-72.638 Z-1.15 I-0.162 J0
X-157.434 Y-72.638 Z-1.211 I0.162 J0
X-157.759 Y-72.638 Z-1.272 I-0.162 J0
X-157.434 Y-72.638 Z-1.333 I0.162 J0
X-157.759 Y-72.638 Z-1.394 I-0.162 J0
X-157.434 Y-72.638 Z-1.456 I0.162 J0
X-157.759 Y-72.638 Z-1.517 I-0.162 J0
X-157.434 Y-72.638 Z-1.578 I0.162 J0
X-157.759 Y-72.638 Z-1.639 I-0.162 J0
X-157.434 Y-72.638 Z-1.7 I0.162 J0
X-157.759 Y-72.638 Z-1.761 I-0.162 J0
X-157.434 Y-72.638 Z-1.822 I0.162 J0
X-157.759 Y-72.638 Z-1.883 I-0.162 J0
X-157.434 Y-72.638 Z-1.944 I0.162 J0
X-157.759 Y-72.638 Z-2.006 I-0.162 J0
X-157.434 Y-72.638 Z-2.067 I0.162 J0
X-157.759 Y-72.638 Z-2.128 I-0.162 J0
X-157.434 Y-72.638 Z-2.189 I0.162 J0
X-157.759 Y-72.638 Z-2.25 I-0.162 J0
X-157.434 Y-72.638 Z-2.311 I0.162 J0
X-157.759 Y-72.638 Z-2.372 I-0.162 J0
X-157.434 Y-72.638 Z-2.433 I0.162 J0
X-157.759 Y-72.638 Z-2.494 I-0.162 J0
X-157.434 Y-72.638 Z-2.556 I0.162 J0
X-157.759 Y-72.638 Z-2.617 I-0.162 J0
X-157.434 Y-72.638 Z-2.678 I0.162 J0
X-157.759 Y-72.638 Z-2.739 I-0.162 J0
X-157.434 Y-72.638 Z-2.8 I0.162 J0
X-157.759 Y-72.638 Z-2.861 I-0.162 J0
X-157.434 Y-72.638 Z-2.922 I0.162 J0
X-157.759 Y-72.638 Z-2.983 I-0.162 J0
X-157.434 Y-72.638 Z-3.044 I0.162 J0
X-157.759 Y-72.638 Z-3.106 I-0.162 J0
X-157.434 Y-72.638 Z-3.167 I0.162 J0
X-157.759 Y-72.638 Z-3.228 I-0.162 J0
X-157.434 Y-72.638 Z-3.289 I0.162 J0
X-157.46 Y-72.55 Z-3.3 I-0.162 J0
X-157.733 Y-72.726 I-0.137 J-0.088
X-157.46 Y-72.55 I0.137 J0.088
G1 X-157.482 Y-72.528
X-157.511 Y-72.515
X-157.543 Y-72.514
X-157.572 Y-72.526
X-157.706 Y-72.612
Z5
X-137.924 Y-58.15
Z2.182
Z0.5
X-137.765
X-137.734 Y-58.144
X-137.708 Y-58.127
X-137.69 Y-58.1
X-137.684 Y-58.069
G3 X-138.009 Y-58.069 Z0.439 I-0.162 J0
X-137.684 Y-58.069 Z0.378 I0.162 J0
X-138.009 Y-58.069 Z0.317 I-0.162 J0
X-137.684 Y-58.069 Z0.256 I0.162 J0
X-138.009 Y-58.069 Z0.194 I-0.162 J0
X-137.684 Y-58.069 Z0.133 I0.162 J0
X-138.009 Y-58.069 Z0.072 I-0.162 J0
X-137.684 Y-58.069 Z0.011 I0.162 J0
X-138.009 Y-58.069 Z-0.05 I-0.162 J0
X-137.684 Y-58.069 Z-0.111 I0.162 J0
X-138.009 Y-58.069 Z-0.172 I-0.162 J0
X-137.684 Y-58.069 Z-0.233 I0.162 J0
X-138.009 Y-58.069 Z-0.294 I-0.162 J0
X-137.684 Y-58.069 Z-0.356 I0.162 J0
X-138.009 Y-58.069 Z-0.417 I-0.162 J0
X-137.684 Y-58.069 Z-0.478 I0.162 J0
X-138.009 Y-58.069 Z-0.539 I-0.162 J0
X-137.684 Y-58.069 Z-0.6 I0.162 J0
X-138.009 Y-58.069 Z-0.661 I-0.162 J0
X-137.684 Y-58.069 Z-0.722 I0.162 J0
X-138.009 Y-58.069 Z-0.783 I-0.162 J0
X-137.684 Y-58.069 Z-0.844 I0.162 J0
X-138.009 Y-58.069 Z-0.906 I-0.162 J0
X-137.684 Y-58.069 Z-0.967 I0.162 J0
X-138.009 Y-58.069 Z-1.028 I-0.162 J0
X-137.684 Y-58.069 Z-1.089 I0.162 J0
X-138.009 Y-58.069 Z-1.15 I-0.162 J0
X-137.684 Y-58.069 Z-1.211 I0.162 J0
X-138.009 Y-58.069 Z-1.272 I-0.162 J0
X-137.684 Y-58.069 Z-1.333 I0.162 J0
X-138.009 Y-58.069 Z-1.394 I-0.162 J0
X-137.684 Y-58.069 Z-1.456 I0.162 J0
X-138.009 Y-58.069 Z-1.517 I-0.162 J0
X-137.684 Y-58.069 Z-1.578 I0.162 J0
X-138.009 Y-58.069 Z-1.639 I-0.162 J0
X-137.684 Y-58.069 Z-1.7 I0.162 J0
X-138.009 Y-58.069 Z-1.761 I-0.162 J0
X-137.684 Y-58.069 Z-1.822 I0.162 J0
X-138.009 Y-58.069 Z-1.883 I-0.162 J0
X-137.684 Y-58.069 Z-1.944 I0.162 J0
X-138.009 Y-58.069 Z-2.006 I-0.162 J0
X-137.684 Y-58.069 Z-2.067 I0.162 J0
X-138.009 Y-58.069 Z-2.128 I-0.162 J0
X-137.684 Y-58.069 Z-2.189 I0.162 J0
X-138.009 Y-58.069 Z-2.25 I-0.162 J0
X-137.684 Y-58.069 Z-2.311 I0.162 J0
X-138.009 Y-58.069 Z-2.372 I-0.162 J0
X-137.684 Y-58.069 Z-2.433 I0.162 J0
X-138.009 Y-58.069 Z-2.494 I-0.162 J0
X-137.684 Y-58.069 Z-2.556 I0.162 J0
X-138.009 Y-58.069 Z-2.617 I-0.162 J0
X-137.684 Y-58.069 Z-2.678 I0.162 J0
X-138.009 Y-58.069 Z-2.739 I-0.162 J0
X-137.684 Y-58.069 Z-2.8 I0.162 J0
X-138.009 Y-58.069 Z-2.861 I-0.162 J0
X-137.684 Y-58.069 Z-2.922 I0.162 J0
X-138.009 Y-58.069 Z-2.983 I-0.162 J0
X-137.684 Y-58.069 Z-3.044 I0.162 J0
X-138.009 Y-58.069 Z-3.106 I-0.162 J0
X-137.684 Y-58.069 Z-3.167 I0.162 J0
X-138.009 Y-58.069 Z-3.228 I-0.162 J0
X-137.684 Y-58.069 Z-3.289 I0.162 J0
X-137.71 Y-57.981 Z-3.3 I-0.162 J0
X-137.983 Y-58.157 I-0.137 J-0.088
X-137.71 Y-57.981 I0.137 J0.088
G1 X-137.732 Y-57.958
X-137.761 Y-57.946
X-137.793 Y-57.945
X-137.822 Y-57.957
X-137.956 Y-58.043
Z5
X-157.674 Y-13.081
Z2.182
Z0.5
X-157.515
X-157.484 Y-13.075
X-157.458 Y-13.057
X-157.44 Y-13.031
X-157.434 Y-13
G3 X-157.759 Y-13 Z0.439 I-0.162 J0
X-157.434 Y-13 Z0.378 I0.162 J0
X-157.759 Y-13 Z0.317 I-0.162 J0
X-157.434 Y-13 Z0.256 I0.162 J0
X-157.759 Y-13 Z0.194 I-0.162 J0
X-157.434 Y-13 Z0.133 I0.162 J0
X-157.759 Y-13 Z0.072 I-0.162 J0
X-157.434 Y-13 Z0.011 I0.162 J0
X-157.759 Y-13 Z-0.05 I-0.162 J0
X-157.434 Y-13 Z-0.111 I0.162 J0
X-157.759 Y-13 Z-0.172 I-0.162 J0
X-157.434 Y-13 Z-0.233 I0.162 J0
X-157.759 Y-13 Z-0.294 I-0.162 J0
X-157.434 Y-13 Z-0.356 I0.162 J0
X-157.759 Y-13 Z-0.417 I-0.162 J0
X-157.434 Y-13 Z-0.478 I0.162 J0
X-157.759 Y-13 Z-0.539 I-0.162 J0
X-157.434 Y-13 Z-0.6 I0.162 J0
X-157.759 Y-13 Z-0.661 I-0.162 J0
X-157.434 Y-13 Z-0.722 I0.162 J0
X-157.759 Y-13 Z-0.783 I-0.162 J0
X-157.434 Y-13 Z-0.844 I0.162 J0
X-157.759 Y-13 Z-0.906 I-0.162 J0
X-157.434 Y-13 Z-0.967 I0.162 J0
X-157.759 Y-13 Z-1.028 I-0.162 J0
X-157.434 Y-13 Z-1.089 I0.162 J0
X-157.759 Y-13 Z-1.15 I-0.162 J0
X-157.434 Y-13 Z-1.211 I0.162 J0
X-157.759 Y-13 Z-1.272 I-0.162 J0
X-157.434 Y-13 Z-1.333 I0.162 J0
X-157.759 Y-13 Z-1.394 I-0.162 J0
X-157.434 Y-13 Z-1.456 I0.162 J0
X-157.759 Y-13 Z-1.517 I-0.162 J0
X-157.434 Y-13 Z-1.578 I0.162 J0
X-157.759 Y-13 Z-1.639 I-0.162 J0
X-157.434 Y-13 Z-1.7 I0.162 J0
X-157.759 Y-13 Z-1.761 I-0.162 J0
X-157.434 Y-13 Z-1.822 I0.162 J0
X-157.759 Y-13 Z-1.883 I-0.162 J0
X-157.434 Y-13 Z-1.944 I0.162 J0
X-157.759 Y-13 Z-2.006 I-0.162 J0
X-157.434 Y-13 Z-2.067 I0.162 J0
X-157.759 Y-13 Z-2.128 I-0.162 J0
X-157.434 Y-13 Z-2.189 I0.162 J0
X-157.759 Y-13 Z-2.25 I-0.162 J0
X-157.434 Y-13 Z-2.311 I0.162 J0
X-157.759 Y-13 Z-2.372 I-0.162 J0
X-157.434 Y-13 Z-2.433 I0.162 J0
X-157.759 Y-13 Z-2.494 I-0.162 J0
X-157.434 Y-13 Z-2.556 I0.162 J0
X-157.759 Y-13 Z-2.617 I-0.162 J0
X-157.434 Y-13 Z-2.678 I0.162 J0
X-157.759 Y-13 Z-2.739 I-0.162 J0
X-157.434 Y-13 Z-2.8 I0.162 J0
X-157.759 Y-13 Z-2.861 I-0.162 J0
X-157.434 Y-13 Z-2.922 I0.162 J0
X-157.759 Y-13 Z-2.983 I-0.162 J0
X-157.434 Y-13 Z-3.044 I0.162 J0
X-157.759 Y-13 Z-3.106 I-0.162 J0
X-157.434 Y-13 Z-3.167 I0.162 J0
X-157.759 Y-13 Z-3.228 I-0.162 J0
X-157.434 Y-13 Z-3.289 I0.162 J0
X-157.46 Y-12.912 Z-3.3 I-0.162 J0
X-157.733 Y-13.088 I-0.137 J-0.088
X-157.46 Y-12.912 I0.137 J0.088
G1 X-157.482 Y-12.889
X-157.511 Y-12.877
X-157.543 Y-12.876
X-157.572 Y-12.888
X-157.706 Y-12.973
Z5
X-137.924 Y-27.65
Z2.182
Z0.5
X-137.765
X-137.734 Y-27.644
X-137.708 Y-27.627
X-137.69 Y-27.6
X-137.684 Y-27.569
G3 X-138.009 Y-27.569 Z0.439 I-0.162 J0
X-137.684 Y-27.569 Z0.378 I0.162 J0
X-138.009 Y-27.569 Z0.317 I-0.162 J0
X-137.684 Y-27.569 Z0.256 I0.162 J0
X-138.009 Y-27.569 Z0.194 I-0.162 J0
X-137.684 Y-27.569 Z0.133 I0.162 J0
X-138.009 Y-27.569 Z0.072 I-0.162 J0
X-137.684 Y-27.569 Z0.011 I0.162 J0
X-138.009 Y-27.569 Z-0.05 I-0.162 J0
X-137.684 Y-27.569 Z-0.111 I0.162 J0
X-138.009 Y-27.569 Z-0.172 I-0.162 J0
X-137.684 Y-27.569 Z-0.233 I0.162 J0
X-138.009 Y-27.569 Z-0.294 I-0.162 J0
X-137.684 Y-27.569 Z-0.356 I0.162 J0
X-138.009 Y-27.569 Z-0.417 I-0.162 J0
X-137.684 Y-27.569 Z-0.478 I0.162 J0
X-138.009 Y-27.569 Z-0.539 I-0.162 J0
X-137.684 Y-27.569 Z-0.6 I0.162 J0
X-138.009 Y-27.569 Z-0.661 I-0.162 J0
X-137.684 Y-27.569 Z-0.722 I0.162 J0
X-138.009 Y-27.569 Z-0.783 I-0.162 J0
X-137.684 Y-27.569 Z-0.844 I0.162 J0
X-138.009 Y-27.569 Z-0.906 I-0.162 J0
X-137.684 Y-27.569 Z-0.967 I0.162 J0
X-138.009 Y-27.569 Z-1.028 I-0.162 J0
X-137.684 Y-27.569 Z-1.089 I0.162 J0
X-138.009 Y-27.569 Z-1.15 I-0.162 J0
X-137.684 Y-27.569 Z-1.211 I0.162 J0
X-138.009 Y-27.569 Z-1.272 I-0.162 J0
X-137.684 Y-27.569 Z-1.333 I0.162 J0
X-138.009 Y-27.569 Z-1.394 I-0.162 J0
X-137.684 Y-27.569 Z-1.456 I0.162 J0
X-138.009 Y-27.569 Z-1.517 I-0.162 J0
X-137.684 Y-27.569 Z-1.578 I0.162 J0
X-138.009 Y-27.569 Z-1.639 I-0.162 J0
X-137.684 Y-27.569 Z-1.7 I0.162 J0
X-138.009 Y-27.569 Z-1.761 I-0.162 J0
X-137.684 Y-27.569 Z-1.822 I0.162 J0
X-138.009 Y-27.569 Z-1.883 I-0.162 J0
X-137.684 Y-27.569 Z-1.944 I0.162 J0
X-138.009 Y-27.569 Z-2.006 I-0.162 J0
X-137.684 Y-27.569 Z-2.067 I0.162 J0
X-138.009 Y-27.569 Z-2.128 I-0.162 J0
X-137.684 Y-27.569 Z-2.189 I0.162 J0
X-138.009 Y-27.569 Z-2.25 I-0.162 J0
X-137.684 Y-27.569 Z-2.311 I0.162 J0
X-138.009 Y-27.569 Z-2.372 I-0.162 J0
X-137.684 Y-27.569 Z-2.433 I0.162 J0
X-138.009 Y-27.569 Z-2.494 I-0.162 J0
X-137.684 Y-27.569 Z-2.556 I0.162 J0
X-138.009 Y-27.569 Z-2.617 I-0.162 J0
X-137.684 Y-27.569 Z-2.678 I0.162 J0
X-138.009 Y-27.569 Z-2.739 I-0.162 J0
X-137.684 Y-27.569 Z-2.8 I0.162 J0
X-138.009 Y-27.569 Z-2.861 I-0.162 J0
X-137.684 Y-27.569 Z-2.922 I0.162 J0
X-138.009 Y-27.569 Z-2.983 I-0.162 J0
X-137.684 Y-27.569 Z-3.044 I0.162 J0
X-138.009 Y-27.569 Z-3.106 I-0.162 J0
X-137.684 Y-27.569 Z-3.167 I0.162 J0
X-138.009 Y-27.569 Z-3.228 I-0.162 J0
X-137.684 Y-27.569 Z-3.289 I0.162 J0
X-137.71 Y-27.481 Z-3.3 I-0.162 J0
X-137.983 Y-27.657 I-0.137 J-0.088
X-137.71 Y-27.481 I0.137 J0.088
G1 X-137.732 Y-27.458
X-137.761 Y-27.446
X-137.793 Y-27.445
X-137.822 Y-27.457
X-137.956 Y-27.543
Z5
X-107.424 Y-27.65
Z2.182
Z0.5
X-107.265
X-107.234 Y-27.644
X-107.208 Y-27.627
X-107.19 Y-27.6
X-107.184 Y-27.569
G3 X-107.509 Y-27.569 Z0.439 I-0.163 J0
X-107.184 Y-27.569 Z0.378 I0.163 J0
X-107.509 Y-27.569 Z0.317 I-0.163 J0
X-107.184 Y-27.569 Z0.256 I0.163 J0
X-107.509 Y-27.569 Z0.194 I-0.163 J0
X-107.184 Y-27.569 Z0.133 I0.163 J0
X-107.509 Y-27.569 Z0.072 I-0.163 J0
X-107.184 Y-27.569 Z0.011 I0.163 J0
X-107.509 Y-27.569 Z-0.05 I-0.163 J0
X-107.184 Y-27.569 Z-0.111 I0.163 J0
X-107.509 Y-27.569 Z-0.172 I-0.163 J0
X-107.184 Y-27.569 Z-0.233 I0.163 J0
X-107.509 Y-27.569 Z-0.294 I-0.163 J0
X-107.184 Y-27.569 Z-0.356 I0.163 J0
X-107.509 Y-27.569 Z-0.417 I-0.163 J0
X-107.184 Y-27.569 Z-0.478 I0.163 J0
X-107.509 Y-27.569 Z-0.539 I-0.163 J0
X-107.184 Y-27.569 Z-0.6 I0.163 J0
X-107.509 Y-27.569 Z-0.661 I-0.163 J0
X-107.184 Y-27.569 Z-0.722 I0.163 J0
X-107.509 Y-27.569 Z-0.783 I-0.163 J0
X-107.184 Y-27.569 Z-0.844 I0.163 J0
X-107.509 Y-27.569 Z-0.906 I-0.163 J0
X-107.184 Y-27.569 Z-0.967 I0.163 J0
X-107.509 Y-27.569 Z-1.028 I-0.163 J0
X-107.184 Y-27.569 Z-1.089 I0.163 J0
X-107.509 Y-27.569 Z-1.15 I-0.163 J0
X-107.184 Y-27.569 Z-1.211 I0.163 J0
X-107.509 Y-27.569 Z-1.272 I-0.163 J0
X-107.184 Y-27.569 Z-1.333 I0.163 J0
X-107.509 Y-27.569 Z-1.394 I-0.163 J0
X-107.184 Y-27.569 Z-1.456 I0.163 J0
X-107.509 Y-27.569 Z-1.517 I-0.163 J0
X-107.184 Y-27.569 Z-1.578 I0.163 J0
X-107.509 Y-27.569 Z-1.639 I-0.163 J0
X-107.184 Y-27.569 Z-1.7 I0.163 J0
X-107.509 Y-27.569 Z-1.761 I-0.163 J0
X-107.184 Y-27.569 Z-1.822 I0.163 J0
X-107.509 Y-27.569 Z-1.883 I-0.163 J0
X-107.184 Y-27.569 Z-1.944 I0.163 J0
X-107.509 Y-27.569 Z-2.006 I-0.163 J0
X-107.184 Y-27.569 Z-2.067 I0.163 J0
X-107.509 Y-27.569 Z-2.128 I-0.163 J0
X-107.184 Y-27.569 Z-2.189 I0.163 J0
X-107.509 Y-27.569 Z-2.25 I-0.163 J0
X-107.184 Y-27.569 Z-2.311 I0.163 J0
X-107.509 Y-27.569 Z-2.372 I-0.163 J0
X-107.184 Y-27.569 Z-2.433 I0.163 J0
X-107.509 Y-27.569 Z-2.494 I-0.163 J0
X-107.184 Y-27.569 Z-2.556 I0.163 J0
X-107.509 Y-27.569 Z-2.617 I-0.163 J0
X-107.184 Y-27.569 Z-2.678 I0.163 J0
X-107.509 Y-27.569 Z-2.739 I-0.163 J0
X-107.184 Y-27.569 Z-2.8 I0.163 J0
X-107.509 Y-27.569 Z-2.861 I-0.163 J0
X-107.184 Y-27.569 Z-2.922 I0.163 J0
X-107.509 Y-27.569 Z-2.983 I-0.163 J0
X-107.184 Y-27.569 Z-3.044 I0.163 J0
X-107.509 Y-27.569 Z-3.106 I-0.163 J0
X-107.184 Y-27.569 Z-3.167 I0.163 J0
X-107.509 Y-27.569 Z-3.228 I-0.163 J0
X-107.184 Y-27.569 Z-3.289 I0.163 J0
X-107.21 Y-27.481 Z-3.3 I-0.163 J0
X-107.483 Y-27.657 I-0.137 J-0.088
X-107.21 Y-27.481 I0.137 J0.088
G1 X-107.232 Y-27.458
X-107.261 Y-27.446
X-107.293 Y-27.445
X-107.322 Y-27.457
X-107.456 Y-27.543
Z5
X-87.674 Y-13.081
Z2.182
Z0.5
X-87.515
X-87.484 Y-13.075
X-87.458 Y-13.057
X-87.44 Y-13.031
X-87.434 Y-13
G3 X-87.759 Y-13 Z0.439 I-0.163 J0
X-87.434 Y-13 Z0.378 I0.163 J0
X-87.759 Y-13 Z0.317 I-0.163 J0
X-87.434 Y-13 Z0.256 I0.163 J0
X-87.759 Y-13 Z0.194 I-0.163 J0
X-87.434 Y-13 Z0.133 I0.163 J0
X-87.759 Y-13 Z0.072 I-0.163 J0
X-87.434 Y-13 Z0.011 I0.163 J0
X-87.759 Y-13 Z-0.05 I-0.163 J0
X-87.434 Y-13 Z-0.111 I0.163 J0
X-87.759 Y-13 Z-0.172 I-0.163 J0
X-87.434 Y-13 Z-0.233 I0.163 J0
X-87.759 Y-13 Z-0.294 I-0.163 J0
X-87.434 Y-13 Z-0.356 I0.163 J0
X-87.759 Y-13 Z-0.417 I-0.163 J0
X-87.434 Y-13 Z-0.478 I0.163 J0
X-87.759 Y-13 Z-0.539 I-0.163 J0
X-87.434 Y-13 Z-0.6 I0.163 J0
X-87.759 Y-13 Z-0.661 I-0.163 J0
X-87.434 Y-13 Z-0.722 I0.163 J0
X-87.759 Y-13 Z-0.783 I-0.163 J0
X-87.434 Y-13 Z-0.844 I0.163 J0
X-87.759 Y-13 Z-0.906 I-0.163 J0
X-87.434 Y-13 Z-0.967 I0.163 J0
X-87.759 Y-13 Z-1.028 I-0.163 J0
X-87.434 Y-13 Z-1.089 I0.163 J0
X-87.759 Y-13 Z-1.15 I-0.163 J0
X-87.434 Y-13 Z-1.211 I0.163 J0
X-87.759 Y-13 Z-1.272 I-0.163 J0
X-87.434 Y-13 Z-1.333 I0.163 J0
X-87.759 Y-13 Z-1.394 I-0.163 J0
X-87.434 Y-13 Z-1.456 I0.163 J0
X-87.759 Y-13 Z-1.517 I-0.163 J0
X-87.434 Y-13 Z-1.578 I0.163 J0
X-87.759 Y-13 Z-1.639 I-0.163 J0
X-87.434 Y-13 Z-1.7 I0.163 J0
X-87.759 Y-13 Z-1.761 I-0.163 J0
X-87.434 Y-13 Z-1.822 I0.163 J0
X-87.759 Y-13 Z-1.883 I-0.163 J0
X-87.434 Y-13 Z-1.944 I0.163 J0
X-87.759 Y-13 Z-2.006 I-0.163 J0
X-87.434 Y-13 Z-2.067 I0.163 J0
X-87.759 Y-13 Z-2.128 I-0.163 J0
X-87.434 Y-13 Z-2.189 I0.163 J0
X-87.759 Y-13 Z-2.25 I-0.163 J0
X-87.434 Y-13 Z-2.311 I0.163 J0
X-87.759 Y-13 Z-2.372 I-0.163 J0
X-87.434 Y-13 Z-2.433 I0.163 J0
X-87.759 Y-13 Z-2.494 I-0.163 J0
X-87.434 Y-13 Z-2.556 I0.163 J0
X-87.759 Y-13 Z-2.617 I-0.163 J0
X-87.434 Y-13 Z-2.678 I0.163 J0
X-87.759 Y-13 Z-2.739 I-0.163 J0
X-87.434 Y-13 Z-2.8 I0.163 J0
X-87.759 Y-13 Z-2.861 I-0.163 J0
X-87.434 Y-13 Z-2.922 I0.163 J0
X-87.759 Y-13 Z-2.983 I-0.163 J0
X-87.434 Y-13 Z-3.044 I0.163 J0
X-87.759 Y-13 Z-3.106 I-0.163 J0
X-87.434 Y-13 Z-3.167 I0.163 J0
X-87.759 Y-13 Z-3.228 I-0.163 J0
X-87.434 Y-13 Z-3.289 I0.163 J0
X-87.46 Y-12.912 Z-3.3 I-0.163 J0
X-87.733 Y-13.088 I-0.137 J-0.088
X-87.46 Y-12.912 I0.137 J0.088
G1 X-87.482 Y-12.889
X-87.511 Y-12.877
X-87.543 Y-12.876
X-87.572 Y-12.888
X-87.706 Y-12.973
Z5
X-58.881 Y-25.603
Z2.5
Z0.817
G18 G2 X-58.564 Z0.5 I0.317 K0
G1 X-58.405
G17 G3 X-58.088 Y-25.285 I0 J0.318
X-59.912 Y-25.285 Z0.413 I-0.912 J0
X-58.088 Y-25.285 Z0.325 I0.912 J0
X-59.912 Y-25.285 Z0.238 I-0.912 J0
X-58.088 Y-25.285 Z0.151 I0.912 J0
X-59.912 Y-25.285 Z0.063 I-0.912 J0
X-58.088 Y-25.285 Z-0.024 I0.912 J0
X-59.912 Y-25.285 Z-0.111 I-0.912 J0
X-58.088 Y-25.285 Z-0.198 I0.912 J0
X-59.912 Y-25.285 Z-0.286 I-0.912 J0
X-58.088 Y-25.285 Z-0.373 I0.912 J0
X-59.912 Y-25.285 Z-0.46 I-0.912 J0
X-58.088 Y-25.285 Z-0.548 I0.912 J0
X-59.912 Y-25.285 Z-0.635 I-0.912 J0
X-58.088 Y-25.285 Z-0.722 I0.912 J0
X-59.912 Y-25.285 Z-0.81 I-0.912 J0
X-58.088 Y-25.285 Z-0.897 I0.912 J0
X-59.912 Y-25.285 Z-0.984 I-0.912 J0
X-58.088 Y-25.285 Z-1.071 I0.912 J0
X-59.912 Y-25.285 Z-1.159 I-0.912 J0
X-58.088 Y-25.285 Z-1.246 I0.912 J0
X-59.912 Y-25.285 Z-1.333 I-0.912 J0
X-58.088 Y-25.285 Z-1.421 I0.912 J0
X-59.912 Y-25.285 Z-1.508 I-0.912 J0
X-58.088 Y-25.285 Z-1.595 I0.912 J0
X-59.912 Y-25.285 Z-1.683 I-0.912 J0
X-58.088 Y-25.285 Z-1.77 I0.912 J0
X-59.912 Y-25.285 Z-1.857 I-0.912 J0
X-58.088 Y-25.285 Z-1.944 I0.912 J0
X-59.912 Y-25.285 Z-2.032 I-0.912 J0
X-58.088 Y-25.285 Z-2.119 I0.912 J0
X-59.912 Y-25.285 Z-2.206 I-0.912 J0
X-58.088 Y-25.285 Z-2.294 I0.912 J0
X-59.912 Y-25.285 Z-2.381 I-0.912 J0
X-58.088 Y-25.285 Z-2.468 I0.912 J0
X-59.912 Y-25.285 Z-2.556 I-0.912 J0
X-58.088 Y-25.285 Z-2.643 I0.912 J0
X-59.912 Y-25.285 Z-2.73 I-0.912 J0
X-58.088 Y-25.285 Z-2.817 I0.912 J0
X-59.912 Y-25.285 Z-2.905 I-0.912 J0
X-58.088 Y-25.285 Z-2.992 I0.912 J0
X-59.912 Y-25.285 Z-3.079 I-0.912 J0
X-58.088 Y-25.285 Z-3.167 I0.912 J0
X-59.912 Y-25.285 Z-3.254 I-0.912 J0
X-58.922 Y-26.195 Z-3.3 I0.912 J0
X-59.078 Y-24.376 I-0.078 J0.909
X-58.922 Y-26.195 I0.078 J-0.909
X-58.633 Y-25.851 I-0.027 J0.316
G1 X-58.647 Y-25.693
X-58.653 Y-25.623 Z-3.292
X-58.658 Y-25.556 Z-3.269
X-58.663 Y-25.496 Z-3.231
X-58.668 Y-25.446 Z-3.18
X-58.671 Y-25.408 Z-3.12
X-58.673 Y-25.385 Z-3.053
X-58.674 Y-25.377 Z-2.983
Z5
X-36.881 Y-25.603
Z2.5
Z0.817
G18 G2 X-36.564 Z0.5 I0.317 K0
G1 X-36.405
G17 G3 X-36.088 Y-25.285 I0 J0.318
X-37.912 Y-25.285 Z0.413 I-0.912 J0
X-36.088 Y-25.285 Z0.325 I0.912 J0
X-37.912 Y-25.285 Z0.238 I-0.912 J0
X-36.088 Y-25.285 Z0.151 I0.912 J0
X-37.912 Y-25.285 Z0.063 I-0.912 J0
X-36.088 Y-25.285 Z-0.024 I0.912 J0
X-37.912 Y-25.285 Z-0.111 I-0.912 J0
X-36.088 Y-25.285 Z-0.198 I0.912 J0
X-37.912 Y-25.285 Z-0.286 I-0.912 J0
X-36.088 Y-25.285 Z-0.373 I0.912 J0
X-37.912 Y-25.285 Z-0.46 I-0.912 J0
X-36.088 Y-25.285 Z-0.548 I0.912 J0
X-37.912 Y-25.285 Z-0.635 I-0.912 J0
X-36.088 Y-25.285 Z-0.722 I0.912 J0
X-37.912 Y-25.285 Z-0.81 I-0.912 J0
X-36.088 Y-25.285 Z-0.897 I0.912 J0
X-37.912 Y-25.285 Z-0.984 I-0.912 J0
X-36.088 Y-25.285 Z-1.071 I0.912 J0
X-37.912 Y-25.285 Z-1.159 I-0.912 J0
X-36.088 Y-25.285 Z-1.246 I0.912 J0
X-37.912 Y-25.285 Z-1.333 I-0.912 J0
X-36.088 Y-25.285 Z-1.421 I0.912 J0
X-37.912 Y-25.285 Z-1.508 I-0.912 J0
X-36.088 Y-25.285 Z-1.595 I0.912 J0
X-37.912 Y-25.285 Z-1.683 I-0.912 J0
X-36.088 Y-25.285 Z-1.77 I0.912 J0
X-37.912 Y-25.285 Z-1.857 I-0.912 J0
X-36.088 Y-25.285 Z-1.944 I0.912 J0
X-37.912 Y-25.285 Z-2.032 I-0.912 J0
X-36.088 Y-25.285 Z-2.119 I0.912 J0
X-37.912 Y-25.285 Z-2.206 I-0.912 J0
X-36.088 Y-25.285 Z-2.294 I0.912 J0
X-37.912 Y-25.285 Z-2.381 I-0.912 J0
X-36.088 Y-25.285 Z-2.468 I0.912 J0
X-37.912 Y-25.285 Z-2.556 I-0.912 J0
X-36.088 Y-25.285 Z-2.643 I0.912 J0
X-37.912 Y-25.285 Z-2.73 I-0.912 J0
X-36.088 Y-25.285 Z-2.817 I0.912 J0
X-37.912 Y-25.285 Z-2.905 I-0.912 J0
X-36.088 Y-25.285 Z-2.992 I0.912 J0
X-37.912 Y-25.285 Z-3.079 I-0.912 J0
X-36.088 Y-25.285 Z-3.167 I0.912 J0
X-37.912 Y-25.285 Z-3.254 I-0.912 J0
X-36.922 Y-26.195 Z-3.3 I0.912 J0
X-37.078 Y-24.376 I-0.078 J0.909
X-36.922 Y-26.195 I0.078 J-0.909
X-36.633 Y-25.851 I-0.027 J0.316
G1 X-36.647 Y-25.693
X-36.653 Y-25.623 Z-3.292
X-36.658 Y-25.556 Z-3.269
X-36.663 Y-25.496 Z-3.231
X-36.668 Y-25.446 Z-3.18
X-36.671 Y-25.408 Z-3.12
X-36.673 Y-25.385 Z-3.053
X-36.674 Y-25.377 Z-2.983
Z5
X-13.078 Y-49.048
Z2.182
Z0.5
X-12.919
X-12.888 Y-49.041
X-12.861 Y-49.024
X-12.844 Y-48.997
X-12.837 Y-48.966
G3 X-13.163 Y-48.966 Z0.439 I-0.163 J0
X-12.837 Y-48.966 Z0.378 I0.163 J0
X-13.163 Y-48.966 Z0.317 I-0.163 J0
X-12.837 Y-48.966 Z0.256 I0.163 J0
X-13.163 Y-48.966 Z0.194 I-0.163 J0
X-12.837 Y-48.966 Z0.133 I0.163 J0
X-13.163 Y-48.966 Z0.072 I-0.163 J0
X-12.837 Y-48.966 Z0.011 I0.163 J0
X-13.163 Y-48.966 Z-0.05 I-0.163 J0
X-12.837 Y-48.966 Z-0.111 I0.163 J0
X-13.163 Y-48.966 Z-0.172 I-0.163 J0
X-12.837 Y-48.966 Z-0.233 I0.163 J0
X-13.163 Y-48.966 Z-0.294 I-0.163 J0
X-12.837 Y-48.966 Z-0.356 I0.163 J0
X-13.163 Y-48.966 Z-0.417 I-0.163 J0
X-12.837 Y-48.966 Z-0.478 I0.163 J0
X-13.163 Y-48.966 Z-0.539 I-0.163 J0
X-12.837 Y-48.966 Z-0.6 I0.163 J0
X-13.163 Y-48.966 Z-0.661 I-0.163 J0
X-12.837 Y-48.966 Z-0.722 I0.163 J0
X-13.163 Y-48.966 Z-0.783 I-0.163 J0
X-12.837 Y-48.966 Z-0.844 I0.163 J0
X-13.163 Y-48.966 Z-0.906 I-0.163 J0
X-12.837 Y-48.966 Z-0.967 I0.163 J0
X-13.163 Y-48.966 Z-1.028 I-0.163 J0
X-12.838 Y-48.966 Z-1.089 I0.163 J0
X-13.162 Y-48.966 Z-1.15 I-0.162 J0
X-12.838 Y-48.966 Z-1.211 I0.162 J0
X-13.162 Y-48.966 Z-1.272 I-0.162 J0
X-12.838 Y-48.966 Z-1.333 I0.162 J0
X-13.162 Y-48.966 Z-1.394 I-0.162 J0
X-12.838 Y-48.966 Z-1.456 I0.162 J0
X-13.162 Y-48.966 Z-1.517 I-0.162 J0
X-12.838 Y-48.966 Z-1.578 I0.162 J0
X-13.162 Y-48.966 Z-1.639 I-0.162 J0
X-12.838 Y-48.966 Z-1.7 I0.162 J0
X-13.162 Y-48.966 Z-1.761 I-0.162 J0
X-12.838 Y-48.966 Z-1.822 I0.162 J0
X-13.162 Y-48.966 Z-1.883 I-0.162 J0
X-12.838 Y-48.966 Z-1.944 I0.162 J0
X-13.162 Y-48.966 Z-2.006 I-0.162 J0
X-12.838 Y-48.966 Z-2.067 I0.162 J0
X-13.162 Y-48.966 Z-2.128 I-0.162 J0
X-12.838 Y-48.966 Z-2.189 I0.162 J0
X-13.162 Y-48.966 Z-2.25 I-0.162 J0
X-12.838 Y-48.966 Z-2.311 I0.162 J0
X-13.162 Y-48.966 Z-2.372 I-0.162 J0
X-12.838 Y-48.966 Z-2.433 I0.162 J0
X-13.162 Y-48.966 Z-2.494 I-0.162 J0
X-12.838 Y-48.966 Z-2.556 I0.162 J0
X-13.162 Y-48.966 Z-2.617 I-0.162 J0
X-12.838 Y-48.966 Z-2.678 I0.162 J0
X-13.162 Y-48.966 Z-2.739 I-0.162 J0
X-12.838 Y-48.966 Z-2.8 I0.162 J0
X-13.162 Y-48.966 Z-2.861 I-0.162 J0
X-12.838 Y-48.966 Z-2.922 I0.162 J0
X-13.162 Y-48.966 Z-2.983 I-0.162 J0
X-12.838 Y-48.966 Z-3.044 I0.162 J0
X-13.162 Y-48.966 Z-3.106 I-0.162 J0
X-12.838 Y-48.966 Z-3.167 I0.162 J0
X-13.162 Y-48.966 Z-3.228 I-0.162 J0
X-12.838 Y-48.966 Z-3.289 I0.162 J0
X-12.863 Y-48.878 Z-3.3 I-0.162 J0
X-13.137 Y-49.054 I-0.137 J-0.088
X-12.863 Y-48.878 I0.137 J0.088
G1 X-12.885 Y-48.856
X-12.914 Y-48.843
X-12.946 Y-48.842
X-12.975 Y-48.854
X-13.109 Y-48.94
Z5
X-32.827 Y-63.617
Z2.182
Z0.5
X-32.669
X-32.638 Y-63.61
X-32.611 Y-63.593
X-32.594 Y-63.566
X-32.588 Y-63.535
G3 X-32.912 Y-63.535 Z0.439 I-0.162 J0
X-32.588 Y-63.535 Z0.378 I0.162 J0
X-32.912 Y-63.535 Z0.317 I-0.162 J0
X-32.588 Y-63.535 Z0.256 I0.162 J0
X-32.912 Y-63.535 Z0.194 I-0.162 J0
X-32.588 Y-63.535 Z0.133 I0.162 J0
X-32.912 Y-63.535 Z0.072 I-0.162 J0
X-32.588 Y-63.535 Z0.011 I0.162 J0
X-32.912 Y-63.535 Z-0.05 I-0.162 J0
X-32.588 Y-63.535 Z-0.111 I0.162 J0
X-32.912 Y-63.535 Z-0.172 I-0.162 J0
X-32.588 Y-63.535 Z-0.233 I0.162 J0
X-32.912 Y-63.535 Z-0.294 I-0.162 J0
X-32.588 Y-63.535 Z-0.356 I0.162 J0
X-32.912 Y-63.535 Z-0.417 I-0.162 J0
X-32.588 Y-63.535 Z-0.478 I0.162 J0
X-32.912 Y-63.535 Z-0.539 I-0.162 J0
X-32.588 Y-63.535 Z-0.6 I0.162 J0
X-32.912 Y-63.535 Z-0.661 I-0.162 J0
X-32.588 Y-63.535 Z-0.722 I0.162 J0
X-32.912 Y-63.535 Z-0.783 I-0.162 J0
X-32.588 Y-63.535 Z-0.844 I0.162 J0
X-32.912 Y-63.535 Z-0.906 I-0.162 J0
X-32.588 Y-63.535 Z-0.967 I0.162 J0
X-32.912 Y-63.535 Z-1.028 I-0.162 J0
X-32.588 Y-63.535 Z-1.089 I0.162 J0
X-32.912 Y-63.535 Z-1.15 I-0.162 J0
X-32.588 Y-63.535 Z-1.211 I0.162 J0
X-32.912 Y-63.535 Z-1.272 I-0.162 J0
X-32.588 Y-63.535 Z-1.333 I0.162 J0
X-32.912 Y-63.535 Z-1.394 I-0.162 J0
X-32.588 Y-63.535 Z-1.456 I0.162 J0
X-32.912 Y-63.535 Z-1.517 I-0.162 J0
X-32.588 Y-63.535 Z-1.578 I0.162 J0
X-32.912 Y-63.535 Z-1.639 I-0.162 J0
X-32.588 Y-63.535 Z-1.7 I0.162 J0
X-32.912 Y-63.535 Z-1.761 I-0.162 J0
X-32.588 Y-63.535 Z-1.822 I0.162 J0
X-32.912 Y-63.535 Z-1.883 I-0.162 J0
X-32.588 Y-63.535 Z-1.944 I0.162 J0
X-32.912 Y-63.535 Z-2.006 I-0.162 J0
X-32.588 Y-63.535 Z-2.067 I0.162 J0
X-32.912 Y-63.535 Z-2.128 I-0.162 J0
X-32.588 Y-63.535 Z-2.189 I0.162 J0
X-32.912 Y-63.535 Z-2.25 I-0.162 J0
X-32.588 Y-63.535 Z-2.311 I0.162 J0
X-32.912 Y-63.535 Z-2.372 I-0.162 J0
X-32.588 Y-63.535 Z-2.433 I0.162 J0
X-32.912 Y-63.535 Z-2.494 I-0.162 J0
X-32.588 Y-63.535 Z-2.556 I0.162 J0
X-32.912 Y-63.535 Z-2.617 I-0.162 J0
X-32.588 Y-63.535 Z-2.678 I0.162 J0
X-32.912 Y-63.535 Z-2.739 I-0.162 J0
X-32.588 Y-63.535 Z-2.8 I0.162 J0
X-32.912 Y-63.535 Z-2.861 I-0.162 J0
X-32.588 Y-63.535 Z-2.922 I0.162 J0
X-32.912 Y-63.535 Z-2.983 I-0.162 J0
X-32.588 Y-63.535 Z-3.044 I0.162 J0
X-32.912 Y-63.535 Z-3.106 I-0.162 J0
X-32.588 Y-63.535 Z-3.167 I0.162 J0
X-32.912 Y-63.535 Z-3.228 I-0.162 J0
X-32.588 Y-63.535 Z-3.289 I0.162 J0
X-32.613 Y-63.448 Z-3.3 I-0.162 J0
X-32.887 Y-63.623 I-0.137 J-0.088
X-32.613 Y-63.448 I0.137 J0.088
G1 X-32.635 Y-63.425
X-32.664 Y-63.412
X-32.696 Y-63.411
X-32.725 Y-63.423
X-32.859 Y-63.509
Z5
X-42.881 Y-79.103
Z2.5
Z0.817
G18 G2 X-42.564 Z0.5 I0.317 K0
G1 X-42.405
G17 G3 X-42.088 Y-78.785 I0 J0.317
X-53.912 Y-78.785 Z0.238 I-5.912 J0
X-42.088 Y-78.785 Z-0.024 I5.912 J0
X-53.913 Y-78.785 Z-0.286 I-5.912 J0
X-42.087 Y-78.785 Z-0.548 I5.913 J0
X-53.913 Y-78.785 Z-0.81 I-5.913 J0
X-42.087 Y-78.785 Z-1.071 I5.913 J0
X-53.913 Y-78.785 Z-1.333 I-5.913 J0
X-42.087 Y-78.785 Z-1.595 I5.913 J0
X-53.913 Y-78.785 Z-1.857 I-5.913 J0
X-42.087 Y-78.785 Z-2.119 I5.913 J0
X-53.913 Y-78.785 Z-2.381 I-5.913 J0
X-42.087 Y-78.785 Z-2.643 I5.913 J0
X-53.913 Y-78.785 Z-2.905 I-5.913 J0
X-42.087 Y-78.785 Z-3.167 I5.913 J0
X-48.168 Y-72.875 Z-3.3 I-5.913 J0
X-47.832 Y-84.695 I0.168 J-5.91
X-48.168 Y-72.875 I-0.168 J5.91
X-48.476 Y-73.202 I0.009 J-0.317
G1 X-48.472 Y-73.36
X-48.47 Y-73.431 Z-3.292
X-48.468 Y-73.498 Z-3.269
X-48.466 Y-73.558 Z-3.231
X-48.465 Y-73.608 Z-3.18
X-48.464 Y-73.646 Z-3.12
X-48.463 Y-73.67 Z-3.053
Y-73.678 Z-2.983
Z5
X-63.327 Y-63.617
Z2.182
Z0.5
X-63.169
X-63.138 Y-63.61
X-63.111 Y-63.593
X-63.094 Y-63.566
X-63.088 Y-63.535
G3 X-63.412 Y-63.535 Z0.439 I-0.162 J0
X-63.088 Y-63.535 Z0.378 I0.162 J0
X-63.412 Y-63.535 Z0.317 I-0.162 J0
X-63.088 Y-63.535 Z0.256 I0.162 J0
X-63.412 Y-63.535 Z0.194 I-0.162 J0
X-63.088 Y-63.535 Z0.133 I0.162 J0
X-63.412 Y-63.535 Z0.072 I-0.162 J0
X-63.088 Y-63.535 Z0.011 I0.162 J0
X-63.412 Y-63.535 Z-0.05 I-0.162 J0
X-63.088 Y-63.535 Z-0.111 I0.162 J0
X-63.412 Y-63.535 Z-0.172 I-0.162 J0
X-63.088 Y-63.535 Z-0.233 I0.162 J0
X-63.412 Y-63.535 Z-0.294 I-0.162 J0
X-63.088 Y-63.535 Z-0.356 I0.162 J0
X-63.412 Y-63.535 Z-0.417 I-0.162 J0
X-63.088 Y-63.535 Z-0.478 I0.162 J0
X-63.412 Y-63.535 Z-0.539 I-0.162 J0
X-63.088 Y-63.535 Z-0.6 I0.162 J0
X-63.412 Y-63.535 Z-0.661 I-0.162 J0
X-63.088 Y-63.535 Z-0.722 I0.162 J0
X-63.412 Y-63.535 Z-0.783 I-0.162 J0
X-63.088 Y-63.535 Z-0.844 I0.162 J0
X-63.412 Y-63.535 Z-0.906 I-0.162 J0
X-63.088 Y-63.535 Z-0.967 I0.162 J0
X-63.412 Y-63.535 Z-1.028 I-0.162 J0
X-63.088 Y-63.535 Z-1.089 I0.162 J0
X-63.412 Y-63.535 Z-1.15 I-0.162 J0
X-63.088 Y-63.535 Z-1.211 I0.162 J0
X-63.412 Y-63.535 Z-1.272 I-0.162 J0
X-63.088 Y-63.535 Z-1.333 I0.162 J0
X-63.412 Y-63.535 Z-1.394 I-0.162 J0
X-63.088 Y-63.535 Z-1.456 I0.162 J0
X-63.412 Y-63.535 Z-1.517 I-0.162 J0
X-63.088 Y-63.535 Z-1.578 I0.162 J0
X-63.412 Y-63.535 Z-1.639 I-0.162 J0
X-63.088 Y-63.535 Z-1.7 I0.162 J0
X-63.412 Y-63.535 Z-1.761 I-0.162 J0
X-63.088 Y-63.535 Z-1.822 I0.162 J0
X-63.412 Y-63.535 Z-1.883 I-0.162 J0
X-63.088 Y-63.535 Z-1.944 I0.162 J0
X-63.412 Y-63.535 Z-2.006 I-0.162 J0
X-63.088 Y-63.535 Z-2.067 I0.162 J0
X-63.412 Y-63.535 Z-2.128 I-0.162 J0
X-63.088 Y-63.535 Z-2.189 I0.162 J0
X-63.412 Y-63.535 Z-2.25 I-0.162 J0
X-63.088 Y-63.535 Z-2.311 I0.162 J0
X-63.412 Y-63.535 Z-2.372 I-0.162 J0
X-63.088 Y-63.535 Z-2.433 I0.162 J0
X-63.412 Y-63.535 Z-2.494 I-0.162 J0
X-63.088 Y-63.535 Z-2.556 I0.162 J0
X-63.412 Y-63.535 Z-2.617 I-0.162 J0
X-63.088 Y-63.535 Z-2.678 I0.162 J0
X-63.412 Y-63.535 Z-2.739 I-0.162 J0
X-63.088 Y-63.535 Z-2.8 I0.162 J0
X-63.412 Y-63.535 Z-2.861 I-0.162 J0
X-63.088 Y-63.535 Z-2.922 I0.162 J0
X-63.412 Y-63.535 Z-2.983 I-0.162 J0
X-63.088 Y-63.535 Z-3.044 I0.162 J0
X-63.412 Y-63.535 Z-3.106 I-0.162 J0
X-63.088 Y-63.535 Z-3.167 I0.162 J0
X-63.412 Y-63.535 Z-3.228 I-0.162 J0
X-63.088 Y-63.535 Z-3.289 I0.162 J0
X-63.113 Y-63.448 Z-3.3 I-0.162 J0
X-63.387 Y-63.623 I-0.137 J-0.088
X-63.113 Y-63.448 I0.137 J0.088
G1 X-63.135 Y-63.425
X-63.164 Y-63.412
X-63.196 Y-63.411
X-63.225 Y-63.423
X-63.359 Y-63.509
Z5
X-83.077 Y-49.048
Z2.182
Z0.5
X-82.919
X-82.888 Y-49.041
X-82.861 Y-49.024
X-82.844 Y-48.997
X-82.838 Y-48.966
G3 X-83.162 Y-48.966 Z0.439 I-0.162 J0
X-82.838 Y-48.966 Z0.378 I0.162 J0
X-83.162 Y-48.966 Z0.317 I-0.162 J0
X-82.838 Y-48.966 Z0.256 I0.162 J0
X-83.162 Y-48.966 Z0.194 I-0.162 J0
X-82.838 Y-48.966 Z0.133 I0.162 J0
X-83.162 Y-48.966 Z0.072 I-0.162 J0
X-82.838 Y-48.966 Z0.011 I0.162 J0
X-83.162 Y-48.966 Z-0.05 I-0.162 J0
X-82.838 Y-48.966 Z-0.111 I0.162 J0
X-83.162 Y-48.966 Z-0.172 I-0.162 J0
X-82.838 Y-48.966 Z-0.233 I0.162 J0
X-83.162 Y-48.966 Z-0.294 I-0.162 J0
X-82.838 Y-48.966 Z-0.356 I0.162 J0
X-83.162 Y-48.966 Z-0.417 I-0.162 J0
X-82.838 Y-48.966 Z-0.478 I0.162 J0
X-83.162 Y-48.966 Z-0.539 I-0.162 J0
X-82.838 Y-48.966 Z-0.6 I0.162 J0
X-83.162 Y-48.966 Z-0.661 I-0.162 J0
X-82.838 Y-48.966 Z-0.722 I0.162 J0
X-83.162 Y-48.966 Z-0.783 I-0.162 J0
X-82.838 Y-48.966 Z-0.844 I0.162 J0
X-83.162 Y-48.966 Z-0.906 I-0.162 J0
X-82.838 Y-48.966 Z-0.967 I0.162 J0
X-83.162 Y-48.966 Z-1.028 I-0.162 J0
X-82.838 Y-48.966 Z-1.089 I0.162 J0
X-83.162 Y-48.966 Z-1.15 I-0.162 J0
X-82.838 Y-48.966 Z-1.211 I0.162 J0
X-83.162 Y-48.966 Z-1.272 I-0.162 J0
X-82.838 Y-48.966 Z-1.333 I0.162 J0
X-83.162 Y-48.966 Z-1.394 I-0.162 J0
X-82.838 Y-48.966 Z-1.456 I0.162 J0
X-83.162 Y-48.966 Z-1.517 I-0.162 J0
X-82.838 Y-48.966 Z-1.578 I0.162 J0
X-83.162 Y-48.966 Z-1.639 I-0.162 J0
X-82.838 Y-48.966 Z-1.7 I0.162 J0
X-83.163 Y-48.966 Z-1.761 I-0.162 J0
X-82.837 Y-48.966 Z-1.822 I0.163 J0
X-83.163 Y-48.966 Z-1.883 I-0.163 J0
X-82.837 Y-48.966 Z-1.944 I0.163 J0
X-83.163 Y-48.966 Z-2.006 I-0.163 J0
X-82.837 Y-48.966 Z-2.067 I0.163 J0
X-83.163 Y-48.966 Z-2.128 I-0.163 J0
X-82.837 Y-48.966 Z-2.189 I0.163 J0
X-83.163 Y-48.966 Z-2.25 I-0.163 J0
X-82.837 Y-48.966 Z-2.311 I0.163 J0
X-83.163 Y-48.966 Z-2.372 I-0.163 J0
X-82.837 Y-48.966 Z-2.433 I0.163 J0
X-83.163 Y-48.966 Z-2.494 I-0.163 J0
X-82.837 Y-48.966 Z-2.556 I0.163 J0
X-83.163 Y-48.966 Z-2.617 I-0.163 J0
X-82.837 Y-48.966 Z-2.678 I0.163 J0
X-83.163 Y-48.966 Z-2.739 I-0.163 J0
X-82.837 Y-48.966 Z-2.8 I0.163 J0
X-83.163 Y-48.966 Z-2.861 I-0.163 J0
X-82.837 Y-48.966 Z-2.922 I0.163 J0
X-83.163 Y-48.966 Z-2.983 I-0.163 J0
X-82.837 Y-48.966 Z-3.044 I0.163 J0
X-83.163 Y-48.966 Z-3.106 I-0.163 J0
X-82.837 Y-48.966 Z-3.167 I0.163 J0
X-83.163 Y-48.966 Z-3.228 I-0.163 J0
X-82.837 Y-48.966 Z-3.289 I0.163 J0
X-82.863 Y-48.878 Z-3.3 I-0.163 J0
X-83.137 Y-49.054 I-0.137 J-0.088
X-82.863 Y-48.878 I0.137 J0.088
G1 X-82.885 Y-48.856
X-82.914 Y-48.843
X-82.946 Y-48.842
X-82.975 Y-48.854
X-83.109 Y-48.94
Z5
X-107.424 Y-58.15
Z2.182
Z0.5
X-107.265
X-107.234 Y-58.144
X-107.208 Y-58.127
X-107.19 Y-58.1
X-107.184 Y-58.069
G3 X-107.509 Y-58.069 Z0.439 I-0.163 J0
X-107.184 Y-58.069 Z0.378 I0.163 J0
X-107.509 Y-58.069 Z0.317 I-0.163 J0
X-107.184 Y-58.069 Z0.256 I0.163 J0
X-107.509 Y-58.069 Z0.194 I-0.163 J0
X-107.184 Y-58.069 Z0.133 I0.163 J0
X-107.509 Y-58.069 Z0.072 I-0.163 J0
X-107.184 Y-58.069 Z0.011 I0.163 J0
X-107.509 Y-58.069 Z-0.05 I-0.163 J0
X-107.184 Y-58.069 Z-0.111 I0.163 J0
X-107.509 Y-58.069 Z-0.172 I-0.163 J0
X-107.184 Y-58.069 Z-0.233 I0.163 J0
X-107.509 Y-58.069 Z-0.294 I-0.163 J0
X-107.184 Y-58.069 Z-0.356 I0.163 J0
X-107.509 Y-58.069 Z-0.417 I-0.163 J0
X-107.184 Y-58.069 Z-0.478 I0.163 J0
X-107.509 Y-58.069 Z-0.539 I-0.163 J0
X-107.184 Y-58.069 Z-0.6 I0.163 J0
X-107.509 Y-58.069 Z-0.661 I-0.163 J0
X-107.184 Y-58.069 Z-0.722 I0.163 J0
X-107.509 Y-58.069 Z-0.783 I-0.163 J0
X-107.184 Y-58.069 Z-0.844 I0.163 J0
X-107.509 Y-58.069 Z-0.906 I-0.163 J0
X-107.184 Y-58.069 Z-0.967 I0.163 J0
X-107.509 Y-58.069 Z-1.028 I-0.163 J0
X-107.184 Y-58.069 Z-1.089 I0.163 J0
X-107.509 Y-58.069 Z-1.15 I-0.163 J0
X-107.184 Y-58.069 Z-1.211 I0.163 J0
X-107.509 Y-58.069 Z-1.272 I-0.163 J0
X-107.184 Y-58.069 Z-1.333 I0.163 J0
X-107.509 Y-58.069 Z-1.394 I-0.163 J0
X-107.184 Y-58.069 Z-1.456 I0.163 J0
X-107.509 Y-58.069 Z-1.517 I-0.163 J0
X-107.184 Y-58.069 Z-1.578 I0.163 J0
X-107.509 Y-58.069 Z-1.639 I-0.163 J0
X-107.184 Y-58.069 Z-1.7 I0.163 J0
X-107.509 Y-58.069 Z-1.761 I-0.163 J0
X-107.184 Y-58.069 Z-1.822 I0.163 J0
X-107.509 Y-58.069 Z-1.883 I-0.163 J0
X-107.184 Y-58.069 Z-1.944 I0.163 J0
X-107.509 Y-58.069 Z-2.006 I-0.163 J0
X-107.184 Y-58.069 Z-2.067 I0.163 J0
X-107.509 Y-58.069 Z-2.128 I-0.163 J0
X-107.184 Y-58.069 Z-2.189 I0.163 J0
X-107.509 Y-58.069 Z-2.25 I-0.163 J0
X-107.184 Y-58.069 Z-2.311 I0.163 J0
X-107.509 Y-58.069 Z-2.372 I-0.163 J0
X-107.184 Y-58.069 Z-2.433 I0.163 J0
X-107.509 Y-58.069 Z-2.494 I-0.163 J0
X-107.184 Y-58.069 Z-2.556 I0.163 J0
X-107.509 Y-58.069 Z-2.617 I-0.163 J0
X-107.184 Y-58.069 Z-2.678 I0.163 J0
X-107.509 Y-58.069 Z-2.739 I-0.163 J0
X-107.184 Y-58.069 Z-2.8 I0.163 J0
X-107.509 Y-58.069 Z-2.861 I-0.163 J0
X-107.184 Y-58.069 Z-2.922 I0.163 J0
X-107.509 Y-58.069 Z-2.983 I-0.163 J0
X-107.184 Y-58.069 Z-3.044 I0.163 J0
X-107.509 Y-58.069 Z-3.106 I-0.163 J0
X-107.184 Y-58.069 Z-3.167 I0.163 J0
X-107.509 Y-58.069 Z-3.228 I-0.163 J0
X-107.184 Y-58.069 Z-3.289 I0.163 J0
X-107.21 Y-57.981 Z-3.3 I-0.163 J0
X-107.483 Y-58.157 I-0.137 J-0.088
X-107.21 Y-57.981 I0.137 J0.088
G1 X-107.232 Y-57.958
X-107.261 Y-57.946
X-107.293 Y-57.945
X-107.322 Y-57.957
X-107.456 Y-58.043
Z5
X-87.674 Y-72.719
Z2.182
Z0.5
X-87.515
X-87.484 Y-72.713
X-87.458 Y-72.696
X-87.44 Y-72.669
X-87.434 Y-72.638
G3 X-87.759 Y-72.638 Z0.439 I-0.163 J0
X-87.434 Y-72.638 Z0.378 I0.163 J0
X-87.759 Y-72.638 Z0.317 I-0.163 J0
X-87.434 Y-72.638 Z0.256 I0.163 J0
X-87.759 Y-72.638 Z0.194 I-0.163 J0
X-87.434 Y-72.638 Z0.133 I0.163 J0
X-87.759 Y-72.638 Z0.072 I-0.163 J0
X-87.434 Y-72.638 Z0.011 I0.163 J0
X-87.759 Y-72.638 Z-0.05 I-0.163 J0
X-87.434 Y-72.638 Z-0.111 I0.163 J0
X-87.759 Y-72.638 Z-0.172 I-0.163 J0
X-87.434 Y-72.638 Z-0.233 I0.163 J0
X-87.759 Y-72.638 Z-0.294 I-0.163 J0
X-87.434 Y-72.638 Z-0.356 I0.163 J0
X-87.759 Y-72.638 Z-0.417 I-0.163 J0
X-87.434 Y-72.638 Z-0.478 I0.163 J0
X-87.759 Y-72.638 Z-0.539 I-0.163 J0
X-87.434 Y-72.638 Z-0.6 I0.163 J0
X-87.759 Y-72.638 Z-0.661 I-0.163 J0
X-87.434 Y-72.638 Z-0.722 I0.163 J0
X-87.759 Y-72.638 Z-0.783 I-0.163 J0
X-87.434 Y-72.638 Z-0.844 I0.163 J0
X-87.759 Y-72.638 Z-0.906 I-0.163 J0
X-87.434 Y-72.638 Z-0.967 I0.163 J0
X-87.759 Y-72.638 Z-1.028 I-0.163 J0
X-87.434 Y-72.638 Z-1.089 I0.163 J0
X-87.759 Y-72.638 Z-1.15 I-0.163 J0
X-87.434 Y-72.638 Z-1.211 I0.163 J0
X-87.759 Y-72.638 Z-1.272 I-0.163 J0
X-87.434 Y-72.638 Z-1.333 I0.163 J0
X-87.759 Y-72.638 Z-1.394 I-0.163 J0
X-87.434 Y-72.638 Z-1.456 I0.163 J0
X-87.759 Y-72.638 Z-1.517 I-0.163 J0
X-87.434 Y-72.638 Z-1.578 I0.163 J0
X-87.759 Y-72.638 Z-1.639 I-0.163 J0
X-87.434 Y-72.638 Z-1.7 I0.163 J0
X-87.759 Y-72.638 Z-1.761 I-0.163 J0
X-87.434 Y-72.638 Z-1.822 I0.163 J0
X-87.759 Y-72.638 Z-1.883 I-0.163 J0
X-87.434 Y-72.638 Z-1.944 I0.163 J0
X-87.759 Y-72.638 Z-2.006 I-0.163 J0
X-87.434 Y-72.638 Z-2.067 I0.163 J0
X-87.759 Y-72.638 Z-2.128 I-0.163 J0
X-87.434 Y-72.638 Z-2.189 I0.163 J0
X-87.759 Y-72.638 Z-2.25 I-0.163 J0
X-87.434 Y-72.638 Z-2.311 I0.163 J0
X-87.759 Y-72.638 Z-2.372 I-0.163 J0
X-87.434 Y-72.638 Z-2.433 I0.163 J0
X-87.759 Y-72.638 Z-2.494 I-0.163 J0
X-87.434 Y-72.638 Z-2.556 I0.163 J0
X-87.759 Y-72.638 Z-2.617 I-0.163 J0
X-87.434 Y-72.638 Z-2.678 I0.163 J0
X-87.759 Y-72.638 Z-2.739 I-0.163 J0
X-87.434 Y-72.638 Z-2.8 I0.163 J0
X-87.759 Y-72.638 Z-2.861 I-0.163 J0
X-87.434 Y-72.638 Z-2.922 I0.163 J0
X-87.759 Y-72.638 Z-2.983 I-0.163 J0
X-87.434 Y-72.638 Z-3.044 I0.163 J0
X-87.759 Y-72.638 Z-3.106 I-0.163 J0
X-87.434 Y-72.638 Z-3.167 I0.163 J0
X-87.759 Y-72.638 Z-3.228 I-0.163 J0
X-87.434 Y-72.638 Z-3.289 I0.163 J0
X-87.46 Y-72.55 Z-3.3 I-0.163 J0
X-87.733 Y-72.726 I-0.137 J-0.088
X-87.46 Y-72.55 I0.137 J0.088
G1 X-87.482 Y-72.528
X-87.511 Y-72.515
X-87.543 Y-72.514
X-87.572 Y-72.526
X-87.706 Y-72.612
Z5
X-83.077 Y-108.686
Z2.182
Z0.5
X-82.919
X-82.888 Y-108.679
X-82.861 Y-108.662
X-82.844 Y-108.635
X-82.838 Y-108.604
G3 X-83.162 Y-108.604 Z0.439 I-0.162 J0
X-82.838 Y-108.604 Z0.378 I0.162 J0
X-83.162 Y-108.604 Z0.317 I-0.162 J0
X-82.838 Y-108.604 Z0.256 I0.162 J0
X-83.162 Y-108.604 Z0.194 I-0.162 J0
X-82.838 Y-108.604 Z0.133 I0.162 J0
X-83.162 Y-108.604 Z0.072 I-0.162 J0
X-82.838 Y-108.604 Z0.011 I0.162 J0
X-83.162 Y-108.604 Z-0.05 I-0.162 J0
X-82.838 Y-108.604 Z-0.111 I0.162 J0
X-83.162 Y-108.604 Z-0.172 I-0.162 J0
X-82.838 Y-108.604 Z-0.233 I0.162 J0
X-83.162 Y-108.604 Z-0.294 I-0.162 J0
X-82.838 Y-108.604 Z-0.356 I0.162 J0
X-83.162 Y-108.604 Z-0.417 I-0.162 J0
X-82.838 Y-108.604 Z-0.478 I0.162 J0
X-83.162 Y-108.604 Z-0.539 I-0.162 J0
X-82.838 Y-108.604 Z-0.6 I0.162 J0
X-83.162 Y-108.604 Z-0.661 I-0.162 J0
X-82.838 Y-108.604 Z-0.722 I0.162 J0
X-83.163 Y-108.604 Z-0.783 I-0.162 J0
X-82.837 Y-108.604 Z-0.844 I0.163 J0
X-83.163 Y-108.604 Z-0.906 I-0.163 J0
X-82.837 Y-108.604 Z-0.967 I0.163 J0
X-83.163 Y-108.604 Z-1.028 I-0.163 J0
X-82.837 Y-108.604 Z-1.089 I0.163 J0
X-83.163 Y-108.604 Z-1.15 I-0.163 J0
X-82.837 Y-108.604 Z-1.211 I0.163 J0
X-83.163 Y-108.604 Z-1.272 I-0.163 J0
X-82.837 Y-108.604 Z-1.333 I0.163 J0
X-83.163 Y-108.604 Z-1.394 I-0.163 J0
X-82.837 Y-108.604 Z-1.456 I0.163 J0
X-83.163 Y-108.604 Z-1.517 I-0.163 J0
X-82.837 Y-108.604 Z-1.578 I0.163 J0
X-83.163 Y-108.604 Z-1.639 I-0.163 J0
X-82.837 Y-108.604 Z-1.7 I0.163 J0
X-83.163 Y-108.604 Z-1.761 I-0.163 J0
X-82.837 Y-108.604 Z-1.822 I0.163 J0
X-83.163 Y-108.604 Z-1.883 I-0.163 J0
X-82.837 Y-108.604 Z-1.944 I0.163 J0
X-83.163 Y-108.604 Z-2.006 I-0.163 J0
X-82.837 Y-108.604 Z-2.067 I0.163 J0
X-83.163 Y-108.604 Z-2.128 I-0.163 J0
X-82.837 Y-108.604 Z-2.189 I0.163 J0
X-83.163 Y-108.604 Z-2.25 I-0.163 J0
X-82.837 Y-108.604 Z-2.311 I0.163 J0
X-83.163 Y-108.604 Z-2.372 I-0.163 J0
X-82.837 Y-108.604 Z-2.433 I0.163 J0
X-83.163 Y-108.604 Z-2.494 I-0.163 J0
X-82.837 Y-108.604 Z-2.556 I0.163 J0
X-83.163 Y-108.604 Z-2.617 I-0.163 J0
X-82.837 Y-108.604 Z-2.678 I0.163 J0
X-83.163 Y-108.604 Z-2.739 I-0.163 J0
X-82.837 Y-108.604 Z-2.8 I0.163 J0
X-83.163 Y-108.604 Z-2.861 I-0.163 J0
X-82.837 Y-108.604 Z-2.922 I0.163 J0
X-83.163 Y-108.604 Z-2.983 I-0.163 J0
X-82.837 Y-108.604 Z-3.044 I0.163 J0
X-83.163 Y-108.604 Z-3.106 I-0.163 J0
X-82.837 Y-108.604 Z-3.167 I0.163 J0
X-83.163 Y-108.604 Z-3.228 I-0.163 J0
X-82.837 Y-108.604 Z-3.289 I0.163 J0
X-82.863 Y-108.517 Z-3.3 I-0.163 J0
X-83.137 Y-108.692 I-0.137 J-0.088
X-82.863 Y-108.517 I0.137 J0.088
G1 X-82.885 Y-108.494
X-82.914 Y-108.481
X-82.946
X-82.975 Y-108.492
X-83.109 Y-108.578
Z5
X-63.327 Y-94.117
Z2.182
Z0.5
X-63.169
X-63.138 Y-94.11
X-63.111 Y-94.093
X-63.094 Y-94.066
X-63.088 Y-94.035
G3 X-63.412 Y-94.035 Z0.439 I-0.162 J0
X-63.088 Y-94.035 Z0.378 I0.162 J0
X-63.412 Y-94.035 Z0.317 I-0.162 J0
X-63.088 Y-94.035 Z0.256 I0.162 J0
X-63.412 Y-94.035 Z0.194 I-0.162 J0
X-63.088 Y-94.035 Z0.133 I0.162 J0
X-63.412 Y-94.035 Z0.072 I-0.162 J0
X-63.088 Y-94.035 Z0.011 I0.162 J0
X-63.412 Y-94.035 Z-0.05 I-0.162 J0
X-63.088 Y-94.035 Z-0.111 I0.162 J0
X-63.412 Y-94.035 Z-0.172 I-0.162 J0
X-63.088 Y-94.035 Z-0.233 I0.162 J0
X-63.412 Y-94.035 Z-0.294 I-0.162 J0
X-63.088 Y-94.035 Z-0.356 I0.162 J0
X-63.412 Y-94.035 Z-0.417 I-0.162 J0
X-63.088 Y-94.035 Z-0.478 I0.162 J0
X-63.412 Y-94.035 Z-0.539 I-0.162 J0
X-63.088 Y-94.035 Z-0.6 I0.162 J0
X-63.412 Y-94.035 Z-0.661 I-0.162 J0
X-63.088 Y-94.035 Z-0.722 I0.162 J0
X-63.412 Y-94.035 Z-0.783 I-0.162 J0
X-63.088 Y-94.035 Z-0.844 I0.162 J0
X-63.412 Y-94.035 Z-0.906 I-0.162 J0
X-63.088 Y-94.035 Z-0.967 I0.162 J0
X-63.412 Y-94.035 Z-1.028 I-0.162 J0
X-63.088 Y-94.035 Z-1.089 I0.162 J0
X-63.412 Y-94.035 Z-1.15 I-0.162 J0
X-63.088 Y-94.035 Z-1.211 I0.162 J0
X-63.412 Y-94.035 Z-1.272 I-0.162 J0
X-63.088 Y-94.035 Z-1.333 I0.162 J0
X-63.412 Y-94.035 Z-1.394 I-0.162 J0
X-63.088 Y-94.035 Z-1.456 I0.162 J0
X-63.412 Y-94.035 Z-1.517 I-0.162 J0
X-63.088 Y-94.035 Z-1.578 I0.162 J0
X-63.412 Y-94.035 Z-1.639 I-0.162 J0
X-63.088 Y-94.035 Z-1.7 I0.162 J0
X-63.412 Y-94.035 Z-1.761 I-0.162 J0
X-63.088 Y-94.035 Z-1.822 I0.162 J0
X-63.412 Y-94.035 Z-1.883 I-0.162 J0
X-63.088 Y-94.035 Z-1.944 I0.162 J0
X-63.412 Y-94.035 Z-2.006 I-0.162 J0
X-63.088 Y-94.035 Z-2.067 I0.162 J0
X-63.412 Y-94.035 Z-2.128 I-0.162 J0
X-63.088 Y-94.035 Z-2.189 I0.162 J0
X-63.412 Y-94.035 Z-2.25 I-0.162 J0
X-63.088 Y-94.035 Z-2.311 I0.162 J0
X-63.412 Y-94.035 Z-2.372 I-0.162 J0
X-63.088 Y-94.035 Z-2.433 I0.162 J0
X-63.412 Y-94.035 Z-2.494 I-0.162 J0
X-63.088 Y-94.035 Z-2.556 I0.162 J0
X-63.412 Y-94.035 Z-2.617 I-0.162 J0
X-63.088 Y-94.035 Z-2.678 I0.162 J0
X-63.412 Y-94.035 Z-2.739 I-0.162 J0
X-63.088 Y-94.035 Z-2.8 I0.162 J0
X-63.412 Y-94.035 Z-2.861 I-0.162 J0
X-63.088 Y-94.035 Z-2.922 I0.162 J0
X-63.412 Y-94.035 Z-2.983 I-0.162 J0
X-63.088 Y-94.035 Z-3.044 I0.162 J0
X-63.412 Y-94.035 Z-3.106 I-0.162 J0
X-63.088 Y-94.035 Z-3.167 I0.162 J0
X-63.412 Y-94.035 Z-3.228 I-0.162 J0
X-63.088 Y-94.035 Z-3.289 I0.162 J0
X-63.113 Y-93.948 Z-3.3 I-0.162 J0
X-63.387 Y-94.123 I-0.137 J-0.088
X-63.113 Y-93.948 I0.137 J0.088
G1 X-63.135 Y-93.925
X-63.164 Y-93.912
X-63.196 Y-93.911
X-63.225 Y-93.923
X-63.359 Y-94.009
Z5
X-32.827 Y-94.117
Z2.182
Z0.5
X-32.669
X-32.638 Y-94.11
X-32.611 Y-94.093
X-32.594 Y-94.066
X-32.588 Y-94.035
G3 X-32.912 Y-94.035 Z0.439 I-0.162 J0
X-32.588 Y-94.035 Z0.378 I0.162 J0
X-32.912 Y-94.035 Z0.317 I-0.162 J0
X-32.588 Y-94.035 Z0.256 I0.162 J0
X-32.912 Y-94.035 Z0.194 I-0.162 J0
X-32.588 Y-94.035 Z0.133 I0.162 J0
X-32.912 Y-94.035 Z0.072 I-0.162 J0
X-32.588 Y-94.035 Z0.011 I0.162 J0
X-32.912 Y-94.035 Z-0.05 I-0.162 J0
X-32.588 Y-94.035 Z-0.111 I0.162 J0
X-32.912 Y-94.035 Z-0.172 I-0.162 J0
X-32.588 Y-94.035 Z-0.233 I0.162 J0
X-32.912 Y-94.035 Z-0.294 I-0.162 J0
X-32.588 Y-94.035 Z-0.356 I0.162 J0
X-32.912 Y-94.035 Z-0.417 I-0.162 J0
X-32.588 Y-94.035 Z-0.478 I0.162 J0
X-32.912 Y-94.035 Z-0.539 I-0.162 J0
X-32.588 Y-94.035 Z-0.6 I0.162 J0
X-32.912 Y-94.035 Z-0.661 I-0.162 J0
X-32.588 Y-94.035 Z-0.722 I0.162 J0
X-32.912 Y-94.035 Z-0.783 I-0.162 J0
X-32.588 Y-94.035 Z-0.844 I0.162 J0
X-32.912 Y-94.035 Z-0.906 I-0.162 J0
X-32.588 Y-94.035 Z-0.967 I0.162 J0
X-32.912 Y-94.035 Z-1.028 I-0.162 J0
X-32.588 Y-94.035 Z-1.089 I0.162 J0
X-32.912 Y-94.035 Z-1.15 I-0.162 J0
X-32.588 Y-94.035 Z-1.211 I0.162 J0
X-32.912 Y-94.035 Z-1.272 I-0.162 J0
X-32.588 Y-94.035 Z-1.333 I0.162 J0
X-32.912 Y-94.035 Z-1.394 I-0.162 J0
X-32.588 Y-94.035 Z-1.456 I0.162 J0
X-32.912 Y-94.035 Z-1.517 I-0.162 J0
X-32.588 Y-94.035 Z-1.578 I0.162 J0
X-32.912 Y-94.035 Z-1.639 I-0.162 J0
X-32.588 Y-94.035 Z-1.7 I0.162 J0
X-32.912 Y-94.035 Z-1.761 I-0.162 J0
X-32.588 Y-94.035 Z-1.822 I0.162 J0
X-32.912 Y-94.035 Z-1.883 I-0.162 J0
X-32.588 Y-94.035 Z-1.944 I0.162 J0
X-32.912 Y-94.035 Z-2.006 I-0.162 J0
X-32.588 Y-94.035 Z-2.067 I0.162 J0
X-32.912 Y-94.035 Z-2.128 I-0.162 J0
X-32.588 Y-94.035 Z-2.189 I0.162 J0
X-32.912 Y-94.035 Z-2.25 I-0.162 J0
X-32.588 Y-94.035 Z-2.311 I0.162 J0
X-32.912 Y-94.035 Z-2.372 I-0.162 J0
X-32.588 Y-94.035 Z-2.433 I0.162 J0
X-32.912 Y-94.035 Z-2.494 I-0.162 J0
X-32.588 Y-94.035 Z-2.556 I0.162 J0
X-32.912 Y-94.035 Z-2.617 I-0.162 J0
X-32.588 Y-94.035 Z-2.678 I0.162 J0
X-32.912 Y-94.035 Z-2.739 I-0.162 J0
X-32.588 Y-94.035 Z-2.8 I0.162 J0
X-32.912 Y-94.035 Z-2.861 I-0.162 J0
X-32.588 Y-94.035 Z-2.922 I0.162 J0
X-32.912 Y-94.035 Z-2.983 I-0.162 J0
X-32.588 Y-94.035 Z-3.044 I0.162 J0
X-32.912 Y-94.035 Z-3.106 I-0.162 J0
X-32.588 Y-94.035 Z-3.167 I0.162 J0
X-32.912 Y-94.035 Z-3.228 I-0.162 J0
X-32.588 Y-94.035 Z-3.289 I0.162 J0
X-32.613 Y-93.948 Z-3.3 I-0.162 J0
X-32.887 Y-94.123 I-0.137 J-0.088
X-32.613 Y-93.948 I0.137 J0.088
G1 X-32.635 Y-93.925
X-32.664 Y-93.912
X-32.696 Y-93.911
X-32.725 Y-93.923
X-32.859 Y-94.009
Z5
X-13.078 Y-108.686
Z2.182
Z0.5
X-12.919
X-12.888 Y-108.679
X-12.861 Y-108.662
X-12.844 Y-108.636
X-12.837 Y-108.604
G3 X-13.163 Y-108.604 Z0.439 I-0.163 J0
X-12.837 Y-108.604 Z0.378 I0.163 J0
X-13.163 Y-108.604 Z0.317 I-0.163 J0
X-12.837 Y-108.604 Z0.256 I0.163 J0
X-13.163 Y-108.604 Z0.194 I-0.163 J0
X-12.837 Y-108.604 Z0.133 I0.163 J0
X-13.163 Y-108.604 Z0.072 I-0.163 J0
X-12.837 Y-108.604 Z0.011 I0.163 J0
X-13.163 Y-108.604 Z-0.05 I-0.163 J0
X-12.837 Y-108.604 Z-0.111 I0.163 J0
X-13.163 Y-108.604 Z-0.172 I-0.163 J0
X-12.837 Y-108.604 Z-0.233 I0.163 J0
X-13.163 Y-108.604 Z-0.294 I-0.163 J0
X-12.837 Y-108.604 Z-0.356 I0.163 J0
X-13.163 Y-108.604 Z-0.417 I-0.163 J0
X-12.837 Y-108.604 Z-0.478 I0.163 J0
X-13.163 Y-108.604 Z-0.539 I-0.163 J0
X-12.837 Y-108.604 Z-0.6 I0.163 J0
X-13.163 Y-108.604 Z-0.661 I-0.163 J0
X-12.837 Y-108.604 Z-0.722 I0.163 J0
X-13.163 Y-108.604 Z-0.783 I-0.163 J0
X-12.837 Y-108.604 Z-0.844 I0.163 J0
X-13.163 Y-108.604 Z-0.906 I-0.163 J0
X-12.837 Y-108.604 Z-0.967 I0.163 J0
X-13.163 Y-108.604 Z-1.028 I-0.163 J0
X-12.837 Y-108.604 Z-1.089 I0.163 J0
X-13.163 Y-108.604 Z-1.15 I-0.163 J0
X-12.837 Y-108.604 Z-1.211 I0.163 J0
X-13.163 Y-108.604 Z-1.272 I-0.163 J0
X-12.837 Y-108.604 Z-1.333 I0.163 J0
X-13.163 Y-108.604 Z-1.394 I-0.163 J0
X-12.837 Y-108.604 Z-1.456 I0.163 J0
X-13.163 Y-108.604 Z-1.517 I-0.163 J0
X-12.837 Y-108.604 Z-1.578 I0.163 J0
X-13.163 Y-108.604 Z-1.639 I-0.163 J0
X-12.837 Y-108.604 Z-1.7 I0.163 J0
X-13.163 Y-108.604 Z-1.761 I-0.163 J0
X-12.837 Y-108.604 Z-1.822 I0.163 J0
X-13.163 Y-108.604 Z-1.883 I-0.163 J0
X-12.837 Y-108.604 Z-1.944 I0.163 J0
X-13.163 Y-108.604 Z-2.006 I-0.163 J0
X-12.837 Y-108.604 Z-2.067 I0.163 J0
X-13.163 Y-108.604 Z-2.128 I-0.163 J0
X-12.837 Y-108.604 Z-2.189 I0.163 J0
X-13.163 Y-108.604 Z-2.25 I-0.163 J0
X-12.837 Y-108.604 Z-2.311 I0.163 J0
X-13.163 Y-108.604 Z-2.372 I-0.163 J0
X-12.837 Y-108.604 Z-2.433 I0.163 J0
X-13.163 Y-108.604 Z-2.494 I-0.163 J0
X-12.837 Y-108.604 Z-2.556 I0.163 J0
X-13.163 Y-108.604 Z-2.617 I-0.163 J0
X-12.837 Y-108.604 Z-2.678 I0.163 J0
X-13.163 Y-108.604 Z-2.739 I-0.163 J0
X-12.837 Y-108.604 Z-2.8 I0.163 J0
X-13.163 Y-108.604 Z-2.861 I-0.163 J0
X-12.837 Y-108.604 Z-2.922 I0.163 J0
X-13.163 Y-108.604 Z-2.983 I-0.163 J0
X-12.837 Y-108.604 Z-3.044 I0.163 J0
X-13.163 Y-108.604 Z-3.106 I-0.163 J0
X-12.837 Y-108.604 Z-3.167 I0.163 J0
X-13.163 Y-108.604 Z-3.228 I-0.163 J0
X-12.837 Y-108.604 Z-3.289 I0.163 J0
X-12.863 Y-108.517 Z-3.3 I-0.163 J0
X-13.137 Y-108.692 I-0.137 J-0.088
X-12.863 Y-108.517 I0.137 J0.088
G1 X-12.885 Y-108.494
X-12.914 Y-108.481
X-12.946
X-12.975 Y-108.492
X-13.109 Y-108.578
Z5
X-63.331 Y-151.958
Z2.182
Z0.5
Y-152.117
X-63.325 Y-152.148
X-63.307 Y-152.174
X-63.281 Y-152.192
X-63.25 Y-152.198
G3 X-63.25 Y-151.873 Z0.439 I0 J0.163
X-63.25 Y-152.198 Z0.378 I0 J-0.163
X-63.25 Y-151.873 Z0.317 I0 J0.163
X-63.25 Y-152.198 Z0.256 I0 J-0.163
X-63.25 Y-151.873 Z0.194 I0 J0.163
X-63.25 Y-152.198 Z0.133 I0 J-0.163
X-63.25 Y-151.873 Z0.072 I0 J0.163
X-63.25 Y-152.198 Z0.011 I0 J-0.163
X-63.25 Y-151.873 Z-0.05 I0 J0.163
X-63.25 Y-152.198 Z-0.111 I0 J-0.163
X-63.25 Y-151.873 Z-0.172 I0 J0.163
X-63.25 Y-152.198 Z-0.233 I0 J-0.163
X-63.25 Y-151.873 Z-0.294 I0 J0.163
X-63.25 Y-152.198 Z-0.356 I0 J-0.163
X-63.25 Y-151.873 Z-0.417 I0 J0.163
X-63.25 Y-152.198 Z-0.478 I0 J-0.163
X-63.25 Y-151.873 Z-0.539 I0 J0.163
X-63.25 Y-152.198 Z-0.6 I0 J-0.163
X-63.25 Y-151.873 Z-0.661 I0 J0.163
X-63.25 Y-152.198 Z-0.722 I0 J-0.163
X-63.25 Y-151.873 Z-0.783 I0 J0.163
X-63.25 Y-152.198 Z-0.844 I0 J-0.163
X-63.25 Y-151.873 Z-0.906 I0 J0.163
X-63.25 Y-152.198 Z-0.967 I0 J-0.163
X-63.25 Y-151.873 Z-1.028 I0 J0.163
X-63.25 Y-152.198 Z-1.089 I0 J-0.163
X-63.25 Y-151.873 Z-1.15 I0 J0.163
X-63.25 Y-152.198 Z-1.211 I0 J-0.163
X-63.25 Y-151.873 Z-1.272 I0 J0.163
X-63.25 Y-152.198 Z-1.333 I0 J-0.163
X-63.25 Y-151.873 Z-1.394 I0 J0.163
X-63.25 Y-152.198 Z-1.456 I0 J-0.163
X-63.25 Y-151.873 Z-1.517 I0 J0.163
X-63.25 Y-152.198 Z-1.578 I0 J-0.163
X-63.25 Y-151.873 Z-1.639 I0 J0.163
X-63.25 Y-152.198 Z-1.7 I0 J-0.163
X-63.25 Y-151.873 Z-1.761 I0 J0.163
X-63.25 Y-152.198 Z-1.822 I0 J-0.163
X-63.25 Y-151.873 Z-1.883 I0 J0.163
X-63.25 Y-152.198 Z-1.944 I0 J-0.163
X-63.25 Y-151.873 Z-2.006 I0 J0.163
X-63.25 Y-152.198 Z-2.067 I0 J-0.163
X-63.25 Y-151.873 Z-2.128 I0 J0.163
X-63.25 Y-152.198 Z-2.189 I0 J-0.163
X-63.25 Y-151.873 Z-2.25 I0 J0.163
X-63.25 Y-152.198 Z-2.311 I0 J-0.163
X-63.25 Y-151.873 Z-2.372 I0 J0.163
X-63.25 Y-152.198 Z-2.433 I0 J-0.163
X-63.25 Y-151.873 Z-2.494 I0 J0.163
X-63.25 Y-152.198 Z-2.556 I0 J-0.163
X-63.25 Y-151.873 Z-2.617 I0 J0.163
X-63.25 Y-152.198 Z-2.678 I0 J-0.163
X-63.25 Y-151.873 Z-2.739 I0 J0.163
X-63.25 Y-152.198 Z-2.8 I0 J-0.163
X-63.25 Y-151.873 Z-2.861 I0 J0.163
X-63.25 Y-152.198 Z-2.922 I0 J-0.163
X-63.25 Y-151.873 Z-2.983 I0 J0.163
X-63.25 Y-152.198 Z-3.044 I0 J-0.163
X-63.25 Y-151.873 Z-3.106 I0 J0.163
X-63.25 Y-152.198 Z-3.167 I0 J-0.163
X-63.25 Y-151.873 Z-3.228 I0 J0.163
X-63.25 Y-152.198 Z-3.289 I0 J-0.163
X-63.162 Y-152.172 Z-3.3 I0 J0.163
X-63.338 Y-151.899 I-0.088 J0.137
X-63.162 Y-152.172 I0.088 J-0.137
G1 X-63.139 Y-152.15
X-63.127 Y-152.121
X-63.126 Y-152.089
X-63.138 Y-152.06
X-63.223 Y-151.926
Z5
X-32.831 Y-151.958
Z2.182
Z0.5
Y-152.117
X-32.825 Y-152.148
X-32.807 Y-152.174
X-32.781 Y-152.192
X-32.75 Y-152.198
G3 X-32.75 Y-151.873 Z0.439 I0 J0.163
X-32.75 Y-152.198 Z0.378 I0 J-0.163
X-32.75 Y-151.873 Z0.317 I0 J0.163
X-32.75 Y-152.198 Z0.256 I0 J-0.163
X-32.75 Y-151.873 Z0.194 I0 J0.163
X-32.75 Y-152.198 Z0.133 I0 J-0.163
X-32.75 Y-151.873 Z0.072 I0 J0.163
X-32.75 Y-152.198 Z0.011 I0 J-0.163
X-32.75 Y-151.873 Z-0.05 I0 J0.163
X-32.75 Y-152.198 Z-0.111 I0 J-0.163
X-32.75 Y-151.873 Z-0.172 I0 J0.163
X-32.75 Y-152.198 Z-0.233 I0 J-0.163
X-32.75 Y-151.873 Z-0.294 I0 J0.163
X-32.75 Y-152.198 Z-0.356 I0 J-0.163
X-32.75 Y-151.873 Z-0.417 I0 J0.163
X-32.75 Y-152.198 Z-0.478 I0 J-0.163
X-32.75 Y-151.873 Z-0.539 I0 J0.163
X-32.75 Y-152.198 Z-0.6 I0 J-0.163
X-32.75 Y-151.873 Z-0.661 I0 J0.163
X-32.75 Y-152.198 Z-0.722 I0 J-0.163
X-32.75 Y-151.873 Z-0.783 I0 J0.163
X-32.75 Y-152.198 Z-0.844 I0 J-0.163
X-32.75 Y-151.873 Z-0.906 I0 J0.163
X-32.75 Y-152.198 Z-0.967 I0 J-0.163
X-32.75 Y-151.873 Z-1.028 I0 J0.163
X-32.75 Y-152.198 Z-1.089 I0 J-0.163
X-32.75 Y-151.873 Z-1.15 I0 J0.163
X-32.75 Y-152.198 Z-1.211 I0 J-0.163
X-32.75 Y-151.873 Z-1.272 I0 J0.163
X-32.75 Y-152.198 Z-1.333 I0 J-0.163
X-32.75 Y-151.873 Z-1.394 I0 J0.163
X-32.75 Y-152.198 Z-1.456 I0 J-0.163
X-32.75 Y-151.873 Z-1.517 I0 J0.163
X-32.75 Y-152.198 Z-1.578 I0 J-0.163
X-32.75 Y-151.873 Z-1.639 I0 J0.163
X-32.75 Y-152.198 Z-1.7 I0 J-0.163
X-32.75 Y-151.873 Z-1.761 I0 J0.163
X-32.75 Y-152.198 Z-1.822 I0 J-0.163
X-32.75 Y-151.873 Z-1.883 I0 J0.163
X-32.75 Y-152.198 Z-1.944 I0 J-0.163
X-32.75 Y-151.873 Z-2.006 I0 J0.163
X-32.75 Y-152.198 Z-2.067 I0 J-0.163
X-32.75 Y-151.873 Z-2.128 I0 J0.163
X-32.75 Y-152.198 Z-2.189 I0 J-0.163
X-32.75 Y-151.873 Z-2.25 I0 J0.163
X-32.75 Y-152.198 Z-2.311 I0 J-0.163
X-32.75 Y-151.873 Z-2.372 I0 J0.163
X-32.75 Y-152.198 Z-2.433 I0 J-0.163
X-32.75 Y-151.873 Z-2.494 I0 J0.163
X-32.75 Y-152.198 Z-2.556 I0 J-0.163
X-32.75 Y-151.873 Z-2.617 I0 J0.163
X-32.75 Y-152.198 Z-2.678 I0 J-0.163
X-32.75 Y-151.873 Z-2.739 I0 J0.163
X-32.75 Y-152.198 Z-2.8 I0 J-0.163
X-32.75 Y-151.873 Z-2.861 I0 J0.163
X-32.75 Y-152.198 Z-2.922 I0 J-0.163
X-32.75 Y-151.873 Z-2.983 I0 J0.163
X-32.75 Y-152.198 Z-3.044 I0 J-0.163
X-32.75 Y-151.873 Z-3.106 I0 J0.163
X-32.75 Y-152.198 Z-3.167 I0 J-0.163
X-32.75 Y-151.873 Z-3.228 I0 J0.163
X-32.75 Y-152.198 Z-3.289 I0 J-0.163
X-32.662 Y-152.172 Z-3.3 I0 J0.163
X-32.838 Y-151.899 I-0.088 J0.137
X-32.662 Y-152.172 I0.088 J-0.137
G1 X-32.639 Y-152.15
X-32.627 Y-152.121
X-32.626 Y-152.089
X-32.638 Y-152.06
X-32.723 Y-151.926
Z5
X-32.831 Y-182.458
Z2.182
Z0.5
Y-182.617
X-32.825 Y-182.648
X-32.807 Y-182.674
X-32.781 Y-182.692
X-32.75 Y-182.698
G3 X-32.75 Y-182.373 Z0.439 I0 J0.163
X-32.75 Y-182.698 Z0.378 I0 J-0.163
X-32.75 Y-182.373 Z0.317 I0 J0.163
X-32.75 Y-182.698 Z0.256 I0 J-0.163
X-32.75 Y-182.373 Z0.194 I0 J0.163
X-32.75 Y-182.698 Z0.133 I0 J-0.163
X-32.75 Y-182.373 Z0.072 I0 J0.163
X-32.75 Y-182.698 Z0.011 I0 J-0.163
X-32.75 Y-182.373 Z-0.05 I0 J0.163
X-32.75 Y-182.698 Z-0.111 I0 J-0.163
X-32.75 Y-182.373 Z-0.172 I0 J0.163
X-32.75 Y-182.698 Z-0.233 I0 J-0.163
X-32.75 Y-182.373 Z-0.294 I0 J0.163
X-32.75 Y-182.698 Z-0.356 I0 J-0.163
X-32.75 Y-182.373 Z-0.417 I0 J0.163
X-32.75 Y-182.698 Z-0.478 I0 J-0.163
X-32.75 Y-182.373 Z-0.539 I0 J0.163
X-32.75 Y-182.698 Z-0.6 I0 J-0.163
X-32.75 Y-182.373 Z-0.661 I0 J0.163
X-32.75 Y-182.698 Z-0.722 I0 J-0.163
X-32.75 Y-182.373 Z-0.783 I0 J0.163
X-32.75 Y-182.698 Z-0.844 I0 J-0.163
X-32.75 Y-182.373 Z-0.906 I0 J0.163
X-32.75 Y-182.698 Z-0.967 I0 J-0.163
X-32.75 Y-182.373 Z-1.028 I0 J0.163
X-32.75 Y-182.698 Z-1.089 I0 J-0.163
X-32.75 Y-182.373 Z-1.15 I0 J0.163
X-32.75 Y-182.698 Z-1.211 I0 J-0.163
X-32.75 Y-182.373 Z-1.272 I0 J0.163
X-32.75 Y-182.698 Z-1.333 I0 J-0.163
X-32.75 Y-182.373 Z-1.394 I0 J0.163
X-32.75 Y-182.698 Z-1.456 I0 J-0.163
X-32.75 Y-182.373 Z-1.517 I0 J0.163
X-32.75 Y-182.698 Z-1.578 I0 J-0.163
X-32.75 Y-182.373 Z-1.639 I0 J0.163
X-32.75 Y-182.698 Z-1.7 I0 J-0.163
X-32.75 Y-182.373 Z-1.761 I0 J0.163
X-32.75 Y-182.698 Z-1.822 I0 J-0.163
X-32.75 Y-182.373 Z-1.883 I0 J0.163
X-32.75 Y-182.698 Z-1.944 I0 J-0.163
X-32.75 Y-182.373 Z-2.006 I0 J0.163
X-32.75 Y-182.698 Z-2.067 I0 J-0.163
X-32.75 Y-182.373 Z-2.128 I0 J0.163
X-32.75 Y-182.698 Z-2.189 I0 J-0.163
X-32.75 Y-182.373 Z-2.25 I0 J0.163
X-32.75 Y-182.698 Z-2.311 I0 J-0.163
X-32.75 Y-182.373 Z-2.372 I0 J0.163
X-32.75 Y-182.698 Z-2.433 I0 J-0.163
X-32.75 Y-182.373 Z-2.494 I0 J0.163
X-32.75 Y-182.698 Z-2.556 I0 J-0.163
X-32.75 Y-182.373 Z-2.617 I0 J0.163
X-32.75 Y-182.698 Z-2.678 I0 J-0.163
X-32.75 Y-182.373 Z-2.739 I0 J0.163
X-32.75 Y-182.698 Z-2.8 I0 J-0.163
X-32.75 Y-182.373 Z-2.861 I0 J0.163
X-32.75 Y-182.698 Z-2.922 I0 J-0.163
X-32.75 Y-182.373 Z-2.983 I0 J0.163
X-32.75 Y-182.698 Z-3.044 I0 J-0.163
X-32.75 Y-182.373 Z-3.106 I0 J0.163
X-32.75 Y-182.698 Z-3.167 I0 J-0.163
X-32.75 Y-182.373 Z-3.228 I0 J0.163
X-32.75 Y-182.698 Z-3.289 I0 J-0.163
X-32.662 Y-182.672 Z-3.3 I0 J0.163
X-32.838 Y-182.399 I-0.088 J0.137
X-32.662 Y-182.672 I0.088 J-0.137
G1 X-32.639 Y-182.65
X-32.627 Y-182.621
X-32.626 Y-182.589
X-32.638 Y-182.56
X-32.723 Y-182.426
Z5
X-63.331 Y-182.458
Z2.182
Z0.5
Y-182.617
X-63.325 Y-182.648
X-63.307 Y-182.674
X-63.281 Y-182.692
X-63.25 Y-182.698
G3 X-63.25 Y-182.373 Z0.439 I0 J0.163
X-63.25 Y-182.698 Z0.378 I0 J-0.163
X-63.25 Y-182.373 Z0.317 I0 J0.163
X-63.25 Y-182.698 Z0.256 I0 J-0.163
X-63.25 Y-182.373 Z0.194 I0 J0.163
X-63.25 Y-182.698 Z0.133 I0 J-0.163
X-63.25 Y-182.373 Z0.072 I0 J0.163
X-63.25 Y-182.698 Z0.011 I0 J-0.163
X-63.25 Y-182.373 Z-0.05 I0 J0.163
X-63.25 Y-182.698 Z-0.111 I0 J-0.163
X-63.25 Y-182.373 Z-0.172 I0 J0.163
X-63.25 Y-182.698 Z-0.233 I0 J-0.163
X-63.25 Y-182.373 Z-0.294 I0 J0.163
X-63.25 Y-182.698 Z-0.356 I0 J-0.163
X-63.25 Y-182.373 Z-0.417 I0 J0.163
X-63.25 Y-182.698 Z-0.478 I0 J-0.163
X-63.25 Y-182.373 Z-0.539 I0 J0.163
X-63.25 Y-182.698 Z-0.6 I0 J-0.163
X-63.25 Y-182.373 Z-0.661 I0 J0.163
X-63.25 Y-182.698 Z-0.722 I0 J-0.163
X-63.25 Y-182.373 Z-0.783 I0 J0.163
X-63.25 Y-182.698 Z-0.844 I0 J-0.163
X-63.25 Y-182.373 Z-0.906 I0 J0.163
X-63.25 Y-182.698 Z-0.967 I0 J-0.163
X-63.25 Y-182.373 Z-1.028 I0 J0.163
X-63.25 Y-182.698 Z-1.089 I0 J-0.163
X-63.25 Y-182.373 Z-1.15 I0 J0.163
X-63.25 Y-182.698 Z-1.211 I0 J-0.163
X-63.25 Y-182.373 Z-1.272 I0 J0.163
X-63.25 Y-182.698 Z-1.333 I0 J-0.163
X-63.25 Y-182.373 Z-1.394 I0 J0.163
X-63.25 Y-182.698 Z-1.456 I0 J-0.163
X-63.25 Y-182.373 Z-1.517 I0 J0.163
X-63.25 Y-182.698 Z-1.578 I0 J-0.163
X-63.25 Y-182.373 Z-1.639 I0 J0.163
X-63.25 Y-182.698 Z-1.7 I0 J-0.163
X-63.25 Y-182.373 Z-1.761 I0 J0.163
X-63.25 Y-182.698 Z-1.822 I0 J-0.163
X-63.25 Y-182.373 Z-1.883 I0 J0.163
X-63.25 Y-182.698 Z-1.944 I0 J-0.163
X-63.25 Y-182.373 Z-2.006 I0 J0.163
X-63.25 Y-182.698 Z-2.067 I0 J-0.163
X-63.25 Y-182.373 Z-2.128 I0 J0.163
X-63.25 Y-182.698 Z-2.189 I0 J-0.163
X-63.25 Y-182.373 Z-2.25 I0 J0.163
X-63.25 Y-182.698 Z-2.311 I0 J-0.163
X-63.25 Y-182.373 Z-2.372 I0 J0.163
X-63.25 Y-182.698 Z-2.433 I0 J-0.163
X-63.25 Y-182.373 Z-2.494 I0 J0.163
X-63.25 Y-182.698 Z-2.556 I0 J-0.163
X-63.25 Y-182.373 Z-2.617 I0 J0.163
X-63.25 Y-182.698 Z-2.678 I0 J-0.163
X-63.25 Y-182.373 Z-2.739 I0 J0.163
X-63.25 Y-182.698 Z-2.8 I0 J-0.163
X-63.25 Y-182.373 Z-2.861 I0 J0.163
X-63.25 Y-182.698 Z-2.922 I0 J-0.163
X-63.25 Y-182.373 Z-2.983 I0 J0.163
X-63.25 Y-182.698 Z-3.044 I0 J-0.163
X-63.25 Y-182.373 Z-3.106 I0 J0.163
X-63.25 Y-182.698 Z-3.167 I0 J-0.163
X-63.25 Y-182.373 Z-3.228 I0 J0.163
X-63.25 Y-182.698 Z-3.289 I0 J-0.163
X-63.162 Y-182.672 Z-3.3 I0 J0.163
X-63.338 Y-182.399 I-0.088 J0.137
X-63.162 Y-182.672 I0.088 J-0.137
G1 X-63.139 Y-182.65
X-63.127 Y-182.621
X-63.126 Y-182.589
X-63.138 Y-182.56
X-63.223 Y-182.426
Z15
(When using Fusion for Personal Use, the feedrate of rapid)
(moves is reduced to match the feedrate of cutting moves,)
(which can increase machining time. Unrestricted rapid moves)
(are available with a Fusion Subscription.)

(2D-Kontur8)
G0 X-44.588 Y-125.567
G1 Z15 F1000
Z5
Z2.5 F333.3
Y-106.372 Z2.165
X-51.412 Z2.046
Y-133.197 Z1.578
X-44.588 Z1.458
Y-106.372 Z0.99
X-51.412 Z0.871
Y-133.197 Z0.403
X-44.588 Z0.284
Y-106.372 Z-0.184
X-51.412 Z-0.304
Y-133.197 Z-0.772
X-44.588 Z-0.891
Y-106.372 Z-1.359
X-51.412 Z-1.478
Y-133.197 Z-1.947
X-44.588 Z-2.066
Y-106.372 Z-2.534
X-51.412 Z-2.653
Y-133.197 Z-3.121
X-44.588 Z-3.24
Y-129.785 Z-3.3
Y-106.372 F1000
X-51.412
Y-133.197
X-44.588
Y-129.785
G3 X-44.905 Y-129.467 I-0.317 J0
G1 X-45.222
G18 G3 X-45.54 Z-2.983 I0 K0.317
G1 Z5
X-23.587 Y-111.642
Z2.5 F333.3
Y-111.372 Z2.495
X-25.413 Z2.463
Y-133.197 Z2.082
X-23.587 Z2.051
Y-111.372 Z1.67
X-25.413 Z1.638
Y-133.197 Z1.257
X-23.587 Z1.225
Y-111.372 Z0.844
X-25.413 Z0.812
Y-133.197 Z0.431
X-23.587 Z0.399
Y-111.372 Z0.018
X-25.413 Z-0.013
Y-133.197 Z-0.394
X-23.587 Z-0.426
Y-111.372 Z-0.807
X-25.413 Z-0.839
Y-133.197 Z-1.22
X-23.587 Z-1.252
Y-111.372 Z-1.633
X-25.413 Z-1.665
Y-133.197 Z-2.046
X-23.587 Z-2.077
Y-111.372 Z-2.458
X-25.413 Z-2.49
Y-133.197 Z-2.871
X-23.587 Z-2.903
Y-111.372 Z-3.284
X-24.5 Z-3.3
X-25.413 F1000
Y-133.197
X-23.587
Y-111.372
X-24.5
G17 G3 X-24.817 Y-111.69 I0 J-0.318
G1 Y-112.007
G19 G2 Y-112.325 Z-2.983 J0 K0.317
G1 Z5
X-70.857 Y-133.197
Z2.5 F333.3
X-70.588 Z2.495
Y-111.372 Z2.114
X-72.412 Z2.082
Y-133.197 Z1.702
X-70.588 Z1.67
Y-111.372 Z1.289
X-72.412 Z1.257
Y-133.197 Z0.876
X-70.588 Z0.844
Y-111.372 Z0.463
X-72.412 Z0.431
Y-133.197 Z0.05
X-70.588 Z0.018
Y-111.372 Z-0.363
X-72.412 Z-0.394
Y-133.197 Z-0.775
X-70.588 Z-0.807
Y-111.372 Z-1.188
X-72.412 Z-1.22
Y-133.197 Z-1.601
X-70.588 Z-1.633
Y-111.372 Z-2.014
X-72.412 Z-2.046
Y-133.197 Z-2.427
X-70.588 Z-2.458
Y-111.372 Z-2.839
X-72.412 Z-2.871
Y-133.197 Z-3.252
X-70.588 Z-3.284
Y-132.285 Z-3.3
Y-111.372 F1000
X-72.412
Y-133.197
X-70.588
Y-132.285
G17 G3 X-70.905 Y-131.967 I-0.317 J0
G1 X-71.223
G18 G3 X-71.54 Z-2.983 I0 K0.317
G1 Z5
X-44.588 Y-43.567
Z2.5 F333.3
Y-24.373 Z2.165
X-51.412 Z2.046
Y-51.198 Z1.578
X-44.588 Z1.458
Y-24.373 Z0.99
X-51.412 Z0.871
Y-51.198 Z0.403
X-44.588 Z0.284
Y-24.373 Z-0.184
X-51.412 Z-0.304
Y-51.198 Z-0.772
X-44.588 Z-0.891
Y-24.373 Z-1.359
X-51.412 Z-1.478
Y-51.198 Z-1.947
X-44.588 Z-2.066
Y-24.373 Z-2.534
X-51.412 Z-2.653
Y-51.198 Z-3.121
X-44.588 Z-3.24
Y-47.785 Z-3.3
Y-24.373 F1000
X-51.412
Y-51.198
X-44.588
Y-47.785
G17 G3 X-44.905 Y-47.468 I-0.317 J0
G1 X-45.222
G18 G3 X-45.54 Z-2.983 I0 K0.317
G1 Z5
X-23.857 Y-46.198
Z2.5 F333.3
X-23.587 Z2.495
Y-24.373 Z2.114
X-25.413 Z2.082
Y-46.198 Z1.702
X-23.587 Z1.67
Y-24.373 Z1.289
X-25.413 Z1.257
Y-46.198 Z0.876
X-23.587 Z0.844
Y-24.373 Z0.463
X-25.413 Z0.431
Y-46.198 Z0.05
X-23.587 Z0.018
Y-24.373 Z-0.363
X-25.413 Z-0.394
Y-46.198 Z-0.775
X-23.587 Z-0.807
Y-24.373 Z-1.188
X-25.413 Z-1.22
Y-46.198 Z-1.601
X-23.587 Z-1.633
Y-24.373 Z-2.014
X-25.413 Z-2.046
Y-46.198 Z-2.427
X-23.587 Z-2.458
Y-24.373 Z-2.839
X-25.413 Z-2.871
Y-46.198 Z-3.252
X-23.587 Z-3.284
Y-45.285 Z-3.3
Y-24.373 F1000
X-25.413
Y-46.198
X-23.587
Y-45.285
G17 G3 X-23.905 Y-44.968 I-0.318 J0
G1 X-24.222
G18 G3 X-24.54 Z-2.983 I0 K0.317
G1 Z5
X-70.588 Y-24.642
Z2.5 F333.3
Y-24.373 Z2.495
X-72.412 Z2.463
Y-46.198 Z2.082
X-70.588 Z2.051
Y-24.373 Z1.67
X-72.412 Z1.638
Y-46.198 Z1.257
X-70.588 Z1.225
Y-24.373 Z0.844
X-72.412 Z0.812
Y-46.198 Z0.431
X-70.588 Z0.399
Y-24.373 Z0.018
X-72.412 Z-0.013
Y-46.198 Z-0.394
X-70.588 Z-0.426
Y-24.373 Z-0.807
X-72.412 Z-0.839
Y-46.198 Z-1.22
X-70.588 Z-1.252
Y-24.373 Z-1.633
X-72.412 Z-1.665
Y-46.198 Z-2.046
X-70.588 Z-2.077
Y-24.373 Z-2.458
X-72.412 Z-2.49
Y-46.198 Z-2.871
X-70.588 Z-2.903
Y-24.373 Z-3.284
X-71.5 Z-3.3
X-72.412 F1000
Y-46.198
X-70.588
Y-24.373
X-71.5
G17 G3 X-71.817 Y-24.69 I0 J-0.317
G1 Y-25.008
G19 G2 Y-25.325 Z-2.983 J0 K0.317
G1 Z15
G17
(When using Fusion for Personal Use, the feedrate of rapid)
(moves is reduced to match the feedrate of cutting moves,)
(which can increase machining time. Unrestricted rapid moves)
(are available with a Fusion Subscription.)

(2D-Kontur9)
G0 X-71.279 Y-84.48
G1 Z15 F1000
Z5
Z0.635 F333.3
Z-0.683
X-71.273 Y-84.485 Z-0.753 F1000
X-71.253 Y-84.498 Z-0.82
X-71.222 Y-84.52 Z-0.88
X-71.181 Y-84.549 Z-0.931
X-71.132 Y-84.584 Z-0.969
X-71.077 Y-84.622 Z-0.992
X-71.019 Y-84.663 Z-1
X-70.759 Y-84.845
G3 X-70.317 Y-84.768 I0.182 J0.26
X-72.087 Y-70.859 I-8.522 J5.982
G1 X-89.218 Y-56.264
G2 X-79.588 Y-40.007 I6.218 J7.298
G1 Y-23.785
G2 X-73 Y-17.198 I6.588 J0
G1 X-23
G2 X-16.413 Y-23.785 I0 J-6.587
G1 Y-40.007
G2 X-6.782 Y-56.264 I3.413 J-8.96
G1 X-23.913 Y-70.859
G3 X-23.913 Y-86.711 I6.753 J-7.926
G1 X-6.782 Y-101.307
G2 X-16.413 Y-117.564 I-6.218 J-7.298
G1 Y-133.785
G2 X-23 Y-140.372 I-6.587 J0
G1 X-73
G2 X-79.588 Y-133.785 I0 J6.587
G1 Y-117.564
G2 X-89.218 Y-101.307 I-3.412 J8.959
G1 X-72.087 Y-86.711
G3 X-70.317 Y-84.768 I-6.753 J7.926
X-70.394 Y-84.325 I-0.26 J0.182
G1 X-70.654 Y-84.143
X-70.712 Y-84.102 Z-0.992
X-70.767 Y-84.064 Z-0.969
X-70.816 Y-84.029 Z-0.931
X-70.858 Y-84 Z-0.88
X-70.888 Y-83.979 Z-0.82
X-70.908 Y-83.965 Z-0.753
X-70.914 Y-83.961 Z-0.683
Z5
X-78.787 Y-78.434
Z0.635 F333.3
Z-0.683
X-78.794 Y-78.429 Z-0.753 F1000
X-78.813 Y-78.416 Z-0.82
X-78.844 Y-78.394 Z-0.88
X-78.885 Y-78.365 Z-0.931
X-78.935 Y-78.331 Z-0.969
X-78.989 Y-78.292 Z-0.992
X-79.047 Y-78.252 Z-1
X-79.307 Y-78.069
G3 X-79.749 Y-78.147 I-0.182 J-0.26
G2 X-93.814 Y-79.936 I-7.847 J5.508
G1 X-118.438 Y-58.957
G3 X-126.755 Y-58.957 I-4.159 J-4.881
G1 X-151.378 Y-79.936
G2 X-164.895 Y-78.857 I-6.218 J7.298
X-163.814 Y-65.34 I7.298 J6.218
G1 X-143.11 Y-47.7
G3 X-143.11 Y-37.938 I-4.158 J4.881
G1 X-163.814 Y-20.298
G2 X-164.895 Y-6.782 I6.218 J7.298
X-151.378 Y-5.702 I7.298 J-6.218
G1 X-126.755 Y-26.681
G3 X-118.438 Y-26.681 I4.159 J4.881
G1 X-93.814 Y-5.702
G2 X-80.299 Y-6.782 I6.218 J-7.298
X-81.379 Y-20.298 I-7.298 J-6.218
G1 X-102.083 Y-37.938
G3 X-102.084 Y-47.7 I4.158 J-4.881
G1 X-81.379 Y-65.34
G2 X-79.749 Y-78.147 I-6.218 J-7.298
G3 X-79.672 Y-78.589 I0.26 J-0.182
G1 X-79.412 Y-78.771
X-79.354 Y-78.812 Z-0.992
X-79.299 Y-78.85 Z-0.969
X-79.25 Y-78.885 Z-0.931
X-79.209 Y-78.914 Z-0.88
X-79.178 Y-78.936 Z-0.82
X-79.159 Y-78.949 Z-0.753
X-79.152 Y-78.954 Z-0.683
Z5
X-78.787 Y-78.434
Z-0.365 F333.3
Z-1.683
X-78.794 Y-78.429 Z-1.753 F1000
X-78.813 Y-78.416 Z-1.82
X-78.844 Y-78.394 Z-1.88
X-78.885 Y-78.365 Z-1.931
X-78.935 Y-78.331 Z-1.969
X-78.989 Y-78.292 Z-1.992
X-79.047 Y-78.252 Z-2
X-79.307 Y-78.069
G3 X-79.749 Y-78.147 I-0.182 J-0.26
G2 X-93.814 Y-79.936 I-7.847 J5.508
G1 X-118.438 Y-58.957
G3 X-126.755 Y-58.957 I-4.159 J-4.881
G1 X-151.378 Y-79.936
G2 X-164.895 Y-78.857 I-6.218 J7.298
X-163.814 Y-65.34 I7.298 J6.218
G1 X-143.11 Y-47.7
G3 X-143.11 Y-37.938 I-4.158 J4.881
G1 X-163.814 Y-20.298
G2 X-164.895 Y-6.782 I6.218 J7.298
X-151.378 Y-5.702 I7.298 J-6.218
G1 X-126.755 Y-26.681
G3 X-118.438 Y-26.681 I4.159 J4.881
G1 X-93.814 Y-5.702
G2 X-80.299 Y-6.782 I6.218 J-7.298
X-81.379 Y-20.298 I-7.298 J-6.218
G1 X-102.083 Y-37.938
G3 X-102.084 Y-47.7 I4.158 J-4.881
G1 X-81.379 Y-65.34
G2 X-79.749 Y-78.147 I-6.218 J-7.298
G3 X-79.672 Y-78.589 I0.26 J-0.182
G1 X-79.412 Y-78.771
X-79.354 Y-78.812 Z-1.992
X-79.299 Y-78.85 Z-1.969
X-79.25 Y-78.885 Z-1.931
X-79.209 Y-78.914 Z-1.88
X-79.178 Y-78.936 Z-1.82
X-79.159 Y-78.949 Z-1.753
X-79.152 Y-78.954 Z-1.683
Z5
X-76.178 Y-187.115
Z0.635 F333.3
Z-0.683
X-76.17 Y-187.113 Z-0.753 F1000
X-76.148 Y-187.106 Z-0.82
X-76.111 Y-187.096 Z-0.88
X-76.063 Y-187.083 Z-0.931
X-76.005 Y-187.067 Z-0.969
X-75.94 Y-187.049 Z-0.992
X-75.872 Y-187.03 Z-1
X-75.566 Y-186.944
G3 X-75.346 Y-186.553 I-0.085 J0.306
G2 X-75.588 Y-184.785 I6.346 J1.768
G1 Y-149.785
G2 X-69 Y-143.197 I6.588 J0
G1 X-27
G2 X-20.413 Y-149.785 I0 J-6.588
G1 Y-184.785
G2 X-27 Y-191.372 I-6.587 J0
G1 X-69
G2 X-75.346 Y-186.553 I0 J6.587
G3 X-75.737 Y-186.333 I-0.306 J-0.085
G1 X-76.043 Y-186.418
X-76.111 Y-186.437 Z-0.992
X-76.175 Y-186.455 Z-0.969
X-76.233 Y-186.471 Z-0.931
X-76.282 Y-186.485 Z-0.88
X-76.318 Y-186.495 Z-0.82
X-76.341 Y-186.501 Z-0.753
X-76.348 Y-186.503 Z-0.683
Z5
X-76.178 Y-187.115
Z-0.365 F333.3
Z-1.683
X-76.17 Y-187.113 Z-1.753 F1000
X-76.148 Y-187.106 Z-1.82
X-76.111 Y-187.096 Z-1.88
X-76.063 Y-187.083 Z-1.931
X-76.005 Y-187.067 Z-1.969
X-75.94 Y-187.049 Z-1.992
X-75.872 Y-187.03 Z-2
X-75.566 Y-186.944
G3 X-75.346 Y-186.553 I-0.085 J0.306
G2 X-75.588 Y-184.785 I6.346 J1.768
G1 Y-149.785
G2 X-69 Y-143.197 I6.588 J0
G1 X-27
G2 X-20.413 Y-149.785 I0 J-6.588
G1 Y-184.785
G2 X-27 Y-191.372 I-6.587 J0
G1 X-69
G2 X-75.346 Y-186.553 I0 J6.587
G3 X-75.737 Y-186.333 I-0.306 J-0.085
G1 X-76.043 Y-186.418
X-76.111 Y-186.437 Z-1.992
X-76.175 Y-186.455 Z-1.969
X-76.233 Y-186.471 Z-1.931
X-76.282 Y-186.485 Z-1.88
X-76.318 Y-186.495 Z-1.82
X-76.341 Y-186.501 Z-1.753
X-76.348 Y-186.503 Z-1.683
Z5
X-91.317 Y-115.086
Z-0.365 F333.3
Z-1.683
X-91.311 Y-115.081 Z-1.753 F1000
X-91.292 Y-115.067 Z-1.82
X-91.261 Y-115.045 Z-1.88
X-91.221 Y-115.015 Z-1.931
X-91.172 Y-114.98 Z-1.969
X-91.118 Y-114.94 Z-1.992
X-91.061 Y-114.898 Z-2
X-90.805 Y-114.711
G3 X-90.736 Y-114.267 I-0.188 J0.256
G2 X-89.218 Y-101.307 I7.736 J5.663
G1 X-72.087 Y-86.711
G3 X-72.087 Y-70.859 I-6.753 J7.926
G1 X-89.218 Y-56.264
G2 X-79.588 Y-40.007 I6.218 J7.298
G1 Y-23.785
G2 X-73 Y-17.198 I6.588 J0
G1 X-23
G2 X-16.413 Y-23.785 I0 J-6.587
G1 Y-40.007
G2 X-6.782 Y-56.264 I3.413 J-8.96
G1 X-23.913 Y-70.859
G3 X-23.913 Y-86.711 I6.753 J-7.926
G1 X-6.782 Y-101.307
G2 X-16.413 Y-117.564 I-6.218 J-7.298
G1 Y-133.785
G2 X-23 Y-140.372 I-6.587 J0
G1 X-73
G2 X-79.588 Y-133.785 I0 J6.587
G1 Y-117.564
G2 X-90.736 Y-114.267 I-3.412 J8.959
G3 X-91.18 Y-114.198 I-0.256 J-0.188
G1 X-91.436 Y-114.386
X-91.493 Y-114.428 Z-1.992
X-91.547 Y-114.467 Z-1.969
X-91.596 Y-114.503 Z-1.931
X-91.636 Y-114.533 Z-1.88
X-91.667 Y-114.555 Z-1.82
X-91.686 Y-114.569 Z-1.753
X-91.692 Y-114.574 Z-1.683
Z5
X-71.279 Y-84.48
Z-1.365 F333.3
Z-2.683
X-71.273 Y-84.485 Z-2.753 F1000
X-71.253 Y-84.498 Z-2.82
X-71.222 Y-84.52 Z-2.88
X-71.181 Y-84.549 Z-2.931
X-71.132 Y-84.584 Z-2.969
X-71.077 Y-84.622 Z-2.992
X-71.019 Y-84.663 Z-3
X-70.759 Y-84.845
G3 X-70.317 Y-84.768 I0.182 J0.26
X-72.087 Y-70.859 I-8.522 J5.982
G1 X-79.722 Y-64.354
Z-2.506
X-86.706 Y-58.404
Z-3 F333.3
X-89.218 Y-56.264 F1000
G2 X-79.588 Y-40.007 I6.218 J7.298
G1 Y-23.785
G2 X-73 Y-17.198 I6.588 J0
G1 X-53.683
Z-2.506
X-44.508
Z-3 F333.3
X-23 F1000
G2 X-16.413 Y-23.785 I0 J-6.587
G1 Y-40.007
G2 X-6.782 Y-56.264 I3.413 J-8.96
G1 X-23.913 Y-70.859
G3 X-23.913 Y-86.711 I6.753 J-7.926
G1 X-16.278 Y-93.216
Z-2.506
X-9.294 Y-99.167
Z-3 F333.3
X-6.782 Y-101.307 F1000
G2 X-16.413 Y-117.564 I-6.218 J-7.298
G1 Y-133.785
G2 X-23 Y-140.372 I-6.587 J0
G1 X-73
G2 X-79.588 Y-133.785 I0 J6.587
G1 Y-131.242
Z-2.506
Y-122.066
Z-3 F333.3
Y-117.564 F1000
G2 X-89.218 Y-101.307 I-3.412 J8.959
G1 X-72.087 Y-86.711
G3 X-70.317 Y-84.768 I-6.753 J7.926
X-70.394 Y-84.325 I-0.26 J0.182
G1 X-70.654 Y-84.143
X-70.712 Y-84.102 Z-2.992
X-70.767 Y-84.064 Z-2.969
X-70.816 Y-84.029 Z-2.931
X-70.858 Y-84 Z-2.88
X-70.888 Y-83.979 Z-2.82
X-70.908 Y-83.965 Z-2.753
X-70.914 Y-83.961 Z-2.683
Z5
X-78.787 Y-78.434
Z-1.365 F333.3
Z-2.683
X-78.794 Y-78.429 Z-2.753 F1000
X-78.813 Y-78.416 Z-2.82
X-78.844 Y-78.394 Z-2.88
X-78.885 Y-78.365 Z-2.931
X-78.935 Y-78.331 Z-2.969
X-78.989 Y-78.292 Z-2.992
X-79.047 Y-78.252 Z-3
X-79.307 Y-78.069
G3 X-79.749 Y-78.147 I-0.182 J-0.26
G2 X-93.814 Y-79.936 I-7.847 J5.508
G1 X-104.043 Y-71.221
Z-2.506
X-111.027 Y-65.271
Z-3 F333.3
X-118.438 Y-58.957 F1000
G3 X-126.755 Y-58.957 I-4.159 J-4.881
G1 X-151.378 Y-79.936
G2 X-164.895 Y-78.857 I-6.218 J7.298
X-163.814 Y-65.34 I7.298 J6.218
G1 X-155.257 Y-58.05
Z-2.506
X-148.273 Y-52.1
Z-3 F333.3
X-143.11 Y-47.7 F1000
G3 X-143.11 Y-37.938 I-4.158 J4.881
G1 X-163.814 Y-20.298
G2 X-164.895 Y-6.782 I6.218 J7.298
X-151.378 Y-5.702 I7.298 J-6.218
G1 X-130.247 Y-23.706
Z-2.506
X-126.755 Y-26.681
G3 X-122.048 Y-28.189 I4.159 J4.881
G1 Z-3 F333.3
G3 X-118.438 Y-26.681 I-0.549 J6.389 F1000
G1 X-93.814 Y-5.702
G2 X-80.299 Y-6.782 I6.218 J-7.298
X-81.379 Y-20.298 I-7.298 J-6.218
G1 X-102.083 Y-37.938
G3 X-102.084 Y-47.7 I4.158 J-4.881
G1 X-87.89 Y-59.793
Z-2.506
X-81.379 Y-65.34
G2 X-80.919 Y-65.759 I-6.218 J-7.298
G1 Z-3 F333.3
G2 X-79.749 Y-78.147 I-6.678 J-6.879 F1000
G3 X-79.672 Y-78.589 I0.26 J-0.182
G1 X-79.412 Y-78.771
X-79.354 Y-78.812 Z-2.992
X-79.299 Y-78.85 Z-2.969
X-79.25 Y-78.885 Z-2.931
X-79.209 Y-78.914 Z-2.88
X-79.178 Y-78.936 Z-2.82
X-79.159 Y-78.949 Z-2.753
X-79.152 Y-78.954 Z-2.683
Z5
X-78.787 Y-78.434
Z-2.365 F333.3
Z-2.983
X-78.794 Y-78.429 Z-3.053 F1000
X-78.813 Y-78.416 Z-3.12
X-78.844 Y-78.394 Z-3.18
X-78.885 Y-78.365 Z-3.231
X-78.935 Y-78.331 Z-3.269
X-78.989 Y-78.292 Z-3.292
X-79.047 Y-78.252 Z-3.3
X-79.307 Y-78.069
G3 X-79.749 Y-78.147 I-0.182 J-0.26
G2 X-93.814 Y-79.936 I-7.847 J5.508
G1 X-104.043 Y-71.221
Z-2.506
X-111.027 Y-65.271
Z-3.3 F333.3
X-118.438 Y-58.957 F1000
G3 X-126.755 Y-58.957 I-4.159 J-4.881
G1 X-151.378 Y-79.936
G2 X-164.895 Y-78.857 I-6.218 J7.298
X-163.814 Y-65.34 I7.298 J6.218
G1 X-155.257 Y-58.05
Z-2.506
X-148.273 Y-52.1
Z-3.3 F333.3
X-143.11 Y-47.7 F1000
G3 X-143.11 Y-37.938 I-4.158 J4.881
G1 X-163.814 Y-20.298
G2 X-164.895 Y-6.782 I6.218 J7.298
X-151.378 Y-5.702 I7.298 J-6.218
G1 X-130.247 Y-23.706
Z-2.506
X-126.755 Y-26.681
G3 X-122.048 Y-28.189 I4.159 J4.881
G1 Z-3.3 F333.3
G3 X-118.438 Y-26.681 I-0.549 J6.389 F1000
G1 X-93.814 Y-5.702
G2 X-80.299 Y-6.782 I6.218 J-7.298
X-81.379 Y-20.298 I-7.298 J-6.218
G1 X-102.083 Y-37.938
G3 X-102.084 Y-47.7 I4.158 J-4.881
G1 X-87.89 Y-59.793
Z-2.506
X-81.379 Y-65.34
G2 X-80.919 Y-65.759 I-6.218 J-7.298
G1 Z-3.3 F333.3
G2 X-79.749 Y-78.147 I-6.678 J-6.879 F1000
G3 X-79.672 Y-78.589 I0.26 J-0.182
G1 X-79.412 Y-78.771
X-79.354 Y-78.812 Z-3.292
X-79.299 Y-78.85 Z-3.269
X-79.25 Y-78.885 Z-3.231
X-79.209 Y-78.914 Z-3.18
X-79.178 Y-78.936 Z-3.12
X-79.159 Y-78.949 Z-3.053
X-79.152 Y-78.954 Z-2.983
Z5
X-76.178 Y-187.115
Z-1.365 F333.3
Z-2.683
X-76.17 Y-187.113 Z-2.753 F1000
X-76.148 Y-187.106 Z-2.82
X-76.111 Y-187.096 Z-2.88
X-76.063 Y-187.083 Z-2.931
X-76.005 Y-187.067 Z-2.969
X-75.94 Y-187.049 Z-2.992
X-75.872 Y-187.03 Z-3
X-75.566 Y-186.944
G3 X-75.346 Y-186.553 I-0.085 J0.306
G2 X-75.588 Y-184.785 I6.346 J1.768
G1 Y-171.798
Z-2.506
Y-162.622
Z-3 F333.3
Y-149.785 F1000
G2 X-69 Y-143.197 I6.588 J0
G1 X-27
G2 X-20.413 Y-149.785 I0 J-6.588
G1 Y-163.719
Z-2.506
Y-172.893
Z-3 F333.3
Y-184.785 F1000
G2 X-27 Y-191.372 I-6.587 J0
G1 X-69
G2 X-75.346 Y-186.553 I0 J6.587
G3 X-75.737 Y-186.333 I-0.306 J-0.085
G1 X-76.043 Y-186.418
X-76.111 Y-186.437 Z-2.992
X-76.175 Y-186.455 Z-2.969
X-76.233 Y-186.471 Z-2.931
X-76.282 Y-186.485 Z-2.88
X-76.318 Y-186.495 Z-2.82
X-76.341 Y-186.501 Z-2.753
X-76.348 Y-186.503 Z-2.683
Z5
X-76.178 Y-187.115
Z-2.365 F333.3
Z-2.983
X-76.17 Y-187.113 Z-3.053 F1000
X-76.148 Y-187.106 Z-3.12
X-76.111 Y-187.096 Z-3.18
X-76.063 Y-187.083 Z-3.231
X-76.005 Y-187.067 Z-3.269
X-75.94 Y-187.049 Z-3.292
X-75.872 Y-187.03 Z-3.3
X-75.566 Y-186.944
G3 X-75.346 Y-186.553 I-0.085 J0.306
G2 X-75.588 Y-184.785 I6.346 J1.768
G1 Y-171.798
Z-2.506
Y-162.622
Z-3.3 F333.3
Y-149.785 F1000
G2 X-69 Y-143.197 I6.588 J0
G1 X-27
G2 X-20.413 Y-149.785 I0 J-6.588
G1 Y-163.719
Z-2.506
Y-172.893
Z-3.3 F333.3
Y-184.785 F1000
G2 X-27 Y-191.372 I-6.587 J0
G1 X-69
G2 X-75.346 Y-186.553 I0 J6.587
G3 X-75.737 Y-186.333 I-0.306 J-0.085
G1 X-76.043 Y-186.418
X-76.111 Y-186.437 Z-3.292
X-76.175 Y-186.455 Z-3.269
X-76.233 Y-186.471 Z-3.231
X-76.282 Y-186.485 Z-3.18
X-76.318 Y-186.495 Z-3.12
X-76.341 Y-186.501 Z-3.053
X-76.348 Y-186.503 Z-2.983
Z5
X-91.317 Y-115.086
Z-2.365 F333.3
Z-2.983
X-91.311 Y-115.081 Z-3.053 F1000
X-91.292 Y-115.067 Z-3.12
X-91.261 Y-115.045 Z-3.18
X-91.221 Y-115.015 Z-3.231
X-91.172 Y-114.98 Z-3.269
X-91.118 Y-114.94 Z-3.292
X-91.061 Y-114.898 Z-3.3
X-90.805 Y-114.711
G3 X-90.736 Y-114.267 I-0.188 J0.256
G2 X-89.218 Y-101.307 I7.736 J5.663
G1 X-72.087 Y-86.711
G3 X-72.087 Y-70.859 I-6.753 J7.926
G1 X-79.722 Y-64.354
Z-2.506
X-86.706 Y-58.404
Z-3.3 F333.3
X-89.218 Y-56.264 F1000
G2 X-79.588 Y-40.007 I6.218 J7.298
G1 Y-23.785
G2 X-73 Y-17.198 I6.588 J0
G1 X-53.683
Z-2.506
X-44.508
Z-3.3 F333.3
X-23 F1000
G2 X-16.413 Y-23.785 I0 J-6.587
G1 Y-40.007
G2 X-6.782 Y-56.264 I3.413 J-8.96
G1 X-23.913 Y-70.859
G3 X-23.913 Y-86.711 I6.753 J-7.926
G1 X-16.278 Y-93.216
Z-2.506
X-9.294 Y-99.167
Z-3.3 F333.3
X-6.782 Y-101.307 F1000
G2 X-16.413 Y-117.564 I-6.218 J-7.298
G1 Y-133.785
G2 X-23 Y-140.372 I-6.587 J0
G1 X-73
G2 X-79.588 Y-133.785 I0 J6.587
G1 Y-131.242
Z-2.506
Y-122.066
Z-3.3 F333.3
Y-117.564 F1000
G2 X-90.736 Y-114.267 I-3.412 J8.959
G3 X-91.18 Y-114.198 I-0.256 J-0.188
G1 X-91.436 Y-114.386
X-91.493 Y-114.428 Z-3.292
X-91.547 Y-114.467 Z-3.269
X-91.596 Y-114.503 Z-3.231
X-91.636 Y-114.533 Z-3.18
X-91.667 Y-114.555 Z-3.12
X-91.686 Y-114.569 Z-3.053
X-91.692 Y-114.574 Z-2.983
Z15

M5
M30
