(Rippe)
(Bearbeiten)
(  Hersteller: ChinaCnc)
(  model: 3040T)
(  description: Generic 3-axis)
(T5 D=3.175 CR=0 - ZMIN=-4.4 - Schaftfrser)
G90 G94
G17
G21
(-Attention- Property Safe Retracts is set to Clearance Height.)
(Ensure the clearance height will clear the part and or fixtures.)
(Raise the Z-axis to a safe height before starting the program.)
(When using Fusion 360 for Personal Use, the feedrate of)
(rapid moves is reduced to match the feedrate of cutting)
(moves, which can increase machining time. Unrestricted rapid)
(moves are available with a Fusion 360 Subscription.)

(Bohrfrsen1)
M0
(MANUAL TOOL CHANGE TO T5)
S3000 M3
G17 G90 G94
G54
G0 X-57.682 Y-104.795
Z15
G1 Z2 F1000
Z0.318
G19 G3 Y-104.478 Z0 J0.317 K0
G1 Y-104.319
G17 G3 X-58 Y-104.001 I-0.318 J0
X-58 Y-111.026 Z-0.178 I0 J-3.512
X-58 Y-104.001 Z-0.356 I0 J3.512
X-58 Y-111.026 Z-0.534 I0 J-3.512
X-58 Y-104.001 Z-0.712 I0 J3.512
X-58 Y-111.026 Z-0.89 I0 J-3.512
X-58 Y-104.001 Z-1.069 I0 J3.512
X-58 Y-111.026 Z-1.247 I0 J-3.512
X-58 Y-104.001 Z-1.425 I0 J3.512
X-58 Y-111.026 Z-1.603 I0 J-3.512
X-58 Y-104.001 Z-1.781 I0 J3.512
X-58 Y-111.026 Z-1.959 I0 J-3.512
X-58 Y-104.001 Z-2.137 I0 J3.512
X-58 Y-111.026 Z-2.315 I0 J-3.512
X-58 Y-104.001 Z-2.493 I0 J3.512
X-58 Y-111.026 Z-2.671 I0 J-3.512
X-58 Y-104.001 Z-2.85 I0 J3.512
X-58 Y-111.026 Z-3.028 I0 J-3.512
X-58 Y-104.001 Z-3.206 I0 J3.512
X-58 Y-111.026 Z-3.384 I0 J-3.512
X-58 Y-104.001 Z-3.562 I0 J3.512
X-58 Y-111.026 Z-3.74 I0 J-3.512
X-58 Y-104.001 Z-3.918 I0 J3.512
X-58 Y-111.026 Z-4.096 I0 J-3.512
X-58 Y-104.001 Z-4.274 I0 J3.512
X-60.804 Y-109.63 Z-4.4 I0 J-3.512
X-55.196 Y-105.398 I2.804 J2.116
X-60.804 Y-109.63 I-2.804 J-2.116
X-60.359 Y-109.692 I0.253 J0.191
G1 X-60.232 Y-109.596
X-60.176 Y-109.554 Z-4.392
X-60.122 Y-109.513 Z-4.369
X-60.074 Y-109.477 Z-4.331
X-60.034 Y-109.447 Z-4.28
X-60.004 Y-109.424 Z-4.22
X-59.985 Y-109.41 Z-4.153
X-59.979 Y-109.405 Z-4.082
Z5
X-58.318 Y-61.101
Z2
Z0.317
G19 G2 Y-61.419 Z0 J-0.318 K0
G1 Y-61.578
G17 G3 X-58 Y-61.895 I0.318 J0
X-58 Y-54.87 Z-0.178 I0 J3.513
X-58 Y-61.895 Z-0.356 I0 J-3.513
X-58 Y-54.87 Z-0.534 I0 J3.513
X-58 Y-61.895 Z-0.712 I0 J-3.513
X-58 Y-54.87 Z-0.89 I0 J3.513
X-58 Y-61.895 Z-1.069 I0 J-3.513
X-58 Y-54.87 Z-1.247 I0 J3.513
X-58 Y-61.895 Z-1.425 I0 J-3.513
X-58 Y-54.87 Z-1.603 I0 J3.513
X-58 Y-61.895 Z-1.781 I0 J-3.513
X-58 Y-54.87 Z-1.959 I0 J3.513
X-58 Y-61.895 Z-2.137 I0 J-3.513
X-58 Y-54.87 Z-2.315 I0 J3.513
X-58 Y-61.895 Z-2.493 I0 J-3.513
X-58 Y-54.87 Z-2.671 I0 J3.513
X-58 Y-61.895 Z-2.85 I0 J-3.513
X-58 Y-54.87 Z-3.028 I0 J3.513
X-58 Y-61.895 Z-3.206 I0 J-3.513
X-58 Y-54.87 Z-3.384 I0 J3.513
X-58 Y-61.895 Z-3.562 I0 J-3.513
X-58 Y-54.87 Z-3.74 I0 J3.513
X-58 Y-61.895 Z-3.918 I0 J-3.513
X-58 Y-54.87 Z-4.096 I0 J3.513
X-58 Y-61.895 Z-4.274 I0 J-3.513
X-55.196 Y-56.267 Z-4.4 I0 J3.513
X-60.804 Y-60.499 I-2.804 J-2.116
X-55.196 Y-56.267 I2.804 J2.116
X-55.641 Y-56.205 I-0.253 J-0.191
G1 X-55.768 Y-56.3
X-55.824 Y-56.343 Z-4.392
X-55.878 Y-56.383 Z-4.369
X-55.926 Y-56.42 Z-4.331
X-55.966 Y-56.45 Z-4.28
X-55.996 Y-56.473 Z-4.22
X-56.015 Y-56.487 Z-4.153
X-56.021 Y-56.492 Z-4.082
Z5
X-51.604 Y-21.817
Z2
Z0.317
G18 G2 X-51.287 Z0 I0.317 K0
G1 X-51.128
G17 G3 X-50.81 Y-21.5 I0 J0.317
X-57.635 Y-21.5 Z-0.175 I-3.412 J0
X-50.81 Y-21.5 Z-0.349 I3.412 J0
X-57.635 Y-21.5 Z-0.524 I-3.412 J0
X-50.81 Y-21.5 Z-0.698 I3.412 J0
X-57.635 Y-21.5 Z-0.873 I-3.412 J0
X-50.81 Y-21.5 Z-1.048 I3.412 J0
X-57.635 Y-21.5 Z-1.222 I-3.412 J0
X-50.81 Y-21.5 Z-1.397 I3.412 J0
X-57.635 Y-21.5 Z-1.571 I-3.412 J0
X-50.81 Y-21.5 Z-1.746 I3.412 J0
X-57.635 Y-21.5 Z-1.921 I-3.412 J0
X-50.81 Y-21.5 Z-2.095 I3.412 J0
X-57.635 Y-21.5 Z-2.27 I-3.412 J0
X-50.81 Y-21.5 Z-2.444 I3.412 J0
X-57.635 Y-21.5 Z-2.619 I-3.412 J0
X-50.81 Y-21.5 Z-2.794 I3.412 J0
X-57.635 Y-21.5 Z-2.968 I-3.412 J0
X-50.81 Y-21.5 Z-3.143 I3.412 J0
X-57.635 Y-21.5 Z-3.317 I-3.412 J0
X-50.81 Y-21.5 Z-3.492 I3.412 J0
X-57.635 Y-21.5 Z-3.667 I-3.412 J0
X-50.81 Y-21.5 Z-3.841 I3.413 J0
X-57.635 Y-21.5 Z-4.016 I-3.413 J0
X-50.81 Y-21.5 Z-4.19 I3.413 J0
X-57.635 Y-21.5 Z-4.365 I-3.413 J0
X-56.984 Y-23.505 Z-4.4 I3.413 J0
X-51.461 Y-19.495 I2.761 J2.005
X-56.984 Y-23.505 I-2.761 J-2.005
X-56.541 Y-23.575 I0.257 J0.187
G1 X-56.412 Y-23.482
X-56.355 Y-23.441 Z-4.392
X-56.301 Y-23.401 Z-4.369
X-56.252 Y-23.366 Z-4.331
X-56.211 Y-23.336 Z-4.28
X-56.181 Y-23.314 Z-4.22
X-56.162 Y-23.3 Z-4.153
X-56.155 Y-23.296 Z-4.082
Z5
X-131.625 Y-21.706
Z2
Z0.317
G18 G2 X-131.308 Z0 I0.317 K0
G1 X-131.149
G17 G3 X-130.943 Y-21.5 I0 J0.206
X-131.768 Y-21.5 Z-0.07 I-0.413 J0
X-130.943 Y-21.5 Z-0.14 I0.413 J0
X-131.768 Y-21.5 Z-0.21 I-0.413 J0
X-130.943 Y-21.5 Z-0.279 I0.413 J0
X-131.768 Y-21.5 Z-0.349 I-0.413 J0
X-130.943 Y-21.5 Z-0.419 I0.413 J0
X-131.768 Y-21.5 Z-0.489 I-0.413 J0
X-130.943 Y-21.5 Z-0.559 I0.413 J0
X-131.768 Y-21.5 Z-0.629 I-0.413 J0
X-130.943 Y-21.5 Z-0.698 I0.413 J0
X-131.768 Y-21.5 Z-0.768 I-0.413 J0
X-130.943 Y-21.5 Z-0.838 I0.413 J0
X-131.768 Y-21.5 Z-0.908 I-0.413 J0
X-130.943 Y-21.5 Z-0.978 I0.413 J0
X-131.768 Y-21.5 Z-1.048 I-0.413 J0
X-130.943 Y-21.5 Z-1.117 I0.413 J0
X-131.768 Y-21.5 Z-1.187 I-0.413 J0
X-130.943 Y-21.5 Z-1.257 I0.413 J0
X-131.768 Y-21.5 Z-1.327 I-0.413 J0
X-130.943 Y-21.5 Z-1.397 I0.413 J0
X-131.768 Y-21.5 Z-1.467 I-0.413 J0
X-130.943 Y-21.5 Z-1.537 I0.413 J0
X-131.768 Y-21.5 Z-1.606 I-0.413 J0
X-130.943 Y-21.5 Z-1.676 I0.413 J0
X-131.768 Y-21.5 Z-1.746 I-0.413 J0
X-130.943 Y-21.5 Z-1.816 I0.413 J0
X-131.768 Y-21.5 Z-1.886 I-0.412 J0
X-130.943 Y-21.5 Z-1.956 I0.412 J0
X-131.768 Y-21.5 Z-2.025 I-0.412 J0
X-130.943 Y-21.5 Z-2.095 I0.412 J0
X-131.768 Y-21.5 Z-2.165 I-0.412 J0
X-130.943 Y-21.5 Z-2.235 I0.412 J0
X-131.768 Y-21.5 Z-2.305 I-0.412 J0
X-130.943 Y-21.5 Z-2.375 I0.412 J0
X-131.768 Y-21.5 Z-2.444 I-0.412 J0
X-130.943 Y-21.5 Z-2.514 I0.412 J0
X-131.768 Y-21.5 Z-2.584 I-0.412 J0
X-130.943 Y-21.5 Z-2.654 I0.412 J0
X-131.768 Y-21.5 Z-2.724 I-0.412 J0
X-130.943 Y-21.5 Z-2.794 I0.412 J0
X-131.768 Y-21.5 Z-2.864 I-0.412 J0
X-130.943 Y-21.5 Z-2.933 I0.412 J0
X-131.768 Y-21.5 Z-3.003 I-0.412 J0
X-130.943 Y-21.5 Z-3.073 I0.412 J0
X-131.768 Y-21.5 Z-3.143 I-0.412 J0
X-130.943 Y-21.5 Z-3.213 I0.412 J0
X-131.768 Y-21.5 Z-3.283 I-0.412 J0
X-130.943 Y-21.5 Z-3.352 I0.412 J0
X-131.768 Y-21.5 Z-3.422 I-0.412 J0
X-130.943 Y-21.5 Z-3.492 I0.412 J0
X-131.768 Y-21.5 Z-3.562 I-0.412 J0
X-130.943 Y-21.5 Z-3.632 I0.412 J0
X-131.768 Y-21.5 Z-3.702 I-0.412 J0
X-130.943 Y-21.5 Z-3.771 I0.412 J0
X-131.768 Y-21.5 Z-3.841 I-0.412 J0
X-130.943 Y-21.5 Z-3.911 I0.412 J0
X-131.768 Y-21.5 Z-3.981 I-0.412 J0
X-130.943 Y-21.5 Z-4.051 I0.412 J0
X-131.768 Y-21.5 Z-4.121 I-0.412 J0
X-130.943 Y-21.5 Z-4.19 I0.412 J0
X-131.768 Y-21.5 Z-4.26 I-0.412 J0
X-130.943 Y-21.5 Z-4.33 I0.412 J0
X-131.768 Y-21.5 Z-4.4 I-0.412 J0
X-130.943 Y-21.5 I0.412 J0
X-131.768 Y-21.5 I-0.412 J0
X-131.562 Y-21.706 I0.206 J0
G1 X-131.403
X-131.332 Z-4.392
X-131.265 Z-4.369
X-131.205 Z-4.331
X-131.155 Z-4.28
X-131.117 Z-4.22
X-131.093 Z-4.153
X-131.085 Z-4.082
Z5
X-205.869 Y-21.817
Z2
Z0.317
G18 G2 X-205.551 Z0 I0.317 K0
G1 X-205.392
G17 G3 X-205.075 Y-21.5 I0 J0.317
X-211.9 Y-21.5 Z-0.175 I-3.413 J0
X-205.075 Y-21.5 Z-0.349 I3.413 J0
X-211.9 Y-21.5 Z-0.524 I-3.413 J0
X-205.075 Y-21.5 Z-0.698 I3.413 J0
X-211.9 Y-21.5 Z-0.873 I-3.413 J0
X-205.075 Y-21.5 Z-1.048 I3.413 J0
X-211.9 Y-21.5 Z-1.222 I-3.413 J0
X-205.075 Y-21.5 Z-1.397 I3.413 J0
X-211.9 Y-21.5 Z-1.571 I-3.413 J0
X-205.075 Y-21.5 Z-1.746 I3.413 J0
X-211.9 Y-21.5 Z-1.921 I-3.413 J0
X-205.075 Y-21.5 Z-2.095 I3.413 J0
X-211.9 Y-21.5 Z-2.27 I-3.413 J0
X-205.075 Y-21.5 Z-2.444 I3.413 J0
X-211.9 Y-21.5 Z-2.619 I-3.413 J0
X-205.075 Y-21.5 Z-2.794 I3.413 J0
X-211.9 Y-21.5 Z-2.968 I-3.413 J0
X-205.075 Y-21.5 Z-3.143 I3.413 J0
X-211.9 Y-21.5 Z-3.317 I-3.413 J0
X-205.075 Y-21.5 Z-3.492 I3.413 J0
X-211.9 Y-21.5 Z-3.667 I-3.413 J0
X-205.075 Y-21.5 Z-3.841 I3.413 J0
X-211.9 Y-21.5 Z-4.016 I-3.413 J0
X-205.075 Y-21.5 Z-4.19 I3.413 J0
X-211.9 Y-21.5 Z-4.365 I-3.413 J0
X-211.249 Y-23.505 Z-4.4 I3.413 J0
X-205.726 Y-19.495 I2.761 J2.005
X-211.249 Y-23.505 I-2.761 J-2.005
X-210.805 Y-23.575 I0.257 J0.187
G1 X-210.677 Y-23.482
X-210.62 Y-23.441 Z-4.392
X-210.565 Y-23.401 Z-4.369
X-210.517 Y-23.366 Z-4.331
X-210.476 Y-23.336 Z-4.28
X-210.445 Y-23.314 Z-4.22
X-210.426 Y-23.3 Z-4.153
X-210.42 Y-23.296 Z-4.082
Z5
X-178.318 Y-60.101
Z2
Z0.317
G19 G2 Y-60.419 Z0 J-0.318 K0
G1 Y-60.578
G17 G3 X-178 Y-60.895 I0.318 J0
X-178 Y-53.87 Z-0.178 I0 J3.513
X-178 Y-60.895 Z-0.356 I0 J-3.513
X-178 Y-53.87 Z-0.534 I0 J3.513
X-178 Y-60.895 Z-0.712 I0 J-3.513
X-178 Y-53.87 Z-0.89 I0 J3.513
X-178 Y-60.895 Z-1.069 I0 J-3.513
X-178 Y-53.87 Z-1.247 I0 J3.513
X-178 Y-60.895 Z-1.425 I0 J-3.513
X-178 Y-53.87 Z-1.603 I0 J3.512
X-178 Y-60.895 Z-1.781 I0 J-3.512
X-178 Y-53.87 Z-1.959 I0 J3.512
X-178 Y-60.895 Z-2.137 I0 J-3.512
X-178 Y-53.87 Z-2.315 I0 J3.512
X-178 Y-60.895 Z-2.493 I0 J-3.512
X-178 Y-53.87 Z-2.671 I0 J3.512
X-178 Y-60.895 Z-2.85 I0 J-3.512
X-178 Y-53.87 Z-3.028 I0 J3.512
X-178 Y-60.895 Z-3.206 I0 J-3.512
X-178 Y-53.87 Z-3.384 I0 J3.512
X-178 Y-60.895 Z-3.562 I0 J-3.512
X-178 Y-53.87 Z-3.74 I0 J3.512
X-178 Y-60.895 Z-3.918 I0 J-3.512
X-178 Y-53.87 Z-4.096 I0 J3.512
X-178 Y-60.895 Z-4.274 I0 J-3.512
X-175.196 Y-55.267 Z-4.4 I0 J3.512
X-180.804 Y-59.499 I-2.804 J-2.116
X-175.196 Y-55.267 I2.804 J2.116
X-175.641 Y-55.205 I-0.253 J-0.191
G1 X-175.768 Y-55.3
X-175.824 Y-55.343 Z-4.392
X-175.878 Y-55.383 Z-4.369
X-175.926 Y-55.42 Z-4.331
X-175.966 Y-55.45 Z-4.28
X-175.996 Y-55.473 Z-4.22
X-176.015 Y-55.487 Z-4.153
X-176.021 Y-55.492 Z-4.082
Z5
X-177.682 Y-105.795
Z2
Z0.318
G19 G3 Y-105.478 Z0 J0.317 K0
G1 Y-105.319
G17 G3 X-178 Y-105.001 I-0.318 J0
X-178 Y-112.026 Z-0.178 I0 J-3.512
X-178 Y-105.001 Z-0.356 I0 J3.512
X-178 Y-112.026 Z-0.534 I0 J-3.512
X-178 Y-105.001 Z-0.712 I0 J3.512
X-178 Y-112.026 Z-0.89 I0 J-3.512
X-178 Y-105.001 Z-1.069 I0 J3.512
X-178 Y-112.026 Z-1.247 I0 J-3.512
X-178 Y-105.001 Z-1.425 I0 J3.512
X-178 Y-112.026 Z-1.603 I0 J-3.512
X-178 Y-105.001 Z-1.781 I0 J3.512
X-178 Y-112.026 Z-1.959 I0 J-3.512
X-178 Y-105.001 Z-2.137 I0 J3.512
X-178 Y-112.026 Z-2.315 I0 J-3.512
X-178 Y-105.001 Z-2.493 I0 J3.512
X-178 Y-112.026 Z-2.671 I0 J-3.512
X-178 Y-105.001 Z-2.85 I0 J3.512
X-178 Y-112.026 Z-3.028 I0 J-3.512
X-178 Y-105.001 Z-3.206 I0 J3.512
X-178 Y-112.026 Z-3.384 I0 J-3.512
X-178 Y-105.001 Z-3.562 I0 J3.512
X-178 Y-112.026 Z-3.74 I0 J-3.512
X-178 Y-105.001 Z-3.918 I0 J3.512
X-178 Y-112.026 Z-4.096 I0 J-3.512
X-178 Y-105.001 Z-4.274 I0 J3.512
X-180.804 Y-110.63 Z-4.4 I0 J-3.512
X-175.196 Y-106.398 I2.804 J2.116
X-180.804 Y-110.63 I-2.804 J-2.116
X-180.359 Y-110.692 I0.253 J0.191
G1 X-180.232 Y-110.596
X-180.176 Y-110.554 Z-4.392
X-180.122 Y-110.513 Z-4.369
X-180.074 Y-110.477 Z-4.331
X-180.034 Y-110.447 Z-4.28
X-180.004 Y-110.424 Z-4.22
X-179.985 Y-110.41 Z-4.153
X-179.979 Y-110.405 Z-4.082
Z15
(When using Fusion 360 for Personal Use, the feedrate of)
(rapid moves is reduced to match the feedrate of cutting)
(moves, which can increase machining time. Unrestricted rapid)
(moves are available with a Fusion 360 Subscription.)

(2D-Kontur2)
G0 X-165.023 Y-59.524
G1 Z15 F1000
Z5
Z2.5 F333.3
S5000
X-164.794 Y-59.679 Z2.49
X-164.443 Y-59.883 Z2.476
X-164.054 Y-60.074 Z2.461
X-163.629 Y-60.25 Z2.445
X-163.169 Y-60.407 Z2.428
X-162.679 Y-60.541 Z2.41
X-162.159 Y-60.649 Z2.392
X-161.617 Y-60.729 Z2.373
X-161.059 Y-60.778 Z2.353
X-160.491 Y-60.795 Z2.333
X-159.92 Y-60.777 Z2.313
X-159.359 Y-60.727 Z2.294
X-158.812 Y-60.644 Z2.274
X-158.287 Y-60.532 Z2.255
X-157.791 Y-60.394 Z2.238
X-157.326 Y-60.233 Z2.22
X-156.897 Y-60.052 Z2.204
X-156.507 Y-59.856 Z2.189
X-156.156 Y-59.648 Z2.175
X-155.844 Y-59.431 Z2.161
X-155.57 Y-59.208 Z2.149
X-155.335 Y-58.984 Z2.138
X-155.138 Y-58.761 Z2.127
X-154.975 Y-58.541 Z2.118
X-154.845 Y-58.326 Z2.109
X-154.744 Y-58.117 Z2.101
X-154.671 Y-57.914 Z2.093
X-154.622 Y-57.718 Z2.086
X-154.595 Y-57.527 Z2.079
X-154.59 Y-57.339 Z2.073
X-154.606 Y-57.148 Z2.066
X-154.642 Y-56.955 Z2.059
X-154.702 Y-56.756 Z2.052
X-154.787 Y-56.553 Z2.044
X-154.899 Y-56.344 Z2.036
X-155.043 Y-56.128 Z2.027
X-155.22 Y-55.907 Z2.017
X-155.431 Y-55.686 Z2.007
X-155.679 Y-55.465 Z1.995
X-155.963 Y-55.248 Z1.982
X-156.285 Y-55.037 Z1.969
X-156.646 Y-54.836 Z1.955
X-157.044 Y-54.648 Z1.939
X-157.477 Y-54.477 Z1.923
X-157.944 Y-54.325 Z1.906
X-158.442 Y-54.197 Z1.888
X-158.967 Y-54.094 Z1.869
X-159.513 Y-54.022 Z1.85
X-160.076 Y-53.98 Z1.83
X-160.645 Y-53.972 Z1.81
X-161.213 Y-53.997 Z1.79
X-161.772 Y-54.056 Z1.771
X-162.315 Y-54.145 Z1.752
X-162.834 Y-54.264 Z1.733
X-163.323 Y-54.408 Z1.715
X-163.779 Y-54.574 Z1.698
X-164.197 Y-54.758 Z1.682
X-164.579 Y-54.958 Z1.667
X-164.921 Y-55.169 Z1.653
X-165.225 Y-55.388 Z1.64
X-165.489 Y-55.61 Z1.628
X-165.714 Y-55.834 Z1.617
X-165.904 Y-56.058 Z1.607
X-166.06 Y-56.277 Z1.597
X-166.182 Y-56.489 Z1.589
X-166.275 Y-56.697 Z1.581
X-166.343 Y-56.897 Z1.573
X-166.386 Y-57.092 Z1.567
X-166.41 Y-57.303 Z1.559
X-166.411 Y-57.36 Z1.557
X-166.4 Y-57.573 Z1.55
X-166.368 Y-57.766 Z1.543
X-166.315 Y-57.961 Z1.536
X-166.236 Y-58.163 Z1.528
X-166.13 Y-58.372 Z1.52
X-165.994 Y-58.587 Z1.511
X-165.826 Y-58.805 Z1.502
X-165.623 Y-59.027 Z1.491
X-165.383 Y-59.248 Z1.48
X-165.108 Y-59.467 Z1.467
X-164.794 Y-59.679 Z1.454
X-164.443 Y-59.883 Z1.44
X-164.054 Y-60.074 Z1.425
X-163.629 Y-60.25 Z1.409
X-163.169 Y-60.407 Z1.392
X-162.679 Y-60.541 Z1.374
X-162.159 Y-60.649 Z1.356
X-161.617 Y-60.729 Z1.336
X-161.059 Y-60.778 Z1.317
X-160.491 Y-60.795 Z1.297
X-159.92 Y-60.777 Z1.277
X-159.359 Y-60.727 Z1.257
X-158.812 Y-60.644 Z1.238
X-158.287 Y-60.532 Z1.219
X-157.791 Y-60.394 Z1.201
X-157.326 Y-60.233 Z1.184
X-156.897 Y-60.052 Z1.168
X-156.507 Y-59.856 Z1.153
X-156.156 Y-59.648 Z1.138
X-155.844 Y-59.431 Z1.125
X-155.57 Y-59.208 Z1.113
X-155.335 Y-58.984 Z1.101
X-155.138 Y-58.761 Z1.091
X-154.975 Y-58.541 Z1.081
X-154.845 Y-58.326 Z1.073
X-154.744 Y-58.117 Z1.065
X-154.671 Y-57.914 Z1.057
X-154.622 Y-57.718 Z1.05
X-154.595 Y-57.527 Z1.043
X-154.59 Y-57.339 Z1.037
X-154.606 Y-57.148 Z1.03
X-154.642 Y-56.955 Z1.023
X-154.702 Y-56.756 Z1.016
X-154.787 Y-56.553 Z1.008
X-154.899 Y-56.344 Z1
X-155.043 Y-56.128 Z0.991
X-155.22 Y-55.907 Z0.981
X-155.431 Y-55.686 Z0.97
X-155.679 Y-55.465 Z0.959
X-155.963 Y-55.248 Z0.946
X-156.285 Y-55.037 Z0.933
X-156.646 Y-54.836 Z0.918
X-157.044 Y-54.648 Z0.903
X-157.477 Y-54.477 Z0.887
X-157.944 Y-54.325 Z0.87
X-158.442 Y-54.197 Z0.852
X-158.967 Y-54.094 Z0.833
X-159.513 Y-54.022 Z0.814
X-160.076 Y-53.98 Z0.794
X-160.645 Y-53.972 Z0.774
X-161.213 Y-53.997 Z0.754
X-161.772 Y-54.056 Z0.735
X-162.315 Y-54.145 Z0.715
X-162.834 Y-54.264 Z0.697
X-163.323 Y-54.408 Z0.679
X-163.779 Y-54.574 Z0.662
X-164.197 Y-54.758 Z0.646
X-164.579 Y-54.958 Z0.631
X-164.921 Y-55.169 Z0.617
X-165.225 Y-55.388 Z0.604
X-165.489 Y-55.61 Z0.592
X-165.714 Y-55.834 Z0.581
X-165.904 Y-56.058 Z0.571
X-166.06 Y-56.277 Z0.561
X-166.182 Y-56.489 Z0.553
X-166.275 Y-56.697 Z0.545
X-166.343 Y-56.897 Z0.537
X-166.386 Y-57.092 Z0.53
X-166.41 Y-57.303 Z0.523
X-166.411 Y-57.36 Z0.521
X-166.4 Y-57.573 Z0.513
X-166.368 Y-57.766 Z0.507
X-166.315 Y-57.961 Z0.5
X-166.236 Y-58.163 Z0.492
X-166.13 Y-58.372 Z0.484
X-165.994 Y-58.587 Z0.475
X-165.826 Y-58.805 Z0.465
X-165.623 Y-59.027 Z0.455
X-165.383 Y-59.248 Z0.443
X-165.108 Y-59.467 Z0.431
X-164.794 Y-59.679 Z0.418
X-164.443 Y-59.883 Z0.404
X-164.054 Y-60.074 Z0.389
X-163.629 Y-60.25 Z0.373
X-163.169 Y-60.407 Z0.356
X-162.679 Y-60.541 Z0.338
X-162.159 Y-60.649 Z0.319
X-161.617 Y-60.729 Z0.3
X-161.059 Y-60.778 Z0.281
X-160.491 Y-60.795 Z0.261
X-159.92 Y-60.777 Z0.241
X-159.359 Y-60.727 Z0.221
X-158.812 Y-60.644 Z0.202
X-158.287 Y-60.532 Z0.183
X-157.791 Y-60.394 Z0.165
X-157.326 Y-60.233 Z0.148
X-156.897 Y-60.052 Z0.132
X-156.507 Y-59.856 Z0.116
X-156.156 Y-59.648 Z0.102
X-155.844 Y-59.431 Z0.089
X-155.57 Y-59.208 Z0.077
X-155.335 Y-58.984 Z0.065
X-155.138 Y-58.761 Z0.055
X-154.975 Y-58.541 Z0.045
X-154.845 Y-58.326 Z0.036
X-154.744 Y-58.117 Z0.028
X-154.671 Y-57.914 Z0.021
X-154.622 Y-57.718 Z0.014
X-154.595 Y-57.527 Z0.007
X-154.59 Y-57.339 Z0
X-154.606 Y-57.148 Z-0.006
X-154.642 Y-56.955 Z-0.013
X-154.702 Y-56.756 Z-0.02
X-154.787 Y-56.553 Z-0.028
X-154.899 Y-56.344 Z-0.036
X-155.043 Y-56.128 Z-0.045
X-155.22 Y-55.907 Z-0.055
X-155.431 Y-55.686 Z-0.066
X-155.679 Y-55.465 Z-0.078
X-155.963 Y-55.248 Z-0.09
X-156.285 Y-55.037 Z-0.103
X-156.646 Y-54.836 Z-0.118
X-157.044 Y-54.648 Z-0.133
X-157.477 Y-54.477 Z-0.15
X-157.944 Y-54.325 Z-0.167
X-158.442 Y-54.197 Z-0.185
X-158.967 Y-54.094 Z-0.203
X-159.513 Y-54.022 Z-0.223
X-160.076 Y-53.98 Z-0.242
X-160.645 Y-53.972 Z-0.262
X-161.213 Y-53.997 Z-0.282
X-161.772 Y-54.056 Z-0.302
X-162.315 Y-54.145 Z-0.321
X-162.834 Y-54.264 Z-0.339
X-163.323 Y-54.408 Z-0.357
X-163.779 Y-54.574 Z-0.374
X-164.197 Y-54.758 Z-0.39
X-164.579 Y-54.958 Z-0.405
X-164.921 Y-55.169 Z-0.419
X-165.225 Y-55.388 Z-0.432
X-165.489 Y-55.61 Z-0.444
X-165.714 Y-55.834 Z-0.455
X-165.904 Y-56.058 Z-0.466
X-166.06 Y-56.277 Z-0.475
X-166.182 Y-56.489 Z-0.484
X-166.275 Y-56.697 Z-0.492
X-166.343 Y-56.897 Z-0.499
X-166.386 Y-57.092 Z-0.506
X-166.41 Y-57.303 Z-0.513
X-166.411 Y-57.36 Z-0.515
X-166.4 Y-57.573 Z-0.523
X-166.368 Y-57.766 Z-0.53
X-166.315 Y-57.961 Z-0.537
X-166.236 Y-58.163 Z-0.544
X-166.13 Y-58.372 Z-0.552
X-165.994 Y-58.587 Z-0.561
X-165.826 Y-58.805 Z-0.571
X-165.623 Y-59.027 Z-0.581
X-165.383 Y-59.248 Z-0.593
X-165.108 Y-59.467 Z-0.605
X-164.794 Y-59.679 Z-0.618
X-164.443 Y-59.883 Z-0.632
X-164.054 Y-60.074 Z-0.648
X-163.629 Y-60.25 Z-0.664
X-163.169 Y-60.407 Z-0.681
X-162.679 Y-60.541 Z-0.698
X-162.159 Y-60.649 Z-0.717
X-161.617 Y-60.729 Z-0.736
X-161.059 Y-60.778 Z-0.756
X-160.491 Y-60.795 Z-0.775
X-159.92 Y-60.777 Z-0.795
X-159.359 Y-60.727 Z-0.815
X-158.812 Y-60.644 Z-0.834
X-158.287 Y-60.532 Z-0.853
X-157.791 Y-60.394 Z-0.871
X-157.326 Y-60.233 Z-0.888
X-156.897 Y-60.052 Z-0.905
X-156.507 Y-59.856 Z-0.92
X-156.156 Y-59.648 Z-0.934
X-155.844 Y-59.431 Z-0.947
X-155.57 Y-59.208 Z-0.96
X-155.335 Y-58.984 Z-0.971
X-155.138 Y-58.761 Z-0.981
X-154.975 Y-58.541 Z-0.991
X-154.845 Y-58.326 Z-1
X-154.744 Y-58.117 Z-1.008
X-154.671 Y-57.914 Z-1.015
X-154.622 Y-57.718 Z-1.022
X-154.595 Y-57.527 Z-1.029
X-154.59 Y-57.339 Z-1.036
X-154.606 Y-57.148 Z-1.042
X-154.642 Y-56.955 Z-1.049
X-154.702 Y-56.756 Z-1.057
X-154.787 Y-56.553 Z-1.064
X-154.899 Y-56.344 Z-1.073
X-155.043 Y-56.128 Z-1.082
X-155.22 Y-55.907 Z-1.091
X-155.431 Y-55.686 Z-1.102
X-155.679 Y-55.465 Z-1.114
X-155.963 Y-55.248 Z-1.126
X-156.285 Y-55.037 Z-1.14
X-156.646 Y-54.836 Z-1.154
X-157.044 Y-54.648 Z-1.169
X-157.477 Y-54.477 Z-1.186
X-157.944 Y-54.325 Z-1.203
X-158.442 Y-54.197 Z-1.221
X-158.967 Y-54.094 Z-1.24
X-159.513 Y-54.022 Z-1.259
X-160.076 Y-53.98 Z-1.278
X-160.645 Y-53.972 Z-1.298
X-161.213 Y-53.997 Z-1.318
X-161.772 Y-54.056 Z-1.338
X-162.315 Y-54.145 Z-1.357
X-162.834 Y-54.264 Z-1.376
X-163.323 Y-54.408 Z-1.393
X-163.779 Y-54.574 Z-1.41
X-164.197 Y-54.758 Z-1.426
X-164.579 Y-54.958 Z-1.441
X-164.921 Y-55.169 Z-1.455
X-165.225 Y-55.388 Z-1.468
X-165.489 Y-55.61 Z-1.481
X-165.714 Y-55.834 Z-1.492
X-165.904 Y-56.058 Z-1.502
X-166.06 Y-56.277 Z-1.511
X-166.182 Y-56.489 Z-1.52
X-166.275 Y-56.697 Z-1.528
X-166.343 Y-56.897 Z-1.535
X-166.386 Y-57.092 Z-1.542
X-166.41 Y-57.303 Z-1.55
X-166.411 Y-57.36 Z-1.552
X-166.4 Y-57.573 Z-1.559
X-166.368 Y-57.766 Z-1.566
X-166.315 Y-57.961 Z-1.573
X-166.236 Y-58.163 Z-1.58
X-166.13 Y-58.372 Z-1.589
X-165.994 Y-58.587 Z-1.598
X-165.826 Y-58.805 Z-1.607
X-165.623 Y-59.027 Z-1.618
X-165.383 Y-59.248 Z-1.629
X-165.108 Y-59.467 Z-1.641
X-164.794 Y-59.679 Z-1.655
X-164.443 Y-59.883 Z-1.669
X-164.054 Y-60.074 Z-1.684
X-163.629 Y-60.25 Z-1.7
X-163.169 Y-60.407 Z-1.717
X-162.679 Y-60.541 Z-1.735
X-162.159 Y-60.649 Z-1.753
X-161.617 Y-60.729 Z-1.772
X-161.059 Y-60.778 Z-1.792
X-160.491 Y-60.795 Z-1.812
X-159.92 Y-60.777 Z-1.832
X-159.359 Y-60.727 Z-1.851
X-158.812 Y-60.644 Z-1.871
X-158.287 Y-60.532 Z-1.889
X-157.791 Y-60.394 Z-1.907
X-157.326 Y-60.233 Z-1.925
X-156.897 Y-60.052 Z-1.941
X-156.507 Y-59.856 Z-1.956
X-156.156 Y-59.648 Z-1.97
X-155.844 Y-59.431 Z-1.984
X-155.57 Y-59.208 Z-1.996
X-155.335 Y-58.984 Z-2.007
X-155.138 Y-58.761 Z-2.018
X-154.975 Y-58.541 Z-2.027
X-154.845 Y-58.326 Z-2.036
X-154.744 Y-58.117 Z-2.044
X-154.671 Y-57.914 Z-2.052
X-154.622 Y-57.718 Z-2.059
X-154.595 Y-57.527 Z-2.065
X-154.59 Y-57.339 Z-2.072
X-154.606 Y-57.148 Z-2.079
X-154.642 Y-56.955 Z-2.086
X-154.702 Y-56.756 Z-2.093
X-154.787 Y-56.553 Z-2.1
X-154.899 Y-56.344 Z-2.109
X-155.043 Y-56.128 Z-2.118
X-155.22 Y-55.907 Z-2.128
X-155.431 Y-55.686 Z-2.138
X-155.679 Y-55.465 Z-2.15
X-155.963 Y-55.248 Z-2.162
X-156.285 Y-55.037 Z-2.176
X-156.646 Y-54.836 Z-2.19
X-157.044 Y-54.648 Z-2.206
X-157.477 Y-54.477 Z-2.222
X-157.944 Y-54.325 Z-2.239
X-158.442 Y-54.197 Z-2.257
X-158.967 Y-54.094 Z-2.276
X-159.513 Y-54.022 Z-2.295
X-160.076 Y-53.98 Z-2.315
X-160.645 Y-53.972 Z-2.335
X-161.213 Y-53.997 Z-2.354
X-161.772 Y-54.056 Z-2.374
X-162.315 Y-54.145 Z-2.393
X-162.834 Y-54.264 Z-2.412
X-163.323 Y-54.408 Z-2.43
X-163.779 Y-54.574 Z-2.447
X-164.197 Y-54.758 Z-2.463
X-164.579 Y-54.958 Z-2.478
X-164.921 Y-55.169 Z-2.492
X-165.225 Y-55.388 Z-2.505
X-165.489 Y-55.61 Z-2.517
X-165.714 Y-55.834 Z-2.528
X-165.904 Y-56.058 Z-2.538
X-166.06 Y-56.277 Z-2.548
X-166.182 Y-56.489 Z-2.556
X-166.275 Y-56.697 Z-2.564
X-166.343 Y-56.897 Z-2.571
X-166.386 Y-57.092 Z-2.578
X-166.41 Y-57.303 Z-2.586
X-166.411 Y-57.36 Z-2.588
X-166.4 Y-57.573 Z-2.595
X-166.368 Y-57.766 Z-2.602
X-166.315 Y-57.961 Z-2.609
X-166.236 Y-58.163 Z-2.617
X-166.13 Y-58.372 Z-2.625
X-165.994 Y-58.587 Z-2.634
X-165.826 Y-58.805 Z-2.643
X-165.623 Y-59.027 Z-2.654
X-165.383 Y-59.248 Z-2.665
X-165.108 Y-59.467 Z-2.678
X-164.794 Y-59.679 Z-2.691
X-164.443 Y-59.883 Z-2.705
X-164.054 Y-60.074 Z-2.72
X-163.629 Y-60.25 Z-2.736
X-163.169 Y-60.407 Z-2.753
X-162.679 Y-60.541 Z-2.771
X-162.159 Y-60.649 Z-2.789
X-161.617 Y-60.729 Z-2.808
X-161.059 Y-60.778 Z-2.828
X-160.491 Y-60.795 Z-2.848
X-159.92 Y-60.777 Z-2.868
X-159.359 Y-60.727 Z-2.888
X-158.812 Y-60.644 Z-2.907
X-158.287 Y-60.532 Z-2.926
X-157.791 Y-60.394 Z-2.944
X-157.326 Y-60.233 Z-2.961
X-156.897 Y-60.052 Z-2.977
X-156.507 Y-59.856 Z-2.992
X-156.156 Y-59.648 Z-3.007
X-155.844 Y-59.431 Z-3.02
X-155.57 Y-59.208 Z-3.032
X-155.335 Y-58.984 Z-3.043
X-155.138 Y-58.761 Z-3.054
X-154.975 Y-58.541 Z-3.063
X-154.845 Y-58.326 Z-3.072
X-154.744 Y-58.117 Z-3.08
X-154.671 Y-57.914 Z-3.088
X-154.622 Y-57.718 Z-3.095
X-154.595 Y-57.527 Z-3.102
X-154.59 Y-57.339 Z-3.108
X-154.606 Y-57.148 Z-3.115
X-154.642 Y-56.955 Z-3.122
X-154.702 Y-56.756 Z-3.129
X-154.787 Y-56.553 Z-3.137
X-154.899 Y-56.344 Z-3.145
X-155.043 Y-56.128 Z-3.154
X-155.22 Y-55.907 Z-3.164
X-155.431 Y-55.686 Z-3.175
X-155.679 Y-55.465 Z-3.186
X-155.963 Y-55.248 Z-3.199
X-156.285 Y-55.037 Z-3.212
X-156.646 Y-54.836 Z-3.227
X-157.044 Y-54.648 Z-3.242
X-157.477 Y-54.477 Z-3.258
X-157.944 Y-54.325 Z-3.275
X-158.442 Y-54.197 Z-3.293
X-158.967 Y-54.094 Z-3.312
X-159.513 Y-54.022 Z-3.331
X-160.076 Y-53.98 Z-3.351
X-160.645 Y-53.972 Z-3.371
X-161.213 Y-53.997 Z-3.391
X-161.772 Y-54.056 Z-3.41
X-162.315 Y-54.145 Z-3.429
X-162.834 Y-54.264 Z-3.448
X-163.323 Y-54.408 Z-3.466
X-163.779 Y-54.574 Z-3.483
X-164.197 Y-54.758 Z-3.499
X-164.579 Y-54.958 Z-3.514
X-164.921 Y-55.169 Z-3.528
X-165.225 Y-55.388 Z-3.541
X-165.489 Y-55.61 Z-3.553
X-165.714 Y-55.834 Z-3.564
X-165.904 Y-56.058 Z-3.574
X-166.06 Y-56.277 Z-3.584
X-166.182 Y-56.489 Z-3.592
X-166.275 Y-56.697 Z-3.6
X-166.343 Y-56.897 Z-3.608
X-166.386 Y-57.092 Z-3.615
X-166.41 Y-57.303 Z-3.622
X-166.411 Y-57.36 Z-3.624
X-166.4 Y-57.573 Z-3.631
X-166.368 Y-57.766 Z-3.638
X-166.315 Y-57.961 Z-3.645
X-166.236 Y-58.163 Z-3.653
X-166.13 Y-58.372 Z-3.661
X-165.994 Y-58.587 Z-3.67
X-165.826 Y-58.805 Z-3.68
X-165.623 Y-59.027 Z-3.69
X-165.383 Y-59.248 Z-3.701
X-165.108 Y-59.467 Z-3.714
X-164.794 Y-59.679 Z-3.727
X-164.443 Y-59.883 Z-3.741
X-164.054 Y-60.074 Z-3.756
X-163.629 Y-60.25 Z-3.772
X-163.169 Y-60.407 Z-3.789
X-162.679 Y-60.541 Z-3.807
X-162.159 Y-60.649 Z-3.826
X-161.617 Y-60.729 Z-3.845
X-161.059 Y-60.778 Z-3.864
X-160.491 Y-60.795 Z-3.884
X-159.92 Y-60.777 Z-3.904
X-159.359 Y-60.727 Z-3.924
X-158.812 Y-60.644 Z-3.943
X-158.287 Y-60.532 Z-3.962
X-157.791 Y-60.394 Z-3.98
X-157.326 Y-60.233 Z-3.997
X-156.897 Y-60.052 Z-4.013
X-156.507 Y-59.856 Z-4.028
X-156.156 Y-59.648 Z-4.043
X-155.844 Y-59.431 Z-4.056
X-155.57 Y-59.208 Z-4.068
X-155.335 Y-58.984 Z-4.08
X-155.138 Y-58.761 Z-4.09
X-154.975 Y-58.541 Z-4.1
X-154.845 Y-58.326 Z-4.108
X-154.744 Y-58.117 Z-4.117
X-154.671 Y-57.914 Z-4.124
X-154.622 Y-57.718 Z-4.131
X-154.595 Y-57.527 Z-4.138
X-154.59 Y-57.339 Z-4.144
X-154.606 Y-57.148 Z-4.151
X-154.642 Y-56.955 Z-4.158
X-154.702 Y-56.756 Z-4.165
X-154.787 Y-56.553 Z-4.173
X-154.899 Y-56.344 Z-4.181
X-155.043 Y-56.128 Z-4.19
X-155.22 Y-55.907 Z-4.2
X-155.431 Y-55.686 Z-4.211
X-155.679 Y-55.465 Z-4.222
X-155.963 Y-55.248 Z-4.235
X-156.285 Y-55.037 Z-4.248
X-156.646 Y-54.836 Z-4.263
X-157.044 Y-54.648 Z-4.278
X-157.477 Y-54.477 Z-4.294
X-157.944 Y-54.325 Z-4.312
X-158.442 Y-54.197 Z-4.33
X-158.967 Y-54.094 Z-4.348
X-159.513 Y-54.022 Z-4.367
X-160.076 Y-53.98 Z-4.387
X-160.445 Y-53.975 Z-4.4
S3000
X-160.645 Y-53.972 F1000
X-161.213 Y-53.997
X-161.772 Y-54.056
X-162.315 Y-54.145
X-162.834 Y-54.264
X-163.323 Y-54.408
X-163.779 Y-54.574
X-164.197 Y-54.758
X-164.579 Y-54.958
X-164.921 Y-55.169
X-165.225 Y-55.388
X-165.489 Y-55.61
X-165.714 Y-55.834
X-165.904 Y-56.058
X-166.06 Y-56.277
X-166.182 Y-56.489
X-166.275 Y-56.697
X-166.343 Y-56.897
X-166.386 Y-57.092
X-166.41 Y-57.303
X-166.411 Y-57.36
X-166.4 Y-57.573
X-166.368 Y-57.766
X-166.315 Y-57.961
X-166.236 Y-58.163
X-166.13 Y-58.372
X-165.994 Y-58.587
X-165.826 Y-58.805
X-165.623 Y-59.027
X-165.383 Y-59.248
X-165.108 Y-59.467
X-164.794 Y-59.679
X-164.443 Y-59.883
X-164.054 Y-60.074
X-163.629 Y-60.25
X-163.169 Y-60.407
X-162.679 Y-60.541
X-162.159 Y-60.649
X-161.617 Y-60.729
X-161.059 Y-60.778
X-160.491 Y-60.795
X-159.92 Y-60.777
X-159.359 Y-60.727
X-158.812 Y-60.644
X-158.287 Y-60.532
X-157.791 Y-60.394
X-157.326 Y-60.233
X-156.897 Y-60.052
X-156.507 Y-59.856
X-156.156 Y-59.648
X-155.844 Y-59.431
X-155.57 Y-59.208
X-155.335 Y-58.984
X-155.138 Y-58.761
X-154.975 Y-58.541
X-154.845 Y-58.326
X-154.744 Y-58.117
X-154.671 Y-57.914
X-154.622 Y-57.718
X-154.595 Y-57.527
X-154.59 Y-57.339
X-154.606 Y-57.148
X-154.642 Y-56.955
X-154.702 Y-56.756
X-154.787 Y-56.553
X-154.899 Y-56.344
X-155.043 Y-56.128
X-155.22 Y-55.907
X-155.431 Y-55.686
X-155.679 Y-55.465
X-155.963 Y-55.248
X-156.285 Y-55.037
X-156.646 Y-54.836
X-157.044 Y-54.648
X-157.477 Y-54.477
X-157.944 Y-54.325
X-158.442 Y-54.197
X-158.967 Y-54.094
X-159.513 Y-54.022
X-160.076 Y-53.98
X-160.445 Y-53.975
Z5
X-196.023 Y-59.524
Z2.5 F333.3
S5000
X-195.794 Y-59.679 Z2.49
X-195.443 Y-59.883 Z2.476
X-195.054 Y-60.074 Z2.461
X-194.629 Y-60.25 Z2.445
X-194.169 Y-60.407 Z2.428
X-193.679 Y-60.541 Z2.41
X-193.159 Y-60.649 Z2.392
X-192.617 Y-60.729 Z2.373
X-192.059 Y-60.778 Z2.353
X-191.491 Y-60.795 Z2.333
X-190.92 Y-60.777 Z2.313
X-190.359 Y-60.727 Z2.294
X-189.812 Y-60.644 Z2.274
X-189.287 Y-60.532 Z2.255
X-188.791 Y-60.394 Z2.238
X-188.326 Y-60.233 Z2.22
X-187.897 Y-60.052 Z2.204
X-187.507 Y-59.856 Z2.189
X-187.156 Y-59.648 Z2.175
X-186.844 Y-59.431 Z2.161
X-186.57 Y-59.208 Z2.149
X-186.335 Y-58.984 Z2.138
X-186.138 Y-58.761 Z2.127
X-185.975 Y-58.541 Z2.118
X-185.845 Y-58.326 Z2.109
X-185.744 Y-58.117 Z2.101
X-185.671 Y-57.914 Z2.093
X-185.622 Y-57.718 Z2.086
X-185.595 Y-57.527 Z2.079
X-185.59 Y-57.339 Z2.073
X-185.606 Y-57.148 Z2.066
X-185.642 Y-56.955 Z2.059
X-185.702 Y-56.756 Z2.052
X-185.787 Y-56.553 Z2.044
X-185.899 Y-56.344 Z2.036
X-186.043 Y-56.128 Z2.027
X-186.22 Y-55.907 Z2.017
X-186.431 Y-55.686 Z2.007
X-186.679 Y-55.465 Z1.995
X-186.963 Y-55.248 Z1.982
X-187.285 Y-55.037 Z1.969
X-187.646 Y-54.836 Z1.955
X-188.044 Y-54.648 Z1.939
X-188.477 Y-54.477 Z1.923
X-188.944 Y-54.325 Z1.906
X-189.442 Y-54.197 Z1.888
X-189.967 Y-54.094 Z1.869
X-190.513 Y-54.022 Z1.85
X-191.076 Y-53.98 Z1.83
X-191.645 Y-53.972 Z1.81
X-192.213 Y-53.997 Z1.79
X-192.772 Y-54.056 Z1.771
X-193.315 Y-54.145 Z1.752
X-193.834 Y-54.264 Z1.733
X-194.323 Y-54.408 Z1.715
X-194.779 Y-54.574 Z1.698
X-195.197 Y-54.758 Z1.682
X-195.579 Y-54.958 Z1.667
X-195.921 Y-55.169 Z1.653
X-196.225 Y-55.388 Z1.64
X-196.489 Y-55.61 Z1.628
X-196.714 Y-55.834 Z1.617
X-196.904 Y-56.058 Z1.607
X-197.06 Y-56.277 Z1.597
X-197.182 Y-56.489 Z1.589
X-197.275 Y-56.697 Z1.581
X-197.343 Y-56.897 Z1.573
X-197.386 Y-57.092 Z1.567
X-197.41 Y-57.303 Z1.559
X-197.411 Y-57.36 Z1.557
X-197.4 Y-57.573 Z1.55
X-197.368 Y-57.766 Z1.543
X-197.315 Y-57.961 Z1.536
X-197.236 Y-58.163 Z1.528
X-197.13 Y-58.372 Z1.52
X-196.994 Y-58.587 Z1.511
X-196.826 Y-58.805 Z1.502
X-196.623 Y-59.027 Z1.491
X-196.383 Y-59.248 Z1.48
X-196.108 Y-59.467 Z1.467
X-195.794 Y-59.679 Z1.454
X-195.443 Y-59.883 Z1.44
X-195.054 Y-60.074 Z1.425
X-194.629 Y-60.25 Z1.409
X-194.169 Y-60.407 Z1.392
X-193.679 Y-60.541 Z1.374
X-193.159 Y-60.649 Z1.356
X-192.617 Y-60.729 Z1.336
X-192.059 Y-60.778 Z1.317
X-191.491 Y-60.795 Z1.297
X-190.92 Y-60.777 Z1.277
X-190.359 Y-60.727 Z1.257
X-189.812 Y-60.644 Z1.238
X-189.287 Y-60.532 Z1.219
X-188.791 Y-60.394 Z1.201
X-188.326 Y-60.233 Z1.184
X-187.897 Y-60.052 Z1.168
X-187.507 Y-59.856 Z1.153
X-187.156 Y-59.648 Z1.138
X-186.844 Y-59.431 Z1.125
X-186.57 Y-59.208 Z1.113
X-186.335 Y-58.984 Z1.101
X-186.138 Y-58.761 Z1.091
X-185.975 Y-58.541 Z1.081
X-185.845 Y-58.326 Z1.073
X-185.744 Y-58.117 Z1.065
X-185.671 Y-57.914 Z1.057
X-185.622 Y-57.718 Z1.05
X-185.595 Y-57.527 Z1.043
X-185.59 Y-57.339 Z1.037
X-185.606 Y-57.148 Z1.03
X-185.642 Y-56.955 Z1.023
X-185.702 Y-56.756 Z1.016
X-185.787 Y-56.553 Z1.008
X-185.899 Y-56.344 Z1
X-186.043 Y-56.128 Z0.991
X-186.22 Y-55.907 Z0.981
X-186.431 Y-55.686 Z0.97
X-186.679 Y-55.465 Z0.959
X-186.963 Y-55.248 Z0.946
X-187.285 Y-55.037 Z0.933
X-187.646 Y-54.836 Z0.918
X-188.044 Y-54.648 Z0.903
X-188.477 Y-54.477 Z0.887
X-188.944 Y-54.325 Z0.87
X-189.442 Y-54.197 Z0.852
X-189.967 Y-54.094 Z0.833
X-190.513 Y-54.022 Z0.814
X-191.076 Y-53.98 Z0.794
X-191.645 Y-53.972 Z0.774
X-192.213 Y-53.997 Z0.754
X-192.772 Y-54.056 Z0.735
X-193.315 Y-54.145 Z0.715
X-193.834 Y-54.264 Z0.697
X-194.323 Y-54.408 Z0.679
X-194.779 Y-54.574 Z0.662
X-195.197 Y-54.758 Z0.646
X-195.579 Y-54.958 Z0.631
X-195.921 Y-55.169 Z0.617
X-196.225 Y-55.388 Z0.604
X-196.489 Y-55.61 Z0.592
X-196.714 Y-55.834 Z0.581
X-196.904 Y-56.058 Z0.571
X-197.06 Y-56.277 Z0.561
X-197.182 Y-56.489 Z0.553
X-197.275 Y-56.697 Z0.545
X-197.343 Y-56.897 Z0.537
X-197.386 Y-57.092 Z0.53
X-197.41 Y-57.303 Z0.523
X-197.411 Y-57.36 Z0.521
X-197.4 Y-57.573 Z0.513
X-197.368 Y-57.766 Z0.507
X-197.315 Y-57.961 Z0.5
X-197.236 Y-58.163 Z0.492
X-197.13 Y-58.372 Z0.484
X-196.994 Y-58.587 Z0.475
X-196.826 Y-58.805 Z0.465
X-196.623 Y-59.027 Z0.455
X-196.383 Y-59.248 Z0.443
X-196.108 Y-59.467 Z0.431
X-195.794 Y-59.679 Z0.418
X-195.443 Y-59.883 Z0.404
X-195.054 Y-60.074 Z0.389
X-194.629 Y-60.25 Z0.373
X-194.169 Y-60.407 Z0.356
X-193.679 Y-60.541 Z0.338
X-193.159 Y-60.649 Z0.319
X-192.617 Y-60.729 Z0.3
X-192.059 Y-60.778 Z0.281
X-191.491 Y-60.795 Z0.261
X-190.92 Y-60.777 Z0.241
X-190.359 Y-60.727 Z0.221
X-189.812 Y-60.644 Z0.202
X-189.287 Y-60.532 Z0.183
X-188.791 Y-60.394 Z0.165
X-188.326 Y-60.233 Z0.148
X-187.897 Y-60.052 Z0.132
X-187.507 Y-59.856 Z0.116
X-187.156 Y-59.648 Z0.102
X-186.844 Y-59.431 Z0.089
X-186.57 Y-59.208 Z0.077
X-186.335 Y-58.984 Z0.065
X-186.138 Y-58.761 Z0.055
X-185.975 Y-58.541 Z0.045
X-185.845 Y-58.326 Z0.036
X-185.744 Y-58.117 Z0.028
X-185.671 Y-57.914 Z0.021
X-185.622 Y-57.718 Z0.014
X-185.595 Y-57.527 Z0.007
X-185.59 Y-57.339 Z0
X-185.606 Y-57.148 Z-0.006
X-185.642 Y-56.955 Z-0.013
X-185.702 Y-56.756 Z-0.02
X-185.787 Y-56.553 Z-0.028
X-185.899 Y-56.344 Z-0.036
X-186.043 Y-56.128 Z-0.045
X-186.22 Y-55.907 Z-0.055
X-186.431 Y-55.686 Z-0.066
X-186.679 Y-55.465 Z-0.078
X-186.963 Y-55.248 Z-0.09
X-187.285 Y-55.037 Z-0.103
X-187.646 Y-54.836 Z-0.118
X-188.044 Y-54.648 Z-0.133
X-188.477 Y-54.477 Z-0.15
X-188.944 Y-54.325 Z-0.167
X-189.442 Y-54.197 Z-0.185
X-189.967 Y-54.094 Z-0.203
X-190.513 Y-54.022 Z-0.223
X-191.076 Y-53.98 Z-0.242
X-191.645 Y-53.972 Z-0.262
X-192.213 Y-53.997 Z-0.282
X-192.772 Y-54.056 Z-0.302
X-193.315 Y-54.145 Z-0.321
X-193.834 Y-54.264 Z-0.339
X-194.323 Y-54.408 Z-0.357
X-194.779 Y-54.574 Z-0.374
X-195.197 Y-54.758 Z-0.39
X-195.579 Y-54.958 Z-0.405
X-195.921 Y-55.169 Z-0.419
X-196.225 Y-55.388 Z-0.432
X-196.489 Y-55.61 Z-0.444
X-196.714 Y-55.834 Z-0.455
X-196.904 Y-56.058 Z-0.466
X-197.06 Y-56.277 Z-0.475
X-197.182 Y-56.489 Z-0.484
X-197.275 Y-56.697 Z-0.492
X-197.343 Y-56.897 Z-0.499
X-197.386 Y-57.092 Z-0.506
X-197.41 Y-57.303 Z-0.513
X-197.411 Y-57.36 Z-0.515
X-197.4 Y-57.573 Z-0.523
X-197.368 Y-57.766 Z-0.53
X-197.315 Y-57.961 Z-0.537
X-197.236 Y-58.163 Z-0.544
X-197.13 Y-58.372 Z-0.552
X-196.994 Y-58.587 Z-0.561
X-196.826 Y-58.805 Z-0.571
X-196.623 Y-59.027 Z-0.581
X-196.383 Y-59.248 Z-0.593
X-196.108 Y-59.467 Z-0.605
X-195.794 Y-59.679 Z-0.618
X-195.443 Y-59.883 Z-0.632
X-195.054 Y-60.074 Z-0.648
X-194.629 Y-60.25 Z-0.664
X-194.169 Y-60.407 Z-0.681
X-193.679 Y-60.541 Z-0.698
X-193.159 Y-60.649 Z-0.717
X-192.617 Y-60.729 Z-0.736
X-192.059 Y-60.778 Z-0.756
X-191.491 Y-60.795 Z-0.775
X-190.92 Y-60.777 Z-0.795
X-190.359 Y-60.727 Z-0.815
X-189.812 Y-60.644 Z-0.834
X-189.287 Y-60.532 Z-0.853
X-188.791 Y-60.394 Z-0.871
X-188.326 Y-60.233 Z-0.888
X-187.897 Y-60.052 Z-0.905
X-187.507 Y-59.856 Z-0.92
X-187.156 Y-59.648 Z-0.934
X-186.844 Y-59.431 Z-0.947
X-186.57 Y-59.208 Z-0.96
X-186.335 Y-58.984 Z-0.971
X-186.138 Y-58.761 Z-0.981
X-185.975 Y-58.541 Z-0.991
X-185.845 Y-58.326 Z-1
X-185.744 Y-58.117 Z-1.008
X-185.671 Y-57.914 Z-1.015
X-185.622 Y-57.718 Z-1.022
X-185.595 Y-57.527 Z-1.029
X-185.59 Y-57.339 Z-1.036
X-185.606 Y-57.148 Z-1.042
X-185.642 Y-56.955 Z-1.049
X-185.702 Y-56.756 Z-1.057
X-185.787 Y-56.553 Z-1.064
X-185.899 Y-56.344 Z-1.073
X-186.043 Y-56.128 Z-1.082
X-186.22 Y-55.907 Z-1.091
X-186.431 Y-55.686 Z-1.102
X-186.679 Y-55.465 Z-1.114
X-186.963 Y-55.248 Z-1.126
X-187.285 Y-55.037 Z-1.14
X-187.646 Y-54.836 Z-1.154
X-188.044 Y-54.648 Z-1.169
X-188.477 Y-54.477 Z-1.186
X-188.944 Y-54.325 Z-1.203
X-189.442 Y-54.197 Z-1.221
X-189.967 Y-54.094 Z-1.24
X-190.513 Y-54.022 Z-1.259
X-191.076 Y-53.98 Z-1.278
X-191.645 Y-53.972 Z-1.298
X-192.213 Y-53.997 Z-1.318
X-192.772 Y-54.056 Z-1.338
X-193.315 Y-54.145 Z-1.357
X-193.834 Y-54.264 Z-1.376
X-194.323 Y-54.408 Z-1.393
X-194.779 Y-54.574 Z-1.41
X-195.197 Y-54.758 Z-1.426
X-195.579 Y-54.958 Z-1.441
X-195.921 Y-55.169 Z-1.455
X-196.225 Y-55.388 Z-1.468
X-196.489 Y-55.61 Z-1.481
X-196.714 Y-55.834 Z-1.492
X-196.904 Y-56.058 Z-1.502
X-197.06 Y-56.277 Z-1.511
X-197.182 Y-56.489 Z-1.52
X-197.275 Y-56.697 Z-1.528
X-197.343 Y-56.897 Z-1.535
X-197.386 Y-57.092 Z-1.542
X-197.41 Y-57.303 Z-1.55
X-197.411 Y-57.36 Z-1.552
X-197.4 Y-57.573 Z-1.559
X-197.368 Y-57.766 Z-1.566
X-197.315 Y-57.961 Z-1.573
X-197.236 Y-58.163 Z-1.58
X-197.13 Y-58.372 Z-1.589
X-196.994 Y-58.587 Z-1.598
X-196.826 Y-58.805 Z-1.607
X-196.623 Y-59.027 Z-1.618
X-196.383 Y-59.248 Z-1.629
X-196.108 Y-59.467 Z-1.641
X-195.794 Y-59.679 Z-1.655
X-195.443 Y-59.883 Z-1.669
X-195.054 Y-60.074 Z-1.684
X-194.629 Y-60.25 Z-1.7
X-194.169 Y-60.407 Z-1.717
X-193.679 Y-60.541 Z-1.735
X-193.159 Y-60.649 Z-1.753
X-192.617 Y-60.729 Z-1.772
X-192.059 Y-60.778 Z-1.792
X-191.491 Y-60.795 Z-1.812
X-190.92 Y-60.777 Z-1.832
X-190.359 Y-60.727 Z-1.851
X-189.812 Y-60.644 Z-1.871
X-189.287 Y-60.532 Z-1.889
X-188.791 Y-60.394 Z-1.907
X-188.326 Y-60.233 Z-1.925
X-187.897 Y-60.052 Z-1.941
X-187.507 Y-59.856 Z-1.956
X-187.156 Y-59.648 Z-1.97
X-186.844 Y-59.431 Z-1.984
X-186.57 Y-59.208 Z-1.996
X-186.335 Y-58.984 Z-2.007
X-186.138 Y-58.761 Z-2.018
X-185.975 Y-58.541 Z-2.027
X-185.845 Y-58.326 Z-2.036
X-185.744 Y-58.117 Z-2.044
X-185.671 Y-57.914 Z-2.052
X-185.622 Y-57.718 Z-2.059
X-185.595 Y-57.527 Z-2.065
X-185.59 Y-57.339 Z-2.072
X-185.606 Y-57.148 Z-2.079
X-185.642 Y-56.955 Z-2.086
X-185.702 Y-56.756 Z-2.093
X-185.787 Y-56.553 Z-2.1
X-185.899 Y-56.344 Z-2.109
X-186.043 Y-56.128 Z-2.118
X-186.22 Y-55.907 Z-2.128
X-186.431 Y-55.686 Z-2.138
X-186.679 Y-55.465 Z-2.15
X-186.963 Y-55.248 Z-2.162
X-187.285 Y-55.037 Z-2.176
X-187.646 Y-54.836 Z-2.19
X-188.044 Y-54.648 Z-2.206
X-188.477 Y-54.477 Z-2.222
X-188.944 Y-54.325 Z-2.239
X-189.442 Y-54.197 Z-2.257
X-189.967 Y-54.094 Z-2.276
X-190.513 Y-54.022 Z-2.295
X-191.076 Y-53.98 Z-2.315
X-191.645 Y-53.972 Z-2.335
X-192.213 Y-53.997 Z-2.354
X-192.772 Y-54.056 Z-2.374
X-193.315 Y-54.145 Z-2.393
X-193.834 Y-54.264 Z-2.412
X-194.323 Y-54.408 Z-2.43
X-194.779 Y-54.574 Z-2.447
X-195.197 Y-54.758 Z-2.463
X-195.579 Y-54.958 Z-2.478
X-195.921 Y-55.169 Z-2.492
X-196.225 Y-55.388 Z-2.505
X-196.489 Y-55.61 Z-2.517
X-196.714 Y-55.834 Z-2.528
X-196.904 Y-56.058 Z-2.538
X-197.06 Y-56.277 Z-2.548
X-197.182 Y-56.489 Z-2.556
X-197.275 Y-56.697 Z-2.564
X-197.343 Y-56.897 Z-2.571
X-197.386 Y-57.092 Z-2.578
X-197.41 Y-57.303 Z-2.586
X-197.411 Y-57.36 Z-2.588
X-197.4 Y-57.573 Z-2.595
X-197.368 Y-57.766 Z-2.602
X-197.315 Y-57.961 Z-2.609
X-197.236 Y-58.163 Z-2.617
X-197.13 Y-58.372 Z-2.625
X-196.994 Y-58.587 Z-2.634
X-196.826 Y-58.805 Z-2.643
X-196.623 Y-59.027 Z-2.654
X-196.383 Y-59.248 Z-2.665
X-196.108 Y-59.467 Z-2.678
X-195.794 Y-59.679 Z-2.691
X-195.443 Y-59.883 Z-2.705
X-195.054 Y-60.074 Z-2.72
X-194.629 Y-60.25 Z-2.736
X-194.169 Y-60.407 Z-2.753
X-193.679 Y-60.541 Z-2.771
X-193.159 Y-60.649 Z-2.789
X-192.617 Y-60.729 Z-2.808
X-192.059 Y-60.778 Z-2.828
X-191.491 Y-60.795 Z-2.848
X-190.92 Y-60.777 Z-2.868
X-190.359 Y-60.727 Z-2.888
X-189.812 Y-60.644 Z-2.907
X-189.287 Y-60.532 Z-2.926
X-188.791 Y-60.394 Z-2.944
X-188.326 Y-60.233 Z-2.961
X-187.897 Y-60.052 Z-2.977
X-187.507 Y-59.856 Z-2.992
X-187.156 Y-59.648 Z-3.007
X-186.844 Y-59.431 Z-3.02
X-186.57 Y-59.208 Z-3.032
X-186.335 Y-58.984 Z-3.043
X-186.138 Y-58.761 Z-3.054
X-185.975 Y-58.541 Z-3.063
X-185.845 Y-58.326 Z-3.072
X-185.744 Y-58.117 Z-3.08
X-185.671 Y-57.914 Z-3.088
X-185.622 Y-57.718 Z-3.095
X-185.595 Y-57.527 Z-3.102
X-185.59 Y-57.339 Z-3.108
X-185.606 Y-57.148 Z-3.115
X-185.642 Y-56.955 Z-3.122
X-185.702 Y-56.756 Z-3.129
X-185.787 Y-56.553 Z-3.137
X-185.899 Y-56.344 Z-3.145
X-186.043 Y-56.128 Z-3.154
X-186.22 Y-55.907 Z-3.164
X-186.431 Y-55.686 Z-3.175
X-186.679 Y-55.465 Z-3.186
X-186.963 Y-55.248 Z-3.199
X-187.285 Y-55.037 Z-3.212
X-187.646 Y-54.836 Z-3.227
X-188.044 Y-54.648 Z-3.242
X-188.477 Y-54.477 Z-3.258
X-188.944 Y-54.325 Z-3.275
X-189.442 Y-54.197 Z-3.293
X-189.967 Y-54.094 Z-3.312
X-190.513 Y-54.022 Z-3.331
X-191.076 Y-53.98 Z-3.351
X-191.645 Y-53.972 Z-3.371
X-192.213 Y-53.997 Z-3.391
X-192.772 Y-54.056 Z-3.41
X-193.315 Y-54.145 Z-3.429
X-193.834 Y-54.264 Z-3.448
X-194.323 Y-54.408 Z-3.466
X-194.779 Y-54.574 Z-3.483
X-195.197 Y-54.758 Z-3.499
X-195.579 Y-54.958 Z-3.514
X-195.921 Y-55.169 Z-3.528
X-196.225 Y-55.388 Z-3.541
X-196.489 Y-55.61 Z-3.553
X-196.714 Y-55.834 Z-3.564
X-196.904 Y-56.058 Z-3.574
X-197.06 Y-56.277 Z-3.584
X-197.182 Y-56.489 Z-3.592
X-197.275 Y-56.697 Z-3.6
X-197.343 Y-56.897 Z-3.608
X-197.386 Y-57.092 Z-3.615
X-197.41 Y-57.303 Z-3.622
X-197.411 Y-57.36 Z-3.624
X-197.4 Y-57.573 Z-3.631
X-197.368 Y-57.766 Z-3.638
X-197.315 Y-57.961 Z-3.645
X-197.236 Y-58.163 Z-3.653
X-197.13 Y-58.372 Z-3.661
X-196.994 Y-58.587 Z-3.67
X-196.826 Y-58.805 Z-3.68
X-196.623 Y-59.027 Z-3.69
X-196.383 Y-59.248 Z-3.701
X-196.108 Y-59.467 Z-3.714
X-195.794 Y-59.679 Z-3.727
X-195.443 Y-59.883 Z-3.741
X-195.054 Y-60.074 Z-3.756
X-194.629 Y-60.25 Z-3.772
X-194.169 Y-60.407 Z-3.789
X-193.679 Y-60.541 Z-3.807
X-193.159 Y-60.649 Z-3.826
X-192.617 Y-60.729 Z-3.845
X-192.059 Y-60.778 Z-3.864
X-191.491 Y-60.795 Z-3.884
X-190.92 Y-60.777 Z-3.904
X-190.359 Y-60.727 Z-3.924
X-189.812 Y-60.644 Z-3.943
X-189.287 Y-60.532 Z-3.962
X-188.791 Y-60.394 Z-3.98
X-188.326 Y-60.233 Z-3.997
X-187.897 Y-60.052 Z-4.013
X-187.507 Y-59.856 Z-4.028
X-187.156 Y-59.648 Z-4.043
X-186.844 Y-59.431 Z-4.056
X-186.57 Y-59.208 Z-4.068
X-186.335 Y-58.984 Z-4.08
X-186.138 Y-58.761 Z-4.09
X-185.975 Y-58.541 Z-4.1
X-185.845 Y-58.326 Z-4.108
X-185.744 Y-58.117 Z-4.117
X-185.671 Y-57.914 Z-4.124
X-185.622 Y-57.718 Z-4.131
X-185.595 Y-57.527 Z-4.138
X-185.59 Y-57.339 Z-4.144
X-185.606 Y-57.148 Z-4.151
X-185.642 Y-56.955 Z-4.158
X-185.702 Y-56.756 Z-4.165
X-185.787 Y-56.553 Z-4.173
X-185.899 Y-56.344 Z-4.181
X-186.043 Y-56.128 Z-4.19
X-186.22 Y-55.907 Z-4.2
X-186.431 Y-55.686 Z-4.211
X-186.679 Y-55.465 Z-4.222
X-186.963 Y-55.248 Z-4.235
X-187.285 Y-55.037 Z-4.248
X-187.646 Y-54.836 Z-4.263
X-188.044 Y-54.648 Z-4.278
X-188.477 Y-54.477 Z-4.294
X-188.944 Y-54.325 Z-4.312
X-189.442 Y-54.197 Z-4.33
X-189.967 Y-54.094 Z-4.348
X-190.513 Y-54.022 Z-4.367
X-191.076 Y-53.98 Z-4.387
X-191.445 Y-53.975 Z-4.4
S3000
X-191.645 Y-53.972 F1000
X-192.213 Y-53.997
X-192.772 Y-54.056
X-193.315 Y-54.145
X-193.834 Y-54.264
X-194.323 Y-54.408
X-194.779 Y-54.574
X-195.197 Y-54.758
X-195.579 Y-54.958
X-195.921 Y-55.169
X-196.225 Y-55.388
X-196.489 Y-55.61
X-196.714 Y-55.834
X-196.904 Y-56.058
X-197.06 Y-56.277
X-197.182 Y-56.489
X-197.275 Y-56.697
X-197.343 Y-56.897
X-197.386 Y-57.092
X-197.41 Y-57.303
X-197.411 Y-57.36
X-197.4 Y-57.573
X-197.368 Y-57.766
X-197.315 Y-57.961
X-197.236 Y-58.163
X-197.13 Y-58.372
X-196.994 Y-58.587
X-196.826 Y-58.805
X-196.623 Y-59.027
X-196.383 Y-59.248
X-196.108 Y-59.467
X-195.794 Y-59.679
X-195.443 Y-59.883
X-195.054 Y-60.074
X-194.629 Y-60.25
X-194.169 Y-60.407
X-193.679 Y-60.541
X-193.159 Y-60.649
X-192.617 Y-60.729
X-192.059 Y-60.778
X-191.491 Y-60.795
X-190.92 Y-60.777
X-190.359 Y-60.727
X-189.812 Y-60.644
X-189.287 Y-60.532
X-188.791 Y-60.394
X-188.326 Y-60.233
X-187.897 Y-60.052
X-187.507 Y-59.856
X-187.156 Y-59.648
X-186.844 Y-59.431
X-186.57 Y-59.208
X-186.335 Y-58.984
X-186.138 Y-58.761
X-185.975 Y-58.541
X-185.845 Y-58.326
X-185.744 Y-58.117
X-185.671 Y-57.914
X-185.622 Y-57.718
X-185.595 Y-57.527
X-185.59 Y-57.339
X-185.606 Y-57.148
X-185.642 Y-56.955
X-185.702 Y-56.756
X-185.787 Y-56.553
X-185.899 Y-56.344
X-186.043 Y-56.128
X-186.22 Y-55.907
X-186.431 Y-55.686
X-186.679 Y-55.465
X-186.963 Y-55.248
X-187.285 Y-55.037
X-187.646 Y-54.836
X-188.044 Y-54.648
X-188.477 Y-54.477
X-188.944 Y-54.325
X-189.442 Y-54.197
X-189.967 Y-54.094
X-190.513 Y-54.022
X-191.076 Y-53.98
X-191.445 Y-53.975
Z5
X-201.867 Y-28.35
Z2.5 F333.3
S5000
X-199.764 Y-30.454 Z2.396
G3 X-199.534 Y-30.224 Z2.378 I0.115 J0.115
G1 X-202.892 Y-26.865 Z2.212
G3 X-203.122 Y-27.095 Z2.195 I-0.115 J-0.115
G1 X-199.764 Y-30.454 Z2.029
G3 X-199.534 Y-30.224 Z2.011 I0.115 J0.115
G1 X-202.892 Y-26.865 Z1.845
G3 X-203.122 Y-27.095 Z1.827 I-0.115 J-0.115
G1 X-199.764 Y-30.454 Z1.661
G3 X-199.534 Y-30.224 Z1.644 I0.115 J0.115
G1 X-202.892 Y-26.865 Z1.478
G3 X-203.122 Y-27.095 Z1.46 I-0.115 J-0.115
G1 X-199.764 Y-30.454 Z1.294
G3 X-199.534 Y-30.224 Z1.276 I0.115 J0.115
G1 X-202.892 Y-26.865 Z1.11
G3 X-203.122 Y-27.095 Z1.093 I-0.115 J-0.115
G1 X-199.764 Y-30.454 Z0.927
G3 X-199.534 Y-30.224 Z0.909 I0.115 J0.115
G1 X-202.892 Y-26.865 Z0.743
G3 X-203.122 Y-27.095 Z0.725 I-0.115 J-0.115
G1 X-199.764 Y-30.454 Z0.559
G3 X-199.534 Y-30.224 Z0.542 I0.115 J0.115
G1 X-202.892 Y-26.865 Z0.376
G3 X-203.122 Y-27.095 Z0.358 I-0.115 J-0.115
G1 X-199.764 Y-30.454 Z0.192
G3 X-199.534 Y-30.224 Z0.174 I0.115 J0.115
G1 X-202.892 Y-26.865 Z0.008
G3 X-203.122 Y-27.095 Z-0.01 I-0.115 J-0.115
G1 X-199.764 Y-30.454 Z-0.175
G3 X-199.534 Y-30.224 Z-0.193 I0.115 J0.115
G1 X-202.892 Y-26.865 Z-0.359
G3 X-203.122 Y-27.095 Z-0.377 I-0.115 J-0.115
G1 X-199.764 Y-30.454 Z-0.543
G3 X-199.534 Y-30.224 Z-0.561 I0.115 J0.115
G1 X-202.892 Y-26.865 Z-0.726
G3 X-203.122 Y-27.095 Z-0.744 I-0.115 J-0.115
G1 X-199.764 Y-30.454 Z-0.91
G3 X-199.534 Y-30.224 Z-0.928 I0.115 J0.115
G1 X-202.892 Y-26.865 Z-1.094
G3 X-203.122 Y-27.095 Z-1.112 I-0.115 J-0.115
G1 X-199.764 Y-30.454 Z-1.277
G3 X-199.534 Y-30.224 Z-1.295 I0.115 J0.115
G1 X-202.892 Y-26.865 Z-1.461
G3 X-203.122 Y-27.095 Z-1.479 I-0.115 J-0.115
G1 X-199.764 Y-30.454 Z-1.645
G3 X-199.534 Y-30.224 Z-1.663 I0.115 J0.115
G1 X-202.892 Y-26.865 Z-1.828
G3 X-203.122 Y-27.095 Z-1.846 I-0.115 J-0.115
G1 X-199.764 Y-30.454 Z-2.012
G3 X-199.534 Y-30.224 Z-2.03 I0.115 J0.115
G1 X-202.892 Y-26.865 Z-2.196
G3 X-203.122 Y-27.095 Z-2.214 I-0.115 J-0.115
G1 X-199.764 Y-30.454 Z-2.38
G3 X-199.534 Y-30.224 Z-2.397 I0.115 J0.115
G1 X-202.892 Y-26.865 Z-2.563
G3 X-203.122 Y-27.095 Z-2.581 I-0.115 J-0.115
G1 X-199.764 Y-30.454 Z-2.747
G3 X-199.534 Y-30.224 Z-2.765 I0.115 J0.115
G1 X-202.892 Y-26.865 Z-2.931
G3 X-203.122 Y-27.095 Z-2.948 I-0.115 J-0.115
G1 X-199.764 Y-30.454 Z-3.114
G3 X-199.534 Y-30.224 Z-3.132 I0.115 J0.115
G1 X-202.892 Y-26.865 Z-3.298
G3 X-203.122 Y-27.095 Z-3.316 I-0.115 J-0.115
G1 X-199.764 Y-30.454 Z-3.482
G3 X-199.534 Y-30.224 Z-3.499 I0.115 J0.115
G1 X-202.892 Y-26.865 Z-3.665
G3 X-203.122 Y-27.095 Z-3.683 I-0.115 J-0.115
G1 X-199.764 Y-30.454 Z-3.849
G3 X-199.534 Y-30.224 Z-3.867 I0.115 J0.115
G1 X-202.892 Y-26.865 Z-4.033
G3 X-203.122 Y-27.095 Z-4.05 I-0.115 J-0.115
G1 X-199.764 Y-30.454 Z-4.216
G3 X-199.534 Y-30.224 Z-4.234 I0.115 J0.115
G1 X-202.892 Y-26.865 Z-4.4
S3000
G3 X-203.122 Y-27.095 I-0.115 J-0.115 F1000
G1 X-199.764 Y-30.454
G3 X-199.534 Y-30.224 I0.115 J0.115
G1 X-202.892 Y-26.865
Z5
X-201.199 Y-13.982
Z2.5 F333.3
S5000
X-203.122 Y-15.905 Z2.405
G3 X-202.892 Y-16.135 Z2.387 I0.115 J-0.115
G1 X-199.534 Y-12.776 Z2.221
G3 X-199.764 Y-12.546 Z2.204 I-0.115 J0.115
G1 X-203.122 Y-15.905 Z2.038
G3 X-202.892 Y-16.135 Z2.02 I0.115 J-0.115
G1 X-199.534 Y-12.776 Z1.854
G3 X-199.764 Y-12.546 Z1.836 I-0.115 J0.115
G1 X-203.122 Y-15.905 Z1.67
G3 X-202.892 Y-16.135 Z1.652 I0.115 J-0.115
G1 X-199.534 Y-12.776 Z1.487
G3 X-199.764 Y-12.546 Z1.469 I-0.115 J0.115
G1 X-203.122 Y-15.905 Z1.303
G3 X-202.892 Y-16.135 Z1.285 I0.115 J-0.115
G1 X-199.534 Y-12.776 Z1.119
G3 X-199.764 Y-12.546 Z1.101 I-0.115 J0.115
G1 X-203.122 Y-15.905 Z0.936
G3 X-202.892 Y-16.135 Z0.918 I0.115 J-0.115
G1 X-199.534 Y-12.776 Z0.752
G3 X-199.764 Y-12.546 Z0.734 I-0.115 J0.115
G1 X-203.122 Y-15.905 Z0.568
G3 X-202.892 Y-16.135 Z0.55 I0.115 J-0.115
G1 X-199.534 Y-12.776 Z0.385
G3 X-199.764 Y-12.546 Z0.367 I-0.115 J0.115
G1 X-203.122 Y-15.905 Z0.201
G3 X-202.892 Y-16.135 Z0.183 I0.115 J-0.115
G1 X-199.534 Y-12.776 Z0.017
G3 X-199.764 Y-12.546 Z-0.001 I-0.115 J0.115
G1 X-203.122 Y-15.905 Z-0.166
G3 X-202.892 Y-16.135 Z-0.184 I0.115 J-0.115
G1 X-199.534 Y-12.776 Z-0.35
G3 X-199.764 Y-12.546 Z-0.368 I-0.115 J0.115
G1 X-203.122 Y-15.905 Z-0.534
G3 X-202.892 Y-16.135 Z-0.552 I0.115 J-0.115
G1 X-199.534 Y-12.776 Z-0.718
G3 X-199.764 Y-12.546 Z-0.735 I-0.115 J0.115
G1 X-203.122 Y-15.905 Z-0.901
G3 X-202.892 Y-16.135 Z-0.919 I0.115 J-0.115
G1 X-199.534 Y-12.776 Z-1.085
G3 X-199.764 Y-12.546 Z-1.103 I-0.115 J0.115
G1 X-203.122 Y-15.905 Z-1.269
G3 X-202.892 Y-16.135 Z-1.286 I0.115 J-0.115
G1 X-199.534 Y-12.776 Z-1.452
G3 X-199.764 Y-12.546 Z-1.47 I-0.115 J0.115
G1 X-203.122 Y-15.905 Z-1.636
G3 X-202.892 Y-16.135 Z-1.654 I0.115 J-0.115
G1 X-199.534 Y-12.776 Z-1.82
G3 X-199.764 Y-12.546 Z-1.837 I-0.115 J0.115
G1 X-203.122 Y-15.905 Z-2.003
G3 X-202.892 Y-16.135 Z-2.021 I0.115 J-0.115
G1 X-199.534 Y-12.776 Z-2.187
G3 X-199.764 Y-12.546 Z-2.205 I-0.115 J0.115
G1 X-203.122 Y-15.905 Z-2.371
G3 X-202.892 Y-16.135 Z-2.388 I0.115 J-0.115
G1 X-199.534 Y-12.776 Z-2.554
G3 X-199.764 Y-12.546 Z-2.572 I-0.115 J0.115
G1 X-203.122 Y-15.905 Z-2.738
G3 X-202.892 Y-16.135 Z-2.756 I0.115 J-0.115
G1 X-199.534 Y-12.776 Z-2.922
G3 X-199.764 Y-12.546 Z-2.939 I-0.115 J0.115
G1 X-203.122 Y-15.905 Z-3.105
G3 X-202.892 Y-16.135 Z-3.123 I0.115 J-0.115
G1 X-199.534 Y-12.776 Z-3.289
G3 X-199.764 Y-12.546 Z-3.307 I-0.115 J0.115
G1 X-203.122 Y-15.905 Z-3.473
G3 X-202.892 Y-16.135 Z-3.491 I0.115 J-0.115
G1 X-199.534 Y-12.776 Z-3.656
G3 X-199.764 Y-12.546 Z-3.674 I-0.115 J0.115
G1 X-203.122 Y-15.905 Z-3.84
G3 X-202.892 Y-16.135 Z-3.858 I0.115 J-0.115
G1 X-199.534 Y-12.776 Z-4.024
G3 X-199.764 Y-12.546 Z-4.042 I-0.115 J0.115
G1 X-203.122 Y-15.905 Z-4.207
G3 X-202.892 Y-16.135 Z-4.225 I0.115 J-0.115
G1 X-199.534 Y-12.776 Z-4.391
X-199.504 Y-12.735 Z-4.393
X-199.488 Y-12.687 Z-4.395
Y-12.636 Z-4.396
X-199.504 Y-12.588 Z-4.398
X-199.534 Y-12.547 Z-4.4
S3000
X-199.575 Y-12.517 F1000
X-199.623 Y-12.501
X-199.674
X-199.723 Y-12.517
X-199.764 Y-12.546
X-203.122 Y-15.905
G3 X-202.892 Y-16.135 I0.115 J-0.115
G1 X-199.534 Y-12.776
X-199.504 Y-12.735
X-199.488 Y-12.687
Y-12.636
X-199.504 Y-12.588
X-199.534 Y-12.547
Z5
X-215.495 Y-14.263
Z2.5 F333.3
S5000
X-217.211 Y-12.546 Z2.415
G3 X-217.441 Y-12.776 Z2.397 I-0.115 J-0.115
G1 X-214.083 Y-16.135 Z2.232
G3 X-213.852 Y-16.135 Z2.223 I0.115 J0.115
X-213.852 Y-15.905 Z2.214 I-0.115 J0.115
G1 X-217.211 Y-12.546 Z2.048
G3 X-217.441 Y-12.776 Z2.03 I-0.115 J-0.115
G1 X-214.083 Y-16.135 Z1.864
G3 X-213.852 Y-16.135 Z1.855 I0.115 J0.115
X-213.852 Y-15.905 Z1.846 I-0.115 J0.115
G1 X-217.211 Y-12.546 Z1.68
G3 X-217.441 Y-12.776 Z1.663 I-0.115 J-0.115
G1 X-214.083 Y-16.135 Z1.497
G3 X-213.852 Y-16.135 Z1.488 I0.115 J0.115
X-213.852 Y-15.905 Z1.479 I-0.115 J0.115
G1 X-217.211 Y-12.546 Z1.313
G3 X-217.441 Y-12.776 Z1.295 I-0.115 J-0.115
G1 X-214.083 Y-16.135 Z1.129
G3 X-213.852 Y-16.135 Z1.12 I0.115 J0.115
X-213.852 Y-15.905 Z1.111 I-0.115 J0.115
G1 X-217.211 Y-12.546 Z0.946
G3 X-217.441 Y-12.776 Z0.928 I-0.115 J-0.115
G1 X-214.083 Y-16.135 Z0.762
G3 X-213.852 Y-16.135 Z0.753 I0.115 J0.115
X-213.852 Y-15.905 Z0.744 I-0.115 J0.115
G1 X-217.211 Y-12.546 Z0.578
G3 X-217.441 Y-12.776 Z0.56 I-0.115 J-0.115
G1 X-214.083 Y-16.135 Z0.394
G3 X-213.852 Y-16.135 Z0.385 I0.115 J0.115
X-213.852 Y-15.905 Z0.377 I-0.115 J0.115
G1 X-217.211 Y-12.546 Z0.211
G3 X-217.441 Y-12.776 Z0.193 I-0.115 J-0.115
G1 X-214.083 Y-16.135 Z0.027
G3 X-213.852 Y-16.135 Z0.018 I0.115 J0.115
X-213.852 Y-15.905 Z0.009 I-0.115 J0.115
G1 X-217.211 Y-12.546 Z-0.157
G3 X-217.441 Y-12.776 Z-0.175 I-0.115 J-0.115
G1 X-214.083 Y-16.135 Z-0.34
G3 X-213.852 Y-16.135 Z-0.349 I0.115 J0.115
X-213.852 Y-15.905 Z-0.358 I-0.115 J0.115
G1 X-217.211 Y-12.546 Z-0.524
G3 X-217.441 Y-12.776 Z-0.542 I-0.115 J-0.115
G1 X-214.083 Y-16.135 Z-0.708
G3 X-213.852 Y-16.135 Z-0.717 I0.115 J0.115
X-213.852 Y-15.905 Z-0.726 I-0.115 J0.115
G1 X-217.211 Y-12.546 Z-0.892
G3 X-217.441 Y-12.776 Z-0.909 I-0.115 J-0.115
G1 X-214.083 Y-16.135 Z-1.075
G3 X-213.852 Y-16.135 Z-1.084 I0.115 J0.115
X-213.852 Y-15.905 Z-1.093 I-0.115 J0.115
G1 X-217.211 Y-12.546 Z-1.259
G3 X-217.441 Y-12.776 Z-1.277 I-0.115 J-0.115
G1 X-214.083 Y-16.135 Z-1.443
G3 X-213.852 Y-16.135 Z-1.452 I0.115 J0.115
X-213.852 Y-15.905 Z-1.461 I-0.115 J0.115
G1 X-217.211 Y-12.546 Z-1.626
G3 X-217.441 Y-12.776 Z-1.644 I-0.115 J-0.115
G1 X-214.083 Y-16.135 Z-1.81
G3 X-213.852 Y-16.135 Z-1.819 I0.115 J0.115
X-213.852 Y-15.905 Z-1.828 I-0.115 J0.115
G1 X-217.211 Y-12.546 Z-1.994
G3 X-217.441 Y-12.776 Z-2.012 I-0.115 J-0.115
G1 X-214.083 Y-16.135 Z-2.178
G3 X-213.852 Y-16.135 Z-2.187 I0.115 J0.115
X-213.852 Y-15.905 Z-2.195 I-0.115 J0.115
G1 X-217.211 Y-12.546 Z-2.361
G3 X-217.441 Y-12.776 Z-2.379 I-0.115 J-0.115
G1 X-214.083 Y-16.135 Z-2.545
G3 X-213.852 Y-16.135 Z-2.554 I0.115 J0.115
X-213.852 Y-15.905 Z-2.563 I-0.115 J0.115
G1 X-217.211 Y-12.546 Z-2.729
G3 X-217.441 Y-12.776 Z-2.747 I-0.115 J-0.115
G1 X-214.083 Y-16.135 Z-2.912
G3 X-213.852 Y-16.135 Z-2.921 I0.115 J0.115
X-213.852 Y-15.905 Z-2.93 I-0.115 J0.115
G1 X-217.211 Y-12.546 Z-3.096
G3 X-217.441 Y-12.776 Z-3.114 I-0.115 J-0.115
G1 X-214.083 Y-16.135 Z-3.28
G3 X-213.852 Y-16.135 Z-3.289 I0.115 J0.115
X-213.852 Y-15.905 Z-3.298 I-0.115 J0.115
G1 X-217.211 Y-12.546 Z-3.464
G3 X-217.441 Y-12.776 Z-3.481 I-0.115 J-0.115
G1 X-214.083 Y-16.135 Z-3.647
G3 X-213.852 Y-16.135 Z-3.656 I0.115 J0.115
X-213.852 Y-15.905 Z-3.665 I-0.115 J0.115
G1 X-217.211 Y-12.546 Z-3.831
G3 X-217.441 Y-12.776 Z-3.849 I-0.115 J-0.115
G1 X-214.083 Y-16.135 Z-4.015
G3 X-213.852 Y-16.135 Z-4.024 I0.115 J0.115
X-213.852 Y-15.905 Z-4.033 I-0.115 J0.115
G1 X-217.211 Y-12.546 Z-4.198
G3 X-217.441 Y-12.776 Z-4.216 I-0.115 J-0.115
G1 X-214.083 Y-16.135 Z-4.382
G3 X-213.852 Y-16.135 Z-4.391 I0.115 J0.115
X-213.852 Y-15.905 Z-4.4 I-0.115 J0.115
S3000
G1 X-217.211 Y-12.546 F1000
G3 X-217.441 Y-12.776 I-0.115 J-0.115
G1 X-214.083 Y-16.135
G3 X-213.852 Y-16.135 I0.115 J0.115
X-213.852 Y-15.905 I-0.115 J0.115
G1 Z5
X-215.544 Y-28.327
Z2.5 F333.3
S5000
X-217.441 Y-30.224 Z2.406
G3 X-217.211 Y-30.454 Z2.389 I0.115 J-0.115
G1 X-213.852 Y-27.095 Z2.223
G3 X-213.852 Y-26.865 Z2.214 I-0.115 J0.115
X-214.082 Y-26.865 Z2.205 I-0.115 J-0.115
G1 X-217.441 Y-30.224 Z2.039
G3 X-217.211 Y-30.454 Z2.021 I0.115 J-0.115
G1 X-213.852 Y-27.095 Z1.855
G3 X-213.852 Y-26.865 Z1.846 I-0.115 J0.115
X-214.082 Y-26.865 Z1.837 I-0.115 J-0.115
G1 X-217.441 Y-30.224 Z1.671
G3 X-217.211 Y-30.454 Z1.654 I0.115 J-0.115
G1 X-213.852 Y-27.095 Z1.488
G3 X-213.852 Y-26.865 Z1.479 I-0.115 J0.115
X-214.082 Y-26.865 Z1.47 I-0.115 J-0.115
G1 X-217.441 Y-30.224 Z1.304
G3 X-217.211 Y-30.454 Z1.286 I0.115 J-0.115
G1 X-213.852 Y-27.095 Z1.12
G3 X-213.852 Y-26.865 Z1.111 I-0.115 J0.115
X-214.082 Y-26.865 Z1.103 I-0.115 J-0.115
G1 X-217.441 Y-30.224 Z0.937
G3 X-217.211 Y-30.454 Z0.919 I0.115 J-0.115
G1 X-213.852 Y-27.095 Z0.753
G3 X-213.852 Y-26.865 Z0.744 I-0.115 J0.115
X-214.082 Y-26.865 Z0.735 I-0.115 J-0.115
G1 X-217.441 Y-30.224 Z0.569
G3 X-217.211 Y-30.454 Z0.551 I0.115 J-0.115
G1 X-213.852 Y-27.095 Z0.385
G3 X-213.852 Y-26.865 Z0.377 I-0.115 J0.115
X-214.082 Y-26.865 Z0.368 I-0.115 J-0.115
G1 X-217.441 Y-30.224 Z0.202
G3 X-217.211 Y-30.454 Z0.184 I0.115 J-0.115
G1 X-213.852 Y-27.095 Z0.018
G3 X-213.852 Y-26.865 Z0.009 I-0.115 J0.115
X-214.082 Y-26.865 Z0 I-0.115 J-0.115
G1 X-217.441 Y-30.224 Z-0.166
G3 X-217.211 Y-30.454 Z-0.183 I0.115 J-0.115
G1 X-213.852 Y-27.095 Z-0.349
G3 X-213.852 Y-26.865 Z-0.358 I-0.115 J0.115
X-214.082 Y-26.865 Z-0.367 I-0.115 J-0.115
G1 X-217.441 Y-30.224 Z-0.533
G3 X-217.211 Y-30.454 Z-0.551 I0.115 J-0.115
G1 X-213.852 Y-27.095 Z-0.717
G3 X-213.852 Y-26.865 Z-0.726 I-0.115 J0.115
X-214.082 Y-26.865 Z-0.735 I-0.115 J-0.115
G1 X-217.441 Y-30.224 Z-0.901
G3 X-217.211 Y-30.454 Z-0.918 I0.115 J-0.115
G1 X-213.852 Y-27.095 Z-1.084
G3 X-213.852 Y-26.865 Z-1.093 I-0.115 J0.115
X-214.082 Y-26.865 Z-1.102 I-0.115 J-0.115
G1 X-217.441 Y-30.224 Z-1.268
G3 X-217.211 Y-30.454 Z-1.286 I0.115 J-0.115
G1 X-213.852 Y-27.095 Z-1.452
G3 X-213.852 Y-26.865 Z-1.461 I-0.115 J0.115
X-214.082 Y-26.865 Z-1.469 I-0.115 J-0.115
G1 X-217.441 Y-30.224 Z-1.635
G3 X-217.211 Y-30.454 Z-1.653 I0.115 J-0.115
G1 X-213.852 Y-27.095 Z-1.819
G3 X-213.852 Y-26.865 Z-1.828 I-0.115 J0.115
X-214.082 Y-26.865 Z-1.837 I-0.115 J-0.115
G1 X-217.441 Y-30.224 Z-2.003
G3 X-217.211 Y-30.454 Z-2.021 I0.115 J-0.115
G1 X-213.852 Y-27.095 Z-2.187
G3 X-213.852 Y-26.865 Z-2.195 I-0.115 J0.115
X-214.082 Y-26.865 Z-2.204 I-0.115 J-0.115
G1 X-217.441 Y-30.224 Z-2.37
G3 X-217.211 Y-30.454 Z-2.388 I0.115 J-0.115
G1 X-213.852 Y-27.095 Z-2.554
G3 X-213.852 Y-26.865 Z-2.563 I-0.115 J0.115
X-214.082 Y-26.865 Z-2.572 I-0.115 J-0.115
G1 X-217.441 Y-30.224 Z-2.738
G3 X-217.211 Y-30.454 Z-2.755 I0.115 J-0.115
G1 X-213.852 Y-27.095 Z-2.921
G3 X-213.852 Y-26.865 Z-2.93 I-0.115 J0.115
X-214.082 Y-26.865 Z-2.939 I-0.115 J-0.115
G1 X-217.441 Y-30.224 Z-3.105
G3 X-217.211 Y-30.454 Z-3.123 I0.115 J-0.115
G1 X-213.852 Y-27.095 Z-3.289
G3 X-213.852 Y-26.865 Z-3.298 I-0.115 J0.115
X-214.082 Y-26.865 Z-3.307 I-0.115 J-0.115
G1 X-217.441 Y-30.224 Z-3.473
G3 X-217.211 Y-30.454 Z-3.49 I0.115 J-0.115
G1 X-213.852 Y-27.095 Z-3.656
G3 X-213.852 Y-26.865 Z-3.665 I-0.115 J0.115
X-214.082 Y-26.865 Z-3.674 I-0.115 J-0.115
G1 X-217.441 Y-30.224 Z-3.84
G3 X-217.211 Y-30.454 Z-3.858 I0.115 J-0.115
G1 X-213.852 Y-27.095 Z-4.024
G3 X-213.852 Y-26.865 Z-4.033 I-0.115 J0.115
X-214.082 Y-26.865 Z-4.041 I-0.115 J-0.115
G1 X-217.441 Y-30.224 Z-4.207
G3 X-217.211 Y-30.454 Z-4.225 I0.115 J-0.115
G1 X-213.852 Y-27.095 Z-4.391
X-213.827 Y-27.061 Z-4.393
X-213.81 Y-27.022 Z-4.394
X-213.805 Y-26.98 Z-4.396
X-213.81 Y-26.938 Z-4.397
X-213.826 Y-26.899 Z-4.399
X-213.852 Y-26.865 Z-4.4
S3000
X-213.886 Y-26.839 F1000
X-213.925 Y-26.823
X-213.967 Y-26.817
X-214.009 Y-26.823
X-214.048 Y-26.839
X-214.082 Y-26.865
X-217.441 Y-30.224
G3 X-217.211 Y-30.454 I0.115 J-0.115
G1 X-213.852 Y-27.095
X-213.827 Y-27.061
X-213.81 Y-27.022
X-213.805 Y-26.98
X-213.81 Y-26.938
X-213.826 Y-26.899
X-213.852 Y-26.865
Z5
X-196.023 Y-110.655
Z2.5 F333.3
S5000
X-195.793 Y-110.811 Z2.49
X-195.442 Y-111.015 Z2.476
X-195.054 Y-111.205 Z2.461
X-194.63 Y-111.381 Z2.445
X-194.169 Y-111.538 Z2.428
X-193.679 Y-111.672 Z2.41
X-193.159 Y-111.78 Z2.392
X-192.617 Y-111.861 Z2.373
X-192.059 Y-111.909 Z2.353
X-191.491 Y-111.926 Z2.333
X-190.921 Y-111.908 Z2.313
X-190.358 Y-111.857 Z2.294
X-189.811 Y-111.775 Z2.274
X-189.287 Y-111.664 Z2.256
X-188.791 Y-111.525 Z2.238
X-188.327 Y-111.364 Z2.22
X-187.897 Y-111.183 Z2.204
X-187.507 Y-110.987 Z2.189
X-187.157 Y-110.779 Z2.175
X-186.845 Y-110.562 Z2.161
X-186.569 Y-110.338 Z2.149
X-186.334 Y-110.114 Z2.138
X-186.138 Y-109.893 Z2.127
X-185.975 Y-109.672 Z2.118
X-185.845 Y-109.457 Z2.109
X-185.744 Y-109.248 Z2.101
X-185.671 Y-109.046 Z2.093
X-185.622 Y-108.849 Z2.086
X-185.595 Y-108.658 Z2.08
X-185.59 Y-108.47 Z2.073
X-185.606 Y-108.279 Z2.066
X-185.642 Y-108.086 Z2.059
X-185.702 Y-107.888 Z2.052
X-185.787 Y-107.684 Z2.044
X-185.899 Y-107.475 Z2.036
X-186.043 Y-107.259 Z2.027
X-186.22 Y-107.038 Z2.017
X-186.431 Y-106.817 Z2.007
X-186.679 Y-106.596 Z1.995
X-186.963 Y-106.379 Z1.982
X-187.284 Y-106.169 Z1.969
X-187.647 Y-105.967 Z1.955
X-188.045 Y-105.779 Z1.939
X-188.477 Y-105.607 Z1.923
X-188.944 Y-105.456 Z1.906
X-189.442 Y-105.327 Z1.888
X-189.966 Y-105.225 Z1.869
X-190.513 Y-105.153 Z1.85
X-191.076 Y-105.112 Z1.83
X-191.645 Y-105.103 Z1.81
X-192.213 Y-105.129 Z1.79
X-192.773 Y-105.187 Z1.771
X-193.315 Y-105.277 Z1.752
X-193.834 Y-105.395 Z1.733
X-194.323 Y-105.539 Z1.715
X-194.779 Y-105.705 Z1.698
X-195.197 Y-105.889 Z1.682
X-195.579 Y-106.089 Z1.667
X-195.921 Y-106.3 Z1.653
X-196.225 Y-106.519 Z1.64
X-196.489 Y-106.741 Z1.628
X-196.713 Y-106.964 Z1.617
X-196.905 Y-107.189 Z1.607
X-197.06 Y-107.409 Z1.597
X-197.182 Y-107.62 Z1.589
X-197.275 Y-107.828 Z1.581
X-197.343 Y-108.028 Z1.573
X-197.386 Y-108.223 Z1.567
X-197.41 Y-108.434 Z1.559
X-197.411 Y-108.491 Z1.557
X-197.4 Y-108.704 Z1.55
X-197.368 Y-108.897 Z1.543
X-197.315 Y-109.091 Z1.536
X-197.236 Y-109.294 Z1.528
X-197.13 Y-109.504 Z1.52
X-196.994 Y-109.718 Z1.511
X-196.826 Y-109.936 Z1.502
X-196.623 Y-110.157 Z1.491
X-196.383 Y-110.38 Z1.48
X-196.108 Y-110.598 Z1.467
X-195.793 Y-110.811 Z1.454
X-195.442 Y-111.015 Z1.44
X-195.054 Y-111.205 Z1.425
X-194.63 Y-111.381 Z1.409
X-194.169 Y-111.538 Z1.392
X-193.679 Y-111.672 Z1.374
X-193.159 Y-111.78 Z1.356
X-192.617 Y-111.861 Z1.336
X-192.059 Y-111.909 Z1.317
X-191.491 Y-111.926 Z1.297
X-190.921 Y-111.908 Z1.277
X-190.358 Y-111.857 Z1.257
X-189.811 Y-111.775 Z1.238
X-189.287 Y-111.664 Z1.219
X-188.791 Y-111.525 Z1.201
X-188.327 Y-111.364 Z1.184
X-187.897 Y-111.183 Z1.168
X-187.507 Y-110.987 Z1.153
X-187.157 Y-110.779 Z1.138
X-186.845 Y-110.562 Z1.125
X-186.569 Y-110.338 Z1.113
X-186.334 Y-110.114 Z1.101
X-186.138 Y-109.893 Z1.091
X-185.975 Y-109.672 Z1.081
X-185.845 Y-109.457 Z1.073
X-185.744 Y-109.248 Z1.065
X-185.671 Y-109.046 Z1.057
X-185.622 Y-108.849 Z1.05
X-185.595 Y-108.658 Z1.043
X-185.59 Y-108.47 Z1.037
X-185.606 Y-108.279 Z1.03
X-185.642 Y-108.086 Z1.023
X-185.702 Y-107.888 Z1.016
X-185.787 Y-107.684 Z1.008
X-185.899 Y-107.475 Z1
X-186.043 Y-107.259 Z0.991
X-186.22 Y-107.038 Z0.981
X-186.431 Y-106.817 Z0.97
X-186.679 Y-106.596 Z0.959
X-186.963 Y-106.379 Z0.946
X-187.284 Y-106.169 Z0.933
X-187.647 Y-105.967 Z0.918
X-188.045 Y-105.779 Z0.903
X-188.477 Y-105.607 Z0.887
X-188.944 Y-105.456 Z0.87
X-189.442 Y-105.327 Z0.852
X-189.966 Y-105.225 Z0.833
X-190.513 Y-105.153 Z0.814
X-191.076 Y-105.112 Z0.794
X-191.645 Y-105.103 Z0.774
X-192.213 Y-105.129 Z0.754
X-192.773 Y-105.187 Z0.735
X-193.315 Y-105.277 Z0.715
X-193.834 Y-105.395 Z0.697
X-194.323 Y-105.539 Z0.679
X-194.779 Y-105.705 Z0.662
X-195.197 Y-105.889 Z0.646
X-195.579 Y-106.089 Z0.631
X-195.921 Y-106.3 Z0.617
X-196.225 Y-106.519 Z0.604
X-196.489 Y-106.741 Z0.592
X-196.713 Y-106.964 Z0.581
X-196.905 Y-107.189 Z0.571
X-197.06 Y-107.409 Z0.561
X-197.182 Y-107.62 Z0.553
X-197.275 Y-107.828 Z0.545
X-197.343 Y-108.028 Z0.537
X-197.386 Y-108.223 Z0.53
X-197.41 Y-108.434 Z0.523
X-197.411 Y-108.491 Z0.521
X-197.4 Y-108.704 Z0.513
X-197.368 Y-108.897 Z0.507
X-197.315 Y-109.091 Z0.5
X-197.236 Y-109.294 Z0.492
X-197.13 Y-109.504 Z0.484
X-196.994 Y-109.718 Z0.475
X-196.826 Y-109.936 Z0.465
X-196.623 Y-110.157 Z0.455
X-196.383 Y-110.38 Z0.443
X-196.108 Y-110.598 Z0.431
X-195.793 Y-110.811 Z0.418
X-195.442 Y-111.015 Z0.404
X-195.054 Y-111.205 Z0.389
X-194.63 Y-111.381 Z0.373
X-194.169 Y-111.538 Z0.356
X-193.679 Y-111.672 Z0.338
X-193.159 Y-111.78 Z0.319
X-192.617 Y-111.861 Z0.3
X-192.059 Y-111.909 Z0.281
X-191.491 Y-111.926 Z0.261
X-190.921 Y-111.908 Z0.241
X-190.358 Y-111.857 Z0.221
X-189.811 Y-111.775 Z0.202
X-189.287 Y-111.664 Z0.183
X-188.791 Y-111.525 Z0.165
X-188.327 Y-111.364 Z0.148
X-187.897 Y-111.183 Z0.132
X-187.507 Y-110.987 Z0.116
X-187.157 Y-110.779 Z0.102
X-186.845 Y-110.562 Z0.089
X-186.569 Y-110.338 Z0.077
X-186.334 Y-110.114 Z0.065
X-186.138 Y-109.893 Z0.055
X-185.975 Y-109.672 Z0.045
X-185.845 Y-109.457 Z0.036
X-185.744 Y-109.248 Z0.028
X-185.671 Y-109.046 Z0.021
X-185.622 Y-108.849 Z0.014
X-185.595 Y-108.658 Z0.007
X-185.59 Y-108.47 Z0
X-185.606 Y-108.279 Z-0.006
X-185.642 Y-108.086 Z-0.013
X-185.702 Y-107.888 Z-0.02
X-185.787 Y-107.684 Z-0.028
X-185.899 Y-107.475 Z-0.036
X-186.043 Y-107.259 Z-0.045
X-186.22 Y-107.038 Z-0.055
X-186.431 Y-106.817 Z-0.066
X-186.679 Y-106.596 Z-0.078
X-186.963 Y-106.379 Z-0.09
X-187.284 Y-106.169 Z-0.103
X-187.647 Y-105.967 Z-0.118
X-188.045 Y-105.779 Z-0.133
X-188.477 Y-105.607 Z-0.15
X-188.944 Y-105.456 Z-0.167
X-189.442 Y-105.327 Z-0.185
X-189.966 Y-105.225 Z-0.203
X-190.513 Y-105.153 Z-0.223
X-191.076 Y-105.112 Z-0.242
X-191.645 Y-105.103 Z-0.262
X-192.213 Y-105.129 Z-0.282
X-192.773 Y-105.187 Z-0.302
X-193.315 Y-105.277 Z-0.321
X-193.834 Y-105.395 Z-0.339
X-194.323 Y-105.539 Z-0.357
X-194.779 Y-105.705 Z-0.374
X-195.197 Y-105.889 Z-0.39
X-195.579 Y-106.089 Z-0.405
X-195.921 Y-106.3 Z-0.419
X-196.225 Y-106.519 Z-0.432
X-196.489 Y-106.741 Z-0.444
X-196.713 Y-106.964 Z-0.455
X-196.905 Y-107.189 Z-0.466
X-197.06 Y-107.409 Z-0.475
X-197.182 Y-107.62 Z-0.484
X-197.275 Y-107.828 Z-0.492
X-197.343 Y-108.028 Z-0.499
X-197.386 Y-108.223 Z-0.506
X-197.41 Y-108.434 Z-0.513
X-197.411 Y-108.491 Z-0.515
X-197.4 Y-108.704 Z-0.523
X-197.368 Y-108.897 Z-0.53
X-197.315 Y-109.091 Z-0.537
X-197.236 Y-109.294 Z-0.544
X-197.13 Y-109.504 Z-0.552
X-196.994 Y-109.718 Z-0.561
X-196.826 Y-109.936 Z-0.571
X-196.623 Y-110.157 Z-0.581
X-196.383 Y-110.38 Z-0.593
X-196.108 Y-110.598 Z-0.605
X-195.793 Y-110.811 Z-0.618
X-195.442 Y-111.015 Z-0.633
X-195.054 Y-111.205 Z-0.648
X-194.63 Y-111.381 Z-0.664
X-194.169 Y-111.538 Z-0.681
X-193.679 Y-111.672 Z-0.698
X-193.159 Y-111.78 Z-0.717
X-192.617 Y-111.861 Z-0.736
X-192.059 Y-111.909 Z-0.756
X-191.491 Y-111.926 Z-0.775
X-190.921 Y-111.908 Z-0.795
X-190.358 Y-111.857 Z-0.815
X-189.811 Y-111.775 Z-0.834
X-189.287 Y-111.664 Z-0.853
X-188.791 Y-111.525 Z-0.871
X-188.327 Y-111.364 Z-0.888
X-187.897 Y-111.183 Z-0.905
X-187.507 Y-110.987 Z-0.92
X-187.157 Y-110.779 Z-0.934
X-186.845 Y-110.562 Z-0.947
X-186.569 Y-110.338 Z-0.96
X-186.334 Y-110.114 Z-0.971
X-186.138 Y-109.893 Z-0.981
X-185.975 Y-109.672 Z-0.991
X-185.845 Y-109.457 Z-1
X-185.744 Y-109.248 Z-1.008
X-185.671 Y-109.046 Z-1.015
X-185.622 Y-108.849 Z-1.022
X-185.595 Y-108.658 Z-1.029
X-185.59 Y-108.47 Z-1.036
X-185.606 Y-108.279 Z-1.042
X-185.642 Y-108.086 Z-1.049
X-185.702 Y-107.888 Z-1.057
X-185.787 Y-107.684 Z-1.064
X-185.899 Y-107.475 Z-1.073
X-186.043 Y-107.259 Z-1.082
X-186.22 Y-107.038 Z-1.091
X-186.431 Y-106.817 Z-1.102
X-186.679 Y-106.596 Z-1.114
X-186.963 Y-106.379 Z-1.126
X-187.284 Y-106.169 Z-1.14
X-187.647 Y-105.967 Z-1.154
X-188.045 Y-105.779 Z-1.169
X-188.477 Y-105.607 Z-1.186
X-188.944 Y-105.456 Z-1.203
X-189.442 Y-105.327 Z-1.221
X-189.966 Y-105.225 Z-1.239
X-190.513 Y-105.153 Z-1.259
X-191.076 Y-105.112 Z-1.278
X-191.645 Y-105.103 Z-1.298
X-192.213 Y-105.129 Z-1.318
X-192.773 Y-105.187 Z-1.338
X-193.315 Y-105.277 Z-1.357
X-193.834 Y-105.395 Z-1.376
X-194.323 Y-105.539 Z-1.393
X-194.779 Y-105.705 Z-1.41
X-195.197 Y-105.889 Z-1.426
X-195.579 Y-106.089 Z-1.441
X-195.921 Y-106.3 Z-1.455
X-196.225 Y-106.519 Z-1.468
X-196.489 Y-106.741 Z-1.481
X-196.713 Y-106.964 Z-1.492
X-196.905 Y-107.189 Z-1.502
X-197.06 Y-107.409 Z-1.511
X-197.182 Y-107.62 Z-1.52
X-197.275 Y-107.828 Z-1.528
X-197.343 Y-108.028 Z-1.535
X-197.386 Y-108.223 Z-1.542
X-197.41 Y-108.434 Z-1.55
X-197.411 Y-108.491 Z-1.552
X-197.4 Y-108.704 Z-1.559
X-197.368 Y-108.897 Z-1.566
X-197.315 Y-109.091 Z-1.573
X-197.236 Y-109.294 Z-1.58
X-197.13 Y-109.504 Z-1.589
X-196.994 Y-109.718 Z-1.598
X-196.826 Y-109.936 Z-1.607
X-196.623 Y-110.157 Z-1.618
X-196.383 Y-110.38 Z-1.629
X-196.108 Y-110.598 Z-1.641
X-195.793 Y-110.811 Z-1.655
X-195.442 Y-111.015 Z-1.669
X-195.054 Y-111.205 Z-1.684
X-194.63 Y-111.381 Z-1.7
X-194.169 Y-111.538 Z-1.717
X-193.679 Y-111.672 Z-1.735
X-193.159 Y-111.78 Z-1.753
X-192.617 Y-111.861 Z-1.772
X-192.059 Y-111.909 Z-1.792
X-191.491 Y-111.926 Z-1.812
X-190.921 Y-111.908 Z-1.832
X-190.358 Y-111.857 Z-1.851
X-189.811 Y-111.775 Z-1.871
X-189.287 Y-111.664 Z-1.889
X-188.791 Y-111.525 Z-1.907
X-188.327 Y-111.364 Z-1.925
X-187.897 Y-111.183 Z-1.941
X-187.507 Y-110.987 Z-1.956
X-187.157 Y-110.779 Z-1.97
X-186.845 Y-110.562 Z-1.984
X-186.569 Y-110.338 Z-1.996
X-186.334 Y-110.114 Z-2.007
X-186.138 Y-109.893 Z-2.018
X-185.975 Y-109.672 Z-2.027
X-185.845 Y-109.457 Z-2.036
X-185.744 Y-109.248 Z-2.044
X-185.671 Y-109.046 Z-2.052
X-185.622 Y-108.849 Z-2.059
X-185.595 Y-108.658 Z-2.065
X-185.59 Y-108.47 Z-2.072
X-185.606 Y-108.279 Z-2.079
X-185.642 Y-108.086 Z-2.086
X-185.702 Y-107.888 Z-2.093
X-185.787 Y-107.684 Z-2.1
X-185.899 Y-107.475 Z-2.109
X-186.043 Y-107.259 Z-2.118
X-186.22 Y-107.038 Z-2.128
X-186.431 Y-106.817 Z-2.138
X-186.679 Y-106.596 Z-2.15
X-186.963 Y-106.379 Z-2.162
X-187.284 Y-106.169 Z-2.176
X-187.647 Y-105.967 Z-2.19
X-188.045 Y-105.779 Z-2.206
X-188.477 Y-105.607 Z-2.222
X-188.944 Y-105.456 Z-2.239
X-189.442 Y-105.327 Z-2.257
X-189.966 Y-105.225 Z-2.276
X-190.513 Y-105.153 Z-2.295
X-191.076 Y-105.112 Z-2.315
X-191.645 Y-105.103 Z-2.335
X-192.213 Y-105.129 Z-2.354
X-192.773 Y-105.187 Z-2.374
X-193.315 Y-105.277 Z-2.393
X-193.834 Y-105.395 Z-2.412
X-194.323 Y-105.539 Z-2.43
X-194.779 Y-105.705 Z-2.447
X-195.197 Y-105.889 Z-2.463
X-195.579 Y-106.089 Z-2.478
X-195.921 Y-106.3 Z-2.492
X-196.225 Y-106.519 Z-2.505
X-196.489 Y-106.741 Z-2.517
X-196.713 Y-106.964 Z-2.528
X-196.905 Y-107.189 Z-2.538
X-197.06 Y-107.409 Z-2.548
X-197.182 Y-107.62 Z-2.556
X-197.275 Y-107.828 Z-2.564
X-197.343 Y-108.028 Z-2.571
X-197.386 Y-108.223 Z-2.578
X-197.41 Y-108.434 Z-2.586
X-197.411 Y-108.491 Z-2.588
X-197.4 Y-108.704 Z-2.595
X-197.368 Y-108.897 Z-2.602
X-197.315 Y-109.091 Z-2.609
X-197.236 Y-109.294 Z-2.617
X-197.13 Y-109.504 Z-2.625
X-196.994 Y-109.718 Z-2.634
X-196.826 Y-109.936 Z-2.643
X-196.623 Y-110.157 Z-2.654
X-196.383 Y-110.38 Z-2.665
X-196.108 Y-110.598 Z-2.678
X-195.793 Y-110.811 Z-2.691
X-195.442 Y-111.015 Z-2.705
X-195.054 Y-111.205 Z-2.72
X-194.63 Y-111.381 Z-2.736
X-194.169 Y-111.538 Z-2.753
X-193.679 Y-111.672 Z-2.771
X-193.159 Y-111.78 Z-2.789
X-192.617 Y-111.861 Z-2.808
X-192.059 Y-111.909 Z-2.828
X-191.491 Y-111.926 Z-2.848
X-190.921 Y-111.908 Z-2.868
X-190.358 Y-111.857 Z-2.888
X-189.811 Y-111.775 Z-2.907
X-189.287 Y-111.664 Z-2.926
X-188.791 Y-111.525 Z-2.944
X-188.327 Y-111.364 Z-2.961
X-187.897 Y-111.183 Z-2.977
X-187.507 Y-110.987 Z-2.992
X-187.157 Y-110.779 Z-3.006
X-186.845 Y-110.562 Z-3.02
X-186.569 Y-110.338 Z-3.032
X-186.334 Y-110.114 Z-3.043
X-186.138 Y-109.893 Z-3.054
X-185.975 Y-109.672 Z-3.063
X-185.845 Y-109.457 Z-3.072
X-185.744 Y-109.248 Z-3.08
X-185.671 Y-109.046 Z-3.088
X-185.622 Y-108.849 Z-3.095
X-185.595 Y-108.658 Z-3.102
X-185.59 Y-108.47 Z-3.108
X-185.606 Y-108.279 Z-3.115
X-185.642 Y-108.086 Z-3.122
X-185.702 Y-107.888 Z-3.129
X-185.787 Y-107.684 Z-3.137
X-185.899 Y-107.475 Z-3.145
X-186.043 Y-107.259 Z-3.154
X-186.22 Y-107.038 Z-3.164
X-186.431 Y-106.817 Z-3.175
X-186.679 Y-106.596 Z-3.186
X-186.963 Y-106.379 Z-3.199
X-187.284 Y-106.169 Z-3.212
X-187.647 Y-105.967 Z-3.227
X-188.045 Y-105.779 Z-3.242
X-188.477 Y-105.607 Z-3.258
X-188.944 Y-105.456 Z-3.275
X-189.442 Y-105.327 Z-3.293
X-189.966 Y-105.225 Z-3.312
X-190.513 Y-105.153 Z-3.331
X-191.076 Y-105.112 Z-3.351
X-191.645 Y-105.103 Z-3.371
X-192.213 Y-105.129 Z-3.391
X-192.773 Y-105.187 Z-3.41
X-193.315 Y-105.277 Z-3.429
X-193.834 Y-105.395 Z-3.448
X-194.323 Y-105.539 Z-3.466
X-194.779 Y-105.705 Z-3.483
X-195.197 Y-105.889 Z-3.499
X-195.579 Y-106.089 Z-3.514
X-195.921 Y-106.3 Z-3.528
X-196.225 Y-106.519 Z-3.541
X-196.489 Y-106.741 Z-3.553
X-196.713 Y-106.964 Z-3.564
X-196.905 Y-107.189 Z-3.574
X-197.06 Y-107.409 Z-3.584
X-197.182 Y-107.62 Z-3.592
X-197.275 Y-107.828 Z-3.6
X-197.343 Y-108.028 Z-3.608
X-197.386 Y-108.223 Z-3.615
X-197.41 Y-108.434 Z-3.622
X-197.411 Y-108.491 Z-3.624
X-197.4 Y-108.704 Z-3.631
X-197.368 Y-108.897 Z-3.638
X-197.315 Y-109.091 Z-3.645
X-197.236 Y-109.294 Z-3.653
X-197.13 Y-109.504 Z-3.661
X-196.994 Y-109.718 Z-3.67
X-196.826 Y-109.936 Z-3.68
X-196.623 Y-110.157 Z-3.69
X-196.383 Y-110.38 Z-3.701
X-196.108 Y-110.598 Z-3.714
X-195.793 Y-110.811 Z-3.727
X-195.442 Y-111.015 Z-3.741
X-195.054 Y-111.205 Z-3.756
X-194.63 Y-111.381 Z-3.772
X-194.169 Y-111.538 Z-3.789
X-193.679 Y-111.672 Z-3.807
X-193.159 Y-111.78 Z-3.826
X-192.617 Y-111.861 Z-3.845
X-192.059 Y-111.909 Z-3.864
X-191.491 Y-111.926 Z-3.884
X-190.921 Y-111.908 Z-3.904
X-190.358 Y-111.857 Z-3.924
X-189.811 Y-111.775 Z-3.943
X-189.287 Y-111.664 Z-3.962
X-188.791 Y-111.525 Z-3.98
X-188.327 Y-111.364 Z-3.997
X-187.897 Y-111.183 Z-4.013
X-187.507 Y-110.987 Z-4.028
X-187.157 Y-110.779 Z-4.043
X-186.845 Y-110.562 Z-4.056
X-186.569 Y-110.338 Z-4.068
X-186.334 Y-110.114 Z-4.08
X-186.138 Y-109.893 Z-4.09
X-185.975 Y-109.672 Z-4.1
X-185.845 Y-109.457 Z-4.108
X-185.744 Y-109.248 Z-4.117
X-185.671 Y-109.046 Z-4.124
X-185.622 Y-108.849 Z-4.131
X-185.595 Y-108.658 Z-4.138
X-185.59 Y-108.47 Z-4.144
X-185.606 Y-108.279 Z-4.151
X-185.642 Y-108.086 Z-4.158
X-185.702 Y-107.888 Z-4.165
X-185.787 Y-107.684 Z-4.173
X-185.899 Y-107.475 Z-4.181
X-186.043 Y-107.259 Z-4.19
X-186.22 Y-107.038 Z-4.2
X-186.431 Y-106.817 Z-4.211
X-186.679 Y-106.596 Z-4.222
X-186.963 Y-106.379 Z-4.235
X-187.284 Y-106.169 Z-4.248
X-187.647 Y-105.967 Z-4.263
X-188.045 Y-105.779 Z-4.278
X-188.477 Y-105.607 Z-4.294
X-188.944 Y-105.456 Z-4.312
X-189.442 Y-105.327 Z-4.33
X-189.966 Y-105.225 Z-4.348
X-190.513 Y-105.153 Z-4.367
X-191.076 Y-105.112 Z-4.387
X-191.445 Y-105.106 Z-4.4
S3000
X-191.645 Y-105.103 F1000
X-192.213 Y-105.129
X-192.773 Y-105.187
X-193.315 Y-105.277
X-193.834 Y-105.395
X-194.323 Y-105.539
X-194.779 Y-105.705
X-195.197 Y-105.889
X-195.579 Y-106.089
X-195.921 Y-106.3
X-196.225 Y-106.519
X-196.489 Y-106.741
X-196.713 Y-106.964
X-196.905 Y-107.189
X-197.06 Y-107.409
X-197.182 Y-107.62
X-197.275 Y-107.828
X-197.343 Y-108.028
X-197.386 Y-108.223
X-197.41 Y-108.434
X-197.411 Y-108.491
X-197.4 Y-108.704
X-197.368 Y-108.897
X-197.315 Y-109.091
X-197.236 Y-109.294
X-197.13 Y-109.504
X-196.994 Y-109.718
X-196.826 Y-109.936
X-196.623 Y-110.157
X-196.383 Y-110.38
X-196.108 Y-110.598
X-195.793 Y-110.811
X-195.442 Y-111.015
X-195.054 Y-111.205
X-194.63 Y-111.381
X-194.169 Y-111.538
X-193.679 Y-111.672
X-193.159 Y-111.78
X-192.617 Y-111.861
X-192.059 Y-111.909
X-191.491 Y-111.926
X-190.921 Y-111.908
X-190.358 Y-111.857
X-189.811 Y-111.775
X-189.287 Y-111.664
X-188.791 Y-111.525
X-188.327 Y-111.364
X-187.897 Y-111.183
X-187.507 Y-110.987
X-187.157 Y-110.779
X-186.845 Y-110.562
X-186.569 Y-110.338
X-186.334 Y-110.114
X-186.138 Y-109.893
X-185.975 Y-109.672
X-185.845 Y-109.457
X-185.744 Y-109.248
X-185.671 Y-109.046
X-185.622 Y-108.849
X-185.595 Y-108.658
X-185.59 Y-108.47
X-185.606 Y-108.279
X-185.642 Y-108.086
X-185.702 Y-107.888
X-185.787 Y-107.684
X-185.899 Y-107.475
X-186.043 Y-107.259
X-186.22 Y-107.038
X-186.431 Y-106.817
X-186.679 Y-106.596
X-186.963 Y-106.379
X-187.284 Y-106.169
X-187.647 Y-105.967
X-188.045 Y-105.779
X-188.477 Y-105.607
X-188.944 Y-105.456
X-189.442 Y-105.327
X-189.966 Y-105.225
X-190.513 Y-105.153
X-191.076 Y-105.112
X-191.445 Y-105.106
Z5
X-165.023 Y-110.655
Z2.5 F333.3
S5000
X-164.793 Y-110.811 Z2.49
X-164.442 Y-111.015 Z2.476
X-164.054 Y-111.205 Z2.461
X-163.63 Y-111.381 Z2.445
X-163.169 Y-111.538 Z2.428
X-162.679 Y-111.672 Z2.41
X-162.159 Y-111.78 Z2.392
X-161.617 Y-111.861 Z2.373
X-161.059 Y-111.909 Z2.353
X-160.491 Y-111.926 Z2.333
X-159.921 Y-111.908 Z2.313
X-159.358 Y-111.857 Z2.294
X-158.811 Y-111.775 Z2.274
X-158.287 Y-111.664 Z2.256
X-157.791 Y-111.525 Z2.238
X-157.327 Y-111.364 Z2.22
X-156.897 Y-111.183 Z2.204
X-156.507 Y-110.987 Z2.189
X-156.157 Y-110.779 Z2.175
X-155.845 Y-110.562 Z2.161
X-155.569 Y-110.338 Z2.149
X-155.334 Y-110.114 Z2.138
X-155.138 Y-109.893 Z2.127
X-154.975 Y-109.672 Z2.118
X-154.845 Y-109.457 Z2.109
X-154.744 Y-109.248 Z2.101
X-154.671 Y-109.046 Z2.093
X-154.622 Y-108.849 Z2.086
X-154.595 Y-108.658 Z2.08
X-154.59 Y-108.47 Z2.073
X-154.606 Y-108.279 Z2.066
X-154.642 Y-108.086 Z2.059
X-154.702 Y-107.888 Z2.052
X-154.787 Y-107.684 Z2.044
X-154.899 Y-107.475 Z2.036
X-155.043 Y-107.259 Z2.027
X-155.22 Y-107.038 Z2.017
X-155.431 Y-106.817 Z2.007
X-155.679 Y-106.596 Z1.995
X-155.963 Y-106.379 Z1.982
X-156.284 Y-106.169 Z1.969
X-156.647 Y-105.967 Z1.955
X-157.045 Y-105.779 Z1.939
X-157.477 Y-105.607 Z1.923
X-157.944 Y-105.456 Z1.906
X-158.442 Y-105.327 Z1.888
X-158.966 Y-105.225 Z1.869
X-159.513 Y-105.153 Z1.85
X-160.076 Y-105.112 Z1.83
X-160.645 Y-105.103 Z1.81
X-161.213 Y-105.129 Z1.79
X-161.773 Y-105.187 Z1.771
X-162.315 Y-105.277 Z1.752
X-162.834 Y-105.395 Z1.733
X-163.323 Y-105.539 Z1.715
X-163.779 Y-105.705 Z1.698
X-164.197 Y-105.889 Z1.682
X-164.579 Y-106.089 Z1.667
X-164.921 Y-106.3 Z1.653
X-165.225 Y-106.519 Z1.64
X-165.489 Y-106.741 Z1.628
X-165.713 Y-106.964 Z1.617
X-165.905 Y-107.189 Z1.607
X-166.06 Y-107.409 Z1.597
X-166.182 Y-107.62 Z1.589
X-166.275 Y-107.828 Z1.581
X-166.343 Y-108.028 Z1.573
X-166.386 Y-108.223 Z1.567
X-166.41 Y-108.434 Z1.559
X-166.411 Y-108.491 Z1.557
X-166.4 Y-108.704 Z1.55
X-166.368 Y-108.897 Z1.543
X-166.315 Y-109.091 Z1.536
X-166.236 Y-109.294 Z1.528
X-166.13 Y-109.504 Z1.52
X-165.994 Y-109.718 Z1.511
X-165.826 Y-109.936 Z1.502
X-165.623 Y-110.157 Z1.491
X-165.383 Y-110.38 Z1.48
X-165.108 Y-110.598 Z1.467
X-164.793 Y-110.811 Z1.454
X-164.442 Y-111.015 Z1.44
X-164.054 Y-111.205 Z1.425
X-163.63 Y-111.381 Z1.409
X-163.169 Y-111.538 Z1.392
X-162.679 Y-111.672 Z1.374
X-162.159 Y-111.78 Z1.356
X-161.617 Y-111.861 Z1.336
X-161.059 Y-111.909 Z1.317
X-160.491 Y-111.926 Z1.297
X-159.921 Y-111.908 Z1.277
X-159.358 Y-111.857 Z1.257
X-158.811 Y-111.775 Z1.238
X-158.287 Y-111.664 Z1.219
X-157.791 Y-111.525 Z1.201
X-157.327 Y-111.364 Z1.184
X-156.897 Y-111.183 Z1.168
X-156.507 Y-110.987 Z1.153
X-156.157 Y-110.779 Z1.138
X-155.845 Y-110.562 Z1.125
X-155.569 Y-110.338 Z1.113
X-155.334 Y-110.114 Z1.101
X-155.138 Y-109.893 Z1.091
X-154.975 Y-109.672 Z1.081
X-154.845 Y-109.457 Z1.073
X-154.744 Y-109.248 Z1.065
X-154.671 Y-109.046 Z1.057
X-154.622 Y-108.849 Z1.05
X-154.595 Y-108.658 Z1.043
X-154.59 Y-108.47 Z1.037
X-154.606 Y-108.279 Z1.03
X-154.642 Y-108.086 Z1.023
X-154.702 Y-107.888 Z1.016
X-154.787 Y-107.684 Z1.008
X-154.899 Y-107.475 Z1
X-155.043 Y-107.259 Z0.991
X-155.22 Y-107.038 Z0.981
X-155.431 Y-106.817 Z0.97
X-155.679 Y-106.596 Z0.959
X-155.963 Y-106.379 Z0.946
X-156.284 Y-106.169 Z0.933
X-156.647 Y-105.967 Z0.918
X-157.045 Y-105.779 Z0.903
X-157.477 Y-105.607 Z0.887
X-157.944 Y-105.456 Z0.87
X-158.442 Y-105.327 Z0.852
X-158.966 Y-105.225 Z0.833
X-159.513 Y-105.153 Z0.814
X-160.076 Y-105.112 Z0.794
X-160.645 Y-105.103 Z0.774
X-161.213 Y-105.129 Z0.754
X-161.773 Y-105.187 Z0.735
X-162.315 Y-105.277 Z0.715
X-162.834 Y-105.395 Z0.697
X-163.323 Y-105.539 Z0.679
X-163.779 Y-105.705 Z0.662
X-164.197 Y-105.889 Z0.646
X-164.579 Y-106.089 Z0.631
X-164.921 Y-106.3 Z0.617
X-165.225 Y-106.519 Z0.604
X-165.489 Y-106.741 Z0.592
X-165.713 Y-106.964 Z0.581
X-165.905 Y-107.189 Z0.571
X-166.06 Y-107.409 Z0.561
X-166.182 Y-107.62 Z0.553
X-166.275 Y-107.828 Z0.545
X-166.343 Y-108.028 Z0.537
X-166.386 Y-108.223 Z0.53
X-166.41 Y-108.434 Z0.523
X-166.411 Y-108.491 Z0.521
X-166.4 Y-108.704 Z0.513
X-166.368 Y-108.897 Z0.507
X-166.315 Y-109.091 Z0.5
X-166.236 Y-109.294 Z0.492
X-166.13 Y-109.504 Z0.484
X-165.994 Y-109.718 Z0.475
X-165.826 Y-109.936 Z0.465
X-165.623 Y-110.157 Z0.455
X-165.383 Y-110.38 Z0.443
X-165.108 Y-110.598 Z0.431
X-164.793 Y-110.811 Z0.418
X-164.442 Y-111.015 Z0.404
X-164.054 Y-111.205 Z0.389
X-163.63 Y-111.381 Z0.373
X-163.169 Y-111.538 Z0.356
X-162.679 Y-111.672 Z0.338
X-162.159 Y-111.78 Z0.319
X-161.617 Y-111.861 Z0.3
X-161.059 Y-111.909 Z0.281
X-160.491 Y-111.926 Z0.261
X-159.921 Y-111.908 Z0.241
X-159.358 Y-111.857 Z0.221
X-158.811 Y-111.775 Z0.202
X-158.287 Y-111.664 Z0.183
X-157.791 Y-111.525 Z0.165
X-157.327 Y-111.364 Z0.148
X-156.897 Y-111.183 Z0.132
X-156.507 Y-110.987 Z0.116
X-156.157 Y-110.779 Z0.102
X-155.845 Y-110.562 Z0.089
X-155.569 Y-110.338 Z0.077
X-155.334 Y-110.114 Z0.065
X-155.138 Y-109.893 Z0.055
X-154.975 Y-109.672 Z0.045
X-154.845 Y-109.457 Z0.036
X-154.744 Y-109.248 Z0.028
X-154.671 Y-109.046 Z0.021
X-154.622 Y-108.849 Z0.014
X-154.595 Y-108.658 Z0.007
X-154.59 Y-108.47 Z0
X-154.606 Y-108.279 Z-0.006
X-154.642 Y-108.086 Z-0.013
X-154.702 Y-107.888 Z-0.02
X-154.787 Y-107.684 Z-0.028
X-154.899 Y-107.475 Z-0.036
X-155.043 Y-107.259 Z-0.045
X-155.22 Y-107.038 Z-0.055
X-155.431 Y-106.817 Z-0.066
X-155.679 Y-106.596 Z-0.078
X-155.963 Y-106.379 Z-0.09
X-156.284 Y-106.169 Z-0.103
X-156.647 Y-105.967 Z-0.118
X-157.045 Y-105.779 Z-0.133
X-157.477 Y-105.607 Z-0.15
X-157.944 Y-105.456 Z-0.167
X-158.442 Y-105.327 Z-0.185
X-158.966 Y-105.225 Z-0.203
X-159.513 Y-105.153 Z-0.223
X-160.076 Y-105.112 Z-0.242
X-160.645 Y-105.103 Z-0.262
X-161.213 Y-105.129 Z-0.282
X-161.773 Y-105.187 Z-0.302
X-162.315 Y-105.277 Z-0.321
X-162.834 Y-105.395 Z-0.339
X-163.323 Y-105.539 Z-0.357
X-163.779 Y-105.705 Z-0.374
X-164.197 Y-105.889 Z-0.39
X-164.579 Y-106.089 Z-0.405
X-164.921 Y-106.3 Z-0.419
X-165.225 Y-106.519 Z-0.432
X-165.489 Y-106.741 Z-0.444
X-165.713 Y-106.964 Z-0.455
X-165.905 Y-107.189 Z-0.466
X-166.06 Y-107.409 Z-0.475
X-166.182 Y-107.62 Z-0.484
X-166.275 Y-107.828 Z-0.492
X-166.343 Y-108.028 Z-0.499
X-166.386 Y-108.223 Z-0.506
X-166.41 Y-108.434 Z-0.513
X-166.411 Y-108.491 Z-0.515
X-166.4 Y-108.704 Z-0.523
X-166.368 Y-108.897 Z-0.53
X-166.315 Y-109.091 Z-0.537
X-166.236 Y-109.294 Z-0.544
X-166.13 Y-109.504 Z-0.552
X-165.994 Y-109.718 Z-0.561
X-165.826 Y-109.936 Z-0.571
X-165.623 Y-110.157 Z-0.581
X-165.383 Y-110.38 Z-0.593
X-165.108 Y-110.598 Z-0.605
X-164.793 Y-110.811 Z-0.618
X-164.442 Y-111.015 Z-0.633
X-164.054 Y-111.205 Z-0.648
X-163.63 Y-111.381 Z-0.664
X-163.169 Y-111.538 Z-0.681
X-162.679 Y-111.672 Z-0.698
X-162.159 Y-111.78 Z-0.717
X-161.617 Y-111.861 Z-0.736
X-161.059 Y-111.909 Z-0.756
X-160.491 Y-111.926 Z-0.775
X-159.921 Y-111.908 Z-0.795
X-159.358 Y-111.857 Z-0.815
X-158.811 Y-111.775 Z-0.834
X-158.287 Y-111.664 Z-0.853
X-157.791 Y-111.525 Z-0.871
X-157.327 Y-111.364 Z-0.888
X-156.897 Y-111.183 Z-0.905
X-156.507 Y-110.987 Z-0.92
X-156.157 Y-110.779 Z-0.934
X-155.845 Y-110.562 Z-0.947
X-155.569 Y-110.338 Z-0.96
X-155.334 Y-110.114 Z-0.971
X-155.138 Y-109.893 Z-0.981
X-154.975 Y-109.672 Z-0.991
X-154.845 Y-109.457 Z-1
X-154.744 Y-109.248 Z-1.008
X-154.671 Y-109.046 Z-1.015
X-154.622 Y-108.849 Z-1.022
X-154.595 Y-108.658 Z-1.029
X-154.59 Y-108.47 Z-1.036
X-154.606 Y-108.279 Z-1.042
X-154.642 Y-108.086 Z-1.049
X-154.702 Y-107.888 Z-1.057
X-154.787 Y-107.684 Z-1.064
X-154.899 Y-107.475 Z-1.073
X-155.043 Y-107.259 Z-1.082
X-155.22 Y-107.038 Z-1.091
X-155.431 Y-106.817 Z-1.102
X-155.679 Y-106.596 Z-1.114
X-155.963 Y-106.379 Z-1.126
X-156.284 Y-106.169 Z-1.14
X-156.647 Y-105.967 Z-1.154
X-157.045 Y-105.779 Z-1.169
X-157.477 Y-105.607 Z-1.186
X-157.944 Y-105.456 Z-1.203
X-158.442 Y-105.327 Z-1.221
X-158.966 Y-105.225 Z-1.239
X-159.513 Y-105.153 Z-1.259
X-160.076 Y-105.112 Z-1.278
X-160.645 Y-105.103 Z-1.298
X-161.213 Y-105.129 Z-1.318
X-161.773 Y-105.187 Z-1.338
X-162.315 Y-105.277 Z-1.357
X-162.834 Y-105.395 Z-1.376
X-163.323 Y-105.539 Z-1.393
X-163.779 Y-105.705 Z-1.41
X-164.197 Y-105.889 Z-1.426
X-164.579 Y-106.089 Z-1.441
X-164.921 Y-106.3 Z-1.455
X-165.225 Y-106.519 Z-1.468
X-165.489 Y-106.741 Z-1.481
X-165.713 Y-106.964 Z-1.492
X-165.905 Y-107.189 Z-1.502
X-166.06 Y-107.409 Z-1.511
X-166.182 Y-107.62 Z-1.52
X-166.275 Y-107.828 Z-1.528
X-166.343 Y-108.028 Z-1.535
X-166.386 Y-108.223 Z-1.542
X-166.41 Y-108.434 Z-1.55
X-166.411 Y-108.491 Z-1.552
X-166.4 Y-108.704 Z-1.559
X-166.368 Y-108.897 Z-1.566
X-166.315 Y-109.091 Z-1.573
X-166.236 Y-109.294 Z-1.58
X-166.13 Y-109.504 Z-1.589
X-165.994 Y-109.718 Z-1.598
X-165.826 Y-109.936 Z-1.607
X-165.623 Y-110.157 Z-1.618
X-165.383 Y-110.38 Z-1.629
X-165.108 Y-110.598 Z-1.641
X-164.793 Y-110.811 Z-1.655
X-164.442 Y-111.015 Z-1.669
X-164.054 Y-111.205 Z-1.684
X-163.63 Y-111.381 Z-1.7
X-163.169 Y-111.538 Z-1.717
X-162.679 Y-111.672 Z-1.735
X-162.159 Y-111.78 Z-1.753
X-161.617 Y-111.861 Z-1.772
X-161.059 Y-111.909 Z-1.792
X-160.491 Y-111.926 Z-1.812
X-159.921 Y-111.908 Z-1.832
X-159.358 Y-111.857 Z-1.851
X-158.811 Y-111.775 Z-1.871
X-158.287 Y-111.664 Z-1.889
X-157.791 Y-111.525 Z-1.907
X-157.327 Y-111.364 Z-1.925
X-156.897 Y-111.183 Z-1.941
X-156.507 Y-110.987 Z-1.956
X-156.157 Y-110.779 Z-1.97
X-155.845 Y-110.562 Z-1.984
X-155.569 Y-110.338 Z-1.996
X-155.334 Y-110.114 Z-2.007
X-155.138 Y-109.893 Z-2.018
X-154.975 Y-109.672 Z-2.027
X-154.845 Y-109.457 Z-2.036
X-154.744 Y-109.248 Z-2.044
X-154.671 Y-109.046 Z-2.052
X-154.622 Y-108.849 Z-2.059
X-154.595 Y-108.658 Z-2.065
X-154.59 Y-108.47 Z-2.072
X-154.606 Y-108.279 Z-2.079
X-154.642 Y-108.086 Z-2.086
X-154.702 Y-107.888 Z-2.093
X-154.787 Y-107.684 Z-2.1
X-154.899 Y-107.475 Z-2.109
X-155.043 Y-107.259 Z-2.118
X-155.22 Y-107.038 Z-2.128
X-155.431 Y-106.817 Z-2.138
X-155.679 Y-106.596 Z-2.15
X-155.963 Y-106.379 Z-2.162
X-156.284 Y-106.169 Z-2.176
X-156.647 Y-105.967 Z-2.19
X-157.045 Y-105.779 Z-2.206
X-157.477 Y-105.607 Z-2.222
X-157.944 Y-105.456 Z-2.239
X-158.442 Y-105.327 Z-2.257
X-158.966 Y-105.225 Z-2.276
X-159.513 Y-105.153 Z-2.295
X-160.076 Y-105.112 Z-2.315
X-160.645 Y-105.103 Z-2.335
X-161.213 Y-105.129 Z-2.354
X-161.773 Y-105.187 Z-2.374
X-162.315 Y-105.277 Z-2.393
X-162.834 Y-105.395 Z-2.412
X-163.323 Y-105.539 Z-2.43
X-163.779 Y-105.705 Z-2.447
X-164.197 Y-105.889 Z-2.463
X-164.579 Y-106.089 Z-2.478
X-164.921 Y-106.3 Z-2.492
X-165.225 Y-106.519 Z-2.505
X-165.489 Y-106.741 Z-2.517
X-165.713 Y-106.964 Z-2.528
X-165.905 Y-107.189 Z-2.538
X-166.06 Y-107.409 Z-2.548
X-166.182 Y-107.62 Z-2.556
X-166.275 Y-107.828 Z-2.564
X-166.343 Y-108.028 Z-2.571
X-166.386 Y-108.223 Z-2.578
X-166.41 Y-108.434 Z-2.586
X-166.411 Y-108.491 Z-2.588
X-166.4 Y-108.704 Z-2.595
X-166.368 Y-108.897 Z-2.602
X-166.315 Y-109.091 Z-2.609
X-166.236 Y-109.294 Z-2.617
X-166.13 Y-109.504 Z-2.625
X-165.994 Y-109.718 Z-2.634
X-165.826 Y-109.936 Z-2.643
X-165.623 Y-110.157 Z-2.654
X-165.383 Y-110.38 Z-2.665
X-165.108 Y-110.598 Z-2.678
X-164.793 Y-110.811 Z-2.691
X-164.442 Y-111.015 Z-2.705
X-164.054 Y-111.205 Z-2.72
X-163.63 Y-111.381 Z-2.736
X-163.169 Y-111.538 Z-2.753
X-162.679 Y-111.672 Z-2.771
X-162.159 Y-111.78 Z-2.789
X-161.617 Y-111.861 Z-2.808
X-161.059 Y-111.909 Z-2.828
X-160.491 Y-111.926 Z-2.848
X-159.921 Y-111.908 Z-2.868
X-159.358 Y-111.857 Z-2.888
X-158.811 Y-111.775 Z-2.907
X-158.287 Y-111.664 Z-2.926
X-157.791 Y-111.525 Z-2.944
X-157.327 Y-111.364 Z-2.961
X-156.897 Y-111.183 Z-2.977
X-156.507 Y-110.987 Z-2.992
X-156.157 Y-110.779 Z-3.006
X-155.845 Y-110.562 Z-3.02
X-155.569 Y-110.338 Z-3.032
X-155.334 Y-110.114 Z-3.043
X-155.138 Y-109.893 Z-3.054
X-154.975 Y-109.672 Z-3.063
X-154.845 Y-109.457 Z-3.072
X-154.744 Y-109.248 Z-3.08
X-154.671 Y-109.046 Z-3.088
X-154.622 Y-108.849 Z-3.095
X-154.595 Y-108.658 Z-3.102
X-154.59 Y-108.47 Z-3.108
X-154.606 Y-108.279 Z-3.115
X-154.642 Y-108.086 Z-3.122
X-154.702 Y-107.888 Z-3.129
X-154.787 Y-107.684 Z-3.137
X-154.899 Y-107.475 Z-3.145
X-155.043 Y-107.259 Z-3.154
X-155.22 Y-107.038 Z-3.164
X-155.431 Y-106.817 Z-3.175
X-155.679 Y-106.596 Z-3.186
X-155.963 Y-106.379 Z-3.199
X-156.284 Y-106.169 Z-3.212
X-156.647 Y-105.967 Z-3.227
X-157.045 Y-105.779 Z-3.242
X-157.477 Y-105.607 Z-3.258
X-157.944 Y-105.456 Z-3.275
X-158.442 Y-105.327 Z-3.293
X-158.966 Y-105.225 Z-3.312
X-159.513 Y-105.153 Z-3.331
X-160.076 Y-105.112 Z-3.351
X-160.645 Y-105.103 Z-3.371
X-161.213 Y-105.129 Z-3.391
X-161.773 Y-105.187 Z-3.41
X-162.315 Y-105.277 Z-3.429
X-162.834 Y-105.395 Z-3.448
X-163.323 Y-105.539 Z-3.466
X-163.779 Y-105.705 Z-3.483
X-164.197 Y-105.889 Z-3.499
X-164.579 Y-106.089 Z-3.514
X-164.921 Y-106.3 Z-3.528
X-165.225 Y-106.519 Z-3.541
X-165.489 Y-106.741 Z-3.553
X-165.713 Y-106.964 Z-3.564
X-165.905 Y-107.189 Z-3.574
X-166.06 Y-107.409 Z-3.584
X-166.182 Y-107.62 Z-3.592
X-166.275 Y-107.828 Z-3.6
X-166.343 Y-108.028 Z-3.608
X-166.386 Y-108.223 Z-3.615
X-166.41 Y-108.434 Z-3.622
X-166.411 Y-108.491 Z-3.624
X-166.4 Y-108.704 Z-3.631
X-166.368 Y-108.897 Z-3.638
X-166.315 Y-109.091 Z-3.645
X-166.236 Y-109.294 Z-3.653
X-166.13 Y-109.504 Z-3.661
X-165.994 Y-109.718 Z-3.67
X-165.826 Y-109.936 Z-3.68
X-165.623 Y-110.157 Z-3.69
X-165.383 Y-110.38 Z-3.701
X-165.108 Y-110.598 Z-3.714
X-164.793 Y-110.811 Z-3.727
X-164.442 Y-111.015 Z-3.741
X-164.054 Y-111.205 Z-3.756
X-163.63 Y-111.381 Z-3.772
X-163.169 Y-111.538 Z-3.789
X-162.679 Y-111.672 Z-3.807
X-162.159 Y-111.78 Z-3.826
X-161.617 Y-111.861 Z-3.845
X-161.059 Y-111.909 Z-3.864
X-160.491 Y-111.926 Z-3.884
X-159.921 Y-111.908 Z-3.904
X-159.358 Y-111.857 Z-3.924
X-158.811 Y-111.775 Z-3.943
X-158.287 Y-111.664 Z-3.962
X-157.791 Y-111.525 Z-3.98
X-157.327 Y-111.364 Z-3.997
X-156.897 Y-111.183 Z-4.013
X-156.507 Y-110.987 Z-4.028
X-156.157 Y-110.779 Z-4.043
X-155.845 Y-110.562 Z-4.056
X-155.569 Y-110.338 Z-4.068
X-155.334 Y-110.114 Z-4.08
X-155.138 Y-109.893 Z-4.09
X-154.975 Y-109.672 Z-4.1
X-154.845 Y-109.457 Z-4.108
X-154.744 Y-109.248 Z-4.117
X-154.671 Y-109.046 Z-4.124
X-154.622 Y-108.849 Z-4.131
X-154.595 Y-108.658 Z-4.138
X-154.59 Y-108.47 Z-4.144
X-154.606 Y-108.279 Z-4.151
X-154.642 Y-108.086 Z-4.158
X-154.702 Y-107.888 Z-4.165
X-154.787 Y-107.684 Z-4.173
X-154.899 Y-107.475 Z-4.181
X-155.043 Y-107.259 Z-4.19
X-155.22 Y-107.038 Z-4.2
X-155.431 Y-106.817 Z-4.211
X-155.679 Y-106.596 Z-4.222
X-155.963 Y-106.379 Z-4.235
X-156.284 Y-106.169 Z-4.248
X-156.647 Y-105.967 Z-4.263
X-157.045 Y-105.779 Z-4.278
X-157.477 Y-105.607 Z-4.294
X-157.944 Y-105.456 Z-4.312
X-158.442 Y-105.327 Z-4.33
X-158.966 Y-105.225 Z-4.348
X-159.513 Y-105.153 Z-4.367
X-160.076 Y-105.112 Z-4.387
X-160.445 Y-105.106 Z-4.4
S3000
X-160.645 Y-105.103 F1000
X-161.213 Y-105.129
X-161.773 Y-105.187
X-162.315 Y-105.277
X-162.834 Y-105.395
X-163.323 Y-105.539
X-163.779 Y-105.705
X-164.197 Y-105.889
X-164.579 Y-106.089
X-164.921 Y-106.3
X-165.225 Y-106.519
X-165.489 Y-106.741
X-165.713 Y-106.964
X-165.905 Y-107.189
X-166.06 Y-107.409
X-166.182 Y-107.62
X-166.275 Y-107.828
X-166.343 Y-108.028
X-166.386 Y-108.223
X-166.41 Y-108.434
X-166.411 Y-108.491
X-166.4 Y-108.704
X-166.368 Y-108.897
X-166.315 Y-109.091
X-166.236 Y-109.294
X-166.13 Y-109.504
X-165.994 Y-109.718
X-165.826 Y-109.936
X-165.623 Y-110.157
X-165.383 Y-110.38
X-165.108 Y-110.598
X-164.793 Y-110.811
X-164.442 Y-111.015
X-164.054 Y-111.205
X-163.63 Y-111.381
X-163.169 Y-111.538
X-162.679 Y-111.672
X-162.159 Y-111.78
X-161.617 Y-111.861
X-161.059 Y-111.909
X-160.491 Y-111.926
X-159.921 Y-111.908
X-159.358 Y-111.857
X-158.811 Y-111.775
X-158.287 Y-111.664
X-157.791 Y-111.525
X-157.327 Y-111.364
X-156.897 Y-111.183
X-156.507 Y-110.987
X-156.157 Y-110.779
X-155.845 Y-110.562
X-155.569 Y-110.338
X-155.334 Y-110.114
X-155.138 Y-109.893
X-154.975 Y-109.672
X-154.845 Y-109.457
X-154.744 Y-109.248
X-154.671 Y-109.046
X-154.622 Y-108.849
X-154.595 Y-108.658
X-154.59 Y-108.47
X-154.606 Y-108.279
X-154.642 Y-108.086
X-154.702 Y-107.888
X-154.787 Y-107.684
X-154.899 Y-107.475
X-155.043 Y-107.259
X-155.22 Y-107.038
X-155.431 Y-106.817
X-155.679 Y-106.596
X-155.963 Y-106.379
X-156.284 Y-106.169
X-156.647 Y-105.967
X-157.045 Y-105.779
X-157.477 Y-105.607
X-157.944 Y-105.456
X-158.442 Y-105.327
X-158.966 Y-105.225
X-159.513 Y-105.153
X-160.076 Y-105.112
X-160.445 Y-105.106
Z5
X-61.268 Y-28.315
Z2.5 F333.3
S5000
X-63.177 Y-30.224 Z2.406
G3 X-62.947 Y-30.454 Z2.388 I0.115 J-0.115
G1 X-59.588 Y-27.095 Z2.222
G3 X-59.818 Y-26.865 Z2.204 I-0.115 J0.115
G1 X-63.177 Y-30.224 Z2.038
G3 X-62.947 Y-30.454 Z2.021 I0.115 J-0.115
G1 X-59.588 Y-27.095 Z1.855
G3 X-59.818 Y-26.865 Z1.837 I-0.115 J0.115
G1 X-63.177 Y-30.224 Z1.671
G3 X-62.947 Y-30.454 Z1.653 I0.115 J-0.115
G1 X-59.588 Y-27.095 Z1.487
G3 X-59.818 Y-26.865 Z1.469 I-0.115 J0.115
G1 X-63.177 Y-30.224 Z1.304
G3 X-62.947 Y-30.454 Z1.286 I0.115 J-0.115
G1 X-59.588 Y-27.095 Z1.12
G3 X-59.818 Y-26.865 Z1.102 I-0.115 J0.115
G1 X-63.177 Y-30.224 Z0.936
G3 X-62.947 Y-30.454 Z0.918 I0.115 J-0.115
G1 X-59.588 Y-27.095 Z0.752
G3 X-59.818 Y-26.865 Z0.735 I-0.115 J0.115
G1 X-63.177 Y-30.224 Z0.569
G3 X-62.947 Y-30.454 Z0.551 I0.115 J-0.115
G1 X-59.588 Y-27.095 Z0.385
G3 X-59.818 Y-26.865 Z0.367 I-0.115 J0.115
G1 X-63.177 Y-30.224 Z0.201
G3 X-62.947 Y-30.454 Z0.184 I0.115 J-0.115
G1 X-59.588 Y-27.095 Z0.018
G3 X-59.818 Y-26.865 Z0 I-0.115 J0.115
G1 X-63.177 Y-30.224 Z-0.166
G3 X-62.947 Y-30.454 Z-0.184 I0.115 J-0.115
G1 X-59.588 Y-27.095 Z-0.35
G3 X-59.818 Y-26.865 Z-0.368 I-0.115 J0.115
G1 X-63.177 Y-30.224 Z-0.533
G3 X-62.947 Y-30.454 Z-0.551 I0.115 J-0.115
G1 X-59.588 Y-27.095 Z-0.717
G3 X-59.818 Y-26.865 Z-0.735 I-0.115 J0.115
G1 X-63.177 Y-30.224 Z-0.901
G3 X-62.947 Y-30.454 Z-0.919 I0.115 J-0.115
G1 X-59.588 Y-27.095 Z-1.085
G3 X-59.818 Y-26.865 Z-1.102 I-0.115 J0.115
G1 X-63.177 Y-30.224 Z-1.268
G3 X-62.947 Y-30.454 Z-1.286 I0.115 J-0.115
G1 X-59.588 Y-27.095 Z-1.452
G3 X-59.818 Y-26.865 Z-1.47 I-0.115 J0.115
G1 X-63.177 Y-30.224 Z-1.636
G3 X-62.947 Y-30.454 Z-1.653 I0.115 J-0.115
G1 X-59.588 Y-27.095 Z-1.819
G3 X-59.818 Y-26.865 Z-1.837 I-0.115 J0.115
G1 X-63.177 Y-30.224 Z-2.003
G3 X-62.947 Y-30.454 Z-2.021 I0.115 J-0.115
G1 X-59.588 Y-27.095 Z-2.187
G3 X-59.818 Y-26.865 Z-2.205 I-0.115 J0.115
G1 X-63.177 Y-30.224 Z-2.37
G3 X-62.947 Y-30.454 Z-2.388 I0.115 J-0.115
G1 X-59.588 Y-27.095 Z-2.554
G3 X-59.818 Y-26.865 Z-2.572 I-0.115 J0.115
G1 X-63.177 Y-30.224 Z-2.738
G3 X-62.947 Y-30.454 Z-2.756 I0.115 J-0.115
G1 X-59.588 Y-27.095 Z-2.922
G3 X-59.818 Y-26.865 Z-2.939 I-0.115 J0.115
G1 X-63.177 Y-30.224 Z-3.105
G3 X-62.947 Y-30.454 Z-3.123 I0.115 J-0.115
G1 X-59.588 Y-27.095 Z-3.289
G3 X-59.818 Y-26.865 Z-3.307 I-0.115 J0.115
G1 X-63.177 Y-30.224 Z-3.473
G3 X-62.947 Y-30.454 Z-3.49 I0.115 J-0.115
G1 X-59.588 Y-27.095 Z-3.656
G3 X-59.818 Y-26.865 Z-3.674 I-0.115 J0.115
G1 X-63.177 Y-30.224 Z-3.84
G3 X-62.947 Y-30.454 Z-3.858 I0.115 J-0.115
G1 X-59.588 Y-27.095 Z-4.024
G3 X-59.818 Y-26.865 Z-4.042 I-0.115 J0.115
G1 X-63.177 Y-30.224 Z-4.207
G3 X-62.947 Y-30.454 Z-4.225 I0.115 J-0.115
G1 X-59.588 Y-27.095 Z-4.391
X-59.562 Y-27.061 Z-4.393
X-59.546 Y-27.022 Z-4.394
X-59.54 Y-26.98 Z-4.396
X-59.546 Y-26.938 Z-4.397
X-59.562 Y-26.899 Z-4.399
X-59.588 Y-26.865 Z-4.4
S3000
X-59.622 Y-26.839 F1000
X-59.661 Y-26.823
X-59.703 Y-26.818
X-59.745 Y-26.823
X-59.784 Y-26.839
X-59.818 Y-26.865
X-63.177 Y-30.224
G3 X-62.947 Y-30.454 I0.115 J-0.115
G1 X-59.588 Y-27.095
X-59.562 Y-27.061
X-59.546 Y-27.022
X-59.54 Y-26.98
X-59.546 Y-26.938
X-59.562 Y-26.899
X-59.588 Y-26.865
Z5
X-61.218 Y-14.275
Z2.5 F333.3
S5000
X-62.947 Y-12.546 Z2.415
G3 X-63.177 Y-12.776 Z2.397 I-0.115 J-0.115
G1 X-59.818 Y-16.135 Z2.231
G3 X-59.588 Y-15.905 Z2.213 I0.115 J0.115
G1 X-62.947 Y-12.546 Z2.047
G3 X-63.177 Y-12.776 Z2.029 I-0.115 J-0.115
G1 X-59.818 Y-16.135 Z1.864
G3 X-59.588 Y-15.905 Z1.846 I0.115 J0.115
G1 X-62.947 Y-12.546 Z1.68
G3 X-63.177 Y-12.776 Z1.662 I-0.115 J-0.115
G1 X-59.818 Y-16.135 Z1.496
G3 X-59.588 Y-15.905 Z1.478 I0.115 J0.115
G1 X-62.947 Y-12.546 Z1.312
G3 X-63.177 Y-12.776 Z1.295 I-0.115 J-0.115
G1 X-59.818 Y-16.135 Z1.129
G3 X-59.588 Y-15.905 Z1.111 I0.115 J0.115
G1 X-62.947 Y-12.546 Z0.945
G3 X-63.177 Y-12.776 Z0.927 I-0.115 J-0.115
G1 X-59.818 Y-16.135 Z0.761
G3 X-59.588 Y-15.905 Z0.744 I0.115 J0.115
G1 X-62.947 Y-12.546 Z0.578
G3 X-63.177 Y-12.776 Z0.56 I-0.115 J-0.115
G1 X-59.818 Y-16.135 Z0.394
G3 X-59.588 Y-15.905 Z0.376 I0.115 J0.115
G1 X-62.947 Y-12.546 Z0.21
G3 X-63.177 Y-12.776 Z0.192 I-0.115 J-0.115
G1 X-59.818 Y-16.135 Z0.027
G3 X-59.588 Y-15.905 Z0.009 I0.115 J0.115
G1 X-62.947 Y-12.546 Z-0.157
G3 X-63.177 Y-12.776 Z-0.175 I-0.115 J-0.115
G1 X-59.818 Y-16.135 Z-0.341
G3 X-59.588 Y-15.905 Z-0.359 I0.115 J0.115
G1 X-62.947 Y-12.546 Z-0.525
G3 X-63.177 Y-12.776 Z-0.542 I-0.115 J-0.115
G1 X-59.818 Y-16.135 Z-0.708
G3 X-59.588 Y-15.905 Z-0.726 I0.115 J0.115
G1 X-62.947 Y-12.546 Z-0.892
G3 X-63.177 Y-12.776 Z-0.91 I-0.115 J-0.115
G1 X-59.818 Y-16.135 Z-1.076
G3 X-59.588 Y-15.905 Z-1.093 I0.115 J0.115
G1 X-62.947 Y-12.546 Z-1.259
G3 X-63.177 Y-12.776 Z-1.277 I-0.115 J-0.115
G1 X-59.818 Y-16.135 Z-1.443
G3 X-59.588 Y-15.905 Z-1.461 I0.115 J0.115
G1 X-62.947 Y-12.546 Z-1.627
G3 X-63.177 Y-12.776 Z-1.645 I-0.115 J-0.115
G1 X-59.818 Y-16.135 Z-1.81
G3 X-59.588 Y-15.905 Z-1.828 I0.115 J0.115
G1 X-62.947 Y-12.546 Z-1.994
G3 X-63.177 Y-12.776 Z-2.012 I-0.115 J-0.115
G1 X-59.818 Y-16.135 Z-2.178
G3 X-59.588 Y-15.905 Z-2.196 I0.115 J0.115
G1 X-62.947 Y-12.546 Z-2.361
G3 X-63.177 Y-12.776 Z-2.379 I-0.115 J-0.115
G1 X-59.818 Y-16.135 Z-2.545
G3 X-59.588 Y-15.905 Z-2.563 I0.115 J0.115
G1 X-62.947 Y-12.546 Z-2.729
G3 X-63.177 Y-12.776 Z-2.747 I-0.115 J-0.115
G1 X-59.818 Y-16.135 Z-2.913
G3 X-59.588 Y-15.905 Z-2.93 I0.115 J0.115
G1 X-62.947 Y-12.546 Z-3.096
G3 X-63.177 Y-12.776 Z-3.114 I-0.115 J-0.115
G1 X-59.818 Y-16.135 Z-3.28
G3 X-59.588 Y-15.905 Z-3.298 I0.115 J0.115
G1 X-62.947 Y-12.546 Z-3.464
G3 X-63.177 Y-12.776 Z-3.482 I-0.115 J-0.115
G1 X-59.818 Y-16.135 Z-3.647
G3 X-59.588 Y-15.905 Z-3.665 I0.115 J0.115
G1 X-62.947 Y-12.546 Z-3.831
G3 X-63.177 Y-12.776 Z-3.849 I-0.115 J-0.115
G1 X-59.818 Y-16.135 Z-4.015
G3 X-59.588 Y-15.905 Z-4.033 I0.115 J0.115
G1 X-62.947 Y-12.546 Z-4.198
G3 X-63.177 Y-12.776 Z-4.216 I-0.115 J-0.115
G1 X-59.818 Y-16.135 Z-4.382
G3 X-59.588 Y-15.905 Z-4.4 I0.115 J0.115
S3000
G1 X-62.947 Y-12.546 F1000
G3 X-63.177 Y-12.776 I-0.115 J-0.115
G1 X-59.818 Y-16.135
G3 X-59.588 Y-15.905 I0.115 J0.115
G1 Z5
X-47.358 Y-14.865
Z2.5 F333.3
S5000
X-45.269 Y-12.776 Z2.397
G3 X-45.499 Y-12.546 Z2.379 I-0.115 J0.115
G1 X-48.858 Y-15.905 Z2.213
G3 X-48.628 Y-16.135 Z2.195 I0.115 J-0.115
G1 X-45.269 Y-12.776 Z2.029
G3 X-45.499 Y-12.546 Z2.012 I-0.115 J0.115
G1 X-48.858 Y-15.905 Z1.846
G3 X-48.628 Y-16.135 Z1.828 I0.115 J-0.115
G1 X-45.269 Y-12.776 Z1.662
G3 X-45.499 Y-12.546 Z1.644 I-0.115 J0.115
G1 X-48.858 Y-15.905 Z1.478
G3 X-48.628 Y-16.135 Z1.46 I0.115 J-0.115
G1 X-45.269 Y-12.776 Z1.295
G3 X-45.499 Y-12.546 Z1.277 I-0.115 J0.115
G1 X-48.858 Y-15.905 Z1.111
G3 X-48.628 Y-16.135 Z1.093 I0.115 J-0.115
G1 X-45.269 Y-12.776 Z0.927
G3 X-45.499 Y-12.546 Z0.909 I-0.115 J0.115
G1 X-48.858 Y-15.905 Z0.744
G3 X-48.628 Y-16.135 Z0.726 I0.115 J-0.115
G1 X-45.269 Y-12.776 Z0.56
G3 X-45.499 Y-12.546 Z0.542 I-0.115 J0.115
G1 X-48.858 Y-15.905 Z0.376
G3 X-48.628 Y-16.135 Z0.358 I0.115 J-0.115
G1 X-45.269 Y-12.776 Z0.192
G3 X-45.499 Y-12.546 Z0.175 I-0.115 J0.115
G1 X-48.858 Y-15.905 Z0.009
G3 X-48.628 Y-16.135 Z-0.009 I0.115 J-0.115
G1 X-45.269 Y-12.776 Z-0.175
G3 X-45.499 Y-12.546 Z-0.193 I-0.115 J0.115
G1 X-48.858 Y-15.905 Z-0.359
G3 X-48.628 Y-16.135 Z-0.376 I0.115 J-0.115
G1 X-45.269 Y-12.776 Z-0.542
G3 X-45.499 Y-12.546 Z-0.56 I-0.115 J0.115
G1 X-48.858 Y-15.905 Z-0.726
G3 X-48.628 Y-16.135 Z-0.744 I0.115 J-0.115
G1 X-45.269 Y-12.776 Z-0.91
G3 X-45.499 Y-12.546 Z-0.928 I-0.115 J0.115
G1 X-48.858 Y-15.905 Z-1.093
G3 X-48.628 Y-16.135 Z-1.111 I0.115 J-0.115
G1 X-45.269 Y-12.776 Z-1.277
G3 X-45.499 Y-12.546 Z-1.295 I-0.115 J0.115
G1 X-48.858 Y-15.905 Z-1.461
G3 X-48.628 Y-16.135 Z-1.479 I0.115 J-0.115
G1 X-45.269 Y-12.776 Z-1.645
G3 X-45.499 Y-12.546 Z-1.662 I-0.115 J0.115
G1 X-48.858 Y-15.905 Z-1.828
G3 X-48.628 Y-16.135 Z-1.846 I0.115 J-0.115
G1 X-45.269 Y-12.776 Z-2.012
G3 X-45.499 Y-12.546 Z-2.03 I-0.115 J0.115
G1 X-48.858 Y-15.905 Z-2.196
G3 X-48.628 Y-16.135 Z-2.213 I0.115 J-0.115
G1 X-45.269 Y-12.776 Z-2.379
G3 X-45.499 Y-12.546 Z-2.397 I-0.115 J0.115
G1 X-48.858 Y-15.905 Z-2.563
G3 X-48.628 Y-16.135 Z-2.581 I0.115 J-0.115
G1 X-45.269 Y-12.776 Z-2.747
G3 X-45.499 Y-12.546 Z-2.765 I-0.115 J0.115
G1 X-48.858 Y-15.905 Z-2.93
G3 X-48.628 Y-16.135 Z-2.948 I0.115 J-0.115
G1 X-45.269 Y-12.776 Z-3.114
G3 X-45.499 Y-12.546 Z-3.132 I-0.115 J0.115
G1 X-48.858 Y-15.905 Z-3.298
G3 X-48.628 Y-16.135 Z-3.316 I0.115 J-0.115
G1 X-45.269 Y-12.776 Z-3.482
G3 X-45.499 Y-12.546 Z-3.499 I-0.115 J0.115
G1 X-48.858 Y-15.905 Z-3.665
G3 X-48.628 Y-16.135 Z-3.683 I0.115 J-0.115
G1 X-45.269 Y-12.776 Z-3.849
G3 X-45.499 Y-12.546 Z-3.867 I-0.115 J0.115
G1 X-48.858 Y-15.905 Z-4.033
G3 X-48.628 Y-16.135 Z-4.05 I0.115 J-0.115
G1 X-45.269 Y-12.776 Z-4.216
G3 X-45.499 Y-12.546 Z-4.234 I-0.115 J0.115
G1 X-48.858 Y-15.905 Z-4.4
S3000
G3 X-48.628 Y-16.135 I0.115 J-0.115 F1000
G1 X-45.269 Y-12.776
G3 X-45.499 Y-12.546 I-0.115 J0.115
G1 X-48.858 Y-15.905
Z5
X-46.899 Y-28.594
Z2.5 F333.3
S5000
X-48.628 Y-26.865 Z2.415
G3 X-48.858 Y-27.095 Z2.397 I-0.115 J-0.115
G1 X-45.499 Y-30.454 Z2.231
G3 X-45.269 Y-30.224 Z2.213 I0.115 J0.115
G1 X-48.628 Y-26.865 Z2.047
G3 X-48.858 Y-27.095 Z2.029 I-0.115 J-0.115
G1 X-45.499 Y-30.454 Z1.864
G3 X-45.269 Y-30.224 Z1.846 I0.115 J0.115
G1 X-48.628 Y-26.865 Z1.68
G3 X-48.858 Y-27.095 Z1.662 I-0.115 J-0.115
G1 X-45.499 Y-30.454 Z1.496
G3 X-45.269 Y-30.224 Z1.478 I0.115 J0.115
G1 X-48.628 Y-26.865 Z1.312
G3 X-48.858 Y-27.095 Z1.295 I-0.115 J-0.115
G1 X-45.499 Y-30.454 Z1.129
G3 X-45.269 Y-30.224 Z1.111 I0.115 J0.115
G1 X-48.628 Y-26.865 Z0.945
G3 X-48.858 Y-27.095 Z0.927 I-0.115 J-0.115
G1 X-45.499 Y-30.454 Z0.761
G3 X-45.269 Y-30.224 Z0.744 I0.115 J0.115
G1 X-48.628 Y-26.865 Z0.578
G3 X-48.858 Y-27.095 Z0.56 I-0.115 J-0.115
G1 X-45.499 Y-30.454 Z0.394
G3 X-45.269 Y-30.224 Z0.376 I0.115 J0.115
G1 X-48.628 Y-26.865 Z0.21
G3 X-48.858 Y-27.095 Z0.192 I-0.115 J-0.115
G1 X-45.499 Y-30.454 Z0.027
G3 X-45.269 Y-30.224 Z0.009 I0.115 J0.115
G1 X-48.628 Y-26.865 Z-0.157
G3 X-48.858 Y-27.095 Z-0.175 I-0.115 J-0.115
G1 X-45.499 Y-30.454 Z-0.341
G3 X-45.269 Y-30.224 Z-0.359 I0.115 J0.115
G1 X-48.628 Y-26.865 Z-0.525
G3 X-48.858 Y-27.095 Z-0.542 I-0.115 J-0.115
G1 X-45.499 Y-30.454 Z-0.708
G3 X-45.269 Y-30.224 Z-0.726 I0.115 J0.115
G1 X-48.628 Y-26.865 Z-0.892
G3 X-48.858 Y-27.095 Z-0.91 I-0.115 J-0.115
G1 X-45.499 Y-30.454 Z-1.076
G3 X-45.269 Y-30.224 Z-1.093 I0.115 J0.115
G1 X-48.628 Y-26.865 Z-1.259
G3 X-48.858 Y-27.095 Z-1.277 I-0.115 J-0.115
G1 X-45.499 Y-30.454 Z-1.443
G3 X-45.269 Y-30.224 Z-1.461 I0.115 J0.115
G1 X-48.628 Y-26.865 Z-1.627
G3 X-48.858 Y-27.095 Z-1.645 I-0.115 J-0.115
G1 X-45.499 Y-30.454 Z-1.81
G3 X-45.269 Y-30.224 Z-1.828 I0.115 J0.115
G1 X-48.628 Y-26.865 Z-1.994
G3 X-48.858 Y-27.095 Z-2.012 I-0.115 J-0.115
G1 X-45.499 Y-30.454 Z-2.178
G3 X-45.269 Y-30.224 Z-2.196 I0.115 J0.115
G1 X-48.628 Y-26.865 Z-2.361
G3 X-48.858 Y-27.095 Z-2.379 I-0.115 J-0.115
G1 X-45.499 Y-30.454 Z-2.545
G3 X-45.269 Y-30.224 Z-2.563 I0.115 J0.115
G1 X-48.628 Y-26.865 Z-2.729
G3 X-48.858 Y-27.095 Z-2.747 I-0.115 J-0.115
G1 X-45.499 Y-30.454 Z-2.913
G3 X-45.269 Y-30.224 Z-2.93 I0.115 J0.115
G1 X-48.628 Y-26.865 Z-3.096
G3 X-48.858 Y-27.095 Z-3.114 I-0.115 J-0.115
G1 X-45.499 Y-30.454 Z-3.28
G3 X-45.269 Y-30.224 Z-3.298 I0.115 J0.115
G1 X-48.628 Y-26.865 Z-3.464
G3 X-48.858 Y-27.095 Z-3.482 I-0.115 J-0.115
G1 X-45.499 Y-30.454 Z-3.647
G3 X-45.269 Y-30.224 Z-3.665 I0.115 J0.115
G1 X-48.628 Y-26.865 Z-3.831
G3 X-48.858 Y-27.095 Z-3.849 I-0.115 J-0.115
G1 X-45.499 Y-30.454 Z-4.015
G3 X-45.269 Y-30.224 Z-4.033 I0.115 J0.115
