(1001)
(Bearbeiten)
(  Hersteller: ChinaCnc)
(  model: 3040T)
(  description: Generic 3-axis)
(T5  D=3.175 CR=0 - ZMIN=-4.2 - Schaftfraser)
G90 G94
G17
G21

(Bohrfrasen10)
T5
S6000 M3
G54
G0 X-218.507 Y-22.917
Z15
Z1.683
G1 Z0 F1000
X-218.476 Y-22.948
X-218.46 Y-22.944
X-218.449 Y-22.932
X-218.445 Y-22.917
X-218.452 Y-22.887 Z-0.078
X-218.472 Y-22.865 Z-0.156
X-218.5 Y-22.855 Z-0.233
X-218.53 Y-22.859 Z-0.311
X-218.555 Y-22.877 Z-0.389
X-218.568 Y-22.904 Z-0.467
X-218.567 Y-22.934 Z-0.544
X-218.552 Y-22.96 Z-0.622
X-218.526 Y-22.976 Z-0.7
X-218.496 Y-22.978 Z-0.778
X-218.469 Y-22.966 Z-0.856
X-218.45 Y-22.942 Z-0.933
X-218.445 Y-22.912 Z-1.011
X-218.454 Y-22.884 Z-1.089
X-218.476 Y-22.863 Z-1.167
X-218.505 Y-22.854 Z-1.244
X-218.534 Y-22.861 Z-1.322
X-218.558 Y-22.88 Z-1.4
X-218.569 Y-22.908 Z-1.478
X-218.566 Y-22.938 Z-1.556
X-218.549 Y-22.963 Z-1.633
X-218.522 Y-22.977 Z-1.711
X-218.492 Z-1.789
X-218.465 Y-22.963 Z-1.867
X-218.448 Y-22.938 Z-1.944
X-218.445 Y-22.908 Z-2.022
X-218.456 Y-22.88 Z-2.1
X-218.48 Y-22.861 Z-2.178
X-218.509 Y-22.854 Z-2.256
X-218.538 Y-22.863 Z-2.333
X-218.56 Y-22.884 Z-2.411
X-218.569 Y-22.912 Z-2.489
X-218.564 Y-22.942 Z-2.567
X-218.545 Y-22.966 Z-2.644
X-218.518 Y-22.978 Z-2.722
X-218.488 Y-22.976 Z-2.8
X-218.462 Y-22.96 Z-2.878
X-218.447 Y-22.934 Z-2.956
X-218.446 Y-22.904 Z-3.033
X-218.459 Y-22.877 Z-3.111
X-218.484 Y-22.859 Z-3.189
X-218.514 Y-22.855 Z-3.267
X-218.542 Y-22.865 Z-3.344
X-218.562 Y-22.887 Z-3.422
X-218.57 Y-22.917 Z-3.5
X-218.562 Y-22.946 Z-3.578
X-218.542 Y-22.969 Z-3.656
X-218.514 Y-22.979 Z-3.733
X-218.484 Y-22.975 Z-3.811
X-218.459 Y-22.957 Z-3.889
X-218.446 Y-22.93 Z-3.967
X-218.447 Y-22.9 Z-4.044
X-218.462 Y-22.873 Z-4.122
X-218.488 Y-22.857 Z-4.2
G3 X-218.526 Y-22.976 I-0.019 J-0.059
X-218.488 Y-22.857 I0.019 J0.059
G1 X-218.504 Y-22.856
X-218.518 Y-22.864
X-218.527 Y-22.877
X-218.507 Y-22.917
G0 Z5
X-194.465
Z1.683
G1 Z0 F1000
X-194.434 Y-22.948
X-194.419 Y-22.944
X-194.407 Y-22.932
X-194.403 Y-22.917
X-194.41 Y-22.887 Z-0.078
X-194.43 Y-22.865 Z-0.156
X-194.459 Y-22.855 Z-0.233
X-194.489 Y-22.859 Z-0.311
X-194.513 Y-22.877 Z-0.389
X-194.527 Y-22.904 Z-0.467
X-194.525 Y-22.934 Z-0.544
X-194.51 Y-22.96 Z-0.622
X-194.485 Y-22.976 Z-0.7
X-194.455 Y-22.978 Z-0.778
X-194.427 Y-22.966 Z-0.856
X-194.408 Y-22.942 Z-0.933
X-194.403 Y-22.912 Z-1.011
X-194.412 Y-22.884 Z-1.089
X-194.434 Y-22.863 Z-1.167
X-194.463 Y-22.854 Z-1.244
X-194.493 Y-22.861 Z-1.322
X-194.516 Y-22.88 Z-1.4
X-194.527 Y-22.908 Z-1.478
X-194.524 Y-22.938 Z-1.556
X-194.507 Y-22.963 Z-1.633
X-194.48 Y-22.977 Z-1.711
X-194.45 Z-1.789
X-194.424 Y-22.963 Z-1.867
X-194.407 Y-22.938 Z-1.944
X-194.403 Y-22.908 Z-2.022
X-194.415 Y-22.88 Z-2.1
X-194.438 Y-22.861 Z-2.178
X-194.468 Y-22.854 Z-2.256
X-194.497 Y-22.863 Z-2.333
X-194.518 Y-22.884 Z-2.411
X-194.528 Y-22.912 Z-2.489
X-194.522 Y-22.942 Z-2.567
X-194.504 Y-22.966 Z-2.644
X-194.476 Y-22.978 Z-2.722
X-194.446 Y-22.976 Z-2.8
X-194.42 Y-22.96 Z-2.878
X-194.405 Y-22.934 Z-2.956
X-194.404 Y-22.904 Z-3.033
X-194.417 Y-22.877 Z-3.111
X-194.442 Y-22.859 Z-3.189
X-194.472 Y-22.855 Z-3.267
X-194.5 Y-22.865 Z-3.344
X-194.521 Y-22.887 Z-3.422
X-194.528 Y-22.917 Z-3.5
X-194.521 Y-22.946 Z-3.578
X-194.5 Y-22.969 Z-3.656
X-194.472 Y-22.979 Z-3.733
X-194.442 Y-22.975 Z-3.811
X-194.418 Y-22.957 Z-3.889
X-194.404 Y-22.93 Z-3.967
X-194.405 Y-22.9 Z-4.044
X-194.42 Y-22.873 Z-4.122
X-194.446 Y-22.857 Z-4.2
G3 X-194.485 Y-22.976 I-0.019 J-0.059
X-194.446 Y-22.857 I0.019 J0.059
G1 X-194.462 Y-22.856
X-194.477 Y-22.864
X-194.485 Y-22.877
X-194.465 Y-22.917
G0 Z5
X-207.825 Y-37.211
Z2
G1 Z0.317 F1000
X-207.828 Y-37.218 Z0.247
X-207.837 Y-37.24 Z0.18
X-207.852 Y-37.274 Z0.12
X-207.873 Y-37.32 Z0.069
X-207.897 Y-37.375 Z0.031
X-207.923 Y-37.437 Z0.008
X-207.952 Y-37.502 Z0
X-208.015 Y-37.647
G3 X-207.851 Y-38.065 I0.291 J-0.127
X-205.121 Y-31.81 Z-0.5 I1.365 J3.128
X-207.851 Y-38.065 Z-1 I-1.365 J-3.128
X-205.121 Y-31.81 Z-1.5 I1.365 J3.128
X-207.851 Y-38.065 Z-2 I-1.365 J-3.128
X-205.121 Y-31.81 Z-2.5 I1.365 J3.128
X-207.851 Y-38.065 Z-3 I-1.365 J-3.128
X-205.121 Y-31.81 Z-3.5 I1.365 J3.128
X-207.851 Y-38.065 Z-4 I-1.365 J-3.128
X-203.933 Y-37.202 Z-4.2 I1.365 J3.128
X-209.039 Y-32.673 I-2.553 J2.265
X-203.933 Y-37.202 I2.553 J-2.265
X-203.96 Y-36.754 I-0.238 J0.211
G1 X-204.079 Y-36.649
X-204.132 Y-36.602 Z-4.192
X-204.182 Y-36.557 Z-4.169
X-204.227 Y-36.517 Z-4.131
X-204.265 Y-36.484 Z-4.08
X-204.293 Y-36.459 Z-4.02
X-204.311 Y-36.443 Z-3.953
X-204.317 Y-36.438 Z-3.882
G0 Z5
X-218.507 Y-46.958
Z1.683
G1 Z0 F1000
X-218.476 Y-46.99
X-218.46 Y-46.985
X-218.449 Y-46.974
X-218.445 Y-46.958
X-218.452 Y-46.929 Z-0.078
X-218.472 Y-46.907 Z-0.156
X-218.5 Y-46.896 Z-0.233
X-218.53 Y-46.9 Z-0.311
X-218.555 Y-46.918 Z-0.389
X-218.568 Y-46.945 Z-0.467
X-218.567 Y-46.976 Z-0.544
X-218.552 Y-47.002 Z-0.622
X-218.526 Y-47.018 Z-0.7
X-218.496 Y-47.02 Z-0.778
X-218.469 Y-47.008 Z-0.856
X-218.45 Y-46.984 Z-0.933
X-218.445 Y-46.954 Z-1.011
X-218.454 Y-46.925 Z-1.089
X-218.476 Y-46.904 Z-1.167
X-218.505 Y-46.896 Z-1.244
X-218.534 Y-46.902 Z-1.322
X-218.558 Y-46.922 Z-1.4
X-218.569 Y-46.95 Z-1.478
X-218.566 Y-46.98 Z-1.556
X-218.549 Y-47.005 Z-1.633
X-218.522 Y-47.019 Z-1.711
X-218.492 Z-1.789
X-218.465 Y-47.005 Z-1.867
X-218.448 Y-46.98 Z-1.944
X-218.445 Y-46.95 Z-2.022
X-218.456 Y-46.922 Z-2.1
X-218.48 Y-46.902 Z-2.178
X-218.509 Y-46.896 Z-2.256
X-218.538 Y-46.904 Z-2.333
X-218.56 Y-46.925 Z-2.411
X-218.569 Y-46.954 Z-2.489
X-218.564 Y-46.984 Z-2.567
X-218.545 Y-47.008 Z-2.644
X-218.518 Y-47.02 Z-2.722
X-218.488 Y-47.018 Z-2.8
X-218.462 Y-47.002 Z-2.878
X-218.447 Y-46.976 Z-2.956
X-218.446 Y-46.945 Z-3.033
X-218.459 Y-46.918 Z-3.111
X-218.484 Y-46.9 Z-3.189
X-218.514 Y-46.896 Z-3.267
X-218.542 Y-46.907 Z-3.344
X-218.562 Y-46.929 Z-3.422
X-218.569 Y-46.958 Z-3.5
X-218.562 Y-46.988 Z-3.578
X-218.542 Y-47.01 Z-3.656
X-218.514 Y-47.021 Z-3.733
X-218.484 Y-47.016 Z-3.811
X-218.459 Y-46.999 Z-3.889
X-218.446 Y-46.971 Z-3.967
X-218.447 Y-46.941 Z-4.044
X-218.462 Y-46.915 Z-4.122
X-218.488 Y-46.899 Z-4.2
G3 X-218.526 Y-47.018 I-0.019 J-0.059
X-218.488 Y-46.899 I0.019 J0.059
G1 X-218.504 Y-46.898
X-218.518 Y-46.905
X-218.527 Y-46.919
X-218.507 Y-46.958
G0 Z5
X-194.465
Z1.683
G1 Z0 F1000
X-194.434 Y-46.99
X-194.419 Y-46.985
X-194.407 Y-46.974
X-194.403 Y-46.958
X-194.41 Y-46.929 Z-0.078
X-194.43 Y-46.907 Z-0.156
X-194.459 Y-46.896 Z-0.233
X-194.489 Y-46.9 Z-0.311
X-194.513 Y-46.918 Z-0.389
X-194.527 Y-46.945 Z-0.467
X-194.525 Y-46.976 Z-0.544
X-194.51 Y-47.002 Z-0.622
X-194.485 Y-47.018 Z-0.7
X-194.455 Y-47.02 Z-0.778
X-194.427 Y-47.008 Z-0.856
X-194.408 Y-46.984 Z-0.933
X-194.403 Y-46.954 Z-1.011
X-194.412 Y-46.925 Z-1.089
X-194.434 Y-46.904 Z-1.167
X-194.463 Y-46.896 Z-1.244
X-194.493 Y-46.902 Z-1.322
X-194.516 Y-46.922 Z-1.4
X-194.527 Y-46.95 Z-1.478
X-194.524 Y-46.98 Z-1.556
X-194.507 Y-47.005 Z-1.633
X-194.48 Y-47.019 Z-1.711
X-194.45 Z-1.789
X-194.424 Y-47.005 Z-1.867
X-194.407 Y-46.98 Z-1.944
X-194.403 Y-46.95 Z-2.022
X-194.415 Y-46.922 Z-2.1
X-194.438 Y-46.902 Z-2.178
X-194.468 Y-46.896 Z-2.256
X-194.497 Y-46.904 Z-2.333
X-194.518 Y-46.925 Z-2.411
X-194.528 Y-46.954 Z-2.489
X-194.522 Y-46.984 Z-2.567
X-194.504 Y-47.008 Z-2.644
X-194.476 Y-47.02 Z-2.722
X-194.446 Y-47.018 Z-2.8
X-194.42 Y-47.002 Z-2.878
X-194.405 Y-46.976 Z-2.956
X-194.404 Y-46.945 Z-3.033
X-194.418 Y-46.918 Z-3.111
X-194.442 Y-46.9 Z-3.189
X-194.472 Y-46.896 Z-3.267
X-194.5 Y-46.907 Z-3.344
X-194.521 Y-46.929 Z-3.422
X-194.528 Y-46.958 Z-3.5
X-194.521 Y-46.988 Z-3.578
X-194.5 Y-47.01 Z-3.656
X-194.472 Y-47.021 Z-3.733
X-194.442 Y-47.016 Z-3.811
X-194.418 Y-46.999 Z-3.889
X-194.404 Y-46.971 Z-3.967
X-194.405 Y-46.941 Z-4.044
X-194.42 Y-46.915 Z-4.122
X-194.446 Y-46.899 Z-4.2
G3 X-194.485 Y-47.018 I-0.019 J-0.059
X-194.446 Y-46.899 I0.019 J0.059
G1 X-194.462 Y-46.898
X-194.477 Y-46.905
X-194.485 Y-46.919
X-194.465 Y-46.958
G0 Z5
X-126.728 Y-63.061
Z2
G1 Z0.317 F1000
G18 G2 X-126.411 Z0 I0.317 K0
G1 X-126.252
G17 G3 X-125.935 Y-62.743 I0 J0.317
X-133.26 Y-62.743 Z-0.5 I-3.663 J0
X-125.935 Y-62.743 Z-1 I3.663 J0
X-133.26 Y-62.743 Z-1.5 I-3.663 J0
X-125.935 Y-62.743 Z-2 I3.663 J0
X-133.26 Y-62.743 Z-2.5 I-3.663 J0
X-125.935 Y-62.743 Z-3 I3.663 J0
X-133.26 Y-62.743 Z-3.5 I-3.663 J0
X-125.935 Y-62.743 Z-4 I3.663 J0
X-128.465 Y-59.26 Z-4.2 I-3.663 J0
X-130.729 Y-66.226 I-1.132 J-3.483
X-128.465 Y-59.26 I1.132 J3.483
X-128.865 Y-59.464 I-0.098 J-0.302
G1 X-128.914 Y-59.615
X-128.936 Y-59.682 Z-4.192
X-128.957 Y-59.746 Z-4.169
X-128.976 Y-59.803 Z-4.131
X-128.991 Y-59.851 Z-4.08
X-129.003 Y-59.887 Z-4.02
X-129.01 Y-59.909 Z-3.953
X-129.013 Y-59.917 Z-3.882
G0 Z5
X-62.784 Y-62.991
Z2
G1 Z0.317 F1000
G18 G2 X-62.467 Z0 I0.317 K0
G1 X-62.308
G17 G3 X-61.991 Y-62.673 I0 J0.317
X-69.316 Y-62.673 Z-0.5 I-3.663 J0
X-61.991 Y-62.673 Z-1 I3.663 J0
X-69.316 Y-62.673 Z-1.5 I-3.663 J0
X-61.991 Y-62.673 Z-2 I3.663 J0
X-69.316 Y-62.673 Z-2.5 I-3.663 J0
X-61.991 Y-62.673 Z-3 I3.663 J0
X-69.316 Y-62.673 Z-3.5 I-3.663 J0
X-61.991 Y-62.673 Z-4 I3.663 J0
X-64.521 Y-59.19 Z-4.2 I-3.663 J0
X-66.785 Y-66.157 I-1.132 J-3.483
X-64.521 Y-59.19 I1.132 J3.483
X-64.922 Y-59.394 I-0.098 J-0.302
G1 X-64.971 Y-59.545
X-64.992 Y-59.612 Z-4.192
X-65.013 Y-59.676 Z-4.169
X-65.032 Y-59.733 Z-4.131
X-65.047 Y-59.781 Z-4.08
X-65.059 Y-59.817 Z-4.02
X-65.066 Y-59.839 Z-3.953
X-65.069 Y-59.847 Z-3.882
G0 Z15

(2D-Kontur31)
X-211.76 Y-69.025
Z15
Z5
G1 Z1 F333.3
S5000
X-227.607 Z0.447
Y-69.35 Z0.435
X-205.781 Z-0.327
Y-69.025 Z-0.338
X-227.607 Z-1.1
Y-69.35 Z-1.112
X-205.781 Z-1.874
Y-69.025 Z-1.885
X-227.607 Z-2.647
Y-69.35 Z-2.659
X-205.781 Z-3.421
Y-69.025 Z-3.432
X-227.607 Z-4.194
Y-69.188 Z-4.2
S6000
Y-69.35 F1000
X-205.781
Y-69.025
X-227.607
Y-69.188
G0 Z15

(2D Adaptive7)
X-206.813 Y-53.63
Z15
Z5
Z-0.765
G1 Z-1.082 F1000
X-206.811 Y-53.622 Z-1.153
X-206.806 Y-53.599 Z-1.22
X-206.796 Y-53.563 Z-1.28
X-206.784 Y-53.514 Z-1.331
X-206.769 Y-53.456 Z-1.369
X-206.752 Y-53.391 Z-1.392
X-206.735 Y-53.322 Z-1.4
G3 X-206.486 Y-51.594 I-7.852 J2.011
G1 Y-51.444
X-206.586 Y-51.343
X-206.724 Y-51.306
X-206.861 Y-51.343
X-206.962 Y-51.444
X-206.999 Y-51.581
X-206.99 Y-51.638
G3 X-205.973 Y-51.523 I0.5 J0.132
G1 Y-51.241
X-205.975 Y-51.204
X-206.115 Y-51.057
X-206.298 Y-50.97
X-206.501 Y-50.954
X-206.695 Y-51.012
X-206.856 Y-51.136
X-206.962 Y-51.309
X-206.999 Y-51.508
X-206.989 Y-51.568
X-206.966 Y-51.623
X-206.931 Y-51.672
X-206.885 Y-51.711
G3 X-205.973 Y-51.241 I0.324 J0.49
G1 Y-50.959
X-205.977 Y-50.884
X-206.049 Y-50.753
X-206.2 Y-50.644
X-206.379 Y-50.591
X-206.565 Y-50.601
X-206.738 Y-50.671
X-206.877 Y-50.795
X-206.967 Y-50.958
X-206.999 Y-51.142
X-206.99 Y-51.199
X-206.969 Y-51.252
X-206.936 Y-51.3
G3 X-205.973 Y-50.959 I0.415 J0.359
G1 Y-50.648
X-205.981 Y-50.498
X-206.06 Y-50.37
X-206.212 Y-50.267
X-206.39 Y-50.218
X-206.574 Y-50.231
X-206.743 Y-50.303
X-206.88 Y-50.427
X-206.968 Y-50.588
X-206.999 Y-50.77
X-206.99 Y-50.829
X-206.967 Y-50.884
G3 X-205.973 Y-50.648 I0.464 J0.255
G1 Y-50.297
X-205.981 Y-50.147
X-206.054 Y-50.016
X-206.158 Y-49.909
X-206.339 Y-49.837
X-206.533 Y-49.833
X-206.716 Y-49.896
X-206.866 Y-50.019
X-206.964 Y-50.186
X-206.999 Y-50.377
X-206.994 Y-50.417
X-206.984 Y-50.455
G3 X-205.973 Y-50.297 I0.49 J0.176
G1 Y-49.903
X-205.981 Y-49.753
X-206.056 Y-49.623
X-206.206 Y-49.515
X-206.384 Y-49.463
X-206.569 Y-49.473
X-206.74 Y-49.544
X-206.878 Y-49.667
X-206.967 Y-49.829
X-206.999 Y-50.011
X-206.991 Y-50.063
X-206.973 Y-50.113
G3 X-205.973 Y-49.903 I0.474 J0.229
G1 Y-49.55
X-205.981 Y-49.4
X-206.051 Y-49.267
X-206.154 Y-49.158
X-206.334 Y-49.085
X-206.529 Y-49.078
X-206.714 Y-49.141
X-206.865 Y-49.263
X-206.964 Y-49.431
X-206.999 Y-49.622
X-206.995 Y-49.658
X-206.986 Y-49.693
G3 X-205.973 Y-49.55 I0.494 J0.161
G1 Y-49.169
X-205.981 Y-49.02
X-206.05 Y-48.887
X-206.198 Y-48.773
X-206.375 Y-48.716
X-206.561 Y-48.722
X-206.735 Y-48.79
X-206.875 Y-48.912
X-206.967 Y-49.074
X-206.999 Y-49.257
X-206.993 Y-49.3
X-206.981 Y-49.342
G3 X-205.973 Y-49.169 I0.486 J0.191
G1 Y-48.81
X-205.981 Y-48.66
X-206.049 Y-48.526
X-206.15 Y-48.415
X-206.33 Y-48.339
X-206.525 Y-48.331
X-206.711 Y-48.392
X-206.864 Y-48.514
X-206.964 Y-48.681
X-206.999 Y-48.874
X-206.989 Y-48.936
G3 X-205.973 Y-48.81 I0.497 J0.144
G1 Y-48.422
X-205.981 Y-48.272
X-206.05 Y-48.139
X-206.198 Y-48.026
X-206.376 Y-47.969
X-206.562 Y-47.975
X-206.735 Y-48.043
X-206.875 Y-48.165
X-206.967 Y-48.327
X-206.999 Y-48.511
X-206.993 Y-48.554
X-206.981 Y-48.596
G3 X-205.973 Y-48.422 I0.485 J0.192
G1 Y-48.07
X-205.981 Y-47.92
X-206.046 Y-47.785
X-206.146 Y-47.673
X-206.326 Y-47.595
X-206.522 Y-47.586
X-206.709 Y-47.645
X-206.862 Y-47.767
X-206.963 Y-47.936
X-206.999 Y-48.129
X-206.99 Y-48.186
G3 X-205.973 Y-48.07 I0.5 J0.134
G1 Y-47.682
X-205.981 Y-47.532
X-206.049 Y-47.399
X-206.196 Y-47.284
X-206.373 Y-47.226
X-206.56 Y-47.231
X-206.734 Y-47.298
X-206.875 Y-47.42
X-206.967 Y-47.582
X-206.999 Y-47.766
X-206.994 Y-47.807
X-206.982 Y-47.847
G3 X-205.973 Y-47.682 I0.488 J0.183
G1 Y-47.294
X-205.981 Y-47.144
X-206.057 Y-47.015
X-206.207 Y-46.907
X-206.384 Y-46.855
X-206.569 Y-46.865
X-206.74 Y-46.935
X-206.878 Y-47.058
X-206.967 Y-47.22
X-206.999 Y-47.402
X-206.991 Y-47.454
X-206.973 Y-47.504
G3 X-205.973 Y-47.294 I0.474 J0.228
G1 Y-46.942
X-205.981 Y-46.793
X-206.051 Y-46.66
X-206.154 Y-46.551
X-206.334 Y-46.477
X-206.529 Y-46.47
X-206.713 Y-46.532
X-206.865 Y-46.655
X-206.964 Y-46.822
X-206.999 Y-47.014
X-206.995 Y-47.049
X-206.986 Y-47.084
G3 X-205.973 Y-46.942 I0.494 J0.159
G1 Y-46.554
X-205.981 Y-46.405
X-206.052 Y-46.273
X-206.201 Y-46.161
X-206.378 Y-46.106
X-206.564 Y-46.113
X-206.736 Y-46.182
X-206.876 Y-46.304
X-206.967 Y-46.466
X-206.999 Y-46.649
X-206.993 Y-46.696
X-206.978 Y-46.74
G3 X-205.973 Y-46.554 I0.482 J0.204
G1 Y-46.209
X-205.981 Y-46.059
X-206.046 Y-45.924
X-206.145 Y-45.812
X-206.325 Y-45.733
X-206.521 Y-45.723
X-206.708 Y-45.783
X-206.862 Y-45.905
X-206.963 Y-46.074
X-206.999 Y-46.267
X-206.99 Y-46.324
G3 X-205.973 Y-46.209 I0.5 J0.133
G1 Y-45.815
X-205.981 Y-45.665
X-206.05 Y-45.532
X-206.198 Y-45.419
X-206.376 Y-45.362
X-206.562 Y-45.368
X-206.735 Y-45.436
X-206.876 Y-45.559
X-206.967 Y-45.721
X-206.999 Y-45.904
X-206.993 Y-45.948
X-206.98 Y-45.99
G3 X-205.973 Y-45.815 I0.485 J0.194
G1 Y-45.462
X-205.981 Y-45.312
X-206.047 Y-45.177
X-206.147 Y-45.065
X-206.327 Y-44.988
X-206.523 Y-44.978
X-206.709 Y-45.039
X-206.863 Y-45.161
X-206.963 Y-45.329
X-206.999 Y-45.522
X-206.99 Y-45.58
G3 X-205.973 Y-45.462 I0.499 J0.137
G1 Y-45.039
X-205.981 Y-44.889
X-206.058 Y-44.76
X-206.21 Y-44.656
X-206.388 Y-44.607
X-206.572 Y-44.62
X-206.742 Y-44.692
X-206.879 Y-44.815
X-206.968 Y-44.977
X-206.999 Y-45.159
X-206.99 Y-45.217
X-206.968 Y-45.272
G3 X-205.973 Y-45.039 I0.466 J0.252
G1 Y-44.687
X-205.981 Y-44.537
X-206.053 Y-44.406
X-206.158 Y-44.298
X-206.338 Y-44.226
X-206.532 Y-44.222
X-206.716 Y-44.285
X-206.866 Y-44.408
X-206.964 Y-44.575
X-206.999 Y-44.766
X-206.994 Y-44.805
X-206.984 Y-44.843
G3 X-205.973 Y-44.687 I0.49 J0.174
G1 Y-44.299
X-205.981 Y-44.149
X-206.054 Y-44.018
X-206.204 Y-43.908
X-206.381 Y-43.855
X-206.566 Y-43.863
X-206.738 Y-43.933
X-206.877 Y-44.056
X-206.967 Y-44.217
X-206.999 Y-44.4
X-206.992 Y-44.449
X-206.976 Y-44.496
G3 X-205.973 Y-44.299 I0.478 J0.216
G1 Y-43.954
X-205.981 Y-43.804
X-206.047 Y-43.669
X-206.148 Y-43.558
X-206.328 Y-43.481
X-206.523 Y-43.472
X-206.71 Y-43.533
X-206.863 Y-43.655
X-206.964 Y-43.823
X-206.999 Y-44.016
X-206.989 Y-44.076
G3 X-205.973 Y-43.954 I0.498 J0.141
G1 Y-43.559
X-205.981 Y-43.409
X-206.051 Y-43.277
X-206.2 Y-43.165
X-206.377 Y-43.109
X-206.563 Y-43.116
X-206.736 Y-43.185
X-206.876 Y-43.307
X-206.967 Y-43.469
X-206.999 Y-43.652
X-206.993 Y-43.698
X-206.979 Y-43.741
G3 X-206.497 Y-44.064 I0.483 J0.2
G1 X-206.496
G3 X-205.973 Y-43.559 I0 J0.523
G1 Y-43.206
X-205.981 Y-43.056
X-206.048 Y-42.922
X-206.148 Y-42.811
X-206.328 Y-42.734
X-206.524 Y-42.725
X-206.71 Y-42.786
X-206.863 Y-42.908
X-206.964 Y-43.076
X-206.999 Y-43.268
X-206.989 Y-43.329
G3 X-205.973 Y-43.206 I0.498 J0.141
G1 Y-42.783
X-205.981 Y-42.633
X-206.059 Y-42.505
X-206.211 Y-42.401
X-206.389 Y-42.353
X-206.573 Y-42.366
X-206.743 Y-42.438
X-206.879 Y-42.562
X-206.968 Y-42.724
X-206.999 Y-42.906
X-206.989 Y-42.965
X-206.967 Y-43.02
G3 X-205.973 Y-42.783 I0.464 J0.255
G1 Y-42.431
X-205.981 Y-42.282
X-206.054 Y-42.15
X-206.158 Y-42.043
X-206.339 Y-41.972
X-206.533 Y-41.968
X-206.716 Y-42.031
X-206.866 Y-42.154
X-206.964 Y-42.321
X-206.999 Y-42.512
X-206.994 Y-42.552
X-206.983 Y-42.59
G3 X-205.973 Y-42.431 I0.49 J0.177
G1 Y-42.043
X-205.981 Y-41.894
X-206.054 Y-41.763
X-206.204 Y-41.653
X-206.381 Y-41.6
X-206.567 Y-41.609
X-206.738 Y-41.678
X-206.877 Y-41.801
X-206.967 Y-41.963
X-206.999 Y-42.146
X-206.992 Y-42.195
X-206.976 Y-42.243
G3 X-205.973 Y-42.043 I0.478 J0.218
G1 Y-41.698
X-205.981 Y-41.548
X-206.037 Y-41.409
X-206.13 Y-41.291
X-206.308 Y-41.202
X-206.506 Y-41.184
X-206.698 Y-41.238
X-206.857 Y-41.357
X-206.962 Y-41.527
X-206.999 Y-41.722
G3 X-206.661 Y-42.028 I0.317 J0.011
G1 X-206.588 Y-42.024
X-206.271 Y-42.004
G3 X-205.973 Y-41.698 I-0.02 J0.317
G1 Y-39.788
G0 Z5
X-206.615 Y-37.26
Z-0.765
G1 Z-1.082 F1000
X-206.619 Y-37.267 Z-1.153
X-206.631 Y-37.287 Z-1.22
X-206.65 Y-37.319 Z-1.28
X-206.676 Y-37.363 Z-1.331
X-206.707 Y-37.414 Z-1.369
X-206.741 Y-37.472 Z-1.392
X-206.777 Y-37.533 Z-1.4
G3 X-206.999 Y-38.286 I1.36 J-0.809
G1 Y-40.542
G3 X-206.425 Y-40.719 I0.317 J0.011
G1 X-206.383 Y-40.662 Z-1.392
X-206.344 Y-40.607 Z-1.369
X-206.308 Y-40.559 Z-1.331
X-206.278 Y-40.518 Z-1.28
X-206.256 Y-40.488 Z-1.22
X-206.242 Y-40.469 Z-1.153
X-206.237 Y-40.463 Z-1.082
G0 Z15
X-206.159 Y-16.245
Z5
Z-0.765
G1 Z-1.082 F1000
X-206.161 Y-16.253 Z-1.153
X-206.166 Y-16.276 Z-1.22
X-206.176 Y-16.312 Z-1.28
X-206.188 Y-16.361 Z-1.331
X-206.203 Y-16.419 Z-1.369
X-206.22 Y-16.484 Z-1.392
X-206.237 Y-16.553 Z-1.4
G3 X-206.486 Y-18.281 I7.852 J-2.011
G1 Y-18.431
X-206.386 Y-18.532
X-206.248 Y-18.569
X-206.111 Y-18.532
X-206.01 Y-18.432
X-205.973 Y-18.294
X-205.982 Y-18.238
G3 X-206.999 Y-18.352 I-0.5 J-0.132
G1 Y-18.634
X-206.997 Y-18.671
X-206.857 Y-18.818
X-206.674 Y-18.905
X-206.471 Y-18.921
X-206.277 Y-18.863
X-206.116 Y-18.74
X-206.01 Y-18.567
X-205.973 Y-18.367
X-205.983 Y-18.308
X-206.006 Y-18.252
X-206.041 Y-18.203
X-206.087 Y-18.164
G3 X-206.999 Y-18.634 I-0.324 J-0.49
G1 Y-18.916
X-206.995 Y-18.991
X-206.923 Y-19.122
X-206.772 Y-19.231
X-206.593 Y-19.284
X-206.407 Y-19.274
X-206.234 Y-19.204
X-206.095 Y-19.08
X-206.005 Y-18.917
X-205.973 Y-18.734
X-205.982 Y-18.677
X-206.003 Y-18.623
X-206.036 Y-18.576
G3 X-206.999 Y-18.916 I-0.415 J-0.359
G1 Y-19.228
X-206.991 Y-19.377
X-206.912 Y-19.505
X-206.76 Y-19.609
X-206.582 Y-19.657
X-206.398 Y-19.644
X-206.229 Y-19.572
X-206.092 Y-19.448
X-206.004 Y-19.287
X-205.973 Y-19.105
X-205.982 Y-19.047
X-206.005 Y-18.992
G3 X-206.999 Y-19.228 I-0.464 J-0.255
G1 Y-19.578
X-206.991 Y-19.728
X-206.918 Y-19.859
X-206.814 Y-19.967
X-206.633 Y-20.038
X-206.439 Y-20.042
X-206.256 Y-19.979
X-206.106 Y-19.856
X-206.008 Y-19.689
X-205.973 Y-19.498
X-205.978 Y-19.459
X-205.988 Y-19.421
G3 X-206.999 Y-19.578 I-0.49 J-0.176
G1 Y-19.972
X-206.991 Y-20.122
X-206.916 Y-20.252
X-206.766 Y-20.36
X-206.588 Y-20.412
X-206.403 Y-20.402
X-206.232 Y-20.331
X-206.094 Y-20.208
X-206.005 Y-20.047
X-205.973 Y-19.864
X-205.981 Y-19.812
X-205.999 Y-19.762
G3 X-206.999 Y-19.972 I-0.474 J-0.229
G1 Y-20.326
X-206.991 Y-20.475
X-206.921 Y-20.608
X-206.818 Y-20.717
X-206.638 Y-20.791
X-206.443 Y-20.797
X-206.258 Y-20.735
X-206.107 Y-20.612
X-206.008 Y-20.445
X-205.973 Y-20.253
X-205.977 Y-20.217
X-205.986 Y-20.182
G3 X-206.999 Y-20.326 I-0.494 J-0.161
G1 Y-20.706
X-206.991 Y-20.856
X-206.922 Y-20.989
X-206.774 Y-21.102
X-206.597 Y-21.159
X-206.411 Y-21.153
X-206.237 Y-21.085
X-206.097 Y-20.963
X-206.005 Y-20.801
X-205.973 Y-20.618
X-205.979 Y-20.575
X-205.991 Y-20.533
G3 X-206.999 Y-20.706 I-0.486 J-0.191
G1 Y-21.065
X-206.991 Y-21.215
X-206.923 Y-21.349
X-206.822 Y-21.46
X-206.642 Y-21.536
X-206.447 Y-21.544
X-206.261 Y-21.484
X-206.108 Y-21.362
X-206.008 Y-21.194
X-205.973 Y-21.001
X-205.983 Y-20.939
G3 X-206.999 Y-21.065 I-0.497 J-0.144
G1 Y-21.453
X-206.991 Y-21.603
X-206.922 Y-21.736
X-206.774 Y-21.849
X-206.596 Y-21.906
X-206.41 Y-21.9
X-206.237 Y-21.832
X-206.097 Y-21.71
X-206.005 Y-21.548
X-205.973 Y-21.364
X-205.979 Y-21.321
X-205.991 Y-21.279
G3 X-206.999 Y-21.453 I-0.485 J-0.192
G1 Y-21.805
X-206.991 Y-21.955
X-206.926 Y-22.09
X-206.826 Y-22.202
X-206.646 Y-22.28
X-206.45 Y-22.29
X-206.263 Y-22.23
X-206.11 Y-22.108
X-206.009 Y-21.94
X-205.973 Y-21.747
X-205.982 Y-21.689
G3 X-206.999 Y-21.805 I-0.5 J-0.134
G1 Y-22.193
X-206.991 Y-22.343
X-206.923 Y-22.477
X-206.776 Y-22.591
X-206.599 Y-22.649
X-206.412 Y-22.644
X-206.238 Y-22.577
X-206.097 Y-22.455
X-206.005 Y-22.293
X-205.973 Y-22.109
X-205.978 Y-22.068
X-205.99 Y-22.028
G3 X-206.999 Y-22.193 I-0.488 J-0.183
G1 Y-22.581
X-206.991 Y-22.731
X-206.915 Y-22.86
X-206.765 Y-22.968
X-206.588 Y-23.02
X-206.403 Y-23.01
X-206.232 Y-22.94
X-206.094 Y-22.817
X-206.005 Y-22.655
X-205.973 Y-22.473
X-205.981 Y-22.421
X-205.999 Y-22.371
G3 X-206.999 Y-22.581 I-0.474 J-0.228
G1 Y-22.933
X-206.991 Y-23.083
X-206.921 Y-23.215
X-206.818 Y-23.325
X-206.638 Y-23.398
X-206.443 Y-23.405
X-206.259 Y-23.343
X-206.107 Y-23.22
X-206.008 Y-23.053
X-205.973 Y-22.861
X-205.977 Y-22.826
X-205.986 Y-22.792
G3 X-206.999 Y-22.933 I-0.494 J-0.159
G1 Y-23.321
X-206.991 Y-23.471
X-206.92 Y-23.603
X-206.771 Y-23.714
X-206.594 Y-23.769
X-206.408 Y-23.762
X-206.236 Y-23.693
X-206.096 Y-23.571
X-206.005 Y-23.409
X-205.973 Y-23.226
X-205.979 Y-23.179
X-205.994 Y-23.135
G3 X-206.999 Y-23.321 I-0.482 J-0.204
G1 Y-23.666
X-206.991 Y-23.816
X-206.926 Y-23.951
X-206.827 Y-24.064
X-206.647 Y-24.142
X-206.451 Y-24.152
X-206.264 Y-24.092
X-206.11 Y-23.97
X-206.009 Y-23.802
X-205.973 Y-23.608
X-205.982 Y-23.552
G3 X-206.999 Y-23.666 I-0.5 J-0.133
G1 Y-24.06
X-206.991 Y-24.21
X-206.922 Y-24.343
X-206.774 Y-24.456
X-206.596 Y-24.513
X-206.41 Y-24.507
X-206.237 Y-24.439
X-206.096 Y-24.317
X-206.005 Y-24.154
X-205.973 Y-23.971
X-205.979 Y-23.927
X-205.992 Y-23.885
G3 X-206.999 Y-24.06 I-0.485 J-0.194
G1 Y-24.414
X-206.991 Y-24.563
X-206.925 Y-24.698
X-206.825 Y-24.81
X-206.645 Y-24.888
X-206.449 Y-24.897
X-206.263 Y-24.837
X-206.109 Y-24.715
X-206.009 Y-24.546
X-205.973 Y-24.354
X-205.982 Y-24.295
G3 X-206.999 Y-24.414 I-0.499 J-0.137
G1 Y-24.837
X-206.991 Y-24.986
X-206.914 Y-25.115
X-206.762 Y-25.219
X-206.584 Y-25.268
X-206.4 Y-25.256
X-206.23 Y-25.184
X-206.093 Y-25.06
X-206.004 Y-24.898
X-205.973 Y-24.716
X-205.982 Y-24.658
X-206.004 Y-24.603
G3 X-206.999 Y-24.837 I-0.466 J-0.252
G1 Y-25.188
X-206.991 Y-25.338
X-206.919 Y-25.47
X-206.814 Y-25.577
X-206.634 Y-25.649
X-206.44 Y-25.653
X-206.256 Y-25.59
X-206.106 Y-25.467
X-206.008 Y-25.3
X-205.973 Y-25.109
X-205.978 Y-25.07
X-205.988 Y-25.032
G3 X-206.999 Y-25.188 I-0.49 J-0.174
G1 Y-25.576
X-206.991 Y-25.726
X-206.918 Y-25.857
X-206.768 Y-25.967
X-206.591 Y-26.02
X-206.406 Y-26.012
X-206.234 Y-25.942
X-206.095 Y-25.82
X-206.005 Y-25.658
X-205.973 Y-25.475
X-205.98 Y-25.426
X-205.996 Y-25.379
G3 X-206.999 Y-25.576 I-0.478 J-0.216
G1 Y-25.922
X-206.991 Y-26.071
X-206.925 Y-26.206
X-206.824 Y-26.317
X-206.644 Y-26.394
X-206.449 Y-26.403
X-206.262 Y-26.343
X-206.109 Y-26.221
X-206.008 Y-26.052
X-205.973 Y-25.86
X-205.983 Y-25.799
G3 X-206.999 Y-25.922 I-0.498 J-0.141
G1 Y-26.316
X-206.991 Y-26.466
X-206.921 Y-26.598
X-206.772 Y-26.71
X-206.595 Y-26.766
X-206.409 Y-26.759
X-206.236 Y-26.691
X-206.096 Y-26.568
X-206.005 Y-26.406
X-205.973 Y-26.223
X-205.979 Y-26.178
X-205.993 Y-26.134
G3 X-206.475 Y-25.811 I-0.483 J-0.2
G1 X-206.476
G3 X-206.999 Y-26.316 I0 J-0.523
G1 Y-26.669
X-206.991 Y-26.819
X-206.924 Y-26.953
X-206.824 Y-27.064
X-206.644 Y-27.141
X-206.448 Y-27.15
X-206.262 Y-27.089
X-206.109 Y-26.967
X-206.008 Y-26.799
X-205.973 Y-26.607
X-205.983 Y-26.546
G3 X-206.999 Y-26.669 I-0.498 J-0.141
G1 Y-27.092
X-206.991 Y-27.242
X-206.913 Y-27.37
X-206.761 Y-27.474
X-206.583 Y-27.522
X-206.399 Y-27.509
X-206.229 Y-27.437
X-206.093 Y-27.313
X-206.004 Y-27.151
X-205.973 Y-26.969
X-205.983 Y-26.911
X-206.005 Y-26.855
G3 X-206.999 Y-27.092 I-0.464 J-0.255
G1 Y-27.444
X-206.991 Y-27.594
X-206.918 Y-27.725
X-206.814 Y-27.832
X-206.633 Y-27.903
X-206.439 Y-27.907
X-206.256 Y-27.844
X-206.106 Y-27.721
X-206.008 Y-27.554
X-205.973 Y-27.363
X-205.978 Y-27.323
X-205.989 Y-27.285
G3 X-206.999 Y-27.444 I-0.49 J-0.177
G1 Y-27.832
X-206.991 Y-27.982
X-206.918 Y-28.112
X-206.768 Y-28.222
X-206.591 Y-28.275
X-206.405 Y-28.266
X-206.234 Y-28.197
X-206.095 Y-28.074
X-206.005 Y-27.912
X-205.973 Y-27.729
X-205.98 Y-27.68
X-205.996 Y-27.632
G3 X-206.999 Y-27.832 I-0.478 J-0.218
G1 Y-28.177
X-206.991 Y-28.327
X-206.935 Y-28.466
X-206.842 Y-28.584
X-206.664 Y-28.673
X-206.466 Y-28.692
X-206.274 Y-28.638
X-206.115 Y-28.518
X-206.01 Y-28.349
X-205.973 Y-28.153
G3 X-206.311 Y-27.847 I-0.317 J-0.011
G1 X-206.384 Y-27.852
X-206.701 Y-27.871
G3 X-206.999 Y-28.177 I0.02 J-0.317
G1 Y-30.087
G0 Z5
X-206.357 Y-32.615
Z-0.765
G1 Z-1.082 F1000
X-206.353 Y-32.609 Z-1.153
X-206.341 Y-32.588 Z-1.22
X-206.322 Y-32.556 Z-1.28
X-206.296 Y-32.513 Z-1.331
X-206.265 Y-32.461 Z-1.369
X-206.231 Y-32.403 Z-1.392
X-206.195 Y-32.342 Z-1.4
G3 X-205.973 Y-31.589 I-1.36 J0.809
G1 Y-29.333
G3 X-206.547 Y-29.157 I-0.317 J-0.011
G1 X-206.589 Y-29.214 Z-1.392
X-206.628 Y-29.268 Z-1.369
X-206.664 Y-29.316 Z-1.331
X-206.694 Y-29.357 Z-1.28
X-206.716 Y-29.387 Z-1.22
X-206.73 Y-29.406 Z-1.153
X-206.735 Y-29.413 Z-1.082
G0 Z15

(2D-Kontur32)
X-213.007 Y-41.546
Z15
Z5
G1 Z1 F333.3
S5000
X-212.098 Y-40.639 Z0.955
X-212.084 Y-40.615 Z0.954
X-212.081 Y-40.587 Z0.953
X-212.09 Y-40.561 Z0.952
X-212.11 Y-40.541 Z0.951
X-212.136 Y-40.532 Z0.95
X-212.164 Y-40.535 Z0.949
X-212.187 Y-40.55 Z0.948
X-213.247 Y-41.611 Z0.896
X-213.248
X-213.263 Y-41.635 Z0.895
X-213.266 Y-41.662 Z0.894
X-213.257 Y-41.689 Z0.893
X-213.237 Y-41.708 Z0.892
X-213.211 Y-41.717 Z0.891
X-213.183 Y-41.714 Z0.89
X-213.16 Y-41.7 Z0.889
X-212.098 Y-40.639 Z0.837
X-212.084 Y-40.615 Z0.836
X-212.081 Y-40.587 Z0.835
X-212.09 Y-40.561 Z0.834
X-212.11 Y-40.541 Z0.833
X-212.136 Y-40.532 Z0.832
X-212.164 Y-40.535 Z0.831
X-212.187 Y-40.55 Z0.83
X-213.247 Y-41.611 Z0.777
X-213.248
X-213.263 Y-41.635 Z0.776
X-213.266 Y-41.662 Z0.775
X-213.257 Y-41.689 Z0.774
X-213.237 Y-41.708 Z0.773
X-213.211 Y-41.717
X-213.183 Y-41.714 Z0.772
X-213.16 Y-41.7 Z0.771
X-212.098 Y-40.639 Z0.718
X-212.084 Y-40.615 Z0.717
X-212.081 Y-40.587 Z0.716
X-212.09 Y-40.561 Z0.715
X-212.11 Y-40.541 Z0.714
X-212.136 Y-40.532 Z0.713
X-212.164 Y-40.535 Z0.712
X-212.187 Y-40.55 Z0.711
X-213.247 Y-41.611 Z0.659
X-213.248
X-213.263 Y-41.635 Z0.658
X-213.266 Y-41.662 Z0.657
X-213.257 Y-41.689 Z0.656
X-213.237 Y-41.708 Z0.655
X-213.211 Y-41.717 Z0.654
X-213.183 Y-41.714 Z0.653
X-213.16 Y-41.7 Z0.652
X-212.098 Y-40.639 Z0.6
X-212.084 Y-40.615 Z0.599
X-212.081 Y-40.587 Z0.598
X-212.09 Y-40.561 Z0.597
X-212.11 Y-40.541 Z0.596
X-212.136 Y-40.532 Z0.595
X-212.164 Y-40.535 Z0.594
X-212.187 Y-40.55 Z0.593
X-213.247 Y-41.611 Z0.54
X-213.248
X-213.263 Y-41.635 Z0.539
X-213.266 Y-41.662 Z0.538
X-213.257 Y-41.689 Z0.537
X-213.237 Y-41.708 Z0.536
X-213.211 Y-41.717 Z0.535
X-213.183 Y-41.714
X-213.16 Y-41.7 Z0.534
X-212.098 Y-40.639 Z0.481
X-212.084 Y-40.615 Z0.48
X-212.081 Y-40.587 Z0.479
X-212.09 Y-40.561 Z0.478
X-212.11 Y-40.541 Z0.477
X-212.136 Y-40.532 Z0.476
X-212.164 Y-40.535 Z0.475
X-212.187 Y-40.55 Z0.474
X-213.247 Y-41.611 Z0.422
X-213.248
X-213.263 Y-41.635 Z0.421
X-213.266 Y-41.662 Z0.42
X-213.257 Y-41.689 Z0.419
X-213.237 Y-41.708 Z0.418
X-213.211 Y-41.717 Z0.417
X-213.183 Y-41.714 Z0.416
X-213.16 Y-41.7 Z0.415
X-212.098 Y-40.639 Z0.363
X-212.084 Y-40.615 Z0.362
X-212.081 Y-40.587 Z0.361
X-212.09 Y-40.561 Z0.36
X-212.11 Y-40.541 Z0.359
X-212.136 Y-40.532 Z0.358
X-212.164 Y-40.535 Z0.357
X-212.187 Y-40.55 Z0.356
X-213.247 Y-41.611 Z0.303
X-213.248
X-213.263 Y-41.635 Z0.302
X-213.266 Y-41.662 Z0.301
X-213.257 Y-41.689 Z0.3
X-213.237 Y-41.708 Z0.299
X-213.211 Y-41.717 Z0.298
X-213.183 Y-41.714 Z0.297
X-213.16 Y-41.7
X-212.098 Y-40.639 Z0.244
X-212.084 Y-40.615 Z0.243
X-212.081 Y-40.587 Z0.242
X-212.09 Y-40.561 Z0.241
X-212.11 Y-40.541 Z0.24
X-212.136 Y-40.532 Z0.239
X-212.164 Y-40.535 Z0.238
X-212.187 Y-40.55 Z0.237
X-213.247 Y-41.611 Z0.185
X-213.248
X-213.263 Y-41.635 Z0.184
X-213.266 Y-41.662 Z0.183
X-213.257 Y-41.689 Z0.182
X-213.237 Y-41.708 Z0.181
X-213.211 Y-41.717 Z0.18
X-213.183 Y-41.714 Z0.179
X-213.16 Y-41.7 Z0.178
X-212.098 Y-40.639 Z0.126
X-212.084 Y-40.615 Z0.125
X-212.081 Y-40.587 Z0.124
X-212.09 Y-40.561 Z0.123
X-212.11 Y-40.541 Z0.122
X-212.136 Y-40.532 Z0.121
X-212.164 Y-40.535 Z0.12
X-212.187 Y-40.55 Z0.119
X-213.247 Y-41.611 Z0.066
X-213.248
X-213.263 Y-41.635 Z0.065
X-213.266 Y-41.662 Z0.064
X-213.257 Y-41.689 Z0.063
X-213.237 Y-41.708 Z0.062
X-213.211 Y-41.717 Z0.061
X-213.183 Y-41.714 Z0.06
X-213.16 Y-41.7 Z0.059
X-212.098 Y-40.639 Z0.007
X-212.084 Y-40.615 Z0.006
X-212.081 Y-40.587 Z0.005
X-212.09 Y-40.561 Z0.004
X-212.11 Y-40.541 Z0.003
X-212.136 Y-40.532 Z0.002
X-212.164 Y-40.535 Z0.001
X-212.187 Y-40.55 Z0
X-213.247 Y-41.611 Z-0.052
X-213.248
X-213.263 Y-41.635 Z-0.053
X-213.266 Y-41.662 Z-0.054
X-213.257 Y-41.689 Z-0.055
X-213.237 Y-41.708 Z-0.056
X-213.211 Y-41.717 Z-0.057
X-213.183 Y-41.714 Z-0.058
X-213.16 Y-41.7 Z-0.059
X-212.098 Y-40.639 Z-0.111
X-212.084 Y-40.615 Z-0.112
X-212.081 Y-40.587 Z-0.113
X-212.09 Y-40.561 Z-0.114
X-212.11 Y-40.541 Z-0.115
X-212.136 Y-40.532 Z-0.116
X-212.164 Y-40.535 Z-0.117
X-212.187 Y-40.55 Z-0.118
X-213.247 Y-41.611 Z-0.171
X-213.248
X-213.263 Y-41.635 Z-0.172
X-213.266 Y-41.662 Z-0.173
X-213.257 Y-41.689 Z-0.174
X-213.237 Y-41.708 Z-0.175
X-213.211 Y-41.717 Z-0.176
X-213.183 Y-41.714 Z-0.177
X-213.16 Y-41.7 Z-0.178
X-212.098 Y-40.639 Z-0.23
X-212.084 Y-40.615 Z-0.231
X-212.081 Y-40.587 Z-0.232
X-212.09 Y-40.561 Z-0.233
X-212.11 Y-40.541 Z-0.234
X-212.136 Y-40.532 Z-0.235
X-212.164 Y-40.535 Z-0.236
X-212.187 Y-40.55 Z-0.237
X-213.247 Y-41.611 Z-0.289
X-213.248
X-213.263 Y-41.635 Z-0.29
X-213.266 Y-41.662 Z-0.291
X-213.257 Y-41.689 Z-0.292
X-213.237 Y-41.708 Z-0.293
X-213.211 Y-41.717 Z-0.294
X-213.183 Y-41.714 Z-0.295
X-213.16 Y-41.7 Z-0.296
X-212.098 Y-40.639 Z-0.348
X-212.084 Y-40.615 Z-0.349
X-212.081 Y-40.587 Z-0.35
X-212.09 Y-40.561 Z-0.351
X-212.11 Y-40.541 Z-0.352
X-212.136 Y-40.532 Z-0.353
X-212.164 Y-40.535 Z-0.354
X-212.187 Y-40.55 Z-0.355
X-213.247 Y-41.611 Z-0.408
X-213.248
X-213.263 Y-41.635 Z-0.409
X-213.266 Y-41.662 Z-0.41
X-213.257 Y-41.689 Z-0.411
X-213.237 Y-41.708 Z-0.412
X-213.211 Y-41.717 Z-0.413
X-213.183 Y-41.714 Z-0.414
X-213.16 Y-41.7 Z-0.415
X-212.098 Y-40.639 Z-0.467
X-212.084 Y-40.615 Z-0.468
X-212.081 Y-40.587 Z-0.469
X-212.09 Y-40.561 Z-0.47
X-212.11 Y-40.541 Z-0.471
X-212.136 Y-40.532 Z-0.472
X-212.164 Y-40.535 Z-0.473
X-212.187 Y-40.55 Z-0.474
X-213.247 Y-41.611 Z-0.526
X-213.248
X-213.263 Y-41.635 Z-0.527
X-213.266 Y-41.662 Z-0.528
X-213.257 Y-41.689 Z-0.529
X-213.237 Y-41.708 Z-0.53
X-213.211 Y-41.717 Z-0.531
X-213.183 Y-41.714 Z-0.532
X-213.16 Y-41.7 Z-0.533
X-212.098 Y-40.639 Z-0.585
X-212.084 Y-40.615 Z-0.586
X-212.081 Y-40.587 Z-0.587
X-212.09 Y-40.561 Z-0.588
X-212.11 Y-40.541 Z-0.589
X-212.136 Y-40.532 Z-0.59
X-212.164 Y-40.535 Z-0.591
X-212.187 Y-40.55 Z-0.592
X-213.247 Y-41.611 Z-0.645
X-213.248
X-213.263 Y-41.635 Z-0.646
X-213.266 Y-41.662 Z-0.647
X-213.257 Y-41.689 Z-0.648
X-213.237 Y-41.708 Z-0.649
X-213.211 Y-41.717 Z-0.65
X-213.183 Y-41.714 Z-0.651
X-213.16 Y-41.7 Z-0.652
X-212.098 Y-40.639 Z-0.704
X-212.084 Y-40.615 Z-0.705
X-212.081 Y-40.587 Z-0.706
X-212.09 Y-40.561 Z-0.707
X-212.11 Y-40.541 Z-0.708
X-212.136 Y-40.532 Z-0.709
X-212.164 Y-40.535 Z-0.71
X-212.187 Y-40.55 Z-0.711
X-213.247 Y-41.611 Z-0.763
X-213.248
X-213.263 Y-41.635 Z-0.764
X-213.266 Y-41.662 Z-0.765
X-213.257 Y-41.689 Z-0.766
X-213.237 Y-41.708 Z-0.767
X-213.211 Y-41.717 Z-0.768
X-213.183 Y-41.714 Z-0.769
X-213.16 Y-41.7 Z-0.77
X-212.098 Y-40.639 Z-0.822
X-212.084 Y-40.615 Z-0.823
X-212.081 Y-40.587 Z-0.824
X-212.09 Y-40.561 Z-0.825
X-212.11 Y-40.541 Z-0.826
X-212.136 Y-40.532 Z-0.827
X-212.164 Y-40.535 Z-0.828
X-212.187 Y-40.55 Z-0.829
X-213.247 Y-41.611 Z-0.882
X-213.248
X-213.263 Y-41.635 Z-0.883
X-213.266 Y-41.662 Z-0.884
X-213.257 Y-41.689 Z-0.885
X-213.237 Y-41.708 Z-0.886
X-213.211 Y-41.717 Z-0.887
X-213.183 Y-41.714 Z-0.888
X-213.16 Y-41.7 Z-0.889
X-212.098 Y-40.639 Z-0.941
X-212.084 Y-40.615 Z-0.942
X-212.081 Y-40.587 Z-0.943
X-212.09 Y-40.561 Z-0.944
X-212.11 Y-40.541 Z-0.945
X-212.136 Y-40.532 Z-0.946
X-212.164 Y-40.535 Z-0.947
X-212.187 Y-40.55 Z-0.948
X-213.247 Y-41.611 Z-1
X-213.248
X-213.263 Y-41.635 Z-1.001
X-213.266 Y-41.662 Z-1.002
X-213.257 Y-41.689 Z-1.003
X-213.237 Y-41.708 Z-1.004
X-213.211 Y-41.717 Z-1.005
X-213.183 Y-41.714 Z-1.006
X-213.16 Y-41.7 Z-1.007
X-212.098 Y-40.639 Z-1.059
X-212.084 Y-40.615 Z-1.06
X-212.081 Y-40.587 Z-1.061
X-212.09 Y-40.561 Z-1.062
X-212.11 Y-40.541 Z-1.063
X-212.136 Y-40.532 Z-1.064
X-212.164 Y-40.535 Z-1.065
X-212.187 Y-40.55 Z-1.066
X-213.247 Y-41.611 Z-1.119
X-213.248
X-213.263 Y-41.635 Z-1.12
X-213.266 Y-41.662 Z-1.121
X-213.257 Y-41.689 Z-1.122
X-213.237 Y-41.708 Z-1.123
X-213.211 Y-41.717 Z-1.124
X-213.183 Y-41.714 Z-1.125
X-213.16 Y-41.7 Z-1.126
X-212.098 Y-40.639 Z-1.178
X-212.084 Y-40.615 Z-1.179
X-212.081 Y-40.587 Z-1.18
X-212.09 Y-40.561 Z-1.181
X-212.11 Y-40.541 Z-1.182
X-212.136 Y-40.532 Z-1.183
X-212.164 Y-40.535 Z-1.184
X-212.187 Y-40.55 Z-1.185
X-213.247 Y-41.611 Z-1.237
X-213.248
X-213.263 Y-41.635 Z-1.238
X-213.266 Y-41.662 Z-1.239
X-213.257 Y-41.689 Z-1.24
X-213.237 Y-41.708 Z-1.241
X-213.211 Y-41.717 Z-1.242
X-213.183 Y-41.714 Z-1.243
X-213.16 Y-41.7 Z-1.244
X-212.098 Y-40.639 Z-1.297
X-212.084 Y-40.615
X-212.081 Y-40.587 Z-1.298
X-212.09 Y-40.561 Z-1.299
X-212.11 Y-40.541 Z-1.3
X-212.136 Y-40.532 Z-1.301
X-212.164 Y-40.535 Z-1.302
X-212.187 Y-40.55 Z-1.303
X-213.247 Y-41.611 Z-1.356
X-213.248
X-213.263 Y-41.635 Z-1.357
X-213.266 Y-41.662 Z-1.358
X-213.257 Y-41.689 Z-1.359
X-213.237 Y-41.708 Z-1.36
X-213.211 Y-41.717 Z-1.361
X-213.183 Y-41.714 Z-1.362
X-213.16 Y-41.7 Z-1.363
X-212.098 Y-40.639 Z-1.415
X-212.084 Y-40.615 Z-1.416
X-212.081 Y-40.587 Z-1.417
X-212.09 Y-40.561 Z-1.418
X-212.11 Y-40.541 Z-1.419
X-212.136 Y-40.532 Z-1.42
X-212.164 Y-40.535 Z-1.421
X-212.187 Y-40.55 Z-1.422
X-213.247 Y-41.611 Z-1.474
X-213.248
X-213.263 Y-41.635 Z-1.475
X-213.266 Y-41.662 Z-1.476
X-213.257 Y-41.689 Z-1.477
X-213.237 Y-41.708 Z-1.478
X-213.211 Y-41.717 Z-1.479
X-213.183 Y-41.714 Z-1.48
X-213.16 Y-41.7 Z-1.481
X-212.098 Y-40.639 Z-1.534
X-212.084 Y-40.615 Z-1.535
X-212.081 Y-40.587
X-212.09 Y-40.561 Z-1.536
X-212.11 Y-40.541 Z-1.537
X-212.136 Y-40.532 Z-1.538
X-212.164 Y-40.535 Z-1.539
X-212.187 Y-40.55 Z-1.54
X-213.247 Y-41.611 Z-1.593
X-213.248
X-213.263 Y-41.635 Z-1.594
X-213.266 Y-41.662 Z-1.595
X-213.257 Y-41.689 Z-1.596
X-213.237 Y-41.708 Z-1.597
X-213.211 Y-41.717 Z-1.598
X-213.183 Y-41.714 Z-1.599
X-213.16 Y-41.7 Z-1.6
X-212.098 Y-40.639 Z-1.652
X-212.084 Y-40.615 Z-1.653
X-212.081 Y-40.587 Z-1.654
X-212.09 Y-40.561 Z-1.655
X-212.11 Y-40.541 Z-1.656
X-212.136 Y-40.532 Z-1.657
X-212.164 Y-40.535 Z-1.658
X-212.187 Y-40.55 Z-1.659
X-213.247 Y-41.611 Z-1.711
X-213.248
X-213.263 Y-41.635 Z-1.712
X-213.266 Y-41.662 Z-1.713
X-213.257 Y-41.689 Z-1.714
X-213.237 Y-41.708 Z-1.715
X-213.211 Y-41.717 Z-1.716
X-213.183 Y-41.714 Z-1.717
X-213.16 Y-41.7 Z-1.718
X-212.098 Y-40.639 Z-1.771
X-212.084 Y-40.615 Z-1.772
X-212.081 Y-40.587 Z-1.773
X-212.09 Y-40.561
X-212.11 Y-40.541 Z-1.774
X-212.136 Y-40.532 Z-1.775
X-212.164 Y-40.535 Z-1.776
X-212.187 Y-40.55 Z-1.777
X-213.247 Y-41.611 Z-1.83
X-213.248
X-213.263 Y-41.635 Z-1.831
X-213.266 Y-41.662 Z-1.832
X-213.257 Y-41.689 Z-1.833
X-213.237 Y-41.708 Z-1.834
X-213.211 Y-41.717 Z-1.835
X-213.183 Y-41.714 Z-1.836
X-213.16 Y-41.7 Z-1.837
X-212.098 Y-40.639 Z-1.889
X-212.084 Y-40.615 Z-1.89
X-212.081 Y-40.587 Z-1.891
X-212.09 Y-40.561 Z-1.892
X-212.11 Y-40.541 Z-1.893
X-212.136 Y-40.532 Z-1.894
X-212.164 Y-40.535 Z-1.895
X-212.187 Y-40.55 Z-1.896
X-213.247 Y-41.611 Z-1.948
X-213.248
X-213.263 Y-41.635 Z-1.949
X-213.266 Y-41.662 Z-1.95
X-213.257 Y-41.689 Z-1.951
X-213.237 Y-41.708 Z-1.952
X-213.211 Y-41.717 Z-1.953
X-213.183 Y-41.714 Z-1.954
X-213.16 Y-41.7 Z-1.955
X-212.098 Y-40.639 Z-2.008
X-212.084 Y-40.615 Z-2.009
X-212.081 Y-40.587 Z-2.01
X-212.09 Y-40.561 Z-2.011
X-212.11 Y-40.541
X-212.136 Y-40.532 Z-2.012
X-212.164 Y-40.535 Z-2.013
X-212.187 Y-40.55 Z-2.014
X-213.247 Y-41.611 Z-2.067
X-213.248
X-213.263 Y-41.635 Z-2.068
X-213.266 Y-41.662 Z-2.069
X-213.257 Y-41.689 Z-2.07
X-213.237 Y-41.708 Z-2.071
X-213.211 Y-41.717 Z-2.072
X-213.183 Y-41.714 Z-2.073
X-213.16 Y-41.7 Z-2.074
X-212.098 Y-40.639 Z-2.126
X-212.084 Y-40.615 Z-2.127
X-212.081 Y-40.587 Z-2.128
X-212.09 Y-40.561 Z-2.129
X-212.11 Y-40.541 Z-2.13
X-212.136 Y-40.532 Z-2.131
X-212.164 Y-40.535 Z-2.132
X-212.187 Y-40.55 Z-2.133
X-213.247 Y-41.611 Z-2.185
X-213.248
X-213.263 Y-41.635 Z-2.186
X-213.266 Y-41.662 Z-2.187
X-213.257 Y-41.689 Z-2.188
X-213.237 Y-41.708 Z-2.189
X-213.211 Y-41.717 Z-2.19
X-213.183 Y-41.714 Z-2.191
X-213.16 Y-41.7 Z-2.192
X-212.098 Y-40.639 Z-2.245
X-212.084 Y-40.615 Z-2.246
X-212.081 Y-40.587 Z-2.247
X-212.09 Y-40.561 Z-2.248
X-212.11 Y-40.541 Z-2.249
X-212.136 Y-40.532
X-212.164 Y-40.535 Z-2.25
X-212.187 Y-40.55 Z-2.251
X-213.247 Y-41.611 Z-2.304
X-213.248
X-213.263 Y-41.635 Z-2.305
X-213.266 Y-41.662 Z-2.306
X-213.257 Y-41.689 Z-2.307
X-213.237 Y-41.708 Z-2.308
X-213.211 Y-41.717 Z-2.309
X-213.183 Y-41.714 Z-2.31
X-213.16 Y-41.7 Z-2.311
X-212.098 Y-40.639 Z-2.363
X-212.084 Y-40.615 Z-2.364
X-212.081 Y-40.587 Z-2.365
X-212.09 Y-40.561 Z-2.366
X-212.11 Y-40.541 Z-2.367
X-212.136 Y-40.532 Z-2.368
X-212.164 Y-40.535 Z-2.369
X-212.187 Y-40.55 Z-2.37
X-213.247 Y-41.611 Z-2.422
X-213.248
X-213.263 Y-41.635 Z-2.423
X-213.266 Y-41.662 Z-2.424
X-213.257 Y-41.689 Z-2.425
X-213.237 Y-41.708 Z-2.426
X-213.211 Y-41.717 Z-2.427
X-213.183 Y-41.714 Z-2.428
X-213.16 Y-41.7 Z-2.429
X-212.098 Y-40.639 Z-2.482
X-212.084 Y-40.615 Z-2.483
X-212.081 Y-40.587 Z-2.484
X-212.09 Y-40.561 Z-2.485
X-212.11 Y-40.541 Z-2.486
X-212.136 Y-40.532 Z-2.487
X-212.164 Y-40.535
X-212.187 Y-40.55 Z-2.488
X-213.247 Y-41.611 Z-2.541
X-213.248
X-213.263 Y-41.635 Z-2.542
X-213.266 Y-41.662 Z-2.543
X-213.257 Y-41.689 Z-2.544
X-213.237 Y-41.708 Z-2.545
X-213.211 Y-41.717 Z-2.546
X-213.183 Y-41.714 Z-2.547
X-213.16 Y-41.7 Z-2.548
X-212.098 Y-40.639 Z-2.6
X-212.084 Y-40.615 Z-2.601
X-212.081 Y-40.587 Z-2.602
X-212.09 Y-40.561 Z-2.603
X-212.11 Y-40.541 Z-2.604
X-212.136 Y-40.532 Z-2.605
X-212.164 Y-40.535 Z-2.606
X-212.187 Y-40.55 Z-2.607
X-213.247 Y-41.611 Z-2.659
X-213.248
X-213.263 Y-41.635 Z-2.66
X-213.266 Y-41.662 Z-2.661
X-213.257 Y-41.689 Z-2.662
X-213.237 Y-41.708 Z-2.663
X-213.211 Y-41.717 Z-2.664
X-213.183 Y-41.714 Z-2.665
X-213.16 Y-41.7 Z-2.666
X-212.098 Y-40.639 Z-2.719
X-212.084 Y-40.615 Z-2.72
X-212.081 Y-40.587 Z-2.721
X-212.09 Y-40.561 Z-2.722
X-212.11 Y-40.541 Z-2.723
X-212.136 Y-40.532 Z-2.724
X-212.164 Y-40.535 Z-2.725
X-212.187 Y-40.55
X-213.247 Y-41.611 Z-2.778
X-213.248
X-213.263 Y-41.635 Z-2.779
X-213.266 Y-41.662 Z-2.78
X-213.257 Y-41.689 Z-2.781
X-213.237 Y-41.708 Z-2.782
X-213.211 Y-41.717 Z-2.783
X-213.183 Y-41.714 Z-2.784
X-213.16 Y-41.7 Z-2.785
X-212.098 Y-40.639 Z-2.837
X-212.084 Y-40.615 Z-2.838
X-212.081 Y-40.587 Z-2.839
X-212.09 Y-40.561 Z-2.84
X-212.11 Y-40.541 Z-2.841
X-212.136 Y-40.532 Z-2.842
X-212.164 Y-40.535 Z-2.843
X-212.187 Y-40.55 Z-2.844
X-213.247 Y-41.611 Z-2.896
X-213.248
X-213.263 Y-41.635 Z-2.897
X-213.266 Y-41.662 Z-2.898
X-213.257 Y-41.689 Z-2.899
X-213.237 Y-41.708 Z-2.9
X-213.211 Y-41.717 Z-2.901
X-213.183 Y-41.714 Z-2.902
X-213.16 Y-41.7 Z-2.903
X-212.098 Y-40.639 Z-2.956
X-212.084 Y-40.615 Z-2.957
X-212.081 Y-40.587 Z-2.958
X-212.09 Y-40.561 Z-2.959
X-212.11 Y-40.541 Z-2.96
X-212.136 Y-40.532 Z-2.961
X-212.164 Y-40.535 Z-2.962
X-212.187 Y-40.55 Z-2.963
X-213.247 Y-41.611 Z-3.015
X-213.248
X-213.263 Y-41.635 Z-3.016
X-213.266 Y-41.662 Z-3.017
X-213.257 Y-41.689 Z-3.018
X-213.237 Y-41.708 Z-3.019
X-213.211 Y-41.717 Z-3.02
X-213.183 Y-41.714 Z-3.021
X-213.16 Y-41.7 Z-3.022
X-212.098 Y-40.639 Z-3.074
X-212.084 Y-40.615 Z-3.075
X-212.081 Y-40.587 Z-3.076
X-212.09 Y-40.561 Z-3.077
X-212.11 Y-40.541 Z-3.078
X-212.136 Y-40.532 Z-3.079
X-212.164 Y-40.535 Z-3.08
X-212.187 Y-40.55 Z-3.081
X-213.247 Y-41.611 Z-3.133
X-213.248
X-213.263 Y-41.635 Z-3.134
X-213.266 Y-41.662 Z-3.135
X-213.257 Y-41.689 Z-3.136
X-213.237 Y-41.708 Z-3.137
X-213.211 Y-41.717 Z-3.138
X-213.183 Y-41.714 Z-3.139
X-213.16 Y-41.7 Z-3.14
X-212.098 Y-40.639 Z-3.193
X-212.084 Y-40.615 Z-3.194
X-212.081 Y-40.587 Z-3.195
X-212.09 Y-40.561 Z-3.196
X-212.11 Y-40.541 Z-3.197
X-212.136 Y-40.532 Z-3.198
X-212.164 Y-40.535 Z-3.199
X-212.187 Y-40.55 Z-3.2
X-213.247 Y-41.611 Z-3.252
X-213.248
X-213.263 Y-41.635 Z-3.253
X-213.266 Y-41.662 Z-3.254
X-213.257 Y-41.689 Z-3.255
X-213.237 Y-41.708 Z-3.256
X-213.211 Y-41.717 Z-3.257
X-213.183 Y-41.714 Z-3.258
X-213.16 Y-41.7 Z-3.259
X-212.098 Y-40.639 Z-3.311
X-212.084 Y-40.615 Z-3.312
X-212.081 Y-40.587 Z-3.313
X-212.09 Y-40.561 Z-3.314
X-212.11 Y-40.541 Z-3.315
X-212.136 Y-40.532 Z-3.316
X-212.164 Y-40.535 Z-3.317
X-212.187 Y-40.55 Z-3.318
X-213.247 Y-41.611 Z-3.37
X-213.248
X-213.263 Y-41.635 Z-3.371
X-213.266 Y-41.662 Z-3.372
X-213.257 Y-41.689 Z-3.373
X-213.237 Y-41.708 Z-3.374
X-213.211 Y-41.717 Z-3.375
X-213.183 Y-41.714 Z-3.376
X-213.16 Y-41.7 Z-3.377
X-212.098 Y-40.639 Z-3.43
X-212.084 Y-40.615 Z-3.431
X-212.081 Y-40.587 Z-3.432
X-212.09 Y-40.561 Z-3.433
X-212.11 Y-40.541 Z-3.434
X-212.136 Y-40.532 Z-3.435
X-212.164 Y-40.535 Z-3.436
X-212.187 Y-40.55 Z-3.437
X-213.247 Y-41.611 Z-3.489
X-213.248
X-213.263 Y-41.635 Z-3.49
X-213.266 Y-41.662 Z-3.491
X-213.257 Y-41.689 Z-3.492
X-213.237 Y-41.708 Z-3.493
X-213.211 Y-41.717 Z-3.494
X-213.183 Y-41.714 Z-3.495
X-213.16 Y-41.7 Z-3.496
X-212.098 Y-40.639 Z-3.548
X-212.084 Y-40.615 Z-3.549
X-212.081 Y-40.587 Z-3.55
X-212.09 Y-40.561 Z-3.551
X-212.11 Y-40.541 Z-3.552
X-212.136 Y-40.532 Z-3.553
X-212.164 Y-40.535 Z-3.554
X-212.187 Y-40.55 Z-3.555
X-213.247 Y-41.611 Z-3.607
X-213.248
X-213.263 Y-41.635 Z-3.608
X-213.266 Y-41.662 Z-3.609
X-213.257 Y-41.689 Z-3.61
X-213.237 Y-41.708 Z-3.611
X-213.211 Y-41.717 Z-3.612
X-213.183 Y-41.714 Z-3.613
X-213.16 Y-41.7 Z-3.614
X-212.098 Y-40.639 Z-3.667
X-212.084 Y-40.615 Z-3.668
X-212.081 Y-40.587 Z-3.669
X-212.09 Y-40.561 Z-3.67
X-212.11 Y-40.541 Z-3.671
X-212.136 Y-40.532 Z-3.672
X-212.164 Y-40.535 Z-3.673
X-212.187 Y-40.55 Z-3.674
X-213.247 Y-41.611 Z-3.726
X-213.248
X-213.263 Y-41.635 Z-3.727
X-213.266 Y-41.662 Z-3.728
X-213.257 Y-41.689 Z-3.729
X-213.237 Y-41.708 Z-3.73
X-213.211 Y-41.717 Z-3.731
X-213.183 Y-41.714 Z-3.732
X-213.16 Y-41.7 Z-3.733
X-212.098 Y-40.639 Z-3.785
X-212.084 Y-40.615 Z-3.786
X-212.081 Y-40.587 Z-3.787
X-212.09 Y-40.561 Z-3.788
X-212.11 Y-40.541 Z-3.789
X-212.136 Y-40.532 Z-3.79
X-212.164 Y-40.535 Z-3.791
X-212.187 Y-40.55 Z-3.792
X-213.247 Y-41.611 Z-3.844
X-213.248
X-213.263 Y-41.635 Z-3.845
X-213.266 Y-41.662 Z-3.846
X-213.257 Y-41.689 Z-3.847
X-213.237 Y-41.708 Z-3.848
X-213.211 Y-41.717 Z-3.849
X-213.183 Y-41.714 Z-3.85
X-213.16 Y-41.7 Z-3.851
X-212.098 Y-40.639 Z-3.904
X-212.084 Y-40.615 Z-3.905
X-212.081 Y-40.587 Z-3.906
X-212.09 Y-40.561 Z-3.907
X-212.11 Y-40.541 Z-3.908
X-212.136 Y-40.532 Z-3.909
X-212.164 Y-40.535 Z-3.91
X-212.187 Y-40.55 Z-3.911
X-213.247 Y-41.611 Z-3.963
X-213.248
X-213.263 Y-41.635 Z-3.964
X-213.266 Y-41.662 Z-3.965
X-213.257 Y-41.689 Z-3.966
X-213.237 Y-41.708 Z-3.967
X-213.211 Y-41.717 Z-3.968
X-213.183 Y-41.714 Z-3.969
X-213.16 Y-41.7 Z-3.97
X-212.098 Y-40.639 Z-4.022
X-212.084 Y-40.615 Z-4.023
X-212.081 Y-40.587 Z-4.024
X-212.09 Y-40.561 Z-4.025
X-212.11 Y-40.541 Z-4.026
X-212.136 Y-40.532 Z-4.027
X-212.164 Y-40.535 Z-4.028
X-212.187 Y-40.55 Z-4.029
X-213.247 Y-41.611 Z-4.081
X-213.248
X-213.263 Y-41.635 Z-4.082
X-213.266 Y-41.662 Z-4.083
X-213.257 Y-41.689 Z-4.084
X-213.237 Y-41.708 Z-4.085
X-213.211 Y-41.717 Z-4.086
X-213.183 Y-41.714 Z-4.087
X-213.16 Y-41.7 Z-4.088
X-212.098 Y-40.639 Z-4.141
X-212.084 Y-40.615 Z-4.142
X-212.081 Y-40.587 Z-4.143
X-212.09 Y-40.561 Z-4.144
X-212.11 Y-40.541 Z-4.145
X-212.136 Y-40.532 Z-4.146
X-212.164 Y-40.535 Z-4.147
X-212.187 Y-40.55 Z-4.148
X-213.247 Y-41.611 Z-4.2
X-213.248
S6000
X-213.263 Y-41.635 F1000
X-213.266 Y-41.662
X-213.257 Y-41.689
X-213.237 Y-41.708
X-213.211 Y-41.717
X-213.183 Y-41.714
X-213.16 Y-41.7
X-212.098 Y-40.639
X-212.084 Y-40.615
X-212.081 Y-40.587
X-212.09 Y-40.561
X-212.11 Y-40.541
X-212.136 Y-40.532
X-212.164 Y-40.535
X-212.187 Y-40.55
X-213.247 Y-41.611
X-213.248
G0 Z5
X-212.39 Y-28.945
G1 Z1 F333.3
S5000
X-213.159 Y-28.176 Z0.962
X-213.183 Y-28.161 Z0.961
X-213.21 Y-28.158 Z0.96
X-213.237 Y-28.167 Z0.959
X-213.257 Y-28.186 Z0.958
X-213.266 Y-28.213 Z0.957
X-213.263 Y-28.24 Z0.956
X-213.248 Y-28.264 Z0.955
X-213.247 Y-28.265
X-212.187 Y-29.325 Z0.903
X-212.164 Y-29.34 Z0.902
X-212.136 Y-29.343 Z0.901
X-212.11 Y-29.334 Z0.9
X-212.09 Y-29.314 Z0.899
X-212.081 Y-29.288 Z0.898
X-212.084 Y-29.26 Z0.897
X-212.099 Y-29.237 Z0.896
Y-29.236
X-213.159 Y-28.176 Z0.844
X-213.183 Y-28.161 Z0.843
X-213.21 Y-28.158 Z0.842
X-213.237 Y-28.167 Z0.841
X-213.257 Y-28.186 Z0.84
X-213.266 Y-28.213 Z0.839
X-213.263 Y-28.24 Z0.838
X-213.248 Y-28.264 Z0.837
X-213.247 Y-28.265
X-212.187 Y-29.325 Z0.784
X-212.164 Y-29.34 Z0.783
X-212.136 Y-29.343 Z0.782
X-212.11 Y-29.334 Z0.781
X-212.09 Y-29.314 Z0.78
X-212.081 Y-29.288 Z0.779
X-212.084 Y-29.26 Z0.778
X-212.099 Y-29.237 Z0.777
Y-29.236
X-213.159 Y-28.176 Z0.725
X-213.183 Y-28.161 Z0.724
X-213.21 Y-28.158 Z0.723
X-213.237 Y-28.167 Z0.722
X-213.257 Y-28.186 Z0.721
X-213.266 Y-28.213 Z0.72
X-213.263 Y-28.24 Z0.719
X-213.248 Y-28.264 Z0.718
X-213.247 Y-28.265
X-212.187 Y-29.325 Z0.666
X-212.164 Y-29.34 Z0.665
X-212.136 Y-29.343 Z0.664
X-212.11 Y-29.334 Z0.663
X-212.09 Y-29.314 Z0.662
X-212.081 Y-29.288 Z0.661
X-212.084 Y-29.26 Z0.66
X-212.099 Y-29.237 Z0.659
Y-29.236
X-213.159 Y-28.176 Z0.606
X-213.183 Y-28.161
X-213.21 Y-28.158 Z0.605
X-213.237 Y-28.167 Z0.604
X-213.257 Y-28.186 Z0.603
X-213.266 Y-28.213 Z0.602
X-213.263 Y-28.24 Z0.601
X-213.248 Y-28.264 Z0.6
X-213.247 Y-28.265
X-212.187 Y-29.325 Z0.547
X-212.164 Y-29.34 Z0.546
X-212.136 Y-29.343 Z0.545
X-212.11 Y-29.334 Z0.544
X-212.09 Y-29.314 Z0.543
X-212.081 Y-29.288 Z0.542
X-212.084 Y-29.26 Z0.541
X-212.099 Y-29.237 Z0.54
Y-29.236
X-213.159 Y-28.176 Z0.488
X-213.183 Y-28.161 Z0.487
X-213.21 Y-28.158 Z0.486
X-213.237 Y-28.167 Z0.485
X-213.257 Y-28.186 Z0.484
X-213.266 Y-28.213 Z0.483
X-213.263 Y-28.24 Z0.482
X-213.248 Y-28.264 Z0.481
X-213.247 Y-28.265
X-212.187 Y-29.325 Z0.429
X-212.164 Y-29.34 Z0.428
X-212.136 Y-29.343 Z0.427
X-212.11 Y-29.334 Z0.426
X-212.09 Y-29.314 Z0.425
X-212.081 Y-29.288 Z0.424
X-212.084 Y-29.26 Z0.423
X-212.099 Y-29.237 Z0.422
Y-29.236
X-213.159 Y-28.176 Z0.369
X-213.183 Y-28.161 Z0.368
X-213.21 Y-28.158
X-213.237 Y-28.167 Z0.367
X-213.257 Y-28.186 Z0.366
X-213.266 Y-28.213 Z0.365
X-213.263 Y-28.24 Z0.364
X-213.248 Y-28.264 Z0.363
X-213.247 Y-28.265
X-212.187 Y-29.325 Z0.31
X-212.164 Y-29.34 Z0.309
X-212.136 Y-29.343 Z0.308
X-212.11 Y-29.334 Z0.307
X-212.09 Y-29.314 Z0.306
X-212.081 Y-29.288 Z0.305
X-212.084 Y-29.26 Z0.304
X-212.099 Y-29.237 Z0.303
Y-29.236
X-213.159 Y-28.176 Z0.251
X-213.183 Y-28.161 Z0.25
X-213.21 Y-28.158 Z0.249
X-213.237 Y-28.167 Z0.248
X-213.257 Y-28.186 Z0.247
X-213.266 Y-28.213 Z0.246
X-213.263 Y-28.24 Z0.245
X-213.248 Y-28.264 Z0.244
X-213.247 Y-28.265
X-212.187 Y-29.325 Z0.192
X-212.164 Y-29.34 Z0.191
X-212.136 Y-29.343 Z0.19
X-212.11 Y-29.334 Z0.189
X-212.09 Y-29.314 Z0.188
X-212.081 Y-29.288 Z0.187
X-212.084 Y-29.26 Z0.186
X-212.099 Y-29.237 Z0.185
Y-29.236
X-213.159 Y-28.176 Z0.132
X-213.183 Y-28.161 Z0.131
X-213.21 Y-28.158 Z0.13
X-213.237 Y-28.167
X-213.257 Y-28.186 Z0.129
X-213.266 Y-28.213 Z0.128
X-213.263 Y-28.24 Z0.127
X-213.248 Y-28.264 Z0.126
X-213.247 Y-28.265
X-212.187 Y-29.325 Z0.073
X-212.164 Y-29.34 Z0.072
X-212.136 Y-29.343 Z0.071
X-212.11 Y-29.334 Z0.07
X-212.09 Y-29.314 Z0.069
X-212.081 Y-29.288 Z0.068
X-212.084 Y-29.26 Z0.067
X-212.099 Y-29.237 Z0.066
Y-29.236
X-213.159 Y-28.176 Z0.014
X-213.183 Y-28.161 Z0.013
X-213.21 Y-28.158 Z0.012
X-213.237 Y-28.167 Z0.011
X-213.257 Y-28.186 Z0.01
X-213.266 Y-28.213 Z0.009
X-213.263 Y-28.24 Z0.008
X-213.248 Y-28.264 Z0.007
X-213.247 Y-28.265
X-212.187 Y-29.325 Z-0.045
X-212.164 Y-29.34 Z-0.046
X-212.136 Y-29.343 Z-0.047
X-212.11 Y-29.334 Z-0.048
X-212.09 Y-29.314 Z-0.049
X-212.081 Y-29.288 Z-0.05
X-212.084 Y-29.26 Z-0.051
X-212.099 Y-29.237 Z-0.052
Y-29.236
X-213.159 Y-28.176 Z-0.105
X-213.183 Y-28.161 Z-0.106
X-213.21 Y-28.158 Z-0.107
X-213.237 Y-28.167 Z-0.108
X-213.257 Y-28.186
X-213.266 Y-28.213 Z-0.109
X-213.263 Y-28.24 Z-0.11
X-213.248 Y-28.264 Z-0.111
X-213.247 Y-28.265
X-212.187 Y-29.325 Z-0.164
X-212.164 Y-29.34 Z-0.165
X-212.136 Y-29.343 Z-0.166
X-212.11 Y-29.334 Z-0.167
X-212.09 Y-29.314 Z-0.168
X-212.081 Y-29.288 Z-0.169
X-212.084 Y-29.26 Z-0.17
X-212.099 Y-29.237 Z-0.171
Y-29.236
X-213.159 Y-28.176 Z-0.223
X-213.183 Y-28.161 Z-0.224
X-213.21 Y-28.158 Z-0.225
X-213.237 Y-28.167 Z-0.226
X-213.257 Y-28.186 Z-0.227
X-213.266 Y-28.213 Z-0.228
X-213.263 Y-28.24 Z-0.229
X-213.248 Y-28.264 Z-0.23
X-213.247 Y-28.265
X-212.187 Y-29.325 Z-0.282
X-212.164 Y-29.34 Z-0.283
X-212.136 Y-29.343 Z-0.284
X-212.11 Y-29.334 Z-0.285
X-212.09 Y-29.314 Z-0.286
X-212.081 Y-29.288 Z-0.287
X-212.084 Y-29.26 Z-0.288
X-212.099 Y-29.237 Z-0.289
Y-29.236
X-213.159 Y-28.176 Z-0.342
X-213.183 Y-28.161 Z-0.343
X-213.21 Y-28.158 Z-0.344
X-213.237 Y-28.167 Z-0.345
X-213.257 Y-28.186 Z-0.346
X-213.266 Y-28.213
X-213.263 Y-28.24 Z-0.347
X-213.248 Y-28.264 Z-0.348
X-213.247 Y-28.265
X-212.187 Y-29.325 Z-0.401
X-212.164 Y-29.34 Z-0.402
X-212.136 Y-29.343 Z-0.403
X-212.11 Y-29.334 Z-0.404
X-212.09 Y-29.314 Z-0.405
X-212.081 Y-29.288 Z-0.406
X-212.084 Y-29.26 Z-0.407
X-212.099 Y-29.237 Z-0.408
Y-29.236
X-213.159 Y-28.176 Z-0.46
X-213.183 Y-28.161 Z-0.461
X-213.21 Y-28.158 Z-0.462
X-213.237 Y-28.167 Z-0.463
X-213.257 Y-28.186 Z-0.464
X-213.266 Y-28.213 Z-0.465
X-213.263 Y-28.24 Z-0.466
X-213.248 Y-28.264 Z-0.467
X-213.247 Y-28.265
X-212.187 Y-29.325 Z-0.519
X-212.164 Y-29.34 Z-0.52
X-212.136 Y-29.343 Z-0.521
X-212.11 Y-29.334 Z-0.522
X-212.09 Y-29.314 Z-0.523
X-212.081 Y-29.288 Z-0.524
X-212.084 Y-29.26 Z-0.525
X-212.099 Y-29.237 Z-0.526
Y-29.236
X-213.159 Y-28.176 Z-0.579
X-213.183 Y-28.161 Z-0.58
X-213.21 Y-28.158 Z-0.581
X-213.237 Y-28.167 Z-0.582
X-213.257 Y-28.186 Z-0.583
X-213.266 Y-28.213 Z-0.584
X-213.263 Y-28.24
X-213.248 Y-28.264 Z-0.585
X-213.247 Y-28.265 Z-0.586
X-212.187 Y-29.325 Z-0.638
X-212.164 Y-29.34 Z-0.639
X-212.136 Y-29.343 Z-0.64
X-212.11 Y-29.334 Z-0.641
X-212.09 Y-29.314 Z-0.642
X-212.081 Y-29.288 Z-0.643
X-212.084 Y-29.26 Z-0.644
X-212.099 Y-29.237 Z-0.645
Y-29.236
X-213.159 Y-28.176 Z-0.697
X-213.183 Y-28.161 Z-0.698
X-213.21 Y-28.158 Z-0.699
X-213.237 Y-28.167 Z-0.7
X-213.257 Y-28.186 Z-0.701
X-213.266 Y-28.213 Z-0.702
X-213.263 Y-28.24 Z-0.703
X-213.248 Y-28.264 Z-0.704
X-213.247 Y-28.265
X-212.187 Y-29.325 Z-0.756
X-212.164 Y-29.34 Z-0.757
X-212.136 Y-29.343 Z-0.758
X-212.11 Y-29.334 Z-0.759
X-212.09 Y-29.314 Z-0.76
X-212.081 Y-29.288 Z-0.761
X-212.084 Y-29.26 Z-0.762
X-212.099 Y-29.237 Z-0.763
Y-29.236
X-213.159 Y-28.176 Z-0.816
X-213.183 Y-28.161 Z-0.817
X-213.21 Y-28.158 Z-0.818
X-213.237 Y-28.167 Z-0.819
X-213.257 Y-28.186 Z-0.82
X-213.266 Y-28.213 Z-0.821
X-213.263 Y-28.24 Z-0.822
X-213.248 Y-28.264
X-213.247 Y-28.265 Z-0.823
X-212.187 Y-29.325 Z-0.875
X-212.164 Y-29.34 Z-0.876
X-212.136 Y-29.343 Z-0.877
X-212.11 Y-29.334 Z-0.878
X-212.09 Y-29.314 Z-0.879
X-212.081 Y-29.288 Z-0.88
X-212.084 Y-29.26 Z-0.881
X-212.099 Y-29.237 Z-0.882
Y-29.236
X-213.159 Y-28.176 Z-0.934
X-213.183 Y-28.161 Z-0.935
X-213.21 Y-28.158 Z-0.936
X-213.237 Y-28.167 Z-0.937
X-213.257 Y-28.186 Z-0.938
X-213.266 Y-28.213 Z-0.939
X-213.263 Y-28.24 Z-0.94
X-213.248 Y-28.264 Z-0.941
X-213.247 Y-28.265
X-212.187 Y-29.325 Z-0.993
X-212.164 Y-29.34 Z-0.994
X-212.136 Y-29.343 Z-0.995
X-212.11 Y-29.334 Z-0.996
X-212.09 Y-29.314 Z-0.997
X-212.081 Y-29.288 Z-0.998
X-212.084 Y-29.26 Z-0.999
X-212.099 Y-29.237 Z-1
Y-29.236
X-213.159 Y-28.176 Z-1.053
X-213.183 Y-28.161 Z-1.054
X-213.21 Y-28.158 Z-1.055
X-213.237 Y-28.167 Z-1.056
X-213.257 Y-28.186 Z-1.057
X-213.266 Y-28.213 Z-1.058
X-213.263 Y-28.24 Z-1.059
X-213.248 Y-28.264
X-213.247 Y-28.265 Z-1.06
X-212.187 Y-29.325 Z-1.112
X-212.164 Y-29.34 Z-1.113
X-212.136 Y-29.343 Z-1.114
X-212.11 Y-29.334 Z-1.115
X-212.09 Y-29.314 Z-1.116
X-212.081 Y-29.288 Z-1.117
X-212.084 Y-29.26 Z-1.118
X-212.099 Y-29.237 Z-1.119
Y-29.236
X-213.159 Y-28.176 Z-1.171
X-213.183 Y-28.161 Z-1.172
X-213.21 Y-28.158 Z-1.173
X-213.237 Y-28.167 Z-1.174
X-213.257 Y-28.186 Z-1.175
X-213.266 Y-28.213 Z-1.176
X-213.263 Y-28.24 Z-1.177
X-213.248 Y-28.264 Z-1.178
X-213.247 Y-28.265
X-212.187 Y-29.325 Z-1.23
X-212.164 Y-29.34 Z-1.231
X-212.136 Y-29.343 Z-1.232
X-212.11 Y-29.334 Z-1.233
X-212.09 Y-29.314 Z-1.234
X-212.081 Y-29.288 Z-1.235
X-212.084 Y-29.26 Z-1.236
X-212.099 Y-29.237 Z-1.237
Y-29.236
X-213.159 Y-28.176 Z-1.29
X-213.183 Y-28.161 Z-1.291
X-213.21 Y-28.158 Z-1.292
X-213.237 Y-28.167 Z-1.293
X-213.257 Y-28.186 Z-1.294
X-213.266 Y-28.213 Z-1.295
X-213.263 Y-28.24 Z-1.296
X-213.248 Y-28.264 Z-1.297
X-213.247 Y-28.265
X-212.187 Y-29.325 Z-1.349
X-212.164 Y-29.34 Z-1.35
X-212.136 Y-29.343 Z-1.351
X-212.11 Y-29.334 Z-1.352
X-212.09 Y-29.314 Z-1.353
X-212.081 Y-29.288 Z-1.354
X-212.084 Y-29.26 Z-1.355
X-212.099 Y-29.237 Z-1.356
Y-29.236
X-213.159 Y-28.176 Z-1.408
X-213.183 Y-28.161 Z-1.409
X-213.21 Y-28.158 Z-1.41
X-213.237 Y-28.167 Z-1.411
X-213.257 Y-28.186 Z-1.412
X-213.266 Y-28.213 Z-1.413
X-213.263 Y-28.24 Z-1.414
X-213.248 Y-28.264 Z-1.415
X-213.247 Y-28.265
X-212.187 Y-29.325 Z-1.467
X-212.164 Y-29.34 Z-1.468
X-212.136 Y-29.343 Z-1.469
X-212.11 Y-29.334 Z-1.47
X-212.09 Y-29.314 Z-1.471
X-212.081 Y-29.288 Z-1.472
X-212.084 Y-29.26 Z-1.473
X-212.099 Y-29.237 Z-1.474
Y-29.236
X-213.159 Y-28.176 Z-1.527
X-213.183 Y-28.161 Z-1.528
X-213.21 Y-28.158 Z-1.529
X-213.237 Y-28.167 Z-1.53
X-213.257 Y-28.186 Z-1.531
X-213.266 Y-28.213 Z-1.532
X-213.263 Y-28.24 Z-1.533
X-213.248 Y-28.264 Z-1.534
X-213.247 Y-28.265
X-212.187 Y-29.325 Z-1.586
X-212.164 Y-29.34 Z-1.587
X-212.136 Y-29.343 Z-1.588
X-212.11 Y-29.334 Z-1.589
X-212.09 Y-29.314 Z-1.59
X-212.081 Y-29.288 Z-1.591
X-212.084 Y-29.26 Z-1.592
X-212.099 Y-29.237 Z-1.593
Y-29.236
X-213.159 Y-28.176 Z-1.645
X-213.183 Y-28.161 Z-1.646
X-213.21 Y-28.158 Z-1.647
X-213.237 Y-28.167 Z-1.648
X-213.257 Y-28.186 Z-1.649
X-213.266 Y-28.213 Z-1.65
X-213.263 Y-28.24 Z-1.651
X-213.248 Y-28.264 Z-1.652
X-213.247 Y-28.265
X-212.187 Y-29.325 Z-1.704
X-212.164 Y-29.34 Z-1.705
X-212.136 Y-29.343 Z-1.706
X-212.11 Y-29.334 Z-1.707
X-212.09 Y-29.314 Z-1.708
X-212.081 Y-29.288 Z-1.709
X-212.084 Y-29.26 Z-1.71
X-212.099 Y-29.237 Z-1.711
Y-29.236
X-213.159 Y-28.176 Z-1.764
X-213.183 Y-28.161 Z-1.765
X-213.21 Y-28.158 Z-1.766
X-213.237 Y-28.167 Z-1.767
X-213.257 Y-28.186 Z-1.768
X-213.266 Y-28.213 Z-1.769
X-213.263 Y-28.24 Z-1.77
X-213.248 Y-28.264 Z-1.771
X-213.247 Y-28.265
X-212.187 Y-29.325 Z-1.823
X-212.164 Y-29.34 Z-1.824
X-212.136 Y-29.343 Z-1.825
X-212.11 Y-29.334 Z-1.826
X-212.09 Y-29.314 Z-1.827
X-212.081 Y-29.288 Z-1.828
X-212.084 Y-29.26 Z-1.829
X-212.099 Y-29.237 Z-1.83
Y-29.236
X-213.159 Y-28.176 Z-1.882
X-213.183 Y-28.161 Z-1.883
X-213.21 Y-28.158 Z-1.884
X-213.237 Y-28.167 Z-1.885
X-213.257 Y-28.186 Z-1.886
X-213.266 Y-28.213 Z-1.887
X-213.263 Y-28.24 Z-1.888
X-213.248 Y-28.264 Z-1.889
X-213.247 Y-28.265
X-212.187 Y-29.325 Z-1.941
X-212.164 Y-29.34 Z-1.942
X-212.136 Y-29.343 Z-1.943
X-212.11 Y-29.334 Z-1.944
X-212.09 Y-29.314 Z-1.945
X-212.081 Y-29.288 Z-1.946
X-212.084 Y-29.26 Z-1.947
X-212.099 Y-29.237 Z-1.948
Y-29.236
X-213.159 Y-28.176 Z-2.001
X-213.183 Y-28.161 Z-2.002
X-213.21 Y-28.158 Z-2.003
X-213.237 Y-28.167 Z-2.004
X-213.257 Y-28.186 Z-2.005
X-213.266 Y-28.213 Z-2.006
X-213.263 Y-28.24 Z-2.007
X-213.248 Y-28.264 Z-2.008
X-213.247 Y-28.265
X-212.187 Y-29.325 Z-2.06
X-212.164 Y-29.34 Z-2.061
X-212.136 Y-29.343 Z-2.062
X-212.11 Y-29.334 Z-2.063
X-212.09 Y-29.314 Z-2.064
X-212.081 Y-29.288 Z-2.065
X-212.084 Y-29.26 Z-2.066
X-212.099 Y-29.237 Z-2.067
Y-29.236
X-213.159 Y-28.176 Z-2.119
X-213.183 Y-28.161 Z-2.12
X-213.21 Y-28.158 Z-2.121
X-213.237 Y-28.167 Z-2.122
X-213.257 Y-28.186 Z-2.123
X-213.266 Y-28.213 Z-2.124
X-213.263 Y-28.24 Z-2.125
X-213.248 Y-28.264 Z-2.126
X-213.247 Y-28.265
X-212.187 Y-29.325 Z-2.178
X-212.164 Y-29.34 Z-2.179
X-212.136 Y-29.343 Z-2.18
X-212.11 Y-29.334 Z-2.181
X-212.09 Y-29.314 Z-2.182
X-212.081 Y-29.288 Z-2.183
X-212.084 Y-29.26 Z-2.184
X-212.099 Y-29.237 Z-2.185
Y-29.236
X-213.159 Y-28.176 Z-2.238
X-213.183 Y-28.161 Z-2.239
X-213.21 Y-28.158 Z-2.24
X-213.237 Y-28.167 Z-2.241
X-213.257 Y-28.186 Z-2.242
X-213.266 Y-28.213 Z-2.243
X-213.263 Y-28.24 Z-2.244
X-213.248 Y-28.264 Z-2.245
X-213.247 Y-28.265
X-212.187 Y-29.325 Z-2.297
X-212.164 Y-29.34 Z-2.298
X-212.136 Y-29.343 Z-2.299
X-212.11 Y-29.334 Z-2.3
X-212.09 Y-29.314 Z-2.301
X-212.081 Y-29.288 Z-2.302
X-212.084 Y-29.26 Z-2.303
X-212.099 Y-29.237 Z-2.304
Y-29.236
X-213.159 Y-28.176 Z-2.356
X-213.183 Y-28.161 Z-2.357
X-213.21 Y-28.158 Z-2.358
X-213.237 Y-28.167 Z-2.359
X-213.257 Y-28.186 Z-2.36
X-213.266 Y-28.213 Z-2.361
X-213.263 Y-28.24 Z-2.362
X-213.248 Y-28.264 Z-2.363
X-213.247 Y-28.265
X-212.187 Y-29.325 Z-2.415
X-212.164 Y-29.34 Z-2.416
X-212.136 Y-29.343 Z-2.417
X-212.11 Y-29.334 Z-2.418
X-212.09 Y-29.314 Z-2.419
X-212.081 Y-29.288 Z-2.42
X-212.084 Y-29.26 Z-2.421
X-212.099 Y-29.237 Z-2.422
Y-29.236
X-213.159 Y-28.176 Z-2.475
X-213.183 Y-28.161 Z-2.476
X-213.21 Y-28.158 Z-2.477
X-213.237 Y-28.167 Z-2.478
X-213.257 Y-28.186 Z-2.479
X-213.266 Y-28.213 Z-2.48
X-213.263 Y-28.24 Z-2.481
X-213.248 Y-28.264 Z-2.482
X-213.247 Y-28.265
X-212.187 Y-29.325 Z-2.534
X-212.164 Y-29.34 Z-2.535
X-212.136 Y-29.343 Z-2.536
X-212.11 Y-29.334 Z-2.537
X-212.09 Y-29.314 Z-2.538
X-212.081 Y-29.288 Z-2.539
X-212.084 Y-29.26 Z-2.54
X-212.099 Y-29.237 Z-2.541
Y-29.236
X-213.159 Y-28.176 Z-2.593
X-213.183 Y-28.161 Z-2.594
X-213.21 Y-28.158 Z-2.595
X-213.237 Y-28.167 Z-2.596
X-213.257 Y-28.186 Z-2.597
X-213.266 Y-28.213 Z-2.598
X-213.263 Y-28.24 Z-2.599
X-213.248 Y-28.264 Z-2.6
X-213.247 Y-28.265
X-212.187 Y-29.325 Z-2.653
X-212.164 Y-29.34
X-212.136 Y-29.343 Z-2.654
X-212.11 Y-29.334 Z-2.655
X-212.09 Y-29.314 Z-2.656
X-212.081 Y-29.288 Z-2.657
X-212.084 Y-29.26 Z-2.658
X-212.099 Y-29.237 Z-2.659
Y-29.236
X-213.159 Y-28.176 Z-2.712
X-213.183 Y-28.161 Z-2.713
X-213.21 Y-28.158 Z-2.714
X-213.237 Y-28.167 Z-2.715
X-213.257 Y-28.186 Z-2.716
X-213.266 Y-28.213 Z-2.717
X-213.263 Y-28.24 Z-2.718
X-213.248 Y-28.264 Z-2.719
X-213.247 Y-28.265
X-212.187 Y-29.325 Z-2.771
X-212.164 Y-29.34 Z-2.772
X-212.136 Y-29.343 Z-2.773
X-212.11 Y-29.334 Z-2.774
X-212.09 Y-29.314 Z-2.775
X-212.081 Y-29.288 Z-2.776
X-212.084 Y-29.26 Z-2.777
X-212.099 Y-29.237 Z-2.778
Y-29.236
X-213.159 Y-28.176 Z-2.83
X-213.183 Y-28.161 Z-2.831
X-213.21 Y-28.158 Z-2.832
X-213.237 Y-28.167 Z-2.833
X-213.257 Y-28.186 Z-2.834
X-213.266 Y-28.213 Z-2.835
X-213.263 Y-28.24 Z-2.836
X-213.248 Y-28.264 Z-2.837
X-213.247 Y-28.265
X-212.187 Y-29.325 Z-2.89
X-212.164 Y-29.34 Z-2.891
X-212.136 Y-29.343
X-212.11 Y-29.334 Z-2.892
X-212.09 Y-29.314 Z-2.893
X-212.081 Y-29.288 Z-2.894
X-212.084 Y-29.26 Z-2.895
X-212.099 Y-29.237 Z-2.896
Y-29.236
X-213.159 Y-28.176 Z-2.949
X-213.183 Y-28.161 Z-2.95
X-213.21 Y-28.158 Z-2.951
X-213.237 Y-28.167 Z-2.952
X-213.257 Y-28.186 Z-2.953
X-213.266 Y-28.213 Z-2.954
X-213.263 Y-28.24 Z-2.955
X-213.248 Y-28.264 Z-2.956
X-213.247 Y-28.265
X-212.187 Y-29.325 Z-3.008
X-212.164 Y-29.34 Z-3.009
X-212.136 Y-29.343 Z-3.01
X-212.11 Y-29.334 Z-3.011
X-212.09 Y-29.314 Z-3.012
X-212.081 Y-29.288 Z-3.013
X-212.084 Y-29.26 Z-3.014
X-212.099 Y-29.237 Z-3.015
Y-29.236
X-213.159 Y-28.176 Z-3.067
X-213.183 Y-28.161 Z-3.068
X-213.21 Y-28.158 Z-3.069
X-213.237 Y-28.167 Z-3.07
X-213.257 Y-28.186 Z-3.071
X-213.266 Y-28.213 Z-3.072
X-213.263 Y-28.24 Z-3.073
X-213.248 Y-28.264 Z-3.074
X-213.247 Y-28.265
X-212.187 Y-29.325 Z-3.127
X-212.164 Y-29.34 Z-3.128
X-212.136 Y-29.343 Z-3.129
X-212.11 Y-29.334
X-212.09 Y-29.314 Z-3.13
X-212.081 Y-29.288 Z-3.131
X-212.084 Y-29.26 Z-3.132
X-212.099 Y-29.237 Z-3.133
Y-29.236
X-213.159 Y-28.176 Z-3.186
X-213.183 Y-28.161 Z-3.187
X-213.21 Y-28.158 Z-3.188
X-213.237 Y-28.167 Z-3.189
X-213.257 Y-28.186 Z-3.19
X-213.266 Y-28.213 Z-3.191
X-213.263 Y-28.24 Z-3.192
X-213.248 Y-28.264 Z-3.193
X-213.247 Y-28.265
X-212.187 Y-29.325 Z-3.245
X-212.164 Y-29.34 Z-3.246
X-212.136 Y-29.343 Z-3.247
X-212.11 Y-29.334 Z-3.248
X-212.09 Y-29.314 Z-3.249
X-212.081 Y-29.288 Z-3.25
X-212.084 Y-29.26 Z-3.251
X-212.099 Y-29.237 Z-3.252
Y-29.236
X-213.159 Y-28.176 Z-3.304
X-213.183 Y-28.161 Z-3.305
X-213.21 Y-28.158 Z-3.306
X-213.237 Y-28.167 Z-3.307
X-213.257 Y-28.186 Z-3.308
X-213.266 Y-28.213 Z-3.309
X-213.263 Y-28.24 Z-3.31
X-213.248 Y-28.264 Z-3.311
X-213.247 Y-28.265
X-212.187 Y-29.325 Z-3.364
X-212.164 Y-29.34 Z-3.365
X-212.136 Y-29.343 Z-3.366
X-212.11 Y-29.334 Z-3.367
X-212.09 Y-29.314
X-212.081 Y-29.288 Z-3.368
X-212.084 Y-29.26 Z-3.369
X-212.099 Y-29.237 Z-3.37
Y-29.236
X-213.159 Y-28.176 Z-3.423
X-213.183 Y-28.161 Z-3.424
X-213.21 Y-28.158 Z-3.425
X-213.237 Y-28.167 Z-3.426
X-213.257 Y-28.186 Z-3.427
X-213.266 Y-28.213 Z-3.428
X-213.263 Y-28.24 Z-3.429
X-213.248 Y-28.264 Z-3.43
X-213.247 Y-28.265
X-212.187 Y-29.325 Z-3.482
X-212.164 Y-29.34 Z-3.483
X-212.136 Y-29.343 Z-3.484
X-212.11 Y-29.334 Z-3.485
X-212.09 Y-29.314 Z-3.486
X-212.081 Y-29.288 Z-3.487
X-212.084 Y-29.26 Z-3.488
X-212.099 Y-29.237 Z-3.489
Y-29.236
X-213.159 Y-28.176 Z-3.541
X-213.183 Y-28.161 Z-3.542
X-213.21 Y-28.158 Z-3.543
X-213.237 Y-28.167 Z-3.544
X-213.257 Y-28.186 Z-3.545
X-213.266 Y-28.213 Z-3.546
X-213.263 Y-28.24 Z-3.547
X-213.248 Y-28.264 Z-3.548
X-213.247 Y-28.265
X-212.187 Y-29.325 Z-3.601
X-212.164 Y-29.34 Z-3.602
X-212.136 Y-29.343 Z-3.603
X-212.11 Y-29.334 Z-3.604
X-212.09 Y-29.314 Z-3.605
X-212.081 Y-29.288
X-212.084 Y-29.26 Z-3.606
X-212.099 Y-29.237 Z-3.607
Y-29.236
X-213.159 Y-28.176 Z-3.66
X-213.183 Y-28.161 Z-3.661
X-213.21 Y-28.158 Z-3.662
X-213.237 Y-28.167 Z-3.663
X-213.257 Y-28.186 Z-3.664
X-213.266 Y-28.213 Z-3.665
X-213.263 Y-28.24 Z-3.666
X-213.248 Y-28.264 Z-3.667
X-213.247 Y-28.265
X-212.187 Y-29.325 Z-3.719
X-212.164 Y-29.34 Z-3.72
X-212.136 Y-29.343 Z-3.721
X-212.11 Y-29.334 Z-3.722
X-212.09 Y-29.314 Z-3.723
X-212.081 Y-29.288 Z-3.724
X-212.084 Y-29.26 Z-3.725
X-212.099 Y-29.237 Z-3.726
Y-29.236
X-213.159 Y-28.176 Z-3.778
X-213.183 Y-28.161 Z-3.779
X-213.21 Y-28.158 Z-3.78
X-213.237 Y-28.167 Z-3.781
X-213.257 Y-28.186 Z-3.782
X-213.266 Y-28.213 Z-3.783
X-213.263 Y-28.24 Z-3.784
X-213.248 Y-28.264 Z-3.785
X-213.247 Y-28.265
X-212.187 Y-29.325 Z-3.838
X-212.164 Y-29.34 Z-3.839
X-212.136 Y-29.343 Z-3.84
X-212.11 Y-29.334 Z-3.841
X-212.09 Y-29.314 Z-3.842
X-212.081 Y-29.288 Z-3.843
X-212.084 Y-29.26
X-212.099 Y-29.237 Z-3.844
Y-29.236
X-213.159 Y-28.176 Z-3.897
X-213.183 Y-28.161 Z-3.898
X-213.21 Y-28.158 Z-3.899
X-213.237 Y-28.167 Z-3.9
X-213.257 Y-28.186 Z-3.901
X-213.266 Y-28.213 Z-3.902
X-213.263 Y-28.24 Z-3.903
X-213.248 Y-28.264 Z-3.904
X-213.247 Y-28.265
X-212.187 Y-29.325 Z-3.956
X-212.164 Y-29.34 Z-3.957
X-212.136 Y-29.343 Z-3.958
X-212.11 Y-29.334 Z-3.959
X-212.09 Y-29.314 Z-3.96
X-212.081 Y-29.288 Z-3.961
X-212.084 Y-29.26 Z-3.962
X-212.099 Y-29.237 Z-3.963
Y-29.236
X-213.159 Y-28.176 Z-4.015
X-213.183 Y-28.161 Z-4.016
X-213.21 Y-28.158 Z-4.017
X-213.237 Y-28.167 Z-4.018
X-213.257 Y-28.186 Z-4.019
X-213.266 Y-28.213 Z-4.02
X-213.263 Y-28.24 Z-4.021
X-213.248 Y-28.264 Z-4.022
X-213.247 Y-28.265
X-212.187 Y-29.325 Z-4.075
X-212.164 Y-29.34 Z-4.076
X-212.136 Y-29.343 Z-4.077
X-212.11 Y-29.334 Z-4.078
X-212.09 Y-29.314 Z-4.079
X-212.081 Y-29.288 Z-4.08
X-212.084 Y-29.26 Z-4.081
X-212.099 Y-29.237
Y-29.236
X-213.159 Y-28.176 Z-4.134
X-213.183 Y-28.161 Z-4.135
X-213.21 Y-28.158 Z-4.136
X-213.237 Y-28.167 Z-4.137
X-213.257 Y-28.186 Z-4.138
X-213.266 Y-28.213 Z-4.139
X-213.263 Y-28.24 Z-4.14
X-213.248 Y-28.264 Z-4.141
X-213.247 Y-28.265
X-212.187 Y-29.325 Z-4.193
X-212.164 Y-29.34 Z-4.194
X-212.136 Y-29.343 Z-4.195
X-212.11 Y-29.334 Z-4.196
X-212.09 Y-29.314 Z-4.197
X-212.081 Y-29.288 Z-4.198
X-212.084 Y-29.26 Z-4.199
X-212.099 Y-29.237 Z-4.2
Y-29.236
S6000
X-213.159 Y-28.176 F1000
X-213.183 Y-28.161
X-213.21 Y-28.158
X-213.237 Y-28.167
X-213.257 Y-28.186
X-213.266 Y-28.213
X-213.263 Y-28.24
X-213.248 Y-28.264
X-213.247 Y-28.265
X-212.187 Y-29.325
X-212.164 Y-29.34
X-212.136 Y-29.343
X-212.11 Y-29.334
X-212.09 Y-29.314
X-212.081 Y-29.288
X-212.084 Y-29.26
X-212.099 Y-29.237
Y-29.236
G0 Z5
X-199.862 Y-28.226
G1 Z1 F333.3
S5000
X-200.873 Y-29.236 Z0.95
X-200.888 Y-29.26 Z0.949
X-200.891 Y-29.288 Z0.948
X-200.882 Y-29.314 Z0.947
X-200.862 Y-29.333 Z0.946
X-200.836 Y-29.342 Z0.945
X-200.809 Y-29.339 Z0.944
X-200.785 Y-29.325 Z0.943
X-199.725 Y-28.264 Z0.891
X-199.71 Y-28.241 Z0.89
X-199.707 Y-28.213 Z0.889
X-199.716 Y-28.187 Z0.888
X-199.736 Y-28.168 Z0.887
X-199.762 Y-28.158 Z0.886
X-199.789 Y-28.161 Z0.885
X-199.813 Y-28.176 Z0.884
X-200.873 Y-29.236 Z0.832
X-200.888 Y-29.26 Z0.831
X-200.891 Y-29.288 Z0.83
X-200.882 Y-29.314 Z0.829
X-200.862 Y-29.333 Z0.828
X-200.836 Y-29.342 Z0.827
X-200.809 Y-29.339 Z0.826
X-200.785 Y-29.325 Z0.825
X-199.725 Y-28.264 Z0.772
X-199.71 Y-28.241
X-199.707 Y-28.213 Z0.771
X-199.716 Y-28.187 Z0.77
X-199.736 Y-28.168 Z0.769
X-199.762 Y-28.158 Z0.768
X-199.789 Y-28.161 Z0.767
X-199.813 Y-28.176 Z0.766
X-200.873 Y-29.236 Z0.713
X-200.888 Y-29.26 Z0.712
X-200.891 Y-29.288 Z0.711
X-200.882 Y-29.314 Z0.71
X-200.862 Y-29.333 Z0.709
X-200.836 Y-29.342 Z0.708
X-200.809 Y-29.339 Z0.707
X-200.785 Y-29.325 Z0.706
X-199.725 Y-28.264 Z0.654
X-199.71 Y-28.241 Z0.653
X-199.707 Y-28.213 Z0.652
X-199.716 Y-28.187 Z0.651
X-199.736 Y-28.168 Z0.65
X-199.762 Y-28.158 Z0.649
X-199.789 Y-28.161 Z0.648
X-199.813 Y-28.176 Z0.647
X-200.873 Y-29.236 Z0.595
X-200.888 Y-29.26 Z0.594
X-200.891 Y-29.288 Z0.593
X-200.882 Y-29.314 Z0.592
X-200.862 Y-29.333 Z0.591
X-200.836 Y-29.342 Z0.59
X-200.809 Y-29.339 Z0.589
X-200.785 Y-29.325 Z0.588
X-199.725 Y-28.264 Z0.536
X-199.71 Y-28.241 Z0.535
X-199.707 Y-28.213 Z0.534
X-199.716 Y-28.187 Z0.533
X-199.736 Y-28.168 Z0.532
X-199.762 Y-28.158 Z0.531
X-199.789 Y-28.161 Z0.53
X-199.813 Y-28.176 Z0.529
X-200.873 Y-29.236 Z0.477
X-200.888 Y-29.26 Z0.476
X-200.891 Y-29.288 Z0.475
X-200.882 Y-29.314 Z0.474
X-200.862 Y-29.333 Z0.473
X-200.836 Y-29.342 Z0.472
X-200.809 Y-29.339 Z0.471
X-200.785 Y-29.325 Z0.47
X-199.725 Y-28.264 Z0.417
X-199.71 Y-28.241 Z0.416
X-199.707 Y-28.213 Z0.415
X-199.716 Y-28.187 Z0.414
X-199.736 Y-28.168 Z0.413
X-199.762 Y-28.158 Z0.412
X-199.789 Y-28.161 Z0.411
X-199.813 Y-28.176 Z0.41
X-200.873 Y-29.236 Z0.358
X-200.888 Y-29.26 Z0.357
X-200.891 Y-29.288 Z0.356
X-200.882 Y-29.314 Z0.355
X-200.862 Y-29.333 Z0.354
X-200.836 Y-29.342 Z0.353
X-200.809 Y-29.339 Z0.352
X-200.785 Y-29.325 Z0.351
X-199.725 Y-28.264 Z0.299
X-199.71 Y-28.241 Z0.298
X-199.707 Y-28.213 Z0.297
X-199.716 Y-28.187 Z0.296
X-199.736 Y-28.168 Z0.295
X-199.762 Y-28.158 Z0.294
X-199.789 Y-28.161 Z0.293
X-199.813 Y-28.176 Z0.292
X-200.873 Y-29.236 Z0.24
X-200.888 Y-29.26 Z0.239
X-200.891 Y-29.288 Z0.238
X-200.882 Y-29.314 Z0.237
X-200.862 Y-29.333 Z0.236
X-200.836 Y-29.342 Z0.235
X-200.809 Y-29.339 Z0.234
X-200.785 Y-29.325 Z0.233
X-199.725 Y-28.264 Z0.181
X-199.71 Y-28.241 Z0.18
X-199.707 Y-28.213 Z0.179
X-199.716 Y-28.187 Z0.178
X-199.736 Y-28.168 Z0.177
X-199.762 Y-28.158 Z0.176
X-199.789 Y-28.161 Z0.175
X-199.813 Y-28.176 Z0.174
X-200.873 Y-29.236 Z0.121
X-200.888 Y-29.26 Z0.12
X-200.891 Y-29.288 Z0.119
X-200.882 Y-29.314 Z0.118
X-200.862 Y-29.333 Z0.117
X-200.836 Y-29.342 Z0.116
X-200.809 Y-29.339 Z0.115
X-200.785 Y-29.325
X-199.725 Y-28.264 Z0.062
X-199.71 Y-28.241 Z0.061
X-199.707 Y-28.213 Z0.06
X-199.716 Y-28.187 Z0.059
X-199.736 Y-28.168 Z0.058
X-199.762 Y-28.158 Z0.057
X-199.789 Y-28.161 Z0.056
X-199.813 Y-28.176 Z0.055
X-200.873 Y-29.236 Z0.003
X-200.888 Y-29.26 Z0.002
X-200.891 Y-29.288 Z0.001
X-200.882 Y-29.314 Z0
X-200.862 Y-29.333 Z-0.001
X-200.836 Y-29.342 Z-0.002
X-200.809 Y-29.339 Z-0.003
X-200.785 Y-29.325 Z-0.004
X-199.725 Y-28.264 Z-0.056
X-199.71 Y-28.241 Z-0.057
X-199.707 Y-28.213 Z-0.058
X-199.716 Y-28.187 Z-0.059
X-199.736 Y-28.168 Z-0.06
X-199.762 Y-28.158 Z-0.061
X-199.789 Y-28.161 Z-0.062
X-199.813 Y-28.176 Z-0.063
X-200.873 Y-29.236 Z-0.115
X-200.888 Y-29.26 Z-0.116
X-200.891 Y-29.288 Z-0.117
X-200.882 Y-29.314 Z-0.118
X-200.862 Y-29.333 Z-0.119
X-200.836 Y-29.342 Z-0.12
X-200.809 Y-29.339 Z-0.121
X-200.785 Y-29.325 Z-0.122
X-199.725 Y-28.264 Z-0.175
X-199.71 Y-28.241 Z-0.176
X-199.707 Y-28.213 Z-0.177
X-199.716 Y-28.187 Z-0.178
X-199.736 Y-28.168 Z-0.179
X-199.762 Y-28.158 Z-0.18
X-199.789 Y-28.161 Z-0.181
X-199.813 Y-28.176
X-200.873 Y-29.236 Z-0.234
X-200.888 Y-29.26 Z-0.235
X-200.891 Y-29.288 Z-0.236
X-200.882 Y-29.314 Z-0.237
X-200.862 Y-29.333 Z-0.238
X-200.836 Y-29.342 Z-0.239
X-200.809 Y-29.339 Z-0.24
X-200.785 Y-29.325 Z-0.241
X-199.725 Y-28.264 Z-0.293
X-199.71 Y-28.241 Z-0.294
X-199.707 Y-28.213 Z-0.295
X-199.716 Y-28.187 Z-0.296
X-199.736 Y-28.168 Z-0.297
X-199.762 Y-28.158 Z-0.298
X-199.789 Y-28.161 Z-0.299
X-199.813 Y-28.176 Z-0.3
X-200.873 Y-29.236 Z-0.352
X-200.888 Y-29.26 Z-0.353
X-200.891 Y-29.288 Z-0.354
X-200.882 Y-29.314 Z-0.355
X-200.862 Y-29.333 Z-0.356
X-200.836 Y-29.342 Z-0.357
X-200.809 Y-29.339 Z-0.358
X-200.785 Y-29.325 Z-0.359
X-199.725 Y-28.264 Z-0.411
X-199.71 Y-28.241 Z-0.412
X-199.707 Y-28.213 Z-0.413
X-199.716 Y-28.187 Z-0.414
X-199.736 Y-28.168 Z-0.415
X-199.762 Y-28.158 Z-0.416
X-199.789 Y-28.161 Z-0.417
X-199.813 Y-28.176 Z-0.418
X-200.873 Y-29.236 Z-0.471
X-200.888 Y-29.26 Z-0.472
X-200.891 Y-29.288 Z-0.473
X-200.882 Y-29.314 Z-0.474
X-200.862 Y-29.333 Z-0.475
X-200.836 Y-29.342 Z-0.476
X-200.809 Y-29.339
X-200.785 Y-29.325 Z-0.477
X-199.725 Y-28.264 Z-0.53
X-199.71 Y-28.241 Z-0.531
X-199.707 Y-28.213 Z-0.532
X-199.716 Y-28.187 Z-0.533
X-199.736 Y-28.168 Z-0.534
X-199.762 Y-28.158 Z-0.535
X-199.789 Y-28.161 Z-0.536
X-199.813 Y-28.176 Z-0.537
X-200.873 Y-29.236 Z-0.589
X-200.888 Y-29.26 Z-0.59
X-200.891 Y-29.288 Z-0.591
X-200.882 Y-29.314 Z-0.592
X-200.862 Y-29.333 Z-0.593
X-200.836 Y-29.342 Z-0.594
X-200.809 Y-29.339 Z-0.595
X-200.785 Y-29.325 Z-0.596
X-199.725 Y-28.264 Z-0.648
X-199.71 Y-28.241 Z-0.649
X-199.707 Y-28.213 Z-0.65
X-199.716 Y-28.187 Z-0.651
X-199.736 Y-28.168 Z-0.652
X-199.762 Y-28.158 Z-0.653
X-199.789 Y-28.161 Z-0.654
X-199.813 Y-28.176 Z-0.655
X-200.873 Y-29.236 Z-0.707
X-200.888 Y-29.26 Z-0.708
X-200.891 Y-29.288 Z-0.709
X-200.882 Y-29.314 Z-0.71
X-200.862 Y-29.333 Z-0.711
X-200.836 Y-29.342 Z-0.712
X-200.809 Y-29.339 Z-0.713
X-200.785 Y-29.325 Z-0.714
X-199.725 Y-28.264 Z-0.767
X-199.71 Y-28.241 Z-0.768
X-199.707 Y-28.213 Z-0.769
X-199.716 Y-28.187 Z-0.77
X-199.736 Y-28.168 Z-0.771
X-199.762 Y-28.158
X-199.789 Y-28.161 Z-0.772
X-199.813 Y-28.176 Z-0.773
X-200.873 Y-29.236 Z-0.826
X-200.888 Y-29.26 Z-0.827
X-200.891 Y-29.288 Z-0.828
X-200.882 Y-29.314 Z-0.829
X-200.862 Y-29.333 Z-0.83
X-200.836 Y-29.342 Z-0.831
X-200.809 Y-29.339 Z-0.832
X-200.785 Y-29.325 Z-0.833
X-199.725 Y-28.264 Z-0.885
X-199.71 Y-28.241 Z-0.886
X-199.707 Y-28.213 Z-0.887
X-199.716 Y-28.187 Z-0.888
X-199.736 Y-28.168 Z-0.889
X-199.762 Y-28.158 Z-0.89
X-199.789 Y-28.161 Z-0.891
X-199.813 Y-28.176 Z-0.892
X-200.873 Y-29.236 Z-0.944
X-200.888 Y-29.26 Z-0.945
X-200.891 Y-29.288 Z-0.946
X-200.882 Y-29.314 Z-0.947
X-200.862 Y-29.333 Z-0.948
X-200.836 Y-29.342 Z-0.949
X-200.809 Y-29.339 Z-0.95
X-200.785 Y-29.325 Z-0.951
X-199.725 Y-28.264 Z-1.003
X-199.71 Y-28.241 Z-1.004
X-199.707 Y-28.213 Z-1.005
X-199.716 Y-28.187 Z-1.006
X-199.736 Y-28.168 Z-1.007
X-199.762 Y-28.158 Z-1.008
X-199.789 Y-28.161 Z-1.009
X-199.813 Y-28.176 Z-1.01
X-200.873 Y-29.236 Z-1.063
X-200.888 Y-29.26 Z-1.064
X-200.891 Y-29.288 Z-1.065
X-200.882 Y-29.314 Z-1.066
X-200.862 Y-29.333
X-200.836 Y-29.342 Z-1.067
X-200.809 Y-29.339 Z-1.068
X-200.785 Y-29.325 Z-1.069
X-199.725 Y-28.264 Z-1.122
X-199.71 Y-28.241 Z-1.123
X-199.707 Y-28.213 Z-1.124
X-199.716 Y-28.187 Z-1.125
X-199.736 Y-28.168 Z-1.126
X-199.762 Y-28.158 Z-1.127
X-199.789 Y-28.161 Z-1.128
X-199.813 Y-28.176 Z-1.129
X-200.873 Y-29.236 Z-1.181
X-200.888 Y-29.26 Z-1.182
X-200.891 Y-29.288 Z-1.183
X-200.882 Y-29.314 Z-1.184
X-200.862 Y-29.333 Z-1.185
X-200.836 Y-29.342 Z-1.186
X-200.809 Y-29.339 Z-1.187
X-200.785 Y-29.325 Z-1.188
X-199.725 Y-28.264 Z-1.24
X-199.71 Y-28.241 Z-1.241
X-199.707 Y-28.213 Z-1.242
X-199.716 Y-28.187 Z-1.243
X-199.736 Y-28.168 Z-1.244
X-199.762 Y-28.158 Z-1.245
X-199.789 Y-28.161 Z-1.246
X-199.813 Y-28.176 Z-1.247
X-200.873 Y-29.236 Z-1.299
X-200.888 Y-29.26 Z-1.3
X-200.891 Y-29.288 Z-1.301
X-200.882 Y-29.314 Z-1.302
X-200.862 Y-29.333 Z-1.303
X-200.836 Y-29.342 Z-1.304
X-200.809 Y-29.339 Z-1.305
X-200.785 Y-29.325 Z-1.306
X-199.725 Y-28.264 Z-1.359
X-199.71 Y-28.241 Z-1.36
X-199.707 Y-28.213 Z-1.361
X-199.716 Y-28.187 Z-1.362
X-199.736 Y-28.168
X-199.762 Y-28.158 Z-1.363
X-199.789 Y-28.161 Z-1.364
X-199.813 Y-28.176 Z-1.365
X-200.873 Y-29.236 Z-1.418
X-200.888 Y-29.26 Z-1.419
X-200.891 Y-29.288 Z-1.42
X-200.882 Y-29.314 Z-1.421
X-200.862 Y-29.333 Z-1.422
X-200.836 Y-29.342 Z-1.423
X-200.809 Y-29.339 Z-1.424
X-200.785 Y-29.325 Z-1.425
X-199.725 Y-28.264 Z-1.477
X-199.71 Y-28.241 Z-1.478
X-199.707 Y-28.213 Z-1.479
X-199.716 Y-28.187 Z-1.48
X-199.736 Y-28.168 Z-1.481
X-199.762 Y-28.158 Z-1.482
X-199.789 Y-28.161 Z-1.483
X-199.813 Y-28.176 Z-1.484
X-200.873 Y-29.236 Z-1.536
X-200.888 Y-29.26 Z-1.537
X-200.891 Y-29.288 Z-1.538
X-200.882 Y-29.314 Z-1.539
X-200.862 Y-29.333 Z-1.54
X-200.836 Y-29.342 Z-1.541
X-200.809 Y-29.339 Z-1.542
X-200.785 Y-29.325 Z-1.543
X-199.725 Y-28.264 Z-1.595
X-199.71 Y-28.241 Z-1.596
X-199.707 Y-28.213 Z-1.597
X-199.716 Y-28.187 Z-1.598
X-199.736 Y-28.168 Z-1.599
X-199.762 Y-28.158 Z-1.6
X-199.789 Y-28.161 Z-1.601
X-199.813 Y-28.176 Z-1.602
X-200.873 Y-29.236 Z-1.655
X-200.888 Y-29.26 Z-1.656
X-200.891 Y-29.288 Z-1.657
X-200.882 Y-29.314
X-200.862 Y-29.333 Z-1.658
X-200.836 Y-29.342 Z-1.659
X-200.809 Y-29.339 Z-1.66
X-200.785 Y-29.325 Z-1.661
X-199.725 Y-28.264 Z-1.714
X-199.71 Y-28.241 Z-1.715
X-199.707 Y-28.213 Z-1.716
X-199.716 Y-28.187 Z-1.717
X-199.736 Y-28.168 Z-1.718
X-199.762 Y-28.158 Z-1.719
X-199.789 Y-28.161 Z-1.72
X-199.813 Y-28.176 Z-1.721
X-200.873 Y-29.236 Z-1.773
X-200.888 Y-29.26 Z-1.774
X-200.891 Y-29.288 Z-1.775
X-200.882 Y-29.314 Z-1.776
X-200.862 Y-29.333 Z-1.777
X-200.836 Y-29.342 Z-1.778
X-200.809 Y-29.339 Z-1.779
X-200.785 Y-29.325 Z-1.78
X-199.725 Y-28.264 Z-1.832
X-199.71 Y-28.241 Z-1.833
X-199.707 Y-28.213 Z-1.834
X-199.716 Y-28.187 Z-1.835
X-199.736 Y-28.168 Z-1.836
X-199.762 Y-28.158 Z-1.837
X-199.789 Y-28.161 Z-1.838
X-199.813 Y-28.176 Z-1.839
X-200.873 Y-29.236 Z-1.891
X-200.888 Y-29.26 Z-1.892
X-200.891 Y-29.288 Z-1.893
X-200.882 Y-29.314 Z-1.894
X-200.862 Y-29.333 Z-1.895
X-200.836 Y-29.342 Z-1.896
X-200.809 Y-29.339 Z-1.897
X-200.785 Y-29.325 Z-1.898
X-199.725 Y-28.264 Z-1.951
X-199.71 Y-28.241 Z-1.952
X-199.707 Y-28.213
X-199.716 Y-28.187 Z-1.953
X-199.736 Y-28.168 Z-1.954
X-199.762 Y-28.158 Z-1.955
X-199.789 Y-28.161 Z-1.956
X-199.813 Y-28.176 Z-1.957
X-200.873 Y-29.236 Z-2.01
X-200.888 Y-29.26 Z-2.011
X-200.891 Y-29.288 Z-2.012
X-200.882 Y-29.314 Z-2.013
X-200.862 Y-29.333 Z-2.014
X-200.836 Y-29.342 Z-2.015
X-200.809 Y-29.339 Z-2.016
X-200.785 Y-29.325 Z-2.017
X-199.725 Y-28.264 Z-2.069
X-199.71 Y-28.241 Z-2.07
X-199.707 Y-28.213 Z-2.071
X-199.716 Y-28.187 Z-2.072
X-199.736 Y-28.168 Z-2.073
X-199.762 Y-28.158 Z-2.074
X-199.789 Y-28.161 Z-2.075
X-199.813 Y-28.176 Z-2.076
X-200.873 Y-29.236 Z-2.128
X-200.888 Y-29.26 Z-2.129
X-200.891 Y-29.288 Z-2.13
X-200.882 Y-29.314 Z-2.131
X-200.862 Y-29.333 Z-2.132
X-200.836 Y-29.342 Z-2.133
X-200.809 Y-29.339 Z-2.134
X-200.785 Y-29.325 Z-2.135
X-199.725 Y-28.264 Z-2.187
X-199.71 Y-28.241 Z-2.188
X-199.707 Y-28.213 Z-2.189
X-199.716 Y-28.187 Z-2.19
X-199.736 Y-28.168 Z-2.191
X-199.762 Y-28.158 Z-2.192
X-199.789 Y-28.161 Z-2.193
X-199.813 Y-28.176 Z-2.194
X-200.873 Y-29.236 Z-2.247
X-200.888 Y-29.26 Z-2.248
X-200.891 Y-29.288
X-200.882 Y-29.314 Z-2.249
X-200.862 Y-29.333 Z-2.25
X-200.836 Y-29.342 Z-2.251
X-200.809 Y-29.339 Z-2.252
X-200.785 Y-29.325 Z-2.253
X-199.725 Y-28.264 Z-2.306
X-199.71 Y-28.241 Z-2.307
X-199.707 Y-28.213 Z-2.308
X-199.716 Y-28.187 Z-2.309
X-199.736 Y-28.168 Z-2.31
X-199.762 Y-28.158 Z-2.311
X-199.789 Y-28.161 Z-2.312
X-199.813 Y-28.176 Z-2.313
X-200.873 Y-29.236 Z-2.365
X-200.888 Y-29.26 Z-2.366
X-200.891 Y-29.288 Z-2.367
X-200.882 Y-29.314 Z-2.368
X-200.862 Y-29.333 Z-2.369
X-200.836 Y-29.342 Z-2.37
X-200.809 Y-29.339 Z-2.371
X-200.785 Y-29.325 Z-2.372
X-199.725 Y-28.264 Z-2.424
X-199.71 Y-28.241 Z-2.425
X-199.707 Y-28.213 Z-2.426
X-199.716 Y-28.187 Z-2.427
X-199.736 Y-28.168 Z-2.428
X-199.762 Y-28.158 Z-2.429
X-199.789 Y-28.161 Z-2.43
X-199.813 Y-28.176 Z-2.431
X-200.873 Y-29.236 Z-2.483
X-200.888 Y-29.26 Z-2.484
X-200.891 Y-29.288 Z-2.485
X-200.882 Y-29.314 Z-2.486
X-200.862 Y-29.333 Z-2.487
X-200.836 Y-29.342 Z-2.488
X-200.809 Y-29.339 Z-2.489
X-200.785 Y-29.325 Z-2.49
X-199.725 Y-28.264 Z-2.543
X-199.71 Y-28.241
X-199.707 Y-28.213 Z-2.544
X-199.716 Y-28.187 Z-2.545
X-199.736 Y-28.168 Z-2.546
X-199.762 Y-28.158 Z-2.547
X-199.789 Y-28.161 Z-2.548
X-199.813 Y-28.176 Z-2.549
X-200.873 Y-29.236 Z-2.602
X-200.888 Y-29.26 Z-2.603
X-200.891 Y-29.288 Z-2.604
X-200.882 Y-29.314 Z-2.605
X-200.862 Y-29.333 Z-2.606
X-200.836 Y-29.342 Z-2.607
X-200.809 Y-29.339 Z-2.608
X-200.785 Y-29.325 Z-2.609
X-199.725 Y-28.264 Z-2.661
X-199.71 Y-28.241 Z-2.662
X-199.707 Y-28.213 Z-2.663
X-199.716 Y-28.187 Z-2.664
X-199.736 Y-28.168 Z-2.665
X-199.762 Y-28.158 Z-2.666
X-199.789 Y-28.161 Z-2.667
X-199.813 Y-28.176 Z-2.668
X-200.873 Y-29.236 Z-2.72
X-200.888 Y-29.26 Z-2.721
X-200.891 Y-29.288 Z-2.722
X-200.882 Y-29.314 Z-2.723
X-200.862 Y-29.333 Z-2.724
X-200.836 Y-29.342 Z-2.725
X-200.809 Y-29.339 Z-2.726
X-200.785 Y-29.325 Z-2.727
X-199.725 Y-28.264 Z-2.779
X-199.71 Y-28.241 Z-2.78
X-199.707 Y-28.213 Z-2.781
X-199.716 Y-28.187 Z-2.782
X-199.736 Y-28.168 Z-2.783
X-199.762 Y-28.158 Z-2.784
X-199.789 Y-28.161 Z-2.785
X-199.813 Y-28.176 Z-2.786
X-200.873 Y-29.236 Z-2.838
X-200.888 Y-29.26 Z-2.839
X-200.891 Y-29.288 Z-2.84
X-200.882 Y-29.314 Z-2.841
X-200.862 Y-29.333 Z-2.842
X-200.836 Y-29.342 Z-2.843
X-200.809 Y-29.339 Z-2.844
X-200.785 Y-29.325 Z-2.845
X-199.725 Y-28.264 Z-2.898
X-199.71 Y-28.241 Z-2.899
X-199.707 Y-28.213 Z-2.9
X-199.716 Y-28.187 Z-2.901
X-199.736 Y-28.168 Z-2.902
X-199.762 Y-28.158 Z-2.903
X-199.789 Y-28.161 Z-2.904
X-199.813 Y-28.176 Z-2.905
X-200.873 Y-29.236 Z-2.957
X-200.888 Y-29.26 Z-2.958
X-200.891 Y-29.288 Z-2.959
X-200.882 Y-29.314 Z-2.96
X-200.862 Y-29.333 Z-2.961
X-200.836 Y-29.342 Z-2.962
X-200.809 Y-29.339 Z-2.963
X-200.785 Y-29.325 Z-2.964
X-199.725 Y-28.264 Z-3.016
X-199.71 Y-28.241 Z-3.017
X-199.707 Y-28.213 Z-3.018
X-199.716 Y-28.187 Z-3.019
X-199.736 Y-28.168 Z-3.02
X-199.762 Y-28.158 Z-3.021
X-199.789 Y-28.161 Z-3.022
X-199.813 Y-28.176 Z-3.023
X-200.873 Y-29.236 Z-3.075
X-200.888 Y-29.26 Z-3.076
X-200.891 Y-29.288 Z-3.077
X-200.882 Y-29.314 Z-3.078
X-200.862 Y-29.333 Z-3.079
X-200.836 Y-29.342 Z-3.08
X-200.809 Y-29.339 Z-3.081
X-200.785 Y-29.325 Z-3.082
X-199.725 Y-28.264 Z-3.134
X-199.71 Y-28.241 Z-3.135
X-199.707 Y-28.213 Z-3.136
X-199.716 Y-28.187 Z-3.137
X-199.736 Y-28.168 Z-3.138
X-199.762 Y-28.158 Z-3.139
X-199.789 Y-28.161 Z-3.14
X-199.813 Y-28.176 Z-3.141
X-200.873 Y-29.236 Z-3.194
X-200.888 Y-29.26 Z-3.195
X-200.891 Y-29.288 Z-3.196
X-200.882 Y-29.314 Z-3.197
X-200.862 Y-29.333 Z-3.198
X-200.836 Y-29.342 Z-3.199
X-200.809 Y-29.339 Z-3.2
X-200.785 Y-29.325
X-199.725 Y-28.264 Z-3.253
X-199.71 Y-28.241 Z-3.254
X-199.707 Y-28.213 Z-3.255
X-199.716 Y-28.187 Z-3.256
X-199.736 Y-28.168 Z-3.257
X-199.762 Y-28.158 Z-3.258
X-199.789 Y-28.161 Z-3.259
X-199.813 Y-28.176 Z-3.26
X-200.873 Y-29.236 Z-3.312
X-200.888 Y-29.26 Z-3.313
X-200.891 Y-29.288 Z-3.314
X-200.882 Y-29.314 Z-3.315
X-200.862 Y-29.333 Z-3.316
X-200.836 Y-29.342 Z-3.317
X-200.809 Y-29.339 Z-3.318
X-200.785 Y-29.325 Z-3.319
X-199.725 Y-28.264 Z-3.371
X-199.71 Y-28.241 Z-3.372
X-199.707 Y-28.213 Z-3.373
X-199.716 Y-28.187 Z-3.374
X-199.736 Y-28.168 Z-3.375
X-199.762 Y-28.158 Z-3.376
X-199.789 Y-28.161 Z-3.377
X-199.813 Y-28.176 Z-3.378
X-200.873 Y-29.236 Z-3.43
X-200.888 Y-29.26 Z-3.431
X-200.891 Y-29.288 Z-3.432
X-200.882 Y-29.314 Z-3.433
X-200.862 Y-29.333 Z-3.434
X-200.836 Y-29.342 Z-3.435
X-200.809 Y-29.339 Z-3.436
X-200.785 Y-29.325 Z-3.437
X-199.725 Y-28.264 Z-3.49
X-199.71 Y-28.241 Z-3.491
X-199.707 Y-28.213 Z-3.492
X-199.716 Y-28.187 Z-3.493
X-199.736 Y-28.168 Z-3.494
X-199.762 Y-28.158 Z-3.495
X-199.789 Y-28.161 Z-3.496
X-199.813 Y-28.176
X-200.873 Y-29.236 Z-3.549
X-200.888 Y-29.26 Z-3.55
X-200.891 Y-29.288 Z-3.551
X-200.882 Y-29.314 Z-3.552
X-200.862 Y-29.333 Z-3.553
X-200.836 Y-29.342 Z-3.554
X-200.809 Y-29.339 Z-3.555
X-200.785 Y-29.325 Z-3.556
X-199.725 Y-28.264 Z-3.608
X-199.71 Y-28.241 Z-3.609
X-199.707 Y-28.213 Z-3.61
X-199.716 Y-28.187 Z-3.611
X-199.736 Y-28.168 Z-3.612
X-199.762 Y-28.158 Z-3.613
X-199.789 Y-28.161 Z-3.614
X-199.813 Y-28.176 Z-3.615
X-200.873 Y-29.236 Z-3.667
X-200.888 Y-29.26 Z-3.668
X-200.891 Y-29.288 Z-3.669
X-200.882 Y-29.314 Z-3.67
X-200.862 Y-29.333 Z-3.671
X-200.836 Y-29.342 Z-3.672
X-200.809 Y-29.339 Z-3.673
X-200.785 Y-29.325 Z-3.674
X-199.725 Y-28.264 Z-3.726
X-199.71 Y-28.241 Z-3.727
X-199.707 Y-28.213 Z-3.728
X-199.716 Y-28.187 Z-3.729
X-199.736 Y-28.168 Z-3.73
X-199.762 Y-28.158 Z-3.731
X-199.789 Y-28.161 Z-3.732
X-199.813 Y-28.176 Z-3.733
X-200.873 Y-29.236 Z-3.786
X-200.888 Y-29.26 Z-3.787
X-200.891 Y-29.288 Z-3.788
X-200.882 Y-29.314 Z-3.789
X-200.862 Y-29.333 Z-3.79
X-200.836 Y-29.342 Z-3.791
X-200.809 Y-29.339
X-200.785 Y-29.325 Z-3.792
X-199.725 Y-28.264 Z-3.845
X-199.71 Y-28.241 Z-3.846
X-199.707 Y-28.213 Z-3.847
X-199.716 Y-28.187 Z-3.848
X-199.736 Y-28.168 Z-3.849
X-199.762 Y-28.158 Z-3.85
X-199.789 Y-28.161 Z-3.851
X-199.813 Y-28.176 Z-3.852
X-200.873 Y-29.236 Z-3.904
X-200.888 Y-29.26 Z-3.905
X-200.891 Y-29.288 Z-3.906
X-200.882 Y-29.314 Z-3.907
X-200.862 Y-29.333 Z-3.908
X-200.836 Y-29.342 Z-3.909
X-200.809 Y-29.339 Z-3.91
X-200.785 Y-29.325 Z-3.911
X-199.725 Y-28.264 Z-3.963
X-199.71 Y-28.241 Z-3.964
X-199.707 Y-28.213 Z-3.965
X-199.716 Y-28.187 Z-3.966
X-199.736 Y-28.168 Z-3.967
X-199.762 Y-28.158 Z-3.968
X-199.789 Y-28.161 Z-3.969
X-199.813 Y-28.176 Z-3.97
X-200.873 Y-29.236 Z-4.022
X-200.888 Y-29.26 Z-4.023
X-200.891 Y-29.288 Z-4.024
X-200.882 Y-29.314 Z-4.025
X-200.862 Y-29.333 Z-4.026
X-200.836 Y-29.342 Z-4.027
X-200.809 Y-29.339 Z-4.028
X-200.785 Y-29.325 Z-4.029
X-199.725 Y-28.264 Z-4.082
X-199.71 Y-28.241 Z-4.083
X-199.707 Y-28.213 Z-4.084
X-199.716 Y-28.187 Z-4.085
X-199.736 Y-28.168 Z-4.086
X-199.762 Y-28.158
X-199.789 Y-28.161 Z-4.087
X-199.813 Y-28.176 Z-4.088
X-200.873 Y-29.236 Z-4.141
X-200.888 Y-29.26 Z-4.142
X-200.891 Y-29.288 Z-4.143
X-200.882 Y-29.314 Z-4.144
X-200.862 Y-29.333 Z-4.145
X-200.836 Y-29.342 Z-4.146
X-200.809 Y-29.339 Z-4.147
X-200.785 Y-29.325 Z-4.148
X-199.725 Y-28.265 Z-4.2
S6000
Y-28.264 F1000
X-199.71 Y-28.241
X-199.707 Y-28.213
X-199.716 Y-28.187
X-199.736 Y-28.168
X-199.762 Y-28.158
X-199.789 Y-28.161
X-199.813 Y-28.176
X-200.873 Y-29.236
X-200.888 Y-29.26
X-200.891 Y-29.288
X-200.882 Y-29.314
X-200.862 Y-29.333
X-200.836 Y-29.342
X-200.809 Y-29.339
X-200.785 Y-29.325
X-199.725 Y-28.265
G0 Z5
X-200.691 Y-40.821
G1 Z1 F333.3
S5000
X-199.813 Y-41.699 Z0.957
X-199.789 Y-41.714 Z0.956
X-199.762 Y-41.717 Z0.955
X-199.736 Y-41.708 Z0.954
X-199.716 Y-41.688 Z0.953
X-199.707 Y-41.662 Z0.952
X-199.71 Y-41.634 Z0.951
X-199.725 Y-41.611 Z0.95
X-200.785 Y-40.551 Z0.897
X-200.809 Y-40.536 Z0.896
X-200.836 Y-40.533
X-200.862 Y-40.542 Z0.895
X-200.882 Y-40.562 Z0.894
X-200.891 Y-40.588 Z0.893
X-200.888 Y-40.615 Z0.892
X-200.873 Y-40.639 Z0.891
X-199.813 Y-41.699 Z0.838
X-199.789 Y-41.714 Z0.837
X-199.762 Y-41.717 Z0.836
X-199.736 Y-41.708 Z0.835
X-199.716 Y-41.688 Z0.834
X-199.707 Y-41.662 Z0.833
X-199.71 Y-41.634 Z0.832
X-199.725 Y-41.611 Z0.831
X-200.785 Y-40.551 Z0.779
X-200.809 Y-40.536 Z0.778
X-200.836 Y-40.533 Z0.777
X-200.862 Y-40.542 Z0.776
X-200.882 Y-40.562 Z0.775
X-200.891 Y-40.588 Z0.774
X-200.888 Y-40.615 Z0.773
X-200.873 Y-40.639 Z0.772
X-199.813 Y-41.699 Z0.72
X-199.789 Y-41.714 Z0.719
X-199.762 Y-41.717 Z0.718
X-199.736 Y-41.708 Z0.717
X-199.716 Y-41.688 Z0.716
X-199.707 Y-41.662 Z0.715
X-199.71 Y-41.634 Z0.714
X-199.725 Y-41.611 Z0.713
X-200.785 Y-40.551 Z0.661
X-200.809 Y-40.536 Z0.66
X-200.836 Y-40.533 Z0.659
X-200.862 Y-40.542 Z0.658
X-200.882 Y-40.562 Z0.657
X-200.891 Y-40.588 Z0.656
X-200.888 Y-40.615 Z0.655
X-200.873 Y-40.639 Z0.654
X-199.813 Y-41.699 Z0.601
X-199.789 Y-41.714
X-199.762 Y-41.717 Z0.6
X-199.736 Y-41.708 Z0.599
X-199.716 Y-41.688 Z0.598
X-199.707 Y-41.662 Z0.597
X-199.71 Y-41.634 Z0.596
X-199.725 Y-41.611 Z0.595
X-200.785 Y-40.551 Z0.542
X-200.809 Y-40.536 Z0.541
X-200.836 Y-40.533 Z0.54
X-200.862 Y-40.542 Z0.539
X-200.882 Y-40.562 Z0.538
X-200.891 Y-40.588 Z0.537
X-200.888 Y-40.615 Z0.536
X-200.873 Y-40.639 Z0.535
X-199.813 Y-41.699 Z0.483
X-199.789 Y-41.714 Z0.482
X-199.762 Y-41.717 Z0.481
X-199.736 Y-41.708 Z0.48
X-199.716 Y-41.688 Z0.479
X-199.707 Y-41.662 Z0.478
X-199.71 Y-41.634 Z0.477
X-199.725 Y-41.611 Z0.476
X-200.785 Y-40.551 Z0.424
X-200.809 Y-40.536 Z0.423
X-200.836 Y-40.533 Z0.422
X-200.862 Y-40.542 Z0.421
X-200.882 Y-40.562 Z0.42
X-200.891 Y-40.588 Z0.419
X-200.888 Y-40.615 Z0.418
X-200.873 Y-40.639 Z0.417
X-199.813 Y-41.699 Z0.365
X-199.789 Y-41.714 Z0.364
X-199.762 Y-41.717 Z0.363
X-199.736 Y-41.708 Z0.362
X-199.716 Y-41.688 Z0.361
X-199.707 Y-41.662 Z0.36
X-199.71 Y-41.634 Z0.359
X-199.725 Y-41.611 Z0.358
X-200.785 Y-40.551 Z0.306
X-200.809 Y-40.536 Z0.305
X-200.836 Y-40.533 Z0.304
X-200.862 Y-40.542 Z0.303
X-200.882 Y-40.562 Z0.302
X-200.891 Y-40.588 Z0.301
X-200.888 Y-40.615 Z0.3
X-200.873 Y-40.639 Z0.299
X-199.813 Y-41.699 Z0.246
X-199.789 Y-41.714 Z0.245
X-199.762 Y-41.717 Z0.244
X-199.736 Y-41.708 Z0.243
X-199.716 Y-41.688 Z0.242
X-199.707 Y-41.662 Z0.241
X-199.71 Y-41.634 Z0.24
X-199.725 Y-41.611
X-200.785 Y-40.551 Z0.187
X-200.809 Y-40.536 Z0.186
X-200.836 Y-40.533 Z0.185
X-200.862 Y-40.542 Z0.184
X-200.882 Y-40.562 Z0.183
X-200.891 Y-40.588 Z0.182
X-200.888 Y-40.615 Z0.181
X-200.873 Y-40.639 Z0.18
X-199.813 Y-41.699 Z0.128
X-199.789 Y-41.714 Z0.127
X-199.762 Y-41.717 Z0.126
X-199.736 Y-41.708 Z0.125
X-199.716 Y-41.688 Z0.124
X-199.707 Y-41.662 Z0.123
X-199.71 Y-41.634 Z0.122
X-199.725 Y-41.611 Z0.121
X-200.785 Y-40.551 Z0.069
X-200.809 Y-40.536 Z0.068
X-200.836 Y-40.533 Z0.067
X-200.862 Y-40.542 Z0.066
X-200.882 Y-40.562 Z0.065
X-200.891 Y-40.588 Z0.064
X-200.888 Y-40.615 Z0.063
X-200.873 Y-40.639 Z0.062
X-199.813 Y-41.699 Z0.01
X-199.789 Y-41.714 Z0.009
X-199.762 Y-41.717 Z0.008
X-199.736 Y-41.708 Z0.007
X-199.716 Y-41.688 Z0.006
X-199.707 Y-41.662 Z0.005
X-199.71 Y-41.634 Z0.004
X-199.725 Y-41.611 Z0.003
X-200.785 Y-40.551 Z-0.05
X-200.809 Y-40.536 Z-0.051
X-200.836 Y-40.533 Z-0.052
X-200.862 Y-40.542 Z-0.053
X-200.882 Y-40.562 Z-0.054
X-200.891 Y-40.588 Z-0.055
X-200.888 Y-40.615
X-200.873 Y-40.639 Z-0.056
X-199.813 Y-41.699 Z-0.109
X-199.789 Y-41.714 Z-0.11
X-199.762 Y-41.717 Z-0.111
X-199.736 Y-41.708 Z-0.112
X-199.716 Y-41.688 Z-0.113
X-199.707 Y-41.662 Z-0.114
X-199.71 Y-41.634 Z-0.115
X-199.725 Y-41.611 Z-0.116
X-200.785 Y-40.551 Z-0.168
X-200.809 Y-40.536 Z-0.169
X-200.836 Y-40.533 Z-0.17
X-200.862 Y-40.542 Z-0.171
X-200.882 Y-40.562 Z-0.172
X-200.891 Y-40.588 Z-0.173
X-200.888 Y-40.615 Z-0.174
X-200.873 Y-40.639 Z-0.175
X-199.813 Y-41.699 Z-0.227
X-199.789 Y-41.714 Z-0.228
X-199.762 Y-41.717 Z-0.229
X-199.736 Y-41.708 Z-0.23
X-199.716 Y-41.688 Z-0.231
X-199.707 Y-41.662 Z-0.232
X-199.71 Y-41.634 Z-0.233
X-199.725 Y-41.611 Z-0.234
X-200.785 Y-40.551 Z-0.286
X-200.809 Y-40.536 Z-0.287
X-200.836 Y-40.533 Z-0.288
X-200.862 Y-40.542 Z-0.289
X-200.882 Y-40.562 Z-0.29
X-200.891 Y-40.588 Z-0.291
X-200.888 Y-40.615 Z-0.292
X-200.873 Y-40.639 Z-0.293
X-199.813 Y-41.699 Z-0.346
X-199.789 Y-41.714 Z-0.347
X-199.762 Y-41.717 Z-0.348
X-199.736 Y-41.708 Z-0.349
X-199.716 Y-41.688
X-199.707 Y-41.662 Z-0.35
X-199.71 Y-41.634 Z-0.351
X-199.725 Y-41.611 Z-0.352
X-200.785 Y-40.551 Z-0.405
X-200.809 Y-40.536 Z-0.406
X-200.836 Y-40.533 Z-0.407
X-200.862 Y-40.542 Z-0.408
X-200.882 Y-40.562 Z-0.409
X-200.891 Y-40.588 Z-0.41
X-200.888 Y-40.615 Z-0.411
X-200.873 Y-40.639 Z-0.412
X-199.813 Y-41.699 Z-0.464
X-199.789 Y-41.714 Z-0.465
X-199.762 Y-41.717 Z-0.466
X-199.736 Y-41.708 Z-0.467
X-199.716 Y-41.688 Z-0.468
X-199.707 Y-41.662 Z-0.469
X-199.71 Y-41.634 Z-0.47
X-199.725 Y-41.611 Z-0.471
X-200.785 Y-40.551 Z-0.523
X-200.809 Y-40.536 Z-0.524
X-200.836 Y-40.533 Z-0.525
X-200.862 Y-40.542 Z-0.526
X-200.882 Y-40.562 Z-0.527
X-200.891 Y-40.588 Z-0.528
X-200.888 Y-40.615 Z-0.529
X-200.873 Y-40.639 Z-0.53
X-199.813 Y-41.699 Z-0.582
X-199.789 Y-41.714 Z-0.583
X-199.762 Y-41.717 Z-0.584
X-199.736 Y-41.708 Z-0.585
X-199.716 Y-41.688 Z-0.586
X-199.707 Y-41.662 Z-0.587
X-199.71 Y-41.634 Z-0.588
X-199.725 Y-41.611 Z-0.589
X-200.785 Y-40.551 Z-0.642
X-200.809 Y-40.536 Z-0.643
X-200.836 Y-40.533 Z-0.644
X-200.862 Y-40.542
X-200.882 Y-40.562 Z-0.645
X-200.891 Y-40.588 Z-0.646
X-200.888 Y-40.615 Z-0.647
X-200.873 Y-40.639 Z-0.648
X-199.813 Y-41.699 Z-0.701
X-199.789 Y-41.714 Z-0.702
X-199.762 Y-41.717 Z-0.703
X-199.736 Y-41.708 Z-0.704
X-199.716 Y-41.688 Z-0.705
X-199.707 Y-41.662 Z-0.706
X-199.71 Y-41.634 Z-0.707
X-199.725 Y-41.611 Z-0.708
X-200.785 Y-40.551 Z-0.76
X-200.809 Y-40.536 Z-0.761
X-200.836 Y-40.533 Z-0.762
X-200.862 Y-40.542 Z-0.763
X-200.882 Y-40.562 Z-0.764
X-200.891 Y-40.588 Z-0.765
X-200.888 Y-40.615 Z-0.766
X-200.873 Y-40.639 Z-0.767
X-199.813 Y-41.699 Z-0.819
X-199.789 Y-41.714 Z-0.82
X-199.762 Y-41.717 Z-0.821
X-199.736 Y-41.708 Z-0.822
X-199.716 Y-41.688 Z-0.823
X-199.707 Y-41.662 Z-0.824
X-199.71 Y-41.634 Z-0.825
X-199.725 Y-41.611 Z-0.826
X-200.785 Y-40.551 Z-0.878
X-200.809 Y-40.536 Z-0.879
X-200.836 Y-40.533 Z-0.88
X-200.862 Y-40.542 Z-0.881
X-200.882 Y-40.562 Z-0.882
X-200.891 Y-40.588 Z-0.883
X-200.888 Y-40.615 Z-0.884
X-200.873 Y-40.639 Z-0.885
X-199.813 Y-41.699 Z-0.938
X-199.789 Y-41.714 Z-0.939
X-199.762 Y-41.717
X-199.736 Y-41.708 Z-0.94
X-199.716 Y-41.688 Z-0.941
X-199.707 Y-41.662 Z-0.942
X-199.71 Y-41.634 Z-0.943
X-199.725 Y-41.611 Z-0.944
X-200.785 Y-40.551 Z-0.997
X-200.809 Y-40.536 Z-0.998
X-200.836 Y-40.533 Z-0.999
X-200.862 Y-40.542 Z-1
X-200.882 Y-40.562 Z-1.001
X-200.891 Y-40.588 Z-1.002
X-200.888 Y-40.615 Z-1.003
X-200.873 Y-40.639 Z-1.004
X-199.813 Y-41.699 Z-1.056
X-199.789 Y-41.714 Z-1.057
X-199.762 Y-41.717 Z-1.058
X-199.736 Y-41.708 Z-1.059
X-199.716 Y-41.688 Z-1.06
X-199.707 Y-41.662 Z-1.061
X-199.71 Y-41.634 Z-1.062
X-199.725 Y-41.611 Z-1.063
X-200.785 Y-40.551 Z-1.115
X-200.809 Y-40.536 Z-1.116
X-200.836 Y-40.533 Z-1.117
X-200.862 Y-40.542 Z-1.118
X-200.882 Y-40.562 Z-1.119
X-200.891 Y-40.588 Z-1.12
X-200.888 Y-40.615 Z-1.121
X-200.873 Y-40.639 Z-1.122
X-199.813 Y-41.699 Z-1.174
X-199.789 Y-41.714 Z-1.175
X-199.762 Y-41.717 Z-1.176
X-199.736 Y-41.708 Z-1.177
X-199.716 Y-41.688 Z-1.178
X-199.707 Y-41.662 Z-1.179
X-199.71 Y-41.634 Z-1.18
X-199.725 Y-41.611 Z-1.181
X-200.785 Y-40.551 Z-1.233
X-200.809 Y-40.536 Z-1.234
X-200.836 Y-40.533 Z-1.235
X-200.862 Y-40.542 Z-1.236
X-200.882 Y-40.562 Z-1.237
X-200.891 Y-40.588 Z-1.238
X-200.888 Y-40.615 Z-1.239
X-200.873 Y-40.639 Z-1.24
X-199.813 Y-41.699 Z-1.293
X-199.789 Y-41.714 Z-1.294
X-199.762 Y-41.717 Z-1.295
X-199.736 Y-41.708 Z-1.296
X-199.716 Y-41.688 Z-1.297
X-199.707 Y-41.662 Z-1.298
X-199.71 Y-41.634 Z-1.299
X-199.725 Y-41.611 Z-1.3
X-200.785 Y-40.551 Z-1.352
X-200.809 Y-40.536 Z-1.353
X-200.836 Y-40.533 Z-1.354
X-200.862 Y-40.542 Z-1.355
X-200.882 Y-40.562 Z-1.356
X-200.891 Y-40.588 Z-1.357
X-200.888 Y-40.615 Z-1.358
X-200.873 Y-40.639 Z-1.359
X-199.813 Y-41.699 Z-1.411
X-199.789 Y-41.714 Z-1.412
X-199.762 Y-41.717 Z-1.413
X-199.736 Y-41.708 Z-1.414
X-199.716 Y-41.688 Z-1.415
X-199.707 Y-41.662 Z-1.416
X-199.71 Y-41.634 Z-1.417
X-199.725 Y-41.611 Z-1.418
X-200.785 Y-40.551 Z-1.47
X-200.809 Y-40.536 Z-1.471
X-200.836 Y-40.533 Z-1.472
X-200.862 Y-40.542 Z-1.473
X-200.882 Y-40.562 Z-1.474
X-200.891 Y-40.588 Z-1.475
X-200.888 Y-40.615 Z-1.476
X-200.873 Y-40.639 Z-1.477
X-199.813 Y-41.699 Z-1.529
X-199.789 Y-41.714 Z-1.53
X-199.762 Y-41.717 Z-1.531
X-199.736 Y-41.708 Z-1.532
X-199.716 Y-41.688 Z-1.533
X-199.707 Y-41.662 Z-1.534
X-199.71 Y-41.634 Z-1.535
X-199.725 Y-41.611 Z-1.536
X-200.785 Y-40.551 Z-1.589
X-200.809 Y-40.536 Z-1.59
X-200.836 Y-40.533 Z-1.591
X-200.862 Y-40.542 Z-1.592
X-200.882 Y-40.562 Z-1.593
X-200.891 Y-40.588 Z-1.594
X-200.888 Y-40.615 Z-1.595
X-200.873 Y-40.639
X-199.813 Y-41.699 Z-1.648
X-199.789 Y-41.714 Z-1.649
X-199.762 Y-41.717 Z-1.65
X-199.736 Y-41.708 Z-1.651
X-199.716 Y-41.688 Z-1.652
X-199.707 Y-41.662 Z-1.653
X-199.71 Y-41.634 Z-1.654
X-199.725 Y-41.611 Z-1.655
X-200.785 Y-40.551 Z-1.707
X-200.809 Y-40.536 Z-1.708
X-200.836 Y-40.533 Z-1.709
X-200.862 Y-40.542 Z-1.71
X-200.882 Y-40.562 Z-1.711
X-200.891 Y-40.588 Z-1.712
X-200.888 Y-40.615 Z-1.713
X-200.873 Y-40.639 Z-1.714
X-199.813 Y-41.699 Z-1.766
X-199.789 Y-41.714 Z-1.767
X-199.762 Y-41.717 Z-1.768
X-199.736 Y-41.708 Z-1.769
X-199.716 Y-41.688 Z-1.77
X-199.707 Y-41.662 Z-1.771
X-199.71 Y-41.634 Z-1.772
X-199.725 Y-41.611 Z-1.773
X-200.785 Y-40.551 Z-1.825
X-200.809 Y-40.536 Z-1.826
X-200.836 Y-40.533 Z-1.827
X-200.862 Y-40.542 Z-1.828
X-200.882 Y-40.562 Z-1.829
X-200.891 Y-40.588 Z-1.83
X-200.888 Y-40.615 Z-1.831
X-200.873 Y-40.639 Z-1.832
X-199.813 Y-41.699 Z-1.885
X-199.789 Y-41.714 Z-1.886
X-199.762 Y-41.717 Z-1.887
X-199.736 Y-41.708 Z-1.888
X-199.716 Y-41.688 Z-1.889
X-199.707 Y-41.662
X-199.71 Y-41.634 Z-1.89
X-199.725 Y-41.611 Z-1.891
X-200.785 Y-40.551 Z-1.944
X-200.809 Y-40.536 Z-1.945
X-200.836 Y-40.533 Z-1.946
X-200.862 Y-40.542 Z-1.947
X-200.882 Y-40.562 Z-1.948
X-200.891 Y-40.588 Z-1.949
X-200.888 Y-40.615 Z-1.95
X-200.873 Y-40.639 Z-1.951
X-199.813 Y-41.699 Z-2.003
X-199.789 Y-41.714 Z-2.004
X-199.762 Y-41.717 Z-2.005
X-199.736 Y-41.708 Z-2.006
X-199.716 Y-41.688 Z-2.007
X-199.707 Y-41.662 Z-2.008
X-199.71 Y-41.634 Z-2.009
X-199.725 Y-41.611 Z-2.01
X-200.785 Y-40.551 Z-2.062
X-200.809 Y-40.536 Z-2.063
X-200.836 Y-40.533 Z-2.064
X-200.862 Y-40.542 Z-2.065
X-200.882 Y-40.562 Z-2.066
X-200.891 Y-40.588 Z-2.067
X-200.888 Y-40.615 Z-2.068
X-200.873 Y-40.639 Z-2.069
X-199.813 Y-41.699 Z-2.121
X-199.789 Y-41.714 Z-2.122
X-199.762 Y-41.717 Z-2.123
X-199.736 Y-41.708 Z-2.124
X-199.716 Y-41.688 Z-2.125
X-199.707 Y-41.662 Z-2.126
X-199.71 Y-41.634 Z-2.127
X-199.725 Y-41.611 Z-2.128
X-200.785 Y-40.551 Z-2.181
X-200.809 Y-40.536 Z-2.182
X-200.836 Y-40.533 Z-2.183
X-200.862 Y-40.542 Z-2.184
X-200.882 Y-40.562
X-200.891 Y-40.588 Z-2.185
X-200.888 Y-40.615 Z-2.186
X-200.873 Y-40.639 Z-2.187
X-199.813 Y-41.699 Z-2.24
X-199.789 Y-41.714 Z-2.241
X-199.762 Y-41.717 Z-2.242
X-199.736 Y-41.708 Z-2.243
X-199.716 Y-41.688 Z-2.244
X-199.707 Y-41.662 Z-2.245
X-199.71 Y-41.634 Z-2.246
X-199.725 Y-41.611 Z-2.247
X-200.785 Y-40.551 Z-2.299
X-200.809 Y-40.536 Z-2.3
X-200.836 Y-40.533 Z-2.301
X-200.862 Y-40.542 Z-2.302
X-200.882 Y-40.562 Z-2.303
X-200.891 Y-40.588 Z-2.304
X-200.888 Y-40.615 Z-2.305
X-200.873 Y-40.639 Z-2.306
X-199.813 Y-41.699 Z-2.358
X-199.789 Y-41.714 Z-2.359
X-199.762 Y-41.717 Z-2.36
X-199.736 Y-41.708 Z-2.361
X-199.716 Y-41.688 Z-2.362
X-199.707 Y-41.662 Z-2.363
X-199.71 Y-41.634 Z-2.364
X-199.725 Y-41.611 Z-2.365
X-200.785 Y-40.551 Z-2.417
X-200.809 Y-40.536 Z-2.418
X-200.836 Y-40.533 Z-2.419
X-200.862 Y-40.542 Z-2.42
X-200.882 Y-40.562 Z-2.421
X-200.891 Y-40.588 Z-2.422
X-200.888 Y-40.615 Z-2.423
X-200.873 Y-40.639 Z-2.424
X-199.813 Y-41.699 Z-2.477
X-199.789 Y-41.714 Z-2.478
X-199.762 Y-41.717 Z-2.479
X-199.736 Y-41.708
X-199.716 Y-41.688 Z-2.48
X-199.707 Y-41.662 Z-2.481
X-199.71 Y-41.634 Z-2.482
X-199.725 Y-41.611 Z-2.483
X-200.785 Y-40.551 Z-2.536
X-200.809 Y-40.536 Z-2.537
X-200.836 Y-40.533 Z-2.538
X-200.862 Y-40.542 Z-2.539
X-200.882 Y-40.562 Z-2.54
X-200.891 Y-40.588 Z-2.541
X-200.888 Y-40.615 Z-2.542
X-200.873 Y-40.639 Z-2.543
X-199.813 Y-41.699 Z-2.595
X-199.789 Y-41.714 Z-2.596
X-199.762 Y-41.717 Z-2.597
X-199.736 Y-41.708 Z-2.598
X-199.716 Y-41.688 Z-2.599
X-199.707 Y-41.662 Z-2.6
X-199.71 Y-41.634 Z-2.601
X-199.725 Y-41.611 Z-2.602
X-200.785 Y-40.551 Z-2.654
X-200.809 Y-40.536 Z-2.655
X-200.836 Y-40.533 Z-2.656
X-200.862 Y-40.542 Z-2.657
X-200.882 Y-40.562 Z-2.658
X-200.891 Y-40.588 Z-2.659
X-200.888 Y-40.615 Z-2.66
X-200.873 Y-40.639 Z-2.661
X-199.813 Y-41.699 Z-2.713
X-199.789 Y-41.714 Z-2.714
X-199.762 Y-41.717 Z-2.715
X-199.736 Y-41.708 Z-2.716
X-199.716 Y-41.688 Z-2.717
X-199.707 Y-41.662 Z-2.718
X-199.71 Y-41.634 Z-2.719
X-199.725 Y-41.611 Z-2.72
X-200.785 Y-40.551 Z-2.773
X-200.809 Y-40.536 Z-2.774
X-200.836 Y-40.533
X-200.862 Y-40.542 Z-2.775
X-200.882 Y-40.562 Z-2.776
X-200.891 Y-40.588 Z-2.777
X-200.888 Y-40.615 Z-2.778
X-200.873 Y-40.639 Z-2.779
X-199.813 Y-41.699 Z-2.832
X-199.789 Y-41.714 Z-2.833
X-199.762 Y-41.717 Z-2.834
X-199.736 Y-41.708 Z-2.835
X-199.716 Y-41.688 Z-2.836
X-199.707 Y-41.662 Z-2.837
X-199.71 Y-41.634 Z-2.838
X-199.725 Y-41.611 Z-2.839
X-200.785 Y-40.551 Z-2.891
X-200.809 Y-40.536 Z-2.892
X-200.836 Y-40.533 Z-2.893
X-200.862 Y-40.542 Z-2.894
X-200.882 Y-40.562 Z-2.895
X-200.891 Y-40.588 Z-2.896
X-200.888 Y-40.615 Z-2.897
X-200.873 Y-40.639 Z-2.898
X-199.813 Y-41.699 Z-2.95
X-199.789 Y-41.714 Z-2.951
X-199.762 Y-41.717 Z-2.952
X-199.736 Y-41.708 Z-2.953
X-199.716 Y-41.688 Z-2.954
X-199.707 Y-41.662 Z-2.955
X-199.71 Y-41.634 Z-2.956
X-199.725 Y-41.611 Z-2.957
X-200.785 Y-40.551 Z-3.009
X-200.809 Y-40.536 Z-3.01
X-200.836 Y-40.533 Z-3.011
X-200.862 Y-40.542 Z-3.012
X-200.882 Y-40.562 Z-3.013
X-200.891 Y-40.588 Z-3.014
X-200.888 Y-40.615 Z-3.015
X-200.873 Y-40.639 Z-3.016
X-199.813 Y-41.699 Z-3.068
X-199.789 Y-41.714 Z-3.069
X-199.762 Y-41.717 Z-3.07
X-199.736 Y-41.708 Z-3.071
X-199.716 Y-41.688 Z-3.072
X-199.707 Y-41.662 Z-3.073
X-199.71 Y-41.634 Z-3.074
X-199.725 Y-41.611 Z-3.075
X-200.785 Y-40.551 Z-3.128
X-200.809 Y-40.536 Z-3.129
X-200.836 Y-40.533 Z-3.13
X-200.862 Y-40.542 Z-3.131
X-200.882 Y-40.562 Z-3.132
X-200.891 Y-40.588 Z-3.133
X-200.888 Y-40.615 Z-3.134
X-200.873 Y-40.639 Z-3.135
X-199.813 Y-41.699 Z-3.187
X-199.789 Y-41.714 Z-3.188
X-199.762 Y-41.717 Z-3.189
X-199.736 Y-41.708 Z-3.19
X-199.716 Y-41.688 Z-3.191
X-199.707 Y-41.662 Z-3.192
X-199.71 Y-41.634 Z-3.193
X-199.725 Y-41.611 Z-3.194
X-200.785 Y-40.551 Z-3.246
X-200.809 Y-40.536 Z-3.247
X-200.836 Y-40.533 Z-3.248
X-200.862 Y-40.542 Z-3.249
X-200.882 Y-40.562 Z-3.25
X-200.891 Y-40.588 Z-3.251
X-200.888 Y-40.615 Z-3.252
X-200.873 Y-40.639 Z-3.253
X-199.813 Y-41.699 Z-3.305
X-199.789 Y-41.714 Z-3.306
X-199.762 Y-41.717 Z-3.307
X-199.736 Y-41.708 Z-3.308
X-199.716 Y-41.688 Z-3.309
X-199.707 Y-41.662 Z-3.31
X-199.71 Y-41.634 Z-3.311
X-199.725 Y-41.611 Z-3.312
X-200.785 Y-40.551 Z-3.364
X-200.809 Y-40.536 Z-3.365
X-200.836 Y-40.533 Z-3.366
X-200.862 Y-40.542 Z-3.367
X-200.882 Y-40.562 Z-3.368
X-200.891 Y-40.588 Z-3.369
X-200.888 Y-40.615 Z-3.37
X-200.873 Y-40.639 Z-3.371
X-199.813 Y-41.699 Z-3.424
X-199.789 Y-41.714 Z-3.425
X-199.762 Y-41.717 Z-3.426
X-199.736 Y-41.708 Z-3.427
X-199.716 Y-41.688 Z-3.428
X-199.707 Y-41.662 Z-3.429
X-199.71 Y-41.634
X-199.725 Y-41.611 Z-3.43
X-200.785 Y-40.551 Z-3.483
X-200.809 Y-40.536 Z-3.484
X-200.836 Y-40.533 Z-3.485
X-200.862 Y-40.542 Z-3.486
X-200.882 Y-40.562 Z-3.487
X-200.891 Y-40.588 Z-3.488
X-200.888 Y-40.615 Z-3.489
X-200.873 Y-40.639 Z-3.49
X-199.813 Y-41.699 Z-3.542
X-199.789 Y-41.714 Z-3.543
X-199.762 Y-41.717 Z-3.544
X-199.736 Y-41.708 Z-3.545
X-199.716 Y-41.688 Z-3.546
X-199.707 Y-41.662 Z-3.547
X-199.71 Y-41.634 Z-3.548
X-199.725 Y-41.611 Z-3.549
X-200.785 Y-40.551 Z-3.601
X-200.809 Y-40.536 Z-3.602
X-200.836 Y-40.533 Z-3.603
X-200.862 Y-40.542 Z-3.604
X-200.882 Y-40.562 Z-3.605
X-200.891 Y-40.588 Z-3.606
X-200.888 Y-40.615 Z-3.607
X-200.873 Y-40.639 Z-3.608
X-199.813 Y-41.699 Z-3.66
X-199.789 Y-41.714 Z-3.661
X-199.762 Y-41.717 Z-3.662
X-199.736 Y-41.708 Z-3.663
