(1001)
(Bearbeiten)
(  Hersteller: ChinaCnc)
(  model: 3040T)
(  description: Generic 3-axis)
(T5  D=3.175 CR=0 - ZMIN=-4.2 - Schaftfraser)
G90 G94
G17
G21
(When using Fusion 360 for Personal Use, the feedrate of)
(rapid moves is reduced to match the feedrate of cutting)
(moves, which can increase machining time. Unrestricted rapid)
(moves are available with a Fusion 360 Subscription.)

(Bohrfrasen10)
T5
S6000 M3
G54
G0 X-8.89 Y1.089
Z15
G1 Z1.683 F1000
Z0
X-8.921 Y1.057
X-8.917 Y1.042
X-8.905 Y1.03
X-8.89 Y1.026
X-8.86 Y1.034 Z-0.079
X-8.837 Y1.055 Z-0.158
X-8.827 Y1.084 Z-0.238
X-8.833 Y1.114 Z-0.317
X-8.852 Y1.138 Z-0.396
X-8.88 Y1.151 Z-0.475
X-8.911 Y1.148 Z-0.555
X-8.936 Y1.13 Z-0.634
X-8.95 Y1.103 Z-0.713
Y1.072 Z-0.792
X-8.935 Y1.045 Z-0.872
X-8.909 Y1.029 Z-0.951
X-8.878 Y1.027 Z-1.03
X-8.85 Y1.04 Z-1.109
X-8.832 Y1.065 Z-1.189
X-8.827 Y1.096 Z-1.268
X-8.838 Y1.125 Z-1.347
X-8.862 Y1.145 Z-1.426
X-8.892 Y1.151 Z-1.506
X-8.921 Y1.143 Z-1.585
X-8.943 Y1.121 Z-1.664
X-8.952 Y1.091 Z-1.743
X-8.946 Y1.061 Z-1.823
X-8.926 Y1.038 Z-1.902
X-8.897 Y1.027 Z-1.981
X-8.866 Y1.031 Z-2.06
X-8.841 Y1.049 Z-2.14
X-8.828 Y1.077 Z-2.219
X-8.83 Y1.107 Z-2.298
X-8.846 Y1.134 Z-2.377
X-8.873 Y1.149 Z-2.457
X-8.904 Y1.15 Z-2.536
X-8.931 Y1.136 Z-2.615
X-8.948 Y1.11 Z-2.694
X-8.951 Y1.08 Z-2.774
X-8.939 Y1.051 Z-2.853
X-8.915 Y1.032 Z-2.932
X-8.885 Y1.026 Z-3.011
X-8.856 Y1.036 Z-3.091
X-8.835 Y1.059 Z-3.17
X-8.827 Y1.088 Z-3.249
X-8.834 Y1.118 Z-3.328
X-8.855 Y1.141 Z-3.408
X-8.884 Y1.151 Z-3.487
X-8.915 Y1.146 Z-3.566
X-8.939 Y1.127 Z-3.645
X-8.951 Y1.099 Z-3.725
X-8.949 Y1.068 Z-3.804
X-8.931 Y1.042 Z-3.883
X-8.904 Y1.028 Z-3.962
X-8.873 Z-4.042
X-8.847 Y1.043 Z-4.121
X-8.83 Y1.069 Z-4.2
G3 X-8.949 Y1.108 I-0.059 J0.019
X-8.83 Y1.069 I0.059 J-0.019
G1 X-8.829 Y1.086
X-8.837 Y1.1
X-8.85 Y1.109
X-8.89 Y1.089
Z5
X15.152
Z1.683
Z0
X15.121 Y1.057
X15.125 Y1.042
X15.136 Y1.03
X15.152 Y1.026
X15.182 Y1.034 Z-0.079
X15.205 Y1.055 Z-0.158
X15.214 Y1.084 Z-0.238
X15.209 Y1.114 Z-0.317
X15.19 Y1.138 Z-0.396
X15.162 Y1.151 Z-0.475
X15.131 Y1.148 Z-0.555
X15.105 Y1.13 Z-0.634
X15.091 Y1.103 Z-0.713
X15.092 Y1.072 Z-0.792
X15.107 Y1.045 Z-0.872
X15.133 Y1.029 Z-0.951
X15.164 Y1.027 Z-1.03
X15.192 Y1.04 Z-1.109
X15.21 Y1.065 Z-1.189
X15.214 Y1.096 Z-1.268
X15.203 Y1.125 Z-1.347
X15.18 Y1.145 Z-1.426
X15.15 Y1.151 Z-1.506
X15.12 Y1.143 Z-1.585
X15.098 Y1.121 Z-1.664
X15.09 Y1.091 Z-1.743
X15.096 Y1.061 Z-1.823
X15.116 Y1.038 Z-1.902
X15.145 Y1.027 Z-1.981
X15.175 Y1.031 Z-2.06
X15.2 Y1.049 Z-2.14
X15.213 Y1.077 Z-2.219
X15.212 Y1.107 Z-2.298
X15.196 Y1.134 Z-2.377
X15.169 Y1.149 Z-2.457
X15.138 Y1.15 Z-2.536
X15.111 Y1.136 Z-2.615
X15.093 Y1.11 Z-2.694
X15.09 Y1.08 Z-2.774
X15.102 Y1.051 Z-2.853
X15.126 Y1.032 Z-2.932
X15.157 Y1.026 Z-3.011
X15.186 Y1.036 Z-3.091
X15.207 Y1.059 Z-3.17
X15.215 Y1.088 Z-3.249
X15.207 Y1.118 Z-3.328
X15.186 Y1.141 Z-3.408
X15.157 Y1.151 Z-3.487
X15.127 Y1.146 Z-3.566
X15.103 Y1.127 Z-3.645
X15.09 Y1.099 Z-3.725
X15.093 Y1.068 Z-3.804
X15.11 Y1.042 Z-3.883
X15.137 Y1.028 Z-3.962
X15.168 Z-4.042
X15.195 Y1.043 Z-4.121
X15.212 Y1.069 Z-4.2
G3 X15.093 Y1.108 I-0.059 J0.019
X15.212 Y1.069 I0.059 J-0.019
G1 Y1.086
X15.205 Y1.1
X15.191 Y1.109
X15.152 Y1.089
Z5
Y25.13
Z1.683
Z0
X15.121 Y25.099
X15.125 Y25.084
X15.136 Y25.072
X15.152 Y25.068
X15.182 Y25.075 Z-0.079
X15.205 Y25.096 Z-0.158
X15.214 Y25.126 Z-0.238
X15.209 Y25.156 Z-0.317
X15.19 Y25.18 Z-0.396
X15.162 Y25.192 Z-0.475
X15.131 Y25.189 Z-0.555
X15.105 Y25.172 Z-0.634
X15.091 Y25.145 Z-0.713
X15.092 Y25.114 Z-0.792
X15.107 Y25.087 Z-0.872
X15.133 Y25.071 Z-0.951
X15.164 Y25.069 Z-1.03
X15.192 Y25.082 Z-1.109
X15.21 Y25.107 Z-1.189
X15.214 Y25.137 Z-1.268
X15.203 Y25.166 Z-1.347
X15.18 Y25.186 Z-1.426
X15.15 Y25.193 Z-1.506
X15.12 Y25.184 Z-1.585
X15.098 Y25.162 Z-1.664
X15.09 Y25.133 Z-1.743
X15.096 Y25.103 Z-1.823
X15.116 Y25.079 Z-1.902
X15.145 Y25.068 Z-1.981
X15.175 Y25.072 Z-2.06
X15.2 Y25.09 Z-2.14
X15.213 Y25.118 Z-2.219
X15.212 Y25.149 Z-2.298
X15.196 Y25.175 Z-2.377
X15.169 Y25.191 Z-2.457
X15.138 Z-2.536
X15.111 Y25.177 Z-2.615
X15.093 Y25.152 Z-2.694
X15.09 Y25.121 Z-2.774
X15.102 Y25.093 Z-2.853
X15.126 Y25.073 Z-2.932
X15.157 Y25.068 Z-3.011
X15.186 Y25.078 Z-3.091
X15.207 Y25.1 Z-3.17
X15.215 Y25.13 Z-3.249
X15.207 Y25.16 Z-3.328
X15.186 Y25.183 Z-3.408
X15.157 Y25.193 Z-3.487
X15.127 Y25.188 Z-3.566
X15.103 Y25.169 Z-3.645
X15.09 Y25.14 Z-3.725
X15.093 Y25.11 Z-3.804
X15.11 Y25.084 Z-3.883
X15.137 Y25.07 Z-3.962
X15.168 Z-4.042
X15.195 Y25.085 Z-4.121
X15.212 Y25.111 Z-4.2
G3 X15.093 Y25.15 I-0.059 J0.019
X15.212 Y25.111 I0.059 J-0.019
G1 Y25.127
X15.205 Y25.142
X15.191 Y25.15
X15.152 Y25.13
Z5
X2.814 Y10.491
Z2
Z0.317
G19 G2 Y10.173 Z0 J-0.317 K0
G1 Y10.015
G17 G3 X3.131 Y9.697 I0.318 J0
X3.131 Y16.522 Z-0.5 I0 J3.413
X3.131 Y9.697 Z-1 I0 J-3.413
X3.131 Y16.522 Z-1.5 I0 J3.413
X3.131 Y9.697 Z-2 I0 J-3.413
X3.131 Y16.522 Z-2.5 I0 J3.413
X3.131 Y9.697 Z-3 I0 J-3.413
X3.131 Y16.522 Z-3.5 I0 J3.413
X3.131 Y9.697 Z-4 I0 J-3.413
X6.377 Y12.055 Z-4.2 I0 J3.412
X-0.114 Y14.164 I-3.245 J1.055
X6.377 Y12.055 I3.245 J-1.055
X6.173 Y12.455 I-0.302 J0.098
G1 X6.022 Y12.504
X5.955 Y12.526 Z-4.192
X5.891 Y12.547 Z-4.169
X5.834 Y12.565 Z-4.131
X5.786 Y12.581 Z-4.08
X5.75 Y12.593 Z-4.02
X5.728 Y12.6 Z-3.953
X5.72 Y12.602 Z-3.882
Z5
X-8.89 Y25.13
Z1.683
Z0
X-8.921 Y25.099
X-8.917 Y25.084
X-8.905 Y25.072
X-8.89 Y25.068
X-8.86 Y25.075 Z-0.079
X-8.837 Y25.096 Z-0.158
X-8.827 Y25.126 Z-0.238
X-8.833 Y25.156 Z-0.317
X-8.852 Y25.18 Z-0.396
X-8.88 Y25.192 Z-0.475
X-8.911 Y25.189 Z-0.555
X-8.936 Y25.172 Z-0.634
X-8.95 Y25.145 Z-0.713
Y25.114 Z-0.792
X-8.935 Y25.087 Z-0.872
X-8.909 Y25.071 Z-0.951
X-8.878 Y25.069 Z-1.03
X-8.85 Y25.082 Z-1.109
X-8.832 Y25.107 Z-1.189
X-8.827 Y25.137 Z-1.268
X-8.838 Y25.166 Z-1.347
X-8.862 Y25.186 Z-1.426
X-8.892 Y25.193 Z-1.506
X-8.921 Y25.184 Z-1.585
X-8.943 Y25.162 Z-1.664
X-8.952 Y25.133 Z-1.743
X-8.946 Y25.103 Z-1.823
X-8.926 Y25.079 Z-1.902
X-8.897 Y25.068 Z-1.981
X-8.866 Y25.072 Z-2.06
X-8.841 Y25.09 Z-2.14
X-8.828 Y25.118 Z-2.219
X-8.83 Y25.149 Z-2.298
X-8.846 Y25.175 Z-2.377
X-8.873 Y25.191 Z-2.457
X-8.904 Z-2.536
X-8.931 Y25.177 Z-2.615
X-8.948 Y25.152 Z-2.694
X-8.951 Y25.121 Z-2.774
X-8.939 Y25.093 Z-2.853
X-8.915 Y25.073 Z-2.932
X-8.885 Y25.068 Z-3.011
X-8.856 Y25.078 Z-3.091
X-8.835 Y25.1 Z-3.17
X-8.827 Y25.13 Z-3.249
X-8.834 Y25.16 Z-3.328
X-8.855 Y25.183 Z-3.408
X-8.884 Y25.193 Z-3.487
X-8.915 Y25.188 Z-3.566
X-8.939 Y25.169 Z-3.645
X-8.951 Y25.14 Z-3.725
X-8.949 Y25.11 Z-3.804
X-8.931 Y25.084 Z-3.883
X-8.904 Y25.07 Z-3.962
X-8.873 Z-4.042
X-8.847 Y25.085 Z-4.121
X-8.83 Y25.111 Z-4.2
G3 X-8.949 Y25.15 I-0.059 J0.019
X-8.83 Y25.111 I0.059 J-0.019
G1 X-8.829 Y25.127
X-8.837 Y25.142
X-8.85 Y25.15
X-8.89 Y25.13
Z5
X-12.084 Y51.623
Z2
Z0.317
G18 G3 X-12.402 Z0 I-0.318 K0
G1 X-12.561
G17 G3 X-12.878 Y51.306 I0 J-0.318
X-6.053 Y51.306 Z-0.5 I3.413 J0
X-12.878 Y51.306 Z-1 I-3.413 J0
X-6.053 Y51.306 Z-1.5 I3.413 J0
X-12.878 Y51.306 Z-2 I-3.412 J0
X-6.053 Y51.306 Z-2.5 I3.412 J0
X-12.878 Y51.306 Z-3 I-3.412 J0
X-6.053 Y51.306 Z-3.5 I3.412 J0
X-12.878 Y51.306 Z-4 I-3.412 J0
X-10.52 Y48.06 Z-4.2 I3.412 J0
X-8.411 Y54.551 I1.055 J3.245
X-10.52 Y48.06 I-1.055 J-3.245
X-10.12 Y48.264 I0.098 J0.302
G1 X-10.071 Y48.415
X-10.049 Y48.482 Z-4.192
X-10.029 Y48.546 Z-4.169
X-10.01 Y48.603 Z-4.131
X-9.994 Y48.651 Z-4.08
X-9.983 Y48.687 Z-4.02
X-9.975 Y48.709 Z-3.953
X-9.973 Y48.717 Z-3.882
Z5
X-76.028 Y51.553
Z2
Z0.317
G18 G3 X-76.346 Z0 I-0.318 K0
G1 X-76.505
G17 G3 X-76.822 Y51.236 I0 J-0.318
X-69.997 Y51.236 Z-0.5 I3.412 J0
X-76.822 Y51.236 Z-1 I-3.412 J0
X-69.997 Y51.236 Z-1.5 I3.412 J0
X-76.822 Y51.236 Z-2 I-3.412 J0
X-69.997 Y51.236 Z-2.5 I3.412 J0
X-76.822 Y51.236 Z-3 I-3.412 J0
X-69.997 Y51.236 Z-3.5 I3.412 J0
X-76.822 Y51.236 Z-4 I-3.412 J0
X-74.464 Y47.99 Z-4.2 I3.412 J0
X-72.355 Y54.481 I1.055 J3.245
X-74.464 Y47.99 I-1.055 J-3.245
X-74.064 Y48.194 I0.098 J0.302
G1 X-74.015 Y48.345
X-73.993 Y48.412 Z-4.192
X-73.972 Y48.476 Z-4.169
X-73.954 Y48.533 Z-4.131
X-73.938 Y48.581 Z-4.08
X-73.927 Y48.617 Z-4.02
X-73.919 Y48.64 Z-3.953
X-73.917 Y48.647 Z-3.882
Z15
(When using Fusion 360 for Personal Use, the feedrate of)
(rapid moves is reduced to match the feedrate of cutting)
(moves, which can increase machining time. Unrestricted rapid)
(moves are available with a Fusion 360 Subscription.)

(2D-Kontur39)
G0 X-3.647 Y19.814
G1 Z15 F1000
Z5
Z3 F333.3
Z2.5
S5000
X-3.641 Y19.797 Z2.499
X-3.63 Y19.783
X-2.57 Y18.722 Z2.446
X-2.546 Y18.707 Z2.445
X-2.519 Y18.704 Z2.444
X-2.492 Y18.713 Z2.443
X-2.473 Y18.733 Z2.442
X-2.464 Y18.759 Z2.441
X-2.467 Y18.787 Z2.44
X-2.481 Y18.811 Z2.439
X-3.542 Y19.871 Z2.387
X-3.566 Y19.886 Z2.386
X-3.593 Y19.889 Z2.385
X-3.62 Y19.88 Z2.384
X-3.639 Y19.86 Z2.383
X-3.648 Y19.834 Z2.382
X-3.645 Y19.806 Z2.381
X-3.63 Y19.783 Z2.38
X-2.57 Y18.722 Z2.328
X-2.546 Y18.707 Z2.327
X-2.519 Y18.704 Z2.326
X-2.492 Y18.713 Z2.325
X-2.473 Y18.733 Z2.324
X-2.464 Y18.759 Z2.323
X-2.467 Y18.787 Z2.322
X-2.481 Y18.811 Z2.321
X-3.542 Y19.871 Z2.269
X-3.566 Y19.886 Z2.268
X-3.593 Y19.889 Z2.267
X-3.62 Y19.88 Z2.266
X-3.639 Y19.86 Z2.265
X-3.648 Y19.834 Z2.264
X-3.645 Y19.806 Z2.263
X-3.63 Y19.783 Z2.262
X-2.57 Y18.722 Z2.209
X-2.546 Y18.707 Z2.208
X-2.519 Y18.704 Z2.207
X-2.492 Y18.713 Z2.206
X-2.473 Y18.733 Z2.205
X-2.464 Y18.759 Z2.204
X-2.467 Y18.787
X-2.481 Y18.811 Z2.203
X-3.542 Y19.871 Z2.15
X-3.566 Y19.886 Z2.149
X-3.593 Y19.889 Z2.148
X-3.62 Y19.88 Z2.147
X-3.639 Y19.86 Z2.146
X-3.648 Y19.834 Z2.145
X-3.645 Y19.806 Z2.144
X-3.63 Y19.783 Z2.143
X-2.57 Y18.722 Z2.091
X-2.546 Y18.707 Z2.09
X-2.519 Y18.704 Z2.089
X-2.492 Y18.713 Z2.088
X-2.473 Y18.733 Z2.087
X-2.464 Y18.759 Z2.086
X-2.467 Y18.787 Z2.085
X-2.481 Y18.811 Z2.084
X-3.542 Y19.871 Z2.032
X-3.566 Y19.886 Z2.031
X-3.593 Y19.889 Z2.03
X-3.62 Y19.88 Z2.029
X-3.639 Y19.86 Z2.028
X-3.648 Y19.834 Z2.027
X-3.645 Y19.806 Z2.026
X-3.63 Y19.783 Z2.025
X-2.57 Y18.722 Z1.972
X-2.546 Y18.707 Z1.971
X-2.519 Y18.704 Z1.97
X-2.492 Y18.713
X-2.473 Y18.733 Z1.969
X-2.464 Y18.759 Z1.968
X-2.467 Y18.787 Z1.967
X-2.481 Y18.811 Z1.966
X-3.542 Y19.871 Z1.913
X-3.566 Y19.886 Z1.912
X-3.593 Y19.889 Z1.911
X-3.62 Y19.88 Z1.91
X-3.639 Y19.86 Z1.909
X-3.648 Y19.834 Z1.908
X-3.645 Y19.806 Z1.907
X-3.63 Y19.783 Z1.906
X-2.57 Y18.722 Z1.854
X-2.546 Y18.707 Z1.853
X-2.519 Y18.704 Z1.852
X-2.492 Y18.713 Z1.851
X-2.473 Y18.733 Z1.85
X-2.464 Y18.759 Z1.849
X-2.467 Y18.787 Z1.848
X-2.481 Y18.811 Z1.847
X-3.542 Y19.871 Z1.795
X-3.566 Y19.886 Z1.794
X-3.593 Y19.889 Z1.793
X-3.62 Y19.88 Z1.792
X-3.639 Y19.86 Z1.791
X-3.648 Y19.834 Z1.79
X-3.645 Y19.806 Z1.789
X-3.63 Y19.783 Z1.788
X-2.57 Y18.722 Z1.735
X-2.546 Y18.707
X-2.519 Y18.704 Z1.734
X-2.492 Y18.713 Z1.733
X-2.473 Y18.733 Z1.732
X-2.464 Y18.759 Z1.731
X-2.467 Y18.787 Z1.73
X-2.481 Y18.811 Z1.729
X-3.542 Y19.871 Z1.676
X-3.566 Y19.886 Z1.675
X-3.593 Y19.889 Z1.674
X-3.62 Y19.88 Z1.673
X-3.639 Y19.86 Z1.672
X-3.648 Y19.834 Z1.671
X-3.645 Y19.806 Z1.67
X-3.63 Y19.783 Z1.669
X-2.57 Y18.722 Z1.617
X-2.546 Y18.707 Z1.616
X-2.519 Y18.704 Z1.615
X-2.492 Y18.713 Z1.614
X-2.473 Y18.733 Z1.613
X-2.464 Y18.759 Z1.612
X-2.467 Y18.787 Z1.611
X-2.481 Y18.811 Z1.61
X-3.542 Y19.871 Z1.558
X-3.566 Y19.886 Z1.557
X-3.593 Y19.889 Z1.556
X-3.62 Y19.88 Z1.555
X-3.639 Y19.86 Z1.554
X-3.648 Y19.834 Z1.553
X-3.645 Y19.806 Z1.552
X-3.63 Y19.783 Z1.551
X-2.57 Y18.722 Z1.499
X-2.546 Y18.707 Z1.498
X-2.519 Y18.704 Z1.497
X-2.492 Y18.713 Z1.496
X-2.473 Y18.733 Z1.495
X-2.464 Y18.759 Z1.494
X-2.467 Y18.787 Z1.493
X-2.481 Y18.811 Z1.492
X-3.542 Y19.871 Z1.439
X-3.566 Y19.886 Z1.438
X-3.593 Y19.889 Z1.437
X-3.62 Y19.88 Z1.436
X-3.639 Y19.86 Z1.435
X-3.648 Y19.834 Z1.434
X-3.645 Y19.806 Z1.433
X-3.63 Y19.783 Z1.432
X-2.57 Y18.722 Z1.38
X-2.546 Y18.707 Z1.379
X-2.519 Y18.704 Z1.378
X-2.492 Y18.713 Z1.377
X-2.473 Y18.733 Z1.376
X-2.464 Y18.759 Z1.375
X-2.467 Y18.787 Z1.374
X-2.481 Y18.811 Z1.373
X-3.542 Y19.871 Z1.321
X-3.566 Y19.886 Z1.32
X-3.593 Y19.889 Z1.319
X-3.62 Y19.88 Z1.318
X-3.639 Y19.86 Z1.317
X-3.648 Y19.834 Z1.316
X-3.645 Y19.806 Z1.315
X-3.63 Y19.783 Z1.314
X-2.57 Y18.722 Z1.262
X-2.546 Y18.707 Z1.261
X-2.519 Y18.704 Z1.26
X-2.492 Y18.713 Z1.259
X-2.473 Y18.733 Z1.258
X-2.464 Y18.759 Z1.257
X-2.467 Y18.787 Z1.256
X-2.481 Y18.811 Z1.255
X-3.542 Y19.871 Z1.202
X-3.566 Y19.886 Z1.201
X-3.593 Y19.889 Z1.2
X-3.62 Y19.88 Z1.199
X-3.639 Y19.86 Z1.198
X-3.648 Y19.834 Z1.197
X-3.645 Y19.806 Z1.196
X-3.63 Y19.783 Z1.195
X-2.57 Y18.722 Z1.143
X-2.546 Y18.707 Z1.142
X-2.519 Y18.704 Z1.141
X-2.492 Y18.713 Z1.14
X-2.473 Y18.733 Z1.139
X-2.464 Y18.759 Z1.138
X-2.467 Y18.787 Z1.137
X-2.481 Y18.811 Z1.136
X-3.542 Y19.871 Z1.084
X-3.566 Y19.886 Z1.083
X-3.593 Y19.889 Z1.082
X-3.62 Y19.88 Z1.081
X-3.639 Y19.86 Z1.08
X-3.648 Y19.834 Z1.079
X-3.645 Y19.806 Z1.078
X-3.63 Y19.783 Z1.077
X-2.57 Y18.722 Z1.025
X-2.546 Y18.707 Z1.024
X-2.519 Y18.704 Z1.023
X-2.492 Y18.713 Z1.022
X-2.473 Y18.733 Z1.021
X-2.464 Y18.759 Z1.02
X-2.467 Y18.787 Z1.019
X-2.481 Y18.811 Z1.018
X-3.542 Y19.871 Z0.965
X-3.566 Y19.886 Z0.964
X-3.593 Y19.889 Z0.963
X-3.62 Y19.88 Z0.962
X-3.639 Y19.86 Z0.961
X-3.648 Y19.834 Z0.96
X-3.645 Y19.806 Z0.959
X-3.63 Y19.783
X-2.57 Y18.722 Z0.906
X-2.546 Y18.707 Z0.905
X-2.519 Y18.704 Z0.904
X-2.492 Y18.713 Z0.903
X-2.473 Y18.733 Z0.902
X-2.464 Y18.759 Z0.901
X-2.467 Y18.787 Z0.9
X-2.481 Y18.811 Z0.899
X-3.542 Y19.871 Z0.847
X-3.566 Y19.886 Z0.846
X-3.593 Y19.889 Z0.845
X-3.62 Y19.88 Z0.844
X-3.639 Y19.86 Z0.843
X-3.648 Y19.834 Z0.842
X-3.645 Y19.806 Z0.841
X-3.63 Y19.783 Z0.84
X-2.57 Y18.722 Z0.788
X-2.546 Y18.707 Z0.787
X-2.519 Y18.704 Z0.786
X-2.492 Y18.713 Z0.785
X-2.473 Y18.733 Z0.784
X-2.464 Y18.759 Z0.783
X-2.467 Y18.787 Z0.782
X-2.481 Y18.811 Z0.781
X-3.542 Y19.871 Z0.728
X-3.566 Y19.886 Z0.727
X-3.593 Y19.889 Z0.726
X-3.62 Y19.88 Z0.725
X-3.639 Y19.86
X-3.648 Y19.834 Z0.724
X-3.645 Y19.806 Z0.723
X-3.63 Y19.783 Z0.722
X-2.57 Y18.722 Z0.669
X-2.546 Y18.707 Z0.668
X-2.519 Y18.704 Z0.667
X-2.492 Y18.713 Z0.666
X-2.473 Y18.733 Z0.665
X-2.464 Y18.759 Z0.664
X-2.467 Y18.787 Z0.663
X-2.481 Y18.811 Z0.662
X-3.542 Y19.871 Z0.61
X-3.566 Y19.886 Z0.609
X-3.593 Y19.889 Z0.608
X-3.62 Y19.88 Z0.607
X-3.639 Y19.86 Z0.606
X-3.648 Y19.834 Z0.605
X-3.645 Y19.806 Z0.604
X-3.63 Y19.783 Z0.603
X-2.57 Y18.722 Z0.551
X-2.546 Y18.707 Z0.55
X-2.519 Y18.704 Z0.549
X-2.492 Y18.713 Z0.548
X-2.473 Y18.733 Z0.547
X-2.464 Y18.759 Z0.546
X-2.467 Y18.787 Z0.545
X-2.481 Y18.811 Z0.544
X-3.542 Y19.871 Z0.491
X-3.566 Y19.886 Z0.49
X-3.593 Y19.889
X-3.62 Y19.88 Z0.489
X-3.639 Y19.86 Z0.488
X-3.648 Y19.834 Z0.487
X-3.645 Y19.806 Z0.486
X-3.63 Y19.783 Z0.485
X-2.57 Y18.722 Z0.432
X-2.546 Y18.707 Z0.431
X-2.519 Y18.704 Z0.43
X-2.492 Y18.713 Z0.429
X-2.473 Y18.733 Z0.428
X-2.464 Y18.759 Z0.427
X-2.467 Y18.787 Z0.426
X-2.481 Y18.811 Z0.425
X-3.542 Y19.871 Z0.373
X-3.566 Y19.886 Z0.372
X-3.593 Y19.889 Z0.371
X-3.62 Y19.88 Z0.37
X-3.639 Y19.86 Z0.369
X-3.648 Y19.834 Z0.368
X-3.645 Y19.806 Z0.367
X-3.63 Y19.783 Z0.366
X-2.57 Y18.722 Z0.314
X-2.546 Y18.707 Z0.313
X-2.519 Y18.704 Z0.312
X-2.492 Y18.713 Z0.311
X-2.473 Y18.733 Z0.31
X-2.464 Y18.759 Z0.309
X-2.467 Y18.787 Z0.308
X-2.481 Y18.811 Z0.307
X-3.542 Y19.871 Z0.255
X-3.566 Y19.886 Z0.254
X-3.593 Y19.889 Z0.253
X-3.62 Y19.88 Z0.252
X-3.639 Y19.86 Z0.251
X-3.648 Y19.834 Z0.25
X-3.645 Y19.806 Z0.249
X-3.63 Y19.783 Z0.248
X-2.57 Y18.722 Z0.195
X-2.546 Y18.707 Z0.194
X-2.519 Y18.704 Z0.193
X-2.492 Y18.713 Z0.192
X-2.473 Y18.733 Z0.191
X-2.464 Y18.759 Z0.19
X-2.467 Y18.787 Z0.189
X-2.481 Y18.811 Z0.188
X-3.542 Y19.871 Z0.136
X-3.566 Y19.886 Z0.135
X-3.593 Y19.889 Z0.134
X-3.62 Y19.88 Z0.133
X-3.639 Y19.86 Z0.132
X-3.648 Y19.834 Z0.131
X-3.645 Y19.806 Z0.13
X-3.63 Y19.783 Z0.129
X-2.57 Y18.722 Z0.077
X-2.546 Y18.707 Z0.076
X-2.519 Y18.704 Z0.075
X-2.492 Y18.713 Z0.074
X-2.473 Y18.733 Z0.073
X-2.464 Y18.759 Z0.072
X-2.467 Y18.787 Z0.071
X-2.481 Y18.811 Z0.07
X-3.542 Y19.871 Z0.018
X-3.566 Y19.886 Z0.017
X-3.593 Y19.889 Z0.016
X-3.62 Y19.88 Z0.015
X-3.639 Y19.86 Z0.014
X-3.648 Y19.834 Z0.013
X-3.645 Y19.806 Z0.012
X-3.63 Y19.783 Z0.011
X-2.57 Y18.722 Z-0.042
X-2.546 Y18.707 Z-0.043
X-2.519 Y18.704 Z-0.044
X-2.492 Y18.713 Z-0.045
X-2.473 Y18.733 Z-0.046
X-2.464 Y18.759 Z-0.047
X-2.467 Y18.787 Z-0.048
X-2.481 Y18.811 Z-0.049
X-3.542 Y19.871 Z-0.101
X-3.566 Y19.886 Z-0.102
X-3.593 Y19.889 Z-0.103
X-3.62 Y19.88 Z-0.104
X-3.639 Y19.86 Z-0.105
X-3.648 Y19.834 Z-0.106
X-3.645 Y19.806 Z-0.107
X-3.63 Y19.783 Z-0.108
X-2.57 Y18.722 Z-0.16
X-2.546 Y18.707 Z-0.161
X-2.519 Y18.704 Z-0.162
X-2.492 Y18.713 Z-0.163
X-2.473 Y18.733 Z-0.164
X-2.464 Y18.759 Z-0.165
X-2.467 Y18.787 Z-0.166
X-2.481 Y18.811 Z-0.167
X-3.542 Y19.871 Z-0.219
X-3.566 Y19.886 Z-0.22
X-3.593 Y19.889 Z-0.221
X-3.62 Y19.88 Z-0.222
X-3.639 Y19.86 Z-0.223
X-3.648 Y19.834 Z-0.224
X-3.645 Y19.806 Z-0.225
X-3.63 Y19.783 Z-0.226
X-2.57 Y18.722 Z-0.279
X-2.546 Y18.707 Z-0.28
X-2.519 Y18.704 Z-0.281
X-2.492 Y18.713 Z-0.282
X-2.473 Y18.733 Z-0.283
X-2.464 Y18.759 Z-0.284
X-2.467 Y18.787 Z-0.285
X-2.481 Y18.811
X-3.542 Y19.871 Z-0.338
X-3.566 Y19.886 Z-0.339
X-3.593 Y19.889 Z-0.34
X-3.62 Y19.88 Z-0.341
X-3.639 Y19.86 Z-0.342
X-3.648 Y19.834 Z-0.343
X-3.645 Y19.806 Z-0.344
X-3.63 Y19.783 Z-0.345
X-2.57 Y18.722 Z-0.397
X-2.546 Y18.707 Z-0.398
X-2.519 Y18.704 Z-0.399
X-2.492 Y18.713 Z-0.4
X-2.473 Y18.733 Z-0.401
X-2.464 Y18.759 Z-0.402
X-2.467 Y18.787 Z-0.403
X-2.481 Y18.811 Z-0.404
X-3.542 Y19.871 Z-0.456
X-3.566 Y19.886 Z-0.457
X-3.593 Y19.889 Z-0.458
X-3.62 Y19.88 Z-0.459
X-3.639 Y19.86 Z-0.46
X-3.648 Y19.834 Z-0.461
X-3.645 Y19.806 Z-0.462
X-3.63 Y19.783 Z-0.463
X-2.57 Y18.722 Z-0.516
X-2.546 Y18.707 Z-0.517
X-2.519 Y18.704 Z-0.518
X-2.492 Y18.713 Z-0.519
X-2.473 Y18.733 Z-0.52
X-2.464 Y18.759
X-2.467 Y18.787 Z-0.521
X-2.481 Y18.811 Z-0.522
X-3.542 Y19.871 Z-0.575
X-3.566 Y19.886 Z-0.576
X-3.593 Y19.889 Z-0.577
X-3.62 Y19.88 Z-0.578
X-3.639 Y19.86 Z-0.579
X-3.648 Y19.834 Z-0.58
X-3.645 Y19.806 Z-0.581
X-3.63 Y19.783 Z-0.582
X-2.57 Y18.722 Z-0.634
X-2.546 Y18.707 Z-0.635
X-2.519 Y18.704 Z-0.636
X-2.492 Y18.713 Z-0.637
X-2.473 Y18.733 Z-0.638
X-2.464 Y18.759 Z-0.639
X-2.467 Y18.787 Z-0.64
X-2.481 Y18.811 Z-0.641
X-3.542 Y19.871 Z-0.693
X-3.566 Y19.886 Z-0.694
X-3.593 Y19.889 Z-0.695
X-3.62 Y19.88 Z-0.696
X-3.639 Y19.86 Z-0.697
X-3.648 Y19.834 Z-0.698
X-3.645 Y19.806 Z-0.699
X-3.63 Y19.783 Z-0.7
X-2.57 Y18.722 Z-0.753
X-2.546 Y18.707 Z-0.754
X-2.519 Y18.704 Z-0.755
X-2.492 Y18.713
X-2.473 Y18.733 Z-0.756
X-2.464 Y18.759 Z-0.757
X-2.467 Y18.787 Z-0.758
X-2.481 Y18.811 Z-0.759
X-3.542 Y19.871 Z-0.812
X-3.566 Y19.886 Z-0.813
X-3.593 Y19.889 Z-0.814
X-3.62 Y19.88 Z-0.815
X-3.639 Y19.86 Z-0.816
X-3.648 Y19.834 Z-0.817
X-3.645 Y19.806 Z-0.818
X-3.63 Y19.783 Z-0.819
X-2.57 Y18.722 Z-0.871
X-2.546 Y18.707 Z-0.872
X-2.519 Y18.704 Z-0.873
X-2.492 Y18.713 Z-0.874
X-2.473 Y18.733 Z-0.875
X-2.464 Y18.759 Z-0.876
X-2.467 Y18.787 Z-0.877
X-2.481 Y18.811 Z-0.878
X-3.542 Y19.871 Z-0.93
X-3.566 Y19.886 Z-0.931
X-3.593 Y19.889 Z-0.932
X-3.62 Y19.88 Z-0.933
X-3.639 Y19.86 Z-0.934
X-3.648 Y19.834 Z-0.935
X-3.645 Y19.806 Z-0.936
X-3.63 Y19.783 Z-0.937
X-2.57 Y18.722 Z-0.99
X-2.546 Y18.707
X-2.519 Y18.704 Z-0.991
X-2.492 Y18.713 Z-0.992
X-2.473 Y18.733 Z-0.993
X-2.464 Y18.759 Z-0.994
X-2.467 Y18.787 Z-0.995
X-2.481 Y18.811 Z-0.996
X-3.542 Y19.871 Z-1.049
X-3.566 Y19.886 Z-1.05
X-3.593 Y19.889 Z-1.051
X-3.62 Y19.88 Z-1.052
X-3.639 Y19.86 Z-1.053
X-3.648 Y19.834 Z-1.054
X-3.645 Y19.806 Z-1.055
X-3.63 Y19.783 Z-1.056
X-2.57 Y18.722 Z-1.108
X-2.546 Y18.707 Z-1.109
X-2.519 Y18.704 Z-1.11
X-2.492 Y18.713 Z-1.111
X-2.473 Y18.733 Z-1.112
X-2.464 Y18.759 Z-1.113
X-2.467 Y18.787 Z-1.114
X-2.481 Y18.811 Z-1.115
X-3.542 Y19.871 Z-1.167
X-3.566 Y19.886 Z-1.168
X-3.593 Y19.889 Z-1.169
X-3.62 Y19.88 Z-1.17
X-3.639 Y19.86 Z-1.171
X-3.648 Y19.834 Z-1.172
X-3.645 Y19.806 Z-1.173
X-3.63 Y19.783 Z-1.174
X-2.57 Y18.722 Z-1.226
X-2.546 Y18.707 Z-1.227
X-2.519 Y18.704 Z-1.228
X-2.492 Y18.713 Z-1.229
X-2.473 Y18.733 Z-1.23
X-2.464 Y18.759 Z-1.231
X-2.467 Y18.787 Z-1.232
X-2.481 Y18.811 Z-1.233
X-3.542 Y19.871 Z-1.286
X-3.566 Y19.886 Z-1.287
X-3.593 Y19.889 Z-1.288
X-3.62 Y19.88 Z-1.289
X-3.639 Y19.86 Z-1.29
X-3.648 Y19.834 Z-1.291
X-3.645 Y19.806 Z-1.292
X-3.63 Y19.783 Z-1.293
X-2.57 Y18.722 Z-1.345
X-2.546 Y18.707 Z-1.346
X-2.519 Y18.704 Z-1.347
X-2.492 Y18.713 Z-1.348
X-2.473 Y18.733 Z-1.349
X-2.464 Y18.759 Z-1.35
X-2.467 Y18.787 Z-1.351
X-2.481 Y18.811 Z-1.352
X-3.542 Y19.871 Z-1.404
X-3.566 Y19.886 Z-1.405
X-3.593 Y19.889 Z-1.406
X-3.62 Y19.88 Z-1.407
X-3.639 Y19.86 Z-1.408
X-3.648 Y19.834 Z-1.409
X-3.645 Y19.806 Z-1.41
X-3.63 Y19.783 Z-1.411
X-2.57 Y18.722 Z-1.463
X-2.546 Y18.707 Z-1.464
X-2.519 Y18.704 Z-1.465
X-2.492 Y18.713 Z-1.466
X-2.473 Y18.733 Z-1.467
X-2.464 Y18.759 Z-1.468
X-2.467 Y18.787 Z-1.469
X-2.481 Y18.811 Z-1.47
X-3.542 Y19.871 Z-1.523
X-3.566 Y19.886 Z-1.524
X-3.593 Y19.889 Z-1.525
X-3.62 Y19.88 Z-1.526
X-3.639 Y19.86 Z-1.527
X-3.648 Y19.834 Z-1.528
X-3.645 Y19.806 Z-1.529
X-3.63 Y19.783 Z-1.53
X-2.57 Y18.722 Z-1.582
X-2.546 Y18.707 Z-1.583
X-2.519 Y18.704 Z-1.584
X-2.492 Y18.713 Z-1.585
X-2.473 Y18.733 Z-1.586
X-2.464 Y18.759 Z-1.587
X-2.467 Y18.787 Z-1.588
X-2.481 Y18.811 Z-1.589
X-3.542 Y19.871 Z-1.641
X-3.566 Y19.886 Z-1.642
X-3.593 Y19.889 Z-1.643
X-3.62 Y19.88 Z-1.644
X-3.639 Y19.86 Z-1.645
X-3.648 Y19.834 Z-1.646
X-3.645 Y19.806 Z-1.647
X-3.63 Y19.783 Z-1.648
X-2.57 Y18.722 Z-1.7
X-2.546 Y18.707 Z-1.701
X-2.519 Y18.704 Z-1.702
X-2.492 Y18.713 Z-1.703
X-2.473 Y18.733 Z-1.704
X-2.464 Y18.759 Z-1.705
X-2.467 Y18.787 Z-1.706
X-2.481 Y18.811 Z-1.707
X-3.542 Y19.871 Z-1.76
X-3.566 Y19.886 Z-1.761
X-3.593 Y19.889 Z-1.762
X-3.62 Y19.88 Z-1.763
X-3.639 Y19.86 Z-1.764
X-3.648 Y19.834 Z-1.765
X-3.645 Y19.806
X-3.63 Y19.783 Z-1.766
X-2.57 Y18.722 Z-1.819
X-2.546 Y18.707 Z-1.82
X-2.519 Y18.704 Z-1.821
X-2.492 Y18.713 Z-1.822
X-2.473 Y18.733 Z-1.823
X-2.464 Y18.759 Z-1.824
X-2.467 Y18.787 Z-1.825
X-2.481 Y18.811 Z-1.826
X-3.542 Y19.871 Z-1.878
X-3.566 Y19.886 Z-1.879
X-3.593 Y19.889 Z-1.88
X-3.62 Y19.88 Z-1.881
X-3.639 Y19.86 Z-1.882
X-3.648 Y19.834 Z-1.883
X-3.645 Y19.806 Z-1.884
X-3.63 Y19.783 Z-1.885
X-2.57 Y18.722 Z-1.937
X-2.546 Y18.707 Z-1.938
X-2.519 Y18.704 Z-1.939
X-2.492 Y18.713 Z-1.94
X-2.473 Y18.733 Z-1.941
X-2.464 Y18.759 Z-1.942
X-2.467 Y18.787 Z-1.943
X-2.481 Y18.811 Z-1.944
X-3.542 Y19.871 Z-1.997
X-3.562 Y19.885
X-3.586 Y19.89 Z-1.998
X-3.61 Y19.885 Z-1.999
X-3.63 Y19.871 Z-2
S6000
X-3.644 Y19.851 F1000
X-3.649 Y19.827
X-3.644 Y19.803
X-3.63 Y19.783
X-2.57 Y18.722
X-2.546 Y18.707
X-2.519 Y18.704
X-2.492 Y18.713
X-2.473 Y18.733
X-2.464 Y18.759
X-2.467 Y18.787
X-2.481 Y18.811
X-3.542 Y19.871
X-3.562 Y19.885
X-3.586 Y19.89
X-3.61 Y19.885
X-3.63 Y19.871
S5000
X-3.644 Y19.851 Z-2.001 F333.3
X-3.649 Y19.827 Z-2.002
X-3.644 Y19.803 Z-2.003
X-3.63 Y19.783
X-2.57 Y18.722 Z-2.056
X-2.546 Y18.707 Z-2.057
X-2.519 Y18.704 Z-2.058
X-2.492 Y18.713 Z-2.059
X-2.473 Y18.733 Z-2.06
X-2.464 Y18.759 Z-2.061
X-2.467 Y18.787 Z-2.062
X-2.481 Y18.811 Z-2.063
X-3.542 Y19.871 Z-2.115
X-3.566 Y19.886 Z-2.116
X-3.593 Y19.889 Z-2.117
X-3.62 Y19.88 Z-2.118
X-3.639 Y19.86 Z-2.119
X-3.648 Y19.834 Z-2.12
X-3.645 Y19.806 Z-2.121
X-3.63 Y19.783 Z-2.122
X-2.57 Y18.722 Z-2.174
X-2.546 Y18.707 Z-2.175
X-2.519 Y18.704 Z-2.176
X-2.492 Y18.713 Z-2.177
X-2.473 Y18.733 Z-2.178
X-2.464 Y18.759 Z-2.179
X-2.467 Y18.787 Z-2.18
X-2.481 Y18.811 Z-2.181
X-3.542 Y19.871 Z-2.234
X-3.566 Y19.886 Z-2.235
X-3.593 Y19.889
X-3.62 Y19.88 Z-2.236
X-3.639 Y19.86 Z-2.237
X-3.648 Y19.834 Z-2.238
X-3.645 Y19.806 Z-2.239
X-3.63 Y19.783 Z-2.24
X-2.57 Y18.722 Z-2.293
X-2.546 Y18.707 Z-2.294
X-2.519 Y18.704 Z-2.295
X-2.492 Y18.713 Z-2.296
X-2.473 Y18.733 Z-2.297
X-2.464 Y18.759 Z-2.298
X-2.467 Y18.787 Z-2.299
X-2.481 Y18.811 Z-2.3
X-3.542 Y19.871 Z-2.352
X-3.566 Y19.886 Z-2.353
X-3.593 Y19.889 Z-2.354
X-3.62 Y19.88 Z-2.355
X-3.639 Y19.86 Z-2.356
X-3.648 Y19.834 Z-2.357
X-3.645 Y19.806 Z-2.358
X-3.63 Y19.783 Z-2.359
X-2.57 Y18.722 Z-2.411
X-2.546 Y18.707 Z-2.412
X-2.519 Y18.704 Z-2.413
X-2.492 Y18.713 Z-2.414
X-2.473 Y18.733 Z-2.415
X-2.464 Y18.759 Z-2.416
X-2.467 Y18.787 Z-2.417
X-2.481 Y18.811 Z-2.418
X-3.542 Y19.871 Z-2.47
X-3.566 Y19.886 Z-2.471
X-3.593 Y19.889 Z-2.472
X-3.62 Y19.88 Z-2.473
X-3.639 Y19.86 Z-2.474
X-3.648 Y19.834 Z-2.475
X-3.645 Y19.806 Z-2.476
X-3.63 Y19.783 Z-2.477
X-2.57 Y18.722 Z-2.53
X-2.546 Y18.707 Z-2.531
X-2.519 Y18.704 Z-2.532
X-2.492 Y18.713 Z-2.533
X-2.473 Y18.733 Z-2.534
X-2.464 Y18.759 Z-2.535
X-2.467 Y18.787 Z-2.536
X-2.481 Y18.811 Z-2.537
X-3.542 Y19.871 Z-2.589
X-3.566 Y19.886 Z-2.59
X-3.593 Y19.889 Z-2.591
X-3.62 Y19.88 Z-2.592
X-3.639 Y19.86 Z-2.593
X-3.648 Y19.834 Z-2.594
X-3.645 Y19.806 Z-2.595
X-3.63 Y19.783 Z-2.596
X-2.57 Y18.722 Z-2.648
X-2.546 Y18.707 Z-2.649
X-2.519 Y18.704 Z-2.65
X-2.492 Y18.713 Z-2.651
X-2.473 Y18.733 Z-2.652
X-2.464 Y18.759 Z-2.653
X-2.467 Y18.787 Z-2.654
X-2.481 Y18.811 Z-2.655
X-3.542 Y19.871 Z-2.707
X-3.566 Y19.886 Z-2.708
X-3.593 Y19.889 Z-2.709
X-3.62 Y19.88 Z-2.71
X-3.639 Y19.86 Z-2.711
X-3.648 Y19.834 Z-2.712
X-3.645 Y19.806 Z-2.713
X-3.63 Y19.783 Z-2.714
X-2.57 Y18.722 Z-2.767
X-2.546 Y18.707 Z-2.768
X-2.519 Y18.704 Z-2.769
X-2.492 Y18.713 Z-2.77
X-2.473 Y18.733 Z-2.771
X-2.464 Y18.759 Z-2.772
X-2.467 Y18.787 Z-2.773
X-2.481 Y18.811 Z-2.774
X-3.542 Y19.871 Z-2.826
X-3.566 Y19.886 Z-2.827
X-3.593 Y19.889 Z-2.828
X-3.62 Y19.88 Z-2.829
X-3.639 Y19.86 Z-2.83
X-3.648 Y19.834 Z-2.831
X-3.645 Y19.806 Z-2.832
X-3.63 Y19.783 Z-2.833
X-2.57 Y18.722 Z-2.885
X-2.546 Y18.707 Z-2.886
X-2.519 Y18.704 Z-2.887
X-2.492 Y18.713 Z-2.888
X-2.473 Y18.733 Z-2.889
X-2.464 Y18.759 Z-2.89
X-2.467 Y18.787 Z-2.891
X-2.481 Y18.811 Z-2.892
X-3.542 Y19.871 Z-2.944
X-3.566 Y19.886 Z-2.945
X-3.593 Y19.889 Z-2.946
X-3.62 Y19.88 Z-2.947
X-3.639 Y19.86 Z-2.948
X-3.648 Y19.834 Z-2.949
X-3.645 Y19.806 Z-2.95
X-3.63 Y19.783 Z-2.951
X-2.57 Y18.722 Z-3.004
X-2.546 Y18.707 Z-3.005
X-2.519 Y18.704 Z-3.006
X-2.492 Y18.713 Z-3.007
X-2.473 Y18.733 Z-3.008
X-2.464 Y18.759 Z-3.009
X-2.467 Y18.787 Z-3.01
X-2.481 Y18.811
X-3.542 Y19.871 Z-3.063
X-3.566 Y19.886 Z-3.064
X-3.593 Y19.889 Z-3.065
X-3.62 Y19.88 Z-3.066
X-3.639 Y19.86 Z-3.067
X-3.648 Y19.834 Z-3.068
X-3.645 Y19.806 Z-3.069
X-3.63 Y19.783 Z-3.07
X-3.018 Y19.17 Z-3.1
S6000
X-2.57 Y18.722 F1000
X-2.546 Y18.707
X-2.519 Y18.704
X-2.492 Y18.713
X-2.473 Y18.733
X-2.464 Y18.759
X-2.467 Y18.787
X-2.481 Y18.811
X-3.542 Y19.871
X-3.566 Y19.886
X-3.593 Y19.889
X-3.62 Y19.88
X-3.639 Y19.86
X-3.648 Y19.834
X-3.645 Y19.806
X-3.63 Y19.783
X-3.018 Y19.17
S5000
X-2.57 Y18.722 Z-3.122 F333.3
X-2.546 Y18.707 Z-3.123
X-2.519 Y18.704 Z-3.124
X-2.492 Y18.713 Z-3.125
X-2.473 Y18.733 Z-3.126
X-2.464 Y18.759 Z-3.127
X-2.467 Y18.787 Z-3.128
X-2.481 Y18.811 Z-3.129
X-3.542 Y19.871 Z-3.181
X-3.566 Y19.886 Z-3.182
X-3.593 Y19.889 Z-3.183
X-3.62 Y19.88 Z-3.184
X-3.639 Y19.86 Z-3.185
X-3.648 Y19.834 Z-3.186
X-3.645 Y19.806 Z-3.187
X-3.63 Y19.783 Z-3.188
X-2.57 Y18.722 Z-3.241
X-2.546 Y18.707 Z-3.242
X-2.519 Y18.704 Z-3.243
X-2.492 Y18.713 Z-3.244
X-2.473 Y18.733 Z-3.245
X-2.464 Y18.759
X-2.467 Y18.787 Z-3.246
X-2.481 Y18.811 Z-3.247
X-3.542 Y19.871 Z-3.3
X-3.566 Y19.886 Z-3.301
X-3.593 Y19.889 Z-3.302
X-3.62 Y19.88 Z-3.303
X-3.639 Y19.86 Z-3.304
X-3.648 Y19.834 Z-3.305
X-3.645 Y19.806 Z-3.306
X-3.63 Y19.783 Z-3.307
X-2.57 Y18.722 Z-3.359
X-2.546 Y18.707 Z-3.36
X-2.519 Y18.704 Z-3.361
X-2.492 Y18.713 Z-3.362
X-2.473 Y18.733 Z-3.363
X-2.464 Y18.759 Z-3.364
X-2.467 Y18.787 Z-3.365
X-2.481 Y18.811 Z-3.366
X-3.542 Y19.871 Z-3.418
X-3.566 Y19.886 Z-3.419
X-3.593 Y19.889 Z-3.42
X-3.62 Y19.88 Z-3.421
X-3.639 Y19.86 Z-3.422
X-3.648 Y19.834 Z-3.423
X-3.645 Y19.806 Z-3.424
X-3.63 Y19.783 Z-3.425
X-2.57 Y18.722 Z-3.478
X-2.546 Y18.707 Z-3.479
X-2.519 Y18.704 Z-3.48
X-2.492 Y18.713
X-2.473 Y18.733 Z-3.481
X-2.464 Y18.759 Z-3.482
X-2.467 Y18.787 Z-3.483
X-2.481 Y18.811 Z-3.484
X-3.542 Y19.871 Z-3.537
X-3.566 Y19.886 Z-3.538
X-3.593 Y19.889 Z-3.539
X-3.62 Y19.88 Z-3.54
X-3.639 Y19.86 Z-3.541
X-3.648 Y19.834 Z-3.542
X-3.645 Y19.806 Z-3.543
X-3.63 Y19.783 Z-3.544
X-2.57 Y18.722 Z-3.596
X-2.546 Y18.707 Z-3.597
X-2.519 Y18.704 Z-3.598
X-2.492 Y18.713 Z-3.599
X-2.473 Y18.733 Z-3.6
X-2.464 Y18.759 Z-3.601
X-2.467 Y18.787 Z-3.602
X-2.481 Y18.811 Z-3.603
X-3.542 Y19.871 Z-3.655
X-3.566 Y19.886 Z-3.656
X-3.593 Y19.889 Z-3.657
X-3.62 Y19.88 Z-3.658
X-3.639 Y19.86 Z-3.659
X-3.648 Y19.834 Z-3.66
X-3.645 Y19.806 Z-3.661
X-3.63 Y19.783 Z-3.662
X-2.57 Y18.722 Z-3.715
X-2.546 Y18.707
X-2.519 Y18.704 Z-3.716
X-2.492 Y18.713 Z-3.717
X-2.473 Y18.733 Z-3.718
X-2.464 Y18.759 Z-3.719
X-2.467 Y18.787 Z-3.72
X-2.481 Y18.811 Z-3.721
X-3.542 Y19.871 Z-3.774
X-3.566 Y19.886 Z-3.775
X-3.593 Y19.889 Z-3.776
X-3.62 Y19.88 Z-3.777
X-3.639 Y19.86 Z-3.778
X-3.648 Y19.834 Z-3.779
X-3.645 Y19.806 Z-3.78
X-3.63 Y19.783 Z-3.781
X-2.57 Y18.722 Z-3.833
X-2.546 Y18.707 Z-3.834
X-2.519 Y18.704 Z-3.835
X-2.492 Y18.713 Z-3.836
X-2.473 Y18.733 Z-3.837
X-2.464 Y18.759 Z-3.838
X-2.467 Y18.787 Z-3.839
X-2.481 Y18.811 Z-3.84
X-3.542 Y19.871 Z-3.892
X-3.566 Y19.886 Z-3.893
X-3.593 Y19.889 Z-3.894
X-3.62 Y19.88 Z-3.895
X-3.639 Y19.86 Z-3.896
X-3.648 Y19.834 Z-3.897
X-3.645 Y19.806 Z-3.898
X-3.63 Y19.783 Z-3.899
X-2.57 Y18.722 Z-3.951
X-2.546 Y18.707 Z-3.952
X-2.519 Y18.704 Z-3.953
X-2.492 Y18.713 Z-3.954
X-2.473 Y18.733 Z-3.955
X-2.464 Y18.759 Z-3.956
X-2.467 Y18.787 Z-3.957
X-2.481 Y18.811 Z-3.958
X-3.542 Y19.871 Z-4.011
X-3.566 Y19.886 Z-4.012
X-3.593 Y19.889 Z-4.013
X-3.62 Y19.88 Z-4.014
X-3.639 Y19.86 Z-4.015
X-3.648 Y19.834 Z-4.016
X-3.645 Y19.806 Z-4.017
X-3.63 Y19.783 Z-4.018
X-2.57 Y18.722 Z-4.07
X-2.546 Y18.707 Z-4.071
X-2.519 Y18.704 Z-4.072
X-2.492 Y18.713 Z-4.073
X-2.473 Y18.733 Z-4.074
X-2.464 Y18.759 Z-4.075
X-2.467 Y18.787 Z-4.076
X-2.481 Y18.811 Z-4.077
X-3.542 Y19.871 Z-4.129
X-3.566 Y19.886 Z-4.13
X-3.593 Y19.889 Z-4.131
X-3.62 Y19.88 Z-4.132
X-3.639 Y19.86 Z-4.133
X-3.648 Y19.834 Z-4.134
X-3.645 Y19.806 Z-4.135
X-3.63 Y19.783 Z-4.136
X-2.57 Y18.722 Z-4.188
X-2.546 Y18.707 Z-4.189
X-2.519 Y18.704 Z-4.19
X-2.492 Y18.713 Z-4.191
X-2.473 Y18.733 Z-4.192
X-2.464 Y18.759 Z-4.193
X-2.467 Y18.787 Z-4.194
X-2.481 Y18.811 Z-4.195
X-2.577 Y18.906 Z-4.2
S6000
X-3.542 Y19.871 F1000
X-3.566 Y19.886
X-3.593 Y19.889
X-3.62 Y19.88
X-3.639 Y19.86
X-3.648 Y19.834
X-3.645 Y19.806
X-3.63 Y19.783
X-3.018 Y19.17
X-2.57 Y18.722
X-2.546 Y18.707
X-2.519 Y18.704
X-2.492 Y18.713
X-2.473 Y18.733
X-2.464 Y18.759
X-2.467 Y18.787
X-2.481 Y18.811
X-2.577 Y18.906
X-2.581 Y18.909
X-2.585 Y18.912 Z-4.199
X-2.589 Y18.913 Z-4.197
X-2.592 Y18.914 Z-4.194
X-2.596 Y18.915 Z-4.191
X-2.599 Z-4.188
X-2.601 Z-4.184
X-2.603 Z-4.179
X-2.604 Y18.914 Z-4.175
X-2.605 Z-4.17
Z5
X8.726 Y18.759
Z3 F333.3
Z2.5
S5000
X8.736 Y18.733 Z2.499
X8.755 Y18.713 Z2.498
X8.781 Y18.704 Z2.497
X8.809 Y18.707 Z2.496
X8.832 Y18.722 Z2.495
X9.893 Y19.783 Z2.443
X9.908 Y19.806 Z2.442
X9.911 Y19.834 Z2.441
X9.902 Y19.86 Z2.44
X9.882 Y19.88 Z2.439
X9.856 Y19.889 Z2.438
X9.828 Y19.886 Z2.437
X9.805 Y19.871 Z2.436
X8.744 Y18.811 Z2.384
X8.729 Y18.787 Z2.383
X8.726 Y18.759 Z2.382
X8.735 Y18.733 Z2.381
X8.755 Y18.713 Z2.38
X8.781 Y18.704 Z2.379
X8.809 Y18.707 Z2.378
X8.832 Y18.722 Z2.377
X9.893 Y19.783 Z2.324
X9.908 Y19.806 Z2.323
X9.911 Y19.834 Z2.322
X9.902 Y19.86 Z2.321
X9.882 Y19.88 Z2.32
X9.856 Y19.889 Z2.319
X9.828 Y19.886 Z2.318
X9.805 Y19.871 Z2.317
X8.744 Y18.811 Z2.265
X8.729 Y18.787 Z2.264
X8.726 Y18.759 Z2.263
X8.735 Y18.733 Z2.262
X8.755 Y18.713 Z2.261
X8.781 Y18.704 Z2.26
X8.809 Y18.707 Z2.259
X8.832 Y18.722 Z2.258
X9.893 Y19.783 Z2.206
X9.908 Y19.806 Z2.205
X9.911 Y19.834 Z2.204
X9.902 Y19.86 Z2.203
X9.882 Y19.88 Z2.202
X9.856 Y19.889 Z2.201
X9.828 Y19.886 Z2.2
X9.805 Y19.871 Z2.199
X8.744 Y18.811 Z2.147
X8.729 Y18.787 Z2.146
X8.726 Y18.759 Z2.145
X8.735 Y18.733 Z2.144
X8.755 Y18.713 Z2.143
X8.781 Y18.704 Z2.142
X8.809 Y18.707 Z2.141
X8.832 Y18.722 Z2.14
X9.893 Y19.783 Z2.087
X9.908 Y19.806 Z2.086
X9.911 Y19.834 Z2.085
X9.902 Y19.86 Z2.084
X9.882 Y19.88 Z2.083
X9.856 Y19.889 Z2.082
X9.828 Y19.886 Z2.081
X9.805 Y19.871 Z2.08
X8.744 Y18.811 Z2.028
X8.729 Y18.787 Z2.027
X8.726 Y18.759 Z2.026
X8.735 Y18.733 Z2.025
X8.755 Y18.713 Z2.024
X8.781 Y18.704 Z2.023
X8.809 Y18.707 Z2.022
X8.832 Y18.722 Z2.021
X9.893 Y19.783 Z1.969
X9.908 Y19.806 Z1.968
X9.911 Y19.834 Z1.967
X9.902 Y19.86 Z1.966
X9.882 Y19.88 Z1.965
X9.856 Y19.889 Z1.964
X9.828 Y19.886 Z1.963
X9.805 Y19.871 Z1.962
X8.744 Y18.811 Z1.91
X8.729 Y18.787 Z1.909
X8.726 Y18.759 Z1.908
X8.735 Y18.733 Z1.907
X8.755 Y18.713 Z1.906
X8.781 Y18.704 Z1.905
X8.809 Y18.707 Z1.904
X8.832 Y18.722 Z1.903
X9.893 Y19.783 Z1.85
X9.908 Y19.806 Z1.849
X9.911 Y19.834 Z1.848
X9.902 Y19.86 Z1.847
X9.882 Y19.88 Z1.846
X9.856 Y19.889 Z1.845
X9.828 Y19.886
X9.805 Y19.871 Z1.844
X8.744 Y18.811 Z1.791
X8.729 Y18.787 Z1.79
X8.726 Y18.759 Z1.789
X8.735 Y18.733 Z1.788
X8.755 Y18.713 Z1.787
X8.781 Y18.704 Z1.786
X8.809 Y18.707 Z1.785
X8.832 Y18.722 Z1.784
X9.893 Y19.783 Z1.732
X9.908 Y19.806 Z1.731
X9.911 Y19.834 Z1.73
X9.902 Y19.86 Z1.729
X9.882 Y19.88 Z1.728
X9.856 Y19.889 Z1.727
X9.828 Y19.886 Z1.726
X9.805 Y19.871 Z1.725
X8.744 Y18.811 Z1.673
X8.729 Y18.787 Z1.672
X8.726 Y18.759 Z1.671
X8.735 Y18.733 Z1.67
X8.755 Y18.713 Z1.669
X8.781 Y18.704 Z1.668
X8.809 Y18.707 Z1.667
X8.832 Y18.722 Z1.666
X9.893 Y19.783 Z1.613
X9.908 Y19.806 Z1.612
X9.911 Y19.834 Z1.611
X9.902 Y19.86
X9.882 Y19.88 Z1.61
X9.856 Y19.889 Z1.609
X9.828 Y19.886 Z1.608
X9.805 Y19.871 Z1.607
X8.744 Y18.811 Z1.554
X8.729 Y18.787 Z1.553
X8.726 Y18.759 Z1.552
X8.735 Y18.733 Z1.551
X8.755 Y18.713 Z1.55
X8.781 Y18.704 Z1.549
X8.809 Y18.707 Z1.548
X8.832 Y18.722 Z1.547
X9.893 Y19.783 Z1.495
X9.908 Y19.806 Z1.494
X9.911 Y19.834 Z1.493
X9.902 Y19.86 Z1.492
X9.882 Y19.88 Z1.491
X9.856 Y19.889 Z1.49
X9.828 Y19.886 Z1.489
X9.805 Y19.871 Z1.488
X8.744 Y18.811 Z1.436
X8.729 Y18.787 Z1.435
X8.726 Y18.759 Z1.434
X8.735 Y18.733 Z1.433
X8.755 Y18.713 Z1.432
X8.781 Y18.704 Z1.431
X8.809 Y18.707 Z1.43
X8.832 Y18.722 Z1.429
X9.893 Y19.783 Z1.376
X9.908 Y19.806
X9.911 Y19.834 Z1.375
X9.902 Y19.86 Z1.374
X9.882 Y19.88 Z1.373
X9.856 Y19.889 Z1.372
X9.828 Y19.886 Z1.371
X9.805 Y19.871 Z1.37
X8.744 Y18.811 Z1.317
X8.729 Y18.787 Z1.316
X8.726 Y18.759 Z1.315
X8.735 Y18.733 Z1.314
X8.755 Y18.713 Z1.313
X8.781 Y18.704 Z1.312
X8.809 Y18.707 Z1.311
X8.832 Y18.722 Z1.31
X9.893 Y19.783 Z1.258
X9.908 Y19.806 Z1.257
X9.911 Y19.834 Z1.256
X9.902 Y19.86 Z1.255
X9.882 Y19.88 Z1.254
X9.856 Y19.889 Z1.253
X9.828 Y19.886 Z1.252
X9.805 Y19.871 Z1.251
X8.744 Y18.811 Z1.199
X8.729 Y18.787 Z1.198
X8.726 Y18.759 Z1.197
X8.735 Y18.733 Z1.196
X8.755 Y18.713 Z1.195
X8.781 Y18.704 Z1.194
X8.809 Y18.707 Z1.193
X8.832 Y18.722 Z1.192
X9.893 Y19.783 Z1.14
X9.908 Y19.806 Z1.139
X9.911 Y19.834 Z1.138
X9.902 Y19.86 Z1.137
X9.882 Y19.88 Z1.136
X9.856 Y19.889 Z1.135
X9.828 Y19.886 Z1.134
X9.805 Y19.871 Z1.133
X8.744 Y18.811 Z1.08
X8.729 Y18.787 Z1.079
X8.726 Y18.759 Z1.078
X8.735 Y18.733 Z1.077
X8.755 Y18.713 Z1.076
X8.781 Y18.704 Z1.075
X8.809 Y18.707 Z1.074
X8.832 Y18.722 Z1.073
X9.893 Y19.783 Z1.021
X9.908 Y19.806 Z1.02
X9.911 Y19.834 Z1.019
X9.902 Y19.86 Z1.018
X9.882 Y19.88 Z1.017
X9.856 Y19.889 Z1.016
X9.828 Y19.886 Z1.015
X9.805 Y19.871 Z1.014
X8.744 Y18.811 Z0.962
X8.729 Y18.787 Z0.961
X8.726 Y18.759 Z0.96
X8.735 Y18.733 Z0.959
X8.755 Y18.713 Z0.958
X8.781 Y18.704 Z0.957
X8.809 Y18.707 Z0.956
X8.832 Y18.722 Z0.955
X9.893 Y19.783 Z0.903
X9.908 Y19.806 Z0.902
X9.911 Y19.834 Z0.901
X9.902 Y19.86 Z0.9
X9.882 Y19.88 Z0.899
X9.856 Y19.889 Z0.898
X9.828 Y19.886 Z0.897
X9.805 Y19.871 Z0.896
X8.744 Y18.811 Z0.843
X8.729 Y18.787 Z0.842
X8.726 Y18.759 Z0.841
X8.735 Y18.733 Z0.84
X8.755 Y18.713 Z0.839
X8.781 Y18.704 Z0.838
X8.809 Y18.707 Z0.837
X8.832 Y18.722
X9.893 Y19.783 Z0.784
X9.908 Y19.806 Z0.783
X9.911 Y19.834 Z0.782
X9.902 Y19.86 Z0.781
X9.882 Y19.88 Z0.78
X9.856 Y19.889 Z0.779
X9.828 Y19.886 Z0.778
X9.805 Y19.871 Z0.777
X8.744 Y18.811 Z0.725
X8.729 Y18.787 Z0.724
X8.726 Y18.759 Z0.723
X8.735 Y18.733 Z0.722
X8.755 Y18.713 Z0.721
X8.781 Y18.704 Z0.72
X8.809 Y18.707 Z0.719
X8.832 Y18.722 Z0.718
X9.893 Y19.783 Z0.666
X9.908 Y19.806 Z0.665
X9.911 Y19.834 Z0.664
X9.902 Y19.86 Z0.663
X9.882 Y19.88 Z0.662
X9.856 Y19.889 Z0.661
X9.828 Y19.886 Z0.66
X9.805 Y19.871 Z0.659
X8.744 Y18.811 Z0.606
X8.729 Y18.787 Z0.605
X8.726 Y18.759 Z0.604
X8.735 Y18.733 Z0.603
X8.755 Y18.713 Z0.602
X8.781 Y18.704
X8.809 Y18.707 Z0.601
X8.832 Y18.722 Z0.6
X9.893 Y19.783 Z0.547
X9.908 Y19.806 Z0.546
X9.911 Y19.834 Z0.545
X9.902 Y19.86 Z0.544
X9.882 Y19.88 Z0.543
X9.856 Y19.889 Z0.542
X9.828 Y19.886 Z0.541
X9.805 Y19.871 Z0.54
X8.744 Y18.811 Z0.488
X8.729 Y18.787 Z0.487
X8.726 Y18.759 Z0.486
X8.735 Y18.733 Z0.485
X8.755 Y18.713 Z0.484
X8.781 Y18.704 Z0.483
X8.809 Y18.707 Z0.482
X8.832 Y18.722 Z0.481
X9.893 Y19.783 Z0.429
X9.908 Y19.806 Z0.428
X9.911 Y19.834 Z0.427
X9.902 Y19.86 Z0.426
X9.882 Y19.88 Z0.425
X9.856 Y19.889 Z0.424
X9.828 Y19.886 Z0.423
X9.805 Y19.871 Z0.422
X8.744 Y18.811 Z0.369
X8.729 Y18.787 Z0.368
X8.726 Y18.759
X8.735 Y18.733 Z0.367
X8.755 Y18.713 Z0.366
X8.781 Y18.704 Z0.365
X8.809 Y18.707 Z0.364
X8.832 Y18.722 Z0.363
X9.893 Y19.783 Z0.31
X9.908 Y19.806 Z0.309
X9.911 Y19.834 Z0.308
X9.902 Y19.86 Z0.307
X9.882 Y19.88 Z0.306
X9.856 Y19.889 Z0.305
X9.828 Y19.886 Z0.304
X9.805 Y19.871 Z0.303
X8.744 Y18.811 Z0.251
X8.729 Y18.787 Z0.25
X8.726 Y18.759 Z0.249
X8.735 Y18.733 Z0.248
X8.755 Y18.713 Z0.247
X8.781 Y18.704 Z0.246
X8.809 Y18.707 Z0.245
X8.832 Y18.722 Z0.244
X9.893 Y19.783 Z0.192
X9.908 Y19.806 Z0.191
X9.911 Y19.834 Z0.19
X9.902 Y19.86 Z0.189
X9.882 Y19.88 Z0.188
X9.856 Y19.889 Z0.187
X9.828 Y19.886 Z0.186
X9.805 Y19.871 Z0.185
X8.744 Y18.811 Z0.133
X8.729 Y18.787 Z0.132
X8.726 Y18.759 Z0.131
X8.735 Y18.733 Z0.13
X8.755 Y18.713 Z0.129
X8.781 Y18.704 Z0.128
X8.809 Y18.707 Z0.127
X8.832 Y18.722 Z0.126
X9.893 Y19.783 Z0.073
X9.908 Y19.806 Z0.072
X9.911 Y19.834 Z0.071
X9.902 Y19.86 Z0.07
X9.882 Y19.88 Z0.069
X9.856 Y19.889 Z0.068
X9.828 Y19.886 Z0.067
X9.805 Y19.871 Z0.066
X8.744 Y18.811 Z0.014
X8.729 Y18.787 Z0.013
X8.726 Y18.759 Z0.012
X8.735 Y18.733 Z0.011
X8.755 Y18.713 Z0.01
X8.781 Y18.704 Z0.009
X8.809 Y18.707 Z0.008
X8.832 Y18.722 Z0.007
X9.893 Y19.783 Z-0.045
X9.908 Y19.806 Z-0.046
X9.911 Y19.834 Z-0.047
X9.902 Y19.86 Z-0.048
X9.882 Y19.88 Z-0.049
X9.856 Y19.889 Z-0.05
X9.828 Y19.886 Z-0.051
X9.805 Y19.871 Z-0.052
X8.744 Y18.811 Z-0.104
X8.729 Y18.787 Z-0.105
X8.726 Y18.759 Z-0.106
X8.735 Y18.733 Z-0.107
X8.755 Y18.713 Z-0.108
X8.781 Y18.704 Z-0.109
X8.809 Y18.707 Z-0.11
X8.832 Y18.722 Z-0.111
X9.893 Y19.783 Z-0.164
X9.908 Y19.806 Z-0.165
X9.911 Y19.834 Z-0.166
X9.902 Y19.86 Z-0.167
X9.882 Y19.88 Z-0.168
X9.856 Y19.889 Z-0.169
X9.828 Y19.886 Z-0.17
X9.805 Y19.871 Z-0.171
X8.744 Y18.811 Z-0.223
X8.729 Y18.787 Z-0.224
X8.726 Y18.759 Z-0.225
X8.735 Y18.733 Z-0.226
X8.755 Y18.713 Z-0.227
X8.781 Y18.704 Z-0.228
X8.809 Y18.707 Z-0.229
X8.832 Y18.722 Z-0.23
X9.893 Y19.783 Z-0.282
X9.908 Y19.806 Z-0.283
X9.911 Y19.834 Z-0.284
X9.902 Y19.86 Z-0.285
X9.882 Y19.88 Z-0.286
X9.856 Y19.889 Z-0.287
X9.828 Y19.886 Z-0.288
X9.805 Y19.871 Z-0.289
X8.744 Y18.811 Z-0.341
X8.729 Y18.787 Z-0.342
X8.726 Y18.759 Z-0.343
X8.735 Y18.733 Z-0.344
X8.755 Y18.713 Z-0.345
X8.781 Y18.704 Z-0.346
X8.809 Y18.707 Z-0.347
X8.832 Y18.722 Z-0.348
X9.893 Y19.783 Z-0.401
X9.908 Y19.806 Z-0.402
X9.911 Y19.834 Z-0.403
X9.902 Y19.86 Z-0.404
X9.882 Y19.88 Z-0.405
X9.856 Y19.889 Z-0.406
X9.828 Y19.886
X9.805 Y19.871 Z-0.407
X8.744 Y18.811 Z-0.46
X8.729 Y18.787 Z-0.461
X8.726 Y18.759 Z-0.462
X8.735 Y18.733 Z-0.463
X8.755 Y18.713 Z-0.464
X8.781 Y18.704 Z-0.465
X8.809 Y18.707 Z-0.466
X8.832 Y18.722 Z-0.467
X9.893 Y19.783 Z-0.519
X9.908 Y19.806 Z-0.52
X9.911 Y19.834 Z-0.521
X9.902 Y19.86 Z-0.522
X9.882 Y19.88 Z-0.523
X9.856 Y19.889 Z-0.524
X9.828 Y19.886 Z-0.525
X9.805 Y19.871 Z-0.526
X8.744 Y18.811 Z-0.578
X8.729 Y18.787 Z-0.579
X8.726 Y18.759 Z-0.58
X8.735 Y18.733 Z-0.581
X8.755 Y18.713 Z-0.582
X8.781 Y18.704 Z-0.583
X8.809 Y18.707 Z-0.584
X8.832 Y18.722 Z-0.585
X9.893 Y19.783 Z-0.638
X9.908 Y19.806 Z-0.639
X9.911 Y19.834 Z-0.64
X9.902 Y19.86
X9.882 Y19.88 Z-0.641
X9.856 Y19.889 Z-0.642
X9.828 Y19.886 Z-0.643
X9.805 Y19.871 Z-0.644
X8.744 Y18.811 Z-0.697
X8.729 Y18.787 Z-0.698
X8.726 Y18.759 Z-0.699
X8.735 Y18.733 Z-0.7
X8.755 Y18.713 Z-0.701
X8.781 Y18.704 Z-0.702
X8.809 Y18.707 Z-0.703
X8.832 Y18.722 Z-0.704
X9.893 Y19.783 Z-0.756
X9.908 Y19.806 Z-0.757
X9.911 Y19.834 Z-0.758
X9.902 Y19.86 Z-0.759
X9.882 Y19.88 Z-0.76
X9.856 Y19.889 Z-0.761
X9.828 Y19.886 Z-0.762
X9.805 Y19.871 Z-0.763
X8.744 Y18.811 Z-0.815
X8.729 Y18.787 Z-0.816
X8.726 Y18.759 Z-0.817
X8.735 Y18.733 Z-0.818
X8.755 Y18.713 Z-0.819
X8.781 Y18.704 Z-0.82
X8.809 Y18.707 Z-0.821
X8.832 Y18.722 Z-0.822
X9.893 Y19.783 Z-0.875
X9.908 Y19.806
X9.911 Y19.834 Z-0.876
X9.902 Y19.86 Z-0.877
X9.882 Y19.88 Z-0.878
X9.856 Y19.889 Z-0.879
X9.828 Y19.886 Z-0.88
X9.805 Y19.871 Z-0.881
X8.744 Y18.811 Z-0.934
X8.729 Y18.787 Z-0.935
X8.726 Y18.759 Z-0.936
X8.735 Y18.733 Z-0.937
X8.755 Y18.713 Z-0.938
X8.781 Y18.704 Z-0.939
X8.809 Y18.707 Z-0.94
X8.832 Y18.722 Z-0.941
X9.893 Y19.783 Z-0.993
X9.908 Y19.806 Z-0.994
X9.911 Y19.834 Z-0.995
X9.902 Y19.86 Z-0.996
X9.882 Y19.88 Z-0.997
X9.856 Y19.889 Z-0.998
X9.828 Y19.886 Z-0.999
X9.805 Y19.871 Z-1
X8.744 Y18.811 Z-1.052
X8.729 Y18.787 Z-1.053
X8.726 Y18.759 Z-1.054
X8.735 Y18.733 Z-1.055
X8.755 Y18.713 Z-1.056
X8.781 Y18.704 Z-1.057
X8.809 Y18.707 Z-1.058
X8.832 Y18.722 Z-1.059
X9.893 Y19.783 Z-1.111
X9.908 Y19.806 Z-1.112
X9.911 Y19.834 Z-1.113
X9.902 Y19.86 Z-1.114
X9.882 Y19.88 Z-1.115
X9.856 Y19.889 Z-1.116
X9.828 Y19.886 Z-1.117
X9.805 Y19.871 Z-1.118
X8.744 Y18.811 Z-1.171
X8.729 Y18.787 Z-1.172
X8.726 Y18.759 Z-1.173
X8.735 Y18.733 Z-1.174
X8.755 Y18.713 Z-1.175
X8.781 Y18.704 Z-1.176
X8.809 Y18.707 Z-1.177
X8.832 Y18.722 Z-1.178
X9.893 Y19.783 Z-1.23
X9.908 Y19.806 Z-1.231
X9.911 Y19.834 Z-1.232
X9.902 Y19.86 Z-1.233
X9.882 Y19.88 Z-1.234
X9.856 Y19.889 Z-1.235
X9.828 Y19.886 Z-1.236
X9.805 Y19.871 Z-1.237
X8.744 Y18.811 Z-1.289
X8.729 Y18.787 Z-1.29
X8.726 Y18.759 Z-1.291
X8.735 Y18.733 Z-1.292
X8.755 Y18.713 Z-1.293
X8.781 Y18.704 Z-1.294
X8.809 Y18.707 Z-1.295
X8.832 Y18.722 Z-1.296
X9.893 Y19.783 Z-1.348
X9.908 Y19.806 Z-1.349
X9.911 Y19.834 Z-1.35
X9.902 Y19.86 Z-1.351
X9.882 Y19.88 Z-1.352
X9.856 Y19.889 Z-1.353
X9.828 Y19.886 Z-1.354
X9.805 Y19.871 Z-1.355
X8.744 Y18.811 Z-1.408
X8.729 Y18.787 Z-1.409
X8.726 Y18.759 Z-1.41
X8.735 Y18.733 Z-1.411
X8.755 Y18.713 Z-1.412
X8.781 Y18.704 Z-1.413
X8.809 Y18.707 Z-1.414
X8.832 Y18.722
X9.893 Y19.783 Z-1.467
X9.908 Y19.806 Z-1.468
X9.911 Y19.834 Z-1.469
X9.902 Y19.86 Z-1.47
X9.882 Y19.88 Z-1.471
X9.856 Y19.889 Z-1.472
X9.828 Y19.886 Z-1.473
X9.805 Y19.871 Z-1.474
X8.744 Y18.811 Z-1.526
X8.729 Y18.787 Z-1.527
X8.726 Y18.759 Z-1.528
X8.735 Y18.733 Z-1.529
X8.755 Y18.713 Z-1.53
X8.781 Y18.704 Z-1.531
X8.809 Y18.707 Z-1.532
X8.832 Y18.722 Z-1.533
X9.893 Y19.783 Z-1.585
X9.908 Y19.806 Z-1.586
X9.911 Y19.834 Z-1.587
X9.902 Y19.86 Z-1.588
X9.882 Y19.88 Z-1.589
X9.856 Y19.889 Z-1.59
X9.828 Y19.886 Z-1.591
X9.805 Y19.871 Z-1.592
X8.744 Y18.811 Z-1.645
X8.729 Y18.787 Z-1.646
X8.726 Y18.759 Z-1.647
X8.735 Y18.733 Z-1.648
X8.755 Y18.713
X8.781 Y18.704 Z-1.649
X8.809 Y18.707 Z-1.65
X8.832 Y18.722 Z-1.651
X9.893 Y19.783 Z-1.704
X9.908 Y19.806 Z-1.705
X9.911 Y19.834 Z-1.706
X9.902 Y19.86 Z-1.707
X9.882 Y19.88 Z-1.708
X9.856 Y19.889 Z-1.709
X9.828 Y19.886 Z-1.71
X9.805 Y19.871 Z-1.711
X8.744 Y18.811 Z-1.763
X8.729 Y18.787 Z-1.764
X8.726 Y18.759 Z-1.765
X8.735 Y18.733 Z-1.766
X8.755 Y18.713 Z-1.767
X8.781 Y18.704 Z-1.768
X8.809 Y18.707 Z-1.769
X8.832 Y18.722 Z-1.77
X9.893 Y19.783 Z-1.822
X9.908 Y19.806 Z-1.823
X9.911 Y19.834 Z-1.824
X9.902 Y19.86 Z-1.825
X9.882 Y19.88 Z-1.826
X9.856 Y19.889 Z-1.827
X9.828 Y19.886 Z-1.828
X9.805 Y19.871 Z-1.829
X8.744 Y18.811 Z-1.882
X8.729 Y18.787 Z-1.883
X8.726 Y18.759
X8.735 Y18.733 Z-1.884
X8.755 Y18.713 Z-1.885
X8.781 Y18.704 Z-1.886
X8.809 Y18.707 Z-1.887
X8.832 Y18.722 Z-1.888
X9.893 Y19.783 Z-1.941
X9.908 Y19.806 Z-1.942
X9.911 Y19.834 Z-1.943
X9.902 Y19.86 Z-1.944
X9.882 Y19.88 Z-1.945
X9.856 Y19.889 Z-1.946
X9.828 Y19.886 Z-1.947
X9.805 Y19.871 Z-1.948
X8.744 Y18.811 Z-2
S6000
X8.729 Y18.787 F1000
X8.726 Y18.759
X8.735 Y18.733
X8.755 Y18.713
X8.781 Y18.704
X8.809 Y18.707
X8.832 Y18.722
X9.893 Y19.783
X9.908 Y19.806
X9.911 Y19.834
X9.902 Y19.86
X9.882 Y19.88
X9.856 Y19.889
X9.828 Y19.886
X9.805 Y19.871
X8.744 Y18.811
S5000
X8.729 Y18.787 Z-2.001 F333.3
X8.726 Y18.759 Z-2.002
X8.735 Y18.733 Z-2.003
X8.755 Y18.713 Z-2.004
X8.781 Y18.704 Z-2.005
X8.809 Y18.707 Z-2.006
X8.832 Y18.722 Z-2.007
X9.893 Y19.783 Z-2.059
X9.908 Y19.806 Z-2.06
X9.911 Y19.834 Z-2.061
X9.902 Y19.86 Z-2.062
X9.882 Y19.88 Z-2.063
X9.856 Y19.889 Z-2.064
X9.828 Y19.886 Z-2.065
X9.805 Y19.871 Z-2.066
X8.744 Y18.811 Z-2.118
X8.729 Y18.787 Z-2.119
X8.726 Y18.759 Z-2.12
X8.735 Y18.733 Z-2.121
X8.755 Y18.713 Z-2.122
X8.781 Y18.704 Z-2.123
X8.809 Y18.707 Z-2.124
X8.832 Y18.722 Z-2.125
X9.893 Y19.783 Z-2.178
X9.908 Y19.806 Z-2.179
X9.911 Y19.834 Z-2.18
X9.902 Y19.86 Z-2.181
X9.882 Y19.88 Z-2.182
X9.856 Y19.889 Z-2.183
X9.828 Y19.886 Z-2.184
X9.805 Y19.871 Z-2.185
X8.744 Y18.811 Z-2.237
X8.729 Y18.787 Z-2.238
X8.726 Y18.759 Z-2.239
X8.735 Y18.733 Z-2.24
X8.755 Y18.713 Z-2.241
X8.781 Y18.704 Z-2.242
X8.809 Y18.707 Z-2.243
X8.832 Y18.722 Z-2.244
X9.893 Y19.783 Z-2.296
X9.908 Y19.806 Z-2.297
X9.911 Y19.834 Z-2.298
X9.902 Y19.86 Z-2.299
X9.882 Y19.88 Z-2.3
X9.856 Y19.889 Z-2.301
X9.828 Y19.886 Z-2.302
X9.805 Y19.871 Z-2.303
X8.744 Y18.811 Z-2.355
X8.729 Y18.787 Z-2.356
X8.726 Y18.759 Z-2.357
X8.735 Y18.733 Z-2.358
X8.755 Y18.713 Z-2.359
X8.781 Y18.704 Z-2.36
X8.809 Y18.707 Z-2.361
X8.832 Y18.722 Z-2.362
X9.893 Y19.783 Z-2.415
X9.908 Y19.806 Z-2.416
X9.911 Y19.834 Z-2.417
X9.902 Y19.86 Z-2.418
X9.882 Y19.88 Z-2.419
X9.856 Y19.889 Z-2.42
X9.828 Y19.886 Z-2.421
X9.805 Y19.871 Z-2.422
X8.744 Y18.811 Z-2.474
X8.729 Y18.787 Z-2.475
X8.726 Y18.759 Z-2.476
X8.735 Y18.733 Z-2.477
X8.755 Y18.713 Z-2.478
X8.781 Y18.704 Z-2.479
X8.809 Y18.707 Z-2.48
X8.832 Y18.722 Z-2.481
X9.893 Y19.783 Z-2.533
X9.908 Y19.806 Z-2.534
X9.911 Y19.834 Z-2.535
X9.902 Y19.86 Z-2.536
X9.882 Y19.88 Z-2.537
X9.856 Y19.889 Z-2.538
X9.828 Y19.886 Z-2.539
X9.805 Y19.871 Z-2.54
X8.744 Y18.811 Z-2.592
X8.729 Y18.787 Z-2.593
X8.726 Y18.759 Z-2.594
X8.735 Y18.733 Z-2.595
X8.755 Y18.713 Z-2.596
X8.781 Y18.704 Z-2.597
X8.809 Y18.707 Z-2.598
X8.832 Y18.722 Z-2.599
X9.893 Y19.783 Z-2.652
X9.908 Y19.806 Z-2.653
X9.911 Y19.834 Z-2.654
X9.902 Y19.86 Z-2.655
X9.882 Y19.88 Z-2.656
X9.856 Y19.889
X9.828 Y19.886 Z-2.657
X9.805 Y19.871 Z-2.658
X8.744 Y18.811 Z-2.711
X8.729 Y18.787 Z-2.712
X8.726 Y18.759 Z-2.713
X8.735 Y18.733 Z-2.714
X8.755 Y18.713 Z-2.715
X8.781 Y18.704 Z-2.716
X8.809 Y18.707 Z-2.717
X8.832 Y18.722 Z-2.718
X9.893 Y19.783 Z-2.77
X9.908 Y19.806 Z-2.771
X9.911 Y19.834 Z-2.772
X9.902 Y19.86 Z-2.773
X9.882 Y19.88 Z-2.774
X9.856 Y19.889 Z-2.775
X9.828 Y19.886 Z-2.776
X9.805 Y19.871 Z-2.777
X8.744 Y18.811 Z-2.829
X8.729 Y18.787 Z-2.83
X8.726 Y18.759 Z-2.831
X8.735 Y18.733 Z-2.832
X8.755 Y18.713 Z-2.833
X8.781 Y18.704 Z-2.834
X8.809 Y18.707 Z-2.835
X8.832 Y18.722 Z-2.836
X9.893 Y19.783 Z-2.889
X9.908 Y19.806 Z-2.89
X9.911 Y19.834 Z-2.891
X9.902 Y19.86
X9.882 Y19.88 Z-2.892
X9.856 Y19.889 Z-2.893
X9.828 Y19.886 Z-2.894
X9.805 Y19.871 Z-2.895
X8.744 Y18.811 Z-2.948
X8.729 Y18.787 Z-2.949
X8.726 Y18.759 Z-2.95
X8.735 Y18.733 Z-2.951
X8.755 Y18.713 Z-2.952
X8.781 Y18.704 Z-2.953
X8.809 Y18.707 Z-2.954
X8.832 Y18.722 Z-2.955
X9.893 Y19.783 Z-3.007
X9.908 Y19.806 Z-3.008
X9.911 Y19.834 Z-3.009
X9.902 Y19.86 Z-3.01
X9.882 Y19.88 Z-3.011
X9.856 Y19.889 Z-3.012
X9.828 Y19.886 Z-3.013
X9.805 Y19.871 Z-3.014
X8.744 Y18.811 Z-3.066
X8.729 Y18.787 Z-3.067
X8.726 Y18.759 Z-3.068
X8.735 Y18.733 Z-3.069
X8.755 Y18.713 Z-3.07
X8.781 Y18.704 Z-3.071
X8.809 Y18.707 Z-3.072
X8.832 Y18.722 Z-3.073
X9.377 Y19.267 Z-3.1
S6000
X9.893 Y19.783 F1000
X9.908 Y19.806
X9.911 Y19.834
X9.902 Y19.86
X9.882 Y19.88
X9.856 Y19.889
X9.828 Y19.886
X9.805 Y19.871
X8.744 Y18.811
X8.729 Y18.787
X8.726 Y18.759
X8.735 Y18.733
X8.755 Y18.713
X8.781 Y18.704
X8.809 Y18.707
X8.832 Y18.722
X9.377 Y19.267
S5000
X9.893 Y19.783 Z-3.125 F333.3
X9.908 Y19.806 Z-3.126
X9.911 Y19.834 Z-3.127
X9.902 Y19.86 Z-3.128
X9.882 Y19.88 Z-3.129
X9.856 Y19.889 Z-3.13
X9.828 Y19.886 Z-3.131
X9.805 Y19.871 Z-3.132
X8.744 Y18.811 Z-3.185
X8.729 Y18.787 Z-3.186
X8.726 Y18.759 Z-3.187
X8.735 Y18.733 Z-3.188
X8.755 Y18.713 Z-3.189
X8.781 Y18.704 Z-3.19
X8.809 Y18.707 Z-3.191
X8.832 Y18.722 Z-3.192
X9.893 Y19.783 Z-3.244
X9.908 Y19.806 Z-3.245
X9.911 Y19.834 Z-3.246
X9.902 Y19.86 Z-3.247
X9.882 Y19.88 Z-3.248
X9.856 Y19.889 Z-3.249
X9.828 Y19.886 Z-3.25
X9.805 Y19.871 Z-3.251
X8.744 Y18.811 Z-3.303
X8.729 Y18.787 Z-3.304
X8.726 Y18.759 Z-3.305
X8.735 Y18.733 Z-3.306
X8.755 Y18.713 Z-3.307
X8.781 Y18.704 Z-3.308
X8.809 Y18.707 Z-3.309
X8.832 Y18.722 Z-3.31
X9.893 Y19.783 Z-3.362
X9.908 Y19.806 Z-3.363
X9.911 Y19.834 Z-3.364
X9.902 Y19.86 Z-3.365
X9.882 Y19.88 Z-3.366
X9.856 Y19.889 Z-3.367
X9.828 Y19.886 Z-3.368
X9.805 Y19.871 Z-3.369
X8.744 Y18.811 Z-3.422
X8.729 Y18.787 Z-3.423
X8.726 Y18.759 Z-3.424
X8.735 Y18.733 Z-3.425
X8.755 Y18.713 Z-3.426
X8.781 Y18.704 Z-3.427
X8.809 Y18.707 Z-3.428
X8.832 Y18.722 Z-3.429
X9.893 Y19.783 Z-3.481
X9.908 Y19.806 Z-3.482
X9.911 Y19.834 Z-3.483
X9.902 Y19.86 Z-3.484
X9.882 Y19.88 Z-3.485
X9.856 Y19.889 Z-3.486
X9.828 Y19.886 Z-3.487
X9.805 Y19.871 Z-3.488
X8.744 Y18.811 Z-3.54
X8.729 Y18.787 Z-3.541
X8.726 Y18.759 Z-3.542
X8.735 Y18.733 Z-3.543
X8.755 Y18.713 Z-3.544
X8.781 Y18.704 Z-3.545
X8.809 Y18.707 Z-3.546
X8.832 Y18.722 Z-3.547
X9.893 Y19.783 Z-3.599
X9.908 Y19.806 Z-3.6
X9.911 Y19.834 Z-3.601
X9.902 Y19.86 Z-3.602
X9.882 Y19.88 Z-3.603
X9.856 Y19.889 Z-3.604
X9.828 Y19.886 Z-3.605
X9.805 Y19.871 Z-3.606
X8.744 Y18.811 Z-3.659
X8.729 Y18.787 Z-3.66
X8.726 Y18.759 Z-3.661
X8.735 Y18.733 Z-3.662
X8.755 Y18.713 Z-3.663
X8.781 Y18.704 Z-3.664
X8.809 Y18.707 Z-3.665
X8.832 Y18.722
X9.893 Y19.783 Z-3.718
X9.908 Y19.806 Z-3.719
X9.911 Y19.834 Z-3.72
X9.902 Y19.86 Z-3.721
X9.882 Y19.88 Z-3.722
X9.856 Y19.889 Z-3.723
X9.828 Y19.886 Z-3.724
X9.805 Y19.871 Z-3.725
X8.744 Y18.811 Z-3.777
X8.729 Y18.787 Z-3.778
X8.726 Y18.759 Z-3.779
X8.735 Y18.733 Z-3.78
X8.755 Y18.713 Z-3.781
X8.781 Y18.704 Z-3.782
X8.809 Y18.707 Z-3.783
X8.832 Y18.722 Z-3.784
X9.893 Y19.783 Z-3.836
X9.908 Y19.806 Z-3.837
X9.911 Y19.834 Z-3.838
X9.902 Y19.86 Z-3.839
X9.882 Y19.88 Z-3.84
X9.856 Y19.889 Z-3.841
X9.828 Y19.886 Z-3.842
X9.805 Y19.871 Z-3.843
X8.744 Y18.811 Z-3.896
X8.729 Y18.787 Z-3.897
X8.726 Y18.759 Z-3.898
X8.735 Y18.733 Z-3.899
X8.755 Y18.713
X8.781 Y18.704 Z-3.9
X8.809 Y18.707 Z-3.901
X8.832 Y18.722 Z-3.902
X9.893 Y19.783 Z-3.955
X9.908 Y19.806 Z-3.956
X9.911 Y19.834 Z-3.957
X9.902 Y19.86 Z-3.958
X9.882 Y19.88 Z-3.959
X9.856 Y19.889 Z-3.96
X9.828 Y19.886 Z-3.961
X9.805 Y19.871 Z-3.962
X8.744 Y18.811 Z-4.014
X8.729 Y18.787 Z-4.015
X8.726 Y18.759 Z-4.016
X8.735 Y18.733 Z-4.017
X8.755 Y18.713 Z-4.018
X8.781 Y18.704 Z-4.019
X8.809 Y18.707 Z-4.02
X8.832 Y18.722 Z-4.021
X9.893 Y19.783 Z-4.073
X9.908 Y19.806 Z-4.074
X9.911 Y19.834 Z-4.075
X9.902 Y19.86 Z-4.076
X9.882 Y19.88 Z-4.077
X9.856 Y19.889 Z-4.078
X9.828 Y19.886 Z-4.079
X9.805 Y19.871 Z-4.08
X8.744 Y18.811 Z-4.133
X8.729 Y18.787
X8.726 Y18.759 Z-4.134
X8.735 Y18.733 Z-4.135
X8.755 Y18.713 Z-4.136
X8.781 Y18.704 Z-4.137
X8.809 Y18.707 Z-4.138
X8.832 Y18.722 Z-4.139
X9.893 Y19.783 Z-4.192
X9.908 Y19.806 Z-4.193
X9.911 Y19.834 Z-4.194
X9.902 Y19.86 Z-4.195
X9.882 Y19.88 Z-4.196
X9.856 Y19.889 Z-4.197
X9.828 Y19.886 Z-4.198
X9.805 Y19.871 Z-4.199
X9.776 Y19.843 Z-4.2
S6000
X8.744 Y18.811 F1000
X8.729 Y18.787
X8.726 Y18.759
X8.735 Y18.733
X8.755 Y18.713
X8.781 Y18.704
X8.809 Y18.707
X8.832 Y18.722
X9.377 Y19.267
X9.893 Y19.783
X9.908 Y19.806
X9.911 Y19.834
X9.902 Y19.86
X9.882 Y19.88
X9.856 Y19.889
X9.828 Y19.886
X9.805 Y19.871
X9.776 Y19.843
X9.773 Y19.84
X9.771 Y19.836 Z-4.199
X9.769 Y19.832 Z-4.197
X9.768 Y19.828 Z-4.194
Y19.825 Z-4.191
Y19.821 Z-4.188
Y19.819 Z-4.184
Y19.817 Z-4.179
Y19.816 Z-4.175
Z-4.17
Z5
X8.786 Y7.367
Z3 F333.3
Z2.5
S5000
X9.805 Y6.348 Z2.45
X9.828 Y6.333 Z2.449
X9.856 Y6.33 Z2.448
X9.882 Y6.339 Z2.447
X9.902 Y6.359 Z2.446
X9.911 Y6.385 Z2.445
X9.908 Y6.413 Z2.444
X9.893 Y6.436 Z2.443
X8.832 Y7.497 Z2.39
X8.809 Y7.512 Z2.389
X8.781 Y7.515 Z2.388
X8.755 Y7.506
X8.735 Y7.486 Z2.387
X8.726 Y7.46 Z2.386
X8.729 Y7.432 Z2.385
X8.744 Y7.409 Z2.384
X9.805 Y6.348 Z2.331
X9.828 Y6.333 Z2.33
X9.856 Y6.33 Z2.329
X9.882 Y6.339 Z2.328
X9.902 Y6.359 Z2.327
X9.911 Y6.385 Z2.326
X9.908 Y6.413 Z2.325
X9.893 Y6.436 Z2.324
X8.832 Y7.497 Z2.272
X8.809 Y7.512 Z2.271
X8.781 Y7.515 Z2.27
X8.755 Y7.506 Z2.269
X8.735 Y7.486 Z2.268
X8.726 Y7.46 Z2.267
X8.729 Y7.432 Z2.266
X8.744 Y7.409 Z2.265
X9.805 Y6.348 Z2.213
X9.828 Y6.333 Z2.212
X9.856 Y6.33 Z2.211
X9.882 Y6.339 Z2.21
X9.902 Y6.359 Z2.209
X9.911 Y6.385 Z2.208
X9.908 Y6.413 Z2.207
X9.893 Y6.436 Z2.206
X8.832 Y7.497 Z2.153
X8.809 Y7.512
X8.781 Y7.515 Z2.152
X8.755 Y7.506 Z2.151
X8.735 Y7.486 Z2.15
X8.726 Y7.46 Z2.149
X8.729 Y7.432 Z2.148
X8.744 Y7.409 Z2.147
X9.805 Y6.348 Z2.094
X9.828 Y6.333 Z2.093
X9.856 Y6.33 Z2.092
X9.882 Y6.339 Z2.091
X9.902 Y6.359 Z2.09
X9.911 Y6.385 Z2.089
X9.908 Y6.413 Z2.088
X9.893 Y6.436 Z2.087
X8.832 Y7.497 Z2.035
X8.809 Y7.512 Z2.034
X8.781 Y7.515 Z2.033
X8.755 Y7.506 Z2.032
X8.735 Y7.486 Z2.031
X8.726 Y7.46 Z2.03
X8.729 Y7.432 Z2.029
X8.744 Y7.409 Z2.028
X9.805 Y6.348 Z1.976
X9.828 Y6.333 Z1.975
X9.856 Y6.33 Z1.974
X9.882 Y6.339 Z1.973
X9.902 Y6.359 Z1.972
X9.911 Y6.385 Z1.971
X9.908 Y6.413 Z1.97
X9.893 Y6.436 Z1.969
X8.832 Y7.497 Z1.917
X8.809 Y7.512 Z1.916
X8.781 Y7.515 Z1.915
X8.755 Y7.506 Z1.914
X8.735 Y7.486 Z1.913
X8.726 Y7.46 Z1.912
X8.729 Y7.432 Z1.911
X8.744 Y7.409 Z1.91
X9.805 Y6.348 Z1.857
X9.828 Y6.333 Z1.856
X9.856 Y6.33 Z1.855
X9.882 Y6.339 Z1.854
X9.902 Y6.359 Z1.853
X9.911 Y6.385 Z1.852
X9.908 Y6.413 Z1.851
X9.893 Y6.436 Z1.85
X8.832 Y7.497 Z1.798
X8.809 Y7.512 Z1.797
X8.781 Y7.515 Z1.796
X8.755 Y7.506 Z1.795
X8.735 Y7.486 Z1.794
X8.726 Y7.46 Z1.793
X8.729 Y7.432 Z1.792
X8.744 Y7.409 Z1.791
X9.805 Y6.348 Z1.739
X9.828 Y6.333 Z1.738
X9.856 Y6.33 Z1.737
X9.882 Y6.339 Z1.736
X9.902 Y6.359 Z1.735
X9.911 Y6.385 Z1.734
X9.908 Y6.413 Z1.733
X9.893 Y6.436 Z1.732
X8.832 Y7.497 Z1.68
X8.809 Y7.512 Z1.679
X8.781 Y7.515 Z1.678
X8.755 Y7.506 Z1.677
X8.735 Y7.486 Z1.676
X8.726 Y7.46 Z1.675
X8.729 Y7.432 Z1.674
X8.744 Y7.409 Z1.673
X9.805 Y6.348 Z1.62
X9.828 Y6.333 Z1.619
X9.856 Y6.33 Z1.618
X9.882 Y6.339 Z1.617
X9.902 Y6.359 Z1.616
X9.911 Y6.385 Z1.615
X9.908 Y6.413 Z1.614
X9.893 Y6.436 Z1.613
X8.832 Y7.497 Z1.561
X8.809 Y7.512 Z1.56
X8.781 Y7.515 Z1.559
X8.755 Y7.506 Z1.558
X8.735 Y7.486 Z1.557
X8.726 Y7.46 Z1.556
X8.729 Y7.432 Z1.555
X8.744 Y7.409 Z1.554
X9.805 Y6.348 Z1.502
X9.828 Y6.333 Z1.501
X9.856 Y6.33 Z1.5
X9.882 Y6.339 Z1.499
X9.902 Y6.359 Z1.498
X9.911 Y6.385 Z1.497
X9.908 Y6.413 Z1.496
X9.893 Y6.436 Z1.495
X8.832 Y7.497 Z1.443
X8.809 Y7.512 Z1.442
X8.781 Y7.515 Z1.441
X8.755 Y7.506 Z1.44
X8.735 Y7.486 Z1.439
X8.726 Y7.46 Z1.438
X8.729 Y7.432 Z1.437
X8.744 Y7.409 Z1.436
X9.805 Y6.348 Z1.383
X9.828 Y6.333 Z1.382
X9.856 Y6.33 Z1.381
X9.882 Y6.339 Z1.38
X9.902 Y6.359 Z1.379
X9.911 Y6.385
X9.908 Y6.413 Z1.378
X9.893 Y6.436 Z1.377
X8.832 Y7.497 Z1.324
X8.809 Y7.512 Z1.323
X8.781 Y7.515 Z1.322
X8.755 Y7.506 Z1.321
X8.735 Y7.486 Z1.32
X8.726 Y7.46 Z1.319
X8.729 Y7.432 Z1.318
X8.744 Y7.409 Z1.317
X9.805 Y6.348 Z1.265
X9.828 Y6.333 Z1.264
X9.856 Y6.33 Z1.263
X9.882 Y6.339 Z1.262
X9.902 Y6.359 Z1.261
X9.911 Y6.385 Z1.26
X9.908 Y6.413 Z1.259
X9.893 Y6.436 Z1.258
X8.832 Y7.497 Z1.206
X8.809 Y7.512 Z1.205
X8.781 Y7.515 Z1.204
X8.755 Y7.506 Z1.203
X8.735 Y7.486 Z1.202
X8.726 Y7.46 Z1.201
X8.729 Y7.432 Z1.2
X8.744 Y7.409 Z1.199
X9.805 Y6.348 Z1.146
X9.828 Y6.333 Z1.145
X9.856 Y6.33 Z1.144
X9.882 Y6.339
X9.902 Y6.359 Z1.143
X9.911 Y6.385 Z1.142
X9.908 Y6.413 Z1.141
X9.893 Y6.436 Z1.14
X8.832 Y7.497 Z1.087
X8.809 Y7.512 Z1.086
X8.781 Y7.515 Z1.085
X8.755 Y7.506 Z1.084
X8.735 Y7.486 Z1.083
X8.726 Y7.46 Z1.082
X8.729 Y7.432 Z1.081
X8.744 Y7.409 Z1.08
X9.805 Y6.348 Z1.028
X9.828 Y6.333 Z1.027
X9.856 Y6.33 Z1.026
X9.882 Y6.339 Z1.025
X9.902 Y6.359 Z1.024
X9.911 Y6.385 Z1.023
X9.908 Y6.413 Z1.022
X9.893 Y6.436 Z1.021
X8.832 Y7.497 Z0.969
X8.809 Y7.512 Z0.968
X8.781 Y7.515 Z0.967
X8.755 Y7.506 Z0.966
X8.735 Y7.486 Z0.965
X8.726 Y7.46 Z0.964
X8.729 Y7.432 Z0.963
X8.744 Y7.409 Z0.962
X9.805 Y6.348 Z0.91
X9.828 Y6.333 Z0.909
X9.856 Y6.33 Z0.908
X9.882 Y6.339 Z0.907
X9.902 Y6.359 Z0.906
X9.911 Y6.385 Z0.905
X9.908 Y6.413 Z0.904
X9.893 Y6.436 Z0.903
X8.832 Y7.497 Z0.85
X8.809 Y7.512 Z0.849
X8.781 Y7.515 Z0.848
X8.755 Y7.506 Z0.847
X8.735 Y7.486 Z0.846
X8.726 Y7.46 Z0.845
X8.729 Y7.432 Z0.844
X8.744 Y7.409 Z0.843
X9.805 Y6.348 Z0.791
X9.828 Y6.333 Z0.79
X9.856 Y6.33 Z0.789
X9.882 Y6.339 Z0.788
X9.902 Y6.359 Z0.787
X9.911 Y6.385 Z0.786
X9.908 Y6.413 Z0.785
X9.893 Y6.436 Z0.784
X8.832 Y7.497 Z0.732
X8.809 Y7.512 Z0.731
X8.781 Y7.515 Z0.73
X8.755 Y7.506 Z0.729
X8.735 Y7.486 Z0.728
X8.726 Y7.46 Z0.727
X8.729 Y7.432 Z0.726
X8.744 Y7.409 Z0.725
X9.805 Y6.348 Z0.673
X9.828 Y6.333 Z0.672
X9.856 Y6.33 Z0.671
X9.882 Y6.339 Z0.67
X9.902 Y6.359 Z0.669
X9.911 Y6.385 Z0.668
X9.908 Y6.413 Z0.667
X9.893 Y6.436 Z0.666
X8.832 Y7.497 Z0.613
X8.809 Y7.512 Z0.612
X8.781 Y7.515 Z0.611
X8.755 Y7.506 Z0.61
X8.735 Y7.486 Z0.609
X8.726 Y7.46 Z0.608
X8.729 Y7.432 Z0.607
X8.744 Y7.409 Z0.606
X9.805 Y6.348 Z0.554
X9.828 Y6.333 Z0.553
X9.856 Y6.33 Z0.552
X9.882 Y6.339 Z0.551
X9.902 Y6.359 Z0.55
X9.911 Y6.385 Z0.549
X9.908 Y6.413 Z0.548
X9.893 Y6.436 Z0.547
X8.832 Y7.497 Z0.495
X8.809 Y7.512 Z0.494
X8.781 Y7.515 Z0.493
X8.755 Y7.506 Z0.492
X8.735 Y7.486 Z0.491
X8.726 Y7.46 Z0.49
X8.729 Y7.432 Z0.489
X8.744 Y7.409 Z0.488
X9.805 Y6.348 Z0.436
X9.828 Y6.333 Z0.435
X9.856 Y6.33 Z0.434
X9.882 Y6.339 Z0.433
X9.902 Y6.359 Z0.432
X9.911 Y6.385 Z0.431
X9.908 Y6.413 Z0.43
X9.893 Y6.436 Z0.429
X8.832 Y7.497 Z0.376
X8.809 Y7.512 Z0.375
X8.781 Y7.515 Z0.374
X8.755 Y7.506 Z0.373
X8.735 Y7.486 Z0.372
X8.726 Y7.46 Z0.371
X8.729 Y7.432 Z0.37
X8.744 Y7.409
X9.805 Y6.348 Z0.317
X9.828 Y6.333 Z0.316
X9.856 Y6.33 Z0.315
X9.882 Y6.339 Z0.314
X9.902 Y6.359 Z0.313
X9.911 Y6.385 Z0.312
X9.908 Y6.413 Z0.311
X9.893 Y6.436 Z0.31
X8.832 Y7.497 Z0.258
X8.809 Y7.512 Z0.257
X8.781 Y7.515 Z0.256
X8.755 Y7.506 Z0.255
X8.735 Y7.486 Z0.254
X8.726 Y7.46 Z0.253
X8.729 Y7.432 Z0.252
X8.744 Y7.409 Z0.251
X9.805 Y6.348 Z0.199
X9.828 Y6.333 Z0.198
X9.856 Y6.33 Z0.197
X9.882 Y6.339 Z0.196
X9.902 Y6.359 Z0.195
X9.911 Y6.385 Z0.194
X9.908 Y6.413 Z0.193
X9.893 Y6.436 Z0.192
X8.832 Y7.497 Z0.139
X8.809 Y7.512 Z0.138
X8.781 Y7.515 Z0.137
X8.755 Y7.506 Z0.136
X8.735 Y7.486 Z0.135
X8.726 Y7.46
X8.729 Y7.432 Z0.134
X8.744 Y7.409 Z0.133
X9.805 Y6.348 Z0.08
X9.828 Y6.333 Z0.079
X9.856 Y6.33 Z0.078
X9.882 Y6.339 Z0.077
X9.902 Y6.359 Z0.076
X9.911 Y6.385 Z0.075
X9.908 Y6.413 Z0.074
X9.893 Y6.436 Z0.073
X8.832 Y7.497 Z0.021
X8.809 Y7.512 Z0.02
X8.781 Y7.515 Z0.019
X8.755 Y7.506 Z0.018
X8.735 Y7.486 Z0.017
X8.726 Y7.46 Z0.016
X8.729 Y7.432 Z0.015
X8.744 Y7.409 Z0.014
X9.805 Y6.348 Z-0.038
X9.828 Y6.333 Z-0.039
X9.856 Y6.33 Z-0.04
X9.882 Y6.339 Z-0.041
X9.902 Y6.359 Z-0.042
X9.911 Y6.385 Z-0.043
X9.908 Y6.413 Z-0.044
X9.893 Y6.436 Z-0.045
X8.832 Y7.497 Z-0.098
X8.809 Y7.512 Z-0.099
X8.781 Y7.515
X8.755 Y7.506 Z-0.1
X8.735 Y7.486 Z-0.101
X8.726 Y7.46 Z-0.102
X8.729 Y7.432 Z-0.103
X8.744 Y7.409 Z-0.104
X9.805 Y6.348 Z-0.157
X9.828 Y6.333 Z-0.158
X9.856 Y6.33 Z-0.159
X9.882 Y6.339 Z-0.16
X9.902 Y6.359 Z-0.161
X9.911 Y6.385 Z-0.162
X9.908 Y6.413 Z-0.163
X9.893 Y6.436 Z-0.164
X8.832 Y7.497 Z-0.216
X8.809 Y7.512 Z-0.217
X8.781 Y7.515 Z-0.218
X8.755 Y7.506 Z-0.219
X8.735 Y7.486 Z-0.22
X8.726 Y7.46 Z-0.221
X8.729 Y7.432 Z-0.222
X8.744 Y7.409 Z-0.223
X9.805 Y6.348 Z-0.275
X9.828 Y6.333 Z-0.276
X9.856 Y6.33 Z-0.277
X9.882 Y6.339 Z-0.278
X9.902 Y6.359 Z-0.279
X9.911 Y6.385 Z-0.28
X9.908 Y6.413 Z-0.281
X9.893 Y6.436 Z-0.282
X8.832 Y7.497 Z-0.334
X8.809 Y7.512 Z-0.335
X8.781 Y7.515 Z-0.336
X8.755 Y7.506 Z-0.337
X8.735 Y7.486 Z-0.338
X8.726 Y7.46 Z-0.339
X8.729 Y7.432 Z-0.34
X8.744 Y7.409 Z-0.341
X9.805 Y6.348 Z-0.394
X9.828 Y6.333 Z-0.395
X9.856 Y6.33 Z-0.396
X9.882 Y6.339 Z-0.397
X9.902 Y6.359 Z-0.398
X9.911 Y6.385 Z-0.399
X9.908 Y6.413 Z-0.4
X9.893 Y6.436 Z-0.401
X8.832 Y7.497 Z-0.453
X8.809 Y7.512 Z-0.454
X8.781 Y7.515 Z-0.455
X8.755 Y7.506 Z-0.456
X8.735 Y7.486 Z-0.457
X8.726 Y7.46 Z-0.458
X8.729 Y7.432 Z-0.459
X8.744 Y7.409 Z-0.46
X9.805 Y6.348 Z-0.512
X9.828 Y6.333 Z-0.513
X9.856 Y6.33 Z-0.514
X9.882 Y6.339 Z-0.515
X9.902 Y6.359 Z-0.516
X9.911 Y6.385 Z-0.517
X9.908 Y6.413 Z-0.518
X9.893 Y6.436 Z-0.519
X8.832 Y7.497 Z-0.571
X8.809 Y7.512 Z-0.572
X8.781 Y7.515 Z-0.573
X8.755 Y7.506 Z-0.574
X8.735 Y7.486 Z-0.575
X8.726 Y7.46 Z-0.576
X8.729 Y7.432 Z-0.577
X8.744 Y7.409 Z-0.578
X9.805 Y6.348 Z-0.631
X9.828 Y6.333 Z-0.632
X9.856 Y6.33 Z-0.633
X9.882 Y6.339 Z-0.634
X9.902 Y6.359 Z-0.635
X9.911 Y6.385 Z-0.636
X9.908 Y6.413 Z-0.637
X9.893 Y6.436 Z-0.638
X8.832 Y7.497 Z-0.69
X8.809 Y7.512 Z-0.691
X8.781 Y7.515 Z-0.692
X8.755 Y7.506 Z-0.693
X8.735 Y7.486 Z-0.694
X8.726 Y7.46 Z-0.695
X8.729 Y7.432 Z-0.696
X8.744 Y7.409 Z-0.697
X9.805 Y6.348 Z-0.749
X9.828 Y6.333 Z-0.75
X9.856 Y6.33 Z-0.751
X9.882 Y6.339 Z-0.752
X9.902 Y6.359 Z-0.753
X9.911 Y6.385 Z-0.754
X9.908 Y6.413 Z-0.755
X9.893 Y6.436 Z-0.756
X8.832 Y7.497 Z-0.808
X8.809 Y7.512 Z-0.809
X8.781 Y7.515 Z-0.81
X8.755 Y7.506 Z-0.811
X8.735 Y7.486 Z-0.812
X8.726 Y7.46 Z-0.813
X8.729 Y7.432 Z-0.814
X8.744 Y7.409 Z-0.815
X9.805 Y6.348 Z-0.868
X9.828 Y6.333 Z-0.869
X9.856 Y6.33 Z-0.87
X9.882 Y6.339 Z-0.871
X9.902 Y6.359 Z-0.872
X9.911 Y6.385 Z-0.873
X9.908 Y6.413 Z-0.874
X9.893 Y6.436
X8.832 Y7.497 Z-0.927
X8.809 Y7.512 Z-0.928
X8.781 Y7.515 Z-0.929
X8.755 Y7.506 Z-0.93
X8.735 Y7.486 Z-0.931
X8.726 Y7.46 Z-0.932
X8.729 Y7.432 Z-0.933
X8.744 Y7.409 Z-0.934
X9.805 Y6.348 Z-0.986
X9.828 Y6.333 Z-0.987
X9.856 Y6.33 Z-0.988
X9.882 Y6.339 Z-0.989
X9.902 Y6.359 Z-0.99
X9.911 Y6.385 Z-0.991
X9.908 Y6.413 Z-0.992
X9.893 Y6.436 Z-0.993
X8.832 Y7.497 Z-1.045
X8.809 Y7.512 Z-1.046
X8.781 Y7.515 Z-1.047
X8.755 Y7.506 Z-1.048
X8.735 Y7.486 Z-1.049
X8.726 Y7.46 Z-1.05
X8.729 Y7.432 Z-1.051
X8.744 Y7.409 Z-1.052
X9.805 Y6.348 Z-1.105
X9.828 Y6.333 Z-1.106
X9.856 Y6.33 Z-1.107
X9.882 Y6.339 Z-1.108
X9.902 Y6.359
X9.911 Y6.385 Z-1.109
X9.908 Y6.413 Z-1.11
X9.893 Y6.436 Z-1.111
X8.832 Y7.497 Z-1.164
X8.809 Y7.512 Z-1.165
X8.781 Y7.515 Z-1.166
X8.755 Y7.506 Z-1.167
X8.735 Y7.486 Z-1.168
X8.726 Y7.46 Z-1.169
X8.729 Y7.432 Z-1.17
X8.744 Y7.409 Z-1.171
X9.805 Y6.348 Z-1.223
X9.828 Y6.333 Z-1.224
X9.856 Y6.33 Z-1.225
X9.882 Y6.339 Z-1.226
X9.902 Y6.359 Z-1.227
X9.911 Y6.385 Z-1.228
X9.908 Y6.413 Z-1.229
X9.893 Y6.436 Z-1.23
X8.832 Y7.497 Z-1.282
X8.809 Y7.512 Z-1.283
X8.781 Y7.515 Z-1.284
X8.755 Y7.506 Z-1.285
X8.735 Y7.486 Z-1.286
X8.726 Y7.46 Z-1.287
X8.729 Y7.432 Z-1.288
X8.744 Y7.409 Z-1.289
X9.805 Y6.348 Z-1.342
X9.828 Y6.333 Z-1.343
X9.856 Y6.33
X9.882 Y6.339 Z-1.344
X9.902 Y6.359 Z-1.345
X9.911 Y6.385 Z-1.346
X9.908 Y6.413 Z-1.347
X9.893 Y6.436 Z-1.348
X8.832 Y7.497 Z-1.401
X8.809 Y7.512 Z-1.402
X8.781 Y7.515 Z-1.403
X8.755 Y7.506 Z-1.404
X8.735 Y7.486 Z-1.405
X8.726 Y7.46 Z-1.406
X8.729 Y7.432 Z-1.407
X8.744 Y7.409 Z-1.408
X9.805 Y6.348 Z-1.46
X9.828 Y6.333 Z-1.461
X9.856 Y6.33 Z-1.462
X9.882 Y6.339 Z-1.463
X9.902 Y6.359 Z-1.464
X9.911 Y6.385 Z-1.465
X9.908 Y6.413 Z-1.466
X9.893 Y6.436 Z-1.467
X8.832 Y7.497 Z-1.519
X8.809 Y7.512 Z-1.52
X8.781 Y7.515 Z-1.521
X8.755 Y7.506 Z-1.522
X8.735 Y7.486 Z-1.523
X8.726 Y7.46 Z-1.524
X8.729 Y7.432 Z-1.525
X8.744 Y7.409 Z-1.526
X9.805 Y6.348 Z-1.578
X9.828 Y6.333 Z-1.579
X9.856 Y6.33 Z-1.58
X9.882 Y6.339 Z-1.581
X9.902 Y6.359 Z-1.582
X9.911 Y6.385 Z-1.583
X9.908 Y6.413 Z-1.584
X9.893 Y6.436 Z-1.585
X8.832 Y7.497 Z-1.638
X8.809 Y7.512 Z-1.639
X8.781 Y7.515 Z-1.64
X8.755 Y7.506 Z-1.641
X8.735 Y7.486 Z-1.642
X8.726 Y7.46 Z-1.643
X8.729 Y7.432 Z-1.644
X8.744 Y7.409 Z-1.645
X9.805 Y6.348 Z-1.697
X9.828 Y6.333 Z-1.698
X9.856 Y6.33 Z-1.699
X9.882 Y6.339 Z-1.7
X9.902 Y6.359 Z-1.701
X9.911 Y6.385 Z-1.702
X9.908 Y6.413 Z-1.703
X9.893 Y6.436 Z-1.704
X8.832 Y7.497 Z-1.756
X8.809 Y7.512 Z-1.757
X8.781 Y7.515 Z-1.758
X8.755 Y7.506 Z-1.759
X8.735 Y7.486 Z-1.76
X8.726 Y7.46 Z-1.761
X8.729 Y7.432 Z-1.762
X8.744 Y7.409 Z-1.763
X9.805 Y6.348 Z-1.815
X9.828 Y6.333 Z-1.816
X9.856 Y6.33 Z-1.817
X9.882 Y6.339 Z-1.818
X9.902 Y6.359 Z-1.819
X9.911 Y6.385 Z-1.82
X9.908 Y6.413 Z-1.821
X9.893 Y6.436 Z-1.822
X8.832 Y7.497 Z-1.875
X8.809 Y7.512 Z-1.876
X8.781 Y7.515 Z-1.877
X8.755 Y7.506 Z-1.878
X8.735 Y7.486 Z-1.879
X8.726 Y7.46 Z-1.88
X8.729 Y7.432 Z-1.881
X8.744 Y7.409 Z-1.882
X9.805 Y6.348 Z-1.934
X9.828 Y6.333 Z-1.935
X9.856 Y6.33 Z-1.936
X9.882 Y6.339 Z-1.937
X9.902 Y6.359 Z-1.938
X9.911 Y6.385 Z-1.939
X9.908 Y6.413 Z-1.94
X9.893 Y6.436 Z-1.941
X8.832 Y7.497 Z-1.993
X8.809 Y7.512 Z-1.994
X8.781 Y7.515 Z-1.995
X8.755 Y7.506 Z-1.996
X8.735 Y7.486 Z-1.997
X8.726 Y7.46 Z-1.998
X8.729 Y7.432 Z-1.999
X8.744 Y7.409 Z-2
S6000
X9.805 Y6.348 F1000
X9.828 Y6.333
X9.856 Y6.33
X9.882 Y6.339
X9.902 Y6.359
X9.911 Y6.385
X9.908 Y6.413
X9.893 Y6.436
X8.832 Y7.497
X8.809 Y7.512
X8.781 Y7.515
X8.755 Y7.506
X8.735 Y7.486
X8.726 Y7.46
X8.729 Y7.432
X8.744 Y7.409
S5000
X9.805 Y6.348 Z-2.052 F333.3
X9.828 Y6.333 Z-2.053
X9.856 Y6.33 Z-2.054
X9.882 Y6.339 Z-2.055
X9.902 Y6.359 Z-2.056
X9.911 Y6.385 Z-2.057
X9.908 Y6.413 Z-2.058
X9.893 Y6.436 Z-2.059
X8.832 Y7.497 Z-2.112
X8.809 Y7.512 Z-2.113
X8.781 Y7.515 Z-2.114
X8.755 Y7.506 Z-2.115
X8.735 Y7.486 Z-2.116
X8.726 Y7.46 Z-2.117
X8.729 Y7.432
X8.744 Y7.409 Z-2.118
X9.805 Y6.348 Z-2.171
X9.828 Y6.333 Z-2.172
X9.856 Y6.33 Z-2.173
X9.882 Y6.339 Z-2.174
X9.902 Y6.359 Z-2.175
X9.911 Y6.385 Z-2.176
X9.908 Y6.413 Z-2.177
X9.893 Y6.436 Z-2.178
X8.832 Y7.497 Z-2.23
X8.809 Y7.512 Z-2.231
X8.781 Y7.515 Z-2.232
X8.755 Y7.506 Z-2.233
X8.735 Y7.486 Z-2.234
X8.726 Y7.46 Z-2.235
X8.729 Y7.432 Z-2.236
X8.744 Y7.409 Z-2.237
X9.805 Y6.348 Z-2.289
X9.828 Y6.333 Z-2.29
X9.856 Y6.33 Z-2.291
X9.882 Y6.339 Z-2.292
X9.902 Y6.359 Z-2.293
X9.911 Y6.385 Z-2.294
X9.908 Y6.413 Z-2.295
X9.893 Y6.436 Z-2.296
X8.832 Y7.497 Z-2.349
X8.809 Y7.512 Z-2.35
X8.781 Y7.515 Z-2.351
X8.755 Y7.506 Z-2.352
X8.735 Y7.486
X8.726 Y7.46 Z-2.353
X8.729 Y7.432 Z-2.354
X8.744 Y7.409 Z-2.355
X9.805 Y6.348 Z-2.408
X9.828 Y6.333 Z-2.409
X9.856 Y6.33 Z-2.41
X9.882 Y6.339 Z-2.411
X9.902 Y6.359 Z-2.412
X9.911 Y6.385 Z-2.413
X9.908 Y6.413 Z-2.414
X9.893 Y6.436 Z-2.415
X8.832 Y7.497 Z-2.467
X8.809 Y7.512 Z-2.468
X8.781 Y7.515 Z-2.469
X8.755 Y7.506 Z-2.47
X8.735 Y7.486 Z-2.471
X8.726 Y7.46 Z-2.472
X8.729 Y7.432 Z-2.473
X8.744 Y7.409 Z-2.474
X9.805 Y6.348 Z-2.526
X9.828 Y6.333 Z-2.527
X9.856 Y6.33 Z-2.528
X9.882 Y6.339 Z-2.529
X9.902 Y6.359 Z-2.53
X9.911 Y6.385 Z-2.531
X9.908 Y6.413 Z-2.532
X9.893 Y6.436 Z-2.533
X8.832 Y7.497 Z-2.586
X8.809 Y7.512
X8.781 Y7.515 Z-2.587
X8.755 Y7.506 Z-2.588
X8.735 Y7.486 Z-2.589
X8.726 Y7.46 Z-2.59
X8.729 Y7.432 Z-2.591
X8.744 Y7.409 Z-2.592
X9.805 Y6.348 Z-2.645
X9.828 Y6.333 Z-2.646
X9.856 Y6.33 Z-2.647
X9.882 Y6.339 Z-2.648
X9.902 Y6.359 Z-2.649
X9.911 Y6.385 Z-2.65
X9.908 Y6.413 Z-2.651
X9.893 Y6.436 Z-2.652
X8.832 Y7.497 Z-2.704
X8.809 Y7.512 Z-2.705
X8.781 Y7.515 Z-2.706
X8.755 Y7.506 Z-2.707
X8.735 Y7.486 Z-2.708
X8.726 Y7.46 Z-2.709
X8.729 Y7.432 Z-2.71
X8.744 Y7.409 Z-2.711
X9.805 Y6.348 Z-2.763
X9.828 Y6.333 Z-2.764
X9.856 Y6.33 Z-2.765
X9.882 Y6.339 Z-2.766
X9.902 Y6.359 Z-2.767
X9.911 Y6.385 Z-2.768
X9.908 Y6.413 Z-2.769
X9.893 Y6.436 Z-2.77
X8.832 Y7.497 Z-2.822
X8.809 Y7.512 Z-2.823
X8.781 Y7.515 Z-2.824
X8.755 Y7.506 Z-2.825
X8.735 Y7.486 Z-2.826
X8.726 Y7.46 Z-2.827
X8.729 Y7.432 Z-2.828
X8.744 Y7.409 Z-2.829
X9.805 Y6.348 Z-2.882
X9.828 Y6.333 Z-2.883
X9.856 Y6.33 Z-2.884
X9.882 Y6.339 Z-2.885
X9.902 Y6.359 Z-2.886
X9.911 Y6.385 Z-2.887
X9.908 Y6.413 Z-2.888
X9.893 Y6.436 Z-2.889
X8.832 Y7.497 Z-2.941
X8.809 Y7.512 Z-2.942
X8.781 Y7.515 Z-2.943
X8.755 Y7.506 Z-2.944
X8.735 Y7.486 Z-2.945
X8.726 Y7.46 Z-2.946
X8.729 Y7.432 Z-2.947
X8.744 Y7.409 Z-2.948
X9.805 Y6.348 Z-3
X9.828 Y6.333 Z-3.001
X9.856 Y6.33 Z-3.002
X9.882 Y6.339 Z-3.003
X9.902 Y6.359 Z-3.004
X9.911 Y6.385 Z-3.005
X9.908 Y6.413 Z-3.006
X9.893 Y6.436 Z-3.007
X8.832 Y7.497 Z-3.059
X8.809 Y7.512 Z-3.06
X8.781 Y7.515 Z-3.061
X8.755 Y7.506 Z-3.062
X8.735 Y7.486 Z-3.063
X8.726 Y7.46 Z-3.064
X8.729 Y7.432 Z-3.065
X8.744 Y7.409 Z-3.066
X9.427 Y6.726 Z-3.1
S6000
X9.805 Y6.348 F1000
X9.828 Y6.333
X9.856 Y6.33
X9.882 Y6.339
X9.902 Y6.359
X9.911 Y6.385
X9.908 Y6.413
X9.893 Y6.436
X8.832 Y7.497
X8.809 Y7.512
X8.781 Y7.515
X8.755 Y7.506
X8.735 Y7.486
X8.726 Y7.46
X8.729 Y7.432
X8.744 Y7.409
X9.427 Y6.726
S5000
X9.805 Y6.348 Z-3.119 F333.3
X9.828 Y6.333 Z-3.12
X9.856 Y6.33 Z-3.121
X9.882 Y6.339 Z-3.122
X9.902 Y6.359 Z-3.123
X9.911 Y6.385 Z-3.124
X9.908 Y6.413 Z-3.125
X9.893 Y6.436 Z-3.126
X8.832 Y7.497 Z-3.178
X8.809 Y7.512 Z-3.179
X8.781 Y7.515 Z-3.18
X8.755 Y7.506 Z-3.181
X8.735 Y7.486 Z-3.182
X8.726 Y7.46 Z-3.183
X8.729 Y7.432 Z-3.184
X8.744 Y7.409 Z-3.185
X9.805 Y6.348 Z-3.237
X9.828 Y6.333 Z-3.238
X9.856 Y6.33 Z-3.239
X9.882 Y6.339 Z-3.24
X9.902 Y6.359 Z-3.241
X9.911 Y6.385 Z-3.242
X9.908 Y6.413 Z-3.243
X9.893 Y6.436 Z-3.244
X8.832 Y7.497 Z-3.296
X8.809 Y7.512 Z-3.297
X8.781 Y7.515 Z-3.298
X8.755 Y7.506 Z-3.299
X8.735 Y7.486 Z-3.3
X8.726 Y7.46 Z-3.301
X8.729 Y7.432 Z-3.302
X8.744 Y7.409 Z-3.303
X9.805 Y6.348 Z-3.356
X9.828 Y6.333 Z-3.357
X9.856 Y6.33 Z-3.358
X9.882 Y6.339 Z-3.359
X9.902 Y6.359 Z-3.36
X9.911 Y6.385 Z-3.361
X9.908 Y6.413
X9.893 Y6.436 Z-3.362
X8.832 Y7.497 Z-3.415
X8.809 Y7.512 Z-3.416
X8.781 Y7.515 Z-3.417
X8.755 Y7.506 Z-3.418
X8.735 Y7.486 Z-3.419
X8.726 Y7.46 Z-3.42
X8.729 Y7.432 Z-3.421
X8.744 Y7.409 Z-3.422
X9.805 Y6.348 Z-3.474
X9.828 Y6.333 Z-3.475
X9.856 Y6.33 Z-3.476
X9.882 Y6.339 Z-3.477
X9.902 Y6.359 Z-3.478
X9.911 Y6.385 Z-3.479
X9.908 Y6.413 Z-3.48
X9.893 Y6.436 Z-3.481
X8.832 Y7.497 Z-3.533
X8.809 Y7.512 Z-3.534
X8.781 Y7.515 Z-3.535
X8.755 Y7.506 Z-3.536
X8.735 Y7.486 Z-3.537
X8.726 Y7.46 Z-3.538
X8.729 Y7.432 Z-3.539
X8.744 Y7.409 Z-3.54
X9.805 Y6.348 Z-3.593
X9.828 Y6.333 Z-3.594
X9.856 Y6.33 Z-3.595
X9.882 Y6.339
X9.902 Y6.359 Z-3.596
X9.911 Y6.385 Z-3.597
X9.908 Y6.413 Z-3.598
X9.893 Y6.436 Z-3.599
X8.832 Y7.497 Z-3.652
X8.809 Y7.512 Z-3.653
X8.781 Y7.515 Z-3.654
X8.755 Y7.506 Z-3.655
X8.735 Y7.486 Z-3.656
X8.726 Y7.46 Z-3.657
X8.729 Y7.432 Z-3.658
X8.744 Y7.409 Z-3.659
X9.805 Y6.348 Z-3.711
X9.828 Y6.333 Z-3.712
X9.856 Y6.33 Z-3.713
X9.882 Y6.339 Z-3.714
X9.902 Y6.359 Z-3.715
X9.911 Y6.385 Z-3.716
X9.908 Y6.413 Z-3.717
X9.893 Y6.436 Z-3.718
X8.832 Y7.497 Z-3.77
X8.809 Y7.512 Z-3.771
X8.781 Y7.515 Z-3.772
X8.755 Y7.506 Z-3.773
X8.735 Y7.486 Z-3.774
X8.726 Y7.46 Z-3.775
X8.729 Y7.432 Z-3.776
X8.744 Y7.409 Z-3.777
X9.805 Y6.348 Z-3.83
X9.828 Y6.333
X9.856 Y6.33 Z-3.831
X9.882 Y6.339 Z-3.832
X9.902 Y6.359 Z-3.833
X9.911 Y6.385 Z-3.834
X9.908 Y6.413 Z-3.835
X9.893 Y6.436 Z-3.836
X8.832 Y7.497 Z-3.889
X8.809 Y7.512 Z-3.89
X8.781 Y7.515 Z-3.891
X8.755 Y7.506 Z-3.892
X8.735 Y7.486 Z-3.893
X8.726 Y7.46 Z-3.894
X8.729 Y7.432 Z-3.895
X8.744 Y7.409 Z-3.896
X9.805 Y6.348 Z-3.948
X9.828 Y6.333 Z-3.949
X9.856 Y6.33 Z-3.95
X9.882 Y6.339 Z-3.951
X9.902 Y6.359 Z-3.952
X9.911 Y6.385 Z-3.953
X9.908 Y6.413 Z-3.954
X9.893 Y6.436 Z-3.955
X8.832 Y7.497 Z-4.007
X8.809 Y7.512 Z-4.008
X8.781 Y7.515 Z-4.009
X8.755 Y7.506 Z-4.01
X8.735 Y7.486 Z-4.011
X8.726 Y7.46 Z-4.012
X8.729 Y7.432 Z-4.013
X8.744 Y7.409 Z-4.014
X9.805 Y6.348 Z-4.066
X9.828 Y6.333 Z-4.067
X9.856 Y6.33 Z-4.068
X9.882 Y6.339 Z-4.069
X9.902 Y6.359 Z-4.07
X9.911 Y6.385 Z-4.071
X9.908 Y6.413 Z-4.072
X9.893 Y6.436 Z-4.073
X8.832 Y7.497 Z-4.126
X8.809 Y7.512 Z-4.127
X8.781 Y7.515 Z-4.128
X8.755 Y7.506 Z-4.129
X8.735 Y7.486 Z-4.13
X8.726 Y7.46 Z-4.131
X8.729 Y7.432 Z-4.132
X8.744 Y7.409 Z-4.133
X9.805 Y6.348 Z-4.185
X9.828 Y6.333 Z-4.186
X9.856 Y6.33 Z-4.187
X9.882 Y6.339 Z-4.188
X9.902 Y6.359 Z-4.189
X9.911 Y6.385 Z-4.19
X9.908 Y6.413 Z-4.191
X9.893 Y6.436 Z-4.192
X9.727 Y6.602 Z-4.2
S6000
X8.832 Y7.497 F1000
X8.809 Y7.512
X8.781 Y7.515
X8.755 Y7.506
X8.735 Y7.486
X8.726 Y7.46
X8.729 Y7.432
X8.744 Y7.409
X9.427 Y6.726
X9.805 Y6.348
X9.828 Y6.333
X9.856 Y6.33
X9.882 Y6.339
X9.902 Y6.359
X9.911 Y6.385
X9.908 Y6.413
X9.893 Y6.436
X9.727 Y6.602
X9.723 Y6.605
X9.719 Y6.608 Z-4.199
X9.715 Y6.61 Z-4.197
X9.712 Y6.611 Z-4.194
X9.708 Z-4.191
X9.705 Z-4.188
X9.703 Z-4.184
X9.701 Z-4.179
X9.7 Z-4.175
X9.699 Y6.61 Z-4.17
Z5
X-3.648 Y6.383
Z3 F333.3
Z2.5
S5000
X-3.638 Y6.358 Z2.499
X-3.619 Y6.339 Z2.498
X-3.593 Y6.33 Z2.497
X-3.565 Y6.333 Z2.496
X-3.542 Y6.348 Z2.495
X-2.481 Y7.409 Z2.443
X-2.467 Y7.432 Z2.442
X-2.463 Y7.46 Z2.441
X-2.473 Y7.486 Z2.44
X-2.492 Y7.506 Z2.439
X-2.519 Y7.515 Z2.438
X-2.546 Y7.512 Z2.437
X-2.57 Y7.497 Z2.436
X-3.63 Y6.436 Z2.384
X-3.645 Y6.413 Z2.383
X-3.648 Y6.385 Z2.382
X-3.639 Y6.359 Z2.381
X-3.619 Y6.339 Z2.38
X-3.593 Y6.33 Z2.379
X-3.566 Y6.333 Z2.378
X-3.542 Y6.348 Z2.377
X-2.481 Y7.409 Z2.324
X-2.467 Y7.432 Z2.323
X-2.463 Y7.46 Z2.322
X-2.473 Y7.486 Z2.321
X-2.492 Y7.506 Z2.32
X-2.519 Y7.515 Z2.319
X-2.546 Y7.512 Z2.318
X-2.57 Y7.497 Z2.317
X-3.63 Y6.436 Z2.265
X-3.645 Y6.413 Z2.264
X-3.648 Y6.385 Z2.263
X-3.639 Y6.359 Z2.262
X-3.619 Y6.339 Z2.261
X-3.593 Y6.33 Z2.26
X-3.566 Y6.333 Z2.259
X-3.542 Y6.348 Z2.258
X-2.481 Y7.409 Z2.206
X-2.467 Y7.432 Z2.205
X-2.463 Y7.46 Z2.204
X-2.473 Y7.486 Z2.203
X-2.492 Y7.506 Z2.202
X-2.519 Y7.515 Z2.201
X-2.546 Y7.512 Z2.2
X-2.57 Y7.497 Z2.199
X-3.63 Y6.436 Z2.147
X-3.645 Y6.413 Z2.146
X-3.648 Y6.385 Z2.145
X-3.639 Y6.359 Z2.144
X-3.619 Y6.339 Z2.143
X-3.593 Y6.33 Z2.142
X-3.566 Y6.333 Z2.141
X-3.542 Y6.348 Z2.14
X-2.481 Y7.409 Z2.087
X-2.467 Y7.432 Z2.086
X-2.463 Y7.46 Z2.085
X-2.473 Y7.486 Z2.084
X-2.492 Y7.506 Z2.083
X-2.519 Y7.515 Z2.082
X-2.546 Y7.512 Z2.081
X-2.57 Y7.497
X-3.63 Y6.436 Z2.028
X-3.645 Y6.413 Z2.027
X-3.648 Y6.385 Z2.026
X-3.639 Y6.359 Z2.025
X-3.619 Y6.339 Z2.024
X-3.593 Y6.33 Z2.023
X-3.566 Y6.333 Z2.022
X-3.542 Y6.348 Z2.021
X-2.481 Y7.409 Z1.969
X-2.467 Y7.432 Z1.968
X-2.463 Y7.46 Z1.967
X-2.473 Y7.486 Z1.966
X-2.492 Y7.506 Z1.965
X-2.519 Y7.515 Z1.964
X-2.546 Y7.512 Z1.963
X-2.57 Y7.497 Z1.962
X-3.63 Y6.436 Z1.91
X-3.645 Y6.413 Z1.909
X-3.648 Y6.385 Z1.908
X-3.639 Y6.359 Z1.907
X-3.619 Y6.339 Z1.906
X-3.593 Y6.33 Z1.905
X-3.566 Y6.333 Z1.904
X-3.542 Y6.348 Z1.903
X-2.481 Y7.409 Z1.85
X-2.467 Y7.432 Z1.849
X-2.463 Y7.46 Z1.848
X-2.473 Y7.486 Z1.847
X-2.492 Y7.506 Z1.846
X-2.519 Y7.515
X-2.546 Y7.512 Z1.845
X-2.57 Y7.497 Z1.844
X-3.63 Y6.436 Z1.791
X-3.645 Y6.413 Z1.79
X-3.648 Y6.385 Z1.789
X-3.639 Y6.359 Z1.788
X-3.619 Y6.339 Z1.787
X-3.593 Y6.33 Z1.786
X-3.566 Y6.333 Z1.785
X-3.542 Y6.348 Z1.784
X-2.481 Y7.409 Z1.732
X-2.467 Y7.432 Z1.731
X-2.463 Y7.46 Z1.73
X-2.473 Y7.486 Z1.729
X-2.492 Y7.506 Z1.728
X-2.519 Y7.515 Z1.727
X-2.546 Y7.512 Z1.726
X-2.57 Y7.497 Z1.725
X-3.63 Y6.436 Z1.673
X-3.645 Y6.413 Z1.672
X-3.648 Y6.385 Z1.671
X-3.639 Y6.359 Z1.67
X-3.619 Y6.339 Z1.669
X-3.593 Y6.33 Z1.668
X-3.566 Y6.333 Z1.667
X-3.542 Y6.348 Z1.666
X-2.481 Y7.409 Z1.613
X-2.467 Y7.432 Z1.612
X-2.463 Y7.46
X-2.473 Y7.486 Z1.611
X-2.492 Y7.506 Z1.61
X-2.519 Y7.515 Z1.609
X-2.546 Y7.512 Z1.608
X-2.57 Y7.497 Z1.607
X-3.63 Y6.436 Z1.554
X-3.645 Y6.413 Z1.553
X-3.648 Y6.385 Z1.552
X-3.639 Y6.359 Z1.551
X-3.619 Y6.339 Z1.55
X-3.593 Y6.33 Z1.549
X-3.566 Y6.333 Z1.548
X-3.542 Y6.348 Z1.547
X-2.481 Y7.409 Z1.495
X-2.467 Y7.432 Z1.494
X-2.463 Y7.46 Z1.493
X-2.473 Y7.486 Z1.492
X-2.492 Y7.506 Z1.491
X-2.519 Y7.515 Z1.49
X-2.546 Y7.512 Z1.489
X-2.57 Y7.497 Z1.488
X-3.63 Y6.436 Z1.436
X-3.645 Y6.413 Z1.435
X-3.648 Y6.385 Z1.434
X-3.639 Y6.359 Z1.433
X-3.619 Y6.339 Z1.432
X-3.593 Y6.33 Z1.431
X-3.566 Y6.333 Z1.43
X-3.542 Y6.348 Z1.429
X-2.481 Y7.409 Z1.377
X-2.467 Y7.432 Z1.376
X-2.463 Y7.46 Z1.375
X-2.473 Y7.486 Z1.374
X-2.492 Y7.506 Z1.373
X-2.519 Y7.515 Z1.372
X-2.546 Y7.512 Z1.371
X-2.57 Y7.497 Z1.37
X-3.63 Y6.436 Z1.317
X-3.645 Y6.413 Z1.316
X-3.648 Y6.385 Z1.315
X-3.639 Y6.359 Z1.314
X-3.619 Y6.339 Z1.313
X-3.593 Y6.33 Z1.312
X-3.566 Y6.333 Z1.311
X-3.542 Y6.348 Z1.31
X-2.481 Y7.409 Z1.258
X-2.467 Y7.432 Z1.257
X-2.463 Y7.46 Z1.256
X-2.473 Y7.486 Z1.255
X-2.492 Y7.506 Z1.254
X-2.519 Y7.515 Z1.253
X-2.546 Y7.512 Z1.252
X-2.57 Y7.497 Z1.251
X-3.63 Y6.436 Z1.199
X-3.645 Y6.413 Z1.198
X-3.648 Y6.385 Z1.197
X-3.639 Y6.359 Z1.196
X-3.619 Y6.339 Z1.195
X-3.593 Y6.33 Z1.194
X-3.566 Y6.333 Z1.193
X-3.542 Y6.348 Z1.192
X-2.481 Y7.409 Z1.14
X-2.467 Y7.432 Z1.139
X-2.463 Y7.46 Z1.138
X-2.473 Y7.486 Z1.137
X-2.492 Y7.506 Z1.136
X-2.519 Y7.515 Z1.135
X-2.546 Y7.512 Z1.134
X-2.57 Y7.497 Z1.133
X-3.63 Y6.436 Z1.08
X-3.645 Y6.413 Z1.079
X-3.648 Y6.385 Z1.078
X-3.639 Y6.359 Z1.077
X-3.619 Y6.339 Z1.076
X-3.593 Y6.33 Z1.075
X-3.566 Y6.333 Z1.074
X-3.542 Y6.348 Z1.073
X-2.481 Y7.409 Z1.021
X-2.467 Y7.432 Z1.02
X-2.463 Y7.46 Z1.019
X-2.473 Y7.486 Z1.018
X-2.492 Y7.506 Z1.017
X-2.519 Y7.515 Z1.016
X-2.546 Y7.512 Z1.015
X-2.57 Y7.497 Z1.014
X-3.63 Y6.436 Z0.962
X-3.645 Y6.413 Z0.961
X-3.648 Y6.385 Z0.96
X-3.639 Y6.359 Z0.959
X-3.619 Y6.339 Z0.958
X-3.593 Y6.33 Z0.957
X-3.566 Y6.333 Z0.956
X-3.542 Y6.348 Z0.955
X-2.481 Y7.409 Z0.903
X-2.467 Y7.432 Z0.902
X-2.463 Y7.46 Z0.901
X-2.473 Y7.486 Z0.9
X-2.492 Y7.506 Z0.899
X-2.519 Y7.515 Z0.898
X-2.546 Y7.512 Z0.897
X-2.57 Y7.497 Z0.896
X-3.63 Y6.436 Z0.843
X-3.645 Y6.413 Z0.842
X-3.648 Y6.385 Z0.841
X-3.639 Y6.359 Z0.84
X-3.619 Y6.339 Z0.839
X-3.593 Y6.33 Z0.838
X-3.566 Y6.333
X-3.542 Y6.348 Z0.837
X-2.481 Y7.409 Z0.784
X-2.467 Y7.432 Z0.783
X-2.463 Y7.46 Z0.782
X-2.473 Y7.486 Z0.781
X-2.492 Y7.506 Z0.78
X-2.519 Y7.515 Z0.779
X-2.546 Y7.512 Z0.778
X-2.57 Y7.497 Z0.777
X-3.63 Y6.436 Z0.725
X-3.645 Y6.413 Z0.724
X-3.648 Y6.385 Z0.723
X-3.639 Y6.359 Z0.722
X-3.619 Y6.339 Z0.721
X-3.593 Y6.33 Z0.72
X-3.566 Y6.333 Z0.719
X-3.542 Y6.348 Z0.718
X-2.481 Y7.409 Z0.666
X-2.467 Y7.432 Z0.665
X-2.463 Y7.46 Z0.664
X-2.473 Y7.486 Z0.663
X-2.492 Y7.506 Z0.662
X-2.519 Y7.515 Z0.661
X-2.546 Y7.512 Z0.66
X-2.57 Y7.497 Z0.659
X-3.63 Y6.436 Z0.606
X-3.645 Y6.413 Z0.605
X-3.648 Y6.385 Z0.604
X-3.639 Y6.359 Z0.603
X-3.619 Y6.339
X-3.593 Y6.33 Z0.602
X-3.566 Y6.333 Z0.601
X-3.542 Y6.348 Z0.6
X-2.481 Y7.409 Z0.547
X-2.467 Y7.432 Z0.546
X-2.463 Y7.46 Z0.545
X-2.473 Y7.486 Z0.544
X-2.492 Y7.506 Z0.543
X-2.519 Y7.515 Z0.542
X-2.546 Y7.512 Z0.541
X-2.57 Y7.497 Z0.54
X-3.63 Y6.436 Z0.488
X-3.645 Y6.413 Z0.487
X-3.648 Y6.385 Z0.486
X-3.639 Y6.359 Z0.485
X-3.619 Y6.339 Z0.484
X-3.593 Y6.33 Z0.483
X-3.566 Y6.333 Z0.482
X-3.542 Y6.348 Z0.481
X-2.481 Y7.409 Z0.429
X-2.467 Y7.432 Z0.428
X-2.463 Y7.46 Z0.427
X-2.473 Y7.486 Z0.426
X-2.492 Y7.506 Z0.425
X-2.519 Y7.515 Z0.424
X-2.546 Y7.512 Z0.423
X-2.57 Y7.497 Z0.422
X-3.63 Y6.436 Z0.369
X-3.645 Y6.413
X-3.648 Y6.385 Z0.368
X-3.639 Y6.359 Z0.367
X-3.619 Y6.339 Z0.366
X-3.593 Y6.33 Z0.365
X-3.566 Y6.333 Z0.364
X-3.542 Y6.348 Z0.363
X-2.481 Y7.409 Z0.31
X-2.467 Y7.432 Z0.309
X-2.463 Y7.46 Z0.308
X-2.473 Y7.486 Z0.307
X-2.492 Y7.506 Z0.306
X-2.519 Y7.515 Z0.305
X-2.546 Y7.512 Z0.304
X-2.57 Y7.497 Z0.303
X-3.63 Y6.436 Z0.251
X-3.645 Y6.413 Z0.25
X-3.648 Y6.385 Z0.249
X-3.639 Y6.359 Z0.248
X-3.619 Y6.339 Z0.247
X-3.593 Y6.33 Z0.246
X-3.566 Y6.333 Z0.245
X-3.542 Y6.348 Z0.244
X-2.481 Y7.409 Z0.192
X-2.467 Y7.432 Z0.191
X-2.463 Y7.46 Z0.19
X-2.473 Y7.486 Z0.189
X-2.492 Y7.506 Z0.188
X-2.519 Y7.515 Z0.187
X-2.546 Y7.512 Z0.186
X-2.57 Y7.497 Z0.185
X-3.63 Y6.436 Z0.133
X-3.645 Y6.413 Z0.132
X-3.648 Y6.385 Z0.131
X-3.639 Y6.359 Z0.13
X-3.619 Y6.339 Z0.129
X-3.593 Y6.33 Z0.128
X-3.566 Y6.333 Z0.127
X-3.542 Y6.348 Z0.126
X-2.481 Y7.409 Z0.073
X-2.467 Y7.432 Z0.072
X-2.463 Y7.46 Z0.071
X-2.473 Y7.486 Z0.07
X-2.492 Y7.506 Z0.069
X-2.519 Y7.515 Z0.068
X-2.546 Y7.512 Z0.067
X-2.57 Y7.497 Z0.066
X-3.63 Y6.436 Z0.014
X-3.645 Y6.413 Z0.013
X-3.648 Y6.385 Z0.012
X-3.639 Y6.359 Z0.011
X-3.619 Y6.339 Z0.01
X-3.593 Y6.33 Z0.009
X-3.566 Y6.333 Z0.008
X-3.542 Y6.348 Z0.007
X-2.481 Y7.409 Z-0.045
X-2.467 Y7.432 Z-0.046
X-2.463 Y7.46 Z-0.047
X-2.473 Y7.486 Z-0.048
X-2.492 Y7.506 Z-0.049
X-2.519 Y7.515 Z-0.05
X-2.546 Y7.512 Z-0.051
X-2.57 Y7.497 Z-0.052
X-3.63 Y6.436 Z-0.104
X-3.645 Y6.413 Z-0.105
X-3.648 Y6.385 Z-0.106
X-3.639 Y6.359 Z-0.107
X-3.619 Y6.339 Z-0.108
X-3.593 Y6.33 Z-0.109
X-3.566 Y6.333 Z-0.11
X-3.542 Y6.348 Z-0.111
X-2.481 Y7.409 Z-0.164
X-2.467 Y7.432 Z-0.165
X-2.463 Y7.46 Z-0.166
X-2.473 Y7.486 Z-0.167
X-2.492 Y7.506 Z-0.168
X-2.519 Y7.515 Z-0.169
X-2.546 Y7.512 Z-0.17
X-2.57 Y7.497 Z-0.171
X-3.63 Y6.436 Z-0.223
X-3.645 Y6.413 Z-0.224
X-3.648 Y6.385 Z-0.225
X-3.639 Y6.359 Z-0.226
X-3.619 Y6.339 Z-0.227
X-3.593 Y6.33 Z-0.228
X-3.566 Y6.333 Z-0.229
X-3.542 Y6.348 Z-0.23
X-2.481 Y7.409 Z-0.282
X-2.467 Y7.432 Z-0.283
X-2.463 Y7.46 Z-0.284
X-2.473 Y7.486 Z-0.285
X-2.492 Y7.506 Z-0.286
X-2.519 Y7.515 Z-0.287
X-2.546 Y7.512 Z-0.288
X-2.57 Y7.497 Z-0.289
X-3.63 Y6.436 Z-0.341
X-3.645 Y6.413 Z-0.342
X-3.648 Y6.385 Z-0.343
X-3.639 Y6.359 Z-0.344
X-3.619 Y6.339 Z-0.345
X-3.593 Y6.33 Z-0.346
X-3.566 Y6.333 Z-0.347
X-3.542 Y6.348 Z-0.348
X-2.481 Y7.409 Z-0.401
X-2.467 Y7.432 Z-0.402
X-2.463 Y7.46 Z-0.403
X-2.473 Y7.486 Z-0.404
X-2.492 Y7.506 Z-0.405
X-2.519 Y7.515
X-2.546 Y7.512 Z-0.406
X-2.57 Y7.497 Z-0.407
X-3.63 Y6.436 Z-0.46
X-3.645 Y6.413 Z-0.461
X-3.648 Y6.385 Z-0.462
X-3.639 Y6.359 Z-0.463
X-3.619 Y6.339 Z-0.464
X-3.593 Y6.33 Z-0.465
X-3.566 Y6.333 Z-0.466
X-3.542 Y6.348 Z-0.467
X-2.481 Y7.409 Z-0.519
X-2.467 Y7.432 Z-0.52
X-2.463 Y7.46 Z-0.521
X-2.473 Y7.486 Z-0.522
X-2.492 Y7.506 Z-0.523
X-2.519 Y7.515 Z-0.524
X-2.546 Y7.512 Z-0.525
X-2.57 Y7.497 Z-0.526
X-3.63 Y6.436 Z-0.578
X-3.645 Y6.413 Z-0.579
X-3.648 Y6.385 Z-0.58
X-3.639 Y6.359 Z-0.581
X-3.619 Y6.339 Z-0.582
X-3.593 Y6.33 Z-0.583
X-3.566 Y6.333 Z-0.584
X-3.542 Y6.348 Z-0.585
X-2.481 Y7.409 Z-0.638
X-2.467 Y7.432 Z-0.639
X-2.463 Y7.46 Z-0.64
X-2.473 Y7.486
X-2.492 Y7.506 Z-0.641
X-2.519 Y7.515 Z-0.642
X-2.546 Y7.512 Z-0.643
X-2.57 Y7.497 Z-0.644
X-3.63 Y6.436 Z-0.697
X-3.645 Y6.413 Z-0.698
X-3.648 Y6.385 Z-0.699
X-3.639 Y6.359 Z-0.7
X-3.619 Y6.339 Z-0.701
X-3.593 Y6.33 Z-0.702
X-3.566 Y6.333 Z-0.703
X-3.542 Y6.348 Z-0.704
X-2.481 Y7.409 Z-0.756
X-2.467 Y7.432 Z-0.757
X-2.463 Y7.46 Z-0.758
X-2.473 Y7.486 Z-0.759
X-2.492 Y7.506 Z-0.76
X-2.519 Y7.515 Z-0.761
X-2.546 Y7.512 Z-0.762
X-2.57 Y7.497 Z-0.763
X-3.63 Y6.436 Z-0.815
X-3.645 Y6.413 Z-0.816
X-3.648 Y6.385 Z-0.817
X-3.639 Y6.359 Z-0.818
X-3.619 Y6.339 Z-0.819
X-3.593 Y6.33 Z-0.82
X-3.566 Y6.333 Z-0.821
X-3.542 Y6.348 Z-0.822
X-2.481 Y7.409 Z-0.874
X-2.467 Y7.432 Z-0.875
X-2.463 Y7.46 Z-0.876
X-2.473 Y7.486 Z-0.877
X-2.492 Y7.506 Z-0.878
X-2.519 Y7.515 Z-0.879
X-2.546 Y7.512 Z-0.88
X-2.57 Y7.497 Z-0.881
X-3.63 Y6.436 Z-0.934
X-3.645 Y6.413 Z-0.935
X-3.648 Y6.385 Z-0.936
X-3.639 Y6.359 Z-0.937
X-3.619 Y6.339 Z-0.938
X-3.593 Y6.33 Z-0.939
X-3.566 Y6.333 Z-0.94
X-3.542 Y6.348 Z-0.941
X-2.481 Y7.409 Z-0.993
X-2.467 Y7.432 Z-0.994
X-2.463 Y7.46 Z-0.995
X-2.473 Y7.486 Z-0.996
X-2.492 Y7.506 Z-0.997
X-2.519 Y7.515 Z-0.998
X-2.546 Y7.512 Z-0.999
X-2.57 Y7.497 Z-1
X-3.63 Y6.436 Z-1.052
X-3.645 Y6.413 Z-1.053
X-3.648 Y6.385 Z-1.054
X-3.639 Y6.359 Z-1.055
X-3.619 Y6.339 Z-1.056
X-3.593 Y6.33 Z-1.057
X-3.566 Y6.333 Z-1.058
X-3.542 Y6.348 Z-1.059
X-2.481 Y7.409 Z-1.111
X-2.467 Y7.432 Z-1.112
X-2.463 Y7.46 Z-1.113
X-2.473 Y7.486 Z-1.114
X-2.492 Y7.506 Z-1.115
X-2.519 Y7.515 Z-1.116
X-2.546 Y7.512 Z-1.117
X-2.57 Y7.497 Z-1.118
X-3.63 Y6.436 Z-1.171
X-3.645 Y6.413 Z-1.172
X-3.648 Y6.385 Z-1.173
X-3.639 Y6.359 Z-1.174
X-3.619 Y6.339 Z-1.175
X-3.593 Y6.33 Z-1.176
X-3.566 Y6.333 Z-1.177
X-3.542 Y6.348 Z-1.178
X-2.481 Y7.409 Z-1.23
X-2.467 Y7.432 Z-1.231
X-2.463 Y7.46 Z-1.232
X-2.473 Y7.486 Z-1.233
X-2.492 Y7.506 Z-1.234
X-2.519 Y7.515 Z-1.235
X-2.546 Y7.512 Z-1.236
X-2.57 Y7.497 Z-1.237
X-3.63 Y6.436 Z-1.289
X-3.645 Y6.413 Z-1.29
X-3.648 Y6.385 Z-1.291
X-3.639 Y6.359 Z-1.292
X-3.619 Y6.339 Z-1.293
X-3.593 Y6.33 Z-1.294
X-3.566 Y6.333 Z-1.295
X-3.542 Y6.348 Z-1.296
X-2.481 Y7.409 Z-1.348
X-2.467 Y7.432 Z-1.349
X-2.463 Y7.46 Z-1.35
X-2.473 Y7.486 Z-1.351
X-2.492 Y7.506 Z-1.352
X-2.519 Y7.515 Z-1.353
X-2.546 Y7.512 Z-1.354
X-2.57 Y7.497 Z-1.355
X-3.63 Y6.436 Z-1.408
X-3.645 Y6.413 Z-1.409
X-3.648 Y6.385 Z-1.41
X-3.639 Y6.359 Z-1.411
X-3.619 Y6.339 Z-1.412
X-3.593 Y6.33 Z-1.413
X-3.566 Y6.333 Z-1.414
X-3.542 Y6.348
X-2.481 Y7.409 Z-1.467
X-2.467 Y7.432 Z-1.468
X-2.463 Y7.46 Z-1.469
X-2.473 Y7.486 Z-1.47
X-2.492 Y7.506 Z-1.471
X-2.519 Y7.515 Z-1.472
X-2.546 Y7.512 Z-1.473
X-2.57 Y7.497 Z-1.474
X-3.63 Y6.436 Z-1.526
X-3.645 Y6.413 Z-1.527
X-3.648 Y6.385 Z-1.528
X-3.639 Y6.359 Z-1.529
X-3.619 Y6.339 Z-1.53
X-3.593 Y6.33 Z-1.531
X-3.566 Y6.333 Z-1.532
X-3.542 Y6.348 Z-1.533
X-2.481 Y7.409 Z-1.585
X-2.467 Y7.432 Z-1.586
X-2.463 Y7.46 Z-1.587
X-2.473 Y7.486 Z-1.588
X-2.492 Y7.506 Z-1.589
X-2.519 Y7.515 Z-1.59
X-2.546 Y7.512 Z-1.591
X-2.57 Y7.497 Z-1.592
X-3.63 Y6.436 Z-1.645
X-3.645 Y6.413 Z-1.646
X-3.648 Y6.385 Z-1.647
X-3.639 Y6.359 Z-1.648
X-3.619 Y6.339
X-3.593 Y6.33 Z-1.649
X-3.566 Y6.333 Z-1.65
X-3.542 Y6.348 Z-1.651
X-2.481 Y7.409 Z-1.704
X-2.467 Y7.432 Z-1.705
X-2.463 Y7.46 Z-1.706
X-2.473 Y7.486 Z-1.707
X-2.492 Y7.506 Z-1.708
X-2.519 Y7.515 Z-1.709
X-2.546 Y7.512 Z-1.71
X-2.57 Y7.497 Z-1.711
X-3.63 Y6.436 Z-1.763
X-3.645 Y6.413 Z-1.764
X-3.648 Y6.385 Z-1.765
X-3.639 Y6.359 Z-1.766
X-3.619 Y6.339 Z-1.767
X-3.593 Y6.33 Z-1.768
X-3.566 Y6.333 Z-1.769
X-3.542 Y6.348 Z-1.77
X-2.481 Y7.409 Z-1.822
X-2.467 Y7.432 Z-1.823
X-2.463 Y7.46 Z-1.824
X-2.473 Y7.486 Z-1.825
X-2.492 Y7.506 Z-1.826
X-2.519 Y7.515 Z-1.827
X-2.546 Y7.512 Z-1.828
X-2.57 Y7.497 Z-1.829
X-3.63 Y6.436 Z-1.882
X-3.645 Y6.413 Z-1.883
X-3.648 Y6.385
X-3.639 Y6.359 Z-1.884
X-3.619 Y6.339 Z-1.885
X-3.593 Y6.33 Z-1.886
X-3.566 Y6.333 Z-1.887
X-3.542 Y6.348 Z-1.888
X-2.481 Y7.409 Z-1.941
X-2.467 Y7.432 Z-1.942
X-2.463 Y7.46 Z-1.943
X-2.473 Y7.486 Z-1.944
X-2.492 Y7.506 Z-1.945
X-2.519 Y7.515 Z-1.946
X-2.546 Y7.512 Z-1.947
X-2.57 Y7.497 Z-1.948
X-3.63 Y6.436 Z-2
S6000
X-3.645 Y6.413 F1000
X-3.648 Y6.385
X-3.639 Y6.359
X-3.619 Y6.339
X-3.593 Y6.33
X-3.566 Y6.333
X-3.542 Y6.348
X-2.481 Y7.409
X-2.467 Y7.432
X-2.463 Y7.46
X-2.473 Y7.486
X-2.492 Y7.506
X-2.519 Y7.515
X-2.546 Y7.512
X-2.57 Y7.497
X-3.63 Y6.436
S5000
X-3.645 Y6.413 Z-2.001 F333.3
X-3.648 Y6.385 Z-2.002
X-3.639 Y6.359 Z-2.003
X-3.619 Y6.339 Z-2.004
X-3.593 Y6.33 Z-2.005
X-3.566 Y6.333 Z-2.006
X-3.542 Y6.348 Z-2.007
X-2.481 Y7.409 Z-2.059
X-2.467 Y7.432 Z-2.06
X-2.463 Y7.46 Z-2.061
X-2.473 Y7.486 Z-2.062
X-2.492 Y7.506 Z-2.063
X-2.519 Y7.515 Z-2.064
X-2.546 Y7.512 Z-2.065
X-2.57 Y7.497 Z-2.066
X-3.63 Y6.436 Z-2.118
X-3.645 Y6.413 Z-2.119
X-3.648 Y6.385 Z-2.12
X-3.639 Y6.359 Z-2.121
X-3.619 Y6.339 Z-2.122
X-3.593 Y6.33 Z-2.123
X-3.566 Y6.333 Z-2.124
X-3.542 Y6.348 Z-2.125
X-2.481 Y7.409 Z-2.178
X-2.467 Y7.432 Z-2.179
X-2.463 Y7.46 Z-2.18
X-2.473 Y7.486 Z-2.181
X-2.492 Y7.506 Z-2.182
X-2.519 Y7.515 Z-2.183
X-2.546 Y7.512 Z-2.184
X-2.57 Y7.497 Z-2.185
X-3.63 Y6.436 Z-2.237
X-3.645 Y6.413 Z-2.238
X-3.648 Y6.385 Z-2.239
X-3.639 Y6.359 Z-2.24
X-3.619 Y6.339 Z-2.241
X-3.593 Y6.33 Z-2.242
X-3.566 Y6.333 Z-2.243
X-3.542 Y6.348 Z-2.244
X-2.481 Y7.409 Z-2.296
X-2.467 Y7.432 Z-2.297
X-2.463 Y7.46 Z-2.298
X-2.473 Y7.486 Z-2.299
X-2.492 Y7.506 Z-2.3
X-2.519 Y7.515 Z-2.301
X-2.546 Y7.512 Z-2.302
X-2.57 Y7.497 Z-2.303
X-3.63 Y6.436 Z-2.355
X-3.645 Y6.413 Z-2.356
X-3.648 Y6.385 Z-2.357
X-3.639 Y6.359 Z-2.358
X-3.619 Y6.339 Z-2.359
X-3.593 Y6.33 Z-2.36
X-3.566 Y6.333 Z-2.361
X-3.542 Y6.348 Z-2.362
X-2.481 Y7.409 Z-2.415
X-2.467 Y7.432 Z-2.416
X-2.463 Y7.46 Z-2.417
X-2.473 Y7.486 Z-2.418
X-2.492 Y7.506 Z-2.419
X-2.519 Y7.515 Z-2.42
X-2.546 Y7.512 Z-2.421
X-2.57 Y7.497 Z-2.422
X-3.63 Y6.436 Z-2.474
X-3.645 Y6.413 Z-2.475
X-3.648 Y6.385 Z-2.476
X-3.639 Y6.359 Z-2.477
X-3.619 Y6.339 Z-2.478
X-3.593 Y6.33 Z-2.479
X-3.566 Y6.333 Z-2.48
X-3.542 Y6.348 Z-2.481
X-2.481 Y7.409 Z-2.533
X-2.467 Y7.432 Z-2.534
X-2.463 Y7.46 Z-2.535
X-2.473 Y7.486 Z-2.536
X-2.492 Y7.506 Z-2.537
X-2.519 Y7.515 Z-2.538
X-2.546 Y7.512 Z-2.539
X-2.57 Y7.497 Z-2.54
X-3.63 Y6.436 Z-2.592
X-3.645 Y6.413 Z-2.593
X-3.648 Y6.385 Z-2.594
X-3.639 Y6.359 Z-2.595
X-3.619 Y6.339 Z-2.596
X-3.593 Y6.33 Z-2.597
X-3.566 Y6.333 Z-2.598
X-3.542 Y6.348 Z-2.599
X-2.481 Y7.409 Z-2.652
X-2.467 Y7.432 Z-2.653
X-2.463 Y7.46 Z-2.654
X-2.473 Y7.486 Z-2.655
X-2.492 Y7.506 Z-2.656
X-2.519 Y7.515 Z-2.657
X-2.546 Y7.512
X-2.57 Y7.497 Z-2.658
X-3.63 Y6.436 Z-2.711
X-3.645 Y6.413 Z-2.712
X-3.648 Y6.385 Z-2.713
X-3.639 Y6.359 Z-2.714
X-3.619 Y6.339 Z-2.715
X-3.593 Y6.33 Z-2.716
X-3.566 Y6.333 Z-2.717
X-3.542 Y6.348 Z-2.718
X-2.481 Y7.409 Z-2.77
X-2.467 Y7.432 Z-2.771
X-2.463 Y7.46 Z-2.772
X-2.473 Y7.486 Z-2.773
X-2.492 Y7.506 Z-2.774
X-2.519 Y7.515 Z-2.775
X-2.546 Y7.512 Z-2.776
X-2.57 Y7.497 Z-2.777
X-3.63 Y6.436 Z-2.829
X-3.645 Y6.413 Z-2.83
X-3.648 Y6.385 Z-2.831
X-3.639 Y6.359 Z-2.832
X-3.619 Y6.339 Z-2.833
X-3.593 Y6.33 Z-2.834
X-3.566 Y6.333 Z-2.835
X-3.542 Y6.348 Z-2.836
X-2.481 Y7.409 Z-2.889
X-2.467 Y7.432 Z-2.89
X-2.463 Y7.46 Z-2.891
X-2.473 Y7.486
X-2.492 Y7.506 Z-2.892
X-2.519 Y7.515 Z-2.893
X-2.546 Y7.512 Z-2.894
X-2.57 Y7.497 Z-2.895
X-3.63 Y6.436 Z-2.948
X-3.645 Y6.413 Z-2.949
X-3.648 Y6.385 Z-2.95
X-3.639 Y6.359 Z-2.951
X-3.619 Y6.339 Z-2.952
X-3.593 Y6.33 Z-2.953
X-3.566 Y6.333 Z-2.954
X-3.542 Y6.348 Z-2.955
X-2.481 Y7.409 Z-3.007
X-2.467 Y7.432 Z-3.008
X-2.463 Y7.46 Z-3.009
X-2.473 Y7.486 Z-3.01
X-2.492 Y7.506 Z-3.011
X-2.519 Y7.515 Z-3.012
X-2.546 Y7.512 Z-3.013
X-2.57 Y7.497 Z-3.014
X-3.63 Y6.436 Z-3.066
X-3.645 Y6.413 Z-3.067
X-3.648 Y6.385 Z-3.068
X-3.639 Y6.359 Z-3.069
X-3.619 Y6.339 Z-3.07
X-3.593 Y6.33 Z-3.071
X-3.566 Y6.333 Z-3.072
X-3.542 Y6.348 Z-3.073
X-2.998 Y6.892 Z-3.1
S6000
X-2.481 Y7.409 F1000
X-2.467 Y7.432
X-2.463 Y7.46
X-2.473 Y7.486
X-2.492 Y7.506
X-2.519 Y7.515
X-2.546 Y7.512
X-2.57 Y7.497
X-3.63 Y6.436
X-3.645 Y6.413
X-3.648 Y6.385
X-3.639 Y6.359
X-3.619 Y6.339
X-3.593 Y6.33
X-3.566 Y6.333
X-3.542 Y6.348
X-2.998 Y6.892
S5000
X-2.481 Y7.409 Z-3.126 F333.3
X-2.467 Y7.432
X-2.463 Y7.46 Z-3.127
X-2.473 Y7.486 Z-3.128
X-2.492 Y7.506 Z-3.129
X-2.519 Y7.515 Z-3.13
X-2.546 Y7.512 Z-3.131
X-2.57 Y7.497 Z-3.132
X-3.63 Y6.436 Z-3.185
X-3.645 Y6.413 Z-3.186
X-3.648 Y6.385 Z-3.187
X-3.639 Y6.359 Z-3.188
X-3.619 Y6.339 Z-3.189
X-3.593 Y6.33 Z-3.19
X-3.566 Y6.333 Z-3.191
X-3.542 Y6.348 Z-3.192
X-2.481 Y7.409 Z-3.244
X-2.467 Y7.432 Z-3.245
X-2.463 Y7.46 Z-3.246
X-2.473 Y7.486 Z-3.247
X-2.492 Y7.506 Z-3.248
X-2.519 Y7.515 Z-3.249
X-2.546 Y7.512 Z-3.25
X-2.57 Y7.497 Z-3.251
X-3.63 Y6.436 Z-3.303
X-3.645 Y6.413 Z-3.304
X-3.648 Y6.385 Z-3.305
X-3.639 Y6.359 Z-3.306
X-3.619 Y6.339 Z-3.307
X-3.593 Y6.33 Z-3.308
X-3.566 Y6.333 Z-3.309
X-3.542 Y6.348 Z-3.31
X-2.481 Y7.409 Z-3.362
X-2.467 Y7.432 Z-3.363
X-2.463 Y7.46 Z-3.364
X-2.473 Y7.486 Z-3.365
X-2.492 Y7.506 Z-3.366
X-2.519 Y7.515 Z-3.367
X-2.546 Y7.512 Z-3.368
X-2.57 Y7.497 Z-3.369
X-3.63 Y6.436 Z-3.422
X-3.645 Y6.413 Z-3.423
X-3.648 Y6.385 Z-3.424
X-3.639 Y6.359 Z-3.425
X-3.619 Y6.339 Z-3.426
X-3.593 Y6.33 Z-3.427
X-3.566 Y6.333 Z-3.428
X-3.542 Y6.348 Z-3.429
X-2.481 Y7.409 Z-3.481
X-2.467 Y7.432 Z-3.482
X-2.463 Y7.46 Z-3.483
X-2.473 Y7.486 Z-3.484
X-2.492 Y7.506 Z-3.485
X-2.519 Y7.515 Z-3.486
X-2.546 Y7.512 Z-3.487
X-2.57 Y7.497 Z-3.488
X-3.63 Y6.436 Z-3.54
X-3.645 Y6.413 Z-3.541
X-3.648 Y6.385 Z-3.542
X-3.639 Y6.359 Z-3.543
X-3.619 Y6.339 Z-3.544
X-3.593 Y6.33 Z-3.545
X-3.566 Y6.333 Z-3.546
X-3.542 Y6.348 Z-3.547
X-2.481 Y7.409 Z-3.599
X-2.467 Y7.432 Z-3.6
X-2.463 Y7.46 Z-3.601
X-2.473 Y7.486 Z-3.602
X-2.492 Y7.506 Z-3.603
X-2.519 Y7.515 Z-3.604
X-2.546 Y7.512 Z-3.605
X-2.57 Y7.497 Z-3.606
X-3.63 Y6.436 Z-3.659
X-3.645 Y6.413 Z-3.66
X-3.648 Y6.385 Z-3.661
X-3.639 Y6.359 Z-3.662
X-3.619 Y6.339 Z-3.663
X-3.593 Y6.33 Z-3.664
X-3.566 Y6.333 Z-3.665
X-3.542 Y6.348
X-2.481 Y7.409 Z-3.718
X-2.467 Y7.432 Z-3.719
X-2.463 Y7.46 Z-3.72
X-2.473 Y7.486 Z-3.721
X-2.492 Y7.506 Z-3.722
X-2.519 Y7.515 Z-3.723
X-2.546 Y7.512 Z-3.724
X-2.57 Y7.497 Z-3.725
X-3.63 Y6.436 Z-3.777
X-3.645 Y6.413 Z-3.778
X-3.648 Y6.385 Z-3.779
X-3.639 Y6.359 Z-3.78
X-3.619 Y6.339 Z-3.781
X-3.593 Y6.33 Z-3.782
X-3.566 Y6.333 Z-3.783
X-3.542 Y6.348 Z-3.784
X-2.481 Y7.409 Z-3.836
X-2.467 Y7.432 Z-3.837
X-2.463 Y7.46 Z-3.838
X-2.473 Y7.486 Z-3.839
X-2.492 Y7.506 Z-3.84
X-2.519 Y7.515 Z-3.841
X-2.546 Y7.512 Z-3.842
X-2.57 Y7.497 Z-3.843
X-3.63 Y6.436 Z-3.896
X-3.645 Y6.413 Z-3.897
X-3.648 Y6.385 Z-3.898
X-3.639 Y6.359 Z-3.899
X-3.619 Y6.339 Z-3.9
X-3.593 Y6.33
X-3.566 Y6.333 Z-3.901
X-3.542 Y6.348 Z-3.902
X-2.481 Y7.409 Z-3.955
X-2.467 Y7.432 Z-3.956
X-2.463 Y7.46 Z-3.957
X-2.473 Y7.486 Z-3.958
X-2.492 Y7.506 Z-3.959
X-2.519 Y7.515 Z-3.96
X-2.546 Y7.512 Z-3.961
X-2.57 Y7.497 Z-3.962
X-3.63 Y6.436 Z-4.014
X-3.645 Y6.413 Z-4.015
X-3.648 Y6.385 Z-4.016
X-3.639 Y6.359 Z-4.017
X-3.619 Y6.339 Z-4.018
X-3.593 Y6.33 Z-4.019
X-3.566 Y6.333 Z-4.02
X-3.542 Y6.348 Z-4.021
X-2.481 Y7.409 Z-4.073
X-2.467 Y7.432 Z-4.074
X-2.463 Y7.46 Z-4.075
X-2.473 Y7.486 Z-4.076
X-2.492 Y7.506 Z-4.077
X-2.519 Y7.515 Z-4.078
X-2.546 Y7.512 Z-4.079
X-2.57 Y7.497 Z-4.08
X-3.63 Y6.436 Z-4.133
X-3.645 Y6.413 Z-4.134
X-3.648 Y6.385
X-3.639 Y6.359 Z-4.135
X-3.619 Y6.339 Z-4.136
X-3.593 Y6.33 Z-4.137
X-3.566 Y6.333 Z-4.138
X-3.542 Y6.348 Z-4.139
X-2.481 Y7.409 Z-4.192
X-2.467 Y7.432 Z-4.193
X-2.463 Y7.46 Z-4.194
X-2.473 Y7.486 Z-4.195
X-2.492 Y7.506 Z-4.196
X-2.519 Y7.515 Z-4.197
X-2.546 Y7.512 Z-4.198
X-2.57 Y7.497 Z-4.199
X-2.598 Y7.469 Z-4.2
S6000
X-3.63 Y6.436 F1000
X-3.645 Y6.413
X-3.648 Y6.385
X-3.639 Y6.359
X-3.619 Y6.339
X-3.593 Y6.33
X-3.566 Y6.333
X-3.542 Y6.348
X-2.998 Y6.892
X-2.481 Y7.409
X-2.467 Y7.432
X-2.463 Y7.46
X-2.473 Y7.486
X-2.492 Y7.506
X-2.519 Y7.515
X-2.546 Y7.512
X-2.57 Y7.497
X-2.598 Y7.469
X-2.601 Y7.466
X-2.603 Y7.462 Z-4.199
X-2.605 Y7.458 Z-4.197
X-2.606 Y7.454 Z-4.194
Y7.45 Z-4.191
Y7.447 Z-4.188
Y7.445 Z-4.184
Y7.443 Z-4.179
Y7.442 Z-4.175
Z-4.17
Z15
(When using Fusion 360 for Personal Use, the feedrate of)
(rapid moves is reduced to match the feedrate of cutting)
(moves, which can increase machining time. Unrestricted rapid)
(moves are available with a Fusion 360 Subscription.)

(2D Adaptive30)
G0 X21.776 Y12.71
G1 Z15 F1000
Z5
Z-0.365
Z-0.683
X21.768 Y12.712 Z-0.753
X21.745 Y12.717 Z-0.82
X21.709 Y12.727 Z-0.88
X21.66 Y12.739 Z-0.931
X21.602 Y12.754 Z-0.969
X21.537 Y12.771 Z-0.992
X21.468 Y12.788 Z-1
G3 X19.74 Y13.037 I-2.011 J-7.852
G1 X19.59
X19.52 Y12.944
X19.518 Y12.828
X19.586 Y12.733
X19.696 Y12.697
X19.738 Y12.699
G3 X19.721 Y13.522 I-0.032 J0.411
G1 X19.43
X19.392 Y13.52
X19.277 Y13.405
X19.21 Y13.257
X19.2 Y13.094
X19.249 Y12.939
X19.349 Y12.811
X19.488 Y12.726
X19.649 Y12.697
X19.697 Y12.705
X19.743 Y12.724
X19.782 Y12.753
X19.814 Y12.791
G3 X19.43 Y13.522 I-0.401 J0.256
G1 X19.212
X19.137 Y13.518
X19.004 Y13.448
X18.914 Y13.302
X18.886 Y13.133
X18.923 Y12.965
X19.021 Y12.824
X19.165 Y12.73
X19.333 Y12.697
X19.372 Y12.702
X19.409 Y12.714
X19.443 Y12.733
G3 X19.212 Y13.522 I-0.246 J0.356
G1 X18.921
X18.846 Y13.518
X18.709 Y13.456
X18.613 Y13.312
X18.578 Y13.142
X18.612 Y12.972
X18.708 Y12.828
X18.852 Y12.731
X19.022 Y12.697
X19.071 Y12.705
X19.116 Y12.724
G3 X18.921 Y13.522 I-0.21 J0.372
G1 X18.63
X18.555 Y13.518
X18.416 Y13.462
X18.314 Y13.32
X18.275 Y13.15
X18.305 Y12.977
X18.4 Y12.83
X18.545 Y12.732
X18.716 Y12.697
X18.758 Y12.703
X18.798 Y12.717
G3 X18.63 Y13.522 I-0.183 J0.382
G1 X18.339
X18.189 Y13.515
X18.061 Y13.436
X17.976 Y13.29
X17.952 Y13.123
X17.992 Y12.958
X18.09 Y12.821
X18.232 Y12.729
X18.398 Y12.697
X18.427 Y12.7
X18.455 Y12.707
G3 X18.339 Y13.522 I-0.131 J0.397
G1 X18.018
X17.868 Y13.515
X17.739 Y13.438
X17.655 Y13.291
X17.631 Y13.123
X17.671 Y12.959
X17.769 Y12.821
X17.911 Y12.729
X18.078 Y12.697
X18.107 Y12.7
X18.136 Y12.708
G3 X18.018 Y13.522 I-0.132 J0.397
G1 X17.683
X17.533 Y13.515
X17.407 Y13.433
X17.326 Y13.286
X17.305 Y13.118
X17.347 Y12.955
X17.446 Y12.819
X17.588 Y12.729
X17.754 Y12.697
X18.078
G3 X18.274 Y12.895 I-0.007 J0.203
X17.683 Y13.522 I-0.612 J0.015
G1 X17.392
X17.242 Y13.515
X17.109 Y13.445
X17.02 Y13.299
X16.991 Y13.131
X17.029 Y12.964
X17.126 Y12.823
X17.269 Y12.73
X17.437 Y12.697
X17.754
G3 X17.949 Y12.878 I-0.007 J0.203
X17.392 Y13.522 I-0.577 J0.064
G1 X17.064
X16.915 Y13.515
X16.785 Y13.44
X16.698 Y13.294
X16.672 Y13.126
X16.711 Y12.961
X16.809 Y12.822
X16.951 Y12.729
X17.118 Y12.697
X17.437
G3 X17.632 Y12.883 I-0.007 J0.203
X17.064 Y13.522 I-0.588 J0.049
G1 X16.737
X16.587 Y13.515
X16.459 Y13.437
X16.374 Y13.29
X16.351 Y13.123
X16.391 Y12.958
X16.489 Y12.821
X16.631 Y12.729
X16.798 Y12.697
X17.118
G3 X17.314 Y12.888 I-0.007 J0.203
X16.737 Y13.522 I-0.597 J0.036
G1 X16.417
X16.267 Y13.515
X16.138 Y13.438
X16.053 Y13.291
X16.03 Y13.123
X16.07 Y12.959
X16.168 Y12.821
X16.31 Y12.729
X16.477 Y12.697
X16.798
G3 X16.993 Y12.888 I-0.007 J0.203
X16.417 Y13.522 I-0.598 J0.036
G1 X16.081
X16.006 Y13.518
X15.867 Y13.462
X15.766 Y13.32
X15.728 Y13.149
X15.759 Y12.977
X15.854 Y12.83
X15.999 Y12.732
X16.17 Y12.697
X16.477
G3 X16.673 Y12.895 I-0.007 J0.203
X16.081 Y13.522 I-0.613 J0.015
G1 X15.79
X15.64 Y13.515
X15.513 Y13.436
X15.429 Y13.289
X15.405 Y13.122
X15.445 Y12.958
X15.543 Y12.82
X15.685 Y12.729
X15.851 Y12.697
X16.17
G3 X16.366 Y12.887 I-0.007 J0.203
X15.79 Y13.522 I-0.596 J0.038
G1 X15.468
X15.318 Y13.515
X15.19 Y13.437
X15.106 Y13.29
X15.083 Y13.122
X15.123 Y12.958
X15.221 Y12.82
X15.364 Y12.729
X15.53 Y12.697
X15.851
G3 X16.046 Y12.888 I-0.007 J0.203
X15.468 Y13.522 I-0.599 J0.034
G1 X15.172
X15.022 Y13.515
X14.889 Y13.445
X14.799 Y13.3
X14.77 Y13.132
X14.806 Y12.965
X14.903 Y12.824
X15.046 Y12.73
X15.214 Y12.697
X15.53
G3 X15.725 Y12.876 I-0.007 J0.203
X15.172 Y13.522 I-0.573 J0.069
G1 X14.845
X14.695 Y13.515
X14.564 Y13.44
X14.477 Y13.295
X14.451 Y13.127
X14.49 Y12.961
X14.587 Y12.822
X14.73 Y12.729
X14.897 Y12.697
X15.214
G3 X15.409 Y12.882 I-0.007 J0.203
X14.845 Y13.522 I-0.585 J0.053
G1 X14.524
X14.374 Y13.515
X14.244 Y13.44
X14.158 Y13.294
X14.132 Y13.126
X14.171 Y12.96
X14.269 Y12.822
X14.411 Y12.729
X14.578 Y12.697
X14.897
G3 X15.092 Y12.883 I-0.007 J0.203
X14.524 Y13.522 I-0.589 J0.048
G1 X14.189
X14.039 Y13.515
X13.912 Y13.435
X13.83 Y13.287
X13.808 Y13.12
X13.849 Y12.956
X13.948 Y12.82
X14.09 Y12.729
X14.256 Y12.697
X14.578
G3 X14.774 Y12.892 I-0.007 J0.203
X14.189 Y13.522 I-0.606 J0.024
G1 X13.867
X13.717 Y13.515
X13.59 Y13.436
X13.507 Y13.288
X13.484 Y13.121
X13.526 Y12.957
X13.624 Y12.82
X13.767 Y12.729
X13.933 Y12.697
X14.256
G3 X14.451 Y12.892 I-0.007 J0.203
X13.867 Y13.522 I-0.606 J0.024
G1 X13.57
X13.421 Y13.515
X13.288 Y13.444
X13.199 Y13.299
X13.17 Y13.13
X13.208 Y12.964
X13.305 Y12.823
X13.448 Y12.73
X13.616 Y12.697
X13.933
G3 X14.128 Y12.878 I-0.007 J0.203
X13.57 Y13.522 I-0.577 J0.064
G1 X13.243
X13.093 Y13.515
X12.963 Y13.44
X12.877 Y13.294
X12.851 Y13.126
X12.89 Y12.96
X12.988 Y12.822
X13.131 Y12.729
X13.297 Y12.697
X13.616
G3 X13.811 Y12.883 I-0.007 J0.203
X13.243 Y13.522 I-0.588 J0.049
G1 X12.923
X12.773 Y13.515
X12.643 Y13.439
X12.557 Y13.293
X12.532 Y13.125
X12.571 Y12.96
X12.669 Y12.821
X12.812 Y12.729
X12.978 Y12.697
X13.297
G3 X13.493 Y12.884 I-0.007 J0.203
X12.923 Y13.522 I-0.591 J0.045
G1 X12.587
X12.438 Y13.515
X12.311 Y13.434
X12.229 Y13.287
X12.207 Y13.12
X12.249 Y12.956
X12.347 Y12.819
X12.49 Y12.729
X12.655 Y12.697
X12.978
G3 X13.174 Y12.893 I-0.007 J0.203
X12.587 Y13.522 I-0.608 J0.022
G1 X12.265
X12.116 Y13.515
X11.988 Y13.435
X11.906 Y13.288
X11.884 Y13.12
X11.925 Y12.957
X12.024 Y12.82
X12.166 Y12.729
X12.332 Y12.697
X12.655
G3 X12.851 Y12.892 I-0.007 J0.203
X12.265 Y13.522 I-0.607 J0.023
G1 X11.969
X11.819 Y13.515
X11.687 Y13.444
X11.597 Y13.299
X11.569 Y13.13
X11.607 Y12.964
X11.704 Y12.823
X11.847 Y12.73
X12.015 Y12.697
X12.332
G3 X12.527 Y12.878 I-0.007 J0.203
X11.969 Y13.522 I-0.578 J0.063
G1 X11.642
X11.492 Y13.515
X11.362 Y13.44
X11.276 Y13.293
X11.25 Y13.126
X11.289 Y12.96
X11.387 Y12.822
X11.529 Y12.729
X11.696 Y12.697
X12.015
G3 X12.21 Y12.884 I-0.007 J0.203
X11.642 Y13.522 I-0.589 J0.048
G1 X11.321
X11.171 Y13.515
X11.042 Y13.439
X10.956 Y13.293
X10.931 Y13.125
X10.97 Y12.96
X11.068 Y12.821
X11.21 Y12.729
X11.377 Y12.697
X11.696
G3 X11.892 Y12.885 I-0.007 J0.203
X11.321 Y13.522 I-0.591 J0.045
G1 X10.986
X10.836 Y13.515
X10.71 Y13.434
X10.628 Y13.287
X10.606 Y13.119
X10.647 Y12.956
X10.746 Y12.819
X10.888 Y12.729
X11.054 Y12.697
X11.377
G3 X11.573 Y12.893 I-0.007 J0.203
X10.986 Y13.522 I-0.608 J0.021
G1 X10.695
X10.545 Y13.515
X10.412 Y13.445
X10.322 Y13.3
X10.293 Y13.131
X10.33 Y12.964
X10.427 Y12.824
X10.57 Y12.73
X10.738 Y12.697
X11.054
G3 X11.249 Y12.876 I-0.007 J0.203
X10.695 Y13.522 I-0.574 J0.068
G1 X10.368
X10.218 Y13.515
X10.087 Y13.44
X10 Y13.294
X9.974 Y13.126
X10.013 Y12.961
X10.111 Y12.822
X10.253 Y12.729
X10.42 Y12.697
X10.738
G3 X10.933 Y12.882 I-0.007 J0.203
