(1001)
(Bearbeiten)
(  Hersteller: ChinaCnc)
(  model: 3040T)
(  description: Generic 3-axis)
(T5  D=3.175 CR=0 - ZMIN=-4.2 - Schaftfraser)
G90 G94
G17
G21
(When using Fusion 360 for Personal Use, the feedrate of)
(rapid moves is reduced to match the feedrate of cutting)
(moves, which can increase machining time. Unrestricted rapid)
(moves are available with a Fusion 360 Subscription.)

(Bohrfrasen10)
T5
S6000 M3
G54
G0 X-212.885 Y-16.18
Z15
G1 Z1.683 F1000
Z0
X-212.853 Y-16.211
X-212.838 Y-16.207
X-212.826 Y-16.196
X-212.822 Y-16.18
X-212.829 Y-16.151 Z-0.078
X-212.85 Y-16.128 Z-0.156
X-212.878 Y-16.118 Z-0.233
X-212.908 Y-16.122 Z-0.311
X-212.932 Y-16.14 Z-0.389
X-212.946 Y-16.167 Z-0.467
X-212.945 Y-16.197 Z-0.544
X-212.929 Y-16.224 Z-0.622
X-212.904 Y-16.24 Z-0.7
X-212.874 Y-16.242 Z-0.778
X-212.846 Y-16.229 Z-0.856
X-212.827 Y-16.206 Z-0.933
X-212.822 Y-16.176 Z-1.011
X-212.832 Y-16.147 Z-1.089
X-212.853 Y-16.126 Z-1.167
X-212.882 Y-16.118 Z-1.244
X-212.912 Y-16.124 Z-1.322
X-212.935 Y-16.143 Z-1.4
X-212.946 Y-16.172 Z-1.478
X-212.943 Y-16.202 Z-1.556
X-212.926 Y-16.227 Z-1.633
X-212.9 Y-16.241 Z-1.711
X-212.869 Z-1.789
X-212.843 Y-16.227 Z-1.867
X-212.826 Y-16.202 Z-1.944
X-212.823 Y-16.172 Z-2.022
X-212.834 Y-16.143 Z-2.1
X-212.857 Y-16.124 Z-2.178
X-212.887 Y-16.118 Z-2.256
X-212.916 Y-16.126 Z-2.333
X-212.938 Y-16.147 Z-2.411
X-212.947 Y-16.176 Z-2.489
X-212.942 Y-16.206 Z-2.567
X-212.923 Y-16.229 Z-2.644
X-212.895 Y-16.242 Z-2.722
X-212.865 Y-16.24 Z-2.8
X-212.84 Y-16.224 Z-2.878
X-212.824 Y-16.197 Z-2.956
X-212.823 Y-16.167 Z-3.033
X-212.837 Y-16.14 Z-3.111
X-212.861 Y-16.122 Z-3.189
X-212.891 Y-16.118 Z-3.267
X-212.919 Y-16.128 Z-3.344
X-212.94 Y-16.151 Z-3.422
X-212.947 Y-16.18 Z-3.5
X-212.94 Y-16.21 Z-3.578
X-212.919 Y-16.232 Z-3.656
X-212.891 Y-16.242 Z-3.733
X-212.861 Y-16.238 Z-3.811
X-212.837 Y-16.22 Z-3.889
X-212.823 Y-16.193 Z-3.967
X-212.824 Y-16.163 Z-4.044
X-212.84 Y-16.137 Z-4.122
X-212.865 Y-16.121 Z-4.2
G3 X-212.904 Y-16.24 I-0.019 J-0.059
X-212.865 Y-16.121 I0.019 J0.059
G1 X-212.881 Y-16.12
X-212.896 Y-16.127
X-212.905 Y-16.141
X-212.885 Y-16.18
Z5
X-223.567 Y-25.928
Z2
Z0.317
X-223.564 Y-25.921 Z0.247
X-223.554 Y-25.899 Z0.18
X-223.539 Y-25.864 Z0.12
X-223.519 Y-25.818 Z0.069
X-223.495 Y-25.763 Z0.031
X-223.468 Y-25.702 Z0.008
X-223.44 Y-25.637 Z0
X-223.376 Y-25.491
G3 X-223.54 Y-25.073 I-0.291 J0.127
X-226.27 Y-31.329 Z-0.5 I-1.365 J-3.128
X-223.54 Y-25.073 Z-1 I1.365 J3.128
X-226.27 Y-31.329 Z-1.5 I-1.365 J-3.128
X-223.54 Y-25.073 Z-2 I1.365 J3.128
X-226.27 Y-31.329 Z-2.5 I-1.365 J-3.128
X-223.54 Y-25.073 Z-3 I1.365 J3.128
X-226.27 Y-31.329 Z-3.5 I-1.365 J-3.128
X-223.54 Y-25.073 Z-4 I1.365 J3.128
X-227.458 Y-25.936 Z-4.2 I-1.365 J-3.128
X-222.353 Y-30.466 I2.553 J-2.265
X-227.458 Y-25.936 I-2.553 J2.265
X-227.431 Y-26.385 I0.238 J-0.211
G1 X-227.313 Y-26.49
X-227.26 Y-26.537 Z-4.192
X-227.209 Y-26.581 Z-4.169
X-227.164 Y-26.621 Z-4.131
X-227.127 Y-26.655 Z-4.08
X-227.099 Y-26.68 Z-4.02
X-227.081 Y-26.695 Z-3.953
X-227.075 Y-26.701 Z-3.882
Z5
X-236.926 Y-16.18
Z1.683
Z0
X-236.895 Y-16.211
X-236.879 Y-16.207
X-236.868 Y-16.196
X-236.864 Y-16.18
X-236.871 Y-16.151 Z-0.078
X-236.891 Y-16.128 Z-0.156
X-236.92 Y-16.118 Z-0.233
X-236.95 Y-16.122 Z-0.311
X-236.974 Y-16.14 Z-0.389
X-236.987 Y-16.167 Z-0.467
X-236.986 Y-16.197 Z-0.544
X-236.971 Y-16.224 Z-0.622
X-236.945 Y-16.24 Z-0.7
X-236.915 Y-16.242 Z-0.778
X-236.888 Y-16.229 Z-0.856
X-236.869 Y-16.206 Z-0.933
X-236.864 Y-16.176 Z-1.011
X-236.873 Y-16.147 Z-1.089
X-236.895 Y-16.126 Z-1.167
X-236.924 Y-16.118 Z-1.244
X-236.954 Y-16.124 Z-1.322
X-236.977 Y-16.143 Z-1.4
X-236.988 Y-16.172 Z-1.478
X-236.985 Y-16.202 Z-1.556
X-236.968 Y-16.227 Z-1.633
X-236.941 Y-16.241 Z-1.711
X-236.911 Z-1.789
X-236.884 Y-16.227 Z-1.867
X-236.867 Y-16.202 Z-1.944
X-236.864 Y-16.172 Z-2.022
X-236.876 Y-16.143 Z-2.1
X-236.899 Y-16.124 Z-2.178
X-236.928 Y-16.118 Z-2.256
X-236.957 Y-16.126 Z-2.333
X-236.979 Y-16.147 Z-2.411
X-236.988 Y-16.176 Z-2.489
X-236.983 Y-16.206 Z-2.567
X-236.965 Y-16.229 Z-2.644
X-236.937 Y-16.242 Z-2.722
X-236.907 Y-16.24 Z-2.8
X-236.881 Y-16.224 Z-2.878
X-236.866 Y-16.197 Z-2.956
X-236.865 Y-16.167 Z-3.033
X-236.878 Y-16.14 Z-3.111
X-236.903 Y-16.122 Z-3.189
X-236.933 Y-16.118 Z-3.267
X-236.961 Y-16.128 Z-3.344
X-236.981 Y-16.151 Z-3.422
X-236.989 Y-16.18 Z-3.5
X-236.981 Y-16.21 Z-3.578
X-236.961 Y-16.232 Z-3.656
X-236.933 Y-16.242 Z-3.733
X-236.903 Y-16.238 Z-3.811
X-236.878 Y-16.22 Z-3.889
X-236.865 Y-16.193 Z-3.967
X-236.866 Y-16.163 Z-4.044
X-236.881 Y-16.137 Z-4.122
X-236.907 Y-16.121 Z-4.2
G3 X-236.945 Y-16.24 I-0.019 J-0.059
X-236.907 Y-16.121 I0.019 J0.059
G1 X-236.923 Y-16.12
X-236.937 Y-16.127
X-236.946 Y-16.141
X-236.926 Y-16.18
Z5
Y-40.222
Z1.683
Z0
X-236.895 Y-40.253
X-236.879 Y-40.249
X-236.868 Y-40.237
X-236.864 Y-40.222
X-236.871 Y-40.192 Z-0.078
X-236.891 Y-40.17 Z-0.156
X-236.92 Y-40.16 Z-0.233
X-236.95 Y-40.164 Z-0.311
X-236.974 Y-40.182 Z-0.389
X-236.987 Y-40.209 Z-0.467
X-236.986 Y-40.239 Z-0.544
X-236.971 Y-40.265 Z-0.622
X-236.945 Y-40.281 Z-0.7
X-236.915 Y-40.283 Z-0.778
X-236.888 Y-40.271 Z-0.856
X-236.869 Y-40.247 Z-0.933
X-236.864 Y-40.217 Z-1.011
X-236.873 Y-40.189 Z-1.089
X-236.895 Y-40.168 Z-1.167
X-236.924 Y-40.159 Z-1.244
X-236.954 Y-40.166 Z-1.322
X-236.977 Y-40.185 Z-1.4
X-236.988 Y-40.213 Z-1.478
X-236.985 Y-40.243 Z-1.556
X-236.968 Y-40.268 Z-1.633
X-236.941 Y-40.282 Z-1.711
X-236.911 Z-1.789
X-236.884 Y-40.268 Z-1.867
X-236.867 Y-40.243 Z-1.944
X-236.864 Y-40.213 Z-2.022
X-236.876 Y-40.185 Z-2.1
X-236.899 Y-40.166 Z-2.178
X-236.928 Y-40.159 Z-2.256
X-236.957 Y-40.168 Z-2.333
X-236.979 Y-40.189 Z-2.411
X-236.988 Y-40.217 Z-2.489
X-236.983 Y-40.247 Z-2.567
X-236.965 Y-40.271 Z-2.644
X-236.937 Y-40.283 Z-2.722
X-236.907 Y-40.281 Z-2.8
X-236.881 Y-40.265 Z-2.878
X-236.866 Y-40.239 Z-2.956
X-236.865 Y-40.209 Z-3.033
X-236.878 Y-40.182 Z-3.111
X-236.903 Y-40.164 Z-3.189
X-236.933 Y-40.16 Z-3.267
X-236.961 Y-40.17 Z-3.344
X-236.981 Y-40.192 Z-3.422
X-236.989 Y-40.222 Z-3.5
X-236.981 Y-40.251 Z-3.578
X-236.961 Y-40.274 Z-3.656
X-236.933 Y-40.284 Z-3.733
X-236.903 Y-40.28 Z-3.811
X-236.878 Y-40.262 Z-3.889
X-236.865 Y-40.235 Z-3.967
X-236.866 Y-40.205 Z-4.044
X-236.881 Y-40.178 Z-4.122
X-236.907 Y-40.162 Z-4.2
G3 X-236.945 Y-40.281 I-0.019 J-0.059
X-236.907 Y-40.162 I0.019 J0.059
G1 X-236.923
X-236.937 Y-40.169
X-236.946 Y-40.182
X-236.926 Y-40.222
Z5
X-212.885
Z1.683
Z0
X-212.853 Y-40.253
X-212.838 Y-40.249
X-212.826 Y-40.237
X-212.822 Y-40.222
X-212.829 Y-40.192 Z-0.078
X-212.85 Y-40.17 Z-0.156
X-212.878 Y-40.16 Z-0.233
X-212.908 Y-40.164 Z-0.311
X-212.932 Y-40.182 Z-0.389
X-212.946 Y-40.209 Z-0.467
X-212.945 Y-40.239 Z-0.544
X-212.929 Y-40.265 Z-0.622
X-212.904 Y-40.281 Z-0.7
X-212.874 Y-40.283 Z-0.778
X-212.846 Y-40.271 Z-0.856
X-212.827 Y-40.247 Z-0.933
X-212.822 Y-40.217 Z-1.011
X-212.831 Y-40.189 Z-1.089
X-212.853 Y-40.168 Z-1.167
X-212.882 Y-40.159 Z-1.244
X-212.912 Y-40.166 Z-1.322
X-212.935 Y-40.185 Z-1.4
X-212.946 Y-40.213 Z-1.478
X-212.943 Y-40.243 Z-1.556
X-212.926 Y-40.268 Z-1.633
X-212.9 Y-40.282 Z-1.711
X-212.869 Z-1.789
X-212.843 Y-40.268 Z-1.867
X-212.826 Y-40.243 Z-1.944
X-212.823 Y-40.213 Z-2.022
X-212.834 Y-40.185 Z-2.1
X-212.857 Y-40.166 Z-2.178
X-212.887 Y-40.159 Z-2.256
X-212.916 Y-40.168 Z-2.333
X-212.938 Y-40.189 Z-2.411
X-212.947 Y-40.217 Z-2.489
X-212.942 Y-40.247 Z-2.567
X-212.923 Y-40.271 Z-2.644
X-212.895 Y-40.283 Z-2.722
X-212.865 Y-40.281 Z-2.8
X-212.84 Y-40.265 Z-2.878
X-212.824 Y-40.239 Z-2.956
X-212.823 Y-40.209 Z-3.033
X-212.837 Y-40.182 Z-3.111
X-212.861 Y-40.164 Z-3.189
X-212.891 Y-40.16 Z-3.267
X-212.919 Y-40.17 Z-3.344
X-212.94 Y-40.192 Z-3.422
X-212.947 Y-40.222 Z-3.5
X-212.94 Y-40.251 Z-3.578
X-212.919 Y-40.274 Z-3.656
X-212.891 Y-40.284 Z-3.733
X-212.861 Y-40.28 Z-3.811
X-212.837 Y-40.262 Z-3.889
X-212.823 Y-40.235 Z-3.967
X-212.824 Y-40.205 Z-4.044
X-212.84 Y-40.178 Z-4.122
X-212.865 Y-40.162 Z-4.2
G3 X-212.904 Y-40.281 I-0.019 J-0.059
X-212.865 Y-40.162 I0.019 J0.059
G1 X-212.881
X-212.896 Y-40.169
X-212.905 Y-40.182
X-212.885 Y-40.222
Z5
X-167.377 Y-57.324
Z2
Z0.317
G18 G2 X-167.06 Z0 I0.317 K0
G1 X-166.901
G17 G3 X-166.584 Y-57.007 I0 J0.318
X-173.409 Y-57.007 Z-0.5 I-3.413 J0
X-166.584 Y-57.007 Z-1 I3.413 J0
X-173.409 Y-57.007 Z-1.5 I-3.413 J0
X-166.584 Y-57.007 Z-2 I3.413 J0
X-173.409 Y-57.007 Z-2.5 I-3.413 J0
X-166.584 Y-57.007 Z-3 I3.413 J0
X-173.409 Y-57.007 Z-3.5 I-3.413 J0
X-166.584 Y-57.007 Z-4 I3.413 J0
X-168.941 Y-53.761 Z-4.2 I-3.412 J0
X-171.051 Y-60.252 I-1.055 J-3.245
X-168.941 Y-53.761 I1.055 J3.245
X-169.342 Y-53.965 I-0.098 J-0.302
G1 X-169.391 Y-54.116
X-169.412 Y-54.183 Z-4.192
X-169.433 Y-54.247 Z-4.169
X-169.452 Y-54.304 Z-4.131
X-169.467 Y-54.352 Z-4.08
X-169.479 Y-54.388 Z-4.02
X-169.486 Y-54.41 Z-3.953
X-169.489 Y-54.418 Z-3.882
Z5
X-103.433 Y-57.254
Z2
Z0.317
G18 G2 X-103.116 Z0 I0.317 K0
G1 X-102.957
G17 G3 X-102.64 Y-56.937 I0 J0.318
X-109.465 Y-56.937 Z-0.5 I-3.412 J0
X-102.64 Y-56.937 Z-1 I3.412 J0
X-109.465 Y-56.937 Z-1.5 I-3.412 J0
X-102.64 Y-56.937 Z-2 I3.412 J0
X-109.465 Y-56.937 Z-2.5 I-3.412 J0
X-102.64 Y-56.937 Z-3 I3.412 J0
X-109.465 Y-56.937 Z-3.5 I-3.412 J0
X-102.64 Y-56.937 Z-4 I3.412 J0
X-104.998 Y-53.691 Z-4.2 I-3.412 J0
X-107.107 Y-60.182 I-1.055 J-3.245
X-104.998 Y-53.691 I1.055 J3.245
X-105.398 Y-53.895 I-0.098 J-0.302
G1 X-105.447 Y-54.046
X-105.469 Y-54.113 Z-4.192
X-105.489 Y-54.177 Z-4.169
X-105.508 Y-54.234 Z-4.131
X-105.523 Y-54.282 Z-4.08
X-105.535 Y-54.318 Z-4.02
X-105.542 Y-54.341 Z-3.953
X-105.545 Y-54.348 Z-3.882
Z15
(When using Fusion 360 for Personal Use, the feedrate of)
(rapid moves is reduced to match the feedrate of cutting)
(moves, which can increase machining time. Unrestricted rapid)
(moves are available with a Fusion 360 Subscription.)

(2D-Kontur39)
G0 X-231.681 Y-21.459
G1 Z15 F1000
Z5
Z2.5 F333.3
S5000
X-231.686 Y-21.483 Z2.499
X-231.681 Y-21.507 Z2.498
X-231.667 Y-21.528 Z2.497
X-230.607 Y-22.588 Z2.445
X-230.583 Y-22.603 Z2.444
X-230.555 Y-22.607 Z2.443
X-230.529 Y-22.597 Z2.442
X-230.509 Y-22.578 Z2.441
X-230.5 Y-22.551 Z2.44
X-230.503 Y-22.524 Z2.439
X-230.517 Y-22.5 Z2.438
X-230.518
X-231.578 Y-21.44 Z2.386
X-231.602 Y-21.424 Z2.385
X-231.63 Y-21.421 Z2.384
X-231.656 Y-21.43 Z2.383
X-231.676 Y-21.45 Z2.382
X-231.685 Y-21.476 Z2.381
X-231.682 Y-21.504 Z2.38
X-231.667 Y-21.528 Z2.379
X-230.607 Y-22.588 Z2.326
X-230.583 Y-22.603 Z2.325
X-230.555 Y-22.607
X-230.529 Y-22.597 Z2.324
X-230.509 Y-22.578 Z2.323
X-230.5 Y-22.551 Z2.322
X-230.503 Y-22.524 Z2.321
X-230.517 Y-22.5 Z2.32
X-230.518
X-231.578 Y-21.44 Z2.267
X-231.602 Y-21.424 Z2.266
X-231.63 Y-21.421 Z2.265
X-231.656 Y-21.43 Z2.264
X-231.676 Y-21.45 Z2.263
X-231.685 Y-21.476 Z2.262
X-231.682 Y-21.504 Z2.261
X-231.667 Y-21.528 Z2.26
X-230.607 Y-22.588 Z2.208
X-230.583 Y-22.603 Z2.207
X-230.555 Y-22.607 Z2.206
X-230.529 Y-22.597 Z2.205
X-230.509 Y-22.578 Z2.204
X-230.5 Y-22.551 Z2.203
X-230.503 Y-22.524 Z2.202
X-230.517 Y-22.5 Z2.201
X-230.518
X-231.578 Y-21.44 Z2.149
X-231.602 Y-21.424 Z2.148
X-231.63 Y-21.421 Z2.147
X-231.656 Y-21.43 Z2.146
X-231.676 Y-21.45 Z2.145
X-231.685 Y-21.476 Z2.144
X-231.682 Y-21.504 Z2.143
X-231.667 Y-21.528 Z2.142
X-230.607 Y-22.588 Z2.089
X-230.583 Y-22.603 Z2.088
X-230.555 Y-22.607 Z2.087
X-230.529 Y-22.597 Z2.086
X-230.509 Y-22.578 Z2.085
X-230.5 Y-22.551 Z2.084
X-230.503 Y-22.524 Z2.083
X-230.517 Y-22.5
X-230.518
X-231.578 Y-21.44 Z2.03
X-231.602 Y-21.424 Z2.029
X-231.63 Y-21.421 Z2.028
X-231.656 Y-21.43 Z2.027
X-231.676 Y-21.45 Z2.026
X-231.685 Y-21.476 Z2.025
X-231.682 Y-21.504 Z2.024
X-231.667 Y-21.528 Z2.023
X-230.607 Y-22.588 Z1.971
X-230.583 Y-22.603 Z1.97
X-230.555 Y-22.607 Z1.969
X-230.529 Y-22.597 Z1.968
X-230.509 Y-22.578 Z1.967
X-230.5 Y-22.551 Z1.966
X-230.503 Y-22.524 Z1.965
X-230.517 Y-22.5 Z1.964
X-230.518
X-231.578 Y-21.44 Z1.912
X-231.602 Y-21.424 Z1.911
X-231.63 Y-21.421 Z1.91
X-231.656 Y-21.43 Z1.909
X-231.676 Y-21.45 Z1.908
X-231.685 Y-21.476 Z1.907
X-231.682 Y-21.504 Z1.906
X-231.667 Y-21.528 Z1.905
X-230.607 Y-22.588 Z1.852
X-230.583 Y-22.603 Z1.851
X-230.555 Y-22.607 Z1.85
X-230.529 Y-22.597 Z1.849
X-230.509 Y-22.578 Z1.848
X-230.5 Y-22.551 Z1.847
X-230.503 Y-22.524 Z1.846
X-230.517 Y-22.5 Z1.845
X-230.518
X-231.578 Y-21.44 Z1.793
X-231.602 Y-21.424 Z1.792
X-231.63 Y-21.421 Z1.791
X-231.656 Y-21.43 Z1.79
X-231.676 Y-21.45 Z1.789
X-231.685 Y-21.476 Z1.788
X-231.682 Y-21.504 Z1.787
X-231.667 Y-21.528 Z1.786
X-230.607 Y-22.588 Z1.734
X-230.583 Y-22.603 Z1.733
X-230.555 Y-22.607 Z1.732
X-230.529 Y-22.597 Z1.731
X-230.509 Y-22.578 Z1.73
X-230.5 Y-22.551 Z1.729
X-230.503 Y-22.524 Z1.728
X-230.517 Y-22.5 Z1.727
X-230.518
X-231.578 Y-21.44 Z1.675
X-231.602 Y-21.424 Z1.674
X-231.63 Y-21.421 Z1.673
X-231.656 Y-21.43 Z1.672
X-231.676 Y-21.45 Z1.671
X-231.685 Y-21.476 Z1.67
X-231.682 Y-21.504 Z1.669
X-231.667 Y-21.528 Z1.668
X-230.607 Y-22.588 Z1.615
X-230.583 Y-22.603 Z1.614
X-230.555 Y-22.607 Z1.613
X-230.529 Y-22.597 Z1.612
X-230.509 Y-22.578 Z1.611
X-230.5 Y-22.551 Z1.61
X-230.503 Y-22.524 Z1.609
X-230.517 Y-22.5 Z1.608
X-230.518
X-231.578 Y-21.44 Z1.556
X-231.602 Y-21.424 Z1.555
X-231.63 Y-21.421 Z1.554
X-231.656 Y-21.43 Z1.553
X-231.676 Y-21.45 Z1.552
X-231.685 Y-21.476 Z1.551
X-231.682 Y-21.504 Z1.55
X-231.667 Y-21.528 Z1.549
X-230.607 Y-22.588 Z1.497
X-230.583 Y-22.603 Z1.496
X-230.555 Y-22.607 Z1.495
X-230.529 Y-22.597 Z1.494
X-230.509 Y-22.578 Z1.493
X-230.5 Y-22.551 Z1.492
X-230.503 Y-22.524 Z1.491
X-230.517 Y-22.5 Z1.49
X-230.518
X-231.578 Y-21.44 Z1.437
X-231.602 Y-21.424 Z1.436
X-231.63 Y-21.421 Z1.435
X-231.656 Y-21.43 Z1.434
X-231.676 Y-21.45
X-231.685 Y-21.476 Z1.433
X-231.682 Y-21.504 Z1.432
X-231.667 Y-21.528 Z1.431
X-230.607 Y-22.588 Z1.378
X-230.583 Y-22.603 Z1.377
X-230.555 Y-22.607 Z1.376
X-230.529 Y-22.597 Z1.375
X-230.509 Y-22.578 Z1.374
X-230.5 Y-22.551 Z1.373
X-230.503 Y-22.524 Z1.372
X-230.517 Y-22.5 Z1.371
X-230.518
X-231.578 Y-21.44 Z1.319
X-231.602 Y-21.424 Z1.318
X-231.63 Y-21.421 Z1.317
X-231.656 Y-21.43 Z1.316
X-231.676 Y-21.45 Z1.315
X-231.685 Y-21.476 Z1.314
X-231.682 Y-21.504 Z1.313
X-231.667 Y-21.528 Z1.312
X-230.607 Y-22.588 Z1.26
X-230.583 Y-22.603 Z1.259
X-230.555 Y-22.607 Z1.258
X-230.529 Y-22.597 Z1.257
X-230.509 Y-22.578 Z1.256
X-230.5 Y-22.551 Z1.255
X-230.503 Y-22.524 Z1.254
X-230.517 Y-22.5 Z1.253
X-230.518
X-231.578 Y-21.44 Z1.2
X-231.602 Y-21.424 Z1.199
X-231.63 Y-21.421 Z1.198
X-231.656 Y-21.43 Z1.197
X-231.676 Y-21.45 Z1.196
X-231.685 Y-21.476 Z1.195
X-231.682 Y-21.504 Z1.194
X-231.667 Y-21.528 Z1.193
X-230.607 Y-22.588 Z1.141
X-230.583 Y-22.603 Z1.14
X-230.555 Y-22.607 Z1.139
X-230.529 Y-22.597 Z1.138
X-230.509 Y-22.578 Z1.137
X-230.5 Y-22.551 Z1.136
X-230.503 Y-22.524 Z1.135
X-230.517 Y-22.5 Z1.134
X-230.518
X-231.578 Y-21.44 Z1.082
X-231.602 Y-21.424 Z1.081
X-231.63 Y-21.421 Z1.08
X-231.656 Y-21.43 Z1.079
X-231.676 Y-21.45 Z1.078
X-231.685 Y-21.476 Z1.077
X-231.682 Y-21.504 Z1.076
X-231.667 Y-21.528 Z1.075
X-230.607 Y-22.588 Z1.023
X-230.583 Y-22.603 Z1.022
X-230.555 Y-22.607 Z1.021
X-230.529 Y-22.597 Z1.02
X-230.509 Y-22.578 Z1.019
X-230.5 Y-22.551 Z1.018
X-230.503 Y-22.524 Z1.017
X-230.517 Y-22.5 Z1.016
X-230.518
X-231.578 Y-21.44 Z0.963
X-231.602 Y-21.424 Z0.962
X-231.63 Y-21.421 Z0.961
X-231.656 Y-21.43 Z0.96
X-231.676 Y-21.45 Z0.959
X-231.685 Y-21.476 Z0.958
X-231.682 Y-21.504 Z0.957
X-231.667 Y-21.528 Z0.956
X-230.607 Y-22.588 Z0.904
X-230.583 Y-22.603 Z0.903
X-230.555 Y-22.607 Z0.902
X-230.529 Y-22.597 Z0.901
X-230.509 Y-22.578 Z0.9
X-230.5 Y-22.551 Z0.899
X-230.503 Y-22.524 Z0.898
X-230.517 Y-22.5 Z0.897
X-230.518
X-231.578 Y-21.44 Z0.845
X-231.602 Y-21.424 Z0.844
X-231.63 Y-21.421 Z0.843
X-231.656 Y-21.43 Z0.842
X-231.676 Y-21.45 Z0.841
X-231.685 Y-21.476 Z0.84
X-231.682 Y-21.504 Z0.839
X-231.667 Y-21.528 Z0.838
X-230.607 Y-22.588 Z0.785
X-230.583 Y-22.603
X-230.555 Y-22.607 Z0.784
X-230.529 Y-22.597 Z0.783
X-230.509 Y-22.578 Z0.782
X-230.5 Y-22.551 Z0.781
X-230.503 Y-22.524 Z0.78
X-230.517 Y-22.5 Z0.779
X-230.518
X-231.578 Y-21.44 Z0.726
X-231.602 Y-21.424 Z0.725
X-231.63 Y-21.421 Z0.724
X-231.656 Y-21.43 Z0.723
X-231.676 Y-21.45 Z0.722
X-231.685 Y-21.476 Z0.721
X-231.682 Y-21.504 Z0.72
X-231.667 Y-21.528 Z0.719
X-230.607 Y-22.588 Z0.667
X-230.583 Y-22.603 Z0.666
X-230.555 Y-22.607 Z0.665
X-230.529 Y-22.597 Z0.664
X-230.509 Y-22.578 Z0.663
X-230.5 Y-22.551 Z0.662
X-230.503 Y-22.524 Z0.661
X-230.517 Y-22.5 Z0.66
X-230.518
X-231.578 Y-21.44 Z0.608
X-231.602 Y-21.424 Z0.607
X-231.63 Y-21.421 Z0.606
X-231.656 Y-21.43 Z0.605
X-231.676 Y-21.45 Z0.604
X-231.685 Y-21.476 Z0.603
X-231.682 Y-21.504 Z0.602
X-231.667 Y-21.528 Z0.601
X-230.607 Y-22.588 Z0.548
X-230.583 Y-22.603 Z0.547
X-230.555 Y-22.607 Z0.546
X-230.529 Y-22.597 Z0.545
X-230.509 Y-22.578 Z0.544
X-230.5 Y-22.551 Z0.543
X-230.503 Y-22.524
X-230.517 Y-22.5 Z0.542
X-230.518
X-231.578 Y-21.44 Z0.489
X-231.602 Y-21.424 Z0.488
X-231.63 Y-21.421 Z0.487
X-231.656 Y-21.43 Z0.486
X-231.676 Y-21.45 Z0.485
X-231.685 Y-21.476 Z0.484
X-231.682 Y-21.504 Z0.483
X-231.667 Y-21.528 Z0.482
X-230.607 Y-22.588 Z0.43
X-230.583 Y-22.603 Z0.429
X-230.555 Y-22.607 Z0.428
X-230.529 Y-22.597 Z0.427
X-230.509 Y-22.578 Z0.426
X-230.5 Y-22.551 Z0.425
X-230.503 Y-22.524 Z0.424
X-230.517 Y-22.5 Z0.423
X-230.518
X-231.578 Y-21.44 Z0.371
X-231.602 Y-21.424 Z0.37
X-231.63 Y-21.421 Z0.369
X-231.656 Y-21.43 Z0.368
X-231.676 Y-21.45 Z0.367
X-231.685 Y-21.476 Z0.366
X-231.682 Y-21.504 Z0.365
X-231.667 Y-21.528 Z0.364
X-230.607 Y-22.588 Z0.311
X-230.583 Y-22.603 Z0.31
X-230.555 Y-22.607 Z0.309
X-230.529 Y-22.597 Z0.308
X-230.509 Y-22.578 Z0.307
X-230.5 Y-22.551 Z0.306
X-230.503 Y-22.524 Z0.305
X-230.517 Y-22.5 Z0.304
X-230.518
X-231.578 Y-21.44 Z0.252
X-231.602 Y-21.424 Z0.251
X-231.63 Y-21.421 Z0.25
X-231.656 Y-21.43 Z0.249
X-231.676 Y-21.45 Z0.248
X-231.685 Y-21.476 Z0.247
X-231.682 Y-21.504 Z0.246
X-231.667 Y-21.528 Z0.245
X-230.607 Y-22.588 Z0.193
X-230.583 Y-22.603 Z0.192
X-230.555 Y-22.607 Z0.191
X-230.529 Y-22.597 Z0.19
X-230.509 Y-22.578 Z0.189
X-230.5 Y-22.551 Z0.188
X-230.503 Y-22.524 Z0.187
X-230.517 Y-22.5 Z0.186
X-230.518
X-231.578 Y-21.44 Z0.134
X-231.602 Y-21.424 Z0.133
X-231.63 Y-21.421 Z0.132
X-231.656 Y-21.43 Z0.131
X-231.676 Y-21.45 Z0.13
X-231.685 Y-21.476 Z0.129
X-231.682 Y-21.504 Z0.128
X-231.667 Y-21.528 Z0.127
X-230.607 Y-22.588 Z0.074
X-230.583 Y-22.603 Z0.073
X-230.555 Y-22.607 Z0.072
X-230.529 Y-22.597 Z0.071
X-230.509 Y-22.578 Z0.07
X-230.5 Y-22.551 Z0.069
X-230.503 Y-22.524 Z0.068
X-230.517 Y-22.5 Z0.067
X-230.518
X-231.578 Y-21.44 Z0.015
X-231.602 Y-21.424 Z0.014
X-231.63 Y-21.421 Z0.013
X-231.656 Y-21.43 Z0.012
X-231.676 Y-21.45 Z0.011
X-231.685 Y-21.476 Z0.01
X-231.682 Y-21.504 Z0.009
X-231.667 Y-21.528 Z0.008
X-230.607 Y-22.588 Z-0.044
X-230.583 Y-22.603 Z-0.045
X-230.555 Y-22.607 Z-0.046
X-230.529 Y-22.597 Z-0.047
X-230.509 Y-22.578 Z-0.048
X-230.5 Y-22.551 Z-0.049
X-230.503 Y-22.524 Z-0.05
X-230.517 Y-22.5 Z-0.051
X-230.518
X-231.578 Y-21.44 Z-0.104
X-231.602 Y-21.424 Z-0.105
X-231.63 Y-21.421 Z-0.106
X-231.656 Y-21.43
X-231.676 Y-21.45 Z-0.107
X-231.685 Y-21.476 Z-0.108
X-231.682 Y-21.504 Z-0.109
X-231.667 Y-21.528 Z-0.11
X-230.607 Y-22.588 Z-0.163
X-230.583 Y-22.603 Z-0.164
X-230.555 Y-22.607 Z-0.165
X-230.529 Y-22.597 Z-0.166
X-230.509 Y-22.578 Z-0.167
X-230.5 Y-22.551 Z-0.168
X-230.503 Y-22.524 Z-0.169
X-230.517 Y-22.5 Z-0.17
X-230.518
X-231.578 Y-21.44 Z-0.222
X-231.602 Y-21.424 Z-0.223
X-231.63 Y-21.421 Z-0.224
X-231.656 Y-21.43 Z-0.225
X-231.676 Y-21.45 Z-0.226
X-231.685 Y-21.476 Z-0.227
X-231.682 Y-21.504 Z-0.228
X-231.667 Y-21.528 Z-0.229
X-230.607 Y-22.588 Z-0.281
X-230.583 Y-22.603 Z-0.282
X-230.555 Y-22.607 Z-0.283
X-230.529 Y-22.597 Z-0.284
X-230.509 Y-22.578 Z-0.285
X-230.5 Y-22.551 Z-0.286
X-230.503 Y-22.524 Z-0.287
X-230.517 Y-22.5 Z-0.288
X-230.518
X-231.578 Y-21.44 Z-0.341
X-231.602 Y-21.424 Z-0.342
X-231.63 Y-21.421 Z-0.343
X-231.656 Y-21.43 Z-0.344
X-231.676 Y-21.45 Z-0.345
X-231.685 Y-21.476 Z-0.346
X-231.682 Y-21.504 Z-0.347
X-231.667 Y-21.528 Z-0.348
X-230.607 Y-22.588 Z-0.4
X-230.583 Y-22.603 Z-0.401
X-230.555 Y-22.607 Z-0.402
X-230.529 Y-22.597 Z-0.403
X-230.509 Y-22.578 Z-0.404
X-230.5 Y-22.551 Z-0.405
X-230.503 Y-22.524 Z-0.406
X-230.517 Y-22.5 Z-0.407
X-230.518
X-231.578 Y-21.44 Z-0.459
X-231.602 Y-21.424 Z-0.46
X-231.63 Y-21.421 Z-0.461
X-231.656 Y-21.43 Z-0.462
X-231.676 Y-21.45 Z-0.463
X-231.685 Y-21.476 Z-0.464
X-231.682 Y-21.504 Z-0.465
X-231.667 Y-21.528 Z-0.466
X-230.607 Y-22.588 Z-0.518
X-230.583 Y-22.603 Z-0.519
X-230.555 Y-22.607 Z-0.52
X-230.529 Y-22.597 Z-0.521
X-230.509 Y-22.578 Z-0.522
X-230.5 Y-22.551 Z-0.523
X-230.503 Y-22.524 Z-0.524
X-230.517 Y-22.5 Z-0.525
X-230.518
X-231.578 Y-21.44 Z-0.578
X-231.602 Y-21.424 Z-0.579
X-231.63 Y-21.421 Z-0.58
X-231.656 Y-21.43 Z-0.581
X-231.676 Y-21.45 Z-0.582
X-231.685 Y-21.476 Z-0.583
X-231.682 Y-21.504 Z-0.584
X-231.667 Y-21.528 Z-0.585
X-230.607 Y-22.588 Z-0.637
X-230.583 Y-22.603 Z-0.638
X-230.555 Y-22.607 Z-0.639
X-230.529 Y-22.597 Z-0.64
X-230.509 Y-22.578 Z-0.641
X-230.5 Y-22.551 Z-0.642
X-230.503 Y-22.524 Z-0.643
X-230.517 Y-22.5 Z-0.644
X-230.518
X-231.578 Y-21.44 Z-0.696
X-231.602 Y-21.424 Z-0.697
X-231.63 Y-21.421 Z-0.698
X-231.656 Y-21.43 Z-0.699
X-231.676 Y-21.45 Z-0.7
X-231.685 Y-21.476 Z-0.701
X-231.682 Y-21.504 Z-0.702
X-231.667 Y-21.528 Z-0.703
X-230.607 Y-22.588 Z-0.756
X-230.583 Y-22.603
X-230.555 Y-22.607 Z-0.757
X-230.529 Y-22.597 Z-0.758
X-230.509 Y-22.578 Z-0.759
X-230.5 Y-22.551 Z-0.76
X-230.503 Y-22.524 Z-0.761
X-230.517 Y-22.5 Z-0.762
X-230.518
X-231.578 Y-21.44 Z-0.815
X-231.602 Y-21.424 Z-0.816
X-231.63 Y-21.421 Z-0.817
X-231.656 Y-21.43 Z-0.818
X-231.676 Y-21.45 Z-0.819
X-231.685 Y-21.476 Z-0.82
X-231.682 Y-21.504 Z-0.821
X-231.667 Y-21.528 Z-0.822
X-230.607 Y-22.588 Z-0.874
X-230.583 Y-22.603 Z-0.875
X-230.555 Y-22.607 Z-0.876
X-230.529 Y-22.597 Z-0.877
X-230.509 Y-22.578 Z-0.878
X-230.5 Y-22.551 Z-0.879
X-230.503 Y-22.524 Z-0.88
X-230.517 Y-22.5 Z-0.881
X-230.518
X-231.578 Y-21.44 Z-0.933
X-231.602 Y-21.424 Z-0.934
X-231.63 Y-21.421 Z-0.935
X-231.656 Y-21.43 Z-0.936
X-231.676 Y-21.45 Z-0.937
X-231.685 Y-21.476 Z-0.938
X-231.682 Y-21.504 Z-0.939
X-231.667 Y-21.528 Z-0.94
X-230.607 Y-22.588 Z-0.993
X-230.583 Y-22.603 Z-0.994
X-230.555 Y-22.607 Z-0.995
X-230.529 Y-22.597 Z-0.996
X-230.509 Y-22.578 Z-0.997
X-230.5 Y-22.551 Z-0.998
X-230.503 Y-22.524
X-230.517 Y-22.5 Z-0.999
X-230.518
X-231.578 Y-21.44 Z-1.052
X-231.602 Y-21.424 Z-1.053
X-231.63 Y-21.421 Z-1.054
X-231.656 Y-21.43 Z-1.055
X-231.676 Y-21.45 Z-1.056
X-231.685 Y-21.476 Z-1.057
X-231.682 Y-21.504 Z-1.058
X-231.667 Y-21.528 Z-1.059
X-230.607 Y-22.588 Z-1.111
X-230.583 Y-22.603 Z-1.112
X-230.555 Y-22.607 Z-1.113
X-230.529 Y-22.597 Z-1.114
X-230.509 Y-22.578 Z-1.115
X-230.5 Y-22.551 Z-1.116
X-230.503 Y-22.524 Z-1.117
X-230.517 Y-22.5 Z-1.118
X-230.518
X-231.578 Y-21.44 Z-1.17
X-231.602 Y-21.424 Z-1.171
X-231.63 Y-21.421 Z-1.172
X-231.656 Y-21.43 Z-1.173
X-231.676 Y-21.45 Z-1.174
X-231.685 Y-21.476 Z-1.175
X-231.682 Y-21.504 Z-1.176
X-231.667 Y-21.528 Z-1.177
X-230.607 Y-22.588 Z-1.23
X-230.583 Y-22.603 Z-1.231
X-230.555 Y-22.607 Z-1.232
X-230.529 Y-22.597 Z-1.233
X-230.509 Y-22.578 Z-1.234
X-230.5 Y-22.551 Z-1.235
X-230.503 Y-22.524 Z-1.236
X-230.517 Y-22.5 Z-1.237
X-230.518
X-231.578 Y-21.44 Z-1.289
X-231.602 Y-21.424 Z-1.29
X-231.63 Y-21.421 Z-1.291
X-231.656 Y-21.43 Z-1.292
X-231.676 Y-21.45 Z-1.293
X-231.685 Y-21.476 Z-1.294
X-231.682 Y-21.504 Z-1.295
X-231.667 Y-21.528 Z-1.296
X-230.607 Y-22.588 Z-1.348
X-230.583 Y-22.603 Z-1.349
X-230.555 Y-22.607 Z-1.35
X-230.529 Y-22.597 Z-1.351
X-230.509 Y-22.578 Z-1.352
X-230.5 Y-22.551 Z-1.353
X-230.503 Y-22.524 Z-1.354
X-230.517 Y-22.5 Z-1.355
X-230.518
X-231.578 Y-21.44 Z-1.407
X-231.602 Y-21.424 Z-1.408
X-231.63 Y-21.421 Z-1.409
X-231.656 Y-21.43 Z-1.41
X-231.676 Y-21.45 Z-1.411
X-231.685 Y-21.476 Z-1.412
X-231.682 Y-21.504 Z-1.413
X-231.667 Y-21.528 Z-1.414
X-230.607 Y-22.588 Z-1.467
X-230.583 Y-22.603 Z-1.468
X-230.555 Y-22.607 Z-1.469
X-230.529 Y-22.597 Z-1.47
X-230.509 Y-22.578 Z-1.471
X-230.5 Y-22.551 Z-1.472
X-230.503 Y-22.524 Z-1.473
X-230.517 Y-22.5 Z-1.474
X-230.518
X-231.578 Y-21.44 Z-1.526
X-231.602 Y-21.424 Z-1.527
X-231.63 Y-21.421 Z-1.528
X-231.656 Y-21.43 Z-1.529
X-231.676 Y-21.45 Z-1.53
X-231.685 Y-21.476 Z-1.531
X-231.682 Y-21.504 Z-1.532
X-231.667 Y-21.528 Z-1.533
X-230.607 Y-22.588 Z-1.585
X-230.583 Y-22.603 Z-1.586
X-230.555 Y-22.607 Z-1.587
X-230.529 Y-22.597 Z-1.588
X-230.509 Y-22.578 Z-1.589
X-230.5 Y-22.551 Z-1.59
X-230.503 Y-22.524 Z-1.591
X-230.517 Y-22.5 Z-1.592
X-230.518
X-231.578 Y-21.44 Z-1.645
X-231.602 Y-21.424 Z-1.646
X-231.63 Y-21.421 Z-1.647
X-231.656 Y-21.43
X-231.676 Y-21.45 Z-1.648
X-231.685 Y-21.476 Z-1.649
X-231.682 Y-21.504 Z-1.65
X-231.667 Y-21.528 Z-1.651
X-230.607 Y-22.588 Z-1.704
X-230.583 Y-22.603 Z-1.705
X-230.555 Y-22.607 Z-1.706
X-230.529 Y-22.597 Z-1.707
X-230.509 Y-22.578 Z-1.708
X-230.5 Y-22.551 Z-1.709
X-230.503 Y-22.524 Z-1.71
X-230.517 Y-22.5 Z-1.711
X-230.518
X-231.578 Y-21.44 Z-1.763
X-231.602 Y-21.424 Z-1.764
X-231.63 Y-21.421 Z-1.765
X-231.656 Y-21.43 Z-1.766
X-231.676 Y-21.45 Z-1.767
X-231.685 Y-21.476 Z-1.768
X-231.682 Y-21.504 Z-1.769
X-231.667 Y-21.528 Z-1.77
X-230.607 Y-22.588 Z-1.822
X-230.583 Y-22.603 Z-1.823
X-230.555 Y-22.607 Z-1.824
X-230.529 Y-22.597 Z-1.825
X-230.509 Y-22.578 Z-1.826
X-230.5 Y-22.551 Z-1.827
X-230.503 Y-22.524 Z-1.828
X-230.517 Y-22.5 Z-1.829
X-230.518
X-231.578 Y-21.44 Z-1.882
X-231.602 Y-21.424 Z-1.883
X-231.63 Y-21.421 Z-1.884
X-231.656 Y-21.43 Z-1.885
X-231.676 Y-21.45 Z-1.886
X-231.685 Y-21.476 Z-1.887
X-231.682 Y-21.504 Z-1.888
X-231.667 Y-21.528 Z-1.889
X-230.607 Y-22.588 Z-1.941
X-230.583 Y-22.603 Z-1.942
X-230.555 Y-22.607 Z-1.943
X-230.529 Y-22.597 Z-1.944
X-230.509 Y-22.578 Z-1.945
X-230.5 Y-22.551 Z-1.946
X-230.503 Y-22.524 Z-1.947
X-230.517 Y-22.5 Z-1.948
X-230.518
X-231.578 Y-21.44 Z-2
X-231.602 Y-21.424 Z-2.001
X-231.63 Y-21.421 Z-2.002
X-231.656 Y-21.43 Z-2.003
X-231.676 Y-21.45 Z-2.004
X-231.685 Y-21.476 Z-2.005
X-231.682 Y-21.504 Z-2.006
X-231.667 Y-21.528 Z-2.007
X-230.607 Y-22.588 Z-2.059
X-230.583 Y-22.603 Z-2.06
X-230.555 Y-22.607 Z-2.061
X-230.529 Y-22.597 Z-2.062
X-230.509 Y-22.578 Z-2.063
X-230.5 Y-22.551 Z-2.064
X-230.503 Y-22.524 Z-2.065
X-230.517 Y-22.5 Z-2.066
X-230.518
X-231.578 Y-21.44 Z-2.119
X-231.602 Y-21.424 Z-2.12
X-231.63 Y-21.421 Z-2.121
X-231.656 Y-21.43 Z-2.122
X-231.676 Y-21.45 Z-2.123
X-231.685 Y-21.476 Z-2.124
X-231.682 Y-21.504 Z-2.125
X-231.667 Y-21.528 Z-2.126
X-230.607 Y-22.588 Z-2.178
X-230.583 Y-22.603 Z-2.179
X-230.555 Y-22.607 Z-2.18
X-230.529 Y-22.597 Z-2.181
X-230.509 Y-22.578 Z-2.182
X-230.5 Y-22.551 Z-2.183
X-230.503 Y-22.524 Z-2.184
X-230.517 Y-22.5 Z-2.185
X-230.518
X-231.578 Y-21.44 Z-2.237
X-231.602 Y-21.424 Z-2.238
X-231.63 Y-21.421 Z-2.239
X-231.656 Y-21.43 Z-2.24
X-231.676 Y-21.45 Z-2.241
X-231.685 Y-21.476 Z-2.242
X-231.682 Y-21.504 Z-2.243
X-231.667 Y-21.528 Z-2.244
X-230.607 Y-22.588 Z-2.296
X-230.583 Y-22.603 Z-2.297
X-230.555 Y-22.607 Z-2.298
X-230.529 Y-22.597 Z-2.299
X-230.509 Y-22.578 Z-2.3
X-230.5 Y-22.551 Z-2.301
X-230.503 Y-22.524 Z-2.302
X-230.517 Y-22.5 Z-2.303
X-230.518
X-231.578 Y-21.44 Z-2.356
X-231.602 Y-21.424 Z-2.357
X-231.63 Y-21.421 Z-2.358
X-231.656 Y-21.43 Z-2.359
X-231.676 Y-21.45 Z-2.36
X-231.685 Y-21.476 Z-2.361
X-231.682 Y-21.504 Z-2.362
X-231.667 Y-21.528 Z-2.363
X-230.607 Y-22.588 Z-2.415
X-230.583 Y-22.603 Z-2.416
X-230.555 Y-22.607 Z-2.417
X-230.529 Y-22.597 Z-2.418
X-230.509 Y-22.578 Z-2.419
X-230.5 Y-22.551 Z-2.42
X-230.503 Y-22.524 Z-2.421
X-230.517 Y-22.5 Z-2.422
X-230.518
X-231.578 Y-21.44 Z-2.474
X-231.602 Y-21.424 Z-2.475
X-231.63 Y-21.421 Z-2.476
X-231.656 Y-21.43 Z-2.477
X-231.676 Y-21.45 Z-2.478
X-231.685 Y-21.476 Z-2.479
X-231.682 Y-21.504 Z-2.48
X-231.667 Y-21.528 Z-2.481
X-230.607 Y-22.588 Z-2.534
X-230.583 Y-22.603 Z-2.535
X-230.555 Y-22.607 Z-2.536
X-230.529 Y-22.597 Z-2.537
X-230.509 Y-22.578 Z-2.538
X-230.5 Y-22.551
X-230.503 Y-22.524 Z-2.539
X-230.517 Y-22.5 Z-2.54
X-230.518
X-231.578 Y-21.44 Z-2.593
X-231.602 Y-21.424 Z-2.594
X-231.63 Y-21.421 Z-2.595
X-231.656 Y-21.43 Z-2.596
X-231.676 Y-21.45 Z-2.597
X-231.685 Y-21.476 Z-2.598
X-231.682 Y-21.504 Z-2.599
X-231.667 Y-21.528 Z-2.6
X-230.607 Y-22.588 Z-2.652
X-230.583 Y-22.603 Z-2.653
X-230.555 Y-22.607 Z-2.654
X-230.529 Y-22.597 Z-2.655
X-230.509 Y-22.578 Z-2.656
X-230.5 Y-22.551 Z-2.657
X-230.503 Y-22.524 Z-2.658
X-230.517 Y-22.5 Z-2.659
X-230.518
X-231.578 Y-21.44 Z-2.711
X-231.602 Y-21.424 Z-2.712
X-231.63 Y-21.421 Z-2.713
X-231.656 Y-21.43 Z-2.714
X-231.676 Y-21.45 Z-2.715
X-231.685 Y-21.476 Z-2.716
X-231.682 Y-21.504 Z-2.717
X-231.667 Y-21.528 Z-2.718
X-230.607 Y-22.588 Z-2.771
X-230.583 Y-22.603 Z-2.772
X-230.555 Y-22.607 Z-2.773
X-230.529 Y-22.597 Z-2.774
X-230.509 Y-22.578 Z-2.775
X-230.5 Y-22.551 Z-2.776
X-230.503 Y-22.524 Z-2.777
X-230.517 Y-22.5 Z-2.778
X-230.518
X-231.578 Y-21.44 Z-2.83
X-231.602 Y-21.424 Z-2.831
X-231.63 Y-21.421 Z-2.832
X-231.656 Y-21.43 Z-2.833
X-231.676 Y-21.45 Z-2.834
X-231.685 Y-21.476 Z-2.835
X-231.682 Y-21.504 Z-2.836
X-231.667 Y-21.528 Z-2.837
X-230.607 Y-22.588 Z-2.889
X-230.583 Y-22.603 Z-2.89
X-230.555 Y-22.607 Z-2.891
X-230.529 Y-22.597 Z-2.892
X-230.509 Y-22.578 Z-2.893
X-230.5 Y-22.551 Z-2.894
X-230.503 Y-22.524 Z-2.895
X-230.517 Y-22.5 Z-2.896
X-230.518
X-231.578 Y-21.44 Z-2.948
X-231.602 Y-21.424 Z-2.949
X-231.63 Y-21.421 Z-2.95
X-231.656 Y-21.43 Z-2.951
X-231.676 Y-21.45 Z-2.952
X-231.685 Y-21.476 Z-2.953
X-231.682 Y-21.504 Z-2.954
X-231.667 Y-21.528 Z-2.955
X-230.607 Y-22.588 Z-3.008
X-230.583 Y-22.603 Z-3.009
X-230.555 Y-22.607 Z-3.01
X-230.529 Y-22.597 Z-3.011
X-230.509 Y-22.578 Z-3.012
X-230.5 Y-22.551 Z-3.013
X-230.503 Y-22.524 Z-3.014
X-230.517 Y-22.5 Z-3.015
X-230.518
X-231.578 Y-21.44 Z-3.067
X-231.602 Y-21.424 Z-3.068
X-231.63 Y-21.421 Z-3.069
X-231.656 Y-21.43 Z-3.07
X-231.676 Y-21.45 Z-3.071
X-231.685 Y-21.476 Z-3.072
X-231.682 Y-21.504 Z-3.073
X-231.667 Y-21.528 Z-3.074
X-230.607 Y-22.588 Z-3.126
X-230.583 Y-22.603 Z-3.127
X-230.555 Y-22.607 Z-3.128
X-230.529 Y-22.597 Z-3.129
X-230.509 Y-22.578 Z-3.13
X-230.5 Y-22.551 Z-3.131
X-230.503 Y-22.524 Z-3.132
X-230.517 Y-22.5 Z-3.133
X-230.518
X-231.578 Y-21.44 Z-3.186
X-231.602 Y-21.424 Z-3.187
X-231.63 Y-21.421
X-231.656 Y-21.43 Z-3.188
X-231.676 Y-21.45 Z-3.189
X-231.685 Y-21.476 Z-3.19
X-231.682 Y-21.504 Z-3.191
X-231.667 Y-21.528 Z-3.192
X-230.607 Y-22.588 Z-3.245
X-230.583 Y-22.603 Z-3.246
X-230.555 Y-22.607 Z-3.247
X-230.529 Y-22.597 Z-3.248
X-230.509 Y-22.578 Z-3.249
X-230.5 Y-22.551 Z-3.25
X-230.503 Y-22.524 Z-3.251
X-230.517 Y-22.5 Z-3.252
X-230.518
X-231.578 Y-21.44 Z-3.304
X-231.602 Y-21.424 Z-3.305
X-231.63 Y-21.421 Z-3.306
X-231.656 Y-21.43 Z-3.307
X-231.676 Y-21.45 Z-3.308
X-231.685 Y-21.476 Z-3.309
X-231.682 Y-21.504 Z-3.31
X-231.667 Y-21.528 Z-3.311
X-230.607 Y-22.588 Z-3.363
X-230.583 Y-22.603 Z-3.364
X-230.555 Y-22.607 Z-3.365
X-230.529 Y-22.597 Z-3.366
X-230.509 Y-22.578 Z-3.367
X-230.5 Y-22.551 Z-3.368
X-230.503 Y-22.524 Z-3.369
X-230.517 Y-22.5 Z-3.37
X-230.518
X-231.578 Y-21.44 Z-3.423
X-231.602 Y-21.424 Z-3.424
X-231.63 Y-21.421 Z-3.425
X-231.656 Y-21.43 Z-3.426
X-231.676 Y-21.45 Z-3.427
X-231.685 Y-21.476 Z-3.428
X-231.682 Y-21.504 Z-3.429
X-231.667 Y-21.528
X-230.607 Y-22.588 Z-3.482
X-230.583 Y-22.603 Z-3.483
X-230.555 Y-22.607 Z-3.484
X-230.529 Y-22.597 Z-3.485
X-230.509 Y-22.578 Z-3.486
X-230.5 Y-22.551 Z-3.487
X-230.503 Y-22.524 Z-3.488
X-230.517 Y-22.5 Z-3.489
X-230.518
X-231.578 Y-21.44 Z-3.541
X-231.602 Y-21.424 Z-3.542
X-231.63 Y-21.421 Z-3.543
X-231.656 Y-21.43 Z-3.544
X-231.676 Y-21.45 Z-3.545
X-231.685 Y-21.476 Z-3.546
X-231.682 Y-21.504 Z-3.547
X-231.667 Y-21.528 Z-3.548
X-230.607 Y-22.588 Z-3.6
X-230.583 Y-22.603 Z-3.601
X-230.555 Y-22.607 Z-3.602
X-230.529 Y-22.597 Z-3.603
X-230.509 Y-22.578 Z-3.604
X-230.5 Y-22.551 Z-3.605
X-230.503 Y-22.524 Z-3.606
X-230.517 Y-22.5 Z-3.607
X-230.518
X-231.578 Y-21.44 Z-3.66
X-231.602 Y-21.424 Z-3.661
X-231.63 Y-21.421 Z-3.662
X-231.656 Y-21.43 Z-3.663
X-231.676 Y-21.45 Z-3.664
X-231.685 Y-21.476 Z-3.665
X-231.682 Y-21.504 Z-3.666
X-231.667 Y-21.528 Z-3.667
X-230.607 Y-22.588 Z-3.719
X-230.583 Y-22.603 Z-3.72
X-230.555 Y-22.607 Z-3.721
X-230.529 Y-22.597 Z-3.722
X-230.509 Y-22.578 Z-3.723
X-230.5 Y-22.551 Z-3.724
X-230.503 Y-22.524 Z-3.725
X-230.517 Y-22.5 Z-3.726
X-230.518
X-231.578 Y-21.44 Z-3.778
X-231.602 Y-21.424 Z-3.779
X-231.63 Y-21.421 Z-3.78
X-231.656 Y-21.43 Z-3.781
X-231.676 Y-21.45 Z-3.782
X-231.685 Y-21.476 Z-3.783
X-231.682 Y-21.504 Z-3.784
X-231.667 Y-21.528 Z-3.785
X-230.607 Y-22.588 Z-3.837
X-230.583 Y-22.603 Z-3.838
X-230.555 Y-22.607 Z-3.839
X-230.529 Y-22.597 Z-3.84
X-230.509 Y-22.578 Z-3.841
X-230.5 Y-22.551 Z-3.842
X-230.503 Y-22.524 Z-3.843
X-230.517 Y-22.5 Z-3.844
X-230.518
X-231.578 Y-21.44 Z-3.897
X-231.602 Y-21.424 Z-3.898
X-231.63 Y-21.421 Z-3.899
X-231.656 Y-21.43 Z-3.9
X-231.676 Y-21.45 Z-3.901
X-231.685 Y-21.476 Z-3.902
X-231.682 Y-21.504 Z-3.903
X-231.667 Y-21.528 Z-3.904
X-230.607 Y-22.588 Z-3.956
X-230.583 Y-22.603 Z-3.957
X-230.555 Y-22.607 Z-3.958
X-230.529 Y-22.597 Z-3.959
X-230.509 Y-22.578 Z-3.96
X-230.5 Y-22.551 Z-3.961
X-230.503 Y-22.524 Z-3.962
X-230.517 Y-22.5 Z-3.963
X-230.518
X-231.578 Y-21.44 Z-4.015
X-231.602 Y-21.424 Z-4.016
X-231.63 Y-21.421 Z-4.017
X-231.656 Y-21.43 Z-4.018
X-231.676 Y-21.45 Z-4.019
X-231.685 Y-21.476 Z-4.02
X-231.682 Y-21.504 Z-4.021
X-231.667 Y-21.528 Z-4.022
X-230.607 Y-22.588 Z-4.075
X-230.583 Y-22.603 Z-4.076
X-230.555 Y-22.607 Z-4.077
X-230.529 Y-22.597 Z-4.078
X-230.509 Y-22.578 Z-4.079
X-230.5 Y-22.551
X-230.503 Y-22.524 Z-4.08
X-230.517 Y-22.5 Z-4.081
X-230.518
X-231.578 Y-21.44 Z-4.134
X-231.602 Y-21.424 Z-4.135
X-231.63 Y-21.421 Z-4.136
X-231.656 Y-21.43 Z-4.137
X-231.676 Y-21.45 Z-4.138
X-231.685 Y-21.476 Z-4.139
X-231.682 Y-21.504 Z-4.14
X-231.667 Y-21.528 Z-4.141
X-230.607 Y-22.588 Z-4.193
X-230.583 Y-22.603 Z-4.194
X-230.555 Y-22.607 Z-4.195
X-230.529 Y-22.597 Z-4.196
X-230.509 Y-22.578 Z-4.197
X-230.5 Y-22.551 Z-4.198
X-230.503 Y-22.524 Z-4.199
X-230.517 Y-22.5 Z-4.2
X-230.518
S6000
X-231.578 Y-21.44 F1000
X-231.602 Y-21.424
X-231.63 Y-21.421
X-231.656 Y-21.43
X-231.676 Y-21.45
X-231.685 Y-21.476
X-231.682 Y-21.504
X-231.667 Y-21.528
X-230.607 Y-22.588
X-230.583 Y-22.603
X-230.555 Y-22.607
X-230.529 Y-22.597
X-230.509 Y-22.578
X-230.5 Y-22.551
X-230.503 Y-22.524
X-230.517 Y-22.5
X-230.518
Z5
X-219.122 Y-22.33
Z2.5 F333.3
S5000
X-219.292 Y-22.5 Z2.492
X-219.307 Y-22.523 Z2.491
X-219.31 Y-22.551 Z2.49
X-219.301 Y-22.577 Z2.489
X-219.281 Y-22.596 Z2.488
X-219.255 Y-22.606 Z2.487
X-219.228 Y-22.603 Z2.486
X-219.204 Y-22.588 Z2.485
X-218.144 Y-21.528 Z2.432
X-218.129 Y-21.504 Z2.431
X-218.126 Y-21.476 Z2.43
X-218.135 Y-21.45 Z2.429
X-218.155 Y-21.43 Z2.428
X-218.181 Y-21.421 Z2.427
X-218.209 Y-21.424
X-218.232 Y-21.439 Z2.426
X-219.292 Y-22.5 Z2.373
X-219.307 Y-22.523 Z2.372
X-219.31 Y-22.551 Z2.371
X-219.301 Y-22.577 Z2.37
X-219.281 Y-22.596 Z2.369
X-219.255 Y-22.606 Z2.368
X-219.228 Y-22.603 Z2.367
X-219.204 Y-22.588 Z2.366
X-218.144 Y-21.528 Z2.314
X-218.129 Y-21.504 Z2.313
X-218.126 Y-21.476 Z2.312
X-218.135 Y-21.45 Z2.311
X-218.155 Y-21.43 Z2.31
X-218.181 Y-21.421 Z2.309
X-218.209 Y-21.424 Z2.308
X-218.232 Y-21.439 Z2.307
X-219.292 Y-22.5 Z2.255
X-219.307 Y-22.523 Z2.254
X-219.31 Y-22.551 Z2.253
X-219.301 Y-22.577 Z2.252
X-219.281 Y-22.596 Z2.251
X-219.255 Y-22.606 Z2.25
X-219.228 Y-22.603 Z2.249
X-219.204 Y-22.588 Z2.248
X-218.144 Y-21.528 Z2.196
X-218.129 Y-21.504 Z2.195
X-218.126 Y-21.476 Z2.194
X-218.135 Y-21.45 Z2.193
X-218.155 Y-21.43 Z2.192
X-218.181 Y-21.421 Z2.191
X-218.209 Y-21.424 Z2.19
X-218.232 Y-21.439 Z2.189
X-219.292 Y-22.5 Z2.136
X-219.307 Y-22.523 Z2.135
X-219.31 Y-22.551 Z2.134
X-219.301 Y-22.577 Z2.133
X-219.281 Y-22.596 Z2.132
X-219.255 Y-22.606 Z2.131
X-219.228 Y-22.603 Z2.13
X-219.204 Y-22.588 Z2.129
X-218.144 Y-21.528 Z2.077
X-218.129 Y-21.504 Z2.076
X-218.126 Y-21.476 Z2.075
X-218.135 Y-21.45 Z2.074
X-218.155 Y-21.43 Z2.073
X-218.181 Y-21.421 Z2.072
X-218.209 Y-21.424 Z2.071
X-218.232 Y-21.439 Z2.07
X-219.292 Y-22.5 Z2.018
X-219.307 Y-22.523 Z2.017
X-219.31 Y-22.551 Z2.016
X-219.301 Y-22.577 Z2.015
X-219.281 Y-22.596 Z2.014
X-219.255 Y-22.606 Z2.013
X-219.228 Y-22.603 Z2.012
X-219.204 Y-22.588 Z2.011
X-218.144 Y-21.528 Z1.959
X-218.129 Y-21.504 Z1.958
X-218.126 Y-21.476 Z1.957
X-218.135 Y-21.45 Z1.956
X-218.155 Y-21.43 Z1.955
X-218.181 Y-21.421 Z1.954
X-218.209 Y-21.424 Z1.953
X-218.232 Y-21.439 Z1.952
X-219.292 Y-22.5 Z1.899
X-219.307 Y-22.523 Z1.898
X-219.31 Y-22.551 Z1.897
X-219.301 Y-22.577 Z1.896
X-219.281 Y-22.596
X-219.255 Y-22.606 Z1.895
X-219.228 Y-22.603 Z1.894
X-219.204 Y-22.588 Z1.893
X-218.144 Y-21.528 Z1.84
X-218.129 Y-21.504 Z1.839
X-218.126 Y-21.476 Z1.838
X-218.135 Y-21.45 Z1.837
X-218.155 Y-21.43 Z1.836
X-218.181 Y-21.421 Z1.835
X-218.209 Y-21.424 Z1.834
X-218.232 Y-21.439 Z1.833
X-219.292 Y-22.5 Z1.781
X-219.307 Y-22.523 Z1.78
X-219.31 Y-22.551 Z1.779
X-219.301 Y-22.577 Z1.778
X-219.281 Y-22.596 Z1.777
X-219.255 Y-22.606 Z1.776
X-219.228 Y-22.603 Z1.775
X-219.204 Y-22.588 Z1.774
X-218.144 Y-21.528 Z1.722
X-218.129 Y-21.504 Z1.721
X-218.126 Y-21.476 Z1.72
X-218.135 Y-21.45 Z1.719
X-218.155 Y-21.43 Z1.718
X-218.181 Y-21.421 Z1.717
X-218.209 Y-21.424 Z1.716
X-218.232 Y-21.439 Z1.715
X-219.292 Y-22.5 Z1.663
X-219.307 Y-22.523 Z1.662
X-219.31 Y-22.551 Z1.661
X-219.301 Y-22.577 Z1.66
X-219.281 Y-22.596 Z1.659
X-219.255 Y-22.606 Z1.658
X-219.228 Y-22.603 Z1.657
X-219.204 Y-22.588 Z1.656
X-218.144 Y-21.528 Z1.603
X-218.129 Y-21.504 Z1.602
X-218.126 Y-21.476 Z1.601
X-218.135 Y-21.45 Z1.6
X-218.155 Y-21.43 Z1.599
X-218.181 Y-21.421 Z1.598
X-218.209 Y-21.424 Z1.597
X-218.232 Y-21.439 Z1.596
X-219.292 Y-22.5 Z1.544
X-219.307 Y-22.523 Z1.543
X-219.31 Y-22.551 Z1.542
X-219.301 Y-22.577 Z1.541
X-219.281 Y-22.596 Z1.54
X-219.255 Y-22.606 Z1.539
X-219.228 Y-22.603 Z1.538
X-219.204 Y-22.588 Z1.537
X-218.144 Y-21.528 Z1.485
X-218.129 Y-21.504 Z1.484
X-218.126 Y-21.476 Z1.483
X-218.135 Y-21.45 Z1.482
X-218.155 Y-21.43 Z1.481
X-218.181 Y-21.421 Z1.48
X-218.209 Y-21.424 Z1.479
X-218.232 Y-21.439 Z1.478
X-219.292 Y-22.5 Z1.426
X-219.307 Y-22.523 Z1.425
X-219.31 Y-22.551 Z1.424
X-219.301 Y-22.577 Z1.423
X-219.281 Y-22.596 Z1.422
X-219.255 Y-22.606 Z1.421
X-219.228 Y-22.603 Z1.42
X-219.204 Y-22.588 Z1.419
X-218.144 Y-21.528 Z1.366
X-218.129 Y-21.504 Z1.365
X-218.126 Y-21.476
X-218.135 Y-21.45 Z1.364
X-218.155 Y-21.43 Z1.363
X-218.181 Y-21.421 Z1.362
X-218.209 Y-21.424 Z1.361
X-218.232 Y-21.439 Z1.36
X-219.292 Y-22.5 Z1.307
X-219.307 Y-22.523 Z1.306
X-219.31 Y-22.551 Z1.305
X-219.301 Y-22.577 Z1.304
X-219.281 Y-22.596 Z1.303
X-219.255 Y-22.606 Z1.302
X-219.228 Y-22.603 Z1.301
X-219.204 Y-22.588 Z1.3
X-218.144 Y-21.528 Z1.248
X-218.129 Y-21.504 Z1.247
X-218.126 Y-21.476 Z1.246
X-218.135 Y-21.45 Z1.245
X-218.155 Y-21.43 Z1.244
X-218.181 Y-21.421 Z1.243
X-218.209 Y-21.424 Z1.242
X-218.232 Y-21.439 Z1.241
X-219.292 Y-22.5 Z1.189
X-219.307 Y-22.523 Z1.188
X-219.31 Y-22.551 Z1.187
X-219.301 Y-22.577 Z1.186
X-219.281 Y-22.596 Z1.185
X-219.255 Y-22.606 Z1.184
X-219.228 Y-22.603 Z1.183
X-219.204 Y-22.588 Z1.182
X-218.144 Y-21.528 Z1.13
X-218.129 Y-21.504 Z1.129
X-218.126 Y-21.476 Z1.128
X-218.135 Y-21.45 Z1.127
X-218.155 Y-21.43 Z1.126
X-218.181 Y-21.421 Z1.125
X-218.209 Y-21.424 Z1.124
X-218.232 Y-21.439 Z1.123
X-219.292 Y-22.5 Z1.07
X-219.307 Y-22.523 Z1.069
X-219.31 Y-22.551 Z1.068
X-219.301 Y-22.577 Z1.067
X-219.281 Y-22.596 Z1.066
X-219.255 Y-22.606 Z1.065
X-219.228 Y-22.603
X-219.204 Y-22.588 Z1.064
X-218.144 Y-21.528 Z1.011
X-218.129 Y-21.504 Z1.01
X-218.126 Y-21.476 Z1.009
X-218.135 Y-21.45 Z1.008
X-218.155 Y-21.43 Z1.007
X-218.181 Y-21.421 Z1.006
X-218.209 Y-21.424 Z1.005
X-218.232 Y-21.439 Z1.004
X-219.292 Y-22.5 Z0.952
X-219.307 Y-22.523 Z0.951
X-219.31 Y-22.551 Z0.95
X-219.301 Y-22.577 Z0.949
X-219.281 Y-22.596 Z0.948
X-219.255 Y-22.606 Z0.947
X-219.228 Y-22.603 Z0.946
X-219.204 Y-22.588 Z0.945
X-218.144 Y-21.528 Z0.893
X-218.129 Y-21.504 Z0.892
X-218.126 Y-21.476 Z0.891
X-218.135 Y-21.45 Z0.89
X-218.155 Y-21.43 Z0.889
X-218.181 Y-21.421 Z0.888
X-218.209 Y-21.424 Z0.887
X-218.232 Y-21.439 Z0.886
X-219.292 Y-22.5 Z0.834
X-219.307 Y-22.523 Z0.833
X-219.31 Y-22.551 Z0.832
X-219.301 Y-22.577 Z0.831
X-219.281 Y-22.596 Z0.83
X-219.255 Y-22.606 Z0.829
X-219.228 Y-22.603 Z0.828
X-219.204 Y-22.588 Z0.827
X-218.144 Y-21.528 Z0.774
X-218.129 Y-21.504 Z0.773
X-218.126 Y-21.476 Z0.772
X-218.135 Y-21.45 Z0.771
X-218.155 Y-21.43 Z0.77
X-218.181 Y-21.421 Z0.769
X-218.209 Y-21.424 Z0.768
X-218.232 Y-21.439 Z0.767
X-219.292 Y-22.5 Z0.715
X-219.307 Y-22.523 Z0.714
X-219.31 Y-22.551 Z0.713
X-219.301 Y-22.577 Z0.712
X-219.281 Y-22.596 Z0.711
X-219.255 Y-22.606 Z0.71
X-219.228 Y-22.603 Z0.709
X-219.204 Y-22.588 Z0.708
X-218.144 Y-21.528 Z0.656
X-218.129 Y-21.504 Z0.655
X-218.126 Y-21.476 Z0.654
X-218.135 Y-21.45 Z0.653
X-218.155 Y-21.43 Z0.652
X-218.181 Y-21.421 Z0.651
X-218.209 Y-21.424 Z0.65
X-218.232 Y-21.439 Z0.649
X-219.292 Y-22.5 Z0.597
X-219.307 Y-22.523 Z0.596
X-219.31 Y-22.551 Z0.595
X-219.301 Y-22.577 Z0.594
X-219.281 Y-22.596 Z0.593
X-219.255 Y-22.606 Z0.592
X-219.228 Y-22.603 Z0.591
X-219.204 Y-22.588 Z0.59
X-218.144 Y-21.528 Z0.537
X-218.129 Y-21.504 Z0.536
X-218.126 Y-21.476 Z0.535
X-218.135 Y-21.45 Z0.534
X-218.155 Y-21.43 Z0.533
X-218.181 Y-21.421
X-218.209 Y-21.424 Z0.532
X-218.232 Y-21.439 Z0.531
X-219.292 Y-22.5 Z0.478
X-219.307 Y-22.523 Z0.477
X-219.31 Y-22.551 Z0.476
X-219.301 Y-22.577 Z0.475
X-219.281 Y-22.596 Z0.474
X-219.255 Y-22.606 Z0.473
X-219.228 Y-22.603 Z0.472
X-219.204 Y-22.588 Z0.471
X-218.144 Y-21.528 Z0.419
X-218.129 Y-21.504 Z0.418
X-218.126 Y-21.476 Z0.417
X-218.135 Y-21.45 Z0.416
X-218.155 Y-21.43 Z0.415
X-218.181 Y-21.421 Z0.414
X-218.209 Y-21.424 Z0.413
X-218.232 Y-21.439 Z0.412
X-219.292 Y-22.5 Z0.36
X-219.307 Y-22.523 Z0.359
X-219.31 Y-22.551 Z0.358
X-219.301 Y-22.577 Z0.357
X-219.281 Y-22.596 Z0.356
X-219.255 Y-22.606 Z0.355
X-219.228 Y-22.603 Z0.354
X-219.204 Y-22.588 Z0.353
X-218.144 Y-21.528 Z0.301
X-218.129 Y-21.504 Z0.3
X-218.126 Y-21.476 Z0.299
X-218.135 Y-21.45 Z0.298
X-218.155 Y-21.43 Z0.297
X-218.181 Y-21.421 Z0.296
X-218.209 Y-21.424 Z0.295
X-218.232 Y-21.439 Z0.294
X-219.292 Y-22.5 Z0.241
X-219.307 Y-22.523 Z0.24
X-219.31 Y-22.551 Z0.239
X-219.301 Y-22.577 Z0.238
X-219.281 Y-22.596 Z0.237
X-219.255 Y-22.606 Z0.236
X-219.228 Y-22.603 Z0.235
X-219.204 Y-22.588 Z0.234
X-218.144 Y-21.528 Z0.182
X-218.129 Y-21.504 Z0.181
X-218.126 Y-21.476 Z0.18
X-218.135 Y-21.45 Z0.179
X-218.155 Y-21.43 Z0.178
X-218.181 Y-21.421 Z0.177
X-218.209 Y-21.424 Z0.176
X-218.232 Y-21.439 Z0.175
X-219.292 Y-22.5 Z0.123
X-219.307 Y-22.523 Z0.122
X-219.31 Y-22.551 Z0.121
X-219.301 Y-22.577 Z0.12
X-219.281 Y-22.596 Z0.119
X-219.255 Y-22.606 Z0.118
X-219.228 Y-22.603 Z0.117
X-219.204 Y-22.588 Z0.116
X-218.144 Y-21.528 Z0.064
X-218.129 Y-21.504 Z0.063
X-218.126 Y-21.476 Z0.062
X-218.135 Y-21.45 Z0.061
X-218.155 Y-21.43 Z0.06
X-218.181 Y-21.421 Z0.059
X-218.209 Y-21.424 Z0.058
X-218.232 Y-21.439 Z0.057
X-219.292 Y-22.5 Z0.004
X-219.307 Y-22.523 Z0.003
X-219.31 Y-22.551
X-219.301 Y-22.577 Z0.002
X-219.281 Y-22.596 Z0.001
X-219.255 Y-22.606 Z0
X-219.228 Y-22.603 Z-0.001
X-219.204 Y-22.588 Z-0.002
X-218.144 Y-21.528 Z-0.055
X-218.129 Y-21.504 Z-0.056
X-218.126 Y-21.476 Z-0.057
X-218.135 Y-21.45 Z-0.058
X-218.155 Y-21.43 Z-0.059
X-218.181 Y-21.421 Z-0.06
X-218.209 Y-21.424 Z-0.061
X-218.232 Y-21.439 Z-0.062
X-219.292 Y-22.5 Z-0.114
X-219.307 Y-22.523 Z-0.115
X-219.31 Y-22.551 Z-0.116
X-219.301 Y-22.577 Z-0.117
X-219.281 Y-22.596 Z-0.118
X-219.255 Y-22.606 Z-0.119
X-219.228 Y-22.603 Z-0.12
X-219.204 Y-22.588 Z-0.121
X-218.144 Y-21.528 Z-0.173
X-218.129 Y-21.504 Z-0.174
X-218.126 Y-21.476 Z-0.175
X-218.135 Y-21.45 Z-0.176
X-218.155 Y-21.43 Z-0.177
X-218.181 Y-21.421 Z-0.178
X-218.209 Y-21.424 Z-0.179
X-218.232 Y-21.439 Z-0.18
X-219.292 Y-22.5 Z-0.232
X-219.307 Y-22.523 Z-0.233
X-219.31 Y-22.551 Z-0.234
X-219.301 Y-22.577 Z-0.235
X-219.281 Y-22.596 Z-0.236
X-219.255 Y-22.606 Z-0.237
X-219.228 Y-22.603 Z-0.238
X-219.204 Y-22.588 Z-0.239
X-218.144 Y-21.528 Z-0.292
X-218.129 Y-21.504 Z-0.293
X-218.126 Y-21.476 Z-0.294
X-218.135 Y-21.45 Z-0.295
X-218.155 Y-21.43 Z-0.296
X-218.181 Y-21.421 Z-0.297
X-218.209 Y-21.424 Z-0.298
X-218.232 Y-21.439
X-219.292 Y-22.5 Z-0.351
X-219.307 Y-22.523 Z-0.352
X-219.31 Y-22.551 Z-0.353
X-219.301 Y-22.577 Z-0.354
X-219.281 Y-22.596 Z-0.355
X-219.255 Y-22.606 Z-0.356
X-219.228 Y-22.603 Z-0.357
X-219.204 Y-22.588 Z-0.358
X-218.144 Y-21.528 Z-0.41
X-218.129 Y-21.504 Z-0.411
X-218.126 Y-21.476 Z-0.412
X-218.135 Y-21.45 Z-0.413
X-218.155 Y-21.43 Z-0.414
X-218.181 Y-21.421 Z-0.415
X-218.209 Y-21.424 Z-0.416
X-218.232 Y-21.439 Z-0.417
X-219.292 Y-22.5 Z-0.469
X-219.307 Y-22.523 Z-0.47
X-219.31 Y-22.551 Z-0.471
X-219.301 Y-22.577 Z-0.472
X-219.281 Y-22.596 Z-0.473
X-219.255 Y-22.606 Z-0.474
X-219.228 Y-22.603 Z-0.475
X-219.204 Y-22.588 Z-0.476
X-218.144 Y-21.528 Z-0.529
X-218.129 Y-21.504
X-218.126 Y-21.476 Z-0.53
X-218.135 Y-21.45 Z-0.531
X-218.155 Y-21.43 Z-0.532
X-218.181 Y-21.421 Z-0.533
X-218.209 Y-21.424 Z-0.534
X-218.232 Y-21.439 Z-0.535
X-219.292 Y-22.5 Z-0.588
X-219.307 Y-22.523 Z-0.589
X-219.31 Y-22.551 Z-0.59
X-219.301 Y-22.577 Z-0.591
X-219.281 Y-22.596 Z-0.592
X-219.255 Y-22.606 Z-0.593
X-219.228 Y-22.603 Z-0.594
X-219.204 Y-22.588 Z-0.595
X-218.144 Y-21.528 Z-0.647
X-218.129 Y-21.504 Z-0.648
X-218.126 Y-21.476 Z-0.649
X-218.135 Y-21.45 Z-0.65
X-218.155 Y-21.43 Z-0.651
X-218.181 Y-21.421 Z-0.652
X-218.209 Y-21.424 Z-0.653
X-218.232 Y-21.439 Z-0.654
X-219.292 Y-22.5 Z-0.706
X-219.307 Y-22.523 Z-0.707
X-219.31 Y-22.551 Z-0.708
X-219.301 Y-22.577 Z-0.709
X-219.281 Y-22.596 Z-0.71
X-219.255 Y-22.606 Z-0.711
X-219.228 Y-22.603 Z-0.712
X-219.204 Y-22.588 Z-0.713
X-218.144 Y-21.528 Z-0.765
X-218.129 Y-21.504 Z-0.766
X-218.126 Y-21.476 Z-0.767
X-218.135 Y-21.45 Z-0.768
X-218.155 Y-21.43 Z-0.769
X-218.181 Y-21.421 Z-0.77
X-218.209 Y-21.424 Z-0.771
X-218.232 Y-21.439 Z-0.772
X-219.292 Y-22.5 Z-0.825
X-219.307 Y-22.523 Z-0.826
X-219.31 Y-22.551 Z-0.827
X-219.301 Y-22.577 Z-0.828
X-219.281 Y-22.596 Z-0.829
X-219.255 Y-22.606
X-219.228 Y-22.603 Z-0.83
X-219.204 Y-22.588 Z-0.831
X-218.144 Y-21.528 Z-0.884
X-218.129 Y-21.504 Z-0.885
X-218.126 Y-21.476 Z-0.886
X-218.135 Y-21.45 Z-0.887
X-218.155 Y-21.43 Z-0.888
X-218.181 Y-21.421 Z-0.889
X-218.209 Y-21.424 Z-0.89
X-218.232 Y-21.439 Z-0.891
X-219.292 Y-22.5 Z-0.943
X-219.307 Y-22.523 Z-0.944
X-219.31 Y-22.551 Z-0.945
X-219.301 Y-22.577 Z-0.946
X-219.281 Y-22.596 Z-0.947
X-219.255 Y-22.606 Z-0.948
X-219.228 Y-22.603 Z-0.949
X-219.204 Y-22.588 Z-0.95
X-218.144 Y-21.528 Z-1.002
X-218.129 Y-21.504 Z-1.003
X-218.126 Y-21.476 Z-1.004
X-218.135 Y-21.45 Z-1.005
X-218.155 Y-21.43 Z-1.006
X-218.181 Y-21.421 Z-1.007
X-218.209 Y-21.424 Z-1.008
X-218.232 Y-21.439 Z-1.009
X-219.292 Y-22.5 Z-1.061
X-219.307 Y-22.523 Z-1.062
X-219.31 Y-22.551 Z-1.063
X-219.301 Y-22.577 Z-1.064
X-219.281 Y-22.596 Z-1.065
X-219.255 Y-22.606 Z-1.066
X-219.228 Y-22.603 Z-1.067
X-219.204 Y-22.588 Z-1.068
X-218.144 Y-21.528 Z-1.121
X-218.129 Y-21.504 Z-1.122
X-218.126 Y-21.476 Z-1.123
X-218.135 Y-21.45 Z-1.124
X-218.155 Y-21.43 Z-1.125
X-218.181 Y-21.421 Z-1.126
X-218.209 Y-21.424 Z-1.127
X-218.232 Y-21.439 Z-1.128
X-219.292 Y-22.5 Z-1.18
X-219.307 Y-22.523 Z-1.181
X-219.31 Y-22.551 Z-1.182
X-219.301 Y-22.577 Z-1.183
X-219.281 Y-22.596 Z-1.184
X-219.255 Y-22.606 Z-1.185
X-219.228 Y-22.603 Z-1.186
X-219.204 Y-22.588 Z-1.187
X-218.144 Y-21.528 Z-1.239
X-218.129 Y-21.504 Z-1.24
X-218.126 Y-21.476 Z-1.241
X-218.135 Y-21.45 Z-1.242
X-218.155 Y-21.43 Z-1.243
X-218.181 Y-21.421 Z-1.244
X-218.209 Y-21.424 Z-1.245
X-218.232 Y-21.439 Z-1.246
X-219.292 Y-22.5 Z-1.298
X-219.307 Y-22.523 Z-1.299
X-219.31 Y-22.551 Z-1.3
X-219.301 Y-22.577 Z-1.301
X-219.281 Y-22.596 Z-1.302
X-219.255 Y-22.606 Z-1.303
X-219.228 Y-22.603 Z-1.304
X-219.204 Y-22.588 Z-1.305
X-218.144 Y-21.528 Z-1.358
X-218.129 Y-21.504 Z-1.359
X-218.126 Y-21.476 Z-1.36
X-218.135 Y-21.45
X-218.155 Y-21.43 Z-1.361
X-218.181 Y-21.421 Z-1.362
X-218.209 Y-21.424 Z-1.363
X-218.232 Y-21.439 Z-1.364
X-219.292 Y-22.5 Z-1.417
X-219.307 Y-22.523 Z-1.418
X-219.31 Y-22.551 Z-1.419
X-219.301 Y-22.577 Z-1.42
X-219.281 Y-22.596 Z-1.421
X-219.255 Y-22.606 Z-1.422
X-219.228 Y-22.603 Z-1.423
X-219.204 Y-22.588 Z-1.424
X-218.144 Y-21.528 Z-1.476
X-218.129 Y-21.504 Z-1.477
X-218.126 Y-21.476 Z-1.478
X-218.135 Y-21.45 Z-1.479
X-218.155 Y-21.43 Z-1.48
X-218.181 Y-21.421 Z-1.481
X-218.209 Y-21.424 Z-1.482
X-218.232 Y-21.439 Z-1.483
X-219.292 Y-22.5 Z-1.535
X-219.307 Y-22.523 Z-1.536
X-219.31 Y-22.551 Z-1.537
X-219.301 Y-22.577 Z-1.538
X-219.281 Y-22.596 Z-1.539
X-219.255 Y-22.606 Z-1.54
X-219.228 Y-22.603 Z-1.541
X-219.204 Y-22.588 Z-1.542
X-218.144 Y-21.528 Z-1.594
X-218.129 Y-21.504 Z-1.595
X-218.126 Y-21.476 Z-1.596
X-218.135 Y-21.45 Z-1.597
X-218.155 Y-21.43 Z-1.598
X-218.181 Y-21.421 Z-1.599
X-218.209 Y-21.424 Z-1.6
X-218.232 Y-21.439 Z-1.601
X-219.292 Y-22.5 Z-1.654
X-219.307 Y-22.523 Z-1.655
X-219.31 Y-22.551 Z-1.656
X-219.301 Y-22.577 Z-1.657
X-219.281 Y-22.596 Z-1.658
X-219.255 Y-22.606 Z-1.659
X-219.228 Y-22.603 Z-1.66
X-219.204 Y-22.588
X-218.144 Y-21.528 Z-1.713
X-218.129 Y-21.504 Z-1.714
X-218.126 Y-21.476 Z-1.715
X-218.135 Y-21.45 Z-1.716
X-218.155 Y-21.43 Z-1.717
X-218.181 Y-21.421 Z-1.718
X-218.209 Y-21.424 Z-1.719
X-218.232 Y-21.439 Z-1.72
X-219.292 Y-22.5 Z-1.772
X-219.307 Y-22.523 Z-1.773
X-219.31 Y-22.551 Z-1.774
X-219.301 Y-22.577 Z-1.775
X-219.281 Y-22.596 Z-1.776
X-219.255 Y-22.606 Z-1.777
X-219.228 Y-22.603 Z-1.778
X-219.204 Y-22.588 Z-1.779
X-218.144 Y-21.528 Z-1.831
X-218.129 Y-21.504 Z-1.832
X-218.126 Y-21.476 Z-1.833
X-218.135 Y-21.45 Z-1.834
X-218.155 Y-21.43 Z-1.835
X-218.181 Y-21.421 Z-1.836
X-218.209 Y-21.424 Z-1.837
X-218.232 Y-21.439 Z-1.838
X-219.292 Y-22.5 Z-1.891
X-219.307 Y-22.523
X-219.31 Y-22.551 Z-1.892
X-219.301 Y-22.577 Z-1.893
X-219.281 Y-22.596 Z-1.894
X-219.255 Y-22.606 Z-1.895
X-219.228 Y-22.603 Z-1.896
X-219.204 Y-22.588 Z-1.897
X-218.144 Y-21.528 Z-1.95
X-218.129 Y-21.504 Z-1.951
X-218.126 Y-21.476 Z-1.952
X-218.135 Y-21.45 Z-1.953
X-218.155 Y-21.43 Z-1.954
X-218.181 Y-21.421 Z-1.955
X-218.209 Y-21.424 Z-1.956
X-218.232 Y-21.439 Z-1.957
X-219.292 Y-22.5 Z-2.009
X-219.307 Y-22.523 Z-2.01
X-219.31 Y-22.551 Z-2.011
X-219.301 Y-22.577 Z-2.012
X-219.281 Y-22.596 Z-2.013
X-219.255 Y-22.606 Z-2.014
X-219.228 Y-22.603 Z-2.015
X-219.204 Y-22.588 Z-2.016
X-218.144 Y-21.528 Z-2.068
X-218.129 Y-21.504 Z-2.069
X-218.126 Y-21.476 Z-2.07
X-218.135 Y-21.45 Z-2.071
X-218.155 Y-21.43 Z-2.072
X-218.181 Y-21.421 Z-2.073
X-218.209 Y-21.424 Z-2.074
X-218.232 Y-21.439 Z-2.075
X-219.292 Y-22.5 Z-2.127
X-219.307 Y-22.523 Z-2.128
X-219.31 Y-22.551 Z-2.129
X-219.301 Y-22.577 Z-2.13
X-219.281 Y-22.596 Z-2.131
X-219.255 Y-22.606 Z-2.132
X-219.228 Y-22.603 Z-2.133
X-219.204 Y-22.588 Z-2.134
X-218.144 Y-21.528 Z-2.187
X-218.129 Y-21.504 Z-2.188
X-218.126 Y-21.476 Z-2.189
X-218.135 Y-21.45 Z-2.19
X-218.155 Y-21.43 Z-2.191
X-218.181 Y-21.421 Z-2.192
X-218.209 Y-21.424
X-218.232 Y-21.439 Z-2.193
X-219.292 Y-22.5 Z-2.246
X-219.307 Y-22.523 Z-2.247
X-219.31 Y-22.551 Z-2.248
X-219.301 Y-22.577 Z-2.249
X-219.281 Y-22.596 Z-2.25
X-219.255 Y-22.606 Z-2.251
X-219.228 Y-22.603 Z-2.252
X-219.204 Y-22.588 Z-2.253
X-218.144 Y-21.528 Z-2.305
X-218.129 Y-21.504 Z-2.306
X-218.126 Y-21.476 Z-2.307
X-218.135 Y-21.45 Z-2.308
X-218.155 Y-21.43 Z-2.309
X-218.181 Y-21.421 Z-2.31
X-218.209 Y-21.424 Z-2.311
X-218.232 Y-21.439 Z-2.312
X-219.292 Y-22.5 Z-2.364
X-219.307 Y-22.523 Z-2.365
X-219.31 Y-22.551 Z-2.366
X-219.301 Y-22.577 Z-2.367
X-219.281 Y-22.596 Z-2.368
X-219.255 Y-22.606 Z-2.369
X-219.228 Y-22.603 Z-2.37
X-219.204 Y-22.588 Z-2.371
X-218.144 Y-21.528 Z-2.423
X-218.129 Y-21.504 Z-2.424
X-218.126 Y-21.476 Z-2.425
X-218.135 Y-21.45 Z-2.426
X-218.155 Y-21.43 Z-2.427
X-218.181 Y-21.421 Z-2.428
X-218.209 Y-21.424 Z-2.429
X-218.232 Y-21.439 Z-2.43
X-219.292 Y-22.5 Z-2.483
X-219.307 Y-22.523 Z-2.484
X-219.31 Y-22.551 Z-2.485
X-219.301 Y-22.577 Z-2.486
X-219.281 Y-22.596 Z-2.487
X-219.255 Y-22.606 Z-2.488
X-219.228 Y-22.603 Z-2.489
X-219.204 Y-22.588 Z-2.49
X-218.144 Y-21.528 Z-2.542
X-218.129 Y-21.504 Z-2.543
X-218.126 Y-21.476 Z-2.544
X-218.135 Y-21.45 Z-2.545
X-218.155 Y-21.43 Z-2.546
X-218.181 Y-21.421 Z-2.547
X-218.209 Y-21.424 Z-2.548
X-218.232 Y-21.439 Z-2.549
X-219.292 Y-22.5 Z-2.601
X-219.307 Y-22.523 Z-2.602
X-219.31 Y-22.551 Z-2.603
X-219.301 Y-22.577 Z-2.604
X-219.281 Y-22.596 Z-2.605
X-219.255 Y-22.606 Z-2.606
X-219.228 Y-22.603 Z-2.607
X-219.204 Y-22.588 Z-2.608
X-218.144 Y-21.528 Z-2.66
X-218.129 Y-21.504 Z-2.661
X-218.126 Y-21.476 Z-2.662
X-218.135 Y-21.45 Z-2.663
X-218.155 Y-21.43 Z-2.664
X-218.181 Y-21.421 Z-2.665
X-218.209 Y-21.424 Z-2.666
X-218.232 Y-21.439 Z-2.667
X-219.292 Y-22.5 Z-2.72
X-219.307 Y-22.523 Z-2.721
X-219.31 Y-22.551 Z-2.722
X-219.301 Y-22.577
X-219.281 Y-22.596 Z-2.723
X-219.255 Y-22.606 Z-2.724
X-219.228 Y-22.603 Z-2.725
X-219.204 Y-22.588 Z-2.726
X-218.144 Y-21.528 Z-2.779
X-218.129 Y-21.504 Z-2.78
X-218.126 Y-21.476 Z-2.781
X-218.135 Y-21.45 Z-2.782
X-218.155 Y-21.43 Z-2.783
X-218.181 Y-21.421 Z-2.784
X-218.209 Y-21.424 Z-2.785
X-218.232 Y-21.439 Z-2.786
X-219.292 Y-22.5 Z-2.838
X-219.307 Y-22.523 Z-2.839
X-219.31 Y-22.551 Z-2.84
X-219.301 Y-22.577 Z-2.841
X-219.281 Y-22.596 Z-2.842
X-219.255 Y-22.606 Z-2.843
X-219.228 Y-22.603 Z-2.844
X-219.204 Y-22.588 Z-2.845
X-218.144 Y-21.528 Z-2.897
X-218.129 Y-21.504 Z-2.898
X-218.126 Y-21.476 Z-2.899
X-218.135 Y-21.45 Z-2.9
X-218.155 Y-21.43 Z-2.901
X-218.181 Y-21.421 Z-2.902
X-218.209 Y-21.424 Z-2.903
X-218.232 Y-21.439 Z-2.904
X-219.292 Y-22.5 Z-2.956
X-219.307 Y-22.523 Z-2.957
X-219.31 Y-22.551 Z-2.958
X-219.301 Y-22.577 Z-2.959
X-219.281 Y-22.596 Z-2.96
X-219.255 Y-22.606 Z-2.961
X-219.228 Y-22.603 Z-2.962
X-219.204 Y-22.588 Z-2.963
X-218.144 Y-21.528 Z-3.016
X-218.129 Y-21.504 Z-3.017
X-218.126 Y-21.476 Z-3.018
X-218.135 Y-21.45 Z-3.019
X-218.155 Y-21.43 Z-3.02
X-218.181 Y-21.421 Z-3.021
X-218.209 Y-21.424 Z-3.022
X-218.232 Y-21.439 Z-3.023
X-219.292 Y-22.5 Z-3.075
X-219.307 Y-22.523 Z-3.076
X-219.31 Y-22.551 Z-3.077
X-219.301 Y-22.577 Z-3.078
X-219.281 Y-22.596 Z-3.079
X-219.255 Y-22.606 Z-3.08
X-219.228 Y-22.603 Z-3.081
X-219.204 Y-22.588 Z-3.082
X-218.144 Y-21.528 Z-3.134
X-218.129 Y-21.504 Z-3.135
X-218.126 Y-21.476 Z-3.136
X-218.135 Y-21.45 Z-3.137
X-218.155 Y-21.43 Z-3.138
X-218.181 Y-21.421 Z-3.139
X-218.209 Y-21.424 Z-3.14
X-218.232 Y-21.439 Z-3.141
X-219.292 Y-22.5 Z-3.193
X-219.307 Y-22.523 Z-3.194
X-219.31 Y-22.551 Z-3.195
X-219.301 Y-22.577 Z-3.196
X-219.281 Y-22.596 Z-3.197
X-219.255 Y-22.606 Z-3.198
X-219.228 Y-22.603 Z-3.199
X-219.204 Y-22.588 Z-3.2
X-218.144 Y-21.528 Z-3.253
X-218.129 Y-21.504 Z-3.254
X-218.126 Y-21.476
X-218.135 Y-21.45 Z-3.255
X-218.155 Y-21.43 Z-3.256
X-218.181 Y-21.421 Z-3.257
X-218.209 Y-21.424 Z-3.258
X-218.232 Y-21.439 Z-3.259
X-219.292 Y-22.5 Z-3.312
X-219.307 Y-22.523 Z-3.313
X-219.31 Y-22.551 Z-3.314
X-219.301 Y-22.577 Z-3.315
X-219.281 Y-22.596 Z-3.316
X-219.255 Y-22.606 Z-3.317
X-219.228 Y-22.603 Z-3.318
X-219.204 Y-22.588 Z-3.319
X-218.144 Y-21.528 Z-3.371
X-218.129 Y-21.504 Z-3.372
X-218.126 Y-21.476 Z-3.373
X-218.135 Y-21.45 Z-3.374
X-218.155 Y-21.43 Z-3.375
X-218.181 Y-21.421 Z-3.376
X-218.209 Y-21.424 Z-3.377
X-218.232 Y-21.439 Z-3.378
X-219.292 Y-22.5 Z-3.43
X-219.307 Y-22.523 Z-3.431
X-219.31 Y-22.551 Z-3.432
X-219.301 Y-22.577 Z-3.433
X-219.281 Y-22.596 Z-3.434
X-219.255 Y-22.606 Z-3.435
X-219.228 Y-22.603 Z-3.436
X-219.204 Y-22.588 Z-3.437
X-218.144 Y-21.528 Z-3.489
X-218.129 Y-21.504 Z-3.49
X-218.126 Y-21.476 Z-3.491
X-218.135 Y-21.45 Z-3.492
X-218.155 Y-21.43 Z-3.493
X-218.181 Y-21.421 Z-3.494
X-218.209 Y-21.424 Z-3.495
X-218.232 Y-21.439 Z-3.496
X-219.292 Y-22.5 Z-3.549
X-219.307 Y-22.523 Z-3.55
X-219.31 Y-22.551 Z-3.551
X-219.301 Y-22.577 Z-3.552
X-219.281 Y-22.596 Z-3.553
X-219.255 Y-22.606 Z-3.554
X-219.228 Y-22.603
X-219.204 Y-22.588 Z-3.555
X-218.144 Y-21.528 Z-3.608
X-218.129 Y-21.504 Z-3.609
X-218.126 Y-21.476 Z-3.61
X-218.135 Y-21.45 Z-3.611
X-218.155 Y-21.43 Z-3.612
X-218.181 Y-21.421 Z-3.613
X-218.209 Y-21.424 Z-3.614
X-218.232 Y-21.439 Z-3.615
X-219.292 Y-22.5 Z-3.667
X-219.307 Y-22.523 Z-3.668
X-219.31 Y-22.551 Z-3.669
X-219.301 Y-22.577 Z-3.67
X-219.281 Y-22.596 Z-3.671
X-219.255 Y-22.606 Z-3.672
X-219.228 Y-22.603 Z-3.673
X-219.204 Y-22.588 Z-3.674
X-218.144 Y-21.528 Z-3.726
X-218.129 Y-21.504 Z-3.727
X-218.126 Y-21.476 Z-3.728
X-218.135 Y-21.45 Z-3.729
X-218.155 Y-21.43 Z-3.73
X-218.181 Y-21.421 Z-3.731
X-218.209 Y-21.424 Z-3.732
X-218.232 Y-21.439 Z-3.733
X-219.292 Y-22.5 Z-3.785
X-219.307 Y-22.523 Z-3.786
X-219.31 Y-22.551 Z-3.787
X-219.301 Y-22.577 Z-3.788
X-219.281 Y-22.596 Z-3.789
X-219.255 Y-22.606 Z-3.79
X-219.228 Y-22.603 Z-3.791
X-219.204 Y-22.588 Z-3.792
X-218.144 Y-21.528 Z-3.845
X-218.129 Y-21.504 Z-3.846
X-218.126 Y-21.476 Z-3.847
X-218.135 Y-21.45 Z-3.848
X-218.155 Y-21.43 Z-3.849
X-218.181 Y-21.421 Z-3.85
X-218.209 Y-21.424 Z-3.851
X-218.232 Y-21.439 Z-3.852
X-219.292 Y-22.5 Z-3.904
X-219.307 Y-22.523 Z-3.905
X-219.31 Y-22.551 Z-3.906
X-219.301 Y-22.577 Z-3.907
X-219.281 Y-22.596 Z-3.908
X-219.255 Y-22.606 Z-3.909
X-219.228 Y-22.603 Z-3.91
X-219.204 Y-22.588 Z-3.911
X-218.144 Y-21.528 Z-3.963
X-218.129 Y-21.504 Z-3.964
X-218.126 Y-21.476 Z-3.965
X-218.135 Y-21.45 Z-3.966
X-218.155 Y-21.43 Z-3.967
X-218.181 Y-21.421 Z-3.968
X-218.209 Y-21.424 Z-3.969
X-218.232 Y-21.439 Z-3.97
X-219.292 Y-22.5 Z-4.022
X-219.307 Y-22.523 Z-4.023
X-219.31 Y-22.551 Z-4.024
X-219.301 Y-22.577 Z-4.025
X-219.281 Y-22.596 Z-4.026
X-219.255 Y-22.606 Z-4.027
X-219.228 Y-22.603 Z-4.028
X-219.204 Y-22.588 Z-4.029
X-218.144 Y-21.528 Z-4.082
X-218.129 Y-21.504 Z-4.083
X-218.126 Y-21.476 Z-4.084
X-218.135 Y-21.45 Z-4.085
X-218.155 Y-21.43
X-218.181 Y-21.421 Z-4.086
X-218.209 Y-21.424 Z-4.087
X-218.232 Y-21.439 Z-4.088
X-219.292 Y-22.5 Z-4.141
X-219.307 Y-22.523 Z-4.142
X-219.31 Y-22.551 Z-4.143
X-219.301 Y-22.577 Z-4.144
X-219.281 Y-22.596 Z-4.145
X-219.255 Y-22.606 Z-4.146
X-219.228 Y-22.603 Z-4.147
X-219.204 Y-22.588 Z-4.148
X-218.144 Y-21.528 Z-4.2
S6000
X-218.129 Y-21.504 F1000
X-218.126 Y-21.476
X-218.135 Y-21.45
X-218.155 Y-21.43
X-218.181 Y-21.421
X-218.209 Y-21.424
X-218.232 Y-21.439
X-219.292 Y-22.5
X-219.307 Y-22.523
X-219.31 Y-22.551
X-219.301 Y-22.577
X-219.281 Y-22.596
X-219.255 Y-22.606
X-219.228 Y-22.603
X-219.204 Y-22.588
X-218.144 Y-21.528
Z5
X-219.169 Y-33.849
Z2.5 F333.3
S5000
X-219.204 Y-33.814 Z2.498
X-219.228 Y-33.799 Z2.497
X-219.255 Y-33.796 Z2.496
X-219.281 Y-33.806 Z2.495
X-219.301 Y-33.825 Z2.494
X-219.31 Y-33.851 Z2.493
X-219.307 Y-33.879 Z2.492
X-219.292 Y-33.902 Z2.491
X-218.232 Y-34.963 Z2.439
X-218.209 Y-34.978 Z2.438
X-218.181 Y-34.981 Z2.437
X-218.155 Y-34.972 Z2.436
X-218.135 Y-34.952 Z2.435
X-218.126 Y-34.926 Z2.434
X-218.129 Y-34.898 Z2.433
X-218.144 Y-34.874 Z2.432
X-219.204 Y-33.814 Z2.38
X-219.228 Y-33.799 Z2.379
X-219.255 Y-33.796 Z2.378
X-219.281 Y-33.806 Z2.377
X-219.301 Y-33.825 Z2.376
X-219.31 Y-33.851 Z2.375
X-219.307 Y-33.879 Z2.374
X-219.292 Y-33.902 Z2.373
X-218.232 Y-34.963 Z2.321
X-218.209 Y-34.978 Z2.32
X-218.181 Y-34.981 Z2.319
X-218.155 Y-34.972 Z2.318
X-218.135 Y-34.952 Z2.317
X-218.126 Y-34.926 Z2.316
X-218.129 Y-34.898 Z2.315
X-218.144 Y-34.874 Z2.314
X-219.204 Y-33.814 Z2.261
X-219.228 Y-33.799 Z2.26
X-219.255 Y-33.796 Z2.259
X-219.281 Y-33.806 Z2.258
X-219.301 Y-33.825
X-219.31 Y-33.851 Z2.257
X-219.307 Y-33.879 Z2.256
X-219.292 Y-33.902 Z2.255
X-218.232 Y-34.963 Z2.202
X-218.209 Y-34.978 Z2.201
X-218.181 Y-34.981 Z2.2
X-218.155 Y-34.972 Z2.199
X-218.135 Y-34.952 Z2.198
X-218.126 Y-34.926 Z2.197
X-218.129 Y-34.898 Z2.196
X-218.144 Y-34.874 Z2.195
X-219.204 Y-33.814 Z2.143
X-219.228 Y-33.799 Z2.142
X-219.255 Y-33.796 Z2.141
X-219.281 Y-33.806 Z2.14
X-219.301 Y-33.825 Z2.139
X-219.31 Y-33.851 Z2.138
X-219.307 Y-33.879 Z2.137
X-219.292 Y-33.902 Z2.136
X-218.232 Y-34.963 Z2.084
X-218.209 Y-34.978 Z2.083
X-218.181 Y-34.981 Z2.082
X-218.155 Y-34.972 Z2.081
X-218.135 Y-34.952 Z2.08
X-218.126 Y-34.926 Z2.079
X-218.129 Y-34.898 Z2.078
X-218.144 Y-34.874 Z2.077
X-219.204 Y-33.814 Z2.025
X-219.228 Y-33.799 Z2.024
X-219.255 Y-33.796 Z2.023
X-219.281 Y-33.806 Z2.022
X-219.301 Y-33.825 Z2.021
X-219.31 Y-33.851 Z2.02
X-219.307 Y-33.879 Z2.019
X-219.292 Y-33.902 Z2.018
X-218.232 Y-34.963 Z1.965
X-218.209 Y-34.978 Z1.964
X-218.181 Y-34.981 Z1.963
X-218.155 Y-34.972 Z1.962
X-218.135 Y-34.952 Z1.961
X-218.126 Y-34.926 Z1.96
X-218.129 Y-34.898 Z1.959
X-218.144 Y-34.874 Z1.958
X-219.204 Y-33.814 Z1.906
X-219.228 Y-33.799 Z1.905
X-219.255 Y-33.796 Z1.904
X-219.281 Y-33.806 Z1.903
X-219.301 Y-33.825 Z1.902
X-219.31 Y-33.851 Z1.901
X-219.307 Y-33.879 Z1.9
X-219.292 Y-33.902 Z1.899
X-218.232 Y-34.963 Z1.847
X-218.209 Y-34.978 Z1.846
X-218.181 Y-34.981 Z1.845
X-218.155 Y-34.972 Z1.844
X-218.135 Y-34.952 Z1.843
X-218.126 Y-34.926 Z1.842
X-218.129 Y-34.898 Z1.841
X-218.144 Y-34.874 Z1.84
X-219.204 Y-33.814 Z1.788
X-219.228 Y-33.799 Z1.787
X-219.255 Y-33.796 Z1.786
X-219.281 Y-33.806 Z1.785
X-219.301 Y-33.825 Z1.784
X-219.31 Y-33.851 Z1.783
X-219.307 Y-33.879 Z1.782
X-219.292 Y-33.902 Z1.781
X-218.232 Y-34.963 Z1.728
X-218.209 Y-34.978
X-218.181 Y-34.981 Z1.727
X-218.155 Y-34.972 Z1.726
X-218.135 Y-34.952 Z1.725
X-218.126 Y-34.926 Z1.724
X-218.129 Y-34.898 Z1.723
X-218.144 Y-34.874 Z1.722
X-219.204 Y-33.814 Z1.669
X-219.228 Y-33.799 Z1.668
X-219.255 Y-33.796 Z1.667
X-219.281 Y-33.806 Z1.666
X-219.301 Y-33.825 Z1.665
X-219.31 Y-33.851 Z1.664
X-219.307 Y-33.879 Z1.663
X-219.292 Y-33.902 Z1.662
X-218.232 Y-34.963 Z1.61
X-218.209 Y-34.978 Z1.609
X-218.181 Y-34.981 Z1.608
X-218.155 Y-34.972 Z1.607
X-218.135 Y-34.952 Z1.606
X-218.126 Y-34.926 Z1.605
X-218.129 Y-34.898 Z1.604
X-218.144 Y-34.874 Z1.603
X-219.204 Y-33.814 Z1.551
X-219.228 Y-33.799 Z1.55
X-219.255 Y-33.796 Z1.549
X-219.281 Y-33.806 Z1.548
X-219.301 Y-33.825 Z1.547
X-219.31 Y-33.851 Z1.546
X-219.307 Y-33.879 Z1.545
X-219.292 Y-33.902 Z1.544
X-218.232 Y-34.963 Z1.492
X-218.209 Y-34.978 Z1.491
X-218.181 Y-34.981 Z1.49
X-218.155 Y-34.972 Z1.489
X-218.135 Y-34.952 Z1.488
X-218.126 Y-34.926 Z1.487
X-218.129 Y-34.898 Z1.486
X-218.144 Y-34.874 Z1.485
X-219.204 Y-33.814 Z1.432
X-219.228 Y-33.799 Z1.431
X-219.255 Y-33.796 Z1.43
X-219.281 Y-33.806 Z1.429
X-219.301 Y-33.825 Z1.428
X-219.31 Y-33.851
X-219.307 Y-33.879 Z1.427
X-219.292 Y-33.902 Z1.426
X-218.232 Y-34.963 Z1.373
X-218.209 Y-34.978 Z1.372
X-218.181 Y-34.981 Z1.371
X-218.155 Y-34.972 Z1.37
X-218.135 Y-34.952 Z1.369
X-218.126 Y-34.926 Z1.368
X-218.129 Y-34.898 Z1.367
X-218.144 Y-34.874 Z1.366
X-219.204 Y-33.814 Z1.314
X-219.228 Y-33.799 Z1.313
X-219.255 Y-33.796 Z1.312
X-219.281 Y-33.806 Z1.311
X-219.301 Y-33.825 Z1.31
X-219.31 Y-33.851 Z1.309
X-219.307 Y-33.879 Z1.308
X-219.292 Y-33.902 Z1.307
X-218.232 Y-34.963 Z1.255
X-218.209 Y-34.978 Z1.254
X-218.181 Y-34.981 Z1.253
X-218.155 Y-34.972 Z1.252
X-218.135 Y-34.952 Z1.251
X-218.126 Y-34.926 Z1.25
X-218.129 Y-34.898 Z1.249
X-218.144 Y-34.874 Z1.248
X-219.204 Y-33.814 Z1.196
X-219.228 Y-33.799 Z1.195
X-219.255 Y-33.796 Z1.194
X-219.281 Y-33.806 Z1.193
X-219.301 Y-33.825 Z1.192
X-219.31 Y-33.851 Z1.191
X-219.307 Y-33.879 Z1.19
X-219.292 Y-33.902 Z1.189
X-218.232 Y-34.963 Z1.136
X-218.209 Y-34.978 Z1.135
X-218.181 Y-34.981 Z1.134
X-218.155 Y-34.972 Z1.133
X-218.135 Y-34.952 Z1.132
X-218.126 Y-34.926 Z1.131
X-218.129 Y-34.898 Z1.13
X-218.144 Y-34.874 Z1.129
X-219.204 Y-33.814 Z1.077
X-219.228 Y-33.799 Z1.076
X-219.255 Y-33.796 Z1.075
X-219.281 Y-33.806 Z1.074
X-219.301 Y-33.825 Z1.073
X-219.31 Y-33.851 Z1.072
X-219.307 Y-33.879 Z1.071
X-219.292 Y-33.902 Z1.07
X-218.232 Y-34.963 Z1.018
X-218.209 Y-34.978 Z1.017
X-218.181 Y-34.981 Z1.016
X-218.155 Y-34.972 Z1.015
X-218.135 Y-34.952 Z1.014
X-218.126 Y-34.926 Z1.013
X-218.129 Y-34.898 Z1.012
X-218.144 Y-34.874 Z1.011
X-219.204 Y-33.814 Z0.959
X-219.228 Y-33.799 Z0.958
X-219.255 Y-33.796 Z0.957
X-219.281 Y-33.806 Z0.956
X-219.301 Y-33.825 Z0.955
X-219.31 Y-33.851 Z0.954
X-219.307 Y-33.879 Z0.953
X-219.292 Y-33.902 Z0.952
X-218.232 Y-34.963 Z0.899
X-218.209 Y-34.978 Z0.898
X-218.181 Y-34.981
X-218.155 Y-34.972 Z0.897
X-218.135 Y-34.952 Z0.896
X-218.126 Y-34.926 Z0.895
X-218.129 Y-34.898 Z0.894
X-218.144 Y-34.874 Z0.893
X-219.204 Y-33.814 Z0.84
X-219.228 Y-33.799 Z0.839
X-219.255 Y-33.796 Z0.838
X-219.281 Y-33.806 Z0.837
X-219.301 Y-33.825 Z0.836
X-219.31 Y-33.851 Z0.835
X-219.307 Y-33.879 Z0.834
X-219.292 Y-33.902 Z0.833
X-218.232 Y-34.963 Z0.781
X-218.209 Y-34.978 Z0.78
X-218.181 Y-34.981 Z0.779
X-218.155 Y-34.972 Z0.778
X-218.135 Y-34.952 Z0.777
X-218.126 Y-34.926 Z0.776
X-218.129 Y-34.898 Z0.775
X-218.144 Y-34.874 Z0.774
X-219.204 Y-33.814 Z0.722
X-219.228 Y-33.799 Z0.721
X-219.255 Y-33.796 Z0.72
X-219.281 Y-33.806 Z0.719
X-219.301 Y-33.825 Z0.718
X-219.31 Y-33.851 Z0.717
X-219.307 Y-33.879 Z0.716
X-219.292 Y-33.902 Z0.715
X-218.232 Y-34.963 Z0.663
X-218.209 Y-34.978 Z0.662
X-218.181 Y-34.981 Z0.661
X-218.155 Y-34.972 Z0.66
X-218.135 Y-34.952 Z0.659
X-218.126 Y-34.926 Z0.658
X-218.129 Y-34.898 Z0.657
X-218.144 Y-34.874 Z0.656
X-219.204 Y-33.814 Z0.603
X-219.228 Y-33.799 Z0.602
X-219.255 Y-33.796 Z0.601
X-219.281 Y-33.806 Z0.6
X-219.301 Y-33.825 Z0.599
X-219.31 Y-33.851 Z0.598
X-219.307 Y-33.879
X-219.292 Y-33.902 Z0.597
X-218.232 Y-34.963 Z0.544
X-218.209 Y-34.978 Z0.543
X-218.181 Y-34.981 Z0.542
X-218.155 Y-34.972 Z0.541
X-218.135 Y-34.952 Z0.54
X-218.126 Y-34.926 Z0.539
X-218.129 Y-34.898 Z0.538
X-218.144 Y-34.874 Z0.537
X-219.204 Y-33.814 Z0.485
X-219.228 Y-33.799 Z0.484
X-219.255 Y-33.796 Z0.483
X-219.281 Y-33.806 Z0.482
X-219.301 Y-33.825 Z0.481
X-219.31 Y-33.851 Z0.48
X-219.307 Y-33.879 Z0.479
X-219.292 Y-33.902 Z0.478
X-218.232 Y-34.963 Z0.426
X-218.209 Y-34.978 Z0.425
X-218.181 Y-34.981 Z0.424
X-218.155 Y-34.972 Z0.423
X-218.135 Y-34.952 Z0.422
X-218.126 Y-34.926 Z0.421
X-218.129 Y-34.898 Z0.42
X-218.144 Y-34.874 Z0.419
X-219.204 Y-33.814 Z0.366
X-219.228 Y-33.799
X-219.255 Y-33.796 Z0.365
X-219.281 Y-33.806 Z0.364
X-219.301 Y-33.825 Z0.363
X-219.31 Y-33.851 Z0.362
X-219.307 Y-33.879 Z0.361
X-219.292 Y-33.902 Z0.36
X-218.232 Y-34.963 Z0.307
X-218.209 Y-34.978 Z0.306
X-218.181 Y-34.981 Z0.305
X-218.155 Y-34.972 Z0.304
X-218.135 Y-34.952 Z0.303
X-218.126 Y-34.926 Z0.302
X-218.129 Y-34.898 Z0.301
X-218.144 Y-34.874 Z0.3
X-219.204 Y-33.814 Z0.248
X-219.228 Y-33.799 Z0.247
X-219.255 Y-33.796 Z0.246
X-219.281 Y-33.806 Z0.245
X-219.301 Y-33.825 Z0.244
X-219.31 Y-33.851 Z0.243
X-219.307 Y-33.879 Z0.242
X-219.292 Y-33.902 Z0.241
X-218.232 Y-34.963 Z0.189
X-218.209 Y-34.978 Z0.188
X-218.181 Y-34.981 Z0.187
X-218.155 Y-34.972 Z0.186
X-218.135 Y-34.952 Z0.185
X-218.126 Y-34.926 Z0.184
X-218.129 Y-34.898 Z0.183
X-218.144 Y-34.874 Z0.182
X-219.204 Y-33.814 Z0.13
X-219.228 Y-33.799 Z0.129
X-219.255 Y-33.796 Z0.128
X-219.281 Y-33.806 Z0.127
X-219.301 Y-33.825 Z0.126
X-219.31 Y-33.851 Z0.125
X-219.307 Y-33.879 Z0.124
X-219.292 Y-33.902 Z0.123
X-218.232 Y-34.963 Z0.07
X-218.209 Y-34.978 Z0.069
X-218.181 Y-34.981 Z0.068
X-218.155 Y-34.972 Z0.067
X-218.135 Y-34.952
X-218.126 Y-34.926 Z0.066
X-218.129 Y-34.898 Z0.065
X-218.144 Y-34.874 Z0.064
X-219.204 Y-33.814 Z0.011
X-219.228 Y-33.799 Z0.01
X-219.255 Y-33.796 Z0.009
X-219.281 Y-33.806 Z0.008
X-219.301 Y-33.825 Z0.007
X-219.31 Y-33.851 Z0.006
X-219.307 Y-33.879 Z0.005
X-219.292 Y-33.902 Z0.004
X-218.232 Y-34.963 Z-0.048
X-218.209 Y-34.978 Z-0.049
X-218.181 Y-34.981 Z-0.05
X-218.155 Y-34.972 Z-0.051
X-218.135 Y-34.952 Z-0.052
X-218.126 Y-34.926 Z-0.053
X-218.129 Y-34.898 Z-0.054
X-218.144 Y-34.874 Z-0.055
X-219.204 Y-33.814 Z-0.107
X-219.228 Y-33.799 Z-0.108
X-219.255 Y-33.796 Z-0.109
X-219.281 Y-33.806 Z-0.11
X-219.301 Y-33.825 Z-0.111
X-219.31 Y-33.851 Z-0.112
X-219.307 Y-33.879 Z-0.113
X-219.292 Y-33.902 Z-0.114
X-218.232 Y-34.963 Z-0.166
X-218.209 Y-34.978 Z-0.167
X-218.181 Y-34.981 Z-0.168
X-218.155 Y-34.972 Z-0.169
X-218.135 Y-34.952 Z-0.17
X-218.126 Y-34.926 Z-0.171
X-218.129 Y-34.898 Z-0.172
X-218.144 Y-34.874 Z-0.173
X-219.204 Y-33.814 Z-0.226
X-219.228 Y-33.799 Z-0.227
X-219.255 Y-33.796 Z-0.228
X-219.281 Y-33.806 Z-0.229
X-219.301 Y-33.825 Z-0.23
X-219.31 Y-33.851 Z-0.231
X-219.307 Y-33.879 Z-0.232
X-219.292 Y-33.902
X-218.232 Y-34.963 Z-0.285
X-218.209 Y-34.978 Z-0.286
X-218.181 Y-34.981 Z-0.287
X-218.155 Y-34.972 Z-0.288
X-218.135 Y-34.952 Z-0.289
X-218.126 Y-34.926 Z-0.29
X-218.129 Y-34.898 Z-0.291
X-218.144 Y-34.874 Z-0.292
X-219.204 Y-33.814 Z-0.344
X-219.228 Y-33.799 Z-0.345
X-219.255 Y-33.796 Z-0.346
X-219.281 Y-33.806 Z-0.347
X-219.301 Y-33.825 Z-0.348
X-219.31 Y-33.851 Z-0.349
X-219.307 Y-33.879 Z-0.35
X-219.292 Y-33.902 Z-0.351
X-218.232 Y-34.963 Z-0.403
X-218.209 Y-34.978 Z-0.404
X-218.181 Y-34.981 Z-0.405
X-218.155 Y-34.972 Z-0.406
X-218.135 Y-34.952 Z-0.407
X-218.126 Y-34.926 Z-0.408
X-218.129 Y-34.898 Z-0.409
X-218.144 Y-34.874 Z-0.41
X-219.204 Y-33.814 Z-0.463
X-219.228 Y-33.799 Z-0.464
X-219.255 Y-33.796
X-219.281 Y-33.806 Z-0.465
X-219.301 Y-33.825 Z-0.466
X-219.31 Y-33.851 Z-0.467
X-219.307 Y-33.879 Z-0.468
X-219.292 Y-33.902 Z-0.469
X-218.232 Y-34.963 Z-0.522
X-218.209 Y-34.978 Z-0.523
X-218.181 Y-34.981 Z-0.524
X-218.155 Y-34.972 Z-0.525
X-218.135 Y-34.952 Z-0.526
X-218.126 Y-34.926 Z-0.527
X-218.129 Y-34.898 Z-0.528
X-218.144 Y-34.874 Z-0.529
X-219.204 Y-33.814 Z-0.581
X-219.228 Y-33.799 Z-0.582
X-219.255 Y-33.796 Z-0.583
X-219.281 Y-33.806 Z-0.584
X-219.301 Y-33.825 Z-0.585
X-219.31 Y-33.851 Z-0.586
X-219.307 Y-33.879 Z-0.587
X-219.292 Y-33.902 Z-0.588
X-218.232 Y-34.963 Z-0.64
X-218.209 Y-34.978 Z-0.641
X-218.181 Y-34.981 Z-0.642
X-218.155 Y-34.972 Z-0.643
X-218.135 Y-34.952 Z-0.644
X-218.126 Y-34.926 Z-0.645
X-218.129 Y-34.898 Z-0.646
X-218.144 Y-34.874 Z-0.647
X-219.204 Y-33.814 Z-0.699
X-219.228 Y-33.799 Z-0.7
X-219.255 Y-33.796 Z-0.701
X-219.281 Y-33.806 Z-0.702
X-219.301 Y-33.825 Z-0.703
X-219.31 Y-33.851 Z-0.704
X-219.307 Y-33.879 Z-0.705
X-219.292 Y-33.902 Z-0.706
X-218.232 Y-34.963 Z-0.759
X-218.209 Y-34.978 Z-0.76
X-218.181 Y-34.981 Z-0.761
X-218.155 Y-34.972 Z-0.762
X-218.135 Y-34.952 Z-0.763
X-218.126 Y-34.926
X-218.129 Y-34.898 Z-0.764
X-218.144 Y-34.874 Z-0.765
X-219.204 Y-33.814 Z-0.818
X-219.228 Y-33.799 Z-0.819
X-219.255 Y-33.796 Z-0.82
X-219.281 Y-33.806 Z-0.821
X-219.301 Y-33.825 Z-0.822
X-219.31 Y-33.851 Z-0.823
X-219.307 Y-33.879 Z-0.824
X-219.292 Y-33.902 Z-0.825
X-218.232 Y-34.963 Z-0.877
X-218.209 Y-34.978 Z-0.878
X-218.181 Y-34.981 Z-0.879
X-218.155 Y-34.972 Z-0.88
X-218.135 Y-34.952 Z-0.881
X-218.126 Y-34.926 Z-0.882
X-218.129 Y-34.898 Z-0.883
X-218.144 Y-34.874 Z-0.884
X-219.204 Y-33.814 Z-0.936
X-219.228 Y-33.799 Z-0.937
X-219.255 Y-33.796 Z-0.938
X-219.281 Y-33.806 Z-0.939
X-219.301 Y-33.825 Z-0.94
X-219.31 Y-33.851 Z-0.941
X-219.307 Y-33.879 Z-0.942
X-219.292 Y-33.902 Z-0.943
X-218.232 Y-34.963 Z-0.995
X-218.209 Y-34.978 Z-0.996
X-218.181 Y-34.981 Z-0.997
X-218.155 Y-34.972 Z-0.998
X-218.135 Y-34.952 Z-0.999
X-218.126 Y-34.926 Z-1
X-218.129 Y-34.898 Z-1.001
X-218.144 Y-34.874 Z-1.002
X-219.204 Y-33.814 Z-1.055
X-219.228 Y-33.799 Z-1.056
X-219.255 Y-33.796 Z-1.057
X-219.281 Y-33.806 Z-1.058
X-219.301 Y-33.825 Z-1.059
X-219.31 Y-33.851 Z-1.06
X-219.307 Y-33.879 Z-1.061
X-219.292 Y-33.902 Z-1.062
X-218.232 Y-34.963 Z-1.114
X-218.209 Y-34.978 Z-1.115
X-218.181 Y-34.981 Z-1.116
X-218.155 Y-34.972 Z-1.117
X-218.135 Y-34.952 Z-1.118
X-218.126 Y-34.926 Z-1.119
X-218.129 Y-34.898 Z-1.12
X-218.144 Y-34.874 Z-1.121
X-219.204 Y-33.814 Z-1.173
X-219.228 Y-33.799 Z-1.174
X-219.255 Y-33.796 Z-1.175
X-219.281 Y-33.806 Z-1.176
X-219.301 Y-33.825 Z-1.177
X-219.31 Y-33.851 Z-1.178
X-219.307 Y-33.879 Z-1.179
X-219.292 Y-33.902 Z-1.18
X-218.232 Y-34.963 Z-1.232
X-218.209 Y-34.978 Z-1.233
X-218.181 Y-34.981 Z-1.234
X-218.155 Y-34.972 Z-1.235
X-218.135 Y-34.952 Z-1.236
X-218.126 Y-34.926 Z-1.237
X-218.129 Y-34.898 Z-1.238
X-218.144 Y-34.874 Z-1.239
X-219.204 Y-33.814 Z-1.292
X-219.228 Y-33.799 Z-1.293
X-219.255 Y-33.796 Z-1.294
X-219.281 Y-33.806
X-219.301 Y-33.825 Z-1.295
X-219.31 Y-33.851 Z-1.296
X-219.307 Y-33.879 Z-1.297
X-219.292 Y-33.902 Z-1.298
X-218.232 Y-34.963 Z-1.351
X-218.209 Y-34.978 Z-1.352
X-218.181 Y-34.981 Z-1.353
X-218.155 Y-34.972 Z-1.354
X-218.135 Y-34.952 Z-1.355
X-218.126 Y-34.926 Z-1.356
X-218.129 Y-34.898 Z-1.357
X-218.144 Y-34.874 Z-1.358
X-219.204 Y-33.814 Z-1.41
X-219.228 Y-33.799 Z-1.411
X-219.255 Y-33.796 Z-1.412
X-219.281 Y-33.806 Z-1.413
X-219.301 Y-33.825 Z-1.414
X-219.31 Y-33.851 Z-1.415
X-219.307 Y-33.879 Z-1.416
X-219.292 Y-33.902 Z-1.417
X-218.232 Y-34.963 Z-1.469
X-218.209 Y-34.978 Z-1.47
X-218.181 Y-34.981 Z-1.471
X-218.155 Y-34.972 Z-1.472
X-218.135 Y-34.952 Z-1.473
X-218.126 Y-34.926 Z-1.474
X-218.129 Y-34.898 Z-1.475
X-218.144 Y-34.874 Z-1.476
X-219.204 Y-33.814 Z-1.528
X-219.228 Y-33.799 Z-1.529
X-219.255 Y-33.796 Z-1.53
X-219.281 Y-33.806 Z-1.531
X-219.301 Y-33.825 Z-1.532
X-219.31 Y-33.851 Z-1.533
X-219.307 Y-33.879 Z-1.534
X-219.292 Y-33.902 Z-1.535
X-218.232 Y-34.963 Z-1.588
X-218.209 Y-34.978 Z-1.589
X-218.181 Y-34.981 Z-1.59
X-218.155 Y-34.972 Z-1.591
X-218.135 Y-34.952 Z-1.592
X-218.126 Y-34.926 Z-1.593
X-218.129 Y-34.898
X-218.144 Y-34.874 Z-1.594
X-219.204 Y-33.814 Z-1.647
X-219.228 Y-33.799 Z-1.648
X-219.255 Y-33.796 Z-1.649
X-219.281 Y-33.806 Z-1.65
X-219.301 Y-33.825 Z-1.651
X-219.31 Y-33.851 Z-1.652
X-219.307 Y-33.879 Z-1.653
X-219.292 Y-33.902 Z-1.654
X-218.232 Y-34.963 Z-1.706
X-218.209 Y-34.978 Z-1.707
X-218.181 Y-34.981 Z-1.708
X-218.155 Y-34.972 Z-1.709
X-218.135 Y-34.952 Z-1.71
X-218.126 Y-34.926 Z-1.711
X-218.129 Y-34.898 Z-1.712
X-218.144 Y-34.874 Z-1.713
X-219.204 Y-33.814 Z-1.765
X-219.228 Y-33.799 Z-1.766
X-219.255 Y-33.796 Z-1.767
X-219.281 Y-33.806 Z-1.768
X-219.301 Y-33.825 Z-1.769
X-219.31 Y-33.851 Z-1.77
X-219.307 Y-33.879 Z-1.771
X-219.292 Y-33.902 Z-1.772
X-218.232 Y-34.963 Z-1.824
X-218.209 Y-34.978 Z-1.825
X-218.181 Y-34.981 Z-1.826
X-218.155 Y-34.972 Z-1.827
X-218.135 Y-34.952 Z-1.828
X-218.126 Y-34.926 Z-1.829
X-218.129 Y-34.898 Z-1.83
X-218.144 Y-34.874 Z-1.831
X-219.204 Y-33.814 Z-1.884
X-219.228 Y-33.799 Z-1.885
X-219.255 Y-33.796 Z-1.886
X-219.281 Y-33.806 Z-1.887
X-219.301 Y-33.825 Z-1.888
X-219.31 Y-33.851 Z-1.889
X-219.307 Y-33.879 Z-1.89
X-219.292 Y-33.902 Z-1.891
X-218.232 Y-34.963 Z-1.943
X-218.209 Y-34.978 Z-1.944
X-218.181 Y-34.981 Z-1.945
X-218.155 Y-34.972 Z-1.946
X-218.135 Y-34.952 Z-1.947
X-218.126 Y-34.926 Z-1.948
X-218.129 Y-34.898 Z-1.949
X-218.144 Y-34.874 Z-1.95
X-219.204 Y-33.814 Z-2.002
X-219.228 Y-33.799 Z-2.003
X-219.255 Y-33.796 Z-2.004
X-219.281 Y-33.806 Z-2.005
X-219.301 Y-33.825 Z-2.006
X-219.31 Y-33.851 Z-2.007
X-219.307 Y-33.879 Z-2.008
X-219.292 Y-33.902 Z-2.009
X-218.232 Y-34.963 Z-2.061
X-218.209 Y-34.978 Z-2.062
X-218.181 Y-34.981 Z-2.063
X-218.155 Y-34.972 Z-2.064
X-218.135 Y-34.952 Z-2.065
X-218.126 Y-34.926 Z-2.066
X-218.129 Y-34.898 Z-2.067
X-218.144 Y-34.874 Z-2.068
X-219.204 Y-33.814 Z-2.121
X-219.228 Y-33.799 Z-2.122
X-219.255 Y-33.796 Z-2.123
X-219.281 Y-33.806 Z-2.124
X-219.301 Y-33.825
X-219.31 Y-33.851 Z-2.125
X-219.307 Y-33.879 Z-2.126
X-219.292 Y-33.902 Z-2.127
X-218.232 Y-34.963 Z-2.18
X-218.209 Y-34.978 Z-2.181
X-218.181 Y-34.981 Z-2.182
X-218.155 Y-34.972 Z-2.183
X-218.135 Y-34.952 Z-2.184
X-218.126 Y-34.926 Z-2.185
X-218.129 Y-34.898 Z-2.186
X-218.144 Y-34.874 Z-2.187
X-219.204 Y-33.814 Z-2.239
X-219.228 Y-33.799 Z-2.24
X-219.255 Y-33.796 Z-2.241
X-219.281 Y-33.806 Z-2.242
X-219.301 Y-33.825 Z-2.243
X-219.31 Y-33.851 Z-2.244
X-219.307 Y-33.879 Z-2.245
X-219.292 Y-33.902 Z-2.246
X-218.232 Y-34.963 Z-2.298
X-218.209 Y-34.978 Z-2.299
X-218.181 Y-34.981 Z-2.3
X-218.155 Y-34.972 Z-2.301
X-218.135 Y-34.952 Z-2.302
X-218.126 Y-34.926 Z-2.303
X-218.129 Y-34.898 Z-2.304
X-218.144 Y-34.874 Z-2.305
X-219.204 Y-33.814 Z-2.357
X-219.228 Y-33.799 Z-2.358
X-219.255 Y-33.796 Z-2.359
X-219.281 Y-33.806 Z-2.36
X-219.301 Y-33.825 Z-2.361
X-219.31 Y-33.851 Z-2.362
X-219.307 Y-33.879 Z-2.363
X-219.292 Y-33.902 Z-2.364
X-218.232 Y-34.963 Z-2.417
X-218.209 Y-34.978 Z-2.418
X-218.181 Y-34.981 Z-2.419
X-218.155 Y-34.972 Z-2.42
X-218.135 Y-34.952 Z-2.421
X-218.126 Y-34.926 Z-2.422
X-218.129 Y-34.898 Z-2.423
X-218.144 Y-34.874 Z-2.424
X-219.204 Y-33.814 Z-2.476
X-219.228 Y-33.799 Z-2.477
X-219.255 Y-33.796 Z-2.478
X-219.281 Y-33.806 Z-2.479
X-219.301 Y-33.825 Z-2.48
X-219.31 Y-33.851 Z-2.481
X-219.307 Y-33.879 Z-2.482
X-219.292 Y-33.902 Z-2.483
X-218.232 Y-34.963 Z-2.535
X-218.209 Y-34.978 Z-2.536
X-218.181 Y-34.981 Z-2.537
X-218.155 Y-34.972 Z-2.538
X-218.135 Y-34.952 Z-2.539
X-218.126 Y-34.926 Z-2.54
X-218.129 Y-34.898 Z-2.541
X-218.144 Y-34.874 Z-2.542
X-219.204 Y-33.814 Z-2.594
X-219.228 Y-33.799 Z-2.595
X-219.255 Y-33.796 Z-2.596
X-219.281 Y-33.806 Z-2.597
X-219.301 Y-33.825 Z-2.598
X-219.31 Y-33.851 Z-2.599
X-219.307 Y-33.879 Z-2.6
X-219.292 Y-33.902 Z-2.601
X-218.232 Y-34.963 Z-2.654
X-218.209 Y-34.978
X-218.181 Y-34.981 Z-2.655
X-218.155 Y-34.972 Z-2.656
X-218.135 Y-34.952 Z-2.657
X-218.126 Y-34.926 Z-2.658
X-218.129 Y-34.898 Z-2.659
X-218.144 Y-34.874 Z-2.66
X-219.204 Y-33.814 Z-2.713
X-219.228 Y-33.799 Z-2.714
X-219.255 Y-33.796 Z-2.715
X-219.281 Y-33.806 Z-2.716
X-219.301 Y-33.825 Z-2.717
X-219.31 Y-33.851 Z-2.718
X-219.307 Y-33.879 Z-2.719
X-219.292 Y-33.902 Z-2.72
X-218.232 Y-34.963 Z-2.772
X-218.209 Y-34.978 Z-2.773
X-218.181 Y-34.981 Z-2.774
X-218.155 Y-34.972 Z-2.775
X-218.135 Y-34.952 Z-2.776
X-218.126 Y-34.926 Z-2.777
X-218.129 Y-34.898 Z-2.778
X-218.144 Y-34.874 Z-2.779
X-219.204 Y-33.814 Z-2.831
X-219.228 Y-33.799 Z-2.832
X-219.255 Y-33.796 Z-2.833
X-219.281 Y-33.806 Z-2.834
X-219.301 Y-33.825 Z-2.835
X-219.31 Y-33.851 Z-2.836
X-219.307 Y-33.879 Z-2.837
X-219.292 Y-33.902 Z-2.838
X-218.232 Y-34.963 Z-2.89
X-218.209 Y-34.978 Z-2.891
X-218.181 Y-34.981 Z-2.892
X-218.155 Y-34.972 Z-2.893
X-218.135 Y-34.952 Z-2.894
X-218.126 Y-34.926 Z-2.895
X-218.129 Y-34.898 Z-2.896
X-218.144 Y-34.874 Z-2.897
X-219.204 Y-33.814 Z-2.95
X-219.228 Y-33.799 Z-2.951
X-219.255 Y-33.796 Z-2.952
X-219.281 Y-33.806 Z-2.953
X-219.301 Y-33.825 Z-2.954
X-219.31 Y-33.851
X-219.307 Y-33.879 Z-2.955
X-219.292 Y-33.902 Z-2.956
X-218.232 Y-34.963 Z-3.009
X-218.209 Y-34.978 Z-3.01
X-218.181 Y-34.981 Z-3.011
X-218.155 Y-34.972 Z-3.012
X-218.135 Y-34.952 Z-3.013
X-218.126 Y-34.926 Z-3.014
X-218.129 Y-34.898 Z-3.015
X-218.144 Y-34.874 Z-3.016
X-219.204 Y-33.814 Z-3.068
X-219.228 Y-33.799 Z-3.069
X-219.255 Y-33.796 Z-3.07
X-219.281 Y-33.806 Z-3.071
X-219.301 Y-33.825 Z-3.072
X-219.31 Y-33.851 Z-3.073
X-219.307 Y-33.879 Z-3.074
X-219.292 Y-33.902 Z-3.075
X-218.232 Y-34.963 Z-3.127
X-218.209 Y-34.978 Z-3.128
X-218.181 Y-34.981 Z-3.129
X-218.155 Y-34.972 Z-3.13
X-218.135 Y-34.952 Z-3.131
X-218.126 Y-34.926 Z-3.132
X-218.129 Y-34.898 Z-3.133
X-218.144 Y-34.874 Z-3.134
X-219.204 Y-33.814 Z-3.186
X-219.228 Y-33.799 Z-3.187
X-219.255 Y-33.796 Z-3.188
X-219.281 Y-33.806 Z-3.189
X-219.301 Y-33.825 Z-3.19
X-219.31 Y-33.851 Z-3.191
X-219.307 Y-33.879 Z-3.192
X-219.292 Y-33.902 Z-3.193
X-218.232 Y-34.963 Z-3.246
X-218.209 Y-34.978 Z-3.247
X-218.181 Y-34.981 Z-3.248
X-218.155 Y-34.972 Z-3.249
X-218.135 Y-34.952 Z-3.25
X-218.126 Y-34.926 Z-3.251
X-218.129 Y-34.898 Z-3.252
X-218.144 Y-34.874 Z-3.253
X-219.204 Y-33.814 Z-3.305
X-219.228 Y-33.799 Z-3.306
X-219.255 Y-33.796 Z-3.307
X-219.281 Y-33.806 Z-3.308
X-219.301 Y-33.825 Z-3.309
X-219.31 Y-33.851 Z-3.31
X-219.307 Y-33.879 Z-3.311
X-219.292 Y-33.902 Z-3.312
X-218.232 Y-34.963 Z-3.364
X-218.209 Y-34.978 Z-3.365
X-218.181 Y-34.981 Z-3.366
X-218.155 Y-34.972 Z-3.367
X-218.135 Y-34.952 Z-3.368
X-218.126 Y-34.926 Z-3.369
X-218.129 Y-34.898 Z-3.37
X-218.144 Y-34.874 Z-3.371
X-219.204 Y-33.814 Z-3.423
X-219.228 Y-33.799 Z-3.424
X-219.255 Y-33.796 Z-3.425
X-219.281 Y-33.806 Z-3.426
X-219.301 Y-33.825 Z-3.427
X-219.31 Y-33.851 Z-3.428
X-219.307 Y-33.879 Z-3.429
X-219.292 Y-33.902 Z-3.43
X-218.232 Y-34.963 Z-3.483
X-218.209 Y-34.978 Z-3.484
X-218.181 Y-34.981
X-218.155 Y-34.972 Z-3.485
X-218.135 Y-34.952 Z-3.486
X-218.126 Y-34.926 Z-3.487
X-218.129 Y-34.898 Z-3.488
X-218.144 Y-34.874 Z-3.489
X-219.204 Y-33.814 Z-3.542
X-219.228 Y-33.799 Z-3.543
X-219.255 Y-33.796 Z-3.544
X-219.281 Y-33.806 Z-3.545
X-219.301 Y-33.825 Z-3.546
X-219.31 Y-33.851 Z-3.547
X-219.307 Y-33.879 Z-3.548
X-219.292 Y-33.902 Z-3.549
X-218.232 Y-34.963 Z-3.601
X-218.209 Y-34.978 Z-3.602
X-218.181 Y-34.981 Z-3.603
X-218.155 Y-34.972 Z-3.604
X-218.135 Y-34.952 Z-3.605
X-218.126 Y-34.926 Z-3.606
X-218.129 Y-34.898 Z-3.607
X-218.144 Y-34.874 Z-3.608
X-219.204 Y-33.814 Z-3.66
X-219.228 Y-33.799 Z-3.661
X-219.255 Y-33.796 Z-3.662
X-219.281 Y-33.806 Z-3.663
X-219.301 Y-33.825 Z-3.664
X-219.31 Y-33.851 Z-3.665
X-219.307 Y-33.879 Z-3.666
X-219.292 Y-33.902 Z-3.667
X-218.232 Y-34.963 Z-3.719
X-218.209 Y-34.978 Z-3.72
X-218.181 Y-34.981 Z-3.721
X-218.155 Y-34.972 Z-3.722
X-218.135 Y-34.952 Z-3.723
X-218.126 Y-34.926 Z-3.724
X-218.129 Y-34.898 Z-3.725
X-218.144 Y-34.874 Z-3.726
X-219.204 Y-33.814 Z-3.779
X-219.228 Y-33.799 Z-3.78
X-219.255 Y-33.796 Z-3.781
X-219.281 Y-33.806 Z-3.782
X-219.301 Y-33.825 Z-3.783
X-219.31 Y-33.851 Z-3.784
X-219.307 Y-33.879
X-219.292 Y-33.902 Z-3.785
X-218.232 Y-34.963 Z-3.838
X-218.209 Y-34.978 Z-3.839
X-218.181 Y-34.981 Z-3.84
X-218.155 Y-34.972 Z-3.841
X-218.135 Y-34.952 Z-3.842
X-218.126 Y-34.926 Z-3.843
X-218.129 Y-34.898 Z-3.844
X-218.144 Y-34.874 Z-3.845
X-219.204 Y-33.814 Z-3.897
X-219.228 Y-33.799 Z-3.898
X-219.255 Y-33.796 Z-3.899
X-219.281 Y-33.806 Z-3.9
X-219.301 Y-33.825 Z-3.901
X-219.31 Y-33.851 Z-3.902
X-219.307 Y-33.879 Z-3.903
X-219.292 Y-33.902 Z-3.904
X-218.232 Y-34.963 Z-3.956
X-218.209 Y-34.978 Z-3.957
X-218.181 Y-34.981 Z-3.958
X-218.155 Y-34.972 Z-3.959
X-218.135 Y-34.952 Z-3.96
X-218.126 Y-34.926 Z-3.961
X-218.129 Y-34.898 Z-3.962
X-218.144 Y-34.874 Z-3.963
X-219.204 Y-33.814 Z-4.015
X-219.228 Y-33.799 Z-4.016
X-219.255 Y-33.796 Z-4.017
X-219.281 Y-33.806 Z-4.018
X-219.301 Y-33.825 Z-4.019
X-219.31 Y-33.851 Z-4.02
X-219.307 Y-33.879 Z-4.021
X-219.292 Y-33.902 Z-4.022
X-218.232 Y-34.963 Z-4.075
X-218.209 Y-34.978 Z-4.076
X-218.181 Y-34.981 Z-4.077
X-218.155 Y-34.972 Z-4.078
X-218.135 Y-34.952 Z-4.079
X-218.126 Y-34.926 Z-4.08
X-218.129 Y-34.898 Z-4.081
X-218.144 Y-34.874 Z-4.082
X-219.204 Y-33.814 Z-4.134
X-219.228 Y-33.799 Z-4.135
X-219.255 Y-33.796 Z-4.136
X-219.281 Y-33.806 Z-4.137
X-219.301 Y-33.825 Z-4.138
X-219.31 Y-33.851 Z-4.139
X-219.307 Y-33.879 Z-4.14
X-219.292 Y-33.902 Z-4.141
X-218.232 Y-34.963 Z-4.193
X-218.209 Y-34.978 Z-4.194
X-218.181 Y-34.981 Z-4.195
X-218.155 Y-34.972 Z-4.196
X-218.135 Y-34.952 Z-4.197
X-218.126 Y-34.926 Z-4.198
X-218.129 Y-34.898 Z-4.199
X-218.144 Y-34.874 Z-4.2
S6000
X-219.204 Y-33.814 F1000
X-219.228 Y-33.799
X-219.255 Y-33.796
X-219.281 Y-33.806
X-219.301 Y-33.825
X-219.31 Y-33.851
X-219.307 Y-33.879
X-219.292 Y-33.902
X-218.232 Y-34.963
X-218.209 Y-34.978
X-218.181 Y-34.981
X-218.155 Y-34.972
X-218.135 Y-34.952
X-218.126 Y-34.926
X-218.129 Y-34.898
X-218.144 Y-34.874
Z5
X-230.579 Y-33.963
Z2.5 F333.3
S5000
X-230.518 Y-33.902 Z2.497
X-230.503 Y-33.878 Z2.496
X-230.5 Y-33.851 Z2.495
X-230.509 Y-33.824 Z2.494
X-230.529 Y-33.805 Z2.493
X-230.555 Y-33.796 Z2.492
X-230.583 Y-33.799 Z2.491
X-230.606 Y-33.814 Z2.49
X-231.667 Y-34.874 Z2.438
X-231.682 Y-34.898 Z2.437
X-231.685 Y-34.926 Z2.436
X-231.676 Y-34.952 Z2.435
X-231.656 Y-34.972 Z2.434
X-231.63 Y-34.981 Z2.433
X-231.602 Y-34.978 Z2.432
X-231.579 Y-34.963 Z2.431
X-230.518 Y-33.902 Z2.378
X-230.503 Y-33.878 Z2.377
X-230.5 Y-33.851 Z2.376
X-230.509 Y-33.824
X-230.529 Y-33.805 Z2.375
X-230.555 Y-33.796 Z2.374
X-230.583 Y-33.799 Z2.373
X-230.606 Y-33.814 Z2.372
X-231.667 Y-34.874 Z2.319
X-231.682 Y-34.898 Z2.318
X-231.685 Y-34.926 Z2.317
X-231.676 Y-34.952 Z2.316
X-231.656 Y-34.972 Z2.315
X-231.63 Y-34.981 Z2.314
X-231.602 Y-34.978 Z2.313
X-231.579 Y-34.963 Z2.312
X-230.518 Y-33.902 Z2.26
X-230.503 Y-33.878 Z2.259
X-230.5 Y-33.851 Z2.258
X-230.509 Y-33.824 Z2.257
X-230.529 Y-33.805 Z2.256
X-230.555 Y-33.796 Z2.255
X-230.583 Y-33.799 Z2.254
X-230.606 Y-33.814 Z2.253
X-231.667 Y-34.874 Z2.201
X-231.682 Y-34.898 Z2.2
X-231.685 Y-34.926 Z2.199
X-231.676 Y-34.952 Z2.198
X-231.656 Y-34.972 Z2.197
X-231.63 Y-34.981 Z2.196
X-231.602 Y-34.978 Z2.195
X-231.579 Y-34.963 Z2.194
X-230.518 Y-33.902 Z2.141
X-230.503 Y-33.878 Z2.14
X-230.5 Y-33.851 Z2.139
X-230.509 Y-33.824 Z2.138
X-230.529 Y-33.805 Z2.137
X-230.555 Y-33.796 Z2.136
X-230.583 Y-33.799 Z2.135
X-230.606 Y-33.814
X-231.667 Y-34.874 Z2.082
X-231.682 Y-34.898 Z2.081
X-231.685 Y-34.926 Z2.08
X-231.676 Y-34.952 Z2.079
X-231.656 Y-34.972 Z2.078
X-231.63 Y-34.981 Z2.077
X-231.602 Y-34.978 Z2.076
X-231.579 Y-34.963 Z2.075
X-230.518 Y-33.902 Z2.023
X-230.503 Y-33.878 Z2.022
X-230.5 Y-33.851 Z2.021
X-230.509 Y-33.824 Z2.02
X-230.529 Y-33.805 Z2.019
X-230.555 Y-33.796 Z2.018
X-230.583 Y-33.799 Z2.017
X-230.606 Y-33.814 Z2.016
X-231.667 Y-34.874 Z1.964
X-231.682 Y-34.898 Z1.963
X-231.685 Y-34.926 Z1.962
X-231.676 Y-34.952 Z1.961
X-231.656 Y-34.972 Z1.96
X-231.63 Y-34.981 Z1.959
X-231.602 Y-34.978 Z1.958
X-231.579 Y-34.963 Z1.957
X-230.518 Y-33.902 Z1.904
X-230.503 Y-33.878 Z1.903
X-230.5 Y-33.851 Z1.902
X-230.509 Y-33.824 Z1.901
X-230.529 Y-33.805 Z1.9
X-230.555 Y-33.796 Z1.899
X-230.583 Y-33.799 Z1.898
X-230.606 Y-33.814 Z1.897
X-231.667 Y-34.874 Z1.845
X-231.682 Y-34.898 Z1.844
X-231.685 Y-34.926 Z1.843
X-231.676 Y-34.952 Z1.842
X-231.656 Y-34.972 Z1.841
X-231.63 Y-34.981 Z1.84
X-231.602 Y-34.978 Z1.839
X-231.579 Y-34.963 Z1.838
X-230.518 Y-33.902 Z1.786
X-230.503 Y-33.878 Z1.785
X-230.5 Y-33.851 Z1.784
X-230.509 Y-33.824 Z1.783
X-230.529 Y-33.805 Z1.782
X-230.555 Y-33.796 Z1.781
X-230.583 Y-33.799 Z1.78
X-230.606 Y-33.814 Z1.779
X-231.667 Y-34.874 Z1.727
X-231.682 Y-34.898 Z1.726
X-231.685 Y-34.926 Z1.725
X-231.676 Y-34.952 Z1.724
X-231.656 Y-34.972 Z1.723
X-231.63 Y-34.981 Z1.722
X-231.602 Y-34.978 Z1.721
X-231.579 Y-34.963 Z1.72
X-230.518 Y-33.902 Z1.667
X-230.503 Y-33.878 Z1.666
X-230.5 Y-33.851 Z1.665
X-230.509 Y-33.824 Z1.664
X-230.529 Y-33.805 Z1.663
X-230.555 Y-33.796 Z1.662
X-230.583 Y-33.799 Z1.661
X-230.606 Y-33.814 Z1.66
X-231.667 Y-34.874 Z1.608
X-231.682 Y-34.898 Z1.607
X-231.685 Y-34.926 Z1.606
X-231.676 Y-34.952 Z1.605
X-231.656 Y-34.972 Z1.604
X-231.63 Y-34.981 Z1.603
X-231.602 Y-34.978 Z1.602
X-231.579 Y-34.963 Z1.601
X-230.518 Y-33.902 Z1.549
X-230.503 Y-33.878 Z1.548
X-230.5 Y-33.851 Z1.547
X-230.509 Y-33.824 Z1.546
X-230.529 Y-33.805 Z1.545
X-230.555 Y-33.796 Z1.544
X-230.583 Y-33.799 Z1.543
X-230.606 Y-33.814 Z1.542
X-231.667 Y-34.874 Z1.489
X-231.682 Y-34.898 Z1.488
X-231.685 Y-34.926
X-231.676 Y-34.952 Z1.487
X-231.656 Y-34.972 Z1.486
X-231.63 Y-34.981 Z1.485
X-231.602 Y-34.978 Z1.484
X-231.579 Y-34.963 Z1.483
X-230.518 Y-33.902 Z1.43
X-230.503 Y-33.878 Z1.429
X-230.5 Y-33.851 Z1.428
X-230.509 Y-33.824 Z1.427
X-230.529 Y-33.805 Z1.426
X-230.555 Y-33.796 Z1.425
X-230.583 Y-33.799 Z1.424
X-230.606 Y-33.814 Z1.423
X-231.667 Y-34.874 Z1.371
X-231.682 Y-34.898 Z1.37
X-231.685 Y-34.926 Z1.369
X-231.676 Y-34.952 Z1.368
X-231.656 Y-34.972 Z1.367
X-231.63 Y-34.981 Z1.366
X-231.602 Y-34.978 Z1.365
X-231.579 Y-34.963 Z1.364
X-230.518 Y-33.902 Z1.312
X-230.503 Y-33.878 Z1.311
X-230.5 Y-33.851 Z1.31
X-230.509 Y-33.824 Z1.309
X-230.529 Y-33.805 Z1.308
X-230.555 Y-33.796 Z1.307
X-230.583 Y-33.799 Z1.306
X-230.606 Y-33.814 Z1.305
X-231.667 Y-34.874 Z1.252
X-231.682 Y-34.898 Z1.251
X-231.685 Y-34.926 Z1.25
X-231.676 Y-34.952 Z1.249
X-231.656 Y-34.972 Z1.248
X-231.63 Y-34.981 Z1.247
X-231.602 Y-34.978
X-231.579 Y-34.963 Z1.246
X-230.518 Y-33.902 Z1.193
X-230.503 Y-33.878 Z1.192
X-230.5 Y-33.851 Z1.191
X-230.509 Y-33.824 Z1.19
X-230.529 Y-33.805 Z1.189
X-230.555 Y-33.796 Z1.188
X-230.583 Y-33.799 Z1.187
X-230.606 Y-33.814 Z1.186
X-231.667 Y-34.874 Z1.134
X-231.682 Y-34.898 Z1.133
X-231.685 Y-34.926 Z1.132
X-231.676 Y-34.952 Z1.131
X-231.656 Y-34.972 Z1.13
X-231.63 Y-34.981 Z1.129
X-231.602 Y-34.978 Z1.128
X-231.579 Y-34.963 Z1.127
X-230.518 Y-33.902 Z1.075
X-230.503 Y-33.878 Z1.074
X-230.5 Y-33.851 Z1.073
X-230.509 Y-33.824 Z1.072
X-230.529 Y-33.805 Z1.071
X-230.555 Y-33.796 Z1.07
X-230.583 Y-33.799 Z1.069
X-230.606 Y-33.814 Z1.068
X-231.667 Y-34.874 Z1.015
X-231.682 Y-34.898 Z1.014
X-231.685 Y-34.926 Z1.013
X-231.676 Y-34.952 Z1.012
X-231.656 Y-34.972 Z1.011
X-231.63 Y-34.981 Z1.01
X-231.602 Y-34.978 Z1.009
X-231.579 Y-34.963 Z1.008
X-230.518 Y-33.902 Z0.956
X-230.503 Y-33.878 Z0.955
X-230.5 Y-33.851 Z0.954
X-230.509 Y-33.824 Z0.953
X-230.529 Y-33.805 Z0.952
X-230.555 Y-33.796 Z0.951
X-230.583 Y-33.799 Z0.95
X-230.606 Y-33.814 Z0.949
X-231.667 Y-34.874 Z0.897
X-231.682 Y-34.898 Z0.896
X-231.685 Y-34.926 Z0.895
X-231.676 Y-34.952 Z0.894
X-231.656 Y-34.972 Z0.893
X-231.63 Y-34.981 Z0.892
X-231.602 Y-34.978 Z0.891
X-231.579 Y-34.963 Z0.89
X-230.518 Y-33.902 Z0.838
X-230.503 Y-33.878 Z0.837
X-230.5 Y-33.851 Z0.836
X-230.509 Y-33.824 Z0.835
X-230.529 Y-33.805 Z0.834
X-230.555 Y-33.796 Z0.833
X-230.583 Y-33.799 Z0.832
X-230.606 Y-33.814 Z0.831
X-231.667 Y-34.874 Z0.778
X-231.682 Y-34.898 Z0.777
X-231.685 Y-34.926 Z0.776
X-231.676 Y-34.952 Z0.775
X-231.656 Y-34.972 Z0.774
X-231.63 Y-34.981 Z0.773
X-231.602 Y-34.978 Z0.772
X-231.579 Y-34.963 Z0.771
X-230.518 Y-33.902 Z0.719
X-230.503 Y-33.878 Z0.718
X-230.5 Y-33.851 Z0.717
X-230.509 Y-33.824 Z0.716
X-230.529 Y-33.805 Z0.715
X-230.555 Y-33.796 Z0.714
X-230.583 Y-33.799 Z0.713
X-230.606 Y-33.814 Z0.712
X-231.667 Y-34.874 Z0.66
X-231.682 Y-34.898 Z0.659
X-231.685 Y-34.926 Z0.658
X-231.676 Y-34.952 Z0.657
X-231.656 Y-34.972 Z0.656
X-231.63 Y-34.981 Z0.655
X-231.602 Y-34.978 Z0.654
X-231.579 Y-34.963 Z0.653
X-230.518 Y-33.902 Z0.6
X-230.503 Y-33.878
X-230.5 Y-33.851 Z0.599
X-230.509 Y-33.824 Z0.598
X-230.529 Y-33.805 Z0.597
X-230.555 Y-33.796 Z0.596
X-230.583 Y-33.799 Z0.595
X-230.606 Y-33.814 Z0.594
X-231.667 Y-34.874 Z0.541
X-231.682 Y-34.898 Z0.54
X-231.685 Y-34.926 Z0.539
X-231.676 Y-34.952 Z0.538
X-231.656 Y-34.972 Z0.537
X-231.63 Y-34.981 Z0.536
X-231.602 Y-34.978 Z0.535
X-231.579 Y-34.963 Z0.534
X-230.518 Y-33.902 Z0.482
X-230.503 Y-33.878 Z0.481
X-230.5 Y-33.851 Z0.48
X-230.509 Y-33.824 Z0.479
X-230.529 Y-33.805 Z0.478
X-230.555 Y-33.796 Z0.477
X-230.583 Y-33.799 Z0.476
X-230.606 Y-33.814 Z0.475
X-231.667 Y-34.874 Z0.423
X-231.682 Y-34.898 Z0.422
X-231.685 Y-34.926 Z0.421
X-231.676 Y-34.952 Z0.42
X-231.656 Y-34.972 Z0.419
X-231.63 Y-34.981 Z0.418
X-231.602 Y-34.978 Z0.417
X-231.579 Y-34.963 Z0.416
X-230.518 Y-33.902 Z0.363
X-230.503 Y-33.878 Z0.362
X-230.5 Y-33.851 Z0.361
X-230.509 Y-33.824 Z0.36
X-230.529 Y-33.805 Z0.359
X-230.555 Y-33.796
X-230.583 Y-33.799 Z0.358
X-230.606 Y-33.814 Z0.357
X-231.667 Y-34.874 Z0.304
X-231.682 Y-34.898 Z0.303
X-231.685 Y-34.926 Z0.302
X-231.676 Y-34.952 Z0.301
X-231.656 Y-34.972 Z0.3
X-231.63 Y-34.981 Z0.299
X-231.602 Y-34.978 Z0.298
X-231.579 Y-34.963 Z0.297
X-230.518 Y-33.902 Z0.245
X-230.503 Y-33.878 Z0.244
X-230.5 Y-33.851 Z0.243
X-230.509 Y-33.824 Z0.242
X-230.529 Y-33.805 Z0.241
X-230.555 Y-33.796 Z0.24
X-230.583 Y-33.799 Z0.239
X-230.606 Y-33.814 Z0.238
X-231.667 Y-34.874 Z0.186
X-231.682 Y-34.898 Z0.185
X-231.685 Y-34.926 Z0.184
X-231.676 Y-34.952 Z0.183
X-231.656 Y-34.972 Z0.182
X-231.63 Y-34.981 Z0.181
X-231.602 Y-34.978 Z0.18
X-231.579 Y-34.963 Z0.179
X-230.518 Y-33.902 Z0.126
X-230.503 Y-33.878 Z0.125
X-230.5 Y-33.851 Z0.124
X-230.509 Y-33.824 Z0.123
X-230.529 Y-33.805 Z0.122
X-230.555 Y-33.796 Z0.121
X-230.583 Y-33.799 Z0.12
X-230.606 Y-33.814 Z0.119
X-231.667 Y-34.874 Z0.067
X-231.682 Y-34.898 Z0.066
X-231.685 Y-34.926 Z0.065
X-231.676 Y-34.952 Z0.064
X-231.656 Y-34.972 Z0.063
X-231.63 Y-34.981 Z0.062
X-231.602 Y-34.978 Z0.061
X-231.579 Y-34.963 Z0.06
X-230.518 Y-33.902 Z0.008
X-230.503 Y-33.878 Z0.007
X-230.5 Y-33.851 Z0.006
X-230.509 Y-33.824 Z0.005
X-230.529 Y-33.805 Z0.004
X-230.555 Y-33.796 Z0.003
X-230.583 Y-33.799 Z0.002
X-230.606 Y-33.814 Z0.001
X-231.667 Y-34.874 Z-0.051
X-231.682 Y-34.898 Z-0.052
X-231.685 Y-34.926 Z-0.053
X-231.676 Y-34.952 Z-0.054
X-231.656 Y-34.972 Z-0.055
X-231.63 Y-34.981 Z-0.056
X-231.602 Y-34.978 Z-0.057
X-231.579 Y-34.963 Z-0.058
X-230.518 Y-33.902 Z-0.111
X-230.503 Y-33.878 Z-0.112
X-230.5 Y-33.851 Z-0.113
X-230.509 Y-33.824 Z-0.114
X-230.529 Y-33.805 Z-0.115
X-230.555 Y-33.796 Z-0.116
X-230.583 Y-33.799 Z-0.117
X-230.606 Y-33.814 Z-0.118
X-231.667 Y-34.874 Z-0.17
X-231.682 Y-34.898 Z-0.171
X-231.685 Y-34.926 Z-0.172
X-231.676 Y-34.952 Z-0.173
X-231.656 Y-34.972 Z-0.174
X-231.63 Y-34.981 Z-0.175
X-231.602 Y-34.978 Z-0.176
X-231.579 Y-34.963 Z-0.177
X-230.518 Y-33.902 Z-0.229
X-230.503 Y-33.878 Z-0.23
X-230.5 Y-33.851 Z-0.231
X-230.509 Y-33.824 Z-0.232
X-230.529 Y-33.805 Z-0.233
X-230.555 Y-33.796 Z-0.234
X-230.583 Y-33.799 Z-0.235
X-230.606 Y-33.814 Z-0.236
X-231.667 Y-34.874 Z-0.288
X-231.682 Y-34.898 Z-0.289
X-231.685 Y-34.926 Z-0.29
X-231.676 Y-34.952 Z-0.291
X-231.656 Y-34.972 Z-0.292
X-231.63 Y-34.981 Z-0.293
X-231.602 Y-34.978 Z-0.294
X-231.579 Y-34.963 Z-0.295
X-230.518 Y-33.902 Z-0.348
X-230.503 Y-33.878 Z-0.349
X-230.5 Y-33.851 Z-0.35
X-230.509 Y-33.824 Z-0.351
X-230.529 Y-33.805 Z-0.352
X-230.555 Y-33.796 Z-0.353
X-230.583 Y-33.799 Z-0.354
X-230.606 Y-33.814 Z-0.355
X-231.667 Y-34.874 Z-0.407
X-231.682 Y-34.898 Z-0.408
X-231.685 Y-34.926 Z-0.409
X-231.676 Y-34.952 Z-0.41
X-231.656 Y-34.972 Z-0.411
X-231.63 Y-34.981 Z-0.412
X-231.602 Y-34.978 Z-0.413
X-231.579 Y-34.963 Z-0.414
X-230.518 Y-33.902 Z-0.466
X-230.503 Y-33.878 Z-0.467
X-230.5 Y-33.851 Z-0.468
X-230.509 Y-33.824 Z-0.469
X-230.529 Y-33.805 Z-0.47
X-230.555 Y-33.796 Z-0.471
X-230.583 Y-33.799 Z-0.472
X-230.606 Y-33.814 Z-0.473
X-231.667 Y-34.874 Z-0.526
X-231.682 Y-34.898 Z-0.527
X-231.685 Y-34.926 Z-0.528
X-231.676 Y-34.952 Z-0.529
X-231.656 Y-34.972
X-231.63 Y-34.981 Z-0.53
X-231.602 Y-34.978 Z-0.531
X-231.579 Y-34.963 Z-0.532
X-230.518 Y-33.902 Z-0.585
X-230.503 Y-33.878 Z-0.586
X-230.5 Y-33.851 Z-0.587
X-230.509 Y-33.824 Z-0.588
X-230.529 Y-33.805 Z-0.589
X-230.555 Y-33.796 Z-0.59
X-230.583 Y-33.799 Z-0.591
X-230.606 Y-33.814 Z-0.592
X-231.667 Y-34.874 Z-0.644
X-231.682 Y-34.898 Z-0.645
X-231.685 Y-34.926 Z-0.646
X-231.676 Y-34.952 Z-0.647
X-231.656 Y-34.972 Z-0.648
X-231.63 Y-34.981 Z-0.649
X-231.602 Y-34.978 Z-0.65
X-231.579 Y-34.963 Z-0.651
X-230.518 Y-33.902 Z-0.703
X-230.503 Y-33.878 Z-0.704
X-230.5 Y-33.851 Z-0.705
X-230.509 Y-33.824 Z-0.706
X-230.529 Y-33.805 Z-0.707
X-230.555 Y-33.796 Z-0.708
X-230.583 Y-33.799 Z-0.709
X-230.606 Y-33.814 Z-0.71
X-231.667 Y-34.874 Z-0.763
X-231.682 Y-34.898 Z-0.764
X-231.685 Y-34.926 Z-0.765
X-231.676 Y-34.952 Z-0.766
X-231.656 Y-34.972 Z-0.767
X-231.63 Y-34.981 Z-0.768
X-231.602 Y-34.978 Z-0.769
X-231.579 Y-34.963
X-230.518 Y-33.902 Z-0.822
X-230.503 Y-33.878 Z-0.823
X-230.5 Y-33.851 Z-0.824
X-230.509 Y-33.824 Z-0.825
X-230.529 Y-33.805 Z-0.826
X-230.555 Y-33.796 Z-0.827
X-230.583 Y-33.799 Z-0.828
X-230.606 Y-33.814 Z-0.829
X-231.667 Y-34.874 Z-0.881
X-231.682 Y-34.898 Z-0.882
X-231.685 Y-34.926 Z-0.883
X-231.676 Y-34.952 Z-0.884
X-231.656 Y-34.972 Z-0.885
X-231.63 Y-34.981 Z-0.886
X-231.602 Y-34.978 Z-0.887
X-231.579 Y-34.963 Z-0.888
X-230.518 Y-33.902 Z-0.94
X-230.503 Y-33.878 Z-0.941
X-230.5 Y-33.851 Z-0.942
X-230.509 Y-33.824 Z-0.943
X-230.529 Y-33.805 Z-0.944
X-230.555 Y-33.796 Z-0.945
X-230.583 Y-33.799 Z-0.946
X-230.606 Y-33.814 Z-0.947
X-231.667 Y-34.874 Z-1
X-231.682 Y-34.898 Z-1.001
X-231.685 Y-34.926 Z-1.002
X-231.676 Y-34.952 Z-1.003
X-231.656 Y-34.972 Z-1.004
X-231.63 Y-34.981 Z-1.005
X-231.602 Y-34.978 Z-1.006
X-231.579 Y-34.963 Z-1.007
X-230.518 Y-33.902 Z-1.059
X-230.503 Y-33.878 Z-1.06
X-230.5 Y-33.851 Z-1.061
X-230.509 Y-33.824 Z-1.062
X-230.529 Y-33.805 Z-1.063
X-230.555 Y-33.796 Z-1.064
X-230.583 Y-33.799 Z-1.065
X-230.606 Y-33.814 Z-1.066
X-231.667 Y-34.874 Z-1.118
X-231.682 Y-34.898 Z-1.119
X-231.685 Y-34.926 Z-1.12
X-231.676 Y-34.952 Z-1.121
X-231.656 Y-34.972 Z-1.122
X-231.63 Y-34.981 Z-1.123
X-231.602 Y-34.978 Z-1.124
X-231.579 Y-34.963 Z-1.125
X-230.518 Y-33.902 Z-1.177
X-230.503 Y-33.878 Z-1.178
X-230.5 Y-33.851 Z-1.179
X-230.509 Y-33.824 Z-1.18
X-230.529 Y-33.805 Z-1.181
X-230.555 Y-33.796 Z-1.182
X-230.583 Y-33.799 Z-1.183
X-230.606 Y-33.814 Z-1.184
X-231.667 Y-34.874 Z-1.237
X-231.682 Y-34.898 Z-1.238
X-231.685 Y-34.926 Z-1.239
X-231.676 Y-34.952 Z-1.24
X-231.656 Y-34.972 Z-1.241
X-231.63 Y-34.981 Z-1.242
X-231.602 Y-34.978 Z-1.243
X-231.579 Y-34.963 Z-1.244
X-230.518 Y-33.902 Z-1.296
X-230.503 Y-33.878 Z-1.297
X-230.5 Y-33.851 Z-1.298
X-230.509 Y-33.824 Z-1.299
X-230.529 Y-33.805 Z-1.3
X-230.555 Y-33.796 Z-1.301
X-230.583 Y-33.799 Z-1.302
X-230.606 Y-33.814 Z-1.303
X-231.667 Y-34.874 Z-1.355
X-231.682 Y-34.898 Z-1.356
X-231.685 Y-34.926 Z-1.357
X-231.676 Y-34.952 Z-1.358
X-231.656 Y-34.972 Z-1.359
X-231.63 Y-34.981 Z-1.36
X-231.602 Y-34.978 Z-1.361
X-231.579 Y-34.963 Z-1.362
X-230.518 Y-33.902 Z-1.415
X-230.503 Y-33.878 Z-1.416
X-230.5 Y-33.851
X-230.509 Y-33.824 Z-1.417
X-230.529 Y-33.805 Z-1.418
X-230.555 Y-33.796 Z-1.419
X-230.583 Y-33.799 Z-1.42
X-230.606 Y-33.814 Z-1.421
X-231.667 Y-34.874 Z-1.474
X-231.682 Y-34.898 Z-1.475
X-231.685 Y-34.926 Z-1.476
X-231.676 Y-34.952 Z-1.477
X-231.656 Y-34.972 Z-1.478
X-231.63 Y-34.981 Z-1.479
X-231.602 Y-34.978 Z-1.48
X-231.579 Y-34.963 Z-1.481
X-230.518 Y-33.902 Z-1.533
X-230.503 Y-33.878 Z-1.534
X-230.5 Y-33.851 Z-1.535
X-230.509 Y-33.824 Z-1.536
X-230.529 Y-33.805 Z-1.537
X-230.555 Y-33.796 Z-1.538
X-230.583 Y-33.799 Z-1.539
X-230.606 Y-33.814 Z-1.54
X-231.667 Y-34.874 Z-1.592
X-231.682 Y-34.898 Z-1.593
X-231.685 Y-34.926 Z-1.594
X-231.676 Y-34.952 Z-1.595
X-231.656 Y-34.972 Z-1.596
X-231.63 Y-34.981 Z-1.597
X-231.602 Y-34.978 Z-1.598
X-231.579 Y-34.963 Z-1.599
X-230.518 Y-33.902 Z-1.652
X-230.503 Y-33.878 Z-1.653
X-230.5 Y-33.851 Z-1.654
X-230.509 Y-33.824 Z-1.655
X-230.529 Y-33.805 Z-1.656
X-230.555 Y-33.796 Z-1.657
X-230.583 Y-33.799
X-230.606 Y-33.814 Z-1.658
X-231.667 Y-34.874 Z-1.711
X-231.682 Y-34.898 Z-1.712
X-231.685 Y-34.926 Z-1.713
X-231.676 Y-34.952 Z-1.714
X-231.656 Y-34.972 Z-1.715
X-231.63 Y-34.981 Z-1.716
X-231.602 Y-34.978 Z-1.717
X-231.579 Y-34.963 Z-1.718
X-230.518 Y-33.902 Z-1.77
X-230.503 Y-33.878 Z-1.771
X-230.5 Y-33.851 Z-1.772
X-230.509 Y-33.824 Z-1.773
X-230.529 Y-33.805 Z-1.774
X-230.555 Y-33.796 Z-1.775
X-230.583 Y-33.799 Z-1.776
X-230.606 Y-33.814 Z-1.777
X-231.667 Y-34.874 Z-1.829
X-231.682 Y-34.898 Z-1.83
X-231.685 Y-34.926 Z-1.831
X-231.676 Y-34.952 Z-1.832
X-231.656 Y-34.972 Z-1.833
X-231.63 Y-34.981 Z-1.834
X-231.602 Y-34.978 Z-1.835
X-231.579 Y-34.963 Z-1.836
X-230.518 Y-33.902 Z-1.889
X-230.503 Y-33.878 Z-1.89
X-230.5 Y-33.851 Z-1.891
X-230.509 Y-33.824 Z-1.892
X-230.529 Y-33.805 Z-1.893
X-230.555 Y-33.796 Z-1.894
X-230.583 Y-33.799 Z-1.895
X-230.606 Y-33.814 Z-1.896
X-231.667 Y-34.874 Z-1.948
X-231.682 Y-34.898 Z-1.949
X-231.685 Y-34.926 Z-1.95
X-231.676 Y-34.952 Z-1.951
X-231.656 Y-34.972 Z-1.952
X-231.63 Y-34.981 Z-1.953
X-231.602 Y-34.978 Z-1.954
X-231.579 Y-34.963 Z-1.955
X-230.518 Y-33.902 Z-2.007
X-230.503 Y-33.878 Z-2.008
X-230.5 Y-33.851 Z-2.009
X-230.509 Y-33.824 Z-2.01
X-230.529 Y-33.805 Z-2.011
X-230.555 Y-33.796 Z-2.012
X-230.583 Y-33.799 Z-2.013
X-230.606 Y-33.814 Z-2.014
X-231.667 Y-34.874 Z-2.066
X-231.682 Y-34.898 Z-2.067
X-231.685 Y-34.926 Z-2.068
X-231.676 Y-34.952 Z-2.069
X-231.656 Y-34.972 Z-2.07
X-231.63 Y-34.981 Z-2.071
X-231.602 Y-34.978 Z-2.072
X-231.579 Y-34.963 Z-2.073
X-230.518 Y-33.902 Z-2.126
X-230.503 Y-33.878 Z-2.127
X-230.5 Y-33.851 Z-2.128
X-230.509 Y-33.824 Z-2.129
X-230.529 Y-33.805 Z-2.13
X-230.555 Y-33.796 Z-2.131
X-230.583 Y-33.799 Z-2.132
X-230.606 Y-33.814 Z-2.133
X-231.667 Y-34.874 Z-2.185
X-231.682 Y-34.898 Z-2.186
X-231.685 Y-34.926 Z-2.187
X-231.676 Y-34.952 Z-2.188
X-231.656 Y-34.972 Z-2.189
X-231.63 Y-34.981 Z-2.19
X-231.602 Y-34.978 Z-2.191
X-231.579 Y-34.963 Z-2.192
X-230.518 Y-33.902 Z-2.244
X-230.503 Y-33.878 Z-2.245
X-230.5 Y-33.851 Z-2.246
X-230.509 Y-33.824 Z-2.247
X-230.529 Y-33.805 Z-2.248
X-230.555 Y-33.796 Z-2.249
X-230.583 Y-33.799 Z-2.25
X-230.606 Y-33.814 Z-2.251
X-231.667 Y-34.874 Z-2.304
X-231.682 Y-34.898
X-231.685 Y-34.926 Z-2.305
X-231.676 Y-34.952 Z-2.306
X-231.656 Y-34.972 Z-2.307
X-231.63 Y-34.981 Z-2.308
X-231.602 Y-34.978 Z-2.309
X-231.579 Y-34.963 Z-2.31
X-230.518 Y-33.902 Z-2.363
X-230.503 Y-33.878 Z-2.364
X-230.5 Y-33.851 Z-2.365
X-230.509 Y-33.824 Z-2.366
X-230.529 Y-33.805 Z-2.367
X-230.555 Y-33.796 Z-2.368
X-230.583 Y-33.799 Z-2.369
X-230.606 Y-33.814 Z-2.37
X-231.667 Y-34.874 Z-2.422
X-231.682 Y-34.898 Z-2.423
X-231.685 Y-34.926 Z-2.424
X-231.676 Y-34.952 Z-2.425
X-231.656 Y-34.972 Z-2.426
X-231.63 Y-34.981 Z-2.427
