(1001)
(Bearbeiten)
(  Hersteller: ChinaCnc)
(  model: 3040T)
(  description: Generic 3-axis)
(T5  D=3.175 CR=0 - ZMIN=-4.2 - Schaftfraser)
G90 G94
G17
G21
G28 G91 Z0
G90

(Bohrfrasen10)
T5
S6000 M3
G54
G0 X-207.459 Y-23.457
Z15
Z1.683
G1 Z0 F1000
X-207.428 Y-23.488
X-207.413 Y-23.484
X-207.401 Y-23.472
X-207.397 Y-23.457
X-207.404 Y-23.427 Z-0.078
X-207.424 Y-23.405 Z-0.156
X-207.453 Y-23.395 Z-0.233
X-207.483 Y-23.399 Z-0.311
X-207.507 Y-23.417 Z-0.389
X-207.521 Y-23.444 Z-0.467
X-207.519 Y-23.474 Z-0.544
X-207.504 Y-23.5 Z-0.622
X-207.479 Y-23.516 Z-0.7
X-207.449 Y-23.518 Z-0.778
X-207.421 Y-23.506 Z-0.856
X-207.402 Y-23.482 Z-0.933
X-207.397 Y-23.452 Z-1.011
X-207.406 Y-23.424 Z-1.089
X-207.428 Y-23.403 Z-1.167
X-207.457 Y-23.394 Z-1.244
X-207.487 Y-23.401 Z-1.322
X-207.51 Y-23.42 Z-1.4
X-207.521 Y-23.448 Z-1.478
X-207.518 Y-23.478 Z-1.556
X-207.501 Y-23.503 Z-1.633
X-207.474 Y-23.517 Z-1.711
X-207.444 Z-1.789
X-207.418 Y-23.503 Z-1.867
X-207.401 Y-23.478 Z-1.944
X-207.397 Y-23.448 Z-2.022
X-207.409 Y-23.42 Z-2.1
X-207.432 Y-23.401 Z-2.178
X-207.462 Y-23.394 Z-2.256
X-207.491 Y-23.403 Z-2.333
X-207.512 Y-23.424 Z-2.411
X-207.522 Y-23.452 Z-2.489
X-207.516 Y-23.482 Z-2.567
X-207.498 Y-23.506 Z-2.644
X-207.47 Y-23.518 Z-2.722
X-207.44 Y-23.516 Z-2.8
X-207.414 Y-23.5 Z-2.878
X-207.399 Y-23.474 Z-2.956
X-207.398 Y-23.444 Z-3.033
X-207.412 Y-23.417 Z-3.111
X-207.436 Y-23.399 Z-3.189
X-207.466 Y-23.395 Z-3.267
X-207.494 Y-23.405 Z-3.344
X-207.515 Y-23.427 Z-3.422
X-207.522 Y-23.457 Z-3.5
X-207.515 Y-23.486 Z-3.578
X-207.494 Y-23.509 Z-3.656
X-207.466 Y-23.519 Z-3.733
X-207.436 Y-23.515 Z-3.811
X-207.412 Y-23.497 Z-3.889
X-207.398 Y-23.47 Z-3.967
X-207.399 Y-23.439 Z-4.044
X-207.414 Y-23.413 Z-4.122
X-207.44 Y-23.397 Z-4.2
G3 X-207.479 Y-23.516 I-0.019 J-0.059
X-207.44 Y-23.397 I0.019 J0.059
G1 X-207.456 Y-23.396
X-207.471 Y-23.404
X-207.479 Y-23.417
X-207.459 Y-23.457
G0 Z5
X-231.501
Z1.683
G1 Z0 F1000
X-231.47 Y-23.488
X-231.454 Y-23.484
X-231.443 Y-23.472
X-231.439 Y-23.457
X-231.446 Y-23.427 Z-0.078
X-231.466 Y-23.405 Z-0.156
X-231.494 Y-23.395 Z-0.233
X-231.524 Y-23.399 Z-0.311
X-231.549 Y-23.417 Z-0.389
X-231.562 Y-23.444 Z-0.467
X-231.561 Y-23.474 Z-0.544
X-231.546 Y-23.5 Z-0.622
X-231.52 Y-23.516 Z-0.7
X-231.49 Y-23.518 Z-0.778
X-231.463 Y-23.506 Z-0.856
X-231.444 Y-23.482 Z-0.933
X-231.439 Y-23.452 Z-1.011
X-231.448 Y-23.424 Z-1.089
X-231.47 Y-23.403 Z-1.167
X-231.499 Y-23.394 Z-1.244
X-231.528 Y-23.401 Z-1.322
X-231.552 Y-23.42 Z-1.4
X-231.563 Y-23.448 Z-1.478
X-231.56 Y-23.478 Z-1.556
X-231.543 Y-23.503 Z-1.633
X-231.516 Y-23.517 Z-1.711
X-231.486 Z-1.789
X-231.459 Y-23.503 Z-1.867
X-231.442 Y-23.478 Z-1.944
X-231.439 Y-23.448 Z-2.022
X-231.45 Y-23.42 Z-2.1
X-231.474 Y-23.401 Z-2.178
X-231.503 Y-23.394 Z-2.256
X-231.532 Y-23.403 Z-2.333
X-231.554 Y-23.424 Z-2.411
X-231.563 Y-23.452 Z-2.489
X-231.558 Y-23.482 Z-2.567
X-231.539 Y-23.506 Z-2.644
X-231.512 Y-23.518 Z-2.722
X-231.482 Y-23.516 Z-2.8
X-231.456 Y-23.5 Z-2.878
X-231.441 Y-23.474 Z-2.956
X-231.44 Y-23.444 Z-3.033
X-231.453 Y-23.417 Z-3.111
X-231.478 Y-23.399 Z-3.189
X-231.508 Y-23.395 Z-3.267
X-231.536 Y-23.405 Z-3.344
X-231.556 Y-23.427 Z-3.422
X-231.564 Y-23.457 Z-3.5
X-231.556 Y-23.486 Z-3.578
X-231.536 Y-23.509 Z-3.656
X-231.508 Y-23.519 Z-3.733
X-231.478 Y-23.515 Z-3.811
X-231.453 Y-23.497 Z-3.889
X-231.44 Y-23.47 Z-3.967
X-231.441 Y-23.439 Z-4.044
X-231.456 Y-23.413 Z-4.122
X-231.482 Y-23.397 Z-4.2
G3 X-231.52 Y-23.516 I-0.019 J-0.059
X-231.482 Y-23.397 I0.019 J0.059
G1 X-231.498 Y-23.396
X-231.512 Y-23.404
X-231.521 Y-23.417
X-231.501 Y-23.457
G0 Z5
X-216.861 Y-35.795
Z2
G1 Z0.317 F1000
G18 G2 X-216.544 Z0 I0.318 K0
G1 X-216.385
G17 G3 X-216.068 Y-35.478 I0 J0.317
X-222.893 Y-35.478 Z-0.5 I-3.413 J0
X-216.068 Y-35.478 Z-1 I3.413 J0
X-222.893 Y-35.478 Z-1.5 I-3.413 J0
X-216.068 Y-35.478 Z-2 I3.413 J0
X-222.893 Y-35.478 Z-2.5 I-3.413 J0
X-216.068 Y-35.478 Z-3 I3.413 J0
X-222.893 Y-35.478 Z-3.5 I-3.413 J0
X-216.068 Y-35.478 Z-4 I3.413 J0
X-218.426 Y-32.232 Z-4.2 I-3.413 J0
X-220.535 Y-38.723 I-1.055 J-3.245
X-218.426 Y-32.232 I1.055 J3.245
X-218.826 Y-32.436 I-0.098 J-0.302
G1 X-218.875 Y-32.587
X-218.897 Y-32.654 Z-4.192
X-218.917 Y-32.718 Z-4.169
X-218.936 Y-32.775 Z-4.131
X-218.952 Y-32.823 Z-4.08
X-218.963 Y-32.859 Z-4.02
X-218.97 Y-32.881 Z-3.953
X-218.973 Y-32.889 Z-3.882
G0 Z5
X-231.501 Y-47.498
Z1.683
G1 Z0 F1000
X-231.47 Y-47.53
X-231.454 Y-47.525
X-231.443 Y-47.514
X-231.439 Y-47.498
X-231.446 Y-47.469 Z-0.078
X-231.466 Y-47.447 Z-0.156
X-231.494 Y-47.436 Z-0.233
X-231.524 Y-47.44 Z-0.311
X-231.549 Y-47.458 Z-0.389
X-231.562 Y-47.485 Z-0.467
X-231.561 Y-47.516 Z-0.544
X-231.546 Y-47.542 Z-0.622
X-231.52 Y-47.558 Z-0.7
X-231.49 Y-47.56 Z-0.778
X-231.463 Y-47.548 Z-0.856
X-231.444 Y-47.524 Z-0.933
X-231.439 Y-47.494 Z-1.011
X-231.448 Y-47.465 Z-1.089
X-231.47 Y-47.444 Z-1.167
X-231.499 Y-47.436 Z-1.244
X-231.528 Y-47.442 Z-1.322
X-231.552 Y-47.462 Z-1.4
X-231.563 Y-47.49 Z-1.478
X-231.56 Y-47.52 Z-1.556
X-231.543 Y-47.545 Z-1.633
X-231.516 Y-47.559 Z-1.711
X-231.486 Z-1.789
X-231.459 Y-47.545 Z-1.867
X-231.442 Y-47.52 Z-1.944
X-231.439 Y-47.49 Z-2.022
X-231.45 Y-47.462 Z-2.1
X-231.474 Y-47.442 Z-2.178
X-231.503 Y-47.436 Z-2.256
X-231.532 Y-47.444 Z-2.333
X-231.554 Y-47.465 Z-2.411
X-231.563 Y-47.494 Z-2.489
X-231.558 Y-47.524 Z-2.567
X-231.54 Y-47.548 Z-2.644
X-231.512 Y-47.56 Z-2.722
X-231.482 Y-47.558 Z-2.8
X-231.456 Y-47.542 Z-2.878
X-231.441 Y-47.516 Z-2.956
X-231.44 Y-47.485 Z-3.033
X-231.453 Y-47.458 Z-3.111
X-231.478 Y-47.44 Z-3.189
X-231.508 Y-47.436 Z-3.267
X-231.536 Y-47.447 Z-3.344
X-231.556 Y-47.469 Z-3.422
X-231.564 Y-47.498 Z-3.5
X-231.556 Y-47.528 Z-3.578
X-231.536 Y-47.55 Z-3.656
X-231.508 Y-47.56 Z-3.733
X-231.478 Y-47.556 Z-3.811
X-231.453 Y-47.538 Z-3.889
X-231.44 Y-47.511 Z-3.967
X-231.441 Y-47.481 Z-4.044
X-231.456 Y-47.455 Z-4.122
X-231.482 Y-47.439 Z-4.2
G3 X-231.52 Y-47.558 I-0.019 J-0.059
X-231.482 Y-47.439 I0.019 J0.059
G1 X-231.498 Y-47.438
X-231.512 Y-47.445
X-231.521 Y-47.459
X-231.501 Y-47.498
G0 Z5
X-207.459
Z1.683
G1 Z0 F1000
X-207.428 Y-47.53
X-207.413 Y-47.525
X-207.401 Y-47.514
X-207.397 Y-47.498
X-207.404 Y-47.469 Z-0.078
X-207.424 Y-47.447 Z-0.156
X-207.453 Y-47.436 Z-0.233
X-207.483 Y-47.44 Z-0.311
X-207.507 Y-47.458 Z-0.389
X-207.521 Y-47.485 Z-0.467
X-207.519 Y-47.516 Z-0.544
X-207.504 Y-47.542 Z-0.622
X-207.479 Y-47.558 Z-0.7
X-207.449 Y-47.56 Z-0.778
X-207.421 Y-47.548 Z-0.856
X-207.402 Y-47.524 Z-0.933
X-207.397 Y-47.494 Z-1.011
X-207.406 Y-47.465 Z-1.089
X-207.428 Y-47.444 Z-1.167
X-207.457 Y-47.436 Z-1.244
X-207.487 Y-47.442 Z-1.322
X-207.51 Y-47.462 Z-1.4
X-207.521 Y-47.49 Z-1.478
X-207.518 Y-47.52 Z-1.556
X-207.501 Y-47.545 Z-1.633
X-207.474 Y-47.559 Z-1.711
X-207.444 Z-1.789
X-207.418 Y-47.545 Z-1.867
X-207.401 Y-47.52 Z-1.944
X-207.397 Y-47.49 Z-2.022
X-207.409 Y-47.462 Z-2.1
X-207.432 Y-47.442 Z-2.178
X-207.462 Y-47.436 Z-2.256
X-207.491 Y-47.444 Z-2.333
X-207.512 Y-47.465 Z-2.411
X-207.522 Y-47.494 Z-2.489
X-207.516 Y-47.524 Z-2.567
X-207.498 Y-47.548 Z-2.644
X-207.47 Y-47.56 Z-2.722
X-207.44 Y-47.558 Z-2.8
X-207.414 Y-47.542 Z-2.878
X-207.399 Y-47.516 Z-2.956
X-207.398 Y-47.485 Z-3.033
X-207.412 Y-47.458 Z-3.111
X-207.436 Y-47.44 Z-3.189
X-207.466 Y-47.436 Z-3.267
X-207.494 Y-47.447 Z-3.344
X-207.515 Y-47.469 Z-3.422
X-207.522 Y-47.498 Z-3.5
X-207.515 Y-47.528 Z-3.578
X-207.494 Y-47.55 Z-3.656
X-207.466 Y-47.56 Z-3.733
X-207.436 Y-47.556 Z-3.811
X-207.412 Y-47.538 Z-3.889
X-207.398 Y-47.511 Z-3.967
X-207.399 Y-47.481 Z-4.044
X-207.414 Y-47.455 Z-4.122
X-207.44 Y-47.439 Z-4.2
G3 X-207.479 Y-47.558 I-0.019 J-0.059
X-207.44 Y-47.439 I0.019 J0.059
G1 X-207.456 Y-47.438
X-207.471 Y-47.445
X-207.479 Y-47.459
X-207.459 Y-47.498
G0 Z5
X-151.974 Y-63.601
Z2
G1 Z0.317 F1000
G18 G2 X-151.657 Z0 I0.318 K0
G1 X-151.498
G17 G3 X-151.18 Y-63.283 I0 J0.318
X-158.005 Y-63.283 Z-0.5 I-3.413 J0
X-151.18 Y-63.283 Z-1 I3.413 J0
X-158.005 Y-63.283 Z-1.5 I-3.413 J0
X-151.18 Y-63.283 Z-2 I3.413 J0
X-158.005 Y-63.283 Z-2.5 I-3.413 J0
X-151.18 Y-63.283 Z-3 I3.413 J0
X-158.005 Y-63.283 Z-3.5 I-3.413 J0
X-151.18 Y-63.283 Z-4 I3.413 J0
X-153.538 Y-60.038 Z-4.2 I-3.412 J0
X-155.647 Y-66.529 I-1.055 J-3.245
X-153.538 Y-60.038 I1.055 J3.245
X-153.938 Y-60.241 I-0.098 J-0.302
G1 X-153.987 Y-60.392
X-154.009 Y-60.46 Z-4.192
X-154.03 Y-60.523 Z-4.169
X-154.049 Y-60.581 Z-4.131
X-154.064 Y-60.628 Z-4.08
X-154.076 Y-60.664 Z-4.02
X-154.083 Y-60.687 Z-3.953
X-154.086 Y-60.694 Z-3.882
G0 Z5
X-88.03 Y-63.531
Z2
G1 Z0.317 F1000
G18 G2 X-87.713 Z0 I0.318 K0
G1 X-87.554
G17 G3 X-87.236 Y-63.213 I0 J0.318
X-94.061 Y-63.213 Z-0.5 I-3.413 J0
X-87.236 Y-63.213 Z-1 I3.413 J0
X-94.061 Y-63.213 Z-1.5 I-3.413 J0
X-87.236 Y-63.213 Z-2 I3.413 J0
X-94.061 Y-63.213 Z-2.5 I-3.413 J0
X-87.236 Y-63.213 Z-3 I3.413 J0
X-94.061 Y-63.213 Z-3.5 I-3.413 J0
X-87.236 Y-63.213 Z-4 I3.413 J0
X-89.594 Y-59.968 Z-4.2 I-3.412 J0
X-91.703 Y-66.459 I-1.055 J-3.245
X-89.594 Y-59.968 I1.055 J3.245
X-89.994 Y-60.172 I-0.098 J-0.302
G1 X-90.044 Y-60.323
X-90.065 Y-60.39 Z-4.192
X-90.086 Y-60.454 Z-4.169
X-90.105 Y-60.511 Z-4.131
X-90.12 Y-60.559 Z-4.08
X-90.132 Y-60.595 Z-4.02
X-90.139 Y-60.617 Z-3.953
X-90.142 Y-60.625 Z-3.882
G0 Z15

(2D-Kontur31)
X-236.278 Y-69.89
Z15
Z5
G1 Z2.5 F333.3
S5000
X-221.777 Z1.994
Y-69.565 Z1.982
X-243.602 Z1.22
Y-69.89 Z1.209
X-221.777 Z0.447
Y-69.565 Z0.435
X-243.602 Z-0.327
Y-69.89 Z-0.338
X-221.777 Z-1.1
Y-69.565 Z-1.112
X-243.602 Z-1.874
Y-69.89 Z-1.885
X-221.777 Z-2.647
Y-69.565 Z-2.659
X-243.602 Z-3.421
Y-69.89 Z-3.432
X-221.777 Z-4.194
Y-69.728 Z-4.2
S6000
Y-69.565 F1000
X-243.602
Y-69.89
X-221.777
Y-69.728
G0 Z15

(2D Adaptive7)
X-219.815 Y-54.122
Z15
Z5
Z-0.365
G1 Z-0.683 F1000
X-219.813 Y-54.114 Z-0.753
X-219.807 Y-54.092 Z-0.82
X-219.797 Y-54.055 Z-0.88
X-219.785 Y-54.006 Z-0.931
X-219.77 Y-53.948 Z-0.969
X-219.753 Y-53.883 Z-0.992
X-219.736 Y-53.814 Z-1
G3 X-219.487 Y-52.086 I-7.852 J2.011
G1 Y-51.936
X-219.572 Y-51.863
X-219.681 Y-51.841
X-219.788 Y-51.874
X-219.865 Y-51.955
X-219.893 Y-52.063
X-219.892 Y-52.07
G3 X-219.068 Y-52.067 I0.412 J0.017
G1 Y-51.776
X-219.069 Y-51.739
X-219.18 Y-51.619
X-219.327 Y-51.547
X-219.49 Y-51.533
X-219.647 Y-51.578
X-219.777 Y-51.677
X-219.863 Y-51.816
X-219.893 Y-51.977
X-219.886 Y-52.022
X-219.869 Y-52.065
X-219.843 Y-52.103
X-219.81 Y-52.134
G3 X-219.068 Y-51.776 I0.277 J0.374
G1 Y-51.529
X-219.071 Y-51.454
X-219.146 Y-51.324
X-219.293 Y-51.238
X-219.462 Y-51.212
X-219.628 Y-51.252
X-219.768 Y-51.35
X-219.86 Y-51.494
X-219.893 Y-51.661
X-219.887 Y-51.703
X-219.872 Y-51.743
X-219.85 Y-51.779
G3 X-219.068 Y-51.529 I0.347 J0.265
G1 Y-51.267
X-219.075 Y-51.117
X-219.156 Y-50.991
X-219.303 Y-50.909
X-219.47 Y-50.888
X-219.634 Y-50.929
X-219.77 Y-51.028
X-219.861 Y-51.171
X-219.893 Y-51.336
X-219.889 Y-51.37
X-219.879 Y-51.403
G3 X-219.068 Y-51.267 I0.392 J0.15
G1 Y-50.947
X-219.075 Y-50.797
X-219.154 Y-50.669
X-219.302 Y-50.587
X-219.469 Y-50.564
X-219.633 Y-50.606
X-219.77 Y-50.704
X-219.861 Y-50.847
X-219.893 Y-51.013
X-219.889 Y-51.045
X-219.88 Y-51.077
G3 X-219.068 Y-50.947 I0.393 J0.145
G1 Y-50.611
X-219.071 Y-50.536
X-219.129 Y-50.398
X-219.272 Y-50.298
X-219.443 Y-50.261
X-219.614 Y-50.293
X-219.76 Y-50.389
X-219.858 Y-50.533
X-219.893 Y-50.704
X-219.886 Y-50.749
X-219.87 Y-50.792
G3 X-219.068 Y-50.611 I0.377 J0.195
G1 Y-50.32
X-219.075 Y-50.17
X-219.155 Y-50.044
X-219.302 Y-49.96
X-219.469 Y-49.937
X-219.633 Y-49.978
X-219.77 Y-50.076
X-219.861 Y-50.218
X-219.893 Y-50.384
Y-50.704
G3 X-219.7 Y-50.9 I0.203 J0.007
X-219.068 Y-50.32 I0.031 J0.601
G1 Y-49.998
X-219.075 Y-49.848
X-219.153 Y-49.721
X-219.301 Y-49.637
X-219.468 Y-49.614
X-219.632 Y-49.655
X-219.77 Y-49.754
X-219.861 Y-49.896
X-219.893 Y-50.062
Y-50.384
G3 X-219.699 Y-50.58 I0.203 J0.007
X-219.068 Y-49.998 I0.029 J0.602
G1 Y-49.702
X-219.075 Y-49.552
X-219.145 Y-49.419
X-219.29 Y-49.329
X-219.459 Y-49.301
X-219.626 Y-49.338
X-219.766 Y-49.435
X-219.86 Y-49.578
X-219.893 Y-49.746
Y-50.062
G3 X-219.713 Y-50.257 I0.203 J0.007
X-219.068 Y-49.702 I0.066 J0.575
G1 Y-49.375
X-219.075 Y-49.225
X-219.15 Y-49.095
X-219.296 Y-49.008
X-219.464 Y-48.982
X-219.629 Y-49.021
X-219.768 Y-49.118
X-219.86 Y-49.261
X-219.893 Y-49.428
Y-49.746
G3 X-219.707 Y-49.941 I0.203 J0.007
X-219.068 Y-49.375 I0.051 J0.587
G1 Y-49.054
X-219.075 Y-48.904
X-219.15 Y-48.774
X-219.296 Y-48.688
X-219.464 Y-48.663
X-219.629 Y-48.702
X-219.768 Y-48.8
X-219.86 Y-48.942
X-219.893 Y-49.109
Y-49.428
G3 X-219.706 Y-49.623 I0.203 J0.007
X-219.068 Y-49.054 I0.047 J0.59
G1 Y-48.719
X-219.075 Y-48.569
X-219.155 Y-48.442
X-219.303 Y-48.36
X-219.47 Y-48.338
X-219.633 Y-48.379
X-219.77 Y-48.478
X-219.861 Y-48.621
X-219.893 Y-48.786
Y-49.109
G3 X-219.697 Y-49.305 I0.203 J0.007
X-219.068 Y-48.719 I0.022 J0.607
G1 Y-48.397
X-219.075 Y-48.247
X-219.154 Y-48.12
X-219.302 Y-48.037
X-219.469 Y-48.015
X-219.633 Y-48.056
X-219.77 Y-48.155
X-219.861 Y-48.297
X-219.893 Y-48.463
Y-48.786
G3 X-219.698 Y-48.982 I0.203 J0.007
X-219.068 Y-48.397 I0.024 J0.606
G1 Y-48.1
X-219.075 Y-47.951
X-219.145 Y-47.818
X-219.291 Y-47.729
X-219.459 Y-47.701
X-219.626 Y-47.738
X-219.766 Y-47.835
X-219.86 Y-47.978
X-219.893 Y-48.146
Y-48.463
G3 X-219.711 Y-48.658 I0.203 J0.007
X-219.068 Y-48.1 I0.063 J0.578
G1 Y-47.773
X-219.075 Y-47.623
X-219.15 Y-47.493
X-219.296 Y-47.407
X-219.464 Y-47.381
X-219.629 Y-47.42
X-219.768 Y-47.518
X-219.86 Y-47.661
X-219.893 Y-47.827
Y-48.146
G3 X-219.706 Y-48.341 I0.203 J0.007
X-219.068 Y-47.773 I0.048 J0.589
G1 Y-47.453
X-219.075 Y-47.303
X-219.15 Y-47.173
X-219.297 Y-47.087
X-219.465 Y-47.062
X-219.63 Y-47.101
X-219.768 Y-47.199
X-219.86 Y-47.342
X-219.893 Y-47.508
Y-47.827
G3 X-219.705 Y-48.023 I0.203 J0.007
X-219.068 Y-47.453 I0.045 J0.591
G1 Y-47.117
X-219.075 Y-46.968
X-219.155 Y-46.841
X-219.303 Y-46.759
X-219.47 Y-46.737
X-219.634 Y-46.779
X-219.77 Y-46.877
X-219.861 Y-47.02
X-219.893 Y-47.185
Y-47.508
G3 X-219.697 Y-47.704 I0.203 J0.007
X-219.068 Y-47.117 I0.021 J0.608
G1 Y-46.826
X-219.075 Y-46.676
X-219.144 Y-46.543
X-219.29 Y-46.453
X-219.458 Y-46.424
X-219.625 Y-46.461
X-219.766 Y-46.558
X-219.86 Y-46.701
X-219.893 Y-46.869
Y-47.185
G3 X-219.713 Y-47.38 I0.203 J0.007
X-219.068 Y-46.826 I0.068 J0.574
G1 Y-46.499
X-219.075 Y-46.349
X-219.149 Y-46.219
X-219.295 Y-46.132
X-219.463 Y-46.106
X-219.629 Y-46.144
X-219.768 Y-46.242
X-219.86 Y-46.384
X-219.893 Y-46.551
Y-46.869
G3 X-219.707 Y-47.064 I0.203 J0.007
X-219.068 Y-46.499 I0.052 J0.586
G1 Y-46.172
X-219.075 Y-46.022
X-219.152 Y-45.893
X-219.299 Y-45.809
X-219.466 Y-45.784
X-219.631 Y-45.824
X-219.769 Y-45.922
X-219.86 Y-46.065
X-219.893 Y-46.231
Y-46.551
G3 X-219.703 Y-46.747 I0.203 J0.007
X-219.068 Y-46.172 I0.038 J0.596
G1 Y-45.851
X-219.075 Y-45.701
X-219.152 Y-45.572
X-219.298 Y-45.488
X-219.466 Y-45.464
X-219.631 Y-45.503
X-219.769 Y-45.602
X-219.86 Y-45.744
X-219.893 Y-45.911
Y-46.231
G3 X-219.702 Y-46.427 I0.203 J0.007
X-219.068 Y-45.851 I0.037 J0.597
G1 Y-45.516
X-219.075 Y-45.366
X-219.156 Y-45.24
X-219.304 Y-45.159
X-219.471 Y-45.138
X-219.634 Y-45.18
X-219.771 Y-45.279
X-219.861 Y-45.421
X-219.893 Y-45.587
Y-45.911
G3 X-219.695 Y-46.106 I0.203 J0.007
X-219.068 Y-45.516 I0.016 J0.612
G1 Y-45.225
X-219.075 Y-45.075
X-219.145 Y-44.942
X-219.29 Y-44.853
X-219.459 Y-44.824
X-219.626 Y-44.862
X-219.766 Y-44.959
X-219.86 Y-45.102
X-219.893 Y-45.27
Y-45.587
G3 X-219.712 Y-45.781 I0.203 J0.007
X-219.068 Y-45.225 I0.064 J0.577
G1 Y-44.898
X-219.075 Y-44.748
X-219.15 Y-44.618
X-219.296 Y-44.531
X-219.464 Y-44.505
X-219.629 Y-44.544
X-219.768 Y-44.642
X-219.86 Y-44.784
X-219.893 Y-44.951
Y-45.27
G3 X-219.707 Y-45.465 I0.203 J0.007
X-219.068 Y-44.898 I0.049 J0.588
G1 Y-44.57
X-219.075 Y-44.421
X-219.152 Y-44.292
X-219.299 Y-44.208
X-219.467 Y-44.184
X-219.631 Y-44.224
X-219.769 Y-44.322
X-219.86 Y-44.465
X-219.893 Y-44.631
Y-44.951
G3 X-219.702 Y-45.147 I0.203 J0.007
X-219.068 Y-44.57 I0.036 J0.597
G1 Y-44.25
X-219.075 Y-44.1
X-219.152 Y-43.971
X-219.299 Y-43.887
X-219.466 Y-43.863
X-219.631 Y-43.903
X-219.769 Y-44.001
X-219.86 Y-44.144
X-219.893 Y-44.31
Y-44.631
G3 X-219.702 Y-44.826 I0.203 J0.007
X-219.068 Y-44.25 I0.036 J0.598
G1 Y-43.915
X-219.071 Y-43.84
X-219.128 Y-43.701
X-219.27 Y-43.599
X-219.441 Y-43.561
X-219.613 Y-43.592
X-219.76 Y-43.687
X-219.858 Y-43.832
X-219.893 Y-44.003
Y-44.31
G3 X-219.695 Y-44.506 I0.203 J0.007
X-219.068 Y-43.915 I0.015 J0.613
G1 Y-43.623
X-219.075 Y-43.474
X-219.154 Y-43.346
X-219.3 Y-43.262
X-219.468 Y-43.238
X-219.632 Y-43.278
X-219.769 Y-43.376
X-219.861 Y-43.518
X-219.893 Y-43.684
Y-44.003
G3 X-219.702 Y-44.199 I0.203 J0.007
X-219.068 Y-43.623 I0.038 J0.596
G1 Y-43.301
X-219.075 Y-43.152
X-219.153 Y-43.023
X-219.3 Y-42.939
X-219.467 Y-42.916
X-219.632 Y-42.956
X-219.769 Y-43.055
X-219.861 Y-43.197
X-219.893 Y-43.363
Y-43.684
G3 X-219.701 Y-43.879 I0.203 J0.007
X-219.068 Y-43.301 I0.034 J0.599
G1 Y-43.005
X-219.075 Y-42.855
X-219.144 Y-42.722
X-219.289 Y-42.632
X-219.458 Y-42.603
X-219.625 Y-42.639
X-219.766 Y-42.737
X-219.86 Y-42.88
X-219.893 Y-43.047
Y-43.363
G3 X-219.714 Y-43.558 I0.203 J0.007
X-219.068 Y-43.005 I0.069 J0.573
G1 Y-42.678
X-219.075 Y-42.528
X-219.149 Y-42.398
X-219.295 Y-42.31
X-219.463 Y-42.284
X-219.629 Y-42.323
X-219.768 Y-42.42
X-219.86 Y-42.563
X-219.893 Y-42.73
Y-43.047
G3 X-219.708 Y-43.243 I0.203 J0.007
X-219.068 Y-42.678 I0.053 J0.585
G1 Y-42.357
X-219.075 Y-42.207
X-219.15 Y-42.077
X-219.296 Y-41.991
X-219.464 Y-41.965
X-219.629 Y-42.004
X-219.768 Y-42.102
X-219.86 Y-42.245
X-219.893 Y-42.411
Y-42.73
G3 X-219.706 Y-42.925 I0.203 J0.007
X-219.068 Y-42.357 I0.048 J0.589
G1 Y-40.093
X-219.071 Y-40.056
X-219.185 Y-39.317
X-219.261 Y-38.826
G3 X-219.893 Y-38.863 I-0.314 J-0.049
G1 Y-42.411
G3 X-219.319 Y-42.588 I0.317 J0.011
G1 X-219.277 Y-42.531 Z-0.992
X-219.238 Y-42.477 Z-0.969
X-219.202 Y-42.428 Z-0.931
X-219.172 Y-42.388 Z-0.88
X-219.15 Y-42.357 Z-0.82
X-219.136 Y-42.339 Z-0.753
X-219.131 Y-42.332 Z-0.683
G0 Z15
X-219.145 Y-16.833
Z5
Z-0.365
G1 Z-0.683 F1000
X-219.147 Y-16.841 Z-0.753
X-219.153 Y-16.863 Z-0.82
X-219.163 Y-16.9 Z-0.88
X-219.175 Y-16.949 Z-0.931
X-219.19 Y-17.007 Z-0.969
X-219.207 Y-17.072 Z-0.992
X-219.224 Y-17.141 Z-1
G3 X-219.473 Y-18.869 I7.852 J-2.011
G1 Y-19.019
X-219.388 Y-19.092
X-219.279 Y-19.114
X-219.172 Y-19.081
X-219.095 Y-19
X-219.068 Y-18.892
Y-18.885
G3 X-219.893 Y-18.888 I-0.412 J-0.017
G1 Y-19.179
X-219.891 Y-19.216
X-219.78 Y-19.336
X-219.633 Y-19.408
X-219.47 Y-19.422
X-219.313 Y-19.377
X-219.183 Y-19.278
X-219.097 Y-19.139
X-219.068 Y-18.978
X-219.074 Y-18.933
X-219.091 Y-18.89
X-219.117 Y-18.852
X-219.15 Y-18.821
G3 X-219.893 Y-19.179 I-0.277 J-0.374
G1 Y-19.426
X-219.889 Y-19.501
X-219.814 Y-19.631
X-219.667 Y-19.717
X-219.498 Y-19.743
X-219.332 Y-19.703
X-219.192 Y-19.605
X-219.1 Y-19.461
X-219.068 Y-19.294
X-219.073 Y-19.252
X-219.088 Y-19.212
X-219.11 Y-19.176
G3 X-219.893 Y-19.426 I-0.347 J-0.265
G1 Y-19.688
X-219.885 Y-19.838
X-219.804 Y-19.964
X-219.657 Y-20.046
X-219.49 Y-20.067
X-219.326 Y-20.026
X-219.19 Y-19.927
X-219.099 Y-19.784
X-219.068 Y-19.619
X-219.072 Y-19.585
X-219.081 Y-19.552
G3 X-219.893 Y-19.688 I-0.392 J-0.15
G1 Y-20.008
X-219.885 Y-20.158
X-219.806 Y-20.286
X-219.658 Y-20.368
X-219.491 Y-20.391
X-219.327 Y-20.349
X-219.19 Y-20.251
X-219.099 Y-20.108
X-219.068 Y-19.942
X-219.071 Y-19.91
X-219.08 Y-19.878
G3 X-219.893 Y-20.008 I-0.393 J-0.145
G1 Y-20.344
X-219.889 Y-20.419
X-219.831 Y-20.557
X-219.688 Y-20.657
X-219.517 Y-20.694
X-219.346 Y-20.662
X-219.2 Y-20.566
X-219.102 Y-20.422
X-219.068 Y-20.251
X-219.074 Y-20.206
X-219.09 Y-20.163
G3 X-219.893 Y-20.344 I-0.377 J-0.195
G1 Y-20.635
X-219.885 Y-20.785
X-219.805 Y-20.911
X-219.658 Y-20.995
X-219.491 Y-21.018
X-219.327 Y-20.977
X-219.19 Y-20.879
X-219.099 Y-20.737
X-219.068 Y-20.571
Y-20.251
G3 X-219.26 Y-20.055 I-0.203 J-0.007
X-219.893 Y-20.635 I-0.031 J-0.601
G1 Y-20.957
X-219.885 Y-21.107
X-219.807 Y-21.234
X-219.659 Y-21.318
X-219.492 Y-21.341
X-219.328 Y-21.3
X-219.19 Y-21.201
X-219.099 Y-21.059
X-219.068 Y-20.893
Y-20.571
G3 X-219.26 Y-20.375 I-0.203 J-0.007
X-219.893 Y-20.957 I-0.029 J-0.602
G1 Y-21.253
X-219.885 Y-21.403
X-219.815 Y-21.536
X-219.67 Y-21.626
X-219.501 Y-21.654
X-219.334 Y-21.617
X-219.194 Y-21.52
X-219.1 Y-21.377
X-219.068 Y-21.209
Y-20.893
G3 X-219.247 Y-20.698 I-0.203 J-0.007
X-219.893 Y-21.253 I-0.066 J-0.575
G1 Y-21.58
X-219.885 Y-21.73
X-219.81 Y-21.86
X-219.664 Y-21.947
X-219.497 Y-21.973
X-219.331 Y-21.934
X-219.192 Y-21.837
X-219.1 Y-21.694
X-219.068 Y-21.527
Y-21.209
G3 X-219.253 Y-21.014 I-0.203 J-0.007
X-219.893 Y-21.58 I-0.051 J-0.587
G1 Y-21.901
X-219.885 Y-22.051
X-219.81 Y-22.181
X-219.664 Y-22.267
X-219.496 Y-22.292
X-219.331 Y-22.253
X-219.192 Y-22.155
X-219.1 Y-22.013
X-219.068 Y-21.846
Y-21.527
G3 X-219.254 Y-21.332 I-0.203 J-0.007
X-219.893 Y-21.901 I-0.047 J-0.59
G1 Y-22.236
X-219.885 Y-22.386
X-219.805 Y-22.513
X-219.657 Y-22.595
X-219.49 Y-22.617
X-219.327 Y-22.576
X-219.19 Y-22.477
X-219.099 Y-22.334
X-219.068 Y-22.169
Y-21.846
G3 X-219.263 Y-21.65 I-0.203 J-0.007
X-219.893 Y-22.236 I-0.022 J-0.607
G1 Y-22.558
X-219.885 Y-22.708
X-219.806 Y-22.835
X-219.658 Y-22.918
X-219.491 Y-22.94
X-219.327 Y-22.899
X-219.19 Y-22.8
X-219.099 Y-22.658
X-219.068 Y-22.492
Y-22.169
G3 X-219.262 Y-21.973 I-0.203 J-0.007
X-219.893 Y-22.558 I-0.024 J-0.606
G1 Y-22.855
X-219.885 Y-23.004
X-219.815 Y-23.137
X-219.669 Y-23.226
X-219.501 Y-23.254
X-219.334 Y-23.217
X-219.194 Y-23.12
X-219.1 Y-22.977
X-219.068 Y-22.809
Y-22.492
G3 X-219.249 Y-22.297 I-0.203 J-0.007
X-219.893 Y-22.855 I-0.063 J-0.578
G1 Y-23.182
X-219.885 Y-23.332
X-219.81 Y-23.462
X-219.664 Y-23.548
X-219.496 Y-23.574
X-219.331 Y-23.535
X-219.192 Y-23.437
X-219.1 Y-23.294
X-219.068 Y-23.128
Y-22.809
G3 X-219.254 Y-22.614 I-0.203 J-0.007
X-219.893 Y-23.182 I-0.048 J-0.589
G1 Y-23.502
X-219.885 Y-23.652
X-219.81 Y-23.782
X-219.663 Y-23.868
X-219.495 Y-23.893
X-219.33 Y-23.854
X-219.192 Y-23.756
X-219.1 Y-23.613
X-219.068 Y-23.447
Y-23.128
G3 X-219.255 Y-22.932 I-0.203 J-0.007
X-219.893 Y-23.502 I-0.045 J-0.591
G1 Y-23.838
X-219.885 Y-23.987
X-219.805 Y-24.114
X-219.657 Y-24.196
X-219.49 Y-24.218
X-219.326 Y-24.176
X-219.19 Y-24.078
X-219.099 Y-23.935
X-219.068 Y-23.77
Y-23.447
G3 X-219.263 Y-23.251 I-0.203 J-0.007
X-219.893 Y-23.838 I-0.021 J-0.608
G1 Y-24.129
X-219.885 Y-24.279
X-219.816 Y-24.412
X-219.67 Y-24.502
X-219.502 Y-24.531
X-219.335 Y-24.494
X-219.194 Y-24.397
X-219.1 Y-24.254
X-219.068 Y-24.086
Y-23.77
G3 X-219.247 Y-23.575 I-0.203 J-0.007
X-219.893 Y-24.129 I-0.068 J-0.574
G1 Y-24.456
X-219.885 Y-24.606
X-219.811 Y-24.736
X-219.665 Y-24.823
X-219.497 Y-24.849
X-219.331 Y-24.811
X-219.192 Y-24.713
X-219.1 Y-24.571
X-219.068 Y-24.404
Y-24.086
G3 X-219.253 Y-23.891 I-0.203 J-0.007
X-219.893 Y-24.456 I-0.052 J-0.586
G1 Y-24.783
X-219.885 Y-24.933
X-219.808 Y-25.062
X-219.661 Y-25.146
X-219.494 Y-25.171
X-219.329 Y-25.131
X-219.191 Y-25.033
X-219.1 Y-24.89
X-219.068 Y-24.724
Y-24.404
G3 X-219.257 Y-24.208 I-0.203 J-0.007
X-219.893 Y-24.783 I-0.038 J-0.596
G1 Y-25.104
X-219.885 Y-25.254
X-219.808 Y-25.383
X-219.662 Y-25.467
X-219.494 Y-25.491
X-219.329 Y-25.452
X-219.191 Y-25.353
X-219.1 Y-25.211
X-219.068 Y-25.044
Y-24.724
G3 X-219.258 Y-24.528 I-0.203 J-0.007
X-219.893 Y-25.104 I-0.037 J-0.597
G1 Y-25.439
X-219.885 Y-25.589
X-219.804 Y-25.715
X-219.656 Y-25.796
X-219.489 Y-25.817
X-219.326 Y-25.775
X-219.189 Y-25.676
X-219.099 Y-25.534
X-219.068 Y-25.368
Y-25.044
G3 X-219.265 Y-24.849 I-0.203 J-0.007
X-219.893 Y-25.439 I-0.016 J-0.612
G1 Y-25.73
X-219.885 Y-25.88
X-219.815 Y-26.013
X-219.67 Y-26.102
X-219.501 Y-26.131
X-219.334 Y-26.093
X-219.194 Y-25.996
X-219.1 Y-25.853
X-219.068 Y-25.685
Y-25.368
G3 X-219.248 Y-25.174 I-0.203 J-0.007
X-219.893 Y-25.73 I-0.064 J-0.577
G1 Y-26.057
X-219.885 Y-26.207
X-219.81 Y-26.337
X-219.664 Y-26.424
X-219.496 Y-26.45
X-219.331 Y-26.411
X-219.192 Y-26.313
X-219.1 Y-26.171
X-219.068 Y-26.004
Y-25.685
G3 X-219.253 Y-25.49 I-0.203 J-0.007
X-219.893 Y-26.057 I-0.049 J-0.588
G1 Y-26.385
X-219.885 Y-26.534
X-219.808 Y-26.663
X-219.661 Y-26.747
X-219.493 Y-26.771
X-219.329 Y-26.731
X-219.191 Y-26.633
X-219.1 Y-26.49
X-219.068 Y-26.324
Y-26.004
G3 X-219.258 Y-25.808 I-0.203 J-0.007
X-219.893 Y-26.385 I-0.036 J-0.597
G1 Y-26.705
X-219.885 Y-26.855
X-219.808 Y-26.984
X-219.661 Y-27.068
X-219.494 Y-27.092
X-219.329 Y-27.052
X-219.191 Y-26.954
X-219.1 Y-26.811
X-219.068 Y-26.645
Y-26.324
G3 X-219.258 Y-26.129 I-0.203 J-0.007
X-219.893 Y-26.705 I-0.036 J-0.598
G1 Y-27.04
X-219.889 Y-27.115
X-219.832 Y-27.254
X-219.69 Y-27.356
X-219.519 Y-27.394
X-219.347 Y-27.363
X-219.2 Y-27.268
X-219.102 Y-27.123
X-219.068 Y-26.952
Y-26.645
G3 X-219.265 Y-26.449 I-0.203 J-0.007
X-219.893 Y-27.04 I-0.015 J-0.613
G1 Y-27.332
X-219.885 Y-27.481
X-219.806 Y-27.609
X-219.66 Y-27.693
X-219.492 Y-27.717
X-219.328 Y-27.677
X-219.191 Y-27.579
X-219.099 Y-27.437
X-219.068 Y-27.271
Y-26.952
G3 X-219.258 Y-26.756 I-0.203 J-0.007
X-219.893 Y-27.332 I-0.038 J-0.596
G1 Y-27.654
X-219.885 Y-27.803
X-219.807 Y-27.932
X-219.66 Y-28.016
X-219.493 Y-28.039
X-219.328 Y-27.999
X-219.191 Y-27.9
X-219.099 Y-27.758
X-219.068 Y-27.592
Y-27.271
G3 X-219.259 Y-27.076 I-0.203 J-0.007
X-219.893 Y-27.654 I-0.034 J-0.599
G1 Y-27.95
X-219.885 Y-28.1
X-219.816 Y-28.233
X-219.671 Y-28.323
X-219.502 Y-28.352
X-219.335 Y-28.316
X-219.194 Y-28.218
X-219.1 Y-28.075
X-219.068 Y-27.908
Y-27.592
G3 X-219.246 Y-27.397 I-0.203 J-0.007
X-219.893 Y-27.95 I-0.069 J-0.573
G1 Y-28.277
X-219.885 Y-28.427
X-219.811 Y-28.557
X-219.665 Y-28.645
X-219.497 Y-28.671
X-219.331 Y-28.632
X-219.192 Y-28.535
X-219.1 Y-28.392
X-219.068 Y-28.225
Y-27.908
G3 X-219.252 Y-27.712 I-0.203 J-0.007
X-219.893 Y-28.277 I-0.053 J-0.585
G1 Y-28.598
X-219.885 Y-28.748
X-219.81 Y-28.878
X-219.664 Y-28.964
X-219.496 Y-28.99
X-219.331 Y-28.951
X-219.192 Y-28.853
X-219.1 Y-28.71
X-219.068 Y-28.544
Y-28.225
G3 X-219.254 Y-28.03 I-0.203 J-0.007
X-219.893 Y-28.598 I-0.048 J-0.589
G1 Y-30.862
X-219.889 Y-30.899
X-219.775 Y-31.638
X-219.699 Y-32.129
G3 X-219.068 Y-32.092 I0.314 J0.049
G1 Y-28.544
G3 X-219.641 Y-28.367 I-0.317 J-0.011
G1 X-219.683 Y-28.424 Z-0.992
X-219.722 Y-28.478 Z-0.969
X-219.758 Y-28.527 Z-0.931
X-219.788 Y-28.567 Z-0.88
X-219.81 Y-28.598 Z-0.82
X-219.824 Y-28.616 Z-0.753
X-219.829 Y-28.623 Z-0.683
G0 Z15

(2D-Kontur32)
X-225.43 Y-29.617
Z15
Z5
G1 Z3.2 F333.3
Z2.5
S5000
X-225.181 Y-29.865 Z2.488
X-225.158 Y-29.88 Z2.487
X-225.13 Y-29.883 Z2.486
X-225.104 Y-29.874 Z2.485
X-225.084 Y-29.854 Z2.484
X-225.075 Y-29.828 Z2.483
X-225.078 Y-29.8 Z2.482
X-225.092 Y-29.776 Z2.481
X-226.153 Y-28.716 Z2.428
X-226.174 Y-28.702
X-226.198 Y-28.697 Z2.427
X-226.222 Y-28.702 Z2.426
X-226.242 Y-28.716 Z2.425
X-226.255 Y-28.736 Z2.424
X-226.26 Y-28.76 Z2.423
X-226.255 Y-28.784 Z2.422
X-226.242 Y-28.804
X-226.241 Y-28.805
X-225.181 Y-29.865 Z2.369
X-225.158 Y-29.88 Z2.368
X-225.13 Y-29.883 Z2.367
X-225.104 Y-29.874 Z2.366
X-225.084 Y-29.854 Z2.365
X-225.075 Y-29.828 Z2.364
X-225.078 Y-29.8 Z2.363
X-225.092 Y-29.776 Z2.362
X-226.153 Y-28.716 Z2.31
X-226.174 Y-28.702 Z2.309
X-226.198 Y-28.697 Z2.308
X-226.222 Y-28.702 Z2.307
X-226.242 Y-28.716
X-226.255 Y-28.736 Z2.306
X-226.26 Y-28.76 Z2.305
X-226.255 Y-28.784 Z2.304
X-226.242 Y-28.804 Z2.303
X-226.241 Y-28.805
X-225.181 Y-29.865 Z2.251
X-225.158 Y-29.88 Z2.25
X-225.13 Y-29.883 Z2.249
X-225.104 Y-29.874 Z2.248
X-225.084 Y-29.854 Z2.247
X-225.075 Y-29.828 Z2.246
X-225.078 Y-29.8 Z2.245
X-225.092 Y-29.776 Z2.244
X-226.153 Y-28.716 Z2.191
X-226.174 Y-28.702
X-226.198 Y-28.697 Z2.19
X-226.222 Y-28.702 Z2.189
X-226.242 Y-28.716 Z2.188
X-226.255 Y-28.736 Z2.187
X-226.26 Y-28.76 Z2.186
X-226.255 Y-28.784 Z2.185
X-226.242 Y-28.804
X-226.241 Y-28.805
X-225.181 Y-29.865 Z2.132
X-225.158 Y-29.88 Z2.131
X-225.13 Y-29.883 Z2.13
X-225.104 Y-29.874 Z2.129
X-225.084 Y-29.854 Z2.128
X-225.075 Y-29.828 Z2.127
X-225.078 Y-29.8 Z2.126
X-225.092 Y-29.776 Z2.125
X-226.153 Y-28.716 Z2.073
X-226.174 Y-28.702 Z2.072
X-226.198 Y-28.697 Z2.071
X-226.222 Y-28.702 Z2.07
X-226.242 Y-28.716
X-226.255 Y-28.736 Z2.069
X-226.26 Y-28.76 Z2.068
X-226.255 Y-28.784 Z2.067
X-226.242 Y-28.804 Z2.066
X-226.241 Y-28.805
X-225.181 Y-29.865 Z2.014
X-225.158 Y-29.88 Z2.013
X-225.13 Y-29.883 Z2.012
X-225.104 Y-29.874 Z2.011
X-225.084 Y-29.854 Z2.01
X-225.075 Y-29.828 Z2.009
X-225.078 Y-29.8 Z2.008
X-225.092 Y-29.776 Z2.007
X-226.153 Y-28.716 Z1.954
X-226.174 Y-28.702
X-226.198 Y-28.697 Z1.953
X-226.222 Y-28.702 Z1.952
X-226.242 Y-28.716 Z1.951
X-226.255 Y-28.736 Z1.95
X-226.26 Y-28.76 Z1.949
X-226.255 Y-28.784 Z1.948
X-226.242 Y-28.804
X-226.241 Y-28.805
X-225.181 Y-29.865 Z1.895
X-225.158 Y-29.88 Z1.894
X-225.13 Y-29.883 Z1.893
X-225.104 Y-29.874 Z1.892
X-225.084 Y-29.854 Z1.891
X-225.075 Y-29.828 Z1.89
X-225.078 Y-29.8 Z1.889
X-225.092 Y-29.776 Z1.888
X-226.153 Y-28.716 Z1.836
X-226.174 Y-28.702 Z1.835
X-226.198 Y-28.697 Z1.834
X-226.222 Y-28.702 Z1.833
X-226.242 Y-28.716
X-226.255 Y-28.736 Z1.832
X-226.26 Y-28.76 Z1.831
X-226.255 Y-28.784 Z1.83
X-226.242 Y-28.804 Z1.829
X-226.241 Y-28.805
X-225.181 Y-29.865 Z1.777
X-225.158 Y-29.88 Z1.776
X-225.13 Y-29.883 Z1.775
X-225.104 Y-29.874 Z1.774
X-225.084 Y-29.854 Z1.773
X-225.075 Y-29.828 Z1.772
X-225.078 Y-29.8 Z1.771
X-225.092 Y-29.776 Z1.77
X-226.153 Y-28.716 Z1.717
X-226.174 Y-28.702
X-226.198 Y-28.697 Z1.716
X-226.222 Y-28.702 Z1.715
X-226.242 Y-28.716 Z1.714
X-226.255 Y-28.736 Z1.713
X-226.26 Y-28.76 Z1.712
X-226.255 Y-28.784 Z1.711
X-226.242 Y-28.804
X-226.241 Y-28.805
X-225.181 Y-29.865 Z1.658
X-225.158 Y-29.88 Z1.657
X-225.13 Y-29.883 Z1.656
X-225.104 Y-29.874 Z1.655
X-225.084 Y-29.854 Z1.654
X-225.075 Y-29.828 Z1.653
X-225.078 Y-29.8 Z1.652
X-225.092 Y-29.776 Z1.651
X-226.153 Y-28.716 Z1.599
X-226.174 Y-28.702 Z1.598
X-226.198 Y-28.697 Z1.597
X-226.222 Y-28.702 Z1.596
X-226.242 Y-28.716
X-226.255 Y-28.736 Z1.595
X-226.26 Y-28.76 Z1.594
X-226.255 Y-28.784 Z1.593
X-226.242 Y-28.804 Z1.592
X-226.241 Y-28.805
X-225.181 Y-29.865 Z1.54
X-225.158 Y-29.88 Z1.539
X-225.13 Y-29.883 Z1.538
X-225.104 Y-29.874 Z1.537
X-225.084 Y-29.854 Z1.536
X-225.075 Y-29.828 Z1.535
X-225.078 Y-29.8 Z1.534
X-225.092 Y-29.776 Z1.533
X-226.153 Y-28.716 Z1.48
X-226.174 Y-28.702
X-226.198 Y-28.697 Z1.479
X-226.222 Y-28.702 Z1.478
X-226.242 Y-28.716 Z1.477
X-226.255 Y-28.736 Z1.476
X-226.26 Y-28.76 Z1.475
X-226.255 Y-28.784 Z1.474
X-226.242 Y-28.804
X-226.241 Y-28.805
X-225.181 Y-29.865 Z1.421
X-225.158 Y-29.88 Z1.42
X-225.13 Y-29.883 Z1.419
X-225.104 Y-29.874 Z1.418
X-225.084 Y-29.854 Z1.417
X-225.075 Y-29.828 Z1.416
X-225.078 Y-29.8 Z1.415
X-225.092 Y-29.776 Z1.414
X-226.153 Y-28.716 Z1.362
X-226.174 Y-28.702 Z1.361
X-226.198 Y-28.697 Z1.36
X-226.222 Y-28.702 Z1.359
X-226.242 Y-28.716
X-226.255 Y-28.736 Z1.358
X-226.26 Y-28.76 Z1.357
X-226.255 Y-28.784 Z1.356
X-226.242 Y-28.804 Z1.355
X-226.241 Y-28.805
X-225.181 Y-29.865 Z1.303
X-225.158 Y-29.88 Z1.302
X-225.13 Y-29.883 Z1.301
X-225.104 Y-29.874 Z1.3
X-225.084 Y-29.854 Z1.299
X-225.075 Y-29.828 Z1.298
X-225.078 Y-29.8 Z1.297
X-225.092 Y-29.776 Z1.296
X-226.153 Y-28.716 Z1.243
X-226.174 Y-28.702
X-226.198 Y-28.697 Z1.242
X-226.222 Y-28.702 Z1.241
X-226.242 Y-28.716 Z1.24
X-226.255 Y-28.736 Z1.239
X-226.26 Y-28.76 Z1.238
X-226.255 Y-28.784 Z1.237
X-226.242 Y-28.804
X-226.241 Y-28.805
X-225.181 Y-29.865 Z1.184
X-225.158 Y-29.88 Z1.183
X-225.13 Y-29.883 Z1.182
X-225.104 Y-29.874 Z1.181
X-225.084 Y-29.854 Z1.18
X-225.075 Y-29.828 Z1.179
X-225.078 Y-29.8 Z1.178
X-225.092 Y-29.776 Z1.177
X-226.153 Y-28.716 Z1.125
X-226.174 Y-28.702 Z1.124
X-226.198 Y-28.697 Z1.123
X-226.222 Y-28.702 Z1.122
X-226.242 Y-28.716
X-226.255 Y-28.736 Z1.121
X-226.26 Y-28.76 Z1.12
X-226.255 Y-28.784 Z1.119
X-226.242 Y-28.804 Z1.118
X-226.241 Y-28.805
X-225.181 Y-29.865 Z1.066
X-225.158 Y-29.88 Z1.065
X-225.13 Y-29.883 Z1.064
X-225.104 Y-29.874 Z1.063
X-225.084 Y-29.854 Z1.062
X-225.075 Y-29.828 Z1.061
X-225.078 Y-29.8 Z1.06
X-225.092 Y-29.776 Z1.059
X-226.153 Y-28.716 Z1.006
X-226.174 Y-28.702
X-226.198 Y-28.697 Z1.005
X-226.222 Y-28.702 Z1.004
X-226.242 Y-28.716 Z1.003
X-226.255 Y-28.736 Z1.002
X-226.26 Y-28.76 Z1.001
X-226.255 Y-28.784 Z1
X-226.242 Y-28.804
X-226.241 Y-28.805
X-225.181 Y-29.865 Z0.947
X-225.158 Y-29.88 Z0.946
X-225.13 Y-29.883 Z0.945
X-225.104 Y-29.874 Z0.944
X-225.084 Y-29.854 Z0.943
X-225.075 Y-29.828 Z0.942
X-225.078 Y-29.8 Z0.941
X-225.092 Y-29.776 Z0.94
X-226.153 Y-28.716 Z0.888
X-226.174 Y-28.702 Z0.887
X-226.198 Y-28.697 Z0.886
X-226.222 Y-28.702 Z0.885
X-226.242 Y-28.716
X-226.255 Y-28.736 Z0.884
X-226.26 Y-28.76 Z0.883
X-226.255 Y-28.784 Z0.882
X-226.242 Y-28.804 Z0.881
X-226.241 Y-28.805
X-225.181 Y-29.865 Z0.829
X-225.158 Y-29.88 Z0.828
X-225.13 Y-29.883 Z0.827
X-225.104 Y-29.874 Z0.826
X-225.084 Y-29.854 Z0.825
X-225.075 Y-29.828 Z0.824
X-225.078 Y-29.8 Z0.823
X-225.092 Y-29.776 Z0.822
X-226.153 Y-28.716 Z0.769
X-226.174 Y-28.702
X-226.198 Y-28.697 Z0.768
X-226.222 Y-28.702 Z0.767
X-226.242 Y-28.716 Z0.766
X-226.255 Y-28.736 Z0.765
X-226.26 Y-28.76 Z0.764
X-226.255 Y-28.784 Z0.763
X-226.242 Y-28.804
X-226.241 Y-28.805
X-225.181 Y-29.865 Z0.71
X-225.158 Y-29.88 Z0.709
X-225.13 Y-29.883 Z0.708
X-225.104 Y-29.874 Z0.707
X-225.084 Y-29.854 Z0.706
X-225.075 Y-29.828 Z0.705
X-225.078 Y-29.8 Z0.704
X-225.092 Y-29.776 Z0.703
X-226.153 Y-28.716 Z0.651
X-226.174 Y-28.702 Z0.65
X-226.198 Y-28.697 Z0.649
X-226.222 Y-28.702 Z0.648
X-226.242 Y-28.716
X-226.255 Y-28.736 Z0.647
X-226.26 Y-28.76 Z0.646
X-226.255 Y-28.784 Z0.645
X-226.242 Y-28.804 Z0.644
X-226.241 Y-28.805
X-225.181 Y-29.865 Z0.592
X-225.158 Y-29.88 Z0.591
X-225.13 Y-29.883 Z0.59
X-225.104 Y-29.874 Z0.589
X-225.084 Y-29.854 Z0.588
X-225.075 Y-29.828 Z0.587
X-225.078 Y-29.8 Z0.586
X-225.092 Y-29.776 Z0.585
X-226.153 Y-28.716 Z0.532
X-226.174 Y-28.702
X-226.198 Y-28.697 Z0.531
X-226.222 Y-28.702 Z0.53
X-226.242 Y-28.716 Z0.529
X-226.255 Y-28.736 Z0.528
X-226.26 Y-28.76 Z0.527
X-226.255 Y-28.784 Z0.526
X-226.242 Y-28.804
X-226.241 Y-28.805
X-225.181 Y-29.865 Z0.473
X-225.158 Y-29.88 Z0.472
X-225.13 Y-29.883 Z0.471
X-225.104 Y-29.874 Z0.47
X-225.084 Y-29.854 Z0.469
X-225.075 Y-29.828 Z0.468
X-225.078 Y-29.8 Z0.467
X-225.092 Y-29.776 Z0.466
X-226.153 Y-28.716 Z0.414
X-226.174 Y-28.702 Z0.413
X-226.198 Y-28.697 Z0.412
X-226.222 Y-28.702 Z0.411
X-226.242 Y-28.716
X-226.255 Y-28.736 Z0.41
X-226.26 Y-28.76 Z0.409
X-226.255 Y-28.784 Z0.408
X-226.242 Y-28.804 Z0.407
X-226.241 Y-28.805
X-225.181 Y-29.865 Z0.355
X-225.158 Y-29.88 Z0.354
X-225.13 Y-29.883 Z0.353
X-225.104 Y-29.874 Z0.352
X-225.084 Y-29.854 Z0.351
X-225.075 Y-29.828 Z0.35
X-225.078 Y-29.8 Z0.349
X-225.092 Y-29.776 Z0.348
X-226.153 Y-28.716 Z0.295
X-226.174 Y-28.702
X-226.198 Y-28.697 Z0.294
X-226.222 Y-28.702 Z0.293
X-226.242 Y-28.716 Z0.292
X-226.255 Y-28.736 Z0.291
X-226.26 Y-28.76 Z0.29
X-226.255 Y-28.784 Z0.289
X-226.242 Y-28.804
X-226.241 Y-28.805
X-225.181 Y-29.865 Z0.236
X-225.158 Y-29.88 Z0.235
X-225.13 Y-29.883 Z0.234
X-225.104 Y-29.874 Z0.233
X-225.084 Y-29.854 Z0.232
X-225.075 Y-29.828 Z0.231
X-225.078 Y-29.8 Z0.23
X-225.092 Y-29.776 Z0.229
X-226.153 Y-28.716 Z0.177
X-226.174 Y-28.702 Z0.176
X-226.198 Y-28.697 Z0.175
X-226.222 Y-28.702 Z0.174
X-226.242 Y-28.716
X-226.255 Y-28.736 Z0.173
X-226.26 Y-28.76 Z0.172
X-226.255 Y-28.784 Z0.171
X-226.242 Y-28.804 Z0.17
X-226.241 Y-28.805
X-225.181 Y-29.865 Z0.118
X-225.158 Y-29.88 Z0.117
X-225.13 Y-29.883 Z0.116
X-225.104 Y-29.874 Z0.115
X-225.084 Y-29.854 Z0.114
X-225.075 Y-29.828 Z0.113
X-225.078 Y-29.8 Z0.112
X-225.092 Y-29.776 Z0.111
X-226.153 Y-28.716 Z0.058
X-226.174 Y-28.702
X-226.198 Y-28.697 Z0.057
X-226.222 Y-28.702 Z0.056
X-226.242 Y-28.716 Z0.055
X-226.255 Y-28.736 Z0.054
X-226.26 Y-28.76 Z0.053
X-226.255 Y-28.784 Z0.052
X-226.242 Y-28.804
X-226.241 Y-28.805
X-225.181 Y-29.865 Z-0.001
X-225.158 Y-29.88 Z-0.002
X-225.13 Y-29.883 Z-0.003
X-225.104 Y-29.874 Z-0.004
X-225.084 Y-29.854 Z-0.005
X-225.075 Y-29.828 Z-0.006
X-225.078 Y-29.8 Z-0.007
X-225.092 Y-29.776 Z-0.008
X-226.153 Y-28.716 Z-0.06
X-226.174 Y-28.702 Z-0.061
X-226.198 Y-28.697 Z-0.062
X-226.222 Y-28.702 Z-0.063
X-226.242 Y-28.716
X-226.255 Y-28.736 Z-0.064
X-226.26 Y-28.76 Z-0.065
X-226.255 Y-28.784 Z-0.066
X-226.242 Y-28.804 Z-0.067
X-226.241 Y-28.805
X-225.181 Y-29.865 Z-0.119
X-225.158 Y-29.88 Z-0.12
X-225.13 Y-29.883 Z-0.121
X-225.104 Y-29.874 Z-0.122
X-225.084 Y-29.854 Z-0.123
X-225.075 Y-29.828 Z-0.124
X-225.078 Y-29.8 Z-0.125
X-225.092 Y-29.776 Z-0.126
X-226.153 Y-28.716 Z-0.179
X-226.174 Y-28.702
X-226.198 Y-28.697 Z-0.18
X-226.222 Y-28.702 Z-0.181
X-226.242 Y-28.716 Z-0.182
X-226.255 Y-28.736 Z-0.183
X-226.26 Y-28.76 Z-0.184
X-226.255 Y-28.784 Z-0.185
X-226.242 Y-28.804
X-226.241 Y-28.805
X-225.181 Y-29.865 Z-0.238
X-225.158 Y-29.88 Z-0.239
X-225.13 Y-29.883 Z-0.24
X-225.104 Y-29.874 Z-0.241
X-225.084 Y-29.854 Z-0.242
X-225.075 Y-29.828 Z-0.243
X-225.078 Y-29.8 Z-0.244
X-225.092 Y-29.776 Z-0.245
X-226.153 Y-28.716 Z-0.297
X-226.174 Y-28.702 Z-0.298
X-226.198 Y-28.697 Z-0.299
X-226.222 Y-28.702 Z-0.3
X-226.242 Y-28.716 Z-0.301
X-226.255 Y-28.736
X-226.26 Y-28.76 Z-0.302
X-226.255 Y-28.784 Z-0.303
X-226.242 Y-28.804 Z-0.304
X-226.241 Y-28.805
X-225.181 Y-29.865 Z-0.356
X-225.158 Y-29.88 Z-0.357
X-225.13 Y-29.883 Z-0.358
X-225.104 Y-29.874 Z-0.359
X-225.084 Y-29.854 Z-0.36
X-225.075 Y-29.828 Z-0.361
X-225.078 Y-29.8 Z-0.362
X-225.092 Y-29.776 Z-0.363
X-226.153 Y-28.716 Z-0.416
X-226.174 Y-28.702
X-226.198 Y-28.697 Z-0.417
X-226.222 Y-28.702 Z-0.418
X-226.242 Y-28.716 Z-0.419
X-226.255 Y-28.736 Z-0.42
X-226.26 Y-28.76 Z-0.421
X-226.255 Y-28.784 Z-0.422
X-226.242 Y-28.804
X-226.241 Y-28.805
X-225.181 Y-29.865 Z-0.475
X-225.158 Y-29.88 Z-0.476
X-225.13 Y-29.883 Z-0.477
X-225.104 Y-29.874 Z-0.478
X-225.084 Y-29.854 Z-0.479
X-225.075 Y-29.828 Z-0.48
X-225.078 Y-29.8 Z-0.481
X-225.092 Y-29.776 Z-0.482
X-226.153 Y-28.716 Z-0.534
X-226.174 Y-28.702 Z-0.535
X-226.198 Y-28.697 Z-0.536
X-226.222 Y-28.702 Z-0.537
X-226.242 Y-28.716 Z-0.538
X-226.255 Y-28.736
X-226.26 Y-28.76 Z-0.539
X-226.255 Y-28.784 Z-0.54
X-226.242 Y-28.804 Z-0.541
X-226.241 Y-28.805
X-225.181 Y-29.865 Z-0.593
X-225.158 Y-29.88 Z-0.594
X-225.13 Y-29.883 Z-0.595
X-225.104 Y-29.874 Z-0.596
X-225.084 Y-29.854 Z-0.597
X-225.075 Y-29.828 Z-0.598
X-225.078 Y-29.8 Z-0.599
X-225.092 Y-29.776 Z-0.6
X-226.153 Y-28.716 Z-0.653
X-226.174 Y-28.702
X-226.198 Y-28.697 Z-0.654
X-226.222 Y-28.702 Z-0.655
X-226.242 Y-28.716 Z-0.656
X-226.255 Y-28.736 Z-0.657
X-226.26 Y-28.76 Z-0.658
X-226.255 Y-28.784 Z-0.659
X-226.242 Y-28.804
X-226.241 Y-28.805
X-225.181 Y-29.865 Z-0.712
X-225.158 Y-29.88 Z-0.713
X-225.13 Y-29.883 Z-0.714
X-225.104 Y-29.874 Z-0.715
X-225.084 Y-29.854 Z-0.716
X-225.075 Y-29.828 Z-0.717
X-225.078 Y-29.8 Z-0.718
X-225.092 Y-29.776 Z-0.719
X-226.153 Y-28.716 Z-0.771
X-226.174 Y-28.702 Z-0.772
X-226.198 Y-28.697 Z-0.773
X-226.222 Y-28.702 Z-0.774
X-226.242 Y-28.716 Z-0.775
X-226.255 Y-28.736
X-226.26 Y-28.76 Z-0.776
X-226.255 Y-28.784 Z-0.777
X-226.242 Y-28.804 Z-0.778
X-226.241 Y-28.805
X-225.181 Y-29.865 Z-0.83
X-225.158 Y-29.88 Z-0.831
X-225.13 Y-29.883 Z-0.832
X-225.104 Y-29.874 Z-0.833
X-225.084 Y-29.854 Z-0.834
X-225.075 Y-29.828 Z-0.835
X-225.078 Y-29.8 Z-0.836
X-225.092 Y-29.776 Z-0.837
X-226.153 Y-28.716 Z-0.89
X-226.174 Y-28.702
X-226.198 Y-28.697 Z-0.891
X-226.222 Y-28.702 Z-0.892
X-226.242 Y-28.716 Z-0.893
X-226.255 Y-28.736 Z-0.894
X-226.26 Y-28.76 Z-0.895
X-226.255 Y-28.784 Z-0.896
X-226.242 Y-28.804
X-226.241 Y-28.805
X-225.181 Y-29.865 Z-0.949
X-225.158 Y-29.88 Z-0.95
X-225.13 Y-29.883 Z-0.951
X-225.104 Y-29.874 Z-0.952
X-225.084 Y-29.854 Z-0.953
X-225.075 Y-29.828 Z-0.954
X-225.078 Y-29.8 Z-0.955
X-225.092 Y-29.776 Z-0.956
X-226.153 Y-28.716 Z-1.008
X-226.174 Y-28.702 Z-1.009
X-226.198 Y-28.697 Z-1.01
X-226.222 Y-28.702 Z-1.011
X-226.242 Y-28.716 Z-1.012
X-226.255 Y-28.736
X-226.26 Y-28.76 Z-1.013
X-226.255 Y-28.784 Z-1.014
X-226.242 Y-28.804 Z-1.015
X-226.241 Y-28.805
X-225.181 Y-29.865 Z-1.067
X-225.158 Y-29.88 Z-1.068
X-225.13 Y-29.883 Z-1.069
X-225.104 Y-29.874 Z-1.07
X-225.084 Y-29.854 Z-1.071
X-225.075 Y-29.828 Z-1.072
X-225.078 Y-29.8 Z-1.073
X-225.092 Y-29.776 Z-1.074
X-226.153 Y-28.716 Z-1.127
X-226.174 Y-28.702
X-226.198 Y-28.697 Z-1.128
X-226.222 Y-28.702 Z-1.129
X-226.242 Y-28.716 Z-1.13
X-226.255 Y-28.736 Z-1.131
X-226.26 Y-28.76 Z-1.132
X-226.255 Y-28.784 Z-1.133
X-226.242 Y-28.804
X-226.241 Y-28.805
X-225.181 Y-29.865 Z-1.186
X-225.158 Y-29.88 Z-1.187
X-225.13 Y-29.883 Z-1.188
X-225.104 Y-29.874 Z-1.189
X-225.084 Y-29.854 Z-1.19
X-225.075 Y-29.828 Z-1.191
X-225.078 Y-29.8 Z-1.192
X-225.092 Y-29.776 Z-1.193
X-226.153 Y-28.716 Z-1.245
X-226.174 Y-28.702 Z-1.246
X-226.198 Y-28.697 Z-1.247
X-226.222 Y-28.702 Z-1.248
X-226.242 Y-28.716 Z-1.249
X-226.255 Y-28.736
X-226.26 Y-28.76 Z-1.25
X-226.255 Y-28.784 Z-1.251
X-226.242 Y-28.804 Z-1.252
X-226.241 Y-28.805
X-225.181 Y-29.865 Z-1.304
X-225.158 Y-29.88 Z-1.305
X-225.13 Y-29.883 Z-1.306
X-225.104 Y-29.874 Z-1.307
X-225.084 Y-29.854 Z-1.308
X-225.075 Y-29.828 Z-1.309
X-225.078 Y-29.8 Z-1.31
X-225.092 Y-29.776 Z-1.311
X-226.153 Y-28.716 Z-1.364
X-226.174 Y-28.702
X-226.198 Y-28.697 Z-1.365
X-226.222 Y-28.702 Z-1.366
X-226.242 Y-28.716 Z-1.367
X-226.255 Y-28.736 Z-1.368
X-226.26 Y-28.76 Z-1.369
X-226.255 Y-28.784 Z-1.37
X-226.242 Y-28.804
X-226.241 Y-28.805
X-225.181 Y-29.865 Z-1.423
X-225.158 Y-29.88 Z-1.424
X-225.13 Y-29.883 Z-1.425
X-225.104 Y-29.874 Z-1.426
X-225.084 Y-29.854 Z-1.427
X-225.075 Y-29.828 Z-1.428
X-225.078 Y-29.8 Z-1.429
X-225.092 Y-29.776 Z-1.43
X-226.153 Y-28.716 Z-1.482
X-226.174 Y-28.702 Z-1.483
X-226.198 Y-28.697 Z-1.484
X-226.222 Y-28.702 Z-1.485
X-226.242 Y-28.716 Z-1.486
X-226.255 Y-28.736
X-226.26 Y-28.76 Z-1.487
X-226.255 Y-28.784 Z-1.488
X-226.242 Y-28.804 Z-1.489
X-226.241 Y-28.805
X-225.181 Y-29.865 Z-1.541
X-225.158 Y-29.88 Z-1.542
X-225.13 Y-29.883 Z-1.543
X-225.104 Y-29.874 Z-1.544
X-225.084 Y-29.854 Z-1.545
X-225.075 Y-29.828 Z-1.546
X-225.078 Y-29.8 Z-1.547
X-225.092 Y-29.776 Z-1.548
X-226.153 Y-28.716 Z-1.601
X-226.174 Y-28.702
X-226.198 Y-28.697 Z-1.602
X-226.222 Y-28.702 Z-1.603
X-226.242 Y-28.716 Z-1.604
X-226.255 Y-28.736 Z-1.605
X-226.26 Y-28.76 Z-1.606
X-226.255 Y-28.784 Z-1.607
X-226.242 Y-28.804
X-226.241 Y-28.805
X-225.181 Y-29.865 Z-1.66
X-225.158 Y-29.88 Z-1.661
X-225.13 Y-29.883 Z-1.662
X-225.104 Y-29.874 Z-1.663
X-225.084 Y-29.854 Z-1.664
X-225.075 Y-29.828 Z-1.665
X-225.078 Y-29.8 Z-1.666
X-225.092 Y-29.776 Z-1.667
X-226.153 Y-28.716 Z-1.719
X-226.174 Y-28.702 Z-1.72
X-226.198 Y-28.697 Z-1.721
X-226.222 Y-28.702 Z-1.722
X-226.242 Y-28.716 Z-1.723
X-226.255 Y-28.736
X-226.26 Y-28.76 Z-1.724
X-226.255 Y-28.784 Z-1.725
X-226.242 Y-28.804 Z-1.726
X-226.241 Y-28.805
X-225.181 Y-29.865 Z-1.778
X-225.158 Y-29.88 Z-1.779
X-225.13 Y-29.883 Z-1.78
X-225.104 Y-29.874 Z-1.781
X-225.084 Y-29.854 Z-1.782
X-225.075 Y-29.828 Z-1.783
X-225.078 Y-29.8 Z-1.784
X-225.092 Y-29.776 Z-1.785
X-226.153 Y-28.716 Z-1.838
X-226.174 Y-28.702
X-226.198 Y-28.697 Z-1.839
X-226.222 Y-28.702 Z-1.84
X-226.242 Y-28.716 Z-1.841
X-226.255 Y-28.736 Z-1.842
X-226.26 Y-28.76 Z-1.843
X-226.255 Y-28.784 Z-1.844
X-226.242 Y-28.804
X-226.241 Y-28.805
X-225.181 Y-29.865 Z-1.897
X-225.158 Y-29.88 Z-1.898
X-225.13 Y-29.883 Z-1.899
X-225.104 Y-29.874 Z-1.9
X-225.084 Y-29.854 Z-1.901
X-225.075 Y-29.828 Z-1.902
X-225.078 Y-29.8 Z-1.903
X-225.092 Y-29.776 Z-1.904
X-226.153 Y-28.716 Z-1.956
X-226.174 Y-28.702 Z-1.957
X-226.198 Y-28.697 Z-1.958
X-226.222 Y-28.702 Z-1.959
X-226.242 Y-28.716 Z-1.96
X-226.255 Y-28.736
X-226.26 Y-28.76 Z-1.961
X-226.255 Y-28.784 Z-1.962
X-226.242 Y-28.804 Z-1.963
X-226.241 Y-28.805
X-225.181 Y-29.865 Z-2.015
X-225.158 Y-29.88 Z-2.016
X-225.13 Y-29.883 Z-2.017
X-225.104 Y-29.874 Z-2.018
X-225.084 Y-29.854 Z-2.019
X-225.075 Y-29.828 Z-2.02
X-225.078 Y-29.8 Z-2.021
X-225.092 Y-29.776 Z-2.022
X-226.153 Y-28.716 Z-2.075
X-226.174 Y-28.702
X-226.198 Y-28.697 Z-2.076
X-226.222 Y-28.702 Z-2.077
X-226.242 Y-28.716 Z-2.078
X-226.255 Y-28.736 Z-2.079
X-226.26 Y-28.76 Z-2.08
X-226.255 Y-28.784 Z-2.081
X-226.242 Y-28.804
X-226.241 Y-28.805
X-225.181 Y-29.865 Z-2.134
X-225.158 Y-29.88 Z-2.135
X-225.13 Y-29.883 Z-2.136
X-225.104 Y-29.874 Z-2.137
X-225.084 Y-29.854 Z-2.138
X-225.075 Y-29.828 Z-2.139
X-225.078 Y-29.8 Z-2.14
X-225.092 Y-29.776 Z-2.141
X-226.153 Y-28.716 Z-2.193
X-226.174 Y-28.702 Z-2.194
X-226.198 Y-28.697 Z-2.195
X-226.222 Y-28.702 Z-2.196
X-226.242 Y-28.716 Z-2.197
X-226.255 Y-28.736
X-226.26 Y-28.76 Z-2.198
X-226.255 Y-28.784 Z-2.199
X-226.242 Y-28.804 Z-2.2
X-226.241 Y-28.805
S6000
X-225.181 Y-29.865 F1000
X-225.158 Y-29.88
X-225.13 Y-29.883
X-225.104 Y-29.874
X-225.084 Y-29.854
X-225.075 Y-29.828
X-225.078 Y-29.8
X-225.092 Y-29.776
X-226.153 Y-28.716
X-226.174 Y-28.702
X-226.198 Y-28.697
X-226.222 Y-28.702
X-226.242 Y-28.716
X-226.255 Y-28.736
X-226.26 Y-28.76
X-226.255 Y-28.784
X-226.242 Y-28.804
X-226.241 Y-28.805
S5000
X-225.181 Y-29.865 Z-2.252 F333.3
X-225.158 Y-29.88 Z-2.253
X-225.13 Y-29.883 Z-2.254
X-225.104 Y-29.874 Z-2.255
X-225.084 Y-29.854 Z-2.256
X-225.075 Y-29.828 Z-2.257
X-225.078 Y-29.8 Z-2.258
X-225.092 Y-29.776 Z-2.259
X-226.153 Y-28.716 Z-2.312
X-226.174 Y-28.702
X-226.198 Y-28.697 Z-2.313
X-226.222 Y-28.702 Z-2.314
X-226.242 Y-28.716 Z-2.315
X-226.255 Y-28.736 Z-2.316
X-226.26 Y-28.76 Z-2.317
X-226.255 Y-28.784 Z-2.318
X-226.242 Y-28.804
X-226.241 Y-28.805 Z-2.319
X-225.181 Y-29.865 Z-2.371
X-225.158 Y-29.88 Z-2.372
X-225.13 Y-29.883 Z-2.373
X-225.104 Y-29.874 Z-2.374
X-225.084 Y-29.854 Z-2.375
X-225.075 Y-29.828 Z-2.376
X-225.078 Y-29.8 Z-2.377
X-225.092 Y-29.776 Z-2.378
X-226.153 Y-28.716 Z-2.43
X-226.174 Y-28.702 Z-2.431
X-226.198 Y-28.697 Z-2.432
X-226.222 Y-28.702 Z-2.433
X-226.242 Y-28.716 Z-2.434
X-226.255 Y-28.736
X-226.26 Y-28.76 Z-2.435
X-226.255 Y-28.784 Z-2.436
X-226.242 Y-28.804 Z-2.437
X-226.241 Y-28.805
X-225.181 Y-29.865 Z-2.489
X-225.158 Y-29.88 Z-2.49
X-225.13 Y-29.883 Z-2.491
X-225.104 Y-29.874 Z-2.492
X-225.084 Y-29.854 Z-2.493
X-225.075 Y-29.828 Z-2.494
X-225.078 Y-29.8 Z-2.495
X-225.092 Y-29.776 Z-2.496
X-226.153 Y-28.716 Z-2.549
X-226.174 Y-28.702
X-226.198 Y-28.697 Z-2.55
X-226.222 Y-28.702 Z-2.551
X-226.242 Y-28.716 Z-2.552
X-226.255 Y-28.736 Z-2.553
X-226.26 Y-28.76 Z-2.554
X-226.255 Y-28.784 Z-2.555
X-226.242 Y-28.804
X-226.241 Y-28.805 Z-2.556
X-225.181 Y-29.865 Z-2.608
X-225.158 Y-29.88 Z-2.609
X-225.13 Y-29.883 Z-2.61
X-225.104 Y-29.874 Z-2.611
X-225.084 Y-29.854 Z-2.612
X-225.075 Y-29.828 Z-2.613
X-225.078 Y-29.8 Z-2.614
X-225.092 Y-29.776 Z-2.615
X-226.153 Y-28.716 Z-2.667
X-226.174 Y-28.702 Z-2.668
X-226.198 Y-28.697 Z-2.669
X-226.222 Y-28.702 Z-2.67
X-226.242 Y-28.716 Z-2.671
X-226.255 Y-28.736
X-226.26 Y-28.76 Z-2.672
X-226.255 Y-28.784 Z-2.673
X-226.242 Y-28.804 Z-2.674
X-226.241 Y-28.805
X-225.181 Y-29.865 Z-2.726
X-225.158 Y-29.88 Z-2.727
X-225.13 Y-29.883 Z-2.728
X-225.104 Y-29.874 Z-2.729
X-225.084 Y-29.854 Z-2.73
X-225.075 Y-29.828 Z-2.731
X-225.078 Y-29.8 Z-2.732
X-225.092 Y-29.776 Z-2.733
X-226.153 Y-28.716 Z-2.786
X-226.174 Y-28.702
X-226.198 Y-28.697 Z-2.787
X-226.222 Y-28.702 Z-2.788
X-226.242 Y-28.716 Z-2.789
X-226.255 Y-28.736 Z-2.79
X-226.26 Y-28.76 Z-2.791
X-226.255 Y-28.784 Z-2.792
X-226.242 Y-28.804
X-226.241 Y-28.805 Z-2.793
X-225.181 Y-29.865 Z-2.845
X-225.158 Y-29.88 Z-2.846
X-225.13 Y-29.883 Z-2.847
X-225.104 Y-29.874 Z-2.848
X-225.084 Y-29.854 Z-2.849
X-225.075 Y-29.828 Z-2.85
X-225.078 Y-29.8 Z-2.851
X-225.092 Y-29.776 Z-2.852
X-226.153 Y-28.716 Z-2.904
X-226.174 Y-28.702 Z-2.905
X-226.198 Y-28.697 Z-2.906
X-226.222 Y-28.702 Z-2.907
X-226.242 Y-28.716 Z-2.908
X-226.255 Y-28.736
X-226.26 Y-28.76 Z-2.909
X-226.255 Y-28.784 Z-2.91
X-226.242 Y-28.804 Z-2.911
X-226.241 Y-28.805
X-225.181 Y-29.865 Z-2.963
X-225.158 Y-29.88 Z-2.964
X-225.13 Y-29.883 Z-2.965
X-225.104 Y-29.874 Z-2.966
X-225.084 Y-29.854 Z-2.967
X-225.075 Y-29.828 Z-2.968
X-225.078 Y-29.8 Z-2.969
X-225.092 Y-29.776 Z-2.97
X-226.153 Y-28.716 Z-3.023
X-226.174 Y-28.702
X-226.198 Y-28.697 Z-3.024
X-226.222 Y-28.702 Z-3.025
X-226.242 Y-28.716 Z-3.026
X-226.255 Y-28.736 Z-3.027
X-226.26 Y-28.76 Z-3.028
X-226.255 Y-28.784 Z-3.029
X-226.242 Y-28.804
X-226.241 Y-28.805 Z-3.03
X-225.181 Y-29.865 Z-3.082
X-225.158 Y-29.88 Z-3.083
X-225.13 Y-29.883 Z-3.084
X-225.104 Y-29.874 Z-3.085
X-225.084 Y-29.854 Z-3.086
X-225.075 Y-29.828 Z-3.087
X-225.078 Y-29.8 Z-3.088
X-225.092 Y-29.776 Z-3.089
X-226.153 Y-28.716 Z-3.141
X-226.174 Y-28.702 Z-3.142
X-226.198 Y-28.697 Z-3.143
X-226.222 Y-28.702 Z-3.144
X-226.242 Y-28.716 Z-3.145
X-226.255 Y-28.736
X-226.26 Y-28.76 Z-3.146
X-226.255 Y-28.784 Z-3.147
X-226.242 Y-28.804 Z-3.148
X-226.241 Y-28.805
X-225.181 Y-29.865 Z-3.2
X-225.158 Y-29.88 Z-3.201
X-225.13 Y-29.883 Z-3.202
X-225.104 Y-29.874 Z-3.203
X-225.084 Y-29.854 Z-3.204
X-225.075 Y-29.828 Z-3.205
X-225.078 Y-29.8 Z-3.206
X-225.092 Y-29.776 Z-3.207
X-226.153 Y-28.716 Z-3.26
X-226.174 Y-28.702
X-226.198 Y-28.697 Z-3.261
X-226.222 Y-28.702 Z-3.262
X-226.242 Y-28.716 Z-3.263
X-226.255 Y-28.736 Z-3.264
X-226.26 Y-28.76 Z-3.265
X-226.255 Y-28.784 Z-3.266
X-226.242 Y-28.804
X-226.241 Y-28.805 Z-3.267
X-225.181 Y-29.865 Z-3.319
X-225.158 Y-29.88 Z-3.32
X-225.13 Y-29.883 Z-3.321
X-225.104 Y-29.874 Z-3.322
X-225.084 Y-29.854 Z-3.323
X-225.075 Y-29.828 Z-3.324
X-225.078 Y-29.8 Z-3.325
X-225.092 Y-29.776 Z-3.326
X-226.153 Y-28.716 Z-3.378
X-226.174 Y-28.702 Z-3.379
X-226.198 Y-28.697 Z-3.38
X-226.222 Y-28.702 Z-3.381
X-226.242 Y-28.716 Z-3.382
X-226.255 Y-28.736
X-226.26 Y-28.76 Z-3.383
X-226.255 Y-28.784 Z-3.384
X-226.242 Y-28.804 Z-3.385
X-226.241 Y-28.805
X-225.181 Y-29.865 Z-3.437
X-225.158 Y-29.88 Z-3.438
X-225.13 Y-29.883 Z-3.439
X-225.104 Y-29.874 Z-3.44
X-225.084 Y-29.854 Z-3.441
X-225.075 Y-29.828 Z-3.442
X-225.078 Y-29.8 Z-3.443
X-225.092 Y-29.776 Z-3.444
X-226.153 Y-28.716 Z-3.497
X-226.174 Y-28.702
X-226.198 Y-28.697 Z-3.498
X-226.222 Y-28.702 Z-3.499
X-226.242 Y-28.716 Z-3.5
X-226.255 Y-28.736 Z-3.501
X-226.26 Y-28.76 Z-3.502
X-226.255 Y-28.784 Z-3.503
X-226.242 Y-28.804
X-226.241 Y-28.805 Z-3.504
X-225.181 Y-29.865 Z-3.556
X-225.158 Y-29.88 Z-3.557
X-225.13 Y-29.883 Z-3.558
X-225.104 Y-29.874 Z-3.559
X-225.084 Y-29.854 Z-3.56
X-225.075 Y-29.828 Z-3.561
X-225.078 Y-29.8 Z-3.562
X-225.092 Y-29.776 Z-3.563
X-226.153 Y-28.716 Z-3.615
X-226.174 Y-28.702 Z-3.616
X-226.198 Y-28.697 Z-3.617
X-226.222 Y-28.702 Z-3.618
X-226.242 Y-28.716 Z-3.619
X-226.255 Y-28.736
X-226.26 Y-28.76 Z-3.62
X-226.255 Y-28.784 Z-3.621
X-226.242 Y-28.804 Z-3.622
X-226.241 Y-28.805
X-225.181 Y-29.865 Z-3.674
X-225.158 Y-29.88 Z-3.675
X-225.13 Y-29.883 Z-3.676
X-225.104 Y-29.874 Z-3.677
X-225.084 Y-29.854 Z-3.678
X-225.075 Y-29.828 Z-3.679
X-225.078 Y-29.8 Z-3.68
X-225.092 Y-29.776 Z-3.681
X-226.153 Y-28.716 Z-3.734
X-226.174 Y-28.702
X-226.198 Y-28.697 Z-3.735
X-226.222 Y-28.702 Z-3.736
X-226.242 Y-28.716 Z-3.737
X-226.255 Y-28.736 Z-3.738
X-226.26 Y-28.76 Z-3.739
X-226.255 Y-28.784 Z-3.74
X-226.242 Y-28.804
X-226.241 Y-28.805 Z-3.741
X-225.181 Y-29.865 Z-3.793
X-225.158 Y-29.88 Z-3.794
X-225.13 Y-29.883 Z-3.795
X-225.104 Y-29.874 Z-3.796
X-225.084 Y-29.854 Z-3.797
X-225.075 Y-29.828 Z-3.798
X-225.078 Y-29.8 Z-3.799
X-225.092 Y-29.776 Z-3.8
X-226.153 Y-28.716 Z-3.852
X-226.174 Y-28.702 Z-3.853
X-226.198 Y-28.697 Z-3.854
X-226.222 Y-28.702 Z-3.855
X-226.242 Y-28.716 Z-3.856
X-226.255 Y-28.736
X-226.26 Y-28.76 Z-3.857
X-226.255 Y-28.784 Z-3.858
X-226.242 Y-28.804 Z-3.859
X-226.241 Y-28.805
X-225.181 Y-29.865 Z-3.911
X-225.158 Y-29.88 Z-3.912
X-225.13 Y-29.883 Z-3.913
X-225.104 Y-29.874 Z-3.914
X-225.084 Y-29.854 Z-3.915
X-225.075 Y-29.828 Z-3.916
X-225.078 Y-29.8 Z-3.917
X-225.092 Y-29.776 Z-3.918
X-226.153 Y-28.716 Z-3.971
X-226.174 Y-28.702
X-226.198 Y-28.697 Z-3.972
X-226.222 Y-28.702 Z-3.973
X-226.242 Y-28.716 Z-3.974
X-226.255 Y-28.736 Z-3.975
X-226.26 Y-28.76 Z-3.976
X-226.255 Y-28.784 Z-3.977
X-226.242 Y-28.804
X-226.241 Y-28.805 Z-3.978
X-225.181 Y-29.865 Z-4.03
X-225.158 Y-29.88 Z-4.031
X-225.13 Y-29.883 Z-4.032
X-225.104 Y-29.874 Z-4.033
X-225.084 Y-29.854 Z-4.034
X-225.075 Y-29.828 Z-4.035
X-225.078 Y-29.8 Z-4.036
X-225.092 Y-29.776 Z-4.037
X-226.153 Y-28.716 Z-4.089
X-226.174 Y-28.702 Z-4.09
X-226.198 Y-28.697 Z-4.091
X-226.222 Y-28.702 Z-4.092
X-226.242 Y-28.716 Z-4.093
X-226.255 Y-28.736
X-226.26 Y-28.76 Z-4.094
X-226.255 Y-28.784 Z-4.095
X-226.242 Y-28.804 Z-4.096
X-226.241 Y-28.805
X-225.181 Y-29.865 Z-4.148
X-225.158 Y-29.88 Z-4.149
X-225.13 Y-29.883 Z-4.15
X-225.104 Y-29.874 Z-4.151
X-225.084 Y-29.854 Z-4.152
X-225.075 Y-29.828 Z-4.153
X-225.078 Y-29.8 Z-4.154
X-225.092 Y-29.776 Z-4.155
X-225.999 Y-28.871 Z-4.2
S6000
X-226.153 Y-28.716 F1000
X-226.174 Y-28.702
X-226.198 Y-28.697
X-226.222 Y-28.702
X-226.242 Y-28.716
X-226.255 Y-28.736
X-226.26 Y-28.76
X-226.255 Y-28.784
X-226.242 Y-28.804
X-226.241 Y-28.805
X-225.181 Y-29.865
X-225.158 Y-29.88
X-225.13 Y-29.883
X-225.104 Y-29.874
X-225.084 Y-29.854
X-225.075 Y-29.828
X-225.078 Y-29.8
X-225.092 Y-29.776
X-225.999 Y-28.871
G0 Z5
X-213.199 Y-29.285
G1 Z3.2 F333.3
Z2.5
S5000
X-212.719 Y-28.804 Z2.476
X-212.704 Y-28.781 Z2.475
X-212.701 Y-28.753 Z2.474
X-212.71 Y-28.727 Z2.473
X-212.73 Y-28.708 Z2.472
X-212.756 Y-28.698 Z2.471
X-212.783 Y-28.701 Z2.47
X-212.807 Y-28.716 Z2.469
X-213.867 Y-29.776 Z2.417
X-213.882 Y-29.8 Z2.416
X-213.885 Y-29.827 Z2.415
X-213.876 Y-29.854 Z2.414
X-213.856 Y-29.873 Z2.413
X-213.83 Y-29.882 Z2.412
X-213.803 Y-29.879 Z2.411
X-213.779 Y-29.865 Z2.41
X-212.719 Y-28.804 Z2.358
X-212.704 Y-28.781 Z2.357
X-212.701 Y-28.753 Z2.356
X-212.71 Y-28.727 Z2.355
X-212.73 Y-28.708 Z2.354
X-212.756 Y-28.698 Z2.353
X-212.783 Y-28.701 Z2.352
X-212.807 Y-28.716 Z2.351
X-213.867 Y-29.776 Z2.299
X-213.882 Y-29.8 Z2.298
X-213.885 Y-29.827 Z2.297
X-213.876 Y-29.854 Z2.296
X-213.856 Y-29.873 Z2.295
X-213.83 Y-29.882 Z2.294
X-213.803 Y-29.879 Z2.293
X-213.779 Y-29.865 Z2.292
X-212.719 Y-28.804 Z2.239
X-212.704 Y-28.781
X-212.701 Y-28.753 Z2.238
X-212.71 Y-28.727 Z2.237
X-212.73 Y-28.708 Z2.236
X-212.756 Y-28.698 Z2.235
X-212.783 Y-28.701 Z2.234
X-212.807 Y-28.716 Z2.233
X-213.867 Y-29.776 Z2.18
X-213.882 Y-29.8 Z2.179
X-213.885 Y-29.827 Z2.178
X-213.876 Y-29.854 Z2.177
X-213.856 Y-29.873 Z2.176
X-213.83 Y-29.882 Z2.175
X-213.803 Y-29.879 Z2.174
X-213.779 Y-29.865 Z2.173
X-212.719 Y-28.804 Z2.121
X-212.704 Y-28.781 Z2.12
X-212.701 Y-28.753 Z2.119
X-212.71 Y-28.727 Z2.118
X-212.73 Y-28.708 Z2.117
X-212.756 Y-28.698 Z2.116
X-212.783 Y-28.701 Z2.115
X-212.807 Y-28.716 Z2.114
X-213.867 Y-29.776 Z2.062
X-213.882 Y-29.8 Z2.061
X-213.885 Y-29.827 Z2.06
X-213.876 Y-29.854 Z2.059
X-213.856 Y-29.873 Z2.058
X-213.83 Y-29.882 Z2.057
X-213.803 Y-29.879 Z2.056
X-213.779 Y-29.865 Z2.055
X-212.719 Y-28.804 Z2.003
X-212.704 Y-28.781 Z2.002
X-212.701 Y-28.753 Z2.001
X-212.71 Y-28.727 Z2
X-212.73 Y-28.708 Z1.999
X-212.756 Y-28.698 Z1.998
X-212.783 Y-28.701 Z1.997
X-212.807 Y-28.716 Z1.996
X-213.867 Y-29.776 Z1.944
X-213.882 Y-29.8 Z1.943
X-213.885 Y-29.827 Z1.942
X-213.876 Y-29.854 Z1.941
X-213.856 Y-29.873 Z1.94
X-213.83 Y-29.882 Z1.939
X-213.803 Y-29.879 Z1.938
X-213.779 Y-29.865 Z1.937
X-212.719 Y-28.804 Z1.884
X-212.704 Y-28.781 Z1.883
X-212.701 Y-28.753 Z1.882
X-212.71 Y-28.727 Z1.881
X-212.73 Y-28.708 Z1.88
X-212.756 Y-28.698 Z1.879
X-212.783 Y-28.701 Z1.878
X-212.807 Y-28.716
X-213.867 Y-29.776 Z1.825
X-213.882 Y-29.8 Z1.824
X-213.885 Y-29.827 Z1.823
X-213.876 Y-29.854 Z1.822
X-213.856 Y-29.873 Z1.821
X-213.83 Y-29.882 Z1.82
X-213.803 Y-29.879 Z1.819
X-213.779 Y-29.865 Z1.818
X-212.719 Y-28.804 Z1.766
X-212.704 Y-28.781 Z1.765
X-212.701 Y-28.753 Z1.764
X-212.71 Y-28.727 Z1.763
X-212.73 Y-28.708 Z1.762
X-212.756 Y-28.698 Z1.761
X-212.783 Y-28.701 Z1.76
X-212.807 Y-28.716 Z1.759
X-213.867 Y-29.776 Z1.707
X-213.882 Y-29.8 Z1.706
X-213.885 Y-29.827 Z1.705
X-213.876 Y-29.854 Z1.704
X-213.856 Y-29.873 Z1.703
X-213.83 Y-29.882 Z1.702
X-213.803 Y-29.879 Z1.701
X-213.779 Y-29.865 Z1.7
X-212.719 Y-28.804 Z1.648
X-212.704 Y-28.781 Z1.647
X-212.701 Y-28.753 Z1.646
X-212.71 Y-28.727 Z1.645
X-212.73 Y-28.708 Z1.644
X-212.756 Y-28.698 Z1.643
X-212.783 Y-28.701 Z1.642
X-212.807 Y-28.716 Z1.641
X-213.867 Y-29.776 Z1.588
X-213.882 Y-29.8 Z1.587
X-213.885 Y-29.827 Z1.586
X-213.876 Y-29.854 Z1.585
X-213.856 Y-29.873 Z1.584
X-213.83 Y-29.882 Z1.583
X-213.803 Y-29.879
X-213.779 Y-29.865 Z1.582
X-212.719 Y-28.804 Z1.529
X-212.704 Y-28.781 Z1.528
X-212.701 Y-28.753 Z1.527
X-212.71 Y-28.727 Z1.526
X-212.73 Y-28.708 Z1.525
X-212.756 Y-28.698 Z1.524
X-212.783 Y-28.701 Z1.523
X-212.807 Y-28.716 Z1.522
X-213.867 Y-29.776 Z1.47
X-213.882 Y-29.8 Z1.469
X-213.885 Y-29.827 Z1.468
X-213.876 Y-29.854 Z1.467
X-213.856 Y-29.873 Z1.466
X-213.83 Y-29.882 Z1.465
X-213.803 Y-29.879 Z1.464
X-213.779 Y-29.865 Z1.463
X-212.719 Y-28.804 Z1.411
X-212.704 Y-28.781 Z1.41
X-212.701 Y-28.753 Z1.409
X-212.71 Y-28.727 Z1.408
X-212.73 Y-28.708 Z1.407
X-212.756 Y-28.698 Z1.406
X-212.783 Y-28.701 Z1.405
X-212.807 Y-28.716 Z1.404
X-213.867 Y-29.776 Z1.352
X-213.882 Y-29.8 Z1.351
X-213.885 Y-29.827 Z1.35
X-213.876 Y-29.854 Z1.349
X-213.856 Y-29.873 Z1.348
X-213.83 Y-29.882 Z1.347
X-213.803 Y-29.879 Z1.346
X-213.779 Y-29.865 Z1.345
X-212.719 Y-28.804 Z1.292
X-212.704 Y-28.781 Z1.291
X-212.701 Y-28.753 Z1.29
X-212.71 Y-28.727 Z1.289
X-212.73 Y-28.708 Z1.288
X-212.756 Y-28.698
X-212.783 Y-28.701 Z1.287
X-212.807 Y-28.716 Z1.286
X-213.867 Y-29.776 Z1.233
X-213.882 Y-29.8 Z1.232
X-213.885 Y-29.827 Z1.231
X-213.876 Y-29.854 Z1.23
X-213.856 Y-29.873 Z1.229
X-213.83 Y-29.882 Z1.228
X-213.803 Y-29.879 Z1.227
X-213.779 Y-29.865 Z1.226
X-212.719 Y-28.804 Z1.174
X-212.704 Y-28.781 Z1.173
X-212.701 Y-28.753 Z1.172
X-212.71 Y-28.727 Z1.171
X-212.73 Y-28.708 Z1.17
X-212.756 Y-28.698 Z1.169
X-212.783 Y-28.701 Z1.168
X-212.807 Y-28.716 Z1.167
X-213.867 Y-29.776 Z1.115
X-213.882 Y-29.8 Z1.114
X-213.885 Y-29.827 Z1.113
X-213.876 Y-29.854 Z1.112
X-213.856 Y-29.873 Z1.111
X-213.83 Y-29.882 Z1.11
X-213.803 Y-29.879 Z1.109
X-213.779 Y-29.865 Z1.108
X-212.719 Y-28.804 Z1.056
X-212.704 Y-28.781 Z1.055
X-212.701 Y-28.753 Z1.054
X-212.71 Y-28.727 Z1.053
X-212.73 Y-28.708 Z1.052
X-212.756 Y-28.698 Z1.051
X-212.783 Y-28.701 Z1.05
X-212.807 Y-28.716 Z1.049
X-213.867 Y-29.776 Z0.996
X-213.882 Y-29.8 Z0.995
X-213.885 Y-29.827 Z0.994
X-213.876 Y-29.854
X-213.856 Y-29.873 Z0.993
X-213.83 Y-29.882 Z0.992
X-213.803 Y-29.879 Z0.991
X-213.779 Y-29.865 Z0.99
X-212.719 Y-28.804 Z0.937
X-212.704 Y-28.781 Z0.936
X-212.701 Y-28.753 Z0.935
X-212.71 Y-28.727 Z0.934
X-212.73 Y-28.708 Z0.933
X-212.756 Y-28.698 Z0.932
X-212.783 Y-28.701 Z0.931
X-212.807 Y-28.716 Z0.93
X-213.867 Y-29.776 Z0.878
X-213.882 Y-29.8 Z0.877
X-213.885 Y-29.827 Z0.876
X-213.876 Y-29.854 Z0.875
X-213.856 Y-29.873 Z0.874
X-213.83 Y-29.882 Z0.873
X-213.803 Y-29.879 Z0.872
X-213.779 Y-29.865 Z0.871
X-212.719 Y-28.804 Z0.819
X-212.704 Y-28.781 Z0.818
X-212.701 Y-28.753 Z0.817
X-212.71 Y-28.727 Z0.816
X-212.73 Y-28.708 Z0.815
X-212.756 Y-28.698 Z0.814
X-212.783 Y-28.701 Z0.813
X-212.807 Y-28.716 Z0.812
X-213.867 Y-29.776 Z0.76
X-213.882 Y-29.8 Z0.759
X-213.885 Y-29.827 Z0.758
X-213.876 Y-29.854 Z0.757
X-213.856 Y-29.873 Z0.756
X-213.83 Y-29.882 Z0.755
X-213.803 Y-29.879 Z0.754
X-213.779 Y-29.865 Z0.753
X-212.719 Y-28.804 Z0.7
X-212.704 Y-28.781 Z0.699
X-212.701 Y-28.753
X-212.71 Y-28.727 Z0.698
X-212.73 Y-28.708 Z0.697
X-212.756 Y-28.698 Z0.696
X-212.783 Y-28.701 Z0.695
X-212.807 Y-28.716 Z0.694
X-213.867 Y-29.776 Z0.641
X-213.882 Y-29.8 Z0.64
X-213.885 Y-29.827 Z0.639
X-213.876 Y-29.854 Z0.638
X-213.856 Y-29.873 Z0.637
X-213.83 Y-29.882 Z0.636
X-213.803 Y-29.879 Z0.635
X-213.779 Y-29.865 Z0.634
X-212.719 Y-28.804 Z0.582
X-212.704 Y-28.781 Z0.581
X-212.701 Y-28.753 Z0.58
X-212.71 Y-28.727 Z0.579
X-212.73 Y-28.708 Z0.578
X-212.756 Y-28.698 Z0.577
X-212.783 Y-28.701 Z0.576
X-212.807 Y-28.716 Z0.575
X-213.867 Y-29.776 Z0.523
X-213.882 Y-29.8 Z0.522
X-213.885 Y-29.827 Z0.521
X-213.876 Y-29.854 Z0.52
X-213.856 Y-29.873 Z0.519
X-213.83 Y-29.882 Z0.518
X-213.803 Y-29.879 Z0.517
X-213.779 Y-29.865 Z0.516
X-212.719 Y-28.804 Z0.464
X-212.704 Y-28.781 Z0.463
X-212.701 Y-28.753 Z0.462
X-212.71 Y-28.727 Z0.461
X-212.73 Y-28.708 Z0.46
X-212.756 Y-28.698 Z0.459
X-212.783 Y-28.701 Z0.458
X-212.807 Y-28.716 Z0.457
X-213.867 Y-29.776 Z0.404
X-213.882 Y-29.8
X-213.885 Y-29.827 Z0.403
X-213.876 Y-29.854 Z0.402
X-213.856 Y-29.873 Z0.401
X-213.83 Y-29.882 Z0.4
X-213.803 Y-29.879 Z0.399
X-213.779 Y-29.865 Z0.398
X-212.719 Y-28.804 Z0.345
X-212.704 Y-28.781 Z0.344
X-212.701 Y-28.753 Z0.343
X-212.71 Y-28.727 Z0.342
X-212.73 Y-28.708 Z0.341
X-212.756 Y-28.698 Z0.34
X-212.783 Y-28.701 Z0.339
X-212.807 Y-28.716 Z0.338
X-213.867 Y-29.776 Z0.286
X-213.882 Y-29.8 Z0.285
X-213.885 Y-29.827 Z0.284
X-213.876 Y-29.854 Z0.283
X-213.856 Y-29.873 Z0.282
X-213.83 Y-29.882 Z0.281
X-213.803 Y-29.879 Z0.28
X-213.779 Y-29.865 Z0.279
X-212.719 Y-28.804 Z0.227
X-212.704 Y-28.781 Z0.226
X-212.701 Y-28.753 Z0.225
X-212.71 Y-28.727 Z0.224
X-212.73 Y-28.708 Z0.223
X-212.756 Y-28.698 Z0.222
X-212.783 Y-28.701 Z0.221
X-212.807 Y-28.716 Z0.22
X-213.867 Y-29.776 Z0.168
X-213.882 Y-29.8 Z0.167
X-213.885 Y-29.827 Z0.166
X-213.876 Y-29.854 Z0.165
X-213.856 Y-29.873 Z0.164
X-213.83 Y-29.882 Z0.163
X-213.803 Y-29.879 Z0.162
X-213.779 Y-29.865 Z0.161
X-212.719 Y-28.804 Z0.109
X-212.704 Y-28.781 Z0.108
X-212.701 Y-28.753 Z0.107
X-212.71 Y-28.727 Z0.106
X-212.73 Y-28.708 Z0.105
X-212.756 Y-28.698 Z0.104
X-212.783 Y-28.701 Z0.103
X-212.807 Y-28.716 Z0.102
X-213.867 Y-29.776 Z0.049
X-213.882 Y-29.8 Z0.048
X-213.885 Y-29.827 Z0.047
X-213.876 Y-29.854 Z0.046
X-213.856 Y-29.873 Z0.045
X-213.83 Y-29.882 Z0.044
X-213.803 Y-29.879 Z0.043
X-213.779 Y-29.865
X-212.719 Y-28.804 Z-0.01
X-212.704 Y-28.781 Z-0.011
X-212.701 Y-28.753 Z-0.012
X-212.71 Y-28.727 Z-0.013
X-212.73 Y-28.708 Z-0.014
X-212.756 Y-28.698 Z-0.015
X-212.783 Y-28.701 Z-0.016
X-212.807 Y-28.716 Z-0.017
X-213.867 Y-29.776 Z-0.069
X-213.882 Y-29.8 Z-0.07
X-213.885 Y-29.827 Z-0.071
X-213.876 Y-29.854 Z-0.072
X-213.856 Y-29.873 Z-0.073
X-213.83 Y-29.882 Z-0.074
X-213.803 Y-29.879 Z-0.075
X-213.779 Y-29.865 Z-0.076
X-212.719 Y-28.804 Z-0.128
X-212.704 Y-28.781 Z-0.129
X-212.701 Y-28.753 Z-0.13
X-212.71 Y-28.727 Z-0.131
X-212.73 Y-28.708 Z-0.132
X-212.756 Y-28.698 Z-0.133
X-212.783 Y-28.701 Z-0.134
X-212.807 Y-28.716 Z-0.135
X-213.867 Y-29.776 Z-0.187
X-213.882 Y-29.8 Z-0.188
X-213.885 Y-29.827 Z-0.189
X-213.876 Y-29.854 Z-0.19
X-213.856 Y-29.873 Z-0.191
X-213.83 Y-29.882 Z-0.192
X-213.803 Y-29.879 Z-0.193
X-213.779 Y-29.865 Z-0.194
X-212.719 Y-28.804 Z-0.247
X-212.704 Y-28.781 Z-0.248
X-212.701 Y-28.753 Z-0.249
X-212.71 Y-28.727 Z-0.25
X-212.73 Y-28.708 Z-0.251
X-212.756 Y-28.698 Z-0.252
X-212.783 Y-28.701
X-212.807 Y-28.716 Z-0.253
X-213.867 Y-29.776 Z-0.306
X-213.882 Y-29.8 Z-0.307
X-213.885 Y-29.827 Z-0.308
X-213.876 Y-29.854 Z-0.309
X-213.856 Y-29.873 Z-0.31
X-213.83 Y-29.882 Z-0.311
X-213.803 Y-29.879 Z-0.312
X-213.779 Y-29.865 Z-0.313
X-212.719 Y-28.804 Z-0.365
X-212.704 Y-28.781 Z-0.366
X-212.701 Y-28.753 Z-0.367
X-212.71 Y-28.727 Z-0.368
X-212.73 Y-28.708 Z-0.369
X-212.756 Y-28.698 Z-0.37
X-212.783 Y-28.701 Z-0.371
X-212.807 Y-28.716 Z-0.372
X-213.867 Y-29.776 Z-0.424
X-213.882 Y-29.8 Z-0.425
X-213.885 Y-29.827 Z-0.426
X-213.876 Y-29.854 Z-0.427
X-213.856 Y-29.873 Z-0.428
X-213.83 Y-29.882 Z-0.429
X-213.803 Y-29.879 Z-0.43
X-213.779 Y-29.865 Z-0.431
X-212.719 Y-28.804 Z-0.483
X-212.704 Y-28.781 Z-0.484
X-212.701 Y-28.753 Z-0.485
X-212.71 Y-28.727 Z-0.486
X-212.73 Y-28.708 Z-0.487
X-212.756 Y-28.698 Z-0.488
X-212.783 Y-28.701 Z-0.489
X-212.807 Y-28.716 Z-0.49
X-213.867 Y-29.776 Z-0.543
X-213.882 Y-29.8 Z-0.544
X-213.885 Y-29.827 Z-0.545
X-213.876 Y-29.854 Z-0.546
X-213.856 Y-29.873
X-213.83 Y-29.882 Z-0.547
X-213.803 Y-29.879 Z-0.548
X-213.779 Y-29.865 Z-0.549
X-212.719 Y-28.804 Z-0.602
X-212.704 Y-28.781 Z-0.603
X-212.701 Y-28.753 Z-0.604
X-212.71 Y-28.727 Z-0.605
X-212.73 Y-28.708 Z-0.606
X-212.756 Y-28.698 Z-0.607
X-212.783 Y-28.701 Z-0.608
X-212.807 Y-28.716 Z-0.609
X-213.867 Y-29.776 Z-0.661
X-213.882 Y-29.8 Z-0.662
X-213.885 Y-29.827 Z-0.663
X-213.876 Y-29.854 Z-0.664
X-213.856 Y-29.873 Z-0.665
X-213.83 Y-29.882 Z-0.666
X-213.803 Y-29.879 Z-0.667
X-213.779 Y-29.865 Z-0.668
X-212.719 Y-28.804 Z-0.72
X-212.704 Y-28.781 Z-0.721
X-212.701 Y-28.753 Z-0.722
X-212.71 Y-28.727 Z-0.723
X-212.73 Y-28.708 Z-0.724
X-212.756 Y-28.698 Z-0.725
X-212.783 Y-28.701 Z-0.726
X-212.807 Y-28.716 Z-0.727
X-213.867 Y-29.776 Z-0.779
X-213.882 Y-29.8 Z-0.78
X-213.885 Y-29.827 Z-0.781
X-213.876 Y-29.854 Z-0.782
X-213.856 Y-29.873 Z-0.783
X-213.83 Y-29.882 Z-0.784
X-213.803 Y-29.879 Z-0.785
X-213.779 Y-29.865 Z-0.786
X-212.719 Y-28.804 Z-0.839
X-212.704 Y-28.781 Z-0.84
X-212.701 Y-28.753 Z-0.841
X-212.71 Y-28.727
X-212.73 Y-28.708 Z-0.842
X-212.756 Y-28.698 Z-0.843
X-212.783 Y-28.701 Z-0.844
X-212.807 Y-28.716 Z-0.845
X-213.867 Y-29.776 Z-0.898
X-213.882 Y-29.8 Z-0.899
X-213.885 Y-29.827 Z-0.9
X-213.876 Y-29.854 Z-0.901
X-213.856 Y-29.873 Z-0.902
X-213.83 Y-29.882 Z-0.903
X-213.803 Y-29.879 Z-0.904
X-213.779 Y-29.865 Z-0.905
X-212.719 Y-28.804 Z-0.957
X-212.704 Y-28.781 Z-0.958
X-212.701 Y-28.753 Z-0.959
X-212.71 Y-28.727 Z-0.96
X-212.73 Y-28.708 Z-0.961
X-212.756 Y-28.698 Z-0.962
X-212.783 Y-28.701 Z-0.963
X-212.807 Y-28.716 Z-0.964
X-213.867 Y-29.776 Z-1.016
X-213.882 Y-29.8 Z-1.017
X-213.885 Y-29.827 Z-1.018
X-213.876 Y-29.854 Z-1.019
X-213.856 Y-29.873 Z-1.02
X-213.83 Y-29.882 Z-1.021
X-213.803 Y-29.879 Z-1.022
X-213.779 Y-29.865 Z-1.023
X-212.719 Y-28.804 Z-1.075
X-212.704 Y-28.781 Z-1.076
X-212.701 Y-28.753 Z-1.077
X-212.71 Y-28.727 Z-1.078
X-212.73 Y-28.708 Z-1.079
X-212.756 Y-28.698 Z-1.08
X-212.783 Y-28.701 Z-1.081
X-212.807 Y-28.716 Z-1.082
X-213.867 Y-29.776 Z-1.135
X-213.882 Y-29.8 Z-1.136
X-213.885 Y-29.827
X-213.876 Y-29.854 Z-1.137
X-213.856 Y-29.873 Z-1.138
X-213.83 Y-29.882 Z-1.139
X-213.803 Y-29.879 Z-1.14
X-213.779 Y-29.865 Z-1.141
X-212.719 Y-28.804 Z-1.194
X-212.704 Y-28.781 Z-1.195
X-212.701 Y-28.753 Z-1.196
X-212.71 Y-28.727 Z-1.197
X-212.73 Y-28.708 Z-1.198
X-212.756 Y-28.698 Z-1.199
X-212.783 Y-28.701 Z-1.2
X-212.807 Y-28.716 Z-1.201
X-213.867 Y-29.776 Z-1.253
X-213.882 Y-29.8 Z-1.254
X-213.885 Y-29.827 Z-1.255
X-213.876 Y-29.854 Z-1.256
X-213.856 Y-29.873 Z-1.257
X-213.83 Y-29.882 Z-1.258
X-213.803 Y-29.879 Z-1.259
X-213.779 Y-29.865 Z-1.26
X-212.719 Y-28.804 Z-1.312
X-212.704 Y-28.781 Z-1.313
X-212.701 Y-28.753 Z-1.314
X-212.71 Y-28.727 Z-1.315
X-212.73 Y-28.708 Z-1.316
X-212.756 Y-28.698 Z-1.317
X-212.783 Y-28.701 Z-1.318
X-212.807 Y-28.716 Z-1.319
X-213.867 Y-29.776 Z-1.371
X-213.882 Y-29.8 Z-1.372
X-213.885 Y-29.827 Z-1.373
X-213.876 Y-29.854 Z-1.374
X-213.856 Y-29.873 Z-1.375
X-213.83 Y-29.882 Z-1.376
X-213.803 Y-29.879 Z-1.377
X-213.779 Y-29.865 Z-1.378
X-212.719 Y-28.804 Z-1.43
X-212.704 Y-28.781 Z-1.431
X-212.701 Y-28.753 Z-1.432
X-212.71 Y-28.727 Z-1.433
X-212.73 Y-28.708 Z-1.434
X-212.756 Y-28.698 Z-1.435
X-212.783 Y-28.701 Z-1.436
X-212.807 Y-28.716 Z-1.437
X-213.867 Y-29.776 Z-1.49
X-213.882 Y-29.8 Z-1.491
X-213.885 Y-29.827 Z-1.492
X-213.876 Y-29.854 Z-1.493
X-213.856 Y-29.873 Z-1.494
X-213.83 Y-29.882 Z-1.495
X-213.803 Y-29.879 Z-1.496
X-213.779 Y-29.865 Z-1.497
X-212.719 Y-28.804 Z-1.549
X-212.704 Y-28.781 Z-1.55
X-212.701 Y-28.753 Z-1.551
X-212.71 Y-28.727 Z-1.552
X-212.73 Y-28.708 Z-1.553
X-212.756 Y-28.698 Z-1.554
X-212.783 Y-28.701 Z-1.555
X-212.807 Y-28.716 Z-1.556
X-213.867 Y-29.776 Z-1.608
X-213.882 Y-29.8 Z-1.609
X-213.885 Y-29.827 Z-1.61
X-213.876 Y-29.854 Z-1.611
X-213.856 Y-29.873 Z-1.612
X-213.83 Y-29.882 Z-1.613
X-213.803 Y-29.879 Z-1.614
X-213.779 Y-29.865 Z-1.615
X-212.719 Y-28.804 Z-1.667
X-212.704 Y-28.781 Z-1.668
X-212.701 Y-28.753 Z-1.669
X-212.71 Y-28.727 Z-1.67
X-212.73 Y-28.708 Z-1.671
X-212.756 Y-28.698 Z-1.672
X-212.783 Y-28.701 Z-1.673
X-212.807 Y-28.716 Z-1.674
X-213.867 Y-29.776 Z-1.726
X-213.882 Y-29.8 Z-1.727
X-213.885 Y-29.827 Z-1.728
X-213.876 Y-29.854 Z-1.729
X-213.856 Y-29.873 Z-1.73
X-213.83 Y-29.882 Z-1.731
X-213.803 Y-29.879 Z-1.732
X-213.779 Y-29.865 Z-1.733
X-212.719 Y-28.804 Z-1.786
X-212.704 Y-28.781 Z-1.787
X-212.701 Y-28.753 Z-1.788
X-212.71 Y-28.727 Z-1.789
X-212.73 Y-28.708 Z-1.79
X-212.756 Y-28.698 Z-1.791
X-212.783 Y-28.701 Z-1.792
X-212.807 Y-28.716
X-213.867 Y-29.776 Z-1.845
X-213.882 Y-29.8 Z-1.846
X-213.885 Y-29.827 Z-1.847
X-213.876 Y-29.854 Z-1.848
X-213.856 Y-29.873 Z-1.849
X-213.83 Y-29.882 Z-1.85
X-213.803 Y-29.879 Z-1.851
X-213.779 Y-29.865 Z-1.852
X-212.719 Y-28.804 Z-1.904
X-212.704 Y-28.781 Z-1.905
X-212.701 Y-28.753 Z-1.906
X-212.71 Y-28.727 Z-1.907
X-212.73 Y-28.708 Z-1.908
X-212.756 Y-28.698 Z-1.909
X-212.783 Y-28.701 Z-1.91
X-212.807 Y-28.716 Z-1.911
X-213.867 Y-29.776 Z-1.963
X-213.882 Y-29.8 Z-1.964
X-213.885 Y-29.827 Z-1.965
X-213.876 Y-29.854 Z-1.966
X-213.856 Y-29.873 Z-1.967
X-213.83 Y-29.882 Z-1.968
X-213.803 Y-29.879 Z-1.969
X-213.779 Y-29.865 Z-1.97
X-212.719 Y-28.804 Z-2.022
X-212.704 Y-28.781 Z-2.023
X-212.701 Y-28.753 Z-2.024
X-212.71 Y-28.727 Z-2.025
X-212.73 Y-28.708 Z-2.026
X-212.756 Y-28.698 Z-2.027
X-212.783 Y-28.701 Z-2.028
X-212.807 Y-28.716 Z-2.029
X-213.867 Y-29.776 Z-2.082
X-213.882 Y-29.8 Z-2.083
X-213.885 Y-29.827 Z-2.084
X-213.876 Y-29.854 Z-2.085
X-213.856 Y-29.873 Z-2.086
X-213.83 Y-29.882
X-213.803 Y-29.879 Z-2.087
X-213.779 Y-29.865 Z-2.088
X-212.719 Y-28.804 Z-2.141
X-212.704 Y-28.781 Z-2.142
X-212.701 Y-28.753 Z-2.143
X-212.71 Y-28.727 Z-2.144
X-212.73 Y-28.708 Z-2.145
X-212.756 Y-28.698 Z-2.146
X-212.783 Y-28.701 Z-2.147
X-212.807 Y-28.716 Z-2.148
X-213.867 Y-29.776 Z-2.2
S6000
X-213.882 Y-29.8 F1000
X-213.885 Y-29.827
X-213.876 Y-29.854
X-213.856 Y-29.873
X-213.83 Y-29.882
X-213.803 Y-29.879
X-213.779 Y-29.865
X-212.719 Y-28.804
X-212.704 Y-28.781
X-212.701 Y-28.753
X-212.71 Y-28.727
X-212.73 Y-28.708
X-212.756 Y-28.698
X-212.783 Y-28.701
X-212.807 Y-28.716
X-213.867 Y-29.776
S5000
X-213.882 Y-29.8 Z-2.201 F333.3
X-213.885 Y-29.827 Z-2.202
X-213.876 Y-29.854 Z-2.203
X-213.856 Y-29.873 Z-2.204
X-213.83 Y-29.882 Z-2.205
X-213.803 Y-29.879 Z-2.206
X-213.779 Y-29.865 Z-2.207
X-212.719 Y-28.804 Z-2.259
X-212.704 Y-28.781 Z-2.26
X-212.701 Y-28.753 Z-2.261
X-212.71 Y-28.727 Z-2.262
X-212.73 Y-28.708 Z-2.263
X-212.756 Y-28.698 Z-2.264
X-212.783 Y-28.701 Z-2.265
X-212.807 Y-28.716 Z-2.266
X-213.867 Y-29.776 Z-2.318
X-213.882 Y-29.8 Z-2.319
X-213.885 Y-29.827 Z-2.32
X-213.876 Y-29.854 Z-2.321
X-213.856 Y-29.873 Z-2.322
X-213.83 Y-29.882 Z-2.323
X-213.803 Y-29.879 Z-2.324
X-213.779 Y-29.865 Z-2.325
X-212.719 Y-28.804 Z-2.378
X-212.704 Y-28.781 Z-2.379
X-212.701 Y-28.753 Z-2.38
X-212.71 Y-28.727 Z-2.381
X-212.73 Y-28.708
X-212.756 Y-28.698 Z-2.382
X-212.783 Y-28.701 Z-2.383
X-212.807 Y-28.716 Z-2.384
X-213.867 Y-29.776 Z-2.437
X-213.882 Y-29.8 Z-2.438
X-213.885 Y-29.827 Z-2.439
X-213.876 Y-29.854 Z-2.44
X-213.856 Y-29.873 Z-2.441
X-213.83 Y-29.882 Z-2.442
X-213.803 Y-29.879 Z-2.443
X-213.779 Y-29.865 Z-2.444
X-212.719 Y-28.804 Z-2.496
X-212.704 Y-28.781 Z-2.497
X-212.701 Y-28.753 Z-2.498
X-212.71 Y-28.727 Z-2.499
X-212.73 Y-28.708 Z-2.5
X-212.756 Y-28.698 Z-2.501
X-212.783 Y-28.701 Z-2.502
X-212.807 Y-28.716 Z-2.503
X-213.867 Y-29.776 Z-2.555
X-213.882 Y-29.8 Z-2.556
X-213.885 Y-29.827 Z-2.557
X-213.876 Y-29.854 Z-2.558
X-213.856 Y-29.873 Z-2.559
X-213.83 Y-29.882 Z-2.56
X-213.803 Y-29.879 Z-2.561
X-213.779 Y-29.865 Z-2.562
X-212.719 Y-28.804 Z-2.614
X-212.704 Y-28.781 Z-2.615
X-212.701 Y-28.753 Z-2.616
X-212.71 Y-28.727 Z-2.617
X-212.73 Y-28.708 Z-2.618
X-212.756 Y-28.698 Z-2.619
X-212.783 Y-28.701 Z-2.62
X-212.807 Y-28.716 Z-2.621
X-213.867 Y-29.776 Z-2.674
X-213.882 Y-29.8 Z-2.675
X-213.885 Y-29.827 Z-2.676
X-213.876 Y-29.854
X-213.856 Y-29.873 Z-2.677
X-213.83 Y-29.882 Z-2.678
X-213.803 Y-29.879 Z-2.679
X-213.779 Y-29.865 Z-2.68
X-212.719 Y-28.804 Z-2.733
X-212.704 Y-28.781 Z-2.734
X-212.701 Y-28.753 Z-2.735
X-212.71 Y-28.727 Z-2.736
X-212.73 Y-28.708 Z-2.737
X-212.756 Y-28.698 Z-2.738
X-212.783 Y-28.701 Z-2.739
X-212.807 Y-28.716 Z-2.74
X-213.867 Y-29.776 Z-2.792
X-213.882 Y-29.8 Z-2.793
X-213.885 Y-29.827 Z-2.794
X-213.876 Y-29.854 Z-2.795
X-213.856 Y-29.873 Z-2.796
X-213.83 Y-29.882 Z-2.797
X-213.803 Y-29.879 Z-2.798
X-213.779 Y-29.865 Z-2.799
X-212.719 Y-28.804 Z-2.851
X-212.704 Y-28.781 Z-2.852
X-212.701 Y-28.753 Z-2.853
X-212.71 Y-28.727 Z-2.854
X-212.73 Y-28.708 Z-2.855
X-212.756 Y-28.698 Z-2.856
X-212.783 Y-28.701 Z-2.857
X-212.807 Y-28.716 Z-2.858
X-213.867 Y-29.776 Z-2.91
X-213.882 Y-29.8 Z-2.911
X-213.885 Y-29.827 Z-2.912
X-213.876 Y-29.854 Z-2.913
X-213.856 Y-29.873 Z-2.914
X-213.83 Y-29.882 Z-2.915
X-213.803 Y-29.879 Z-2.916
X-213.779 Y-29.865 Z-2.917
X-212.719 Y-28.804 Z-2.97
X-212.704 Y-28.781 Z-2.971
X-212.701 Y-28.753
X-212.71 Y-28.727 Z-2.972
X-212.73 Y-28.708 Z-2.973
X-212.756 Y-28.698 Z-2.974
X-212.783 Y-28.701 Z-2.975
X-212.807 Y-28.716 Z-2.976
X-213.867 Y-29.776 Z-3.029
X-213.882 Y-29.8 Z-3.03
X-213.885 Y-29.827 Z-3.031
X-213.876 Y-29.854 Z-3.032
X-213.856 Y-29.873 Z-3.033
X-213.83 Y-29.882 Z-3.034
X-213.803 Y-29.879 Z-3.035
X-213.779 Y-29.865 Z-3.036
X-212.719 Y-28.804 Z-3.088
X-212.704 Y-28.781 Z-3.089
X-212.701 Y-28.753 Z-3.09
X-212.71 Y-28.727 Z-3.091
X-212.73 Y-28.708 Z-3.092
X-212.756 Y-28.698 Z-3.093
X-212.783 Y-28.701 Z-3.094
X-212.807 Y-28.716 Z-3.095
X-213.867 Y-29.776 Z-3.147
X-213.882 Y-29.8 Z-3.148
X-213.885 Y-29.827 Z-3.149
X-213.876 Y-29.854 Z-3.15
X-213.856 Y-29.873 Z-3.151
X-213.83 Y-29.882 Z-3.152
X-213.803 Y-29.879 Z-3.153
X-213.779 Y-29.865 Z-3.154
X-212.719 Y-28.804 Z-3.206
X-212.704 Y-28.781 Z-3.207
X-212.701 Y-28.753 Z-3.208
X-212.71 Y-28.727 Z-3.209
X-212.73 Y-28.708 Z-3.21
X-212.756 Y-28.698 Z-3.211
X-212.783 Y-28.701 Z-3.212
X-212.807 Y-28.716 Z-3.213
X-213.867 Y-29.776 Z-3.265
X-213.882 Y-29.8 Z-3.266
X-213.885 Y-29.827 Z-3.267
X-213.876 Y-29.854 Z-3.268
X-213.856 Y-29.873 Z-3.269
X-213.83 Y-29.882 Z-3.27
X-213.803 Y-29.879 Z-3.271
X-213.779 Y-29.865 Z-3.272
X-212.719 Y-28.804 Z-3.325
X-212.704 Y-28.781 Z-3.326
X-212.701 Y-28.753 Z-3.327
X-212.71 Y-28.727 Z-3.328
X-212.73 Y-28.708 Z-3.329
X-212.756 Y-28.698 Z-3.33
X-212.783 Y-28.701 Z-3.331
X-212.807 Y-28.716 Z-3.332
X-213.867 Y-29.776 Z-3.384
X-213.882 Y-29.8 Z-3.385
X-213.885 Y-29.827 Z-3.386
X-213.876 Y-29.854 Z-3.387
X-213.856 Y-29.873 Z-3.388
X-213.83 Y-29.882 Z-3.389
X-213.803 Y-29.879 Z-3.39
X-213.779 Y-29.865 Z-3.391
X-212.719 Y-28.804 Z-3.443
X-212.704 Y-28.781 Z-3.444
X-212.701 Y-28.753 Z-3.445
X-212.71 Y-28.727 Z-3.446
X-212.73 Y-28.708 Z-3.447
X-212.756 Y-28.698 Z-3.448
X-212.783 Y-28.701 Z-3.449
X-212.807 Y-28.716 Z-3.45
X-213.867 Y-29.776 Z-3.502
X-213.882 Y-29.8 Z-3.503
X-213.885 Y-29.827 Z-3.504
X-213.876 Y-29.854 Z-3.505
X-213.856 Y-29.873 Z-3.506
X-213.83 Y-29.882 Z-3.507
X-213.803 Y-29.879 Z-3.508
X-213.779 Y-29.865 Z-3.509
X-212.719 Y-28.804 Z-3.561
X-212.704 Y-28.781 Z-3.562
X-212.701 Y-28.753 Z-3.563
X-212.71 Y-28.727 Z-3.564
X-212.73 Y-28.708 Z-3.565
X-212.756 Y-28.698 Z-3.566
X-212.783 Y-28.701 Z-3.567
X-212.807 Y-28.716 Z-3.568
X-213.867 Y-29.776 Z-3.621
X-213.882 Y-29.8 Z-3.622
X-213.885 Y-29.827 Z-3.623
X-213.876 Y-29.854 Z-3.624
X-213.856 Y-29.873 Z-3.625
X-213.83 Y-29.882 Z-3.626
X-213.803 Y-29.879
X-213.779 Y-29.865 Z-3.627
X-212.719 Y-28.804 Z-3.68
X-212.704 Y-28.781 Z-3.681
X-212.701 Y-28.753 Z-3.682
X-212.71 Y-28.727 Z-3.683
X-212.73 Y-28.708 Z-3.684
X-212.756 Y-28.698 Z-3.685
X-212.783 Y-28.701 Z-3.686
X-212.807 Y-28.716 Z-3.687
X-213.867 Y-29.776 Z-3.739
X-213.882 Y-29.8 Z-3.74
X-213.885 Y-29.827 Z-3.741
X-213.876 Y-29.854 Z-3.742
X-213.856 Y-29.873 Z-3.743
X-213.83 Y-29.882 Z-3.744
X-213.803 Y-29.879 Z-3.745
X-213.779 Y-29.865 Z-3.746
X-212.719 Y-28.804 Z-3.798
X-212.704 Y-28.781 Z-3.799
X-212.701 Y-28.753 Z-3.8
X-212.71 Y-28.727 Z-3.801
X-212.73 Y-28.708 Z-3.802
X-212.756 Y-28.698 Z-3.803
X-212.783 Y-28.701 Z-3.804
X-212.807 Y-28.716 Z-3.805
X-213.867 Y-29.776 Z-3.857
X-213.882 Y-29.8 Z-3.858
X-213.885 Y-29.827 Z-3.859
X-213.876 Y-29.854 Z-3.86
X-213.856 Y-29.873 Z-3.861
X-213.83 Y-29.882 Z-3.862
X-213.803 Y-29.879 Z-3.863
X-213.779 Y-29.865 Z-3.864
X-212.719 Y-28.804 Z-3.917
X-212.704 Y-28.781 Z-3.918
X-212.701 Y-28.753 Z-3.919
X-212.71 Y-28.727 Z-3.92
X-212.73 Y-28.708 Z-3.921
X-212.756 Y-28.698
X-212.783 Y-28.701 Z-3.922
X-212.807 Y-28.716 Z-3.923
X-213.867 Y-29.776 Z-3.976
X-213.882 Y-29.8 Z-3.977
X-213.885 Y-29.827 Z-3.978
X-213.876 Y-29.854 Z-3.979
X-213.856 Y-29.873 Z-3.98
X-213.83 Y-29.882 Z-3.981
X-213.803 Y-29.879 Z-3.982
X-213.779 Y-29.865 Z-3.983
X-212.719 Y-28.804 Z-4.035
X-212.704 Y-28.781 Z-4.036
X-212.701 Y-28.753 Z-4.037
X-212.71 Y-28.727 Z-4.038
X-212.73 Y-28.708 Z-4.039
X-212.756 Y-28.698 Z-4.04
X-212.783 Y-28.701 Z-4.041
X-212.807 Y-28.716 Z-4.042
X-213.867 Y-29.776 Z-4.094
X-213.882 Y-29.8 Z-4.095
X-213.885 Y-29.827 Z-4.096
X-213.876 Y-29.854 Z-4.097
X-213.856 Y-29.873 Z-4.098
X-213.83 Y-29.882 Z-4.099
X-213.803 Y-29.879 Z-4.1
X-213.779 Y-29.865 Z-4.101
X-212.719 Y-28.804 Z-4.153
X-212.704 Y-28.781 Z-4.154
X-212.701 Y-28.753 Z-4.155
X-212.71 Y-28.727 Z-4.156
X-212.73 Y-28.708 Z-4.157
X-212.756 Y-28.698 Z-4.158
X-212.783 Y-28.701 Z-4.159
X-212.807 Y-28.716 Z-4.16
X-213.613 Y-29.522 Z-4.2
S6000
X-213.867 Y-29.776 F1000
X-213.882 Y-29.8
X-213.885 Y-29.827
X-213.876 Y-29.854
X-213.856 Y-29.873
X-213.83 Y-29.882
X-213.803 Y-29.879
X-213.779 Y-29.865
X-212.719 Y-28.804
X-212.704 Y-28.781
X-212.701 Y-28.753
X-212.71 Y-28.727
X-212.73 Y-28.708
X-212.756 Y-28.698
X-212.783 Y-28.701
X-212.807 Y-28.716
X-213.613 Y-29.522
G0 Z5
X-213.149 Y-41.897
G1 Z3.2 F333.3
Z2.5
S5000
X-212.807 Y-42.239 Z2.483
X-212.783 Y-42.254 Z2.482
X-212.756 Y-42.257 Z2.481
X-212.73 Y-42.247 Z2.48
X-212.71 Y-42.228 Z2.479
X-212.701 Y-42.202 Z2.478
X-212.704 Y-42.174 Z2.477
X-212.719 Y-42.151 Z2.476
X-213.779 Y-41.09 Z2.424
X-213.803 Y-41.076 Z2.423
X-213.83 Y-41.073 Z2.422
X-213.856 Y-41.082 Z2.421
X-213.876 Y-41.101 Z2.42
X-213.885 Y-41.128 Z2.419
X-213.882 Y-41.155 Z2.418
X-213.867 Y-41.179 Z2.417
X-212.807 Y-42.239 Z2.365
X-212.783 Y-42.254 Z2.364
X-212.756 Y-42.257 Z2.363
X-212.73 Y-42.247 Z2.362
X-212.71 Y-42.228 Z2.361
X-212.701 Y-42.202 Z2.36
X-212.704 Y-42.174 Z2.359
X-212.719 Y-42.151 Z2.358
X-213.779 Y-41.09 Z2.306
X-213.803 Y-41.076 Z2.305
X-213.83 Y-41.073 Z2.304
X-213.856 Y-41.082 Z2.303
X-213.876 Y-41.101 Z2.302
X-213.885 Y-41.128 Z2.301
X-213.882 Y-41.155 Z2.3
X-213.867 Y-41.179 Z2.299
X-212.807 Y-42.239 Z2.246
X-212.783 Y-42.254 Z2.245
X-212.756 Y-42.257 Z2.244
X-212.73 Y-42.247 Z2.243
X-212.71 Y-42.228 Z2.242
X-212.701 Y-42.202 Z2.241
X-212.704 Y-42.174 Z2.24
X-212.719 Y-42.151
X-213.779 Y-41.09 Z2.187
X-213.803 Y-41.076 Z2.186
X-213.83 Y-41.073 Z2.185
X-213.856 Y-41.082 Z2.184
X-213.876 Y-41.101 Z2.183
X-213.885 Y-41.128 Z2.182
X-213.882 Y-41.155 Z2.181
X-213.867 Y-41.179 Z2.18
X-212.807 Y-42.239 Z2.128
X-212.783 Y-42.254 Z2.127
X-212.756 Y-42.257 Z2.126
X-212.73 Y-42.247 Z2.125
X-212.71 Y-42.228 Z2.124
X-212.701 Y-42.202 Z2.123
X-212.704 Y-42.174 Z2.122
X-212.719 Y-42.151 Z2.121
X-213.779 Y-41.09 Z2.069
X-213.803 Y-41.076 Z2.068
X-213.83 Y-41.073 Z2.067
X-213.856 Y-41.082 Z2.066
X-213.876 Y-41.101 Z2.065
X-213.885 Y-41.128 Z2.064
X-213.882 Y-41.155 Z2.063
X-213.867 Y-41.179 Z2.062
X-212.807 Y-42.239 Z2.01
X-212.783 Y-42.254 Z2.009
X-212.756 Y-42.257 Z2.008
X-212.73 Y-42.247 Z2.007
X-212.71 Y-42.228 Z2.006
X-212.701 Y-42.202 Z2.005
X-212.704 Y-42.174 Z2.004
X-212.719 Y-42.151 Z2.003
X-213.779 Y-41.09 Z1.95
X-213.803 Y-41.076 Z1.949
X-213.83 Y-41.073 Z1.948
X-213.856 Y-41.082 Z1.947
X-213.876 Y-41.101 Z1.946
X-213.885 Y-41.128 Z1.945
X-213.882 Y-41.155
X-213.867 Y-41.179 Z1.944
X-212.807 Y-42.239 Z1.891
X-212.783 Y-42.254 Z1.89
X-212.756 Y-42.257 Z1.889
X-212.73 Y-42.247 Z1.888
X-212.71 Y-42.228 Z1.887
X-212.701 Y-42.202 Z1.886
X-212.704 Y-42.174 Z1.885
X-212.719 Y-42.151 Z1.884
X-213.779 Y-41.09 Z1.832
X-213.803 Y-41.076 Z1.831
X-213.83 Y-41.073 Z1.83
X-213.856 Y-41.082 Z1.829
X-213.876 Y-41.101 Z1.828
X-213.885 Y-41.128 Z1.827
X-213.882 Y-41.155 Z1.826
X-213.867 Y-41.179 Z1.825
X-212.807 Y-42.239 Z1.773
X-212.783 Y-42.254 Z1.772
X-212.756 Y-42.257 Z1.771
X-212.73 Y-42.247 Z1.77
X-212.71 Y-42.228 Z1.769
X-212.701 Y-42.202 Z1.768
X-212.704 Y-42.174 Z1.767
X-212.719 Y-42.151 Z1.766
X-213.779 Y-41.09 Z1.714
X-213.803 Y-41.076 Z1.713
X-213.83 Y-41.073 Z1.712
X-213.856 Y-41.082 Z1.711
X-213.876 Y-41.101 Z1.71
X-213.885 Y-41.128 Z1.709
X-213.882 Y-41.155 Z1.708
X-213.867 Y-41.179 Z1.707
X-212.807 Y-42.239 Z1.654
X-212.783 Y-42.254 Z1.653
X-212.756 Y-42.257 Z1.652
X-212.73 Y-42.247 Z1.651
X-212.71 Y-42.228
X-212.701 Y-42.202 Z1.65
X-212.704 Y-42.174 Z1.649
X-212.719 Y-42.151 Z1.648
X-213.779 Y-41.09 Z1.595
X-213.803 Y-41.076 Z1.594
X-213.83 Y-41.073 Z1.593
X-213.856 Y-41.082 Z1.592
X-213.876 Y-41.101 Z1.591
X-213.885 Y-41.128 Z1.59
X-213.882 Y-41.155 Z1.589
X-213.867 Y-41.179 Z1.588
X-212.807 Y-42.239 Z1.536
X-212.783 Y-42.254 Z1.535
X-212.756 Y-42.257 Z1.534
X-212.73 Y-42.247 Z1.533
X-212.71 Y-42.228 Z1.532
X-212.701 Y-42.202 Z1.531
X-212.704 Y-42.174 Z1.53
X-212.719 Y-42.151 Z1.529
X-213.779 Y-41.09 Z1.477
X-213.803 Y-41.076 Z1.476
X-213.83 Y-41.073 Z1.475
X-213.856 Y-41.082 Z1.474
X-213.876 Y-41.101 Z1.473
X-213.885 Y-41.128 Z1.472
X-213.882 Y-41.155 Z1.471
X-213.867 Y-41.179 Z1.47
X-212.807 Y-42.239 Z1.418
X-212.783 Y-42.254 Z1.417
X-212.756 Y-42.257 Z1.416
X-212.73 Y-42.247 Z1.415
X-212.71 Y-42.228 Z1.414
X-212.701 Y-42.202 Z1.413
X-212.704 Y-42.174 Z1.412
X-212.719 Y-42.151 Z1.411
X-213.779 Y-41.09 Z1.358
X-213.803 Y-41.076 Z1.357
X-213.83 Y-41.073 Z1.356
X-213.856 Y-41.082
X-213.876 Y-41.101 Z1.355
X-213.885 Y-41.128 Z1.354
X-213.882 Y-41.155 Z1.353
X-213.867 Y-41.179 Z1.352
X-212.807 Y-42.239 Z1.299
X-212.783 Y-42.254 Z1.298
X-212.756 Y-42.257 Z1.297
X-212.73 Y-42.247 Z1.296
X-212.71 Y-42.228 Z1.295
X-212.701 Y-42.202 Z1.294
X-212.704 Y-42.174 Z1.293
X-212.719 Y-42.151 Z1.292
X-213.779 Y-41.09 Z1.24
X-213.803 Y-41.076 Z1.239
X-213.83 Y-41.073 Z1.238
X-213.856 Y-41.082 Z1.237
X-213.876 Y-41.101 Z1.236
X-213.885 Y-41.128 Z1.235
X-213.882 Y-41.155 Z1.234
X-213.867 Y-41.179 Z1.233
X-212.807 Y-42.239 Z1.181
X-212.783 Y-42.254 Z1.18
X-212.756 Y-42.257 Z1.179
X-212.73 Y-42.247 Z1.178
X-212.71 Y-42.228 Z1.177
X-212.701 Y-42.202 Z1.176
X-212.704 Y-42.174 Z1.175
X-212.719 Y-42.151 Z1.174
X-213.779 Y-41.09 Z1.122
X-213.803 Y-41.076 Z1.121
X-213.83 Y-41.073 Z1.12
X-213.856 Y-41.082 Z1.119
X-213.876 Y-41.101 Z1.118
X-213.885 Y-41.128 Z1.117
X-213.882 Y-41.155 Z1.116
X-213.867 Y-41.179 Z1.115
X-212.807 Y-42.239 Z1.062
X-212.783 Y-42.254 Z1.061
X-212.756 Y-42.257
X-212.73 Y-42.247 Z1.06
X-212.71 Y-42.228 Z1.059
X-212.701 Y-42.202 Z1.058
X-212.704 Y-42.174 Z1.057
X-212.719 Y-42.151 Z1.056
X-213.779 Y-41.09 Z1.003
X-213.803 Y-41.076 Z1.002
X-213.83 Y-41.073 Z1.001
X-213.856 Y-41.082 Z1
X-213.876 Y-41.101 Z0.999
X-213.885 Y-41.128 Z0.998
X-213.882 Y-41.155 Z0.997
X-213.867 Y-41.179 Z0.996
X-212.807 Y-42.239 Z0.944
X-212.783 Y-42.254 Z0.943
X-212.756 Y-42.257 Z0.942
X-212.73 Y-42.247 Z0.941
X-212.71 Y-42.228 Z0.94
X-212.701 Y-42.202 Z0.939
X-212.704 Y-42.174 Z0.938
X-212.719 Y-42.151 Z0.937
X-213.779 Y-41.09 Z0.885
X-213.803 Y-41.076 Z0.884
X-213.83 Y-41.073 Z0.883
X-213.856 Y-41.082 Z0.882
X-213.876 Y-41.101 Z0.881
X-213.885 Y-41.128 Z0.88
X-213.882 Y-41.155 Z0.879
X-213.867 Y-41.179 Z0.878
X-212.807 Y-42.239 Z0.826
X-212.783 Y-42.254 Z0.825
X-212.756 Y-42.257 Z0.824
X-212.73 Y-42.247 Z0.823
X-212.71 Y-42.228 Z0.822
X-212.701 Y-42.202 Z0.821
X-212.704 Y-42.174 Z0.82
X-212.719 Y-42.151 Z0.819
X-213.779 Y-41.09 Z0.767
X-213.803 Y-41.076 Z0.766
X-213.83 Y-41.073 Z0.765
X-213.856 Y-41.082 Z0.764
X-213.876 Y-41.101 Z0.763
X-213.885 Y-41.128 Z0.762
X-213.882 Y-41.155 Z0.761
X-213.867 Y-41.179 Z0.76
X-212.807 Y-42.239 Z0.707
X-212.783 Y-42.254 Z0.706
X-212.756 Y-42.257 Z0.705
X-212.73 Y-42.247 Z0.704
X-212.71 Y-42.228 Z0.703
X-212.701 Y-42.202 Z0.702
X-212.704 Y-42.174 Z0.701
X-212.719 Y-42.151 Z0.7
X-213.779 Y-41.09 Z0.648
X-213.803 Y-41.076 Z0.647
X-213.83 Y-41.073 Z0.646
X-213.856 Y-41.082 Z0.645
X-213.876 Y-41.101 Z0.644
X-213.885 Y-41.128 Z0.643
X-213.882 Y-41.155 Z0.642
X-213.867 Y-41.179 Z0.641
X-212.807 Y-42.239 Z0.589
X-212.783 Y-42.254 Z0.588
X-212.756 Y-42.257 Z0.587
X-212.73 Y-42.247 Z0.586
X-212.71 Y-42.228 Z0.585
X-212.701 Y-42.202 Z0.584
X-212.704 Y-42.174 Z0.583
X-212.719 Y-42.151 Z0.582
X-213.779 Y-41.09 Z0.53
X-213.803 Y-41.076 Z0.529
X-213.83 Y-41.073 Z0.528
X-213.856 Y-41.082 Z0.527
X-213.876 Y-41.101 Z0.526
X-213.885 Y-41.128 Z0.525
X-213.882 Y-41.155 Z0.524
X-213.867 Y-41.179 Z0.523
X-212.807 Y-42.239 Z0.471
X-212.783 Y-42.254 Z0.47
X-212.756 Y-42.257 Z0.469
X-212.73 Y-42.247 Z0.468
X-212.71 Y-42.228 Z0.467
X-212.701 Y-42.202 Z0.466
X-212.704 Y-42.174 Z0.465
X-212.719 Y-42.151 Z0.464
X-213.779 Y-41.09 Z0.411
X-213.803 Y-41.076 Z0.41
X-213.83 Y-41.073 Z0.409
X-213.856 Y-41.082 Z0.408
X-213.876 Y-41.101 Z0.407
X-213.885 Y-41.128 Z0.406
X-213.882 Y-41.155 Z0.405
X-213.867 Y-41.179
X-212.807 Y-42.239 Z0.352
X-212.783 Y-42.254 Z0.351
X-212.756 Y-42.257 Z0.35
X-212.73 Y-42.247 Z0.349
X-212.71 Y-42.228 Z0.348
X-212.701 Y-42.202 Z0.347
X-212.704 Y-42.174 Z0.346
X-212.719 Y-42.151 Z0.345
X-213.779 Y-41.09 Z0.293
X-213.803 Y-41.076 Z0.292
X-213.83 Y-41.073 Z0.291
X-213.856 Y-41.082 Z0.29
X-213.876 Y-41.101 Z0.289
X-213.885 Y-41.128 Z0.288
X-213.882 Y-41.155 Z0.287
X-213.867 Y-41.179 Z0.286
X-212.807 Y-42.239 Z0.234
X-212.783 Y-42.254 Z0.233
X-212.756 Y-42.257 Z0.232
X-212.73 Y-42.247 Z0.231
X-212.71 Y-42.228 Z0.23
X-212.701 Y-42.202 Z0.229
X-212.704 Y-42.174 Z0.228
X-212.719 Y-42.151 Z0.227
X-213.779 Y-41.09 Z0.175
X-213.803 Y-41.076 Z0.174
X-213.83 Y-41.073 Z0.173
X-213.856 Y-41.082 Z0.172
X-213.876 Y-41.101 Z0.171
X-213.885 Y-41.128 Z0.17
X-213.882 Y-41.155 Z0.169
X-213.867 Y-41.179 Z0.168
X-212.807 Y-42.239 Z0.115
X-212.783 Y-42.254 Z0.114
X-212.756 Y-42.257 Z0.113
X-212.73 Y-42.247 Z0.112
X-212.71 Y-42.228 Z0.111
X-212.701 Y-42.202
X-212.704 Y-42.174 Z0.11
X-212.719 Y-42.151 Z0.109
X-213.779 Y-41.09 Z0.056
X-213.803 Y-41.076 Z0.055
X-213.83 Y-41.073 Z0.054
X-213.856 Y-41.082 Z0.053
X-213.876 Y-41.101 Z0.052
X-213.885 Y-41.128 Z0.051
X-213.882 Y-41.155 Z0.05
X-213.867 Y-41.179 Z0.049
X-212.807 Y-42.239 Z-0.003
X-212.783 Y-42.254 Z-0.004
X-212.756 Y-42.257 Z-0.005
X-212.73 Y-42.247 Z-0.006
X-212.71 Y-42.228 Z-0.007
X-212.701 Y-42.202 Z-0.008
X-212.704 Y-42.174 Z-0.009
X-212.719 Y-42.151 Z-0.01
X-213.779 Y-41.09 Z-0.062
X-213.803 Y-41.076 Z-0.063
X-213.83 Y-41.073 Z-0.064
X-213.856 Y-41.082 Z-0.065
X-213.876 Y-41.101 Z-0.066
X-213.885 Y-41.128 Z-0.067
X-213.882 Y-41.155 Z-0.068
X-213.867 Y-41.179 Z-0.069
X-212.807 Y-42.239 Z-0.121
X-212.783 Y-42.254 Z-0.122
X-212.756 Y-42.257 Z-0.123
X-212.73 Y-42.247 Z-0.124
X-212.71 Y-42.228 Z-0.125
X-212.701 Y-42.202 Z-0.126
X-212.704 Y-42.174 Z-0.127
X-212.719 Y-42.151 Z-0.128
X-213.779 Y-41.09 Z-0.181
X-213.803 Y-41.076 Z-0.182
X-213.83 Y-41.073 Z-0.183
X-213.856 Y-41.082 Z-0.184
X-213.876 Y-41.101
X-213.885 Y-41.128 Z-0.185
X-213.882 Y-41.155 Z-0.186
X-213.867 Y-41.179 Z-0.187
X-212.807 Y-42.239 Z-0.24
X-212.783 Y-42.254 Z-0.241
X-212.756 Y-42.257 Z-0.242
X-212.73 Y-42.247 Z-0.243
X-212.71 Y-42.228 Z-0.244
X-212.701 Y-42.202 Z-0.245
X-212.704 Y-42.174 Z-0.246
X-212.719 Y-42.151 Z-0.247
X-213.779 Y-41.09 Z-0.299
X-213.803 Y-41.076 Z-0.3
X-213.83 Y-41.073 Z-0.301
X-213.856 Y-41.082 Z-0.302
X-213.876 Y-41.101 Z-0.303
X-213.885 Y-41.128 Z-0.304
X-213.882 Y-41.155 Z-0.305
X-213.867 Y-41.179 Z-0.306
X-212.807 Y-42.239 Z-0.358
X-212.783 Y-42.254 Z-0.359
X-212.756 Y-42.257 Z-0.36
X-212.73 Y-42.247 Z-0.361
X-212.71 Y-42.228 Z-0.362
X-212.701 Y-42.202 Z-0.363
X-212.704 Y-42.174 Z-0.364
X-212.719 Y-42.151 Z-0.365
X-213.779 Y-41.09 Z-0.417
X-213.803 Y-41.076 Z-0.418
X-213.83 Y-41.073 Z-0.419
X-213.856 Y-41.082 Z-0.42
X-213.876 Y-41.101 Z-0.421
X-213.885 Y-41.128 Z-0.422
X-213.882 Y-41.155 Z-0.423
X-213.867 Y-41.179 Z-0.424
X-212.807 Y-42.239 Z-0.477
X-212.783 Y-42.254 Z-0.478
X-212.756 Y-42.257 Z-0.479
X-212.73 Y-42.247
X-212.71 Y-42.228 Z-0.48
X-212.701 Y-42.202 Z-0.481
X-212.704 Y-42.174 Z-0.482
X-212.719 Y-42.151 Z-0.483
X-213.779 Y-41.09 Z-0.536
X-213.803 Y-41.076 Z-0.537
X-213.83 Y-41.073 Z-0.538
X-213.856 Y-41.082 Z-0.539
X-213.876 Y-41.101 Z-0.54
X-213.885 Y-41.128 Z-0.541
X-213.882 Y-41.155 Z-0.542
X-213.867 Y-41.179 Z-0.543
X-212.807 Y-42.239 Z-0.595
X-212.783 Y-42.254 Z-0.596
X-212.756 Y-42.257 Z-0.597
X-212.73 Y-42.247 Z-0.598
X-212.71 Y-42.228 Z-0.599
X-212.701 Y-42.202 Z-0.6
X-212.704 Y-42.174 Z-0.601
X-212.719 Y-42.151 Z-0.602
X-213.779 Y-41.09 Z-0.654
X-213.803 Y-41.076 Z-0.655
X-213.83 Y-41.073 Z-0.656
X-213.856 Y-41.082 Z-0.657
X-213.876 Y-41.101 Z-0.658
X-213.885 Y-41.128 Z-0.659
X-213.882 Y-41.155 Z-0.66
X-213.867 Y-41.179 Z-0.661
X-212.807 Y-42.239 Z-0.713
X-212.783 Y-42.254 Z-0.714
X-212.756 Y-42.257 Z-0.715
X-212.73 Y-42.247 Z-0.716
X-212.71 Y-42.228 Z-0.717
X-212.701 Y-42.202 Z-0.718
X-212.704 Y-42.174 Z-0.719
X-212.719 Y-42.151 Z-0.72
X-213.779 Y-41.09 Z-0.773
X-213.803 Y-41.076 Z-0.774
X-213.83 Y-41.073
X-213.856 Y-41.082 Z-0.775
X-213.876 Y-41.101 Z-0.776
X-213.885 Y-41.128 Z-0.777
X-213.882 Y-41.155 Z-0.778
X-213.867 Y-41.179 Z-0.779
X-212.807 Y-42.239 Z-0.832
X-212.783 Y-42.254 Z-0.833
X-212.756 Y-42.257 Z-0.834
X-212.73 Y-42.247 Z-0.835
X-212.71 Y-42.228 Z-0.836
X-212.701 Y-42.202 Z-0.837
X-212.704 Y-42.174 Z-0.838
X-212.719 Y-42.151 Z-0.839
X-213.779 Y-41.09 Z-0.891
X-213.803 Y-41.076 Z-0.892
X-213.83 Y-41.073 Z-0.893
X-213.856 Y-41.082 Z-0.894
X-213.876 Y-41.101 Z-0.895
X-213.885 Y-41.128 Z-0.896
X-213.882 Y-41.155 Z-0.897
X-213.867 Y-41.179 Z-0.898
X-212.807 Y-42.239 Z-0.95
X-212.783 Y-42.254 Z-0.951
X-212.756 Y-42.257 Z-0.952
X-212.73 Y-42.247 Z-0.953
X-212.71 Y-42.228 Z-0.954
X-212.701 Y-42.202 Z-0.955
X-212.704 Y-42.174 Z-0.956
X-212.719 Y-42.151 Z-0.957
X-213.779 Y-41.09 Z-1.009
X-213.803 Y-41.076 Z-1.01
X-213.83 Y-41.073 Z-1.011
X-213.856 Y-41.082 Z-1.012
X-213.876 Y-41.101 Z-1.013
X-213.885 Y-41.128 Z-1.014
X-213.882 Y-41.155 Z-1.015
X-213.867 Y-41.179 Z-1.016
X-212.807 Y-42.239 Z-1.068
X-212.783 Y-42.254 Z-1.069
X-212.756 Y-42.257 Z-1.07
X-212.73 Y-42.247 Z-1.071
X-212.71 Y-42.228 Z-1.072
X-212.701 Y-42.202 Z-1.073
X-212.704 Y-42.174 Z-1.074
X-212.719 Y-42.151 Z-1.075
X-213.779 Y-41.09 Z-1.128
X-213.803 Y-41.076 Z-1.129
X-213.83 Y-41.073 Z-1.13
X-213.856 Y-41.082 Z-1.131
X-213.876 Y-41.101 Z-1.132
X-213.885 Y-41.128 Z-1.133
X-213.882 Y-41.155 Z-1.134
X-213.867 Y-41.179 Z-1.135
X-212.807 Y-42.239 Z-1.187
X-212.783 Y-42.254 Z-1.188
X-212.756 Y-42.257 Z-1.189
X-212.73 Y-42.247 Z-1.19
X-212.71 Y-42.228 Z-1.191
X-212.701 Y-42.202 Z-1.192
X-212.704 Y-42.174 Z-1.193
X-212.719 Y-42.151 Z-1.194
X-213.779 Y-41.09 Z-1.246
X-213.803 Y-41.076 Z-1.247
X-213.83 Y-41.073 Z-1.248
X-213.856 Y-41.082 Z-1.249
X-213.876 Y-41.101 Z-1.25
X-213.885 Y-41.128 Z-1.251
X-213.882 Y-41.155 Z-1.252
X-213.867 Y-41.179 Z-1.253
X-212.807 Y-42.239 Z-1.305
X-212.783 Y-42.254 Z-1.306
X-212.756 Y-42.257 Z-1.307
X-212.73 Y-42.247 Z-1.308
X-212.71 Y-42.228 Z-1.309
X-212.701 Y-42.202 Z-1.31
X-212.704 Y-42.174 Z-1.311
X-212.719 Y-42.151 Z-1.312
X-213.779 Y-41.09 Z-1.364
X-213.803 Y-41.076 Z-1.365
X-213.83 Y-41.073 Z-1.366
X-213.856 Y-41.082 Z-1.367
X-213.876 Y-41.101 Z-1.368
X-213.885 Y-41.128 Z-1.369
X-213.882 Y-41.155 Z-1.37
X-213.867 Y-41.179 Z-1.371
X-212.807 Y-42.239 Z-1.424
X-212.783 Y-42.254 Z-1.425
X-212.756 Y-42.257 Z-1.426
X-212.73 Y-42.247 Z-1.427
X-212.71 Y-42.228 Z-1.428
X-212.701 Y-42.202 Z-1.429
X-212.704 Y-42.174
X-212.719 Y-42.151 Z-1.43
X-213.779 Y-41.09 Z-1.483
X-213.803 Y-41.076 Z-1.484
X-213.83 Y-41.073 Z-1.485
X-213.856 Y-41.082 Z-1.486
X-213.876 Y-41.101 Z-1.487
X-213.885 Y-41.128 Z-1.488
X-213.882 Y-41.155 Z-1.489
X-213.867 Y-41.179 Z-1.49
X-212.807 Y-42.239 Z-1.542
X-212.783 Y-42.254 Z-1.543
X-212.756 Y-42.257 Z-1.544
X-212.73 Y-42.247 Z-1.545
X-212.71 Y-42.228 Z-1.546
X-212.701 Y-42.202 Z-1.547
X-212.704 Y-42.174 Z-1.548
X-212.719 Y-42.151 Z-1.549
X-213.779 Y-41.09 Z-1.601
X-213.803 Y-41.076 Z-1.602
X-213.83 Y-41.073 Z-1.603
X-213.856 Y-41.082 Z-1.604
X-213.876 Y-41.101 Z-1.605
X-213.885 Y-41.128 Z-1.606
X-213.882 Y-41.155 Z-1.607
X-213.867 Y-41.179 Z-1.608
X-212.807 Y-42.239 Z-1.66
X-212.783 Y-42.254 Z-1.661
X-212.756 Y-42.257 Z-1.662
X-212.73 Y-42.247 Z-1.663
X-212.71 Y-42.228 Z-1.664
X-212.701 Y-42.202 Z-1.665
X-212.704 Y-42.174 Z-1.666
X-212.719 Y-42.151 Z-1.667
X-213.779 Y-41.09 Z-1.72
X-213.803 Y-41.076 Z-1.721
X-213.83 Y-41.073 Z-1.722
X-213.856 Y-41.082 Z-1.723
X-213.876 Y-41.101 Z-1.724
X-213.885 Y-41.128
X-213.882 Y-41.155 Z-1.725
X-213.867 Y-41.179 Z-1.726
X-212.807 Y-42.239 Z-1.779
X-212.783 Y-42.254 Z-1.78
X-212.756 Y-42.257 Z-1.781
X-212.73 Y-42.247 Z-1.782
X-212.71 Y-42.228 Z-1.783
X-212.701 Y-42.202 Z-1.784
X-212.704 Y-42.174 Z-1.785
X-212.719 Y-42.151 Z-1.786
X-213.779 Y-41.09 Z-1.838
X-213.803 Y-41.076 Z-1.839
X-213.83 Y-41.073 Z-1.84
X-213.856 Y-41.082 Z-1.841
X-213.876 Y-41.101 Z-1.842
X-213.885 Y-41.128 Z-1.843
X-213.882 Y-41.155 Z-1.844
X-213.867 Y-41.179 Z-1.845
X-212.807 Y-42.239 Z-1.897
X-212.783 Y-42.254 Z-1.898
X-212.756 Y-42.257 Z-1.899
X-212.73 Y-42.247 Z-1.9
X-212.71 Y-42.228 Z-1.901
X-212.701 Y-42.202 Z-1.902
X-212.704 Y-42.174 Z-1.903
X-212.719 Y-42.151 Z-1.904
X-213.779 Y-41.09 Z-1.956
X-213.803 Y-41.076 Z-1.957
X-213.83 Y-41.073 Z-1.958
X-213.856 Y-41.082 Z-1.959
X-213.876 Y-41.101 Z-1.96
X-213.885 Y-41.128 Z-1.961
X-213.882 Y-41.155 Z-1.962
X-213.867 Y-41.179 Z-1.963
X-212.807 Y-42.239 Z-2.016
X-212.783 Y-42.254 Z-2.017
X-212.756 Y-42.257 Z-2.018
X-212.73 Y-42.247 Z-2.019
X-212.71 Y-42.228
X-212.701 Y-42.202 Z-2.02
X-212.704 Y-42.174 Z-2.021
X-212.719 Y-42.151 Z-2.022
X-213.779 Y-41.09 Z-2.075
X-213.803 Y-41.076 Z-2.076
X-213.83 Y-41.073 Z-2.077
X-213.856 Y-41.082 Z-2.078
X-213.876 Y-41.101 Z-2.079
X-213.885 Y-41.128 Z-2.08
X-213.882 Y-41.155 Z-2.081
X-213.867 Y-41.179 Z-2.082
X-212.807 Y-42.239 Z-2.134
X-212.783 Y-42.254 Z-2.135
X-212.756 Y-42.257 Z-2.136
X-212.73 Y-42.247 Z-2.137
X-212.71 Y-42.228 Z-2.138
X-212.701 Y-42.202 Z-2.139
X-212.704 Y-42.174 Z-2.14
X-212.719 Y-42.151 Z-2.141
X-213.779 Y-41.09 Z-2.193
X-213.803 Y-41.076 Z-2.194
X-213.83 Y-41.073 Z-2.195
X-213.856 Y-41.082 Z-2.196
X-213.876 Y-41.101 Z-2.197
X-213.885 Y-41.128 Z-2.198
X-213.882 Y-41.155 Z-2.199
X-213.867 Y-41.179 Z-2.2
S6000
X-212.807 Y-42.239 F1000
X-212.783 Y-42.254
X-212.756 Y-42.257
X-212.73 Y-42.247
X-212.71 Y-42.228
X-212.701 Y-42.202
X-212.704 Y-42.174
X-212.719 Y-42.151
X-213.779 Y-41.09
X-213.803 Y-41.076
X-213.83 Y-41.073
X-213.856 Y-41.082
X-213.876 Y-41.101
X-213.885 Y-41.128
X-213.882 Y-41.155
X-213.867 Y-41.179
S5000
X-212.807 Y-42.239 Z-2.252 F333.3
X-212.783 Y-42.254 Z-2.253
X-212.756 Y-42.257 Z-2.254
X-212.73 Y-42.247 Z-2.255
X-212.71 Y-42.228 Z-2.256
X-212.701 Y-42.202 Z-2.257
X-212.704 Y-42.174 Z-2.258
X-212.719 Y-42.151 Z-2.259
X-213.779 Y-41.09 Z-2.312
X-213.803 Y-41.076 Z-2.313
X-213.83 Y-41.073 Z-2.314
X-213.856 Y-41.082
X-213.876 Y-41.101 Z-2.315
X-213.885 Y-41.128 Z-2.316
X-213.882 Y-41.155 Z-2.317
X-213.867 Y-41.179 Z-2.318
X-212.807 Y-42.239 Z-2.371
X-212.783 Y-42.254 Z-2.372
X-212.756 Y-42.257 Z-2.373
X-212.73 Y-42.247 Z-2.374
X-212.71 Y-42.228 Z-2.375
X-212.701 Y-42.202 Z-2.376
X-212.704 Y-42.174 Z-2.377
X-212.719 Y-42.151 Z-2.378
X-213.779 Y-41.09 Z-2.43
X-213.803 Y-41.076 Z-2.431
X-213.83 Y-41.073 Z-2.432
X-213.856 Y-41.082 Z-2.433
X-213.876 Y-41.101 Z-2.434
X-213.885 Y-41.128 Z-2.435
X-213.882 Y-41.155 Z-2.436
X-213.867 Y-41.179 Z-2.437
X-212.807 Y-42.239 Z-2.489
X-212.783 Y-42.254 Z-2.49
X-212.756 Y-42.257 Z-2.491
X-212.73 Y-42.247 Z-2.492
X-212.71 Y-42.228 Z-2.493
X-212.701 Y-42.202 Z-2.494
X-212.704 Y-42.174 Z-2.495
X-212.719 Y-42.151 Z-2.496
X-213.779 Y-41.09 Z-2.548
X-213.803 Y-41.076 Z-2.549
X-213.83 Y-41.073 Z-2.55
X-213.856 Y-41.082 Z-2.551
X-213.876 Y-41.101 Z-2.552
X-213.885 Y-41.128 Z-2.553
X-213.882 Y-41.155 Z-2.554
X-213.867 Y-41.179 Z-2.555
X-212.807 Y-42.239 Z-2.608
X-212.783 Y-42.254
X-212.756 Y-42.257 Z-2.609
X-212.73 Y-42.247 Z-2.61
X-212.71 Y-42.228 Z-2.611
X-212.701 Y-42.202 Z-2.612
X-212.704 Y-42.174 Z-2.613
X-212.719 Y-42.151 Z-2.614
X-213.779 Y-41.09 Z-2.667
X-213.803 Y-41.076 Z-2.668
X-213.83 Y-41.073 Z-2.669
X-213.856 Y-41.082 Z-2.67
X-213.876 Y-41.101 Z-2.671
X-213.885 Y-41.128 Z-2.672
X-213.882 Y-41.155 Z-2.673
X-213.867 Y-41.179 Z-2.674
X-212.807 Y-42.239 Z-2.726
X-212.783 Y-42.254 Z-2.727
X-212.756 Y-42.257 Z-2.728
X-212.73 Y-42.247 Z-2.729
X-212.71 Y-42.228 Z-2.73
X-212.701 Y-42.202 Z-2.731
X-212.704 Y-42.174 Z-2.732
X-212.719 Y-42.151 Z-2.733
X-213.779 Y-41.09 Z-2.785
X-213.803 Y-41.076 Z-2.786
X-213.83 Y-41.073 Z-2.787
X-213.856 Y-41.082 Z-2.788
X-213.876 Y-41.101 Z-2.789
X-213.885 Y-41.128 Z-2.79
X-213.882 Y-41.155 Z-2.791
X-213.867 Y-41.179 Z-2.792
X-212.807 Y-42.239 Z-2.844
X-212.783 Y-42.254 Z-2.845
X-212.756 Y-42.257 Z-2.846
X-212.73 Y-42.247 Z-2.847
X-212.71 Y-42.228 Z-2.848
X-212.701 Y-42.202 Z-2.849
X-212.704 Y-42.174 Z-2.85
X-212.719 Y-42.151 Z-2.851
X-213.779 Y-41.09 Z-2.903
X-213.803 Y-41.076 Z-2.904
X-213.83 Y-41.073 Z-2.905
X-213.856 Y-41.082 Z-2.906
X-213.876 Y-41.101 Z-2.907
X-213.885 Y-41.128 Z-2.908
X-213.882 Y-41.155 Z-2.909
X-213.867 Y-41.179 Z-2.91
X-212.807 Y-42.239 Z-2.963
X-212.783 Y-42.254 Z-2.964
X-212.756 Y-42.257 Z-2.965
X-212.73 Y-42.247 Z-2.966
X-212.71 Y-42.228 Z-2.967
X-212.701 Y-42.202 Z-2.968
X-212.704 Y-42.174 Z-2.969
X-212.719 Y-42.151 Z-2.97
X-213.779 Y-41.09 Z-3.022
X-213.803 Y-41.076 Z-3.023
X-213.83 Y-41.073 Z-3.024
X-213.856 Y-41.082 Z-3.025
X-213.876 Y-41.101 Z-3.026
X-213.885 Y-41.128 Z-3.027
X-213.882 Y-41.155 Z-3.028
X-213.867 Y-41.179 Z-3.029
X-212.807 Y-42.239 Z-3.081
X-212.783 Y-42.254 Z-3.082
X-212.756 Y-42.257 Z-3.083
X-212.73 Y-42.247 Z-3.084
X-212.71 Y-42.228 Z-3.085
X-212.701 Y-42.202 Z-3.086
X-212.704 Y-42.174 Z-3.087
X-212.719 Y-42.151 Z-3.088
X-213.779 Y-41.09 Z-3.14
X-213.803 Y-41.076 Z-3.141
X-213.83 Y-41.073 Z-3.142
X-213.856 Y-41.082 Z-3.143
X-213.876 Y-41.101 Z-3.144
X-213.885 Y-41.128 Z-3.145
X-213.882 Y-41.155 Z-3.146
X-213.867 Y-41.179 Z-3.147
X-212.807 Y-42.239 Z-3.199
X-212.783 Y-42.254 Z-3.2
X-212.756 Y-42.257 Z-3.201
X-212.73 Y-42.247 Z-3.202
X-212.71 Y-42.228 Z-3.203
X-212.701 Y-42.202 Z-3.204
X-212.704 Y-42.174 Z-3.205
X-212.719 Y-42.151 Z-3.206
X-213.779 Y-41.09 Z-3.259
X-213.803 Y-41.076 Z-3.26
X-213.83 Y-41.073 Z-3.261
X-213.856 Y-41.082 Z-3.262
X-213.876 Y-41.101 Z-3.263
X-213.885 Y-41.128 Z-3.264
X-213.882 Y-41.155
X-213.867 Y-41.179 Z-3.265
X-212.807 Y-42.239 Z-3.318
X-212.783 Y-42.254 Z-3.319
X-212.756 Y-42.257 Z-3.32
X-212.73 Y-42.247 Z-3.321
X-212.71 Y-42.228 Z-3.322
X-212.701 Y-42.202 Z-3.323
X-212.704 Y-42.174 Z-3.324
X-212.719 Y-42.151 Z-3.325
X-213.779 Y-41.09 Z-3.377
X-213.803 Y-41.076 Z-3.378
X-213.83 Y-41.073 Z-3.379
X-213.856 Y-41.082 Z-3.38
X-213.876 Y-41.101 Z-3.381
X-213.885 Y-41.128 Z-3.382
X-213.882 Y-41.155 Z-3.383
X-213.867 Y-41.179 Z-3.384
X-212.807 Y-42.239 Z-3.436
X-212.783 Y-42.254 Z-3.437
X-212.756 Y-42.257 Z-3.438
X-212.73 Y-42.247 Z-3.439
X-212.71 Y-42.228 Z-3.44
X-212.701 Y-42.202 Z-3.441
X-212.704 Y-42.174 Z-3.442
X-212.719 Y-42.151 Z-3.443
X-213.779 Y-41.09 Z-3.495
X-213.803 Y-41.076 Z-3.496
X-213.83 Y-41.073 Z-3.497
X-213.856 Y-41.082 Z-3.498
X-213.876 Y-41.101 Z-3.499
X-213.885 Y-41.128 Z-3.5
X-213.882 Y-41.155 Z-3.501
X-213.867 Y-41.179 Z-3.502
X-212.807 Y-42.239 Z-3.555
X-212.783 Y-42.254 Z-3.556
X-212.756 Y-42.257 Z-3.557
X-212.73 Y-42.247 Z-3.558
X-212.71 Y-42.228 Z-3.559
X-212.701 Y-42.202
X-212.704 Y-42.174 Z-3.56
X-212.719 Y-42.151 Z-3.561
X-213.779 Y-41.09 Z-3.614
X-213.803 Y-41.076 Z-3.615
X-213.83 Y-41.073 Z-3.616
X-213.856 Y-41.082 Z-3.617
X-213.876 Y-41.101 Z-3.618
X-213.885 Y-41.128 Z-3.619
X-213.882 Y-41.155 Z-3.62
X-213.867 Y-41.179 Z-3.621
X-212.807 Y-42.239 Z-3.673
X-212.783 Y-42.254 Z-3.674
X-212.756 Y-42.257 Z-3.675
X-212.73 Y-42.247 Z-3.676
X-212.71 Y-42.228 Z-3.677
X-212.701 Y-42.202 Z-3.678
X-212.704 Y-42.174 Z-3.679
X-212.719 Y-42.151 Z-3.68
X-213.779 Y-41.09 Z-3.732
X-213.803 Y-41.076 Z-3.733
X-213.83 Y-41.073 Z-3.734
X-213.856 Y-41.082 Z-3.735
X-213.876 Y-41.101 Z-3.736
X-213.885 Y-41.128 Z-3.737
X-213.882 Y-41.155 Z-3.738
X-213.867 Y-41.179 Z-3.739
X-212.807 Y-42.239 Z-3.791
X-212.783 Y-42.254 Z-3.792
X-212.756 Y-42.257 Z-3.793
X-212.73 Y-42.247 Z-3.794
X-212.71 Y-42.228 Z-3.795
X-212.701 Y-42.202 Z-3.796
X-212.704 Y-42.174 Z-3.797
X-212.719 Y-42.151 Z-3.798
X-213.779 Y-41.09 Z-3.851
X-213.803 Y-41.076 Z-3.852
X-213.83 Y-41.073 Z-3.853
X-213.856 Y-41.082 Z-3.854
X-213.876 Y-41.101
X-213.885 Y-41.128 Z-3.855
X-213.882 Y-41.155 Z-3.856
X-213.867 Y-41.179 Z-3.857
X-212.807 Y-42.239 Z-3.91
X-212.783 Y-42.254 Z-3.911
X-212.756 Y-42.257 Z-3.912
X-212.73 Y-42.247 Z-3.913
X-212.71 Y-42.228 Z-3.914
X-212.701 Y-42.202 Z-3.915
X-212.704 Y-42.174 Z-3.916
X-212.719 Y-42.151 Z-3.917
