(1001)
(Bearbeiten)
(  Hersteller: ChinaCnc)
(  model: 3040T)
(  description: Generic 3-axis)
(T5  D=3.175 CR=0 - ZMIN=-4.2 - Schaftfraser)
G90 G94
G17
G21
(When using Fusion 360 for Personal Use, the feedrate of)
(rapid moves is reduced to match the feedrate of cutting)
(moves, which can increase machining time. Unrestricted rapid)
(moves are available with a Fusion 360 Subscription.)

(Bohrfrasen10)
T5
S6000 M3
G54
G0 X-218.507 Y-22.917
Z15
G1 Z1.683 F1000
Z0
X-218.476 Y-22.948
X-218.46 Y-22.944
X-218.449 Y-22.932
X-218.445 Y-22.917
X-218.452 Y-22.887 Z-0.078
X-218.472 Y-22.865 Z-0.156
X-218.5 Y-22.855 Z-0.233
X-218.53 Y-22.859 Z-0.311
X-218.555 Y-22.877 Z-0.389
X-218.568 Y-22.904 Z-0.467
X-218.567 Y-22.934 Z-0.544
X-218.552 Y-22.96 Z-0.622
X-218.526 Y-22.976 Z-0.7
X-218.496 Y-22.978 Z-0.778
X-218.469 Y-22.966 Z-0.856
X-218.45 Y-22.942 Z-0.933
X-218.445 Y-22.912 Z-1.011
X-218.454 Y-22.884 Z-1.089
X-218.476 Y-22.863 Z-1.167
X-218.505 Y-22.854 Z-1.244
X-218.534 Y-22.861 Z-1.322
X-218.558 Y-22.88 Z-1.4
X-218.569 Y-22.908 Z-1.478
X-218.566 Y-22.938 Z-1.556
X-218.549 Y-22.963 Z-1.633
X-218.522 Y-22.977 Z-1.711
X-218.492 Z-1.789
X-218.465 Y-22.963 Z-1.867
X-218.448 Y-22.938 Z-1.944
X-218.445 Y-22.908 Z-2.022
X-218.456 Y-22.88 Z-2.1
X-218.48 Y-22.861 Z-2.178
X-218.509 Y-22.854 Z-2.256
X-218.538 Y-22.863 Z-2.333
X-218.56 Y-22.884 Z-2.411
X-218.569 Y-22.912 Z-2.489
X-218.564 Y-22.942 Z-2.567
X-218.545 Y-22.966 Z-2.644
X-218.518 Y-22.978 Z-2.722
X-218.488 Y-22.976 Z-2.8
X-218.462 Y-22.96 Z-2.878
X-218.447 Y-22.934 Z-2.956
X-218.446 Y-22.904 Z-3.033
X-218.459 Y-22.877 Z-3.111
X-218.484 Y-22.859 Z-3.189
X-218.514 Y-22.855 Z-3.267
X-218.542 Y-22.865 Z-3.344
X-218.562 Y-22.887 Z-3.422
X-218.57 Y-22.917 Z-3.5
X-218.562 Y-22.946 Z-3.578
X-218.542 Y-22.969 Z-3.656
X-218.514 Y-22.979 Z-3.733
X-218.484 Y-22.975 Z-3.811
X-218.459 Y-22.957 Z-3.889
X-218.446 Y-22.93 Z-3.967
X-218.447 Y-22.9 Z-4.044
X-218.462 Y-22.873 Z-4.122
X-218.488 Y-22.857 Z-4.2
G3 X-218.526 Y-22.976 I-0.019 J-0.059
X-218.488 Y-22.857 I0.019 J0.059
G1 X-218.504 Y-22.856
X-218.518 Y-22.864
X-218.527 Y-22.877
X-218.507 Y-22.917
Z5
X-194.465
Z1.683
Z0
X-194.434 Y-22.948
X-194.419 Y-22.944
X-194.407 Y-22.932
X-194.403 Y-22.917
X-194.41 Y-22.887 Z-0.078
X-194.43 Y-22.865 Z-0.156
X-194.459 Y-22.855 Z-0.233
X-194.489 Y-22.859 Z-0.311
X-194.513 Y-22.877 Z-0.389
X-194.527 Y-22.904 Z-0.467
X-194.525 Y-22.934 Z-0.544
X-194.51 Y-22.96 Z-0.622
X-194.485 Y-22.976 Z-0.7
X-194.455 Y-22.978 Z-0.778
X-194.427 Y-22.966 Z-0.856
X-194.408 Y-22.942 Z-0.933
X-194.403 Y-22.912 Z-1.011
X-194.412 Y-22.884 Z-1.089
X-194.434 Y-22.863 Z-1.167
X-194.463 Y-22.854 Z-1.244
X-194.493 Y-22.861 Z-1.322
X-194.516 Y-22.88 Z-1.4
X-194.527 Y-22.908 Z-1.478
X-194.524 Y-22.938 Z-1.556
X-194.507 Y-22.963 Z-1.633
X-194.48 Y-22.977 Z-1.711
X-194.45 Z-1.789
X-194.424 Y-22.963 Z-1.867
X-194.407 Y-22.938 Z-1.944
X-194.403 Y-22.908 Z-2.022
X-194.415 Y-22.88 Z-2.1
X-194.438 Y-22.861 Z-2.178
X-194.468 Y-22.854 Z-2.256
X-194.497 Y-22.863 Z-2.333
X-194.518 Y-22.884 Z-2.411
X-194.528 Y-22.912 Z-2.489
X-194.522 Y-22.942 Z-2.567
X-194.504 Y-22.966 Z-2.644
X-194.476 Y-22.978 Z-2.722
X-194.446 Y-22.976 Z-2.8
X-194.42 Y-22.96 Z-2.878
X-194.405 Y-22.934 Z-2.956
X-194.404 Y-22.904 Z-3.033
X-194.417 Y-22.877 Z-3.111
X-194.442 Y-22.859 Z-3.189
X-194.472 Y-22.855 Z-3.267
X-194.5 Y-22.865 Z-3.344
X-194.521 Y-22.887 Z-3.422
X-194.528 Y-22.917 Z-3.5
X-194.521 Y-22.946 Z-3.578
X-194.5 Y-22.969 Z-3.656
X-194.472 Y-22.979 Z-3.733
X-194.442 Y-22.975 Z-3.811
X-194.418 Y-22.957 Z-3.889
X-194.404 Y-22.93 Z-3.967
X-194.405 Y-22.9 Z-4.044
X-194.42 Y-22.873 Z-4.122
X-194.446 Y-22.857 Z-4.2
G3 X-194.485 Y-22.976 I-0.019 J-0.059
X-194.446 Y-22.857 I0.019 J0.059
G1 X-194.462 Y-22.856
X-194.477 Y-22.864
X-194.485 Y-22.877
X-194.465 Y-22.917
Z5
X-207.825 Y-37.211
Z2
Z0.317
X-207.828 Y-37.218 Z0.247
X-207.837 Y-37.24 Z0.18
X-207.852 Y-37.274 Z0.12
X-207.873 Y-37.32 Z0.069
X-207.897 Y-37.375 Z0.031
X-207.923 Y-37.437 Z0.008
X-207.952 Y-37.502 Z0
X-208.015 Y-37.647
G3 X-207.851 Y-38.065 I0.291 J-0.127
X-205.121 Y-31.81 Z-0.5 I1.365 J3.128
X-207.851 Y-38.065 Z-1 I-1.365 J-3.128
X-205.121 Y-31.81 Z-1.5 I1.365 J3.128
X-207.851 Y-38.065 Z-2 I-1.365 J-3.128
X-205.121 Y-31.81 Z-2.5 I1.365 J3.128
X-207.851 Y-38.065 Z-3 I-1.365 J-3.128
X-205.121 Y-31.81 Z-3.5 I1.365 J3.128
X-207.851 Y-38.065 Z-4 I-1.365 J-3.128
X-203.933 Y-37.202 Z-4.2 I1.365 J3.128
X-209.039 Y-32.673 I-2.553 J2.265
X-203.933 Y-37.202 I2.553 J-2.265
X-203.96 Y-36.754 I-0.238 J0.211
G1 X-204.079 Y-36.649
X-204.132 Y-36.602 Z-4.192
X-204.182 Y-36.557 Z-4.169
X-204.227 Y-36.517 Z-4.131
X-204.265 Y-36.484 Z-4.08
X-204.293 Y-36.459 Z-4.02
X-204.311 Y-36.443 Z-3.953
X-204.317 Y-36.438 Z-3.882
Z5
X-218.507 Y-46.958
Z1.683
Z0
X-218.476 Y-46.99
X-218.46 Y-46.985
X-218.449 Y-46.974
X-218.445 Y-46.958
X-218.452 Y-46.929 Z-0.078
X-218.472 Y-46.907 Z-0.156
X-218.5 Y-46.896 Z-0.233
X-218.53 Y-46.9 Z-0.311
X-218.555 Y-46.918 Z-0.389
X-218.568 Y-46.945 Z-0.467
X-218.567 Y-46.976 Z-0.544
X-218.552 Y-47.002 Z-0.622
X-218.526 Y-47.018 Z-0.7
X-218.496 Y-47.02 Z-0.778
X-218.469 Y-47.008 Z-0.856
X-218.45 Y-46.984 Z-0.933
X-218.445 Y-46.954 Z-1.011
X-218.454 Y-46.925 Z-1.089
X-218.476 Y-46.904 Z-1.167
X-218.505 Y-46.896 Z-1.244
X-218.534 Y-46.902 Z-1.322
X-218.558 Y-46.922 Z-1.4
X-218.569 Y-46.95 Z-1.478
X-218.566 Y-46.98 Z-1.556
X-218.549 Y-47.005 Z-1.633
X-218.522 Y-47.019 Z-1.711
X-218.492 Z-1.789
X-218.465 Y-47.005 Z-1.867
X-218.448 Y-46.98 Z-1.944
X-218.445 Y-46.95 Z-2.022
X-218.456 Y-46.922 Z-2.1
X-218.48 Y-46.902 Z-2.178
X-218.509 Y-46.896 Z-2.256
X-218.538 Y-46.904 Z-2.333
X-218.56 Y-46.925 Z-2.411
X-218.569 Y-46.954 Z-2.489
X-218.564 Y-46.984 Z-2.567
X-218.545 Y-47.008 Z-2.644
X-218.518 Y-47.02 Z-2.722
X-218.488 Y-47.018 Z-2.8
X-218.462 Y-47.002 Z-2.878
X-218.447 Y-46.976 Z-2.956
X-218.446 Y-46.945 Z-3.033
X-218.459 Y-46.918 Z-3.111
X-218.484 Y-46.9 Z-3.189
X-218.514 Y-46.896 Z-3.267
X-218.542 Y-46.907 Z-3.344
X-218.562 Y-46.929 Z-3.422
X-218.569 Y-46.958 Z-3.5
X-218.562 Y-46.988 Z-3.578
X-218.542 Y-47.01 Z-3.656
X-218.514 Y-47.021 Z-3.733
X-218.484 Y-47.016 Z-3.811
X-218.459 Y-46.999 Z-3.889
X-218.446 Y-46.971 Z-3.967
X-218.447 Y-46.941 Z-4.044
X-218.462 Y-46.915 Z-4.122
X-218.488 Y-46.899 Z-4.2
G3 X-218.526 Y-47.018 I-0.019 J-0.059
X-218.488 Y-46.899 I0.019 J0.059
G1 X-218.504 Y-46.898
X-218.518 Y-46.905
X-218.527 Y-46.919
X-218.507 Y-46.958
Z5
X-194.465
Z1.683
Z0
X-194.434 Y-46.99
X-194.419 Y-46.985
X-194.407 Y-46.974
X-194.403 Y-46.958
X-194.41 Y-46.929 Z-0.078
X-194.43 Y-46.907 Z-0.156
X-194.459 Y-46.896 Z-0.233
X-194.489 Y-46.9 Z-0.311
X-194.513 Y-46.918 Z-0.389
X-194.527 Y-46.945 Z-0.467
X-194.525 Y-46.976 Z-0.544
X-194.51 Y-47.002 Z-0.622
X-194.485 Y-47.018 Z-0.7
X-194.455 Y-47.02 Z-0.778
X-194.427 Y-47.008 Z-0.856
X-194.408 Y-46.984 Z-0.933
X-194.403 Y-46.954 Z-1.011
X-194.412 Y-46.925 Z-1.089
X-194.434 Y-46.904 Z-1.167
X-194.463 Y-46.896 Z-1.244
X-194.493 Y-46.902 Z-1.322
X-194.516 Y-46.922 Z-1.4
X-194.527 Y-46.95 Z-1.478
X-194.524 Y-46.98 Z-1.556
X-194.507 Y-47.005 Z-1.633
X-194.48 Y-47.019 Z-1.711
X-194.45 Z-1.789
X-194.424 Y-47.005 Z-1.867
X-194.407 Y-46.98 Z-1.944
X-194.403 Y-46.95 Z-2.022
X-194.415 Y-46.922 Z-2.1
X-194.438 Y-46.902 Z-2.178
X-194.468 Y-46.896 Z-2.256
X-194.497 Y-46.904 Z-2.333
X-194.518 Y-46.925 Z-2.411
X-194.528 Y-46.954 Z-2.489
X-194.522 Y-46.984 Z-2.567
X-194.504 Y-47.008 Z-2.644
X-194.476 Y-47.02 Z-2.722
X-194.446 Y-47.018 Z-2.8
X-194.42 Y-47.002 Z-2.878
X-194.405 Y-46.976 Z-2.956
X-194.404 Y-46.945 Z-3.033
X-194.418 Y-46.918 Z-3.111
X-194.442 Y-46.9 Z-3.189
X-194.472 Y-46.896 Z-3.267
X-194.5 Y-46.907 Z-3.344
X-194.521 Y-46.929 Z-3.422
X-194.528 Y-46.958 Z-3.5
X-194.521 Y-46.988 Z-3.578
X-194.5 Y-47.01 Z-3.656
X-194.472 Y-47.021 Z-3.733
X-194.442 Y-47.016 Z-3.811
X-194.418 Y-46.999 Z-3.889
X-194.404 Y-46.971 Z-3.967
X-194.405 Y-46.941 Z-4.044
X-194.42 Y-46.915 Z-4.122
X-194.446 Y-46.899 Z-4.2
G3 X-194.485 Y-47.018 I-0.019 J-0.059
X-194.446 Y-46.899 I0.019 J0.059
G1 X-194.462 Y-46.898
X-194.477 Y-46.905
X-194.485 Y-46.919
X-194.465 Y-46.958
Z5
X-126.728 Y-63.061
Z2
Z0.317
G18 G2 X-126.411 Z0 I0.317 K0
G1 X-126.252
G17 G3 X-125.935 Y-62.743 I0 J0.317
X-133.26 Y-62.743 Z-0.5 I-3.663 J0
X-125.935 Y-62.743 Z-1 I3.663 J0
X-133.26 Y-62.743 Z-1.5 I-3.663 J0
X-125.935 Y-62.743 Z-2 I3.663 J0
X-133.26 Y-62.743 Z-2.5 I-3.663 J0
X-125.935 Y-62.743 Z-3 I3.663 J0
X-133.26 Y-62.743 Z-3.5 I-3.663 J0
X-125.935 Y-62.743 Z-4 I3.663 J0
X-128.465 Y-59.26 Z-4.2 I-3.663 J0
X-130.729 Y-66.226 I-1.132 J-3.483
X-128.465 Y-59.26 I1.132 J3.483
X-128.865 Y-59.464 I-0.098 J-0.302
G1 X-128.914 Y-59.615
X-128.936 Y-59.682 Z-4.192
X-128.957 Y-59.746 Z-4.169
X-128.976 Y-59.803 Z-4.131
X-128.991 Y-59.851 Z-4.08
X-129.003 Y-59.887 Z-4.02
X-129.01 Y-59.909 Z-3.953
X-129.013 Y-59.917 Z-3.882
Z5
X-62.784 Y-62.991
Z2
Z0.317
G18 G2 X-62.467 Z0 I0.317 K0
G1 X-62.308
G17 G3 X-61.991 Y-62.673 I0 J0.317
X-69.316 Y-62.673 Z-0.5 I-3.663 J0
X-61.991 Y-62.673 Z-1 I3.663 J0
X-69.316 Y-62.673 Z-1.5 I-3.663 J0
X-61.991 Y-62.673 Z-2 I3.663 J0
X-69.316 Y-62.673 Z-2.5 I-3.663 J0
X-61.991 Y-62.673 Z-3 I3.663 J0
X-69.316 Y-62.673 Z-3.5 I-3.663 J0
X-61.991 Y-62.673 Z-4 I3.663 J0
X-64.521 Y-59.19 Z-4.2 I-3.663 J0
X-66.785 Y-66.157 I-1.132 J-3.483
X-64.521 Y-59.19 I1.132 J3.483
X-64.922 Y-59.394 I-0.098 J-0.302
G1 X-64.971 Y-59.545
X-64.992 Y-59.612 Z-4.192
X-65.013 Y-59.676 Z-4.169
X-65.032 Y-59.733 Z-4.131
X-65.047 Y-59.781 Z-4.08
X-65.059 Y-59.817 Z-4.02
X-65.066 Y-59.839 Z-3.953
X-65.069 Y-59.847 Z-3.882
Z15
(When using Fusion 360 for Personal Use, the feedrate of)
(rapid moves is reduced to match the feedrate of cutting)
(moves, which can increase machining time. Unrestricted rapid)
(moves are available with a Fusion 360 Subscription.)

(2D-Kontur31)
G0 X-208.106 Y-69.025
G1 Z15 F1000
Z5
Z2.5 F333.3
S5000
X-222.607 Z1.994
Y-69.35 Z1.982
X-200.781 Z1.22
Y-69.025 Z1.209
X-222.607 Z0.447
Y-69.35 Z0.435
X-200.781 Z-0.327
Y-69.025 Z-0.338
X-222.607 Z-1.1
Y-69.35 Z-1.112
X-200.781 Z-1.874
Y-69.025 Z-1.885
X-222.607 Z-2.647
Y-69.35 Z-2.659
X-200.781 Z-3.421
Y-69.025 Z-3.432
X-222.607 Z-4.194
Y-69.188 Z-4.2
S6000
Y-69.35 F1000
X-200.781
Y-69.025
X-222.607
Y-69.188
Z15
(When using Fusion 360 for Personal Use, the feedrate of)
(rapid moves is reduced to match the feedrate of cutting)
(moves, which can increase machining time. Unrestricted rapid)
(moves are available with a Fusion 360 Subscription.)

(2D Adaptive7)
G0 X-206.813 Y-53.63
G1 Z15 F1000
Z5
Z-0.765
Z-1.082
X-206.811 Y-53.622 Z-1.153
X-206.806 Y-53.599 Z-1.22
X-206.796 Y-53.563 Z-1.28
X-206.784 Y-53.514 Z-1.331
X-206.769 Y-53.456 Z-1.369
X-206.752 Y-53.391 Z-1.392
X-206.735 Y-53.322 Z-1.4
G3 X-206.486 Y-51.594 I-7.852 J2.011
G1 Y-51.444
X-206.586 Y-51.343
X-206.724 Y-51.306
X-206.861 Y-51.343
X-206.962 Y-51.444
X-206.999 Y-51.581
X-206.99 Y-51.638
G3 X-205.973 Y-51.523 I0.5 J0.132
G1 Y-51.241
X-205.975 Y-51.204
X-206.115 Y-51.057
X-206.298 Y-50.97
X-206.501 Y-50.954
X-206.695 Y-51.012
X-206.856 Y-51.136
X-206.962 Y-51.309
X-206.999 Y-51.508
X-206.989 Y-51.568
X-206.966 Y-51.623
X-206.931 Y-51.672
X-206.885 Y-51.711
G3 X-205.973 Y-51.241 I0.324 J0.49
G1 Y-50.959
X-205.977 Y-50.884
X-206.049 Y-50.753
X-206.2 Y-50.644
X-206.379 Y-50.591
X-206.565 Y-50.601
X-206.738 Y-50.671
X-206.877 Y-50.795
X-206.967 Y-50.958
X-206.999 Y-51.142
X-206.99 Y-51.199
X-206.969 Y-51.252
X-206.936 Y-51.3
G3 X-205.973 Y-50.959 I0.415 J0.359
G1 Y-50.648
X-205.981 Y-50.498
X-206.06 Y-50.37
X-206.212 Y-50.267
X-206.39 Y-50.218
X-206.574 Y-50.231
X-206.743 Y-50.303
X-206.88 Y-50.427
X-206.968 Y-50.588
X-206.999 Y-50.77
X-206.99 Y-50.829
X-206.967 Y-50.884
G3 X-205.973 Y-50.648 I0.464 J0.255
G1 Y-50.297
X-205.981 Y-50.147
X-206.054 Y-50.016
X-206.158 Y-49.909
X-206.339 Y-49.837
X-206.533 Y-49.833
X-206.716 Y-49.896
X-206.866 Y-50.019
X-206.964 Y-50.186
X-206.999 Y-50.377
X-206.994 Y-50.417
X-206.984 Y-50.455
G3 X-205.973 Y-50.297 I0.49 J0.176
G1 Y-49.903
X-205.981 Y-49.753
X-206.056 Y-49.623
X-206.206 Y-49.515
X-206.384 Y-49.463
X-206.569 Y-49.473
X-206.74 Y-49.544
X-206.878 Y-49.667
X-206.967 Y-49.829
X-206.999 Y-50.011
X-206.991 Y-50.063
X-206.973 Y-50.113
G3 X-205.973 Y-49.903 I0.474 J0.229
G1 Y-49.55
X-205.981 Y-49.4
X-206.051 Y-49.267
X-206.154 Y-49.158
X-206.334 Y-49.085
X-206.529 Y-49.078
X-206.714 Y-49.141
X-206.865 Y-49.263
X-206.964 Y-49.431
X-206.999 Y-49.622
X-206.995 Y-49.658
X-206.986 Y-49.693
G3 X-205.973 Y-49.55 I0.494 J0.161
G1 Y-49.169
X-205.981 Y-49.02
X-206.05 Y-48.887
X-206.198 Y-48.773
X-206.375 Y-48.716
X-206.561 Y-48.722
X-206.735 Y-48.79
X-206.875 Y-48.912
X-206.967 Y-49.074
X-206.999 Y-49.257
X-206.993 Y-49.3
X-206.981 Y-49.342
G3 X-205.973 Y-49.169 I0.486 J0.191
G1 Y-48.81
X-205.981 Y-48.66
X-206.049 Y-48.526
X-206.15 Y-48.415
X-206.33 Y-48.339
X-206.525 Y-48.331
X-206.711 Y-48.392
X-206.864 Y-48.514
X-206.964 Y-48.681
X-206.999 Y-48.874
X-206.989 Y-48.936
G3 X-205.973 Y-48.81 I0.497 J0.144
G1 Y-48.422
X-205.981 Y-48.272
X-206.05 Y-48.139
X-206.198 Y-48.026
X-206.376 Y-47.969
X-206.562 Y-47.975
X-206.735 Y-48.043
X-206.875 Y-48.165
X-206.967 Y-48.327
X-206.999 Y-48.511
X-206.993 Y-48.554
X-206.981 Y-48.596
G3 X-205.973 Y-48.422 I0.485 J0.192
G1 Y-48.07
X-205.981 Y-47.92
X-206.046 Y-47.785
X-206.146 Y-47.673
X-206.326 Y-47.595
X-206.522 Y-47.586
X-206.709 Y-47.645
X-206.862 Y-47.767
X-206.963 Y-47.936
X-206.999 Y-48.129
X-206.99 Y-48.186
G3 X-205.973 Y-48.07 I0.5 J0.134
G1 Y-47.682
X-205.981 Y-47.532
X-206.049 Y-47.399
X-206.196 Y-47.284
X-206.373 Y-47.226
X-206.56 Y-47.231
X-206.734 Y-47.298
X-206.875 Y-47.42
X-206.967 Y-47.582
X-206.999 Y-47.766
X-206.994 Y-47.807
X-206.982 Y-47.847
G3 X-205.973 Y-47.682 I0.488 J0.183
G1 Y-47.294
X-205.981 Y-47.144
X-206.057 Y-47.015
X-206.207 Y-46.907
X-206.384 Y-46.855
X-206.569 Y-46.865
X-206.74 Y-46.935
X-206.878 Y-47.058
X-206.967 Y-47.22
X-206.999 Y-47.402
X-206.991 Y-47.454
X-206.973 Y-47.504
G3 X-205.973 Y-47.294 I0.474 J0.228
G1 Y-46.942
X-205.981 Y-46.793
X-206.051 Y-46.66
X-206.154 Y-46.551
X-206.334 Y-46.477
X-206.529 Y-46.47
X-206.713 Y-46.532
X-206.865 Y-46.655
X-206.964 Y-46.822
X-206.999 Y-47.014
X-206.995 Y-47.049
X-206.986 Y-47.084
G3 X-205.973 Y-46.942 I0.494 J0.159
G1 Y-46.554
X-205.981 Y-46.405
X-206.052 Y-46.273
X-206.201 Y-46.161
X-206.378 Y-46.106
X-206.564 Y-46.113
X-206.736 Y-46.182
X-206.876 Y-46.304
X-206.967 Y-46.466
X-206.999 Y-46.649
X-206.993 Y-46.696
X-206.978 Y-46.74
G3 X-205.973 Y-46.554 I0.482 J0.204
G1 Y-46.209
X-205.981 Y-46.059
X-206.046 Y-45.924
X-206.145 Y-45.812
X-206.325 Y-45.733
X-206.521 Y-45.723
X-206.708 Y-45.783
X-206.862 Y-45.905
X-206.963 Y-46.074
X-206.999 Y-46.267
X-206.99 Y-46.324
G3 X-205.973 Y-46.209 I0.5 J0.133
G1 Y-45.815
X-205.981 Y-45.665
X-206.05 Y-45.532
X-206.198 Y-45.419
X-206.376 Y-45.362
X-206.562 Y-45.368
X-206.735 Y-45.436
X-206.876 Y-45.559
X-206.967 Y-45.721
X-206.999 Y-45.904
X-206.993 Y-45.948
X-206.98 Y-45.99
G3 X-205.973 Y-45.815 I0.485 J0.194
G1 Y-45.462
X-205.981 Y-45.312
X-206.047 Y-45.177
X-206.147 Y-45.065
X-206.327 Y-44.988
X-206.523 Y-44.978
X-206.709 Y-45.039
X-206.863 Y-45.161
X-206.963 Y-45.329
X-206.999 Y-45.522
X-206.99 Y-45.58
G3 X-205.973 Y-45.462 I0.499 J0.137
G1 Y-45.039
X-205.981 Y-44.889
X-206.058 Y-44.76
X-206.21 Y-44.656
X-206.388 Y-44.607
X-206.572 Y-44.62
X-206.742 Y-44.692
X-206.879 Y-44.815
X-206.968 Y-44.977
X-206.999 Y-45.159
X-206.99 Y-45.217
X-206.968 Y-45.272
G3 X-205.973 Y-45.039 I0.466 J0.252
G1 Y-44.687
X-205.981 Y-44.537
X-206.053 Y-44.406
X-206.158 Y-44.298
X-206.338 Y-44.226
X-206.532 Y-44.222
X-206.716 Y-44.285
X-206.866 Y-44.408
X-206.964 Y-44.575
X-206.999 Y-44.766
X-206.994 Y-44.805
X-206.984 Y-44.843
G3 X-205.973 Y-44.687 I0.49 J0.174
G1 Y-44.299
X-205.981 Y-44.149
X-206.054 Y-44.018
X-206.204 Y-43.908
X-206.381 Y-43.855
X-206.566 Y-43.863
X-206.738 Y-43.933
X-206.877 Y-44.056
X-206.967 Y-44.217
X-206.999 Y-44.4
X-206.992 Y-44.449
X-206.976 Y-44.496
G3 X-205.973 Y-44.299 I0.478 J0.216
G1 Y-43.954
X-205.981 Y-43.804
X-206.047 Y-43.669
X-206.148 Y-43.558
X-206.328 Y-43.481
X-206.523 Y-43.472
X-206.71 Y-43.533
X-206.863 Y-43.655
X-206.964 Y-43.823
X-206.999 Y-44.016
X-206.989 Y-44.076
G3 X-205.973 Y-43.954 I0.498 J0.141
G1 Y-43.559
X-205.981 Y-43.409
X-206.051 Y-43.277
X-206.2 Y-43.165
X-206.377 Y-43.109
X-206.563 Y-43.116
X-206.736 Y-43.185
X-206.876 Y-43.307
X-206.967 Y-43.469
X-206.999 Y-43.652
X-206.993 Y-43.698
X-206.979 Y-43.741
G3 X-206.497 Y-44.064 I0.483 J0.2
G1 X-206.496
G3 X-205.973 Y-43.559 I0 J0.523
G1 Y-43.206
X-205.981 Y-43.056
X-206.048 Y-42.922
X-206.148 Y-42.811
X-206.328 Y-42.734
X-206.524 Y-42.725
X-206.71 Y-42.786
X-206.863 Y-42.908
X-206.964 Y-43.076
X-206.999 Y-43.268
X-206.989 Y-43.329
G3 X-205.973 Y-43.206 I0.498 J0.141
G1 Y-42.783
X-205.981 Y-42.633
X-206.059 Y-42.505
X-206.211 Y-42.401
X-206.389 Y-42.353
X-206.573 Y-42.366
X-206.743 Y-42.438
X-206.879 Y-42.562
X-206.968 Y-42.724
X-206.999 Y-42.906
X-206.989 Y-42.965
X-206.967 Y-43.02
G3 X-205.973 Y-42.783 I0.464 J0.255
G1 Y-42.431
X-205.981 Y-42.282
X-206.054 Y-42.15
X-206.158 Y-42.043
X-206.339 Y-41.972
X-206.533 Y-41.968
X-206.716 Y-42.031
X-206.866 Y-42.154
X-206.964 Y-42.321
X-206.999 Y-42.512
X-206.994 Y-42.552
X-206.983 Y-42.59
G3 X-205.973 Y-42.431 I0.49 J0.177
G1 Y-42.043
X-205.981 Y-41.894
X-206.054 Y-41.763
X-206.204 Y-41.653
X-206.381 Y-41.6
X-206.567 Y-41.609
X-206.738 Y-41.678
X-206.877 Y-41.801
X-206.967 Y-41.963
X-206.999 Y-42.146
X-206.992 Y-42.195
X-206.976 Y-42.243
G3 X-205.973 Y-42.043 I0.478 J0.218
G1 Y-41.698
X-205.981 Y-41.548
X-206.037 Y-41.409
X-206.13 Y-41.291
X-206.308 Y-41.202
X-206.506 Y-41.184
X-206.698 Y-41.238
X-206.857 Y-41.357
X-206.962 Y-41.527
X-206.999 Y-41.722
G3 X-206.661 Y-42.028 I0.317 J0.011
G1 X-206.588 Y-42.024
X-206.271 Y-42.004
G3 X-205.973 Y-41.698 I-0.02 J0.317
G1 Y-39.788
Z5
X-206.615 Y-37.26
Z-0.765
Z-1.082
X-206.619 Y-37.267 Z-1.153
X-206.631 Y-37.287 Z-1.22
X-206.65 Y-37.319 Z-1.28
X-206.676 Y-37.363 Z-1.331
X-206.707 Y-37.414 Z-1.369
X-206.741 Y-37.472 Z-1.392
X-206.777 Y-37.533 Z-1.4
G3 X-206.999 Y-38.286 I1.36 J-0.809
G1 Y-40.542
G3 X-206.425 Y-40.719 I0.317 J0.011
G1 X-206.383 Y-40.662 Z-1.392
X-206.344 Y-40.607 Z-1.369
X-206.308 Y-40.559 Z-1.331
X-206.278 Y-40.518 Z-1.28
X-206.256 Y-40.488 Z-1.22
X-206.242 Y-40.469 Z-1.153
X-206.237 Y-40.463 Z-1.082
Z15
X-206.159 Y-16.245
Z5
Z-0.765
Z-1.082
X-206.161 Y-16.253 Z-1.153
X-206.166 Y-16.276 Z-1.22
X-206.176 Y-16.312 Z-1.28
X-206.188 Y-16.361 Z-1.331
X-206.203 Y-16.419 Z-1.369
X-206.22 Y-16.484 Z-1.392
X-206.237 Y-16.553 Z-1.4
G3 X-206.486 Y-18.281 I7.852 J-2.011
G1 Y-18.431
X-206.386 Y-18.532
X-206.248 Y-18.569
X-206.111 Y-18.532
X-206.01 Y-18.432
X-205.973 Y-18.294
X-205.982 Y-18.238
G3 X-206.999 Y-18.352 I-0.5 J-0.132
G1 Y-18.634
X-206.997 Y-18.671
X-206.857 Y-18.818
X-206.674 Y-18.905
X-206.471 Y-18.921
X-206.277 Y-18.863
X-206.116 Y-18.74
X-206.01 Y-18.567
X-205.973 Y-18.367
X-205.983 Y-18.308
X-206.006 Y-18.252
X-206.041 Y-18.203
X-206.087 Y-18.164
G3 X-206.999 Y-18.634 I-0.324 J-0.49
G1 Y-18.916
X-206.995 Y-18.991
X-206.923 Y-19.122
X-206.772 Y-19.231
X-206.593 Y-19.284
X-206.407 Y-19.274
X-206.234 Y-19.204
X-206.095 Y-19.08
X-206.005 Y-18.917
X-205.973 Y-18.734
X-205.982 Y-18.677
X-206.003 Y-18.623
X-206.036 Y-18.576
G3 X-206.999 Y-18.916 I-0.415 J-0.359
G1 Y-19.228
X-206.991 Y-19.377
X-206.912 Y-19.505
X-206.76 Y-19.609
X-206.582 Y-19.657
X-206.398 Y-19.644
X-206.229 Y-19.572
X-206.092 Y-19.448
X-206.004 Y-19.287
X-205.973 Y-19.105
X-205.982 Y-19.047
X-206.005 Y-18.992
G3 X-206.999 Y-19.228 I-0.464 J-0.255
G1 Y-19.578
X-206.991 Y-19.728
X-206.918 Y-19.859
X-206.814 Y-19.967
X-206.633 Y-20.038
X-206.439 Y-20.042
X-206.256 Y-19.979
X-206.106 Y-19.856
X-206.008 Y-19.689
X-205.973 Y-19.498
X-205.978 Y-19.459
X-205.988 Y-19.421
G3 X-206.999 Y-19.578 I-0.49 J-0.176
G1 Y-19.972
X-206.991 Y-20.122
X-206.916 Y-20.252
X-206.766 Y-20.36
X-206.588 Y-20.412
X-206.403 Y-20.402
X-206.232 Y-20.331
X-206.094 Y-20.208
X-206.005 Y-20.047
X-205.973 Y-19.864
X-205.981 Y-19.812
X-205.999 Y-19.762
G3 X-206.999 Y-19.972 I-0.474 J-0.229
G1 Y-20.326
X-206.991 Y-20.475
X-206.921 Y-20.608
X-206.818 Y-20.717
X-206.638 Y-20.791
X-206.443 Y-20.797
X-206.258 Y-20.735
X-206.107 Y-20.612
X-206.008 Y-20.445
X-205.973 Y-20.253
X-205.977 Y-20.217
X-205.986 Y-20.182
G3 X-206.999 Y-20.326 I-0.494 J-0.161
G1 Y-20.706
X-206.991 Y-20.856
X-206.922 Y-20.989
X-206.774 Y-21.102
X-206.597 Y-21.159
X-206.411 Y-21.153
X-206.237 Y-21.085
X-206.097 Y-20.963
X-206.005 Y-20.801
X-205.973 Y-20.618
X-205.979 Y-20.575
X-205.991 Y-20.533
G3 X-206.999 Y-20.706 I-0.486 J-0.191
G1 Y-21.065
X-206.991 Y-21.215
X-206.923 Y-21.349
X-206.822 Y-21.46
X-206.642 Y-21.536
X-206.447 Y-21.544
X-206.261 Y-21.484
X-206.108 Y-21.362
X-206.008 Y-21.194
X-205.973 Y-21.001
X-205.983 Y-20.939
G3 X-206.999 Y-21.065 I-0.497 J-0.144
G1 Y-21.453
X-206.991 Y-21.603
X-206.922 Y-21.736
X-206.774 Y-21.849
X-206.596 Y-21.906
X-206.41 Y-21.9
X-206.237 Y-21.832
X-206.097 Y-21.71
X-206.005 Y-21.548
X-205.973 Y-21.364
X-205.979 Y-21.321
X-205.991 Y-21.279
G3 X-206.999 Y-21.453 I-0.485 J-0.192
G1 Y-21.805
X-206.991 Y-21.955
X-206.926 Y-22.09
X-206.826 Y-22.202
X-206.646 Y-22.28
X-206.45 Y-22.29
X-206.263 Y-22.23
X-206.11 Y-22.108
X-206.009 Y-21.94
X-205.973 Y-21.747
X-205.982 Y-21.689
G3 X-206.999 Y-21.805 I-0.5 J-0.134
G1 Y-22.193
X-206.991 Y-22.343
X-206.923 Y-22.477
X-206.776 Y-22.591
X-206.599 Y-22.649
X-206.412 Y-22.644
X-206.238 Y-22.577
X-206.097 Y-22.455
X-206.005 Y-22.293
X-205.973 Y-22.109
X-205.978 Y-22.068
X-205.99 Y-22.028
G3 X-206.999 Y-22.193 I-0.488 J-0.183
G1 Y-22.581
X-206.991 Y-22.731
X-206.915 Y-22.86
X-206.765 Y-22.968
X-206.588 Y-23.02
X-206.403 Y-23.01
X-206.232 Y-22.94
X-206.094 Y-22.817
X-206.005 Y-22.655
X-205.973 Y-22.473
X-205.981 Y-22.421
X-205.999 Y-22.371
G3 X-206.999 Y-22.581 I-0.474 J-0.228
G1 Y-22.933
X-206.991 Y-23.083
X-206.921 Y-23.215
X-206.818 Y-23.325
X-206.638 Y-23.398
X-206.443 Y-23.405
X-206.259 Y-23.343
X-206.107 Y-23.22
X-206.008 Y-23.053
X-205.973 Y-22.861
X-205.977 Y-22.826
X-205.986 Y-22.792
G3 X-206.999 Y-22.933 I-0.494 J-0.159
G1 Y-23.321
X-206.991 Y-23.471
X-206.92 Y-23.603
X-206.771 Y-23.714
X-206.594 Y-23.769
X-206.408 Y-23.762
X-206.236 Y-23.693
X-206.096 Y-23.571
X-206.005 Y-23.409
X-205.973 Y-23.226
X-205.979 Y-23.179
X-205.994 Y-23.135
G3 X-206.999 Y-23.321 I-0.482 J-0.204
G1 Y-23.666
X-206.991 Y-23.816
X-206.926 Y-23.951
X-206.827 Y-24.064
X-206.647 Y-24.142
X-206.451 Y-24.152
X-206.264 Y-24.092
X-206.11 Y-23.97
X-206.009 Y-23.802
X-205.973 Y-23.608
X-205.982 Y-23.552
G3 X-206.999 Y-23.666 I-0.5 J-0.133
G1 Y-24.06
X-206.991 Y-24.21
X-206.922 Y-24.343
X-206.774 Y-24.456
X-206.596 Y-24.513
X-206.41 Y-24.507
X-206.237 Y-24.439
X-206.096 Y-24.317
X-206.005 Y-24.154
X-205.973 Y-23.971
X-205.979 Y-23.927
X-205.992 Y-23.885
G3 X-206.999 Y-24.06 I-0.485 J-0.194
G1 Y-24.414
X-206.991 Y-24.563
X-206.925 Y-24.698
X-206.825 Y-24.81
X-206.645 Y-24.888
X-206.449 Y-24.897
X-206.263 Y-24.837
X-206.109 Y-24.715
X-206.009 Y-24.546
X-205.973 Y-24.354
X-205.982 Y-24.295
G3 X-206.999 Y-24.414 I-0.499 J-0.137
G1 Y-24.837
X-206.991 Y-24.986
X-206.914 Y-25.115
X-206.762 Y-25.219
X-206.584 Y-25.268
X-206.4 Y-25.256
X-206.23 Y-25.184
X-206.093 Y-25.06
X-206.004 Y-24.898
X-205.973 Y-24.716
X-205.982 Y-24.658
X-206.004 Y-24.603
G3 X-206.999 Y-24.837 I-0.466 J-0.252
G1 Y-25.188
X-206.991 Y-25.338
X-206.919 Y-25.47
X-206.814 Y-25.577
X-206.634 Y-25.649
X-206.44 Y-25.653
X-206.256 Y-25.59
X-206.106 Y-25.467
X-206.008 Y-25.3
X-205.973 Y-25.109
X-205.978 Y-25.07
X-205.988 Y-25.032
G3 X-206.999 Y-25.188 I-0.49 J-0.174
G1 Y-25.576
X-206.991 Y-25.726
X-206.918 Y-25.857
X-206.768 Y-25.967
X-206.591 Y-26.02
X-206.406 Y-26.012
X-206.234 Y-25.942
X-206.095 Y-25.82
X-206.005 Y-25.658
X-205.973 Y-25.475
X-205.98 Y-25.426
X-205.996 Y-25.379
G3 X-206.999 Y-25.576 I-0.478 J-0.216
G1 Y-25.922
X-206.991 Y-26.071
X-206.925 Y-26.206
X-206.824 Y-26.317
X-206.644 Y-26.394
X-206.449 Y-26.403
X-206.262 Y-26.343
X-206.109 Y-26.221
X-206.008 Y-26.052
X-205.973 Y-25.86
X-205.983 Y-25.799
G3 X-206.999 Y-25.922 I-0.498 J-0.141
G1 Y-26.316
X-206.991 Y-26.466
X-206.921 Y-26.598
X-206.772 Y-26.71
X-206.595 Y-26.766
X-206.409 Y-26.759
X-206.236 Y-26.691
X-206.096 Y-26.568
X-206.005 Y-26.406
X-205.973 Y-26.223
X-205.979 Y-26.178
X-205.993 Y-26.134
G3 X-206.475 Y-25.811 I-0.483 J-0.2
G1 X-206.476
G3 X-206.999 Y-26.316 I0 J-0.523
G1 Y-26.669
X-206.991 Y-26.819
X-206.924 Y-26.953
X-206.824 Y-27.064
X-206.644 Y-27.141
X-206.448 Y-27.15
X-206.262 Y-27.089
X-206.109 Y-26.967
X-206.008 Y-26.799
X-205.973 Y-26.607
X-205.983 Y-26.546
G3 X-206.999 Y-26.669 I-0.498 J-0.141
G1 Y-27.092
X-206.991 Y-27.242
X-206.913 Y-27.37
X-206.761 Y-27.474
X-206.583 Y-27.522
X-206.399 Y-27.509
X-206.229 Y-27.437
X-206.093 Y-27.313
X-206.004 Y-27.151
X-205.973 Y-26.969
X-205.983 Y-26.911
X-206.005 Y-26.855
G3 X-206.999 Y-27.092 I-0.464 J-0.255
G1 Y-27.444
X-206.991 Y-27.594
X-206.918 Y-27.725
X-206.814 Y-27.832
X-206.633 Y-27.903
X-206.439 Y-27.907
X-206.256 Y-27.844
X-206.106 Y-27.721
X-206.008 Y-27.554
X-205.973 Y-27.363
X-205.978 Y-27.323
X-205.989 Y-27.285
G3 X-206.999 Y-27.444 I-0.49 J-0.177
G1 Y-27.832
X-206.991 Y-27.982
X-206.918 Y-28.112
X-206.768 Y-28.222
X-206.591 Y-28.275
X-206.405 Y-28.266
X-206.234 Y-28.197
X-206.095 Y-28.074
X-206.005 Y-27.912
X-205.973 Y-27.729
X-205.98 Y-27.68
X-205.996 Y-27.632
G3 X-206.999 Y-27.832 I-0.478 J-0.218
G1 Y-28.177
X-206.991 Y-28.327
X-206.935 Y-28.466
X-206.842 Y-28.584
X-206.664 Y-28.673
X-206.466 Y-28.692
X-206.274 Y-28.638
X-206.115 Y-28.518
X-206.01 Y-28.349
X-205.973 Y-28.153
G3 X-206.311 Y-27.847 I-0.317 J-0.011
G1 X-206.384 Y-27.852
X-206.701 Y-27.871
G3 X-206.999 Y-28.177 I0.02 J-0.317
G1 Y-30.087
Z5
X-206.357 Y-32.615
Z-0.765
Z-1.082
X-206.353 Y-32.609 Z-1.153
X-206.341 Y-32.588 Z-1.22
X-206.322 Y-32.556 Z-1.28
X-206.296 Y-32.513 Z-1.331
X-206.265 Y-32.461 Z-1.369
X-206.231 Y-32.403 Z-1.392
X-206.195 Y-32.342 Z-1.4
G3 X-205.973 Y-31.589 I-1.36 J0.809
G1 Y-29.333
G3 X-206.547 Y-29.157 I-0.317 J-0.011
G1 X-206.589 Y-29.214 Z-1.392
X-206.628 Y-29.268 Z-1.369
X-206.664 Y-29.316 Z-1.331
X-206.694 Y-29.357 Z-1.28
X-206.716 Y-29.387 Z-1.22
X-206.73 Y-29.406 Z-1.153
X-206.735 Y-29.413 Z-1.082
Z15
(When using Fusion 360 for Personal Use, the feedrate of)
(rapid moves is reduced to match the feedrate of cutting)
(moves, which can increase machining time. Unrestricted rapid)
(moves are available with a Fusion 360 Subscription.)

(2D-Kontur32)
G0 X-212.481 Y-41.021
G1 Z15 F1000
Z5
Z3.2 F333.3
Z2.5
S5000
X-212.098 Y-40.639 Z2.481
X-212.084 Y-40.615 Z2.48
X-212.081 Y-40.587 Z2.479
X-212.09 Y-40.561 Z2.478
X-212.11 Y-40.541 Z2.477
X-212.136 Y-40.532 Z2.476
X-212.164 Y-40.535 Z2.475
X-212.187 Y-40.55 Z2.474
X-213.247 Y-41.611 Z2.422
X-213.248
X-213.263 Y-41.635 Z2.421
X-213.266 Y-41.662 Z2.42
X-213.257 Y-41.689 Z2.419
X-213.237 Y-41.708 Z2.418
X-213.211 Y-41.717 Z2.417
X-213.183 Y-41.714 Z2.416
X-213.16 Y-41.7 Z2.415
X-212.098 Y-40.639 Z2.363
X-212.084 Y-40.615 Z2.362
X-212.081 Y-40.587 Z2.361
X-212.09 Y-40.561 Z2.36
X-212.11 Y-40.541 Z2.359
X-212.136 Y-40.532 Z2.358
X-212.164 Y-40.535 Z2.357
X-212.187 Y-40.55 Z2.356
X-213.247 Y-41.611 Z2.303
X-213.248
X-213.263 Y-41.635 Z2.302
X-213.266 Y-41.662 Z2.301
X-213.257 Y-41.689 Z2.3
X-213.237 Y-41.708 Z2.299
X-213.211 Y-41.717 Z2.298
X-213.183 Y-41.714 Z2.297
X-213.16 Y-41.7
X-212.098 Y-40.639 Z2.244
X-212.084 Y-40.615 Z2.243
X-212.081 Y-40.587 Z2.242
X-212.09 Y-40.561 Z2.241
X-212.11 Y-40.541 Z2.24
X-212.136 Y-40.532 Z2.239
X-212.164 Y-40.535 Z2.238
X-212.187 Y-40.55 Z2.237
X-213.247 Y-41.611 Z2.185
X-213.248
X-213.263 Y-41.635 Z2.184
X-213.266 Y-41.662 Z2.183
X-213.257 Y-41.689 Z2.182
X-213.237 Y-41.708 Z2.181
X-213.211 Y-41.717 Z2.18
X-213.183 Y-41.714 Z2.179
X-213.16 Y-41.7 Z2.178
X-212.098 Y-40.639 Z2.126
X-212.084 Y-40.615 Z2.125
X-212.081 Y-40.587 Z2.124
X-212.09 Y-40.561 Z2.123
X-212.11 Y-40.541 Z2.122
X-212.136 Y-40.532 Z2.121
X-212.164 Y-40.535 Z2.12
X-212.187 Y-40.55 Z2.119
X-213.247 Y-41.611 Z2.066
X-213.248
X-213.263 Y-41.635 Z2.065
X-213.266 Y-41.662 Z2.064
X-213.257 Y-41.689 Z2.063
X-213.237 Y-41.708 Z2.062
X-213.211 Y-41.717 Z2.061
X-213.183 Y-41.714 Z2.06
X-213.16 Y-41.7 Z2.059
X-212.098 Y-40.639 Z2.007
X-212.084 Y-40.615 Z2.006
X-212.081 Y-40.587 Z2.005
X-212.09 Y-40.561 Z2.004
X-212.11 Y-40.541 Z2.003
X-212.136 Y-40.532 Z2.002
X-212.164 Y-40.535 Z2.001
X-212.187 Y-40.55 Z2
X-213.247 Y-41.611 Z1.948
X-213.248
X-213.263 Y-41.635 Z1.947
X-213.266 Y-41.662 Z1.946
X-213.257 Y-41.689 Z1.945
X-213.237 Y-41.708 Z1.944
X-213.211 Y-41.717 Z1.943
X-213.183 Y-41.714 Z1.942
X-213.16 Y-41.7 Z1.941
X-212.098 Y-40.639 Z1.889
X-212.084 Y-40.615 Z1.888
X-212.081 Y-40.587 Z1.887
X-212.09 Y-40.561 Z1.886
X-212.11 Y-40.541 Z1.885
X-212.136 Y-40.532 Z1.884
X-212.164 Y-40.535 Z1.883
X-212.187 Y-40.55 Z1.882
X-213.247 Y-41.611 Z1.829
X-213.248
X-213.263 Y-41.635 Z1.828
X-213.266 Y-41.662 Z1.827
X-213.257 Y-41.689 Z1.826
X-213.237 Y-41.708 Z1.825
X-213.211 Y-41.717 Z1.824
X-213.183 Y-41.714 Z1.823
X-213.16 Y-41.7 Z1.822
X-212.098 Y-40.639 Z1.77
X-212.084 Y-40.615 Z1.769
X-212.081 Y-40.587 Z1.768
X-212.09 Y-40.561 Z1.767
X-212.11 Y-40.541 Z1.766
X-212.136 Y-40.532 Z1.765
X-212.164 Y-40.535 Z1.764
X-212.187 Y-40.55 Z1.763
X-213.247 Y-41.611 Z1.711
X-213.248
X-213.263 Y-41.635 Z1.71
X-213.266 Y-41.662 Z1.709
X-213.257 Y-41.689 Z1.708
X-213.237 Y-41.708 Z1.707
X-213.211 Y-41.717 Z1.706
X-213.183 Y-41.714 Z1.705
X-213.16 Y-41.7 Z1.704
X-212.098 Y-40.639 Z1.652
X-212.084 Y-40.615 Z1.651
X-212.081 Y-40.587 Z1.65
X-212.09 Y-40.561 Z1.649
X-212.11 Y-40.541 Z1.648
X-212.136 Y-40.532 Z1.647
X-212.164 Y-40.535 Z1.646
X-212.187 Y-40.55 Z1.645
X-213.247 Y-41.611 Z1.592
X-213.248
X-213.263 Y-41.635 Z1.591
X-213.266 Y-41.662 Z1.59
X-213.257 Y-41.689 Z1.589
X-213.237 Y-41.708 Z1.588
X-213.211 Y-41.717 Z1.587
X-213.183 Y-41.714 Z1.586
X-213.16 Y-41.7 Z1.585
X-212.098 Y-40.639 Z1.533
X-212.084 Y-40.615 Z1.532
X-212.081 Y-40.587 Z1.531
X-212.09 Y-40.561 Z1.53
X-212.11 Y-40.541 Z1.529
X-212.136 Y-40.532 Z1.528
X-212.164 Y-40.535 Z1.527
X-212.187 Y-40.55 Z1.526
X-213.247 Y-41.611 Z1.474
X-213.248
X-213.263 Y-41.635 Z1.473
X-213.266 Y-41.662 Z1.472
X-213.257 Y-41.689 Z1.471
X-213.237 Y-41.708 Z1.47
X-213.211 Y-41.717 Z1.469
X-213.183 Y-41.714 Z1.468
X-213.16 Y-41.7 Z1.467
X-212.098 Y-40.639 Z1.415
X-212.084 Y-40.615 Z1.414
X-212.081 Y-40.587 Z1.413
X-212.09 Y-40.561 Z1.412
X-212.11 Y-40.541 Z1.411
X-212.136 Y-40.532 Z1.41
X-212.164 Y-40.535 Z1.409
X-212.187 Y-40.55 Z1.408
X-213.247 Y-41.611 Z1.355
X-213.248
X-213.263 Y-41.635 Z1.354
X-213.266 Y-41.662 Z1.353
X-213.257 Y-41.689 Z1.352
X-213.237 Y-41.708 Z1.351
X-213.211 Y-41.717 Z1.35
X-213.183 Y-41.714 Z1.349
X-213.16 Y-41.7 Z1.348
X-212.098 Y-40.639 Z1.296
X-212.084 Y-40.615 Z1.295
X-212.081 Y-40.587 Z1.294
X-212.09 Y-40.561 Z1.293
X-212.11 Y-40.541 Z1.292
X-212.136 Y-40.532 Z1.291
X-212.164 Y-40.535 Z1.29
X-212.187 Y-40.55 Z1.289
X-213.247 Y-41.611 Z1.237
X-213.248
X-213.263 Y-41.635 Z1.236
X-213.266 Y-41.662 Z1.235
X-213.257 Y-41.689 Z1.234
X-213.237 Y-41.708 Z1.233
X-213.211 Y-41.717 Z1.232
X-213.183 Y-41.714 Z1.231
X-213.16 Y-41.7 Z1.23
X-212.098 Y-40.639 Z1.178
X-212.084 Y-40.615 Z1.177
X-212.081 Y-40.587 Z1.176
X-212.09 Y-40.561 Z1.175
X-212.11 Y-40.541 Z1.174
X-212.136 Y-40.532 Z1.173
X-212.164 Y-40.535 Z1.172
X-212.187 Y-40.55 Z1.171
X-213.247 Y-41.611 Z1.118
X-213.248
X-213.263 Y-41.635 Z1.117
X-213.266 Y-41.662 Z1.116
X-213.257 Y-41.689 Z1.115
X-213.237 Y-41.708 Z1.114
X-213.211 Y-41.717 Z1.113
X-213.183 Y-41.714 Z1.112
X-213.16 Y-41.7 Z1.111
X-212.098 Y-40.639 Z1.059
X-212.084 Y-40.615 Z1.058
X-212.081 Y-40.587 Z1.057
X-212.09 Y-40.561 Z1.056
X-212.11 Y-40.541 Z1.055
X-212.136 Y-40.532 Z1.054
X-212.164 Y-40.535 Z1.053
X-212.187 Y-40.55 Z1.052
X-213.247 Y-41.611 Z1
X-213.248
X-213.263 Y-41.635 Z0.999
X-213.266 Y-41.662 Z0.998
X-213.257 Y-41.689 Z0.997
X-213.237 Y-41.708 Z0.996
X-213.211 Y-41.717 Z0.995
X-213.183 Y-41.714 Z0.994
X-213.16 Y-41.7 Z0.993
X-212.098 Y-40.639 Z0.941
X-212.084 Y-40.615 Z0.94
X-212.081 Y-40.587 Z0.939
X-212.09 Y-40.561 Z0.938
X-212.11 Y-40.541 Z0.937
X-212.136 Y-40.532 Z0.936
X-212.164 Y-40.535 Z0.935
X-212.187 Y-40.55 Z0.934
X-213.247 Y-41.611 Z0.881
X-213.248
X-213.263 Y-41.635 Z0.88
X-213.266 Y-41.662 Z0.879
X-213.257 Y-41.689 Z0.878
X-213.237 Y-41.708 Z0.877
X-213.211 Y-41.717 Z0.876
X-213.183 Y-41.714 Z0.875
X-213.16 Y-41.7 Z0.874
X-212.098 Y-40.639 Z0.822
X-212.084 Y-40.615 Z0.821
X-212.081 Y-40.587 Z0.82
X-212.09 Y-40.561 Z0.819
X-212.11 Y-40.541 Z0.818
X-212.136 Y-40.532 Z0.817
X-212.164 Y-40.535 Z0.816
X-212.187 Y-40.55 Z0.815
X-213.247 Y-41.611 Z0.763
X-213.248
X-213.263 Y-41.635 Z0.762
X-213.266 Y-41.662 Z0.761
X-213.257 Y-41.689 Z0.76
X-213.237 Y-41.708 Z0.759
X-213.211 Y-41.717 Z0.758
X-213.183 Y-41.714 Z0.757
X-213.16 Y-41.7 Z0.756
X-212.098 Y-40.639 Z0.703
X-212.084 Y-40.615
X-212.081 Y-40.587 Z0.702
X-212.09 Y-40.561 Z0.701
X-212.11 Y-40.541 Z0.7
X-212.136 Y-40.532 Z0.699
X-212.164 Y-40.535 Z0.698
X-212.187 Y-40.55 Z0.697
X-213.247 Y-41.611 Z0.644
X-213.248
X-213.263 Y-41.635 Z0.643
X-213.266 Y-41.662 Z0.642
X-213.257 Y-41.689 Z0.641
X-213.237 Y-41.708 Z0.64
X-213.211 Y-41.717 Z0.639
X-213.183 Y-41.714 Z0.638
X-213.16 Y-41.7 Z0.637
X-212.098 Y-40.639 Z0.585
X-212.084 Y-40.615 Z0.584
X-212.081 Y-40.587 Z0.583
X-212.09 Y-40.561 Z0.582
X-212.11 Y-40.541 Z0.581
X-212.136 Y-40.532 Z0.58
X-212.164 Y-40.535 Z0.579
X-212.187 Y-40.55 Z0.578
X-213.247 Y-41.611 Z0.526
X-213.248
X-213.263 Y-41.635 Z0.525
X-213.266 Y-41.662 Z0.524
X-213.257 Y-41.689 Z0.523
X-213.237 Y-41.708 Z0.522
X-213.211 Y-41.717 Z0.521
X-213.183 Y-41.714 Z0.52
X-213.16 Y-41.7 Z0.519
X-212.098 Y-40.639 Z0.466
X-212.084 Y-40.615 Z0.465
X-212.081 Y-40.587
X-212.09 Y-40.561 Z0.464
X-212.11 Y-40.541 Z0.463
X-212.136 Y-40.532 Z0.462
X-212.164 Y-40.535 Z0.461
X-212.187 Y-40.55 Z0.46
X-213.247 Y-41.611 Z0.407
X-213.248
X-213.263 Y-41.635 Z0.406
X-213.266 Y-41.662 Z0.405
X-213.257 Y-41.689 Z0.404
X-213.237 Y-41.708 Z0.403
X-213.211 Y-41.717 Z0.402
X-213.183 Y-41.714 Z0.401
X-213.16 Y-41.7 Z0.4
X-212.098 Y-40.639 Z0.348
X-212.084 Y-40.615 Z0.347
X-212.081 Y-40.587 Z0.346
X-212.09 Y-40.561 Z0.345
X-212.11 Y-40.541 Z0.344
X-212.136 Y-40.532 Z0.343
X-212.164 Y-40.535 Z0.342
X-212.187 Y-40.55 Z0.341
X-213.247 Y-41.611 Z0.289
X-213.248
X-213.263 Y-41.635 Z0.288
X-213.266 Y-41.662 Z0.287
X-213.257 Y-41.689 Z0.286
X-213.237 Y-41.708 Z0.285
X-213.211 Y-41.717 Z0.284
X-213.183 Y-41.714 Z0.283
X-213.16 Y-41.7 Z0.282
X-212.098 Y-40.639 Z0.229
X-212.084 Y-40.615 Z0.228
X-212.081 Y-40.587 Z0.227
X-212.09 Y-40.561
X-212.11 Y-40.541 Z0.226
X-212.136 Y-40.532 Z0.225
X-212.164 Y-40.535 Z0.224
X-212.187 Y-40.55 Z0.223
X-213.247 Y-41.611 Z0.17
X-213.248
X-213.263 Y-41.635 Z0.169
X-213.266 Y-41.662 Z0.168
X-213.257 Y-41.689 Z0.167
X-213.237 Y-41.708 Z0.166
X-213.211 Y-41.717 Z0.165
X-213.183 Y-41.714 Z0.164
X-213.16 Y-41.7 Z0.163
X-212.098 Y-40.639 Z0.111
X-212.084 Y-40.615 Z0.11
X-212.081 Y-40.587 Z0.109
X-212.09 Y-40.561 Z0.108
X-212.11 Y-40.541 Z0.107
X-212.136 Y-40.532 Z0.106
X-212.164 Y-40.535 Z0.105
X-212.187 Y-40.55 Z0.104
X-213.247 Y-41.611 Z0.052
X-213.248
X-213.263 Y-41.635 Z0.051
X-213.266 Y-41.662 Z0.05
X-213.257 Y-41.689 Z0.049
X-213.237 Y-41.708 Z0.048
X-213.211 Y-41.717 Z0.047
X-213.183 Y-41.714 Z0.046
X-213.16 Y-41.7 Z0.045
X-212.098 Y-40.639 Z-0.008
X-212.084 Y-40.615 Z-0.009
X-212.081 Y-40.587 Z-0.01
X-212.09 Y-40.561 Z-0.011
X-212.11 Y-40.541
X-212.136 Y-40.532 Z-0.012
X-212.164 Y-40.535 Z-0.013
X-212.187 Y-40.55 Z-0.014
X-213.247 Y-41.611 Z-0.067
X-213.248
X-213.263 Y-41.635 Z-0.068
X-213.266 Y-41.662 Z-0.069
X-213.257 Y-41.689 Z-0.07
X-213.237 Y-41.708 Z-0.071
X-213.211 Y-41.717 Z-0.072
X-213.183 Y-41.714 Z-0.073
X-213.16 Y-41.7 Z-0.074
X-212.098 Y-40.639 Z-0.126
X-212.084 Y-40.615 Z-0.127
X-212.081 Y-40.587 Z-0.128
X-212.09 Y-40.561 Z-0.129
X-212.11 Y-40.541 Z-0.13
X-212.136 Y-40.532 Z-0.131
X-212.164 Y-40.535 Z-0.132
X-212.187 Y-40.55 Z-0.133
X-213.247 Y-41.611 Z-0.185
X-213.248
X-213.263 Y-41.635 Z-0.186
X-213.266 Y-41.662 Z-0.187
X-213.257 Y-41.689 Z-0.188
X-213.237 Y-41.708 Z-0.189
X-213.211 Y-41.717 Z-0.19
X-213.183 Y-41.714 Z-0.191
X-213.16 Y-41.7 Z-0.192
X-212.098 Y-40.639 Z-0.245
X-212.084 Y-40.615 Z-0.246
X-212.081 Y-40.587 Z-0.247
X-212.09 Y-40.561 Z-0.248
X-212.11 Y-40.541 Z-0.249
X-212.136 Y-40.532
X-212.164 Y-40.535 Z-0.25
X-212.187 Y-40.55 Z-0.251
X-213.247 Y-41.611 Z-0.304
X-213.248
X-213.263 Y-41.635 Z-0.305
X-213.266 Y-41.662 Z-0.306
X-213.257 Y-41.689 Z-0.307
X-213.237 Y-41.708 Z-0.308
X-213.211 Y-41.717 Z-0.309
X-213.183 Y-41.714 Z-0.31
X-213.16 Y-41.7 Z-0.311
X-212.098 Y-40.639 Z-0.363
X-212.084 Y-40.615 Z-0.364
X-212.081 Y-40.587 Z-0.365
X-212.09 Y-40.561 Z-0.366
X-212.11 Y-40.541 Z-0.367
X-212.136 Y-40.532 Z-0.368
X-212.164 Y-40.535 Z-0.369
X-212.187 Y-40.55 Z-0.37
X-213.247 Y-41.611 Z-0.422
X-213.248
X-213.263 Y-41.635 Z-0.423
X-213.266 Y-41.662 Z-0.424
X-213.257 Y-41.689 Z-0.425
X-213.237 Y-41.708 Z-0.426
X-213.211 Y-41.717 Z-0.427
X-213.183 Y-41.714 Z-0.428
X-213.16 Y-41.7 Z-0.429
X-212.098 Y-40.639 Z-0.482
X-212.084 Y-40.615 Z-0.483
X-212.081 Y-40.587 Z-0.484
X-212.09 Y-40.561 Z-0.485
X-212.11 Y-40.541 Z-0.486
X-212.136 Y-40.532 Z-0.487
X-212.164 Y-40.535
X-212.187 Y-40.55 Z-0.488
X-213.247 Y-41.611 Z-0.541
X-213.248
X-213.263 Y-41.635 Z-0.542
X-213.266 Y-41.662 Z-0.543
X-213.257 Y-41.689 Z-0.544
X-213.237 Y-41.708 Z-0.545
X-213.211 Y-41.717 Z-0.546
X-213.183 Y-41.714 Z-0.547
X-213.16 Y-41.7 Z-0.548
X-212.098 Y-40.639 Z-0.6
X-212.084 Y-40.615 Z-0.601
X-212.081 Y-40.587 Z-0.602
X-212.09 Y-40.561 Z-0.603
X-212.11 Y-40.541 Z-0.604
X-212.136 Y-40.532 Z-0.605
X-212.164 Y-40.535 Z-0.606
X-212.187 Y-40.55 Z-0.607
X-213.247 Y-41.611 Z-0.659
X-213.248
X-213.263 Y-41.635 Z-0.66
X-213.266 Y-41.662 Z-0.661
X-213.257 Y-41.689 Z-0.662
X-213.237 Y-41.708 Z-0.663
X-213.211 Y-41.717 Z-0.664
X-213.183 Y-41.714 Z-0.665
X-213.16 Y-41.7 Z-0.666
X-212.098 Y-40.639 Z-0.719
X-212.084 Y-40.615 Z-0.72
X-212.081 Y-40.587 Z-0.721
X-212.09 Y-40.561 Z-0.722
X-212.11 Y-40.541 Z-0.723
X-212.136 Y-40.532 Z-0.724
X-212.164 Y-40.535 Z-0.725
X-212.187 Y-40.55
X-213.247 Y-41.611 Z-0.778
X-213.248
X-213.263 Y-41.635 Z-0.779
X-213.266 Y-41.662 Z-0.78
X-213.257 Y-41.689 Z-0.781
X-213.237 Y-41.708 Z-0.782
X-213.211 Y-41.717 Z-0.783
X-213.183 Y-41.714 Z-0.784
X-213.16 Y-41.7 Z-0.785
X-212.098 Y-40.639 Z-0.837
X-212.084 Y-40.615 Z-0.838
X-212.081 Y-40.587 Z-0.839
X-212.09 Y-40.561 Z-0.84
X-212.11 Y-40.541 Z-0.841
X-212.136 Y-40.532 Z-0.842
X-212.164 Y-40.535 Z-0.843
X-212.187 Y-40.55 Z-0.844
X-213.247 Y-41.611 Z-0.896
X-213.248
X-213.263 Y-41.635 Z-0.897
X-213.266 Y-41.662 Z-0.898
X-213.257 Y-41.689 Z-0.899
X-213.237 Y-41.708 Z-0.9
X-213.211 Y-41.717 Z-0.901
X-213.183 Y-41.714 Z-0.902
X-213.16 Y-41.7 Z-0.903
X-212.098 Y-40.639 Z-0.956
X-212.084 Y-40.615 Z-0.957
X-212.081 Y-40.587 Z-0.958
X-212.09 Y-40.561 Z-0.959
X-212.11 Y-40.541 Z-0.96
X-212.136 Y-40.532 Z-0.961
X-212.164 Y-40.535 Z-0.962
X-212.187 Y-40.55 Z-0.963
X-213.247 Y-41.611 Z-1.015
X-213.248
X-213.263 Y-41.635 Z-1.016
X-213.266 Y-41.662 Z-1.017
X-213.257 Y-41.689 Z-1.018
X-213.237 Y-41.708 Z-1.019
X-213.211 Y-41.717 Z-1.02
X-213.183 Y-41.714 Z-1.021
X-213.16 Y-41.7 Z-1.022
X-212.098 Y-40.639 Z-1.074
X-212.084 Y-40.615 Z-1.075
X-212.081 Y-40.587 Z-1.076
X-212.09 Y-40.561 Z-1.077
X-212.11 Y-40.541 Z-1.078
X-212.136 Y-40.532 Z-1.079
X-212.164 Y-40.535 Z-1.08
X-212.187 Y-40.55 Z-1.081
X-213.247 Y-41.611 Z-1.133
X-213.248
X-213.263 Y-41.635 Z-1.134
X-213.266 Y-41.662 Z-1.135
X-213.257 Y-41.689 Z-1.136
X-213.237 Y-41.708 Z-1.137
X-213.211 Y-41.717 Z-1.138
X-213.183 Y-41.714 Z-1.139
X-213.16 Y-41.7 Z-1.14
X-212.098 Y-40.639 Z-1.193
X-212.084 Y-40.615 Z-1.194
X-212.081 Y-40.587 Z-1.195
X-212.09 Y-40.561 Z-1.196
X-212.11 Y-40.541 Z-1.197
X-212.136 Y-40.532 Z-1.198
X-212.164 Y-40.535 Z-1.199
X-212.187 Y-40.55 Z-1.2
X-213.247 Y-41.611 Z-1.252
X-213.248
X-213.263 Y-41.635 Z-1.253
X-213.266 Y-41.662 Z-1.254
X-213.257 Y-41.689 Z-1.255
X-213.237 Y-41.708 Z-1.256
X-213.211 Y-41.717 Z-1.257
X-213.183 Y-41.714 Z-1.258
X-213.16 Y-41.7 Z-1.259
X-212.098 Y-40.639 Z-1.311
X-212.084 Y-40.615 Z-1.312
X-212.081 Y-40.587 Z-1.313
X-212.09 Y-40.561 Z-1.314
X-212.11 Y-40.541 Z-1.315
X-212.136 Y-40.532 Z-1.316
X-212.164 Y-40.535 Z-1.317
X-212.187 Y-40.55 Z-1.318
X-213.247 Y-41.611 Z-1.37
X-213.248
X-213.263 Y-41.635 Z-1.371
X-213.266 Y-41.662 Z-1.372
X-213.257 Y-41.689 Z-1.373
X-213.237 Y-41.708 Z-1.374
X-213.211 Y-41.717 Z-1.375
X-213.183 Y-41.714 Z-1.376
X-213.16 Y-41.7 Z-1.377
X-212.098 Y-40.639 Z-1.43
X-212.084 Y-40.615 Z-1.431
X-212.081 Y-40.587 Z-1.432
X-212.09 Y-40.561 Z-1.433
X-212.11 Y-40.541 Z-1.434
X-212.136 Y-40.532 Z-1.435
X-212.164 Y-40.535 Z-1.436
X-212.187 Y-40.55 Z-1.437
X-213.247 Y-41.611 Z-1.489
X-213.248
X-213.263 Y-41.635 Z-1.49
X-213.266 Y-41.662 Z-1.491
X-213.257 Y-41.689 Z-1.492
X-213.237 Y-41.708 Z-1.493
X-213.211 Y-41.717 Z-1.494
X-213.183 Y-41.714 Z-1.495
X-213.16 Y-41.7 Z-1.496
X-212.098 Y-40.639 Z-1.548
X-212.084 Y-40.615 Z-1.549
X-212.081 Y-40.587 Z-1.55
X-212.09 Y-40.561 Z-1.551
X-212.11 Y-40.541 Z-1.552
X-212.136 Y-40.532 Z-1.553
X-212.164 Y-40.535 Z-1.554
X-212.187 Y-40.55 Z-1.555
X-213.247 Y-41.611 Z-1.607
X-213.248
X-213.263 Y-41.635 Z-1.608
X-213.266 Y-41.662 Z-1.609
X-213.257 Y-41.689 Z-1.61
X-213.237 Y-41.708 Z-1.611
X-213.211 Y-41.717 Z-1.612
X-213.183 Y-41.714 Z-1.613
X-213.16 Y-41.7 Z-1.614
X-212.098 Y-40.639 Z-1.667
X-212.084 Y-40.615 Z-1.668
X-212.081 Y-40.587 Z-1.669
X-212.09 Y-40.561 Z-1.67
X-212.11 Y-40.541 Z-1.671
X-212.136 Y-40.532 Z-1.672
X-212.164 Y-40.535 Z-1.673
X-212.187 Y-40.55 Z-1.674
X-213.247 Y-41.611 Z-1.726
X-213.248
X-213.263 Y-41.635 Z-1.727
X-213.266 Y-41.662 Z-1.728
X-213.257 Y-41.689 Z-1.729
X-213.237 Y-41.708 Z-1.73
X-213.211 Y-41.717 Z-1.731
X-213.183 Y-41.714 Z-1.732
X-213.16 Y-41.7 Z-1.733
X-212.098 Y-40.639 Z-1.785
X-212.084 Y-40.615 Z-1.786
X-212.081 Y-40.587 Z-1.787
X-212.09 Y-40.561 Z-1.788
X-212.11 Y-40.541 Z-1.789
X-212.136 Y-40.532 Z-1.79
X-212.164 Y-40.535 Z-1.791
X-212.187 Y-40.55 Z-1.792
X-213.247 Y-41.611 Z-1.844
X-213.248
X-213.263 Y-41.635 Z-1.845
X-213.266 Y-41.662 Z-1.846
X-213.257 Y-41.689 Z-1.847
X-213.237 Y-41.708 Z-1.848
X-213.211 Y-41.717 Z-1.849
X-213.183 Y-41.714 Z-1.85
X-213.16 Y-41.7 Z-1.851
X-212.098 Y-40.639 Z-1.904
X-212.084 Y-40.615 Z-1.905
X-212.081 Y-40.587 Z-1.906
X-212.09 Y-40.561 Z-1.907
X-212.11 Y-40.541 Z-1.908
X-212.136 Y-40.532 Z-1.909
X-212.164 Y-40.535 Z-1.91
X-212.187 Y-40.55 Z-1.911
X-213.247 Y-41.611 Z-1.963
X-213.248
X-213.263 Y-41.635 Z-1.964
X-213.266 Y-41.662 Z-1.965
X-213.257 Y-41.689 Z-1.966
X-213.237 Y-41.708 Z-1.967
X-213.211 Y-41.717 Z-1.968
X-213.183 Y-41.714 Z-1.969
X-213.16 Y-41.7 Z-1.97
X-212.098 Y-40.639 Z-2.022
X-212.084 Y-40.615 Z-2.023
X-212.081 Y-40.587 Z-2.024
X-212.09 Y-40.561 Z-2.025
X-212.11 Y-40.541 Z-2.026
X-212.136 Y-40.532 Z-2.027
X-212.164 Y-40.535 Z-2.028
X-212.187 Y-40.55 Z-2.029
X-213.247 Y-41.611 Z-2.081
X-213.248
X-213.263 Y-41.635 Z-2.082
X-213.266 Y-41.662 Z-2.083
X-213.257 Y-41.689 Z-2.084
X-213.237 Y-41.708 Z-2.085
X-213.211 Y-41.717 Z-2.086
X-213.183 Y-41.714 Z-2.087
X-213.16 Y-41.7 Z-2.088
X-212.098 Y-40.639 Z-2.141
X-212.084 Y-40.615 Z-2.142
X-212.081 Y-40.587 Z-2.143
X-212.09 Y-40.561 Z-2.144
X-212.11 Y-40.541 Z-2.145
X-212.136 Y-40.532 Z-2.146
X-212.164 Y-40.535 Z-2.147
X-212.187 Y-40.55 Z-2.148
X-213.247 Y-41.611 Z-2.2
X-213.248
S6000
X-213.263 Y-41.635 F1000
X-213.266 Y-41.662
X-213.257 Y-41.689
X-213.237 Y-41.708
X-213.211 Y-41.717
X-213.183 Y-41.714
X-213.16 Y-41.7
X-212.098 Y-40.639
X-212.084 Y-40.615
X-212.081 Y-40.587
X-212.09 Y-40.561
X-212.11 Y-40.541
X-212.136 Y-40.532
X-212.164 Y-40.535
X-212.187 Y-40.55
X-213.247 Y-41.611
X-213.248
S5000
X-213.263 Y-41.635 Z-2.201 F333.3
X-213.266 Y-41.662 Z-2.202
X-213.257 Y-41.689 Z-2.203
X-213.237 Y-41.708 Z-2.204
X-213.211 Y-41.717 Z-2.205
X-213.183 Y-41.714 Z-2.206
X-213.16 Y-41.7 Z-2.207
X-212.098 Y-40.639 Z-2.259
X-212.084 Y-40.615 Z-2.26
X-212.081 Y-40.587 Z-2.261
X-212.09 Y-40.561 Z-2.262
X-212.11 Y-40.541 Z-2.263
X-212.136 Y-40.532 Z-2.264
X-212.164 Y-40.535 Z-2.265
X-212.187 Y-40.55 Z-2.266
X-213.247 Y-41.611 Z-2.318
X-213.248 Z-2.319
X-213.263 Y-41.635
X-213.266 Y-41.662 Z-2.32
X-213.257 Y-41.689 Z-2.321
X-213.237 Y-41.708 Z-2.322
X-213.211 Y-41.717 Z-2.323
X-213.183 Y-41.714 Z-2.324
X-213.16 Y-41.7 Z-2.325
X-212.098 Y-40.639 Z-2.378
X-212.084 Y-40.615 Z-2.379
X-212.081 Y-40.587 Z-2.38
X-212.09 Y-40.561 Z-2.381
X-212.11 Y-40.541 Z-2.382
X-212.136 Y-40.532 Z-2.383
X-212.164 Y-40.535 Z-2.384
X-212.187 Y-40.55 Z-2.385
X-213.247 Y-41.611 Z-2.437
X-213.248
X-213.263 Y-41.635 Z-2.438
X-213.266 Y-41.662 Z-2.439
X-213.257 Y-41.689 Z-2.44
X-213.237 Y-41.708 Z-2.441
X-213.211 Y-41.717 Z-2.442
X-213.183 Y-41.714 Z-2.443
X-213.16 Y-41.7 Z-2.444
X-212.098 Y-40.639 Z-2.496
X-212.084 Y-40.615 Z-2.497
X-212.081 Y-40.587 Z-2.498
X-212.09 Y-40.561 Z-2.499
X-212.11 Y-40.541 Z-2.5
X-212.136 Y-40.532 Z-2.501
X-212.164 Y-40.535 Z-2.502
X-212.187 Y-40.55 Z-2.503
X-213.247 Y-41.611 Z-2.555
X-213.248 Z-2.556
X-213.263 Y-41.635 Z-2.557
X-213.266 Y-41.662
X-213.257 Y-41.689 Z-2.558
X-213.237 Y-41.708 Z-2.559
X-213.211 Y-41.717 Z-2.56
X-213.183 Y-41.714 Z-2.561
X-213.16 Y-41.7 Z-2.562
X-212.098 Y-40.639 Z-2.615
X-212.084 Y-40.615 Z-2.616
X-212.081 Y-40.587 Z-2.617
X-212.09 Y-40.561 Z-2.618
X-212.11 Y-40.541 Z-2.619
X-212.136 Y-40.532 Z-2.62
X-212.164 Y-40.535 Z-2.621
X-212.187 Y-40.55 Z-2.622
X-213.247 Y-41.611 Z-2.674
X-213.248
X-213.263 Y-41.635 Z-2.675
X-213.266 Y-41.662 Z-2.676
X-213.257 Y-41.689 Z-2.677
X-213.237 Y-41.708 Z-2.678
X-213.211 Y-41.717 Z-2.679
X-213.183 Y-41.714 Z-2.68
X-213.16 Y-41.7 Z-2.681
X-212.098 Y-40.639 Z-2.733
X-212.084 Y-40.615 Z-2.734
X-212.081 Y-40.587 Z-2.735
X-212.09 Y-40.561 Z-2.736
X-212.11 Y-40.541 Z-2.737
X-212.136 Y-40.532 Z-2.738
X-212.164 Y-40.535 Z-2.739
X-212.187 Y-40.55 Z-2.74
X-213.247 Y-41.611 Z-2.793
X-213.248
X-213.263 Y-41.635 Z-2.794
X-213.266 Y-41.662
X-213.257 Y-41.689 Z-2.795
X-213.237 Y-41.708 Z-2.796
X-213.211 Y-41.717 Z-2.797
X-213.183 Y-41.714 Z-2.798
X-213.16 Y-41.7 Z-2.799
X-212.098 Y-40.639 Z-2.852
X-212.084 Y-40.615 Z-2.853
X-212.081 Y-40.587 Z-2.854
X-212.09 Y-40.561 Z-2.855
X-212.11 Y-40.541 Z-2.856
X-212.136 Y-40.532 Z-2.857
X-212.164 Y-40.535 Z-2.858
X-212.187 Y-40.55 Z-2.859
X-213.247 Y-41.611 Z-2.911
X-213.248
X-213.263 Y-41.635 Z-2.912
X-213.266 Y-41.662 Z-2.913
X-213.257 Y-41.689 Z-2.914
X-213.237 Y-41.708 Z-2.915
X-213.211 Y-41.717 Z-2.916
X-213.183 Y-41.714 Z-2.917
X-213.16 Y-41.7 Z-2.918
X-212.098 Y-40.639 Z-2.97
X-212.084 Y-40.615 Z-2.971
X-212.081 Y-40.587 Z-2.972
X-212.09 Y-40.561 Z-2.973
X-212.11 Y-40.541 Z-2.974
X-212.136 Y-40.532 Z-2.975
X-212.164 Y-40.535 Z-2.976
X-212.187 Y-40.55 Z-2.977
X-213.247 Y-41.611 Z-3.03
X-213.248
X-213.263 Y-41.635 Z-3.031
X-213.266 Y-41.662 Z-3.032
X-213.257 Y-41.689
X-213.237 Y-41.708 Z-3.033
X-213.211 Y-41.717 Z-3.034
X-213.183 Y-41.714 Z-3.035
X-213.16 Y-41.7 Z-3.036
X-212.098 Y-40.639 Z-3.089
X-212.084 Y-40.615 Z-3.09
X-212.081 Y-40.587 Z-3.091
X-212.09 Y-40.561 Z-3.092
X-212.11 Y-40.541 Z-3.093
X-212.136 Y-40.532 Z-3.094
X-212.164 Y-40.535 Z-3.095
X-212.187 Y-40.55 Z-3.096
X-213.247 Y-41.611 Z-3.148
X-213.248
X-213.263 Y-41.635 Z-3.149
X-213.266 Y-41.662 Z-3.15
X-213.257 Y-41.689 Z-3.151
X-213.237 Y-41.708 Z-3.152
X-213.211 Y-41.717 Z-3.153
X-213.183 Y-41.714 Z-3.154
X-213.16 Y-41.7 Z-3.155
X-212.098 Y-40.639 Z-3.207
X-212.084 Y-40.615 Z-3.208
X-212.081 Y-40.587 Z-3.209
X-212.09 Y-40.561 Z-3.21
X-212.11 Y-40.541 Z-3.211
X-212.136 Y-40.532 Z-3.212
X-212.164 Y-40.535 Z-3.213
X-212.187 Y-40.55 Z-3.214
X-213.247 Y-41.611 Z-3.267
X-213.248
X-213.263 Y-41.635 Z-3.268
X-213.266 Y-41.662 Z-3.269
X-213.257 Y-41.689 Z-3.27
X-213.237 Y-41.708
X-213.211 Y-41.717 Z-3.271
X-213.183 Y-41.714 Z-3.272
X-213.16 Y-41.7 Z-3.273
X-212.098 Y-40.639 Z-3.326
X-212.084 Y-40.615 Z-3.327
X-212.081 Y-40.587 Z-3.328
X-212.09 Y-40.561 Z-3.329
X-212.11 Y-40.541 Z-3.33
X-212.136 Y-40.532 Z-3.331
X-212.164 Y-40.535 Z-3.332
X-212.187 Y-40.55 Z-3.333
X-213.247 Y-41.611 Z-3.385
X-213.248
X-213.263 Y-41.635 Z-3.386
X-213.266 Y-41.662 Z-3.387
X-213.257 Y-41.689 Z-3.388
X-213.237 Y-41.708 Z-3.389
X-213.211 Y-41.717 Z-3.39
X-213.183 Y-41.714 Z-3.391
X-213.16 Y-41.7 Z-3.392
X-212.098 Y-40.639 Z-3.444
X-212.084 Y-40.615 Z-3.445
X-212.081 Y-40.587 Z-3.446
X-212.09 Y-40.561 Z-3.447
X-212.11 Y-40.541 Z-3.448
X-212.136 Y-40.532 Z-3.449
X-212.164 Y-40.535 Z-3.45
X-212.187 Y-40.55 Z-3.451
X-213.247 Y-41.611 Z-3.504
X-213.248
X-213.263 Y-41.635 Z-3.505
X-213.266 Y-41.662 Z-3.506
X-213.257 Y-41.689 Z-3.507
X-213.237 Y-41.708 Z-3.508
X-213.211 Y-41.717
X-213.183 Y-41.714 Z-3.509
X-213.16 Y-41.7 Z-3.51
X-212.098 Y-40.639 Z-3.563
X-212.084 Y-40.615 Z-3.564
X-212.081 Y-40.587 Z-3.565
X-212.09 Y-40.561 Z-3.566
X-212.11 Y-40.541 Z-3.567
X-212.136 Y-40.532 Z-3.568
X-212.164 Y-40.535 Z-3.569
X-212.187 Y-40.55 Z-3.57
X-213.247 Y-41.611 Z-3.622
X-213.248
X-213.263 Y-41.635 Z-3.623
X-213.266 Y-41.662 Z-3.624
X-213.257 Y-41.689 Z-3.625
X-213.237 Y-41.708 Z-3.626
X-213.211 Y-41.717 Z-3.627
X-213.183 Y-41.714 Z-3.628
X-213.16 Y-41.7 Z-3.629
X-212.098 Y-40.639 Z-3.681
X-212.084 Y-40.615 Z-3.682
X-212.081 Y-40.587 Z-3.683
X-212.09 Y-40.561 Z-3.684
X-212.11 Y-40.541 Z-3.685
X-212.136 Y-40.532 Z-3.686
X-212.164 Y-40.535 Z-3.687
X-212.187 Y-40.55 Z-3.688
X-213.247 Y-41.611 Z-3.741
X-213.248
X-213.263 Y-41.635 Z-3.742
X-213.266 Y-41.662 Z-3.743
X-213.257 Y-41.689 Z-3.744
X-213.237 Y-41.708 Z-3.745
X-213.211 Y-41.717 Z-3.746
X-213.183 Y-41.714
X-213.16 Y-41.7 Z-3.747
X-212.098 Y-40.639 Z-3.8
X-212.084 Y-40.615 Z-3.801
X-212.081 Y-40.587 Z-3.802
X-212.09 Y-40.561 Z-3.803
X-212.11 Y-40.541 Z-3.804
X-212.136 Y-40.532 Z-3.805
X-212.164 Y-40.535 Z-3.806
X-212.187 Y-40.55 Z-3.807
X-213.247 Y-41.611 Z-3.859
X-213.248
X-213.263 Y-41.635 Z-3.86
X-213.266 Y-41.662 Z-3.861
X-213.257 Y-41.689 Z-3.862
X-213.237 Y-41.708 Z-3.863
X-213.211 Y-41.717 Z-3.864
X-213.183 Y-41.714 Z-3.865
X-213.16 Y-41.7 Z-3.866
X-212.098 Y-40.639 Z-3.918
X-212.084 Y-40.615 Z-3.919
X-212.081 Y-40.587 Z-3.92
X-212.09 Y-40.561 Z-3.921
X-212.11 Y-40.541 Z-3.922
X-212.136 Y-40.532 Z-3.923
X-212.164 Y-40.535 Z-3.924
X-212.187 Y-40.55 Z-3.925
X-213.247 Y-41.611 Z-3.978
X-213.248
X-213.263 Y-41.635 Z-3.979
X-213.266 Y-41.662 Z-3.98
X-213.257 Y-41.689 Z-3.981
X-213.237 Y-41.708 Z-3.982
X-213.211 Y-41.717 Z-3.983
X-213.183 Y-41.714
X-213.16 Y-41.7 Z-3.984
X-212.098 Y-40.639 Z-4.037
X-212.084 Y-40.615 Z-4.038
X-212.081 Y-40.587 Z-4.039
X-212.09 Y-40.561 Z-4.04
X-212.11 Y-40.541 Z-4.041
X-212.136 Y-40.532 Z-4.042
X-212.164 Y-40.535 Z-4.043
X-212.187 Y-40.55 Z-4.044
X-213.247 Y-41.611 Z-4.096
X-213.248
X-213.263 Y-41.635 Z-4.097
X-213.266 Y-41.662 Z-4.098
X-213.257 Y-41.689 Z-4.099
X-213.237 Y-41.708 Z-4.1
X-213.211 Y-41.717 Z-4.101
X-213.183 Y-41.714 Z-4.102
X-213.16 Y-41.7 Z-4.103
X-212.098 Y-40.639 Z-4.155
X-212.084 Y-40.615 Z-4.156
X-212.081 Y-40.587 Z-4.157
X-212.09 Y-40.561 Z-4.158
X-212.11 Y-40.541 Z-4.159
X-212.136 Y-40.532 Z-4.16
X-212.164 Y-40.535 Z-4.161
X-212.187 Y-40.55 Z-4.162
X-212.951 Y-41.314 Z-4.2
S6000
X-213.247 Y-41.611 F1000
X-213.248
X-213.263 Y-41.635
X-213.266 Y-41.662
X-213.257 Y-41.689
X-213.237 Y-41.708
X-213.211 Y-41.717
X-213.183 Y-41.714
X-213.16 Y-41.7
X-212.098 Y-40.639
X-212.084 Y-40.615
X-212.081 Y-40.587
X-212.09 Y-40.561
X-212.11 Y-40.541
X-212.136 Y-40.532
X-212.164 Y-40.535
X-212.187 Y-40.55
X-212.951 Y-41.314
Z5
X-212.916 Y-28.419
Z3.2 F333.3
Z2.5
S5000
X-213.159 Y-28.176 Z2.488
X-213.183 Y-28.161 Z2.487
X-213.21 Y-28.158 Z2.486
X-213.237 Y-28.167 Z2.485
X-213.257 Y-28.186 Z2.484
X-213.266 Y-28.213 Z2.483
X-213.263 Y-28.24 Z2.482
X-213.248 Y-28.264 Z2.481
X-213.247 Y-28.265
X-212.187 Y-29.325 Z2.429
X-212.164 Y-29.34 Z2.428
X-212.136 Y-29.343 Z2.427
X-212.11 Y-29.334 Z2.426
X-212.09 Y-29.314 Z2.425
X-212.081 Y-29.288 Z2.424
X-212.084 Y-29.26 Z2.423
X-212.099 Y-29.237 Z2.422
Y-29.236
X-213.159 Y-28.176 Z2.369
X-213.183 Y-28.161 Z2.368
X-213.21 Y-28.158
X-213.237 Y-28.167 Z2.367
X-213.257 Y-28.186 Z2.366
X-213.266 Y-28.213 Z2.365
X-213.263 Y-28.24 Z2.364
X-213.248 Y-28.264 Z2.363
X-213.247 Y-28.265
X-212.187 Y-29.325 Z2.31
X-212.164 Y-29.34 Z2.309
X-212.136 Y-29.343 Z2.308
X-212.11 Y-29.334 Z2.307
X-212.09 Y-29.314 Z2.306
X-212.081 Y-29.288 Z2.305
X-212.084 Y-29.26 Z2.304
X-212.099 Y-29.237 Z2.303
Y-29.236
X-213.159 Y-28.176 Z2.251
X-213.183 Y-28.161 Z2.25
X-213.21 Y-28.158 Z2.249
X-213.237 Y-28.167 Z2.248
X-213.257 Y-28.186 Z2.247
X-213.266 Y-28.213 Z2.246
X-213.263 Y-28.24 Z2.245
X-213.248 Y-28.264 Z2.244
X-213.247 Y-28.265
X-212.187 Y-29.325 Z2.192
X-212.164 Y-29.34 Z2.191
X-212.136 Y-29.343 Z2.19
X-212.11 Y-29.334 Z2.189
X-212.09 Y-29.314 Z2.188
X-212.081 Y-29.288 Z2.187
X-212.084 Y-29.26 Z2.186
X-212.099 Y-29.237 Z2.185
Y-29.236
X-213.159 Y-28.176 Z2.132
X-213.183 Y-28.161 Z2.131
X-213.21 Y-28.158 Z2.13
X-213.237 Y-28.167
X-213.257 Y-28.186 Z2.129
X-213.266 Y-28.213 Z2.128
X-213.263 Y-28.24 Z2.127
X-213.248 Y-28.264 Z2.126
X-213.247 Y-28.265
X-212.187 Y-29.325 Z2.073
X-212.164 Y-29.34 Z2.072
X-212.136 Y-29.343 Z2.071
X-212.11 Y-29.334 Z2.07
X-212.09 Y-29.314 Z2.069
X-212.081 Y-29.288 Z2.068
X-212.084 Y-29.26 Z2.067
X-212.099 Y-29.237 Z2.066
Y-29.236
X-213.159 Y-28.176 Z2.014
X-213.183 Y-28.161 Z2.013
X-213.21 Y-28.158 Z2.012
X-213.237 Y-28.167 Z2.011
X-213.257 Y-28.186 Z2.01
X-213.266 Y-28.213 Z2.009
X-213.263 Y-28.24 Z2.008
X-213.248 Y-28.264 Z2.007
X-213.247 Y-28.265
X-212.187 Y-29.325 Z1.955
X-212.164 Y-29.34 Z1.954
X-212.136 Y-29.343 Z1.953
X-212.11 Y-29.334 Z1.952
X-212.09 Y-29.314 Z1.951
X-212.081 Y-29.288 Z1.95
X-212.084 Y-29.26 Z1.949
X-212.099 Y-29.237 Z1.948
Y-29.236
X-213.159 Y-28.176 Z1.895
X-213.183 Y-28.161 Z1.894
X-213.21 Y-28.158 Z1.893
X-213.237 Y-28.167 Z1.892
X-213.257 Y-28.186
X-213.266 Y-28.213 Z1.891
X-213.263 Y-28.24 Z1.89
X-213.248 Y-28.264 Z1.889
X-213.247 Y-28.265
X-212.187 Y-29.325 Z1.836
X-212.164 Y-29.34 Z1.835
X-212.136 Y-29.343 Z1.834
X-212.11 Y-29.334 Z1.833
X-212.09 Y-29.314 Z1.832
X-212.081 Y-29.288 Z1.831
X-212.084 Y-29.26 Z1.83
X-212.099 Y-29.237 Z1.829
Y-29.236
X-213.159 Y-28.176 Z1.777
X-213.183 Y-28.161 Z1.776
X-213.21 Y-28.158 Z1.775
X-213.237 Y-28.167 Z1.774
X-213.257 Y-28.186 Z1.773
X-213.266 Y-28.213 Z1.772
X-213.263 Y-28.24 Z1.771
X-213.248 Y-28.264 Z1.77
X-213.247 Y-28.265
X-212.187 Y-29.325 Z1.718
X-212.164 Y-29.34 Z1.717
X-212.136 Y-29.343 Z1.716
X-212.11 Y-29.334 Z1.715
X-212.09 Y-29.314 Z1.714
X-212.081 Y-29.288 Z1.713
X-212.084 Y-29.26 Z1.712
X-212.099 Y-29.237 Z1.711
Y-29.236
X-213.159 Y-28.176 Z1.658
X-213.183 Y-28.161 Z1.657
X-213.21 Y-28.158 Z1.656
X-213.237 Y-28.167 Z1.655
X-213.257 Y-28.186 Z1.654
X-213.266 Y-28.213
X-213.263 Y-28.24 Z1.653
X-213.248 Y-28.264 Z1.652
X-213.247 Y-28.265
X-212.187 Y-29.325 Z1.599
X-212.164 Y-29.34 Z1.598
X-212.136 Y-29.343 Z1.597
X-212.11 Y-29.334 Z1.596
X-212.09 Y-29.314 Z1.595
X-212.081 Y-29.288 Z1.594
X-212.084 Y-29.26 Z1.593
X-212.099 Y-29.237 Z1.592
Y-29.236
X-213.159 Y-28.176 Z1.54
X-213.183 Y-28.161 Z1.539
X-213.21 Y-28.158 Z1.538
X-213.237 Y-28.167 Z1.537
X-213.257 Y-28.186 Z1.536
X-213.266 Y-28.213 Z1.535
X-213.263 Y-28.24 Z1.534
X-213.248 Y-28.264 Z1.533
X-213.247 Y-28.265
X-212.187 Y-29.325 Z1.481
X-212.164 Y-29.34 Z1.48
X-212.136 Y-29.343 Z1.479
X-212.11 Y-29.334 Z1.478
X-212.09 Y-29.314 Z1.477
X-212.081 Y-29.288 Z1.476
X-212.084 Y-29.26 Z1.475
X-212.099 Y-29.237 Z1.474
Y-29.236
X-213.159 Y-28.176 Z1.421
X-213.183 Y-28.161 Z1.42
X-213.21 Y-28.158 Z1.419
X-213.237 Y-28.167 Z1.418
X-213.257 Y-28.186 Z1.417
X-213.266 Y-28.213 Z1.416
X-213.263 Y-28.24
X-213.248 Y-28.264 Z1.415
X-213.247 Y-28.265 Z1.414
X-212.187 Y-29.325 Z1.362
X-212.164 Y-29.34 Z1.361
X-212.136 Y-29.343 Z1.36
X-212.11 Y-29.334 Z1.359
X-212.09 Y-29.314 Z1.358
X-212.081 Y-29.288 Z1.357
X-212.084 Y-29.26 Z1.356
X-212.099 Y-29.237 Z1.355
Y-29.236
X-213.159 Y-28.176 Z1.303
X-213.183 Y-28.161 Z1.302
X-213.21 Y-28.158 Z1.301
X-213.237 Y-28.167 Z1.3
X-213.257 Y-28.186 Z1.299
X-213.266 Y-28.213 Z1.298
X-213.263 Y-28.24 Z1.297
X-213.248 Y-28.264 Z1.296
X-213.247 Y-28.265
X-212.187 Y-29.325 Z1.244
X-212.164 Y-29.34 Z1.243
X-212.136 Y-29.343 Z1.242
X-212.11 Y-29.334 Z1.241
X-212.09 Y-29.314 Z1.24
X-212.081 Y-29.288 Z1.239
X-212.084 Y-29.26 Z1.238
X-212.099 Y-29.237 Z1.237
Y-29.236
X-213.159 Y-28.176 Z1.184
X-213.183 Y-28.161 Z1.183
X-213.21 Y-28.158 Z1.182
X-213.237 Y-28.167 Z1.181
X-213.257 Y-28.186 Z1.18
X-213.266 Y-28.213 Z1.179
X-213.263 Y-28.24 Z1.178
X-213.248 Y-28.264
X-213.247 Y-28.265 Z1.177
X-212.187 Y-29.325 Z1.125
X-212.164 Y-29.34 Z1.124
X-212.136 Y-29.343 Z1.123
X-212.11 Y-29.334 Z1.122
X-212.09 Y-29.314 Z1.121
X-212.081 Y-29.288 Z1.12
X-212.084 Y-29.26 Z1.119
X-212.099 Y-29.237 Z1.118
Y-29.236
X-213.159 Y-28.176 Z1.066
X-213.183 Y-28.161 Z1.065
X-213.21 Y-28.158 Z1.064
X-213.237 Y-28.167 Z1.063
X-213.257 Y-28.186 Z1.062
X-213.266 Y-28.213 Z1.061
X-213.263 Y-28.24 Z1.06
X-213.248 Y-28.264 Z1.059
X-213.247 Y-28.265
X-212.187 Y-29.325 Z1.007
X-212.164 Y-29.34 Z1.006
X-212.136 Y-29.343 Z1.005
X-212.11 Y-29.334 Z1.004
X-212.09 Y-29.314 Z1.003
X-212.081 Y-29.288 Z1.002
X-212.084 Y-29.26 Z1.001
X-212.099 Y-29.237 Z1
Y-29.236
X-213.159 Y-28.176 Z0.947
X-213.183 Y-28.161 Z0.946
X-213.21 Y-28.158 Z0.945
X-213.237 Y-28.167 Z0.944
X-213.257 Y-28.186 Z0.943
X-213.266 Y-28.213 Z0.942
X-213.263 Y-28.24 Z0.941
X-213.248 Y-28.264
X-213.247 Y-28.265 Z0.94
X-212.187 Y-29.325 Z0.888
X-212.164 Y-29.34 Z0.887
X-212.136 Y-29.343 Z0.886
X-212.11 Y-29.334 Z0.885
X-212.09 Y-29.314 Z0.884
X-212.081 Y-29.288 Z0.883
X-212.084 Y-29.26 Z0.882
X-212.099 Y-29.237 Z0.881
Y-29.236
X-213.159 Y-28.176 Z0.829
X-213.183 Y-28.161 Z0.828
X-213.21 Y-28.158 Z0.827
X-213.237 Y-28.167 Z0.826
X-213.257 Y-28.186 Z0.825
X-213.266 Y-28.213 Z0.824
X-213.263 Y-28.24 Z0.823
X-213.248 Y-28.264 Z0.822
X-213.247 Y-28.265
X-212.187 Y-29.325 Z0.77
X-212.164 Y-29.34 Z0.769
X-212.136 Y-29.343 Z0.768
X-212.11 Y-29.334 Z0.767
X-212.09 Y-29.314 Z0.766
X-212.081 Y-29.288 Z0.765
X-212.084 Y-29.26 Z0.764
X-212.099 Y-29.237 Z0.763
Y-29.236
X-213.159 Y-28.176 Z0.71
X-213.183 Y-28.161 Z0.709
X-213.21 Y-28.158 Z0.708
X-213.237 Y-28.167 Z0.707
X-213.257 Y-28.186 Z0.706
X-213.266 Y-28.213 Z0.705
X-213.263 Y-28.24 Z0.704
X-213.248 Y-28.264 Z0.703
X-213.247 Y-28.265
X-212.187 Y-29.325 Z0.651
X-212.164 Y-29.34 Z0.65
X-212.136 Y-29.343 Z0.649
X-212.11 Y-29.334 Z0.648
X-212.09 Y-29.314 Z0.647
X-212.081 Y-29.288 Z0.646
X-212.084 Y-29.26 Z0.645
X-212.099 Y-29.237 Z0.644
Y-29.236
X-213.159 Y-28.176 Z0.592
X-213.183 Y-28.161 Z0.591
X-213.21 Y-28.158 Z0.59
X-213.237 Y-28.167 Z0.589
X-213.257 Y-28.186 Z0.588
X-213.266 Y-28.213 Z0.587
X-213.263 Y-28.24 Z0.586
X-213.248 Y-28.264 Z0.585
X-213.247 Y-28.265
X-212.187 Y-29.325 Z0.533
X-212.164 Y-29.34 Z0.532
X-212.136 Y-29.343 Z0.531
X-212.11 Y-29.334 Z0.53
X-212.09 Y-29.314 Z0.529
X-212.081 Y-29.288 Z0.528
X-212.084 Y-29.26 Z0.527
X-212.099 Y-29.237 Z0.526
Y-29.236
X-213.159 Y-28.176 Z0.473
X-213.183 Y-28.161 Z0.472
X-213.21 Y-28.158 Z0.471
X-213.237 Y-28.167 Z0.47
X-213.257 Y-28.186 Z0.469
X-213.266 Y-28.213 Z0.468
X-213.263 Y-28.24 Z0.467
X-213.248 Y-28.264 Z0.466
X-213.247 Y-28.265
X-212.187 Y-29.325 Z0.414
X-212.164 Y-29.34 Z0.413
X-212.136 Y-29.343 Z0.412
X-212.11 Y-29.334 Z0.411
X-212.09 Y-29.314 Z0.41
X-212.081 Y-29.288 Z0.409
X-212.084 Y-29.26 Z0.408
X-212.099 Y-29.237 Z0.407
Y-29.236
X-213.159 Y-28.176 Z0.355
X-213.183 Y-28.161 Z0.354
X-213.21 Y-28.158 Z0.353
X-213.237 Y-28.167 Z0.352
X-213.257 Y-28.186 Z0.351
X-213.266 Y-28.213 Z0.35
X-213.263 Y-28.24 Z0.349
X-213.248 Y-28.264 Z0.348
X-213.247 Y-28.265
X-212.187 Y-29.325 Z0.296
X-212.164 Y-29.34 Z0.295
X-212.136 Y-29.343 Z0.294
X-212.11 Y-29.334 Z0.293
X-212.09 Y-29.314 Z0.292
X-212.081 Y-29.288 Z0.291
X-212.084 Y-29.26 Z0.29
X-212.099 Y-29.237 Z0.289
Y-29.236
X-213.159 Y-28.176 Z0.236
X-213.183 Y-28.161 Z0.235
X-213.21 Y-28.158 Z0.234
X-213.237 Y-28.167 Z0.233
X-213.257 Y-28.186 Z0.232
X-213.266 Y-28.213 Z0.231
X-213.263 Y-28.24 Z0.23
X-213.248 Y-28.264 Z0.229
X-213.247 Y-28.265
X-212.187 Y-29.325 Z0.177
X-212.164 Y-29.34 Z0.176
X-212.136 Y-29.343 Z0.175
X-212.11 Y-29.334 Z0.174
X-212.09 Y-29.314 Z0.173
X-212.081 Y-29.288 Z0.172
X-212.084 Y-29.26 Z0.171
X-212.099 Y-29.237 Z0.17
Y-29.236
X-213.159 Y-28.176 Z0.118
X-213.183 Y-28.161 Z0.117
X-213.21 Y-28.158 Z0.116
X-213.237 Y-28.167 Z0.115
X-213.257 Y-28.186 Z0.114
X-213.266 Y-28.213 Z0.113
X-213.263 Y-28.24 Z0.112
X-213.248 Y-28.264 Z0.111
X-213.247 Y-28.265
X-212.187 Y-29.325 Z0.059
X-212.164 Y-29.34 Z0.058
X-212.136 Y-29.343 Z0.057
X-212.11 Y-29.334 Z0.056
X-212.09 Y-29.314 Z0.055
X-212.081 Y-29.288 Z0.054
X-212.084 Y-29.26 Z0.053
X-212.099 Y-29.237 Z0.052
Y-29.236
X-213.159 Y-28.176 Z-0.001
X-213.183 Y-28.161 Z-0.002
X-213.21 Y-28.158 Z-0.003
X-213.237 Y-28.167 Z-0.004
X-213.257 Y-28.186 Z-0.005
X-213.266 Y-28.213 Z-0.006
X-213.263 Y-28.24 Z-0.007
X-213.248 Y-28.264 Z-0.008
X-213.247 Y-28.265
X-212.187 Y-29.325 Z-0.06
X-212.164 Y-29.34 Z-0.061
X-212.136 Y-29.343 Z-0.062
X-212.11 Y-29.334 Z-0.063
X-212.09 Y-29.314 Z-0.064
X-212.081 Y-29.288 Z-0.065
X-212.084 Y-29.26 Z-0.066
X-212.099 Y-29.237 Z-0.067
Y-29.236
X-213.159 Y-28.176 Z-0.119
X-213.183 Y-28.161 Z-0.12
X-213.21 Y-28.158 Z-0.121
X-213.237 Y-28.167 Z-0.122
X-213.257 Y-28.186 Z-0.123
X-213.266 Y-28.213 Z-0.124
X-213.263 Y-28.24 Z-0.125
X-213.248 Y-28.264 Z-0.126
X-213.247 Y-28.265
X-212.187 Y-29.325 Z-0.178
X-212.164 Y-29.34 Z-0.179
X-212.136 Y-29.343 Z-0.18
X-212.11 Y-29.334 Z-0.181
X-212.09 Y-29.314 Z-0.182
X-212.081 Y-29.288 Z-0.183
X-212.084 Y-29.26 Z-0.184
X-212.099 Y-29.237 Z-0.185
Y-29.236
X-213.159 Y-28.176 Z-0.238
X-213.183 Y-28.161 Z-0.239
X-213.21 Y-28.158 Z-0.24
X-213.237 Y-28.167 Z-0.241
X-213.257 Y-28.186 Z-0.242
X-213.266 Y-28.213 Z-0.243
X-213.263 Y-28.24 Z-0.244
X-213.248 Y-28.264 Z-0.245
X-213.247 Y-28.265
X-212.187 Y-29.325 Z-0.297
X-212.164 Y-29.34 Z-0.298
X-212.136 Y-29.343 Z-0.299
X-212.11 Y-29.334 Z-0.3
X-212.09 Y-29.314 Z-0.301
X-212.081 Y-29.288 Z-0.302
X-212.084 Y-29.26 Z-0.303
X-212.099 Y-29.237 Z-0.304
Y-29.236
X-213.159 Y-28.176 Z-0.356
X-213.183 Y-28.161 Z-0.357
X-213.21 Y-28.158 Z-0.358
X-213.237 Y-28.167 Z-0.359
X-213.257 Y-28.186 Z-0.36
X-213.266 Y-28.213 Z-0.361
X-213.263 Y-28.24 Z-0.362
X-213.248 Y-28.264 Z-0.363
X-213.247 Y-28.265
X-212.187 Y-29.325 Z-0.415
X-212.164 Y-29.34 Z-0.416
X-212.136 Y-29.343 Z-0.417
X-212.11 Y-29.334 Z-0.418
X-212.09 Y-29.314 Z-0.419
X-212.081 Y-29.288 Z-0.42
X-212.084 Y-29.26 Z-0.421
X-212.099 Y-29.237 Z-0.422
Y-29.236
X-213.159 Y-28.176 Z-0.475
X-213.183 Y-28.161 Z-0.476
X-213.21 Y-28.158 Z-0.477
X-213.237 Y-28.167 Z-0.478
X-213.257 Y-28.186 Z-0.479
X-213.266 Y-28.213 Z-0.48
X-213.263 Y-28.24 Z-0.481
X-213.248 Y-28.264 Z-0.482
X-213.247 Y-28.265
X-212.187 Y-29.325 Z-0.534
X-212.164 Y-29.34 Z-0.535
X-212.136 Y-29.343 Z-0.536
X-212.11 Y-29.334 Z-0.537
X-212.09 Y-29.314 Z-0.538
X-212.081 Y-29.288 Z-0.539
X-212.084 Y-29.26 Z-0.54
X-212.099 Y-29.237 Z-0.541
Y-29.236
X-213.159 Y-28.176 Z-0.593
X-213.183 Y-28.161 Z-0.594
X-213.21 Y-28.158 Z-0.595
X-213.237 Y-28.167 Z-0.596
X-213.257 Y-28.186 Z-0.597
X-213.266 Y-28.213 Z-0.598
X-213.263 Y-28.24 Z-0.599
X-213.248 Y-28.264 Z-0.6
X-213.247 Y-28.265
X-212.187 Y-29.325 Z-0.653
X-212.164 Y-29.34
X-212.136 Y-29.343 Z-0.654
X-212.11 Y-29.334 Z-0.655
X-212.09 Y-29.314 Z-0.656
X-212.081 Y-29.288 Z-0.657
X-212.084 Y-29.26 Z-0.658
X-212.099 Y-29.237 Z-0.659
Y-29.236
X-213.159 Y-28.176 Z-0.712
X-213.183 Y-28.161 Z-0.713
X-213.21 Y-28.158 Z-0.714
X-213.237 Y-28.167 Z-0.715
X-213.257 Y-28.186 Z-0.716
X-213.266 Y-28.213 Z-0.717
X-213.263 Y-28.24 Z-0.718
X-213.248 Y-28.264 Z-0.719
X-213.247 Y-28.265
X-212.187 Y-29.325 Z-0.771
X-212.164 Y-29.34 Z-0.772
X-212.136 Y-29.343 Z-0.773
X-212.11 Y-29.334 Z-0.774
X-212.09 Y-29.314 Z-0.775
X-212.081 Y-29.288 Z-0.776
X-212.084 Y-29.26 Z-0.777
X-212.099 Y-29.237 Z-0.778
Y-29.236
X-213.159 Y-28.176 Z-0.83
X-213.183 Y-28.161 Z-0.831
X-213.21 Y-28.158 Z-0.832
X-213.237 Y-28.167 Z-0.833
X-213.257 Y-28.186 Z-0.834
X-213.266 Y-28.213 Z-0.835
X-213.263 Y-28.24 Z-0.836
X-213.248 Y-28.264 Z-0.837
X-213.247 Y-28.265
X-212.187 Y-29.325 Z-0.89
X-212.164 Y-29.34 Z-0.891
X-212.136 Y-29.343
X-212.11 Y-29.334 Z-0.892
X-212.09 Y-29.314 Z-0.893
X-212.081 Y-29.288 Z-0.894
X-212.084 Y-29.26 Z-0.895
X-212.099 Y-29.237 Z-0.896
Y-29.236
X-213.159 Y-28.176 Z-0.949
X-213.183 Y-28.161 Z-0.95
X-213.21 Y-28.158 Z-0.951
X-213.237 Y-28.167 Z-0.952
X-213.257 Y-28.186 Z-0.953
X-213.266 Y-28.213 Z-0.954
X-213.263 Y-28.24 Z-0.955
X-213.248 Y-28.264 Z-0.956
X-213.247 Y-28.265
X-212.187 Y-29.325 Z-1.008
X-212.164 Y-29.34 Z-1.009
X-212.136 Y-29.343 Z-1.01
X-212.11 Y-29.334 Z-1.011
X-212.09 Y-29.314 Z-1.012
X-212.081 Y-29.288 Z-1.013
X-212.084 Y-29.26 Z-1.014
X-212.099 Y-29.237 Z-1.015
Y-29.236
X-213.159 Y-28.176 Z-1.067
X-213.183 Y-28.161 Z-1.068
X-213.21 Y-28.158 Z-1.069
X-213.237 Y-28.167 Z-1.07
X-213.257 Y-28.186 Z-1.071
X-213.266 Y-28.213 Z-1.072
X-213.263 Y-28.24 Z-1.073
X-213.248 Y-28.264 Z-1.074
X-213.247 Y-28.265
X-212.187 Y-29.325 Z-1.127
X-212.164 Y-29.34 Z-1.128
X-212.136 Y-29.343 Z-1.129
X-212.11 Y-29.334
X-212.09 Y-29.314 Z-1.13
X-212.081 Y-29.288 Z-1.131
X-212.084 Y-29.26 Z-1.132
X-212.099 Y-29.237 Z-1.133
Y-29.236
X-213.159 Y-28.176 Z-1.186
X-213.183 Y-28.161 Z-1.187
X-213.21 Y-28.158 Z-1.188
X-213.237 Y-28.167 Z-1.189
X-213.257 Y-28.186 Z-1.19
X-213.266 Y-28.213 Z-1.191
X-213.263 Y-28.24 Z-1.192
X-213.248 Y-28.264 Z-1.193
X-213.247 Y-28.265
X-212.187 Y-29.325 Z-1.245
X-212.164 Y-29.34 Z-1.246
X-212.136 Y-29.343 Z-1.247
X-212.11 Y-29.334 Z-1.248
X-212.09 Y-29.314 Z-1.249
X-212.081 Y-29.288 Z-1.25
X-212.084 Y-29.26 Z-1.251
X-212.099 Y-29.237 Z-1.252
Y-29.236
X-213.159 Y-28.176 Z-1.304
X-213.183 Y-28.161 Z-1.305
X-213.21 Y-28.158 Z-1.306
X-213.237 Y-28.167 Z-1.307
X-213.257 Y-28.186 Z-1.308
X-213.266 Y-28.213 Z-1.309
X-213.263 Y-28.24 Z-1.31
X-213.248 Y-28.264 Z-1.311
X-213.247 Y-28.265
X-212.187 Y-29.325 Z-1.364
X-212.164 Y-29.34 Z-1.365
X-212.136 Y-29.343 Z-1.366
X-212.11 Y-29.334 Z-1.367
X-212.09 Y-29.314
X-212.081 Y-29.288 Z-1.368
X-212.084 Y-29.26 Z-1.369
X-212.099 Y-29.237 Z-1.37
Y-29.236
X-213.159 Y-28.176 Z-1.423
X-213.183 Y-28.161 Z-1.424
X-213.21 Y-28.158 Z-1.425
X-213.237 Y-28.167 Z-1.426
X-213.257 Y-28.186 Z-1.427
X-213.266 Y-28.213 Z-1.428
X-213.263 Y-28.24 Z-1.429
X-213.248 Y-28.264 Z-1.43
X-213.247 Y-28.265
X-212.187 Y-29.325 Z-1.482
X-212.164 Y-29.34 Z-1.483
X-212.136 Y-29.343 Z-1.484
X-212.11 Y-29.334 Z-1.485
X-212.09 Y-29.314 Z-1.486
X-212.081 Y-29.288 Z-1.487
X-212.084 Y-29.26 Z-1.488
X-212.099 Y-29.237 Z-1.489
Y-29.236
X-213.159 Y-28.176 Z-1.541
X-213.183 Y-28.161 Z-1.542
X-213.21 Y-28.158 Z-1.543
X-213.237 Y-28.167 Z-1.544
X-213.257 Y-28.186 Z-1.545
X-213.266 Y-28.213 Z-1.546
X-213.263 Y-28.24 Z-1.547
X-213.248 Y-28.264 Z-1.548
X-213.247 Y-28.265
X-212.187 Y-29.325 Z-1.601
X-212.164 Y-29.34 Z-1.602
X-212.136 Y-29.343 Z-1.603
X-212.11 Y-29.334 Z-1.604
X-212.09 Y-29.314 Z-1.605
X-212.081 Y-29.288
X-212.084 Y-29.26 Z-1.606
X-212.099 Y-29.237 Z-1.607
Y-29.236
X-213.159 Y-28.176 Z-1.66
X-213.183 Y-28.161 Z-1.661
X-213.21 Y-28.158 Z-1.662
X-213.237 Y-28.167 Z-1.663
X-213.257 Y-28.186 Z-1.664
X-213.266 Y-28.213 Z-1.665
X-213.263 Y-28.24 Z-1.666
X-213.248 Y-28.264 Z-1.667
X-213.247 Y-28.265
X-212.187 Y-29.325 Z-1.719
X-212.164 Y-29.34 Z-1.72
X-212.136 Y-29.343 Z-1.721
X-212.11 Y-29.334 Z-1.722
X-212.09 Y-29.314 Z-1.723
X-212.081 Y-29.288 Z-1.724
X-212.084 Y-29.26 Z-1.725
X-212.099 Y-29.237 Z-1.726
Y-29.236
X-213.159 Y-28.176 Z-1.778
X-213.183 Y-28.161 Z-1.779
X-213.21 Y-28.158 Z-1.78
X-213.237 Y-28.167 Z-1.781
X-213.257 Y-28.186 Z-1.782
X-213.266 Y-28.213 Z-1.783
X-213.263 Y-28.24 Z-1.784
X-213.248 Y-28.264 Z-1.785
X-213.247 Y-28.265
X-212.187 Y-29.325 Z-1.838
X-212.164 Y-29.34 Z-1.839
X-212.136 Y-29.343 Z-1.84
X-212.11 Y-29.334 Z-1.841
X-212.09 Y-29.314 Z-1.842
X-212.081 Y-29.288 Z-1.843
X-212.084 Y-29.26
X-212.099 Y-29.237 Z-1.844
Y-29.236
X-213.159 Y-28.176 Z-1.897
X-213.183 Y-28.161 Z-1.898
X-213.21 Y-28.158 Z-1.899
X-213.237 Y-28.167 Z-1.9
X-213.257 Y-28.186 Z-1.901
X-213.266 Y-28.213 Z-1.902
X-213.263 Y-28.24 Z-1.903
X-213.248 Y-28.264 Z-1.904
X-213.247 Y-28.265
X-212.187 Y-29.325 Z-1.956
X-212.164 Y-29.34 Z-1.957
X-212.136 Y-29.343 Z-1.958
X-212.11 Y-29.334 Z-1.959
X-212.09 Y-29.314 Z-1.96
X-212.081 Y-29.288 Z-1.961
X-212.084 Y-29.26 Z-1.962
X-212.099 Y-29.237 Z-1.963
Y-29.236
X-213.159 Y-28.176 Z-2.015
X-213.183 Y-28.161 Z-2.016
X-213.21 Y-28.158 Z-2.017
X-213.237 Y-28.167 Z-2.018
X-213.257 Y-28.186 Z-2.019
X-213.266 Y-28.213 Z-2.02
X-213.263 Y-28.24 Z-2.021
X-213.248 Y-28.264 Z-2.022
X-213.247 Y-28.265
X-212.187 Y-29.325 Z-2.075
X-212.164 Y-29.34 Z-2.076
X-212.136 Y-29.343 Z-2.077
X-212.11 Y-29.334 Z-2.078
X-212.09 Y-29.314 Z-2.079
X-212.081 Y-29.288 Z-2.08
X-212.084 Y-29.26 Z-2.081
X-212.099 Y-29.237
Y-29.236
X-213.159 Y-28.176 Z-2.134
X-213.183 Y-28.161 Z-2.135
X-213.21 Y-28.158 Z-2.136
X-213.237 Y-28.167 Z-2.137
X-213.257 Y-28.186 Z-2.138
X-213.266 Y-28.213 Z-2.139
X-213.263 Y-28.24 Z-2.14
X-213.248 Y-28.264 Z-2.141
X-213.247 Y-28.265
X-212.187 Y-29.325 Z-2.193
X-212.164 Y-29.34 Z-2.194
X-212.136 Y-29.343 Z-2.195
X-212.11 Y-29.334 Z-2.196
X-212.09 Y-29.314 Z-2.197
X-212.081 Y-29.288 Z-2.198
X-212.084 Y-29.26 Z-2.199
X-212.099 Y-29.237 Z-2.2
Y-29.236
S6000
X-213.159 Y-28.176 F1000
X-213.183 Y-28.161
X-213.21 Y-28.158
X-213.237 Y-28.167
X-213.257 Y-28.186
X-213.266 Y-28.213
X-213.263 Y-28.24
X-213.248 Y-28.264
X-213.247 Y-28.265
X-212.187 Y-29.325
X-212.164 Y-29.34
X-212.136 Y-29.343
X-212.11 Y-29.334
X-212.09 Y-29.314
X-212.081 Y-29.288
X-212.084 Y-29.26
X-212.099 Y-29.237
Y-29.236
S5000
X-213.159 Y-28.176 Z-2.252 F333.3
X-213.183 Y-28.161 Z-2.253
X-213.21 Y-28.158 Z-2.254
X-213.237 Y-28.167 Z-2.255
X-213.257 Y-28.186 Z-2.256
X-213.266 Y-28.213 Z-2.257
X-213.263 Y-28.24 Z-2.258
X-213.248 Y-28.264 Z-2.259
X-213.247 Y-28.265
X-212.187 Y-29.325 Z-2.312
X-212.164 Y-29.34 Z-2.313
X-212.136 Y-29.343 Z-2.314
X-212.11 Y-29.334 Z-2.315
X-212.09 Y-29.314 Z-2.316
X-212.081 Y-29.288 Z-2.317
X-212.084 Y-29.26 Z-2.318
X-212.099 Y-29.237 Z-2.319
Y-29.236
X-213.159 Y-28.176 Z-2.371
X-213.183 Y-28.161 Z-2.372
X-213.21 Y-28.158 Z-2.373
X-213.237 Y-28.167 Z-2.374
X-213.257 Y-28.186 Z-2.375
X-213.266 Y-28.213 Z-2.376
X-213.263 Y-28.24 Z-2.377
X-213.248 Y-28.264 Z-2.378
X-213.247 Y-28.265
X-212.187 Y-29.325 Z-2.43
X-212.164 Y-29.34 Z-2.431
X-212.136 Y-29.343 Z-2.432
X-212.11 Y-29.334 Z-2.433
X-212.09 Y-29.314 Z-2.434
X-212.081 Y-29.288 Z-2.435
X-212.084 Y-29.26 Z-2.436
X-212.099 Y-29.237 Z-2.437
Y-29.236
X-213.159 Y-28.176 Z-2.489
X-213.183 Y-28.161 Z-2.49
X-213.21 Y-28.158 Z-2.491
X-213.237 Y-28.167 Z-2.492
X-213.257 Y-28.186 Z-2.493
X-213.266 Y-28.213 Z-2.494
X-213.263 Y-28.24 Z-2.495
X-213.248 Y-28.264 Z-2.496
X-213.247 Y-28.265
X-212.187 Y-29.325 Z-2.549
X-212.164 Y-29.34 Z-2.55
X-212.136 Y-29.343 Z-2.551
X-212.11 Y-29.334 Z-2.552
X-212.09 Y-29.314 Z-2.553
X-212.081 Y-29.288 Z-2.554
X-212.084 Y-29.26 Z-2.555
X-212.099 Y-29.237 Z-2.556
Y-29.236
X-213.159 Y-28.176 Z-2.608
X-213.183 Y-28.161 Z-2.609
X-213.21 Y-28.158 Z-2.61
X-213.237 Y-28.167 Z-2.611
X-213.257 Y-28.186 Z-2.612
X-213.266 Y-28.213 Z-2.613
X-213.263 Y-28.24 Z-2.614
X-213.248 Y-28.264 Z-2.615
X-213.247 Y-28.265
X-212.187 Y-29.325 Z-2.667
X-212.164 Y-29.34 Z-2.668
X-212.136 Y-29.343 Z-2.669
X-212.11 Y-29.334 Z-2.67
X-212.09 Y-29.314 Z-2.671
X-212.081 Y-29.288 Z-2.672
X-212.084 Y-29.26 Z-2.673
X-212.099 Y-29.237 Z-2.674
Y-29.236
X-213.159 Y-28.176 Z-2.726
X-213.183 Y-28.161 Z-2.727
X-213.21 Y-28.158 Z-2.728
X-213.237 Y-28.167 Z-2.729
X-213.257 Y-28.186 Z-2.73
X-213.266 Y-28.213 Z-2.731
X-213.263 Y-28.24 Z-2.732
X-213.248 Y-28.264 Z-2.733
X-213.247 Y-28.265
X-212.187 Y-29.325 Z-2.786
X-212.164 Y-29.34 Z-2.787
X-212.136 Y-29.343 Z-2.788
X-212.11 Y-29.334 Z-2.789
X-212.09 Y-29.314 Z-2.79
X-212.081 Y-29.288 Z-2.791
X-212.084 Y-29.26 Z-2.792
X-212.099 Y-29.237 Z-2.793
Y-29.236
X-213.159 Y-28.176 Z-2.845
X-213.183 Y-28.161 Z-2.846
X-213.21 Y-28.158 Z-2.847
X-213.237 Y-28.167 Z-2.848
X-213.257 Y-28.186 Z-2.849
X-213.266 Y-28.213 Z-2.85
X-213.263 Y-28.24 Z-2.851
X-213.248 Y-28.264 Z-2.852
X-213.247 Y-28.265
X-212.187 Y-29.325 Z-2.904
X-212.164 Y-29.34 Z-2.905
X-212.136 Y-29.343 Z-2.906
X-212.11 Y-29.334 Z-2.907
X-212.09 Y-29.314 Z-2.908
X-212.081 Y-29.288 Z-2.909
X-212.084 Y-29.26 Z-2.91
X-212.099 Y-29.237 Z-2.911
Y-29.236
X-213.159 Y-28.176 Z-2.963
X-213.183 Y-28.161 Z-2.964
X-213.21 Y-28.158 Z-2.965
X-213.237 Y-28.167 Z-2.966
X-213.257 Y-28.186 Z-2.967
X-213.266 Y-28.213 Z-2.968
X-213.263 Y-28.24 Z-2.969
X-213.248 Y-28.264 Z-2.97
X-213.247 Y-28.265
X-212.187 Y-29.325 Z-3.023
X-212.164 Y-29.34 Z-3.024
X-212.136 Y-29.343 Z-3.025
X-212.11 Y-29.334 Z-3.026
X-212.09 Y-29.314 Z-3.027
X-212.081 Y-29.288 Z-3.028
X-212.084 Y-29.26 Z-3.029
X-212.099 Y-29.237 Z-3.03
Y-29.236
X-213.159 Y-28.176 Z-3.082
X-213.183 Y-28.161 Z-3.083
X-213.21 Y-28.158 Z-3.084
X-213.237 Y-28.167 Z-3.085
X-213.257 Y-28.186 Z-3.086
X-213.266 Y-28.213 Z-3.087
X-213.263 Y-28.24 Z-3.088
X-213.248 Y-28.264 Z-3.089
X-213.247 Y-28.265
X-212.187 Y-29.325 Z-3.141
X-212.164 Y-29.34 Z-3.142
X-212.136 Y-29.343 Z-3.143
X-212.11 Y-29.334 Z-3.144
X-212.09 Y-29.314 Z-3.145
X-212.081 Y-29.288 Z-3.146
X-212.084 Y-29.26 Z-3.147
X-212.099 Y-29.237 Z-3.148
Y-29.236
X-213.159 Y-28.176 Z-3.2
X-213.183 Y-28.161 Z-3.201
X-213.21 Y-28.158 Z-3.202
X-213.237 Y-28.167 Z-3.203
X-213.257 Y-28.186 Z-3.204
X-213.266 Y-28.213 Z-3.205
X-213.263 Y-28.24 Z-3.206
X-213.248 Y-28.264 Z-3.207
X-213.247 Y-28.265
X-212.187 Y-29.325 Z-3.26
X-212.164 Y-29.34 Z-3.261
X-212.136 Y-29.343 Z-3.262
X-212.11 Y-29.334 Z-3.263
X-212.09 Y-29.314 Z-3.264
X-212.081 Y-29.288 Z-3.265
X-212.084 Y-29.26 Z-3.266
X-212.099 Y-29.237 Z-3.267
Y-29.236
X-213.159 Y-28.176 Z-3.319
X-213.183 Y-28.161 Z-3.32
X-213.21 Y-28.158 Z-3.321
X-213.237 Y-28.167 Z-3.322
X-213.257 Y-28.186 Z-3.323
X-213.266 Y-28.213 Z-3.324
X-213.263 Y-28.24 Z-3.325
X-213.248 Y-28.264 Z-3.326
X-213.247 Y-28.265
X-212.187 Y-29.325 Z-3.378
X-212.164 Y-29.34 Z-3.379
X-212.136 Y-29.343 Z-3.38
X-212.11 Y-29.334 Z-3.381
X-212.09 Y-29.314 Z-3.382
X-212.081 Y-29.288 Z-3.383
X-212.084 Y-29.26 Z-3.384
X-212.099 Y-29.237 Z-3.385
Y-29.236
X-213.159 Y-28.176 Z-3.437
X-213.183 Y-28.161 Z-3.438
X-213.21 Y-28.158 Z-3.439
X-213.237 Y-28.167 Z-3.44
X-213.257 Y-28.186 Z-3.441
X-213.266 Y-28.213 Z-3.442
X-213.263 Y-28.24 Z-3.443
X-213.248 Y-28.264 Z-3.444
X-213.247 Y-28.265
X-212.187 Y-29.325 Z-3.497
X-212.164 Y-29.34 Z-3.498
X-212.136 Y-29.343 Z-3.499
X-212.11 Y-29.334 Z-3.5
X-212.09 Y-29.314 Z-3.501
X-212.081 Y-29.288 Z-3.502
X-212.084 Y-29.26 Z-3.503
X-212.099 Y-29.237 Z-3.504
Y-29.236
X-213.159 Y-28.176 Z-3.556
X-213.183 Y-28.161 Z-3.557
X-213.21 Y-28.158 Z-3.558
X-213.237 Y-28.167 Z-3.559
X-213.257 Y-28.186 Z-3.56
X-213.266 Y-28.213 Z-3.561
X-213.263 Y-28.24 Z-3.562
X-213.248 Y-28.264 Z-3.563
X-213.247 Y-28.265
X-212.187 Y-29.325 Z-3.615
X-212.164 Y-29.34 Z-3.616
X-212.136 Y-29.343 Z-3.617
X-212.11 Y-29.334 Z-3.618
X-212.09 Y-29.314 Z-3.619
X-212.081 Y-29.288 Z-3.62
X-212.084 Y-29.26 Z-3.621
X-212.099 Y-29.237 Z-3.622
Y-29.236
X-213.159 Y-28.176 Z-3.674
X-213.183 Y-28.161 Z-3.675
X-213.21 Y-28.158 Z-3.676
X-213.237 Y-28.167 Z-3.677
X-213.257 Y-28.186 Z-3.678
X-213.266 Y-28.213 Z-3.679
X-213.263 Y-28.24 Z-3.68
X-213.248 Y-28.264 Z-3.681
X-213.247 Y-28.265
X-212.187 Y-29.325 Z-3.734
X-212.164 Y-29.34 Z-3.735
X-212.136 Y-29.343 Z-3.736
X-212.11 Y-29.334 Z-3.737
X-212.09 Y-29.314 Z-3.738
X-212.081 Y-29.288 Z-3.739
X-212.084 Y-29.26 Z-3.74
X-212.099 Y-29.237 Z-3.741
Y-29.236
X-213.159 Y-28.176 Z-3.793
X-213.183 Y-28.161 Z-3.794
X-213.21 Y-28.158 Z-3.795
X-213.237 Y-28.167 Z-3.796
X-213.257 Y-28.186 Z-3.797
X-213.266 Y-28.213 Z-3.798
X-213.263 Y-28.24 Z-3.799
X-213.248 Y-28.264 Z-3.8
X-213.247 Y-28.265
X-212.187 Y-29.325 Z-3.852
X-212.164 Y-29.34 Z-3.853
X-212.136 Y-29.343 Z-3.854
X-212.11 Y-29.334 Z-3.855
X-212.09 Y-29.314 Z-3.856
X-212.081 Y-29.288 Z-3.857
X-212.084 Y-29.26 Z-3.858
X-212.099 Y-29.237 Z-3.859
Y-29.236
X-213.159 Y-28.176 Z-3.911
X-213.183 Y-28.161 Z-3.912
X-213.21 Y-28.158 Z-3.913
X-213.237 Y-28.167 Z-3.914
X-213.257 Y-28.186 Z-3.915
X-213.266 Y-28.213 Z-3.916
X-213.263 Y-28.24 Z-3.917
X-213.248 Y-28.264 Z-3.918
X-213.247 Y-28.265
X-212.187 Y-29.325 Z-3.971
X-212.164 Y-29.34 Z-3.972
X-212.136 Y-29.343 Z-3.973
X-212.11 Y-29.334 Z-3.974
X-212.09 Y-29.314 Z-3.975
X-212.081 Y-29.288 Z-3.976
X-212.084 Y-29.26 Z-3.977
X-212.099 Y-29.237 Z-3.978
Y-29.236
X-213.159 Y-28.176 Z-4.03
X-213.183 Y-28.161 Z-4.031
X-213.21 Y-28.158 Z-4.032
X-213.237 Y-28.167 Z-4.033
X-213.257 Y-28.186 Z-4.034
X-213.266 Y-28.213 Z-4.035
X-213.263 Y-28.24 Z-4.036
X-213.248 Y-28.264 Z-4.037
X-213.247 Y-28.265
X-212.187 Y-29.325 Z-4.089
X-212.164 Y-29.34 Z-4.09
X-212.136 Y-29.343 Z-4.091
X-212.11 Y-29.334 Z-4.092
X-212.09 Y-29.314 Z-4.093
X-212.081 Y-29.288 Z-4.094
X-212.084 Y-29.26 Z-4.095
X-212.099 Y-29.237 Z-4.096
Y-29.236
X-213.159 Y-28.176 Z-4.149
X-213.183 Y-28.161
X-213.21 Y-28.158 Z-4.15
X-213.237 Y-28.167 Z-4.151
X-213.257 Y-28.186 Z-4.152
X-213.266 Y-28.213 Z-4.153
X-213.263 Y-28.24 Z-4.154
X-213.248 Y-28.264 Z-4.155
X-213.247 Y-28.265
X-212.345 Y-29.168 Z-4.2
S6000
X-212.187 Y-29.325 F1000
X-212.164 Y-29.34
X-212.136 Y-29.343
X-212.11 Y-29.334
X-212.09 Y-29.314
X-212.081 Y-29.288
X-212.084 Y-29.26
X-212.099 Y-29.237
Y-29.236
X-213.159 Y-28.176
X-213.183 Y-28.161
X-213.21 Y-28.158
X-213.237 Y-28.167
X-213.257 Y-28.186
X-213.266 Y-28.213
X-213.263 Y-28.24
X-213.248 Y-28.264
X-213.247 Y-28.265
X-212.345 Y-29.168
Z5
X-200.398 Y-28.761
Z3.2 F333.3
Z2.5
S5000
X-200.873 Y-29.236 Z2.477
X-200.888 Y-29.26 Z2.476
X-200.891 Y-29.288 Z2.475
X-200.882 Y-29.314 Z2.474
X-200.862 Y-29.333 Z2.473
X-200.836 Y-29.342 Z2.472
X-200.809 Y-29.339 Z2.471
X-200.785 Y-29.325 Z2.47
X-199.725 Y-28.264 Z2.417
X-199.71 Y-28.241 Z2.416
X-199.707 Y-28.213 Z2.415
X-199.716 Y-28.187 Z2.414
X-199.736 Y-28.168 Z2.413
X-199.762 Y-28.158 Z2.412
X-199.789 Y-28.161 Z2.411
X-199.813 Y-28.176 Z2.41
X-200.873 Y-29.236 Z2.358
X-200.888 Y-29.26 Z2.357
X-200.891 Y-29.288 Z2.356
X-200.882 Y-29.314 Z2.355
X-200.862 Y-29.333 Z2.354
X-200.836 Y-29.342 Z2.353
X-200.809 Y-29.339 Z2.352
X-200.785 Y-29.325 Z2.351
X-199.725 Y-28.264 Z2.299
X-199.71 Y-28.241 Z2.298
X-199.707 Y-28.213 Z2.297
X-199.716 Y-28.187 Z2.296
X-199.736 Y-28.168 Z2.295
X-199.762 Y-28.158 Z2.294
X-199.789 Y-28.161 Z2.293
X-199.813 Y-28.176 Z2.292
X-200.873 Y-29.236 Z2.24
X-200.888 Y-29.26 Z2.239
X-200.891 Y-29.288 Z2.238
X-200.882 Y-29.314 Z2.237
X-200.862 Y-29.333 Z2.236
X-200.836 Y-29.342 Z2.235
X-200.809 Y-29.339 Z2.234
X-200.785 Y-29.325 Z2.233
X-199.725 Y-28.264 Z2.181
X-199.71 Y-28.241 Z2.18
X-199.707 Y-28.213 Z2.179
X-199.716 Y-28.187 Z2.178
X-199.736 Y-28.168 Z2.177
X-199.762 Y-28.158 Z2.176
X-199.789 Y-28.161 Z2.175
X-199.813 Y-28.176 Z2.174
X-200.873 Y-29.236 Z2.121
X-200.888 Y-29.26 Z2.12
X-200.891 Y-29.288 Z2.119
X-200.882 Y-29.314 Z2.118
X-200.862 Y-29.333 Z2.117
X-200.836 Y-29.342 Z2.116
X-200.809 Y-29.339 Z2.115
X-200.785 Y-29.325
X-199.725 Y-28.264 Z2.062
X-199.71 Y-28.241 Z2.061
X-199.707 Y-28.213 Z2.06
X-199.716 Y-28.187 Z2.059
X-199.736 Y-28.168 Z2.058
X-199.762 Y-28.158 Z2.057
X-199.789 Y-28.161 Z2.056
X-199.813 Y-28.176 Z2.055
X-200.873 Y-29.236 Z2.003
X-200.888 Y-29.26 Z2.002
X-200.891 Y-29.288 Z2.001
X-200.882 Y-29.314 Z2
X-200.862 Y-29.333 Z1.999
X-200.836 Y-29.342 Z1.998
X-200.809 Y-29.339 Z1.997
X-200.785 Y-29.325 Z1.996
X-199.725 Y-28.264 Z1.944
X-199.71 Y-28.241 Z1.943
X-199.707 Y-28.213 Z1.942
X-199.716 Y-28.187 Z1.941
X-199.736 Y-28.168 Z1.94
X-199.762 Y-28.158 Z1.939
X-199.789 Y-28.161 Z1.938
X-199.813 Y-28.176 Z1.937
X-200.873 Y-29.236 Z1.885
X-200.888 Y-29.26 Z1.884
X-200.891 Y-29.288 Z1.883
X-200.882 Y-29.314 Z1.882
X-200.862 Y-29.333 Z1.881
X-200.836 Y-29.342 Z1.88
X-200.809 Y-29.339 Z1.879
X-200.785 Y-29.325 Z1.878
X-199.725 Y-28.264 Z1.825
X-199.71 Y-28.241 Z1.824
X-199.707 Y-28.213 Z1.823
X-199.716 Y-28.187 Z1.822
X-199.736 Y-28.168 Z1.821
X-199.762 Y-28.158 Z1.82
X-199.789 Y-28.161 Z1.819
X-199.813 Y-28.176
X-200.873 Y-29.236 Z1.766
X-200.888 Y-29.26 Z1.765
X-200.891 Y-29.288 Z1.764
X-200.882 Y-29.314 Z1.763
X-200.862 Y-29.333 Z1.762
X-200.836 Y-29.342 Z1.761
X-200.809 Y-29.339 Z1.76
X-200.785 Y-29.325 Z1.759
X-199.725 Y-28.264 Z1.707
X-199.71 Y-28.241 Z1.706
X-199.707 Y-28.213 Z1.705
X-199.716 Y-28.187 Z1.704
X-199.736 Y-28.168 Z1.703
X-199.762 Y-28.158 Z1.702
X-199.789 Y-28.161 Z1.701
X-199.813 Y-28.176 Z1.7
X-200.873 Y-29.236 Z1.648
X-200.888 Y-29.26 Z1.647
X-200.891 Y-29.288 Z1.646
X-200.882 Y-29.314 Z1.645
X-200.862 Y-29.333 Z1.644
X-200.836 Y-29.342 Z1.643
X-200.809 Y-29.339 Z1.642
X-200.785 Y-29.325 Z1.641
X-199.725 Y-28.264 Z1.589
X-199.71 Y-28.241 Z1.588
X-199.707 Y-28.213 Z1.587
X-199.716 Y-28.187 Z1.586
X-199.736 Y-28.168 Z1.585
X-199.762 Y-28.158 Z1.584
X-199.789 Y-28.161 Z1.583
X-199.813 Y-28.176 Z1.582
X-200.873 Y-29.236 Z1.529
X-200.888 Y-29.26 Z1.528
X-200.891 Y-29.288 Z1.527
X-200.882 Y-29.314 Z1.526
X-200.862 Y-29.333 Z1.525
X-200.836 Y-29.342 Z1.524
X-200.809 Y-29.339
X-200.785 Y-29.325 Z1.523
X-199.725 Y-28.264 Z1.47
X-199.71 Y-28.241 Z1.469
X-199.707 Y-28.213 Z1.468
X-199.716 Y-28.187 Z1.467
X-199.736 Y-28.168 Z1.466
X-199.762 Y-28.158 Z1.465
X-199.789 Y-28.161 Z1.464
X-199.813 Y-28.176 Z1.463
X-200.873 Y-29.236 Z1.411
X-200.888 Y-29.26 Z1.41
X-200.891 Y-29.288 Z1.409
X-200.882 Y-29.314 Z1.408
X-200.862 Y-29.333 Z1.407
X-200.836 Y-29.342 Z1.406
X-200.809 Y-29.339 Z1.405
X-200.785 Y-29.325 Z1.404
X-199.725 Y-28.264 Z1.352
X-199.71 Y-28.241 Z1.351
X-199.707 Y-28.213 Z1.35
X-199.716 Y-28.187 Z1.349
X-199.736 Y-28.168 Z1.348
X-199.762 Y-28.158 Z1.347
X-199.789 Y-28.161 Z1.346
X-199.813 Y-28.176 Z1.345
X-200.873 Y-29.236 Z1.293
X-200.888 Y-29.26 Z1.292
X-200.891 Y-29.288 Z1.291
X-200.882 Y-29.314 Z1.29
X-200.862 Y-29.333 Z1.289
X-200.836 Y-29.342 Z1.288
X-200.809 Y-29.339 Z1.287
X-200.785 Y-29.325 Z1.286
X-199.725 Y-28.264 Z1.233
X-199.71 Y-28.241 Z1.232
X-199.707 Y-28.213 Z1.231
X-199.716 Y-28.187 Z1.23
X-199.736 Y-28.168 Z1.229
X-199.762 Y-28.158
X-199.789 Y-28.161 Z1.228
X-199.813 Y-28.176 Z1.227
X-200.873 Y-29.236 Z1.174
X-200.888 Y-29.26 Z1.173
X-200.891 Y-29.288 Z1.172
X-200.882 Y-29.314 Z1.171
X-200.862 Y-29.333 Z1.17
X-200.836 Y-29.342 Z1.169
X-200.809 Y-29.339 Z1.168
X-200.785 Y-29.325 Z1.167
X-199.725 Y-28.264 Z1.115
X-199.71 Y-28.241 Z1.114
X-199.707 Y-28.213 Z1.113
X-199.716 Y-28.187 Z1.112
X-199.736 Y-28.168 Z1.111
X-199.762 Y-28.158 Z1.11
X-199.789 Y-28.161 Z1.109
X-199.813 Y-28.176 Z1.108
X-200.873 Y-29.236 Z1.056
X-200.888 Y-29.26 Z1.055
X-200.891 Y-29.288 Z1.054
X-200.882 Y-29.314 Z1.053
X-200.862 Y-29.333 Z1.052
X-200.836 Y-29.342 Z1.051
X-200.809 Y-29.339 Z1.05
X-200.785 Y-29.325 Z1.049
X-199.725 Y-28.264 Z0.997
X-199.71 Y-28.241 Z0.996
X-199.707 Y-28.213 Z0.995
X-199.716 Y-28.187 Z0.994
X-199.736 Y-28.168 Z0.993
X-199.762 Y-28.158 Z0.992
X-199.789 Y-28.161 Z0.991
X-199.813 Y-28.176 Z0.99
X-200.873 Y-29.236 Z0.937
X-200.888 Y-29.26 Z0.936
X-200.891 Y-29.288 Z0.935
X-200.882 Y-29.314 Z0.934
X-200.862 Y-29.333
X-200.836 Y-29.342 Z0.933
X-200.809 Y-29.339 Z0.932
X-200.785 Y-29.325 Z0.931
X-199.725 Y-28.264 Z0.878
X-199.71 Y-28.241 Z0.877
X-199.707 Y-28.213 Z0.876
X-199.716 Y-28.187 Z0.875
X-199.736 Y-28.168 Z0.874
X-199.762 Y-28.158 Z0.873
X-199.789 Y-28.161 Z0.872
X-199.813 Y-28.176 Z0.871
X-200.873 Y-29.236 Z0.819
X-200.888 Y-29.26 Z0.818
X-200.891 Y-29.288 Z0.817
X-200.882 Y-29.314 Z0.816
X-200.862 Y-29.333 Z0.815
X-200.836 Y-29.342 Z0.814
X-200.809 Y-29.339 Z0.813
X-200.785 Y-29.325 Z0.812
X-199.725 Y-28.264 Z0.76
X-199.71 Y-28.241 Z0.759
X-199.707 Y-28.213 Z0.758
X-199.716 Y-28.187 Z0.757
X-199.736 Y-28.168 Z0.756
X-199.762 Y-28.158 Z0.755
X-199.789 Y-28.161 Z0.754
X-199.813 Y-28.176 Z0.753
X-200.873 Y-29.236 Z0.701
X-200.888 Y-29.26 Z0.7
X-200.891 Y-29.288 Z0.699
X-200.882 Y-29.314 Z0.698
X-200.862 Y-29.333 Z0.697
X-200.836 Y-29.342 Z0.696
X-200.809 Y-29.339 Z0.695
X-200.785 Y-29.325 Z0.694
X-199.725 Y-28.264 Z0.641
X-199.71 Y-28.241 Z0.64
X-199.707 Y-28.213 Z0.639
X-199.716 Y-28.187 Z0.638
X-199.736 Y-28.168
X-199.762 Y-28.158 Z0.637
X-199.789 Y-28.161 Z0.636
X-199.813 Y-28.176 Z0.635
X-200.873 Y-29.236 Z0.582
X-200.888 Y-29.26 Z0.581
X-200.891 Y-29.288 Z0.58
X-200.882 Y-29.314 Z0.579
X-200.862 Y-29.333 Z0.578
X-200.836 Y-29.342 Z0.577
X-200.809 Y-29.339 Z0.576
X-200.785 Y-29.325 Z0.575
X-199.725 Y-28.264 Z0.523
X-199.71 Y-28.241 Z0.522
X-199.707 Y-28.213 Z0.521
X-199.716 Y-28.187 Z0.52
X-199.736 Y-28.168 Z0.519
X-199.762 Y-28.158 Z0.518
X-199.789 Y-28.161 Z0.517
X-199.813 Y-28.176 Z0.516
X-200.873 Y-29.236 Z0.464
X-200.888 Y-29.26 Z0.463
X-200.891 Y-29.288 Z0.462
X-200.882 Y-29.314 Z0.461
X-200.862 Y-29.333 Z0.46
X-200.836 Y-29.342 Z0.459
X-200.809 Y-29.339 Z0.458
X-200.785 Y-29.325 Z0.457
X-199.725 Y-28.264 Z0.405
X-199.71 Y-28.241 Z0.404
X-199.707 Y-28.213 Z0.403
X-199.716 Y-28.187 Z0.402
X-199.736 Y-28.168 Z0.401
X-199.762 Y-28.158 Z0.4
X-199.789 Y-28.161 Z0.399
X-199.813 Y-28.176 Z0.398
X-200.873 Y-29.236 Z0.345
X-200.888 Y-29.26 Z0.344
X-200.891 Y-29.288 Z0.343
X-200.882 Y-29.314
X-200.862 Y-29.333 Z0.342
X-200.836 Y-29.342 Z0.341
X-200.809 Y-29.339 Z0.34
X-200.785 Y-29.325 Z0.339
X-199.725 Y-28.264 Z0.286
X-199.71 Y-28.241 Z0.285
X-199.707 Y-28.213 Z0.284
X-199.716 Y-28.187 Z0.283
X-199.736 Y-28.168 Z0.282
X-199.762 Y-28.158 Z0.281
X-199.789 Y-28.161 Z0.28
X-199.813 Y-28.176 Z0.279
X-200.873 Y-29.236 Z0.227
X-200.888 Y-29.26 Z0.226
X-200.891 Y-29.288 Z0.225
X-200.882 Y-29.314 Z0.224
X-200.862 Y-29.333 Z0.223
X-200.836 Y-29.342 Z0.222
X-200.809 Y-29.339 Z0.221
X-200.785 Y-29.325 Z0.22
X-199.725 Y-28.264 Z0.168
X-199.71 Y-28.241 Z0.167
X-199.707 Y-28.213 Z0.166
X-199.716 Y-28.187 Z0.165
X-199.736 Y-28.168 Z0.164
X-199.762 Y-28.158 Z0.163
X-199.789 Y-28.161 Z0.162
X-199.813 Y-28.176 Z0.161
X-200.873 Y-29.236 Z0.109
X-200.888 Y-29.26 Z0.108
X-200.891 Y-29.288 Z0.107
X-200.882 Y-29.314 Z0.106
X-200.862 Y-29.333 Z0.105
X-200.836 Y-29.342 Z0.104
X-200.809 Y-29.339 Z0.103
X-200.785 Y-29.325 Z0.102
X-199.725 Y-28.264 Z0.049
X-199.71 Y-28.241 Z0.048
X-199.707 Y-28.213
X-199.716 Y-28.187 Z0.047
X-199.736 Y-28.168 Z0.046
X-199.762 Y-28.158 Z0.045
X-199.789 Y-28.161 Z0.044
X-199.813 Y-28.176 Z0.043
X-200.873 Y-29.236 Z-0.01
X-200.888 Y-29.26 Z-0.011
X-200.891 Y-29.288 Z-0.012
X-200.882 Y-29.314 Z-0.013
X-200.862 Y-29.333 Z-0.014
X-200.836 Y-29.342 Z-0.015
X-200.809 Y-29.339 Z-0.016
X-200.785 Y-29.325 Z-0.017
X-199.725 Y-28.264 Z-0.069
X-199.71 Y-28.241 Z-0.07
X-199.707 Y-28.213 Z-0.071
X-199.716 Y-28.187 Z-0.072
X-199.736 Y-28.168 Z-0.073
X-199.762 Y-28.158 Z-0.074
X-199.789 Y-28.161 Z-0.075
X-199.813 Y-28.176 Z-0.076
X-200.873 Y-29.236 Z-0.128
X-200.888 Y-29.26 Z-0.129
X-200.891 Y-29.288 Z-0.13
X-200.882 Y-29.314 Z-0.131
X-200.862 Y-29.333 Z-0.132
X-200.836 Y-29.342 Z-0.133
X-200.809 Y-29.339 Z-0.134
X-200.785 Y-29.325 Z-0.135
X-199.725 Y-28.264 Z-0.187
X-199.71 Y-28.241 Z-0.188
X-199.707 Y-28.213 Z-0.189
X-199.716 Y-28.187 Z-0.19
X-199.736 Y-28.168 Z-0.191
X-199.762 Y-28.158 Z-0.192
X-199.789 Y-28.161 Z-0.193
X-199.813 Y-28.176 Z-0.194
X-200.873 Y-29.236 Z-0.247
X-200.888 Y-29.26 Z-0.248
X-200.891 Y-29.288
X-200.882 Y-29.314 Z-0.249
X-200.862 Y-29.333 Z-0.25
X-200.836 Y-29.342 Z-0.251
X-200.809 Y-29.339 Z-0.252
X-200.785 Y-29.325 Z-0.253
X-199.725 Y-28.264 Z-0.306
X-199.71 Y-28.241 Z-0.307
X-199.707 Y-28.213 Z-0.308
X-199.716 Y-28.187 Z-0.309
X-199.736 Y-28.168 Z-0.31
X-199.762 Y-28.158 Z-0.311
X-199.789 Y-28.161 Z-0.312
X-199.813 Y-28.176 Z-0.313
X-200.873 Y-29.236 Z-0.365
X-200.888 Y-29.26 Z-0.366
X-200.891 Y-29.288 Z-0.367
X-200.882 Y-29.314 Z-0.368
X-200.862 Y-29.333 Z-0.369
X-200.836 Y-29.342 Z-0.37
X-200.809 Y-29.339 Z-0.371
X-200.785 Y-29.325 Z-0.372
X-199.725 Y-28.264 Z-0.424
X-199.71 Y-28.241 Z-0.425
X-199.707 Y-28.213 Z-0.426
X-199.716 Y-28.187 Z-0.427
X-199.736 Y-28.168 Z-0.428
X-199.762 Y-28.158 Z-0.429
X-199.789 Y-28.161 Z-0.43
X-199.813 Y-28.176 Z-0.431
X-200.873 Y-29.236 Z-0.483
X-200.888 Y-29.26 Z-0.484
X-200.891 Y-29.288 Z-0.485
X-200.882 Y-29.314 Z-0.486
X-200.862 Y-29.333 Z-0.487
X-200.836 Y-29.342 Z-0.488
X-200.809 Y-29.339 Z-0.489
X-200.785 Y-29.325 Z-0.49
X-199.725 Y-28.264 Z-0.543
X-199.71 Y-28.241
X-199.707 Y-28.213 Z-0.544
X-199.716 Y-28.187 Z-0.545
X-199.736 Y-28.168 Z-0.546
X-199.762 Y-28.158 Z-0.547
X-199.789 Y-28.161 Z-0.548
X-199.813 Y-28.176 Z-0.549
X-200.873 Y-29.236 Z-0.602
X-200.888 Y-29.26 Z-0.603
X-200.891 Y-29.288 Z-0.604
X-200.882 Y-29.314 Z-0.605
X-200.862 Y-29.333 Z-0.606
X-200.836 Y-29.342 Z-0.607
X-200.809 Y-29.339 Z-0.608
X-200.785 Y-29.325 Z-0.609
X-199.725 Y-28.264 Z-0.661
X-199.71 Y-28.241 Z-0.662
X-199.707 Y-28.213 Z-0.663
X-199.716 Y-28.187 Z-0.664
X-199.736 Y-28.168 Z-0.665
X-199.762 Y-28.158 Z-0.666
X-199.789 Y-28.161 Z-0.667
X-199.813 Y-28.176 Z-0.668
X-200.873 Y-29.236 Z-0.72
X-200.888 Y-29.26 Z-0.721
X-200.891 Y-29.288 Z-0.722
X-200.882 Y-29.314 Z-0.723
X-200.862 Y-29.333 Z-0.724
X-200.836 Y-29.342 Z-0.725
X-200.809 Y-29.339 Z-0.726
X-200.785 Y-29.325 Z-0.727
X-199.725 Y-28.264 Z-0.779
X-199.71 Y-28.241 Z-0.78
X-199.707 Y-28.213 Z-0.781
X-199.716 Y-28.187 Z-0.782
X-199.736 Y-28.168 Z-0.783
X-199.762 Y-28.158 Z-0.784
X-199.789 Y-28.161 Z-0.785
X-199.813 Y-28.176 Z-0.786
X-200.873 Y-29.236 Z-0.838
X-200.888 Y-29.26 Z-0.839
X-200.891 Y-29.288 Z-0.84
X-200.882 Y-29.314 Z-0.841
X-200.862 Y-29.333 Z-0.842
X-200.836 Y-29.342 Z-0.843
X-200.809 Y-29.339 Z-0.844
X-200.785 Y-29.325 Z-0.845
X-199.725 Y-28.264 Z-0.898
X-199.71 Y-28.241 Z-0.899
X-199.707 Y-28.213 Z-0.9
X-199.716 Y-28.187 Z-0.901
X-199.736 Y-28.168 Z-0.902
X-199.762 Y-28.158 Z-0.903
X-199.789 Y-28.161 Z-0.904
X-199.813 Y-28.176 Z-0.905
X-200.873 Y-29.236 Z-0.957
X-200.888 Y-29.26 Z-0.958
X-200.891 Y-29.288 Z-0.959
X-200.882 Y-29.314 Z-0.96
X-200.862 Y-29.333 Z-0.961
X-200.836 Y-29.342 Z-0.962
X-200.809 Y-29.339 Z-0.963
X-200.785 Y-29.325 Z-0.964
X-199.725 Y-28.264 Z-1.016
X-199.71 Y-28.241 Z-1.017
X-199.707 Y-28.213 Z-1.018
X-199.716 Y-28.187 Z-1.019
X-199.736 Y-28.168 Z-1.02
X-199.762 Y-28.158 Z-1.021
X-199.789 Y-28.161 Z-1.022
X-199.813 Y-28.176 Z-1.023
X-200.873 Y-29.236 Z-1.075
X-200.888 Y-29.26 Z-1.076
X-200.891 Y-29.288 Z-1.077
X-200.882 Y-29.314 Z-1.078
X-200.862 Y-29.333 Z-1.079
X-200.836 Y-29.342 Z-1.08
X-200.809 Y-29.339 Z-1.081
X-200.785 Y-29.325 Z-1.082
X-199.725 Y-28.264 Z-1.134
X-199.71 Y-28.241 Z-1.135
X-199.707 Y-28.213 Z-1.136
X-199.716 Y-28.187 Z-1.137
X-199.736 Y-28.168 Z-1.138
X-199.762 Y-28.158 Z-1.139
X-199.789 Y-28.161 Z-1.14
X-199.813 Y-28.176 Z-1.141
X-200.873 Y-29.236 Z-1.194
X-200.888 Y-29.26 Z-1.195
X-200.891 Y-29.288 Z-1.196
X-200.882 Y-29.314 Z-1.197
X-200.862 Y-29.333 Z-1.198
X-200.836 Y-29.342 Z-1.199
X-200.809 Y-29.339 Z-1.2
X-200.785 Y-29.325
X-199.725 Y-28.264 Z-1.253
X-199.71 Y-28.241 Z-1.254
X-199.707 Y-28.213 Z-1.255
X-199.716 Y-28.187 Z-1.256
X-199.736 Y-28.168 Z-1.257
X-199.762 Y-28.158 Z-1.258
X-199.789 Y-28.161 Z-1.259
X-199.813 Y-28.176 Z-1.26
X-200.873 Y-29.236 Z-1.312
X-200.888 Y-29.26 Z-1.313
X-200.891 Y-29.288 Z-1.314
X-200.882 Y-29.314 Z-1.315
X-200.862 Y-29.333 Z-1.316
X-200.836 Y-29.342 Z-1.317
X-200.809 Y-29.339 Z-1.318
X-200.785 Y-29.325 Z-1.319
X-199.725 Y-28.264 Z-1.371
X-199.71 Y-28.241 Z-1.372
X-199.707 Y-28.213 Z-1.373
X-199.716 Y-28.187 Z-1.374
X-199.736 Y-28.168 Z-1.375
X-199.762 Y-28.158 Z-1.376
X-199.789 Y-28.161 Z-1.377
X-199.813 Y-28.176 Z-1.378
X-200.873 Y-29.236 Z-1.43
X-200.888 Y-29.26 Z-1.431
X-200.891 Y-29.288 Z-1.432
X-200.882 Y-29.314 Z-1.433
X-200.862 Y-29.333 Z-1.434
X-200.836 Y-29.342 Z-1.435
X-200.809 Y-29.339 Z-1.436
X-200.785 Y-29.325 Z-1.437
X-199.725 Y-28.264 Z-1.49
X-199.71 Y-28.241 Z-1.491
X-199.707 Y-28.213 Z-1.492
X-199.716 Y-28.187 Z-1.493
X-199.736 Y-28.168 Z-1.494
X-199.762 Y-28.158 Z-1.495
X-199.789 Y-28.161 Z-1.496
X-199.813 Y-28.176
X-200.873 Y-29.236 Z-1.549
X-200.888 Y-29.26 Z-1.55
X-200.891 Y-29.288 Z-1.551
X-200.882 Y-29.314 Z-1.552
X-200.862 Y-29.333 Z-1.553
X-200.836 Y-29.342 Z-1.554
X-200.809 Y-29.339 Z-1.555
X-200.785 Y-29.325 Z-1.556
X-199.725 Y-28.264 Z-1.608
X-199.71 Y-28.241 Z-1.609
X-199.707 Y-28.213 Z-1.61
X-199.716 Y-28.187 Z-1.611
X-199.736 Y-28.168 Z-1.612
X-199.762 Y-28.158 Z-1.613
X-199.789 Y-28.161 Z-1.614
X-199.813 Y-28.176 Z-1.615
X-200.873 Y-29.236 Z-1.667
X-200.888 Y-29.26 Z-1.668
X-200.891 Y-29.288 Z-1.669
X-200.882 Y-29.314 Z-1.67
X-200.862 Y-29.333 Z-1.671
X-200.836 Y-29.342 Z-1.672
X-200.809 Y-29.339 Z-1.673
X-200.785 Y-29.325 Z-1.674
X-199.725 Y-28.264 Z-1.726
X-199.71 Y-28.241 Z-1.727
X-199.707 Y-28.213 Z-1.728
X-199.716 Y-28.187 Z-1.729
X-199.736 Y-28.168 Z-1.73
X-199.762 Y-28.158 Z-1.731
X-199.789 Y-28.161 Z-1.732
X-199.813 Y-28.176 Z-1.733
X-200.873 Y-29.236 Z-1.786
X-200.888 Y-29.26 Z-1.787
X-200.891 Y-29.288 Z-1.788
X-200.882 Y-29.314 Z-1.789
X-200.862 Y-29.333 Z-1.79
X-200.836 Y-29.342 Z-1.791
X-200.809 Y-29.339
X-200.785 Y-29.325 Z-1.792
X-199.725 Y-28.264 Z-1.845
X-199.71 Y-28.241 Z-1.846
X-199.707 Y-28.213 Z-1.847
X-199.716 Y-28.187 Z-1.848
X-199.736 Y-28.168 Z-1.849
X-199.762 Y-28.158 Z-1.85
X-199.789 Y-28.161 Z-1.851
X-199.813 Y-28.176 Z-1.852
X-200.873 Y-29.236 Z-1.904
X-200.888 Y-29.26 Z-1.905
X-200.891 Y-29.288 Z-1.906
X-200.882 Y-29.314 Z-1.907
X-200.862 Y-29.333 Z-1.908
X-200.836 Y-29.342 Z-1.909
X-200.809 Y-29.339 Z-1.91
X-200.785 Y-29.325 Z-1.911
X-199.725 Y-28.264 Z-1.963
X-199.71 Y-28.241 Z-1.964
X-199.707 Y-28.213 Z-1.965
X-199.716 Y-28.187 Z-1.966
X-199.736 Y-28.168 Z-1.967
X-199.762 Y-28.158 Z-1.968
X-199.789 Y-28.161 Z-1.969
X-199.813 Y-28.176 Z-1.97
X-200.873 Y-29.236 Z-2.022
X-200.888 Y-29.26 Z-2.023
X-200.891 Y-29.288 Z-2.024
X-200.882 Y-29.314 Z-2.025
X-200.862 Y-29.333 Z-2.026
X-200.836 Y-29.342 Z-2.027
X-200.809 Y-29.339 Z-2.028
X-200.785 Y-29.325 Z-2.029
X-199.725 Y-28.264 Z-2.082
X-199.71 Y-28.241 Z-2.083
X-199.707 Y-28.213 Z-2.084
X-199.716 Y-28.187 Z-2.085
X-199.736 Y-28.168 Z-2.086
X-199.762 Y-28.158
X-199.789 Y-28.161 Z-2.087
X-199.813 Y-28.176 Z-2.088
X-200.873 Y-29.236 Z-2.141
X-200.888 Y-29.26 Z-2.142
X-200.891 Y-29.288 Z-2.143
X-200.882 Y-29.314 Z-2.144
X-200.862 Y-29.333 Z-2.145
X-200.836 Y-29.342 Z-2.146
X-200.809 Y-29.339 Z-2.147
X-200.785 Y-29.325 Z-2.148
X-199.725 Y-28.265 Z-2.2
S6000
Y-28.264 F1000
X-199.71 Y-28.241
X-199.707 Y-28.213
X-199.716 Y-28.187
X-199.736 Y-28.168
X-199.762 Y-28.158
X-199.789 Y-28.161
X-199.813 Y-28.176
X-200.873 Y-29.236
X-200.888 Y-29.26
X-200.891 Y-29.288
X-200.882 Y-29.314
X-200.862 Y-29.333
X-200.836 Y-29.342
X-200.809 Y-29.339
X-200.785 Y-29.325
X-199.725 Y-28.265
S5000
Y-28.264 F333.3
X-199.71 Y-28.241 Z-2.201
X-199.707 Y-28.213 Z-2.202
X-199.716 Y-28.187 Z-2.203
X-199.736 Y-28.168 Z-2.204
X-199.762 Y-28.158 Z-2.205
X-199.789 Y-28.161 Z-2.206
X-199.813 Y-28.176 Z-2.207
X-200.873 Y-29.236 Z-2.259
X-200.888 Y-29.26 Z-2.26
X-200.891 Y-29.288 Z-2.261
X-200.882 Y-29.314 Z-2.262
X-200.862 Y-29.333 Z-2.263
X-200.836 Y-29.342 Z-2.264
X-200.809 Y-29.339 Z-2.265
X-200.785 Y-29.325 Z-2.266
X-199.725 Y-28.264 Z-2.318
X-199.71 Y-28.241 Z-2.319
X-199.707 Y-28.213 Z-2.32
X-199.716 Y-28.187 Z-2.321
X-199.736 Y-28.168 Z-2.322
X-199.762 Y-28.158 Z-2.323
X-199.789 Y-28.161 Z-2.324
X-199.813 Y-28.176 Z-2.325
X-200.873 Y-29.236 Z-2.378
X-200.888 Y-29.26 Z-2.379
X-200.891 Y-29.288 Z-2.38
X-200.882 Y-29.314 Z-2.381
X-200.862 Y-29.333
X-200.836 Y-29.342 Z-2.382
X-200.809 Y-29.339 Z-2.383
X-200.785 Y-29.325 Z-2.384
X-199.725 Y-28.264 Z-2.437
X-199.71 Y-28.241 Z-2.438
X-199.707 Y-28.213 Z-2.439
X-199.716 Y-28.187 Z-2.44
X-199.736 Y-28.168 Z-2.441
X-199.762 Y-28.158 Z-2.442
X-199.789 Y-28.161 Z-2.443
X-199.813 Y-28.176 Z-2.444
X-200.873 Y-29.236 Z-2.496
X-200.888 Y-29.26 Z-2.497
X-200.891 Y-29.288 Z-2.498
X-200.882 Y-29.314 Z-2.499
X-200.862 Y-29.333 Z-2.5
X-200.836 Y-29.342 Z-2.501
X-200.809 Y-29.339 Z-2.502
X-200.785 Y-29.325 Z-2.503
X-199.725 Y-28.264 Z-2.555
X-199.71 Y-28.241 Z-2.556
X-199.707 Y-28.213 Z-2.557
X-199.716 Y-28.187 Z-2.558
X-199.736 Y-28.168 Z-2.559
X-199.762 Y-28.158 Z-2.56
X-199.789 Y-28.161 Z-2.561
X-199.813 Y-28.176 Z-2.562
X-200.873 Y-29.236 Z-2.614
X-200.888 Y-29.26 Z-2.615
X-200.891 Y-29.288 Z-2.616
X-200.882 Y-29.314 Z-2.617
X-200.862 Y-29.333 Z-2.618
X-200.836 Y-29.342 Z-2.619
X-200.809 Y-29.339 Z-2.62
X-200.785 Y-29.325 Z-2.621
X-199.725 Y-28.264 Z-2.674
X-199.71 Y-28.241 Z-2.675
X-199.707 Y-28.213 Z-2.676
X-199.716 Y-28.187 Z-2.677
X-199.736 Y-28.168
X-199.762 Y-28.158 Z-2.678
X-199.789 Y-28.161 Z-2.679
X-199.813 Y-28.176 Z-2.68
X-200.873 Y-29.236 Z-2.733
X-200.888 Y-29.26 Z-2.734
X-200.891 Y-29.288 Z-2.735
X-200.882 Y-29.314 Z-2.736
X-200.862 Y-29.333 Z-2.737
X-200.836 Y-29.342 Z-2.738
X-200.809 Y-29.339 Z-2.739
X-200.785 Y-29.325 Z-2.74
X-199.725 Y-28.264 Z-2.792
X-199.71 Y-28.241 Z-2.793
X-199.707 Y-28.213 Z-2.794
X-199.716 Y-28.187 Z-2.795
X-199.736 Y-28.168 Z-2.796
X-199.762 Y-28.158 Z-2.797
X-199.789 Y-28.161 Z-2.798
X-199.813 Y-28.176 Z-2.799
X-200.873 Y-29.236 Z-2.851
X-200.888 Y-29.26 Z-2.852
X-200.891 Y-29.288 Z-2.853
X-200.882 Y-29.314 Z-2.854
X-200.862 Y-29.333 Z-2.855
X-200.836 Y-29.342 Z-2.856
X-200.809 Y-29.339 Z-2.857
X-200.785 Y-29.325 Z-2.858
X-199.725 Y-28.264 Z-2.91
X-199.71 Y-28.241 Z-2.911
X-199.707 Y-28.213 Z-2.912
X-199.716 Y-28.187 Z-2.913
X-199.736 Y-28.168 Z-2.914
X-199.762 Y-28.158 Z-2.915
X-199.789 Y-28.161 Z-2.916
X-199.813 Y-28.176 Z-2.917
X-200.873 Y-29.236 Z-2.97
X-200.888 Y-29.26 Z-2.971
X-200.891 Y-29.288 Z-2.972
X-200.882 Y-29.314
X-200.862 Y-29.333 Z-2.973
X-200.836 Y-29.342 Z-2.974
X-200.809 Y-29.339 Z-2.975
X-200.785 Y-29.325 Z-2.976
X-199.725 Y-28.264 Z-3.029
X-199.71 Y-28.241 Z-3.03
X-199.707 Y-28.213 Z-3.031
X-199.716 Y-28.187 Z-3.032
X-199.736 Y-28.168 Z-3.033
X-199.762 Y-28.158 Z-3.034
X-199.789 Y-28.161 Z-3.035
X-199.813 Y-28.176 Z-3.036
X-200.873 Y-29.236 Z-3.088
X-200.888 Y-29.26 Z-3.089
X-200.891 Y-29.288 Z-3.09
X-200.882 Y-29.314 Z-3.091
X-200.862 Y-29.333 Z-3.092
X-200.836 Y-29.342 Z-3.093
X-200.809 Y-29.339 Z-3.094
X-200.785 Y-29.325 Z-3.095
X-199.725 Y-28.264 Z-3.147
X-199.71 Y-28.241 Z-3.148
X-199.707 Y-28.213 Z-3.149
X-199.716 Y-28.187 Z-3.15
X-199.736 Y-28.168 Z-3.151
X-199.762 Y-28.158 Z-3.152
X-199.789 Y-28.161 Z-3.153
X-199.813 Y-28.176 Z-3.154
X-200.873 Y-29.236 Z-3.206
X-200.888 Y-29.26 Z-3.207
X-200.891 Y-29.288 Z-3.208
X-200.882 Y-29.314 Z-3.209
X-200.862 Y-29.333 Z-3.21
X-200.836 Y-29.342 Z-3.211
X-200.809 Y-29.339 Z-3.212
X-200.785 Y-29.325 Z-3.213
X-199.725 Y-28.264 Z-3.266
X-199.71 Y-28.241 Z-3.267
X-199.707 Y-28.213
X-199.716 Y-28.187 Z-3.268
X-199.736 Y-28.168 Z-3.269
X-199.762 Y-28.158 Z-3.27
X-199.789 Y-28.161 Z-3.271
X-199.813 Y-28.176 Z-3.272
X-200.873 Y-29.236 Z-3.325
X-200.888 Y-29.26 Z-3.326
X-200.891 Y-29.288 Z-3.327
X-200.882 Y-29.314 Z-3.328
X-200.862 Y-29.333 Z-3.329
X-200.836 Y-29.342 Z-3.33
X-200.809 Y-29.339 Z-3.331
X-200.785 Y-29.325 Z-3.332
X-199.725 Y-28.264 Z-3.384
X-199.71 Y-28.241 Z-3.385
X-199.707 Y-28.213 Z-3.386
X-199.716 Y-28.187 Z-3.387
X-199.736 Y-28.168 Z-3.388
X-199.762 Y-28.158 Z-3.389
X-199.789 Y-28.161 Z-3.39
X-199.813 Y-28.176 Z-3.391
X-200.873 Y-29.236 Z-3.443
X-200.888 Y-29.26 Z-3.444
X-200.891 Y-29.288 Z-3.445
X-200.882 Y-29.314 Z-3.446
X-200.862 Y-29.333 Z-3.447
X-200.836 Y-29.342 Z-3.448
X-200.809 Y-29.339 Z-3.449
X-200.785 Y-29.325 Z-3.45
X-199.725 Y-28.264 Z-3.502
X-199.71 Y-28.241 Z-3.503
X-199.707 Y-28.213 Z-3.504
X-199.716 Y-28.187 Z-3.505
X-199.736 Y-28.168 Z-3.506
X-199.762 Y-28.158 Z-3.507
X-199.789 Y-28.161 Z-3.508
X-199.813 Y-28.176 Z-3.509
X-200.873 Y-29.236 Z-3.562
X-200.888 Y-29.26 Z-3.563
X-200.891 Y-29.288
X-200.882 Y-29.314 Z-3.564
X-200.862 Y-29.333 Z-3.565
X-200.836 Y-29.342 Z-3.566
X-200.809 Y-29.339 Z-3.567
X-200.785 Y-29.325 Z-3.568
X-199.725 Y-28.264 Z-3.621
X-199.71 Y-28.241 Z-3.622
X-199.707 Y-28.213 Z-3.623
X-199.716 Y-28.187 Z-3.624
X-199.736 Y-28.168 Z-3.625
X-199.762 Y-28.158 Z-3.626
X-199.789 Y-28.161 Z-3.627
X-199.813 Y-28.176 Z-3.628
X-200.873 Y-29.236 Z-3.68
X-200.888 Y-29.26 Z-3.681
X-200.891 Y-29.288 Z-3.682
X-200.882 Y-29.314 Z-3.683
X-200.862 Y-29.333 Z-3.684
X-200.836 Y-29.342 Z-3.685
X-200.809 Y-29.339 Z-3.686
X-200.785 Y-29.325 Z-3.687
X-199.725 Y-28.264 Z-3.739
X-199.71 Y-28.241 Z-3.74
X-199.707 Y-28.213 Z-3.741
X-199.716 Y-28.187 Z-3.742
X-199.736 Y-28.168 Z-3.743
X-199.762 Y-28.158 Z-3.744
X-199.789 Y-28.161 Z-3.745
X-199.813 Y-28.176 Z-3.746
X-200.873 Y-29.236 Z-3.798
X-200.888 Y-29.26 Z-3.799
X-200.891 Y-29.288 Z-3.8
X-200.882 Y-29.314 Z-3.801
X-200.862 Y-29.333 Z-3.802
X-200.836 Y-29.342 Z-3.803
X-200.809 Y-29.339 Z-3.804
X-200.785 Y-29.325 Z-3.805
X-199.725 Y-28.264 Z-3.858
X-199.71 Y-28.241
X-199.707 Y-28.213 Z-3.859
