(1001)
G90 G94
G17
G21
(When using Fusion 360 for Personal Use, the feedrate of)
(rapid moves is reduced to match the feedrate of cutting)
(moves, which can increase machining time. Unrestricted rapid)
(moves are available with a Fusion 360 Subscription.)

(Bohrfrasen10)
S6000 M3
G54
G0 X-256.567 Y-27.447
Z15
G1 Z2 F1000
Z0.317
G18 G3 X-256.884 Z0 I-0.318 K0
G1 X-257.043
G17 G3 X-257.36 Y-27.764 I0 J-0.317
X-250.535 Y-27.764 Z-0.5 I3.413 J0
X-257.36 Y-27.764 Z-1 I-3.413 J0
X-250.535 Y-27.764 Z-1.5 I3.413 J0
X-257.36 Y-27.764 Z-2 I-3.413 J0
X-250.535 Y-27.764 Z-2.5 I3.413 J0
X-257.36 Y-27.764 Z-3 I-3.413 J0
X-250.535 Y-27.764 Z-3.5 I3.413 J0
X-257.36 Y-27.764 Z-4 I-3.413 J0
X-255.002 Y-31.01 Z-4.2 I3.413 J0
X-252.893 Y-24.519 I1.055 J3.245
X-255.002 Y-31.01 I-1.055 J-3.245
X-254.602 Y-30.806 I0.098 J0.302
G1 X-254.553 Y-30.655
X-254.531 Y-30.588 Z-4.192
X-254.511 Y-30.524 Z-4.169
X-254.492 Y-30.467 Z-4.131
X-254.477 Y-30.419 Z-4.08
X-254.465 Y-30.383 Z-4.02
X-254.458 Y-30.36 Z-3.953
X-254.455 Y-30.353 Z-3.882
Z5
X-192.623 Y-27.377
Z2
Z0.317
G18 G3 X-192.94 Z0 I-0.317 K0
G1 X-193.099
G17 G3 X-193.416 Y-27.694 I0 J-0.318
X-186.591 Y-27.694 Z-0.5 I3.413 J0
X-193.416 Y-27.694 Z-1 I-3.413 J0
X-186.591 Y-27.694 Z-1.5 I3.413 J0
X-193.416 Y-27.694 Z-2 I-3.413 J0
X-186.591 Y-27.694 Z-2.5 I3.413 J0
X-193.416 Y-27.694 Z-3 I-3.413 J0
X-186.591 Y-27.694 Z-3.5 I3.413 J0
X-193.416 Y-27.694 Z-4 I-3.413 J0
X-191.059 Y-30.94 Z-4.2 I3.412 J0
X-188.949 Y-24.449 I1.055 J3.245
X-191.059 Y-30.94 I-1.055 J-3.245
X-190.658 Y-30.736 I0.098 J0.302
G1 X-190.609 Y-30.585
X-190.588 Y-30.518 Z-4.192
X-190.567 Y-30.454 Z-4.169
X-190.548 Y-30.397 Z-4.131
X-190.533 Y-30.349 Z-4.08
X-190.521 Y-30.313 Z-4.02
X-190.514 Y-30.291 Z-3.953
X-190.511 Y-30.283 Z-3.882
Z5
X-184.428 Y-48.87
Z1.683
Z0
X-184.459 Y-48.901
X-184.455 Y-48.916
X-184.443 Y-48.928
X-184.428 Y-48.932
X-184.398 Y-48.925 Z-0.078
X-184.376 Y-48.905 Z-0.156
X-184.366 Y-48.876 Z-0.233
X-184.37 Y-48.846 Z-0.311
X-184.388 Y-48.822 Z-0.389
X-184.415 Y-48.808 Z-0.467
X-184.445 Y-48.81 Z-0.544
X-184.471 Y-48.825 Z-0.622
X-184.487 Y-48.85 Z-0.7
X-184.489 Y-48.88 Z-0.778
X-184.477 Y-48.908 Z-0.856
X-184.453 Y-48.927 Z-0.933
X-184.423 Y-48.932 Z-1.011
X-184.395 Y-48.923 Z-1.089
X-184.374 Y-48.901 Z-1.167
X-184.365 Y-48.872 Z-1.244
X-184.372 Y-48.842 Z-1.322
X-184.391 Y-48.819 Z-1.4
X-184.419 Y-48.808 Z-1.478
X-184.449 Y-48.811 Z-1.556
X-184.474 Y-48.828 Z-1.633
X-184.488 Y-48.855 Z-1.711
Y-48.885 Z-1.789
X-184.474 Y-48.911 Z-1.867
X-184.449 Y-48.928 Z-1.944
X-184.419 Y-48.932 Z-2.022
X-184.391 Y-48.92 Z-2.1
X-184.372 Y-48.897 Z-2.178
X-184.365 Y-48.867 Z-2.256
X-184.374 Y-48.838 Z-2.333
X-184.395 Y-48.817 Z-2.411
X-184.423 Y-48.807 Z-2.489
X-184.453 Y-48.813 Z-2.567
X-184.477 Y-48.831 Z-2.644
X-184.489 Y-48.859 Z-2.722
X-184.487 Y-48.889 Z-2.8
X-184.471 Y-48.915 Z-2.878
X-184.445 Y-48.93 Z-2.956
X-184.415 Y-48.931 Z-3.033
X-184.388 Y-48.917 Z-3.111
X-184.37 Y-48.893 Z-3.189
X-184.366 Y-48.863 Z-3.267
X-184.376 Y-48.835 Z-3.344
X-184.398 Y-48.814 Z-3.422
X-184.428 Y-48.807 Z-3.5
X-184.457 Y-48.814 Z-3.578
X-184.48 Y-48.835 Z-3.656
X-184.49 Y-48.863 Z-3.733
X-184.486 Y-48.893 Z-3.811
X-184.468 Y-48.917 Z-3.889
X-184.441 Y-48.931 Z-3.967
X-184.411 Y-48.93 Z-4.044
X-184.384 Y-48.915 Z-4.122
X-184.368 Y-48.889 Z-4.2
G3 X-184.487 Y-48.85 I-0.059 J0.019
X-184.368 Y-48.889 I0.059 J-0.019
G1 Y-48.873
X-184.375 Y-48.858
X-184.388 Y-48.85
X-184.428 Y-48.87
Z5
X-172.725 Y-63.509
Z2
Z0.317
G19 G2 Y-63.827 Z0 J-0.317 K0
G1 Y-63.985
G17 G3 X-172.407 Y-64.303 I0.318 J0
X-172.407 Y-57.478 Z-0.5 I0 J3.413
X-172.407 Y-64.303 Z-1 I0 J-3.413
X-172.407 Y-57.478 Z-1.5 I0 J3.413
X-172.407 Y-64.303 Z-2 I0 J-3.413
X-172.407 Y-57.478 Z-2.5 I0 J3.413
X-172.407 Y-64.303 Z-3 I0 J-3.413
X-172.407 Y-57.478 Z-3.5 I0 J3.413
X-172.407 Y-64.303 Z-4 I0 J-3.413
X-169.162 Y-61.945 Z-4.2 I0 J3.413
X-175.652 Y-59.836 I-3.245 J1.055
X-169.162 Y-61.945 I3.245 J-1.055
X-169.365 Y-61.545 I-0.302 J0.098
G1 X-169.516 Y-61.496
X-169.584 Y-61.474 Z-4.192
X-169.647 Y-61.453 Z-4.169
X-169.705 Y-61.435 Z-4.131
X-169.752 Y-61.419 Z-4.08
X-169.788 Y-61.407 Z-4.02
X-169.811 Y-61.4 Z-3.953
X-169.818 Y-61.398 Z-3.882
Z5
X-160.386 Y-48.87
Z1.683
Z0
X-160.417 Y-48.901
X-160.413 Y-48.916
X-160.402 Y-48.928
X-160.386 Y-48.932
X-160.357 Y-48.925 Z-0.078
X-160.334 Y-48.905 Z-0.156
X-160.324 Y-48.876 Z-0.233
X-160.328 Y-48.846 Z-0.311
X-160.346 Y-48.822 Z-0.389
X-160.373 Y-48.808 Z-0.467
X-160.403 Y-48.81 Z-0.544
X-160.43 Y-48.825 Z-0.622
X-160.446 Y-48.85 Z-0.7
X-160.448 Y-48.88 Z-0.778
X-160.435 Y-48.908 Z-0.856
X-160.412 Y-48.927 Z-0.933
X-160.382 Y-48.932 Z-1.011
X-160.353 Y-48.923 Z-1.089
X-160.332 Y-48.901 Z-1.167
X-160.324 Y-48.872 Z-1.244
X-160.33 Y-48.842 Z-1.322
X-160.349 Y-48.819 Z-1.4
X-160.377 Y-48.808 Z-1.478
X-160.408 Y-48.811 Z-1.556
X-160.433 Y-48.828 Z-1.633
X-160.447 Y-48.854 Z-1.711
Y-48.885 Z-1.789
X-160.433 Y-48.911 Z-1.867
X-160.408 Y-48.928 Z-1.944
X-160.377 Y-48.932 Z-2.022
X-160.349 Y-48.92 Z-2.1
X-160.33 Y-48.897 Z-2.178
X-160.324 Y-48.867 Z-2.256
X-160.332 Y-48.838 Z-2.333
X-160.353 Y-48.817 Z-2.411
X-160.382 Y-48.807 Z-2.489
X-160.412 Y-48.813 Z-2.567
X-160.435 Y-48.831 Z-2.644
X-160.448 Y-48.859 Z-2.722
X-160.446 Y-48.889 Z-2.8
X-160.43 Y-48.915 Z-2.878
X-160.403 Y-48.93 Z-2.956
X-160.373 Y-48.931 Z-3.033
X-160.346 Y-48.918 Z-3.111
X-160.328 Y-48.893 Z-3.189
X-160.324 Y-48.863 Z-3.267
X-160.334 Y-48.835 Z-3.344
X-160.357 Y-48.814 Z-3.422
X-160.386 Y-48.807 Z-3.5
X-160.416 Y-48.814 Z-3.578
X-160.438 Y-48.835 Z-3.656
X-160.448 Y-48.863 Z-3.733
X-160.444 Y-48.893 Z-3.811
X-160.426 Y-48.918 Z-3.889
X-160.399 Y-48.931 Z-3.967
X-160.369 Y-48.93 Z-4.044
X-160.343 Y-48.915 Z-4.122
X-160.327 Y-48.889 Z-4.2
G3 X-160.446 Y-48.85 I-0.059 J0.019
X-160.327 Y-48.889 I0.059 J-0.019
G1 X-160.326 Y-48.873
X-160.333 Y-48.858
X-160.347 Y-48.85
X-160.386 Y-48.87
Z5
Y-72.911
Z1.683
Z0
X-160.417 Y-72.943
X-160.413 Y-72.958
X-160.402 Y-72.97
X-160.386 Y-72.974
X-160.357 Y-72.966 Z-0.078
X-160.334 Y-72.946 Z-0.156
X-160.324 Y-72.918 Z-0.233
X-160.328 Y-72.888 Z-0.311
X-160.346 Y-72.863 Z-0.389
X-160.373 Y-72.85 Z-0.467
X-160.403 Y-72.851 Z-0.544
X-160.43 Y-72.866 Z-0.622
X-160.446 Y-72.892 Z-0.7
X-160.448 Y-72.922 Z-0.778
X-160.435 Y-72.95 Z-0.856
X-160.412 Y-72.968 Z-0.933
X-160.382 Y-72.974 Z-1.011
X-160.353 Y-72.964 Z-1.089
X-160.332 Y-72.943 Z-1.167
X-160.324 Y-72.913 Z-1.244
X-160.33 Y-72.884 Z-1.322
X-160.349 Y-72.861 Z-1.4
X-160.377 Y-72.849 Z-1.478
X-160.408 Y-72.853 Z-1.556
X-160.433 Y-72.869 Z-1.633
X-160.447 Y-72.896 Z-1.711
Y-72.926 Z-1.789
X-160.433 Y-72.953 Z-1.867
X-160.408 Y-72.97 Z-1.944
X-160.377 Y-72.973 Z-2.022
X-160.349 Y-72.962 Z-2.1
X-160.33 Y-72.939 Z-2.178
X-160.324 Y-72.909 Z-2.256
X-160.332 Y-72.88 Z-2.333
X-160.353 Y-72.858 Z-2.411
X-160.382 Y-72.849 Z-2.489
X-160.412 Y-72.854 Z-2.567
X-160.435 Y-72.873 Z-2.644
X-160.448 Y-72.9 Z-2.722
X-160.446 Y-72.931 Z-2.8
X-160.43 Y-72.956 Z-2.878
X-160.403 Y-72.971 Z-2.956
X-160.373 Y-72.972 Z-3.033
X-160.346 Y-72.959 Z-3.111
X-160.328 Y-72.935 Z-3.189
X-160.324 Y-72.905 Z-3.267
X-160.334 Y-72.876 Z-3.344
X-160.357 Y-72.856 Z-3.422
X-160.386 Y-72.849 Z-3.5
X-160.416 Y-72.856 Z-3.578
X-160.438 Y-72.876 Z-3.656
X-160.448 Y-72.905 Z-3.733
X-160.444 Y-72.935 Z-3.811
X-160.426 Y-72.959 Z-3.889
X-160.399 Y-72.972 Z-3.967
X-160.369 Y-72.971 Z-4.044
X-160.343 Y-72.956 Z-4.122
X-160.327 Y-72.931 Z-4.2
G3 X-160.446 Y-72.892 I-0.059 J0.019
X-160.327 Y-72.931 I0.059 J-0.019
G1 X-160.326 Y-72.914
X-160.333 Y-72.9
X-160.347 Y-72.891
X-160.386 Y-72.911
Z5
X-184.428
Z1.683
Z0
X-184.459 Y-72.943
X-184.455 Y-72.958
X-184.443 Y-72.97
X-184.428 Y-72.974
X-184.398 Y-72.966 Z-0.078
X-184.376 Y-72.946 Z-0.156
X-184.366 Y-72.918 Z-0.233
X-184.37 Y-72.888 Z-0.311
X-184.388 Y-72.863 Z-0.389
X-184.415 Y-72.85 Z-0.467
X-184.445 Y-72.851 Z-0.544
X-184.471 Y-72.866 Z-0.622
X-184.487 Y-72.892 Z-0.7
X-184.489 Y-72.922 Z-0.778
X-184.477 Y-72.95 Z-0.856
X-184.453 Y-72.968 Z-0.933
X-184.423 Y-72.974 Z-1.011
X-184.395 Y-72.964 Z-1.089
X-184.374 Y-72.943 Z-1.167
X-184.365 Y-72.913 Z-1.244
X-184.372 Y-72.884 Z-1.322
X-184.391 Y-72.861 Z-1.4
X-184.419 Y-72.849 Z-1.478
X-184.449 Y-72.853 Z-1.556
X-184.474 Y-72.869 Z-1.633
X-184.488 Y-72.896 Z-1.711
Y-72.926 Z-1.789
X-184.474 Y-72.953 Z-1.867
X-184.449 Y-72.97 Z-1.944
X-184.419 Y-72.973 Z-2.022
X-184.391 Y-72.962 Z-2.1
X-184.372 Y-72.939 Z-2.178
X-184.365 Y-72.909 Z-2.256
X-184.374 Y-72.88 Z-2.333
X-184.395 Y-72.858 Z-2.411
X-184.423 Y-72.849 Z-2.489
X-184.453 Y-72.854 Z-2.567
X-184.477 Y-72.873 Z-2.644
X-184.489 Y-72.9 Z-2.722
X-184.487 Y-72.931 Z-2.8
X-184.471 Y-72.956 Z-2.878
X-184.445 Y-72.971 Z-2.956
X-184.415 Y-72.972 Z-3.033
X-184.388 Y-72.959 Z-3.111
X-184.37 Y-72.935 Z-3.189
X-184.366 Y-72.905 Z-3.267
X-184.376 Y-72.876 Z-3.344
X-184.398 Y-72.856 Z-3.422
X-184.428 Y-72.849 Z-3.5
X-184.457 Y-72.856 Z-3.578
X-184.48 Y-72.876 Z-3.656
X-184.49 Y-72.905 Z-3.733
X-184.486 Y-72.935 Z-3.811
X-184.468 Y-72.959 Z-3.889
X-184.441 Y-72.972 Z-3.967
X-184.411 Y-72.971 Z-4.044
X-184.384 Y-72.956 Z-4.122
X-184.368 Y-72.931 Z-4.2
G3 X-184.487 Y-72.892 I-0.059 J0.019
X-184.368 Y-72.931 I0.059 J-0.019
G1 Y-72.914
X-184.375 Y-72.9
X-184.388 Y-72.891
X-184.428 Y-72.911
Z15
(When using Fusion 360 for Personal Use, the feedrate of)
(rapid moves is reduced to match the feedrate of cutting)
(moves, which can increase machining time. Unrestricted rapid)
(moves are available with a Fusion 360 Subscription.)

(2D-Kontur39)
G0 X-165.64 Y-54.134
G1 Z15 F1000
Z5
Z3 F333.3
Z2.5
S5000
X-165.66 Y-54.117 Z2.499
X-165.685 Y-54.11 Z2.498
X-165.711 Y-54.114 Z2.497
X-165.733 Y-54.128 Z2.496
X-166.794 Y-55.189 Z2.444
X-166.809 Y-55.213 Z2.443
X-166.812 Y-55.241 Z2.442
X-166.803 Y-55.267 Z2.441
X-166.783 Y-55.287 Z2.44
X-166.757 Y-55.296 Z2.439
X-166.729 Y-55.293 Z2.438
X-166.706 Y-55.278 Z2.437
X-165.646 Y-54.217 Z2.385
X-165.645
X-165.63 Y-54.193 Z2.384
X-165.627 Y-54.166 Z2.383
X-165.636 Y-54.139 Z2.382
X-165.656 Y-54.12 Z2.381
X-165.682 Y-54.111 Z2.38
X-165.71 Y-54.114 Z2.379
X-165.733 Y-54.128 Z2.378
X-166.794 Y-55.189 Z2.325
X-166.809 Y-55.213 Z2.324
X-166.812 Y-55.241 Z2.323
X-166.803 Y-55.267 Z2.322
X-166.783 Y-55.287 Z2.321
X-166.757 Y-55.296
X-166.729 Y-55.293 Z2.32
X-166.706 Y-55.278 Z2.319
X-165.646 Y-54.217 Z2.266
X-165.645
X-165.63 Y-54.193 Z2.265
X-165.627 Y-54.166 Z2.264
X-165.636 Y-54.139 Z2.263
X-165.656 Y-54.12 Z2.262
X-165.682 Y-54.111 Z2.261
X-165.71 Y-54.114 Z2.26
X-165.733 Y-54.128 Z2.259
X-166.794 Y-55.189 Z2.207
X-166.809 Y-55.213 Z2.206
X-166.812 Y-55.241 Z2.205
X-166.803 Y-55.267 Z2.204
X-166.783 Y-55.287 Z2.203
X-166.757 Y-55.296 Z2.202
X-166.729 Y-55.293 Z2.201
X-166.706 Y-55.278 Z2.2
X-165.646 Y-54.217 Z2.148
X-165.645
X-165.63 Y-54.193 Z2.147
X-165.627 Y-54.166 Z2.146
X-165.636 Y-54.139 Z2.145
X-165.656 Y-54.12 Z2.144
X-165.682 Y-54.111 Z2.143
X-165.71 Y-54.114 Z2.142
X-165.733 Y-54.128 Z2.141
X-166.794 Y-55.189 Z2.088
X-166.809 Y-55.213 Z2.087
X-166.812 Y-55.241 Z2.086
X-166.803 Y-55.267 Z2.085
X-166.783 Y-55.287 Z2.084
X-166.757 Y-55.296
X-166.729 Y-55.293 Z2.083
X-166.706 Y-55.278 Z2.082
X-165.646 Y-54.217 Z2.029
X-165.645
X-165.63 Y-54.193 Z2.028
X-165.627 Y-54.166 Z2.027
X-165.636 Y-54.139 Z2.026
X-165.656 Y-54.12 Z2.025
X-165.682 Y-54.111 Z2.024
X-165.71 Y-54.114 Z2.023
X-165.733 Y-54.128 Z2.022
X-166.794 Y-55.189 Z1.97
X-166.809 Y-55.213 Z1.969
X-166.812 Y-55.241 Z1.968
X-166.803 Y-55.267 Z1.967
X-166.783 Y-55.287 Z1.966
X-166.757 Y-55.296 Z1.965
X-166.729 Y-55.293 Z1.964
X-166.706 Y-55.278 Z1.963
X-165.646 Y-54.217 Z1.911
X-165.645
X-165.63 Y-54.193 Z1.91
X-165.627 Y-54.166 Z1.909
X-165.636 Y-54.139 Z1.908
X-165.656 Y-54.12 Z1.907
X-165.682 Y-54.111 Z1.906
X-165.71 Y-54.114 Z1.905
X-165.733 Y-54.128 Z1.904
X-166.794 Y-55.189 Z1.851
X-166.809 Y-55.213 Z1.85
X-166.812 Y-55.241 Z1.849
X-166.803 Y-55.267 Z1.848
X-166.783 Y-55.287 Z1.847
X-166.757 Y-55.296 Z1.846
X-166.729 Y-55.293
X-166.706 Y-55.278 Z1.845
X-165.646 Y-54.217 Z1.792
X-165.645
X-165.63 Y-54.193 Z1.791
X-165.627 Y-54.166 Z1.79
X-165.636 Y-54.139 Z1.789
X-165.656 Y-54.12 Z1.788
X-165.682 Y-54.111 Z1.787
X-165.71 Y-54.114 Z1.786
X-165.733 Y-54.128 Z1.785
X-166.794 Y-55.189 Z1.733
X-166.809 Y-55.213 Z1.732
X-166.812 Y-55.241 Z1.731
X-166.803 Y-55.267 Z1.73
X-166.783 Y-55.287 Z1.729
X-166.757 Y-55.296 Z1.728
X-166.729 Y-55.293 Z1.727
X-166.706 Y-55.278 Z1.726
X-165.646 Y-54.217 Z1.674
X-165.645
X-165.63 Y-54.193 Z1.673
X-165.627 Y-54.166 Z1.672
X-165.636 Y-54.139 Z1.671
X-165.656 Y-54.12 Z1.67
X-165.682 Y-54.111 Z1.669
X-165.71 Y-54.114 Z1.668
X-165.733 Y-54.128 Z1.667
X-166.794 Y-55.189 Z1.614
X-166.809 Y-55.213 Z1.613
X-166.812 Y-55.241 Z1.612
X-166.803 Y-55.267 Z1.611
X-166.783 Y-55.287 Z1.61
X-166.757 Y-55.296 Z1.609
X-166.729 Y-55.293
X-166.706 Y-55.278 Z1.608
X-165.646 Y-54.217 Z1.555
X-165.645
X-165.63 Y-54.193 Z1.554
X-165.627 Y-54.166 Z1.553
X-165.636 Y-54.139 Z1.552
X-165.656 Y-54.12 Z1.551
X-165.682 Y-54.111 Z1.55
X-165.71 Y-54.114 Z1.549
X-165.733 Y-54.128 Z1.548
X-166.794 Y-55.189 Z1.496
X-166.809 Y-55.213 Z1.495
X-166.812 Y-55.241 Z1.494
X-166.803 Y-55.267 Z1.493
X-166.783 Y-55.287 Z1.492
X-166.757 Y-55.296 Z1.491
X-166.729 Y-55.293 Z1.49
X-166.706 Y-55.278 Z1.489
X-165.646 Y-54.217 Z1.437
X-165.645
X-165.63 Y-54.193 Z1.436
X-165.627 Y-54.166 Z1.435
X-165.636 Y-54.139 Z1.434
X-165.656 Y-54.12 Z1.433
X-165.682 Y-54.111 Z1.432
X-165.71 Y-54.114 Z1.431
X-165.733 Y-54.128 Z1.43
X-166.794 Y-55.189 Z1.377
X-166.809 Y-55.213 Z1.376
X-166.812 Y-55.241 Z1.375
X-166.803 Y-55.267 Z1.374
X-166.783 Y-55.287 Z1.373
X-166.757 Y-55.296 Z1.372
X-166.729 Y-55.293
X-166.706 Y-55.278 Z1.371
X-165.646 Y-54.217 Z1.318
X-165.645
X-165.63 Y-54.193 Z1.317
X-165.627 Y-54.166 Z1.316
X-165.636 Y-54.139 Z1.315
X-165.656 Y-54.12 Z1.314
X-165.682 Y-54.111 Z1.313
X-165.71 Y-54.114 Z1.312
X-165.733 Y-54.128 Z1.311
X-166.794 Y-55.189 Z1.259
X-166.809 Y-55.213 Z1.258
X-166.812 Y-55.241 Z1.257
X-166.803 Y-55.267 Z1.256
X-166.783 Y-55.287 Z1.255
X-166.757 Y-55.296 Z1.254
X-166.729 Y-55.293 Z1.253
X-166.706 Y-55.278 Z1.252
X-165.646 Y-54.217 Z1.2
X-165.645
X-165.63 Y-54.193 Z1.199
X-165.627 Y-54.166 Z1.198
X-165.636 Y-54.139 Z1.197
X-165.656 Y-54.12 Z1.196
X-165.682 Y-54.111 Z1.195
X-165.71 Y-54.114 Z1.194
X-165.733 Y-54.128 Z1.193
X-166.794 Y-55.189 Z1.14
X-166.809 Y-55.213 Z1.139
X-166.812 Y-55.241 Z1.138
X-166.803 Y-55.267 Z1.137
X-166.783 Y-55.287 Z1.136
X-166.757 Y-55.296 Z1.135
X-166.729 Y-55.293 Z1.134
X-166.706 Y-55.278
X-165.646 Y-54.217 Z1.081
X-165.645
X-165.63 Y-54.193 Z1.08
X-165.627 Y-54.166 Z1.079
X-165.636 Y-54.139 Z1.078
X-165.656 Y-54.12 Z1.077
X-165.682 Y-54.111 Z1.076
X-165.71 Y-54.114 Z1.075
X-165.733 Y-54.128 Z1.074
X-166.794 Y-55.189 Z1.022
X-166.809 Y-55.213 Z1.021
X-166.812 Y-55.241 Z1.02
X-166.803 Y-55.267 Z1.019
X-166.783 Y-55.287 Z1.018
X-166.757 Y-55.296 Z1.017
X-166.729 Y-55.293 Z1.016
X-166.706 Y-55.278 Z1.015
X-165.646 Y-54.217 Z0.963
X-165.645
X-165.63 Y-54.193 Z0.962
X-165.627 Y-54.166 Z0.961
X-165.636 Y-54.139 Z0.96
X-165.656 Y-54.12 Z0.959
X-165.682 Y-54.111 Z0.958
X-165.71 Y-54.114 Z0.957
X-165.733 Y-54.128 Z0.956
X-166.794 Y-55.189 Z0.903
X-166.809 Y-55.213 Z0.902
X-166.812 Y-55.241 Z0.901
X-166.803 Y-55.267 Z0.9
X-166.783 Y-55.287 Z0.899
X-166.757 Y-55.296 Z0.898
X-166.729 Y-55.293 Z0.897
X-166.706 Y-55.278
X-165.646 Y-54.217 Z0.844
X-165.645
X-165.63 Y-54.193 Z0.843
X-165.627 Y-54.166 Z0.842
X-165.636 Y-54.139 Z0.841
X-165.656 Y-54.12 Z0.84
X-165.682 Y-54.111 Z0.839
X-165.71 Y-54.114 Z0.838
X-165.733 Y-54.128 Z0.837
X-166.794 Y-55.189 Z0.785
X-166.809 Y-55.213 Z0.784
X-166.812 Y-55.241 Z0.783
X-166.803 Y-55.267 Z0.782
X-166.783 Y-55.287 Z0.781
X-166.757 Y-55.296 Z0.78
X-166.729 Y-55.293 Z0.779
X-166.706 Y-55.278 Z0.778
X-165.646 Y-54.217 Z0.726
X-165.645
X-165.63 Y-54.193 Z0.725
X-165.627 Y-54.166 Z0.724
X-165.636 Y-54.139 Z0.723
X-165.656 Y-54.12 Z0.722
X-165.682 Y-54.111 Z0.721
X-165.71 Y-54.114 Z0.72
X-165.733 Y-54.128 Z0.719
X-166.794 Y-55.189 Z0.666
X-166.809 Y-55.213 Z0.665
X-166.812 Y-55.241 Z0.664
X-166.803 Y-55.267 Z0.663
X-166.783 Y-55.287 Z0.662
X-166.757 Y-55.296 Z0.661
X-166.729 Y-55.293 Z0.66
X-166.706 Y-55.278 Z0.659
X-165.646 Y-54.217 Z0.607
X-165.645
X-165.63 Y-54.193 Z0.606
X-165.627 Y-54.166 Z0.605
X-165.636 Y-54.139 Z0.604
X-165.656 Y-54.12 Z0.603
X-165.682 Y-54.111 Z0.602
X-165.71 Y-54.114 Z0.601
X-165.733 Y-54.128 Z0.6
X-166.794 Y-55.189 Z0.548
X-166.809 Y-55.213 Z0.547
X-166.812 Y-55.241 Z0.546
X-166.803 Y-55.267 Z0.545
X-166.783 Y-55.287 Z0.544
X-166.757 Y-55.296 Z0.543
X-166.729 Y-55.293 Z0.542
X-166.706 Y-55.278 Z0.541
X-165.646 Y-54.217 Z0.489
X-165.645
X-165.63 Y-54.193 Z0.488
X-165.627 Y-54.166 Z0.487
X-165.636 Y-54.139 Z0.486
X-165.656 Y-54.12 Z0.485
X-165.682 Y-54.111 Z0.484
X-165.71 Y-54.114 Z0.483
X-165.733 Y-54.128 Z0.482
X-166.794 Y-55.189 Z0.429
X-166.809 Y-55.213 Z0.428
X-166.812 Y-55.241 Z0.427
X-166.803 Y-55.267 Z0.426
X-166.783 Y-55.287 Z0.425
X-166.757 Y-55.296 Z0.424
X-166.729 Y-55.293 Z0.423
X-166.706 Y-55.278 Z0.422
X-165.646 Y-54.217 Z0.37
X-165.645
X-165.63 Y-54.193 Z0.369
X-165.627 Y-54.166 Z0.368
X-165.636 Y-54.139 Z0.367
X-165.656 Y-54.12 Z0.366
X-165.682 Y-54.111 Z0.365
X-165.71 Y-54.114 Z0.364
X-165.733 Y-54.128 Z0.363
X-166.794 Y-55.189 Z0.311
X-166.809 Y-55.213 Z0.31
X-166.812 Y-55.241 Z0.309
X-166.803 Y-55.267 Z0.308
X-166.783 Y-55.287 Z0.307
X-166.757 Y-55.296 Z0.306
X-166.729 Y-55.293 Z0.305
X-166.706 Y-55.278 Z0.304
X-165.646 Y-54.217 Z0.252
X-165.645
X-165.63 Y-54.193 Z0.251
X-165.627 Y-54.166 Z0.25
X-165.636 Y-54.139 Z0.249
X-165.656 Y-54.12 Z0.248
X-165.682 Y-54.111 Z0.247
X-165.71 Y-54.114 Z0.246
X-165.733 Y-54.128 Z0.245
X-166.794 Y-55.189 Z0.192
X-166.809 Y-55.213 Z0.191
X-166.812 Y-55.241 Z0.19
X-166.803 Y-55.267 Z0.189
X-166.783 Y-55.287 Z0.188
X-166.757 Y-55.296 Z0.187
X-166.729 Y-55.293 Z0.186
X-166.706 Y-55.278 Z0.185
X-165.646 Y-54.217 Z0.133
X-165.645
X-165.63 Y-54.193 Z0.132
X-165.627 Y-54.166 Z0.131
X-165.636 Y-54.139 Z0.13
X-165.656 Y-54.12 Z0.129
X-165.682 Y-54.111 Z0.128
X-165.71 Y-54.114 Z0.127
X-165.733 Y-54.128 Z0.126
X-166.794 Y-55.189 Z0.074
X-166.809 Y-55.213 Z0.073
X-166.812 Y-55.241 Z0.072
X-166.803 Y-55.267 Z0.071
X-166.783 Y-55.287 Z0.07
X-166.757 Y-55.296 Z0.069
X-166.729 Y-55.293 Z0.068
X-166.706 Y-55.278 Z0.067
X-165.646 Y-54.217 Z0.015
X-165.645
X-165.63 Y-54.193 Z0.014
X-165.627 Y-54.166 Z0.013
X-165.636 Y-54.139 Z0.012
X-165.656 Y-54.12 Z0.011
X-165.682 Y-54.111 Z0.01
X-165.71 Y-54.114 Z0.009
X-165.733 Y-54.128 Z0.008
X-166.794 Y-55.189 Z-0.045
X-166.809 Y-55.213 Z-0.046
X-166.812 Y-55.241 Z-0.047
X-166.803 Y-55.267 Z-0.048
X-166.783 Y-55.287 Z-0.049
X-166.757 Y-55.296 Z-0.05
X-166.729 Y-55.293 Z-0.051
X-166.706 Y-55.278 Z-0.052
X-165.646 Y-54.217 Z-0.104
X-165.645
X-165.63 Y-54.193 Z-0.105
X-165.627 Y-54.166 Z-0.106
X-165.636 Y-54.139 Z-0.107
X-165.656 Y-54.12 Z-0.108
X-165.682 Y-54.111 Z-0.109
X-165.71 Y-54.114 Z-0.11
X-165.733 Y-54.128 Z-0.111
X-166.794 Y-55.189 Z-0.163
X-166.809 Y-55.213 Z-0.164
X-166.812 Y-55.241 Z-0.165
X-166.803 Y-55.267 Z-0.166
X-166.783 Y-55.287 Z-0.167
X-166.757 Y-55.296 Z-0.168
X-166.729 Y-55.293 Z-0.169
X-166.706 Y-55.278 Z-0.17
X-165.646 Y-54.217 Z-0.222
X-165.645
X-165.63 Y-54.193 Z-0.223
X-165.627 Y-54.166 Z-0.224
X-165.636 Y-54.139 Z-0.225
X-165.656 Y-54.12 Z-0.226
X-165.682 Y-54.111 Z-0.227
X-165.71 Y-54.114 Z-0.228
X-165.733 Y-54.128 Z-0.229
X-166.794 Y-55.189 Z-0.282
X-166.809 Y-55.213 Z-0.283
X-166.812 Y-55.241 Z-0.284
X-166.803 Y-55.267 Z-0.285
X-166.783 Y-55.287 Z-0.286
X-166.757 Y-55.296 Z-0.287
X-166.729 Y-55.293 Z-0.288
X-166.706 Y-55.278 Z-0.289
X-165.646 Y-54.217 Z-0.341
X-165.645
X-165.63 Y-54.193 Z-0.342
X-165.627 Y-54.166 Z-0.343
X-165.636 Y-54.139 Z-0.344
X-165.656 Y-54.12 Z-0.345
X-165.682 Y-54.111 Z-0.346
X-165.71 Y-54.114 Z-0.347
X-165.733 Y-54.128 Z-0.348
X-166.794 Y-55.189 Z-0.4
X-166.809 Y-55.213 Z-0.401
X-166.812 Y-55.241 Z-0.402
X-166.803 Y-55.267 Z-0.403
X-166.783 Y-55.287 Z-0.404
X-166.757 Y-55.296 Z-0.405
X-166.729 Y-55.293 Z-0.406
X-166.706 Y-55.278 Z-0.407
X-165.646 Y-54.217 Z-0.459
X-165.645
X-165.63 Y-54.193 Z-0.46
X-165.627 Y-54.166 Z-0.461
X-165.636 Y-54.139 Z-0.462
X-165.656 Y-54.12 Z-0.463
X-165.682 Y-54.111 Z-0.464
X-165.71 Y-54.114 Z-0.465
X-165.733 Y-54.128 Z-0.466
X-166.794 Y-55.189 Z-0.519
X-166.809 Y-55.213 Z-0.52
X-166.812 Y-55.241 Z-0.521
X-166.803 Y-55.267 Z-0.522
X-166.783 Y-55.287 Z-0.523
X-166.757 Y-55.296 Z-0.524
X-166.729 Y-55.293 Z-0.525
X-166.706 Y-55.278 Z-0.526
X-165.646 Y-54.217 Z-0.578
X-165.645
X-165.63 Y-54.193 Z-0.579
X-165.627 Y-54.166 Z-0.58
X-165.636 Y-54.139 Z-0.581
X-165.656 Y-54.12 Z-0.582
X-165.682 Y-54.111 Z-0.583
X-165.71 Y-54.114 Z-0.584
X-165.733 Y-54.128 Z-0.585
X-166.794 Y-55.189 Z-0.637
X-166.809 Y-55.213 Z-0.638
X-166.812 Y-55.241 Z-0.639
X-166.803 Y-55.267 Z-0.64
X-166.783 Y-55.287 Z-0.641
X-166.757 Y-55.296 Z-0.642
X-166.729 Y-55.293 Z-0.643
X-166.706 Y-55.278 Z-0.644
X-165.646 Y-54.217 Z-0.696
X-165.645
X-165.63 Y-54.193 Z-0.697
X-165.627 Y-54.166 Z-0.698
X-165.636 Y-54.139 Z-0.699
X-165.656 Y-54.12 Z-0.7
X-165.682 Y-54.111 Z-0.701
X-165.71 Y-54.114 Z-0.702
X-165.733 Y-54.128 Z-0.703
X-166.794 Y-55.189 Z-0.756
X-166.809 Y-55.213 Z-0.757
X-166.812 Y-55.241 Z-0.758
X-166.803 Y-55.267 Z-0.759
X-166.783 Y-55.287 Z-0.76
X-166.757 Y-55.296 Z-0.761
X-166.729 Y-55.293 Z-0.762
X-166.706 Y-55.278 Z-0.763
X-165.646 Y-54.217 Z-0.815
X-165.645
X-165.63 Y-54.193 Z-0.816
X-165.627 Y-54.166 Z-0.817
X-165.636 Y-54.139 Z-0.818
X-165.656 Y-54.12 Z-0.819
X-165.682 Y-54.111 Z-0.82
X-165.71 Y-54.114 Z-0.821
X-165.733 Y-54.128 Z-0.822
X-166.794 Y-55.189 Z-0.874
X-166.809 Y-55.213 Z-0.875
X-166.812 Y-55.241 Z-0.876
X-166.803 Y-55.267 Z-0.877
X-166.783 Y-55.287 Z-0.878
X-166.757 Y-55.296 Z-0.879
X-166.729 Y-55.293 Z-0.88
X-166.706 Y-55.278 Z-0.881
X-165.646 Y-54.217 Z-0.933
X-165.645
X-165.63 Y-54.193 Z-0.934
X-165.627 Y-54.166 Z-0.935
X-165.636 Y-54.139 Z-0.936
X-165.656 Y-54.12 Z-0.937
X-165.682 Y-54.111 Z-0.938
X-165.71 Y-54.114 Z-0.939
X-165.733 Y-54.128 Z-0.94
X-166.794 Y-55.189 Z-0.993
X-166.809 Y-55.213 Z-0.994
X-166.812 Y-55.241 Z-0.995
X-166.803 Y-55.267 Z-0.996
X-166.783 Y-55.287 Z-0.997
X-166.757 Y-55.296 Z-0.998
X-166.729 Y-55.293 Z-0.999
X-166.706 Y-55.278 Z-1
X-165.646 Y-54.217 Z-1.052
X-165.645
X-165.63 Y-54.193 Z-1.053
X-165.627 Y-54.166 Z-1.054
X-165.636 Y-54.139 Z-1.055
X-165.656 Y-54.12 Z-1.056
X-165.682 Y-54.111 Z-1.057
X-165.71 Y-54.114 Z-1.058
X-165.733 Y-54.128 Z-1.059
X-166.794 Y-55.189 Z-1.111
X-166.809 Y-55.213 Z-1.112
X-166.812 Y-55.241 Z-1.113
X-166.803 Y-55.267 Z-1.114
X-166.783 Y-55.287 Z-1.115
X-166.757 Y-55.296 Z-1.116
X-166.729 Y-55.293 Z-1.117
X-166.706 Y-55.278 Z-1.118
X-165.646 Y-54.217 Z-1.17
X-165.645
X-165.63 Y-54.193 Z-1.171
X-165.627 Y-54.166 Z-1.172
X-165.636 Y-54.139 Z-1.173
X-165.656 Y-54.12 Z-1.174
X-165.682 Y-54.111 Z-1.175
X-165.71 Y-54.114 Z-1.176
X-165.733 Y-54.128 Z-1.177
X-166.794 Y-55.189 Z-1.23
X-166.809 Y-55.213 Z-1.231
X-166.812 Y-55.241 Z-1.232
X-166.803 Y-55.267 Z-1.233
X-166.783 Y-55.287 Z-1.234
X-166.757 Y-55.296 Z-1.235
X-166.729 Y-55.293 Z-1.236
X-166.706 Y-55.278 Z-1.237
X-165.646 Y-54.217 Z-1.289
X-165.645
X-165.63 Y-54.193 Z-1.29
X-165.627 Y-54.166 Z-1.291
X-165.636 Y-54.139 Z-1.292
X-165.656 Y-54.12 Z-1.293
X-165.682 Y-54.111 Z-1.294
X-165.71 Y-54.114 Z-1.295
X-165.733 Y-54.128 Z-1.296
X-166.794 Y-55.189 Z-1.348
X-166.809 Y-55.213 Z-1.349
X-166.812 Y-55.241 Z-1.35
X-166.803 Y-55.267 Z-1.351
X-166.783 Y-55.287 Z-1.352
X-166.757 Y-55.296 Z-1.353
X-166.729 Y-55.293 Z-1.354
X-166.706 Y-55.278 Z-1.355
X-165.646 Y-54.217 Z-1.407
X-165.645
X-165.63 Y-54.193 Z-1.408
X-165.627 Y-54.166 Z-1.409
X-165.636 Y-54.139 Z-1.41
X-165.656 Y-54.12 Z-1.411
X-165.682 Y-54.111 Z-1.412
X-165.71 Y-54.114 Z-1.413
X-165.733 Y-54.128 Z-1.414
X-166.794 Y-55.189 Z-1.467
X-166.809 Y-55.213 Z-1.468
X-166.812 Y-55.241 Z-1.469
X-166.803 Y-55.267 Z-1.47
X-166.783 Y-55.287 Z-1.471
X-166.757 Y-55.296 Z-1.472
X-166.729 Y-55.293 Z-1.473
X-166.706 Y-55.278 Z-1.474
X-165.646 Y-54.217 Z-1.526
X-165.645
X-165.63 Y-54.193 Z-1.527
X-165.627 Y-54.166 Z-1.528
X-165.636 Y-54.139 Z-1.529
X-165.656 Y-54.12 Z-1.53
X-165.682 Y-54.111 Z-1.531
X-165.71 Y-54.114 Z-1.532
X-165.733 Y-54.128 Z-1.533
X-166.794 Y-55.189 Z-1.585
X-166.809 Y-55.213 Z-1.586
X-166.812 Y-55.241 Z-1.587
X-166.803 Y-55.267 Z-1.588
X-166.783 Y-55.287 Z-1.589
X-166.757 Y-55.296 Z-1.59
X-166.729 Y-55.293 Z-1.591
X-166.706 Y-55.278 Z-1.592
X-165.646 Y-54.217 Z-1.644
X-165.645
X-165.63 Y-54.193 Z-1.645
X-165.627 Y-54.166 Z-1.646
X-165.636 Y-54.139 Z-1.647
X-165.656 Y-54.12 Z-1.648
X-165.682 Y-54.111 Z-1.649
X-165.71 Y-54.114 Z-1.65
X-165.733 Y-54.128 Z-1.651
X-166.794 Y-55.189 Z-1.704
X-166.809 Y-55.213 Z-1.705
X-166.812 Y-55.241 Z-1.706
X-166.803 Y-55.267 Z-1.707
X-166.783 Y-55.287 Z-1.708
X-166.757 Y-55.296 Z-1.709
X-166.729 Y-55.293 Z-1.71
X-166.706 Y-55.278 Z-1.711
X-165.646 Y-54.217 Z-1.763
X-165.645
X-165.63 Y-54.193 Z-1.764
X-165.627 Y-54.166 Z-1.765
X-165.636 Y-54.139 Z-1.766
X-165.656 Y-54.12 Z-1.767
X-165.682 Y-54.111 Z-1.768
X-165.71 Y-54.114 Z-1.769
X-165.733 Y-54.128 Z-1.77
X-166.794 Y-55.189 Z-1.822
X-166.809 Y-55.213 Z-1.823
X-166.812 Y-55.241 Z-1.824
X-166.803 Y-55.267 Z-1.825
X-166.783 Y-55.287 Z-1.826
X-166.757 Y-55.296 Z-1.827
X-166.729 Y-55.293 Z-1.828
X-166.706 Y-55.278 Z-1.829
X-165.646 Y-54.217 Z-1.881
X-165.645
X-165.63 Y-54.193 Z-1.882
X-165.627 Y-54.166 Z-1.883
X-165.636 Y-54.139 Z-1.884
X-165.656 Y-54.12 Z-1.885
X-165.682 Y-54.111 Z-1.886
X-165.71 Y-54.114 Z-1.887
X-165.733 Y-54.128 Z-1.888
X-166.794 Y-55.189 Z-1.941
X-166.809 Y-55.213 Z-1.942
X-166.812 Y-55.241 Z-1.943
X-166.803 Y-55.267 Z-1.944
X-166.783 Y-55.287 Z-1.945
X-166.757 Y-55.296 Z-1.946
X-166.729 Y-55.293 Z-1.947
X-166.706 Y-55.278 Z-1.948
X-165.646 Y-54.217 Z-2
X-165.645
S6000
X-165.63 Y-54.193 F1000
X-165.627 Y-54.166
X-165.636 Y-54.139
X-165.656 Y-54.12
X-165.682 Y-54.111
X-165.71 Y-54.114
X-165.733 Y-54.128
X-166.794 Y-55.189
X-166.809 Y-55.213
X-166.812 Y-55.241
X-166.803 Y-55.267
X-166.783 Y-55.287
X-166.757 Y-55.296
X-166.729 Y-55.293
X-166.706 Y-55.278
X-165.646 Y-54.217
X-165.645
S5000
X-165.63 Y-54.193 Z-2.001 F333.3
X-165.627 Y-54.166 Z-2.002
X-165.636 Y-54.139 Z-2.003
X-165.656 Y-54.12 Z-2.004
X-165.682 Y-54.111 Z-2.005
X-165.71 Y-54.114 Z-2.006
X-165.733 Y-54.128 Z-2.007
X-166.794 Y-55.189 Z-2.059
X-166.809 Y-55.213 Z-2.06
X-166.812 Y-55.241 Z-2.061
X-166.803 Y-55.267 Z-2.062
X-166.783 Y-55.287 Z-2.063
X-166.757 Y-55.296 Z-2.064
X-166.729 Y-55.293 Z-2.065
X-166.706 Y-55.278 Z-2.066
X-165.646 Y-54.217 Z-2.118
X-165.645 Z-2.119
X-165.63 Y-54.193
X-165.627 Y-54.166 Z-2.12
X-165.636 Y-54.139 Z-2.121
X-165.656 Y-54.12 Z-2.122
X-165.682 Y-54.111 Z-2.123
X-165.71 Y-54.114 Z-2.124
X-165.733 Y-54.128 Z-2.125
X-166.794 Y-55.189 Z-2.178
X-166.809 Y-55.213 Z-2.179
X-166.812 Y-55.241 Z-2.18
X-166.803 Y-55.267 Z-2.181
X-166.783 Y-55.287 Z-2.182
X-166.757 Y-55.296 Z-2.183
X-166.729 Y-55.293 Z-2.184
X-166.706 Y-55.278 Z-2.185
X-165.646 Y-54.217 Z-2.237
X-165.645
X-165.63 Y-54.193 Z-2.238
X-165.627 Y-54.166 Z-2.239
X-165.636 Y-54.139 Z-2.24
X-165.656 Y-54.12 Z-2.241
X-165.682 Y-54.111 Z-2.242
X-165.71 Y-54.114 Z-2.243
X-165.733 Y-54.128 Z-2.244
X-166.794 Y-55.189 Z-2.296
X-166.809 Y-55.213 Z-2.297
X-166.812 Y-55.241 Z-2.298
X-166.803 Y-55.267 Z-2.299
X-166.783 Y-55.287 Z-2.3
X-166.757 Y-55.296 Z-2.301
X-166.729 Y-55.293 Z-2.302
X-166.706 Y-55.278 Z-2.303
X-165.646 Y-54.217 Z-2.355
X-165.645 Z-2.356
X-165.63 Y-54.193
X-165.627 Y-54.166 Z-2.357
X-165.636 Y-54.139 Z-2.358
X-165.656 Y-54.12 Z-2.359
X-165.682 Y-54.111 Z-2.36
X-165.71 Y-54.114 Z-2.361
X-165.733 Y-54.128 Z-2.362
X-166.794 Y-55.189 Z-2.415
X-166.809 Y-55.213 Z-2.416
X-166.812 Y-55.241 Z-2.417
X-166.803 Y-55.267 Z-2.418
X-166.783 Y-55.287 Z-2.419
X-166.757 Y-55.296 Z-2.42
X-166.729 Y-55.293 Z-2.421
X-166.706 Y-55.278 Z-2.422
X-165.646 Y-54.217 Z-2.474
X-165.645
X-165.63 Y-54.193 Z-2.475
X-165.627 Y-54.166 Z-2.476
X-165.636 Y-54.139 Z-2.477
X-165.656 Y-54.12 Z-2.478
X-165.682 Y-54.111 Z-2.479
X-165.71 Y-54.114 Z-2.48
X-165.733 Y-54.128 Z-2.481
X-166.794 Y-55.189 Z-2.533
X-166.809 Y-55.213 Z-2.534
X-166.812 Y-55.241 Z-2.535
X-166.803 Y-55.267 Z-2.536
X-166.783 Y-55.287 Z-2.537
X-166.757 Y-55.296 Z-2.538
X-166.729 Y-55.293 Z-2.539
X-166.706 Y-55.278 Z-2.54
X-165.646 Y-54.217 Z-2.592
X-165.645 Z-2.593
X-165.63 Y-54.193
X-165.627 Y-54.166 Z-2.594
X-165.636 Y-54.139 Z-2.595
X-165.656 Y-54.12 Z-2.596
X-165.682 Y-54.111 Z-2.597
X-165.71 Y-54.114 Z-2.598
X-165.733 Y-54.128 Z-2.599
X-166.794 Y-55.189 Z-2.652
X-166.809 Y-55.213 Z-2.653
X-166.812 Y-55.241 Z-2.654
X-166.803 Y-55.267 Z-2.655
X-166.783 Y-55.287 Z-2.656
X-166.757 Y-55.296 Z-2.657
X-166.729 Y-55.293 Z-2.658
X-166.706 Y-55.278 Z-2.659
X-165.646 Y-54.217 Z-2.711
X-165.645
X-165.63 Y-54.193 Z-2.712
X-165.627 Y-54.166 Z-2.713
X-165.636 Y-54.139 Z-2.714
X-165.656 Y-54.12 Z-2.715
X-165.682 Y-54.111 Z-2.716
X-165.71 Y-54.114 Z-2.717
X-165.733 Y-54.128 Z-2.718
X-166.794 Y-55.189 Z-2.77
X-166.809 Y-55.213 Z-2.771
X-166.812 Y-55.241 Z-2.772
X-166.803 Y-55.267 Z-2.773
X-166.783 Y-55.287 Z-2.774
X-166.757 Y-55.296 Z-2.775
X-166.729 Y-55.293 Z-2.776
X-166.706 Y-55.278 Z-2.777
X-165.646 Y-54.217 Z-2.829
X-165.645 Z-2.83
X-165.63 Y-54.193 Z-2.831
X-165.627 Y-54.166
X-165.636 Y-54.139 Z-2.832
X-165.656 Y-54.12 Z-2.833
X-165.682 Y-54.111 Z-2.834
X-165.71 Y-54.114 Z-2.835
X-165.733 Y-54.128 Z-2.836
X-166.794 Y-55.189 Z-2.889
X-166.809 Y-55.213 Z-2.89
X-166.812 Y-55.241 Z-2.891
X-166.803 Y-55.267 Z-2.892
X-166.783 Y-55.287 Z-2.893
X-166.757 Y-55.296 Z-2.894
X-166.729 Y-55.293 Z-2.895
X-166.706 Y-55.278 Z-2.896
X-165.646 Y-54.217 Z-2.948
X-165.645
X-165.63 Y-54.193 Z-2.949
X-165.627 Y-54.166 Z-2.95
X-165.636 Y-54.139 Z-2.951
X-165.656 Y-54.12 Z-2.952
X-165.682 Y-54.111 Z-2.953
X-165.71 Y-54.114 Z-2.954
X-165.733 Y-54.128 Z-2.955
X-166.794 Y-55.189 Z-3.007
X-166.809 Y-55.213 Z-3.008
X-166.812 Y-55.241 Z-3.009
X-166.803 Y-55.267 Z-3.01
X-166.783 Y-55.287 Z-3.011
X-166.757 Y-55.296 Z-3.012
X-166.729 Y-55.293 Z-3.013
X-166.706 Y-55.278 Z-3.014
X-165.646 Y-54.217 Z-3.066
X-165.645 Z-3.067
X-165.63 Y-54.193 Z-3.068
X-165.627 Y-54.166
X-165.636 Y-54.139 Z-3.069
X-165.656 Y-54.12 Z-3.07
X-165.682 Y-54.111 Z-3.071
X-165.71 Y-54.114 Z-3.072
X-165.733 Y-54.128 Z-3.073
X-166.272 Y-54.667 Z-3.1
S6000
X-166.794 Y-55.189 F1000
X-166.809 Y-55.213
X-166.812 Y-55.241
X-166.803 Y-55.267
X-166.783 Y-55.287
X-166.757 Y-55.296
X-166.729 Y-55.293
X-166.706 Y-55.278
X-165.646 Y-54.217
X-165.645
X-165.63 Y-54.193
X-165.627 Y-54.166
X-165.636 Y-54.139
X-165.656 Y-54.12
X-165.682 Y-54.111
X-165.71 Y-54.114
X-165.733 Y-54.128
X-166.272 Y-54.667
S5000
X-166.794 Y-55.189 Z-3.126 F333.3
X-166.809 Y-55.213 Z-3.127
X-166.812 Y-55.241 Z-3.128
X-166.803 Y-55.267 Z-3.129
X-166.783 Y-55.287 Z-3.13
X-166.757 Y-55.296 Z-3.131
X-166.729 Y-55.293 Z-3.132
X-166.706 Y-55.278 Z-3.133
X-165.646 Y-54.217 Z-3.185
X-165.645
X-165.63 Y-54.193 Z-3.186
X-165.627 Y-54.166 Z-3.187
X-165.636 Y-54.139 Z-3.188
X-165.656 Y-54.12 Z-3.189
X-165.682 Y-54.111 Z-3.19
X-165.71 Y-54.114 Z-3.191
X-165.733 Y-54.128 Z-3.192
X-166.794 Y-55.189 Z-3.244
X-166.809 Y-55.213 Z-3.245
X-166.812 Y-55.241 Z-3.246
X-166.803 Y-55.267 Z-3.247
X-166.783 Y-55.287 Z-3.248
X-166.757 Y-55.296 Z-3.249
X-166.729 Y-55.293 Z-3.25
X-166.706 Y-55.278 Z-3.251
X-165.646 Y-54.217 Z-3.304
X-165.645
X-165.63 Y-54.193 Z-3.305
X-165.627 Y-54.166 Z-3.306
X-165.636 Y-54.139
X-165.656 Y-54.12 Z-3.307
X-165.682 Y-54.111 Z-3.308
X-165.71 Y-54.114 Z-3.309
X-165.733 Y-54.128 Z-3.31
X-166.794 Y-55.189 Z-3.363
X-166.809 Y-55.213 Z-3.364
X-166.812 Y-55.241 Z-3.365
X-166.803 Y-55.267 Z-3.366
X-166.783 Y-55.287 Z-3.367
X-166.757 Y-55.296 Z-3.368
X-166.729 Y-55.293 Z-3.369
X-166.706 Y-55.278 Z-3.37
X-165.646 Y-54.217 Z-3.422
X-165.645
X-165.63 Y-54.193 Z-3.423
X-165.627 Y-54.166 Z-3.424
X-165.636 Y-54.139 Z-3.425
X-165.656 Y-54.12 Z-3.426
X-165.682 Y-54.111 Z-3.427
X-165.71 Y-54.114 Z-3.428
X-165.733 Y-54.128 Z-3.429
X-166.794 Y-55.189 Z-3.481
X-166.809 Y-55.213 Z-3.482
X-166.812 Y-55.241 Z-3.483
X-166.803 Y-55.267 Z-3.484
X-166.783 Y-55.287 Z-3.485
X-166.757 Y-55.296 Z-3.486
X-166.729 Y-55.293 Z-3.487
X-166.706 Y-55.278 Z-3.488
X-165.646 Y-54.217 Z-3.541
X-165.645
X-165.63 Y-54.193 Z-3.542
X-165.627 Y-54.166 Z-3.543
X-165.636 Y-54.139
X-165.656 Y-54.12 Z-3.544
X-165.682 Y-54.111 Z-3.545
X-165.71 Y-54.114 Z-3.546
X-165.733 Y-54.128 Z-3.547
X-166.794 Y-55.189 Z-3.6
X-166.809 Y-55.213 Z-3.601
X-166.812 Y-55.241 Z-3.602
X-166.803 Y-55.267 Z-3.603
X-166.783 Y-55.287 Z-3.604
X-166.757 Y-55.296 Z-3.605
X-166.729 Y-55.293 Z-3.606
X-166.706 Y-55.278 Z-3.607
X-165.646 Y-54.217 Z-3.659
X-165.645
X-165.63 Y-54.193 Z-3.66
X-165.627 Y-54.166 Z-3.661
X-165.636 Y-54.139 Z-3.662
X-165.656 Y-54.12 Z-3.663
X-165.682 Y-54.111 Z-3.664
X-165.71 Y-54.114 Z-3.665
X-165.733 Y-54.128 Z-3.666
X-166.794 Y-55.189 Z-3.718
X-166.809 Y-55.213 Z-3.719
X-166.812 Y-55.241 Z-3.72
X-166.803 Y-55.267 Z-3.721
X-166.783 Y-55.287 Z-3.722
X-166.757 Y-55.296 Z-3.723
X-166.729 Y-55.293 Z-3.724
X-166.706 Y-55.278 Z-3.725
X-165.646 Y-54.217 Z-3.778
X-165.645
X-165.63 Y-54.193 Z-3.779
X-165.627 Y-54.166 Z-3.78
X-165.636 Y-54.139
X-165.656 Y-54.12 Z-3.781
X-165.682 Y-54.111 Z-3.782
X-165.71 Y-54.114 Z-3.783
X-165.733 Y-54.128 Z-3.784
X-166.794 Y-55.189 Z-3.837
X-166.809 Y-55.213 Z-3.838
X-166.812 Y-55.241 Z-3.839
X-166.803 Y-55.267 Z-3.84
X-166.783 Y-55.287 Z-3.841
X-166.757 Y-55.296 Z-3.842
X-166.729 Y-55.293 Z-3.843
X-166.706 Y-55.278 Z-3.844
X-165.646 Y-54.217 Z-3.896
X-165.645
X-165.63 Y-54.193 Z-3.897
X-165.627 Y-54.166 Z-3.898
X-165.636 Y-54.139 Z-3.899
X-165.656 Y-54.12 Z-3.9
X-165.682 Y-54.111 Z-3.901
X-165.71 Y-54.114 Z-3.902
X-165.733 Y-54.128 Z-3.903
X-166.794 Y-55.189 Z-3.955
X-166.809 Y-55.213 Z-3.956
X-166.812 Y-55.241 Z-3.957
X-166.803 Y-55.267 Z-3.958
X-166.783 Y-55.287 Z-3.959
X-166.757 Y-55.296 Z-3.96
X-166.729 Y-55.293 Z-3.961
X-166.706 Y-55.278 Z-3.962
X-165.646 Y-54.217 Z-4.015
X-165.645
X-165.63 Y-54.193 Z-4.016
X-165.627 Y-54.166 Z-4.017
X-165.636 Y-54.139 Z-4.018
X-165.656 Y-54.12
X-165.682 Y-54.111 Z-4.019
X-165.71 Y-54.114 Z-4.02
X-165.733 Y-54.128 Z-4.021
X-166.794 Y-55.189 Z-4.074
X-166.809 Y-55.213 Z-4.075
X-166.812 Y-55.241 Z-4.076
X-166.803 Y-55.267 Z-4.077
X-166.783 Y-55.287 Z-4.078
X-166.757 Y-55.296 Z-4.079
X-166.729 Y-55.293 Z-4.08
X-166.706 Y-55.278 Z-4.081
X-165.646 Y-54.217 Z-4.133
X-165.645
X-165.63 Y-54.193 Z-4.134
X-165.627 Y-54.166 Z-4.135
X-165.636 Y-54.139 Z-4.136
X-165.656 Y-54.12 Z-4.137
X-165.682 Y-54.111 Z-4.138
X-165.71 Y-54.114 Z-4.139
X-165.733 Y-54.128 Z-4.14
X-166.794 Y-55.189 Z-4.192
X-166.809 Y-55.213 Z-4.193
X-166.812 Y-55.241 Z-4.194
X-166.803 Y-55.267 Z-4.195
X-166.783 Y-55.287 Z-4.196
X-166.757 Y-55.296 Z-4.197
X-166.729 Y-55.293 Z-4.198
X-166.706 Y-55.278 Z-4.199
X-166.689 Y-55.261 Z-4.2
S6000
X-165.646 Y-54.217 F1000
X-165.645
X-165.63 Y-54.193
X-165.627 Y-54.166
X-165.636 Y-54.139
X-165.656 Y-54.12
X-165.682 Y-54.111
X-165.71 Y-54.114
X-165.733 Y-54.128
X-166.272 Y-54.667
X-166.794 Y-55.189
X-166.809 Y-55.213
X-166.812 Y-55.241
X-166.803 Y-55.267
X-166.783 Y-55.287
X-166.757 Y-55.296
X-166.729 Y-55.293
X-166.706 Y-55.278
X-166.689 Y-55.261
X-166.686 Y-55.258
X-166.684 Y-55.254 Z-4.199
X-166.682 Y-55.25 Z-4.197
X-166.681 Y-55.246 Z-4.194
Y-55.243 Z-4.191
Y-55.24 Z-4.188
Y-55.237 Z-4.184
Y-55.235 Z-4.179
Y-55.234 Z-4.175
Z-4.17
Z5
X-165.71 Y-67.499
Z3 F333.3
Z2.5
S5000
X-166.706 Y-66.503 Z2.451
X-166.729 Y-66.488 Z2.45
X-166.757 Y-66.485 Z2.449
X-166.783 Y-66.494 Z2.448
X-166.803 Y-66.514 Z2.447
X-166.812 Y-66.54 Z2.446
X-166.809 Y-66.568 Z2.445
X-166.794 Y-66.591 Z2.444
X-165.734 Y-67.652 Z2.392
X-165.71 Y-67.667 Z2.391
X-165.683 Y-67.67 Z2.39
X-165.656 Y-67.661 Z2.389
X-165.636 Y-67.642 Z2.388
X-165.627 Y-67.615 Z2.387
X-165.63 Y-67.588 Z2.386
X-165.645 Y-67.564 Z2.385
X-165.646 Y-67.563
X-166.706 Y-66.503 Z2.332
X-166.729 Y-66.488 Z2.331
X-166.757 Y-66.485 Z2.33
X-166.783 Y-66.494 Z2.329
X-166.803 Y-66.514 Z2.328
X-166.812 Y-66.54 Z2.327
X-166.809 Y-66.568 Z2.326
X-166.794 Y-66.591 Z2.325
X-165.734 Y-67.652 Z2.273
X-165.71 Y-67.667 Z2.272
X-165.683 Y-67.67 Z2.271
X-165.656 Y-67.661 Z2.27
X-165.636 Y-67.642 Z2.269
X-165.627 Y-67.615 Z2.268
X-165.63 Y-67.588 Z2.267
X-165.645 Y-67.564 Z2.266
X-165.646 Y-67.563
X-166.706 Y-66.503 Z2.214
X-166.729 Y-66.488 Z2.213
X-166.757 Y-66.485 Z2.212
X-166.783 Y-66.494 Z2.211
X-166.803 Y-66.514 Z2.21
X-166.812 Y-66.54 Z2.209
X-166.809 Y-66.568 Z2.208
X-166.794 Y-66.591 Z2.207
X-165.734 Y-67.652 Z2.155
X-165.71 Y-67.667 Z2.154
X-165.683 Y-67.67 Z2.153
X-165.656 Y-67.661 Z2.152
X-165.636 Y-67.642 Z2.151
X-165.627 Y-67.615 Z2.15
X-165.63 Y-67.588 Z2.149
X-165.645 Y-67.564 Z2.148
X-165.646 Y-67.563
X-166.706 Y-66.503 Z2.095
X-166.729 Y-66.488 Z2.094
X-166.757 Y-66.485 Z2.093
X-166.783 Y-66.494 Z2.092
X-166.803 Y-66.514 Z2.091
X-166.812 Y-66.54 Z2.09
X-166.809 Y-66.568 Z2.089
X-166.794 Y-66.591 Z2.088
X-165.734 Y-67.652 Z2.036
X-165.71 Y-67.667 Z2.035
X-165.683 Y-67.67 Z2.034
X-165.656 Y-67.661 Z2.033
X-165.636 Y-67.642 Z2.032
X-165.627 Y-67.615 Z2.031
X-165.63 Y-67.588 Z2.03
X-165.645 Y-67.564 Z2.029
X-165.646 Y-67.563
X-166.706 Y-66.503 Z1.977
X-166.729 Y-66.488 Z1.976
X-166.757 Y-66.485 Z1.975
X-166.783 Y-66.494 Z1.974
X-166.803 Y-66.514 Z1.973
X-166.812 Y-66.54 Z1.972
X-166.809 Y-66.568 Z1.971
X-166.794 Y-66.591 Z1.97
X-165.734 Y-67.652 Z1.918
X-165.71 Y-67.667 Z1.917
X-165.683 Y-67.67 Z1.916
X-165.656 Y-67.661 Z1.915
X-165.636 Y-67.642 Z1.914
X-165.627 Y-67.615 Z1.913
X-165.63 Y-67.588 Z1.912
X-165.645 Y-67.564 Z1.911
X-165.646 Y-67.563
X-166.706 Y-66.503 Z1.858
X-166.729 Y-66.488 Z1.857
X-166.757 Y-66.485 Z1.856
X-166.783 Y-66.494 Z1.855
X-166.803 Y-66.514 Z1.854
X-166.812 Y-66.54 Z1.853
X-166.809 Y-66.568 Z1.852
X-166.794 Y-66.591 Z1.851
X-165.734 Y-67.652 Z1.799
X-165.71 Y-67.667 Z1.798
X-165.683 Y-67.67 Z1.797
X-165.656 Y-67.661 Z1.796
X-165.636 Y-67.642 Z1.795
X-165.627 Y-67.615 Z1.794
X-165.63 Y-67.588 Z1.793
X-165.645 Y-67.564 Z1.792
X-165.646 Y-67.563
X-166.706 Y-66.503 Z1.74
X-166.729 Y-66.488 Z1.739
X-166.757 Y-66.485 Z1.738
X-166.783 Y-66.494 Z1.737
X-166.803 Y-66.514 Z1.736
X-166.812 Y-66.54 Z1.735
X-166.809 Y-66.568 Z1.734
X-166.794 Y-66.591 Z1.733
X-165.734 Y-67.652 Z1.681
X-165.71 Y-67.667 Z1.68
X-165.683 Y-67.67 Z1.679
X-165.656 Y-67.661 Z1.678
X-165.636 Y-67.642 Z1.677
X-165.627 Y-67.615 Z1.676
X-165.63 Y-67.588 Z1.675
X-165.645 Y-67.564 Z1.674
X-165.646 Y-67.563
X-166.706 Y-66.503 Z1.621
X-166.729 Y-66.488 Z1.62
X-166.757 Y-66.485 Z1.619
X-166.783 Y-66.494 Z1.618
X-166.803 Y-66.514 Z1.617
X-166.812 Y-66.54 Z1.616
X-166.809 Y-66.568 Z1.615
X-166.794 Y-66.591 Z1.614
X-165.734 Y-67.652 Z1.562
X-165.71 Y-67.667 Z1.561
X-165.683 Y-67.67 Z1.56
X-165.656 Y-67.661 Z1.559
X-165.636 Y-67.642 Z1.558
X-165.627 Y-67.615 Z1.557
X-165.63 Y-67.588 Z1.556
X-165.645 Y-67.564 Z1.555
X-165.646 Y-67.563
X-166.706 Y-66.503 Z1.503
X-166.729 Y-66.488 Z1.502
X-166.757 Y-66.485 Z1.501
X-166.783 Y-66.494 Z1.5
X-166.803 Y-66.514 Z1.499
X-166.812 Y-66.54 Z1.498
X-166.809 Y-66.568 Z1.497
X-166.794 Y-66.591 Z1.496
X-165.734 Y-67.652 Z1.444
X-165.71 Y-67.667 Z1.443
X-165.683 Y-67.67 Z1.442
X-165.656 Y-67.661 Z1.441
X-165.636 Y-67.642 Z1.44
X-165.627 Y-67.615 Z1.439
X-165.63 Y-67.588 Z1.438
X-165.645 Y-67.564 Z1.437
X-165.646 Y-67.563
X-166.706 Y-66.503 Z1.384
X-166.729 Y-66.488 Z1.383
X-166.757 Y-66.485 Z1.382
X-166.783 Y-66.494 Z1.381
X-166.803 Y-66.514 Z1.38
X-166.812 Y-66.54 Z1.379
X-166.809 Y-66.568 Z1.378
X-166.794 Y-66.591 Z1.377
X-165.734 Y-67.652 Z1.325
X-165.71 Y-67.667 Z1.324
X-165.683 Y-67.67 Z1.323
X-165.656 Y-67.661 Z1.322
X-165.636 Y-67.642 Z1.321
X-165.627 Y-67.615 Z1.32
X-165.63 Y-67.588 Z1.319
X-165.645 Y-67.564 Z1.318
X-165.646 Y-67.563
X-166.706 Y-66.503 Z1.266
X-166.729 Y-66.488 Z1.265
X-166.757 Y-66.485 Z1.264
X-166.783 Y-66.494 Z1.263
X-166.803 Y-66.514 Z1.262
X-166.812 Y-66.54 Z1.261
X-166.809 Y-66.568 Z1.26
X-166.794 Y-66.591 Z1.259
X-165.734 Y-67.652 Z1.207
X-165.71 Y-67.667 Z1.206
X-165.683 Y-67.67 Z1.205
X-165.656 Y-67.661 Z1.204
X-165.636 Y-67.642 Z1.203
X-165.627 Y-67.615 Z1.202
X-165.63 Y-67.588 Z1.201
X-165.645 Y-67.564 Z1.2
X-165.646 Y-67.563
X-166.706 Y-66.503 Z1.147
X-166.729 Y-66.488 Z1.146
X-166.757 Y-66.485 Z1.145
X-166.783 Y-66.494 Z1.144
X-166.803 Y-66.514 Z1.143
X-166.812 Y-66.54 Z1.142
X-166.809 Y-66.568 Z1.141
X-166.794 Y-66.591 Z1.14
X-165.734 Y-67.652 Z1.088
X-165.71 Y-67.667 Z1.087
X-165.683 Y-67.67 Z1.086
X-165.656 Y-67.661 Z1.085
X-165.636 Y-67.642 Z1.084
X-165.627 Y-67.615 Z1.083
X-165.63 Y-67.588 Z1.082
X-165.645 Y-67.564 Z1.081
X-165.646 Y-67.563
X-166.706 Y-66.503 Z1.029
X-166.729 Y-66.488 Z1.028
X-166.757 Y-66.485 Z1.027
X-166.783 Y-66.494 Z1.026
X-166.803 Y-66.514 Z1.025
X-166.812 Y-66.54 Z1.024
X-166.809 Y-66.568 Z1.023
X-166.794 Y-66.591 Z1.022
X-165.734 Y-67.652 Z0.97
X-165.71 Y-67.667 Z0.969
X-165.683 Y-67.67 Z0.968
X-165.656 Y-67.661 Z0.967
X-165.636 Y-67.642 Z0.966
X-165.627 Y-67.615 Z0.965
X-165.63 Y-67.588 Z0.964
X-165.645 Y-67.564 Z0.963
X-165.646 Y-67.563
X-166.706 Y-66.503 Z0.91
X-166.729 Y-66.488 Z0.909
X-166.757 Y-66.485 Z0.908
X-166.783 Y-66.494 Z0.907
X-166.803 Y-66.514 Z0.906
X-166.812 Y-66.54 Z0.905
X-166.809 Y-66.568 Z0.904
X-166.794 Y-66.591 Z0.903
X-165.734 Y-67.652 Z0.851
X-165.71 Y-67.667 Z0.85
X-165.683 Y-67.67 Z0.849
X-165.656 Y-67.661 Z0.848
X-165.636 Y-67.642 Z0.847
X-165.627 Y-67.615 Z0.846
X-165.63 Y-67.588 Z0.845
X-165.645 Y-67.564 Z0.844
X-165.646 Y-67.563
X-166.706 Y-66.503 Z0.792
X-166.729 Y-66.488 Z0.791
X-166.757 Y-66.485 Z0.79
X-166.783 Y-66.494 Z0.789
X-166.803 Y-66.514 Z0.788
X-166.812 Y-66.54 Z0.787
X-166.809 Y-66.568 Z0.786
X-166.794 Y-66.591 Z0.785
X-165.734 Y-67.652 Z0.732
X-165.71 Y-67.667
X-165.683 Y-67.67 Z0.731
X-165.656 Y-67.661 Z0.73
X-165.636 Y-67.642 Z0.729
X-165.627 Y-67.615 Z0.728
X-165.63 Y-67.588 Z0.727
X-165.645 Y-67.564 Z0.726
X-165.646 Y-67.563
X-166.706 Y-66.503 Z0.673
X-166.729 Y-66.488 Z0.672
X-166.757 Y-66.485 Z0.671
X-166.783 Y-66.494 Z0.67
X-166.803 Y-66.514 Z0.669
X-166.812 Y-66.54 Z0.668
X-166.809 Y-66.568 Z0.667
X-166.794 Y-66.591 Z0.666
X-165.734 Y-67.652 Z0.614
X-165.71 Y-67.667 Z0.613
X-165.683 Y-67.67 Z0.612
X-165.656 Y-67.661 Z0.611
X-165.636 Y-67.642 Z0.61
X-165.627 Y-67.615 Z0.609
X-165.63 Y-67.588 Z0.608
X-165.645 Y-67.564 Z0.607
X-165.646 Y-67.563
X-166.706 Y-66.503 Z0.555
X-166.729 Y-66.488 Z0.554
X-166.757 Y-66.485 Z0.553
X-166.783 Y-66.494 Z0.552
X-166.803 Y-66.514 Z0.551
X-166.812 Y-66.54 Z0.55
X-166.809 Y-66.568 Z0.549
X-166.794 Y-66.591 Z0.548
X-165.734 Y-67.652 Z0.495
X-165.71 Y-67.667
X-165.683 Y-67.67 Z0.494
X-165.656 Y-67.661 Z0.493
X-165.636 Y-67.642 Z0.492
X-165.627 Y-67.615 Z0.491
X-165.63 Y-67.588 Z0.49
X-165.645 Y-67.564 Z0.489
X-165.646 Y-67.563
X-166.706 Y-66.503 Z0.436
X-166.729 Y-66.488 Z0.435
X-166.757 Y-66.485 Z0.434
X-166.783 Y-66.494 Z0.433
X-166.803 Y-66.514 Z0.432
X-166.812 Y-66.54 Z0.431
X-166.809 Y-66.568 Z0.43
X-166.794 Y-66.591 Z0.429
X-165.734 Y-67.652 Z0.377
X-165.71 Y-67.667 Z0.376
X-165.683 Y-67.67 Z0.375
X-165.656 Y-67.661 Z0.374
X-165.636 Y-67.642 Z0.373
X-165.627 Y-67.615 Z0.372
X-165.63 Y-67.588 Z0.371
X-165.645 Y-67.564 Z0.37
X-165.646 Y-67.563
X-166.706 Y-66.503 Z0.318
X-166.729 Y-66.488 Z0.317
X-166.757 Y-66.485 Z0.316
X-166.783 Y-66.494 Z0.315
X-166.803 Y-66.514 Z0.314
X-166.812 Y-66.54 Z0.313
X-166.809 Y-66.568 Z0.312
X-166.794 Y-66.591 Z0.311
X-165.734 Y-67.652 Z0.258
X-165.71 Y-67.667 Z0.257
X-165.683 Y-67.67
X-165.656 Y-67.661 Z0.256
X-165.636 Y-67.642 Z0.255
X-165.627 Y-67.615 Z0.254
X-165.63 Y-67.588 Z0.253
X-165.645 Y-67.564 Z0.252
X-165.646 Y-67.563
X-166.706 Y-66.503 Z0.199
X-166.729 Y-66.488 Z0.198
X-166.757 Y-66.485 Z0.197
X-166.783 Y-66.494 Z0.196
X-166.803 Y-66.514 Z0.195
X-166.812 Y-66.54 Z0.194
X-166.809 Y-66.568 Z0.193
X-166.794 Y-66.591 Z0.192
X-165.734 Y-67.652 Z0.14
X-165.71 Y-67.667 Z0.139
X-165.683 Y-67.67 Z0.138
X-165.656 Y-67.661 Z0.137
X-165.636 Y-67.642 Z0.136
X-165.627 Y-67.615 Z0.135
X-165.63 Y-67.588 Z0.134
X-165.645 Y-67.564 Z0.133
X-165.646 Y-67.563
X-166.706 Y-66.503 Z0.081
X-166.729 Y-66.488 Z0.08
X-166.757 Y-66.485 Z0.079
X-166.783 Y-66.494 Z0.078
X-166.803 Y-66.514 Z0.077
X-166.812 Y-66.54 Z0.076
X-166.809 Y-66.568 Z0.075
X-166.794 Y-66.591 Z0.074
X-165.734 Y-67.652 Z0.021
X-165.71 Y-67.667 Z0.02
X-165.683 Y-67.67
X-165.656 Y-67.661 Z0.019
X-165.636 Y-67.642 Z0.018
X-165.627 Y-67.615 Z0.017
X-165.63 Y-67.588 Z0.016
X-165.645 Y-67.564 Z0.015
X-165.646 Y-67.563
X-166.706 Y-66.503 Z-0.038
X-166.729 Y-66.488 Z-0.039
X-166.757 Y-66.485 Z-0.04
X-166.783 Y-66.494 Z-0.041
X-166.803 Y-66.514 Z-0.042
X-166.812 Y-66.54 Z-0.043
X-166.809 Y-66.568 Z-0.044
X-166.794 Y-66.591 Z-0.045
X-165.734 Y-67.652 Z-0.097
X-165.71 Y-67.667 Z-0.098
X-165.683 Y-67.67 Z-0.099
X-165.656 Y-67.661 Z-0.1
X-165.636 Y-67.642 Z-0.101
X-165.627 Y-67.615 Z-0.102
X-165.63 Y-67.588 Z-0.103
X-165.645 Y-67.564 Z-0.104
X-165.646 Y-67.563
X-166.706 Y-66.503 Z-0.156
X-166.729 Y-66.488 Z-0.157
X-166.757 Y-66.485 Z-0.158
X-166.783 Y-66.494 Z-0.159
X-166.803 Y-66.514 Z-0.16
X-166.812 Y-66.54 Z-0.161
X-166.809 Y-66.568 Z-0.162
X-166.794 Y-66.591 Z-0.163
X-165.734 Y-67.652 Z-0.216
X-165.71 Y-67.667 Z-0.217
X-165.683 Y-67.67 Z-0.218
X-165.656 Y-67.661
X-165.636 Y-67.642 Z-0.219
X-165.627 Y-67.615 Z-0.22
X-165.63 Y-67.588 Z-0.221
X-165.645 Y-67.564 Z-0.222
X-165.646 Y-67.563
X-166.706 Y-66.503 Z-0.275
X-166.729 Y-66.488 Z-0.276
X-166.757 Y-66.485 Z-0.277
X-166.783 Y-66.494 Z-0.278
X-166.803 Y-66.514 Z-0.279
X-166.812 Y-66.54 Z-0.28
X-166.809 Y-66.568 Z-0.281
X-166.794 Y-66.591 Z-0.282
X-165.734 Y-67.652 Z-0.334
X-165.71 Y-67.667 Z-0.335
X-165.683 Y-67.67 Z-0.336
X-165.656 Y-67.661 Z-0.337
X-165.636 Y-67.642 Z-0.338
X-165.627 Y-67.615 Z-0.339
X-165.63 Y-67.588 Z-0.34
X-165.645 Y-67.564 Z-0.341
X-165.646 Y-67.563
X-166.706 Y-66.503 Z-0.393
X-166.729 Y-66.488 Z-0.394
X-166.757 Y-66.485 Z-0.395
X-166.783 Y-66.494 Z-0.396
X-166.803 Y-66.514 Z-0.397
X-166.812 Y-66.54 Z-0.398
X-166.809 Y-66.568 Z-0.399
X-166.794 Y-66.591 Z-0.4
X-165.734 Y-67.652 Z-0.453
X-165.71 Y-67.667 Z-0.454
X-165.683 Y-67.67 Z-0.455
X-165.656 Y-67.661 Z-0.456
X-165.636 Y-67.642
X-165.627 Y-67.615 Z-0.457
X-165.63 Y-67.588 Z-0.458
X-165.645 Y-67.564 Z-0.459
X-165.646 Y-67.563
X-166.706 Y-66.503 Z-0.512
X-166.729 Y-66.488 Z-0.513
X-166.757 Y-66.485 Z-0.514
X-166.783 Y-66.494 Z-0.515
X-166.803 Y-66.514 Z-0.516
X-166.812 Y-66.54 Z-0.517
X-166.809 Y-66.568 Z-0.518
X-166.794 Y-66.591 Z-0.519
X-165.734 Y-67.652 Z-0.571
X-165.71 Y-67.667 Z-0.572
X-165.683 Y-67.67 Z-0.573
X-165.656 Y-67.661 Z-0.574
X-165.636 Y-67.642 Z-0.575
X-165.627 Y-67.615 Z-0.576
X-165.63 Y-67.588 Z-0.577
X-165.645 Y-67.564 Z-0.578
X-165.646 Y-67.563
X-166.706 Y-66.503 Z-0.63
X-166.729 Y-66.488 Z-0.631
X-166.757 Y-66.485 Z-0.632
X-166.783 Y-66.494 Z-0.633
X-166.803 Y-66.514 Z-0.634
X-166.812 Y-66.54 Z-0.635
X-166.809 Y-66.568 Z-0.636
X-166.794 Y-66.591 Z-0.637
X-165.734 Y-67.652 Z-0.69
X-165.71 Y-67.667 Z-0.691
X-165.683 Y-67.67 Z-0.692
X-165.656 Y-67.661 Z-0.693
X-165.636 Y-67.642
X-165.627 Y-67.615 Z-0.694
X-165.63 Y-67.588 Z-0.695
X-165.645 Y-67.564 Z-0.696
X-165.646 Y-67.563
X-166.706 Y-66.503 Z-0.749
X-166.729 Y-66.488 Z-0.75
X-166.757 Y-66.485 Z-0.751
X-166.783 Y-66.494 Z-0.752
X-166.803 Y-66.514 Z-0.753
X-166.812 Y-66.54 Z-0.754
X-166.809 Y-66.568 Z-0.755
X-166.794 Y-66.591 Z-0.756
X-165.734 Y-67.652 Z-0.808
X-165.71 Y-67.667 Z-0.809
X-165.683 Y-67.67 Z-0.81
X-165.656 Y-67.661 Z-0.811
X-165.636 Y-67.642 Z-0.812
X-165.627 Y-67.615 Z-0.813
X-165.63 Y-67.588 Z-0.814
X-165.645 Y-67.564 Z-0.815
X-165.646 Y-67.563
X-166.706 Y-66.503 Z-0.867
X-166.729 Y-66.488 Z-0.868
X-166.757 Y-66.485 Z-0.869
X-166.783 Y-66.494 Z-0.87
X-166.803 Y-66.514 Z-0.871
X-166.812 Y-66.54 Z-0.872
X-166.809 Y-66.568 Z-0.873
X-166.794 Y-66.591 Z-0.874
X-165.734 Y-67.652 Z-0.927
X-165.71 Y-67.667 Z-0.928
X-165.683 Y-67.67 Z-0.929
X-165.656 Y-67.661 Z-0.93
X-165.636 Y-67.642 Z-0.931
X-165.627 Y-67.615
X-165.63 Y-67.588 Z-0.932
X-165.645 Y-67.564 Z-0.933
X-165.646 Y-67.563
X-166.706 Y-66.503 Z-0.986
X-166.729 Y-66.488 Z-0.987
X-166.757 Y-66.485 Z-0.988
X-166.783 Y-66.494 Z-0.989
X-166.803 Y-66.514 Z-0.99
X-166.812 Y-66.54 Z-0.991
X-166.809 Y-66.568 Z-0.992
X-166.794 Y-66.591 Z-0.993
X-165.734 Y-67.652 Z-1.045
X-165.71 Y-67.667 Z-1.046
X-165.683 Y-67.67 Z-1.047
X-165.656 Y-67.661 Z-1.048
X-165.636 Y-67.642 Z-1.049
X-165.627 Y-67.615 Z-1.05
X-165.63 Y-67.588 Z-1.051
X-165.645 Y-67.564 Z-1.052
X-165.646 Y-67.563
X-166.706 Y-66.503 Z-1.104
X-166.729 Y-66.488 Z-1.105
X-166.757 Y-66.485 Z-1.106
X-166.783 Y-66.494 Z-1.107
X-166.803 Y-66.514 Z-1.108
X-166.812 Y-66.54 Z-1.109
X-166.809 Y-66.568 Z-1.11
X-166.794 Y-66.591 Z-1.111
X-165.734 Y-67.652 Z-1.164
X-165.71 Y-67.667 Z-1.165
X-165.683 Y-67.67 Z-1.166
X-165.656 Y-67.661 Z-1.167
X-165.636 Y-67.642 Z-1.168
X-165.627 Y-67.615
X-165.63 Y-67.588 Z-1.169
X-165.645 Y-67.564 Z-1.17
X-165.646 Y-67.563
X-166.706 Y-66.503 Z-1.223
X-166.729 Y-66.488 Z-1.224
X-166.757 Y-66.485 Z-1.225
X-166.783 Y-66.494 Z-1.226
X-166.803 Y-66.514 Z-1.227
X-166.812 Y-66.54 Z-1.228
X-166.809 Y-66.568 Z-1.229
X-166.794 Y-66.591 Z-1.23
X-165.734 Y-67.652 Z-1.282
X-165.71 Y-67.667 Z-1.283
X-165.683 Y-67.67 Z-1.284
X-165.656 Y-67.661 Z-1.285
X-165.636 Y-67.642 Z-1.286
X-165.627 Y-67.615 Z-1.287
X-165.63 Y-67.588 Z-1.288
X-165.645 Y-67.564 Z-1.289
X-165.646 Y-67.563
X-166.706 Y-66.503 Z-1.341
X-166.729 Y-66.488 Z-1.342
X-166.757 Y-66.485 Z-1.343
X-166.783 Y-66.494 Z-1.344
X-166.803 Y-66.514 Z-1.345
X-166.812 Y-66.54 Z-1.346
X-166.809 Y-66.568 Z-1.347
X-166.794 Y-66.591 Z-1.348
X-165.734 Y-67.652 Z-1.401
X-165.71 Y-67.667 Z-1.402
X-165.683 Y-67.67 Z-1.403
X-165.656 Y-67.661 Z-1.404
X-165.636 Y-67.642 Z-1.405
X-165.627 Y-67.615 Z-1.406
X-165.63 Y-67.588
X-165.645 Y-67.564 Z-1.407
X-165.646 Y-67.563 Z-1.408
X-166.706 Y-66.503 Z-1.46
X-166.729 Y-66.488 Z-1.461
X-166.757 Y-66.485 Z-1.462
X-166.783 Y-66.494 Z-1.463
X-166.803 Y-66.514 Z-1.464
X-166.812 Y-66.54 Z-1.465
X-166.809 Y-66.568 Z-1.466
X-166.794 Y-66.591 Z-1.467
X-165.734 Y-67.652 Z-1.519
X-165.71 Y-67.667 Z-1.52
X-165.683 Y-67.67 Z-1.521
X-165.656 Y-67.661 Z-1.522
X-165.636 Y-67.642 Z-1.523
X-165.627 Y-67.615 Z-1.524
X-165.63 Y-67.588 Z-1.525
X-165.645 Y-67.564 Z-1.526
X-165.646 Y-67.563
X-166.706 Y-66.503 Z-1.578
X-166.729 Y-66.488 Z-1.579
X-166.757 Y-66.485 Z-1.58
X-166.783 Y-66.494 Z-1.581
X-166.803 Y-66.514 Z-1.582
X-166.812 Y-66.54 Z-1.583
X-166.809 Y-66.568 Z-1.584
X-166.794 Y-66.591 Z-1.585
X-165.734 Y-67.652 Z-1.638
X-165.71 Y-67.667 Z-1.639
X-165.683 Y-67.67 Z-1.64
X-165.656 Y-67.661 Z-1.641
X-165.636 Y-67.642 Z-1.642
X-165.627 Y-67.615 Z-1.643
X-165.63 Y-67.588 Z-1.644
X-165.645 Y-67.564
X-165.646 Y-67.563 Z-1.645
X-166.706 Y-66.503 Z-1.697
X-166.729 Y-66.488 Z-1.698
X-166.757 Y-66.485 Z-1.699
X-166.783 Y-66.494 Z-1.7
X-166.803 Y-66.514 Z-1.701
X-166.812 Y-66.54 Z-1.702
X-166.809 Y-66.568 Z-1.703
X-166.794 Y-66.591 Z-1.704
X-165.734 Y-67.652 Z-1.756
X-165.71 Y-67.667 Z-1.757
X-165.683 Y-67.67 Z-1.758
X-165.656 Y-67.661 Z-1.759
X-165.636 Y-67.642 Z-1.76
X-165.627 Y-67.615 Z-1.761
X-165.63 Y-67.588 Z-1.762
X-165.645 Y-67.564 Z-1.763
X-165.646 Y-67.563
X-166.706 Y-66.503 Z-1.815
X-166.729 Y-66.488 Z-1.816
X-166.757 Y-66.485 Z-1.817
X-166.783 Y-66.494 Z-1.818
X-166.803 Y-66.514 Z-1.819
X-166.812 Y-66.54 Z-1.82
X-166.809 Y-66.568 Z-1.821
X-166.794 Y-66.591 Z-1.822
X-165.734 Y-67.652 Z-1.875
X-165.71 Y-67.667 Z-1.876
X-165.683 Y-67.67 Z-1.877
X-165.656 Y-67.661 Z-1.878
X-165.636 Y-67.642 Z-1.879
X-165.627 Y-67.615 Z-1.88
X-165.63 Y-67.588 Z-1.881
X-165.645 Y-67.564
X-165.646 Y-67.563 Z-1.882
X-166.706 Y-66.503 Z-1.934
X-166.729 Y-66.488 Z-1.935
X-166.757 Y-66.485 Z-1.936
X-166.783 Y-66.494 Z-1.937
X-166.803 Y-66.514 Z-1.938
X-166.812 Y-66.54 Z-1.939
X-166.809 Y-66.568 Z-1.94
X-166.794 Y-66.591 Z-1.941
X-165.734 Y-67.652 Z-1.993
X-165.71 Y-67.667 Z-1.994
X-165.683 Y-67.67 Z-1.995
X-165.656 Y-67.661 Z-1.996
X-165.636 Y-67.642 Z-1.997
X-165.627 Y-67.615 Z-1.998
X-165.63 Y-67.588 Z-1.999
X-165.645 Y-67.564 Z-2
S6000
X-165.646 Y-67.563 F1000
X-166.706 Y-66.503
X-166.729 Y-66.488
X-166.757 Y-66.485
X-166.783 Y-66.494
X-166.803 Y-66.514
X-166.812 Y-66.54
X-166.809 Y-66.568
X-166.794 Y-66.591
X-165.734 Y-67.652
X-165.71 Y-67.667
X-165.683 Y-67.67
X-165.656 Y-67.661
X-165.636 Y-67.642
X-165.627 Y-67.615
X-165.63 Y-67.588
X-165.645 Y-67.564
S5000
X-165.646 Y-67.563 F333.3
X-166.706 Y-66.503 Z-2.052
X-166.729 Y-66.488 Z-2.053
X-166.757 Y-66.485 Z-2.054
X-166.783 Y-66.494 Z-2.055
X-166.803 Y-66.514 Z-2.056
X-166.812 Y-66.54 Z-2.057
X-166.809 Y-66.568 Z-2.058
X-166.794 Y-66.591 Z-2.059
X-165.734 Y-67.652 Z-2.112
X-165.71 Y-67.667 Z-2.113
X-165.683 Y-67.67 Z-2.114
X-165.656 Y-67.661 Z-2.115
X-165.636 Y-67.642 Z-2.116
X-165.627 Y-67.615 Z-2.117
X-165.63 Y-67.588 Z-2.118
X-165.645 Y-67.564 Z-2.119
X-165.646 Y-67.563
X-166.706 Y-66.503 Z-2.171
X-166.729 Y-66.488 Z-2.172
X-166.757 Y-66.485 Z-2.173
X-166.783 Y-66.494 Z-2.174
X-166.803 Y-66.514 Z-2.175
X-166.812 Y-66.54 Z-2.176
X-166.809 Y-66.568 Z-2.177
X-166.794 Y-66.591 Z-2.178
X-165.734 Y-67.652 Z-2.23
X-165.71 Y-67.667 Z-2.231
X-165.683 Y-67.67 Z-2.232
X-165.656 Y-67.661 Z-2.233
X-165.636 Y-67.642 Z-2.234
X-165.627 Y-67.615 Z-2.235
X-165.63 Y-67.588 Z-2.236
X-165.645 Y-67.564 Z-2.237
X-165.646 Y-67.563
X-166.706 Y-66.503 Z-2.289
X-166.729 Y-66.488 Z-2.29
X-166.757 Y-66.485 Z-2.291
X-166.783 Y-66.494 Z-2.292
X-166.803 Y-66.514 Z-2.293
X-166.812 Y-66.54 Z-2.294
X-166.809 Y-66.568 Z-2.295
X-166.794 Y-66.591 Z-2.296
X-165.734 Y-67.652 Z-2.349
X-165.71 Y-67.667 Z-2.35
X-165.683 Y-67.67 Z-2.351
X-165.656 Y-67.661 Z-2.352
X-165.636 Y-67.642 Z-2.353
X-165.627 Y-67.615 Z-2.354
X-165.63 Y-67.588 Z-2.355
X-165.645 Y-67.564 Z-2.356
X-165.646 Y-67.563
X-166.706 Y-66.503 Z-2.408
X-166.729 Y-66.488 Z-2.409
X-166.757 Y-66.485 Z-2.41
X-166.783 Y-66.494 Z-2.411
X-166.803 Y-66.514 Z-2.412
X-166.812 Y-66.54 Z-2.413
X-166.809 Y-66.568 Z-2.414
X-166.794 Y-66.591 Z-2.415
X-165.734 Y-67.652 Z-2.467
X-165.71 Y-67.667 Z-2.468
X-165.683 Y-67.67 Z-2.469
X-165.656 Y-67.661 Z-2.47
X-165.636 Y-67.642 Z-2.471
X-165.627 Y-67.615 Z-2.472
X-165.63 Y-67.588 Z-2.473
X-165.645 Y-67.564 Z-2.474
X-165.646 Y-67.563
X-166.706 Y-66.503 Z-2.526
X-166.729 Y-66.488 Z-2.527
X-166.757 Y-66.485 Z-2.528
X-166.783 Y-66.494 Z-2.529
X-166.803 Y-66.514 Z-2.53
X-166.812 Y-66.54 Z-2.531
X-166.809 Y-66.568 Z-2.532
X-166.794 Y-66.591 Z-2.533
X-165.734 Y-67.652 Z-2.586
X-165.71 Y-67.667 Z-2.587
X-165.683 Y-67.67 Z-2.588
X-165.656 Y-67.661 Z-2.589
X-165.636 Y-67.642 Z-2.59
X-165.627 Y-67.615 Z-2.591
X-165.63 Y-67.588 Z-2.592
X-165.645 Y-67.564 Z-2.593
X-165.646 Y-67.563
X-166.706 Y-66.503 Z-2.645
X-166.729 Y-66.488 Z-2.646
X-166.757 Y-66.485 Z-2.647
X-166.783 Y-66.494 Z-2.648
X-166.803 Y-66.514 Z-2.649
X-166.812 Y-66.54 Z-2.65
X-166.809 Y-66.568 Z-2.651
X-166.794 Y-66.591 Z-2.652
X-165.734 Y-67.652 Z-2.704
X-165.71 Y-67.667 Z-2.705
X-165.683 Y-67.67 Z-2.706
X-165.656 Y-67.661 Z-2.707
X-165.636 Y-67.642 Z-2.708
X-165.627 Y-67.615 Z-2.709
X-165.63 Y-67.588 Z-2.71
X-165.645 Y-67.564 Z-2.711
X-165.646 Y-67.563
X-166.706 Y-66.503 Z-2.763
X-166.729 Y-66.488 Z-2.764
X-166.757 Y-66.485 Z-2.765
X-166.783 Y-66.494 Z-2.766
X-166.803 Y-66.514 Z-2.767
X-166.812 Y-66.54 Z-2.768
X-166.809 Y-66.568 Z-2.769
X-166.794 Y-66.591 Z-2.77
X-165.734 Y-67.652 Z-2.823
X-165.71 Y-67.667 Z-2.824
X-165.683 Y-67.67 Z-2.825
X-165.656 Y-67.661 Z-2.826
X-165.636 Y-67.642 Z-2.827
X-165.627 Y-67.615 Z-2.828
X-165.63 Y-67.588 Z-2.829
X-165.645 Y-67.564 Z-2.83
X-165.646 Y-67.563
X-166.706 Y-66.503 Z-2.882
X-166.729 Y-66.488 Z-2.883
X-166.757 Y-66.485 Z-2.884
X-166.783 Y-66.494 Z-2.885
X-166.803 Y-66.514 Z-2.886
X-166.812 Y-66.54 Z-2.887
X-166.809 Y-66.568 Z-2.888
X-166.794 Y-66.591 Z-2.889
X-165.734 Y-67.652 Z-2.941
X-165.71 Y-67.667 Z-2.942
X-165.683 Y-67.67 Z-2.943
X-165.656 Y-67.661 Z-2.944
X-165.636 Y-67.642 Z-2.945
X-165.627 Y-67.615 Z-2.946
X-165.63 Y-67.588 Z-2.947
X-165.645 Y-67.564 Z-2.948
X-165.646 Y-67.563
X-166.706 Y-66.503 Z-3
X-166.729 Y-66.488 Z-3.001
X-166.757 Y-66.485 Z-3.002
X-166.783 Y-66.494 Z-3.003
X-166.803 Y-66.514 Z-3.004
X-166.812 Y-66.54 Z-3.005
X-166.809 Y-66.568 Z-3.006
X-166.794 Y-66.591 Z-3.007
X-165.734 Y-67.652 Z-3.06
X-165.71 Y-67.667 Z-3.061
X-165.683 Y-67.67 Z-3.062
X-165.656 Y-67.661 Z-3.063
X-165.636 Y-67.642 Z-3.064
X-165.627 Y-67.615 Z-3.065
X-165.63 Y-67.588 Z-3.066
X-165.645 Y-67.564 Z-3.067
X-165.646 Y-67.563
X-166.322 Y-66.887 Z-3.1
S6000
X-166.706 Y-66.503 F1000
X-166.729 Y-66.488
X-166.757 Y-66.485
X-166.783 Y-66.494
X-166.803 Y-66.514
X-166.812 Y-66.54
X-166.809 Y-66.568
X-166.794 Y-66.591
X-165.734 Y-67.652
X-165.71 Y-67.667
X-165.683 Y-67.67
X-165.656 Y-67.661
X-165.636 Y-67.642
X-165.627 Y-67.615
X-165.63 Y-67.588
X-165.645 Y-67.564
X-165.646 Y-67.563
X-166.322 Y-66.887
S5000
X-166.706 Y-66.503 Z-3.119 F333.3
X-166.729 Y-66.488 Z-3.12
X-166.757 Y-66.485 Z-3.121
X-166.783 Y-66.494 Z-3.122
X-166.803 Y-66.514 Z-3.123
X-166.812 Y-66.54 Z-3.124
X-166.809 Y-66.568 Z-3.125
X-166.794 Y-66.591 Z-3.126
X-165.734 Y-67.652 Z-3.178
X-165.71 Y-67.667 Z-3.179
X-165.683 Y-67.67 Z-3.18
X-165.656 Y-67.661 Z-3.181
X-165.636 Y-67.642 Z-3.182
X-165.627 Y-67.615 Z-3.183
X-165.63 Y-67.588 Z-3.184
X-165.645 Y-67.564 Z-3.185
X-165.646 Y-67.563
X-166.706 Y-66.503 Z-3.237
X-166.729 Y-66.488 Z-3.238
X-166.757 Y-66.485 Z-3.239
X-166.783 Y-66.494 Z-3.24
X-166.803 Y-66.514 Z-3.241
X-166.812 Y-66.54 Z-3.242
X-166.809 Y-66.568 Z-3.243
X-166.794 Y-66.591 Z-3.244
X-165.734 Y-67.652 Z-3.297
X-165.71 Y-67.667 Z-3.298
X-165.683 Y-67.67 Z-3.299
X-165.656 Y-67.661 Z-3.3
X-165.636 Y-67.642 Z-3.301
X-165.627 Y-67.615 Z-3.302
X-165.63 Y-67.588 Z-3.303
X-165.645 Y-67.564 Z-3.304
X-165.646 Y-67.563
X-166.706 Y-66.503 Z-3.356
X-166.729 Y-66.488 Z-3.357
X-166.757 Y-66.485 Z-3.358
X-166.783 Y-66.494 Z-3.359
X-166.803 Y-66.514 Z-3.36
X-166.812 Y-66.54 Z-3.361
X-166.809 Y-66.568 Z-3.362
X-166.794 Y-66.591 Z-3.363
X-165.734 Y-67.652 Z-3.415
X-165.71 Y-67.667 Z-3.416
X-165.683 Y-67.67 Z-3.417
X-165.656 Y-67.661 Z-3.418
X-165.636 Y-67.642 Z-3.419
X-165.627 Y-67.615 Z-3.42
X-165.63 Y-67.588 Z-3.421
X-165.645 Y-67.564 Z-3.422
X-165.646 Y-67.563
X-166.706 Y-66.503 Z-3.474
X-166.729 Y-66.488 Z-3.475
X-166.757 Y-66.485 Z-3.476
X-166.783 Y-66.494 Z-3.477
X-166.803 Y-66.514 Z-3.478
X-166.812 Y-66.54 Z-3.479
X-166.809 Y-66.568 Z-3.48
X-166.794 Y-66.591 Z-3.481
X-165.734 Y-67.652 Z-3.534
X-165.71 Y-67.667 Z-3.535
X-165.683 Y-67.67 Z-3.536
X-165.656 Y-67.661 Z-3.537
X-165.636 Y-67.642 Z-3.538
X-165.627 Y-67.615 Z-3.539
X-165.63 Y-67.588 Z-3.54
X-165.645 Y-67.564 Z-3.541
X-165.646 Y-67.563
X-166.706 Y-66.503 Z-3.593
X-166.729 Y-66.488 Z-3.594
X-166.757 Y-66.485 Z-3.595
X-166.783 Y-66.494 Z-3.596
X-166.803 Y-66.514 Z-3.597
X-166.812 Y-66.54 Z-3.598
X-166.809 Y-66.568 Z-3.599
X-166.794 Y-66.591 Z-3.6
X-165.734 Y-67.652 Z-3.652
X-165.71 Y-67.667 Z-3.653
X-165.683 Y-67.67 Z-3.654
X-165.656 Y-67.661 Z-3.655
X-165.636 Y-67.642 Z-3.656
X-165.627 Y-67.615 Z-3.657
X-165.63 Y-67.588 Z-3.658
X-165.645 Y-67.564 Z-3.659
X-165.646 Y-67.563
X-166.706 Y-66.503 Z-3.711
X-166.729 Y-66.488 Z-3.712
X-166.757 Y-66.485 Z-3.713
X-166.783 Y-66.494 Z-3.714
X-166.803 Y-66.514 Z-3.715
X-166.812 Y-66.54 Z-3.716
X-166.809 Y-66.568 Z-3.717
X-166.794 Y-66.591 Z-3.718
X-165.734 Y-67.652 Z-3.771
X-165.71 Y-67.667 Z-3.772
X-165.683 Y-67.67 Z-3.773
X-165.656 Y-67.661 Z-3.774
X-165.636 Y-67.642 Z-3.775
X-165.627 Y-67.615 Z-3.776
X-165.63 Y-67.588 Z-3.777
X-165.645 Y-67.564 Z-3.778
X-165.646 Y-67.563
X-166.706 Y-66.503 Z-3.83
X-166.729 Y-66.488 Z-3.831
X-166.757 Y-66.485 Z-3.832
X-166.783 Y-66.494 Z-3.833
X-166.803 Y-66.514 Z-3.834
X-166.812 Y-66.54 Z-3.835
X-166.809 Y-66.568 Z-3.836
X-166.794 Y-66.591 Z-3.837
X-165.734 Y-67.652 Z-3.889
X-165.71 Y-67.667 Z-3.89
X-165.683 Y-67.67 Z-3.891
X-165.656 Y-67.661 Z-3.892
X-165.636 Y-67.642 Z-3.893
X-165.627 Y-67.615 Z-3.894
X-165.63 Y-67.588 Z-3.895
X-165.645 Y-67.564 Z-3.896
X-165.646 Y-67.563
X-166.706 Y-66.503 Z-3.948
X-166.729 Y-66.488 Z-3.949
X-166.757 Y-66.485 Z-3.95
X-166.783 Y-66.494 Z-3.951
X-166.803 Y-66.514 Z-3.952
X-166.812 Y-66.54 Z-3.953
X-166.809 Y-66.568 Z-3.954
X-166.794 Y-66.591 Z-3.955
X-165.734 Y-67.652 Z-4.008
X-165.71 Y-67.667 Z-4.009
X-165.683 Y-67.67 Z-4.01
X-165.656 Y-67.661 Z-4.011
X-165.636 Y-67.642 Z-4.012
X-165.627 Y-67.615 Z-4.013
X-165.63 Y-67.588 Z-4.014
X-165.645 Y-67.564 Z-4.015
X-165.646 Y-67.563
X-166.706 Y-66.503 Z-4.067
X-166.729 Y-66.488 Z-4.068
X-166.757 Y-66.485 Z-4.069
X-166.783 Y-66.494 Z-4.07
X-166.803 Y-66.514 Z-4.071
X-166.812 Y-66.54 Z-4.072
X-166.809 Y-66.568 Z-4.073
X-166.794 Y-66.591 Z-4.074
X-165.734 Y-67.652 Z-4.126
X-165.71 Y-67.667 Z-4.127
X-165.683 Y-67.67 Z-4.128
X-165.656 Y-67.661 Z-4.129
X-165.636 Y-67.642 Z-4.13
X-165.627 Y-67.615 Z-4.131
X-165.63 Y-67.588 Z-4.132
X-165.645 Y-67.564 Z-4.133
X-165.646 Y-67.563
X-166.706 Y-66.503 Z-4.186
X-166.729 Y-66.488
X-166.757 Y-66.485 Z-4.187
X-166.783 Y-66.494 Z-4.188
X-166.803 Y-66.514 Z-4.189
X-166.812 Y-66.54 Z-4.19
X-166.809 Y-66.568 Z-4.191
X-166.794 Y-66.591 Z-4.192
X-166.64 Y-66.746 Z-4.2
S6000
X-165.734 Y-67.652 F1000
X-165.71 Y-67.667
X-165.683 Y-67.67
X-165.656 Y-67.661
X-165.636 Y-67.642
X-165.627 Y-67.615
X-165.63 Y-67.588
X-165.645 Y-67.564
X-165.646 Y-67.563
X-166.322 Y-66.887
X-166.706 Y-66.503
X-166.729 Y-66.488
X-166.757 Y-66.485
X-166.783 Y-66.494
X-166.803 Y-66.514
X-166.812 Y-66.54
X-166.809 Y-66.568
X-166.794 Y-66.591
X-166.64 Y-66.746
X-166.636 Y-66.749
X-166.633 Y-66.751 Z-4.199
X-166.629 Y-66.753 Z-4.197
X-166.625 Y-66.754 Z-4.194
X-166.621 Y-66.755 Z-4.191
X-166.618 Z-4.188
X-166.616 Z-4.184
X-166.614 Y-66.754 Z-4.179
X-166.613 Z-4.175
Z-4.17
Z5
X-179.173 Y-67.648
Z3 F333.3
Z2.5
S5000
X-179.153 Y-67.664 Z2.499
X-179.128 Y-67.671 Z2.498
X-179.102 Y-67.666 Z2.497
X-179.081 Y-67.652 Z2.496
X-178.02 Y-66.591 Z2.444
X-178.005 Y-66.568 Z2.443
X-178.002 Y-66.54 Z2.442
X-178.011 Y-66.514 Z2.441
X-178.031 Y-66.494 Z2.44
X-178.057 Y-66.485 Z2.439
X-178.085 Y-66.488 Z2.438
X-178.108 Y-66.503 Z2.437
X-179.168 Y-67.563 Z2.385
X-179.169 Y-67.564
X-179.184 Y-67.588 Z2.384
X-179.187 Y-67.615 Z2.383
X-179.178 Y-67.641 Z2.382
X-179.158 Y-67.661 Z2.381
X-179.132 Y-67.67 Z2.38
X-179.104 Y-67.667 Z2.379
X-179.081 Y-67.652 Z2.378
X-178.02 Y-66.591 Z2.325
X-178.005 Y-66.568 Z2.324
X-178.002 Y-66.54
X-178.011 Y-66.514 Z2.323
X-178.031 Y-66.494 Z2.322
X-178.057 Y-66.485 Z2.321
X-178.085 Y-66.488 Z2.32
X-178.108 Y-66.503 Z2.319
X-179.168 Y-67.563 Z2.266
X-179.169 Y-67.564
X-179.184 Y-67.588 Z2.265
X-179.187 Y-67.615 Z2.264
X-179.178 Y-67.641 Z2.263
X-179.158 Y-67.661 Z2.262
X-179.132 Y-67.67 Z2.261
X-179.104 Y-67.667 Z2.26
X-179.081 Y-67.652 Z2.259
X-178.02 Y-66.591 Z2.207
X-178.005 Y-66.568 Z2.206
X-178.002 Y-66.54 Z2.205
X-178.011 Y-66.514 Z2.204
X-178.031 Y-66.494 Z2.203
X-178.057 Y-66.485 Z2.202
X-178.085 Y-66.488 Z2.201
X-178.108 Y-66.503 Z2.2
X-179.168 Y-67.563 Z2.148
X-179.169 Y-67.564
X-179.184 Y-67.588 Z2.147
X-179.187 Y-67.615 Z2.146
X-179.178 Y-67.641 Z2.145
X-179.158 Y-67.661 Z2.144
X-179.132 Y-67.67 Z2.143
X-179.104 Y-67.667 Z2.142
X-179.081 Y-67.652 Z2.141
X-178.02 Y-66.591 Z2.088
X-178.005 Y-66.568 Z2.087
X-178.002 Y-66.54
X-178.011 Y-66.514 Z2.086
X-178.031 Y-66.494 Z2.085
X-178.057 Y-66.485 Z2.084
X-178.085 Y-66.488 Z2.083
X-178.108 Y-66.503 Z2.082
X-179.168 Y-67.563 Z2.029
X-179.169 Y-67.564
X-179.184 Y-67.588 Z2.028
X-179.187 Y-67.615 Z2.027
X-179.178 Y-67.641 Z2.026
X-179.158 Y-67.661 Z2.025
X-179.132 Y-67.67 Z2.024
X-179.104 Y-67.667 Z2.023
X-179.081 Y-67.652 Z2.022
X-178.02 Y-66.591 Z1.97
X-178.005 Y-66.568 Z1.969
X-178.002 Y-66.54 Z1.968
X-178.011 Y-66.514 Z1.967
X-178.031 Y-66.494 Z1.966
X-178.057 Y-66.485 Z1.965
X-178.085 Y-66.488 Z1.964
X-178.108 Y-66.503 Z1.963
X-179.168 Y-67.563 Z1.911
X-179.169 Y-67.564
X-179.184 Y-67.588 Z1.91
X-179.187 Y-67.615 Z1.909
X-179.178 Y-67.641 Z1.908
X-179.158 Y-67.661 Z1.907
X-179.132 Y-67.67 Z1.906
X-179.104 Y-67.667 Z1.905
X-179.081 Y-67.652 Z1.904
X-178.02 Y-66.591 Z1.851
X-178.005 Y-66.568 Z1.85
X-178.002 Y-66.54 Z1.849
X-178.011 Y-66.514
X-178.031 Y-66.494 Z1.848
X-178.057 Y-66.485 Z1.847
X-178.085 Y-66.488 Z1.846
X-178.108 Y-66.503 Z1.845
X-179.168 Y-67.563 Z1.792
X-179.169 Y-67.564
X-179.184 Y-67.588 Z1.791
X-179.187 Y-67.615 Z1.79
X-179.178 Y-67.641 Z1.789
X-179.158 Y-67.661 Z1.788
X-179.132 Y-67.67 Z1.787
X-179.104 Y-67.667 Z1.786
X-179.081 Y-67.652 Z1.785
X-178.02 Y-66.591 Z1.733
X-178.005 Y-66.568 Z1.732
X-178.002 Y-66.54 Z1.731
X-178.011 Y-66.514 Z1.73
X-178.031 Y-66.494 Z1.729
X-178.057 Y-66.485 Z1.728
X-178.085 Y-66.488 Z1.727
X-178.108 Y-66.503 Z1.726
X-179.168 Y-67.563 Z1.674
X-179.169 Y-67.564
X-179.184 Y-67.588 Z1.673
X-179.187 Y-67.615 Z1.672
X-179.178 Y-67.641 Z1.671
X-179.158 Y-67.661 Z1.67
X-179.132 Y-67.67 Z1.669
X-179.104 Y-67.667 Z1.668
X-179.081 Y-67.652 Z1.667
X-178.02 Y-66.591 Z1.614
X-178.005 Y-66.568 Z1.613
X-178.002 Y-66.54 Z1.612
X-178.011 Y-66.514 Z1.611
X-178.031 Y-66.494
X-178.057 Y-66.485 Z1.61
X-178.085 Y-66.488 Z1.609
X-178.108 Y-66.503 Z1.608
X-179.168 Y-67.563 Z1.555
X-179.169 Y-67.564
X-179.184 Y-67.588 Z1.554
X-179.187 Y-67.615 Z1.553
X-179.178 Y-67.641 Z1.552
X-179.158 Y-67.661 Z1.551
X-179.132 Y-67.67 Z1.55
X-179.104 Y-67.667 Z1.549
X-179.081 Y-67.652 Z1.548
X-178.02 Y-66.591 Z1.496
X-178.005 Y-66.568 Z1.495
X-178.002 Y-66.54 Z1.494
X-178.011 Y-66.514 Z1.493
X-178.031 Y-66.494 Z1.492
X-178.057 Y-66.485 Z1.491
X-178.085 Y-66.488 Z1.49
X-178.108 Y-66.503 Z1.489
X-179.168 Y-67.563 Z1.437
X-179.169 Y-67.564
X-179.184 Y-67.588 Z1.436
X-179.187 Y-67.615 Z1.435
X-179.178 Y-67.641 Z1.434
X-179.158 Y-67.661 Z1.433
X-179.132 Y-67.67 Z1.432
X-179.104 Y-67.667 Z1.431
X-179.081 Y-67.652 Z1.43
X-178.02 Y-66.591 Z1.377
X-178.005 Y-66.568 Z1.376
X-178.002 Y-66.54 Z1.375
X-178.011 Y-66.514 Z1.374
X-178.031 Y-66.494
X-178.057 Y-66.485 Z1.373
X-178.085 Y-66.488 Z1.372
X-178.108 Y-66.503 Z1.371
X-179.168 Y-67.563 Z1.318
X-179.169 Y-67.564
X-179.184 Y-67.588 Z1.317
X-179.187 Y-67.615 Z1.316
X-179.178 Y-67.641 Z1.315
X-179.158 Y-67.661 Z1.314
X-179.132 Y-67.67 Z1.313
X-179.104 Y-67.667 Z1.312
X-179.081 Y-67.652 Z1.311
X-178.02 Y-66.591 Z1.259
X-178.005 Y-66.568 Z1.258
X-178.002 Y-66.54 Z1.257
X-178.011 Y-66.514 Z1.256
X-178.031 Y-66.494 Z1.255
X-178.057 Y-66.485 Z1.254
X-178.085 Y-66.488 Z1.253
X-178.108 Y-66.503 Z1.252
X-179.168 Y-67.563 Z1.2
X-179.169 Y-67.564
X-179.184 Y-67.588 Z1.199
X-179.187 Y-67.615 Z1.198
X-179.178 Y-67.641 Z1.197
X-179.158 Y-67.661 Z1.196
X-179.132 Y-67.67 Z1.195
X-179.104 Y-67.667 Z1.194
X-179.081 Y-67.652 Z1.193
X-178.02 Y-66.591 Z1.14
X-178.005 Y-66.568 Z1.139
X-178.002 Y-66.54 Z1.138
X-178.011 Y-66.514 Z1.137
X-178.031 Y-66.494 Z1.136
X-178.057 Y-66.485
X-178.085 Y-66.488 Z1.135
X-178.108 Y-66.503 Z1.134
X-179.168 Y-67.563 Z1.081
X-179.169 Y-67.564
X-179.184 Y-67.588 Z1.08
X-179.187 Y-67.615 Z1.079
X-179.178 Y-67.641 Z1.078
X-179.158 Y-67.661 Z1.077
X-179.132 Y-67.67 Z1.076
X-179.104 Y-67.667 Z1.075
X-179.081 Y-67.652 Z1.074
X-178.02 Y-66.591 Z1.022
X-178.005 Y-66.568 Z1.021
X-178.002 Y-66.54 Z1.02
X-178.011 Y-66.514 Z1.019
X-178.031 Y-66.494 Z1.018
X-178.057 Y-66.485 Z1.017
X-178.085 Y-66.488 Z1.016
X-178.108 Y-66.503 Z1.015
X-179.168 Y-67.563 Z0.963
X-179.169 Y-67.564
X-179.184 Y-67.588 Z0.962
X-179.187 Y-67.615 Z0.961
X-179.178 Y-67.641 Z0.96
X-179.158 Y-67.661 Z0.959
X-179.132 Y-67.67 Z0.958
X-179.104 Y-67.667 Z0.957
X-179.081 Y-67.652 Z0.956
X-178.02 Y-66.591 Z0.903
X-178.005 Y-66.568 Z0.902
X-178.002 Y-66.54 Z0.901
X-178.011 Y-66.514 Z0.9
X-178.031 Y-66.494 Z0.899
X-178.057 Y-66.485 Z0.898
X-178.085 Y-66.488
X-178.108 Y-66.503 Z0.897
X-179.168 Y-67.563 Z0.844
X-179.169 Y-67.564
X-179.184 Y-67.588 Z0.843
X-179.187 Y-67.615 Z0.842
X-179.178 Y-67.641 Z0.841
X-179.158 Y-67.661 Z0.84
X-179.132 Y-67.67 Z0.839
X-179.104 Y-67.667 Z0.838
X-179.081 Y-67.652 Z0.837
X-178.02 Y-66.591 Z0.785
X-178.005 Y-66.568 Z0.784
X-178.002 Y-66.54 Z0.783
X-178.011 Y-66.514 Z0.782
X-178.031 Y-66.494 Z0.781
X-178.057 Y-66.485 Z0.78
X-178.085 Y-66.488 Z0.779
X-178.108 Y-66.503 Z0.778
X-179.168 Y-67.563 Z0.726
X-179.169 Y-67.564
X-179.184 Y-67.588 Z0.725
X-179.187 Y-67.615 Z0.724
X-179.178 Y-67.641 Z0.723
X-179.158 Y-67.661 Z0.722
X-179.132 Y-67.67 Z0.721
X-179.104 Y-67.667 Z0.72
X-179.081 Y-67.652 Z0.719
X-178.02 Y-66.591 Z0.666
X-178.005 Y-66.568 Z0.665
X-178.002 Y-66.54 Z0.664
X-178.011 Y-66.514 Z0.663
X-178.031 Y-66.494 Z0.662
X-178.057 Y-66.485 Z0.661
X-178.085 Y-66.488
X-178.108 Y-66.503 Z0.66
X-179.168 Y-67.563 Z0.607
X-179.169 Y-67.564
X-179.184 Y-67.588 Z0.606
X-179.187 Y-67.615 Z0.605
X-179.178 Y-67.641 Z0.604
X-179.158 Y-67.661 Z0.603
X-179.132 Y-67.67 Z0.602
X-179.104 Y-67.667 Z0.601
X-179.081 Y-67.652 Z0.6
X-178.02 Y-66.591 Z0.548
X-178.005 Y-66.568 Z0.547
X-178.002 Y-66.54 Z0.546
X-178.011 Y-66.514 Z0.545
X-178.031 Y-66.494 Z0.544
X-178.057 Y-66.485 Z0.543
X-178.085 Y-66.488 Z0.542
X-178.108 Y-66.503 Z0.541
X-179.168 Y-67.563 Z0.489
X-179.169 Y-67.564
X-179.184 Y-67.588 Z0.488
X-179.187 Y-67.615 Z0.487
X-179.178 Y-67.641 Z0.486
X-179.158 Y-67.661 Z0.485
X-179.132 Y-67.67 Z0.484
X-179.104 Y-67.667 Z0.483
X-179.081 Y-67.652 Z0.482
X-178.02 Y-66.591 Z0.429
X-178.005 Y-66.568 Z0.428
X-178.002 Y-66.54 Z0.427
X-178.011 Y-66.514 Z0.426
X-178.031 Y-66.494 Z0.425
X-178.057 Y-66.485 Z0.424
X-178.085 Y-66.488 Z0.423
X-178.108 Y-66.503
X-179.168 Y-67.563 Z0.37
X-179.169 Y-67.564
X-179.184 Y-67.588 Z0.369
X-179.187 Y-67.615 Z0.368
X-179.178 Y-67.641 Z0.367
X-179.158 Y-67.661 Z0.366
X-179.132 Y-67.67 Z0.365
X-179.104 Y-67.667 Z0.364
X-179.081 Y-67.652 Z0.363
X-178.02 Y-66.591 Z0.311
X-178.005 Y-66.568 Z0.31
X-178.002 Y-66.54 Z0.309
X-178.011 Y-66.514 Z0.308
X-178.031 Y-66.494 Z0.307
X-178.057 Y-66.485 Z0.306
X-178.085 Y-66.488 Z0.305
X-178.108 Y-66.503 Z0.304
X-179.168 Y-67.563 Z0.252
X-179.169 Y-67.564
X-179.184 Y-67.588 Z0.251
X-179.187 Y-67.615 Z0.25
X-179.178 Y-67.641 Z0.249
X-179.158 Y-67.661 Z0.248
X-179.132 Y-67.67 Z0.247
X-179.104 Y-67.667 Z0.246
X-179.081 Y-67.652 Z0.245
X-178.02 Y-66.591 Z0.192
X-178.005 Y-66.568 Z0.191
X-178.002 Y-66.54 Z0.19
X-178.011 Y-66.514 Z0.189
X-178.031 Y-66.494 Z0.188
X-178.057 Y-66.485 Z0.187
X-178.085 Y-66.488 Z0.186
X-178.108 Y-66.503
X-179.168 Y-67.563 Z0.133
X-179.169 Y-67.564
X-179.184 Y-67.588 Z0.132
X-179.187 Y-67.615 Z0.131
X-179.178 Y-67.641 Z0.13
X-179.158 Y-67.661 Z0.129
X-179.132 Y-67.67 Z0.128
X-179.104 Y-67.667 Z0.127
X-179.081 Y-67.652 Z0.126
X-178.02 Y-66.591 Z0.074
X-178.005 Y-66.568 Z0.073
X-178.002 Y-66.54 Z0.072
X-178.011 Y-66.514 Z0.071
X-178.031 Y-66.494 Z0.07
X-178.057 Y-66.485 Z0.069
X-178.085 Y-66.488 Z0.068
X-178.108 Y-66.503 Z0.067
X-179.168 Y-67.563 Z0.015
X-179.169 Y-67.564
X-179.184 Y-67.588 Z0.014
X-179.187 Y-67.615 Z0.013
X-179.178 Y-67.641 Z0.012
X-179.158 Y-67.661 Z0.011
X-179.132 Y-67.67 Z0.01
X-179.104 Y-67.667 Z0.009
X-179.081 Y-67.652 Z0.008
X-178.02 Y-66.591 Z-0.045
X-178.005 Y-66.568 Z-0.046
X-178.002 Y-66.54 Z-0.047
X-178.011 Y-66.514 Z-0.048
X-178.031 Y-66.494 Z-0.049
X-178.057 Y-66.485 Z-0.05
X-178.085 Y-66.488 Z-0.051
X-178.108 Y-66.503 Z-0.052
X-179.168 Y-67.563 Z-0.104
X-179.169 Y-67.564
X-179.184 Y-67.588 Z-0.105
X-179.187 Y-67.615 Z-0.106
X-179.178 Y-67.641 Z-0.107
X-179.158 Y-67.661 Z-0.108
X-179.132 Y-67.67 Z-0.109
X-179.104 Y-67.667 Z-0.11
X-179.081 Y-67.652 Z-0.111
X-178.02 Y-66.591 Z-0.163
X-178.005 Y-66.568 Z-0.164
X-178.002 Y-66.54 Z-0.165
X-178.011 Y-66.514 Z-0.166
X-178.031 Y-66.494 Z-0.167
X-178.057 Y-66.485 Z-0.168
X-178.085 Y-66.488 Z-0.169
X-178.108 Y-66.503 Z-0.17
X-179.168 Y-67.563 Z-0.222
X-179.169 Y-67.564
X-179.184 Y-67.588 Z-0.223
X-179.187 Y-67.615 Z-0.224
X-179.178 Y-67.641 Z-0.225
X-179.158 Y-67.661 Z-0.226
X-179.132 Y-67.67 Z-0.227
X-179.104 Y-67.667 Z-0.228
X-179.081 Y-67.652 Z-0.229
X-178.02 Y-66.591 Z-0.282
X-178.005 Y-66.568 Z-0.283
X-178.002 Y-66.54 Z-0.284
X-178.011 Y-66.514 Z-0.285
X-178.031 Y-66.494 Z-0.286
X-178.057 Y-66.485 Z-0.287
X-178.085 Y-66.488 Z-0.288
X-178.108 Y-66.503 Z-0.289
X-179.168 Y-67.563 Z-0.341
X-179.169 Y-67.564
X-179.184 Y-67.588 Z-0.342
X-179.187 Y-67.615 Z-0.343
X-179.178 Y-67.641 Z-0.344
X-179.158 Y-67.661 Z-0.345
X-179.132 Y-67.67 Z-0.346
X-179.104 Y-67.667 Z-0.347
X-179.081 Y-67.652 Z-0.348
X-178.02 Y-66.591 Z-0.4
X-178.005 Y-66.568 Z-0.401
X-178.002 Y-66.54 Z-0.402
X-178.011 Y-66.514 Z-0.403
X-178.031 Y-66.494 Z-0.404
X-178.057 Y-66.485 Z-0.405
X-178.085 Y-66.488 Z-0.406
X-178.108 Y-66.503 Z-0.407
X-179.168 Y-67.563 Z-0.459
X-179.169 Y-67.564
X-179.184 Y-67.588 Z-0.46
X-179.187 Y-67.615 Z-0.461
X-179.178 Y-67.641 Z-0.462
X-179.158 Y-67.661 Z-0.463
X-179.132 Y-67.67 Z-0.464
X-179.104 Y-67.667 Z-0.465
X-179.081 Y-67.652 Z-0.466
X-178.02 Y-66.591 Z-0.519
X-178.005 Y-66.568 Z-0.52
X-178.002 Y-66.54 Z-0.521
X-178.011 Y-66.514 Z-0.522
X-178.031 Y-66.494 Z-0.523
X-178.057 Y-66.485 Z-0.524
X-178.085 Y-66.488 Z-0.525
X-178.108 Y-66.503 Z-0.526
X-179.168 Y-67.563 Z-0.578
X-179.169 Y-67.564
X-179.184 Y-67.588 Z-0.579
X-179.187 Y-67.615 Z-0.58
X-179.178 Y-67.641 Z-0.581
X-179.158 Y-67.661 Z-0.582
X-179.132 Y-67.67 Z-0.583
X-179.104 Y-67.667 Z-0.584
X-179.081 Y-67.652 Z-0.585
X-178.02 Y-66.591 Z-0.637
X-178.005 Y-66.568 Z-0.638
X-178.002 Y-66.54 Z-0.639
X-178.011 Y-66.514 Z-0.64
X-178.031 Y-66.494 Z-0.641
X-178.057 Y-66.485 Z-0.642
X-178.085 Y-66.488 Z-0.643
X-178.108 Y-66.503 Z-0.644
X-179.168 Y-67.563 Z-0.696
X-179.169 Y-67.564
X-179.184 Y-67.588 Z-0.697
X-179.187 Y-67.615 Z-0.698
X-179.178 Y-67.641 Z-0.699
X-179.158 Y-67.661 Z-0.7
X-179.132 Y-67.67 Z-0.701
X-179.104 Y-67.667 Z-0.702
X-179.081 Y-67.652 Z-0.703
X-178.02 Y-66.591 Z-0.756
X-178.005 Y-66.568 Z-0.757
X-178.002 Y-66.54 Z-0.758
X-178.011 Y-66.514 Z-0.759
X-178.031 Y-66.494 Z-0.76
X-178.057 Y-66.485 Z-0.761
X-178.085 Y-66.488 Z-0.762
X-178.108 Y-66.503 Z-0.763
X-179.168 Y-67.563 Z-0.815
X-179.169 Y-67.564
X-179.184 Y-67.588 Z-0.816
X-179.187 Y-67.615 Z-0.817
X-179.178 Y-67.641 Z-0.818
X-179.158 Y-67.661 Z-0.819
X-179.132 Y-67.67 Z-0.82
X-179.104 Y-67.667 Z-0.821
X-179.081 Y-67.652 Z-0.822
X-178.02 Y-66.591 Z-0.874
X-178.005 Y-66.568 Z-0.875
X-178.002 Y-66.54 Z-0.876
X-178.011 Y-66.514 Z-0.877
X-178.031 Y-66.494 Z-0.878
X-178.057 Y-66.485 Z-0.879
X-178.085 Y-66.488 Z-0.88
X-178.108 Y-66.503 Z-0.881
X-179.168 Y-67.563 Z-0.933
X-179.169 Y-67.564
X-179.184 Y-67.588 Z-0.934
X-179.187 Y-67.615 Z-0.935
X-179.178 Y-67.641 Z-0.936
X-179.158 Y-67.661 Z-0.937
X-179.132 Y-67.67 Z-0.938
X-179.104 Y-67.667 Z-0.939
X-179.081 Y-67.652 Z-0.94
X-178.02 Y-66.591 Z-0.993
X-178.005 Y-66.568 Z-0.994
X-178.002 Y-66.54 Z-0.995
X-178.011 Y-66.514 Z-0.996
X-178.031 Y-66.494 Z-0.997
X-178.057 Y-66.485 Z-0.998
X-178.085 Y-66.488 Z-0.999
X-178.108 Y-66.503 Z-1
X-179.168 Y-67.563 Z-1.052
X-179.169 Y-67.564
X-179.184 Y-67.588 Z-1.053
X-179.187 Y-67.615 Z-1.054
X-179.178 Y-67.641 Z-1.055
X-179.158 Y-67.661 Z-1.056
X-179.132 Y-67.67 Z-1.057
X-179.104 Y-67.667 Z-1.058
X-179.081 Y-67.652 Z-1.059
X-178.02 Y-66.591 Z-1.111
X-178.005 Y-66.568 Z-1.112
X-178.002 Y-66.54 Z-1.113
X-178.011 Y-66.514 Z-1.114
X-178.031 Y-66.494 Z-1.115
X-178.057 Y-66.485 Z-1.116
X-178.085 Y-66.488 Z-1.117
X-178.108 Y-66.503 Z-1.118
X-179.168 Y-67.563 Z-1.17
X-179.169 Y-67.564
X-179.184 Y-67.588 Z-1.171
X-179.187 Y-67.615 Z-1.172
X-179.178 Y-67.641 Z-1.173
X-179.158 Y-67.661 Z-1.174
X-179.132 Y-67.67 Z-1.175
X-179.104 Y-67.667 Z-1.176
X-179.081 Y-67.652 Z-1.177
X-178.02 Y-66.591 Z-1.23
X-178.005 Y-66.568 Z-1.231
X-178.002 Y-66.54 Z-1.232
X-178.011 Y-66.514 Z-1.233
X-178.031 Y-66.494 Z-1.234
X-178.057 Y-66.485 Z-1.235
X-178.085 Y-66.488 Z-1.236
X-178.108 Y-66.503 Z-1.237
X-179.168 Y-67.563 Z-1.289
X-179.169 Y-67.564
X-179.184 Y-67.588 Z-1.29
X-179.187 Y-67.615 Z-1.291
X-179.178 Y-67.641 Z-1.292
X-179.158 Y-67.661 Z-1.293
X-179.132 Y-67.67 Z-1.294
X-179.104 Y-67.667 Z-1.295
X-179.081 Y-67.652 Z-1.296
X-178.02 Y-66.591 Z-1.348
X-178.005 Y-66.568 Z-1.349
X-178.002 Y-66.54 Z-1.35
X-178.011 Y-66.514 Z-1.351
X-178.031 Y-66.494 Z-1.352
X-178.057 Y-66.485 Z-1.353
X-178.085 Y-66.488 Z-1.354
X-178.108 Y-66.503 Z-1.355
X-179.168 Y-67.563 Z-1.407
X-179.169 Y-67.564
X-179.184 Y-67.588 Z-1.408
X-179.187 Y-67.615 Z-1.409
X-179.178 Y-67.641 Z-1.41
X-179.158 Y-67.661 Z-1.411
X-179.132 Y-67.67 Z-1.412
X-179.104 Y-67.667 Z-1.413
X-179.081 Y-67.652 Z-1.414
X-178.02 Y-66.591 Z-1.467
X-178.005 Y-66.568 Z-1.468
X-178.002 Y-66.54 Z-1.469
X-178.011 Y-66.514 Z-1.47
X-178.031 Y-66.494 Z-1.471
X-178.057 Y-66.485 Z-1.472
X-178.085 Y-66.488 Z-1.473
X-178.108 Y-66.503 Z-1.474
X-179.168 Y-67.563 Z-1.526
X-179.169 Y-67.564
X-179.184 Y-67.588 Z-1.527
X-179.187 Y-67.615 Z-1.528
X-179.178 Y-67.641 Z-1.529
X-179.158 Y-67.661 Z-1.53
X-179.132 Y-67.67 Z-1.531
X-179.104 Y-67.667 Z-1.532
X-179.081 Y-67.652 Z-1.533
X-178.02 Y-66.591 Z-1.585
X-178.005 Y-66.568 Z-1.586
X-178.002 Y-66.54 Z-1.587
X-178.011 Y-66.514 Z-1.588
X-178.031 Y-66.494 Z-1.589
X-178.057 Y-66.485 Z-1.59
X-178.085 Y-66.488 Z-1.591
X-178.108 Y-66.503 Z-1.592
X-179.168 Y-67.563 Z-1.644
X-179.169 Y-67.564
X-179.184 Y-67.588 Z-1.645
X-179.187 Y-67.615 Z-1.646
X-179.178 Y-67.641 Z-1.647
X-179.158 Y-67.661 Z-1.648
X-179.132 Y-67.67 Z-1.649
X-179.104 Y-67.667 Z-1.65
X-179.081 Y-67.652 Z-1.651
X-178.02 Y-66.591 Z-1.704
X-178.005 Y-66.568 Z-1.705
X-178.002 Y-66.54 Z-1.706
X-178.011 Y-66.514 Z-1.707
X-178.031 Y-66.494 Z-1.708
X-178.057 Y-66.485 Z-1.709
X-178.085 Y-66.488 Z-1.71
X-178.108 Y-66.503 Z-1.711
X-179.168 Y-67.563 Z-1.763
X-179.169 Y-67.564
X-179.184 Y-67.588 Z-1.764
X-179.187 Y-67.615 Z-1.765
X-179.178 Y-67.641 Z-1.766
X-179.158 Y-67.661 Z-1.767
X-179.132 Y-67.67 Z-1.768
X-179.104 Y-67.667 Z-1.769
X-179.081 Y-67.652 Z-1.77
X-178.02 Y-66.591 Z-1.822
X-178.005 Y-66.568 Z-1.823
X-178.002 Y-66.54 Z-1.824
X-178.011 Y-66.514 Z-1.825
X-178.031 Y-66.494 Z-1.826
X-178.057 Y-66.485 Z-1.827
X-178.085 Y-66.488 Z-1.828
X-178.108 Y-66.503 Z-1.829
X-179.168 Y-67.563 Z-1.881
X-179.169 Y-67.564
X-179.184 Y-67.588 Z-1.882
X-179.187 Y-67.615 Z-1.883
X-179.178 Y-67.641 Z-1.884
X-179.158 Y-67.661 Z-1.885
X-179.132 Y-67.67 Z-1.886
X-179.104 Y-67.667 Z-1.887
X-179.081 Y-67.652 Z-1.888
X-178.02 Y-66.591 Z-1.941
X-178.005 Y-66.568 Z-1.942
X-178.002 Y-66.54 Z-1.943
X-178.011 Y-66.514 Z-1.944
X-178.031 Y-66.494 Z-1.945
X-178.057 Y-66.485 Z-1.946
X-178.085 Y-66.488 Z-1.947
X-178.108 Y-66.503 Z-1.948
X-179.168 Y-67.563 Z-2
X-179.169 Y-67.564
S6000
X-179.184 Y-67.588 F1000
X-179.187 Y-67.615
X-179.178 Y-67.641
X-179.158 Y-67.661
X-179.132 Y-67.67
X-179.104 Y-67.667
X-179.081 Y-67.652
X-178.02 Y-66.591
X-178.005 Y-66.568
X-178.002 Y-66.54
X-178.011 Y-66.514
X-178.031 Y-66.494
X-178.057 Y-66.485
X-178.085 Y-66.488
X-178.108 Y-66.503
X-179.168 Y-67.563
X-179.169 Y-67.564
S5000
X-179.184 Y-67.588 Z-2.001 F333.3
X-179.187 Y-67.615 Z-2.002
X-179.178 Y-67.641 Z-2.003
X-179.158 Y-67.661 Z-2.004
X-179.132 Y-67.67 Z-2.005
X-179.104 Y-67.667 Z-2.006
X-179.081 Y-67.652 Z-2.007
X-178.02 Y-66.591 Z-2.059
X-178.005 Y-66.568 Z-2.06
X-178.002 Y-66.54 Z-2.061
X-178.011 Y-66.514 Z-2.062
X-178.031 Y-66.494 Z-2.063
X-178.057 Y-66.485 Z-2.064
X-178.085 Y-66.488 Z-2.065
X-178.108 Y-66.503 Z-2.066
X-179.168 Y-67.563 Z-2.118
X-179.169 Y-67.564 Z-2.119
X-179.184 Y-67.588
X-179.187 Y-67.615 Z-2.12
X-179.178 Y-67.641 Z-2.121
X-179.158 Y-67.661 Z-2.122
X-179.132 Y-67.67 Z-2.123
X-179.104 Y-67.667 Z-2.124
X-179.081 Y-67.652 Z-2.125
X-178.02 Y-66.591 Z-2.178
X-178.005 Y-66.568 Z-2.179
X-178.002 Y-66.54 Z-2.18
X-178.011 Y-66.514 Z-2.181
X-178.031 Y-66.494 Z-2.182
X-178.057 Y-66.485 Z-2.183
X-178.085 Y-66.488 Z-2.184
X-178.108 Y-66.503 Z-2.185
X-179.168 Y-67.563 Z-2.237
X-179.169 Y-67.564
X-179.184 Y-67.588 Z-2.238
X-179.187 Y-67.615 Z-2.239
X-179.178 Y-67.641 Z-2.24
X-179.158 Y-67.661 Z-2.241
X-179.132 Y-67.67 Z-2.242
X-179.104 Y-67.667 Z-2.243
X-179.081 Y-67.652 Z-2.244
X-178.02 Y-66.591 Z-2.296
X-178.005 Y-66.568 Z-2.297
X-178.002 Y-66.54 Z-2.298
X-178.011 Y-66.514 Z-2.299
X-178.031 Y-66.494 Z-2.3
X-178.057 Y-66.485 Z-2.301
X-178.085 Y-66.488 Z-2.302
X-178.108 Y-66.503 Z-2.303
X-179.168 Y-67.563 Z-2.355
X-179.169 Y-67.564 Z-2.356
X-179.184 Y-67.588
X-179.187 Y-67.615 Z-2.357
X-179.178 Y-67.641 Z-2.358
X-179.158 Y-67.661 Z-2.359
X-179.132 Y-67.67 Z-2.36
X-179.104 Y-67.667 Z-2.361
X-179.081 Y-67.652 Z-2.362
X-178.02 Y-66.591 Z-2.415
X-178.005 Y-66.568 Z-2.416
X-178.002 Y-66.54 Z-2.417
X-178.011 Y-66.514 Z-2.418
X-178.031 Y-66.494 Z-2.419
X-178.057 Y-66.485 Z-2.42
X-178.085 Y-66.488 Z-2.421
X-178.108 Y-66.503 Z-2.422
X-179.168 Y-67.563 Z-2.474
X-179.169 Y-67.564
X-179.184 Y-67.588 Z-2.475
X-179.187 Y-67.615 Z-2.476
X-179.178 Y-67.641 Z-2.477
X-179.158 Y-67.661 Z-2.478
X-179.132 Y-67.67 Z-2.479
X-179.104 Y-67.667 Z-2.48
X-179.081 Y-67.652 Z-2.481
X-178.02 Y-66.591 Z-2.533
X-178.005 Y-66.568 Z-2.534
X-178.002 Y-66.54 Z-2.535
X-178.011 Y-66.514 Z-2.536
X-178.031 Y-66.494 Z-2.537
X-178.057 Y-66.485 Z-2.538
X-178.085 Y-66.488 Z-2.539
X-178.108 Y-66.503 Z-2.54
X-179.168 Y-67.563 Z-2.592
X-179.169 Y-67.564 Z-2.593
X-179.184 Y-67.588 Z-2.594
X-179.187 Y-67.615
X-179.178 Y-67.641 Z-2.595
X-179.158 Y-67.661 Z-2.596
X-179.132 Y-67.67 Z-2.597
X-179.104 Y-67.667 Z-2.598
X-179.081 Y-67.652 Z-2.599
X-178.02 Y-66.591 Z-2.652
X-178.005 Y-66.568 Z-2.653
X-178.002 Y-66.54 Z-2.654
X-178.011 Y-66.514 Z-2.655
X-178.031 Y-66.494 Z-2.656
X-178.057 Y-66.485 Z-2.657
X-178.085 Y-66.488 Z-2.658
X-178.108 Y-66.503 Z-2.659
X-179.168 Y-67.563 Z-2.711
X-179.169 Y-67.564
X-179.184 Y-67.588 Z-2.712
X-179.187 Y-67.615 Z-2.713
X-179.178 Y-67.641 Z-2.714
X-179.158 Y-67.661 Z-2.715
X-179.132 Y-67.67 Z-2.716
X-179.104 Y-67.667 Z-2.717
X-179.081 Y-67.652 Z-2.718
X-178.02 Y-66.591 Z-2.77
X-178.005 Y-66.568 Z-2.771
X-178.002 Y-66.54 Z-2.772
X-178.011 Y-66.514 Z-2.773
X-178.031 Y-66.494 Z-2.774
X-178.057 Y-66.485 Z-2.775
X-178.085 Y-66.488 Z-2.776
X-178.108 Y-66.503 Z-2.777
X-179.168 Y-67.563 Z-2.83
X-179.169 Y-67.564
X-179.184 Y-67.588 Z-2.831
X-179.187 Y-67.615
X-179.178 Y-67.641 Z-2.832
X-179.158 Y-67.661 Z-2.833
X-179.132 Y-67.67 Z-2.834
X-179.104 Y-67.667 Z-2.835
X-179.081 Y-67.652 Z-2.836
X-178.02 Y-66.591 Z-2.889
X-178.005 Y-66.568 Z-2.89
X-178.002 Y-66.54 Z-2.891
X-178.011 Y-66.514 Z-2.892
X-178.031 Y-66.494 Z-2.893
X-178.057 Y-66.485 Z-2.894
X-178.085 Y-66.488 Z-2.895
X-178.108 Y-66.503 Z-2.896
X-179.168 Y-67.563 Z-2.948
X-179.169 Y-67.564
X-179.184 Y-67.588 Z-2.949
X-179.187 Y-67.615 Z-2.95
X-179.178 Y-67.641 Z-2.951
X-179.158 Y-67.661 Z-2.952
X-179.132 Y-67.67 Z-2.953
X-179.104 Y-67.667 Z-2.954
X-179.081 Y-67.652 Z-2.955
X-178.02 Y-66.591 Z-3.007
X-178.005 Y-66.568 Z-3.008
X-178.002 Y-66.54 Z-3.009
X-178.011 Y-66.514 Z-3.01
X-178.031 Y-66.494 Z-3.011
X-178.057 Y-66.485 Z-3.012
X-178.085 Y-66.488 Z-3.013
X-178.108 Y-66.503 Z-3.014
X-179.168 Y-67.563 Z-3.067
X-179.169 Y-67.564
X-179.184 Y-67.588 Z-3.068
X-179.187 Y-67.615 Z-3.069
X-179.178 Y-67.641
X-179.158 Y-67.661 Z-3.07
X-179.132 Y-67.67 Z-3.071
X-179.104 Y-67.667 Z-3.072
X-179.081 Y-67.652 Z-3.073
X-178.542 Y-67.114 Z-3.1
S6000
X-178.02 Y-66.591 F1000
X-178.005 Y-66.568
X-178.002 Y-66.54
X-178.011 Y-66.514
X-178.031 Y-66.494
X-178.057 Y-66.485
X-178.085 Y-66.488
X-178.108 Y-66.503
X-179.168 Y-67.563
X-179.169 Y-67.564
X-179.184 Y-67.588
X-179.187 Y-67.615
X-179.178 Y-67.641
X-179.158 Y-67.661
X-179.132 Y-67.67
X-179.104 Y-67.667
X-179.081 Y-67.652
X-178.542 Y-67.114
S5000
X-178.02 Y-66.591 Z-3.126 F333.3
X-178.005 Y-66.568 Z-3.127
X-178.002 Y-66.54 Z-3.128
X-178.011 Y-66.514 Z-3.129
X-178.031 Y-66.494 Z-3.13
X-178.057 Y-66.485 Z-3.131
X-178.085 Y-66.488 Z-3.132
X-178.108 Y-66.503 Z-3.133
X-179.168 Y-67.563 Z-3.185
X-179.169 Y-67.564
X-179.184 Y-67.588 Z-3.186
X-179.187 Y-67.615 Z-3.187
X-179.178 Y-67.641 Z-3.188
X-179.158 Y-67.661 Z-3.189
X-179.132 Y-67.67 Z-3.19
X-179.104 Y-67.667 Z-3.191
X-179.081 Y-67.652 Z-3.192
X-178.02 Y-66.591 Z-3.244
X-178.005 Y-66.568 Z-3.245
X-178.002 Y-66.54 Z-3.246
X-178.011 Y-66.514 Z-3.247
X-178.031 Y-66.494 Z-3.248
X-178.057 Y-66.485 Z-3.249
X-178.085 Y-66.488 Z-3.25
X-178.108 Y-66.503 Z-3.251
X-179.168 Y-67.563 Z-3.304
X-179.169 Y-67.564
X-179.184 Y-67.588 Z-3.305
X-179.187 Y-67.615 Z-3.306
X-179.178 Y-67.641
X-179.158 Y-67.661 Z-3.307
X-179.132 Y-67.67 Z-3.308
X-179.104 Y-67.667 Z-3.309
X-179.081 Y-67.652 Z-3.31
X-178.02 Y-66.591 Z-3.363
X-178.005 Y-66.568 Z-3.364
X-178.002 Y-66.54 Z-3.365
X-178.011 Y-66.514 Z-3.366
X-178.031 Y-66.494 Z-3.367
X-178.057 Y-66.485 Z-3.368
X-178.085 Y-66.488 Z-3.369
X-178.108 Y-66.503 Z-3.37
X-179.168 Y-67.563 Z-3.422
X-179.169 Y-67.564
X-179.184 Y-67.588 Z-3.423
X-179.187 Y-67.615 Z-3.424
X-179.178 Y-67.641 Z-3.425
X-179.158 Y-67.661 Z-3.426
X-179.132 Y-67.67 Z-3.427
X-179.104 Y-67.667 Z-3.428
X-179.081 Y-67.652 Z-3.429
X-178.02 Y-66.591 Z-3.481
X-178.005 Y-66.568 Z-3.482
X-178.002 Y-66.54 Z-3.483
X-178.011 Y-66.514 Z-3.484
X-178.031 Y-66.494 Z-3.485
X-178.057 Y-66.485 Z-3.486
X-178.085 Y-66.488 Z-3.487
X-178.108 Y-66.503 Z-3.488
X-179.168 Y-67.563 Z-3.541
X-179.169 Y-67.564
X-179.184 Y-67.588 Z-3.542
X-179.187 Y-67.615 Z-3.543
X-179.178 Y-67.641 Z-3.544
X-179.158 Y-67.661
X-179.132 Y-67.67 Z-3.545
X-179.104 Y-67.667 Z-3.546
X-179.081 Y-67.652 Z-3.547
X-178.02 Y-66.591 Z-3.6
X-178.005 Y-66.568 Z-3.601
X-178.002 Y-66.54 Z-3.602
X-178.011 Y-66.514 Z-3.603
X-178.031 Y-66.494 Z-3.604
X-178.057 Y-66.485 Z-3.605
X-178.085 Y-66.488 Z-3.606
X-178.108 Y-66.503 Z-3.607
X-179.168 Y-67.563 Z-3.659
X-179.169 Y-67.564
X-179.184 Y-67.588 Z-3.66
X-179.187 Y-67.615 Z-3.661
X-179.178 Y-67.641 Z-3.662
X-179.158 Y-67.661 Z-3.663
X-179.132 Y-67.67 Z-3.664
X-179.104 Y-67.667 Z-3.665
X-179.081 Y-67.652 Z-3.666
X-178.02 Y-66.591 Z-3.718
X-178.005 Y-66.568 Z-3.719
X-178.002 Y-66.54 Z-3.72
X-178.011 Y-66.514 Z-3.721
X-178.031 Y-66.494 Z-3.722
X-178.057 Y-66.485 Z-3.723
X-178.085 Y-66.488 Z-3.724
X-178.108 Y-66.503 Z-3.725
X-179.168 Y-67.563 Z-3.778
X-179.169 Y-67.564
X-179.184 Y-67.588 Z-3.779
X-179.187 Y-67.615 Z-3.78
X-179.178 Y-67.641 Z-3.781
X-179.158 Y-67.661
X-179.132 Y-67.67 Z-3.782
X-179.104 Y-67.667 Z-3.783
X-179.081 Y-67.652 Z-3.784
X-178.02 Y-66.591 Z-3.837
X-178.005 Y-66.568 Z-3.838
X-178.002 Y-66.54 Z-3.839
X-178.011 Y-66.514 Z-3.84
X-178.031 Y-66.494 Z-3.841
X-178.057 Y-66.485 Z-3.842
X-178.085 Y-66.488 Z-3.843
X-178.108 Y-66.503 Z-3.844
X-179.168 Y-67.563 Z-3.896
X-179.169 Y-67.564
X-179.184 Y-67.588 Z-3.897
X-179.187 Y-67.615 Z-3.898
X-179.178 Y-67.641 Z-3.899
X-179.158 Y-67.661 Z-3.9
X-179.132 Y-67.67 Z-3.901
X-179.104 Y-67.667 Z-3.902
X-179.081 Y-67.652 Z-3.903
X-178.02 Y-66.591 Z-3.955
X-178.005 Y-66.568 Z-3.956
X-178.002 Y-66.54 Z-3.957
X-178.011 Y-66.514 Z-3.958
X-178.031 Y-66.494 Z-3.959
X-178.057 Y-66.485 Z-3.96
X-178.085 Y-66.488 Z-3.961
X-178.108 Y-66.503 Z-3.962
X-179.168 Y-67.563 Z-4.015
X-179.169 Y-67.564
X-179.184 Y-67.588 Z-4.016
X-179.187 Y-67.615 Z-4.017
X-179.178 Y-67.641 Z-4.018
X-179.158 Y-67.661 Z-4.019
X-179.132 Y-67.67
X-179.104 Y-67.667 Z-4.02
X-179.081 Y-67.652 Z-4.021
X-178.02 Y-66.591 Z-4.074
X-178.005 Y-66.568 Z-4.075
X-178.002 Y-66.54 Z-4.076
X-178.011 Y-66.514 Z-4.077
X-178.031 Y-66.494 Z-4.078
X-178.057 Y-66.485 Z-4.079
X-178.085 Y-66.488 Z-4.08
X-178.108 Y-66.503 Z-4.081
X-179.168 Y-67.563 Z-4.133
X-179.169 Y-67.564
X-179.184 Y-67.588 Z-4.134
X-179.187 Y-67.615 Z-4.135
X-179.178 Y-67.641 Z-4.136
X-179.158 Y-67.661 Z-4.137
X-179.132 Y-67.67 Z-4.138
X-179.104 Y-67.667 Z-4.139
X-179.081 Y-67.652 Z-4.14
X-178.02 Y-66.591 Z-4.192
X-178.005 Y-66.568 Z-4.193
X-178.002 Y-66.54 Z-4.194
X-178.011 Y-66.514 Z-4.195
X-178.031 Y-66.494 Z-4.196
X-178.057 Y-66.485 Z-4.197
X-178.085 Y-66.488 Z-4.198
X-178.108 Y-66.503 Z-4.199
X-178.124 Y-66.519 Z-4.2
S6000
X-179.168 Y-67.563 F1000
X-179.169 Y-67.564
X-179.184 Y-67.588
X-179.187 Y-67.615
X-179.178 Y-67.641
X-179.158 Y-67.661
X-179.132 Y-67.67
X-179.104 Y-67.667
X-179.081 Y-67.652
X-178.542 Y-67.114
X-178.02 Y-66.591
X-178.005 Y-66.568
X-178.002 Y-66.54
X-178.011 Y-66.514
X-178.031 Y-66.494
X-178.057 Y-66.485
X-178.085 Y-66.488
X-178.108 Y-66.503
X-178.124 Y-66.519
X-178.127 Y-66.522
X-178.13 Y-66.526 Z-4.199
X-178.131 Y-66.53 Z-4.197
X-178.132 Y-66.534 Z-4.194
X-178.133 Y-66.538 Z-4.191
Y-66.541 Z-4.188
Y-66.543 Z-4.184
X-178.132 Y-66.545 Z-4.179
Y-66.546 Z-4.175
Z-4.17
Z5
X-179.104 Y-54.282
Z3 F333.3
Z2.5
S5000
X-178.108 Y-55.278 Z2.451
X-178.085 Y-55.293 Z2.45
X-178.057 Y-55.296 Z2.449
X-178.031 Y-55.287 Z2.448
X-178.011 Y-55.267 Z2.447
X-178.002 Y-55.241 Z2.446
X-178.005 Y-55.213 Z2.445
X-178.02 Y-55.189 Z2.444
X-179.08 Y-54.129 Z2.392
X-179.101 Y-54.115 Z2.391
X-179.125 Y-54.11 Z2.39
X-179.149 Y-54.115 Z2.389
X-179.169 Y-54.128 Z2.388
X-179.182 Y-54.149 Z2.387
X-179.187 Y-54.173 Z2.386
X-179.182 Y-54.196
X-179.169 Y-54.217 Z2.385
X-179.168
X-178.108 Y-55.278 Z2.332
X-178.085 Y-55.293 Z2.331
X-178.057 Y-55.296 Z2.33
X-178.031 Y-55.287 Z2.329
X-178.011 Y-55.267 Z2.328
X-178.002 Y-55.241 Z2.327
X-178.005 Y-55.213 Z2.326
X-178.02 Y-55.189 Z2.325
X-179.08 Y-54.129 Z2.273
X-179.101 Y-54.115 Z2.272
X-179.125 Y-54.11 Z2.271
X-179.149 Y-54.115 Z2.27
X-179.169 Y-54.128
X-179.182 Y-54.149 Z2.269
X-179.187 Y-54.173 Z2.268
X-179.182 Y-54.196 Z2.267
X-179.169 Y-54.217 Z2.266
X-179.168
X-178.108 Y-55.278 Z2.214
X-178.085 Y-55.293 Z2.213
X-178.057 Y-55.296 Z2.212
X-178.031 Y-55.287 Z2.211
X-178.011 Y-55.267 Z2.21
X-178.002 Y-55.241 Z2.209
X-178.005 Y-55.213 Z2.208
X-178.02 Y-55.189 Z2.207
X-179.08 Y-54.129 Z2.155
X-179.101 Y-54.115 Z2.154
X-179.125 Y-54.11 Z2.153
X-179.149 Y-54.115 Z2.152
X-179.169 Y-54.128 Z2.151
X-179.182 Y-54.149 Z2.15
X-179.187 Y-54.173 Z2.149
X-179.182 Y-54.196
X-179.169 Y-54.217 Z2.148
X-179.168
X-178.108 Y-55.278 Z2.095
X-178.085 Y-55.293 Z2.094
X-178.057 Y-55.296 Z2.093
X-178.031 Y-55.287 Z2.092
X-178.011 Y-55.267 Z2.091
X-178.002 Y-55.241 Z2.09
X-178.005 Y-55.213 Z2.089
X-178.02 Y-55.189 Z2.088
X-179.08 Y-54.129 Z2.036
X-179.101 Y-54.115 Z2.035
X-179.125 Y-54.11 Z2.034
X-179.149 Y-54.115 Z2.033
X-179.169 Y-54.128
X-179.182 Y-54.149 Z2.032
X-179.187 Y-54.173 Z2.031
X-179.182 Y-54.196 Z2.03
X-179.169 Y-54.217 Z2.029
X-179.168
X-178.108 Y-55.278 Z1.977
X-178.085 Y-55.293 Z1.976
X-178.057 Y-55.296 Z1.975
X-178.031 Y-55.287 Z1.974
X-178.011 Y-55.267 Z1.973
X-178.002 Y-55.241 Z1.972
X-178.005 Y-55.213 Z1.971
X-178.02 Y-55.189 Z1.97
X-179.08 Y-54.129 Z1.918
X-179.101 Y-54.115 Z1.917
X-179.125 Y-54.11 Z1.916
X-179.149 Y-54.115 Z1.915
X-179.169 Y-54.128 Z1.914
X-179.182 Y-54.149 Z1.913
X-179.187 Y-54.173 Z1.912
X-179.182 Y-54.196
X-179.169 Y-54.217 Z1.911
X-179.168
X-178.108 Y-55.278 Z1.858
X-178.085 Y-55.293 Z1.857
X-178.057 Y-55.296 Z1.856
X-178.031 Y-55.287 Z1.855
X-178.011 Y-55.267 Z1.854
X-178.002 Y-55.241 Z1.853
X-178.005 Y-55.213 Z1.852
X-178.02 Y-55.189 Z1.851
X-179.08 Y-54.129 Z1.799
X-179.101 Y-54.115 Z1.798
X-179.125 Y-54.11 Z1.797
X-179.149 Y-54.115 Z1.796
X-179.169 Y-54.128
X-179.182 Y-54.149 Z1.795
X-179.187 Y-54.173 Z1.794
X-179.182 Y-54.196 Z1.793
X-179.169 Y-54.217 Z1.792
X-179.168
X-178.108 Y-55.278 Z1.74
X-178.085 Y-55.293 Z1.739
X-178.057 Y-55.296 Z1.738
X-178.031 Y-55.287 Z1.737
X-178.011 Y-55.267 Z1.736
X-178.002 Y-55.241 Z1.735
X-178.005 Y-55.213 Z1.734
X-178.02 Y-55.189 Z1.733
X-179.08 Y-54.129 Z1.681
X-179.101 Y-54.115 Z1.68
X-179.125 Y-54.11 Z1.679
X-179.149 Y-54.115 Z1.678
X-179.169 Y-54.128 Z1.677
X-179.182 Y-54.149 Z1.676
X-179.187 Y-54.173 Z1.675
X-179.182 Y-54.196
X-179.169 Y-54.217 Z1.674
X-179.168
X-178.108 Y-55.278 Z1.621
X-178.085 Y-55.293 Z1.62
X-178.057 Y-55.296 Z1.619
X-178.031 Y-55.287 Z1.618
X-178.011 Y-55.267 Z1.617
X-178.002 Y-55.241 Z1.616
X-178.005 Y-55.213 Z1.615
X-178.02 Y-55.189 Z1.614
X-179.08 Y-54.129 Z1.562
X-179.101 Y-54.115 Z1.561
X-179.125 Y-54.11 Z1.56
X-179.149 Y-54.115 Z1.559
X-179.169 Y-54.128
X-179.182 Y-54.149 Z1.558
X-179.187 Y-54.173 Z1.557
X-179.182 Y-54.196 Z1.556
X-179.169 Y-54.217 Z1.555
X-179.168
X-178.108 Y-55.278 Z1.503
X-178.085 Y-55.293 Z1.502
X-178.057 Y-55.296 Z1.501
X-178.031 Y-55.287 Z1.5
X-178.011 Y-55.267 Z1.499
X-178.002 Y-55.241 Z1.498
X-178.005 Y-55.213 Z1.497
X-178.02 Y-55.189 Z1.496
X-179.08 Y-54.129 Z1.444
X-179.101 Y-54.115 Z1.443
X-179.125 Y-54.11 Z1.442
X-179.149 Y-54.115 Z1.441
X-179.169 Y-54.128 Z1.44
X-179.182 Y-54.149 Z1.439
X-179.187 Y-54.173 Z1.438
X-179.182 Y-54.196
X-179.169 Y-54.217 Z1.437
X-179.168
X-178.108 Y-55.278 Z1.384
X-178.085 Y-55.293 Z1.383
X-178.057 Y-55.296 Z1.382
X-178.031 Y-55.287 Z1.381
X-178.011 Y-55.267 Z1.38
X-178.002 Y-55.241 Z1.379
X-178.005 Y-55.213 Z1.378
X-178.02 Y-55.189 Z1.377
X-179.08 Y-54.129 Z1.325
X-179.101 Y-54.115 Z1.324
X-179.125 Y-54.11 Z1.323
X-179.149 Y-54.115 Z1.322
X-179.169 Y-54.128
X-179.182 Y-54.149 Z1.321
X-179.187 Y-54.173 Z1.32
X-179.182 Y-54.196 Z1.319
X-179.169 Y-54.217 Z1.318
X-179.168
X-178.108 Y-55.278 Z1.266
X-178.085 Y-55.293 Z1.265
X-178.057 Y-55.296 Z1.264
X-178.031 Y-55.287 Z1.263
X-178.011 Y-55.267 Z1.262
X-178.002 Y-55.241 Z1.261
X-178.005 Y-55.213 Z1.26
X-178.02 Y-55.189 Z1.259
X-179.08 Y-54.129 Z1.207
X-179.101 Y-54.115 Z1.206
X-179.125 Y-54.11 Z1.205
X-179.149 Y-54.115 Z1.204
X-179.169 Y-54.128 Z1.203
X-179.182 Y-54.149 Z1.202
X-179.187 Y-54.173 Z1.201
X-179.182 Y-54.196
X-179.169 Y-54.217 Z1.2
X-179.168
X-178.108 Y-55.278 Z1.147
X-178.085 Y-55.293 Z1.146
X-178.057 Y-55.296 Z1.145
X-178.031 Y-55.287 Z1.144
X-178.011 Y-55.267 Z1.143
X-178.002 Y-55.241 Z1.142
X-178.005 Y-55.213 Z1.141
X-178.02 Y-55.189 Z1.14
X-179.08 Y-54.129 Z1.088
X-179.101 Y-54.115 Z1.087
X-179.125 Y-54.11 Z1.086
X-179.149 Y-54.115 Z1.085
X-179.169 Y-54.128
X-179.182 Y-54.149 Z1.084
X-179.187 Y-54.173 Z1.083
X-179.182 Y-54.196 Z1.082
X-179.169 Y-54.217 Z1.081
X-179.168
X-178.108 Y-55.278 Z1.029
X-178.085 Y-55.293 Z1.028
X-178.057 Y-55.296 Z1.027
X-178.031 Y-55.287 Z1.026
X-178.011 Y-55.267 Z1.025
X-178.002 Y-55.241 Z1.024
X-178.005 Y-55.213 Z1.023
X-178.02 Y-55.189 Z1.022
X-179.08 Y-54.129 Z0.97
X-179.101 Y-54.115 Z0.969
X-179.125 Y-54.11 Z0.968
X-179.149 Y-54.115 Z0.967
X-179.169 Y-54.128 Z0.966
X-179.182 Y-54.149 Z0.965
X-179.187 Y-54.173 Z0.964
X-179.182 Y-54.196
X-179.169 Y-54.217 Z0.963
X-179.168
X-178.108 Y-55.278 Z0.91
X-178.085 Y-55.293 Z0.909
X-178.057 Y-55.296 Z0.908
X-178.031 Y-55.287 Z0.907
X-178.011 Y-55.267 Z0.906
X-178.002 Y-55.241 Z0.905
X-178.005 Y-55.213 Z0.904
X-178.02 Y-55.189 Z0.903
X-179.08 Y-54.129 Z0.851
X-179.101 Y-54.115 Z0.85
X-179.125 Y-54.11 Z0.849
X-179.149 Y-54.115 Z0.848
X-179.169 Y-54.128
X-179.182 Y-54.149 Z0.847
X-179.187 Y-54.173 Z0.846
X-179.182 Y-54.196 Z0.845
X-179.169 Y-54.217 Z0.844
X-179.168
X-178.108 Y-55.278 Z0.792
X-178.085 Y-55.293 Z0.791
X-178.057 Y-55.296 Z0.79
X-178.031 Y-55.287 Z0.789
X-178.011 Y-55.267 Z0.788
X-178.002 Y-55.241 Z0.787
X-178.005 Y-55.213 Z0.786
X-178.02 Y-55.189 Z0.785
X-179.08 Y-54.129 Z0.732
X-179.101 Y-54.115
X-179.125 Y-54.11 Z0.731
X-179.149 Y-54.115 Z0.73
X-179.169 Y-54.128 Z0.729
X-179.182 Y-54.149 Z0.728
X-179.187 Y-54.173 Z0.727
X-179.182 Y-54.196 Z0.726
X-179.169 Y-54.217
X-179.168
X-178.108 Y-55.278 Z0.673
X-178.085 Y-55.293 Z0.672
X-178.057 Y-55.296 Z0.671
X-178.031 Y-55.287 Z0.67
X-178.011 Y-55.267 Z0.669
X-178.002 Y-55.241 Z0.668
X-178.005 Y-55.213 Z0.667
X-178.02 Y-55.189 Z0.666
X-179.08 Y-54.129 Z0.614
X-179.101 Y-54.115 Z0.613
X-179.125 Y-54.11 Z0.612
X-179.149 Y-54.115 Z0.611
X-179.169 Y-54.128
X-179.182 Y-54.149 Z0.61
X-179.187 Y-54.173 Z0.609
X-179.182 Y-54.196 Z0.608
X-179.169 Y-54.217 Z0.607
X-179.168
X-178.108 Y-55.278 Z0.555
X-178.085 Y-55.293 Z0.554
X-178.057 Y-55.296 Z0.553
X-178.031 Y-55.287 Z0.552
X-178.011 Y-55.267 Z0.551
X-178.002 Y-55.241 Z0.55
X-178.005 Y-55.213 Z0.549
X-178.02 Y-55.189 Z0.548
X-179.08 Y-54.129 Z0.495
X-179.101 Y-54.115
X-179.125 Y-54.11 Z0.494
X-179.149 Y-54.115 Z0.493
X-179.169 Y-54.128 Z0.492
X-179.182 Y-54.149 Z0.491
X-179.187 Y-54.173 Z0.49
X-179.182 Y-54.196 Z0.489
X-179.169 Y-54.217
X-179.168
X-178.108 Y-55.278 Z0.436
X-178.085 Y-55.293 Z0.435
X-178.057 Y-55.296 Z0.434
X-178.031 Y-55.287 Z0.433
X-178.011 Y-55.267 Z0.432
X-178.002 Y-55.241 Z0.431
X-178.005 Y-55.213 Z0.43
X-178.02 Y-55.189 Z0.429
X-179.08 Y-54.129 Z0.377
X-179.101 Y-54.115 Z0.376
X-179.125 Y-54.11 Z0.375
X-179.149 Y-54.115 Z0.374
X-179.169 Y-54.128
X-179.182 Y-54.149 Z0.373
X-179.187 Y-54.173 Z0.372
X-179.182 Y-54.196 Z0.371
X-179.169 Y-54.217 Z0.37
X-179.168
X-178.108 Y-55.278 Z0.318
X-178.085 Y-55.293 Z0.317
X-178.057 Y-55.296 Z0.316
X-178.031 Y-55.287 Z0.315
X-178.011 Y-55.267 Z0.314
X-178.002 Y-55.241 Z0.313
X-178.005 Y-55.213 Z0.312
X-178.02 Y-55.189 Z0.311
X-179.08 Y-54.129 Z0.258
X-179.101 Y-54.115
X-179.125 Y-54.11 Z0.257
X-179.149 Y-54.115 Z0.256
X-179.169 Y-54.128 Z0.255
X-179.182 Y-54.149 Z0.254
X-179.187 Y-54.173 Z0.253
X-179.182 Y-54.196 Z0.252
X-179.169 Y-54.217
X-179.168
X-178.108 Y-55.278 Z0.199
X-178.085 Y-55.293 Z0.198
X-178.057 Y-55.296 Z0.197
X-178.031 Y-55.287 Z0.196
X-178.011 Y-55.267 Z0.195
X-178.002 Y-55.241 Z0.194
X-178.005 Y-55.213 Z0.193
X-178.02 Y-55.189 Z0.192
X-179.08 Y-54.129 Z0.14
X-179.101 Y-54.115 Z0.139
X-179.125 Y-54.11 Z0.138
X-179.149 Y-54.115 Z0.137
X-179.169 Y-54.128
X-179.182 Y-54.149 Z0.136
X-179.187 Y-54.173 Z0.135
X-179.182 Y-54.196 Z0.134
X-179.169 Y-54.217 Z0.133
X-179.168
X-178.108 Y-55.278 Z0.081
X-178.085 Y-55.293 Z0.08
X-178.057 Y-55.296 Z0.079
X-178.031 Y-55.287 Z0.078
X-178.011 Y-55.267 Z0.077
X-178.002 Y-55.241 Z0.076
X-178.005 Y-55.213 Z0.075
X-178.02 Y-55.189 Z0.074
X-179.08 Y-54.129 Z0.021
X-179.101 Y-54.115
X-179.125 Y-54.11 Z0.02
X-179.149 Y-54.115 Z0.019
X-179.169 Y-54.128 Z0.018
X-179.182 Y-54.149 Z0.017
X-179.187 Y-54.173 Z0.016
X-179.182 Y-54.196 Z0.015
X-179.169 Y-54.217
X-179.168
X-178.108 Y-55.278 Z-0.038
X-178.085 Y-55.293 Z-0.039
X-178.057 Y-55.296 Z-0.04
X-178.031 Y-55.287 Z-0.041
X-178.011 Y-55.267 Z-0.042
X-178.002 Y-55.241 Z-0.043
X-178.005 Y-55.213 Z-0.044
X-178.02 Y-55.189 Z-0.045
X-179.08 Y-54.129 Z-0.097
X-179.101 Y-54.115 Z-0.098
X-179.125 Y-54.11 Z-0.099
X-179.149 Y-54.115 Z-0.1
X-179.169 Y-54.128
X-179.182 Y-54.149 Z-0.101
X-179.187 Y-54.173 Z-0.102
X-179.182 Y-54.196 Z-0.103
X-179.169 Y-54.217 Z-0.104
X-179.168
X-178.108 Y-55.278 Z-0.156
X-178.085 Y-55.293 Z-0.157
X-178.057 Y-55.296 Z-0.158
X-178.031 Y-55.287 Z-0.159
X-178.011 Y-55.267 Z-0.16
X-178.002 Y-55.241 Z-0.161
X-178.005 Y-55.213 Z-0.162
X-178.02 Y-55.189 Z-0.163
X-179.08 Y-54.129 Z-0.216
X-179.101 Y-54.115
X-179.125 Y-54.11 Z-0.217
X-179.149 Y-54.115 Z-0.218
X-179.169 Y-54.128 Z-0.219
X-179.182 Y-54.149 Z-0.22
X-179.187 Y-54.173 Z-0.221
X-179.182 Y-54.196 Z-0.222
X-179.169 Y-54.217
X-179.168
X-178.108 Y-55.278 Z-0.275
X-178.085 Y-55.293 Z-0.276
X-178.057 Y-55.296 Z-0.277
X-178.031 Y-55.287 Z-0.278
X-178.011 Y-55.267 Z-0.279
X-178.002 Y-55.241 Z-0.28
X-178.005 Y-55.213 Z-0.281
X-178.02 Y-55.189 Z-0.282
X-179.08 Y-54.129 Z-0.334
X-179.101 Y-54.115 Z-0.335
X-179.125 Y-54.11 Z-0.336
X-179.149 Y-54.115 Z-0.337
X-179.169 Y-54.128
X-179.182 Y-54.149 Z-0.338
X-179.187 Y-54.173 Z-0.339
X-179.182 Y-54.196 Z-0.34
X-179.169 Y-54.217 Z-0.341
X-179.168
X-178.108 Y-55.278 Z-0.393
X-178.085 Y-55.293 Z-0.394
X-178.057 Y-55.296 Z-0.395
X-178.031 Y-55.287 Z-0.396
X-178.011 Y-55.267 Z-0.397
X-178.002 Y-55.241 Z-0.398
X-178.005 Y-55.213 Z-0.399
X-178.02 Y-55.189 Z-0.4
X-179.08 Y-54.129 Z-0.453
X-179.101 Y-54.115
X-179.125 Y-54.11 Z-0.454
X-179.149 Y-54.115 Z-0.455
X-179.169 Y-54.128 Z-0.456
X-179.182 Y-54.149 Z-0.457
X-179.187 Y-54.173 Z-0.458
X-179.182 Y-54.196 Z-0.459
X-179.169 Y-54.217
X-179.168
X-178.108 Y-55.278 Z-0.512
X-178.085 Y-55.293 Z-0.513
X-178.057 Y-55.296 Z-0.514
X-178.031 Y-55.287 Z-0.515
X-178.011 Y-55.267 Z-0.516
X-178.002 Y-55.241 Z-0.517
X-178.005 Y-55.213 Z-0.518
X-178.02 Y-55.189 Z-0.519
X-179.08 Y-54.129 Z-0.571
X-179.101 Y-54.115 Z-0.572
X-179.125 Y-54.11 Z-0.573
X-179.149 Y-54.115 Z-0.574
X-179.169 Y-54.128 Z-0.575
X-179.182 Y-54.149
X-179.187 Y-54.173 Z-0.576
X-179.182 Y-54.196 Z-0.577
X-179.169 Y-54.217 Z-0.578
X-179.168
X-178.108 Y-55.278 Z-0.63
X-178.085 Y-55.293 Z-0.631
X-178.057 Y-55.296 Z-0.632
X-178.031 Y-55.287 Z-0.633
X-178.011 Y-55.267 Z-0.634
X-178.002 Y-55.241 Z-0.635
X-178.005 Y-55.213 Z-0.636
X-178.02 Y-55.189 Z-0.637
X-179.08 Y-54.129 Z-0.69
X-179.101 Y-54.115
X-179.125 Y-54.11 Z-0.691
X-179.149 Y-54.115 Z-0.692
X-179.169 Y-54.128 Z-0.693
X-179.182 Y-54.149 Z-0.694
X-179.187 Y-54.173 Z-0.695
X-179.182 Y-54.196 Z-0.696
X-179.169 Y-54.217
X-179.168
X-178.108 Y-55.278 Z-0.749
X-178.085 Y-55.293 Z-0.75
X-178.057 Y-55.296 Z-0.751
X-178.031 Y-55.287 Z-0.752
X-178.011 Y-55.267 Z-0.753
X-178.002 Y-55.241 Z-0.754
X-178.005 Y-55.213 Z-0.755
X-178.02 Y-55.189 Z-0.756
X-179.08 Y-54.129 Z-0.808
X-179.101 Y-54.115 Z-0.809
X-179.125 Y-54.11 Z-0.81
X-179.149 Y-54.115 Z-0.811
X-179.169 Y-54.128 Z-0.812
X-179.182 Y-54.149
X-179.187 Y-54.173 Z-0.813
X-179.182 Y-54.196 Z-0.814
X-179.169 Y-54.217 Z-0.815
X-179.168
X-178.108 Y-55.278 Z-0.867
X-178.085 Y-55.293 Z-0.868
