(1001)
(Bearbeiten)
(  Hersteller: ChinaCnc)
(  model: 3040T)
(  description: Generic 3-axis)
(T5  D=3.175 CR=0 - ZMIN=-4.2 - Schaftfraser)
G90 G94
G17
G21
(When using Fusion 360 for Personal Use, the feedrate of)
(rapid moves is reduced to match the feedrate of cutting)
(moves, which can increase machining time. Unrestricted rapid)
(moves are available with a Fusion 360 Subscription.)

(Bohrfrasen10)
T5
S6000 M3
G54
G0 X-76.567 Y47.553
Z15
G1 Z2 F1000
Z0.317
G18 G3 X-76.884 Z0 I-0.317 K0
G1 X-77.043
G17 G3 X-77.36 Y47.236 I0 J-0.318
X-70.535 Y47.236 Z-0.5 I3.412 J0
X-77.36 Y47.236 Z-1 I-3.412 J0
X-70.535 Y47.236 Z-1.5 I3.412 J0
X-77.36 Y47.236 Z-2 I-3.412 J0
X-70.535 Y47.236 Z-2.5 I3.412 J0
X-77.36 Y47.236 Z-3 I-3.412 J0
X-70.535 Y47.236 Z-3.5 I3.412 J0
X-77.36 Y47.236 Z-4 I-3.412 J0
X-75.002 Y43.99 Z-4.2 I3.412 J0
X-72.893 Y50.481 I1.055 J3.245
X-75.002 Y43.99 I-1.055 J-3.245
X-74.602 Y44.194 I0.098 J0.302
G1 X-74.553 Y44.345
X-74.531 Y44.412 Z-4.192
X-74.511 Y44.476 Z-4.169
X-74.492 Y44.533 Z-4.131
X-74.477 Y44.581 Z-4.08
X-74.465 Y44.617 Z-4.02
X-74.458 Y44.64 Z-3.953
X-74.455 Y44.647 Z-3.882
Z5
X-12.623 Y47.623
Z2
Z0.317
G18 G3 X-12.94 Z0 I-0.318 K0
G1 X-13.099
G17 G3 X-13.416 Y47.306 I0 J-0.318
X-6.591 Y47.306 Z-0.5 I3.413 J0
X-13.416 Y47.306 Z-1 I-3.413 J0
X-6.591 Y47.306 Z-1.5 I3.413 J0
X-13.416 Y47.306 Z-2 I-3.412 J0
X-6.591 Y47.306 Z-2.5 I3.412 J0
X-13.416 Y47.306 Z-3 I-3.412 J0
X-6.591 Y47.306 Z-3.5 I3.412 J0
X-13.416 Y47.306 Z-4 I-3.412 J0
X-11.059 Y44.06 Z-4.2 I3.412 J0
X-8.949 Y50.551 I1.055 J3.245
X-11.059 Y44.06 I-1.055 J-3.245
X-10.658 Y44.264 I0.098 J0.302
G1 X-10.609 Y44.415
X-10.588 Y44.482 Z-4.192
X-10.567 Y44.546 Z-4.169
X-10.548 Y44.603 Z-4.131
X-10.533 Y44.651 Z-4.08
X-10.521 Y44.687 Z-4.02
X-10.514 Y44.709 Z-3.953
X-10.511 Y44.717 Z-3.882
Z5
X-4.428 Y26.13
Z1.683
Z0
X-4.459 Y26.099
X-4.455 Y26.084
X-4.443 Y26.072
X-4.428 Y26.068
X-4.398 Y26.075 Z-0.079
X-4.375 Y26.096 Z-0.158
X-4.366 Y26.126 Z-0.238
X-4.371 Y26.156 Z-0.317
X-4.39 Y26.18 Z-0.396
X-4.418 Y26.192 Z-0.475
X-4.449 Y26.189 Z-0.555
X-4.474 Y26.172 Z-0.634
X-4.489 Y26.145 Z-0.713
X-4.488 Y26.114 Z-0.792
X-4.473 Y26.087 Z-0.872
X-4.447 Y26.071 Z-0.951
X-4.416 Y26.069 Z-1.03
X-4.388 Y26.082 Z-1.109
X-4.37 Y26.107 Z-1.189
X-4.366 Y26.137 Z-1.268
X-4.377 Y26.166 Z-1.347
X-4.4 Y26.186 Z-1.426
X-4.43 Y26.193 Z-1.506
X-4.46 Y26.184 Z-1.585
X-4.481 Y26.162 Z-1.664
X-4.49 Y26.133 Z-1.743
X-4.484 Y26.103 Z-1.823
X-4.464 Y26.079 Z-1.902
X-4.435 Y26.068 Z-1.981
X-4.405 Y26.072 Z-2.06
X-4.38 Y26.09 Z-2.14
X-4.367 Y26.118 Z-2.219
X-4.368 Y26.149 Z-2.298
X-4.384 Y26.175 Z-2.377
X-4.411 Y26.191 Z-2.457
X-4.442 Z-2.536
X-4.469 Y26.177 Z-2.615
X-4.487 Y26.152 Z-2.694
X-4.49 Y26.121 Z-2.774
X-4.478 Y26.093 Z-2.853
X-4.454 Y26.073 Z-2.932
X-4.423 Y26.068 Z-3.011
X-4.394 Y26.078 Z-3.091
X-4.373 Y26.1 Z-3.17
X-4.365 Y26.13 Z-3.249
X-4.373 Y26.16 Z-3.328
X-4.394 Y26.183 Z-3.408
X-4.423 Y26.193 Z-3.487
X-4.453 Y26.188 Z-3.566
X-4.477 Y26.169 Z-3.645
X-4.49 Y26.14 Z-3.725
X-4.487 Y26.11 Z-3.804
X-4.47 Y26.084 Z-3.883
X-4.442 Y26.07 Z-3.962
X-4.412 Z-4.042
X-4.385 Y26.085 Z-4.121
X-4.368 Y26.111 Z-4.2
G3 X-4.487 Y26.15 I-0.059 J0.019
X-4.368 Y26.111 I0.059 J-0.019
G1 Y26.127
X-4.375 Y26.142
X-4.388 Y26.15
X-4.428 Y26.13
Z5
X7.276 Y11.491
Z2
Z0.317
G19 G2 Y11.173 Z0 J-0.317 K0
G1 Y11.015
G17 G3 X7.593 Y10.697 I0.318 J0
X7.593 Y17.522 Z-0.5 I0 J3.413
X7.593 Y10.697 Z-1 I0 J-3.413
X7.593 Y17.522 Z-1.5 I0 J3.413
X7.593 Y10.697 Z-2 I0 J-3.413
X7.593 Y17.522 Z-2.5 I0 J3.413
X7.593 Y10.697 Z-3 I0 J-3.413
X7.593 Y17.522 Z-3.5 I0 J3.413
X7.593 Y10.697 Z-4 I0 J-3.413
X10.838 Y13.055 Z-4.2 I0 J3.413
X4.348 Y15.164 I-3.245 J1.055
X10.838 Y13.055 I3.245 J-1.055
X10.635 Y13.455 I-0.302 J0.098
G1 X10.484 Y13.504
X10.416 Y13.526 Z-4.192
X10.353 Y13.547 Z-4.169
X10.295 Y13.565 Z-4.131
X10.248 Y13.581 Z-4.08
X10.212 Y13.593 Z-4.02
X10.189 Y13.6 Z-3.953
X10.182 Y13.602 Z-3.882
Z5
X19.614 Y26.13
Z1.683
Z0
X19.583 Y26.099
X19.587 Y26.084
X19.598 Y26.072
X19.614 Y26.068
X19.644 Y26.075 Z-0.079
X19.666 Y26.096 Z-0.158
X19.676 Y26.126 Z-0.238
X19.671 Y26.156 Z-0.317
X19.652 Y26.18 Z-0.396
X19.623 Y26.192 Z-0.475
X19.593 Y26.189 Z-0.555
X19.567 Y26.172 Z-0.634
X19.553 Y26.145 Z-0.713
X19.554 Y26.114 Z-0.792
X19.569 Y26.087 Z-0.872
X19.595 Y26.071 Z-0.951
X19.626 Y26.069 Z-1.03
X19.653 Y26.082 Z-1.109
X19.672 Y26.107 Z-1.189
X19.676 Y26.137 Z-1.268
X19.665 Y26.166 Z-1.347
X19.642 Y26.186 Z-1.426
X19.612 Y26.193 Z-1.506
X19.582 Y26.184 Z-1.585
X19.56 Y26.162 Z-1.664
X19.551 Y26.133 Z-1.743
X19.558 Y26.103 Z-1.823
X19.578 Y26.079 Z-1.902
X19.606 Y26.068 Z-1.981
X19.637 Y26.072 Z-2.06
X19.662 Y26.09 Z-2.14
X19.675 Y26.118 Z-2.219
X19.673 Y26.149 Z-2.298
X19.657 Y26.175 Z-2.377
X19.631 Y26.191 Z-2.457
X19.6 Z-2.536
X19.572 Y26.177 Z-2.615
X19.555 Y26.152 Z-2.694
X19.552 Y26.121 Z-2.774
X19.564 Y26.093 Z-2.853
X19.588 Y26.073 Z-2.932
X19.618 Y26.068 Z-3.011
X19.647 Y26.078 Z-3.091
X19.669 Y26.1 Z-3.17
X19.676 Y26.13 Z-3.249
X19.669 Y26.16 Z-3.328
X19.648 Y26.183 Z-3.408
X19.619 Y26.193 Z-3.487
X19.589 Y26.188 Z-3.566
X19.564 Y26.169 Z-3.645
X19.552 Y26.14 Z-3.725
X19.555 Y26.11 Z-3.804
X19.572 Y26.084 Z-3.883
X19.599 Y26.07 Z-3.962
X19.63 Z-4.042
X19.657 Y26.085 Z-4.121
X19.673 Y26.111 Z-4.2
G3 X19.554 Y26.15 I-0.059 J0.019
X19.673 Y26.111 I0.059 J-0.019
G1 X19.674 Y26.127
X19.667 Y26.142
X19.653 Y26.15
X19.614 Y26.13
Z5
Y2.089
Z1.683
Z0
X19.583 Y2.057
X19.587 Y2.042
X19.598 Y2.03
X19.614 Y2.026
X19.644 Y2.034 Z-0.079
X19.666 Y2.055 Z-0.158
X19.676 Y2.084 Z-0.238
X19.671 Y2.114 Z-0.317
X19.652 Y2.138 Z-0.396
X19.623 Y2.151 Z-0.475
X19.593 Y2.148 Z-0.555
X19.567 Y2.13 Z-0.634
X19.553 Y2.103 Z-0.713
X19.554 Y2.072 Z-0.792
X19.569 Y2.045 Z-0.872
X19.595 Y2.029 Z-0.951
X19.626 Y2.027 Z-1.03
X19.653 Y2.04 Z-1.109
X19.672 Y2.065 Z-1.189
X19.676 Y2.096 Z-1.268
X19.665 Y2.125 Z-1.347
X19.642 Y2.145 Z-1.426
X19.612 Y2.151 Z-1.506
X19.582 Y2.143 Z-1.585
X19.56 Y2.121 Z-1.664
X19.551 Y2.091 Z-1.743
X19.558 Y2.061 Z-1.823
X19.578 Y2.038 Z-1.902
X19.606 Y2.027 Z-1.981
X19.637 Y2.031 Z-2.06
X19.662 Y2.049 Z-2.14
X19.675 Y2.077 Z-2.219
X19.673 Y2.107 Z-2.298
X19.657 Y2.134 Z-2.377
X19.631 Y2.149 Z-2.457
X19.6 Y2.15 Z-2.536
X19.572 Y2.136 Z-2.615
X19.555 Y2.11 Z-2.694
X19.552 Y2.08 Z-2.774
X19.564 Y2.051 Z-2.853
X19.588 Y2.032 Z-2.932
X19.618 Y2.026 Z-3.011
X19.647 Y2.036 Z-3.091
X19.669 Y2.059 Z-3.17
X19.676 Y2.088 Z-3.249
X19.669 Y2.118 Z-3.328
X19.648 Y2.141 Z-3.408
X19.619 Y2.151 Z-3.487
X19.589 Y2.146 Z-3.566
X19.564 Y2.127 Z-3.645
X19.552 Y2.099 Z-3.725
X19.555 Y2.068 Z-3.804
X19.572 Y2.042 Z-3.883
X19.599 Y2.028 Z-3.962
X19.63 Z-4.042
X19.657 Y2.043 Z-4.121
X19.673 Y2.069 Z-4.2
G3 X19.554 Y2.108 I-0.059 J0.019
X19.673 Y2.069 I0.059 J-0.019
G1 X19.674 Y2.086
X19.667 Y2.1
X19.653 Y2.109
X19.614 Y2.089
Z5
X-4.428
Z1.683
Z0
X-4.459 Y2.057
X-4.455 Y2.042
X-4.443 Y2.03
X-4.428 Y2.026
X-4.398 Y2.034 Z-0.079
X-4.375 Y2.055 Z-0.158
X-4.366 Y2.084 Z-0.238
X-4.371 Y2.114 Z-0.317
X-4.39 Y2.138 Z-0.396
X-4.418 Y2.151 Z-0.475
X-4.449 Y2.148 Z-0.555
X-4.474 Y2.13 Z-0.634
X-4.489 Y2.103 Z-0.713
X-4.488 Y2.072 Z-0.792
X-4.473 Y2.045 Z-0.872
X-4.447 Y2.029 Z-0.951
X-4.416 Y2.027 Z-1.03
X-4.388 Y2.04 Z-1.109
X-4.37 Y2.065 Z-1.189
X-4.366 Y2.096 Z-1.268
X-4.377 Y2.125 Z-1.347
X-4.4 Y2.145 Z-1.426
X-4.43 Y2.151 Z-1.506
X-4.46 Y2.143 Z-1.585
X-4.481 Y2.121 Z-1.664
X-4.49 Y2.091 Z-1.743
X-4.484 Y2.061 Z-1.823
X-4.464 Y2.038 Z-1.902
X-4.435 Y2.027 Z-1.981
X-4.405 Y2.031 Z-2.06
X-4.38 Y2.049 Z-2.14
X-4.367 Y2.077 Z-2.219
X-4.368 Y2.107 Z-2.298
X-4.384 Y2.134 Z-2.377
X-4.411 Y2.149 Z-2.457
X-4.442 Y2.15 Z-2.536
X-4.469 Y2.136 Z-2.615
X-4.487 Y2.11 Z-2.694
X-4.49 Y2.08 Z-2.774
X-4.478 Y2.051 Z-2.853
X-4.454 Y2.032 Z-2.932
X-4.423 Y2.026 Z-3.011
X-4.394 Y2.036 Z-3.091
X-4.373 Y2.059 Z-3.17
X-4.365 Y2.088 Z-3.249
X-4.373 Y2.118 Z-3.328
X-4.394 Y2.141 Z-3.408
X-4.423 Y2.151 Z-3.487
X-4.453 Y2.146 Z-3.566
X-4.477 Y2.127 Z-3.645
X-4.49 Y2.099 Z-3.725
X-4.487 Y2.068 Z-3.804
X-4.47 Y2.042 Z-3.883
X-4.442 Y2.028 Z-3.962
X-4.412 Z-4.042
X-4.385 Y2.043 Z-4.121
X-4.368 Y2.069 Z-4.2
G3 X-4.487 Y2.108 I-0.059 J0.019
X-4.368 Y2.069 I0.059 J-0.019
G1 Y2.086
X-4.375 Y2.1
X-4.388 Y2.109
X-4.428 Y2.089
Z15
(When using Fusion 360 for Personal Use, the feedrate of)
(rapid moves is reduced to match the feedrate of cutting)
(moves, which can increase machining time. Unrestricted rapid)
(moves are available with a Fusion 360 Subscription.)

(2D-Kontur39)
G0 X1.936 Y19.855
G1 Z15 F1000
Z5
Z3 F333.3
Z2.5
S5000
X0.92 Y20.871 Z2.45
X0.896 Y20.886 Z2.449
X0.868 Y20.889 Z2.448
X0.842 Y20.88 Z2.447
X0.823 Y20.86 Z2.446
X0.813 Y20.834 Z2.445
X0.816 Y20.806 Z2.444
X0.831 Y20.783 Z2.443
X1.892 Y19.722 Z2.391
X1.915 Y19.707 Z2.39
X1.943 Y19.704 Z2.389
X1.969 Y19.713 Z2.388
X1.989 Y19.733 Z2.387
X1.998 Y19.759 Z2.386
X1.995 Y19.787 Z2.385
X1.98 Y19.811 Z2.384
X0.92 Y20.871 Z2.331
X0.896 Y20.886 Z2.33
X0.868 Y20.889 Z2.329
X0.842 Y20.88 Z2.328
X0.823 Y20.86 Z2.327
X0.813 Y20.834 Z2.326
X0.816 Y20.806 Z2.325
X0.831 Y20.783 Z2.324
X1.892 Y19.722 Z2.272
X1.915 Y19.707 Z2.271
X1.943 Y19.704 Z2.27
X1.969 Y19.713 Z2.269
X1.989 Y19.733 Z2.268
X1.998 Y19.759 Z2.267
X1.995 Y19.787 Z2.266
X1.98 Y19.811 Z2.265
X0.92 Y20.871 Z2.213
X0.896 Y20.886 Z2.212
X0.868 Y20.889 Z2.211
X0.842 Y20.88 Z2.21
X0.823 Y20.86 Z2.209
X0.813 Y20.834 Z2.208
X0.816 Y20.806 Z2.207
X0.831 Y20.783 Z2.206
X1.892 Y19.722 Z2.154
X1.915 Y19.707 Z2.153
X1.943 Y19.704 Z2.152
X1.969 Y19.713 Z2.151
X1.989 Y19.733 Z2.15
X1.998 Y19.759 Z2.149
X1.995 Y19.787 Z2.148
X1.98 Y19.811 Z2.147
X0.92 Y20.871 Z2.094
X0.896 Y20.886 Z2.093
X0.868 Y20.889 Z2.092
X0.842 Y20.88 Z2.091
X0.823 Y20.86 Z2.09
X0.813 Y20.834 Z2.089
X0.816 Y20.806 Z2.088
X0.831 Y20.783
X1.892 Y19.722 Z2.035
X1.915 Y19.707 Z2.034
X1.943 Y19.704 Z2.033
X1.969 Y19.713 Z2.032
X1.989 Y19.733 Z2.031
X1.998 Y19.759 Z2.03
X1.995 Y19.787 Z2.029
X1.98 Y19.811 Z2.028
X0.92 Y20.871 Z1.976
X0.896 Y20.886 Z1.975
X0.868 Y20.889 Z1.974
X0.842 Y20.88 Z1.973
X0.823 Y20.86 Z1.972
X0.813 Y20.834 Z1.971
X0.816 Y20.806 Z1.97
X0.831 Y20.783 Z1.969
X1.892 Y19.722 Z1.917
X1.915 Y19.707 Z1.916
X1.943 Y19.704 Z1.915
X1.969 Y19.713 Z1.914
X1.989 Y19.733 Z1.913
X1.998 Y19.759 Z1.912
X1.995 Y19.787 Z1.911
X1.98 Y19.811 Z1.91
X0.92 Y20.871 Z1.857
X0.896 Y20.886 Z1.856
X0.868 Y20.889 Z1.855
X0.842 Y20.88 Z1.854
X0.823 Y20.86 Z1.853
X0.813 Y20.834
X0.816 Y20.806 Z1.852
X0.831 Y20.783 Z1.851
X1.892 Y19.722 Z1.798
X1.915 Y19.707 Z1.797
X1.943 Y19.704 Z1.796
X1.969 Y19.713 Z1.795
X1.989 Y19.733 Z1.794
X1.998 Y19.759 Z1.793
X1.995 Y19.787 Z1.792
X1.98 Y19.811 Z1.791
X0.92 Y20.871 Z1.739
X0.896 Y20.886 Z1.738
X0.868 Y20.889 Z1.737
X0.842 Y20.88 Z1.736
X0.823 Y20.86 Z1.735
X0.813 Y20.834 Z1.734
X0.816 Y20.806 Z1.733
X0.831 Y20.783 Z1.732
X1.892 Y19.722 Z1.68
X1.915 Y19.707 Z1.679
X1.943 Y19.704 Z1.678
X1.969 Y19.713 Z1.677
X1.989 Y19.733 Z1.676
X1.998 Y19.759 Z1.675
X1.995 Y19.787 Z1.674
X1.98 Y19.811 Z1.673
X0.92 Y20.871 Z1.62
X0.896 Y20.886 Z1.619
X0.868 Y20.889 Z1.618
X0.842 Y20.88
X0.823 Y20.86 Z1.617
X0.813 Y20.834 Z1.616
X0.816 Y20.806 Z1.615
X0.831 Y20.783 Z1.614
X1.892 Y19.722 Z1.561
X1.915 Y19.707 Z1.56
X1.943 Y19.704 Z1.559
X1.969 Y19.713 Z1.558
X1.989 Y19.733 Z1.557
X1.998 Y19.759 Z1.556
X1.995 Y19.787 Z1.555
X1.98 Y19.811 Z1.554
X0.92 Y20.871 Z1.502
X0.896 Y20.886 Z1.501
X0.868 Y20.889 Z1.5
X0.842 Y20.88 Z1.499
X0.823 Y20.86 Z1.498
X0.813 Y20.834 Z1.497
X0.816 Y20.806 Z1.496
X0.831 Y20.783 Z1.495
X1.892 Y19.722 Z1.443
X1.915 Y19.707 Z1.442
X1.943 Y19.704 Z1.441
X1.969 Y19.713 Z1.44
X1.989 Y19.733 Z1.439
X1.998 Y19.759 Z1.438
X1.995 Y19.787 Z1.437
X1.98 Y19.811 Z1.436
X0.92 Y20.871 Z1.383
X0.896 Y20.886
X0.868 Y20.889 Z1.382
X0.842 Y20.88 Z1.381
X0.823 Y20.86 Z1.38
X0.813 Y20.834 Z1.379
X0.816 Y20.806 Z1.378
X0.831 Y20.783 Z1.377
X1.892 Y19.722 Z1.324
X1.915 Y19.707 Z1.323
X1.943 Y19.704 Z1.322
X1.969 Y19.713 Z1.321
X1.989 Y19.733 Z1.32
X1.998 Y19.759 Z1.319
X1.995 Y19.787 Z1.318
X1.98 Y19.811 Z1.317
X0.92 Y20.871 Z1.265
X0.896 Y20.886 Z1.264
X0.868 Y20.889 Z1.263
X0.842 Y20.88 Z1.262
X0.823 Y20.86 Z1.261
X0.813 Y20.834 Z1.26
X0.816 Y20.806 Z1.259
X0.831 Y20.783 Z1.258
X1.892 Y19.722 Z1.206
X1.915 Y19.707 Z1.205
X1.943 Y19.704 Z1.204
X1.969 Y19.713 Z1.203
X1.989 Y19.733 Z1.202
X1.998 Y19.759 Z1.201
X1.995 Y19.787 Z1.2
X1.98 Y19.811 Z1.199
X0.92 Y20.871 Z1.147
X0.896 Y20.886 Z1.146
X0.868 Y20.889 Z1.145
X0.842 Y20.88 Z1.144
X0.823 Y20.86 Z1.143
X0.813 Y20.834 Z1.142
X0.816 Y20.806 Z1.141
X0.831 Y20.783 Z1.14
X1.892 Y19.722 Z1.087
X1.915 Y19.707 Z1.086
X1.943 Y19.704 Z1.085
X1.969 Y19.713 Z1.084
X1.989 Y19.733 Z1.083
X1.998 Y19.759 Z1.082
X1.995 Y19.787 Z1.081
X1.98 Y19.811 Z1.08
X0.92 Y20.871 Z1.028
X0.896 Y20.886 Z1.027
X0.868 Y20.889 Z1.026
X0.842 Y20.88 Z1.025
X0.823 Y20.86 Z1.024
X0.813 Y20.834 Z1.023
X0.816 Y20.806 Z1.022
X0.831 Y20.783 Z1.021
X1.892 Y19.722 Z0.969
X1.915 Y19.707 Z0.968
X1.943 Y19.704 Z0.967
X1.969 Y19.713 Z0.966
X1.989 Y19.733 Z0.965
X1.998 Y19.759 Z0.964
X1.995 Y19.787 Z0.963
X1.98 Y19.811 Z0.962
X0.92 Y20.871 Z0.91
X0.896 Y20.886 Z0.909
X0.868 Y20.889 Z0.908
X0.842 Y20.88 Z0.907
X0.823 Y20.86 Z0.906
X0.813 Y20.834 Z0.905
X0.816 Y20.806 Z0.904
X0.831 Y20.783 Z0.903
X1.892 Y19.722 Z0.85
X1.915 Y19.707 Z0.849
X1.943 Y19.704 Z0.848
X1.969 Y19.713 Z0.847
X1.989 Y19.733 Z0.846
X1.998 Y19.759 Z0.845
X1.995 Y19.787 Z0.844
X1.98 Y19.811 Z0.843
X0.92 Y20.871 Z0.791
X0.896 Y20.886 Z0.79
X0.868 Y20.889 Z0.789
X0.842 Y20.88 Z0.788
X0.823 Y20.86 Z0.787
X0.813 Y20.834 Z0.786
X0.816 Y20.806 Z0.785
X0.831 Y20.783 Z0.784
X1.892 Y19.722 Z0.732
X1.915 Y19.707 Z0.731
X1.943 Y19.704 Z0.73
X1.969 Y19.713 Z0.729
X1.989 Y19.733 Z0.728
X1.998 Y19.759 Z0.727
X1.995 Y19.787 Z0.726
X1.98 Y19.811 Z0.725
X0.92 Y20.871 Z0.673
X0.896 Y20.886 Z0.672
X0.868 Y20.889 Z0.671
X0.842 Y20.88 Z0.67
X0.823 Y20.86 Z0.669
X0.813 Y20.834 Z0.668
X0.816 Y20.806 Z0.667
X0.831 Y20.783 Z0.666
X1.892 Y19.722 Z0.613
X1.915 Y19.707 Z0.612
X1.943 Y19.704 Z0.611
X1.969 Y19.713 Z0.61
X1.989 Y19.733 Z0.609
X1.998 Y19.759 Z0.608
X1.995 Y19.787
X1.98 Y19.811 Z0.607
X0.92 Y20.871 Z0.554
X0.896 Y20.886 Z0.553
X0.868 Y20.889 Z0.552
X0.842 Y20.88 Z0.551
X0.823 Y20.86 Z0.55
X0.813 Y20.834 Z0.549
X0.816 Y20.806 Z0.548
X0.831 Y20.783 Z0.547
X1.892 Y19.722 Z0.495
X1.915 Y19.707 Z0.494
X1.943 Y19.704 Z0.493
X1.969 Y19.713 Z0.492
X1.989 Y19.733 Z0.491
X1.998 Y19.759 Z0.49
X1.995 Y19.787 Z0.489
X1.98 Y19.811 Z0.488
X0.92 Y20.871 Z0.436
X0.896 Y20.886 Z0.435
X0.868 Y20.889 Z0.434
X0.842 Y20.88 Z0.433
X0.823 Y20.86 Z0.432
X0.813 Y20.834 Z0.431
X0.816 Y20.806 Z0.43
X0.831 Y20.783 Z0.429
X1.892 Y19.722 Z0.376
X1.915 Y19.707 Z0.375
X1.943 Y19.704 Z0.374
X1.969 Y19.713 Z0.373
X1.989 Y19.733
X1.998 Y19.759 Z0.372
X1.995 Y19.787 Z0.371
X1.98 Y19.811 Z0.37
X0.92 Y20.871 Z0.317
X0.896 Y20.886 Z0.316
X0.868 Y20.889 Z0.315
X0.842 Y20.88 Z0.314
X0.823 Y20.86 Z0.313
X0.813 Y20.834 Z0.312
X0.816 Y20.806 Z0.311
X0.831 Y20.783 Z0.31
X1.892 Y19.722 Z0.258
X1.915 Y19.707 Z0.257
X1.943 Y19.704 Z0.256
X1.969 Y19.713 Z0.255
X1.989 Y19.733 Z0.254
X1.998 Y19.759 Z0.253
X1.995 Y19.787 Z0.252
X1.98 Y19.811 Z0.251
X0.92 Y20.871 Z0.199
X0.896 Y20.886 Z0.198
X0.868 Y20.889 Z0.197
X0.842 Y20.88 Z0.196
X0.823 Y20.86 Z0.195
X0.813 Y20.834 Z0.194
X0.816 Y20.806 Z0.193
X0.831 Y20.783 Z0.192
X1.892 Y19.722 Z0.139
X1.915 Y19.707 Z0.138
X1.943 Y19.704
X1.969 Y19.713 Z0.137
X1.989 Y19.733 Z0.136
X1.998 Y19.759 Z0.135
X1.995 Y19.787 Z0.134
X1.98 Y19.811 Z0.133
X0.92 Y20.871 Z0.08
X0.896 Y20.886 Z0.079
X0.868 Y20.889 Z0.078
X0.842 Y20.88 Z0.077
X0.823 Y20.86 Z0.076
X0.813 Y20.834 Z0.075
X0.816 Y20.806 Z0.074
X0.831 Y20.783 Z0.073
X1.892 Y19.722 Z0.021
X1.915 Y19.707 Z0.02
X1.943 Y19.704 Z0.019
X1.969 Y19.713 Z0.018
X1.989 Y19.733 Z0.017
X1.998 Y19.759 Z0.016
X1.995 Y19.787 Z0.015
X1.98 Y19.811 Z0.014
X0.92 Y20.871 Z-0.038
X0.896 Y20.886 Z-0.039
X0.868 Y20.889 Z-0.04
X0.842 Y20.88 Z-0.041
X0.823 Y20.86 Z-0.042
X0.813 Y20.834 Z-0.043
X0.816 Y20.806 Z-0.044
X0.831 Y20.783 Z-0.045
X1.892 Y19.722 Z-0.097
X1.915 Y19.707 Z-0.098
X1.943 Y19.704 Z-0.099
X1.969 Y19.713 Z-0.1
X1.989 Y19.733 Z-0.101
X1.998 Y19.759 Z-0.102
X1.995 Y19.787 Z-0.103
X1.98 Y19.811 Z-0.104
X0.92 Y20.871 Z-0.157
X0.896 Y20.886 Z-0.158
X0.868 Y20.889 Z-0.159
X0.842 Y20.88 Z-0.16
X0.823 Y20.86 Z-0.161
X0.813 Y20.834 Z-0.162
X0.816 Y20.806 Z-0.163
X0.831 Y20.783 Z-0.164
X1.892 Y19.722 Z-0.216
X1.915 Y19.707 Z-0.217
X1.943 Y19.704 Z-0.218
X1.969 Y19.713 Z-0.219
X1.989 Y19.733 Z-0.22
X1.998 Y19.759 Z-0.221
X1.995 Y19.787 Z-0.222
X1.98 Y19.811 Z-0.223
X0.92 Y20.871 Z-0.275
X0.896 Y20.886 Z-0.276
X0.868 Y20.889 Z-0.277
X0.842 Y20.88 Z-0.278
X0.823 Y20.86 Z-0.279
X0.813 Y20.834 Z-0.28
X0.816 Y20.806 Z-0.281
X0.831 Y20.783 Z-0.282
X1.892 Y19.722 Z-0.334
X1.915 Y19.707 Z-0.335
X1.943 Y19.704 Z-0.336
X1.969 Y19.713 Z-0.337
X1.989 Y19.733 Z-0.338
X1.998 Y19.759 Z-0.339
X1.995 Y19.787 Z-0.34
X1.98 Y19.811 Z-0.341
X0.92 Y20.871 Z-0.394
X0.896 Y20.886 Z-0.395
X0.868 Y20.889 Z-0.396
X0.842 Y20.88 Z-0.397
X0.823 Y20.86 Z-0.398
X0.813 Y20.834 Z-0.399
X0.816 Y20.806 Z-0.4
X0.831 Y20.783 Z-0.401
X1.892 Y19.722 Z-0.453
X1.915 Y19.707 Z-0.454
X1.943 Y19.704 Z-0.455
X1.969 Y19.713 Z-0.456
X1.989 Y19.733 Z-0.457
X1.998 Y19.759 Z-0.458
X1.995 Y19.787 Z-0.459
X1.98 Y19.811 Z-0.46
X0.92 Y20.871 Z-0.512
X0.896 Y20.886 Z-0.513
X0.868 Y20.889 Z-0.514
X0.842 Y20.88 Z-0.515
X0.823 Y20.86 Z-0.516
X0.813 Y20.834 Z-0.517
X0.816 Y20.806 Z-0.518
X0.831 Y20.783 Z-0.519
X1.892 Y19.722 Z-0.571
X1.915 Y19.707 Z-0.572
X1.943 Y19.704 Z-0.573
X1.969 Y19.713 Z-0.574
X1.989 Y19.733 Z-0.575
X1.998 Y19.759 Z-0.576
X1.995 Y19.787 Z-0.577
X1.98 Y19.811 Z-0.578
X0.92 Y20.871 Z-0.631
X0.896 Y20.886 Z-0.632
X0.868 Y20.889 Z-0.633
X0.842 Y20.88 Z-0.634
X0.823 Y20.86 Z-0.635
X0.813 Y20.834 Z-0.636
X0.816 Y20.806 Z-0.637
X0.831 Y20.783
X1.892 Y19.722 Z-0.69
X1.915 Y19.707 Z-0.691
X1.943 Y19.704 Z-0.692
X1.969 Y19.713 Z-0.693
X1.989 Y19.733 Z-0.694
X1.998 Y19.759 Z-0.695
X1.995 Y19.787 Z-0.696
X1.98 Y19.811 Z-0.697
X0.92 Y20.871 Z-0.749
X0.896 Y20.886 Z-0.75
X0.868 Y20.889 Z-0.751
X0.842 Y20.88 Z-0.752
X0.823 Y20.86 Z-0.753
X0.813 Y20.834 Z-0.754
X0.816 Y20.806 Z-0.755
X0.831 Y20.783 Z-0.756
X1.892 Y19.722 Z-0.808
X1.915 Y19.707 Z-0.809
X1.943 Y19.704 Z-0.81
X1.969 Y19.713 Z-0.811
X1.989 Y19.733 Z-0.812
X1.998 Y19.759 Z-0.813
X1.995 Y19.787 Z-0.814
X1.98 Y19.811 Z-0.815
X0.92 Y20.871 Z-0.868
X0.896 Y20.886 Z-0.869
X0.868 Y20.889 Z-0.87
X0.842 Y20.88 Z-0.871
X0.823 Y20.86 Z-0.872
X0.813 Y20.834
X0.816 Y20.806 Z-0.873
X0.831 Y20.783 Z-0.874
X1.892 Y19.722 Z-0.927
X1.915 Y19.707 Z-0.928
X1.943 Y19.704 Z-0.929
X1.969 Y19.713 Z-0.93
X1.989 Y19.733 Z-0.931
X1.998 Y19.759 Z-0.932
X1.995 Y19.787 Z-0.933
X1.98 Y19.811 Z-0.934
X0.92 Y20.871 Z-0.986
X0.896 Y20.886 Z-0.987
X0.868 Y20.889 Z-0.988
X0.842 Y20.88 Z-0.989
X0.823 Y20.86 Z-0.99
X0.813 Y20.834 Z-0.991
X0.816 Y20.806 Z-0.992
X0.831 Y20.783 Z-0.993
X1.892 Y19.722 Z-1.045
X1.915 Y19.707 Z-1.046
X1.943 Y19.704 Z-1.047
X1.969 Y19.713 Z-1.048
X1.989 Y19.733 Z-1.049
X1.998 Y19.759 Z-1.05
X1.995 Y19.787 Z-1.051
X1.98 Y19.811 Z-1.052
X0.92 Y20.871 Z-1.105
X0.896 Y20.886 Z-1.106
X0.868 Y20.889 Z-1.107
X0.842 Y20.88
X0.823 Y20.86 Z-1.108
X0.813 Y20.834 Z-1.109
X0.816 Y20.806 Z-1.11
X0.831 Y20.783 Z-1.111
X1.892 Y19.722 Z-1.164
X1.915 Y19.707 Z-1.165
X1.943 Y19.704 Z-1.166
X1.969 Y19.713 Z-1.167
X1.989 Y19.733 Z-1.168
X1.998 Y19.759 Z-1.169
X1.995 Y19.787 Z-1.17
X1.98 Y19.811 Z-1.171
X0.92 Y20.871 Z-1.223
X0.896 Y20.886 Z-1.224
X0.868 Y20.889 Z-1.225
X0.842 Y20.88 Z-1.226
X0.823 Y20.86 Z-1.227
X0.813 Y20.834 Z-1.228
X0.816 Y20.806 Z-1.229
X0.831 Y20.783 Z-1.23
X1.892 Y19.722 Z-1.282
X1.915 Y19.707 Z-1.283
X1.943 Y19.704 Z-1.284
X1.969 Y19.713 Z-1.285
X1.989 Y19.733 Z-1.286
X1.998 Y19.759 Z-1.287
X1.995 Y19.787 Z-1.288
X1.98 Y19.811 Z-1.289
X0.92 Y20.871 Z-1.342
X0.896 Y20.886
X0.868 Y20.889 Z-1.343
X0.842 Y20.88 Z-1.344
X0.823 Y20.86 Z-1.345
X0.813 Y20.834 Z-1.346
X0.816 Y20.806 Z-1.347
X0.831 Y20.783 Z-1.348
X1.892 Y19.722 Z-1.401
X1.915 Y19.707 Z-1.402
X1.943 Y19.704 Z-1.403
X1.969 Y19.713 Z-1.404
X1.989 Y19.733 Z-1.405
X1.998 Y19.759 Z-1.406
X1.995 Y19.787 Z-1.407
X1.98 Y19.811 Z-1.408
X0.92 Y20.871 Z-1.46
X0.896 Y20.886 Z-1.461
X0.868 Y20.889 Z-1.462
X0.842 Y20.88 Z-1.463
X0.823 Y20.86 Z-1.464
X0.813 Y20.834 Z-1.465
X0.816 Y20.806 Z-1.466
X0.831 Y20.783 Z-1.467
X1.892 Y19.722 Z-1.519
X1.915 Y19.707 Z-1.52
X1.943 Y19.704 Z-1.521
X1.969 Y19.713 Z-1.522
X1.989 Y19.733 Z-1.523
X1.998 Y19.759 Z-1.524
X1.995 Y19.787 Z-1.525
X1.98 Y19.811 Z-1.526
X0.92 Y20.871 Z-1.578
X0.896 Y20.886 Z-1.579
X0.868 Y20.889 Z-1.58
X0.842 Y20.88 Z-1.581
X0.823 Y20.86 Z-1.582
X0.813 Y20.834 Z-1.583
X0.816 Y20.806 Z-1.584
X0.831 Y20.783 Z-1.585
X1.892 Y19.722 Z-1.638
X1.915 Y19.707 Z-1.639
X1.943 Y19.704 Z-1.64
X1.969 Y19.713 Z-1.641
X1.989 Y19.733 Z-1.642
X1.998 Y19.759 Z-1.643
X1.995 Y19.787 Z-1.644
X1.98 Y19.811 Z-1.645
X0.92 Y20.871 Z-1.697
X0.896 Y20.886 Z-1.698
X0.868 Y20.889 Z-1.699
X0.842 Y20.88 Z-1.7
X0.823 Y20.86 Z-1.701
X0.813 Y20.834 Z-1.702
X0.816 Y20.806 Z-1.703
X0.831 Y20.783 Z-1.704
X1.892 Y19.722 Z-1.756
X1.915 Y19.707 Z-1.757
X1.943 Y19.704 Z-1.758
X1.969 Y19.713 Z-1.759
X1.989 Y19.733 Z-1.76
X1.998 Y19.759 Z-1.761
X1.995 Y19.787 Z-1.762
X1.98 Y19.811 Z-1.763
X0.92 Y20.871 Z-1.815
X0.896 Y20.886 Z-1.816
X0.868 Y20.889 Z-1.817
X0.842 Y20.88 Z-1.818
X0.823 Y20.86 Z-1.819
X0.813 Y20.834 Z-1.82
X0.816 Y20.806 Z-1.821
X0.831 Y20.783 Z-1.822
X1.892 Y19.722 Z-1.875
X1.915 Y19.707 Z-1.876
X1.943 Y19.704 Z-1.877
X1.969 Y19.713 Z-1.878
X1.989 Y19.733 Z-1.879
X1.998 Y19.759 Z-1.88
X1.995 Y19.787 Z-1.881
X1.98 Y19.811 Z-1.882
X0.92 Y20.871 Z-1.934
X0.896 Y20.886 Z-1.935
X0.868 Y20.889 Z-1.936
X0.842 Y20.88 Z-1.937
X0.823 Y20.86 Z-1.938
X0.813 Y20.834 Z-1.939
X0.816 Y20.806 Z-1.94
X0.831 Y20.783 Z-1.941
X1.892 Y19.722 Z-1.993
X1.915 Y19.707 Z-1.994
X1.943 Y19.704 Z-1.995
X1.969 Y19.713 Z-1.996
X1.989 Y19.733 Z-1.997
X1.998 Y19.759 Z-1.998
X1.995 Y19.787 Z-1.999
X1.98 Y19.811 Z-2
S6000
X0.92 Y20.871 F1000
X0.896 Y20.886
X0.868 Y20.889
X0.842 Y20.88
X0.823 Y20.86
X0.813 Y20.834
X0.816 Y20.806
X0.831 Y20.783
X1.892 Y19.722
X1.915 Y19.707
X1.943 Y19.704
X1.969 Y19.713
X1.989 Y19.733
X1.998 Y19.759
X1.995 Y19.787
X1.98 Y19.811
S5000
X0.92 Y20.871 Z-2.052 F333.3
X0.896 Y20.886 Z-2.053
X0.868 Y20.889 Z-2.054
X0.842 Y20.88 Z-2.055
X0.823 Y20.86 Z-2.056
X0.813 Y20.834 Z-2.057
X0.816 Y20.806 Z-2.058
X0.831 Y20.783 Z-2.059
X1.892 Y19.722 Z-2.112
X1.915 Y19.707 Z-2.113
X1.943 Y19.704 Z-2.114
X1.969 Y19.713 Z-2.115
X1.989 Y19.733 Z-2.116
X1.998 Y19.759 Z-2.117
X1.995 Y19.787
X1.98 Y19.811 Z-2.118
X0.92 Y20.871 Z-2.171
X0.896 Y20.886 Z-2.172
X0.868 Y20.889 Z-2.173
X0.842 Y20.88 Z-2.174
X0.823 Y20.86 Z-2.175
X0.813 Y20.834 Z-2.176
X0.816 Y20.806 Z-2.177
X0.831 Y20.783 Z-2.178
X1.892 Y19.722 Z-2.23
X1.915 Y19.707 Z-2.231
X1.943 Y19.704 Z-2.232
X1.969 Y19.713 Z-2.233
X1.989 Y19.733 Z-2.234
X1.998 Y19.759 Z-2.235
X1.995 Y19.787 Z-2.236
X1.98 Y19.811 Z-2.237
X0.92 Y20.871 Z-2.289
X0.896 Y20.886 Z-2.29
X0.868 Y20.889 Z-2.291
X0.842 Y20.88 Z-2.292
X0.823 Y20.86 Z-2.293
X0.813 Y20.834 Z-2.294
X0.816 Y20.806 Z-2.295
X0.831 Y20.783 Z-2.296
X1.892 Y19.722 Z-2.349
X1.915 Y19.707 Z-2.35
X1.943 Y19.704 Z-2.351
X1.969 Y19.713 Z-2.352
X1.989 Y19.733
X1.998 Y19.759 Z-2.353
X1.995 Y19.787 Z-2.354
X1.98 Y19.811 Z-2.355
X0.92 Y20.871 Z-2.408
X0.896 Y20.886 Z-2.409
X0.868 Y20.889 Z-2.41
X0.842 Y20.88 Z-2.411
X0.823 Y20.86 Z-2.412
X0.813 Y20.834 Z-2.413
X0.816 Y20.806 Z-2.414
X0.831 Y20.783 Z-2.415
X1.892 Y19.722 Z-2.467
X1.915 Y19.707 Z-2.468
X1.943 Y19.704 Z-2.469
X1.969 Y19.713 Z-2.47
X1.989 Y19.733 Z-2.471
X1.998 Y19.759 Z-2.472
X1.995 Y19.787 Z-2.473
X1.98 Y19.811 Z-2.474
X0.92 Y20.871 Z-2.526
X0.896 Y20.886 Z-2.527
X0.868 Y20.889 Z-2.528
X0.842 Y20.88 Z-2.529
X0.823 Y20.86 Z-2.53
X0.813 Y20.834 Z-2.531
X0.816 Y20.806 Z-2.532
X0.831 Y20.783 Z-2.533
X1.892 Y19.722 Z-2.586
X1.915 Y19.707 Z-2.587
X1.943 Y19.704
X1.969 Y19.713 Z-2.588
X1.989 Y19.733 Z-2.589
X1.998 Y19.759 Z-2.59
X1.995 Y19.787 Z-2.591
X1.98 Y19.811 Z-2.592
X0.92 Y20.871 Z-2.645
X0.896 Y20.886 Z-2.646
X0.868 Y20.889 Z-2.647
X0.842 Y20.88 Z-2.648
X0.823 Y20.86 Z-2.649
X0.813 Y20.834 Z-2.65
X0.816 Y20.806 Z-2.651
X0.831 Y20.783 Z-2.652
X1.892 Y19.722 Z-2.704
X1.915 Y19.707 Z-2.705
X1.943 Y19.704 Z-2.706
X1.969 Y19.713 Z-2.707
X1.989 Y19.733 Z-2.708
X1.998 Y19.759 Z-2.709
X1.995 Y19.787 Z-2.71
X1.98 Y19.811 Z-2.711
X0.92 Y20.871 Z-2.763
X0.896 Y20.886 Z-2.764
X0.868 Y20.889 Z-2.765
X0.842 Y20.88 Z-2.766
X0.823 Y20.86 Z-2.767
X0.813 Y20.834 Z-2.768
X0.816 Y20.806 Z-2.769
X0.831 Y20.783 Z-2.77
X1.892 Y19.722 Z-2.822
X1.915 Y19.707 Z-2.823
X1.943 Y19.704 Z-2.824
X1.969 Y19.713 Z-2.825
X1.989 Y19.733 Z-2.826
X1.998 Y19.759 Z-2.827
X1.995 Y19.787 Z-2.828
X1.98 Y19.811 Z-2.829
X0.92 Y20.871 Z-2.882
X0.896 Y20.886 Z-2.883
X0.868 Y20.889 Z-2.884
X0.842 Y20.88 Z-2.885
X0.823 Y20.86 Z-2.886
X0.813 Y20.834 Z-2.887
X0.816 Y20.806 Z-2.888
X0.831 Y20.783 Z-2.889
X1.892 Y19.722 Z-2.941
X1.915 Y19.707 Z-2.942
X1.943 Y19.704 Z-2.943
X1.969 Y19.713 Z-2.944
X1.989 Y19.733 Z-2.945
X1.998 Y19.759 Z-2.946
X1.995 Y19.787 Z-2.947
X1.98 Y19.811 Z-2.948
X0.92 Y20.871 Z-3
X0.896 Y20.886 Z-3.001
X0.868 Y20.889 Z-3.002
X0.842 Y20.88 Z-3.003
X0.823 Y20.86 Z-3.004
X0.813 Y20.834 Z-3.005
X0.816 Y20.806 Z-3.006
X0.831 Y20.783 Z-3.007
X1.892 Y19.722 Z-3.059
X1.915 Y19.707 Z-3.06
X1.943 Y19.704 Z-3.061
X1.969 Y19.713 Z-3.062
X1.989 Y19.733 Z-3.063
X1.998 Y19.759 Z-3.064
X1.995 Y19.787 Z-3.065
X1.98 Y19.811 Z-3.066
X1.298 Y20.493 Z-3.1
S6000
X0.92 Y20.871 F1000
X0.896 Y20.886
X0.868 Y20.889
X0.842 Y20.88
X0.823 Y20.86
X0.813 Y20.834
X0.816 Y20.806
X0.831 Y20.783
X1.892 Y19.722
X1.915 Y19.707
X1.943 Y19.704
X1.969 Y19.713
X1.989 Y19.733
X1.998 Y19.759
X1.995 Y19.787
X1.98 Y19.811
X1.298 Y20.493
S5000
X0.92 Y20.871 Z-3.119 F333.3
X0.896 Y20.886 Z-3.12
X0.868 Y20.889 Z-3.121
X0.842 Y20.88 Z-3.122
X0.823 Y20.86 Z-3.123
X0.813 Y20.834 Z-3.124
X0.816 Y20.806 Z-3.125
X0.831 Y20.783 Z-3.126
X1.892 Y19.722 Z-3.178
X1.915 Y19.707 Z-3.179
X1.943 Y19.704 Z-3.18
X1.969 Y19.713 Z-3.181
X1.989 Y19.733 Z-3.182
X1.998 Y19.759 Z-3.183
X1.995 Y19.787 Z-3.184
X1.98 Y19.811 Z-3.185
X0.92 Y20.871 Z-3.237
X0.896 Y20.886 Z-3.238
X0.868 Y20.889 Z-3.239
X0.842 Y20.88 Z-3.24
X0.823 Y20.86 Z-3.241
X0.813 Y20.834 Z-3.242
X0.816 Y20.806 Z-3.243
X0.831 Y20.783 Z-3.244
X1.892 Y19.722 Z-3.296
X1.915 Y19.707 Z-3.297
X1.943 Y19.704 Z-3.298
X1.969 Y19.713 Z-3.299
X1.989 Y19.733 Z-3.3
X1.998 Y19.759 Z-3.301
X1.995 Y19.787 Z-3.302
X1.98 Y19.811 Z-3.303
X0.92 Y20.871 Z-3.356
X0.896 Y20.886 Z-3.357
X0.868 Y20.889 Z-3.358
X0.842 Y20.88 Z-3.359
X0.823 Y20.86 Z-3.36
X0.813 Y20.834 Z-3.361
X0.816 Y20.806 Z-3.362
X0.831 Y20.783 Z-3.363
X1.892 Y19.722 Z-3.415
X1.915 Y19.707 Z-3.416
X1.943 Y19.704 Z-3.417
X1.969 Y19.713 Z-3.418
X1.989 Y19.733 Z-3.419
X1.998 Y19.759 Z-3.42
X1.995 Y19.787 Z-3.421
X1.98 Y19.811 Z-3.422
X0.92 Y20.871 Z-3.474
X0.896 Y20.886 Z-3.475
X0.868 Y20.889 Z-3.476
X0.842 Y20.88 Z-3.477
X0.823 Y20.86 Z-3.478
X0.813 Y20.834 Z-3.479
X0.816 Y20.806 Z-3.48
X0.831 Y20.783 Z-3.481
X1.892 Y19.722 Z-3.533
X1.915 Y19.707 Z-3.534
X1.943 Y19.704 Z-3.535
X1.969 Y19.713 Z-3.536
X1.989 Y19.733 Z-3.537
X1.998 Y19.759 Z-3.538
X1.995 Y19.787 Z-3.539
X1.98 Y19.811 Z-3.54
X0.92 Y20.871 Z-3.593
X0.896 Y20.886 Z-3.594
X0.868 Y20.889 Z-3.595
X0.842 Y20.88 Z-3.596
X0.823 Y20.86 Z-3.597
X0.813 Y20.834 Z-3.598
X0.816 Y20.806
X0.831 Y20.783 Z-3.599
X1.892 Y19.722 Z-3.652
X1.915 Y19.707 Z-3.653
X1.943 Y19.704 Z-3.654
X1.969 Y19.713 Z-3.655
X1.989 Y19.733 Z-3.656
X1.998 Y19.759 Z-3.657
X1.995 Y19.787 Z-3.658
X1.98 Y19.811 Z-3.659
X0.92 Y20.871 Z-3.711
X0.896 Y20.886 Z-3.712
X0.868 Y20.889 Z-3.713
X0.842 Y20.88 Z-3.714
X0.823 Y20.86 Z-3.715
X0.813 Y20.834 Z-3.716
X0.816 Y20.806 Z-3.717
X0.831 Y20.783 Z-3.718
X1.892 Y19.722 Z-3.77
X1.915 Y19.707 Z-3.771
X1.943 Y19.704 Z-3.772
X1.969 Y19.713 Z-3.773
X1.989 Y19.733 Z-3.774
X1.998 Y19.759 Z-3.775
X1.995 Y19.787 Z-3.776
X1.98 Y19.811 Z-3.777
X0.92 Y20.871 Z-3.83
X0.896 Y20.886 Z-3.831
X0.868 Y20.889 Z-3.832
X0.842 Y20.88 Z-3.833
X0.823 Y20.86
X0.813 Y20.834 Z-3.834
X0.816 Y20.806 Z-3.835
X0.831 Y20.783 Z-3.836
X1.892 Y19.722 Z-3.889
X1.915 Y19.707 Z-3.89
X1.943 Y19.704 Z-3.891
X1.969 Y19.713 Z-3.892
X1.989 Y19.733 Z-3.893
X1.998 Y19.759 Z-3.894
X1.995 Y19.787 Z-3.895
X1.98 Y19.811 Z-3.896
X0.92 Y20.871 Z-3.948
X0.896 Y20.886 Z-3.949
X0.868 Y20.889 Z-3.95
X0.842 Y20.88 Z-3.951
X0.823 Y20.86 Z-3.952
X0.813 Y20.834 Z-3.953
X0.816 Y20.806 Z-3.954
X0.831 Y20.783 Z-3.955
X1.892 Y19.722 Z-4.007
X1.915 Y19.707 Z-4.008
X1.943 Y19.704 Z-4.009
X1.969 Y19.713 Z-4.01
X1.989 Y19.733 Z-4.011
X1.998 Y19.759 Z-4.012
X1.995 Y19.787 Z-4.013
X1.98 Y19.811 Z-4.014
X0.92 Y20.871 Z-4.067
X0.896 Y20.886
X0.868 Y20.889 Z-4.068
X0.842 Y20.88 Z-4.069
X0.823 Y20.86 Z-4.07
X0.813 Y20.834 Z-4.071
X0.816 Y20.806 Z-4.072
X0.831 Y20.783 Z-4.073
X1.892 Y19.722 Z-4.126
X1.915 Y19.707 Z-4.127
X1.943 Y19.704 Z-4.128
X1.969 Y19.713 Z-4.129
X1.989 Y19.733 Z-4.13
X1.998 Y19.759 Z-4.131
X1.995 Y19.787 Z-4.132
X1.98 Y19.811 Z-4.133
X0.92 Y20.871 Z-4.185
X0.896 Y20.886 Z-4.186
X0.868 Y20.889 Z-4.187
X0.842 Y20.88 Z-4.188
X0.823 Y20.86 Z-4.189
X0.813 Y20.834 Z-4.19
X0.816 Y20.806 Z-4.191
X0.831 Y20.783 Z-4.192
X0.996 Y20.618 Z-4.2
S6000
X1.892 Y19.722 F1000
X1.915 Y19.707
X1.943 Y19.704
X1.969 Y19.713
X1.989 Y19.733
X1.998 Y19.759
X1.995 Y19.787
X1.98 Y19.811
X1.298 Y20.493
X0.92 Y20.871
X0.896 Y20.886
X0.868 Y20.889
X0.842 Y20.88
X0.823 Y20.86
X0.813 Y20.834
X0.816 Y20.806
X0.831 Y20.783
X0.996 Y20.618
X1 Y20.615
X1.004 Y20.613 Z-4.199
X1.007 Y20.611 Z-4.197
X1.011 Y20.61 Z-4.194
X1.015 Y20.609 Z-4.191
X1.018 Z-4.188
X1.02 Z-4.184
X1.022 Y20.61 Z-4.179
X1.023 Z-4.175
Z-4.17
Z5
X1.85 Y8.455
Z3 F333.3
Z2.5
S5000
X0.831 Y7.436 Z2.45
X0.816 Y7.413 Z2.449
X0.813 Y7.385 Z2.448
X0.823 Y7.359 Z2.447
X0.842 Y7.339 Z2.446
X0.868 Y7.33 Z2.445
X0.896 Y7.333 Z2.444
X0.92 Y7.348 Z2.443
X1.98 Y8.409 Z2.39
X1.995 Y8.432 Z2.389
X1.998 Y8.46 Z2.388
X1.989 Y8.486
X1.969 Y8.506 Z2.387
X1.943 Y8.515 Z2.386
X1.916 Y8.512 Z2.385
X1.892 Y8.497 Z2.384
X0.831 Y7.436 Z2.331
X0.816 Y7.413 Z2.33
X0.813 Y7.385 Z2.329
X0.823 Y7.359 Z2.328
X0.842 Y7.339 Z2.327
X0.868 Y7.33 Z2.326
X0.896 Y7.333 Z2.325
X0.92 Y7.348 Z2.324
X1.98 Y8.409 Z2.272
X1.995 Y8.432 Z2.271
X1.998 Y8.46 Z2.27
X1.989 Y8.486 Z2.269
X1.969 Y8.506 Z2.268
X1.943 Y8.515 Z2.267
X1.916 Y8.512 Z2.266
X1.892 Y8.497 Z2.265
X0.831 Y7.436 Z2.213
X0.816 Y7.413 Z2.212
X0.813 Y7.385 Z2.211
X0.823 Y7.359 Z2.21
X0.842 Y7.339 Z2.209
X0.868 Y7.33 Z2.208
X0.896 Y7.333 Z2.207
X0.92 Y7.348 Z2.206
X1.98 Y8.409 Z2.153
X1.995 Y8.432
X1.998 Y8.46 Z2.152
X1.989 Y8.486 Z2.151
X1.969 Y8.506 Z2.15
X1.943 Y8.515 Z2.149
X1.916 Y8.512 Z2.148
X1.892 Y8.497 Z2.147
X0.831 Y7.436 Z2.094
X0.816 Y7.413 Z2.093
X0.813 Y7.385 Z2.092
X0.823 Y7.359 Z2.091
X0.842 Y7.339 Z2.09
X0.868 Y7.33 Z2.089
X0.896 Y7.333 Z2.088
X0.92 Y7.348 Z2.087
X1.98 Y8.409 Z2.035
X1.995 Y8.432 Z2.034
X1.998 Y8.46 Z2.033
X1.989 Y8.486 Z2.032
X1.969 Y8.506 Z2.031
X1.943 Y8.515 Z2.03
X1.916 Y8.512 Z2.029
X1.892 Y8.497 Z2.028
X0.831 Y7.436 Z1.976
X0.816 Y7.413 Z1.975
X0.813 Y7.385 Z1.974
X0.823 Y7.359 Z1.973
X0.842 Y7.339 Z1.972
X0.868 Y7.33 Z1.971
X0.896 Y7.333 Z1.97
X0.92 Y7.348 Z1.969
X1.98 Y8.409 Z1.917
X1.995 Y8.432 Z1.916
X1.998 Y8.46 Z1.915
X1.989 Y8.486 Z1.914
X1.969 Y8.506 Z1.913
X1.943 Y8.515 Z1.912
X1.916 Y8.512 Z1.911
X1.892 Y8.497 Z1.91
X0.831 Y7.436 Z1.857
X0.816 Y7.413 Z1.856
X0.813 Y7.385 Z1.855
X0.823 Y7.359 Z1.854
X0.842 Y7.339 Z1.853
X0.868 Y7.33 Z1.852
X0.896 Y7.333 Z1.851
X0.92 Y7.348 Z1.85
X1.98 Y8.409 Z1.798
X1.995 Y8.432 Z1.797
X1.998 Y8.46 Z1.796
X1.989 Y8.486 Z1.795
X1.969 Y8.506 Z1.794
X1.943 Y8.515 Z1.793
X1.916 Y8.512 Z1.792
X1.892 Y8.497 Z1.791
X0.831 Y7.436 Z1.739
X0.816 Y7.413 Z1.738
X0.813 Y7.385 Z1.737
X0.823 Y7.359 Z1.736
X0.842 Y7.339 Z1.735
X0.868 Y7.33 Z1.734
X0.896 Y7.333 Z1.733
X0.92 Y7.348 Z1.732
X1.98 Y8.409 Z1.68
X1.995 Y8.432 Z1.679
X1.998 Y8.46 Z1.678
X1.989 Y8.486 Z1.677
X1.969 Y8.506 Z1.676
X1.943 Y8.515 Z1.675
X1.916 Y8.512 Z1.674
X1.892 Y8.497 Z1.673
X0.831 Y7.436 Z1.62
X0.816 Y7.413 Z1.619
X0.813 Y7.385 Z1.618
X0.823 Y7.359 Z1.617
X0.842 Y7.339 Z1.616
X0.868 Y7.33 Z1.615
X0.896 Y7.333 Z1.614
X0.92 Y7.348
X1.98 Y8.409 Z1.561
X1.995 Y8.432 Z1.56
X1.998 Y8.46 Z1.559
X1.989 Y8.486 Z1.558
X1.969 Y8.506 Z1.557
X1.943 Y8.515 Z1.556
X1.916 Y8.512 Z1.555
X1.892 Y8.497 Z1.554
X0.831 Y7.436 Z1.502
X0.816 Y7.413 Z1.501
X0.813 Y7.385 Z1.5
X0.823 Y7.359 Z1.499
X0.842 Y7.339 Z1.498
X0.868 Y7.33 Z1.497
X0.896 Y7.333 Z1.496
X0.92 Y7.348 Z1.495
X1.98 Y8.409 Z1.443
X1.995 Y8.432 Z1.442
X1.998 Y8.46 Z1.441
X1.989 Y8.486 Z1.44
X1.969 Y8.506 Z1.439
X1.943 Y8.515 Z1.438
X1.916 Y8.512 Z1.437
X1.892 Y8.497 Z1.436
X0.831 Y7.436 Z1.383
X0.816 Y7.413 Z1.382
X0.813 Y7.385 Z1.381
X0.823 Y7.359 Z1.38
X0.842 Y7.339 Z1.379
X0.868 Y7.33
X0.896 Y7.333 Z1.378
X0.92 Y7.348 Z1.377
X1.98 Y8.409 Z1.324
X1.995 Y8.432 Z1.323
X1.998 Y8.46 Z1.322
X1.989 Y8.486 Z1.321
X1.969 Y8.506 Z1.32
X1.943 Y8.515 Z1.319
X1.916 Y8.512 Z1.318
X1.892 Y8.497 Z1.317
X0.831 Y7.436 Z1.265
X0.816 Y7.413 Z1.264
X0.813 Y7.385 Z1.263
X0.823 Y7.359 Z1.262
X0.842 Y7.339 Z1.261
X0.868 Y7.33 Z1.26
X0.896 Y7.333 Z1.259
X0.92 Y7.348 Z1.258
X1.98 Y8.409 Z1.206
X1.995 Y8.432 Z1.205
X1.998 Y8.46 Z1.204
X1.989 Y8.486 Z1.203
X1.969 Y8.506 Z1.202
X1.943 Y8.515 Z1.201
X1.916 Y8.512 Z1.2
X1.892 Y8.497 Z1.199
X0.831 Y7.436 Z1.146
X0.816 Y7.413 Z1.145
X0.813 Y7.385 Z1.144
X0.823 Y7.359
X0.842 Y7.339 Z1.143
X0.868 Y7.33 Z1.142
X0.896 Y7.333 Z1.141
X0.92 Y7.348 Z1.14
X1.98 Y8.409 Z1.087
X1.995 Y8.432 Z1.086
X1.998 Y8.46 Z1.085
X1.989 Y8.486 Z1.084
X1.969 Y8.506 Z1.083
X1.943 Y8.515 Z1.082
X1.916 Y8.512 Z1.081
X1.892 Y8.497 Z1.08
X0.831 Y7.436 Z1.028
X0.816 Y7.413 Z1.027
X0.813 Y7.385 Z1.026
X0.823 Y7.359 Z1.025
X0.842 Y7.339 Z1.024
X0.868 Y7.33 Z1.023
X0.896 Y7.333 Z1.022
X0.92 Y7.348 Z1.021
X1.98 Y8.409 Z0.969
X1.995 Y8.432 Z0.968
X1.998 Y8.46 Z0.967
X1.989 Y8.486 Z0.966
X1.969 Y8.506 Z0.965
X1.943 Y8.515 Z0.964
X1.916 Y8.512 Z0.963
X1.892 Y8.497 Z0.962
X0.831 Y7.436 Z0.91
X0.816 Y7.413 Z0.909
X0.813 Y7.385 Z0.908
X0.823 Y7.359 Z0.907
X0.842 Y7.339 Z0.906
X0.868 Y7.33 Z0.905
X0.896 Y7.333 Z0.904
X0.92 Y7.348 Z0.903
X1.98 Y8.409 Z0.85
X1.995 Y8.432 Z0.849
X1.998 Y8.46 Z0.848
X1.989 Y8.486 Z0.847
X1.969 Y8.506 Z0.846
X1.943 Y8.515 Z0.845
X1.916 Y8.512 Z0.844
X1.892 Y8.497 Z0.843
X0.831 Y7.436 Z0.791
X0.816 Y7.413 Z0.79
X0.813 Y7.385 Z0.789
X0.823 Y7.359 Z0.788
X0.842 Y7.339 Z0.787
X0.868 Y7.33 Z0.786
X0.896 Y7.333 Z0.785
X0.92 Y7.348 Z0.784
X1.98 Y8.409 Z0.732
X1.995 Y8.432 Z0.731
X1.998 Y8.46 Z0.73
X1.989 Y8.486 Z0.729
X1.969 Y8.506 Z0.728
X1.943 Y8.515 Z0.727
X1.916 Y8.512 Z0.726
X1.892 Y8.497 Z0.725
X0.831 Y7.436 Z0.673
X0.816 Y7.413 Z0.672
X0.813 Y7.385 Z0.671
X0.823 Y7.359 Z0.67
X0.842 Y7.339 Z0.669
X0.868 Y7.33 Z0.668
X0.896 Y7.333 Z0.667
X0.92 Y7.348 Z0.666
X1.98 Y8.409 Z0.613
X1.995 Y8.432 Z0.612
X1.998 Y8.46 Z0.611
X1.989 Y8.486 Z0.61
X1.969 Y8.506 Z0.609
X1.943 Y8.515 Z0.608
X1.916 Y8.512 Z0.607
X1.892 Y8.497 Z0.606
X0.831 Y7.436 Z0.554
X0.816 Y7.413 Z0.553
X0.813 Y7.385 Z0.552
X0.823 Y7.359 Z0.551
X0.842 Y7.339 Z0.55
X0.868 Y7.33 Z0.549
X0.896 Y7.333 Z0.548
X0.92 Y7.348 Z0.547
X1.98 Y8.409 Z0.495
X1.995 Y8.432 Z0.494
X1.998 Y8.46 Z0.493
X1.989 Y8.486 Z0.492
X1.969 Y8.506 Z0.491
X1.943 Y8.515 Z0.49
X1.916 Y8.512 Z0.489
X1.892 Y8.497 Z0.488
X0.831 Y7.436 Z0.436
X0.816 Y7.413 Z0.435
X0.813 Y7.385 Z0.434
X0.823 Y7.359 Z0.433
X0.842 Y7.339 Z0.432
X0.868 Y7.33 Z0.431
X0.896 Y7.333 Z0.43
X0.92 Y7.348 Z0.429
X1.98 Y8.409 Z0.376
X1.995 Y8.432 Z0.375
X1.998 Y8.46 Z0.374
X1.989 Y8.486 Z0.373
X1.969 Y8.506 Z0.372
X1.943 Y8.515 Z0.371
X1.916 Y8.512 Z0.37
X1.892 Y8.497
X0.831 Y7.436 Z0.317
X0.816 Y7.413 Z0.316
X0.813 Y7.385 Z0.315
X0.823 Y7.359 Z0.314
X0.842 Y7.339 Z0.313
X0.868 Y7.33 Z0.312
X0.896 Y7.333 Z0.311
X0.92 Y7.348 Z0.31
X1.98 Y8.409 Z0.258
X1.995 Y8.432 Z0.257
X1.998 Y8.46 Z0.256
X1.989 Y8.486 Z0.255
X1.969 Y8.506 Z0.254
X1.943 Y8.515 Z0.253
X1.916 Y8.512 Z0.252
X1.892 Y8.497 Z0.251
X0.831 Y7.436 Z0.199
X0.816 Y7.413 Z0.198
X0.813 Y7.385 Z0.197
X0.823 Y7.359 Z0.196
X0.842 Y7.339 Z0.195
X0.868 Y7.33 Z0.194
X0.896 Y7.333 Z0.193
X0.92 Y7.348 Z0.192
X1.98 Y8.409 Z0.139
X1.995 Y8.432 Z0.138
X1.998 Y8.46 Z0.137
X1.989 Y8.486 Z0.136
X1.969 Y8.506 Z0.135
X1.943 Y8.515
X1.916 Y8.512 Z0.134
X1.892 Y8.497 Z0.133
X0.831 Y7.436 Z0.08
X0.816 Y7.413 Z0.079
X0.813 Y7.385 Z0.078
X0.823 Y7.359 Z0.077
X0.842 Y7.339 Z0.076
X0.868 Y7.33 Z0.075
X0.896 Y7.333 Z0.074
X0.92 Y7.348 Z0.073
X1.98 Y8.409 Z0.021
X1.995 Y8.432 Z0.02
X1.998 Y8.46 Z0.019
X1.989 Y8.486 Z0.018
X1.969 Y8.506 Z0.017
X1.943 Y8.515 Z0.016
X1.916 Y8.512 Z0.015
X1.892 Y8.497 Z0.014
X0.831 Y7.436 Z-0.038
X0.816 Y7.413 Z-0.039
X0.813 Y7.385 Z-0.04
X0.823 Y7.359 Z-0.041
X0.842 Y7.339 Z-0.042
X0.868 Y7.33 Z-0.043
X0.896 Y7.333 Z-0.044
X0.92 Y7.348 Z-0.045
X1.98 Y8.409 Z-0.098
X1.995 Y8.432 Z-0.099
X1.998 Y8.46
X1.989 Y8.486 Z-0.1
X1.969 Y8.506 Z-0.101
X1.943 Y8.515 Z-0.102
X1.916 Y8.512 Z-0.103
X1.892 Y8.497 Z-0.104
X0.831 Y7.436 Z-0.157
X0.816 Y7.413 Z-0.158
X0.813 Y7.385 Z-0.159
X0.823 Y7.359 Z-0.16
X0.842 Y7.339 Z-0.161
X0.868 Y7.33 Z-0.162
X0.896 Y7.333 Z-0.163
X0.92 Y7.348 Z-0.164
X1.98 Y8.409 Z-0.216
X1.995 Y8.432 Z-0.217
X1.998 Y8.46 Z-0.218
X1.989 Y8.486 Z-0.219
X1.969 Y8.506 Z-0.22
X1.943 Y8.515 Z-0.221
X1.916 Y8.512 Z-0.222
X1.892 Y8.497 Z-0.223
X0.831 Y7.436 Z-0.275
X0.816 Y7.413 Z-0.276
X0.813 Y7.385 Z-0.277
X0.823 Y7.359 Z-0.278
X0.842 Y7.339 Z-0.279
X0.868 Y7.33 Z-0.28
X0.896 Y7.333 Z-0.281
X0.92 Y7.348 Z-0.282
X1.98 Y8.409 Z-0.334
X1.995 Y8.432 Z-0.335
X1.998 Y8.46 Z-0.336
X1.989 Y8.486 Z-0.337
X1.969 Y8.506 Z-0.338
X1.943 Y8.515 Z-0.339
X1.916 Y8.512 Z-0.34
X1.892 Y8.497 Z-0.341
X0.831 Y7.436 Z-0.394
X0.816 Y7.413 Z-0.395
X0.813 Y7.385 Z-0.396
X0.823 Y7.359 Z-0.397
X0.842 Y7.339 Z-0.398
X0.868 Y7.33 Z-0.399
X0.896 Y7.333 Z-0.4
X0.92 Y7.348 Z-0.401
X1.98 Y8.409 Z-0.453
X1.995 Y8.432 Z-0.454
X1.998 Y8.46 Z-0.455
X1.989 Y8.486 Z-0.456
X1.969 Y8.506 Z-0.457
X1.943 Y8.515 Z-0.458
X1.916 Y8.512 Z-0.459
X1.892 Y8.497 Z-0.46
X0.831 Y7.436 Z-0.512
X0.816 Y7.413 Z-0.513
X0.813 Y7.385 Z-0.514
X0.823 Y7.359 Z-0.515
X0.842 Y7.339 Z-0.516
X0.868 Y7.33 Z-0.517
X0.896 Y7.333 Z-0.518
X0.92 Y7.348 Z-0.519
X1.98 Y8.409 Z-0.571
X1.995 Y8.432 Z-0.572
X1.998 Y8.46 Z-0.573
X1.989 Y8.486 Z-0.574
X1.969 Y8.506 Z-0.575
X1.943 Y8.515 Z-0.576
X1.916 Y8.512 Z-0.577
X1.892 Y8.497 Z-0.578
X0.831 Y7.436 Z-0.631
X0.816 Y7.413 Z-0.632
X0.813 Y7.385 Z-0.633
X0.823 Y7.359 Z-0.634
X0.842 Y7.339 Z-0.635
X0.868 Y7.33 Z-0.636
X0.896 Y7.333 Z-0.637
X0.92 Y7.348 Z-0.638
X1.98 Y8.409 Z-0.69
X1.995 Y8.432 Z-0.691
X1.998 Y8.46 Z-0.692
X1.989 Y8.486 Z-0.693
X1.969 Y8.506 Z-0.694
X1.943 Y8.515 Z-0.695
X1.916 Y8.512 Z-0.696
X1.892 Y8.497 Z-0.697
X0.831 Y7.436 Z-0.749
X0.816 Y7.413 Z-0.75
X0.813 Y7.385 Z-0.751
X0.823 Y7.359 Z-0.752
X0.842 Y7.339 Z-0.753
X0.868 Y7.33 Z-0.754
X0.896 Y7.333 Z-0.755
X0.92 Y7.348 Z-0.756
X1.98 Y8.409 Z-0.808
X1.995 Y8.432 Z-0.809
X1.998 Y8.46 Z-0.81
X1.989 Y8.486 Z-0.811
X1.969 Y8.506 Z-0.812
X1.943 Y8.515 Z-0.813
X1.916 Y8.512 Z-0.814
X1.892 Y8.497 Z-0.815
X0.831 Y7.436 Z-0.868
X0.816 Y7.413 Z-0.869
X0.813 Y7.385 Z-0.87
X0.823 Y7.359 Z-0.871
X0.842 Y7.339 Z-0.872
X0.868 Y7.33 Z-0.873
X0.896 Y7.333 Z-0.874
X0.92 Y7.348
X1.98 Y8.409 Z-0.927
X1.995 Y8.432 Z-0.928
X1.998 Y8.46 Z-0.929
X1.989 Y8.486 Z-0.93
X1.969 Y8.506 Z-0.931
X1.943 Y8.515 Z-0.932
X1.916 Y8.512 Z-0.933
X1.892 Y8.497 Z-0.934
X0.831 Y7.436 Z-0.986
X0.816 Y7.413 Z-0.987
X0.813 Y7.385 Z-0.988
X0.823 Y7.359 Z-0.989
X0.842 Y7.339 Z-0.99
X0.868 Y7.33 Z-0.991
X0.896 Y7.333 Z-0.992
X0.92 Y7.348 Z-0.993
X1.98 Y8.409 Z-1.045
X1.995 Y8.432 Z-1.046
X1.998 Y8.46 Z-1.047
X1.989 Y8.486 Z-1.048
X1.969 Y8.506 Z-1.049
X1.943 Y8.515 Z-1.05
X1.916 Y8.512 Z-1.051
X1.892 Y8.497 Z-1.052
X0.831 Y7.436 Z-1.105
X0.816 Y7.413 Z-1.106
X0.813 Y7.385 Z-1.107
X0.823 Y7.359 Z-1.108
X0.842 Y7.339
X0.868 Y7.33 Z-1.109
X0.896 Y7.333 Z-1.11
X0.92 Y7.348 Z-1.111
X1.98 Y8.409 Z-1.164
X1.995 Y8.432 Z-1.165
X1.998 Y8.46 Z-1.166
X1.989 Y8.486 Z-1.167
X1.969 Y8.506 Z-1.168
X1.943 Y8.515 Z-1.169
X1.916 Y8.512 Z-1.17
X1.892 Y8.497 Z-1.171
X0.831 Y7.436 Z-1.223
X0.816 Y7.413 Z-1.224
X0.813 Y7.385 Z-1.225
X0.823 Y7.359 Z-1.226
X0.842 Y7.339 Z-1.227
X0.868 Y7.33 Z-1.228
X0.896 Y7.333 Z-1.229
X0.92 Y7.348 Z-1.23
X1.98 Y8.409 Z-1.282
X1.995 Y8.432 Z-1.283
X1.998 Y8.46 Z-1.284
X1.989 Y8.486 Z-1.285
X1.969 Y8.506 Z-1.286
X1.943 Y8.515 Z-1.287
X1.916 Y8.512 Z-1.288
X1.892 Y8.497 Z-1.289
X0.831 Y7.436 Z-1.342
X0.816 Y7.413 Z-1.343
X0.813 Y7.385
X0.823 Y7.359 Z-1.344
X0.842 Y7.339 Z-1.345
X0.868 Y7.33 Z-1.346
X0.896 Y7.333 Z-1.347
X0.92 Y7.348 Z-1.348
X1.98 Y8.409 Z-1.401
X1.995 Y8.432 Z-1.402
X1.998 Y8.46 Z-1.403
X1.989 Y8.486 Z-1.404
X1.969 Y8.506 Z-1.405
X1.943 Y8.515 Z-1.406
X1.916 Y8.512 Z-1.407
X1.892 Y8.497 Z-1.408
X0.831 Y7.436 Z-1.46
X0.816 Y7.413 Z-1.461
X0.813 Y7.385 Z-1.462
X0.823 Y7.359 Z-1.463
X0.842 Y7.339 Z-1.464
X0.868 Y7.33 Z-1.465
X0.896 Y7.333 Z-1.466
X0.92 Y7.348 Z-1.467
X1.98 Y8.409 Z-1.519
X1.995 Y8.432 Z-1.52
X1.998 Y8.46 Z-1.521
X1.989 Y8.486 Z-1.522
X1.969 Y8.506 Z-1.523
X1.943 Y8.515 Z-1.524
X1.916 Y8.512 Z-1.525
X1.892 Y8.497 Z-1.526
X0.831 Y7.436 Z-1.578
X0.816 Y7.413 Z-1.579
X0.813 Y7.385 Z-1.58
X0.823 Y7.359 Z-1.581
X0.842 Y7.339 Z-1.582
X0.868 Y7.33 Z-1.583
X0.896 Y7.333 Z-1.584
X0.92 Y7.348 Z-1.585
X1.98 Y8.409 Z-1.638
X1.995 Y8.432 Z-1.639
X1.998 Y8.46 Z-1.64
X1.989 Y8.486 Z-1.641
X1.969 Y8.506 Z-1.642
X1.943 Y8.515 Z-1.643
X1.916 Y8.512 Z-1.644
X1.892 Y8.497 Z-1.645
X0.831 Y7.436 Z-1.697
X0.816 Y7.413 Z-1.698
X0.813 Y7.385 Z-1.699
X0.823 Y7.359 Z-1.7
X0.842 Y7.339 Z-1.701
X0.868 Y7.33 Z-1.702
X0.896 Y7.333 Z-1.703
X0.92 Y7.348 Z-1.704
X1.98 Y8.409 Z-1.756
X1.995 Y8.432 Z-1.757
X1.998 Y8.46 Z-1.758
X1.989 Y8.486 Z-1.759
X1.969 Y8.506 Z-1.76
X1.943 Y8.515 Z-1.761
X1.916 Y8.512 Z-1.762
X1.892 Y8.497 Z-1.763
X0.831 Y7.436 Z-1.815
X0.816 Y7.413 Z-1.816
X0.813 Y7.385 Z-1.817
X0.823 Y7.359 Z-1.818
X0.842 Y7.339 Z-1.819
X0.868 Y7.33 Z-1.82
X0.896 Y7.333 Z-1.821
X0.92 Y7.348 Z-1.822
X1.98 Y8.409 Z-1.875
X1.995 Y8.432 Z-1.876
X1.998 Y8.46 Z-1.877
X1.989 Y8.486 Z-1.878
X1.969 Y8.506 Z-1.879
X1.943 Y8.515 Z-1.88
X1.916 Y8.512 Z-1.881
X1.892 Y8.497 Z-1.882
X0.831 Y7.436 Z-1.934
X0.816 Y7.413 Z-1.935
X0.813 Y7.385 Z-1.936
X0.823 Y7.359 Z-1.937
X0.842 Y7.339 Z-1.938
X0.868 Y7.33 Z-1.939
X0.896 Y7.333 Z-1.94
X0.92 Y7.348 Z-1.941
X1.98 Y8.409 Z-1.993
X1.995 Y8.432 Z-1.994
X1.998 Y8.46 Z-1.995
X1.989 Y8.486 Z-1.996
X1.969 Y8.506 Z-1.997
X1.943 Y8.515 Z-1.998
X1.916 Y8.512 Z-1.999
X1.892 Y8.497 Z-2
S6000
X0.831 Y7.436 F1000
X0.816 Y7.413
X0.813 Y7.385
X0.823 Y7.359
X0.842 Y7.339
X0.868 Y7.33
X0.896 Y7.333
X0.92 Y7.348
X1.98 Y8.409
X1.995 Y8.432
X1.998 Y8.46
X1.989 Y8.486
X1.969 Y8.506
X1.943 Y8.515
X1.916 Y8.512
X1.892 Y8.497
S5000
X0.831 Y7.436 Z-2.052 F333.3
X0.816 Y7.413 Z-2.053
X0.813 Y7.385 Z-2.054
X0.823 Y7.359 Z-2.055
X0.842 Y7.339 Z-2.056
X0.868 Y7.33 Z-2.057
X0.896 Y7.333 Z-2.058
X0.92 Y7.348 Z-2.059
X1.98 Y8.409 Z-2.112
X1.995 Y8.432 Z-2.113
X1.998 Y8.46 Z-2.114
X1.989 Y8.486 Z-2.115
X1.969 Y8.506 Z-2.116
X1.943 Y8.515 Z-2.117
X1.916 Y8.512
X1.892 Y8.497 Z-2.118
X0.831 Y7.436 Z-2.171
X0.816 Y7.413 Z-2.172
X0.813 Y7.385 Z-2.173
X0.823 Y7.359 Z-2.174
X0.842 Y7.339 Z-2.175
X0.868 Y7.33 Z-2.176
X0.896 Y7.333 Z-2.177
X0.92 Y7.348 Z-2.178
X1.98 Y8.409 Z-2.23
X1.995 Y8.432 Z-2.231
X1.998 Y8.46 Z-2.232
X1.989 Y8.486 Z-2.233
X1.969 Y8.506 Z-2.234
X1.943 Y8.515 Z-2.235
X1.916 Y8.512 Z-2.236
X1.892 Y8.497 Z-2.237
X0.831 Y7.436 Z-2.289
X0.816 Y7.413 Z-2.29
X0.813 Y7.385 Z-2.291
X0.823 Y7.359 Z-2.292
X0.842 Y7.339 Z-2.293
X0.868 Y7.33 Z-2.294
X0.896 Y7.333 Z-2.295
X0.92 Y7.348 Z-2.296
X1.98 Y8.409 Z-2.349
X1.995 Y8.432 Z-2.35
X1.998 Y8.46 Z-2.351
X1.989 Y8.486 Z-2.352
X1.969 Y8.506
X1.943 Y8.515 Z-2.353
X1.916 Y8.512 Z-2.354
X1.892 Y8.497 Z-2.355
X0.831 Y7.436 Z-2.408
X0.816 Y7.413 Z-2.409
X0.813 Y7.385 Z-2.41
X0.823 Y7.359 Z-2.411
X0.842 Y7.339 Z-2.412
X0.868 Y7.33 Z-2.413
X0.896 Y7.333 Z-2.414
X0.92 Y7.348 Z-2.415
X1.98 Y8.409 Z-2.467
X1.995 Y8.432 Z-2.468
X1.998 Y8.46 Z-2.469
X1.989 Y8.486 Z-2.47
X1.969 Y8.506 Z-2.471
X1.943 Y8.515 Z-2.472
X1.916 Y8.512 Z-2.473
X1.892 Y8.497 Z-2.474
X0.831 Y7.436 Z-2.526
X0.816 Y7.413 Z-2.527
X0.813 Y7.385 Z-2.528
X0.823 Y7.359 Z-2.529
X0.842 Y7.339 Z-2.53
X0.868 Y7.33 Z-2.531
X0.896 Y7.333 Z-2.532
X0.92 Y7.348 Z-2.533
X1.98 Y8.409 Z-2.586
X1.995 Y8.432
X1.998 Y8.46 Z-2.587
X1.989 Y8.486 Z-2.588
X1.969 Y8.506 Z-2.589
X1.943 Y8.515 Z-2.59
X1.916 Y8.512 Z-2.591
X1.892 Y8.497 Z-2.592
X0.831 Y7.436 Z-2.645
X0.816 Y7.413 Z-2.646
X0.813 Y7.385 Z-2.647
X0.823 Y7.359 Z-2.648
X0.842 Y7.339 Z-2.649
X0.868 Y7.33 Z-2.65
X0.896 Y7.333 Z-2.651
X0.92 Y7.348 Z-2.652
X1.98 Y8.409 Z-2.704
X1.995 Y8.432 Z-2.705
X1.998 Y8.46 Z-2.706
X1.989 Y8.486 Z-2.707
X1.969 Y8.506 Z-2.708
X1.943 Y8.515 Z-2.709
X1.916 Y8.512 Z-2.71
X1.892 Y8.497 Z-2.711
X0.831 Y7.436 Z-2.763
X0.816 Y7.413 Z-2.764
X0.813 Y7.385 Z-2.765
X0.823 Y7.359 Z-2.766
X0.842 Y7.339 Z-2.767
X0.868 Y7.33 Z-2.768
X0.896 Y7.333 Z-2.769
X0.92 Y7.348 Z-2.77
X1.98 Y8.409 Z-2.822
X1.995 Y8.432 Z-2.823
X1.998 Y8.46 Z-2.824
X1.989 Y8.486 Z-2.825
X1.969 Y8.506 Z-2.826
X1.943 Y8.515 Z-2.827
X1.916 Y8.512 Z-2.828
X1.892 Y8.497 Z-2.829
X0.831 Y7.436 Z-2.882
X0.816 Y7.413 Z-2.883
X0.813 Y7.385 Z-2.884
X0.823 Y7.359 Z-2.885
X0.842 Y7.339 Z-2.886
X0.868 Y7.33 Z-2.887
X0.896 Y7.333 Z-2.888
X0.92 Y7.348 Z-2.889
X1.98 Y8.409 Z-2.941
X1.995 Y8.432 Z-2.942
X1.998 Y8.46 Z-2.943
X1.989 Y8.486 Z-2.944
X1.969 Y8.506 Z-2.945
X1.943 Y8.515 Z-2.946
X1.916 Y8.512 Z-2.947
X1.892 Y8.497 Z-2.948
X0.831 Y7.436 Z-3
X0.816 Y7.413 Z-3.001
X0.813 Y7.385 Z-3.002
X0.823 Y7.359 Z-3.003
X0.842 Y7.339 Z-3.004
X0.868 Y7.33 Z-3.005
X0.896 Y7.333 Z-3.006
X0.92 Y7.348 Z-3.007
X1.98 Y8.409 Z-3.059
X1.995 Y8.432 Z-3.06
X1.998 Y8.46 Z-3.061
X1.989 Y8.486 Z-3.062
X1.969 Y8.506 Z-3.063
X1.943 Y8.515 Z-3.064
X1.916 Y8.512 Z-3.065
X1.892 Y8.497 Z-3.066
X1.209 Y7.814 Z-3.1
S6000
X0.831 Y7.436 F1000
X0.816 Y7.413
X0.813 Y7.385
X0.823 Y7.359
X0.842 Y7.339
X0.868 Y7.33
X0.896 Y7.333
X0.92 Y7.348
X1.98 Y8.409
X1.995 Y8.432
X1.998 Y8.46
X1.989 Y8.486
X1.969 Y8.506
X1.943 Y8.515
X1.916 Y8.512
X1.892 Y8.497
X1.209 Y7.814
S5000
X0.831 Y7.436 Z-3.119 F333.3
X0.816 Y7.413 Z-3.12
X0.813 Y7.385 Z-3.121
X0.823 Y7.359 Z-3.122
X0.842 Y7.339 Z-3.123
X0.868 Y7.33 Z-3.124
X0.896 Y7.333 Z-3.125
X0.92 Y7.348 Z-3.126
X1.98 Y8.409 Z-3.178
X1.995 Y8.432 Z-3.179
X1.998 Y8.46 Z-3.18
X1.989 Y8.486 Z-3.181
X1.969 Y8.506 Z-3.182
X1.943 Y8.515 Z-3.183
X1.916 Y8.512 Z-3.184
X1.892 Y8.497 Z-3.185
X0.831 Y7.436 Z-3.237
X0.816 Y7.413 Z-3.238
X0.813 Y7.385 Z-3.239
X0.823 Y7.359 Z-3.24
X0.842 Y7.339 Z-3.241
X0.868 Y7.33 Z-3.242
X0.896 Y7.333 Z-3.243
X0.92 Y7.348 Z-3.244
X1.98 Y8.409 Z-3.296
X1.995 Y8.432 Z-3.297
X1.998 Y8.46 Z-3.298
X1.989 Y8.486 Z-3.299
X1.969 Y8.506 Z-3.3
X1.943 Y8.515 Z-3.301
X1.916 Y8.512 Z-3.302
X1.892 Y8.497 Z-3.303
X0.831 Y7.436 Z-3.356
X0.816 Y7.413 Z-3.357
X0.813 Y7.385 Z-3.358
X0.823 Y7.359 Z-3.359
X0.842 Y7.339 Z-3.36
X0.868 Y7.33 Z-3.361
X0.896 Y7.333
X0.92 Y7.348 Z-3.362
X1.98 Y8.409 Z-3.415
X1.995 Y8.432 Z-3.416
X1.998 Y8.46 Z-3.417
X1.989 Y8.486 Z-3.418
X1.969 Y8.506 Z-3.419
X1.943 Y8.515 Z-3.42
X1.916 Y8.512 Z-3.421
X1.892 Y8.497 Z-3.422
X0.831 Y7.436 Z-3.474
X0.816 Y7.413 Z-3.475
X0.813 Y7.385 Z-3.476
X0.823 Y7.359 Z-3.477
X0.842 Y7.339 Z-3.478
X0.868 Y7.33 Z-3.479
X0.896 Y7.333 Z-3.48
X0.92 Y7.348 Z-3.481
X1.98 Y8.409 Z-3.533
X1.995 Y8.432 Z-3.534
X1.998 Y8.46 Z-3.535
X1.989 Y8.486 Z-3.536
X1.969 Y8.506 Z-3.537
X1.943 Y8.515 Z-3.538
X1.916 Y8.512 Z-3.539
X1.892 Y8.497 Z-3.54
X0.831 Y7.436 Z-3.593
X0.816 Y7.413 Z-3.594
X0.813 Y7.385 Z-3.595
X0.823 Y7.359 Z-3.596
X0.842 Y7.339
X0.868 Y7.33 Z-3.597
X0.896 Y7.333 Z-3.598
X0.92 Y7.348 Z-3.599
X1.98 Y8.409 Z-3.652
X1.995 Y8.432 Z-3.653
X1.998 Y8.46 Z-3.654
X1.989 Y8.486 Z-3.655
X1.969 Y8.506 Z-3.656
X1.943 Y8.515 Z-3.657
X1.916 Y8.512 Z-3.658
X1.892 Y8.497 Z-3.659
X0.831 Y7.436 Z-3.711
X0.816 Y7.413 Z-3.712
X0.813 Y7.385 Z-3.713
X0.823 Y7.359 Z-3.714
X0.842 Y7.339 Z-3.715
X0.868 Y7.33 Z-3.716
X0.896 Y7.333 Z-3.717
X0.92 Y7.348 Z-3.718
X1.98 Y8.409 Z-3.77
X1.995 Y8.432 Z-3.771
X1.998 Y8.46 Z-3.772
X1.989 Y8.486 Z-3.773
X1.969 Y8.506 Z-3.774
X1.943 Y8.515 Z-3.775
X1.916 Y8.512 Z-3.776
X1.892 Y8.497 Z-3.777
X0.831 Y7.436 Z-3.83
X0.816 Y7.413
X0.813 Y7.385 Z-3.831
X0.823 Y7.359 Z-3.832
X0.842 Y7.339 Z-3.833
X0.868 Y7.33 Z-3.834
X0.896 Y7.333 Z-3.835
X0.92 Y7.348 Z-3.836
X1.98 Y8.409 Z-3.889
X1.995 Y8.432 Z-3.89
X1.998 Y8.46 Z-3.891
X1.989 Y8.486 Z-3.892
X1.969 Y8.506 Z-3.893
X1.943 Y8.515 Z-3.894
X1.916 Y8.512 Z-3.895
X1.892 Y8.497 Z-3.896
X0.831 Y7.436 Z-3.948
X0.816 Y7.413 Z-3.949
X0.813 Y7.385 Z-3.95
X0.823 Y7.359 Z-3.951
X0.842 Y7.339 Z-3.952
X0.868 Y7.33 Z-3.953
X0.896 Y7.333 Z-3.954
X0.92 Y7.348 Z-3.955
X1.98 Y8.409 Z-4.007
X1.995 Y8.432 Z-4.008
X1.998 Y8.46 Z-4.009
X1.989 Y8.486 Z-4.01
X1.969 Y8.506 Z-4.011
X1.943 Y8.515 Z-4.012
X1.916 Y8.512 Z-4.013
X1.892 Y8.497 Z-4.014
X0.831 Y7.436 Z-4.066
X0.816 Y7.413 Z-4.067
X0.813 Y7.385 Z-4.068
X0.823 Y7.359 Z-4.069
X0.842 Y7.339 Z-4.07
X0.868 Y7.33 Z-4.071
X0.896 Y7.333 Z-4.072
X0.92 Y7.348 Z-4.073
X1.98 Y8.409 Z-4.126
X1.995 Y8.432 Z-4.127
X1.998 Y8.46 Z-4.128
X1.989 Y8.486 Z-4.129
X1.969 Y8.506 Z-4.13
X1.943 Y8.515 Z-4.131
X1.916 Y8.512 Z-4.132
X1.892 Y8.497 Z-4.133
X0.831 Y7.436 Z-4.185
X0.816 Y7.413 Z-4.186
X0.813 Y7.385 Z-4.187
X0.823 Y7.359 Z-4.188
X0.842 Y7.339 Z-4.189
X0.868 Y7.33 Z-4.19
X0.896 Y7.333 Z-4.191
X0.92 Y7.348 Z-4.192
X1.086 Y7.514 Z-4.2
S6000
X1.98 Y8.409 F1000
X1.995 Y8.432
X1.998 Y8.46
X1.989 Y8.486
X1.969 Y8.506
X1.943 Y8.515
X1.916 Y8.512
X1.892 Y8.497
X1.209 Y7.814
X0.831 Y7.436
X0.816 Y7.413
X0.813 Y7.385
X0.823 Y7.359
X0.842 Y7.339
X0.868 Y7.33
X0.896 Y7.333
X0.92 Y7.348
X1.086 Y7.514
X1.089 Y7.518
X1.091 Y7.521 Z-4.199
X1.093 Y7.525 Z-4.197
X1.094 Y7.529 Z-4.194
Y7.533 Z-4.191
X1.095 Y7.536 Z-4.188
X1.094 Y7.538 Z-4.184
Y7.54 Z-4.179
Y7.541 Z-4.175
Z-4.17
Z5
X13.244 Y8.37
Z3 F333.3
Z2.5
S5000
X14.266 Y7.348 Z2.45
X14.29 Y7.333 Z2.449
X14.317 Y7.33 Z2.448
X14.344 Y7.339 Z2.447
X14.363 Y7.359 Z2.446
X14.373 Y7.385 Z2.445
X14.369 Y7.413 Z2.444
X14.355 Y7.436 Z2.443
X13.294 Y8.497 Z2.39
X13.271 Y8.512 Z2.389
X13.243 Y8.515 Z2.388
X13.217 Y8.506 Z2.387
X13.197 Y8.486 Z2.386
X13.188 Y8.46 Z2.385
X13.191 Y8.432 Z2.384
X13.206 Y8.408 Z2.383
X14.266 Y7.348 Z2.331
X14.29 Y7.333 Z2.33
X14.317 Y7.33 Z2.329
X14.344 Y7.339 Z2.328
X14.363 Y7.359 Z2.327
X14.373 Y7.385 Z2.326
X14.369 Y7.413 Z2.325
X14.355 Y7.436 Z2.324
X13.294 Y8.497 Z2.272
X13.271 Y8.512 Z2.271
X13.243 Y8.515 Z2.27
X13.217 Y8.506 Z2.269
X13.197 Y8.486 Z2.268
X13.188 Y8.46 Z2.267
X13.191 Y8.432 Z2.266
X13.206 Y8.408 Z2.265
X14.266 Y7.348 Z2.213
X14.29 Y7.333 Z2.212
X14.317 Y7.33 Z2.211
X14.344 Y7.339 Z2.21
X14.363 Y7.359 Z2.209
X14.373 Y7.385 Z2.208
X14.369 Y7.413 Z2.207
X14.355 Y7.436 Z2.206
X13.294 Y8.497 Z2.153
X13.271 Y8.512 Z2.152
X13.243 Y8.515 Z2.151
X13.217 Y8.506 Z2.15
X13.197 Y8.486 Z2.149
X13.188 Y8.46 Z2.148
X13.191 Y8.432 Z2.147
X13.206 Y8.408 Z2.146
X14.266 Y7.348 Z2.094
X14.29 Y7.333 Z2.093
X14.317 Y7.33 Z2.092
X14.344 Y7.339 Z2.091
X14.363 Y7.359 Z2.09
X14.373 Y7.385 Z2.089
X14.369 Y7.413 Z2.088
X14.355 Y7.436 Z2.087
X13.294 Y8.497 Z2.035
X13.271 Y8.512 Z2.034
X13.243 Y8.515 Z2.033
X13.217 Y8.506 Z2.032
X13.197 Y8.486 Z2.031
X13.188 Y8.46 Z2.03
X13.191 Y8.432 Z2.029
X13.206 Y8.408 Z2.028
X14.266 Y7.348 Z1.976
X14.29 Y7.333 Z1.975
X14.317 Y7.33 Z1.974
X14.344 Y7.339 Z1.973
X14.363 Y7.359 Z1.972
X14.373 Y7.385 Z1.971
X14.369 Y7.413 Z1.97
X14.355 Y7.436 Z1.969
X13.294 Y8.497 Z1.916
X13.271 Y8.512 Z1.915
X13.243 Y8.515 Z1.914
X13.217 Y8.506 Z1.913
X13.197 Y8.486 Z1.912
X13.188 Y8.46
X13.191 Y8.432 Z1.911
X13.206 Y8.408 Z1.91
X14.266 Y7.348 Z1.857
X14.29 Y7.333 Z1.856
X14.317 Y7.33 Z1.855
X14.344 Y7.339 Z1.854
X14.363 Y7.359 Z1.853
X14.373 Y7.385 Z1.852
X14.369 Y7.413 Z1.851
X14.355 Y7.436 Z1.85
X13.294 Y8.497 Z1.798
X13.271 Y8.512 Z1.797
X13.243 Y8.515 Z1.796
X13.217 Y8.506 Z1.795
X13.197 Y8.486 Z1.794
X13.188 Y8.46 Z1.793
X13.191 Y8.432 Z1.792
X13.206 Y8.408 Z1.791
X14.266 Y7.348 Z1.739
X14.29 Y7.333 Z1.738
X14.317 Y7.33 Z1.737
X14.344 Y7.339 Z1.736
X14.363 Y7.359 Z1.735
X14.373 Y7.385 Z1.734
X14.369 Y7.413 Z1.733
X14.355 Y7.436 Z1.732
X13.294 Y8.497 Z1.679
X13.271 Y8.512 Z1.678
X13.243 Y8.515 Z1.677
X13.217 Y8.506
X13.197 Y8.486 Z1.676
X13.188 Y8.46 Z1.675
X13.191 Y8.432 Z1.674
X13.206 Y8.408 Z1.673
X14.266 Y7.348 Z1.62
X14.29 Y7.333 Z1.619
X14.317 Y7.33 Z1.618
X14.344 Y7.339 Z1.617
X14.363 Y7.359 Z1.616
X14.373 Y7.385 Z1.615
X14.369 Y7.413 Z1.614
X14.355 Y7.436 Z1.613
X13.294 Y8.497 Z1.561
X13.271 Y8.512 Z1.56
X13.243 Y8.515 Z1.559
X13.217 Y8.506 Z1.558
X13.197 Y8.486 Z1.557
X13.188 Y8.46 Z1.556
X13.191 Y8.432 Z1.555
X13.206 Y8.408 Z1.554
X14.266 Y7.348 Z1.502
X14.29 Y7.333 Z1.501
X14.317 Y7.33 Z1.5
X14.344 Y7.339 Z1.499
X14.363 Y7.359 Z1.498
X14.373 Y7.385 Z1.497
X14.369 Y7.413 Z1.496
X14.355 Y7.436 Z1.495
X13.294 Y8.497 Z1.443
X13.271 Y8.512 Z1.442
X13.243 Y8.515 Z1.441
X13.217 Y8.506 Z1.44
X13.197 Y8.486 Z1.439
X13.188 Y8.46 Z1.438
X13.191 Y8.432 Z1.437
X13.206 Y8.408 Z1.436
X14.266 Y7.348 Z1.383
X14.29 Y7.333 Z1.382
X14.317 Y7.33 Z1.381
X14.344 Y7.339 Z1.38
X14.363 Y7.359 Z1.379
X14.373 Y7.385 Z1.378
X14.369 Y7.413 Z1.377
X14.355 Y7.436 Z1.376
X13.294 Y8.497 Z1.324
X13.271 Y8.512 Z1.323
X13.243 Y8.515 Z1.322
X13.217 Y8.506 Z1.321
X13.197 Y8.486 Z1.32
X13.188 Y8.46 Z1.319
X13.191 Y8.432 Z1.318
X13.206 Y8.408 Z1.317
X14.266 Y7.348 Z1.265
X14.29 Y7.333 Z1.264
X14.317 Y7.33 Z1.263
X14.344 Y7.339 Z1.262
X14.363 Y7.359 Z1.261
X14.373 Y7.385 Z1.26
X14.369 Y7.413 Z1.259
X14.355 Y7.436 Z1.258
X13.294 Y8.497 Z1.206
X13.271 Y8.512 Z1.205
X13.243 Y8.515 Z1.204
X13.217 Y8.506 Z1.203
X13.197 Y8.486 Z1.202
X13.188 Y8.46 Z1.201
X13.191 Y8.432 Z1.2
X13.206 Y8.408 Z1.199
X14.266 Y7.348 Z1.146
X14.29 Y7.333 Z1.145
X14.317 Y7.33 Z1.144
X14.344 Y7.339 Z1.143
X14.363 Y7.359 Z1.142
X14.373 Y7.385 Z1.141
X14.369 Y7.413 Z1.14
X14.355 Y7.436 Z1.139
X13.294 Y8.497 Z1.087
X13.271 Y8.512 Z1.086
X13.243 Y8.515 Z1.085
X13.217 Y8.506 Z1.084
X13.197 Y8.486 Z1.083
X13.188 Y8.46 Z1.082
X13.191 Y8.432 Z1.081
X13.206 Y8.408 Z1.08
X14.266 Y7.348 Z1.028
X14.29 Y7.333 Z1.027
X14.317 Y7.33 Z1.026
X14.344 Y7.339 Z1.025
X14.363 Y7.359 Z1.024
X14.373 Y7.385 Z1.023
X14.369 Y7.413 Z1.022
X14.355 Y7.436 Z1.021
X13.294 Y8.497 Z0.969
X13.271 Y8.512 Z0.968
X13.243 Y8.515 Z0.967
X13.217 Y8.506 Z0.966
X13.197 Y8.486 Z0.965
X13.188 Y8.46 Z0.964
X13.191 Y8.432 Z0.963
X13.206 Y8.408 Z0.962
X14.266 Y7.348 Z0.909
X14.29 Y7.333 Z0.908
X14.317 Y7.33 Z0.907
X14.344 Y7.339 Z0.906
X14.363 Y7.359 Z0.905
X14.373 Y7.385 Z0.904
X14.369 Y7.413
X14.355 Y7.436 Z0.903
X13.294 Y8.497 Z0.85
X13.271 Y8.512 Z0.849
X13.243 Y8.515 Z0.848
X13.217 Y8.506 Z0.847
X13.197 Y8.486 Z0.846
X13.188 Y8.46 Z0.845
X13.191 Y8.432 Z0.844
X13.206 Y8.408 Z0.843
X14.266 Y7.348 Z0.791
X14.29 Y7.333 Z0.79
X14.317 Y7.33 Z0.789
X14.344 Y7.339 Z0.788
X14.363 Y7.359 Z0.787
X14.373 Y7.385 Z0.786
X14.369 Y7.413 Z0.785
X14.355 Y7.436 Z0.784
X13.294 Y8.497 Z0.732
X13.271 Y8.512 Z0.731
X13.243 Y8.515 Z0.73
X13.217 Y8.506 Z0.729
X13.197 Y8.486 Z0.728
X13.188 Y8.46 Z0.727
X13.191 Y8.432 Z0.726
X13.206 Y8.408 Z0.725
X14.266 Y7.348 Z0.672
X14.29 Y7.333 Z0.671
X14.317 Y7.33 Z0.67
X14.344 Y7.339
X14.363 Y7.359 Z0.669
X14.373 Y7.385 Z0.668
X14.369 Y7.413 Z0.667
X14.355 Y7.436 Z0.666
X13.294 Y8.497 Z0.613
X13.271 Y8.512 Z0.612
X13.243 Y8.515 Z0.611
X13.217 Y8.506 Z0.61
X13.197 Y8.486 Z0.609
X13.188 Y8.46 Z0.608
X13.191 Y8.432 Z0.607
X13.206 Y8.408 Z0.606
X14.266 Y7.348 Z0.554
X14.29 Y7.333 Z0.553
X14.317 Y7.33 Z0.552
X14.344 Y7.339 Z0.551
X14.363 Y7.359 Z0.55
X14.373 Y7.385 Z0.549
X14.369 Y7.413 Z0.548
X14.355 Y7.436 Z0.547
X13.294 Y8.497 Z0.495
X13.271 Y8.512 Z0.494
X13.243 Y8.515 Z0.493
X13.217 Y8.506 Z0.492
X13.197 Y8.486 Z0.491
X13.188 Y8.46 Z0.49
X13.191 Y8.432 Z0.489
X13.206 Y8.408 Z0.488
X14.266 Y7.348 Z0.436
X14.29 Y7.333 Z0.435
X14.317 Y7.33 Z0.434
X14.344 Y7.339 Z0.433
X14.363 Y7.359 Z0.432
X14.373 Y7.385 Z0.431
X14.369 Y7.413 Z0.43
X14.355 Y7.436 Z0.429
X13.294 Y8.497 Z0.376
X13.271 Y8.512 Z0.375
X13.243 Y8.515 Z0.374
X13.217 Y8.506 Z0.373
X13.197 Y8.486 Z0.372
X13.188 Y8.46 Z0.371
X13.191 Y8.432 Z0.37
X13.206 Y8.408 Z0.369
X14.266 Y7.348 Z0.317
X14.29 Y7.333 Z0.316
X14.317 Y7.33 Z0.315
X14.344 Y7.339 Z0.314
X14.363 Y7.359 Z0.313
X14.373 Y7.385 Z0.312
X14.369 Y7.413 Z0.311
X14.355 Y7.436 Z0.31
X13.294 Y8.497 Z0.258
X13.271 Y8.512 Z0.257
X13.243 Y8.515 Z0.256
X13.217 Y8.506 Z0.255
X13.197 Y8.486 Z0.254
X13.188 Y8.46 Z0.253
X13.191 Y8.432 Z0.252
X13.206 Y8.408 Z0.251
X14.266 Y7.348 Z0.199
X14.29 Y7.333 Z0.198
X14.317 Y7.33 Z0.197
X14.344 Y7.339 Z0.196
X14.363 Y7.359 Z0.195
X14.373 Y7.385 Z0.194
X14.369 Y7.413 Z0.193
X14.355 Y7.436 Z0.192
X13.294 Y8.497 Z0.139
X13.271 Y8.512 Z0.138
X13.243 Y8.515 Z0.137
X13.217 Y8.506 Z0.136
X13.197 Y8.486 Z0.135
X13.188 Y8.46 Z0.134
X13.191 Y8.432 Z0.133
X13.206 Y8.408 Z0.132
X14.266 Y7.348 Z0.08
X14.29 Y7.333 Z0.079
X14.317 Y7.33 Z0.078
X14.344 Y7.339 Z0.077
X14.363 Y7.359 Z0.076
X14.373 Y7.385 Z0.075
X14.369 Y7.413 Z0.074
X14.355 Y7.436 Z0.073
X13.294 Y8.497 Z0.021
X13.271 Y8.512 Z0.02
X13.243 Y8.515 Z0.019
X13.217 Y8.506 Z0.018
X13.197 Y8.486 Z0.017
X13.188 Y8.46 Z0.016
X13.191 Y8.432 Z0.015
X13.206 Y8.408 Z0.014
X14.266 Y7.348 Z-0.038
X14.29 Y7.333 Z-0.039
X14.317 Y7.33 Z-0.04
X14.344 Y7.339 Z-0.041
X14.363 Y7.359 Z-0.042
X14.373 Y7.385 Z-0.043
X14.369 Y7.413 Z-0.044
X14.355 Y7.436 Z-0.045
X13.294 Y8.497 Z-0.098
X13.271 Y8.512 Z-0.099
X13.243 Y8.515 Z-0.1
X13.217 Y8.506 Z-0.101
X13.197 Y8.486 Z-0.102
X13.188 Y8.46 Z-0.103
X13.191 Y8.432
X13.206 Y8.408 Z-0.104
X14.266 Y7.348 Z-0.157
X14.29 Y7.333 Z-0.158
X14.317 Y7.33 Z-0.159
X14.344 Y7.339 Z-0.16
X14.363 Y7.359 Z-0.161
X14.373 Y7.385 Z-0.162
X14.369 Y7.413 Z-0.163
X14.355 Y7.436 Z-0.164
X13.294 Y8.497 Z-0.216
X13.271 Y8.512 Z-0.217
X13.243 Y8.515 Z-0.218
X13.217 Y8.506 Z-0.219
X13.197 Y8.486 Z-0.22
X13.188 Y8.46 Z-0.221
X13.191 Y8.432 Z-0.222
X13.206 Y8.408 Z-0.223
X14.266 Y7.348 Z-0.275
X14.29 Y7.333 Z-0.276
X14.317 Y7.33 Z-0.277
X14.344 Y7.339 Z-0.278
X14.363 Y7.359 Z-0.279
X14.373 Y7.385 Z-0.28
X14.369 Y7.413 Z-0.281
X14.355 Y7.436 Z-0.282
X13.294 Y8.497 Z-0.335
X13.271 Y8.512 Z-0.336
X13.243 Y8.515 Z-0.337
X13.217 Y8.506
X13.197 Y8.486 Z-0.338
X13.188 Y8.46 Z-0.339
X13.191 Y8.432 Z-0.34
X13.206 Y8.408 Z-0.341
X14.266 Y7.348 Z-0.394
X14.29 Y7.333 Z-0.395
X14.317 Y7.33 Z-0.396
X14.344 Y7.339 Z-0.397
X14.363 Y7.359 Z-0.398
X14.373 Y7.385 Z-0.399
X14.369 Y7.413 Z-0.4
X14.355 Y7.436 Z-0.401
X13.294 Y8.497 Z-0.453
X13.271 Y8.512 Z-0.454
X13.243 Y8.515 Z-0.455
X13.217 Y8.506 Z-0.456
X13.197 Y8.486 Z-0.457
X13.188 Y8.46 Z-0.458
X13.191 Y8.432 Z-0.459
X13.206 Y8.408 Z-0.46
X14.266 Y7.348 Z-0.512
X14.29 Y7.333 Z-0.513
X14.317 Y7.33 Z-0.514
X14.344 Y7.339 Z-0.515
X14.363 Y7.359 Z-0.516
X14.373 Y7.385 Z-0.517
X14.369 Y7.413 Z-0.518
X14.355 Y7.436 Z-0.519
X13.294 Y8.497 Z-0.571
X13.271 Y8.512 Z-0.572
X13.243 Y8.515 Z-0.573
X13.217 Y8.506 Z-0.574
X13.197 Y8.486 Z-0.575
X13.188 Y8.46 Z-0.576
X13.191 Y8.432 Z-0.577
X13.206 Y8.408 Z-0.578
X14.266 Y7.348 Z-0.631
X14.29 Y7.333 Z-0.632
X14.317 Y7.33 Z-0.633
X14.344 Y7.339 Z-0.634
X14.363 Y7.359 Z-0.635
X14.373 Y7.385 Z-0.636
X14.369 Y7.413 Z-0.637
X14.355 Y7.436 Z-0.638
X13.294 Y8.497 Z-0.69
X13.271 Y8.512 Z-0.691
X13.243 Y8.515 Z-0.692
X13.217 Y8.506 Z-0.693
X13.197 Y8.486 Z-0.694
X13.188 Y8.46 Z-0.695
X13.191 Y8.432 Z-0.696
X13.206 Y8.408 Z-0.697
X14.266 Y7.348 Z-0.749
X14.29 Y7.333 Z-0.75
X14.317 Y7.33 Z-0.751
X14.344 Y7.339 Z-0.752
X14.363 Y7.359 Z-0.753
X14.373 Y7.385 Z-0.754
X14.369 Y7.413 Z-0.755
X14.355 Y7.436 Z-0.756
X13.294 Y8.497 Z-0.808
X13.271 Y8.512 Z-0.809
X13.243 Y8.515 Z-0.81
X13.217 Y8.506 Z-0.811
X13.197 Y8.486 Z-0.812
X13.188 Y8.46 Z-0.813
X13.191 Y8.432 Z-0.814
X13.206 Y8.408 Z-0.815
X14.266 Y7.348 Z-0.868
X14.29 Y7.333 Z-0.869
X14.317 Y7.33 Z-0.87
X14.344 Y7.339 Z-0.871
X14.363 Y7.359 Z-0.872
X14.373 Y7.385 Z-0.873
X14.369 Y7.413 Z-0.874
X14.355 Y7.436 Z-0.875
X13.294 Y8.497 Z-0.927
X13.271 Y8.512 Z-0.928
X13.243 Y8.515 Z-0.929
X13.217 Y8.506 Z-0.93
X13.197 Y8.486 Z-0.931
X13.188 Y8.46 Z-0.932
X13.191 Y8.432 Z-0.933
X13.206 Y8.408 Z-0.934
X14.266 Y7.348 Z-0.986
X14.29 Y7.333 Z-0.987
X14.317 Y7.33 Z-0.988
X14.344 Y7.339 Z-0.989
X14.363 Y7.359 Z-0.99
X14.373 Y7.385 Z-0.991
X14.369 Y7.413 Z-0.992
X14.355 Y7.436 Z-0.993
X13.294 Y8.497 Z-1.045
X13.271 Y8.512 Z-1.046
X13.243 Y8.515 Z-1.047
X13.217 Y8.506 Z-1.048
X13.197 Y8.486 Z-1.049
X13.188 Y8.46 Z-1.05
X13.191 Y8.432 Z-1.051
X13.206 Y8.408 Z-1.052
X14.266 Y7.348 Z-1.105
X14.29 Y7.333 Z-1.106
X14.317 Y7.33 Z-1.107
X14.344 Y7.339 Z-1.108
X14.363 Y7.359 Z-1.109
X14.373 Y7.385 Z-1.11
X14.369 Y7.413
X14.355 Y7.436 Z-1.111
X13.294 Y8.497 Z-1.164
X13.271 Y8.512 Z-1.165
X13.243 Y8.515 Z-1.166
X13.217 Y8.506 Z-1.167
X13.197 Y8.486 Z-1.168
X13.188 Y8.46 Z-1.169
X13.191 Y8.432 Z-1.17
X13.206 Y8.408 Z-1.171
X14.266 Y7.348 Z-1.223
X14.29 Y7.333 Z-1.224
X14.317 Y7.33 Z-1.225
X14.344 Y7.339 Z-1.226
X14.363 Y7.359 Z-1.227
X14.373 Y7.385 Z-1.228
X14.369 Y7.413 Z-1.229
X14.355 Y7.436 Z-1.23
X13.294 Y8.497 Z-1.282
X13.271 Y8.512 Z-1.283
X13.243 Y8.515 Z-1.284
X13.217 Y8.506 Z-1.285
X13.197 Y8.486 Z-1.286
X13.188 Y8.46 Z-1.287
X13.191 Y8.432 Z-1.288
X13.206 Y8.408 Z-1.289
X14.266 Y7.348 Z-1.342
X14.29 Y7.333 Z-1.343
X14.317 Y7.33 Z-1.344
X14.344 Y7.339
X14.363 Y7.359 Z-1.345
X14.373 Y7.385 Z-1.346
X14.369 Y7.413 Z-1.347
X14.355 Y7.436 Z-1.348
X13.294 Y8.497 Z-1.401
X13.271 Y8.512 Z-1.402
X13.243 Y8.515 Z-1.403
X13.217 Y8.506 Z-1.404
X13.197 Y8.486 Z-1.405
X13.188 Y8.46 Z-1.406
X13.191 Y8.432 Z-1.407
X13.206 Y8.408 Z-1.408
X14.266 Y7.348 Z-1.46
X14.29 Y7.333 Z-1.461
X14.317 Y7.33 Z-1.462
X14.344 Y7.339 Z-1.463
X14.363 Y7.359 Z-1.464
X14.373 Y7.385 Z-1.465
X14.369 Y7.413 Z-1.466
X14.355 Y7.436 Z-1.467
X13.294 Y8.497 Z-1.519
X13.271 Y8.512 Z-1.52
X13.243 Y8.515 Z-1.521
X13.217 Y8.506 Z-1.522
X13.197 Y8.486 Z-1.523
X13.188 Y8.46 Z-1.524
X13.191 Y8.432 Z-1.525
X13.206 Y8.408 Z-1.526
X14.266 Y7.348 Z-1.578
X14.29 Y7.333 Z-1.579
X14.317 Y7.33 Z-1.58
X14.344 Y7.339 Z-1.581
X14.363 Y7.359 Z-1.582
X14.373 Y7.385 Z-1.583
X14.369 Y7.413 Z-1.584
X14.355 Y7.436 Z-1.585
X13.294 Y8.497 Z-1.638
X13.271 Y8.512 Z-1.639
X13.243 Y8.515 Z-1.64
X13.217 Y8.506 Z-1.641
X13.197 Y8.486 Z-1.642
X13.188 Y8.46 Z-1.643
X13.191 Y8.432 Z-1.644
X13.206 Y8.408 Z-1.645
X14.266 Y7.348 Z-1.697
X14.29 Y7.333 Z-1.698
X14.317 Y7.33 Z-1.699
X14.344 Y7.339 Z-1.7
X14.363 Y7.359 Z-1.701
X14.373 Y7.385 Z-1.702
X14.369 Y7.413 Z-1.703
X14.355 Y7.436 Z-1.704
X13.294 Y8.497 Z-1.756
X13.271 Y8.512 Z-1.757
X13.243 Y8.515 Z-1.758
X13.217 Y8.506 Z-1.759
X13.197 Y8.486 Z-1.76
X13.188 Y8.46 Z-1.761
X13.191 Y8.432 Z-1.762
X13.206 Y8.408 Z-1.763
X14.266 Y7.348 Z-1.815
X14.29 Y7.333 Z-1.816
X14.317 Y7.33 Z-1.817
X14.344 Y7.339 Z-1.818
X14.363 Y7.359 Z-1.819
X14.373 Y7.385 Z-1.82
X14.369 Y7.413 Z-1.821
X14.355 Y7.436 Z-1.822
X13.294 Y8.497 Z-1.875
X13.271 Y8.512 Z-1.876
X13.243 Y8.515 Z-1.877
X13.217 Y8.506 Z-1.878
X13.197 Y8.486 Z-1.879
X13.188 Y8.46 Z-1.88
X13.191 Y8.432 Z-1.881
X13.206 Y8.408 Z-1.882
X14.266 Y7.348 Z-1.934
X14.29 Y7.333 Z-1.935
X14.317 Y7.33 Z-1.936
X14.344 Y7.339 Z-1.937
X14.363 Y7.359 Z-1.938
X14.373 Y7.385 Z-1.939
X14.369 Y7.413 Z-1.94
X14.355 Y7.436 Z-1.941
X13.294 Y8.497 Z-1.993
X13.271 Y8.512 Z-1.994
X13.243 Y8.515 Z-1.995
X13.217 Y8.506 Z-1.996
X13.197 Y8.486 Z-1.997
X13.188 Y8.46 Z-1.998
X13.191 Y8.432 Z-1.999
X13.206 Y8.408 Z-2
S6000
X14.266 Y7.348 F1000
X14.29 Y7.333
X14.317 Y7.33
X14.344 Y7.339
X14.363 Y7.359
X14.373 Y7.385
X14.369 Y7.413
X14.355 Y7.436
X13.294 Y8.497
X13.271 Y8.512
X13.243 Y8.515
X13.217 Y8.506
X13.197 Y8.486
X13.188 Y8.46
X13.191 Y8.432
X13.206 Y8.408
S5000
X14.266 Y7.348 Z-2.052 F333.3
X14.29 Y7.333 Z-2.053
X14.317 Y7.33 Z-2.054
X14.344 Y7.339 Z-2.055
X14.363 Y7.359 Z-2.056
X14.373 Y7.385 Z-2.057
X14.369 Y7.413 Z-2.058
X14.355 Y7.436 Z-2.059
X13.294 Y8.497 Z-2.112
X13.271 Y8.512 Z-2.113
X13.243 Y8.515 Z-2.114
X13.217 Y8.506 Z-2.115
X13.197 Y8.486 Z-2.116
X13.188 Y8.46 Z-2.117
X13.191 Y8.432
X13.206 Y8.408 Z-2.118
X14.266 Y7.348 Z-2.171
X14.29 Y7.333 Z-2.172
X14.317 Y7.33 Z-2.173
X14.344 Y7.339 Z-2.174
X14.363 Y7.359 Z-2.175
X14.373 Y7.385 Z-2.176
X14.369 Y7.413 Z-2.177
X14.355 Y7.436 Z-2.178
X13.294 Y8.497 Z-2.23
X13.271 Y8.512 Z-2.231
X13.243 Y8.515 Z-2.232
X13.217 Y8.506 Z-2.233
X13.197 Y8.486 Z-2.234
X13.188 Y8.46 Z-2.235
X13.191 Y8.432 Z-2.236
X13.206 Y8.408 Z-2.237
X14.266 Y7.348 Z-2.289
X14.29 Y7.333 Z-2.29
X14.317 Y7.33 Z-2.291
X14.344 Y7.339 Z-2.292
X14.363 Y7.359 Z-2.293
X14.373 Y7.385 Z-2.294
X14.369 Y7.413 Z-2.295
X14.355 Y7.436 Z-2.296
X13.294 Y8.497 Z-2.349
X13.271 Y8.512 Z-2.35
X13.243 Y8.515 Z-2.351
X13.217 Y8.506
X13.197 Y8.486 Z-2.352
X13.188 Y8.46 Z-2.353
X13.191 Y8.432 Z-2.354
X13.206 Y8.408 Z-2.355
X14.266 Y7.348 Z-2.408
X14.29 Y7.333 Z-2.409
X14.317 Y7.33 Z-2.41
X14.344 Y7.339 Z-2.411
X14.363 Y7.359 Z-2.412
X14.373 Y7.385 Z-2.413
X14.369 Y7.413 Z-2.414
X14.355 Y7.436 Z-2.415
X13.294 Y8.497 Z-2.467
X13.271 Y8.512 Z-2.468
X13.243 Y8.515 Z-2.469
X13.217 Y8.506 Z-2.47
X13.197 Y8.486 Z-2.471
X13.188 Y8.46 Z-2.472
X13.191 Y8.432 Z-2.473
X13.206 Y8.408 Z-2.474
X14.266 Y7.348 Z-2.526
X14.29 Y7.333 Z-2.527
X14.317 Y7.33 Z-2.528
X14.344 Y7.339 Z-2.529
X14.363 Y7.359 Z-2.53
X14.373 Y7.385 Z-2.531
X14.369 Y7.413 Z-2.532
X14.355 Y7.436 Z-2.533
X13.294 Y8.497 Z-2.585
X13.271 Y8.512 Z-2.586
X13.243 Y8.515 Z-2.587
X13.217 Y8.506 Z-2.588
X13.197 Y8.486 Z-2.589
X13.188 Y8.46 Z-2.59
X13.191 Y8.432 Z-2.591
X13.206 Y8.408 Z-2.592
X14.266 Y7.348 Z-2.645
X14.29 Y7.333 Z-2.646
X14.317 Y7.33 Z-2.647
X14.344 Y7.339 Z-2.648
X14.363 Y7.359 Z-2.649
X14.373 Y7.385 Z-2.65
X14.369 Y7.413 Z-2.651
X14.355 Y7.436 Z-2.652
X13.294 Y8.497 Z-2.704
X13.271 Y8.512 Z-2.705
X13.243 Y8.515 Z-2.706
X13.217 Y8.506 Z-2.707
X13.197 Y8.486 Z-2.708
X13.188 Y8.46 Z-2.709
X13.191 Y8.432 Z-2.71
X13.206 Y8.408 Z-2.711
X14.266 Y7.348 Z-2.763
X14.29 Y7.333 Z-2.764
X14.317 Y7.33 Z-2.765
X14.344 Y7.339 Z-2.766
X14.363 Y7.359 Z-2.767
X14.373 Y7.385 Z-2.768
X14.369 Y7.413 Z-2.769
X14.355 Y7.436 Z-2.77
X13.294 Y8.497 Z-2.822
X13.271 Y8.512 Z-2.823
X13.243 Y8.515 Z-2.824
X13.217 Y8.506 Z-2.825
X13.197 Y8.486 Z-2.826
X13.188 Y8.46 Z-2.827
X13.191 Y8.432 Z-2.828
X13.206 Y8.408 Z-2.829
X14.266 Y7.348 Z-2.882
X14.29 Y7.333 Z-2.883
X14.317 Y7.33 Z-2.884
X14.344 Y7.339 Z-2.885
X14.363 Y7.359 Z-2.886
X14.373 Y7.385 Z-2.887
X14.369 Y7.413 Z-2.888
X14.355 Y7.436 Z-2.889
X13.294 Y8.497 Z-2.941
X13.271 Y8.512 Z-2.942
X13.243 Y8.515 Z-2.943
X13.217 Y8.506 Z-2.944
X13.197 Y8.486 Z-2.945
X13.188 Y8.46 Z-2.946
X13.191 Y8.432 Z-2.947
X13.206 Y8.408 Z-2.948
X14.266 Y7.348 Z-3
X14.29 Y7.333 Z-3.001
X14.317 Y7.33 Z-3.002
X14.344 Y7.339 Z-3.003
X14.363 Y7.359 Z-3.004
X14.373 Y7.385 Z-3.005
X14.369 Y7.413 Z-3.006
X14.355 Y7.436 Z-3.007
X13.294 Y8.497 Z-3.059
X13.271 Y8.512 Z-3.06
X13.243 Y8.515 Z-3.061
X13.217 Y8.506 Z-3.062
X13.197 Y8.486 Z-3.063
X13.188 Y8.46 Z-3.064
X13.191 Y8.432 Z-3.065
X13.206 Y8.408 Z-3.066
X13.889 Y7.725 Z-3.1
S6000
X14.266 Y7.348 F1000
X14.29 Y7.333
X14.317 Y7.33
X14.344 Y7.339
X14.363 Y7.359
X14.373 Y7.385
X14.369 Y7.413
X14.355 Y7.436
X13.294 Y8.497
X13.271 Y8.512
X13.243 Y8.515
X13.217 Y8.506
X13.197 Y8.486
X13.188 Y8.46
X13.191 Y8.432
X13.206 Y8.408
X13.889 Y7.725
S5000
X14.266 Y7.348 Z-3.119 F333.3
X14.29 Y7.333 Z-3.12
X14.317 Y7.33 Z-3.121
X14.344 Y7.339 Z-3.122
X14.363 Y7.359 Z-3.123
X14.373 Y7.385 Z-3.124
X14.369 Y7.413
X14.355 Y7.436 Z-3.125
X13.294 Y8.497 Z-3.178
X13.271 Y8.512 Z-3.179
X13.243 Y8.515 Z-3.18
X13.217 Y8.506 Z-3.181
X13.197 Y8.486 Z-3.182
X13.188 Y8.46 Z-3.183
X13.191 Y8.432 Z-3.184
X13.206 Y8.408 Z-3.185
X14.266 Y7.348 Z-3.237
X14.29 Y7.333 Z-3.238
X14.317 Y7.33 Z-3.239
X14.344 Y7.339 Z-3.24
X14.363 Y7.359 Z-3.241
X14.373 Y7.385 Z-3.242
X14.369 Y7.413 Z-3.243
X14.355 Y7.436 Z-3.244
X13.294 Y8.497 Z-3.296
X13.271 Y8.512 Z-3.297
X13.243 Y8.515 Z-3.298
X13.217 Y8.506 Z-3.299
X13.197 Y8.486 Z-3.3
X13.188 Y8.46 Z-3.301
X13.191 Y8.432 Z-3.302
X13.206 Y8.408 Z-3.303
X14.266 Y7.348 Z-3.356
X14.29 Y7.333 Z-3.357
X14.317 Y7.33 Z-3.358
X14.344 Y7.339
X14.363 Y7.359 Z-3.359
X14.373 Y7.385 Z-3.36
X14.369 Y7.413 Z-3.361
X14.355 Y7.436 Z-3.362
X13.294 Y8.497 Z-3.415
X13.271 Y8.512 Z-3.416
X13.243 Y8.515 Z-3.417
X13.217 Y8.506 Z-3.418
X13.197 Y8.486 Z-3.419
X13.188 Y8.46 Z-3.42
X13.191 Y8.432 Z-3.421
X13.206 Y8.408 Z-3.422
X14.266 Y7.348 Z-3.474
X14.29 Y7.333 Z-3.475
X14.317 Y7.33 Z-3.476
X14.344 Y7.339 Z-3.477
X14.363 Y7.359 Z-3.478
X14.373 Y7.385 Z-3.479
X14.369 Y7.413 Z-3.48
X14.355 Y7.436 Z-3.481
X13.294 Y8.497 Z-3.533
X13.271 Y8.512 Z-3.534
X13.243 Y8.515 Z-3.535
X13.217 Y8.506 Z-3.536
X13.197 Y8.486 Z-3.537
X13.188 Y8.46 Z-3.538
X13.191 Y8.432 Z-3.539
X13.206 Y8.408 Z-3.54
X14.266 Y7.348 Z-3.593
X14.29 Y7.333
X14.317 Y7.33 Z-3.594
X14.344 Y7.339 Z-3.595
X14.363 Y7.359 Z-3.596
X14.373 Y7.385 Z-3.597
X14.369 Y7.413 Z-3.598
X14.355 Y7.436 Z-3.599
X13.294 Y8.497 Z-3.652
X13.271 Y8.512 Z-3.653
X13.243 Y8.515 Z-3.654
X13.217 Y8.506 Z-3.655
X13.197 Y8.486 Z-3.656
X13.188 Y8.46 Z-3.657
X13.191 Y8.432 Z-3.658
X13.206 Y8.408 Z-3.659
X14.266 Y7.348 Z-3.711
X14.29 Y7.333 Z-3.712
X14.317 Y7.33 Z-3.713
X14.344 Y7.339 Z-3.714
X14.363 Y7.359 Z-3.715
X14.373 Y7.385 Z-3.716
X14.369 Y7.413 Z-3.717
X14.355 Y7.436 Z-3.718
X13.294 Y8.497 Z-3.77
X13.271 Y8.512 Z-3.771
X13.243 Y8.515 Z-3.772
X13.217 Y8.506 Z-3.773
X13.197 Y8.486 Z-3.774
X13.188 Y8.46 Z-3.775
X13.191 Y8.432 Z-3.776
X13.206 Y8.408 Z-3.777
X14.266 Y7.348 Z-3.829
X14.29 Y7.333 Z-3.83
X14.317 Y7.33 Z-3.831
X14.344 Y7.339 Z-3.832
X14.363 Y7.359 Z-3.833
X14.373 Y7.385 Z-3.834
X14.369 Y7.413 Z-3.835
X14.355 Y7.436 Z-3.836
X13.294 Y8.497 Z-3.889
X13.271 Y8.512 Z-3.89
X13.243 Y8.515 Z-3.891
X13.217 Y8.506 Z-3.892
X13.197 Y8.486 Z-3.893
X13.188 Y8.46 Z-3.894
X13.191 Y8.432 Z-3.895
X13.206 Y8.408 Z-3.896
X14.266 Y7.348 Z-3.948
X14.29 Y7.333 Z-3.949
X14.317 Y7.33 Z-3.95
X14.344 Y7.339 Z-3.951
X14.363 Y7.359 Z-3.952
X14.373 Y7.385 Z-3.953
X14.369 Y7.413 Z-3.954
X14.355 Y7.436 Z-3.955
X13.294 Y8.497 Z-4.007
X13.271 Y8.512 Z-4.008
X13.243 Y8.515 Z-4.009
X13.217 Y8.506 Z-4.01
X13.197 Y8.486 Z-4.011
X13.188 Y8.46 Z-4.012
X13.191 Y8.432 Z-4.013
X13.206 Y8.408 Z-4.014
X14.266 Y7.348 Z-4.066
X14.29 Y7.333 Z-4.067
X14.317 Y7.33 Z-4.068
X14.344 Y7.339 Z-4.069
X14.363 Y7.359 Z-4.07
X14.373 Y7.385 Z-4.071
X14.369 Y7.413 Z-4.072
X14.355 Y7.436 Z-4.073
X13.294 Y8.497 Z-4.126
X13.271 Y8.512 Z-4.127
X13.243 Y8.515 Z-4.128
X13.217 Y8.506 Z-4.129
X13.197 Y8.486 Z-4.13
X13.188 Y8.46 Z-4.131
X13.191 Y8.432
X13.206 Y8.408 Z-4.132
X14.266 Y7.348 Z-4.185
X14.29 Y7.333 Z-4.186
X14.317 Y7.33 Z-4.187
X14.344 Y7.339 Z-4.188
X14.363 Y7.359 Z-4.189
X14.373 Y7.385 Z-4.19
X14.369 Y7.413 Z-4.191
X14.355 Y7.436 Z-4.192
X14.187 Y7.604 Z-4.2
S6000
X13.294 Y8.497 F1000
X13.271 Y8.512
X13.243 Y8.515
X13.217 Y8.506
X13.197 Y8.486
X13.188 Y8.46
X13.191 Y8.432
X13.206 Y8.408
X13.889 Y7.725
X14.266 Y7.348
X14.29 Y7.333
X14.317 Y7.33
X14.344 Y7.339
X14.363 Y7.359
X14.373 Y7.385
X14.369 Y7.413
X14.355 Y7.436
X14.187 Y7.604
X14.183 Y7.607
X14.179 Y7.609 Z-4.199
X14.175 Y7.611 Z-4.197
X14.172 Y7.612 Z-4.194
X14.168 Y7.613 Z-4.191
X14.165 Z-4.188
X14.163 Z-4.184
X14.161 Y7.612 Z-4.179
X14.16 Z-4.175
Z-4.17
Z5
X14.307 Y20.889
Z3 F333.3
Z2.5
S5000
X14.285 Y20.884 Z2.499
X14.266 Y20.871 Z2.498
X13.206 Y19.811 Z2.446
X13.191 Y19.787 Z2.445
X13.188 Y19.759 Z2.444
X13.197 Y19.733 Z2.443
X13.217 Y19.714 Z2.442
X13.243 Y19.704 Z2.441
X13.27 Y19.707 Z2.44
X13.294 Y19.722 Z2.439
X14.355 Y20.783 Z2.387
X14.369 Y20.806 Z2.386
X14.373 Y20.834 Z2.385
X14.363 Y20.86 Z2.384
X14.344 Y20.88 Z2.383
X14.318 Y20.889 Z2.382
X14.29 Y20.886 Z2.381
X14.266 Y20.871 Z2.38
X13.206 Y19.811 Z2.328
X13.191 Y19.787 Z2.327
X13.188 Y19.759 Z2.326
X13.197 Y19.733 Z2.325
X13.217 Y19.714 Z2.324
X13.243 Y19.704 Z2.323
X13.27 Y19.707 Z2.322
X13.294 Y19.722 Z2.321
X14.355 Y20.783 Z2.268
X14.369 Y20.806 Z2.267
X14.373 Y20.834 Z2.266
X14.363 Y20.86 Z2.265
X14.344 Y20.88 Z2.264
X14.318 Y20.889 Z2.263
X14.29 Y20.886 Z2.262
X14.266 Y20.871 Z2.261
X13.206 Y19.811 Z2.209
X13.191 Y19.787 Z2.208
X13.188 Y19.759 Z2.207
X13.197 Y19.733 Z2.206
X13.217 Y19.714 Z2.205
X13.243 Y19.704 Z2.204
X13.27 Y19.707 Z2.203
X13.294 Y19.722 Z2.202
X14.355 Y20.783 Z2.15
X14.369 Y20.806 Z2.149
X14.373 Y20.834 Z2.148
X14.363 Y20.86 Z2.147
X14.344 Y20.88 Z2.146
X14.318 Y20.889 Z2.145
X14.29 Y20.886 Z2.144
X14.266 Y20.871 Z2.143
X13.206 Y19.811 Z2.091
X13.191 Y19.787 Z2.09
X13.188 Y19.759 Z2.089
X13.197 Y19.733 Z2.088
X13.217 Y19.714 Z2.087
X13.243 Y19.704 Z2.086
X13.27 Y19.707 Z2.085
X13.294 Y19.722 Z2.084
X14.355 Y20.783 Z2.031
X14.369 Y20.806 Z2.03
X14.373 Y20.834 Z2.029
X14.363 Y20.86 Z2.028
X14.344 Y20.88 Z2.027
X14.318 Y20.889 Z2.026
X14.29 Y20.886
X14.266 Y20.871 Z2.025
X13.206 Y19.811 Z1.972
X13.191 Y19.787 Z1.971
X13.188 Y19.759 Z1.97
X13.197 Y19.733 Z1.969
X13.217 Y19.714 Z1.968
X13.243 Y19.704 Z1.967
X13.27 Y19.707 Z1.966
X13.294 Y19.722 Z1.965
X14.355 Y20.783 Z1.913
X14.369 Y20.806 Z1.912
X14.373 Y20.834 Z1.911
X14.363 Y20.86 Z1.91
X14.344 Y20.88 Z1.909
X14.318 Y20.889 Z1.908
X14.29 Y20.886 Z1.907
X14.266 Y20.871 Z1.906
X13.206 Y19.811 Z1.854
X13.191 Y19.787 Z1.853
X13.188 Y19.759 Z1.852
X13.197 Y19.733 Z1.851
X13.217 Y19.714 Z1.85
X13.243 Y19.704 Z1.849
X13.27 Y19.707 Z1.848
X13.294 Y19.722 Z1.847
X14.355 Y20.783 Z1.794
X14.369 Y20.806 Z1.793
X14.373 Y20.834 Z1.792
X14.363 Y20.86
X14.344 Y20.88 Z1.791
X14.318 Y20.889 Z1.79
X14.29 Y20.886 Z1.789
X14.266 Y20.871 Z1.788
X13.206 Y19.811 Z1.735
X13.191 Y19.787 Z1.734
X13.188 Y19.759 Z1.733
X13.197 Y19.733 Z1.732
X13.217 Y19.714 Z1.731
X13.243 Y19.704 Z1.73
X13.27 Y19.707 Z1.729
X13.294 Y19.722 Z1.728
X14.355 Y20.783 Z1.676
X14.369 Y20.806 Z1.675
X14.373 Y20.834 Z1.674
X14.363 Y20.86 Z1.673
X14.344 Y20.88 Z1.672
X14.318 Y20.889 Z1.671
X14.29 Y20.886 Z1.67
X14.266 Y20.871 Z1.669
X13.206 Y19.811 Z1.617
X13.191 Y19.787 Z1.616
X13.188 Y19.759 Z1.615
X13.197 Y19.733 Z1.614
X13.217 Y19.714 Z1.613
X13.243 Y19.704 Z1.612
X13.27 Y19.707 Z1.611
X13.294 Y19.722 Z1.61
X14.355 Y20.783 Z1.558
X14.369 Y20.806 Z1.557
X14.373 Y20.834 Z1.556
X14.363 Y20.86 Z1.555
X14.344 Y20.88 Z1.554
X14.318 Y20.889 Z1.553
X14.29 Y20.886 Z1.552
X14.266 Y20.871 Z1.551
X13.206 Y19.811 Z1.498
X13.191 Y19.787 Z1.497
X13.188 Y19.759 Z1.496
X13.197 Y19.733 Z1.495
X13.217 Y19.714 Z1.494
X13.243 Y19.704 Z1.493
X13.27 Y19.707 Z1.492
X13.294 Y19.722 Z1.491
X14.355 Y20.783 Z1.439
X14.369 Y20.806 Z1.438
X14.373 Y20.834 Z1.437
X14.363 Y20.86 Z1.436
X14.344 Y20.88 Z1.435
X14.318 Y20.889 Z1.434
X14.29 Y20.886 Z1.433
X14.266 Y20.871 Z1.432
X13.206 Y19.811 Z1.38
X13.191 Y19.787 Z1.379
X13.188 Y19.759 Z1.378
X13.197 Y19.733 Z1.377
X13.217 Y19.714 Z1.376
X13.243 Y19.704 Z1.375
X13.27 Y19.707 Z1.374
X13.294 Y19.722 Z1.373
X14.355 Y20.783 Z1.321
X14.369 Y20.806 Z1.32
X14.373 Y20.834 Z1.319
X14.363 Y20.86 Z1.318
X14.344 Y20.88 Z1.317
X14.318 Y20.889 Z1.316
X14.29 Y20.886 Z1.315
X14.266 Y20.871 Z1.314
X13.206 Y19.811 Z1.261
X13.191 Y19.787 Z1.26
X13.188 Y19.759 Z1.259
X13.197 Y19.733 Z1.258
X13.217 Y19.714 Z1.257
X13.243 Y19.704 Z1.256
X13.27 Y19.707 Z1.255
X13.294 Y19.722 Z1.254
X14.355 Y20.783 Z1.202
X14.369 Y20.806 Z1.201
X14.373 Y20.834 Z1.2
X14.363 Y20.86 Z1.199
X14.344 Y20.88 Z1.198
X14.318 Y20.889 Z1.197
X14.29 Y20.886 Z1.196
X14.266 Y20.871 Z1.195
X13.206 Y19.811 Z1.143
X13.191 Y19.787 Z1.142
X13.188 Y19.759 Z1.141
X13.197 Y19.733 Z1.14
X13.217 Y19.714 Z1.139
X13.243 Y19.704 Z1.138
X13.27 Y19.707 Z1.137
X13.294 Y19.722 Z1.136
X14.355 Y20.783 Z1.084
X14.369 Y20.806 Z1.083
X14.373 Y20.834 Z1.082
X14.363 Y20.86 Z1.081
X14.344 Y20.88 Z1.08
X14.318 Y20.889 Z1.079
X14.29 Y20.886 Z1.078
X14.266 Y20.871 Z1.077
X13.206 Y19.811 Z1.024
X13.191 Y19.787 Z1.023
X13.188 Y19.759 Z1.022
X13.197 Y19.733 Z1.021
X13.217 Y19.714 Z1.02
X13.243 Y19.704
X13.27 Y19.707 Z1.019
X13.294 Y19.722 Z1.018
X14.355 Y20.783 Z0.965
X14.369 Y20.806 Z0.964
X14.373 Y20.834 Z0.963
X14.363 Y20.86 Z0.962
X14.344 Y20.88 Z0.961
X14.318 Y20.889 Z0.96
X14.29 Y20.886 Z0.959
X14.266 Y20.871 Z0.958
X13.206 Y19.811 Z0.906
X13.191 Y19.787 Z0.905
X13.188 Y19.759 Z0.904
X13.197 Y19.733 Z0.903
X13.217 Y19.714 Z0.902
X13.243 Y19.704 Z0.901
X13.27 Y19.707 Z0.9
X13.294 Y19.722 Z0.899
X14.355 Y20.783 Z0.847
X14.369 Y20.806 Z0.846
X14.373 Y20.834 Z0.845
X14.363 Y20.86 Z0.844
X14.344 Y20.88 Z0.843
X14.318 Y20.889 Z0.842
X14.29 Y20.886 Z0.841
X14.266 Y20.871 Z0.84
X13.206 Y19.811 Z0.787
X13.191 Y19.787 Z0.786
X13.188 Y19.759 Z0.785
X13.197 Y19.733
X13.217 Y19.714 Z0.784
X13.243 Y19.704 Z0.783
X13.27 Y19.707 Z0.782
X13.294 Y19.722 Z0.781
X14.355 Y20.783 Z0.728
X14.369 Y20.806 Z0.727
X14.373 Y20.834 Z0.726
X14.363 Y20.86 Z0.725
X14.344 Y20.88 Z0.724
X14.318 Y20.889 Z0.723
X14.29 Y20.886 Z0.722
X14.266 Y20.871 Z0.721
X13.206 Y19.811 Z0.669
X13.191 Y19.787 Z0.668
X13.188 Y19.759 Z0.667
X13.197 Y19.733 Z0.666
X13.217 Y19.714 Z0.665
X13.243 Y19.704 Z0.664
X13.27 Y19.707 Z0.663
X13.294 Y19.722 Z0.662
X14.355 Y20.783 Z0.61
X14.369 Y20.806 Z0.609
X14.373 Y20.834 Z0.608
X14.363 Y20.86 Z0.607
X14.344 Y20.88 Z0.606
X14.318 Y20.889 Z0.605
X14.29 Y20.886 Z0.604
X14.266 Y20.871 Z0.603
X13.206 Y19.811 Z0.551
X13.191 Y19.787 Z0.55
X13.188 Y19.759 Z0.549
X13.197 Y19.733 Z0.548
X13.217 Y19.714 Z0.547
X13.243 Y19.704 Z0.546
X13.27 Y19.707 Z0.545
X13.294 Y19.722 Z0.544
X14.355 Y20.783 Z0.491
X14.369 Y20.806 Z0.49
X14.373 Y20.834 Z0.489
X14.363 Y20.86 Z0.488
X14.344 Y20.88 Z0.487
X14.318 Y20.889 Z0.486
X14.29 Y20.886 Z0.485
X14.266 Y20.871 Z0.484
X13.206 Y19.811 Z0.432
X13.191 Y19.787 Z0.431
X13.188 Y19.759 Z0.43
X13.197 Y19.733 Z0.429
X13.217 Y19.714 Z0.428
X13.243 Y19.704 Z0.427
X13.27 Y19.707 Z0.426
X13.294 Y19.722 Z0.425
X14.355 Y20.783 Z0.373
X14.369 Y20.806 Z0.372
X14.373 Y20.834 Z0.371
X14.363 Y20.86 Z0.37
X14.344 Y20.88 Z0.369
X14.318 Y20.889 Z0.368
X14.29 Y20.886 Z0.367
X14.266 Y20.871 Z0.366
X13.206 Y19.811 Z0.314
X13.191 Y19.787 Z0.313
X13.188 Y19.759 Z0.312
X13.197 Y19.733 Z0.311
X13.217 Y19.714 Z0.31
X13.243 Y19.704 Z0.309
X13.27 Y19.707 Z0.308
X13.294 Y19.722 Z0.307
X14.355 Y20.783 Z0.254
X14.369 Y20.806 Z0.253
X14.373 Y20.834 Z0.252
X14.363 Y20.86 Z0.251
X14.344 Y20.88 Z0.25
X14.318 Y20.889 Z0.249
X14.29 Y20.886 Z0.248
X14.266 Y20.871 Z0.247
X13.206 Y19.811 Z0.195
X13.191 Y19.787 Z0.194
X13.188 Y19.759 Z0.193
X13.197 Y19.733 Z0.192
X13.217 Y19.714 Z0.191
X13.243 Y19.704 Z0.19
X13.27 Y19.707 Z0.189
X13.294 Y19.722 Z0.188
X14.355 Y20.783 Z0.136
X14.369 Y20.806 Z0.135
X14.373 Y20.834 Z0.134
X14.363 Y20.86 Z0.133
X14.344 Y20.88 Z0.132
X14.318 Y20.889 Z0.131
X14.29 Y20.886 Z0.13
X14.266 Y20.871 Z0.129
X13.206 Y19.811 Z0.077
X13.191 Y19.787 Z0.076
X13.188 Y19.759 Z0.075
X13.197 Y19.733 Z0.074
X13.217 Y19.714 Z0.073
X13.243 Y19.704 Z0.072
X13.27 Y19.707 Z0.071
X13.294 Y19.722 Z0.07
X14.355 Y20.783 Z0.017
X14.369 Y20.806 Z0.016
X14.373 Y20.834 Z0.015
X14.363 Y20.86 Z0.014
X14.344 Y20.88 Z0.013
X14.318 Y20.889
X14.29 Y20.886 Z0.012
X14.266 Y20.871 Z0.011
X13.206 Y19.811 Z-0.042
X13.191 Y19.787 Z-0.043
X13.188 Y19.759 Z-0.044
X13.197 Y19.733 Z-0.045
X13.217 Y19.714 Z-0.046
X13.243 Y19.704 Z-0.047
X13.27 Y19.707 Z-0.048
X13.294 Y19.722 Z-0.049
X14.355 Y20.783 Z-0.101
X14.369 Y20.806 Z-0.102
X14.373 Y20.834 Z-0.103
X14.363 Y20.86 Z-0.104
X14.344 Y20.88 Z-0.105
X14.318 Y20.889 Z-0.106
X14.29 Y20.886 Z-0.107
X14.266 Y20.871 Z-0.108
X13.206 Y19.811 Z-0.16
X13.191 Y19.787 Z-0.161
X13.188 Y19.759 Z-0.162
X13.197 Y19.733 Z-0.163
X13.217 Y19.714 Z-0.164
X13.243 Y19.704 Z-0.165
X13.27 Y19.707 Z-0.166
X13.294 Y19.722 Z-0.167
X14.355 Y20.783 Z-0.22
X14.369 Y20.806 Z-0.221
X14.373 Y20.834
X14.363 Y20.86 Z-0.222
X14.344 Y20.88 Z-0.223
X14.318 Y20.889 Z-0.224
X14.29 Y20.886 Z-0.225
X14.266 Y20.871 Z-0.226
X13.206 Y19.811 Z-0.279
X13.191 Y19.787 Z-0.28
X13.188 Y19.759 Z-0.281
X13.197 Y19.733 Z-0.282
X13.217 Y19.714 Z-0.283
X13.243 Y19.704 Z-0.284
X13.27 Y19.707 Z-0.285
X13.294 Y19.722 Z-0.286
X14.355 Y20.783 Z-0.338
X14.369 Y20.806 Z-0.339
X14.373 Y20.834 Z-0.34
X14.363 Y20.86 Z-0.341
X14.344 Y20.88 Z-0.342
X14.318 Y20.889 Z-0.343
X14.29 Y20.886 Z-0.344
X14.266 Y20.871 Z-0.345
X13.206 Y19.811 Z-0.397
X13.191 Y19.787 Z-0.398
X13.188 Y19.759 Z-0.399
X13.197 Y19.733 Z-0.4
X13.217 Y19.714 Z-0.401
X13.243 Y19.704 Z-0.402
X13.27 Y19.707 Z-0.403
X13.294 Y19.722 Z-0.404
X14.355 Y20.783 Z-0.456
X14.369 Y20.806 Z-0.457
X14.373 Y20.834 Z-0.458
X14.363 Y20.86 Z-0.459
X14.344 Y20.88 Z-0.46
X14.318 Y20.889 Z-0.461
X14.29 Y20.886 Z-0.462
X14.266 Y20.871 Z-0.463
X13.206 Y19.811 Z-0.516
X13.191 Y19.787 Z-0.517
X13.188 Y19.759 Z-0.518
X13.197 Y19.733 Z-0.519
X13.217 Y19.714 Z-0.52
X13.243 Y19.704 Z-0.521
X13.27 Y19.707 Z-0.522
X13.294 Y19.722 Z-0.523
X14.355 Y20.783 Z-0.575
X14.369 Y20.806 Z-0.576
X14.373 Y20.834 Z-0.577
X14.363 Y20.86 Z-0.578
X14.344 Y20.88 Z-0.579
X14.318 Y20.889 Z-0.58
X14.29 Y20.886 Z-0.581
X14.266 Y20.871 Z-0.582
X13.206 Y19.811 Z-0.634
X13.191 Y19.787 Z-0.635
X13.188 Y19.759 Z-0.636
X13.197 Y19.733 Z-0.637
X13.217 Y19.714 Z-0.638
X13.243 Y19.704 Z-0.639
X13.27 Y19.707 Z-0.64
X13.294 Y19.722 Z-0.641
X14.355 Y20.783 Z-0.693
X14.369 Y20.806 Z-0.694
X14.373 Y20.834 Z-0.695
X14.363 Y20.86 Z-0.696
X14.344 Y20.88 Z-0.697
X14.318 Y20.889 Z-0.698
X14.29 Y20.886 Z-0.699
X14.266 Y20.871 Z-0.7
X13.206 Y19.811 Z-0.753
X13.191 Y19.787 Z-0.754
X13.188 Y19.759 Z-0.755
X13.197 Y19.733 Z-0.756
X13.217 Y19.714 Z-0.757
X13.243 Y19.704 Z-0.758
X13.27 Y19.707 Z-0.759
X13.294 Y19.722
X14.355 Y20.783 Z-0.812
X14.369 Y20.806 Z-0.813
X14.373 Y20.834 Z-0.814
X14.363 Y20.86 Z-0.815
X14.344 Y20.88 Z-0.816
X14.318 Y20.889 Z-0.817
X14.29 Y20.886 Z-0.818
X14.266 Y20.871 Z-0.819
X13.206 Y19.811 Z-0.871
X13.191 Y19.787 Z-0.872
X13.188 Y19.759 Z-0.873
X13.197 Y19.733 Z-0.874
X13.217 Y19.714 Z-0.875
X13.243 Y19.704 Z-0.876
X13.27 Y19.707 Z-0.877
X13.294 Y19.722 Z-0.878
X14.355 Y20.783 Z-0.93
X14.369 Y20.806 Z-0.931
X14.373 Y20.834 Z-0.932
X14.363 Y20.86 Z-0.933
X14.344 Y20.88 Z-0.934
X14.318 Y20.889 Z-0.935
X14.29 Y20.886 Z-0.936
X14.266 Y20.871 Z-0.937
X13.206 Y19.811 Z-0.99
X13.191 Y19.787 Z-0.991
X13.188 Y19.759 Z-0.992
X13.197 Y19.733 Z-0.993
X13.217 Y19.714
X13.243 Y19.704 Z-0.994
X13.27 Y19.707 Z-0.995
X13.294 Y19.722 Z-0.996
X14.355 Y20.783 Z-1.049
X14.369 Y20.806 Z-1.05
X14.373 Y20.834 Z-1.051
X14.363 Y20.86 Z-1.052
X14.344 Y20.88 Z-1.053
X14.318 Y20.889 Z-1.054
X14.29 Y20.886 Z-1.055
X14.266 Y20.871 Z-1.056
X13.206 Y19.811 Z-1.108
X13.191 Y19.787 Z-1.109
X13.188 Y19.759 Z-1.11
X13.197 Y19.733 Z-1.111
X13.217 Y19.714 Z-1.112
X13.243 Y19.704 Z-1.113
X13.27 Y19.707 Z-1.114
X13.294 Y19.722 Z-1.115
X14.355 Y20.783 Z-1.167
X14.369 Y20.806 Z-1.168
X14.373 Y20.834 Z-1.169
X14.363 Y20.86 Z-1.17
X14.344 Y20.88 Z-1.171
X14.318 Y20.889 Z-1.172
X14.29 Y20.886 Z-1.173
X14.266 Y20.871 Z-1.174
X13.206 Y19.811 Z-1.227
X13.191 Y19.787 Z-1.228
X13.188 Y19.759
X13.197 Y19.733 Z-1.229
X13.217 Y19.714 Z-1.23
X13.243 Y19.704 Z-1.231
X13.27 Y19.707 Z-1.232
X13.294 Y19.722 Z-1.233
X14.355 Y20.783 Z-1.286
X14.369 Y20.806 Z-1.287
X14.373 Y20.834 Z-1.288
X14.363 Y20.86 Z-1.289
X14.344 Y20.88 Z-1.29
X14.318 Y20.889 Z-1.291
X14.29 Y20.886 Z-1.292
X14.266 Y20.871 Z-1.293
X13.206 Y19.811 Z-1.345
X13.191 Y19.787 Z-1.346
X13.188 Y19.759 Z-1.347
X13.197 Y19.733 Z-1.348
X13.217 Y19.714 Z-1.349
X13.243 Y19.704 Z-1.35
X13.27 Y19.707 Z-1.351
X13.294 Y19.722 Z-1.352
X14.355 Y20.783 Z-1.404
X14.369 Y20.806 Z-1.405
X14.373 Y20.834 Z-1.406
X14.363 Y20.86 Z-1.407
X14.344 Y20.88 Z-1.408
X14.318 Y20.889 Z-1.409
X14.29 Y20.886 Z-1.41
X14.266 Y20.871 Z-1.411
X13.206 Y19.811 Z-1.463
X13.191 Y19.787 Z-1.464
X13.188 Y19.759 Z-1.465
X13.197 Y19.733 Z-1.466
X13.217 Y19.714 Z-1.467
X13.243 Y19.704 Z-1.468
X13.27 Y19.707 Z-1.469
X13.294 Y19.722 Z-1.47
X14.355 Y20.783 Z-1.523
X14.369 Y20.806 Z-1.524
X14.373 Y20.834 Z-1.525
X14.363 Y20.86 Z-1.526
X14.344 Y20.88 Z-1.527
X14.318 Y20.889 Z-1.528
X14.29 Y20.886 Z-1.529
X14.266 Y20.871 Z-1.53
X13.206 Y19.811 Z-1.582
X13.191 Y19.787 Z-1.583
X13.188 Y19.759 Z-1.584
X13.197 Y19.733 Z-1.585
X13.217 Y19.714 Z-1.586
X13.243 Y19.704 Z-1.587
X13.27 Y19.707 Z-1.588
X13.294 Y19.722 Z-1.589
X14.355 Y20.783 Z-1.641
X14.369 Y20.806 Z-1.642
X14.373 Y20.834 Z-1.643
X14.363 Y20.86 Z-1.644
X14.344 Y20.88 Z-1.645
X14.318 Y20.889 Z-1.646
X14.29 Y20.886 Z-1.647
X14.266 Y20.871 Z-1.648
X13.206 Y19.811 Z-1.7
X13.191 Y19.787 Z-1.701
X13.188 Y19.759 Z-1.702
X13.197 Y19.733 Z-1.703
X13.217 Y19.714 Z-1.704
X13.243 Y19.704 Z-1.705
X13.27 Y19.707 Z-1.706
X13.294 Y19.722 Z-1.707
X14.355 Y20.783 Z-1.76
X14.369 Y20.806 Z-1.761
X14.373 Y20.834 Z-1.762
X14.363 Y20.86 Z-1.763
X14.344 Y20.88 Z-1.764
X14.318 Y20.889 Z-1.765
X14.29 Y20.886 Z-1.766
X14.266 Y20.871
X13.206 Y19.811 Z-1.819
X13.191 Y19.787 Z-1.82
X13.188 Y19.759 Z-1.821
X13.197 Y19.733 Z-1.822
X13.217 Y19.714 Z-1.823
X13.243 Y19.704 Z-1.824
X13.27 Y19.707 Z-1.825
X13.294 Y19.722 Z-1.826
X14.355 Y20.783 Z-1.878
X14.369 Y20.806 Z-1.879
X14.373 Y20.834 Z-1.88
X14.363 Y20.86 Z-1.881
X14.344 Y20.88 Z-1.882
X14.318 Y20.889 Z-1.883
X14.29 Y20.886 Z-1.884
X14.266 Y20.871 Z-1.885
X13.206 Y19.811 Z-1.937
X13.191 Y19.787 Z-1.938
X13.188 Y19.759 Z-1.939
X13.197 Y19.733 Z-1.94
X13.217 Y19.714 Z-1.941
X13.243 Y19.704 Z-1.942
X13.27 Y19.707 Z-1.943
X13.294 Y19.722 Z-1.944
X14.355 Y20.783 Z-1.997
X14.368 Y20.803
X14.373 Y20.827 Z-1.998
X14.368 Y20.851 Z-1.999
X14.355 Y20.871 Z-2
S6000
X14.334 Y20.885 F1000
X14.31 Y20.89
X14.287 Y20.885
X14.266 Y20.871
X13.206 Y19.811
X13.191 Y19.787
X13.188 Y19.759
X13.197 Y19.733
X13.217 Y19.714
X13.243 Y19.704
X13.27 Y19.707
X13.294 Y19.722
X14.355 Y20.783
X14.368 Y20.803
X14.373 Y20.827
X14.368 Y20.851
X14.355 Y20.871
S5000
X14.334 Y20.885 Z-2.001 F333.3
X14.31 Y20.89 Z-2.002
X14.287 Y20.885 Z-2.003
X14.266 Y20.871
X13.206 Y19.811 Z-2.056
X13.191 Y19.787 Z-2.057
X13.188 Y19.759 Z-2.058
X13.197 Y19.733 Z-2.059
X13.217 Y19.714 Z-2.06
X13.243 Y19.704 Z-2.061
X13.27 Y19.707 Z-2.062
X13.294 Y19.722 Z-2.063
X14.355 Y20.783 Z-2.115
X14.369 Y20.806 Z-2.116
X14.373 Y20.834 Z-2.117
X14.363 Y20.86 Z-2.118
X14.344 Y20.88 Z-2.119
X14.318 Y20.889 Z-2.12
X14.29 Y20.886 Z-2.121
X14.266 Y20.871 Z-2.122
X13.206 Y19.811 Z-2.174
X13.191 Y19.787 Z-2.175
X13.188 Y19.759 Z-2.176
X13.197 Y19.733 Z-2.177
X13.217 Y19.714 Z-2.178
X13.243 Y19.704 Z-2.179
X13.27 Y19.707 Z-2.18
X13.294 Y19.722 Z-2.181
X14.355 Y20.783 Z-2.234
X14.369 Y20.806
X14.373 Y20.834 Z-2.235
X14.363 Y20.86 Z-2.236
X14.344 Y20.88 Z-2.237
X14.318 Y20.889 Z-2.238
X14.29 Y20.886 Z-2.239
X14.266 Y20.871 Z-2.24
X13.206 Y19.811 Z-2.293
X13.191 Y19.787 Z-2.294
X13.188 Y19.759 Z-2.295
X13.197 Y19.733 Z-2.296
X13.217 Y19.714 Z-2.297
X13.243 Y19.704 Z-2.298
X13.27 Y19.707 Z-2.299
X13.294 Y19.722 Z-2.3
X14.355 Y20.783 Z-2.352
X14.369 Y20.806 Z-2.353
X14.373 Y20.834 Z-2.354
X14.363 Y20.86 Z-2.355
X14.344 Y20.88 Z-2.356
X14.318 Y20.889 Z-2.357
X14.29 Y20.886 Z-2.358
X14.266 Y20.871 Z-2.359
X13.206 Y19.811 Z-2.411
X13.191 Y19.787 Z-2.412
X13.188 Y19.759 Z-2.413
X13.197 Y19.733 Z-2.414
X13.217 Y19.714 Z-2.415
X13.243 Y19.704 Z-2.416
X13.27 Y19.707 Z-2.417
X13.294 Y19.722 Z-2.418
X14.355 Y20.783 Z-2.47
X14.369 Y20.806 Z-2.471
X14.373 Y20.834 Z-2.472
X14.363 Y20.86 Z-2.473
X14.344 Y20.88 Z-2.474
X14.318 Y20.889 Z-2.475
X14.29 Y20.886 Z-2.476
X14.266 Y20.871 Z-2.477
X13.206 Y19.811 Z-2.53
X13.191 Y19.787 Z-2.531
X13.188 Y19.759 Z-2.532
X13.197 Y19.733 Z-2.533
X13.217 Y19.714 Z-2.534
X13.243 Y19.704 Z-2.535
X13.27 Y19.707 Z-2.536
X13.294 Y19.722 Z-2.537
X14.355 Y20.783 Z-2.589
X14.369 Y20.806 Z-2.59
X14.373 Y20.834 Z-2.591
X14.363 Y20.86 Z-2.592
X14.344 Y20.88 Z-2.593
X14.318 Y20.889 Z-2.594
X14.29 Y20.886 Z-2.595
X14.266 Y20.871 Z-2.596
X13.206 Y19.811 Z-2.648
X13.191 Y19.787 Z-2.649
X13.188 Y19.759 Z-2.65
X13.197 Y19.733 Z-2.651
X13.217 Y19.714 Z-2.652
X13.243 Y19.704 Z-2.653
X13.27 Y19.707 Z-2.654
X13.294 Y19.722 Z-2.655
X14.355 Y20.783 Z-2.707
X14.369 Y20.806 Z-2.708
X14.373 Y20.834 Z-2.709
X14.363 Y20.86 Z-2.71
X14.344 Y20.88 Z-2.711
X14.318 Y20.889 Z-2.712
X14.29 Y20.886 Z-2.713
X14.266 Y20.871 Z-2.714
X13.206 Y19.811 Z-2.767
X13.191 Y19.787 Z-2.768
X13.188 Y19.759 Z-2.769
X13.197 Y19.733 Z-2.77
X13.217 Y19.714 Z-2.771
X13.243 Y19.704 Z-2.772
X13.27 Y19.707
X13.294 Y19.722 Z-2.773
X14.355 Y20.783 Z-2.826
X14.369 Y20.806 Z-2.827
X14.373 Y20.834 Z-2.828
X14.363 Y20.86 Z-2.829
X14.344 Y20.88 Z-2.83
X14.318 Y20.889 Z-2.831
X14.29 Y20.886 Z-2.832
X14.266 Y20.871 Z-2.833
X13.206 Y19.811 Z-2.885
X13.191 Y19.787 Z-2.886
X13.188 Y19.759 Z-2.887
X13.197 Y19.733 Z-2.888
X13.217 Y19.714 Z-2.889
X13.243 Y19.704 Z-2.89
X13.27 Y19.707 Z-2.891
X13.294 Y19.722 Z-2.892
X14.355 Y20.783 Z-2.944
X14.369 Y20.806 Z-2.945
X14.373 Y20.834 Z-2.946
X14.363 Y20.86 Z-2.947
X14.344 Y20.88 Z-2.948
X14.318 Y20.889 Z-2.949
X14.29 Y20.886 Z-2.95
X14.266 Y20.871 Z-2.951
X13.206 Y19.811 Z-3.004
X13.191 Y19.787 Z-3.005
X13.188 Y19.759 Z-3.006
X13.197 Y19.733 Z-3.007
X13.217 Y19.714
X13.243 Y19.704 Z-3.008
X13.27 Y19.707 Z-3.009
X13.294 Y19.722 Z-3.01
X14.355 Y20.783 Z-3.063
X14.369 Y20.806 Z-3.064
X14.373 Y20.834 Z-3.065
X14.363 Y20.86 Z-3.066
X14.344 Y20.88 Z-3.067
X14.318 Y20.889 Z-3.068
X14.29 Y20.886 Z-3.069
X14.266 Y20.871 Z-3.07
X13.652 Y20.257 Z-3.1
S6000
X13.206 Y19.811 F1000
X13.191 Y19.787
X13.188 Y19.759
X13.197 Y19.733
X13.217 Y19.714
X13.243 Y19.704
X13.27 Y19.707
X13.294 Y19.722
X14.355 Y20.783
X14.369 Y20.806
X14.373 Y20.834
X14.363 Y20.86
X14.344 Y20.88
X14.318 Y20.889
X14.29 Y20.886
X14.266 Y20.871
X13.652 Y20.257
S5000
X13.206 Y19.811 Z-3.122 F333.3
X13.191 Y19.787 Z-3.123
X13.188 Y19.759 Z-3.124
X13.197 Y19.733 Z-3.125
X13.217 Y19.714 Z-3.126
X13.243 Y19.704 Z-3.127
X13.27 Y19.707 Z-3.128
X13.294 Y19.722 Z-3.129
X14.355 Y20.783 Z-3.181
X14.369 Y20.806 Z-3.182
X14.373 Y20.834 Z-3.183
X14.363 Y20.86 Z-3.184
X14.344 Y20.88 Z-3.185
X14.318 Y20.889 Z-3.186
X14.29 Y20.886 Z-3.187
X14.266 Y20.871 Z-3.188
X13.206 Y19.811 Z-3.241
X13.191 Y19.787
X13.188 Y19.759 Z-3.242
X13.197 Y19.733 Z-3.243
X13.217 Y19.714 Z-3.244
X13.243 Y19.704 Z-3.245
X13.27 Y19.707 Z-3.246
X13.294 Y19.722 Z-3.247
X14.355 Y20.783 Z-3.3
X14.369 Y20.806 Z-3.301
X14.373 Y20.834 Z-3.302
X14.363 Y20.86 Z-3.303
X14.344 Y20.88 Z-3.304
X14.318 Y20.889 Z-3.305
X14.29 Y20.886 Z-3.306
X14.266 Y20.871 Z-3.307
X13.206 Y19.811 Z-3.359
X13.191 Y19.787 Z-3.36
X13.188 Y19.759 Z-3.361
X13.197 Y19.733 Z-3.362
X13.217 Y19.714 Z-3.363
X13.243 Y19.704 Z-3.364
X13.27 Y19.707 Z-3.365
X13.294 Y19.722 Z-3.366
X14.355 Y20.783 Z-3.418
X14.369 Y20.806 Z-3.419
X14.373 Y20.834 Z-3.42
X14.363 Y20.86 Z-3.421
X14.344 Y20.88 Z-3.422
X14.318 Y20.889 Z-3.423
X14.29 Y20.886 Z-3.424
X14.266 Y20.871 Z-3.425
X13.206 Y19.811 Z-3.477
X13.191 Y19.787 Z-3.478
X13.188 Y19.759 Z-3.479
X13.197 Y19.733 Z-3.48
X13.217 Y19.714 Z-3.481
X13.243 Y19.704 Z-3.482
X13.27 Y19.707 Z-3.483
X13.294 Y19.722 Z-3.484
X14.355 Y20.783 Z-3.537
X14.369 Y20.806 Z-3.538
X14.373 Y20.834 Z-3.539
X14.363 Y20.86 Z-3.54
X14.344 Y20.88 Z-3.541
X14.318 Y20.889 Z-3.542
X14.29 Y20.886 Z-3.543
X14.266 Y20.871 Z-3.544
X13.206 Y19.811 Z-3.596
X13.191 Y19.787 Z-3.597
X13.188 Y19.759 Z-3.598
X13.197 Y19.733 Z-3.599
X13.217 Y19.714 Z-3.6
X13.243 Y19.704 Z-3.601
X13.27 Y19.707 Z-3.602
X13.294 Y19.722 Z-3.603
X14.355 Y20.783 Z-3.655
X14.369 Y20.806 Z-3.656
X14.373 Y20.834 Z-3.657
X14.363 Y20.86 Z-3.658
X14.344 Y20.88 Z-3.659
X14.318 Y20.889 Z-3.66
X14.29 Y20.886 Z-3.661
X14.266 Y20.871 Z-3.662
X13.206 Y19.811 Z-3.714
X13.191 Y19.787 Z-3.715
X13.188 Y19.759 Z-3.716
X13.197 Y19.733 Z-3.717
X13.217 Y19.714 Z-3.718
X13.243 Y19.704 Z-3.719
X13.27 Y19.707 Z-3.72
X13.294 Y19.722 Z-3.721
X14.355 Y20.783 Z-3.774
X14.369 Y20.806 Z-3.775
X14.373 Y20.834 Z-3.776
X14.363 Y20.86 Z-3.777
X14.344 Y20.88 Z-3.778
X14.318 Y20.889 Z-3.779
X14.29 Y20.886
X14.266 Y20.871 Z-3.78
X13.206 Y19.811 Z-3.833
X13.191 Y19.787 Z-3.834
X13.188 Y19.759 Z-3.835
X13.197 Y19.733 Z-3.836
X13.217 Y19.714 Z-3.837
X13.243 Y19.704 Z-3.838
X13.27 Y19.707 Z-3.839
X13.294 Y19.722 Z-3.84
X14.355 Y20.783 Z-3.892
X14.369 Y20.806 Z-3.893
X14.373 Y20.834 Z-3.894
X14.363 Y20.86 Z-3.895
X14.344 Y20.88 Z-3.896
X14.318 Y20.889 Z-3.897
X14.29 Y20.886 Z-3.898
X14.266 Y20.871 Z-3.899
X13.206 Y19.811 Z-3.951
X13.191 Y19.787 Z-3.952
X13.188 Y19.759 Z-3.953
X13.197 Y19.733 Z-3.954
X13.217 Y19.714 Z-3.955
X13.243 Y19.704 Z-3.956
X13.27 Y19.707 Z-3.957
X13.294 Y19.722 Z-3.958
X14.355 Y20.783 Z-4.011
X14.369 Y20.806 Z-4.012
X14.373 Y20.834 Z-4.013
X14.363 Y20.86
X14.344 Y20.88 Z-4.014
X14.318 Y20.889 Z-4.015
X14.29 Y20.886 Z-4.016
X14.266 Y20.871 Z-4.017
X13.206 Y19.811 Z-4.07
X13.191 Y19.787 Z-4.071
X13.188 Y19.759 Z-4.072
X13.197 Y19.733 Z-4.073
X13.217 Y19.714 Z-4.074
X13.243 Y19.704 Z-4.075
X13.27 Y19.707 Z-4.076
X13.294 Y19.722 Z-4.077
X14.355 Y20.783 Z-4.129
X14.369 Y20.806 Z-4.13
X14.373 Y20.834 Z-4.131
X14.363 Y20.86 Z-4.132
X14.344 Y20.88 Z-4.133
X14.318 Y20.889 Z-4.134
X14.29 Y20.886 Z-4.135
X14.266 Y20.871 Z-4.136
X13.206 Y19.811 Z-4.188
X13.191 Y19.787 Z-4.189
X13.188 Y19.759 Z-4.19
X13.197 Y19.733 Z-4.191
X13.217 Y19.714 Z-4.192
X13.243 Y19.704 Z-4.193
X13.27 Y19.707 Z-4.194
X13.294 Y19.722 Z-4.195
X13.393 Y19.821 Z-4.2
S6000
X14.355 Y20.783 F1000
X14.369 Y20.806
X14.373 Y20.834
X14.363 Y20.86
X14.344 Y20.88
X14.318 Y20.889
X14.29 Y20.886
X14.266 Y20.871
X13.652 Y20.257
X13.206 Y19.811
X13.191 Y19.787
X13.188 Y19.759
X13.197 Y19.733
X13.217 Y19.714
X13.243 Y19.704
X13.27 Y19.707
X13.294 Y19.722
X13.393 Y19.821
X13.396 Y19.825
X13.398 Y19.829 Z-4.199
X13.4 Y19.833 Z-4.197
X13.401 Y19.836 Z-4.194
X13.402 Y19.84 Z-4.191
Y19.843 Z-4.188
Y19.845 Z-4.184
X13.401 Y19.847 Z-4.179
Y19.848 Z-4.175
Y19.849 Z-4.17
Z15
(When using Fusion 360 for Personal Use, the feedrate of)
(rapid moves is reduced to match the feedrate of cutting)
(moves, which can increase machining time. Unrestricted rapid)
(moves are available with a Fusion 360 Subscription.)

(2D-Kontur19)
G0 X38.347 Y53.088
G1 Z15 F1000
Z5
Z3 F333.3
Z1
S5000
X57.318 Z0.338
Y53.412 Z0.326
X35.493 Z-0.436
Y53.088 Z-0.447
X57.318 Z-1.209
Y53.412 Z-1.221
X35.493 Z-1.983
Y53.088 Z-1.994
X35.655 Z-2
S6000
X57.318 F1000
Y53.412
X35.493
Y53.088
X35.655
S5000
X57.318 Z-2.756 F333.3
Y53.412 Z-2.768
X35.493 Z-3.53
Y53.088 Z-3.541
X48.628 Z-4
S6000
X57.318 F1000
Y53.412
X35.493
Y53.088
X48.628
Z15
(When using Fusion 360 for Personal Use, the feedrate of)
(rapid moves is reduced to match the feedrate of cutting)
(moves, which can increase machining time. Unrestricted rapid)
(moves are available with a Fusion 360 Subscription.)

(2D Adaptive30)
G0 X26.237 Y13.71
G1 Z15 F1000
Z5
Z-0.365
Z-0.683
X26.23 Y13.712 Z-0.753
X26.207 Y13.717 Z-0.82
X26.17 Y13.727 Z-0.88
X26.122 Y13.739 Z-0.931
X26.063 Y13.754 Z-0.969
X25.998 Y13.771 Z-0.992
X25.93 Y13.788 Z-1
G3 X24.201 Y14.037 I-2.011 J-7.852
G1 X24.051
X23.981 Y13.944
X23.98 Y13.828
X24.047 Y13.733
X24.158 Y13.697
X24.2 Y13.699
G3 X24.183 Y14.522 I-0.032 J0.411
G1 X23.891
X23.854 Y14.52
X23.739 Y14.405
X23.672 Y14.257
X23.662 Y14.094
X23.71 Y13.939
X23.811 Y13.811
X23.95 Y13.726
X24.11 Y13.697
X24.159 Y13.705
X24.204 Y13.724
X24.244 Y13.753
X24.275 Y13.791
G3 X23.891 Y14.522 I-0.401 J0.256
G1 X23.674
X23.599 Y14.518
X23.466 Y14.448
X23.376 Y14.302
X23.348 Y14.133
X23.385 Y13.965
X23.483 Y13.824
X23.627 Y13.73
X23.795 Y13.697
X23.834 Y13.702
X23.871 Y13.714
X23.905 Y13.733
G3 X23.674 Y14.522 I-0.246 J0.356
G1 X23.383
X23.308 Y14.518
X23.171 Y14.456
X23.074 Y14.312
X23.04 Y14.142
X23.073 Y13.972
X23.17 Y13.828
X23.314 Y13.731
X23.484 Y13.697
X23.533 Y13.705
X23.578 Y13.724
G3 X23.383 Y14.522 I-0.21 J0.372
G1 X23.091
X23.017 Y14.518
X22.877 Y14.462
X22.775 Y14.32
X22.737 Y14.15
X22.767 Y13.977
X22.862 Y13.83
X23.007 Y13.732
X23.178 Y13.697
X23.22 Y13.703
X23.26 Y13.717
G3 X23.091 Y14.522 I-0.183 J0.382
G1 X22.8
X22.651 Y14.515
X22.523 Y14.436
X22.438 Y14.29
X22.414 Y14.123
X22.453 Y13.958
X22.551 Y13.821
X22.693 Y13.729
X22.859 Y13.697
X22.888 Y13.7
X22.917 Y13.707
G3 X22.8 Y14.522 I-0.131 J0.397
G1 X22.48
X22.33 Y14.515
X22.201 Y14.438
X22.116 Y14.291
X22.092 Y14.123
X22.132 Y13.959
X22.231 Y13.821
X22.373 Y13.729
X22.54 Y13.697
X22.569 Y13.7
X22.598 Y13.708
G3 X22.48 Y14.522 I-0.132 J0.397
G1 X22.144
X21.995 Y14.515
X21.869 Y14.433
X21.788 Y14.286
X21.767 Y14.118
X21.809 Y13.955
X21.908 Y13.819
X22.05 Y13.729
X22.215 Y13.697
X22.54
G3 X22.735 Y13.895 I-0.007 J0.203
X22.144 Y14.522 I-0.612 J0.015
G1 X21.853
X21.704 Y14.515
X21.571 Y14.445
X21.481 Y14.299
X21.453 Y14.131
X21.49 Y13.964
X21.588 Y13.823
X21.731 Y13.73
X21.898 Y13.697
X22.215
G3 X22.41 Y13.878 I-0.007 J0.203
X21.853 Y14.522 I-0.577 J0.064
G1 X21.526
X21.376 Y14.515
X21.246 Y14.44
X21.16 Y14.294
X21.134 Y14.126
X21.173 Y13.961
X21.271 Y13.822
X21.413 Y13.729
X21.58 Y13.697
X21.898
G3 X22.094 Y13.883 I-0.007 J0.203
X21.526 Y14.522 I-0.588 J0.049
G1 X21.199
X21.049 Y14.515
X20.921 Y14.437
X20.836 Y14.29
X20.812 Y14.123
X20.852 Y13.958
X20.951 Y13.821
X21.093 Y13.729
X21.259 Y13.697
X21.58
G3 X21.775 Y13.888 I-0.007 J0.203
X21.199 Y14.522 I-0.597 J0.036
G1 X20.878
X20.728 Y14.515
X20.6 Y14.438
X20.515 Y14.291
X20.491 Y14.123
X20.531 Y13.959
X20.63 Y13.821
X20.772 Y13.729
X20.938 Y13.697
X21.259
G3 X21.455 Y13.888 I-0.007 J0.203
X20.878 Y14.522 I-0.598 J0.036
G1 X20.543
X20.468 Y14.518
X20.329 Y14.462
X20.228 Y14.32
X20.19 Y14.149
X20.221 Y13.977
X20.316 Y13.83
X20.46 Y13.732
X20.632 Y13.697
X20.938
G3 X21.134 Y13.895 I-0.007 J0.203
X20.543 Y14.522 I-0.613 J0.015
G1 X20.252
X20.102 Y14.515
X19.975 Y14.436
X19.89 Y14.289
X19.866 Y14.122
X19.906 Y13.958
X20.004 Y13.82
X20.147 Y13.729
X20.312 Y13.697
X20.632
G3 X20.827 Y13.887 I-0.007 J0.203
X20.252 Y14.522 I-0.596 J0.038
G1 X19.93
X19.78 Y14.515
X19.652 Y14.437
X19.568 Y14.29
X19.544 Y14.122
X19.585 Y13.958
X19.683 Y13.82
X19.826 Y13.729
X19.992 Y13.697
X20.312
G3 X20.508 Y13.888 I-0.007 J0.203
X19.93 Y14.522 I-0.599 J0.034
G1 X19.634
X19.484 Y14.515
X19.351 Y14.445
X19.26 Y14.3
X19.231 Y14.132
X19.268 Y13.965
X19.365 Y13.824
X19.508 Y13.73
X19.676 Y13.697
X19.992
G3 X20.186 Y13.876 I-0.007 J0.203
X19.634 Y14.522 I-0.573 J0.069
G1 X19.306
X19.157 Y14.515
X19.026 Y14.44
X18.939 Y14.295
X18.913 Y14.127
X18.951 Y13.961
X19.049 Y13.822
X19.192 Y13.729
X19.358 Y13.697
X19.676
G3 X19.871 Y13.882 I-0.007 J0.203
X19.306 Y14.522 I-0.585 J0.053
G1 X18.986
X18.836 Y14.515
X18.706 Y14.44
X18.619 Y14.294
X18.594 Y14.126
X18.633 Y13.96
X18.731 Y13.822
X18.873 Y13.729
X19.04 Y13.697
X19.358
G3 X19.554 Y13.883 I-0.007 J0.203
X18.986 Y14.522 I-0.589 J0.048
G1 X18.65
X18.501 Y14.515
X18.374 Y14.435
X18.291 Y14.287
X18.269 Y14.12
X18.311 Y13.956
X18.409 Y13.82
X18.552 Y13.729
X18.717 Y13.697
X19.04
G3 X19.236 Y13.892 I-0.007 J0.203
X18.65 Y14.522 I-0.606 J0.024
G1 X18.329
X18.179 Y14.515
X18.051 Y14.436
X17.969 Y14.288
X17.946 Y14.121
X17.987 Y13.957
X18.086 Y13.82
X18.228 Y13.729
X18.394 Y13.697
X18.717
G3 X18.913 Y13.892 I-0.007 J0.203
X18.329 Y14.522 I-0.606 J0.024
G1 X18.032
X17.882 Y14.515
X17.75 Y14.444
X17.66 Y14.299
X17.632 Y14.13
X17.669 Y13.964
X17.767 Y13.823
X17.91 Y13.73
X18.077 Y13.697
X18.394
G3 X18.589 Y13.878 I-0.007 J0.203
X18.032 Y14.522 I-0.577 J0.064
G1 X17.705
X17.555 Y14.515
X17.425 Y14.44
X17.339 Y14.294
X17.313 Y14.126
X17.352 Y13.96
X17.45 Y13.822
X17.592 Y13.729
X17.759 Y13.697
X18.077
G3 X18.273 Y13.883 I-0.007 J0.203
X17.705 Y14.522 I-0.588 J0.049
G1 X17.384
X17.234 Y14.515
X17.105 Y14.439
X17.019 Y14.293
X16.994 Y14.125
X17.033 Y13.96
X17.131 Y13.821
X17.273 Y13.729
X17.44 Y13.697
X17.759
G3 X17.954 Y13.884 I-0.007 J0.203
X17.384 Y14.522 I-0.591 J0.045
G1 X17.049
X16.899 Y14.515
X16.773 Y14.434
X16.691 Y14.287
X16.669 Y14.12
X16.71 Y13.956
X16.809 Y13.819
X16.951 Y13.729
X17.117 Y13.697
X17.44
G3 X17.636 Y13.893 I-0.007 J0.203
X17.049 Y14.522 I-0.608 J0.022
G1 X16.727
X16.577 Y14.515
X16.45 Y14.435
X16.368 Y14.288
X16.345 Y14.12
X16.387 Y13.957
X16.485 Y13.82
X16.628 Y13.729
X16.794 Y13.697
X17.117
G3 X17.313 Y13.892 I-0.007 J0.203
X16.727 Y14.522 I-0.607 J0.023
G1 X16.431
X16.281 Y14.515
X16.149 Y14.444
X16.059 Y14.299
X16.031 Y14.13
X16.069 Y13.964
X16.166 Y13.823
X16.309 Y13.73
X16.476 Y13.697
X16.794
G3 X16.989 Y13.878 I-0.007 J0.203
X16.431 Y14.522 I-0.578 J0.063
G1 X16.104
X15.954 Y14.515
X15.824 Y14.44
X15.737 Y14.293
X15.712 Y14.126
X15.751 Y13.96
X15.849 Y13.822
X15.991 Y13.729
X16.158 Y13.697
X16.476
G3 X16.672 Y13.884 I-0.007 J0.203
X16.104 Y14.522 I-0.589 J0.048
G1 X15.783
X15.633 Y14.515
X15.503 Y14.439
X15.417 Y14.293
X15.392 Y14.125
X15.432 Y13.96
X15.53 Y13.821
X15.672 Y13.729
X15.839 Y13.697
X16.158
G3 X16.353 Y13.885 I-0.007 J0.203
X15.783 Y14.522 I-0.591 J0.045
G1 X15.448
X15.298 Y14.515
X15.171 Y14.434
X15.089 Y14.287
X15.068 Y14.119
X15.109 Y13.956
X15.208 Y13.819
X15.35 Y13.729
X15.516 Y13.697
X15.839
G3 X16.034 Y13.893 I-0.007 J0.203
X15.448 Y14.522 I-0.608 J0.021
G1 X15.157
