(Rippe)
(Bearbeiten)
(  Hersteller: ChinaCnc)
(  model: 3040T)
(  description: Generic 3-axis)
(T5  D=3.175 CR=0 - ZMIN=-4.7 - Schaftfraser)
G90 G94
G17
G21
G28 G91 Z0
G90

(2D-Kontur27)
T5
S6000 M3
G54
G0 X-7.717 Y-51.833
Z15
Z5
G1 Z2 F333.3
Z-0.683
X-7.725 Y-51.831 Z-0.753 F1000
X-7.748 Y-51.827 Z-0.82
X-7.785 Y-51.82 Z-0.88
X-7.835 Y-51.811 Z-0.931
X-7.894 Y-51.8 Z-0.969
X-7.96 Y-51.787 Z-0.992
X-8.029 Y-51.774 Z-1
X-8.341 Y-51.716
G3 X-8.712 Y-51.97 I-0.059 J-0.312
G1 X-8.718 Y-52.001
X-8.796 Y-52.373
X-8.825 Y-52.491
X-8.931 Y-52.857
X-8.969 Y-52.972
X-9.102 Y-53.329
X-9.149 Y-53.44
X-9.309 Y-53.786
X-9.364 Y-53.893
X-9.55 Y-54.225
X-9.613 Y-54.328
X-9.823 Y-54.645
X-9.894 Y-54.743
X-10.128 Y-55.044
X-10.206 Y-55.136
X-10.463 Y-55.418
X-10.548 Y-55.505
X-10.826 Y-55.766
X-10.917 Y-55.846
X-11.214 Y-56.086
X-11.311 Y-56.158
X-11.625 Y-56.375
X-11.728 Y-56.44
X-12.057 Y-56.631
X-12.164 Y-56.688
X-12.508 Y-56.854
X-12.57 Y-56.883
X-14.846 Y-57.865
X-14.86 Y-57.871
X-17.146 Y-58.832
X-17.16 Y-58.838
X-19.455 Y-59.777
X-19.469 Y-59.783
X-21.772 Y-60.7
X-21.787 Y-60.706
X-24.285 Y-61.673
X-24.299 Y-61.678
X-26.591 Y-62.54
X-26.605 Y-62.545
X-28.904 Y-63.387
X-28.918 Y-63.391
X-31.225 Y-64.212
X-31.239 Y-64.217
X-33.554 Y-65.017
X-33.567 Y-65.022
X-35.889 Y-65.802
X-35.902 Y-65.806
X-38.232 Y-66.566
X-38.245 Y-66.57
X-40.582 Y-67.31
X-40.595 Y-67.314
X-42.938 Y-68.033
X-42.951 Y-68.037
X-45.301 Y-68.737
X-45.314 Y-68.741
X-47.67 Y-69.42
X-47.683 Y-69.424
X-50.045 Y-70.084
X-50.058 Y-70.087
X-52.426 Y-70.728
X-52.439 Y-70.731
X-54.813 Y-71.351
X-54.826 Y-71.355
X-57.205 Y-71.956
X-57.218 Y-71.959
X-59.603 Y-72.541
X-59.616 Y-72.544
X-62.006 Y-73.106
G2 X-63.957 Y-71.561 I-0.364 J1.545
G1 Y-70.471
X-68.369
G2 X-69.957 Y-68.884 I0 J1.588
G1 Y-52.283
G2 X-68.369 Y-50.695 I1.588 J0
G1 X-33.711
X-32.831 Y-50.299
G2 X-32.276 Y-50.162 I0.652 J-1.447
G1 X-21.883 Y-49.526
X-21.932 Y-48.715
G2 X-20.445 Y-47.034 I1.585 J0.097
G1 X-10.463 Y-46.423
G2 X-8.782 Y-47.911 I0.097 J-1.585
G1 X-8.627 Y-50.442
X-8.625 Y-50.502
X-8.616 Y-50.883
X-8.618 Y-51.005
X-8.638 Y-51.385
X-8.649 Y-51.505
X-8.698 Y-51.882
X-8.712 Y-51.97
G3 X-8.458 Y-52.34 I0.312 J-0.059
G1 X-8.146 Y-52.399
X-8.077 Y-52.412 Z-0.992
X-8.011 Y-52.424 Z-0.969
X-7.952 Y-52.435 Z-0.931
X-7.902 Y-52.444 Z-0.88
X-7.865 Y-52.451 Z-0.82
X-7.842 Y-52.456 Z-0.753
X-7.834 Y-52.457 Z-0.683
G0 Z5
X-7.717 Y-51.833
G1 Z1 F333.3
Z-1.683
X-7.725 Y-51.831 Z-1.753 F1000
X-7.748 Y-51.827 Z-1.82
X-7.785 Y-51.82 Z-1.88
X-7.835 Y-51.811 Z-1.931
X-7.894 Y-51.8 Z-1.969
X-7.96 Y-51.787 Z-1.992
X-8.029 Y-51.774 Z-2
X-8.341 Y-51.716
G3 X-8.712 Y-51.97 I-0.059 J-0.312
G1 X-8.718 Y-52.001
X-8.796 Y-52.373
X-8.825 Y-52.491
X-8.931 Y-52.857
X-8.969 Y-52.972
X-9.102 Y-53.329
X-9.149 Y-53.44
X-9.309 Y-53.786
X-9.364 Y-53.893
X-9.55 Y-54.225
X-9.613 Y-54.328
X-9.823 Y-54.645
X-9.894 Y-54.743
X-10.128 Y-55.044
X-10.206 Y-55.136
X-10.463 Y-55.418
X-10.548 Y-55.505
X-10.826 Y-55.766
X-10.917 Y-55.846
X-11.214 Y-56.086
X-11.311 Y-56.158
X-11.625 Y-56.375
X-11.728 Y-56.44
X-12.057 Y-56.631
X-12.164 Y-56.688
X-12.508 Y-56.854
X-12.57 Y-56.883
X-14.846 Y-57.865
X-14.86 Y-57.871
X-17.146 Y-58.832
X-17.16 Y-58.838
X-19.455 Y-59.777
X-19.469 Y-59.783
X-21.772 Y-60.7
X-21.787 Y-60.706
X-24.285 Y-61.673
X-24.299 Y-61.678
X-26.591 Y-62.54
X-26.605 Y-62.545
X-28.904 Y-63.387
X-28.918 Y-63.391
X-31.225 Y-64.212
X-31.239 Y-64.217
X-33.554 Y-65.017
X-33.567 Y-65.022
X-35.889 Y-65.802
X-35.902 Y-65.806
X-38.232 Y-66.566
X-38.245 Y-66.57
X-40.582 Y-67.31
X-40.595 Y-67.314
X-42.938 Y-68.033
X-42.951 Y-68.037
X-45.301 Y-68.737
X-45.314 Y-68.741
X-47.67 Y-69.42
X-47.683 Y-69.424
X-50.045 Y-70.084
X-50.058 Y-70.087
X-52.426 Y-70.728
X-52.439 Y-70.731
X-54.813 Y-71.351
X-54.826 Y-71.355
X-57.205 Y-71.956
X-57.218 Y-71.959
X-59.603 Y-72.541
X-59.616 Y-72.544
X-62.006 Y-73.106
G2 X-63.957 Y-71.561 I-0.364 J1.545
G1 Y-70.471
X-68.369
G2 X-69.957 Y-68.884 I0 J1.588
G1 Y-52.283
G2 X-68.369 Y-50.695 I1.588 J0
G1 X-33.711
X-32.831 Y-50.299
G2 X-32.276 Y-50.162 I0.652 J-1.447
G1 X-21.883 Y-49.526
X-21.932 Y-48.715
G2 X-20.445 Y-47.034 I1.585 J0.097
G1 X-10.463 Y-46.423
G2 X-8.782 Y-47.911 I0.097 J-1.585
G1 X-8.627 Y-50.442
X-8.625 Y-50.502
X-8.616 Y-50.883
X-8.618 Y-51.005
X-8.638 Y-51.385
X-8.649 Y-51.505
X-8.698 Y-51.882
X-8.712 Y-51.97
G3 X-8.458 Y-52.34 I0.312 J-0.059
G1 X-8.146 Y-52.399
X-8.077 Y-52.412 Z-1.992
X-8.011 Y-52.424 Z-1.969
X-7.952 Y-52.435 Z-1.931
X-7.902 Y-52.444 Z-1.88
X-7.865 Y-52.451 Z-1.82
X-7.842 Y-52.456 Z-1.753
X-7.834 Y-52.457 Z-1.683
G0 Z5
X-7.717 Y-51.833
G1 Z0 F333.3
Z-2.683
X-7.725 Y-51.831 Z-2.753 F1000
X-7.748 Y-51.827 Z-2.82
X-7.785 Y-51.82 Z-2.88
X-7.835 Y-51.811 Z-2.931
X-7.894 Y-51.8 Z-2.969
X-7.96 Y-51.787 Z-2.992
X-8.029 Y-51.774 Z-3
X-8.341 Y-51.716
G3 X-8.712 Y-51.97 I-0.059 J-0.312
G1 X-8.718 Y-52.001
X-8.796 Y-52.373
X-8.825 Y-52.491
X-8.931 Y-52.857
X-8.969 Y-52.972
X-9.102 Y-53.329
X-9.149 Y-53.44
X-9.309 Y-53.786
X-9.364 Y-53.893
X-9.55 Y-54.225
X-9.613 Y-54.328
X-9.823 Y-54.645
X-9.894 Y-54.743
X-10.128 Y-55.044
X-10.206 Y-55.136
X-10.463 Y-55.418
X-10.548 Y-55.505
X-10.826 Y-55.766
X-10.917 Y-55.846
X-11.214 Y-56.086
X-11.311 Y-56.158
X-11.625 Y-56.375
X-11.728 Y-56.44
X-12.057 Y-56.631
X-12.164 Y-56.688
X-12.508 Y-56.854
X-12.57 Y-56.883
X-14.846 Y-57.865
X-14.86 Y-57.871
X-17.146 Y-58.832
X-17.16 Y-58.838
X-19.455 Y-59.777
X-19.469 Y-59.783
X-21.772 Y-60.7
X-21.787 Y-60.706
X-24.285 Y-61.673
X-24.299 Y-61.678
X-26.591 Y-62.54
X-26.605 Y-62.545
X-28.904 Y-63.387
X-28.918 Y-63.391
X-31.225 Y-64.212
X-31.239 Y-64.217
X-33.554 Y-65.017
X-33.567 Y-65.022
X-35.889 Y-65.802
X-35.902 Y-65.806
X-38.232 Y-66.566
X-38.245 Y-66.57
X-40.582 Y-67.31
X-40.595 Y-67.314
X-42.938 Y-68.033
X-42.951 Y-68.037
X-45.301 Y-68.737
X-45.314 Y-68.741
X-47.67 Y-69.42
X-47.683 Y-69.424
X-50.045 Y-70.084
X-50.058 Y-70.087
X-52.426 Y-70.728
X-52.439 Y-70.731
X-54.813 Y-71.351
X-54.826 Y-71.355
X-57.205 Y-71.956
X-57.218 Y-71.959
X-59.603 Y-72.541
X-59.616 Y-72.544
X-62.006 Y-73.106
G2 X-63.957 Y-71.561 I-0.364 J1.545
G1 Y-70.471
X-68.369
G2 X-69.957 Y-68.884 I0 J1.588
G1 Y-52.283
G2 X-68.369 Y-50.695 I1.588 J0
G1 X-33.711
X-32.831 Y-50.299
G2 X-32.276 Y-50.162 I0.652 J-1.447
G1 X-21.883 Y-49.526
X-21.932 Y-48.715
G2 X-20.445 Y-47.034 I1.585 J0.097
G1 X-10.463 Y-46.423
G2 X-8.782 Y-47.911 I0.097 J-1.585
G1 X-8.627 Y-50.442
X-8.625 Y-50.502
X-8.616 Y-50.883
X-8.618 Y-51.005
X-8.638 Y-51.385
X-8.649 Y-51.505
X-8.698 Y-51.882
X-8.712 Y-51.97
G3 X-8.458 Y-52.34 I0.312 J-0.059
G1 X-8.146 Y-52.399
X-8.077 Y-52.412 Z-2.992
X-8.011 Y-52.424 Z-2.969
X-7.952 Y-52.435 Z-2.931
X-7.902 Y-52.444 Z-2.88
X-7.865 Y-52.451 Z-2.82
X-7.842 Y-52.456 Z-2.753
X-7.834 Y-52.457 Z-2.683
G0 Z5
X-7.717 Y-51.833
G1 Z-1 F333.3
Z-3.683
X-7.725 Y-51.831 Z-3.753 F1000
X-7.748 Y-51.827 Z-3.82
X-7.785 Y-51.82 Z-3.88
X-7.835 Y-51.811 Z-3.931
X-7.894 Y-51.8 Z-3.969
X-7.96 Y-51.787 Z-3.992
X-8.029 Y-51.774 Z-4
X-8.341 Y-51.716
G3 X-8.712 Y-51.97 I-0.059 J-0.312
G1 X-8.718 Y-52.001
X-8.796 Y-52.373
X-8.825 Y-52.491
X-8.931 Y-52.857
X-8.969 Y-52.972
X-9.102 Y-53.329
X-9.149 Y-53.44
X-9.309 Y-53.786
X-9.364 Y-53.893
X-9.55 Y-54.225
X-9.613 Y-54.328
X-9.823 Y-54.645
X-9.894 Y-54.743
X-10.128 Y-55.044
X-10.206 Y-55.136
X-10.463 Y-55.418
X-10.548 Y-55.505
X-10.826 Y-55.766
X-10.917 Y-55.846
X-11.214 Y-56.086
X-11.311 Y-56.158
X-11.625 Y-56.375
X-11.728 Y-56.44
X-12.057 Y-56.631
X-12.164 Y-56.688
X-12.508 Y-56.854
X-12.57 Y-56.883
X-14.846 Y-57.865
X-14.86 Y-57.871
X-17.146 Y-58.832
X-17.16 Y-58.838
X-19.455 Y-59.777
X-19.469 Y-59.783
X-21.772 Y-60.7
X-21.787 Y-60.706
X-24.285 Y-61.673
X-24.299 Y-61.678
X-26.591 Y-62.54
X-26.605 Y-62.545
X-28.904 Y-63.387
X-28.918 Y-63.391
X-31.225 Y-64.212
X-31.239 Y-64.217
X-33.554 Y-65.017
X-33.567 Y-65.022
X-35.889 Y-65.802
X-35.902 Y-65.806
X-38.232 Y-66.566
X-38.245 Y-66.57
X-39.041 Y-66.822
Z-3.7
X-40.582 Y-67.31
X-40.595 Y-67.314
X-42.938 Y-68.033
X-42.951 Y-68.037
X-45.301 Y-68.737
X-45.314 Y-68.741
X-46.866 Y-69.188
Z-4 F333.3
X-47.67 Y-69.42 F1000
X-47.683 Y-69.424
X-50.045 Y-70.084
X-50.058 Y-70.087
X-52.426 Y-70.728
X-52.439 Y-70.731
X-54.813 Y-71.351
X-54.826 Y-71.355
X-57.205 Y-71.956
X-57.218 Y-71.959
X-59.603 Y-72.541
X-59.616 Y-72.544
X-62.006 Y-73.106
G2 X-63.957 Y-71.561 I-0.364 J1.545
G1 Y-70.471
X-68.369
G2 X-69.957 Y-68.884 I0 J1.588
G1 Y-52.283
G2 X-68.369 Y-50.695 I1.588 J0
G1 X-54.957
Z-3.7
X-46.782
Z-4 F333.3
X-33.711 F1000
X-32.831 Y-50.299
G2 X-32.276 Y-50.162 I0.652 J-1.447
G1 X-21.883 Y-49.526
X-21.932 Y-48.715
G2 X-20.445 Y-47.034 I1.585 J0.097
G1 X-10.463 Y-46.423
G2 X-8.782 Y-47.911 I0.097 J-1.585
G1 X-8.627 Y-50.442
X-8.625 Y-50.502
X-8.616 Y-50.883
X-8.618 Y-51.005
X-8.638 Y-51.385
X-8.649 Y-51.505
X-8.698 Y-51.882
X-8.712 Y-51.97
G3 X-8.458 Y-52.34 I0.312 J-0.059
G1 X-8.146 Y-52.399
X-8.077 Y-52.412 Z-3.992
X-8.011 Y-52.424 Z-3.969
X-7.952 Y-52.435 Z-3.931
X-7.902 Y-52.444 Z-3.88
X-7.865 Y-52.451 Z-3.82
X-7.842 Y-52.456 Z-3.753
X-7.834 Y-52.457 Z-3.683
G0 Z5
X-7.717 Y-51.833
G1 Z-2 F333.3
Z-4.383
X-7.725 Y-51.831 Z-4.453 F1000
X-7.748 Y-51.827 Z-4.52
X-7.785 Y-51.82 Z-4.58
X-7.835 Y-51.811 Z-4.631
X-7.894 Y-51.8 Z-4.669
X-7.96 Y-51.787 Z-4.692
X-8.029 Y-51.774 Z-4.7
X-8.341 Y-51.716
G3 X-8.712 Y-51.97 I-0.059 J-0.312
G1 X-8.718 Y-52.001
X-8.796 Y-52.373
X-8.825 Y-52.491
X-8.931 Y-52.857
X-8.969 Y-52.972
X-9.102 Y-53.329
X-9.149 Y-53.44
X-9.309 Y-53.786
X-9.364 Y-53.893
X-9.55 Y-54.225
X-9.613 Y-54.328
X-9.823 Y-54.645
X-9.894 Y-54.743
X-10.128 Y-55.044
X-10.206 Y-55.136
X-10.463 Y-55.418
X-10.548 Y-55.505
X-10.826 Y-55.766
X-10.917 Y-55.846
X-11.214 Y-56.086
X-11.311 Y-56.158
X-11.625 Y-56.375
X-11.728 Y-56.44
X-12.057 Y-56.631
X-12.164 Y-56.688
X-12.508 Y-56.854
X-12.57 Y-56.883
X-14.846 Y-57.865
X-14.86 Y-57.871
X-17.146 Y-58.832
X-17.16 Y-58.838
X-19.455 Y-59.777
X-19.469 Y-59.783
X-21.772 Y-60.7
X-21.787 Y-60.706
X-24.285 Y-61.673
X-24.299 Y-61.678
X-26.591 Y-62.54
X-26.605 Y-62.545
X-28.904 Y-63.387
X-28.918 Y-63.391
X-31.225 Y-64.212
X-31.239 Y-64.217
X-33.554 Y-65.017
X-33.567 Y-65.022
X-35.889 Y-65.802
X-35.902 Y-65.806
X-38.232 Y-66.566
X-38.245 Y-66.57
X-39.041 Y-66.822
Z-3.7
X-40.582 Y-67.31
X-40.595 Y-67.314
X-42.938 Y-68.033
X-42.951 Y-68.037
X-45.301 Y-68.737
X-45.314 Y-68.741
X-46.866 Y-69.188
Z-4.7 F333.3
X-47.67 Y-69.42 F1000
X-47.683 Y-69.424
X-50.045 Y-70.084
X-50.058 Y-70.087
X-52.426 Y-70.728
X-52.439 Y-70.731
X-54.813 Y-71.351
X-54.826 Y-71.355
X-57.205 Y-71.956
X-57.218 Y-71.959
X-59.603 Y-72.541
X-59.616 Y-72.544
X-62.006 Y-73.106
G2 X-63.957 Y-71.561 I-0.364 J1.545
G1 Y-70.471
X-68.369
G2 X-69.957 Y-68.884 I0 J1.588
G1 Y-52.283
G2 X-68.369 Y-50.695 I1.588 J0
G1 X-54.957
Z-3.7
X-46.782
Z-4.7 F333.3
X-33.711 F1000
X-32.831 Y-50.299
G2 X-32.276 Y-50.162 I0.652 J-1.447
G1 X-21.883 Y-49.526
X-21.932 Y-48.715
G2 X-20.445 Y-47.034 I1.585 J0.097
G1 X-10.463 Y-46.423
G2 X-8.782 Y-47.911 I0.097 J-1.585
G1 X-8.627 Y-50.442
X-8.625 Y-50.502
X-8.616 Y-50.883
X-8.618 Y-51.005
X-8.638 Y-51.385
X-8.649 Y-51.505
X-8.698 Y-51.882
X-8.712 Y-51.97
G3 X-8.458 Y-52.34 I0.312 J-0.059
G1 X-8.146 Y-52.399
X-8.077 Y-52.412 Z-4.692
X-8.011 Y-52.424 Z-4.669
X-7.952 Y-52.435 Z-4.631
X-7.902 Y-52.444 Z-4.58
X-7.865 Y-52.451 Z-4.52
X-7.842 Y-52.456 Z-4.453
X-7.834 Y-52.457 Z-4.383
G0 Z15

(Bohrfrasen11)
X-193.216 Y-23.377
Z15
Z1.5
G1 Z-0.183 F1000
G18 G3 X-193.533 Z-0.5 I-0.317 K0
G1 X-193.692
G17 G3 X-194.009 Y-23.694 I0 J-0.318
X-187.184 Y-23.694 Z-0.9 I3.413 J0
X-194.009 Y-23.694 Z-1.3 I-3.413 J0
X-187.184 Y-23.694 Z-1.7 I3.413 J0
X-194.009 Y-23.694 Z-2.1 I-3.413 J0
X-187.184 Y-23.694 Z-2.5 I3.413 J0
X-194.009 Y-23.694 Z-2.9 I-3.413 J0
X-187.184 Y-23.694 Z-3.3 I3.413 J0
X-194.009 Y-23.694 Z-3.7 I-3.413 J0
X-187.184 Y-23.694 Z-4.1 I3.413 J0
X-194.009 Y-23.694 Z-4.5 I-3.412 J0
X-190.597 Y-27.107 Z-4.7 I3.412 J0
X-190.597 Y-20.282 I0 J3.412
X-190.597 Y-27.107 I0 J-3.412
X-190.279 Y-26.789 I0 J0.317
G1 Y-26.631
G19 G3 Y-26.313 Z-4.383 J0 K0.317
G0 Z5
X-257.16 Y-23.447
Z1.5
G1 Z-0.183 F1000
G18 G3 X-257.477 Z-0.5 I-0.318 K0
G1 X-257.636
G17 G3 X-257.953 Y-23.764 I0 J-0.317
X-251.128 Y-23.764 Z-0.9 I3.412 J0
X-257.953 Y-23.764 Z-1.3 I-3.412 J0
X-251.128 Y-23.764 Z-1.7 I3.412 J0
X-257.953 Y-23.764 Z-2.1 I-3.412 J0
X-251.128 Y-23.764 Z-2.5 I3.412 J0
X-257.953 Y-23.764 Z-2.9 I-3.412 J0
X-251.128 Y-23.764 Z-3.3 I3.412 J0
X-257.953 Y-23.764 Z-3.7 I-3.412 J0
X-251.128 Y-23.764 Z-4.1 I3.412 J0
X-257.953 Y-23.764 Z-4.5 I-3.412 J0
X-254.541 Y-27.177 Z-4.7 I3.412 J0
X-254.541 Y-20.352 I0 J3.413
X-254.541 Y-27.177 I0 J-3.413
X-254.223 Y-26.859 I0 J0.317
G1 Y-26.7
G19 G3 Y-26.383 Z-4.383 J0 K0.317
G0 Z15
G17

(2D-Kontur28)
G0 X-281.358 Y-8.416
Z15
Z5
G1 Z2.5 F333.3
S5000
X-280.004 Y-8.413 Z2.453
X-280
X-181.131 Z-1
S6000
X-75 F1000
X-74.995
X-73.55 Y-8.417
X-73.541
X-72.115 Y-8.43
X-72.105
X-70.699 Y-8.451
X-70.689
X-69.302 Y-8.482
X-69.292
X-67.924 Y-8.521
X-67.913
X-66.564 Y-8.569
X-66.553
X-65.223 Y-8.626
X-65.211
X-63.898 Y-8.691
X-63.886 Y-8.692
X-62.591 Y-8.767
X-62.579
X-61.302 Y-8.851
X-61.289
X-60.029 Y-8.944
X-60.016 Y-8.945
X-58.772 Y-9.046
X-58.759 Y-9.047
X-57.532 Y-9.158
X-57.518 Y-9.159
X-56.307 Y-9.279
X-56.293 Y-9.281
X-55.099 Y-9.41
X-55.084 Y-9.412
X-53.905 Y-9.55
X-53.89 Y-9.552
X-52.726 Y-9.7
X-52.711 Y-9.702
X-51.562 Y-9.859
X-51.546 Y-9.861
X-50.412 Y-10.028
X-50.396 Y-10.031
X-49.276 Y-10.207
X-49.26 Y-10.209
X-48.154 Y-10.395
X-48.138 Y-10.398
X-47.046 Y-10.594
X-47.029 Y-10.597
X-45.95 Y-10.802
X-45.933 Y-10.806
X-44.868 Y-11.021
X-44.85 Y-11.024
X-43.798 Y-11.249
X-43.78 Y-11.253
X-42.74 Y-11.488
X-42.722 Y-11.492
X-41.695 Y-11.737
X-41.676 Y-11.741
X-40.661 Y-11.996
X-40.642 Y-12.001
X-39.638 Y-12.266
X-39.619 Y-12.271
X-38.627 Y-12.545
X-38.607 Y-12.551
X-37.626 Y-12.836
X-37.607 Y-12.842
X-36.636 Y-13.137
X-36.617 Y-13.143
X-35.656 Y-13.448
X-35.637 Y-13.454
X-34.687 Y-13.77
X-34.667 Y-13.777
X-33.728 Y-14.102
X-33.708 Y-14.109
X-32.785 Y-14.443
X-32.765 Y-14.451
X-31.856 Y-14.793
X-31.837 Y-14.8
X-30.943 Y-15.151
X-30.923 Y-15.158
X-30.044 Y-15.516
X-30.025 Y-15.524
X-29.16 Y-15.889
X-29.142 Y-15.897
X-28.291 Y-16.268
X-28.273 Y-16.276
X-27.437 Y-16.654
X-27.419 Y-16.662
X-26.598 Y-17.046
X-26.58 Y-17.054
X-25.774 Y-17.443
X-25.756 Y-17.452
X-24.964 Y-17.846
X-24.947 Y-17.854
X-24.169 Y-18.253
X-24.152 Y-18.262
X-23.388 Y-18.665
X-23.371 Y-18.674
X-22.622 Y-19.081
X-22.606 Y-19.09
X-21.871 Y-19.501
X-21.855 Y-19.51
X-21.134 Y-19.923
X-21.118 Y-19.933
X-20.411 Y-20.349
X-20.396 Y-20.358
X-19.703 Y-20.777
X-19.688 Y-20.786
X-19.009 Y-21.207
X-18.994 Y-21.216
X-18.33 Y-21.638
X-18.315 Y-21.648
X-17.665 Y-22.071
X-17.65 Y-22.08
X-17.014 Y-22.505
X-17 Y-22.514
X-16.377 Y-22.938
X-16.363 Y-22.948
X-15.754 Y-23.372
X-15.741 Y-23.382
X-15.145 Y-23.806
X-15.132 Y-23.815
X-14.55 Y-24.238
X-14.538 Y-24.248
X-13.97 Y-24.67
X-13.957 Y-24.679
X-13.403 Y-25.1
X-13.391 Y-25.109
X-12.85 Y-25.527
X-12.838 Y-25.537
X-12.31 Y-25.953
X-12.272 Y-25.984
X-12.072 Y-26.152
X-12.01 Y-26.207
X-11.819 Y-26.385
X-11.76 Y-26.444
X-11.579 Y-26.631
X-11.522 Y-26.693
X-11.351 Y-26.89
X-11.299 Y-26.953
X-11.139 Y-27.159
X-11.089 Y-27.226
X-10.939 Y-27.44
X-10.894 Y-27.509
X-10.755 Y-27.73
X-10.713 Y-27.802
X-10.586 Y-28.031
X-10.547 Y-28.105
X-10.433 Y-28.341
X-10.398 Y-28.416
X-10.296 Y-28.657
X-10.266 Y-28.734
X-10.176 Y-28.98
X-10.15 Y-29.059
X-10.073 Y-29.309
X-10.051 Y-29.39
X-9.988 Y-29.644
X-9.97 Y-29.725
X-9.92 Y-29.982
X-9.906 Y-30.063
X-9.87 Y-30.322
X-9.86 Y-30.405
X-9.837 Y-30.666
X-9.834 Y-30.707
X-9.679 Y-33.238
G2 X-11.167 Y-34.92 I-1.585 J-0.097
G1 X-21.148 Y-35.53
G2 X-22.83 Y-34.043 I-0.097 J1.585
G1 X-22.879 Y-33.232
X-33.272 Y-33.867
X-33.369 Y-33.87
X-67.959
G2 X-70.95 Y-34.588 I-2.989 J5.871
G1 X-200
G2 X-201.587 Y-33 I0 J1.588
G1 Y-25.587
X-218.413
Y-33
G2 X-220 Y-34.588 I-1.587 J0
G1 X-288.413
Y-55.996
X-215.539 Y-67.64
G3 X-211.587 Y-64.271 I0.539 J3.37
G1 Y-54
G2 X-204 Y-46.412 I7.587 J0
G1 X-200
G2 X-198.413 Y-48 I0 J-1.588
G1 Y-71.781
G2 X-200 Y-73.368 I-1.587 J0
G1 X-203.84
Y-76.64
G2 X-205.602 Y-78.218 I-1.587 J0
G1 X-209.042 Y-77.839
X-209.049 Y-77.838
X-212.486 Y-77.444
X-212.493 Y-77.443
X-215.926 Y-77.033
X-215.933 Y-77.032
X-219.359 Y-76.608
X-219.366 Y-76.607
X-222.787 Y-76.168
X-222.793 Y-76.167
X-226.207 Y-75.716
X-226.214 Y-75.715
X-229.619 Y-75.25
X-229.625 Y-75.249
X-233.022 Y-74.771
X-233.028
X-236.415 Y-74.281
X-236.421 Y-74.28
X-239.798 Y-73.78
X-239.804 Y-73.779
X-243.17 Y-73.267
X-243.175 Y-73.266
X-246.529 Y-72.744
X-246.535 Y-72.743
X-249.878 Y-72.21
X-249.883
X-253.229 Y-71.665
X-253.234 Y-71.664
X-256.586 Y-71.107
X-256.591 Y-71.106
X-259.947 Y-70.537
X-259.952 Y-70.536
X-263.313 Y-69.955
X-263.318 Y-69.954
X-266.682 Y-69.362
X-266.687 Y-69.361
X-270.055 Y-68.757
X-270.06 Y-68.756
X-273.43 Y-68.141
X-273.435 Y-68.14
X-276.807 Y-67.514
X-276.811 Y-67.513
X-280.185 Y-66.877
X-280.19 Y-66.876
X-283.565 Y-66.229
X-283.569 Y-66.228
X-286.945 Y-65.571
X-286.952 Y-65.57
X-293.703 Y-64.227
X-293.711 Y-64.225
X-300.457 Y-62.845
X-300.465 Y-62.843
X-307.203 Y-61.428
X-307.211 Y-61.426
X-313.937 Y-59.978
X-313.942 Y-59.977
X-315.339 Y-59.671
X-315.343 Y-59.67
X-321.346 Y-58.341
X-321.353 Y-58.34
X-327.35 Y-56.985
X-327.356 Y-56.984
X-332.738 Y-55.746
X-332.744 Y-55.744
X-338.108 Y-54.49
X-338.113 Y-54.488
X-343.455 Y-53.218
X-343.461 Y-53.217
X-348.555 Y-51.986
X-349.323 Y-52.026
G2 X-350.991 Y-50.524 I-0.083 J1.585
G1 X-352.584 Y-20.135
G2 X-351.082 Y-18.467 I1.585 J0.083
G1 X-350.271 Y-18.425
X-349.634 Y-18.235
X-349.629 Y-18.234
X-348.794 Y-17.988
X-348.789 Y-17.987
X-347.936 Y-17.74
X-347.93 Y-17.738
X-347.06 Y-17.489
X-347.055 Y-17.488
X-346.168 Y-17.238
X-346.162 Y-17.236
X-345.259 Y-16.985
X-345.254 Y-16.984
X-344.336 Y-16.732
X-344.33 Y-16.73
X-343.396 Y-16.478
X-343.39 Y-16.476
X-342.44 Y-16.223
X-342.435 Y-16.222
X-341.472 Y-15.969
X-341.466 Y-15.968
X-340.488 Y-15.716
X-340.481 Y-15.714
X-339.489 Y-15.462
X-339.483 Y-15.461
X-338.477 Y-15.21
X-338.471 Y-15.208
X-337.453 Y-14.958
X-337.447 Y-14.957
X-336.415 Y-14.708
X-336.409 Y-14.707
X-335.366 Y-14.46
G2 X-333.428 Y-15.782 I0.366 J-1.545
G1 X-332.245 Y-24.11
X-295.786 Y-18.928
X-296.97 Y-10.599
G2 X-295.474 Y-8.79 I1.572 J0.223
G1 X-293.626 Y-8.701
X-293.615 Y-8.7
X-291.748 Y-8.623
X-291.737
X-289.849 Y-8.558
X-289.839
X-287.929 Y-8.506
X-287.918 Y-8.505
X-285.985 Y-8.465
X-285.975 Y-8.464
X-284.018 Y-8.436
X-284.009 Y-8.435
X-282.025 Y-8.418
X-282.016
X-280.004 Y-8.413
X-280
X-181.131
S5000
X-117.648 Z-2 F333.3
S6000
X-75 F1000
X-74.995
X-73.55 Y-8.417
X-73.541
X-72.115 Y-8.43
X-72.105
X-70.699 Y-8.451
X-70.689
X-69.302 Y-8.482
X-69.292
X-67.924 Y-8.521
X-67.913
X-66.564 Y-8.569
X-66.553
X-65.223 Y-8.626
X-65.211
X-63.898 Y-8.691
X-63.886 Y-8.692
X-62.591 Y-8.767
X-62.579
X-61.302 Y-8.851
X-61.289
X-60.029 Y-8.944
X-60.016 Y-8.945
X-58.772 Y-9.046
X-58.759 Y-9.047
X-57.532 Y-9.158
X-57.518 Y-9.159
X-56.307 Y-9.279
X-56.293 Y-9.281
X-55.099 Y-9.41
X-55.084 Y-9.412
X-53.905 Y-9.55
X-53.89 Y-9.552
X-52.726 Y-9.7
X-52.711 Y-9.702
X-51.562 Y-9.859
X-51.546 Y-9.861
X-50.412 Y-10.028
X-50.396 Y-10.031
X-49.276 Y-10.207
X-49.26 Y-10.209
X-48.154 Y-10.395
X-48.138 Y-10.398
X-47.046 Y-10.594
X-47.029 Y-10.597
X-45.95 Y-10.802
X-45.933 Y-10.806
X-44.868 Y-11.021
X-44.85 Y-11.024
X-43.798 Y-11.249
X-43.78 Y-11.253
X-42.74 Y-11.488
X-42.722 Y-11.492
X-41.695 Y-11.737
X-41.676 Y-11.741
X-40.661 Y-11.996
X-40.642 Y-12.001
X-39.638 Y-12.266
X-39.619 Y-12.271
X-38.627 Y-12.545
X-38.607 Y-12.551
X-37.626 Y-12.836
X-37.607 Y-12.842
X-36.636 Y-13.137
X-36.617 Y-13.143
X-35.656 Y-13.448
X-35.637 Y-13.454
X-34.687 Y-13.77
X-34.667 Y-13.777
X-33.728 Y-14.102
X-33.708 Y-14.109
X-32.785 Y-14.443
X-32.765 Y-14.451
X-31.856 Y-14.793
X-31.837 Y-14.8
X-30.943 Y-15.151
X-30.923 Y-15.158
X-30.044 Y-15.516
X-30.025 Y-15.524
X-29.16 Y-15.889
X-29.142 Y-15.897
X-28.291 Y-16.268
X-28.273 Y-16.276
X-27.437 Y-16.654
X-27.419 Y-16.662
X-26.598 Y-17.046
X-26.58 Y-17.054
X-25.774 Y-17.443
X-25.756 Y-17.452
X-24.964 Y-17.846
X-24.947 Y-17.854
X-24.169 Y-18.253
X-24.152 Y-18.262
X-23.388 Y-18.665
X-23.371 Y-18.674
X-22.622 Y-19.081
X-22.606 Y-19.09
X-21.871 Y-19.501
X-21.855 Y-19.51
X-21.134 Y-19.923
X-21.118 Y-19.933
X-20.411 Y-20.349
X-20.396 Y-20.358
X-19.703 Y-20.777
X-19.688 Y-20.786
X-19.009 Y-21.207
X-18.994 Y-21.216
X-18.33 Y-21.638
X-18.315 Y-21.648
X-17.665 Y-22.071
X-17.65 Y-22.08
X-17.014 Y-22.505
X-17 Y-22.514
X-16.377 Y-22.938
X-16.363 Y-22.948
X-15.754 Y-23.372
X-15.741 Y-23.382
X-15.145 Y-23.806
X-15.132 Y-23.815
X-14.55 Y-24.238
X-14.538 Y-24.248
X-13.97 Y-24.67
X-13.957 Y-24.679
X-13.403 Y-25.1
X-13.391 Y-25.109
X-12.85 Y-25.527
X-12.838 Y-25.537
X-12.31 Y-25.953
X-12.272 Y-25.984
X-12.072 Y-26.152
X-12.01 Y-26.207
X-11.819 Y-26.385
X-11.76 Y-26.444
X-11.579 Y-26.631
X-11.522 Y-26.693
X-11.351 Y-26.89
X-11.299 Y-26.953
X-11.139 Y-27.159
X-11.089 Y-27.226
X-10.939 Y-27.44
X-10.894 Y-27.509
X-10.755 Y-27.73
X-10.713 Y-27.802
X-10.586 Y-28.031
X-10.547 Y-28.105
X-10.433 Y-28.341
X-10.398 Y-28.416
X-10.296 Y-28.657
X-10.266 Y-28.734
X-10.176 Y-28.98
X-10.15 Y-29.059
X-10.073 Y-29.309
X-10.051 Y-29.39
X-9.988 Y-29.644
X-9.97 Y-29.725
X-9.92 Y-29.982
X-9.906 Y-30.063
X-9.87 Y-30.322
X-9.86 Y-30.405
X-9.837 Y-30.666
X-9.834 Y-30.707
X-9.679 Y-33.238
G2 X-11.167 Y-34.92 I-1.585 J-0.097
G1 X-21.148 Y-35.53
G2 X-22.83 Y-34.043 I-0.097 J1.585
G1 X-22.879 Y-33.232
X-33.272 Y-33.867
X-33.369 Y-33.87
X-67.959
G2 X-70.95 Y-34.588 I-2.989 J5.871
G1 X-200
G2 X-201.587 Y-33 I0 J1.588
G1 Y-25.587
X-218.413
Y-33
G2 X-220 Y-34.588 I-1.587 J0
G1 X-288.413
Y-55.996
X-215.539 Y-67.64
G3 X-211.587 Y-64.271 I0.539 J3.37
G1 Y-54
G2 X-204 Y-46.412 I7.587 J0
G1 X-200
G2 X-198.413 Y-48 I0 J-1.588
G1 Y-71.781
G2 X-200 Y-73.368 I-1.587 J0
G1 X-203.84
Y-76.64
G2 X-205.602 Y-78.218 I-1.587 J0
G1 X-209.042 Y-77.839
X-209.049 Y-77.838
X-212.486 Y-77.444
X-212.493 Y-77.443
X-215.926 Y-77.033
X-215.933 Y-77.032
X-219.359 Y-76.608
X-219.366 Y-76.607
X-222.787 Y-76.168
X-222.793 Y-76.167
X-226.207 Y-75.716
X-226.214 Y-75.715
X-229.619 Y-75.25
X-229.625 Y-75.249
X-233.022 Y-74.771
X-233.028
X-236.415 Y-74.281
X-236.421 Y-74.28
X-239.798 Y-73.78
X-239.804 Y-73.779
X-243.17 Y-73.267
X-243.175 Y-73.266
X-246.529 Y-72.744
X-246.535 Y-72.743
X-249.878 Y-72.21
X-249.883
X-253.229 Y-71.665
X-253.234 Y-71.664
X-256.586 Y-71.107
X-256.591 Y-71.106
X-259.947 Y-70.537
X-259.952 Y-70.536
X-263.313 Y-69.955
X-263.318 Y-69.954
X-266.682 Y-69.362
X-266.687 Y-69.361
X-270.055 Y-68.757
X-270.06 Y-68.756
X-273.43 Y-68.141
X-273.435 Y-68.14
X-276.807 Y-67.514
X-276.811 Y-67.513
X-280.185 Y-66.877
X-280.19 Y-66.876
X-283.565 Y-66.229
X-283.569 Y-66.228
X-286.945 Y-65.571
X-286.952 Y-65.57
X-293.703 Y-64.227
X-293.711 Y-64.225
X-300.457 Y-62.845
X-300.465 Y-62.843
X-307.203 Y-61.428
X-307.211 Y-61.426
X-313.937 Y-59.978
X-313.942 Y-59.977
X-315.339 Y-59.671
X-315.343 Y-59.67
X-321.346 Y-58.341
X-321.353 Y-58.34
X-327.35 Y-56.985
X-327.356 Y-56.984
X-332.738 Y-55.746
X-332.744 Y-55.744
X-338.108 Y-54.49
X-338.113 Y-54.488
X-343.455 Y-53.218
X-343.461 Y-53.217
X-348.555 Y-51.986
X-349.323 Y-52.026
G2 X-350.991 Y-50.524 I-0.083 J1.585
G1 X-352.584 Y-20.135
G2 X-351.082 Y-18.467 I1.585 J0.083
G1 X-350.271 Y-18.425
X-349.634 Y-18.235
X-349.629 Y-18.234
X-348.794 Y-17.988
X-348.789 Y-17.987
X-347.936 Y-17.74
X-347.93 Y-17.738
X-347.06 Y-17.489
X-347.055 Y-17.488
X-346.168 Y-17.238
X-346.162 Y-17.236
X-345.259 Y-16.985
X-345.254 Y-16.984
X-344.336 Y-16.732
X-344.33 Y-16.73
X-343.396 Y-16.478
X-343.39 Y-16.476
X-342.44 Y-16.223
X-342.435 Y-16.222
X-341.472 Y-15.969
X-341.466 Y-15.968
X-340.488 Y-15.716
X-340.481 Y-15.714
X-339.489 Y-15.462
X-339.483 Y-15.461
X-338.477 Y-15.21
X-338.471 Y-15.208
X-337.453 Y-14.958
X-337.447 Y-14.957
X-336.415 Y-14.708
X-336.409 Y-14.707
X-335.366 Y-14.46
G2 X-333.428 Y-15.782 I0.366 J-1.545
G1 X-332.245 Y-24.11
X-295.786 Y-18.928
X-296.97 Y-10.599
G2 X-295.474 Y-8.79 I1.572 J0.223
G1 X-293.626 Y-8.701
X-293.615 Y-8.7
X-291.748 Y-8.623
X-291.737
X-289.849 Y-8.558
X-289.839
X-287.929 Y-8.506
X-287.918 Y-8.505
X-285.985 Y-8.465
X-285.975 Y-8.464
X-284.018 Y-8.436
X-284.009 Y-8.435
X-282.025 Y-8.418
X-282.016
X-280.004 Y-8.413
X-280
X-181.131
X-117.648
S5000
X-75 Z-2.672 F333.3
X-74.995
X-73.55 Y-8.417 Z-2.695
X-73.541
X-72.115 Y-8.43 Z-2.717
X-72.105
X-70.699 Y-8.451 Z-2.74
X-70.689
X-69.302 Y-8.482 Z-2.762
X-69.292
X-67.924 Y-8.521 Z-2.783
X-67.913
X-66.564 Y-8.569 Z-2.805
X-66.553
X-65.223 Y-8.626 Z-2.826
X-65.211
X-63.898 Y-8.691 Z-2.847
X-63.886 Y-8.692
X-62.591 Y-8.767 Z-2.867
X-62.579 Z-2.868
X-61.302 Y-8.851 Z-2.888
X-61.289
X-60.029 Y-8.944 Z-2.908
X-60.016 Y-8.945
X-58.772 Y-9.046 Z-2.928
X-58.759 Y-9.047
X-57.532 Y-9.158 Z-2.947
X-57.518 Y-9.159 Z-2.948
X-56.307 Y-9.279 Z-2.967
X-56.293 Y-9.281
X-55.099 Y-9.41 Z-2.986
X-55.084 Y-9.412
X-54.206 Y-9.515 Z-3
S6000
X-53.905 Y-9.55 F1000
X-53.89 Y-9.552
X-52.726 Y-9.7
X-52.711 Y-9.702
X-51.562 Y-9.859
X-51.546 Y-9.861
X-50.412 Y-10.028
X-50.396 Y-10.031
X-49.276 Y-10.207
X-49.26 Y-10.209
X-48.154 Y-10.395
X-48.138 Y-10.398
X-47.046 Y-10.594
X-47.029 Y-10.597
X-45.95 Y-10.802
X-45.933 Y-10.806
X-44.868 Y-11.021
X-44.85 Y-11.024
X-43.798 Y-11.249
X-43.78 Y-11.253
X-42.74 Y-11.488
X-42.722 Y-11.492
X-41.695 Y-11.737
X-41.676 Y-11.741
X-40.661 Y-11.996
X-40.642 Y-12.001
X-39.638 Y-12.266
X-39.619 Y-12.271
X-38.627 Y-12.545
X-38.607 Y-12.551
X-37.626 Y-12.836
X-37.607 Y-12.842
X-36.636 Y-13.137
X-36.617 Y-13.143
X-35.656 Y-13.448
X-35.637 Y-13.454
X-34.687 Y-13.77
X-34.667 Y-13.777
X-33.728 Y-14.102
X-33.708 Y-14.109
X-32.785 Y-14.443
X-32.765 Y-14.451
X-31.856 Y-14.793
X-31.837 Y-14.8
X-30.943 Y-15.151
X-30.923 Y-15.158
X-30.044 Y-15.516
X-30.025 Y-15.524
X-29.16 Y-15.889
X-29.142 Y-15.897
X-28.291 Y-16.268
X-28.273 Y-16.276
X-27.437 Y-16.654
X-27.419 Y-16.662
X-26.598 Y-17.046
X-26.58 Y-17.054
X-25.774 Y-17.443
X-25.756 Y-17.452
X-24.964 Y-17.846
X-24.947 Y-17.854
X-24.169 Y-18.253
X-24.152 Y-18.262
X-23.388 Y-18.665
X-23.371 Y-18.674
X-22.622 Y-19.081
X-22.606 Y-19.09
X-21.871 Y-19.501
X-21.855 Y-19.51
X-21.134 Y-19.923
X-21.118 Y-19.933
X-20.411 Y-20.349
X-20.396 Y-20.358
X-19.703 Y-20.777
X-19.688 Y-20.786
X-19.009 Y-21.207
X-18.994 Y-21.216
X-18.33 Y-21.638
X-18.315 Y-21.648
X-17.665 Y-22.071
X-17.65 Y-22.08
X-17.014 Y-22.505
X-17 Y-22.514
X-16.377 Y-22.938
X-16.363 Y-22.948
X-15.754 Y-23.372
X-15.741 Y-23.382
X-15.145 Y-23.806
X-15.132 Y-23.815
X-14.55 Y-24.238
X-14.538 Y-24.248
X-13.97 Y-24.67
X-13.957 Y-24.679
X-13.403 Y-25.1
X-13.391 Y-25.109
X-12.85 Y-25.527
X-12.838 Y-25.537
X-12.31 Y-25.953
X-12.272 Y-25.984
X-12.072 Y-26.152
X-12.01 Y-26.207
X-11.819 Y-26.385
X-11.76 Y-26.444
X-11.579 Y-26.631
X-11.522 Y-26.693
X-11.351 Y-26.89
X-11.299 Y-26.953
X-11.139 Y-27.159
X-11.089 Y-27.226
X-10.939 Y-27.44
X-10.894 Y-27.509
X-10.755 Y-27.73
X-10.713 Y-27.802
X-10.586 Y-28.031
X-10.547 Y-28.105
X-10.433 Y-28.341
X-10.398 Y-28.416
X-10.296 Y-28.657
X-10.266 Y-28.734
X-10.176 Y-28.98
X-10.15 Y-29.059
X-10.073 Y-29.309
X-10.051 Y-29.39
X-9.988 Y-29.644
X-9.97 Y-29.725
X-9.92 Y-29.982
X-9.906 Y-30.063
X-9.87 Y-30.322
X-9.86 Y-30.405
X-9.837 Y-30.666
X-9.834 Y-30.707
X-9.679 Y-33.238
G2 X-11.167 Y-34.92 I-1.585 J-0.097
G1 X-21.148 Y-35.53
G2 X-22.83 Y-34.043 I-0.097 J1.585
G1 X-22.879 Y-33.232
X-33.272 Y-33.867
X-33.369 Y-33.87
X-67.959
G2 X-70.95 Y-34.588 I-2.989 J5.871
G1 X-200
G2 X-201.587 Y-33 I0 J1.588
G1 Y-25.587
X-218.413
Y-33
G2 X-220 Y-34.588 I-1.587 J0
G1 X-288.413
Y-55.996
X-215.539 Y-67.64
G3 X-211.587 Y-64.271 I0.539 J3.37
G1 Y-54
G2 X-204 Y-46.412 I7.587 J0
G1 X-200
G2 X-198.413 Y-48 I0 J-1.588
G1 Y-71.781
G2 X-200 Y-73.368 I-1.587 J0
G1 X-203.84
Y-76.64
G2 X-205.602 Y-78.218 I-1.587 J0
G1 X-209.042 Y-77.839
X-209.049 Y-77.838
X-212.486 Y-77.444
X-212.493 Y-77.443
X-215.926 Y-77.033
X-215.933 Y-77.032
X-219.359 Y-76.608
X-219.366 Y-76.607
X-222.787 Y-76.168
X-222.793 Y-76.167
X-226.207 Y-75.716
X-226.214 Y-75.715
X-229.619 Y-75.25
X-229.625 Y-75.249
X-233.022 Y-74.771
X-233.028
X-236.415 Y-74.281
X-236.421 Y-74.28
X-239.798 Y-73.78
X-239.804 Y-73.779
X-243.17 Y-73.267
X-243.175 Y-73.266
X-246.529 Y-72.744
X-246.535 Y-72.743
X-249.878 Y-72.21
X-249.883
X-253.229 Y-71.665
X-253.234 Y-71.664
X-256.586 Y-71.107
X-256.591 Y-71.106
X-259.947 Y-70.537
X-259.952 Y-70.536
X-263.313 Y-69.955
X-263.318 Y-69.954
X-266.682 Y-69.362
X-266.687 Y-69.361
X-270.055 Y-68.757
X-270.06 Y-68.756
X-273.43 Y-68.141
X-273.435 Y-68.14
X-276.807 Y-67.514
X-276.811 Y-67.513
X-280.185 Y-66.877
X-280.19 Y-66.876
X-283.565 Y-66.229
X-283.569 Y-66.228
X-286.945 Y-65.571
X-286.952 Y-65.57
X-293.703 Y-64.227
X-293.711 Y-64.225
X-300.457 Y-62.845
X-300.465 Y-62.843
X-307.203 Y-61.428
X-307.211 Y-61.426
X-313.937 Y-59.978
X-313.942 Y-59.977
X-315.339 Y-59.671
X-315.343 Y-59.67
X-321.346 Y-58.341
X-321.353 Y-58.34
X-327.35 Y-56.985
X-327.356 Y-56.984
X-332.738 Y-55.746
X-332.744 Y-55.744
X-338.108 Y-54.49
X-338.113 Y-54.488
X-343.455 Y-53.218
X-343.461 Y-53.217
X-348.555 Y-51.986
X-349.323 Y-52.026
G2 X-350.991 Y-50.524 I-0.083 J1.585
G1 X-352.584 Y-20.135
G2 X-351.082 Y-18.467 I1.585 J0.083
G1 X-350.271 Y-18.425
X-349.634 Y-18.235
X-349.629 Y-18.234
X-348.794 Y-17.988
X-348.789 Y-17.987
X-347.936 Y-17.74
X-347.93 Y-17.738
X-347.06 Y-17.489
X-347.055 Y-17.488
X-346.168 Y-17.238
X-346.162 Y-17.236
X-345.259 Y-16.985
X-345.254 Y-16.984
X-344.336 Y-16.732
X-344.33 Y-16.73
X-343.396 Y-16.478
X-343.39 Y-16.476
X-342.44 Y-16.223
X-342.435 Y-16.222
X-341.472 Y-15.969
X-341.466 Y-15.968
X-340.488 Y-15.716
X-340.481 Y-15.714
X-339.489 Y-15.462
X-339.483 Y-15.461
X-338.477 Y-15.21
X-338.471 Y-15.208
X-337.453 Y-14.958
X-337.447 Y-14.957
X-336.415 Y-14.708
X-336.409 Y-14.707
X-335.366 Y-14.46
G2 X-333.428 Y-15.782 I0.366 J-1.545
G1 X-332.245 Y-24.11
X-295.786 Y-18.928
X-296.97 Y-10.599
G2 X-295.474 Y-8.79 I1.572 J0.223
G1 X-293.626 Y-8.701
X-293.615 Y-8.7
X-291.748 Y-8.623
X-291.737
X-289.849 Y-8.558
X-289.839
X-287.929 Y-8.506
X-287.918 Y-8.505
X-285.985 Y-8.465
X-285.975 Y-8.464
X-284.018 Y-8.436
X-284.009 Y-8.435
X-282.025 Y-8.418
X-282.016
X-280.004 Y-8.413
X-280
X-117.648
X-75
X-74.995
X-73.55 Y-8.417
X-73.541
X-72.115 Y-8.43
X-72.105
X-70.699 Y-8.451
X-70.689
X-69.302 Y-8.482
X-69.292
X-67.924 Y-8.521
X-67.913
X-66.564 Y-8.569
X-66.553
X-65.223 Y-8.626
X-65.211
X-63.898 Y-8.691
X-63.886 Y-8.692
X-62.591 Y-8.767
X-62.579
X-61.302 Y-8.851
X-61.289
X-60.029 Y-8.944
X-60.016 Y-8.945
X-58.772 Y-9.046
X-58.759 Y-9.047
X-57.532 Y-9.158
X-57.518 Y-9.159
X-56.307 Y-9.279
X-56.293 Y-9.281
X-55.099 Y-9.41
X-55.084 Y-9.412
X-54.206 Y-9.515
S5000
X-53.905 Y-9.55 Z-3.005 F333.3
X-53.89 Y-9.552
X-52.726 Y-9.7 Z-3.023
X-52.711 Y-9.702 Z-3.024
X-51.562 Y-9.859 Z-3.042
X-51.546 Y-9.861
X-50.412 Y-10.028 Z-3.06
X-50.396 Y-10.031 Z-3.061
X-49.276 Y-10.207 Z-3.078
X-49.26 Y-10.209 Z-3.079
X-48.154 Y-10.395 Z-3.096
X-48.138 Y-10.398 Z-3.097
X-47.046 Y-10.594 Z-3.114
X-47.029 Y-10.597
X-45.95 Y-10.802 Z-3.132
X-45.933 Y-10.806
X-44.868 Y-11.021 Z-3.149
X-44.85 Y-11.024
X-43.798 Y-11.249 Z-3.166
X-43.78 Y-11.253 Z-3.167
X-42.74 Y-11.488 Z-3.183
X-42.722 Y-11.492 Z-3.184
X-41.695 Y-11.737 Z-3.2
X-41.676 Y-11.741 Z-3.201
X-40.661 Y-11.996 Z-3.217
X-40.642 Y-12.001
X-39.638 Y-12.266 Z-3.234
X-39.619 Y-12.271
X-38.627 Y-12.545 Z-3.25
X-38.607 Y-12.551 Z-3.251
X-37.626 Y-12.836 Z-3.267
X-37.607 Y-12.842
X-36.636 Y-13.137 Z-3.283
X-36.617 Y-13.143
X-35.656 Y-13.448 Z-3.299
X-35.637 Y-13.454
X-34.687 Y-13.77 Z-3.315
X-34.667 Y-13.777 Z-3.316
X-33.728 Y-14.102 Z-3.331
X-33.708 Y-14.109 Z-3.332
X-32.785 Y-14.443 Z-3.347
X-32.765 Y-14.451
X-31.856 Y-14.793 Z-3.363
X-31.837 Y-14.8
X-30.943 Y-15.151 Z-3.378
X-30.923 Y-15.158
X-30.044 Y-15.516 Z-3.393
X-30.025 Y-15.524 Z-3.394
X-29.16 Y-15.889 Z-3.409
X-29.142 Y-15.897
X-28.291 Y-16.268 Z-3.423
X-28.273 Y-16.276 Z-3.424
X-27.437 Y-16.654 Z-3.438
X-27.419 Y-16.662 Z-3.439
X-26.598 Y-17.046 Z-3.453
X-26.58 Y-17.054
X-25.774 Y-17.443 Z-3.467
X-25.756 Y-17.452 Z-3.468
X-24.964 Y-17.846 Z-3.481
X-24.947 Y-17.854 Z-3.482
X-24.169 Y-18.253 Z-3.496
X-24.152 Y-18.262
X-23.388 Y-18.665 Z-3.509
X-23.371 Y-18.674 Z-3.51
X-22.622 Y-19.081 Z-3.523
X-22.606 Y-19.09
X-21.871 Y-19.501 Z-3.537
X-21.855 Y-19.51
X-21.134 Y-19.923 Z-3.55
X-21.118 Y-19.933
X-20.411 Y-20.349 Z-3.563
X-20.396 Y-20.358 Z-3.564
X-19.703 Y-20.777 Z-3.576
X-19.688 Y-20.786 Z-3.577
X-19.009 Y-21.207 Z-3.589
X-18.994 Y-21.216
X-18.33 Y-21.638 Z-3.602
X-18.315 Y-21.648
X-17.665 Y-22.071 Z-3.614
X-17.65 Y-22.08 Z-3.615
X-17.014 Y-22.505 Z-3.627
X-17 Y-22.514
X-16.377 Y-22.938 Z-3.639
X-16.363 Y-22.948
X-15.754 Y-23.372 Z-3.651
X-15.741 Y-23.382
X-15.145 Y-23.806 Z-3.663
X-15.132 Y-23.815
X-14.55 Y-24.238 Z-3.674
X-14.538 Y-24.248
X-13.97 Y-24.67 Z-3.686
X-13.957 Y-24.679
X-13.403 Y-25.1 Z-3.697
X-13.391 Y-25.109
X-12.85 Y-25.527 Z-3.708
X-12.838 Y-25.537
X-12.31 Y-25.953 Z-3.719
X-12.272 Y-25.984
X-12.072 Y-26.152 Z-3.724
X-12.01 Y-26.207 Z-3.725
X-11.819 Y-26.385 Z-3.729
X-11.76 Y-26.444 Z-3.73
X-11.579 Y-26.631 Z-3.734
X-11.522 Y-26.693 Z-3.736
X-11.351 Y-26.89 Z-3.74
X-11.299 Y-26.953 Z-3.741
X-11.139 Y-27.159 Z-3.745
X-11.089 Y-27.226 Z-3.746
X-10.939 Y-27.44 Z-3.751
X-10.894 Y-27.509 Z-3.752
X-10.755 Y-27.73 Z-3.756
X-10.713 Y-27.802 Z-3.757
X-10.586 Y-28.031 Z-3.761
X-10.547 Y-28.105 Z-3.763
X-10.433 Y-28.341 Z-3.767
X-10.398 Y-28.416 Z-3.768
X-10.296 Y-28.657 Z-3.772
X-10.266 Y-28.734 Z-3.774
X-10.176 Y-28.98 Z-3.778
X-10.15 Y-29.059 Z-3.779
X-10.073 Y-29.309 Z-3.783
X-10.051 Y-29.39 Z-3.784
X-9.988 Y-29.644 Z-3.789
X-9.97 Y-29.725 Z-3.79
X-9.92 Y-29.982 Z-3.794
X-9.906 Y-30.063 Z-3.795
X-9.87 Y-30.322 Z-3.799
X-9.86 Y-30.405 Z-3.801
X-9.837 Y-30.666 Z-3.805
X-9.834 Y-30.707 Z-3.806
X-9.679 Y-33.238 Z-3.846
G2 X-11.167 Y-34.92 Z-3.885 I-1.585 J-0.097
G1 X-18.468 Y-35.366 Z-4
S6000
X-21.148 Y-35.53 F1000
G2 X-22.83 Y-34.043 I-0.097 J1.585
G1 X-22.879 Y-33.232
X-33.272 Y-33.867
X-33.369 Y-33.87
X-67.959
G2 X-70.95 Y-34.588 I-2.989 J5.871
G1 X-131.387
Z-3.5
X-139.563
Z-4 F333.3
X-200 F1000
G2 X-201.587 Y-33 I0 J1.588
G1 Y-25.587
X-218.413
Y-33
G2 X-220 Y-34.588 I-1.587 J0
G1 X-288.413
Y-55.996
X-215.539 Y-67.64
G3 X-211.587 Y-64.271 I0.539 J3.37
G1 Y-54
G2 X-204 Y-46.412 I7.587 J0
G1 X-200
G2 X-198.413 Y-48 I0 J-1.588
G1 Y-71.781
G2 X-200 Y-73.368 I-1.587 J0
G1 X-203.84
Y-76.64
G2 X-205.602 Y-78.218 I-1.587 J0
G1 X-209.042 Y-77.839
X-209.049 Y-77.838
X-212.486 Y-77.444
X-212.493 Y-77.443
X-215.926 Y-77.033
X-215.933 Y-77.032
X-219.359 Y-76.608
X-219.366 Y-76.607
X-222.787 Y-76.168
X-222.793 Y-76.167
X-226.207 Y-75.716
X-226.214 Y-75.715
X-229.619 Y-75.25
X-229.625 Y-75.249
X-233.022 Y-74.771
X-233.028
X-236.415 Y-74.281
X-236.421 Y-74.28
X-239.798 Y-73.78
X-239.804 Y-73.779
X-243.17 Y-73.267
X-243.175 Y-73.266
X-246.529 Y-72.744
X-246.535 Y-72.743
X-249.878 Y-72.21
X-249.883
X-253.229 Y-71.665
X-253.234 Y-71.664
X-255.92 Y-71.218
Z-3.5
X-256.586 Y-71.107
X-256.591 Y-71.106
X-259.947 Y-70.537
X-259.952 Y-70.536
X-263.313 Y-69.955
X-263.318 Y-69.954
X-263.977 Y-69.838
Z-4 F333.3
X-266.682 Y-69.362 F1000
X-266.687 Y-69.361
X-270.055 Y-68.757
X-270.06 Y-68.756
X-273.43 Y-68.141
X-273.435 Y-68.14
X-276.807 Y-67.514
X-276.811 Y-67.513
X-280.185 Y-66.877
X-280.19 Y-66.876
X-283.565 Y-66.229
X-283.569 Y-66.228
X-286.945 Y-65.571
X-286.952 Y-65.57
X-293.703 Y-64.227
X-293.711 Y-64.225
X-300.457 Y-62.845
X-300.465 Y-62.843
X-307.203 Y-61.428
X-307.211 Y-61.426
X-313.937 Y-59.978
X-313.942 Y-59.977
X-315.339 Y-59.671
X-315.343 Y-59.67
X-321.346 Y-58.341
X-321.353 Y-58.34
X-327.35 Y-56.985
X-327.356 Y-56.984
X-332.738 Y-55.746
X-332.744 Y-55.744
X-338.108 Y-54.49
X-338.113 Y-54.488
X-343.455 Y-53.218
X-343.461 Y-53.217
X-348.555 Y-51.986
X-349.323 Y-52.026
G2 X-350.991 Y-50.524 I-0.083 J1.585
G1 X-352.584 Y-20.135
G2 X-351.082 Y-18.467 I1.585 J0.083
G1 X-350.271 Y-18.425
X-349.634 Y-18.235
X-349.629 Y-18.234
X-348.794 Y-17.988
X-348.789 Y-17.987
X-347.936 Y-17.74
X-347.93 Y-17.738
X-347.06 Y-17.489
X-347.055 Y-17.488
X-346.168 Y-17.238
X-346.162 Y-17.236
X-345.259 Y-16.985
X-345.254 Y-16.984
X-344.336 Y-16.732
X-344.33 Y-16.73
X-343.396 Y-16.478
X-343.39 Y-16.476
X-342.44 Y-16.223
X-342.435 Y-16.222
X-341.472 Y-15.969
X-341.466 Y-15.968
X-340.488 Y-15.716
X-340.481 Y-15.714
X-339.489 Y-15.462
X-339.483 Y-15.461
X-338.477 Y-15.21
X-338.471 Y-15.208
X-337.453 Y-14.958
X-337.447 Y-14.957
X-336.415 Y-14.708
X-336.409 Y-14.707
X-335.366 Y-14.46
G2 X-333.428 Y-15.782 I0.366 J-1.545
G1 X-332.245 Y-24.11
X-295.786 Y-18.928
X-296.97 Y-10.599
G2 X-295.474 Y-8.79 I1.572 J0.223
G1 X-293.626 Y-8.701
X-293.615 Y-8.7
X-291.748 Y-8.623
X-291.737
X-289.849 Y-8.558
X-289.839
X-287.929 Y-8.506
X-287.918 Y-8.505
X-285.985 Y-8.465
X-285.975 Y-8.464
X-284.018 Y-8.436
X-284.009 Y-8.435
X-282.025 Y-8.418
X-282.016
X-280.004 Y-8.413
X-280
X-232.837
Z-3.5
X-224.663
Z-4 F333.3
X-130.337 F1000
Z-3.5
X-122.162
Z-4 F333.3
X-75 F1000
X-74.995
X-73.55 Y-8.417
X-73.541
X-72.115 Y-8.43
X-72.105
X-70.699 Y-8.451
X-70.689
X-69.302 Y-8.482
X-69.292
X-67.924 Y-8.521
X-67.913
X-66.564 Y-8.569
X-66.553
X-65.223 Y-8.626
X-65.211
X-63.898 Y-8.691
X-63.886 Y-8.692
X-62.591 Y-8.767
X-62.579
X-61.302 Y-8.851
X-61.289
X-60.029 Y-8.944
X-60.016 Y-8.945
X-58.772 Y-9.046
X-58.759 Y-9.047
X-57.532 Y-9.158
X-57.518 Y-9.159
X-56.307 Y-9.279
X-56.293 Y-9.281
X-55.099 Y-9.41
X-55.084 Y-9.412
X-53.905 Y-9.55
X-53.89 Y-9.552
X-52.726 Y-9.7
X-52.711 Y-9.702
X-51.562 Y-9.859
X-51.546 Y-9.861
X-50.412 Y-10.028
X-50.396 Y-10.031
X-49.276 Y-10.207
X-49.26 Y-10.209
X-48.154 Y-10.395
X-48.138 Y-10.398
X-47.046 Y-10.594
X-47.029 Y-10.597
X-45.95 Y-10.802
X-45.933 Y-10.806
X-44.868 Y-11.021
X-44.85 Y-11.024
X-43.798 Y-11.249
X-43.78 Y-11.253
X-42.74 Y-11.488
X-42.722 Y-11.492
X-41.695 Y-11.737
X-41.676 Y-11.741
X-40.661 Y-11.996
X-40.642 Y-12.001
X-39.638 Y-12.266
X-39.619 Y-12.271
X-38.627 Y-12.545
X-38.607 Y-12.551
X-37.626 Y-12.836
X-37.607 Y-12.842
X-36.636 Y-13.137
X-36.617 Y-13.143
X-35.656 Y-13.448
X-35.637 Y-13.454
X-34.687 Y-13.77
X-34.667 Y-13.777
X-33.728 Y-14.102
X-33.708 Y-14.109
X-32.785 Y-14.443
X-32.765 Y-14.451
X-31.856 Y-14.793
X-31.837 Y-14.8
X-30.943 Y-15.151
X-30.923 Y-15.158
X-30.044 Y-15.516
X-30.025 Y-15.524
X-29.16 Y-15.889
X-29.142 Y-15.897
X-28.291 Y-16.268
X-28.273 Y-16.276
X-27.437 Y-16.654
X-27.419 Y-16.662
X-26.598 Y-17.046
X-26.58 Y-17.054
X-25.774 Y-17.443
X-25.756 Y-17.452
X-24.964 Y-17.846
X-24.947 Y-17.854
X-24.169 Y-18.253
X-24.152 Y-18.262
X-23.388 Y-18.665
X-23.371 Y-18.674
X-22.622 Y-19.081
X-22.606 Y-19.09
X-21.871 Y-19.501
X-21.855 Y-19.51
X-21.134 Y-19.923
X-21.118 Y-19.933
X-20.411 Y-20.349
X-20.396 Y-20.358
X-19.703 Y-20.777
X-19.688 Y-20.786
X-19.009 Y-21.207
X-18.994 Y-21.216
X-18.33 Y-21.638
X-18.315 Y-21.648
X-17.665 Y-22.071
X-17.65 Y-22.08
X-17.014 Y-22.505
X-17 Y-22.514
X-16.377 Y-22.938
X-16.363 Y-22.948
X-15.754 Y-23.372
X-15.741 Y-23.382
X-15.145 Y-23.806
X-15.132 Y-23.815
X-14.55 Y-24.238
X-14.538 Y-24.248
X-13.97 Y-24.67
X-13.957 Y-24.679
X-13.403 Y-25.1
X-13.391 Y-25.109
X-12.85 Y-25.527
X-12.838 Y-25.537
X-12.31 Y-25.953
X-12.272 Y-25.984
X-12.072 Y-26.152
X-12.01 Y-26.207
X-11.819 Y-26.385
X-11.76 Y-26.444
X-11.579 Y-26.631
X-11.522 Y-26.693
X-11.351 Y-26.89
X-11.299 Y-26.953
X-11.139 Y-27.159
X-11.089 Y-27.226
X-10.939 Y-27.44
X-10.894 Y-27.509
X-10.755 Y-27.73
X-10.713 Y-27.802
X-10.586 Y-28.031
X-10.547 Y-28.105
X-10.433 Y-28.341
X-10.398 Y-28.416
X-10.296 Y-28.657
X-10.266 Y-28.734
X-10.176 Y-28.98
X-10.15 Y-29.059
X-10.073 Y-29.309
X-10.051 Y-29.39
X-9.988 Y-29.644
X-9.97 Y-29.725
X-9.92 Y-29.982
X-9.906 Y-30.063
X-9.87 Y-30.322
X-9.86 Y-30.405
X-9.837 Y-30.666
X-9.834 Y-30.707
X-9.679 Y-33.238
G2 X-11.167 Y-34.92 I-1.585 J-0.097
G1 X-18.468 Y-35.366
S5000
X-21.148 Y-35.53 Z-4.042 F333.3
G2 X-22.83 Y-34.043 Z-4.082 I-0.097 J1.585
G1 X-22.879 Y-33.232 Z-4.094
X-33.272 Y-33.867 Z-4.258
X-33.369 Y-33.87 Z-4.26
X-61.306 Z-4.7
S6000
X-67.959 F1000
G2 X-70.95 Y-34.588 I-2.989 J5.871
G1 X-131.387
Z-3.5
X-139.563
Z-4.7 F333.3
X-200 F1000
G2 X-201.587 Y-33 I0 J1.588
G1 Y-25.587
X-218.413
Y-33
G2 X-220 Y-34.588 I-1.587 J0
G1 X-288.413
Y-55.996
X-215.539 Y-67.64
G3 X-211.587 Y-64.271 I0.539 J3.37
G1 Y-54
G2 X-204 Y-46.412 I7.587 J0
G1 X-200
G2 X-198.413 Y-48 I0 J-1.588
G1 Y-71.781
G2 X-200 Y-73.368 I-1.587 J0
G1 X-203.84
Y-76.64
G2 X-205.602 Y-78.218 I-1.587 J0
G1 X-209.042 Y-77.839
X-209.049 Y-77.838
X-212.486 Y-77.444
X-212.493 Y-77.443
X-215.926 Y-77.033
X-215.933 Y-77.032
X-219.359 Y-76.608
X-219.366 Y-76.607
X-222.787 Y-76.168
X-222.793 Y-76.167
X-226.207 Y-75.716
X-226.214 Y-75.715
X-229.619 Y-75.25
X-229.625 Y-75.249
X-233.022 Y-74.771
X-233.028
X-236.415 Y-74.281
X-236.421 Y-74.28
X-239.798 Y-73.78
X-239.804 Y-73.779
X-243.17 Y-73.267
X-243.175 Y-73.266
X-246.529 Y-72.744
X-246.535 Y-72.743
X-249.878 Y-72.21
X-249.883
X-253.229 Y-71.665
X-253.234 Y-71.664
X-255.92 Y-71.218
Z-3.5
X-256.586 Y-71.107
X-256.591 Y-71.106
X-259.947 Y-70.537
X-259.952 Y-70.536
X-263.313 Y-69.955
X-263.318 Y-69.954
X-263.977 Y-69.838
Z-4.7 F333.3
X-266.682 Y-69.362 F1000
X-266.687 Y-69.361
X-270.055 Y-68.757
X-270.06 Y-68.756
X-273.43 Y-68.141
X-273.435 Y-68.14
X-276.807 Y-67.514
X-276.811 Y-67.513
X-280.185 Y-66.877
X-280.19 Y-66.876
X-283.565 Y-66.229
X-283.569 Y-66.228
X-286.945 Y-65.571
X-286.952 Y-65.57
X-293.703 Y-64.227
X-293.711 Y-64.225
X-300.457 Y-62.845
X-300.465 Y-62.843
X-307.203 Y-61.428
X-307.211 Y-61.426
X-313.937 Y-59.978
X-313.942 Y-59.977
X-315.339 Y-59.671
X-315.343 Y-59.67
X-321.346 Y-58.341
X-321.353 Y-58.34
X-327.35 Y-56.985
X-327.356 Y-56.984
X-332.738 Y-55.746
X-332.744 Y-55.744
X-338.108 Y-54.49
X-338.113 Y-54.488
X-343.455 Y-53.218
X-343.461 Y-53.217
X-348.555 Y-51.986
X-349.323 Y-52.026
G2 X-350.991 Y-50.524 I-0.083 J1.585
G1 X-352.584 Y-20.135
G2 X-351.082 Y-18.467 I1.585 J0.083
G1 X-350.271 Y-18.425
X-349.634 Y-18.235
X-349.629 Y-18.234
X-348.794 Y-17.988
X-348.789 Y-17.987
X-347.936 Y-17.74
X-347.93 Y-17.738
X-347.06 Y-17.489
X-347.055 Y-17.488
X-346.168 Y-17.238
X-346.162 Y-17.236
X-345.259 Y-16.985
X-345.254 Y-16.984
X-344.336 Y-16.732
X-344.33 Y-16.73
X-343.396 Y-16.478
X-343.39 Y-16.476
X-342.44 Y-16.223
X-342.435 Y-16.222
X-341.472 Y-15.969
X-341.466 Y-15.968
X-340.488 Y-15.716
X-340.481 Y-15.714
X-339.489 Y-15.462
X-339.483 Y-15.461
X-338.477 Y-15.21
X-338.471 Y-15.208
X-337.453 Y-14.958
X-337.447 Y-14.957
X-336.415 Y-14.708
X-336.409 Y-14.707
X-335.366 Y-14.46
G2 X-333.428 Y-15.782 I0.366 J-1.545
G1 X-332.245 Y-24.11
X-295.786 Y-18.928
X-296.97 Y-10.599
G2 X-295.474 Y-8.79 I1.572 J0.223
G1 X-293.626 Y-8.701
X-293.615 Y-8.7
X-291.748 Y-8.623
X-291.737
X-289.849 Y-8.558
X-289.839
X-287.929 Y-8.506
X-287.918 Y-8.505
X-285.985 Y-8.465
X-285.975 Y-8.464
X-284.018 Y-8.436
X-284.009 Y-8.435
X-282.025 Y-8.418
X-282.016
X-280.004 Y-8.413
X-280
X-232.837
Z-3.5
X-224.663
Z-4.7 F333.3
X-130.337 F1000
Z-3.5
X-122.162
Z-4.7 F333.3
X-75 F1000
X-74.995
X-73.55 Y-8.417
X-73.541
X-72.115 Y-8.43
X-72.105
X-70.699 Y-8.451
X-70.689
X-69.302 Y-8.482
X-69.292
X-67.924 Y-8.521
X-67.913
X-66.564 Y-8.569
X-66.553
X-65.223 Y-8.626
X-65.211
X-63.898 Y-8.691
X-63.886 Y-8.692
X-62.591 Y-8.767
X-62.579
X-61.302 Y-8.851
X-61.289
X-60.029 Y-8.944
X-60.016 Y-8.945
X-58.772 Y-9.046
X-58.759 Y-9.047
X-57.532 Y-9.158
X-57.518 Y-9.159
X-56.307 Y-9.279
X-56.293 Y-9.281
X-55.099 Y-9.41
X-55.084 Y-9.412
X-53.905 Y-9.55
X-53.89 Y-9.552
X-52.726 Y-9.7
X-52.711 Y-9.702
X-51.562 Y-9.859
X-51.546 Y-9.861
X-50.412 Y-10.028
X-50.396 Y-10.031
X-49.276 Y-10.207
X-49.26 Y-10.209
X-48.154 Y-10.395
X-48.138 Y-10.398
X-47.046 Y-10.594
X-47.029 Y-10.597
X-45.95 Y-10.802
X-45.933 Y-10.806
X-44.868 Y-11.021
X-44.85 Y-11.024
X-43.798 Y-11.249
X-43.78 Y-11.253
X-42.74 Y-11.488
X-42.722 Y-11.492
X-41.695 Y-11.737
X-41.676 Y-11.741
X-40.661 Y-11.996
X-40.642 Y-12.001
X-39.638 Y-12.266
X-39.619 Y-12.271
X-38.627 Y-12.545
X-38.607 Y-12.551
X-37.626 Y-12.836
X-37.607 Y-12.842
X-36.636 Y-13.137
X-36.617 Y-13.143
X-35.656 Y-13.448
X-35.637 Y-13.454
X-34.687 Y-13.77
X-34.667 Y-13.777
X-33.728 Y-14.102
X-33.708 Y-14.109
X-32.785 Y-14.443
X-32.765 Y-14.451
X-31.856 Y-14.793
X-31.837 Y-14.8
X-30.943 Y-15.151
X-30.923 Y-15.158
X-30.044 Y-15.516
X-30.025 Y-15.524
X-29.16 Y-15.889
X-29.142 Y-15.897
X-28.291 Y-16.268
X-28.273 Y-16.276
X-27.437 Y-16.654
X-27.419 Y-16.662
X-26.598 Y-17.046
X-26.58 Y-17.054
X-25.774 Y-17.443
X-25.756 Y-17.452
X-24.964 Y-17.846
X-24.947 Y-17.854
X-24.169 Y-18.253
X-24.152 Y-18.262
X-23.388 Y-18.665
X-23.371 Y-18.674
X-22.622 Y-19.081
X-22.606 Y-19.09
X-21.871 Y-19.501
X-21.855 Y-19.51
X-21.134 Y-19.923
X-21.118 Y-19.933
X-20.411 Y-20.349
X-20.396 Y-20.358
X-19.703 Y-20.777
X-19.688 Y-20.786
X-19.009 Y-21.207
X-18.994 Y-21.216
X-18.33 Y-21.638
X-18.315 Y-21.648
X-17.665 Y-22.071
X-17.65 Y-22.08
X-17.014 Y-22.505
X-17 Y-22.514
X-16.377 Y-22.938
X-16.363 Y-22.948
X-15.754 Y-23.372
X-15.741 Y-23.382
X-15.145 Y-23.806
X-15.132 Y-23.815
X-14.55 Y-24.238
X-14.538 Y-24.248
X-13.97 Y-24.67
X-13.957 Y-24.679
X-13.403 Y-25.1
X-13.391 Y-25.109
X-12.85 Y-25.527
X-12.838 Y-25.537
X-12.31 Y-25.953
X-12.272 Y-25.984
X-12.072 Y-26.152
X-12.01 Y-26.207
X-11.819 Y-26.385
X-11.76 Y-26.444
X-11.579 Y-26.631
X-11.522 Y-26.693
X-11.351 Y-26.89
X-11.299 Y-26.953
X-11.139 Y-27.159
X-11.089 Y-27.226
X-10.939 Y-27.44
X-10.894 Y-27.509
X-10.755 Y-27.73
X-10.713 Y-27.802
X-10.586 Y-28.031
X-10.547 Y-28.105
X-10.433 Y-28.341
X-10.398 Y-28.416
X-10.296 Y-28.657
X-10.266 Y-28.734
X-10.176 Y-28.98
X-10.15 Y-29.059
X-10.073 Y-29.309
X-10.051 Y-29.39
X-9.988 Y-29.644
X-9.97 Y-29.725
X-9.92 Y-29.982
X-9.906 Y-30.063
X-9.87 Y-30.322
X-9.86 Y-30.405
X-9.837 Y-30.666
X-9.834 Y-30.707
X-9.679 Y-33.238
G2 X-11.167 Y-34.92 I-1.585 J-0.097
G1 X-21.148 Y-35.53
G2 X-22.83 Y-34.043 I-0.097 J1.585
G1 X-22.879 Y-33.232
X-33.272 Y-33.867
X-33.369 Y-33.87
X-61.306
G0 Z15
G28 G91 Z0
G90
G28 G91 X0 Y0
G90
M5
M30
