(Rohr_Arm_X8)
(Bearbeiten)
(  Hersteller: ChinaCnc)
(  model: 3040T)
(  description: Generic 3-axis)
(T5  D=3.175 CR=0 - ZMIN=-0.5 - Schaftfraser)
G90 G94
G17
G21
(When using Fusion 360 for Personal Use, the feedrate of)
(rapid moves is reduced to match the feedrate of cutting)
(moves, which can increase machining time. Unrestricted rapid)
(moves are available with a Fusion 360 Subscription.)

(Bohrfrasen1)
T5
S6000 M3
G54
G0 X-9.875 Y-0.047
Z49
G1 Z17 F1000
Z15
X-9.956 Y-0.128
X-9.95 Y-0.159
X-9.932 Y-0.185
X-9.906 Y-0.203
X-9.875 Y-0.209
G3 X-9.875 Y0.116 Z14.75 I0 J0.162
X-9.875 Y-0.209 Z14.5 I0 J-0.162
X-9.875 Y0.116 Z14.25 I0 J0.163
X-9.875 Y-0.209 Z14 I0 J-0.163
X-9.875 Y0.116 Z13.75 I0 J0.163
X-9.875 Y-0.209 Z13.5 I0 J-0.163
X-9.875 Y0.116 Z13.25 I0 J0.163
X-9.875 Y-0.209 Z13 I0 J-0.163
X-9.875 Y0.116 Z12.75 I0 J0.163
X-9.875 Y-0.209 Z12.5 I0 J-0.163
X-9.875 Y0.116 Z12.25 I0 J0.163
X-9.875 Y-0.209 Z12 I0 J-0.163
X-9.713 Y-0.036 Z11.87 I0 J0.163
X-9.897 Y0.114 Z11.739 I-0.162 J-0.011
X-9.853 Y-0.208 I0.022 J-0.161
X-9.897 Y0.114 I-0.022 J0.161
G1 X-9.927 Y0.104
X-9.951 Y0.083
X-9.965 Y0.054
X-9.967 Y0.023
X-9.875 Y-0.047
Z39
X-29.875 Y-0.04
Z17
Z15
X-29.956 Y-0.121
X-29.95 Y-0.152
X-29.932 Y-0.179
X-29.906 Y-0.196
X-29.875 Y-0.203
G3 X-29.875 Y0.122 Z14.75 I0 J0.162
X-29.875 Y-0.203 Z14.5 I0 J-0.162
X-29.875 Y0.122 Z14.25 I0 J0.163
X-29.875 Y-0.203 Z14 I0 J-0.163
X-29.875 Y0.122 Z13.75 I0 J0.163
X-29.875 Y-0.203 Z13.5 I0 J-0.163
X-29.875 Y0.122 Z13.25 I0 J0.163
X-29.875 Y-0.203 Z13 I0 J-0.163
X-29.875 Y0.122 Z12.75 I0 J0.163
X-29.875 Y-0.203 Z12.5 I0 J-0.163
X-29.875 Y0.122 Z12.25 I0 J0.163
X-29.875 Y-0.203 Z12 I0 J-0.163
X-29.713 Y-0.029 Z11.87 I0 J0.163
X-29.897 Y0.121 Z11.739 I-0.162 J-0.011
X-29.853 Y-0.201 I0.022 J-0.161
X-29.897 Y0.121 I-0.022 J0.161
G1 X-29.927 Y0.111
X-29.951 Y0.09
X-29.965 Y0.061
X-29.967 Y0.029
X-29.875 Y-0.04
Z49
(When using Fusion 360 for Personal Use, the feedrate of)
(rapid moves is reduced to match the feedrate of cutting)
(moves, which can increase machining time. Unrestricted rapid)
(moves are available with a Fusion 360 Subscription.)

(Bohrfrasen2)
G0 X-9.875 Y-0.047
G1 Z49 F1000
Z4.261
Z2.261
X-9.956 Y-0.128
X-9.95 Y-0.159
X-9.932 Y-0.185
X-9.906 Y-0.203
X-9.875 Y-0.209
G3 X-9.875 Y0.116 Z2.011 I0 J0.162
X-9.875 Y-0.209 Z1.761 I0 J-0.162
X-9.875 Y0.116 Z1.511 I0 J0.163
X-9.875 Y-0.209 Z1.261 I0 J-0.163
X-9.875 Y0.116 Z1.011 I0 J0.163
X-9.875 Y-0.209 Z0.761 I0 J-0.163
X-9.875 Y0.116 Z0.511 I0 J0.163
X-9.875 Y-0.209 Z0.261 I0 J-0.163
X-9.875 Y0.116 Z0.011 I0 J0.163
X-9.875 Y-0.209 Z-0.239 I0 J-0.163
X-9.713 Y-0.036 Z-0.37 I0 J0.163
X-9.897 Y0.114 Z-0.5 I-0.162 J-0.011
X-9.853 Y-0.208 I0.022 J-0.161
X-9.897 Y0.114 I-0.022 J0.161
G1 X-9.927 Y0.104
X-9.951 Y0.083
X-9.965 Y0.054
X-9.967 Y0.023
X-9.875 Y-0.047
Z39
X-29.875 Y-0.04
Z4.261
Z2.261
X-29.956 Y-0.121
X-29.95 Y-0.152
X-29.932 Y-0.179
X-29.906 Y-0.196
X-29.875 Y-0.203
G3 X-29.875 Y0.122 Z2.011 I0 J0.162
X-29.875 Y-0.203 Z1.761 I0 J-0.162
X-29.875 Y0.122 Z1.511 I0 J0.163
X-29.875 Y-0.203 Z1.261 I0 J-0.163
X-29.875 Y0.122 Z1.011 I0 J0.163
X-29.875 Y-0.203 Z0.761 I0 J-0.163
X-29.875 Y0.122 Z0.511 I0 J0.163
X-29.875 Y-0.203 Z0.261 I0 J-0.163
X-29.875 Y0.122 Z0.011 I0 J0.163
X-29.875 Y-0.203 Z-0.239 I0 J-0.163
X-29.713 Y-0.029 Z-0.37 I0 J0.163
X-29.897 Y0.121 Z-0.5 I-0.162 J-0.011
X-29.853 Y-0.201 I0.022 J-0.161
X-29.897 Y0.121 I-0.022 J0.161
G1 X-29.927 Y0.111
X-29.951 Y0.09
X-29.965 Y0.061
X-29.967 Y0.029
X-29.875 Y-0.04
Z49
(When using Fusion 360 for Personal Use, the feedrate of)
(rapid moves is reduced to match the feedrate of cutting)
(moves, which can increase machining time. Unrestricted rapid)
(moves are available with a Fusion 360 Subscription.)

(Bohrfrasen3)
G0 X-141.386 Y-0.003
G1 Z49 F1000
Z17
Z15
X-141.468 Y-0.084
X-141.461 Y-0.115
X-141.444 Y-0.142
X-141.417 Y-0.159
X-141.386 Y-0.165
G3 X-141.386 Y0.16 Z14.75 I0 J0.162
X-141.386 Y-0.165 Z14.5 I0 J-0.162
X-141.386 Y0.16 Z14.25 I0 J0.163
X-141.386 Y-0.165 Z14 I0 J-0.163
X-141.386 Y0.16 Z13.75 I0 J0.163
X-141.386 Y-0.165 Z13.5 I0 J-0.163
X-141.386 Y0.16 Z13.25 I0 J0.163
X-141.386 Y-0.165 Z13 I0 J-0.163
X-141.386 Y0.16 Z12.75 I0 J0.163
X-141.386 Y-0.165 Z12.5 I0 J-0.163
X-141.386 Y0.16 Z12.25 I0 J0.163
X-141.386 Y-0.165 Z12 I0 J-0.163
X-141.224 Y0.008 Z11.87 I0 J0.163
X-141.408 Y0.158 Z11.739 I-0.162 J-0.011
X-141.364 Y-0.164 I0.022 J-0.161
X-141.408 Y0.158 I-0.022 J0.161
G1 X-141.438 Y0.148
X-141.462 Y0.127
X-141.476 Y0.098
X-141.478 Y0.067
X-141.386 Y-0.003
Z39
X-179.386 Y0.01
Z17
Z15
X-179.468 Y-0.071
X-179.461 Y-0.103
X-179.444 Y-0.129
X-179.417 Y-0.147
X-179.386 Y-0.153
G3 X-179.386 Y0.172 Z14.75 I0 J0.162
X-179.386 Y-0.153 Z14.5 I0 J-0.163
X-179.386 Y0.172 Z14.25 I0 J0.163
X-179.386 Y-0.153 Z14 I0 J-0.163
X-179.386 Y0.172 Z13.75 I0 J0.163
X-179.386 Y-0.153 Z13.5 I0 J-0.163
X-179.386 Y0.172 Z13.25 I0 J0.163
X-179.386 Y-0.153 Z13 I0 J-0.163
X-179.386 Y0.172 Z12.75 I0 J0.163
X-179.386 Y-0.153 Z12.5 I0 J-0.163
X-179.386 Y0.172 Z12.25 I0 J0.163
X-179.386 Y-0.153 Z12 I0 J-0.163
X-179.224 Y0.021 Z11.87 I0 J0.163
X-179.408 Y0.171 Z11.739 I-0.162 J-0.011
X-179.364 Y-0.151 I0.022 J-0.161
X-179.408 Y0.171 I-0.022 J0.161
G1 X-179.438 Y0.16
X-179.462 Y0.139
X-179.476 Y0.111
X-179.478 Y0.079
X-179.386 Y0.01
Z49
(When using Fusion 360 for Personal Use, the feedrate of)
(rapid moves is reduced to match the feedrate of cutting)
(moves, which can increase machining time. Unrestricted rapid)
(moves are available with a Fusion 360 Subscription.)

(Bohrfrasen4)
G0 X-141.386 Y-0.003
G1 Z49 F1000
Z4.261
Z2.261
X-141.468 Y-0.084
X-141.461 Y-0.115
X-141.444 Y-0.142
X-141.417 Y-0.159
X-141.386 Y-0.165
G3 X-141.386 Y0.16 Z2.011 I0 J0.162
X-141.386 Y-0.165 Z1.761 I0 J-0.162
X-141.386 Y0.16 Z1.511 I0 J0.163
X-141.386 Y-0.165 Z1.261 I0 J-0.163
X-141.386 Y0.16 Z1.011 I0 J0.163
X-141.386 Y-0.165 Z0.761 I0 J-0.163
X-141.386 Y0.16 Z0.511 I0 J0.163
X-141.386 Y-0.165 Z0.261 I0 J-0.163
X-141.386 Y0.16 Z0.011 I0 J0.163
X-141.386 Y-0.165 Z-0.239 I0 J-0.163
X-141.224 Y0.008 Z-0.37 I0 J0.163
X-141.408 Y0.158 Z-0.5 I-0.162 J-0.011
X-141.364 Y-0.164 I0.022 J-0.161
X-141.408 Y0.158 I-0.022 J0.161
G1 X-141.438 Y0.148
X-141.462 Y0.127
X-141.476 Y0.098
X-141.478 Y0.067
X-141.386 Y-0.003
Z39
X-179.386 Y0.01
Z4.261
Z2.261
X-179.468 Y-0.071
X-179.461 Y-0.103
X-179.444 Y-0.129
X-179.417 Y-0.147
X-179.386 Y-0.153
G3 X-179.386 Y0.172 Z2.011 I0 J0.162
X-179.386 Y-0.153 Z1.761 I0 J-0.163
X-179.386 Y0.172 Z1.511 I0 J0.163
X-179.386 Y-0.153 Z1.261 I0 J-0.163
X-179.386 Y0.172 Z1.011 I0 J0.163
X-179.386 Y-0.153 Z0.761 I0 J-0.163
X-179.386 Y0.172 Z0.511 I0 J0.163
X-179.386 Y-0.153 Z0.261 I0 J-0.163
X-179.386 Y0.172 Z0.011 I0 J0.163
X-179.386 Y-0.153 Z-0.239 I0 J-0.163
X-179.224 Y0.021 Z-0.37 I0 J0.163
X-179.408 Y0.171 Z-0.5 I-0.162 J-0.011
X-179.364 Y-0.151 I0.022 J-0.161
X-179.408 Y0.171 I-0.022 J0.161
G1 X-179.438 Y0.16
X-179.462 Y0.139
X-179.476 Y0.111
X-179.478 Y0.079
X-179.386 Y0.01
Z49
(When using Fusion 360 for Personal Use, the feedrate of)
(rapid moves is reduced to match the feedrate of cutting)
(moves, which can increase machining time. Unrestricted rapid)
(moves are available with a Fusion 360 Subscription.)

(2D-Kontur1)
S3000 M3
G0 X-186.478 Y-10.805
G1 Z49 F1000
Z19.5
Z4.817 F333.3
Y-10.797 Z4.747 F1000
Y-10.774 Z4.68
Y-10.736 Z4.62
Y-10.686 Z4.569
Y-10.626 Z4.531
Y-10.558 Z4.508
Y-10.488 Z4.5
X-186.477 Y-6.988
X-186.471 Y7.012
X-186.47 Y10.512
Y10.583 Z4.508
Y10.65 Z4.531
Y10.71 Z4.569
Y10.76 Z4.62
Y10.798 Z4.68
Y10.822 Z4.747
Y10.83 Z4.817
Z39
X-186.478 Y-10.805
Z19.5
Z9.5 F333.3
Z-0.183
Y-10.797 Z-0.253 F1000
Y-10.774 Z-0.32
Y-10.736 Z-0.38
Y-10.686 Z-0.431
Y-10.626 Z-0.469
Y-10.558 Z-0.492
Y-10.488 Z-0.5
X-186.477 Y-6.988
X-186.471 Y7.012
X-186.47 Y10.512
Y10.583 Z-0.492
Y10.65 Z-0.469
Y10.71 Z-0.431
Y10.76 Z-0.38
Y10.798 Z-0.32
Y10.822 Z-0.253
Y10.83 Z-0.183
Z49
M5
M30
