(Rohr_Arm_X8)
(Bearbeiten)
(  Hersteller: ChinaCnc)
(  model: 3040T)
(  description: Generic 3-axis)
(T5  D=3.175 CR=0 - ZMIN=-0.5 - Schaftfraser)
G90 G94
G17
G21

(Bohrfrasen1)
T5
S6000 M3
G54
G0 X-6.375 Y-0.048
Z49
Z17
G1 Z15 F1000
X-6.406 Y-0.079
X-6.402 Y-0.095
X-6.391 Y-0.106
X-6.375 Y-0.11
X-6.345 Y-0.103 Z14.96
X-6.322 Y-0.082 Z14.92
X-6.313 Y-0.052 Z14.88
X-6.318 Y-0.022 Z14.84
X-6.338 Y0.002 Z14.801
X-6.367 Y0.014 Z14.761
X-6.397 Y0.01 Z14.721
X-6.423 Y-0.008 Z14.681
X-6.436 Y-0.035 Z14.641
X-6.435 Y-0.066 Z14.601
X-6.418 Y-0.093 Z14.561
X-6.392 Y-0.108 Z14.521
X-6.361 Y-0.109 Z14.481
X-6.333 Y-0.094 Z14.441
X-6.316 Y-0.068 Z14.402
X-6.313 Y-0.038 Z14.362
X-6.326 Y-0.009 Z14.322
X-6.351 Y0.01 Z14.282
X-6.381 Y0.014 Z14.242
X-6.41 Y0.004 Z14.202
X-6.431 Y-0.02 Z14.162
X-6.437 Y-0.05 Z14.122
X-6.429 Y-0.08 Z14.082
X-6.407 Y-0.102 Z14.043
X-6.377 Y-0.11 Z14.003
X-6.347 Y-0.104 Z13.963
X-6.323 Y-0.083 Z13.923
X-6.313 Y-0.054 Z13.883
X-6.317 Y-0.024 Z13.843
X-6.336 Y0.001 Z13.803
X-6.365 Y0.014 Z13.763
X-6.395 Y0.011 Z13.723
X-6.421 Y-0.006 Z13.684
X-6.436 Y-0.033 Z13.644
X-6.435 Y-0.064 Z13.604
X-6.42 Y-0.091 Z13.564
X-6.394 Y-0.108 Z13.524
X-6.363 Y-0.109 Z13.484
X-6.335 Y-0.096 Z13.444
X-6.317 Y-0.07 Z13.404
X-6.313 Y-0.04 Z13.364
X-6.325 Y-0.011 Z13.324
X-6.349 Y0.009 Z13.285
X-6.379 Y0.014 Z13.245
X-6.409 Y0.005 Z13.205
X-6.43 Y-0.018 Z13.165
X-6.437 Y-0.048 Z13.125
X-6.43 Y-0.078 Z13.085
X-6.409 Y-0.101 Z13.045
X-6.379 Y-0.11 Z13.005
X-6.349 Y-0.105 Z12.965
X-6.325 Y-0.085 Z12.926
X-6.313 Y-0.056 Z12.886
X-6.317 Y-0.025 Z12.846
X-6.335 Y0 Z12.806
X-6.363 Y0.013 Z12.766
X-6.393 Y0.012 Z12.726
X-6.42 Y-0.004 Z12.686
X-6.435 Y-0.031 Z12.646
X-6.436 Y-0.062 Z12.606
X-6.421 Y-0.09 Z12.567
X-6.396 Y-0.107 Z12.527
X-6.365 Y-0.11 Z12.487
X-6.336 Y-0.097 Z12.447
X-6.317 Y-0.072 Z12.407
X-6.313 Y-0.042 Z12.367
X-6.323 Y-0.013 Z12.327
X-6.347 Y0.008 Z12.287
X-6.377 Y0.015 Z12.247
X-6.407 Y0.006 Z12.207
X-6.429 Y-0.016 Z12.168
X-6.437 Y-0.046 Z12.128
X-6.431 Y-0.076 Z12.088
X-6.41 Y-0.099 Z12.048
X-6.381 Y-0.11 Z12.008
X-6.351 Y-0.105 Z11.968
X-6.326 Y-0.087 Z11.928
X-6.313 Y-0.058 Z11.888
X-6.316 Y-0.027 Z11.848
X-6.333 Y-0.002 Z11.809
X-6.36 Y0.013 Z11.769
G3 X-6.39 Y-0.109 I-0.015 J-0.061
X-6.36 Y0.013 I0.015 J0.061
G1 X-6.377 Y0.012
X-6.39 Y0.004
X-6.398 Y-0.01
X-6.375 Y-0.048
G0 Z39
X-26.375 Y-0.041
Z17
G1 Z15 F1000
X-26.406 Y-0.072
X-26.402 Y-0.088
X-26.391 Y-0.1
X-26.375 Y-0.104
X-26.345 Y-0.096 Z14.96
X-26.322 Y-0.075 Z14.92
X-26.313 Y-0.045 Z14.88
X-26.318 Y-0.015 Z14.84
X-26.338 Y0.009 Z14.801
X-26.367 Y0.021 Z14.761
X-26.397 Y0.017 Z14.721
X-26.423 Y-0.001 Z14.681
X-26.436 Y-0.029 Z14.641
X-26.435 Y-0.06 Z14.601
X-26.418 Y-0.086 Z14.561
X-26.392 Y-0.102 Z14.521
X-26.361 Z14.481
X-26.333 Y-0.088 Z14.441
X-26.316 Y-0.062 Z14.402
X-26.313 Y-0.031 Z14.362
X-26.326 Y-0.003 Z14.322
X-26.351 Y0.016 Z14.282
X-26.381 Y0.021 Z14.242
X-26.41 Y0.01 Z14.202
X-26.431 Y-0.013 Z14.162
X-26.437 Y-0.043 Z14.122
X-26.429 Y-0.073 Z14.082
X-26.407 Y-0.095 Z14.043
X-26.377 Y-0.104 Z14.003
X-26.347 Y-0.097 Z13.963
X-26.323 Y-0.077 Z13.923
X-26.313 Y-0.048 Z13.883
X-26.317 Y-0.017 Z13.843
X-26.336 Y0.008 Z13.803
X-26.365 Y0.02 Z13.763
X-26.395 Y0.018 Z13.723
X-26.421 Y0.001 Z13.684
X-26.436 Y-0.027 Z13.644
X-26.435 Y-0.058 Z13.604
X-26.42 Y-0.085 Z13.564
X-26.394 Y-0.101 Z13.524
X-26.363 Y-0.102 Z13.484
X-26.335 Y-0.089 Z13.444
X-26.317 Y-0.064 Z13.404
X-26.313 Y-0.033 Z13.364
X-26.325 Y-0.004 Z13.324
X-26.349 Y0.015 Z13.285
X-26.379 Y0.021 Z13.245
X-26.409 Y0.011 Z13.205
X-26.43 Y-0.011 Z13.165
X-26.437 Y-0.041 Z13.125
X-26.43 Y-0.071 Z13.085
X-26.409 Y-0.094 Z13.045
X-26.379 Y-0.104 Z13.005
X-26.349 Y-0.098 Z12.965
X-26.325 Y-0.078 Z12.926
X-26.313 Y-0.05 Z12.886
X-26.317 Y-0.019 Z12.846
X-26.335 Y0.006 Z12.806
X-26.363 Y0.02 Z12.766
X-26.393 Y0.018 Z12.726
X-26.42 Y0.002 Z12.686
X-26.435 Y-0.025 Z12.646
X-26.436 Y-0.056 Z12.606
X-26.421 Y-0.083 Z12.567
X-26.396 Y-0.1 Z12.527
X-26.365 Y-0.103 Z12.487
X-26.336 Y-0.09 Z12.447
X-26.317 Y-0.066 Z12.407
X-26.313 Y-0.035 Z12.367
X-26.323 Y-0.006 Z12.327
X-26.347 Y0.015 Z12.287
X-26.377 Y0.021 Z12.247
X-26.407 Y0.013 Z12.207
X-26.429 Y-0.009 Z12.168
X-26.437 Y-0.039 Z12.128
X-26.431 Y-0.069 Z12.088
X-26.41 Y-0.093 Z12.048
X-26.381 Y-0.103 Z12.008
X-26.351 Y-0.099 Z11.968
X-26.326 Y-0.08 Z11.928
X-26.313 Y-0.052 Z11.888
X-26.316 Y-0.021 Z11.848
X-26.333 Y0.005 Z11.809
X-26.36 Y0.02 Z11.769
G3 X-26.39 Y-0.102 I-0.015 J-0.061
X-26.36 Y0.02 I0.015 J0.061
G1 X-26.377 Y0.019
X-26.39 Y0.011
X-26.398 Y-0.004
X-26.375 Y-0.041
G0 Z49

(Bohrfrasen2)
X-6.375 Y-0.048
Z49
Z4.231
G1 Z2.231 F1000
X-6.406 Y-0.079
X-6.402 Y-0.095
X-6.391 Y-0.106
X-6.375 Y-0.11
X-6.345 Y-0.103 Z2.191
X-6.322 Y-0.081 Z2.151
X-6.313 Y-0.051 Z2.111
X-6.319 Y-0.021 Z2.071
X-6.339 Y0.003 Z2.031
X-6.368 Y0.014 Z1.99
X-6.399 Y0.01 Z1.95
X-6.424 Y-0.009 Z1.91
X-6.437 Y-0.037 Z1.87
X-6.434 Y-0.068 Z1.83
X-6.417 Y-0.094 Z1.79
X-6.389 Y-0.109 Z1.749
X-6.358 Y-0.108 Z1.709
X-6.331 Y-0.092 Z1.669
X-6.315 Y-0.065 Z1.629
X-6.314 Y-0.034 Z1.589
X-6.328 Y-0.006 Z1.549
X-6.354 Y0.011 Z1.508
X-6.385 Y0.014 Z1.468
X-6.414 Y0.001 Z1.428
X-6.433 Y-0.024 Z1.388
X-6.437 Y-0.055 Z1.348
X-6.426 Y-0.084 Z1.308
X-6.402 Y-0.104 Z1.267
X-6.372 Y-0.11 Z1.227
X-6.342 Y-0.101 Z1.187
X-6.32 Y-0.078 Z1.147
X-6.313 Y-0.048 Z1.107
X-6.32 Y-0.018 Z1.067
X-6.341 Y0.005 Z1.026
X-6.371 Y0.014 Z0.986
X-6.402 Y0.009 Z0.946
X-6.426 Y-0.011 Z0.906
X-6.437 Y-0.041 Z0.866
X-6.433 Y-0.072 Z0.826
X-6.414 Y-0.097 Z0.785
X-6.386 Y-0.109 Z0.745
X-6.355 Y-0.107 Z0.705
X-6.329 Y-0.09 Z0.665
X-6.314 Y-0.062 Z0.625
X-6.315 Y-0.031 Z0.585
X-6.331 Y-0.004 Z0.544
X-6.357 Y0.012 Z0.504
X-6.388 Y0.013 Z0.464
X-6.416 Y-0.001 Z0.424
X-6.434 Y-0.027 Z0.384
X-6.437 Y-0.058 Z0.344
X-6.424 Y-0.087 Z0.303
X-6.399 Y-0.105 Z0.263
X-6.368 Y-0.11 Z0.223
X-6.339 Y-0.099 Z0.183
X-6.319 Y-0.075 Z0.143
X-6.313 Y-0.045 Z0.103
X-6.322 Y-0.015 Z0.062
X-6.344 Y0.007 Z0.022
X-6.374 Y0.015 Z-0.018
X-6.405 Y0.007 Z-0.058
X-6.428 Y-0.014 Z-0.098
X-6.437 Y-0.044 Z-0.138
X-6.432 Y-0.075 Z-0.179
X-6.412 Y-0.099 Z-0.219
X-6.383 Y-0.11 Z-0.259
X-6.352 Y-0.106 Z-0.299
X-6.327 Y-0.087 Z-0.339
X-6.313 Y-0.059 Z-0.379
X-6.316 Y-0.028 Z-0.42
X-6.333 Y-0.002 Z-0.46
X-6.36 Y0.013 Z-0.5
G3 X-6.39 Y-0.109 I-0.015 J-0.061
X-6.36 Y0.013 I0.015 J0.061
G1 X-6.377 Y0.012
X-6.39 Y0.004
X-6.398 Y-0.01
X-6.375 Y-0.048
G0 Z39
X-26.375 Y-0.041
Z4.231
G1 Z2.231 F1000
X-26.406 Y-0.072
X-26.402 Y-0.088
X-26.391 Y-0.1
X-26.375 Y-0.104
X-26.345 Y-0.096 Z2.191
X-26.322 Y-0.075 Z2.151
X-26.313 Y-0.045 Z2.111
X-26.319 Y-0.014 Z2.071
X-26.339 Y0.01 Z2.031
X-26.368 Y0.021 Z1.99
X-26.399 Y0.017 Z1.95
X-26.424 Y-0.002 Z1.91
X-26.437 Y-0.031 Z1.87
X-26.434 Y-0.062 Z1.83
X-26.417 Y-0.088 Z1.79
X-26.389 Y-0.102 Z1.749
X-26.358 Y-0.101 Z1.709
X-26.331 Y-0.086 Z1.669
X-26.315 Y-0.059 Z1.629
X-26.314 Y-0.027 Z1.589
X-26.328 Y0 Z1.549
X-26.354 Y0.018 Z1.508
X-26.385 Y0.02 Z1.468
X-26.414 Y0.008 Z1.428
X-26.433 Y-0.017 Z1.388
X-26.437 Y-0.048 Z1.348
X-26.426 Y-0.077 Z1.308
X-26.402 Y-0.097 Z1.267
X-26.372 Y-0.104 Z1.227
X-26.342 Y-0.094 Z1.187
X-26.32 Y-0.072 Z1.147
X-26.312 Y-0.042 Z1.107
X-26.32 Y-0.011 Z1.067
X-26.341 Y0.012 Z1.026
X-26.371 Y0.021 Z0.986
X-26.402 Y0.015 Z0.946
X-26.426 Y-0.005 Z0.906
X-26.437 Y-0.034 Z0.866
X-26.433 Y-0.065 Z0.826
X-26.414 Y-0.09 Z0.785
X-26.386 Y-0.103 Z0.745
X-26.355 Y-0.1 Z0.705
X-26.329 Y-0.083 Z0.665
X-26.314 Y-0.056 Z0.625
X-26.315 Y-0.024 Z0.585
X-26.331 Y0.003 Z0.544
X-26.357 Y0.019 Z0.504
X-26.388 Y0.02 Z0.464
X-26.416 Y0.006 Z0.424
X-26.434 Y-0.02 Z0.384
X-26.437 Y-0.051 Z0.344
X-26.424 Y-0.08 Z0.303
X-26.399 Y-0.099 Z0.263
X-26.368 Y-0.103 Z0.223
X-26.339 Y-0.092 Z0.183
X-26.319 Y-0.069 Z0.143
X-26.313 Y-0.038 Z0.103
X-26.322 Y-0.008 Z0.062
X-26.344 Y0.013 Z0.022
X-26.374 Y0.021 Z-0.018
X-26.405 Y0.014 Z-0.058
X-26.428 Y-0.008 Z-0.098
X-26.437 Y-0.037 Z-0.138
X-26.432 Y-0.068 Z-0.179
X-26.412 Y-0.092 Z-0.219
X-26.383 Y-0.103 Z-0.259
X-26.352 Y-0.099 Z-0.299
X-26.327 Y-0.081 Z-0.339
X-26.313 Y-0.052 Z-0.379
X-26.316 Y-0.021 Z-0.42
X-26.333 Y0.005 Z-0.46
X-26.36 Y0.02 Z-0.5
G3 X-26.39 Y-0.102 I-0.015 J-0.061
X-26.36 Y0.02 I0.015 J0.061
G1 X-26.377 Y0.019
X-26.39 Y0.011
X-26.398 Y-0.004
X-26.375 Y-0.041
G0 Z49

(Bohrfrasen3)
X-186.865 Y0.012
Z49
Z17
G1 Z15 F1000
X-186.897 Y-0.019
X-186.892 Y-0.035
X-186.881 Y-0.046
X-186.865 Y-0.05
X-186.835 Y-0.043 Z14.96
X-186.813 Y-0.021 Z14.92
X-186.803 Y0.008 Z14.88
X-186.809 Y0.039 Z14.84
X-186.828 Y0.063 Z14.801
X-186.857 Y0.074 Z14.761
X-186.888 Y0.071 Z14.721
X-186.913 Y0.053 Z14.681
X-186.927 Y0.025 Z14.641
X-186.925 Y-0.006 Z14.601
X-186.909 Y-0.033 Z14.561
X-186.882 Y-0.048 Z14.521
X-186.851 Y-0.049 Z14.481
X-186.823 Y-0.034 Z14.441
X-186.806 Y-0.008 Z14.402
X-186.804 Y0.023 Z14.362
X-186.816 Y0.051 Z14.322
X-186.841 Y0.07 Z14.282
X-186.872 Y0.074 Z14.242
X-186.901 Y0.064 Z14.202
X-186.921 Y0.041 Z14.162
X-186.928 Y0.01 Z14.122
X-186.919 Y-0.02 Z14.082
X-186.897 Y-0.041 Z14.043
X-186.867 Y-0.05 Z14.003
X-186.837 Y-0.044 Z13.963
X-186.814 Y-0.023 Z13.923
X-186.803 Y0.006 Z13.883
X-186.808 Y0.037 Z13.843
X-186.827 Y0.061 Z13.803
X-186.855 Y0.074 Z13.763
X-186.886 Y0.071 Z13.723
X-186.912 Y0.054 Z13.684
X-186.926 Y0.027 Z13.644
Y-0.004 Z13.604
X-186.91 Y-0.031 Z13.564
X-186.884 Y-0.047 Z13.524
X-186.853 Y-0.049 Z13.484
X-186.825 Y-0.035 Z13.444
X-186.807 Y-0.01 Z13.404
X-186.803 Y0.021 Z13.364
X-186.815 Y0.049 Z13.324
X-186.839 Y0.069 Z13.285
X-186.869 Y0.075 Z13.245
X-186.899 Y0.065 Z13.205
X-186.92 Y0.042 Z13.165
X-186.928 Y0.012 Z13.125
X-186.92 Y-0.018 Z13.085
X-186.899 Y-0.04 Z13.045
X-186.87 Y-0.05 Z13.005
X-186.839 Y-0.044 Z12.965
X-186.815 Y-0.025 Z12.926
X-186.803 Y0.004 Z12.886
X-186.807 Y0.035 Z12.846
X-186.825 Y0.06 Z12.806
X-186.853 Y0.074 Z12.766
X-186.884 Y0.072 Z12.726
X-186.91 Y0.056 Z12.686
X-186.926 Y0.029 Z12.646
Y-0.002 Z12.606
X-186.912 Y-0.03 Z12.567
X-186.886 Y-0.047 Z12.527
X-186.855 Y-0.049 Z12.487
X-186.827 Y-0.037 Z12.447
X-186.808 Y-0.012 Z12.407
X-186.803 Y0.019 Z12.367
X-186.814 Y0.048 Z12.327
X-186.837 Y0.068 Z12.287
X-186.867 Y0.075 Z12.247
X-186.897 Y0.066 Z12.207
X-186.919 Y0.044 Z12.168
X-186.928 Y0.014 Z12.128
X-186.921 Y-0.016 Z12.088
X-186.901 Y-0.039 Z12.048
X-186.872 Y-0.05 Z12.008
X-186.841 Y-0.045 Z11.968
X-186.816 Y-0.026 Z11.928
X-186.804 Y0.002 Z11.888
X-186.806 Y0.033 Z11.848
X-186.823 Y0.059 Z11.809
X-186.851 Y0.073 Z11.769
G3 X-186.88 Y-0.048 I-0.015 J-0.061
X-186.851 Y0.073 I0.015 J0.061
G1 X-186.867
X-186.881 Y0.064
X-186.888 Y0.05
X-186.865 Y0.012
G0 Z39
X-148.865 Y0
Z17
G1 Z15 F1000
X-148.897 Y-0.032
X-148.892 Y-0.047
X-148.881 Y-0.059
X-148.865 Y-0.063
X-148.835 Y-0.055 Z14.96
X-148.813 Y-0.034 Z14.92
X-148.803 Y-0.005 Z14.88
X-148.809 Y0.026 Z14.84
X-148.828 Y0.05 Z14.801
X-148.857 Y0.062 Z14.761
X-148.888 Y0.058 Z14.721
X-148.913 Y0.04 Z14.681
X-148.927 Y0.012 Z14.641
X-148.925 Y-0.019 Z14.601
X-148.909 Y-0.045 Z14.561
X-148.882 Y-0.061 Z14.521
X-148.851 Z14.481
X-148.823 Y-0.047 Z14.441
X-148.806 Y-0.021 Z14.402
X-148.804 Y0.01 Z14.362
X-148.816 Y0.038 Z14.322
X-148.841 Y0.057 Z14.282
X-148.872 Y0.062 Z14.242
X-148.901 Y0.051 Z14.202
X-148.921 Y0.028 Z14.162
X-148.928 Y-0.002 Z14.122
X-148.919 Y-0.032 Z14.082
X-148.897 Y-0.054 Z14.043
X-148.867 Y-0.063 Z14.003
X-148.837 Y-0.056 Z13.963
X-148.814 Y-0.036 Z13.923
X-148.803 Y-0.007 Z13.883
X-148.808 Y0.024 Z13.843
X-148.827 Y0.049 Z13.803
X-148.855 Y0.061 Z13.763
X-148.886 Y0.059 Z13.723
X-148.912 Y0.042 Z13.684
X-148.926 Y0.014 Z13.644
Y-0.017 Z13.604
X-148.91 Y-0.044 Z13.564
X-148.884 Y-0.06 Z13.524
X-148.853 Y-0.062 Z13.484
X-148.825 Y-0.048 Z13.444
X-148.807 Y-0.023 Z13.404
X-148.803 Y0.008 Z13.364
X-148.815 Y0.037 Z13.324
X-148.839 Y0.056 Z13.285
X-148.869 Y0.062 Z13.245
X-148.899 Y0.052 Z13.205
X-148.92 Y0.03 Z13.165
X-148.928 Y0 Z13.125
X-148.92 Y-0.03 Z13.085
X-148.899 Y-0.053 Z13.045
X-148.87 Y-0.063 Z13.005
X-148.839 Y-0.057 Z12.965
X-148.815 Y-0.037 Z12.926
X-148.803 Y-0.009 Z12.886
X-148.807 Y0.022 Z12.846
X-148.825 Y0.047 Z12.806
X-148.853 Y0.061 Z12.766
X-148.884 Y0.059 Z12.726
X-148.91 Y0.043 Z12.686
X-148.926 Y0.016 Z12.646
Y-0.015 Z12.606
X-148.912 Y-0.042 Z12.567
X-148.886 Y-0.059 Z12.527
X-148.855 Y-0.062 Z12.487
X-148.827 Y-0.049 Z12.447
X-148.808 Y-0.025 Z12.407
X-148.803 Y0.006 Z12.367
X-148.814 Y0.035 Z12.327
X-148.837 Y0.055 Z12.287
X-148.867 Y0.062 Z12.247
X-148.897 Y0.053 Z12.207
X-148.919 Y0.032 Z12.168
X-148.928 Y0.002 Z12.128
X-148.921 Y-0.029 Z12.088
X-148.901 Y-0.052 Z12.048
X-148.872 Y-0.063 Z12.008
X-148.841 Y-0.058 Z11.968
X-148.816 Y-0.039 Z11.928
X-148.804 Y-0.011 Z11.888
X-148.806 Y0.02 Z11.848
X-148.823 Y0.046 Z11.809
X-148.851 Y0.06 Z11.769
G3 X-148.88 Y-0.061 I-0.015 J-0.061
X-148.851 Y0.06 I0.015 J0.061
G1 X-148.867
X-148.881 Y0.052
X-148.888 Y0.037
X-148.865 Y0
G0 Z49

(Bohrfrasen4)
X-148.865 Y0
Z49
Z4.231
G1 Z2.231 F1000
X-148.897 Y-0.032
X-148.892 Y-0.047
X-148.881 Y-0.059
X-148.865 Y-0.063
X-148.837 Y-0.056 Z2.193
X-148.814 Y-0.037 Z2.155
X-148.803 Y-0.009 Z2.118
X-148.806 Y0.02 Z2.08
X-148.822 Y0.045 Z2.042
X-148.848 Y0.06 Z2.004
X-148.877 Y0.061 Z1.966
X-148.904 Y0.049 Z1.928
X-148.922 Y0.025 Z1.89
X-148.928 Y-0.004 Z1.852
X-148.919 Y-0.032 Z1.814
X-148.899 Y-0.053 Z1.776
X-148.871 Y-0.063 Z1.738
X-148.842 Y-0.058 Z1.7
X-148.818 Y-0.041 Z1.662
X-148.804 Y-0.014 Z1.624
X-148.805 Y0.015 Z1.586
X-148.819 Y0.041 Z1.549
X-148.843 Y0.058 Z1.511
X-148.872 Y0.062 Z1.473
X-148.9 Y0.052 Z1.435
X-148.92 Y0.03 Z1.397
X-148.928 Y0.002 Z1.359
X-148.922 Y-0.027 Z1.321
X-148.903 Y-0.05 Z1.283
X-148.876 Y-0.062 Z1.245
X-148.847 Y-0.06 Z1.207
X-148.82 Y-0.044 Z1.167
X-148.805 Y-0.016 Z1.127
Y0.015 Z1.087
X-148.82 Y0.042 Z1.046
X-148.846 Y0.059 Z1.006
X-148.877 Y0.061 Z0.966
X-148.905 Y0.048 Z0.926
X-148.924 Y0.022 Z0.886
X-148.927 Y-0.009 Z0.846
X-148.915 Y-0.038 Z0.805
X-148.891 Y-0.057 Z0.765
X-148.86 Y-0.063 Z0.725
X-148.831 Y-0.053 Z0.685
X-148.81 Y-0.029 Z0.645
X-148.803 Y0.001 Z0.605
X-148.811 Y0.031 Z0.564
X-148.833 Y0.053 Z0.524
X-148.861 Y0.062 Z0.486
X-148.89 Y0.057 Z0.448
X-148.914 Y0.039 Z0.41
X-148.927 Y0.012 Z0.373
X-148.926 Y-0.017 Z0.335
X-148.911 Y-0.043 Z0.297
X-148.886 Y-0.059 Z0.259
X-148.857 Y-0.062 Z0.221
X-148.83 Y-0.052 Z0.183
X-148.809 Y-0.028 Z0.143
X-148.803 Y0.003 Z0.103
X-148.812 Y0.032 Z0.062
X-148.835 Y0.054 Z0.022
X-148.865 Y0.062 Z-0.018
X-148.895 Y0.055 Z-0.058
X-148.918 Y0.033 Z-0.098
X-148.928 Y0.004 Z-0.138
X-148.922 Y-0.027 Z-0.179
X-148.902 Y-0.051 Z-0.219
X-148.873 Y-0.062 Z-0.259
X-148.842 Y-0.058 Z-0.299
X-148.817 Y-0.04 Z-0.339
X-148.804 Y-0.011 Z-0.379
X-148.806 Y0.02 Z-0.42
X-148.823 Y0.046 Z-0.46
X-148.851 Y0.06 Z-0.5
G3 X-148.88 Y-0.061 I-0.015 J-0.061
X-148.851 Y0.06 I0.015 J0.061
G1 X-148.867
X-148.881 Y0.052
X-148.888 Y0.037
X-148.865 Y0
G0 Z39
X-186.865 Y0.012
Z4.231
G1 Z2.231 F1000
X-186.897 Y-0.019
X-186.892 Y-0.035
X-186.881 Y-0.046
X-186.865 Y-0.05
X-186.837 Y-0.043 Z2.193
X-186.814 Y-0.024 Z2.155
X-186.803 Y0.004 Z2.118
X-186.806 Y0.033 Z2.08
X-186.822 Y0.058 Z2.042
X-186.848 Y0.072 Z2.004
X-186.877 Y0.074 Z1.966
X-186.904 Y0.061 Z1.928
X-186.922 Y0.038 Z1.89
X-186.928 Y0.007 Z1.85
X-186.917 Y-0.022 Z1.81
X-186.894 Y-0.043 Z1.769
X-186.864 Y-0.05 Z1.729
X-186.834 Y-0.042 Z1.689
X-186.812 Y-0.02 Z1.649
X-186.803 Y0.01 Z1.609
X-186.81 Y0.041 Z1.569
X-186.83 Y0.064 Z1.528
X-186.86 Y0.075 Z1.488
X-186.891 Y0.069 Z1.448
X-186.915 Y0.05 Z1.408
X-186.927 Y0.021 Z1.368
X-186.924 Y-0.01 Z1.328
X-186.906 Y-0.035 Z1.287
X-186.878 Y-0.049 Z1.247
X-186.847 Y-0.047 Z1.207
X-186.82 Y-0.031 Z1.167
X-186.805 Y-0.004 Z1.127
Y0.028 Z1.087
X-186.82 Y0.055 Z1.046
X-186.846 Y0.072 Z1.006
X-186.877 Y0.074 Z0.966
X-186.905 Y0.06 Z0.926
X-186.924 Y0.035 Z0.886
X-186.927 Y0.004 Z0.846
X-186.915 Y-0.025 Z0.805
X-186.891 Y-0.045 Z0.765
X-186.86 Y-0.05 Z0.725
X-186.831 Y-0.04 Z0.685
X-186.81 Y-0.017 Z0.645
X-186.803 Y0.014 Z0.605
X-186.811 Y0.044 Z0.564
X-186.833 Y0.066 Z0.524
X-186.861 Y0.075 Z0.486
X-186.89 Y0.07 Z0.448
X-186.914 Y0.052 Z0.41
X-186.927 Y0.025 Z0.373
X-186.926 Y-0.005 Z0.335
X-186.911 Y-0.03 Z0.297
X-186.886 Y-0.047 Z0.259
X-186.857 Y-0.05 Z0.221
X-186.83 Y-0.039 Z0.183
X-186.809 Y-0.015 Z0.143
X-186.803 Y0.015 Z0.103
X-186.812 Y0.045 Z0.062
X-186.835 Y0.067 Z0.022
X-186.865 Y0.075 Z-0.018
X-186.895 Y0.067 Z-0.058
X-186.918 Y0.046 Z-0.098
X-186.928 Y0.016 Z-0.138
X-186.922 Y-0.014 Z-0.179
X-186.902 Y-0.038 Z-0.219
X-186.873 Y-0.05 Z-0.259
X-186.842 Y-0.046 Z-0.299
X-186.817 Y-0.027 Z-0.339
X-186.804 Y0.001 Z-0.379
X-186.806 Y0.032 Z-0.42
X-186.823 Y0.058 Z-0.46
X-186.851 Y0.073 Z-0.5
G3 X-186.88 Y-0.048 I-0.015 J-0.061
X-186.851 Y0.073 I0.015 J0.061
G1 X-186.867
X-186.881 Y0.064
X-186.888 Y0.05
X-186.865 Y0.012
G0 Z49

(2D-Kontur1)
S2000 M3
X-193.957 Y-10.803
Z49
Z19.5
G1 Z7.317 F333.3
Y-10.795 Z7.247 F1000
Y-10.771 Z7.18
Y-10.734 Z7.12
Y-10.683 Z7.069
Y-10.623 Z7.031
Y-10.556 Z7.008
Y-10.485 Z7
X-193.956 Y-6.985
X-193.951 Y7.015
X-193.949 Y10.515
Y10.585 Z7.008
Y10.652 Z7.031
Y10.713 Z7.069
Y10.763 Z7.12
Y10.801 Z7.18
Y10.824 Z7.247
Y10.832 Z7.317
G0 Z39
X-193.957 Y-10.803
Z19.5
G1 Z12 F333.3
Z-0.183
Y-10.795 Z-0.253 F1000
Y-10.771 Z-0.32
Y-10.734 Z-0.38
Y-10.683 Z-0.431
Y-10.623 Z-0.469
Y-10.556 Z-0.492
Y-10.485 Z-0.5
X-193.956 Y-6.985
X-193.951 Y7.015
X-193.949 Y10.515
Y10.585 Z-0.492
Y10.652 Z-0.469
Y10.713 Z-0.431
Y10.763 Z-0.38
Y10.801 Z-0.32
Y10.824 Z-0.253
Y10.832 Z-0.183
G0 Z49
M5
M30
