(Rohr_Arm_X8)
(Bearbeiten)
(  Hersteller: ChinaCnc)
(  model: 3040T)
(  description: Generic 3-axis)
(T5  D=3.175 CR=0 - ZMIN=-0.5 - Schaftfraser)
G90 G94
G17
G21

(Bohrfrasen1)
T5
S6000 M3
G54
G0 X-9.875 Y-0.047
Z49
Z17
G1 Z15 F1000
X-9.956 Y-0.128
X-9.95 Y-0.159
X-9.932 Y-0.185
X-9.906 Y-0.203
X-9.875 Y-0.209
G3 X-9.875 Y0.116 Z14.75 I0 J0.162
X-9.875 Y-0.209 Z14.5 I0 J-0.162
X-9.875 Y0.116 Z14.25 I0 J0.163
X-9.875 Y-0.209 Z14 I0 J-0.163
X-9.875 Y0.116 Z13.75 I0 J0.163
X-9.875 Y-0.209 Z13.5 I0 J-0.163
X-9.875 Y0.116 Z13.25 I0 J0.163
X-9.875 Y-0.209 Z13 I0 J-0.163
X-9.875 Y0.116 Z12.75 I0 J0.163
X-9.875 Y-0.209 Z12.5 I0 J-0.163
X-9.875 Y0.116 Z12.25 I0 J0.163
X-9.875 Y-0.209 Z12 I0 J-0.163
X-9.713 Y-0.036 Z11.87 I0 J0.163
X-9.897 Y0.114 Z11.739 I-0.162 J-0.011
X-9.853 Y-0.208 I0.022 J-0.161
X-9.897 Y0.114 I-0.022 J0.161
G1 X-9.927 Y0.104
X-9.951 Y0.083
X-9.965 Y0.054
X-9.967 Y0.023
X-9.875 Y-0.047
G0 Z39
X-29.875 Y-0.04
Z17
G1 Z15 F1000
X-29.956 Y-0.121
X-29.95 Y-0.152
X-29.932 Y-0.179
X-29.906 Y-0.196
X-29.875 Y-0.203
G3 X-29.875 Y0.122 Z14.75 I0 J0.162
X-29.875 Y-0.203 Z14.5 I0 J-0.162
X-29.875 Y0.122 Z14.25 I0 J0.163
X-29.875 Y-0.203 Z14 I0 J-0.163
X-29.875 Y0.122 Z13.75 I0 J0.163
X-29.875 Y-0.203 Z13.5 I0 J-0.163
X-29.875 Y0.122 Z13.25 I0 J0.163
X-29.875 Y-0.203 Z13 I0 J-0.163
X-29.875 Y0.122 Z12.75 I0 J0.163
X-29.875 Y-0.203 Z12.5 I0 J-0.163
X-29.875 Y0.122 Z12.25 I0 J0.163
X-29.875 Y-0.203 Z12 I0 J-0.163
X-29.713 Y-0.029 Z11.87 I0 J0.163
X-29.897 Y0.121 Z11.739 I-0.162 J-0.011
X-29.853 Y-0.201 I0.022 J-0.161
X-29.897 Y0.121 I-0.022 J0.161
G1 X-29.927 Y0.111
X-29.951 Y0.09
X-29.965 Y0.061
X-29.967 Y0.029
X-29.875 Y-0.04
G0 Z49

(Bohrfrasen2)
X-9.875 Y-0.047
Z49
Z4.261
G1 Z2.261 F1000
X-9.956 Y-0.128
X-9.95 Y-0.159
X-9.932 Y-0.185
X-9.906 Y-0.203
X-9.875 Y-0.209
G3 X-9.875 Y0.116 Z2.011 I0 J0.162
X-9.875 Y-0.209 Z1.761 I0 J-0.162
X-9.875 Y0.116 Z1.511 I0 J0.163
X-9.875 Y-0.209 Z1.261 I0 J-0.163
X-9.875 Y0.116 Z1.011 I0 J0.163
X-9.875 Y-0.209 Z0.761 I0 J-0.163
X-9.875 Y0.116 Z0.511 I0 J0.163
X-9.875 Y-0.209 Z0.261 I0 J-0.163
X-9.875 Y0.116 Z0.011 I0 J0.163
X-9.875 Y-0.209 Z-0.239 I0 J-0.163
X-9.713 Y-0.036 Z-0.37 I0 J0.163
X-9.897 Y0.114 Z-0.5 I-0.162 J-0.011
X-9.853 Y-0.208 I0.022 J-0.161
X-9.897 Y0.114 I-0.022 J0.161
G1 X-9.927 Y0.104
X-9.951 Y0.083
X-9.965 Y0.054
X-9.967 Y0.023
X-9.875 Y-0.047
G0 Z39
X-29.875 Y-0.04
Z4.261
G1 Z2.261 F1000
X-29.956 Y-0.121
X-29.95 Y-0.152
X-29.932 Y-0.179
X-29.906 Y-0.196
X-29.875 Y-0.203
G3 X-29.875 Y0.122 Z2.011 I0 J0.162
X-29.875 Y-0.203 Z1.761 I0 J-0.162
X-29.875 Y0.122 Z1.511 I0 J0.163
X-29.875 Y-0.203 Z1.261 I0 J-0.163
X-29.875 Y0.122 Z1.011 I0 J0.163
X-29.875 Y-0.203 Z0.761 I0 J-0.163
X-29.875 Y0.122 Z0.511 I0 J0.163
X-29.875 Y-0.203 Z0.261 I0 J-0.163
X-29.875 Y0.122 Z0.011 I0 J0.163
X-29.875 Y-0.203 Z-0.239 I0 J-0.163
X-29.713 Y-0.029 Z-0.37 I0 J0.163
X-29.897 Y0.121 Z-0.5 I-0.162 J-0.011
X-29.853 Y-0.201 I0.022 J-0.161
X-29.897 Y0.121 I-0.022 J0.161
G1 X-29.927 Y0.111
X-29.951 Y0.09
X-29.965 Y0.061
X-29.967 Y0.029
X-29.875 Y-0.04
G0 Z49

(Bohrfrasen3)
X-179.386 Y0.01
Z49
Z17
G1 Z15 F1000
X-179.468 Y-0.071
X-179.461 Y-0.103
X-179.444 Y-0.129
X-179.417 Y-0.147
X-179.386 Y-0.153
G3 X-179.386 Y0.172 Z14.75 I0 J0.162
X-179.386 Y-0.153 Z14.5 I0 J-0.163
X-179.386 Y0.172 Z14.25 I0 J0.163
X-179.386 Y-0.153 Z14 I0 J-0.163
X-179.386 Y0.172 Z13.75 I0 J0.163
X-179.386 Y-0.153 Z13.5 I0 J-0.163
X-179.386 Y0.172 Z13.25 I0 J0.163
X-179.386 Y-0.153 Z13 I0 J-0.163
X-179.386 Y0.172 Z12.75 I0 J0.163
X-179.386 Y-0.153 Z12.5 I0 J-0.163
X-179.386 Y0.172 Z12.25 I0 J0.163
X-179.386 Y-0.153 Z12 I0 J-0.163
X-179.224 Y0.021 Z11.87 I0 J0.163
X-179.408 Y0.171 Z11.739 I-0.162 J-0.011
X-179.364 Y-0.151 I0.022 J-0.161
X-179.408 Y0.171 I-0.022 J0.161
G1 X-179.438 Y0.16
X-179.462 Y0.139
X-179.476 Y0.111
X-179.478 Y0.079
X-179.386 Y0.01
G0 Z39
X-141.386 Y-0.003
Z17
G1 Z15 F1000
X-141.468 Y-0.084
X-141.461 Y-0.115
X-141.444 Y-0.142
X-141.417 Y-0.159
X-141.386 Y-0.165
G3 X-141.386 Y0.16 Z14.75 I0 J0.162
X-141.386 Y-0.165 Z14.5 I0 J-0.162
X-141.386 Y0.16 Z14.25 I0 J0.163
X-141.386 Y-0.165 Z14 I0 J-0.163
X-141.386 Y0.16 Z13.75 I0 J0.163
X-141.386 Y-0.165 Z13.5 I0 J-0.163
X-141.386 Y0.16 Z13.25 I0 J0.163
X-141.386 Y-0.165 Z13 I0 J-0.163
X-141.386 Y0.16 Z12.75 I0 J0.163
X-141.386 Y-0.165 Z12.5 I0 J-0.163
X-141.386 Y0.16 Z12.25 I0 J0.163
X-141.386 Y-0.165 Z12 I0 J-0.163
X-141.224 Y0.008 Z11.87 I0 J0.163
X-141.408 Y0.158 Z11.739 I-0.162 J-0.011
X-141.364 Y-0.164 I0.022 J-0.161
X-141.408 Y0.158 I-0.022 J0.161
G1 X-141.438 Y0.148
X-141.462 Y0.127
X-141.476 Y0.098
X-141.478 Y0.067
X-141.386 Y-0.003
G0 Z49

(Bohrfrasen4)
X-141.386 Y-0.003
Z49
Z4.261
G1 Z2.261 F1000
X-141.468 Y-0.084
X-141.461 Y-0.115
X-141.444 Y-0.142
X-141.417 Y-0.159
X-141.386 Y-0.165
G3 X-141.386 Y0.16 Z2.011 I0 J0.162
X-141.386 Y-0.165 Z1.761 I0 J-0.162
X-141.386 Y0.16 Z1.511 I0 J0.163
X-141.386 Y-0.165 Z1.261 I0 J-0.163
X-141.386 Y0.16 Z1.011 I0 J0.163
X-141.386 Y-0.165 Z0.761 I0 J-0.163
X-141.386 Y0.16 Z0.511 I0 J0.163
X-141.386 Y-0.165 Z0.261 I0 J-0.163
X-141.386 Y0.16 Z0.011 I0 J0.163
X-141.386 Y-0.165 Z-0.239 I0 J-0.163
X-141.224 Y0.008 Z-0.37 I0 J0.163
X-141.408 Y0.158 Z-0.5 I-0.162 J-0.011
X-141.364 Y-0.164 I0.022 J-0.161
X-141.408 Y0.158 I-0.022 J0.161
G1 X-141.438 Y0.148
X-141.462 Y0.127
X-141.476 Y0.098
X-141.478 Y0.067
X-141.386 Y-0.003
G0 Z39
X-179.386 Y0.01
Z4.261
G1 Z2.261 F1000
X-179.468 Y-0.071
X-179.461 Y-0.103
X-179.444 Y-0.129
X-179.417 Y-0.147
X-179.386 Y-0.153
G3 X-179.386 Y0.172 Z2.011 I0 J0.162
X-179.386 Y-0.153 Z1.761 I0 J-0.163
X-179.386 Y0.172 Z1.511 I0 J0.163
X-179.386 Y-0.153 Z1.261 I0 J-0.163
X-179.386 Y0.172 Z1.011 I0 J0.163
X-179.386 Y-0.153 Z0.761 I0 J-0.163
X-179.386 Y0.172 Z0.511 I0 J0.163
X-179.386 Y-0.153 Z0.261 I0 J-0.163
X-179.386 Y0.172 Z0.011 I0 J0.163
X-179.386 Y-0.153 Z-0.239 I0 J-0.163
X-179.224 Y0.021 Z-0.37 I0 J0.163
X-179.408 Y0.171 Z-0.5 I-0.162 J-0.011
X-179.364 Y-0.151 I0.022 J-0.161
X-179.408 Y0.171 I-0.022 J0.161
G1 X-179.438 Y0.16
X-179.462 Y0.139
X-179.476 Y0.111
X-179.478 Y0.079
X-179.386 Y0.01
G0 Z49

(2D-Kontur1)
S2000 M3
X-183.295 Y10.829
Z49
Z19.5
G1 Z7.317 F333.3
Y10.821 Z7.247 F1000
Y10.797 Z7.18
Y10.759 Z7.12
Y10.709 Z7.069
Y10.649 Z7.031
Y10.582 Z7.008
Y10.511 Z7
X-183.296 Y7.011
X-183.301 Y-6.989
X-183.303 Y-10.489
Y-10.56 Z7.008
Y-10.627 Z7.031
Y-10.687 Z7.069
Y-10.737 Z7.12
Y-10.775 Z7.18
Y-10.798 Z7.247
Y-10.806 Z7.317
G0 Z39
X-183.295 Y10.829
Z19.5
G1 Z12 F333.3
Z-0.183
Y10.821 Z-0.253 F1000
Y10.797 Z-0.32
Y10.759 Z-0.38
Y10.709 Z-0.431
Y10.649 Z-0.469
Y10.582 Z-0.492
Y10.511 Z-0.5
X-183.296 Y7.011
X-183.301 Y-6.989
X-183.303 Y-10.489
Y-10.56 Z-0.492
Y-10.627 Z-0.469
Y-10.687 Z-0.431
Y-10.737 Z-0.38
Y-10.775 Z-0.32
Y-10.798 Z-0.253
Y-10.806 Z-0.183
G0 Z49
M5
M30
