(Rudder1-2)
(Bearbeiten)
(  Hersteller: ChinaCnc)
(  model: 3040T)
(  description: Generic 3-axis)
(T14 D=3.175 CR=0 - ZMIN=-1.3 - Schaftfrser)
G90 G94
G17
G21
(-Attention- Property Safe Retracts is set to Clearance Height.)
(Ensure the clearance height will clear the part and or fixtures.)
(Raise the Z-axis to a safe height before starting the program.)
(When using Fusion 360 for Personal Use, the feedrate of)
(rapid moves is reduced to match the feedrate of cutting)
(moves, which can increase machining time. Unrestricted rapid)
(moves are available with a Fusion 360 Subscription.)

(2D-Kontur12)
M0
(MANUAL TOOL CHANGE TO T14)
S6000 M3
G17 G90 G94
G54
G0 X-100.54 Y-53.333
Z15
G1 Z5 F1500
Z0.635 F300
Z-0.983
G18 G2 X-100.223 Z-1.3 I0.317 K0 F1016
G1 X-99.905
G17 G3 X-99.588 Y-53.016 I0 J0.318
G1 Y-29.556 F1500
X-121.193 Y-60.412
X-99.588
Y-53.016
G3 X-99.905 Y-52.698 I-0.317 J0 F1016
G1 X-100.223
G18 G3 X-100.54 Z-0.983 I0 K0.317
G1 Z5 F1500
X-107.937 Y-23.823
Z0.635 F300
Z-0.983
X-107.93 Y-23.828 Z-1.053 F1016
X-107.911 Y-23.842 Z-1.12
X-107.88 Y-23.863 Z-1.18
X-107.839 Y-23.892 Z-1.231
X-107.79 Y-23.927 Z-1.269
X-107.735 Y-23.965 Z-1.292
X-107.677 Y-24.006 Z-1.3
X-107.417 Y-24.188
G17 G3 X-106.975 Y-24.11 I0.182 J0.26
G1 X-100.382 Y-14.695 F1500
X-100.962 Y-14.717
X-102.222 Y-14.776
X-103.492 Y-14.845
X-104.775 Y-14.926
X-106.067 Y-15.017
X-107.373 Y-15.119
X-108.69 Y-15.231
X-110.019 Y-15.355
X-111.36 Y-15.489
X-112.715 Y-15.634
X-114.083 Y-15.79
X-115.464 Y-15.956
X-116.859 Y-16.134
X-116.895 Y-16.138
Y-38.277
X-106.975 Y-24.11
G3 X-107.053 Y-23.668 I-0.26 J0.182 F1016
G1 X-107.313 Y-23.485
X-107.37 Y-23.445 Z-1.292
X-107.425 Y-23.406 Z-1.269
X-107.475 Y-23.372 Z-1.231
X-107.516 Y-23.343 Z-1.18
X-107.547 Y-23.321 Z-1.12
X-107.566 Y-23.308 Z-1.053
X-107.573 Y-23.303 Z-0.983
Z5 F1500
X-127.022 Y-49.615
Z0.635 F300
Z-0.983
G18 G2 X-126.704 Z-1.3 I0.318 K0 F1016
G1 X-126.387
G17 G3 X-126.07 Y-49.298 I0 J0.317
G1 Y-28.353 F1500
X-148.518 Y-60.412
X-132.394
X-126.07 Y-51.38
Y-49.298
G3 X-126.387 Y-48.98 I-0.317 J0 F1016
G1 X-126.704
G18 G3 X-127.022 Z-0.983 I0 K0.317
G1 Z5 F1500
X-139.469 Y-29.833
Z0.635 F300
Z-0.983
X-139.463 Y-29.838 Z-1.053 F1016
X-139.444 Y-29.851 Z-1.12
X-139.413 Y-29.873 Z-1.18
X-139.371 Y-29.902 Z-1.231
X-139.322 Y-29.936 Z-1.269
X-139.267 Y-29.975 Z-1.292
X-139.209 Y-30.015 Z-1.3
X-138.949 Y-30.197
G17 G3 X-138.507 Y-30.119 I0.182 J0.26
G1 X-130.203 Y-18.26 F1500
X-130.715 Y-18.355
X-132.163 Y-18.635
X-133.617 Y-18.924
X-135.079 Y-19.224
X-136.548 Y-19.535
X-138.022 Y-19.856
X-139.504 Y-20.188
X-140.989 Y-20.531
X-142.479 Y-20.885
X-143.973 Y-21.249
X-145.469 Y-21.625
X-146.966 Y-22.012
X-148.465 Y-22.41
X-148.799 Y-22.502
Y-44.818
X-138.507 Y-30.119
G3 X-138.585 Y-29.677 I-0.26 J0.182 F1016
G1 X-138.845 Y-29.495
X-138.903 Y-29.454 Z-1.292
X-138.958 Y-29.416 Z-1.269
X-139.007 Y-29.381 Z-1.231
X-139.048 Y-29.353 Z-1.18
X-139.079 Y-29.331 Z-1.12
X-139.099 Y-29.317 Z-1.053
X-139.105 Y-29.313 Z-0.983
Z5 F1500
X-158.927 Y-54.613
Z0.635 F300
Z-0.983
G18 G2 X-158.609 Z-1.3 I0.318 K0 F1016
G1 X-158.292
G17 G3 X-157.975 Y-54.295 I0 J0.318
G1 Y-34.894 F1500
X-175.842 Y-60.412
X-157.975
Y-54.295
G3 X-158.292 Y-53.978 I-0.318 J0 F1016
G1 X-158.609
G18 G3 X-158.927 Z-0.983 I0 K0.317
G1 Z5 F1500
X-185.659 Y-56.774
Z0.635 F300
Z-0.983
X-185.652 Y-56.779 Z-1.053 F1016
X-185.633 Y-56.792 Z-1.12
X-185.602 Y-56.814 Z-1.18
X-185.561 Y-56.843 Z-1.231
X-185.511 Y-56.877 Z-1.269
X-185.456 Y-56.916 Z-1.292
X-185.398 Y-56.956 Z-1.3
X-185.138 Y-57.138
G17 G3 X-184.696 Y-57.06 I0.182 J0.26
G1 X-163.811 Y-27.233 F1500
X-165.707 Y-27.938
X-167.834 Y-28.766
X-168.883 Y-29.188
X-169.927 Y-29.619
X-170.961 Y-30.057
X-171.986 Y-30.502
X-173.002 Y-30.954
X-174.01 Y-31.413
X-175.005 Y-31.879
X-175.991 Y-32.352
X-176.966 Y-32.831
X-177.93 Y-33.318
X-178.881 Y-33.811
X-179.821 Y-34.311
X-180.748 Y-34.818
X-181.661 Y-35.33
X-182.561 Y-35.85
X-183.447 Y-36.376
X-184.32 Y-36.909
X-185.177 Y-37.447
X-186.019 Y-37.992
X-186.846 Y-38.543
X-187.658 Y-39.101
X-188.452 Y-39.664
X-189.229 Y-40.233
X-189.99 Y-40.808
X-190.733 Y-41.389
X-191.458 Y-41.976
X-192.166 Y-42.568
X-192.854 Y-43.165
X-193.525 Y-43.769
X-194.176 Y-44.376
X-194.81 Y-44.99
X-195.425 Y-45.608
X-196.02 Y-46.232
X-196.599 Y-46.86
X-197.157 Y-47.494
X-197.698 Y-48.135
X-198.22 Y-48.78
X-198.722 Y-49.43
X-199.207 Y-50.087
X-199.673 Y-50.748
X-200.12 Y-51.416
X-200.549 Y-52.09
X-200.959 Y-52.769
X-201.35 Y-53.454
X-201.724 Y-54.146
X-202.079 Y-54.845
X-202.416 Y-55.551
X-202.736 Y-56.265
X-203.037 Y-56.987
X-203.321 Y-57.718
X-203.587 Y-58.459
X-203.835 Y-59.209
X-204.066 Y-59.97
X-204.187 Y-60.412
X-187.043
X-184.696 Y-57.06
G3 X-184.774 Y-56.618 I-0.26 J0.182 F1016
G1 X-185.034 Y-56.436
X-185.092 Y-56.396 Z-1.292
X-185.147 Y-56.357 Z-1.269
X-185.196 Y-56.323 Z-1.231
X-185.238 Y-56.294 Z-1.18
X-185.269 Y-56.272 Z-1.12
X-185.288 Y-56.259 Z-1.053
X-185.294 Y-56.254 Z-0.983
Z5 F1500
X-171.346 Y-89.117
Z0.635 F300
Z-0.983
X-171.34 Y-89.122 Z-1.053 F1016
X-171.322 Y-89.137 Z-1.12
X-171.293 Y-89.162 Z-1.18
X-171.254 Y-89.194 Z-1.231
X-171.208 Y-89.233 Z-1.269
X-171.157 Y-89.276 Z-1.292
X-171.103 Y-89.321 Z-1.3
X-170.859 Y-89.525
G3 X-170.412 Y-89.486 I0.204 J0.243
G1 X-163.784 Y-81.588 F1500
X-187.305
X-173.503 Y-93.17
X-170.412 Y-89.486
G3 X-170.451 Y-89.039 I-0.243 J0.204 F1016
G1 X-170.694 Y-88.835
X-170.749 Y-88.789 Z-1.292
X-170.8 Y-88.746 Z-1.269
X-170.846 Y-88.708 Z-1.231
X-170.885 Y-88.675 Z-1.18
X-170.914 Y-88.651 Z-1.12
X-170.932 Y-88.636 Z-1.053
X-170.938 Y-88.631 Z-0.983
Z5 F1500
X-154.09 Y-101.722
Z0.635 F300
Z-0.983
X-154.084 Y-101.727 Z-1.053 F1016
X-154.066 Y-101.742 Z-1.12
X-154.037 Y-101.766 Z-1.18
X-153.998 Y-101.798 Z-1.231
X-153.952 Y-101.837 Z-1.269
X-153.901 Y-101.88 Z-1.292
X-153.846 Y-101.926 Z-1.3
X-153.603 Y-102.13
G3 X-153.156 Y-102.091 I0.204 J0.243
G1 X-146.284 Y-93.9 F1500
X-155.587 Y-86.093
X-166.474 Y-99.067
X-160.613 Y-103.985
X-159.448 Y-104.118
X-157.789 Y-104.297
X-156.104 Y-104.468
X-155.222 Y-104.552
X-153.156 Y-102.091
G3 X-153.195 Y-101.643 I-0.243 J0.204 F1016
G1 X-153.438 Y-101.439
X-153.492 Y-101.394 Z-1.292
X-153.544 Y-101.351 Z-1.269
X-153.59 Y-101.312 Z-1.231
X-153.628 Y-101.28 Z-1.18
X-153.657 Y-101.255 Z-1.12
X-153.675 Y-101.24 Z-1.053
X-153.682 Y-101.235 Z-0.983
Z5 F1500
X-137.743 Y-102.31
Z0.635 F300
Z-0.983
X-137.738 Y-102.304 Z-1.053 F1016
X-137.723 Y-102.286 Z-1.12
X-137.699 Y-102.257 Z-1.18
X-137.667 Y-102.218 Z-1.231
X-137.628 Y-102.172 Z-1.269
X-137.585 Y-102.121 Z-1.292
X-137.539 Y-102.067 Z-1.3
X-137.335 Y-101.824
G3 X-137.374 Y-101.376 I-0.243 J0.204
G1 X-139.255 Y-99.798 F1500
X-143.982 Y-105.431
X-142.469 Y-105.524
X-140.111 Y-105.657
X-137.725 Y-105.778
X-135.315 Y-105.889
X-132.88 Y-105.989
X-131.833 Y-106.027
X-137.374 Y-101.376
G3 X-137.822 Y-101.415 I-0.204 J-0.243 F1016
G1 X-138.026 Y-101.659
X-138.071 Y-101.713 Z-1.292
X-138.114 Y-101.764 Z-1.269
X-138.153 Y-101.81 Z-1.231
X-138.185 Y-101.849 Z-1.18
X-138.21 Y-101.878 Z-1.12
X-138.225 Y-101.896 Z-1.053
X-138.23 Y-101.902 Z-0.983
Z5 F1500
X-121.083 Y-95.555
Z0.635 F300
Z-0.983
X-121.077 Y-95.561 Z-1.053 F1016
X-121.059 Y-95.576 Z-1.12
X-121.03 Y-95.6 Z-1.18
X-120.991 Y-95.632 Z-1.231
X-120.945 Y-95.671 Z-1.269
X-120.894 Y-95.714 Z-1.292
X-120.84 Y-95.759 Z-1.3
X-120.597 Y-95.964
G3 X-120.149 Y-95.924 I0.204 J0.243
G1 X-108.119 Y-81.588 F1500
X-123.975
X-133.357 Y-92.77
X-124.053 Y-100.577
X-120.149 Y-95.924
G3 X-120.188 Y-95.477 I-0.243 J0.204 F1016
G1 X-120.432 Y-95.273
X-120.486 Y-95.228 Z-1.292
X-120.537 Y-95.184 Z-1.269
X-120.583 Y-95.146 Z-1.231
X-120.622 Y-95.113 Z-1.18
X-120.651 Y-95.089 Z-1.12
X-120.669 Y-95.074 Z-1.053
X-120.675 Y-95.069 Z-0.983
Z5 F1500
X-99.422 Y-100.831
Z0.635 F300
Z-0.983
G18 G2 X-99.105 Z-1.3 I0.318 K0 F1016
G1 X-98.787
G17 G3 X-98.47 Y-100.513 I0 J0.317
G1 Y-84.362 F1500
X-116.944 Y-106.378
X-114.445 Y-106.403
X-111.517 Y-106.417
X-108.586
X-105.657 Y-106.405
X-102.733 Y-106.378
X-99.819 Y-106.337
X-98.47 Y-106.311
Y-100.513
G3 X-98.787 Y-100.196 I-0.317 J0 F1016
G1 X-99.105
G18 G3 X-99.422 Z-0.983 I0 K0.317
G1 Z5 F1500
X-71.368 Y-102.577
Z0.635 F300
Z-0.983
X-71.36 Y-102.575 Z-1.053 F1016
X-71.338 Y-102.567 Z-1.12
X-71.303 Y-102.554 Z-1.18
X-71.256 Y-102.537 Z-1.231
X-71.199 Y-102.516 Z-1.269
X-71.136 Y-102.493 Z-1.292
X-71.07 Y-102.469 Z-1.3
X-70.771 Y-102.36
G17 G3 X-70.581 Y-101.953 I-0.109 J0.298
G1 X-75.295 Y-89.003 F1500
Y-105.385
X-74.535 Y-105.337
X-72.126 Y-105.169
X-69.752 Y-104.988
X-69.485 Y-104.967
X-70.581 Y-101.953
G3 X-70.988 Y-101.764 I-0.298 J-0.109 F1016
G1 X-71.287 Y-101.872
X-71.353 Y-101.896 Z-1.292
X-71.416 Y-101.919 Z-1.269
X-71.473 Y-101.94 Z-1.231
X-71.52 Y-101.957 Z-1.18
X-71.555 Y-101.97 Z-1.12
X-71.578 Y-101.978 Z-1.053
X-71.585 Y-101.981 Z-0.983
Z5 F1500
X-54.422 Y-94.27
Z0.635 F300
Z-0.983
X-54.418 Y-94.277 Z-1.053 F1016
X-54.404 Y-94.296 Z-1.12
X-54.383 Y-94.327 Z-1.18
X-54.354 Y-94.368 Z-1.231
X-54.319 Y-94.418 Z-1.269
X-54.281 Y-94.473 Z-1.292
X-54.24 Y-94.53 Z-1.3
X-54.058 Y-94.791
G3 X-53.616 Y-94.869 I0.26 J0.182
G1 X-48.164 Y-91.051 F1500
X-51.609 Y-81.588
X-68.23
X-61.41 Y-100.326
X-53.616 Y-94.869
G3 X-53.538 Y-94.426 I-0.182 J0.26 F1016
G1 X-53.72 Y-94.166
X-53.761 Y-94.108 Z-1.292
X-53.799 Y-94.053 Z-1.269
X-53.834 Y-94.004 Z-1.231
X-53.863 Y-93.963 Z-1.18
X-53.884 Y-93.932 Z-1.12
X-53.898 Y-93.913 Z-1.053
X-53.902 Y-93.906 Z-0.983
Z5 F1500
X-45.381 Y-101.483
Z0.635 F300
Z-0.983
X-45.373 Y-101.481 Z-1.053 F1016
X-45.351 Y-101.473 Z-1.12
X-45.316 Y-101.46 Z-1.18
X-45.268 Y-101.443 Z-1.231
X-45.212 Y-101.422 Z-1.269
X-45.149 Y-101.399 Z-1.292
X-45.082 Y-101.375 Z-1.3
X-44.784 Y-101.266
G3 X-44.594 Y-100.859 I-0.109 J0.298
G1 X-44.916 Y-99.977 F1500
X-48.405 Y-102.42
X-46.986 Y-102.168
X-45.466 Y-101.88
X-44.308 Y-101.647
X-44.594 Y-100.859
G3 X-45.001 Y-100.67 I-0.298 J-0.109 F1016
G1 X-45.3 Y-100.778
X-45.366 Y-100.802 Z-1.292
X-45.429 Y-100.825 Z-1.269
X-45.486 Y-100.846 Z-1.231
X-45.533 Y-100.863 Z-1.18
X-45.568 Y-100.876 Z-1.12
X-45.591 Y-100.884 Z-1.053
X-45.598 Y-100.887 Z-0.983
Z5 F1500
X-22.609 Y-92.719
Z0.635 F300
Z-0.983
X-22.605 Y-92.726 Z-1.053 F1016
X-22.591 Y-92.745 Z-1.12
X-22.569 Y-92.775 Z-1.18
X-22.54 Y-92.816 Z-1.231
X-22.505 Y-92.865 Z-1.269
X-22.466 Y-92.92 Z-1.292
X-22.425 Y-92.977 Z-1.3
X-22.24 Y-93.236
G3 X-21.797 Y-93.309 I0.258 J0.185
G1 X-21.422 Y-93.041 F1500
X-21.03 Y-92.75
X-20.65 Y-92.456
X-20.282 Y-92.161
X-19.925 Y-91.863
X-19.579 Y-91.562
X-19.244 Y-91.26
X-18.92 Y-90.955
X-18.605 Y-90.647
X-18.3 Y-90.336
X-18.005 Y-90.023
X-17.72 Y-89.708
X-17.444 Y-89.389
X-17.177 Y-89.068
X-16.919 Y-88.743
X-16.67 Y-88.414
X-16.429 Y-88.082
X-16.197 Y-87.745
X-15.972 Y-87.404
X-15.76 Y-87.066
X-15.342 Y-86.344
X-15.152 Y-85.99
X-14.965 Y-85.622
X-14.785 Y-85.248
X-14.612 Y-84.868
X-14.446 Y-84.481
X-14.286 Y-84.086
X-14.133 Y-83.684
X-13.987 Y-83.275
X-13.847 Y-82.859
X-13.714 Y-82.436
X-13.588 Y-82.004
X-13.476 Y-81.588
X-18.653
X-37.135 Y-94.529
X-35.35 Y-99.432
X-35.301 Y-99.418
X-34.589 Y-99.2
X-33.89 Y-98.979
X-33.204 Y-98.756
X-32.532 Y-98.528
X-31.872 Y-98.297
X-31.225 Y-98.063
X-30.591 Y-97.825
X-29.971 Y-97.584
X-29.365 Y-97.34
X-28.771 Y-97.092
X-28.191 Y-96.842
X-27.624 Y-96.588
X-27.071 Y-96.332
X-26.53 Y-96.073
X-26.003 Y-95.811
X-25.489 Y-95.546
X-24.987 Y-95.278
X-24.498 Y-95.007
X-24.022 Y-94.734
X-23.558 Y-94.458
X-23.107 Y-94.18
X-22.667 Y-93.899
X-22.24 Y-93.615
X-21.825 Y-93.329
X-21.797 Y-93.309
G3 X-21.723 Y-92.866 I-0.185 J0.258 F1016
G1 X-21.908 Y-92.608
X-21.949 Y-92.55 Z-1.292
X-21.988 Y-92.496 Z-1.269
X-22.023 Y-92.447 Z-1.231
X-22.053 Y-92.406 Z-1.18
X-22.075 Y-92.375 Z-1.12
X-22.088 Y-92.356 Z-1.053
X-22.093 Y-92.35 Z-0.983
Z5 F1500
X-39.52 Y-83.835
Z0.635 F300
Z-0.983
X-39.515 Y-83.842 Z-1.053 F1016
X-39.502 Y-83.861 Z-1.12
X-39.48 Y-83.892 Z-1.18
X-39.451 Y-83.933 Z-1.231
X-39.417 Y-83.983 Z-1.269
X-39.378 Y-84.038 Z-1.292
X-39.338 Y-84.095 Z-1.3
X-39.156 Y-84.355
G3 X-38.713 Y-84.433 I0.26 J0.182
G1 X-34.649 Y-81.588 F1500
X-41.845
X-40.383 Y-85.603
X-38.713 Y-84.433
G3 X-38.635 Y-83.991 I-0.182 J0.26 F1016
G1 X-38.817 Y-83.731
X-38.858 Y-83.673 Z-1.292
X-38.897 Y-83.618 Z-1.269
X-38.931 Y-83.569 Z-1.231
X-38.96 Y-83.528 Z-1.18
X-38.982 Y-83.497 Z-1.12
X-38.995 Y-83.478 Z-1.053
X-39 Y-83.471 Z-0.983
Z5 F1500
X-40.283 Y-55.119
Z0.635 F300
Z-0.983
X-40.275 Y-55.116 Z-1.053 F1016
X-40.253 Y-55.108 Z-1.12
X-40.218 Y-55.095 Z-1.18
X-40.17 Y-55.078 Z-1.231
X-40.114 Y-55.057 Z-1.269
X-40.051 Y-55.034 Z-1.292
X-39.984 Y-55.01 Z-1.3
X-39.686 Y-54.902
G3 X-39.496 Y-54.495 I-0.109 J0.298
G1 X-48.05 Y-30.994 F1500
Y-60.412
X-37.342
X-39.496 Y-54.495
G3 X-39.903 Y-54.305 I-0.298 J-0.109 F1016
G1 X-40.201 Y-54.413
X-40.268 Y-54.438 Z-1.292
X-40.331 Y-54.461 Z-1.269
X-40.387 Y-54.481 Z-1.231
X-40.435 Y-54.498 Z-1.18
X-40.47 Y-54.511 Z-1.12
X-40.492 Y-54.519 Z-1.053
X-40.5 Y-54.522 Z-0.983
Z5 F1500
X-58.177 Y-24.764
Z0.635 F300
Z-0.983
G18 G2 X-57.86 Z-1.3 I0.318 K0 F1016
G1 X-57.542
G17 G3 X-57.225 Y-24.446 I0 J0.317
G1 Y-20.784 F1500
X-58.276 Y-20.429
X-59.332 Y-20.085
X-60.39 Y-19.752
X-61.448 Y-19.431
X-62.506 Y-19.121
X-63.563 Y-18.822
X-64.62 Y-18.534
X-65.675 Y-18.257
X-66.729 Y-17.991
X-67.782 Y-17.736
X-68.833 Y-17.492
X-69.882 Y-17.258
X-70.262 Y-17.177
X-57.225 Y-52.997
Y-24.446
G3 X-57.542 Y-24.129 I-0.317 J0 F1016
G1 X-57.86
G18 G3 X-58.177 Z-0.983 I0 K0.317
G1 Z5 F1500
X-139.909 Y-84.822
Z0.635 F300
Z-0.983
X-139.903 Y-84.828 Z-1.053 F1016
X-139.885 Y-84.843 Z-1.12
X-139.856 Y-84.867 Z-1.18
X-139.818 Y-84.899 Z-1.231
X-139.772 Y-84.938 Z-1.269
X-139.72 Y-84.981 Z-1.292
X-139.666 Y-85.026 Z-1.3
X-139.423 Y-85.231
G17 G3 X-138.976 Y-85.191 I0.204 J0.243
G1 X-135.951 Y-81.588 F1500
X-146.683
X-140.386 Y-86.872
X-138.976 Y-85.191
G3 X-139.015 Y-84.744 I-0.243 J0.204 F1016
G1 X-139.258 Y-84.54
X-139.312 Y-84.495 Z-1.292
X-139.363 Y-84.452 Z-1.269
X-139.41 Y-84.413 Z-1.231
X-139.448 Y-84.38 Z-1.18
X-139.477 Y-84.356 Z-1.12
X-139.495 Y-84.341 Z-1.053
X-139.501 Y-84.336 Z-0.983
Z5 F1500
X-195.777 Y-87.699
Z0.635 F300
Z-0.983
X-195.772 Y-87.693 Z-1.053 F1016
X-195.757 Y-87.675 Z-1.12
X-195.733 Y-87.646 Z-1.18
X-195.7 Y-87.608 Z-1.231
X-195.662 Y-87.561 Z-1.269
X-195.619 Y-87.51 Z-1.292
X-195.573 Y-87.456 Z-1.3
X-195.369 Y-87.213
G3 X-195.408 Y-86.765 I-0.243 J0.204
G1 X-201.579 Y-81.588 F1500
X-206.523
X-206.49 Y-81.718
X-206.358 Y-82.193
X-206.218 Y-82.657
X-206.07 Y-83.111
X-205.912 Y-83.559
X-205.748 Y-83.997
X-205.574 Y-84.426
X-205.393 Y-84.849
X-205.204 Y-85.262
X-205.007 Y-85.669
X-204.802 Y-86.069
X-204.589 Y-86.462
X-204.367 Y-86.848
X-204.137 Y-87.228
X-203.897 Y-87.602
X-203.648 Y-87.971
X-203.389 Y-88.334
X-203.121 Y-88.693
X-202.843 Y-89.047
X-202.554 Y-89.396
X-202.254 Y-89.742
X-201.944 Y-90.084
X-201.623 Y-90.421
X-201.288 Y-90.757
X-200.941 Y-91.09
X-200.584 Y-91.419
X-200.213 Y-91.746
X-199.829 Y-92.07
X-199.432 Y-92.392
X-199.021 Y-92.711
X-198.598 Y-93.027
X-198.16 Y-93.34
X-197.706 Y-93.651
X-197.239 Y-93.959
X-196.757 Y-94.263
X-196.26 Y-94.565
X-195.748 Y-94.865
X-195.222 Y-95.16
X-194.681 Y-95.453
X-194.125 Y-95.742
X-193.554 Y-96.028
X-192.968 Y-96.311
X-192.365 Y-96.59
X-191.748 Y-96.866
X-191.117 Y-97.138
X-190.468 Y-97.406
X-189.805 Y-97.671
X-189.127 Y-97.931
X-188.432 Y-98.188
X-187.722 Y-98.441
X-186.996 Y-98.69
X-186.256 Y-98.935
X-185.499 Y-99.175
X-184.726 Y-99.412
X-183.938 Y-99.644
X-183.136 Y-99.873
X-182.318 Y-100.096
X-181.484 Y-100.316
X-180.638 Y-100.532
X-179.843 Y-100.726
X-179.4 Y-100.198
X-195.408 Y-86.765
G3 X-195.855 Y-86.805 I-0.204 J-0.243 F1016
G1 X-196.06 Y-87.048
X-196.105 Y-87.102 Z-1.292
X-196.148 Y-87.153 Z-1.269
X-196.187 Y-87.199 Z-1.231
X-196.219 Y-87.238 Z-1.18
X-196.243 Y-87.267 Z-1.12
X-196.259 Y-87.285 Z-1.053
X-196.264 Y-87.291 Z-0.983
Z15 F1500
(When using Fusion 360 for Personal Use, the feedrate of)
(rapid moves is reduced to match the feedrate of cutting)
(moves, which can increase machining time. Unrestricted rapid)
(moves are available with a Fusion 360 Subscription.)

(2D-Kontur14)
G0 X-216.973 Y-62.333
G1 Z15 F1500
Z5
Z0.635 F300
Z-0.983
X-216.965 Y-62.334 Z-1.053 F1016
X-216.942 Y-62.338 Z-1.12
X-216.905 Y-62.344 Z-1.18
X-216.855 Y-62.352 Z-1.231
X-216.796 Y-62.362 Z-1.269
X-216.729 Y-62.373 Z-1.292
X-216.66 Y-62.385 Z-1.3
X-216.347 Y-62.437
G3 X-215.981 Y-62.176 I0.052 J0.313
G1 X-215.836 Y-61.302 F1500
X-215.828 Y-61.259
X-215.605 Y-60.113
X-215.597 Y-60.071
X-215.345 Y-58.939
X-215.335 Y-58.897
X-215.054 Y-57.78
X-215.042 Y-57.738
X-214.732 Y-56.635
X-214.72 Y-56.594
X-214.382 Y-55.506
X-214.368 Y-55.463
X-214.001 Y-54.39
X-213.986 Y-54.348
X-213.59 Y-53.289
X-213.574 Y-53.249
X-213.151 Y-52.205
X-213.134 Y-52.164
X-212.683 Y-51.134
X-212.665 Y-51.095
X-212.187 Y-50.079
X-212.169 Y-50.04
X-211.664 Y-49.039
X-211.644 Y-49
X-211.112 Y-48.013
X-211.091 Y-47.975
X-210.532 Y-47.002
X-210.51 Y-46.966
X-209.925 Y-46.007
X-209.904 Y-45.973
X-209.294 Y-45.027
X-209.271 Y-44.993
X-208.635 Y-44.062
X-208.612 Y-44.029
X-207.951 Y-43.111
X-207.928 Y-43.08
X-207.243 Y-42.176
X-207.219 Y-42.145
X-206.509 Y-41.255
X-206.485 Y-41.226
X-205.751 Y-40.349
X-205.728 Y-40.321
X-204.971 Y-39.458
X-204.947 Y-39.431
X-204.167 Y-38.581
X-204.143 Y-38.556
X-203.341 Y-37.719
X-203.317 Y-37.694
X-202.492 Y-36.871
X-202.468 Y-36.848
X-201.622 Y-36.037
X-201.599 Y-36.015
X-200.732 Y-35.218
X-200.708 Y-35.197
X-199.82 Y-34.412
X-199.797 Y-34.392
X-198.889 Y-33.62
X-198.866 Y-33.601
X-197.938 Y-32.841
X-197.916 Y-32.823
X-197.883 Y-32.798
Z-0.5
X-196.969 Y-32.077
X-196.947 Y-32.059
X-195.981 Y-31.325
X-195.959 Y-31.309
X-194.975 Y-30.587
X-194.954 Y-30.572
X-193.953 Y-29.862
X-193.932 Y-29.847
X-192.913 Y-29.15
X-192.893 Y-29.136
X-191.858 Y-28.45
X-191.837 Y-28.437
X-190.785 Y-27.763
X-190.766 Y-27.751
X-190.383 Y-27.513
Z-1.3 F300
X-189.699 Y-27.089 F1500
X-189.68 Y-27.078
X-188.598 Y-26.427
X-188.579 Y-26.416
X-187.483 Y-25.778
X-187.465 Y-25.767
X-186.354 Y-25.14
X-186.336 Y-25.13
X-185.212 Y-24.514
X-185.195 Y-24.505
X-184.059 Y-23.9
X-184.041 Y-23.891
X-182.891 Y-23.297
X-182.875 Y-23.289
X-181.714 Y-22.706
X-181.698 Y-22.698
X-180.526 Y-22.127
X-180.51 Y-22.119
X-179.327 Y-21.558
X-179.312 Y-21.551
X-178.119 Y-21.001
X-178.104 Y-20.994
X-176.901 Y-20.454
X-176.886 Y-20.448
X-175.674 Y-19.918
X-175.66 Y-19.912
X-174.439 Y-19.393
X-174.425 Y-19.388
X-173.196 Y-18.879
X-173.183 Y-18.873
X-171.947 Y-18.375
X-171.933 Y-18.369
X-170.689 Y-17.881
X-170.677 Y-17.876
X-169.428 Y-17.397
X-169.415 Y-17.392
X-168.159 Y-16.923
X-168.147 Y-16.919
X-166.885 Y-16.459
X-166.873 Y-16.455
X-165.607 Y-16.005
X-165.596 Y-16.001
X-164.325 Y-15.561
X-164.314 Y-15.557
X-163.04 Y-15.126
X-163.023 Y-15.121
X-160.464 Y-14.286
X-160.443 Y-14.28
X-157.874 Y-13.481
X-157.854 Y-13.475
X-155.28 Y-12.712
X-155.261 Y-12.707
X-152.684 Y-11.978
X-152.665 Y-11.973
X-150.09 Y-11.279
X-150.073 Y-11.274
X-147.503 Y-10.612
X-147.486 Y-10.608
X-144.924 Y-9.979
X-144.907 Y-9.975
X-142.358 Y-9.377
X-142.342 Y-9.374
X-139.807 Y-8.807
X-139.792 Y-8.804
X-137.274 Y-8.268
X-137.258 Y-8.265
X-134.761 Y-7.759
X-134.746 Y-7.756
X-132.271 Y-7.279
X-132.256 Y-7.276
X-129.806 Y-6.828
X-129.792 Y-6.826
X-127.368 Y-6.407
X-127.353 Y-6.404
X-124.956 Y-6.013
X-124.944 Y-6.011
X-123.756 Y-5.826
X-123.749 Y-5.825
X-122.569 Y-5.647
X-122.561 Y-5.646
X-121.388 Y-5.475
X-121.38 Y-5.474
X-120.214 Y-5.309
X-120.207 Y-5.308
X-119.049 Y-5.151
X-119.041 Y-5.15
X-117.891 Y-4.999
X-117.883 Y-4.998
X-116.74 Y-4.854
X-116.732 Y-4.853
X-115.596 Y-4.717
X-115.588 Y-4.716
X-114.46 Y-4.585
X-114.452 Y-4.584
X-113.331 Y-4.461
X-113.318 Y-4.46
X-111.098 Y-4.234
X-111.08 Y-4.232
X-108.888 Y-4.033
X-108.87 Y-4.031
X-106.706 Y-3.86
X-106.688 Y-3.859
X-104.549 Y-3.715
X-104.529 Y-3.713
X-102.413 Y-3.597
X-102.393 Y-3.596
X-100.3 Y-3.508
X-100.279
X-98.204 Y-3.448
X-98.182
X-96.125 Y-3.417
X-96.102
X-94.059 Y-3.416
X-94.035
X-92.002 Y-3.445
X-91.978
X-91.588 Y-3.457
Z-0.5
X-89.953 Y-3.505
G2 X-88.412 Y-5.092 I-0.047 J-1.587
G1 Y-9.679
Z-1.3 F300
Y-28.504 F1500
X-81.088
Y-10.505
Z-0.5
Y-5.917
G2 X-79.299 Y-4.343 I1.588 J0
G1 X-77.912 Y-4.519
Z-1.3 F300
X-77.775 Y-4.537 F1500
X-77.756 Y-4.539
X-76.227 Y-4.753
X-76.207 Y-4.756
X-74.673 Y-4.99
X-74.653 Y-4.994
X-73.113 Y-5.248
X-73.094 Y-5.251
X-71.548 Y-5.527
X-71.529 Y-5.53
X-69.977 Y-5.827
X-69.958 Y-5.831
X-68.401 Y-6.148
X-68.381 Y-6.152
X-66.819 Y-6.491
X-66.799 Y-6.496
X-65.232 Y-6.857
X-65.212 Y-6.862
X-63.641 Y-7.245
X-63.621 Y-7.25
X-62.046 Y-7.656
X-62.026 Y-7.661
X-60.448 Y-8.089
X-60.428 Y-8.095
X-58.848 Y-8.547
X-58.828 Y-8.553
X-57.247 Y-9.027
X-57.226 Y-9.034
X-55.645 Y-9.532
X-55.624 Y-9.539
X-54.043 Y-10.061
X-54.022 Y-10.068
X-52.443 Y-10.615
X-52.421 Y-10.622
X-50.845 Y-11.193
X-50.824 Y-11.201
X-49.252 Y-11.797
X-49.229 Y-11.806
X-47.663 Y-12.426
X-47.64 Y-12.436
X-46.08 Y-13.082
X-46.057 Y-13.091
X-44.504 Y-13.763
X-44.481 Y-13.773
X-42.937 Y-14.471
X-42.913 Y-14.482
X-41.38 Y-15.206
X-41.356 Y-15.217
X-39.834 Y-15.968
X-39.809 Y-15.98
X-38.3 Y-16.757
X-38.274 Y-16.77
X-36.779 Y-17.574
X-36.753 Y-17.589
X-35.274 Y-18.42
X-35.247 Y-18.435
X-33.785 Y-19.294
X-33.758 Y-19.31
X-32.314 Y-20.197
X-32.286 Y-20.214
X-30.862 Y-21.129
X-30.834 Y-21.147
X-29.431 Y-22.091
X-29.402 Y-22.11
X-28.022 Y-23.083
X-27.993 Y-23.103
X-26.636 Y-24.105
X-26.607 Y-24.127
X-25.276 Y-25.157
X-25.254 Y-25.175
X-24.599 Y-25.701
X-24.584 Y-25.713
X-23.936 Y-26.247
X-23.921 Y-26.259
X-23.279 Y-26.8
X-23.264 Y-26.813
X-22.63 Y-27.362
X-22.615 Y-27.375
X-21.989 Y-27.931
X-21.974 Y-27.945
X-21.355 Y-28.509
X-21.34 Y-28.523
X-20.729 Y-29.094
X-20.714 Y-29.108
X-20.111 Y-29.687
X-20.096 Y-29.702
X-19.502 Y-30.289
X-19.486 Y-30.304
X-18.9 Y-30.898
X-18.885 Y-30.914
X-18.308 Y-31.516
X-18.293 Y-31.532
X-17.724 Y-32.141
X-17.709 Y-32.158
X-17.15 Y-32.775
X-17.135 Y-32.792
X-16.584 Y-33.417
X-16.569 Y-33.435
X-16.028 Y-34.068
X-16.013 Y-34.086
X-15.482 Y-34.727
X-15.467 Y-34.745
X-14.946 Y-35.393
X-14.931 Y-35.412
X-14.419 Y-36.069
X-14.404 Y-36.088
X-13.903 Y-36.752
X-13.888 Y-36.772
X-13.397 Y-37.445
X-13.383 Y-37.465
X-12.902 Y-38.145
X-12.888 Y-38.166
X-12.418 Y-38.854
X-12.404 Y-38.875
X-11.944 Y-39.571
X-11.93 Y-39.593
X-11.482 Y-40.297
X-11.468 Y-40.319
X-11.031 Y-41.031
X-11.018 Y-41.053
X-10.592 Y-41.774
X-10.578 Y-41.797
X-10.164 Y-42.525
X-10.151 Y-42.548
X-9.748 Y-43.284
X-9.735 Y-43.308
X-9.344 Y-44.053
X-9.331 Y-44.077
X-8.952 Y-44.829
X-8.94 Y-44.854
X-8.572 Y-45.614
X-8.561 Y-45.639
X-8.205 Y-46.408
X-8.194 Y-46.433
X-7.851 Y-47.21
X-7.84 Y-47.235
X-7.509 Y-48.021
X-7.499 Y-48.046
X-7.181 Y-48.84
X-7.171 Y-48.865
X-6.865 Y-49.668
X-6.856 Y-49.693
X-6.563 Y-50.504
X-6.553 Y-50.529
X-6.273 Y-51.348
X-6.265 Y-51.374
X-5.997 Y-52.201
X-5.989 Y-52.227
X-5.735 Y-53.062
X-5.727 Y-53.088
X-5.486 Y-53.932
X-5.479 Y-53.958
X-5.251 Y-54.81
X-5.245 Y-54.836
X-5.068 Y-55.545
Z-0.5
X-5.03 Y-55.697
X-5.024 Y-55.723
X-4.823 Y-56.592
X-4.817 Y-56.618
X-4.63 Y-57.495
X-4.624 Y-57.521
X-4.45 Y-58.407
X-4.446 Y-58.432
X-4.285 Y-59.326
X-4.281 Y-59.352
X-4.134 Y-60.255
X-4.13 Y-60.28
X-3.998 Y-61.191
X-3.994 Y-61.216
X-3.875 Y-62.136
X-3.872 Y-62.161
X-3.767 Y-63.089
X-3.764 Y-63.113
X-3.673 Y-64.05
X-3.671 Y-64.074
X-3.627 Y-64.607
Z-1.3 F300
X-3.594 Y-65.019 F1500
X-3.592 Y-65.044
X-3.529 Y-65.997
X-3.527 Y-66.021
X-3.478 Y-66.983
X-3.477 Y-67.006
X-3.442 Y-67.976
X-3.441 Y-68
X-3.432 Y-68.412
Z-0.5
X-3.42 Y-68.979
Y-69.001
X-3.413 Y-69.989
G2 X-5 Y-71.588 I-1.587 J-0.011
G1 X-9.587
Z-1.3 F300
X-210.413 F1500
Z-0.5
X-215
G2 X-216.587 Y-69.981 I0 J1.588
G1 X-216.572 Y-68.731
X-216.571 Y-68.692
X-216.561 Y-68.412
Z-1.3 F300
X-216.526 Y-67.457 F1500
X-216.525 Y-67.419
X-216.451 Y-66.199
X-216.448 Y-66.157
X-216.343 Y-64.952
X-216.339 Y-64.912
X-216.205 Y-63.721
X-216.199 Y-63.68
X-216.035 Y-62.504
X-216.029 Y-62.463
X-215.981 Y-62.176
G3 X-216.242 Y-61.811 I-0.313 J0.052 F1016
G1 X-216.556 Y-61.759
X-216.625 Y-61.747 Z-1.292
X-216.692 Y-61.736 Z-1.269
X-216.751 Y-61.726 Z-1.231
X-216.8 Y-61.718 Z-1.18
X-216.838 Y-61.712 Z-1.12
X-216.861 Y-61.708 Z-1.053
X-216.869 Y-61.706 Z-0.983
Z15 F1500
(When using Fusion 360 for Personal Use, the feedrate of)
(rapid moves is reduced to match the feedrate of cutting)
(moves, which can increase machining time. Unrestricted rapid)
(moves are available with a Fusion 360 Subscription.)

(2D-Kontur15)
G0 X-2.669 Y-78.425
G1 Z15 F1500
Z5
Z0.635 F300
Z-0.983
X-2.677 Y-78.424 Z-1.053 F1016
X-2.7 Y-78.422 Z-1.12
X-2.738 Y-78.418 Z-1.18
X-2.788 Y-78.412 Z-1.231
X-2.848 Y-78.406 Z-1.269
X-2.915 Y-78.399 Z-1.292
X-2.985 Y-78.391 Z-1.3
X-3.3 Y-78.357
G3 X-3.65 Y-78.638 I-0.034 J-0.316
G1 X-3.652 Y-78.649 F1500
X-3.734 Y-79.362
X-3.738 Y-79.393
X-3.833 Y-80.097
X-3.838 Y-80.128
X-3.946 Y-80.823
X-3.951 Y-80.855
X-4.072 Y-81.541
X-4.078 Y-81.573
X-4.212 Y-82.251
X-4.218 Y-82.283
X-4.365 Y-82.952
X-4.372 Y-82.985
X-4.532 Y-83.645
X-4.54 Y-83.678
X-4.712 Y-84.33
X-4.721 Y-84.363
X-4.906 Y-85.006
X-4.916 Y-85.04
X-5.114 Y-85.674
X-5.125 Y-85.708
X-5.336 Y-86.333
X-5.348 Y-86.367
X-5.572 Y-86.984
X-5.585 Y-87.018
X-5.822 Y-87.626
X-5.835 Y-87.661
X-6.085 Y-88.26
X-6.1 Y-88.295
X-6.363 Y-88.885
X-6.379 Y-88.92
X-6.654 Y-89.502
X-6.671 Y-89.536
X-6.758 Y-89.71
Z-0.5
X-6.96 Y-90.11
X-6.977 Y-90.145
X-7.279 Y-90.71
X-7.298 Y-90.744
X-7.613 Y-91.301
X-7.632 Y-91.334
X-7.961 Y-91.883
X-7.981 Y-91.916
X-8.322 Y-92.456
X-8.344 Y-92.489
X-8.698 Y-93.021
X-8.72 Y-93.053
X-9.088 Y-93.577
X-9.11 Y-93.608
X-9.492 Y-94.124
X-9.515 Y-94.155
X-9.909 Y-94.663
X-9.933 Y-94.692
X-10.341 Y-95.192
X-10.365 Y-95.221
X-10.787 Y-95.713
X-10.811 Y-95.741
X-11.246 Y-96.225
X-11.271 Y-96.253
X-11.72 Y-96.729
X-11.745 Y-96.755
X-12.132 Y-97.147
Z-1.3 F300
X-12.207 Y-97.223 F1500
X-12.233 Y-97.249
X-12.708 Y-97.709
X-12.734 Y-97.734
X-13.223 Y-98.186
X-13.249 Y-98.21
X-13.751 Y-98.655
X-13.777 Y-98.678
X-14.293 Y-99.115
X-14.319 Y-99.137
X-14.849 Y-99.567
X-14.875 Y-99.588
X-15.419 Y-100.01
X-15.445 Y-100.03
X-16.002 Y-100.445
X-16.027 Y-100.464
X-16.598 Y-100.871
X-16.624 Y-100.889
X-17.209 Y-101.29
X-17.235 Y-101.307
X-17.833 Y-101.7
X-17.856 Y-101.715
X-18.468 Y-102.102
X-18.494 Y-102.118
X-19.12 Y-102.497
X-19.144 Y-102.511
X-19.784 Y-102.883
X-19.808 Y-102.897
X-20.462 Y-103.262
X-20.485 Y-103.275
X-21.153 Y-103.633
X-21.176 Y-103.645
X-21.857 Y-103.996
X-21.879 Y-104.007
X-22.574 Y-104.352
X-22.597 Y-104.363
X-23.306 Y-104.701
X-23.328 Y-104.711
X-24.051 Y-105.042
X-24.072 Y-105.052
X-24.809 Y-105.376
X-24.829 Y-105.385
X-25.58 Y-105.703
X-25.599 Y-105.711
X-26.363 Y-106.023
X-26.382 Y-106.03
X-27.16 Y-106.336
X-27.181 Y-106.344
X-27.972 Y-106.643
X-27.992 Y-106.651
X-28.798 Y-106.943
X-28.814 Y-106.948
X-29.634 Y-107.235
X-29.653 Y-107.242
X-30.486 Y-107.522
X-30.501 Y-107.527
X-31.348 Y-107.802
X-31.366 Y-107.808
X-32.227 Y-108.076
X-32.242 Y-108.08
X-33.116 Y-108.343
X-33.132 Y-108.348
X-34.02 Y-108.605
X-34.035 Y-108.609
X-34.937 Y-108.86
X-34.952 Y-108.864
X-35.867 Y-109.109
X-35.88 Y-109.113
X-36.808 Y-109.353
X-36.823 Y-109.357
X-37.765 Y-109.591
X-37.779 Y-109.594
X-38.734 Y-109.822
X-38.746 Y-109.825
X-39.715 Y-110.048
X-39.727 Y-110.051
X-40.709 Y-110.269
X-40.72 Y-110.271
X-41.715 Y-110.484
X-41.728 Y-110.487
X-42.736 Y-110.694
X-42.747 Y-110.696
X-43.769 Y-110.898
X-43.779 Y-110.9
X-44.813 Y-111.097
X-44.826 Y-111.1
X-45.873 Y-111.291
X-45.882 Y-111.292
X-46.942 Y-111.479
X-46.952 Y-111.481
X-48.024 Y-111.663
X-48.034 Y-111.665
X-49.12 Y-111.842
X-49.129 Y-111.843
X-50.227 Y-112.015
X-50.237 Y-112.017
X-51.347 Y-112.184
X-51.355 Y-112.185
X-52.478 Y-112.348
X-52.487 Y-112.349
X-53.622 Y-112.507
X-53.63 Y-112.508
X-54.777 Y-112.662
X-54.787 Y-112.664
X-55.946 Y-112.812
X-55.952
X-57.123 Y-112.957
X-57.132 Y-112.958
X-58.315 Y-113.098
X-58.322 Y-113.099
X-59.517 Y-113.235
X-59.525 Y-113.236
X-60.731 Y-113.367
X-60.737 Y-113.368
X-61.955 Y-113.495
X-61.962 Y-113.496
X-63.19 Y-113.619
X-63.197
X-64.436 Y-113.738
X-64.444 Y-113.739
X-65.694 Y-113.853
X-65.699
X-66.961 Y-113.964
X-66.968 Y-113.965
X-68.24 Y-114.071
X-68.244
X-69.526 Y-114.174
X-69.534 Y-114.175
X-70.826 Y-114.273
X-70.83
X-72.132 Y-114.368
X-72.138 Y-114.369
X-73.449 Y-114.46
X-73.457
X-76.108 Y-114.63
X-76.117 Y-114.631
X-78.803 Y-114.787
X-78.813
X-81.531 Y-114.928
X-81.54 Y-114.929
X-84.289 Y-115.056
X-84.299
X-87.075 Y-115.168
X-87.083 Y-115.169
X-89.885 Y-115.268
X-89.893
X-92.717 Y-115.353
X-92.724
X-95.567 Y-115.425
X-95.575
X-98.434 Y-115.483
X-98.441
X-101.313 Y-115.529
X-101.32
X-104.202 Y-115.561
X-104.209
X-107.097 Y-115.581
X-107.105
X-109.997 Y-115.587
X-110.003
X-112.895 Y-115.581
X-112.903
X-115.791 Y-115.561
X-115.798
X-118.68 Y-115.529
X-118.687
X-121.559 Y-115.483
X-121.566
X-124.425 Y-115.425
X-124.433
X-127.275 Y-115.353
X-127.283
X-130.107 Y-115.268
X-130.115
X-132.917 Y-115.169
X-132.925 Y-115.168
X-135.702 Y-115.056
X-135.711
X-138.459 Y-114.929
X-138.468 Y-114.928
X-141.187 Y-114.787
X-141.197
X-143.883 Y-114.631
X-143.893 Y-114.63
X-146.543 Y-114.46
X-146.551
X-147.863 Y-114.369
X-147.869 Y-114.368
X-149.17 Y-114.273
X-149.174
X-150.466 Y-114.175
X-150.473 Y-114.174
X-151.755 Y-114.071
X-151.76
X-153.032 Y-113.965
X-153.039 Y-113.964
X-154.3 Y-113.853
X-154.305
X-155.556 Y-113.739
X-155.564 Y-113.738
X-156.804 Y-113.619
X-156.81
X-158.038 Y-113.496
X-158.045 Y-113.495
X-159.263 Y-113.368
X-159.269 Y-113.367
X-160.475 Y-113.236
X-160.484 Y-113.235
X-161.679 Y-113.099
X-161.686 Y-113.098
X-162.868 Y-112.958
X-162.876 Y-112.957
X-164.048 Y-112.812
X-164.054
X-165.213 Y-112.664
X-165.223 Y-112.662
X-166.37 Y-112.508
X-166.378 Y-112.507
X-167.513 Y-112.349
X-167.522 Y-112.348
X-168.645 Y-112.185
X-168.653 Y-112.184
X-169.763 Y-112.017
X-169.773 Y-112.015
X-170.871 Y-111.843
X-170.881 Y-111.842
X-171.966 Y-111.665
X-171.975 Y-111.663
X-173.048 Y-111.481
X-173.059 Y-111.479
X-174.118 Y-111.292
X-174.127 Y-111.291
X-175.174 Y-111.1
X-175.186 Y-111.097
X-176.22 Y-110.9
X-176.231 Y-110.898
X-177.252 Y-110.696
X-177.263 Y-110.694
X-178.271 Y-110.487
X-178.284 Y-110.484
X-179.279 Y-110.271
X-179.291 Y-110.269
X-180.273 Y-110.051
X-180.285 Y-110.048
X-181.253 Y-109.825
X-181.265 Y-109.822
X-182.221 Y-109.594
X-182.236 Y-109.591
X-183.177 Y-109.357
X-183.191 Y-109.353
X-184.12 Y-109.113
X-184.134 Y-109.109
X-185.049 Y-108.864
X-185.064 Y-108.86
X-185.965 Y-108.609
X-185.98 Y-108.605
X-186.868 Y-108.348
X-186.884 Y-108.343
X-187.758 Y-108.08
X-187.773 Y-108.076
X-188.633 Y-107.808
X-188.651 Y-107.802
X-189.498 Y-107.527
X-189.513 Y-107.522
X-190.347 Y-107.242
X-190.367 Y-107.235
X-191.186 Y-106.948
X-191.202 Y-106.943
X-192.008 Y-106.651
X-192.028 Y-106.643
X-192.82 Y-106.344
X-192.84 Y-106.336
X-193.618 Y-106.03
X-193.637 Y-106.023
X-194.401 Y-105.711
X-194.42 Y-105.703
X-195.171 Y-105.385
X-195.192 Y-105.376
X-195.928 Y-105.052
X-195.949 Y-105.042
X-196.672 Y-104.711
X-196.694 Y-104.701
X-197.403 Y-104.363
X-197.426 Y-104.352
X-198.121 Y-104.007
X-198.141 Y-103.997
X-198.823 Y-103.646
X-198.848 Y-103.633
X-199.515 Y-103.275
X-199.538 Y-103.262
X-200.192 Y-102.897
X-200.216 Y-102.883
X-200.856 Y-102.511
X-200.88 Y-102.497
X-201.506 Y-102.118
X-201.532 Y-102.102
X-202.144 Y-101.715
X-202.168 Y-101.7
X-202.766 Y-101.307
X-202.791 Y-101.29
X-203.376 Y-100.89
X-203.402 Y-100.872
X-203.973 Y-100.464
X-203.999 Y-100.445
X-204.556 Y-100.03
X-204.582 Y-100.01
X-205.125 Y-99.587
X-205.15 Y-99.567
X-205.68 Y-99.137
X-205.707 Y-99.115
X-206.223 Y-98.677
X-206.248 Y-98.656
X-206.751 Y-98.21
X-206.779 Y-98.185
X-207.267 Y-97.733
X-207.291 Y-97.71
X-207.767 Y-97.249
X-207.793 Y-97.223
X-208.255 Y-96.755
X-208.281 Y-96.728
X-208.729 Y-96.252
X-208.754 Y-96.225
X-209.189 Y-95.742
X-209.214 Y-95.713
X-209.635 Y-95.221
X-209.659 Y-95.192
X-210.067 Y-94.692
X-210.09 Y-94.663
X-210.485 Y-94.156
X-210.509 Y-94.124
X-210.89 Y-93.608
X-210.912 Y-93.577
X-211.28 Y-93.053
X-211.303 Y-93.02
X-211.657 Y-92.488
X-211.676 Y-92.457
X-212.019 Y-91.917
X-212.04 Y-91.882
X-212.368 Y-91.334
X-212.387 Y-91.301
X-212.702 Y-90.743
X-212.72 Y-90.71
X-213.022 Y-90.145
X-213.04 Y-90.111
X-213.329 Y-89.537
X-213.346 Y-89.503
X-213.622 Y-88.92
X-213.638 Y-88.884
X-213.9 Y-88.293
X-213.914 Y-88.261
X-214.164 Y-87.661
X-214.178 Y-87.627
X-214.415 Y-87.019
X-214.428 Y-86.984
X-214.652 Y-86.368
X-214.665 Y-86.331
X-214.875 Y-85.706
X-214.885 Y-85.674
X-215.083 Y-85.04
X-215.094 Y-85.006
X-215.279 Y-84.363
X-215.288 Y-84.329
X-215.46 Y-83.678
X-215.468 Y-83.647
X-215.628 Y-82.987
X-215.636 Y-82.951
X-215.782 Y-82.282
X-215.788 Y-82.252
X-215.922 Y-81.574
X-215.929 Y-81.539
X-216.049 Y-80.853
X-216.053 Y-80.825
X-216.162 Y-80.13
X-216.167 Y-80.096
X-216.262 Y-79.392
X-216.266 Y-79.361
X-216.348 Y-78.648
X-216.351 Y-78.62
X-216.354 Y-78.588
Z-0.5
X-216.421 Y-77.898
X-216.424 Y-77.868
X-216.481 Y-77.137
X-216.483 Y-77.11
X-216.528 Y-76.37
X-216.529 Y-76.341
X-216.561 Y-75.592
X-216.562 Y-75.564
X-216.581 Y-74.807
Y-74.779
X-216.587 Y-74.012
G2 X-215 Y-72.412 I1.587 J0.012
G1 X-205.999
Z-1.3 F300
X-97.882 F1500
G2 X-97.332 Y-72.511 I0 J-1.588
X-96.782 Y-72.412 I0.55 J-1.489
G1 X-9.587
Z-0.5
X-5
G2 X-3.413 Y-74.013 I0 J-1.588
G1 X-3.419 Y-74.78
Y-74.807
X-3.438 Y-75.564
X-3.439 Y-75.588
Z-1.3 F300
Y-75.592 F1500
X-3.471 Y-76.341
X-3.472 Y-76.369
X-3.517 Y-77.109
X-3.519 Y-77.137
X-3.576 Y-77.868
X-3.579 Y-77.897
X-3.648 Y-78.619
X-3.65 Y-78.638
G3 X-3.369 Y-78.988 I0.316 J-0.034 F1016
G1 X-3.053 Y-79.022
X-2.983 Y-79.03 Z-1.292
X-2.916 Y-79.037 Z-1.269
X-2.857 Y-79.044 Z-1.231
X-2.807 Y-79.049 Z-1.18
X-2.769 Y-79.053 Z-1.12
X-2.746 Y-79.056 Z-1.053
X-2.738 Y-79.057 Z-0.983
Z15 F1500
M5
M30
