(Ruderhorn)
(T14  D=1.5 CR=0 - ZMIN=-2.4 - Schaftfraser)
G90 G94
G17
G21

(Bohrfrasen1)
T14
S4000 M3
G54
G0 X-5.1 Y-5.125
Z15
Z2
G1 Z0.15 F400
X-5.093 Z0.104
X-5.071 Z0.062
X-5.038 Z0.029
X-4.996 Z0.007
X-4.95 Z0
X-4.875
X-4.836 Y-5.119
X-4.802 Y-5.101
X-4.774 Y-5.073
X-4.756 Y-5.039
X-4.75 Y-5
G3 X-5.25 Y-5 Z-0.035 I-0.25 J0 F600
X-4.75 Y-5 Z-0.07 I0.25 J0
X-5.25 Y-5 Z-0.105 I-0.25 J0
X-4.75 Y-5 Z-0.14 I0.25 J0
X-5.25 Y-5 Z-0.175 I-0.25 J0
X-4.75 Y-5 Z-0.21 I0.25 J0
X-5.25 Y-5 Z-0.244 I-0.25 J0
X-4.75 Y-5 Z-0.279 I0.25 J0
X-5.25 Y-5 Z-0.314 I-0.25 J0
X-4.75 Y-5 Z-0.349 I0.25 J0
X-5.25 Y-5 Z-0.384 I-0.25 J0
X-4.75 Y-5 Z-0.419 I0.25 J0
X-5.25 Y-5 Z-0.454 I-0.25 J0
X-4.75 Y-5 Z-0.489 I0.25 J0
X-5.25 Y-5 Z-0.524 I-0.25 J0
X-4.75 Y-5 Z-0.559 I0.25 J0
X-5.25 Y-5 Z-0.594 I-0.25 J0
X-4.75 Y-5 Z-0.629 I0.25 J0
X-5.25 Y-5 Z-0.663 I-0.25 J0
X-4.75 Y-5 Z-0.698 I0.25 J0
X-5.25 Y-5 Z-0.733 I-0.25 J0
X-4.75 Y-5 Z-0.768 I0.25 J0
X-5.25 Y-5 Z-0.803 I-0.25 J0
X-4.75 Y-5 Z-0.838 I0.25 J0
X-5.25 Y-5 Z-0.873 I-0.25 J0
X-4.75 Y-5 Z-0.908 I0.25 J0
X-5.25 Y-5 Z-0.943 I-0.25 J0
X-4.75 Y-5 Z-0.978 I0.25 J0
X-5.25 Y-5 Z-1.013 I-0.25 J0
X-4.75 Y-5 Z-1.048 I0.25 J0
X-5.25 Y-5 Z-1.083 I-0.25 J0
X-4.75 Y-5 Z-1.117 I0.25 J0
X-5.25 Y-5 Z-1.152 I-0.25 J0
X-4.75 Y-5 Z-1.187 I0.25 J0
X-5.25 Y-5 Z-1.222 I-0.25 J0
X-4.75 Y-5 Z-1.257 I0.25 J0
X-5.25 Y-5 Z-1.292 I-0.25 J0
X-4.75 Y-5 Z-1.327 I0.25 J0
X-5.25 Y-5 Z-1.362 I-0.25 J0
X-4.75 Y-5 Z-1.397 I0.25 J0
X-5.25 Y-5 Z-1.432 I-0.25 J0
X-4.75 Y-5 Z-1.467 I0.25 J0
X-5.25 Y-5 Z-1.502 I-0.25 J0
X-4.75 Y-5 Z-1.537 I0.25 J0
X-5.25 Y-5 Z-1.571 I-0.25 J0
X-4.75 Y-5 Z-1.606 I0.25 J0
X-5.25 Y-5 Z-1.641 I-0.25 J0
X-4.75 Y-5 Z-1.676 I0.25 J0
X-5.25 Y-5 Z-1.711 I-0.25 J0
X-4.75 Y-5 Z-1.746 I0.25 J0
X-5.25 Y-5 Z-1.781 I-0.25 J0
X-4.75 Y-5 Z-1.816 I0.25 J0
X-5.25 Y-5 Z-1.851 I-0.25 J0
X-4.75 Y-5 Z-1.886 I0.25 J0
X-5.25 Y-5 Z-1.921 I-0.25 J0
X-4.75 Y-5 Z-1.956 I0.25 J0
X-5.25 Y-5 Z-1.99 I-0.25 J0
X-4.75 Y-5 Z-2.025 I0.25 J0
X-5.25 Y-5 Z-2.06 I-0.25 J0
X-4.75 Y-5 Z-2.095 I0.25 J0
X-5.25 Y-5 Z-2.13 I-0.25 J0
X-4.75 Y-5 Z-2.165 I0.25 J0
X-5.25 Y-5 Z-2.2 I-0.25 J0
X-4.75 Y-5 Z-2.235 I0.25 J0
X-5.25 Y-5 Z-2.27 I-0.25 J0
X-4.75 Y-5 Z-2.305 I0.25 J0
X-5.25 Y-5 Z-2.34 I-0.25 J0
X-4.75 Y-5 Z-2.375 I0.25 J0
X-5.164 Y-4.811 Z-2.4 I-0.25 J0
X-4.836 Y-5.189 I0.164 J-0.189
X-5.164 Y-4.811 I-0.164 J0.189
G1 X-5.189 Y-4.841
X-5.204 Y-4.877
X-5.206 Y-4.916
X-5.197 Y-4.954
X-5.176 Y-4.987
X-5.127 Y-5.044
X-5.097 Y-5.079 Z-2.393
X-5.07 Y-5.111 Z-2.371
X-5.048 Y-5.136 Z-2.338
X-5.034 Y-5.152 Z-2.296
X-5.029 Y-5.157 Z-2.25
G0 Z15

(2D-Kontur1)
X-27.39 Y-57.85
Z15
Z5
G1 Z2.5 F300
X-14.25 Z2.041 F1016
Y-57.15 Z2.017
X-30.75 Z1.44
Y-57.85 Z1.416
X-14.25 Z0.84
Y-57.15 Z0.815
X-30.75 Z0.239
Y-57.85 Z0.215
X-14.25 Z-0.361
Y-57.15 Z-0.386
X-30.75 Z-0.962
Y-57.85 Z-0.987
X-14.25 Z-1.563
Y-57.15 Z-1.587
X-30.75 Z-2.163
Y-57.85 Z-2.188
X-30.4 Z-2.2
X-14.25 F600
Y-57.15
X-30.75
Y-57.85
X-30.4
G0 Z15

(2D-Kontur2)
X-6.962 Y-20.311
Z15
Z5
G1 Z2.5 F300
X-9.322 Y-25.32 Z2.307 F1016
G2 X-10 Y-25.75 Z2.277 I-0.678 J0.32
G1 X-13.25 Z2.164
Y-33 Z1.91
G2 X-16 Y-35.75 Z1.76 I-2.75 J0
G1 X-29 Z1.306
G2 X-31.75 Y-33 Z1.155 I0 J2.75
G1 Y-25.75 Z0.902
X-35 Z0.788
G2 X-35.483 Y-24.426 Z0.724 I0 J0.75
G1 X-8.057 Y-1.364 Z-0.527
G2 X-0.703 Y-7.024 Z-0.977 I3.057 J-3.636
G1 X-9.322 Y-25.32 Z-1.683
G2 X-10 Y-25.75 Z-1.713 I-0.678 J0.32
G1 X-13.25 Z-1.826
Y-33 Z-2.079
G2 X-16 Y-35.75 Z-2.23 I-2.75 J0
G1 X-18 Z-2.3
X-29 F600
G2 X-31.75 Y-33 I0 J2.75
G1 Y-25.75
X-35
G2 X-35.483 Y-24.426 I0 J0.75
G1 X-23.875 Y-14.665
Z-1.8
X-19.665 Y-11.125
Z-2.3 F300
X-8.057 Y-1.364 F600
G2 X-0.703 Y-7.024 I3.057 J-3.636
G1 X-3.84 Y-13.684
Z-1.8
X-6.184 Y-18.66
Z-2.3 F300
X-9.322 Y-25.32 F600
G2 X-10 Y-25.75 I-0.678 J0.32
G1 X-13.25
Y-33
G2 X-16 Y-35.75 I-2.75 J0
G1 X-18
G0 Z15

(2D-Kontur3)
X-12.666 Y-39.441
Z15
Z5
G1 Z2.5 F300
G2 X-9.25 Y-44 Z2.287 I-1.334 J-4.559 F1016
G1 Y-71 Z1.344
G2 X-14 Y-75.75 Z1.083 I-4.75 J0
G1 X-31 Z0.49
G2 X-35.75 Y-71 Z0.229 I0 J4.75
G1 Y-44 Z-0.714
G2 X-31 Y-39.25 Z-0.974 I4.75 J0
G1 X-14 Z-1.568
G2 X-9.25 Y-44 Z-1.829 I0 J-4.75
G1 Y-54.75 Z-2.204
Z-1.8
Y-57.5
Y-60.25 F600
Z-2.3 F300
Y-71 F600
G2 X-14 Y-75.75 I-4.75 J0
G1 X-31
G2 X-35.75 Y-71 I0 J4.75
G1 Y-60.25
Z-1.8
Y-54.75
Z-2.3 F300
Y-44 F600
G2 X-31 Y-39.25 I4.75 J0
G1 X-14
G2 X-9.25 Y-44 I0 J-4.75
G1 Y-54.75
Z-1.8
Y-57.5
G0 Z15
M5
M30
