(Ruderhorn)
(Bearbeiten)
(  Hersteller: ChinaCnc)
(  model: 3040T)
(  description: Generic 3-axis)
(T13 D=1 CR=0 - ZMIN=-1.3 - Schaftfrser)
G90 G94
G17
G21
(-Attention- Property Safe Retracts is set to Clearance Height.)
(Ensure the clearance height will clear the part and or fixtures.)
(Raise the Z-axis to a safe height before starting the program.)
(When using Fusion 360 for Personal Use, the feedrate of)
(rapid moves is reduced to match the feedrate of cutting)
(moves, which can increase machining time. Unrestricted rapid)
(moves are available with a Fusion 360 Subscription.)

(2D-Kontur7)
M0
(MANUAL TOOL CHANGE TO T13)
S4000 M3
G17 G90 G94
G54
G0 X-16.905 Y-17.75
Z15
G1 Z5 F600
Z0.2 F100
Z-0.15
Y-17.758 Z-0.188 F600
Y-17.779 Z-0.221
Y-17.812 Z-0.242
Y-17.85 Z-0.25
Y-17.95
X-16.897 Y-17.988
X-16.875 Y-18.021
X-16.843 Y-18.042
X-16.805 Y-18.05
X-12.5
Y-17.95
X-15
X-16.5
X-16.866
X-16.904 Y-17.958
X-16.936 Y-17.979
X-16.958 Y-18.012
X-16.966 Y-18.05
Y-18.15
Y-18.188 Z-0.242
Y-18.221 Z-0.221
Y-18.242 Z-0.188
Y-18.25 Z-0.15
Z5
X-16.905 Y-17.75
Z-0.05 F100
Z-0.4
Y-17.758 Z-0.438 F600
Y-17.779 Z-0.471
Y-17.812 Z-0.492
Y-17.85 Z-0.5
Y-17.95
X-16.897 Y-17.988
X-16.875 Y-18.021
X-16.843 Y-18.042
X-16.805 Y-18.05
X-12.5
Y-17.95
X-15
X-16.5
X-16.866
X-16.904 Y-17.958
X-16.936 Y-17.979
X-16.958 Y-18.012
X-16.966 Y-18.05
Y-18.15
Y-18.188 Z-0.492
Y-18.221 Z-0.471
Y-18.242 Z-0.438
Y-18.25 Z-0.4
Z5
X-16.905 Y-17.75
Z-0.3 F100
Z-0.65
Y-17.758 Z-0.688 F600
Y-17.779 Z-0.721
Y-17.812 Z-0.742
Y-17.85 Z-0.75
Y-17.95
X-16.897 Y-17.988
X-16.875 Y-18.021
X-16.843 Y-18.042
X-16.805 Y-18.05
X-12.5
Y-17.95
X-15
X-16.5
X-16.866
X-16.904 Y-17.958
X-16.936 Y-17.979
X-16.958 Y-18.012
X-16.966 Y-18.05
Y-18.15
Y-18.188 Z-0.742
Y-18.221 Z-0.721
Y-18.242 Z-0.688
Y-18.25 Z-0.65
Z5
X-16.905 Y-17.75
Z-0.55 F100
Z-0.9
Y-17.758 Z-0.938 F600
Y-17.779 Z-0.971
Y-17.812 Z-0.992
Y-17.85 Z-1
Y-17.95
X-16.897 Y-17.988
X-16.875 Y-18.021
X-16.843 Y-18.042
X-16.805 Y-18.05
X-12.5
Y-17.95
X-15
X-16.5
X-16.866
X-16.904 Y-17.958
X-16.936 Y-17.979
X-16.958 Y-18.012
X-16.966 Y-18.05
Y-18.15
Y-18.188 Z-0.992
Y-18.221 Z-0.971
Y-18.242 Z-0.938
Y-18.25 Z-0.9
Z5
X-16.905 Y-17.75
Z-0.8 F100
Z-1.05
Y-17.758 Z-1.088 F600
Y-17.779 Z-1.121
Y-17.812 Z-1.142
Y-17.85 Z-1.15
Y-17.95
X-16.897 Y-17.988
X-16.875 Y-18.021
X-16.843 Y-18.042
X-16.805 Y-18.05
X-12.5
Y-17.95
X-15
X-16.5
X-16.866
X-16.904 Y-17.958
X-16.936 Y-17.979
X-16.958 Y-18.012
X-16.966 Y-18.05
Y-18.15
Y-18.188 Z-1.142
Y-18.221 Z-1.121
Y-18.242 Z-1.088
Y-18.25 Z-1.05
Z5
X-16.905 Y-17.75
Z-0.95 F100
Z-1.2
Y-17.758 Z-1.238 F600
Y-17.779 Z-1.271
Y-17.812 Z-1.292
Y-17.85 Z-1.3
Y-17.95
X-16.897 Y-17.988
X-16.875 Y-18.021
X-16.843 Y-18.042
X-16.805 Y-18.05
X-12.5
Y-17.95
X-15
X-16.5
X-16.866
X-16.904 Y-17.958
X-16.936 Y-17.979
X-16.958 Y-18.012
X-16.966 Y-18.05
Y-18.15
Y-18.188 Z-1.292
Y-18.221 Z-1.271
Y-18.242 Z-1.238
Y-18.25 Z-1.2
Z15
(When using Fusion 360 for Personal Use, the feedrate of)
(rapid moves is reduced to match the feedrate of cutting)
(moves, which can increase machining time. Unrestricted rapid)
(moves are available with a Fusion 360 Subscription.)

(2D-Kontur7)
G0 X-26.905 Y-17.75
G1 Z15 F600
Z5
Z0.2 F100
Z-0.15
Y-17.758 Z-0.188 F600
Y-17.779 Z-0.221
Y-17.812 Z-0.242
Y-17.85 Z-0.25
Y-17.95
X-26.897 Y-17.988
X-26.875 Y-18.021
X-26.843 Y-18.042
X-26.805 Y-18.05
X-22.5
Y-17.95
X-25
X-26.5
X-26.866
X-26.904 Y-17.958
X-26.936 Y-17.979
X-26.958 Y-18.012
X-26.966 Y-18.05
Y-18.15
Y-18.188 Z-0.242
Y-18.221 Z-0.221
Y-18.242 Z-0.188
Y-18.25 Z-0.15
Z5
X-26.905 Y-17.75
Z-0.05 F100
Z-0.4
Y-17.758 Z-0.438 F600
Y-17.779 Z-0.471
Y-17.812 Z-0.492
Y-17.85 Z-0.5
Y-17.95
X-26.897 Y-17.988
X-26.875 Y-18.021
X-26.843 Y-18.042
X-26.805 Y-18.05
X-22.5
Y-17.95
X-25
X-26.5
X-26.866
X-26.904 Y-17.958
X-26.936 Y-17.979
X-26.958 Y-18.012
X-26.966 Y-18.05
Y-18.15
Y-18.188 Z-0.492
Y-18.221 Z-0.471
Y-18.242 Z-0.438
Y-18.25 Z-0.4
Z5
X-26.905 Y-17.75
Z-0.3 F100
Z-0.65
Y-17.758 Z-0.688 F600
Y-17.779 Z-0.721
Y-17.812 Z-0.742
Y-17.85 Z-0.75
Y-17.95
X-26.897 Y-17.988
X-26.875 Y-18.021
X-26.843 Y-18.042
X-26.805 Y-18.05
X-22.5
Y-17.95
X-25
X-26.5
X-26.866
X-26.904 Y-17.958
X-26.936 Y-17.979
X-26.958 Y-18.012
X-26.966 Y-18.05
Y-18.15
Y-18.188 Z-0.742
Y-18.221 Z-0.721
Y-18.242 Z-0.688
Y-18.25 Z-0.65
Z5
X-26.905 Y-17.75
Z-0.55 F100
Z-0.9
Y-17.758 Z-0.938 F600
Y-17.779 Z-0.971
Y-17.812 Z-0.992
Y-17.85 Z-1
Y-17.95
X-26.897 Y-17.988
X-26.875 Y-18.021
X-26.843 Y-18.042
X-26.805 Y-18.05
X-22.5
Y-17.95
X-25
X-26.5
X-26.866
X-26.904 Y-17.958
X-26.936 Y-17.979
X-26.958 Y-18.012
X-26.966 Y-18.05
Y-18.15
Y-18.188 Z-0.992
Y-18.221 Z-0.971
Y-18.242 Z-0.938
Y-18.25 Z-0.9
Z5
X-26.905 Y-17.75
Z-0.8 F100
Z-1.05
Y-17.758 Z-1.088 F600
Y-17.779 Z-1.121
Y-17.812 Z-1.142
Y-17.85 Z-1.15
Y-17.95
X-26.897 Y-17.988
X-26.875 Y-18.021
X-26.843 Y-18.042
X-26.805 Y-18.05
X-22.5
Y-17.95
X-25
X-26.5
X-26.866
X-26.904 Y-17.958
X-26.936 Y-17.979
X-26.958 Y-18.012
X-26.966 Y-18.05
Y-18.15
Y-18.188 Z-1.142
Y-18.221 Z-1.121
Y-18.242 Z-1.088
Y-18.25 Z-1.05
Z5
X-26.905 Y-17.75
Z-0.95 F100
Z-1.2
Y-17.758 Z-1.238 F600
Y-17.779 Z-1.271
Y-17.812 Z-1.292
Y-17.85 Z-1.3
Y-17.95
X-26.897 Y-17.988
X-26.875 Y-18.021
X-26.843 Y-18.042
X-26.805 Y-18.05
X-22.5
Y-17.95
X-25
X-26.5
X-26.866
X-26.904 Y-17.958
X-26.936 Y-17.979
X-26.958 Y-18.012
X-26.966 Y-18.05
Y-18.15
Y-18.188 Z-1.292
Y-18.221 Z-1.271
Y-18.242 Z-1.238
Y-18.25 Z-1.2
Z15
M5
M30
