(Ruderhorn2)
(Bearbeiten)
(  Hersteller: ChinaCnc)
(  model: 3040T)
(  description: Generic 3-axis)
(T14 D=1.5 CR=0 - ZMIN=-1.3 - Schaftfrser)
G90 G94
G17
G21
(-Attention- Property Safe Retracts is set to Clearance Height.)
(Ensure the clearance height will clear the part and or fixtures.)
(Raise the Z-axis to a safe height before starting the program.)
(When using Fusion 360 for Personal Use, the feedrate of)
(rapid moves is reduced to match the feedrate of cutting)
(moves, which can increase machining time. Unrestricted rapid)
(moves are available with a Fusion 360 Subscription.)

(Bohrfrsen3)
M0
(MANUAL TOOL CHANGE TO T14)
S6000 M3
G17 G90 G94
G54
G0 X-7.875 Y-8.1
Z15
G1 Z2 F600
Z0.15 F400
Y-8.093 Z0.104
Y-8.071 Z0.062
Y-8.038 Z0.029
Y-7.996 Z0.007
Y-7.95 Z0
Y-7.875
X-7.881 Y-7.836
X-7.899 Y-7.802
X-7.927 Y-7.774
X-7.961 Y-7.756
X-8 Y-7.75
G3 X-8 Y-8.25 Z-0.026 I0 J-0.25 F600
X-8 Y-7.75 Z-0.052 I0 J0.25
X-8 Y-8.25 Z-0.079 I0 J-0.25
X-8 Y-7.75 Z-0.105 I0 J0.25
X-8 Y-8.25 Z-0.131 I0 J-0.25
X-8 Y-7.75 Z-0.157 I0 J0.25
X-8 Y-8.25 Z-0.183 I0 J-0.25
X-8 Y-7.75 Z-0.209 I0 J0.25
X-8 Y-8.25 Z-0.236 I0 J-0.25
X-8 Y-7.75 Z-0.262 I0 J0.25
X-8 Y-8.25 Z-0.288 I0 J-0.25
X-8 Y-7.75 Z-0.314 I0 J0.25
X-8 Y-8.25 Z-0.34 I0 J-0.25
X-8 Y-7.75 Z-0.367 I0 J0.25
X-8 Y-8.25 Z-0.393 I0 J-0.25
X-8 Y-7.75 Z-0.419 I0 J0.25
X-8 Y-8.25 Z-0.445 I0 J-0.25
X-8 Y-7.75 Z-0.471 I0 J0.25
X-8 Y-8.25 Z-0.498 I0 J-0.25
X-8 Y-7.75 Z-0.524 I0 J0.25
X-8 Y-8.25 Z-0.55 I0 J-0.25
X-8 Y-7.75 Z-0.576 I0 J0.25
X-8 Y-8.25 Z-0.602 I0 J-0.25
X-8 Y-7.75 Z-0.628 I0 J0.25
X-8 Y-8.25 Z-0.655 I0 J-0.25
X-8 Y-7.75 Z-0.681 I0 J0.25
X-8 Y-8.25 Z-0.707 I0 J-0.25
X-8 Y-7.75 Z-0.733 I0 J0.25
X-8 Y-8.25 Z-0.759 I0 J-0.25
X-8 Y-7.75 Z-0.786 I0 J0.25
X-8 Y-8.25 Z-0.812 I0 J-0.25
X-8 Y-7.75 Z-0.838 I0 J0.25
X-8 Y-8.25 Z-0.864 I0 J-0.25
X-8 Y-7.75 Z-0.89 I0 J0.25
X-8 Y-8.25 Z-0.917 I0 J-0.25
X-8 Y-7.75 Z-0.943 I0 J0.25
X-8 Y-8.25 Z-0.969 I0 J-0.25
X-8 Y-7.75 Z-0.995 I0 J0.25
X-8 Y-8.25 Z-1.021 I0 J-0.25
X-8 Y-7.75 Z-1.047 I0 J0.25
X-8 Y-8.25 Z-1.074 I0 J-0.25
X-8 Y-7.75 Z-1.1 I0 J0.25
X-8 Y-8.25 Z-1.126 I0 J-0.25
X-8 Y-7.75 Z-1.152 I0 J0.25
X-8 Y-8.25 Z-1.178 I0 J-0.25
X-8 Y-7.75 Z-1.205 I0 J0.25
X-8 Y-8.25 Z-1.231 I0 J-0.25
X-8 Y-7.75 Z-1.257 I0 J0.25
X-8 Y-8.25 Z-1.283 I0 J-0.25
X-7.775 Y-7.89 Z-1.3 I0 J0.25
X-8.225 Y-8.11 I-0.225 J-0.11
X-7.775 Y-7.89 I0.225 J0.11
G1 X-7.798 Y-7.858
X-7.829 Y-7.835
X-7.866 Y-7.822
X-7.905 Y-7.821
X-7.943 Y-7.833
X-8.01 Y-7.866
X-8.052 Y-7.886 Z-1.293
X-8.089 Y-7.905 Z-1.271
X-8.119 Y-7.919 Z-1.238
X-8.138 Y-7.929 Z-1.196
X-8.145 Y-7.932 Z-1.15
Z5
X-7.875 Y-28.1
Z2
Z0.15 F400
Y-28.093 Z0.104
Y-28.071 Z0.062
Y-28.038 Z0.029
Y-27.996 Z0.007
Y-27.95 Z0
Y-27.875
X-7.881 Y-27.836
X-7.899 Y-27.802
X-7.927 Y-27.774
X-7.961 Y-27.756
X-8 Y-27.75
G3 X-8 Y-28.25 Z-0.026 I0 J-0.25 F600
X-8 Y-27.75 Z-0.052 I0 J0.25
X-8 Y-28.25 Z-0.079 I0 J-0.25
X-8 Y-27.75 Z-0.105 I0 J0.25
X-8 Y-28.25 Z-0.131 I0 J-0.25
X-8 Y-27.75 Z-0.157 I0 J0.25
X-8 Y-28.25 Z-0.183 I0 J-0.25
X-8 Y-27.75 Z-0.209 I0 J0.25
X-8 Y-28.25 Z-0.236 I0 J-0.25
X-8 Y-27.75 Z-0.262 I0 J0.25
X-8 Y-28.25 Z-0.288 I0 J-0.25
X-8 Y-27.75 Z-0.314 I0 J0.25
X-8 Y-28.25 Z-0.34 I0 J-0.25
X-8 Y-27.75 Z-0.367 I0 J0.25
X-8 Y-28.25 Z-0.393 I0 J-0.25
X-8 Y-27.75 Z-0.419 I0 J0.25
X-8 Y-28.25 Z-0.445 I0 J-0.25
X-8 Y-27.75 Z-0.471 I0 J0.25
X-8 Y-28.25 Z-0.498 I0 J-0.25
X-8 Y-27.75 Z-0.524 I0 J0.25
X-8 Y-28.25 Z-0.55 I0 J-0.25
X-8 Y-27.75 Z-0.576 I0 J0.25
X-8 Y-28.25 Z-0.602 I0 J-0.25
X-8 Y-27.75 Z-0.628 I0 J0.25
X-8 Y-28.25 Z-0.655 I0 J-0.25
X-8 Y-27.75 Z-0.681 I0 J0.25
X-8 Y-28.25 Z-0.707 I0 J-0.25
X-8 Y-27.75 Z-0.733 I0 J0.25
X-8 Y-28.25 Z-0.759 I0 J-0.25
X-8 Y-27.75 Z-0.786 I0 J0.25
X-8 Y-28.25 Z-0.812 I0 J-0.25
X-8 Y-27.75 Z-0.838 I0 J0.25
X-8 Y-28.25 Z-0.864 I0 J-0.25
X-8 Y-27.75 Z-0.89 I0 J0.25
X-8 Y-28.25 Z-0.917 I0 J-0.25
X-8 Y-27.75 Z-0.943 I0 J0.25
X-8 Y-28.25 Z-0.969 I0 J-0.25
X-8 Y-27.75 Z-0.995 I0 J0.25
X-8 Y-28.25 Z-1.021 I0 J-0.25
X-8 Y-27.75 Z-1.047 I0 J0.25
X-8 Y-28.25 Z-1.074 I0 J-0.25
X-8 Y-27.75 Z-1.1 I0 J0.25
X-8 Y-28.25 Z-1.126 I0 J-0.25
X-8 Y-27.75 Z-1.152 I0 J0.25
X-8 Y-28.25 Z-1.178 I0 J-0.25
X-8 Y-27.75 Z-1.205 I0 J0.25
X-8 Y-28.25 Z-1.231 I0 J-0.25
X-8 Y-27.75 Z-1.257 I0 J0.25
X-8 Y-28.25 Z-1.283 I0 J-0.25
X-7.775 Y-27.89 Z-1.3 I0 J0.25
X-8.225 Y-28.11 I-0.225 J-0.11
X-7.775 Y-27.89 I0.225 J0.11
G1 X-7.798 Y-27.858
X-7.829 Y-27.835
X-7.866 Y-27.822
X-7.905 Y-27.821
X-7.943 Y-27.833
X-8.01 Y-27.866
X-8.052 Y-27.886 Z-1.293
X-8.089 Y-27.905 Z-1.271
X-8.119 Y-27.919 Z-1.238
X-8.138 Y-27.929 Z-1.196
X-8.145 Y-27.932 Z-1.15
Z15
(When using Fusion 360 for Personal Use, the feedrate of)
(rapid moves is reduced to match the feedrate of cutting)
(moves, which can increase machining time. Unrestricted rapid)
(moves are available with a Fusion 360 Subscription.)

(2D-Kontur10)
G0 X-6.36 Y-31.372
G1 Z15 F600
Z5
Z2.5 F300
G2 X-11.483 Y-29.39 Z2.392 I-1.64 J3.372 F1016
G1 X-15.697 Y-18.828 Z2.194
G2 X-15.51 Y-18 Z2.178 I0.697 J0.278
X-15.697 Y-17.172 Z2.162 I0.51 J0.55
G1 X-11.483 Y-6.61 Z1.964
G2 X-4.444 Y-9.19 Z1.762 I3.483 J-1.39
G1 X-7.25 Y-17.572 Z1.608
Y-18.428 Z1.593
X-4.444 Y-26.81 Z1.438
G2 X-11.483 Y-29.39 Z1.237 I-3.556 J-1.19
G1 X-15.697 Y-18.828 Z1.038
G2 X-15.51 Y-18 Z1.022 I0.697 J0.278
X-15.697 Y-17.172 Z1.007 I0.51 J0.55
G1 X-11.483 Y-6.61 Z0.808
G2 X-4.444 Y-9.19 Z0.606 I3.483 J-1.39
G1 X-7.25 Y-17.572 Z0.452
Y-18.428 Z0.437
X-4.444 Y-26.81 Z0.283
G2 X-11.483 Y-29.39 Z0.081 I-3.556 J-1.19
G1 X-15.697 Y-18.828 Z-0.118
G2 X-15.51 Y-18 Z-0.134 I0.697 J0.278
X-15.697 Y-17.172 Z-0.149 I0.51 J0.55
G1 X-11.483 Y-6.61 Z-0.348
G2 X-4.444 Y-9.19 Z-0.55 I3.483 J-1.39
G1 X-7.25 Y-17.572 Z-0.704
Y-18.428 Z-0.719
X-4.444 Y-26.81 Z-0.873
G2 X-11.483 Y-29.39 Z-1.075 I-3.556 J-1.19
G1 X-15.697 Y-18.828 Z-1.274
G2 X-15.51 Y-18 Z-1.289 I0.697 J0.278
X-15.75 Y-17.456 Z-1.3 I0.51 J0.55
X-15.697 Y-17.172 I0.75 J0.006 F600
G1 X-11.483 Y-6.61
G2 X-4.444 Y-9.19 I3.483 J-1.39
G1 X-7.25 Y-17.572
Y-18.428
X-4.444 Y-26.81
G2 X-11.483 Y-29.39 I-3.556 J-1.19
G1 X-15.697 Y-18.828
G2 X-15.51 Y-18 I0.697 J0.278
X-15.75 Y-17.456 I0.51 J0.55
G1 Z15
(When using Fusion 360 for Personal Use, the feedrate of)
(rapid moves is reduced to match the feedrate of cutting)
(moves, which can increase machining time. Unrestricted rapid)
(moves are available with a Fusion 360 Subscription.)

(Bohrfrsen3)
G0 X-17.875 Y-8.1
G1 Z15 F600
Z2
Z0.15 F400
Y-8.093 Z0.104
Y-8.071 Z0.062
Y-8.038 Z0.029
Y-7.996 Z0.007
Y-7.95 Z0
Y-7.875
X-17.881 Y-7.836
X-17.899 Y-7.802
X-17.927 Y-7.774
X-17.961 Y-7.756
X-18 Y-7.75
G3 X-18 Y-8.25 Z-0.026 I0 J-0.25 F600
X-18 Y-7.75 Z-0.052 I0 J0.25
X-18 Y-8.25 Z-0.079 I0 J-0.25
X-18 Y-7.75 Z-0.105 I0 J0.25
X-18 Y-8.25 Z-0.131 I0 J-0.25
X-18 Y-7.75 Z-0.157 I0 J0.25
X-18 Y-8.25 Z-0.183 I0 J-0.25
X-18 Y-7.75 Z-0.209 I0 J0.25
X-18 Y-8.25 Z-0.236 I0 J-0.25
X-18 Y-7.75 Z-0.262 I0 J0.25
X-18 Y-8.25 Z-0.288 I0 J-0.25
X-18 Y-7.75 Z-0.314 I0 J0.25
X-18 Y-8.25 Z-0.34 I0 J-0.25
X-18 Y-7.75 Z-0.367 I0 J0.25
X-18 Y-8.25 Z-0.393 I0 J-0.25
X-18 Y-7.75 Z-0.419 I0 J0.25
X-18 Y-8.25 Z-0.445 I0 J-0.25
X-18 Y-7.75 Z-0.471 I0 J0.25
X-18 Y-8.25 Z-0.498 I0 J-0.25
X-18 Y-7.75 Z-0.524 I0 J0.25
X-18 Y-8.25 Z-0.55 I0 J-0.25
X-18 Y-7.75 Z-0.576 I0 J0.25
X-18 Y-8.25 Z-0.602 I0 J-0.25
X-18 Y-7.75 Z-0.628 I0 J0.25
X-18 Y-8.25 Z-0.655 I0 J-0.25
X-18 Y-7.75 Z-0.681 I0 J0.25
X-18 Y-8.25 Z-0.707 I0 J-0.25
X-18 Y-7.75 Z-0.733 I0 J0.25
X-18 Y-8.25 Z-0.759 I0 J-0.25
X-18 Y-7.75 Z-0.786 I0 J0.25
X-18 Y-8.25 Z-0.812 I0 J-0.25
X-18 Y-7.75 Z-0.838 I0 J0.25
X-18 Y-8.25 Z-0.864 I0 J-0.25
X-18 Y-7.75 Z-0.89 I0 J0.25
X-18 Y-8.25 Z-0.917 I0 J-0.25
X-18 Y-7.75 Z-0.943 I0 J0.25
X-18 Y-8.25 Z-0.969 I0 J-0.25
X-18 Y-7.75 Z-0.995 I0 J0.25
X-18 Y-8.25 Z-1.021 I0 J-0.25
X-18 Y-7.75 Z-1.047 I0 J0.25
X-18 Y-8.25 Z-1.074 I0 J-0.25
X-18 Y-7.75 Z-1.1 I0 J0.25
X-18 Y-8.25 Z-1.126 I0 J-0.25
X-18 Y-7.75 Z-1.152 I0 J0.25
X-18 Y-8.25 Z-1.178 I0 J-0.25
X-18 Y-7.75 Z-1.205 I0 J0.25
X-18 Y-8.25 Z-1.231 I0 J-0.25
X-18 Y-7.75 Z-1.257 I0 J0.25
X-18 Y-8.25 Z-1.283 I0 J-0.25
X-17.775 Y-7.89 Z-1.3 I0 J0.25
X-18.225 Y-8.11 I-0.225 J-0.11
X-17.775 Y-7.89 I0.225 J0.11
G1 X-17.798 Y-7.858
X-17.829 Y-7.835
X-17.866 Y-7.822
X-17.905 Y-7.821
X-17.943 Y-7.833
X-18.01 Y-7.866
X-18.052 Y-7.886 Z-1.293
X-18.089 Y-7.905 Z-1.271
X-18.119 Y-7.919 Z-1.238
X-18.138 Y-7.929 Z-1.196
X-18.145 Y-7.932 Z-1.15
Z5
X-17.875 Y-28.1
Z2
Z0.15 F400
Y-28.093 Z0.104
Y-28.071 Z0.062
Y-28.038 Z0.029
Y-27.996 Z0.007
Y-27.95 Z0
Y-27.875
X-17.881 Y-27.836
X-17.899 Y-27.802
X-17.927 Y-27.774
X-17.961 Y-27.756
X-18 Y-27.75
G3 X-18 Y-28.25 Z-0.026 I0 J-0.25 F600
X-18 Y-27.75 Z-0.052 I0 J0.25
X-18 Y-28.25 Z-0.079 I0 J-0.25
X-18 Y-27.75 Z-0.105 I0 J0.25
X-18 Y-28.25 Z-0.131 I0 J-0.25
X-18 Y-27.75 Z-0.157 I0 J0.25
X-18 Y-28.25 Z-0.183 I0 J-0.25
X-18 Y-27.75 Z-0.209 I0 J0.25
X-18 Y-28.25 Z-0.236 I0 J-0.25
X-18 Y-27.75 Z-0.262 I0 J0.25
X-18 Y-28.25 Z-0.288 I0 J-0.25
X-18 Y-27.75 Z-0.314 I0 J0.25
X-18 Y-28.25 Z-0.34 I0 J-0.25
X-18 Y-27.75 Z-0.367 I0 J0.25
X-18 Y-28.25 Z-0.393 I0 J-0.25
X-18 Y-27.75 Z-0.419 I0 J0.25
X-18 Y-28.25 Z-0.445 I0 J-0.25
X-18 Y-27.75 Z-0.471 I0 J0.25
X-18 Y-28.25 Z-0.498 I0 J-0.25
X-18 Y-27.75 Z-0.524 I0 J0.25
X-18 Y-28.25 Z-0.55 I0 J-0.25
X-18 Y-27.75 Z-0.576 I0 J0.25
X-18 Y-28.25 Z-0.602 I0 J-0.25
X-18 Y-27.75 Z-0.628 I0 J0.25
X-18 Y-28.25 Z-0.655 I0 J-0.25
X-18 Y-27.75 Z-0.681 I0 J0.25
X-18 Y-28.25 Z-0.707 I0 J-0.25
X-18 Y-27.75 Z-0.733 I0 J0.25
X-18 Y-28.25 Z-0.759 I0 J-0.25
X-18 Y-27.75 Z-0.786 I0 J0.25
X-18 Y-28.25 Z-0.812 I0 J-0.25
X-18 Y-27.75 Z-0.838 I0 J0.25
X-18 Y-28.25 Z-0.864 I0 J-0.25
X-18 Y-27.75 Z-0.89 I0 J0.25
X-18 Y-28.25 Z-0.917 I0 J-0.25
X-18 Y-27.75 Z-0.943 I0 J0.25
X-18 Y-28.25 Z-0.969 I0 J-0.25
X-18 Y-27.75 Z-0.995 I0 J0.25
X-18 Y-28.25 Z-1.021 I0 J-0.25
X-18 Y-27.75 Z-1.047 I0 J0.25
X-18 Y-28.25 Z-1.074 I0 J-0.25
X-18 Y-27.75 Z-1.1 I0 J0.25
X-18 Y-28.25 Z-1.126 I0 J-0.25
X-18 Y-27.75 Z-1.152 I0 J0.25
X-18 Y-28.25 Z-1.178 I0 J-0.25
X-18 Y-27.75 Z-1.205 I0 J0.25
X-18 Y-28.25 Z-1.231 I0 J-0.25
X-18 Y-27.75 Z-1.257 I0 J0.25
X-18 Y-28.25 Z-1.283 I0 J-0.25
X-17.775 Y-27.89 Z-1.3 I0 J0.25
X-18.225 Y-28.11 I-0.225 J-0.11
X-17.775 Y-27.89 I0.225 J0.11
G1 X-17.798 Y-27.858
X-17.829 Y-27.835
X-17.866 Y-27.822
X-17.905 Y-27.821
X-17.943 Y-27.833
X-18.01 Y-27.866
X-18.052 Y-27.886 Z-1.293
X-18.089 Y-27.905 Z-1.271
X-18.119 Y-27.919 Z-1.238
X-18.138 Y-27.929 Z-1.196
X-18.145 Y-27.932 Z-1.15
Z15
(When using Fusion 360 for Personal Use, the feedrate of)
(rapid moves is reduced to match the feedrate of cutting)
(moves, which can increase machining time. Unrestricted rapid)
(moves are available with a Fusion 360 Subscription.)

(2D-Kontur10)
G0 X-16.36 Y-31.372
G1 Z15 F600
Z5
Z2.5 F300
G2 X-21.483 Y-29.39 Z2.392 I-1.64 J3.372 F1016
G1 X-25.697 Y-18.828 Z2.194
G2 X-25.51 Y-18 Z2.178 I0.697 J0.278
X-25.697 Y-17.172 Z2.162 I0.51 J0.55
G1 X-21.483 Y-6.61 Z1.964
G2 X-14.444 Y-9.19 Z1.762 I3.483 J-1.39
G1 X-17.25 Y-17.572 Z1.608
Y-18.428 Z1.593
X-14.444 Y-26.81 Z1.438
G2 X-21.483 Y-29.39 Z1.237 I-3.556 J-1.19
G1 X-25.697 Y-18.828 Z1.038
G2 X-25.51 Y-18 Z1.022 I0.697 J0.278
X-25.697 Y-17.172 Z1.007 I0.51 J0.55
G1 X-21.483 Y-6.61 Z0.808
G2 X-14.444 Y-9.19 Z0.606 I3.483 J-1.39
G1 X-17.25 Y-17.572 Z0.452
Y-18.428 Z0.437
X-14.444 Y-26.81 Z0.283
G2 X-21.483 Y-29.39 Z0.081 I-3.556 J-1.19
G1 X-25.697 Y-18.828 Z-0.118
G2 X-25.51 Y-18 Z-0.134 I0.697 J0.278
X-25.697 Y-17.172 Z-0.149 I0.51 J0.55
G1 X-21.483 Y-6.61 Z-0.348
G2 X-14.444 Y-9.19 Z-0.55 I3.483 J-1.39
G1 X-17.25 Y-17.572 Z-0.704
Y-18.428 Z-0.719
X-14.444 Y-26.81 Z-0.873
G2 X-21.483 Y-29.39 Z-1.075 I-3.556 J-1.19
G1 X-25.697 Y-18.828 Z-1.274
G2 X-25.51 Y-18 Z-1.289 I0.697 J0.278
X-25.75 Y-17.456 Z-1.3 I0.51 J0.55
X-25.697 Y-17.172 I0.75 J0.006 F600
G1 X-21.483 Y-6.61
G2 X-14.444 Y-9.19 I3.483 J-1.39
G1 X-17.25 Y-17.572
Y-18.428
X-14.444 Y-26.81
G2 X-21.483 Y-29.39 I-3.556 J-1.19
G1 X-25.697 Y-18.828
G2 X-25.51 Y-18 I0.697 J0.278
X-25.75 Y-17.456 I0.51 J0.55
G1 Z15
M5
M30
