(1001)
(Bearbeiten)
(  Hersteller: ChinaCnc)
(  model: 3040T)
(  description: Generic 3-axis)
(T16  D=6 CR=0 - ZMIN=-30.3 - Schaftfraser)
G90 G94
G17
G21
(When using Fusion 360 for Personal Use, the feedrate of)
(rapid moves is reduced to match the feedrate of cutting)
(moves, which can increase machining time. Unrestricted rapid)
(moves are available with a Fusion 360 Subscription.)

(2D Adaptive2)
T16
S6000 M3
G54
G0 X-16.622 Y-36.414
Z5
G1 Z3 F1000
Z2.55
Z-7 F333.3
X-16.621 Y-36.451 F1000
X-16.584 Y-36.443
X-16.568 Y-36.409
X-16.579 Y-36.373
X-16.61 Y-36.352
X-16.647 Y-36.353
X-16.681 Y-36.37
X-16.705 Y-36.399
X-16.718 Y-36.434
X-16.716 Y-36.471
X-16.701 Y-36.506
X-16.676 Y-36.534
X-16.644 Y-36.554
X-16.572 Y-36.574
X-16.499 Y-36.559
X-16.439 Y-36.514
X-16.399 Y-36.451
X-16.385 Y-36.377
X-16.394 Y-36.303
X-16.426 Y-36.235
X-16.527 Y-36.123
X-16.669 Y-36.076
X-16.818 Y-36.095
X-16.947 Y-36.171
X-17.04 Y-36.289
X-17.087 Y-36.431
X-17.086 Y-36.581
X-17.041 Y-36.725
X-16.957 Y-36.849
X-16.844 Y-36.947
X-16.709 Y-37.013
X-16.562 Y-37.043
X-16.412 Y-37.038
X-16.268 Y-36.998
X-16.136 Y-36.927
X-16.022 Y-36.829
X-15.931 Y-36.71
X-15.866 Y-36.575
X-15.826 Y-36.43
X-15.814 Y-36.28
X-15.83 Y-36.131
X-15.871 Y-35.987
X-15.936 Y-35.852
X-16.023 Y-35.73
X-16.128 Y-35.623
X-16.25 Y-35.535
X-16.383 Y-35.467
X-16.526 Y-35.419
X-16.674 Y-35.394
X-16.823 Y-35.39
X-16.972 Y-35.408
X-17.117 Y-35.447
X-17.256 Y-35.505
X-17.384 Y-35.582
X-17.502 Y-35.675
X-17.607 Y-35.783
X-17.697 Y-35.903
X-17.771 Y-36.033
X-17.829 Y-36.171
X-17.869 Y-36.316
X-17.892 Y-36.464
X-17.898 Y-36.614
X-17.886 Y-36.763
X-17.857 Y-36.911
X-17.812 Y-37.054
X-17.75 Y-37.191
X-17.675 Y-37.32
X-17.586 Y-37.441
X-17.485 Y-37.552
X-17.372 Y-37.651
X-17.25 Y-37.738
X-17.12 Y-37.812
X-16.982 Y-37.872
X-16.84 Y-37.919
X-16.693 Y-37.951
X-16.544 Y-37.969
X-16.394 Y-37.971
X-16.245 Y-37.96
X-16.097 Y-37.934
X-15.952 Y-37.895
X-15.812 Y-37.843
X-15.676 Y-37.777
X-15.548 Y-37.7
X-15.427 Y-37.612
X-15.314 Y-37.513
X-15.21 Y-37.405
X-15.116 Y-37.288
X-15.032 Y-37.164
X-14.959 Y-37.032
X-14.898 Y-36.895
X-14.848 Y-36.754
X-14.811 Y-36.609
X-14.785 Y-36.461
X-14.771 Y-36.308
X-14.769 Y-36.158
X-14.781 Y-36.004
X-14.803 Y-35.855
X-14.84 Y-35.703
X-14.887 Y-35.557
X-14.948 Y-35.409
X-15.019 Y-35.271
X-15.104 Y-35.133
X-15.197 Y-35.007
X-15.306 Y-34.881
X-15.42 Y-34.769
X-15.549 Y-34.662
X-15.683 Y-34.567
X-15.828 Y-34.481
X-15.98 Y-34.407
X-16.138 Y-34.345
X-16.303 Y-34.295
X-16.469 Y-34.259
X-16.645 Y-34.236
X-16.819 Y-34.226
X-16.996 Y-34.231
X-17.175 Y-34.251
X-17.35 Y-34.284
X-17.528 Y-34.333
X-17.698 Y-34.395
X-17.865 Y-34.471
X-18.03 Y-34.563
X-18.183 Y-34.667
X-18.331 Y-34.784
X-18.472 Y-34.915
X-18.6 Y-35.056
X-18.719 Y-35.209
X-18.827 Y-35.374
X-18.92 Y-35.545
X-19 Y-35.725
X-19.067 Y-35.915
X-19.118 Y-36.11
X-19.154 Y-36.307
X-19.173 Y-36.512
X-19.177 Y-36.719
X-19.164 Y-36.924
X-19.134 Y-37.129
X-19.087 Y-37.336
X-19.023 Y-37.539
X-18.943 Y-37.736
X-18.847 Y-37.926
X-18.734 Y-38.113
X-18.606 Y-38.29
X-18.464 Y-38.457
X-18.309 Y-38.612
X-18.139 Y-38.755
X-17.956 Y-38.887
X-17.762 Y-39.004
X-17.559 Y-39.105
X-17.348 Y-39.19
X-17.129 Y-39.258
X-16.903 Y-39.309
X-16.671 Y-39.342
X-16.436 Y-39.356
X-16.198 Y-39.352
X-15.961 Y-39.328
X-15.725 Y-39.285
X-15.493 Y-39.223
X-15.264 Y-39.142
X-15.041 Y-39.042
X-14.825 Y-38.923
X-14.617 Y-38.787
X-14.42 Y-38.633
X-14.234 Y-38.463
X-14.062 Y-38.277
X-13.904 Y-38.076
X-13.762 Y-37.862
X-13.636 Y-37.637
X-13.528 Y-37.4
X-13.44 Y-37.154
X-13.37 Y-36.899
X-13.322 Y-36.639
X-13.294 Y-36.374
X-13.287 Y-36.105
X-13.302 Y-35.836
X-13.339 Y-35.566
X-13.397 Y-35.3
X-13.478 Y-35.036
X-13.58 Y-34.779
X-13.703 Y-34.529
X-13.846 Y-34.289
X-14.009 Y-34.059
X-14.191 Y-33.842
X-14.391 Y-33.639
X-14.609 Y-33.452
X-14.842 Y-33.282
X-15.089 Y-33.129
X-15.35 Y-32.997
X-15.621 Y-32.885
X-15.903 Y-32.795
X-16.193 Y-32.727
X-16.488 Y-32.683
X-16.789 Y-32.662
X-17.092 Y-32.665
X-17.395 Y-32.693
X-17.697 Y-32.745
X-17.995 Y-32.822
X-18.288 Y-32.924
X-18.574 Y-33.049
X-18.85 Y-33.197
X-19.114 Y-33.368
X-19.366 Y-33.561
X-19.603 Y-33.775
X-19.823 Y-34.008
X-20.024 Y-34.259
X-20.206 Y-34.528
X-20.367 Y-34.811
X-20.505 Y-35.108
X-20.619 Y-35.417
X-20.709 Y-35.736
X-20.773 Y-36.063
X-20.811 Y-36.396
X-20.822 Y-36.732
X-20.806 Y-37.071
X-20.762 Y-37.408
X-20.692 Y-37.743
X-20.594 Y-38.073
X-20.469 Y-38.395
X-20.318 Y-38.708
X-20.142 Y-39.01
X-19.94 Y-39.298
X-19.715 Y-39.571
X-19.468 Y-39.826
X-19.2 Y-40.061
X-18.912 Y-40.275
X-18.607 Y-40.466
X-18.285 Y-40.634
X-17.949 Y-40.775
X-17.601 Y-40.89
X-17.243 Y-40.977
X-16.878 Y-41.035
X-16.507 Y-41.063
X-16.133 Y-41.062
X-15.759 Y-41.031
X-15.387 Y-40.969
X-15.018 Y-40.878
X-14.657 Y-40.756
X-14.305 Y-40.605
X-13.964 Y-40.426
X-13.637 Y-40.218
X-13.327 Y-39.984
X-13.034 Y-39.725
X-12.763 Y-39.441
X-12.513 Y-39.136
X-12.288 Y-38.809
X-12.089 Y-38.464
X-11.918 Y-38.103
X-11.775 Y-37.727
X-11.662 Y-37.339
X-11.581 Y-36.941
X-11.532 Y-36.536
X-11.515 Y-36.127
X-11.531 Y-35.716
X-11.58 Y-35.305
X-11.662 Y-34.898
X-11.778 Y-34.497
X-11.926 Y-34.105
X-12.105 Y-33.724
X-12.316 Y-33.357
X-12.557 Y-33.007
X-12.826 Y-32.675
X-13.122 Y-32.365
X-13.444 Y-32.078
X-13.789 Y-31.817
X-14.156 Y-31.583
X-14.542 Y-31.378
X-14.945 Y-31.205
X-15.362 Y-31.063
X-15.792 Y-30.955
X-16.231 Y-30.882
X-16.676 Y-30.844
X-17.125 Y-30.841
X-17.574 Y-30.875
X-18.022 Y-30.945
X-18.464 Y-31.051
X-18.898 Y-31.194
X-19.321 Y-31.371
X-19.73 Y-31.582
X-20.123 Y-31.827
X-20.496 Y-32.103
X-20.848 Y-32.41
X-21.175 Y-32.746
X-21.475 Y-33.108
X-21.746 Y-33.495
X-21.987 Y-33.904
X-22.195 Y-34.333
X-22.368 Y-34.779
X-22.506 Y-35.239
X-22.606 Y-35.711
X-22.669 Y-36.191
X-22.693 Y-36.676
X-22.678 Y-37.164
X-22.624 Y-37.652
X-22.53 Y-38.135
X-22.397 Y-38.611
X-22.226 Y-39.077
X-22.017 Y-39.529
X-21.771 Y-39.965
X-21.491 Y-40.382
X-21.176 Y-40.776
X-20.829 Y-41.145
X-20.453 Y-41.486
X-20.048 Y-41.798
X-19.618 Y-42.077
X-19.166 Y-42.321
X-18.693 Y-42.53
X-18.204 Y-42.7
X-17.7 Y-42.831
X-17.185 Y-42.922
X-16.663 Y-42.971
X-16.136 Y-42.978
X-15.608 Y-42.942
X-15.083 Y-42.865
X-14.564 Y-42.744
X-14.054 Y-42.582
X-13.556 Y-42.379
X-13.075 Y-42.135
X-12.614 Y-41.853
X-12.174 Y-41.533
X-11.761 Y-41.178
X-11.375 Y-40.789
X-11.021 Y-40.369
X-10.701 Y-39.92
X-10.416 Y-39.445
X-10.17 Y-38.947
X-9.964 Y-38.429
X-9.799 Y-37.894
X-9.677 Y-37.346
X-9.6 Y-36.788
X-9.567 Y-36.223
X-9.58 Y-35.656
X-9.639 Y-35.089
X-9.743 Y-34.527
X-9.893 Y-33.973
X-10.087 Y-33.43
X-10.325 Y-32.903
X-10.605 Y-32.396
X-10.927 Y-31.91
X-11.288 Y-31.45
X-11.686 Y-31.02
X-12.119 Y-30.621
X-12.584 Y-30.256
X-13.078 Y-29.929
X-13.599 Y-29.642
X-14.144 Y-29.397
X-14.708 Y-29.195
X-15.289 Y-29.039
X-15.882 Y-28.93
X-16.485 Y-28.868
X-17.092 Y-28.855
X-17.701 Y-28.891
X-18.307 Y-28.976
X-18.907 Y-29.109
X-19.495 Y-29.291
X-20.069 Y-29.521
X-20.625 Y-29.796
X-21.158 Y-30.117
X-21.666 Y-30.48
X-22.145 Y-30.884
X-22.591 Y-31.327
X-23.001 Y-31.806
X-23.373 Y-32.318
X-23.704 Y-32.86
X-23.991 Y-33.429
X-24.233 Y-34.02
X-24.426 Y-34.632
X-24.571 Y-35.258
X-24.665 Y-35.897
X-24.708 Y-36.543
X-24.698 Y-37.192
X-24.637 Y-37.841
X-24.523 Y-38.485
X-24.357 Y-39.12
X-24.14 Y-39.741
X-23.873 Y-40.345
X-23.558 Y-40.927
X-23.196 Y-41.484
X-22.788 Y-42.012
X-22.339 Y-42.506
X-21.849 Y-42.965
X-21.323 Y-43.385
X-20.763 Y-43.761
X-20.172 Y-44.093
X-19.555 Y-44.377
X-18.915 Y-44.612
X-18.256 Y-44.795
X-17.582 Y-44.925
X-16.898 Y-45.001
X-16.208 Y-45.021
X-15.517 Y-44.986
X-14.828 Y-44.896
X-14.147 Y-44.75
X-13.477 Y-44.549
X-12.824 Y-44.294
X-12.191 Y-43.987
X-11.584 Y-43.628
X-11.005 Y-43.221
X-10.459 Y-42.768
X-9.95 Y-42.271
X-9.481 Y-41.732
X-9.055 Y-41.157
X-8.676 Y-40.547
X-8.346 Y-39.906
X-8.067 Y-39.24
X-7.843 Y-38.551
X-7.674 Y-37.844
X-7.562 Y-37.124
X-7.507 Y-36.395
X-7.512 Y-35.662
X-7.576 Y-34.929
X-7.698 Y-34.202
X-7.879 Y-33.485
X-8.118 Y-32.783
X-8.413 Y-32.1
X-8.763 Y-31.441
X-9.166 Y-30.81
X-9.619 Y-30.212
X-10.121 Y-29.651
X-10.668 Y-29.13
X-11.256 Y-28.654
X-11.882 Y-28.225
X-12.543 Y-27.846
X-13.234 Y-27.521
X-13.952 Y-27.251
X-14.69 Y-27.04
X-15.445 Y-26.888
X-16.213 Y-26.796
X-16.987 Y-26.767
X-17.763 Y-26.8
X-18.537 Y-26.895
X-19.302 Y-27.052
X-20.054 Y-27.271
X-20.789 Y-27.551
X-21.5 Y-27.889
X-22.184 Y-28.285
X-22.836 Y-28.735
X-23.452 Y-29.238
X-24.026 Y-29.79
X-24.556 Y-30.388
X-25.038 Y-31.028
X-25.467 Y-31.707
X-25.842 Y-32.42
X-26.159 Y-33.163
X-26.417 Y-33.931
X-26.612 Y-34.719
X-26.744 Y-35.522
X-26.811 Y-36.336
X-26.813 Y-37.155
X-26.749 Y-37.973
X-26.619 Y-38.786
X-26.423 Y-39.587
X-26.164 Y-40.373
X-25.841 Y-41.137
X-25.457 Y-41.875
X-25.013 Y-42.582
X-24.513 Y-43.252
X-23.96 Y-43.882
X-23.356 Y-44.467
X-22.705 Y-45.002
X-22.012 Y-45.486
X-21.28 Y-45.913
X-20.514 Y-46.281
X-19.719 Y-46.587
X-18.9 Y-46.829
X-18.062 Y-47.005
X-17.983 Y-47.015
X-17.915 Y-47.022
X-17.847 Y-47.026
X-17.779
X-16.428 Y-47
X-16.227 Y-46.995
X-15.624 Y-46.974
X-14.74 Y-46.901
X-14.022 Y-46.802
X-13.277 Y-46.637
X-12.521 Y-46.405
X-11.765 Y-46.105
X-11.021 Y-45.738
X-10.297 Y-45.305
X-9.601 Y-44.81
X-8.941 Y-44.255
X-8.323 Y-43.643
X-7.752 Y-42.98
X-7.233 Y-42.269
X-6.771 Y-41.516
X-6.37 Y-40.726
X-6.033 Y-39.906
X-5.763 Y-39.062
X-5.561 Y-38.199
X-5.427 Y-37.323
X-5.363 Y-36.439
X-5.369 Y-35.553
X-5.444 Y-34.67
X-5.589 Y-33.796
X-5.801 Y-32.936
X-6.079 Y-32.095
X-6.423 Y-31.278
X-6.829 Y-30.49
X-7.295 Y-29.736
X-7.818 Y-29.021
X-8.394 Y-28.348
X-9.021 Y-27.721
X-9.693 Y-27.144
X-10.408 Y-26.621
X-11.161 Y-26.153
X-11.676 Y-25.884
X-11.891 Y-25.794
X-12.117 Y-25.741
X-12.349 Y-25.726
X-13.611 Y-25.75
X-14.819 Y-25.778
X-17.435 Y-25.843
X-17.837 Y-25.854
X-20.453 Y-25.935
X-20.946 Y-25.975
X-21.402 Y-26.049
X-21.903 Y-26.172
X-22.459 Y-26.357
X-23.012 Y-26.593
X-23.615 Y-26.908
X-24.244 Y-27.305
X-24.866 Y-27.772
X-25.466 Y-28.302
X-26.055 Y-28.912
X-26.616 Y-29.597
X-27.121 Y-30.325
X-27.568 Y-31.09
X-27.956 Y-31.887
X-28.283 Y-32.711
X-28.55 Y-33.556
X-28.754 Y-34.418
X-28.894 Y-35.293
X-28.97 Y-36.176
X-28.98 Y-37.062
X-28.927 Y-37.946
X-28.811 Y-38.825
X-28.633 Y-39.693
X-28.393 Y-40.546
X-28.095 Y-41.38
X-27.739 Y-42.192
X-27.326 Y-42.976
X-26.857 Y-43.728
X-26.335 Y-44.444
X-25.765 Y-45.122
X-25.149 Y-45.759
X-24.49 Y-46.351
X-23.878 Y-46.83
X-23.608 Y-46.995
X-23.308 Y-47.096
X-22.994 Y-47.127
X-21.861 Y-47.106
X-17.779 Y-47.026
G3 X-17.527 Y-46.965 I-0.012 J0.6
G1 X-17.453 Y-46.935
X-17.377 Y-46.915
X-17.018 Y-46.845
X-16.597 Y-46.764
G2 X-16.194 Y-46.827 I0.114 J-0.589
G3 X-15.624 Y-46.974 I0.572 J1.04
G1 X-10.794 Y-46.814
X-10.418 Y-46.782
X-10.061 Y-46.723
X-9.68 Y-46.629
X-9.257 Y-46.486
X-8.801 Y-46.291
X-8.3 Y-46.027
X-7.795 Y-45.707
X-7.24 Y-45.289
X-6.683 Y-44.794
X-6.144 Y-44.231
X-5.603 Y-43.568
X-5.1 Y-42.839
X-4.655 Y-42.072
X-4.267 Y-41.275
X-3.937 Y-40.453
X-3.667 Y-39.609
X-3.458 Y-38.748
X-3.307 Y-37.875
X-3.215 Y-36.994
X-3.18 Y-36.108
X-3.204 Y-35.222
X-3.287 Y-34.34
X-3.43 Y-33.465
X-3.63 Y-32.602
X-3.886 Y-31.754
X-4.196 Y-30.924
X-4.559 Y-30.115
X-4.974 Y-29.332
X-5.44 Y-28.579
X-5.955 Y-27.858
X-6.516 Y-27.172
X-7.119 Y-26.522
X-7.619 Y-26.048
X-7.832 Y-25.882
X-8.072 Y-25.76
X-8.332 Y-25.686
X-8.601 Y-25.664
X-10.19 Y-25.686
X-11.599 Y-25.712
X-12.349 Y-25.726
G3 X-12.602 Y-25.787 I0.011 J-0.6
G1 X-12.676 Y-25.817
X-12.753 Y-25.838
X-12.833 Y-25.847
X-13.116 Y-25.863
X-19.369 Y-26.207
G2 X-19.693 Y-26.133 I-0.033 J0.599
G3 X-20.453 Y-25.935 I-0.767 J-1.384
G1 X-21.057 Y-25.953
X-21.66 Y-25.974
X-24.075 Y-26.072
X-24.404 Y-26.101
X-24.71 Y-26.154
X-25.046 Y-26.24
X-25.432 Y-26.373
X-25.823 Y-26.544
X-26.277 Y-26.787
X-26.728 Y-27.077
X-27.222 Y-27.455
X-27.744 Y-27.925
X-28.245 Y-28.455
X-28.759 Y-29.094
X-29.256 Y-29.827
X-29.695 Y-30.597
X-30.075 Y-31.398
X-30.4 Y-32.222
X-30.668 Y-33.067
X-30.878 Y-33.928
X-31.031 Y-34.801
X-31.128 Y-35.681
X-31.171 Y-36.566
X-31.159 Y-37.452
X-31.094 Y-38.336
X-30.974 Y-39.214
X-30.799 Y-40.083
X-30.572 Y-40.939
X-30.294 Y-41.781
X-29.967 Y-42.604
X-29.59 Y-43.407
X-29.167 Y-44.185
X-28.695 Y-44.935
X-28.179 Y-45.655
X-27.621 Y-46.343
X-27.301 Y-46.692
X-27.082 Y-46.886
X-26.829 Y-47.03
X-26.55 Y-47.119
X-26.26 Y-47.147
X-23.027 Y-47.127
X-22.994
X-22.209 Y-47.085
X-11.875 Y-46.544
G2 X-11.555 Y-46.618 I0.031 J-0.599
G3 X-10.794 Y-46.814 I0.763 J1.386
G1 X-9.587 Y-46.773
X-8.983 Y-46.748
X-7.776 Y-46.693
X-7.382 Y-46.655
X-7.099 Y-46.604
X-6.781 Y-46.521
X-6.452 Y-46.405
X-6.064 Y-46.234
X-5.683 Y-46.026
X-5.238 Y-45.736
X-4.804 Y-45.4
X-4.327 Y-44.966
X-3.829 Y-44.434
X-3.352 Y-43.833
X-2.875 Y-43.123
X-2.442 Y-42.35
X-2.069 Y-41.546
X-1.753 Y-40.718
X-1.491 Y-39.872
X-1.284 Y-39.01
X-1.13 Y-38.137
X-1.029 Y-37.257
X-0.982 Y-36.372
X-0.986 Y-35.486
X-1.041 Y-34.602
X-1.147 Y-33.722
X-1.301 Y-32.849
X-1.505 Y-31.987
X-1.759 Y-31.138
X-2.06 Y-30.305
X-2.408 Y-29.49
X-2.802 Y-28.696
X-3.238 Y-27.925
X-3.717 Y-27.179
X-4.236 Y-26.461
X-4.493 Y-26.147
X-4.715 Y-25.928
X-4.981 Y-25.765
X-5.276 Y-25.664
X-5.586 Y-25.631
X-6.367 Y-25.636
X-6.971 Y-25.642
X-8.601 Y-25.664
X-8.983 Y-25.826
X-9.164 Y-26.149
X-10.056 Y-27.743
G2 X-11.8 Y-28.973 I-2.175 J1.233
G1 X-17.435 Y-29.188
X-18.441 Y-29.181
G2 X-19.736 Y-28.748 I0.115 J2.497
G1 X-23.331 Y-26.284
X-23.471 Y-26.188
X-24.075 Y-26.072
X-26.892 Y-26.185
X-27.165 Y-26.21
X-27.44 Y-26.257
X-27.724 Y-26.33
X-28.044 Y-26.44
X-28.397 Y-26.594
X-28.764 Y-26.791
X-29.177 Y-27.057
X-29.592 Y-27.375
X-30.04 Y-27.778
X-30.515 Y-28.28
X-30.974 Y-28.851
X-31.439 Y-29.537
X-31.877 Y-30.307
X-32.254 Y-31.109
X-32.573 Y-31.936
X-32.837 Y-32.782
X-33.049 Y-33.642
X-33.208 Y-34.514
X-33.316 Y-35.393
X-33.373 Y-36.278
X-33.382 Y-37.164
X-33.342 Y-38.049
X-33.255 Y-38.931
X-33.122 Y-39.807
X-32.942 Y-40.675
X-32.716 Y-41.531
X-32.444 Y-42.375
X-32.128 Y-43.203
X-31.769 Y-44.013
X-31.368 Y-44.803
X-30.926 Y-45.571
X-30.446 Y-46.316
X-30.238 Y-46.597
X-30.015 Y-46.834
X-29.744 Y-47.014
X-29.438 Y-47.126
X-29.115 Y-47.164
X-26.26 Y-47.147
X-25.886 Y-46.997
X-25.621 Y-46.721
X-23.471 Y-44.487
G2 X-21.861 Y-43.759 I1.768 J-1.767
G1 X-18.642 Y-43.58
X-11.197 Y-44.817
X-8.525 Y-46.489
X-8.379 Y-46.58
X-7.776 Y-46.693
X-4.959 Y-46.563
X-4.765 Y-46.544
X-4.501 Y-46.497
X-4.231 Y-46.426
X-3.912 Y-46.315
X-3.59 Y-46.172
X-3.225 Y-45.973
X-2.846 Y-45.726
X-2.433 Y-45.407
X-2.017 Y-45.028
X-1.564 Y-44.544
X-1.121 Y-43.985
X-0.676 Y-43.323
X-0.243 Y-42.55
X0.128 Y-41.745
X0.441 Y-40.916
X0.7 Y-40.069
X0.907 Y-39.207
X1.064 Y-38.335
X1.171 Y-37.455
X1.229 Y-36.571
X1.24 Y-35.685
X1.205 Y-34.8
X1.125 Y-33.917
X1.001 Y-33.04
X0.833 Y-32.17
X0.623 Y-31.309
X0.369 Y-30.46
X0.072 Y-29.625
X-0.267 Y-28.806
X-0.645 Y-28.005
X-1.061 Y-27.223
X-1.516 Y-26.462
X-1.687 Y-26.215
X-1.862 Y-26.009
X-2.074 Y-25.84
X-2.315 Y-25.715
X-2.575 Y-25.639
X-2.845 Y-25.614
X-5.586 Y-25.631
G3 X-6.161 Y-26.249 I0.025 J-0.599
G1 X-5.565 Y-45.981
G3 X-4.959 Y-46.563 I0.6 J0.018
G1 X-2.544 Y-46.452
X-2.291 Y-46.428
X-2.06 Y-46.386
X-1.79 Y-46.316
X-1.502 Y-46.215
X-1.193 Y-46.077
X-0.846 Y-45.889
X-0.498 Y-45.662
X-0.102 Y-45.356
X0.285 Y-45.003
X0.703 Y-44.555
X1.139 Y-44.007
X1.558 Y-43.382
X1.98 Y-42.629
X2.35 Y-41.823
X2.66 Y-40.993
X2.916 Y-40.145
X3.121 Y-39.283
X3.277 Y-38.41
X3.387 Y-37.531
X3.452 Y-36.647
X3.472 Y-35.762
X3.45 Y-34.876
X3.386 Y-33.992
X3.282 Y-33.112
X3.138 Y-32.238
X2.955 Y-31.371
X2.733 Y-30.513
X2.474 Y-29.665
X2.177 Y-28.83
X1.843 Y-28.01
X1.472 Y-27.205
X1.101 Y-26.496
X0.947 Y-26.252
X0.773 Y-26.029
X0.557 Y-25.846
X0.309 Y-25.71
X0.039 Y-25.626
X-0.243 Y-25.599
X-2.845 Y-25.614
G3 X-3.42 Y-26.222 I0.025 J-0.599
G1 X-3.15 Y-45.86
G3 X-2.544 Y-46.452 I0.6 J0.008
G1 X-2.343 Y-46.443
X-2.007 Y-46.424
X-0.129 Y-46.317
X0.125 Y-46.289
X0.358 Y-46.245
X0.626 Y-46.172
X0.896 Y-46.073
X1.212 Y-45.929
X1.528 Y-45.753
X1.884 Y-45.514
X2.247 Y-45.227
X2.642 Y-44.859
X3.032 Y-44.433
X3.449 Y-43.895
X3.869 Y-43.254
X4.273 Y-42.513
X4.634 Y-41.703
X4.934 Y-40.87
X5.18 Y-40.018
X5.375 Y-39.154
X5.524 Y-38.281
X5.628 Y-37.401
X5.69 Y-36.517
X5.711 Y-35.631
X5.693 Y-34.745
X5.636 Y-33.86
X5.54 Y-32.979
X5.408 Y-32.103
X5.24 Y-31.233
X5.037 Y-30.371
X4.799 Y-29.517
X4.526 Y-28.674
X4.22 Y-27.842
X3.879 Y-27.025
X3.588 Y-26.446
X3.483 Y-26.274
X3.31 Y-26.046
X3.095 Y-25.858
X2.846 Y-25.717
X2.574 Y-25.631
X2.29 Y-25.601
X0.475 Y-25.597
X-0.243 Y-25.599
G3 X-0.819 Y-26.201 I0.023 J-0.6
G1 X-0.743 Y-45.719
G3 X-0.129 Y-46.317 I0.6 J0.002
G1 X2.286 Y-46.178
X2.457 Y-46.16
X2.606 Y-46.142
X2.754 Y-46.117
X2.9 Y-46.084
X3.045 Y-46.044
X3.188 Y-45.997
X3.328 Y-45.945
X3.466 Y-45.886
X3.602 Y-45.823
X3.736 Y-45.755
X3.867 Y-45.682
X3.996 Y-45.605
X4.122 Y-45.524
X4.246 Y-45.439
X4.367 Y-45.351
X4.486 Y-45.26
X4.602 Y-45.165
X4.716 Y-45.067
X4.828 Y-44.967
X4.936 Y-44.864
X5.043 Y-44.758
X5.147 Y-44.65
X5.249 Y-44.541
X5.349 Y-44.428
X5.446 Y-44.314
X5.541 Y-44.198
X5.634 Y-44.08
X5.724 Y-43.96
X5.813 Y-43.839
X5.899 Y-43.716
X5.983 Y-43.592
X6.065 Y-43.467
X6.145 Y-43.34
X6.223 Y-43.211
X6.299 Y-43.082
X6.373 Y-42.952
X6.445 Y-42.82
X6.515 Y-42.688
X6.584 Y-42.554
X6.65 Y-42.42
X6.715 Y-42.284
X6.778 Y-42.148
X6.839 Y-42.011
X6.899 Y-41.874
X6.956 Y-41.735
X7.013 Y-41.596
X7.067 Y-41.456
X7.12 Y-41.316
X7.171 Y-41.175
X7.221 Y-41.034
X7.269 Y-40.892
X7.316 Y-40.749
X7.361 Y-40.606
X7.404 Y-40.462
X7.447 Y-40.318
X7.487 Y-40.174
X7.526 Y-40.029
X7.564 Y-39.884
X7.6 Y-39.739
X7.635 Y-39.593
X7.669 Y-39.446
X7.702 Y-39.3
X7.733 Y-39.153
X7.762 Y-39.006
X7.79 Y-38.859
X7.817 Y-38.711
X7.843 Y-38.564
X7.868 Y-38.416
X7.891 Y-38.267
X7.913 Y-38.119
X7.934 Y-37.97
X7.953 Y-37.822
X7.971 Y-37.673
X7.989 Y-37.523
X8.005 Y-37.374
X8.019 Y-37.225
X8.033 Y-37.076
X8.045 Y-36.926
X8.057 Y-36.773
X8.068 Y-36.612
X8.077 Y-36.462
X8.084 Y-36.312
X8.091 Y-36.162
X8.096 Y-36.013
X8.101 Y-35.856
X8.104 Y-35.69
X8.107 Y-35.529
X8.108 Y-35.379
X8.107 Y-35.229
X8.106 Y-35.077
X8.101 Y-34.832
X8.097 Y-34.657
X8.091 Y-34.501
X8.085 Y-34.351
X8.077 Y-34.2
X8.068 Y-34.041
X8.057 Y-33.872
X8.044 Y-33.693
X8.031 Y-33.529
X8.018 Y-33.379
X8.004 Y-33.225
X7.987 Y-33.062
X7.968 Y-32.889
X7.947 Y-32.705
X7.926 Y-32.54
X7.907 Y-32.39
X7.885 Y-32.233
X7.86 Y-32.066
X7.833 Y-31.888
X7.803 Y-31.699
X7.776 Y-31.54
X7.749 Y-31.388
X7.719 Y-31.226
X7.686 Y-31.055
X7.65 Y-30.873
X7.611 Y-30.684
X7.578 Y-30.532
X7.544 Y-30.377
X7.506 Y-30.212
X7.464 Y-30.037
X7.418 Y-29.85
X7.373 Y-29.672
X7.335 Y-29.525
X7.293 Y-29.37
X7.248 Y-29.207
X7.198 Y-29.033
X7.144 Y-28.847
X7.095 Y-28.685
X7.051 Y-28.542
X7.006 Y-28.399
X6.959 Y-28.256
X6.911 Y-28.114
X6.862 Y-27.97
X6.812 Y-27.828
X6.761 Y-27.687
X6.708 Y-27.547
X6.654 Y-27.407
X6.598 Y-27.268
X6.541 Y-27.129
X6.481 Y-26.992
X6.419 Y-26.855
X6.356 Y-26.719
X6.29 Y-26.584
X6.22 Y-26.451
X6.144 Y-26.312
X5.973 Y-26.074
X5.756 Y-25.877
X5.502 Y-25.729
X5.223 Y-25.638
X4.932 Y-25.606
X2.29 Y-25.601
G3 X1.709 Y-26.199 I0.02 J-0.6
G1 X1.672 Y-45.577
G3 X2.286 Y-46.178 I0.6 J-0.001
G1 X4.499 Y-46.051
X4.7 Y-46.039
X4.903 Y-46.016
X5.129 Y-45.973
X5.378 Y-45.903
X5.648 Y-45.804
X5.941 Y-45.669
X6.255 Y-45.493
X6.59 Y-45.267
X6.944 Y-44.985
X7.316 Y-44.636
X7.703 Y-44.21
X8.101 Y-43.694
X8.506 Y-43.071
X8.909 Y-42.327
X9.267 Y-41.516
X9.565 Y-40.682
X9.809 Y-39.83
X10.004 Y-38.965
X10.154 Y-38.092
X10.262 Y-37.213
X10.33 Y-36.329
X10.338 Y-36.108
X10.38 Y-35.89
X10.457 Y-35.682
X10.673 Y-35.296
X11.309 Y-34.679
X12.049 Y-34.192
X12.826 Y-33.766
X13.612 Y-33.356
X14.23 Y-32.99
X14.8 Y-32.587
X15.119 Y-32.32
X15.491 Y-31.955
X15.748 Y-31.659
X15.981 Y-31.341
X16.214 Y-30.964
X16.353 Y-30.692
X16.496 Y-30.347
X16.611 Y-29.99
X16.678 Y-29.707
X16.732 Y-29.356
X16.757 Y-29.013
X16.754 Y-28.736
X16.724 Y-28.401
X16.667 Y-28.07
X16.602 Y-27.815
X16.499 Y-27.512
X16.363 Y-27.202
X16.245 Y-26.98
X16.081 Y-26.725
X15.869 Y-26.447
X15.709 Y-26.269
X15.499 Y-26.07
X15.392 Y-25.984
X15.13 Y-25.817
X14.838 Y-25.712
X14.529 Y-25.675
X13.152 Y-25.661
X12.548 Y-25.656
X12.346 Y-25.664
X11.466 Y-25.773
X10.801 Y-25.66
X10.727 Y-25.65
X10.653 Y-25.643
X10.578 Y-25.64
G3 X9.994 Y-26.256 I0.016 J-0.6
X10.61 Y-26.84 I0.6 J0.016
X12.663 Y-25.95 I-0.081 J2.999
X12.548 Y-25.656 I-0.123 J0.121
G1 X7.115 Y-25.613
X6.31 Y-25.609
X4.932 Y-25.606
G3 X4.351 Y-26.198 I0.02 J-0.6
G1 X4.085 Y-45.431
G3 X4.7 Y-46.039 I0.6 J-0.008
G1 X5.103 Y-46.014
X6.914 Y-45.892
X7.214 Y-45.856
X7.445 Y-45.81
X7.692 Y-45.739
X7.958 Y-45.64
X8.262 Y-45.497
X8.562 Y-45.325
X8.911 Y-45.087
X9.25 Y-44.812
X9.634 Y-44.447
X10.004 Y-44.034
X10.402 Y-43.51
X10.807 Y-42.876
X11.199 Y-42.14
X11.551 Y-41.327
X11.843 Y-40.49
X12.081 Y-39.636
X12.29 Y-38.775
X12.699 Y-37.989
X13.241 Y-37.288
X13.858 Y-36.652
X14.511 Y-36.053
X15.176 Y-35.468
X15.83 Y-34.87
X16.456 Y-34.242
X16.987 Y-33.632
X17.423 Y-33.04
X17.768 Y-32.484
X18.048 Y-31.94
X18.275 Y-31.395
X18.448 Y-30.864
X18.574 Y-30.335
X18.654 Y-29.815
X18.692 Y-29.31
X18.688 Y-28.807
X18.646 Y-28.322
X18.566 Y-27.849
X18.447 Y-27.38
X18.296 Y-26.938
X18.112 Y-26.514
X18.074 Y-26.442
X17.906 Y-26.194
X17.689 Y-25.988
X17.433 Y-25.832
X17.15 Y-25.735
X16.853 Y-25.699
X14.529 Y-25.675
G3 X13.987 Y-26.051 I0.015 J-0.6
G1 X13.955 Y-26.131
X6.337 Y-45.068
G3 X6.914 Y-45.892 I0.557 J-0.224
G1 X9.328 Y-45.728
X9.492 Y-45.709
X9.64 Y-45.69
X9.788 Y-45.663
X9.934 Y-45.628
X10.078 Y-45.587
X10.22 Y-45.538
X10.36 Y-45.484
X10.497 Y-45.423
X10.632 Y-45.358
X10.765 Y-45.288
X10.895 Y-45.214
X11.022 Y-45.134
X11.147 Y-45.051
X11.269 Y-44.965
X11.389 Y-44.875
X11.507 Y-44.781
X11.621 Y-44.684
X11.733 Y-44.585
X11.843 Y-44.482
X11.95 Y-44.377
X12.055 Y-44.27
X12.158 Y-44.16
X12.257 Y-44.048
X12.355 Y-43.934
X12.45 Y-43.818
X12.543 Y-43.7
X12.633 Y-43.581
X12.722 Y-43.46
X12.808 Y-43.337
X12.892 Y-43.213
X12.974 Y-43.087
X13.053 Y-42.96
X13.131 Y-42.832
X13.207 Y-42.702
X13.281 Y-42.572
X13.353 Y-42.44
X13.423 Y-42.307
X13.827 Y-41.519
X14.267 Y-40.75
X14.768 Y-40.019
X15.32 Y-39.325
X15.904 Y-38.659
X16.506 Y-38.009
X16.923 Y-37.563
X17.139 Y-37.328
X17.282 Y-37.17
X17.435 Y-37
X17.599 Y-36.813
X17.724 Y-36.67
X17.821 Y-36.556
X17.918 Y-36.441
X18.017 Y-36.321
X18.121 Y-36.194
X18.222 Y-36.069
X18.315 Y-35.951
X18.407 Y-35.833
X18.498 Y-35.714
X18.588 Y-35.594
X18.677 Y-35.473
X18.764 Y-35.351
X18.851 Y-35.229
X18.936 Y-35.105
X19.02 Y-34.981
X19.103 Y-34.856
X19.184 Y-34.73
X19.264 Y-34.603
X19.342 Y-34.475
X19.419 Y-34.346
X19.494 Y-34.216
X19.568 Y-34.086
X19.641 Y-33.954
X19.711 Y-33.822
X19.78 Y-33.688
X19.847 Y-33.554
X19.912 Y-33.419
X19.976 Y-33.283
X20.037 Y-33.147
X20.097 Y-33.009
X20.155 Y-32.871
X20.211 Y-32.731
X20.265 Y-32.592
X20.317 Y-32.451
X20.367 Y-32.309
X20.414 Y-32.167
X20.46 Y-32.024
X20.504 Y-31.881
X20.545 Y-31.736
X20.584 Y-31.592
X20.621 Y-31.446
X20.656 Y-31.3
X20.688 Y-31.154
X20.718 Y-31.007
X20.745 Y-30.859
X20.771 Y-30.712
X20.794 Y-30.563
X20.814 Y-30.415
X20.832 Y-30.266
X20.847 Y-30.117
X20.861 Y-29.967
X20.871 Y-29.818
X20.879 Y-29.668
X20.884 Y-29.518
X20.888 Y-29.368
Y-29.218
X20.886 Y-29.068
X20.881 Y-28.918
X20.874 Y-28.768
X20.864 Y-28.618
X20.851 Y-28.469
X20.836 Y-28.32
X20.818 Y-28.171
X20.798 Y-28.022
X20.775 Y-27.874
X20.748 Y-27.726
X20.719 Y-27.579
X20.686 Y-27.433
X20.65 Y-27.287
X20.611 Y-27.142
X20.568 Y-26.999
X20.522 Y-26.856
X20.471 Y-26.715
X20.432 Y-26.615
X20.306 Y-26.368
X20.134 Y-26.151
X19.923 Y-25.972
X19.681 Y-25.838
X19.418 Y-25.754
X19.143 Y-25.724
X16.853 Y-25.699
G3 X16.311 Y-26.076 I0.015 J-0.6
G1 X16.279 Y-26.156
X8.752 Y-44.905
G3 X9.328 Y-45.728 I0.557 J-0.224
G1 X11.743 Y-45.564
X11.915 Y-45.543
X12.139 Y-45.497
X12.386 Y-45.425
X12.653 Y-45.323
X12.943 Y-45.185
X13.254 Y-45.005
X13.59 Y-44.773
X13.993 Y-44.443
X14.63 Y-43.831
X15.217 Y-43.168
X15.789 Y-42.491
X16.365 Y-41.817
X16.948 Y-41.15
X18.127 Y-39.827
X18.709 Y-39.16
X19.28 Y-38.481
X19.555 Y-38.134
X19.69 Y-37.958
X20.224 Y-37.251
X20.35 Y-37.069
X20.474 Y-36.886
X20.626 Y-36.724
X20.801 Y-36.588
X20.995 Y-36.482
X21.203 Y-36.407
X22.075 Y-36.245
X22.959 Y-36.292
X23.845 Y-36.325
X24.731 Y-36.347
X25.617 Y-36.363
X26.503 Y-36.374
X27.389 Y-36.382
X28.275 Y-36.387
X29.161 Y-36.391
X30.933 Y-36.396
X33.592 Y-36.399
X39.587 Y-36.4
X39.722 Y-36.336
X39.847 Y-36.252
X39.968 Y-36.153
X40.105 Y-36.021
X40.258 Y-35.847
X40.425 Y-35.624
X40.606 Y-35.338
X40.799 Y-34.969
X41.003 Y-34.489
X41.216 Y-33.848
X41.427 Y-32.987
X41.572 Y-32.113
X41.589 Y-31.966
X41.537 Y-31.825
X41.459 Y-31.697
X41.368 Y-31.578
X41.248 Y-31.446
X41.091 Y-31.299
X40.887 Y-31.137
X40.625 Y-30.961
X40.288 Y-30.772
X39.853 Y-30.572
X39.278 Y-30.362
X38.487 Y-30.143
X37.616 Y-29.976
X36.738 Y-29.861
X35.855 Y-29.782
X34.971 Y-29.727
X34.085 Y-29.688
X33.2 Y-29.662
X32.314 Y-29.643
X31.428 Y-29.63
X30.542 Y-29.621
X29.656 Y-29.615
X28.77 Y-29.61
X26.997 Y-29.605
X26.554 Y-29.604
X26.124 Y-29.497
X25.334 Y-29.097
X24.684 Y-28.494
X24.135 Y-27.799
X23.64 Y-27.064
X23.143 Y-26.33
X23.117 Y-26.296
X22.898 Y-26.072
X22.634 Y-25.902
X22.339 Y-25.795
X22.028 Y-25.756
X19.143 Y-25.724
G3 X18.6 Y-26.102 I0.015 J-0.6
G1 X18.568 Y-26.181
X11.166 Y-44.742
G3 X11.743 Y-45.564 I0.557 J-0.222
G1 X12.347 Y-45.519
X13.957 Y-45.394
X14.312 Y-45.348
X14.583 Y-45.291
X14.894 Y-45.198
X15.266 Y-45.055
X15.717 Y-44.837
X16.294 Y-44.499
X17.02 Y-43.992
X17.706 Y-43.431
X18.364 Y-42.838
X19 Y-42.221
X19.617 Y-41.585
X20.215 Y-40.931
X20.843 Y-40.306
X21.605 Y-39.853
X22.431 Y-39.531
X23.288 Y-39.305
X24.16 Y-39.147
X25.039 Y-39.038
X25.922 Y-38.963
X26.806 Y-38.911
X27.692 Y-38.876
X28.578 Y-38.851
X29.464 Y-38.835
X30.35 Y-38.824
X31.236 Y-38.816
X32.122 Y-38.811
X33.008 Y-38.807
X34.78 Y-38.803
X37.439 Y-38.801
X38.062 Y-38.777
X38.543 Y-38.72
X38.964 Y-38.635
X39.352 Y-38.524
X39.722 Y-38.384
X40.083 Y-38.215
X40.435 Y-38.013
X40.778 Y-37.778
X41.117 Y-37.503
X41.462 Y-37.174
X41.803 Y-36.793
X42.129 Y-36.362
X42.474 Y-35.822
X42.788 Y-35.23
X43.076 Y-34.564
X43.234 Y-34.099
X43.326 Y-33.732
X43.384 Y-33.39
X43.41 Y-33.082
X43.412 Y-32.784
X43.39 Y-32.493
X43.345 Y-32.203
X43.276 Y-31.912
X43.179 Y-31.617
X43.056 Y-31.321
X42.904 Y-31.027
X42.716 Y-30.725
X42.484 Y-30.412
X42.222 Y-30.111
X41.897 Y-29.794
X41.52 Y-29.481
X41.072 Y-29.166
X40.531 Y-28.847
X39.914 Y-28.548
X39.14 Y-28.246
X38.292 Y-27.992
X37.427 Y-27.796
X36.554 Y-27.647
X35.675 Y-27.533
X34.793 Y-27.448
X33.909 Y-27.384
X33.024 Y-27.336
X32.139 Y-27.3
X31.253 Y-27.274
X30.367 Y-27.254
X29.481 Y-27.239
X28.607 Y-27.097
X27.791 Y-26.752
X27.044 Y-26.274
X26.802 Y-26.089
X26.546 Y-25.933
X26.263 Y-25.835
X25.966 Y-25.8
X22.028 Y-25.756
G3 X21.493 Y-26.114 I0.014 J-0.6
G1 X21.45 Y-26.211
X13.382 Y-44.553
G3 X13.957 Y-45.394 I0.549 J-0.242
G1 X16.975 Y-45.158
X17.347 Y-45.11
X17.685 Y-45.039
X18.084 Y-44.92
X18.537 Y-44.745
X19.074 Y-44.487
X19.72 Y-44.108
X20.446 Y-43.601
X21.179 Y-43.103
X21.956 Y-42.677
X22.772 Y-42.33
X23.614 Y-42.055
X24.474 Y-41.841
X25.345 Y-41.677
X26.222 Y-41.553
X27.103 Y-41.46
X27.987 Y-41.39
X28.871 Y-41.339
X29.757 Y-41.301
X30.642 Y-41.273
X31.528 Y-41.253
X32.414 Y-41.238
X33.3 Y-41.227
X34.187 Y-41.22
X35.073 Y-41.214
X35.959 Y-41.204
X36.844 Y-41.172
X37.727 Y-41.093
X38.538 Y-40.961
X39.244 Y-40.787
X39.901 Y-40.567
X40.519 Y-40.304
X41.107 Y-39.996
X41.671 Y-39.64
X42.211 Y-39.235
X42.739 Y-38.768
X43.248 Y-38.239
X43.735 Y-37.644
X44.16 Y-37.031
X44.511 Y-36.426
X44.793 Y-35.834
X45.007 Y-35.274
X45.164 Y-34.738
X45.272 Y-34.213
X45.337 Y-33.696
X45.359 Y-33.187
X45.34 Y-32.684
X45.282 Y-32.188
X45.183 Y-31.697
X45.044 Y-31.208
X44.863 Y-30.724
X44.636 Y-30.24
X44.361 Y-29.759
X44.033 Y-29.279
X43.657 Y-28.814
X43.226 Y-28.36
X42.721 Y-27.908
X42.125 Y-27.455
X41.457 Y-27.027
X40.701 Y-26.624
X39.888 Y-26.272
X39.052 Y-25.979
X39.038 Y-25.975
X38.916 Y-25.946
X38.792 Y-25.928
X38.667 Y-25.922
X35.287 Y-25.894
X31.061 Y-25.854
X26.835 Y-25.809
X25.966 Y-25.8
G3 X25.443 Y-26.132 I0.014 J-0.6
G1 X25.383 Y-26.252
X16.412 Y-44.292
G3 X16.975 Y-45.158 I0.537 J-0.267
G1 X18.384 Y-45.048
X18.585 Y-45.032
X19.39 Y-44.961
X20.798 Y-44.836
X21.676 Y-44.713
X22.553 Y-44.585
X23.427 Y-44.439
X24.301 Y-44.295
X25.178 Y-44.165
X26.056 Y-44.052
X26.937 Y-43.957
X27.82 Y-43.879
X28.704 Y-43.817
X29.589 Y-43.767
X30.474 Y-43.728
X31.36 Y-43.697
X32.245 Y-43.674
X32.441 Y-43.67
X32.486 Y-43.668
X32.531 Y-43.665
X32.576 Y-43.66
X36.494 Y-43.199
X36.695 Y-43.174
X37.299 Y-43.096
X38.707 Y-42.907
X39.579 Y-42.745
X40.255 Y-42.575
X40.945 Y-42.342
X41.641 Y-42.043
X42.336 Y-41.675
X43.025 Y-41.236
X43.701 Y-40.725
X44.347 Y-40.149
X44.946 Y-39.522
X45.486 Y-38.858
X45.959 Y-38.17
X46.361 Y-37.47
X46.694 Y-36.764
X46.962 Y-36.056
X47.166 Y-35.348
X47.309 Y-34.644
X47.393 Y-33.946
X47.42 Y-33.252
X47.392 Y-32.563
X47.309 Y-31.879
X47.17 Y-31.199
X46.976 Y-30.527
X46.724 Y-29.864
X46.415 Y-29.21
X46.045 Y-28.568
X45.61 Y-27.936
X45.101 Y-27.312
X44.516 Y-26.701
X44.077 Y-26.311
X43.876 Y-26.162
X43.65 Y-26.051
X43.409 Y-25.982
X43.158 Y-25.957
X38.667 Y-25.922
G3 X38.083 Y-26.52 I0.016 J-0.6
G1 X38.048 Y-42.308
G3 X38.707 Y-42.907 I0.6 J-0.001
G1 X42.531 Y-42.392
X42.732 Y-42.364
X43.336 Y-42.274
X43.783 Y-42.184
X44.137 Y-42.083
X44.502 Y-41.945
X44.914 Y-41.752
X45.341 Y-41.507
X45.815 Y-41.183
X46.272 Y-40.813
X46.757 Y-40.351
X47.244 Y-39.807
X47.704 Y-39.201
X48.124 Y-38.544
X48.506 Y-37.826
X48.837 Y-37.061
X49.109 Y-36.261
X49.317 Y-35.437
X49.459 Y-34.596
X49.533 Y-33.744
X49.539 Y-32.886
X49.475 Y-32.027
X49.342 Y-31.171
X49.139 Y-30.32
X48.865 Y-29.479
X48.524 Y-28.661
X48.119 Y-27.872
X47.656 Y-27.117
X47.252 Y-26.557
X47.078 Y-26.359
X46.871 Y-26.197
X46.638 Y-26.076
X46.385 Y-26.002
X46.124 Y-25.976
X43.738 Y-25.962
X43.158 Y-25.957
G3 X42.575 Y-26.561 I0.016 J-0.6
G1 X42.668 Y-41.681
G3 X43.336 Y-42.274 I0.6 J0.004
G1 X46.354 Y-41.823
X46.722 Y-41.749
X46.99 Y-41.672
X47.295 Y-41.557
X47.602 Y-41.413
X47.957 Y-41.21
X48.304 Y-40.972
X48.697 Y-40.654
X49.075 Y-40.294
X49.476 Y-39.846
X49.883 Y-39.31
X50.255 Y-38.728
X50.616 Y-38.048
X50.947 Y-37.283
X51.231 Y-36.448
X51.448 Y-35.589
X51.598 Y-34.715
X51.681 Y-33.833
X51.698 Y-32.947
X51.651 Y-32.062
X51.543 Y-31.183
X51.375 Y-30.313
X51.149 Y-29.456
X50.866 Y-28.616
X50.525 Y-27.798
X50.131 Y-27.005
X49.931 Y-26.671
X49.759 Y-26.441
X49.544 Y-26.252
X49.295 Y-26.11
X49.022 Y-26.021
X48.737 Y-25.99
X46.124 Y-25.976
G3 X45.541 Y-26.581 I0.018 J-0.6
G1 X45.686 Y-41.232
G3 X46.354 Y-41.823 I0.6 J0.006
G1 X48.567 Y-41.491
X48.97 Y-41.428
X49.302 Y-41.358
X49.539 Y-41.288
X49.805 Y-41.185
X50.092 Y-41.047
X50.391 Y-40.872
X50.723 Y-40.641
X51.051 Y-40.37
X51.411 Y-40.021
X51.765 Y-39.618
X52.127 Y-39.132
X52.494 Y-38.546
X52.823 Y-37.913
X53.134 Y-37.176
X53.408 Y-36.345
X53.618 Y-35.484
X53.762 Y-34.61
X53.845 Y-33.727
X53.867 Y-32.841
X53.831 Y-31.956
X53.739 Y-31.075
X53.594 Y-30.201
X53.397 Y-29.337
X53.15 Y-28.486
X52.854 Y-27.65
X52.583 Y-27.035
X52.422 Y-26.738
X52.253 Y-26.492
X52.035 Y-26.287
X51.779 Y-26.133
X51.495 Y-26.038
X51.198 Y-26.004
X48.737 Y-25.99
G3 X48.155 Y-26.596 I0.018 J-0.6
G1 X48.296 Y-40.839
G3 X48.97 Y-41.428 I0.6 J0.006
G1 X51.385 Y-41.044
X51.684 Y-40.981
X51.906 Y-40.915
X52.166 Y-40.815
X52.424 Y-40.69
X52.717 Y-40.518
X53.014 Y-40.311
X53.336 Y-40.045
X53.661 Y-39.729
X54.006 Y-39.336
X54.339 Y-38.888
X54.687 Y-38.331
X55.006 Y-37.717
X55.306 Y-37.002
X55.578 Y-36.177
X55.786 Y-35.316
X55.93 Y-34.442
X56.015 Y-33.56
X56.043 Y-32.674
X56.017 Y-31.788
X55.938 Y-30.906
X55.81 Y-30.029
X55.635 Y-29.16
X55.412 Y-28.302
X55.163 Y-27.541
X54.946 Y-27.025
X54.815 Y-26.771
X54.646 Y-26.517
X54.427 Y-26.306
X54.167 Y-26.147
X53.879 Y-26.048
X53.576 Y-26.014
X52.189 Y-26.009
X51.198 Y-26.004
G3 X50.616 Y-26.608 I0.018 J-0.6
G1 X50.711 Y-40.453
G3 X51.385 Y-41.044 I0.6 J0.004
G1 X51.988 Y-40.947
X53.799 Y-40.651
X53.983 Y-40.611
X54.206 Y-40.544
X54.451 Y-40.448
X54.705 Y-40.325
X54.992 Y-40.155
X55.273 Y-39.957
X55.592 Y-39.691
X55.897 Y-39.392
X56.238 Y-39
X56.554 Y-38.571
X56.887 Y-38.034
X57.208 Y-37.411
X57.498 Y-36.713
X57.764 Y-35.892
X57.97 Y-35.03
X58.111 Y-34.155
X58.194 Y-33.273
X58.223 Y-32.388
X58.201 Y-31.502
X58.131 Y-30.618
X58.013 Y-29.74
X57.849 Y-28.869
X57.633 Y-28.01
X57.42 Y-27.377
X57.216 Y-26.902
X57.144 Y-26.767
X56.975 Y-26.517
X56.756 Y-26.308
X56.497 Y-26.152
X56.211 Y-26.055
X55.911 Y-26.021
X53.576 Y-26.014
G3 X52.995 Y-26.62 I0.019 J-0.6
G1 X53.123 Y-40.061
G3 X53.799 Y-40.651 I0.6 J0.006
G1 X55.007 Y-40.452
X56.013 Y-40.284
X56.243 Y-40.234
X56.466 Y-40.166
X56.7 Y-40.073
X56.952 Y-39.949
X57.231 Y-39.783
X57.509 Y-39.585
X57.821 Y-39.324
X58.121 Y-39.028
X58.454 Y-38.643
X58.765 Y-38.217
X59.089 Y-37.69
X59.407 Y-37.066
X59.693 Y-36.372
X59.956 Y-35.552
X60.158 Y-34.689
X60.297 Y-33.814
X60.379 Y-32.932
X60.408 Y-32.046
X60.389 Y-31.16
X60.323 Y-30.277
X60.211 Y-29.398
X60.047 Y-28.527
X59.857 Y-27.801
X59.668 Y-27.261
X59.469 Y-26.809
X59.443 Y-26.761
X59.273 Y-26.515
X59.054 Y-26.31
X58.797 Y-26.156
X58.514 Y-26.061
X58.216 Y-26.028
X55.911 Y-26.021
G3 X55.33 Y-26.621 I0.019 J-0.6
G1 X55.334 Y-39.69
G3 X56.013 Y-40.284 I0.6 J0
G1 X58.226 Y-39.913
X58.468 Y-39.86
X58.69 Y-39.792
X58.919 Y-39.701
X59.17 Y-39.577
X59.444 Y-39.413
X59.721 Y-39.216
X60.028 Y-38.957
X60.325 Y-38.663
X60.654 Y-38.282
X60.963 Y-37.858
X61.283 Y-37.335
X61.598 Y-36.714
X61.883 Y-36.021
X62.146 Y-35.197
X62.346 Y-34.334
X62.485 Y-33.459
X62.567 Y-32.577
X62.598 Y-31.691
X62.58 Y-30.805
X62.516 Y-29.921
X62.4 Y-29.043
X62.226 Y-28.176
X62.05 Y-27.56
X61.876 Y-27.097
X61.756 Y-26.84
X61.59 Y-26.571
X61.369 Y-26.347
X61.103 Y-26.177
X60.806 Y-26.071
X60.493 Y-26.035
X58.216 Y-26.028
G3 X57.635 Y-26.624 I0.019 J-0.6
G1 X57.547 Y-39.314
G3 X58.226 Y-39.913 I0.6 J-0.004
G1 X60.44 Y-39.537
X60.678 Y-39.484
X60.899 Y-39.416
X61.125 Y-39.326
X61.376 Y-39.202
X61.647 Y-39.04
X61.923 Y-38.842
X62.227 Y-38.586
X62.524 Y-38.292
X62.85 Y-37.913
X63.157 Y-37.49
X63.476 Y-36.969
X63.791 Y-36.347
X64.075 Y-35.652
X64.338 Y-34.825
X64.538 Y-33.961
X64.676 Y-33.086
X64.758 Y-32.204
X64.788 Y-31.318
X64.769 Y-30.432
X64.7 Y-29.549
X64.574 Y-28.672
X64.412 Y-27.943
X64.246 Y-27.405
X64.064 Y-26.949
X63.998 Y-26.816
X63.831 Y-26.555
X63.61 Y-26.337
X63.347 Y-26.174
X63.054 Y-26.072
X62.745 Y-26.037
X60.493 Y-26.035
G3 X59.912 Y-26.627 I0.019 J-0.6
G1 X59.76 Y-38.935
G3 X60.44 Y-39.537 I0.6 J-0.007
G1 X62.458 Y-39.193
X62.653 Y-39.16
X62.88 Y-39.109
X63.101 Y-39.04
X63.326 Y-38.95
X63.577 Y-38.826
X63.846 Y-38.664
X64.123 Y-38.466
X64.426 Y-38.209
X64.722 Y-37.915
X65.047 Y-37.535
X65.355 Y-37.111
X65.673 Y-36.589
X65.987 Y-35.966
X66.271 Y-35.268
X66.533 Y-34.44
X66.732 Y-33.576
X66.868 Y-32.7
X66.948 Y-31.818
X66.975 Y-30.932
X66.95 Y-30.046
X66.87 Y-29.164
X66.73 Y-28.322
X66.575 Y-27.7
X66.418 Y-27.233
X66.235 Y-26.806
X66.225 Y-26.786
X66.055 Y-26.534
X65.835 Y-26.325
X65.575 Y-26.169
X65.287 Y-26.072
X64.986 Y-26.039
X62.745 Y-26.037
G3 X62.166 Y-26.627 I0.02 J-0.6
G1 X61.972 Y-38.555
G3 X62.653 Y-39.16 I0.6 J-0.01
G1 X64.798 Y-38.791
X65.077 Y-38.729
X65.298 Y-38.661
X65.522 Y-38.571
X65.772 Y-38.447
X66.042 Y-38.285
X66.317 Y-38.087
X66.62 Y-37.831
X66.915 Y-37.538
X67.241 Y-37.158
X67.547 Y-36.736
X67.865 Y-36.214
X68.177 Y-35.593
X68.46 Y-34.899
X68.72 Y-34.076
X68.919 Y-33.213
X69.054 Y-32.337
X69.132 Y-31.454
X69.154 Y-30.568
X69.121 Y-29.683
X69.026 Y-28.802
X68.887 Y-28.068
X68.734 Y-27.508
X68.577 Y-27.074
X68.477 Y-26.857
X68.312 Y-26.583
X68.09 Y-26.354
X67.821 Y-26.182
X67.52 Y-26.074
X67.203 Y-26.038
X64.986 Y-26.039
G3 X64.407 Y-26.624 I0.021 J-0.6
G1 X64.118 Y-38.182
G3 X64.798 Y-38.791 I0.6 J-0.015
G1 X67.08 Y-38.399
X67.269 Y-38.356
X67.415 Y-38.322
X67.559 Y-38.28
X67.7 Y-38.231
X67.839 Y-38.174
X67.975 Y-38.11
X68.108 Y-38.041
X68.238 Y-37.966
X68.365 Y-37.886
X68.489 Y-37.802
X68.61 Y-37.713
X68.727 Y-37.62
X68.842 Y-37.523
X68.954 Y-37.423
X69.062 Y-37.319
X69.168 Y-37.212
X69.27 Y-37.103
X69.37 Y-36.991
X69.467 Y-36.876
X69.561 Y-36.759
X69.652 Y-36.64
X69.74 Y-36.519
X69.825 Y-36.395
X69.908 Y-36.27
X69.988 Y-36.144
X70.066 Y-36.015
X70.141 Y-35.886
X70.214 Y-35.754
X70.284 Y-35.622
X70.351 Y-35.488
X70.417 Y-35.353
X70.48 Y-35.217
X70.541 Y-35.079
X70.599 Y-34.941
X70.655 Y-34.802
X70.709 Y-34.662
X70.761 Y-34.521
X70.81 Y-34.38
X70.858 Y-34.238
X70.904 Y-34.095
X70.947 Y-33.951
X70.989 Y-33.807
X71.028 Y-33.662
X71.066 Y-33.517
X71.102 Y-33.372
X71.136 Y-33.226
X71.168 Y-33.079
X71.199 Y-32.932
X71.227 Y-32.785
X71.254 Y-32.637
X71.279 Y-32.489
X71.302 Y-32.341
X71.324 Y-32.193
X71.343 Y-32.044
X71.361 Y-31.895
X71.377 Y-31.746
X71.392 Y-31.597
X71.405 Y-31.447
X71.416 Y-31.298
X71.426 Y-31.148
X71.434 Y-30.998
X71.44 Y-30.848
X71.444 Y-30.698
X71.446 Y-30.548
X71.447 Y-30.398
X71.446 Y-30.248
X71.444 Y-30.098
X71.439 Y-29.948
X71.433 Y-29.799
X71.424 Y-29.649
X71.414 Y-29.499
X71.402 Y-29.35
X71.388 Y-29.2
X71.372 Y-29.051
X71.354 Y-28.902
X71.334 Y-28.754
X71.312 Y-28.605
X71.287 Y-28.457
X71.261 Y-28.31
X71.231 Y-28.163
X71.199 Y-28.016
X71.164 Y-27.87
X71.126 Y-27.725
X71.086 Y-27.581
X71.042 Y-27.437
X70.995 Y-27.295
X70.943 Y-27.154
X70.889 Y-27.014
X70.823 Y-26.859
X70.659 Y-26.584
X70.436 Y-26.353
X70.166 Y-26.179
X69.864 Y-26.071
X69.545 Y-26.035
X67.885 Y-26.038
X67.203
G3 X66.624 Y-26.626 I0.021 J-0.6
G1 X66.399 Y-37.792
G3 X67.08 Y-38.399 I0.6 J-0.012
G1 X69.294 Y-38.017
X69.597 Y-37.949
X69.81 Y-37.883
X70.039 Y-37.792
X70.285 Y-37.669
X70.549 Y-37.51
X70.828 Y-37.311
X71.119 Y-37.064
X71.422 Y-36.762
X71.733 Y-36.399
X72.048 Y-35.965
X72.36 Y-35.451
X72.56 Y-35.056
X72.856 Y-34.726
X73.583 Y-34.22
X74.407 Y-33.894
X75.264 Y-33.666
X76.128 Y-33.471
X76.555 Y-33.353
X77.115 Y-33.187
X77.736 Y-32.946
X78.128 Y-32.758
X78.6 Y-32.481
X78.885 Y-32.282
X79.201 Y-32.021
X79.5 Y-31.731
X79.71 Y-31.491
X79.942 Y-31.179
X80.126 Y-30.885
X80.265 Y-30.616
X80.409 Y-30.276
X80.508 Y-29.975
X80.575 Y-29.695
X80.63 Y-29.349
X80.654 Y-29.041
X80.653 Y-28.767
X80.625 Y-28.435
X80.574 Y-28.126
X80.511 Y-27.872
X80.41 Y-27.573
X80.281 Y-27.273
X80.165 Y-27.053
X80.004 Y-26.799
X79.798 Y-26.526
X79.749 Y-26.471
X79.529 Y-26.271
X79.272 Y-26.122
X78.99 Y-26.03
X78.694 Y-26.001
X75.129 Y-26.019
X71.708 Y-26.031
X69.545 Y-26.035
G3 X68.967 Y-26.615 I0.022 J-0.6
G1 X68.613 Y-37.403
G3 X69.294 Y-38.017 I0.6 J-0.02
G1 X71.507 Y-37.637
X71.774 Y-37.577
X71.994 Y-37.509
X72.816 Y-37.18
X73.638 Y-36.848
X74.474 Y-36.554
X75.317 Y-36.28
X76.16 Y-36.007
X76.996 Y-35.715
X77.818 Y-35.383
X78.569 Y-35.022
X79.231 Y-34.635
X79.791 Y-34.245
X80.281 Y-33.841
X80.709 Y-33.426
X81.094 Y-32.988
X81.429 Y-32.539
X81.713 Y-32.086
X81.956 Y-31.619
X82.153 Y-31.153
X82.31 Y-30.679
X82.426 Y-30.2
X82.502 Y-29.727
X82.539 Y-29.252
X82.538 Y-28.775
X82.5 Y-28.313
X82.425 Y-27.859
X82.314 Y-27.408
X82.184 Y-27.02
X82.105 Y-26.836
X81.973 Y-26.596
X81.798 Y-26.386
X81.585 Y-26.215
X81.342 Y-26.088
X81.08 Y-26.011
X80.808 Y-25.986
X78.694 Y-26.001
G3 X78.227 Y-26.257 I0.024 J-0.6
G1 X78.093 Y-26.448
X70.934 Y-36.699
G3 X71.507 Y-37.637 I0.492 J-0.344
G1 X73.922 Y-37.223
X77.141 Y-36.674
X78.877 Y-36.381
X79.401 Y-36.265
X79.81 Y-36.14
X80.234 Y-35.972
X80.687 Y-35.748
X81.145 Y-35.474
X81.591 Y-35.157
X82.03 Y-34.788
X82.454 Y-34.368
X82.853 Y-33.905
X83.219 Y-33.404
X83.548 Y-32.868
X83.833 Y-32.306
X84.073 Y-31.722
X84.266 Y-31.118
X84.409 Y-30.504
X84.502 Y-29.881
X84.545 Y-29.254
X84.537 Y-28.638
X84.487 Y-28.097
X84.407 Y-27.64
X84.3 Y-27.224
X84.179 Y-26.875
X84.149 Y-26.806
X83.984 Y-26.526
X83.759 Y-26.29
X83.485 Y-26.113
X83.178 Y-26.005
X82.855 Y-25.969
X80.965 Y-25.985
X80.808 Y-25.986
G3 X80.247 Y-26.456 I0.025 J-0.599
G1 X78.212 Y-35.657
G3 X78.877 Y-36.381 I0.586 J-0.13
G1 X81.262 Y-35.979
X82.172 Y-35.828
X82.421 Y-35.773
X82.687 Y-35.693
X82.96 Y-35.585
X83.262 Y-35.437
X83.569 Y-35.255
X83.904 Y-35.017
X84.228 Y-34.747
X84.571 Y-34.409
X84.909 Y-34.019
X85.226 Y-33.586
X85.535 Y-33.087
X85.82 Y-32.528
X86.072 Y-31.92
X86.278 Y-31.28
X86.436 Y-30.609
X86.54 Y-29.927
X86.587 Y-29.261
X86.581 Y-28.625
X86.534 Y-28.101
X86.451 Y-27.619
X86.351 Y-27.23
X86.222 Y-26.853
X86.195 Y-26.791
X86.03 Y-26.509
X85.805 Y-26.273
X85.53 Y-26.095
X85.222 Y-25.986
X84.897 Y-25.951
X82.855 Y-25.969
G3 X82.283 Y-26.515 I0.026 J-0.599
G1 X81.497 Y-35.179
G3 X82.172 Y-35.828 I0.598 J-0.054
G1 X84.587 Y-35.427
X84.835 Y-35.373
X85.056 Y-35.306
X85.301 Y-35.209
X85.552 Y-35.086
X85.832 Y-34.92
X86.109 Y-34.724
X86.411 Y-34.471
X86.708 Y-34.179
X87.011 Y-33.828
X87.318 Y-33.41
X87.598 Y-32.957
X87.869 Y-32.427
X88.114 Y-31.834
X88.319 Y-31.198
X88.474 Y-30.539
X88.576 Y-29.871
X88.622 Y-29.217
X88.616 Y-28.585
X88.57 Y-28.067
X88.488 Y-27.591
X88.389 Y-27.204
X88.26 Y-26.83
X88.234 Y-26.77
X88.069 Y-26.488
X87.843 Y-26.251
X87.569 Y-26.074
X87.261 Y-25.965
X86.935 Y-25.93
X84.897 Y-25.951
G3 X84.325 Y-26.52 I0.027 J-0.599
G1 X83.91 Y-34.802
G3 X84.587 Y-35.427 I0.599 J-0.03
G1 X85.593 Y-35.261
X86.8 Y-35.067
X87.026 Y-35.019
X87.242 Y-34.954
X87.46 Y-34.87
X87.708 Y-34.75
X87.958 Y-34.603
X88.232 Y-34.412
X88.505 Y-34.185
X88.799 Y-33.899
X89.079 Y-33.579
X89.372 Y-33.184
X89.644 Y-32.748
X89.9 Y-32.254
X90.135 Y-31.693
X90.336 Y-31.081
X90.489 Y-30.448
X90.59 Y-29.804
X90.638 Y-29.169
X90.636 Y-28.552
X90.592 Y-28.044
X90.514 Y-27.574
X90.418 Y-27.191
X90.292 Y-26.818
X90.265 Y-26.754
X90.132 Y-26.514
X89.956 Y-26.305
X89.742 Y-26.133
X89.499 Y-26.007
X89.235 Y-25.931
X88.963 Y-25.907
X86.935 Y-25.93
G3 X86.363 Y-26.512 I0.028 J-0.599
G1 X86.126 Y-34.454
G3 X86.8 Y-35.067 I0.6 J-0.018
G1 X89.014 Y-34.711
X89.16 Y-34.68
X89.366 Y-34.618
X89.583 Y-34.533
X89.824 Y-34.415
X90.066 Y-34.271
X90.334 Y-34.082
X90.597 Y-33.862
X90.879 Y-33.586
X91.154 Y-33.268
X91.427 Y-32.898
X91.699 Y-32.458
X91.941 Y-31.986
X92.161 Y-31.456
X92.351 Y-30.87
X92.495 Y-30.26
X92.591 Y-29.638
X92.635 Y-29.026
X92.63 Y-28.432
X92.585 Y-27.931
X92.513 Y-27.509
X92.411 Y-27.11
X92.296 Y-26.772
X92.276 Y-26.726
X92.111 Y-26.443
X91.885 Y-26.206
X91.61 Y-26.028
X91.301 Y-25.919
X90.976 Y-25.884
X88.963 Y-25.907
G3 X88.39 Y-26.502 I0.028 J-0.599
G1 X88.339 Y-34.112
G3 X89.014 Y-34.711 I0.6 J-0.004
G1 X91.026 Y-34.388
X91.236 Y-34.343
X91.435 Y-34.284
X91.649 Y-34.201
X91.881 Y-34.089
X92.119 Y-33.949
X92.376 Y-33.769
X92.634 Y-33.555
X92.903 Y-33.293
X93.174 Y-32.983
X93.435 Y-32.632
X93.697 Y-32.212
X93.934 Y-31.754
X94.145 Y-31.25
X94.329 Y-30.692
X94.47 Y-30.106
X94.563 Y-29.513
X94.608 Y-28.921
X94.606 Y-28.355
X94.566 Y-27.882
X94.495 Y-27.458
X94.401 Y-27.084
X94.283 Y-26.734
X94.272 Y-26.709
X94.14 Y-26.469
X93.963 Y-26.259
X93.749 Y-26.088
X93.506 Y-25.962
X93.243 Y-25.885
X92.97 Y-25.862
X90.976 Y-25.884
G3 X90.404 Y-26.479 I0.028 J-0.599
G1 X90.351 Y-33.788
G3 X91.026 Y-34.388 I0.6 J-0.004
G1 X93.038 Y-34.064
X93.287 Y-34.011
X93.476 Y-33.955
X93.692 Y-33.871
X93.912 Y-33.765
X94.153 Y-33.623
X94.397 Y-33.453
X94.657 Y-33.237
X94.912 Y-32.989
X95.182 Y-32.681
X95.432 Y-32.344
X95.68 Y-31.945
X95.916 Y-31.489
X96.12 Y-31.005
X96.294 Y-30.475
X96.428 Y-29.918
X96.517 Y-29.349
X96.561 Y-28.782
X96.558 Y-28.254
X96.519 Y-27.79
X96.454 Y-27.399
X96.359 Y-27.021
X96.249 Y-26.695
X96.245 Y-26.687
X96.113 Y-26.447
X95.936 Y-26.237
X95.722 Y-26.066
X95.479 Y-25.94
X95.216 Y-25.863
X94.943 Y-25.84
X92.97 Y-25.862
G3 X92.398 Y-26.458 I0.028 J-0.599
G1 X92.364 Y-33.466
G3 X93.038 Y-34.064 I0.6 J-0.003
G1 X94.044 Y-33.903
X94.246 Y-33.872
X95.05 Y-33.749
X95.277 Y-33.703
X95.462 Y-33.65
X95.674 Y-33.57
X95.89 Y-33.467
X96.127 Y-33.331
X96.365 Y-33.168
X96.621 Y-32.959
X96.869 Y-32.722
X97.131 Y-32.427
X97.377 Y-32.102
X97.618 Y-31.723
X97.849 Y-31.286
X98.05 Y-30.818
X98.219 Y-30.317
X98.352 Y-29.786
X98.442 Y-29.245
X98.488 Y-28.699
X98.49 Y-28.2
X98.456 Y-27.752
X98.396 Y-27.372
X98.306 Y-27.002
X98.199 Y-26.677
X98.068 Y-26.435
X97.892 Y-26.223
X97.678 Y-26.05
X97.434 Y-25.922
X97.17 Y-25.844
X96.896 Y-25.82
X95.855 Y-25.83
X94.943 Y-25.84
G3 X94.371 Y-26.44 I0.028 J-0.599
G1 X94.381 Y-33.154
G3 X95.05 Y-33.749 I0.6 J0.001
G1 X97.063 Y-33.443
X97.259 Y-33.404
X97.442 Y-33.35
X97.653 Y-33.271
X97.864 Y-33.171
X98.1 Y-33.035
X98.332 Y-32.876
X98.583 Y-32.671
X98.828 Y-32.437
X99.079 Y-32.155
X99.328 Y-31.825
X99.557 Y-31.465
X99.777 Y-31.049
X99.975 Y-30.589
X100.139 Y-30.101
X100.266 Y-29.596
X100.352 Y-29.079
X100.396 Y-28.558
X100.397 Y-28.104
X100.365 Y-27.674
X100.306 Y-27.304
X100.221 Y-26.951
X100.16 Y-26.766
X100.04 Y-26.498
X99.866 Y-26.261
X99.647 Y-26.066
X99.392 Y-25.92
X99.112 Y-25.831
X98.819 Y-25.803
X96.896 Y-25.82
G3 X96.322 Y-26.426 I0.026 J-0.599
G1 X96.393 Y-32.854
G3 X97.063 Y-33.443 I0.6 J0.007
G1 X99.075 Y-33.138
X99.222 Y-33.108
X99.406 Y-33.054
X99.612 Y-32.976
X99.821 Y-32.876
X100.052 Y-32.743
X100.283 Y-32.583
X100.526 Y-32.384
X100.772 Y-32.148
X101.012 Y-31.877
X101.256 Y-31.553
X101.48 Y-31.198
X101.69 Y-30.8
X101.877 Y-30.361
X102.035 Y-29.892
X102.155 Y-29.407
X102.236 Y-28.91
X102.275 Y-28.44
X102.276 Y-27.987
X102.246 Y-27.606
X102.186 Y-27.227
X102.107 Y-26.904
X102.056 Y-26.75
X101.935 Y-26.483
X101.762 Y-26.247
X101.543 Y-26.052
X101.289 Y-25.907
X101.01 Y-25.818
X100.718 Y-25.789
X98.819 Y-25.803
G3 X98.245 Y-26.418 I0.026 J-0.599
G1 X98.406 Y-32.557
G3 X99.075 Y-33.138 I0.6 J0.016
G1 X100.886 Y-32.862
X101.16 Y-32.807
X101.342 Y-32.754
X101.541 Y-32.678
X101.749 Y-32.58
X101.972 Y-32.452
X102.2 Y-32.295
X102.435 Y-32.104
X102.677 Y-31.872
X102.909 Y-31.612
X103.144 Y-31.301
X103.365 Y-30.953
X103.564 Y-30.576
X103.744 Y-30.158
X103.894 Y-29.714
X104.01 Y-29.25
X104.088 Y-28.777
X104.126 Y-28.336
X104.127 Y-27.906
X104.1 Y-27.541
X104.042 Y-27.177
X103.966 Y-26.864
X103.927 Y-26.743
X103.807 Y-26.476
X103.634 Y-26.239
X103.415 Y-26.044
X103.161 Y-25.898
X102.882 Y-25.809
X102.59 Y-25.78
X100.718 Y-25.789
G3 X100.143 Y-26.396 I0.025 J-0.599
G1 X100.217 Y-32.274
G3 X100.886 Y-32.862 I0.6 J0.008
G1 X102.846 Y-32.564
X103.066 Y-32.519
X103.25 Y-32.467
X103.442 Y-32.394
X103.65 Y-32.295
X103.864 Y-32.172
X104.093 Y-32.015
X104.317 Y-31.832
X104.555 Y-31.605
X104.781 Y-31.351
X105.005 Y-31.054
X105.221 Y-30.714
X105.416 Y-30.346
X105.586 Y-29.95
X105.728 Y-29.529
X105.839 Y-29.086
X105.914 Y-28.634
X105.949 Y-28.222
X105.951 Y-27.822
X105.924 Y-27.469
X105.869 Y-27.123
X105.795 Y-26.817
X105.769 Y-26.736
X105.649 Y-26.469
X105.476 Y-26.233
X105.258 Y-26.038
X105.004 Y-25.893
X104.726 Y-25.803
X104.435 Y-25.773
X103.301 Y-25.776
X102.59 Y-25.78
G3 X102.014 Y-26.397 I0.024 J-0.6
G1 X102.177 Y-31.986
G3 X102.846 Y-32.564 I0.6 J0.017
G1 X103.703 Y-32.441
X104.709 Y-32.298
X104.916 Y-32.258
X105.095 Y-32.209
X105.284 Y-32.139
X105.489 Y-32.045
X105.697 Y-31.928
X105.921 Y-31.777
X106.14 Y-31.603
X106.372 Y-31.386
X106.594 Y-31.141
X106.811 Y-30.859
X107.021 Y-30.537
X107.212 Y-30.184
X107.379 Y-29.807
X107.519 Y-29.407
X107.628 Y-28.986
X107.704 Y-28.558
X107.741 Y-28.167
X107.747 Y-27.788
X107.724 Y-27.446
X107.675 Y-27.113
X107.606 Y-26.814
X107.584 Y-26.745
X107.466 Y-26.476
X107.294 Y-26.236
X107.076 Y-26.038
X106.821 Y-25.89
X106.541 Y-25.799
X106.248 Y-25.769
X104.435 Y-25.773
G3 X103.858 Y-26.394 I0.023 J-0.6
G1 X104.046 Y-31.723
G3 X104.709 Y-32.298 I0.6 J0.021
G1 X106.52 Y-32.042
X106.763 Y-31.995
X106.943 Y-31.945
X107.125 Y-31.878
X107.329 Y-31.785
X107.531 Y-31.671
X107.749 Y-31.524
X107.967 Y-31.351
X108.186 Y-31.146
X108.409 Y-30.9
X108.618 Y-30.629
X108.816 Y-30.325
X109 Y-29.985
X109.162 Y-29.619
X109.297 Y-29.232
X109.402 Y-28.83
X109.47 Y-28.442
X109.506 Y-28.062
X109.511 Y-27.717
X109.489 Y-27.379
X109.443 Y-27.067
X109.375 Y-26.77
X109.367 Y-26.744
X109.249 Y-26.475
X109.077 Y-26.236
X108.859 Y-26.038
X108.604 Y-25.89
X108.324 Y-25.798
X108.031 Y-25.767
X106.248 Y-25.769
G3 X105.67 Y-26.39 I0.022 J-0.6
G1 X105.857 Y-31.467
G3 X106.52 Y-32.042 I0.6 J0.022
G1 X108.428 Y-31.772
X108.58 Y-31.743
X108.756 Y-31.694
X108.792 Y-31.681
X109.047 Y-31.556
X109.272 Y-31.383
X109.458 Y-31.168
X109.596 Y-30.92
X109.681 Y-30.649
X109.71 Y-30.366
G3 X108.674 Y-29.975 I-0.6 J-0.021
G1 X107.929 Y-30.763
G3 X108.428 Y-31.772 I0.436 J-0.412
G1 X109.136 Y-31.672
X109.237 Y-31.654
X109.287 Y-31.64
X109.337 Y-31.62
X109.39 Y-31.593
X109.442 Y-31.56
X109.491 Y-31.524
X109.539 Y-31.48
X109.591 Y-31.42
X109.63 Y-31.359
X109.656 Y-31.309
X109.676 Y-31.259
X109.702 Y-31.158
X109.71 Y-30.957
Y-26.538
X109.708 Y-26.337
X109.692 Y-26.237
X109.677 Y-26.187
X109.657 Y-26.136
X109.609 Y-26.05
X109.577 Y-26.006
X109.539 Y-25.963
X109.51 Y-25.935
X109.424 Y-25.866
X109.337 Y-25.819
X109.287 Y-25.799
X109.237 Y-25.784
X109.136 Y-25.769
X108.935 Y-25.767
X108.031
X107.526 Y-25.993
X107.331 Y-26.119
X104.508 Y-27.944
X20.597 Y-41.677
G3 X20.798 Y-44.836 I0.116 J-1.578
G1 X24.622 Y-44.494
X25.225 Y-44.438
X30.658 Y-43.881
X31.281 Y-43.813
X32.576 Y-43.66
G3 X32.872 Y-42.609 I-0.091 J0.593
G1 X31.866 Y-42.307
X-22.868 Y-29.391
G2 X-24.545 Y-28.346 I0.375 J2.472
G1 X-25.535 Y-26.94
G3 X-25.886 Y-26.539 I-1.349 J-0.828
G1 X-26.15 Y-26.406
X-26.49 Y-26.235
X-26.892 Y-26.185
X-29.106 Y-26.275
X-29.508 Y-26.294
X-29.718 Y-26.314
X-29.96 Y-26.358
X-30.234 Y-26.43
X-30.539 Y-26.537
X-30.854 Y-26.677
X-31.218 Y-26.876
X-31.575 Y-27.109
X-31.987 Y-27.429
X-32.385 Y-27.793
X-32.819 Y-28.258
X-33.267 Y-28.825
X-33.699 Y-29.47
X-34.13 Y-30.241
X-34.498 Y-31.047
X-34.809 Y-31.877
X-35.064 Y-32.726
X-35.269 Y-33.588
X-35.424 Y-34.46
X-35.532 Y-35.34
X-35.594 Y-36.224
X-35.611 Y-37.11
X-35.582 Y-37.996
X-35.511 Y-38.879
X-35.397 Y-39.758
X-35.242 Y-40.63
X-35.046 Y-41.494
X-34.809 Y-42.348
X-34.534 Y-43.19
X-34.218 Y-44.018
X-33.864 Y-44.831
X-33.472 Y-45.625
X-33.061 Y-46.364
X-32.952 Y-46.528
X-32.779 Y-46.74
X-32.568 Y-46.914
X-32.327 Y-47.044
X-32.066 Y-47.124
X-31.794 Y-47.152
X-29.709 Y-47.163
X-29.115 Y-47.164
G3 X-28.535 Y-46.553 I-0.02 J0.6
G1 X-28.901 Y-26.883
G3 X-29.508 Y-26.294 I-0.6 J-0.011
G1 X-29.911 Y-26.314
X-31.923 Y-26.422
X-32.171 Y-26.448
X-32.402 Y-26.491
X-32.675 Y-26.565
X-32.952 Y-26.664
X-33.265 Y-26.806
X-33.598 Y-26.99
X-33.95 Y-27.224
X-34.333 Y-27.525
X-34.723 Y-27.885
X-35.128 Y-28.326
X-35.557 Y-28.875
X-35.974 Y-29.506
X-36.386 Y-30.256
X-36.75 Y-31.064
X-37.054 Y-31.897
X-37.303 Y-32.747
X-37.503 Y-33.61
X-37.655 Y-34.483
X-37.762 Y-35.363
X-37.825 Y-36.247
X-37.847 Y-37.133
X-37.827 Y-38.018
X-37.766 Y-38.903
X-37.667 Y-39.783
X-37.529 Y-40.658
X-37.354 Y-41.527
X-37.143 Y-42.388
X-36.895 Y-43.239
X-36.613 Y-44.078
X-36.295 Y-44.906
X-35.942 Y-45.718
X-35.629 Y-46.324
X-35.534 Y-46.478
X-35.362 Y-46.701
X-35.148 Y-46.885
X-34.902 Y-47.023
X-34.633 Y-47.109
X-34.352 Y-47.139
X-31.794 Y-47.152
G3 X-31.212 Y-46.549 I-0.018 J0.6
G1 X-31.311 Y-27.019
G3 X-31.923 Y-26.422 I-0.6 J-0.003
G1 X-34.337 Y-26.552
X-34.524 Y-26.571
X-34.751 Y-26.614
X-35.017 Y-26.686
X-35.284 Y-26.782
X-35.593 Y-26.921
X-35.91 Y-27.097
X-36.257 Y-27.327
X-36.622 Y-27.614
X-37.004 Y-27.968
X-37.395 Y-28.392
X-37.811 Y-28.924
X-38.217 Y-29.539
X-38.62 Y-30.273
X-38.984 Y-31.081
X-39.287 Y-31.913
X-39.535 Y-32.764
X-39.734 Y-33.628
X-39.886 Y-34.501
X-39.995 Y-35.38
X-40.063 Y-36.263
X-40.09 Y-37.149
X-40.078 Y-38.035
X-40.028 Y-38.92
X-39.942 Y-39.802
X-39.82 Y-40.68
X-39.663 Y-41.552
X-39.473 Y-42.417
X-39.25 Y-43.275
X-38.994 Y-44.123
X-38.706 Y-44.961
X-38.378 Y-45.784
X-38.113 Y-46.319
X-38.047 Y-46.429
X-37.877 Y-46.657
X-37.664 Y-46.846
X-37.418 Y-46.988
X-37.149 Y-47.077
X-36.866 Y-47.11
X-35.545 Y-47.129
X-35.142 Y-47.134
X-34.352 Y-47.139
G3 X-33.77 Y-46.54 I-0.018 J0.6
G1 X-33.726 Y-27.153
G3 X-34.337 Y-26.552 I-0.6 J0.001
G1 X-36.551 Y-26.671
X-36.841 Y-26.701
X-37.068 Y-26.743
X-37.326 Y-26.813
X-37.589 Y-26.908
X-37.896 Y-27.047
X-38.2 Y-27.215
X-38.547 Y-27.445
X-38.896 Y-27.72
X-39.279 Y-28.074
X-39.656 Y-28.484
X-40.063 Y-29.003
X-40.466 Y-29.615
X-40.862 Y-30.335
X-41.226 Y-31.143
X-41.528 Y-31.976
X-41.775 Y-32.827
X-41.974 Y-33.691
X-42.126 Y-34.564
X-42.236 Y-35.443
X-42.306 Y-36.326
X-42.338 Y-37.212
X-42.333 Y-38.098
X-42.292 Y-38.983
X-42.216 Y-39.866
X-42.106 Y-40.745
X-41.964 Y-41.62
X-41.791 Y-42.489
X-41.587 Y-43.351
X-41.351 Y-44.206
X-41.082 Y-45.05
X-40.805 Y-45.778
X-40.564 Y-46.284
X-40.511 Y-46.375
X-40.342 Y-46.608
X-40.128 Y-46.802
X-39.88 Y-46.948
X-39.606 Y-47.04
X-39.32 Y-47.074
X-36.866 Y-47.11
G3 X-36.279 Y-46.521 I-0.012 J0.6
G1 X-35.94 Y-27.281
G3 X-36.551 Y-26.671 I-0.6 J0.011
G1 X-37.155 Y-26.704
X-37.76 Y-26.739
X-38.966 Y-26.82
X-39.173 Y-26.844
X-39.407 Y-26.891
X-39.656 Y-26.962
X-39.925 Y-27.063
X-40.23 Y-27.206
X-40.534 Y-27.379
X-40.885 Y-27.619
X-41.224 Y-27.893
X-41.611 Y-28.261
X-41.981 Y-28.674
X-42.378 Y-29.196
X-42.785 Y-29.83
X-43.18 Y-30.573
X-43.533 Y-31.386
X-43.824 Y-32.222
X-44.062 Y-33.076
X-44.251 Y-33.942
X-44.396 Y-34.816
X-44.499 Y-35.696
X-44.564 Y-36.58
X-44.593 Y-37.465
X-44.586 Y-38.351
X-44.546 Y-39.237
X-44.474 Y-40.12
X-44.371 Y-41
X-44.236 Y-41.876
X-44.071 Y-42.746
X-43.876 Y-43.611
X-43.648 Y-44.467
X-43.38 Y-45.312
X-43.137 Y-45.92
X-42.972 Y-46.253
X-42.809 Y-46.509
X-42.594 Y-46.723
X-42.338 Y-46.886
X-42.053 Y-46.991
X-41.752 Y-47.031
X-41.179 Y-47.045
X-40.173 Y-47.061
X-39.32 Y-47.074
G3 X-38.732 Y-46.486 I-0.012 J0.6
G1 X-38.346 Y-27.432
G3 X-38.966 Y-26.82 I-0.6 J0.012
G1 X-41.179 Y-26.969
X-41.471 Y-27.003
X-41.697 Y-27.048
X-41.948 Y-27.12
X-42.209 Y-27.218
X-42.513 Y-27.36
X-42.813 Y-27.531
X-43.156 Y-27.766
X-43.498 Y-28.042
X-43.876 Y-28.401
X-44.245 Y-28.813
X-44.643 Y-29.336
X-45.039 Y-29.955
X-45.427 Y-30.683
X-45.78 Y-31.496
X-46.071 Y-32.332
X-46.309 Y-33.186
X-46.499 Y-34.052
X-46.645 Y-34.926
X-46.75 Y-35.805
X-46.818 Y-36.689
X-46.851 Y-37.574
X-46.85 Y-38.461
X-46.817 Y-39.346
X-46.753 Y-40.23
X-46.658 Y-41.111
X-46.534 Y-41.988
X-46.38 Y-42.861
X-46.195 Y-43.728
X-45.975 Y-44.586
X-45.717 Y-45.408
X-45.5 Y-45.944
X-45.372 Y-46.199
X-45.208 Y-46.453
X-44.994 Y-46.666
X-44.739 Y-46.828
X-44.455 Y-46.932
X-44.155 Y-46.972
X-41.752 Y-47.031
G3 X-41.159 Y-46.45 I-0.006 J0.6
G1 X-40.56 Y-27.587
G3 X-41.179 Y-26.969 I-0.6 J0.019
G1 X-43.594 Y-27.131
X-43.743 Y-27.149
X-43.97 Y-27.194
X-44.22 Y-27.266
X-44.482 Y-27.365
X-44.785 Y-27.507
X-45.083 Y-27.678
X-45.427 Y-27.914
X-45.764 Y-28.187
X-46.143 Y-28.548
X-46.508 Y-28.957
X-46.903 Y-29.477
X-47.301 Y-30.1
X-47.687 Y-30.828
X-48.038 Y-31.642
X-48.329 Y-32.479
X-48.566 Y-33.333
X-48.755 Y-34.199
X-48.901 Y-35.073
X-49.008 Y-35.952
X-49.078 Y-36.836
X-49.114 Y-37.721
X-49.117 Y-38.607
X-49.089 Y-39.493
X-49.031 Y-40.377
X-48.944 Y-41.259
X-48.827 Y-42.137
X-48.68 Y-43.011
X-48.5 Y-43.879
X-48.283 Y-44.738
X-48.054 Y-45.454
X-47.845 Y-45.961
X-47.75 Y-46.147
X-47.587 Y-46.398
X-47.374 Y-46.608
X-47.121 Y-46.768
X-46.84 Y-46.871
X-46.544 Y-46.912
X-46.21 Y-46.921
X-44.155 Y-46.972
G3 X-43.562 Y-46.39 I-0.006 J0.6
G1 X-42.975 Y-27.75
G3 X-43.594 Y-27.131 I-0.6 J0.019
G1 X-45.405 Y-27.253
X-45.807 Y-27.281
X-46.035 Y-27.31
X-46.265 Y-27.358
X-46.512 Y-27.431
X-46.777 Y-27.533
X-47.079 Y-27.678
X-47.378 Y-27.852
X-47.724 Y-28.093
X-48.058 Y-28.368
X-48.438 Y-28.735
X-48.801 Y-29.148
X-49.193 Y-29.672
X-49.592 Y-30.308
X-49.98 Y-31.051
X-50.326 Y-31.867
X-50.611 Y-32.706
X-50.843 Y-33.561
X-51.029 Y-34.427
X-51.172 Y-35.302
X-51.277 Y-36.182
X-51.346 Y-37.065
X-51.382 Y-37.95
X-51.386 Y-38.837
X-51.36 Y-39.722
X-51.305 Y-40.607
X-51.221 Y-41.489
X-51.107 Y-42.368
X-50.962 Y-43.242
X-50.782 Y-44.109
X-50.558 Y-44.967
X-50.344 Y-45.584
X-50.133 Y-46.063
X-50.122 Y-46.084
X-49.959 Y-46.323
X-49.751 Y-46.524
X-49.505 Y-46.677
X-49.234 Y-46.777
X-48.947 Y-46.819
X-47.216 Y-46.89
X-46.544 Y-46.912
G3 X-45.948 Y-46.337 I-0.003 J0.6
G1 X-45.187 Y-27.906
G3 X-45.807 Y-27.281 I-0.599 J0.025
G1 X-48.021 Y-27.452
X-48.321 Y-27.49
X-48.547 Y-27.538
X-48.795 Y-27.611
X-49.056 Y-27.712
X-49.357 Y-27.857
X-49.654 Y-28.03
X-49.996 Y-28.268
X-50.332 Y-28.546
X-50.708 Y-28.909
X-51.071 Y-29.323
X-51.464 Y-29.85
X-51.859 Y-30.48
X-52.244 Y-31.221
X-52.589 Y-32.037
X-52.874 Y-32.876
X-53.106 Y-33.731
X-53.292 Y-34.598
X-53.436 Y-35.472
X-53.542 Y-36.352
X-53.613 Y-37.235
X-53.651 Y-38.121
X-53.659 Y-39.007
X-53.636 Y-39.893
X-53.585 Y-40.777
X-53.505 Y-41.66
X-53.395 Y-42.539
X-53.251 Y-43.413
X-53.068 Y-44.28
X-52.857 Y-45.06
X-52.662 Y-45.602
X-52.527 Y-45.9
X-52.369 Y-46.166
X-52.157 Y-46.39
X-51.901 Y-46.563
X-51.614 Y-46.675
X-51.309 Y-46.721
X-48.947 Y-46.819
G3 X-48.344 Y-46.25 I0.004 J0.6
G1 X-47.396 Y-28.083
G3 X-48.021 Y-27.452 I-0.599 J0.031
G1 X-49.429 Y-27.561
X-50.033 Y-27.61
X-50.435 Y-27.643
X-50.604 Y-27.665
X-50.832 Y-27.715
X-51.08 Y-27.79
X-51.343 Y-27.893
X-51.645 Y-28.04
X-51.943 Y-28.216
X-52.287 Y-28.46
X-52.622 Y-28.738
X-52.999 Y-29.108
X-53.362 Y-29.526
X-53.753 Y-30.057
X-54.15 Y-30.7
X-54.538 Y-31.455
X-54.877 Y-32.273
X-55.158 Y-33.113
X-55.387 Y-33.969
X-55.57 Y-34.836
X-55.712 Y-35.711
X-55.817 Y-36.591
X-55.887 Y-37.474
X-55.925 Y-38.36
X-55.933 Y-39.246
X-55.911 Y-40.132
X-55.861 Y-41.016
X-55.781 Y-41.899
X-55.669 Y-42.778
X-55.521 Y-43.652
X-55.33 Y-44.517
X-55.129 Y-45.188
X-54.936 Y-45.686
X-54.878 Y-45.805
X-54.723 Y-46.055
X-54.52 Y-46.266
X-54.277 Y-46.43
X-54.005 Y-46.54
X-53.716 Y-46.592
X-53.235 Y-46.625
X-52.649 Y-46.663
X-52.448 Y-46.674
X-51.309 Y-46.721
G3 X-50.706 Y-46.152 I0.004 J0.6
G1 X-49.808 Y-28.272
G3 X-50.435 Y-27.643 I-0.599 J0.03
G1 X-52.649 Y-27.826
X-52.885 Y-27.858
X-53.11 Y-27.907
X-53.359 Y-27.982
X-53.619 Y-28.084
X-53.92 Y-28.231
X-54.217 Y-28.406
X-54.556 Y-28.646
X-54.894 Y-28.928
X-55.266 Y-29.293
X-55.631 Y-29.713
X-56.023 Y-30.245
X-56.417 Y-30.882
X-56.803 Y-31.635
X-57.143 Y-32.453
X-57.424 Y-33.293
X-57.654 Y-34.149
X-57.838 Y-35.016
X-57.981 Y-35.89
X-58.087 Y-36.77
X-58.159 Y-37.653
X-58.199 Y-38.539
X-58.209 Y-39.425
X-58.189 Y-40.311
X-58.141 Y-41.195
X-58.061 Y-42.078
X-57.948 Y-42.957
X-57.795 Y-43.83
X-57.605 Y-44.643
X-57.421 Y-45.217
X-57.279 Y-45.561
X-57.13 Y-45.833
X-56.924 Y-46.066
X-56.673 Y-46.247
X-56.388 Y-46.369
X-56.082 Y-46.425
X-53.716 Y-46.592
G3 X-53.096 Y-46.029 I0.021 J0.6
G1 X-52.021 Y-28.462
G3 X-52.649 Y-27.826 I-0.599 J0.037
G1 X-53.454 Y-27.894
X-54.862 Y-28.016
X-55.175 Y-28.06
X-55.403 Y-28.11
X-55.65 Y-28.186
X-55.912 Y-28.29
X-56.212 Y-28.438
X-56.508 Y-28.615
X-56.851 Y-28.859
X-57.185 Y-29.14
X-57.56 Y-29.511
X-57.922 Y-29.931
X-58.312 Y-30.466
X-58.709 Y-31.113
X-59.096 Y-31.877
X-59.433 Y-32.697
X-59.71 Y-33.538
X-59.937 Y-34.395
X-60.119 Y-35.262
X-60.261 Y-36.137
X-60.365 Y-37.017
X-60.437 Y-37.9
X-60.476 Y-38.785
X-60.485 Y-39.671
X-60.464 Y-40.557
X-60.413 Y-41.442
X-60.33 Y-42.324
X-60.21 Y-43.202
X-60.046 Y-44.073
X-59.864 Y-44.76
X-59.685 Y-45.267
X-59.611 Y-45.433
X-59.459 Y-45.695
X-59.255 Y-45.917
X-59.007 Y-46.09
X-58.728 Y-46.206
X-58.431 Y-46.26
X-56.082 Y-46.425
G3 X-55.463 Y-45.868 I0.021 J0.6
G1 X-54.233 Y-28.658
G3 X-54.862 Y-28.016 I-0.598 J0.043
G1 X-57.277 Y-28.228
X-57.451 Y-28.252
X-57.677 Y-28.303
X-57.927 Y-28.38
X-58.187 Y-28.484
X-58.49 Y-28.634
X-58.787 Y-28.812
X-59.127 Y-29.056
X-59.466 Y-29.343
X-59.838 Y-29.712
X-60.203 Y-30.138
X-60.595 Y-30.678
X-60.991 Y-31.326
X-61.378 Y-32.094
X-61.712 Y-32.914
X-61.989 Y-33.756
X-62.215 Y-34.613
X-62.396 Y-35.48
X-62.537 Y-36.355
X-62.642 Y-37.235
X-62.713 Y-38.118
X-62.752 Y-39.003
X-62.76 Y-39.89
X-62.738 Y-40.775
X-62.685 Y-41.66
X-62.597 Y-42.542
X-62.468 Y-43.418
X-62.301 Y-44.222
X-62.132 Y-44.796
X-62.019 Y-45.091
X-61.88 Y-45.361
X-61.686 Y-45.595
X-61.446 Y-45.782
X-61.171 Y-45.912
X-60.875 Y-45.98
X-58.686 Y-46.237
X-58.485 Y-46.256
X-58.431 Y-46.26
G3 X-57.811 Y-45.702 I0.021 J0.6
G1 X-56.647 Y-28.868
G3 X-57.277 Y-28.228 I-0.599 J0.041
G1 X-59.491 Y-28.426
X-59.732 Y-28.46
X-59.957 Y-28.51
X-60.208 Y-28.587
X-60.467 Y-28.691
X-60.768 Y-28.84
X-61.064 Y-29.019
X-61.403 Y-29.261
X-61.742 Y-29.548
X-62.112 Y-29.915
X-62.478 Y-30.342
X-62.87 Y-30.882
X-63.264 Y-31.528
X-63.652 Y-32.296
X-63.986 Y-33.116
X-64.263 Y-33.958
X-64.489 Y-34.815
X-64.671 Y-35.682
X-64.812 Y-36.557
X-64.917 Y-37.437
X-64.988 Y-38.32
X-65.027 Y-39.205
X-65.035 Y-40.091
X-65.011 Y-40.977
X-64.954 Y-41.861
X-64.859 Y-42.742
X-64.717 Y-43.617
X-64.558 Y-44.271
X-64.392 Y-44.775
X-64.359 Y-44.855
X-64.216 Y-45.114
X-64.023 Y-45.336
X-63.787 Y-45.514
X-63.519 Y-45.638
X-63.232 Y-45.703
X-60.875 Y-45.98
G3 X-60.228 Y-45.432 I0.049 J0.598
G1 X-58.86 Y-29.075
G3 X-59.491 Y-28.426 I-0.598 J0.05
G1 X-61.704 Y-28.625
X-62.012 Y-28.668
X-62.237 Y-28.719
X-62.487 Y-28.796
X-62.746 Y-28.9
X-63.047 Y-29.049
X-63.343 Y-29.228
X-63.682 Y-29.47
X-64.021 Y-29.757
X-64.391 Y-30.125
X-64.756 Y-30.552
X-65.148 Y-31.092
X-65.543 Y-31.74
X-65.93 Y-32.509
X-66.264 Y-33.33
X-66.541 Y-34.172
X-66.766 Y-35.029
X-66.947 Y-35.897
X-67.089 Y-36.771
X-67.193 Y-37.651
X-67.263 Y-38.535
X-67.301 Y-39.42
X-67.306 Y-40.306
X-67.278 Y-41.192
X-67.214 Y-42.076
X-67.106 Y-42.955
X-66.967 Y-43.693
X-66.823 Y-44.222
X-66.734 Y-44.466
X-66.604 Y-44.732
X-66.421 Y-44.965
X-66.193 Y-45.155
X-65.931 Y-45.292
X-65.645 Y-45.371
X-64.722 Y-45.522
X-64.521 Y-45.551
X-63.232 Y-45.703
G3 X-62.585 Y-45.162 I0.049 J0.598
G1 X-61.074 Y-29.281
G3 X-61.704 Y-28.625 I-0.597 J0.057
G1 X-63.515 Y-28.788
X-64.119 Y-28.844
X-64.287 Y-28.868
X-64.513 Y-28.919
X-64.764 Y-28.997
X-65.024 Y-29.102
X-65.326 Y-29.253
X-65.623 Y-29.433
X-65.963 Y-29.677
X-66.303 Y-29.966
X-66.674 Y-30.336
X-67.04 Y-30.766
X-67.432 Y-31.308
X-67.828 Y-31.962
X-68.216 Y-32.736
X-68.548 Y-33.557
X-68.823 Y-34.399
X-69.047 Y-35.257
X-69.227 Y-36.124
X-69.367 Y-36.999
X-69.469 Y-37.88
X-69.537 Y-38.763
X-69.572 Y-39.649
Y-40.535
X-69.538 Y-41.42
X-69.461 Y-42.303
X-69.339 Y-43.13
X-69.207 Y-43.7
X-69.108 Y-44.01
X-68.988 Y-44.283
X-68.812 Y-44.525
X-68.59 Y-44.723
X-68.33 Y-44.87
X-68.045 Y-44.959
X-67.942 Y-44.979
X-67.338 Y-45.092
X-65.645 Y-45.371
G3 X-64.971 Y-44.834 I0.077 J0.595
G1 X-63.487 Y-29.501
G3 X-64.119 Y-28.844 I-0.597 J0.058
G1 X-65.93 Y-29.011
X-66.332 Y-29.05
X-66.59 Y-29.089
X-66.818 Y-29.142
X-67.068 Y-29.222
X-67.33 Y-29.33
X-67.633 Y-29.483
X-67.931 Y-29.666
X-68.272 Y-29.915
X-68.611 Y-30.207
X-68.985 Y-30.585
X-69.349 Y-31.018
X-69.74 Y-31.567
X-70.136 Y-32.231
X-70.525 Y-33.02
X-70.852 Y-33.843
X-71.122 Y-34.687
X-71.342 Y-35.546
X-71.517 Y-36.414
X-71.652 Y-37.29
X-71.749 Y-38.171
X-71.812 Y-39.055
X-71.839 Y-39.941
X-71.829 Y-40.827
X-71.78 Y-41.711
X-71.679 Y-42.575
X-71.563 Y-43.16
X-71.469 Y-43.491
X-71.355 Y-43.773
X-71.183 Y-44.023
X-70.96 Y-44.231
X-70.699 Y-44.385
X-70.41 Y-44.479
X-69.954 Y-44.574
X-68.045 Y-44.959
G3 X-67.353 Y-44.434 I0.096 J0.592
G1 X-65.698 Y-29.716
G3 X-66.332 Y-29.05 I-0.596 J0.067
G1 X-67.137 Y-29.132
X-68.546 Y-29.276
X-68.747 Y-29.3
X-68.964 Y-29.339
X-69.204 Y-29.403
X-69.453 Y-29.491
X-69.727 Y-29.613
X-70.033 Y-29.78
X-70.339 Y-29.981
X-70.691 Y-30.254
X-71.028 Y-30.563
X-71.408 Y-30.971
X-71.776 Y-31.437
X-72.162 Y-32.015
X-72.556 Y-32.721
X-72.923 Y-33.527
X-73.229 Y-34.359
X-73.481 Y-35.208
X-73.684 Y-36.071
X-73.844 Y-36.942
X-73.964 Y-37.82
X-74.045 Y-38.703
X-74.089 Y-39.588
X-74.094 Y-40.474
X-74.056 Y-41.359
X-73.973 Y-42.148
X-73.87 Y-42.695
X-73.811 Y-42.915
X-73.702 Y-43.193
X-73.538 Y-43.441
X-73.324 Y-43.649
X-73.072 Y-43.807
X-72.792 Y-43.908
X-70.711 Y-44.416
X-70.41 Y-44.479
G3 X-69.711 Y-43.957 I0.102 J0.591
G1 X-68.101 Y-29.967
G3 X-68.747 Y-29.3 I-0.596 J0.069
G1 X-70.558 Y-29.535
X-70.673 Y-29.551
X-71.162 Y-29.632
X-71.423 Y-29.69
X-71.664 Y-29.764
X-71.921 Y-29.866
X-72.196 Y-30.001
X-72.508 Y-30.188
X-72.813 Y-30.405
X-73.166 Y-30.701
X-73.506 Y-31.037
X-73.884 Y-31.476
X-74.254 Y-31.983
X-74.637 Y-32.606
X-75.023 Y-33.366
X-75.36 Y-34.186
X-75.638 Y-35.028
X-75.863 Y-35.884
X-76.043 Y-36.752
X-76.179 Y-37.628
X-76.275 Y-38.509
X-76.33 Y-39.393
X-76.343 Y-40.279
X-76.306 Y-41.164
X-76.227 Y-41.812
X-76.152 Y-42.182
X-76.059 Y-42.471
X-75.907 Y-42.733
X-75.701 Y-42.957
X-75.452 Y-43.13
X-75.172 Y-43.246
X-73.918 Y-43.612
X-73.375 Y-43.765
X-72.792 Y-43.908
G3 X-72.074 Y-43.392 I0.122 J0.587
G1 X-70.488 Y-30.3
G3 X-71.162 Y-29.632 I-0.596 J0.072
G1 X-71.363 Y-29.666
X-72.57 Y-29.884
X-72.772 Y-29.925
X-73.375 Y-30.067
X-73.778 Y-30.168
X-74.085 Y-30.262
X-74.342 Y-30.364
X-74.597 Y-30.489
X-74.887 Y-30.662
X-75.195 Y-30.881
X-75.513 Y-31.148
X-75.859 Y-31.489
X-76.209 Y-31.894
X-76.571 Y-32.389
X-76.948 Y-33.002
X-77.322 Y-33.738
X-77.66 Y-34.557
X-77.935 Y-35.399
X-78.156 Y-36.258
X-78.327 Y-37.127
X-78.453 Y-38.004
X-78.534 Y-38.887
X-78.57 Y-39.772
X-78.551 Y-40.597
X-78.493 Y-41.162
X-78.444 Y-41.424
X-78.36 Y-41.707
X-78.219 Y-41.965
X-78.027 Y-42.189
X-77.792 Y-42.367
X-77.526 Y-42.492
X-76.796 Y-42.745
X-76.192 Y-42.948
X-75.172 Y-43.246
G3 X-74.428 Y-42.734 I0.148 J0.582
G1 X-73.056 Y-30.823
G3 X-73.778 Y-30.168 I-0.596 J0.069
G1 X-74.583 Y-30.371
X-74.784 Y-30.424
X-75.387 Y-30.626
X-75.991 Y-30.829
X-76.192 Y-30.898
X-76.595 Y-31.041
X-76.896 Y-31.165
X-77.154 Y-31.297
X-77.42 Y-31.461
X-77.704 Y-31.669
X-78.018 Y-31.941
X-78.327 Y-32.254
X-78.666 Y-32.659
X-79.003 Y-33.134
X-79.346 Y-33.712
X-79.693 Y-34.419
X-80.018 Y-35.243
X-80.278 Y-36.09
X-80.481 Y-36.953
X-80.631 Y-37.826
X-80.728 Y-38.707
X-80.764 Y-39.526
X-80.742 Y-40.148
X-80.701 Y-40.498
X-80.635 Y-40.788
X-80.51 Y-41.058
X-80.33 Y-41.295
X-80.104 Y-41.489
X-79.843 Y-41.631
X-79.412 Y-41.807
X-78.808 Y-42.047
X-77.526 Y-42.492
G3 X-76.752 Y-41.973 I0.177 J0.573
G1 X-75.816 Y-31.667
G3 X-76.595 Y-31.041 I-0.598 J0.054
G1 X-76.796 Y-31.112
X-78.003 Y-31.624
X-78.406 Y-31.794
X-78.607 Y-31.887
X-78.808 Y-31.985
X-79.157 Y-32.163
X-79.55 Y-32.363
X-79.885 Y-32.556
X-80.144 Y-32.735
X-80.405 Y-32.947
X-80.684 Y-33.215
X-80.979 Y-33.546
X-81.28 Y-33.945
X-81.586 Y-34.427
X-81.901 Y-35.023
X-82.194 Y-35.706
X-82.459 Y-36.491
X-82.671 Y-37.343
X-82.807 Y-38.162
X-82.863 Y-38.823
X-82.865 Y-39.33
X-82.851 Y-39.506
X-82.799 Y-39.792
X-82.69 Y-40.06
X-82.527 Y-40.3
X-82.319 Y-40.501
X-82.073 Y-40.655
X-81.625 Y-40.876
X-81.424 Y-40.969
X-80.821 Y-41.229
X-79.843 Y-41.631
G3 X-79.035 Y-41.093 I0.209 J0.563
G1 X-78.696 Y-32.932
G3 X-79.55 Y-32.363 I-0.599 J0.025
G1 X-80.217 Y-32.704
X-80.821 Y-33.04
X-81.039 Y-33.167
X-82.229 Y-33.88
X-82.367 Y-33.97
X-82.755 Y-34.258
X-82.984 Y-34.458
X-83.242 Y-34.723
X-83.491 Y-35.024
X-83.754 Y-35.398
X-84.001 Y-35.819
X-84.24 Y-36.313
X-84.445 Y-36.842
X-84.595 Y-37.344
X-84.697 Y-37.822
X-84.749 Y-38.225
X-84.754 Y-38.33
X-84.737 Y-38.63
X-84.655 Y-38.92
X-84.514 Y-39.185
X-84.319 Y-39.415
X-84.08 Y-39.597
G3 X-83.226 Y-39.284 I0.292 J0.524
G1 X-81.496 Y-34.696
G3 X-82.367 Y-33.97 I-0.561 J0.212
G1 X-82.969 Y-34.372
X-84.118 Y-35.176
X-84.241 Y-35.266
X-84.378 Y-35.376
X-85.046 Y-35.936
X-85.303 Y-36.174
X-85.472 Y-36.357
X-85.62 Y-36.547
X-85.765 Y-36.766
X-85.881 Y-36.977
X-85.903 Y-37.028
X-86 Y-37.33
X-86.026 Y-37.646
X-85.98 Y-37.961
X-85.864 Y-38.256
X-85.685 Y-38.518
X-85.451 Y-38.733
G3 X-84.531 Y-38.376 I0.336 J0.497
G1 X-84.094 Y-36.549
G3 X-85.046 Y-35.936 I-0.584 J0.14
G1 X-85.65 Y-36.441
X-85.798 Y-36.582
X-86.052 Y-36.836
X-86.199 Y-36.983
X-86.371 Y-37.184
X-86.419 Y-37.247
X-86.455 Y-37.309
X-86.487 Y-37.385
X-86.511 Y-37.486
X-86.519 Y-37.586
X-86.509 Y-37.687
X-86.481 Y-37.787
X-86.455 Y-37.848
X-86.413 Y-37.918
X-86.358 Y-37.988
X-86.254 Y-38.091
X-86.138 Y-38.189
X-85.646 Y-38.59
X-85.247 Y-38.88
X-85.046 Y-39.009
X-84.845 Y-39.135
X-83.638 Y-39.864
X-83.436 Y-39.973
X-83 Y-40.197
X-82.833 Y-40.282
X-82.073 Y-40.655
G3 X-81.362 Y-40.487 I0.246 J0.547
G1 X-81.303 Y-40.415 Z-6.993
X-81.245 Y-40.344 Z-6.971
X-81.19 Y-40.276 Z-6.935
X-81.139 Y-40.214 Z-6.885
X-81.094 Y-40.159 Z-6.824
X-81.056 Y-40.111 Z-6.753
X-81.024 Y-40.073 Z-6.672
X-81.002 Y-40.045 Z-6.585
X-80.988 Y-40.028 Z-6.494
X-80.983 Y-40.022 Z-6.4
Z5
X-16.656 Y36.415
Z3
Z2.55
Z-7 F333.3
Y36.377 F1000
X-16.62 Y36.384
X-16.602 Y36.417
X-16.611 Y36.453
X-16.641 Y36.476
X-16.678 Y36.477
X-16.712 Y36.461
X-16.738 Y36.434
X-16.752 Y36.399
X-16.753 Y36.362
X-16.739 Y36.327
X-16.716 Y36.297
X-16.685 Y36.276
X-16.614 Y36.252
X-16.54 Y36.263
X-16.478 Y36.305
X-16.435 Y36.367
X-16.417 Y36.439
X-16.423 Y36.514
X-16.451 Y36.583
X-16.546 Y36.7
X-16.686 Y36.754
X-16.835 Y36.743
X-16.968 Y36.674
X-17.067 Y36.56
X-17.121 Y36.421
X-17.127 Y36.271
X-17.09 Y36.125
X-17.013 Y35.997
X-16.905 Y35.893
X-16.773 Y35.821
X-16.628 Y35.783
X-16.478 Y35.781
X-16.332 Y35.813
X-16.196 Y35.878
X-16.077 Y35.969
X-15.98 Y36.084
X-15.909 Y36.215
X-15.862 Y36.358
X-15.842 Y36.507
X-15.85 Y36.656
X-15.884 Y36.803
X-15.942 Y36.941
X-16.023 Y37.067
X-16.123 Y37.179
X-16.239 Y37.273
X-16.369 Y37.348
X-16.509 Y37.403
X-16.655 Y37.435
X-16.805 Y37.447
X-16.955 Y37.436
X-17.101 Y37.405
X-17.242 Y37.354
X-17.375 Y37.284
X-17.497 Y37.197
X-17.607 Y37.095
X-17.703 Y36.98
X-17.784 Y36.854
X-17.849 Y36.718
X-17.897 Y36.576
X-17.927 Y36.429
X-17.94 Y36.28
X-17.936 Y36.13
X-17.914 Y35.981
X-17.876 Y35.836
X-17.822 Y35.696
X-17.754 Y35.563
X-17.671 Y35.438
X-17.575 Y35.322
X-17.468 Y35.217
X-17.35 Y35.124
X-17.224 Y35.043
X-17.09 Y34.976
X-16.95 Y34.922
X-16.805 Y34.883
X-16.657 Y34.858
X-16.508 Y34.847
X-16.358 Y34.851
X-16.209 Y34.869
X-16.062 Y34.901
X-15.919 Y34.946
X-15.781 Y35.005
X-15.649 Y35.075
X-15.523 Y35.157
X-15.405 Y35.25
X-15.296 Y35.353
X-15.196 Y35.465
X-15.106 Y35.585
X-15.027 Y35.712
X-14.959 Y35.846
X-14.902 Y35.985
X-14.857 Y36.128
X-14.823 Y36.274
X-14.802 Y36.426
X-14.793 Y36.575
X-14.796 Y36.73
X-14.811 Y36.88
X-14.84 Y37.034
X-14.879 Y37.182
X-14.933 Y37.333
X-14.996 Y37.474
X-15.075 Y37.616
X-15.161 Y37.747
X-15.264 Y37.878
X-15.372 Y37.996
X-15.495 Y38.11
X-15.624 Y38.211
X-15.765 Y38.304
X-15.913 Y38.386
X-16.067 Y38.456
X-16.23 Y38.514
X-16.394 Y38.559
X-16.568 Y38.591
X-16.741 Y38.609
X-16.919 Y38.613
X-17.099 Y38.603
X-17.274 Y38.579
X-17.454 Y38.539
X-17.628 Y38.485
X-17.798 Y38.418
X-17.967 Y38.334
X-18.126 Y38.239
X-18.28 Y38.129
X-18.428 Y38.005
X-18.563 Y37.871
X-18.689 Y37.725
X-18.805 Y37.565
X-18.907 Y37.399
X-18.996 Y37.223
X-19.072 Y37.037
X-19.133 Y36.845
X-19.179 Y36.65
X-19.209 Y36.447
X-19.223 Y36.24
X-19.22 Y36.034
X-19.201 Y35.828
X-19.164 Y35.619
X-19.111 Y35.413
X-19.041 Y35.212
X-18.955 Y35.017
X-18.852 Y34.825
X-18.733 Y34.642
X-18.599 Y34.468
X-18.452 Y34.305
X-18.29 Y34.154
X-18.114 Y34.013
X-17.926 Y33.886
X-17.729 Y33.774
X-17.522 Y33.679
X-17.307 Y33.6
X-17.084 Y33.537
X-16.854 Y33.493
X-16.619 Y33.466
X-16.382 Y33.459
X-16.144 Y33.471
X-15.906 Y33.502
X-15.671 Y33.552
X-15.438 Y33.621
X-15.21 Y33.709
X-14.989 Y33.817
X-14.774 Y33.943
X-14.57 Y34.086
X-14.376 Y34.247
X-14.194 Y34.424
X-14.026 Y34.616
X-13.873 Y34.822
X-13.736 Y35.041
X-13.616 Y35.273
X-13.515 Y35.514
X-13.433 Y35.764
X-13.371 Y36.022
X-13.33 Y36.285
X-13.309 Y36.553
X-13.311 Y36.823
X-13.334 Y37.094
X-13.379 Y37.363
X-13.446 Y37.63
X-13.534 Y37.892
X-13.644 Y38.148
X-13.775 Y38.396
X-13.927 Y38.633
X-14.098 Y38.859
X-14.287 Y39.072
X-14.495 Y39.27
X-14.719 Y39.452
X-14.958 Y39.617
X-15.211 Y39.762
X-15.477 Y39.888
X-15.754 Y39.992
X-16.039 Y40.075
X-16.333 Y40.134
X-16.632 Y40.17
X-16.934 Y40.182
X-17.238 Y40.17
X-17.543 Y40.133
X-17.845 Y40.071
X-18.142 Y39.985
X-18.434 Y39.875
X-18.717 Y39.74
X-18.99 Y39.583
X-19.251 Y39.403
X-19.499 Y39.202
X-19.73 Y38.98
X-19.944 Y38.739
X-20.139 Y38.481
X-20.314 Y38.205
X-20.467 Y37.916
X-20.597 Y37.613
X-20.703 Y37.299
X-20.783 Y36.976
X-20.838 Y36.645
X-20.866 Y36.31
X-20.867 Y35.971
X-20.841 Y35.632
X-20.788 Y35.294
X-20.707 Y34.96
X-20.599 Y34.631
X-20.464 Y34.311
X-20.303 Y34
X-20.117 Y33.702
X-19.906 Y33.419
X-19.672 Y33.152
X-19.416 Y32.903
X-19.14 Y32.675
X-18.844 Y32.468
X-18.531 Y32.285
X-18.203 Y32.126
X-17.861 Y31.994
X-17.508 Y31.889
X-17.146 Y31.813
X-16.777 Y31.765
X-16.404 Y31.747
X-16.029 Y31.759
X-15.654 Y31.802
X-15.281 Y31.875
X-14.914 Y31.978
X-14.555 Y32.111
X-14.205 Y32.273
X-13.868 Y32.463
X-13.546 Y32.681
X-13.241 Y32.925
X-12.955 Y33.195
X-12.691 Y33.487
X-12.45 Y33.802
X-12.233 Y34.136
X-12.043 Y34.489
X-11.882 Y34.857
X-11.75 Y35.239
X-11.648 Y35.632
X-11.578 Y36.033
X-11.541 Y36.441
X-11.536 Y36.853
X-11.564 Y37.265
X-11.626 Y37.676
X-11.72 Y38.082
X-11.848 Y38.481
X-12.008 Y38.871
X-12.2 Y39.248
X-12.422 Y39.61
X-12.674 Y39.955
X-12.954 Y40.28
X-13.261 Y40.583
X-13.593 Y40.862
X-13.947 Y41.114
X-14.322 Y41.338
X-14.716 Y41.532
X-15.126 Y41.694
X-15.549 Y41.824
X-15.984 Y41.92
X-16.426 Y41.98
X-16.874 Y42.005
X-17.325 Y41.994
X-17.775 Y41.947
X-18.222 Y41.864
X-18.663 Y41.744
X-19.095 Y41.588
X-19.514 Y41.398
X-19.919 Y41.174
X-20.306 Y40.916
X-20.672 Y40.628
X-21.016 Y40.309
X-21.334 Y39.963
X-21.625 Y39.59
X-21.886 Y39.194
X-22.115 Y38.776
X-22.311 Y38.34
X-22.472 Y37.887
X-22.597 Y37.421
X-22.684 Y36.945
X-22.732 Y36.461
X-22.742 Y35.973
X-22.713 Y35.484
X-22.644 Y34.996
X-22.535 Y34.514
X-22.388 Y34.04
X-22.202 Y33.578
X-21.979 Y33.13
X-21.72 Y32.7
X-21.426 Y32.29
X-21.098 Y31.904
X-20.74 Y31.543
X-20.352 Y31.212
X-19.936 Y30.911
X-19.497 Y30.644
X-19.036 Y30.412
X-18.555 Y30.217
X-18.059 Y30.06
X-17.549 Y29.944
X-17.03 Y29.868
X-16.504 Y29.834
X-15.975 Y29.843
X-15.447 Y29.894
X-14.922 Y29.988
X-14.405 Y30.124
X-13.898 Y30.301
X-13.405 Y30.52
X-12.929 Y30.779
X-12.474 Y31.076
X-12.043 Y31.41
X-11.639 Y31.778
X-11.264 Y32.18
X-10.921 Y32.612
X-10.613 Y33.072
X-10.341 Y33.556
X-10.109 Y34.063
X-9.917 Y34.589
X-9.768 Y35.13
X-9.662 Y35.684
X-9.601 Y36.246
X-9.585 Y36.814
X-9.614 Y37.383
X-9.69 Y37.949
X-9.811 Y38.51
X-9.977 Y39.062
X-10.188 Y39.6
X-10.443 Y40.121
X-10.739 Y40.623
X-11.076 Y41.1
X-11.452 Y41.551
X-11.864 Y41.971
X-12.31 Y42.359
X-12.787 Y42.71
X-13.293 Y43.024
X-13.824 Y43.296
X-14.377 Y43.526
X-14.949 Y43.712
X-15.536 Y43.851
X-16.135 Y43.943
X-16.741 Y43.987
X-17.351 Y43.983
X-17.961 Y43.929
X-18.566 Y43.826
X-19.163 Y43.674
X-19.748 Y43.474
X-20.317 Y43.227
X-20.866 Y42.934
X-21.392 Y42.597
X-21.89 Y42.218
X-22.358 Y41.798
X-22.793 Y41.341
X-23.19 Y40.848
X-23.548 Y40.324
X-23.864 Y39.771
X-24.135 Y39.192
X-24.36 Y38.591
X-24.536 Y37.973
X-24.662 Y37.34
X-24.738 Y36.697
X-24.761 Y36.048
X-24.733 Y35.397
X-24.652 Y34.748
X-24.518 Y34.106
X-24.333 Y33.474
X-24.098 Y32.858
X-23.812 Y32.26
X-23.479 Y31.685
X-23.099 Y31.138
X-22.675 Y30.621
X-22.209 Y30.137
X-21.705 Y29.692
X-21.165 Y29.287
X-20.592 Y28.926
X-19.99 Y28.61
X-19.363 Y28.344
X-18.714 Y28.127
X-18.048 Y27.963
X-17.369 Y27.853
X-16.681 Y27.797
X-15.988
X-15.296 Y27.852
X-14.608 Y27.964
X-13.929 Y28.13
X-13.263 Y28.351
X-12.616 Y28.626
X-11.991 Y28.953
X-11.392 Y29.33
X-10.824 Y29.755
X-10.29 Y30.226
X-9.794 Y30.74
X-9.34 Y31.293
X-8.93 Y31.883
X-8.568 Y32.506
X-8.256 Y33.157
X-7.997 Y33.834
X-7.792 Y34.531
X-7.643 Y35.245
X-7.552 Y35.97
X-7.519 Y36.702
X-7.546 Y37.437
X-7.631 Y38.169
X-7.775 Y38.895
X-7.978 Y39.608
X-8.238 Y40.305
X-8.554 Y40.981
X-8.924 Y41.632
X-9.347 Y42.252
X-9.819 Y42.838
X-10.339 Y43.386
X-10.902 Y43.892
X-11.506 Y44.352
X-12.147 Y44.764
X-12.82 Y45.124
X-13.523 Y45.429
X-14.25 Y45.678
X-14.996 Y45.869
X-15.758 Y45.999
X-16.53 Y46.068
X-17.307 Y46.074
X-18.084 Y46.018
X-18.856 Y45.9
X-19.619 Y45.72
X-20.366 Y45.478
X-21.094 Y45.176
X-21.798 Y44.816
X-22.472 Y44.399
X-23.112 Y43.928
X-23.714 Y43.406
X-24.273 Y42.836
X-24.787 Y42.221
X-25.25 Y41.565
X-25.661 Y40.872
X-26.016 Y40.147
X-26.312 Y39.393
X-26.547 Y38.616
X-26.72 Y37.82
X-26.828 Y37.011
X-26.871 Y36.193
X-26.849 Y35.373
X-26.76 Y34.554
X-26.606 Y33.744
X-26.386 Y32.946
X-26.103 Y32.166
X-25.757 Y31.41
X-25.35 Y30.682
X-24.885 Y29.987
X-24.364 Y29.33
X-23.791 Y28.715
X-23.168 Y28.146
X-22.5 Y27.628
X-21.791 Y27.165
X-21.045 Y26.758
X-20.267 Y26.412
X-19.461 Y26.128
X-18.633 Y25.91
X-18.525 Y25.891
X-18.457 Y25.88
X-18.389 Y25.873
X-18.321 Y25.869
X-17.636 Y25.849
X-16.227 Y25.813
X-15.341 Y25.836
X-14.611 Y25.899
X-13.853 Y26.026
X-13.081 Y26.22
X-12.308 Y26.482
X-11.543 Y26.812
X-10.797 Y27.208
X-10.076 Y27.668
X-9.387 Y28.189
X-8.738 Y28.769
X-8.133 Y29.402
X-7.579 Y30.086
X-7.078 Y30.815
X-6.638 Y31.584
X-6.26 Y32.386
X-5.947 Y33.215
X-5.7 Y34.066
X-5.522 Y34.934
X-5.413 Y35.813
X-5.374 Y36.698
X-5.404 Y37.584
X-5.503 Y38.465
X-5.671 Y39.335
X-5.906 Y40.189
X-6.207 Y41.022
X-6.573 Y41.83
X-6.999 Y42.606
X-7.485 Y43.347
X-8.026 Y44.049
X-8.62 Y44.707
X-9.262 Y45.317
X-9.949 Y45.877
X-10.677 Y46.383
X-11.14 Y46.655
X-11.349 Y46.756
X-11.572 Y46.82
X-11.803 Y46.847
X-16.227 Y46.995
X-16.428 Y47
X-19.849 Y47.067
X-20.466 Y47.048
X-20.926 Y46.996
X-21.429 Y46.899
X-21.993 Y46.742
X-22.556 Y46.536
X-23.17 Y46.252
X-23.816 Y45.889
X-24.462 Y45.453
X-25.086 Y44.955
X-25.704 Y44.376
X-26.297 Y43.722
X-26.838 Y43.02
X-27.323 Y42.278
X-27.75 Y41.501
X-28.118 Y40.695
X-28.426 Y39.864
X-28.673 Y39.013
X-28.857 Y38.147
X-28.977 Y37.269
X-29.032 Y36.384
X-29.023 Y35.498
X-28.95 Y34.615
X-28.815 Y33.739
X-28.619 Y32.875
X-28.363 Y32.027
X-28.048 Y31.199
X-27.674 Y30.395
X-27.243 Y29.621
X-26.758 Y28.879
X-26.222 Y28.173
X-25.639 Y27.507
X-25.01 Y26.882
X-24.444 Y26.392
X-24.185 Y26.215
X-23.894 Y26.099
X-23.584 Y26.052
X-21.66 Y25.974
X-21.057 Y25.953
X-18.321 Y25.869
G3 X-18.066 Y25.918 I0.018 J0.6
G1 X-17.997 Y25.942
X-17.926 Y25.958
X-17.553 Y26.02
X-17.205 Y26.077
G2 X-16.788 Y25.993 I0.097 J-0.592
G3 X-16.227 Y25.813 I0.632 J1.005
G1 X-14.014 Y25.759
X-13.611 Y25.75
X-11.398 Y25.708
X-11.022 Y25.72
X-10.663 Y25.76
X-10.274 Y25.836
X-9.844 Y25.955
X-9.374 Y26.129
X-8.862 Y26.365
X-8.336 Y26.661
X-7.756 Y27.052
X-7.177 Y27.515
X-6.605 Y28.053
X-6.028 Y28.689
X-5.488 Y29.391
X-5.003 Y30.133
X-4.574 Y30.909
X-4.201 Y31.713
X-3.888 Y32.541
X-3.633 Y33.39
X-3.437 Y34.254
X-3.298 Y35.129
X-3.217 Y36.012
X-3.194 Y36.898
X-3.231 Y37.783
X-3.327 Y38.664
X-3.482 Y39.536
X-3.693 Y40.397
X-3.959 Y41.242
X-4.278 Y42.069
X-4.651 Y42.872
X-5.078 Y43.649
X-5.554 Y44.396
X-6.078 Y45.111
X-6.646 Y45.792
X-7.099 Y46.27
X-7.301 Y46.446
X-7.533 Y46.58
X-7.786 Y46.667
X-8.051 Y46.705
X-8.983 Y46.748
X-9.587 Y46.773
X-11.803 Y46.847
G3 X-12.058 Y46.799 I-0.02 J-0.6
G1 X-12.134 Y46.773
X-12.212 Y46.757
X-12.292 Y46.751
X-12.575
X-18.782 Y46.74
G2 X-19.1 Y46.831 I-0.001 J0.6
G3 X-19.849 Y47.067 I-0.835 J-1.344
G1 X-22.666 Y47.121
X-23.069 Y47.128
X-23.471 Y47.13
X-23.914 Y47.111
X-24.225 Y47.072
X-24.568 Y47.001
X-24.962 Y46.885
X-25.364 Y46.731
X-25.831 Y46.509
X-26.3 Y46.236
X-26.813 Y45.881
X-27.361 Y45.431
X-27.89 Y44.921
X-28.434 Y44.306
X-28.966 Y43.596
X-29.439 Y42.848
X-29.857 Y42.066
X-30.22 Y41.258
X-30.528 Y40.427
X-30.779 Y39.577
X-30.973 Y38.712
X-31.112 Y37.837
X-31.197 Y36.955
X-31.227 Y36.07
X-31.204 Y35.184
X-31.126 Y34.301
X-30.993 Y33.425
X-30.807 Y32.558
X-30.569 Y31.705
X-30.281 Y30.867
X-29.944 Y30.048
X-29.558 Y29.25
X-29.123 Y28.478
X-28.642 Y27.734
X-28.116 Y27.02
X-27.839 Y26.686
X-27.629 Y26.482
X-27.382 Y26.326
X-27.108 Y26.224
X-26.819 Y26.182
X-23.584 Y26.052
G3 X-23.07 Y26.337 I0.003 J0.6
G1 X-23.04 Y26.505
X-22.528 Y29.35
G2 X-19.246 Y31.359 I2.474 J-0.357
G1 X-18.441 Y30.907
X-14.339 Y27.743
X-12.404 Y26.142
G3 X-11.398 Y25.708 I1.091 J1.146
G1 X-10.19 Y25.686
X-8.379 Y25.661
X-8.014 Y25.674
X-7.733 Y25.707
X-7.408 Y25.772
X-7.077 Y25.867
X-6.683 Y26.014
X-6.289 Y26.198
X-5.831 Y26.46
X-5.381 Y26.767
X-4.877 Y27.174
X-4.359 Y27.667
X-3.848 Y28.237
X-3.329 Y28.918
X-2.851 Y29.664
X-2.43 Y30.444
X-2.066 Y31.252
X-1.755 Y32.081
X-1.497 Y32.929
X-1.293 Y33.792
X-1.142 Y34.665
X-1.043 Y35.545
X-0.995 Y36.43
X-0.999 Y37.316
X-1.052 Y38.201
X-1.155 Y39.081
X-1.31 Y39.953
X-1.514 Y40.816
X-1.766 Y41.665
X-2.066 Y42.499
X-2.412 Y43.315
X-2.803 Y44.11
X-3.237 Y44.883
X-3.715 Y45.629
X-3.974 Y45.988
X-4.186 Y46.221
X-4.443 Y46.4
X-4.735 Y46.517
X-5.045 Y46.567
X-8.051 Y46.705
X-8.379 Y46.612
X-8.654 Y46.263
X-9.954 Y44.617
G2 X-11.398 Y43.575 I-2.088 J1.374
G1 X-18.789 Y41.804
G2 X-21.789 Y44.014 I-0.512 J2.447
G1 X-21.955 Y45.621
G3 X-23.27 Y47.109 I-1.581 J-0.072
G1 X-23.471 Y47.13
X-26.49 Y47.149
X-26.68 Y47.14
X-26.957 Y47.106
X-27.249 Y47.045
X-27.574 Y46.95
X-27.939 Y46.81
X-28.314 Y46.631
X-28.744 Y46.382
X-29.174 Y46.084
X-29.644 Y45.698
X-30.143 Y45.217
X-30.63 Y44.665
X-31.131 Y43.997
X-31.604 Y43.247
X-32.018 Y42.464
X-32.376 Y41.653
X-32.68 Y40.821
X-32.933 Y39.972
X-33.133 Y39.109
X-33.283 Y38.235
X-33.383 Y37.355
X-33.434 Y36.47
X-33.437 Y35.584
X-33.392 Y34.699
X-33.301 Y33.818
X-33.163 Y32.942
X-32.978 Y32.076
X-32.747 Y31.22
X-32.471 Y30.378
X-32.151 Y29.552
X-31.789 Y28.743
X-31.385 Y27.954
X-30.94 Y27.188
X-30.762 Y26.921
X-30.597 Y26.718
X-30.397 Y26.55
X-30.17 Y26.422
X-29.923 Y26.338
X-29.665 Y26.301
X-29.106 Y26.275
X-26.819 Y26.182
X-26.413 Y26.337
X-26.185 Y26.604
X-24.477 Y28.601
G2 X-22.465 Y29.478 I1.904 J-1.62
G1 X-12.404 Y29.143
G2 X-10.288 Y27.743 I-0.131 J-2.497
G1 X-9.721 Y26.538
G3 X-8.379 Y25.661 I1.418 J0.704
G1 X-6.971 Y25.642
X-6.166 Y25.635
X-5.562 Y25.631
X-5.371 Y25.639
X-5.109 Y25.672
X-4.831 Y25.73
X-4.503 Y25.826
X-4.176 Y25.951
X-3.793 Y26.134
X-3.406 Y26.359
X-2.968 Y26.662
X-2.536 Y27.017
X-2.059 Y27.476
X-1.574 Y28.025
X-1.096 Y28.663
X-0.623 Y29.413
X-0.211 Y30.197
X0.145 Y31.009
X0.448 Y31.842
X0.699 Y32.691
X0.901 Y33.554
X1.055 Y34.427
X1.161 Y35.306
X1.22 Y36.191
X1.232 Y37.077
X1.199 Y37.962
X1.121 Y38.845
X0.999 Y39.723
X0.834 Y40.593
X0.626 Y41.455
X0.375 Y42.304
X0.081 Y43.14
X-0.253 Y43.961
X-0.628 Y44.764
X-1.042 Y45.548
X-1.187 Y45.781
X-1.35 Y45.995
X-1.552 Y46.174
X-1.783 Y46.311
X-2.037 Y46.401
X-2.303 Y46.441
X-5.045 Y46.567
G3 X-5.651 Y45.982 I-0.007 J-0.6
G1 X-6.137 Y26.245
G3 X-5.562 Y25.631 I0.6 J-0.015
G1 X-3.148 Y25.616
X-2.888 Y25.628
X-2.655 Y25.657
X-2.382 Y25.713
X-2.085 Y25.8
X-1.769 Y25.921
X-1.41 Y26.093
X-1.051 Y26.301
X-0.637 Y26.588
X-0.231 Y26.921
X0.212 Y27.348
X0.676 Y27.873
X1.128 Y28.477
X1.59 Y29.209
X2.001 Y29.994
X2.355 Y30.807
X2.655 Y31.64
X2.905 Y32.49
X3.108 Y33.353
X3.265 Y34.225
X3.377 Y35.104
X3.445 Y35.988
X3.47 Y36.873
X3.453 Y37.759
X3.396 Y38.644
X3.299 Y39.525
X3.162 Y40.4
X2.987 Y41.269
X2.774 Y42.129
X2.522 Y42.978
X2.232 Y43.816
X1.906 Y44.639
X1.577 Y45.358
X1.454 Y45.577
X1.294 Y45.807
X1.09 Y46
X0.852 Y46.149
X0.59 Y46.247
X0.312 Y46.291
X-2.23 Y46.437
X-2.303 Y46.441
G3 X-2.913 Y45.865 I-0.01 J-0.6
G1 X-3.722 Y26.241
G3 X-3.148 Y25.616 I0.599 J-0.025
G1 X-0.733 Y25.602
X-0.515 Y25.611
X-0.286 Y25.64
X-0.014 Y25.696
X0.261 Y25.777
X0.577 Y25.898
X0.908 Y26.056
X1.268 Y26.265
X1.654 Y26.532
X2.057 Y26.863
X2.477 Y27.267
X2.927 Y27.777
X3.369 Y28.367
X3.817 Y29.077
X4.228 Y29.862
X4.58 Y30.675
X4.879 Y31.51
X5.128 Y32.36
X5.331 Y33.223
X5.489 Y34.095
X5.605 Y34.973
X5.68 Y35.856
X5.714 Y36.742
X5.71 Y37.628
X5.667 Y38.513
X5.588 Y39.395
X5.473 Y40.274
X5.322 Y41.147
X5.136 Y42.014
X4.916 Y42.872
X4.661 Y43.721
X4.37 Y44.558
X4.104 Y45.183
X3.991 Y45.399
X3.832 Y45.639
X3.627 Y45.841
X3.385 Y45.998
X3.116 Y46.101
X2.831 Y46.147
X0.312 Y46.291
G3 X-0.3 Y45.722 I-0.013 J-0.6
G1 X-1.307 Y26.232
G3 X-0.733 Y25.602 I0.599 J-0.031
G1 X-0.129 Y25.598
X0.475 Y25.597
X1.682 Y25.599
X1.838 Y25.608
X1.988 Y25.617
X2.137 Y25.634
X2.285 Y25.659
X2.432 Y25.69
X2.577 Y25.729
X2.72 Y25.773
X2.861 Y25.824
X3.001 Y25.879
X3.138 Y25.939
X3.273 Y26.005
X3.406 Y26.075
X3.536 Y26.148
X3.665 Y26.226
X3.791 Y26.307
X3.915 Y26.392
X4.036 Y26.48
X4.155 Y26.571
X4.272 Y26.665
X4.387 Y26.762
X4.499 Y26.861
X4.609 Y26.963
X4.717 Y27.067
X4.823 Y27.174
X4.926 Y27.282
X5.028 Y27.393
X5.127 Y27.505
X5.224 Y27.619
X5.319 Y27.735
X5.412 Y27.853
X5.503 Y27.972
X5.592 Y28.093
X5.679 Y28.215
X5.764 Y28.339
X5.848 Y28.464
X5.929 Y28.59
X6.008 Y28.717
X6.086 Y28.845
X6.162 Y28.975
X6.236 Y29.105
X6.308 Y29.237
X6.379 Y29.369
X6.448 Y29.502
X6.515 Y29.636
X6.58 Y29.771
X6.644 Y29.907
X6.707 Y30.043
X6.768 Y30.18
X6.827 Y30.318
X6.885 Y30.457
X6.941 Y30.596
X6.995 Y30.735
X7.048 Y30.876
X7.1 Y31.016
X7.151 Y31.158
X7.199 Y31.3
X7.247 Y31.442
X7.293 Y31.585
X7.337 Y31.728
X7.381 Y31.872
X7.423 Y32.015
X7.463 Y32.16
X7.503 Y32.305
X7.54 Y32.45
X7.577 Y32.595
X7.612 Y32.741
X7.647 Y32.887
X7.68 Y33.033
X7.711 Y33.18
X7.742 Y33.327
X7.771 Y33.474
X7.799 Y33.621
X7.826 Y33.771
X7.851 Y33.919
X7.876 Y34.067
X7.899 Y34.215
X7.921 Y34.363
X7.941 Y34.512
X7.962 Y34.667
X7.981 Y34.821
X7.998 Y34.97
X8.015 Y35.119
X8.03 Y35.269
X8.044 Y35.42
X8.057 Y35.58
X8.07 Y35.748
X8.081 Y35.898
X8.09 Y36.048
X8.098 Y36.198
X8.106 Y36.353
X8.112 Y36.518
X8.118 Y36.694
X8.122 Y36.848
X8.125 Y36.998
X8.126 Y37.149
X8.127 Y37.309
X8.126 Y37.479
X8.124 Y37.66
X8.12 Y37.822
X8.116 Y37.972
X8.111 Y38.128
X8.104 Y38.292
X8.096 Y38.467
X8.085 Y38.653
X8.075 Y38.816
X8.064 Y38.968
X8.052 Y39.127
X8.037 Y39.297
X8.021 Y39.476
X8.001 Y39.667
X7.984 Y39.825
X7.967 Y39.98
X7.946 Y40.144
X7.924 Y40.318
X7.898 Y40.503
X7.871 Y40.692
X7.848 Y40.845
X7.822 Y41.004
X7.794 Y41.172
X7.763 Y41.351
X7.728 Y41.542
X7.694 Y41.717
X7.665 Y41.868
X7.632 Y42.026
X7.596 Y42.194
X7.557 Y42.373
X7.513 Y42.563
X7.476 Y42.721
X7.44 Y42.867
X7.404 Y43.012
X7.366 Y43.157
X7.326 Y43.306
X7.284 Y43.456
X7.243 Y43.6
X7.2 Y43.744
X7.156 Y43.887
X7.111 Y44.03
X7.064 Y44.173
X7.015 Y44.315
X6.964 Y44.456
X6.911 Y44.596
X6.856 Y44.736
X6.799 Y44.874
X6.739 Y45.012
X6.676 Y45.148
X6.649 Y45.205
X6.493 Y45.454
X6.289 Y45.665
X6.046 Y45.829
X5.774 Y45.938
X5.484 Y45.989
X5.103 Y46.014
X4.298 Y46.063
X2.831 Y46.147
G3 X2.219 Y45.582 I-0.013 J-0.6
G1 X1.103 Y26.234
G3 X1.682 Y25.599 I0.599 J-0.035
G1 X4.097 Y25.605
X4.284 Y25.614
X4.513 Y25.645
X4.764 Y25.699
X5.039 Y25.782
X5.338 Y25.9
X5.736 Y26.094
X6.164 Y26.21
X7.05 Y26.245
X7.913 Y26.044
X8.744 Y25.738
X8.765 Y25.73
X8.937 Y25.674
X9.114 Y25.641
X9.295 Y25.63
G3 X9.266 Y26.83 I-0.026 J0.599
G1 X4.113 Y26.804
G3 X4.097 Y25.605 I0.003 J-0.6
G1 X6.511 Y25.61
X7.316 Y25.615
X13.353 Y25.663
X13.755 Y25.666
X13.905 Y25.675
X14.109 Y25.705
X14.352 Y25.761
X14.554 Y25.825
X14.736 Y25.899
X14.948 Y26.006
X15.193 Y26.155
X15.346 Y26.266
X15.517 Y26.413
X15.71 Y26.607
X15.877 Y26.805
X16.003 Y26.979
X16.137 Y27.202
X16.277 Y27.484
X16.353 Y27.674
X16.426 Y27.911
X16.492 Y28.203
X16.528 Y28.46
X16.542 Y28.695
X16.536 Y28.98
X16.505 Y29.283
X16.464 Y29.504
X16.394 Y29.766
X16.284 Y30.076
X16.19 Y30.283
X16.066 Y30.51
X15.894 Y30.771
X15.728 Y30.983
X15.561 Y31.164
X15.342 Y31.366
X15.103 Y31.555
X14.907 Y31.684
X14.66 Y31.821
X14.353 Y31.96
X14.143 Y32.036
X13.882 Y32.106
X13.447 Y32.187
X13.027 Y32.329
X12.302 Y32.838
X11.782 Y33.556
X11.416 Y34.363
X11.156 Y35.21
X10.965 Y36.075
X10.817 Y36.949
X10.69 Y37.826
X10.569 Y38.703
X10.444 Y39.581
X10.306 Y40.456
X10.152 Y41.329
X9.975 Y42.197
X9.772 Y43.06
X9.533 Y43.913
X9.296 Y44.596
X9.123 Y44.99
X8.97 Y45.253
X8.765 Y45.478
X8.516 Y45.652
X8.235 Y45.769
X7.936 Y45.823
X5.484 Y45.989
G3 X4.889 Y45.219 I-0.02 J-0.6
G1 X8.507 Y32.765
X12.95 Y26.01
X13.039 Y25.962
X13.554 Y25.689
X13.755 Y25.666
X15.476 Y25.685
X15.627 Y25.694
X15.776 Y25.715
X15.929 Y25.75
X16.1 Y25.803
X16.273 Y25.872
X16.446 Y25.959
X16.625 Y26.067
X16.809 Y26.199
X16.987 Y26.35
X17.163 Y26.525
X17.332 Y26.723
X17.492 Y26.944
X17.638 Y27.185
X17.772 Y27.451
X17.887 Y27.734
X17.982 Y28.037
X18.056 Y28.36
X18.105 Y28.695
X18.126 Y29.036
X18.121 Y29.385
X18.086 Y29.746
X18.021 Y30.109
X17.926 Y30.469
X17.8 Y30.828
X17.641 Y31.185
X17.455 Y31.526
X17.24 Y31.855
X16.993 Y32.174
X16.722 Y32.472
X16.428 Y32.746
X15.734 Y33.296
X15.114 Y33.93
X14.603 Y34.653
X14.19 Y35.437
X13.856 Y36.258
X13.584 Y37.101
X13.354 Y37.957
X13.151 Y38.819
X12.962 Y39.685
X12.778 Y40.552
X12.589 Y41.418
X12.388 Y42.281
X12.167 Y43.139
X11.913 Y43.988
X11.692 Y44.578
X11.563 Y44.854
X11.408 Y45.108
X11.204 Y45.324
X10.958 Y45.492
X10.683 Y45.605
X10.39 Y45.656
X7.936 Y45.823
G3 X7.359 Y45 I-0.02 J-0.6
G1 X14.901 Y26.141
X14.933 Y26.062
G3 X15.476 Y25.685 I0.557 J0.223
G1 X16.975 Y25.701
X17.149 Y25.711
X17.299 Y25.722
X17.447 Y25.744
X17.593 Y25.779
X17.736 Y25.824
X17.875 Y25.879
X18.011 Y25.943
X18.143 Y26.014
X18.271 Y26.093
X18.394 Y26.179
X18.513 Y26.271
X18.626 Y26.368
X18.736 Y26.471
X18.84 Y26.579
X18.94 Y26.691
X19.034 Y26.807
X19.124 Y26.927
X19.209 Y27.051
X19.289 Y27.178
X19.364 Y27.308
X19.435 Y27.44
X19.5 Y27.575
X19.561 Y27.712
X19.617 Y27.851
X19.669 Y27.992
X19.715 Y28.135
X19.757 Y28.279
X19.795 Y28.424
X19.828 Y28.57
X19.856 Y28.717
X19.88 Y28.866
X19.9 Y29.014
X19.915 Y29.163
X19.926 Y29.313
X19.933 Y29.463
X19.936 Y29.613
X19.934 Y29.763
X19.929 Y29.913
X19.919 Y30.062
X19.905 Y30.212
X19.888 Y30.361
X19.866 Y30.509
X19.841 Y30.657
X19.812 Y30.804
X19.779 Y30.951
X19.743 Y31.096
X19.703 Y31.241
X19.659 Y31.384
X19.612 Y31.527
X19.562 Y31.668
X19.508 Y31.808
X19.451 Y31.947
X19.39 Y32.084
X19.326 Y32.22
X19.259 Y32.354
X19.189 Y32.486
X19.116 Y32.617
X19.04 Y32.747
X18.961 Y32.874
X18.881 Y33.001
X18.799 Y33.126
X18.55 Y33.5
X18.053 Y34.233
X17.585 Y34.986
X17.165 Y35.766
X16.797 Y36.572
X16.476 Y37.398
X16.193 Y38.238
X15.939 Y39.087
X15.704 Y39.941
X15.479 Y40.798
X15.368 Y41.227
X15.199 Y41.867
X15.117 Y42.167
X15.05 Y42.408
X14.974 Y42.672
X14.917 Y42.865
X14.874 Y43.008
X14.828 Y43.157
X14.782 Y43.3
X14.735 Y43.442
X14.687 Y43.584
X14.637 Y43.726
X14.586 Y43.867
X14.533 Y44.007
X14.478 Y44.147
X14.421 Y44.285
X14.361 Y44.423
X14.299 Y44.559
X14.246 Y44.67
X14.093 Y44.919
X13.892 Y45.131
X13.65 Y45.296
X13.38 Y45.408
X13.092 Y45.461
X11.944 Y45.55
X11.743 Y45.564
X10.39 Y45.656
G3 X9.804 Y44.857 I-0.02 J-0.6
G1 X16.403 Y26.158
X16.424 Y26.101
G3 X16.975 Y25.701 I0.566 J0.2
G1 X18.695 Y25.719
X18.845 Y25.728
X18.995 Y25.741
X19.143 Y25.766
X19.288 Y25.802
X19.431 Y25.848
X19.57 Y25.903
X19.707 Y25.967
X19.839 Y26.037
X19.967 Y26.115
X20.091 Y26.199
X20.211 Y26.289
X20.327 Y26.385
X20.438 Y26.485
X20.545 Y26.591
X20.647 Y26.7
X20.746 Y26.814
X20.839 Y26.931
X21.397 Y27.619
X22.125 Y28.124
X22.933 Y28.489
X23.779 Y28.751
X24.646 Y28.937
X25.522 Y29.069
X26.403 Y29.162
X27.287 Y29.228
X28.172 Y29.274
X29.057 Y29.307
X29.943 Y29.33
X30.829 Y29.346
X31.715 Y29.357
X32.601 Y29.365
X33.487 Y29.371
X34.374 Y29.375
X36.146 Y29.379
X39.247 Y29.383
X39.535
X39.679 Y29.424
X39.812 Y29.493
X39.937 Y29.576
X40.054 Y29.67
X40.164 Y29.772
X40.268 Y29.88
X40.366 Y29.994
X40.458 Y30.112
X40.545 Y30.234
X40.628 Y30.359
X40.706 Y30.487
X40.779 Y30.618
X40.849 Y30.751
X40.915 Y30.886
X40.977 Y31.022
X41.036 Y31.16
X41.092 Y31.299
X41.145 Y31.44
X41.195 Y31.581
X41.242 Y31.723
X41.287 Y31.867
X41.33 Y32.01
X41.37 Y32.155
X41.408 Y32.3
X41.445 Y32.445
X41.479 Y32.591
X41.511 Y32.738
X41.542 Y32.885
X41.572 Y33.032
X41.599 Y33.179
X41.626 Y33.327
X41.651 Y33.475
X41.674 Y33.623
X41.697 Y33.771
X41.729 Y33.998
X41.739 Y34.072
X41.688 Y34.213
X41.615 Y34.344
X41.528 Y34.467
X41.433 Y34.582
X41.329 Y34.691
X41.219 Y34.793
X41.104 Y34.89
X40.985 Y34.981
X40.862 Y35.066
X40.736 Y35.148
X40.607 Y35.224
X40.476 Y35.297
X40.343 Y35.366
X40.207 Y35.431
X40.07 Y35.492
X39.932 Y35.55
X39.793 Y35.605
X39.652 Y35.657
X39.51 Y35.707
X39.368 Y35.754
X39.225 Y35.798
X39.081 Y35.84
X38.936 Y35.88
X38.791 Y35.918
X38.645 Y35.953
X38.499 Y35.987
X38.353 Y36.019
X38.206 Y36.05
X38.058 Y36.079
X37.911 Y36.106
X37.763 Y36.132
X37.615 Y36.157
X37.467 Y36.18
X37.319 Y36.202
X37.169 Y36.224
X37.01 Y36.245
X36.842 Y36.266
X36.663 Y36.288
X36.472 Y36.309
X36.266 Y36.33
X36.045 Y36.352
X35.805 Y36.373
X35.543 Y36.395
X35.255 Y36.417
X34.935 Y36.438
X34.575 Y36.46
X34.164 Y36.481
X33.686 Y36.503
X33.115 Y36.525
X32.407 Y36.547
X31.521 Y36.567
X30.635 Y36.582
X29.749 Y36.592
X28.863 Y36.599
X27.977 Y36.604
X27.091 Y36.608
X25.47 Y36.612
X25.325 Y36.571
X25.191 Y36.503
X25.066 Y36.42
X24.949 Y36.327
X24.839 Y36.225
X24.735 Y36.117
X24.637 Y36.004
X24.544 Y35.885
X24.457 Y35.763
X24.374 Y35.638
X24.296 Y35.51
X24.223 Y35.379
X24.153 Y35.247
X24.087 Y35.112
X24.025 Y34.975
X23.937 Y34.772
X23.819 Y34.584
X23.673 Y34.418
X23.502 Y34.277
X23.311 Y34.165
X23.105 Y34.084
X22.889 Y34.036
X22.667 Y34.024
X22.447 Y34.046
X22.233 Y34.103
X22.03 Y34.193
X21.288 Y34.676
X20.747 Y35.378
X20.26 Y36.118
X19.77 Y36.857
X19.343 Y37.633
X18.97 Y38.437
X18.638 Y39.258
X18.338 Y40.092
X18.058 Y40.933
X17.788 Y41.777
X17.515 Y42.62
X17.226 Y43.458
X16.938 Y44.183
X16.788 Y44.486
X16.634 Y44.731
X16.433 Y44.939
X16.193 Y45.101
X15.926 Y45.21
X15.642 Y45.262
X13.092 Y45.461
G3 X12.493 Y44.687 I-0.026 J-0.599
G1 X18.126 Y26.178
X18.136 Y26.144
G3 X18.695 Y25.719 I0.574 J0.175
G1 X20.396 Y25.737
X20.789 Y25.762
X21.667 Y25.886
X22.536 Y26.06
X23.405 Y26.23
X24.278 Y26.383
X25.155 Y26.512
X26.035 Y26.618
X26.917 Y26.703
X27.8 Y26.77
X28.685 Y26.823
X29.57 Y26.863
X30.456 Y26.893
X31.341 Y26.916
X32.227 Y26.934
X33.113 Y26.947
X33.999 Y26.957
X34.886 Y26.964
X35.772 Y26.969
X37.544 Y26.976
X38.176 Y27.012
X38.669 Y27.08
X39.098 Y27.174
X39.498 Y27.297
X39.876 Y27.447
X40.243 Y27.627
X40.6 Y27.841
X40.951 Y28.091
X41.299 Y28.383
X41.641 Y28.721
X41.981 Y29.116
X42.318 Y29.577
X42.652 Y30.121
X42.982 Y30.771
X43.272 Y31.477
X43.425 Y31.954
X43.512 Y32.327
X43.564 Y32.678
X43.586 Y33
X43.583 Y33.31
X43.554 Y33.614
X43.502 Y33.915
X43.424 Y34.217
X43.32 Y34.518
X43.186 Y34.823
X43.021 Y35.128
X42.821 Y35.437
X42.582 Y35.749
X42.299 Y36.062
X41.963 Y36.379
X41.566 Y36.697
X41.094 Y37.016
X40.53 Y37.334
X39.846 Y37.652
X39.014 Y37.959
X38.162 Y38.2
X37.296 Y38.389
X36.422 Y38.536
X35.543 Y38.65
X34.662 Y38.738
X33.778 Y38.806
X32.893 Y38.858
X32.008 Y38.898
X31.123 Y38.928
X30.237 Y38.951
X29.351 Y38.968
X28.465 Y38.98
X27.579 Y38.99
X26.919 Y38.967
X26.423 Y38.91
X25.987 Y38.824
X25.59 Y38.712
X25.175 Y38.558
X24.737 Y38.491
X23.854 Y38.566
X23.049 Y38.937
X22.355 Y39.488
X21.764 Y40.148
X21.258 Y40.875
X20.815 Y41.643
X20.415 Y42.434
X20.037 Y43.235
X19.649 Y44.032
X19.473 Y44.344
X19.316 Y44.567
X19.118 Y44.756
X18.887 Y44.903
X18.633 Y45.002
X18.364 Y45.05
X15.642 Y45.262
G3 X15.035 Y44.511 I-0.026 J-0.599
G1 X19.827 Y26.196
X19.83 Y26.185
G3 X20.396 Y25.737 I0.58 J0.152
G1 X27.841 Y25.82
X32.469 Y25.867
X35.89 Y25.9
X39.512 Y25.928
X39.844 Y25.948
X40.182 Y25.995
X40.541 Y26.074
X40.928 Y26.194
X41.317 Y26.349
X41.719 Y26.548
X42.144 Y26.802
X42.57 Y27.107
X42.991 Y27.462
X43.431 Y27.898
X43.87 Y28.41
X44.272 Y28.961
X44.615 Y29.523
X44.897 Y30.08
X45.121 Y30.63
X45.294 Y31.172
X45.416 Y31.701
X45.493 Y32.219
X45.527 Y32.73
X45.52 Y33.236
X45.473 Y33.738
X45.385 Y34.237
X45.256 Y34.733
X45.084 Y35.225
X44.87 Y35.71
X44.612 Y36.188
X44.302 Y36.665
X43.936 Y37.141
X43.504 Y37.617
X43.008 Y38.082
X42.457 Y38.521
X41.798 Y38.966
X41.036 Y39.395
X40.231 Y39.766
X39.402 Y40.078
X38.555 Y40.339
X37.696 Y40.554
X36.827 Y40.73
X35.953 Y40.873
X35.074 Y40.988
X34.193 Y41.081
X33.31 Y41.155
X32.426 Y41.213
X31.541 Y41.259
X30.655 Y41.295
X29.77 Y41.323
X28.883 Y41.336
X27.998 Y41.316
X27.115 Y41.242
X26.229 Y41.269
X25.388 Y41.549
X24.632 Y42.01
X23.963 Y42.592
X23.367 Y43.248
X22.819 Y43.944
X22.6 Y44.227
X22.402 Y44.434
X22.165 Y44.597
X21.9 Y44.708
X21.619 Y44.763
X18.987 Y44.997
X18.585 Y45.032
X18.364 Y45.05
G3 X17.95 Y43.992 I-0.026 J-0.599
G1 X38.851 Y26.316
X39.141 Y26.07
G3 X39.512 Y25.928 I0.387 J0.458
G1 X42.329 Y25.951
X42.556 Y25.964
X42.798 Y25.998
X43.071 Y26.058
X43.37 Y26.15
X43.685 Y26.276
X44.03 Y26.447
X44.387 Y26.661
X44.755 Y26.924
X45.142 Y27.25
X45.513 Y27.618
X45.874 Y28.039
X46.221 Y28.515
X46.54 Y29.037
X46.823 Y29.597
X47.064 Y30.186
X47.259 Y30.798
X47.405 Y31.429
X47.5 Y32.074
X47.544 Y32.728
X47.535 Y33.39
X47.472 Y34.054
X47.355 Y34.717
X47.183 Y35.378
X46.956 Y36.032
X46.67 Y36.681
X46.32 Y37.326
X45.905 Y37.966
X45.423 Y38.592
X44.862 Y39.21
X44.216 Y39.816
X43.523 Y40.369
X42.79 Y40.867
X42.022 Y41.309
X41.227 Y41.699
X40.409 Y42.04
X39.573 Y42.336
X38.724 Y42.59
X37.865 Y42.806
X36.998 Y42.989
X36.125 Y43.143
X35.249 Y43.271
X34.369 Y43.377
X33.487 Y43.464
X32.604 Y43.535
X31.72 Y43.593
X30.834 Y43.636
X29.949 Y43.66
X29.063 Y43.656
X28.183 Y43.763
X27.344 Y44.047
X27.193 Y44.129
X27.026 Y44.205
X26.851 Y44.259
X26.67 Y44.29
X25.225 Y44.438
X24.42 Y44.512
X21.619 Y44.763
G3 X21.198 Y43.706 I-0.032 J-0.599
G1 X41.668 Y26.338
X41.957 Y26.093
G3 X42.329 Y25.951 I0.388 J0.458
G1 X44.14 Y25.965
X44.744 Y25.968
X44.896 Y25.976
X45.123 Y26.008
X45.367 Y26.061
X45.632 Y26.142
X45.918 Y26.255
X46.22 Y26.404
X46.536 Y26.593
X46.873 Y26.832
X47.203 Y27.109
X47.552 Y27.453
X47.89 Y27.845
X48.214 Y28.287
X48.528 Y28.798
X48.819 Y29.371
X49.073 Y29.988
X49.282 Y30.64
X49.445 Y31.338
X49.556 Y32.076
X49.609 Y32.844
X49.6 Y33.634
X49.526 Y34.439
X49.385 Y35.252
X49.174 Y36.071
X48.891 Y36.891
X48.535 Y37.702
X48.116 Y38.483
X47.637 Y39.229
X47.102 Y39.935
X46.518 Y40.601
X45.887 Y41.224
X45.217 Y41.804
X45.191 Y41.824
X44.994 Y41.948
X44.779 Y42.038
X44.553 Y42.092
X42.732 Y42.364
X42.422 Y42.407
X37.299 Y43.096
X36.695 Y43.174
X36.293 Y43.222
X31.262 Y43.815
X30.658 Y43.881
X26.67 Y44.29
G3 X26.218 Y43.255 I-0.04 J-0.599
G1 X44.096 Y26.371
X44.35 Y26.132
G3 X44.744 Y25.968 I0.412 J0.436
G1 X46.958 Y25.98
X47.107 Y25.989
X47.323 Y26.02
X47.553 Y26.072
X47.811 Y26.153
X48.074 Y26.26
X48.369 Y26.408
X48.665 Y26.588
X48.985 Y26.82
X49.309 Y27.096
X49.636 Y27.424
X49.976 Y27.825
X50.29 Y28.262
X50.6 Y28.775
X50.896 Y29.369
X51.156 Y30.014
X51.371 Y30.707
X51.544 Y31.474
X51.662 Y32.301
X51.715 Y33.176
X51.698 Y34.062
X51.612 Y34.944
X51.461 Y35.817
X51.244 Y36.676
X50.966 Y37.518
X50.63 Y38.338
X50.24 Y39.134
X49.799 Y39.902
X49.31 Y40.641
X49.021 Y41.022
X48.838 Y41.22
X48.62 Y41.379
X48.376 Y41.494
X48.114 Y41.559
X44.553 Y42.092
G3 X43.893 Y41.397 I-0.068 J-0.596
G1 X46.383 Y26.481
G3 X46.958 Y25.98 I0.592 J0.099
G1 X48.97 Y25.992
X49.206 Y26.005
X49.415 Y26.033
X49.637 Y26.082
X49.887 Y26.158
X50.142 Y26.259
X50.43 Y26.401
X50.715 Y26.571
X51.034 Y26.798
X51.345 Y27.059
X51.676 Y27.385
X52.008 Y27.77
X52.326 Y28.205
X52.65 Y28.733
X52.948 Y29.318
X53.216 Y29.97
X53.457 Y30.72
X53.651 Y31.552
X53.783 Y32.428
X53.846 Y33.312
X53.841 Y34.198
X53.772 Y35.082
X53.644 Y35.959
X53.459 Y36.825
X53.221 Y37.679
X52.931 Y38.516
X52.593 Y39.335
X52.206 Y40.132
X52.054 Y40.401
X51.87 Y40.656
X51.634 Y40.864
X51.357 Y41.013
X51.054 Y41.097
X48.769 Y41.46
X48.114 Y41.559
G3 X47.447 Y40.924 I-0.068 J-0.596
G1 X48.389 Y26.552
G3 X48.97 Y25.992 I0.599 J0.039
G1 X51.093 Y26.003
X51.293 Y26.014
X51.494 Y26.042
X51.719 Y26.092
X51.962 Y26.166
X52.222 Y26.268
X52.505 Y26.408
X52.796 Y26.582
X53.109 Y26.804
X53.428 Y27.072
X53.755 Y27.394
X54.095 Y27.789
X54.417 Y28.229
X54.753 Y28.775
X55.059 Y29.377
X55.34 Y30.06
X55.591 Y30.842
X55.793 Y31.705
X55.925 Y32.582
X55.993 Y33.465
X55.998 Y34.351
X55.945 Y35.236
X55.837 Y36.115
X55.678 Y36.987
X55.47 Y37.848
X55.215 Y38.697
X54.915 Y39.531
X54.772 Y39.852
X54.635 Y40.092
X54.453 Y40.301
X54.234 Y40.47
X53.987 Y40.592
X53.719 Y40.664
X51.787 Y40.98
X51.054 Y41.097
G3 X50.381 Y40.496 I-0.073 J-0.595
G1 X50.51 Y26.598
G3 X51.093 Y26.003 I0.6 J0.006
G1 X52.592 Y26.011
X53.196 Y26.013
X53.364 Y26.022
X53.567 Y26.049
X53.791 Y26.098
X54.037 Y26.172
X54.295 Y26.273
X54.583 Y26.415
X54.873 Y26.586
X55.193 Y26.813
X55.51 Y27.077
X55.847 Y27.409
X56.186 Y27.799
X56.522 Y28.256
X56.869 Y28.817
X57.177 Y29.418
X57.471 Y30.128
X57.733 Y30.94
X57.937 Y31.802
X58.075 Y32.678
X58.152 Y33.56
X58.171 Y34.446
X58.135 Y35.332
X58.048 Y36.214
X57.913 Y37.089
X57.732 Y37.957
X57.507 Y38.814
X57.309 Y39.386
X57.29 Y39.429
X57.154 Y39.671
X56.973 Y39.88
X56.754 Y40.05
X56.507 Y40.174
X56.239 Y40.246
X54.805 Y40.486
X53.719 Y40.664
G3 X53.043 Y40.088 I-0.076 J-0.595
G1 X52.615 Y26.632
G3 X53.196 Y26.013 I0.6 J-0.019
G1 X55.208 Y26.019
X55.455 Y26.032
X55.658 Y26.059
X55.884 Y26.108
X56.132 Y26.184
X56.391 Y26.286
X56.685 Y26.429
X56.976 Y26.602
X57.301 Y26.831
X57.62 Y27.098
X57.966 Y27.437
X58.307 Y27.831
X58.653 Y28.301
X59.005 Y28.871
X59.322 Y29.489
X59.625 Y30.222
X59.897 Y31.062
X60.101 Y31.925
X60.242 Y32.8
X60.326 Y33.682
X60.355 Y34.567
X60.333 Y35.453
X60.263 Y36.337
X60.147 Y37.215
X59.984 Y38.086
X59.823 Y38.687
X59.736 Y38.931
X59.608 Y39.198
X59.426 Y39.432
X59.199 Y39.623
X58.937 Y39.761
X58.651 Y39.841
X57.421 Y40.048
X56.239 Y40.246
G3 X55.563 Y39.694 I-0.078 J-0.595
G1 X54.628 Y26.662
G3 X55.208 Y26.019 I0.598 J-0.043
G1 X57.421 Y26.026
X57.571 Y26.034
X57.779 Y26.063
X58.009 Y26.115
X58.263 Y26.195
X58.527 Y26.301
X58.826 Y26.451
X59.123 Y26.631
X59.455 Y26.87
X59.78 Y27.146
X60.133 Y27.498
X60.48 Y27.906
X60.834 Y28.396
X61.192 Y28.987
X61.516 Y29.634
X61.825 Y30.399
X62.09 Y31.244
X62.29 Y32.108
X62.43 Y32.983
X62.515 Y33.865
X62.55 Y34.75
X62.538 Y35.636
X62.478 Y36.52
X62.368 Y37.399
X62.236 Y38.037
X62.088 Y38.54
X62.081 Y38.56
X61.95 Y38.819
X61.768 Y39.045
X61.544 Y39.229
X61.287 Y39.363
X61.008 Y39.441
X58.651 Y39.841
X58.572 Y39.847
G3 X57.974 Y39.3 I0 J-0.6
G1 X56.843 Y26.679
G3 X57.421 Y26.026 I0.598 J-0.054
G1 X59.434 Y26.032
X59.668 Y26.044
X59.883 Y26.073
X60.105 Y26.121
X60.364 Y26.2
X60.624 Y26.302
X60.922 Y26.447
X61.222 Y26.626
X61.554 Y26.86
X61.883 Y27.135
X62.244 Y27.49
X62.587 Y27.885
X62.959 Y28.39
X63.308 Y28.955
X63.648 Y29.619
X63.972 Y30.401
X64.245 Y31.245
X64.454 Y32.106
X64.606 Y32.979
X64.705 Y33.859
X64.754 Y34.744
X64.755 Y35.63
X64.703 Y36.515
X64.612 Y37.23
X64.501 Y37.764
X64.412 Y38.064
X64.291 Y38.351
X64.11 Y38.604
X63.878 Y38.811
X63.605 Y38.961
X63.306 Y39.047
X61.283 Y39.394
X61.008 Y39.441
X60.928 Y39.446
