(RumpfR_au?en)
(Bearbeiten)
(  Hersteller: ChinaCnc)
(  model: 3040T)
(  description: Generic 3-axis)
(T5  D=3.175 CR=0 - ZMIN=-7 - Schaftfraser)
G90 G94
G17
G21
G28 G91 Z0
G90

(2D Adaptive21)
T5
S5000 M3
G54
G0 X-161.233 Y-177.127
Z15
Z5
Z2.5
G3 X-160.47 Y-180.045 Z2.335 I0.381 J-1.459 F333.3
X-161.233 Y-177.127 Z2.169 I-0.381 J1.459
X-160.47 Y-180.045 Z2.004 I0.381 J-1.459
X-161.233 Y-177.127 Z1.838 I-0.381 J1.459
X-160.47 Y-180.045 Z1.673 I0.381 J-1.459
X-161.233 Y-177.127 Z1.507 I-0.381 J1.459
X-160.47 Y-180.045 Z1.342 I0.381 J-1.459
X-161.233 Y-177.127 Z1.176 I-0.381 J1.459
X-160.47 Y-180.045 Z1.011 I0.381 J-1.459
X-161.233 Y-177.127 Z0.845 I-0.381 J1.459
X-160.47 Y-180.045 Z0.68 I0.381 J-1.459
X-161.233 Y-177.127 Z0.515 I-0.381 J1.459
X-160.47 Y-180.045 Z0.349 I0.381 J-1.459
X-161.233 Y-177.127 Z0.184 I-0.381 J1.459
X-160.47 Y-180.045 Z0.018 I0.381 J-1.459
X-161.233 Y-177.127 Z-0.147 I-0.381 J1.459
X-160.47 Y-180.045 Z-0.313 I0.381 J-1.459
X-161.233 Y-177.127 Z-0.478 I-0.381 J1.459
X-160.47 Y-180.045 Z-0.644 I0.381 J-1.459
X-161.233 Y-177.127 Z-0.809 I-0.381 J1.459
X-160.47 Y-180.045 Z-0.974 I0.381 J-1.459
X-161.233 Y-177.127 Z-1.14 I-0.381 J1.459
X-160.47 Y-180.045 Z-1.305 I0.381 J-1.459
X-161.233 Y-177.127 Z-1.471 I-0.381 J1.459
X-160.47 Y-180.045 Z-1.636 I0.381 J-1.459
X-161.233 Y-177.127 Z-1.802 I-0.381 J1.459
X-160.47 Y-180.045 Z-1.967 I0.381 J-1.459
X-161.233 Y-177.127 Z-2.133 I-0.381 J1.459
X-160.47 Y-180.045 Z-2.298 I0.381 J-1.459
X-161.233 Y-177.127 Z-2.464 I-0.381 J1.459
X-160.47 Y-180.045 Z-2.629 I0.381 J-1.459
X-161.233 Y-177.127 Z-2.794 I-0.381 J1.459
X-160.47 Y-180.045 Z-2.96 I0.381 J-1.459
X-161.233 Y-177.127 Z-3.125 I-0.381 J1.459
X-160.47 Y-180.045 Z-3.291 I0.381 J-1.459
X-161.233 Y-177.127 Z-3.456 I-0.381 J1.459
X-160.47 Y-180.045 Z-3.622 I0.381 J-1.459
X-161.233 Y-177.127 Z-3.787 I-0.381 J1.459
X-160.47 Y-180.045 Z-3.953 I0.381 J-1.459
X-161.233 Y-177.127 Z-4.118 I-0.381 J1.459
X-160.47 Y-180.045 Z-4.284 I0.381 J-1.459
X-161.233 Y-177.127 Z-4.449 I-0.381 J1.459
X-160.47 Y-180.045 Z-4.614 I0.381 J-1.459
X-161.233 Y-177.127 Z-4.78 I-0.381 J1.459
X-160.47 Y-180.045 Z-4.945 I0.381 J-1.459
X-161.233 Y-177.127 Z-5.111 I-0.381 J1.459
X-160.47 Y-180.045 Z-5.276 I0.381 J-1.459
X-161.233 Y-177.127 Z-5.442 I-0.381 J1.459
X-160.47 Y-180.045 Z-5.607 I0.381 J-1.459
X-161.233 Y-177.127 Z-5.773 I-0.381 J1.459
X-160.47 Y-180.045 Z-5.938 I0.381 J-1.459
X-161.233 Y-177.127 Z-6.103 I-0.381 J1.459
X-160.47 Y-180.045 Z-6.269 I0.381 J-1.459
X-161.233 Y-177.127 Z-6.434 I-0.381 J1.459
X-160.47 Y-180.045 Z-6.6 I0.381 J-1.459
X-161.233 Y-177.127 Z-6.765 I-0.381 J1.459
X-160.47 Y-180.045 Z-6.931 I0.381 J-1.459
X-159.343 Y-178.586 Z-7 I-0.381 J1.459
X-162.359 Y-178.586 I-1.508 J0
X-159.343 Y-178.586 I1.508 J0
S6000
G1 X-159.326 Y-177.944 F1000
X-159.297 Y-177.869
X-159.263 Y-177.723
X-159.259 Y-177.573
X-159.281 Y-177.425
X-159.323 Y-177.281
X-159.384 Y-177.144
X-159.46 Y-177.014
X-159.549 Y-176.894
X-159.65 Y-176.783
X-159.761 Y-176.682
X-159.881 Y-176.592
X-160.008 Y-176.512
X-160.141 Y-176.443
X-160.282 Y-176.384
X-160.432 Y-176.335
X-160.588 Y-176.297
X-160.751 Y-176.272
X-160.917 Y-176.26
X-161.088
X-161.26 Y-176.275
X-161.432 Y-176.304
X-161.604 Y-176.347
X-161.774 Y-176.405
X-161.94 Y-176.477
X-162.101 Y-176.562
X-162.256 Y-176.661
X-162.404 Y-176.773
X-162.543 Y-176.896
X-162.672 Y-177.032
X-162.79 Y-177.178
X-162.897 Y-177.333
X-162.991 Y-177.497
X-163.072 Y-177.669
X-163.139 Y-177.847
X-163.192 Y-178.031
X-163.23 Y-178.218
X-163.252 Y-178.408
X-163.26 Y-178.6
X-163.252 Y-178.792
X-163.229 Y-178.983
X-163.19 Y-179.172
X-163.136 Y-179.357
X-163.068 Y-179.537
X-162.985 Y-179.712
X-162.888 Y-179.879
X-162.779 Y-180.038
X-162.656 Y-180.188
X-162.522 Y-180.327
X-162.378 Y-180.456
X-162.223 Y-180.572
X-162.06 Y-180.676
X-161.888 Y-180.766
X-161.71 Y-180.843
X-161.526 Y-180.904
X-161.338 Y-180.951
X-161.147 Y-180.983
X-160.954 Y-180.999
X-160.76
X-160.567 Y-180.984
X-160.375 Y-180.954
X-160.187 Y-180.908
X-160.003 Y-180.847
X-159.824 Y-180.772
X-159.652 Y-180.682
X-159.488 Y-180.579
X-159.332 Y-180.464
X-159.187 Y-180.336
X-159.052 Y-180.197
X-158.928 Y-180.047
X-158.817 Y-179.888
X-158.712 Y-179.709
X-158.573 Y-179.42
X-158.419 Y-179.02
X-158.331 Y-178.724
X-158.276 Y-178.461
X-158.245 Y-178.218
X-158.234 Y-177.99
X-158.241 Y-177.773
X-158.265 Y-177.563
X-158.305 Y-177.358
X-158.362 Y-177.157
X-158.434 Y-176.961
X-158.522 Y-176.772
X-158.625 Y-176.591
X-158.743 Y-176.417
X-158.876 Y-176.251
X-159.023 Y-176.095
X-159.184 Y-175.95
X-159.359 Y-175.816
X-159.547 Y-175.695
X-159.746 Y-175.587
X-159.957 Y-175.495
X-160.178 Y-175.419
X-160.407 Y-175.36
X-160.644 Y-175.319
X-160.885 Y-175.297
X-161.131 Y-175.294
X-161.378 Y-175.311
X-161.626 Y-175.349
X-161.872 Y-175.406
X-162.115 Y-175.484
X-162.352 Y-175.582
X-162.582 Y-175.699
X-162.804 Y-175.835
X-163.015 Y-175.99
X-163.214 Y-176.161
X-163.399 Y-176.35
X-163.57 Y-176.553
X-163.724 Y-176.77
X-163.861 Y-177
X-163.98 Y-177.241
X-164.079 Y-177.491
X-164.158 Y-177.75
X-164.216 Y-178.014
X-164.252 Y-178.282
X-164.267 Y-178.554
X-164.26 Y-178.826
X-164.232 Y-179.097
X-164.181 Y-179.365
X-164.11 Y-179.628
X-164.017 Y-179.885
X-163.903 Y-180.135
X-163.77 Y-180.374
X-163.619 Y-180.602
X-163.449 Y-180.817
X-163.262 Y-181.018
X-163.06 Y-181.204
X-162.843 Y-181.373
X-162.614 Y-181.524
X-162.373 Y-181.656
X-162.122 Y-181.768
X-161.863 Y-181.86
X-161.597 Y-181.93
X-161.327 Y-181.98
X-161.053 Y-182.007
X-160.778 Y-182.012
X-160.504 Y-181.995
X-160.231 Y-181.957
X-159.963 Y-181.896
X-159.7 Y-181.814
X-159.445 Y-181.712
X-159.199 Y-181.589
X-158.963 Y-181.446
X-158.74 Y-181.286
X-158.528 Y-181.106
X-158.314 Y-180.892
X-158.095 Y-180.636
X-157.892 Y-180.355
X-157.707 Y-180.05
X-157.547 Y-179.731
X-157.416 Y-179.408
X-157.315 Y-179.086
X-157.242 Y-178.766
X-157.196 Y-178.449
X-157.176 Y-178.136
X-157.181 Y-177.825
X-157.211 Y-177.52
X-157.264 Y-177.221
X-157.341 Y-176.93
X-157.441 Y-176.646
X-157.563 Y-176.372
X-157.706 Y-176.109
X-157.871 Y-175.857
X-158.056 Y-175.619
X-158.261 Y-175.395
X-158.484 Y-175.187
X-158.725 Y-174.995
X-158.983 Y-174.823
X-159.256 Y-174.67
X-159.543 Y-174.539
X-159.842 Y-174.43
X-160.152 Y-174.345
X-160.47 Y-174.284
X-160.794 Y-174.249
X-161.123 Y-174.24
X-161.454 Y-174.258
X-161.784 Y-174.302
X-162.112 Y-174.373
X-162.435 Y-174.471
X-162.752 Y-174.595
X-163.059 Y-174.746
X-163.355 Y-174.921
X-163.637 Y-175.12
X-163.903 Y-175.342
X-164.152 Y-175.587
X-164.381 Y-175.851
X-164.589 Y-176.134
X-164.774 Y-176.433
X-164.935 Y-176.748
X-165.071 Y-177.075
X-165.18 Y-177.413
X-165.263 Y-177.76
X-165.317 Y-178.113
X-165.342 Y-178.469
X-165.339 Y-178.827
X-165.307 Y-179.184
X-165.247 Y-179.538
X-165.158 Y-179.886
X-165.042 Y-180.226
X-164.898 Y-180.556
X-164.728 Y-180.874
X-164.533 Y-181.177
X-164.315 Y-181.464
X-164.074 Y-181.732
X-163.812 Y-181.98
X-163.531 Y-182.207
X-163.232 Y-182.41
X-162.918 Y-182.589
X-162.591 Y-182.742
X-162.252 Y-182.868
X-161.905 Y-182.967
X-161.55 Y-183.038
X-161.191 Y-183.08
X-160.829 Y-183.093
X-160.468 Y-183.076
X-160.109 Y-183.031
X-159.755 Y-182.957
X-159.408 Y-182.855
X-159.07 Y-182.726
X-158.743 Y-182.569
X-158.424 Y-182.384
X-158.11 Y-182.166
X-157.805 Y-181.915
X-157.512 Y-181.633
X-157.236 Y-181.32
X-156.984 Y-180.983
X-156.759 Y-180.625
X-156.563 Y-180.252
X-156.4 Y-179.866
X-156.269 Y-179.473
X-156.171 Y-179.073
X-156.106 Y-178.671
X-156.074 Y-178.269
Y-177.868
X-156.106 Y-177.472
X-156.169 Y-177.082
X-156.263 Y-176.7
X-156.387 Y-176.327
X-156.541 Y-175.967
X-156.722 Y-175.62
X-156.932 Y-175.288
X-157.167 Y-174.974
X-157.428 Y-174.678
X-157.713 Y-174.404
X-158.021 Y-174.151
X-158.35 Y-173.923
X-158.698 Y-173.722
X-159.063 Y-173.547
X-159.443 Y-173.402
X-159.836 Y-173.287
X-160.24 Y-173.203
X-160.651 Y-173.151
X-161.068 Y-173.133
X-161.487 Y-173.148
X-161.906 Y-173.198
X-162.322 Y-173.281
X-162.732 Y-173.397
X-163.133 Y-173.547
X-163.523 Y-173.73
X-163.898 Y-173.944
X-164.256 Y-174.189
X-164.595 Y-174.463
X-164.913 Y-174.764
X-165.205 Y-175.09
X-165.472 Y-175.441
X-165.71 Y-175.812
X-165.918 Y-176.203
X-166.095 Y-176.609
X-166.239 Y-177.03
X-166.349 Y-177.462
X-166.423 Y-177.902
X-166.463 Y-178.347
X-166.466 Y-178.795
X-166.434 Y-179.242
X-166.365 Y-179.685
X-166.262 Y-180.122
X-166.123 Y-180.55
X-165.95 Y-180.965
X-165.745 Y-181.366
X-165.507 Y-181.749
X-165.24 Y-182.112
X-164.944 Y-182.452
X-164.622 Y-182.768
X-164.275 Y-183.057
X-163.906 Y-183.317
X-163.518 Y-183.547
X-163.111 Y-183.745
X-162.691 Y-183.91
X-162.258 Y-184.041
X-161.816 Y-184.136
X-161.368 Y-184.196
X-160.916 Y-184.22
X-160.464 Y-184.207
X-160.015 Y-184.158
X-159.57 Y-184.073
X-159.133 Y-183.952
X-158.704 Y-183.796
X-158.284 Y-183.603
X-157.875 Y-183.374
X-157.479 Y-183.109
X-157.099 Y-182.807
X-156.737 Y-182.469
X-156.4 Y-182.099
X-156.091 Y-181.7
X-155.814 Y-181.276
X-155.572 Y-180.831
X-155.366 Y-180.369
X-155.2 Y-179.893
X-155.072 Y-179.409
X-154.985 Y-178.918
X-154.937 Y-178.425
X-154.929 Y-177.932
X-154.961 Y-177.443
X-155.031 Y-176.959
X-155.14 Y-176.485
X-155.286 Y-176.022
X-155.468 Y-175.572
X-155.686 Y-175.139
X-155.938 Y-174.725
X-156.223 Y-174.331
X-156.539 Y-173.961
X-156.885 Y-173.616
X-157.259 Y-173.299
X-157.659 Y-173.013
X-158.082 Y-172.757
X-158.526 Y-172.536
X-158.989 Y-172.35
X-159.468 Y-172.202
X-159.959 Y-172.091
X-160.46 Y-172.02
X-160.968 Y-171.99
X-161.478 Y-172
X-161.989 Y-172.051
X-162.496 Y-172.144
X-162.996 Y-172.277
X-163.486 Y-172.451
X-163.962 Y-172.665
X-164.421 Y-172.917
X-164.86 Y-173.206
X-165.276 Y-173.531
X-165.666 Y-173.889
X-166.026 Y-174.278
X-166.355 Y-174.696
X-166.651 Y-175.14
X-166.91 Y-175.607
X-167.131 Y-176.095
X-167.313 Y-176.6
X-167.454 Y-177.119
X-167.553 Y-177.648
X-167.609 Y-178.184
X-167.622 Y-178.724
X-167.592 Y-179.264
X-167.519 Y-179.8
X-167.402 Y-180.329
X-167.243 Y-180.847
X-167.044 Y-181.351
X-166.804 Y-181.838
X-166.525 Y-182.304
X-166.21 Y-182.747
X-165.86 Y-183.163
X-165.478 Y-183.55
X-165.066 Y-183.906
X-164.627 Y-184.227
X-164.163 Y-184.512
X-163.677 Y-184.758
X-163.174 Y-184.965
X-162.655 Y-185.131
X-162.124 Y-185.255
X-161.585 Y-185.336
X-161.042 Y-185.373
X-160.496 Y-185.367
X-159.953 Y-185.317
X-159.414 Y-185.223
X-158.882 Y-185.085
X-158.36 Y-184.905
X-157.848 Y-184.68
X-157.351 Y-184.412
X-156.871 Y-184.102
X-156.411 Y-183.749
X-155.977 Y-183.357
X-155.572 Y-182.927
X-155.202 Y-182.464
X-154.868 Y-181.971
X-154.575 Y-181.452
X-154.324 Y-180.912
X-154.118 Y-180.354
X-153.958 Y-179.783
X-153.844 Y-179.203
X-153.778 Y-178.618
X-153.759 Y-178.031
X-153.787 Y-177.447
X-153.861 Y-176.869
X-153.982 Y-176.3
X-154.147 Y-175.743
X-154.357 Y-175.202
X-154.609 Y-174.68
X-154.902 Y-174.179
X-155.235 Y-173.703
X-155.605 Y-173.255
X-156.011 Y-172.837
X-156.451 Y-172.452
X-156.921 Y-172.102
X-157.42 Y-171.79
X-157.944 Y-171.518
X-158.491 Y-171.288
X-159.056 Y-171.102
X-159.636 Y-170.962
X-160.229 Y-170.868
X-160.829 Y-170.822
X-161.433 Y-170.824
X-162.038 Y-170.875
X-162.639 Y-170.974
X-163.232 Y-171.122
X-163.814 Y-171.318
X-164.379 Y-171.561
X-164.925 Y-171.849
X-165.448 Y-172.181
X-165.944 Y-172.555
X-166.41 Y-172.969
X-166.842 Y-173.42
X-167.237 Y-173.906
X-167.593 Y-174.422
X-167.907 Y-174.967
X-168.176 Y-175.536
X-168.4 Y-176.126
X-168.575 Y-176.733
X-168.702 Y-177.353
X-168.778 Y-177.982
X-168.804 Y-178.615
X-168.779 Y-179.25
X-168.703 Y-179.881
X-168.576 Y-180.504
X-168.4 Y-181.116
X-168.175 Y-181.712
X-167.903 Y-182.289
X-167.585 Y-182.842
X-167.224 Y-183.368
X-166.821 Y-183.863
X-166.38 Y-184.325
X-165.903 Y-184.75
X-165.393 Y-185.135
X-164.854 Y-185.479
X-164.288 Y-185.778
X-163.701 Y-186.031
X-163.095 Y-186.236
X-162.475 Y-186.391
X-161.843 Y-186.496
X-161.206 Y-186.551
X-160.565 Y-186.554
X-159.925 Y-186.505
X-159.291 Y-186.406
X-158.666 Y-186.255
X-158.056 Y-186.056
X-157.463 Y-185.809
X-156.891 Y-185.517
X-156.344 Y-185.18
X-155.825 Y-184.803
X-155.336 Y-184.386
X-154.881 Y-183.933
X-154.461 Y-183.447
X-154.078 Y-182.931
X-153.735 Y-182.388
X-153.434 Y-181.821
X-153.175 Y-181.234
X-152.961 Y-180.628
X-152.793 Y-180.008
X-152.672 Y-179.378
X-152.598 Y-178.74
X-152.572 Y-178.098
X-152.595 Y-177.456
X-152.666 Y-176.818
X-152.786 Y-176.187
X-152.954 Y-175.567
X-153.169 Y-174.962
X-153.43 Y-174.376
X-153.735 Y-173.811
X-154.083 Y-173.27
X-154.47 Y-172.758
X-154.895 Y-172.277
X-155.356 Y-171.829
X-155.849 Y-171.418
X-156.371 Y-171.045
X-156.921 Y-170.712
X-157.493 Y-170.421
X-158.086 Y-170.174
X-158.695 Y-169.971
X-159.318 Y-169.815
X-159.951 Y-169.704
X-160.59 Y-169.642
X-161.232 Y-169.628
X-161.873 Y-169.661
X-162.51 Y-169.742
X-163.14 Y-169.869
X-163.758 Y-170.042
X-164.363 Y-170.258
X-164.95 Y-170.518
X-165.518 Y-170.819
X-166.062 Y-171.159
X-166.581 Y-171.538
X-167.07 Y-171.954
X-167.527 Y-172.405
X-167.951 Y-172.888
X-168.339 Y-173.399
X-168.69 Y-173.937
X-169.003 Y-174.498
X-169.275 Y-175.08
X-169.506 Y-175.679
X-169.694 Y-176.293
X-169.836 Y-176.919
X-169.933 Y-177.554
X-169.985 Y-178.194
X-169.991 Y-178.836
X-169.953 Y-179.477
X-169.871 Y-180.114
X-169.744 Y-180.744
X-169.574 Y-181.363
X-169.359 Y-181.968
X-169.102 Y-182.556
X-168.803 Y-183.125
X-168.465 Y-183.671
X-168.091 Y-184.193
X-167.681 Y-184.687
X-167.238 Y-185.152
X-166.764 Y-185.585
X-166.26 Y-185.983
X-165.728 Y-186.343
X-165.172 Y-186.665
X-164.595 Y-186.947
X-164.001 Y-187.189
X-163.39 Y-187.389
X-162.768 Y-187.547
X-162.136 Y-187.661
X-161.497 Y-187.729
X-160.856 Y-187.751
X-160.214 Y-187.728
X-159.575 Y-187.66
X-158.943 Y-187.549
X-158.319 Y-187.395
X-157.708 Y-187.199
X-157.111 Y-186.961
X-156.533 Y-186.682
X-155.976 Y-186.363
X-155.441 Y-186.006
X-154.932 Y-185.615
X-154.45 Y-185.191
X-153.996 Y-184.736
X-153.574 Y-184.253
X-153.184 Y-183.743
X-152.829 Y-183.207
X-152.512 Y-182.649
X-152.231 Y-182.071
X-151.989 Y-181.477
X-151.785 Y-180.868
X-151.621 Y-180.247
X-151.498 Y-179.617
X-151.416 Y-178.98
X-151.378 Y-178.339
X-151.383 Y-177.696
X-151.431 Y-177.056
X-151.521 Y-176.42
X-151.653 Y-175.792
X-151.827 Y-175.173
X-152.04 Y-174.568
X-152.294 Y-173.978
X-152.588 Y-173.407
X-152.92 Y-172.857
X-153.288 Y-172.331
X-153.69 Y-171.83
X-154.124 Y-171.357
X-154.588 Y-170.913
X-155.08 Y-170.501
X-155.598 Y-170.121
X-156.141 Y-169.778
X-156.706 Y-169.472
X-157.289 Y-169.204
X-157.889 Y-168.974
X-158.502 Y-168.784
X-159.127 Y-168.633
X-159.759 Y-168.523
X-160.398 Y-168.454
X-161.04 Y-168.429
X-161.681 Y-168.446
X-162.321 Y-168.506
X-162.955 Y-168.606
X-163.582 Y-168.746
X-164.198 Y-168.926
X-164.802 Y-169.144
X-165.392 Y-169.399
X-165.964 Y-169.691
X-166.515 Y-170.021
X-167.044 Y-170.385
X-167.548 Y-170.782
X-168.027 Y-171.211
X-168.477 Y-171.669
X-168.898 Y-172.154
X-169.288 Y-172.664
X-169.646 Y-173.197
X-169.968 Y-173.752
X-170.255 Y-174.327
X-170.505 Y-174.919
X-170.717 Y-175.525
X-170.891 Y-176.143
X-171.027 Y-176.771
X-171.123 Y-177.406
X-171.179 Y-178.045
X-171.196 Y-178.687
X-171.171 Y-179.329
X-171.107 Y-179.968
X-171.003 Y-180.602
X-170.86 Y-181.228
X-170.678 Y-181.844
X-170.458 Y-182.447
X-170.202 Y-183.036
X-169.91 Y-183.608
X-169.582 Y-184.16
X-169.22 Y-184.69
X-168.826 Y-185.197
X-168.401 Y-185.679
X-167.948 Y-186.134
X-167.467 Y-186.56
X-166.961 Y-186.955
X-166.431 Y-187.318
X-165.88 Y-187.648
X-165.309 Y-187.942
X-164.721 Y-188.199
X-164.118 Y-188.42
X-163.503 Y-188.604
X-162.877 Y-188.75
X-162.244 Y-188.856
X-161.605 Y-188.924
X-160.964 Y-188.951
X-160.322 Y-188.939
X-159.682 Y-188.886
X-159.046 Y-188.793
X-158.417 Y-188.662
X-157.798 Y-188.493
X-157.19 Y-188.287
X-156.595 Y-188.045
X-156.016 Y-187.766
X-155.455 Y-187.454
X-154.915 Y-187.107
X-154.396 Y-186.728
X-153.902 Y-186.319
X-153.432 Y-185.881
X-152.988 Y-185.417
X-152.572 Y-184.927
X-152.186 Y-184.414
X-151.83 Y-183.879
X-151.507 Y-183.325
X-151.216 Y-182.752
X-150.961 Y-182.163
X-150.74 Y-181.56
X-150.555 Y-180.945
X-150.405 Y-180.32
X-150.292 Y-179.688
X-150.215 Y-179.051
X-150.177 Y-178.41
X-150.175 Y-177.767
X-150.213 Y-177.126
X-150.29 Y-176.489
X-150.404 Y-175.857
X-150.555 Y-175.233
X-150.743 Y-174.618
X-150.966 Y-174.016
X-151.225 Y-173.429
X-151.518 Y-172.857
X-151.844 Y-172.304
X-152.203 Y-171.772
X-152.594 Y-171.262
X-153.015 Y-170.777
X-153.463 Y-170.317
X-153.937 Y-169.884
X-154.436 Y-169.479
X-154.957 Y-169.104
X-155.499 Y-168.76
X-156.061 Y-168.448
X-156.64 Y-168.171
X-157.235 Y-167.929
X-157.842 Y-167.721
X-158.461 Y-167.549
X-159.089 Y-167.413
X-159.723 Y-167.314
X-160.362 Y-167.251
X-161.004 Y-167.226
X-161.646 Y-167.238
X-162.286 Y-167.287
X-162.923 Y-167.374
X-163.553 Y-167.499
X-164.175 Y-167.658
X-164.787 Y-167.852
X-165.387 Y-168.08
X-165.974 Y-168.342
X-166.544 Y-168.636
X-167.098 Y-168.962
X-167.631 Y-169.32
X-168.143 Y-169.708
X-168.631 Y-170.125
X-169.095 Y-170.569
X-169.533 Y-171.039
X-169.945 Y-171.532
X-170.328 Y-172.047
X-170.682 Y-172.582
X-171.006 Y-173.137
X-171.299 Y-173.709
X-171.558 Y-174.296
X-171.783 Y-174.898
X-171.973 Y-175.511
X-172.129 Y-176.134
X-172.25 Y-176.765
X-172.336 Y-177.401
X-172.387 Y-178.041
X-172.402 Y-178.683
X-172.381 Y-179.325
X-172.325 Y-179.965
X-172.232 Y-180.6
X-172.103 Y-181.23
X-171.94 Y-181.851
X-171.742 Y-182.461
X-171.511 Y-183.061
X-171.247 Y-183.646
X-170.951 Y-184.216
X-170.624 Y-184.769
X-170.267 Y-185.303
X-169.881 Y-185.816
X-169.466 Y-186.306
X-169.024 Y-186.772
X-168.557 Y-187.213
X-168.067 Y-187.627
X-167.554 Y-188.014
X-167.021 Y-188.372
X-166.469 Y-188.7
X-165.9 Y-188.997
X-165.315 Y-189.262
X-164.716 Y-189.494
X-164.105 Y-189.691
X-163.483 Y-189.854
X-162.854 Y-189.982
X-162.219 Y-190.076
X-161.579 Y-190.134
X-160.938 Y-190.158
X-160.295 Y-190.145
X-159.655 Y-190.098
X-159.018 Y-190.015
X-158.387 Y-189.896
X-157.764 Y-189.742
X-157.15 Y-189.554
X-156.546 Y-189.334
X-155.956 Y-189.081
X-155.38 Y-188.796
X-154.821 Y-188.481
X-154.279 Y-188.136
X-153.757 Y-187.762
X-153.256 Y-187.361
X-152.777 Y-186.933
X-152.322 Y-186.479
X-151.892 Y-186.003
X-151.488 Y-185.504
X-151.11 Y-184.985
X-150.759 Y-184.446
X-150.438 Y-183.891
X-150.146 Y-183.318
X-149.885 Y-182.732
X-149.655 Y-182.132
X-149.458 Y-181.521
X-149.293 Y-180.9
X-149.162 Y-180.272
X-149.063 Y-179.637
X-148.997 Y-178.998
X-148.966 Y-178.357
X-148.968 Y-177.715
X-149.004 Y-177.074
X-149.074 Y-176.435
X-149.179 Y-175.802
X-149.318 Y-175.175
X-149.491 Y-174.556
X-149.696 Y-173.948
X-149.933 Y-173.351
X-150.202 Y-172.768
X-150.501 Y-172.199
X-150.83 Y-171.648
X-151.187 Y-171.114
X-151.573 Y-170.601
X-151.986 Y-170.109
X-152.425 Y-169.64
X-152.888 Y-169.195
X-153.374 Y-168.776
X-153.882 Y-168.382
X-154.409 Y-168.016
X-154.955 Y-167.677
X-155.518 Y-167.368
X-156.096 Y-167.089
X-156.688 Y-166.841
X-157.293 Y-166.624
X-157.529 Y-166.554
X-157.603 Y-166.536
X-157.679 Y-166.525
X-157.756 Y-166.523
X-161 Y-166.586
X-161.584 Y-166.603
X-163.918 Y-166.68
X-164.541 Y-166.732
X-164.996 Y-166.807
X-165.513 Y-166.936
X-166.122 Y-167.141
X-166.712 Y-167.393
X-167.284 Y-167.686
X-167.837 Y-168.012
X-168.371 Y-168.369
X-168.884 Y-168.756
X-169.376 Y-169.168
X-169.846 Y-169.606
X-170.292 Y-170.068
X-170.714 Y-170.552
X-171.11 Y-171.058
X-171.48 Y-171.583
X-171.823 Y-172.125
X-172.139 Y-172.685
X-172.426 Y-173.259
X-172.683 Y-173.848
X-172.91 Y-174.448
X-173.106 Y-175.06
X-173.271 Y-175.681
X-173.403 Y-176.309
X-173.503 Y-176.943
X-173.572 Y-177.582
X-173.608 Y-178.223
X-173.612 Y-178.865
X-173.584 Y-179.507
X-173.523 Y-180.146
X-173.431 Y-180.781
X-173.306 Y-181.411
X-173.15 Y-182.034
X-172.962 Y-182.649
X-172.743 Y-183.252
X-172.494 Y-183.844
X-172.215 Y-184.423
X-171.908 Y-184.987
X-171.574 Y-185.535
X-171.212 Y-186.065
X-170.824 Y-186.577
X-170.41 Y-187.069
X-169.973 Y-187.539
X-169.513 Y-187.986
X-169.03 Y-188.41
X-168.526 Y-188.808
X-168.003 Y-189.18
X-167.461 Y-189.526
X-166.904 Y-189.844
X-166.331 Y-190.135
X-165.744 Y-190.396
X-165.145 Y-190.627
X-165.096 Y-190.643
X-165.016 Y-190.665
X-164.933 Y-190.677
X-164.85 Y-190.681
X-163.772 Y-190.66
X-163.043 Y-190.643
X-159.979 Y-190.568
X-158.52 Y-190.524
X-157.352 Y-190.488
X-156.856 Y-190.448
X-156.471 Y-190.385
X-155.998 Y-190.269
X-155.44 Y-190.083
X-154.849 Y-189.832
X-154.278 Y-189.538
X-153.726 Y-189.209
X-153.195 Y-188.848
X-152.684 Y-188.459
X-152.194 Y-188.043
X-151.726 Y-187.604
X-151.28 Y-187.141
X-150.857 Y-186.658
X-150.458 Y-186.156
X-150.082 Y-185.634
X-149.732 Y-185.096
X-149.408 Y-184.542
X-149.111 Y-183.972
X-148.841 Y-183.39
X-148.601 Y-182.794
X-148.391 Y-182.187
X-148.209 Y-181.571
X-148.058 Y-180.947
X-147.936 Y-180.317
X-147.844 Y-179.681
X-147.782 Y-179.042
X-147.751 Y-178.4
Y-177.758
X-147.781 Y-177.117
X-147.842 Y-176.478
X-147.936 Y-175.842
X-148.061 Y-175.212
X-148.216 Y-174.589
X-148.402 Y-173.974
X-148.616 Y-173.369
X-148.86 Y-172.775
X-149.131 Y-172.193
X-149.43 Y-171.625
X-149.756 Y-171.071
X-150.108 Y-170.534
X-150.487 Y-170.015
X-150.891 Y-169.516
X-151.319 Y-169.037
X-151.769 Y-168.58
X-152.241 Y-168.144
X-152.734 Y-167.732
X-153.245 Y-167.343
X-153.774 Y-166.979
X-154.32 Y-166.641
X-154.467 Y-166.559
X-154.585 Y-166.506
X-154.712 Y-166.475
X-154.841 Y-166.466
X-157.756 Y-166.523
G3 X-157.987 Y-166.629 I0.006 J-0.317
G1 X-158.034 Y-166.672
X-158.088 Y-166.705
X-158.149 Y-166.727
X-158.212 Y-166.736
X-158.479 Y-166.746
X-162.993 Y-166.916
X-163.05 Y-166.913
X-163.105 Y-166.899
X-163.158 Y-166.876
G3 X-163.918 Y-166.68 I-0.763 J-1.386
G1 X-166.982 Y-166.782
X-167.206 Y-166.801
X-167.459 Y-166.842
X-167.767 Y-166.919
X-168.107 Y-167.033
X-168.515 Y-167.208
X-168.996 Y-167.462
X-169.538 Y-167.806
X-170.051 Y-168.192
X-170.538 Y-168.611
X-170.998 Y-169.059
X-171.434 Y-169.531
X-171.845 Y-170.024
X-172.232 Y-170.536
X-172.595 Y-171.066
X-172.933 Y-171.612
X-173.244 Y-172.174
X-173.53 Y-172.749
X-173.789 Y-173.337
X-174.02 Y-173.936
X-174.224 Y-174.545
X-174.398 Y-175.163
X-174.542 Y-175.789
X-174.658 Y-176.42
X-174.744 Y-177.057
X-174.8 Y-177.697
X-174.828 Y-178.338
X-174.826 Y-178.98
X-174.796 Y-179.622
X-174.735 Y-180.261
X-174.646 Y-180.897
X-174.528 Y-181.528
X-174.381 Y-182.153
X-174.203 Y-182.771
X-173.997 Y-183.379
X-173.764 Y-183.977
X-173.503 Y-184.564
X-173.215 Y-185.138
X-172.902 Y-185.699
X-172.564 Y-186.245
X-172.201 Y-186.775
X-171.815 Y-187.287
X-171.405 Y-187.782
X-170.974 Y-188.258
X-170.52 Y-188.712
X-170.045 Y-189.145
X-169.551 Y-189.555
X-169.039 Y-189.942
X-168.509 Y-190.305
X-168.003 Y-190.619
X-167.877 Y-190.682
X-167.742 Y-190.719
X-167.602 Y-190.731
X-167.128 Y-190.724
X-164.85 Y-190.681
G3 X-164.619 Y-190.574 I-0.006 J0.317
G1 X-164.572 Y-190.531
X-164.517 Y-190.498
X-164.456 Y-190.477
X-164.393 Y-190.468
X-164.126 Y-190.459
X-158.277 Y-190.251
X-158.22 Y-190.254
X-158.165 Y-190.267
X-158.112 Y-190.29
G3 X-157.352 Y-190.488 I0.767 J1.384
G1 X-156.185 Y-190.452
X-155.456 Y-190.424
X-154.58 Y-190.389
X-154.253 Y-190.359
X-154 Y-190.316
X-153.707 Y-190.241
X-153.367 Y-190.124
X-152.976 Y-189.953
X-152.508 Y-189.702
X-151.972 Y-189.356
X-151.461 Y-188.966
X-150.978 Y-188.544
X-150.519 Y-188.094
X-150.084 Y-187.622
X-149.673 Y-187.129
X-149.284 Y-186.617
X-148.92 Y-186.089
X-148.579 Y-185.544
X-148.262 Y-184.986
X-147.97 Y-184.414
X-147.704 Y-183.829
X-147.465 Y-183.233
X-147.251 Y-182.628
X-147.065 Y-182.013
X-146.906 Y-181.391
X-146.774 Y-180.762
X-146.671 Y-180.129
X-146.595 Y-179.491
X-146.548 Y-178.85
X-146.528 Y-178.209
X-146.536 Y-177.566
X-146.573 Y-176.925
X-146.639 Y-176.286
X-146.733 Y-175.651
X-146.855 Y-175.021
X-147.004 Y-174.396
X-147.182 Y-173.779
X-147.387 Y-173.171
X-147.619 Y-172.572
X-147.878 Y-171.984
X-148.162 Y-171.408
X-148.471 Y-170.845
X-148.804 Y-170.296
X-149.162 Y-169.763
X-149.543 Y-169.246
X-149.946 Y-168.746
X-150.372 Y-168.265
X-150.818 Y-167.803
X-151.284 Y-167.362
X-151.77 Y-166.941
X-152.191 Y-166.608
X-152.332 Y-166.52
X-152.489 Y-166.466
X-152.655 Y-166.449
X-154.288 Y-166.459
X-154.726 Y-166.464
X-154.841 Y-166.466
G3 X-155.007 Y-167.043 I0.017 J-0.317
G1 X-154.949 Y-167.083 Z-6.992
X-154.894 Y-167.122 Z-6.969
X-154.845 Y-167.156 Z-6.931
X-154.804 Y-167.185 Z-6.88
X-154.773 Y-167.207 Z-6.82
X-154.754 Y-167.221 Z-6.753
X-154.747 Y-167.225 Z-6.682
G0 Z5
X-165.944 Y-167.131
Z-6.365
G1 Z-6.682 F1000
X-165.951 Y-167.128 Z-6.753
X-165.971 Y-167.116 Z-6.82
X-166.004 Y-167.098 Z-6.88
X-166.048 Y-167.074 Z-6.931
X-166.101 Y-167.045 Z-6.969
X-166.16 Y-167.012 Z-6.992
X-166.222 Y-166.978 Z-7
G3 X-166.982 Y-166.782 I-0.763 J-1.386
G1 X-168.004 Y-166.817
X-168.295 Y-166.827
X-169.171 Y-166.868
X-169.32 Y-166.882
X-169.534 Y-166.921
X-169.765 Y-166.983
X-170.05 Y-167.084
X-170.35 Y-167.218
X-170.717 Y-167.42
X-171.125 Y-167.689
X-171.591 Y-168.052
X-172.064 Y-168.487
X-172.505 Y-168.953
X-172.918 Y-169.445
X-173.305 Y-169.958
X-173.667 Y-170.488
X-174.004 Y-171.035
X-174.317 Y-171.595
X-174.606 Y-172.169
X-174.869 Y-172.755
X-175.108 Y-173.351
X-175.32 Y-173.957
X-175.505 Y-174.572
X-175.663 Y-175.194
X-175.794 Y-175.823
X-175.898 Y-176.457
X-175.975 Y-177.094
X-176.026 Y-177.734
X-176.05 Y-178.376
X-176.047 Y-179.018
X-176.018 Y-179.66
X-175.961 Y-180.3
X-175.879 Y-180.936
X-175.768 Y-181.569
X-175.63 Y-182.196
X-175.465 Y-182.817
X-175.274 Y-183.43
X-175.056 Y-184.034
X-174.813 Y-184.629
X-174.546 Y-185.212
X-174.255 Y-185.785
X-173.939 Y-186.344
X-173.601 Y-186.89
X-173.241 Y-187.422
X-172.859 Y-187.938
X-172.455 Y-188.437
X-172.03 Y-188.919
X-171.585 Y-189.381
X-171.119 Y-189.824
X-170.636 Y-190.247
X-170.199 Y-190.597
X-170.055 Y-190.687
X-169.895 Y-190.742
X-169.726 Y-190.76
X-167.602 Y-190.731
G3 X-167.433 Y-190.155 I-0.015 J0.317
G1 X-167.49 Y-190.114 Z-6.992
X-167.545 Y-190.075 Z-6.969
X-167.594 Y-190.04 Z-6.931
X-167.635 Y-190.011 Z-6.88
X-167.666 Y-189.989 Z-6.82
X-167.685 Y-189.976 Z-6.753
X-167.691 Y-189.971 Z-6.682
G0 Z5
X-155.621 Y-190.047
Z-6.365
G1 Z-6.682 F1000
X-155.614 Y-190.051 Z-6.753
X-155.594 Y-190.062 Z-6.82
X-155.56 Y-190.08 Z-6.88
X-155.516 Y-190.104 Z-6.931
X-155.463 Y-190.133 Z-6.969
X-155.404 Y-190.165 Z-6.992
X-155.342 Y-190.198 Z-7
G3 X-154.58 Y-190.389 I0.753 J1.392
G1 X-152.392 Y-190.301
X-152.223 Y-190.285
X-152.012 Y-190.249
X-151.79 Y-190.192
X-151.517 Y-190.098
X-151.219 Y-189.968
X-150.857 Y-189.774
X-150.466 Y-189.522
X-150.002 Y-189.167
X-149.525 Y-188.737
X-149.08 Y-188.275
X-148.662 Y-187.787
X-148.27 Y-187.279
X-147.902 Y-186.752
X-147.557 Y-186.211
X-147.235 Y-185.655
X-146.938 Y-185.086
X-146.664 Y-184.505
X-146.415 Y-183.913
X-146.19 Y-183.311
X-145.991 Y-182.701
X-145.816 Y-182.083
X-145.667 Y-181.458
X-145.544 Y-180.828
X-145.445 Y-180.193
X-145.373 Y-179.555
X-145.326 Y-178.915
X-145.305 Y-178.273
X-145.31 Y-177.631
X-145.34 Y-176.989
X-145.398 Y-176.35
X-145.482 Y-175.713
X-145.592 Y-175.08
X-145.729 Y-174.453
X-145.891 Y-173.832
X-146.078 Y-173.217
X-146.291 Y-172.611
X-146.527 Y-172.014
X-146.788 Y-171.427
X-147.072 Y-170.852
X-147.38 Y-170.288
X-147.71 Y-169.737
X-148.062 Y-169.2
X-148.436 Y-168.678
X-148.831 Y-168.172
X-149.247 Y-167.683
X-149.683 Y-167.211
X-150.138 Y-166.758
X-150.275 Y-166.632
X-150.425 Y-166.525
X-150.597 Y-166.459
X-150.78 Y-166.437
X-152.655 Y-166.449
G3 X-152.828 Y-167.023 I0.013 J-0.317
G1 X-152.771 Y-167.064 Z-6.992
X-152.716 Y-167.104 Z-6.969
X-152.668 Y-167.139 Z-6.931
X-152.627 Y-167.169 Z-6.88
X-152.596 Y-167.191 Z-6.82
X-152.577 Y-167.205 Z-6.753
X-152.571 Y-167.209 Z-6.682
G0 Z5
X-168.319 Y-167.157
Z-6.365
G1 Z-6.682 F1000
X-168.326 Y-167.153 Z-6.753
X-168.346 Y-167.142 Z-6.82
X-168.38 Y-167.124 Z-6.88
X-168.424 Y-167.101 Z-6.931
X-168.477 Y-167.072 Z-6.969
X-168.536 Y-167.041 Z-6.992
X-168.599 Y-167.008 Z-7
G3 X-169.171 Y-166.868 I-0.559 J-1.047
G1 X-170.922 Y-166.948
X-171.127 Y-166.968
X-171.301 Y-166.999
X-171.512 Y-167.054
X-171.741 Y-167.135
X-171.997 Y-167.248
X-172.297 Y-167.411
X-172.627 Y-167.627
X-173.003 Y-167.917
X-173.437 Y-168.313
X-173.876 Y-168.782
X-174.28 Y-169.281
X-174.655 Y-169.803
X-175.002 Y-170.343
X-175.325 Y-170.898
X-175.623 Y-171.467
X-175.897 Y-172.048
X-176.146 Y-172.64
X-176.37 Y-173.241
X-176.569 Y-173.852
X-176.744 Y-174.47
X-176.894 Y-175.094
X-177.02 Y-175.724
X-177.12 Y-176.358
X-177.196 Y-176.996
X-177.248 Y-177.636
X-177.274 Y-178.278
X-177.276 Y-178.92
X-177.253 Y-179.562
X-177.205 Y-180.202
X-177.132 Y-180.84
X-177.033 Y-181.475
X-176.908 Y-182.105
X-176.759 Y-182.729
X-176.585 Y-183.347
X-176.387 Y-183.958
X-176.165 Y-184.561
X-175.92 Y-185.155
X-175.652 Y-185.738
X-175.363 Y-186.311
X-175.051 Y-186.873
X-174.718 Y-187.422
X-174.364 Y-187.958
X-173.989 Y-188.479
X-173.594 Y-188.985
X-173.178 Y-189.475
X-172.744 Y-189.948
X-172.291 Y-190.403
X-172.099 Y-190.581
X-171.948 Y-190.69
X-171.775 Y-190.757
X-171.591 Y-190.779
X-170.776 Y-190.773
X-169.726 Y-190.76
G3 X-169.557 Y-190.184 I-0.015 J0.317
G1 X-169.614 Y-190.143 Z-6.992
X-169.669 Y-190.104 Z-6.969
X-169.718 Y-190.069 Z-6.931
X-169.759 Y-190.04 Z-6.88
X-169.79 Y-190.018 Z-6.82
X-169.809 Y-190.004 Z-6.753
X-169.815 Y-190 Z-6.682
G0 Z5
X-153.433 Y-189.959
Z-6.365
G1 Z-6.682 F1000
X-153.426 Y-189.963 Z-6.753
X-153.405 Y-189.974 Z-6.82
X-153.372 Y-189.992 Z-6.88
X-153.328 Y-190.016 Z-6.931
X-153.275 Y-190.044 Z-6.969
X-153.216 Y-190.076 Z-6.992
X-153.153 Y-190.11 Z-7
G3 X-152.392 Y-190.301 I0.753 J1.392
G1 X-150.641 Y-190.23
X-150.43 Y-190.211
X-150.253 Y-190.18
X-150.04 Y-190.125
X-149.818 Y-190.049
X-149.558 Y-189.935
X-149.263 Y-189.777
X-148.926 Y-189.56
X-148.551 Y-189.274
X-148.113 Y-188.879
X-147.672 Y-188.412
X-147.264 Y-187.916
X-146.886 Y-187.397
X-146.533 Y-186.861
X-146.205 Y-186.309
X-145.9 Y-185.743
X-145.619 Y-185.166
X-145.361 Y-184.578
X-145.127 Y-183.98
X-144.917 Y-183.373
X-144.729 Y-182.759
X-144.565 Y-182.138
X-144.425 Y-181.511
X-144.308 Y-180.88
X-144.215 Y-180.244
X-144.146 Y-179.606
X-144.1 Y-178.965
X-144.079 Y-178.324
X-144.081 Y-177.681
X-144.107 Y-177.04
X-144.158 Y-176.4
X-144.234 Y-175.762
X-144.335 Y-175.128
X-144.46 Y-174.498
X-144.609 Y-173.873
X-144.781 Y-173.255
X-144.977 Y-172.643
X-145.196 Y-172.039
X-145.437 Y-171.444
X-145.701 Y-170.858
X-145.986 Y-170.283
X-146.292 Y-169.719
X-146.619 Y-169.166
X-146.967 Y-168.626
X-147.336 Y-168.1
X-147.725 Y-167.589
X-148.133 Y-167.094
X-148.506 Y-166.675
X-148.665 Y-166.54
X-148.856 Y-166.455
X-149.064 Y-166.426
X-150.78 Y-166.437
G3 X-150.954 Y-167.011 I0.013 J-0.317
G1 X-150.896 Y-167.053 Z-6.992
X-150.842 Y-167.092 Z-6.969
X-150.793 Y-167.128 Z-6.931
X-150.753 Y-167.157 Z-6.88
X-150.722 Y-167.179 Z-6.82
X-150.703 Y-167.193 Z-6.753
X-150.696 Y-167.198 Z-6.682
G0 Z5
X-169.879 Y-167.284
Z-6.365
G1 Z-6.682 F1000
X-169.886 Y-167.28 Z-6.753
X-169.906 Y-167.269 Z-6.82
X-169.94 Y-167.252 Z-6.88
X-169.984 Y-167.228 Z-6.931
X-170.037 Y-167.2 Z-6.969
X-170.096 Y-167.168 Z-6.992
X-170.159 Y-167.135 Z-7
G3 X-170.922 Y-166.948 I-0.745 J-1.396
G1 X-172.607 Y-167.026
X-172.768 Y-167.041
X-172.944 Y-167.073
X-173.123 Y-167.119
X-173.33 Y-167.192
X-173.577 Y-167.301
X-173.826 Y-167.437
X-174.132 Y-167.636
X-174.45 Y-167.883
X-174.823 Y-168.222
X-175.246 Y-168.674
X-175.645 Y-169.177
X-176.01 Y-169.705
X-176.346 Y-170.253
X-176.655 Y-170.816
X-176.939 Y-171.392
X-177.198 Y-171.979
X-177.433 Y-172.577
X-177.644 Y-173.183
X-177.832 Y-173.797
X-177.997 Y-174.418
X-178.138 Y-175.045
X-178.257 Y-175.676
X-178.353 Y-176.311
X-178.425 Y-176.949
X-178.475 Y-177.589
X-178.502 Y-178.231
X-178.506 Y-178.873
X-178.486 Y-179.515
X-178.444 Y-180.155
X-178.377 Y-180.794
X-178.287 Y-181.43
X-178.172 Y-182.062
X-178.035 Y-182.689
X-177.874 Y-183.311
X-177.691 Y-183.926
X-177.485 Y-184.535
X-177.258 Y-185.136
X-177.01 Y-185.728
X-176.74 Y-186.311
X-176.45 Y-186.883
X-176.139 Y-187.445
X-175.809 Y-187.996
X-175.459 Y-188.535
X-175.089 Y-189.06
X-174.7 Y-189.571
X-174.292 Y-190.067
X-173.866 Y-190.547
X-173.848 Y-190.566
X-173.692 Y-190.688
X-173.509 Y-190.765
X-173.312 Y-190.79
X-171.591 Y-190.779
G3 X-171.417 Y-190.205 I-0.013 J0.317
G1 X-171.475 Y-190.163 Z-6.992
X-171.529 Y-190.124 Z-6.969
X-171.578 Y-190.089 Z-6.931
X-171.618 Y-190.059 Z-6.88
X-171.649 Y-190.037 Z-6.82
X-171.668 Y-190.023 Z-6.753
X-171.675 Y-190.019 Z-6.682
G0 Z5
X-151.682 Y-189.888
Z-6.365
G1 Z-6.682 F1000
X-151.675 Y-189.892 Z-6.753
X-151.654 Y-189.903 Z-6.82
X-151.621 Y-189.921 Z-6.88
X-151.577 Y-189.945 Z-6.931
X-151.524 Y-189.973 Z-6.969
X-151.465 Y-190.005 Z-6.992
X-151.403 Y-190.039 Z-7
G3 X-150.641 Y-190.23 I0.753 J1.392
G1 X-148.89 Y-190.159
X-148.74 Y-190.145
X-148.559 Y-190.109
X-148.374 Y-190.056
X-148.152 Y-189.973
X-147.904 Y-189.856
X-147.635 Y-189.703
X-147.323 Y-189.489
X-146.971 Y-189.205
X-146.583 Y-188.836
X-146.155 Y-188.358
X-145.764 Y-187.848
X-145.406 Y-187.315
X-145.074 Y-186.765
X-144.768 Y-186.201
X-144.486 Y-185.624
X-144.227 Y-185.036
X-143.99 Y-184.439
X-143.776 Y-183.834
X-143.584 Y-183.221
X-143.413 Y-182.602
X-143.265 Y-181.977
X-143.14 Y-181.347
X-143.037 Y-180.713
X-142.956 Y-180.076
X-142.898 Y-179.437
X-142.861 Y-178.795
X-142.847 Y-178.153
X-142.856 Y-177.511
X-142.887 Y-176.87
X-142.941 Y-176.23
X-143.018 Y-175.592
X-143.117 Y-174.958
X-143.239 Y-174.327
X-143.383 Y-173.702
X-143.55 Y-173.081
X-143.738 Y-172.468
X-143.948 Y-171.861
X-144.18 Y-171.262
X-144.432 Y-170.671
X-144.705 Y-170.09
X-144.998 Y-169.519
X-145.311 Y-168.958
X-145.644 Y-168.408
X-145.995 Y-167.871
X-146.366 Y-167.346
X-146.755 Y-166.835
X-146.875 Y-166.691
X-147.034 Y-166.549
X-147.228 Y-166.458
X-147.439 Y-166.426
X-148.16 Y-166.423
X-148.452
X-149.064 Y-166.426
G3 X-149.237 Y-167.001 I0.013 J-0.317
G1 X-149.18 Y-167.042 Z-6.992
X-149.125 Y-167.082 Z-6.969
X-149.076 Y-167.117 Z-6.931
X-149.036 Y-167.146 Z-6.88
X-149.005 Y-167.169 Z-6.82
X-148.986 Y-167.182 Z-6.753
X-148.98 Y-167.187 Z-6.682
G0 Z5
X-171.564 Y-167.362
Z-6.365
G1 Z-6.682 F1000
X-171.571 Y-167.358 Z-6.753
X-171.592 Y-167.347 Z-6.82
X-171.625 Y-167.329 Z-6.88
X-171.669 Y-167.305 Z-6.931
X-171.723 Y-167.277 Z-6.969
X-171.782 Y-167.245 Z-6.992
X-171.844 Y-167.212 Z-7
G3 X-172.607 Y-167.026 I-0.745 J-1.396
G1 X-174.132 Y-167.096
X-174.334 Y-167.115
X-174.483 Y-167.142
X-174.657 Y-167.187
X-174.864 Y-167.26
X-175.073 Y-167.353
X-175.316 Y-167.485
X-175.587 Y-167.662
X-175.885 Y-167.892
X-176.215 Y-168.192
X-176.591 Y-168.595
X-176.991 Y-169.098
X-177.351 Y-169.63
X-177.678 Y-170.182
X-177.976 Y-170.751
X-178.248 Y-171.333
X-178.494 Y-171.926
X-178.717 Y-172.528
X-178.918 Y-173.138
X-179.095 Y-173.755
X-179.251 Y-174.378
X-179.385 Y-175.006
X-179.498 Y-175.639
X-179.588 Y-176.274
X-179.658 Y-176.913
X-179.706 Y-177.553
X-179.732 Y-178.195
X-179.737 Y-178.837
X-179.72 Y-179.479
X-179.682 Y-180.12
X-179.621 Y-180.759
X-179.538 Y-181.396
X-179.433 Y-182.03
X-179.305 Y-182.659
X-179.156 Y-183.284
X-178.985 Y-183.903
X-178.794 Y-184.516
X-178.582 Y-185.122
X-178.349 Y-185.721
X-178.097 Y-186.311
X-177.825 Y-186.893
X-177.534 Y-187.466
X-177.225 Y-188.028
X-176.896 Y-188.58
X-176.549 Y-189.12
X-176.184 Y-189.648
X-175.8 Y-190.163
X-175.513 Y-190.522
X-175.35 Y-190.673
X-175.15 Y-190.768
X-174.93 Y-190.8
X-173.312 Y-190.79
G3 X-173.139 Y-190.215 I-0.013 J0.317
G1 X-173.196 Y-190.174 Z-6.992
X-173.251 Y-190.135 Z-6.969
X-173.3 Y-190.099 Z-6.931
X-173.34 Y-190.07 Z-6.88
X-173.371 Y-190.048 Z-6.82
X-173.39 Y-190.034 Z-6.753
X-173.396 Y-190.029 Z-6.682
G0 Z5
X-173.089 Y-167.432
Z-6.365
G1 Z-6.682 F1000
X-173.096 Y-167.428 Z-6.753
X-173.116 Y-167.417 Z-6.82
X-173.15 Y-167.399 Z-6.88
X-173.194 Y-167.376 Z-6.931
X-173.247 Y-167.347 Z-6.969
X-173.306 Y-167.316 Z-6.992
X-173.369 Y-167.282 Z-7
G3 X-174.132 Y-167.096 I-0.745 J-1.396
G1 X-175.153 Y-167.143
X-175.591 Y-167.166
X-175.737 Y-167.174
X-175.886 Y-167.19
X-176.044 Y-167.225
X-176.231 Y-167.282
X-176.418 Y-167.356
X-176.638 Y-167.464
X-176.884 Y-167.611
X-177.142 Y-167.795
X-177.439 Y-168.044
X-177.764 Y-168.364
X-178.116 Y-168.772
X-178.495 Y-169.291
X-178.834 Y-169.837
X-179.139 Y-170.402
X-179.414 Y-170.982
X-179.664 Y-171.574
X-179.889 Y-172.175
X-180.091 Y-172.785
X-180.272 Y-173.401
X-180.431 Y-174.023
X-180.57 Y-174.65
X-180.688 Y-175.281
X-180.786 Y-175.916
X-180.863 Y-176.553
X-180.92 Y-177.193
X-180.956 Y-177.834
X-180.971 Y-178.476
X-180.967 Y-179.118
X-180.942 Y-179.76
X-180.896 Y-180.401
X-180.829 Y-181.039
X-180.742 Y-181.676
X-180.634 Y-182.309
X-180.505 Y-182.938
X-180.357 Y-183.562
X-180.188 Y-184.182
X-180 Y-184.796
X-179.792 Y-185.404
X-179.566 Y-186.005
X-179.32 Y-186.598
X-179.056 Y-187.183
X-178.773 Y-187.76
X-178.472 Y-188.327
X-178.154 Y-188.885
X-177.818 Y-189.432
X-177.464 Y-189.968
X-177.094 Y-190.493
X-177.058 Y-190.536
X-176.896 Y-190.684
X-176.697 Y-190.778
X-176.479 Y-190.809
X-174.93 Y-190.8
G3 X-174.757 Y-190.225 I-0.013 J0.317
G1 X-174.814 Y-190.184 Z-6.992
X-174.868 Y-190.145 Z-6.969
X-174.917 Y-190.109 Z-6.931
X-174.958 Y-190.08 Z-6.88
X-174.989 Y-190.058 Z-6.82
X-175.008 Y-190.044 Z-6.753
X-175.014 Y-190.039 Z-6.682
G0 Z5
X-174.69 Y-167.499
Z-6.365
G1 Z-6.682 F1000
X-174.697 Y-167.495 Z-6.753
X-174.718 Y-167.484 Z-6.82
X-174.751 Y-167.467 Z-6.88
X-174.796 Y-167.444 Z-6.931
X-174.849 Y-167.416 Z-6.969
X-174.909 Y-167.385 Z-6.992
X-174.972 Y-167.352 Z-7
G3 X-175.737 Y-167.174 I-0.73 J-1.404
G1 X-177.196 Y-167.258
X-177.345 Y-167.274
X-177.492 Y-167.306
X-177.662 Y-167.357
X-177.856 Y-167.433
X-178.052 Y-167.528
X-178.286 Y-167.667
X-178.532 Y-167.84
X-178.807 Y-168.069
X-179.1 Y-168.357
X-179.434 Y-168.74
X-179.798 Y-169.234
X-180.136 Y-169.78
X-180.437 Y-170.347
X-180.707 Y-170.93
X-180.949 Y-171.525
X-181.166 Y-172.129
X-181.361 Y-172.741
X-181.534 Y-173.359
X-181.687 Y-173.983
X-181.82 Y-174.612
X-181.933 Y-175.244
X-182.026 Y-175.879
X-182.1 Y-176.517
X-182.155 Y-177.157
X-182.19 Y-177.798
X-182.206 Y-178.44
X-182.203 Y-179.082
X-182.181 Y-179.724
X-182.139 Y-180.365
X-182.077 Y-181.004
X-181.997 Y-181.641
X-181.896 Y-182.275
X-181.776 Y-182.906
X-181.637 Y-183.533
X-181.478 Y-184.156
X-181.302 Y-184.773
X-181.107 Y-185.385
X-180.893 Y-185.991
X-180.662 Y-186.59
X-180.413 Y-187.182
X-180.147 Y-187.766
X-179.863 Y-188.342
X-179.562 Y-188.909
X-179.245 Y-189.467
X-178.91 Y-190.016
X-178.605 Y-190.485
X-178.572 Y-190.528
X-178.409 Y-190.683
X-178.208 Y-190.782
X-177.986 Y-190.816
X-177.488 Y-190.815
X-176.479 Y-190.809
G3 X-176.306 Y-190.235 I-0.013 J0.317
G1 X-176.363 Y-190.193 Z-6.992
X-176.418 Y-190.154 Z-6.969
X-176.466 Y-190.119 Z-6.931
X-176.507 Y-190.089 Z-6.88
X-176.538 Y-190.067 Z-6.82
X-176.557 Y-190.053 Z-6.753
X-176.563 Y-190.049 Z-6.682
G0 Z5
X-176.149 Y-167.582
Z-6.365
G1 Z-6.682 F1000
X-176.156 Y-167.579 Z-6.753
X-176.177 Y-167.568 Z-6.82
X-176.21 Y-167.55 Z-6.88
X-176.255 Y-167.527 Z-6.931
X-176.309 Y-167.499 Z-6.969
X-176.368 Y-167.468 Z-6.992
X-176.431 Y-167.436 Z-7
G3 X-177.196 Y-167.258 I-0.73 J-1.404
G1 X-178.589 Y-167.338
X-178.738 Y-167.354
X-178.885 Y-167.383
X-179.053 Y-167.432
X-179.227 Y-167.498
X-179.42 Y-167.589
X-179.649 Y-167.721
X-179.871 Y-167.874
X-180.138 Y-168.091
X-180.407 Y-168.349
X-180.719 Y-168.699
X-181.055 Y-169.145
X-181.4 Y-169.686
X-181.702 Y-170.253
X-181.97 Y-170.837
X-182.209 Y-171.433
X-182.422 Y-172.039
X-182.612 Y-172.652
X-182.781 Y-173.272
X-182.93 Y-173.896
X-183.059 Y-174.525
X-183.169 Y-175.158
X-183.26 Y-175.794
X-183.333 Y-176.432
X-183.388 Y-177.072
X-183.424 Y-177.713
X-183.442 Y-178.355
Y-178.997
X-183.424 Y-179.639
X-183.387 Y-180.28
X-183.332 Y-180.92
X-183.257 Y-181.558
X-183.165 Y-182.193
X-183.053 Y-182.826
X-182.924 Y-183.455
X-182.777 Y-184.08
X-182.612 Y-184.7
X-182.429 Y-185.316
X-182.229 Y-185.926
X-182.012 Y-186.531
X-181.778 Y-187.129
X-181.528 Y-187.72
X-181.261 Y-188.304
X-180.977 Y-188.88
X-180.678 Y-189.448
X-180.362 Y-190.008
X-180.099 Y-190.44
X-180.051 Y-190.506
X-179.888 Y-190.67
X-179.682 Y-190.776
X-179.453 Y-190.813
X-177.986 Y-190.816
G3 X-177.809 Y-190.243 I-0.011 J0.317
G1 X-177.866 Y-190.201 Z-6.992
X-177.92 Y-190.161 Z-6.969
X-177.968 Y-190.125 Z-6.931
X-178.009 Y-190.096 Z-6.88
X-178.039 Y-190.073 Z-6.82
X-178.058 Y-190.059 Z-6.753
X-178.065 Y-190.054 Z-6.682
G0 Z5
X-177.542 Y-167.662
Z-6.365
G1 Z-6.682 F1000
X-177.549 Y-167.659 Z-6.753
X-177.57 Y-167.648 Z-6.82
X-177.604 Y-167.63 Z-6.88
X-177.649 Y-167.607 Z-6.931
X-177.702 Y-167.579 Z-6.969
X-177.761 Y-167.548 Z-6.992
X-177.824 Y-167.516 Z-7
G3 X-178.589 Y-167.338 I-0.73 J-1.404
G1 X-179.968 Y-167.417
X-180.117 Y-167.433
X-180.264 Y-167.462
X-180.424 Y-167.507
X-180.589 Y-167.568
X-180.785 Y-167.66
X-180.99 Y-167.776
X-181.214 Y-167.928
X-181.469 Y-168.133
X-181.727 Y-168.377
X-182.018 Y-168.699
X-182.337 Y-169.117
X-182.676 Y-169.644
X-182.98 Y-170.21
X-183.246 Y-170.795
X-183.481 Y-171.392
X-183.69 Y-171.999
X-183.875 Y-172.614
X-184.039 Y-173.235
X-184.183 Y-173.861
X-184.308 Y-174.491
X-184.414 Y-175.124
X-184.503 Y-175.76
X-184.573 Y-176.399
X-184.626 Y-177.039
X-184.662 Y-177.68
X-184.68 Y-178.322
X-184.681 Y-178.964
X-184.665 Y-179.606
X-184.631 Y-180.247
X-184.58 Y-180.887
X-184.511 Y-181.526
X-184.424 Y-182.162
X-184.32 Y-182.796
X-184.198 Y-183.426
X-184.059 Y-184.053
X-183.903 Y-184.676
X-183.73 Y-185.295
X-183.541 Y-185.908
X-183.336 Y-186.517
X-183.114 Y-187.12
X-182.876 Y-187.716
X-182.623 Y-188.306
X-182.354 Y-188.889
X-182.07 Y-189.465
X-181.77 Y-190.033
X-181.539 Y-190.427
X-181.494 Y-190.493
X-181.376 Y-190.625
X-181.23 Y-190.725
X-181.064 Y-190.788
X-180.888 Y-190.81
X-179.453 Y-190.813
G3 X-179.275 Y-190.24 I-0.01 J0.317
G1 X-179.332 Y-190.198 Z-6.992
X-179.386 Y-190.158 Z-6.969
X-179.434 Y-190.122 Z-6.931
X-179.475 Y-190.092 Z-6.88
X-179.505 Y-190.07 Z-6.82
X-179.524 Y-190.056 Z-6.753
X-179.531 Y-190.051 Z-6.682
G0 Z5
X-178.921 Y-167.741
Z-6.365
G1 Z-6.682 F1000
X-178.928 Y-167.738 Z-6.753
X-178.949 Y-167.727 Z-6.82
X-178.983 Y-167.709 Z-6.88
X-179.027 Y-167.686 Z-6.931
X-179.081 Y-167.658 Z-6.969
X-179.14 Y-167.627 Z-6.992
X-179.203 Y-167.595 Z-7
G3 X-179.968 Y-167.417 I-0.73 J-1.404
G1 X-181.361 Y-167.497
X-181.511 Y-167.513
X-181.659 Y-167.534
X-181.805 Y-167.567
X-181.948 Y-167.612
X-182.088 Y-167.668
X-182.223 Y-167.732
X-182.355 Y-167.804
X-182.483 Y-167.882
X-182.606 Y-167.967
X-182.726 Y-168.057
X-182.843 Y-168.152
X-182.955 Y-168.252
X-183.064 Y-168.355
X-183.169 Y-168.462
X-183.271 Y-168.572
X-183.369 Y-168.685
X-183.464 Y-168.801
X-183.556 Y-168.919
X-183.646 Y-169.04
X-183.732 Y-169.162
X-183.816 Y-169.287
X-183.897 Y-169.413
X-183.976 Y-169.541
X-184.052 Y-169.67
X-184.126 Y-169.801
X-184.197 Y-169.933
X-184.267 Y-170.066
X-184.334 Y-170.2
X-184.4 Y-170.334
X-184.463 Y-170.47
X-184.525 Y-170.607
X-184.584 Y-170.745
X-184.643 Y-170.883
X-184.699 Y-171.022
X-184.754 Y-171.161
X-184.807 Y-171.302
X-184.859 Y-171.442
X-184.91 Y-171.584
X-184.959 Y-171.726
X-185.006 Y-171.868
X-185.052 Y-172.011
X-185.097 Y-172.154
X-185.141 Y-172.297
X-185.183 Y-172.441
X-185.224 Y-172.585
X-185.265 Y-172.734
X-185.304 Y-172.879
X-185.341 Y-173.024
X-185.378 Y-173.169
X-185.416 Y-173.327
X-185.45 Y-173.473
X-185.483 Y-173.62
X-185.515 Y-173.767
X-185.549 Y-173.93
X-185.583 Y-174.096
X-185.611 Y-174.243
X-185.64 Y-174.395
X-185.67 Y-174.565
X-185.701 Y-174.746
X-185.725 Y-174.894
X-185.75 Y-175.052
X-185.776 Y-175.228
X-185.802 Y-175.417
X-185.822 Y-175.565
X-185.843 Y-175.729
X-185.864 Y-175.912
X-185.885 Y-176.103
X-185.901 Y-176.256
X-185.917 Y-176.425
X-185.934 Y-176.616
X-185.949 Y-176.803
X-185.961 Y-176.961
X-185.973 Y-177.137
X-185.985 Y-177.336
X-185.994 Y-177.514
X-186.001 Y-177.678
X-186.008 Y-177.861
X-186.014 Y-178.069
X-186.018 Y-178.232
X-186.02 Y-178.401
X-186.021 Y-178.591
X-186.022 Y-178.797
X-186.02 Y-178.954
X-186.018 Y-179.128
X-186.014 Y-179.324
X-186.008 Y-179.516
X-186.002 Y-179.677
X-185.994 Y-179.856
X-185.984 Y-180.058
X-185.974 Y-180.234
X-185.963 Y-180.398
X-185.949 Y-180.581
X-185.933 Y-180.789
X-185.919 Y-180.948
X-185.903 Y-181.115
X-185.884 Y-181.302
X-185.861 Y-181.506
X-185.832 Y-181.745
X-185.795 Y-182.028
X-185.769 Y-182.218
X-185.745 Y-182.376
X-185.718 Y-182.551
X-185.686 Y-182.75
X-185.656 Y-182.926
X-185.627 Y-183.088
X-185.593 Y-183.27
X-185.554 Y-183.475
X-185.522 Y-183.635
X-185.487 Y-183.802
X-185.446 Y-183.99
X-185.402 Y-184.19
X-185.366 Y-184.345
X-185.325 Y-184.518
X-185.276 Y-184.713
X-185.23 Y-184.896
X-185.188 Y-185.056
X-185.14 Y-185.235
X-185.083 Y-185.437
X-185.037 Y-185.6
X-184.988 Y-185.765
X-184.932 Y-185.951
X-184.87 Y-186.149
X-184.822 Y-186.303
X-184.766 Y-186.473
X-184.702 Y-186.666
X-184.64 Y-186.845
X-184.585 Y-187.003
X-184.522 Y-187.18
X-184.448 Y-187.38
X-184.389 Y-187.537
X-184.327 Y-187.7
X-184.255 Y-187.883
X-184.178 Y-188.073
X-184.117 Y-188.224
X-184.046 Y-188.393
X-183.965 Y-188.583
X-183.892 Y-188.751
X-183.823 Y-188.905
X-183.745 Y-189.077
X-183.656 Y-189.272
X-183.592 Y-189.408
X-183.527 Y-189.543
X-183.458 Y-189.684
X-183.391 Y-189.818
X-183.323 Y-189.951
X-183.253 Y-190.084
X-183.18 Y-190.215
X-183.105 Y-190.345
X-183.024 Y-190.475
X-182.906 Y-190.613
X-182.758 Y-190.718
X-182.589 Y-190.784
X-182.409 Y-190.806
X-180.888 Y-190.81
G3 X-180.71 Y-190.237 I-0.01 J0.317
G1 X-180.767 Y-190.195 Z-6.992
X-180.821 Y-190.155 Z-6.969
X-180.869 Y-190.119 Z-6.931
X-180.91 Y-190.089 Z-6.88
X-180.94 Y-190.067 Z-6.82
X-180.959 Y-190.053 Z-6.753
X-180.965 Y-190.048 Z-6.682
G0 Z5
X-180.315 Y-167.821
Z-6.365
G1 Z-6.682 F1000
X-180.322 Y-167.817 Z-6.753
X-180.343 Y-167.807 Z-6.82
X-180.376 Y-167.789 Z-6.88
X-180.421 Y-167.766 Z-6.931
X-180.474 Y-167.738 Z-6.969
X-180.534 Y-167.707 Z-6.992
X-180.596 Y-167.675 Z-7
G3 X-181.361 Y-167.497 I-0.73 J-1.404
G1 X-182.448 Y-167.56
X-182.82 Y-167.584
X-182.969 Y-167.601
X-183.116 Y-167.634
X-183.27 Y-167.683
X-183.439 Y-167.751
X-183.626 Y-167.845
X-183.828 Y-167.967
X-184.048 Y-168.127
X-184.287 Y-168.331
X-184.545 Y-168.589
X-184.825 Y-168.92
X-185.128 Y-169.341
X-185.456 Y-169.885
X-185.743 Y-170.46
X-185.992 Y-171.051
X-186.211 Y-171.655
X-186.403 Y-172.268
X-186.572 Y-172.887
X-186.72 Y-173.512
X-186.849 Y-174.141
X-186.959 Y-174.774
X-187.051 Y-175.41
X-187.127 Y-176.047
X-187.185 Y-176.687
X-187.228 Y-177.328
X-187.254 Y-177.969
X-187.264 Y-178.611
X-187.258 Y-179.254
X-187.237 Y-179.895
X-187.199 Y-180.537
X-187.171 Y-180.856
X-187.156 Y-181.016
X-187.176 Y-181.176
X-187.229 Y-181.327
X-187.314 Y-181.463
X-187.427 Y-181.578
X-187.561 Y-181.666
X-187.711 Y-181.723
X-188.347 Y-181.815
X-188.987 Y-181.775
X-189.627 Y-181.717
X-190.269 Y-181.71
X-190.59 Y-181.726
X-191.012 Y-181.775
X-191.553 Y-181.884
X-191.84 Y-181.965
X-192.207 Y-182.103
X-192.654 Y-182.313
X-192.897 Y-182.451
X-193.196 Y-182.656
X-193.582 Y-182.968
X-193.773 Y-183.149
X-193.999 Y-183.401
X-194.276 Y-183.766
X-194.448 Y-184.034
X-194.596 Y-184.312
X-194.763 Y-184.697
X-194.884 Y-185.051
X-194.956 Y-185.338
X-195.021 Y-185.721
X-195.059 Y-186.142
X-195.061 Y-186.419
X-195.034 Y-186.777
X-194.963 Y-187.239
X-194.903 Y-187.493
X-194.799 Y-187.811
X-194.625 Y-188.229
X-194.484 Y-188.504
X-194.319 Y-188.77
X-194.073 Y-189.105
X-193.827 Y-189.387
X-193.618 Y-189.592
X-193.323 Y-189.837
X-192.975 Y-190.083
X-192.738 Y-190.223
X-192.417 Y-190.379
X-191.978 Y-190.551
X-191.73 Y-190.625
X-191.407 Y-190.695
X-191.05 Y-190.743
X-191.02 Y-190.746
X-190.99 Y-190.748
X-190.959 Y-190.749
X-190.619 Y-190.752
X-190.222 Y-190.735
X-189.791 Y-190.682
X-189.49 Y-190.62
X-189.199 Y-190.536
X-188.826 Y-190.394
X-188.477 Y-190.228
X-188.231 Y-190.086
X-187.927 Y-189.876
X-187.585 Y-189.596
X-187.392 Y-189.411
X-187.278 Y-189.282
X-187.176 Y-189.158
X-187.079 Y-189.03
X-186.956 Y-188.927
X-186.814 Y-188.852
X-186.659 Y-188.81
X-186.499 Y-188.801
X-186.341 Y-188.828
X-186.043 Y-188.948
X-185.532 Y-189.338
X-185.101 Y-189.813
X-184.713 Y-190.325
X-184.566 Y-190.515
X-184.404 Y-190.67
X-184.203 Y-190.769
X-183.982 Y-190.803
G3 X-183.804 Y-190.23 I-0.01 J0.317
G1 X-183.861 Y-190.188 Z-6.992
X-183.915 Y-190.148 Z-6.969
X-183.963 Y-190.113 Z-6.931
X-184.003 Y-190.083 Z-6.88
X-184.034 Y-190.06 Z-6.82
X-184.053 Y-190.046 Z-6.753
X-184.059 Y-190.042 Z-6.682
G0 Z5
X-191.642 Y-190.359
Z-6.365
G1 Z-6.682 F1000
X-191.635 Y-190.364 Z-6.753
X-191.615 Y-190.376 Z-6.82
X-191.583 Y-190.395 Z-6.88
X-191.54 Y-190.421 Z-6.931
X-191.489 Y-190.453 Z-6.969
X-191.431 Y-190.487 Z-6.992
X-191.371 Y-190.524 Z-7
G3 X-190.619 Y-190.752 I0.821 J1.353
G1 X-188.431 Y-190.769
X-188.238 Y-190.761
X-188.07 Y-190.741
X-187.755 Y-190.676
X-187.434
X-186.975 Y-190.768
X-186.929 Y-190.775
X-186.882 Y-190.78
X-186.835 Y-190.782
G3 X-186.841 Y-190.147 I-0.009 J0.317
G1 X-188.415 Y-190.135
G3 X-188.431 Y-190.769 I-0.003 J-0.317
G1 X-184.345 Y-190.802
X-182.409 Y-190.806
G3 X-182.231 Y-190.234 I-0.01 J0.317
G1 X-182.287 Y-190.192 Z-6.992
X-182.342 Y-190.152 Z-6.969
X-182.39 Y-190.116 Z-6.931
X-182.43 Y-190.086 Z-6.88
X-182.461 Y-190.064 Z-6.82
X-182.48 Y-190.05 Z-6.753
X-182.486 Y-190.045 Z-6.682
G0 Z5
X-181.771 Y-167.9
Z-6.365
G1 Z-6.682 F1000
X-181.778 Y-167.896 Z-6.753
X-181.799 Y-167.885 Z-6.82
X-181.833 Y-167.868 Z-6.88
X-181.878 Y-167.845 Z-6.931
X-181.931 Y-167.818 Z-6.969
X-181.991 Y-167.788 Z-6.992
X-182.054 Y-167.756 Z-7
G3 X-182.82 Y-167.584 I-0.718 J-1.41
G1 X-184.134 Y-167.673
X-184.283 Y-167.691
X-184.429 Y-167.721
X-184.579 Y-167.766
X-184.741 Y-167.829
X-184.931 Y-167.921
X-185.12 Y-168.032
X-185.336 Y-168.185
X-185.573 Y-168.381
X-185.817 Y-168.619
X-186.087 Y-168.928
X-186.381 Y-169.326
X-186.685 Y-169.814
X-186.979 Y-170.385
X-187.233 Y-170.975
X-187.453 Y-171.578
X-187.646 Y-172.191
X-187.814 Y-172.81
X-187.961 Y-173.435
X-188.089 Y-174.065
X-188.198 Y-174.698
X-188.289 Y-175.333
X-188.365 Y-175.971
X-188.423 Y-176.611
X-188.466 Y-177.251
X-188.494 Y-177.893
X-188.506 Y-178.535
X-188.505 Y-178.695
X-188.533 Y-178.854
X-188.656 Y-179.15
X-189.073 Y-179.638
X-189.631 Y-179.957
X-190.233 Y-180.18
X-190.849 Y-180.362
X-191.465 Y-180.542
X-192.074 Y-180.748
X-192.632 Y-180.977
X-193.136 Y-181.232
X-193.575 Y-181.501
X-193.967 Y-181.787
X-194.35 Y-182.116
X-194.686 Y-182.455
X-194.98 Y-182.805
X-195.255 Y-183.19
X-195.496 Y-183.593
X-195.694 Y-183.994
X-195.863 Y-184.418
X-196.001 Y-184.869
X-196.097 Y-185.301
X-196.158 Y-185.741
X-196.185 Y-186.217
X-196.175 Y-186.658
X-196.13 Y-187.092
X-196.044 Y-187.551
X-195.927 Y-187.983
X-195.78 Y-188.393
X-195.593 Y-188.807
X-195.371 Y-189.207
X-195.13 Y-189.571
X-194.854 Y-189.923
X-194.537 Y-190.265
X-194.257 Y-190.524
X-194.11 Y-190.629
X-193.942 Y-190.695
X-193.763 Y-190.719
X-190.959 Y-190.749
G0 Z5
X-183.084 Y-167.986
Z-6.365
G1 Z-6.682 F1000
X-183.091 Y-167.983 Z-6.753
X-183.112 Y-167.972 Z-6.82
X-183.145 Y-167.955 Z-6.88
X-183.19 Y-167.932 Z-6.931
X-183.244 Y-167.905 Z-6.969
X-183.304 Y-167.875 Z-6.992
X-183.367 Y-167.843 Z-7
G3 X-184.134 Y-167.673 I-0.715 J-1.412
G1 X-185.512 Y-167.766
X-185.661 Y-167.784
X-185.807 Y-167.82
X-185.958 Y-167.87
X-186.136 Y-167.946
X-186.316 Y-168.04
X-186.519 Y-168.168
X-186.742 Y-168.336
X-186.969 Y-168.537
X-187.229 Y-168.806
X-187.493 Y-169.128
X-187.777 Y-169.54
X-188.086 Y-170.072
X-188.363 Y-170.652
X-188.6 Y-171.248
X-188.807 Y-171.857
X-188.986 Y-172.473
X-189.142 Y-173.096
X-189.277 Y-173.724
X-189.394 Y-174.355
X-189.493 Y-174.99
X-189.575 Y-175.627
X-189.641 Y-176.266
X-189.691 Y-176.906
X-189.72 Y-177.226
X-189.824 Y-177.53
X-190.146 Y-178.085
X-190.62 Y-178.519
X-191.163 Y-178.862
X-191.735 Y-179.154
X-192.316 Y-179.426
X-192.895 Y-179.706
X-193.462 Y-180.007
X-194.01 Y-180.341
X-194.534 Y-180.713
X-195.006 Y-181.108
X-195.434 Y-181.53
X-195.819 Y-181.975
X-196.158 Y-182.438
X-196.455 Y-182.919
X-196.712 Y-183.423
X-196.924 Y-183.937
X-197.092 Y-184.461
X-197.22 Y-185.003
X-197.302 Y-185.546
X-197.34 Y-186.087
X-197.334 Y-186.635
X-197.285 Y-187.179
X-197.193 Y-187.711
X-197.058 Y-188.237
X-196.881 Y-188.752
X-196.664 Y-189.247
X-196.409 Y-189.723
X-196.113 Y-190.182
X-195.937 Y-190.412
X-195.777 Y-190.567
X-195.577 Y-190.666
X-195.357 Y-190.702
X-193.763 Y-190.719
G3 X-193.58 Y-190.148 I-0.008 J0.317
G1 X-193.636 Y-190.106 Z-6.992
X-193.69 Y-190.065 Z-6.969
X-193.738 Y-190.029 Z-6.931
X-193.779 Y-189.999 Z-6.88
X-193.809 Y-189.976 Z-6.82
X-193.828 Y-189.962 Z-6.753
X-193.834 Y-189.958 Z-6.682
G0 Z5
X-184.462 Y-168.08
Z-6.365
G1 Z-6.682 F1000
X-184.47 Y-168.076 Z-6.753
X-184.49 Y-168.066 Z-6.82
X-184.524 Y-168.048 Z-6.88
X-184.569 Y-168.026 Z-6.931
X-184.623 Y-167.999 Z-6.969
X-184.683 Y-167.968 Z-6.992
X-184.746 Y-167.936 Z-7
G3 X-185.512 Y-167.766 I-0.715 J-1.412
G1 X-186.826 Y-167.856
X-186.975 Y-167.873
X-187.12 Y-167.908
X-187.272 Y-167.958
X-187.436 Y-168.027
X-187.627 Y-168.127
X-187.815 Y-168.244
X-188.033 Y-168.407
X-188.263 Y-168.608
X-188.508 Y-168.861
X-188.769 Y-169.177
X-189.055 Y-169.586
X-189.354 Y-170.097
X-189.632 Y-170.676
X-189.87 Y-171.272
X-190.074 Y-171.881
X-190.251 Y-172.499
X-190.404 Y-173.122
X-190.536 Y-173.751
X-190.65 Y-174.383
X-190.746 Y-175.018
X-190.825 Y-175.655
X-190.951 Y-176.285
X-191.26 Y-176.848
X-191.694 Y-177.321
X-192.195 Y-177.722
X-192.73 Y-178.077
X-193.828 Y-178.744
X-194.369 Y-179.091
X-194.895 Y-179.459
X-195.4 Y-179.855
X-195.88 Y-180.282
X-196.33 Y-180.74
X-196.746 Y-181.229
X-197.125 Y-181.748
X-197.463 Y-182.294
X-197.758 Y-182.864
X-198.008 Y-183.456
X-198.21 Y-184.065
X-198.364 Y-184.689
X-198.389 Y-184.847
X-198.412 Y-185.005
X-198.496 Y-185.698
X-198.52 Y-186.324
X-198.494 Y-186.954
X-198.417 Y-187.582
X-198.289 Y-188.205
X-198.112 Y-188.815
X-197.887 Y-189.408
X-197.623 Y-189.964
X-197.415 Y-190.325
X-197.386 Y-190.367
X-197.269 Y-190.5
X-197.124 Y-190.6
X-196.959 Y-190.664
X-196.784 Y-190.687
X-195.357 Y-190.702
G3 X-195.174 Y-190.131 I-0.008 J0.317
G1 X-195.23 Y-190.089 Z-6.992
X-195.284 Y-190.048 Z-6.969
X-195.332 Y-190.012 Z-6.931
X-195.373 Y-189.982 Z-6.88
X-195.403 Y-189.959 Z-6.82
X-195.422 Y-189.945 Z-6.753
X-195.428 Y-189.941 Z-6.682
G0 Z5
X-185.776 Y-168.169
Z-6.365
G1 Z-6.682 F1000
X-185.783 Y-168.165 Z-6.753
X-185.804 Y-168.155 Z-6.82
X-185.837 Y-168.137 Z-6.88
X-185.882 Y-168.115 Z-6.931
X-185.936 Y-168.088 Z-6.969
X-185.996 Y-168.057 Z-6.992
X-186.059 Y-168.025 Z-7
G3 X-186.826 Y-167.856 I-0.715 J-1.412
G1 X-188.139 Y-167.945
X-188.288 Y-167.962
X-188.434 Y-167.998
X-188.579 Y-168.046
X-188.745 Y-168.117
X-188.933 Y-168.215
X-189.121 Y-168.333
X-189.343 Y-168.499
X-189.563 Y-168.692
X-189.813 Y-168.951
X-190.064 Y-169.257
X-190.344 Y-169.66
X-190.638 Y-170.166
X-190.916 Y-170.745
X-191.151 Y-171.342
X-191.352 Y-171.952
X-191.525 Y-172.571
X-191.675 Y-173.195
X-191.803 Y-173.824
X-191.913 Y-174.457
X-192.05 Y-175.085
X-192.33 Y-175.662
X-192.721 Y-176.172
X-193.182 Y-176.619
X-193.681 Y-177.023
X-194.199 Y-177.403
X-194.721 Y-177.777
X-195.24 Y-178.156
X-195.748 Y-178.548
X-196.24 Y-178.961
X-196.712 Y-179.396
X-197.16 Y-179.856
X-197.58 Y-180.342
X-197.967 Y-180.854
X-198.321 Y-181.391
X-198.4 Y-181.53
X-198.745 Y-182.165
X-199.011 Y-182.749
X-199.236 Y-183.351
X-199.281 Y-183.505
G3 X-198.778 Y-183.833 I0.308 J-0.076
G1 X-198.722 Y-183.789 Z-6.992
X-198.669 Y-183.748 Z-6.969
X-198.621 Y-183.711 Z-6.931
X-198.582 Y-183.68 Z-6.88
X-198.552 Y-183.657 Z-6.82
X-198.533 Y-183.643 Z-6.753
X-198.527 Y-183.638 Z-6.682
G0 Z5
X-187.089 Y-168.258
Z-6.365
G1 Z-6.682 F1000
X-187.096 Y-168.254 Z-6.753
X-187.117 Y-168.244 Z-6.82
X-187.151 Y-168.227 Z-6.88
X-187.195 Y-168.204 Z-6.931
X-187.249 Y-168.177 Z-6.969
X-187.309 Y-168.146 Z-6.992
X-187.372 Y-168.114 Z-7
G3 X-188.139 Y-167.945 I-0.715 J-1.412
G1 X-189.306 Y-168.024
X-189.452 Y-168.034
X-189.601 Y-168.053
X-189.746 Y-168.089
X-189.891 Y-168.138
X-190.059 Y-168.21
X-190.243 Y-168.308
X-190.432 Y-168.429
X-190.655 Y-168.598
X-190.87 Y-168.79
X-191.123 Y-169.055
X-191.369 Y-169.358
X-191.644 Y-169.76
X-191.934 Y-170.266
X-192.208 Y-170.846
X-192.44 Y-171.446
X-192.637 Y-172.057
X-192.805 Y-172.676
X-192.95 Y-173.302
X-193.109 Y-173.924
X-193.366 Y-174.513
X-193.721 Y-175.048
X-194.143 Y-175.532
X-194.609 Y-175.974
X-195.097 Y-176.391
X-196.094 Y-177.201
X-196.587 Y-177.613
X-197.068 Y-178.038
X-197.534 Y-178.48
X-197.979 Y-178.942
X-198.401 Y-179.427
X-198.843 Y-179.998
X-198.888 Y-180.065
G3 X-198.512 Y-180.532 I0.269 J-0.169
G1 X-198.446 Y-180.509 Z-6.992
X-198.383 Y-180.486 Z-6.969
X-198.326 Y-180.466 Z-6.931
X-198.279 Y-180.449 Z-6.88
X-198.243 Y-180.436 Z-6.82
X-198.221 Y-180.428 Z-6.753
X-198.213 Y-180.426 Z-6.682
G0 Z5
X-188.401 Y-168.344
Z-6.365
G1 Z-6.682 F1000
X-188.408 Y-168.341 Z-6.753
X-188.429 Y-168.33 Z-6.82
X-188.463 Y-168.313 Z-6.88
X-188.508 Y-168.291 Z-6.931
X-188.561 Y-168.264 Z-6.969
X-188.621 Y-168.233 Z-6.992
X-188.685 Y-168.202 Z-7
G3 X-189.452 Y-168.034 I-0.71 J-1.414
G1 X-189.744 Y-168.055
X-190.765 Y-168.135
X-190.914 Y-168.154
X-191.059 Y-168.191
X-191.203 Y-168.241
X-191.369 Y-168.314
X-191.553 Y-168.412
X-191.74 Y-168.533
X-191.962 Y-168.702
X-192.174 Y-168.894
X-192.424 Y-169.159
X-192.667 Y-169.461
X-192.94 Y-169.863
X-193.225 Y-170.366
X-193.496 Y-170.949
X-193.724 Y-171.549
X-193.918 Y-172.161
X-194.107 Y-172.775
X-194.352 Y-173.369
X-194.677 Y-173.922
X-195.067 Y-174.433
X-195.5 Y-174.907
X-195.962 Y-175.353
X-196.437 Y-175.785
X-196.918 Y-176.21
X-197.397 Y-176.638
X-197.869 Y-177.074
X-198.329 Y-177.522
X-198.44 Y-177.638
X-198.713 Y-177.932
X-198.82 Y-178.052
X-198.95 Y-178.146
X-199.098 Y-178.209
X-199.728 Y-178.331
X-200.37 Y-178.325
X-201.013 Y-178.322
X-202.297 Y-178.319
X-205.508 Y-178.318
X-218.432
X-218.572 Y-178.37
X-218.691 Y-178.461
X-218.796 Y-178.569
X-218.888 Y-178.688
X-218.982 Y-178.834
X-219.083 Y-179.021
X-219.19 Y-179.264
X-219.302 Y-179.587
X-219.419 Y-180.037
X-219.53 Y-180.67
X-219.593 Y-181.309
X-219.63 Y-181.95
X-219.652 Y-182.592
X-219.665 Y-183.234
X-219.672 Y-183.876
X-219.676 Y-184.461
X-219.61 Y-184.596
X-219.515 Y-184.712
X-219.405 Y-184.814
X-219.285 Y-184.904
X-219.132 Y-184.999
X-218.936 Y-185.102
X-218.681 Y-185.21
X-218.34 Y-185.323
X-217.859 Y-185.44
X-217.225 Y-185.542
X-216.586 Y-185.6
X-215.944 Y-185.634
X-215.302 Y-185.654
X-214.66 Y-185.666
X-214.018 Y-185.673
X-213.376 Y-185.677
X-212.092 Y-185.681
X-209.523 Y-185.682
X-208.881
X-201.496
X-201.189 Y-185.778
X-200.924 Y-185.959
X-200.471 Y-186.414
X-200.15 Y-186.97
X-199.903 Y-187.563
X-199.684 Y-188.167
X-199.468 Y-188.772
X-199.237 Y-189.371
X-198.979 Y-189.959
X-198.801 Y-190.289
X-198.773 Y-190.334
X-198.656 Y-190.473
X-198.508 Y-190.58
X-198.339 Y-190.648
X-198.159 Y-190.672
X-196.784 Y-190.687
G3 X-196.601 Y-190.116 I-0.008 J0.317
G1 X-196.658 Y-190.073 Z-6.992
X-196.711 Y-190.033 Z-6.969
X-196.76 Y-189.997 Z-6.931
X-196.8 Y-189.967 Z-6.88
X-196.83 Y-189.944 Z-6.82
X-196.849 Y-189.93 Z-6.753
X-196.855 Y-189.925 Z-6.682
G0 Z5
X-189.712 Y-168.438
Z-6.365
G1 Z-6.682 F1000
X-189.719 Y-168.434 Z-6.753
X-189.74 Y-168.424 Z-6.82
X-189.774 Y-168.407 Z-6.88
X-189.819 Y-168.385 Z-6.931
X-189.873 Y-168.358 Z-6.969
X-189.933 Y-168.328 Z-6.992
X-189.997 Y-168.297 Z-7
G3 X-190.765 Y-168.135 I-0.701 J-1.419
G1 X-192.078 Y-168.238
X-192.227 Y-168.257
X-192.372 Y-168.296
X-192.516 Y-168.347
X-192.684 Y-168.422
X-192.866 Y-168.522
X-193.055 Y-168.647
X-193.276 Y-168.82
X-193.488 Y-169.014
X-193.739 Y-169.285
X-193.979 Y-169.59
X-194.248 Y-169.996
X-194.537 Y-170.518
X-194.802 Y-171.102
X-195.043 Y-171.698
X-195.306 Y-172.284
X-195.622 Y-172.843
X-195.991 Y-173.368
X-196.402 Y-173.862
X-196.841 Y-174.33
X-197.297 Y-174.782
X-197.762 Y-175.226
X-198.228 Y-175.667
X-198.69 Y-176.114
X-199.217 Y-176.48
X-199.818 Y-176.708
X-200.445 Y-176.846
X-201.082 Y-176.929
X-201.722 Y-176.978
X-202.364 Y-177.007
X-203.005 Y-177.024
X-203.648 Y-177.034
X-204.29 Y-177.039
X-204.932 Y-177.043
X-206.216 Y-177.046
X-209.427 Y-177.047
X-217.133 Y-177.048
X-217.551 Y-177.053
X-217.851 Y-177.082
X-218.079 Y-177.122
X-218.289 Y-177.177
X-218.489 Y-177.246
X-218.678 Y-177.33
X-218.863 Y-177.429
X-219.042 Y-177.546
X-219.22 Y-177.684
X-219.402 Y-177.848
X-219.581 Y-178.039
X-219.753 Y-178.255
X-219.937 Y-178.528
X-220.102 Y-178.822
X-220.28 Y-179.208
X-220.441 Y-179.646
X-220.598 Y-180.209
X-220.72 Y-180.839
X-220.801 Y-181.476
X-220.855 Y-182.116
X-220.89 Y-182.758
X-220.913 Y-183.399
X-220.904 Y-183.693
X-220.875 Y-183.949
X-220.834 Y-184.161
X-220.779 Y-184.358
X-220.708 Y-184.549
X-220.623 Y-184.733
X-220.521 Y-184.914
X-220.401 Y-185.092
X-220.261 Y-185.267
X-220.093 Y-185.446
X-219.897 Y-185.623
X-219.675 Y-185.795
X-219.392 Y-185.978
X-219.09 Y-186.141
X-218.691 Y-186.316
X-218.231 Y-186.476
X-217.633 Y-186.632
X-217 Y-186.743
X-216.362 Y-186.816
X-215.722 Y-186.865
X-215.081 Y-186.897
X-214.439 Y-186.917
X-213.797 Y-186.93
X-213.155 Y-186.938
X-212.512 Y-186.944
X-211.87 Y-186.947
X-210.586 Y-186.95
X-209.944 Y-186.951
X-205.448 Y-186.952
X-203.201
X-202.882 Y-186.993
X-202.276 Y-187.206
X-201.78 Y-187.613
X-201.381 Y-188.117
X-201.048 Y-188.666
X-200.751 Y-189.235
X-200.466 Y-189.811
X-200.247 Y-190.218
X-200.182 Y-190.318
X-200.065 Y-190.458
X-199.917 Y-190.564
X-199.748 Y-190.632
X-199.568 Y-190.656
X-198.159 Y-190.672
G3 X-197.975 Y-190.101 I-0.008 J0.317
G1 X-198.032 Y-190.059 Z-6.992
X-198.086 Y-190.018 Z-6.969
X-198.134 Y-189.982 Z-6.931
X-198.174 Y-189.952 Z-6.88
X-198.204 Y-189.929 Z-6.82
X-198.223 Y-189.915 Z-6.753
X-198.229 Y-189.91 Z-6.682
G0 Z5
X-191.025 Y-168.54
Z-6.365
G1 Z-6.682 F1000
X-191.032 Y-168.537 Z-6.753
X-191.053 Y-168.526 Z-6.82
X-191.087 Y-168.51 Z-6.88
X-191.132 Y-168.487 Z-6.931
X-191.186 Y-168.461 Z-6.969
X-191.246 Y-168.431 Z-6.992
X-191.31 Y-168.4 Z-7
G3 X-192.078 Y-168.238 I-0.701 J-1.419
G1 X-193.326 Y-168.335
X-193.475 Y-168.354
X-193.621 Y-168.388
X-193.767 Y-168.436
X-193.922 Y-168.502
X-194.104 Y-168.596
X-194.284 Y-168.708
X-194.49 Y-168.861
X-194.709 Y-169.053
X-194.938 Y-169.289
X-195.197 Y-169.601
X-195.515 Y-170.056
X-195.84 Y-170.61
X-196.149 Y-171.173
X-196.477 Y-171.725
X-196.838 Y-172.256
X-197.233 Y-172.763
X-197.654 Y-173.247
X-198.093 Y-173.716
X-198.544 Y-174.174
X-199.009 Y-174.616
X-199.541 Y-174.977
X-200.125 Y-175.242
X-200.741 Y-175.426
X-201.371 Y-175.551
X-202.007 Y-175.633
X-202.647 Y-175.686
X-203.289 Y-175.72
X-203.931 Y-175.742
X-204.573 Y-175.755
X-205.215 Y-175.764
X-205.857 Y-175.769
X-206.499 Y-175.772
X-207.783 Y-175.776
X-210.352 Y-175.777
X-216.132
X-216.774 Y-175.782
X-217.34 Y-175.816
X-217.799 Y-175.88
X-218.184 Y-175.966
X-218.539 Y-176.076
X-218.871 Y-176.208
X-219.186 Y-176.364
X-219.486 Y-176.545
X-219.774 Y-176.751
X-220.054 Y-176.988
X-220.324 Y-177.256
X-220.591 Y-177.568
X-220.84 Y-177.91
X-221.075 Y-178.295
X-221.308 Y-178.755
X-221.527 Y-179.295
X-221.721 Y-179.907
X-221.867 Y-180.532
X-221.974 Y-181.165
X-222.051 Y-181.803
X-222.105 Y-182.443
X-222.122 Y-183.029
X-222.099 Y-183.482
X-222.046 Y-183.882
X-221.97 Y-184.238
X-221.869 Y-184.572
X-221.745 Y-184.889
X-221.597 Y-185.193
X-221.424 Y-185.486
X-221.225 Y-185.769
X-220.993 Y-186.048
X-220.73 Y-186.317
X-220.439 Y-186.57
X-220.105 Y-186.816
X-219.716 Y-187.058
X-219.249 Y-187.299
X-218.75 Y-187.506
X-218.14 Y-187.705
X-217.515 Y-187.854
X-216.882 Y-187.964
X-216.245 Y-188.043
X-215.605 Y-188.1
X-214.964 Y-188.139
X-214.323 Y-188.167
X-213.681 Y-188.185
X-213.039 Y-188.198
X-212.397 Y-188.206
X-211.755 Y-188.212
X-211.112 Y-188.216
X-209.828 Y-188.22
X-207.259 Y-188.222
X-204.691
X-204.049 Y-188.241
X-203.44 Y-188.447
X-202.915 Y-188.816
X-202.47 Y-189.279
X-202.082 Y-189.791
X-201.719 Y-190.32
X-201.69 Y-190.358
X-201.53 Y-190.507
X-201.333 Y-190.604
X-201.117 Y-190.639
X-199.568 Y-190.656
G3 X-199.385 Y-190.085 I-0.007 J0.317
G1 X-199.441 Y-190.043 Z-6.992
X-199.495 Y-190.002 Z-6.969
X-199.543 Y-189.966 Z-6.931
X-199.583 Y-189.936 Z-6.88
X-199.614 Y-189.913 Z-6.82
X-199.632 Y-189.899 Z-6.753
X-199.639 Y-189.894 Z-6.682
G0 Z5
X-192.273 Y-168.638
Z-6.365
G1 Z-6.682 F1000
X-192.28 Y-168.634 Z-6.753
X-192.301 Y-168.624 Z-6.82
X-192.335 Y-168.607 Z-6.88
X-192.38 Y-168.585 Z-6.931
X-192.434 Y-168.558 Z-6.969
X-192.494 Y-168.528 Z-6.992
X-192.557 Y-168.497 Z-7
G3 X-193.326 Y-168.335 I-0.7 J-1.419
G1 X-194.559 Y-168.431
X-194.729 Y-168.453
X-194.876 Y-168.484
X-195.019 Y-168.528
X-195.179 Y-168.592
X-195.364 Y-168.684
X-195.545 Y-168.793
X-195.758 Y-168.945
X-196.001 Y-169.151
X-196.293 Y-169.44
X-196.711 Y-169.928
X-197.094 Y-170.443
X-197.473 Y-170.961
X-197.865 Y-171.47
X-198.274 Y-171.966
X-198.698 Y-172.448
X-199.138 Y-172.915
X-199.627 Y-173.331
X-200.173 Y-173.67
X-200.762 Y-173.925
X-201.378 Y-174.109
X-202.006 Y-174.239
X-202.642 Y-174.329
X-203.282 Y-174.39
X-203.923 Y-174.43
X-204.564 Y-174.457
X-205.206 Y-174.475
X-205.848 Y-174.487
X-206.49 Y-174.494
X-207.133 Y-174.499
X-207.775 Y-174.502
X-209.059 Y-174.505
X-211.628 Y-174.507
X-214.839
X-215.481 Y-174.508
X-216.123 Y-174.515
X-216.765 Y-174.542
X-217.404 Y-174.603
X-217.977 Y-174.702
X-218.482 Y-174.831
X-218.955 Y-174.993
X-219.398 Y-175.187
X-219.819 Y-175.412
X-220.219 Y-175.669
X-220.602 Y-175.962
X-220.968 Y-176.291
X-221.316 Y-176.658
X-221.651 Y-177.074
X-221.969 Y-177.543
X-222.256 Y-178.047
X-222.527 Y-178.629
X-222.751 Y-179.23
X-222.932 Y-179.847
X-223.075 Y-180.473
X-223.186 Y-181.105
X-223.267 Y-181.742
X-223.315 Y-182.383
X-223.318 Y-183.015
X-223.277 Y-183.56
X-223.199 Y-184.056
X-223.086 Y-184.526
X-222.94 Y-184.971
X-222.762 Y-185.396
X-222.552 Y-185.803
X-222.308 Y-186.193
X-222.032 Y-186.567
X-221.718 Y-186.925
X-221.363 Y-187.271
X-220.955 Y-187.609
X-220.506 Y-187.924
X-220.021 Y-188.209
X-219.457 Y-188.482
X-218.859 Y-188.715
X-218.245 Y-188.903
X-217.62 Y-189.052
X-216.988 Y-189.168
X-216.352 Y-189.257
X-215.714 Y-189.323
X-215.073 Y-189.372
X-214.432 Y-189.408
X-213.79 Y-189.434
X-213.149 Y-189.452
X-212.506 Y-189.465
X-211.864 Y-189.474
X-211.222 Y-189.48
X-210.58 Y-189.484
X-209.296 Y-189.489
X-207.369 Y-189.491
X-206.085 Y-189.492
X-205.443 Y-189.494
X-204.807 Y-189.586
X-204.222 Y-189.852
X-203.705 Y-190.233
X-203.497 Y-190.423
X-203.35 Y-190.528
X-203.183 Y-190.594
X-203.004 Y-190.618
X-201.117 Y-190.639
G3 X-200.934 Y-190.068 I-0.008 J0.317
G1 X-200.99 Y-190.025 Z-6.992
X-201.044 Y-189.985 Z-6.969
X-201.092 Y-189.949 Z-6.931
X-201.132 Y-189.919 Z-6.88
X-201.162 Y-189.896 Z-6.82
X-201.181 Y-189.882 Z-6.753
X-201.188 Y-189.877 Z-6.682
G0 Z5
X-193.506 Y-168.734
Z-6.365
G1 Z-6.682 F1000
X-193.513 Y-168.73 Z-6.753
X-193.534 Y-168.72 Z-6.82
X-193.568 Y-168.703 Z-6.88
X-193.613 Y-168.681 Z-6.931
X-193.667 Y-168.654 Z-6.969
X-193.727 Y-168.625 Z-6.992
X-193.79 Y-168.593 Z-7
G3 X-194.559 Y-168.431 I-0.701 J-1.419
G1 X-195.872 Y-168.534
X-196.048 Y-168.556
X-196.195 Y-168.588
X-196.363 Y-168.638
X-196.536 Y-168.706
X-196.736 Y-168.803
X-196.975 Y-168.944
X-197.263 Y-169.147
X-197.666 Y-169.482
X-198.126 Y-169.931
X-198.562 Y-170.402
X-198.993 Y-170.878
X-199.429 Y-171.35
X-199.898 Y-171.788
X-200.419 Y-172.164
X-200.987 Y-172.463
X-201.588 Y-172.689
X-202.209 Y-172.855
X-202.84 Y-172.974
X-203.477 Y-173.058
X-204.116 Y-173.116
X-204.757 Y-173.156
X-205.399 Y-173.183
X-206.041 Y-173.201
X-206.683 Y-173.214
X-207.325 Y-173.222
X-207.967 Y-173.227
X-208.609 Y-173.231
X-209.893 Y-173.235
X-212.462 Y-173.237
X-214.389 Y-173.238
X-215.031 Y-173.24
X-215.673 Y-173.249
X-216.315 Y-173.274
X-216.955 Y-173.323
X-217.592 Y-173.405
X-218.222 Y-173.528
X-218.842 Y-173.698
X-219.422 Y-173.908
X-219.968 Y-174.157
X-220.486 Y-174.445
X-220.976 Y-174.772
X-221.441 Y-175.14
X-221.885 Y-175.552
X-222.308 Y-176.014
X-222.702 Y-176.521
X-223.054 Y-177.058
X-223.366 Y-177.619
X-223.636 Y-178.202
X-223.866 Y-178.801
X-224.06 Y-179.414
X-224.218 Y-180.036
X-224.345 Y-180.666
X-224.44 Y-181.301
X-224.502 Y-181.94
X-224.525 Y-182.582
X-224.504 Y-183.223
X-224.435 Y-183.856
X-224.322 Y-184.452
X-224.167 Y-185.015
X-223.971 Y-185.552
X-223.735 Y-186.068
X-223.459 Y-186.562
X-223.141 Y-187.037
X-222.781 Y-187.491
X-222.377 Y-187.924
X-221.926 Y-188.336
X-221.428 Y-188.721
X-220.891 Y-189.072
X-220.328 Y-189.381
X-219.744 Y-189.649
X-219.144 Y-189.877
X-218.53 Y-190.067
X-217.908 Y-190.224
X-217.278 Y-190.351
X-216.644 Y-190.452
X-216.358 Y-190.487
X-216.33 Y-190.489
X-216.302 Y-190.49
X-212.797 Y-190.518
X-208.712 Y-190.557
X-203.004 Y-190.618
G3 X-202.821 Y-190.047 I-0.008 J0.317
G1 X-202.878 Y-190.004 Z-6.992
X-202.932 Y-189.964 Z-6.969
X-202.98 Y-189.928 Z-6.931
X-203.02 Y-189.898 Z-6.88
X-203.05 Y-189.875 Z-6.82
X-203.069 Y-189.861 Z-6.753
X-203.075 Y-189.856 Z-6.682
G0 Z5
X-194.819 Y-168.836
Z-6.365
G1 Z-6.682 F1000
X-194.826 Y-168.833 Z-6.753
X-194.847 Y-168.822 Z-6.82
X-194.881 Y-168.806 Z-6.88
X-194.926 Y-168.783 Z-6.931
X-194.98 Y-168.757 Z-6.969
X-195.04 Y-168.727 Z-6.992
X-195.103 Y-168.696 Z-7
G3 X-195.872 Y-168.534 I-0.7 J-1.419
G1 X-196.164 Y-168.557
X-196.601 Y-168.594
X-197.411 Y-168.667
X-197.567 Y-168.689
X-197.738 Y-168.727
X-197.927 Y-168.785
X-198.154 Y-168.876
X-198.424 Y-169.01
X-198.764 Y-169.214
X-199.287 Y-169.588
X-199.778 Y-170.001
X-200.271 Y-170.412
X-200.797 Y-170.781
X-201.362 Y-171.086
X-201.958 Y-171.326
X-202.573 Y-171.509
X-203.201 Y-171.644
X-203.836 Y-171.742
X-204.474 Y-171.812
X-205.114 Y-171.861
X-205.756 Y-171.895
X-206.397 Y-171.918
X-207.039 Y-171.934
X-207.682 Y-171.945
X-208.324 Y-171.953
X-208.966 Y-171.958
X-209.608 Y-171.961
X-210.892 Y-171.965
X-214.103 Y-171.968
X-214.745 Y-171.973
X-215.388 Y-171.985
X-216.029 Y-172.011
X-216.67 Y-172.057
X-217.308 Y-172.129
X-217.942 Y-172.233
X-218.569 Y-172.371
X-219.186 Y-172.549
X-219.79 Y-172.767
X-220.377 Y-173.027
X-220.943 Y-173.33
X-221.486 Y-173.674
X-222 Y-174.058
X-222.485 Y-174.479
X-222.939 Y-174.934
X-223.358 Y-175.42
X-223.744 Y-175.933
X-224.094 Y-176.472
X-224.409 Y-177.032
X-224.688 Y-177.61
X-224.931 Y-178.204
X-225.14 Y-178.811
X-225.317 Y-179.429
X-225.464 Y-180.054
X-225.58 Y-180.685
X-225.664 Y-181.322
X-225.715 Y-181.962
X-225.731 Y-182.604
X-225.707 Y-183.246
X-225.642 Y-183.885
X-225.531 Y-184.517
X-225.375 Y-185.14
X-225.172 Y-185.749
X-224.923 Y-186.341
X-224.629 Y-186.913
X-224.292 Y-187.459
X-223.914 Y-187.979
X-223.498 Y-188.468
X-223.047 Y-188.925
X-222.564 Y-189.347
X-222.052 Y-189.735
X-221.515 Y-190.087
X-221.033 Y-190.36
X-220.92 Y-190.412
X-220.799 Y-190.444
X-220.675 Y-190.456
X-216.302 Y-190.49
G0 Z5
X-196.355 Y-168.958
Z-6.365
G1 Z-6.682 F1000
X-196.362 Y-168.954 Z-6.753
X-196.383 Y-168.944 Z-6.82
X-196.417 Y-168.928 Z-6.88
X-196.462 Y-168.906 Z-6.931
X-196.517 Y-168.88 Z-6.969
X-196.577 Y-168.851 Z-6.992
X-196.641 Y-168.82 Z-7
G3 X-197.411 Y-168.667 I-0.685 J-1.427
G1 X-199.082 Y-168.816
X-199.322 Y-168.849
X-199.541 Y-168.898
X-199.856 Y-168.996
X-200.452 Y-169.234
X-201.031 Y-169.512
X-201.618 Y-169.774
X-202.22 Y-169.997
X-202.836 Y-170.178
X-203.462 Y-170.319
X-204.096 Y-170.425
X-204.733 Y-170.504
X-205.373 Y-170.561
X-206.014 Y-170.602
X-206.655 Y-170.631
X-207.297 Y-170.652
X-207.939 Y-170.666
X-208.581 Y-170.676
X-209.223 Y-170.683
X-209.865 Y-170.688
X-210.508 Y-170.691
X-211.792 Y-170.695
X-213.076 Y-170.697
X-213.719 Y-170.699
X-214.361 Y-170.705
X-215.003 Y-170.717
X-215.645 Y-170.741
X-216.285 Y-170.781
X-216.925 Y-170.842
X-217.561 Y-170.926
X-218.194 Y-171.039
X-218.82 Y-171.182
X-219.437 Y-171.358
X-220.044 Y-171.57
X-220.635 Y-171.819
X-221.21 Y-172.105
X-221.766 Y-172.427
X-222.3 Y-172.784
X-222.81 Y-173.174
X-223.294 Y-173.596
X-223.751 Y-174.047
X-224.179 Y-174.526
X-224.576 Y-175.031
X-224.941 Y-175.559
X-225.276 Y-176.107
X-225.578 Y-176.674
X-225.849 Y-177.256
X-226.089 Y-177.851
X-226.3 Y-178.458
X-226.481 Y-179.074
X-226.633 Y-179.698
X-226.756 Y-180.328
X-226.85 Y-180.964
X-226.912 Y-181.603
X-226.941 Y-182.244
X-226.936 Y-182.887
X-226.895 Y-183.527
X-226.816 Y-184.165
X-226.699 Y-184.796
X-226.542 Y-185.419
X-226.346 Y-186.03
X-226.108 Y-186.627
X-225.83 Y-187.206
X-225.514 Y-187.765
X-225.162 Y-188.302
X-224.775 Y-188.814
X-224.356 Y-189.301
X-223.906 Y-189.76
X-223.429 Y-190.189
X-223.311 Y-190.282
X-223.172 Y-190.369
X-223.018 Y-190.423
X-222.856 Y-190.442
X-221.114 Y-190.452
X-220.675 Y-190.456
G0 Z5
X-198.025 Y-169.107
Z-6.365
G1 Z-6.682 F1000
X-198.033 Y-169.103 Z-6.753
X-198.054 Y-169.093 Z-6.82
X-198.088 Y-169.077 Z-6.88
X-198.133 Y-169.055 Z-6.931
X-198.187 Y-169.029 Z-6.969
X-198.248 Y-169 Z-6.992
X-198.312 Y-168.969 Z-7
G3 X-199.082 Y-168.816 I-0.685 J-1.427
G1 X-202.438 Y-169.116
X-202.875 Y-169.157
X-208.566 Y-169.741
X-208.712 Y-169.757
X-214.402 Y-170.427
X-214.6 Y-170.452
X-220.238 Y-171.21
X-220.384 Y-171.23
X-221.406 Y-171.383
X-221.749 Y-171.452
X-222.038 Y-171.535
X-222.379 Y-171.663
X-222.761 Y-171.843
X-223.186 Y-172.085
X-223.668 Y-172.415
X-224.167 Y-172.819
X-224.634 Y-173.26
X-225.07 Y-173.732
X-225.476 Y-174.229
X-225.852 Y-174.75
X-226.199 Y-175.291
X-226.515 Y-175.849
X-226.803 Y-176.423
X-227.063 Y-177.01
X-227.295 Y-177.609
X-227.5 Y-178.218
X-227.678 Y-178.835
X-227.829 Y-179.459
X-227.953 Y-180.089
X-228.049 Y-180.724
X-228.117 Y-181.363
X-228.154 Y-182.004
X-228.159 Y-182.646
X-228.131 Y-183.288
X-228.071 Y-183.927
X-227.976 Y-184.562
X-227.847 Y-185.191
X-227.683 Y-185.812
X-227.484 Y-186.423
X-227.25 Y-187.021
X-226.98 Y-187.603
X-226.675 Y-188.169
X-226.337 Y-188.715
X-225.968 Y-189.24
X-225.569 Y-189.743
X-225.177 Y-190.183
X-225.02 Y-190.317
X-224.832 Y-190.402
X-224.628 Y-190.432
X-222.856 Y-190.442
G3 X-222.676 Y-189.869 I-0.009 J0.317
G1 X-222.733 Y-189.827 Z-6.992
X-222.787 Y-189.787 Z-6.969
X-222.835 Y-189.751 Z-6.931
X-222.875 Y-189.721 Z-6.88
X-222.906 Y-189.699 Z-6.82
X-222.925 Y-189.685 Z-6.753
X-222.931 Y-189.68 Z-6.682
G0 Z5
X-220.334 Y-171.611
Z-6.365
G1 Z-6.682 F1000
X-220.341 Y-171.608 Z-6.753
X-220.363 Y-171.599 Z-6.82
X-220.398 Y-171.584 Z-6.88
X-220.444 Y-171.565 Z-6.931
X-220.5 Y-171.543 Z-6.969
X-220.562 Y-171.517 Z-6.992
X-220.628 Y-171.49 Z-7
G3 X-221.406 Y-171.383 I-0.599 J-1.465
G1 X-223.74 Y-171.732
X-223.911 Y-171.766
X-224.125 Y-171.828
X-224.354 Y-171.914
X-224.616 Y-172.037
X-224.915 Y-172.208
X-225.251 Y-172.438
X-225.618 Y-172.735
X-226.034 Y-173.131
X-226.462 Y-173.61
X-226.853 Y-174.119
X-227.211 Y-174.653
X-227.538 Y-175.205
X-227.837 Y-175.774
X-228.108 Y-176.356
X-228.352 Y-176.95
X-228.569 Y-177.554
X-228.761 Y-178.167
X-228.928 Y-178.787
X-229.07 Y-179.414
X-229.186 Y-180.045
X-229.275 Y-180.681
X-229.338 Y-181.32
X-229.372 Y-181.962
X-229.378 Y-182.604
X-229.355 Y-183.245
X-229.302 Y-183.885
X-229.217 Y-184.522
X-229.1 Y-185.154
X-228.952 Y-185.778
X-228.773 Y-186.395
X-228.561 Y-187.001
X-228.318 Y-187.596
X-228.045 Y-188.177
X-227.74 Y-188.742
X-227.407 Y-189.291
X-227.045 Y-189.822
X-226.808 Y-190.132
X-226.646 Y-190.288
X-226.445 Y-190.388
X-226.223 Y-190.423
X-224.628 Y-190.432
G3 X-224.448 Y-189.859 I-0.009 J0.317
G1 X-224.505 Y-189.817 Z-6.992
X-224.559 Y-189.777 Z-6.969
X-224.607 Y-189.741 Z-6.931
X-224.647 Y-189.711 Z-6.88
X-224.678 Y-189.689 Z-6.82
X-224.697 Y-189.675 Z-6.753
X-224.703 Y-189.67 Z-6.682
G0 Z5
X-222.668 Y-171.96
Z-6.365
G1 Z-6.682 F1000
X-222.676 Y-171.957 Z-6.753
X-222.697 Y-171.948 Z-6.82
X-222.732 Y-171.933 Z-6.88
X-222.779 Y-171.914 Z-6.931
X-222.835 Y-171.892 Z-6.969
X-222.897 Y-171.866 Z-6.992
X-222.962 Y-171.839 Z-7
G3 X-223.74 Y-171.732 I-0.599 J-1.465
G1 X-225.491 Y-171.994
X-225.714 Y-172.039
X-225.886 Y-172.088
X-226.092 Y-172.165
X-226.305 Y-172.266
X-226.548 Y-172.405
X-226.822 Y-172.592
X-227.123 Y-172.836
X-227.454 Y-173.151
X-227.829 Y-173.57
X-228.217 Y-174.081
X-228.566 Y-174.621
X-228.88 Y-175.18
X-229.164 Y-175.756
X-229.421 Y-176.345
X-229.651 Y-176.945
X-229.855 Y-177.554
X-230.034 Y-178.17
X-230.19 Y-178.793
X-230.321 Y-179.422
X-230.427 Y-180.055
X-230.509 Y-180.692
X-230.566 Y-181.332
X-230.596 Y-181.973
X-230.601 Y-182.616
X-230.579 Y-183.257
X-230.529 Y-183.898
X-230.45 Y-184.535
X-230.343 Y-185.168
X-230.206 Y-185.795
X-230.04 Y-186.416
X-229.845 Y-187.028
X-229.622 Y-187.63
X-229.37 Y-188.221
X-229.091 Y-188.799
X-228.785 Y-189.364
X-228.452 Y-189.913
X-228.319 Y-190.101
X-228.156 Y-190.268
X-227.949 Y-190.376
X-227.718 Y-190.415
X-226.223 Y-190.423
G3 X-226.043 Y-189.851 I-0.009 J0.317
G1 X-226.1 Y-189.808 Z-6.992
X-226.154 Y-189.768 Z-6.969
X-226.202 Y-189.733 Z-6.931
X-226.243 Y-189.703 Z-6.88
X-226.273 Y-189.68 Z-6.82
X-226.292 Y-189.666 Z-6.753
X-226.298 Y-189.661 Z-6.682
G0 Z5
X-224.419 Y-172.221
Z-6.365
G1 Z-6.682 F1000
X-224.427 Y-172.218 Z-6.753
X-224.448 Y-172.21 Z-6.82
X-224.483 Y-172.195 Z-6.88
X-224.53 Y-172.176 Z-6.931
X-224.586 Y-172.153 Z-6.969
X-224.648 Y-172.128 Z-6.992
X-224.713 Y-172.101 Z-7
G3 X-225.491 Y-171.994 I-0.599 J-1.465
G1 X-226.221 Y-172.103
X-226.851 Y-172.202
X-227.242 Y-172.264
X-227.389 Y-172.295
X-227.556 Y-172.348
X-227.734 Y-172.42
X-227.946 Y-172.527
X-228.17 Y-172.664
X-228.417 Y-172.843
X-228.693 Y-173.079
X-228.999 Y-173.387
X-229.324 Y-173.772
X-229.69 Y-174.282
X-230.021 Y-174.833
X-230.315 Y-175.403
X-230.577 Y-175.989
X-230.812 Y-176.587
X-231.02 Y-177.195
X-231.204 Y-177.81
X-231.364 Y-178.432
X-231.501 Y-179.059
X-231.615 Y-179.691
X-231.704 Y-180.327
X-231.77 Y-180.966
X-231.812 Y-181.607
X-231.829 Y-182.249
X-231.821 Y-182.891
X-231.788 Y-183.532
X-231.73 Y-184.172
X-231.645 Y-184.809
X-231.534 Y-185.441
X-231.396 Y-186.068
X-231.232 Y-186.689
X-231.042 Y-187.303
X-230.826 Y-187.907
X-230.583 Y-188.502
X-230.314 Y-189.085
X-230.02 Y-189.656
X-229.79 Y-190.046
X-229.758 Y-190.092
X-229.595 Y-190.26
X-229.387 Y-190.368
X-229.156 Y-190.407
X-227.718 Y-190.415
G3 X-227.538 Y-189.842 I-0.009 J0.317
G1 X-227.595 Y-189.8 Z-6.992
X-227.649 Y-189.76 Z-6.969
X-227.697 Y-189.724 Z-6.931
X-227.737 Y-189.694 Z-6.88
X-227.768 Y-189.672 Z-6.82
X-227.787 Y-189.658 Z-6.753
X-227.793 Y-189.653 Z-6.682
G0 Z5
X-226.168 Y-172.482
Z-6.365
G1 Z-6.682 F1000
X-226.175 Y-172.479 Z-6.753
X-226.197 Y-172.47 Z-6.82
X-226.232 Y-172.456 Z-6.88
X-226.279 Y-172.438 Z-6.931
X-226.335 Y-172.415 Z-6.969
X-226.397 Y-172.391 Z-6.992
X-226.463 Y-172.364 Z-7
G3 X-227.242 Y-172.264 I-0.585 J-1.47
G1 X-228.688 Y-172.494
X-228.893 Y-172.537
X-229.049 Y-172.583
X-229.208 Y-172.645
X-229.397 Y-172.735
X-229.607 Y-172.858
X-229.821 Y-173.008
X-230.077 Y-173.218
X-230.331 Y-173.465
X-230.627 Y-173.801
X-230.95 Y-174.236
X-231.291 Y-174.78
X-231.588 Y-175.35
X-231.848 Y-175.937
X-232.078 Y-176.536
X-232.28 Y-177.146
X-232.458 Y-177.763
X-232.612 Y-178.386
X-232.743 Y-179.015
X-232.851 Y-179.648
X-232.936 Y-180.285
X-232.999 Y-180.924
X-233.04 Y-181.565
X-233.057 Y-182.207
X-233.052 Y-182.849
X-233.023 Y-183.49
X-232.97 Y-184.13
X-232.893 Y-184.768
X-232.791 Y-185.402
X-232.664 Y-186.031
X-232.513 Y-186.655
X-232.337 Y-187.273
X-232.138 Y-187.884
X-231.914 Y-188.485
X-231.666 Y-189.078
X-231.393 Y-189.659
X-231.198 Y-190.014
X-231.161 Y-190.069
X-231.043 Y-190.207
X-230.895 Y-190.312
X-230.726 Y-190.378
X-230.546 Y-190.4
X-229.576 Y-190.404
X-229.156 Y-190.407
G3 X-228.976 Y-189.834 I-0.009 J0.317
G1 X-229.033 Y-189.792 Z-6.992
X-229.087 Y-189.752 Z-6.969
X-229.135 Y-189.716 Z-6.931
X-229.175 Y-189.686 Z-6.88
X-229.206 Y-189.664 Z-6.82
X-229.225 Y-189.65 Z-6.753
X-229.231 Y-189.645 Z-6.682
G0 Z5
X-227.614 Y-172.712
Z-6.365
G1 Z-6.682 F1000
X-227.621 Y-172.709 Z-6.753
X-227.643 Y-172.7 Z-6.82
X-227.678 Y-172.686 Z-6.88
X-227.725 Y-172.667 Z-6.931
X-227.781 Y-172.645 Z-6.969
X-227.843 Y-172.62 Z-6.992
X-227.909 Y-172.594 Z-7
G3 X-228.688 Y-172.494 I-0.585 J-1.47
G1 X-229.602 Y-172.64
X-230.16 Y-172.731
X-230.37 Y-172.776
X-230.514 Y-172.82
X-230.683 Y-172.886
X-230.855 Y-172.97
X-231.048 Y-173.084
X-231.273 Y-173.243
X-231.491 Y-173.425
X-231.752 Y-173.68
X-232.01 Y-173.978
X-232.305 Y-174.378
X-232.624 Y-174.893
X-232.917 Y-175.464
X-233.171 Y-176.054
X-233.392 Y-176.657
X-233.585 Y-177.27
X-233.752 Y-177.89
X-233.895 Y-178.516
X-234.015 Y-179.147
X-234.113 Y-179.781
X-234.189 Y-180.419
X-234.244 Y-181.059
X-234.277 Y-181.7
X-234.289 Y-182.342
X-234.279 Y-182.984
X-234.246 Y-183.626
X-234.192 Y-184.266
X-234.115 Y-184.903
X-234.015 Y-185.537
X-233.892 Y-186.168
X-233.747 Y-186.793
X-233.579 Y-187.413
X-233.388 Y-188.026
X-233.174 Y-188.632
X-232.937 Y-189.229
X-232.709 Y-189.735
X-232.546 Y-190.033
X-232.526 Y-190.063
X-232.408 Y-190.202
X-232.26 Y-190.307
X-232.09 Y-190.373
X-231.91 Y-190.396
X-230.546 Y-190.4
G3 X-230.367 Y-189.828 I-0.01 J0.317
G1 X-230.424 Y-189.786 Z-6.992
X-230.478 Y-189.746 Z-6.969
X-230.527 Y-189.71 Z-6.931
X-230.567 Y-189.68 Z-6.88
X-230.597 Y-189.658 Z-6.82
X-230.616 Y-189.644 Z-6.753
X-230.623 Y-189.639 Z-6.682
G0 Z5
X-229.085 Y-172.943
Z-6.365
G1 Z-6.682 F1000
X-229.092 Y-172.941 Z-6.753
X-229.114 Y-172.932 Z-6.82
X-229.15 Y-172.918 Z-6.88
X-229.196 Y-172.9 Z-6.931
X-229.252 Y-172.878 Z-6.969
X-229.315 Y-172.853 Z-6.992
X-229.381 Y-172.828 Z-7
G3 X-230.16 Y-172.731 I-0.578 J-1.473
G1 X-231.619 Y-172.97
X-231.794 Y-173.008
X-231.937 Y-173.051
X-232.1 Y-173.115
X-232.262 Y-173.194
X-232.451 Y-173.307
X-232.659 Y-173.454
X-232.871 Y-173.631
X-233.118 Y-173.874
X-233.364 Y-174.157
X-233.64 Y-174.533
X-233.939 Y-175.016
X-234.231 Y-175.587
X-234.481 Y-176.179
X-234.696 Y-176.784
X-234.88 Y-177.399
X-235.038 Y-178.022
X-235.172 Y-178.65
X-235.283 Y-179.282
X-235.372 Y-179.918
X-235.44 Y-180.557
X-235.488 Y-181.197
X-235.515 Y-181.839
X-235.521 Y-182.481
X-235.507 Y-183.123
X-235.472 Y-183.764
X-235.416 Y-184.404
X-235.339 Y-185.042
X-235.241 Y-185.676
X-235.122 Y-186.307
X-234.982 Y-186.934
X-234.82 Y-187.555
X-234.636 Y-188.171
X-234.431 Y-188.779
X-234.203 Y-189.38
X-234.02 Y-189.787
X-233.875 Y-190.052
X-233.871 Y-190.059
X-233.753 Y-190.197
X-233.604 Y-190.303
X-233.435 Y-190.369
X-233.254 Y-190.392
X-231.91 Y-190.396
G3 X-231.731 Y-189.824 I-0.01 J0.317
G1 X-231.788 Y-189.782 Z-6.992
X-231.842 Y-189.742 Z-6.969
X-231.89 Y-189.706 Z-6.931
X-231.931 Y-189.676 Z-6.88
X-231.961 Y-189.654 Z-6.82
X-231.98 Y-189.64 Z-6.753
X-231.987 Y-189.635 Z-6.682
G0 Z5
X-230.544 Y-173.183
Z-6.365
G1 Z-6.682 F1000
X-230.552 Y-173.18 Z-6.753
X-230.573 Y-173.171 Z-6.82
X-230.609 Y-173.157 Z-6.88
X-230.655 Y-173.139 Z-6.931
X-230.711 Y-173.117 Z-6.969
X-230.774 Y-173.093 Z-6.992
X-230.84 Y-173.067 Z-7
G3 X-231.619 Y-172.97 I-0.578 J-1.473
G1 X-232.786 Y-173.162
X-233.078 Y-173.211
X-233.225 Y-173.243
X-233.374 Y-173.293
X-233.524 Y-173.356
X-233.694 Y-173.445
X-233.891 Y-173.569
X-234.081 Y-173.711
X-234.306 Y-173.909
X-234.535 Y-174.146
X-234.791 Y-174.458
X-235.05 Y-174.829
X-235.334 Y-175.318
X-235.612 Y-175.897
X-235.846 Y-176.495
X-236.045 Y-177.105
X-236.214 Y-177.725
X-236.357 Y-178.351
X-236.477 Y-178.982
X-236.574 Y-179.617
X-236.65 Y-180.254
X-236.706 Y-180.894
X-236.741 Y-181.535
X-236.756 Y-182.177
X-236.752 Y-182.82
X-236.728 Y-183.461
X-236.684 Y-184.102
X-236.621 Y-184.741
X-236.538 Y-185.378
X-236.435 Y-186.012
X-236.312 Y-186.642
X-236.169 Y-187.268
X-236.006 Y-187.889
X-235.823 Y-188.505
X-235.618 Y-189.114
X-235.416 Y-189.626
X-235.261 Y-189.942
X-235.211 Y-190.026
X-235.093 Y-190.176
X-234.941 Y-190.291
X-234.765 Y-190.363
X-234.576 Y-190.388
X-233.254 Y-190.392
G3 X-233.075 Y-189.82 I-0.01 J0.317
G1 X-233.132 Y-189.778 Z-6.992
X-233.186 Y-189.738 Z-6.969
X-233.235 Y-189.702 Z-6.931
X-233.275 Y-189.672 Z-6.88
X-233.306 Y-189.65 Z-6.82
X-233.324 Y-189.636 Z-6.753
X-233.331 Y-189.631 Z-6.682
G0 Z5
X-232.003 Y-173.42
Z-6.365
G1 Z-6.682 F1000
X-232.01 Y-173.417 Z-6.753
X-232.032 Y-173.409 Z-6.82
X-232.067 Y-173.395 Z-6.88
X-232.114 Y-173.377 Z-6.931
X-232.17 Y-173.355 Z-6.969
X-232.233 Y-173.331 Z-6.992
X-232.298 Y-173.305 Z-7
G3 X-233.078 Y-173.211 I-0.574 J-1.475
G1 X-234.391 Y-173.431
X-234.561 Y-173.468
X-234.705 Y-173.512
X-234.861 Y-173.575
X-235.015 Y-173.652
X-235.195 Y-173.76
X-235.391 Y-173.901
X-235.59 Y-174.071
X-235.824 Y-174.304
X-236.048 Y-174.567
X-236.304 Y-174.92
X-236.572 Y-175.362
X-236.848 Y-175.912
X-237.089 Y-176.507
X-237.291 Y-177.116
X-237.46 Y-177.736
X-237.602 Y-178.362
X-237.719 Y-178.994
X-237.814 Y-179.629
X-237.888 Y-180.267
X-237.942 Y-180.906
X-237.976 Y-181.548
X-237.991 Y-182.19
X-237.988 Y-182.832
X-237.965 Y-183.474
X-237.924 Y-184.115
X-237.864 Y-184.754
X-237.785 Y-185.391
X-237.688 Y-186.026
X-237.572 Y-186.658
X-237.436 Y-187.285
X-237.282 Y-187.909
X-237.108 Y-188.527
X-236.911 Y-189.138
X-236.733 Y-189.605
X-236.586 Y-189.914
X-236.527 Y-190.015
X-236.41 Y-190.168
X-236.257 Y-190.285
X-236.079 Y-190.359
X-235.888 Y-190.384
X-234.576 Y-190.388
G3 X-234.398 Y-189.816 I-0.01 J0.317
G1 X-234.455 Y-189.774 Z-6.992
X-234.509 Y-189.734 Z-6.969
X-234.557 Y-189.698 Z-6.931
X-234.598 Y-189.668 Z-6.88
X-234.628 Y-189.646 Z-6.82
X-234.647 Y-189.632 Z-6.753
X-234.653 Y-189.627 Z-6.682
G0 Z5
X-233.316 Y-173.64
Z-6.365
G1 Z-6.682 F1000
X-233.323 Y-173.637 Z-6.753
X-233.345 Y-173.628 Z-6.82
X-233.38 Y-173.615 Z-6.88
X-233.427 Y-173.596 Z-6.931
X-233.483 Y-173.575 Z-6.969
X-233.546 Y-173.55 Z-6.992
X-233.612 Y-173.525 Z-7
G3 X-234.391 Y-173.431 I-0.573 J-1.475
G1 X-235.761 Y-173.66
X-235.907 Y-173.693
X-236.051 Y-173.737
X-236.191 Y-173.793
X-236.351 Y-173.873
X-236.533 Y-173.982
X-236.711 Y-174.111
X-236.921 Y-174.288
X-237.132 Y-174.498
X-237.363 Y-174.769
X-237.6 Y-175.096
X-237.859 Y-175.521
X-238.127 Y-176.055
X-238.369 Y-176.65
X-238.569 Y-177.261
X-238.734 Y-177.881
X-238.871 Y-178.509
X-238.982 Y-179.141
X-239.071 Y-179.777
X-239.14 Y-180.416
X-239.188 Y-181.056
X-239.217 Y-181.697
X-239.228 Y-182.34
X-239.221 Y-182.982
X-239.196 Y-183.623
X-239.153 Y-184.264
X-239.092 Y-184.903
X-239.014 Y-185.541
X-238.918 Y-186.176
X-238.803 Y-186.808
X-238.671 Y-187.436
X-238.521 Y-188.06
X-238.351 Y-188.68
X-238.155 Y-189.291
X-237.995 Y-189.695
X-237.864 Y-189.96
X-237.827 Y-190.02
X-237.71 Y-190.169
X-237.558 Y-190.284
X-237.382 Y-190.355
X-237.194 Y-190.38
X-235.888 Y-190.384
G3 X-235.71 Y-189.812 I-0.01 J0.317
G1 X-235.767 Y-189.77 Z-6.992
X-235.821 Y-189.73 Z-6.969
X-235.869 Y-189.694 Z-6.931
X-235.91 Y-189.664 Z-6.88
X-235.94 Y-189.642 Z-6.82
X-235.959 Y-189.628 Z-6.753
X-235.965 Y-189.623 Z-6.682
G0 Z5
X-234.685 Y-173.869
Z-6.365
G1 Z-6.682 F1000
X-234.693 Y-173.866 Z-6.753
X-234.714 Y-173.858 Z-6.82
X-234.75 Y-173.844 Z-6.88
X-234.797 Y-173.826 Z-6.931
X-234.853 Y-173.804 Z-6.969
X-234.915 Y-173.78 Z-6.992
X-234.981 Y-173.754 Z-7
G3 X-235.761 Y-173.66 I-0.573 J-1.475
G1 X-237.098 Y-173.887
X-237.244 Y-173.919
X-237.388 Y-173.964
X-237.527 Y-174.021
X-237.689 Y-174.103
X-237.86 Y-174.207
X-238.041 Y-174.339
X-238.252 Y-174.519
X-238.452 Y-174.72
X-238.686 Y-174.998
X-238.911 Y-175.313
X-239.162 Y-175.729
X-239.421 Y-176.253
X-239.659 Y-176.849
X-239.854 Y-177.461
X-240.014 Y-178.083
X-240.145 Y-178.711
X-240.25 Y-179.345
X-240.332 Y-179.982
X-240.394 Y-180.621
X-240.436 Y-181.262
X-240.46 Y-181.904
X-240.466 Y-182.546
X-240.454 Y-183.188
X-240.425 Y-183.829
X-240.379 Y-184.47
X-240.316 Y-185.109
X-240.236 Y-185.746
X-240.139 Y-186.381
X-240.025 Y-187.013
X-239.894 Y-187.642
X-239.745 Y-188.266
X-239.576 Y-188.886
X-239.389 Y-189.448
X-239.241 Y-189.796
X-239.145 Y-189.98
X-239.029 Y-190.143
X-238.873 Y-190.27
X-238.689 Y-190.35
X-238.49 Y-190.377
X-237.194 Y-190.38
G3 X-237.016 Y-189.808 I-0.01 J0.317
G1 X-237.073 Y-189.766 Z-6.992
X-237.127 Y-189.726 Z-6.969
X-237.175 Y-189.69 Z-6.931
X-237.215 Y-189.66 Z-6.88
X-237.246 Y-189.638 Z-6.82
X-237.265 Y-189.624 Z-6.753
X-237.271 Y-189.619 Z-6.682
G0 Z5
X-236.217 Y-174.07
Z-6.365
G1 Z-6.682 F1000
X-236.224 Y-174.067 Z-6.753
X-236.246 Y-174.059 Z-6.82
X-236.281 Y-174.045 Z-6.88
X-236.328 Y-174.027 Z-6.931
X-236.384 Y-174.005 Z-6.969
X-236.447 Y-173.981 Z-6.992
X-236.513 Y-173.956 Z-7
G3 X-237.098 Y-173.887 I-0.427 J-1.107
G1 X-238.477 Y-174.121
X-238.623 Y-174.154
X-238.764 Y-174.204
X-238.912 Y-174.272
X-239.084 Y-174.367
X-239.251 Y-174.479
X-239.444 Y-174.631
X-239.646 Y-174.819
X-239.857 Y-175.05
X-240.086 Y-175.345
X-240.323 Y-175.705
X-240.563 Y-176.145
X-240.816 Y-176.712
X-241.03 Y-177.317
X-241.204 Y-177.935
X-241.345 Y-178.562
X-241.459 Y-179.194
X-241.548 Y-179.83
X-241.616 Y-180.469
X-241.664 Y-181.109
X-241.693 Y-181.751
X-241.704 Y-182.393
X-241.699 Y-183.035
X-241.676 Y-183.677
X-241.637 Y-184.318
X-241.581 Y-184.957
X-241.508 Y-185.595
X-241.42 Y-186.231
X-241.315 Y-186.865
X-241.194 Y-187.496
X-241.055 Y-188.123
X-240.895 Y-188.745
X-240.708 Y-189.352
X-240.559 Y-189.728
X-240.437 Y-189.975
X-240.412 Y-190.016
X-240.294 Y-190.165
X-240.142 Y-190.279
X-239.966 Y-190.351
X-239.778 Y-190.376
X-238.49 Y-190.377
G3 X-238.312 Y-189.804 I-0.011 J0.317
G1 X-238.369 Y-189.762 Z-6.992
X-238.423 Y-189.722 Z-6.969
X-238.472 Y-189.687 Z-6.931
X-238.512 Y-189.657 Z-6.88
X-238.543 Y-189.635 Z-6.82
X-238.562 Y-189.621 Z-6.753
X-238.568 Y-189.616 Z-6.682
G0 Z5
X-237.401 Y-174.327
Z-6.365
G1 Z-6.682 F1000
X-237.408 Y-174.325 Z-6.753
X-237.43 Y-174.316 Z-6.82
X-237.465 Y-174.303 Z-6.88
X-237.512 Y-174.284 Z-6.931
X-237.568 Y-174.263 Z-6.969
X-237.631 Y-174.239 Z-6.992
X-237.697 Y-174.213 Z-7
G3 X-238.477 Y-174.121 I-0.569 J-1.477
G1 X-239.79 Y-174.345
X-239.936 Y-174.378
X-240.077 Y-174.429
X-240.227 Y-174.498
X-240.384 Y-174.587
X-240.567 Y-174.71
X-240.744 Y-174.851
X-240.948 Y-175.042
X-241.157 Y-175.273
X-241.379 Y-175.561
X-241.606 Y-175.911
X-241.85 Y-176.36
X-242.097 Y-176.92
X-242.308 Y-177.526
X-242.478 Y-178.145
X-242.614 Y-178.773
X-242.722 Y-179.406
X-242.806 Y-180.042
X-242.869 Y-180.682
X-242.911 Y-181.322
X-242.936 Y-181.964
X-242.943 Y-182.606
X-242.933 Y-183.248
X-242.907 Y-183.89
X-242.864 Y-184.531
X-242.806 Y-185.17
X-242.732 Y-185.808
X-242.643 Y-186.444
X-242.538 Y-187.078
X-242.416 Y-187.708
X-242.276 Y-188.335
X-242.114 Y-188.956
X-241.946 Y-189.468
X-241.807 Y-189.801
X-241.717 Y-189.974
X-241.601 Y-190.139
X-241.445 Y-190.266
X-241.26 Y-190.347
X-241.06 Y-190.375
X-239.778 Y-190.376
G3 X-239.6 Y-189.803 I-0.011 J0.317
G1 X-239.657 Y-189.761 Z-6.992
X-239.711 Y-189.721 Z-6.969
X-239.76 Y-189.685 Z-6.931
X-239.8 Y-189.656 Z-6.88
X-239.831 Y-189.633 Z-6.82
X-239.85 Y-189.619 Z-6.753
X-239.856 Y-189.615 Z-6.682
G0 Z5
X-238.714 Y-174.55
Z-6.365
G1 Z-6.682 F1000
X-238.721 Y-174.547 Z-6.753
X-238.743 Y-174.539 Z-6.82
X-238.778 Y-174.525 Z-6.88
X-238.825 Y-174.507 Z-6.931
X-238.881 Y-174.486 Z-6.969
X-238.944 Y-174.462 Z-6.992
X-239.01 Y-174.436 Z-7
G3 X-239.79 Y-174.345 I-0.568 J-1.477
G1 X-241.037 Y-174.559
X-241.184 Y-174.592
X-241.326 Y-174.638
X-241.473 Y-174.701
X-241.622 Y-174.779
X-241.795 Y-174.889
X-241.972 Y-175.022
X-242.162 Y-175.191
X-242.373 Y-175.412
X-242.579 Y-175.664
X-242.808 Y-175.996
X-243.039 Y-176.396
X-243.272 Y-176.887
X-243.5 Y-177.488
X-243.682 Y-178.104
X-243.827 Y-178.729
X-243.941 Y-179.361
X-244.03 Y-179.997
X-244.097 Y-180.636
X-244.143 Y-181.276
X-244.171 Y-181.918
X-244.181 Y-182.56
X-244.174 Y-183.202
X-244.152 Y-183.844
X-244.113 Y-184.485
X-244.06 Y-185.125
X-243.991 Y-185.764
X-243.907 Y-186.4
X-243.807 Y-187.035
X-243.691 Y-187.666
X-243.557 Y-188.294
X-243.399 Y-188.917
X-243.24 Y-189.422
X-243.1 Y-189.767
X-242.979 Y-190.008
X-242.973 Y-190.018
X-242.854 Y-190.166
X-242.702 Y-190.279
X-242.527 Y-190.35
X-242.339 Y-190.374
X-241.06 Y-190.375
G3 X-240.743 Y-190.072 I0 J0.317
G1 X-240.729 Y-189.771
X-240.054 Y-174.96
G3 X-240.257 Y-174.65 I-0.317 J0.014
X-241.037 Y-174.559 I-0.567 J-1.477
G1 X-242.27 Y-174.77
X-242.447 Y-174.81
X-242.59 Y-174.854
X-242.729 Y-174.911
X-242.883 Y-174.99
X-243.049 Y-175.091
X-243.22 Y-175.217
X-243.417 Y-175.387
X-243.605 Y-175.578
X-243.824 Y-175.839
X-244.033 Y-176.133
X-244.265 Y-176.522
X-244.494 Y-176.989
X-244.727 Y-177.578
X-244.914 Y-178.192
X-245.063 Y-178.817
X-245.179 Y-179.449
X-245.269 Y-180.084
X-245.335 Y-180.723
X-245.381 Y-181.364
X-245.409 Y-182.005
X-245.419 Y-182.647
X-245.412 Y-183.29
X-245.39 Y-183.931
X-245.352 Y-184.572
X-245.3 Y-185.212
X-245.232 Y-185.851
X-245.15 Y-186.488
X-245.053 Y-187.123
X-244.939 Y-187.755
X-244.806 Y-188.383
X-244.648 Y-189.005
X-244.49 Y-189.489
X-244.355 Y-189.811
X-244.271 Y-189.973
X-244.155 Y-190.139
X-243.998 Y-190.266
X-243.813 Y-190.347
X-243.613 Y-190.374
X-242.339
G3 X-242.022 Y-190.072 I0 J0.317
G1 X-242.007 Y-189.77
X-241.287 Y-175.173
G3 X-241.49 Y-174.861 I-0.317 J0.016
X-242.27 Y-174.77 I-0.567 J-1.477
G1 X-243.584 Y-174.996
X-243.73 Y-175.029
X-243.873 Y-175.074
X-244.012 Y-175.131
X-244.171 Y-175.213
X-244.327 Y-175.31
X-244.506 Y-175.442
X-244.691 Y-175.604
X-244.886 Y-175.803
X-245.102 Y-176.062
X-245.31 Y-176.359
X-245.534 Y-176.738
X-245.766 Y-177.214
X-245.995 Y-177.802
X-246.18 Y-178.417
X-246.325 Y-179.043
X-246.438 Y-179.675
X-246.523 Y-180.312
X-246.585 Y-180.951
X-246.627 Y-181.592
X-246.651 Y-182.233
X-246.657 Y-182.875
X-246.647 Y-183.518
X-246.622 Y-184.159
X-246.582 Y-184.8
X-246.527 Y-185.44
X-246.457 Y-186.078
X-246.373 Y-186.715
X-246.274 Y-187.35
X-246.157 Y-187.981
X-246.02 Y-188.608
X-245.85 Y-189.228
X-245.71 Y-189.623
X-245.592 Y-189.885
X-245.533 Y-189.991
X-245.416 Y-190.15
X-245.261 Y-190.272
X-245.079 Y-190.349
X-244.884 Y-190.375
X-243.613 Y-190.374
G3 X-243.306 Y-190.059 I-0.011 J0.317
G1 X-243.305 Y-189.759
X-243.224 Y-175.554
X-243.223 Y-175.312
G3 X-243.584 Y-174.996 I-0.318 J0.002
G1 X-244.897 Y-175.222
X-245.043 Y-175.255
X-245.185 Y-175.304
X-245.328 Y-175.368
X-245.487 Y-175.454
X-245.647 Y-175.559
X-245.833 Y-175.704
X-246.015 Y-175.871
X-246.218 Y-176.089
X-246.427 Y-176.355
X-246.645 Y-176.681
X-246.862 Y-177.072
X-247.089 Y-177.571
X-247.308 Y-178.175
X-247.479 Y-178.794
X-247.612 Y-179.422
X-247.714 Y-180.056
X-247.791 Y-180.694
X-247.845 Y-181.334
X-247.879 Y-181.975
X-247.895 Y-182.617
X-247.894 Y-183.259
X-247.877 Y-183.901
X-247.845 Y-184.543
X-247.799 Y-185.183
X-247.739 Y-185.822
X-247.664 Y-186.46
X-247.573 Y-187.096
X-247.467 Y-187.729
X-247.34 Y-188.359
X-247.188 Y-188.983
X-247.044 Y-189.445
X-246.91 Y-189.778
X-246.794 Y-190.01
X-246.788 Y-190.018
X-246.67 Y-190.167
X-246.518 Y-190.281
X-246.342 Y-190.352
X-246.153 Y-190.376
X-244.884 Y-190.375
G3 X-244.577 Y-190.059 I-0.011 J0.317
G1 X-244.576 Y-189.76
X-244.537 Y-175.78
X-244.536 Y-175.537
G3 X-244.897 Y-175.222 I-0.317 J0
G1 X-246.144 Y-175.437
X-246.291 Y-175.47
X-246.436 Y-175.506
X-246.578 Y-175.556
X-246.714 Y-175.618
X-246.846 Y-175.69
X-246.972 Y-175.771
X-247.093 Y-175.859
X-247.209 Y-175.955
X-247.32 Y-176.056
X-247.426 Y-176.161
X-247.528 Y-176.272
X-247.624 Y-176.387
X-247.716 Y-176.505
X-247.805 Y-176.626
X-247.889 Y-176.751
X-247.969 Y-176.878
X-248.045 Y-177.007
X-248.117 Y-177.138
X-248.187 Y-177.271
X-248.253 Y-177.406
X-248.315 Y-177.542
X-248.374 Y-177.68
X-248.431 Y-177.819
X-248.485 Y-177.959
X-248.536 Y-178.1
X-248.584 Y-178.242
X-248.631 Y-178.385
X-248.674 Y-178.528
X-248.716 Y-178.672
X-248.755 Y-178.817
X-248.792 Y-178.962
X-248.827 Y-179.108
X-248.861 Y-179.254
X-248.892 Y-179.401
X-248.922 Y-179.548
X-248.95 Y-179.696
X-248.976 Y-179.843
X-249.001 Y-179.991
X-249.024 Y-180.139
X-249.046 Y-180.288
X-249.066 Y-180.436
X-249.085 Y-180.585
X-249.103 Y-180.734
X-249.119 Y-180.883
X-249.134 Y-181.034
X-249.148 Y-181.183
X-249.16 Y-181.333
X-249.172 Y-181.482
X-249.183 Y-181.646
X-249.192 Y-181.798
X-249.2 Y-181.948
X-249.207 Y-182.107
X-249.217 Y-182.371
X-249.223 Y-182.602
X-249.226 Y-182.774
X-249.228 Y-182.967
Y-183.15
X-249.227 Y-183.32
X-249.225 Y-183.511
X-249.221 Y-183.728
X-249.216 Y-183.9
X-249.21 Y-184.09
X-249.201 Y-184.306
X-249.191 Y-184.507
X-249.18 Y-184.695
X-249.167 Y-184.908
X-249.151 Y-185.129
X-249.137 Y-185.312
X-249.119 Y-185.519
X-249.097 Y-185.754
X-249.08 Y-185.927
X-249.059 Y-186.12
X-249.034 Y-186.34
X-249.011 Y-186.526
X-248.989 Y-186.691
X-248.964 Y-186.876
X-248.933 Y-187.086
X-248.911 Y-187.234
X-248.887 Y-187.382
X-248.861 Y-187.538
X-248.83 Y-187.711
X-248.802 Y-187.862
X-248.774 Y-188.009
X-248.745 Y-188.156
X-248.713 Y-188.303
X-248.681 Y-188.449
X-248.647 Y-188.596
X-248.61 Y-188.741
X-248.572 Y-188.886
X-248.532 Y-189.031
X-248.489 Y-189.174
X-248.443 Y-189.317
X-248.395 Y-189.459
X-248.342 Y-189.6
X-248.285 Y-189.738
X-248.223 Y-189.875
X-248.176 Y-189.969
X-248.06 Y-190.138
X-247.903 Y-190.268
X-247.715 Y-190.351
X-247.512 Y-190.379
X-246.153 Y-190.376
G3 X-245.847 Y-190.06 I-0.012 J0.317
G1 X-245.846 Y-189.76
X-245.785 Y-175.995
X-245.784 Y-175.753
G3 X-246.144 Y-175.437 I-0.318 J0.001
G1 X-247.523 Y-175.674
X-247.669 Y-175.707
X-247.811 Y-175.757
X-247.952 Y-175.82
X-248.104 Y-175.905
X-248.269 Y-176.014
X-248.442 Y-176.15
X-248.628 Y-176.323
X-248.823 Y-176.535
X-249.028 Y-176.797
X-249.241 Y-177.12
X-249.461 Y-177.521
X-249.685 Y-178.02
X-249.9 Y-178.625
X-250.069 Y-179.245
X-250.199 Y-179.874
X-250.299 Y-180.508
X-250.373 Y-181.146
X-250.391 Y-181.386
X-250.402 Y-181.546
X-250.447 Y-181.7
X-250.525 Y-181.841
X-250.631 Y-181.962
X-250.76 Y-182.057
X-250.907 Y-182.122
X-251.064 Y-182.153
X-251.706 Y-182.142
X-252.329 Y-181.984
X-252.956 Y-181.845
X-253.409 Y-181.761
X-253.919 Y-181.709
X-254.421 Y-181.698
X-254.764 Y-181.718
X-255.226 Y-181.783
X-255.616 Y-181.87
X-255.923 Y-181.964
X-256.321 Y-182.123
X-256.678 Y-182.3
X-256.934 Y-182.454
X-257.255 Y-182.683
X-257.581 Y-182.959
X-257.781 Y-183.158
X-258.019 Y-183.435
X-258.292 Y-183.811
X-258.43 Y-184.037
X-258.584 Y-184.341
X-258.758 Y-184.768
X-258.848 Y-185.05
X-258.919 Y-185.359
X-258.981 Y-185.778
X-259.005 Y-186.14
X-259 Y-186.437
X-258.963 Y-186.826
X-258.891 Y-187.235
X-258.821 Y-187.505
X-258.702 Y-187.846
X-258.515 Y-188.268
X-258.39 Y-188.499
X-258.206 Y-188.782
X-257.927 Y-189.144
X-257.724 Y-189.367
X-257.495 Y-189.582
X-257.167 Y-189.843
X-256.862 Y-190.049
X-256.605 Y-190.193
X-256.253 Y-190.355
X-256.225 Y-190.366
X-256.141 Y-190.391
X-256.054 Y-190.406
X-255.966 Y-190.411
X-253.797 Y-190.399
X-253.524 Y-190.384
X-253.326 Y-190.357
X-253.083 Y-190.304
X-252.78 Y-190.211
X-252.48 Y-190.092
X-252.269 Y-189.989
X-252.014 Y-189.837
X-251.695 Y-189.61
X-251.572 Y-189.507
X-251.43 Y-189.433
X-251.275 Y-189.391
X-251.115 Y-189.383
X-250.956 Y-189.411
X-250.659 Y-189.532
X-250.139 Y-189.908
X-249.855 Y-190.178
X-249.704 Y-190.289
X-249.53 Y-190.359
X-249.343 Y-190.382
G3 X-249.168 Y-189.808 I-0.012 J0.317
G1 X-249.225 Y-189.767 Z-6.992
X-249.279 Y-189.727 Z-6.969
X-249.327 Y-189.692 Z-6.931
X-249.368 Y-189.662 Z-6.88
X-249.399 Y-189.64 Z-6.82
X-249.418 Y-189.626 Z-6.753
X-249.424 Y-189.621 Z-6.682
G0 Z5
X-254.826 Y-190.021
Z-6.365
G1 Z-6.682 F1000
X-254.819 Y-190.025 Z-6.753
X-254.798 Y-190.037 Z-6.82
X-254.766 Y-190.056 Z-6.88
X-254.722 Y-190.082 Z-6.931
X-254.671 Y-190.112 Z-6.969
X-254.613 Y-190.146 Z-6.992
X-254.552 Y-190.182 Z-7
G3 X-253.797 Y-190.399 I0.801 J1.365
G1 X-252.484 Y-190.393
X-249.128 Y-190.382
X-247.512 Y-190.379
G3 X-247.206 Y-190.062 I-0.012 J0.317
G1 Y-189.763
X-247.163 Y-176.233
Y-175.99
Y-175.989
G3 X-247.523 Y-175.674 I-0.317 J0
G1 X-248.771 Y-175.889
X-248.917 Y-175.922
X-249.059 Y-175.971
X-249.196 Y-176.032
X-249.351 Y-176.117
X-249.514 Y-176.224
X-249.686 Y-176.358
X-249.881 Y-176.537
X-250.066 Y-176.737
X-250.283 Y-177.012
X-250.484 Y-177.315
X-250.707 Y-177.715
X-250.929 Y-178.206
X-251.147 Y-178.809
X-251.231 Y-179.118
X-251.299 Y-179.264
X-251.491 Y-179.522
X-251.994 Y-179.921
X-252.598 Y-180.138
X-253.229 Y-180.258
X-253.866 Y-180.335
X-254.504 Y-180.414
X-255.137 Y-180.519
X-255.748 Y-180.666
X-256.284 Y-180.842
X-256.754 Y-181.039
X-257.208 Y-181.274
X-257.611 Y-181.526
X-257.988 Y-181.806
X-258.359 Y-182.13
X-258.678 Y-182.458
X-258.964 Y-182.804
X-259.238 Y-183.194
X-259.467 Y-183.585
X-259.659 Y-183.982
X-259.825 Y-184.411
X-259.956 Y-184.85
X-260.047 Y-185.279
X-260.105 Y-185.726
X-260.128 Y-186.191
X-260.114 Y-186.63
X-260.065 Y-187.07
X-259.974 Y-187.533
X-259.856 Y-187.957
X-259.705 Y-188.367
X-259.509 Y-188.79
X-259.29 Y-189.179
X-259.046 Y-189.539
X-258.762 Y-189.895
X-258.45 Y-190.227
X-258.443 Y-190.232
X-258.294 Y-190.337
X-258.123 Y-190.403
X-257.941 Y-190.424
X-255.966 Y-190.411
G3 X-255.792 Y-189.837 I-0.013 J0.317
G1 X-255.85 Y-189.795 Z-6.992
X-255.904 Y-189.756 Z-6.969
X-255.953 Y-189.72 Z-6.931
X-255.993 Y-189.691 Z-6.88
X-256.024 Y-189.669 Z-6.82
X-256.043 Y-189.655 Z-6.753
X-256.049 Y-189.65 Z-6.682
G0 Z5
X-247.694 Y-176.093
Z-6.365
G1 Z-6.682 F1000
X-247.701 Y-176.09 Z-6.753
X-247.723 Y-176.082 Z-6.82
X-247.759 Y-176.068 Z-6.88
X-247.806 Y-176.05 Z-6.931
X-247.862 Y-176.029 Z-6.969
X-247.924 Y-176.005 Z-6.992
X-247.99 Y-175.979 Z-7
G3 X-248.771 Y-175.889 I-0.567 J-1.478
G1 X-250.003 Y-176.101
X-250.15 Y-176.133
X-250.292 Y-176.18
X-250.43 Y-176.239
X-250.584 Y-176.321
X-250.745 Y-176.424
X-250.915 Y-176.553
X-251.108 Y-176.725
X-251.291 Y-176.918
X-251.506 Y-177.184
X-251.869 Y-177.714
X-252.309 Y-178.182
X-252.855 Y-178.519
X-253.451 Y-178.758
X-254.067 Y-178.939
X-255.313 Y-179.253
X-255.93 Y-179.43
X-256.537 Y-179.64
X-257.128 Y-179.891
X-257.687 Y-180.18
X-258.209 Y-180.506
X-258.686 Y-180.86
X-259.12 Y-181.239
X-259.521 Y-181.651
X-259.881 Y-182.086
X-260.199 Y-182.541
X-260.48 Y-183.019
X-260.721 Y-183.517
X-260.918 Y-184.026
X-261.074 Y-184.548
X-261.189 Y-185.086
X-261.259 Y-185.625
X-261.285 Y-186.166
X-261.268 Y-186.714
X-261.207 Y-187.255
X-261.104 Y-187.784
X-260.957 Y-188.309
X-260.769 Y-188.82
X-260.543 Y-189.308
X-260.277 Y-189.78
X-260.055 Y-190.109
X-259.935 Y-190.246
X-259.786 Y-190.35
X-259.615 Y-190.414
X-259.435 Y-190.435
X-257.941 Y-190.424
G3 X-257.768 Y-189.849 I-0.013 J0.317
G1 X-257.825 Y-189.808 Z-6.992
X-257.88 Y-189.769 Z-6.969
X-257.929 Y-189.733 Z-6.931
X-257.969 Y-189.704 Z-6.88
X-258 Y-189.682 Z-6.82
X-258.019 Y-189.668 Z-6.753
