(1001)
(Bearbeiten)
(  Hersteller: ChinaCnc)
(  model: 3040T)
(  description: Generic 3-axis)
(T16  D=6 CR=0 - ZMIN=-25 - Schaftfraser)
G90 G94
G17
G21

(Bohrfrasen5)
T16
S6000 M3
G54
G0 X-107.471 Y19
Z4
Z2
G1 Z0 F1000
X-108.871 Y19.6
G3 X-109.471 Y19 I0 J-0.6
X-105.471 Y19 Z-0.5 I2 J0
X-109.471 Y19 Z-1 I-2 J0
X-105.471 Y19 Z-1.5 I2 J0
X-109.471 Y19 Z-2 I-2 J0
X-105.471 Y19 Z-2.5 I2 J0
X-109.471 Y19 Z-3 I-2 J0
X-105.471 Y19 Z-3.5 I2 J0
X-109.471 Y19 Z-4 I-2 J0
X-105.471 Y19 Z-4.5 I2 J0
X-109.471 Y19 Z-5 I-2 J0
X-105.471 Y19 Z-5.5 I2 J0
X-109.471 Y19 Z-6 I-2 J0
X-105.471 Y19 Z-6.5 I2 J0
X-109.471 Y19 Z-7 I-2 J0
X-105.471 Y19 Z-7.5 I2 J0
X-109.471 Y19 Z-8 I-2 J0
X-105.471 Y19 Z-8.5 I2 J0
X-109.471 Y19 Z-9 I-2 J0
X-105.471 Y19 Z-9.5 I2 J0
X-109.471 Y19 Z-10 I-2 J0
X-105.471 Y19 Z-10.5 I2 J0
X-109.471 Y19 Z-11 I-2 J0
X-105.471 Y19 Z-11.5 I2 J0
X-109.471 Y19 Z-12 I-2 J0
X-105.471 Y19 Z-12.5 I2 J0
X-109.471 Y19 Z-13 I-2 J0
X-105.471 Y19 Z-13.5 I2 J0
X-109.471 Y19 Z-14 I-2 J0
X-105.471 Y19 Z-14.5 I2 J0
X-109.471 Y19 Z-15 I-2 J0
X-105.471 Y19 Z-15.5 I2 J0
X-109.471 Y19 Z-16 I-2 J0
X-105.471 Y19 Z-16.5 I2 J0
X-109.471 Y19 Z-17 I-2 J0
X-105.471 Y19 Z-17.5 I2 J0
X-109.471 Y19 Z-18 I-2 J0
X-105.471 Y19 Z-18.5 I2 J0
X-109.471 Y19 Z-19 I-2 J0
X-105.471 Y19 Z-19.5 I2 J0
X-109.471 Y19 Z-20 I-2 J0
X-105.471 Y19 Z-20.5 I2 J0
X-109.471 Y19 Z-21 I-2 J0
X-105.471 Y19 Z-21.5 I2 J0
X-109.471 Y19 Z-22 I-2 J0
X-105.471 Y19 Z-22.5 I2 J0
X-109.471 Y19 Z-23 I-2 J0
X-105.471 Y19 Z-23.5 I2 J0
X-109.471 Y19 Z-24 I-2 J0
X-105.471 Y19 Z-24.5 I2 J0
X-109.471 Y19 Z-25 I-2 J0
X-105.471 Y19 I2 J0
X-109.471 Y19 I-2 J0
X-108.871 Y18.4 I0.6 J0
G1 X-107.471 Y19
G0 Z2
Y-19
G1 Z0 F1000
X-108.871 Y-18.4
G3 X-109.471 Y-19 I0 J-0.6
X-105.471 Y-19 Z-0.5 I2 J0
X-109.471 Y-19 Z-1 I-2 J0
X-105.471 Y-19 Z-1.5 I2 J0
X-109.471 Y-19 Z-2 I-2 J0
X-105.471 Y-19 Z-2.5 I2 J0
X-109.471 Y-19 Z-3 I-2 J0
X-105.471 Y-19 Z-3.5 I2 J0
X-109.471 Y-19 Z-4 I-2 J0
X-105.471 Y-19 Z-4.5 I2 J0
X-109.471 Y-19 Z-5 I-2 J0
X-105.471 Y-19 Z-5.5 I2 J0
X-109.471 Y-19 Z-6 I-2 J0
X-105.471 Y-19 Z-6.5 I2 J0
X-109.471 Y-19 Z-7 I-2 J0
X-105.471 Y-19 Z-7.5 I2 J0
X-109.471 Y-19 Z-8 I-2 J0
X-105.471 Y-19 Z-8.5 I2 J0
X-109.471 Y-19 Z-9 I-2 J0
X-105.471 Y-19 Z-9.5 I2 J0
X-109.471 Y-19 Z-10 I-2 J0
X-105.471 Y-19 Z-10.5 I2 J0
X-109.471 Y-19 Z-11 I-2 J0
X-105.471 Y-19 Z-11.5 I2 J0
X-109.471 Y-19 Z-12 I-2 J0
X-105.471 Y-19 Z-12.5 I2 J0
X-109.471 Y-19 Z-13 I-2 J0
X-105.471 Y-19 Z-13.5 I2 J0
X-109.471 Y-19 Z-14 I-2 J0
X-105.471 Y-19 Z-14.5 I2 J0
X-109.471 Y-19 Z-15 I-2 J0
X-105.471 Y-19 Z-15.5 I2 J0
X-109.471 Y-19 Z-16 I-2 J0
X-105.471 Y-19 Z-16.5 I2 J0
X-109.471 Y-19 Z-17 I-2 J0
X-105.471 Y-19 Z-17.5 I2 J0
X-109.471 Y-19 Z-18 I-2 J0
X-105.471 Y-19 Z-18.5 I2 J0
X-109.471 Y-19 Z-19 I-2 J0
X-105.471 Y-19 Z-19.5 I2 J0
X-109.471 Y-19 Z-20 I-2 J0
X-105.471 Y-19 Z-20.5 I2 J0
X-109.471 Y-19 Z-21 I-2 J0
X-105.471 Y-19 Z-21.5 I2 J0
X-109.471 Y-19 Z-22 I-2 J0
X-105.471 Y-19 Z-22.5 I2 J0
X-109.471 Y-19 Z-23 I-2 J0
X-105.471 Y-19 Z-23.5 I2 J0
X-109.471 Y-19 Z-24 I-2 J0
X-105.471 Y-19 Z-24.5 I2 J0
X-109.471 Y-19 Z-25 I-2 J0
X-105.471 Y-19 I2 J0
X-109.471 Y-19 I-2 J0
X-108.871 Y-19.6 I0.6 J0
G1 X-107.471 Y-19
G0 Z4

(2D Adaptive16)
X-104.381 Y84.925
Z4
Z2.56
Z-16.8
G1 Z-17.4 F1000
X-104.383 Y84.918 Z-17.494
X-104.389 Y84.897 Z-17.585
X-104.398 Y84.862 Z-17.672
X-104.41 Y84.814 Z-17.753
X-104.425 Y84.755 Z-17.824
X-104.443 Y84.685 Z-17.885
X-104.463 Y84.608 Z-17.935
X-104.484 Y84.523 Z-17.971
X-104.507 Y84.435 Z-17.993
X-104.53 Y84.344 Z-18
G3 X-105 Y81.077 I14.839 J-3.801
G1 Y80.725
X-104.998 Y80.688
X-104.882 Y80.588
X-104.731 Y80.477
X-104.538 Y80.359
X-104.286 Y80.231
X-103.963 Y80.099
X-103.553 Y79.968
X-103.026 Y79.846
X-102.328 Y79.742
X-101.444 Y79.682
X-100.557 Y79.686
X-99.673 Y79.734
X-98.79 Y79.811
X-97.909 Y79.906
X-97.029 Y80.01
X-96.15 Y80.12
X-95.271 Y80.235
X-94.393 Y80.353
X-93.515 Y80.473
X-92.637 Y80.595
X-91.759 Y80.715
X-90.881 Y80.832
X-90.002 Y80.946
X-89.123 Y81.058
X-87.365 Y81.28
X-86.485 Y81.39
X-85.606 Y81.496
X-84.725 Y81.598
X-83.845 Y81.697
X-82.964 Y81.794
X-81.202 Y81.985
X-80.321 Y82.079
X-79.439 Y82.169
X-78.557 Y82.255
X-77.675 Y82.338
X-76.793 Y82.42
X-75.028 Y82.579
X-74.145 Y82.658
X-73.262 Y82.73
X-72.378 Y82.796
X-71.495 Y82.86
X-70.611 Y82.921
X-69.726 Y82.98
X-67.958 Y83.095
X-65.305 Y83.264
X-62.652 Y83.431
X-61.767 Y83.481
X-60.882 Y83.517
X-59.996 Y83.542
X-59.11 Y83.559
X-58.224 Y83.572
X-57.338 Y83.58
X-56.452 Y83.586
X-55.566 Y83.59
X-54.68 Y83.593
X-52.907 Y83.597
X-49.363 Y83.599
X-28.096 Y83.6
X-21.007
X-20.121 Y83.597
X-19.235 Y83.581
X-18.349 Y83.556
X-17.463 Y83.524
X-16.578 Y83.488
X-15.693 Y83.449
X-14.808 Y83.407
X-13.923 Y83.364
X-12.153 Y83.275
X-9.498 Y83.137
X-6.843 Y82.998
X-5.958 Y82.948
X-5.074 Y82.894
X-4.19 Y82.836
X-3.306 Y82.776
X-2.422 Y82.714
X-0.654 Y82.587
X1.997 Y82.393
X7.3 Y81.999
X8.183 Y81.929
X9.066 Y81.856
X9.949 Y81.779
X10.831 Y81.701
X12.596 Y81.541
X15.244 Y81.297
X20.537 Y80.803
X21.419 Y80.719
X22.301 Y80.632
X23.183 Y80.541
X24.064 Y80.448
X24.945 Y80.354
X26.707 Y80.163
X29.35 Y79.873
X32.446 Y79.531
X32.74 Y79.53
X33.027 Y79.59
X33.296 Y79.708
X33.534 Y79.88
X33.731 Y80.098
X33.878 Y80.352
X33.969 Y80.631
X34 Y80.923
X33.829 Y81.322
X33.504 Y81.455
X33.024 Y81.652
X27.457 Y83.401
X10.067 Y85.076
X-7.453 Y86.331
X-19.535 Y86.871
X-59.408 Y86.842
X-63.838 Y86.667
X-75.115 Y85.875
X-103.71 Y82.225
G3 X-105 Y80.725 I0.292 J-1.555
G1 Y79.981
X-104.993 Y79.831
X-104.897 Y79.669
X-104.781 Y79.506
X-104.636 Y79.331
X-104.447 Y79.138
X-104.238 Y78.956
X-103.969 Y78.757
X-103.65 Y78.56
X-103.278 Y78.369
X-102.823 Y78.179
X-102.273 Y78
X-101.604 Y77.841
X-100.739 Y77.707
X-99.855 Y77.643
X-98.969 Y77.63
X-98.083 Y77.655
X-97.198 Y77.708
X-96.315 Y77.78
X-95.433 Y77.867
X-94.553 Y77.964
X-93.673 Y78.068
X-92.793 Y78.176
X-91.035 Y78.398
X-88.397 Y78.73
X-87.518 Y78.84
X-86.638 Y78.947
X-85.758 Y79.052
X-84.878 Y79.155
X-83.998 Y79.256
X-83.117 Y79.355
X-82.237 Y79.453
X-81.356 Y79.548
X-80.474 Y79.641
X-79.593 Y79.731
X-78.711 Y79.818
X-77.829 Y79.904
X-76.947 Y79.987
X-76.065 Y80.069
X-75.182 Y80.148
X-74.299 Y80.224
X-73.416 Y80.296
X-72.532 Y80.365
X-71.649 Y80.43
X-70.765 Y80.494
X-69.881 Y80.555
X-68.997 Y80.616
X-67.228 Y80.733
X-64.576 Y80.903
X-63.691 Y80.958
X-62.806 Y81.006
X-61.921 Y81.048
X-61.036 Y81.082
X-60.15 Y81.109
X-59.264 Y81.131
X-58.378 Y81.148
X-57.492 Y81.161
X-56.606 Y81.171
X-55.72 Y81.178
X-54.834 Y81.184
X-53.948 Y81.188
X-52.176 Y81.193
X-49.517 Y81.197
X-44.2 Y81.2
X-22.934
X-22.047 Y81.198
X-21.161 Y81.192
X-20.275 Y81.179
X-19.389 Y81.16
X-18.504 Y81.136
X-17.618 Y81.107
X-16.732 Y81.074
X-15.847 Y81.038
X-14.962 Y81
X-14.077 Y80.959
X-13.191 Y80.917
X-11.421 Y80.83
X-9.651 Y80.739
X-8.766 Y80.693
X-7.882 Y80.646
X-6.997 Y80.596
X-6.112 Y80.543
X-5.228 Y80.488
X-4.344 Y80.431
X-3.459 Y80.372
X-2.575 Y80.312
X-0.808 Y80.187
X0.96 Y80.06
X3.611 Y79.865
X5.379 Y79.734
X6.262 Y79.667
X7.146 Y79.597
X8.029 Y79.525
X8.912 Y79.451
X9.795 Y79.376
X10.678 Y79.298
X12.443 Y79.14
X14.208 Y78.979
X16.855 Y78.735
X18.619 Y78.571
X19.502 Y78.488
X20.384 Y78.403
X21.266 Y78.316
X22.147 Y78.227
X23.029 Y78.136
X23.91 Y78.044
X25.672 Y77.857
X27.434 Y77.666
X30.077 Y77.377
X30.907 Y77.309
X31.476 Y77.308
X31.974 Y77.347
X32.399 Y77.415
X32.773 Y77.506
X33.125 Y77.623
X33.145 Y77.631
X33.429 Y77.793
X33.668 Y78.016
X33.849 Y78.289
X33.962 Y78.596
X34 Y78.921
X33.829 Y79.319
X33.508 Y79.463
X33.426 Y79.499
X5.936 Y82.998
X-9.668 Y84.049
X-21.549 Y84.52
X-59.609 Y84.422
X-64.039 Y84.227
X-103.509 Y81.506
G3 X-105 Y79.981 I0.091 J-1.58
G1 Y78.976
X-104.993 Y78.826
X-104.954 Y78.665
X-104.901 Y78.5
X-104.824 Y78.314
X-104.723 Y78.119
X-104.596 Y77.913
X-104.432 Y77.692
X-104.24 Y77.47
X-103.992 Y77.228
X-103.717 Y76.999
X-103.359 Y76.746
X-102.97 Y76.516
X-102.475 Y76.275
X-101.92 Y76.057
X-101.23 Y75.849
X-100.373 Y75.665
X-99.495 Y75.548
X-98.611 Y75.487
X-97.725 Y75.469
X-96.839 Y75.485
X-95.954 Y75.526
X-95.07 Y75.587
X-94.187 Y75.663
X-93.305 Y75.75
X-92.424 Y75.843
X-91.543 Y75.942
X-90.663 Y76.045
X-89.783 Y76.15
X-87.144 Y76.468
X-86.264 Y76.572
X-85.384 Y76.675
X-84.504 Y76.777
X-83.623 Y76.877
X-82.743 Y76.976
X-81.862 Y77.072
X-80.981 Y77.166
X-80.099 Y77.258
X-79.218 Y77.347
X-78.336 Y77.435
X-77.454 Y77.52
X-76.572 Y77.603
X-75.689 Y77.683
X-74.807 Y77.761
X-73.924 Y77.835
X-73.04 Y77.906
X-72.157 Y77.975
X-71.273 Y78.041
X-70.389 Y78.105
X-69.505 Y78.168
X-68.621 Y78.229
X-66.853 Y78.347
X-65.969 Y78.405
X-65.085 Y78.461
X-64.2 Y78.513
X-63.315 Y78.561
X-62.43 Y78.603
X-61.545 Y78.64
X-60.659 Y78.671
X-59.773 Y78.697
X-58.887 Y78.718
X-58.002 Y78.736
X-57.115 Y78.75
X-56.229 Y78.761
X-55.343 Y78.77
X-54.457 Y78.777
X-53.571 Y78.782
X-51.799 Y78.79
X-50.027 Y78.794
X-47.368 Y78.797
X-42.052 Y78.8
X-24.329
X-23.443 Y78.798
X-22.557 Y78.793
X-21.671 Y78.784
X-20.785 Y78.772
X-19.899 Y78.754
X-19.013 Y78.732
X-18.127 Y78.706
X-17.242 Y78.676
X-16.356 Y78.643
X-15.471 Y78.608
X-14.585 Y78.57
X-13.7 Y78.53
X-12.815 Y78.489
X-11.93 Y78.446
X-11.045 Y78.403
X-10.16 Y78.358
X-9.275 Y78.312
X-8.39 Y78.264
X-7.505 Y78.214
X-6.621 Y78.162
X-5.736 Y78.107
X-4.852 Y78.051
X-3.968 Y77.994
X-3.084 Y77.934
X-2.2 Y77.874
X-0.432 Y77.75
X1.336 Y77.623
X3.104 Y77.494
X3.987 Y77.429
X4.871 Y77.362
X5.754 Y77.294
X6.638 Y77.224
X7.521 Y77.152
X8.404 Y77.079
X9.287 Y77.004
X10.17 Y76.928
X11.053 Y76.85
X12.818 Y76.693
X14.583 Y76.532
X17.23 Y76.288
X18.112 Y76.205
X18.994 Y76.121
X19.876 Y76.036
X20.758 Y75.949
X21.64 Y75.86
X22.521 Y75.77
X23.403 Y75.679
X25.165 Y75.493
X26.927 Y75.304
X27.808 Y75.209
X28.69 Y75.12
X29.574 Y75.056
X30.46 Y75.037
X31.293 Y75.077
X31.893 Y75.154
X32.401 Y75.261
X32.823 Y75.386
X33.197 Y75.531
X33.208 Y75.536
X33.473 Y75.703
X33.695 Y75.924
X33.861 Y76.19
X33.965 Y76.486
X34 Y76.797
Y78.921
X33.829 Y79.319
X33.508 Y79.463
X33.426 Y79.499
X-21.952 Y82.082
X-53.769 Y82.042
X-103.509 Y80.5
G3 X-105 Y78.976 I0.091 J-1.58
G1 Y77.568
X-104.99 Y77.368
X-104.967 Y77.196
X-104.93 Y77.019
X-104.868 Y76.815
X-104.788 Y76.609
X-104.674 Y76.374
X-104.537 Y76.141
X-104.354 Y75.881
X-104.145 Y75.628
X-103.872 Y75.348
X-103.567 Y75.082
X-103.175 Y74.792
X-102.743 Y74.523
X-102.2 Y74.244
X-101.589 Y73.988
X-100.845 Y73.745
X-99.983 Y73.538
X-99.108 Y73.397
X-98.227 Y73.31
X-97.342 Y73.265
X-96.456 Y73.256
X-95.57 Y73.274
X-94.684 Y73.314
X-93.8 Y73.371
X-92.917 Y73.441
X-92.034 Y73.522
X-91.153 Y73.61
X-90.271 Y73.703
X-89.391 Y73.8
X-88.51 Y73.9
X-84.989 Y74.304
X-84.108 Y74.404
X-83.228 Y74.502
X-82.347 Y74.599
X-81.466 Y74.694
X-80.585 Y74.787
X-79.703 Y74.878
X-78.821 Y74.967
X-77.94 Y75.054
X-77.057 Y75.138
X-76.175 Y75.22
X-75.293 Y75.299
X-74.41 Y75.375
X-73.527 Y75.448
X-72.643 Y75.519
X-71.76 Y75.588
X-70.876 Y75.654
X-69.993 Y75.719
X-69.109 Y75.782
X-68.225 Y75.844
X-67.341 Y75.904
X-66.456 Y75.962
X-65.572 Y76.017
X-64.687 Y76.07
X-63.803 Y76.118
X-62.918 Y76.161
X-62.032 Y76.2
X-61.147 Y76.234
X-60.261 Y76.263
X-59.375 Y76.288
X-58.489 Y76.309
X-57.604 Y76.327
X-56.718 Y76.341
X-55.831 Y76.353
X-54.945 Y76.363
X-54.059 Y76.371
X-53.173 Y76.377
X-52.287 Y76.382
X-50.515 Y76.389
X-47.857 Y76.395
X-44.312 Y76.398
X-36.337 Y76.4
X-26.59
X-25.703 Y76.399
X-24.817 Y76.398
X-23.931 Y76.394
X-23.045 Y76.388
X-22.159 Y76.379
X-21.273 Y76.366
X-20.387 Y76.35
X-19.501 Y76.329
X-18.615 Y76.305
X-17.73 Y76.278
X-16.844 Y76.247
X-15.959 Y76.214
X-15.073 Y76.178
X-14.188 Y76.141
X-13.303 Y76.101
X-12.417 Y76.06
X-11.532 Y76.018
X-10.647 Y75.974
X-9.762 Y75.928
X-8.877 Y75.88
X-7.993 Y75.831
X-7.108 Y75.779
X-6.224 Y75.726
X-5.339 Y75.671
X-4.455 Y75.614
X-3.571 Y75.556
X-2.687 Y75.496
X-0.919 Y75.374
X0.849 Y75.249
X2.617 Y75.121
X3.501 Y75.055
X4.384 Y74.988
X5.268 Y74.92
X6.151 Y74.85
X7.034 Y74.778
X7.917 Y74.706
X8.8 Y74.631
X9.683 Y74.556
X10.566 Y74.479
X12.331 Y74.323
X14.097 Y74.164
X15.861 Y74.002
X16.744 Y73.92
X17.626 Y73.837
X18.508 Y73.753
X19.39 Y73.667
X20.272 Y73.58
X21.154 Y73.492
X22.035 Y73.402
X22.917 Y73.312
X24.679 Y73.127
X25.56 Y73.034
X26.442 Y72.942
X27.324 Y72.858
X28.208 Y72.793
X29.093 Y72.754
X29.979 Y72.752
X30.864 Y72.799
X31.658 Y72.899
X32.241 Y73.02
X32.698 Y73.154
X33.12 Y73.316
X33.204 Y73.356
X33.47 Y73.522
X33.693 Y73.744
X33.861 Y74.01
X33.965 Y74.306
X34 Y74.619
Y76.797
X33.829 Y77.196
X33.508 Y77.339
X33.426 Y77.376
X-22.355 Y79.662
X-103.509 Y79.092
G3 X-105 Y77.568 I0.091 J-1.58
G1 Y75.757
X-104.99 Y75.553
X-104.965 Y75.364
X-104.923 Y75.168
X-104.857 Y74.946
X-104.766 Y74.715
X-104.645 Y74.464
X-104.488 Y74.197
X-104.293 Y73.92
X-104.051 Y73.629
X-103.761 Y73.331
X-103.409 Y73.025
X-102.99 Y72.715
X-102.501 Y72.41
X-101.902 Y72.101
X-101.22 Y71.816
X-100.397 Y71.547
X-99.535 Y71.34
X-98.661 Y71.193
X-97.781 Y71.094
X-96.896 Y71.035
X-96.011 Y71.011
X-95.125 Y71.013
X-94.239 Y71.038
X-93.354 Y71.082
X-92.469 Y71.139
X-91.586 Y71.209
X-90.703 Y71.287
X-89.821 Y71.372
X-88.94 Y71.461
X-88.059 Y71.555
X-87.178 Y71.65
X-83.655 Y72.039
X-82.774 Y72.135
X-81.893 Y72.23
X-81.011 Y72.324
X-80.13 Y72.415
X-79.248 Y72.505
X-78.367 Y72.593
X-77.485 Y72.678
X-76.602 Y72.761
X-75.72 Y72.841
X-74.837 Y72.919
X-73.954 Y72.995
X-73.071 Y73.067
X-72.188 Y73.138
X-71.305 Y73.207
X-70.421 Y73.273
X-69.537 Y73.338
X-68.653 Y73.401
X-67.769 Y73.462
X-66.885 Y73.521
X-66.001 Y73.577
X-65.116 Y73.629
X-64.231 Y73.678
X-63.346 Y73.723
X-62.461 Y73.763
X-61.576 Y73.799
X-60.69 Y73.831
X-59.805 Y73.859
X-58.919 Y73.883
X-58.033 Y73.903
X-57.147 Y73.921
X-56.261 Y73.935
X-55.375 Y73.948
X-54.489 Y73.958
X-53.603 Y73.966
X-52.717 Y73.973
X-51.831 Y73.978
X-50.058 Y73.986
X-48.286 Y73.992
X-45.628 Y73.996
X-41.197 Y73.999
X-28.791 Y74
X-27.019 Y73.999
X-26.133 Y73.998
X-25.247 Y73.995
X-24.361 Y73.991
X-23.475 Y73.984
X-22.589 Y73.974
X-21.703 Y73.962
X-20.817 Y73.945
X-19.931 Y73.926
X-19.045 Y73.903
X-18.159 Y73.878
X-17.273 Y73.849
X-16.388 Y73.817
X-15.502 Y73.784
X-14.617 Y73.748
X-13.732 Y73.71
X-12.846 Y73.67
X-11.961 Y73.629
X-11.076 Y73.585
X-10.191 Y73.54
X-9.306 Y73.493
X-8.422 Y73.444
X-7.537 Y73.393
X-6.652 Y73.34
X-5.768 Y73.286
X-4.884 Y73.23
X-3.999 Y73.173
X-3.115 Y73.114
X-2.231 Y73.055
X-0.463 Y72.932
X1.305 Y72.806
X2.189 Y72.742
X3.072 Y72.676
X3.956 Y72.609
X4.839 Y72.541
X5.723 Y72.471
X6.606 Y72.4
X7.489 Y72.327
X8.372 Y72.254
X9.255 Y72.179
X11.021 Y72.026
X12.786 Y71.869
X14.551 Y71.709
X16.316 Y71.546
X17.198 Y71.463
X18.08 Y71.379
X18.962 Y71.293
X19.844 Y71.206
X20.726 Y71.118
X21.607 Y71.029
X23.37 Y70.847
X24.252 Y70.756
X25.133 Y70.668
X26.016 Y70.586
X26.899 Y70.517
X27.784 Y70.467
X28.67 Y70.443
X29.556 Y70.451
X30.44 Y70.5
X31.321 Y70.602
X32.003 Y70.733
X32.55 Y70.884
X32.992 Y71.045
X33.184 Y71.134
X33.457 Y71.299
X33.685 Y71.521
X33.857 Y71.789
X33.964 Y72.089
X34 Y72.406
Y74.619
X33.829 Y75.017
X33.508 Y75.161
X33.426 Y75.197
X-23.764 Y77.298
X-103.509 Y77.282
G3 X-105 Y75.757 I0.091 J-1.58
G1 Y73.746
X-104.993 Y73.596
X-104.965 Y73.403
X-104.916 Y73.182
X-104.846 Y72.956
X-104.742 Y72.696
X-104.614 Y72.438
X-104.437 Y72.142
X-104.23 Y71.854
X-103.956 Y71.53
X-103.649 Y71.22
X-103.247 Y70.875
X-102.808 Y70.557
X-102.257 Y70.22
X-101.606 Y69.892
X-100.855 Y69.585
X-100.01 Y69.318
X-99.148 Y69.113
X-98.275 Y68.961
X-97.395 Y68.855
X-96.512 Y68.786
X-95.626 Y68.75
X-94.74 Y68.74
X-93.854 Y68.753
X-92.968 Y68.785
X-92.084 Y68.831
X-91.199 Y68.89
X-90.316 Y68.959
X-89.433 Y69.036
X-88.551 Y69.118
X-87.669 Y69.205
X-86.788 Y69.296
X-85.906 Y69.388
X-82.382 Y69.763
X-81.5 Y69.856
X-80.619 Y69.948
X-79.738 Y70.038
X-78.856 Y70.126
X-77.974 Y70.212
X-77.092 Y70.296
X-76.209 Y70.378
X-75.327 Y70.458
X-74.444 Y70.535
X-73.561 Y70.61
X-72.678 Y70.682
X-71.795 Y70.753
X-70.911 Y70.821
X-70.028 Y70.888
X-69.144 Y70.952
X-68.26 Y71.014
X-67.376 Y71.074
X-66.491 Y71.131
X-65.607 Y71.185
X-64.722 Y71.235
X-63.837 Y71.281
X-62.952 Y71.324
X-62.067 Y71.362
X-61.182 Y71.396
X-60.296 Y71.427
X-59.41 Y71.454
X-58.524 Y71.477
X-57.639 Y71.498
X-56.753 Y71.515
X-55.867 Y71.53
X-54.981 Y71.542
X-54.094 Y71.553
X-53.208 Y71.561
X-52.322 Y71.569
X-51.436 Y71.575
X-49.664 Y71.584
X-47.892 Y71.59
X-45.233 Y71.595
X-41.689 Y71.598
X-33.714 Y71.6
X-28.397 Y71.599
X-26.625 Y71.596
X-25.739 Y71.593
X-24.853 Y71.588
X-23.966 Y71.581
X-23.08 Y71.571
X-22.194 Y71.559
X-21.308 Y71.543
X-20.422 Y71.525
X-19.537 Y71.504
X-18.651 Y71.48
X-17.765 Y71.453
X-16.879 Y71.423
X-15.994 Y71.391
X-15.108 Y71.357
X-14.223 Y71.32
X-13.338 Y71.282
X-12.453 Y71.241
X-11.567 Y71.199
X-10.682 Y71.155
X-9.798 Y71.108
X-8.913 Y71.06
X-8.028 Y71.01
X-7.143 Y70.958
X-6.259 Y70.905
X-5.374 Y70.85
X-4.49 Y70.794
X-3.606 Y70.736
X-2.722 Y70.677
X-1.838 Y70.618
X-0.954 Y70.557
X-0.07 Y70.495
X0.814 Y70.431
X1.698 Y70.367
X2.582 Y70.302
X3.465 Y70.235
X4.349 Y70.167
X5.232 Y70.097
X6.116 Y70.027
X6.999 Y69.955
X7.882 Y69.882
X8.765 Y69.807
X10.531 Y69.655
X12.296 Y69.5
X14.061 Y69.341
X14.943 Y69.26
X15.826 Y69.178
X16.708 Y69.095
X17.59 Y69.01
X18.472 Y68.925
X19.354 Y68.838
X20.236 Y68.751
X22.881 Y68.483
X23.763 Y68.397
X24.645 Y68.315
X25.528 Y68.243
X26.412 Y68.184
X27.297 Y68.143
X28.183 Y68.125
X29.069 Y68.135
X29.954 Y68.18
X30.836 Y68.269
X31.701 Y68.413
X32.337 Y68.572
X32.807 Y68.73
X33.231 Y68.912
X33.254 Y68.925
X33.505 Y69.094
X33.714 Y69.314
X33.87 Y69.574
X33.967 Y69.861
X34 Y70.163
Y72.406
X33.829 Y72.805
X33.508 Y72.948
X33.426 Y72.984
X-103.308 Y75.269
G3 X-105 Y73.746 I-0.111 J-1.579
G1 Y71.735
X-104.993 Y71.585
X-104.965 Y71.386
X-104.917 Y71.162
X-104.843 Y70.921
X-104.742 Y70.664
X-104.602 Y70.378
X-104.43 Y70.09
X-104.201 Y69.767
X-103.937 Y69.451
X-103.593 Y69.102
X-103.204 Y68.766
X-102.72 Y68.411
X-102.141 Y68.054
X-101.48 Y67.717
X-100.674 Y67.385
X-99.831 Y67.113
X-98.971 Y66.9
X-98.1 Y66.738
X-97.222 Y66.618
X-96.339 Y66.535
X-95.455 Y66.484
X-94.569 Y66.46
X-93.683 Y66.458
X-92.797 Y66.476
X-91.911 Y66.51
X-91.026 Y66.558
X-90.142 Y66.616
X-89.259 Y66.683
X-88.376 Y66.758
X-87.493 Y66.838
X-86.611 Y66.922
X-85.729 Y67.009
X-84.848 Y67.098
X-81.322 Y67.462
X-80.44 Y67.551
X-79.559 Y67.64
X-78.677 Y67.727
X-77.795 Y67.812
X-76.913 Y67.896
X-76.03 Y67.977
X-75.148 Y68.056
X-74.265 Y68.133
X-73.382 Y68.208
X-72.499 Y68.28
X-71.615 Y68.351
X-70.732 Y68.42
X-69.848 Y68.486
X-68.964 Y68.55
X-68.08 Y68.612
X-67.196 Y68.67
X-66.312 Y68.726
X-65.427 Y68.779
X-64.543 Y68.828
X-63.658 Y68.873
X-62.772 Y68.915
X-61.887 Y68.952
X-61.002 Y68.986
X-60.116 Y69.017
X-59.23 Y69.044
X-58.345 Y69.067
X-57.459 Y69.088
X-56.573 Y69.106
X-55.687 Y69.121
X-54.801 Y69.135
X-53.915 Y69.146
X-53.029 Y69.155
X-52.143 Y69.163
X-51.256 Y69.17
X-49.484 Y69.18
X-47.712 Y69.187
X-45.054 Y69.193
X-41.509 Y69.197
X-35.306 Y69.2
X-29.99 Y69.199
X-28.217 Y69.198
X-27.331 Y69.195
X-26.445 Y69.192
X-25.559 Y69.187
X-24.673 Y69.18
X-23.787 Y69.171
X-22.901 Y69.16
X-22.015 Y69.146
X-21.129 Y69.129
X-20.243 Y69.11
X-19.357 Y69.087
X-18.471 Y69.062
X-17.586 Y69.035
X-16.7 Y69.005
X-15.814 Y68.973
X-14.929 Y68.938
X-14.044 Y68.902
X-13.158 Y68.863
X-12.273 Y68.822
X-11.388 Y68.779
X-10.503 Y68.734
X-9.618 Y68.687
X-8.733 Y68.639
X-7.849 Y68.589
X-6.964 Y68.537
X-6.08 Y68.483
X-5.195 Y68.428
X-4.311 Y68.372
X-3.427 Y68.314
X-2.542 Y68.255
X-1.658 Y68.195
X-0.774 Y68.134
X0.11 Y68.071
X0.993 Y68.007
X1.877 Y67.943
X2.761 Y67.877
X3.644 Y67.809
X4.528 Y67.74
X5.411 Y67.67
X6.294 Y67.599
X7.178 Y67.527
X8.061 Y67.453
X8.944 Y67.379
X10.709 Y67.227
X12.475 Y67.07
X13.357 Y66.991
X14.24 Y66.91
X15.122 Y66.829
X16.004 Y66.746
X16.886 Y66.662
X17.769 Y66.578
X18.65 Y66.492
X21.296 Y66.23
X22.178 Y66.143
X23.06 Y66.061
X23.943 Y65.984
X24.826 Y65.916
X25.711 Y65.861
X26.596 Y65.821
X27.482 Y65.801
X28.368 Y65.804
X29.254 Y65.836
X30.137 Y65.903
X31.016 Y66.015
X31.867 Y66.179
X32.469 Y66.347
X32.924 Y66.515
X33.187 Y66.636
X33.458 Y66.801
X33.686 Y67.023
X33.857 Y67.291
X33.964 Y67.591
X34 Y67.907
Y70.163
X33.829 Y70.561
X33.508 Y70.705
X33.426 Y70.741
X-103.308 Y73.258
G3 X-105 Y71.735 I-0.111 J-1.579
G1 Y69.723
X-104.99 Y69.521
X-104.963 Y69.315
X-104.915 Y69.092
X-104.839 Y68.837
X-104.739 Y68.58
X-104.594 Y68.282
X-104.421 Y67.988
X-104.186 Y67.654
X-103.918 Y67.331
X-103.561 Y66.965
X-103.166 Y66.62
X-102.661 Y66.246
X-102.072 Y65.88
X-101.379 Y65.522
X-100.561 Y65.18
X-99.72 Y64.903
X-98.862 Y64.681
X-97.993 Y64.507
X-97.117 Y64.375
X-96.236 Y64.279
X-95.352 Y64.214
X-94.467 Y64.175
X-93.581 Y64.16
X-92.695 Y64.165
X-91.809 Y64.187
X-90.923 Y64.223
X-90.038 Y64.271
X-89.154 Y64.329
X-88.271 Y64.395
X-87.387 Y64.468
X-86.505 Y64.546
X-85.622 Y64.627
X-84.74 Y64.712
X-83.858 Y64.798
X-80.331 Y65.15
X-79.45 Y65.237
X-78.568 Y65.323
X-77.685 Y65.407
X-76.803 Y65.489
X-75.921 Y65.57
X-75.038 Y65.649
X-74.155 Y65.726
X-73.272 Y65.801
X-72.389 Y65.873
X-71.506 Y65.944
X-70.622 Y66.013
X-69.739 Y66.079
X-68.855 Y66.143
X-67.971 Y66.204
X-67.087 Y66.262
X-66.202 Y66.317
X-65.318 Y66.369
X-64.433 Y66.417
X-63.548 Y66.462
X-62.663 Y66.503
X-61.777 Y66.54
X-60.892 Y66.574
X-60.006 Y66.605
X-59.121 Y66.632
X-58.235 Y66.656
X-57.349 Y66.678
X-56.463 Y66.696
X-55.577 Y66.712
X-54.691 Y66.726
X-53.805 Y66.738
X-52.919 Y66.749
X-52.033 Y66.757
X-51.147 Y66.765
X-50.261 Y66.771
X-48.489 Y66.78
X-46.716 Y66.787
X-44.058 Y66.793
X-40.513 Y66.797
X-34.311 Y66.799
X-30.766
X-28.994 Y66.797
X-28.108 Y66.795
X-27.222 Y66.792
X-26.335 Y66.787
X-25.449 Y66.781
X-24.563 Y66.772
X-23.677 Y66.762
X-22.791 Y66.749
X-21.905 Y66.734
X-21.019 Y66.716
X-20.133 Y66.696
X-19.248 Y66.673
X-18.362 Y66.648
X-17.476 Y66.62
X-16.591 Y66.59
X-15.705 Y66.557
X-14.82 Y66.523
X-13.934 Y66.486
X-13.049 Y66.447
X-12.164 Y66.406
X-11.279 Y66.362
X-10.394 Y66.317
X-9.509 Y66.27
X-8.624 Y66.222
X-7.739 Y66.171
X-6.855 Y66.119
X-5.97 Y66.065
X-5.086 Y66.01
X-4.202 Y65.954
X-3.317 Y65.896
X-2.433 Y65.837
X-1.549 Y65.777
X-0.665 Y65.715
X0.219 Y65.652
X1.103 Y65.588
X1.986 Y65.523
X2.87 Y65.456
X3.753 Y65.388
X4.637 Y65.319
X5.52 Y65.249
X6.403 Y65.178
X7.287 Y65.105
X8.17 Y65.031
X9.053 Y64.956
X9.935 Y64.881
X10.818 Y64.804
X11.701 Y64.726
X12.584 Y64.647
X13.466 Y64.567
X14.348 Y64.486
X15.231 Y64.404
X16.113 Y64.321
X17.877 Y64.152
X20.523 Y63.894
X21.405 Y63.811
X22.288 Y63.731
X23.171 Y63.658
X24.055 Y63.592
X24.939 Y63.538
X25.824 Y63.497
X26.71 Y63.472
X27.596 Y63.468
X28.482 Y63.487
X29.367 Y63.535
X30.249 Y63.619
X31.126 Y63.747
X31.925 Y63.915
X32.532 Y64.095
X33.002 Y64.276
X33.207 Y64.375
X33.473 Y64.542
X33.695 Y64.764
X33.861 Y65.029
X33.965 Y65.325
X34 Y65.637
Y67.907
X33.819 Y68.315
X33.508 Y68.45
X33.426 Y68.485
X-103.308 Y71.247
G3 X-105 Y69.723 I-0.111 J-1.579
G1 Y67.601
X-104.99 Y67.409
X-104.963 Y67.197
X-104.914 Y66.971
X-104.836 Y66.709
X-104.734 Y66.447
X-104.586 Y66.143
X-104.409 Y65.841
X-104.17 Y65.501
X-103.891 Y65.165
X-103.527 Y64.792
X-103.115 Y64.433
X-102.593 Y64.046
X-101.981 Y63.666
X-101.256 Y63.292
X-100.439 Y62.95
X-99.598 Y62.669
X-98.742 Y62.442
X-97.874 Y62.26
X-97 Y62.119
X-96.12 Y62.012
X-95.237 Y61.936
X-94.352 Y61.887
X-93.467 Y61.861
X-92.581 Y61.854
X-91.695 Y61.866
X-90.809 Y61.892
X-89.924 Y61.93
X-89.039 Y61.979
X-88.155 Y62.037
X-87.271 Y62.103
X-86.388 Y62.174
X-85.505 Y62.25
X-84.622 Y62.329
X-83.74 Y62.412
X-82.858 Y62.495
X-79.33 Y62.837
X-78.448 Y62.921
X-77.565 Y63.004
X-76.683 Y63.085
X-75.8 Y63.166
X-74.918 Y63.244
X-74.035 Y63.32
X-73.152 Y63.395
X-72.269 Y63.468
X-71.386 Y63.538
X-70.502 Y63.606
X-69.618 Y63.672
X-68.735 Y63.735
X-67.851 Y63.796
X-66.966 Y63.854
X-66.082 Y63.908
X-65.197 Y63.959
X-64.312 Y64.007
X-63.427 Y64.051
X-62.542 Y64.092
X-61.657 Y64.13
X-60.771 Y64.163
X-59.886 Y64.194
X-59 Y64.222
X-58.114 Y64.246
X-57.228 Y64.268
X-56.342 Y64.287
X-55.457 Y64.304
X-54.571 Y64.319
X-53.684 Y64.331
X-52.798 Y64.342
X-51.912 Y64.351
X-51.026 Y64.359
X-50.14 Y64.366
X-48.368 Y64.377
X-46.596 Y64.384
X-43.937 Y64.391
X-40.393 Y64.396
X-35.076 Y64.399
X-31.532
X-29.759 Y64.396
X-27.987 Y64.391
X-27.101 Y64.387
X-26.215 Y64.381
X-25.329 Y64.374
X-24.443 Y64.364
X-23.557 Y64.352
X-22.671 Y64.339
X-21.785 Y64.322
X-20.899 Y64.304
X-20.013 Y64.283
X-19.127 Y64.259
X-18.241 Y64.234
X-17.356 Y64.205
X-16.47 Y64.175
X-15.585 Y64.142
X-14.699 Y64.107
X-13.814 Y64.069
X-12.929 Y64.03
X-12.043 Y63.989
X-11.158 Y63.945
X-10.273 Y63.9
X-9.389 Y63.853
X-8.504 Y63.804
X-7.619 Y63.753
X-6.735 Y63.701
X-5.85 Y63.647
X-4.966 Y63.592
X-4.081 Y63.535
X-3.197 Y63.477
X-2.313 Y63.418
X-1.429 Y63.357
X-0.545 Y63.295
X0.339 Y63.232
X1.223 Y63.168
X2.106 Y63.102
X2.99 Y63.035
X3.873 Y62.967
X4.757 Y62.897
X5.64 Y62.827
X6.523 Y62.755
X7.406 Y62.682
X8.29 Y62.608
X9.172 Y62.533
X10.055 Y62.457
X10.938 Y62.38
X11.821 Y62.302
X12.703 Y62.222
X13.586 Y62.142
X14.468 Y62.061
X16.233 Y61.895
X18.879 Y61.641
X19.761 Y61.558
X20.643 Y61.477
X21.526 Y61.4
X22.409 Y61.329
X23.293 Y61.265
X24.178 Y61.21
X25.063 Y61.168
X25.949 Y61.14
X26.835 Y61.129
X27.721 Y61.138
X28.606 Y61.172
X29.49 Y61.235
X30.371 Y61.333
X31.245 Y61.476
X32.026 Y61.654
X32.611 Y61.838
X33.076 Y62.027
X33.229 Y62.104
X33.488 Y62.272
X33.703 Y62.493
X33.865 Y62.756
X33.966 Y63.048
X34 Y63.355
Y65.637
X33.829 Y66.035
X33.508 Y66.179
X33.426 Y66.215
X-103.308 Y69.125
G3 X-105 Y67.601 I-0.111 J-1.579
G1 Y65.499
X-104.988 Y65.264
X-104.96 Y65.045
X-104.911 Y64.819
X-104.831 Y64.553
X-104.727 Y64.285
X-104.579 Y63.98
X-104.395 Y63.667
X-104.156 Y63.327
X-103.863 Y62.974
X-103.499 Y62.601
X-103.07 Y62.227
X-102.532 Y61.828
X-101.904 Y61.438
X-101.151 Y61.049
X-100.333 Y60.707
X-99.493 Y60.424
X-98.638 Y60.192
X-97.772 Y60.004
X-96.899 Y59.854
X-96.02 Y59.739
X-95.138 Y59.654
X-94.254 Y59.594
X-93.369 Y59.558
X-92.483 Y59.542
X-91.597 Y59.543
X-90.711 Y59.56
X-89.825 Y59.59
X-88.94 Y59.631
X-88.055 Y59.681
X-87.171 Y59.739
X-86.287 Y59.804
X-85.404 Y59.874
X-84.521 Y59.949
X-83.638 Y60.026
X-82.756 Y60.106
X-80.991 Y60.271
X-78.344 Y60.519
X-77.462 Y60.601
X-76.58 Y60.681
X-75.697 Y60.761
X-74.814 Y60.838
X-73.931 Y60.914
X-73.048 Y60.989
X-72.165 Y61.061
X-71.282 Y61.131
X-70.398 Y61.199
X-69.515 Y61.264
X-68.631 Y61.327
X-67.747 Y61.387
X-66.862 Y61.444
X-65.978 Y61.498
X-65.093 Y61.549
X-64.208 Y61.596
X-63.323 Y61.64
X-62.438 Y61.681
X-61.553 Y61.718
X-60.667 Y61.752
X-59.782 Y61.783
X-58.896 Y61.811
X-58.01 Y61.836
X-57.125 Y61.858
X-56.239 Y61.878
X-55.353 Y61.895
X-54.467 Y61.911
X-53.581 Y61.924
X-52.695 Y61.936
X-51.809 Y61.946
X-50.922 Y61.954
X-50.036 Y61.961
X-48.264 Y61.973
X-46.492 Y61.981
X-43.834 Y61.99
X-41.175 Y61.994
X-36.745 Y61.998
X-33.2 Y61.999
X-30.542 Y61.996
X-28.769 Y61.991
X-27.883 Y61.987
X-26.997 Y61.982
X-26.111 Y61.975
X-25.225 Y61.966
X-24.339 Y61.956
X-23.453 Y61.943
X-22.567 Y61.928
X-21.681 Y61.911
X-20.795 Y61.892
X-19.909 Y61.87
X-19.023 Y61.846
X-18.138 Y61.82
X-17.252 Y61.791
X-16.366 Y61.76
X-15.481 Y61.727
X-14.596 Y61.692
X-13.71 Y61.654
X-12.825 Y61.614
X-11.94 Y61.573
X-11.055 Y61.529
X-10.17 Y61.483
X-9.285 Y61.436
X-8.4 Y61.387
X-7.516 Y61.336
X-6.631 Y61.284
X-5.747 Y61.23
X-4.862 Y61.174
X-3.978 Y61.118
X-3.094 Y61.059
X-2.21 Y61
X-1.325 Y60.939
X-0.442 Y60.877
X0.442 Y60.813
X1.326 Y60.748
X2.21 Y60.682
X3.093 Y60.615
X3.977 Y60.547
X4.86 Y60.477
X5.743 Y60.406
X6.627 Y60.334
X7.51 Y60.261
X8.393 Y60.186
X9.276 Y60.111
X10.158 Y60.035
X11.041 Y59.957
X11.924 Y59.878
X12.806 Y59.799
X14.571 Y59.636
X18.1 Y59.305
X18.982 Y59.223
X19.865 Y59.144
X20.748 Y59.069
X21.631 Y58.999
X22.515 Y58.936
X23.4 Y58.881
X24.285 Y58.837
X25.17 Y58.805
X26.056 Y58.789
X26.942 Y58.79
X27.828 Y58.811
X28.713 Y58.857
X29.596 Y58.932
X30.475 Y59.043
X31.348 Y59.198
X32.108 Y59.383
X32.676 Y59.57
X33.136 Y59.764
X33.246 Y59.821
X33.499 Y59.99
X33.71 Y60.211
X33.869 Y60.471
X33.967 Y60.76
X34 Y61.063
Y63.355
X33.829 Y63.753
X33.508 Y63.897
X33.426 Y63.933
X-103.308 Y67.023
G3 X-105 Y65.499 I-0.111 J-1.579
G1 Y63.287
X-104.991 Y63.099
X-104.961 Y62.875
X-104.912 Y62.647
X-104.832 Y62.38
X-104.725 Y62.104
X-104.577 Y61.799
X-104.386 Y61.474
X-104.147 Y61.134
X-103.842 Y60.767
X-103.478 Y60.394
X-103.034 Y60.006
X-102.482 Y59.598
X-101.841 Y59.199
X-101.061 Y58.797
X-100.243 Y58.455
X-99.404 Y58.169
X-98.55 Y57.933
X-97.686 Y57.739
X-96.813 Y57.583
X-95.936 Y57.46
X-95.055 Y57.366
X-94.171 Y57.298
X-93.286 Y57.253
X-92.4 Y57.228
X-91.514 Y57.22
X-90.628 Y57.228
X-89.742 Y57.25
X-88.857 Y57.283
X-87.972 Y57.326
X-87.087 Y57.377
X-86.203 Y57.436
X-85.319 Y57.5
X-84.436 Y57.57
X-83.553 Y57.643
X-82.67 Y57.719
X-81.787 Y57.797
X-80.022 Y57.957
X-77.375 Y58.198
X-76.492 Y58.277
X-75.61 Y58.356
X-74.727 Y58.432
X-73.844 Y58.508
X-72.961 Y58.581
X-72.078 Y58.653
X-71.194 Y58.723
X-70.311 Y58.79
X-69.427 Y58.855
X-68.543 Y58.918
X-67.659 Y58.977
X-66.775 Y59.034
X-65.89 Y59.087
X-65.005 Y59.138
X-64.121 Y59.185
X-63.235 Y59.229
X-62.35 Y59.27
X-61.465 Y59.307
X-60.579 Y59.341
X-59.694 Y59.372
X-58.808 Y59.401
X-57.922 Y59.426
X-57.037 Y59.449
X-56.151 Y59.469
X-55.265 Y59.487
X-54.379 Y59.503
X-53.493 Y59.517
X-52.607 Y59.529
X-51.721 Y59.539
X-50.835 Y59.549
X-49.949 Y59.557
X-48.176 Y59.569
X-46.404 Y59.578
X-44.632 Y59.585
X-41.974 Y59.592
X-38.429 Y59.596
X-34.885 Y59.598
X-32.226 Y59.597
X-30.454 Y59.594
X-29.568 Y59.591
X-28.682 Y59.587
X-27.796 Y59.582
X-26.91 Y59.576
X-26.023 Y59.568
X-25.137 Y59.559
X-24.251 Y59.547
X-23.365 Y59.534
X-22.479 Y59.518
X-21.593 Y59.5
X-20.707 Y59.48
X-19.822 Y59.458
X-18.936 Y59.434
X-18.05 Y59.407
X-17.164 Y59.378
X-16.279 Y59.346
X-15.393 Y59.313
X-14.508 Y59.277
X-13.623 Y59.239
X-12.737 Y59.199
X-11.852 Y59.157
X-10.967 Y59.113
X-10.082 Y59.068
X-9.198 Y59.02
X-8.313 Y58.971
X-7.428 Y58.92
X-6.544 Y58.867
X-5.659 Y58.813
X-4.775 Y58.758
X-3.89 Y58.701
X-3.006 Y58.642
X-2.122 Y58.583
X-1.238 Y58.521
X-0.354 Y58.459
X0.53 Y58.395
X1.413 Y58.33
X2.297 Y58.264
X3.181 Y58.196
X4.064 Y58.127
X4.947 Y58.057
X5.831 Y57.986
X6.714 Y57.914
X7.597 Y57.84
X8.48 Y57.766
X9.363 Y57.69
X10.246 Y57.613
X11.128 Y57.536
X12.011 Y57.457
X13.776 Y57.296
X17.305 Y56.969
X18.188 Y56.889
X19.07 Y56.812
X19.953 Y56.738
X20.837 Y56.669
X21.721 Y56.605
X22.605 Y56.55
X23.49 Y56.504
X24.375 Y56.469
X25.261 Y56.448
X26.147 Y56.441
X27.033 Y56.452
X27.919 Y56.484
X28.803 Y56.541
X29.685 Y56.627
X30.563 Y56.748
X31.434 Y56.912
X32.178 Y57.102
X32.73 Y57.291
X33.185 Y57.489
X33.26 Y57.529
X33.509 Y57.699
X33.716 Y57.919
X33.871 Y58.178
X33.967 Y58.464
X34 Y58.764
Y61.063
X33.814 Y61.477
X33.509 Y61.607
X33.426 Y61.642
X-103.308 Y64.81
G3 X-105 Y63.287 I-0.111 J-1.579
G1 Y61.074
X-104.992 Y60.911
X-104.962 Y60.685
X-104.913 Y60.454
X-104.833 Y60.186
X-104.722 Y59.902
X-104.574 Y59.598
X-104.378 Y59.264
X-104.138 Y58.923
X-103.824 Y58.544
X-103.46 Y58.171
X-103.004 Y57.773
X-102.441 Y57.357
X-101.787 Y56.95
X-101 Y56.544
X-100.183 Y56.201
X-99.345 Y55.912
X-98.492 Y55.671
X-97.629 Y55.472
X-96.758 Y55.309
X-95.881 Y55.178
X-95.001 Y55.076
X-94.118 Y55
X-93.234 Y54.946
X-92.348 Y54.913
X-91.462 Y54.897
X-90.576 Y54.896
X-89.69 Y54.91
X-88.804 Y54.935
X-87.919 Y54.971
X-87.034 Y55.016
X-86.149 Y55.068
X-85.265 Y55.127
X-84.381 Y55.191
X-83.498 Y55.259
X-82.615 Y55.331
X-81.732 Y55.405
X-80.849 Y55.481
X-79.083 Y55.637
X-76.435 Y55.872
X-75.553 Y55.949
X-74.67 Y56.025
X-73.787 Y56.1
X-72.904 Y56.173
X-72.02 Y56.244
X-71.137 Y56.313
X-70.253 Y56.38
X-69.37 Y56.444
X-68.486 Y56.506
X-67.602 Y56.565
X-66.717 Y56.622
X-65.833 Y56.675
X-64.948 Y56.725
X-64.063 Y56.773
X-63.178 Y56.816
X-62.293 Y56.857
X-61.408 Y56.895
X-60.522 Y56.929
X-59.637 Y56.961
X-58.751 Y56.989
X-57.865 Y57.015
X-56.979 Y57.039
X-56.093 Y57.059
X-55.208 Y57.078
X-54.322 Y57.095
X-53.436 Y57.109
X-52.55 Y57.122
X-51.664 Y57.133
X-50.777 Y57.143
X-49.891 Y57.151
X-49.005 Y57.159
X-47.233 Y57.171
X-45.461 Y57.179
X-42.802 Y57.188
X-40.144 Y57.193
X-36.6 Y57.197
X-33.941
X-32.169 Y57.195
X-30.397 Y57.191
X-29.511 Y57.188
X-28.625 Y57.183
X-27.738 Y57.178
X-26.852 Y57.171
X-25.966 Y57.162
X-25.08 Y57.152
X-24.194 Y57.139
X-23.308 Y57.125
X-22.422 Y57.109
X-21.536 Y57.09
X-20.65 Y57.07
X-19.765 Y57.047
X-18.879 Y57.022
X-17.993 Y56.995
X-17.107 Y56.965
X-16.222 Y56.934
X-15.336 Y56.9
X-14.451 Y56.864
X-13.566 Y56.826
X-12.68 Y56.786
X-11.795 Y56.744
X-10.91 Y56.7
X-10.025 Y56.654
X-9.141 Y56.606
X-8.256 Y56.557
X-7.371 Y56.506
X-6.487 Y56.453
X-5.602 Y56.399
X-4.718 Y56.343
X-3.833 Y56.286
X-2.949 Y56.227
X-2.065 Y56.167
X-1.181 Y56.106
X-0.297 Y56.043
X0.587 Y55.979
X1.47 Y55.914
X2.354 Y55.847
X3.237 Y55.78
X4.121 Y55.711
X5.004 Y55.64
X5.887 Y55.569
X6.771 Y55.496
X7.654 Y55.423
X8.537 Y55.348
X9.419 Y55.272
X10.302 Y55.195
X12.067 Y55.038
X13.832 Y54.877
X16.48 Y54.636
X17.362 Y54.557
X18.245 Y54.481
X19.128 Y54.408
X20.012 Y54.339
X20.896 Y54.276
X21.78 Y54.219
X22.665 Y54.171
X23.55 Y54.133
X24.436 Y54.107
X25.322 Y54.093
X26.208 Y54.095
X27.094 Y54.115
X27.979 Y54.156
X28.863 Y54.221
X29.744 Y54.315
X30.621 Y54.444
X31.49 Y54.616
X32.226 Y54.81
X32.769 Y55.001
X33.219 Y55.202
X33.27 Y55.229
X33.516 Y55.4
X33.72 Y55.619
X33.873 Y55.876
X33.968 Y56.161
X34 Y56.458
Y58.764
X33.829 Y59.163
X33.508 Y59.306
X33.426 Y59.342
X-103.308 Y62.598
G3 X-105 Y61.074 I-0.111 J-1.579
G1 Y58.862
X-104.992 Y58.705
X-104.962 Y58.477
X-104.912 Y58.243
X-104.832 Y57.975
X-104.719 Y57.685
X-104.571 Y57.38
X-104.37 Y57.039
X-104.131 Y56.698
X-103.81 Y56.311
X-103.444 Y55.936
X-102.978 Y55.53
X-102.407 Y55.108
X-101.738 Y54.691
X-100.951 Y54.285
X-100.134 Y53.94
X-99.298 Y53.648
X-98.446 Y53.403
X-97.584 Y53.198
X-96.714 Y53.029
X-95.839 Y52.892
X-94.959 Y52.783
X-94.077 Y52.699
X-93.193 Y52.638
X-92.308 Y52.596
X-91.422 Y52.572
X-90.536 Y52.564
X-89.65 Y52.57
X-88.764 Y52.588
X-87.879 Y52.617
X-86.993 Y52.655
X-86.108 Y52.701
X-85.224 Y52.754
X-84.34 Y52.813
X-83.456 Y52.877
X-82.572 Y52.944
X-81.689 Y53.015
X-80.806 Y53.088
X-79.923 Y53.162
X-75.509 Y53.543
X-74.626 Y53.618
X-73.743 Y53.691
X-72.859 Y53.763
X-71.976 Y53.834
X-71.093 Y53.902
X-70.209 Y53.969
X-69.325 Y54.033
X-68.441 Y54.094
X-67.557 Y54.153
X-66.673 Y54.209
X-65.788 Y54.262
X-64.903 Y54.313
X-64.019 Y54.36
X-63.134 Y54.404
X-62.248 Y54.445
X-61.363 Y54.482
X-60.478 Y54.517
X-59.592 Y54.549
X-58.706 Y54.578
X-57.821 Y54.605
X-56.935 Y54.628
X-56.049 Y54.65
X-55.163 Y54.669
X-54.277 Y54.686
X-53.391 Y54.701
X-52.505 Y54.715
X-51.619 Y54.727
X-50.733 Y54.737
X-49.847 Y54.746
X-48.961 Y54.754
X-47.189 Y54.767
X-45.416 Y54.776
X-43.644 Y54.783
X-40.986 Y54.79
X-38.327 Y54.794
X-35.669 Y54.796
X-33.011 Y54.795
X-31.238 Y54.791
X-29.466 Y54.784
X-28.58 Y54.779
X-27.694 Y54.773
X-26.808 Y54.765
X-25.922 Y54.755
X-25.036 Y54.744
X-24.15 Y54.731
X-23.264 Y54.717
X-22.378 Y54.7
X-21.492 Y54.681
X-20.606 Y54.66
X-19.72 Y54.637
X-18.834 Y54.611
X-17.949 Y54.584
X-17.063 Y54.554
X-16.178 Y54.522
X-15.292 Y54.488
X-14.407 Y54.451
X-13.521 Y54.413
X-12.636 Y54.373
X-11.751 Y54.331
X-10.866 Y54.286
X-9.981 Y54.24
X-9.096 Y54.193
X-8.212 Y54.143
X-7.327 Y54.092
X-6.442 Y54.039
X-5.558 Y53.985
X-4.674 Y53.929
X-3.789 Y53.872
X-2.905 Y53.813
X-2.021 Y53.753
X-1.137 Y53.691
X-0.253 Y53.628
X0.631 Y53.564
X1.514 Y53.499
X2.398 Y53.432
X3.281 Y53.364
X4.165 Y53.295
X5.048 Y53.224
X5.931 Y53.153
X6.814 Y53.08
X7.698 Y53.006
X8.58 Y52.931
X9.463 Y52.855
X11.229 Y52.699
X13.876 Y52.461
X15.642 Y52.303
X16.524 Y52.225
X17.407 Y52.15
X18.29 Y52.077
X19.174 Y52.009
X20.058 Y51.945
X20.942 Y51.888
X21.827 Y51.838
X22.712 Y51.797
X23.597 Y51.766
X24.483 Y51.746
X25.369 Y51.74
X26.255 Y51.75
X27.141 Y51.777
X28.026 Y51.825
X28.909 Y51.898
X29.789 Y51.999
X30.665 Y52.135
X31.533 Y52.312
X32.263 Y52.51
X32.799 Y52.702
X33.247 Y52.905
X33.282 Y52.925
X33.528 Y53.098
X33.732 Y53.321
X33.883 Y53.581
X33.975 Y53.869
X34.003 Y54.169
X34 Y54.437
Y56.458
X33.829 Y56.857
X33.508 Y57
X33.426 Y57.037
X-103.308 Y60.385
G3 X-105 Y58.862 I-0.111 J-1.579
G1 Y57.856
X-105.004 Y57.655
X-105.021 Y57.253
X-105.041 Y57.052
X-105.057 Y56.899
X-105.061 Y56.709
X-105.049 Y56.513
X-105.017 Y56.279
X-104.962 Y56.033
X-104.878 Y55.761
X-104.756 Y55.457
X-104.602 Y55.147
X-104.389 Y54.793
X-104.141 Y54.445
X-103.805 Y54.048
X-103.423 Y53.663
X-102.937 Y53.247
X-102.341 Y52.814
X-101.632 Y52.381
X-100.841 Y51.982
X-100.023 Y51.641
X-99.186 Y51.352
X-98.334 Y51.107
X-97.472 Y50.902
X-96.603 Y50.731
X-95.728 Y50.59
X-94.849 Y50.477
X-93.967 Y50.389
X-93.083 Y50.322
X-92.199 Y50.275
X-91.313 Y50.245
X-90.427 Y50.231
X-89.541
X-88.655 Y50.243
X-87.769 Y50.266
X-86.883 Y50.299
X-85.998 Y50.34
X-85.113 Y50.388
X-84.229 Y50.442
X-83.345 Y50.502
X-82.461 Y50.565
X-81.577 Y50.632
X-80.694 Y50.702
X-79.811 Y50.773
X-78.045 Y50.92
X-75.396 Y51.144
X-74.513 Y51.217
X-73.629 Y51.289
X-72.746 Y51.36
X-71.863 Y51.43
X-70.979 Y51.498
X-70.095 Y51.563
X-69.212 Y51.626
X-68.328 Y51.687
X-67.443 Y51.746
X-66.559 Y51.801
X-65.674 Y51.854
X-64.79 Y51.904
X-63.905 Y51.951
X-63.02 Y51.994
X-62.135 Y52.035
X-61.249 Y52.073
X-60.364 Y52.108
X-59.478 Y52.14
X-58.593 Y52.169
X-57.707 Y52.196
X-56.821 Y52.22
X-55.935 Y52.242
X-55.049 Y52.262
X-54.163 Y52.279
X-53.277 Y52.295
X-52.391 Y52.309
X-51.505 Y52.321
X-50.619 Y52.332
X-49.733 Y52.341
X-48.847 Y52.35
X-47.075 Y52.363
X-45.303 Y52.373
X-43.531 Y52.381
X-40.872 Y52.389
X-38.214 Y52.393
X-35.555 Y52.395
X-33.783 Y52.394
X-32.011 Y52.391
X-30.239 Y52.384
X-29.353 Y52.38
X-28.467 Y52.374
X-27.58 Y52.367
X-26.694 Y52.358
X-25.808 Y52.348
X-24.922 Y52.336
X-24.036 Y52.323
X-23.15 Y52.307
X-22.264 Y52.289
X-21.378 Y52.27
X-20.493 Y52.248
X-19.607 Y52.224
X-18.721 Y52.198
X-17.835 Y52.17
X-16.95 Y52.14
X-16.064 Y52.107
X-15.179 Y52.073
X-14.293 Y52.036
X-13.408 Y51.997
X-12.523 Y51.957
X-11.638 Y51.914
X-10.753 Y51.87
X-9.868 Y51.824
X-8.983 Y51.776
X-8.098 Y51.726
X-7.214 Y51.674
X-6.329 Y51.621
X-5.445 Y51.567
X-4.56 Y51.511
X-3.676 Y51.453
X-2.792 Y51.394
X-1.908 Y51.334
X-1.024 Y51.272
X-0.14 Y51.209
X0.744 Y51.144
X1.627 Y51.078
X2.511 Y51.011
X3.394 Y50.943
X4.278 Y50.873
X5.161 Y50.802
X6.044 Y50.73
X6.927 Y50.657
X7.81 Y50.583
X8.693 Y50.508
X10.459 Y50.354
X13.989 Y50.041
X14.872 Y49.963
X15.755 Y49.887
X16.638 Y49.812
X17.521 Y49.741
X18.405 Y49.672
X19.289 Y49.609
X20.173 Y49.551
X21.057 Y49.5
X21.943 Y49.457
X22.828 Y49.422
X23.714 Y49.399
X24.6 Y49.387
X25.486 Y49.389
X26.372 Y49.407
X27.257 Y49.443
X28.142 Y49.5
X29.024 Y49.58
X29.903 Y49.69
X30.778 Y49.834
X31.644 Y50.02
X32.347 Y50.22
X32.862 Y50.412
X33.304 Y50.619
X33.654 Y50.818
X33.829 Y50.937
X34.076 Y51.153
X34.267 Y51.419
X34.391 Y51.723
X34.44 Y52.047
X34.412 Y52.374
X34.31 Y52.686
X34.031 Y52.956
X33.634 Y52.972
X-103.509 Y58.292
G3 X-105.041 Y57.052 I0.013 J-1.583
G1 X-105.078 Y56.851
X-105.133 Y56.649
X-105.204 Y56.448
X-105.289 Y56.247
X-105.39 Y56.046
X-105.457 Y55.912
X-105.508 Y55.771
X-105.549 Y55.621
X-105.583 Y55.44
X-105.604 Y55.251
X-105.609 Y55.023
X-105.597 Y54.788
X-105.559 Y54.515
X-105.498 Y54.235
X-105.401 Y53.915
X-105.272 Y53.588
X-105.09 Y53.219
X-104.87 Y52.848
X-104.572 Y52.429
X-104.233 Y52.023
X-103.789 Y51.573
X-103.273 Y51.127
X-102.653 Y50.672
X-101.898 Y50.208
X-101.109 Y49.805
X-100.295 Y49.456
X-99.461 Y49.156
X-98.613 Y48.898
X-97.754 Y48.679
X-96.888 Y48.494
X-96.015 Y48.339
X-95.138 Y48.212
X-94.258 Y48.109
X-93.376 Y48.029
X-92.492 Y47.969
X-91.607 Y47.927
X-90.721 Y47.902
X-89.835 Y47.891
X-88.949 Y47.892
X-88.063 Y47.906
X-87.177 Y47.929
X-86.291 Y47.962
X-85.406 Y48.002
X-84.521 Y48.049
X-83.637 Y48.102
X-82.752 Y48.16
X-81.868 Y48.221
X-80.985 Y48.287
X-80.101 Y48.354
X-79.218 Y48.424
X-77.451 Y48.567
X-74.802 Y48.785
X-73.919 Y48.856
X-73.035 Y48.927
X-72.152 Y48.996
X-71.268 Y49.063
X-70.385 Y49.129
X-69.501 Y49.192
X-68.617 Y49.254
X-67.733 Y49.313
X-66.848 Y49.369
X-65.964 Y49.423
X-65.079 Y49.473
X-64.194 Y49.521
X-63.309 Y49.566
X-62.424 Y49.608
X-61.539 Y49.647
X-60.654 Y49.684
X-59.768 Y49.717
X-58.882 Y49.748
X-57.997 Y49.776
X-57.111 Y49.802
X-56.225 Y49.825
X-55.339 Y49.846
X-54.453 Y49.865
X-53.567 Y49.881
X-52.681 Y49.897
X-51.795 Y49.91
X-50.909 Y49.922
X-50.023 Y49.932
X-49.137 Y49.942
X-48.251 Y49.95
X-46.479 Y49.963
X-44.707 Y49.973
X-42.935 Y49.981
X-40.276 Y49.988
X-37.618 Y49.992
X-34.959 Y49.993
X-33.187 Y49.991
X-31.415 Y49.986
X-30.529 Y49.983
X-29.643 Y49.978
X-28.757 Y49.972
X-27.871 Y49.965
X-26.984 Y49.956
X-26.098 Y49.946
X-25.212 Y49.934
X-24.326 Y49.92
X-23.44 Y49.905
X-22.554 Y49.888
X-21.668 Y49.868
X-20.783 Y49.847
X-19.897 Y49.823
X-19.011 Y49.798
X-18.125 Y49.77
X-17.24 Y49.74
X-16.354 Y49.708
X-15.469 Y49.674
X-14.583 Y49.638
X-13.698 Y49.6
X-12.813 Y49.56
X-11.928 Y49.518
X-11.043 Y49.474
X-10.158 Y49.428
X-9.273 Y49.381
X-8.388 Y49.332
X-7.503 Y49.281
X-6.619 Y49.228
X-5.734 Y49.174
X-4.85 Y49.118
X-3.966 Y49.061
X-3.082 Y49.002
X-2.198 Y48.942
X-1.314 Y48.881
X-0.43 Y48.818
X0.454 Y48.753
X1.338 Y48.688
X2.221 Y48.621
X3.105 Y48.553
X3.988 Y48.484
X4.872 Y48.413
X5.755 Y48.341
X6.638 Y48.268
X7.521 Y48.194
X9.287 Y48.044
X11.935 Y47.812
X13.701 Y47.658
X14.583 Y47.581
X15.466 Y47.507
X16.35 Y47.434
X17.233 Y47.365
X18.117 Y47.299
X19.001 Y47.239
X19.885 Y47.183
X20.77 Y47.134
X21.655 Y47.093
X22.541 Y47.061
X23.426 Y47.04
X24.313 Y47.03
X25.199 Y47.033
X26.085 Y47.051
X26.97 Y47.087
X27.854 Y47.142
X28.737 Y47.22
X29.617 Y47.324
X30.493 Y47.459
X31.362 Y47.632
X32.219 Y47.858
X32.917 Y48.097
X33.478 Y48.341
X33.891 Y48.562
X34.265 Y48.803
X34.565 Y49.031
X34.846 Y49.285
X35.07 Y49.521
X35.285 Y49.788
X35.326 Y49.848
X35.467 Y50.111
X35.548 Y50.397
X35.567 Y50.695
X35.523 Y50.99
X35.417 Y51.269
X35.254 Y51.519
X35.042 Y51.729
X34.635 Y51.849
X34.275 Y51.862
X-104.113 Y56.731
G3 X-105.39 Y56.046 I0.027 J-1.582
G1 X-105.523 Y55.838
X-105.667 Y55.644
X-105.724 Y55.575
X-105.843 Y55.443
X-105.926 Y55.361
X-105.966 Y55.325
X-106.072 Y55.219
X-106.163 Y55.1
X-106.243 Y54.973
X-106.318 Y54.827
X-106.384 Y54.668
X-106.446 Y54.477
X-106.494 Y54.275
X-106.53 Y54.038
X-106.549 Y53.789
X-106.547 Y53.501
X-106.52 Y53.2
X-106.464 Y52.867
X-106.373 Y52.51
X-106.244 Y52.13
X-106.063 Y51.713
X-105.841 Y51.297
X-105.542 Y50.83
X-105.193 Y50.371
X-104.754 Y49.881
X-104.215 Y49.368
X-103.59 Y48.863
X-102.858 Y48.363
X-102.09 Y47.922
X-101.293 Y47.534
X-100.475 Y47.194
X-99.64 Y46.897
X-98.792 Y46.639
X-97.934 Y46.416
X-97.069 Y46.226
X-96.198 Y46.064
X-95.322 Y45.929
X-94.443 Y45.818
X-93.561 Y45.729
X-92.678 Y45.66
X-91.793 Y45.608
X-90.908 Y45.574
X-90.022 Y45.553
X-89.136 Y45.547
X-88.25 Y45.552
X-87.364 Y45.567
X-86.478 Y45.592
X-85.592 Y45.626
X-84.707 Y45.667
X-83.822 Y45.713
X-82.938 Y45.766
X-82.053 Y45.823
X-81.169 Y45.883
X-80.286 Y45.947
X-79.402 Y46.014
X-78.518 Y46.082
X-76.752 Y46.222
X-74.102 Y46.433
X-73.218 Y46.503
X-72.335 Y46.571
X-71.451 Y46.638
X-70.568 Y46.703
X-69.684 Y46.767
X-68.8 Y46.828
X-67.916 Y46.887
X-67.031 Y46.944
X-66.147 Y46.998
X-65.262 Y47.049
X-64.377 Y47.098
X-63.492 Y47.143
X-62.607 Y47.186
X-61.722 Y47.226
X-60.837 Y47.264
X-59.951 Y47.298
X-59.066 Y47.33
X-58.18 Y47.359
X-57.294 Y47.385
X-56.409 Y47.41
X-55.523 Y47.432
X-54.637 Y47.452
X-53.751 Y47.47
X-52.865 Y47.486
X-51.979 Y47.5
X-51.093 Y47.513
X-50.207 Y47.524
X-49.321 Y47.534
X-48.435 Y47.543
X-46.663 Y47.558
X-44.89 Y47.569
X-43.118 Y47.577
X-40.46 Y47.586
X-37.801 Y47.591
X-35.143
X-33.371 Y47.589
X-31.599 Y47.584
X-30.712 Y47.58
X-29.826 Y47.575
X-28.94 Y47.569
X-28.054 Y47.562
X-27.168 Y47.553
X-26.282 Y47.542
X-25.396 Y47.53
X-24.51 Y47.517
X-23.624 Y47.501
X-22.738 Y47.484
X-21.852 Y47.464
X-20.966 Y47.443
X-20.08 Y47.42
X-19.195 Y47.394
X-18.309 Y47.367
X-17.423 Y47.337
X-16.538 Y47.305
X-15.652 Y47.271
X-14.767 Y47.236
X-13.882 Y47.198
X-12.996 Y47.158
X-12.111 Y47.116
X-11.226 Y47.073
X-10.341 Y47.027
X-9.456 Y46.98
X-8.572 Y46.931
X-7.687 Y46.88
X-6.802 Y46.828
X-5.918 Y46.774
X-5.033 Y46.719
X-4.149 Y46.662
X-3.265 Y46.603
X-2.381 Y46.543
X-1.497 Y46.482
X-0.613 Y46.419
X0.271 Y46.355
X1.154 Y46.29
X2.038 Y46.223
X2.922 Y46.155
X3.805 Y46.086
X4.688 Y46.015
X5.572 Y45.944
X6.455 Y45.871
X8.221 Y45.722
X9.986 Y45.571
X12.635 Y45.341
X13.518 Y45.266
X14.401 Y45.192
X15.284 Y45.119
X16.167 Y45.049
X17.051 Y44.982
X17.935 Y44.92
X18.819 Y44.862
X19.704 Y44.809
X20.589 Y44.764
X21.474 Y44.726
X22.36 Y44.697
X23.245 Y44.678
X24.132 Y44.67
X25.018 Y44.676
X25.904 Y44.696
X26.789 Y44.733
X27.673 Y44.789
X28.556 Y44.867
X29.436 Y44.969
X30.313 Y45.1
X31.183 Y45.266
X32.044 Y45.475
X32.891 Y45.736
X33.651 Y46.035
X34.295 Y46.35
X34.866 Y46.688
X35.337 Y47.021
X35.726 Y47.346
X36.023 Y47.637
X36.291 Y47.947
X36.499 Y48.23
X36.688 Y48.534
X36.83 Y48.813
X36.956 Y49.115
X37.045 Y49.391
X37.114 Y49.685
X37.125 Y49.99
X37.062 Y50.289
X36.932 Y50.564
X36.739 Y50.801
X36.497 Y50.986
X36.218 Y51.108
X35.433 Y51.134
X-104.919 Y55.698
G3 X-105.966 Y55.325 I-0.027 J-1.582
G1 X-106.058 Y55.241
X-106.127 Y55.186
X-106.328 Y55.037
X-106.53 Y54.909
X-106.67 Y54.839
X-106.802 Y54.767
X-106.924 Y54.681
X-107.037 Y54.582
X-107.141 Y54.473
X-107.247 Y54.343
X-107.345 Y54.198
X-107.445 Y54.023
X-107.534 Y53.834
X-107.618 Y53.611
X-107.687 Y53.369
X-107.741 Y53.097
X-107.777 Y52.795
X-107.789 Y52.475
X-107.773 Y52.109
X-107.726 Y51.736
X-107.64 Y51.318
X-107.511 Y50.878
X-107.336 Y50.419
X-107.093 Y49.909
X-106.8 Y49.404
X-106.429 Y48.869
X-105.96 Y48.296
X-105.421 Y47.736
X-104.782 Y47.171
X-104.073 Y46.639
X-103.327 Y46.161
X-102.551 Y45.732
X-101.752 Y45.349
X-100.935 Y45.008
X-100.101 Y44.706
X-99.256 Y44.439
X-98.401 Y44.206
X-97.539 Y44.004
X-96.67 Y43.829
X-95.796 Y43.681
X-94.919 Y43.556
X-94.039 Y43.453
X-93.157 Y43.371
X-92.273 Y43.306
X-91.388 Y43.258
X-90.502 Y43.226
X-89.617 Y43.207
X-88.73 Y43.2
X-87.844 Y43.205
X-86.958 Y43.22
X-86.073 Y43.244
X-85.187 Y43.276
X-84.302 Y43.315
X-83.417 Y43.36
X-82.532 Y43.41
X-81.648 Y43.465
X-80.763 Y43.524
X-79.879 Y43.585
X-78.996 Y43.65
X-78.112 Y43.716
X-76.345 Y43.852
X-73.695 Y44.058
X-72.811 Y44.125
X-71.928 Y44.192
X-71.044 Y44.257
X-70.16 Y44.321
X-69.276 Y44.383
X-68.392 Y44.443
X-67.508 Y44.5
X-66.623 Y44.556
X-65.739 Y44.608
X-64.854 Y44.658
X-63.969 Y44.705
X-63.084 Y44.75
X-62.199 Y44.792
X-61.314 Y44.831
X-60.428 Y44.867
X-59.543 Y44.901
X-58.657 Y44.932
X-57.772 Y44.96
X-56.886 Y44.986
X-56 Y45.01
X-55.114 Y45.032
X-54.228 Y45.051
X-53.342 Y45.069
X-52.456 Y45.085
X-51.57 Y45.099
X-50.684 Y45.112
X-49.798 Y45.123
X-48.912 Y45.133
X-48.026 Y45.142
X-46.254 Y45.156
X-44.482 Y45.168
X-42.71 Y45.176
X-40.937 Y45.182
X-38.279 Y45.188
X-36.507 Y45.19
X-34.734 Y45.189
X-32.962 Y45.186
X-31.19 Y45.179
X-30.304 Y45.174
X-29.418 Y45.168
X-28.532 Y45.161
X-27.646 Y45.153
X-26.759 Y45.143
X-25.873 Y45.131
X-24.987 Y45.118
X-24.101 Y45.103
X-23.215 Y45.086
X-22.33 Y45.067
X-21.444 Y45.047
X-20.558 Y45.024
X-19.672 Y44.999
X-18.786 Y44.973
X-17.901 Y44.944
X-17.015 Y44.913
X-16.13 Y44.88
X-15.244 Y44.845
X-14.359 Y44.808
X-13.473 Y44.769
X-12.588 Y44.729
X-11.703 Y44.686
X-10.818 Y44.641
X-9.933 Y44.595
X-9.048 Y44.547
X-8.164 Y44.497
X-7.279 Y44.446
X-6.395 Y44.392
X-5.51 Y44.338
X-4.626 Y44.281
X-3.742 Y44.224
X-2.857 Y44.164
X-1.973 Y44.104
X-1.089 Y44.041
X-0.206 Y43.978
X0.678 Y43.913
X1.562 Y43.847
X2.445 Y43.779
X3.329 Y43.711
X4.212 Y43.641
X5.095 Y43.57
X5.979 Y43.498
X7.745 Y43.35
X10.393 Y43.125
X12.159 Y42.974
X13.042 Y42.899
X13.925 Y42.826
X14.809 Y42.755
X15.692 Y42.687
X16.576 Y42.621
X17.46 Y42.559
X18.344 Y42.502
X19.229 Y42.451
X20.114 Y42.406
X20.999 Y42.368
X21.885 Y42.339
X22.771 Y42.32
X23.657 Y42.311
X24.543 Y42.315
X25.429 Y42.332
X26.314 Y42.364
X27.199 Y42.414
X28.082 Y42.484
X28.964 Y42.575
X29.842 Y42.692
X30.716 Y42.837
X31.584 Y43.018
X32.441 Y43.241
X33.286 Y43.51
X34.111 Y43.832
X34.913 Y44.209
X35.602 Y44.602
X36.211 Y45.017
X36.74 Y45.444
X37.19 Y45.872
X37.581 Y46.308
X37.92 Y46.752
X38.195 Y47.182
X38.403 Y47.571
X38.559 Y47.931
X38.677 Y48.275
X38.762 Y48.609
X38.814 Y48.914
X38.842 Y49.235
X38.845 Y49.517
X38.823 Y49.813
X38.752 Y50.087
X38.627 Y50.341
X38.454 Y50.564
X38.24 Y50.749
X37.992 Y50.886
X37.722 Y50.971
X37.441 Y51
X37.142 Y51.001
G3 X36.577 Y50.537 I0.019 J-0.6
G1 X36.307 Y50.012
G2 X34.031 Y48.624 I-2.239 J1.112
G1 X-105.904 Y54.967
X-106.034 Y54.973
G3 X-106.67 Y54.839 I0 J-1.583
G1 X-106.731 Y54.81
X-106.932 Y54.724
X-107.134 Y54.652
X-107.335 Y54.601
X-107.446 Y54.58
X-107.592 Y54.545
X-107.734 Y54.498
X-107.871 Y54.436
X-108 Y54.361
X-108.128 Y54.272
X-108.261 Y54.162
X-108.392 Y54.035
X-108.528 Y53.879
X-108.657 Y53.707
X-108.786 Y53.501
X-108.903 Y53.275
X-109.011 Y53.017
X-109.107 Y52.725
X-109.183 Y52.414
X-109.24 Y52.056
X-109.269 Y51.682
X-109.267 Y51.266
X-109.229 Y50.808
X-109.152 Y50.343
X-109.024 Y49.829
X-108.837 Y49.273
X-108.599 Y48.719
X-108.284 Y48.121
X-107.881 Y47.486
X-107.408 Y46.859
X-106.846 Y46.226
X-106.206 Y45.612
X-105.522 Y45.049
X-104.801 Y44.533
X-104.051 Y44.063
X-103.275 Y43.635
X-102.478 Y43.247
X-101.663 Y42.898
X-100.835 Y42.584
X-99.994 Y42.304
X-99.143 Y42.055
X-98.285 Y41.836
X-97.42 Y41.645
X-96.549 Y41.478
X-95.675 Y41.336
X-94.797 Y41.215
X-93.917 Y41.114
X-93.034 Y41.032
X-92.151 Y40.966
X-91.266 Y40.917
X-90.38 Y40.882
X-89.494 Y40.861
X-88.608 Y40.851
X-87.722 Y40.853
X-86.836 Y40.864
X-85.95 Y40.885
X-85.065 Y40.913
X-84.179 Y40.949
X-83.294 Y40.99
X-82.409 Y41.037
X-81.525 Y41.089
X-80.64 Y41.144
X-79.756 Y41.203
X-78.872 Y41.265
X-77.988 Y41.328
X-77.105 Y41.394
X-72.686 Y41.727
X-71.803 Y41.792
X-70.919 Y41.856
X-70.035 Y41.919
X-69.151 Y41.98
X-68.267 Y42.039
X-67.383 Y42.096
X-66.498 Y42.15
X-65.614 Y42.202
X-64.729 Y42.252
X-63.844 Y42.299
X-62.959 Y42.343
X-62.074 Y42.384
X-61.188 Y42.423
X-60.303 Y42.459
X-59.418 Y42.493
X-58.532 Y42.524
X-57.646 Y42.553
X-56.761 Y42.579
X-55.875 Y42.603
X-54.989 Y42.625
X-54.103 Y42.645
X-53.217 Y42.663
X-52.331 Y42.679
X-51.445 Y42.694
X-50.559 Y42.707
X-49.673 Y42.718
X-48.787 Y42.729
X-47.901 Y42.738
X-46.129 Y42.753
X-44.357 Y42.765
X-42.584 Y42.774
X-40.812 Y42.78
X-39.04 Y42.785
X-37.268 Y42.787
X-35.495
X-33.723 Y42.785
X-31.951 Y42.779
X-31.065 Y42.775
X-30.179 Y42.769
X-29.293 Y42.763
X-28.406 Y42.755
X-27.52 Y42.746
X-26.634 Y42.735
X-25.748 Y42.723
X-24.862 Y42.709
X-23.976 Y42.693
X-23.09 Y42.676
X-22.204 Y42.657
X-21.319 Y42.635
X-20.433 Y42.612
X-19.547 Y42.587
X-18.661 Y42.559
X-17.776 Y42.53
X-16.89 Y42.499
X-16.005 Y42.465
X-15.119 Y42.43
X-14.234 Y42.393
X-13.349 Y42.353
X-12.463 Y42.312
X-11.578 Y42.269
X-10.693 Y42.224
X-9.808 Y42.178
X-8.924 Y42.129
X-8.039 Y42.079
X-7.154 Y42.027
X-6.27 Y41.974
X-5.385 Y41.919
X-4.501 Y41.862
X-3.617 Y41.804
X-2.733 Y41.744
X-1.849 Y41.683
X-0.965 Y41.621
X-0.081 Y41.557
X0.803 Y41.492
X1.686 Y41.425
X2.57 Y41.357
X3.453 Y41.288
X4.337 Y41.218
X5.22 Y41.147
X6.986 Y41.002
X9.635 Y40.779
X11.401 Y40.63
X12.284 Y40.556
X13.167 Y40.484
X14.051 Y40.413
X14.934 Y40.345
X15.818 Y40.28
X16.702 Y40.218
X17.586 Y40.16
X18.471 Y40.108
X19.356 Y40.061
X20.241 Y40.022
X21.126 Y39.99
X22.012 Y39.966
X22.898 Y39.953
X23.784 Y39.95
X24.67 Y39.96
X25.556 Y39.984
X26.441 Y40.023
X27.326 Y40.078
X28.209 Y40.153
X29.09 Y40.249
X29.967 Y40.371
X30.841 Y40.521
X31.708 Y40.703
X32.567 Y40.921
X33.415 Y41.177
X34.25 Y41.473
X35.067 Y41.817
X35.861 Y42.21
X36.626 Y42.657
X37.353 Y43.158
X38.006 Y43.689
X38.585 Y44.243
X39.083 Y44.803
X39.493 Y45.346
X39.831 Y45.879
X40.111 Y46.407
X40.337 Y46.933
X40.509 Y47.445
X40.621 Y47.891
X40.692 Y48.322
X40.724 Y48.695
X40.725 Y49.064
X40.7 Y49.395
X40.648 Y49.722
X40.578 Y50.014
X40.57 Y50.037
X40.45 Y50.303
X40.278 Y50.539
X40.061 Y50.734
X39.808 Y50.88
X39.53 Y50.97
X39.24 Y51
X37.441
G3 X36.877 Y50.536 I0.02 J-0.6
G1 X36.698 Y50.213
G2 X34.232 Y48.623 I-2.33 J0.906
G1 X-106.662 Y54.575
X-107.209 Y54.598
X-107.328 Y54.594
X-107.446 Y54.58
X-107.537 Y54.563
X-107.738 Y54.54
X-108.141 Y54.528
X-108.342 Y54.523
X-108.453
X-108.603 Y54.516
X-108.75 Y54.489
X-108.895 Y54.448
X-109.038 Y54.394
X-109.19 Y54.322
X-109.351 Y54.229
X-109.512 Y54.119
X-109.683 Y53.979
X-109.849 Y53.821
X-110.018 Y53.63
X-110.184 Y53.412
X-110.339 Y53.167
X-110.492 Y52.879
X-110.624 Y52.57
X-110.742 Y52.22
X-110.841 Y51.827
X-110.909 Y51.415
X-110.948 Y50.949
X-110.95 Y50.441
X-110.911 Y49.922
X-110.82 Y49.348
X-110.669 Y48.721
X-110.462 Y48.093
X-110.184 Y47.43
X-109.82 Y46.726
X-109.365 Y45.999
X-108.837 Y45.288
X-108.255 Y44.62
X-107.626 Y43.996
X-106.956 Y43.415
X-106.252 Y42.877
X-105.519 Y42.379
X-104.761 Y41.92
X-103.982 Y41.498
X-103.185 Y41.111
X-102.372 Y40.759
X-101.545 Y40.439
X-100.708 Y40.15
X-99.86 Y39.891
X-99.005 Y39.66
X-98.143 Y39.455
X-97.275 Y39.274
X-96.403 Y39.116
X-95.528 Y38.98
X-94.649 Y38.863
X-93.769 Y38.765
X-92.886 Y38.685
X-92.002 Y38.62
X-91.118 Y38.571
X-90.232 Y38.535
X-89.346 Y38.512
X-88.46 Y38.5
X-87.574 Y38.499
X-86.688 Y38.508
X-85.802 Y38.525
X-84.917 Y38.551
X-84.031 Y38.583
X-83.146 Y38.622
X-82.261 Y38.666
X-81.376 Y38.714
X-80.491 Y38.767
X-79.607 Y38.823
X-78.723 Y38.882
X-77.839 Y38.944
X-76.955 Y39.007
X-75.187 Y39.136
X-72.536 Y39.331
X-71.652 Y39.395
X-70.769 Y39.458
X-69.885 Y39.519
X-69 Y39.579
X-68.116 Y39.637
X-67.232 Y39.693
X-66.347 Y39.747
X-65.463 Y39.798
X-64.578 Y39.847
X-63.693 Y39.893
X-62.808 Y39.937
X-61.923 Y39.978
X-61.038 Y40.017
X-60.152 Y40.053
X-59.267 Y40.087
X-58.381 Y40.118
X-57.495 Y40.147
X-56.61 Y40.173
X-55.724 Y40.197
X-54.838 Y40.219
X-53.952 Y40.239
X-53.066 Y40.257
X-52.18 Y40.274
X-51.294 Y40.289
X-50.408 Y40.302
X-49.522 Y40.314
X-48.636 Y40.325
X-47.75 Y40.334
X-45.978 Y40.35
X-44.206 Y40.362
X-42.434 Y40.372
X-40.661 Y40.378
X-38.889 Y40.383
X-37.117 Y40.385
X-35.345
X-33.572 Y40.382
X-31.8 Y40.375
X-30.914 Y40.37
X-30.028 Y40.364
X-29.142 Y40.357
X-28.256 Y40.349
X-27.37 Y40.339
X-26.484 Y40.327
X-25.598 Y40.314
X-24.712 Y40.3
X-23.826 Y40.283
X-22.94 Y40.265
X-22.054 Y40.245
X-21.168 Y40.223
X-20.282 Y40.199
X-19.396 Y40.173
X-18.511 Y40.145
X-17.625 Y40.116
X-16.739 Y40.084
X-15.854 Y40.05
X-14.969 Y40.014
X-14.083 Y39.976
X-13.198 Y39.936
X-12.313 Y39.895
X-11.428 Y39.851
X-10.543 Y39.806
X-9.658 Y39.759
X-8.773 Y39.71
X-7.889 Y39.659
X-7.004 Y39.607
X-6.12 Y39.553
X-5.235 Y39.498
X-4.351 Y39.441
X-3.467 Y39.382
X-2.583 Y39.322
X-1.699 Y39.261
X-0.815 Y39.198
X0.069 Y39.134
X0.953 Y39.068
X1.836 Y39.002
X2.72 Y38.933
X3.603 Y38.864
X4.487 Y38.794
X6.253 Y38.65
X8.902 Y38.43
X10.668 Y38.283
X11.552 Y38.21
X12.435 Y38.139
X13.318 Y38.069
X14.202 Y38.001
X15.085 Y37.936
X15.969 Y37.874
X16.854 Y37.816
X17.738 Y37.763
X18.623 Y37.715
X19.508 Y37.674
X20.394 Y37.639
X21.279 Y37.613
X22.165 Y37.595
X23.051 Y37.588
X23.937 Y37.591
X24.823 Y37.607
X25.709 Y37.637
X26.594 Y37.682
X27.478 Y37.743
X28.361 Y37.823
X29.241 Y37.925
X30.118 Y38.051
X30.991 Y38.203
X31.858 Y38.384
X32.719 Y38.596
X33.57 Y38.841
X34.411 Y39.122
X35.238 Y39.44
X36.048 Y39.799
X36.836 Y40.204
X37.6 Y40.653
X38.334 Y41.149
X39.035 Y41.691
X39.697 Y42.281
X40.314 Y42.916
X40.869 Y43.586
X41.348 Y44.268
X41.745 Y44.942
X42.061 Y45.594
X42.307 Y46.228
X42.493 Y46.848
X42.62 Y47.443
X42.694 Y48.009
X42.718 Y48.487
X42.704 Y48.937
X42.661 Y49.322
X42.59 Y49.688
X42.499 Y50.015
X42.474 Y50.083
X42.35 Y50.338
X42.176 Y50.563
X41.961 Y50.748
X41.713 Y50.886
X41.442 Y50.971
X41.16 Y51
X39.24
G3 X38.676 Y50.535 I0.021 J-0.6
G1 X38.498 Y50.213
G2 X36.044 Y48.618 I-2.332 J0.902
G1 X-107.668 Y54.491
X-108.453 Y54.523
X-109.752
X-109.908 Y54.515
X-110.057 Y54.496
X-110.213 Y54.461
X-110.373 Y54.412
X-110.549 Y54.342
X-110.728 Y54.254
X-110.919 Y54.14
X-111.114 Y54
X-111.31 Y53.834
X-111.514 Y53.633
X-111.707 Y53.409
X-111.902 Y53.14
X-112.087 Y52.838
X-112.258 Y52.501
X-112.417 Y52.112
X-112.549 Y51.696
X-112.656 Y51.235
X-112.734 Y50.711
X-112.771 Y50.162
X-112.763 Y49.574
X-112.702 Y48.927
X-112.579 Y48.228
X-112.397 Y47.525
X-112.135 Y46.773
X-111.785 Y45.978
X-111.364 Y45.199
X-110.885 Y44.453
X-110.354 Y43.744
X-109.776 Y43.072
X-109.157 Y42.439
X-108.5 Y41.843
X-107.813 Y41.284
X-107.097 Y40.762
X-106.357 Y40.274
X-105.596 Y39.821
X-104.815 Y39.401
X-104.019 Y39.012
X-103.208 Y38.655
X-102.385 Y38.327
X-101.55 Y38.029
X-100.707 Y37.758
X-99.855 Y37.514
X-98.996 Y37.294
X-98.132 Y37.098
X-97.264 Y36.924
X-96.391 Y36.771
X-95.515 Y36.637
X-94.636 Y36.522
X-93.755 Y36.425
X-92.873 Y36.344
X-91.989 Y36.278
X-91.105 Y36.226
X-90.219 Y36.188
X-89.334 Y36.162
X-88.448 Y36.147
X-87.561 Y36.143
X-86.675 Y36.148
X-85.789 Y36.162
X-84.903 Y36.183
X-84.018 Y36.212
X-83.132 Y36.247
X-82.247 Y36.287
X-81.362 Y36.332
X-80.477 Y36.382
X-79.593 Y36.435
X-78.709 Y36.491
X-77.824 Y36.55
X-76.94 Y36.611
X-75.173 Y36.735
X-72.521 Y36.926
X-70.753 Y37.05
X-69.869 Y37.111
X-68.985 Y37.17
X-68.101 Y37.227
X-67.216 Y37.282
X-66.332 Y37.336
X-65.447 Y37.387
X-64.562 Y37.435
X-63.677 Y37.482
X-62.792 Y37.526
X-61.907 Y37.567
X-61.022 Y37.606
X-60.137 Y37.642
X-59.251 Y37.676
X-58.365 Y37.707
X-57.48 Y37.736
X-56.594 Y37.763
X-55.708 Y37.788
X-54.822 Y37.81
X-53.937 Y37.831
X-53.051 Y37.85
X-52.165 Y37.867
X-51.279 Y37.882
X-50.393 Y37.896
X-49.507 Y37.908
X-48.621 Y37.919
X-47.735 Y37.929
X-46.848 Y37.938
X-45.076 Y37.953
X-43.304 Y37.964
X-41.532 Y37.972
X-39.76 Y37.978
X-37.987 Y37.982
X-36.215 Y37.983
X-34.443 Y37.981
X-32.671 Y37.975
X-31.785 Y37.971
X-30.898 Y37.966
X-30.012 Y37.96
X-29.126 Y37.952
X-28.24 Y37.943
X-27.354 Y37.933
X-26.468 Y37.921
X-25.582 Y37.908
X-24.696 Y37.893
X-23.81 Y37.876
X-22.924 Y37.857
X-22.038 Y37.837
X-21.152 Y37.815
X-20.267 Y37.79
X-19.381 Y37.764
X-18.495 Y37.736
X-17.61 Y37.706
X-16.724 Y37.674
X-15.839 Y37.639
X-14.953 Y37.603
X-14.068 Y37.565
X-13.183 Y37.525
X-12.298 Y37.484
X-11.412 Y37.44
X-10.528 Y37.394
X-9.643 Y37.347
X-8.758 Y37.298
X-7.873 Y37.247
X-6.989 Y37.195
X-6.104 Y37.141
X-5.22 Y37.086
X-4.336 Y37.028
X-3.451 Y36.97
X-2.567 Y36.91
X-1.683 Y36.848
X-0.799 Y36.785
X0.084 Y36.721
X0.968 Y36.655
X1.852 Y36.588
X2.735 Y36.52
X3.619 Y36.451
X5.385 Y36.309
X8.035 Y36.092
X10.684 Y35.875
X11.567 Y35.804
X12.451 Y35.734
X13.334 Y35.666
X14.218 Y35.601
X15.102 Y35.539
X15.986 Y35.48
X16.871 Y35.425
X17.755 Y35.375
X18.64 Y35.331
X19.526 Y35.294
X20.411 Y35.263
X21.297 Y35.241
X22.183 Y35.227
X23.069 Y35.224
X23.955 Y35.231
X24.841 Y35.251
X25.727 Y35.284
X26.612 Y35.331
X27.495 Y35.395
X28.378 Y35.478
X29.258 Y35.581
X30.135 Y35.706
X31.008 Y35.855
X31.877 Y36.029
X32.74 Y36.231
X33.596 Y36.462
X34.443 Y36.723
X35.279 Y37.016
X36.102 Y37.344
X36.197 Y37.388
X36.284 Y37.431
X36.368 Y37.48
X36.448 Y37.534
X36.85 Y37.83
X36.947 Y37.896
X37.051 Y37.947
X37.253 Y38.042
X38.035 Y38.458
X38.812 Y38.884
X39.558 Y39.362
X40.27 Y39.89
X40.945 Y40.463
X41.582 Y41.079
X42.176 Y41.737
X42.724 Y42.433
X43.22 Y43.168
X43.659 Y43.937
X44.027 Y44.721
X44.32 Y45.5
X44.536 Y46.254
X44.679 Y46.966
X44.757 Y47.626
X44.78 Y48.249
X44.758 Y48.767
X44.704 Y49.206
X44.619 Y49.618
X44.518 Y49.964
X44.455 Y50.13
X44.324 Y50.387
X44.142 Y50.61
X43.917 Y50.79
X43.66 Y50.919
X43.38 Y50.991
X43.092 Y51.002
X42.891 Y51.001
X41.481 Y51
X41.16
G3 X40.615 Y50.6 I0.021 J-0.6
G1 X40.593 Y50.536
X36.451 Y38.793
G3 X37.253 Y38.042 I0.566 J-0.2
G1 X37.472 Y38.145
X37.655 Y38.227
X38.259 Y38.478
X38.662 Y38.631
X38.864 Y38.706
X39.468 Y38.824
X40.072 Y38.904
X40.676 Y38.98
X40.825 Y38.998
X41.122 Y39.068
X41.476 Y39.182
X41.84 Y39.332
X42.264 Y39.548
X42.695 Y39.813
X43.185 Y40.172
X43.666 Y40.587
X44.169 Y41.098
X44.679 Y41.706
X45.166 Y42.392
X45.606 Y43.131
X45.992 Y43.917
X46.314 Y44.733
X46.565 Y45.554
X46.739 Y46.348
X46.841 Y47.103
X46.881 Y47.821
X46.865 Y48.458
X46.807 Y49
X46.725 Y49.434
X46.614 Y49.844
X46.49 Y50.188
X46.391 Y50.403
X46.237 Y50.664
X46.03 Y50.885
X45.78 Y51.056
X45.5 Y51.17
X45.201 Y51.221
X44.899 Y51.206
X44.703 Y51.175
X44.502 Y51.15
X43.358 Y51.022
X43.319 Y51.018
X43.092 Y51.002
G3 X42.569 Y50.54 I0.061 J-0.597
G1 X42.56 Y50.501
X40.079 Y39.714
G3 X40.676 Y38.98 I0.585 J-0.134
G1 X40.877 Y38.991
X41.28 Y38.998
X41.481 Y39
X42.891
X43.123 Y39.012
X43.383 Y39.046
X43.648 Y39.102
X43.957 Y39.195
X44.288 Y39.324
X44.643 Y39.496
X45.034 Y39.726
X45.436 Y40.009
X45.863 Y40.363
X46.315 Y40.804
X46.744 Y41.296
X47.187 Y41.895
X47.616 Y42.585
X48.004 Y43.335
X48.337 Y44.131
X48.609 Y44.966
X48.813 Y45.818
X48.942 Y46.645
X49 Y47.415
X48.996 Y48.144
X48.939 Y48.808
X48.845 Y49.367
X48.732 Y49.814
X48.591 Y50.231
X48.444 Y50.571
X48.268 Y50.903
X48.093 Y51.177
X48.044 Y51.242
X47.843 Y51.456
X47.602 Y51.623
X47.332 Y51.737
X47.044 Y51.791
X46.751 Y51.785
X46.466 Y51.718
X45.71 Y51.454
X45.308 Y51.314
X45.106 Y51.255
X44.964 Y51.219
X44.899 Y51.206
G3 X44.424 Y50.73 I0.114 J-0.589
G1 X44.41 Y50.66
X42.323 Y39.712
G3 X42.891 Y39 I0.589 J-0.112
G1 X45.308
X45.554 Y39.012
X45.784 Y39.042
X46.056 Y39.101
X46.332 Y39.183
X46.647 Y39.306
X46.979 Y39.467
X47.337 Y39.678
X47.715 Y39.943
X48.116 Y40.276
X48.517 Y40.667
X48.946 Y41.16
X49.349 Y41.704
X49.743 Y42.338
X50.12 Y43.069
X50.456 Y43.871
X50.731 Y44.713
X50.937 Y45.575
X51.074 Y46.442
X51.137 Y47.282
X51.133 Y48.07
X51.07 Y48.809
X50.959 Y49.474
X50.807 Y50.079
X50.639 Y50.575
X50.456 Y51.001
X50.261 Y51.369
X50.062 Y51.682
X49.843 Y51.97
X49.625 Y52.216
X49.553 Y52.284
X49.307 Y52.472
X49.027 Y52.601
X48.725 Y52.665
X48.416 Y52.662
X48.116 Y52.591
X47.838 Y52.456
X47.47 Y52.224
X47.225 Y52.072
G3 X46.97 Y51.684 I0.335 J-0.498
G1 X46.914 Y51.381
X44.739 Y39.71
G3 X45.308 Y39 I0.59 J-0.11
G1 X47.724
X47.874 Y39.007
X48.103 Y39.038
X48.362 Y39.093
X48.63 Y39.174
X48.94 Y39.295
X49.248 Y39.445
X49.602 Y39.654
X49.948 Y39.897
X50.34 Y40.223
X50.715 Y40.59
X51.118 Y41.053
X51.521 Y41.598
X51.896 Y42.201
X52.261 Y42.91
X52.592 Y43.706
X52.866 Y44.548
X53.074 Y45.41
X53.213 Y46.285
X53.285 Y47.168
X53.287 Y48.042
X53.223 Y48.865
X53.1 Y49.632
X52.928 Y50.34
X52.719 Y50.973
X52.479 Y51.541
X52.238 Y52.004
X51.984 Y52.409
X51.741 Y52.735
X51.486 Y53.025
X51.237 Y53.267
X50.97 Y53.486
X50.865 Y53.559
X50.585 Y53.711
X50.278 Y53.795
X49.959 Y53.807
X49.646 Y53.747
X49.355 Y53.618
X49.1 Y53.426
X48.932 Y53.266
X48.53 Y52.907
X48.427 Y52.828
X47.838 Y52.456
G3 X47.576 Y51.981 I0.338 J-0.496
G1 X47.569 Y51.758
X47.145 Y39.621
G3 X47.724 Y39 I0.6 J-0.021
G1 X49.939
X50.14 Y39.01
X50.368 Y39.04
X50.61 Y39.092
X50.876 Y39.172
X51.172 Y39.287
X51.476 Y39.434
X51.815 Y39.634
X52.154 Y39.872
X52.527 Y40.181
X52.899 Y40.544
X53.284 Y40.986
X53.682 Y41.524
X54.047 Y42.109
X54.404 Y42.802
X54.733 Y43.59
X55.008 Y44.432
X55.217 Y45.293
X55.361 Y46.168
X55.439 Y47.05
X55.452 Y47.936
X55.4 Y48.821
X55.281 Y49.699
X55.1 Y50.536
X54.873 Y51.286
X54.607 Y51.967
X54.305 Y52.586
X53.98 Y53.135
X53.663 Y53.584
X53.339 Y53.972
X53.052 Y54.265
X52.743 Y54.534
X52.464 Y54.739
X52.159 Y54.928
X51.879 Y55.072
X51.861 Y55.079
X51.556 Y55.167
X51.239 Y55.184
X50.927 Y55.129
X50.635 Y55.005
X50.378 Y54.818
X50.17 Y54.578
X50.073 Y54.437
X49.899 Y54.236
X49.738 Y54.063
X49.1 Y53.426
G3 X48.929 Y52.986 I0.428 J-0.42
G1 X48.938 Y52.686
X49.36 Y39.58
G3 X49.939 Y39 I0.6 J0.019
G1 X52.154
X52.364 Y39.01
X52.592 Y39.04
X52.824 Y39.09
X53.092 Y39.17
X53.376 Y39.281
X53.681 Y39.429
X54.007 Y39.621
X54.347 Y39.86
X54.706 Y40.158
X55.079 Y40.522
X55.451 Y40.948
X55.844 Y41.48
X56.206 Y42.062
X56.559 Y42.746
X56.888 Y43.531
X57.163 Y44.373
X57.372 Y45.234
X57.519 Y46.108
X57.603 Y46.99
X57.626 Y47.876
X57.59 Y48.761
X57.494 Y49.642
X57.337 Y50.514
X57.118 Y51.373
X56.835 Y52.212
X56.501 Y52.991
X56.137 Y53.682
X55.758 Y54.28
X55.36 Y54.809
X54.941 Y55.28
X54.557 Y55.649
X54.183 Y55.954
X53.856 Y56.179
X53.51 Y56.379
X53.202 Y56.525
X52.876 Y56.649
X52.689 Y56.703
X52.379 Y56.756
X52.064 Y56.738
X51.761 Y56.651
X51.485 Y56.498
X51.251 Y56.287
X51.07 Y56.029
X50.97 Y55.845
X50.946 Y55.804
X50.847 Y55.644
X50.342 Y54.839
X50.211 Y54.638
X50.17 Y54.578
G3 X50.079 Y54.195 I0.506 J-0.322
G1 X50.118 Y53.813
X51.578 Y39.539
G3 X52.154 Y39 I0.597 J0.061
G1 X54.369
X54.563 Y39.01
X54.788 Y39.039
X55.018 Y39.088
X55.285 Y39.168
X55.563 Y39.277
X55.868 Y39.424
X56.187 Y39.612
X56.527 Y39.852
X56.879 Y40.143
X57.252 Y40.507
X57.617 Y40.926
X58.007 Y41.453
X58.369 Y42.034
X58.72 Y42.716
X59.05 Y43.504
X59.325 Y44.347
X59.536 Y45.208
X59.685 Y46.081
X59.776 Y46.962
X59.809 Y47.848
X59.787 Y48.734
X59.709 Y49.616
X59.577 Y50.493
X59.392 Y51.359
X59.153 Y52.212
X58.856 Y53.047
X58.501 Y53.859
X58.087 Y54.643
X57.635 Y55.355
X57.156 Y55.989
X56.668 Y56.538
X56.185 Y57.001
X55.702 Y57.394
X55.251 Y57.705
X54.818 Y57.955
X54.444 Y58.132
X54.071 Y58.273
X53.735 Y58.37
X53.388 Y58.441
X53.081 Y58.479
X53.01 Y58.482
X52.71 Y58.462
X52.421 Y58.378
X52.157 Y58.234
X51.929 Y58.038
X51.749 Y57.797
X51.624 Y57.523
X51.534 Y57.253
X51.323 Y56.649
X51.198 Y56.338
X51.079 Y56.046
X51.07 Y56.029
G3 X51.015 Y55.658 I0.536 J-0.269
G1 X51.084 Y55.26
X53.799 Y39.498
G3 X54.369 Y39 I0.591 J0.102
G1 X56.585
X56.747 Y39.008
X56.971 Y39.037
X57.199 Y39.086
X57.466 Y39.166
X57.74 Y39.273
X58.045 Y39.421
X58.36 Y39.607
X58.701 Y39.846
X59.049 Y40.135
X59.422 Y40.499
X59.785 Y40.915
X60.173 Y41.439
X60.536 Y42.022
X60.888 Y42.706
X61.221 Y43.503
X61.497 Y44.345
X61.708 Y45.205
X61.861 Y46.078
X61.958 Y46.959
X62.001 Y47.844
X61.99 Y48.73
X61.929 Y49.614
X61.819 Y50.493
X61.66 Y51.365
X61.452 Y52.227
X61.196 Y53.075
X60.89 Y53.906
X60.531 Y54.717
X60.12 Y55.502
X59.657 Y56.257
X59.142 Y56.978
X58.574 Y57.659
X57.996 Y58.25
X57.43 Y58.742
X56.863 Y59.161
X56.302 Y59.508
X55.757 Y59.789
X55.281 Y59.987
X54.825 Y60.135
X54.436 Y60.228
X54.049 Y60.288
X53.707 Y60.313
X53.359 Y60.31
X53.181 Y60.295
X52.869 Y60.231
X52.579 Y60.097
X52.326 Y59.902
X52.125 Y59.654
X51.984 Y59.368
X51.913 Y59.057
X51.868 Y58.661
X51.843 Y58.46
X51.842 Y58.368
X51.855 Y58.276
X51.985 Y57.69
X56.02 Y39.47
G3 X56.585 Y39 I0.586 J0.13
G1 X58.8
X58.95 Y39.007
X59.174 Y39.039
X59.405 Y39.091
X59.676 Y39.176
X59.949 Y39.285
X60.26 Y39.44
X60.573 Y39.629
X60.92 Y39.878
X61.264 Y40.17
X61.644 Y40.549
X62.004 Y40.97
X62.389 Y41.502
X62.761 Y42.115
X63.111 Y42.812
X63.444 Y43.631
X63.71 Y44.476
X63.915 Y45.338
X64.063 Y46.212
X64.158 Y47.093
X64.202 Y47.978
X64.198 Y48.864
X64.146 Y49.749
X64.047 Y50.629
X63.904 Y51.504
X63.716 Y52.37
X63.484 Y53.225
X63.208 Y54.067
X62.887 Y54.893
X62.521 Y55.7
X62.109 Y56.484
X61.651 Y57.243
X61.148 Y57.973
X60.6 Y58.669
X60.007 Y59.327
X59.368 Y59.942
X58.685 Y60.505
X58.003 Y60.981
X57.344 Y61.366
X56.721 Y61.667
X56.115 Y61.901
X55.53 Y62.074
X55.019 Y62.182
X54.569 Y62.239
X54.155 Y62.259
X53.783 Y62.246
X53.432 Y62.206
X53.101 Y62.141
X53.021 Y62.119
X52.741 Y62.006
X52.491 Y61.836
X52.284 Y61.616
X52.129 Y61.357
X52.033 Y61.071
X52 Y60.771
Y60.471
X51.993 Y59.868
X51.979 Y59.666
X51.913 Y59.057
X51.912 Y58.978
X51.921 Y58.901
X51.94 Y58.825
X52.11 Y58.301
X58.234 Y39.464
X58.25 Y39.414
G3 X58.8 Y39 I0.571 J0.185
G1 X60.814
X61.105 Y39.015
X61.327 Y39.044
X61.555 Y39.092
X61.815 Y39.17
X62.093 Y39.279
X62.39 Y39.423
X62.714 Y39.613
X63.045 Y39.846
X63.401 Y40.142
X63.763 Y40.495
X64.138 Y40.924
X64.524 Y41.446
X64.886 Y42.028
X65.249 Y42.731
X65.591 Y43.549
X65.866 Y44.391
X66.081 Y45.25
X66.241 Y46.122
X66.35 Y47.001
X66.408 Y47.886
X66.419 Y48.772
X66.385 Y49.657
X66.308 Y50.54
X66.19 Y51.418
X66.03 Y52.29
X65.83 Y53.153
X65.591 Y54.006
X65.311 Y54.847
X64.99 Y55.673
X64.627 Y56.481
X64.225 Y57.271
X63.783 Y58.039
X63.301 Y58.783
X62.781 Y59.5
X62.221 Y60.187
X61.621 Y60.839
X60.981 Y61.452
X60.303 Y62.023
X59.588 Y62.546
X58.837 Y63.016
X58.059 Y63.424
X57.326 Y63.736
X56.633 Y63.967
X55.968 Y64.131
X55.332 Y64.234
X54.786 Y64.279
X54.287
X53.88 Y64.246
X53.48 Y64.182
X53.143 Y64.099
X52.959 Y64.038
X52.693 Y63.918
X52.459 Y63.745
X52.265 Y63.528
X52.12 Y63.276
X52.03 Y62.999
X52 Y62.709
Y60.771
X52.006 Y60.704
X52.02 Y60.638
X52.04 Y60.575
X52.252 Y60.03
X60.244 Y39.463
X60.275 Y39.382
G3 X60.814 Y39 I0.559 J0.217
G1 X63.029
X63.273 Y39.012
X63.496 Y39.041
X63.724 Y39.09
X63.991 Y39.17
X64.263 Y39.276
X64.568 Y39.424
X64.882 Y39.609
X65.223 Y39.848
X65.572 Y40.139
X65.945 Y40.503
X66.315 Y40.926
X66.706 Y41.455
X67.077 Y42.05
X67.442 Y42.758
X67.784 Y43.575
X68.06 Y44.417
X68.278 Y45.276
X68.442 Y46.147
X68.555 Y47.026
X68.622 Y47.909
X68.644 Y48.795
X68.622 Y49.681
X68.559 Y50.565
X68.457 Y51.445
X68.317 Y52.32
X68.139 Y53.188
X67.925 Y54.048
X67.673 Y54.898
X67.385 Y55.736
X67.061 Y56.56
X66.699 Y57.369
X66.301 Y58.161
X65.868 Y58.934
X65.399 Y59.686
X64.895 Y60.415
X64.356 Y61.118
X63.783 Y61.794
X63.175 Y62.439
X62.532 Y63.049
X61.856 Y63.621
X61.147 Y64.153
X60.407 Y64.641
X59.638 Y65.081
X58.841 Y65.468
X58.017 Y65.795
X57.197 Y66.05
X56.41 Y66.226
X55.694 Y66.328
X55.032 Y66.367
X54.455 Y66.356
X53.959 Y66.305
X53.528 Y66.227
X53.16 Y66.128
X52.931 Y66.046
X52.672 Y65.923
X52.444 Y65.75
X52.256 Y65.535
X52.116 Y65.285
X52.029 Y65.012
X52 Y64.727
Y62.709
X52.008 Y62.632
X52.025 Y62.556
X52.053 Y62.483
X52.28 Y61.98
X62.454 Y39.461
X62.503 Y39.353
G3 X63.029 Y39 I0.547 J0.247
G1 X65.244
X65.447 Y39.01
X65.67 Y39.039
X65.898 Y39.088
X66.165 Y39.168
X66.439 Y39.275
X66.744 Y39.423
X67.062 Y39.61
X67.402 Y39.849
X67.756 Y40.143
X68.129 Y40.507
X68.502 Y40.934
X68.897 Y41.468
X69.271 Y42.07
X69.641 Y42.787
X69.983 Y43.605
X70.261 Y44.446
X70.481 Y45.304
X70.649 Y46.174
X70.768 Y47.052
X70.842 Y47.936
X70.874 Y48.821
X70.864 Y49.707
X70.814 Y50.592
X70.727 Y51.474
X70.603 Y52.351
X70.445 Y53.223
X70.252 Y54.088
X70.025 Y54.944
X69.764 Y55.791
X69.471 Y56.627
X69.144 Y57.451
X68.783 Y58.261
X68.39 Y59.054
X67.963 Y59.831
X67.505 Y60.59
X67.015 Y61.328
X66.494 Y62.045
X65.942 Y62.738
X65.359 Y63.405
X64.745 Y64.045
X64.101 Y64.653
X63.427 Y65.228
X62.724 Y65.768
X61.994 Y66.27
X61.238 Y66.732
X60.457 Y67.152
X59.653 Y67.523
X58.826 Y67.842
X57.98 Y68.105
X57.117 Y68.307
X56.284 Y68.436
X55.512 Y68.494
X54.799 Y68.489
X54.205 Y68.438
X53.734 Y68.358
X53.298 Y68.248
X52.934 Y68.125
X52.845 Y68.086
X52.563 Y67.923
X52.327 Y67.7
X52.149 Y67.429
X52.038 Y67.124
X52 Y66.801
Y64.727
G3 X52.064 Y64.479 I0.6 J0.021
G1 X52.301 Y64.008
X64.664 Y39.458
X64.729 Y39.33
G3 X65.244 Y39 I0.536 J0.27
G1 X67.459
X67.625 Y39.008
X67.849 Y39.038
X68.078 Y39.087
X68.345 Y39.167
X68.621 Y39.274
X68.926 Y39.422
X69.247 Y39.611
X69.587 Y39.85
X69.945 Y40.147
X70.318 Y40.511
X70.696 Y40.944
X71.094 Y41.482
X71.472 Y42.09
X71.848 Y42.818
X72.19 Y43.636
X72.469 Y44.477
X72.692 Y45.335
X72.863 Y46.204
X72.988 Y47.081
X73.069 Y47.964
X73.109 Y48.849
Y49.735
X73.072 Y50.62
X72.998 Y51.503
X72.89 Y52.383
X72.749 Y53.258
X72.575 Y54.126
X72.369 Y54.988
X72.132 Y55.842
X71.864 Y56.687
X71.566 Y57.521
X71.237 Y58.344
X70.878 Y59.154
X70.488 Y59.95
X70.068 Y60.73
X69.619 Y61.494
X69.141 Y62.24
X68.634 Y62.967
X68.1 Y63.674
X67.537 Y64.359
X66.948 Y65.02
X66.33 Y65.656
X65.685 Y66.263
X65.013 Y66.841
X64.316 Y67.388
X63.595 Y67.903
X62.85 Y68.382
X62.832 Y68.393
X62.686 Y68.466
X62.533 Y68.522
X62.374 Y68.559
X54.974 Y69.855
X54.772 Y69.883
X54.4 Y69.924
X54.168 Y69.95
X53.967 Y69.96
X53.866 Y69.961
X53.765 Y69.948
X53.564 Y69.907
X53.363 Y69.86
X53.161 Y69.767
X53.07 Y69.723
X52.96 Y69.668
X52.865 Y69.602
X52.758 Y69.513
X52.557 Y69.337
X52.543 Y69.321
X52.394 Y69.12
X52.356 Y69.067
X52.259 Y68.919
X52.177 Y68.718
X52.1 Y68.516
X52.076 Y68.416
X52.013 Y67.913
X52.001 Y67.712
X52 Y66.801
X52.341 Y66.094
X52.356 Y66.064
X54.369 Y62.607
X66.061 Y39.955
G3 X67.459 Y39 I1.453 J0.626
G1 X69.674
X69.824 Y39.007
X70.05 Y39.039
X70.281 Y39.089
X70.552 Y39.172
X70.83 Y39.282
X71.138 Y39.434
X71.461 Y39.627
X71.806 Y39.872
X72.166 Y40.175
X72.544 Y40.548
X72.924 Y40.988
X73.324 Y41.537
X73.712 Y42.168
X74.091 Y42.914
X74.428 Y43.733
X74.704 Y44.575
X74.925 Y45.434
X75.097 Y46.303
X75.223 Y47.18
X75.307 Y48.062
X75.351 Y48.947
X75.358 Y49.833
X75.329 Y50.719
X75.266 Y51.603
X75.169 Y52.484
X75.04 Y53.36
X74.881 Y54.232
X74.692 Y55.098
X74.473 Y55.956
X74.225 Y56.807
X73.949 Y57.649
X73.644 Y58.481
X73.312 Y59.303
X72.952 Y60.112
X72.563 Y60.909
X72.147 Y61.691
X71.704 Y62.458
X71.235 Y63.21
X70.739 Y63.944
X70.217 Y64.66
X69.67 Y65.357
X69.097 Y66.034
X68.5 Y66.688
X67.878 Y67.319
X67.82 Y67.373
X67.606 Y67.538
X67.365 Y67.659
X67.104 Y67.731
X62.374 Y68.559
X62.022 Y68.501
X61.804 Y68.315
X61.766 Y68.178
X61.693 Y67.913
X68.205 Y40.156
G3 X69.674 Y39 I1.524 J0.425
G1 X71.799
X72.003 Y39.01
X72.228 Y39.04
X72.46 Y39.089
X72.723 Y39.168
X73.008 Y39.279
X73.309 Y39.425
X73.642 Y39.621
X73.977 Y39.856
X74.349 Y40.166
X74.716 Y40.523
X75.106 Y40.971
X75.509 Y41.514
X75.894 Y42.133
X76.282 Y42.887
X76.624 Y43.704
X76.906 Y44.544
X77.134 Y45.401
X77.313 Y46.269
X77.447 Y47.144
X77.541 Y48.026
X77.596 Y48.91
X77.614 Y49.796
X77.597 Y50.682
X77.547 Y51.567
X77.465 Y52.449
X77.353 Y53.328
X77.211 Y54.203
X77.041 Y55.072
X76.842 Y55.936
X76.617 Y56.793
X76.364 Y57.642
X76.085 Y58.483
X75.78 Y59.315
X75.449 Y60.137
X75.092 Y60.948
X74.708 Y61.747
X74.299 Y62.533
X73.865 Y63.306
X73.407 Y64.064
X72.924 Y64.807
X72.417 Y65.534
X71.887 Y66.244
X71.612 Y66.586
X71.437 Y66.769
X71.232 Y66.916
X71.004 Y67.025
X70.76 Y67.091
X67.104 Y67.731
G3 X66.43 Y67.034 I-0.083 J-0.594
G1 X71.228 Y39.497
G3 X71.799 Y39 I0.591 J0.103
G1 X73.903
X74.203 Y39.015
X74.43 Y39.045
X74.661 Y39.094
X74.928 Y39.174
X75.21 Y39.284
X75.515 Y39.432
X75.844 Y39.626
X76.184 Y39.865
X76.555 Y40.173
X76.928 Y40.537
X77.318 Y40.983
X77.726 Y41.535
X78.118 Y42.164
X78.511 Y42.926
X78.852 Y43.744
X79.135 Y44.583
X79.365 Y45.439
X79.547 Y46.306
X79.686 Y47.181
X79.785 Y48.062
X79.846 Y48.946
X79.872 Y49.832
X79.865 Y50.718
X79.825 Y51.603
X79.754 Y52.486
X79.654 Y53.367
X79.526 Y54.244
X79.37 Y55.116
X79.188 Y55.983
X78.98 Y56.845
X78.746 Y57.699
X78.488 Y58.547
X78.205 Y59.386
X77.897 Y60.217
X77.565 Y61.039
X77.208 Y61.85
X76.828 Y62.651
X76.423 Y63.439
X75.995 Y64.215
X75.545 Y64.978
X75.071 Y65.727
X74.937 Y65.925
X74.758 Y66.141
X74.539 Y66.316
X74.289 Y66.445
X74.019 Y66.521
X70.76 Y67.091
G3 X70.082 Y66.425 I-0.083 J-0.594
G1 X73.328 Y39.528
G3 X73.903 Y39 I0.596 J0.072
G1 X76.118
X76.403 Y39.014
X76.63 Y39.044
X76.863 Y39.094
X77.13 Y39.174
X77.415 Y39.285
X77.72 Y39.433
X78.054 Y39.629
X78.394 Y39.868
X78.77 Y40.181
X79.143 Y40.545
X79.538 Y40.997
X79.949 Y41.552
X80.345 Y42.189
X80.744 Y42.962
X81.086 Y43.78
X81.37 Y44.619
X81.602 Y45.474
X81.787 Y46.341
X81.93 Y47.215
X82.034 Y48.095
X82.101 Y48.979
X82.135 Y49.864
X82.136 Y50.751
X82.105 Y51.636
X82.045 Y52.52
X81.957 Y53.402
X81.841 Y54.28
X81.699 Y55.155
X81.531 Y56.025
X81.339 Y56.89
X81.122 Y57.749
X80.882 Y58.602
X80.618 Y59.448
X80.331 Y60.287
X80.021 Y61.117
X79.688 Y61.938
X79.333 Y62.75
X78.955 Y63.551
X78.555 Y64.342
X78.132 Y65.121
X78.012 Y65.325
X77.831 Y65.566
X77.603 Y65.763
X77.338 Y65.906
X77.049 Y65.99
X74.019 Y66.521
G3 X73.338 Y65.876 I-0.083 J-0.594
G1 X75.541 Y39.55
G3 X76.118 Y39 I0.598 J0.05
G1 X78.333
X78.611 Y39.014
X78.839 Y39.044
X79.073 Y39.094
X79.34 Y39.174
X79.628 Y39.286
X79.933 Y39.434
X80.27 Y39.633
X80.611 Y39.872
X80.992 Y40.188
X81.365 Y40.552
X81.763 Y41.009
X82.178 Y41.569
X82.578 Y42.212
X82.983 Y42.997
X83.325 Y43.814
X83.609 Y44.653
X83.843 Y45.508
X84.032 Y46.374
X84.179 Y47.248
X84.287 Y48.127
X84.361 Y49.01
X84.401 Y49.895
X84.409 Y50.782
X84.388 Y51.667
X84.338 Y52.552
X84.26 Y53.435
X84.155 Y54.315
X84.026 Y55.191
X83.871 Y56.064
X83.693 Y56.932
X83.492 Y57.795
X83.268 Y58.652
X83.021 Y59.503
X82.753 Y60.348
X82.463 Y61.185
X82.151 Y62.015
X81.818 Y62.836
X81.464 Y63.648
X81.088 Y64.451
X80.928 Y64.756
X80.749 Y65.021
X80.514 Y65.237
X80.236 Y65.395
X79.929 Y65.486
X77.049 Y65.99
G3 X76.367 Y65.364 I-0.083 J-0.594
G1 X77.755 Y39.567
G3 X78.333 Y39 I0.599 J0.032
G1 X80.548
X80.826 Y39.014
X81.054 Y39.044
X81.289 Y39.094
X81.557 Y39.174
X81.848 Y39.287
X82.152 Y39.435
X82.493 Y39.636
X82.833 Y39.875
X83.219 Y40.195
X83.592 Y40.559
X83.995 Y41.021
X84.412 Y41.584
X84.817 Y42.235
X85.223 Y43.022
X85.565 Y43.84
X85.852 Y44.678
X86.088 Y45.532
X86.28 Y46.397
X86.431 Y47.27
X86.545 Y48.149
X86.624 Y49.032
X86.67 Y49.917
X86.686 Y50.803
X86.673 Y51.689
X86.632 Y52.574
X86.564 Y53.457
X86.471 Y54.339
X86.353 Y55.217
X86.211 Y56.092
X86.046 Y56.962
X85.859 Y57.828
X85.65 Y58.689
X85.42 Y59.545
X85.168 Y60.395
X84.896 Y61.238
X84.603 Y62.074
X84.29 Y62.903
X83.957 Y63.725
X83.735 Y64.207
X83.599 Y64.44
X83.42 Y64.643
X83.206 Y64.807
X82.965 Y64.928
X82.705 Y65
X79.929 Y65.486
G3 X79.247 Y64.874 I-0.083 J-0.594
G1 X79.97 Y39.583
G3 X80.548 Y39 I0.6 J0.017
G1 X82.763
X83.047 Y39.014
X83.276 Y39.044
X83.513 Y39.095
X83.78 Y39.175
X84.073 Y39.289
X84.378 Y39.437
X84.721 Y39.639
X85.062 Y39.878
X85.45 Y40.201
X85.825 Y40.566
X86.231 Y41.032
X86.651 Y41.599
X87.06 Y42.257
X87.467 Y43.045
X87.81 Y43.862
X88.098 Y44.7
X88.337 Y45.553
X88.532 Y46.417
X88.687 Y47.29
X88.805 Y48.168
X88.89 Y49.05
X88.943 Y49.935
X88.966 Y50.821
X88.961 Y51.707
X88.928 Y52.592
X88.87 Y53.476
X88.786 Y54.359
X88.679 Y55.238
X88.549 Y56.115
X88.396 Y56.988
X88.222 Y57.856
X88.027 Y58.721
X87.811 Y59.58
X87.575 Y60.434
X87.32 Y61.283
X87.044 Y62.125
X86.748 Y62.96
X86.441 Y63.727
X86.42 Y63.771
X86.282 Y63.993
X86.105 Y64.186
X85.895 Y64.343
X85.66 Y64.458
X85.407 Y64.527
X82.705 Y65
G3 X82.022 Y64.402 I-0.083 J-0.594
G1 X82.184 Y39.596
G3 X82.763 Y39 I0.6 J0.004
G1 X84.979
X85.274 Y39.015
X85.503 Y39.045
X85.741 Y39.096
X86.008 Y39.176
X86.304 Y39.291
X86.609 Y39.439
X86.955 Y39.643
X87.296 Y39.882
X87.687 Y40.206
X88.063 Y40.573
X88.472 Y41.043
X88.895 Y41.615
X89.309 Y42.28
X89.716 Y43.067
X90.06 Y43.884
X90.349 Y44.721
X90.591 Y45.574
X90.789 Y46.438
X90.947 Y47.309
X91.07 Y48.187
X91.16 Y49.069
X91.219 Y49.953
X91.248 Y50.838
X91.25 Y51.724
X91.226 Y52.61
X91.176 Y53.495
X91.102 Y54.378
X91.005 Y55.259
X90.885 Y56.137
X90.744 Y57.012
X90.582 Y57.883
X90.4 Y58.75
X90.197 Y59.613
X89.975 Y60.471
X89.734 Y61.323
X89.473 Y62.17
X89.185 Y63.008
X89.082 Y63.246
X88.947 Y63.487
X88.768 Y63.696
X88.551 Y63.867
X88.305 Y63.992
X88.039 Y64.066
X85.407 Y64.527
G3 X84.724 Y63.941 I-0.083 J-0.594
G1 X84.4 Y39.608
G3 X84.979 Y39 I0.6 J-0.008
G1 X87.194
X87.507 Y39.016
X87.736 Y39.046
X87.975 Y39.097
X88.243 Y39.177
X88.54 Y39.293
X88.845 Y39.441
X89.194 Y39.646
X89.535 Y39.886
X89.928 Y40.212
X90.306 Y40.581
X90.718 Y41.053
X91.145 Y41.629
X91.563 Y42.302
X91.969 Y43.089
X92.314 Y43.905
X92.605 Y44.742
X92.849 Y45.594
X93.05 Y46.457
X93.212 Y47.329
X93.339 Y48.206
X93.433 Y49.087
X93.497 Y49.97
X93.533 Y50.856
X93.542 Y51.742
X93.525 Y52.628
X93.483 Y53.513
X93.418 Y54.397
X93.33 Y55.279
X93.22 Y56.158
X93.09 Y57.034
X92.939 Y57.907
X92.768 Y58.777
X92.578 Y59.642
X92.369 Y60.504
X92.14 Y61.36
X91.886 Y62.209
X91.658 Y62.823
X91.522 Y63.055
X91.344 Y63.257
X91.13 Y63.421
X90.89 Y63.541
X90.63 Y63.612
X88.039 Y64.066
G3 X87.357 Y63.49 I-0.083 J-0.594
G1 X86.615 Y39.618
G3 X87.194 Y39 I0.6 J-0.019
G1 X89.61
X89.76 Y39.007
X89.994 Y39.04
X90.236 Y39.095
X90.509 Y39.179
X90.809 Y39.3
X91.12 Y39.454
X91.473 Y39.667
X91.82 Y39.916
X92.216 Y40.251
X92.601 Y40.634
X93.015 Y41.118
X93.447 Y41.714
X93.876 Y42.419
X94.275 Y43.21
X94.614 Y44.029
X94.9 Y44.868
X95.14 Y45.721
X95.338 Y46.584
X95.499 Y47.456
X95.625 Y48.333
X95.72 Y49.214
X95.786 Y50.098
X95.823 Y50.983
X95.835 Y51.869
X95.822 Y52.755
X95.785 Y53.64
X95.725 Y54.524
X95.644 Y55.407
X95.541 Y56.287
X95.418 Y57.164
X95.275 Y58.039
X95.112 Y58.91
X94.931 Y59.777
X94.73 Y60.64
X94.503 Y61.497
X94.286 Y62.165
X94.218 Y62.327
X94.085 Y62.574
X93.906 Y62.789
X93.687 Y62.964
X93.437 Y63.092
X93.167 Y63.168
X90.63 Y63.612
G3 X89.948 Y63.042 I-0.083 J-0.594
G1 X89.032 Y39.623
G3 X89.61 Y39 I0.6 J-0.023
G1 X91.825
X91.983 Y39.008
X92.207 Y39.037
X92.458 Y39.091
X92.719 Y39.169
X93.024 Y39.288
X93.328 Y39.435
X93.677 Y39.641
X94.029 Y39.888
X94.418 Y40.211
X94.806 Y40.59
X95.229 Y41.075
X95.651 Y41.645
X96.08 Y42.334
X96.486 Y43.122
X96.833 Y43.937
X97.127 Y44.773
X97.375 Y45.624
X97.582 Y46.486
X97.751 Y47.355
X97.886 Y48.231
X97.989 Y49.111
X98.064 Y49.994
X98.11 Y50.879
X98.132 Y51.765
X98.128 Y52.651
X98.101 Y53.537
X98.051 Y54.422
X97.98 Y55.305
X97.889 Y56.186
X97.777 Y57.065
X97.646 Y57.942
X97.496 Y58.815
X97.327 Y59.685
X97.133 Y60.55
X96.912 Y61.383
X96.76 Y61.815
X96.633 Y62.082
X96.452 Y62.316
X96.226 Y62.507
X95.965 Y62.647
X95.681 Y62.728
X93.167 Y63.168
G3 X92.485 Y62.606 I-0.083 J-0.594
G1 X91.247 Y39.632
G3 X91.825 Y39 I0.599 J-0.032
G1 X94.04
X94.231 Y39.01
X94.46 Y39.04
X94.705 Y39.092
X94.972 Y39.172
X95.275 Y39.29
X95.58 Y39.438
X95.934 Y39.647
X96.28 Y39.889
X96.677 Y40.219
X97.061 Y40.593
X97.482 Y41.076
X97.917 Y41.664
X98.348 Y42.357
X98.754 Y43.145
X99.102 Y43.96
X99.397 Y44.795
X99.646 Y45.646
X99.855 Y46.507
X100.027 Y47.376
X100.165 Y48.251
X100.272 Y49.131
X100.351 Y50.014
X100.403 Y50.898
X100.429 Y51.784
X100.431 Y52.67
X100.411 Y53.556
X100.369 Y54.441
X100.305 Y55.325
X100.222 Y56.207
X100.118 Y57.087
X99.996 Y57.965
X99.853 Y58.839
X99.688 Y59.71
X99.493 Y60.574
X99.309 Y61.201
X99.227 Y61.416
X99.097 Y61.673
X98.916 Y61.898
X98.694 Y62.081
X98.438 Y62.215
X98.161 Y62.294
X95.681 Y62.728
G3 X95 Y62.175 I-0.083 J-0.594
G1 X93.463 Y39.64
G3 X94.04 Y39 I0.599 J-0.041
G1 X96.256
X96.484 Y39.011
X96.713 Y39.041
X96.958 Y39.094
X97.225 Y39.174
X97.53 Y39.293
X97.836 Y39.441
X98.192 Y39.65
X98.539 Y39.894
X98.937 Y40.225
X99.323 Y40.601
X99.746 Y41.087
X100.184 Y41.678
X100.618 Y42.376
X101.025 Y43.164
X101.372 Y43.979
X101.669 Y44.814
X101.92 Y45.664
X102.131 Y46.525
X102.306 Y47.393
X102.447 Y48.268
X102.558 Y49.147
X102.641 Y50.029
X102.697 Y50.914
X102.729 Y51.799
X102.737 Y52.685
X102.722 Y53.571
X102.687 Y54.457
X102.631 Y55.341
X102.554 Y56.224
X102.458 Y57.105
X102.342 Y57.983
X102.204 Y58.859
X102.038 Y59.729
X101.853 Y60.49
X101.709 Y60.924
X101.584 Y61.198
X101.404 Y61.439
X101.176 Y61.636
X100.911 Y61.78
X100.621 Y61.863
X98.161 Y62.294
G3 X97.48 Y61.749 I-0.083 J-0.594
G1 X95.679 Y39.648
G3 X96.256 Y39 I0.598 J-0.049
G1 X98.471
X98.741 Y39.014
X98.97 Y39.044
X99.216 Y39.096
X99.484 Y39.176
X99.79 Y39.296
X100.096 Y39.444
X100.453 Y39.654
X100.801 Y39.899
X101.201 Y40.231
X101.589 Y40.609
X102.014 Y41.097
X102.454 Y41.691
X102.892 Y42.396
X103.299 Y43.183
X103.647 Y43.998
X103.944 Y44.833
X104.197 Y45.682
X104.41 Y46.542
X104.587 Y47.41
X104.732 Y48.284
X104.846 Y49.163
X104.933 Y50.045
X104.994 Y50.929
X105.03 Y51.814
X105.044 Y52.7
X105.035 Y53.587
X105.006 Y54.472
X104.956 Y55.357
X104.886 Y56.24
X104.796 Y57.122
X104.683 Y58.001
X104.545 Y58.876
X104.37 Y59.745
X104.205 Y60.336
X104.13 Y60.541
X104.002 Y60.803
X103.821 Y61.033
X103.597 Y61.22
X103.339 Y61.357
X103.058 Y61.437
X100.621 Y61.863
G3 X99.941 Y61.326 I-0.083 J-0.594
G1 X97.894 Y39.656
G3 X98.471 Y39 I0.597 J-0.056
G1 X100.686
X101.002 Y39.016
X101.231 Y39.046
X101.479 Y39.099
X101.746 Y39.179
X102.053 Y39.299
X102.36 Y39.447
X102.717 Y39.658
X103.068 Y39.904
X103.468 Y40.236
X103.858 Y40.617
X104.286 Y41.107
X104.728 Y41.704
X105.169 Y42.414
X105.576 Y43.202
X105.925 Y44.016
X106.223 Y44.851
X106.478 Y45.699
X106.693 Y46.559
X106.872 Y47.427
X107.019 Y48.301
X107.137 Y49.179
X107.228 Y50.06
X107.292 Y50.944
X107.333 Y51.829
X107.352 Y52.715
X107.349 Y53.601
X107.325 Y54.487
X107.281 Y55.372
X107.216 Y56.256
X107.129 Y57.138
X107.017 Y58.017
X106.873 Y58.891
X106.71 Y59.612
X106.544 Y60.142
X106.538 Y60.157
X106.406 Y60.408
X106.226 Y60.627
X106.006 Y60.805
X105.754 Y60.936
X105.481 Y61.013
X103.058 Y61.437
G3 X102.378 Y60.906 I-0.083 J-0.594
G1 X100.11 Y39.663
G3 X100.686 Y39 I0.597 J-0.064
G1 X103.102
X103.257 Y39.008
X103.486 Y39.038
X103.737 Y39.091
X104.004 Y39.171
X104.314 Y39.292
X104.622 Y39.441
X104.98 Y39.652
X105.334 Y39.901
X105.734 Y40.233
X106.127 Y40.617
X106.558 Y41.111
X107.003 Y41.712
X107.448 Y42.427
X107.855 Y43.215
X108.204 Y44.029
X108.504 Y44.863
X108.76 Y45.711
X108.977 Y46.57
X109.159 Y47.438
X109.309 Y48.311
X109.43 Y49.189
X109.524 Y50.07
X109.593 Y50.953
X109.638 Y51.838
X109.662 Y52.724
X109.663 Y53.61
X109.644 Y54.496
X109.604 Y55.381
X109.543 Y56.265
X109.457 Y57.147
X109.34 Y58.026
X109.184 Y58.895
X109.035 Y59.461
X108.958 Y59.678
X108.831 Y59.946
X108.651 Y60.18
X108.425 Y60.372
X108.164 Y60.511
X107.879 Y60.593
X105.481 Y61.013
G3 X104.802 Y60.483 I-0.083 J-0.594
G1 X102.527 Y39.665
G3 X103.102 Y39 I0.596 J-0.065
G1 X105.318
X105.529 Y39.011
X105.758 Y39.041
X106.009 Y39.094
X106.276 Y39.174
X106.587 Y39.295
X106.894 Y39.444
X107.253 Y39.655
X107.608 Y39.905
X108.009 Y40.238
X108.404 Y40.623
X108.836 Y41.119
X109.283 Y41.723
X109.732 Y42.443
X110.138 Y43.231
X110.488 Y44.045
X110.788 Y44.879
X111.046 Y45.726
X111.265 Y46.585
X111.449 Y47.452
X111.602 Y48.325
X111.726 Y49.202
X111.823 Y50.083
X111.896 Y50.966
X111.945 Y51.851
X111.972 Y52.737
X111.978 Y53.623
X111.963 Y54.509
X111.926 Y55.394
X111.864 Y56.278
X111.775 Y57.16
X111.65 Y58.037
X111.504 Y58.735
X111.35 Y59.258
X111.334 Y59.298
X111.204 Y59.555
X111.023 Y59.779
X110.801 Y59.962
X110.546 Y60.096
X110.269 Y60.174
X107.879 Y60.593
G3 X107.201 Y60.07 I-0.083 J-0.594
G1 X104.743 Y39.671
G3 X105.318 Y39 I0.596 J-0.072
G1 X107.533
X107.803 Y39.014
X108.031 Y39.044
X108.283 Y39.097
X108.551 Y39.177
X108.861 Y39.299
X109.17 Y39.448
X109.528 Y39.659
X109.886 Y39.91
X110.287 Y40.243
X110.683 Y40.63
X111.118 Y41.128
X111.566 Y41.734
X112.018 Y42.46
X112.424 Y43.248
X112.775 Y44.062
X113.076 Y44.895
X113.335 Y45.742
X113.556 Y46.601
X113.742 Y47.467
X113.897 Y48.339
X114.024 Y49.216
X114.124 Y50.097
X114.2 Y50.98
X114.253 Y51.864
X114.283 Y52.75
X114.292 Y53.636
X114.279 Y54.522
X114.243 Y55.407
X114.18 Y56.291
X114.083 Y57.172
X113.949 Y58.001
X113.812 Y58.563
X113.726 Y58.821
X113.601 Y59.095
X113.421 Y59.336
X113.193 Y59.533
X112.928 Y59.676
X112.639 Y59.76
X110.269 Y60.174
G3 X109.591 Y59.659 I-0.083 J-0.594
G1 X106.959 Y39.678
G3 X107.533 Y39 I0.595 J-0.078
G1 X109.949
X110.099 Y39.007
X110.334 Y39.041
X110.588 Y39.099
X110.862 Y39.184
X111.177 Y39.311
X111.49 Y39.467
X111.856 Y39.689
X112.215 Y39.947
X112.624 Y40.295
X113.024 Y40.694
X113.46 Y41.206
X113.914 Y41.835
X114.374 Y42.593
X114.771 Y43.385
X115.115 Y44.202
X115.41 Y45.037
X115.664 Y45.886
X115.881 Y46.746
X116.064 Y47.613
X116.217 Y48.485
X116.342 Y49.363
X116.441 Y50.243
X116.516 Y51.126
X116.568 Y52.011
X116.597 Y52.896
X116.604 Y53.783
X116.588 Y54.669
X116.545 Y55.554
X116.473 Y56.437
X116.357 Y57.315
X116.224 Y57.95
X116.073 Y58.461
X116.071 Y58.469
X115.94 Y58.725
X115.76 Y58.95
X115.537 Y59.133
X115.282 Y59.267
X115.005 Y59.345
X112.639 Y59.76
G3 X111.961 Y59.244 I-0.083 J-0.594
G1 X109.375 Y39.678
G3 X109.949 Y39 I0.595 J-0.079
G1 X112.164
X112.356 Y39.01
X112.579 Y39.039
X112.839 Y39.095
X113.102 Y39.173
X113.409 Y39.293
X113.728 Y39.448
X114.076 Y39.652
X114.453 Y39.917
X114.841 Y40.239
X115.253 Y40.641
X115.695 Y41.148
X116.136 Y41.743
X116.596 Y42.483
X117.002 Y43.27
X117.353 Y44.083
X117.657 Y44.916
X117.919 Y45.763
X118.143 Y46.62
X118.333 Y47.485
X118.493 Y48.357
X118.625 Y49.233
X118.731 Y50.113
X118.812 Y50.995
X118.87 Y51.879
X118.905 Y52.765
X118.916 Y53.651
X118.902 Y54.537
X118.859 Y55.422
X118.78 Y56.305
X118.662 Y57.123
X118.534 Y57.685
X118.443 Y57.975
X118.32 Y58.255
X118.14 Y58.501
X117.91 Y58.703
X117.642 Y58.85
X117.349 Y58.935
X115.005 Y59.345
G3 X114.328 Y58.836 I-0.083 J-0.594
G1 X111.591 Y39.685
G3 X112.164 Y39 I0.594 J-0.085
G1 X114.379
X114.635 Y39.013
X114.864 Y39.043
X115.121 Y39.098
X115.388 Y39.178
X115.701 Y39.299
X116.011 Y39.45
X116.369 Y39.661
X116.733 Y39.916
X117.134 Y40.249
X117.537 Y40.643
X117.977 Y41.147
X118.432 Y41.762
X118.892 Y42.502
X119.299 Y43.29
X119.65 Y44.103
X119.955 Y44.935
X120.217 Y45.782
X120.442 Y46.639
X120.634 Y47.504
X120.795 Y48.375
X120.929 Y49.251
X121.036 Y50.131
X121.119 Y51.013
X121.178 Y51.897
X121.212 Y52.783
X121.222 Y53.669
X121.204 Y54.555
X121.154 Y55.439
X121.06 Y56.32
X120.938 Y56.997
X120.801 Y57.515
X120.767 Y57.612
X120.64 Y57.879
X120.459 Y58.113
X120.233 Y58.305
X119.972 Y58.444
X119.688 Y58.525
X117.349 Y58.935
G3 X116.673 Y58.431 I-0.083 J-0.594
G1 X113.807 Y39.69
G3 X114.379 Y39 I0.593 J-0.091
G1 X116.705
X116.916 Y39.011
X117.145 Y39.041
X117.402 Y39.095
X117.669 Y39.176
X117.983 Y39.298
X118.295 Y39.449
X118.653 Y39.66
X119.02 Y39.918
X119.421 Y40.251
X119.827 Y40.647
X120.269 Y41.153
X120.725 Y41.77
X121.189 Y42.514
X121.595 Y43.302
X121.947 Y44.115
X122.252 Y44.947
X122.515 Y45.793
X122.742 Y46.65
X122.935 Y47.515
X123.098 Y48.386
X123.232 Y49.261
X123.341 Y50.141
X123.424 Y51.023
X123.483 Y51.907
X123.517 Y52.793
X123.524 Y53.679
X123.5 Y54.565
X123.437 Y55.449
X123.334 Y56.244
X123.215 Y56.806
X123.116 Y57.138
X122.995 Y57.424
X122.815 Y57.675
X122.583 Y57.881
X122.313 Y58.031
X122.015 Y58.118
X119.688 Y58.525
G3 X119.013 Y58.024 I-0.083 J-0.594
G1 X116.134 Y39.693
G3 X116.705 Y39 I0.593 J-0.093
G1 X119.011
X119.202 Y39.01
X119.431 Y39.04
X119.689 Y39.095
X119.956 Y39.175
X120.27 Y39.297
X120.583 Y39.449
X120.942 Y39.66
X121.311 Y39.919
X121.712 Y40.252
X122.12 Y40.65
X122.563 Y41.158
X123.021 Y41.777
X123.487 Y42.525
X123.893 Y43.313
X124.245 Y44.126
X124.551 Y44.958
X124.815 Y45.804
X125.042 Y46.66
X125.236 Y47.525
X125.4 Y48.395
X125.536 Y49.271
X125.645 Y50.151
X125.728 Y51.033
X125.786 Y51.917
X125.817 Y52.803
X125.818 Y53.689
X125.785 Y54.574
X125.706 Y55.457
X125.594 Y56.132
X125.464 Y56.649
X125.42 Y56.78
X125.295 Y57.052
X125.114 Y57.291
X124.887 Y57.487
X124.623 Y57.629
X124.335 Y57.712
X122.015 Y58.118
G3 X121.34 Y57.62 I-0.083 J-0.594
G1 X118.44 Y39.695
G3 X119.011 Y39 I0.592 J-0.096
G1 X121.226
X121.495 Y39.013
X121.724 Y39.043
X121.982 Y39.099
X122.249 Y39.179
X122.563 Y39.301
X122.877 Y39.453
X123.235 Y39.664
X123.606 Y39.924
X124.007 Y40.257
X124.416 Y40.656
X124.86 Y41.166
X125.319 Y41.786
X125.787 Y42.538
X126.193 Y43.325
X126.546 Y44.138
X126.852 Y44.97
X127.116 Y45.815
X127.344 Y46.672
X127.539 Y47.536
X127.703 Y48.407
X127.839 Y49.282
X127.948 Y50.162
X128.03 Y51.044
X128.085 Y51.929
X128.111 Y52.814
X128.105 Y53.7
X128.057 Y54.585
X127.966 Y55.376
X127.855 Y55.939
X127.751 Y56.309
X127.633 Y56.599
X127.453 Y56.856
X127.22 Y57.066
X126.946 Y57.219
X126.645 Y57.308
X124.335 Y57.712
G3 X123.661 Y57.219 I-0.083 J-0.594
G1 X120.656 Y39.701
G3 X121.226 Y39 I0.591 J-0.101
G1 X123.643
X123.793 Y39.007
X124.024 Y39.039
X124.284 Y39.096
X124.554 Y39.178
X124.872 Y39.304
X125.187 Y39.459
X125.549 Y39.675
X125.921 Y39.939
X126.327 Y40.279
X126.737 Y40.683
X127.183 Y41.2
X127.647 Y41.833
X128.111 Y42.588
X128.515 Y43.377
X128.865 Y44.191
X129.169 Y45.023
X129.432 Y45.87
X129.658 Y46.726
X129.851 Y47.591
X130.014 Y48.462
X130.147 Y49.338
X130.253 Y50.218
X130.331 Y51.101
X130.38 Y51.985
X130.398 Y52.871
X130.378 Y53.757
X130.31 Y54.641
X130.207 Y55.3
X130.083 Y55.814
X130.036 Y55.96
X129.912 Y56.236
X129.731 Y56.478
X129.503 Y56.676
X129.237 Y56.821
X128.946 Y56.905
X126.645 Y57.308
G3 X125.971 Y56.813 I-0.083 J-0.594
G1 X123.072 Y39.7
G3 X123.643 Y39 I0.592 J-0.1
G1 X125.858
X126.081 Y39.011
X126.307 Y39.041
X126.569 Y39.097
X126.835 Y39.176
X127.146 Y39.298
X127.467 Y39.453
X127.82 Y39.662
X128.199 Y39.928
X128.596 Y40.257
X129.011 Y40.662
X129.459 Y41.176
X129.916 Y41.793
X130.384 Y42.545
X130.791 Y43.332
X131.144 Y44.145
X131.451 Y44.976
X131.717 Y45.822
X131.945 Y46.678
X132.141 Y47.542
X132.304 Y48.413
X132.439 Y49.289
X132.544 Y50.169
X132.62 Y51.052
X132.666 Y51.936
X132.677 Y52.823
X132.644 Y53.708
X132.566 Y54.498
X132.462 Y55.071
X132.333 Y55.558
X132.322 Y55.59
X132.195 Y55.857
X132.014 Y56.091
X131.788 Y56.282
X131.528 Y56.421
X131.243 Y56.503
X128.946 Y56.905
G3 X128.273 Y56.416 I-0.083 J-0.594
G1 X125.288 Y39.705
G3 X125.858 Y39 I0.591 J-0.105
G1 X128.073
X128.378 Y39.015
X128.606 Y39.045
X128.867 Y39.101
X129.134 Y39.181
X129.449 Y39.304
X129.764 Y39.457
X130.123 Y39.668
X130.496 Y39.93
X130.898 Y40.263
X131.309 Y40.665
X131.756 Y41.177
X132.218 Y41.802
X132.687 Y42.554
X133.093 Y43.342
X133.447 Y44.154
X133.753 Y44.986
X134.019 Y45.831
X134.247 Y46.687
X134.441 Y47.552
X134.603 Y48.423
X134.735 Y49.299
X134.837 Y50.179
X134.908 Y51.063
X134.945 Y51.948
X134.944 Y52.834
X134.892 Y53.719
X134.805 Y54.385
X134.698 Y54.885
X134.625 Y55.126
X134.505 Y55.41
X134.324 Y55.661
X134.093 Y55.867
X133.823 Y56.016
X133.526 Y56.103
X131.243 Y56.503
G3 X130.571 Y56.019 I-0.083 J-0.594
G1 X127.504 Y39.711
G3 X128.073 Y39 I0.59 J-0.111
G1 X130.489
X130.668 Y39.009
X130.897 Y39.039
X131.158 Y39.095
X131.426 Y39.175
X131.741 Y39.298
X132.058 Y39.452
X132.417 Y39.663
X132.792 Y39.927
X133.194 Y40.26
X133.607 Y40.663
X134.055 Y41.177
X134.517 Y41.801
X134.986 Y42.554
X135.392 Y43.341
X135.746 Y44.154
X136.052 Y44.985
X136.317 Y45.831
X136.545 Y46.687
X136.737 Y47.552
X136.898 Y48.424
X137.026 Y49.3
X137.124 Y50.181
X137.188 Y51.065
X137.216 Y51.951
X137.199 Y52.836
X137.132 Y53.638
X137.037 Y54.211
X136.914 Y54.702
X136.891 Y54.772
X136.765 Y55.044
X136.584 Y55.283
X136.357 Y55.479
X136.093 Y55.621
X135.805 Y55.704
X133.526 Y56.103
G3 X132.853 Y55.617 I-0.083 J-0.594
G1 X129.92 Y39.708
G3 X130.489 Y39 I0.59 J-0.109
G1 X132.705
X132.971 Y39.013
X133.2 Y39.043
X133.461 Y39.099
X133.728 Y39.179
X134.043 Y39.302
X134.36 Y39.456
X134.718 Y39.667
X135.093 Y39.93
X135.495 Y40.263
X135.908 Y40.666
X136.355 Y41.179
X136.817 Y41.803
X137.285 Y42.556
X137.692 Y43.343
X138.045 Y44.156
X138.351 Y44.987
X138.615 Y45.833
X138.841 Y46.69
X139.031 Y47.555
X139.188 Y48.428
X139.313 Y49.305
X139.404 Y50.186
X139.46 Y51.071
X139.475 Y51.957
X139.438 Y52.842
X139.36 Y53.516
X139.261 Y54.02
X139.179 Y54.309
X139.061 Y54.599
X138.881 Y54.855
X138.648 Y55.066
X138.374 Y55.219
X138.073 Y55.307
X135.805 Y55.704
G3 X135.133 Y55.224 I-0.083 J-0.594
G1 X132.136 Y39.713
G3 X132.705 Y39 I0.589 J-0.114
G1 X135.121
X135.271 Y39.007
X135.501 Y39.038
X135.763 Y39.095
X136.033 Y39.177
X136.35 Y39.301
X136.667 Y39.457
X137.028 Y39.671
X137.403 Y39.936
X137.807 Y40.273
X138.22 Y40.679
X138.668 Y41.195
X139.131 Y41.825
X139.597 Y42.579
X140.001 Y43.367
X140.352 Y44.181
X140.656 Y45.013
X140.917 Y45.86
X141.14 Y46.718
X141.326 Y47.584
X141.479 Y48.457
X141.596 Y49.335
X141.679 Y50.218
X141.723 Y51.103
X141.72 Y51.989
X141.664 Y52.791
X141.576 Y53.365
X141.461 Y53.858
X141.417 Y53.994
X141.281 Y54.29
X141.081 Y54.548
X140.827 Y54.752
X140.532 Y54.891
X140.213 Y54.959
X140.156 Y54.964
X139.954 Y54.986
X139.753 Y55.013
X138.073 Y55.307
G3 X137.401 Y54.824 I-0.083 J-0.594
G1 X134.552 Y39.711
G3 X135.121 Y39 I0.59 J-0.111
G1 X137.336
X137.568 Y39.012
X137.796 Y39.041
X138.058 Y39.098
X138.325 Y39.177
X138.638 Y39.299
X138.957 Y39.454
X139.313 Y39.664
X139.691 Y39.929
X140.089 Y40.26
X140.503 Y40.664
X140.951 Y41.177
X141.407 Y41.793
X141.873 Y42.543
X142.279 Y43.33
X142.632 Y44.143
X142.936 Y44.976
X143.197 Y45.822
X143.419 Y46.68
X143.604 Y47.547
X143.752 Y48.42
X143.866 Y49.299
X143.941 Y50.182
X143.974 Y51.068
X143.953 Y51.954
X143.885 Y52.65
X143.791 Y53.173
X143.668 Y53.639
X143.636 Y53.731
X143.51 Y53.995
X143.332 Y54.228
X143.11 Y54.419
X142.853 Y54.559
X142.169 Y54.843
X142.119 Y54.861
X142.069 Y54.874
X141.968 Y54.887
X141.565 Y54.868
X141.364 Y54.863
X140.76 Y54.908
X140.213 Y54.959
G3 X139.589 Y54.473 I-0.035 J-0.599
G1 X136.768 Y39.712
G3 X137.336 Y39 I0.589 J-0.113
G1 X139.551
X139.869 Y39.016
X140.097 Y39.046
X140.358 Y39.102
X140.625 Y39.182
X140.94 Y39.304
X141.255 Y39.457
X141.614 Y39.668
X141.986 Y39.93
X142.387 Y40.263
X142.798 Y40.663
X143.243 Y41.173
X143.7 Y41.791
X144.162 Y42.534
X144.569 Y43.322
X144.92 Y44.135
X145.223 Y44.968
X145.482 Y45.815
X145.701 Y46.674
X145.882 Y47.541
X146.025 Y48.416
X146.13 Y49.296
X146.195 Y50.18
X146.212 Y51.066
X146.169 Y51.939
X146.103 Y52.448
X146.035 Y52.732
X145.909 Y52.997
X145.732 Y53.229
X145.509 Y53.42
X145.253 Y53.56
X142.853 Y54.559
G3 X142.055 Y54.122 I-0.211 J-0.562
G1 X138.986 Y39.725
G3 X139.551 Y39 I0.587 J-0.125
G1 X141.968
X142.158 Y39.01
X142.387 Y39.04
X142.648 Y39.095
X142.915 Y39.175
X143.23 Y39.298
X143.546 Y39.451
X143.904 Y39.662
X144.276 Y39.924
X144.678 Y40.257
X145.087 Y40.656
X145.531 Y41.165
X145.985 Y41.779
X146.444 Y42.517
X146.851 Y43.304
X147.201 Y44.118
X147.503 Y44.951
X147.76 Y45.799
X147.976 Y46.659
X148.152 Y47.527
X148.288 Y48.403
X148.385 Y49.283
X148.438 Y50.168
X148.436 Y50.944
X148.388 Y51.51
X148.383 Y51.543
X148.309 Y51.816
X148.181 Y52.069
X148.005 Y52.291
X147.788 Y52.473
X147.54 Y52.608
X145.253 Y53.56
G3 X144.456 Y53.131 I-0.211 J-0.562
G1 X141.404 Y39.733
G3 X141.968 Y39 I0.585 J-0.133
G1 X144.183
X144.457 Y39.014
X144.686 Y39.044
X144.945 Y39.099
X145.212 Y39.179
X145.527 Y39.302
X145.841 Y39.454
X146.199 Y39.665
X146.568 Y39.924
X146.969 Y40.257
X147.375 Y40.653
X147.816 Y41.159
X148.268 Y41.769
X148.722 Y42.499
X148.844 Y42.736
X148.93 Y42.941
X148.982 Y43.156
X149 Y43.378
G3 X148 Y43.804 I-0.6 J-0.021
G1 X143.804 Y40.047
G3 X144.183 Y39 I0.4 J-0.447
G1 X146.6
X146.749 Y39.007
X146.98 Y39.038
X147.239 Y39.095
X147.508 Y39.176
X147.823 Y39.3
X148.137 Y39.453
X148.314 Y39.558
X148.546 Y39.731
X148.738 Y39.947
X148.882 Y40.199
X148.97 Y40.474
X149 Y40.762
G3 X148.076 Y41.247 I-0.6 J-0.021
G1 X146.296 Y40.105
G3 X146.6 Y39 I0.324 J-0.505
G1 X148.211
X148.412 Y39.001
X148.513 Y39.015
X148.563 Y39.029
X148.613 Y39.047
X148.697 Y39.091
X148.782 Y39.151
X148.815 Y39.18
X148.855 Y39.223
X148.889 Y39.266
X148.94 Y39.352
X148.961 Y39.402
X148.978 Y39.452
X148.997 Y39.553
X149 Y39.754
Y51.42
X148.999 Y51.621
X148.986 Y51.722
X148.972 Y51.772
X148.954 Y51.822
X148.93 Y51.872
X148.9 Y51.923
X148.863 Y51.973
X148.815 Y52.025
X148.714 Y52.106
X148.664 Y52.136
X148.613 Y52.16
X147.54 Y52.608
X146.755 Y52.566
X146.398 Y52.547
X142.572 Y52.194
X42.69 Y47.86
X38.662 Y47.837
X-107.537 Y54.383
X-108.968 Y54.474
X-109.752 Y54.523
X-111.363
X-111.513 Y54.516
X-111.677 Y54.488
X-111.847 Y54.446
X-112.038 Y54.382
X-112.229 Y54.299
X-112.442 Y54.187
X-112.652 Y54.053
X-112.876 Y53.884
X-113.098 Y53.686
X-113.322 Y53.452
X-113.55 Y53.172
X-113.761 Y52.865
X-113.971 Y52.5
X-114.162 Y52.096
X-114.33 Y51.653
X-114.478 Y51.14
X-114.591 Y50.586
X-114.663 Y49.991
X-114.689 Y49.329
X-114.66 Y48.604
X-114.57 Y47.862
X-114.409 Y47.071
X-114.165 Y46.225
X-113.851 Y45.396
X-113.477 Y44.592
X-113.048 Y43.817
X-112.569 Y43.072
X-112.044 Y42.358
X-111.476 Y41.678
X-110.871 Y41.03
X-110.232 Y40.416
X-109.564 Y39.834
X-108.869 Y39.285
X-108.15 Y38.767
X-107.409 Y38.28
X-106.649 Y37.824
X-105.872 Y37.398
X-105.08 Y37.002
X-104.273 Y36.635
X-103.455 Y36.295
X-102.626 Y35.983
X-101.787 Y35.696
X-100.941 Y35.434
X-100.087 Y35.196
X-99.228 Y34.98
X-98.363 Y34.786
X-97.494 Y34.613
X-96.621 Y34.459
X-95.746 Y34.324
X-94.867 Y34.206
X-93.987 Y34.105
X-93.105 Y34.019
X-92.222 Y33.949
X-91.337 Y33.892
X-90.452 Y33.848
X-89.567 Y33.816
X-88.681 Y33.796
X-87.795 Y33.785
X-86.909
X-86.023 Y33.793
X-85.137 Y33.809
X-84.251 Y33.832
X-83.365 Y33.862
X-82.48 Y33.898
X-81.595 Y33.939
X-80.71 Y33.984
X-79.825 Y34.034
X-78.94 Y34.086
X-78.056 Y34.142
X-77.172 Y34.199
X-76.288 Y34.259
X-74.52 Y34.381
X-71.868 Y34.566
X-70.099 Y34.687
X-69.215 Y34.745
X-68.331 Y34.802
X-67.447 Y34.857
X-66.562 Y34.911
X-65.677 Y34.962
X-64.793 Y35.011
X-63.908 Y35.058
X-63.023 Y35.103
X-62.138 Y35.145
X-61.252 Y35.184
X-60.367 Y35.221
X-59.482 Y35.256
X-58.596 Y35.289
X-57.711 Y35.319
X-56.825 Y35.346
X-55.939 Y35.372
X-55.053 Y35.396
X-54.167 Y35.417
X-53.281 Y35.437
X-52.396 Y35.455
X-51.51 Y35.471
X-50.624 Y35.486
X-49.738 Y35.499
X-48.852 Y35.511
X-47.965 Y35.521
X-47.079 Y35.531
X-45.307 Y35.547
X-43.535 Y35.559
X-41.763 Y35.569
X-39.991 Y35.575
X-38.218 Y35.579
X-36.446 Y35.58
X-34.674 Y35.578
X-32.902 Y35.573
X-32.015 Y35.569
X-31.129 Y35.564
X-30.243 Y35.557
X-29.357 Y35.55
X-28.471 Y35.541
X-27.585 Y35.531
X-26.699 Y35.519
X-25.813 Y35.505
X-24.927 Y35.49
X-24.041 Y35.474
X-23.155 Y35.455
X-22.269 Y35.435
X-21.383 Y35.413
X-20.498 Y35.389
X-19.612 Y35.363
X-18.726 Y35.335
X-17.84 Y35.305
X-16.955 Y35.273
X-16.069 Y35.239
X-15.184 Y35.203
X-14.299 Y35.166
X-13.414 Y35.126
X-12.528 Y35.084
X-11.643 Y35.041
X-10.758 Y34.996
X-9.873 Y34.949
X-8.989 Y34.9
X-8.104 Y34.85
X-7.219 Y34.798
X-6.335 Y34.744
X-5.45 Y34.689
X-4.566 Y34.632
X-3.682 Y34.574
X-2.798 Y34.514
X-1.914 Y34.452
X-1.03 Y34.39
X-0.146 Y34.326
X0.738 Y34.26
X1.621 Y34.194
X2.505 Y34.126
X4.271 Y33.987
X6.038 Y33.845
X9.571 Y33.558
X10.454 Y33.487
X11.338 Y33.418
X12.221 Y33.349
X13.105 Y33.283
X13.989 Y33.22
X14.873 Y33.159
X15.757 Y33.102
X16.641 Y33.049
X17.526 Y33.001
X18.411 Y32.959
X19.297 Y32.923
X20.182 Y32.894
X21.068 Y32.873
X21.954 Y32.86
X22.84 Y32.858
X23.726 Y32.865
X24.612 Y32.885
X25.498 Y32.917
X26.383 Y32.964
X27.267 Y33.026
X28.149 Y33.105
X29.03 Y33.203
X29.908 Y33.321
X30.783 Y33.46
X31.655 Y33.621
X32.521 Y33.806
X32.981 Y33.919
X33.284 Y34.031
X33.552 Y34.21
X33.773 Y34.446
X33.933 Y34.726
X34.037 Y34.927
X34.156 Y35.128
X34.293 Y35.329
X34.446 Y35.53
X35.065 Y36.335
X35.239 Y36.542
X35.444 Y36.737
X35.673 Y36.938
X35.843 Y37.073
X36.246 Y37.382
X36.448 Y37.534
G3 X36.044 Y38.604 I-0.372 J0.471
G1 X-107.537 Y54.203
X-110.58 Y54.458
X-111.363 Y54.523
X-112.974
X-113.128 Y54.516
X-113.299 Y54.493
X-113.474 Y54.456
X-113.674 Y54.396
X-113.875 Y54.317
X-114.101 Y54.208
X-114.324 Y54.077
