(1001)
(Bearbeiten)
(  Hersteller: ChinaCnc)
(  model: 3040T)
(  description: Generic 3-axis)
(T16  D=6 CR=0 - ZMIN=-30.2 - Schaftfraser)
G90 G94
G17
G21
G28 G91 Z0
G90

(2D Adaptive24)
T16
S6000 M3
G54
G0 X-4.122 Y-35.414
Z5
Z3
Z2
G1 Z-7 F333.3
X-4.121 Y-35.451 F1000
X-4.084 Y-35.443
X-4.068 Y-35.409
X-4.079 Y-35.373
X-4.11 Y-35.352
X-4.147 Y-35.353
X-4.181 Y-35.37
X-4.205 Y-35.399
X-4.218 Y-35.434
X-4.216 Y-35.471
X-4.201 Y-35.506
X-4.176 Y-35.534
X-4.144 Y-35.554
X-4.072 Y-35.574
X-3.999 Y-35.559
X-3.939 Y-35.514
X-3.899 Y-35.451
X-3.885 Y-35.377
X-3.894 Y-35.303
X-3.926 Y-35.235
X-4.027 Y-35.123
X-4.169 Y-35.076
X-4.318 Y-35.095
X-4.447 Y-35.171
X-4.54 Y-35.289
X-4.587 Y-35.431
X-4.586 Y-35.581
X-4.541 Y-35.725
X-4.457 Y-35.849
X-4.344 Y-35.947
X-4.209 Y-36.013
X-4.062 Y-36.043
X-3.912 Y-36.038
X-3.768 Y-35.998
X-3.636 Y-35.927
X-3.522 Y-35.829
X-3.431 Y-35.71
X-3.366 Y-35.575
X-3.326 Y-35.43
X-3.314 Y-35.28
X-3.33 Y-35.131
X-3.371 Y-34.987
X-3.436 Y-34.852
X-3.523 Y-34.73
X-3.628 Y-34.623
X-3.75 Y-34.535
X-3.883 Y-34.467
X-4.026 Y-34.419
X-4.174 Y-34.394
X-4.323 Y-34.39
X-4.472 Y-34.408
X-4.617 Y-34.447
X-4.756 Y-34.505
X-4.884 Y-34.582
X-5.002 Y-34.675
X-5.107 Y-34.783
X-5.197 Y-34.903
X-5.271 Y-35.033
X-5.329 Y-35.171
X-5.369 Y-35.316
X-5.392 Y-35.464
X-5.398 Y-35.614
X-5.386 Y-35.763
X-5.357 Y-35.911
X-5.312 Y-36.054
X-5.25 Y-36.191
X-5.175 Y-36.32
X-5.086 Y-36.441
X-4.985 Y-36.552
X-4.872 Y-36.651
X-4.75 Y-36.738
X-4.62 Y-36.812
X-4.482 Y-36.872
X-4.34 Y-36.919
X-4.193 Y-36.951
X-4.044 Y-36.969
X-3.894 Y-36.971
X-3.745 Y-36.96
X-3.597 Y-36.934
X-3.452 Y-36.895
X-3.312 Y-36.843
X-3.176 Y-36.777
X-3.048 Y-36.7
X-2.927 Y-36.612
X-2.814 Y-36.513
X-2.71 Y-36.405
X-2.616 Y-36.288
X-2.532 Y-36.164
X-2.459 Y-36.032
X-2.398 Y-35.895
X-2.348 Y-35.754
X-2.311 Y-35.609
X-2.285 Y-35.461
X-2.271 Y-35.308
X-2.269 Y-35.158
X-2.281 Y-35.004
X-2.303 Y-34.855
X-2.34 Y-34.703
X-2.387 Y-34.557
X-2.448 Y-34.409
X-2.519 Y-34.271
X-2.604 Y-34.133
X-2.697 Y-34.007
X-2.806 Y-33.881
X-2.92 Y-33.769
X-3.049 Y-33.662
X-3.183 Y-33.567
X-3.328 Y-33.481
X-3.48 Y-33.407
X-3.638 Y-33.345
X-3.803 Y-33.295
X-3.969 Y-33.259
X-4.145 Y-33.236
X-4.319 Y-33.226
X-4.496 Y-33.231
X-4.675 Y-33.251
X-4.85 Y-33.284
X-5.028 Y-33.333
X-5.198 Y-33.395
X-5.365 Y-33.471
X-5.53 Y-33.563
X-5.683 Y-33.667
X-5.831 Y-33.784
X-5.972 Y-33.915
X-6.1 Y-34.056
X-6.219 Y-34.209
X-6.327 Y-34.374
X-6.42 Y-34.545
X-6.5 Y-34.725
X-6.567 Y-34.915
X-6.618 Y-35.11
X-6.654 Y-35.307
X-6.673 Y-35.512
X-6.677 Y-35.719
X-6.664 Y-35.924
X-6.634 Y-36.129
X-6.587 Y-36.336
X-6.523 Y-36.539
X-6.443 Y-36.736
X-6.347 Y-36.926
X-6.234 Y-37.113
X-6.106 Y-37.29
X-5.964 Y-37.457
X-5.809 Y-37.612
X-5.639 Y-37.755
X-5.456 Y-37.887
X-5.262 Y-38.004
X-5.059 Y-38.105
X-4.848 Y-38.19
X-4.629 Y-38.258
X-4.403 Y-38.309
X-4.171 Y-38.342
X-3.936 Y-38.356
X-3.698 Y-38.352
X-3.461 Y-38.328
X-3.225 Y-38.285
X-2.993 Y-38.223
X-2.764 Y-38.142
X-2.541 Y-38.042
X-2.325 Y-37.923
X-2.117 Y-37.787
X-1.92 Y-37.633
X-1.734 Y-37.463
X-1.562 Y-37.277
X-1.404 Y-37.076
X-1.262 Y-36.862
X-1.136 Y-36.637
X-1.028 Y-36.4
X-0.94 Y-36.154
X-0.87 Y-35.899
X-0.822 Y-35.639
X-0.794 Y-35.374
X-0.787 Y-35.105
X-0.802 Y-34.836
X-0.839 Y-34.566
X-0.897 Y-34.3
X-0.978 Y-34.036
X-1.08 Y-33.779
X-1.203 Y-33.529
X-1.346 Y-33.289
X-1.509 Y-33.059
X-1.691 Y-32.842
X-1.891 Y-32.639
X-2.109 Y-32.452
X-2.342 Y-32.282
X-2.589 Y-32.129
X-2.85 Y-31.997
X-3.121 Y-31.885
X-3.403 Y-31.795
X-3.693 Y-31.727
X-3.988 Y-31.683
X-4.289 Y-31.662
X-4.592 Y-31.665
X-4.895 Y-31.693
X-5.197 Y-31.745
X-5.495 Y-31.822
X-5.788 Y-31.924
X-6.074 Y-32.049
X-6.35 Y-32.197
X-6.614 Y-32.368
X-6.866 Y-32.561
X-7.103 Y-32.775
X-7.323 Y-33.008
X-7.524 Y-33.259
X-7.706 Y-33.528
X-7.867 Y-33.811
X-8.005 Y-34.108
X-8.119 Y-34.417
X-8.209 Y-34.736
X-8.273 Y-35.063
X-8.311 Y-35.396
X-8.322 Y-35.732
X-8.306 Y-36.071
X-8.262 Y-36.408
X-8.192 Y-36.743
X-8.094 Y-37.073
X-7.969 Y-37.395
X-7.818 Y-37.708
X-7.642 Y-38.01
X-7.44 Y-38.298
X-7.215 Y-38.571
X-6.968 Y-38.826
X-6.7 Y-39.061
X-6.412 Y-39.275
X-6.106 Y-39.466
X-5.785 Y-39.634
X-5.449 Y-39.775
X-5.101 Y-39.89
X-4.743 Y-39.977
X-4.378 Y-40.035
X-4.007 Y-40.063
X-3.633 Y-40.062
X-3.259 Y-40.031
X-2.887 Y-39.969
X-2.518 Y-39.878
X-2.157 Y-39.756
X-1.805 Y-39.605
X-1.464 Y-39.426
X-1.137 Y-39.218
X-0.827 Y-38.984
X-0.534 Y-38.725
X-0.263 Y-38.441
X-0.013 Y-38.136
X0.212 Y-37.809
X0.411 Y-37.464
X0.582 Y-37.103
X0.725 Y-36.727
X0.838 Y-36.339
X0.919 Y-35.941
X0.968 Y-35.536
X0.985 Y-35.127
X0.969 Y-34.716
X0.92 Y-34.305
X0.838 Y-33.898
X0.722 Y-33.497
X0.574 Y-33.105
X0.395 Y-32.724
X0.184 Y-32.357
X-0.057 Y-32.007
X-0.326 Y-31.675
X-0.622 Y-31.365
X-0.944 Y-31.078
X-1.289 Y-30.817
X-1.656 Y-30.583
X-2.042 Y-30.378
X-2.445 Y-30.205
X-2.862 Y-30.063
X-3.292 Y-29.955
X-3.731 Y-29.882
X-4.176 Y-29.844
X-4.625 Y-29.841
X-5.074 Y-29.875
X-5.522 Y-29.945
X-5.964 Y-30.051
X-6.398 Y-30.194
X-6.821 Y-30.371
X-7.23 Y-30.582
X-7.623 Y-30.827
X-7.996 Y-31.103
X-8.348 Y-31.41
X-8.675 Y-31.746
X-8.975 Y-32.108
X-9.246 Y-32.495
X-9.487 Y-32.904
X-9.695 Y-33.333
X-9.868 Y-33.779
X-10.006 Y-34.239
X-10.106 Y-34.711
X-10.169 Y-35.191
X-10.193 Y-35.676
X-10.178 Y-36.164
X-10.124 Y-36.652
X-10.03 Y-37.135
X-9.897 Y-37.611
X-9.726 Y-38.077
X-9.517 Y-38.529
X-9.271 Y-38.965
X-8.991 Y-39.382
X-8.676 Y-39.776
X-8.329 Y-40.145
X-7.953 Y-40.486
X-7.548 Y-40.798
X-7.118 Y-41.077
X-6.666 Y-41.321
X-6.193 Y-41.53
X-5.704 Y-41.7
X-5.2 Y-41.831
X-4.685 Y-41.922
X-4.163 Y-41.971
X-3.636 Y-41.978
X-3.108 Y-41.942
X-2.583 Y-41.865
X-2.064 Y-41.744
X-1.554 Y-41.582
X-1.056 Y-41.379
X-0.575 Y-41.135
X-0.114 Y-40.853
X0.326 Y-40.533
X0.739 Y-40.178
X1.125 Y-39.789
X1.479 Y-39.369
X1.799 Y-38.92
X2.084 Y-38.445
X2.33 Y-37.947
X2.536 Y-37.429
X2.701 Y-36.894
X2.823 Y-36.346
X2.9 Y-35.788
X2.933 Y-35.223
X2.92 Y-34.656
X2.861 Y-34.089
X2.757 Y-33.527
X2.607 Y-32.973
X2.413 Y-32.43
X2.175 Y-31.903
X1.895 Y-31.396
X1.573 Y-30.91
X1.212 Y-30.45
X0.814 Y-30.02
X0.381 Y-29.621
X-0.084 Y-29.256
X-0.578 Y-28.929
X-1.099 Y-28.642
X-1.644 Y-28.397
X-2.208 Y-28.195
X-2.789 Y-28.039
X-3.382 Y-27.93
X-3.985 Y-27.868
X-4.592 Y-27.855
X-5.201 Y-27.891
X-5.807 Y-27.976
X-6.407 Y-28.109
X-6.995 Y-28.291
X-7.569 Y-28.521
X-8.125 Y-28.796
X-8.658 Y-29.117
X-9.166 Y-29.48
X-9.645 Y-29.884
X-10.091 Y-30.327
X-10.501 Y-30.806
X-10.873 Y-31.318
X-11.204 Y-31.86
X-11.491 Y-32.429
X-11.733 Y-33.02
X-11.926 Y-33.632
X-12.071 Y-34.258
X-12.165 Y-34.897
X-12.208 Y-35.543
X-12.198 Y-36.192
X-12.137 Y-36.841
X-12.023 Y-37.485
X-11.857 Y-38.12
X-11.64 Y-38.741
X-11.373 Y-39.345
X-11.058 Y-39.927
X-10.696 Y-40.484
X-10.288 Y-41.012
X-9.839 Y-41.506
X-9.349 Y-41.965
X-8.823 Y-42.385
X-8.263 Y-42.761
X-7.672 Y-43.093
X-7.055 Y-43.377
X-6.415 Y-43.612
X-5.756 Y-43.795
X-5.082 Y-43.925
X-4.398 Y-44.001
X-3.708 Y-44.021
X-3.017 Y-43.986
X-2.328 Y-43.896
X-1.647 Y-43.75
X-0.977 Y-43.549
X-0.324 Y-43.294
X0.309 Y-42.987
X0.916 Y-42.628
X1.495 Y-42.221
X2.041 Y-41.768
X2.55 Y-41.271
X3.019 Y-40.732
X3.445 Y-40.157
X3.824 Y-39.547
X4.154 Y-38.906
X4.433 Y-38.24
X4.657 Y-37.551
X4.826 Y-36.844
X4.938 Y-36.124
X4.993 Y-35.395
X4.988 Y-34.662
X4.924 Y-33.929
X4.802 Y-33.202
X4.621 Y-32.485
X4.382 Y-31.783
X4.087 Y-31.1
X3.737 Y-30.441
X3.334 Y-29.81
X2.881 Y-29.212
X2.379 Y-28.651
X1.832 Y-28.13
X1.244 Y-27.654
X0.618 Y-27.225
X-0.043 Y-26.846
X-0.734 Y-26.521
X-1.452 Y-26.251
X-2.19 Y-26.04
X-2.945 Y-25.888
X-3.713 Y-25.796
X-4.487 Y-25.767
X-5.263 Y-25.8
X-6.037 Y-25.895
X-6.802 Y-26.052
X-7.554 Y-26.271
X-8.289 Y-26.551
X-9 Y-26.889
X-9.684 Y-27.285
X-10.336 Y-27.735
X-10.952 Y-28.238
X-11.526 Y-28.79
X-12.056 Y-29.388
X-12.538 Y-30.028
X-12.967 Y-30.707
X-13.342 Y-31.42
X-13.659 Y-32.163
X-13.917 Y-32.931
X-14.112 Y-33.719
X-14.244 Y-34.522
X-14.311 Y-35.336
X-14.313 Y-36.155
X-14.249 Y-36.973
X-14.119 Y-37.786
X-13.923 Y-38.587
X-13.664 Y-39.373
X-13.341 Y-40.137
X-12.957 Y-40.875
X-12.513 Y-41.582
X-12.013 Y-42.252
X-11.46 Y-42.882
X-10.856 Y-43.467
X-10.205 Y-44.002
X-9.512 Y-44.486
X-8.78 Y-44.913
X-8.014 Y-45.281
X-7.219 Y-45.587
X-6.4 Y-45.829
X-5.562 Y-46.005
X-5.483 Y-46.015
X-5.415 Y-46.022
X-5.347 Y-46.026
X-5.279
X-3.928 Y-46
X-3.727 Y-45.995
X-3.124 Y-45.974
X-2.24 Y-45.901
X-1.522 Y-45.802
X-0.777 Y-45.637
X-0.021 Y-45.405
X0.735 Y-45.105
X1.479 Y-44.738
X2.203 Y-44.305
X2.899 Y-43.81
X3.559 Y-43.255
X4.177 Y-42.643
X4.748 Y-41.98
X5.267 Y-41.269
X5.729 Y-40.516
X6.13 Y-39.726
X6.467 Y-38.906
X6.737 Y-38.062
X6.939 Y-37.199
X7.073 Y-36.323
X7.137 Y-35.439
X7.131 Y-34.553
X7.056 Y-33.67
X6.911 Y-32.796
X6.699 Y-31.936
X6.421 Y-31.095
X6.077 Y-30.278
X5.671 Y-29.49
X5.205 Y-28.736
X4.682 Y-28.021
X4.106 Y-27.348
X3.479 Y-26.721
X2.807 Y-26.144
X2.092 Y-25.621
X1.339 Y-25.153
X0.824 Y-24.884
X0.609 Y-24.794
X0.383 Y-24.741
X0.151 Y-24.726
X-1.111 Y-24.75
X-2.319 Y-24.778
X-4.935 Y-24.843
X-5.337 Y-24.854
X-7.953 Y-24.935
X-8.446 Y-24.975
X-8.902 Y-25.049
X-9.403 Y-25.172
X-9.959 Y-25.357
X-10.512 Y-25.593
X-11.115 Y-25.908
X-11.744 Y-26.305
X-12.366 Y-26.772
X-12.966 Y-27.302
X-13.555 Y-27.912
X-14.116 Y-28.597
X-14.621 Y-29.325
X-15.068 Y-30.09
X-15.456 Y-30.887
X-15.783 Y-31.711
X-16.05 Y-32.556
X-16.254 Y-33.418
X-16.394 Y-34.293
X-16.47 Y-35.176
X-16.48 Y-36.062
X-16.427 Y-36.946
X-16.311 Y-37.825
X-16.133 Y-38.693
X-15.893 Y-39.546
X-15.595 Y-40.38
X-15.239 Y-41.192
X-14.826 Y-41.976
X-14.357 Y-42.728
X-13.835 Y-43.444
X-13.265 Y-44.122
X-12.649 Y-44.759
X-11.99 Y-45.351
X-11.378 Y-45.83
X-11.108 Y-45.995
X-10.808 Y-46.096
X-10.494 Y-46.127
X-9.361 Y-46.106
X-5.279 Y-46.026
G3 X-5.027 Y-45.965 I-0.012 J0.6
G1 X-4.953 Y-45.935
X-4.877 Y-45.915
X-4.518 Y-45.845
X-4.097 Y-45.764
G2 X-3.694 Y-45.827 I0.114 J-0.589
G3 X-3.124 Y-45.974 I0.572 J1.04
G1 X1.706 Y-45.814
X2.082 Y-45.782
X2.439 Y-45.723
X2.82 Y-45.629
X3.243 Y-45.486
X3.699 Y-45.291
X4.2 Y-45.027
X4.705 Y-44.707
X5.26 Y-44.289
X5.817 Y-43.794
X6.356 Y-43.231
X6.897 Y-42.568
X7.4 Y-41.839
X7.845 Y-41.072
X8.233 Y-40.275
X8.563 Y-39.453
X8.833 Y-38.609
X9.042 Y-37.748
X9.193 Y-36.875
X9.285 Y-35.994
X9.32 Y-35.108
X9.296 Y-34.222
X9.213 Y-33.34
X9.07 Y-32.465
X8.87 Y-31.602
X8.614 Y-30.754
X8.304 Y-29.924
X7.941 Y-29.115
X7.526 Y-28.332
X7.06 Y-27.579
X6.545 Y-26.858
X5.984 Y-26.172
X5.381 Y-25.522
X4.881 Y-25.048
X4.668 Y-24.882
X4.428 Y-24.76
X4.168 Y-24.686
X3.899 Y-24.664
X2.31 Y-24.686
X0.901 Y-24.712
X0.151 Y-24.726
G3 X-0.102 Y-24.787 I0.011 J-0.6
G1 X-0.176 Y-24.817
X-0.253 Y-24.838
X-0.333 Y-24.847
X-0.616 Y-24.863
X-6.869 Y-25.207
G2 X-7.193 Y-25.133 I-0.033 J0.599
G3 X-7.953 Y-24.935 I-0.767 J-1.384
G1 X-8.557 Y-24.953
X-9.16 Y-24.974
X-11.575 Y-25.072
X-11.904 Y-25.101
X-12.21 Y-25.154
X-12.546 Y-25.24
X-12.932 Y-25.373
X-13.323 Y-25.544
X-13.777 Y-25.787
X-14.228 Y-26.077
X-14.722 Y-26.455
X-15.244 Y-26.925
X-15.745 Y-27.455
X-16.259 Y-28.094
X-16.756 Y-28.827
X-17.195 Y-29.597
X-17.575 Y-30.398
X-17.9 Y-31.222
X-18.168 Y-32.067
X-18.378 Y-32.928
X-18.531 Y-33.801
X-18.628 Y-34.681
X-18.671 Y-35.566
X-18.659 Y-36.452
X-18.594 Y-37.336
X-18.474 Y-38.214
X-18.299 Y-39.083
X-18.072 Y-39.939
X-17.794 Y-40.781
X-17.467 Y-41.604
X-17.09 Y-42.406
X-16.667 Y-43.185
X-16.195 Y-43.935
X-15.679 Y-44.655
X-15.121 Y-45.343
X-14.801 Y-45.692
X-14.582 Y-45.886
X-14.329 Y-46.03
X-14.05 Y-46.119
X-13.76 Y-46.147
X-10.527 Y-46.127
X-10.494
G3 X-10.241 Y-46.066 I-0.009 J0.6
G1 X-10.165 Y-46.036
X-10.086 Y-46.016
X-10.005 Y-46.007
X-9.727 Y-45.995
X0.63 Y-45.544
G2 X0.945 Y-45.618 I0.026 J-0.599
G3 X1.706 Y-45.814 I0.763 J1.386
G1 X2.913 Y-45.773
X3.517 Y-45.748
X4.724 Y-45.693
X5.118 Y-45.655
X5.401 Y-45.604
X5.719 Y-45.521
X6.048 Y-45.405
X6.436 Y-45.234
X6.817 Y-45.026
X7.262 Y-44.736
X7.696 Y-44.4
X8.173 Y-43.966
X8.671 Y-43.434
X9.148 Y-42.833
X9.625 Y-42.123
X10.058 Y-41.35
X10.431 Y-40.546
X10.747 Y-39.718
X11.009 Y-38.871
X11.216 Y-38.01
X11.37 Y-37.137
X11.471 Y-36.257
X11.518 Y-35.372
X11.514 Y-34.486
X11.459 Y-33.602
X11.353 Y-32.722
X11.199 Y-31.849
X10.995 Y-30.987
X10.741 Y-30.138
X10.44 Y-29.305
X10.092 Y-28.49
X9.698 Y-27.696
X9.262 Y-26.925
X8.783 Y-26.179
X8.264 Y-25.461
X8.007 Y-25.147
X7.785 Y-24.928
X7.519 Y-24.765
X7.224 Y-24.664
X6.914 Y-24.631
X6.133 Y-24.636
X5.529 Y-24.642
X3.899 Y-24.664
G3 X3.341 Y-25.136 I0.029 J-0.599
G1 X3.321 Y-25.228 Z-6.993
X3.302 Y-25.317 Z-6.971
X3.284 Y-25.402 Z-6.935
X3.267 Y-25.481 Z-6.885
X3.251 Y-25.551 Z-6.824
X3.239 Y-25.61 Z-6.753
X3.228 Y-25.659 Z-6.672
X3.22 Y-25.694 Z-6.585
X3.216 Y-25.715 Z-6.494
X3.214 Y-25.722 Z-6.4
G0 Z-5.8
X-10.285 Y-25.548
G1 Z-6.4 F1000
X-10.292 Y-25.544 Z-6.494
X-10.311 Y-25.534 Z-6.585
X-10.343 Y-25.517 Z-6.672
X-10.386 Y-25.493 Z-6.753
X-10.44 Y-25.464 Z-6.824
X-10.503 Y-25.43 Z-6.885
X-10.574 Y-25.392 Z-6.935
X-10.65 Y-25.351 Z-6.971
X-10.731 Y-25.307 Z-6.993
X-10.813 Y-25.262 Z-7
G3 X-11.575 Y-25.072 I-0.753 J-1.392
G1 X-14.392 Y-25.185
X-14.665 Y-25.21
X-14.94 Y-25.257
X-15.224 Y-25.33
X-15.544 Y-25.44
X-15.897 Y-25.594
X-16.264 Y-25.791
X-16.677 Y-26.057
X-17.092 Y-26.375
X-17.54 Y-26.778
X-18.015 Y-27.28
X-18.474 Y-27.851
X-18.939 Y-28.537
X-19.377 Y-29.307
X-19.754 Y-30.109
X-20.073 Y-30.936
X-20.337 Y-31.782
X-20.549 Y-32.642
X-20.708 Y-33.514
X-20.816 Y-34.393
X-20.873 Y-35.278
X-20.882 Y-36.164
X-20.842 Y-37.049
X-20.755 Y-37.931
X-20.622 Y-38.807
X-20.442 Y-39.675
X-20.216 Y-40.531
X-19.944 Y-41.375
X-19.628 Y-42.203
X-19.269 Y-43.013
X-18.868 Y-43.803
X-18.426 Y-44.571
X-17.946 Y-45.316
X-17.738 Y-45.597
X-17.515 Y-45.834
X-17.244 Y-46.014
X-16.938 Y-46.126
X-16.615 Y-46.164
X-13.76 Y-46.147
G3 X-13.199 Y-45.679 I-0.025 J0.599
G1 X-13.178 Y-45.588 Z-6.993
X-13.158 Y-45.498 Z-6.971
X-13.139 Y-45.413 Z-6.935
X-13.122 Y-45.335 Z-6.885
X-13.106 Y-45.265 Z-6.824
X-13.092 Y-45.206 Z-6.753
X-13.082 Y-45.158 Z-6.672
X-13.074 Y-45.122 Z-6.585
X-13.069 Y-45.101 Z-6.494
X-13.067 Y-45.094 Z-6.4
G0 Z-5.8
X3.432 Y-45.223
G1 Z-6.4 F1000
X3.439 Y-45.227 Z-6.494
X3.458 Y-45.237 Z-6.585
X3.49 Y-45.254 Z-6.672
X3.533 Y-45.277 Z-6.753
X3.587 Y-45.306 Z-6.824
X3.65 Y-45.34 Z-6.885
X3.721 Y-45.378 Z-6.935
X3.798 Y-45.419 Z-6.971
X3.879 Y-45.462 Z-6.993
X3.961 Y-45.506 Z-7
G3 X4.724 Y-45.693 I0.745 J1.396
G1 X7.541 Y-45.563
X7.735 Y-45.544
X7.999 Y-45.497
X8.269 Y-45.426
X8.588 Y-45.315
X8.91 Y-45.172
X9.275 Y-44.973
X9.654 Y-44.726
X10.067 Y-44.407
X10.483 Y-44.028
X10.936 Y-43.544
X11.379 Y-42.985
X11.824 Y-42.323
X12.257 Y-41.55
X12.628 Y-40.745
X12.941 Y-39.916
X13.2 Y-39.069
X13.407 Y-38.207
X13.564 Y-37.335
X13.671 Y-36.455
X13.729 Y-35.571
X13.74 Y-34.685
X13.705 Y-33.8
X13.625 Y-32.917
X13.501 Y-32.04
X13.333 Y-31.17
X13.123 Y-30.309
X12.869 Y-29.46
X12.572 Y-28.625
X12.233 Y-27.806
X11.855 Y-27.005
X11.439 Y-26.223
X10.984 Y-25.462
X10.813 Y-25.215
X10.638 Y-25.009
X10.426 Y-24.84
X10.185 Y-24.715
X9.925 Y-24.639
X9.655 Y-24.614
X6.914 Y-24.631
G3 X6.339 Y-25.249 I0.025 J-0.599
G1 X6.935 Y-44.981
G3 X7.541 Y-45.563 I0.6 J0.018
G1 X9.956 Y-45.452
X10.209 Y-45.428
X10.44 Y-45.386
X10.71 Y-45.316
X10.998 Y-45.215
X11.307 Y-45.077
X11.654 Y-44.889
X12.002 Y-44.662
X12.398 Y-44.356
X12.785 Y-44.003
X13.203 Y-43.555
X13.639 Y-43.007
X14.058 Y-42.382
X14.48 Y-41.629
X14.85 Y-40.823
X15.16 Y-39.993
X15.416 Y-39.145
X15.621 Y-38.283
X15.777 Y-37.41
X15.887 Y-36.531
X15.952 Y-35.647
X15.972 Y-34.762
X15.95 Y-33.876
X15.886 Y-32.992
X15.782 Y-32.112
X15.638 Y-31.238
X15.455 Y-30.371
X15.233 Y-29.513
X14.974 Y-28.665
X14.677 Y-27.83
X14.343 Y-27.01
X13.972 Y-26.205
X13.601 Y-25.496
X13.447 Y-25.252
X13.273 Y-25.029
X13.057 Y-24.846
X12.809 Y-24.71
X12.539 Y-24.626
X12.257 Y-24.599
X9.655 Y-24.614
G3 X9.08 Y-25.222 I0.025 J-0.599
G1 X9.35 Y-44.86
G3 X9.956 Y-45.452 I0.6 J0.008
G1 X10.157 Y-45.443
X10.492 Y-45.424
X12.371 Y-45.317
X12.625 Y-45.289
X12.858 Y-45.245
X13.126 Y-45.172
X13.396 Y-45.073
X13.712 Y-44.929
X14.028 Y-44.753
X14.384 Y-44.514
X14.747 Y-44.227
X15.142 Y-43.859
X15.532 Y-43.433
X15.949 Y-42.895
X16.369 Y-42.254
X16.773 Y-41.513
X17.134 Y-40.703
X17.434 Y-39.87
X17.68 Y-39.018
X17.875 Y-38.154
X18.024 Y-37.281
X18.128 Y-36.401
X18.19 Y-35.517
X18.211 Y-34.631
X18.193 Y-33.745
X18.136 Y-32.86
X18.04 Y-31.979
X17.908 Y-31.103
X17.74 Y-30.233
X17.537 Y-29.371
X17.299 Y-28.517
X17.026 Y-27.674
X16.72 Y-26.842
X16.379 Y-26.025
X16.088 Y-25.446
X15.983 Y-25.274
X15.81 Y-25.046
X15.595 Y-24.858
X15.346 Y-24.717
X15.074 Y-24.631
X14.79 Y-24.601
X12.975 Y-24.597
X12.257 Y-24.599
G3 X11.681 Y-25.201 I0.023 J-0.6
G1 X11.757 Y-44.719
G3 X12.371 Y-45.317 I0.6 J0.002
G1 X14.786 Y-45.178
X14.957 Y-45.16
X15.106 Y-45.142
X15.254 Y-45.117
X15.4 Y-45.084
X15.545 Y-45.044
X15.688 Y-44.997
X15.828 Y-44.945
X15.966 Y-44.886
X16.102 Y-44.823
X16.236 Y-44.755
X16.367 Y-44.682
X16.496 Y-44.605
X16.622 Y-44.524
X16.746 Y-44.439
X16.867 Y-44.351
X16.986 Y-44.26
X17.102 Y-44.165
X17.216 Y-44.067
X17.328 Y-43.967
X17.436 Y-43.864
X17.543 Y-43.758
X17.647 Y-43.65
X17.749 Y-43.541
X17.849 Y-43.428
X17.946 Y-43.314
X18.041 Y-43.198
X18.134 Y-43.08
X18.224 Y-42.96
X18.313 Y-42.839
X18.399 Y-42.716
X18.483 Y-42.592
X18.565 Y-42.467
X18.645 Y-42.34
X18.723 Y-42.211
X18.799 Y-42.082
X18.873 Y-41.952
X18.945 Y-41.82
X19.015 Y-41.688
X19.084 Y-41.554
X19.15 Y-41.42
X19.215 Y-41.284
X19.278 Y-41.148
X19.339 Y-41.011
X19.399 Y-40.874
X19.456 Y-40.735
X19.513 Y-40.596
X19.567 Y-40.456
X19.62 Y-40.316
X19.671 Y-40.175
X19.721 Y-40.034
X19.769 Y-39.892
X19.816 Y-39.749
X19.861 Y-39.606
X19.904 Y-39.462
X19.947 Y-39.318
X19.987 Y-39.174
X20.026 Y-39.029
X20.064 Y-38.884
X20.1 Y-38.739
X20.135 Y-38.593
X20.169 Y-38.446
X20.202 Y-38.3
X20.233 Y-38.153
X20.262 Y-38.006
X20.29 Y-37.859
X20.317 Y-37.711
X20.343 Y-37.564
X20.368 Y-37.416
X20.391 Y-37.267
X20.413 Y-37.119
X20.434 Y-36.97
X20.453 Y-36.822
X20.471 Y-36.673
X20.489 Y-36.523
X20.505 Y-36.374
X20.519 Y-36.225
X20.533 Y-36.076
X20.545 Y-35.926
X20.557 Y-35.773
X20.568 Y-35.612
X20.577 Y-35.462
X20.584 Y-35.312
X20.591 Y-35.162
X20.596 Y-35.013
X20.601 Y-34.856
X20.604 Y-34.69
X20.607 Y-34.529
X20.608 Y-34.379
X20.607 Y-34.229
X20.606 Y-34.077
X20.601 Y-33.832
X20.597 Y-33.657
X20.591 Y-33.501
X20.585 Y-33.351
X20.577 Y-33.2
X20.568 Y-33.041
X20.557 Y-32.872
X20.544 Y-32.693
X20.531 Y-32.529
X20.518 Y-32.379
X20.504 Y-32.225
X20.487 Y-32.062
X20.468 Y-31.889
X20.447 Y-31.705
X20.426 Y-31.54
X20.407 Y-31.39
X20.385 Y-31.233
X20.36 Y-31.066
X20.333 Y-30.888
X20.303 Y-30.699
X20.276 Y-30.54
X20.249 Y-30.388
X20.219 Y-30.226
X20.186 Y-30.055
X20.15 Y-29.873
X20.111 Y-29.684
X20.078 Y-29.532
X20.044 Y-29.377
X20.006 Y-29.212
X19.964 Y-29.037
X19.918 Y-28.85
X19.873 Y-28.672
X19.835 Y-28.525
X19.793 Y-28.37
X19.748 Y-28.207
X19.698 Y-28.033
X19.644 Y-27.847
X19.595 Y-27.685
X19.551 Y-27.542
X19.506 Y-27.399
X19.459 Y-27.256
X19.411 Y-27.114
X19.362 Y-26.97
X19.312 Y-26.828
X19.261 Y-26.687
X19.208 Y-26.547
X19.154 Y-26.407
X19.098 Y-26.268
X19.041 Y-26.129
X18.981 Y-25.992
X18.919 Y-25.855
X18.856 Y-25.719
X18.79 Y-25.584
X18.72 Y-25.451
X18.644 Y-25.312
X18.473 Y-25.074
X18.256 Y-24.877
X18.002 Y-24.729
X17.723 Y-24.638
X17.432 Y-24.606
X14.79 Y-24.601
G3 X14.209 Y-25.199 I0.02 J-0.6
G1 X14.172 Y-44.577
G3 X14.786 Y-45.178 I0.6 J-0.001
G1 X16.999 Y-45.051
X17.2 Y-45.039
X17.403 Y-45.016
X17.629 Y-44.973
X17.878 Y-44.903
X18.148 Y-44.804
X18.441 Y-44.669
X18.755 Y-44.493
X19.09 Y-44.267
X19.444 Y-43.985
X19.816 Y-43.636
X20.203 Y-43.21
X20.601 Y-42.694
X21.006 Y-42.071
X21.409 Y-41.327
X21.767 Y-40.516
X22.065 Y-39.682
X22.309 Y-38.83
X22.504 Y-37.965
X22.654 Y-37.092
X22.762 Y-36.213
X22.83 Y-35.329
X22.838 Y-35.108
X22.88 Y-34.89
X22.957 Y-34.682
X23.173 Y-34.296
X23.809 Y-33.679
X24.549 Y-33.192
X25.326 Y-32.766
X26.112 Y-32.356
X26.73 Y-31.99
X27.3 Y-31.587
X27.619 Y-31.32
X27.991 Y-30.955
X28.248 Y-30.659
X28.481 Y-30.341
X28.714 Y-29.964
X28.853 Y-29.692
X28.996 Y-29.347
X29.111 Y-28.99
X29.178 Y-28.707
X29.232 Y-28.356
X29.257 Y-28.013
X29.254 Y-27.736
X29.224 Y-27.401
X29.167 Y-27.07
X29.102 Y-26.815
X28.999 Y-26.512
X28.863 Y-26.202
X28.745 Y-25.98
X28.581 Y-25.725
X28.369 Y-25.447
X28.209 Y-25.269
X27.999 Y-25.07
X27.892 Y-24.984
X27.63 Y-24.817
X27.338 Y-24.712
X27.029 Y-24.675
X25.652 Y-24.661
X25.048 Y-24.656
X24.846 Y-24.664
X23.966 Y-24.773
X23.301 Y-24.66
X23.227 Y-24.65
X23.153 Y-24.643
X23.078 Y-24.64
G3 X22.494 Y-25.256 I0.016 J-0.6
X23.11 Y-25.84 I0.6 J0.016
X25.163 Y-24.95 I-0.081 J2.999
X25.048 Y-24.656 I-0.123 J0.121
G1 X19.615 Y-24.613
X18.81 Y-24.609
X17.432 Y-24.606
G3 X16.851 Y-25.198 I0.02 J-0.6
G1 X16.585 Y-44.431
G3 X17.2 Y-45.039 I0.6 J-0.008
G1 X17.603 Y-45.014
X19.414 Y-44.892
X19.714 Y-44.856
X19.945 Y-44.81
X20.192 Y-44.739
X20.458 Y-44.64
X20.762 Y-44.497
X21.062 Y-44.325
X21.411 Y-44.087
X21.75 Y-43.812
X22.134 Y-43.447
X22.503 Y-43.034
X22.902 Y-42.51
X23.307 Y-41.876
X23.699 Y-41.14
X24.051 Y-40.327
X24.343 Y-39.49
X24.581 Y-38.636
X24.79 Y-37.775
X25.199 Y-36.989
X25.741 Y-36.288
X26.358 Y-35.652
X27.011 Y-35.053
X27.676 Y-34.468
X28.33 Y-33.87
X28.956 Y-33.242
X29.487 Y-32.632
X29.923 Y-32.04
X30.268 Y-31.484
X30.548 Y-30.94
X30.775 Y-30.395
X30.948 Y-29.864
X31.074 Y-29.335
X31.154 Y-28.815
X31.192 Y-28.31
X31.188 Y-27.807
X31.146 Y-27.322
X31.066 Y-26.849
X30.947 Y-26.38
X30.796 Y-25.938
X30.612 Y-25.514
X30.574 Y-25.442
X30.406 Y-25.194
X30.189 Y-24.988
X29.933 Y-24.832
X29.65 Y-24.735
X29.353 Y-24.699
X27.029 Y-24.675
G3 X26.487 Y-25.051 I0.015 J-0.6
G1 X26.455 Y-25.131
X18.837 Y-44.068
G3 X19.414 Y-44.892 I0.557 J-0.224
G1 X21.828 Y-44.728
X21.992 Y-44.709
X22.14 Y-44.69
X22.288 Y-44.663
X22.434 Y-44.628
X22.578 Y-44.587
X22.72 Y-44.538
X22.86 Y-44.484
X22.997 Y-44.423
X23.132 Y-44.358
X23.265 Y-44.288
X23.395 Y-44.214
X23.522 Y-44.134
X23.647 Y-44.051
X23.769 Y-43.965
X23.889 Y-43.875
X24.007 Y-43.781
X24.121 Y-43.684
X24.233 Y-43.585
X24.343 Y-43.482
X24.45 Y-43.377
X24.555 Y-43.27
X24.658 Y-43.16
X24.757 Y-43.048
X24.855 Y-42.934
X24.95 Y-42.818
X25.043 Y-42.7
X25.133 Y-42.581
X25.222 Y-42.46
X25.308 Y-42.337
X25.392 Y-42.213
X25.474 Y-42.087
X25.553 Y-41.96
X25.631 Y-41.832
X25.707 Y-41.702
X25.781 Y-41.572
X25.853 Y-41.44
X25.923 Y-41.307
X26.327 Y-40.519
X26.767 Y-39.75
X27.268 Y-39.019
X27.82 Y-38.325
X28.404 Y-37.659
X29.006 Y-37.009
X29.423 Y-36.563
X29.639 Y-36.328
X29.782 Y-36.17
X29.935 Y-36
X30.099 Y-35.813
X30.224 Y-35.67
X30.321 Y-35.556
X30.418 Y-35.441
X30.517 Y-35.321
X30.621 Y-35.194
X30.722 Y-35.069
X30.815 Y-34.951
X30.907 Y-34.833
X30.998 Y-34.714
X31.088 Y-34.594
X31.177 Y-34.473
X31.264 Y-34.351
X31.351 Y-34.229
X31.436 Y-34.105
X31.52 Y-33.981
X31.603 Y-33.856
X31.684 Y-33.73
X31.764 Y-33.603
X31.842 Y-33.475
X31.919 Y-33.346
X31.994 Y-33.216
X32.068 Y-33.086
X32.141 Y-32.954
X32.211 Y-32.822
X32.28 Y-32.688
X32.347 Y-32.554
X32.412 Y-32.419
X32.476 Y-32.283
X32.537 Y-32.147
X32.597 Y-32.009
X32.655 Y-31.871
X32.711 Y-31.731
X32.765 Y-31.592
X32.817 Y-31.451
X32.867 Y-31.309
X32.914 Y-31.167
X32.96 Y-31.024
X33.004 Y-30.881
X33.045 Y-30.736
X33.084 Y-30.592
X33.121 Y-30.446
X33.156 Y-30.3
X33.188 Y-30.154
X33.218 Y-30.007
X33.245 Y-29.859
X33.271 Y-29.712
X33.294 Y-29.563
X33.314 Y-29.415
X33.332 Y-29.266
X33.347 Y-29.117
X33.361 Y-28.967
X33.371 Y-28.818
X33.379 Y-28.668
X33.384 Y-28.518
X33.388 Y-28.368
Y-28.218
X33.386 Y-28.068
X33.381 Y-27.918
X33.374 Y-27.768
X33.364 Y-27.618
X33.351 Y-27.469
X33.336 Y-27.32
X33.318 Y-27.171
X33.298 Y-27.022
X33.275 Y-26.874
X33.248 Y-26.726
X33.219 Y-26.579
X33.186 Y-26.433
X33.15 Y-26.287
X33.111 Y-26.142
X33.068 Y-25.999
X33.022 Y-25.856
X32.971 Y-25.715
X32.932 Y-25.615
X32.806 Y-25.368
X32.634 Y-25.151
X32.423 Y-24.972
X32.181 Y-24.838
X31.918 Y-24.754
X31.643 Y-24.724
X29.353 Y-24.699
G3 X28.811 Y-25.076 I0.015 J-0.6
G1 X28.779 Y-25.156
X21.252 Y-43.905
G3 X21.828 Y-44.728 I0.557 J-0.224
G1 X24.243 Y-44.564
X24.415 Y-44.543
X24.639 Y-44.497
X24.886 Y-44.425
X25.153 Y-44.323
X25.443 Y-44.185
X25.754 Y-44.005
X26.09 Y-43.773
X26.493 Y-43.443
X27.13 Y-42.831
X27.717 Y-42.168
X28.289 Y-41.491
X28.865 Y-40.817
X29.448 Y-40.15
X30.627 Y-38.827
X31.209 Y-38.16
X31.78 Y-37.481
X32.055 Y-37.134
X32.19 Y-36.958
X32.724 Y-36.251
X32.85 Y-36.069
X32.974 Y-35.886
X33.126 Y-35.724
X33.301 Y-35.588
X33.495 Y-35.482
X33.703 Y-35.407
X34.575 Y-35.245
X35.459 Y-35.292
X36.345 Y-35.325
X37.231 Y-35.347
X38.117 Y-35.363
X39.003 Y-35.374
X39.889 Y-35.382
X40.775 Y-35.387
X41.661 Y-35.391
X43.433 Y-35.396
X46.092 Y-35.399
X52.087 Y-35.4
X52.222 Y-35.336
X52.347 Y-35.252
X52.468 Y-35.153
X52.605 Y-35.021
X52.758 Y-34.847
X52.925 Y-34.624
X53.106 Y-34.338
X53.299 Y-33.969
X53.503 Y-33.489
X53.716 Y-32.848
X53.927 Y-31.987
X54.072 Y-31.113
X54.089 Y-30.966
X54.037 Y-30.825
X53.959 Y-30.697
X53.868 Y-30.578
X53.748 Y-30.446
X53.591 Y-30.299
X53.387 Y-30.137
X53.125 Y-29.961
X52.788 Y-29.772
X52.353 Y-29.572
X51.778 Y-29.362
X50.987 Y-29.143
X50.116 Y-28.976
X49.238 Y-28.861
X48.355 Y-28.782
X47.471 Y-28.727
X46.585 Y-28.688
X45.7 Y-28.662
X44.814 Y-28.643
X43.928 Y-28.63
X43.042 Y-28.621
X42.156 Y-28.615
X41.27 Y-28.61
X39.497 Y-28.605
X39.054 Y-28.604
X38.624 Y-28.497
X37.834 Y-28.097
X37.184 Y-27.494
X36.635 Y-26.799
X36.14 Y-26.064
X35.643 Y-25.33
X35.617 Y-25.296
X35.398 Y-25.072
X35.134 Y-24.902
X34.839 Y-24.795
X34.528 Y-24.756
X31.643 Y-24.724
G3 X31.1 Y-25.102 I0.015 J-0.6
G1 X31.068 Y-25.181
X23.666 Y-43.742
G3 X24.243 Y-44.564 I0.557 J-0.222
G1 X24.847 Y-44.519
X26.457 Y-44.394
X26.812 Y-44.348
X27.083 Y-44.291
X27.394 Y-44.198
X27.766 Y-44.055
X28.217 Y-43.837
X28.794 Y-43.499
X29.52 Y-42.992
X30.206 Y-42.431
X30.864 Y-41.838
X31.5 Y-41.221
X32.117 Y-40.585
X32.715 Y-39.931
X33.343 Y-39.306
X34.105 Y-38.853
X34.931 Y-38.531
X35.788 Y-38.305
X36.66 Y-38.147
X37.539 Y-38.038
X38.422 Y-37.963
X39.306 Y-37.911
X40.192 Y-37.876
X41.078 Y-37.851
X41.964 Y-37.835
X42.85 Y-37.824
X43.736 Y-37.816
X44.622 Y-37.811
X45.508 Y-37.807
X47.28 Y-37.803
X49.939 Y-37.801
X50.562 Y-37.777
X51.043 Y-37.72
X51.464 Y-37.635
X51.852 Y-37.524
X52.222 Y-37.384
X52.583 Y-37.215
X52.935 Y-37.013
X53.278 Y-36.778
X53.617 Y-36.503
X53.962 Y-36.174
X54.303 Y-35.793
X54.629 Y-35.362
X54.974 Y-34.822
X55.288 Y-34.23
X55.576 Y-33.564
X55.734 Y-33.099
X55.826 Y-32.732
X55.884 Y-32.39
X55.91 Y-32.082
X55.912 Y-31.784
X55.89 Y-31.493
X55.845 Y-31.203
X55.776 Y-30.912
X55.679 Y-30.617
X55.556 Y-30.321
X55.404 Y-30.027
X55.216 Y-29.725
X54.984 Y-29.412
X54.722 Y-29.111
X54.397 Y-28.794
X54.02 Y-28.481
X53.572 Y-28.166
X53.031 Y-27.847
X52.414 Y-27.548
X51.64 Y-27.246
X50.792 Y-26.992
X49.927 Y-26.796
X49.054 Y-26.647
X48.175 Y-26.533
X47.293 Y-26.448
X46.409 Y-26.384
X45.524 Y-26.336
X44.639 Y-26.3
X43.753 Y-26.274
X42.867 Y-26.254
X41.981 Y-26.239
X41.107 Y-26.097
X40.291 Y-25.752
X39.544 Y-25.274
X39.302 Y-25.089
X39.046 Y-24.933
X38.763 Y-24.835
X38.466 Y-24.8
X34.528 Y-24.756
G3 X33.993 Y-25.114 I0.014 J-0.6
G1 X33.95 Y-25.211
X25.882 Y-43.553
G3 X26.457 Y-44.394 I0.549 J-0.242
G1 X29.475 Y-44.158
X29.847 Y-44.11
X30.185 Y-44.039
X30.584 Y-43.92
X31.037 Y-43.745
X31.574 Y-43.487
X32.22 Y-43.108
X32.946 Y-42.601
X33.679 Y-42.103
X34.456 Y-41.677
X35.272 Y-41.33
X36.114 Y-41.055
X36.974 Y-40.841
X37.845 Y-40.677
X38.722 Y-40.553
X39.603 Y-40.46
X40.487 Y-40.39
X41.371 Y-40.339
X42.257 Y-40.301
X43.142 Y-40.273
X44.028 Y-40.253
X44.914 Y-40.238
X45.8 Y-40.227
X46.687 Y-40.22
X47.573 Y-40.214
X48.459 Y-40.204
X49.344 Y-40.172
X50.227 Y-40.093
X51.038 Y-39.961
X51.744 Y-39.787
X52.401 Y-39.567
X53.019 Y-39.304
X53.607 Y-38.996
X54.171 Y-38.64
X54.711 Y-38.235
X55.239 Y-37.768
X55.748 Y-37.239
X56.235 Y-36.644
X56.66 Y-36.031
X57.011 Y-35.426
X57.293 Y-34.834
X57.507 Y-34.274
X57.664 Y-33.738
X57.772 Y-33.213
X57.837 Y-32.696
X57.859 Y-32.187
X57.84 Y-31.684
X57.782 Y-31.188
X57.683 Y-30.697
X57.544 Y-30.208
X57.363 Y-29.724
X57.136 Y-29.24
X56.861 Y-28.759
X56.533 Y-28.279
X56.157 Y-27.814
X55.726 Y-27.36
X55.221 Y-26.908
X54.625 Y-26.455
X53.957 Y-26.027
X53.201 Y-25.624
X52.388 Y-25.272
X51.552 Y-24.979
X51.538 Y-24.975
X51.416 Y-24.946
X51.292 Y-24.928
X51.167 Y-24.922
X47.787 Y-24.894
X43.561 Y-24.854
X39.335 Y-24.809
X38.466 Y-24.8
G3 X37.943 Y-25.132 I0.014 J-0.6
G1 X37.883 Y-25.252
X28.912 Y-43.292
G3 X29.475 Y-44.158 I0.537 J-0.267
G1 X30.884 Y-44.048
X31.085 Y-44.032
X31.89 Y-43.961
X33.298 Y-43.836
X34.176 Y-43.713
X35.053 Y-43.585
X35.927 Y-43.439
X36.801 Y-43.295
X37.678 Y-43.165
X38.556 Y-43.052
X39.437 Y-42.957
X40.32 Y-42.879
X41.204 Y-42.817
X42.089 Y-42.767
X42.974 Y-42.728
X43.86 Y-42.697
X44.745 Y-42.674
X44.941 Y-42.67
X44.986 Y-42.668
X45.031 Y-42.665
X45.076 Y-42.66
X48.994 Y-42.199
X49.195 Y-42.174
X49.799 Y-42.096
X51.207 Y-41.907
X52.079 Y-41.745
X52.755 Y-41.575
X53.445 Y-41.342
X54.141 Y-41.043
X54.836 Y-40.675
X55.525 Y-40.236
X56.201 Y-39.725
X56.847 Y-39.149
X57.446 Y-38.522
X57.986 Y-37.858
X58.459 Y-37.17
X58.861 Y-36.47
X59.194 Y-35.764
X59.462 Y-35.056
X59.666 Y-34.348
X59.809 Y-33.644
X59.893 Y-32.946
X59.92 Y-32.252
X59.892 Y-31.563
X59.809 Y-30.879
X59.67 Y-30.199
X59.476 Y-29.527
X59.224 Y-28.864
X58.915 Y-28.21
X58.545 Y-27.568
X58.11 Y-26.936
X57.601 Y-26.312
X57.016 Y-25.701
X56.577 Y-25.311
X56.376 Y-25.162
X56.15 Y-25.051
X55.909 Y-24.982
X55.658 Y-24.957
X51.167 Y-24.922
G3 X50.583 Y-25.52 I0.016 J-0.6
G1 X50.548 Y-41.308
G3 X51.207 Y-41.907 I0.6 J-0.001
G1 X55.031 Y-41.392
X55.232 Y-41.364
X55.836 Y-41.274
X56.283 Y-41.184
X56.637 Y-41.083
X57.002 Y-40.945
X57.414 Y-40.752
X57.841 Y-40.507
X58.315 Y-40.183
X58.772 Y-39.813
X59.257 Y-39.351
X59.744 Y-38.807
X60.204 Y-38.201
X60.624 Y-37.544
X61.006 Y-36.826
X61.337 Y-36.061
X61.609 Y-35.261
X61.817 Y-34.437
X61.959 Y-33.596
X62.033 Y-32.744
X62.039 Y-31.886
X61.975 Y-31.027
X61.842 Y-30.171
X61.639 Y-29.32
X61.365 Y-28.479
X61.024 Y-27.661
X60.619 Y-26.872
X60.156 Y-26.117
X59.752 Y-25.557
X59.578 Y-25.359
X59.371 Y-25.197
X59.138 Y-25.076
X58.885 Y-25.002
X58.624 Y-24.976
X56.238 Y-24.962
X55.658 Y-24.957
G3 X55.075 Y-25.561 I0.016 J-0.6
G1 X55.168 Y-40.681
G3 X55.836 Y-41.274 I0.6 J0.004
G1 X58.854 Y-40.823
X59.222 Y-40.749
X59.49 Y-40.672
X59.795 Y-40.557
X60.102 Y-40.413
X60.457 Y-40.21
X60.804 Y-39.972
X61.197 Y-39.654
X61.575 Y-39.294
X61.976 Y-38.846
X62.383 Y-38.31
X62.755 Y-37.728
X63.116 Y-37.048
X63.447 Y-36.283
X63.731 Y-35.448
X63.948 Y-34.589
X64.098 Y-33.715
X64.181 Y-32.833
X64.198 Y-31.947
X64.151 Y-31.062
X64.043 Y-30.183
X63.875 Y-29.313
X63.649 Y-28.456
X63.366 Y-27.616
X63.025 Y-26.798
X62.631 Y-26.005
X62.431 Y-25.671
X62.259 Y-25.441
X62.044 Y-25.252
X61.795 Y-25.11
X61.522 Y-25.021
X61.237 Y-24.99
X58.624 Y-24.976
G3 X58.041 Y-25.581 I0.018 J-0.6
G1 X58.186 Y-40.232
G3 X58.854 Y-40.823 I0.6 J0.006
G1 X61.067 Y-40.491
X61.47 Y-40.428
X61.802 Y-40.358
X62.039 Y-40.288
X62.305 Y-40.185
X62.592 Y-40.047
X62.891 Y-39.872
X63.223 Y-39.641
X63.551 Y-39.37
X63.911 Y-39.021
X64.265 Y-38.618
X64.627 Y-38.132
X64.994 Y-37.546
X65.323 Y-36.913
X65.634 Y-36.176
X65.908 Y-35.345
X66.118 Y-34.484
X66.262 Y-33.61
X66.345 Y-32.727
X66.367 Y-31.841
X66.331 Y-30.956
X66.239 Y-30.075
X66.094 Y-29.201
X65.897 Y-28.337
X65.65 Y-27.486
X65.354 Y-26.65
X65.083 Y-26.035
X64.922 Y-25.738
X64.753 Y-25.492
X64.535 Y-25.287
X64.279 Y-25.133
X63.995 Y-25.038
X63.698 Y-25.004
X61.237 Y-24.99
G3 X60.655 Y-25.596 I0.018 J-0.6
G1 X60.796 Y-39.839
G3 X61.47 Y-40.428 I0.6 J0.006
G1 X63.885 Y-40.044
X64.184 Y-39.981
X64.406 Y-39.915
X64.666 Y-39.815
X64.924 Y-39.69
X65.217 Y-39.518
X65.514 Y-39.311
X65.836 Y-39.045
X66.161 Y-38.729
X66.506 Y-38.336
X66.839 Y-37.888
X67.187 Y-37.331
X67.506 Y-36.717
X67.806 Y-36.002
X68.078 Y-35.177
X68.286 Y-34.316
X68.43 Y-33.442
X68.515 Y-32.56
X68.543 Y-31.674
X68.517 Y-30.788
X68.438 Y-29.906
X68.31 Y-29.029
X68.135 Y-28.16
X67.912 Y-27.302
X67.663 Y-26.541
X67.446 Y-26.025
X67.315 Y-25.771
X67.146 Y-25.517
X66.927 Y-25.306
X66.667 Y-25.147
X66.379 Y-25.048
X66.076 Y-25.014
X64.689 Y-25.009
X63.698 Y-25.004
G3 X63.116 Y-25.608 I0.018 J-0.6
G1 X63.211 Y-39.453
G3 X63.885 Y-40.044 I0.6 J0.004
G1 X64.488 Y-39.947
X66.299 Y-39.651
X66.483 Y-39.611
X66.706 Y-39.544
X66.951 Y-39.448
X67.205 Y-39.325
X67.492 Y-39.155
X67.773 Y-38.957
X68.092 Y-38.691
X68.397 Y-38.392
X68.738 Y-38
X69.054 Y-37.571
X69.387 Y-37.034
X69.708 Y-36.411
X69.998 Y-35.713
X70.264 Y-34.892
X70.47 Y-34.03
X70.611 Y-33.155
X70.694 Y-32.273
X70.723 Y-31.388
X70.701 Y-30.502
X70.631 Y-29.618
X70.513 Y-28.74
X70.349 Y-27.869
X70.133 Y-27.01
X69.92 Y-26.377
X69.716 Y-25.902
X69.644 Y-25.767
X69.475 Y-25.517
X69.256 Y-25.308
X68.997 Y-25.152
X68.711 Y-25.055
X68.411 Y-25.021
X66.076 Y-25.014
G3 X65.495 Y-25.62 I0.019 J-0.6
G1 X65.623 Y-39.061
G3 X66.299 Y-39.651 I0.6 J0.006
G1 X67.507 Y-39.452
X68.513 Y-39.284
X68.743 Y-39.234
X68.966 Y-39.166
X69.2 Y-39.073
X69.452 Y-38.949
X69.731 Y-38.783
X70.009 Y-38.585
X70.321 Y-38.324
X70.621 Y-38.028
X70.954 Y-37.643
X71.265 Y-37.217
X71.589 Y-36.69
X71.907 Y-36.066
X72.193 Y-35.372
X72.456 Y-34.552
X72.658 Y-33.689
X72.797 Y-32.814
X72.879 Y-31.932
X72.908 Y-31.046
X72.889 Y-30.16
X72.823 Y-29.277
X72.711 Y-28.398
X72.547 Y-27.527
X72.357 Y-26.801
X72.168 Y-26.261
X71.969 Y-25.809
X71.943 Y-25.761
X71.773 Y-25.515
X71.554 Y-25.31
X71.297 Y-25.156
X71.014 Y-25.061
X70.716 Y-25.028
X68.411 Y-25.021
G3 X67.83 Y-25.621 I0.019 J-0.6
G1 X67.834 Y-38.69
G3 X68.513 Y-39.284 I0.6 J0
G1 X70.726 Y-38.913
X70.968 Y-38.86
X71.19 Y-38.792
X71.419 Y-38.701
X71.67 Y-38.577
X71.944 Y-38.413
X72.221 Y-38.216
X72.528 Y-37.957
X72.825 Y-37.663
X73.154 Y-37.282
X73.463 Y-36.858
X73.783 Y-36.335
X74.098 Y-35.714
X74.383 Y-35.021
X74.646 Y-34.197
X74.846 Y-33.334
X74.985 Y-32.459
X75.067 Y-31.577
X75.098 Y-30.691
X75.08 Y-29.805
X75.016 Y-28.921
X74.9 Y-28.043
X74.726 Y-27.176
X74.55 Y-26.56
X74.376 Y-26.097
X74.256 Y-25.84
X74.09 Y-25.571
X73.869 Y-25.347
X73.603 Y-25.177
X73.306 Y-25.071
X72.993 Y-25.035
X70.716 Y-25.028
G3 X70.135 Y-25.624 I0.019 J-0.6
G1 X70.047 Y-38.314
G3 X70.726 Y-38.913 I0.6 J-0.004
G1 X72.94 Y-38.537
X73.178 Y-38.484
X73.399 Y-38.416
X73.625 Y-38.326
X73.876 Y-38.202
X74.147 Y-38.04
X74.423 Y-37.842
X74.727 Y-37.586
X75.024 Y-37.292
X75.35 Y-36.913
X75.657 Y-36.49
X75.976 Y-35.969
X76.291 Y-35.347
X76.575 Y-34.652
X76.838 Y-33.825
X77.038 Y-32.961
X77.176 Y-32.086
X77.258 Y-31.204
X77.288 Y-30.318
X77.269 Y-29.432
X77.2 Y-28.549
X77.074 Y-27.672
X76.912 Y-26.943
X76.746 Y-26.405
X76.564 Y-25.949
X76.498 Y-25.816
X76.331 Y-25.555
X76.11 Y-25.337
X75.847 Y-25.174
X75.553 Y-25.072
X75.245 Y-25.037
X72.993 Y-25.035
G3 X72.412 Y-25.627 I0.019 J-0.6
G1 X72.26 Y-37.935
G3 X72.94 Y-38.537 I0.6 J-0.007
G1 X74.958 Y-38.193
X75.153 Y-38.16
X75.38 Y-38.109
X75.601 Y-38.04
X75.826 Y-37.95
X76.077 Y-37.826
X76.346 Y-37.664
X76.623 Y-37.466
X76.926 Y-37.209
X77.222 Y-36.915
X77.547 Y-36.535
X77.855 Y-36.111
X78.173 Y-35.589
X78.487 Y-34.966
X78.771 Y-34.268
X79.033 Y-33.44
X79.232 Y-32.576
X79.368 Y-31.7
X79.448 Y-30.818
X79.475 Y-29.932
X79.45 Y-29.046
X79.37 Y-28.164
X79.23 Y-27.322
X79.075 Y-26.7
X78.918 Y-26.233
X78.735 Y-25.806
X78.725 Y-25.786
X78.555 Y-25.534
X78.335 Y-25.325
X78.075 Y-25.169
X77.787 Y-25.072
X77.486 Y-25.039
X75.245 Y-25.037
G3 X74.666 Y-25.627 I0.02 J-0.6
G1 X74.472 Y-37.555
G3 X75.153 Y-38.16 I0.6 J-0.01
G1 X77.298 Y-37.791
X77.577 Y-37.729
X77.798 Y-37.661
X78.022 Y-37.571
X78.272 Y-37.447
X78.542 Y-37.285
X78.817 Y-37.087
X79.12 Y-36.831
X79.415 Y-36.538
X79.741 Y-36.158
X80.047 Y-35.736
X80.365 Y-35.214
X80.677 Y-34.593
X80.96 Y-33.899
X81.22 Y-33.076
X81.419 Y-32.213
X81.554 Y-31.337
X81.632 Y-30.454
X81.654 Y-29.568
X81.621 Y-28.683
X81.526 Y-27.802
X81.387 Y-27.068
X81.234 Y-26.508
X81.077 Y-26.074
X80.977 Y-25.857
X80.812 Y-25.583
X80.59 Y-25.354
X80.321 Y-25.182
X80.02 Y-25.074
X79.703 Y-25.038
X77.486 Y-25.039
G3 X76.907 Y-25.624 I0.021 J-0.6
G1 X76.618 Y-37.182
G3 X77.298 Y-37.791 I0.6 J-0.015
G1 X79.58 Y-37.399
X79.769 Y-37.356
X79.915 Y-37.322
X80.059 Y-37.28
X80.2 Y-37.231
X80.339 Y-37.174
X80.475 Y-37.11
X80.608 Y-37.041
X80.738 Y-36.966
X80.865 Y-36.886
X80.989 Y-36.802
X81.11 Y-36.713
X81.227 Y-36.62
X81.342 Y-36.523
X81.454 Y-36.423
X81.562 Y-36.319
X81.668 Y-36.212
X81.77 Y-36.103
X81.87 Y-35.991
X81.967 Y-35.876
X82.061 Y-35.759
X82.152 Y-35.64
X82.24 Y-35.519
X82.325 Y-35.395
X82.408 Y-35.27
X82.488 Y-35.144
X82.566 Y-35.015
X82.641 Y-34.886
X82.714 Y-34.754
X82.784 Y-34.622
X82.851 Y-34.488
X82.917 Y-34.353
X82.98 Y-34.217
X83.041 Y-34.079
X83.099 Y-33.941
X83.155 Y-33.802
X83.209 Y-33.662
X83.261 Y-33.521
X83.31 Y-33.38
X83.358 Y-33.238
X83.404 Y-33.095
X83.447 Y-32.951
X83.489 Y-32.807
X83.528 Y-32.662
X83.566 Y-32.517
X83.602 Y-32.372
X83.636 Y-32.226
X83.668 Y-32.079
X83.699 Y-31.932
X83.727 Y-31.785
X83.754 Y-31.637
X83.779 Y-31.489
X83.802 Y-31.341
X83.824 Y-31.193
X83.843 Y-31.044
X83.861 Y-30.895
X83.877 Y-30.746
X83.892 Y-30.597
X83.905 Y-30.447
X83.916 Y-30.298
X83.926 Y-30.148
X83.934 Y-29.998
X83.94 Y-29.848
X83.944 Y-29.698
X83.946 Y-29.548
X83.947 Y-29.398
X83.946 Y-29.248
X83.944 Y-29.098
X83.939 Y-28.948
X83.933 Y-28.799
X83.924 Y-28.649
X83.914 Y-28.499
X83.902 Y-28.35
X83.888 Y-28.2
X83.872 Y-28.051
X83.854 Y-27.902
X83.834 Y-27.754
X83.812 Y-27.605
X83.787 Y-27.457
X83.761 Y-27.31
X83.731 Y-27.163
X83.699 Y-27.016
X83.664 Y-26.87
X83.626 Y-26.725
X83.586 Y-26.581
X83.542 Y-26.437
X83.495 Y-26.295
X83.443 Y-26.154
X83.389 Y-26.014
X83.323 Y-25.859
X83.159 Y-25.584
X82.936 Y-25.353
X82.666 Y-25.179
X82.364 Y-25.071
X82.045 Y-25.035
X80.385 Y-25.038
X79.703
G3 X79.124 Y-25.626 I0.021 J-0.6
G1 X78.899 Y-36.792
G3 X79.58 Y-37.399 I0.6 J-0.012
G1 X81.794 Y-37.017
X82.097 Y-36.949
X82.31 Y-36.883
X82.539 Y-36.792
X82.785 Y-36.669
X83.049 Y-36.51
X83.328 Y-36.311
X83.619 Y-36.064
X83.922 Y-35.762
X84.233 Y-35.399
X84.548 Y-34.965
X84.86 Y-34.451
X85.06 Y-34.056
X85.356 Y-33.726
X86.083 Y-33.22
X86.907 Y-32.894
X87.764 Y-32.666
X88.628 Y-32.471
X89.055 Y-32.353
X89.615 Y-32.187
X90.236 Y-31.946
X90.628 Y-31.758
X91.1 Y-31.481
X91.385 Y-31.282
X91.701 Y-31.021
X92 Y-30.731
X92.21 Y-30.491
X92.442 Y-30.179
X92.626 Y-29.885
X92.765 Y-29.616
X92.909 Y-29.276
X93.008 Y-28.975
X93.075 Y-28.695
X93.13 Y-28.349
X93.154 Y-28.041
X93.153 Y-27.767
X93.125 Y-27.435
X93.074 Y-27.126
X93.011 Y-26.872
X92.91 Y-26.573
X92.781 Y-26.273
X92.665 Y-26.053
X92.504 Y-25.799
X92.298 Y-25.526
X92.249 Y-25.471
X92.029 Y-25.271
X91.772 Y-25.122
X91.49 Y-25.03
X91.194 Y-25.001
X87.629 Y-25.019
X84.208 Y-25.031
X82.045 Y-25.035
G3 X81.467 Y-25.615 I0.022 J-0.6
G1 X81.113 Y-36.403
G3 X81.794 Y-37.017 I0.6 J-0.02
G1 X84.007 Y-36.637
X84.274 Y-36.577
X84.494 Y-36.509
X85.316 Y-36.18
X86.138 Y-35.848
X86.974 Y-35.554
X87.817 Y-35.28
X88.66 Y-35.007
X89.496 Y-34.715
X90.318 Y-34.383
X91.069 Y-34.022
X91.731 Y-33.635
X92.291 Y-33.245
X92.781 Y-32.841
X93.209 Y-32.426
X93.594 Y-31.988
X93.929 Y-31.539
X94.213 Y-31.086
X94.456 Y-30.619
X94.653 Y-30.153
X94.81 Y-29.679
X94.926 Y-29.2
X95.002 Y-28.727
X95.039 Y-28.252
X95.038 Y-27.775
X95 Y-27.313
X94.925 Y-26.859
X94.814 Y-26.408
X94.684 Y-26.02
X94.605 Y-25.836
X94.473 Y-25.596
X94.298 Y-25.386
X94.085 Y-25.215
X93.842 Y-25.088
X93.58 Y-25.011
X93.308 Y-24.986
X91.194 Y-25.001
G3 X90.727 Y-25.257 I0.024 J-0.6
G1 X90.593 Y-25.448
X83.434 Y-35.699
G3 X84.007 Y-36.637 I0.492 J-0.344
G1 X86.422 Y-36.223
X89.641 Y-35.674
X91.377 Y-35.381
X91.901 Y-35.265
X92.31 Y-35.14
X92.734 Y-34.972
X93.187 Y-34.748
X93.645 Y-34.474
X94.091 Y-34.157
X94.53 Y-33.788
X94.954 Y-33.368
X95.353 Y-32.905
X95.719 Y-32.404
X96.048 Y-31.868
X96.333 Y-31.306
X96.573 Y-30.722
X96.766 Y-30.118
X96.909 Y-29.504
X97.002 Y-28.881
X97.045 Y-28.254
X97.037 Y-27.638
X96.987 Y-27.097
X96.907 Y-26.64
X96.8 Y-26.224
X96.679 Y-25.875
X96.649 Y-25.806
X96.484 Y-25.526
X96.259 Y-25.29
X95.985 Y-25.113
X95.678 Y-25.005
X95.355 Y-24.969
X93.465 Y-24.985
X93.308 Y-24.986
G3 X92.747 Y-25.456 I0.025 J-0.599
G1 X90.712 Y-34.657
G3 X91.377 Y-35.381 I0.586 J-0.13
G1 X93.762 Y-34.979
X94.672 Y-34.828
X94.921 Y-34.773
X95.187 Y-34.693
X95.46 Y-34.585
X95.762 Y-34.437
X96.069 Y-34.255
X96.404 Y-34.017
X96.728 Y-33.747
X97.071 Y-33.409
X97.409 Y-33.019
X97.726 Y-32.586
X98.035 Y-32.087
X98.32 Y-31.528
X98.572 Y-30.92
X98.778 Y-30.28
X98.936 Y-29.609
X99.04 Y-28.927
X99.087 Y-28.261
X99.081 Y-27.625
X99.034 Y-27.101
X98.951 Y-26.619
X98.851 Y-26.23
X98.722 Y-25.853
X98.695 Y-25.791
X98.53 Y-25.509
X98.305 Y-25.273
X98.03 Y-25.095
X97.722 Y-24.986
X97.397 Y-24.951
X95.355 Y-24.969
G3 X94.783 Y-25.515 I0.026 J-0.599
G1 X93.997 Y-34.179
G3 X94.672 Y-34.828 I0.598 J-0.054
G1 X97.087 Y-34.427
X97.335 Y-34.373
X97.556 Y-34.306
X97.801 Y-34.209
X98.052 Y-34.086
X98.332 Y-33.92
X98.609 Y-33.724
X98.911 Y-33.471
X99.208 Y-33.179
X99.511 Y-32.828
X99.818 Y-32.41
X100.098 Y-31.957
X100.369 Y-31.427
X100.614 Y-30.834
X100.819 Y-30.198
X100.974 Y-29.539
X101.076 Y-28.871
X101.122 Y-28.217
X101.116 Y-27.585
X101.07 Y-27.067
X100.988 Y-26.591
X100.889 Y-26.204
X100.76 Y-25.83
X100.734 Y-25.77
X100.569 Y-25.488
X100.343 Y-25.251
X100.069 Y-25.074
X99.761 Y-24.965
X99.435 Y-24.93
X97.397 Y-24.951
G3 X96.825 Y-25.52 I0.027 J-0.599
G1 X96.41 Y-33.802
G3 X97.087 Y-34.427 I0.599 J-0.03
G1 X98.093 Y-34.261
X99.3 Y-34.067
X99.526 Y-34.019
X99.742 Y-33.954
X99.96 Y-33.87
X100.208 Y-33.75
X100.458 Y-33.603
X100.732 Y-33.411
X101.005 Y-33.185
X101.299 Y-32.899
X101.579 Y-32.579
X101.872 Y-32.184
X102.144 Y-31.748
X102.4 Y-31.254
X102.635 Y-30.693
X102.836 Y-30.081
X102.989 Y-29.448
X103.09 Y-28.803
X103.138 Y-28.169
X103.136 Y-27.552
X103.092 Y-27.044
X103.014 Y-26.574
X102.918 Y-26.191
X102.792 Y-25.818
X102.765 Y-25.754
X102.632 Y-25.514
X102.456 Y-25.305
X102.242 Y-25.133
X101.999 Y-25.007
X101.735 Y-24.931
X101.463 Y-24.907
X99.435 Y-24.93
G3 X98.863 Y-25.512 I0.028 J-0.599
G1 X98.626 Y-33.454
G3 X99.3 Y-34.067 I0.6 J-0.018
G1 X101.514 Y-33.711
X101.66 Y-33.68
X101.866 Y-33.618
X102.083 Y-33.533
X102.324 Y-33.415
X102.566 Y-33.271
X102.834 Y-33.082
X103.097 Y-32.862
X103.379 Y-32.586
X103.654 Y-32.268
X103.927 Y-31.898
X104.199 Y-31.458
X104.441 Y-30.986
X104.661 Y-30.456
X104.851 Y-29.87
X104.995 Y-29.26
X105.091 Y-28.638
X105.135 Y-28.026
X105.13 Y-27.432
X105.085 Y-26.931
X105.013 Y-26.509
X104.911 Y-26.11
X104.796 Y-25.772
X104.776 Y-25.726
X104.611 Y-25.443
X104.385 Y-25.206
X104.11 Y-25.028
X103.801 Y-24.919
X103.476 Y-24.884
X101.463 Y-24.907
G3 X100.89 Y-25.502 I0.028 J-0.599
G1 X100.839 Y-33.112
G3 X101.514 Y-33.711 I0.6 J-0.004
G1 X103.526 Y-33.388
X103.736 Y-33.343
X103.935 Y-33.284
X104.149 Y-33.201
X104.381 Y-33.089
X104.619 Y-32.949
X104.876 Y-32.769
X105.134 Y-32.555
X105.403 Y-32.293
X105.674 Y-31.983
X105.935 Y-31.632
X106.197 Y-31.212
X106.434 Y-30.754
X106.645 Y-30.25
X106.829 Y-29.692
X106.97 Y-29.106
X107.063 Y-28.513
X107.108 Y-27.921
X107.106 Y-27.355
X107.066 Y-26.882
X106.995 Y-26.457
X106.901 Y-26.084
X106.783 Y-25.734
X106.772 Y-25.709
X106.64 Y-25.469
X106.463 Y-25.259
X106.249 Y-25.088
X106.006 Y-24.962
X105.743 Y-24.885
X105.47 Y-24.862
X103.476 Y-24.884
G3 X102.904 Y-25.479 I0.028 J-0.599
G1 X102.851 Y-32.788
G3 X103.526 Y-33.388 I0.6 J-0.004
G1 X105.538 Y-33.064
X105.787 Y-33.011
X105.976 Y-32.955
X106.192 Y-32.871
X106.412 Y-32.765
X106.653 Y-32.623
X106.897 Y-32.453
X107.157 Y-32.237
X107.412 Y-31.989
X107.682 Y-31.681
X107.932 Y-31.343
X108.18 Y-30.945
X108.416 Y-30.489
X108.62 Y-30.005
X108.794 Y-29.475
X108.928 Y-28.918
X109.017 Y-28.349
X109.061 Y-27.782
X109.058 Y-27.254
X109.019 Y-26.79
X108.954 Y-26.399
X108.859 Y-26.021
X108.749 Y-25.695
X108.745 Y-25.687
X108.613 Y-25.447
X108.436 Y-25.237
X108.222 Y-25.066
X107.979 Y-24.94
X107.716 Y-24.863
X107.443 Y-24.84
X105.47 Y-24.862
G3 X104.898 Y-25.458 I0.028 J-0.599
G1 X104.864 Y-32.466
G3 X105.538 Y-33.064 I0.6 J-0.003
G1 X106.544 Y-32.903
X106.746 Y-32.872
X107.55 Y-32.749
X107.777 Y-32.703
X107.962 Y-32.65
X108.174 Y-32.57
X108.39 Y-32.467
X108.627 Y-32.331
X108.865 Y-32.168
X109.121 Y-31.959
X109.369 Y-31.722
X109.631 Y-31.427
X109.877 Y-31.102
X110.118 Y-30.723
X110.349 Y-30.286
X110.55 Y-29.818
X110.719 Y-29.317
X110.852 Y-28.786
X110.942 Y-28.245
X110.988 Y-27.699
X110.99 Y-27.2
X110.956 Y-26.752
X110.896 Y-26.372
X110.806 Y-26.002
X110.699 Y-25.677
X110.568 Y-25.435
X110.392 Y-25.223
X110.178 Y-25.05
X109.934 Y-24.922
X109.67 Y-24.844
X109.396 Y-24.82
X108.355 Y-24.83
X107.443 Y-24.84
G3 X106.871 Y-25.44 I0.028 J-0.599
G1 X106.881 Y-32.154
G3 X107.55 Y-32.749 I0.6 J0.001
G1 X109.563 Y-32.443
X109.758 Y-32.404
X109.942 Y-32.35
X110.153 Y-32.271
X110.364 Y-32.171
X110.6 Y-32.035
X110.832 Y-31.876
X111.083 Y-31.671
X111.328 Y-31.437
X111.579 Y-31.155
X111.828 Y-30.825
X112.057 Y-30.465
X112.277 Y-30.049
X112.475 Y-29.589
X112.639 Y-29.101
X112.766 Y-28.596
X112.852 Y-28.079
X112.896 Y-27.558
X112.897 Y-27.104
X112.865 Y-26.674
X112.806 Y-26.304
X112.721 Y-25.951
X112.66 Y-25.766
X112.54 Y-25.498
X112.366 Y-25.261
X112.147 Y-25.066
X111.892 Y-24.92
X111.612 Y-24.831
X111.319 Y-24.803
X109.396 Y-24.82
G3 X108.822 Y-25.426 I0.026 J-0.599
G1 X108.893 Y-31.854
G3 X109.563 Y-32.443 I0.6 J0.007
G1 X111.575 Y-32.138
X111.722 Y-32.108
X111.906 Y-32.054
X112.112 Y-31.976
X112.321 Y-31.876
X112.552 Y-31.743
X112.783 Y-31.583
X113.026 Y-31.384
X113.272 Y-31.148
X113.512 Y-30.877
X113.756 Y-30.553
X113.98 Y-30.198
X114.19 Y-29.8
X114.377 Y-29.361
X114.535 Y-28.892
X114.655 Y-28.407
X114.736 Y-27.91
X114.775 Y-27.44
X114.776 Y-26.987
X114.746 Y-26.606
X114.686 Y-26.227
X114.607 Y-25.904
X114.556 Y-25.75
X114.435 Y-25.483
X114.262 Y-25.247
X114.043 Y-25.052
X113.789 Y-24.907
X113.51 Y-24.818
X113.218 Y-24.789
X111.319 Y-24.803
G3 X110.745 Y-25.418 I0.026 J-0.599
G1 X110.906 Y-31.557
G3 X111.575 Y-32.138 I0.6 J0.016
G1 X113.386 Y-31.862
X113.66 Y-31.807
X113.842 Y-31.754
X114.041 Y-31.678
X114.249 Y-31.58
X114.471 Y-31.452
X114.7 Y-31.295
X114.935 Y-31.104
X115.177 Y-30.872
X115.408 Y-30.612
X115.644 Y-30.301
X115.865 Y-29.953
X116.064 Y-29.576
X116.244 Y-29.158
X116.393 Y-28.714
X116.51 Y-28.25
X116.588 Y-27.777
X116.626 Y-27.336
X116.627 Y-26.906
X116.6 Y-26.541
X116.542 Y-26.177
X116.466 Y-25.864
X116.427 Y-25.743
X116.307 Y-25.476
X116.134 Y-25.239
X115.915 Y-25.044
X115.661 Y-24.898
X115.382 Y-24.809
X115.09 Y-24.78
X113.218 Y-24.789
G3 X112.643 Y-25.396 I0.025 J-0.599
G1 X112.717 Y-31.274
G3 X113.386 Y-31.862 I0.6 J0.008
G1 X115.346 Y-31.564
X115.566 Y-31.519
X115.75 Y-31.467
X115.942 Y-31.394
X116.15 Y-31.295
X116.364 Y-31.172
X116.593 Y-31.015
X116.817 Y-30.832
X117.055 Y-30.605
X117.281 Y-30.351
X117.505 Y-30.054
X117.721 Y-29.714
X117.916 Y-29.346
X118.086 Y-28.95
X118.228 Y-28.529
X118.339 Y-28.086
X118.414 Y-27.634
X118.449 Y-27.222
X118.451 Y-26.822
X118.424 Y-26.469
X118.369 Y-26.123
X118.295 Y-25.817
X118.269 Y-25.736
X118.149 Y-25.469
X117.976 Y-25.233
X117.758 Y-25.038
X117.504 Y-24.893
X117.226 Y-24.803
X116.935 Y-24.773
X115.801 Y-24.776
X115.09 Y-24.78
G3 X114.514 Y-25.397 I0.024 J-0.6
G1 X114.677 Y-30.986
G3 X115.346 Y-31.564 I0.6 J0.018
G1 X116.203 Y-31.441
X117.209 Y-31.298
X117.416 Y-31.258
X117.595 Y-31.209
X117.784 Y-31.139
X117.989 Y-31.045
X118.197 Y-30.928
X118.421 Y-30.777
X118.64 Y-30.603
X118.872 Y-30.386
X119.094 Y-30.141
X119.311 Y-29.859
X119.521 Y-29.537
X119.712 Y-29.184
X119.879 Y-28.807
X120.018 Y-28.407
X120.128 Y-27.986
X120.204 Y-27.558
X120.241 Y-27.167
X120.247 Y-26.788
X120.224 Y-26.446
X120.175 Y-26.113
X120.106 Y-25.814
X120.084 Y-25.745
X119.966 Y-25.476
X119.794 Y-25.236
X119.576 Y-25.038
X119.321 Y-24.89
X119.041 Y-24.799
X118.748 Y-24.769
X116.935 Y-24.773
G3 X116.358 Y-25.394 I0.023 J-0.6
G1 X116.546 Y-30.723
G3 X117.209 Y-31.298 I0.6 J0.021
G1 X119.02 Y-31.042
X119.263 Y-30.995
X119.443 Y-30.945
X119.625 Y-30.878
X119.829 Y-30.785
X120.031 Y-30.671
X120.249 Y-30.524
X120.467 Y-30.351
X120.686 Y-30.146
X120.909 Y-29.9
X121.118 Y-29.629
X121.316 Y-29.325
X121.5 Y-28.985
X121.662 Y-28.619
X121.797 Y-28.232
X121.902 Y-27.83
X121.97 Y-27.442
X122.006 Y-27.062
X122.011 Y-26.717
X121.989 Y-26.379
X121.943 Y-26.067
X121.875 Y-25.77
X121.867 Y-25.744
X121.749 Y-25.475
X121.577 Y-25.236
X121.359 Y-25.038
X121.104 Y-24.89
X120.824 Y-24.798
X120.531 Y-24.767
X118.748 Y-24.769
G3 X118.17 Y-25.39 I0.022 J-0.6
G1 X118.357 Y-30.467
G3 X119.02 Y-31.042 I0.6 J0.022
G1 X120.928 Y-30.772
X121.08 Y-30.743
X121.256 Y-30.694
X121.292 Y-30.681
X121.547 Y-30.556
X121.772 Y-30.383
X121.958 Y-30.168
X122.096 Y-29.92
X122.181 Y-29.649
X122.21 Y-29.366
G3 X121.174 Y-28.975 I-0.6 J-0.021
G1 X120.429 Y-29.763
G3 X120.928 Y-30.772 I0.436 J-0.412
G1 X121.636 Y-30.672
X121.737 Y-30.654
X121.787 Y-30.64
X121.837 Y-30.62
X121.89 Y-30.593
X121.942 Y-30.56
X121.991 Y-30.524
X122.039 Y-30.48
X122.091 Y-30.42
X122.13 Y-30.359
X122.156 Y-30.309
X122.176 Y-30.259
X122.202 Y-30.158
X122.21 Y-29.957
Y-25.538
X122.208 Y-25.337
X122.192 Y-25.237
X122.177 Y-25.187
X122.157 Y-25.136
X122.109 Y-25.05
X122.077 Y-25.006
X122.039 Y-24.963
X122.01 Y-24.935
X121.924 Y-24.866
X121.837 Y-24.819
X121.787 Y-24.799
X121.737 Y-24.784
X121.636 Y-24.769
X121.435 Y-24.767
X120.531
G3 X119.968 Y-25.232 I0.021 J-0.6
G1 X119.947 Y-25.324 Z-6.993
X119.926 Y-25.413 Z-6.971
X119.907 Y-25.498 Z-6.935
X119.889 Y-25.576 Z-6.885
X119.873 Y-25.646 Z-6.824
X119.859 Y-25.705 Z-6.753
X119.848 Y-25.753 Z-6.672
X119.84 Y-25.788 Z-6.585
X119.835 Y-25.81 Z-6.494
X119.833 Y-25.817 Z-6.4
G0 Z-5.8
X31.987 Y-43.423
G1 Z-6.4 F1000
X31.994 Y-43.426 Z-6.494
X32.014 Y-43.435 Z-6.585
X32.046 Y-43.451 Z-6.672
X32.09 Y-43.472 Z-6.753
X32.146 Y-43.499 Z-6.824
X32.21 Y-43.53 Z-6.885
X32.282 Y-43.564 Z-6.935
X32.361 Y-43.602 Z-6.971
X32.443 Y-43.642 Z-6.993
X32.528 Y-43.682 Z-7
G3 X33.298 Y-43.836 I0.685 J1.427
G1 X37.122 Y-43.494
X37.725 Y-43.438
X43.158 Y-42.881
X43.781 Y-42.813
X45.076 Y-42.66
G3 X45.582 Y-42.133 I-0.091 J0.593
G1 X45.592 Y-42.04 Z-6.993
X45.602 Y-41.949 Z-6.971
X45.611 Y-41.862 Z-6.935
X45.62 Y-41.782 Z-6.885
X45.628 Y-41.711 Z-6.824
X45.635 Y-41.65 Z-6.753
X45.64 Y-41.602 Z-6.672
X45.644 Y-41.566 Z-6.585
X45.646 Y-41.544 Z-6.494
X45.647 Y-41.537 Z-6.4
G0 Z-5.8
X-13.103 Y-25.662
G1 Z-6.4 F1000
X-13.109 Y-25.658 Z-6.494
X-13.128 Y-25.648 Z-6.585
X-13.16 Y-25.63 Z-6.672
X-13.203 Y-25.607 Z-6.753
X-13.257 Y-25.578 Z-6.824
X-13.32 Y-25.544 Z-6.885
X-13.391 Y-25.506 Z-6.935
X-13.467 Y-25.464 Z-6.971
X-13.548 Y-25.421 Z-6.993
X-13.63 Y-25.376 Z-7
G3 X-14.392 Y-25.185 I-0.753 J-1.392
G1 X-16.606 Y-25.275
X-17.008 Y-25.294
X-17.218 Y-25.314
X-17.46 Y-25.358
X-17.734 Y-25.43
X-18.039 Y-25.537
X-18.354 Y-25.677
X-18.718 Y-25.876
X-19.075 Y-26.109
X-19.487 Y-26.429
X-19.885 Y-26.793
X-20.319 Y-27.258
X-20.767 Y-27.825
X-21.199 Y-28.47
X-21.63 Y-29.241
X-21.998 Y-30.047
X-22.309 Y-30.877
X-22.564 Y-31.726
X-22.769 Y-32.588
X-22.924 Y-33.46
X-23.032 Y-34.34
X-23.094 Y-35.224
X-23.111 Y-36.11
X-23.082 Y-36.996
X-23.011 Y-37.879
X-22.897 Y-38.758
X-22.742 Y-39.63
X-22.546 Y-40.494
X-22.309 Y-41.348
X-22.034 Y-42.19
X-21.718 Y-43.018
X-21.364 Y-43.831
X-20.972 Y-44.625
X-20.561 Y-45.364
X-20.452 Y-45.528
X-20.279 Y-45.74
X-20.068 Y-45.914
X-19.827 Y-46.044
X-19.566 Y-46.124
X-19.294 Y-46.152
X-17.209 Y-46.163
X-16.615 Y-46.164
G3 X-16.035 Y-45.553 I-0.02 J0.6
G1 X-16.401 Y-25.883
G3 X-17.008 Y-25.294 I-0.6 J-0.011
G1 X-17.411 Y-25.314
X-19.423 Y-25.422
X-19.671 Y-25.448
X-19.902 Y-25.491
X-20.175 Y-25.565
X-20.452 Y-25.664
X-20.765 Y-25.806
X-21.098 Y-25.99
X-21.45 Y-26.224
X-21.833 Y-26.525
X-22.223 Y-26.885
X-22.628 Y-27.326
X-23.057 Y-27.875
X-23.474 Y-28.506
X-23.886 Y-29.256
X-24.25 Y-30.064
X-24.554 Y-30.897
X-24.803 Y-31.747
X-25.003 Y-32.61
X-25.155 Y-33.483
X-25.262 Y-34.363
X-25.325 Y-35.247
X-25.347 Y-36.133
X-25.327 Y-37.018
X-25.266 Y-37.903
X-25.167 Y-38.783
X-25.029 Y-39.658
X-24.854 Y-40.527
X-24.643 Y-41.388
X-24.395 Y-42.239
X-24.113 Y-43.078
X-23.795 Y-43.906
X-23.442 Y-44.718
X-23.129 Y-45.324
X-23.034 Y-45.478
X-22.862 Y-45.701
X-22.648 Y-45.885
X-22.402 Y-46.023
X-22.133 Y-46.109
X-21.852 Y-46.139
X-19.294 Y-46.152
G3 X-18.712 Y-45.549 I-0.018 J0.6
G1 X-18.811 Y-26.019
G3 X-19.423 Y-25.422 I-0.6 J-0.003
G1 X-21.837 Y-25.552
X-22.024 Y-25.571
X-22.251 Y-25.614
X-22.517 Y-25.686
X-22.784 Y-25.782
X-23.093 Y-25.921
X-23.41 Y-26.097
X-23.757 Y-26.327
X-24.122 Y-26.614
X-24.504 Y-26.968
X-24.895 Y-27.392
X-25.311 Y-27.924
X-25.717 Y-28.539
X-26.12 Y-29.273
X-26.484 Y-30.081
X-26.787 Y-30.913
X-27.035 Y-31.764
X-27.234 Y-32.628
X-27.386 Y-33.501
X-27.495 Y-34.38
X-27.563 Y-35.263
X-27.59 Y-36.149
X-27.578 Y-37.035
X-27.528 Y-37.92
X-27.442 Y-38.802
X-27.32 Y-39.68
X-27.163 Y-40.552
X-26.973 Y-41.417
X-26.75 Y-42.275
X-26.494 Y-43.123
X-26.206 Y-43.961
X-25.878 Y-44.784
X-25.613 Y-45.319
X-25.547 Y-45.429
X-25.377 Y-45.657
X-25.164 Y-45.846
X-24.918 Y-45.988
X-24.649 Y-46.077
X-24.366 Y-46.11
X-23.045 Y-46.129
X-22.642 Y-46.134
X-21.852 Y-46.139
G3 X-21.27 Y-45.54 I-0.018 J0.6
G1 X-21.226 Y-26.153
G3 X-21.837 Y-25.552 I-0.6 J0.001
G1 X-24.051 Y-25.671
X-24.341 Y-25.701
X-24.568 Y-25.743
X-24.826 Y-25.813
X-25.089 Y-25.908
X-25.396 Y-26.047
X-25.7 Y-26.215
X-26.047 Y-26.445
X-26.396 Y-26.72
X-26.779 Y-27.074
X-27.156 Y-27.484
X-27.563 Y-28.003
X-27.966 Y-28.615
X-28.362 Y-29.335
X-28.726 Y-30.143
X-29.028 Y-30.976
X-29.275 Y-31.827
X-29.474 Y-32.691
X-29.626 Y-33.564
X-29.736 Y-34.443
X-29.806 Y-35.326
X-29.838 Y-36.212
X-29.833 Y-37.098
X-29.792 Y-37.983
X-29.716 Y-38.866
X-29.606 Y-39.745
X-29.464 Y-40.62
X-29.291 Y-41.489
X-29.087 Y-42.351
X-28.851 Y-43.206
X-28.582 Y-44.05
X-28.305 Y-44.778
X-28.064 Y-45.284
X-28.011 Y-45.375
X-27.842 Y-45.608
X-27.628 Y-45.802
X-27.38 Y-45.948
X-27.106 Y-46.04
X-26.82 Y-46.074
X-24.366 Y-46.11
G3 X-23.779 Y-45.521 I-0.012 J0.6
G1 X-23.44 Y-26.281
G3 X-24.051 Y-25.671 I-0.6 J0.011
G1 X-24.655 Y-25.704
X-25.26 Y-25.739
X-26.466 Y-25.82
X-26.673 Y-25.844
X-26.907 Y-25.891
X-27.156 Y-25.962
X-27.425 Y-26.063
X-27.73 Y-26.206
X-28.034 Y-26.379
X-28.385 Y-26.619
X-28.724 Y-26.893
X-29.111 Y-27.261
X-29.481 Y-27.674
X-29.878 Y-28.196
X-30.285 Y-28.83
X-30.68 Y-29.573
X-31.033 Y-30.386
X-31.324 Y-31.222
X-31.562 Y-32.076
X-31.751 Y-32.942
X-31.896 Y-33.816
X-31.999 Y-34.696
X-32.064 Y-35.58
X-32.093 Y-36.465
X-32.086 Y-37.351
X-32.046 Y-38.237
X-31.974 Y-39.12
X-31.871 Y-40
X-31.736 Y-40.876
X-31.571 Y-41.746
X-31.376 Y-42.611
X-31.148 Y-43.467
X-30.88 Y-44.312
X-30.637 Y-44.92
X-30.472 Y-45.253
X-30.309 Y-45.509
X-30.094 Y-45.723
X-29.838 Y-45.886
X-29.553 Y-45.991
X-29.252 Y-46.031
X-28.679 Y-46.045
X-27.673 Y-46.061
X-26.82 Y-46.074
G3 X-26.232 Y-45.486 I-0.012 J0.6
G1 X-25.846 Y-26.432
G3 X-26.466 Y-25.82 I-0.6 J0.012
G1 X-28.679 Y-25.969
X-28.971 Y-26.003
X-29.197 Y-26.048
X-29.448 Y-26.12
X-29.709 Y-26.218
X-30.013 Y-26.36
X-30.313 Y-26.531
X-30.656 Y-26.766
X-30.998 Y-27.042
X-31.376 Y-27.401
X-31.745 Y-27.813
X-32.143 Y-28.336
X-32.539 Y-28.955
X-32.927 Y-29.683
X-33.28 Y-30.496
X-33.571 Y-31.332
X-33.809 Y-32.186
X-33.999 Y-33.052
X-34.145 Y-33.926
X-34.25 Y-34.805
X-34.318 Y-35.689
X-34.351 Y-36.574
X-34.35 Y-37.461
X-34.317 Y-38.346
X-34.253 Y-39.23
X-34.158 Y-40.111
X-34.034 Y-40.988
X-33.88 Y-41.861
X-33.695 Y-42.728
X-33.475 Y-43.586
X-33.217 Y-44.408
X-33 Y-44.944
X-32.872 Y-45.199
X-32.708 Y-45.453
X-32.494 Y-45.666
X-32.239 Y-45.828
X-31.955 Y-45.932
X-31.655 Y-45.972
X-29.252 Y-46.031
G3 X-28.659 Y-45.45 I-0.006 J0.6
G1 X-28.06 Y-26.587
G3 X-28.679 Y-25.969 I-0.6 J0.019
G1 X-31.094 Y-26.131
X-31.243 Y-26.149
X-31.47 Y-26.194
X-31.72 Y-26.266
X-31.982 Y-26.365
X-32.285 Y-26.507
X-32.583 Y-26.678
X-32.927 Y-26.914
X-33.264 Y-27.187
X-33.643 Y-27.548
X-34.008 Y-27.957
X-34.403 Y-28.477
X-34.801 Y-29.1
X-35.187 Y-29.828
X-35.538 Y-30.642
X-35.829 Y-31.479
X-36.066 Y-32.333
X-36.255 Y-33.199
X-36.401 Y-34.073
X-36.508 Y-34.952
X-36.578 Y-35.836
X-36.614 Y-36.721
X-36.617 Y-37.607
X-36.589 Y-38.493
X-36.531 Y-39.377
X-36.444 Y-40.259
X-36.327 Y-41.137
X-36.18 Y-42.011
X-36 Y-42.879
X-35.783 Y-43.738
X-35.554 Y-44.454
X-35.345 Y-44.961
X-35.25 Y-45.147
X-35.087 Y-45.398
X-34.874 Y-45.608
X-34.621 Y-45.768
X-34.34 Y-45.871
X-34.044 Y-45.912
X-33.71 Y-45.921
X-31.655 Y-45.972
G3 X-31.062 Y-45.39 I-0.006 J0.6
G1 X-30.475 Y-26.75
G3 X-31.094 Y-26.131 I-0.6 J0.019
G1 X-32.905 Y-26.253
X-33.307 Y-26.281
X-33.535 Y-26.31
X-33.765 Y-26.358
X-34.012 Y-26.431
X-34.277 Y-26.533
X-34.579 Y-26.678
X-34.878 Y-26.852
X-35.224 Y-27.093
X-35.558 Y-27.368
X-35.938 Y-27.735
X-36.301 Y-28.148
X-36.693 Y-28.672
X-37.092 Y-29.308
X-37.48 Y-30.051
X-37.826 Y-30.867
X-38.111 Y-31.706
X-38.343 Y-32.561
X-38.529 Y-33.427
X-38.672 Y-34.302
X-38.777 Y-35.182
X-38.846 Y-36.065
X-38.882 Y-36.95
X-38.886 Y-37.837
X-38.86 Y-38.722
X-38.805 Y-39.607
X-38.721 Y-40.489
X-38.607 Y-41.368
X-38.462 Y-42.242
X-38.282 Y-43.109
X-38.058 Y-43.967
X-37.844 Y-44.584
X-37.633 Y-45.063
X-37.622 Y-45.084
X-37.459 Y-45.323
X-37.251 Y-45.524
X-37.005 Y-45.677
X-36.734 Y-45.777
X-36.447 Y-45.819
X-34.716 Y-45.89
X-34.044 Y-45.912
G3 X-33.448 Y-45.337 I-0.003 J0.6
G1 X-32.687 Y-26.906
G3 X-33.307 Y-26.281 I-0.599 J0.025
G1 X-35.521 Y-26.452
X-35.821 Y-26.49
X-36.047 Y-26.538
X-36.295 Y-26.611
X-36.556 Y-26.712
X-36.857 Y-26.857
X-37.154 Y-27.03
X-37.496 Y-27.268
X-37.832 Y-27.546
X-38.208 Y-27.909
X-38.571 Y-28.323
X-38.964 Y-28.85
X-39.359 Y-29.48
X-39.744 Y-30.221
X-40.089 Y-31.037
X-40.374 Y-31.876
X-40.606 Y-32.731
X-40.792 Y-33.598
X-40.936 Y-34.472
X-41.042 Y-35.352
X-41.113 Y-36.235
X-41.151 Y-37.121
X-41.159 Y-38.007
X-41.136 Y-38.893
X-41.085 Y-39.777
X-41.005 Y-40.66
X-40.895 Y-41.539
X-40.751 Y-42.413
X-40.568 Y-43.28
X-40.357 Y-44.06
X-40.162 Y-44.602
X-40.027 Y-44.9
X-39.869 Y-45.166
X-39.657 Y-45.39
X-39.401 Y-45.563
X-39.114 Y-45.675
X-38.809 Y-45.721
X-36.447 Y-45.819
G3 X-35.844 Y-45.25 I0.004 J0.6
G1 X-34.896 Y-27.083
G3 X-35.521 Y-26.452 I-0.599 J0.031
G1 X-36.929 Y-26.561
X-37.533 Y-26.61
X-37.935 Y-26.643
X-38.104 Y-26.665
X-38.332 Y-26.715
X-38.58 Y-26.79
X-38.843 Y-26.893
X-39.145 Y-27.04
X-39.443 Y-27.216
X-39.787 Y-27.46
X-40.122 Y-27.738
X-40.499 Y-28.108
X-40.862 Y-28.526
X-41.253 Y-29.057
X-41.65 Y-29.7
X-42.038 Y-30.455
X-42.377 Y-31.273
X-42.658 Y-32.113
X-42.887 Y-32.969
X-43.07 Y-33.836
X-43.212 Y-34.711
X-43.317 Y-35.591
X-43.387 Y-36.474
X-43.425 Y-37.36
X-43.433 Y-38.246
X-43.411 Y-39.132
X-43.361 Y-40.016
X-43.281 Y-40.899
X-43.169 Y-41.778
X-43.021 Y-42.652
X-42.83 Y-43.517
X-42.629 Y-44.188
X-42.436 Y-44.686
X-42.378 Y-44.805
X-42.223 Y-45.055
X-42.02 Y-45.266
X-41.777 Y-45.43
X-41.505 Y-45.54
X-41.216 Y-45.592
X-40.735 Y-45.625
X-40.149 Y-45.663
X-39.948 Y-45.674
X-38.809 Y-45.721
G3 X-38.206 Y-45.152 I0.004 J0.6
G1 X-37.308 Y-27.272
G3 X-37.935 Y-26.643 I-0.599 J0.03
G1 X-40.149 Y-26.826
X-40.385 Y-26.858
X-40.61 Y-26.907
X-40.859 Y-26.982
X-41.119 Y-27.084
X-41.42 Y-27.231
X-41.717 Y-27.406
X-42.056 Y-27.646
X-42.394 Y-27.928
X-42.766 Y-28.293
X-43.131 Y-28.713
X-43.523 Y-29.245
X-43.917 Y-29.882
X-44.303 Y-30.635
X-44.643 Y-31.453
X-44.924 Y-32.293
X-45.154 Y-33.149
X-45.338 Y-34.016
X-45.481 Y-34.89
X-45.587 Y-35.77
X-45.659 Y-36.653
X-45.699 Y-37.539
X-45.709 Y-38.425
X-45.689 Y-39.311
X-45.641 Y-40.195
X-45.561 Y-41.078
X-45.448 Y-41.957
X-45.295 Y-42.83
X-45.105 Y-43.643
X-44.921 Y-44.217
X-44.779 Y-44.561
X-44.63 Y-44.833
X-44.424 Y-45.066
X-44.173 Y-45.247
X-43.888 Y-45.369
X-43.582 Y-45.425
X-41.216 Y-45.592
G3 X-40.596 Y-45.029 I0.021 J0.6
G1 X-39.521 Y-27.462
G3 X-40.149 Y-26.826 I-0.599 J0.037
G1 X-40.954 Y-26.894
X-42.362 Y-27.016
X-42.675 Y-27.06
X-42.903 Y-27.11
X-43.15 Y-27.186
X-43.412 Y-27.29
X-43.712 Y-27.438
X-44.008 Y-27.615
X-44.351 Y-27.859
X-44.685 Y-28.14
X-45.06 Y-28.511
X-45.422 Y-28.931
X-45.812 Y-29.466
X-46.209 Y-30.113
X-46.596 Y-30.877
X-46.933 Y-31.697
X-47.21 Y-32.538
X-47.437 Y-33.395
X-47.619 Y-34.262
X-47.761 Y-35.137
X-47.865 Y-36.017
X-47.937 Y-36.9
X-47.976 Y-37.785
X-47.985 Y-38.671
X-47.964 Y-39.557
X-47.913 Y-40.442
X-47.83 Y-41.324
X-47.71 Y-42.202
X-47.546 Y-43.073
X-47.364 Y-43.76
X-47.185 Y-44.267
X-47.111 Y-44.433
X-46.959 Y-44.695
X-46.755 Y-44.917
X-46.507 Y-45.09
X-46.228 Y-45.206
X-45.931 Y-45.26
X-43.582 Y-45.425
G3 X-42.963 Y-44.868 I0.021 J0.6
G1 X-41.733 Y-27.658
G3 X-42.362 Y-27.016 I-0.598 J0.043
G1 X-44.777 Y-27.228
X-44.951 Y-27.252
X-45.177 Y-27.303
X-45.427 Y-27.38
X-45.687 Y-27.484
X-45.99 Y-27.634
X-46.287 Y-27.812
X-46.627 Y-28.056
X-46.966 Y-28.343
X-47.338 Y-28.712
X-47.703 Y-29.138
X-48.095 Y-29.678
X-48.491 Y-30.326
X-48.878 Y-31.094
X-49.212 Y-31.914
X-49.489 Y-32.756
X-49.715 Y-33.613
X-49.896 Y-34.48
X-50.037 Y-35.355
X-50.142 Y-36.235
X-50.213 Y-37.118
X-50.252 Y-38.003
X-50.26 Y-38.89
X-50.238 Y-39.775
X-50.185 Y-40.66
X-50.097 Y-41.542
X-49.968 Y-42.418
X-49.801 Y-43.222
X-49.632 Y-43.796
X-49.519 Y-44.091
X-49.38 Y-44.361
X-49.186 Y-44.595
X-48.946 Y-44.782
X-48.671 Y-44.912
X-48.375 Y-44.98
X-46.186 Y-45.237
X-45.985 Y-45.256
X-45.931 Y-45.26
G3 X-45.311 Y-44.702 I0.021 J0.6
G1 X-44.147 Y-27.868
G3 X-44.777 Y-27.228 I-0.599 J0.041
G1 X-46.991 Y-27.426
X-47.232 Y-27.46
X-47.457 Y-27.51
X-47.708 Y-27.587
X-47.967 Y-27.691
X-48.268 Y-27.84
X-48.564 Y-28.019
X-48.903 Y-28.261
X-49.242 Y-28.548
X-49.612 Y-28.915
X-49.978 Y-29.342
X-50.37 Y-29.882
X-50.764 Y-30.528
X-51.152 Y-31.296
X-51.486 Y-32.116
X-51.763 Y-32.958
X-51.989 Y-33.815
X-52.171 Y-34.682
X-52.312 Y-35.557
X-52.417 Y-36.437
X-52.488 Y-37.32
X-52.527 Y-38.205
X-52.535 Y-39.091
X-52.511 Y-39.977
X-52.454 Y-40.861
X-52.359 Y-41.742
X-52.217 Y-42.617
X-52.058 Y-43.271
X-51.892 Y-43.775
X-51.859 Y-43.855
X-51.716 Y-44.114
X-51.523 Y-44.336
X-51.287 Y-44.514
X-51.019 Y-44.638
X-50.732 Y-44.703
X-48.375 Y-44.98
G3 X-47.728 Y-44.432 I0.049 J0.598
G1 X-46.36 Y-28.075
G3 X-46.991 Y-27.426 I-0.598 J0.05
G1 X-49.204 Y-27.625
X-49.512 Y-27.668
X-49.737 Y-27.719
X-49.987 Y-27.796
X-50.246 Y-27.9
X-50.547 Y-28.049
X-50.843 Y-28.228
X-51.182 Y-28.47
X-51.521 Y-28.757
X-51.891 Y-29.125
X-52.256 Y-29.552
X-52.648 Y-30.092
X-53.043 Y-30.74
X-53.43 Y-31.509
X-53.764 Y-32.33
X-54.041 Y-33.172
X-54.266 Y-34.029
X-54.447 Y-34.897
X-54.589 Y-35.771
X-54.693 Y-36.651
X-54.763 Y-37.535
X-54.801 Y-38.42
X-54.806 Y-39.306
X-54.778 Y-40.192
X-54.714 Y-41.076
X-54.606 Y-41.955
X-54.467 Y-42.693
X-54.323 Y-43.222
X-54.234 Y-43.466
X-54.104 Y-43.732
X-53.921 Y-43.965
X-53.693 Y-44.155
X-53.431 Y-44.292
X-53.145 Y-44.371
X-52.222 Y-44.522
X-52.021 Y-44.551
X-50.732 Y-44.703
G3 X-50.085 Y-44.162 I0.049 J0.598
G1 X-48.574 Y-28.281
G3 X-49.204 Y-27.625 I-0.597 J0.057
G1 X-51.015 Y-27.788
X-51.619 Y-27.844
X-51.787 Y-27.868
X-52.013 Y-27.919
X-52.264 Y-27.997
X-52.524 Y-28.102
X-52.826 Y-28.253
X-53.123 Y-28.433
X-53.463 Y-28.677
X-53.803 Y-28.966
X-54.174 Y-29.336
X-54.54 Y-29.766
X-54.932 Y-30.308
X-55.328 Y-30.962
X-55.716 Y-31.736
X-56.048 Y-32.557
X-56.323 Y-33.399
X-56.547 Y-34.257
X-56.727 Y-35.124
X-56.867 Y-35.999
X-56.969 Y-36.88
X-57.037 Y-37.763
X-57.072 Y-38.649
Y-39.535
X-57.038 Y-40.42
X-56.961 Y-41.303
X-56.839 Y-42.13
X-56.707 Y-42.7
X-56.608 Y-43.01
X-56.488 Y-43.283
X-56.312 Y-43.525
X-56.09 Y-43.723
X-55.83 Y-43.87
X-55.545 Y-43.959
X-55.442 Y-43.979
X-54.838 Y-44.092
X-53.145 Y-44.371
G3 X-52.471 Y-43.834 I0.077 J0.595
G1 X-50.987 Y-28.501
G3 X-51.619 Y-27.844 I-0.597 J0.058
G1 X-53.43 Y-28.011
X-53.832 Y-28.05
X-54.09 Y-28.089
X-54.318 Y-28.142
X-54.568 Y-28.222
X-54.83 Y-28.33
X-55.133 Y-28.483
X-55.431 Y-28.666
X-55.772 Y-28.915
X-56.111 Y-29.207
X-56.485 Y-29.585
X-56.849 Y-30.018
X-57.24 Y-30.567
X-57.636 Y-31.231
X-58.025 Y-32.02
X-58.352 Y-32.843
X-58.622 Y-33.687
X-58.842 Y-34.546
X-59.017 Y-35.414
X-59.152 Y-36.29
X-59.249 Y-37.171
X-59.312 Y-38.055
X-59.339 Y-38.941
X-59.329 Y-39.827
X-59.28 Y-40.711
X-59.179 Y-41.575
X-59.063 Y-42.16
X-58.969 Y-42.491
X-58.855 Y-42.773
X-58.683 Y-43.023
X-58.46 Y-43.231
X-58.199 Y-43.385
X-57.909 Y-43.479
X-57.454 Y-43.574
X-55.545 Y-43.959
G3 X-54.853 Y-43.434 I0.096 J0.592
G1 X-53.198 Y-28.716
G3 X-53.832 Y-28.05 I-0.596 J0.067
G1 X-54.637 Y-28.132
X-56.046 Y-28.276
X-56.247 Y-28.3
X-56.464 Y-28.339
X-56.704 Y-28.403
X-56.954 Y-28.491
X-57.227 Y-28.613
X-57.533 Y-28.78
X-57.839 Y-28.981
X-58.191 Y-29.254
X-58.528 Y-29.563
X-58.908 Y-29.971
X-59.276 Y-30.437
X-59.662 Y-31.015
X-60.056 Y-31.721
X-60.423 Y-32.527
X-60.729 Y-33.359
X-60.981 Y-34.208
X-61.184 Y-35.071
X-61.344 Y-35.942
X-61.464 Y-36.82
X-61.545 Y-37.703
X-61.589 Y-38.588
X-61.594 Y-39.474
X-61.556 Y-40.359
X-61.473 Y-41.148
X-61.37 Y-41.695
X-61.311 Y-41.915
X-61.202 Y-42.193
X-61.038 Y-42.441
X-60.824 Y-42.649
X-60.572 Y-42.807
X-60.292 Y-42.908
X-58.211 Y-43.416
X-57.909 Y-43.479
G3 X-57.211 Y-42.957 I0.102 J0.591
G1 X-55.601 Y-28.967
G3 X-56.247 Y-28.3 I-0.596 J0.069
G1 X-58.058 Y-28.535
X-58.173 Y-28.551
X-58.662 Y-28.632
X-58.923 Y-28.69
X-59.164 Y-28.764
X-59.421 Y-28.866
X-59.696 Y-29.001
X-60.008 Y-29.188
X-60.313 Y-29.405
X-60.666 Y-29.701
X-61.006 Y-30.037
X-61.384 Y-30.476
X-61.754 Y-30.983
X-62.137 Y-31.606
X-62.523 Y-32.366
X-62.86 Y-33.186
X-63.138 Y-34.028
X-63.363 Y-34.884
X-63.543 Y-35.752
X-63.679 Y-36.628
X-63.775 Y-37.509
X-63.83 Y-38.393
X-63.843 Y-39.279
X-63.806 Y-40.164
X-63.727 Y-40.812
X-63.652 Y-41.182
X-63.559 Y-41.471
X-63.407 Y-41.733
X-63.201 Y-41.957
X-62.952 Y-42.13
X-62.672 Y-42.246
X-61.418 Y-42.612
X-60.875 Y-42.765
X-60.292 Y-42.908
G3 X-59.574 Y-42.392 I0.122 J0.587
G1 X-57.988 Y-29.3
G3 X-58.662 Y-28.632 I-0.596 J0.072
G1 X-58.863 Y-28.666
X-60.07 Y-28.884
X-60.272 Y-28.925
X-60.875 Y-29.067
X-61.278 Y-29.168
X-61.585 Y-29.262
X-61.842 Y-29.364
X-62.097 Y-29.489
X-62.387 Y-29.662
X-62.695 Y-29.881
X-63.013 Y-30.148
X-63.359 Y-30.489
X-63.709 Y-30.894
X-64.071 Y-31.389
X-64.448 Y-32.002
X-64.822 Y-32.738
X-65.16 Y-33.557
X-65.435 Y-34.399
X-65.656 Y-35.258
X-65.827 Y-36.127
X-65.953 Y-37.004
X-66.034 Y-37.887
X-66.07 Y-38.772
X-66.051 Y-39.597
X-65.993 Y-40.162
X-65.944 Y-40.424
X-65.86 Y-40.707
X-65.719 Y-40.965
X-65.527 Y-41.189
X-65.292 Y-41.367
X-65.026 Y-41.492
X-64.296 Y-41.745
X-63.692 Y-41.948
X-62.672 Y-42.246
G3 X-61.928 Y-41.734 I0.148 J0.582
G1 X-60.556 Y-29.823
G3 X-61.278 Y-29.168 I-0.596 J0.069
G1 X-62.083 Y-29.371
X-62.284 Y-29.424
X-62.887 Y-29.626
X-63.491 Y-29.829
X-63.692 Y-29.898
X-64.095 Y-30.041
X-64.396 Y-30.165
X-64.654 Y-30.297
X-64.92 Y-30.461
X-65.204 Y-30.669
X-65.518 Y-30.941
X-65.827 Y-31.254
X-66.166 Y-31.659
X-66.503 Y-32.134
X-66.846 Y-32.712
X-67.193 Y-33.419
X-67.518 Y-34.243
X-67.778 Y-35.09
X-67.981 Y-35.953
X-68.131 Y-36.826
X-68.228 Y-37.707
X-68.264 Y-38.526
X-68.242 Y-39.148
X-68.201 Y-39.498
X-68.135 Y-39.788
X-68.01 Y-40.058
X-67.83 Y-40.295
X-67.604 Y-40.489
X-67.343 Y-40.631
X-66.912 Y-40.807
X-66.308 Y-41.047
X-65.026 Y-41.492
G3 X-64.252 Y-40.973 I0.177 J0.573
G1 X-63.316 Y-30.667
G3 X-64.095 Y-30.041 I-0.598 J0.054
G1 X-64.296 Y-30.112
X-65.503 Y-30.624
X-65.906 Y-30.794
X-66.107 Y-30.887
X-66.308 Y-30.985
X-66.657 Y-31.163
X-67.05 Y-31.363
X-67.385 Y-31.556
X-67.644 Y-31.735
X-67.905 Y-31.947
X-68.184 Y-32.215
X-68.479 Y-32.546
X-68.78 Y-32.945
X-69.086 Y-33.427
X-69.401 Y-34.023
X-69.694 Y-34.706
X-69.959 Y-35.491
X-70.171 Y-36.343
X-70.307 Y-37.162
X-70.363 Y-37.823
X-70.365 Y-38.33
X-70.351 Y-38.506
X-70.299 Y-38.792
X-70.19 Y-39.06
X-70.027 Y-39.3
X-69.819 Y-39.501
X-69.573 Y-39.655
X-69.125 Y-39.876
X-68.924 Y-39.969
X-68.321 Y-40.229
X-67.343 Y-40.631
G3 X-66.535 Y-40.093 I0.209 J0.563
G1 X-66.196 Y-31.932
G3 X-67.05 Y-31.363 I-0.599 J0.025
G1 X-67.717 Y-31.704
X-68.321 Y-32.04
X-68.539 Y-32.167
X-69.729 Y-32.88
X-69.867 Y-32.97
X-70.255 Y-33.258
X-70.484 Y-33.458
X-70.742 Y-33.723
X-70.991 Y-34.024
X-71.254 Y-34.398
X-71.501 Y-34.819
X-71.74 Y-35.313
X-71.945 Y-35.842
X-72.095 Y-36.344
X-72.197 Y-36.822
X-72.249 Y-37.225
X-72.254 Y-37.33
X-72.237 Y-37.63
X-72.155 Y-37.92
X-72.014 Y-38.185
X-71.819 Y-38.415
X-71.58 Y-38.597
G3 X-70.726 Y-38.284 I0.292 J0.524
G1 X-68.996 Y-33.696
G3 X-69.867 Y-32.97 I-0.561 J0.212
G1 X-70.469 Y-33.372
X-71.618 Y-34.176
X-71.741 Y-34.266
X-71.878 Y-34.376
X-72.546 Y-34.936
X-72.803 Y-35.174
X-72.972 Y-35.357
X-73.12 Y-35.547
X-73.265 Y-35.766
X-73.381 Y-35.977
X-73.403 Y-36.028
X-73.5 Y-36.33
X-73.526 Y-36.646
X-73.48 Y-36.961
X-73.364 Y-37.256
X-73.185 Y-37.518
X-72.951 Y-37.733
G3 X-72.031 Y-37.376 I0.336 J0.497
G1 X-71.594 Y-35.549
G3 X-72.546 Y-34.936 I-0.584 J0.14
G1 X-73.15 Y-35.441
X-73.298 Y-35.582
X-73.552 Y-35.836
X-73.699 Y-35.983
X-73.871 Y-36.184
X-73.919 Y-36.247
X-73.955 Y-36.309
X-73.987 Y-36.385
X-74.011 Y-36.486
X-74.019 Y-36.586
X-74.009 Y-36.687
X-73.981 Y-36.787
X-73.955 Y-36.848
X-73.913 Y-36.918
X-73.858 Y-36.988
X-73.754 Y-37.091
X-73.638 Y-37.189
X-73.146 Y-37.59
X-72.747 Y-37.88
X-72.546 Y-38.009
X-72.345 Y-38.135
X-71.138 Y-38.864
X-70.936 Y-38.973
X-70.5 Y-39.197
X-70.333 Y-39.282
X-69.573 Y-39.655
G3 X-68.862 Y-39.487 I0.246 J0.547
G1 X-68.803 Y-39.415 Z-6.993
X-68.745 Y-39.344 Z-6.971
X-68.69 Y-39.276 Z-6.935
X-68.639 Y-39.214 Z-6.885
X-68.594 Y-39.159 Z-6.824
X-68.556 Y-39.111 Z-6.753
X-68.524 Y-39.073 Z-6.672
X-68.502 Y-39.045 Z-6.585
X-68.488 Y-39.028 Z-6.494
X-68.483 Y-39.022 Z-6.4
G0 Z5
X-4.156 Y35.415
Z3
Z2
G1 Z-7 F333.3
Y35.377 F1000
X-4.12 Y35.384
X-4.102 Y35.417
X-4.111 Y35.453
X-4.141 Y35.476
X-4.178 Y35.477
X-4.212 Y35.461
X-4.238 Y35.434
X-4.252 Y35.399
X-4.253 Y35.362
X-4.239 Y35.327
X-4.216 Y35.297
X-4.185 Y35.276
X-4.114 Y35.252
X-4.04 Y35.263
X-3.978 Y35.305
X-3.935 Y35.367
X-3.917 Y35.439
X-3.923 Y35.514
X-3.951 Y35.583
X-4.046 Y35.7
X-4.186 Y35.754
X-4.335 Y35.743
X-4.468 Y35.674
X-4.567 Y35.56
X-4.621 Y35.421
X-4.627 Y35.271
X-4.59 Y35.125
X-4.513 Y34.997
X-4.405 Y34.893
X-4.273 Y34.821
X-4.128 Y34.783
X-3.978 Y34.781
X-3.832 Y34.813
X-3.696 Y34.878
X-3.577 Y34.969
X-3.48 Y35.084
X-3.409 Y35.215
X-3.362 Y35.358
X-3.342 Y35.507
X-3.35 Y35.656
X-3.384 Y35.803
X-3.442 Y35.941
X-3.523 Y36.067
X-3.623 Y36.179
X-3.739 Y36.273
X-3.869 Y36.348
X-4.009 Y36.403
X-4.155 Y36.435
X-4.305 Y36.447
X-4.455 Y36.436
X-4.601 Y36.405
X-4.742 Y36.354
X-4.875 Y36.284
X-4.997 Y36.197
X-5.107 Y36.095
X-5.203 Y35.98
X-5.284 Y35.854
X-5.349 Y35.718
X-5.397 Y35.576
X-5.427 Y35.429
X-5.44 Y35.28
X-5.436 Y35.13
X-5.414 Y34.981
X-5.376 Y34.836
X-5.322 Y34.696
X-5.254 Y34.563
X-5.171 Y34.438
X-5.075 Y34.322
X-4.968 Y34.217
X-4.85 Y34.124
X-4.724 Y34.043
X-4.59 Y33.976
X-4.45 Y33.922
X-4.305 Y33.883
X-4.157 Y33.858
X-4.008 Y33.847
X-3.858 Y33.851
X-3.709 Y33.869
X-3.562 Y33.901
X-3.419 Y33.946
X-3.281 Y34.005
X-3.149 Y34.075
X-3.023 Y34.157
X-2.905 Y34.25
X-2.796 Y34.353
X-2.696 Y34.465
X-2.606 Y34.585
X-2.527 Y34.712
X-2.459 Y34.846
X-2.402 Y34.985
X-2.357 Y35.128
X-2.323 Y35.274
X-2.302 Y35.426
X-2.293 Y35.575
X-2.296 Y35.73
X-2.311 Y35.88
X-2.34 Y36.034
X-2.379 Y36.182
X-2.433 Y36.333
X-2.496 Y36.474
X-2.575 Y36.616
X-2.661 Y36.747
X-2.764 Y36.878
X-2.872 Y36.996
X-2.995 Y37.11
X-3.124 Y37.211
X-3.265 Y37.304
X-3.413 Y37.386
X-3.567 Y37.456
X-3.73 Y37.514
X-3.894 Y37.559
X-4.068 Y37.591
X-4.241 Y37.609
X-4.419 Y37.613
X-4.599 Y37.603
X-4.774 Y37.579
X-4.954 Y37.539
X-5.128 Y37.485
X-5.298 Y37.418
X-5.467 Y37.334
X-5.626 Y37.239
X-5.78 Y37.129
X-5.928 Y37.005
X-6.063 Y36.871
X-6.189 Y36.725
X-6.305 Y36.565
X-6.407 Y36.399
X-6.496 Y36.223
X-6.572 Y36.037
X-6.633 Y35.845
X-6.679 Y35.65
X-6.709 Y35.447
X-6.723 Y35.24
X-6.72 Y35.034
X-6.701 Y34.828
X-6.664 Y34.619
X-6.611 Y34.413
X-6.541 Y34.212
X-6.455 Y34.017
X-6.352 Y33.825
X-6.233 Y33.642
X-6.099 Y33.468
X-5.952 Y33.305
X-5.79 Y33.154
X-5.614 Y33.013
X-5.426 Y32.886
X-5.229 Y32.774
X-5.022 Y32.679
X-4.807 Y32.6
X-4.584 Y32.537
X-4.354 Y32.493
X-4.119 Y32.466
X-3.882 Y32.459
X-3.644 Y32.471
X-3.406 Y32.502
X-3.171 Y32.552
X-2.938 Y32.621
X-2.71 Y32.709
X-2.489 Y32.817
X-2.274 Y32.943
X-2.07 Y33.086
X-1.876 Y33.247
X-1.694 Y33.424
X-1.526 Y33.616
X-1.373 Y33.822
X-1.236 Y34.041
X-1.116 Y34.273
X-1.015 Y34.514
X-0.933 Y34.764
X-0.871 Y35.022
X-0.83 Y35.285
X-0.809 Y35.553
X-0.811 Y35.823
X-0.834 Y36.094
X-0.879 Y36.363
X-0.946 Y36.63
X-1.034 Y36.892
X-1.144 Y37.148
X-1.275 Y37.396
X-1.427 Y37.633
X-1.598 Y37.859
X-1.787 Y38.072
X-1.995 Y38.27
X-2.219 Y38.452
X-2.458 Y38.617
X-2.711 Y38.762
X-2.977 Y38.888
X-3.254 Y38.992
X-3.539 Y39.075
X-3.833 Y39.134
X-4.132 Y39.17
X-4.434 Y39.182
X-4.738 Y39.17
X-5.043 Y39.133
X-5.345 Y39.071
X-5.642 Y38.985
X-5.934 Y38.875
X-6.217 Y38.74
X-6.49 Y38.583
X-6.751 Y38.403
X-6.999 Y38.202
X-7.23 Y37.98
X-7.444 Y37.739
X-7.639 Y37.481
X-7.814 Y37.205
X-7.967 Y36.916
X-8.097 Y36.613
X-8.203 Y36.299
X-8.283 Y35.976
X-8.338 Y35.645
X-8.366 Y35.31
X-8.367 Y34.971
X-8.341 Y34.632
X-8.288 Y34.294
X-8.207 Y33.96
X-8.099 Y33.631
X-7.964 Y33.311
X-7.803 Y33
X-7.617 Y32.702
X-7.406 Y32.419
X-7.172 Y32.152
X-6.916 Y31.903
X-6.64 Y31.675
X-6.344 Y31.468
X-6.031 Y31.285
X-5.703 Y31.126
X-5.361 Y30.994
X-5.008 Y30.889
X-4.646 Y30.813
X-4.277 Y30.765
X-3.904 Y30.747
X-3.529 Y30.759
X-3.154 Y30.802
X-2.781 Y30.875
X-2.414 Y30.978
X-2.055 Y31.111
X-1.705 Y31.273
X-1.368 Y31.463
X-1.046 Y31.681
X-0.741 Y31.925
X-0.455 Y32.195
X-0.191 Y32.487
X0.05 Y32.802
X0.267 Y33.136
X0.457 Y33.489
X0.618 Y33.857
X0.75 Y34.239
X0.852 Y34.632
X0.922 Y35.033
X0.959 Y35.441
X0.964 Y35.853
X0.936 Y36.265
X0.874 Y36.676
X0.78 Y37.082
X0.652 Y37.481
X0.492 Y37.871
X0.3 Y38.248
X0.078 Y38.61
X-0.174 Y38.955
X-0.454 Y39.28
X-0.761 Y39.583
X-1.093 Y39.862
X-1.447 Y40.114
X-1.822 Y40.338
X-2.216 Y40.532
X-2.626 Y40.694
X-3.049 Y40.824
X-3.484 Y40.92
X-3.926 Y40.98
X-4.374 Y41.005
X-4.825 Y40.994
X-5.275 Y40.947
X-5.722 Y40.864
X-6.163 Y40.744
X-6.595 Y40.588
X-7.014 Y40.398
X-7.419 Y40.174
X-7.806 Y39.916
X-8.172 Y39.628
X-8.516 Y39.309
X-8.834 Y38.963
X-9.125 Y38.59
X-9.386 Y38.194
X-9.615 Y37.776
X-9.811 Y37.34
X-9.972 Y36.887
X-10.097 Y36.421
X-10.184 Y35.945
X-10.232 Y35.461
X-10.242 Y34.973
X-10.213 Y34.484
X-10.144 Y33.996
X-10.035 Y33.514
X-9.888 Y33.04
X-9.702 Y32.578
X-9.479 Y32.13
X-9.22 Y31.7
X-8.926 Y31.29
X-8.598 Y30.904
X-8.24 Y30.543
X-7.852 Y30.212
X-7.436 Y29.911
X-6.997 Y29.644
X-6.536 Y29.412
X-6.055 Y29.217
X-5.559 Y29.06
X-5.049 Y28.944
X-4.53 Y28.868
X-4.004 Y28.834
X-3.475 Y28.843
X-2.947 Y28.894
X-2.422 Y28.988
X-1.905 Y29.124
X-1.398 Y29.301
X-0.905 Y29.52
X-0.429 Y29.779
X0.026 Y30.076
X0.457 Y30.41
X0.861 Y30.778
X1.236 Y31.18
X1.579 Y31.612
X1.887 Y32.072
X2.159 Y32.556
X2.391 Y33.063
X2.583 Y33.589
X2.732 Y34.13
X2.838 Y34.684
X2.899 Y35.246
X2.915 Y35.814
X2.886 Y36.383
X2.81 Y36.949
X2.689 Y37.51
X2.523 Y38.062
X2.312 Y38.6
X2.057 Y39.121
X1.761 Y39.623
X1.424 Y40.1
X1.048 Y40.551
X0.636 Y40.971
X0.19 Y41.359
X-0.287 Y41.71
X-0.793 Y42.024
X-1.324 Y42.296
X-1.877 Y42.526
X-2.449 Y42.712
X-3.036 Y42.851
X-3.635 Y42.943
X-4.241 Y42.987
X-4.851 Y42.983
X-5.461 Y42.929
X-6.066 Y42.826
X-6.663 Y42.674
X-7.248 Y42.474
X-7.817 Y42.227
X-8.366 Y41.934
X-8.892 Y41.597
X-9.39 Y41.218
X-9.858 Y40.798
X-10.293 Y40.341
X-10.69 Y39.848
X-11.048 Y39.324
X-11.364 Y38.771
X-11.635 Y38.192
X-11.86 Y37.591
X-12.036 Y36.973
X-12.162 Y36.34
X-12.238 Y35.697
X-12.261 Y35.048
X-12.233 Y34.397
X-12.152 Y33.748
X-12.018 Y33.106
X-11.833 Y32.474
X-11.598 Y31.858
X-11.312 Y31.26
X-10.979 Y30.685
X-10.599 Y30.138
X-10.175 Y29.621
X-9.709 Y29.137
X-9.205 Y28.692
X-8.665 Y28.287
X-8.092 Y27.926
X-7.49 Y27.61
X-6.863 Y27.344
X-6.214 Y27.127
X-5.548 Y26.963
X-4.869 Y26.853
X-4.18 Y26.797
X-3.488
X-2.796 Y26.852
X-2.108 Y26.964
X-1.429 Y27.13
X-0.763 Y27.351
X-0.116 Y27.626
X0.509 Y27.953
X1.108 Y28.33
X1.676 Y28.755
X2.21 Y29.226
X2.706 Y29.74
X3.16 Y30.293
X3.57 Y30.883
X3.932 Y31.506
X4.244 Y32.157
X4.503 Y32.834
X4.708 Y33.531
X4.857 Y34.245
X4.948 Y34.97
X4.981 Y35.702
X4.954 Y36.437
X4.869 Y37.169
X4.725 Y37.895
X4.522 Y38.608
X4.262 Y39.305
X3.946 Y39.981
X3.576 Y40.632
X3.153 Y41.252
X2.681 Y41.838
X2.161 Y42.386
X1.598 Y42.892
X0.994 Y43.352
X0.353 Y43.764
X-0.32 Y44.124
X-1.023 Y44.429
X-1.75 Y44.678
X-2.496 Y44.869
X-3.258 Y44.999
X-4.03 Y45.068
X-4.807 Y45.074
X-5.584 Y45.018
X-6.356 Y44.9
X-7.119 Y44.72
X-7.866 Y44.478
X-8.594 Y44.176
X-9.298 Y43.816
X-9.972 Y43.399
X-10.612 Y42.928
X-11.214 Y42.406
X-11.773 Y41.836
X-12.287 Y41.221
X-12.75 Y40.565
X-13.161 Y39.872
X-13.516 Y39.147
X-13.812 Y38.393
X-14.047 Y37.616
X-14.22 Y36.82
X-14.328 Y36.011
X-14.371 Y35.193
X-14.349 Y34.373
X-14.26 Y33.554
X-14.106 Y32.744
X-13.886 Y31.946
X-13.603 Y31.166
X-13.257 Y30.41
X-12.85 Y29.682
X-12.385 Y28.987
X-11.864 Y28.33
X-11.291 Y27.715
X-10.668 Y27.146
X-10 Y26.628
X-9.291 Y26.165
X-8.545 Y25.758
X-7.767 Y25.412
X-6.961 Y25.128
X-6.133 Y24.91
X-6.025 Y24.891
X-5.957 Y24.88
X-5.889 Y24.873
X-5.821 Y24.869
X-5.136 Y24.849
X-3.727 Y24.813
X-2.841 Y24.836
X-2.111 Y24.899
X-1.353 Y25.026
X-0.581 Y25.22
X0.192 Y25.482
X0.957 Y25.812
X1.703 Y26.208
X2.424 Y26.668
X3.113 Y27.189
X3.762 Y27.769
X4.367 Y28.402
X4.921 Y29.086
X5.422 Y29.815
X5.862 Y30.584
X6.24 Y31.386
X6.553 Y32.215
X6.8 Y33.066
X6.978 Y33.934
X7.087 Y34.813
X7.126 Y35.698
X7.096 Y36.584
X6.997 Y37.465
X6.829 Y38.335
X6.594 Y39.189
X6.293 Y40.022
X5.927 Y40.83
X5.501 Y41.606
X5.015 Y42.347
X4.474 Y43.049
X3.88 Y43.707
X3.238 Y44.317
X2.551 Y44.877
X1.823 Y45.383
X1.36 Y45.655
X1.151 Y45.756
X0.928 Y45.82
X0.697 Y45.847
X-3.727 Y45.995
X-3.928 Y46
X-7.349 Y46.067
X-7.966 Y46.048
X-8.426 Y45.996
X-8.929 Y45.899
X-9.493 Y45.742
X-10.056 Y45.536
X-10.67 Y45.252
X-11.316 Y44.889
X-11.962 Y44.453
X-12.586 Y43.955
X-13.204 Y43.376
X-13.797 Y42.722
X-14.338 Y42.02
X-14.823 Y41.278
X-15.25 Y40.501
X-15.618 Y39.695
X-15.926 Y38.864
X-16.173 Y38.013
X-16.357 Y37.147
X-16.477 Y36.269
X-16.532 Y35.384
X-16.523 Y34.498
X-16.45 Y33.615
X-16.315 Y32.739
X-16.119 Y31.875
X-15.863 Y31.027
X-15.548 Y30.199
X-15.174 Y29.395
X-14.743 Y28.621
X-14.258 Y27.879
X-13.722 Y27.173
X-13.139 Y26.507
X-12.51 Y25.882
X-11.944 Y25.392
X-11.685 Y25.215
X-11.394 Y25.099
X-11.084 Y25.052
X-9.16 Y24.974
X-8.557 Y24.953
X-5.821 Y24.869
G3 X-5.566 Y24.918 I0.018 J0.6
G1 X-5.497 Y24.942
X-5.426 Y24.958
X-5.053 Y25.02
X-4.705 Y25.077
G2 X-4.288 Y24.993 I0.097 J-0.592
G3 X-3.727 Y24.813 I0.632 J1.005
G1 X-1.514 Y24.759
X-1.111 Y24.75
X1.102 Y24.708
X1.478 Y24.72
X1.837 Y24.76
X2.226 Y24.836
X2.656 Y24.955
X3.126 Y25.129
X3.638 Y25.365
X4.164 Y25.661
X4.744 Y26.052
X5.323 Y26.515
X5.895 Y27.053
X6.472 Y27.689
X7.012 Y28.391
X7.497 Y29.133
X7.926 Y29.909
X8.299 Y30.713
X8.612 Y31.541
X8.867 Y32.39
X9.063 Y33.254
X9.202 Y34.129
X9.283 Y35.012
X9.306 Y35.898
X9.269 Y36.783
X9.173 Y37.664
X9.018 Y38.536
X8.807 Y39.397
X8.541 Y40.242
X8.222 Y41.069
X7.849 Y41.872
X7.422 Y42.649
X6.946 Y43.396
X6.422 Y44.111
X5.854 Y44.792
X5.401 Y45.27
X5.199 Y45.446
X4.967 Y45.58
X4.714 Y45.667
X4.449 Y45.705
X3.517 Y45.748
X2.913 Y45.773
X0.697 Y45.847
G3 X0.442 Y45.799 I-0.02 J-0.6
G1 X0.366 Y45.773
X0.288 Y45.757
X0.208 Y45.751
X-0.075
X-6.282 Y45.74
G2 X-6.6 Y45.831 I-0.001 J0.6
G3 X-7.349 Y46.067 I-0.835 J-1.344
G1 X-10.166 Y46.121
X-10.569 Y46.128
X-10.971 Y46.13
X-11.414 Y46.111
X-11.725 Y46.072
X-12.068 Y46.001
X-12.462 Y45.885
X-12.864 Y45.731
X-13.331 Y45.509
X-13.8 Y45.236
X-14.313 Y44.881
X-14.861 Y44.431
X-15.39 Y43.921
X-15.934 Y43.306
X-16.466 Y42.596
X-16.939 Y41.848
X-17.357 Y41.066
X-17.72 Y40.258
X-18.028 Y39.427
X-18.279 Y38.577
X-18.473 Y37.712
X-18.612 Y36.837
X-18.697 Y35.955
X-18.727 Y35.07
X-18.704 Y34.184
X-18.626 Y33.301
X-18.493 Y32.425
X-18.307 Y31.558
X-18.069 Y30.705
X-17.781 Y29.867
X-17.444 Y29.048
X-17.058 Y28.25
X-16.623 Y27.478
X-16.142 Y26.734
X-15.616 Y26.02
X-15.339 Y25.686
X-15.129 Y25.482
X-14.882 Y25.326
X-14.608 Y25.224
X-14.319 Y25.182
X-11.084 Y25.052
G3 X-10.502 Y25.493 I0.003 J0.6
G1 X-10.477 Y25.584 Z-6.993
X-10.453 Y25.672 Z-6.971
X-10.43 Y25.756 Z-6.935
X-10.409 Y25.833 Z-6.885
X-10.39 Y25.903 Z-6.824
X-10.374 Y25.962 Z-6.753
X-10.361 Y26.009 Z-6.672
X-10.351 Y26.044 Z-6.585
X-10.346 Y26.065 Z-6.494
X-10.344 Y26.072 Z-6.4
G0 Z-5.8
X-0.157 Y25.26
G1 Z-6.4 F1000
X-0.151 Y25.256 Z-6.494
X-0.132 Y25.244 Z-6.585
X-0.101 Y25.225 Z-6.672
X-0.059 Y25.2 Z-6.753
X-0.008 Y25.167 Z-6.824
X0.053 Y25.13 Z-6.885
X0.122 Y25.087 Z-6.935
X0.195 Y25.041 Z-6.971
X0.273 Y24.993 Z-6.993
X0.353 Y24.944 Z-7
G3 X1.102 Y24.708 I0.834 J1.345
G1 X2.31 Y24.686
X4.121 Y24.661
X4.486 Y24.674
X4.767 Y24.707
X5.092 Y24.772
X5.423 Y24.867
X5.817 Y25.014
X6.211 Y25.198
X6.669 Y25.46
X7.119 Y25.767
X7.623 Y26.174
X8.141 Y26.667
X8.652 Y27.237
X9.171 Y27.918
X9.649 Y28.664
X10.07 Y29.444
X10.434 Y30.252
X10.745 Y31.081
X11.003 Y31.929
X11.207 Y32.792
X11.358 Y33.665
X11.457 Y34.545
X11.505 Y35.43
X11.501 Y36.316
X11.448 Y37.201
X11.345 Y38.081
X11.19 Y38.953
X10.986 Y39.816
X10.734 Y40.665
X10.434 Y41.499
X10.088 Y42.315
X9.697 Y43.11
X9.263 Y43.883
X8.785 Y44.629
X8.526 Y44.988
X8.314 Y45.221
X8.057 Y45.4
X7.765 Y45.517
X7.455 Y45.567
X4.449 Y45.705
G3 X3.865 Y45.267 I-0.007 J-0.6
G1 X3.839 Y45.177 Z-6.993
X3.815 Y45.088 Z-6.971
X3.791 Y45.005 Z-6.935
X3.77 Y44.927 Z-6.885
X3.75 Y44.858 Z-6.824
X3.734 Y44.799 Z-6.753
X3.721 Y44.752 Z-6.672
X3.711 Y44.717 Z-6.585
X3.705 Y44.696 Z-6.494
X3.703 Y44.689 Z-6.4
G0 Z-5.8
X-9.705 Y45.594
G1 Z-6.4 F1000
X-9.712 Y45.598 Z-6.494
X-9.73 Y45.61 Z-6.585
X-9.761 Y45.628 Z-6.672
X-9.803 Y45.654 Z-6.753
X-9.856 Y45.685 Z-6.824
X-9.917 Y45.722 Z-6.885
X-9.986 Y45.764 Z-6.935
X-10.06 Y45.809 Z-6.971
X-10.139 Y45.856 Z-6.993
X-10.219 Y45.904 Z-7
G3 X-10.971 Y46.13 I-0.817 J-1.355
G1 X-13.99 Y46.149
X-14.18 Y46.14
X-14.457 Y46.106
X-14.749 Y46.045
X-15.074 Y45.95
X-15.439 Y45.81
X-15.814 Y45.631
X-16.244 Y45.382
X-16.674 Y45.084
X-17.144 Y44.698
X-17.643 Y44.217
X-18.13 Y43.665
X-18.631 Y42.997
X-19.104 Y42.247
X-19.518 Y41.464
X-19.876 Y40.653
X-20.18 Y39.821
X-20.433 Y38.972
X-20.633 Y38.109
X-20.783 Y37.235
X-20.883 Y36.355
X-20.934 Y35.47
X-20.937 Y34.584
X-20.892 Y33.699
X-20.801 Y32.818
X-20.663 Y31.942
X-20.478 Y31.076
X-20.247 Y30.22
X-19.971 Y29.378
X-19.651 Y28.552
X-19.289 Y27.743
X-18.885 Y26.954
X-18.44 Y26.188
X-18.262 Y25.921
X-18.097 Y25.718
X-17.897 Y25.55
X-17.67 Y25.422
X-17.423 Y25.338
X-17.165 Y25.301
X-16.606 Y25.275
X-14.319 Y25.182
G3 X-13.737 Y25.624 I0.003 J0.6
G1 X-13.712 Y25.714 Z-6.993
X-13.688 Y25.803 Z-6.971
X-13.665 Y25.887 Z-6.935
X-13.644 Y25.964 Z-6.885
X-13.625 Y26.033 Z-6.824
X-13.609 Y26.092 Z-6.753
X-13.596 Y26.139 Z-6.672
X-13.586 Y26.174 Z-6.585
X-13.58 Y26.195 Z-6.494
X-13.578 Y26.203 Z-6.4
G0 Z-5.8
X2.859 Y25.206
G1 Z-6.4 F1000
X2.865 Y25.202 Z-6.494
X2.884 Y25.191 Z-6.585
X2.914 Y25.172 Z-6.672
X2.956 Y25.146 Z-6.753
X3.008 Y25.114 Z-6.824
X3.069 Y25.077 Z-6.885
X3.138 Y25.035 Z-6.935
X3.212 Y24.989 Z-6.971
X3.29 Y24.941 Z-6.993
X3.37 Y24.892 Z-7
G3 X4.121 Y24.661 I0.827 J1.349
G1 X5.529 Y24.642
X6.334 Y24.635
X6.938 Y24.631
X7.129 Y24.639
X7.391 Y24.672
X7.669 Y24.73
X7.997 Y24.826
X8.324 Y24.951
X8.707 Y25.134
X9.094 Y25.359
X9.532 Y25.662
X9.964 Y26.017
X10.441 Y26.476
X10.926 Y27.025
X11.404 Y27.663
X11.877 Y28.413
X12.289 Y29.197
X12.645 Y30.009
X12.948 Y30.842
X13.199 Y31.691
X13.401 Y32.554
X13.555 Y33.427
X13.661 Y34.306
X13.72 Y35.191
X13.732 Y36.077
X13.699 Y36.962
X13.621 Y37.845
X13.499 Y38.723
X13.334 Y39.593
X13.126 Y40.455
X12.875 Y41.304
X12.581 Y42.14
X12.247 Y42.961
X11.872 Y43.764
X11.458 Y44.548
X11.313 Y44.781
X11.15 Y44.995
X10.948 Y45.174
X10.717 Y45.311
X10.463 Y45.401
X10.197 Y45.441
X7.455 Y45.567
G3 X6.849 Y44.982 I-0.007 J-0.6
G1 X6.363 Y25.245
G3 X6.938 Y24.631 I0.6 J-0.015
G1 X9.352 Y24.616
X9.612 Y24.628
X9.845 Y24.657
X10.118 Y24.713
X10.415 Y24.8
X10.731 Y24.921
X11.09 Y25.093
X11.449 Y25.301
X11.863 Y25.588
X12.269 Y25.921
X12.712 Y26.348
X13.176 Y26.873
X13.628 Y27.477
X14.09 Y28.209
X14.501 Y28.994
X14.855 Y29.807
X15.155 Y30.64
X15.405 Y31.49
X15.608 Y32.353
X15.765 Y33.225
X15.877 Y34.104
X15.945 Y34.988
X15.97 Y35.873
X15.953 Y36.759
X15.896 Y37.644
X15.799 Y38.525
X15.662 Y39.4
X15.487 Y40.269
X15.274 Y41.129
X15.022 Y41.978
X14.732 Y42.816
X14.406 Y43.639
X14.077 Y44.358
X13.954 Y44.577
X13.794 Y44.807
X13.59 Y45
X13.352 Y45.149
X13.09 Y45.247
X12.812 Y45.291
X10.27 Y45.437
X10.197 Y45.441
G3 X9.587 Y44.865 I-0.01 J-0.6
G1 X8.778 Y25.241
G3 X9.352 Y24.616 I0.599 J-0.025
G1 X11.767 Y24.602
X11.985 Y24.611
X12.214 Y24.64
X12.486 Y24.696
X12.761 Y24.777
X13.077 Y24.898
X13.408 Y25.056
X13.768 Y25.265
X14.154 Y25.532
X14.557 Y25.863
X14.977 Y26.267
X15.427 Y26.777
X15.869 Y27.367
X16.317 Y28.077
X16.728 Y28.862
X17.08 Y29.675
X17.379 Y30.51
X17.628 Y31.36
X17.831 Y32.223
X17.989 Y33.095
X18.105 Y33.973
X18.18 Y34.856
X18.214 Y35.742
X18.21 Y36.628
X18.167 Y37.513
X18.088 Y38.395
X17.973 Y39.274
X17.822 Y40.147
X17.636 Y41.014
X17.416 Y41.872
X17.161 Y42.721
X16.87 Y43.558
X16.604 Y44.183
X16.491 Y44.399
X16.332 Y44.639
X16.127 Y44.841
X15.885 Y44.998
X15.616 Y45.101
X15.331 Y45.147
X12.812 Y45.291
G3 X12.2 Y44.722 I-0.013 J-0.6
G1 X11.193 Y25.232
G3 X11.767 Y24.602 I0.599 J-0.031
G1 X12.371 Y24.598
X12.975 Y24.597
X14.182 Y24.599
X14.338 Y24.608
X14.488 Y24.617
X14.637 Y24.634
X14.785 Y24.659
X14.932 Y24.69
X15.077 Y24.729
X15.22 Y24.773
X15.361 Y24.824
X15.501 Y24.879
X15.638 Y24.939
X15.773 Y25.005
X15.906 Y25.075
X16.036 Y25.148
X16.165 Y25.226
X16.291 Y25.307
X16.415 Y25.392
X16.536 Y25.48
X16.655 Y25.571
X16.772 Y25.665
X16.887 Y25.762
X16.999 Y25.861
X17.109 Y25.963
X17.217 Y26.067
X17.323 Y26.174
X17.426 Y26.282
X17.528 Y26.393
X17.627 Y26.505
X17.724 Y26.619
X17.819 Y26.735
X17.912 Y26.853
X18.003 Y26.972
X18.092 Y27.093
X18.179 Y27.215
X18.264 Y27.339
X18.348 Y27.464
X18.429 Y27.59
X18.508 Y27.717
X18.586 Y27.845
X18.662 Y27.975
X18.736 Y28.105
X18.808 Y28.237
X18.879 Y28.369
X18.948 Y28.502
X19.015 Y28.636
X19.08 Y28.771
X19.144 Y28.907
X19.207 Y29.043
X19.268 Y29.18
X19.327 Y29.318
X19.385 Y29.457
X19.441 Y29.596
X19.495 Y29.735
X19.548 Y29.876
X19.6 Y30.016
X19.651 Y30.158
X19.699 Y30.3
X19.747 Y30.442
X19.793 Y30.585
X19.837 Y30.728
X19.881 Y30.872
X19.923 Y31.016
X19.963 Y31.16
X20.003 Y31.305
X20.04 Y31.45
X20.077 Y31.595
X20.112 Y31.741
X20.147 Y31.887
X20.18 Y32.033
X20.211 Y32.18
X20.242 Y32.327
X20.271 Y32.474
X20.299 Y32.621
X20.326 Y32.771
X20.351 Y32.919
X20.376 Y33.067
X20.399 Y33.215
X20.421 Y33.363
X20.441 Y33.512
X20.462 Y33.667
X20.481 Y33.821
X20.498 Y33.97
X20.515 Y34.119
X20.53 Y34.269
X20.544 Y34.42
X20.557 Y34.58
X20.57 Y34.748
X20.581 Y34.898
X20.59 Y35.048
X20.598 Y35.198
X20.606 Y35.353
X20.612 Y35.518
X20.618 Y35.694
X20.622 Y35.848
X20.625 Y35.998
X20.626 Y36.149
X20.627 Y36.309
X20.626 Y36.479
X20.624 Y36.66
X20.62 Y36.822
X20.616 Y36.972
X20.611 Y37.128
X20.604 Y37.292
X20.596 Y37.467
X20.585 Y37.653
X20.575 Y37.816
X20.564 Y37.968
X20.552 Y38.127
X20.537 Y38.297
X20.521 Y38.476
X20.501 Y38.667
X20.484 Y38.825
X20.467 Y38.98
X20.446 Y39.144
X20.424 Y39.318
X20.398 Y39.503
X20.371 Y39.692
X20.348 Y39.845
X20.322 Y40.004
X20.294 Y40.172
X20.263 Y40.351
X20.228 Y40.542
X20.194 Y40.717
X20.165 Y40.868
X20.132 Y41.026
X20.096 Y41.194
X20.057 Y41.373
X20.013 Y41.563
X19.976 Y41.721
X19.94 Y41.867
X19.904 Y42.012
X19.866 Y42.157
X19.826 Y42.306
X19.784 Y42.456
X19.743 Y42.6
X19.7 Y42.744
X19.656 Y42.887
X19.611 Y43.03
X19.564 Y43.173
X19.515 Y43.315
X19.464 Y43.456
X19.411 Y43.596
X19.356 Y43.736
X19.299 Y43.874
X19.239 Y44.012
X19.176 Y44.148
X19.149 Y44.205
X18.993 Y44.454
X18.789 Y44.665
X18.546 Y44.829
X18.274 Y44.938
X17.984 Y44.989
X17.603 Y45.014
X16.798 Y45.063
X15.331 Y45.147
G3 X14.719 Y44.582 I-0.013 J-0.6
G1 X13.603 Y25.234
G3 X14.182 Y24.599 I0.599 J-0.035
G1 X16.597 Y24.605
X16.784 Y24.614
X17.013 Y24.645
X17.264 Y24.699
X17.539 Y24.782
X17.838 Y24.9
X18.236 Y25.094
X18.664 Y25.21
X19.55 Y25.245
X20.413 Y25.044
X21.244 Y24.738
X21.265 Y24.73
X21.437 Y24.674
X21.614 Y24.641
X21.795 Y24.63
G3 X21.766 Y25.83 I-0.026 J0.599
G1 X16.613 Y25.804
G3 X16.597 Y24.605 I0.003 J-0.6
G1 X19.011 Y24.61
X19.816 Y24.615
X25.853 Y24.663
X26.255 Y24.666
X26.405 Y24.675
X26.609 Y24.705
X26.852 Y24.761
X27.054 Y24.825
X27.236 Y24.899
X27.448 Y25.006
X27.693 Y25.155
X27.846 Y25.266
X28.017 Y25.413
X28.21 Y25.607
X28.377 Y25.805
X28.503 Y25.979
X28.637 Y26.202
X28.777 Y26.484
X28.853 Y26.674
X28.926 Y26.911
X28.992 Y27.203
X29.028 Y27.46
X29.042 Y27.695
X29.036 Y27.98
X29.005 Y28.283
X28.964 Y28.504
X28.894 Y28.766
X28.784 Y29.076
X28.69 Y29.283
X28.566 Y29.51
X28.394 Y29.771
X28.228 Y29.983
X28.061 Y30.164
X27.842 Y30.366
X27.603 Y30.555
X27.407 Y30.684
X27.16 Y30.821
X26.853 Y30.96
X26.643 Y31.036
X26.382 Y31.106
X25.947 Y31.187
X25.527 Y31.329
X24.802 Y31.838
X24.282 Y32.556
X23.916 Y33.363
X23.656 Y34.21
X23.465 Y35.075
X23.317 Y35.949
X23.19 Y36.826
X23.069 Y37.703
X22.944 Y38.581
X22.806 Y39.456
X22.652 Y40.329
X22.475 Y41.197
X22.272 Y42.06
X22.033 Y42.913
X21.796 Y43.596
X21.623 Y43.99
X21.47 Y44.253
X21.265 Y44.478
X21.016 Y44.652
X20.735 Y44.769
X20.436 Y44.823
X17.984 Y44.989
G3 X17.391 Y44.563 I-0.02 J-0.6
G1 X17.363 Y44.473 Z-6.993
X17.337 Y44.386 Z-6.971
X17.312 Y44.303 Z-6.935
X17.288 Y44.226 Z-6.885
X17.267 Y44.157 Z-6.824
X17.25 Y44.099 Z-6.753
X17.235 Y44.052 Z-6.672
X17.225 Y44.017 Z-6.585
X17.219 Y43.996 Z-6.494
X17.216 Y43.989 Z-6.4
G0 Z-5.8
X25.17 Y25.129
G1 Z-6.4 F1000
X25.176 Y25.125 Z-6.494
X25.195 Y25.114 Z-6.585
X25.227 Y25.096 Z-6.672
X25.269 Y25.071 Z-6.753
X25.322 Y25.04 Z-6.824
X25.384 Y25.004 Z-6.885
X25.453 Y24.964 Z-6.935
X25.528 Y24.92 Z-6.971
X25.608 Y24.874 Z-6.993
X25.689 Y24.827 Z-7
G3 X26.255 Y24.666 I0.597 J1.026
G1 X27.976 Y24.685
X28.127 Y24.694
X28.276 Y24.715
X28.429 Y24.75
X28.6 Y24.803
X28.773 Y24.872
X28.946 Y24.959
X29.125 Y25.067
X29.309 Y25.199
X29.487 Y25.35
X29.663 Y25.525
X29.832 Y25.723
X29.992 Y25.944
X30.138 Y26.185
X30.272 Y26.451
X30.387 Y26.734
X30.482 Y27.037
X30.556 Y27.36
X30.605 Y27.695
X30.626 Y28.036
X30.621 Y28.385
X30.586 Y28.746
X30.521 Y29.109
X30.426 Y29.469
X30.3 Y29.828
X30.141 Y30.185
X29.955 Y30.526
X29.74 Y30.855
X29.493 Y31.174
X29.222 Y31.472
X28.928 Y31.746
X28.234 Y32.296
X27.614 Y32.93
X27.103 Y33.653
X26.69 Y34.437
X26.356 Y35.258
X26.084 Y36.101
X25.854 Y36.957
X25.651 Y37.819
X25.462 Y38.685
X25.278 Y39.552
X25.089 Y40.418
X24.888 Y41.281
X24.667 Y42.139
X24.413 Y42.988
X24.192 Y43.578
X24.063 Y43.854
X23.908 Y44.108
X23.704 Y44.324
X23.458 Y44.492
X23.183 Y44.605
X22.89 Y44.656
X20.436 Y44.823
G3 X19.859 Y44 I-0.02 J-0.6
G1 X27.401 Y25.141
X27.433 Y25.062
G3 X27.976 Y24.685 I0.557 J0.223
G1 X29.475 Y24.701
X29.649 Y24.711
X29.799 Y24.722
X29.947 Y24.744
X30.093 Y24.779
X30.236 Y24.824
X30.375 Y24.879
X30.511 Y24.943
X30.643 Y25.014
X30.771 Y25.093
X30.894 Y25.179
X31.013 Y25.271
X31.126 Y25.368
X31.236 Y25.471
X31.34 Y25.579
X31.44 Y25.691
X31.534 Y25.807
X31.624 Y25.927
X31.709 Y26.051
X31.789 Y26.178
X31.864 Y26.308
X31.935 Y26.44
X32 Y26.575
X32.061 Y26.712
X32.117 Y26.851
X32.169 Y26.992
X32.215 Y27.135
X32.257 Y27.279
X32.295 Y27.424
X32.328 Y27.57
X32.356 Y27.717
X32.38 Y27.866
X32.4 Y28.014
X32.415 Y28.163
X32.426 Y28.313
X32.433 Y28.463
X32.436 Y28.613
X32.434 Y28.763
X32.429 Y28.913
X32.419 Y29.062
X32.405 Y29.212
X32.388 Y29.361
X32.366 Y29.509
X32.341 Y29.657
X32.312 Y29.804
X32.279 Y29.951
X32.243 Y30.096
X32.203 Y30.241
X32.159 Y30.384
X32.112 Y30.527
X32.062 Y30.668
X32.008 Y30.808
X31.951 Y30.947
X31.89 Y31.084
X31.826 Y31.22
X31.759 Y31.354
X31.689 Y31.486
X31.616 Y31.617
X31.54 Y31.747
X31.461 Y31.874
X31.381 Y32.001
X31.299 Y32.126
X31.05 Y32.5
X30.553 Y33.233
X30.085 Y33.986
X29.665 Y34.766
X29.297 Y35.572
X28.976 Y36.398
X28.693 Y37.238
X28.439 Y38.087
X28.204 Y38.941
X27.979 Y39.798
X27.868 Y40.227
X27.699 Y40.867
X27.617 Y41.167
X27.55 Y41.408
X27.474 Y41.672
X27.417 Y41.865
X27.374 Y42.008
X27.328 Y42.157
X27.282 Y42.3
X27.235 Y42.442
X27.187 Y42.584
X27.137 Y42.726
X27.086 Y42.867
X27.033 Y43.007
X26.978 Y43.147
X26.921 Y43.285
X26.861 Y43.423
X26.799 Y43.559
X26.746 Y43.67
X26.593 Y43.919
X26.392 Y44.131
X26.15 Y44.296
X25.88 Y44.408
X25.592 Y44.461
X24.444 Y44.55
X24.243 Y44.564
X22.89 Y44.656
G3 X22.304 Y43.857 I-0.02 J-0.6
G1 X28.903 Y25.158
X28.924 Y25.101
G3 X29.475 Y24.701 I0.566 J0.2
G1 X31.195 Y24.719
X31.345 Y24.728
X31.495 Y24.741
X31.643 Y24.766
X31.788 Y24.802
X31.931 Y24.848
X32.07 Y24.903
X32.207 Y24.967
X32.339 Y25.037
X32.467 Y25.115
X32.591 Y25.199
X32.711 Y25.289
X32.827 Y25.385
X32.938 Y25.485
X33.045 Y25.591
X33.147 Y25.7
X33.246 Y25.814
X33.339 Y25.931
X33.897 Y26.619
X34.625 Y27.124
X35.433 Y27.489
X36.279 Y27.751
X37.146 Y27.937
X38.022 Y28.069
X38.903 Y28.162
X39.787 Y28.228
X40.672 Y28.274
X41.557 Y28.307
X42.443 Y28.33
X43.329 Y28.346
X44.215 Y28.357
X45.101 Y28.365
X45.987 Y28.371
X46.874 Y28.375
X48.646 Y28.379
X51.747 Y28.383
X52.035
X52.179 Y28.424
X52.312 Y28.493
X52.437 Y28.576
X52.554 Y28.67
X52.664 Y28.772
X52.768 Y28.88
X52.866 Y28.994
X52.958 Y29.112
X53.045 Y29.234
X53.128 Y29.359
X53.206 Y29.487
X53.279 Y29.618
X53.349 Y29.751
X53.415 Y29.886
X53.477 Y30.022
X53.536 Y30.16
X53.592 Y30.299
X53.645 Y30.44
X53.695 Y30.581
X53.742 Y30.723
X53.787 Y30.867
X53.83 Y31.01
X53.87 Y31.155
X53.908 Y31.3
X53.945 Y31.445
X53.979 Y31.591
X54.011 Y31.738
X54.042 Y31.885
X54.072 Y32.032
X54.099 Y32.179
X54.126 Y32.327
X54.151 Y32.475
X54.174 Y32.623
X54.197 Y32.771
X54.229 Y32.998
X54.239 Y33.072
X54.188 Y33.213
X54.115 Y33.344
X54.028 Y33.467
X53.933 Y33.582
X53.829 Y33.691
X53.719 Y33.793
X53.604 Y33.89
X53.485 Y33.981
X53.362 Y34.066
X53.236 Y34.148
X53.107 Y34.224
X52.976 Y34.297
X52.843 Y34.366
X52.707 Y34.431
X52.57 Y34.492
X52.432 Y34.55
X52.293 Y34.605
X52.152 Y34.657
X52.01 Y34.707
X51.868 Y34.754
X51.725 Y34.798
X51.581 Y34.84
X51.436 Y34.88
X51.291 Y34.918
X51.145 Y34.953
X50.999 Y34.987
X50.853 Y35.019
X50.706 Y35.05
X50.558 Y35.079
X50.411 Y35.106
X50.263 Y35.132
X50.115 Y35.157
X49.967 Y35.18
X49.819 Y35.202
X49.669 Y35.224
X49.51 Y35.245
X49.342 Y35.266
X49.163 Y35.288
X48.972 Y35.309
X48.766 Y35.33
X48.545 Y35.352
X48.305 Y35.373
X48.043 Y35.395
X47.755 Y35.417
X47.435 Y35.438
X47.075 Y35.46
X46.664 Y35.481
X46.186 Y35.503
X45.615 Y35.525
X44.907 Y35.547
X44.021 Y35.567
X43.135 Y35.582
X42.249 Y35.592
X41.363 Y35.599
X40.477 Y35.604
X39.591 Y35.608
X37.97 Y35.612
X37.825 Y35.571
X37.691 Y35.503
X37.566 Y35.42
X37.449 Y35.327
X37.339 Y35.225
X37.235 Y35.117
X37.137 Y35.004
X37.044 Y34.885
X36.957 Y34.763
X36.874 Y34.638
X36.796 Y34.51
X36.723 Y34.379
X36.653 Y34.247
X36.587 Y34.112
X36.525 Y33.975
X36.437 Y33.772
X36.319 Y33.584
X36.173 Y33.418
X36.002 Y33.277
X35.811 Y33.165
X35.605 Y33.084
X35.389 Y33.036
X35.167 Y33.024
X34.947 Y33.046
X34.733 Y33.103
X34.53 Y33.193
X33.788 Y33.676
X33.247 Y34.378
X32.76 Y35.118
X32.27 Y35.857
X31.843 Y36.633
X31.47 Y37.437
X31.138 Y38.258
X30.838 Y39.092
X30.558 Y39.933
X30.288 Y40.777
X30.015 Y41.62
X29.726 Y42.458
X29.438 Y43.183
X29.288 Y43.486
X29.134 Y43.731
X28.933 Y43.939
X28.693 Y44.101
X28.426 Y44.21
X28.142 Y44.262
X25.592 Y44.461
G3 X24.993 Y43.687 I-0.026 J-0.599
G1 X30.626 Y25.178
X30.636 Y25.144
G3 X31.195 Y24.719 I0.574 J0.175
G1 X32.896 Y24.737
X33.289 Y24.762
X34.167 Y24.886
X35.036 Y25.06
X35.905 Y25.23
X36.778 Y25.383
X37.655 Y25.512
X38.535 Y25.618
X39.417 Y25.703
X40.3 Y25.77
X41.185 Y25.823
X42.07 Y25.863
X42.956 Y25.893
X43.841 Y25.916
X44.727 Y25.934
X45.613 Y25.947
X46.499 Y25.957
X47.386 Y25.964
X48.272 Y25.969
X50.044 Y25.976
X50.676 Y26.012
X51.169 Y26.08
X51.598 Y26.174
X51.998 Y26.297
X52.376 Y26.447
X52.743 Y26.627
X53.1 Y26.841
X53.451 Y27.091
X53.799 Y27.383
X54.141 Y27.721
X54.481 Y28.116
X54.818 Y28.577
X55.152 Y29.121
X55.482 Y29.771
X55.772 Y30.477
X55.925 Y30.954
X56.012 Y31.327
X56.064 Y31.678
X56.086 Y32
X56.083 Y32.31
X56.054 Y32.614
X56.002 Y32.915
X55.924 Y33.217
X55.82 Y33.518
X55.686 Y33.823
X55.521 Y34.128
X55.321 Y34.437
X55.082 Y34.749
X54.799 Y35.062
X54.463 Y35.379
X54.066 Y35.697
X53.594 Y36.016
X53.03 Y36.334
X52.346 Y36.652
X51.514 Y36.959
X50.662 Y37.2
X49.796 Y37.389
X48.922 Y37.536
X48.043 Y37.65
X47.162 Y37.738
X46.278 Y37.806
X45.393 Y37.858
X44.508 Y37.898
X43.623 Y37.928
X42.737 Y37.951
X41.851 Y37.968
X40.965 Y37.98
X40.079 Y37.99
X39.419 Y37.967
X38.923 Y37.91
X38.487 Y37.824
X38.09 Y37.712
X37.675 Y37.558
X37.237 Y37.491
X36.354 Y37.566
X35.549 Y37.937
X34.855 Y38.488
X34.264 Y39.148
X33.758 Y39.875
X33.315 Y40.643
X32.915 Y41.434
X32.537 Y42.235
X32.149 Y43.032
X31.973 Y43.344
X31.816 Y43.567
X31.618 Y43.756
X31.387 Y43.903
X31.133 Y44.002
X30.864 Y44.05
X28.142 Y44.262
G3 X27.535 Y43.511 I-0.026 J-0.599
G1 X32.327 Y25.196
X32.33 Y25.185
G3 X32.896 Y24.737 I0.58 J0.152
G1 X40.341 Y24.82
X44.969 Y24.867
X48.39 Y24.9
X52.012 Y24.928
X52.344 Y24.948
X52.682 Y24.995
X53.041 Y25.074
X53.428 Y25.194
X53.817 Y25.349
X54.219 Y25.548
X54.644 Y25.802
X55.07 Y26.107
X55.491 Y26.462
X55.931 Y26.898
X56.37 Y27.41
X56.772 Y27.961
X57.115 Y28.523
X57.397 Y29.08
X57.621 Y29.63
X57.794 Y30.172
X57.916 Y30.701
X57.993 Y31.219
X58.027 Y31.73
X58.02 Y32.236
X57.973 Y32.738
X57.885 Y33.237
X57.756 Y33.733
X57.584 Y34.225
X57.37 Y34.71
X57.112 Y35.188
X56.802 Y35.665
X56.436 Y36.141
X56.004 Y36.617
X55.508 Y37.082
X54.957 Y37.521
X54.298 Y37.966
X53.536 Y38.395
X52.731 Y38.766
X51.902 Y39.078
X51.055 Y39.339
X50.196 Y39.554
X49.327 Y39.73
X48.453 Y39.873
X47.574 Y39.988
X46.693 Y40.081
X45.81 Y40.155
X44.926 Y40.213
X44.041 Y40.259
X43.155 Y40.295
X42.27 Y40.323
X41.383 Y40.336
X40.498 Y40.316
X39.615 Y40.242
X38.729 Y40.269
X37.888 Y40.549
X37.132 Y41.01
X36.463 Y41.592
X35.867 Y42.248
X35.319 Y42.944
X35.1 Y43.227
X34.902 Y43.434
X34.665 Y43.597
X34.4 Y43.708
X34.119 Y43.763
X31.487 Y43.997
X31.085 Y44.032
X30.864 Y44.05
G3 X30.45 Y42.992 I-0.026 J-0.599
G1 X51.351 Y25.316
X51.641 Y25.07
G3 X52.012 Y24.928 I0.387 J0.458
G1 X54.829 Y24.951
X55.056 Y24.964
X55.298 Y24.998
X55.571 Y25.058
X55.87 Y25.15
X56.185 Y25.276
X56.53 Y25.447
X56.887 Y25.661
X57.255 Y25.924
X57.642 Y26.25
X58.013 Y26.618
X58.374 Y27.039
X58.721 Y27.515
X59.04 Y28.037
X59.323 Y28.597
X59.564 Y29.186
X59.759 Y29.798
X59.905 Y30.429
X60 Y31.074
X60.044 Y31.728
X60.035 Y32.39
X59.972 Y33.054
X59.855 Y33.717
X59.683 Y34.378
X59.456 Y35.032
X59.17 Y35.681
X58.82 Y36.326
X58.405 Y36.966
X57.923 Y37.592
X57.362 Y38.21
X56.716 Y38.816
X56.023 Y39.369
X55.29 Y39.867
X54.522 Y40.309
X53.727 Y40.699
X52.909 Y41.04
X52.073 Y41.336
X51.224 Y41.59
X50.365 Y41.806
X49.498 Y41.989
X48.625 Y42.143
X47.749 Y42.271
X46.869 Y42.377
X45.987 Y42.464
X45.104 Y42.535
X44.22 Y42.593
X43.334 Y42.636
X42.449 Y42.66
X41.563 Y42.656
X40.683 Y42.763
X39.844 Y43.047
X39.693 Y43.129
X39.526 Y43.205
X39.351 Y43.259
X39.17 Y43.29
X37.725 Y43.438
X36.92 Y43.512
X34.119 Y43.763
G3 X33.698 Y42.706 I-0.032 J-0.599
G1 X54.168 Y25.338
X54.457 Y25.093
G3 X54.829 Y24.951 I0.388 J0.458
G1 X56.64 Y24.965
X57.244 Y24.968
X57.396 Y24.976
X57.623 Y25.008
X57.867 Y25.061
X58.132 Y25.142
X58.418 Y25.255
X58.72 Y25.404
X59.036 Y25.593
X59.373 Y25.832
X59.703 Y26.109
X60.052 Y26.453
X60.39 Y26.845
X60.714 Y27.287
X61.028 Y27.798
X61.319 Y28.371
X61.573 Y28.988
X61.782 Y29.64
X61.945 Y30.338
X62.056 Y31.076
X62.109 Y31.844
X62.1 Y32.634
X62.026 Y33.439
X61.885 Y34.252
X61.674 Y35.071
X61.391 Y35.891
X61.035 Y36.702
X60.616 Y37.483
X60.137 Y38.229
X59.602 Y38.935
X59.018 Y39.601
X58.387 Y40.224
X57.717 Y40.804
X57.691 Y40.824
X57.494 Y40.948
X57.279 Y41.038
X57.053 Y41.092
X55.232 Y41.364
X54.922 Y41.407
X49.799 Y42.096
X49.195 Y42.174
X48.793 Y42.222
X43.762 Y42.815
X43.158 Y42.881
X39.17 Y43.29
G3 X38.718 Y42.255 I-0.04 J-0.599
G1 X56.596 Y25.371
X56.85 Y25.132
G3 X57.244 Y24.968 I0.412 J0.436
G1 X59.458 Y24.98
X59.607 Y24.989
X59.823 Y25.02
X60.053 Y25.072
X60.311 Y25.153
X60.574 Y25.26
X60.869 Y25.408
X61.165 Y25.588
X61.485 Y25.82
X61.809 Y26.096
X62.136 Y26.424
X62.476 Y26.825
X62.79 Y27.262
X63.1 Y27.775
X63.396 Y28.369
X63.656 Y29.014
X63.871 Y29.707
X64.044 Y30.474
X64.162 Y31.301
X64.215 Y32.176
X64.198 Y33.062
X64.112 Y33.944
X63.961 Y34.817
X63.744 Y35.676
X63.466 Y36.518
X63.13 Y37.338
X62.74 Y38.134
X62.299 Y38.902
X61.81 Y39.641
X61.521 Y40.022
X61.338 Y40.22
X61.12 Y40.379
X60.876 Y40.494
X60.614 Y40.559
X57.053 Y41.092
G3 X56.393 Y40.397 I-0.068 J-0.596
G1 X58.883 Y25.481
G3 X59.458 Y24.98 I0.592 J0.099
G1 X61.47 Y24.992
X61.706 Y25.005
X61.915 Y25.033
X62.137 Y25.082
X62.387 Y25.158
X62.642 Y25.259
X62.93 Y25.401
X63.215 Y25.571
X63.534 Y25.798
X63.845 Y26.059
X64.176 Y26.385
X64.508 Y26.77
X64.826 Y27.205
X65.15 Y27.733
X65.448 Y28.318
X65.716 Y28.97
X65.957 Y29.72
X66.151 Y30.552
X66.283 Y31.428
X66.346 Y32.312
X66.341 Y33.198
X66.272 Y34.082
X66.144 Y34.959
X65.959 Y35.825
X65.721 Y36.679
X65.431 Y37.516
X65.093 Y38.335
X64.706 Y39.132
X64.554 Y39.401
X64.37 Y39.656
X64.134 Y39.864
X63.857 Y40.013
X63.554 Y40.097
X61.269 Y40.46
X60.614 Y40.559
G3 X59.947 Y39.924 I-0.068 J-0.596
G1 X60.889 Y25.552
G3 X61.47 Y24.992 I0.599 J0.039
G1 X63.593 Y25.003
X63.793 Y25.014
X63.994 Y25.042
X64.219 Y25.092
X64.462 Y25.166
X64.722 Y25.268
X65.005 Y25.408
X65.296 Y25.582
X65.609 Y25.804
X65.928 Y26.072
X66.255 Y26.394
X66.595 Y26.789
X66.917 Y27.229
X67.253 Y27.775
X67.559 Y28.377
X67.84 Y29.06
X68.091 Y29.842
X68.293 Y30.705
X68.425 Y31.582
X68.493 Y32.465
X68.498 Y33.351
X68.445 Y34.236
X68.337 Y35.115
X68.178 Y35.987
