(1001)
(Bearbeiten)
(  Hersteller: ChinaCnc)
(  model: 3040T)
(  description: Generic 3-axis)
(T16  D=6 CR=0 - ZMIN=-24 - Schaftfraser)
G90 G94
G17
G21
(When using Fusion 360 for Personal Use, the feedrate of)
(rapid moves is reduced to match the feedrate of cutting)
(moves, which can increase machining time. Unrestricted rapid)
(moves are available with a Fusion 360 Subscription.)

(2D Adaptive25)
T16
S6000 M3
G54
G0 X36.381 Y29.122
Z5
G1 Z3 F1000
Z-16.8
Z-17.4
X36.383 Y29.129 Z-17.494
X36.389 Y29.151 Z-17.585
X36.398 Y29.186 Z-17.672
X36.41 Y29.233 Z-17.753
X36.425 Y29.293 Z-17.824
X36.443 Y29.362 Z-17.885
X36.463 Y29.44 Z-17.935
X36.484 Y29.524 Z-17.971
X36.507 Y29.613 Z-17.993
X36.53 Y29.704 Z-18
G3 X37 Y32.97 I-14.839 J3.801
G1 Y33.282
X36.998 Y33.319
X36.905 Y33.437
X36.782 Y33.57
X36.619 Y33.72
X36.409 Y33.883
X36.139 Y34.061
X35.793 Y34.251
X35.344 Y34.452
X34.748 Y34.663
X33.923 Y34.883
X33.051 Y35.042
X32.172 Y35.151
X31.289 Y35.227
X30.405 Y35.279
X29.519 Y35.316
X28.633 Y35.341
X27.748 Y35.359
X26.862 Y35.371
X25.975 Y35.38
X25.089 Y35.386
X24.407 Y35.389
X24.094 Y35.355
X23.797 Y35.253
X23.53 Y35.086
X23.307 Y34.864
X23.139 Y34.598
X23.035 Y34.302
X23 Y33.989
G3 X23.567 Y33.411 I0.6 J0.021
G1 X36.367 Y32.704
G3 X37 Y33.282 I0.033 J0.599
G1 Y34.086
X36.993 Y34.236
X36.934 Y34.394
X36.853 Y34.57
X36.742 Y34.768
X36.61 Y34.963
X36.434 Y35.184
X36.213 Y35.419
X35.959 Y35.65
X35.627 Y35.906
X35.248 Y36.152
X34.761 Y36.415
X34.161 Y36.68
X33.396 Y36.946
X32.539 Y37.169
X31.668 Y37.335
X30.791 Y37.458
X29.909 Y37.549
X29.026 Y37.616
X28.141 Y37.665
X27.256 Y37.701
X26.37 Y37.728
X25.643 Y37.716
X25.109 Y37.664
X24.627 Y37.577
X24.24 Y37.476
X23.862 Y37.343
X23.831 Y37.329
X23.554 Y37.165
X23.322 Y36.943
X23.146 Y36.673
X23.037 Y36.37
X23 Y36.05
G3 X23.509 Y35.478 I0.6 J0.021
G1 X36.309 Y33.514
G3 X37 Y34.086 I0.091 J0.593
G1 Y35.384
X36.993 Y35.534
X36.962 Y35.71
X36.916 Y35.891
X36.846 Y36.098
X36.751 Y36.317
X36.627 Y36.55
X36.462 Y36.806
X36.268 Y37.061
X36.009 Y37.35
X35.72 Y37.625
X35.341 Y37.931
X34.914 Y38.222
X34.371 Y38.532
X33.708 Y38.843
X32.887 Y39.15
X32.035 Y39.392
X31.169 Y39.581
X30.295 Y39.727
X29.416 Y39.84
X28.534 Y39.926
X27.65 Y39.984
X26.764 Y40
X25.882 Y39.959
X25.207 Y39.873
X24.655 Y39.756
X24.228 Y39.63
X23.83 Y39.476
X23.642 Y39.386
X23.374 Y39.217
X23.15 Y38.992
X22.983 Y38.723
X22.881 Y38.423
X22.849 Y38.108
X22.889 Y37.793
X22.937 Y37.596
X22.972 Y37.395
X23 Y36.792
Y36.05
G3 X23.568 Y35.472 I0.6 J0.021
G1 X36.369 Y34.806
G3 X37 Y35.384 I0.031 J0.599
G1 Y36.792
X37.009 Y36.993
Y37.175
X36.994 Y37.358
X36.963 Y37.546
X36.908 Y37.766
X36.833 Y37.988
X36.725 Y38.242
X36.587 Y38.504
X36.407 Y38.786
X36.182 Y39.086
X35.909 Y39.393
X35.563 Y39.725
X35.165 Y40.05
X34.674 Y40.388
X34.071 Y40.736
X33.352 Y41.077
X32.524 Y41.392
X31.674 Y41.645
X30.811 Y41.847
X29.94 Y42.006
X29.062 Y42.125
X28.179 Y42.201
X27.293 Y42.233
X26.407 Y42.209
X25.567 Y42.127
X24.9 Y42.007
X24.342 Y41.86
X23.905 Y41.706
X23.521 Y41.535
X23.186 Y41.353
X22.884 Y41.155
X22.624 Y40.953
X22.376 Y40.727
X22.204 Y40.499
X22.082 Y40.242
X22.014 Y39.965
X22.004 Y39.681
X22.051 Y39.4
X22.154 Y39.134
X22.309 Y38.895
G3 X22.666 Y38.695 I0.454 J0.392
G1 X23.029 Y38.635
X36.314 Y36.45
G3 X37.009 Y36.993 I0.097 J0.592
G1 X37.028 Y37.395
X37.063 Y37.596
X37.112 Y37.798
X37.161 Y37.966
X37.217 Y38.109
X37.265 Y38.252
X37.299 Y38.398
X37.321 Y38.559
X37.33 Y38.729
X37.325 Y38.929
X37.303 Y39.139
X37.258 Y39.378
X37.19 Y39.628
X37.09 Y39.904
X36.959 Y40.194
X36.785 Y40.506
X36.568 Y40.833
X36.294 Y41.179
X35.966 Y41.533
X35.555 Y41.91
X35.086 Y42.276
X34.499 Y42.661
X33.794 Y43.048
X32.985 Y43.41
X32.151 Y43.709
X31.299 Y43.953
X30.434 Y44.146
X29.56 Y44.292
X28.679 Y44.392
X27.795 Y44.443
X26.909 Y44.445
X26.024 Y44.388
X25.185 Y44.272
X24.466 Y44.113
X23.814 Y43.912
X23.221 Y43.676
X22.745 Y43.44
X22.333 Y43.194
X22.004 Y42.959
X21.709 Y42.71
X21.458 Y42.462
X21.238 Y42.205
X21.051 Y41.949
X20.887 Y41.682
X20.755 Y41.42
X20.671 Y41.131
X20.652 Y40.832
X20.696 Y40.535
X20.803 Y40.254
X20.966 Y40.003
X21.18 Y39.792
X21.434 Y39.632
X21.514 Y39.603
X21.598 Y39.587
X22.208 Y39.513
X36.571 Y37.778
X36.628 Y37.771
G3 X37.217 Y38.109 I0.068 J0.564
G1 X37.253 Y38.2
X37.363 Y38.42
X37.468 Y38.602
X37.564 Y38.746
X37.696 Y38.906
X37.785 Y39.027
X37.859 Y39.157
X37.921 Y39.294
X37.975 Y39.448
X38.019 Y39.616
X38.054 Y39.81
X38.074 Y40.019
X38.077 Y40.255
X38.061 Y40.508
X38.021 Y40.786
X37.952 Y41.085
X37.851 Y41.404
X37.711 Y41.75
X37.534 Y42.101
X37.296 Y42.493
X37.02 Y42.874
X36.658 Y43.297
X36.241 Y43.712
X35.735 Y44.141
X35.121 Y44.581
X34.404 Y45.013
X33.611 Y45.408
X32.789 Y45.741
X31.948 Y46.018
X31.091 Y46.243
X30.222 Y46.42
X29.346 Y46.55
X28.464 Y46.633
X27.578 Y46.669
X26.692 Y46.654
X25.809 Y46.583
X24.933 Y46.451
X24.084 Y46.259
X23.309 Y46.016
X22.616 Y45.736
X22.013 Y45.434
X21.477 Y45.109
X20.994 Y44.76
X20.561 Y44.392
X20.218 Y44.048
X19.925 Y43.704
X19.704 Y43.396
X19.505 Y43.069
X19.358 Y42.773
X19.23 Y42.456
X19.14 Y42.167
X19.071 Y41.863
X19.03 Y41.577
X19.023 Y41.471
X19.037 Y41.169
X19.115 Y40.877
X19.253 Y40.609
X19.446 Y40.376
X19.684 Y40.189
X19.956 Y40.058
X20.25 Y39.988
X21.033 Y39.929
X36.97 Y38.723
X37.201 Y38.706
G3 X37.696 Y38.906 I0.045 J0.598
G1 X37.777 Y39.005
X37.967 Y39.196
X38.168 Y39.372
X38.216 Y39.407
X38.369 Y39.516
X38.492 Y39.602
X38.597 Y39.709
X38.691 Y39.826
X38.775 Y39.952
X38.86 Y40.102
X38.937 Y40.269
X39.008 Y40.461
X39.067 Y40.675
X39.112 Y40.909
X39.142 Y41.176
X39.151 Y41.455
X39.135 Y41.773
X39.092 Y42.098
X39.014 Y42.463
X38.9 Y42.846
X38.744 Y43.246
X38.531 Y43.686
X38.276 Y44.119
X37.946 Y44.589
X37.537 Y45.082
X37.075 Y45.556
X36.504 Y46.054
X35.831 Y46.552
X35.079 Y47.02
X34.293 Y47.429
X33.48 Y47.782
X32.646 Y48.081
X31.796 Y48.331
X30.933 Y48.534
X30.061 Y48.692
X29.183 Y48.806
X28.299 Y48.874
X27.413 Y48.898
X26.528 Y48.873
X25.645 Y48.795
X24.769 Y48.664
X23.902 Y48.476
X23.051 Y48.231
X22.22 Y47.923
X21.433 Y47.56
X20.73 Y47.165
X20.11 Y46.747
X19.563 Y46.311
X19.078 Y45.856
X18.665 Y45.401
X18.313 Y44.944
X18.012 Y44.481
X17.76 Y44.016
X17.574 Y43.594
X17.434 Y43.192
X17.338 Y42.822
X17.275 Y42.467
X17.244 Y42.134
X17.239 Y41.805
X17.259 Y41.506
X17.305 Y41.197
X17.331 Y41.085
X17.435 Y40.79
X17.602 Y40.525
X17.823 Y40.304
X18.089 Y40.138
X18.384 Y40.035
X18.695 Y40
X19.646
X20.25 Y39.988
X21.035 Y39.964
X37.597 Y39.453
X38.057 Y39.439
G3 X38.369 Y39.516 I0.018 J0.6
G1 X38.521 Y39.608
X38.571 Y39.637
X38.772 Y39.732
X38.949 Y39.809
X39.084 Y39.852
X39.224 Y39.905
X39.358 Y39.974
X39.483 Y40.057
X39.6 Y40.15
X39.717 Y40.263
X39.83 Y40.389
X39.946 Y40.542
X40.055 Y40.713
X40.16 Y40.911
X40.256 Y41.136
X40.339 Y41.38
X40.41 Y41.662
X40.459 Y41.957
X40.488 Y42.294
X40.49 Y42.655
X40.461 Y43.035
X40.394 Y43.463
X40.29 Y43.897
X40.135 Y44.368
X39.922 Y44.877
X39.662 Y45.38
X39.329 Y45.915
X38.906 Y46.486
X38.418 Y47.045
X37.843 Y47.605
X37.161 Y48.17
X36.436 Y48.679
X35.675 Y49.134
X34.886 Y49.538
X34.074 Y49.892
X33.243 Y50.2
X32.397 Y50.462
X31.538 Y50.679
X30.669 Y50.854
X30.219 Y50.922
X29.97 Y50.937
X29.723 Y50.908
X29.485 Y50.836
X29.263 Y50.722
X28.222 Y50.068
X28.102 Y49.996
X27.9 Y49.906
X27.498 Y49.732
X27.296 Y49.658
X26.692 Y49.447
X26.29 Y49.31
X26.127 Y49.263
X25.686 Y49.179
X25.484 Y49.148
X24.478 Y49.035
X24.277 Y49.014
X23.673 Y49
X21.861
X21.358 Y48.975
X20.997 Y48.928
X20.575 Y48.837
X20.152 Y48.71
X19.684 Y48.528
X19.193 Y48.29
X18.712 Y48.007
X18.231 Y47.669
X17.758 Y47.276
X17.307 Y46.836
X16.894 Y46.363
X16.525 Y45.865
X16.207 Y45.353
X15.939 Y44.834
X15.723 Y44.318
X15.557 Y43.808
X15.436 Y43.302
X15.364 Y42.845
X15.331 Y42.399
X15.333 Y42.026
X15.366 Y41.647
X15.42 Y41.326
X15.503 Y40.996
X15.518 Y40.95
X15.639 Y40.687
X15.812 Y40.454
X16.028 Y40.262
X16.28 Y40.119
X16.556 Y40.03
X16.844 Y40
X18.695
G3 X19.23 Y40.374 I-0.021 J0.6
G1 X19.266 Y40.462
X22.396 Y48.175
G3 X21.861 Y49 I-0.556 J0.226
G1 X20.451
X20.25 Y49.002
X19.847 Y49.013
X19.646 Y49.024
X19.445 Y49.054
X19.399 Y49.062
X19.352 Y49.074
X19.205 Y49.103
X19.011 Y49.123
X18.776 Y49.128
X18.531 Y49.114
X18.249 Y49.074
X17.948 Y49.007
X17.618 Y48.905
X17.273 Y48.767
X16.894 Y48.579
X16.521 Y48.356
X16.125 Y48.072
X15.722 Y47.732
X15.339 Y47.352
X14.97 Y46.921
X14.62 Y46.44
X14.301 Y45.917
X14.024 Y45.369
X13.792 Y44.801
X13.612 Y44.233
X13.481 Y43.664
X13.399 Y43.108
X13.366 Y42.611
X13.373 Y42.149
X13.409 Y41.763
X13.477 Y41.382
X13.562 Y41.057
X13.603 Y40.939
X13.725 Y40.678
X13.898 Y40.448
X14.114 Y40.259
X14.364 Y40.117
X14.638 Y40.03
X14.925 Y40
X16.844
G3 X17.398 Y40.428 I-0.021 J0.6
G1 X17.409 Y40.464
X19.762 Y48.325
G3 X19.352 Y49.074 I-0.575 J0.172
G1 X19.243 Y49.101
X19.042 Y49.161
X18.841 Y49.235
X18.639 Y49.33
X18.438 Y49.444
X18.405 Y49.465
X18.312 Y49.526
X18.184 Y49.603
X18.043 Y49.667
X17.892 Y49.721
X17.71 Y49.771
X17.515 Y49.807
X17.287 Y49.831
X17.045 Y49.836
X16.767 Y49.821
X16.478 Y49.781
X16.151 Y49.708
X15.822 Y49.607
X15.454 Y49.461
X15.083 Y49.278
X14.695 Y49.046
X14.284 Y48.753
X13.887 Y48.419
X13.491 Y48.028
X13.1 Y47.573
X12.728 Y47.063
X12.387 Y46.506
X12.086 Y45.913
X11.832 Y45.294
X11.63 Y44.663
X11.486 Y44.04
X11.395 Y43.429
X11.354 Y42.839
X11.361 Y42.33
X11.402 Y41.887
X11.473 Y41.481
X11.564 Y41.131
X11.63 Y40.941
X11.752 Y40.68
X11.924 Y40.45
X12.141 Y40.259
X12.391 Y40.117
X12.666 Y40.03
X12.952 Y40
X14.925
G3 X15.468 Y40.395 I-0.021 J0.6
G1 X15.492 Y40.463
X18.523 Y48.827
X18.526 Y48.835
G3 X18.312 Y49.526 I-0.564 J0.204
G1 X18.237 Y49.577
X18.035 Y49.735
X17.896 Y49.867
X17.834 Y49.926
X17.711 Y50.068
X17.633 Y50.16
X17.536 Y50.274
X17.425 Y50.375
X17.305 Y50.465
X17.165 Y50.552
X17.014 Y50.631
X16.83 Y50.708
X16.635 Y50.773
X16.404 Y50.829
X16.161 Y50.867
X15.883 Y50.889
X15.586 Y50.888
X15.263 Y50.861
X14.907 Y50.803
X14.546 Y50.713
X14.146 Y50.578
X13.735 Y50.403
X13.314 Y50.18
X12.864 Y49.895
X12.413 Y49.556
X11.975 Y49.166
X11.533 Y48.706
X11.103 Y48.179
X10.699 Y47.593
X10.334 Y46.961
X10.017 Y46.293
X9.752 Y45.594
X9.546 Y44.885
X9.404 Y44.192
X9.322 Y43.52
X9.295 Y42.878
X9.316 Y42.325
X9.372 Y41.86
X9.458 Y41.435
X9.561 Y41.078
X9.625 Y40.907
X9.751 Y40.654
X9.924 Y40.432
X10.139 Y40.249
X10.386 Y40.112
X10.655 Y40.028
X10.935 Y40
X12.952
G3 X13.477 Y40.351 I-0.021 J0.6
G1 X13.527 Y40.46
X17.606 Y49.418
X17.679 Y49.579
G3 X17.633 Y50.16 I-0.546 J0.249
G1 X17.554 Y50.269
X17.432 Y50.451
X17.42 Y50.47
X17.315 Y50.672
X17.23 Y50.857
X17.224 Y50.873
X17.164 Y51.01
X17.091 Y51.141
X17.005 Y51.264
X16.907 Y51.378
X16.791 Y51.493
X16.66 Y51.602
X16.5 Y51.716
X16.325 Y51.82
X16.119 Y51.922
X15.893 Y52.011
X15.638 Y52.089
X15.351 Y52.152
X15.048 Y52.194
X14.703 Y52.213
X14.344 Y52.204
X13.952 Y52.163
X13.522 Y52.082
X13.089 Y51.964
X12.622 Y51.796
X12.125 Y51.57
X11.635 Y51.298
X11.127 Y50.961
X10.604 Y50.548
X10.081 Y50.063
X9.585 Y49.522
X9.116 Y48.921
X8.674 Y48.249
X8.274 Y47.52
X7.928 Y46.749
X7.646 Y45.953
X7.43 Y45.144
X7.286 Y44.352
X7.211 Y43.61
X7.198 Y42.927
X7.234 Y42.336
X7.305 Y41.834
X7.403 Y41.399
X7.517 Y41.033
X7.579 Y40.878
X7.707 Y40.632
X7.881 Y40.417
X8.094 Y40.24
X8.338 Y40.108
X8.603 Y40.027
X8.878 Y40
X10.935
G3 X11.436 Y40.303 I-0.021 J0.6
G1 X11.522 Y40.454
X17.04 Y50.141
X17.177 Y50.383
G3 X17.224 Y50.873 I-0.521 J0.297
G1 X17.148 Y51.074
X17.092 Y51.275
X17.05 Y51.476
X17.029 Y51.596
X17.024 Y51.677
X17.01 Y51.827
X16.976 Y51.973
X16.926 Y52.114
X16.863 Y52.25
X16.788 Y52.381
X16.69 Y52.523
X16.577 Y52.662
X16.437 Y52.808
X16.277 Y52.952
X16.092 Y53.092
X15.874 Y53.231
X15.638 Y53.355
X15.361 Y53.475
X15.062 Y53.576
X14.732 Y53.659
X14.358 Y53.722
X13.971 Y53.755
X13.54 Y53.757
X13.069 Y53.722
X12.592 Y53.647
X12.076 Y53.523
X11.519 Y53.341
X10.956 Y53.105
X10.381 Y52.808
X9.782 Y52.435
X9.173 Y51.984
X8.568 Y51.455
X7.994 Y50.866
X7.444 Y50.203
X6.935 Y49.477
X6.484 Y48.714
X6.092 Y47.92
X5.759 Y47.099
X5.486 Y46.255
X5.277 Y45.394
X5.137 Y44.532
X5.07 Y43.713
Y42.963
X5.12 Y42.342
X5.205 Y41.81
X5.314 Y41.367
X5.438 Y40.992
X5.497 Y40.853
X5.659 Y40.57
X5.882 Y40.331
X6.155 Y40.15
X6.462 Y40.038
X6.786 Y40
X8.878
G3 X9.353 Y40.261 I-0.021 J0.6
G1 X9.479 Y40.446
X16.683 Y50.986
X16.92 Y51.333
G3 X17.024 Y51.677 I-0.495 J0.339
G1 X17.006 Y52.08
X17 Y52.281
Y52.794
X16.993 Y52.944
X16.971 Y53.092
X16.936 Y53.238
X16.887 Y53.387
X16.82 Y53.546
X16.735 Y53.708
X16.625 Y53.882
X16.497 Y54.054
X16.337 Y54.235
X16.155 Y54.411
X15.943 Y54.585
X15.693 Y54.759
X15.422 Y54.916
X15.106 Y55.068
X14.756 Y55.202
X14.381 Y55.313
X13.954 Y55.402
X13.493 Y55.46
X13.007 Y55.481
X12.469 Y55.462
X11.89 Y55.395
X11.304 Y55.279
X10.679 Y55.102
X10.013 Y54.853
X9.318 Y54.528
X8.633 Y54.138
X7.947 Y53.672
X7.257 Y53.116
X6.614 Y52.507
X6.018 Y51.851
X5.47 Y51.154
X4.971 Y50.422
X4.522 Y49.658
X4.126 Y48.866
X3.782 Y48.049
X3.491 Y47.212
X3.254 Y46.358
X3.074 Y45.49
X2.955 Y44.612
X2.904 Y43.745
X2.921 Y42.947
X2.986 Y42.304
X3.088 Y41.75
X3.202 Y41.324
X3.347 Y40.917
X3.398 Y40.805
X3.542 Y40.556
X3.735 Y40.341
X3.967 Y40.171
X4.23 Y40.052
X4.511 Y39.989
X4.8 Y39.985
X4.949 Y39.998
X5.755 Y40
X6.786
G3 X7.236 Y40.228 I-0.021 J0.6
G1 X7.4 Y40.436
X16.62 Y52.125
X16.871 Y52.443
G3 X17 Y52.794 I-0.471 J0.372
G1 Y54.202
X16.992 Y54.358
X16.973 Y54.506
X16.939 Y54.662
X16.887 Y54.832
X16.819 Y55.008
X16.724 Y55.2
X16.611 Y55.391
X16.466 Y55.597
X16.298 Y55.799
X16.094 Y56.006
X15.855 Y56.214
X15.589 Y56.41
X15.272 Y56.606
X14.927 Y56.783
X14.539 Y56.944
X14.092 Y57.088
X13.622 Y57.2
X13.106 Y57.279
X12.531 Y57.32
X11.915 Y57.315
X11.28 Y57.259
X10.585 Y57.14
X9.845 Y56.952
X9.075 Y56.688
X8.311 Y56.356
X7.53 Y55.939
X6.784 Y55.46
X6.076 Y54.927
X5.407 Y54.347
X4.777 Y53.723
X4.188 Y53.061
X3.641 Y52.364
X3.139 Y51.634
X2.681 Y50.875
X2.268 Y50.091
X1.901 Y49.285
X1.579 Y48.459
X1.304 Y47.617
X1.077 Y46.76
X0.904 Y45.891
X0.786 Y45.013
X0.726 Y44.129
X0.73 Y43.276
X0.796 Y42.512
X0.896 Y41.912
X1.015 Y41.439
X1.161 Y41.008
X1.313 Y40.655
X1.427 Y40.44
X1.598 Y40.188
X1.819 Y39.979
X2.08 Y39.823
X2.368 Y39.727
X2.671 Y39.695
X2.973 Y39.73
X3.137 Y39.767
X3.54 Y39.831
X3.741 Y39.86
X4.144 Y39.913
X4.345 Y39.938
X4.776 Y39.983
X4.8 Y39.985
G3 X5.181 Y40.19 I-0.075 J0.595
G1 X5.404 Y40.45
X16.608 Y53.543
X16.856 Y53.833
G3 X17 Y54.202 I-0.456 J0.39
G1 Y55.811
X16.993 Y55.961
X16.97 Y56.119
X16.931 Y56.294
X16.874 Y56.479
X16.794 Y56.677
X16.69 Y56.887
X16.561 Y57.101
X16.397 Y57.33
X16.208 Y57.553
X15.973 Y57.79
X15.71 Y58.014
X15.401 Y58.238
X15.04 Y58.458
X14.651 Y58.654
X14.196 Y58.839
X13.69 Y58.999
X13.156 Y59.122
X12.551 Y59.21
X11.878 Y59.254
X11.183 Y59.243
X10.436 Y59.171
X9.633 Y59.029
X8.784 Y58.806
X7.948 Y58.513
X7.136 Y58.157
X6.353 Y57.743
X5.601 Y57.275
X4.881 Y56.758
X4.194 Y56.199
X3.541 Y55.599
X2.924 Y54.963
X2.343 Y54.295
X1.799 Y53.595
X1.294 Y52.867
X0.829 Y52.113
X0.403 Y51.335
X0.017 Y50.538
X-0.328 Y49.722
X-0.632 Y48.889
X-0.894 Y48.043
X-1.111 Y47.184
X-1.28 Y46.314
X-1.4 Y45.436
X-1.466 Y44.552
X-1.475 Y43.666
X-1.423 Y42.828
X-1.317 Y42.088
X-1.176 Y41.468
X-1.021 Y40.972
X-0.849 Y40.546
X-0.674 Y40.197
X-0.473 Y39.865
X-0.276 Y39.591
X-0.2 Y39.502
X0.015 Y39.298
X0.268 Y39.143
X0.548 Y39.046
X0.843 Y39.01
X1.138 Y39.036
X1.421 Y39.124
X1.728 Y39.257
X2.332 Y39.508
X2.534 Y39.591
X2.936 Y39.721
X2.973 Y39.73
G3 X3.272 Y39.915 I-0.153 J0.58
G1 X3.554 Y40.237
X16.605 Y55.155
X16.852 Y55.437
G3 X17 Y55.811 I-0.452 J0.395
G1 Y57.511
X16.993 Y57.661
X16.969 Y57.83
X16.927 Y58.016
X16.866 Y58.214
X16.78 Y58.428
X16.671 Y58.649
X16.528 Y58.887
X16.358 Y59.124
X16.142 Y59.38
X15.9 Y59.624
X15.602 Y59.879
X15.266 Y60.123
X14.882 Y60.358
X14.426 Y60.588
X13.94 Y60.786
X13.386 Y60.962
X12.754 Y61.107
X12.087 Y61.205
X11.362 Y61.253
X10.556 Y61.241
X9.689 Y61.159
X8.817 Y61.005
X7.958 Y60.784
X7.119 Y60.5
X6.301 Y60.159
X5.508 Y59.765
X4.739 Y59.323
X3.998 Y58.837
X3.286 Y58.311
X2.602 Y57.747
X1.948 Y57.149
X1.327 Y56.517
X0.739 Y55.854
X0.184 Y55.163
X-0.337 Y54.447
X-0.824 Y53.706
X-1.276 Y52.944
X-1.693 Y52.162
X-2.075 Y51.362
X-2.42 Y50.546
X-2.727 Y49.715
X-2.994 Y48.87
X-3.221 Y48.013
X-3.406 Y47.147
X-3.547 Y46.272
X-3.644 Y45.391
X-3.693 Y44.507
X-3.686 Y43.62
X-3.619 Y42.737
X-3.491 Y41.919
X-3.317 Y41.191
X-3.109 Y40.555
X-2.893 Y40.037
X-2.667 Y39.598
X-2.44 Y39.234
X-2.212 Y38.925
X-1.97 Y38.647
X-1.729 Y38.412
X-1.622 Y38.323
X-1.359 Y38.151
X-1.065 Y38.041
X-0.754 Y38
X-0.442 Y38.029
X-0.144 Y38.127
X0.125 Y38.289
X0.533 Y38.602
X0.564 Y38.624
X0.615 Y38.665
X0.66 Y38.711
X1.093 Y39.204
X16.604 Y56.855
X16.851 Y57.136
G3 X17 Y57.511 I-0.451 J0.396
G1 Y59.321
X16.993 Y59.471
X16.964 Y59.657
X16.919 Y59.849
X16.849 Y60.066
X16.758 Y60.286
X16.633 Y60.532
X16.482 Y60.776
X16.289 Y61.039
X16.061 Y61.303
X15.788 Y61.571
X15.459 Y61.846
X15.094 Y62.105
X14.653 Y62.367
X14.168 Y62.604
X13.624 Y62.819
X12.987 Y63.013
X12.298 Y63.163
X11.553 Y63.264
X10.718 Y63.309
X9.832 Y63.286
X8.951 Y63.193
X8.079 Y63.036
X7.22 Y62.82
X6.377 Y62.546
X5.552 Y62.221
X4.748 Y61.849
X3.966 Y61.432
X3.207 Y60.975
X2.472 Y60.48
X1.763 Y59.949
X1.079 Y59.385
X0.423 Y58.789
X-0.204 Y58.163
X-0.801 Y57.508
X-1.369 Y56.828
X-1.907 Y56.124
X-2.414 Y55.398
X-2.891 Y54.651
X-3.337 Y53.885
X-3.751 Y53.101
X-4.132 Y52.302
X-4.48 Y51.486
X-4.792 Y50.657
X-5.069 Y49.815
X-5.309 Y48.962
X-5.513 Y48.1
X-5.679 Y47.23
X-5.805 Y46.353
X-5.89 Y45.47
X-5.927 Y44.585
X-5.914 Y43.699
X-5.847 Y42.816
X-5.722 Y41.938
X-5.534 Y41.072
X-5.308 Y40.324
X-5.043 Y39.65
X-4.747 Y39.044
X-4.454 Y38.549
X-4.154 Y38.124
X-3.885 Y37.801
X-3.593 Y37.504
X-3.327 Y37.274
X-3.035 Y37.058
X-2.767 Y36.893
X-2.73 Y36.874
X-2.434 Y36.762
X-2.12 Y36.72
X-1.804 Y36.75
X-1.503 Y36.849
X-1.233 Y37.014
X-1.006 Y37.236
X-0.712 Y37.596
X-0.688 Y37.624
X-0.486 Y37.802
X-0.084 Y38.129
X0.125 Y38.289
X0.17 Y38.33
X0.21 Y38.375
X0.628 Y38.892
X16.616 Y58.655
X16.867 Y58.965
G3 X17 Y59.321 I-0.466 J0.377
G1 Y61.132
X16.992 Y61.294
X16.968 Y61.474
X16.925 Y61.678
X16.861 Y61.889
X16.768 Y62.128
X16.652 Y62.368
X16.495 Y62.634
X16.31 Y62.898
X16.076 Y63.18
X15.801 Y63.462
X15.473 Y63.748
X15.079 Y64.039
X14.648 Y64.307
X14.128 Y64.576
X13.548 Y64.818
X12.908 Y65.027
X12.165 Y65.205
X11.341 Y65.334
X10.459 Y65.4
X9.573 Y65.395
X8.69 Y65.323
X7.814 Y65.191
X6.948 Y65.004
X6.095 Y64.764
X5.256 Y64.477
X4.435 Y64.146
X3.631 Y63.773
X2.846 Y63.36
X2.083 Y62.91
X1.342 Y62.425
X0.623 Y61.907
X-0.072 Y61.357
X-0.743 Y60.778
X-1.388 Y60.171
X-2.008 Y59.538
X-2.602 Y58.88
X-3.17 Y58.2
X-3.71 Y57.498
X-4.223 Y56.775
X-4.707 Y56.032
X-5.162 Y55.272
X-5.589 Y54.495
X-5.985 Y53.703
X-6.352 Y52.896
X-6.687 Y52.076
X-6.991 Y51.244
X-7.264 Y50.401
X-7.503 Y49.548
X-7.709 Y48.685
X-7.878 Y47.816
X-8.011 Y46.94
X-8.105 Y46.059
X-8.159 Y45.174
X-8.17 Y44.288
X-8.137 Y43.403
X-8.055 Y42.52
X-7.92 Y41.644
X-7.729 Y40.779
X-7.478 Y39.929
X-7.175 Y39.124
X-6.842 Y38.419
X-6.478 Y37.785
X-6.098 Y37.231
X-5.71 Y36.753
X-5.361 Y36.388
X-5.01 Y36.074
X-4.695 Y35.836
X-4.368 Y35.627
X-4.07 Y35.469
X-3.75 Y35.331
X-3.463 Y35.234
X-3.373 Y35.212
X-3.097 Y35.176
X-2.821 Y35.205
X-2.558 Y35.297
X-2.324 Y35.447
X-2.131 Y35.647
X-1.99 Y35.887
X-1.928 Y35.987
X-1.656 Y36.39
X-1.493 Y36.609
X-1.143 Y37.065
X-1.09 Y37.132
X-1.006 Y37.236
X-0.531 Y37.861
X16.626 Y60.458
X16.878 Y60.79
G3 X17 Y61.132 I-0.478 J0.363
G1 Y62.942
X16.987 Y63.21
X16.962 Y63.399
X16.917 Y63.608
X16.851 Y63.829
X16.756 Y64.073
X16.634 Y64.324
X16.473 Y64.598
X16.278 Y64.875
X16.034 Y65.17
X15.743 Y65.467
X15.403 Y65.764
X14.985 Y66.074
X14.53 Y66.356
X13.973 Y66.644
X13.35 Y66.904
X12.664 Y67.128
X11.877 Y67.317
X11.003 Y67.454
X10.12 Y67.52
X9.234 Y67.521
X8.349 Y67.462
X7.471 Y67.346
X6.601 Y67.179
X5.741 Y66.963
X4.894 Y66.703
X4.061 Y66.401
X3.243 Y66.06
X2.442 Y65.682
X1.658 Y65.268
X0.893 Y64.821
X0.148 Y64.341
X-0.576 Y63.831
X-1.279 Y63.291
X-1.96 Y62.724
X-2.619 Y62.131
X-3.255 Y61.514
X-3.867 Y60.874
X-4.456 Y60.212
X-5.02 Y59.529
X-5.56 Y58.826
X-6.075 Y58.104
X-6.563 Y57.365
X-7.025 Y56.609
X-7.459 Y55.836
X-7.867 Y55.05
X-8.247 Y54.249
X-8.6 Y53.436
X-8.924 Y52.612
X-9.22 Y51.776
X-9.486 Y50.931
X-9.721 Y50.077
X-9.925 Y49.215
X-10.096 Y48.345
X-10.233 Y47.47
X-10.335 Y46.589
X-10.4 Y45.706
X-10.428 Y44.82
X-10.417 Y43.934
X-10.364 Y43.049
X-10.268 Y42.168
X-10.124 Y41.294
X-9.931 Y40.429
X-9.686 Y39.578
X-9.388 Y38.743
X-9.033 Y37.931
X-8.62 Y37.147
X-8.179 Y36.45
X-7.736 Y35.86
X-7.277 Y35.342
X-6.81 Y34.892
X-6.342 Y34.51
X-5.921 Y34.218
X-5.513 Y33.982
X-5.165 Y33.816
X-4.806 Y33.679
X-4.493 Y33.588
X-4.165 Y33.52
X-4.091 Y33.511
X-3.781 Y33.507
X-3.477 Y33.572
X-3.194 Y33.703
X-2.948 Y33.892
X-2.749 Y34.131
X-2.609 Y34.408
X-2.545 Y34.579
X-2.295 Y35.183
X-2.097 Y35.642
X-2.01 Y35.841
X-1.99 Y35.887
G3 X-2.187 Y36.59 I-0.557 J0.223
G1 X-2.262 Y36.646 Z-17.993
X-2.335 Y36.701 Z-17.971
X-2.405 Y36.754 Z-17.935
X-2.469 Y36.802 Z-17.885
X-2.526 Y36.845 Z-17.824
X-2.575 Y36.881 Z-17.753
X-2.615 Y36.911 Z-17.672
X-2.644 Y36.932 Z-17.585
X-2.661 Y36.946 Z-17.494
X-2.667 Y36.95 Z-17.4
Z-16.8
X16.472 Y61.673
Z-17.4
X16.476 Y61.679 Z-17.494
X16.487 Y61.698 Z-17.585
X16.505 Y61.729 Z-17.672
X16.531 Y61.771 Z-17.753
X16.562 Y61.824 Z-17.824
X16.598 Y61.885 Z-17.885
X16.639 Y61.954 Z-17.935
X16.684 Y62.029 Z-17.971
X16.731 Y62.108 Z-17.993
X16.779 Y62.188 Z-18
G3 X17 Y62.942 I-1.36 J0.809
G1 Y64.954
X16.989 Y65.173
X16.964 Y65.362
X16.917 Y65.582
X16.85 Y65.805
X16.751 Y66.061
X16.627 Y66.316
X16.457 Y66.605
X16.259 Y66.887
X15.998 Y67.201
X15.705 Y67.501
X15.336 Y67.823
X14.917 Y68.133
X14.425 Y68.44
X13.83 Y68.746
X13.2 Y69.01
X12.46 Y69.251
X11.62 Y69.453
X10.744 Y69.59
X9.861 Y69.661
X8.975 Y69.672
X8.09 Y69.626
X7.21 Y69.528
X6.336 Y69.381
X5.471 Y69.189
X4.616 Y68.955
X3.773 Y68.681
X2.943 Y68.371
X2.127 Y68.025
X1.327 Y67.645
X0.542 Y67.233
X-0.225 Y66.79
X-0.975 Y66.317
X-1.705 Y65.816
X-2.416 Y65.287
X-3.108 Y64.733
X-3.779 Y64.155
X-4.43 Y63.554
X-5.06 Y62.93
X-5.669 Y62.286
X-6.256 Y61.622
X-6.82 Y60.939
X-7.362 Y60.238
X-7.879 Y59.519
X-8.373 Y58.783
X-8.842 Y58.031
X-9.287 Y57.265
X-9.707 Y56.485
X-10.102 Y55.691
X-10.472 Y54.886
X-10.816 Y54.069
X-11.133 Y53.242
X-11.424 Y52.405
X-11.688 Y51.559
X-11.924 Y50.705
X-12.129 Y49.843
X-12.304 Y48.974
X-12.448 Y48.1
X-12.56 Y47.221
X-12.64 Y46.338
X-12.686 Y45.453
X-12.698 Y44.567
X-12.673 Y43.682
X-12.611 Y42.798
X-12.508 Y41.918
X-12.363 Y41.043
X-12.175 Y40.178
X-11.942 Y39.323
X-11.663 Y38.481
X-11.338 Y37.657
X-10.965 Y36.853
X-10.539 Y36.076
X-10.06 Y35.331
X-9.527 Y34.623
X-8.974 Y34
X-8.409 Y33.457
X-7.852 Y33.003
X-7.317 Y32.633
X-6.789 Y32.329
X-6.332 Y32.112
X-5.907 Y31.95
X-5.519 Y31.838
X-5.152 Y31.762
X-4.808 Y31.72
X-4.47 Y31.706
X-4.165 Y31.718
X-4.125 Y31.723
X-3.826 Y31.793
X-3.549 Y31.926
X-3.307 Y32.117
X-3.114 Y32.356
X-2.977 Y32.631
X-2.903 Y32.93
X-2.845 Y33.372
X-2.827 Y33.483
G3 X-3.197 Y34.113 I-0.595 J0.074
G1 X-3.284 Y34.148 Z-17.993
X-3.369 Y34.183 Z-17.971
X-3.449 Y34.215 Z-17.935
X-3.524 Y34.246 Z-17.885
X-3.59 Y34.273 Z-17.824
X-3.647 Y34.296 Z-17.753
X-3.692 Y34.314 Z-17.672
X-3.726 Y34.328 Z-17.585
X-3.746 Y34.336 Z-17.494
X-3.753 Y34.339 Z-17.4
Z-16.8
X16.472 Y63.684
Z-17.4
X16.476 Y63.691 Z-17.494
X16.487 Y63.71 Z-17.585
X16.505 Y63.74 Z-17.672
X16.531 Y63.783 Z-17.753
X16.562 Y63.835 Z-17.824
X16.598 Y63.897 Z-17.885
X16.639 Y63.966 Z-17.935
X16.684 Y64.041 Z-17.971
X16.731 Y64.119 Z-17.993
X16.779 Y64.2 Z-18
G3 X17 Y64.954 I-1.36 J0.809
G1 Y66.965
X16.989 Y67.18
X16.964 Y67.371
X16.916 Y67.596
X16.848 Y67.824
X16.746 Y68.084
X16.618 Y68.349
X16.446 Y68.641
X16.237 Y68.938
X15.971 Y69.258
X15.668 Y69.57
X15.28 Y69.908
X14.856 Y70.222
X14.328 Y70.55
X13.728 Y70.86
X13.058 Y71.14
X12.274 Y71.396
X11.412 Y71.603
X10.537 Y71.742
X9.655 Y71.819
X8.769 Y71.84
X7.883 Y71.809
X7.001 Y71.727
X6.124 Y71.599
X5.254 Y71.43
X4.393 Y71.22
X3.542 Y70.973
X2.703 Y70.69
X1.875 Y70.374
X1.06 Y70.026
X0.259 Y69.647
X-0.527 Y69.238
X-1.297 Y68.799
X-2.051 Y68.333
X-2.788 Y67.841
X-3.507 Y67.324
X-4.209 Y66.782
X-4.892 Y66.218
X-5.556 Y65.632
X-6.202 Y65.025
X-6.828 Y64.398
X-7.435 Y63.752
X-8.021 Y63.087
X-8.587 Y62.405
X-9.131 Y61.706
X-9.653 Y60.99
X-10.153 Y60.258
X-10.63 Y59.512
X-11.085 Y58.751
X-11.517 Y57.977
X-11.926 Y57.191
X-12.312 Y56.394
X-12.674 Y55.585
X-13.012 Y54.766
X-13.326 Y53.937
X-13.616 Y53.1
X-13.879 Y52.254
X-14.116 Y51.4
X-14.325 Y50.539
X-14.506 Y49.671
X-14.659 Y48.798
X-14.782 Y47.921
X-14.877 Y47.04
X-14.941 Y46.156
X-14.974 Y45.271
X-14.975 Y44.384
X-14.943 Y43.499
X-14.875 Y42.615
X-14.771 Y41.735
X-14.629 Y40.861
X-14.448 Y39.993
X-14.229 Y39.135
X-13.971 Y38.287
X-13.672 Y37.453
X-13.331 Y36.635
X-12.947 Y35.836
X-12.516 Y35.062
X-12.04 Y34.315
X-11.517 Y33.599
X-10.949 Y32.919
X-10.334 Y32.281
X-9.673 Y31.691
X-9.019 Y31.195
X-8.399 Y30.799
X-7.794 Y30.478
X-7.202 Y30.222
X-6.766 Y30.074
X-6.619 Y30.033
X-6.468 Y30.008
X-6.316 Y30
X-4.714
X-4.39 Y30.016
X-4.218 Y30.039
X-3.938 Y30.105
X-3.678 Y30.227
X-3.449 Y30.4
X-3.259 Y30.615
X-3.117 Y30.865
X-3.03 Y31.139
X-3 Y31.425
G3 X-3.955 Y31.888 I-0.6 J-0.02
G1 X-5.049 Y31.083
G3 X-4.714 Y30 I0.356 J-0.483
G1 X-3.607
X-3.506 Y30.01
X-3.406 Y30.037
X-3.355 Y30.059
X-3.305 Y30.086
X-3.212 Y30.154
X-3.15 Y30.214
X-3.104 Y30.274
X-3.057 Y30.355
X-3.036 Y30.405
X-3.021 Y30.455
X-3.003 Y30.556
X-3 Y30.757
Y31.562
X-2.998 Y31.964
X-2.99 Y32.165
X-2.947 Y32.568
X-2.925 Y32.769
X-2.903 Y32.93
G3 X-3.291 Y33.55 I-0.597 J0.058
G1 X-3.378 Y33.582 Z-17.993
X-3.464 Y33.614 Z-17.971
X-3.546 Y33.645 Z-17.935
X-3.621 Y33.673 Z-17.885
X-3.688 Y33.698 Z-17.824
X-3.745 Y33.72 Z-17.753
X-3.791 Y33.737 Z-17.672
X-3.825 Y33.749 Z-17.585
X-3.846 Y33.757 Z-17.494
X-3.853 Y33.76 Z-17.4
Z-16.8
X16.472 Y65.696
Z-17.4
X16.476 Y65.702 Z-17.494
X16.487 Y65.721 Z-17.585
X16.505 Y65.752 Z-17.672
X16.531 Y65.794 Z-17.753
X16.562 Y65.847 Z-17.824
X16.598 Y65.908 Z-17.885
X16.639 Y65.977 Z-17.935
X16.684 Y66.052 Z-17.971
X16.731 Y66.131 Z-17.993
X16.779 Y66.212 Z-18
G3 X17 Y66.965 I-1.36 J0.809
G1 Y68.977
X16.988 Y69.22
X16.962 Y69.416
X16.914 Y69.642
X16.843 Y69.878
X16.742 Y70.138
X16.607 Y70.415
X16.435 Y70.707
X16.217 Y71.018
X15.952 Y71.338
X15.632 Y71.666
X15.239 Y72.008
X14.795 Y72.336
X14.242 Y72.681
X13.635 Y72.994
X12.928 Y73.29
X12.107 Y73.558
X11.245 Y73.764
X10.37 Y73.907
X9.488 Y73.992
X8.603 Y74.024
X7.717 Y74.005
X6.833 Y73.94
X5.954 Y73.83
X5.08 Y73.681
X4.214 Y73.494
X3.357 Y73.271
X2.508 Y73.014
X1.671 Y72.725
X0.844 Y72.405
X0.03 Y72.056
X-0.772 Y71.678
X-1.559 Y71.272
X-2.333 Y70.84
X-3.091 Y70.381
X-3.833 Y69.897
X-4.56 Y69.391
X-5.271 Y68.861
X-5.965 Y68.31
X-6.642 Y67.738
X-7.301 Y67.147
X-7.943 Y66.536
X-8.567 Y65.907
X-9.173 Y65.26
X-9.759 Y64.596
X-10.327 Y63.915
X-10.874 Y63.218
X-11.401 Y62.505
X-11.907 Y61.778
X-12.393 Y61.037
X-12.858 Y60.283
X-13.301 Y59.515
X-13.724 Y58.737
X-14.125 Y57.946
X-14.504 Y57.145
X-14.861 Y56.334
X-15.196 Y55.514
X-15.508 Y54.685
X-15.797 Y53.847
X-16.061 Y53.001
X-16.3 Y52.148
X-16.514 Y51.288
X-16.702 Y50.422
X-16.864 Y49.551
X-17 Y48.675
X-17.108 Y47.796
X-17.189 Y46.913
X-17.242 Y46.029
X-17.266 Y45.143
X-17.26 Y44.257
X-17.224 Y43.371
X-17.154 Y42.488
X-17.052 Y41.608
X-16.915 Y40.732
X-16.745 Y39.863
X-16.539 Y39.001
X-16.299 Y38.148
X-16.023 Y37.306
X-15.711 Y36.476
X-15.361 Y35.662
X-14.971 Y34.867
X-14.541 Y34.092
X-14.071 Y33.341
X-13.561 Y32.616
X-13.013 Y31.92
X-12.425 Y31.257
X-11.798 Y30.631
X-11.469 Y30.345
X-11.266 Y30.198
X-11.04 Y30.089
X-10.799 Y30.022
X-10.549 Y30
X-6.316
G3 X-5.752 Y30.465 I-0.021 J0.6
G1 X-5.731 Y30.556 Z-17.993
X-5.71 Y30.645 Z-17.971
X-5.691 Y30.73 Z-17.935
X-5.673 Y30.808 Z-17.885
X-5.656 Y30.878 Z-17.824
X-5.643 Y30.938 Z-17.753
X-5.632 Y30.986 Z-17.672
X-5.624 Y31.021 Z-17.585
X-5.619 Y31.042 Z-17.494
X-5.617 Y31.049 Z-17.4
Z-16.8
X16.472 Y67.707
Z-17.4
X16.476 Y67.714 Z-17.494
X16.487 Y67.733 Z-17.585
X16.505 Y67.764 Z-17.672
X16.531 Y67.806 Z-17.753
X16.562 Y67.858 Z-17.824
X16.598 Y67.92 Z-17.885
X16.639 Y67.989 Z-17.935
X16.684 Y68.064 Z-17.971
X16.731 Y68.142 Z-17.993
X16.779 Y68.223 Z-18
G3 X17 Y68.977 I-1.36 J0.809
G1 Y71.099
X16.991 Y71.283
X16.964 Y71.484
X16.916 Y71.71
X16.843 Y71.955
X16.742 Y72.215
X16.601 Y72.505
X16.429 Y72.797
X16.203 Y73.119
X15.937 Y73.439
X15.602 Y73.782
X15.209 Y74.125
X14.742 Y74.471
X14.173 Y74.825
X13.552 Y75.145
X12.813 Y75.454
X11.97 Y75.729
X11.109 Y75.937
X10.235 Y76.085
X9.354 Y76.177
X8.469 Y76.219
X7.583 Y76.213
X6.698 Y76.163
X5.817 Y76.071
X4.94 Y75.94
X4.07 Y75.773
X3.207 Y75.573
X2.352 Y75.339
X1.506 Y75.075
X0.67 Y74.782
X-0.156 Y74.459
X-0.97 Y74.11
X-1.772 Y73.734
X-2.562 Y73.332
X-3.338 Y72.905
X-4.101 Y72.453
X-4.849 Y71.979
X-5.583 Y71.482
X-6.301 Y70.963
X-7.005 Y70.425
X-7.693 Y69.866
X-8.365 Y69.289
X-9.021 Y68.693
X-9.661 Y68.08
X-10.283 Y67.449
X-10.889 Y66.802
X-11.476 Y66.139
X-12.046 Y65.46
X-12.597 Y64.766
X-13.128 Y64.057
X-13.641 Y63.334
X-14.135 Y62.598
X-14.609 Y61.85
X-15.064 Y61.089
X-15.499 Y60.317
X-15.914 Y59.534
X-16.308 Y58.741
X-16.683 Y57.938
X-17.036 Y57.125
X-17.369 Y56.304
X-17.68 Y55.474
X-17.969 Y54.637
X-18.236 Y53.792
X-18.479 Y52.939
X-18.698 Y52.081
X-18.893 Y51.216
X-19.065 Y50.347
X-19.211 Y49.473
X-19.333 Y48.596
X-19.43 Y47.715
X-19.501 Y46.831
X-19.546 Y45.946
X-19.564 Y45.061
X-19.554 Y44.174
X-19.516 Y43.289
X-19.447 Y42.406
X-19.348 Y41.525
X-19.218 Y40.649
X-19.057 Y39.777
X-18.866 Y38.912
X-18.642 Y38.054
X-18.387 Y37.206
X-18.1 Y36.368
X-17.778 Y35.542
X-17.423 Y34.73
X-17.031 Y33.935
X-16.605 Y33.159
X-16.143 Y32.402
X-15.647 Y31.668
X-15.116 Y30.959
X-14.742 Y30.507
X-14.521 Y30.293
X-14.259 Y30.133
X-13.969 Y30.034
X-13.663 Y30
X-10.549
G3 X-9.985 Y30.465 I-0.021 J0.6
G1 X-9.964 Y30.556 Z-17.993
X-9.944 Y30.645 Z-17.971
X-9.924 Y30.73 Z-17.935
X-9.906 Y30.808 Z-17.885
X-9.89 Y30.878 Z-17.824
X-9.876 Y30.938 Z-17.753
X-9.865 Y30.986 Z-17.672
X-9.857 Y31.021 Z-17.585
X-9.852 Y31.042 Z-17.494
X-9.85 Y31.049 Z-17.4
Z-16.8
X16.472 Y69.83
Z-17.4
X16.476 Y69.836 Z-17.494
X16.487 Y69.855 Z-17.585
X16.505 Y69.886 Z-17.672
X16.531 Y69.928 Z-17.753
X16.562 Y69.981 Z-17.824
X16.598 Y70.042 Z-17.885
X16.639 Y70.111 Z-17.935
X16.684 Y70.186 Z-17.971
X16.731 Y70.265 Z-17.993
X16.779 Y70.345 Z-18
G3 X17 Y71.099 I-1.36 J0.809
G1 Y73.201
X16.991 Y73.373
X16.964 Y73.579
X16.916 Y73.805
X16.84 Y74.058
X16.739 Y74.317
X16.595 Y74.615
X16.422 Y74.909
X16.189 Y75.24
X15.922 Y75.562
X15.574 Y75.918
X15.181 Y76.261
X14.694 Y76.621
X14.118 Y76.98
X13.475 Y77.312
X12.708 Y77.633
X11.865 Y77.908
X11.005 Y78.119
X10.132 Y78.272
X9.251 Y78.372
X8.367 Y78.424
X7.481 Y78.43
X6.595 Y78.394
X5.712 Y78.319
X4.833 Y78.206
X3.96 Y78.058
X3.092 Y77.878
X2.232 Y77.666
X1.379 Y77.425
X0.535 Y77.156
X-0.3 Y76.859
X-1.125 Y76.536
X-1.94 Y76.187
X-2.743 Y75.813
X-3.535 Y75.415
X-4.314 Y74.993
X-5.081 Y74.549
X-5.834 Y74.083
X-6.574 Y73.595
X-7.301 Y73.088
X-8.013 Y72.561
X-8.711 Y72.015
X-9.395 Y71.451
X-10.063 Y70.869
X-10.716 Y70.271
X-11.354 Y69.655
X-11.976 Y69.024
X-12.582 Y68.378
X-13.171 Y67.716
X-13.744 Y67.039
X-14.298 Y66.348
X-14.835 Y65.643
X-15.354 Y64.925
X-15.856 Y64.194
X-16.339 Y63.452
X-16.804 Y62.697
X-17.25 Y61.932
X-17.678 Y61.156
X-18.088 Y60.37
X-18.478 Y59.574
X-18.849 Y58.77
X-19.2 Y57.956
X-19.532 Y57.135
X-19.843 Y56.305
X-20.134 Y55.468
X-20.403 Y54.624
X-20.65 Y53.773
X-20.875 Y52.916
X-21.078 Y52.053
X-21.259 Y51.185
X-21.417 Y50.314
X-21.552 Y49.438
X-21.663 Y48.559
X-21.751 Y47.677
X-21.815 Y46.793
X-21.854 Y45.908
X-21.868 Y45.022
X-21.856 Y44.136
X-21.817 Y43.251
X-21.751 Y42.367
X-21.657 Y41.486
X-21.534 Y40.608
X-21.384 Y39.735
X-21.205 Y38.867
X-20.998 Y38.006
X-20.761 Y37.152
X-20.495 Y36.306
X-20.2 Y35.471
X-19.873 Y34.647
X-19.515 Y33.836
X-19.125 Y33.041
X-18.704 Y32.261
X-18.251 Y31.5
X-17.767 Y30.757
X-17.626 Y30.567
X-17.403 Y30.329
X-17.131 Y30.15
X-16.824 Y30.038
X-16.501 Y30
X-13.663
G3 X-13.1 Y30.465 I-0.021 J0.6
G1 X-13.079 Y30.556 Z-17.993
X-13.058 Y30.645 Z-17.971
X-13.038 Y30.73 Z-17.935
X-13.02 Y30.808 Z-17.885
X-13.004 Y30.878 Z-17.824
X-12.99 Y30.938 Z-17.753
X-12.979 Y30.986 Z-17.672
X-12.971 Y31.021 Z-17.585
X-12.966 Y31.042 Z-17.494
X-12.965 Y31.049 Z-17.4
Z-16.8
X16.472 Y71.932
Z-17.4
X16.476 Y71.938 Z-17.494
X16.487 Y71.957 Z-17.585
X16.505 Y71.988 Z-17.672
X16.531 Y72.03 Z-17.753
X16.562 Y72.083 Z-17.824
X16.598 Y72.144 Z-17.885
X16.639 Y72.213 Z-17.935
X16.684 Y72.288 Z-17.971
X16.731 Y72.367 Z-17.993
X16.779 Y72.447 Z-18
G3 X17 Y73.201 I-1.36 J0.809
G1 Y75.212
X16.986 Y75.49
X16.959 Y75.699
X16.91 Y75.925
X16.833 Y76.182
X16.732 Y76.443
X16.585 Y76.745
X16.411 Y77.041
X16.174 Y77.379
X16.055 Y77.522
X15.858 Y77.716
X15.627 Y77.868
X15.37 Y77.971
X15.098 Y78.022
G3 X14.555 Y77.111 I-0.031 J-0.599
G1 X15.888 Y74.921
G3 X17 Y75.212 I0.512 J0.312
G1 Y77.224
X16.999 Y77.325
X16.985 Y77.425
X16.971 Y77.475
X16.953 Y77.526
X16.929 Y77.576
X16.898 Y77.626
X16.828 Y77.715
X16.758 Y77.78
X16.688 Y77.828
X16.626 Y77.859
X16.576 Y77.878
X16.526 Y77.893
X16.425 Y77.908
X3.741 Y78.999
X3.54 Y79.015
X2.131 Y79.111
X1.293 Y79.126
X0.607 Y79.083
X-0.226 Y78.963
X-1.09 Y78.767
X-1.939 Y78.513
X-2.773 Y78.213
X-3.592 Y77.874
X-4.396 Y77.503
X-5.187 Y77.102
X-5.964 Y76.676
X-6.727 Y76.226
X-7.477 Y75.754
X-8.213 Y75.261
X-8.936 Y74.748
X-9.645 Y74.217
X-10.341 Y73.668
X-11.022 Y73.102
X-11.69 Y72.519
X-12.343 Y71.92
X-12.981 Y71.305
X-13.604 Y70.675
X-14.212 Y70.03
X-14.804 Y69.371
X-15.38 Y68.698
X-15.94 Y68.011
X-16.483 Y67.311
X-17.01 Y66.598
X-17.52 Y65.874
X-18.013 Y65.137
X-18.489 Y64.39
X-18.948 Y63.632
X-19.389 Y62.863
X-19.813 Y62.085
X-20.22 Y61.298
X-20.608 Y60.501
X-20.978 Y59.696
X-21.33 Y58.883
X-21.663 Y58.062
X-21.977 Y57.233
X-22.27 Y56.397
X-22.544 Y55.554
X-22.797 Y54.705
X-23.03 Y53.85
X-23.242 Y52.99
X-23.433 Y52.124
X-23.603 Y51.255
X-23.752 Y50.381
X-23.879 Y49.504
X-23.984 Y48.624
X-24.067 Y47.742
X-24.128 Y46.858
X-24.165 Y45.973
X-24.179 Y45.087
X-24.168 Y44.201
X-24.132 Y43.315
X-24.07 Y42.431
X-23.983 Y41.549
X-23.87 Y40.671
X-23.732 Y39.795
X-23.567 Y38.925
X-23.376 Y38.059
X-23.159 Y37.2
X-22.915 Y36.348
X-22.644 Y35.505
X-22.345 Y34.67
X-22.018 Y33.847
X-21.662 Y33.036
X-21.277 Y32.237
X-20.863 Y31.454
X-20.436 Y30.72
X-20.352 Y30.6
X-20.178 Y30.395
X-19.968 Y30.227
X-19.729 Y30.103
X-19.471 Y30.026
X-19.203 Y30
X-16.501
G3 X-15.937 Y30.465 I-0.021 J0.6
G1 X-15.916 Y30.556 Z-17.993
X-15.895 Y30.645 Z-17.971
X-15.876 Y30.73 Z-17.935
X-15.858 Y30.808 Z-17.885
X-15.842 Y30.878 Z-17.824
X-15.828 Y30.938 Z-17.753
X-15.817 Y30.986 Z-17.672
X-15.809 Y31.021 Z-17.585
X-15.804 Y31.042 Z-17.494
X-15.802 Y31.049 Z-17.4
Z-16.8
X3.177 Y78.567
Z-17.4
X3.171 Y78.571 Z-17.494
X3.153 Y78.583 Z-17.585
X3.123 Y78.604 Z-17.672
X3.083 Y78.632 Z-17.753
X3.033 Y78.666 Z-17.824
X2.974 Y78.707 Z-17.885
X2.908 Y78.753 Z-17.935
X2.836 Y78.802 Z-17.971
X2.761 Y78.854 Z-17.993
X2.684 Y78.907 Z-18
G3 X2.131 Y79.111 I-0.674 J-0.977
G1 X-2.902 Y79.453
X-3.379 Y79.461
X-3.866 Y79.431
X-4.454 Y79.346
X-5.142 Y79.19
X-5.985 Y78.926
X-6.806 Y78.594
X-7.605 Y78.211
X-8.384 Y77.788
X-9.144 Y77.332
X-9.887 Y76.849
X-10.613 Y76.341
X-11.324 Y75.813
X-12.02 Y75.265
X-12.702 Y74.698
X-13.369 Y74.115
X-14.022 Y73.516
X-14.661 Y72.902
X-15.285 Y72.272
X-15.894 Y71.629
X-16.488 Y70.972
X-17.067 Y70.301
X-17.63 Y69.617
X-18.178 Y68.92
X-18.71 Y68.212
X-19.226 Y67.492
X-19.727 Y66.76
X-20.211 Y66.018
X-20.68 Y65.266
X-21.131 Y64.504
X-21.567 Y63.732
X-21.986 Y62.951
X-22.388 Y62.161
X-22.773 Y61.363
X-23.141 Y60.557
X-23.491 Y59.743
X-23.823 Y58.922
X-24.137 Y58.093
X-24.433 Y57.258
X-24.71 Y56.416
X-24.967 Y55.568
X-25.205 Y54.714
X-25.424 Y53.856
X-25.623 Y52.992
X-25.802 Y52.124
X-25.961 Y51.253
X-26.1 Y50.378
X-26.219 Y49.499
X-26.316 Y48.619
X-26.393 Y47.736
X-26.449 Y46.852
X-26.482 Y45.966
X-26.493 Y45.08
X-26.482 Y44.194
X-26.447 Y43.308
X-26.389 Y42.424
X-26.307 Y41.542
X-26.2 Y40.662
X-26.07 Y39.786
X-25.916 Y38.913
X-25.737 Y38.045
X-25.534 Y37.183
X-25.307 Y36.326
X-25.054 Y35.477
X-24.776 Y34.635
X-24.473 Y33.803
X-24.144 Y32.98
X-23.788 Y32.169
X-23.404 Y31.37
X-23.059 Y30.743
X-22.982 Y30.628
X-22.808 Y30.414
X-22.596 Y30.238
X-22.353 Y30.108
X-22.089 Y30.027
X-21.815 Y30
X-19.203
G3 X-18.64 Y30.465 I-0.021 J0.6
G1 X-18.619 Y30.556 Z-17.993
X-18.598 Y30.645 Z-17.971
X-18.578 Y30.73 Z-17.935
X-18.56 Y30.808 Z-17.885
X-18.544 Y30.878 Z-17.824
X-18.531 Y30.938 Z-17.753
X-18.519 Y30.986 Z-17.672
X-18.511 Y31.021 Z-17.585
X-18.506 Y31.042 Z-17.494
X-18.505 Y31.049 Z-17.4
Z-16.8
X-1.672 Y78.84
Z-17.4
X-1.678 Y78.844 Z-17.494
X-1.696 Y78.857 Z-17.585
X-1.725 Y78.877 Z-17.672
X-1.766 Y78.905 Z-17.753
X-1.816 Y78.94 Z-17.824
X-1.875 Y78.981 Z-17.885
X-1.941 Y79.026 Z-17.935
X-2.013 Y79.076 Z-17.971
X-2.088 Y79.128 Z-17.993
X-2.165 Y79.181 Z-18
G3 X-2.902 Y79.453 I-0.899 J-1.302
G1 X-4.311 Y79.548
X-4.513 Y79.561
X-6.929 Y79.694
X-7.432 Y79.696
X-7.855 Y79.664
X-8.342 Y79.587
X-8.918 Y79.449
X-9.609 Y79.222
X-10.426 Y78.879
X-11.213 Y78.473
X-11.974 Y78.019
X-12.712 Y77.528
X-13.429 Y77.007
X-14.127 Y76.461
X-14.807 Y75.893
X-15.47 Y75.306
X-16.118 Y74.701
X-16.75 Y74.08
X-17.367 Y73.444
X-17.969 Y72.794
X-18.557 Y72.13
X-19.129 Y71.454
X-19.686 Y70.765
X-20.229 Y70.064
X-20.757 Y69.352
X-21.269 Y68.63
X-21.766 Y67.896
X-22.249 Y67.153
X-22.715 Y66.399
X-23.167 Y65.637
X-23.602 Y64.865
X-24.022 Y64.085
X-24.426 Y63.296
X-24.814 Y62.5
X-25.185 Y61.695
X-25.54 Y60.883
X-25.877 Y60.063
X-26.197 Y59.237
X-26.5 Y58.404
X-26.785 Y57.565
X-27.052 Y56.72
X-27.301 Y55.87
X-27.531 Y55.014
X-27.744 Y54.154
X-27.938 Y53.289
X-28.113 Y52.421
X-28.269 Y51.548
X-28.407 Y50.673
X-28.524 Y49.795
X-28.623 Y48.914
X-28.702 Y48.032
X-28.76 Y47.147
X-28.797 Y46.262
X-28.813 Y45.376
X-28.808 Y44.49
X-28.781 Y43.604
X-28.733 Y42.719
X-28.662 Y41.836
X-28.569 Y40.955
X-28.454 Y40.076
X-28.317 Y39.201
X-28.157 Y38.329
X-27.975 Y37.462
X-27.77 Y36.6
X-27.542 Y35.744
X-27.291 Y34.894
X-27.016 Y34.052
X-26.716 Y33.218
X-26.392 Y32.393
X-26.04 Y31.579
X-25.71 Y30.917
X-25.565 Y30.677
X-25.392 Y30.447
X-25.176 Y30.258
X-24.926 Y30.117
X-24.652 Y30.029
X-24.367 Y30
X-21.815
G3 X-21.251 Y30.465 I-0.021 J0.6
G1 X-21.23 Y30.556 Z-17.993
X-21.209 Y30.645 Z-17.971
X-21.19 Y30.73 Z-17.935
X-21.172 Y30.808 Z-17.885
X-21.155 Y30.878 Z-17.824
X-21.142 Y30.938 Z-17.753
X-21.131 Y30.986 Z-17.672
X-21.123 Y31.021 Z-17.585
X-21.118 Y31.042 Z-17.494
X-21.116 Y31.049 Z-17.4
Z-16.8
X-5.69 Y79.098
Z-17.4
X-5.696 Y79.102 Z-17.494
X-5.714 Y79.114 Z-17.585
X-5.744 Y79.134 Z-17.672
X-5.785 Y79.161 Z-17.753
X-5.836 Y79.195 Z-17.824
X-5.895 Y79.235 Z-17.885
X-5.962 Y79.28 Z-17.935
X-6.034 Y79.329 Z-17.971
X-6.11 Y79.38 Z-17.993
X-6.188 Y79.432 Z-18
G3 X-6.929 Y79.694 I-0.882 J-1.314
G1 X-10.553 Y79.892
X-11.031 Y79.894
X-11.414 Y79.865
X-11.838 Y79.798
X-12.349 Y79.675
X-12.936 Y79.483
X-13.63 Y79.192
X-14.417 Y78.784
X-15.171 Y78.319
X-15.896 Y77.81
X-16.596 Y77.267
X-17.274 Y76.696
X-17.932 Y76.102
X-18.571 Y75.488
X-19.193 Y74.857
X-19.798 Y74.21
X-20.388 Y73.548
X-20.963 Y72.874
X-21.522 Y72.187
X-22.067 Y71.488
X-22.598 Y70.778
X-23.113 Y70.058
X-23.614 Y69.327
X-24.1 Y68.586
X-24.572 Y67.835
X-25.028 Y67.076
X-25.47 Y66.308
X-25.896 Y65.531
X-26.308 Y64.746
X-26.704 Y63.953
X-27.084 Y63.153
X-27.448 Y62.345
X-27.797 Y61.531
X-28.129 Y60.709
X-28.445 Y59.881
X-28.744 Y59.047
X-29.027 Y58.207
X-29.293 Y57.362
X-29.542 Y56.512
X-29.773 Y55.656
X-29.987 Y54.796
X-30.184 Y53.932
X-30.363 Y53.064
X-30.523 Y52.193
X-30.666 Y51.318
X-30.79 Y50.441
X-30.896 Y49.561
X-30.983 Y48.679
X-31.051 Y47.796
X-31.099 Y46.911
X-31.128 Y46.025
X-31.137 Y45.139
X-31.126 Y44.253
X-31.094 Y43.368
X-31.043 Y42.483
X-30.971 Y41.6
X-30.878 Y40.719
X-30.764 Y39.84
X-30.63 Y38.964
X-30.474 Y38.092
X-30.296 Y37.224
X-30.097 Y36.36
X-29.877 Y35.502
X-29.634 Y34.649
X-29.37 Y33.804
X-29.083 Y32.965
X-28.77 Y32.136
X-28.424 Y31.32
X-28.143 Y30.774
X-28.074 Y30.662
X-27.901 Y30.437
X-27.686 Y30.252
X-27.438 Y30.114
X-27.167 Y30.029
X-26.884 Y30
X-24.367
G3 X-23.803 Y30.465 I-0.021 J0.6
G1 X-23.782 Y30.556 Z-17.993
X-23.761 Y30.645 Z-17.971
X-23.742 Y30.73 Z-17.935
X-23.724 Y30.808 Z-17.885
X-23.707 Y30.878 Z-17.824
X-23.694 Y30.938 Z-17.753
X-23.683 Y30.986 Z-17.672
X-23.674 Y31.021 Z-17.585
X-23.67 Y31.042 Z-17.494
X-23.668 Y31.049 Z-17.4
Z-16.8
X-9.314 Y79.296
Z-17.4
X-9.32 Y79.3 Z-17.494
X-9.338 Y79.312 Z-17.585
X-9.368 Y79.332 Z-17.672
X-9.409 Y79.359 Z-17.753
X-9.46 Y79.393 Z-17.824
X-9.519 Y79.433 Z-17.885
X-9.586 Y79.478 Z-17.935
X-9.658 Y79.527 Z-17.971
X-9.734 Y79.578 Z-17.993
X-9.812 Y79.63 Z-18
G3 X-10.553 Y79.892 I-0.882 J-1.314
G1 X-12.566 Y80.002
X-14.176 Y80.079
X-14.289
X-14.63 Y80.06
X-15.004 Y80.01
X-15.453 Y79.913
X-15.951 Y79.761
X-16.544 Y79.528
X-17.24 Y79.187
X-18.002 Y78.735
X-18.729 Y78.228
X-19.425 Y77.679
X-20.094 Y77.098
X-20.74 Y76.492
X-21.364 Y75.863
X-21.97 Y75.216
X-22.558 Y74.553
X-23.129 Y73.876
X-23.685 Y73.186
X-24.225 Y72.483
X-24.75 Y71.77
X-25.261 Y71.046
X-25.757 Y70.311
X-26.239 Y69.568
X-26.707 Y68.815
X-27.16 Y68.053
X-27.599 Y67.284
X-28.023 Y66.506
X-28.432 Y65.72
X-28.827 Y64.926
X-29.207 Y64.126
X-29.572 Y63.318
X-29.922 Y62.504
X-30.256 Y61.684
X-30.575 Y60.857
X-30.877 Y60.024
X-31.164 Y59.185
X-31.435 Y58.342
X-31.69 Y57.493
X-31.928 Y56.64
X-32.15 Y55.782
X-32.355 Y54.92
X-32.543 Y54.054
X-32.715 Y53.184
X-32.869 Y52.312
X-33.006 Y51.436
X-33.126 Y50.558
X-33.228 Y49.678
X-33.312 Y48.796
X-33.378 Y47.912
X-33.426 Y47.027
X-33.455 Y46.142
X-33.466 Y45.256
X-33.457 Y44.37
X-33.43 Y43.484
X-33.383 Y42.599
X-33.316 Y41.715
X-33.231 Y40.833
X-33.125 Y39.954
X-33 Y39.076
X-32.855 Y38.202
X-32.69 Y37.332
X-32.505 Y36.465
X-32.3 Y35.603
X-32.074 Y34.746
X-31.828 Y33.895
X-31.559 Y33.05
X-31.267 Y32.214
X-30.938 Y31.391
X-30.67 Y30.846
X-30.574 Y30.684
X-30.402 Y30.452
X-30.185 Y30.261
X-29.934 Y30.118
X-29.659 Y30.03
X-29.371 Y30
X-26.884
G3 X-26.321 Y30.465 I-0.021 J0.6
G1 X-26.299 Y30.556 Z-17.993
X-26.279 Y30.645 Z-17.971
X-26.259 Y30.73 Z-17.935
X-26.241 Y30.808 Z-17.885
X-26.225 Y30.878 Z-17.824
X-26.211 Y30.938 Z-17.753
X-26.2 Y30.986 Z-17.672
X-26.192 Y31.021 Z-17.585
X-26.187 Y31.042 Z-17.494
X-26.186 Y31.049 Z-17.4
Z-16.8
X-12.934 Y79.491
Z-17.4
X-12.94 Y79.495 Z-17.494
X-12.958 Y79.507 Z-17.585
X-12.988 Y79.527 Z-17.672
X-13.029 Y79.554 Z-17.753
X-13.08 Y79.588 Z-17.824
X-13.14 Y79.628 Z-17.885
X-13.207 Y79.672 Z-17.935
X-13.28 Y79.72 Z-17.971
X-13.356 Y79.77 Z-17.993
X-13.434 Y79.822 Z-18
G3 X-14.176 Y80.079 I-0.873 J-1.32
G1 X-17.579 Y80.241
X-17.729
X-18.08 Y80.198
X-18.487 Y80.114
X-18.945 Y79.981
X-19.474 Y79.78
X-20.093 Y79.486
X-20.812 Y79.07
X-21.542 Y78.567
X-22.235 Y78.015
X-22.897 Y77.427
X-23.533 Y76.809
X-24.145 Y76.168
X-24.736 Y75.508
X-25.308 Y74.831
X-25.862 Y74.14
X-26.4 Y73.436
X-26.922 Y72.72
X-27.43 Y71.993
X-27.922 Y71.257
X-28.4 Y70.51
X-28.864 Y69.756
X-29.314 Y68.992
X-29.75 Y68.22
X-30.171 Y67.441
X-30.579 Y66.654
X-30.972 Y65.86
X-31.351 Y65.059
X-31.716 Y64.252
X-32.066 Y63.437
X-32.401 Y62.617
X-32.722 Y61.791
X-33.027 Y60.959
X-33.317 Y60.122
X-33.592 Y59.279
X-33.851 Y58.432
X-34.095 Y57.58
X-34.323 Y56.724
X-34.535 Y55.864
X-34.731 Y54.999
X-34.911 Y54.132
X-35.075 Y53.261
X-35.223 Y52.387
X-35.354 Y51.511
X-35.469 Y50.632
X-35.567 Y49.752
X-35.647 Y48.869
X-35.711 Y47.985
X-35.757 Y47.1
X-35.786 Y46.215
X-35.797 Y45.329
X-35.791 Y44.443
X-35.766 Y43.557
X-35.722 Y42.672
X-35.661 Y41.788
X-35.58 Y40.905
X-35.482 Y40.025
X-35.364 Y39.146
X-35.228 Y38.271
X-35.073 Y37.398
X-34.899 Y36.529
X-34.706 Y35.665
X-34.494 Y34.804
X-34.262 Y33.949
X-34.009 Y33.1
X-33.731 Y32.259
X-33.414 Y31.431
X-33.157 Y30.889
X-33.047 Y30.7
X-32.875 Y30.463
X-32.658 Y30.267
X-32.404 Y30.121
X-32.126 Y30.031
X-31.835 Y30
X-29.371
G3 X-28.807 Y30.465 I-0.021 J0.6
G1 X-28.786 Y30.556 Z-17.993
X-28.766 Y30.645 Z-17.971
X-28.746 Y30.73 Z-17.935
X-28.728 Y30.808 Z-17.885
X-28.712 Y30.878 Z-17.824
X-28.698 Y30.938 Z-17.753
X-28.687 Y30.986 Z-17.672
X-28.679 Y31.021 Z-17.585
X-28.674 Y31.042 Z-17.494
X-28.672 Y31.049 Z-17.4
Z-16.8
X-16.337 Y79.654
Z-17.4
X-16.343 Y79.658 Z-17.494
X-16.361 Y79.67 Z-17.585
X-16.391 Y79.69 Z-17.672
X-16.432 Y79.717 Z-17.753
X-16.483 Y79.75 Z-17.824
X-16.543 Y79.79 Z-17.885
X-16.61 Y79.834 Z-17.935
X-16.682 Y79.882 Z-17.971
X-16.759 Y79.933 Z-17.993
X-16.837 Y79.984 Z-18
G3 X-17.579 Y80.241 I-0.873 J-1.32
G1 X-20.82 Y80.396
X-20.97
X-21.34 Y80.33
X-21.756 Y80.22
X-22.233 Y80.053
X-22.787 Y79.807
X-23.406 Y79.47
X-24.139 Y78.991
X-24.84 Y78.449
X-25.504 Y77.862
X-26.138 Y77.243
X-26.745 Y76.597
X-27.329 Y75.931
X-27.891 Y75.246
X-28.435 Y74.546
X-28.961 Y73.834
X-29.472 Y73.109
X-29.966 Y72.374
X-30.446 Y71.629
X-30.911 Y70.875
X-31.362 Y70.112
X-31.799 Y69.341
X-32.222 Y68.562
X-32.632 Y67.777
X-33.028 Y66.984
X-33.409 Y66.184
X-33.777 Y65.378
X-34.131 Y64.565
X-34.47 Y63.747
X-34.796 Y62.923
X-35.106 Y62.093
X-35.403 Y61.258
X-35.684 Y60.417
X-35.951 Y59.572
X-36.203 Y58.723
X-36.441 Y57.869
X-36.663 Y57.011
X-36.87 Y56.15
X-37.062 Y55.285
X-37.239 Y54.416
X-37.4 Y53.545
X-37.546 Y52.671
X-37.675 Y51.795
X-37.79 Y50.916
X-37.888 Y50.035
X-37.97 Y49.153
X-38.035 Y48.269
X-38.084 Y47.384
X-38.117 Y46.499
X-38.132 Y45.613
X-38.13 Y44.727
X-38.111 Y43.841
X-38.075 Y42.955
X-38.021 Y42.071
X-37.95 Y41.188
X-37.862 Y40.306
X-37.756 Y39.426
X-37.632 Y38.549
X-37.49 Y37.674
X-37.331 Y36.802
X-37.154 Y35.934
X-36.958 Y35.07
X-36.744 Y34.21
X-36.509 Y33.356
X-36.249 Y32.508
X-35.954 Y31.673
X-35.688 Y31.062
X-35.459 Y30.635
X-35.287 Y30.383
X-35.064 Y30.176
X-34.802 Y30.021
X-34.512 Y29.928
X-34.208 Y29.9
X-33.906 Y29.939
X-33.829 Y29.953
X-33.705 Y29.97
X-33.504 Y29.99
X-33.302 Y30
X-31.835
G3 X-31.271 Y30.465 I-0.021 J0.6
G1 X-31.25 Y30.556 Z-17.993
X-31.23 Y30.645 Z-17.971
X-31.21 Y30.73 Z-17.935
X-31.192 Y30.808 Z-17.885
X-31.176 Y30.878 Z-17.824
X-31.162 Y30.938 Z-17.753
X-31.151 Y30.986 Z-17.672
X-31.143 Y31.021 Z-17.585
X-31.138 Y31.042 Z-17.494
X-31.136 Y31.049 Z-17.4
Z-16.8
X-19.577 Y79.808
Z-17.4
X-19.584 Y79.812 Z-17.494
X-19.602 Y79.824 Z-17.585
X-19.632 Y79.844 Z-17.672
X-19.673 Y79.871 Z-17.753
X-19.724 Y79.905 Z-17.824
X-19.784 Y79.945 Z-17.885
X-19.851 Y79.989 Z-17.935
X-19.923 Y80.037 Z-17.971
X-20 Y80.087 Z-17.993
X-20.078 Y80.139 Z-18
G3 X-20.82 Y80.396 I-0.873 J-1.32
G1 X-24.041 Y80.55
X-24.191 Y80.549
X-24.607 Y80.439
X-25.053 Y80.282
X-25.577 Y80.049
X-26.179 Y79.721
X-26.86 Y79.275
X-27.56 Y78.732
X-28.221 Y78.142
X-28.848 Y77.515
X-29.446 Y76.862
X-30.019 Y76.186
X-30.57 Y75.491
X-31.101 Y74.782
X-31.613 Y74.059
X-32.109 Y73.325
X-32.589 Y72.58
X-33.054 Y71.825
X-33.505 Y71.062
X-33.941 Y70.291
X-34.363 Y69.512
X-34.772 Y68.726
X-35.167 Y67.933
X-35.549 Y67.133
X-35.917 Y66.327
X-36.272 Y65.515
X-36.613 Y64.697
X-36.94 Y63.874
X-37.253 Y63.045
X-37.552 Y62.211
X-37.837 Y61.372
X-38.108 Y60.528
X-38.365 Y59.68
X-38.608 Y58.828
X-38.836 Y57.971
X-39.05 Y57.111
X-39.249 Y56.248
X-39.434 Y55.381
X-39.604 Y54.512
X-39.759 Y53.639
X-39.9 Y52.764
X-40.025 Y51.887
X-40.135 Y51.008
X-40.23 Y50.127
X-40.31 Y49.244
X-40.373 Y48.361
X-40.421 Y47.476
X-40.453 Y46.59
X-40.469 Y45.704
Y44.818
X-40.453 Y43.932
X-40.42 Y43.047
X-40.37 Y42.162
X-40.304 Y41.278
X-40.221 Y40.396
X-40.121 Y39.515
X-40.005 Y38.637
X-39.871 Y37.761
X-39.721 Y36.888
X-39.554 Y36.018
X-39.369 Y35.151
X-39.165 Y34.288
X-38.941 Y33.431
X-38.692 Y32.581
X-38.406 Y31.742
X-38.128 Y31.072
X-37.874 Y30.575
X-37.641 Y30.197
X-37.387 Y29.851
X-37.147 Y29.574
X-37.039 Y29.468
X-36.812 Y29.286
X-36.553 Y29.154
X-36.272 Y29.077
X-35.981 Y29.059
X-35.693 Y29.099
X-35.419 Y29.197
X-35.17 Y29.349
G3 X-35.003 Y30.06 I-0.379 J0.465
G1 X-35.041 Y30.146 Z-17.993
X-35.079 Y30.229 Z-17.971
X-35.115 Y30.309 Z-17.935
X-35.147 Y30.382 Z-17.885
X-35.177 Y30.447 Z-17.824
X-35.202 Y30.503 Z-17.753
X-35.222 Y30.548 Z-17.672
X-35.237 Y30.581 Z-17.585
X-35.246 Y30.601 Z-17.494
X-35.249 Y30.607 Z-17.4
Z-16.8
X-22.799 Y79.962
Z-17.4
X-22.805 Y79.966 Z-17.494
X-22.823 Y79.978 Z-17.585
X-22.853 Y79.998 Z-17.672
X-22.894 Y80.025 Z-17.753
X-22.945 Y80.059 Z-17.824
X-23.005 Y80.098 Z-17.885
X-23.072 Y80.142 Z-17.935
X-23.144 Y80.19 Z-17.971
X-23.221 Y80.241 Z-17.993
X-23.299 Y80.293 Z-18
G3 X-24.041 Y80.55 I-0.873 J-1.32
G1 X-27.061 Y80.694
X-27.211 Y80.693
X-27.618 Y80.568
X-28.097 Y80.376
X-28.616 Y80.119
X-29.222 Y79.756
X-29.921 Y79.256
X-30.598 Y78.684
X-31.236 Y78.069
X-31.84 Y77.421
X-32.417 Y76.748
X-32.968 Y76.054
X-33.497 Y75.343
X-34.006 Y74.618
X-34.497 Y73.881
X-34.972 Y73.133
X-35.431 Y72.375
X-35.875 Y71.608
X-36.304 Y70.833
X-36.72 Y70.05
X-37.122 Y69.26
X-37.51 Y68.464
X-37.885 Y67.661
X-38.246 Y66.852
X-38.595 Y66.037
X-38.93 Y65.217
X-39.251 Y64.391
X-39.56 Y63.56
X-39.855 Y62.724
X-40.136 Y61.884
X-40.404 Y61.04
X-40.658 Y60.191
X-40.899 Y59.338
X-41.125 Y58.481
X-41.338 Y57.621
X-41.538 Y56.758
X-41.723 Y55.891
X-41.894 Y55.022
X-42.051 Y54.149
X-42.193 Y53.275
X-42.322 Y52.398
X-42.435 Y51.519
X-42.534 Y50.639
X-42.618 Y49.757
X-42.687 Y48.873
X-42.741 Y47.989
X-42.78 Y47.103
X-42.803 Y46.218
X-42.812 Y45.331
X-42.804 Y44.445
X-42.781 Y43.56
X-42.743 Y42.674
X-42.689 Y41.79
X-42.618 Y40.906
X-42.532 Y40.025
X-42.431 Y39.144
X-42.313 Y38.266
X-42.179 Y37.39
X-42.029 Y36.517
X-41.862 Y35.646
X-41.677 Y34.78
X-41.473 Y33.918
X-41.245 Y33.061
X-40.987 Y32.214
X-40.689 Y31.379
X-40.345 Y30.583
X-40.001 Y29.936
X-39.683 Y29.437
X-39.397 Y29.059
X-39.11 Y28.738
X-38.823 Y28.465
X-38.546 Y28.24
X-38.256 Y28.041
X-37.978 Y27.882
X-37.791 Y27.794
X-37.495 Y27.693
X-37.184 Y27.66
X-36.873 Y27.698
X-36.578 Y27.803
X-36.314 Y27.971
X-36.095 Y28.194
X-35.93 Y28.46
G3 X-36.108 Y29.169 I-0.551 J0.238
G1 X-36.182 Y29.227 Z-17.993
X-36.253 Y29.284 Z-17.971
X-36.322 Y29.338 Z-17.935
X-36.384 Y29.388 Z-17.885
X-36.441 Y29.432 Z-17.824
X-36.489 Y29.47 Z-17.753
X-36.527 Y29.501 Z-17.672
X-36.555 Y29.523 Z-17.585
X-36.573 Y29.537 Z-17.494
X-36.578 Y29.541 Z-17.4
Z-16.8
X-25.818 Y80.106
Z-17.4
X-25.825 Y80.11 Z-17.494
X-25.843 Y80.122 Z-17.585
X-25.873 Y80.142 Z-17.672
X-25.914 Y80.169 Z-17.753
X-25.965 Y80.203 Z-17.824
X-26.025 Y80.242 Z-17.885
X-26.092 Y80.287 Z-17.935
X-26.164 Y80.335 Z-17.971
X-26.241 Y80.385 Z-17.993
X-26.319 Y80.437 Z-18
G3 X-27.061 Y80.694 I-0.873 J-1.32
G1 X-30.081 Y80.838
X-30.231 Y80.837
X-30.677 Y80.667
X-31.188 Y80.424
X-31.747 Y80.1
X-32.397 Y79.651
X-33.083 Y79.09
X-33.726 Y78.48
X-34.333 Y77.834
X-34.908 Y77.161
X-35.457 Y76.465
X-35.981 Y75.751
X-36.485 Y75.021
X-36.97 Y74.28
X-37.437 Y73.527
X-37.888 Y72.764
X-38.323 Y71.992
X-38.744 Y71.212
X-39.151 Y70.425
X-39.545 Y69.631
X-39.924 Y68.831
X-40.291 Y68.024
X-40.644 Y67.211
X-40.984 Y66.393
X-41.311 Y65.569
X-41.626 Y64.741
X-41.927 Y63.908
X-42.215 Y63.07
X-42.49 Y62.227
X-42.753 Y61.381
X-43.002 Y60.53
X-43.238 Y59.676
X-43.46 Y58.819
X-43.67 Y57.958
X-43.866 Y57.094
X-44.049 Y56.226
X-44.218 Y55.357
X-44.373 Y54.484
X-44.515 Y53.61
X-44.643 Y52.733
X-44.757 Y51.854
X-44.857 Y50.973
X-44.943 Y50.092
X-45.014 Y49.208
X-45.071 Y48.324
X-45.114 Y47.439
X-45.141 Y46.553
X-45.154 Y45.667
X-45.152 Y44.781
X-45.136 Y43.895
X-45.104 Y43.01
X-45.057 Y42.125
X-44.996 Y41.241
X-44.919 Y40.358
X-44.827 Y39.477
X-44.72 Y38.597
X-44.598 Y37.719
X-44.46 Y36.844
X-44.305 Y35.971
X-44.134 Y35.102
X-43.944 Y34.236
X-43.732 Y33.376
X-43.493 Y32.523
X-43.222 Y31.679
X-42.91 Y30.85
X-42.553 Y30.039
X-42.16 Y29.291
X-41.75 Y28.644
X-41.333 Y28.088
X-40.916 Y27.617
X-40.516 Y27.232
X-40.121 Y26.909
X-39.779 Y26.673
X-39.428 Y26.47
X-39.112 Y26.319
X-38.778 Y26.192
X-38.48 Y26.105
X-38.159 Y26.038
X-37.87 Y26.003
X-37.744 Y25.997
X-37.431 Y26.019
X-37.131 Y26.11
X-36.859 Y26.266
X-36.629 Y26.478
X-36.452 Y26.736
X-36.337 Y27.028
X-36.29 Y27.338
G3 X-36.667 Y27.963 I-0.596 J0.067
G1 X-36.754 Y27.998 Z-17.993
X-36.839 Y28.031 Z-17.971
X-36.92 Y28.063 Z-17.935
X-36.995 Y28.092 Z-17.885
X-37.061 Y28.118 Z-17.824
X-37.118 Y28.141 Z-17.753
X-37.164 Y28.159 Z-17.672
X-37.198 Y28.172 Z-17.585
X-37.218 Y28.18 Z-17.494
X-37.225 Y28.183 Z-17.4
Z-16.8
X-28.838 Y80.25
Z-17.4
X-28.844 Y80.254 Z-17.494
X-28.863 Y80.266 Z-17.585
X-28.893 Y80.286 Z-17.672
X-28.934 Y80.313 Z-17.753
X-28.985 Y80.347 Z-17.824
X-29.045 Y80.386 Z-17.885
X-29.112 Y80.431 Z-17.935
X-29.184 Y80.479 Z-17.971
X-29.261 Y80.529 Z-17.993
X-29.339 Y80.581 Z-18
G3 X-30.081 Y80.838 I-0.873 J-1.32
G1 X-32.9 Y80.972
X-33.05
X-33.487 Y80.797
X-33.98 Y80.553
X-34.546 Y80.213
X-35.181 Y79.759
X-35.858 Y79.187
X-36.49 Y78.566
X-37.085 Y77.91
X-37.648 Y77.225
X-38.183 Y76.519
X-38.694 Y75.795
X-39.184 Y75.056
X-39.654 Y74.305
X-40.106 Y73.543
X-40.543 Y72.772
X-40.963 Y71.992
X-41.37 Y71.205
X-41.762 Y70.41
X-42.141 Y69.609
X-42.506 Y68.802
X-42.859 Y67.989
X-43.199 Y67.17
X-43.525 Y66.347
X-43.84 Y65.518
X-44.141 Y64.685
X-44.43 Y63.847
X-44.707 Y63.006
X-44.971 Y62.16
X-45.222 Y61.31
X-45.461 Y60.456
X-45.686 Y59.6
X-45.899 Y58.739
X-46.099 Y57.876
X-46.286 Y57.01
X-46.46 Y56.141
X-46.621 Y55.27
X-46.768 Y54.396
X-46.903 Y53.52
X-47.024 Y52.642
X-47.132 Y51.763
X-47.226 Y50.882
X-47.306 Y49.999
X-47.373 Y49.115
X-47.425 Y48.231
X-47.464 Y47.346
X-47.489 Y46.46
X-47.5 Y45.574
X-47.496 Y44.688
X-47.479 Y43.802
X-47.447 Y42.916
X-47.4 Y42.031
X-47.34 Y41.147
X-47.265 Y40.264
X-47.176 Y39.383
X-47.071 Y38.503
X-46.952 Y37.625
X-46.817 Y36.749
X-46.667 Y35.876
X-46.499 Y35.006
X-46.311 Y34.139
X-46.102 Y33.278
X-45.868 Y32.424
X-45.604 Y31.578
X-45.308 Y30.742
X-44.975 Y29.921
X-44.597 Y29.12
X-44.171 Y28.343
X-43.692 Y27.598
X-43.183 Y26.927
X-42.666 Y26.348
X-42.154 Y25.859
X-41.653 Y25.454
X-41.153 Y25.111
X-40.648 Y24.821
X-40.169 Y24.596
X-40.152 Y24.59
X-39.992 Y24.54
X-39.827 Y24.51
X-39.66 Y24.5
X-37.933
X-37.552 Y24.519
X-37.53 Y24.522
X-37.251 Y24.588
X-36.99 Y24.711
X-36.76 Y24.883
X-36.571 Y25.1
X-36.429 Y25.35
X-36.342 Y25.624
X-36.312 Y25.91
G3 X-37.284 Y26.36 I-0.6 J-0.021
G1 X-38.284 Y25.571
G3 X-37.933 Y24.5 I0.372 J-0.471
G1 X-36.926
X-36.846 Y24.505
X-36.767 Y24.521
X-36.725 Y24.535
X-36.674 Y24.555
X-36.624 Y24.581
X-36.574 Y24.614
X-36.523 Y24.653
X-36.454 Y24.723
X-36.416 Y24.773
X-36.385 Y24.823
X-36.361 Y24.873
X-36.342 Y24.924
X-36.322 Y25.002
X-36.314 Y25.064
X-36.312 Y25.125
Y26.734
X-36.29 Y27.338
G3 X-36.732 Y27.919 I-0.6 J0.002
G1 X-36.823 Y27.943 Z-17.993
X-36.911 Y27.967 Z-17.971
X-36.995 Y27.99 Z-17.935
X-37.072 Y28.011 Z-17.885
X-37.141 Y28.03 Z-17.824
X-37.201 Y28.046 Z-17.753
X-37.248 Y28.059 Z-17.672
X-37.283 Y28.069 Z-17.585
X-37.304 Y28.074 Z-17.494
X-37.311 Y28.076 Z-17.4
Z-16.8
X-31.657 Y80.384
Z-17.4
X-31.663 Y80.389 Z-17.494
X-31.681 Y80.401 Z-17.585
X-31.711 Y80.421 Z-17.672
X-31.752 Y80.448 Z-17.753
X-31.803 Y80.481 Z-17.824
X-31.863 Y80.521 Z-17.885
X-31.93 Y80.565 Z-17.935
X-32.003 Y80.613 Z-17.971
X-32.079 Y80.664 Z-17.993
X-32.157 Y80.715 Z-18
G3 X-32.9 Y80.972 I-0.873 J-1.32
G1 X-35.718 Y81.107
X-35.868 Y81.106
X-36.316 Y80.911
X-36.817 Y80.643
X-37.391 Y80.274
X-38.038 Y79.781
X-38.697 Y79.188
X-39.312 Y78.551
X-39.89 Y77.879
X-40.436 Y77.181
X-40.955 Y76.462
X-41.449 Y75.727
X-41.922 Y74.978
X-42.376 Y74.217
X-42.812 Y73.445
X-43.233 Y72.665
X-43.638 Y71.877
X-44.028 Y71.082
X-44.405 Y70.28
X-44.769 Y69.472
X-45.119 Y68.658
X-45.457 Y67.839
X-45.782 Y67.014
X-46.095 Y66.185
X-46.396 Y65.352
X-46.684 Y64.514
X-46.96 Y63.672
X-47.224 Y62.826
X-47.476 Y61.976
X-47.715 Y61.123
X-47.942 Y60.266
X-48.156 Y59.407
X-48.358 Y58.544
X-48.548 Y57.678
X-48.725 Y56.81
X-48.889 Y55.939
X-49.041 Y55.066
X-49.179 Y54.191
X-49.305 Y53.314
X-49.418 Y52.435
X-49.518 Y51.554
X-49.605 Y50.673
X-49.679 Y49.79
X-49.739 Y48.905
X-49.786 Y48.021
X-49.82 Y47.135
X-49.84 Y46.249
X-49.847 Y45.363
X-49.84 Y44.477
X-49.82 Y43.591
X-49.786 Y42.706
X-49.738 Y41.821
X-49.677 Y40.937
X-49.602 Y40.054
X-49.512 Y39.172
X-49.408 Y38.292
X-49.29 Y37.414
X-49.157 Y36.538
X-49.007 Y35.665
X-48.839 Y34.795
X-48.652 Y33.928
X-48.444 Y33.067
X-48.212 Y32.212
X-47.954 Y31.364
X-47.667 Y30.526
X-47.348 Y29.699
X-46.993 Y28.887
X-46.599 Y28.093
X-46.162 Y27.323
X-45.679 Y26.579
X-45.151 Y25.868
X-44.574 Y25.196
X-44.292 Y24.912
X-44.08 Y24.737
X-43.837 Y24.607
X-43.574 Y24.527
X-43.3 Y24.5
X-39.66
G3 X-39.096 Y24.965 I-0.021 J0.6
G1 X-39.075 Y25.056 Z-17.993
X-39.054 Y25.145 Z-17.971
X-39.035 Y25.23 Z-17.935
X-39.017 Y25.308 Z-17.885
X-39 Y25.378 Z-17.824
X-38.987 Y25.438 Z-17.753
X-38.976 Y25.486 Z-17.672
X-38.968 Y25.521 Z-17.585
X-38.963 Y25.542 Z-17.494
X-38.961 Y25.549 Z-17.4
Z-16.8
X-34.475 Y80.519
Z-17.4
X-34.482 Y80.523 Z-17.494
X-34.5 Y80.535 Z-17.585
X-34.53 Y80.555 Z-17.672
X-34.571 Y80.582 Z-17.753
X-34.622 Y80.616 Z-17.824
X-34.682 Y80.655 Z-17.885
X-34.749 Y80.7 Z-17.935
X-34.821 Y80.748 Z-17.971
X-34.898 Y80.798 Z-17.993
X-34.976 Y80.85 Z-18
G3 X-35.718 Y81.107 I-0.873 J-1.32
G1 X-37.329 Y81.183
X-37.933 Y81.194
X-38.134 Y81.189
X-38.738 Y81.156
X-38.887 Y81.141
X-39.388 Y80.876
X-39.926 Y80.534
X-40.545 Y80.066
X-41.207 Y79.477
X-41.823 Y78.841
X-42.4 Y78.168
X-42.944 Y77.468
X-43.458 Y76.747
X-43.948 Y76.008
X-44.415 Y75.256
X-44.863 Y74.491
X-45.292 Y73.716
X-45.705 Y72.932
X-46.103 Y72.14
X-46.486 Y71.341
X-46.855 Y70.535
X-47.211 Y69.724
X-47.554 Y68.907
X-47.884 Y68.084
X-48.202 Y67.257
X-48.507 Y66.425
X-48.801 Y65.589
X-49.082 Y64.749
X-49.352 Y63.905
X-49.609 Y63.057
X-49.855 Y62.205
X-50.089 Y61.351
X-50.31 Y60.493
X-50.52 Y59.632
X-50.718 Y58.768
X-50.903 Y57.902
X-51.077 Y57.033
X-51.238 Y56.161
X-51.387 Y55.288
X-51.523 Y54.412
X-51.648 Y53.535
X-51.759 Y52.656
X-51.859 Y51.775
X-51.945 Y50.893
X-52.019 Y50.01
X-52.081 Y49.126
X-52.129 Y48.242
X-52.165 Y47.356
X-52.188 Y46.47
X-52.197 Y45.584
X-52.194 Y44.698
X-52.177 Y43.812
X-52.148 Y42.926
X-52.105 Y42.041
X-52.048 Y41.157
X-51.979 Y40.274
X-51.896 Y39.391
X-51.799 Y38.511
X-51.688 Y37.632
X-51.562 Y36.754
X-51.42 Y35.88
X-51.262 Y35.008
X-51.086 Y34.139
X-50.89 Y33.275
X-50.673 Y32.416
X-50.434 Y31.563
X-50.17 Y30.717
X-49.878 Y29.88
X-49.556 Y29.055
X-49.201 Y28.243
X-48.812 Y27.447
X-48.388 Y26.669
X-47.926 Y25.912
X-47.427 Y25.18
X-47.312 Y25.034
X-47.09 Y24.81
X-46.823 Y24.641
X-46.525 Y24.536
X-46.212 Y24.5
X-43.3
G3 X-42.736 Y24.965 I-0.021 J0.6
G1 X-42.715 Y25.056 Z-17.993
X-42.695 Y25.145 Z-17.971
X-42.675 Y25.23 Z-17.935
X-42.657 Y25.308 Z-17.885
X-42.641 Y25.378 Z-17.824
X-42.627 Y25.438 Z-17.753
X-42.616 Y25.486 Z-17.672
X-42.608 Y25.521 Z-17.585
X-42.603 Y25.542 Z-17.494
X-42.601 Y25.549 Z-17.4
Z-16.8
X-37.633 Y80.744
Z-17.4
X-37.639 Y80.747 Z-17.494
X-37.659 Y80.757 Z-17.585
X-37.691 Y80.774 Z-17.672
X-37.734 Y80.797 Z-17.753
X-37.789 Y80.825 Z-17.824
X-37.852 Y80.858 Z-17.885
X-37.923 Y80.895 Z-17.935
X-38 Y80.936 Z-17.971
X-38.081 Y80.978 Z-17.993
X-38.165 Y81.022 Z-18
G3 X-38.738 Y81.156 I-0.55 J-1.052
G1 X-41.355 Y81.013
X-41.504 Y80.997
X-41.903 Y80.827
X-42.332 Y80.601
X-42.825 Y80.289
X-43.386 Y79.867
X-44.023 Y79.303
X-44.636 Y78.664
X-45.207 Y77.986
X-45.74 Y77.278
X-46.243 Y76.549
X-46.719 Y75.801
X-47.171 Y75.039
X-47.604 Y74.266
X-48.018 Y73.483
X-48.415 Y72.691
X-48.797 Y71.891
X-49.165 Y71.085
X-49.519 Y70.272
X-49.859 Y69.454
X-50.187 Y68.631
X-50.503 Y67.803
X-50.806 Y66.97
X-51.097 Y66.133
X-51.377 Y65.293
X-51.645 Y64.448
X-51.901 Y63.6
X-52.146 Y62.748
X-52.379 Y61.893
X-52.6 Y61.035
X-52.81 Y60.174
X-53.008 Y59.31
X-53.194 Y58.444
X-53.369 Y57.575
X-53.532 Y56.704
X-53.683 Y55.831
X-53.822 Y54.956
X-53.949 Y54.079
X-54.064 Y53.2
X-54.167 Y52.32
X-54.258 Y51.439
X-54.336 Y50.556
X-54.403 Y49.673
X-54.457 Y48.788
X-54.498 Y47.903
X-54.528 Y47.017
X-54.544 Y46.131
X-54.548 Y45.245
X-54.54 Y44.359
X-54.519 Y43.473
X-54.486 Y42.588
X-54.439 Y41.703
X-54.38 Y40.819
X-54.308 Y39.936
X-54.222 Y39.054
X-54.123 Y38.173
X-54.01 Y37.294
X-53.882 Y36.417
X-53.739 Y35.543
X-53.579 Y34.671
X-53.402 Y33.803
X-53.206 Y32.939
X-52.99 Y32.079
X-52.752 Y31.226
X-52.49 Y30.379
X-52.204 Y29.541
X-51.891 Y28.712
X-51.55 Y27.894
X-51.18 Y27.089
X-50.779 Y26.298
X-50.347 Y25.525
X-50.098 Y25.139
X-49.924 Y24.922
X-49.71 Y24.743
X-49.466 Y24.61
X-49.2 Y24.528
X-48.922 Y24.5
X-46.212
G3 X-45.648 Y24.965 I-0.021 J0.6
G1 X-45.627 Y25.056 Z-17.993
X-45.606 Y25.145 Z-17.971
X-45.587 Y25.23 Z-17.935
X-45.568 Y25.308 Z-17.885
X-45.552 Y25.378 Z-17.824
X-45.539 Y25.438 Z-17.753
X-45.528 Y25.486 Z-17.672
X-45.519 Y25.521 Z-17.585
X-45.515 Y25.542 Z-17.494
X-45.513 Y25.549 Z-17.4
Z-16.8
X-40.059 Y80.555
Z-17.4
X-40.065 Y80.559 Z-17.494
X-40.085 Y80.569 Z-17.585
X-40.117 Y80.585 Z-17.672
X-40.16 Y80.608 Z-17.753
X-40.215 Y80.637 Z-17.824
X-40.278 Y80.67 Z-17.885
X-40.349 Y80.707 Z-17.935
X-40.426 Y80.747 Z-17.971
X-40.507 Y80.79 Z-17.993
X-40.591 Y80.833 Z-18
G3 X-41.355 Y81.013 I-0.733 J-1.403
G1 X-44.174 Y80.858
X-44.323 Y80.843
X-44.722 Y80.668
X-45.144 Y80.441
X-45.629 Y80.126
X-46.178 Y79.705
X-46.79 Y79.152
X-47.397 Y78.507
X-47.959 Y77.822
X-48.483 Y77.107
X-48.974 Y76.369
X-49.438 Y75.615
X-49.879 Y74.846
X-50.298 Y74.065
X-50.699 Y73.275
X-51.083 Y72.476
X-51.451 Y71.67
X-51.805 Y70.858
X-52.145 Y70.039
X-52.472 Y69.216
X-52.787 Y68.388
X-53.089 Y67.555
X-53.38 Y66.717
X-53.659 Y65.876
X-53.926 Y65.031
X-54.182 Y64.183
X-54.426 Y63.331
X-54.659 Y62.476
X-54.881 Y61.618
X-55.091 Y60.758
X-55.29 Y59.894
X-55.478 Y59.028
X-55.654 Y58.16
X-55.819 Y57.289
X-55.973 Y56.416
X-56.115 Y55.542
X-56.245 Y54.665
X-56.364 Y53.787
X-56.471 Y52.907
X-56.566 Y52.026
X-56.649 Y51.144
X-56.721 Y50.261
X-56.78 Y49.377
X-56.828 Y48.492
X-56.864 Y47.607
X-56.888 Y46.721
X-56.9 Y45.835
Y44.949
X-56.887 Y44.063
X-56.863 Y43.177
X-56.826 Y42.292
X-56.777 Y41.407
X-56.715 Y40.523
X-56.641 Y39.64
X-56.554 Y38.758
X-56.453 Y37.878
X-56.338 Y36.999
X-56.21 Y36.122
X-56.066 Y35.248
X-55.906 Y34.376
X-55.729 Y33.508
X-55.533 Y32.644
X-55.319 Y31.784
X-55.084 Y30.93
X-54.827 Y30.081
X-54.548 Y29.24
X-54.245 Y28.408
X-53.917 Y27.584
X-53.564 Y26.772
X-53.183 Y25.972
X-52.821 Y25.303
X-52.712 Y25.136
X-52.538 Y24.92
X-52.325 Y24.742
X-52.081 Y24.609
X-51.815 Y24.528
X-51.539 Y24.5
X-48.922
G3 X-48.359 Y24.965 I-0.021 J0.6
G1 X-48.338 Y25.056 Z-17.993
X-48.317 Y25.145 Z-17.971
X-48.297 Y25.23 Z-17.935
X-48.279 Y25.308 Z-17.885
X-48.263 Y25.378 Z-17.824
X-48.25 Y25.438 Z-17.753
X-48.238 Y25.486 Z-17.672
X-48.23 Y25.521 Z-17.585
X-48.225 Y25.542 Z-17.494
X-48.224 Y25.549 Z-17.4
Z-16.8
X-42.877 Y80.401
Z-17.4
X-42.884 Y80.404 Z-17.494
X-42.903 Y80.414 Z-17.585
X-42.935 Y80.431 Z-17.672
X-42.979 Y80.454 Z-17.753
X-43.033 Y80.482 Z-17.824
X-43.097 Y80.515 Z-17.885
X-43.168 Y80.552 Z-17.935
X-43.245 Y80.593 Z-17.971
X-43.326 Y80.635 Z-17.993
X-43.409 Y80.679 Z-18
G3 X-44.174 Y80.858 I-0.733 J-1.403
G1 X-46.791 Y80.715
X-46.94 Y80.699
X-47.298 Y80.56
X-47.689 Y80.37
X-48.132 Y80.109
X-48.612 Y79.771
X-49.162 Y79.314
X-49.784 Y78.707
X-50.366 Y78.039
X-50.904 Y77.335
X-51.405 Y76.604
X-51.875 Y75.852
X-52.318 Y75.085
X-52.738 Y74.305
X-53.138 Y73.514
X-53.519 Y72.714
X-53.884 Y71.907
X-54.234 Y71.092
X-54.569 Y70.272
X-54.891 Y69.447
X-55.2 Y68.616
X-55.497 Y67.781
X-55.782 Y66.942
X-56.056 Y66.099
X-56.318 Y65.253
X-56.568 Y64.403
X-56.808 Y63.55
X-57.036 Y62.694
X-57.254 Y61.835
X-57.46 Y60.973
X-57.655 Y60.108
X-57.84 Y59.242
X-58.013 Y58.373
X-58.175 Y57.502
X-58.326 Y56.628
X-58.465 Y55.753
X-58.594 Y54.877
X-58.711 Y53.998
X-58.817 Y53.118
X-58.912 Y52.237
X-58.995 Y51.355
X-59.067 Y50.472
X-59.127 Y49.588
X-59.176 Y48.703
X-59.214 Y47.818
X-59.24 Y46.932
X-59.254 Y46.046
X-59.256 Y45.16
X-59.247 Y44.274
X-59.226 Y43.388
X-59.193 Y42.502
X-59.148 Y41.618
X-59.091 Y40.733
X-59.021 Y39.85
X-58.939 Y38.968
X-58.844 Y38.086
X-58.736 Y37.207
X-58.614 Y36.329
X-58.478 Y35.454
X-58.326 Y34.581
X-58.159 Y33.711
X-57.975 Y32.844
X-57.773 Y31.981
X-57.553 Y31.122
X-57.329 Y30.325
X-57.24 Y30.093
X-57.109 Y29.882
X-56.941 Y29.699
X-56.742 Y29.55
X-56.656 Y29.492
X-56.454 Y29.349
X-56.235 Y29.148
X-56.052 Y28.967
X-56.035 Y28.947
X-55.879 Y28.746
X-55.747 Y28.545
X-55.649 Y28.371
X-55.635 Y28.343
X-55.542 Y28.142
X-55.466 Y27.941
X-55.448 Y27.879
X-55.363 Y27.539
X-55.346 Y27.438
X-55.335 Y27.338
X-55.327 Y27.136
X-55.293 Y26.753
X-55.212 Y26.275
X-55.098 Y25.83
X-54.971 Y25.459
X-54.92 Y25.342
X-54.758 Y25.061
X-54.535 Y24.826
X-54.263 Y24.648
X-53.959 Y24.538
X-53.636 Y24.5
G3 X-53.126 Y25.378 I-0.021 J0.6
G1 X-54.196 Y27.417
G3 X-55.327 Y27.136 I-0.531 J-0.279
G1 X-55.312 Y26.734
Y25.125
X-55.306 Y25.024
X-55.283 Y24.924
X-55.247 Y24.837
X-55.213 Y24.78
X-55.17 Y24.723
X-55.108 Y24.659
X-55.045 Y24.611
X-54.949 Y24.557
X-54.852 Y24.521
X-54.844 Y24.519
X-54.743 Y24.502
X-54.643 Y24.5
X-51.539
G3 X-50.975 Y24.965 I-0.021 J0.6
G1 X-50.954 Y25.056 Z-17.993
X-50.933 Y25.145 Z-17.971
X-50.914 Y25.23 Z-17.935
X-50.896 Y25.308 Z-17.885
X-50.88 Y25.378 Z-17.824
X-50.866 Y25.438 Z-17.753
X-50.855 Y25.486 Z-17.672
X-50.847 Y25.521 Z-17.585
X-50.842 Y25.542 Z-17.494
X-50.84 Y25.549 Z-17.4
Z-16.8
X-45.495 Y80.257
Z-17.4
X-45.501 Y80.261 Z-17.494
X-45.521 Y80.271 Z-17.585
X-45.553 Y80.288 Z-17.672
X-45.596 Y80.31 Z-17.753
X-45.65 Y80.339 Z-17.824
X-45.714 Y80.372 Z-17.885
X-45.785 Y80.409 Z-17.935
X-45.862 Y80.449 Z-17.971
X-45.943 Y80.492 Z-17.993
X-46.026 Y80.535 Z-18
G3 X-46.791 Y80.715 I-0.733 J-1.403
G1 X-49.207 Y80.583
X-49.356 Y80.567
X-49.672 Y80.476
X-50.002 Y80.352
X-50.382 Y80.173
X-50.794 Y79.937
X-51.267 Y79.613
X-51.775 Y79.2
X-52.356 Y78.647
X-52.946 Y77.986
X-53.488 Y77.285
X-53.989 Y76.554
X-54.457 Y75.802
X-54.896 Y75.032
X-55.311 Y74.249
X-55.704 Y73.455
X-56.078 Y72.651
X-56.435 Y71.84
X-56.776 Y71.022
X-57.103 Y70.199
X-57.416 Y69.37
X-57.716 Y68.536
X-58.005 Y67.698
X-58.281 Y66.856
X-58.545 Y66.011
X-58.799 Y65.161
X-59.041 Y64.309
X-59.272 Y63.454
X-59.493 Y62.595
X-59.702 Y61.734
X-59.901 Y60.871
X-60.089 Y60.005
X-60.266 Y59.137
X-60.432 Y58.266
X-60.587 Y57.394
X-60.732 Y56.519
X-60.865 Y55.644
X-60.988 Y54.766
X-61.1 Y53.887
X-61.201 Y53.007
X-61.291 Y52.125
X-61.37 Y51.242
X-61.438 Y50.359
X-61.495 Y49.475
X-61.541 Y48.59
X-61.575 Y47.704
X-61.599 Y46.818
X-61.611 Y45.932
X-61.612 Y45.046
X-61.601 Y44.16
X-61.579 Y43.274
X-61.545 Y42.389
X-61.5 Y41.504
X-61.443 Y40.62
X-61.374 Y39.736
X-61.293 Y38.854
X-61.199 Y37.973
X-61.092 Y37.093
X-60.972 Y36.215
X-60.838 Y35.339
X-60.689 Y34.466
X-60.524 Y33.595
X-60.344 Y32.727
X-60.148 Y31.863
X-59.943 Y31.088
X-59.889 Y30.934
X-59.768 Y30.676
X-59.596 Y30.448
X-59.382 Y30.259
X-59.134 Y30.118
X-58.863 Y30.03
X-58.579 Y29.998
X-58.468
G3 X-57.9 Y30.458 I-0.016 J0.6
G1 X-57.879 Y30.549 Z-17.993
X-57.857 Y30.638 Z-17.971
X-57.837 Y30.723 Z-17.935
X-57.819 Y30.801 Z-17.885
X-57.802 Y30.87 Z-17.824
X-57.788 Y30.93 Z-17.753
X-57.776 Y30.978 Z-17.672
X-57.768 Y31.013 Z-17.585
X-57.763 Y31.034 Z-17.494
X-57.761 Y31.041 Z-17.4
Z-16.8
X-47.911 Y80.125
Z-17.4
X-47.917 Y80.128 Z-17.494
X-47.937 Y80.138 Z-17.585
X-47.968 Y80.155 Z-17.672
X-48.012 Y80.178 Z-17.753
X-48.066 Y80.206 Z-17.824
X-48.13 Y80.239 Z-17.885
X-48.201 Y80.277 Z-17.935
X-48.278 Y80.317 Z-17.971
X-48.359 Y80.359 Z-17.993
X-48.442 Y80.403 Z-18
G3 X-49.207 Y80.583 I-0.733 J-1.403
G1 X-51.762 Y80.443
X-51.911 Y80.427
X-52.214 Y80.351
X-52.528 Y80.244
X-52.886 Y80.09
X-53.28 Y79.882
X-53.72 Y79.601
X-54.196 Y79.241
X-54.737 Y78.759
X-55.344 Y78.123
X-55.902 Y77.435
X-56.416 Y76.713
X-56.892 Y75.966
X-57.336 Y75.199
X-57.753 Y74.417
X-58.146 Y73.623
X-58.519 Y72.819
X-58.874 Y72.007
X-59.212 Y71.188
X-59.536 Y70.363
X-59.844 Y69.533
X-60.14 Y68.697
X-60.423 Y67.858
X-60.695 Y67.014
X-60.954 Y66.167
X-61.203 Y65.316
X-61.44 Y64.462
X-61.667 Y63.606
X-61.882 Y62.746
X-62.087 Y61.884
X-62.282 Y61.02
X-62.466 Y60.153
X-62.639 Y59.284
X-62.802 Y58.413
X-62.954 Y57.54
X-63.096 Y56.665
X-63.227 Y55.789
X-63.348 Y54.911
X-63.458 Y54.032
X-63.557 Y53.151
X-63.646 Y52.269
X-63.724 Y51.387
X-63.792 Y50.503
X-63.848 Y49.619
X-63.894 Y48.734
X-63.93 Y47.849
X-63.954 Y46.963
X-63.968 Y46.077
X-63.97 Y45.191
X-63.962 Y44.305
X-63.942 Y43.419
X-63.911 Y42.533
X-63.869 Y41.648
X-63.815 Y40.763
X-63.75 Y39.88
X-63.672 Y38.997
X-63.583 Y38.115
X-63.481 Y37.235
X-63.366 Y36.357
X-63.237 Y35.48
X-63.095 Y34.605
X-62.938 Y33.733
X-62.765 Y32.864
X-62.567 Y32
X-62.384 Y31.413
X-62.203 Y30.962
X-62.11 Y30.775
X-61.942 Y30.515
X-61.721 Y30.298
X-61.458 Y30.135
X-61.165 Y30.034
X-60.857 Y30
X-58.76 Y29.999
X-58.579 Y29.998
G3 X-58.012 Y30.459 I-0.016 J0.6
G1 X-57.99 Y30.55 Z-17.993
X-57.969 Y30.639 Z-17.971
X-57.949 Y30.724 Z-17.935
X-57.93 Y30.802 Z-17.885
X-57.914 Y30.871 Z-17.824
X-57.899 Y30.931 Z-17.753
X-57.888 Y30.979 Z-17.672
X-57.88 Y31.014 Z-17.585
X-57.874 Y31.035 Z-17.494
X-57.873 Y31.042 Z-17.4
Z-16.8
X-50.466 Y79.985
Z-17.4
X-50.472 Y79.988 Z-17.494
X-50.492 Y79.998 Z-17.585
X-50.524 Y80.015 Z-17.672
X-50.567 Y80.038 Z-17.753
X-50.621 Y80.066 Z-17.824
X-50.685 Y80.099 Z-17.885
X-50.756 Y80.137 Z-17.935
X-50.833 Y80.177 Z-17.971
X-50.914 Y80.219 Z-17.993
X-50.997 Y80.263 Z-18
G3 X-51.762 Y80.443 I-0.733 J-1.403
G1 X-54.24 Y80.307
X-54.389 Y80.291
X-54.666 Y80.238
X-54.951 Y80.159
X-55.289 Y80.035
X-55.644 Y79.872
X-56.05 Y79.644
X-56.484 Y79.353
X-56.978 Y78.959
X-57.524 Y78.448
X-58.12 Y77.793
X-58.663 Y77.092
X-59.162 Y76.36
X-59.623 Y75.603
X-60.053 Y74.828
X-60.455 Y74.039
X-60.835 Y73.238
X-61.195 Y72.428
X-61.536 Y71.611
X-61.861 Y70.786
X-62.171 Y69.956
X-62.467 Y69.121
X-62.75 Y68.281
X-63.021 Y67.437
X-63.28 Y66.59
X-63.527 Y65.739
X-63.764 Y64.885
X-63.989 Y64.028
X-64.204 Y63.169
X-64.409 Y62.306
X-64.603 Y61.442
X-64.786 Y60.575
X-64.96 Y59.706
X-65.123 Y58.835
X-65.275 Y57.962
X-65.418 Y57.087
X-65.55 Y56.211
X-65.672 Y55.333
X-65.784 Y54.454
X-65.885 Y53.574
X-65.976 Y52.693
X-66.057 Y51.81
X-66.127 Y50.927
X-66.187 Y50.043
X-66.237 Y49.158
X-66.276 Y48.273
X-66.304 Y47.387
X-66.322 Y46.501
X-66.329 Y45.615
X-66.326 Y44.729
X-66.312 Y43.843
X-66.286 Y42.957
X-66.25 Y42.072
X-66.203 Y41.187
X-66.145 Y40.303
X-66.075 Y39.419
X-65.993 Y38.537
X-65.9 Y37.656
X-65.794 Y36.776
X-65.675 Y35.898
X-65.544 Y35.022
X-65.397 Y34.148
X-65.233 Y33.277
X-65.035 Y32.413
X-64.815 Y31.657
X-64.618 Y31.141
X-64.455 Y30.798
X-64.288 Y30.531
X-64.066 Y30.308
X-63.8 Y30.14
X-63.503 Y30.035
X-63.191 Y30
X-60.857
G3 X-60.293 Y30.465 I-0.021 J0.6
G1 X-60.272 Y30.556 Z-17.993
X-60.252 Y30.645 Z-17.971
X-60.232 Y30.73 Z-17.935
X-60.214 Y30.808 Z-17.885
X-60.198 Y30.878 Z-17.824
X-60.184 Y30.938 Z-17.753
X-60.173 Y30.986 Z-17.672
X-60.165 Y31.021 Z-17.585
X-60.16 Y31.042 Z-17.494
X-60.158 Y31.049 Z-17.4
Z-16.8
X-52.944 Y79.849
Z-17.4
X-52.95 Y79.852 Z-17.494
X-52.97 Y79.863 Z-17.585
X-53.002 Y79.879 Z-17.672
X-53.045 Y79.902 Z-17.753
X-53.099 Y79.93 Z-17.824
X-53.163 Y79.964 Z-17.885
X-53.234 Y80.001 Z-17.935
X-53.311 Y80.041 Z-17.971
X-53.392 Y80.083 Z-17.993
X-53.475 Y80.127 Z-18
G3 X-54.24 Y80.307 I-0.733 J-1.403
G1 X-56.857 Y80.163
X-57.006 Y80.148
X-57.281 Y80.094
X-57.579 Y80.011
X-57.899 Y79.894
X-58.271 Y79.722
X-58.655 Y79.506
X-59.098 Y79.208
X-59.577 Y78.826
X-60.104 Y78.331
X-60.7 Y77.675
X-61.241 Y76.973
X-61.736 Y76.238
X-62.193 Y75.479
X-62.618 Y74.702
X-63.015 Y73.91
X-63.388 Y73.106
X-63.741 Y72.293
X-64.075 Y71.472
X-64.392 Y70.645
X-64.695 Y69.812
X-64.983 Y68.974
X-65.258 Y68.132
X-65.521 Y67.286
X-65.772 Y66.436
X-66.012 Y65.583
X-66.241 Y64.727
X-66.459 Y63.868
X-66.666 Y63.006
X-66.863 Y62.142
X-67.05 Y61.276
X-67.227 Y60.408
X-67.393 Y59.537
X-67.55 Y58.665
X-67.696 Y57.791
X-67.832 Y56.916
X-67.959 Y56.039
X-68.075 Y55.16
X-68.181 Y54.28
X-68.278 Y53.4
X-68.364 Y52.518
X-68.44 Y51.635
X-68.506 Y50.751
X-68.562 Y49.867
X-68.608 Y48.982
X-68.644 Y48.096
X-68.669 Y47.211
X-68.684 Y46.325
X-68.689 Y45.439
X-68.683 Y44.552
X-68.667 Y43.666
X-68.64 Y42.781
X-68.603 Y41.895
X-68.555 Y41.011
X-68.496 Y40.126
X-68.425 Y39.243
X-68.344 Y38.361
X-68.25 Y37.48
X-68.145 Y36.6
X-68.027 Y35.722
X-67.895 Y34.845
X-67.743 Y33.972
X-67.565 Y33.104
X-67.35 Y32.245
X-67.121 Y31.524
X-66.913 Y31.015
X-66.788 Y30.768
X-66.619 Y30.51
X-66.399 Y30.295
X-66.136 Y30.134
X-65.845 Y30.034
X-65.539 Y30
X-63.191
G3 X-62.627 Y30.465 I-0.021 J0.6
G1 X-62.606 Y30.556 Z-17.993
X-62.585 Y30.645 Z-17.971
X-62.566 Y30.73 Z-17.935
X-62.548 Y30.808 Z-17.885
X-62.532 Y30.878 Z-17.824
X-62.518 Y30.938 Z-17.753
X-62.507 Y30.986 Z-17.672
X-62.499 Y31.021 Z-17.585
X-62.494 Y31.042 Z-17.494
X-62.492 Y31.049 Z-17.4
Z-16.8
X-55.561 Y79.706
Z-17.4
X-55.567 Y79.709 Z-17.494
X-55.587 Y79.719 Z-17.585
X-55.619 Y79.736 Z-17.672
X-55.662 Y79.759 Z-17.753
X-55.717 Y79.787 Z-17.824
X-55.78 Y79.82 Z-17.885
X-55.851 Y79.857 Z-17.935
X-55.928 Y79.898 Z-17.971
X-56.009 Y79.94 Z-17.993
X-56.093 Y79.984 Z-18
G3 X-56.857 Y80.163 I-0.733 J-1.403
G1 X-59.273 Y80.031
X-59.6 Y79.996
X-59.871 Y79.946
X-60.162 Y79.867
X-60.476 Y79.753
X-60.842 Y79.587
X-61.217 Y79.379
X-61.651 Y79.091
X-62.115 Y78.725
X-62.629 Y78.249
X-63.205 Y77.621
X-63.751 Y76.923
X-64.248 Y76.189
X-64.705 Y75.43
X-65.129 Y74.652
X-65.524 Y73.858
X-65.894 Y73.053
X-66.242 Y72.239
X-66.571 Y71.416
X-66.883 Y70.587
X-67.18 Y69.752
X-67.463 Y68.912
X-67.732 Y68.067
X-67.989 Y67.219
X-68.234 Y66.368
X-68.467 Y65.513
X-68.69 Y64.655
X-68.902 Y63.795
X-69.103 Y62.932
X-69.294 Y62.067
X-69.475 Y61.199
X-69.646 Y60.33
X-69.807 Y59.458
X-69.958 Y58.585
X-70.099 Y57.71
X-70.231 Y56.834
X-70.353 Y55.956
X-70.465 Y55.077
X-70.567 Y54.197
X-70.66 Y53.316
X-70.742 Y52.434
X-70.815 Y51.551
X-70.879 Y50.667
X-70.932 Y49.782
X-70.975 Y48.897
X-71.009 Y48.012
X-71.032 Y47.126
X-71.046 Y46.24
X-71.049 Y45.354
X-71.043 Y44.468
X-71.026 Y43.582
X-70.999 Y42.696
X-70.961 Y41.811
X-70.913 Y40.926
X-70.855 Y40.042
X-70.785 Y39.158
X-70.704 Y38.276
X-70.612 Y37.394
X-70.508 Y36.514
X-70.39 Y35.636
X-70.254 Y34.761
X-70.096 Y33.889
X-69.911 Y33.022
X-69.687 Y32.165
X-69.457 Y31.466
X-69.246 Y30.967
X-69.136 Y30.754
X-68.967 Y30.501
X-68.747 Y30.29
X-68.486 Y30.131
X-68.197 Y30.033
X-67.894 Y30
X-65.539
G3 X-64.975 Y30.465 I-0.021 J0.6
G1 X-64.954 Y30.556 Z-17.993
X-64.933 Y30.645 Z-17.971
X-64.914 Y30.73 Z-17.935
X-64.896 Y30.808 Z-17.885
X-64.88 Y30.878 Z-17.824
X-64.866 Y30.938 Z-17.753
X-64.855 Y30.986 Z-17.672
X-64.847 Y31.021 Z-17.585
X-64.842 Y31.042 Z-17.494
X-64.84 Y31.049 Z-17.4
Z-16.8
X-57.977 Y79.573
Z-17.4
X-57.983 Y79.577 Z-17.494
X-58.003 Y79.587 Z-17.585
X-58.035 Y79.603 Z-17.672
X-58.078 Y79.626 Z-17.753
X-58.132 Y79.655 Z-17.824
X-58.196 Y79.688 Z-17.885
X-58.267 Y79.725 Z-17.935
X-58.344 Y79.765 Z-17.971
X-58.425 Y79.808 Z-17.993
X-58.508 Y79.851 Z-18
G3 X-59.273 Y80.031 I-0.733 J-1.403
G1 X-59.474 Y80.02
X-60.28 Y79.971
X-61.89 Y79.868
X-62.23 Y79.829
X-62.506 Y79.775
X-62.783 Y79.697
X-63.108 Y79.577
X-63.462 Y79.413
X-63.846 Y79.195
X-64.271 Y78.907
X-64.744 Y78.527
X-65.248 Y78.051
X-65.817 Y77.421
X-66.356 Y76.718
X-66.847 Y75.98
X-67.297 Y75.217
X-67.713 Y74.434
X-68.1 Y73.637
X-68.463 Y72.828
X-68.803 Y72.01
X-69.124 Y71.184
X-69.428 Y70.352
X-69.717 Y69.514
X-69.991 Y68.672
X-70.252 Y67.825
X-70.5 Y66.974
X-70.737 Y66.12
X-70.963 Y65.263
X-71.177 Y64.404
X-71.381 Y63.541
X-71.575 Y62.677
X-71.758 Y61.81
X-71.932 Y60.941
X-72.096 Y60.07
X-72.25 Y59.197
X-72.394 Y58.323
X-72.529 Y57.447
X-72.654 Y56.57
X-72.77 Y55.691
X-72.876 Y54.812
X-72.972 Y53.931
X-73.059 Y53.049
X-73.137 Y52.166
X-73.204 Y51.283
X-73.263 Y50.398
X-73.312 Y49.514
X-73.351 Y48.628
X-73.38 Y47.743
X-73.4 Y46.857
X-73.41 Y45.971
Y45.085
X-73.4 Y44.199
X-73.381 Y43.313
X-73.351 Y42.427
X-73.311 Y41.542
X-73.261 Y40.657
X-73.201 Y39.773
X-73.129 Y38.89
X-73.047 Y38.008
X-72.952 Y37.126
X-72.844 Y36.247
X-72.721 Y35.369
X-72.578 Y34.495
X-72.411 Y33.625
X-72.213 Y32.761
X-71.974 Y31.908
X-71.746 Y31.281
X-71.526 Y30.802
X-71.479 Y30.717
X-71.307 Y30.475
X-71.089 Y30.274
X-70.833 Y30.124
X-70.551 Y30.031
X-70.257 Y30
X-67.894
G3 X-67.33 Y30.465 I-0.021 J0.6
G1 X-67.309 Y30.556 Z-17.993
X-67.288 Y30.645 Z-17.971
X-67.269 Y30.73 Z-17.935
X-67.251 Y30.808 Z-17.885
X-67.235 Y30.878 Z-17.824
X-67.221 Y30.938 Z-17.753
X-67.21 Y30.986 Z-17.672
X-67.202 Y31.021 Z-17.585
X-67.197 Y31.042 Z-17.494
X-67.195 Y31.049 Z-17.4
Z-16.8
X-60.59 Y79.422
Z-17.4
X-60.597 Y79.425 Z-17.494
X-60.616 Y79.435 Z-17.585
X-60.648 Y79.452 Z-17.672
X-60.692 Y79.474 Z-17.753
X-60.746 Y79.502 Z-17.824
X-60.81 Y79.535 Z-17.885
X-60.882 Y79.571 Z-17.935
X-60.959 Y79.611 Z-17.971
X-61.041 Y79.653 Z-17.993
X-61.124 Y79.695 Z-18
G3 X-61.89 Y79.868 I-0.721 J-1.409
G1 X-64.507 Y79.702
X-64.812 Y79.667
X-65.085 Y79.613
X-65.363 Y79.535
X-65.681 Y79.417
X-66.037 Y79.252
X-66.412 Y79.039
X-66.835 Y78.753
X-67.295 Y78.384
X-67.793 Y77.914
X-68.351 Y77.295
X-68.89 Y76.592
X-69.379 Y75.853
X-69.827 Y75.088
X-70.24 Y74.304
X-70.623 Y73.505
X-70.981 Y72.694
X-71.316 Y71.874
X-71.632 Y71.046
X-71.93 Y70.212
X-72.212 Y69.372
X-72.48 Y68.527
X-72.735 Y67.678
X-72.977 Y66.826
X-73.207 Y65.97
X-73.427 Y65.112
X-73.635 Y64.25
X-73.833 Y63.387
X-74.02 Y62.521
X-74.198 Y61.652
X-74.365 Y60.782
X-74.523 Y59.91
X-74.672 Y59.037
X-74.811 Y58.162
X-74.94 Y57.285
X-75.06 Y56.407
X-75.171 Y55.528
X-75.272 Y54.648
X-75.364 Y53.766
X-75.447 Y52.884
X-75.521 Y52.001
X-75.585 Y51.117
X-75.64 Y50.233
X-75.685 Y49.348
X-75.722 Y48.462
X-75.748 Y47.577
X-75.766 Y46.691
X-75.773 Y45.805
X-75.772 Y44.918
X-75.76 Y44.032
X-75.739 Y43.147
X-75.708 Y42.261
X-75.667 Y41.376
X-75.616 Y40.491
X-75.555 Y39.607
X-75.483 Y38.724
X-75.399 Y37.842
X-75.303 Y36.961
X-75.192 Y36.082
X-75.065 Y35.205
X-74.916 Y34.331
X-74.742 Y33.462
X-74.536 Y32.601
X-74.285 Y31.751
X-74.063 Y31.172
X-73.841 Y30.71
X-73.833 Y30.695
X-73.661 Y30.46
X-73.443 Y30.265
X-73.191 Y30.12
X-72.913 Y30.03
X-72.623 Y30
X-70.257
G3 X-69.693 Y30.465 I-0.021 J0.6
G1 X-69.672 Y30.556 Z-17.993
X-69.651 Y30.645 Z-17.971
X-69.632 Y30.73 Z-17.935
X-69.614 Y30.808 Z-17.885
X-69.597 Y30.878 Z-17.824
X-69.584 Y30.938 Z-17.753
X-69.573 Y30.986 Z-17.672
X-69.565 Y31.021 Z-17.585
X-69.56 Y31.042 Z-17.494
X-69.558 Y31.049 Z-17.4
Z-16.8
X-63.207 Y79.255
Z-17.4
X-63.214 Y79.259 Z-17.494
X-63.233 Y79.269 Z-17.585
X-63.265 Y79.285 Z-17.672
X-63.309 Y79.308 Z-17.753
X-63.364 Y79.335 Z-17.824
X-63.427 Y79.368 Z-17.885
X-63.499 Y79.405 Z-17.935
X-63.576 Y79.444 Z-17.971
X-63.658 Y79.486 Z-17.993
X-63.741 Y79.529 Z-18
G3 X-64.507 Y79.702 I-0.721 J-1.409
G1 X-66.118 Y79.599
X-66.319 Y79.584
X-67.125 Y79.518
X-67.455 Y79.474
X-67.727 Y79.416
X-68.006 Y79.332
X-68.336 Y79.203
X-68.683 Y79.034
X-69.071 Y78.804
X-69.488 Y78.511
X-69.958 Y78.119
X-70.458 Y77.63
X-71.016 Y76.989
X-71.542 Y76.276
X-72.019 Y75.529
X-72.455 Y74.758
X-72.857 Y73.968
X-73.229 Y73.164
X-73.576 Y72.349
X-73.901 Y71.524
X-74.207 Y70.693
X-74.496 Y69.855
X-74.768 Y69.012
X-75.027 Y68.164
X-75.273 Y67.313
X-75.506 Y66.458
X-75.727 Y65.6
X-75.937 Y64.739
X-76.137 Y63.875
X-76.326 Y63.01
X-76.505 Y62.142
X-76.675 Y61.272
X-76.834 Y60.401
X-76.985 Y59.527
X-77.126 Y58.652
X-77.257 Y57.776
X-77.379 Y56.899
X-77.493 Y56.02
X-77.597 Y55.14
X-77.691 Y54.259
X-77.777 Y53.377
X-77.854 Y52.494
X-77.921 Y51.61
X-77.98 Y50.726
X-78.029 Y49.841
X-78.069 Y48.956
X-78.1 Y48.071
X-78.122 Y47.185
X-78.134 Y46.299
X-78.138 Y45.413
X-78.131 Y44.526
X-78.116 Y43.64
X-78.091 Y42.755
X-78.056 Y41.869
X-78.011 Y40.984
X-77.957 Y40.1
X-77.892 Y39.216
X-77.815 Y38.333
X-77.726 Y37.452
X-77.623 Y36.571
X-77.505 Y35.693
X-77.368 Y34.818
X-77.209 Y33.946
X-77.022 Y33.08
X-76.798 Y32.223
X-76.566 Y31.51
X-76.356 Y31.006
X-76.228 Y30.759
X-76.059 Y30.504
X-75.839 Y30.291
X-75.577 Y30.132
X-75.288 Y30.033
X-74.984 Y30
X-72.623
G3 X-72.06 Y30.465 I-0.021 J0.6
G1 X-72.038 Y30.556 Z-17.993
X-72.018 Y30.645 Z-17.971
X-71.998 Y30.73 Z-17.935
X-71.98 Y30.808 Z-17.885
X-71.964 Y30.878 Z-17.824
X-71.95 Y30.938 Z-17.753
X-71.939 Y30.986 Z-17.672
X-71.931 Y31.021 Z-17.585
X-71.926 Y31.042 Z-17.494
X-71.925 Y31.049 Z-17.4
Z-16.8
X-65.816 Y79.096
Z-17.4
X-65.823 Y79.099 Z-17.494
X-65.843 Y79.109 Z-17.585
X-65.875 Y79.124 Z-17.672
X-65.919 Y79.146 Z-17.753
X-65.974 Y79.173 Z-17.824
X-66.039 Y79.204 Z-17.885
X-66.111 Y79.24 Z-17.935
X-66.189 Y79.278 Z-17.971
X-66.271 Y79.318 Z-17.993
X-66.356 Y79.359 Z-18
G3 X-67.125 Y79.518 I-0.695 J-1.422
G1 X-69.742 Y79.303
X-70.041 Y79.264
X-70.314 Y79.205
X-70.592 Y79.121
X-70.908 Y78.998
X-71.262 Y78.825
X-71.633 Y78.606
X-72.052 Y78.311
X-72.505 Y77.933
X-72.996 Y77.454
X-73.543 Y76.824
X-74.069 Y76.111
X-74.545 Y75.364
X-74.978 Y74.591
X-75.377 Y73.8
X-75.745 Y72.994
X-76.088 Y72.176
X-76.408 Y71.35
X-76.709 Y70.517
X-76.992 Y69.677
X-77.259 Y68.832
X-77.511 Y67.983
X-77.751 Y67.129
X-77.978 Y66.273
X-78.193 Y65.413
X-78.397 Y64.551
X-78.591 Y63.686
X-78.775 Y62.819
X-78.948 Y61.95
X-79.112 Y61.08
X-79.266 Y60.207
X-79.41 Y59.333
X-79.546 Y58.457
X-79.672 Y57.58
X-79.79 Y56.702
X-79.898 Y55.822
X-79.997 Y54.942
X-80.088 Y54.06
X-80.169 Y53.178
X-80.242 Y52.295
X-80.306 Y51.411
X-80.36 Y50.526
X-80.406 Y49.641
X-80.443 Y48.756
X-80.471 Y47.87
X-80.49 Y46.985
X-80.5 Y46.098
X-80.501 Y45.212
X-80.493 Y44.326
X-80.476 Y43.44
X-80.449 Y42.555
X-80.412 Y41.669
X-80.366 Y40.784
X-80.31 Y39.9
X-80.242 Y39.016
X-80.164 Y38.134
X-80.072 Y37.252
X-79.966 Y36.373
X-79.844 Y35.495
X-79.702 Y34.62
X-79.536 Y33.75
X-79.341 Y32.885
X-79.106 Y32.031
X-78.872 Y31.362
X-78.655 Y30.872
X-78.578 Y30.732
X-78.408 Y30.485
X-78.189 Y30.28
X-77.931 Y30.127
X-77.646 Y30.032
X-77.348 Y30
X-74.984
G3 X-74.42 Y30.465 I-0.021 J0.6
G1 X-74.399 Y30.556 Z-17.993
X-74.378 Y30.645 Z-17.971
X-74.359 Y30.73 Z-17.935
X-74.341 Y30.808 Z-17.885
X-74.325 Y30.878 Z-17.824
X-74.311 Y30.938 Z-17.753
X-74.3 Y30.986 Z-17.672
X-74.292 Y31.021 Z-17.585
X-74.287 Y31.042 Z-17.494
X-74.285 Y31.049 Z-17.4
Z-16.8
X-68.434 Y78.881
Z-17.4
X-68.44 Y78.884 Z-17.494
X-68.46 Y78.894 Z-17.585
X-68.492 Y78.91 Z-17.672
X-68.537 Y78.931 Z-17.753
X-68.592 Y78.958 Z-17.824
X-68.656 Y78.99 Z-17.885
X-68.728 Y79.025 Z-17.935
X-68.806 Y79.063 Z-17.971
X-68.888 Y79.103 Z-17.993
X-68.973 Y79.145 Z-18
G3 X-69.742 Y79.303 I-0.695 J-1.422
G1 X-72.158 Y79.105
X-72.359 Y79.088
X-72.631 Y79.05
X-72.903 Y78.989
X-73.178 Y78.904
X-73.498 Y78.776
X-73.845 Y78.604
X-74.22 Y78.379
X-74.633 Y78.083
X-75.09 Y77.698
X-75.573 Y77.218
X-76.114 Y76.586
X-76.635 Y75.87
X-77.105 Y75.119
X-77.533 Y74.343
X-77.926 Y73.548
X-78.288 Y72.739
X-78.624 Y71.919
X-78.937 Y71.091
X-79.231 Y70.254
X-79.507 Y69.412
X-79.767 Y68.565
X-80.013 Y67.714
X-80.246 Y66.859
X-80.466 Y66.001
X-80.674 Y65.139
X-80.872 Y64.276
X-81.059 Y63.409
X-81.236 Y62.541
X-81.403 Y61.671
X-81.56 Y60.799
X-81.708 Y59.925
X-81.847 Y59.05
X-81.977 Y58.173
X-82.097 Y57.296
X-82.209 Y56.416
X-82.312 Y55.536
X-82.406 Y54.655
X-82.491 Y53.773
X-82.568 Y52.89
X-82.636 Y52.007
X-82.695 Y51.123
X-82.746 Y50.238
X-82.787 Y49.353
X-82.821 Y48.467
X-82.845 Y47.582
X-82.86 Y46.696
X-82.867 Y45.81
X-82.865 Y44.923
X-82.854 Y44.037
X-82.833 Y43.152
X-82.804 Y42.266
X-82.764 Y41.381
X-82.715 Y40.496
X-82.656 Y39.612
X-82.585 Y38.728
X-82.502 Y37.846
X-82.406 Y36.965
X-82.295 Y36.086
X-82.167 Y35.209
X-82.018 Y34.336
X-81.843 Y33.467
X-81.636 Y32.606
X-81.386 Y31.76
X-81.163 Y31.18
X-80.939 Y30.713
X-80.928 Y30.695
X-80.756 Y30.46
X-80.539 Y30.265
X-80.286 Y30.12
X-80.009 Y30.03
X-79.719 Y30
X-77.348
G3 X-76.785 Y30.465 I-0.021 J0.6
G1 X-76.763 Y30.556 Z-17.993
X-76.743 Y30.645 Z-17.971
X-76.723 Y30.73 Z-17.935
X-76.705 Y30.808 Z-17.885
X-76.689 Y30.878 Z-17.824
X-76.675 Y30.938 Z-17.753
X-76.664 Y30.986 Z-17.672
X-76.656 Y31.021 Z-17.585
X-76.651 Y31.042 Z-17.494
X-76.65 Y31.049 Z-17.4
Z-16.8
X-71.049 Y78.671
Z-17.4
X-71.056 Y78.674 Z-17.494
X-71.076 Y78.684 Z-17.585
X-71.108 Y78.699 Z-17.672
X-71.152 Y78.721 Z-17.753
X-71.207 Y78.747 Z-17.824
X-71.272 Y78.778 Z-17.885
X-71.344 Y78.813 Z-17.935
X-71.422 Y78.851 Z-17.971
X-71.505 Y78.891 Z-17.993
X-71.589 Y78.932 Z-18
G3 X-72.359 Y79.088 I-0.689 J-1.425
G1 X-72.963 Y79.034
X-74.942 Y78.833
X-75.259 Y78.785
X-75.529 Y78.722
X-75.802 Y78.633
X-76.125 Y78.5
X-76.466 Y78.326
X-76.843 Y78.093
X-77.251 Y77.794
X-77.707 Y77.4
X-78.187 Y76.912
X-78.723 Y76.272
X-79.235 Y75.549
X-79.697 Y74.792
X-80.116 Y74.012
X-80.5 Y73.213
X-80.854 Y72.4
X-81.181 Y71.577
X-81.487 Y70.745
X-81.772 Y69.906
X-82.04 Y69.062
X-82.292 Y68.212
X-82.53 Y67.359
X-82.755 Y66.502
X-82.968 Y65.641
X-83.169 Y64.778
X-83.359 Y63.913
X-83.538 Y63.045
X-83.708 Y62.175
X-83.868 Y61.304
X-84.019 Y60.431
X-84.16 Y59.556
X-84.292 Y58.68
X-84.415 Y57.802
X-84.53 Y56.923
X-84.635 Y56.044
X-84.732 Y55.163
X-84.821 Y54.281
X-84.9 Y53.399
X-84.972 Y52.515
X-85.034 Y51.631
X-85.088 Y50.747
X-85.134 Y49.862
X-85.171 Y48.977
X-85.2 Y48.091
X-85.219 Y47.205
X-85.231 Y46.319
X-85.233 Y45.433
X-85.227 Y44.547
X-85.212 Y43.661
X-85.188 Y42.775
X-85.154 Y41.889
X-85.111 Y41.004
X-85.058 Y40.12
X-84.994 Y39.236
X-84.918 Y38.353
X-84.83 Y37.472
X-84.727 Y36.591
X-84.609 Y35.713
X-84.472 Y34.838
X-84.313 Y33.966
X-84.126 Y33.1
X-83.902 Y32.242
X-83.668 Y31.521
X-83.456 Y31.013
X-83.326 Y30.76
X-83.157 Y30.504
X-82.937 Y30.292
X-82.675 Y30.132
X-82.385 Y30.033
X-82.081 Y30
X-79.719
G3 X-79.155 Y30.465 I-0.021 J0.6
G1 X-79.134 Y30.556 Z-17.993
X-79.113 Y30.645 Z-17.971
X-79.094 Y30.73 Z-17.935
X-79.076 Y30.808 Z-17.885
X-79.06 Y30.878 Z-17.824
X-79.046 Y30.938 Z-17.753
X-79.035 Y30.986 Z-17.672
X-79.027 Y31.021 Z-17.585
X-79.022 Y31.042 Z-17.494
X-79.02 Y31.049 Z-17.4
Z-16.8
X-73.626 Y78.436
Z-17.4
X-73.633 Y78.439 Z-17.494
X-73.653 Y78.448 Z-17.585
X-73.686 Y78.463 Z-17.672
X-73.73 Y78.484 Z-17.753
X-73.786 Y78.51 Z-17.824
X-73.851 Y78.54 Z-17.885
X-73.923 Y78.574 Z-17.935
X-74.002 Y78.611 Z-17.971
X-74.085 Y78.649 Z-17.993
X-74.17 Y78.689 Z-18
G3 X-74.942 Y78.833 I-0.668 J-1.435
G1 X-77.594 Y78.565
X-77.82 Y78.53
X-78.09 Y78.467
X-78.363 Y78.379
X-78.676 Y78.25
X-79.022 Y78.073
X-79.387 Y77.848
X-79.796 Y77.548
X-80.238 Y77.165
X-80.712 Y76.683
X-81.239 Y76.054
X-81.752 Y75.331
X-82.212 Y74.573
X-82.629 Y73.792
X-83.01 Y72.992
X-83.36 Y72.178
X-83.684 Y71.353
X-83.984 Y70.519
X-84.265 Y69.679
X-84.528 Y68.832
X-84.775 Y67.981
X-85.007 Y67.126
X-85.227 Y66.268
X-85.434 Y65.406
X-85.629 Y64.542
X-85.814 Y63.675
X-85.988 Y62.806
X-86.152 Y61.935
X-86.307 Y61.063
X-86.452 Y60.189
X-86.588 Y59.313
X-86.715 Y58.436
X-86.833 Y57.558
X-86.943 Y56.679
X-87.044 Y55.798
X-87.136 Y54.917
X-87.22 Y54.035
X-87.296 Y53.152
X-87.363 Y52.268
X-87.422 Y51.384
X-87.472 Y50.5
X-87.515 Y49.614
X-87.548 Y48.729
X-87.574 Y47.843
X-87.591 Y46.957
X-87.599 Y46.071
Y45.185
X-87.59 Y44.299
X-87.572 Y43.413
X-87.546 Y42.527
X-87.51 Y41.642
X-87.464 Y40.757
X-87.407 Y39.873
X-87.34 Y38.989
X-87.261 Y38.106
X-87.169 Y37.225
X-87.063 Y36.345
X-86.94 Y35.468
X-86.798 Y34.593
X-86.631 Y33.723
X-86.434 Y32.859
X-86.198 Y32.005
X-85.963 Y31.343
X-85.744 Y30.854
X-85.675 Y30.727
X-85.504 Y30.482
X-85.285 Y30.279
X-85.028 Y30.126
X-84.744 Y30.032
X-84.447 Y30
X-82.081
G3 X-81.517 Y30.465 I-0.021 J0.6
G1 X-81.496 Y30.556 Z-17.993
X-81.476 Y30.645 Z-17.971
X-81.456 Y30.73 Z-17.935
X-81.438 Y30.808 Z-17.885
X-81.422 Y30.878 Z-17.824
X-81.408 Y30.938 Z-17.753
X-81.397 Y30.986 Z-17.672
X-81.389 Y31.021 Z-17.585
X-81.384 Y31.042 Z-17.494
X-81.382 Y31.049 Z-17.4
Z-16.8
X-76.277 Y78.168
Z-17.4
X-76.284 Y78.171 Z-17.494
X-76.304 Y78.18 Z-17.585
X-76.337 Y78.195 Z-17.672
X-76.381 Y78.216 Z-17.753
X-76.437 Y78.242 Z-17.824
X-76.502 Y78.272 Z-17.885
X-76.575 Y78.306 Z-17.935
X-76.653 Y78.342 Z-17.971
X-76.736 Y78.381 Z-17.993
X-76.821 Y78.421 Z-18
G3 X-77.594 Y78.565 I-0.668 J-1.435
G1 X-78.918 Y78.431
X-79.003 Y78.422
X-79.607 Y78.351
X-80.211 Y78.278
X-80.453 Y78.236
X-80.719 Y78.168
X-80.996 Y78.073
X-81.322 Y77.93
X-81.657 Y77.751
X-82.036 Y77.506
X-82.437 Y77.199
X-82.888 Y76.793
X-83.367 Y76.287
X-83.893 Y75.632
X-84.391 Y74.899
X-84.838 Y74.134
X-85.242 Y73.346
X-85.612 Y72.54
X-85.95 Y71.722
X-86.263 Y70.893
X-86.554 Y70.055
X-86.825 Y69.212
X-87.078 Y68.363
X-87.316 Y67.509
X-87.539 Y66.652
X-87.75 Y65.791
X-87.948 Y64.927
X-88.135 Y64.061
X-88.312 Y63.193
X-88.478 Y62.322
X-88.634 Y61.45
X-88.781 Y60.576
X-88.919 Y59.701
X-89.048 Y58.824
X-89.168 Y57.946
X-89.279 Y57.067
X-89.382 Y56.187
X-89.476 Y55.306
X-89.562 Y54.424
X-89.64 Y53.541
X-89.709 Y52.658
X-89.77 Y51.774
X-89.823 Y50.889
X-89.868 Y50.004
X-89.905 Y49.119
X-89.933 Y48.233
X-89.953 Y47.347
X-89.964 Y46.461
X-89.968 Y45.575
X-89.962 Y44.689
X-89.949 Y43.803
X-89.926 Y42.917
X-89.894 Y42.032
X-89.852 Y41.146
X-89.8 Y40.262
X-89.738 Y39.378
X-89.664 Y38.495
X-89.578 Y37.613
X-89.478 Y36.732
X-89.362 Y35.854
X-89.228 Y34.978
X-89.073 Y34.106
X-88.892 Y33.238
X-88.675 Y32.379
X-88.431 Y31.605
X-88.218 Y31.077
X-87.991 Y30.626
X-87.83 Y30.414
X-87.63 Y30.239
X-87.397 Y30.108
X-87.143 Y30.027
X-86.878 Y30
X-84.447
G3 X-83.883 Y30.465 I-0.021 J0.6
G1 X-83.862 Y30.556 Z-17.993
X-83.842 Y30.645 Z-17.971
X-83.822 Y30.73 Z-17.935
X-83.804 Y30.808 Z-17.885
X-83.788 Y30.878 Z-17.824
X-83.774 Y30.938 Z-17.753
X-83.763 Y30.986 Z-17.672
X-83.755 Y31.021 Z-17.585
X-83.75 Y31.042 Z-17.494
X-83.748 Y31.049 Z-17.4
Z-16.8
X-78.887 Y77.907
Z-17.4
X-78.894 Y77.91 Z-17.494
X-78.914 Y77.919 Z-17.585
X-78.947 Y77.933 Z-17.672
X-78.992 Y77.953 Z-17.753
X-79.048 Y77.978 Z-17.824
X-79.113 Y78.007 Z-17.885
X-79.187 Y78.039 Z-17.935
X-79.266 Y78.074 Z-17.971
X-79.35 Y78.111 Z-17.993
X-79.436 Y78.149 Z-18
G3 X-80.211 Y78.278 I-0.639 J-1.448
G1 X-82.828 Y77.96
X-83.021 Y77.927
X-83.291 Y77.858
X-83.563 Y77.764
X-83.874 Y77.629
X-84.219 Y77.444
X-84.58 Y77.211
X-84.985 Y76.901
X-85.421 Y76.509
X-85.889 Y76.014
X-86.406 Y75.369
X-86.904 Y74.636
X-87.35 Y73.871
X-87.753 Y73.081
X-88.119 Y72.274
X-88.454 Y71.454
X-88.763 Y70.623
X-89.048 Y69.785
X-89.314 Y68.939
X-89.563 Y68.089
X-89.795 Y67.234
X-90.014 Y66.375
X-90.219 Y65.513
X-90.412 Y64.648
X-90.593 Y63.781
X-90.765 Y62.911
X-90.925 Y62.04
X-91.076 Y61.167
X-91.218 Y60.292
X-91.351 Y59.416
X-91.474 Y58.538
X-91.589 Y57.66
X-91.696 Y56.78
X-91.794 Y55.899
X-91.884 Y55.018
X-91.965 Y54.135
X-92.039 Y53.252
X-92.104 Y52.369
X-92.161 Y51.484
X-92.21 Y50.599
X-92.251 Y49.714
X-92.284 Y48.829
X-92.309 Y47.943
X-92.326 Y47.057
X-92.334 Y46.171
Y45.285
X-92.326 Y44.399
X-92.309 Y43.513
X-92.283 Y42.627
X-92.248 Y41.742
X-92.203 Y40.857
X-92.148 Y39.972
X-92.082 Y39.089
X-92.004 Y38.206
X-91.913 Y37.324
X-91.808 Y36.445
X-91.687 Y35.567
X-91.547 Y34.692
X-91.384 Y33.821
X-91.191 Y32.956
X-90.96 Y32.101
X-90.726 Y31.409
X-90.515 Y30.918
X-90.293 Y30.498
X-90.121 Y30.291
X-89.903 Y30.133
X-89.653 Y30.034
X-89.386 Y30
X-86.878
G3 X-86.314 Y30.465 I-0.021 J0.6
G1 X-86.293 Y30.556 Z-17.993
X-86.273 Y30.645 Z-17.971
X-86.253 Y30.73 Z-17.935
X-86.235 Y30.808 Z-17.885
X-86.219 Y30.878 Z-17.824
X-86.205 Y30.938 Z-17.753
X-86.194 Y30.986 Z-17.672
X-86.186 Y31.021 Z-17.585
X-86.181 Y31.042 Z-17.494
X-86.179 Y31.049 Z-17.4
Z-16.8
X-81.504 Y77.589
Z-17.4
X-81.511 Y77.592 Z-17.494
X-81.531 Y77.601 Z-17.585
X-81.564 Y77.616 Z-17.672
X-81.609 Y77.635 Z-17.753
X-81.665 Y77.66 Z-17.824
X-81.731 Y77.689 Z-17.885
X-81.804 Y77.721 Z-17.935
X-81.884 Y77.757 Z-17.971
X-81.967 Y77.794 Z-17.993
X-82.053 Y77.831 Z-18
G3 X-82.828 Y77.96 I-0.639 J-1.448
G1 X-85.042 Y77.692
X-85.244 Y77.666
X-85.595 Y77.604
X-85.862 Y77.534
X-86.13 Y77.44
X-86.444 Y77.302
X-86.78 Y77.119
X-87.144 Y76.883
X-87.541 Y76.576
X-87.978 Y76.179
X-88.438 Y75.688
X-88.948 Y75.047
X-89.443 Y74.311
X-89.884 Y73.543
X-90.282 Y72.751
X-90.643 Y71.942
X-90.973 Y71.12
X-91.276 Y70.287
X-91.557 Y69.447
X-91.817 Y68.599
X-92.059 Y67.747
X-92.286 Y66.89
X-92.498 Y66.03
X-92.697 Y65.167
X-92.884 Y64.301
X-93.06 Y63.432
X-93.225 Y62.561
X-93.38 Y61.689
X-93.525 Y60.815
X-93.662 Y59.939
X-93.789 Y59.062
X-93.907 Y58.184
X-94.017 Y57.305
X-94.118 Y56.424
X-94.211 Y55.543
X-94.296 Y54.661
X-94.372 Y53.778
X-94.441 Y52.895
X-94.502 Y52.011
X-94.555 Y51.126
X-94.599 Y50.241
X-94.636 Y49.356
X-94.665 Y48.47
X-94.686 Y47.584
X-94.699 Y46.698
X-94.704 Y45.812
X-94.7 Y44.926
X-94.688 Y44.04
X-94.667 Y43.154
X-94.637 Y42.269
X-94.598 Y41.383
X-94.549 Y40.499
X-94.489 Y39.615
X-94.418 Y38.731
X-94.336 Y37.849
X-94.239 Y36.968
X-94.128 Y36.089
X-94 Y35.212
X-93.851 Y34.339
X-93.677 Y33.47
X-93.47 Y32.608
X-93.221 Y31.758
X-92.993 Y31.144
X-92.785 Y30.697
X-92.565 Y30.308
X-92.409 Y30.143
X-92.208 Y30.037
X-91.983 Y30
X-89.386
G3 X-88.823 Y30.465 I-0.021 J0.6
G1 X-88.801 Y30.556 Z-17.993
X-88.781 Y30.645 Z-17.971
X-88.761 Y30.73 Z-17.935
X-88.743 Y30.808 Z-17.885
X-88.727 Y30.878 Z-17.824
X-88.713 Y30.938 Z-17.753
X-88.702 Y30.986 Z-17.672
X-88.694 Y31.021 Z-17.585
X-88.689 Y31.042 Z-17.494
X-88.688 Y31.049 Z-17.4
Z-16.8
X-83.918 Y77.301
Z-17.4
X-83.925 Y77.304 Z-17.494
X-83.945 Y77.313 Z-17.585
X-83.978 Y77.327 Z-17.672
X-84.024 Y77.347 Z-17.753
X-84.08 Y77.371 Z-17.824
X-84.145 Y77.4 Z-17.885
X-84.219 Y77.432 Z-17.935
X-84.299 Y77.467 Z-17.971
X-84.382 Y77.503 Z-17.993
X-84.468 Y77.541 Z-18
G3 X-85.244 Y77.666 I-0.632 J-1.451
G1 X-85.646 Y77.615
X-87.056 Y77.415
X-87.861 Y77.301
X-88.219 Y77.231
X-88.48 Y77.159
X-88.752 Y77.059
X-89.072 Y76.911
X-89.401 Y76.726
X-89.771 Y76.476
X-90.162 Y76.164
X-90.601 Y75.752
X-91.062 Y75.244
X-91.569 Y74.586
X-92.051 Y73.843
X-92.482 Y73.068
X-92.869 Y72.271
X-93.22 Y71.457
X-93.54 Y70.631
X-93.834 Y69.795
X-94.105 Y68.951
X-94.356 Y68.102
X-94.59 Y67.247
X-94.808 Y66.388
X-95.012 Y65.526
X-95.203 Y64.661
X-95.383 Y63.793
X-95.551 Y62.923
X-95.709 Y62.051
X-95.856 Y61.177
X-95.994 Y60.302
X-96.124 Y59.425
X-96.244 Y58.547
X-96.355 Y57.668
X-96.458 Y56.788
X-96.553 Y55.907
X-96.64 Y55.025
X-96.719 Y54.142
X-96.79 Y53.259
X-96.853 Y52.375
X-96.908 Y51.491
X-96.955 Y50.606
X-96.994 Y49.721
X-97.025 Y48.835
X-97.049 Y47.949
X-97.064 Y47.063
X-97.072 Y46.177
X-97.071 Y45.291
X-97.062 Y44.405
X-97.045 Y43.519
X-97.018 Y42.633
X-96.983 Y41.748
X-96.938 Y40.863
X-96.882 Y39.979
X-96.816 Y39.095
X-96.738 Y38.212
X-96.647 Y37.331
X-96.542 Y36.451
X-96.421 Y35.573
X-96.28 Y34.698
X-96.118 Y33.827
X-95.928 Y32.962
X-95.7 Y32.105
X-95.428 Y31.286
X-95.207 Y30.764
X-95.004 Y30.375
X-94.802 Y30.054
X-94.772 Y30.025
X-94.735 Y30.006
X-94.694 Y30
X-91.983
G3 X-91.42 Y30.465 I-0.021 J0.6
G1 X-91.399 Y30.556 Z-17.993
X-91.378 Y30.645 Z-17.971
X-91.358 Y30.73 Z-17.935
X-91.34 Y30.808 Z-17.885
X-91.324 Y30.878 Z-17.824
X-91.311 Y30.938 Z-17.753
X-91.299 Y30.986 Z-17.672
X-91.291 Y31.021 Z-17.585
X-91.286 Y31.042 Z-17.494
X-91.285 Y31.049 Z-17.4
Z-16.8
X-86.53 Y76.957
Z-17.4
X-86.537 Y76.96 Z-17.494
X-86.557 Y76.968 Z-17.585
X-86.59 Y76.982 Z-17.672
X-86.636 Y77.001 Z-17.753
X-86.692 Y77.025 Z-17.824
X-86.758 Y77.052 Z-17.885
X-86.832 Y77.083 Z-17.935
X-86.913 Y77.117 Z-17.971
X-86.997 Y77.152 Z-17.993
X-87.084 Y77.188 Z-18
G3 X-87.861 Y77.301 I-0.609 J-1.461
G1 X-90.478 Y76.928
X-90.764 Y76.873
X-91.031 Y76.798
X-91.299 Y76.7
X-91.607 Y76.558
X-91.944 Y76.368
X-92.3 Y76.128
X-92.695 Y75.813
X-93.121 Y75.413
X-93.574 Y74.913
X-94.074 Y74.264
X-94.557 Y73.521
X-94.986 Y72.746
X-95.371 Y71.948
X-95.719 Y71.133
X-96.035 Y70.305
X-96.325 Y69.468
X-96.592 Y68.623
X-96.839 Y67.772
X-97.068 Y66.916
X-97.282 Y66.056
X-97.481 Y65.192
X-97.667 Y64.326
X-97.841 Y63.457
X-98.004 Y62.586
X-98.156 Y61.713
X-98.299 Y60.838
X-98.432 Y59.962
X-98.556 Y59.085
X-98.672 Y58.206
X-98.779 Y57.327
X-98.877 Y56.446
X-98.967 Y55.565
X-99.049 Y54.682
X-99.124 Y53.799
X-99.19 Y52.916
X-99.249 Y52.031
X-99.3 Y51.147
X-99.343 Y50.262
X-99.378 Y49.376
X-99.406 Y48.491
X-99.426 Y47.605
X-99.438 Y46.719
X-99.442 Y45.833
X-99.437 Y44.946
X-99.425 Y44.06
X-99.403 Y43.175
X-99.373 Y42.289
X-99.334 Y41.404
X-99.285 Y40.519
X-99.225 Y39.635
X-99.154 Y38.752
X-99.071 Y37.869
X-98.975 Y36.988
X-98.864 Y36.109
X-98.736 Y35.233
X-98.588 Y34.359
X-98.416 Y33.489
X-98.213 Y32.627
X-97.971 Y31.775
X-97.695 Y30.992
X-97.622 Y30.83
X-97.459 Y30.553
X-97.236 Y30.321
X-96.966 Y30.146
X-96.663 Y30.037
X-96.344 Y30
X-94.694
G3 X-94.13 Y30.465 I-0.021 J0.6
G1 X-94.109 Y30.556 Z-17.993
X-94.089 Y30.645 Z-17.971
X-94.069 Y30.73 Z-17.935
X-94.051 Y30.808 Z-17.885
X-94.035 Y30.878 Z-17.824
X-94.021 Y30.938 Z-17.753
X-94.01 Y30.986 Z-17.672
X-94.002 Y31.021 Z-17.585
X-93.997 Y31.042 Z-17.494
X-93.995 Y31.049 Z-17.4
Z-16.8
X-89.147 Y76.584
Z-17.4
X-89.154 Y76.587 Z-17.494
X-89.174 Y76.596 Z-17.585
X-89.208 Y76.61 Z-17.672
X-89.253 Y76.628 Z-17.753
X-89.309 Y76.652 Z-17.824
X-89.375 Y76.68 Z-17.885
X-89.45 Y76.71 Z-17.935
X-89.53 Y76.744 Z-17.971
X-89.614 Y76.779 Z-17.993
X-89.701 Y76.815 Z-18
G3 X-90.478 Y76.928 I-0.609 J-1.461
G1 X-91.686 Y76.756
X-92.29 Y76.661
X-92.894 Y76.563
X-93.095 Y76.53
X-93.39 Y76.466
X-93.651 Y76.387
X-93.924 Y76.28
X-94.245 Y76.123
X-94.572 Y75.93
X-94.942 Y75.669
X-95.329 Y75.346
X-95.763 Y74.921
X-96.222 Y74.392
X-96.721 Y73.714
X-97.188 Y72.96
X-97.602 Y72.177
X-97.974 Y71.373
X-98.309 Y70.552
X-98.614 Y69.72
X-98.893 Y68.879
X-99.149 Y68.031
X-99.386 Y67.177
X-99.606 Y66.319
X-99.81 Y65.456
X-100 Y64.591
X-100.178 Y63.723
X-100.343 Y62.852
X-100.498 Y61.98
X-100.643 Y61.106
X-100.778 Y60.23
X-100.903 Y59.353
X-101.02 Y58.474
X-101.128 Y57.595
X-101.228 Y56.714
X-101.319 Y55.833
X-101.403 Y54.951
X-101.479 Y54.068
X-101.546 Y53.184
X-101.606 Y52.3
X-101.659 Y51.416
X-101.703 Y50.531
X-101.74 Y49.645
X-101.77 Y48.76
X-101.792 Y47.874
X-101.805 Y46.988
X-101.811 Y46.102
X-101.809 Y45.216
X-101.799 Y44.329
X-101.78 Y43.444
X-101.752 Y42.558
X-101.715 Y41.673
X-101.669 Y40.788
X-101.612 Y39.903
X-101.544 Y39.02
X-101.465 Y38.137
X-101.373 Y37.256
X-101.266 Y36.376
X-101.143 Y35.499
X-101.001 Y34.624
X-100.837 Y33.753
X-100.647 Y32.888
X-100.423 Y32.03
X-100.211 Y31.397
X-99.998 Y30.9
X-99.918 Y30.748
X-99.748 Y30.496
X-99.528 Y30.287
X-99.269 Y30.13
X-98.981 Y30.033
X-98.679 Y30
X-96.344
G3 X-95.78 Y30.465 I-0.021 J0.6
G1 X-95.759 Y30.556 Z-17.993
X-95.738 Y30.645 Z-17.971
X-95.719 Y30.73 Z-17.935
X-95.701 Y30.808 Z-17.885
X-95.685 Y30.878 Z-17.824
X-95.671 Y30.938 Z-17.753
X-95.66 Y30.986 Z-17.672
X-95.652 Y31.021 Z-17.585
X-95.647 Y31.042 Z-17.494
X-95.645 Y31.049 Z-17.4
Z-16.8
X-91.952 Y76.239
Z-17.4
X-91.959 Y76.242 Z-17.494
X-91.98 Y76.25 Z-17.585
X-92.013 Y76.263 Z-17.672
X-92.059 Y76.281 Z-17.753
X-92.116 Y76.303 Z-17.824
X-92.182 Y76.329 Z-17.885
X-92.257 Y76.358 Z-17.935
X-92.338 Y76.39 Z-17.971
X-92.423 Y76.423 Z-17.993
X-92.511 Y76.458 Z-18
G3 X-93.095 Y76.53 I-0.433 J-1.105
G1 X-95.713 Y76.099
X-95.943 Y76.05
X-96.209 Y75.969
X-96.479 Y75.863
X-96.783 Y75.715
X-97.121 Y75.515
X-97.472 Y75.267
X-97.864 Y74.94
X-98.284 Y74.528
X-98.732 Y74.013
X-99.224 Y73.344
X-99.69 Y72.591
X-100.104 Y71.807
X-100.473 Y71.002
X-100.805 Y70.18
X-101.107 Y69.347
X-101.382 Y68.505
X-101.634 Y67.655
X-101.866 Y66.8
X-102.081 Y65.94
X-102.28 Y65.077
X-102.466 Y64.21
X-102.638 Y63.341
X-102.799 Y62.47
X-102.949 Y61.596
X-103.088 Y60.721
X-103.218 Y59.845
X-103.339 Y58.967
X-103.451 Y58.088
X-103.554 Y57.208
X-103.649 Y56.327
X-103.736 Y55.445
X-103.815 Y54.562
X-103.886 Y53.679
X-103.949 Y52.795
X-104.005 Y51.911
X-104.053 Y51.026
X-104.093 Y50.141
X-104.126 Y49.255
X-104.151 Y48.369
X-104.169 Y47.483
X-104.179 Y46.597
X-104.181 Y45.711
X-104.174 Y44.825
X-104.16 Y43.939
X-104.137 Y43.053
X-104.105 Y42.168
X-104.063 Y41.283
X-104.012 Y40.398
X-103.951 Y39.514
X-103.878 Y38.631
X-103.793 Y37.749
X-103.695 Y36.868
X-103.581 Y35.989
X-103.451 Y35.113
X-103.301 Y34.24
X-103.128 Y33.37
X-102.923 Y32.508
X-102.684 Y31.702
X-102.472 Y31.155
X-102.249 Y30.693
X-102.077 Y30.458
X-101.86 Y30.264
X-101.607 Y30.12
X-101.33 Y30.03
X-101.041 Y30
X-98.679
G3 X-98.116 Y30.465 I-0.021 J0.6
G1 X-98.094 Y30.556 Z-17.993
X-98.074 Y30.645 Z-17.971
X-98.054 Y30.73 Z-17.935
X-98.036 Y30.808 Z-17.885
X-98.02 Y30.878 Z-17.824
X-98.006 Y30.938 Z-17.753
X-97.995 Y30.986 Z-17.672
X-97.987 Y31.021 Z-17.585
X-97.982 Y31.042 Z-17.494
X-97.981 Y31.049 Z-17.4
Z-16.8
X-94.375 Y75.784
Z-17.4
X-94.381 Y75.787 Z-17.494
X-94.402 Y75.795 Z-17.585
X-94.435 Y75.808 Z-17.672
X-94.481 Y75.826 Z-17.753
X-94.538 Y75.848 Z-17.824
X-94.605 Y75.875 Z-17.885
X-94.68 Y75.904 Z-17.935
X-94.761 Y75.936 Z-17.971
X-94.846 Y75.969 Z-17.993
X-94.933 Y76.003 Z-18
G3 X-95.713 Y76.099 I-0.577 J-1.474
G1 X-97.726 Y75.768
X-98.33 Y75.666
X-98.518 Y75.623
X-98.785 Y75.539
X-99.053 Y75.43
X-99.364 Y75.273
X-99.695 Y75.072
X-100.054 Y74.811
X-100.441 Y74.481
X-100.867 Y74.052
X-101.311 Y73.528
X-101.8 Y72.846
X-102.257 Y72.087
X-102.662 Y71.299
X-103.022 Y70.489
X-103.347 Y69.665
X-103.64 Y68.828
X-103.907 Y67.983
X-104.152 Y67.132
X-104.377 Y66.275
X-104.584 Y65.413
X-104.777 Y64.548
X-104.955 Y63.68
X-105.12 Y62.81
X-105.275 Y61.937
X-105.418 Y61.063
X-105.551 Y60.187
X-105.674 Y59.309
X-105.789 Y58.43
X-105.895 Y57.551
X-105.992 Y56.67
X-106.081 Y55.788
X-106.162 Y54.906
X-106.235 Y54.023
X-106.301 Y53.139
X-106.359 Y52.255
X-106.409 Y51.37
X-106.452 Y50.485
X-106.487 Y49.6
X-106.514 Y48.714
X-106.534 Y47.828
X-106.547 Y46.942
X-106.551 Y46.056
X-106.548 Y45.17
X-106.536 Y44.284
X-106.516 Y43.398
X-106.487 Y42.512
X-106.449 Y41.627
X-106.401 Y40.742
X-106.344 Y39.858
X-106.275 Y38.974
X-106.195 Y38.092
X-106.102 Y37.211
X-105.995 Y36.331
X-105.871 Y35.453
X-105.73 Y34.579
X-105.566 Y33.708
X-105.374 Y32.843
X-105.139 Y31.988
X-104.916 Y31.348
X-104.706 Y30.875
