(1001)
(Bearbeiten)
(  Hersteller: ChinaCnc)
(  model: 3040T)
(  description: Generic 3-axis)
(T16  D=6 CR=0 - ZMIN=-30.2 - Schaftfraser)
G90 G94
G17
G21
(When using Fusion 360 for Personal Use, the feedrate of)
(rapid moves is reduced to match the feedrate of cutting)
(moves, which can increase machining time. Unrestricted rapid)
(moves are available with a Fusion 360 Subscription.)

(2D Adaptive24)
T16
S6000 M3
G54
G0 X20.878 Y-35.414
Z5
G1 Z3 F1000
Z2
Z-7 F333.3
X20.879 Y-35.451 F1000
X20.916 Y-35.443
X20.932 Y-35.409
X20.921 Y-35.373
X20.89 Y-35.352
X20.853 Y-35.353
X20.819 Y-35.37
X20.795 Y-35.399
X20.782 Y-35.434
X20.784 Y-35.471
X20.799 Y-35.506
X20.824 Y-35.534
X20.856 Y-35.554
X20.928 Y-35.574
X21.001 Y-35.559
X21.061 Y-35.514
X21.101 Y-35.451
X21.115 Y-35.377
X21.106 Y-35.303
X21.074 Y-35.235
X20.973 Y-35.123
X20.831 Y-35.076
X20.682 Y-35.095
X20.553 Y-35.171
X20.46 Y-35.289
X20.413 Y-35.431
X20.414 Y-35.581
X20.459 Y-35.725
X20.543 Y-35.849
X20.656 Y-35.947
X20.791 Y-36.013
X20.938 Y-36.043
X21.088 Y-36.038
X21.232 Y-35.998
X21.364 Y-35.927
X21.478 Y-35.829
X21.569 Y-35.71
X21.634 Y-35.575
X21.674 Y-35.43
X21.686 Y-35.28
X21.67 Y-35.131
X21.629 Y-34.987
X21.564 Y-34.852
X21.477 Y-34.73
X21.372 Y-34.623
X21.25 Y-34.535
X21.117 Y-34.467
X20.974 Y-34.419
X20.826 Y-34.394
X20.677 Y-34.39
X20.528 Y-34.408
X20.383 Y-34.447
X20.244 Y-34.505
X20.116 Y-34.582
X19.998 Y-34.675
X19.893 Y-34.783
X19.803 Y-34.903
X19.729 Y-35.033
X19.671 Y-35.171
X19.631 Y-35.316
X19.608 Y-35.464
X19.602 Y-35.614
X19.614 Y-35.763
X19.643 Y-35.911
X19.688 Y-36.054
X19.75 Y-36.191
X19.825 Y-36.32
X19.914 Y-36.441
X20.015 Y-36.552
X20.128 Y-36.651
X20.25 Y-36.738
X20.38 Y-36.812
X20.518 Y-36.872
X20.66 Y-36.919
X20.807 Y-36.951
X20.956 Y-36.969
X21.106 Y-36.971
X21.255 Y-36.96
X21.403 Y-36.934
X21.548 Y-36.895
X21.688 Y-36.843
X21.824 Y-36.777
X21.952 Y-36.7
X22.073 Y-36.612
X22.186 Y-36.513
X22.29 Y-36.405
X22.384 Y-36.288
X22.468 Y-36.164
X22.541 Y-36.032
X22.602 Y-35.895
X22.652 Y-35.754
X22.689 Y-35.609
X22.715 Y-35.461
X22.729 Y-35.308
X22.731 Y-35.158
X22.719 Y-35.004
X22.697 Y-34.855
X22.66 Y-34.703
X22.613 Y-34.557
X22.552 Y-34.409
X22.481 Y-34.271
X22.396 Y-34.133
X22.303 Y-34.007
X22.194 Y-33.881
X22.08 Y-33.769
X21.951 Y-33.662
X21.817 Y-33.567
X21.672 Y-33.481
X21.52 Y-33.407
X21.362 Y-33.345
X21.197 Y-33.295
X21.031 Y-33.259
X20.855 Y-33.236
X20.681 Y-33.226
X20.504 Y-33.231
X20.325 Y-33.251
X20.15 Y-33.284
X19.972 Y-33.333
X19.802 Y-33.395
X19.635 Y-33.471
X19.47 Y-33.563
X19.317 Y-33.667
X19.169 Y-33.784
X19.028 Y-33.915
X18.9 Y-34.056
X18.781 Y-34.209
X18.673 Y-34.374
X18.58 Y-34.545
X18.5 Y-34.725
X18.433 Y-34.915
X18.382 Y-35.11
X18.346 Y-35.307
X18.327 Y-35.512
X18.323 Y-35.719
X18.336 Y-35.924
X18.366 Y-36.129
X18.413 Y-36.336
X18.477 Y-36.539
X18.557 Y-36.736
X18.653 Y-36.926
X18.766 Y-37.113
X18.894 Y-37.29
X19.036 Y-37.457
X19.191 Y-37.612
X19.361 Y-37.755
X19.544 Y-37.887
X19.738 Y-38.004
X19.941 Y-38.105
X20.152 Y-38.19
X20.371 Y-38.258
X20.597 Y-38.309
X20.829 Y-38.342
X21.064 Y-38.356
X21.302 Y-38.352
X21.539 Y-38.328
X21.775 Y-38.285
X22.007 Y-38.223
X22.236 Y-38.142
X22.459 Y-38.042
X22.675 Y-37.923
X22.883 Y-37.787
X23.08 Y-37.633
X23.266 Y-37.463
X23.438 Y-37.277
X23.596 Y-37.076
X23.738 Y-36.862
X23.864 Y-36.637
X23.972 Y-36.4
X24.06 Y-36.154
X24.13 Y-35.899
X24.178 Y-35.639
X24.206 Y-35.374
X24.213 Y-35.105
X24.198 Y-34.836
X24.161 Y-34.566
X24.103 Y-34.3
X24.022 Y-34.036
X23.92 Y-33.779
X23.797 Y-33.529
X23.654 Y-33.289
X23.491 Y-33.059
X23.309 Y-32.842
X23.109 Y-32.639
X22.891 Y-32.452
X22.658 Y-32.282
X22.411 Y-32.129
X22.15 Y-31.997
X21.879 Y-31.885
X21.597 Y-31.795
X21.307 Y-31.727
X21.012 Y-31.683
X20.711 Y-31.662
X20.408 Y-31.665
X20.105 Y-31.693
X19.803 Y-31.745
X19.505 Y-31.822
X19.212 Y-31.924
X18.926 Y-32.049
X18.65 Y-32.197
X18.386 Y-32.368
X18.134 Y-32.561
X17.897 Y-32.775
X17.677 Y-33.008
X17.476 Y-33.259
X17.294 Y-33.528
X17.133 Y-33.811
X16.995 Y-34.108
X16.881 Y-34.417
X16.791 Y-34.736
X16.727 Y-35.063
X16.689 Y-35.396
X16.678 Y-35.732
X16.694 Y-36.071
X16.738 Y-36.408
X16.808 Y-36.743
X16.906 Y-37.073
X17.031 Y-37.395
X17.182 Y-37.708
X17.358 Y-38.01
X17.56 Y-38.298
X17.785 Y-38.571
X18.032 Y-38.826
X18.3 Y-39.061
X18.588 Y-39.275
X18.894 Y-39.466
X19.215 Y-39.634
X19.551 Y-39.775
X19.899 Y-39.89
X20.257 Y-39.977
X20.622 Y-40.035
X20.993 Y-40.063
X21.367 Y-40.062
X21.741 Y-40.031
X22.113 Y-39.969
X22.482 Y-39.878
X22.843 Y-39.756
X23.195 Y-39.605
X23.536 Y-39.426
X23.863 Y-39.218
X24.173 Y-38.984
X24.466 Y-38.725
X24.737 Y-38.441
X24.987 Y-38.136
X25.212 Y-37.809
X25.411 Y-37.464
X25.582 Y-37.103
X25.725 Y-36.727
X25.838 Y-36.339
X25.919 Y-35.941
X25.968 Y-35.536
X25.985 Y-35.127
X25.969 Y-34.716
X25.92 Y-34.305
X25.838 Y-33.898
X25.722 Y-33.497
X25.574 Y-33.105
X25.395 Y-32.724
X25.184 Y-32.357
X24.943 Y-32.007
X24.674 Y-31.675
X24.378 Y-31.365
X24.056 Y-31.078
X23.711 Y-30.817
X23.344 Y-30.583
X22.958 Y-30.378
X22.555 Y-30.205
X22.138 Y-30.063
X21.708 Y-29.955
X21.269 Y-29.882
X20.824 Y-29.844
X20.375 Y-29.841
X19.926 Y-29.875
X19.478 Y-29.945
X19.036 Y-30.051
X18.602 Y-30.194
X18.179 Y-30.371
X17.77 Y-30.582
X17.377 Y-30.827
X17.004 Y-31.103
X16.652 Y-31.41
X16.325 Y-31.746
X16.025 Y-32.108
X15.754 Y-32.495
X15.513 Y-32.904
X15.305 Y-33.333
X15.132 Y-33.779
X14.994 Y-34.239
X14.894 Y-34.711
X14.831 Y-35.191
X14.807 Y-35.676
X14.822 Y-36.164
X14.876 Y-36.652
X14.97 Y-37.135
X15.103 Y-37.611
X15.274 Y-38.077
X15.483 Y-38.529
X15.729 Y-38.965
X16.009 Y-39.382
X16.324 Y-39.776
X16.671 Y-40.145
X17.047 Y-40.486
X17.452 Y-40.798
X17.882 Y-41.077
X18.334 Y-41.321
X18.807 Y-41.53
X19.296 Y-41.7
X19.8 Y-41.831
X20.315 Y-41.922
X20.837 Y-41.971
X21.364 Y-41.978
X21.892 Y-41.942
X22.417 Y-41.865
X22.936 Y-41.744
X23.446 Y-41.582
X23.944 Y-41.379
X24.425 Y-41.135
X24.886 Y-40.853
X25.326 Y-40.533
X25.739 Y-40.178
X26.125 Y-39.789
X26.479 Y-39.369
X26.799 Y-38.92
X27.084 Y-38.445
X27.33 Y-37.947
X27.536 Y-37.429
X27.701 Y-36.894
X27.823 Y-36.346
X27.9 Y-35.788
X27.933 Y-35.223
X27.92 Y-34.656
X27.861 Y-34.089
X27.757 Y-33.527
X27.607 Y-32.973
X27.413 Y-32.43
X27.175 Y-31.903
X26.895 Y-31.396
X26.573 Y-30.91
X26.212 Y-30.45
X25.814 Y-30.02
X25.381 Y-29.621
X24.916 Y-29.256
X24.422 Y-28.929
X23.901 Y-28.642
X23.356 Y-28.397
X22.792 Y-28.195
X22.211 Y-28.039
X21.618 Y-27.93
X21.015 Y-27.868
X20.408 Y-27.855
X19.799 Y-27.891
X19.193 Y-27.976
X18.593 Y-28.109
X18.005 Y-28.291
X17.431 Y-28.521
X16.875 Y-28.796
X16.342 Y-29.117
X15.834 Y-29.48
X15.355 Y-29.884
X14.909 Y-30.327
X14.499 Y-30.806
X14.127 Y-31.318
X13.796 Y-31.86
X13.509 Y-32.429
X13.267 Y-33.02
X13.074 Y-33.632
X12.929 Y-34.258
X12.835 Y-34.897
X12.792 Y-35.543
X12.802 Y-36.192
X12.863 Y-36.841
X12.977 Y-37.485
X13.143 Y-38.12
X13.36 Y-38.741
X13.627 Y-39.345
X13.942 Y-39.927
X14.304 Y-40.484
X14.712 Y-41.012
X15.161 Y-41.506
X15.651 Y-41.965
X16.177 Y-42.385
X16.737 Y-42.761
X17.328 Y-43.093
X17.945 Y-43.377
X18.585 Y-43.612
X19.244 Y-43.795
X19.918 Y-43.925
X20.602 Y-44.001
X21.292 Y-44.021
X21.983 Y-43.986
X22.672 Y-43.896
X23.353 Y-43.75
X24.023 Y-43.549
X24.676 Y-43.294
X25.309 Y-42.987
X25.916 Y-42.628
X26.495 Y-42.221
X27.041 Y-41.768
X27.55 Y-41.271
X28.019 Y-40.732
X28.445 Y-40.157
X28.824 Y-39.547
X29.154 Y-38.906
X29.433 Y-38.24
X29.657 Y-37.551
X29.826 Y-36.844
X29.938 Y-36.124
X29.993 Y-35.395
X29.988 Y-34.662
X29.924 Y-33.929
X29.802 Y-33.202
X29.621 Y-32.485
X29.382 Y-31.783
X29.087 Y-31.1
X28.737 Y-30.441
X28.334 Y-29.81
X27.881 Y-29.212
X27.379 Y-28.651
X26.832 Y-28.13
X26.244 Y-27.654
X25.618 Y-27.225
X24.957 Y-26.846
X24.266 Y-26.521
X23.548 Y-26.251
X22.81 Y-26.04
X22.055 Y-25.888
X21.287 Y-25.796
X20.513 Y-25.767
X19.737 Y-25.8
X18.963 Y-25.895
X18.198 Y-26.052
X17.446 Y-26.271
X16.711 Y-26.551
X16 Y-26.889
X15.316 Y-27.285
X14.664 Y-27.735
X14.048 Y-28.238
X13.474 Y-28.79
X12.944 Y-29.388
X12.462 Y-30.028
X12.033 Y-30.707
X11.658 Y-31.42
X11.341 Y-32.163
X11.083 Y-32.931
X10.888 Y-33.719
X10.756 Y-34.522
X10.689 Y-35.336
X10.687 Y-36.155
X10.751 Y-36.973
X10.881 Y-37.786
X11.077 Y-38.587
X11.336 Y-39.373
X11.659 Y-40.137
X12.043 Y-40.875
X12.487 Y-41.582
X12.987 Y-42.252
X13.54 Y-42.882
X14.144 Y-43.467
X14.795 Y-44.002
X15.488 Y-44.486
X16.22 Y-44.913
X16.986 Y-45.281
X17.781 Y-45.587
X18.6 Y-45.829
X19.438 Y-46.005
X19.517 Y-46.015
X19.585 Y-46.022
X19.653 Y-46.026
X19.721
X21.072 Y-46
X21.273 Y-45.995
X21.876 Y-45.974
X22.76 Y-45.901
X23.478 Y-45.802
X24.223 Y-45.637
X24.979 Y-45.405
X25.735 Y-45.105
X26.479 Y-44.738
X27.203 Y-44.305
X27.899 Y-43.81
X28.559 Y-43.255
X29.177 Y-42.643
X29.748 Y-41.98
X30.267 Y-41.269
X30.729 Y-40.516
X31.13 Y-39.726
X31.467 Y-38.906
X31.737 Y-38.062
X31.939 Y-37.199
X32.073 Y-36.323
X32.137 Y-35.439
X32.131 Y-34.553
X32.056 Y-33.67
X31.911 Y-32.796
X31.699 Y-31.936
X31.421 Y-31.095
X31.077 Y-30.278
X30.671 Y-29.49
X30.205 Y-28.736
X29.682 Y-28.021
X29.106 Y-27.348
X28.479 Y-26.721
X27.807 Y-26.144
X27.092 Y-25.621
X26.339 Y-25.153
X25.824 Y-24.884
X25.609 Y-24.794
X25.383 Y-24.741
X25.151 Y-24.726
X23.889 Y-24.75
X22.681 Y-24.778
X20.065 Y-24.843
X19.663 Y-24.854
X17.047 Y-24.935
X16.554 Y-24.975
X16.098 Y-25.049
X15.597 Y-25.172
X15.041 Y-25.357
X14.488 Y-25.593
X13.885 Y-25.908
X13.256 Y-26.305
X12.634 Y-26.772
X12.034 Y-27.302
X11.445 Y-27.912
X10.884 Y-28.597
X10.379 Y-29.325
X9.932 Y-30.09
X9.544 Y-30.887
X9.217 Y-31.711
X8.95 Y-32.556
X8.746 Y-33.418
X8.606 Y-34.293
X8.53 Y-35.176
X8.52 Y-36.062
X8.573 Y-36.946
X8.689 Y-37.825
X8.867 Y-38.693
X9.107 Y-39.546
X9.405 Y-40.38
X9.761 Y-41.192
X10.174 Y-41.976
X10.643 Y-42.728
X11.165 Y-43.444
X11.735 Y-44.122
X12.351 Y-44.759
X13.01 Y-45.351
X13.622 Y-45.83
X13.892 Y-45.995
X14.192 Y-46.096
X14.506 Y-46.127
X15.639 Y-46.106
X19.721 Y-46.026
G3 X19.973 Y-45.965 I-0.012 J0.6
G1 X20.047 Y-45.935
X20.123 Y-45.915
X20.482 Y-45.845
X20.903 Y-45.764
G2 X21.306 Y-45.827 I0.114 J-0.589
G3 X21.876 Y-45.974 I0.572 J1.04
G1 X26.706 Y-45.814
X27.082 Y-45.782
X27.439 Y-45.723
X27.82 Y-45.629
X28.243 Y-45.486
X28.699 Y-45.291
X29.2 Y-45.027
X29.705 Y-44.707
X30.26 Y-44.289
X30.817 Y-43.794
X31.356 Y-43.231
X31.897 Y-42.568
X32.4 Y-41.839
X32.845 Y-41.072
X33.233 Y-40.275
X33.563 Y-39.453
X33.833 Y-38.609
X34.042 Y-37.748
X34.193 Y-36.875
X34.285 Y-35.994
X34.32 Y-35.108
X34.296 Y-34.222
X34.213 Y-33.34
X34.07 Y-32.465
X33.87 Y-31.602
X33.614 Y-30.754
X33.304 Y-29.924
X32.941 Y-29.115
X32.526 Y-28.332
X32.06 Y-27.579
X31.545 Y-26.858
X30.984 Y-26.172
X30.381 Y-25.522
X29.881 Y-25.048
X29.668 Y-24.882
X29.428 Y-24.76
X29.168 Y-24.686
X28.899 Y-24.664
X27.31 Y-24.686
X25.901 Y-24.712
X25.151 Y-24.726
G3 X24.898 Y-24.787 I0.011 J-0.6
G1 X24.824 Y-24.817
X24.747 Y-24.838
X24.667 Y-24.847
X24.384 Y-24.863
X18.131 Y-25.207
G2 X17.807 Y-25.133 I-0.033 J0.599
G3 X17.047 Y-24.935 I-0.767 J-1.384
G1 X16.443 Y-24.953
X15.84 Y-24.974
X13.425 Y-25.072
X13.096 Y-25.101
X12.79 Y-25.154
X12.454 Y-25.24
X12.068 Y-25.373
X11.677 Y-25.544
X11.223 Y-25.787
X10.772 Y-26.077
X10.278 Y-26.455
X9.756 Y-26.925
X9.255 Y-27.455
X8.741 Y-28.094
X8.244 Y-28.827
X7.805 Y-29.597
X7.425 Y-30.398
X7.1 Y-31.222
X6.832 Y-32.067
X6.622 Y-32.928
X6.469 Y-33.801
X6.372 Y-34.681
X6.329 Y-35.566
X6.341 Y-36.452
X6.406 Y-37.336
X6.526 Y-38.214
X6.701 Y-39.083
X6.928 Y-39.939
X7.206 Y-40.781
X7.533 Y-41.604
X7.91 Y-42.406
X8.333 Y-43.185
X8.805 Y-43.935
X9.321 Y-44.655
X9.879 Y-45.343
X10.199 Y-45.692
X10.418 Y-45.886
X10.671 Y-46.03
X10.95 Y-46.119
X11.24 Y-46.147
X14.473 Y-46.127
X14.506
G3 X15.063 Y-45.653 I-0.03 J0.599
G1 X15.083 Y-45.561 Z-6.993
X15.102 Y-45.472 Z-6.971
X15.12 Y-45.387 Z-6.935
X15.137 Y-45.308 Z-6.885
X15.152 Y-45.238 Z-6.824
X15.165 Y-45.179 Z-6.753
X15.175 Y-45.13 Z-6.672
X15.183 Y-45.095 Z-6.585
X15.187 Y-45.074 Z-6.494
X15.189 Y-45.067 Z-6.4
Z-5.8
X25.42 Y-45.328
Z-6.4
X25.426 Y-45.332 Z-6.494
X25.445 Y-45.342 Z-6.585
X25.477 Y-45.36 Z-6.672
X25.52 Y-45.383 Z-6.753
X25.574 Y-45.413 Z-6.824
X25.636 Y-45.447 Z-6.885
X25.707 Y-45.486 Z-6.935
X25.783 Y-45.528 Z-6.971
X25.863 Y-45.572 Z-6.993
X25.945 Y-45.618 Z-7
G3 X26.706 Y-45.814 I0.763 J1.386
G1 X27.913 Y-45.773
X28.517 Y-45.748
X29.724 Y-45.693
X30.118 Y-45.655
X30.401 Y-45.604
X30.719 Y-45.521
X31.048 Y-45.405
X31.436 Y-45.234
X31.817 Y-45.026
X32.262 Y-44.736
X32.696 Y-44.4
X33.173 Y-43.966
X33.671 Y-43.434
X34.148 Y-42.833
X34.625 Y-42.123
X35.058 Y-41.35
X35.431 Y-40.546
X35.747 Y-39.718
X36.009 Y-38.871
X36.216 Y-38.01
X36.37 Y-37.137
X36.471 Y-36.257
X36.518 Y-35.372
X36.514 Y-34.486
X36.459 Y-33.602
X36.353 Y-32.722
X36.199 Y-31.849
X35.995 Y-30.987
X35.741 Y-30.138
X35.44 Y-29.305
X35.092 Y-28.49
X34.698 Y-27.696
X34.262 Y-26.925
X33.783 Y-26.179
X33.264 Y-25.461
X33.007 Y-25.147
X32.785 Y-24.928
X32.519 Y-24.765
X32.224 Y-24.664
X31.914 Y-24.631
X31.133 Y-24.636
X30.529 Y-24.642
X28.899 Y-24.664
G3 X28.341 Y-25.136 I0.029 J-0.599
G1 X28.321 Y-25.228 Z-6.993
X28.302 Y-25.317 Z-6.971
X28.284 Y-25.402 Z-6.935
X28.267 Y-25.481 Z-6.885
X28.251 Y-25.551 Z-6.824
X28.239 Y-25.61 Z-6.753
X28.228 Y-25.659 Z-6.672
X28.22 Y-25.694 Z-6.585
X28.216 Y-25.715 Z-6.494
X28.214 Y-25.722 Z-6.4
Z-5.8
X14.715 Y-25.548
Z-6.4
X14.708 Y-25.544 Z-6.494
X14.689 Y-25.534 Z-6.585
X14.657 Y-25.517 Z-6.672
X14.614 Y-25.493 Z-6.753
X14.56 Y-25.464 Z-6.824
X14.497 Y-25.43 Z-6.885
X14.426 Y-25.392 Z-6.935
X14.35 Y-25.351 Z-6.971
X14.269 Y-25.307 Z-6.993
X14.187 Y-25.262 Z-7
G3 X13.425 Y-25.072 I-0.753 J-1.392
G1 X10.608 Y-25.185
X10.335 Y-25.21
X10.06 Y-25.257
X9.776 Y-25.33
X9.456 Y-25.44
X9.103 Y-25.594
X8.736 Y-25.791
X8.323 Y-26.057
X7.908 Y-26.375
X7.46 Y-26.778
X6.985 Y-27.28
X6.526 Y-27.851
X6.061 Y-28.537
X5.623 Y-29.307
X5.246 Y-30.109
X4.927 Y-30.936
X4.663 Y-31.782
X4.451 Y-32.642
X4.292 Y-33.514
X4.184 Y-34.393
X4.127 Y-35.278
X4.118 Y-36.164
X4.158 Y-37.049
X4.245 Y-37.931
X4.378 Y-38.807
X4.558 Y-39.675
X4.784 Y-40.531
X5.056 Y-41.375
X5.372 Y-42.203
X5.731 Y-43.013
X6.132 Y-43.803
X6.574 Y-44.571
X7.054 Y-45.316
X7.262 Y-45.597
X7.485 Y-45.834
X7.756 Y-46.014
X8.062 Y-46.126
X8.385 Y-46.164
X11.24 Y-46.147
G3 X11.801 Y-45.679 I-0.025 J0.599
G1 X11.822 Y-45.588 Z-6.993
X11.842 Y-45.498 Z-6.971
X11.861 Y-45.413 Z-6.935
X11.878 Y-45.335 Z-6.885
X11.894 Y-45.265 Z-6.824
X11.908 Y-45.206 Z-6.753
X11.918 Y-45.158 Z-6.672
X11.926 Y-45.122 Z-6.585
X11.931 Y-45.101 Z-6.494
X11.933 Y-45.094 Z-6.4
Z-5.8
X28.432 Y-45.223
Z-6.4
X28.439 Y-45.227 Z-6.494
X28.458 Y-45.237 Z-6.585
X28.49 Y-45.254 Z-6.672
X28.533 Y-45.277 Z-6.753
X28.587 Y-45.306 Z-6.824
X28.65 Y-45.34 Z-6.885
X28.721 Y-45.378 Z-6.935
X28.798 Y-45.419 Z-6.971
X28.879 Y-45.462 Z-6.993
X28.961 Y-45.506 Z-7
G3 X29.724 Y-45.693 I0.745 J1.396
G1 X32.541 Y-45.563
X32.735 Y-45.544
X32.999 Y-45.497
X33.269 Y-45.426
X33.588 Y-45.315
X33.91 Y-45.172
X34.275 Y-44.973
X34.654 Y-44.726
X35.067 Y-44.407
X35.483 Y-44.028
X35.936 Y-43.544
X36.379 Y-42.985
X36.824 Y-42.323
X37.257 Y-41.55
X37.628 Y-40.745
X37.941 Y-39.916
X38.2 Y-39.069
X38.407 Y-38.207
X38.564 Y-37.335
X38.671 Y-36.455
X38.729 Y-35.571
X38.74 Y-34.685
X38.705 Y-33.8
X38.625 Y-32.917
X38.501 Y-32.04
X38.333 Y-31.17
X38.123 Y-30.309
X37.869 Y-29.46
X37.572 Y-28.625
X37.233 Y-27.806
X36.855 Y-27.005
X36.439 Y-26.223
X35.984 Y-25.462
X35.813 Y-25.215
X35.638 Y-25.009
X35.426 Y-24.84
X35.185 Y-24.715
X34.925 Y-24.639
X34.655 Y-24.614
X31.914 Y-24.631
G3 X31.339 Y-25.249 I0.025 J-0.599
G1 X31.935 Y-44.981
G3 X32.541 Y-45.563 I0.6 J0.018
G1 X34.956 Y-45.452
X35.209 Y-45.428
X35.44 Y-45.386
X35.71 Y-45.316
X35.998 Y-45.215
X36.307 Y-45.077
X36.654 Y-44.889
X37.002 Y-44.662
X37.398 Y-44.356
X37.785 Y-44.003
X38.203 Y-43.555
X38.639 Y-43.007
X39.058 Y-42.382
X39.48 Y-41.629
X39.85 Y-40.823
X40.16 Y-39.993
X40.416 Y-39.145
X40.621 Y-38.283
X40.777 Y-37.41
X40.887 Y-36.531
X40.952 Y-35.647
X40.972 Y-34.762
X40.95 Y-33.876
X40.886 Y-32.992
X40.782 Y-32.112
X40.638 Y-31.238
X40.455 Y-30.371
X40.233 Y-29.513
X39.974 Y-28.665
X39.677 Y-27.83
X39.343 Y-27.01
X38.972 Y-26.205
X38.601 Y-25.496
X38.447 Y-25.252
X38.273 Y-25.029
X38.057 Y-24.846
X37.809 Y-24.71
X37.539 Y-24.626
X37.257 Y-24.599
X34.655 Y-24.614
G3 X34.08 Y-25.222 I0.025 J-0.599
G1 X34.35 Y-44.86
G3 X34.956 Y-45.452 I0.6 J0.008
G1 X35.157 Y-45.443
X35.492 Y-45.424
X37.371 Y-45.317
X37.625 Y-45.289
X37.858 Y-45.245
X38.126 Y-45.172
X38.396 Y-45.073
X38.712 Y-44.929
X39.028 Y-44.753
X39.384 Y-44.514
X39.747 Y-44.227
X40.142 Y-43.859
X40.532 Y-43.433
X40.949 Y-42.895
X41.369 Y-42.254
X41.773 Y-41.513
X42.134 Y-40.703
X42.434 Y-39.87
X42.68 Y-39.018
X42.875 Y-38.154
X43.024 Y-37.281
X43.128 Y-36.401
X43.19 Y-35.517
X43.211 Y-34.631
X43.193 Y-33.745
X43.136 Y-32.86
X43.04 Y-31.979
X42.908 Y-31.103
X42.74 Y-30.233
X42.537 Y-29.371
X42.299 Y-28.517
X42.026 Y-27.674
X41.72 Y-26.842
X41.379 Y-26.025
X41.088 Y-25.446
X40.983 Y-25.274
X40.81 Y-25.046
X40.595 Y-24.858
X40.346 Y-24.717
X40.074 Y-24.631
X39.79 Y-24.601
X37.975 Y-24.597
X37.257 Y-24.599
G3 X36.681 Y-25.201 I0.023 J-0.6
G1 X36.757 Y-44.719
G3 X37.371 Y-45.317 I0.6 J0.002
G1 X39.786 Y-45.178
X39.957 Y-45.16
X40.106 Y-45.142
X40.254 Y-45.117
X40.4 Y-45.084
X40.545 Y-45.044
X40.688 Y-44.997
X40.828 Y-44.945
X40.966 Y-44.886
X41.102 Y-44.823
X41.236 Y-44.755
X41.367 Y-44.682
X41.496 Y-44.605
X41.622 Y-44.524
X41.746 Y-44.439
X41.867 Y-44.351
X41.986 Y-44.26
X42.102 Y-44.165
X42.216 Y-44.067
X42.328 Y-43.967
X42.436 Y-43.864
X42.543 Y-43.758
X42.647 Y-43.65
X42.749 Y-43.541
X42.849 Y-43.428
X42.946 Y-43.314
X43.041 Y-43.198
X43.134 Y-43.08
X43.224 Y-42.96
X43.313 Y-42.839
X43.399 Y-42.716
X43.483 Y-42.592
X43.565 Y-42.467
X43.645 Y-42.34
X43.723 Y-42.211
X43.799 Y-42.082
X43.873 Y-41.952
X43.945 Y-41.82
X44.015 Y-41.688
X44.084 Y-41.554
X44.15 Y-41.42
X44.215 Y-41.284
X44.278 Y-41.148
X44.339 Y-41.011
X44.399 Y-40.874
X44.456 Y-40.735
X44.513 Y-40.596
X44.567 Y-40.456
X44.62 Y-40.316
X44.671 Y-40.175
X44.721 Y-40.034
X44.769 Y-39.892
X44.816 Y-39.749
X44.861 Y-39.606
X44.904 Y-39.462
X44.947 Y-39.318
X44.987 Y-39.174
X45.026 Y-39.029
X45.064 Y-38.884
X45.1 Y-38.739
X45.135 Y-38.593
X45.169 Y-38.446
X45.202 Y-38.3
X45.233 Y-38.153
X45.262 Y-38.006
X45.29 Y-37.859
X45.317 Y-37.711
X45.343 Y-37.564
X45.368 Y-37.416
X45.391 Y-37.267
X45.413 Y-37.119
X45.434 Y-36.97
X45.453 Y-36.822
X45.471 Y-36.673
X45.489 Y-36.523
X45.505 Y-36.374
X45.519 Y-36.225
X45.533 Y-36.076
X45.545 Y-35.926
X45.557 Y-35.773
X45.568 Y-35.612
X45.577 Y-35.462
X45.584 Y-35.312
X45.591 Y-35.162
X45.596 Y-35.013
X45.601 Y-34.856
X45.604 Y-34.69
X45.607 Y-34.529
X45.608 Y-34.379
X45.607 Y-34.229
X45.606 Y-34.077
X45.601 Y-33.832
X45.597 Y-33.657
X45.591 Y-33.501
X45.585 Y-33.351
X45.577 Y-33.2
X45.568 Y-33.041
X45.557 Y-32.872
X45.544 Y-32.693
X45.531 Y-32.529
X45.518 Y-32.379
X45.504 Y-32.225
X45.487 Y-32.062
X45.468 Y-31.889
X45.447 Y-31.705
X45.426 Y-31.54
X45.407 Y-31.39
X45.385 Y-31.233
X45.36 Y-31.066
X45.333 Y-30.888
X45.303 Y-30.699
X45.276 Y-30.54
X45.249 Y-30.388
X45.219 Y-30.226
X45.186 Y-30.055
X45.15 Y-29.873
X45.111 Y-29.684
X45.078 Y-29.532
X45.044 Y-29.377
X45.006 Y-29.212
X44.964 Y-29.037
X44.918 Y-28.85
X44.873 Y-28.672
X44.835 Y-28.525
X44.793 Y-28.37
X44.748 Y-28.207
X44.698 Y-28.033
X44.644 Y-27.847
X44.595 Y-27.685
X44.551 Y-27.542
X44.506 Y-27.399
X44.459 Y-27.256
X44.411 Y-27.114
X44.362 Y-26.97
X44.312 Y-26.828
X44.261 Y-26.687
X44.208 Y-26.547
X44.154 Y-26.407
X44.098 Y-26.268
X44.041 Y-26.129
X43.981 Y-25.992
X43.919 Y-25.855
X43.856 Y-25.719
X43.79 Y-25.584
X43.72 Y-25.451
X43.644 Y-25.312
X43.473 Y-25.074
X43.256 Y-24.877
X43.002 Y-24.729
X42.723 Y-24.638
X42.432 Y-24.606
X39.79 Y-24.601
G3 X39.209 Y-25.199 I0.02 J-0.6
G1 X39.172 Y-44.577
G3 X39.786 Y-45.178 I0.6 J-0.001
G1 X41.999 Y-45.051
X42.2 Y-45.039
X42.403 Y-45.016
X42.629 Y-44.973
X42.878 Y-44.903
X43.148 Y-44.804
X43.441 Y-44.669
X43.755 Y-44.493
X44.09 Y-44.267
X44.444 Y-43.985
X44.816 Y-43.636
X45.203 Y-43.21
X45.601 Y-42.694
X46.006 Y-42.071
X46.409 Y-41.327
X46.767 Y-40.516
X47.065 Y-39.682
X47.309 Y-38.83
X47.504 Y-37.965
X47.654 Y-37.092
X47.762 Y-36.213
X47.83 Y-35.329
X47.838 Y-35.108
X47.88 Y-34.89
X47.957 Y-34.682
X48.173 Y-34.296
X48.809 Y-33.679
X49.549 Y-33.192
X50.326 Y-32.766
X51.112 Y-32.356
X51.73 Y-31.99
X52.3 Y-31.587
X52.619 Y-31.32
X52.991 Y-30.955
X53.248 Y-30.659
X53.481 Y-30.341
X53.714 Y-29.964
X53.853 Y-29.692
X53.996 Y-29.347
X54.111 Y-28.99
X54.178 Y-28.707
X54.232 Y-28.356
X54.257 Y-28.013
X54.254 Y-27.736
X54.224 Y-27.401
X54.167 Y-27.07
X54.102 Y-26.815
X53.999 Y-26.512
X53.863 Y-26.202
X53.745 Y-25.98
X53.581 Y-25.725
X53.369 Y-25.447
X53.209 Y-25.269
X52.999 Y-25.07
X52.892 Y-24.984
X52.63 Y-24.817
X52.338 Y-24.712
X52.029 Y-24.675
X50.652 Y-24.661
X50.048 Y-24.656
X49.846 Y-24.664
X48.966 Y-24.773
X48.301 Y-24.66
X48.227 Y-24.65
X48.153 Y-24.643
X48.078 Y-24.64
G3 X47.494 Y-25.256 I0.016 J-0.6
X48.11 Y-25.84 I0.6 J0.016
X50.163 Y-24.95 I-0.081 J2.999
X50.048 Y-24.656 I-0.123 J0.121
G1 X44.615 Y-24.613
X43.81 Y-24.609
X42.432 Y-24.606
G3 X41.851 Y-25.198 I0.02 J-0.6
G1 X41.585 Y-44.431
G3 X42.2 Y-45.039 I0.6 J-0.008
G1 X42.603 Y-45.014
X44.414 Y-44.892
X44.714 Y-44.856
X44.945 Y-44.81
X45.192 Y-44.739
X45.458 Y-44.64
X45.762 Y-44.497
X46.062 Y-44.325
X46.411 Y-44.087
X46.75 Y-43.812
X47.134 Y-43.447
X47.504 Y-43.034
X47.902 Y-42.51
X48.307 Y-41.876
X48.699 Y-41.14
X49.051 Y-40.327
X49.343 Y-39.49
X49.581 Y-38.636
X49.79 Y-37.775
X50.199 Y-36.989
X50.741 Y-36.288
X51.358 Y-35.652
X52.011 Y-35.053
X52.676 Y-34.468
X53.33 Y-33.87
X53.956 Y-33.242
X54.487 Y-32.632
X54.923 Y-32.04
X55.268 Y-31.484
X55.548 Y-30.94
X55.775 Y-30.395
X55.948 Y-29.864
X56.074 Y-29.335
X56.154 Y-28.815
X56.192 Y-28.31
X56.188 Y-27.807
X56.146 Y-27.322
X56.066 Y-26.849
X55.947 Y-26.38
X55.796 Y-25.938
X55.612 Y-25.514
X55.574 Y-25.442
X55.406 Y-25.194
X55.189 Y-24.988
X54.933 Y-24.832
X54.65 Y-24.735
X54.353 Y-24.699
X52.029 Y-24.675
G3 X51.487 Y-25.051 I0.015 J-0.6
G1 X51.455 Y-25.131
X43.837 Y-44.068
G3 X44.414 Y-44.892 I0.557 J-0.224
G1 X46.828 Y-44.728
X46.992 Y-44.709
X47.218 Y-44.663
X47.47 Y-44.591
X47.731 Y-44.494
X48.035 Y-44.351
X48.335 Y-44.179
X48.678 Y-43.945
X49.019 Y-43.668
X49.397 Y-43.309
X49.766 Y-42.897
X50.164 Y-42.373
X50.561 Y-41.753
X50.977 Y-40.97
X51.354 Y-40.169
X51.796 Y-39.4
X52.302 Y-38.673
X52.858 Y-37.983
X53.444 Y-37.319
X54.645 Y-36.016
X55.234 Y-35.353
X55.798 Y-34.67
X56.326 Y-33.958
X56.809 Y-33.215
X57.238 Y-32.44
X57.58 Y-31.684
X57.843 Y-30.951
X58.039 Y-30.227
X58.173 Y-29.512
X58.246 Y-28.808
X58.263 Y-28.114
X58.224 Y-27.435
X58.138 Y-26.807
X58.023 Y-26.289
X57.896 Y-25.874
X57.789 Y-25.606
X57.663 Y-25.361
X57.491 Y-25.146
X57.281 Y-24.968
X57.04 Y-24.836
X56.777 Y-24.753
X56.503 Y-24.723
X54.353 Y-24.699
G3 X53.811 Y-25.076 I0.015 J-0.6
G1 X53.779 Y-25.156
X46.252 Y-43.905
G3 X46.828 Y-44.728 I0.557 J-0.224
G1 X49.042 Y-44.578
X49.269 Y-44.551
X49.495 Y-44.506
X49.744 Y-44.435
X50.005 Y-44.337
X50.307 Y-44.195
X50.604 Y-44.025
X50.947 Y-43.79
X51.309 Y-43.498
X51.78 Y-43.049
X52.371 Y-42.389
X53.491 Y-41.015
X54.06 Y-40.336
X54.639 Y-39.665
X55.807 Y-38.332
X56.385 Y-37.661
X56.948 Y-36.976
X57.489 Y-36.275
X58.002 Y-35.552
X58.481 Y-34.806
X58.919 Y-34.036
X59.311 Y-33.242
X59.651 Y-32.423
X59.933 Y-31.583
X60.154 Y-30.725
X60.308 Y-29.852
X60.393 Y-28.979
X60.407 Y-28.147
X60.359 Y-27.383
X60.268 Y-26.759
X60.158 Y-26.274
X60.023 Y-25.845
X59.932 Y-25.62
X59.805 Y-25.378
X59.633 Y-25.165
X59.423 Y-24.989
X59.183 Y-24.858
X58.922 Y-24.776
X58.65 Y-24.746
X56.503 Y-24.723
G3 X55.961 Y-25.099 I0.015 J-0.6
G1 X55.929 Y-25.179
X48.466 Y-43.755
G3 X49.042 Y-44.578 I0.557 J-0.224
G1 X49.243 Y-44.564
X49.847 Y-44.519
X51.457 Y-44.394
X51.643 Y-44.37
X51.895 Y-44.316
X52.192 Y-44.228
X52.545 Y-44.092
X52.968 Y-43.888
X53.508 Y-43.572
X54.235 Y-43.064
X54.918 Y-42.5
X55.572 Y-41.902
X56.206 Y-41.283
X56.822 Y-40.646
X57.423 Y-39.995
X58.007 Y-39.328
X58.57 Y-38.644
X59.111 Y-37.943
X59.627 Y-37.222
X60.113 Y-36.481
X60.568 Y-35.72
X60.986 Y-34.939
X61.362 Y-34.137
X61.694 Y-33.315
X61.977 Y-32.475
X62.209 Y-31.62
X62.39 Y-30.753
X62.515 Y-29.876
X62.581 Y-28.992
X62.582 Y-28.123
X62.52 Y-27.338
X62.42 Y-26.716
X62.302 Y-26.232
X62.162 Y-25.813
X62.082 Y-25.624
X61.922 Y-25.343
X61.702 Y-25.105
X61.433 Y-24.925
X61.13 Y-24.811
X60.809 Y-24.77
X58.65 Y-24.746
G3 X58.106 Y-25.127 I0.014 J-0.6
G1 X58.076 Y-25.202
X50.872 Y-43.575
G3 X51.457 Y-44.394 I0.559 J-0.219
G1 X54.274 Y-44.174
X54.602 Y-44.132
X54.751 Y-44.111
X54.899 Y-44.085
X55.045 Y-44.054
X55.191 Y-44.017
X55.335 Y-43.976
X55.478 Y-43.93
X55.62 Y-43.881
X55.76 Y-43.828
X55.899 Y-43.771
X56.036 Y-43.712
X56.173 Y-43.649
X56.308 Y-43.583
X56.441 Y-43.515
X56.573 Y-43.444
X56.704 Y-43.37
X56.834 Y-43.295
X56.962 Y-43.217
X57.089 Y-43.138
X57.215 Y-43.056
X57.34 Y-42.973
X57.463 Y-42.887
X57.585 Y-42.8
X57.707 Y-42.712
X57.827 Y-42.622
X57.946 Y-42.531
X58.064 Y-42.438
X58.18 Y-42.344
X58.296 Y-42.249
X58.411 Y-42.152
X58.525 Y-42.055
X58.638 Y-41.956
X58.75 Y-41.856
X58.861 Y-41.755
X58.971 Y-41.653
X59.08 Y-41.55
X59.188 Y-41.446
X59.295 Y-41.341
X59.402 Y-41.236
X59.507 Y-41.129
X59.612 Y-41.021
X59.715 Y-40.913
X59.818 Y-40.804
X59.92 Y-40.694
X60.021 Y-40.583
X60.121 Y-40.471
X60.221 Y-40.359
X60.325 Y-40.24
X60.432 Y-40.115
X60.528 Y-40
X60.624 Y-39.885
X60.719 Y-39.769
X60.815 Y-39.65
X60.915 Y-39.524
X61.02 Y-39.39
X61.112 Y-39.27
X61.203 Y-39.15
X61.293 Y-39.03
X61.382 Y-38.908
X61.475 Y-38.779
X61.573 Y-38.641
X61.669 Y-38.504
X61.754 Y-38.381
X61.838 Y-38.256
X61.921 Y-38.131
X62.005 Y-38.004
X62.092 Y-37.869
X62.183 Y-37.725
X62.262 Y-37.598
X62.34 Y-37.47
X62.418 Y-37.341
X62.494 Y-37.212
X62.569 Y-37.082
X62.647 Y-36.945
X62.727 Y-36.802
X62.799 Y-36.671
X62.871 Y-36.539
X62.941 Y-36.406
X63.01 Y-36.273
X63.077 Y-36.139
X63.147 Y-36
X63.214 Y-35.862
X63.279 Y-35.726
X63.343 Y-35.591
X63.405 Y-35.454
X63.467 Y-35.317
X63.527 Y-35.18
X63.587 Y-35.039
X63.645 Y-34.901
X63.702 Y-34.762
X63.758 Y-34.623
X63.813 Y-34.483
X63.866 Y-34.343
X63.918 Y-34.202
X63.969 Y-34.061
X64.019 Y-33.92
X64.068 Y-33.778
X64.115 Y-33.636
X64.162 Y-33.493
X64.206 Y-33.35
X64.25 Y-33.207
X64.293 Y-33.063
X64.334 Y-32.919
X64.374 Y-32.774
X64.413 Y-32.629
X64.45 Y-32.484
X64.487 Y-32.338
X64.521 Y-32.192
X64.555 Y-32.046
X64.587 Y-31.9
X64.618 Y-31.753
X64.648 Y-31.606
X64.676 Y-31.459
X64.703 Y-31.311
X64.728 Y-31.163
X64.752 Y-31.015
X64.775 Y-30.867
X64.796 Y-30.718
X64.816 Y-30.57
X64.834 Y-30.421
X64.85 Y-30.272
X64.865 Y-30.122
X64.879 Y-29.973
X64.891 Y-29.823
X64.902 Y-29.674
X64.911 Y-29.524
X64.918 Y-29.374
X64.923 Y-29.224
X64.927 Y-29.074
X64.929 Y-28.924
X64.93 Y-28.774
X64.928 Y-28.624
X64.925 Y-28.474
X64.92 Y-28.325
X64.913 Y-28.175
X64.904 Y-28.025
X64.892 Y-27.875
X64.879 Y-27.726
X64.864 Y-27.577
X64.846 Y-27.428
X64.826 Y-27.279
X64.804 Y-27.131
X64.779 Y-26.983
X64.751 Y-26.835
X64.721 Y-26.689
X64.687 Y-26.542
X64.651 Y-26.397
X64.611 Y-26.252
X64.568 Y-26.109
X64.52 Y-25.966
X64.469 Y-25.825
X64.415 Y-25.685
X64.401 Y-25.653
X64.242 Y-25.37
X64.021 Y-25.132
X63.752 Y-24.951
X63.448 Y-24.837
X63.126 Y-24.796
X60.809 Y-24.77
G3 X60.259 Y-25.166 I0.014 J-0.6
G1 X60.237 Y-25.227
X53.684 Y-43.371
G3 X54.274 Y-44.174 I0.564 J-0.204
G1 X55.884 Y-44.048
X56.085 Y-44.032
X56.89 Y-43.961
X57.695 Y-43.89
X58.088 Y-43.835
X58.43 Y-43.758
X58.817 Y-43.639
X59.255 Y-43.464
X59.75 Y-43.219
X60.308 Y-42.883
X60.936 Y-42.434
X61.613 Y-41.862
X62.244 Y-41.24
X62.833 Y-40.578
X63.383 Y-39.883
X63.898 Y-39.162
X64.376 Y-38.416
X64.598 Y-38.032
X64.704 Y-37.838
X65.123 Y-37.057
X65.219 Y-36.857
X65.345 Y-36.675
X65.498 Y-36.515
X65.675 Y-36.381
X66.456 Y-35.964
X67.327 Y-35.797
X68.205 Y-35.679
X69.087 Y-35.596
X69.971 Y-35.537
X70.856 Y-35.496
X71.742 Y-35.467
X72.628 Y-35.447
X73.514 Y-35.433
X74.4 Y-35.423
X75.286 Y-35.416
X76.172 Y-35.411
X77.058 Y-35.408
X78.831 Y-35.404
X81.489 Y-35.401
X84.092 Y-35.4
X84.228 Y-35.335
X84.352 Y-35.251
X84.474 Y-35.151
X84.612 Y-35.017
X84.765 Y-34.842
X84.933 Y-34.616
X85.114 Y-34.326
X85.307 Y-33.953
X85.512 Y-33.468
X85.725 Y-32.818
X85.934 Y-31.957
X86.077 Y-31.082
X86.089 Y-30.972
X86.039 Y-30.831
X85.962 Y-30.702
X85.871 Y-30.582
X85.753 Y-30.452
X85.597 Y-30.305
X85.395 Y-30.143
X85.136 Y-29.968
X84.803 Y-29.78
X84.372 Y-29.58
X83.804 Y-29.371
X83.023 Y-29.152
X82.154 Y-28.982
X81.275 Y-28.865
X80.393 Y-28.785
X79.509 Y-28.729
X78.623 Y-28.69
X77.738 Y-28.663
X76.852 Y-28.644
X75.966 Y-28.63
X75.08 Y-28.621
X74.194 Y-28.615
X73.307 Y-28.61
X71.535 Y-28.605
X70.649 Y-28.604
X70.213 Y-28.523
X69.406 Y-28.157
X68.739 Y-27.574
X68.175 Y-26.89
X67.669 Y-26.163
X67.169 Y-25.432
X67.118 Y-25.367
X66.899 Y-25.143
X66.635 Y-24.973
X66.34 Y-24.866
X66.028 Y-24.827
X63.126 Y-24.796
G3 X62.567 Y-25.22 I0.014 J-0.6
G1 X62.557 Y-25.254
X57.088 Y-43.115
G3 X57.695 Y-43.89 I0.574 J-0.176
G1 X60.914 Y-43.602
X61.219 Y-43.56
X61.534 Y-43.489
X61.873 Y-43.385
X62.271 Y-43.226
X62.689 Y-43.018
X63.171 Y-42.729
X63.703 Y-42.348
X64.273 Y-41.866
X64.898 Y-41.247
X65.474 Y-40.574
X66.057 Y-39.906
X66.769 Y-39.379
X67.556 Y-38.972
X68.387 Y-38.665
X69.243 Y-38.435
X70.112 Y-38.264
X70.99 Y-38.138
X71.871 Y-38.045
X72.754 Y-37.978
X73.639 Y-37.929
X74.525 Y-37.893
X75.41 Y-37.867
X76.296 Y-37.848
X77.182 Y-37.835
X78.068 Y-37.825
X78.954 Y-37.818
X79.841 Y-37.813
X80.727 Y-37.809
X81.613 Y-37.807
X82.389 Y-37.795
X82.903 Y-37.746
X83.336 Y-37.67
X83.735 Y-37.565
X84.112 Y-37.434
X84.474 Y-37.274
X84.826 Y-37.083
X85.172 Y-36.858
X85.519 Y-36.59
X85.866 Y-36.274
X86.195 Y-35.923
X86.534 Y-35.497
X86.871 Y-34.996
X87.191 Y-34.427
X87.507 Y-33.741
X87.696 Y-33.226
X87.803 Y-32.838
X87.871 Y-32.488
X87.905 Y-32.175
X87.914 Y-31.871
X87.899 Y-31.578
X87.861 Y-31.288
X87.799 Y-30.997
X87.711 Y-30.704
X87.597 Y-30.413
X87.453 Y-30.117
X87.273 Y-29.811
X87.059 Y-29.506
X86.807 Y-29.203
X86.493 Y-28.882
X86.144 Y-28.578
X85.707 Y-28.255
X85.208 Y-27.945
X84.614 Y-27.639
X83.884 Y-27.334
X83.041 Y-27.06
X82.181 Y-26.848
X81.31 Y-26.686
X80.432 Y-26.563
X79.551 Y-26.47
X78.667 Y-26.4
X77.783 Y-26.348
X76.898 Y-26.309
X76.012 Y-26.28
X75.126 Y-26.259
X74.24 Y-26.243
X73.354 Y-26.232
X72.484 Y-26.065
X71.674 Y-25.704
X70.932 Y-25.22
X70.846 Y-25.154
X70.59 Y-25
X70.308 Y-24.903
X70.011 Y-24.868
X66.028 Y-24.827
G3 X65.467 Y-25.258 I0.015 J-0.6
G1 X65.459 Y-25.286
X60.306 Y-42.834
G3 X60.914 Y-43.602 I0.576 J-0.169
G1 X62.122 Y-43.494
X62.725 Y-43.438
X63.933 Y-43.314
X64.192 Y-43.274
X64.473 Y-43.208
X64.806 Y-43.1
X65.213 Y-42.931
X66.001 Y-42.527
X66.784 Y-42.112
X67.588 Y-41.739
X68.414 Y-41.419
X69.26 Y-41.153
X70.119 Y-40.939
X70.989 Y-40.769
X71.865 Y-40.635
X72.745 Y-40.53
X73.627 Y-40.45
X74.511 Y-40.388
X75.396 Y-40.341
X76.282 Y-40.306
X77.167 Y-40.279
X78.053 Y-40.259
X78.939 Y-40.244
X79.825 Y-40.231
X80.711 Y-40.213
X81.596 Y-40.166
X82.477 Y-40.07
X83.262 Y-39.921
X83.963 Y-39.728
X84.605 Y-39.495
X85.213 Y-39.217
X85.792 Y-38.893
X86.351 Y-38.519
X86.893 Y-38.091
X87.41 Y-37.608
X87.899 Y-37.073
X88.374 Y-36.461
X88.786 Y-35.831
X89.111 Y-35.235
X89.367 Y-34.661
X89.564 Y-34.101
X89.706 Y-33.562
X89.8 Y-33.041
X89.85 Y-32.53
X89.859 Y-32.025
X89.827 Y-31.526
X89.756 Y-31.029
X89.643 Y-30.536
X89.49 Y-30.047
X89.292 Y-29.558
X89.05 Y-29.077
X88.765 Y-28.606
X88.427 Y-28.138
X88.029 Y-27.672
X87.563 Y-27.207
X87.026 Y-26.75
X86.436 Y-26.326
X85.735 Y-25.902
X84.943 Y-25.506
X84.121 Y-25.173
X83.728 Y-25.044
X83.587 Y-25.006
X83.444 Y-24.982
X83.299 Y-24.974
X81.238 Y-24.962
X72.988 Y-24.896
X70.011 Y-24.868
G3 X69.461 Y-25.267 I0.015 J-0.6
G1 X69.439 Y-25.326
X63.327 Y-42.514
G3 X63.933 Y-43.314 I0.565 J-0.201
G1 X68.158 Y-42.881
X68.781 Y-42.813
X73.994 Y-42.199
X74.195 Y-42.174
X74.799 Y-42.096
X80.031 Y-41.392
X80.232 Y-41.364
X85.464 Y-40.582
X85.995 Y-40.475
X86.407 Y-40.356
X86.848 Y-40.191
X87.332 Y-39.963
X87.807 Y-39.69
X88.322 Y-39.338
X88.853 Y-38.907
X89.363 Y-38.421
X89.845 Y-37.882
X90.292 Y-37.291
X90.694 Y-36.662
X91.041 Y-36.008
X91.329 Y-35.342
X91.558 Y-34.667
X91.729 Y-33.988
X91.844 Y-33.306
X91.903 Y-32.622
X91.907 Y-31.938
X91.856 Y-31.255
X91.75 Y-30.576
X91.589 Y-29.902
X91.371 Y-29.235
X91.097 Y-28.579
X90.765 Y-27.935
X90.369 Y-27.298
X89.904 Y-26.67
X89.371 Y-26.058
X88.757 Y-25.459
X88.591 Y-25.321
X88.323 Y-25.146
X88.022 Y-25.037
X87.704 Y-24.998
X83.299 Y-24.974
G3 X82.722 Y-25.659 I0.018 J-0.6
G1 X84.802 Y-40.071
G3 X85.464 Y-40.582 I0.594 J0.086
G1 X86.067 Y-40.491
X86.47 Y-40.428
X88.885 Y-40.044
X89.236 Y-39.97
X89.51 Y-39.889
X89.83 Y-39.765
X90.149 Y-39.611
X90.515 Y-39.397
X90.871 Y-39.147
X91.266 Y-38.821
X91.651 Y-38.447
X92.036 Y-38.008
X92.421 Y-37.49
X92.785 Y-36.908
X93.109 Y-36.284
X93.393 Y-35.609
X93.631 Y-34.885
X93.816 Y-34.121
X93.942 Y-33.327
X94.004 Y-32.512
X94.002 Y-31.682
X93.931 Y-30.845
X93.792 Y-30.006
X93.583 Y-29.169
X93.303 Y-28.337
X92.954 Y-27.523
X92.541 Y-26.739
X92.07 Y-25.988
X91.769 Y-25.581
X91.546 Y-25.343
X91.275 Y-25.164
X90.97 Y-25.052
X90.647 Y-25.013
X89.488 Y-25.008
X87.704 Y-24.998
G3 X87.124 Y-25.645 I0.018 J-0.6
G1 X88.213 Y-39.496
G3 X88.885 Y-40.044 I0.598 J0.047
G1 X89.488 Y-39.947
X91.5 Y-39.618
X91.849 Y-39.543
X92.085 Y-39.472
X92.347 Y-39.369
X92.632 Y-39.23
X92.927 Y-39.056
X93.247 Y-38.83
X93.57 Y-38.561
X93.907 Y-38.231
X94.253 Y-37.833
X94.581 Y-37.388
X94.915 Y-36.85
X95.227 Y-36.241
X95.499 Y-35.589
X95.739 Y-34.85
X95.932 Y-34.039
X96.066 Y-33.17
X96.131 Y-32.286
X96.127 Y-31.4
X96.056 Y-30.517
X95.919 Y-29.641
X95.719 Y-28.778
X95.46 Y-27.931
X95.144 Y-27.103
X94.775 Y-26.297
X94.44 Y-25.695
X94.406 Y-25.644
X94.233 Y-25.432
X94.021 Y-25.258
X93.78 Y-25.128
X93.518 Y-25.048
X93.245 Y-25.021
X90.647 Y-25.013
G3 X90.067 Y-25.646 I0.019 J-0.6
G1 X90.825 Y-39.057
G3 X91.5 Y-39.618 I0.599 J0.034
G1 X92.507 Y-39.452
X93.915 Y-39.217
X94.207 Y-39.153
X94.429 Y-39.085
X94.677 Y-38.987
X94.929 Y-38.863
X95.217 Y-38.692
X95.498 Y-38.492
X95.812 Y-38.228
X96.113 Y-37.932
X96.44 Y-37.553
X96.751 Y-37.128
X97.063 Y-36.621
X97.371 Y-36.016
X97.635 Y-35.374
X97.875 Y-34.627
X98.071 Y-33.79
X98.203 Y-32.914
X98.267 Y-32.03
Y-31.144
X98.205 Y-30.26
X98.082 Y-29.382
X97.904 Y-28.514
X97.674 Y-27.659
X97.392 Y-26.819
X97.127 Y-26.176
X96.886 Y-25.703
X96.881 Y-25.694
X96.708 Y-25.469
X96.494 Y-25.283
X96.246 Y-25.144
X95.975 Y-25.058
X95.693 Y-25.028
X93.245 Y-25.021
G3 X92.665 Y-25.647 I0.019 J-0.6
G1 X93.237 Y-38.648
G3 X93.915 Y-39.217 I0.599 J0.026
G1 X95.927 Y-38.879
X96.239 Y-38.827
X96.449 Y-38.78
X96.671 Y-38.712
X96.899 Y-38.621
X97.15 Y-38.497
X97.421 Y-38.335
X97.698 Y-38.138
X97.995 Y-37.887
X98.292 Y-37.593
X98.604 Y-37.23
X98.912 Y-36.807
X99.215 Y-36.313
X99.518 Y-35.716
X99.781 Y-35.074
X100.018 Y-34.327
X100.215 Y-33.481
X100.345 Y-32.605
X100.41 Y-31.721
X100.413 Y-30.835
X100.359 Y-29.95
X100.25 Y-29.071
X100.089 Y-28.199
X99.878 Y-27.339
X99.645 Y-26.601
X99.431 Y-26.075
X99.296 Y-25.806
X99.129 Y-25.548
X98.909 Y-25.333
X98.647 Y-25.171
X98.356 Y-25.07
X98.05 Y-25.035
X95.693 Y-25.028
G3 X95.112 Y-25.649 I0.019 J-0.6
G1 X95.56 Y-38.253
G3 X96.239 Y-38.827 I0.6 J0.021
G1 X98.453 Y-38.45
X98.643 Y-38.408
X98.862 Y-38.34
X99.083 Y-38.252
X99.333 Y-38.129
X99.594 Y-37.972
X99.87 Y-37.775
X100.159 Y-37.531
X100.455 Y-37.238
X100.759 Y-36.884
X101.067 Y-36.462
X101.364 Y-35.976
X101.664 Y-35.383
X101.926 Y-34.742
X102.164 Y-33.992
X102.363 Y-33.135
X102.493 Y-32.258
X102.559 Y-31.374
X102.567 Y-30.488
X102.52 Y-29.603
X102.421 Y-28.723
X102.271 Y-27.849
X102.076 Y-27.034
X101.875 Y-26.417
X101.678 Y-25.946
X101.601 Y-25.796
X101.432 Y-25.541
X101.212 Y-25.329
X100.951 Y-25.17
X100.662 Y-25.071
X100.358 Y-25.038
X98.05 Y-25.035
G3 X97.469 Y-25.65 I0.019 J-0.6
G1 X97.773 Y-37.87
G3 X98.453 Y-38.45 I0.6 J0.015
G1 X100.153 Y-38.16
X100.556 Y-38.09
X100.819 Y-38.032
X101.036 Y-37.964
X101.254 Y-37.877
X101.505 Y-37.752
X101.761 Y-37.599
X102.037 Y-37.401
X102.321 Y-37.161
X102.617 Y-36.866
X102.917 Y-36.516
X103.224 Y-36.093
X103.519 Y-35.609
X103.817 Y-35.018
X104.081 Y-34.369
X104.32 Y-33.614
X104.518 Y-32.75
X104.648 Y-31.873
X104.715 Y-30.99
X104.726 Y-30.104
X104.684 Y-29.219
X104.589 Y-28.338
X104.437 Y-27.465
X104.261 Y-26.776
X104.087 Y-26.268
X103.894 Y-25.824
X103.87 Y-25.779
X103.7 Y-25.53
X103.48 Y-25.323
X103.221 Y-25.167
X102.935 Y-25.071
X102.634 Y-25.039
X100.958 Y-25.038
X100.358
G3 X99.778 Y-25.642 I0.02 J-0.6
G1 X99.875 Y-37.501
G3 X100.556 Y-38.09 I0.6 J0.005
G1 X102.769 Y-37.711
X102.975 Y-37.664
X103.192 Y-37.597
X103.409 Y-37.51
X103.659 Y-37.386
X103.914 Y-37.233
X104.19 Y-37.035
X104.474 Y-36.795
X104.769 Y-36.502
X105.069 Y-36.15
X105.376 Y-35.728
X105.672 Y-35.242
X105.971 Y-34.648
X106.237 Y-33.996
X106.479 Y-33.231
X106.677 Y-32.367
X106.807 Y-31.491
X106.877 Y-30.607
X106.883 Y-30.164
X106.879 Y-29.943
X106.855 Y-29.057
X106.772 Y-28.175
X106.632 Y-27.334
X106.477 Y-26.714
X106.316 Y-26.236
X106.132 Y-25.808
X106.119 Y-25.784
X105.949 Y-25.532
X105.729 Y-25.324
X105.469 Y-25.167
X105.182 Y-25.071
X104.881 Y-25.038
X102.634 Y-25.039
G3 X102.056 Y-25.64 I0.021 J-0.6
G1 X102.088 Y-37.118
G3 X102.769 Y-37.711 I0.6 J0.002
G1 X104.983 Y-37.329
X105.13 Y-37.296
X105.276 Y-37.262
X105.42 Y-37.22
X105.561 Y-37.17
X105.7 Y-37.113
X105.835 Y-37.048
X105.968 Y-36.979
X106.098 Y-36.903
X106.224 Y-36.823
X106.347 Y-36.737
X106.468 Y-36.647
X106.585 Y-36.554
X106.699 Y-36.456
X106.809 Y-36.355
X106.917 Y-36.25
X107.021 Y-36.142
X107.122 Y-36.032
X107.221 Y-35.918
X107.316 Y-35.803
X107.409 Y-35.685
X107.498 Y-35.564
X107.585 Y-35.442
X107.668 Y-35.317
X107.75 Y-35.191
X107.828 Y-35.063
X107.904 Y-34.934
X107.977 Y-34.803
X108.047 Y-34.67
X108.115 Y-34.537
X108.181 Y-34.402
X108.244 Y-34.266
X108.305 Y-34.129
X108.363 Y-33.99
X108.419 Y-33.851
X108.472 Y-33.711
X108.524 Y-33.57
X108.573 Y-33.428
X108.62 Y-33.286
X108.665 Y-33.143
X108.708 Y-32.999
X108.748 Y-32.855
X108.787 Y-32.71
X108.823 Y-32.564
X108.857 Y-32.418
X108.89 Y-32.272
X108.934 Y-32.055
X109.013 Y-31.847
X109.123 Y-31.655
X109.262 Y-31.483
X109.426 Y-31.334
X109.612 Y-31.214
X109.815 Y-31.124
X110.029 Y-31.067
X110.249 Y-31.045
X110.47 Y-31.058
X111.336 Y-31.249
X111.476 Y-31.303
X111.616 Y-31.356
X111.757 Y-31.407
X111.899 Y-31.456
X112.041 Y-31.504
X112.185 Y-31.547
X112.329 Y-31.587
X112.475 Y-31.624
X112.621 Y-31.657
X112.768 Y-31.688
X112.915 Y-31.716
X113.063 Y-31.742
X113.211 Y-31.763
X113.36 Y-31.78
X113.51 Y-31.792
X113.66 Y-31.8
X113.81 Y-31.804
X113.96 Y-31.805
X114.11 Y-31.802
X114.259 Y-31.795
X114.409 Y-31.783
X114.558 Y-31.765
X114.706 Y-31.742
X114.854 Y-31.716
X115 Y-31.685
X115.146 Y-31.65
X115.291 Y-31.611
X115.434 Y-31.566
X115.575 Y-31.515
X115.715 Y-31.46
X115.852 Y-31.4
X115.988 Y-31.336
X116.122 Y-31.268
X116.253 Y-31.195
X116.381 Y-31.117
X116.506 Y-31.034
X116.628 Y-30.946
X116.746 Y-30.855
X116.862 Y-30.759
X116.975 Y-30.661
X117.084 Y-30.557
X117.187 Y-30.449
X117.287 Y-30.336
X117.382 Y-30.221
X117.473 Y-30.102
X117.561 Y-29.98
X117.644 Y-29.855
X117.722 Y-29.727
X117.793 Y-29.595
X117.86 Y-29.46
X117.921 Y-29.323
X117.978 Y-29.185
X118.03 Y-29.044
X118.077 Y-28.901
X118.116 Y-28.757
X118.149 Y-28.61
X118.177 Y-28.463
X118.199 Y-28.315
X118.217 Y-28.166
X118.229 Y-28.016
X118.234 Y-27.866
X118.232 Y-27.716
X118.224 Y-27.566
X118.211 Y-27.417
X118.192 Y-27.268
X118.169 Y-27.12
X118.139 Y-26.973
X118.101 Y-26.828
X118.058 Y-26.684
X118.009 Y-26.543
X117.955 Y-26.403
X117.896 Y-26.265
X117.832 Y-26.129
X117.762 Y-25.996
X117.685 Y-25.867
X117.604 Y-25.742
X117.517 Y-25.619
X117.469 Y-25.555
X117.244 Y-25.32
X116.972 Y-25.144
X116.666 Y-25.035
X116.343 Y-25
X113.726 Y-25.014
X113.539 Y-25.024
X113.39 Y-25.033
X113.241 Y-25.053
X113.093 Y-25.08
X112.948 Y-25.119
X112.807 Y-25.168
X112.669 Y-25.227
X112.534 Y-25.293
X112.403 Y-25.365
X112.276 Y-25.446
X112.156 Y-25.535
X111.964 Y-25.647
X111.758 Y-25.727
X111.541 Y-25.774
X111.32 Y-25.786
X111.1 Y-25.762
X110.672 Y-25.647
X110.03 Y-25.245
X109.796 Y-25.127
X109.544 Y-25.055
X109.284 Y-25.031
G3 X109.308 Y-26.23 I0.022 J-0.6
G1 X113.71 Y-26.213
G3 X113.726 Y-25.014 I-0.002 J0.6
G1 X112.428 Y-25.02
X109.208 Y-25.031
X105.586 Y-25.038
X104.881
G3 X104.302 Y-25.638 I0.021 J-0.6
G1 X104.301 Y-36.735
G3 X104.983 Y-37.329 I0.6 J0
G1 X107.196 Y-36.948
X107.419 Y-36.898
X107.626 Y-36.834
X107.851 Y-36.744
X108.094 Y-36.623
X108.352 Y-36.468
X108.624 Y-36.273
X109.3 Y-35.701
X110.045 Y-35.221
X110.876 Y-34.912
X111.737 Y-34.704
X112.609 Y-34.544
X113.481 Y-34.39
X114.349 Y-34.209
X115.177 Y-33.983
X115.861 Y-33.735
X116.464 Y-33.46
X116.994 Y-33.165
X117.482 Y-32.84
X117.915 Y-32.498
X118.305 Y-32.135
X118.662 Y-31.746
X118.972 Y-31.347
X119.245 Y-30.932
X119.483 Y-30.497
X119.679 Y-30.058
X119.838 Y-29.608
X119.961 Y-29.145
X120.044 Y-28.687
X120.09 Y-28.225
X120.098 Y-27.757
X120.07 Y-27.301
X120.006 Y-26.852
X119.911 Y-26.435
X119.786 Y-26.034
X119.717 Y-25.862
X119.587 Y-25.615
X119.412 Y-25.399
X119.197 Y-25.222
X118.952 Y-25.091
X118.685 Y-25.011
X118.408 Y-24.985
X116.343 Y-25
G3 X115.913 Y-25.208 I0.025 J-0.599
G1 X115.721 Y-25.431
X106.66 Y-35.962
G3 X107.196 Y-36.948 I0.455 J-0.391
G1 X111.019 Y-36.292
X114.641 Y-35.674
X115.849 Y-35.47
X116.573 Y-35.31
X117.075 Y-35.156
X117.589 Y-34.952
X118.1 Y-34.7
X118.602 Y-34.401
X119.089 Y-34.054
X119.556 Y-33.661
X119.998 Y-33.224
X120.406 Y-32.751
X120.776 Y-32.243
X121.106 Y-31.706
X121.391 Y-31.144
X121.629 Y-30.563
X121.821 Y-29.964
X121.963 Y-29.354
X122.055 Y-28.737
X122.097 Y-28.123
X122.09 Y-27.534
X122.042 Y-27.017
X121.967 Y-26.592
X121.863 Y-26.188
X121.744 Y-25.844
X121.727 Y-25.806
X121.562 Y-25.525
X121.337 Y-25.29
X121.064 Y-25.113
X120.757 Y-25.004
X120.433 Y-24.969
X118.434 Y-24.985
X118.408
G3 X117.857 Y-25.419 I0.025 J-0.599
G1 X117.847 Y-25.453
X115.193 Y-34.71
G3 X115.849 Y-35.47 I0.577 J-0.165
G1 X118.762 Y-34.979
X119.471 Y-34.861
X119.858 Y-34.777
X120.124 Y-34.696
X120.422 Y-34.579
X120.724 Y-34.431
X121.055 Y-34.234
X121.392 Y-33.995
X121.735 Y-33.709
X122.093 Y-33.357
X122.432 Y-32.965
X122.762 Y-32.515
X123.079 Y-32.002
X123.37 Y-31.432
X123.623 Y-30.82
X123.83 Y-30.177
X123.988 Y-29.507
X124.091 Y-28.835
X124.137 Y-28.183
X124.131 Y-27.56
X124.085 Y-27.054
X124.005 Y-26.59
X123.907 Y-26.206
X123.781 Y-25.838
X123.76 Y-25.791
X123.595 Y-25.508
X123.37 Y-25.272
X123.096 Y-25.094
X122.788 Y-24.985
X122.463 Y-24.95
X120.433 Y-24.969
G3 X119.864 Y-25.495 I0.026 J-0.599
G1 X118.798 Y-34.193
G3 X119.471 Y-34.861 I0.596 J-0.073
G1 X122.087 Y-34.427
X122.326 Y-34.375
X122.546 Y-34.308
X122.801 Y-34.208
X123.054 Y-34.084
X123.342 Y-33.913
X123.623 Y-33.713
X123.935 Y-33.452
X124.233 Y-33.159
X124.547 Y-32.797
X124.855 Y-32.377
X125.141 Y-31.913
X125.417 Y-31.375
X125.664 Y-30.776
X125.869 Y-30.14
X126.024 Y-29.481
X126.125 Y-28.818
X126.171 Y-28.172
X126.165 Y-27.547
X126.119 Y-27.04
X126.039 Y-26.574
X125.941 Y-26.189
X125.814 Y-25.821
X125.792 Y-25.77
X125.627 Y-25.487
X125.401 Y-25.251
X125.127 Y-25.073
X124.818 Y-24.964
X124.493 Y-24.93
X122.463 Y-24.95
G3 X121.891 Y-25.515 I0.027 J-0.599
G1 X121.41 Y-33.797
G3 X122.087 Y-34.427 I0.599 J-0.035
G1 X123.093 Y-34.261
X124.3 Y-34.067
X124.545 Y-34.015
X124.763 Y-33.95
X124.984 Y-33.864
X125.232 Y-33.744
X125.488 Y-33.594
X125.762 Y-33.402
X126.041 Y-33.17
X126.336 Y-32.884
X126.62 Y-32.559
X126.917 Y-32.159
X127.189 Y-31.723
X127.447 Y-31.224
X127.684 Y-30.66
X127.885 Y-30.047
X128.038 Y-29.414
X128.139 Y-28.773
X128.186 Y-28.143
X128.184 Y-27.529
X128.141 Y-27.027
X128.064 Y-26.564
X127.968 Y-26.182
X127.843 Y-25.813
X127.818 Y-25.753
X127.686 Y-25.513
X127.509 Y-25.304
X127.295 Y-25.133
X127.052 Y-25.007
X126.789 Y-24.93
X126.516 Y-24.907
X124.493 Y-24.93
G3 X123.921 Y-25.507 I0.028 J-0.599
G1 X123.626 Y-33.449
G3 X124.3 Y-34.067 I0.6 J-0.022
G1 X126.514 Y-33.711
X126.684 Y-33.675
X126.892 Y-33.613
X127.107 Y-33.529
X127.351 Y-33.412
X127.592 Y-33.27
X127.863 Y-33.08
X128.125 Y-32.863
X128.41 Y-32.586
X128.684 Y-32.273
X128.96 Y-31.9
X129.234 Y-31.463
X129.476 Y-30.993
X129.699 Y-30.463
X129.891 Y-29.877
X130.038 Y-29.269
X130.135 Y-28.65
X130.182 Y-28.04
X130.179 Y-27.446
X130.137 Y-26.947
X130.066 Y-26.523
X129.966 Y-26.123
X129.869 Y-25.835
X129.746 Y-25.569
X129.572 Y-25.335
X129.352 Y-25.141
X129.097 Y-24.998
X128.818 Y-24.911
X128.526 Y-24.884
X126.516 Y-24.907
G3 X125.944 Y-25.498 I0.028 J-0.599
G1 X125.839 Y-33.108
G3 X126.514 Y-33.711 I0.6 J-0.008
G1 X128.526 Y-33.388
X128.779 Y-33.334
X128.977 Y-33.275
X129.192 Y-33.191
X129.423 Y-33.08
X129.663 Y-32.939
X129.919 Y-32.759
X130.18 Y-32.543
X130.449 Y-32.282
X130.722 Y-31.969
X130.982 Y-31.619
X131.243 Y-31.2
X131.483 Y-30.737
X131.694 Y-30.236
X131.876 Y-29.678
X132.017 Y-29.094
X132.11 Y-28.502
X132.155 Y-27.911
X132.153 Y-27.361
X132.111 Y-26.87
X132.042 Y-26.451
X131.948 Y-26.079
X131.831 Y-25.732
X131.821 Y-25.708
X131.688 Y-25.468
X131.512 Y-25.259
X131.298 Y-25.088
X131.055 Y-24.961
X130.792 Y-24.885
X130.519 Y-24.861
X128.526 Y-24.884
G3 X127.954 Y-25.474 I0.028 J-0.599
G1 X127.851 Y-32.784
G3 X128.526 Y-33.388 I0.6 J-0.008
G1 X130.649 Y-33.046
X130.828 Y-33.008
X131.018 Y-32.952
X131.234 Y-32.868
X131.456 Y-32.76
X131.697 Y-32.619
X131.942 Y-32.448
X132.202 Y-32.232
X132.458 Y-31.983
X132.728 Y-31.674
X132.978 Y-31.337
X133.227 Y-30.938
X133.463 Y-30.482
X133.667 Y-29.997
X133.84 Y-29.47
X133.974 Y-28.911
X134.064 Y-28.343
X134.107 Y-27.776
X134.105 Y-27.25
X134.065 Y-26.787
X134 Y-26.396
X133.906 Y-26.019
X133.796 Y-25.693
X133.793 Y-25.686
X133.66 Y-25.446
X133.484 Y-25.237
X133.27 Y-25.066
X133.027 Y-24.939
X132.764 Y-24.863
X132.491 Y-24.839
X130.519 Y-24.861
G3 X129.947 Y-25.463 I0.028 J-0.599
G1 X129.974 Y-32.453
G3 X130.649 Y-33.046 I0.6 J0.002
G1 X131.544 Y-32.903
X131.746 Y-32.872
X132.55 Y-32.749
X132.826 Y-32.693
X133.011 Y-32.64
X133.222 Y-32.56
X133.438 Y-32.458
X133.675 Y-32.321
X133.912 Y-32.158
X134.169 Y-31.949
X134.416 Y-31.713
X134.678 Y-31.418
X134.924 Y-31.093
X135.165 Y-30.714
X135.395 Y-30.278
X135.596 Y-29.81
X135.765 Y-29.309
X135.898 Y-28.779
X135.988 Y-28.239
X136.034 Y-27.694
X136.036 Y-27.197
X136.002 Y-26.749
X135.942 Y-26.369
X135.853 Y-26
X135.746 Y-25.677
X135.615 Y-25.435
X135.439 Y-25.223
X135.225 Y-25.05
X134.981 Y-24.922
X134.717 Y-24.844
X134.443 Y-24.819
X133.355 Y-24.83
X132.491 Y-24.839
G3 X131.919 Y-25.435 I0.028 J-0.599
G1 X131.881 Y-32.15
G3 X132.55 Y-32.749 I0.6 J-0.003
G1 X134.563 Y-32.443
X134.806 Y-32.394
X134.99 Y-32.341
X135.2 Y-32.261
X135.411 Y-32.162
X135.647 Y-32.026
X135.879 Y-31.866
X136.13 Y-31.662
X136.375 Y-31.427
X136.625 Y-31.146
X136.875 Y-30.816
X137.103 Y-30.457
X137.323 Y-30.041
X137.52 Y-29.581
X137.685 Y-29.094
X137.811 Y-28.589
X137.897 Y-28.073
X137.941 Y-27.554
X137.943 Y-27.101
X137.91 Y-26.671
X137.852 Y-26.302
X137.766 Y-25.949
X137.706 Y-25.766
X137.586 Y-25.498
X137.412 Y-25.261
X137.193 Y-25.065
X136.938 Y-24.92
X136.658 Y-24.831
X136.365 Y-24.803
X134.497 Y-24.819
X134.443
G3 X133.869 Y-25.421 I0.026 J-0.599
G1 X133.893 Y-31.85
G3 X134.563 Y-32.443 I0.6 J0.002
G1 X136.575 Y-32.138
X136.765 Y-32.099
X136.948 Y-32.046
X137.153 Y-31.968
X137.362 Y-31.869
X137.593 Y-31.737
X137.823 Y-31.579
X138.066 Y-31.38
X138.311 Y-31.146
X138.552 Y-30.876
X138.796 Y-30.553
X139.02 Y-30.2
X139.23 Y-29.803
X139.418 Y-29.365
X139.576 Y-28.897
X139.697 Y-28.413
X139.779 Y-27.918
X139.819 Y-27.448
X139.821 Y-26.995
X139.792 Y-26.613
X139.732 Y-26.234
X139.654 Y-25.911
X139.602 Y-25.752
X139.482 Y-25.485
X139.308 Y-25.248
X139.089 Y-25.053
X138.835 Y-24.907
X138.555 Y-24.818
X138.263 Y-24.789
X136.365 Y-24.803
G3 X135.791 Y-25.413 I0.026 J-0.599
G1 X135.906 Y-31.553
G3 X136.575 Y-32.138 I0.6 J0.011
G1 X138.587 Y-31.832
X138.734 Y-31.802
X138.924 Y-31.743
X139.123 Y-31.664
X139.338 Y-31.558
X139.559 Y-31.426
X139.795 Y-31.257
X140.026 Y-31.063
X140.271 Y-30.82
X140.503 Y-30.551
X140.733 Y-30.235
X140.954 Y-29.874
X141.152 Y-29.484
X141.324 Y-29.064
X141.466 Y-28.618
X141.574 Y-28.151
X141.645 Y-27.677
X141.674 Y-27.242
X141.669 Y-26.825
X141.635 Y-26.46
X141.573 Y-26.108
X141.491 Y-25.794
X141.466 Y-25.72
X141.343 Y-25.458
X141.17 Y-25.227
X140.952 Y-25.037
X140.7 Y-24.895
X140.424 Y-24.808
X140.137 Y-24.78
X138.263 Y-24.789
G3 X137.688 Y-25.412 I0.025 J-0.599
G1 X137.918 Y-31.259
G3 X138.587 Y-31.832 I0.6 J0.024
G1 X140.398 Y-31.556
X140.601 Y-31.517
X140.776 Y-31.468
X140.975 Y-31.394
X141.174 Y-31.302
X141.395 Y-31.177
X141.614 Y-31.029
X141.845 Y-30.843
X142.077 Y-30.624
X142.304 Y-30.373
X142.534 Y-30.073
X142.747 Y-29.745
X142.94 Y-29.384
X143.115 Y-28.987
X143.261 Y-28.564
X143.375 Y-28.122
X143.454 Y-27.669
X143.492 Y-27.259
X143.496 Y-26.851
X143.472 Y-26.502
X143.419 Y-26.15
X143.348 Y-25.846
X143.317 Y-25.746
X143.198 Y-25.477
X143.025 Y-25.238
X142.807 Y-25.041
X142.552 Y-24.894
X142.272 Y-24.803
X141.98 Y-24.773
X140.801 Y-24.776
X140.137 Y-24.78
G3 X139.561 Y-25.398 I0.024 J-0.6
G1 X139.734 Y-30.978
G3 X140.398 Y-31.556 I0.6 J0.019
G1 X141.203 Y-31.441
X142.209 Y-31.298
X142.463 Y-31.249
X142.645 Y-31.199
X142.83 Y-31.131
X143.037 Y-31.036
X143.242 Y-30.92
X143.467 Y-30.769
X143.686 Y-30.595
X143.915 Y-30.38
X144.141 Y-30.131
X144.357 Y-29.852
X144.565 Y-29.532
X144.757 Y-29.177
X144.924 Y-28.799
X145.063 Y-28.4
X145.173 Y-27.98
X145.248 Y-27.556
X145.285 Y-27.163
X145.291 Y-26.788
X145.268 Y-26.444
X145.219 Y-26.113
X145.15 Y-25.812
X145.129 Y-25.745
X145.011 Y-25.475
X144.839 Y-25.236
X144.62 Y-25.038
X144.366 Y-24.89
X144.086 Y-24.799
X143.792 Y-24.768
X141.98 Y-24.773
G3 X141.402 Y-25.389 I0.023 J-0.6
G1 X141.546 Y-30.718
G3 X142.209 Y-31.298 I0.6 J0.016
G1 X144.131 Y-31.026
X144.306 Y-30.993
X144.486 Y-30.943
X144.668 Y-30.876
X144.872 Y-30.782
X145.075 Y-30.668
X145.293 Y-30.521
X145.511 Y-30.347
X145.73 Y-30.142
X145.953 Y-29.896
X146.162 Y-29.626
X146.36 Y-29.321
X146.544 Y-28.982
X146.706 Y-28.616
X146.84 Y-28.23
X146.945 Y-27.827
X147.014 Y-27.44
X147.05 Y-27.061
X147.055 Y-26.716
X147.033 Y-26.378
X146.987 Y-26.066
X146.918 Y-25.769
X146.91 Y-25.744
X146.792 Y-25.475
X146.621 Y-25.235
X146.403 Y-25.038
X146.148 Y-24.89
X145.868 Y-24.798
X145.575 Y-24.767
X143.792 Y-24.768
G3 X143.215 Y-25.398 I0.022 J-0.6
G1 X143.468 Y-30.46
G3 X144.131 Y-31.026 I0.599 J0.03
G1 X146.008 Y-30.761
X146.155 Y-30.732
X146.204 Y-30.718
X146.481 Y-30.603
X146.727 Y-30.433
X146.931 Y-30.214
X147.083 Y-29.956
X147.178 Y-29.672
X147.21 Y-29.375
G3 X145.211 Y-28.246 I-1.345 J-0.047
X146.008 Y-30.761 I0.655 J-1.176
G1 X146.636 Y-30.672
X146.737 Y-30.654
X146.787 Y-30.64
X146.837 Y-30.62
X146.89 Y-30.593
X146.942 Y-30.56
X146.991 Y-30.524
X147.039 Y-30.48
X147.091 Y-30.42
X147.13 Y-30.359
X147.156 Y-30.309
X147.176 Y-30.259
X147.202 Y-30.158
X147.21 Y-29.957
Y-25.538
X147.208 Y-25.337
X147.192 Y-25.237
X147.177 Y-25.187
X147.157 Y-25.136
X147.109 Y-25.05
X147.077 Y-25.006
X147.039 Y-24.963
X147.01 Y-24.935
X146.924 Y-24.866
X146.837 Y-24.819
X146.787 Y-24.799
X146.737 Y-24.784
X146.636 Y-24.769
X146.435 Y-24.767
X145.575
G3 X145.012 Y-25.232 I0.021 J-0.6
G1 X144.991 Y-25.324 Z-6.993
X144.97 Y-25.413 Z-6.971
X144.951 Y-25.498 Z-6.935
X144.933 Y-25.576 Z-6.885
X144.916 Y-25.646 Z-6.824
X144.903 Y-25.705 Z-6.753
X144.892 Y-25.753 Z-6.672
X144.884 Y-25.788 Z-6.585
X144.879 Y-25.81 Z-6.494
X144.877 Y-25.817 Z-6.4
Z-5.8
X11.897 Y-25.662
Z-6.4
X11.891 Y-25.658 Z-6.494
X11.872 Y-25.648 Z-6.585
X11.84 Y-25.63 Z-6.672
X11.797 Y-25.607 Z-6.753
X11.743 Y-25.578 Z-6.824
X11.68 Y-25.544 Z-6.885
X11.609 Y-25.506 Z-6.935
X11.533 Y-25.464 Z-6.971
X11.452 Y-25.421 Z-6.993
X11.37 Y-25.376 Z-7
G3 X10.608 Y-25.185 I-0.753 J-1.392
G1 X8.394 Y-25.275
X7.992 Y-25.294
X7.782 Y-25.314
X7.54 Y-25.358
X7.266 Y-25.43
X6.961 Y-25.537
X6.646 Y-25.677
X6.282 Y-25.876
X5.925 Y-26.109
X5.513 Y-26.429
X5.115 Y-26.793
X4.681 Y-27.258
X4.233 Y-27.825
X3.801 Y-28.47
X3.37 Y-29.241
X3.002 Y-30.047
X2.691 Y-30.877
X2.436 Y-31.726
X2.231 Y-32.588
X2.076 Y-33.46
X1.968 Y-34.34
X1.906 Y-35.224
X1.889 Y-36.11
X1.918 Y-36.996
X1.989 Y-37.879
X2.103 Y-38.758
X2.258 Y-39.63
X2.454 Y-40.494
X2.691 Y-41.348
X2.966 Y-42.19
X3.282 Y-43.018
X3.636 Y-43.831
X4.028 Y-44.625
X4.439 Y-45.364
X4.548 Y-45.528
X4.721 Y-45.74
X4.932 Y-45.914
X5.173 Y-46.044
X5.434 Y-46.124
X5.706 Y-46.152
X7.791 Y-46.163
X8.385 Y-46.164
G3 X8.965 Y-45.553 I-0.02 J0.6
G1 X8.599 Y-25.883
G3 X7.992 Y-25.294 I-0.6 J-0.011
G1 X7.589 Y-25.314
X5.577 Y-25.422
X5.329 Y-25.448
X5.098 Y-25.491
X4.825 Y-25.565
X4.548 Y-25.664
X4.235 Y-25.806
X3.902 Y-25.99
X3.55 Y-26.224
X3.167 Y-26.525
X2.777 Y-26.885
X2.372 Y-27.326
X1.943 Y-27.875
X1.526 Y-28.506
X1.114 Y-29.256
X0.75 Y-30.064
X0.446 Y-30.897
X0.197 Y-31.747
X-0.003 Y-32.61
X-0.155 Y-33.483
X-0.262 Y-34.363
X-0.325 Y-35.247
X-0.347 Y-36.133
X-0.327 Y-37.018
X-0.266 Y-37.903
X-0.167 Y-38.783
X-0.029 Y-39.658
X0.146 Y-40.527
X0.357 Y-41.388
X0.605 Y-42.239
X0.887 Y-43.078
X1.205 Y-43.906
X1.558 Y-44.718
X1.871 Y-45.324
X1.966 Y-45.478
X2.138 Y-45.701
X2.352 Y-45.885
X2.598 Y-46.023
X2.867 Y-46.109
X3.148 Y-46.139
X5.706 Y-46.152
G3 X6.288 Y-45.549 I-0.018 J0.6
G1 X6.189 Y-26.019
G3 X5.577 Y-25.422 I-0.6 J-0.003
G1 X3.163 Y-25.552
X2.976 Y-25.571
X2.749 Y-25.614
X2.483 Y-25.686
X2.216 Y-25.782
X1.907 Y-25.921
X1.59 Y-26.097
X1.243 Y-26.327
X0.878 Y-26.614
X0.496 Y-26.968
X0.105 Y-27.392
X-0.311 Y-27.924
X-0.717 Y-28.539
X-1.12 Y-29.273
X-1.484 Y-30.081
X-1.787 Y-30.913
X-2.035 Y-31.764
X-2.234 Y-32.628
X-2.386 Y-33.501
X-2.495 Y-34.38
X-2.563 Y-35.263
X-2.59 Y-36.149
X-2.578 Y-37.035
X-2.528 Y-37.92
X-2.442 Y-38.802
X-2.32 Y-39.68
X-2.163 Y-40.552
X-1.973 Y-41.417
X-1.75 Y-42.275
X-1.494 Y-43.123
X-1.206 Y-43.961
X-0.878 Y-44.784
X-0.613 Y-45.319
X-0.547 Y-45.429
X-0.377 Y-45.657
X-0.164 Y-45.846
X0.082 Y-45.988
X0.351 Y-46.077
X0.634 Y-46.11
X1.955 Y-46.129
X2.358 Y-46.134
X3.148 Y-46.139
G3 X3.73 Y-45.54 I-0.018 J0.6
G1 X3.774 Y-26.153
G3 X3.163 Y-25.552 I-0.6 J0.001
G1 X0.949 Y-25.671
X0.659 Y-25.701
X0.432 Y-25.743
X0.174 Y-25.813
X-0.089 Y-25.908
X-0.396 Y-26.047
X-0.7 Y-26.215
X-1.047 Y-26.445
X-1.396 Y-26.72
X-1.779 Y-27.074
X-2.156 Y-27.484
X-2.563 Y-28.003
X-2.966 Y-28.615
X-3.362 Y-29.335
X-3.726 Y-30.143
X-4.028 Y-30.976
X-4.275 Y-31.827
X-4.474 Y-32.691
X-4.626 Y-33.564
X-4.736 Y-34.443
X-4.806 Y-35.326
X-4.838 Y-36.212
X-4.833 Y-37.098
X-4.792 Y-37.983
X-4.716 Y-38.866
X-4.606 Y-39.745
X-4.464 Y-40.62
X-4.291 Y-41.489
X-4.087 Y-42.351
X-3.851 Y-43.206
X-3.582 Y-44.05
X-3.305 Y-44.778
X-3.064 Y-45.284
X-3.011 Y-45.375
X-2.842 Y-45.608
X-2.628 Y-45.802
X-2.38 Y-45.948
X-2.106 Y-46.04
X-1.82 Y-46.074
X0.634 Y-46.11
G3 X1.221 Y-45.521 I-0.012 J0.6
G1 X1.56 Y-26.281
G3 X0.949 Y-25.671 I-0.6 J0.011
G1 X0.345 Y-25.704
X-0.26 Y-25.739
X-1.466 Y-25.82
X-1.673 Y-25.844
X-1.907 Y-25.891
X-2.156 Y-25.962
X-2.425 Y-26.063
X-2.73 Y-26.206
X-3.034 Y-26.379
X-3.385 Y-26.619
X-3.724 Y-26.893
X-4.111 Y-27.261
X-4.481 Y-27.674
X-4.878 Y-28.196
X-5.285 Y-28.83
X-5.68 Y-29.573
X-6.033 Y-30.386
X-6.324 Y-31.222
X-6.562 Y-32.076
X-6.751 Y-32.942
X-6.896 Y-33.816
X-6.999 Y-34.696
X-7.064 Y-35.58
X-7.093 Y-36.465
X-7.086 Y-37.351
X-7.046 Y-38.237
X-6.974 Y-39.12
X-6.871 Y-40
X-6.736 Y-40.876
X-6.571 Y-41.746
X-6.376 Y-42.611
X-6.148 Y-43.467
X-5.88 Y-44.312
X-5.637 Y-44.92
X-5.472 Y-45.253
X-5.309 Y-45.509
X-5.094 Y-45.723
X-4.838 Y-45.886
X-4.553 Y-45.991
X-4.252 Y-46.031
X-3.679 Y-46.045
X-2.673 Y-46.061
X-1.82 Y-46.074
G3 X-1.232 Y-45.486 I-0.012 J0.6
G1 X-0.846 Y-26.432
G3 X-1.466 Y-25.82 I-0.6 J0.012
G1 X-3.679 Y-25.969
X-3.971 Y-26.003
X-4.197 Y-26.048
X-4.448 Y-26.12
X-4.709 Y-26.218
X-5.013 Y-26.36
X-5.313 Y-26.531
X-5.656 Y-26.766
X-5.998 Y-27.042
X-6.376 Y-27.401
X-6.745 Y-27.813
X-7.143 Y-28.336
X-7.539 Y-28.955
X-7.927 Y-29.683
X-8.28 Y-30.496
X-8.571 Y-31.332
X-8.809 Y-32.186
X-8.999 Y-33.052
X-9.145 Y-33.926
X-9.25 Y-34.805
X-9.318 Y-35.689
X-9.351 Y-36.574
X-9.35 Y-37.461
X-9.317 Y-38.346
X-9.253 Y-39.23
X-9.158 Y-40.111
X-9.034 Y-40.988
X-8.88 Y-41.861
X-8.695 Y-42.728
X-8.475 Y-43.586
X-8.217 Y-44.408
X-8 Y-44.944
X-7.872 Y-45.199
X-7.708 Y-45.453
X-7.494 Y-45.666
X-7.239 Y-45.828
X-6.955 Y-45.932
X-6.655 Y-45.972
X-4.252 Y-46.031
G3 X-3.659 Y-45.45 I-0.006 J0.6
G1 X-3.06 Y-26.587
G3 X-3.679 Y-25.969 I-0.6 J0.019
G1 X-6.094 Y-26.131
X-6.243 Y-26.149
X-6.47 Y-26.194
X-6.72 Y-26.266
X-6.982 Y-26.365
X-7.285 Y-26.507
X-7.583 Y-26.678
X-7.927 Y-26.914
X-8.264 Y-27.187
X-8.643 Y-27.548
X-9.008 Y-27.957
X-9.403 Y-28.477
X-9.801 Y-29.1
X-10.187 Y-29.828
X-10.538 Y-30.642
X-10.829 Y-31.479
X-11.066 Y-32.333
X-11.255 Y-33.199
X-11.401 Y-34.073
X-11.508 Y-34.952
X-11.578 Y-35.836
X-11.614 Y-36.721
X-11.617 Y-37.607
X-11.589 Y-38.493
X-11.531 Y-39.377
X-11.444 Y-40.259
X-11.327 Y-41.137
X-11.18 Y-42.011
X-11 Y-42.879
X-10.783 Y-43.738
X-10.554 Y-44.454
X-10.345 Y-44.961
X-10.25 Y-45.147
X-10.087 Y-45.398
X-9.874 Y-45.608
X-9.621 Y-45.768
X-9.34 Y-45.871
X-9.044 Y-45.912
X-8.71 Y-45.921
X-6.655 Y-45.972
G3 X-6.062 Y-45.39 I-0.006 J0.6
G1 X-5.475 Y-26.75
G3 X-6.094 Y-26.131 I-0.6 J0.019
G1 X-7.905 Y-26.253
X-8.307 Y-26.281
X-8.535 Y-26.31
X-8.765 Y-26.358
X-9.012 Y-26.431
X-9.277 Y-26.533
X-9.579 Y-26.678
X-9.878 Y-26.852
X-10.224 Y-27.093
X-10.558 Y-27.368
X-10.938 Y-27.735
X-11.301 Y-28.148
X-11.693 Y-28.672
X-12.092 Y-29.308
X-12.48 Y-30.051
X-12.826 Y-30.867
X-13.111 Y-31.706
X-13.343 Y-32.561
X-13.529 Y-33.427
X-13.672 Y-34.302
X-13.777 Y-35.182
X-13.846 Y-36.065
X-13.882 Y-36.95
X-13.886 Y-37.837
X-13.86 Y-38.722
X-13.805 Y-39.607
X-13.721 Y-40.489
X-13.607 Y-41.368
X-13.462 Y-42.242
X-13.282 Y-43.109
X-13.058 Y-43.967
X-12.844 Y-44.584
X-12.633 Y-45.063
X-12.622 Y-45.084
X-12.459 Y-45.323
X-12.251 Y-45.524
X-12.005 Y-45.677
X-11.734 Y-45.777
X-11.447 Y-45.819
X-9.716 Y-45.89
X-9.044 Y-45.912
G3 X-8.448 Y-45.337 I-0.003 J0.6
G1 X-7.687 Y-26.906
G3 X-8.307 Y-26.281 I-0.599 J0.025
G1 X-10.521 Y-26.452
X-10.821 Y-26.49
X-11.047 Y-26.538
X-11.295 Y-26.611
X-11.556 Y-26.712
X-11.857 Y-26.857
X-12.154 Y-27.03
X-12.496 Y-27.268
X-12.832 Y-27.546
X-13.208 Y-27.909
X-13.571 Y-28.323
X-13.964 Y-28.85
X-14.359 Y-29.48
X-14.744 Y-30.221
X-15.089 Y-31.037
X-15.374 Y-31.876
X-15.606 Y-32.731
X-15.792 Y-33.598
X-15.936 Y-34.472
X-16.042 Y-35.352
X-16.113 Y-36.235
X-16.151 Y-37.121
X-16.159 Y-38.007
X-16.136 Y-38.893
X-16.085 Y-39.777
X-16.005 Y-40.66
X-15.895 Y-41.539
X-15.751 Y-42.413
X-15.568 Y-43.28
X-15.357 Y-44.06
X-15.162 Y-44.602
X-15.027 Y-44.9
X-14.869 Y-45.166
X-14.657 Y-45.39
X-14.401 Y-45.563
X-14.114 Y-45.675
X-13.809 Y-45.721
X-11.447 Y-45.819
G3 X-10.844 Y-45.25 I0.004 J0.6
G1 X-9.896 Y-27.083
G3 X-10.521 Y-26.452 I-0.599 J0.031
G1 X-11.929 Y-26.561
X-12.533 Y-26.61
X-12.935 Y-26.643
X-13.104 Y-26.665
X-13.332 Y-26.715
X-13.58 Y-26.79
X-13.843 Y-26.893
X-14.145 Y-27.04
X-14.443 Y-27.216
X-14.787 Y-27.46
X-15.122 Y-27.738
X-15.499 Y-28.108
X-15.862 Y-28.526
X-16.253 Y-29.057
X-16.65 Y-29.7
X-17.038 Y-30.455
X-17.377 Y-31.273
X-17.658 Y-32.113
X-17.887 Y-32.969
X-18.07 Y-33.836
X-18.212 Y-34.711
X-18.317 Y-35.591
X-18.387 Y-36.474
X-18.425 Y-37.36
X-18.433 Y-38.246
X-18.411 Y-39.132
X-18.361 Y-40.016
X-18.281 Y-40.899
X-18.169 Y-41.778
X-18.021 Y-42.652
X-17.83 Y-43.517
X-17.629 Y-44.188
X-17.436 Y-44.686
X-17.378 Y-44.805
X-17.223 Y-45.055
X-17.02 Y-45.266
X-16.777 Y-45.43
X-16.505 Y-45.54
X-16.216 Y-45.592
X-15.735 Y-45.625
X-15.149 Y-45.663
X-14.948 Y-45.674
X-13.809 Y-45.721
G3 X-13.206 Y-45.152 I0.004 J0.6
G1 X-12.308 Y-27.272
G3 X-12.935 Y-26.643 I-0.599 J0.03
G1 X-15.149 Y-26.826
X-15.385 Y-26.858
X-15.61 Y-26.907
X-15.859 Y-26.982
X-16.119 Y-27.084
X-16.42 Y-27.231
X-16.717 Y-27.406
X-17.056 Y-27.646
X-17.394 Y-27.928
X-17.766 Y-28.293
X-18.131 Y-28.713
X-18.523 Y-29.245
X-18.917 Y-29.882
X-19.303 Y-30.635
X-19.643 Y-31.453
X-19.924 Y-32.293
X-20.154 Y-33.149
X-20.338 Y-34.016
X-20.481 Y-34.89
X-20.587 Y-35.77
X-20.659 Y-36.653
X-20.699 Y-37.539
X-20.709 Y-38.425
X-20.689 Y-39.311
X-20.641 Y-40.195
X-20.561 Y-41.078
X-20.448 Y-41.957
X-20.295 Y-42.83
X-20.105 Y-43.643
X-19.921 Y-44.217
X-19.779 Y-44.561
X-19.63 Y-44.833
X-19.424 Y-45.066
X-19.173 Y-45.247
X-18.888 Y-45.369
X-18.582 Y-45.425
X-16.216 Y-45.592
G3 X-15.596 Y-45.029 I0.021 J0.6
G1 X-14.521 Y-27.462
G3 X-15.149 Y-26.826 I-0.599 J0.037
G1 X-15.954 Y-26.894
X-17.362 Y-27.016
X-17.675 Y-27.06
X-17.903 Y-27.11
X-18.15 Y-27.186
X-18.412 Y-27.29
X-18.712 Y-27.438
X-19.008 Y-27.615
X-19.351 Y-27.859
X-19.685 Y-28.14
X-20.06 Y-28.511
X-20.422 Y-28.931
X-20.812 Y-29.466
X-21.209 Y-30.113
X-21.596 Y-30.877
X-21.933 Y-31.697
X-22.21 Y-32.538
X-22.437 Y-33.395
X-22.619 Y-34.262
X-22.761 Y-35.137
X-22.865 Y-36.017
X-22.937 Y-36.9
X-22.976 Y-37.785
X-22.985 Y-38.671
X-22.964 Y-39.557
X-22.913 Y-40.442
X-22.83 Y-41.324
X-22.71 Y-42.202
X-22.546 Y-43.073
X-22.364 Y-43.76
X-22.185 Y-44.267
X-22.111 Y-44.433
X-21.959 Y-44.695
X-21.755 Y-44.917
X-21.507 Y-45.09
X-21.228 Y-45.206
X-20.931 Y-45.26
X-18.582 Y-45.425
G3 X-17.963 Y-44.868 I0.021 J0.6
G1 X-16.733 Y-27.658
G3 X-17.362 Y-27.016 I-0.598 J0.043
G1 X-19.777 Y-27.228
X-19.951 Y-27.252
X-20.177 Y-27.303
X-20.427 Y-27.38
X-20.687 Y-27.484
X-20.99 Y-27.634
X-21.287 Y-27.812
X-21.627 Y-28.056
X-21.966 Y-28.343
X-22.338 Y-28.712
X-22.703 Y-29.138
X-23.095 Y-29.678
X-23.491 Y-30.326
X-23.878 Y-31.094
X-24.212 Y-31.914
X-24.489 Y-32.756
X-24.715 Y-33.613
X-24.896 Y-34.48
X-25.037 Y-35.355
X-25.142 Y-36.235
X-25.213 Y-37.118
X-25.252 Y-38.003
X-25.26 Y-38.89
X-25.238 Y-39.775
X-25.185 Y-40.66
X-25.097 Y-41.542
X-24.968 Y-42.418
X-24.801 Y-43.222
X-24.632 Y-43.796
X-24.519 Y-44.091
X-24.38 Y-44.361
X-24.186 Y-44.595
X-23.946 Y-44.782
X-23.671 Y-44.912
X-23.375 Y-44.98
X-21.186 Y-45.237
X-20.985 Y-45.256
X-20.931 Y-45.26
G3 X-20.311 Y-44.702 I0.021 J0.6
G1 X-19.147 Y-27.868
G3 X-19.777 Y-27.228 I-0.599 J0.041
G1 X-21.991 Y-27.426
X-22.232 Y-27.46
X-22.457 Y-27.51
X-22.708 Y-27.587
X-22.967 Y-27.691
X-23.268 Y-27.84
X-23.564 Y-28.019
X-23.903 Y-28.261
X-24.242 Y-28.548
X-24.612 Y-28.915
X-24.978 Y-29.342
X-25.37 Y-29.882
X-25.764 Y-30.528
X-26.152 Y-31.296
X-26.486 Y-32.116
X-26.763 Y-32.958
X-26.989 Y-33.815
X-27.171 Y-34.682
X-27.312 Y-35.557
X-27.417 Y-36.437
X-27.488 Y-37.32
X-27.527 Y-38.205
X-27.535 Y-39.091
X-27.511 Y-39.977
X-27.454 Y-40.861
X-27.359 Y-41.742
X-27.217 Y-42.617
X-27.058 Y-43.271
X-26.892 Y-43.775
X-26.859 Y-43.855
X-26.716 Y-44.114
X-26.523 Y-44.336
X-26.287 Y-44.514
X-26.019 Y-44.638
X-25.732 Y-44.703
X-23.375 Y-44.98
G3 X-22.728 Y-44.432 I0.049 J0.598
G1 X-21.36 Y-28.075
G3 X-21.991 Y-27.426 I-0.598 J0.05
G1 X-24.204 Y-27.625
X-24.512 Y-27.668
X-24.737 Y-27.719
X-24.987 Y-27.796
X-25.246 Y-27.9
X-25.547 Y-28.049
X-25.843 Y-28.228
X-26.182 Y-28.47
X-26.521 Y-28.757
X-26.891 Y-29.125
X-27.256 Y-29.552
X-27.648 Y-30.092
X-28.043 Y-30.74
X-28.43 Y-31.509
X-28.764 Y-32.33
X-29.041 Y-33.172
X-29.266 Y-34.029
X-29.447 Y-34.897
X-29.589 Y-35.771
X-29.693 Y-36.651
X-29.763 Y-37.535
X-29.801 Y-38.42
X-29.806 Y-39.306
X-29.778 Y-40.192
X-29.714 Y-41.076
X-29.606 Y-41.955
X-29.467 Y-42.693
X-29.323 Y-43.222
X-29.234 Y-43.466
X-29.104 Y-43.732
X-28.921 Y-43.965
X-28.693 Y-44.155
X-28.431 Y-44.292
X-28.145 Y-44.371
X-27.222 Y-44.522
X-27.021 Y-44.551
X-25.732 Y-44.703
G3 X-25.085 Y-44.162 I0.049 J0.598
G1 X-23.574 Y-28.281
G3 X-24.204 Y-27.625 I-0.597 J0.057
G1 X-26.015 Y-27.788
X-26.619 Y-27.844
X-26.787 Y-27.868
X-27.013 Y-27.919
X-27.264 Y-27.997
X-27.524 Y-28.102
X-27.826 Y-28.253
X-28.123 Y-28.433
X-28.463 Y-28.677
X-28.803 Y-28.966
X-29.174 Y-29.336
X-29.54 Y-29.766
X-29.932 Y-30.308
X-30.328 Y-30.962
X-30.716 Y-31.736
X-31.048 Y-32.557
X-31.323 Y-33.399
X-31.547 Y-34.257
X-31.727 Y-35.124
X-31.867 Y-35.999
X-31.969 Y-36.88
X-32.037 Y-37.763
X-32.072 Y-38.649
Y-39.535
X-32.038 Y-40.42
X-31.961 Y-41.303
X-31.839 Y-42.13
X-31.707 Y-42.7
X-31.608 Y-43.01
X-31.488 Y-43.283
X-31.312 Y-43.525
X-31.09 Y-43.723
X-30.83 Y-43.87
X-30.545 Y-43.959
X-30.442 Y-43.979
X-29.838 Y-44.092
X-28.145 Y-44.371
G3 X-27.471 Y-43.834 I0.077 J0.595
G1 X-25.987 Y-28.501
G3 X-26.619 Y-27.844 I-0.597 J0.058
G1 X-28.43 Y-28.011
X-28.832 Y-28.05
X-29.09 Y-28.089
X-29.318 Y-28.142
X-29.568 Y-28.222
X-29.83 Y-28.33
X-30.133 Y-28.483
X-30.431 Y-28.666
X-30.772 Y-28.915
X-31.111 Y-29.207
X-31.485 Y-29.585
X-31.849 Y-30.018
X-32.24 Y-30.567
X-32.636 Y-31.231
X-33.025 Y-32.02
X-33.352 Y-32.843
X-33.622 Y-33.687
X-33.842 Y-34.546
X-34.017 Y-35.414
X-34.152 Y-36.29
X-34.249 Y-37.171
X-34.312 Y-38.055
X-34.339 Y-38.941
X-34.329 Y-39.827
X-34.28 Y-40.711
X-34.179 Y-41.575
X-34.063 Y-42.16
X-33.969 Y-42.491
X-33.855 Y-42.773
X-33.683 Y-43.023
X-33.46 Y-43.231
X-33.199 Y-43.385
X-32.909 Y-43.479
X-32.454 Y-43.574
X-30.545 Y-43.959
G3 X-29.853 Y-43.434 I0.096 J0.592
G1 X-28.198 Y-28.716
G3 X-28.832 Y-28.05 I-0.596 J0.067
G1 X-29.637 Y-28.132
X-31.046 Y-28.276
X-31.247 Y-28.3
X-31.464 Y-28.339
X-31.704 Y-28.403
X-31.954 Y-28.491
X-32.227 Y-28.613
X-32.533 Y-28.78
X-32.839 Y-28.981
X-33.191 Y-29.254
X-33.528 Y-29.563
X-33.908 Y-29.971
X-34.276 Y-30.437
X-34.662 Y-31.015
X-35.056 Y-31.721
X-35.423 Y-32.527
X-35.729 Y-33.359
X-35.981 Y-34.208
X-36.184 Y-35.071
X-36.344 Y-35.942
X-36.464 Y-36.82
X-36.545 Y-37.703
X-36.589 Y-38.588
X-36.594 Y-39.474
X-36.556 Y-40.359
X-36.473 Y-41.148
X-36.37 Y-41.695
X-36.311 Y-41.915
X-36.202 Y-42.193
X-36.038 Y-42.441
X-35.824 Y-42.649
X-35.572 Y-42.807
X-35.292 Y-42.908
X-33.211 Y-43.416
X-32.909 Y-43.479
G3 X-32.211 Y-42.957 I0.102 J0.591
G1 X-30.601 Y-28.967
G3 X-31.247 Y-28.3 I-0.596 J0.069
G1 X-33.058 Y-28.535
X-33.173 Y-28.551
X-33.662 Y-28.632
X-33.923 Y-28.69
X-34.164 Y-28.764
X-34.421 Y-28.866
X-34.696 Y-29.001
X-35.008 Y-29.188
X-35.313 Y-29.405
X-35.666 Y-29.701
X-36.006 Y-30.037
X-36.384 Y-30.476
X-36.754 Y-30.983
X-37.137 Y-31.606
X-37.523 Y-32.366
X-37.86 Y-33.186
X-38.138 Y-34.028
X-38.363 Y-34.884
X-38.543 Y-35.752
X-38.679 Y-36.628
X-38.775 Y-37.509
X-38.83 Y-38.393
X-38.843 Y-39.279
X-38.806 Y-40.164
X-38.727 Y-40.812
X-38.652 Y-41.182
X-38.559 Y-41.471
X-38.407 Y-41.733
X-38.201 Y-41.957
X-37.952 Y-42.13
X-37.672 Y-42.246
X-36.418 Y-42.612
X-35.875 Y-42.765
X-35.292 Y-42.908
G3 X-34.574 Y-42.392 I0.122 J0.587
G1 X-32.988 Y-29.3
G3 X-33.662 Y-28.632 I-0.596 J0.072
G1 X-33.863 Y-28.666
X-35.07 Y-28.884
X-35.272 Y-28.925
X-35.875 Y-29.067
X-36.278 Y-29.168
X-36.585 Y-29.262
X-36.842 Y-29.364
X-37.097 Y-29.489
X-37.387 Y-29.662
X-37.695 Y-29.881
X-38.013 Y-30.148
X-38.359 Y-30.489
X-38.709 Y-30.894
X-39.071 Y-31.389
X-39.448 Y-32.002
X-39.822 Y-32.738
X-40.16 Y-33.557
X-40.435 Y-34.399
X-40.656 Y-35.258
X-40.827 Y-36.127
X-40.953 Y-37.004
X-41.034 Y-37.887
X-41.07 Y-38.772
X-41.051 Y-39.597
X-40.993 Y-40.162
X-40.944 Y-40.424
X-40.86 Y-40.707
X-40.719 Y-40.965
X-40.527 Y-41.189
X-40.292 Y-41.367
X-40.026 Y-41.492
X-39.296 Y-41.745
X-38.692 Y-41.948
X-37.672 Y-42.246
G3 X-36.928 Y-41.734 I0.148 J0.582
G1 X-35.556 Y-29.823
G3 X-36.278 Y-29.168 I-0.596 J0.069
G1 X-37.083 Y-29.371
X-37.284 Y-29.424
X-37.887 Y-29.626
X-38.491 Y-29.829
X-38.692 Y-29.898
X-39.095 Y-30.041
X-39.397 Y-30.165
X-39.654 Y-30.297
X-39.92 Y-30.461
X-40.204 Y-30.669
X-40.518 Y-30.941
X-40.827 Y-31.254
X-41.166 Y-31.659
X-41.503 Y-32.134
X-41.846 Y-32.712
X-42.193 Y-33.419
X-42.518 Y-34.243
X-42.778 Y-35.09
X-42.981 Y-35.953
X-43.131 Y-36.826
X-43.228 Y-37.707
X-43.264 Y-38.526
X-43.242 Y-39.148
X-43.201 Y-39.498
X-43.135 Y-39.788
X-43.01 Y-40.058
X-42.83 Y-40.295
X-42.604 Y-40.489
X-42.343 Y-40.631
X-41.912 Y-40.807
X-41.308 Y-41.047
X-40.026 Y-41.492
G3 X-39.252 Y-40.973 I0.177 J0.573
G1 X-38.316 Y-30.667
G3 X-39.095 Y-30.041 I-0.598 J0.054
G1 X-39.296 Y-30.112
X-40.503 Y-30.624
X-40.906 Y-30.794
X-41.107 Y-30.887
X-41.308 Y-30.985
X-41.657 Y-31.163
X-42.05 Y-31.363
X-42.385 Y-31.556
X-42.644 Y-31.735
X-42.905 Y-31.947
X-43.184 Y-32.215
X-43.479 Y-32.546
X-43.78 Y-32.945
X-44.086 Y-33.427
X-44.401 Y-34.023
X-44.694 Y-34.706
X-44.959 Y-35.491
X-45.171 Y-36.343
X-45.307 Y-37.162
X-45.363 Y-37.823
X-45.365 Y-38.33
X-45.351 Y-38.506
X-45.299 Y-38.792
X-45.19 Y-39.06
X-45.027 Y-39.3
X-44.819 Y-39.501
X-44.573 Y-39.655
X-44.125 Y-39.876
X-43.924 Y-39.969
X-43.321 Y-40.229
X-42.343 Y-40.631
G3 X-41.535 Y-40.093 I0.209 J0.563
G1 X-41.196 Y-31.932
G3 X-42.05 Y-31.363 I-0.599 J0.025
G1 X-42.717 Y-31.704
X-43.321 Y-32.04
X-43.539 Y-32.167
X-44.729 Y-32.88
X-44.867 Y-32.97
X-45.255 Y-33.258
X-45.484 Y-33.458
X-45.742 Y-33.723
X-45.991 Y-34.024
X-46.254 Y-34.398
X-46.501 Y-34.819
X-46.74 Y-35.313
X-46.945 Y-35.842
X-47.095 Y-36.344
X-47.197 Y-36.822
X-47.249 Y-37.225
X-47.254 Y-37.33
X-47.237 Y-37.63
X-47.155 Y-37.92
X-47.014 Y-38.185
X-46.819 Y-38.415
X-46.58 Y-38.597
G3 X-45.726 Y-38.284 I0.292 J0.524
G1 X-43.996 Y-33.696
G3 X-44.867 Y-32.97 I-0.561 J0.212
G1 X-45.469 Y-33.372
X-46.618 Y-34.176
X-46.741 Y-34.266
X-46.878 Y-34.376
X-47.546 Y-34.936
X-47.803 Y-35.174
X-47.972 Y-35.357
X-48.12 Y-35.547
X-48.265 Y-35.766
X-48.381 Y-35.977
X-48.403 Y-36.028
X-48.5 Y-36.33
X-48.526 Y-36.646
X-48.48 Y-36.961
X-48.364 Y-37.256
X-48.185 Y-37.518
X-47.951 Y-37.733
G3 X-47.031 Y-37.376 I0.336 J0.497
G1 X-46.594 Y-35.549
G3 X-47.546 Y-34.936 I-0.584 J0.14
G1 X-48.15 Y-35.441
X-48.298 Y-35.582
X-48.552 Y-35.836
X-48.699 Y-35.983
X-48.871 Y-36.184
X-48.919 Y-36.247
X-48.955 Y-36.309
X-48.987 Y-36.385
X-49.011 Y-36.486
X-49.019 Y-36.586
X-49.009 Y-36.687
X-48.981 Y-36.787
X-48.955 Y-36.848
X-48.913 Y-36.918
X-48.858 Y-36.988
X-48.754 Y-37.091
X-48.638 Y-37.189
X-48.146 Y-37.59
X-47.747 Y-37.88
X-47.546 Y-38.009
X-47.345 Y-38.135
X-46.138 Y-38.864
X-45.936 Y-38.973
X-45.5 Y-39.197
X-45.333 Y-39.282
X-44.573 Y-39.655
G3 X-43.862 Y-39.487 I0.246 J0.547
G1 X-43.803 Y-39.415 Z-6.993
X-43.745 Y-39.344 Z-6.971
X-43.69 Y-39.276 Z-6.935
X-43.639 Y-39.214 Z-6.885
X-43.594 Y-39.159 Z-6.824
X-43.556 Y-39.111 Z-6.753
X-43.524 Y-39.073 Z-6.672
X-43.502 Y-39.045 Z-6.585
X-43.488 Y-39.028 Z-6.494
X-43.483 Y-39.022 Z-6.4
Z5
X20.844 Y35.415
Z3
Z2
Z-7 F333.3
Y35.377 F1000
X20.88 Y35.384
X20.898 Y35.417
X20.889 Y35.453
X20.859 Y35.476
X20.822 Y35.477
X20.788 Y35.461
X20.762 Y35.434
X20.748 Y35.399
X20.747 Y35.362
X20.761 Y35.327
X20.784 Y35.297
X20.815 Y35.276
X20.886 Y35.252
X20.96 Y35.263
X21.022 Y35.305
X21.065 Y35.367
X21.083 Y35.439
X21.077 Y35.514
X21.049 Y35.583
X20.954 Y35.7
X20.814 Y35.754
X20.665 Y35.743
X20.532 Y35.674
X20.433 Y35.56
X20.379 Y35.421
X20.373 Y35.271
X20.41 Y35.125
X20.487 Y34.997
X20.595 Y34.893
X20.727 Y34.821
X20.872 Y34.783
X21.022 Y34.781
X21.168 Y34.813
X21.304 Y34.878
X21.423 Y34.969
X21.52 Y35.084
X21.591 Y35.215
X21.638 Y35.358
X21.658 Y35.507
X21.65 Y35.656
X21.616 Y35.803
X21.558 Y35.941
X21.477 Y36.067
X21.377 Y36.179
X21.261 Y36.273
X21.131 Y36.348
X20.991 Y36.403
X20.845 Y36.435
X20.695 Y36.447
X20.545 Y36.436
X20.399 Y36.405
X20.258 Y36.354
X20.125 Y36.284
X20.003 Y36.197
X19.893 Y36.095
X19.797 Y35.98
X19.716 Y35.854
X19.651 Y35.718
X19.603 Y35.576
X19.573 Y35.429
X19.56 Y35.28
X19.564 Y35.13
X19.586 Y34.981
X19.624 Y34.836
X19.678 Y34.696
X19.746 Y34.563
X19.829 Y34.438
X19.925 Y34.322
X20.032 Y34.217
X20.15 Y34.124
X20.276 Y34.043
X20.41 Y33.976
X20.55 Y33.922
X20.695 Y33.883
X20.843 Y33.858
X20.992 Y33.847
X21.142 Y33.851
X21.291 Y33.869
X21.438 Y33.901
X21.581 Y33.946
X21.719 Y34.005
X21.851 Y34.075
X21.977 Y34.157
X22.095 Y34.25
X22.204 Y34.353
X22.304 Y34.465
X22.394 Y34.585
X22.473 Y34.712
X22.541 Y34.846
X22.598 Y34.985
X22.643 Y35.128
X22.677 Y35.274
X22.698 Y35.426
X22.707 Y35.575
X22.704 Y35.73
X22.689 Y35.88
X22.66 Y36.034
X22.621 Y36.182
X22.567 Y36.333
X22.504 Y36.474
X22.425 Y36.616
X22.339 Y36.747
X22.236 Y36.878
X22.128 Y36.996
X22.005 Y37.11
X21.876 Y37.211
X21.735 Y37.304
X21.587 Y37.386
X21.433 Y37.456
X21.27 Y37.514
X21.106 Y37.559
X20.932 Y37.591
X20.759 Y37.609
X20.581 Y37.613
X20.401 Y37.603
X20.226 Y37.579
X20.046 Y37.539
X19.872 Y37.485
X19.702 Y37.418
X19.533 Y37.334
X19.374 Y37.239
X19.22 Y37.129
X19.072 Y37.005
X18.937 Y36.871
X18.811 Y36.725
X18.695 Y36.565
X18.593 Y36.399
X18.504 Y36.223
X18.428 Y36.037
X18.367 Y35.845
X18.321 Y35.65
X18.291 Y35.447
X18.277 Y35.24
X18.28 Y35.034
X18.299 Y34.828
X18.336 Y34.619
X18.389 Y34.413
X18.459 Y34.212
X18.545 Y34.017
X18.648 Y33.825
X18.767 Y33.642
X18.901 Y33.468
X19.048 Y33.305
X19.21 Y33.154
X19.386 Y33.013
X19.574 Y32.886
X19.771 Y32.774
X19.978 Y32.679
X20.193 Y32.6
X20.416 Y32.537
X20.646 Y32.493
X20.881 Y32.466
X21.118 Y32.459
X21.356 Y32.471
X21.594 Y32.502
X21.829 Y32.552
X22.062 Y32.621
X22.29 Y32.709
X22.511 Y32.817
X22.726 Y32.943
X22.93 Y33.086
X23.124 Y33.247
X23.306 Y33.424
X23.474 Y33.616
X23.627 Y33.822
X23.764 Y34.041
X23.884 Y34.273
X23.985 Y34.514
X24.067 Y34.764
X24.129 Y35.022
X24.17 Y35.285
X24.191 Y35.553
X24.189 Y35.823
X24.166 Y36.094
X24.121 Y36.363
X24.054 Y36.63
X23.966 Y36.892
X23.856 Y37.148
X23.725 Y37.396
X23.573 Y37.633
X23.402 Y37.859
X23.213 Y38.072
X23.005 Y38.27
X22.781 Y38.452
X22.542 Y38.617
X22.289 Y38.762
X22.023 Y38.888
X21.746 Y38.992
X21.461 Y39.075
X21.167 Y39.134
X20.868 Y39.17
X20.566 Y39.182
X20.262 Y39.17
X19.957 Y39.133
X19.655 Y39.071
X19.358 Y38.985
X19.066 Y38.875
X18.783 Y38.74
X18.51 Y38.583
X18.249 Y38.403
X18.001 Y38.202
X17.77 Y37.98
X17.556 Y37.739
X17.361 Y37.481
X17.186 Y37.205
X17.033 Y36.916
X16.903 Y36.613
X16.797 Y36.299
X16.717 Y35.976
X16.662 Y35.645
X16.634 Y35.31
X16.633 Y34.971
X16.659 Y34.632
X16.712 Y34.294
X16.793 Y33.96
X16.901 Y33.631
X17.036 Y33.311
X17.197 Y33
X17.383 Y32.702
X17.594 Y32.419
X17.828 Y32.152
X18.084 Y31.903
X18.36 Y31.675
X18.656 Y31.468
X18.969 Y31.285
X19.297 Y31.126
X19.639 Y30.994
X19.992 Y30.889
X20.354 Y30.813
X20.723 Y30.765
X21.096 Y30.747
X21.471 Y30.759
X21.846 Y30.802
X22.219 Y30.875
X22.586 Y30.978
X22.945 Y31.111
X23.295 Y31.273
X23.632 Y31.463
X23.954 Y31.681
X24.259 Y31.925
X24.545 Y32.195
X24.809 Y32.487
X25.05 Y32.802
X25.267 Y33.136
X25.457 Y33.489
X25.618 Y33.857
X25.75 Y34.239
X25.852 Y34.632
X25.922 Y35.033
X25.959 Y35.441
X25.964 Y35.853
X25.936 Y36.265
X25.874 Y36.676
X25.78 Y37.082
X25.652 Y37.481
X25.492 Y37.871
X25.3 Y38.248
X25.078 Y38.61
X24.826 Y38.955
X24.546 Y39.28
X24.239 Y39.583
X23.907 Y39.862
X23.553 Y40.114
X23.178 Y40.338
X22.784 Y40.532
X22.374 Y40.694
X21.951 Y40.824
X21.516 Y40.92
X21.074 Y40.98
X20.626 Y41.005
X20.175 Y40.994
X19.725 Y40.947
X19.278 Y40.864
X18.837 Y40.744
X18.405 Y40.588
X17.986 Y40.398
X17.581 Y40.174
X17.194 Y39.916
X16.828 Y39.628
X16.484 Y39.309
X16.166 Y38.963
X15.875 Y38.59
X15.614 Y38.194
X15.385 Y37.776
X15.189 Y37.34
X15.028 Y36.887
X14.903 Y36.421
X14.816 Y35.945
X14.768 Y35.461
X14.758 Y34.973
X14.787 Y34.484
X14.856 Y33.996
X14.965 Y33.514
X15.112 Y33.04
X15.298 Y32.578
X15.521 Y32.13
X15.78 Y31.7
X16.074 Y31.29
X16.402 Y30.904
X16.76 Y30.543
X17.148 Y30.212
X17.564 Y29.911
X18.003 Y29.644
X18.464 Y29.412
X18.945 Y29.217
X19.441 Y29.06
X19.951 Y28.944
X20.47 Y28.868
X20.996 Y28.834
X21.525 Y28.843
X22.053 Y28.894
X22.578 Y28.988
X23.095 Y29.124
X23.602 Y29.301
X24.095 Y29.52
X24.571 Y29.779
X25.026 Y30.076
X25.457 Y30.41
X25.861 Y30.778
X26.236 Y31.18
X26.579 Y31.612
X26.887 Y32.072
X27.159 Y32.556
X27.391 Y33.063
X27.583 Y33.589
X27.732 Y34.13
X27.838 Y34.684
X27.899 Y35.246
X27.915 Y35.814
X27.886 Y36.383
X27.81 Y36.949
X27.689 Y37.51
X27.523 Y38.062
X27.312 Y38.6
X27.057 Y39.121
X26.761 Y39.623
X26.424 Y40.1
X26.048 Y40.551
X25.636 Y40.971
X25.19 Y41.359
X24.713 Y41.71
X24.207 Y42.024
X23.676 Y42.296
X23.123 Y42.526
X22.551 Y42.712
X21.964 Y42.851
X21.365 Y42.943
X20.759 Y42.987
X20.149 Y42.983
X19.539 Y42.929
X18.934 Y42.826
X18.337 Y42.674
X17.752 Y42.474
X17.183 Y42.227
X16.634 Y41.934
X16.108 Y41.597
X15.61 Y41.218
X15.142 Y40.798
X14.707 Y40.341
X14.31 Y39.848
X13.952 Y39.324
X13.636 Y38.771
X13.365 Y38.192
X13.14 Y37.591
X12.964 Y36.973
X12.838 Y36.34
X12.762 Y35.697
X12.739 Y35.048
X12.767 Y34.397
X12.848 Y33.748
X12.982 Y33.106
X13.167 Y32.474
X13.402 Y31.858
X13.688 Y31.26
X14.021 Y30.685
X14.401 Y30.138
X14.825 Y29.621
X15.291 Y29.137
X15.795 Y28.692
X16.335 Y28.287
X16.908 Y27.926
X17.51 Y27.61
X18.137 Y27.344
X18.786 Y27.127
X19.452 Y26.963
X20.131 Y26.853
X20.819 Y26.797
X21.512
X22.204 Y26.852
X22.892 Y26.964
X23.571 Y27.13
X24.237 Y27.351
X24.884 Y27.626
X25.509 Y27.953
X26.108 Y28.33
X26.676 Y28.755
X27.21 Y29.226
X27.706 Y29.74
X28.16 Y30.293
X28.57 Y30.883
X28.932 Y31.506
X29.244 Y32.157
X29.503 Y32.834
X29.708 Y33.531
X29.857 Y34.245
X29.948 Y34.97
X29.981 Y35.702
X29.954 Y36.437
X29.869 Y37.169
X29.725 Y37.895
X29.522 Y38.608
X29.262 Y39.305
X28.946 Y39.981
X28.576 Y40.632
X28.153 Y41.252
X27.681 Y41.838
X27.161 Y42.386
X26.598 Y42.892
X25.994 Y43.352
X25.353 Y43.764
X24.68 Y44.124
X23.977 Y44.429
X23.25 Y44.678
X22.504 Y44.869
X21.742 Y44.999
X20.97 Y45.068
X20.193 Y45.074
X19.416 Y45.018
X18.644 Y44.9
X17.881 Y44.72
X17.134 Y44.478
X16.406 Y44.176
X15.702 Y43.816
X15.028 Y43.399
X14.388 Y42.928
X13.786 Y42.406
X13.227 Y41.836
X12.713 Y41.221
X12.25 Y40.565
X11.839 Y39.872
X11.484 Y39.147
X11.188 Y38.393
X10.953 Y37.616
X10.78 Y36.82
X10.672 Y36.011
X10.629 Y35.193
X10.651 Y34.373
X10.74 Y33.554
X10.894 Y32.744
X11.114 Y31.946
X11.397 Y31.166
X11.743 Y30.41
X12.15 Y29.682
X12.615 Y28.987
X13.136 Y28.33
X13.709 Y27.715
X14.332 Y27.146
X15 Y26.628
X15.709 Y26.165
X16.455 Y25.758
X17.233 Y25.412
X18.039 Y25.128
X18.867 Y24.91
X18.975 Y24.891
X19.043 Y24.88
X19.111 Y24.873
X19.179 Y24.869
X19.864 Y24.849
X21.273 Y24.813
X22.159 Y24.836
X22.889 Y24.899
X23.647 Y25.026
X24.419 Y25.22
X25.192 Y25.482
X25.957 Y25.812
X26.703 Y26.208
X27.424 Y26.668
X28.113 Y27.189
X28.762 Y27.769
X29.367 Y28.402
X29.921 Y29.086
X30.422 Y29.815
X30.862 Y30.584
X31.24 Y31.386
X31.553 Y32.215
X31.8 Y33.066
X31.978 Y33.934
X32.087 Y34.813
X32.126 Y35.698
X32.096 Y36.584
X31.997 Y37.465
X31.829 Y38.335
X31.594 Y39.189
X31.293 Y40.022
X30.927 Y40.83
X30.501 Y41.606
X30.015 Y42.347
X29.474 Y43.049
X28.88 Y43.707
X28.238 Y44.317
X27.551 Y44.877
X26.823 Y45.383
X26.36 Y45.655
X26.151 Y45.756
X25.928 Y45.82
X25.697 Y45.847
X21.273 Y45.995
X21.072 Y46
X17.651 Y46.067
X17.034 Y46.048
X16.574 Y45.996
X16.071 Y45.899
X15.507 Y45.742
X14.944 Y45.536
X14.33 Y45.252
X13.684 Y44.889
X13.038 Y44.453
X12.414 Y43.955
X11.796 Y43.376
X11.203 Y42.722
X10.662 Y42.02
X10.177 Y41.278
X9.75 Y40.501
X9.382 Y39.695
X9.074 Y38.864
X8.827 Y38.013
X8.643 Y37.147
X8.523 Y36.269
X8.468 Y35.384
X8.477 Y34.498
X8.55 Y33.615
X8.685 Y32.739
X8.881 Y31.875
X9.137 Y31.027
X9.452 Y30.199
X9.826 Y29.395
X10.257 Y28.621
X10.742 Y27.879
X11.278 Y27.173
X11.861 Y26.507
X12.49 Y25.882
X13.056 Y25.392
X13.315 Y25.215
X13.606 Y25.099
X13.916 Y25.052
X15.84 Y24.974
X16.443 Y24.953
X19.179 Y24.869
G3 X19.434 Y24.918 I0.018 J0.6
G1 X19.503 Y24.942
X19.574 Y24.958
X19.947 Y25.02
X20.295 Y25.077
G2 X20.712 Y24.993 I0.097 J-0.592
G3 X21.273 Y24.813 I0.632 J1.005
G1 X23.486 Y24.759
X23.889 Y24.75
X26.102 Y24.708
X26.478 Y24.72
X26.837 Y24.76
X27.226 Y24.836
X27.656 Y24.955
X28.126 Y25.129
X28.638 Y25.365
X29.164 Y25.661
X29.744 Y26.052
X30.323 Y26.515
X30.895 Y27.053
X31.472 Y27.689
X32.012 Y28.391
X32.497 Y29.133
X32.926 Y29.909
X33.299 Y30.713
X33.612 Y31.541
X33.867 Y32.39
X34.063 Y33.254
X34.202 Y34.129
X34.283 Y35.012
X34.306 Y35.898
X34.269 Y36.783
X34.173 Y37.664
X34.018 Y38.536
X33.807 Y39.397
X33.541 Y40.242
X33.222 Y41.069
X32.849 Y41.872
X32.422 Y42.649
X31.946 Y43.396
X31.422 Y44.111
X30.854 Y44.792
X30.401 Y45.27
X30.199 Y45.446
X29.967 Y45.58
X29.714 Y45.667
X29.449 Y45.705
X28.517 Y45.748
X27.913 Y45.773
X25.697 Y45.847
G3 X25.442 Y45.799 I-0.02 J-0.6
G1 X25.366 Y45.773
X25.288 Y45.757
X25.208 Y45.751
X24.925
X18.718 Y45.74
G2 X18.4 Y45.831 I-0.001 J0.6
G3 X17.651 Y46.067 I-0.835 J-1.344
G1 X14.834 Y46.121
X14.431 Y46.128
X14.029 Y46.13
X13.586 Y46.111
X13.275 Y46.072
X12.932 Y46.001
X12.538 Y45.885
X12.136 Y45.731
X11.669 Y45.509
X11.2 Y45.236
X10.687 Y44.881
X10.139 Y44.431
X9.61 Y43.921
X9.066 Y43.306
X8.534 Y42.596
X8.061 Y41.848
X7.643 Y41.066
X7.28 Y40.258
X6.972 Y39.427
X6.721 Y38.577
X6.527 Y37.712
X6.388 Y36.837
X6.303 Y35.955
X6.273 Y35.07
X6.296 Y34.184
X6.374 Y33.301
X6.507 Y32.425
X6.693 Y31.558
X6.931 Y30.705
X7.219 Y29.867
X7.556 Y29.048
X7.942 Y28.25
X8.377 Y27.478
X8.858 Y26.734
X9.384 Y26.02
X9.661 Y25.686
X9.871 Y25.482
X10.118 Y25.326
X10.392 Y25.224
X10.681 Y25.182
X13.916 Y25.052
G3 X14.498 Y25.493 I0.003 J0.6
G1 X14.523 Y25.584 Z-6.993
X14.547 Y25.672 Z-6.971
X14.57 Y25.756 Z-6.935
X14.591 Y25.833 Z-6.885
X14.61 Y25.903 Z-6.824
X14.626 Y25.962 Z-6.753
X14.639 Y26.009 Z-6.672
X14.649 Y26.044 Z-6.585
X14.654 Y26.065 Z-6.494
X14.656 Y26.072 Z-6.4
Z-5.8
X24.843 Y25.26
Z-6.4
X24.849 Y25.256 Z-6.494
X24.868 Y25.244 Z-6.585
X24.899 Y25.225 Z-6.672
X24.941 Y25.2 Z-6.753
X24.992 Y25.167 Z-6.824
X25.053 Y25.13 Z-6.885
X25.122 Y25.087 Z-6.935
X25.195 Y25.041 Z-6.971
X25.273 Y24.993 Z-6.993
X25.353 Y24.944 Z-7
G3 X26.102 Y24.708 I0.834 J1.345
G1 X27.31 Y24.686
X29.121 Y24.661
X29.486 Y24.674
X29.767 Y24.707
X30.092 Y24.772
X30.423 Y24.867
X30.817 Y25.014
X31.211 Y25.198
X31.669 Y25.46
X32.119 Y25.767
X32.623 Y26.174
X33.141 Y26.667
X33.652 Y27.237
X34.171 Y27.918
X34.649 Y28.664
X35.07 Y29.444
X35.434 Y30.252
X35.745 Y31.081
X36.003 Y31.929
X36.207 Y32.792
X36.358 Y33.665
X36.457 Y34.545
X36.505 Y35.43
X36.501 Y36.316
X36.448 Y37.201
X36.345 Y38.081
X36.19 Y38.953
X35.986 Y39.816
X35.734 Y40.665
X35.434 Y41.499
X35.088 Y42.315
X34.697 Y43.11
X34.263 Y43.883
X33.785 Y44.629
X33.526 Y44.988
X33.314 Y45.221
X33.057 Y45.4
X32.765 Y45.517
X32.455 Y45.567
X29.449 Y45.705
G3 X28.865 Y45.267 I-0.007 J-0.6
G1 X28.839 Y45.177 Z-6.993
X28.815 Y45.088 Z-6.971
X28.791 Y45.005 Z-6.935
X28.77 Y44.927 Z-6.885
X28.75 Y44.858 Z-6.824
X28.734 Y44.799 Z-6.753
X28.721 Y44.752 Z-6.672
X28.711 Y44.717 Z-6.585
X28.705 Y44.696 Z-6.494
X28.703 Y44.689 Z-6.4
Z-5.8
X15.295 Y45.594
Z-6.4
X15.288 Y45.598 Z-6.494
X15.27 Y45.61 Z-6.585
X15.239 Y45.628 Z-6.672
X15.197 Y45.654 Z-6.753
X15.144 Y45.685 Z-6.824
X15.083 Y45.722 Z-6.885
X15.014 Y45.764 Z-6.935
X14.94 Y45.809 Z-6.971
X14.861 Y45.856 Z-6.993
X14.781 Y45.904 Z-7
G3 X14.029 Y46.13 I-0.817 J-1.355
G1 X11.01 Y46.149
X10.82 Y46.14
X10.543 Y46.106
X10.251 Y46.045
X9.926 Y45.95
X9.561 Y45.81
X9.186 Y45.631
X8.756 Y45.382
X8.326 Y45.084
X7.856 Y44.698
X7.357 Y44.217
X6.87 Y43.665
X6.369 Y42.997
X5.896 Y42.247
X5.482 Y41.464
X5.124 Y40.653
X4.82 Y39.821
X4.567 Y38.972
X4.367 Y38.109
X4.217 Y37.235
X4.117 Y36.355
X4.066 Y35.47
X4.063 Y34.584
X4.108 Y33.699
X4.199 Y32.818
X4.337 Y31.942
X4.522 Y31.076
X4.753 Y30.22
X5.029 Y29.378
X5.349 Y28.552
X5.711 Y27.743
X6.115 Y26.954
X6.56 Y26.188
X6.738 Y25.921
X6.903 Y25.718
X7.103 Y25.55
X7.33 Y25.422
X7.577 Y25.338
X7.835 Y25.301
X8.394 Y25.275
X10.681 Y25.182
G3 X11.263 Y25.624 I0.003 J0.6
G1 X11.288 Y25.714 Z-6.993
X11.312 Y25.803 Z-6.971
X11.335 Y25.887 Z-6.935
X11.356 Y25.964 Z-6.885
X11.375 Y26.033 Z-6.824
X11.391 Y26.092 Z-6.753
X11.404 Y26.139 Z-6.672
X11.414 Y26.174 Z-6.585
X11.42 Y26.195 Z-6.494
X11.422 Y26.203 Z-6.4
Z-5.8
X27.859 Y25.206
Z-6.4
X27.865 Y25.202 Z-6.494
X27.884 Y25.191 Z-6.585
X27.914 Y25.172 Z-6.672
X27.956 Y25.146 Z-6.753
X28.008 Y25.114 Z-6.824
X28.069 Y25.077 Z-6.885
X28.138 Y25.035 Z-6.935
X28.212 Y24.989 Z-6.971
X28.29 Y24.941 Z-6.993
X28.37 Y24.892 Z-7
G3 X29.121 Y24.661 I0.827 J1.349
G1 X30.529 Y24.642
X31.334 Y24.635
X31.938 Y24.631
X32.129 Y24.639
X32.391 Y24.672
X32.669 Y24.73
X32.997 Y24.826
X33.324 Y24.951
X33.707 Y25.134
X34.094 Y25.359
X34.532 Y25.662
X34.964 Y26.017
X35.441 Y26.476
X35.926 Y27.025
X36.404 Y27.663
X36.877 Y28.413
X37.289 Y29.197
X37.645 Y30.009
X37.948 Y30.842
X38.199 Y31.691
X38.401 Y32.554
X38.555 Y33.427
X38.661 Y34.306
X38.72 Y35.191
X38.732 Y36.077
X38.699 Y36.962
X38.621 Y37.845
X38.499 Y38.723
X38.334 Y39.593
X38.126 Y40.455
X37.875 Y41.304
X37.581 Y42.14
X37.247 Y42.961
X36.872 Y43.764
X36.458 Y44.548
X36.313 Y44.781
X36.15 Y44.995
X35.948 Y45.174
X35.717 Y45.311
X35.463 Y45.401
X35.197 Y45.441
X32.455 Y45.567
G3 X31.849 Y44.982 I-0.007 J-0.6
G1 X31.363 Y25.245
G3 X31.938 Y24.631 I0.6 J-0.015
G1 X34.352 Y24.616
X34.612 Y24.628
X34.845 Y24.657
X35.118 Y24.713
X35.415 Y24.8
X35.731 Y24.921
X36.09 Y25.093
X36.449 Y25.301
X36.863 Y25.588
X37.269 Y25.921
X37.712 Y26.348
X38.176 Y26.873
X38.628 Y27.477
X39.09 Y28.209
X39.501 Y28.994
X39.855 Y29.807
X40.155 Y30.64
X40.405 Y31.49
X40.608 Y32.353
X40.765 Y33.225
X40.877 Y34.104
X40.945 Y34.988
X40.97 Y35.873
X40.953 Y36.759
X40.896 Y37.644
X40.799 Y38.525
X40.662 Y39.4
X40.487 Y40.269
X40.274 Y41.129
X40.022 Y41.978
X39.732 Y42.816
X39.406 Y43.639
X39.077 Y44.358
X38.954 Y44.577
X38.794 Y44.807
X38.59 Y45
X38.352 Y45.149
X38.09 Y45.247
X37.812 Y45.291
X35.27 Y45.437
X35.197 Y45.441
G3 X34.587 Y44.865 I-0.01 J-0.6
G1 X33.778 Y25.241
G3 X34.352 Y24.616 I0.599 J-0.025
G1 X36.767 Y24.602
X36.985 Y24.611
X37.214 Y24.64
X37.486 Y24.696
X37.761 Y24.777
X38.077 Y24.898
X38.408 Y25.056
X38.768 Y25.265
X39.154 Y25.532
X39.557 Y25.863
X39.977 Y26.267
X40.427 Y26.777
X40.869 Y27.367
X41.317 Y28.077
X41.728 Y28.862
X42.08 Y29.675
X42.379 Y30.51
X42.628 Y31.36
X42.831 Y32.223
X42.989 Y33.095
X43.105 Y33.973
X43.18 Y34.856
X43.214 Y35.742
X43.21 Y36.628
X43.167 Y37.513
X43.088 Y38.395
X42.973 Y39.274
X42.822 Y40.147
X42.636 Y41.014
X42.416 Y41.872
X42.161 Y42.721
X41.87 Y43.558
X41.604 Y44.183
X41.491 Y44.399
X41.332 Y44.639
X41.127 Y44.841
X40.885 Y44.998
X40.616 Y45.101
X40.331 Y45.147
X37.812 Y45.291
G3 X37.2 Y44.722 I-0.013 J-0.6
G1 X36.193 Y25.232
G3 X36.767 Y24.602 I0.599 J-0.031
G1 X37.371 Y24.598
X37.975 Y24.597
X39.182 Y24.599
X39.338 Y24.608
X39.488 Y24.617
X39.637 Y24.634
X39.785 Y24.659
X39.932 Y24.69
X40.077 Y24.729
X40.22 Y24.773
X40.361 Y24.824
X40.501 Y24.879
X40.638 Y24.939
X40.773 Y25.005
X40.906 Y25.075
X41.036 Y25.148
X41.165 Y25.226
X41.291 Y25.307
X41.415 Y25.392
X41.536 Y25.48
X41.655 Y25.571
X41.772 Y25.665
X41.887 Y25.762
X41.999 Y25.861
X42.109 Y25.963
X42.217 Y26.067
X42.323 Y26.174
X42.426 Y26.282
X42.528 Y26.393
X42.627 Y26.505
X42.724 Y26.619
X42.819 Y26.735
X42.912 Y26.853
X43.003 Y26.972
X43.092 Y27.093
X43.179 Y27.215
X43.264 Y27.339
X43.348 Y27.464
X43.429 Y27.59
X43.508 Y27.717
X43.586 Y27.845
X43.662 Y27.975
X43.736 Y28.105
X43.808 Y28.237
X43.879 Y28.369
X43.948 Y28.502
X44.015 Y28.636
X44.08 Y28.771
X44.144 Y28.907
X44.207 Y29.043
X44.268 Y29.18
X44.327 Y29.318
X44.385 Y29.457
X44.441 Y29.596
X44.495 Y29.735
X44.548 Y29.876
X44.6 Y30.016
X44.651 Y30.158
X44.699 Y30.3
X44.747 Y30.442
X44.793 Y30.585
X44.837 Y30.728
X44.881 Y30.872
X44.923 Y31.016
X44.963 Y31.16
X45.003 Y31.305
X45.04 Y31.45
X45.077 Y31.595
X45.112 Y31.741
X45.147 Y31.887
X45.18 Y32.033
X45.211 Y32.18
X45.242 Y32.327
X45.271 Y32.474
X45.299 Y32.621
X45.326 Y32.771
X45.351 Y32.919
X45.376 Y33.067
X45.399 Y33.215
X45.421 Y33.363
X45.441 Y33.512
X45.462 Y33.667
X45.481 Y33.821
X45.498 Y33.97
X45.515 Y34.119
X45.53 Y34.269
X45.544 Y34.42
X45.557 Y34.58
X45.57 Y34.748
X45.581 Y34.898
X45.59 Y35.048
X45.598 Y35.198
X45.606 Y35.353
X45.612 Y35.518
X45.618 Y35.694
X45.622 Y35.848
X45.625 Y35.998
X45.626 Y36.149
Y36.309
Y36.479
X45.624 Y36.66
X45.62 Y36.822
X45.616 Y36.972
X45.611 Y37.128
X45.604 Y37.292
X45.596 Y37.467
X45.585 Y37.653
X45.575 Y37.816
X45.564 Y37.968
X45.552 Y38.127
X45.537 Y38.297
X45.521 Y38.476
X45.501 Y38.667
X45.484 Y38.825
X45.467 Y38.98
X45.446 Y39.144
X45.424 Y39.318
X45.398 Y39.503
X45.371 Y39.692
X45.348 Y39.845
X45.322 Y40.004
X45.294 Y40.172
X45.263 Y40.351
X45.228 Y40.542
X45.194 Y40.717
X45.165 Y40.868
X45.132 Y41.026
X45.096 Y41.194
X45.057 Y41.373
X45.013 Y41.563
X44.976 Y41.721
X44.94 Y41.867
X44.904 Y42.012
X44.866 Y42.157
X44.826 Y42.306
X44.784 Y42.456
X44.743 Y42.6
X44.7 Y42.744
X44.656 Y42.887
X44.611 Y43.03
X44.564 Y43.173
X44.515 Y43.315
X44.464 Y43.456
X44.411 Y43.596
X44.356 Y43.736
X44.299 Y43.874
X44.239 Y44.012
X44.176 Y44.148
X44.149 Y44.205
X43.993 Y44.454
X43.789 Y44.665
X43.546 Y44.829
X43.274 Y44.938
X42.984 Y44.989
X42.603 Y45.014
X41.798 Y45.063
X40.331 Y45.147
G3 X39.719 Y44.582 I-0.013 J-0.6
G1 X38.603 Y25.234
G3 X39.182 Y24.599 I0.599 J-0.035
G1 X41.597 Y24.605
X41.784 Y24.614
X42.013 Y24.645
X42.264 Y24.699
X42.539 Y24.782
X42.838 Y24.9
X43.236 Y25.094
X43.664 Y25.21
X44.55 Y25.245
X45.413 Y25.044
X46.244 Y24.738
X46.265 Y24.73
X46.437 Y24.674
X46.614 Y24.641
X46.795 Y24.63
G3 X46.766 Y25.83 I-0.026 J0.599
G1 X41.613 Y25.804
G3 X41.597 Y24.605 I0.003 J-0.6
G1 X44.011 Y24.61
X44.816 Y24.615
X50.853 Y24.663
X51.255 Y24.666
X51.405 Y24.675
X51.609 Y24.705
X51.852 Y24.761
X52.054 Y24.825
X52.236 Y24.899
X52.448 Y25.006
X52.693 Y25.155
X52.846 Y25.266
X53.017 Y25.413
X53.21 Y25.607
X53.377 Y25.805
X53.503 Y25.979
X53.637 Y26.202
X53.777 Y26.484
X53.853 Y26.674
X53.926 Y26.911
X53.992 Y27.203
X54.028 Y27.46
X54.042 Y27.695
X54.036 Y27.98
X54.005 Y28.283
X53.964 Y28.504
X53.894 Y28.766
X53.784 Y29.076
X53.69 Y29.283
X53.566 Y29.51
X53.394 Y29.771
X53.228 Y29.983
X53.061 Y30.164
X52.842 Y30.366
X52.603 Y30.555
X52.407 Y30.684
X52.16 Y30.821
X51.853 Y30.96
X51.643 Y31.036
X51.382 Y31.106
X50.947 Y31.187
X50.527 Y31.329
X49.802 Y31.838
X49.282 Y32.556
X48.916 Y33.363
X48.656 Y34.21
X48.465 Y35.075
X48.317 Y35.949
X48.19 Y36.826
X48.069 Y37.703
X47.944 Y38.581
X47.806 Y39.456
X47.652 Y40.329
X47.475 Y41.197
X47.272 Y42.06
X47.033 Y42.913
X46.796 Y43.596
X46.623 Y43.99
X46.47 Y44.253
X46.265 Y44.478
X46.016 Y44.652
X45.735 Y44.769
X45.436 Y44.823
X42.984 Y44.989
G3 X42.391 Y44.563 I-0.02 J-0.6
G1 X42.363 Y44.473 Z-6.993
X42.337 Y44.386 Z-6.971
X42.312 Y44.303 Z-6.935
X42.288 Y44.226 Z-6.885
X42.267 Y44.157 Z-6.824
X42.25 Y44.099 Z-6.753
X42.235 Y44.052 Z-6.672
X42.225 Y44.017 Z-6.585
X42.219 Y43.996 Z-6.494
X42.216 Y43.989 Z-6.4
Z-5.8
X50.17 Y25.129
Z-6.4
X50.176 Y25.125 Z-6.494
X50.195 Y25.114 Z-6.585
X50.227 Y25.096 Z-6.672
X50.269 Y25.071 Z-6.753
X50.322 Y25.04 Z-6.824
X50.384 Y25.004 Z-6.885
X50.453 Y24.964 Z-6.935
X50.528 Y24.92 Z-6.971
X50.608 Y24.874 Z-6.993
X50.689 Y24.827 Z-7
G3 X51.255 Y24.666 I0.597 J1.026
G1 X52.976 Y24.685
X53.127 Y24.694
X53.276 Y24.715
X53.429 Y24.75
X53.6 Y24.803
X53.773 Y24.872
X53.946 Y24.959
X54.125 Y25.067
X54.309 Y25.199
X54.487 Y25.35
X54.663 Y25.525
X54.832 Y25.723
X54.992 Y25.944
X55.138 Y26.185
X55.272 Y26.451
X55.387 Y26.734
X55.482 Y27.037
X55.556 Y27.36
X55.605 Y27.695
X55.626 Y28.036
X55.621 Y28.385
X55.586 Y28.746
X55.521 Y29.109
X55.426 Y29.469
X55.3 Y29.828
X55.141 Y30.185
X54.955 Y30.526
X54.74 Y30.855
X54.493 Y31.174
X54.222 Y31.472
X53.928 Y31.746
X53.234 Y32.296
X52.614 Y32.93
X52.103 Y33.653
X51.69 Y34.437
X51.356 Y35.258
X51.084 Y36.101
X50.854 Y36.957
X50.651 Y37.819
X50.462 Y38.685
X50.278 Y39.552
X50.089 Y40.418
X49.888 Y41.281
X49.667 Y42.139
X49.413 Y42.988
X49.192 Y43.578
X49.063 Y43.854
X48.908 Y44.108
X48.704 Y44.324
X48.458 Y44.492
X48.183 Y44.605
X47.89 Y44.656
X45.436 Y44.823
G3 X44.859 Y44 I-0.02 J-0.6
G1 X52.401 Y25.141
X52.433 Y25.062
G3 X52.976 Y24.685 I0.557 J0.223
G1 X54.475 Y24.701
X54.649 Y24.711
X54.797 Y24.732
X54.951 Y24.767
X55.116 Y24.819
X55.293 Y24.89
X55.47 Y24.978
X55.66 Y25.093
X55.848 Y25.228
X56.037 Y25.389
X56.229 Y25.581
X56.412 Y25.795
X56.586 Y26.037
X56.753 Y26.312
X56.904 Y26.613
X57.035 Y26.936
X57.145 Y27.288
X57.232 Y27.669
X57.29 Y28.072
X57.317 Y28.49
X57.309 Y28.922
X57.266 Y29.368
X57.183 Y29.825
X57.061 Y30.289
X56.897 Y30.753
X56.693 Y31.212
X56.443 Y31.671
X55.958 Y32.412
X55.438 Y33.13
X54.952 Y33.871
X54.518 Y34.644
X54.138 Y35.444
X53.807 Y36.266
X53.517 Y37.103
X53.258 Y37.951
X53.019 Y38.804
X52.793 Y39.661
X52.569 Y40.518
X52.34 Y41.374
X52.094 Y42.226
X51.816 Y43.067
X51.583 Y43.622
X51.529 Y43.725
X51.374 Y43.963
X51.174 Y44.164
X50.937 Y44.32
X50.674 Y44.426
X50.395 Y44.476
X49.444 Y44.55
X49.243 Y44.564
X47.89 Y44.656
G3 X47.304 Y43.857 I-0.02 J-0.6
G1 X53.903 Y25.158
X53.924 Y25.101
G3 X54.475 Y24.701 I0.566 J0.2
G1 X56.085 Y24.718
X56.235 Y24.727
X56.393 Y24.753
X56.556 Y24.794
X56.736 Y24.855
X56.921 Y24.934
X57.115 Y25.036
X57.319 Y25.166
X57.519 Y25.317
X57.73 Y25.503
X57.933 Y25.716
X58.132 Y25.96
X58.328 Y26.245
X58.508 Y26.555
X58.67 Y26.898
X58.816 Y27.284
X58.938 Y27.703
X59.028 Y28.142
X59.085 Y28.614
X59.106 Y29.12
X59.085 Y29.652
X59.019 Y30.2
X58.907 Y30.755
X58.718 Y31.41
X58.406 Y32.239
X58.029 Y33.041
X57.628 Y33.831
X57.233 Y34.624
X56.86 Y35.428
X56.514 Y36.244
X56.197 Y37.072
X55.905 Y37.908
X55.633 Y38.751
X55.374 Y39.599
X55.122 Y40.448
X54.867 Y41.297
X54.602 Y42.143
X54.307 Y42.978
X54.063 Y43.526
X54.047 Y43.554
X53.891 Y43.783
X53.692 Y43.977
X53.459 Y44.128
X53.201 Y44.23
X52.927 Y44.279
X50.395 Y44.476
G3 X49.796 Y43.7 I-0.026 J-0.599
G1 X55.515 Y25.176
X55.526 Y25.141
G3 X56.085 Y24.718 I0.573 J0.177
G1 X57.63 Y24.735
X57.82 Y24.746
X57.976 Y24.768
X58.151 Y24.808
X58.33 Y24.864
X58.53 Y24.944
X58.73 Y25.043
X58.947 Y25.175
X59.162 Y25.329
X59.386 Y25.519
X59.612 Y25.744
X59.827 Y25.996
X60.044 Y26.297
X60.248 Y26.632
X60.433 Y27.001
X60.605 Y27.424
X60.751 Y27.888
X60.862 Y28.376
X60.94 Y28.912
X60.978 Y29.509
X60.968 Y30.134
X60.9 Y30.832
X60.757 Y31.632
X60.531 Y32.489
X60.249 Y33.329
X59.935 Y34.157
X59.28 Y35.804
X58.962 Y36.631
X58.656 Y37.463
X58.365 Y38.3
X58.084 Y39.14
X57.812 Y39.984
X57.542 Y40.828
X57.266 Y41.67
X56.97 Y42.505
X56.703 Y43.142
X56.607 Y43.328
X56.452 Y43.565
X56.251 Y43.767
X56.015 Y43.924
X55.752 Y44.03
X55.472 Y44.08
X52.927 Y44.279
G3 X52.321 Y43.529 I-0.026 J-0.599
G1 X57.061 Y25.193
X57.064 Y25.184
G3 X57.63 Y24.735 I0.581 J0.15
G1 X59.304 Y24.753
X59.515 Y24.766
X59.677 Y24.789
X59.862 Y24.831
X60.051 Y24.89
X60.263 Y24.975
X60.473 Y25.08
X60.706 Y25.221
X60.934 Y25.385
X61.176 Y25.59
X61.416 Y25.83
X61.651 Y26.105
X61.89 Y26.436
X62.107 Y26.794
X62.316 Y27.21
X62.509 Y27.688
X62.667 Y28.191
X62.798 Y28.764
X62.893 Y29.421
X62.936 Y30.1
X62.923 Y30.88
X62.836 Y31.762
X62.682 Y32.634
X62.474 Y33.496
X62.229 Y34.347
X61.96 Y35.191
X61.678 Y36.032
X61.105 Y37.709
X60.823 Y38.549
X60.544 Y39.39
X60.267 Y40.231
X59.986 Y41.072
X59.692 Y41.908
X59.375 Y42.721
X59.204 Y43.073
X59.052 Y43.318
X58.854 Y43.526
X58.617 Y43.69
X58.352 Y43.801
X58.069 Y43.856
X56.487 Y43.997
X56.085 Y44.032
X55.472 Y44.08
G3 X54.86 Y43.356 I-0.026 J-0.599
G1 X58.732 Y25.228
G3 X59.304 Y24.753 I0.587 J0.125
G1 X61.115 Y24.774
X61.273 Y24.783
X61.422 Y24.794
X61.571 Y24.815
X61.718 Y24.846
X61.862 Y24.885
X62.004 Y24.934
X62.144 Y24.99
X62.28 Y25.052
X62.413 Y25.122
X62.543 Y25.197
X62.669 Y25.278
X62.792 Y25.364
X62.911 Y25.454
X63.027 Y25.55
X63.14 Y25.649
X63.249 Y25.752
X63.354 Y25.859
X63.455 Y25.969
X63.554 Y26.083
X63.649 Y26.199
X63.74 Y26.318
X63.828 Y26.44
X63.912 Y26.564
X63.993 Y26.69
X64.071 Y26.818
X64.146 Y26.948
X64.217 Y27.08
X64.285 Y27.214
X64.35 Y27.349
X64.412 Y27.486
X64.471 Y27.623
X64.527 Y27.763
X64.579 Y27.903
X64.629 Y28.045
X64.676 Y28.187
X64.72 Y28.33
X64.762 Y28.475
X64.801 Y28.619
X64.836 Y28.765
X64.87 Y28.911
X64.9 Y29.058
X64.928 Y29.206
X64.954 Y29.353
X64.978 Y29.501
X64.999 Y29.65
X65.017 Y29.799
X65.033 Y29.948
X65.046 Y30.097
X65.058 Y30.247
X65.067 Y30.397
X65.075 Y30.547
X65.08 Y30.696
X65.083 Y30.846
Y30.996
X65.082 Y31.146
X65.079 Y31.296
X65.074 Y31.446
X65.068 Y31.596
X65.059 Y31.746
X65.049 Y31.896
X65.037 Y32.045
X65.023 Y32.194
X65.008 Y32.344
X64.992 Y32.493
X64.974 Y32.642
X64.954 Y32.79
X64.933 Y32.939
X64.911 Y33.087
X64.887 Y33.235
X64.862 Y33.383
X64.836 Y33.531
X64.809 Y33.679
X64.779 Y33.834
X64.747 Y33.999
X64.712 Y34.166
X64.674 Y34.343
X64.632 Y34.533
X64.585 Y34.735
X64.533 Y34.954
X64.475 Y35.193
X64.409 Y35.453
X64.334 Y35.742
X64.242 Y36.081
X64.136 Y36.466
X63.999 Y36.947
X63.825 Y37.543
X63.594 Y38.31
X63.335 Y39.152
X63.201 Y39.574
X63.014 Y40.156
X62.886 Y40.544
X62.745 Y40.961
X62.676 Y41.16
X62.612 Y41.341
X62.544 Y41.527
X62.492 Y41.667
X62.439 Y41.808
X62.384 Y41.947
X62.328 Y42.087
X62.271 Y42.225
X62.212 Y42.363
X62.151 Y42.5
X62.088 Y42.636
X62.023 Y42.771
X61.986 Y42.845
X61.833 Y43.083
X61.635 Y43.286
X61.401 Y43.445
X61.139 Y43.553
X60.861 Y43.607
X58.069 Y43.856
G3 X57.445 Y43.155 I-0.032 J-0.599
G1 X60.538 Y25.271
G3 X61.115 Y24.774 I0.591 J0.102
G1 X63.037 Y24.795
X63.224 Y24.806
X63.404 Y24.832
X63.6 Y24.876
X63.812 Y24.942
X64.038 Y25.033
X64.277 Y25.152
X64.529 Y25.305
X64.79 Y25.492
X65.059 Y25.72
X65.334 Y25.994
X65.909 Y26.668
X66.608 Y27.213
X67.399 Y27.611
X68.237 Y27.9
X69.099 Y28.106
X69.973 Y28.252
X70.853 Y28.356
X71.736 Y28.429
X72.621 Y28.48
X73.506 Y28.516
X74.392 Y28.541
X75.278 Y28.559
X76.164 Y28.571
X77.05 Y28.58
X77.936 Y28.586
X78.822 Y28.59
X80.595 Y28.595
X83.253 Y28.598
X84.09 Y28.599
X84.226 Y28.664
X84.35 Y28.747
X84.471 Y28.847
X84.609 Y28.981
X84.762 Y29.155
X84.93 Y29.38
X85.111 Y29.669
X85.304 Y30.04
X85.508 Y30.523
X85.722 Y31.17
X85.931 Y32.031
X86.075 Y32.905
X86.087 Y33.015
X86.043 Y33.158
X85.967 Y33.288
X85.877 Y33.408
X85.762 Y33.538
X85.609 Y33.683
X85.411 Y33.844
X85.156 Y34.018
X84.83 Y34.205
X84.408 Y34.404
X83.852 Y34.613
X83.092 Y34.831
X82.224 Y35.006
X81.346 Y35.126
X80.463 Y35.21
X79.579 Y35.267
X78.694 Y35.308
X77.808 Y35.336
X76.922 Y35.355
X76.036 Y35.369
X75.15 Y35.378
X74.264 Y35.385
X73.378 Y35.389
X71.606 Y35.395
X69.834 Y35.397
X68.98 Y35.636
X68.246 Y36.132
X67.627 Y36.767
X67.102 Y37.481
X66.649 Y38.242
X66.247 Y39.032
X65.88 Y39.838
X65.533 Y40.653
X65.189 Y41.47
X64.831 Y42.281
X64.658 Y42.61
X64.507 Y42.84
X64.313 Y43.036
X64.085 Y43.19
X63.831 Y43.297
X63.562 Y43.352
X62.725 Y43.438
X61.92 Y43.512
X60.861 Y43.607
G3 X60.233 Y42.933 I-0.032 J-0.599
G1 X62.456 Y25.32
G3 X63.037 Y24.795 I0.595 J0.075
G1 X64.939 Y24.816
X65.208 Y24.832
X66.085 Y24.957
X66.95 Y25.152
X67.815 Y25.345
X68.684 Y25.518
X69.558 Y25.665
X70.435 Y25.786
X71.316 Y25.882
X72.199 Y25.959
X73.083 Y26.018
X73.968 Y26.063
X74.854 Y26.098
X75.739 Y26.124
X76.625 Y26.144
X77.511 Y26.159
X78.397 Y26.169
X79.283 Y26.178
X80.169 Y26.184
X81.056 Y26.188
X81.942 Y26.191
X82.567 Y26.217
X83.049 Y26.275
X83.47 Y26.361
X83.859 Y26.474
X84.23 Y26.614
X84.59 Y26.785
X84.943 Y26.988
X85.286 Y27.224
X85.626 Y27.5
X85.971 Y27.831
X86.311 Y28.213
X86.638 Y28.647
X86.983 Y29.189
X87.297 Y29.784
X87.58 Y30.444
X87.734 Y30.901
X87.827 Y31.272
X87.884 Y31.617
X87.91 Y31.926
X87.911 Y32.222
X87.889 Y32.514
X87.843 Y32.803
X87.772 Y33.094
X87.676 Y33.388
X87.55 Y33.687
X87.397 Y33.983
X87.21 Y34.282
X86.977 Y34.595
X86.71 Y34.9
X86.39 Y35.211
X85.999 Y35.534
X85.562 Y35.84
X85.014 Y36.16
X84.388 Y36.463
X83.614 Y36.763
X82.764 Y37.015
X81.9 Y37.209
X81.026 Y37.357
X80.147 Y37.47
X79.265 Y37.554
X78.381 Y37.618
X77.496 Y37.666
X76.611 Y37.701
X75.725 Y37.727
X74.839 Y37.747
X73.953 Y37.761
X73.067 Y37.771
X72.182 Y37.803
X71.334 Y38.063
X70.568 Y38.507
X69.891 Y39.079
X69.296 Y39.736
X68.769 Y40.448
X68.29 Y41.194
X67.837 Y41.955
X67.371 Y42.709
X67.224 Y42.861
X67.04 Y42.966
X66.834 Y43.017
X63.562 Y43.352
G3 X62.923 Y42.704 I-0.04 J-0.599
G1 X64.355 Y25.366
G3 X64.939 Y24.816 I0.598 J0.049
G1 X69.768 Y24.866
X73.39 Y24.9
X81.439 Y24.963
X83.653 Y24.976
X84.063 Y24.999
X84.419 Y25.047
X84.8 Y25.131
X85.205 Y25.255
X85.61 Y25.415
X86.028 Y25.621
X86.462 Y25.88
X86.905 Y26.195
X87.335 Y26.556
X87.774 Y26.989
X88.214 Y27.498
X88.607 Y28.036
X88.943 Y28.583
X89.221 Y29.129
X89.442 Y29.666
X89.609 Y30.186
X89.727 Y30.693
X89.803 Y31.195
X89.837 Y31.693
X89.832 Y32.188
X89.787 Y32.68
X89.702 Y33.168
X89.576 Y33.655
X89.408 Y34.14
X89.197 Y34.624
X88.939 Y35.102
X88.637 Y35.57
X88.283 Y36.032
X87.863 Y36.497
X87.371 Y36.961
X86.814 Y37.407
X86.192 Y37.828
X85.456 Y38.245
X84.652 Y38.619
X83.823 Y38.931
X82.975 Y39.189
X82.114 Y39.4
X81.245 Y39.571
X80.37 Y39.709
X79.49 Y39.818
X78.608 Y39.904
X77.725 Y39.972
X76.84 Y40.025
X75.955 Y40.067
X75.07 Y40.099
X74.189 Y40.203
X73.348 Y40.479
X72.572 Y40.907
X71.869 Y41.446
X71.227 Y42.058
X71.097 Y42.2
X70.913 Y42.367
X70.703 Y42.499
X70.473 Y42.591
X70.231 Y42.642
X68.762 Y42.815
X68.158 Y42.881
X66.834 Y43.017
G3 X66.37 Y41.993 I-0.04 J-0.599
G1 X83.011 Y25.386
X83.246 Y25.151
G3 X83.653 Y24.976 I0.424 J0.425
G1 X86.671 Y24.993
X86.84 Y25.002
X87.091 Y25.036
X87.363 Y25.096
X87.672 Y25.191
X87.987 Y25.315
X88.339 Y25.489
X88.696 Y25.702
X89.068 Y25.966
X89.457 Y26.292
X89.829 Y26.66
X90.19 Y27.078
X90.535 Y27.549
X90.851 Y28.063
X91.13 Y28.612
X91.368 Y29.19
X91.561 Y29.791
X91.705 Y30.411
X91.801 Y31.044
X91.845 Y31.688
X91.838 Y32.339
X91.778 Y32.995
X91.664 Y33.651
X91.495 Y34.306
X91.271 Y34.954
X90.991 Y35.593
X90.65 Y36.227
X90.242 Y36.859
X89.765 Y37.481
X89.216 Y38.088
X88.584 Y38.684
X87.893 Y39.239
X87.16 Y39.738
X86.393 Y40.18
X85.81 Y40.464
X85.679 Y40.52
X85.543 Y40.563
X85.403 Y40.591
X80.232 Y41.364
X79.922 Y41.407
X74.799 Y42.096
X74.195 Y42.174
X73.793 Y42.222
X70.231 Y42.642
G3 X69.758 Y41.619 I-0.049 J-0.598
G1 X86.029 Y25.402
X86.265 Y25.167
G3 X86.671 Y24.993 I0.424 J0.425
G1 X89.086 Y25.006
X89.236 Y25.014
X89.47 Y25.049
X89.714 Y25.105
X89.987 Y25.192
X90.271 Y25.308
X90.582 Y25.465
X90.895 Y25.657
X91.237 Y25.905
