(1001)
(T16  D=6 CR=0 - ZMIN=-17 - Schaftfraser)
G90 G94
G17
G21
(When using Fusion 360 for Personal Use, the feedrate of)
(rapid moves is reduced to match the feedrate of cutting)
(moves, which can increase machining time. Unrestricted rapid)
(moves are available with a Fusion 360 Subscription.)
G28 G91 Z0
G90

(2D Adaptive1)
T16
S4000 M3
G54
G0 X-17.048 Y33.592
Z5
G1 Z3 F1000
Z2.55
G3 X-16.264 Y39.237 Z2.237 I0.392 J2.823 F333.3
X-17.048 Y33.592 Z1.925 I-0.392 J-2.823
X-16.264 Y39.237 Z1.612 I0.392 J2.823
X-17.048 Y33.592 Z1.299 I-0.392 J-2.823
X-16.264 Y39.237 Z0.987 I0.392 J2.823
X-17.048 Y33.592 Z0.674 I-0.392 J-2.823
X-16.264 Y39.237 Z0.361 I0.392 J2.823
X-17.048 Y33.592 Z0.049 I-0.392 J-2.823
X-16.264 Y39.237 Z-0.264 I0.392 J2.823
X-17.048 Y33.592 Z-0.577 I-0.392 J-2.823
X-16.264 Y39.237 Z-0.889 I0.392 J2.823
X-17.048 Y33.592 Z-1.202 I-0.392 J-2.823
X-16.264 Y39.237 Z-1.515 I0.392 J2.823
X-17.048 Y33.592 Z-1.827 I-0.392 J-2.823
X-16.264 Y39.237 Z-2.14 I0.392 J2.823
X-17.048 Y33.592 Z-2.453 I-0.392 J-2.823
X-16.264 Y39.237 Z-2.765 I0.392 J2.823
X-17.048 Y33.592 Z-3.078 I-0.392 J-2.823
X-16.264 Y39.237 Z-3.391 I0.392 J2.823
X-17.048 Y33.592 Z-3.703 I-0.392 J-2.823
X-16.264 Y39.237 Z-4.016 I0.392 J2.823
X-17.048 Y33.592 Z-4.329 I-0.392 J-2.823
X-16.264 Y39.237 Z-4.641 I0.392 J2.823
X-17.048 Y33.592 Z-4.954 I-0.392 J-2.823
X-16.264 Y39.237 Z-5.267 I0.392 J2.823
X-17.048 Y33.592 Z-5.579 I-0.392 J-2.823
X-16.264 Y39.237 Z-5.892 I0.392 J2.823
X-17.048 Y33.592 Z-6.205 I-0.392 J-2.823
X-16.264 Y39.237 Z-6.517 I0.392 J2.823
X-17.048 Y33.592 Z-6.83 I-0.392 J-2.823
X-13.806 Y36.415 Z-7 I0.392 J2.823
X-19.506 Y36.415 I-2.85 J0
X-13.806 Y36.415 I2.85 J0
G1 X-13.802 Y36.636 F1000
X-13.65 Y37.509
X-13.599 Y37.65
X-13.565 Y37.796
X-13.547 Y37.945
X-13.543 Y38.095
X-13.551 Y38.249
X-13.573 Y38.412
X-13.611 Y38.584
X-13.665 Y38.763
X-13.738 Y38.948
X-13.83 Y39.135
X-13.942 Y39.324
X-14.075 Y39.511
X-14.229 Y39.695
X-14.404 Y39.873
X-14.601 Y40.043
X-14.817 Y40.201
X-15.053 Y40.347
X-15.307 Y40.476
X-15.578 Y40.588
X-15.863 Y40.68
X-16.162 Y40.75
X-16.471 Y40.797
X-16.788 Y40.819
X-17.112 Y40.816
X-17.439 Y40.786
X-17.767 Y40.73
X-18.093 Y40.646
X-18.414 Y40.535
X-18.728 Y40.398
X-19.033 Y40.235
X-19.326 Y40.046
X-19.604 Y39.833
X-19.866 Y39.597
X-20.109 Y39.34
X-20.332 Y39.063
X-20.532 Y38.767
X-20.709 Y38.456
X-20.861 Y38.13
X-20.986 Y37.792
X-21.084 Y37.445
X-21.154 Y37.09
X-21.195 Y36.73
X-21.208 Y36.368
X-21.191 Y36.005
X-21.145 Y35.644
X-21.07 Y35.288
X-20.967 Y34.938
X-20.836 Y34.598
X-20.678 Y34.269
X-20.494 Y33.954
X-20.285 Y33.654
X-20.053 Y33.372
X-19.798 Y33.109
X-19.524 Y32.868
X-19.23 Y32.649
X-18.92 Y32.455
X-18.596 Y32.286
X-18.259 Y32.143
X-17.911 Y32.028
X-17.555 Y31.941
X-17.193 Y31.884
X-16.828 Y31.855
X-16.462 Y31.856
X-16.097 Y31.886
X-15.735 Y31.945
X-15.38 Y32.033
X-15.032 Y32.15
X-14.695 Y32.294
X-14.371 Y32.464
X-14.061 Y32.66
X-13.768 Y32.88
X-13.494 Y33.124
X-13.24 Y33.388
X-13.008 Y33.672
X-12.8 Y33.973
X-12.504 Y34.485
X-12.16 Y35.207
X-11.953 Y35.752
X-11.811 Y36.239
X-11.719 Y36.689
X-11.665 Y37.122
X-11.647 Y37.542
X-11.663 Y37.949
X-11.71 Y38.347
X-11.788 Y38.735
X-11.897 Y39.115
X-12.036 Y39.484
X-12.205 Y39.843
X-12.403 Y40.19
X-12.631 Y40.522
X-12.887 Y40.838
X-13.17 Y41.135
X-13.48 Y41.412
X-13.815 Y41.667
X-14.175 Y41.897
X-14.558 Y42.1
X-14.961 Y42.274
X-15.383 Y42.418
X-15.82 Y42.528
X-16.27 Y42.604
X-16.73 Y42.644
X-17.197 Y42.647
X-17.667 Y42.612
X-18.137 Y42.539
X-18.604 Y42.427
X-19.063 Y42.277
X-19.512 Y42.09
X-19.948 Y41.865
X-20.366 Y41.605
X-20.765 Y41.311
X-21.14 Y40.983
X-21.49 Y40.625
X-21.811 Y40.239
X-22.101 Y39.826
X-22.358 Y39.39
X-22.58 Y38.933
X-22.766 Y38.458
X-22.912 Y37.969
X-23.02 Y37.469
X-23.086 Y36.961
X-23.112 Y36.447
X-23.097 Y35.933
X-23.04 Y35.421
X-22.943 Y34.915
X-22.805 Y34.417
X-22.627 Y33.932
X-22.41 Y33.462
X-22.157 Y33.011
X-21.868 Y32.581
X-21.545 Y32.175
X-21.19 Y31.797
X-20.806 Y31.448
X-20.396 Y31.131
X-19.96 Y30.848
X-19.504 Y30.601
X-19.029 Y30.391
X-18.538 Y30.22
X-18.036 Y30.088
X-17.524 Y29.998
X-17.007 Y29.949
X-16.487 Y29.941
X-15.968 Y29.975
X-15.454 Y30.051
X-14.947 Y30.168
X-14.451 Y30.325
X-13.97 Y30.521
X-13.506 Y30.756
X-13.062 Y31.027
X-12.641 Y31.332
X-12.212 Y31.7
X-11.766 Y32.149
X-11.347 Y32.645
X-10.959 Y33.188
X-10.615 Y33.76
X-10.325 Y34.345
X-10.089 Y34.936
X-9.905 Y35.53
X-9.773 Y36.122
X-9.69 Y36.713
X-9.656 Y37.3
X-9.668 Y37.881
X-9.727 Y38.454
X-9.831 Y39.017
X-9.979 Y39.567
X-10.17 Y40.102
X-10.403 Y40.62
X-10.678 Y41.119
X-10.993 Y41.595
X-11.347 Y42.047
X-11.738 Y42.471
X-12.164 Y42.866
X-12.625 Y43.227
X-13.117 Y43.553
X-13.638 Y43.841
X-14.185 Y44.088
X-14.754 Y44.292
X-15.344 Y44.451
X-15.948 Y44.563
X-16.565 Y44.627
X-17.189 Y44.641
X-17.816 Y44.605
X-18.443 Y44.518
X-19.064 Y44.38
X-19.676 Y44.191
X-20.275 Y43.953
X-20.856 Y43.666
X-21.414 Y43.331
X-21.947 Y42.951
X-22.449 Y42.527
X-22.918 Y42.063
X-23.35 Y41.56
X-23.741 Y41.023
X-24.089 Y40.454
X-24.391 Y39.857
X-24.645 Y39.237
X-24.849 Y38.596
X-25.001 Y37.94
X-25.1 Y37.273
X-25.145 Y36.598
X-25.136 Y35.922
X-25.072 Y35.247
X-24.955 Y34.579
X-24.784 Y33.921
X-24.561 Y33.279
X-24.286 Y32.657
X-23.963 Y32.058
X-23.592 Y31.486
X-23.176 Y30.946
X-22.718 Y30.441
X-22.221 Y29.974
X-21.687 Y29.549
X-21.121 Y29.167
X-20.526 Y28.832
X-19.906 Y28.545
X-19.265 Y28.31
X-18.607 Y28.126
X-17.936 Y27.996
X-17.257 Y27.92
X-16.574 Y27.899
X-15.891 Y27.933
X-15.213 Y28.021
X-14.544 Y28.164
X-13.889 Y28.36
X-13.252 Y28.608
X-12.627 Y28.91
X-12.006 Y29.275
X-11.398 Y29.702
X-10.81 Y30.19
X-10.25 Y30.735
X-9.729 Y31.331
X-9.256 Y31.97
X-8.837 Y32.643
X-8.474 Y33.344
X-8.172 Y34.067
X-7.93 Y34.805
X-7.75 Y35.554
X-7.632 Y36.308
X-7.575 Y37.064
X-7.579 Y37.817
X-7.643 Y38.562
X-7.766 Y39.297
X-7.947 Y40.018
X-8.185 Y40.72
X-8.478 Y41.401
X-8.825 Y42.056
X-9.225 Y42.683
X-9.675 Y43.277
X-10.173 Y43.836
X-10.716 Y44.354
X-11.302 Y44.83
X-11.928 Y45.26
X-12.59 Y45.64
X-13.285 Y45.968
X-14.008 Y46.241
X-14.755 Y46.455
X-15.522 Y46.611
X-16.303 Y46.704
X-17.093 Y46.735
X-17.888 Y46.703
X-18.682 Y46.606
X-19.469 Y46.444
X-20.245 Y46.22
X-21.004 Y45.932
X-21.74 Y45.582
X-22.449 Y45.173
X-23.126 Y44.707
X-23.765 Y44.185
X-24.363 Y43.612
X-24.914 Y42.991
X-25.416 Y42.326
X-25.863 Y41.621
X-26.254 Y40.881
X-26.584 Y40.109
X-26.852 Y39.312
X-27.056 Y38.495
X-27.193 Y37.662
X-27.264 Y36.82
X-27.266 Y35.973
X-27.201 Y35.128
X-27.068 Y34.29
X-26.868 Y33.465
X-26.602 Y32.658
X-26.272 Y31.874
X-25.879 Y31.119
X-25.427 Y30.397
X-24.919 Y29.713
X-24.357 Y29.072
X-23.745 Y28.478
X-23.087 Y27.935
X-22.387 Y27.446
X-21.65 Y27.015
X-20.881 Y26.645
X-20.084 Y26.337
X-19.265 Y26.094
X-18.429 Y25.917
X-18.039 Y25.867
X-17.994 Y25.862
X-17.949 Y25.859
X-17.903 Y25.857
X-17.435 Y25.843
X-17.032 Y25.833
X-16.146 Y25.855
X-15.366 Y25.905
X-14.574 Y26.019
X-13.777 Y26.201
X-12.979 Y26.451
X-12.185 Y26.772
X-11.401 Y27.166
X-10.643 Y27.625
X-9.924 Y28.143
X-9.248 Y28.715
X-8.616 Y29.337
X-8.033 Y30.004
X-7.503 Y30.714
X-7.027 Y31.462
X-6.61 Y32.243
X-6.251 Y33.054
X-5.955 Y33.889
X-5.722 Y34.744
X-5.555 Y35.614
X-5.454 Y36.494
X-5.42 Y37.38
X-5.455 Y38.265
X-5.557 Y39.145
X-5.727 Y40.015
X-5.964 Y40.869
X-6.266 Y41.702
X-6.632 Y42.509
X-7.06 Y43.285
X-7.546 Y44.026
X-8.088 Y44.727
X-8.682 Y45.384
X-9.325 Y45.994
X-10.013 Y46.553
X-10.03 Y46.565
X-10.263 Y46.695
X-10.516 Y46.779
X-10.78 Y46.813
X-16.227 Y46.995
X-16.428 Y47
X-21.258 Y47.094
X-21.582 Y47.084
X-21.973 Y47.041
X-22.371 Y46.963
X-22.842 Y46.832
X-23.317 Y46.658
X-23.848 Y46.413
X-24.415 Y46.094
X-24.971 Y45.719
X-25.557 Y45.252
X-26.149 Y44.696
X-26.726 Y44.06
X-27.266 Y43.36
X-27.748 Y42.617
X-28.171 Y41.838
X-28.534 Y41.03
X-28.836 Y40.197
X-29.078 Y39.344
X-29.258 Y38.477
X-29.378 Y37.599
X-29.437 Y36.714
X-29.432 Y35.828
X-29.365 Y34.945
X-29.235 Y34.068
X-29.044 Y33.203
X-28.794 Y32.353
X-28.486 Y31.522
X-28.122 Y30.714
X-27.703 Y29.933
X-27.23 Y29.184
X-26.705 Y28.47
X-26.132 Y27.794
X-25.514 Y27.159
X-24.853 Y26.569
X-24.577 Y26.354
X-24.332 Y26.2
X-24.06 Y26.101
X-23.774 Y26.059
X-21.66 Y25.974
X-21.057 Y25.953
X-17.903 Y25.857
X-17.807 Y25.865
X-17.713 Y25.889
G2 X-17.331 Y25.89 I0.193 J-0.568
G3 X-17.032 Y25.833 I0.371 J1.127
G1 X-14.014 Y25.759
X-13.611 Y25.75
X-12.001 Y25.719
X-11.496 Y25.735
X-11.116 Y25.778
X-10.728 Y25.853
X-10.264 Y25.982
X-9.791 Y26.157
X-9.239 Y26.411
X-8.687 Y26.723
X-8.09 Y27.125
X-7.462 Y27.627
X-6.826 Y28.224
X-6.231 Y28.881
X-5.689 Y29.582
X-5.201 Y30.321
X-4.765 Y31.093
X-4.383 Y31.892
X-4.054 Y32.715
X-3.778 Y33.557
X-3.557 Y34.415
X-3.393 Y35.286
X-3.288 Y36.166
X-3.239 Y37.051
X-3.247 Y37.937
X-3.312 Y38.821
X-3.432 Y39.698
X-3.611 Y40.566
X-3.846 Y41.421
X-4.138 Y42.258
X-4.482 Y43.074
X-4.878 Y43.867
X-5.323 Y44.633
X-5.818 Y45.368
X-6.36 Y46.069
X-6.483 Y46.207
X-6.688 Y46.397
X-6.927 Y46.543
X-7.19 Y46.638
X-7.467 Y46.678
X-8.983 Y46.748
X-9.587 Y46.773
X-10.78 Y46.813
G3 X-11.036 Y46.765 I-0.02 J-0.6
G1 X-11.113 Y46.739
X-11.193 Y46.722
X-11.274 Y46.717
X-11.553 Y46.719
X-20.195 Y46.768
G2 X-20.509 Y46.858 I0.003 J0.6
G3 X-21.258 Y47.094 I-0.835 J-1.344
G1 X-22.868 Y47.125
X-23.069 Y47.128
X-24.477 Y47.136
X-24.706 Y47.126
X-24.992 Y47.091
X-25.327 Y47.021
X-25.665 Y46.922
X-26.067 Y46.768
X-26.468 Y46.577
X-26.935 Y46.306
X-27.39 Y45.99
X-27.896 Y45.575
X-28.41 Y45.08
X-28.91 Y44.514
X-29.416 Y43.838
X-29.889 Y43.089
X-30.303 Y42.305
X-30.66 Y41.494
X-30.961 Y40.66
X-31.206 Y39.809
X-31.395 Y38.943
X-31.53 Y38.067
X-31.61 Y37.185
X-31.636 Y36.299
X-31.609 Y35.413
X-31.53 Y34.531
X-31.396 Y33.655
X-31.21 Y32.789
X-30.972 Y31.935
X-30.684 Y31.097
X-30.348 Y30.277
X-29.965 Y29.478
X-29.535 Y28.703
X-29.059 Y27.956
X-28.538 Y27.239
X-28.098 Y26.703
X-27.889 Y26.496
X-27.64 Y26.338
X-27.364 Y26.235
X-27.073 Y26.192
X-23.774 Y26.059
G3 X-23.192 Y26.501 I0.003 J0.6
G1 X-23.167 Y26.592 Z-6.993
X-23.143 Y26.68 Z-6.971
X-23.12 Y26.764 Z-6.935
X-23.098 Y26.841 Z-6.885
X-23.08 Y26.91 Z-6.824
X-23.063 Y26.969 Z-6.753
X-23.05 Y27.017 Z-6.672
X-23.041 Y27.051 Z-6.585
X-23.035 Y27.073 Z-6.494
X-23.033 Y27.08 Z-6.4
Z3
X-13.261 Y26.271
Z-5.8
Z-6.4
X-13.254 Y26.267 Z-6.494
X-13.236 Y26.256 Z-6.585
X-13.205 Y26.237 Z-6.672
X-13.163 Y26.211 Z-6.753
X-13.111 Y26.179 Z-6.824
X-13.05 Y26.141 Z-6.885
X-12.982 Y26.099 Z-6.935
X-12.908 Y26.053 Z-6.971
X-12.83 Y26.004 Z-6.993
X-12.751 Y25.955 Z-7
G3 X-12.001 Y25.719 I0.834 J1.345
G1 X-10.392 Y25.689
X-8.983 Y25.669
X-8.782 Y25.666
X-8.412 Y25.68
X-8.131 Y25.713
X-7.794 Y25.78
X-7.441 Y25.881
X-7.045 Y26.029
X-6.615 Y26.231
X-6.151 Y26.495
X-5.666 Y26.826
X-5.133 Y27.257
X-4.598 Y27.765
X-4.053 Y28.373
X-3.516 Y29.078
X-3.036 Y29.823
X-2.61 Y30.599
X-2.234 Y31.402
X-1.909 Y32.227
X-1.635 Y33.069
X-1.412 Y33.927
X-1.24 Y34.796
X-1.119 Y35.674
X-1.048 Y36.557
X-1.026 Y37.443
X-1.052 Y38.329
X-1.127 Y39.212
X-1.253 Y40.089
X-1.43 Y40.957
X-1.655 Y41.814
X-1.928 Y42.657
X-2.246 Y43.484
X-2.609 Y44.292
X-3.016 Y45.08
X-3.467 Y45.842
X-3.54 Y45.948
X-3.752 Y46.188
X-4.013 Y46.374
X-4.309 Y46.496
X-4.626 Y46.548
X-7.467 Y46.678
G3 X-8.052 Y46.24 I-0.007 J-0.6
G1 X-8.077 Y46.15 Z-6.993
X-8.101 Y46.062 Z-6.971
X-8.125 Y45.978 Z-6.935
X-8.147 Y45.9 Z-6.885
X-8.166 Y45.832 Z-6.824
X-8.182 Y45.773 Z-6.753
X-8.196 Y45.725 Z-6.672
X-8.205 Y45.691 Z-6.585
X-8.211 Y45.669 Z-6.494
X-8.213 Y45.662 Z-6.4
Z3
X-23.211 Y46.601
Z-5.8
Z-6.4
X-23.218 Y46.604 Z-6.494
X-23.237 Y46.616 Z-6.585
X-23.267 Y46.634 Z-6.672
X-23.31 Y46.66 Z-6.753
X-23.362 Y46.691 Z-6.824
X-23.423 Y46.728 Z-6.885
X-23.492 Y46.77 Z-6.935
X-23.566 Y46.815 Z-6.971
X-23.645 Y46.862 Z-6.993
X-23.725 Y46.91 Z-7
G3 X-24.477 Y47.136 I-0.817 J-1.355
G1 X-27.093 Y47.152
X-27.364 Y47.14
X-27.63 Y47.107
X-27.904 Y47.051
X-28.228 Y46.956
X-28.556 Y46.83
X-28.931 Y46.651
X-29.319 Y46.426
X-29.748 Y46.129
X-30.18 Y45.774
X-30.654 Y45.317
X-31.121 Y44.788
X-31.594 Y44.157
X-32.066 Y43.41
X-32.477 Y42.625
X-32.83 Y41.812
X-33.128 Y40.978
X-33.374 Y40.126
X-33.568 Y39.262
X-33.71 Y38.387
X-33.803 Y37.506
X-33.847 Y36.621
X-33.843 Y35.735
X-33.792 Y34.85
X-33.695 Y33.969
X-33.552 Y33.095
X-33.363 Y32.229
X-33.129 Y31.375
X-32.85 Y30.533
X-32.528 Y29.708
X-32.164 Y28.9
X-31.759 Y28.112
X-31.314 Y27.345
X-31.05 Y26.944
X-30.886 Y26.74
X-30.688 Y26.57
X-30.461 Y26.44
X-30.214 Y26.355
X-29.956 Y26.316
X-29.709 Y26.303
X-29.106 Y26.275
X-27.073 Y26.192
G3 X-26.491 Y26.634 I0.003 J0.6
G1 X-26.466 Y26.725 Z-6.993
X-26.442 Y26.813 Z-6.971
X-26.419 Y26.897 Z-6.935
X-26.398 Y26.974 Z-6.885
X-26.379 Y27.043 Z-6.824
X-26.363 Y27.102 Z-6.753
X-26.35 Y27.15 Z-6.672
X-26.34 Y27.184 Z-6.585
X-26.334 Y27.206 Z-6.494
X-26.332 Y27.213 Z-6.4
Z3
X-10.044 Y26.211
Z-5.8
Z-6.4
X-10.038 Y26.207 Z-6.494
X-10.019 Y26.196 Z-6.585
X-9.988 Y26.177 Z-6.672
X-9.946 Y26.151 Z-6.753
X-9.894 Y26.119 Z-6.824
X-9.833 Y26.082 Z-6.885
X-9.765 Y26.04 Z-6.935
X-9.69 Y25.995 Z-6.971
X-9.612 Y25.947 Z-6.993
X-9.532 Y25.898 Z-7
G3 X-8.782 Y25.666 I0.827 J1.349
G1 X-6.971 Y25.642
X-6.166 Y25.635
X-5.965 Y25.633
X-5.708 Y25.645
X-5.432 Y25.679
X-5.152 Y25.737
X-4.821 Y25.834
X-4.472 Y25.968
X-4.09 Y26.15
X-3.675 Y26.391
X-3.233 Y26.697
X-2.772 Y27.075
X-2.271 Y27.559
X-1.761 Y28.136
X-1.251 Y28.817
X-0.778 Y29.567
X-0.361 Y30.349
X0.002 Y31.157
X0.315 Y31.986
X0.579 Y32.832
X0.795 Y33.691
X0.966 Y34.561
X1.091 Y35.438
X1.17 Y36.321
X1.203 Y37.206
X1.193 Y38.092
X1.138 Y38.977
X1.04 Y39.857
X0.898 Y40.732
X0.714 Y41.599
X0.487 Y42.455
X0.217 Y43.299
X-0.093 Y44.129
X-0.444 Y44.943
X-0.782 Y45.623
X-0.856 Y45.746
X-1.018 Y45.965
X-1.219 Y46.147
X-1.452 Y46.288
X-1.707 Y46.381
X-1.975 Y46.423
X-2.343 Y46.443
X-4.626 Y46.548
G3 X-5.231 Y45.987 I-0.007 J-0.6
G1 X-6.539 Y26.273
G3 X-5.965 Y25.633 I0.599 J-0.04
G1 X-3.349 Y25.618
X-3.185 Y25.625
X-2.941 Y25.655
X-2.668 Y25.712
X-2.353 Y25.804
X-2.036 Y25.925
X-1.662 Y26.104
X-1.291 Y26.319
X-0.864 Y26.616
X-0.444 Y26.96
X0.023 Y27.409
X0.504 Y27.955
X0.982 Y28.592
X1.455 Y29.342
X1.868 Y30.126
X2.227 Y30.936
X2.535 Y31.767
X2.796 Y32.613
X3.011 Y33.473
X3.183 Y34.342
X3.311 Y35.219
X3.397 Y36.101
X3.441 Y36.986
X3.444 Y37.872
X3.407 Y38.758
X3.33 Y39.64
X3.215 Y40.519
X3.062 Y41.392
X2.87 Y42.257
X2.641 Y43.113
X2.373 Y43.958
X2.068 Y44.789
X1.796 Y45.397
X1.712 Y45.551
X1.552 Y45.784
X1.348 Y45.981
X1.109 Y46.132
X0.844 Y46.232
X0.564 Y46.277
X-1.975 Y46.423
G3 X-2.587 Y45.864 I-0.013 J-0.6
G1 X-3.923 Y26.258
G3 X-3.349 Y25.618 I0.599 J-0.041
G1 X-0.934 Y25.603
X-0.76 Y25.61
X-0.53 Y25.639
X-0.256 Y25.696
X0.031 Y25.78
X0.347 Y25.901
X0.697 Y26.068
X1.057 Y26.277
X1.463 Y26.559
X1.87 Y26.892
X2.309 Y27.315
X2.775 Y27.843
X3.235 Y28.456
X3.705 Y29.203
X4.117 Y29.988
X4.472 Y30.8
X4.776 Y31.632
X5.034 Y32.48
X5.247 Y33.34
X5.417 Y34.209
X5.547 Y35.086
X5.637 Y35.968
X5.688 Y36.852
X5.701 Y37.738
X5.676 Y38.624
X5.615 Y39.508
X5.518 Y40.389
X5.386 Y41.265
X5.219 Y42.135
X5.018 Y42.998
X4.783 Y43.853
X4.507 Y44.689
X4.276 Y45.235
X4.199 Y45.384
X4.04 Y45.625
X3.835 Y45.828
X3.592 Y45.985
X3.323 Y46.089
X3.037 Y46.135
X0.564 Y46.277
G3 X-0.048 Y45.722 I-0.013 J-0.6
G1 X-1.508 Y26.247
G3 X-0.934 Y25.603 I0.598 J-0.045
G1 X-0.129 Y25.598
X0.475 Y25.597
X1.481 Y25.599
X1.63 Y25.607
X1.78 Y25.616
X1.929 Y25.633
X2.077 Y25.658
X2.224 Y25.69
X2.369 Y25.728
X2.512 Y25.772
X2.653 Y25.822
X2.793 Y25.878
X2.931 Y25.937
X3.066 Y26.002
X3.199 Y26.071
X3.33 Y26.144
X3.459 Y26.221
X3.585 Y26.302
X3.71 Y26.386
X3.832 Y26.473
X3.952 Y26.563
X4.069 Y26.656
X4.184 Y26.752
X4.297 Y26.851
X4.409 Y26.952
X4.517 Y27.055
X4.624 Y27.16
X4.729 Y27.268
X4.831 Y27.377
X4.931 Y27.489
X5.029 Y27.602
X5.126 Y27.717
X5.22 Y27.834
X5.313 Y27.952
X5.403 Y28.072
X5.491 Y28.193
X5.578 Y28.316
X5.662 Y28.439
X5.745 Y28.564
X5.827 Y28.69
X5.906 Y28.818
X5.983 Y28.946
X6.059 Y29.076
X6.133 Y29.206
X6.206 Y29.337
X6.277 Y29.47
X6.346 Y29.603
X6.413 Y29.737
X6.479 Y29.871
X6.543 Y30.007
X6.606 Y30.143
X6.668 Y30.28
X6.728 Y30.417
X6.786 Y30.556
X6.843 Y30.694
X6.899 Y30.834
X6.953 Y30.974
X7.005 Y31.114
X7.057 Y31.255
X7.107 Y31.396
X7.155 Y31.538
X7.202 Y31.681
X7.248 Y31.824
X7.293 Y31.967
X7.336 Y32.11
X7.378 Y32.254
X7.419 Y32.399
X7.458 Y32.543
X7.497 Y32.689
X7.534 Y32.834
X7.57 Y32.98
X7.604 Y33.125
X7.638 Y33.272
X7.67 Y33.418
X7.701 Y33.565
X7.73 Y33.712
X7.76 Y33.865
X7.788 Y34.013
X7.814 Y34.16
X7.839 Y34.308
X7.863 Y34.456
X7.887 Y34.609
X7.91 Y34.77
X7.931 Y34.92
X7.951 Y35.069
X7.969 Y35.218
X7.986 Y35.367
X8.003 Y35.523
X8.02 Y35.69
X8.035 Y35.857
X8.048 Y36.007
X8.06 Y36.156
X8.07 Y36.31
X8.08 Y36.472
X8.09 Y36.644
X8.098 Y36.821
X8.104 Y36.971
X8.109 Y37.121
X8.113 Y37.279
X8.116 Y37.446
X8.118 Y37.624
X8.119 Y37.807
X8.118 Y37.957
X8.117 Y38.111
X8.114 Y38.275
X8.109 Y38.448
X8.103 Y38.632
X8.096 Y38.815
X8.088 Y38.967
X8.08 Y39.126
X8.069 Y39.295
X8.057 Y39.474
X8.042 Y39.665
X8.027 Y39.839
X8.013 Y39.994
X7.996 Y40.158
X7.978 Y40.332
X7.956 Y40.518
X7.933 Y40.714
X7.912 Y40.873
X7.89 Y41.032
X7.866 Y41.201
X7.839 Y41.38
X7.808 Y41.571
X7.777 Y41.757
X7.752 Y41.904
X7.724 Y42.055
X7.694 Y42.215
X7.661 Y42.383
X7.624 Y42.563
X7.586 Y42.739
X7.554 Y42.885
X7.521 Y43.031
X7.486 Y43.177
X7.45 Y43.323
X7.413 Y43.468
X7.374 Y43.613
X7.334 Y43.758
X7.293 Y43.902
X7.25 Y44.046
X7.205 Y44.189
X7.158 Y44.331
X7.109 Y44.473
X7.058 Y44.614
X7.005 Y44.754
X6.949 Y44.893
X6.889 Y45.031
X6.819 Y45.186
X6.664 Y45.437
X6.459 Y45.65
X6.215 Y45.816
X5.942 Y45.927
X5.651 Y45.977
X5.103 Y46.014
X4.298 Y46.063
X3.037 Y46.135
G3 X2.426 Y45.582 I-0.013 J-0.6
G1 X0.902 Y26.246
G3 X1.481 Y25.599 I0.598 J-0.047
G1 X3.895 Y25.604
X4.102 Y25.615
X4.333 Y25.646
X4.589 Y25.701
X4.867 Y25.785
X5.171 Y25.904
X5.5 Y26.065
X5.691 Y26.178
X5.897 Y26.259
X6.329 Y26.354
X7.214 Y26.305
X8.066 Y26.061
X8.862 Y25.735
X9.037 Y25.677
X9.218 Y25.642
X9.403 Y25.631
G3 X9.374 Y26.831 I-0.026 J0.599
G1 X3.912 Y26.804
G3 X3.895 Y25.604 I0.003 J-0.6
G1 X6.511 Y25.61
X7.316 Y25.615
X13.353 Y25.663
X13.755 Y25.666
X13.905 Y25.675
X14.109 Y25.705
X14.352 Y25.761
X14.554 Y25.825
X14.736 Y25.899
X14.948 Y26.006
X15.193 Y26.155
X15.346 Y26.266
X15.517 Y26.413
X15.71 Y26.607
X15.877 Y26.805
X16.003 Y26.979
X16.137 Y27.202
X16.277 Y27.484
X16.353 Y27.674
X16.426 Y27.911
X16.492 Y28.203
X16.528 Y28.46
X16.542 Y28.695
X16.536 Y28.98
X16.505 Y29.283
X16.464 Y29.504
X16.394 Y29.766
X16.284 Y30.076
X16.19 Y30.283
X16.066 Y30.51
X15.894 Y30.771
X15.728 Y30.983
X15.561 Y31.164
X15.342 Y31.366
X15.103 Y31.555
X14.907 Y31.684
X14.66 Y31.821
X14.353 Y31.96
X14.143 Y32.036
X13.882 Y32.106
X13.561 Y32.166
X13.341 Y32.189
X13.127 Y32.246
X12.722 Y32.427
X12.065 Y33.022
X11.603 Y33.778
X11.282 Y34.604
X11.058 Y35.461
X10.896 Y36.332
X10.77 Y37.209
X10.662 Y38.089
X10.557 Y38.969
X10.446 Y39.848
X10.322 Y40.725
X10.179 Y41.6
X10.012 Y42.47
X9.814 Y43.334
X9.574 Y44.187
X9.369 Y44.746
X9.25 Y45.003
X9.097 Y45.259
X8.892 Y45.478
X8.645 Y45.648
X8.368 Y45.761
X8.074 Y45.813
X5.651 Y45.977
G3 X5.057 Y45.552 I-0.02 J-0.6
G1 X5.03 Y45.462 Z-6.993
X5.003 Y45.375 Z-6.971
X4.978 Y45.291 Z-6.935
X4.955 Y45.214 Z-6.885
X4.934 Y45.146 Z-6.824
X4.916 Y45.087 Z-6.753
X4.902 Y45.04 Z-6.672
X4.891 Y45.006 Z-6.585
X4.885 Y44.985 Z-6.494
X4.883 Y44.978 Z-6.4
Z3
X12.67 Y26.129
Z-5.8
Z-6.4
X12.676 Y26.125 Z-6.494
X12.695 Y26.114 Z-6.585
X12.727 Y26.096 Z-6.672
X12.769 Y26.071 Z-6.753
X12.822 Y26.04 Z-6.824
X12.884 Y26.004 Z-6.885
X12.953 Y25.964 Z-6.935
X13.028 Y25.92 Z-6.971
X13.108 Y25.874 Z-6.993
X13.189 Y25.827 Z-7
G3 X13.755 Y25.666 I0.597 J1.026
G1 X15.476 Y25.685
X15.627 Y25.694
X15.776 Y25.715
X15.929 Y25.75
X16.1 Y25.803
X16.273 Y25.872
X16.446 Y25.959
X16.625 Y26.067
X16.809 Y26.199
X16.987 Y26.35
X17.163 Y26.525
X17.332 Y26.723
X17.492 Y26.944
X17.638 Y27.185
X17.772 Y27.451
X17.887 Y27.734
X17.982 Y28.037
X18.056 Y28.36
X18.105 Y28.695
X18.126 Y29.036
X18.121 Y29.385
X18.086 Y29.746
X18.021 Y30.109
X17.926 Y30.469
X17.8 Y30.828
X17.641 Y31.185
X17.455 Y31.526
X17.24 Y31.855
X16.993 Y32.174
X16.722 Y32.472
X16.428 Y32.746
X15.734 Y33.296
X15.106 Y33.921
X14.591 Y34.642
X14.179 Y35.427
X13.851 Y36.25
X13.587 Y37.096
X13.367 Y37.954
X13.176 Y38.819
X13.001 Y39.688
X12.83 Y40.558
X12.656 Y41.426
X12.469 Y42.293
X12.262 Y43.154
X12.017 Y44.006
X11.807 Y44.576
X11.684 Y44.841
X11.53 Y45.097
X11.325 Y45.314
X11.079 Y45.483
X10.802 Y45.596
X10.508 Y45.648
X8.074 Y45.813
G3 X7.496 Y44.994 I-0.02 J-0.6
G1 X14.902 Y26.142
X14.932 Y26.065
G3 X15.476 Y25.685 I0.558 J0.219
G1 X16.975 Y25.701
X17.149 Y25.711
X17.299 Y25.722
X17.447 Y25.744
X17.593 Y25.779
X17.736 Y25.824
X17.875 Y25.879
X18.011 Y25.943
X18.143 Y26.014
X18.271 Y26.093
X18.394 Y26.179
X18.513 Y26.271
X18.626 Y26.368
X18.736 Y26.471
X18.84 Y26.579
X18.94 Y26.691
X19.034 Y26.807
X19.124 Y26.927
X19.209 Y27.051
X19.289 Y27.178
X19.364 Y27.308
X19.435 Y27.44
X19.5 Y27.575
X19.561 Y27.712
X19.617 Y27.851
X19.669 Y27.992
X19.715 Y28.135
X19.757 Y28.279
X19.795 Y28.424
X19.828 Y28.57
X19.856 Y28.717
X19.88 Y28.866
X19.9 Y29.014
X19.915 Y29.163
X19.926 Y29.313
X19.933 Y29.463
X19.936 Y29.613
X19.934 Y29.763
X19.929 Y29.913
X19.919 Y30.062
X19.905 Y30.212
X19.888 Y30.361
X19.866 Y30.509
X19.841 Y30.657
X19.812 Y30.804
X19.779 Y30.951
X19.743 Y31.096
X19.703 Y31.241
X19.659 Y31.384
X19.612 Y31.527
X19.562 Y31.668
X19.508 Y31.808
X19.451 Y31.947
X19.39 Y32.084
X19.326 Y32.22
X19.259 Y32.354
X19.189 Y32.486
X19.116 Y32.617
X19.04 Y32.747
X18.961 Y32.874
X18.881 Y33.001
X18.798 Y33.126
X18.653 Y33.344
X18.153 Y34.076
X17.674 Y34.821
X17.245 Y35.596
X16.87 Y36.399
X16.546 Y37.224
X16.265 Y38.064
X16.015 Y38.915
X15.788 Y39.771
X15.573 Y40.631
X15.362 Y41.491
X15.253 Y41.921
X15.19 Y42.165
X15.132 Y42.386
X15.066 Y42.625
X15.011 Y42.82
X14.97 Y42.964
X14.927 Y43.108
X14.883 Y43.251
X14.838 Y43.394
X14.791 Y43.537
X14.743 Y43.679
X14.693 Y43.82
X14.642 Y43.961
X14.589 Y44.101
X14.533 Y44.241
X14.475 Y44.379
X14.414 Y44.516
X14.34 Y44.673
X14.186 Y44.919
X13.985 Y45.128
X13.745 Y45.291
X13.477 Y45.401
X13.192 Y45.453
X11.944 Y45.55
X11.743 Y45.564
X10.508 Y45.648
G3 X9.922 Y44.852 I-0.02 J-0.6
G1 X16.404 Y26.159
X16.423 Y26.104
G3 X16.975 Y25.701 I0.567 J0.197
G1 X18.695 Y25.719
X18.845 Y25.728
X18.995 Y25.741
X19.143 Y25.766
X19.288 Y25.802
X19.431 Y25.848
X19.57 Y25.903
X19.707 Y25.967
X19.839 Y26.037
X19.967 Y26.115
X20.091 Y26.199
X20.211 Y26.289
X20.327 Y26.385
X20.438 Y26.485
X20.545 Y26.591
X20.647 Y26.7
X20.746 Y26.814
X20.839 Y26.931
X21.397 Y27.619
X22.125 Y28.124
X22.933 Y28.489
X23.779 Y28.751
X24.646 Y28.937
X25.522 Y29.069
X26.403 Y29.162
X27.287 Y29.228
X28.172 Y29.274
X29.057 Y29.307
X29.943 Y29.33
X30.829 Y29.346
X31.715 Y29.357
X32.601 Y29.365
X33.487 Y29.371
X34.374 Y29.375
X36.146 Y29.379
X39.247 Y29.383
X39.535
X39.679 Y29.424
X39.812 Y29.493
X39.937 Y29.576
X40.054 Y29.67
X40.164 Y29.772
X40.268 Y29.88
X40.366 Y29.994
X40.458 Y30.112
X40.545 Y30.234
X40.628 Y30.359
X40.706 Y30.487
X40.779 Y30.618
X40.849 Y30.751
X40.915 Y30.886
X40.977 Y31.022
X41.036 Y31.16
X41.092 Y31.299
X41.145 Y31.44
X41.195 Y31.581
X41.242 Y31.723
X41.287 Y31.867
X41.33 Y32.01
X41.37 Y32.155
X41.408 Y32.3
X41.445 Y32.445
X41.479 Y32.591
X41.511 Y32.738
X41.542 Y32.885
X41.572 Y33.032
X41.599 Y33.179
X41.626 Y33.327
X41.651 Y33.475
X41.674 Y33.623
X41.697 Y33.771
X41.729 Y33.998
X41.739 Y34.072
X41.688 Y34.213
X41.615 Y34.344
X41.528 Y34.467
X41.433 Y34.582
X41.329 Y34.691
X41.219 Y34.793
X41.104 Y34.89
X40.985 Y34.981
X40.862 Y35.066
X40.736 Y35.148
X40.607 Y35.224
X40.476 Y35.297
X40.343 Y35.366
X40.207 Y35.431
X40.07 Y35.492
X39.932 Y35.55
X39.793 Y35.605
X39.652 Y35.657
X39.51 Y35.707
X39.368 Y35.754
X39.225 Y35.798
X39.081 Y35.84
X38.936 Y35.88
X38.791 Y35.918
X38.645 Y35.953
X38.499 Y35.987
X38.353 Y36.019
X38.206 Y36.05
X38.058 Y36.079
X37.911 Y36.106
X37.763 Y36.132
X37.615 Y36.157
X37.467 Y36.18
X37.319 Y36.202
X37.169 Y36.224
X37.01 Y36.245
X36.842 Y36.266
X36.663 Y36.288
X36.472 Y36.309
X36.266 Y36.33
X36.045 Y36.352
X35.805 Y36.373
X35.543 Y36.395
X35.255 Y36.417
X34.935 Y36.438
X34.575 Y36.46
X34.164 Y36.481
X33.686 Y36.503
X33.115 Y36.525
X32.407 Y36.547
X31.521 Y36.567
X30.635 Y36.582
X29.749 Y36.592
X28.863 Y36.599
X27.977 Y36.604
X27.091 Y36.608
X25.47 Y36.612
X25.325 Y36.571
X25.191 Y36.503
X25.066 Y36.42
X24.949 Y36.327
X24.839 Y36.225
X24.735 Y36.117
X24.637 Y36.004
X24.544 Y35.885
X24.457 Y35.763
X24.374 Y35.638
X24.296 Y35.51
X24.223 Y35.379
X24.153 Y35.247
X24.087 Y35.112
X24.025 Y34.975
X23.937 Y34.772
X23.819 Y34.584
X23.673 Y34.418
X23.502 Y34.277
X23.311 Y34.165
X23.105 Y34.084
X22.889 Y34.036
X22.667 Y34.024
X22.447 Y34.046
X22.233 Y34.103
X22.03 Y34.193
X21.288 Y34.676
X20.747 Y35.378
X19.774 Y36.859
X19.352 Y37.638
X18.985 Y38.445
X18.663 Y39.27
X18.372 Y40.107
X18.102 Y40.951
X17.841 Y41.798
X17.576 Y42.644
X17.293 Y43.484
X17.018 Y44.183
X16.875 Y44.476
X16.721 Y44.721
X16.52 Y44.93
X16.28 Y45.093
X16.011 Y45.203
X15.726 Y45.256
X13.192 Y45.453
G3 X12.591 Y44.682 I-0.026 J-0.599
G1 X18.126 Y26.178
X18.135 Y26.147
G3 X18.695 Y25.719 I0.575 J0.172
G1 X20.396 Y25.737
X20.789 Y25.762
X21.667 Y25.886
X22.536 Y26.06
X23.405 Y26.23
X24.278 Y26.383
X25.155 Y26.512
X26.035 Y26.618
X26.917 Y26.703
X27.8 Y26.77
X28.685 Y26.823
X29.57 Y26.863
X30.456 Y26.893
X31.341 Y26.916
X32.227 Y26.934
X33.113 Y26.947
X33.999 Y26.957
X34.886 Y26.964
X35.772 Y26.969
X37.544 Y26.976
X38.176 Y27.012
X38.669 Y27.08
X39.098 Y27.174
X39.498 Y27.297
X39.876 Y27.447
X40.243 Y27.627
X40.6 Y27.841
X40.951 Y28.091
X41.299 Y28.383
X41.641 Y28.721
X41.981 Y29.116
X42.318 Y29.577
X42.652 Y30.121
X42.982 Y30.771
X43.272 Y31.477
X43.425 Y31.954
X43.512 Y32.327
X43.564 Y32.678
X43.586 Y33
X43.583 Y33.31
X43.554 Y33.614
X43.502 Y33.915
X43.424 Y34.217
X43.32 Y34.518
X43.186 Y34.823
X43.021 Y35.128
X42.821 Y35.437
X42.582 Y35.749
X42.299 Y36.062
X41.963 Y36.379
X41.566 Y36.697
X41.094 Y37.016
X40.53 Y37.334
X39.846 Y37.652
X39.014 Y37.959
X38.162 Y38.2
X37.296 Y38.389
X36.422 Y38.536
X35.543 Y38.65
X34.662 Y38.738
X33.778 Y38.806
X32.893 Y38.858
X32.008 Y38.898
X31.123 Y38.928
X30.237 Y38.951
X29.351 Y38.968
X28.465 Y38.98
X27.579 Y38.99
X26.919 Y38.967
X26.423 Y38.91
X25.987 Y38.824
X25.59 Y38.712
X25.175 Y38.558
X24.736 Y38.493
X24.295 Y38.533
X23.443 Y38.776
X22.696 Y39.252
X22.059 Y39.869
X21.52 Y40.571
X21.054 Y41.326
X20.641 Y42.11
X20.259 Y42.909
X19.882 Y43.711
X19.531 Y44.389
X19.328 Y44.643
X19.071 Y44.843
X18.776 Y44.979
X18.457 Y45.042
X15.726 Y45.256
G3 X15.119 Y44.507 I-0.026 J-0.599
G1 X19.827 Y26.196
X19.829 Y26.188
G3 X20.396 Y25.737 I0.581 J0.149
G1 X27.841 Y25.82
X32.469 Y25.867
X35.89 Y25.9
X39.512 Y25.928
X39.844 Y25.948
X40.182 Y25.995
X40.541 Y26.074
X40.928 Y26.194
X41.317 Y26.349
X41.719 Y26.548
X42.144 Y26.802
X42.57 Y27.107
X42.991 Y27.462
X43.431 Y27.898
X43.87 Y28.41
X44.272 Y28.961
X44.615 Y29.523
X44.897 Y30.08
X45.121 Y30.63
X45.294 Y31.172
X45.416 Y31.701
X45.493 Y32.219
X45.527 Y32.73
X45.52 Y33.236
X45.473 Y33.738
X45.385 Y34.237
X45.256 Y34.733
X45.084 Y35.225
X44.87 Y35.71
X44.612 Y36.188
X44.302 Y36.665
X43.936 Y37.141
X43.504 Y37.617
X43.008 Y38.082
X42.457 Y38.521
X41.798 Y38.966
X41.036 Y39.395
X40.231 Y39.766
X39.402 Y40.078
X38.555 Y40.339
X37.696 Y40.554
X36.827 Y40.73
X35.953 Y40.873
X35.074 Y40.988
X34.193 Y41.081
X33.31 Y41.155
X32.426 Y41.213
X31.541 Y41.259
X30.655 Y41.295
X29.77 Y41.323
X28.883 Y41.336
X27.998 Y41.316
X27.115 Y41.242
X26.23 Y41.288
X25.393 Y41.581
X24.644 Y42.054
X23.982 Y42.643
X23.392 Y43.304
X22.681 Y44.22
X22.482 Y44.427
X22.246 Y44.59
X21.982 Y44.701
X21.7 Y44.755
X18.987 Y44.997
X18.483 Y45.04
X18.457 Y45.042
G3 X18.041 Y43.986 I-0.028 J-0.599
G1 X38.851 Y26.316
X39.14 Y26.071
G3 X39.512 Y25.928 I0.388 J0.457
G1 X42.329 Y25.951
X42.556 Y25.964
X42.798 Y25.998
X43.071 Y26.058
X43.37 Y26.15
X43.685 Y26.276
X44.03 Y26.447
X44.387 Y26.661
X44.755 Y26.924
X45.142 Y27.25
X45.513 Y27.618
X45.874 Y28.039
X46.221 Y28.515
X46.54 Y29.037
X46.823 Y29.597
X47.064 Y30.186
X47.259 Y30.798
X47.405 Y31.429
X47.5 Y32.074
X47.544 Y32.728
X47.535 Y33.39
X47.472 Y34.054
X47.355 Y34.717
X47.183 Y35.378
X46.956 Y36.032
X46.67 Y36.681
X46.32 Y37.326
X45.905 Y37.966
X45.423 Y38.592
X44.862 Y39.21
X44.216 Y39.816
X43.523 Y40.369
X42.79 Y40.867
X42.022 Y41.309
X41.227 Y41.699
X40.409 Y42.04
X39.573 Y42.336
X38.724 Y42.59
X37.865 Y42.806
X36.998 Y42.989
X36.125 Y43.143
X35.249 Y43.271
X34.369 Y43.377
X33.487 Y43.464
X32.604 Y43.535
X31.72 Y43.593
X30.834 Y43.636
X29.949 Y43.66
X29.063 Y43.657
X28.185 Y43.779
X27.35 Y44.076
X27.285 Y44.112
X27.114 Y44.193
X26.933 Y44.25
X26.747 Y44.282
X25.225 Y44.438
X24.42 Y44.512
X21.7 Y44.755
G3 X21.279 Y43.699 I-0.032 J-0.599
G1 X41.668 Y26.339
X41.957 Y26.094
G3 X42.329 Y25.951 I0.389 J0.457
G1 X44.14 Y25.965
X44.744 Y25.968
X44.896 Y25.976
X45.123 Y26.008
X45.367 Y26.061
X45.632 Y26.142
X45.918 Y26.255
X46.22 Y26.404
X46.536 Y26.593
X46.873 Y26.832
X47.203 Y27.109
X47.552 Y27.453
X47.89 Y27.845
X48.214 Y28.287
X48.528 Y28.798
X48.819 Y29.371
X49.073 Y29.988
X49.282 Y30.64
X49.445 Y31.338
X49.556 Y32.076
X49.609 Y32.844
X49.6 Y33.634
X49.526 Y34.439
X49.385 Y35.252
X49.174 Y36.071
X48.891 Y36.891
X48.535 Y37.702
X48.116 Y38.483
X47.637 Y39.229
X47.102 Y39.935
X46.518 Y40.601
X45.887 Y41.224
X45.217 Y41.804
X45.191 Y41.824
X44.994 Y41.948
X44.779 Y42.038
X44.553 Y42.092
X42.732 Y42.364
X42.422 Y42.407
X37.299 Y43.096
X36.695 Y43.174
X36.293 Y43.222
X31.262 Y43.815
X30.658 Y43.881
X26.747 Y44.282
G3 X26.294 Y43.248 I-0.04 J-0.599
G1 X44.097 Y26.372
X44.349 Y26.132
G3 X44.744 Y25.968 I0.413 J0.435
G1 X46.958 Y25.98
X47.107 Y25.989
X47.323 Y26.02
X47.553 Y26.072
X47.811 Y26.153
X48.074 Y26.26
X48.369 Y26.408
X48.665 Y26.588
X48.985 Y26.82
X49.309 Y27.096
X49.636 Y27.424
X49.976 Y27.825
X50.29 Y28.262
X50.6 Y28.775
X50.896 Y29.369
X51.156 Y30.014
X51.371 Y30.707
X51.544 Y31.474
X51.662 Y32.301
X51.715 Y33.176
X51.698 Y34.062
X51.612 Y34.944
X51.461 Y35.817
X51.244 Y36.676
X50.966 Y37.518
X50.63 Y38.338
X50.24 Y39.134
X49.799 Y39.902
X49.31 Y40.641
X49.021 Y41.022
X48.838 Y41.22
X48.62 Y41.379
X48.376 Y41.494
X48.114 Y41.559
X44.553 Y42.092
G3 X43.893 Y41.397 I-0.068 J-0.596
G1 X46.383 Y26.481
G3 X46.958 Y25.98 I0.592 J0.099
G1 X48.97 Y25.992
X49.206 Y26.005
X49.415 Y26.033
X49.637 Y26.082
X49.887 Y26.158
X50.142 Y26.259
X50.43 Y26.401
X50.715 Y26.571
X51.034 Y26.798
X51.345 Y27.059
X51.676 Y27.385
X52.008 Y27.77
X52.326 Y28.205
X52.65 Y28.733
X52.948 Y29.318
X53.216 Y29.97
X53.457 Y30.72
X53.651 Y31.552
X53.783 Y32.428
X53.846 Y33.312
X53.841 Y34.198
X53.772 Y35.082
X53.644 Y35.959
X53.459 Y36.825
X53.221 Y37.679
X52.931 Y38.516
X52.593 Y39.335
X52.206 Y40.132
X52.054 Y40.401
X51.87 Y40.656
X51.634 Y40.864
X51.357 Y41.013
X51.054 Y41.097
X48.769 Y41.46
X48.114 Y41.559
G3 X47.447 Y40.924 I-0.068 J-0.596
G1 X48.389 Y26.552
G3 X48.97 Y25.992 I0.599 J0.039
G1 X51.093 Y26.003
X51.293 Y26.014
X51.494 Y26.042
X51.719 Y26.092
X51.962 Y26.166
X52.222 Y26.268
X52.505 Y26.408
X52.796 Y26.582
X53.109 Y26.804
X53.428 Y27.072
X53.755 Y27.394
X54.095 Y27.789
X54.417 Y28.229
X54.753 Y28.775
X55.059 Y29.377
X55.34 Y30.06
X55.591 Y30.842
X55.793 Y31.705
X55.925 Y32.582
X55.993 Y33.465
X55.998 Y34.351
X55.945 Y35.236
X55.837 Y36.115
X55.678 Y36.987
X55.47 Y37.848
X55.215 Y38.697
X54.915 Y39.531
X54.772 Y39.852
X54.635 Y40.092
X54.453 Y40.301
X54.234 Y40.47
X53.987 Y40.592
X53.719 Y40.664
X51.787 Y40.98
X51.054 Y41.097
G3 X50.381 Y40.496 I-0.073 J-0.595
G1 X50.51 Y26.598
G3 X51.093 Y26.003 I0.6 J0.006
G1 X52.592 Y26.011
X53.196 Y26.013
X53.364 Y26.022
X53.567 Y26.049
X53.791 Y26.098
X54.037 Y26.172
X54.295 Y26.273
X54.583 Y26.415
X54.873 Y26.586
X55.193 Y26.813
X55.51 Y27.077
X55.847 Y27.409
X56.186 Y27.799
X56.522 Y28.256
X56.869 Y28.817
X57.177 Y29.418
X57.471 Y30.128
X57.733 Y30.94
X57.937 Y31.802
X58.075 Y32.678
X58.152 Y33.56
X58.171 Y34.446
X58.135 Y35.332
X58.048 Y36.214
X57.913 Y37.089
X57.732 Y37.957
X57.507 Y38.814
X57.309 Y39.386
X57.29 Y39.429
X57.154 Y39.671
X56.973 Y39.88
X56.754 Y40.05
X56.507 Y40.174
X56.239 Y40.246
X54.805 Y40.486
X53.719 Y40.664
G3 X53.043 Y40.088 I-0.076 J-0.595
G1 X52.615 Y26.632
G3 X53.196 Y26.013 I0.6 J-0.019
G1 X55.208 Y26.019
X55.455 Y26.032
X55.658 Y26.059
X55.884 Y26.108
X56.132 Y26.184
X56.391 Y26.286
X56.685 Y26.429
X56.976 Y26.602
X57.301 Y26.831
X57.62 Y27.098
X57.966 Y27.437
X58.307 Y27.831
X58.653 Y28.301
X59.005 Y28.871
X59.322 Y29.489
X59.625 Y30.222
X59.897 Y31.062
X60.101 Y31.925
X60.242 Y32.8
X60.326 Y33.682
X60.355 Y34.567
X60.333 Y35.453
X60.263 Y36.337
X60.147 Y37.215
X59.984 Y38.086
X59.823 Y38.687
X59.736 Y38.931
X59.608 Y39.198
X59.426 Y39.432
X59.199 Y39.623
X58.937 Y39.761
X58.651 Y39.841
X57.421 Y40.048
X56.239 Y40.246
G3 X55.563 Y39.694 I-0.078 J-0.595
G1 X54.628 Y26.662
G3 X55.208 Y26.019 I0.598 J-0.043
G1 X57.421 Y26.026
X57.571 Y26.034
X57.779 Y26.063
X58.009 Y26.115
X58.263 Y26.195
X58.527 Y26.301
X58.826 Y26.451
X59.123 Y26.631
X59.455 Y26.87
X59.78 Y27.146
X60.133 Y27.498
X60.48 Y27.906
X60.834 Y28.396
X61.192 Y28.987
X61.516 Y29.634
X61.825 Y30.399
X62.09 Y31.244
X62.29 Y32.108
X62.43 Y32.983
X62.515 Y33.865
X62.55 Y34.75
X62.538 Y35.636
X62.478 Y36.52
X62.368 Y37.399
X62.236 Y38.037
X62.088 Y38.54
X62.081 Y38.56
X61.95 Y38.819
X61.768 Y39.045
X61.544 Y39.229
X61.287 Y39.363
X61.008 Y39.441
X58.651 Y39.841
X58.572 Y39.847
G3 X57.974 Y39.3 I0 J-0.6
G1 X56.843 Y26.679
G3 X57.421 Y26.026 I0.598 J-0.054
G1 X59.434 Y26.032
X59.668 Y26.044
X59.883 Y26.073
X60.105 Y26.121
X60.364 Y26.2
X60.624 Y26.302
X60.922 Y26.447
X61.222 Y26.626
X61.554 Y26.86
X61.883 Y27.135
X62.244 Y27.49
X62.587 Y27.885
X62.959 Y28.39
X63.308 Y28.955
X63.648 Y29.619
X63.972 Y30.401
X64.245 Y31.245
X64.454 Y32.106
X64.606 Y32.979
X64.705 Y33.859
X64.754 Y34.744
X64.755 Y35.63
X64.703 Y36.515
X64.612 Y37.23
X64.501 Y37.764
X64.412 Y38.064
X64.291 Y38.351
X64.11 Y38.604
X63.878 Y38.811
X63.605 Y38.961
X63.306 Y39.047
X61.283 Y39.394
X61.008 Y39.441
X60.928 Y39.446
G3 X60.332 Y38.918 I0 J-0.6
G1 X58.857 Y26.703
G3 X59.434 Y26.032 I0.596 J-0.072
G1 X60.842 Y26.036
X61.647
X61.797 Y26.044
X62.011 Y26.073
X62.237 Y26.123
X62.5 Y26.203
X62.764 Y26.307
X63.068 Y26.457
X63.367 Y26.635
X63.707 Y26.876
X64.037 Y27.153
X64.407 Y27.517
X64.755 Y27.92
X65.129 Y28.432
X65.493 Y29.024
X65.839 Y29.702
X66.171 Y30.509
X66.442 Y31.353
X66.652 Y32.214
X66.806 Y33.086
X66.909 Y33.966
X66.961 Y34.851
Y35.737
X66.904 Y36.529
X66.815 Y37.111
X66.699 Y37.601
X66.664 Y37.71
X66.539 Y37.987
X66.358 Y38.231
X66.128 Y38.43
X65.861 Y38.575
X65.569 Y38.659
X63.306 Y39.047
G3 X62.631 Y38.531 I-0.081 J-0.595
G1 X61.073 Y26.714
G3 X61.647 Y26.036 I0.595 J-0.078
G1 X63.659 Y26.038
X63.931 Y26.052
X64.148 Y26.081
X64.372 Y26.129
X64.636 Y26.208
X64.9 Y26.312
X65.202 Y26.458
X65.509 Y26.639
X65.845 Y26.876
X66.184 Y27.158
X66.552 Y27.518
X66.91 Y27.929
X67.293 Y28.448
X67.656 Y29.032
X68.013 Y29.725
X68.354 Y30.543
X68.628 Y31.385
X68.842 Y32.245
X69.002 Y33.117
X69.109 Y33.996
X69.161 Y34.881
X69.151 Y35.761
X69.092 Y36.412
X69.006 Y36.907
X68.919 Y37.244
X68.804 Y37.544
X68.624 Y37.809
X68.388 Y38.026
X68.109 Y38.184
X67.801 Y38.274
X65.569 Y38.659
G3 X64.895 Y38.158 I-0.081 J-0.594
G1 X63.087 Y26.732
G3 X63.659 Y26.038 I0.593 J-0.094
G1 X65.068 Y26.039
X65.873
X66.072 Y26.049
X66.221 Y26.057
X66.37 Y26.074
X66.518 Y26.1
X66.664 Y26.134
X66.809 Y26.174
X66.951 Y26.221
X67.092 Y26.274
X67.23 Y26.332
X67.365 Y26.396
X67.499 Y26.465
X67.63 Y26.538
X67.758 Y26.616
X67.883 Y26.698
X68.006 Y26.784
X68.127 Y26.873
X68.245 Y26.966
X68.361 Y27.062
X68.473 Y27.161
X68.583 Y27.262
X68.691 Y27.367
X68.796 Y27.474
X68.899 Y27.583
X69 Y27.694
X69.098 Y27.808
X69.193 Y27.924
X69.286 Y28.041
X69.377 Y28.161
X69.465 Y28.282
X69.551 Y28.405
X69.636 Y28.529
X69.717 Y28.655
X69.797 Y28.782
X69.874 Y28.911
X69.949 Y29.04
X70.022 Y29.171
X70.093 Y29.303
X70.163 Y29.436
X70.229 Y29.571
X70.294 Y29.706
X70.357 Y29.842
X70.419 Y29.979
X70.478 Y30.117
X70.536 Y30.255
X70.591 Y30.395
X70.645 Y30.535
X70.697 Y30.675
X70.747 Y30.817
X70.795 Y30.959
X70.842 Y31.101
X70.887 Y31.244
X70.931 Y31.388
X70.972 Y31.532
X71.012 Y31.677
X71.05 Y31.822
X71.087 Y31.967
X71.122 Y32.113
X71.156 Y32.259
X71.187 Y32.406
X71.217 Y32.553
X71.245 Y32.7
X71.272 Y32.848
X71.297 Y32.995
X71.321 Y33.144
X71.343 Y33.292
X71.364 Y33.441
X71.382 Y33.589
X71.399 Y33.738
X71.414 Y33.888
X71.427 Y34.037
X71.439 Y34.187
X71.449 Y34.336
X71.456 Y34.486
X71.462 Y34.636
X71.466 Y34.786
X71.468 Y34.936
X71.467 Y35.086
X71.465 Y35.236
X71.46 Y35.386
X71.453 Y35.536
X71.443 Y35.685
X71.431 Y35.835
X71.415 Y35.984
X71.397 Y36.133
X71.376 Y36.281
X71.35 Y36.429
X71.321 Y36.576
X71.289 Y36.723
X71.263 Y36.827
X71.15 Y37.13
X70.97 Y37.4
X70.733 Y37.62
X70.452 Y37.78
X70.141 Y37.872
X67.801 Y38.274
G3 X67.128 Y37.778 I-0.081 J-0.594
G1 X65.302 Y26.736
G3 X65.873 Y26.039 I0.592 J-0.098
G1 X68.086 Y26.038
X68.366 Y26.051
X68.579 Y26.079
X68.813 Y26.129
X69.07 Y26.205
X69.347 Y26.313
X69.546 Y26.409
X69.97 Y26.539
X70.856 Y26.555
X71.711 Y26.322
X72.204 Y26.127
X72.37 Y26.072
X72.541 Y26.039
X72.716 Y26.028
G3 X72.698 Y27.227 I-0.019 J0.6
G1 X68.109 Y27.237
G3 X68.086 Y26.038 I-0.001 J-0.6
G1 X72.111 Y26.03
X75.733 Y26.016
X77.856 Y26.005
X78.011 Y26.012
X78.205 Y26.037
X78.411 Y26.079
X78.557 Y26.122
X78.731 Y26.189
X78.935 Y26.287
X79.13 Y26.4
X79.275 Y26.501
X79.441 Y26.638
X79.628 Y26.818
X79.772 Y26.981
X79.895 Y27.145
X80.027 Y27.354
X80.161 Y27.611
X80.237 Y27.79
X80.311 Y28.014
X80.379 Y28.29
X80.419 Y28.539
X80.437 Y28.762
Y29.033
X80.412 Y29.337
X80.378 Y29.547
X80.316 Y29.798
X80.217 Y30.094
X80.123 Y30.316
X80.009 Y30.534
X79.85 Y30.785
X79.679 Y31.014
X79.524 Y31.19
X79.32 Y31.386
X79.07 Y31.591
X78.887 Y31.718
X78.654 Y31.853
X78.359 Y31.994
X78.131 Y32.081
X77.885 Y32.153
X77.581 Y32.216
X77.301 Y32.251
X77.079 Y32.261
X76.862 Y32.305
X76.448 Y32.462
X75.741 Y32.996
X75.207 Y33.703
X74.793 Y34.487
X74.449 Y35.303
X74.124 Y36.128
X73.916 Y36.594
X73.78 Y36.832
X73.6 Y37.039
X73.384 Y37.207
X73.138 Y37.33
X72.874 Y37.402
X70.141 Y37.872
G3 X69.576 Y36.923 I-0.081 J-0.595
G1 X77.25 Y26.449
X77.396 Y26.25
G3 X77.856 Y26.005 I0.484 J0.355
G1 X79.154 Y25.997
X79.466 Y25.995
X79.615 Y26.002
X79.764 Y26.023
X79.919 Y26.06
X80.077 Y26.111
X80.238 Y26.177
X80.407 Y26.263
X80.579 Y26.369
X80.749 Y26.494
X80.922 Y26.643
X81.089 Y26.814
X81.247 Y27.003
X81.397 Y27.213
X81.539 Y27.453
X81.664 Y27.709
X81.772 Y27.982
X81.86 Y28.27
X81.928 Y28.581
X81.971 Y28.903
X81.989 Y29.234
X81.98 Y29.58
X81.943 Y29.932
X81.876 Y30.283
X81.78 Y30.633
X81.655 Y30.98
X81.496 Y31.328
X81.312 Y31.659
X81.099 Y31.978
X80.853 Y32.289
X80.584 Y32.578
X80.293 Y32.845
X79.974 Y33.093
X79.233 Y33.579
X78.568 Y34.164
X77.986 Y34.833
X77.471 Y35.554
X77.026 Y36.237
X76.845 Y36.461
X76.622 Y36.643
X76.366 Y36.776
X76.089 Y36.853
X72.874 Y37.402
G3 X72.292 Y36.479 I-0.081 J-0.595
G1 X78.87 Y26.447
X78.989 Y26.266
G3 X79.466 Y25.995 I0.502 J0.329
G1 X80.874 Y25.985
X81.031 Y25.992
X81.18 Y26.011
X81.327 Y26.042
X81.489 Y26.09
X81.657 Y26.155
X81.831 Y26.238
X82.015 Y26.346
X82.196 Y26.472
X82.381 Y26.625
X82.568 Y26.806
X82.744 Y27.007
X82.916 Y27.238
X83.081 Y27.501
X83.229 Y27.786
X83.36 Y28.095
X83.472 Y28.435
X83.561 Y28.803
X83.623 Y29.188
X83.654 Y29.587
X83.653 Y30.006
X83.616 Y30.441
X83.543 Y30.886
X83.43 Y31.339
X83.278 Y31.792
X83.087 Y32.239
X82.857 Y32.677
X82.587 Y33.103
X82.054 Y33.81
X81.473 Y34.479
X80.903 Y35.158
X80.441 Y35.747
X80.264 Y35.934
X80.055 Y36.086
X79.822 Y36.197
X79.572 Y36.264
X76.739 Y36.742
X76.089 Y36.853
X76.009 Y36.859
X76.008
G3 X75.473 Y35.988 I0 J-0.6
G1 X80.297 Y26.447
X80.364 Y26.314
G3 X80.874 Y25.985 I0.535 J0.271
G1 X82.373 Y25.974
X82.528 Y25.98
X82.679 Y25.998
X82.834 Y26.03
X83.008 Y26.081
X83.184 Y26.148
X83.373 Y26.237
X83.571 Y26.351
X83.767 Y26.487
X83.975 Y26.656
X84.174 Y26.848
X84.374 Y27.072
X84.571 Y27.334
X84.752 Y27.619
X84.921 Y27.94
X85.076 Y28.303
X85.207 Y28.691
X85.31 Y29.105
X85.384 Y29.557
X85.425 Y30.042
X85.426 Y30.549
X85.386 Y31.066
X85.301 Y31.599
X85.168 Y32.147
X84.963 Y32.77
X84.695 Y33.407
X84.286 Y34.193
X83.823 Y34.949
X83.707 Y35.123
X83.525 Y35.344
X83.302 Y35.523
X83.047 Y35.653
X82.771 Y35.728
X80.965 Y36.029
X79.572 Y36.264
G3 X78.922 Y35.486 I-0.079 J-0.595
G1 X81.811 Y26.442
X81.828 Y26.39
G3 X82.373 Y25.974 I0.572 J0.183
G1 X83.983 Y25.96
X84.133 Y25.966
X84.292 Y25.987
X84.461 Y26.024
X84.648 Y26.08
X84.837 Y26.155
X85.046 Y26.257
X85.253 Y26.379
X85.475 Y26.536
X85.695 Y26.719
X85.914 Y26.935
X86.138 Y27.193
X86.347 Y27.476
X86.55 Y27.806
X86.743 Y28.182
X86.909 Y28.582
X87.054 Y29.028
X87.171 Y29.522
X87.252 Y30.051
X87.292 Y30.6
X87.286 Y31.201
X87.229 Y31.852
X87.11 Y32.546
X86.922 Y33.286
X86.644 Y34.096
X86.484 Y34.465
X86.348 Y34.708
X86.166 Y34.92
X85.945 Y35.092
X85.695 Y35.216
X85.426 Y35.288
X83.178 Y35.661
X82.771 Y35.728
G3 X82.101 Y35.042 I-0.078 J-0.595
G1 X83.416 Y26.468
G3 X83.983 Y25.96 I0.593 J0.091
G1 X85.593 Y25.944
X85.78 Y25.951
X85.942 Y25.971
X86.123 Y26.008
X86.311 Y26.062
X86.52 Y26.141
X86.731 Y26.241
X86.962 Y26.374
X87.189 Y26.529
X87.431 Y26.726
X87.668 Y26.953
X87.906 Y27.221
X88.147 Y27.539
X88.366 Y27.884
X88.578 Y28.285
X88.774 Y28.741
X88.937 Y29.224
X89.074 Y29.771
X89.177 Y30.385
X89.231 Y31.029
X89.234 Y31.721
X89.176 Y32.49
X89.066 Y33.185
X88.937 Y33.721
X88.856 Y33.969
X88.729 Y34.247
X88.545 Y34.491
X88.313 Y34.69
X88.042 Y34.833
X87.748 Y34.915
X85.426 Y35.288
G3 X84.75 Y34.673 I-0.076 J-0.595
G1 X85.02 Y26.523
G3 X85.593 Y25.944 I0.6 J0.02
G1 X87.404 Y25.925
X87.554 Y25.931
X87.727 Y25.955
X87.921 Y25.998
X88.122 Y26.06
X88.346 Y26.149
X88.571 Y26.26
X88.819 Y26.409
X89.062 Y26.582
X89.324 Y26.802
X89.576 Y27.052
X89.834 Y27.353
X90.091 Y27.705
X90.329 Y28.094
X90.563 Y28.555
X90.771 Y29.064
X90.947 Y29.617
X91.095 Y30.256
X91.198 Y30.948
X91.245 Y31.65
X91.237 Y32.287
X91.184 Y32.849
X91.106 Y33.292
X91.043 Y33.537
X90.926 Y33.838
X90.743 Y34.105
X90.504 Y34.322
X90.221 Y34.479
X89.91 Y34.567
X87.748 Y34.915
G3 X87.073 Y34.338 I-0.074 J-0.595
G1 X86.832 Y26.543
G3 X87.404 Y25.925 I0.6 J-0.019
G1 X89.215 Y25.904
X89.365 Y25.91
X89.553 Y25.936
X89.747 Y25.98
X89.968 Y26.048
X90.19 Y26.137
X90.44 Y26.261
X90.687 Y26.409
X90.959 Y26.604
X91.222 Y26.826
X91.503 Y27.105
X91.774 Y27.422
X92.046 Y27.795
X92.317 Y28.239
X92.557 Y28.716
X92.782 Y29.269
X92.975 Y29.877
X93.122 Y30.516
X93.217 Y31.157
X93.255 Y31.744
X93.248 Y32.279
X93.207 Y32.702
X93.134 Y33.118
X93.111 Y33.206
X92.994 Y33.507
X92.811 Y33.773
X92.572 Y33.99
X92.289 Y34.147
X91.978 Y34.235
X89.91 Y34.567
G3 X89.237 Y34.019 I-0.074 J-0.595
G1 X88.645 Y26.551
G3 X89.215 Y25.904 I0.598 J-0.047
G1 X91.026 Y25.884
X91.2 Y25.89
X91.381 Y25.912
X91.588 Y25.954
X91.8 Y26.015
X92.043 Y26.106
X92.285 Y26.22
X92.554 Y26.374
X92.82 Y26.557
X93.108 Y26.79
X93.393 Y27.062
X93.683 Y27.386
X93.977 Y27.775
X94.247 Y28.197
X94.507 Y28.688
X94.742 Y29.232
X94.939 Y29.812
X95.087 Y30.401
X95.187 Y30.996
X95.231 Y31.509
X95.234 Y31.993
X95.204 Y32.388
X95.143 Y32.781
X95.125 Y32.857
X95.035 Y33.116
X94.896 Y33.353
X94.714 Y33.558
X94.495 Y33.724
X94.249 Y33.844
X93.983 Y33.913
X92.636 Y34.129
X91.978 Y34.235
G3 X91.308 Y33.71 I-0.074 J-0.595
G1 X90.458 Y26.554
G3 X91.026 Y25.884 I0.596 J-0.071
G1 X92.948 Y25.862
X93.12 Y25.869
X93.31 Y25.891
X93.521 Y25.934
X93.743 Y25.998
X93.987 Y26.09
X94.24 Y26.209
X94.513 Y26.366
X94.793 Y26.558
X95.083 Y26.793
X95.384 Y27.08
X95.672 Y27.403
X95.966 Y27.792
X96.246 Y28.231
X96.498 Y28.706
X96.721 Y29.223
X96.907 Y29.772
X97.047 Y30.329
X97.139 Y30.874
X97.18 Y31.354
X97.182 Y31.764
X97.152 Y32.164
X97.098 Y32.509
X97.087 Y32.557
X96.996 Y32.818
X96.856 Y33.056
X96.672 Y33.262
X96.452 Y33.427
X96.203 Y33.547
X95.936 Y33.615
X94.246 Y33.872
X93.983 Y33.913
G3 X93.315 Y33.399 I-0.073 J-0.595
G1 X92.381 Y26.542
G3 X92.948 Y25.862 I0.595 J-0.081
G1 X94.849 Y25.841
X95.082 Y25.85
X95.272 Y25.873
X95.487 Y25.916
X95.709 Y25.98
X95.961 Y26.075
X96.213 Y26.194
X96.491 Y26.353
X96.77 Y26.545
X97.061 Y26.78
X97.361 Y27.067
X97.646 Y27.386
X97.935 Y27.767
X98.21 Y28.2
X98.456 Y28.664
X98.67 Y29.16
X98.845 Y29.677
X98.979 Y30.207
X99.061 Y30.694
X99.1 Y31.149
X99.102 Y31.536
X99.073 Y31.917
X99.021 Y32.253
X99.018 Y32.264
X98.927 Y32.525
X98.788 Y32.762
X98.604 Y32.968
X98.383 Y33.134
X98.134 Y33.253
X97.867 Y33.321
X95.936 Y33.615
G3 X95.273 Y33.108 I-0.069 J-0.596
G1 X94.283 Y26.529
G3 X94.849 Y25.841 I0.593 J-0.089
G1 X96.258 Y25.825
X96.861 Y25.82
X97.057 Y25.828
X97.247 Y25.851
X97.462 Y25.895
X97.685 Y25.96
X97.935 Y26.054
X98.189 Y26.175
X98.464 Y26.333
X98.744 Y26.526
X99.029 Y26.758
X99.326 Y27.043
X99.607 Y27.359
X99.885 Y27.728
X100.15 Y28.145
X100.389 Y28.598
X100.592 Y29.073
X100.759 Y29.567
X100.884 Y30.07
X100.958 Y30.515
X100.994 Y30.943
X100.995 Y31.317
X100.967 Y31.677
X100.937 Y31.868
X100.861 Y32.152
X100.727 Y32.414
X100.541 Y32.642
X100.312 Y32.826
X100.049 Y32.958
X99.765 Y33.033
X97.867 Y33.321
G3 X97.204 Y32.811 I-0.069 J-0.596
G1 X96.294 Y26.505
G3 X96.861 Y25.82 I0.594 J-0.086
G1 X98.672 Y25.804
X98.874 Y25.803
X99.028 Y25.809
X99.218 Y25.833
X99.43 Y25.876
X99.653 Y25.941
X99.898 Y26.035
X100.151 Y26.155
X100.419 Y26.311
X100.699 Y26.504
X100.975 Y26.73
X101.265 Y27.009
X101.542 Y27.322
X101.809 Y27.678
X102.061 Y28.076
X102.289 Y28.51
X102.483 Y28.966
X102.642 Y29.44
X102.754 Y29.893
X102.827 Y30.338
X102.858 Y30.716
Y31.098
X102.832 Y31.427
X102.806 Y31.586
X102.73 Y31.87
X102.596 Y32.131
X102.41 Y32.358
X102.181 Y32.542
X101.919 Y32.674
X101.635 Y32.748
X99.765 Y33.033
G3 X99.1 Y32.515 I-0.069 J-0.596
G1 X98.304 Y26.48
G3 X98.874 Y25.803 I0.595 J-0.078
G1 X100.795 Y25.789
X100.984 Y25.797
X101.173 Y25.821
X101.38 Y25.864
X101.602 Y25.929
X101.839 Y26.019
X102.091 Y26.14
X102.349 Y26.29
X102.626 Y26.481
X102.893 Y26.7
X103.172 Y26.968
X103.445 Y27.278
X103.7 Y27.617
X103.94 Y27.998
X104.155 Y28.409
X104.341 Y28.846
X104.491 Y29.297
X104.596 Y29.721
X104.664 Y30.141
X104.693 Y30.502
X104.694 Y30.867
X104.668 Y31.187
X104.648 Y31.312
X104.57 Y31.597
X104.435 Y31.859
X104.247 Y32.087
X104.016 Y32.271
X103.752 Y32.402
X103.466 Y32.475
X102.846 Y32.564
X101.635 Y32.748
G3 X100.97 Y32.229 I-0.069 J-0.596
G1 X100.225 Y26.465
G3 X100.795 Y25.789 I0.595 J-0.077
G1 X102.697 Y25.779
X102.917 Y25.789
X103.107 Y25.813
X103.306 Y25.855
X103.528 Y25.92
X103.756 Y26.008
X104.007 Y26.128
X104.255 Y26.272
X104.523 Y26.459
X104.786 Y26.675
X105.051 Y26.931
X105.314 Y27.23
X105.563 Y27.563
X105.791 Y27.925
X105.994 Y28.315
X106.171 Y28.731
X106.313 Y29.16
X106.411 Y29.558
X106.474 Y29.948
X106.501 Y30.299
Y30.646
X106.476 Y30.958
X106.46 Y31.057
X106.381 Y31.342
X106.245 Y31.605
X106.057 Y31.832
X105.826 Y32.016
X105.56 Y32.146
X105.274 Y32.218
X103.466 Y32.475
G3 X102.805 Y31.952 I-0.065 J-0.596
G1 X102.125 Y26.453
G3 X102.697 Y25.779 I0.595 J-0.074
G1 X103.703 Y25.775
X104.709 Y25.772
X104.859 Y25.779
X105.053 Y25.808
X105.251 Y25.854
X105.474 Y25.925
X105.7 Y26.018
X105.945 Y26.142
X106.195 Y26.295
X106.449 Y26.48
X106.713 Y26.707
X106.966 Y26.962
X107.211 Y27.253
X107.446 Y27.582
X107.661 Y27.94
X107.851 Y28.324
X108.011 Y28.727
X108.13 Y29.114
X108.216 Y29.502
X108.264 Y29.848
X108.284 Y30.198
X108.277 Y30.514
X108.244 Y30.828
X108.243 Y30.835
X108.161 Y31.113
X108.023 Y31.368
X107.835 Y31.59
X107.606 Y31.768
X107.345 Y31.895
X107.063 Y31.965
X105.274 Y32.218
G3 X104.613 Y31.676 I-0.063 J-0.597
G1 X104.134 Y26.426
G3 X104.709 Y25.772 I0.598 J-0.055
G1 X106.52 Y25.768
X106.698 Y25.777
X106.879 Y25.801
X107.072 Y25.842
X107.284 Y25.905
X107.502 Y25.99
X107.741 Y26.105
X107.976 Y26.244
X108.229 Y26.421
X108.478 Y26.627
X108.721 Y26.864
X108.963 Y27.14
X109.191 Y27.449
X109.4 Y27.784
X109.585 Y28.142
X109.601 Y28.18
X109.661 Y28.355
X109.698 Y28.536
X109.71 Y28.721
G3 X108.707 Y29.144 I-0.6 J-0.021
G1 X106.138 Y26.812
G3 X106.52 Y25.768 I0.403 J-0.444
G1 X108.331 Y25.767
X108.536 Y25.777
X108.805 Y25.841
X109.056 Y25.959
X109.278 Y26.126
X109.461 Y26.334
X109.597 Y26.575
X109.682 Y26.84
X109.71 Y27.115
G3 X108.695 Y27.527 I-0.6 J-0.021
G1 X107.937 Y26.8
G3 X108.331 Y25.767 I0.415 J-0.433
G1 X108.935
X109.136 Y25.769
X109.237 Y25.784
X109.287 Y25.799
X109.337 Y25.819
X109.424 Y25.866
X109.51 Y25.935
X109.539 Y25.963
X109.577 Y26.006
X109.609 Y26.05
X109.657 Y26.136
X109.677 Y26.187
X109.692 Y26.237
X109.708 Y26.337
X109.71 Y26.538
Y30.556
X109.7 Y30.762
X109.625 Y31.043
X109.48 Y31.296
X109.275 Y31.502
X109.024 Y31.65
X108.744 Y31.727
G3 X108.207 Y30.763 I-0.063 J-0.597
G1 X108.636 Y30.209
G3 X109.71 Y30.556 I0.474 J0.368
G1 Y30.957
X109.702 Y31.158
X109.676 Y31.259
X109.656 Y31.309
X109.63 Y31.359
X109.591 Y31.42
X109.539 Y31.48
X109.491 Y31.524
X109.442 Y31.56
X109.39 Y31.593
X109.337 Y31.62
X109.287 Y31.64
X109.237 Y31.654
X109.136 Y31.672
X107.063 Y31.965
G3 X106.44 Y31.584 I-0.063 J-0.597
G1 X106.406 Y31.497 Z-6.993
X106.373 Y31.411 Z-6.971
X106.342 Y31.33 Z-6.935
X106.313 Y31.255 Z-6.885
X106.287 Y31.188 Z-6.824
X106.265 Y31.131 Z-6.753
X106.247 Y31.085 Z-6.672
X106.235 Y31.052 Z-6.585
X106.227 Y31.031 Z-6.494
X106.224 Y31.024 Z-6.4
Z3
X-25.827 Y46.617
Z-5.8
Z-6.4
X-25.834 Y46.62 Z-6.494
X-25.852 Y46.632 Z-6.585
X-25.883 Y46.65 Z-6.672
X-25.925 Y46.676 Z-6.753
X-25.978 Y46.707 Z-6.824
X-26.039 Y46.744 Z-6.885
X-26.108 Y46.786 Z-6.935
X-26.182 Y46.831 Z-6.971
X-26.261 Y46.878 Z-6.993
X-26.341 Y46.926 Z-7
G3 X-27.093 Y47.152 I-0.817 J-1.355
G1 X-29.106 Y47.164
X-29.508 Y47.163
X-29.866 Y47.145
X-30.101 Y47.114
X-30.379 Y47.053
X-30.667 Y46.966
X-30.989 Y46.84
X-31.339 Y46.669
X-31.705 Y46.453
X-32.11 Y46.167
X-32.521 Y45.825
X-32.955 Y45.4
X-33.415 Y44.87
X-33.862 Y44.263
X-34.311 Y43.538
X-34.716 Y42.749
X-35.061 Y41.933
X-35.352 Y41.096
X-35.591 Y40.243
X-35.781 Y39.378
X-35.924 Y38.503
X-36.021 Y37.622
X-36.072 Y36.738
X-36.079 Y35.851
X-36.043 Y34.966
X-35.964 Y34.083
X-35.845 Y33.205
X-35.684 Y32.334
X-35.483 Y31.471
X-35.243 Y30.618
X-34.964 Y29.777
X-34.646 Y28.95
X-34.289 Y28.139
X-33.895 Y27.345
X-33.771 Y27.139
X-33.609 Y26.92
X-33.407 Y26.736
X-33.173 Y26.595
X-32.916 Y26.502
X-32.646 Y26.461
X-29.956 Y26.316
G3 X-29.345 Y26.903 I0.011 J0.6
G1 X-28.928 Y46.551
G3 X-29.508 Y47.163 I-0.6 J0.013
G1 X-30.514 Y47.159
X-31.923 Y47.151
X-32.258 Y47.133
X-32.489 Y47.101
X-32.76 Y47.042
X-33.034 Y46.958
X-33.352 Y46.833
X-33.68 Y46.671
X-34.04 Y46.457
X-34.42 Y46.187
X-34.823 Y45.848
X-35.235 Y45.442
X-35.677 Y44.93
X-36.112 Y44.335
X-36.547 Y43.628
X-36.949 Y42.839
X-37.291 Y42.021
X-37.578 Y41.183
X-37.815 Y40.329
X-38.004 Y39.463
X-38.147 Y38.589
X-38.248 Y37.709
X-38.306 Y36.824
X-38.322 Y35.938
X-38.298 Y35.053
X-38.235 Y34.169
X-38.134 Y33.288
X-37.996 Y32.413
X-37.821 Y31.544
X-37.61 Y30.684
X-37.364 Y29.832
X-37.083 Y28.992
X-36.766 Y28.164
X-36.468 Y27.507
X-36.363 Y27.318
X-36.202 Y27.086
X-35.997 Y26.891
X-35.758 Y26.741
X-35.493 Y26.643
X-35.214 Y26.599
X-32.646 Y26.461
G3 X-32.035 Y27.039 I0.011 J0.6
G1 X-31.341 Y46.53
G3 X-31.923 Y47.151 I-0.6 J0.021
G1 X-34.337 Y47.139
X-34.582 Y47.125
X-34.811 Y47.094
X-35.074 Y47.036
X-35.342 Y46.954
X-35.657 Y46.83
X-35.971 Y46.675
X-36.329 Y46.462
X-36.693 Y46.203
X-37.092 Y45.868
X-37.49 Y45.476
X-37.921 Y44.977
X-38.349 Y44.391
X-38.776 Y43.697
X-39.178 Y42.908
X-39.52 Y42.09
X-39.806 Y41.251
X-40.042 Y40.397
X-40.232 Y39.532
X-40.378 Y38.658
X-40.482 Y37.778
X-40.546 Y36.894
X-40.571 Y36.008
X-40.558 Y35.122
X-40.508 Y34.237
X-40.423 Y33.355
X-40.303 Y32.477
X-40.15 Y31.605
X-39.963 Y30.738
X-39.744 Y29.88
X-39.492 Y29.03
X-39.201 Y28.193
X-38.956 Y27.629
X-38.874 Y27.475
X-38.714 Y27.238
X-38.51 Y27.039
X-38.269 Y26.884
X-38.002 Y26.782
X-37.72 Y26.737
X-37.155 Y26.704
X-35.214 Y26.599
G3 X-34.603 Y27.173 I0.011 J0.6
G1 X-33.756 Y46.513
G3 X-34.337 Y47.139 I-0.599 J0.026
G1 X-35.142 Y47.134
X-35.947 Y47.123
X-36.752 Y47.111
X-36.909 Y47.101
X-37.143 Y47.067
X-37.397 Y47.009
X-37.669 Y46.923
X-37.98 Y46.797
X-38.29 Y46.64
X-38.651 Y46.42
X-39.003 Y46.166
X-39.405 Y45.821
X-39.793 Y45.432
X-40.214 Y44.935
X-40.647 Y44.331
X-41.068 Y43.631
X-41.463 Y42.837
X-41.797 Y42.016
X-42.076 Y41.175
X-42.306 Y40.32
X-42.491 Y39.453
X-42.633 Y38.578
X-42.735 Y37.698
X-42.799 Y36.814
X-42.826 Y35.929
X-42.818 Y35.043
X-42.776 Y34.157
X-42.699 Y33.275
X-42.591 Y32.395
X-42.45 Y31.52
X-42.278 Y30.651
X-42.075 Y29.788
X-41.838 Y28.935
X-41.59 Y28.205
X-41.368 Y27.691
X-41.343 Y27.644
X-41.186 Y27.408
X-40.983 Y27.208
X-40.745 Y27.054
X-40.48 Y26.95
X-40.201 Y26.903
X-37.758 Y26.739
X-37.72 Y26.737
G3 X-37.107 Y27.307 I0.014 J0.6
G1 X-36.165 Y46.482
G3 X-36.752 Y47.111 I-0.599 J0.029
G1 X-38.966 Y47.079
X-39.204 Y47.063
X-39.433 Y47.03
X-39.685 Y46.972
X-39.951 Y46.888
X-40.26 Y46.762
X-40.567 Y46.608
X-40.922 Y46.392
X-41.271 Y46.139
X-41.667 Y45.8
X-42.051 Y45.414
X-42.47 Y44.919
X-42.894 Y44.329
X-43.311 Y43.636
X-43.705 Y42.843
X-44.039 Y42.022
X-44.318 Y41.181
X-44.549 Y40.325
X-44.735 Y39.459
X-44.879 Y38.584
X-44.984 Y37.705
X-45.053 Y36.821
X-45.087 Y35.936
Y35.05
X-45.054 Y34.164
X-44.988 Y33.28
X-44.892 Y32.4
X-44.766 Y31.522
X-44.609 Y30.65
X-44.421 Y29.784
X-44.193 Y28.928
X-43.975 Y28.283
X-43.815 Y27.909
X-43.663 Y27.642
X-43.458 Y27.415
X-43.207 Y27.238
X-42.924 Y27.12
X-42.622 Y27.066
X-40.201 Y26.903
G3 X-39.582 Y27.464 I0.019 J0.6
G1 X-38.379 Y46.441
G3 X-38.966 Y47.079 I-0.599 J0.038
G1 X-40.978 Y47.049
X-41.179 Y47.045
X-41.507 Y47.02
X-41.741 Y46.984
X-41.989 Y46.924
X-42.26 Y46.836
X-42.566 Y46.708
X-42.875 Y46.549
X-43.231 Y46.327
X-43.577 Y46.071
X-43.974 Y45.724
X-44.356 Y45.333
X-44.77 Y44.834
X-45.197 Y44.226
X-45.616 Y43.515
X-46.002 Y42.718
X-46.329 Y41.894
X-46.601 Y41.051
X-46.826 Y40.194
X-47.007 Y39.326
X-47.148 Y38.451
X-47.252 Y37.571
X-47.32 Y36.688
X-47.354 Y35.802
X-47.356 Y34.916
X-47.327 Y34.03
X-47.268 Y33.146
X-47.179 Y32.265
X-47.06 Y31.387
X-46.91 Y30.513
X-46.725 Y29.647
X-46.506 Y28.835
X-46.311 Y28.292
X-46.201 Y28.048
X-46.048 Y27.788
X-45.843 Y27.567
X-45.595 Y27.395
X-45.317 Y27.28
X-45.02 Y27.227
X-42.622 Y27.066
G3 X-42.005 Y27.62 I0.019 J0.6
G1 X-40.591 Y46.4
G3 X-41.179 Y47.045 I-0.598 J0.045
G1 X-43.594 Y46.985
X-43.783 Y46.971
X-44.011 Y46.936
X-44.262 Y46.875
X-44.528 Y46.789
X-44.835 Y46.66
X-45.14 Y46.503
X-45.493 Y46.283
X-45.841 Y46.026
X-46.233 Y45.683
X-46.615 Y45.292
X-47.031 Y44.791
X-47.451 Y44.193
X-47.866 Y43.488
X-48.253 Y42.691
X-48.579 Y41.867
X-48.853 Y41.024
X-49.079 Y40.167
X-49.262 Y39.3
X-49.405 Y38.426
X-49.512 Y37.546
X-49.584 Y36.663
X-49.624 Y35.778
X-49.632 Y34.891
X-49.611 Y34.006
X-49.56 Y33.121
X-49.479 Y32.238
X-49.368 Y31.359
X-49.225 Y30.485
X-49.043 Y29.618
X-48.845 Y28.899
X-48.658 Y28.384
X-48.583 Y28.219
X-48.431 Y27.963
X-48.228 Y27.745
X-47.984 Y27.574
X-47.71 Y27.46
X-47.417 Y27.405
X-45.807 Y27.281
X-45.02 Y27.227
G3 X-44.402 Y27.781 I0.02 J0.6
G1 X-43.002 Y46.34
G3 X-43.594 Y46.985 I-0.598 J0.045
G1 X-45.807 Y46.931
X-46.057 Y46.912
X-46.285 Y46.876
X-46.534 Y46.817
X-46.799 Y46.73
X-47.105 Y46.602
X-47.408 Y46.446
X-47.76 Y46.227
X-48.104 Y45.972
X-48.495 Y45.631
X-48.874 Y45.242
X-49.288 Y44.744
X-49.709 Y44.144
X-50.124 Y43.439
X-50.511 Y42.642
X-50.838 Y41.818
X-51.111 Y40.976
X-51.338 Y40.119
X-51.522 Y39.252
X-51.668 Y38.378
X-51.777 Y37.499
X-51.853 Y36.616
X-51.897 Y35.731
X-51.911 Y34.845
X-51.895 Y33.959
X-51.851 Y33.074
X-51.776 Y32.191
X-51.67 Y31.311
X-51.53 Y30.436
X-51.345 Y29.569
X-51.159 Y28.93
X-50.972 Y28.44
X-50.945 Y28.383
X-50.792 Y28.134
X-50.591 Y27.921
X-50.35 Y27.755
X-50.08 Y27.643
X-49.792 Y27.59
X-49.027 Y27.529
X-47.417 Y27.405
G3 X-46.794 Y27.953 I0.025 J0.599
G1 X-45.216 Y46.279
G3 X-45.807 Y46.931 I-0.598 J0.051
G1 X-46.411 Y46.916
X-47.015 Y46.897
X-47.216 Y46.89
X-48.222 Y46.848
X-48.379 Y46.834
X-48.615 Y46.793
X-48.859 Y46.73
X-49.133 Y46.636
X-49.436 Y46.504
X-49.746 Y46.337
X-50.101 Y46.108
X-50.447 Y45.843
X-50.84 Y45.489
X-51.223 Y45.082
X-51.632 Y44.573
X-52.055 Y43.948
X-52.48 Y43.199
X-52.853 Y42.396
X-53.168 Y41.568
X-53.432 Y40.722
X-53.65 Y39.863
X-53.826 Y38.994
X-53.964 Y38.119
X-54.068 Y37.239
X-54.14 Y36.356
X-54.18 Y35.471
X-54.191 Y34.585
X-54.173 Y33.699
X-54.126 Y32.814
X-54.049 Y31.931
X-53.939 Y31.052
X-53.787 Y30.179
X-53.612 Y29.437
X-53.442 Y28.911
X-53.332 Y28.645
X-53.184 Y28.376
X-52.982 Y28.147
X-52.735 Y27.966
X-52.454 Y27.844
X-52.154 Y27.785
X-49.792 Y27.59
G3 X-49.168 Y28.138 I0.027 J0.599
G1 X-47.62 Y46.197
G3 X-48.222 Y46.848 I-0.598 J0.051
G1 X-50.435 Y46.757
X-50.672 Y46.736
X-50.9 Y46.696
X-51.152 Y46.631
X-51.415 Y46.541
X-51.722 Y46.406
X-52.026 Y46.243
X-52.375 Y46.018
X-52.726 Y45.749
X-53.113 Y45.399
X-53.497 Y44.994
X-53.911 Y44.477
X-54.33 Y43.859
X-54.746 Y43.126
X-55.119 Y42.322
X-55.435 Y41.494
X-55.699 Y40.648
X-55.917 Y39.79
X-56.095 Y38.921
X-56.236 Y38.047
X-56.342 Y37.167
X-56.416 Y36.284
X-56.46 Y35.399
X-56.474 Y34.513
X-56.46 Y33.627
X-56.416 Y32.742
X-56.339 Y31.859
X-56.226 Y30.98
X-56.069 Y30.108
X-55.897 Y29.444
X-55.724 Y28.944
X-55.668 Y28.817
X-55.519 Y28.558
X-55.318 Y28.336
X-55.075 Y28.162
X-54.801 Y28.043
X-54.508 Y27.985
X-53.253 Y27.877
X-52.154 Y27.785
G3 X-51.528 Y28.328 I0.029 J0.599
G1 X-49.834 Y46.1
G3 X-50.435 Y46.757 I-0.597 J0.057
G1 X-52.448 Y46.674
X-52.649 Y46.663
X-52.85 Y46.65
X-53.012 Y46.632
X-53.251 Y46.585
X-53.502 Y46.514
X-53.778 Y46.412
X-54.086 Y46.268
X-54.398 Y46.091
X-54.758 Y45.847
X-55.105 Y45.568
X-55.5 Y45.195
X-55.885 Y44.768
X-56.294 Y44.234
X-56.717 Y43.578
X-57.136 Y42.797
X-57.492 Y41.986
X-57.792 Y41.152
X-58.043 Y40.302
X-58.25 Y39.441
X-58.418 Y38.57
X-58.549 Y37.694
X-58.646 Y36.813
X-58.713 Y35.93
X-58.749 Y35.044
X-58.756 Y34.158
X-58.733 Y33.272
X-58.679 Y32.388
X-58.591 Y31.506
X-58.46 Y30.63
X-58.299 Y29.892
X-58.141 Y29.37
X-58.025 Y29.072
X-57.88 Y28.798
X-57.679 Y28.563
X-57.431 Y28.377
X-57.148 Y28.251
X-56.845 Y28.19
X-54.508 Y27.985
G3 X-53.879 Y28.528 I0.031 J0.599
G1 X-52.235 Y45.994
G3 X-52.85 Y46.65 I-0.597 J0.056
G1 X-53.253 Y46.624
X-55.064 Y46.497
X-55.366 Y46.46
X-55.595 Y46.414
X-55.852 Y46.34
X-56.117 Y46.24
X-56.426 Y46.093
X-56.733 Y45.917
X-57.081 Y45.678
X-57.437 Y45.388
X-57.822 Y45.02
X-58.207 Y44.588
X-58.62 Y44.041
X-59.041 Y43.379
X-59.455 Y42.596
X-59.806 Y41.782
X-60.101 Y40.946
X-60.347 Y40.095
X-60.549 Y39.232
X-60.713 Y38.362
X-60.841 Y37.485
X-60.936 Y36.604
X-61 Y35.72
X-61.033 Y34.834
X-61.037 Y33.948
X-61.01 Y33.063
X-60.95 Y32.178
X-60.851 Y31.298
X-60.702 Y30.435
X-60.545 Y29.82
X-60.376 Y29.327
X-60.334 Y29.232
X-60.186 Y28.973
X-59.986 Y28.75
X-59.743 Y28.575
X-59.469 Y28.456
X-59.176 Y28.398
X-56.845 Y28.19
G3 X-56.216 Y28.727 I0.032 J0.599
G1 X-54.446 Y45.835
G3 X-55.064 Y46.497 I-0.597 J0.062
G1 X-57.478 Y46.327
X-57.668 Y46.304
X-57.895 Y46.258
X-58.154 Y46.183
X-58.416 Y46.084
X-58.722 Y45.939
X-59.032 Y45.761
X-59.375 Y45.526
X-59.735 Y45.233
X-60.112 Y44.872
X-60.499 Y44.438
X-60.911 Y43.892
X-61.325 Y43.242
X-61.739 Y42.459
X-62.089 Y41.645
X-62.384 Y40.809
X-62.63 Y39.958
X-62.832 Y39.095
X-62.996 Y38.224
X-63.124 Y37.347
X-63.218 Y36.466
X-63.282 Y35.583
X-63.314 Y34.697
X-63.317 Y33.811
X-63.287 Y32.925
X-63.22 Y32.042
X-63.108 Y31.163
X-62.964 Y30.417
X-62.814 Y29.877
X-62.683 Y29.518
X-62.542 Y29.236
X-62.341 Y28.993
X-62.09 Y28.801
X-61.803 Y28.669
X-61.494 Y28.606
X-59.176 Y28.398
G3 X-58.546 Y28.937 I0.033 J0.599
G1 X-56.86 Y45.667
G3 X-57.478 Y46.327 I-0.597 J0.06
G1 X-58.485 Y46.256
X-58.686 Y46.237
X-59.893 Y46.095
X-60.146 Y46.053
X-60.393 Y45.99
X-60.641 Y45.906
X-60.928 Y45.782
X-61.231 Y45.621
X-61.552 Y45.416
X-61.908 Y45.145
X-62.261 Y44.83
X-62.646 Y44.426
X-63.042 Y43.937
X-63.44 Y43.355
X-63.853 Y42.634
X-64.23 Y41.832
X-64.548 Y41.005
X-64.815 Y40.16
X-65.036 Y39.302
X-65.216 Y38.434
X-65.359 Y37.56
X-65.467 Y36.68
X-65.543 Y35.797
X-65.587 Y34.912
X-65.598 Y34.026
X-65.575 Y33.14
X-65.514 Y32.256
X-65.408 Y31.377
X-65.267 Y30.624
X-65.125 Y30.099
X-64.958 Y29.637
X-64.955 Y29.631
X-64.806 Y29.377
X-64.607 Y29.16
X-64.367 Y28.989
X-64.097 Y28.873
X-63.808 Y28.815
X-62.509 Y28.697
X-61.494 Y28.606
G3 X-60.864 Y29.146 I0.033 J0.599
G1 X-59.247 Y45.438
G3 X-59.893 Y46.095 I-0.597 J0.059
G1 X-62.22 Y45.822
X-62.519 Y45.771
X-62.743 Y45.715
X-63.007 Y45.625
X-63.272 Y45.51
X-63.571 Y45.352
X-63.894 Y45.145
X-64.225 Y44.894
X-64.59 Y44.568
X-64.958 Y44.181
X-65.346 Y43.703
X-65.752 Y43.109
X-66.162 Y42.394
X-66.539 Y41.592
X-66.856 Y40.764
X-67.12 Y39.918
X-67.337 Y39.059
X-67.514 Y38.191
X-67.653 Y37.316
X-67.757 Y36.436
X-67.826 Y35.553
X-67.863 Y34.667
X-67.866 Y33.781
X-67.833 Y32.896
X-67.758 Y32.013
X-67.629 Y31.136
X-67.488 Y30.52
X-67.339 Y30.049
X-67.277 Y29.895
X-67.132 Y29.628
X-66.934 Y29.398
X-66.691 Y29.217
X-66.414 Y29.092
X-66.117 Y29.029
X-65.93 Y29.011
X-63.808 Y28.815
G3 X-63.178 Y29.354 I0.034 J0.599
G1 X-61.574 Y45.163
G3 X-62.22 Y45.822 I-0.597 J0.061
G1 X-64.521 Y45.551
X-64.919 Y45.474
X-65.154 Y45.409
X-65.42 Y45.312
X-65.688 Y45.188
X-66.001 Y45.012
X-66.312 Y44.802
X-66.659 Y44.526
X-67.013 Y44.194
X-67.397 Y43.771
X-67.774 Y43.283
X-68.173 Y42.669
X-68.578 Y41.921
X-68.936 Y41.111
X-69.236 Y40.277
X-69.485 Y39.426
X-69.688 Y38.564
X-69.851 Y37.693
X-69.975 Y36.815
X-70.064 Y35.934
X-70.117 Y35.049
X-70.136 Y34.163
X-70.117 Y33.277
X-70.057 Y32.393
X-69.945 Y31.514
X-69.81 Y30.862
X-69.668 Y30.374
X-69.586 Y30.158
X-69.445 Y29.883
X-69.247 Y29.646
X-69.002 Y29.458
X-68.722 Y29.329
X-68.42 Y29.263
X-66.534 Y29.07
X-66.117 Y29.029
G3 X-65.482 Y29.565 I0.038 J0.599
G1 X-63.875 Y44.89
G3 X-64.521 Y45.551 I-0.597 J0.063
G1 X-64.722 Y45.522
X-67.137 Y45.126
X-67.386 Y45.071
X-67.62 Y45
X-67.885 Y44.896
X-68.151 Y44.765
X-68.46 Y44.581
X-68.772 Y44.36
X-69.113 Y44.075
X-69.465 Y43.728
X-69.843 Y43.29
X-70.216 Y42.782
X-70.609 Y42.145
X-71.005 Y41.368
X-71.343 Y40.549
X-71.624 Y39.708
X-71.855 Y38.853
X-72.041 Y37.987
X-72.186 Y37.112
X-72.292 Y36.233
X-72.361 Y35.349
X-72.393 Y34.464
X-72.386 Y33.578
X-72.337 Y32.693
X-72.236 Y31.812
X-72.108 Y31.15
X-71.971 Y30.657
X-71.904 Y30.475
X-71.774 Y30.21
X-71.591 Y29.979
X-71.364 Y29.791
X-71.103 Y29.654
X-70.819 Y29.576
X-70.673 Y29.551
X-70.558 Y29.535
X-68.747 Y29.3
X-68.546 Y29.276
X-68.42 Y29.263
G3 X-67.783 Y29.808 I0.04 J0.599
G1 X-66.463 Y44.477
G3 X-67.137 Y45.126 I-0.598 J0.054
G1 X-67.338 Y45.092
X-67.942 Y44.979
X-68.345 Y44.899
X-69.745 Y44.617
X-69.893 Y44.579
X-70.13 Y44.498
X-70.394 Y44.383
X-70.661 Y44.241
X-70.972 Y44.042
X-71.281 Y43.806
X-71.621 Y43.501
X-71.967 Y43.136
X-72.342 Y42.671
X-72.708 Y42.135
X-73.089 Y41.467
X-73.465 Y40.665
X-73.776 Y39.835
X-74.032 Y38.986
X-74.238 Y38.125
X-74.399 Y37.253
X-74.519 Y36.375
X-74.6 Y35.493
X-74.641 Y34.608
X-74.64 Y33.722
X-74.594 Y32.837
X-74.5 Y32.006
X-74.379 Y31.388
X-74.277 Y31.022
X-74.166 Y30.745
X-74 Y30.498
X-73.784 Y30.292
X-73.531 Y30.136
X-73.249 Y30.037
X-72.772 Y29.925
X-72.57 Y29.884
X-71.363 Y29.666
X-70.819 Y29.576
G3 X-70.143 Y30.123 I0.078 J0.595
G1 X-69.049 Y43.977
G3 X-69.745 Y44.617 I-0.598 J0.047
G1 X-69.954 Y44.574
X-70.558 Y44.448
X-70.711 Y44.416
X-72.168 Y44.06
X-72.439 Y43.979
X-72.676 Y43.888
X-72.943 Y43.758
X-73.209 Y43.602
X-73.516 Y43.387
X-73.826 Y43.131
X-74.16 Y42.806
X-74.501 Y42.417
X-74.868 Y41.923
X-75.224 Y41.352
X-75.589 Y40.647
X-75.932 Y39.83
X-76.212 Y38.989
X-76.437 Y38.132
X-76.613 Y37.264
X-76.744 Y36.387
X-76.833 Y35.505
X-76.879 Y34.621
X-76.88 Y33.734
X-76.83 Y32.85
X-76.739 Y32.154
X-76.658 Y31.776
X-76.568 Y31.501
X-76.424 Y31.25
X-76.231 Y31.034
X-75.998 Y30.863
X-75.735 Y30.743
X-74.985 Y30.491
X-74.784 Y30.424
X-74.583 Y30.371
X-73.375 Y30.067
X-73.249 Y30.037
G3 X-72.535 Y30.575 I0.117 J0.588
G1 X-71.448 Y43.422
G3 X-72.168 Y44.06 I-0.598 J0.051
G1 X-73.375 Y43.765
X-73.918 Y43.612
X-74.784 Y43.36
X-74.997 Y43.286
X-75.231 Y43.183
X-75.502 Y43.037
X-75.768 Y42.865
X-76.068 Y42.634
X-76.379 Y42.352
X-76.705 Y42.006
X-77.04 Y41.586
X-77.395 Y41.061
X-77.738 Y40.455
X-78.082 Y39.71
X-78.389 Y38.879
X-78.633 Y38.027
X-78.823 Y37.162
X-78.963 Y36.286
X-79.056 Y35.405
X-79.102 Y34.52
X-79.096 Y33.634
X-79.041 Y32.974
X-79.004 Y32.754
X-78.931 Y32.483
X-78.805 Y32.232
X-78.631 Y32.011
X-78.416 Y31.829
X-78.17 Y31.694
X-76.906 Y31.158
X-76.796 Y31.112
X-76.192 Y30.898
X-75.991 Y30.829
X-75.735 Y30.743
G3 X-74.965 Y31.269 I0.171 J0.575
G1 X-74.038 Y42.73
G3 X-74.784 Y43.36 I-0.598 J0.048
G1 X-76.192 Y42.948
X-76.796 Y42.745
X-77.4 Y42.536
X-77.577 Y42.464
X-77.809 Y42.348
X-78.078 Y42.185
X-78.345 Y41.993
X-78.637 Y41.744
X-78.945 Y41.436
X-79.26 Y41.066
X-79.584 Y40.616
X-79.922 Y40.058
X-80.243 Y39.416
X-80.557 Y38.639
X-80.822 Y37.793
X-81.024 Y36.93
X-81.17 Y36.056
X-81.262 Y35.175
X-81.287 Y34.428
X-81.27 Y34.05
X-81.228 Y33.769
X-81.13 Y33.501
X-80.981 Y33.26
X-80.785 Y33.053
X-80.551 Y32.89
X-80.217 Y32.704
X-79.009 Y32.087
X-78.808 Y31.985
X-78.607 Y31.887
X-78.406 Y31.794
X-78.17 Y31.694
G3 X-77.357 Y32.209 I0.215 J0.56
G1 X-76.625 Y41.917
G3 X-77.4 Y42.536 I-0.598 J0.045
G1 X-78.808 Y42.047
X-79.418 Y41.804
X-79.909 Y41.604
X-80.178 Y41.477
X-80.406 Y41.346
X-80.67 Y41.166
X-80.934 Y40.952
X-81.216 Y40.682
X-81.514 Y40.349
X-81.814 Y39.954
X-82.119 Y39.477
X-82.43 Y38.89
X-82.716 Y38.229
X-82.977 Y37.46
X-83.183 Y36.642
X-83.298 Y35.962
X-83.343 Y35.442
Y35.379
X-83.318 Y35.104
X-83.239 Y34.839
X-83.109 Y34.595
X-82.934 Y34.381
X-82.72 Y34.206
X-82.367 Y33.97
X-82.229 Y33.88
X-81.022 Y33.157
X-80.821 Y33.04
X-80.551 Y32.89
G3 X-79.68 Y33.379 I0.273 J0.534
G1 X-79.102 Y40.996
G3 X-79.909 Y41.604 I-0.598 J0.045
G1 X-80.821 Y41.229
X-81.424 Y40.969
X-81.625 Y40.876
X-82.596 Y40.398
X-82.789 Y40.291
X-83.014 Y40.141
X-83.271 Y39.938
X-83.519 Y39.708
X-83.791 Y39.411
X-84.06 Y39.067
X-84.333 Y38.651
X-84.578 Y38.204
X-84.788 Y37.733
X-84.942 Y37.3
X-85.043 Y36.919
X-85.053 Y36.865
X-85.075 Y36.571
X-85.035 Y36.279
X-84.935 Y36.002
X-84.779 Y35.752
X-84.574 Y35.541
G3 X-83.665 Y35.753 I0.369 J0.473
G1 X-81.81 Y39.59
G3 X-82.596 Y40.398 I-0.54 J0.261
G1 X-82.833 Y40.282
X-83.034 Y40.18
X-83.436 Y39.973
X-83.638 Y39.864
X-84.845 Y39.135
X-85.073 Y38.992
X-85.247 Y38.88
X-85.494 Y38.683
X-85.655 Y38.531
X-85.805 Y38.364
X-85.827 Y38.336
X-85.98 Y38.087
X-86.077 Y37.811
X-86.115 Y37.521
X-86.092 Y37.229
X-86.009 Y36.948
X-85.869 Y36.691
X-85.679 Y36.469
G3 X-84.698 Y36.781 I0.397 J0.449
G1 X-84.358 Y38.227
G3 X-85.247 Y38.88 I-0.584 J0.137
G1 X-85.65 Y38.588
X-86.138 Y38.189
X-86.254 Y38.091
X-86.358 Y37.988
X-86.413 Y37.918
X-86.455 Y37.848
X-86.481 Y37.787
X-86.509 Y37.687
X-86.519 Y37.586
X-86.511 Y37.486
X-86.487 Y37.385
X-86.455 Y37.309
X-86.419 Y37.247
X-86.371 Y37.184
X-86.199 Y36.983
X-85.999 Y36.783
X-85.798 Y36.582
X-85.65 Y36.441
X-84.378 Y35.376
X-84.241 Y35.266
X-84.118 Y35.176
X-82.969 Y34.372
X-82.72 Y34.206
G3 X-81.993 Y34.279 I0.315 J0.511
G1 X-81.925 Y34.344 Z-6.993
X-81.858 Y34.407 Z-6.971
X-81.795 Y34.466 Z-6.935
X-81.737 Y34.521 Z-6.885
X-81.685 Y34.57 Z-6.824
X-81.64 Y34.612 Z-6.753
X-81.604 Y34.646 Z-6.672
X-81.578 Y34.671 Z-6.585
X-81.562 Y34.686 Z-6.494
X-81.557 Y34.691 Z-6.4
Z5
X-17.014 Y-39.237
Z3
Z2.55
G3 X-16.23 Y-33.591 Z2.237 I0.392 J2.823 F333.3
X-17.014 Y-39.237 Z1.925 I-0.392 J-2.823
X-16.23 Y-33.591 Z1.612 I0.392 J2.823
X-17.014 Y-39.237 Z1.299 I-0.392 J-2.823
X-16.23 Y-33.591 Z0.987 I0.392 J2.823
X-17.014 Y-39.237 Z0.674 I-0.392 J-2.823
X-16.23 Y-33.591 Z0.361 I0.392 J2.823
X-17.014 Y-39.237 Z0.049 I-0.392 J-2.823
X-16.23 Y-33.591 Z-0.264 I0.392 J2.823
X-17.014 Y-39.237 Z-0.577 I-0.392 J-2.823
X-16.23 Y-33.591 Z-0.889 I0.392 J2.823
X-17.014 Y-39.237 Z-1.202 I-0.392 J-2.823
X-16.23 Y-33.591 Z-1.515 I0.392 J2.823
X-17.014 Y-39.237 Z-1.827 I-0.392 J-2.823
X-16.23 Y-33.591 Z-2.14 I0.392 J2.823
X-17.014 Y-39.237 Z-2.453 I-0.392 J-2.823
X-16.23 Y-33.591 Z-2.765 I0.392 J2.823
X-17.014 Y-39.237 Z-3.078 I-0.392 J-2.823
X-16.23 Y-33.591 Z-3.391 I0.392 J2.823
X-17.014 Y-39.237 Z-3.703 I-0.392 J-2.823
X-16.23 Y-33.591 Z-4.016 I0.392 J2.823
X-17.014 Y-39.237 Z-4.329 I-0.392 J-2.823
X-16.23 Y-33.591 Z-4.641 I0.392 J2.823
X-17.014 Y-39.237 Z-4.954 I-0.392 J-2.823
X-16.23 Y-33.591 Z-5.267 I0.392 J2.823
X-17.014 Y-39.237 Z-5.579 I-0.392 J-2.823
X-16.23 Y-33.591 Z-5.892 I0.392 J2.823
X-17.014 Y-39.237 Z-6.205 I-0.392 J-2.823
X-16.23 Y-33.591 Z-6.517 I0.392 J2.823
X-17.014 Y-39.237 Z-6.83 I-0.392 J-2.823
X-13.772 Y-36.414 Z-7 I0.392 J2.823
X-19.472 Y-36.414 I-2.85 J0
X-13.772 Y-36.414 I2.85 J0
G1 X-13.769 Y-36.192 F1000
X-13.616 Y-35.319
X-13.565 Y-35.178
X-13.532 Y-35.032
X-13.513 Y-34.883
X-13.509 Y-34.733
X-13.517 Y-34.579
X-13.539 Y-34.416
X-13.577 Y-34.244
X-13.631 Y-34.065
X-13.704 Y-33.881
X-13.796 Y-33.693
X-13.908 Y-33.505
X-14.041 Y-33.317
X-14.195 Y-33.133
X-14.371 Y-32.955
X-14.567 Y-32.786
X-14.783 Y-32.627
X-15.019 Y-32.482
X-15.273 Y-32.352
X-15.544 Y-32.24
X-15.829 Y-32.148
X-16.128 Y-32.078
X-16.437 Y-32.031
X-16.755 Y-32.009
X-17.078 Y-32.012
X-17.405 Y-32.042
X-17.733 Y-32.099
X-18.059 Y-32.182
X-18.38 Y-32.293
X-18.694 Y-32.43
X-18.999 Y-32.594
X-19.292 Y-32.782
X-19.57 Y-32.995
X-19.832 Y-33.231
X-20.075 Y-33.489
X-20.298 Y-33.766
X-20.499 Y-34.061
X-20.675 Y-34.373
X-20.827 Y-34.698
X-20.952 Y-35.036
X-21.05 Y-35.383
X-21.12 Y-35.738
X-21.162 Y-36.098
X-21.174 Y-36.461
X-21.157 Y-36.824
X-21.111 Y-37.184
X-21.036 Y-37.541
X-20.933 Y-37.89
X-20.802 Y-38.23
X-20.644 Y-38.559
X-20.46 Y-38.875
X-20.251 Y-39.174
X-20.019 Y-39.456
X-19.764 Y-39.719
X-19.49 Y-39.961
X-19.196 Y-40.179
X-18.887 Y-40.374
X-18.562 Y-40.543
X-18.225 Y-40.685
X-17.877 Y-40.8
X-17.521 Y-40.887
X-17.16 Y-40.945
X-16.794 Y-40.973
X-16.428
X-16.063 Y-40.943
X-15.701 Y-40.883
X-15.346 Y-40.795
X-14.998 Y-40.679
X-14.661 Y-40.535
X-14.337 Y-40.364
X-14.027 Y-40.168
X-13.734 Y-39.948
X-13.46 Y-39.705
X-13.206 Y-39.441
X-12.974 Y-39.157
X-12.766 Y-38.855
X-12.47 Y-38.343
X-12.127 Y-37.621
X-11.919 Y-37.076
X-11.777 Y-36.589
X-11.685 Y-36.14
X-11.631 Y-35.706
X-11.613 Y-35.286
X-11.629 Y-34.879
X-11.676 Y-34.482
X-11.754 Y-34.093
X-11.863 Y-33.714
X-12.002 Y-33.344
X-12.171 Y-32.985
X-12.369 Y-32.639
X-12.597 Y-32.306
X-12.853 Y-31.991
X-13.136 Y-31.693
X-13.446 Y-31.416
X-13.782 Y-31.162
X-14.142 Y-30.931
X-14.524 Y-30.728
X-14.928 Y-30.554
X-15.349 Y-30.411
X-15.786 Y-30.3
X-16.237 Y-30.224
X-16.697 Y-30.184
X-17.163 Y-30.182
X-17.633 Y-30.216
X-18.104 Y-30.29
X-18.57 Y-30.401
X-19.029 Y-30.551
X-19.478 Y-30.738
X-19.914 Y-30.963
X-20.332 Y-31.223
X-20.731 Y-31.518
X-21.106 Y-31.845
X-21.456 Y-32.203
X-21.777 Y-32.589
X-22.068 Y-33.002
X-22.325 Y-33.438
X-22.547 Y-33.895
X-22.732 Y-34.37
X-22.878 Y-34.859
X-22.986 Y-35.359
X-23.053 Y-35.868
X-23.079 Y-36.381
X-23.063 Y-36.895
X-23.007 Y-37.407
X-22.909 Y-37.914
X-22.771 Y-38.411
X-22.593 Y-38.897
X-22.377 Y-39.366
X-22.123 Y-39.818
X-21.834 Y-40.247
X-21.511 Y-40.653
X-21.156 Y-41.031
X-20.773 Y-41.38
X-20.362 Y-41.697
X-19.927 Y-41.98
X-19.47 Y-42.228
X-18.995 Y-42.438
X-18.505 Y-42.609
X-18.002 Y-42.74
X-17.49 Y-42.831
X-16.973 Y-42.88
X-16.453 Y-42.887
X-15.934 Y-42.853
X-15.42 Y-42.777
X-14.913 Y-42.66
X-14.418 Y-42.503
X-13.936 Y-42.307
X-13.472 Y-42.073
X-13.028 Y-41.802
X-12.607 Y-41.496
X-12.178 Y-41.129
X-11.732 Y-40.679
X-11.313 Y-40.183
X-10.925 Y-39.641
X-10.582 Y-39.069
X-10.291 Y-38.483
X-10.055 Y-37.892
X-9.871 Y-37.298
X-9.739 Y-36.706
X-9.657 Y-36.115
X-9.622 Y-35.528
X-9.635 Y-34.947
X-9.693 Y-34.374
X-9.797 Y-33.812
X-9.945 Y-33.261
X-10.136 Y-32.726
X-10.369 Y-32.208
X-10.644 Y-31.709
X-10.959 Y-31.233
X-11.313 Y-30.781
X-11.704 Y-30.357
X-12.131 Y-29.963
X-12.591 Y-29.601
X-13.083 Y-29.275
X-13.604 Y-28.988
X-14.151 Y-28.741
X-14.72 Y-28.536
X-15.31 Y-28.377
X-15.914 Y-28.265
X-16.531 Y-28.202
X-17.155 Y-28.187
X-17.782 Y-28.224
X-18.409 Y-28.311
X-19.03 Y-28.449
X-19.642 Y-28.637
X-20.241 Y-28.875
X-20.822 Y-29.163
X-21.38 Y-29.497
X-21.913 Y-29.877
X-22.415 Y-30.301
X-22.884 Y-30.766
X-23.316 Y-31.268
X-23.707 Y-31.805
X-24.055 Y-32.374
X-24.357 Y-32.971
X-24.611 Y-33.591
X-24.815 Y-34.232
X-24.967 Y-34.888
X-25.066 Y-35.556
X-25.111 Y-36.23
X-25.102 Y-36.907
X-25.039 Y-37.581
X-24.921 Y-38.25
X-24.75 Y-38.907
X-24.527 Y-39.549
X-24.252 Y-40.172
X-23.929 Y-40.77
X-23.558 Y-41.342
X-23.142 Y-41.882
X-22.684 Y-42.387
X-22.187 Y-42.854
X-21.653 Y-43.28
X-21.087 Y-43.661
X-20.493 Y-43.997
X-19.872 Y-44.283
X-19.231 Y-44.519
X-18.573 Y-44.702
X-17.902 Y-44.832
X-17.223 Y-44.908
X-16.54 Y-44.929
X-15.857 Y-44.895
X-15.179 Y-44.807
X-14.51 Y-44.664
X-13.855 Y-44.469
X-13.218 Y-44.221
X-12.593 Y-43.918
X-11.972 Y-43.553
X-11.364 Y-43.127
X-10.776 Y-42.639
X-10.216 Y-42.093
X-9.696 Y-41.497
X-9.223 Y-40.859
X-8.803 Y-40.185
X-8.441 Y-39.484
X-8.138 Y-38.761
X-7.896 Y-38.023
X-7.717 Y-37.274
X-7.598 Y-36.52
X-7.541 Y-35.764
X-7.545 Y-35.012
X-7.609 Y-34.266
X-7.732 Y-33.531
X-7.913 Y-32.81
X-8.151 Y-32.108
X-8.444 Y-31.427
X-8.792 Y-30.772
X-9.191 Y-30.145
X-9.641 Y-29.551
X-10.139 Y-28.993
X-10.682 Y-28.474
X-11.268 Y-27.998
X-11.894 Y-27.568
X-12.557 Y-27.188
X-13.251 Y-26.86
X-13.974 Y-26.588
X-14.722 Y-26.373
X-15.488 Y-26.218
X-16.269 Y-26.124
X-17.059 Y-26.093
X-17.854 Y-26.126
X-18.648 Y-26.223
X-19.435 Y-26.384
X-20.211 Y-26.609
X-20.97 Y-26.897
X-21.706 Y-27.246
X-22.415 Y-27.655
X-23.092 Y-28.122
X-23.732 Y-28.643
X-24.329 Y-29.216
X-24.881 Y-29.837
X-25.382 Y-30.502
X-25.829 Y-31.207
X-26.22 Y-31.948
X-26.55 Y-32.719
X-26.818 Y-33.516
X-27.022 Y-34.334
X-27.16 Y-35.166
X-27.23 Y-36.009
X-27.233 Y-36.855
X-27.167 Y-37.7
X-27.034 Y-38.538
X-26.834 Y-39.363
X-26.568 Y-40.17
X-26.238 Y-40.954
X-25.845 Y-41.71
X-25.394 Y-42.431
X-24.885 Y-43.115
X-24.323 Y-43.756
X-23.711 Y-44.35
X-23.053 Y-44.893
X-22.353 Y-45.382
X-21.616 Y-45.813
X-20.847 Y-46.184
X-20.05 Y-46.491
X-19.232 Y-46.734
X-18.396 Y-46.911
X-17.637 Y-47.008
X-17.568 Y-47.015
X-17.5 Y-47.019
X-17.431
X-16.428 Y-47
X-15.545 Y-46.932
X-14.76 Y-46.839
X-13.968 Y-46.68
X-13.172 Y-46.452
X-12.377 Y-46.154
X-11.593 Y-45.785
X-10.827 Y-45.347
X-10.096 Y-44.846
X-9.407 Y-44.29
X-8.763 Y-43.681
X-8.167 Y-43.025
X-7.622 Y-42.326
X-7.131 Y-41.589
X-6.696 Y-40.817
X-6.319 Y-40.015
X-6.004 Y-39.186
X-5.751 Y-38.337
X-5.564 Y-37.471
X-5.442 Y-36.593
X-5.388 Y-35.709
X-5.401 Y-34.823
X-5.483 Y-33.941
X-5.632 Y-33.067
X-5.849 Y-32.208
X-6.131 Y-31.368
X-6.479 Y-30.553
X-6.888 Y-29.767
X-7.357 Y-29.015
X-7.884 Y-28.302
X-8.464 Y-27.633
X-9.094 Y-27.01
X-9.77 Y-26.437
X-10.488 Y-25.917
X-10.498 Y-25.912
X-10.736 Y-25.795
X-10.992 Y-25.726
X-11.256 Y-25.705
X-13.611 Y-25.75
X-14.819 Y-25.778
X-17.435 Y-25.843
X-17.837 Y-25.854
X-21.057 Y-25.953
X-21.66 Y-25.974
X-22.142 Y-26.017
X-22.518 Y-26.082
X-22.93 Y-26.187
X-23.378 Y-26.34
X-23.856 Y-26.548
X-24.386 Y-26.831
X-24.904 Y-27.163
X-25.46 Y-27.587
X-26.032 Y-28.1
X-26.586 Y-28.685
X-27.107 Y-29.331
X-27.604 Y-30.06
X-28.042 Y-30.83
X-28.42 Y-31.631
X-28.738 Y-32.458
X-28.995 Y-33.306
X-29.191 Y-34.17
X-29.325 Y-35.046
X-29.396 Y-35.93
X-29.403 Y-36.816
X-29.348 Y-37.7
X-29.231 Y-38.578
X-29.053 Y-39.447
X-28.817 Y-40.301
X-28.522 Y-41.136
X-28.17 Y-41.95
X-27.761 Y-42.736
X-27.298 Y-43.491
X-26.783 Y-44.212
X-26.22 Y-44.896
X-25.612 Y-45.541
X-24.961 Y-46.142
X-24.27 Y-46.697
X-24.007 Y-46.879
X-23.757 Y-47.017
X-23.485 Y-47.101
X-23.201 Y-47.129
X-23.069 Y-47.128
X-22.063 Y-47.11
X-17.431 Y-47.019
X-17.36 Y-47.011
X-17.291 Y-46.995
X-17.225 Y-46.971
G2 X-16.826 Y-46.943 I0.239 J-0.55
G3 X-16.428 Y-47 I0.422 J1.525
G1 X-16.227 Y-46.995
X-11.197 Y-46.827
X-10.879 Y-46.8
X-10.503 Y-46.738
X-10.116 Y-46.642
X-9.665 Y-46.49
X-9.197 Y-46.29
X-8.66 Y-46.007
X-8.127 Y-45.669
X-7.549 Y-45.233
X-6.944 Y-44.696
X-6.339 Y-44.065
X-5.779 Y-43.378
X-5.274 Y-42.65
X-4.824 Y-41.887
X-4.428 Y-41.094
X-4.087 Y-40.276
X-3.799 Y-39.438
X-3.566 Y-38.583
X-3.389 Y-37.715
X-3.27 Y-36.837
X-3.209 Y-35.953
X-3.205 Y-35.067
X-3.259 Y-34.182
X-3.368 Y-33.303
X-3.533 Y-32.432
X-3.756 Y-31.575
X-4.036 Y-30.734
X-4.37 Y-29.913
X-4.757 Y-29.116
X-5.193 Y-28.344
X-5.678 Y-27.603
X-6.211 Y-26.895
X-6.79 Y-26.224
X-6.939 Y-26.073
X-7.156 Y-25.893
X-7.404 Y-25.76
X-7.674 Y-25.68
X-7.955 Y-25.655
X-10.19 Y-25.686
X-11.256 Y-25.705
X-12.041 Y-25.72
X-13.611 Y-25.75
X-14.416 Y-25.769
X-17.636 Y-25.849
X-17.837 Y-25.854
X-20.875 Y-25.948
X-21.057 Y-25.953
X-21.66 Y-25.974
X-24.88 Y-26.104
X-25.216 Y-26.134
X-25.492 Y-26.182
X-25.82 Y-26.266
X-26.153 Y-26.381
X-26.536 Y-26.548
X-26.93 Y-26.759
X-27.37 Y-27.043
X-27.81 Y-27.379
X-28.295 Y-27.816
X-28.768 Y-28.316
X-29.245 Y-28.91
X-29.722 Y-29.611
X-30.159 Y-30.382
X-30.536 Y-31.184
X-30.856 Y-32.01
X-31.118 Y-32.857
X-31.321 Y-33.719
X-31.469 Y-34.593
X-31.56 Y-35.474
X-31.597 Y-36.36
X-31.581 Y-37.246
X-31.512 Y-38.129
X-31.39 Y-39.007
X-31.215 Y-39.875
X-30.987 Y-40.732
X-30.71 Y-41.573
X-30.382 Y-42.397
X-30.007 Y-43.2
X-29.586 Y-43.979
X-29.119 Y-44.732
X-28.606 Y-45.455
X-28.052 Y-46.147
X-27.565 Y-46.687
X-27.346 Y-46.883
X-27.09 Y-47.03
X-26.81 Y-47.12
X-26.517 Y-47.149
X-23.201 Y-47.129
G3 X-22.948 Y-47.071 I-0.004 J0.6
G1 X-22.874 Y-47.042
X-22.796 Y-47.022
X-22.717 Y-47.014
X-22.433 Y-47.001
X-12.273 Y-46.557
G2 X-11.957 Y-46.631 I0.026 J-0.599
G3 X-11.197 Y-46.827 I0.763 J1.386
G1 X-9.587 Y-46.773
X-8.983 Y-46.748
X-8.178 Y-46.711
X-7.752 Y-46.67
X-7.468 Y-46.62
X-7.131 Y-46.531
X-6.786 Y-46.41
X-6.393 Y-46.236
X-5.978 Y-46.01
X-5.521 Y-45.712
X-5.057 Y-45.354
X-4.549 Y-44.891
X-4.029 Y-44.335
X-3.519 Y-43.692
X-3.025 Y-42.957
X-2.589 Y-42.185
X-2.209 Y-41.385
X-1.881 Y-40.561
X-1.604 Y-39.719
X-1.379 Y-38.863
X-1.205 Y-37.994
X-1.083 Y-37.116
X-1.012 Y-36.233
X-0.991 Y-35.347
X-1.02 Y-34.461
X-1.098 Y-33.579
X-1.225 Y-32.701
X-1.401 Y-31.833
X-1.626 Y-30.976
X-1.901 Y-30.133
X-2.222 Y-29.308
X-2.588 Y-28.501
X-2.999 Y-27.715
X-3.451 Y-26.954
X-3.946 Y-26.218
X-3.991 Y-26.161
X-4.215 Y-25.936
X-4.484 Y-25.767
X-4.783 Y-25.662
X-5.099 Y-25.628
X-6.367 Y-25.636
X-6.971 Y-25.642
X-7.955 Y-25.655
G3 X-8.513 Y-26.127 I0.029 J-0.599
G1 X-8.533 Y-26.219 Z-6.993
X-8.552 Y-26.309 Z-6.971
X-8.57 Y-26.394 Z-6.935
X-8.587 Y-26.472 Z-6.885
X-8.603 Y-26.542 Z-6.824
X-8.616 Y-26.602 Z-6.753
X-8.626 Y-26.65 Z-6.672
X-8.634 Y-26.685 Z-6.585
X-8.638 Y-26.707 Z-6.494
X-8.64 Y-26.714 Z-6.4
Z3
X-23.59 Y-26.58
Z-5.8
Z-6.4
X-23.597 Y-26.577 Z-6.494
X-23.616 Y-26.566 Z-6.585
X-23.648 Y-26.549 Z-6.672
X-23.691 Y-26.526 Z-6.753
X-23.745 Y-26.497 Z-6.824
X-23.808 Y-26.463 Z-6.885
X-23.878 Y-26.424 Z-6.935
X-23.955 Y-26.383 Z-6.971
X-24.035 Y-26.339 Z-6.993
X-24.118 Y-26.295 Z-7
G3 X-24.88 Y-26.104 I-0.753 J-1.392
G1 X-27.496 Y-26.21
X-27.85 Y-26.242
X-28.109 Y-26.286
X-28.379 Y-26.356
X-28.698 Y-26.465
X-29.016 Y-26.604
X-29.382 Y-26.8
X-29.756 Y-27.041
X-30.17 Y-27.358
X-30.582 Y-27.729
X-31.033 Y-28.205
X-31.476 Y-28.757
X-31.916 Y-29.405
X-32.349 Y-30.168
X-32.724 Y-30.971
X-33.038 Y-31.8
X-33.296 Y-32.648
X-33.501 Y-33.51
X-33.653 Y-34.383
X-33.753 Y-35.263
X-33.803 Y-36.148
X-33.805 Y-37.034
X-33.758 Y-37.919
X-33.665 Y-38.8
X-33.526 Y-39.675
X-33.341 Y-40.542
X-33.111 Y-41.398
X-32.836 Y-42.24
X-32.517 Y-43.067
X-32.155 Y-43.876
X-31.753 Y-44.665
X-31.31 Y-45.432
X-30.828 Y-46.176
X-30.529 Y-46.588
X-30.355 Y-46.785
X-30.148 Y-46.946
X-29.914 Y-47.065
X-29.662 Y-47.138
X-29.4 Y-47.164
X-29.106
X-26.517 Y-47.149
G3 X-25.956 Y-46.681 I-0.025 J0.599
G1 X-25.935 Y-46.589 Z-6.993
X-25.915 Y-46.5 Z-6.971
X-25.896 Y-46.415 Z-6.935
X-25.879 Y-46.337 Z-6.885
X-25.863 Y-46.267 Z-6.824
X-25.85 Y-46.207 Z-6.753
X-25.839 Y-46.159 Z-6.672
X-25.831 Y-46.124 Z-6.585
X-25.826 Y-46.103 Z-6.494
X-25.825 Y-46.095 Z-6.4
Z3
X-9.28 Y-46.289
Z-5.8
Z-6.4
X-9.273 Y-46.292 Z-6.494
X-9.254 Y-46.302 Z-6.585
X-9.222 Y-46.319 Z-6.672
X-9.179 Y-46.343 Z-6.753
X-9.125 Y-46.371 Z-6.824
X-9.061 Y-46.405 Z-6.885
X-8.991 Y-46.443 Z-6.935
X-8.914 Y-46.484 Z-6.971
X-8.833 Y-46.527 Z-6.993
X-8.75 Y-46.571 Z-7
G3 X-8.178 Y-46.711 I0.559 J1.047
G1 X-5.361 Y-46.582
X-5.066 Y-46.553
X-4.792 Y-46.504
X-4.513 Y-46.431
X-4.194 Y-46.319
X-3.847 Y-46.165
X-3.481 Y-45.967
X-3.074 Y-45.701
X-2.658 Y-45.379
X-2.213 Y-44.974
X-1.737 Y-44.465
X-1.269 Y-43.876
X-0.793 Y-43.167
X-0.36 Y-42.394
X0.015 Y-41.591
X0.336 Y-40.765
X0.606 Y-39.921
X0.826 Y-39.063
X0.999 Y-38.194
X1.124 Y-37.317
X1.202 Y-36.434
X1.234 Y-35.548
X1.221 Y-34.662
X1.165 Y-33.778
X1.064 Y-32.898
X0.92 Y-32.023
X0.733 Y-31.157
X0.503 Y-30.301
X0.231 Y-29.458
X-0.083 Y-28.629
X-0.438 Y-27.817
X-0.831 Y-27.023
X-1.205 Y-26.359
X-1.292 Y-26.23
X-1.467 Y-26.018
X-1.681 Y-25.844
X-1.924 Y-25.716
X-2.188 Y-25.637
X-2.462 Y-25.612
X-5.099 Y-25.628
G3 X-5.674 Y-26.219 I0.025 J-0.599
G1 X-5.968 Y-45.973
G3 X-5.361 Y-46.582 I0.6 J-0.009
G1 X-2.745 Y-46.461
X-2.548 Y-46.442
X-2.306 Y-46.399
X-2.036 Y-46.328
X-1.729 Y-46.22
X-1.418 Y-46.083
X-1.054 Y-45.885
X-0.697 Y-45.652
X-0.286 Y-45.334
X0.114 Y-44.969
X0.555 Y-44.497
X1.008 Y-43.927
X1.453 Y-43.265
X1.886 Y-42.492
X2.257 Y-41.688
X2.574 Y-40.86
X2.838 Y-40.014
X3.054 Y-39.155
X3.224 Y-38.285
X3.349 Y-37.408
X3.431 Y-36.526
X3.47 Y-35.64
X3.467 Y-34.754
X3.424 Y-33.869
X3.34 Y-32.987
X3.217 Y-32.109
X3.056 Y-31.238
X2.856 Y-30.375
X2.618 Y-29.521
X2.343 Y-28.679
X2.031 Y-27.849
X1.682 Y-27.035
X1.376 Y-26.439
X1.267 Y-26.262
X1.093 Y-26.036
X0.877 Y-25.85
X0.628 Y-25.711
X0.355 Y-25.626
X0.072 Y-25.598
X-0.532 Y-25.6
X-2.462 Y-25.612
G3 X-3.037 Y-26.202 I0.025 J-0.599
G1 X-3.352 Y-45.852
G3 X-2.745 Y-46.461 I0.6 J-0.01
G1 X-2.343 Y-46.443
X-2.007 Y-46.424
X-0.33 Y-46.328
X-0.078 Y-46.301
X0.154 Y-46.257
X0.43 Y-46.181
X0.707 Y-46.081
X1.024 Y-45.936
X1.359 Y-45.749
X1.715 Y-45.511
X2.1 Y-45.206
X2.498 Y-44.835
X2.908 Y-44.386
X3.344 Y-43.825
X3.781 Y-43.157
X4.205 Y-42.379
X4.566 Y-41.57
X4.87 Y-40.738
X5.122 Y-39.888
X5.327 Y-39.026
X5.486 Y-38.154
X5.603 Y-37.276
X5.679 Y-36.393
X5.716 Y-35.508
X5.714 Y-34.622
X5.675 Y-33.736
X5.598 Y-32.854
X5.484 Y-31.975
X5.335 Y-31.101
X5.151 Y-30.235
X4.932 Y-29.376
X4.679 Y-28.527
X4.391 Y-27.689
X4.075 Y-26.902
X3.816 Y-26.383
X3.753 Y-26.278
X3.581 Y-26.049
X3.365 Y-25.86
X3.116 Y-25.719
X2.843 Y-25.631
X2.557 Y-25.601
X0.475 Y-25.597
X0.072 Y-25.598
G3 X-0.505 Y-26.184 I0.023 J-0.6
G1 X-0.944 Y-45.715
G3 X-0.33 Y-46.328 I0.6 J-0.013
G1 X2.084 Y-46.19
X2.292 Y-46.167
X2.441 Y-46.15
X2.588 Y-46.125
X2.735 Y-46.091
X2.879 Y-46.052
X3.022 Y-46.006
X3.163 Y-45.954
X3.301 Y-45.896
X3.437 Y-45.833
X3.571 Y-45.765
X3.703 Y-45.693
X3.832 Y-45.617
X3.959 Y-45.537
X4.083 Y-45.453
X4.205 Y-45.365
X4.324 Y-45.274
X4.441 Y-45.181
X4.556 Y-45.084
X4.668 Y-44.985
X4.778 Y-44.882
X4.886 Y-44.778
X4.991 Y-44.671
X5.094 Y-44.562
X5.195 Y-44.451
X5.293 Y-44.337
X5.389 Y-44.222
X5.483 Y-44.105
X5.575 Y-43.987
X5.665 Y-43.867
X5.752 Y-43.745
X5.838 Y-43.622
X5.922 Y-43.497
X6.003 Y-43.371
X6.083 Y-43.244
X6.16 Y-43.116
X6.236 Y-42.986
X6.31 Y-42.856
X6.382 Y-42.724
X6.453 Y-42.592
X6.521 Y-42.458
X6.588 Y-42.324
X6.653 Y-42.189
X6.716 Y-42.053
X6.778 Y-41.916
X6.838 Y-41.779
X6.896 Y-41.64
X6.953 Y-41.502
X7.008 Y-41.362
X7.062 Y-41.222
X7.114 Y-41.081
X7.165 Y-40.94
X7.214 Y-40.798
X7.261 Y-40.656
X7.307 Y-40.513
X7.352 Y-40.37
X7.395 Y-40.227
X7.437 Y-40.083
X7.478 Y-39.938
X7.517 Y-39.794
X7.555 Y-39.648
X7.591 Y-39.503
X7.627 Y-39.357
X7.661 Y-39.211
X7.693 Y-39.065
X7.724 Y-38.918
X7.754 Y-38.771
X7.783 Y-38.624
X7.811 Y-38.476
X7.837 Y-38.329
X7.862 Y-38.181
X7.886 Y-38.033
X7.909 Y-37.884
X7.93 Y-37.736
X7.951 Y-37.583
X7.971 Y-37.431
X7.989 Y-37.283
X8.006 Y-37.133
X8.022 Y-36.984
X8.036 Y-36.834
X8.051 Y-36.676
X8.064 Y-36.51
X8.076 Y-36.36
X8.086 Y-36.21
X8.095 Y-36.061
X8.103 Y-35.907
X8.11 Y-35.744
X8.116 Y-35.572
X8.121 Y-35.417
X8.124 Y-35.267
X8.126 Y-35.117
X8.127 Y-34.877
Y-34.705
X8.125 Y-34.526
X8.122 Y-34.376
X8.118 Y-34.226
X8.113 Y-34.069
X8.106 Y-33.903
X8.097 Y-33.726
X8.087 Y-33.542
X8.078 Y-33.391
X8.067 Y-33.238
X8.054 Y-33.077
X8.04 Y-32.906
X8.023 Y-32.725
X8.005 Y-32.539
X7.988 Y-32.388
X7.97 Y-32.231
X7.95 Y-32.065
X7.927 Y-31.889
X7.902 Y-31.702
X7.876 Y-31.522
X7.853 Y-31.37
X7.827 Y-31.209
X7.799 Y-31.039
X7.767 Y-30.858
X7.732 Y-30.665
X7.701 Y-30.501
X7.67 Y-30.347
X7.637 Y-30.184
X7.6 Y-30.011
X7.56 Y-29.827
X7.516 Y-29.637
X7.482 Y-29.491
X7.446 Y-29.345
X7.408 Y-29.193
X7.366 Y-29.032
X7.321 Y-28.862
X7.273 Y-28.687
X7.232 Y-28.543
X7.19 Y-28.399
X7.147 Y-28.255
X7.102 Y-28.112
X7.056 Y-27.969
X7.009 Y-27.827
X6.961 Y-27.685
X6.911 Y-27.543
X6.86 Y-27.402
X6.806 Y-27.262
X6.751 Y-27.123
X6.693 Y-26.984
X6.634 Y-26.847
X6.572 Y-26.71
X6.507 Y-26.575
X6.439 Y-26.441
X6.39 Y-26.348
X6.22 Y-26.099
X6.001 Y-25.892
X5.743 Y-25.737
X5.457 Y-25.64
X5.157 Y-25.607
X2.557 Y-25.601
G3 X1.977 Y-26.185 I0.02 J-0.6
G1 X1.471 Y-45.574
G3 X2.084 Y-46.19 I0.6 J-0.016
G1 X4.499 Y-46.051
X4.767 Y-46.021
X4.996 Y-45.977
X5.249 Y-45.907
X5.524 Y-45.806
X5.821 Y-45.669
X6.141 Y-45.489
X6.482 Y-45.259
X6.845 Y-44.971
X7.226 Y-44.613
X7.624 Y-44.175
X8.034 Y-43.643
X8.453 Y-42.998
X8.871 Y-42.226
X9.229 Y-41.415
X9.53 Y-40.582
X9.779 Y-39.731
X9.981 Y-38.868
X10.139 Y-37.997
X10.258 Y-37.118
X10.337 Y-36.236
X10.348 Y-36.015
X10.394 Y-35.798
X10.473 Y-35.591
X10.694 Y-35.207
X11.35 Y-34.611
X12.1 Y-34.139
X12.881 Y-33.721
X13.667 Y-33.312
X14.242 Y-32.971
X14.803 Y-32.575
X15.122 Y-32.309
X15.494 Y-31.944
X15.747 Y-31.652
X15.98 Y-31.335
X16.212 Y-30.96
X16.352 Y-30.688
X16.494 Y-30.344
X16.61 Y-29.988
X16.677 Y-29.705
X16.73 Y-29.356
X16.755 Y-29.013
X16.753 Y-28.736
X16.723 Y-28.401
X16.667 Y-28.071
X16.601 Y-27.816
X16.498 Y-27.513
X16.363 Y-27.203
X16.245 Y-26.981
X16.081 Y-26.726
X15.869 Y-26.448
X15.709 Y-26.27
X15.5 Y-26.071
X15.392 Y-25.985
X15.13 Y-25.818
X14.837 Y-25.712
X14.528 Y-25.675
X13.152 Y-25.661
X12.548 Y-25.656
X12.346 Y-25.664
X11.906 Y-25.719
X11.022 Y-25.653
X11.004 Y-25.648
X10.986 Y-25.645
X10.967 Y-25.643
G3 X11 Y-26.843 I0.016 J-0.6
X12.663 Y-25.869 I-0.054 J1.999
G1 X12.679 Y-25.831
X12.683 Y-25.789
X12.674 Y-25.749
X12.655 Y-25.712
X12.625 Y-25.683
X12.589 Y-25.664
X12.548 Y-25.656
X7.115 Y-25.613
X6.31 Y-25.609
X5.157 Y-25.607
G3 X4.577 Y-26.185 I0.02 J-0.6
G1 X3.885 Y-45.43
G3 X4.499 Y-46.051 I0.6 J-0.022
G1 X5.103 Y-46.014
X6.914 Y-45.892
X7.097 Y-45.87
X7.327 Y-45.824
X7.585 Y-45.75
X7.851 Y-45.651
X8.161 Y-45.505
X8.467 Y-45.33
X8.817 Y-45.09
X9.172 Y-44.804
X9.558 Y-44.437
X9.94 Y-44.009
X10.351 Y-43.469
X10.767 Y-42.819
X11.173 Y-42.055
X11.525 Y-41.242
X11.819 Y-40.406
X12.062 Y-39.554
X12.289 Y-38.698
X12.714 Y-37.92
X13.266 Y-37.226
X13.889 Y-36.597
X14.546 Y-36.002
X15.213 Y-35.418
X15.867 Y-34.821
X16.491 Y-34.192
X17.014 Y-33.586
X17.444 Y-32.999
X17.782 Y-32.449
X18.059 Y-31.905
X18.284 Y-31.361
X18.454 Y-30.83
X18.577 Y-30.303
X18.655 Y-29.788
X18.69 Y-29.283
X18.685 Y-28.781
X18.64 Y-28.298
X18.558 Y-27.825
X18.438 Y-27.357
X18.286 Y-26.916
X18.101 Y-26.493
X18.071 Y-26.437
X17.902 Y-26.191
X17.686 Y-25.986
X17.43 Y-25.831
X17.148 Y-25.734
X16.852 Y-25.699
X14.528 Y-25.675
G3 X13.986 Y-26.051 I0.015 J-0.6
G1 X13.954 Y-26.131
X6.337 Y-45.068
G3 X6.914 Y-45.892 I0.557 J-0.224
G1 X9.127 Y-45.742
X9.409 Y-45.708
X9.558 Y-45.69
X9.706 Y-45.662
X9.852 Y-45.628
X9.996 Y-45.587
X10.138 Y-45.538
X10.278 Y-45.484
X10.415 Y-45.424
X10.55 Y-45.359
X10.683 Y-45.289
X10.813 Y-45.215
X10.941 Y-45.136
X11.066 Y-45.054
X11.189 Y-44.967
X11.309 Y-44.878
X11.427 Y-44.785
X11.542 Y-44.689
X11.655 Y-44.59
X11.765 Y-44.488
X11.872 Y-44.383
X11.978 Y-44.276
X12.081 Y-44.167
X12.181 Y-44.056
X12.28 Y-43.943
X12.375 Y-43.827
X12.469 Y-43.71
X12.56 Y-43.591
X12.649 Y-43.47
X12.737 Y-43.348
X12.822 Y-43.225
X12.904 Y-43.1
X12.985 Y-42.973
X13.063 Y-42.845
X13.14 Y-42.716
X13.215 Y-42.587
X13.288 Y-42.456
X13.36 Y-42.324
X13.771 Y-41.539
X14.212 Y-40.77
X14.715 Y-40.04
X15.267 Y-39.348
X15.854 Y-38.683
X16.457 Y-38.035
X16.795 Y-37.676
X17.103 Y-37.345
X17.24 Y-37.196
X17.38 Y-37.04
X17.531 Y-36.871
X17.682 Y-36.698
X17.784 Y-36.581
X17.881 Y-36.466
X17.977 Y-36.351
X18.076 Y-36.232
X18.179 Y-36.105
X18.272 Y-35.988
X18.365 Y-35.87
X18.457 Y-35.751
X18.547 Y-35.632
X18.637 Y-35.511
X18.725 Y-35.39
X18.812 Y-35.268
X18.898 Y-35.145
X18.983 Y-35.021
X19.066 Y-34.896
X19.148 Y-34.771
X19.229 Y-34.644
X19.308 Y-34.517
X19.385 Y-34.388
X19.461 Y-34.259
X19.536 Y-34.129
X19.609 Y-33.998
X19.68 Y-33.866
X19.75 Y-33.733
X19.817 Y-33.599
X19.884 Y-33.464
X19.948 Y-33.329
X20.011 Y-33.193
X20.071 Y-33.055
X20.13 Y-32.917
X20.186 Y-32.778
X20.241 Y-32.639
X20.294 Y-32.499
X20.345 Y-32.357
X20.393 Y-32.215
X20.44 Y-32.073
X20.484 Y-31.93
X20.526 Y-31.786
X20.566 Y-31.641
X20.604 Y-31.496
X20.64 Y-31.35
X20.673 Y-31.204
X20.704 Y-31.057
X20.732 Y-30.91
X20.758 Y-30.762
X20.782 Y-30.614
X20.804 Y-30.465
X20.822 Y-30.317
X20.839 Y-30.168
X20.853 Y-30.018
X20.865 Y-29.869
X20.873 Y-29.719
X20.88 Y-29.569
X20.884 Y-29.419
X20.885 Y-29.269
X20.884 Y-29.119
X20.88 Y-28.969
X20.874 Y-28.819
X20.865 Y-28.67
X20.853 Y-28.52
X20.839 Y-28.371
X20.822 Y-28.222
X20.802 Y-28.073
X20.78 Y-27.925
X20.755 Y-27.777
X20.727 Y-27.629
X20.695 Y-27.483
X20.661 Y-27.337
X20.623 Y-27.192
X20.581 Y-27.048
X20.536 Y-26.905
X20.487 Y-26.763
X20.433 Y-26.623
X20.421 Y-26.592
X20.262 Y-26.306
X20.041 Y-26.065
X19.771 Y-25.881
X19.465 Y-25.766
X19.141 Y-25.724
X16.852 Y-25.699
G3 X16.312 Y-26.071 I0.015 J-0.6
G1 X16.277 Y-26.156
X8.553 Y-44.914
G3 X9.127 Y-45.742 I0.555 J-0.228
G1 X11.542 Y-45.578
X11.836 Y-45.543
X12.061 Y-45.498
X12.308 Y-45.427
X12.577 Y-45.327
X12.868 Y-45.19
X13.181 Y-45.011
X13.522 Y-44.778
X13.932 Y-44.447
X14.56 Y-43.849
X15.151 Y-43.189
X15.726 Y-42.514
X16.303 Y-41.842
X16.889 Y-41.177
X18.073 Y-39.858
X18.658 Y-39.193
X19.231 Y-38.517
X19.508 Y-38.171
X19.644 Y-37.996
X20.245 Y-37.201
X20.371 Y-37.019
X20.524 Y-36.859
X20.7 Y-36.724
X20.896 Y-36.62
X21.314 Y-36.475
X22.2 Y-36.452
X23.086 Y-36.437
X23.972 Y-36.426
X24.858 Y-36.418
X25.745 Y-36.413
X26.631 Y-36.409
X28.403 Y-36.404
X31.061 Y-36.401
X39.036 Y-36.4
X39.629
X39.761 Y-36.329
X39.883 Y-36.241
X40.009 Y-36.132
X40.152 Y-35.988
X40.309 Y-35.8
X40.481 Y-35.559
X40.665 Y-35.249
X40.862 Y-34.849
X41.069 Y-34.325
X41.285 Y-33.616
X41.474 Y-32.751
X41.54 Y-32.312
X41.565 Y-32.111
X41.584 Y-31.939
X41.526 Y-31.801
X41.445 Y-31.675
X41.352 Y-31.557
X41.226 Y-31.423
X41.062 Y-31.273
X40.849 Y-31.109
X40.576 Y-30.931
X40.226 Y-30.74
X39.771 Y-30.538
X39.167 Y-30.327
X38.328 Y-30.107
X37.456 Y-29.951
X36.576 Y-29.844
X35.693 Y-29.77
X34.808 Y-29.718
X33.923 Y-29.682
X33.037 Y-29.658
X32.151 Y-29.64
X31.265 Y-29.628
X30.379 Y-29.62
X29.493 Y-29.614
X28.607 Y-29.61
X26.835 Y-29.605
X26.613 Y-29.604
X26.176 Y-29.534
X25.376 Y-29.152
X24.72 Y-28.557
X24.167 Y-27.864
X23.671 Y-27.129
X23.179 Y-26.392
X23.114 Y-26.307
X22.895 Y-26.078
X22.629 Y-25.905
X22.331 Y-25.795
X22.017 Y-25.756
X19.141 Y-25.724
G3 X18.6 Y-26.097 I0.015 J-0.6
G1 X18.566 Y-26.18
X10.967 Y-44.751
G3 X11.542 Y-45.578 I0.555 J-0.227
G1 X11.743 Y-45.564
X12.347 Y-45.519
X13.957 Y-45.394
X14.256 Y-45.355
X14.529 Y-45.297
X14.843 Y-45.204
X15.219 Y-45.059
X15.675 Y-44.839
X16.26 Y-44.497
X16.986 Y-43.989
X17.674 Y-43.43
X18.333 Y-42.837
X18.97 Y-42.222
X19.589 Y-41.587
X20.188 Y-40.935
X20.853 Y-40.349
X21.625 Y-39.914
X22.453 Y-39.597
X23.308 Y-39.367
X24.179 Y-39.202
X25.057 Y-39.085
X25.94 Y-39.001
X26.824 Y-38.942
X27.709 Y-38.9
X28.594 Y-38.871
X29.48 Y-38.85
X30.366 Y-38.835
X31.252 Y-38.825
X32.138 Y-38.817
X33.025 Y-38.812
X33.911 Y-38.809
X35.683 Y-38.804
X37.455 Y-38.802
X38.076 Y-38.78
X38.55 Y-38.724
X38.966 Y-38.641
X39.353 Y-38.531
X39.722 Y-38.393
X40.079 Y-38.226
X40.426 Y-38.028
X40.77 Y-37.794
X41.116 Y-37.514
X41.459 Y-37.189
X41.787 Y-36.824
X42.131 Y-36.373
X42.456 Y-35.865
X42.778 Y-35.263
X43.065 Y-34.602
X43.232 Y-34.114
X43.328 Y-33.737
X43.385 Y-33.403
X43.412 Y-33.093
X43.415 Y-32.792
X43.393 Y-32.501
X43.349 Y-32.211
X43.28 Y-31.919
X43.185 Y-31.626
X43.063 Y-31.334
X42.911 Y-31.037
X42.721 Y-30.729
X42.497 Y-30.425
X42.232 Y-30.12
X41.903 Y-29.797
X41.539 Y-29.494
X41.075 Y-29.166
X40.561 Y-28.862
X39.935 Y-28.556
X39.163 Y-28.253
X38.315 Y-27.997
X37.451 Y-27.8
X36.578 Y-27.65
X35.699 Y-27.535
X34.817 Y-27.449
X33.933 Y-27.385
X33.048 Y-27.337
X32.163 Y-27.301
X31.277 Y-27.274
X30.391 Y-27.254
X29.505 Y-27.24
X28.629 Y-27.109
X27.81 Y-26.769
X27.062 Y-26.295
X26.79 Y-26.087
X26.534 Y-25.932
X26.252 Y-25.835
X25.955 Y-25.8
X22.017 Y-25.756
G3 X21.481 Y-26.114 I0.014 J-0.6
G1 X21.439 Y-26.211
X13.382 Y-44.553
G3 X13.957 Y-45.394 I0.549 J-0.241
G1 X16.975 Y-45.158
X17.309 Y-45.115
X17.649 Y-45.043
X18.051 Y-44.924
X18.507 Y-44.748
X19.047 Y-44.487
X19.784 Y-44.056
X20.51 Y-43.548
X21.258 Y-43.074
X22.046 Y-42.668
X22.867 Y-42.335
X23.712 Y-42.068
X24.573 Y-41.859
X25.444 Y-41.696
X26.322 Y-41.572
X27.203 Y-41.477
X28.086 Y-41.406
X28.971 Y-41.352
X29.856 Y-41.312
X30.741 Y-41.283
X31.627 Y-41.261
X32.513 Y-41.244
X33.399 Y-41.232
X34.285 Y-41.224
X35.171 Y-41.217
X36.057 Y-41.206
X36.943 Y-41.17
X37.825 Y-41.086
X38.608 Y-40.952
X39.311 Y-40.774
X39.965 Y-40.55
X40.582 Y-40.282
X41.168 Y-39.97
X41.724 Y-39.613
X42.263 Y-39.203
X42.783 Y-38.736
X43.288 Y-38.205
X43.771 Y-37.606
X44.193 Y-36.987
X44.541 Y-36.376
X44.817 Y-35.787
X45.024 Y-35.233
X45.177 Y-34.696
X45.283 Y-34.168
X45.343 Y-33.65
X45.362 Y-33.141
X45.34 Y-32.639
X45.278 Y-32.144
X45.176 Y-31.652
X45.033 Y-31.165
X44.848 Y-30.683
X44.617 Y-30.2
X44.339 Y-29.721
X44.005 Y-29.239
X43.619 Y-28.768
X43.185 Y-28.318
X42.679 Y-27.871
X42.078 Y-27.421
X41.39 Y-26.987
X40.621 Y-26.585
X39.806 Y-26.238
X39.105 Y-25.997
X38.96 Y-25.956
X38.812 Y-25.931
X38.661 Y-25.922
X35.287 Y-25.894
X31.061 Y-25.854
X26.835 Y-25.809
X25.955 Y-25.8
G3 X25.432 Y-26.132 I0.014 J-0.6
G1 X25.373 Y-26.252
X16.412 Y-44.292
G3 X16.975 Y-45.158 I0.537 J-0.267
G1 X18.384 Y-45.048
X18.585 Y-45.032
X19.39 Y-44.961
X21 Y-44.818
X21.877 Y-44.695
X22.754 Y-44.57
X23.629 Y-44.428
X24.504 Y-44.289
X25.381 Y-44.162
X26.26 Y-44.053
X27.142 Y-43.96
X28.025 Y-43.884
X28.909 Y-43.822
X29.793 Y-43.772
X30.679 Y-43.733
X31.564 Y-43.702
X32.356 Y-43.681
X32.398 Y-43.679
X32.44 Y-43.676
X32.482 Y-43.672
X36.494 Y-43.199
X36.695 Y-43.174
X37.299 Y-43.096
X38.707 Y-42.907
X39.579 Y-42.745
X40.252 Y-42.578
X40.941 Y-42.346
X41.636 Y-42.049
X42.329 Y-41.685
X43.015 Y-41.25
X43.689 Y-40.742
X44.335 Y-40.17
X44.935 Y-39.545
X45.475 Y-38.883
X45.948 Y-38.199
X46.351 Y-37.501
X46.687 Y-36.795
X46.956 Y-36.086
X47.162 Y-35.378
X47.307 Y-34.672
X47.394 Y-33.97
X47.423 Y-33.274
X47.396 Y-32.584
X47.315 Y-31.901
X47.178 Y-31.223
X46.986 Y-30.553
X46.735 Y-29.887
X46.426 Y-29.229
X46.056 Y-28.585
X45.622 Y-27.952
X45.115 Y-27.326
X44.529 Y-26.711
X44.083 Y-26.313
X43.881 Y-26.163
X43.655 Y-26.051
X43.413 Y-25.982
X43.162 Y-25.957
X38.661 Y-25.922
G3 X38.078 Y-26.52 I0.016 J-0.6
G1 X38.048 Y-42.308
G3 X38.707 Y-42.907 I0.6 J-0.001
G1 X42.531 Y-42.392
X42.732 Y-42.364
X43.336 Y-42.274
X43.794 Y-42.182
X44.15 Y-42.08
X44.511 Y-41.944
X44.926 Y-41.749
X45.349 Y-41.507
X45.823 Y-41.183
X46.28 Y-40.813
X46.761 Y-40.354
X47.246 Y-39.812
X47.708 Y-39.204
X48.129 Y-38.546
X48.509 Y-37.831
X48.839 Y-37.067
X49.111 Y-36.267
X49.32 Y-35.442
X49.462 Y-34.599
X49.536 Y-33.747
X49.542 Y-32.89
X49.478 Y-32.032
X49.345 Y-31.175
X49.142 Y-30.324
X48.868 Y-29.481
X48.526 Y-28.663
X48.122 Y-27.875
X47.658 Y-27.12
X47.253 Y-26.557
X47.08 Y-26.359
X46.873 Y-26.197
X46.639 Y-26.077
X46.387 Y-26.002
X46.125 Y-25.976
X43.738 Y-25.962
X43.162 Y-25.957
G3 X42.578 Y-26.561 I0.016 J-0.6
G1 X42.668 Y-41.681
G3 X43.336 Y-42.274 I0.6 J0.004
G1 X46.354 Y-41.823
X46.729 Y-41.747
X46.997 Y-41.67
X47.302 Y-41.556
X47.608 Y-41.412
X47.963 Y-41.209
X48.31 Y-40.972
X48.702 Y-40.654
X49.08 Y-40.294
X49.48 Y-39.846
X49.887 Y-39.311
X50.258 Y-38.73
X50.619 Y-38.051
X50.95 Y-37.286
X51.234 Y-36.451
X51.452 Y-35.592
X51.602 Y-34.718
X51.684 Y-33.836
X51.701 Y-32.95
X51.654 Y-32.065
X51.546 Y-31.186
X51.378 Y-30.316
X51.152 Y-29.459
X50.868 Y-28.619
X50.528 Y-27.801
X50.134 Y-27.008
X49.932 Y-26.671
X49.761 Y-26.442
X49.546 Y-26.252
X49.297 Y-26.11
X49.024 Y-26.021
X48.739 Y-25.99
X46.125 Y-25.976
G3 X45.543 Y-26.581 I0.018 J-0.6
G1 X45.686 Y-41.232
G3 X46.354 Y-41.823 I0.6 J0.006
G1 X48.567 Y-41.491
X48.97 Y-41.428
X49.308 Y-41.357
X49.545 Y-41.287
X49.811 Y-41.184
X50.097 Y-41.046
X50.396 Y-40.871
X50.727 Y-40.641
X51.056 Y-40.369
X51.415 Y-40.021
X51.769 Y-39.618
X52.131 Y-39.132
X52.498 Y-38.547
X52.827 Y-37.914
X53.137 Y-37.178
X53.411 Y-36.347
X53.621 Y-35.486
X53.765 Y-34.611
X53.848 Y-33.729
X53.87 Y-32.843
X53.834 Y-31.958
X53.742 Y-31.077
X53.597 Y-30.202
X53.4 Y-29.339
X53.153 Y-28.488
X52.857 Y-27.652
X52.585 Y-27.036
X52.424 Y-26.738
X52.254 Y-26.492
X52.037 Y-26.287
X51.78 Y-26.133
X51.497 Y-26.038
X51.2 Y-26.004
X48.739 Y-25.99
G3 X48.156 Y-26.596 I0.018 J-0.6
G1 X48.296 Y-40.839
G3 X48.97 Y-41.428 I0.6 J0.006
G1 X51.385 Y-41.044
X51.689 Y-40.98
X51.911 Y-40.914
X52.17 Y-40.814
X52.429 Y-40.689
X52.722 Y-40.517
X53.019 Y-40.31
X53.34 Y-40.044
X53.665 Y-39.728
X54.01 Y-39.335
X54.342 Y-38.888
X54.69 Y-38.331
X55.009 Y-37.717
X55.31 Y-37.003
X55.581 Y-36.179
X55.789 Y-35.317
X55.933 Y-34.443
X56.017 Y-33.561
X56.046 Y-32.675
X56.019 Y-31.79
X55.941 Y-30.907
X55.812 Y-30.03
X55.637 Y-29.161
X55.415 Y-28.304
X55.165 Y-27.542
X54.948 Y-27.025
X54.817 Y-26.771
X54.648 Y-26.517
X54.429 Y-26.306
X54.169 Y-26.147
X53.88 Y-26.048
X53.578 Y-26.014
X52.189 Y-26.009
X51.2 Y-26.004
G3 X50.618 Y-26.608 I0.018 J-0.6
G1 X50.711 Y-40.453
G3 X51.385 Y-41.044 I0.6 J0.004
G1 X51.988 Y-40.947
X53.799 Y-40.651
X53.987 Y-40.61
X54.21 Y-40.543
X54.455 Y-40.447
X54.708 Y-40.324
X54.995 Y-40.154
X55.276 Y-39.956
X55.596 Y-39.69
X55.901 Y-39.392
X56.242 Y-38.999
X56.558 Y-38.571
X56.89 Y-38.034
X57.211 Y-37.411
X57.501 Y-36.713
X57.767 Y-35.893
X57.972 Y-35.031
X58.114 Y-34.156
X58.197 Y-33.274
X58.225 Y-32.388
X58.204 Y-31.503
X58.133 Y-30.619
X58.016 Y-29.741
X57.851 Y-28.87
X57.636 Y-28.011
X57.422 Y-27.378
X57.218 Y-26.902
X57.147 Y-26.767
X56.977 Y-26.517
X56.758 Y-26.308
X56.5 Y-26.152
X56.213 Y-26.055
X55.913 Y-26.021
X53.578 Y-26.014
G3 X52.997 Y-26.619 I0.019 J-0.6
G1 X53.123 Y-40.061
G3 X53.799 Y-40.651 I0.6 J0.006
G1 X55.007 Y-40.452
X56.013 Y-40.284
X56.247 Y-40.233
X56.469 Y-40.165
X56.703 Y-40.073
X56.956 Y-39.948
X57.234 Y-39.782
X57.513 Y-39.584
X57.824 Y-39.323
X58.124 Y-39.028
X58.457 Y-38.642
X58.768 Y-38.217
X59.092 Y-37.689
X59.41 Y-37.066
X59.695 Y-36.373
X59.958 Y-35.553
X60.16 Y-34.69
X60.299 Y-33.815
X60.381 Y-32.932
X60.411 Y-32.047
X60.392 Y-31.161
X60.326 Y-30.277
X60.213 Y-29.398
X60.049 Y-28.527
X59.859 Y-27.801
X59.671 Y-27.261
X59.471 Y-26.809
X59.445 Y-26.761
X59.275 Y-26.515
X59.057 Y-26.31
X58.8 Y-26.156
X58.516 Y-26.061
X58.218 Y-26.028
X55.913 Y-26.021
G3 X55.332 Y-26.621 I0.019 J-0.6
G1 X55.334 Y-39.69
G3 X56.013 Y-40.284 I0.6 J0
G1 X58.226 Y-39.913
X58.472 Y-39.859
X58.693 Y-39.791
X58.922 Y-39.7
X59.173 Y-39.576
X59.447 Y-39.412
X59.724 Y-39.215
X60.031 Y-38.957
X60.328 Y-38.663
X60.657 Y-38.281
X60.965 Y-37.858
X61.286 Y-37.335
X61.601 Y-36.714
X61.885 Y-36.021
X62.148 Y-35.197
X62.349 Y-34.334
X62.487 Y-33.459
X62.569 Y-32.577
X62.6 Y-31.691
X62.583 Y-30.805
X62.518 Y-29.922
X62.403 Y-29.043
X62.228 Y-28.176
X62.052 Y-27.56
X61.879 Y-27.097
X61.758 Y-26.84
X61.593 Y-26.571
X61.371 Y-26.347
X61.105 Y-26.177
X60.808 Y-26.071
X60.495 Y-26.035
X58.218 Y-26.028
G3 X57.637 Y-26.624 I0.019 J-0.6
G1 X57.547 Y-39.314
G3 X58.226 Y-39.913 I0.6 J-0.004
G1 X60.44 Y-39.537
X60.681 Y-39.484
X60.902 Y-39.416
X61.128 Y-39.326
X61.379 Y-39.202
X61.65 Y-39.039
X61.926 Y-38.842
X62.23 Y-38.585
X62.526 Y-38.292
X62.852 Y-37.912
X63.16 Y-37.489
X63.479 Y-36.968
X63.793 Y-36.347
X64.078 Y-35.652
X64.34 Y-34.825
X64.54 Y-33.962
X64.678 Y-33.086
X64.76 Y-32.204
X64.79 Y-31.318
X64.771 Y-30.432
X64.702 Y-29.549
X64.576 Y-28.672
X64.414 Y-27.943
X64.249 Y-27.405
X64.066 Y-26.949
X64.001 Y-26.816
X63.833 Y-26.555
X63.612 Y-26.337
X63.349 Y-26.174
X63.056 Y-26.072
X62.748 Y-26.037
X60.495 Y-26.035
G3 X59.914 Y-26.627 I0.019 J-0.6
G1 X59.76 Y-38.935
G3 X60.44 Y-39.537 I0.6 J-0.008
G1 X62.458 Y-39.193
X62.653 Y-39.16
X62.883 Y-39.108
X63.104 Y-39.04
X63.329 Y-38.95
X63.58 Y-38.825
X63.849 Y-38.663
X64.126 Y-38.465
X64.429 Y-38.209
X64.725 Y-37.914
X65.05 Y-37.534
X65.357 Y-37.111
X65.675 Y-36.589
X65.989 Y-35.966
X66.274 Y-35.268
X66.536 Y-34.44
X66.734 Y-33.576
X66.87 Y-32.7
X66.95 Y-31.818
X66.977 Y-30.932
X66.953 Y-30.046
X66.872 Y-29.164
X66.733 Y-28.322
X66.578 Y-27.7
X66.42 Y-27.233
X66.237 Y-26.806
X66.227 Y-26.786
X66.057 Y-26.534
X65.837 Y-26.325
X65.577 Y-26.169
X65.29 Y-26.072
X64.988 Y-26.039
X62.748 Y-26.037
G3 X62.168 Y-26.627 I0.02 J-0.6
G1 X61.972 Y-38.555
G3 X62.653 Y-39.16 I0.6 J-0.01
G1 X64.798 Y-38.791
X65.08 Y-38.728
X65.3 Y-38.66
X65.525 Y-38.57
X65.775 Y-38.446
X66.044 Y-38.284
X66.32 Y-38.087
X66.623 Y-37.83
X66.918 Y-37.537
X67.243 Y-37.157
X67.549 Y-36.735
X67.867 Y-36.214
X68.18 Y-35.593
X68.463 Y-34.899
X68.723 Y-34.076
X68.921 Y-33.212
X69.057 Y-32.337
X69.134 Y-31.454
X69.157 Y-30.568
X69.124 Y-29.683
X69.029 Y-28.802
X68.89 Y-28.068
X68.736 Y-27.508
X68.579 Y-27.074
X68.479 Y-26.857
X68.315 Y-26.583
