(RumpfL_au?en)
(Bearbeiten)
(  Hersteller: ChinaCnc)
(  model: 3040T)
(  description: Generic 3-axis)
(T5  D=3.175 CR=0 - ZMIN=-7 - Schaftfraser)
G90 G94
G17
G21
G28 G91 Z0
G90

(2D Adaptive16)
T5
S5000 M3
G54
G0 X-161.024 Y70.045
Z15
Z5
Z2.5
G3 X-160.261 Y67.127 Z2.335 I0.381 J-1.459 F333.3
X-161.024 Y70.045 Z2.169 I-0.381 J1.459
X-160.261 Y67.127 Z2.004 I0.381 J-1.459
X-161.024 Y70.045 Z1.838 I-0.381 J1.459
X-160.261 Y67.127 Z1.673 I0.381 J-1.459
X-161.024 Y70.045 Z1.507 I-0.381 J1.459
X-160.261 Y67.127 Z1.342 I0.381 J-1.459
X-161.024 Y70.045 Z1.176 I-0.381 J1.459
X-160.261 Y67.127 Z1.011 I0.381 J-1.459
X-161.024 Y70.045 Z0.845 I-0.381 J1.459
X-160.261 Y67.127 Z0.68 I0.381 J-1.459
X-161.024 Y70.045 Z0.515 I-0.381 J1.459
X-160.261 Y67.127 Z0.349 I0.381 J-1.459
X-161.024 Y70.045 Z0.184 I-0.381 J1.459
X-160.261 Y67.127 Z0.018 I0.381 J-1.459
X-161.024 Y70.045 Z-0.147 I-0.381 J1.459
X-160.261 Y67.127 Z-0.313 I0.381 J-1.459
X-161.024 Y70.045 Z-0.478 I-0.381 J1.459
X-160.261 Y67.127 Z-0.644 I0.381 J-1.459
X-161.024 Y70.045 Z-0.809 I-0.381 J1.459
X-160.261 Y67.127 Z-0.974 I0.381 J-1.459
X-161.024 Y70.045 Z-1.14 I-0.381 J1.459
X-160.261 Y67.127 Z-1.305 I0.381 J-1.459
X-161.024 Y70.045 Z-1.471 I-0.381 J1.459
X-160.261 Y67.127 Z-1.636 I0.381 J-1.459
X-161.024 Y70.045 Z-1.802 I-0.381 J1.459
X-160.261 Y67.127 Z-1.967 I0.381 J-1.459
X-161.024 Y70.045 Z-2.133 I-0.381 J1.459
X-160.261 Y67.127 Z-2.298 I0.381 J-1.459
X-161.024 Y70.045 Z-2.464 I-0.381 J1.459
X-160.261 Y67.127 Z-2.629 I0.381 J-1.459
X-161.024 Y70.045 Z-2.794 I-0.381 J1.459
X-160.261 Y67.127 Z-2.96 I0.381 J-1.459
X-161.024 Y70.045 Z-3.125 I-0.381 J1.459
X-160.261 Y67.127 Z-3.291 I0.381 J-1.459
X-161.024 Y70.045 Z-3.456 I-0.381 J1.459
X-160.261 Y67.127 Z-3.622 I0.381 J-1.459
X-161.024 Y70.045 Z-3.787 I-0.381 J1.459
X-160.261 Y67.127 Z-3.953 I0.381 J-1.459
X-161.024 Y70.045 Z-4.118 I-0.381 J1.459
X-160.261 Y67.127 Z-4.284 I0.381 J-1.459
X-161.024 Y70.045 Z-4.449 I-0.381 J1.459
X-160.261 Y67.127 Z-4.614 I0.381 J-1.459
X-161.024 Y70.045 Z-4.78 I-0.381 J1.459
X-160.261 Y67.127 Z-4.945 I0.381 J-1.459
X-161.024 Y70.045 Z-5.111 I-0.381 J1.459
X-160.261 Y67.127 Z-5.276 I0.381 J-1.459
X-161.024 Y70.045 Z-5.442 I-0.381 J1.459
X-160.261 Y67.127 Z-5.607 I0.381 J-1.459
X-161.024 Y70.045 Z-5.773 I-0.381 J1.459
X-160.261 Y67.127 Z-5.938 I0.381 J-1.459
X-161.024 Y70.045 Z-6.103 I-0.381 J1.459
X-160.261 Y67.127 Z-6.269 I0.381 J-1.459
X-161.024 Y70.045 Z-6.434 I-0.381 J1.459
X-160.261 Y67.127 Z-6.6 I0.381 J-1.459
X-161.024 Y70.045 Z-6.765 I-0.381 J1.459
X-160.261 Y67.127 Z-6.931 I0.381 J-1.459
X-159.135 Y68.586 Z-7 I-0.381 J1.459
X-162.151 Y68.586 I-1.508 J0
X-159.135 Y68.586 I1.508 J0
S6000
G1 X-159.118 Y69.228 F1000
X-159.089 Y69.303
X-159.055 Y69.449
X-159.051 Y69.599
X-159.073 Y69.747
X-159.115 Y69.891
X-159.175 Y70.028
X-159.251 Y70.158
X-159.341 Y70.278
X-159.442 Y70.389
X-159.553 Y70.49
X-159.672 Y70.581
X-159.799 Y70.66
X-159.933 Y70.729
X-160.074 Y70.788
X-160.224 Y70.837
X-160.38 Y70.875
X-160.542 Y70.9
X-160.709 Y70.913
X-160.879 Y70.912
X-161.051 Y70.897
X-161.224 Y70.868
X-161.396 Y70.825
X-161.566 Y70.767
X-161.732 Y70.696
X-161.893 Y70.61
X-162.048 Y70.511
X-162.195 Y70.4
X-162.334 Y70.276
X-162.463 Y70.14
X-162.582 Y69.994
X-162.688 Y69.839
X-162.783 Y69.675
X-162.864 Y69.503
X-162.931 Y69.325
X-162.983 Y69.141
X-163.021 Y68.954
X-163.044 Y68.764
X-163.052 Y68.572
X-163.044 Y68.38
X-163.02 Y68.189
X-162.982 Y68
X-162.928 Y67.815
X-162.859 Y67.635
X-162.777 Y67.461
X-162.68 Y67.293
X-162.57 Y67.134
X-162.448 Y66.984
X-162.314 Y66.845
X-162.169 Y66.716
X-162.015 Y66.6
X-161.851 Y66.496
X-161.68 Y66.406
X-161.502 Y66.33
X-161.318 Y66.268
X-161.13 Y66.221
X-160.939 Y66.19
X-160.746 Y66.174
X-160.552 Y66.173
X-160.359 Y66.188
X-160.167 Y66.219
X-159.979 Y66.264
X-159.795 Y66.325
X-159.616 Y66.4
X-159.444 Y66.49
X-159.28 Y66.593
X-159.124 Y66.709
X-158.978 Y66.836
X-158.843 Y66.976
X-158.72 Y67.125
X-158.609 Y67.284
X-158.504 Y67.464
X-158.365 Y67.752
X-158.211 Y68.152
X-158.123 Y68.448
X-158.068 Y68.711
X-158.036 Y68.954
X-158.026 Y69.182
X-158.033 Y69.399
X-158.057 Y69.609
X-158.097 Y69.814
X-158.154 Y70.015
X-158.226 Y70.211
X-158.314 Y70.4
X-158.417 Y70.581
X-158.535 Y70.755
X-158.667 Y70.921
X-158.815 Y71.077
X-158.976 Y71.222
X-159.151 Y71.356
X-159.338 Y71.477
X-159.538 Y71.585
X-159.749 Y71.677
X-159.97 Y71.753
X-160.199 Y71.812
X-160.435 Y71.853
X-160.677 Y71.875
X-160.923 Y71.878
X-161.17 Y71.861
X-161.418 Y71.824
X-161.664 Y71.766
X-161.906 Y71.688
X-162.144 Y71.59
X-162.374 Y71.473
X-162.595 Y71.337
X-162.807 Y71.183
X-163.006 Y71.011
X-163.191 Y70.823
X-163.362 Y70.619
X-163.516 Y70.402
X-163.653 Y70.172
X-163.771 Y69.931
X-163.87 Y69.681
X-163.949 Y69.423
X-164.007 Y69.158
X-164.044 Y68.89
X-164.059 Y68.619
X-164.052 Y68.347
X-164.023 Y68.076
X-163.973 Y67.807
X-163.901 Y67.544
X-163.808 Y67.287
X-163.695 Y67.038
X-163.562 Y66.798
X-163.41 Y66.57
X-163.24 Y66.355
X-163.054 Y66.154
X-162.852 Y65.968
X-162.635 Y65.8
X-162.406 Y65.649
X-162.165 Y65.517
X-161.914 Y65.404
X-161.655 Y65.313
X-161.389 Y65.242
X-161.119 Y65.193
X-160.845 Y65.165
X-160.57 Y65.16
X-160.295 Y65.177
X-160.023 Y65.216
X-159.755 Y65.276
X-159.492 Y65.358
X-159.237 Y65.461
X-158.99 Y65.584
X-158.755 Y65.726
X-158.531 Y65.886
X-158.319 Y66.066
X-158.105 Y66.28
X-157.887 Y66.536
X-157.684 Y66.817
X-157.499 Y67.122
X-157.339 Y67.441
X-157.208 Y67.764
X-157.106 Y68.087
X-157.033 Y68.406
X-156.988 Y68.723
X-156.968 Y69.037
X-156.973 Y69.347
X-157.003 Y69.652
X-157.056 Y69.951
X-157.133 Y70.243
X-157.233 Y70.526
X-157.355 Y70.8
X-157.498 Y71.063
X-157.663 Y71.315
X-157.848 Y71.553
X-158.052 Y71.777
X-158.276 Y71.986
X-158.517 Y72.177
X-158.774 Y72.349
X-159.048 Y72.502
X-159.334 Y72.633
X-159.634 Y72.742
X-159.943 Y72.827
X-160.261 Y72.888
X-160.586 Y72.923
X-160.915 Y72.932
X-161.245 Y72.914
X-161.576 Y72.87
X-161.904 Y72.799
X-162.227 Y72.701
X-162.544 Y72.577
X-162.851 Y72.427
X-163.146 Y72.251
X-163.428 Y72.052
X-163.695 Y71.83
X-163.943 Y71.586
X-164.173 Y71.321
X-164.381 Y71.038
X-164.566 Y70.739
X-164.727 Y70.424
X-164.863 Y70.097
X-164.972 Y69.759
X-165.054 Y69.412
X-165.108 Y69.06
X-165.134 Y68.703
X-165.131 Y68.345
X-165.099 Y67.988
X-165.038 Y67.635
X-164.95 Y67.286
X-164.833 Y66.946
X-164.69 Y66.616
X-164.52 Y66.299
X-164.325 Y65.995
X-164.107 Y65.709
X-163.866 Y65.44
X-163.604 Y65.192
X-163.322 Y64.965
X-163.024 Y64.762
X-162.71 Y64.583
X-162.383 Y64.43
X-162.044 Y64.304
X-161.696 Y64.205
X-161.342 Y64.134
X-160.982 Y64.093
X-160.621 Y64.08
X-160.26 Y64.096
X-159.901 Y64.141
X-159.546 Y64.215
X-159.199 Y64.317
X-158.861 Y64.446
X-158.534 Y64.603
X-158.215 Y64.788
X-157.901 Y65.006
X-157.596 Y65.257
X-157.303 Y65.539
X-157.028 Y65.852
X-156.776 Y66.189
X-156.55 Y66.547
X-156.355 Y66.921
X-156.191 Y67.306
X-156.061 Y67.7
X-155.963 Y68.099
X-155.898 Y68.501
X-155.865 Y68.903
Y69.304
X-155.898 Y69.7
X-155.961 Y70.09
X-156.055 Y70.473
X-156.179 Y70.845
X-156.332 Y71.205
X-156.514 Y71.552
X-156.723 Y71.884
X-156.959 Y72.198
X-157.22 Y72.494
X-157.505 Y72.769
X-157.813 Y73.021
X-158.141 Y73.249
X-158.489 Y73.451
X-158.854 Y73.625
X-159.235 Y73.77
X-159.628 Y73.886
X-160.031 Y73.969
X-160.443 Y74.021
X-160.86 Y74.039
X-161.279 Y74.024
X-161.698 Y73.975
X-162.113 Y73.892
X-162.523 Y73.775
X-162.925 Y73.625
X-163.314 Y73.442
X-163.69 Y73.228
X-164.048 Y72.983
X-164.387 Y72.71
X-164.704 Y72.409
X-164.997 Y72.082
X-165.264 Y71.732
X-165.502 Y71.36
X-165.71 Y70.97
X-165.887 Y70.563
X-166.031 Y70.142
X-166.14 Y69.71
X-166.215 Y69.27
X-166.254 Y68.825
X-166.258 Y68.378
X-166.225 Y67.931
X-166.157 Y67.487
X-166.053 Y67.05
X-165.915 Y66.622
X-165.742 Y66.207
X-165.536 Y65.806
X-165.299 Y65.423
X-165.032 Y65.06
X-164.736 Y64.72
X-164.414 Y64.404
X-164.067 Y64.115
X-163.698 Y63.855
X-163.309 Y63.625
X-162.903 Y63.427
X-162.482 Y63.262
X-162.05 Y63.131
X-161.608 Y63.036
X-161.16 Y62.976
X-160.708 Y62.952
X-160.256 Y62.965
X-159.806 Y63.014
X-159.362 Y63.099
X-158.925 Y63.22
X-158.495 Y63.376
X-158.075 Y63.569
X-157.667 Y63.798
X-157.271 Y64.063
X-156.89 Y64.365
X-156.529 Y64.703
X-156.191 Y65.073
X-155.882 Y65.472
X-155.605 Y65.896
X-155.363 Y66.342
X-155.158 Y66.804
X-154.991 Y67.279
X-154.864 Y67.763
X-154.776 Y68.254
X-154.729 Y68.747
X-154.721 Y69.24
X-154.752 Y69.729
X-154.823 Y70.213
X-154.931 Y70.687
X-155.077 Y71.15
X-155.26 Y71.6
X-155.478 Y72.033
X-155.73 Y72.447
X-156.015 Y72.841
X-156.331 Y73.211
X-156.677 Y73.556
X-157.051 Y73.873
X-157.45 Y74.16
X-157.874 Y74.415
X-158.318 Y74.636
X-158.781 Y74.822
X-159.259 Y74.971
X-159.751 Y75.081
X-160.252 Y75.152
X-160.759 Y75.183
X-161.27 Y75.172
X-161.781 Y75.121
X-162.288 Y75.028
X-162.788 Y74.895
X-163.278 Y74.721
X-163.754 Y74.507
X-164.213 Y74.255
X-164.652 Y73.966
X-165.068 Y73.641
X-165.458 Y73.284
X-165.818 Y72.894
X-166.147 Y72.476
X-166.442 Y72.032
X-166.702 Y71.565
X-166.923 Y71.077
X-167.105 Y70.572
X-167.246 Y70.054
X-167.345 Y69.524
X-167.401 Y68.988
X-167.414 Y68.448
X-167.384 Y67.909
X-167.31 Y67.373
X-167.194 Y66.844
X-167.035 Y66.325
X-166.835 Y65.821
X-166.595 Y65.334
X-166.317 Y64.868
X-166.002 Y64.425
X-165.652 Y64.009
X-165.27 Y63.622
X-164.858 Y63.267
X-164.418 Y62.945
X-163.954 Y62.661
X-163.469 Y62.414
X-162.965 Y62.207
X-162.446 Y62.041
X-161.916 Y61.917
X-161.377 Y61.836
X-160.833 Y61.799
X-160.288 Y61.805
X-159.745 Y61.855
X-159.206 Y61.949
X-158.674 Y62.087
X-158.151 Y62.268
X-157.64 Y62.492
X-157.143 Y62.76
X-156.662 Y63.071
X-156.203 Y63.423
X-155.769 Y63.815
X-155.364 Y64.245
X-154.993 Y64.708
X-154.66 Y65.201
X-154.366 Y65.72
X-154.116 Y66.26
X-153.91 Y66.818
X-153.749 Y67.389
X-153.636 Y67.969
X-153.57 Y68.554
X-153.551 Y69.141
X-153.579 Y69.725
X-153.653 Y70.303
X-153.774 Y70.873
X-153.939 Y71.429
X-154.148 Y71.97
X-154.4 Y72.493
X-154.694 Y72.993
X-155.026 Y73.469
X-155.397 Y73.917
X-155.803 Y74.335
X-156.243 Y74.721
X-156.713 Y75.07
X-157.212 Y75.382
X-157.736 Y75.654
X-158.282 Y75.884
X-158.847 Y76.07
X-159.428 Y76.21
X-160.02 Y76.304
X-160.621 Y76.35
X-161.225 Y76.348
X-161.83 Y76.297
X-162.431 Y76.198
X-163.024 Y76.05
X-163.605 Y75.854
X-164.171 Y75.611
X-164.717 Y75.323
X-165.24 Y74.991
X-165.736 Y74.617
X-166.201 Y74.203
X-166.633 Y73.752
X-167.029 Y73.267
X-167.384 Y72.75
X-167.698 Y72.205
X-167.968 Y71.636
X-168.191 Y71.046
X-168.367 Y70.439
X-168.494 Y69.819
X-168.57 Y69.191
X-168.596 Y68.557
X-168.571 Y67.922
X-168.495 Y67.291
X-168.368 Y66.668
X-168.192 Y66.056
X-167.967 Y65.46
X-167.695 Y64.883
X-167.377 Y64.33
X-167.015 Y63.805
X-166.613 Y63.309
X-166.171 Y62.847
X-165.694 Y62.422
X-165.185 Y62.037
X-164.645 Y61.693
X-164.08 Y61.394
X-163.493 Y61.142
X-162.887 Y60.937
X-162.266 Y60.781
X-161.635 Y60.676
X-160.997 Y60.621
X-160.357 Y60.618
X-159.717 Y60.667
X-159.082 Y60.767
X-158.458 Y60.917
X-157.847 Y61.116
X-157.255 Y61.363
X-156.683 Y61.656
X-156.136 Y61.992
X-155.616 Y62.37
X-155.128 Y62.786
X-154.672 Y63.239
X-154.252 Y63.725
X-153.87 Y64.241
X-153.527 Y64.784
X-153.226 Y65.351
X-152.967 Y65.939
X-152.753 Y66.544
X-152.585 Y67.164
X-152.463 Y67.794
X-152.39 Y68.432
X-152.364 Y69.074
X-152.387 Y69.716
X-152.458 Y70.354
X-152.578 Y70.985
X-152.746 Y71.605
X-152.961 Y72.21
X-153.222 Y72.797
X-153.527 Y73.362
X-153.874 Y73.902
X-154.262 Y74.414
X-154.687 Y74.895
X-155.148 Y75.343
X-155.641 Y75.754
X-156.163 Y76.127
X-156.712 Y76.46
X-157.285 Y76.751
X-157.878 Y76.998
X-158.487 Y77.201
X-159.11 Y77.358
X-159.742 Y77.468
X-160.382 Y77.53
X-161.024 Y77.545
X-161.665 Y77.511
X-162.302 Y77.43
X-162.932 Y77.303
X-163.55 Y77.13
X-164.155 Y76.914
X-164.742 Y76.654
X-165.309 Y76.353
X-165.854 Y76.013
X-166.372 Y75.634
X-166.861 Y75.218
X-167.319 Y74.767
X-167.742 Y74.284
X-168.131 Y73.773
X-168.482 Y73.235
X-168.794 Y72.674
X-169.067 Y72.093
X-169.298 Y71.493
X-169.486 Y70.879
X-169.628 Y70.253
X-169.725 Y69.618
X-169.776 Y68.978
X-169.783 Y68.336
X-169.745 Y67.695
X-169.662 Y67.058
X-169.536 Y66.428
X-169.366 Y65.809
X-169.151 Y65.204
X-168.893 Y64.616
X-168.595 Y64.047
X-168.257 Y63.501
X-167.883 Y62.979
X-167.473 Y62.485
X-167.03 Y62.02
X-166.556 Y61.587
X-166.051 Y61.189
X-165.52 Y60.829
X-164.964 Y60.507
X-164.387 Y60.225
X-163.792 Y59.983
X-163.182 Y59.783
X-162.56 Y59.625
X-161.928 Y59.511
X-161.289 Y59.443
X-160.647 Y59.421
X-160.006 Y59.444
X-159.367 Y59.512
X-158.734 Y59.623
X-158.111 Y59.777
X-157.499 Y59.973
X-156.903 Y60.211
X-156.325 Y60.491
X-155.768 Y60.81
X-155.233 Y61.166
X-154.724 Y61.557
X-154.242 Y61.981
X-153.788 Y62.436
X-153.365 Y62.919
X-152.975 Y63.429
X-152.621 Y63.965
X-152.303 Y64.523
X-152.023 Y65.101
X-151.78 Y65.695
X-151.577 Y66.304
X-151.413 Y66.925
X-151.29 Y67.556
X-151.208 Y68.193
X-151.17 Y68.834
X-151.175 Y69.476
X-151.223 Y70.116
X-151.313 Y70.752
X-151.445 Y71.38
X-151.618 Y71.999
X-151.832 Y72.604
X-152.085 Y73.194
X-152.379 Y73.765
X-152.711 Y74.315
X-153.08 Y74.841
X-153.482 Y75.342
X-153.916 Y75.815
X-154.38 Y76.259
X-154.872 Y76.672
X-155.39 Y77.051
X-155.933 Y77.394
X-156.498 Y77.7
X-157.081 Y77.968
X-157.681 Y78.198
X-158.294 Y78.388
X-158.918 Y78.539
X-159.551 Y78.649
X-160.19 Y78.718
X-160.831 Y78.744
X-161.473 Y78.726
X-162.113 Y78.667
X-162.747 Y78.566
X-163.374 Y78.426
X-163.99 Y78.246
X-164.594 Y78.028
X-165.184 Y77.773
X-165.755 Y77.481
X-166.307 Y77.152
X-166.836 Y76.787
X-167.34 Y76.39
X-167.818 Y75.961
X-168.269 Y75.504
X-168.689 Y75.019
X-169.08 Y74.508
X-169.437 Y73.975
X-169.76 Y73.42
X-170.047 Y72.845
X-170.297 Y72.254
X-170.509 Y71.648
X-170.683 Y71.029
X-170.818 Y70.402
X-170.914 Y69.767
X-170.971 Y69.127
X-170.987 Y68.485
X-170.963 Y67.843
X-170.898 Y67.204
X-170.794 Y66.571
X-170.651 Y65.945
X-170.47 Y65.329
X-170.25 Y64.725
X-169.994 Y64.136
X-169.702 Y63.564
X-169.374 Y63.012
X-169.012 Y62.482
X-168.617 Y61.975
X-168.193 Y61.493
X-167.739 Y61.038
X-167.259 Y60.613
X-166.752 Y60.217
X-166.223 Y59.854
X-165.672 Y59.524
X-165.101 Y59.23
X-164.513 Y58.973
X-163.91 Y58.752
X-163.294 Y58.568
X-162.669 Y58.423
X-162.036 Y58.316
X-161.397 Y58.249
X-160.755 Y58.221
X-160.113 Y58.233
X-159.473 Y58.286
X-158.838 Y58.379
X-158.209 Y58.51
X-157.59 Y58.679
X-156.981 Y58.885
X-156.387 Y59.128
X-155.808 Y59.406
X-155.247 Y59.718
X-154.706 Y60.065
X-154.188 Y60.444
X-153.693 Y60.854
X-153.223 Y61.291
X-152.78 Y61.756
X-152.364 Y62.245
X-151.978 Y62.758
X-151.622 Y63.293
X-151.298 Y63.847
X-151.008 Y64.42
X-150.753 Y65.009
X-150.532 Y65.613
X-150.346 Y66.227
X-150.197 Y66.852
X-150.083 Y67.484
X-150.007 Y68.122
X-149.968 Y68.763
X-149.967 Y69.405
X-150.005 Y70.046
X-150.081 Y70.683
X-150.196 Y71.315
X-150.347 Y71.94
X-150.534 Y72.554
X-150.758 Y73.156
X-151.016 Y73.744
X-151.309 Y74.315
X-151.636 Y74.868
X-151.995 Y75.4
X-152.386 Y75.91
X-152.807 Y76.395
X-153.255 Y76.855
X-153.729 Y77.288
X-154.227 Y77.693
X-154.749 Y78.068
X-155.291 Y78.412
X-155.853 Y78.724
X-156.432 Y79.001
X-157.026 Y79.244
X-157.634 Y79.451
X-158.253 Y79.623
X-158.881 Y79.759
X-159.515 Y79.858
X-160.154 Y79.921
X-160.796 Y79.946
X-161.438 Y79.935
X-162.078 Y79.885
X-162.714 Y79.798
X-163.344 Y79.674
X-163.966 Y79.514
X-164.579 Y79.32
X-165.179 Y79.092
X-165.765 Y78.83
X-166.336 Y78.536
X-166.889 Y78.21
X-167.423 Y77.852
X-167.934 Y77.464
X-168.423 Y77.047
X-168.887 Y76.603
X-169.325 Y76.133
X-169.736 Y75.641
X-170.12 Y75.126
X-170.474 Y74.59
X-170.798 Y74.035
X-171.09 Y73.464
X-171.35 Y72.876
X-171.574 Y72.274
X-171.765 Y71.661
X-171.92 Y71.038
X-172.041 Y70.407
X-172.128 Y69.771
X-172.178 Y69.131
X-172.193 Y68.489
X-172.173 Y67.847
X-172.117 Y67.207
X-172.024 Y66.572
X-171.895 Y65.943
X-171.731 Y65.322
X-171.534 Y64.711
X-171.303 Y64.112
X-171.039 Y63.526
X-170.743 Y62.956
X-170.416 Y62.403
X-170.059 Y61.869
X-169.673 Y61.356
X-169.258 Y60.866
X-168.816 Y60.4
X-168.349 Y59.959
X-167.859 Y59.545
X-167.346 Y59.158
X-166.813 Y58.8
X-166.261 Y58.472
X-165.691 Y58.175
X-165.106 Y57.91
X-164.507 Y57.679
X-163.896 Y57.481
X-163.275 Y57.318
X-162.646 Y57.19
X-162.011 Y57.096
X-161.371 Y57.038
X-160.729 Y57.014
X-160.087 Y57.027
X-159.447 Y57.074
X-158.81 Y57.157
X-158.179 Y57.276
X-157.555 Y57.43
X-156.941 Y57.618
X-156.338 Y57.838
X-155.748 Y58.091
X-155.172 Y58.376
X-154.613 Y58.691
X-154.071 Y59.036
X-153.549 Y59.41
X-153.048 Y59.811
X-152.569 Y60.24
X-152.114 Y60.693
X-151.684 Y61.17
X-151.279 Y61.668
X-150.901 Y62.188
X-150.551 Y62.726
X-150.23 Y63.282
X-149.938 Y63.854
X-149.676 Y64.44
X-149.447 Y65.04
X-149.25 Y65.651
X-149.085 Y66.272
X-148.953 Y66.9
X-148.855 Y67.535
X-148.789 Y68.174
X-148.757 Y68.815
X-148.759 Y69.457
X-148.796 Y70.099
X-148.866 Y70.737
X-148.971 Y71.371
X-149.11 Y71.997
X-149.283 Y72.616
X-149.488 Y73.224
X-149.725 Y73.821
X-149.994 Y74.405
X-150.293 Y74.973
X-150.621 Y75.525
X-150.979 Y76.058
X-151.365 Y76.571
X-151.778 Y77.063
X-152.217 Y77.532
X-152.68 Y77.977
X-153.166 Y78.396
X-153.673 Y78.79
X-154.201 Y79.156
X-154.747 Y79.495
X-155.309 Y79.804
X-155.888 Y80.083
X-156.48 Y80.332
X-156.784 Y80.44
X-156.858 Y80.463
X-156.934 Y80.477
X-157.011 Y80.483
X-159.631 Y80.563
X-160.36 Y80.582
X-162.986 Y80.647
X-163.618 Y80.631
X-164.073 Y80.583
X-164.606 Y80.482
X-165.225 Y80.313
X-165.829 Y80.096
X-166.417 Y79.838
X-166.989 Y79.546
X-167.543 Y79.221
X-168.079 Y78.867
X-168.595 Y78.485
X-169.09 Y78.076
X-169.562 Y77.64
X-170.012 Y77.182
X-170.437 Y76.7
X-170.837 Y76.198
X-171.212 Y75.677
X-171.56 Y75.137
X-171.881 Y74.581
X-172.173 Y74.009
X-172.435 Y73.423
X-172.668 Y72.824
X-172.868 Y72.214
X-173.037 Y71.594
X-173.174 Y70.967
X-173.28 Y70.334
X-173.353 Y69.696
X-173.395 Y69.055
X-173.405 Y68.413
X-173.383 Y67.771
X-173.328 Y67.131
X-173.241 Y66.495
X-173.122 Y65.864
X-172.97 Y65.24
X-172.786 Y64.624
X-172.572 Y64.019
X-172.328 Y63.425
X-172.054 Y62.844
X-171.752 Y62.277
X-171.422 Y61.726
X-171.065 Y61.192
X-170.682 Y60.677
X-170.273 Y60.182
X-169.839 Y59.709
X-169.381 Y59.258
X-168.902 Y58.832
X-168.401 Y58.429
X-167.881 Y58.052
X-167.343 Y57.702
X-166.788 Y57.378
X-166.218 Y57.083
X-165.634 Y56.816
X-165.555 Y56.785
X-165.474 Y56.758
X-165.391 Y56.741
X-165.306 Y56.733
X-161.236 Y56.598
X-160.798 Y56.586
X-157.734 Y56.526
X-157.251 Y56.541
X-156.858 Y56.585
X-156.387 Y56.676
X-155.824 Y56.833
X-155.221 Y57.054
X-154.636 Y57.319
X-154.069 Y57.621
X-153.52 Y57.954
X-152.99 Y58.317
X-152.48 Y58.707
X-151.991 Y59.123
X-151.523 Y59.563
X-151.077 Y60.025
X-150.654 Y60.508
X-150.254 Y61.011
X-149.878 Y61.532
X-149.528 Y62.07
X-149.204 Y62.624
X-148.906 Y63.193
X-148.636 Y63.776
X-148.396 Y64.371
X-148.185 Y64.978
X-148.003 Y65.594
X-147.851 Y66.218
X-147.729 Y66.848
X-147.637 Y67.484
X-147.575 Y68.123
X-147.543 Y68.764
X-147.542 Y69.407
X-147.572 Y70.048
X-147.633 Y70.687
X-147.726 Y71.323
X-147.851 Y71.953
X-148.006 Y72.576
X-148.191 Y73.191
X-148.405 Y73.796
X-148.648 Y74.39
X-148.92 Y74.973
X-149.218 Y75.541
X-149.544 Y76.095
X-149.896 Y76.632
X-150.274 Y77.151
X-150.678 Y77.65
X-151.105 Y78.129
X-151.556 Y78.587
X-152.027 Y79.023
X-152.52 Y79.436
X-153.031 Y79.824
X-153.559 Y80.189
X-153.681 Y80.264
X-153.794 Y80.322
X-153.916 Y80.359
X-154.042 Y80.375
X-155.691 Y80.441
X-155.983 Y80.452
X-157.011 Y80.483
G3 X-157.247 Y80.389 I-0.01 J-0.317
G1 X-157.296 Y80.348
X-157.353 Y80.318
X-157.414 Y80.299
X-157.478 Y80.294
X-157.745 Y80.298
X-162.074 Y80.358
X-162.132 Y80.365
X-162.187 Y80.381
X-162.239 Y80.407
G3 X-162.986 Y80.647 I-0.842 J-1.34
G1 X-163.716 Y80.663
X-166.05 Y80.708
X-166.337 Y80.699
X-166.599 Y80.669
X-166.909 Y80.609
X-167.265 Y80.51
X-167.682 Y80.356
X-168.178 Y80.127
X-168.738 Y79.812
X-169.27 Y79.453
X-169.778 Y79.06
X-170.262 Y78.639
X-170.723 Y78.191
X-171.16 Y77.721
X-171.574 Y77.23
X-171.965 Y76.72
X-172.331 Y76.192
X-172.672 Y75.648
X-172.988 Y75.089
X-173.279 Y74.516
X-173.542 Y73.931
X-173.778 Y73.333
X-173.985 Y72.726
X-174.163 Y72.109
X-174.312 Y71.484
X-174.432 Y70.853
X-174.523 Y70.217
X-174.584 Y69.578
X-174.617 Y68.937
X-174.62 Y68.295
X-174.595 Y67.653
X-174.54 Y67.013
X-174.455 Y66.377
X-174.341 Y65.744
X-174.198 Y65.119
X-174.025 Y64.5
X-173.823 Y63.89
X-173.594 Y63.291
X-173.337 Y62.702
X-173.054 Y62.125
X-172.746 Y61.562
X-172.412 Y61.014
X-172.053 Y60.481
X-171.671 Y59.965
X-171.265 Y59.467
X-170.836 Y58.989
X-170.386 Y58.532
X-169.914 Y58.096
X-169.423 Y57.682
X-168.913 Y57.291
X-168.435 Y56.958
X-168.312 Y56.889
X-168.179 Y56.844
X-168.039 Y56.826
X-167.364 Y56.802
X-165.306 Y56.733
X-165.296
X-165.233 Y56.739
X-165.173 Y56.758
X-165.118 Y56.787
X-165.07 Y56.827
X-165.02 Y56.868
X-164.964 Y56.898
X-164.902 Y56.916
X-164.838 Y56.922
X-164.572 Y56.917
X-158.645 Y56.81
X-158.588 Y56.804
X-158.534 Y56.788
X-158.483 Y56.762
G3 X-157.734 Y56.526 I0.835 J1.344
G1 X-154.962 Y56.472
X-154.706 Y56.48
X-154.457 Y56.508
X-154.159 Y56.566
X-153.823 Y56.659
X-153.423 Y56.806
X-152.946 Y57.026
X-152.402 Y57.332
X-151.869 Y57.691
X-151.363 Y58.085
X-150.88 Y58.509
X-150.419 Y58.957
X-149.981 Y59.426
X-149.566 Y59.916
X-149.172 Y60.423
X-148.802 Y60.948
X-148.455 Y61.488
X-148.132 Y62.043
X-147.833 Y62.612
X-147.56 Y63.193
X-147.313 Y63.786
X-147.093 Y64.389
X-146.901 Y65.002
X-146.736 Y65.622
X-146.598 Y66.25
X-146.488 Y66.882
X-146.405 Y67.519
X-146.35 Y68.159
X-146.322 Y68.801
X-146.323 Y69.443
X-146.352 Y70.084
X-146.41 Y70.724
X-146.496 Y71.36
X-146.611 Y71.992
X-146.755 Y72.618
X-146.927 Y73.237
X-147.126 Y73.847
X-147.351 Y74.449
X-147.603 Y75.039
X-147.88 Y75.619
X-148.182 Y76.185
X-148.509 Y76.738
X-148.859 Y77.276
X-149.234 Y77.798
X-149.632 Y78.302
X-150.052 Y78.788
X-150.494 Y79.254
X-150.956 Y79.7
X-151.412 Y80.103
X-151.55 Y80.199
X-151.706 Y80.262
X-151.873 Y80.288
X-154.042 Y80.375
X-154.524 Y80.272
G3 X-155.545 Y79.873 I0.378 J-2.471
G1 X-158.049 Y78.245
X-159.193 Y77.62
G2 X-162.03 Y77.807 I-1.283 J2.145
G1 X-165.301 Y80.472
G3 X-166.05 Y80.708 I-0.834 J-1.345
G1 X-167.072 Y80.727
X-168.239 Y80.743
X-168.427 Y80.736
X-168.644 Y80.71
X-168.872 Y80.665
X-169.155 Y80.584
X-169.463 Y80.469
X-169.839 Y80.292
X-170.246 Y80.06
X-170.727 Y79.732
X-171.227 Y79.328
X-171.697 Y78.89
X-172.139 Y78.424
X-172.556 Y77.936
X-172.95 Y77.429
X-173.319 Y76.904
X-173.666 Y76.363
X-173.988 Y75.808
X-174.287 Y75.239
X-174.559 Y74.658
X-174.807 Y74.065
X-175.028 Y73.462
X-175.223 Y72.85
X-175.392 Y72.231
X-175.534 Y71.604
X-175.649 Y70.973
X-175.738 Y70.337
X-175.801 Y69.698
X-175.836 Y69.056
X-175.845 Y68.414
X-175.827 Y67.772
X-175.781 Y67.132
X-175.708 Y66.494
X-175.608 Y65.859
X-175.48 Y65.23
X-175.325 Y64.607
X-175.145 Y63.991
X-174.938 Y63.383
X-174.706 Y62.784
X-174.449 Y62.195
X-174.168 Y61.618
X-173.863 Y61.053
X-173.535 Y60.501
X-173.184 Y59.963
X-172.81 Y59.441
X-172.414 Y58.935
X-171.996 Y58.447
X-171.558 Y57.977
X-171.101 Y57.527
X-170.623 Y57.094
X-170.49 Y57.006
X-170.341 Y56.948
X-170.183 Y56.924
X-168.039 Y56.826
X-167.51 Y56.938
G3 X-166.458 Y57.39 I-0.435 J2.462
G1 X-163.862 Y59.359
G2 X-162.695 Y59.824 I1.479 J-2.015
G1 X-161.381 Y59.957
X-158.901
G2 X-156.536 Y58.119 I-0.046 J-2.5
G1 X-156.421 Y57.71
G3 X-154.962 Y56.472 I1.545 J0.342
G1 X-154.524 Y56.464
X-153.94 Y56.458
X-152.773 Y56.451
X-152.623 Y56.457
X-152.417 Y56.483
X-152.186 Y56.531
X-151.903 Y56.614
X-151.604 Y56.729
X-151.235 Y56.905
X-150.819 Y57.147
X-150.34 Y57.479
X-149.843 Y57.886
X-149.377 Y58.328
X-148.936 Y58.795
X-148.52 Y59.284
X-148.128 Y59.792
X-147.757 Y60.317
X-147.41 Y60.857
X-147.085 Y61.411
X-146.783 Y61.978
X-146.504 Y62.556
X-146.25 Y63.146
X-146.021 Y63.746
X-145.817 Y64.355
X-145.639 Y64.972
X-145.486 Y65.596
X-145.357 Y66.225
X-145.255 Y66.859
X-145.177 Y67.496
X-145.125 Y68.136
X-145.099 Y68.778
Y69.42
X-145.124 Y70.062
X-145.176 Y70.702
X-145.254 Y71.339
X-145.36 Y71.973
X-145.492 Y72.601
X-145.65 Y73.224
X-145.833 Y73.839
X-146.041 Y74.447
X-146.273 Y75.045
X-146.53 Y75.634
X-146.809 Y76.212
X-147.112 Y76.779
X-147.437 Y77.332
X-147.785 Y77.872
X-148.154 Y78.398
X-148.545 Y78.907
X-148.958 Y79.399
X-149.391 Y79.874
X-149.509 Y79.993
X-149.654 Y80.107
X-149.823 Y80.182
X-150.006 Y80.212
X-151.873 Y80.288
X-152.335 Y80.188
G3 X-153.665 Y79.557 I0.359 J-2.474
G1 X-155.515 Y77.807
X-155.601 Y77.732
X-155.691 Y77.661
G2 X-157.296 Y77.159 I-1.505 J1.996
G1 X-162.695 Y77.332
G2 X-164.154 Y77.841 I0.054 J2.499
G1 X-167.51 Y80.486
X-167.655 Y80.6
X-168.239 Y80.743
X-169.99 Y80.766
X-170.237 Y80.757
X-170.415 Y80.736
X-170.631 Y80.693
X-170.858 Y80.628
X-171.123 Y80.529
X-171.426 Y80.387
X-171.772 Y80.19
X-172.159 Y79.926
X-172.612 Y79.56
X-173.078 Y79.117
X-173.51 Y78.643
X-173.915 Y78.144
X-174.293 Y77.625
X-174.648 Y77.09
X-174.978 Y76.539
X-175.285 Y75.975
X-175.567 Y75.398
X-175.826 Y74.811
X-176.06 Y74.213
X-176.27 Y73.606
X-176.456 Y72.991
X-176.618 Y72.37
X-176.755 Y71.742
X-176.867 Y71.11
X-176.956 Y70.474
X-177.019 Y69.835
X-177.058 Y69.194
X-177.072 Y68.552
X-177.061 Y67.91
X-177.024 Y67.269
X-176.961 Y66.629
X-176.873 Y65.993
X-176.76 Y65.361
X-176.622 Y64.734
X-176.459 Y64.113
X-176.272 Y63.498
X-176.062 Y62.892
X-175.828 Y62.293
X-175.572 Y61.705
X-175.293 Y61.126
X-174.992 Y60.559
X-174.67 Y60.004
X-174.325 Y59.462
X-173.959 Y58.934
X-173.572 Y58.421
X-173.166 Y57.924
X-172.74 Y57.444
X-172.541 Y57.236
X-172.395 Y57.119
X-172.225 Y57.041
X-172.04 Y57.009
X-170.183 Y56.924
X-169.884 Y57.098
X-169.58 Y57.415
X-167.947 Y59.124
X-167.877 Y59.206
X-167.804 Y59.285
X-167.801 Y59.288
G2 X-166.05 Y60.044 I1.792 J-1.744
G1 X-158.317 Y59.952
G2 X-156.712 Y59.338 I-0.036 J-2.5
G1 X-153.521 Y56.68
X-153.497 Y56.66
X-152.773 Y56.451
X-151.022 Y56.44
X-150.825 Y56.449
X-150.647 Y56.471
X-150.432 Y56.516
X-150.204 Y56.582
X-149.939 Y56.684
X-149.635 Y56.829
X-149.288 Y57.03
X-148.898 Y57.301
X-148.439 Y57.677
X-147.977 Y58.122
X-147.547 Y58.599
X-147.144 Y59.099
X-146.766 Y59.618
X-146.412 Y60.154
X-146.08 Y60.704
X-145.771 Y61.267
X-145.484 Y61.841
X-145.221 Y62.427
X-144.981 Y63.023
X-144.764 Y63.627
X-144.571 Y64.24
X-144.401 Y64.859
X-144.255 Y65.484
X-144.131 Y66.115
X-144.032 Y66.749
X-143.955 Y67.387
X-143.903 Y68.027
X-143.874 Y68.668
X-143.869 Y69.31
X-143.888 Y69.952
X-143.932 Y70.593
X-144.001 Y71.231
X-144.095 Y71.867
X-144.214 Y72.498
X-144.356 Y73.124
X-144.523 Y73.744
X-144.712 Y74.358
X-144.925 Y74.964
X-145.16 Y75.561
X-145.417 Y76.15
X-145.695 Y76.728
X-145.996 Y77.296
X-146.317 Y77.852
X-146.658 Y78.396
X-147.021 Y78.926
X-147.404 Y79.441
X-147.749 Y79.868
X-147.902 Y80.011
X-148.089 Y80.105
X-148.295 Y80.143
X-150.006 Y80.212
G0 Z5
X-168.969 Y80.369
Z-6.365
G1 Z-6.682 F1000
X-168.976 Y80.373 Z-6.753
X-168.996 Y80.385 Z-6.82
X-169.028 Y80.405 Z-6.88
X-169.071 Y80.431 Z-6.931
X-169.122 Y80.463 Z-6.969
X-169.179 Y80.498 Z-6.992
X-169.239 Y80.535 Z-7
G3 X-169.99 Y80.766 I-0.827 J-1.349
G1 X-170.574 Y80.774
X-171.741 Y80.782
X-171.9 Y80.775
X-172.078 Y80.752
X-172.258 Y80.715
X-172.474 Y80.652
X-172.724 Y80.556
X-172.985 Y80.431
X-173.301 Y80.248
X-173.639 Y80.013
X-174.031 Y79.692
X-174.481 Y79.259
X-174.906 Y78.777
X-175.299 Y78.269
X-175.663 Y77.74
X-176.002 Y77.195
X-176.316 Y76.635
X-176.607 Y76.062
X-176.874 Y75.478
X-177.118 Y74.884
X-177.339 Y74.281
X-177.537 Y73.67
X-177.712 Y73.052
X-177.864 Y72.429
X-177.994 Y71.8
X-178.101 Y71.166
X-178.185 Y70.53
X-178.247 Y69.89
X-178.285 Y69.249
X-178.3 Y68.607
X-178.292 Y67.965
X-178.26 Y67.324
X-178.204 Y66.684
X-178.124 Y66.047
X-178.021 Y65.413
X-177.894 Y64.784
X-177.744 Y64.159
X-177.572 Y63.541
X-177.377 Y62.929
X-177.161 Y62.324
X-176.923 Y61.727
X-176.664 Y61.14
X-176.384 Y60.562
X-176.084 Y59.994
X-175.763 Y59.438
X-175.422 Y58.894
X-175.061 Y58.362
X-174.681 Y57.845
X-174.279 Y57.339
X-174.129 Y57.209
X-173.951 Y57.124
X-173.756 Y57.088
X-172.04 Y57.009
X-171.741 Y57.185
X-171.453 Y57.516
X-169.844 Y59.368
G2 X-169.26 Y59.867 I1.898 J-1.627
G1 X-169.257 Y59.869
G2 X-167.801 Y60.236 I1.311 J-2.129
G1 X-155.691 Y59.811
X-155.399 Y59.796
G2 X-154.234 Y59.431 I-0.141 J-2.496
G1 X-153.502 Y58.757
X-151.774 Y56.666
G3 X-151.022 Y56.44 I0.817 J1.355
G1 X-149.337 Y56.43
X-149.18 Y56.437
X-149.002 Y56.459
X-148.821 Y56.497
X-148.609 Y56.558
X-148.357 Y56.655
X-148.099 Y56.778
X-147.782 Y56.962
X-147.447 Y57.194
X-147.052 Y57.518
X-146.598 Y57.956
X-146.173 Y58.437
X-145.779 Y58.945
X-145.413 Y59.473
X-145.072 Y60.017
X-144.755 Y60.575
X-144.459 Y61.145
X-144.187 Y61.727
X-143.937 Y62.319
X-143.71 Y62.919
X-143.504 Y63.527
X-143.32 Y64.143
X-143.158 Y64.764
X-143.018 Y65.391
X-142.9 Y66.022
X-142.803 Y66.657
X-142.729 Y67.295
X-142.676 Y67.935
X-142.646 Y68.576
X-142.638 Y69.218
X-142.652 Y69.86
X-142.69 Y70.501
X-142.751 Y71.141
X-142.836 Y71.777
X-142.943 Y72.41
X-143.073 Y73.039
X-143.225 Y73.663
X-143.4 Y74.281
X-143.595 Y74.893
X-143.812 Y75.497
X-144.05 Y76.094
X-144.308 Y76.682
X-144.587 Y77.261
X-144.885 Y77.829
X-145.203 Y78.387
X-145.54 Y78.934
X-145.897 Y79.467
X-146.108 Y79.757
X-146.261 Y79.913
X-146.453 Y80.018
X-146.667 Y80.062
X-147.666 Y80.116
X-148.25 Y80.142
X-148.295 Y80.143
X-148.944 Y79.7
X-152.335 Y77.379
G2 X-153.94 Y76.906 I-1.468 J2.024
G1 X-167.364 Y77.411
G2 X-169.125 Y78.245 I0.104 J2.498
G1 X-171.035 Y80.475
X-171.123 Y80.578
X-171.741 Y80.782
X-173.346 Y80.791
X-173.496 Y80.785
X-173.65 Y80.763
X-173.831 Y80.723
X-174.049 Y80.655
X-174.267 Y80.569
X-174.525 Y80.44
X-174.809 Y80.27
X-175.133 Y80.038
X-175.485 Y79.741
X-175.892 Y79.336
X-176.31 Y78.849
X-176.692 Y78.332
X-177.043 Y77.795
X-177.367 Y77.24
X-177.666 Y76.672
X-177.941 Y76.091
X-178.193 Y75.501
X-178.423 Y74.901
X-178.63 Y74.293
X-178.816 Y73.679
X-178.98 Y73.058
X-179.123 Y72.432
X-179.245 Y71.801
X-179.345 Y71.167
X-179.424 Y70.529
X-179.481 Y69.89
X-179.517 Y69.249
X-179.531 Y68.607
X-179.523 Y67.964
X-179.493 Y67.323
X-179.441 Y66.683
X-179.367 Y66.045
X-179.271 Y65.41
X-179.153 Y64.779
X-179.012 Y64.152
X-178.851 Y63.531
X-178.668 Y62.915
X-178.465 Y62.306
X-178.242 Y61.704
X-177.998 Y61.11
X-177.735 Y60.524
X-177.452 Y59.947
X-177.151 Y59.38
X-176.83 Y58.824
X-176.49 Y58.279
X-176.132 Y57.746
X-175.934 Y57.471
X-175.78 Y57.314
X-175.587 Y57.209
X-175.372 Y57.165
X-174.805 Y57.136
X-173.756 Y57.088
X-173.48 Y57.244
X-173.445 Y57.71
X-171.831 Y79.12
G3 X-172.615 Y80.578 I-1.58 J0.091
G1 X-173.346 Y80.791
X-174.805 Y80.8
X-174.97 Y80.793
X-175.119 Y80.774
X-175.289 Y80.739
X-175.491 Y80.679
X-175.692 Y80.601
X-175.932 Y80.486
X-176.196 Y80.332
X-176.485 Y80.13
X-176.807 Y79.865
X-177.176 Y79.507
X-177.585 Y79.042
X-177.968 Y78.527
X-178.317 Y77.988
X-178.635 Y77.43
X-178.927 Y76.858
X-179.195 Y76.274
X-179.44 Y75.681
X-179.663 Y75.078
X-179.864 Y74.469
X-180.045 Y73.853
X-180.205 Y73.231
X-180.346 Y72.604
X-180.466 Y71.973
X-180.566 Y71.339
X-180.645 Y70.702
X-180.705 Y70.062
X-180.744 Y69.421
X-180.764 Y68.779
X-180.762 Y68.137
X-180.74 Y67.495
X-180.696 Y66.855
X-180.632 Y66.216
X-180.547 Y65.579
X-180.441 Y64.946
X-180.315 Y64.316
X-180.168 Y63.691
X-180.002 Y63.071
X-179.816 Y62.456
X-179.611 Y61.847
X-179.387 Y61.246
X-179.144 Y60.651
X-178.882 Y60.065
X-178.603 Y59.486
X-178.305 Y58.917
X-177.989 Y58.358
X-177.656 Y57.809
X-177.501 Y57.58
X-177.348 Y57.414
X-177.151 Y57.302
X-176.929 Y57.255
X-175.372 Y57.165
X-175.097 Y57.316
X-175.058 Y57.786
X-173.29 Y79.12
G3 X-173.49 Y79.995 I-1.579 J0.099
G1 X-173.492 Y79.997
G3 X-174.659 Y80.787 I-1.378 J-0.778
G1 X-174.805 Y80.8
X-176.264 Y80.809
X-176.414 Y80.803
X-176.563 Y80.784
X-176.737 Y80.747
X-176.912 Y80.695
X-177.117 Y80.616
X-177.354 Y80.502
X-177.592 Y80.363
X-177.882 Y80.161
X-178.172 Y79.921
X-178.512 Y79.591
X-178.891 Y79.161
X-179.274 Y78.646
X-179.619 Y78.104
X-179.932 Y77.543
X-180.217 Y76.967
X-180.476 Y76.38
X-180.712 Y75.783
X-180.927 Y75.178
X-181.122 Y74.565
X-181.296 Y73.947
X-181.451 Y73.324
X-181.586 Y72.696
X-181.702 Y72.065
X-181.799 Y71.43
X-181.878 Y70.793
X-181.937 Y70.153
X-181.977 Y69.512
X-181.998 Y68.87
X-181.999 Y68.228
X-181.981 Y67.586
X-181.943 Y66.945
X-181.886 Y66.306
X-181.808 Y65.668
X-181.711 Y65.033
X-181.595 Y64.402
X-181.459 Y63.774
X-181.305 Y63.151
X-181.132 Y62.532
X-180.94 Y61.919
X-180.731 Y61.312
X-180.504 Y60.711
X-180.259 Y60.118
X-179.997 Y59.531
X-179.717 Y58.953
X-179.421 Y58.384
X-179.107 Y57.823
X-179.011 Y57.676
X-178.857 Y57.505
X-178.658 Y57.39
X-178.433 Y57.341
X-176.929 Y57.255
X-176.663 Y57.39
X-176.62 Y57.874
X-174.75 Y79.12
G3 X-176.118 Y80.796 I-1.579 J0.108
G1 X-176.264 Y80.809
X-177.285 Y80.815
X-177.723 Y80.816
X-177.873 Y80.808
X-178.028 Y80.784
X-178.19 Y80.746
X-178.371 Y80.687
X-178.587 Y80.597
X-178.801 Y80.488
X-179.054 Y80.331
X-179.324 Y80.132
X-179.628 Y79.868
X-179.948 Y79.542
X-180.311 Y79.106
X-180.682 Y78.581
X-181.013 Y78.031
X-181.311 Y77.462
X-181.582 Y76.88
X-181.827 Y76.287
X-182.051 Y75.684
X-182.253 Y75.075
X-182.435 Y74.459
X-182.598 Y73.838
X-182.742 Y73.212
X-182.867 Y72.582
X-182.974 Y71.949
X-183.063 Y71.313
X-183.133 Y70.675
X-183.186 Y70.035
X-183.22 Y69.393
X-183.236 Y68.751
X-183.234 Y68.109
X-183.213 Y67.467
X-183.174 Y66.826
X-183.116 Y66.187
X-183.04 Y65.549
X-182.945 Y64.914
X-182.832 Y64.282
X-182.701 Y63.653
X-182.552 Y63.029
X-182.385 Y62.408
X-182.201 Y61.793
X-181.999 Y61.184
X-181.781 Y60.58
X-181.545 Y59.982
X-181.293 Y59.392
X-181.024 Y58.808
X-180.739 Y58.233
X-180.504 Y57.801
X-180.477 Y57.759
X-180.323 Y57.589
X-180.124 Y57.474
X-179.899 Y57.425
X-178.433 Y57.341
X-178.161 Y57.483
X-178.118 Y57.96
X-176.2 Y79.12
G3 X-177.577 Y80.804 I-1.578 J0.114
G1 X-177.723 Y80.816
X-179.117 Y80.813
X-179.266 Y80.805
X-179.415 Y80.783
X-179.581 Y80.743
X-179.751 Y80.689
X-179.953 Y80.605
X-180.17 Y80.494
X-180.403 Y80.35
X-180.674 Y80.152
X-180.95 Y79.913
X-181.263 Y79.595
X-181.61 Y79.179
X-181.982 Y78.655
X-182.31 Y78.103
X-182.605 Y77.533
X-182.869 Y76.948
X-183.109 Y76.352
X-183.325 Y75.747
X-183.521 Y75.135
X-183.697 Y74.518
X-183.854 Y73.895
X-183.993 Y73.268
X-184.114 Y72.637
X-184.217 Y72.004
X-184.303 Y71.367
X-184.372 Y70.729
X-184.423 Y70.089
X-184.457 Y69.447
X-184.474 Y68.805
Y68.163
X-184.456 Y67.521
X-184.42 Y66.88
X-184.367 Y66.24
X-184.297 Y65.602
X-184.208 Y64.966
X-184.103 Y64.332
X-183.98 Y63.702
X-183.84 Y63.075
X-183.683 Y62.453
X-183.509 Y61.834
X-183.319 Y61.221
X-183.112 Y60.613
X-182.889 Y60.011
X-182.651 Y59.414
X-182.396 Y58.825
X-182.126 Y58.242
X-181.925 Y57.865
X-181.915 Y57.848
X-181.76 Y57.674
X-181.56 Y57.557
X-181.333 Y57.507
X-179.899 Y57.425
X-179.62 Y57.579
X-179.576 Y58.044
X-177.59 Y79.12
G3 X-179.117 Y80.813 I-1.579 J0.111
G1 X-180.495 Y80.81
X-180.645 Y80.802
X-180.795 Y80.79
X-180.942 Y80.764
X-181.088 Y80.727
X-181.23 Y80.679
X-181.369 Y80.622
X-181.504 Y80.558
X-181.636 Y80.487
X-181.764 Y80.408
X-181.889 Y80.325
X-182.01 Y80.237
X-182.128 Y80.144
X-182.242 Y80.047
X-182.353 Y79.946
X-182.461 Y79.841
X-182.566 Y79.734
X-182.667 Y79.624
X-182.766 Y79.511
X-182.862 Y79.395
X-182.955 Y79.278
X-183.046 Y79.159
X-183.134 Y79.037
X-183.219 Y78.914
X-183.303 Y78.789
X-183.384 Y78.663
X-183.463 Y78.536
X-183.54 Y78.407
X-183.615 Y78.277
X-183.688 Y78.146
X-183.759 Y78.014
X-183.828 Y77.881
X-183.896 Y77.747
X-183.962 Y77.612
X-184.026 Y77.476
X-184.089 Y77.34
X-184.15 Y77.203
X-184.21 Y77.066
X-184.268 Y76.927
X-184.325 Y76.789
X-184.38 Y76.649
X-184.435 Y76.509
X-184.487 Y76.369
X-184.539 Y76.228
X-184.59 Y76.087
X-184.639 Y75.945
X-184.687 Y75.803
X-184.733 Y75.661
X-184.779 Y75.518
X-184.824 Y75.375
X-184.868 Y75.229
X-184.915 Y75.068
X-184.956 Y74.924
X-184.996 Y74.779
X-185.037 Y74.628
X-185.081 Y74.459
X-185.119 Y74.309
X-185.155 Y74.164
X-185.192 Y74.007
X-185.232 Y73.833
X-185.268 Y73.667
X-185.3 Y73.52
X-185.333 Y73.358
X-185.369 Y73.177
X-185.402 Y73.003
X-185.43 Y72.852
X-185.46 Y72.684
X-185.492 Y72.494
X-185.52 Y72.32
X-185.544 Y72.163
X-185.569 Y71.988
X-185.597 Y71.79
X-185.619 Y71.622
X-185.639 Y71.458
X-185.66 Y71.276
X-185.683 Y71.069
X-185.698 Y70.912
X-185.714 Y70.742
X-185.731 Y70.552
X-185.747 Y70.35
X-185.758 Y70.192
X-185.769 Y70.017
X-185.781 Y69.818
X-185.79 Y69.63
X-185.797 Y69.467
X-185.803 Y69.285
X-185.809 Y69.079
X-185.812 Y68.908
X-185.814 Y68.74
X-185.815 Y68.551
Y68.341
X-185.813 Y68.184
X-185.811 Y68.011
X-185.806 Y67.815
X-185.8 Y67.619
X-185.793 Y67.459
X-185.785 Y67.281
X-185.775 Y67.079
X-185.764 Y66.899
X-185.752 Y66.736
X-185.739 Y66.553
X-185.722 Y66.346
X-185.707 Y66.183
X-185.69 Y66.015
X-185.671 Y65.828
X-185.648 Y65.622
X-185.629 Y65.467
X-185.607 Y65.295
X-185.581 Y65.101
X-185.554 Y64.909
X-185.53 Y64.75
X-185.502 Y64.573
X-185.469 Y64.372
X-185.439 Y64.196
X-185.409 Y64.033
X-185.375 Y63.85
X-185.334 Y63.642
X-185.302 Y63.485
X-185.267 Y63.317
X-185.226 Y63.128
X-185.181 Y62.93
X-185.145 Y62.774
X-185.103 Y62.6
X-185.054 Y62.404
X-185.008 Y62.224
X-184.965 Y62.063
X-184.916 Y61.883
X-184.859 Y61.679
X-184.813 Y61.519
X-184.763 Y61.353
X-184.707 Y61.166
X-184.645 Y60.97
X-184.596 Y60.815
X-184.539 Y60.643
X-184.474 Y60.449
X-184.413 Y60.273
X-184.357 Y60.114
X-184.293 Y59.935
X-184.218 Y59.733
X-184.161 Y59.583
X-184.099 Y59.423
X-184.028 Y59.243
X-183.952 Y59.056
X-183.895 Y58.917
X-183.837 Y58.779
X-183.777 Y58.641
X-183.717 Y58.504
X-183.654 Y58.368
X-183.59 Y58.232
X-183.521 Y58.099
X-183.459 Y57.985
X-183.351 Y57.835
X-183.209 Y57.716
X-183.041 Y57.636
X-182.859 Y57.601
X-182.246 Y57.56
X-181.333 Y57.507
X-181.042 Y57.681
X-180.999 Y58.126
X-178.968 Y79.12
G3 X-180.349 Y80.798 I-1.579 J0.108
G1 X-180.495 Y80.81
X-181.954 Y80.807
X-182.104 Y80.799
X-182.252 Y80.774
X-182.409 Y80.734
X-182.583 Y80.674
X-182.775 Y80.591
X-182.985 Y80.478
X-183.214 Y80.331
X-183.466 Y80.139
X-183.739 Y79.893
X-184.039 Y79.577
X-184.367 Y79.17
X-184.456 Y79.036
X-184.544 Y78.902
X-184.659 Y78.79
X-184.795 Y78.705
X-184.947 Y78.651
X-185.106 Y78.632
X-185.266 Y78.647
X-185.877 Y78.844
X-186.416 Y79.193
X-186.943 Y79.56
X-187.422 Y79.887
X-187.98 Y80.205
X-188.318 Y80.364
X-188.804 Y80.547
X-189.178 Y80.655
X-189.518 Y80.723
X-189.755 Y80.751
X-189.786 Y80.754
X-189.817 Y80.756
X-189.849 Y80.757
X-190.417 Y80.752
X-190.853 Y80.726
X-191.311 Y80.662
X-191.555 Y80.608
X-191.86 Y80.514
X-192.256 Y80.355
X-192.56 Y80.204
X-192.817 Y80.05
X-193.137 Y79.821
X-193.446 Y79.56
X-193.644 Y79.363
X-193.881 Y79.086
X-194.149 Y78.718
X-194.286 Y78.493
X-194.439 Y78.19
X-194.613 Y77.763
X-194.701 Y77.485
X-194.772 Y77.177
X-194.834 Y76.76
X-194.857 Y76.398
X-194.853 Y76.102
X-194.816 Y75.713
X-194.744 Y75.303
X-194.673 Y75.034
X-194.554 Y74.693
X-194.367 Y74.27
X-194.242 Y74.04
X-194.059 Y73.758
X-193.781 Y73.398
X-193.577 Y73.173
X-193.348 Y72.958
X-193.021 Y72.698
X-192.714 Y72.491
X-192.458 Y72.347
X-192.107 Y72.186
X-191.71 Y72.041
X-191.444 Y71.967
X-191.093 Y71.899
X-190.627 Y71.848
X-190.367 Y71.84
X-190.035 Y71.857
X-189.589 Y71.915
X-189.282 Y71.981
X-188.984 Y72.071
X-188.834 Y72.129
X-188.76 Y72.161
X-188.613 Y72.226
X-188.456 Y72.258
X-188.296 Y72.255
X-188.139 Y72.218
X-187.995 Y72.148
X-187.869 Y72.048
X-187.666 Y71.8
X-187.413 Y71.209
X-187.271 Y70.583
X-187.193 Y69.946
X-187.149 Y69.305
X-187.118 Y68.664
X-187.089 Y68.022
X-187.055 Y67.381
X-187.011 Y66.74
X-186.954 Y66.1
X-186.884 Y65.462
X-186.8 Y64.825
X-186.7 Y64.191
X-186.586 Y63.559
X-186.456 Y62.93
X-186.311 Y62.305
X-186.15 Y61.683
X-185.975 Y61.065
X-185.785 Y60.452
X-185.58 Y59.843
X-185.36 Y59.239
X-185.124 Y58.642
X-184.928 Y58.208
X-184.855 Y58.076
X-184.747 Y57.927
X-184.605 Y57.81
X-184.438 Y57.731
X-184.257 Y57.696
X-182.859 Y57.601
X-182.246 Y57.71
G3 X-180.204 Y59.865 I-0.439 J2.461
G1 X-180.427 Y79.12
G3 X-181.809 Y80.795 I-1.579 J0.105
G1 X-181.954 Y80.807
X-183.268 Y80.804
X-183.417 Y80.796
X-183.566 Y80.773
X-183.721 Y80.734
X-184.331 Y80.532
X-184.972 Y80.498
X-185.6 Y80.631
X-185.915 Y80.743
X-185.997 Y80.767
X-186.082 Y80.781
X-186.169 Y80.786
G3 X-186.153 Y80.151 I0.014 J-0.317
G1 X-183.276 Y80.169
G3 X-183.268 Y80.804 I-0.002 J0.317
G1 X-184.143 Y80.801
X-189.849 Y80.757
G3 X-190.054 Y80.199 I0.002 J-0.317
X-189.815 Y80.475 I0.119 J0.138
X-190.087 Y80.437 I-0.119 J-0.138
X-189.557 Y80.088 I0.265 J-0.175
X-189.662 Y80.537 I-0.265 J0.175
X-190.417 Y80.752 I-0.798 J-1.367
G1 X-191.584 Y80.741
X-192.686 Y80.729
X-192.836 Y80.72
X-193 Y80.696
X-193.175 Y80.657
X-193.358 Y80.6
X-193.563 Y80.517
X-193.769 Y80.415
X-194.006 Y80.272
X-194.237 Y80.106
X-194.462 Y79.914
X-194.69 Y79.687
X-194.924 Y79.413
X-195.141 Y79.113
X-195.334 Y78.795
X-195.505 Y78.455
X-195.66 Y78.072
X-195.787 Y77.669
X-195.879 Y77.265
X-195.941 Y76.84
X-195.969 Y76.391
X-195.962 Y75.962
X-195.92 Y75.53
X-195.838 Y75.072
X-195.727 Y74.651
X-195.583 Y74.242
X-195.396 Y73.82
X-195.183 Y73.429
X-194.945 Y73.066
X-194.668 Y72.708
X-194.361 Y72.372
X-194.042 Y72.074
X-193.692 Y71.796
X-193.306 Y71.538
X-192.923 Y71.324
X-192.522 Y71.141
X-192.079 Y70.979
X-191.655 Y70.863
X-191.227 Y70.781
X-190.767 Y70.731
X-190.125 Y70.713
X-189.825 Y70.6
X-189.564 Y70.412
X-189.123 Y69.945
X-188.83 Y69.374
X-188.638 Y68.761
X-188.507 Y68.132
X-188.411 Y67.497
X-188.33 Y66.86
X-188.254 Y66.222
X-188.175 Y65.585
X-188.087 Y64.949
X-187.989 Y64.314
X-187.879 Y63.682
X-187.755 Y63.052
X-187.618 Y62.424
X-187.467 Y61.8
X-187.302 Y61.179
X-187.123 Y60.563
X-186.929 Y59.95
X-186.721 Y59.343
X-186.497 Y58.741
X-186.317 Y58.325
X-186.24 Y58.181
X-186.132 Y58.027
X-185.988 Y57.906
X-185.82 Y57.825
X-185.636 Y57.789
X-184.257 Y57.696
X-183.705 Y57.794
G3 X-181.662 Y60.89 I-0.377 J2.471
G1 X-186.073 Y71.244
X-191.388 Y79.995
G3 X-192.686 Y80.729 I-1.336 J-0.848
G1 X-194.065 Y80.714
X-194.239 Y80.703
X-194.387 Y80.682
X-194.535 Y80.647
X-194.692 Y80.596
X-194.863 Y80.524
X-195.045 Y80.43
X-195.239 Y80.31
X-195.435 Y80.165
X-195.647 Y79.98
X-195.849 Y79.773
X-196.057 Y79.522
X-196.266 Y79.224
X-196.457 Y78.9
X-196.631 Y78.542
X-196.787 Y78.142
X-196.919 Y77.702
X-197.018 Y77.238
X-197.082 Y76.754
X-197.107 Y76.248
X-197.092 Y75.737
X-197.035 Y75.225
X-196.936 Y74.712
X-196.794 Y74.203
X-196.611 Y73.705
X-196.389 Y73.222
X-196.126 Y72.755
X-195.826 Y72.309
X-195.491 Y71.889
X-195.123 Y71.497
X-194.721 Y71.131
X-194.293 Y70.802
X-193.842 Y70.508
X-193.361 Y70.248
X-192.865 Y70.029
X-192.357 Y69.852
X-191.736 Y69.69
X-191.432 Y69.586
X-190.873 Y69.27
X-190.447 Y68.79
X-190.14 Y68.226
X-189.92 Y67.622
X-189.756 Y67.001
X-189.627 Y66.372
X-189.514 Y65.74
X-189.408 Y65.107
X-189.301 Y64.473
X-189.189 Y63.841
X-189.067 Y63.211
X-188.935 Y62.582
X-188.791 Y61.956
X-188.635 Y61.334
X-188.465 Y60.714
X-188.283 Y60.098
X-188.086 Y59.487
X-187.873 Y58.881
X-187.699 Y58.459
X-187.611 Y58.285
X-187.503 Y58.127
X-187.359 Y58.003
X-187.187 Y57.919
X-187 Y57.882
X-185.636 Y57.789
X-185.018 Y57.899
G3 X-183.223 Y61.473 I-0.443 J2.46
G1 X-187.733 Y70.661
X-192.692 Y79.849
G3 X-193.919 Y80.704 I-1.411 J-0.717
G1 X-194.065 Y80.714
X-195.378 Y80.7
X-195.528 Y80.691
X-195.675 Y80.665
X-195.82 Y80.625
X-195.971 Y80.57
X-196.136 Y80.493
X-196.307 Y80.397
X-196.492 Y80.273
X-196.682 Y80.121
X-196.876 Y79.939
X-197.082 Y79.712
X-197.274 Y79.463
X-197.472 Y79.158
X-197.664 Y78.802
X-197.831 Y78.424
X-197.981 Y77.993
X-198.106 Y77.513
X-198.198 Y76.995
X-198.249 Y76.447
X-198.251 Y76.305
X-198.25 Y76.164
X-198.237 Y75.602
X-198.177 Y75.024
X-198.068 Y74.438
X-197.909 Y73.854
X-197.702 Y73.277
X-197.446 Y72.713
X-197.144 Y72.168
X-196.798 Y71.646
X-196.408 Y71.15
X-195.979 Y70.687
X-195.514 Y70.259
X-195.014 Y69.868
X-194.483 Y69.518
X-193.927 Y69.212
X-193.341 Y68.949
X-192.743 Y68.716
X-192.204 Y68.367
X-191.773 Y67.89
X-191.445 Y67.338
X-191.196 Y66.746
X-191.002 Y66.134
X-190.843 Y65.512
X-190.704 Y64.885
X-190.574 Y64.256
X-190.446 Y63.627
X-190.315 Y62.998
X-190.177 Y62.371
X-190.03 Y61.746
X-189.873 Y61.123
X-189.704 Y60.504
X-189.523 Y59.887
X-189.328 Y59.276
X-189.125 Y58.716
X-188.985 Y58.409
X-188.953 Y58.352
X-188.845 Y58.204
X-188.703 Y58.087
X-188.537 Y58.009
X-188.356 Y57.973
X-187 Y57.882
X-186.502 Y57.973
G3 X-184.435 Y59.722 I-0.324 J2.479
G1 Y59.723
G3 X-184.435 Y61.181 I-2.391 J0.729
G1 X-194.013 Y79.849
G3 X-194.208 Y80.14 I-1.404 J-0.731
G1 X-194.211 Y80.143
G3 X-195.232 Y80.69 I-1.206 J-1.025
G1 X-195.378 Y80.7
X-196.545 Y80.687
X-196.695 Y80.678
X-196.844 Y80.666
X-196.992 Y80.638
X-197.136 Y80.596
X-197.276 Y80.541
X-197.411 Y80.477
X-197.542 Y80.404
X-197.668 Y80.322
X-197.789 Y80.234
X-197.905 Y80.139
X-198.016 Y80.038
X-198.123 Y79.933
X-198.225 Y79.823
X-198.322 Y79.708
X-198.414 Y79.59
X-198.503 Y79.469
X-198.586 Y79.344
X-198.665 Y79.217
X-198.741 Y79.087
X-198.812 Y78.955
X-198.879 Y78.821
X-198.942 Y78.685
X-199.001 Y78.547
X-199.057 Y78.408
X-199.109 Y78.267
X-199.157 Y78.125
X-199.202 Y77.982
X-199.244 Y77.838
X-199.282 Y77.693
X-199.316 Y77.547
X-199.381 Y77.232
X-199.55 Y76.959
X-199.664 Y76.847
X-199.726 Y76.796
X-199.687 Y76.339
X-199.672 Y76.19
X-199.657 Y76.04
X-199.64 Y75.886
X-199.62 Y75.717
X-199.601 Y75.568
X-199.581 Y75.419
X-199.558 Y75.271
X-199.535 Y75.123
X-199.509 Y74.975
X-199.482 Y74.827
X-199.453 Y74.68
X-199.422 Y74.533
X-199.389 Y74.387
X-199.354 Y74.241
X-199.317 Y74.096
X-199.278 Y73.951
X-199.237 Y73.807
X-199.193 Y73.663
X-199.148 Y73.52
X-199.101 Y73.378
X-199.051 Y73.236
X-198.999 Y73.096
X-198.945 Y72.956
X-198.889 Y72.817
X-198.83 Y72.678
X-198.77 Y72.541
X-198.707 Y72.405
X-198.642 Y72.27
X-198.575 Y72.136
X-198.506 Y72.003
X-198.434 Y71.871
X-198.36 Y71.74
X-198.285 Y71.611
X-198.207 Y71.482
X-198.128 Y71.355
X-198.046 Y71.229
X-197.962 Y71.105
X-197.876 Y70.982
X-197.788 Y70.86
X-197.699 Y70.74
X-197.607 Y70.622
X-197.513 Y70.505
X-197.417 Y70.389
X-197.32 Y70.275
X-197.221 Y70.162
X-197.12 Y70.052
X-197.016 Y69.943
X-196.912 Y69.835
X-196.806 Y69.729
X-196.697 Y69.625
X-196.587 Y69.523
X-196.476 Y69.423
X-196.363 Y69.325
X-196.248 Y69.228
X-196.132 Y69.133
X-196.014 Y69.04
X-195.894 Y68.95
X-195.774 Y68.861
X-195.652 Y68.773
X-195.528 Y68.688
X-195.403 Y68.606
X-195.276 Y68.525
X-195.149 Y68.446
X-195.02 Y68.369
X-194.89 Y68.294
X-194.759 Y68.221
X-194.194 Y67.917
X-193.664 Y67.554
X-193.219 Y67.091
X-192.865 Y66.555
X-192.587 Y65.976
X-192.364 Y65.374
X-192.178 Y64.759
X-192.015 Y64.138
X-191.865 Y63.514
X-191.572 Y62.263
X-191.497 Y61.951
X-191.395 Y61.543
X-191.313 Y61.223
X-191.227 Y60.899
X-191.157 Y60.639
X-191.071 Y60.334
X-191.023 Y60.166
X-190.969 Y59.983
X-190.905 Y59.774
X-190.859 Y59.626
X-190.814 Y59.484
X-190.766 Y59.341
X-190.717 Y59.199
X-190.667 Y59.058
X-190.614 Y58.918
X-190.558 Y58.779
X-190.498 Y58.641
X-190.434 Y58.505
X-190.42 Y58.477
X-190.313 Y58.322
X-190.171 Y58.199
X-190.002 Y58.116
X-189.818 Y58.078
X-189.396 Y58.045
X-188.812 Y58.004
X-188.356 Y57.973
X-187.791 Y58.075
G3 X-185.925 Y61.619 I-0.391 J2.469
G1 X-195.186 Y79.849
G3 X-196.399 Y80.677 I-1.397 J-0.743
G1 X-196.545 Y80.687
X-197.858 Y80.673
X-198.008 Y80.664
X-198.155 Y80.633
X-198.298 Y80.589
X-198.446 Y80.529
X-198.604 Y80.449
X-198.773 Y80.346
X-198.949 Y80.219
X-199.134 Y80.061
X-199.325 Y79.869
X-199.52 Y79.639
X-199.716 Y79.365
X-200.048 Y78.815
X-200.362 Y78.255
X-200.473 Y78.016
X-200.558 Y77.784
X-200.642 Y77.485
X-200.673 Y77.327
X-200.792 Y77.029
X-200.99 Y76.776
X-201.476 Y76.356
X-202.06 Y76.09
X-202.681 Y75.926
X-203.316 Y75.827
X-203.955 Y75.768
X-204.596 Y75.733
X-205.238 Y75.712
X-205.88 Y75.7
X-206.522 Y75.693
X-207.164 Y75.689
X-207.807 Y75.686
X-209.091 Y75.684
X-213.586 Y75.683
X-218.237
X-218.376 Y75.626
X-218.494 Y75.534
X-218.598 Y75.426
X-218.689 Y75.307
X-218.784 Y75.159
X-218.885 Y74.97
X-218.993 Y74.724
X-219.105 Y74.397
X-219.222 Y73.94
X-219.331 Y73.307
X-219.393 Y72.668
X-219.429 Y72.027
X-219.451 Y71.385
X-219.463 Y70.743
X-219.47 Y70.101
X-219.474 Y69.527
X-219.405 Y69.394
X-219.308 Y69.279
X-219.197 Y69.179
X-219.076 Y69.09
X-218.921 Y68.993
X-218.721 Y68.891
X-218.461 Y68.782
X-218.112 Y68.669
X-217.617 Y68.551
X-216.983 Y68.453
X-216.343 Y68.397
X-215.702 Y68.364
X-215.06 Y68.345
X-214.418 Y68.333
X-213.776 Y68.327
X-213.133 Y68.323
X-211.849 Y68.319
X-209.28 Y68.318
X-201.339 Y68.317
X-201.203 Y68.382
X-201.087 Y68.477
X-200.985 Y68.587
X-200.895 Y68.707
X-200.8 Y68.859
X-200.698 Y69.054
X-200.59 Y69.309
X-200.564 Y69.385
X-200.517 Y69.538
X-200.474 Y69.693
X-200.399 Y69.835
X-200.295 Y69.958
X-200.168 Y70.055
X-200.022 Y70.122
X-199.865 Y70.157
X-199.705
X-199.548 Y70.122
X-198.965 Y69.852
X-198.465 Y69.45
X-197.976 Y69.033
X-197.485 Y68.62
X-196.981 Y68.221
X-196.461 Y67.844
X-195.924 Y67.492
X-195.381 Y67.149
X-194.877 Y66.751
X-194.445 Y66.276
X-194.09 Y65.741
X-193.801 Y65.167
X-193.563 Y64.571
X-193.361 Y63.961
X-193.181 Y63.345
X-193.014 Y62.725
X-192.691 Y61.482
X-192.526 Y60.861
X-192.353 Y60.243
X-192.169 Y59.627
X-191.964 Y59.019
X-191.816 Y58.669
X-191.768 Y58.579
X-191.661 Y58.425
X-191.52 Y58.303
X-191.352 Y58.221
X-191.169 Y58.183
X-189.818 Y58.078
X-189.542 Y58.217
X-189.516 Y58.692
Y58.702
X-190.155 Y64.827
X-196.399 Y79.606
G3 X-197.712 Y80.663 I-1.497 J-0.515
G1 X-197.858 Y80.673
X-198.96 Y80.661
X-199.11 Y80.652
X-199.258 Y80.627
X-199.402 Y80.587
X-199.547 Y80.533
X-199.698 Y80.462
X-199.875 Y80.361
X-200.077 Y80.224
X-200.306 Y80.039
X-200.56 Y79.798
X-200.794 Y79.537
X-201.004 Y79.261
X-201.351 Y78.72
X-201.721 Y78.195
X-202.22 Y77.791
X-202.795 Y77.504
X-203.406 Y77.31
X-204.036 Y77.181
X-204.672 Y77.097
X-205.312 Y77.043
X-205.954 Y77.009
X-206.595 Y76.988
X-207.237 Y76.974
X-207.88 Y76.966
X-208.522 Y76.961
X-209.164 Y76.958
X-210.448 Y76.954
X-213.017 Y76.953
X-216.87
X-217.317 Y76.949
X-217.627 Y76.922
X-217.856 Y76.883
X-218.071 Y76.828
X-218.272 Y76.76
X-218.461 Y76.678
X-218.645 Y76.58
X-218.824 Y76.465
X-219.004 Y76.328
X-219.187 Y76.165
X-219.362 Y75.98
X-219.537 Y75.763
X-219.72 Y75.495
X-219.886 Y75.205
X-220.066 Y74.821
X-220.225 Y74.398
X-220.383 Y73.844
X-220.509 Y73.214
X-220.593 Y72.578
X-220.649 Y71.938
X-220.686 Y71.297
X-220.709 Y70.655
X-220.704 Y70.35
X-220.679 Y70.088
X-220.641 Y69.877
X-220.587 Y69.673
X-220.52 Y69.481
X-220.438 Y69.298
X-220.341 Y69.119
X-220.225 Y68.942
X-220.088 Y68.764
X-219.922 Y68.583
X-219.739 Y68.412
X-219.516 Y68.235
X-219.252 Y68.059
X-218.949 Y67.889
X-218.564 Y67.713
X-218.131 Y67.555
X-217.559 Y67.398
X-216.928 Y67.277
X-216.291 Y67.197
X-215.651 Y67.144
X-215.01 Y67.109
X-214.368 Y67.087
X-213.726 Y67.072
X-213.084 Y67.063
X-212.442 Y67.057
X-211.799 Y67.054
X-210.515 Y67.05
X-207.946 Y67.048
X-202.809
X-202.288
X-201.99 Y67.073
X-201.756 Y67.111
X-201.537 Y67.165
X-201.339 Y67.232
X-201.151 Y67.312
X-200.967 Y67.408
X-200.696 Y67.58
X-200.405 Y67.715
X-199.772 Y67.824
X-199.14 Y67.711
X-198.54 Y67.48
X-197.968 Y67.19
X-197.408 Y66.874
X-196.857 Y66.544
X-196.335 Y66.171
X-195.87 Y65.728
X-195.476 Y65.22
X-195.148 Y64.669
X-194.874 Y64.088
X-194.64 Y63.49
X-194.435 Y62.881
X-194.247 Y62.267
X-194.07 Y61.65
X-193.895 Y61.032
X-193.718 Y60.414
X-193.534 Y59.799
X-193.334 Y59.189
X-193.182 Y58.816
X-193.12 Y58.693
X-193.014 Y58.536
X-192.871 Y58.411
X-192.701 Y58.327
X-192.516 Y58.288
X-191.169 Y58.183
X-190.942 Y58.265
X-190.843 Y58.556
X-190.914 Y58.782
X-197.489 Y79.557
G3 X-198.96 Y80.661 I-1.509 J-0.478
G1 X-200.193 Y80.647
X-200.343 Y80.638
X-200.49 Y80.609
X-200.634 Y80.567
X-200.796 Y80.505
X-200.96 Y80.427
X-201.154 Y80.315
X-201.408 Y80.14
X-201.905 Y79.733
X-202.408 Y79.334
X-202.963 Y79.011
X-203.558 Y78.769
X-204.176 Y78.594
X-204.806 Y78.471
X-205.443 Y78.388
X-206.082 Y78.331
X-206.724 Y78.293
X-207.365 Y78.268
X-208.007 Y78.252
X-208.649 Y78.242
X-209.291 Y78.235
X-209.934 Y78.23
X-210.576 Y78.227
X-211.86 Y78.224
X-215.071 Y78.223
X-215.713
X-216.355 Y78.221
X-216.997 Y78.198
X-217.469 Y78.143
X-217.88 Y78.061
X-218.239 Y77.959
X-218.576 Y77.833
X-218.895 Y77.683
X-219.199 Y77.51
X-219.491 Y77.311
X-219.776 Y77.081
X-220.05 Y76.821
X-220.316 Y76.525
X-220.564 Y76.198
X-220.806 Y75.822
X-221.045 Y75.375
X-221.268 Y74.859
X-221.468 Y74.277
X-221.626 Y73.655
X-221.743 Y73.023
X-221.827 Y72.387
X-221.888 Y71.747
X-221.921 Y71.111
X-221.907 Y70.639
X-221.862 Y70.223
X-221.791 Y69.855
X-221.698 Y69.518
X-221.581 Y69.197
X-221.44 Y68.889
X-221.274 Y68.594
X-221.082 Y68.307
X-220.86 Y68.028
X-220.607 Y67.758
X-220.328 Y67.503
X-220.004 Y67.252
X-219.63 Y67.008
X-219.184 Y66.766
X-218.707 Y66.555
X-218.125 Y66.35
X-217.504 Y66.187
X-216.873 Y66.066
X-216.237 Y65.979
X-215.598 Y65.916
X-214.957 Y65.872
X-214.316 Y65.841
X-213.674 Y65.82
X-213.032 Y65.806
X-212.39 Y65.796
X-211.748 Y65.79
X-211.106 Y65.785
X-209.821 Y65.781
X-207.895 Y65.778
X-203.399
X-202.757 Y65.791
X-202.254 Y65.838
X-201.832 Y65.911
X-201.211 Y66.072
X-200.592 Y66.245
X-199.95 Y66.254
X-199.319 Y66.136
X-198.71 Y65.933
X-198.125 Y65.667
X-197.582 Y65.324
X-197.102 Y64.898
X-196.691 Y64.404
X-196.346 Y63.862
X-196.056 Y63.29
X-195.807 Y62.698
X-195.587 Y62.094
X-195.385 Y61.485
X-195.193 Y60.872
X-195.004 Y60.258
X-194.81 Y59.646
X-194.621 Y59.115
X-194.486 Y58.817
X-194.463 Y58.775
X-194.355 Y58.627
X-194.215 Y58.51
X-194.051 Y58.43
X-193.872 Y58.394
X-192.516 Y58.288
X-192.252 Y58.41
X-192.2 Y58.702
X-192.259 Y58.891
X-198.726 Y79.557
G3 X-200.047 Y80.637 I-1.504 J-0.492
G1 X-200.193 Y80.647
X-201.506 Y80.632
X-201.656 Y80.623
X-201.921 Y80.582
X-202.546 Y80.434
X-203.157 Y80.237
X-203.773 Y80.055
X-204.397 Y79.905
X-205.029 Y79.788
X-205.665 Y79.7
X-206.304 Y79.636
X-206.944 Y79.591
X-207.586 Y79.559
X-208.228 Y79.538
X-208.87 Y79.523
X-209.512 Y79.512
X-210.154 Y79.506
X-210.796 Y79.501
X-211.438 Y79.498
X-212.723 Y79.495
X-215.291 Y79.493
X-215.934 Y79.485
X-216.575 Y79.458
X-217.214 Y79.397
X-217.774 Y79.299
X-218.289 Y79.167
X-218.765 Y79.002
X-219.211 Y78.807
X-219.631 Y78.581
X-220.03 Y78.323
X-220.41 Y78.032
X-220.771 Y77.706
X-221.116 Y77.341
X-221.448 Y76.926
X-221.767 Y76.455
X-222.069 Y75.923
X-222.339 Y75.34
X-222.562 Y74.738
X-222.741 Y74.121
X-222.881 Y73.495
X-222.99 Y72.862
X-223.069 Y72.224
X-223.115 Y71.584
X-223.117 Y70.979
X-223.075 Y70.436
X-222.995 Y69.931
X-222.88 Y69.458
X-222.733 Y69.011
X-222.554 Y68.587
X-222.344 Y68.182
X-222.101 Y67.794
X-221.826 Y67.425
X-221.514 Y67.069
X-221.161 Y66.727
X-220.757 Y66.393
X-220.306 Y66.078
X-219.789 Y65.776
X-219.226 Y65.504
X-218.627 Y65.273
X-218.012 Y65.087
X-217.387 Y64.94
X-216.755 Y64.826
X-216.119 Y64.739
X-215.48 Y64.674
X-214.84 Y64.626
X-214.198 Y64.591
X-213.557 Y64.565
X-212.915 Y64.548
X-212.273 Y64.535
X-211.63 Y64.526
X-210.988 Y64.52
X-210.346 Y64.516
X-209.062 Y64.511
X-207.135 Y64.509
X-204.566 Y64.508
X-203.924 Y64.511
X-203.282 Y64.527
X-202.642 Y64.573
X-202.006 Y64.661
X-201.375 Y64.783
X-200.736 Y64.842
X-200.095 Y64.797
X-199.471 Y64.647
X-198.886 Y64.382
X-198.366 Y64.005
X-197.921 Y63.542
X-197.548 Y63.019
X-197.234 Y62.459
X-196.965 Y61.876
X-196.726 Y61.28
X-196.508 Y60.676
X-196.299 Y60.069
X-196.086 Y59.463
X-195.919 Y59.056
X-195.842 Y58.904
X-195.735 Y58.748
X-195.593 Y58.623
X-195.424 Y58.539
X-195.239 Y58.5
X-193.872 Y58.394
X-193.581 Y58.556
X-193.572 Y58.848
X-193.619 Y59.001
X-200.045 Y79.557
G3 X-201.36 Y80.622 I-1.499 J-0.507
G1 X-201.506 Y80.632
X-206.029 Y80.583
X-209.677 Y80.546
X-213.325 Y80.512
X-216.826 Y80.484
X-217.467 Y80.447
X-217.939 Y80.392
X-218.432 Y80.295
X-218.933 Y80.153
X-219.433 Y79.967
X-219.924 Y79.738
X-220.402 Y79.467
X-220.864 Y79.152
X-221.308 Y78.795
X-221.737 Y78.39
X-222.15 Y77.931
X-222.54 Y77.42
X-222.888 Y76.881
X-223.196 Y76.317
X-223.462 Y75.733
X-223.688 Y75.132
X-223.878 Y74.518
X-224.033 Y73.895
X-224.156 Y73.265
X-224.248 Y72.629
X-224.306 Y71.989
X-224.324 Y71.348
X-224.298 Y70.706
X-224.224 Y70.074
X-224.107 Y69.485
X-223.947 Y68.925
X-223.748 Y68.391
X-223.508 Y67.879
X-223.227 Y67.387
X-222.905 Y66.915
X-222.539 Y66.461
X-222.129 Y66.03
X-221.677 Y65.624
X-221.168 Y65.237
X-220.627 Y64.89
X-220.062 Y64.585
X-219.476 Y64.322
X-218.874 Y64.099
X-218.26 Y63.912
X-217.636 Y63.759
X-217.006 Y63.636
X-216.371 Y63.538
X-215.733 Y63.461
X-215.094 Y63.402
X-214.453 Y63.358
X-213.812 Y63.324
X-213.17 Y63.3
X-212.528 Y63.282
X-211.886 Y63.269
X-211.244 Y63.259
X-210.602 Y63.253
X-209.96 Y63.248
X-209.318 Y63.245
X-208.033 Y63.241
X-206.107 Y63.238
X-205.465
X-204.822 Y63.239
X-204.18 Y63.247
X-203.538 Y63.269
X-202.898 Y63.315
X-202.26 Y63.389
X-201.622 Y63.46
X-200.98 Y63.466
X-200.348 Y63.35
X-199.764 Y63.082
X-199.257 Y62.689
X-198.828 Y62.21
X-198.469 Y61.678
X-198.164 Y61.113
X-197.896 Y60.529
X-197.651 Y59.936
X-197.407 Y59.342
X-197.244 Y59.007
X-197.228 Y58.979
X-197.079 Y58.799
X-196.882 Y58.675
X-196.655 Y58.618
X-196.253 Y58.582
X-195.816 Y58.545
X-195.239 Y58.5
X-195.045 Y58.556
X-194.909 Y58.848
X-194.929 Y59.109
X-195.177 Y62.348
X-195.717 Y63.515
X-196.875 Y64.973
X-216.075 Y80.265
X-216.102 Y80.286
X-216.826 Y80.484
X-219.89 Y80.46
X-220.047 Y80.451
X-220.269 Y80.42
X-220.497 Y80.369
X-220.778 Y80.282
X-221.058 Y80.171
X-221.398 Y80.002
X-221.733 Y79.802
X-222.113 Y79.53
X-222.524 Y79.184
X-222.917 Y78.794
X-223.323 Y78.321
X-223.701 Y77.802
X-224.039 Y77.256
X-224.339 Y76.689
X-224.603 Y76.103
X-224.831 Y75.503
X-225.026 Y74.891
X-225.191 Y74.27
X-225.324 Y73.642
X-225.426 Y73.008
X-225.495 Y72.37
X-225.528 Y71.728
X-225.523 Y71.086
X-225.478 Y70.445
X-225.39 Y69.809
X-225.257 Y69.181
X-225.079 Y68.564
X-224.854 Y67.963
X-224.584 Y67.38
X-224.27 Y66.82
X-223.914 Y66.285
X-223.519 Y65.779
X-223.086 Y65.304
X-222.619 Y64.864
X-222.121 Y64.458
X-221.596 Y64.089
X-221.047 Y63.756
X-220.477 Y63.459
X-219.891 Y63.197
X-219.29 Y62.969
X-218.679 Y62.774
X-218.058 Y62.609
X-217.43 Y62.473
X-216.798 Y62.361
X-216.162 Y62.27
X-215.524 Y62.198
X-214.884 Y62.142
X-214.244 Y62.097
X-213.603 Y62.064
X-212.961 Y62.038
X-212.319 Y62.019
X-211.677 Y62.004
X-211.035 Y61.994
X-210.393 Y61.986
X-209.751 Y61.981
X-209.108 Y61.977
X-207.824 Y61.972
X-206.54 Y61.97
X-205.897 Y61.969
X-205.255 Y61.972
X-204.613 Y61.98
X-203.971 Y62.001
X-203.33 Y62.038
X-202.69 Y62.09
X-202.049 Y62.133
X-201.41 Y62.072
X-200.811 Y61.841
X-200.289 Y61.467
X-199.849 Y60.999
X-199.477 Y60.475
X-199.155 Y59.92
X-198.856 Y59.352
X-198.72 Y59.117
X-198.614 Y58.976
X-198.477 Y58.864
X-198.318 Y58.787
X-198.145 Y58.751
X-196.655 Y58.618
X-196.399 Y58.726
X-196.326 Y58.994
X-196.375 Y59.218
X-197.056 Y62.348
G3 X-198.004 Y63.797 I-2.436 J-0.56
G1 X-219.145 Y80.234
X-219.212 Y80.286
X-219.89 Y80.46
X-221.495 Y80.448
X-221.641 Y80.447
X-221.791 Y80.438
X-221.968 Y80.414
X-222.15 Y80.374
X-222.359 Y80.31
X-222.598 Y80.216
X-222.844 Y80.095
X-223.14 Y79.918
X-223.429 Y79.713
X-223.767 Y79.429
X-224.122 Y79.078
X-224.482 Y78.662
X-224.861 Y78.143
X-225.197 Y77.596
X-225.496 Y77.028
X-225.759 Y76.442
X-225.989 Y75.842
X-226.188 Y75.232
X-226.357 Y74.612
X-226.497 Y73.985
X-226.607 Y73.353
X-226.685 Y72.715
X-226.731 Y72.075
X-226.742 Y71.433
X-226.718 Y70.791
X-226.657 Y70.152
X-226.558 Y69.517
X-226.421 Y68.89
X-226.245 Y68.272
X-226.028 Y67.668
X-225.771 Y67.079
X-225.474 Y66.51
X-225.14 Y65.961
X-224.771 Y65.436
X-224.369 Y64.935
X-223.934 Y64.462
X-223.47 Y64.018
X-222.979 Y63.605
X-222.462 Y63.224
X-221.923 Y62.875
X-221.364 Y62.558
X-220.789 Y62.273
X-220.199 Y62.019
X-219.597 Y61.794
X-218.986 Y61.599
X-218.366 Y61.431
X-217.74 Y61.288
X-217.109 Y61.168
X-216.475 Y61.068
X-215.838 Y60.987
X-215.199 Y60.921
X-214.559 Y60.869
X-213.918 Y60.827
X-213.276 Y60.795
X-212.635 Y60.77
X-211.993 Y60.751
X-211.351 Y60.737
X-210.709 Y60.726
X-210.067 Y60.718
X-209.424 Y60.713
X-208.782 Y60.708
X-207.498 Y60.703
X-206.856 Y60.701
X-206.214
X-205.571 Y60.705
X-204.929 Y60.715
X-204.287 Y60.735
X-203.646 Y60.767
X-203.005 Y60.804
X-202.365 Y60.754
X-201.764 Y60.528
X-201.238 Y60.159
X-200.788 Y59.701
X-200.374 Y59.178
X-200.23 Y59.041
X-200.055 Y58.948
X-199.862 Y58.904
X-198.145 Y58.751
X-197.858 Y58.9
Y59.242
X-197.901 Y59.354
X-198.943 Y62.056
G3 X-199.755 Y63.17 I-2.348 J-0.859
G1 X-220.901 Y80.213
X-220.992 Y80.286
X-221.641 Y80.447
X-223.181 Y80.438
X-223.33 Y80.43
X-223.479 Y80.409
X-223.656 Y80.369
X-223.839 Y80.312
X-224.046 Y80.229
X-224.28 Y80.112
X-224.52 Y79.968
X-224.807 Y79.761
X-225.086 Y79.525
X-225.407 Y79.205
X-225.751 Y78.802
X-226.097 Y78.324
X-226.431 Y77.775
X-226.724 Y77.203
X-226.981 Y76.615
X-227.206 Y76.013
X-227.401 Y75.402
X-227.567 Y74.781
X-227.704 Y74.154
X-227.813 Y73.521
X-227.892 Y72.884
X-227.941 Y72.243
X-227.959 Y71.601
X-227.944 Y70.959
X-227.896 Y70.319
X-227.814 Y69.682
X-227.698 Y69.05
X-227.547 Y68.426
X-227.362 Y67.811
X-227.14 Y67.209
X-226.885 Y66.619
X-226.595 Y66.046
X-226.271 Y65.492
X-225.914 Y64.958
X-225.527 Y64.446
X-225.111 Y63.957
X-224.667 Y63.492
X-224.198 Y63.054
X-223.704 Y62.643
X-223.189 Y62.26
X-222.654 Y61.905
X-222.101 Y61.579
X-222.046 Y61.55
X-221.971 Y61.516
X-221.893 Y61.491
X-221.813 Y61.474
X-220.182 Y61.231
X-219.744 Y61.171
X-214.346 Y60.445
X-214.054 Y60.41
X-208.51 Y59.757
X-208.189 Y59.723
X-206.905 Y59.591
X-206.263 Y59.558
X-205.623 Y59.513
X-204.981 Y59.497
X-203.696 Y59.506
X-203.066 Y59.385
X-202.693 Y59.206
X-202.613 Y59.172
X-202.528 Y59.149
X-202.442 Y59.136
G3 X-202.391 Y59.768 I0.019 J0.317
G1 X-206.829 Y60.222
G3 X-206.905 Y59.591 I-0.032 J-0.316
G1 X-202.673 Y59.158
X-202.09 Y59.103
X-199.862 Y58.904
X-199.609 Y59.008
X-199.534 Y59.285
X-199.691 Y59.446
X-200.245 Y60.015
X-222.128 Y79.995
G3 X-223.181 Y80.438 I-1.099 J-1.138
G1 X-224.559 Y80.431
X-224.749 Y80.42
X-224.897 Y80.4
X-225.056 Y80.364
X-225.227 Y80.312
X-225.429 Y80.231
X-225.634 Y80.13
X-225.868 Y79.989
X-226.12 Y79.81
X-226.391 Y79.582
X-226.681 Y79.294
X-227.002 Y78.92
X-227.326 Y78.475
X-227.661 Y77.927
X-227.952 Y77.355
X-228.207 Y76.765
X-228.428 Y76.163
X-228.619 Y75.549
X-228.781 Y74.928
X-228.916 Y74.3
X-229.023 Y73.667
X-229.103 Y73.03
X-229.155 Y72.39
X-229.178 Y71.748
X-229.171 Y71.106
X-229.133 Y70.465
X-229.064 Y69.826
X-228.964 Y69.192
X-228.833 Y68.563
X-228.671 Y67.942
X-228.477 Y67.33
X-228.252 Y66.728
X-227.996 Y66.139
X-227.71 Y65.564
X-227.394 Y65.005
X-227.047 Y64.465
X-226.672 Y63.944
X-226.27 Y63.443
X-225.842 Y62.964
X-225.39 Y62.507
X-224.916 Y62.074
X-224.874 Y62.039
X-224.764 Y61.964
X-224.642 Y61.91
X-224.512 Y61.878
X-221.813 Y61.474
X-221.51 Y61.619
X-221.512 Y62.068
X-221.514 Y62.348
X-223.028 Y78.974
G3 X-224.413 Y80.419 I-1.578 J-0.125
G1 X-224.559 Y80.431
X-226.018 Y80.422
X-226.168 Y80.414
X-226.316 Y80.389
X-226.471 Y80.349
X-226.655 Y80.286
X-226.842 Y80.204
X-227.054 Y80.09
X-227.287 Y79.94
X-227.529 Y79.754
X-227.804 Y79.506
X-228.084 Y79.21
X-228.385 Y78.835
X-228.709 Y78.358
X-229.026 Y77.799
X-229.3 Y77.218
X-229.537 Y76.622
X-229.743 Y76.014
X-229.919 Y75.396
X-230.066 Y74.771
X-230.186 Y74.14
X-230.28 Y73.505
X-230.347 Y72.866
X-230.387 Y72.225
X-230.4 Y71.583
X-230.385 Y70.941
X-230.343 Y70.3
X-230.272 Y69.662
X-230.173 Y69.027
X-230.046 Y68.398
X-229.891 Y67.775
X-229.706 Y67.16
X-229.492 Y66.554
X-229.25 Y65.959
X-228.98 Y65.377
X-228.682 Y64.808
X-228.357 Y64.254
X-228.006 Y63.716
X-227.629 Y63.196
X-227.228 Y62.694
X-226.996 Y62.43
X-226.87 Y62.316
X-226.72 Y62.233
X-226.556 Y62.187
X-226.018 Y62.103
X-224.512 Y61.878
X-224.268 Y61.954
X-224.162 Y62.348
X-224.164 Y62.469
X-224.482 Y78.828
G3 X-225.873 Y80.411 I-1.583 J0.013
G1 X-226.018 Y80.422
X-227.332 Y80.415
X-227.481 Y80.407
X-227.63 Y80.384
X-227.781 Y80.347
X-227.946 Y80.292
X-228.139 Y80.21
X-228.33 Y80.111
X-228.556 Y79.97
X-228.788 Y79.797
X-229.045 Y79.57
X-229.314 Y79.292
X-229.614 Y78.928
X-229.911 Y78.502
X-230.231 Y77.953
X-230.509 Y77.374
X-230.748 Y76.778
X-230.954 Y76.17
X-231.129 Y75.552
X-231.277 Y74.927
X-231.397 Y74.296
X-231.492 Y73.661
X-231.562 Y73.023
X-231.606 Y72.382
X-231.625 Y71.74
X-231.618 Y71.098
X-231.585 Y70.457
X-231.525 Y69.817
X-231.44 Y69.181
X-231.328 Y68.549
X-231.19 Y67.921
X-231.026 Y67.301
X-230.835 Y66.687
X-230.618 Y66.083
X-230.376 Y65.488
X-230.107 Y64.905
X-229.814 Y64.333
X-229.496 Y63.776
X-229.153 Y63.233
X-228.838 Y62.78
X-228.704 Y62.634
X-228.536 Y62.529
X-228.346 Y62.472
X-226.556 Y62.187
X-226.31 Y62.262
X-226.196 Y62.64
X-226.193 Y62.774
X-225.795 Y78.828
G3 X-226.164 Y79.849 I-1.583 J0.005
X-226.748 Y80.285 I-1.214 J-1.016
G1 X-227.332 Y80.415
X-228.645 Y80.408
X-228.795 Y80.399
X-228.943 Y80.376
X-229.088 Y80.341
X-229.259 Y80.283
X-229.439 Y80.207
X-229.636 Y80.104
X-229.856 Y79.965
X-230.078 Y79.798
X-230.341 Y79.566
X-230.592 Y79.306
X-230.877 Y78.958
X-231.179 Y78.522
X-231.483 Y77.999
X-231.76 Y77.419
X-231.996 Y76.822
X-232.198 Y76.212
X-232.368 Y75.593
X-232.512 Y74.967
X-232.629 Y74.336
X-232.72 Y73.7
X-232.788 Y73.062
X-232.832 Y72.421
X-232.851 Y71.779
X-232.846 Y71.137
X-232.817 Y70.495
X-232.764 Y69.855
X-232.687 Y69.218
X-232.584 Y68.584
X-232.457 Y67.954
X-232.305 Y67.33
X-232.129 Y66.713
X-231.929 Y66.103
X-231.705 Y65.501
X-231.458 Y64.908
X-231.186 Y64.326
X-230.892 Y63.755
X-230.575 Y63.197
X-230.496 Y63.072
X-230.362 Y62.913
X-230.188 Y62.799
X-229.99 Y62.737
X-229.228 Y62.612
X-228.346 Y62.472
X-228.061 Y62.587
X-228.008 Y63.062
X-227.942 Y63.661
X-227.115 Y78.682
G3 X-227.623 Y79.994 I-1.576 J0.144
G1 X-227.912 Y80.161
X-228.207 Y80.333
X-228.645 Y80.408
X-229.958 Y80.401
X-230.108 Y80.393
X-230.256 Y80.368
X-230.403 Y80.33
X-230.576 Y80.27
X-230.75 Y80.194
X-230.95 Y80.086
X-231.164 Y79.947
X-231.391 Y79.774
X-231.643 Y79.545
X-231.899 Y79.274
X-232.175 Y78.929
X-232.471 Y78.491
X-232.773 Y77.956
X-233.043 Y77.373
X-233.272 Y76.773
X-233.466 Y76.161
X-233.629 Y75.54
X-233.765 Y74.912
X-233.875 Y74.28
X-233.961 Y73.643
X-234.024 Y73.004
X-234.063 Y72.363
X-234.08 Y71.721
X-234.074 Y71.079
X-234.045 Y70.437
X-233.994 Y69.797
X-233.92 Y69.159
X-233.822 Y68.525
X-233.702 Y67.894
X-233.559 Y67.268
X-233.392 Y66.647
X-233.203 Y66.034
X-232.992 Y65.427
X-232.758 Y64.829
X-232.503 Y64.24
X-232.226 Y63.661
X-232.075 Y63.375
X-231.94 Y63.193
X-231.755 Y63.061
X-231.54 Y62.99
X-229.99 Y62.737
X-229.389 Y62.786
G3 X-227.186 Y64.536 I-0.184 J2.493
G1 X-227.077 Y65.411
X-228.433 Y78.974
G3 X-229.812 Y80.39 I-1.575 J-0.154
G1 X-229.958 Y80.401
X-231.205 Y80.397
X-231.355 Y80.389
X-231.504 Y80.368
X-231.65 Y80.334
X-231.812 Y80.281
X-231.989 Y80.208
X-232.175 Y80.112
X-232.392 Y79.977
X-232.603 Y79.821
X-232.855 Y79.602
X-233.095 Y79.356
X-233.374 Y79.021
X-233.647 Y78.633
X-233.936 Y78.143
X-234.217 Y77.565
X-234.455 Y76.968
X-234.656 Y76.358
X-234.825 Y75.739
X-234.966 Y75.112
X-235.081 Y74.481
X-235.172 Y73.845
X-235.24 Y73.206
X-235.285 Y72.566
X-235.309 Y71.924
X-235.311 Y71.282
X-235.291 Y70.64
X-235.249 Y69.999
X-235.186 Y69.36
X-235.102 Y68.723
X-234.995 Y68.09
X-234.868 Y67.461
X-234.719 Y66.836
X-234.548 Y66.217
X-234.357 Y65.604
X-234.145 Y64.998
X-233.912 Y64.399
X-233.659 Y63.809
X-233.569 Y63.632
X-233.434 Y63.445
X-233.249 Y63.309
X-233.03 Y63.237
X-232.07 Y63.077
X-231.54 Y62.99
X-230.979 Y63.037
G3 X-228.629 Y65.702 I-0.144 J2.496
G1 X-229.673 Y78.828
G3 X-231.205 Y80.397 I-1.583 J-0.012
G1 X-232.519 Y80.393
X-232.668 Y80.385
X-232.816 Y80.361
X-232.968 Y80.32
X-233.135 Y80.261
X-233.309 Y80.183
X-233.512 Y80.072
X-233.711 Y79.942
X-233.946 Y79.759
X-234.175 Y79.55
X-234.441 Y79.263
X-234.696 Y78.94
X-234.979 Y78.516
X-235.272 Y77.99
X-235.539 Y77.405
X-235.763 Y76.804
X-235.952 Y76.19
X-236.111 Y75.567
X-236.241 Y74.939
X-236.347 Y74.305
X-236.429 Y73.668
X-236.488 Y73.029
X-236.527 Y72.388
X-236.544 Y71.746
X-236.54 Y71.104
X-236.516 Y70.462
X-236.472 Y69.821
X-236.407 Y69.182
X-236.322 Y68.546
X-236.217 Y67.912
X-236.091 Y67.283
X-235.946 Y66.657
X-235.781 Y66.036
X-235.596 Y65.421
X-235.391 Y64.813
X-235.166 Y64.211
X-235.032 Y63.909
X-234.938 Y63.753
X-234.809 Y63.624
X-234.652 Y63.531
X-234.477 Y63.479
X-233.03 Y63.237
X-232.438 Y63.283
G3 X-231.275 Y63.661 I-0.166 J2.494
G1 X-231.271 Y63.663
G3 X-230.114 Y65.994 I-1.334 J2.115
G1 X-230.995 Y78.974
G3 X-231.709 Y80.14 I-1.574 J-0.162
G1 X-231.771 Y80.161
X-232.438 Y80.389
X-232.519 Y80.393
X-233.752 Y80.39
X-233.901 Y80.382
X-234.05 Y80.36
X-234.196 Y80.325
X-234.357 Y80.272
X-234.529 Y80.2
X-234.714 Y80.103
X-234.924 Y79.971
X-235.132 Y79.816
X-235.379 Y79.599
X-235.614 Y79.358
X-235.885 Y79.029
X-236.153 Y78.645
X-236.434 Y78.164
X-236.712 Y77.585
X-236.946 Y76.987
X-237.143 Y76.376
X-237.307 Y75.755
X-237.443 Y75.127
X-237.554 Y74.495
X-237.642 Y73.859
X-237.707 Y73.22
X-237.751 Y72.579
X-237.775 Y71.937
X-237.779 Y71.295
X-237.763 Y70.653
X-237.727 Y70.012
X-237.671 Y69.372
X-237.596 Y68.734
X-237.503 Y68.099
X-237.39 Y67.467
X-237.258 Y66.838
X-237.108 Y66.214
X-236.939 Y65.595
X-236.751 Y64.98
X-236.542 Y64.373
X-236.448 Y64.155
X-236.355 Y63.996
X-236.226 Y63.864
X-236.068 Y63.769
X-235.891 Y63.716
X-234.477 Y63.479
X-233.897 Y63.524
G3 X-232.292 Y64.243 I-0.154 J2.495
G1 Y64.244
G3 X-231.855 Y64.826 I-1.76 J1.776
G1 X-231.854 Y64.827
G3 X-231.554 Y66.14 I-2.197 J1.192
G1 X-232.22 Y78.828
G3 X-233.606 Y80.378 I-1.582 J-0.02
G1 X-233.752 Y80.39
X-235.065 Y80.386
X-235.215 Y80.378
X-235.362 Y80.351
X-235.516 Y80.308
X-235.68 Y80.248
X-235.857 Y80.166
X-236.057 Y80.053
X-236.257 Y79.918
X-236.492 Y79.73
X-236.717 Y79.519
X-236.982 Y79.226
X-237.234 Y78.898
X-237.51 Y78.472
X-237.797 Y77.941
X-238.055 Y77.353
X-238.272 Y76.748
X-238.454 Y76.133
X-238.605 Y75.508
X-238.73 Y74.878
X-238.83 Y74.244
X-238.907 Y73.607
X-238.963 Y72.967
X-238.998 Y72.326
X-239.014 Y71.684
X-239.01 Y71.041
X-238.988 Y70.4
X-238.947 Y69.759
X-238.888 Y69.119
X-238.81 Y68.482
X-238.714 Y67.847
X-238.601 Y67.215
X-238.469 Y66.586
X-238.32 Y65.962
X-238.153 Y65.342
X-237.967 Y64.727
X-237.835 Y64.384
X-237.825 Y64.362
X-237.73 Y64.213
X-237.603 Y64.091
X-237.45 Y64.002
X-237.281 Y63.952
X-235.891 Y63.716
X-235.211 Y63.769
G3 X-233.315 Y64.973 I-0.251 J2.487
G1 X-233.314 Y64.976
G3 X-232.967 Y66.432 I-2.147 J1.28
G1 X-233.533 Y78.828
G3 X-234.919 Y80.374 I-1.582 J-0.024
G1 X-235.065 Y80.386
X-236.232 Y80.382
X-236.403 Y80.373
X-236.552 Y80.353
X-236.698 Y80.32
X-236.852 Y80.27
X-237.027 Y80.198
X-237.202 Y80.109
X-237.41 Y79.981
X-237.613 Y79.832
X-237.848 Y79.63
X-238.085 Y79.39
X-238.349 Y79.075
X-238.605 Y78.714
X-238.884 Y78.246
X-239.168 Y77.67
X-239.405 Y77.073
X-239.603 Y76.463
X-239.769 Y75.842
X-239.906 Y75.215
X-240.017 Y74.582
X-240.106 Y73.946
X-240.172 Y73.307
X-240.218 Y72.667
X-240.244 Y72.025
X-240.251 Y71.383
X-240.24 Y70.741
X-240.211 Y70.1
X-240.164 Y69.459
X-240.1 Y68.82
X-240.019 Y68.183
X-239.92 Y67.548
X-239.804 Y66.917
X-239.672 Y66.288
X-239.522 Y65.664
X-239.353 Y65.044
X-239.224 Y64.675
X-239.197 Y64.615
X-239.104 Y64.458
X-238.975 Y64.33
X-238.818 Y64.236
X-238.644 Y64.184
X-237.281 Y63.952
X-237.107 Y63.978
X-236.922 Y64.244
X-236.879 Y64.526
X-234.722 Y78.536
G3 X-236.086 Y80.371 I-1.56 J0.264
G1 X-236.232 Y80.382
X-237.545 Y80.378
X-237.695 Y80.37
X-237.843 Y80.346
X-237.995 Y80.306
X-238.151 Y80.252
X-238.326 Y80.174
X-238.517 Y80.071
X-238.715 Y79.942
X-238.942 Y79.766
X-239.163 Y79.565
X-239.423 Y79.287
X-239.669 Y78.977
X-239.939 Y78.575
X-240.221 Y78.072
X-240.489 Y77.488
X-240.713 Y76.886
X-240.9 Y76.272
X-241.055 Y75.649
X-241.182 Y75.019
X-241.285 Y74.385
X-241.365 Y73.748
X-241.424 Y73.109
X-241.464 Y72.468
X-241.484 Y71.826
X-241.487 Y71.184
X-241.472 Y70.542
X-241.44 Y69.9
X-241.391 Y69.26
X-241.325 Y68.621
X-241.242 Y67.984
X-241.144 Y67.35
X-241.029 Y66.718
X-240.898 Y66.089
X-240.749 Y65.465
X-240.623 Y65.045
X-240.557 Y64.876
X-240.466 Y64.709
X-240.335 Y64.571
X-240.174 Y64.47
X-239.992 Y64.414
X-238.644 Y64.184
X-238.412 Y64.244
X-238.275 Y64.57
X-238.244 Y64.76
X-236.035 Y78.536
G3 X-237.399 Y80.367 I-1.561 J0.26
G1 X-237.545 Y80.378
X-238.793 Y80.376
X-238.942 Y80.369
X-239.09 Y80.344
X-239.236 Y80.307
X-239.402 Y80.249
X-239.567 Y80.176
X-239.76 Y80.071
X-239.958 Y79.942
X-240.176 Y79.774
X-240.409 Y79.563
X-240.653 Y79.303
X-240.91 Y78.98
X-241.186 Y78.57
X-241.456 Y78.089
X-241.725 Y77.506
X-241.948 Y76.904
X-242.135 Y76.289
X-242.289 Y75.666
X-242.416 Y75.036
X-242.519 Y74.402
X-242.599 Y73.765
X-242.658 Y73.126
X-242.699 Y72.485
X-242.721 Y71.843
X-242.725 Y71.201
X-242.712 Y70.559
X-242.683 Y69.917
X-242.638 Y69.277
X-242.576 Y68.637
X-242.499 Y68
X-242.406 Y67.365
X-242.297 Y66.732
X-242.171 Y66.102
X-242.031 Y65.512
X-241.92 Y65.171
X-241.886 Y65.089
X-241.793 Y64.928
X-241.664 Y64.794
X-241.505 Y64.698
X-241.327 Y64.644
X-239.992 Y64.414
X-239.697 Y64.536
X-239.618 Y64.996
X-237.316 Y78.39
G3 X-238.793 Y80.376 I-1.53 J0.404
G1 X-240.026 Y80.375
X-240.175 Y80.367
X-240.324 Y80.344
X-240.469 Y80.308
X-240.634 Y80.251
X-240.799 Y80.18
X-240.99 Y80.078
X-241.19 Y79.949
X-241.405 Y79.785
X-241.636 Y79.578
X-241.878 Y79.324
X-242.133 Y79.007
X-242.406 Y78.606
X-242.672 Y78.141
X-242.944 Y77.559
X-243.17 Y76.958
X-243.358 Y76.344
X-243.514 Y75.721
X-243.643 Y75.092
X-243.747 Y74.458
X-243.828 Y73.821
X-243.89 Y73.182
X-243.932 Y72.541
X-243.957 Y71.899
X-243.964 Y71.257
X-243.955 Y70.615
X-243.929 Y69.973
X-243.888 Y69.332
X-243.832 Y68.693
X-243.76 Y68.055
X-243.672 Y67.418
X-243.569 Y66.785
X-243.448 Y66.154
X-243.33 Y65.668
X-243.231 Y65.369
X-243.143 Y65.189
X-243.011 Y65.04
X-242.843 Y64.931
X-242.653 Y64.871
X-241.327 Y64.644
G3 X-240.969 Y64.924 I0.043 J0.315
G1 X-240.939 Y65.2
X-239.329 Y80.268
X-239.316 Y80.309
X-239.29 Y80.343
X-239.254 Y80.365
X-239.211 Y80.373
X-239.169 Y80.365
X-239.133 Y80.342
X-239.107 Y80.308
X-239.095 Y80.267
X-239.099 Y80.224
X-239.117 Y80.186
X-239.149 Y80.156
X-239.189 Y80.14
X-239.232
X-239.272 Y80.154
G3 X-240.026 Y80.375 I-0.807 J-1.361
G1 X-241.273 Y80.374
X-241.423 Y80.366
X-241.571 Y80.343
X-241.716 Y80.306
X-241.88 Y80.249
X-242.045 Y80.177
X-242.24 Y80.073
X-242.435 Y79.948
X-242.655 Y79.78
X-242.879 Y79.578
X-243.126 Y79.317
X-243.375 Y79.007
X-243.647 Y78.607
X-243.916 Y78.133
X-244.187 Y77.551
X-244.412 Y76.95
X-244.599 Y76.335
X-244.754 Y75.712
X-244.881 Y75.083
X-244.985 Y74.449
X-245.066 Y73.812
X-245.127 Y73.173
X-245.17 Y72.532
X-245.195 Y71.89
X-245.203 Y71.248
X-245.195 Y70.606
X-245.172 Y69.964
X-245.133 Y69.323
X-245.08 Y68.683
X-245.011 Y68.045
X-244.928 Y67.408
X-244.828 Y66.773
X-244.705 Y66.143
X-244.598 Y65.75
X-244.535 Y65.575
X-244.445 Y65.402
X-244.314 Y65.259
X-244.149 Y65.155
X-243.964 Y65.097
X-242.653 Y64.871
G3 X-242.294 Y65.15 I0.043 J0.315
G1 X-242.263 Y65.428
X-240.576 Y80.268
X-240.564 Y80.309
X-240.537 Y80.342
X-240.5 Y80.364
X-240.458 Y80.372
X-240.416 Y80.364
X-240.38 Y80.341
X-240.354 Y80.307
X-240.342 Y80.265
X-240.346 Y80.223
X-240.365 Y80.184
X-240.396 Y80.155
X-240.436 Y80.139
X-240.479 Y80.138
X-240.519 Y80.153
G3 X-241.273 Y80.374 I-0.807 J-1.361
G1 X-242.506 Y80.373
X-242.656 Y80.366
X-242.804 Y80.344
X-242.95 Y80.308
X-243.113 Y80.252
X-243.276 Y80.182
X-243.468 Y80.081
X-243.663 Y79.957
X-243.879 Y79.793
X-244.106 Y79.591
X-244.348 Y79.338
X-244.599 Y79.029
X-244.87 Y78.634
X-245.133 Y78.177
X-245.408 Y77.596
X-245.635 Y76.996
X-245.824 Y76.382
X-245.98 Y75.759
X-246.11 Y75.13
X-246.214 Y74.496
X-246.297 Y73.86
X-246.36 Y73.221
X-246.405 Y72.58
X-246.432 Y71.938
X-246.443 Y71.296
X-246.438 Y70.654
X-246.418 Y70.012
X-246.383 Y69.371
X-246.333 Y68.731
X-246.269 Y68.092
X-246.191 Y67.454
X-246.093 Y66.82
X-245.982 Y66.265
X-245.883 Y65.918
X-245.835 Y65.791
X-245.745 Y65.621
X-245.614 Y65.481
X-245.451 Y65.378
X-245.267 Y65.321
X-243.964 Y65.097
G3 X-243.605 Y65.381 I0.043 J0.315
G1 X-243.579 Y65.654
X-242.227 Y79.76
X-242.201 Y80.026
G3 X-242.506 Y80.373 I-0.316 J0.03
G1 X-243.754 Y80.374
X-243.903 Y80.367
X-244.052 Y80.344
X-244.197 Y80.307
X-244.358 Y80.252
X-244.524 Y80.179
X-244.719 Y80.075
X-244.911 Y79.952
X-245.133 Y79.783
X-245.352 Y79.586
X-245.602 Y79.323
X-245.847 Y79.019
X-246.116 Y78.624
X-246.386 Y78.151
X-246.658 Y77.569
X-246.883 Y76.968
X-247.07 Y76.354
X-247.225 Y75.73
X-247.352 Y75.101
X-247.456 Y74.467
X-247.538 Y73.83
X-247.6 Y73.191
X-247.645 Y72.55
X-247.672 Y71.909
X-247.684 Y71.267
X-247.68 Y70.625
X-247.661 Y69.983
X-247.627 Y69.341
X-247.58 Y68.701
X-247.518 Y68.062
X-247.44 Y67.424
X-247.34 Y66.79
X-247.241 Y66.347
X-247.152 Y66.06
X-247.127 Y65.999
X-247.036 Y65.835
X-246.906 Y65.699
X-246.745 Y65.6
X-246.565 Y65.545
X-245.267 Y65.321
G3 X-244.909 Y65.604 I0.043 J0.315
G1 X-244.881 Y65.878
X-243.476 Y79.76
X-243.449 Y80.025
G3 X-243.754 Y80.374 I-0.316 J0.032
G1 X-244.986 Y80.375
X-245.136 Y80.367
X-245.286 Y80.356
X-245.433 Y80.329
X-245.578 Y80.29
X-245.719 Y80.24
X-245.857 Y80.179
X-245.99 Y80.11
X-246.119 Y80.034
X-246.244 Y79.951
X-246.364 Y79.861
X-246.481 Y79.767
X-246.593 Y79.668
X-246.702 Y79.564
X-246.806 Y79.456
X-246.906 Y79.344
X-247.003 Y79.23
X-247.097 Y79.113
X-247.187 Y78.993
X-247.273 Y78.87
X-247.356 Y78.745
X-247.436 Y78.618
X-247.513 Y78.49
X-247.587 Y78.359
X-247.658 Y78.227
X-247.727 Y78.094
X-247.793 Y77.959
X-247.856 Y77.823
X-247.917 Y77.686
X-247.975 Y77.547
X-248.031 Y77.408
X-248.085 Y77.268
X-248.137 Y77.128
X-248.186 Y76.986
X-248.234 Y76.844
X-248.28 Y76.701
X-248.324 Y76.558
X-248.366 Y76.414
X-248.406 Y76.269
X-248.445 Y76.124
X-248.482 Y75.979
X-248.518 Y75.833
X-248.552 Y75.687
X-248.584 Y75.541
X-248.616 Y75.394
X-248.645 Y75.247
X-248.674 Y75.1
X-248.701 Y74.952
X-248.726 Y74.804
X-248.751 Y74.656
X-248.774 Y74.508
X-248.796 Y74.36
X-248.819 Y74.199
X-248.839 Y74.05
X-248.857 Y73.902
X-248.875 Y73.747
X-248.894 Y73.575
X-248.91 Y73.419
X-248.924 Y73.269
X-248.939 Y73.105
X-248.953 Y72.92
X-248.966 Y72.748
X-248.976 Y72.588
X-248.986 Y72.409
X-248.997 Y72.206
X-249.004 Y72.033
X-249.01 Y71.857
X-249.016 Y71.658
X-249.02 Y71.449
X-249.023 Y71.274
X-249.024 Y71.077
Y70.851
X-249.022 Y70.666
X-249.019 Y70.469
X-249.014 Y70.245
X-249.008 Y70.038
X-249 Y69.844
X-248.99 Y69.621
X-248.979 Y69.402
X-248.968 Y69.217
X-248.953 Y69.007
X-248.936 Y68.776
X-248.924 Y68.623
X-248.909 Y68.453
X-248.89 Y68.263
X-248.87 Y68.069
X-248.853 Y67.92
X-248.835 Y67.771
X-248.815 Y67.622
X-248.795 Y67.474
X-248.772 Y67.325
X-248.748 Y67.177
X-248.721 Y67.03
X-248.692 Y66.883
X-248.66 Y66.736
X-248.624 Y66.591
X-248.583 Y66.446
X-248.539 Y66.303
X-248.524 Y66.263
X-248.435 Y66.09
X-248.303 Y65.946
X-248.139 Y65.841
X-247.952 Y65.783
X-246.565 Y65.545
G3 X-246.207 Y65.826 I0.043 J0.315
G1 X-246.177 Y66.102
X-244.71 Y79.761
X-244.682 Y80.024
G3 X-244.986 Y80.375 I-0.316 J0.034
G1 X-246.3 Y80.376
X-246.449 Y80.369
X-246.598 Y80.348
X-246.744 Y80.313
X-246.898 Y80.262
X-247.066 Y80.191
X-247.247 Y80.096
X-247.444 Y79.972
X-247.653 Y79.817
X-247.876 Y79.62
X-248.114 Y79.375
X-248.365 Y79.07
X-248.411 Y79.004
X-248.501 Y78.871
X-248.617 Y78.761
X-248.755 Y78.678
X-248.907 Y78.627
X-249.066 Y78.609
X-249.386 Y78.645
X-249.968 Y78.915
X-250.512 Y79.257
X-251.042 Y79.619
X-251.587 Y79.959
X-251.87 Y80.11
X-252.189 Y80.265
X-252.388 Y80.343
X-252.475 Y80.371
X-252.564 Y80.388
X-252.655 Y80.394
G3 X-252.834 Y79.822 I0.01 J-0.317
G1 X-246.883 Y77.562
G3 X-244.943 Y78.553 I0.53 J1.358
X-246.154 Y80.364 I-1.41 J0.367
G1 X-246.3 Y80.376
X-247.547 Y80.379
X-247.697 Y80.372
X-248.332 Y80.274
X-248.971 Y80.331
X-249.043 Y80.352
X-249.111 Y80.369
X-249.179 Y80.379
X-249.249 Y80.382
G3 X-249.24 Y79.747 I0.01 J-0.317
G1 X-247.559 Y79.744
G3 X-247.547 Y80.379 I0 J0.318
G1 X-249.655 Y80.383
X-253.011 Y80.396
X-254.908 Y80.406
X-255.332 Y80.387
X-255.482 Y80.379
X-255.631 Y80.361
X-255.778 Y80.334
X-255.924 Y80.299
X-256.068 Y80.258
X-256.211 Y80.211
X-256.352 Y80.16
X-256.491 Y80.103
X-256.626 Y80.039
X-256.758 Y79.967
X-256.887 Y79.89
X-257.012 Y79.808
X-257.134 Y79.721
X-257.254 Y79.631
X-257.372 Y79.537
X-257.485 Y79.44
X-257.594 Y79.336
X-257.698 Y79.228
X-257.798 Y79.116
X-257.893 Y79.001
X-257.986 Y78.882
X-258.075 Y78.762
X-258.161 Y78.639
X-258.242 Y78.512
X-258.317 Y78.383
X-258.386 Y78.25
X-258.451 Y78.114
X-258.512 Y77.977
X-258.568 Y77.838
X-258.621 Y77.698
X-258.67 Y77.556
X-258.714 Y77.413
X-258.751 Y77.267
X-258.782 Y77.121
X-258.808 Y76.973
X-258.83 Y76.824
X-258.847 Y76.675
X-258.861 Y76.526
X-258.871 Y76.376
X-258.875 Y76.226
X-258.872 Y76.076
X-258.863 Y75.927
X-258.849 Y75.777
X-258.831 Y75.629
X-258.808 Y75.48
X-258.782 Y75.332
X-258.753 Y75.185
X-258.717 Y75.04
X-258.674 Y74.896
X-258.626 Y74.754
X-258.574 Y74.613
X-258.517 Y74.474
X-258.456 Y74.337
X-258.392 Y74.202
X-258.326 Y74.067
X-258.252 Y73.936
X-258.174 Y73.809
X-258.09 Y73.684
X-258.003 Y73.562
X-257.911 Y73.443
X-257.817 Y73.326
X-257.72 Y73.212
X-257.621 Y73.1
X-257.516 Y72.993
X-257.406 Y72.89
X-257.293 Y72.792
X-257.177 Y72.697
X-257.057 Y72.606
X-256.936 Y72.518
X-256.812 Y72.433
X-256.687 Y72.351
X-256.557 Y72.275
X-256.425 Y72.205
X-256.29 Y72.139
X-256.153 Y72.078
X-256.014 Y72.021
X-255.874 Y71.968
X-255.732 Y71.918
X-255.59 Y71.872
X-255.445 Y71.833
X-255.299 Y71.8
X-255.151 Y71.772
X-255.003 Y71.749
X-254.854 Y71.73
X-254.705 Y71.715
X-254.555 Y71.704
X-254.406 Y71.697
X-254.256
X-254.106 Y71.703
X-253.956 Y71.715
X-253.807 Y71.731
X-253.658 Y71.752
X-253.51 Y71.777
X-253.363 Y71.805
X-253.217 Y71.837
X-253.072 Y71.877
X-252.929 Y71.922
X-252.788 Y71.972
X-252.648 Y72.027
X-252.51 Y72.086
X-252.374 Y72.148
X-252.239 Y72.213
X-252.106 Y72.283
X-251.976 Y72.359
X-251.841 Y72.446
X-251.691 Y72.502
X-251.532 Y72.524
X-251.372 Y72.511
X-251.218 Y72.464
X-251.079 Y72.385
X-250.959 Y72.278
X-250.865 Y72.147
X-250.612 Y71.557
X-250.523 Y70.921
X-250.457 Y70.282
X-250.359 Y69.161
X-250.33 Y68.866
X-250.306 Y68.627
X-250.284 Y68.433
X-250.264 Y68.262
X-250.245 Y68.11
X-250.225 Y67.961
X-250.204 Y67.813
X-250.181 Y67.664
X-250.157 Y67.516
X-250.131 Y67.369
X-250.103 Y67.221
X-250.073 Y67.074
X-250.039 Y66.928
X-250.001 Y66.783
X-249.96 Y66.639
X-249.91 Y66.49
X-249.82 Y66.321
X-249.689 Y66.181
X-249.526 Y66.079
X-249.343 Y66.022
X-247.952 Y65.783
X-247.714 Y65.848
X-247.595 Y66.14
X-247.579 Y66.362
X-247.231 Y71.244
X-247.613 Y72.571
X-248.264 Y73.578
X-253.765 Y79.849
G3 X-254.762 Y80.393 I-1.207 J-1.024
G1 X-254.908 Y80.406
X-256.513 Y80.416
X-256.951 Y80.419
X-257.101 Y80.412
X-257.249 Y80.389
X-257.407 Y80.351
X-257.579 Y80.295
X-257.763 Y80.218
X-257.963 Y80.115
X-258.172 Y79.985
X-258.379 Y79.832
X-258.589 Y79.649
X-258.799 Y79.433
X-259.013 Y79.176
X-259.213 Y78.891
X-259.394 Y78.584
X-259.557 Y78.248
X-259.705 Y77.868
X-259.822 Y77.476
X-259.907 Y77.081
X-259.962 Y76.661
X-259.985 Y76.212
X-259.972 Y75.785
X-259.924 Y75.357
X-259.836 Y74.902
X-259.718 Y74.476
X-259.567 Y74.066
X-259.376 Y73.65
X-259.15 Y73.249
X-258.904 Y72.883
X-258.623 Y72.531
X-258.301 Y72.188
X-257.973 Y71.89
X-257.62 Y71.618
X-257.224 Y71.36
X-256.831 Y71.148
X-256.424 Y70.968
X-255.984 Y70.814
X-255.541 Y70.699
X-255.105 Y70.622
X-254.648 Y70.579
X-254.181 Y70.572
X-253.742 Y70.601
X-253.583 Y70.625
X-253.423 Y70.616
X-253.113 Y70.53
X-252.843 Y70.357
X-252.38 Y69.911
X-252.059 Y69.355
X-251.831 Y68.755
X-251.655 Y68.137
X-251.497 Y67.515
X-251.355 Y66.991
X-251.248 Y66.694
X-251.241 Y66.678
X-251.147 Y66.524
X-251.019 Y66.398
X-250.864 Y66.306
X-250.691 Y66.254
X-249.343 Y66.022
X-249.051 Y66.14
X-249.005 Y66.608
X-248.923 Y67.452
X-248.811 Y69.494
G3 X-249.072 Y70.762 I-2.496 J0.147
G1 X-250.776 Y73.14
X-255.784 Y79.829
G3 X-256.805 Y80.406 I-1.234 J-0.991
G1 X-256.951 Y80.419
X-258.264 Y80.428
X-258.414 Y80.421
X-258.562 Y80.396
X-258.711 Y80.356
X-258.861 Y80.302
X-259.034 Y80.223
X-259.205 Y80.129
X-259.396 Y80.002
X-259.583 Y79.855
X-259.78 Y79.673
X-259.984 Y79.452
X-260.176 Y79.207
X-260.369 Y78.915
X-260.552 Y78.581
X-260.716 Y78.218
X-260.854 Y77.829
X-260.971 Y77.396
X-261.055 Y76.937
X-261.104 Y76.457
X-261.115 Y75.954
X-261.084 Y75.444
X-261.013 Y74.933
X-260.898 Y74.419
X-260.74 Y73.91
X-260.542 Y73.415
X-260.304 Y72.935
X-260.024 Y72.469
X-259.708 Y72.028
X-259.359 Y71.616
X-258.973 Y71.227
X-258.559 Y70.872
X-258.119 Y70.553
X-257.651 Y70.268
X-257.161 Y70.021
X-256.656 Y69.815
X-256.134 Y69.65
X-255.598 Y69.526
X-254.963 Y69.433
X-254.652 Y69.353
X-254.074 Y69.073
X-253.619 Y68.62
X-253.27 Y68.081
X-252.99 Y67.503
X-252.735 Y66.925
X-252.714 Y66.887
X-252.58 Y66.709
X-252.399 Y66.579
X-252.187 Y66.509
X-250.691 Y66.254
X-250.385 Y66.391
X-250.371 Y66.723
X-250.425 Y66.828
X-256.916 Y79.557
G3 X-257.241 Y79.995 I-1.414 J-0.711
G1 X-257.535 Y80.171
X-257.826 Y80.347
X-258.264 Y80.428
X-259.431 Y80.437
X-259.581 Y80.431
X-259.729 Y80.408
X-259.875 Y80.371
X-260.016 Y80.321
X-260.177 Y80.25
X-260.34 Y80.162
X-260.52 Y80.044
X-260.699 Y79.905
X-260.896 Y79.726
X-261.082 Y79.527
X-261.277 Y79.282
X-261.471 Y78.993
X-261.647 Y78.678
X-261.817 Y78.307
X-261.971 Y77.886
X-262.098 Y77.429
X-262.189 Y76.949
X-262.247 Y76.427
X-262.262 Y75.875
X-262.233 Y75.302
X-262.155 Y74.716
X-262.028 Y74.127
X-261.851 Y73.541
X-261.625 Y72.963
X-261.351 Y72.401
X-261.031 Y71.86
X-260.667 Y71.342
X-260.26 Y70.854
X-259.815 Y70.399
X-259.333 Y69.98
X-258.818 Y69.601
X-258.274 Y69.263
X-257.704 Y68.97
X-257.111 Y68.724
X-256.5 Y68.525
X-255.882 Y68.352
X-255.319 Y68.043
X-254.848 Y67.606
X-254.452 Y67.101
X-254.324 Y66.967
X-254.166 Y66.871
X-253.988 Y66.817
X-252.187 Y66.509
G3 X-251.863 Y66.97 I0.042 J0.315
G1 X-251.905 Y67.052
X-258.723 Y80.256
X-258.735 Y80.296
X-258.733 Y80.337
X-258.716 Y80.376
X-258.686 Y80.406
X-258.648 Y80.423
X-258.607 Y80.426
X-258.566 Y80.415
X-258.533 Y80.39
X-258.51 Y80.354
X-258.501 Y80.314
X-258.507 Y80.272
X-258.528 Y80.235
X-258.559 Y80.208
X-258.599 Y80.194
X-258.641
X-258.68 Y80.209
G3 X-259.431 Y80.437 I-0.821 J-1.353
G1 X-260.599 Y80.447
X-260.748 Y80.441
X-260.896 Y80.416
X-261.041 Y80.377
X-261.184 Y80.325
X-261.344 Y80.252
X-261.505 Y80.162
X-261.682 Y80.043
X-261.861 Y79.901
X-262.05 Y79.724
X-262.243 Y79.512
X-262.433 Y79.266
X-262.631 Y78.962
X-262.81 Y78.633
X-262.979 Y78.252
X-263.134 Y77.81
X-263.264 Y77.314
X-263.356 Y76.797
X-263.41 Y76.234
X-263.42 Y75.626
X-263.378 Y74.988
X-263.286 Y74.353
X-263.144 Y73.726
X-262.956 Y73.112
X-262.724 Y72.513
X-262.45 Y71.933
X-262.134 Y71.374
X-261.777 Y70.839
X-261.383 Y70.332
X-260.955 Y69.854
X-260.494 Y69.407
X-260.003 Y68.993
X-259.485 Y68.614
X-258.941 Y68.271
X-258.375 Y67.968
X-257.789 Y67.707
X-257.189 Y67.477
X-256.972 Y67.361
X-256.9 Y67.327
X-256.824 Y67.301
X-256.745 Y67.283
X-254.325 Y66.874
X-253.988 Y66.817
G3 X-253.663 Y67.276 I0.042 J0.315
G1 X-253.706 Y67.36
X-260.124 Y79.873
X-260.33 Y80.275
G3 X-260.599 Y80.447 I-0.283 J-0.145
G1 X-261.766 Y80.457
X-261.916 Y80.451
X-262.063 Y80.424
X-262.207 Y80.382
X-262.351 Y80.326
X-262.513 Y80.248
X-262.676 Y80.153
X-262.857 Y80.027
X-263.035 Y79.88
X-263.227 Y79.694
X-263.419 Y79.475
X-263.613 Y79.215
X-263.814 Y78.895
X-263.992 Y78.552
X-264.165 Y78.142
X-264.322 Y77.667
X-264.448 Y77.147
X-264.537 Y76.593
X-264.585 Y75.971
X-264.584 Y75.329
X-264.533 Y74.688
X-264.437 Y74.054
X-264.297 Y73.427
X-264.117 Y72.811
X-263.895 Y72.208
X-263.634 Y71.621
X-263.335 Y71.053
X-263 Y70.505
X-262.631 Y69.979
X-262.23 Y69.478
X-261.798 Y69.002
X-261.339 Y68.553
X-260.853 Y68.133
X-260.724 Y68.035
X-260.623 Y67.971
X-260.513 Y67.924
X-260.397 Y67.894
X-258.41 Y67.564
X-256.745 Y67.283
G3 X-256.409 Y67.717 I0.042 J0.315
G1 X-256.455 Y67.83
X-261.327 Y79.867
X-261.486 Y80.259
G3 X-261.766 Y80.457 I-0.294 J-0.119
G1 X-262.867 Y80.468
X-263.017 Y80.462
X-263.165 Y80.439
X-263.31 Y80.4
X-263.451 Y80.349
X-263.606 Y80.279
X-263.772 Y80.186
X-263.946 Y80.071
X-264.128 Y79.927
X-264.318 Y79.75
X-264.51 Y79.541
X-264.714 Y79.278
X-264.904 Y78.99
X-265.101 Y78.63
X-265.284 Y78.22
X-265.442 Y77.773
X-265.583 Y77.243
X-265.691 Y76.646
X-265.754 Y76.007
X-265.768 Y75.365
X-265.734 Y74.723
X-265.656 Y74.086
X-265.537 Y73.455
X-265.379 Y72.833
X-265.184 Y72.221
X-264.952 Y71.622
X-264.686 Y71.037
X-264.387 Y70.469
X-264.056 Y69.918
X-263.695 Y69.388
X-263.303 Y68.879
X-262.972 Y68.496
X-262.846 Y68.38
X-262.697 Y68.296
X-262.533 Y68.249
X-260.397 Y67.894
G3 X-260.046 Y68.275 I0.041 J0.315
G1 X-260.083 Y68.45
X-262.495 Y79.858
X-262.571 Y80.217
G3 X-262.867 Y80.468 I-0.311 J-0.066
G1 X-263.954 Y80.479
X-264.108 Y80.473
X-264.257 Y80.455
X-264.403 Y80.421
X-264.545 Y80.374
X-264.7 Y80.309
X-264.859 Y80.226
X-265.033 Y80.116
X-265.213 Y79.981
X-265.405 Y79.812
X-265.598 Y79.612
X-265.804 Y79.36
X-265.995 Y79.085
X-266.198 Y78.736
X-266.387 Y78.339
X-266.56 Y77.889
X-266.717 Y77.352
X-266.843 Y76.748
X-266.922 Y76.111
X-266.953 Y75.47
X-266.938 Y74.828
X-266.88 Y74.188
X-266.783 Y73.553
X-266.649 Y72.925
X-266.48 Y72.306
X-266.277 Y71.696
X-266.043 Y71.099
X-265.777 Y70.514
X-265.481 Y69.944
X-265.157 Y69.39
X-264.803 Y68.854
X-264.784 Y68.827
X-264.651 Y68.689
X-264.488 Y68.59
X-264.305 Y68.536
X-262.933 Y68.315
X-262.533 Y68.249
G3 X-262.177 Y68.604 I0.041 J0.315
G1 X-262.203 Y68.808
X-263.611 Y79.864
X-263.654 Y80.202
G3 X-263.954 Y80.479 I-0.315 J-0.04
G1 X-265.122 Y80.492
X-265.272 Y80.487
X-265.42 Y80.465
X-265.566 Y80.429
X-265.709 Y80.38
X-265.864 Y80.311
X-266.027 Y80.224
X-266.207 Y80.108
X-266.387 Y79.969
X-266.584 Y79.791
X-266.78 Y79.583
X-266.982 Y79.33
X-267.191 Y79.022
X-267.386 Y78.676
X-267.587 Y78.243
X-267.767 Y77.756
X-267.919 Y77.216
X-268.041 Y76.591
X-268.114 Y75.953
X-268.14 Y75.311
X-268.124 Y74.669
X-268.069 Y74.029
X-267.978 Y73.393
X-267.853 Y72.763
X-267.695 Y72.141
X-267.505 Y71.528
X-267.284 Y70.925
X-267.034 Y70.333
X-266.756 Y69.754
X-266.451 Y69.189
X-266.417 Y69.134
X-266.282 Y68.973
X-266.106 Y68.856
X-265.905 Y68.793
X-264.305 Y68.536
G3 X-263.949 Y68.875 I0.039 J0.315
G1 X-263.966 Y69.097
X-264.795 Y79.875
X-264.82 Y80.2
G3 X-265.122 Y80.492 I-0.317 J-0.024
G1 X-266.289 Y80.506
X-266.439 Y80.5
X-266.587 Y80.476
X-266.732 Y80.438
X-266.875 Y80.387
X-267.039 Y80.312
X-267.201 Y80.223
X-267.386 Y80.1
X-267.566 Y79.958
X-267.772 Y79.768
X-267.967 Y79.556
X-268.181 Y79.282
X-268.387 Y78.971
X-268.59 Y78.602
X-268.796 Y78.144
X-268.97 Y77.656
X-269.123 Y77.084
X-269.239 Y76.452
X-269.307 Y75.813
X-269.331 Y75.172
X-269.316 Y74.53
X-269.265 Y73.889
X-269.18 Y73.253
X-269.064 Y72.621
X-268.915 Y71.997
X-268.737 Y71.38
X-268.529 Y70.772
X-268.294 Y70.174
X-268.032 Y69.588
X-267.945 Y69.422
X-267.809 Y69.238
X-267.624 Y69.105
X-267.407 Y69.034
X-265.905 Y68.793
G3 X-265.548 Y69.121 I0.039 J0.315
G1 X-265.557 Y69.355
X-265.974 Y79.887
X-265.986 Y80.201
G3 X-266.289 Y80.506 I-0.317 J-0.013
G1 X-267.456 Y80.519
X-267.606 Y80.513
X-267.754 Y80.488
X-267.899 Y80.448
X-268.041 Y80.396
X-268.207 Y80.32
X-268.372 Y80.227
X-268.558 Y80.102
X-268.744 Y79.954
X-268.949 Y79.761
X-269.152 Y79.539
X-269.372 Y79.253
X-269.574 Y78.944
X-269.786 Y78.553
X-269.99 Y78.09
X-270.165 Y77.588
X-270.323 Y76.985
X-270.435 Y76.353
X-270.501 Y75.714
X-270.527 Y75.072
X-270.515 Y74.43
X-270.47 Y73.79
X-270.392 Y73.152
X-270.284 Y72.519
X-270.146 Y71.892
X-269.979 Y71.272
X-269.784 Y70.66
X-269.564 Y70.057
X-269.412 Y69.704
X-269.318 Y69.545
X-269.187 Y69.413
X-269.027 Y69.318
X-268.849 Y69.266
X-267.407 Y69.034
G3 X-267.05 Y69.352 I0.039 J0.315
G1 X-267.052 Y69.597
X-267.15 Y79.901
X-267.153 Y80.205
G3 X-267.456 Y80.519 I-0.317 J-0.003
G1 X-268.623 Y80.532
X-268.773 Y80.527
X-268.921 Y80.501
X-269.065 Y80.46
X-269.212 Y80.405
X-269.376 Y80.329
X-269.547 Y80.232
X-269.731 Y80.107
X-269.924 Y79.952
X-270.127 Y79.76
X-270.336 Y79.528
X-270.557 Y79.24
X-270.761 Y78.923
X-270.98 Y78.514
X-271.181 Y78.055
X-271.363 Y77.527
X-271.523 Y76.905
X-271.632 Y76.273
X-271.699 Y75.634
X-271.726 Y74.992
X-271.719 Y74.35
X-271.679 Y73.709
X-271.608 Y73.071
X-271.508 Y72.436
X-271.38 Y71.807
X-271.224 Y71.184
X-271.042 Y70.568
X-270.872 Y70.079
X-270.804 Y69.923
X-270.709 Y69.765
X-270.579 Y69.636
X-270.42 Y69.542
X-270.243 Y69.49
X-268.849 Y69.266
G3 X-268.492 Y69.576 I0.039 J0.315
G1 X-268.488 Y69.828
X-268.325 Y79.914
X-268.321 Y80.21
G3 X-268.623 Y80.532 I-0.317 J0.005
G1 X-269.791 Y80.546
X-269.941 Y80.54
X-270.088 Y80.513
X-270.233 Y80.472
X-270.383 Y80.416
X-270.546 Y80.34
X-270.721 Y80.241
X-270.903 Y80.116
X-271.103 Y79.955
X-271.304 Y79.765
X-271.517 Y79.527
X-271.735 Y79.241
X-271.947 Y78.911
X-272.173 Y78.49
X-272.371 Y78.034
X-272.559 Y77.486
X-272.717 Y76.863
X-272.828 Y76.231
X-272.897 Y75.592
X-272.929 Y74.951
X-272.927 Y74.309
X-272.893 Y73.667
X-272.831 Y73.028
X-272.74 Y72.393
X-272.622 Y71.761
X-272.477 Y71.136
X-272.309 Y70.525
X-272.184 Y70.181
X-272.161 Y70.131
X-272.065 Y69.976
X-271.935 Y69.85
X-271.778 Y69.758
X-271.603 Y69.708
X-270.243 Y69.49
G3 X-269.887 Y69.793 I0.039 J0.315
G1 X-269.877 Y70.052
X-269.499 Y79.927
X-269.488 Y80.216
G3 X-269.791 Y80.546 I-0.317 J0.012
G1 X-270.958 Y80.559
X-271.108 Y80.553
X-271.256 Y80.526
X-271.4 Y80.486
X-271.552 Y80.429
X-271.714 Y80.354
X-271.892 Y80.253
X-272.073 Y80.13
X-272.278 Y79.965
X-272.478 Y79.777
X-272.695 Y79.535
X-272.911 Y79.252
X-273.13 Y78.914
X-273.358 Y78.488
X-273.558 Y78.029
X-273.752 Y77.467
X-273.911 Y76.845
X-274.024 Y76.212
X-274.097 Y75.574
X-274.133 Y74.933
X-274.137 Y74.291
X-274.111 Y73.649
X-274.056 Y73.01
X-273.975 Y72.373
X-273.867 Y71.74
X-273.733 Y71.112
X-273.609 Y70.657
X-273.503 Y70.362
X-273.491 Y70.336
X-273.395 Y70.18
X-273.263 Y70.052
X-273.104 Y69.96
X-272.928 Y69.91
X-271.603 Y69.708
G3 X-271.247 Y70.005 I0.039 J0.315
G1 X-271.232 Y70.271
X-270.672 Y79.941
X-270.656 Y80.223
G3 X-270.958 Y80.559 I-0.317 J0.018
G1 X-272.125 Y80.572
X-272.275 Y80.566
X-272.423 Y80.54
X-272.568 Y80.5
X-272.72 Y80.444
X-272.881 Y80.37
X-273.061 Y80.269
X-273.242 Y80.147
X-273.449 Y79.982
X-273.648 Y79.795
X-273.869 Y79.552
X-274.084 Y79.273
X-274.308 Y78.929
X-274.537 Y78.505
X-274.742 Y78.041
X-274.941 Y77.47
X-275.103 Y76.848
X-275.22 Y76.217
X-275.297 Y75.579
X-275.339 Y74.938
X-275.35 Y74.296
X-275.331 Y73.654
X-275.285 Y73.014
X-275.212 Y72.376
X-275.114 Y71.741
X-274.986 Y71.115
X-274.88 Y70.745
X-274.817 Y70.579
X-274.724 Y70.407
X-274.59 Y70.265
X-274.423 Y70.163
X-274.235 Y70.109
X-272.928 Y69.91
G3 X-272.574 Y70.202 I0.037 J0.315
G1 X-272.554 Y70.475
X-271.844 Y79.954
X-271.823 Y80.231
G3 X-272.125 Y80.572 I-0.317 J0.024
G1 X-273.292 Y80.584
X-273.442 Y80.578
X-273.59 Y80.554
X-273.735 Y80.515
X-273.887 Y80.46
X-274.048 Y80.388
X-274.229 Y80.287
X-274.409 Y80.168
X-274.617 Y80.004
X-274.816 Y79.82
X-275.039 Y79.577
X-275.254 Y79.302
X-275.482 Y78.956
X-275.712 Y78.537
X-275.922 Y78.07
X-276.128 Y77.494
X-276.294 Y76.873
X-276.415 Y76.243
X-276.498 Y75.606
X-276.546 Y74.965
X-276.563 Y74.323
X-276.552 Y73.681
X-276.514 Y73.04
X-276.451 Y72.401
X-276.36 Y71.766
X-276.256 Y71.254
X-276.159 Y70.916
X-276.106 Y70.776
X-276.014 Y70.603
X-275.879 Y70.461
X-275.712 Y70.359
X-275.524 Y70.305
X-274.235 Y70.109
G3 X-273.882 Y70.396 I0.037 J0.315
G1 X-273.857 Y70.673
X-273.015 Y79.967
X-272.991 Y80.239
G3 X-273.292 Y80.584 I-0.316 J0.029
G1 X-274.46 Y80.595
X-274.61 Y80.589
X-274.758 Y80.566
X-274.903 Y80.529
X-275.053 Y80.477
X-275.213 Y80.406
X-275.394 Y80.308
X-275.574 Y80.191
X-275.781 Y80.031
X-275.98 Y79.85
X-276.204 Y79.611
X-276.42 Y79.34
X-276.651 Y78.996
X-276.882 Y78.585
X-277.097 Y78.118
X-277.309 Y77.542
X-277.48 Y76.923
X-277.608 Y76.294
X-277.697 Y75.658
X-277.753 Y75.018
X-277.778 Y74.376
X-277.775 Y73.734
X-277.745 Y73.093
X-277.69 Y72.453
X-277.604 Y71.817
X-277.511 Y71.37
X-277.423 Y71.073
X-277.382 Y70.966
X-277.289 Y70.795
X-277.155 Y70.654
X-276.989 Y70.553
X-276.802 Y70.499
X-275.524 Y70.305
G3 X-275.172 Y70.587 I0.037 J0.315
G1 X-275.142 Y70.869
X-274.186 Y79.979
X-274.158 Y80.245
G3 X-274.46 Y80.595 I-0.316 J0.033
G1 X-275.627 Y80.606
X-275.777 Y80.6
X-275.925 Y80.579
X-276.071 Y80.543
X-276.218 Y80.494
X-276.379 Y80.425
X-276.556 Y80.331
X-276.737 Y80.217
X-276.942 Y80.062
X-277.142 Y79.884
X-277.366 Y79.651
X-277.583 Y79.385
X-277.816 Y79.046
X-278.05 Y78.641
X-278.269 Y78.179
X-278.486 Y77.608
X-278.665 Y76.991
X-278.799 Y76.363
X-278.896 Y75.728
X-278.959 Y75.089
X-278.992 Y74.448
X-278.997 Y73.806
X-278.976 Y73.164
X-278.927 Y72.523
X-278.845 Y71.901
X-278.761 Y71.506
X-278.679 Y71.233
X-278.648 Y71.155
X-278.555 Y70.985
X-278.421 Y70.846
X-278.255 Y70.745
X-278.069 Y70.692
X-276.802 Y70.499
G3 X-276.45 Y70.777 I0.037 J0.315
G1 X-276.416 Y71.062
X-275.356 Y79.99
X-275.325 Y80.251
G3 X-275.627 Y80.606 I-0.315 J0.037
G1 X-276.794 Y80.614
X-276.946 Y80.608
X-277.095 Y80.59
X-277.241 Y80.556
X-277.384 Y80.51
X-277.545 Y80.443
X-277.719 Y80.354
X-277.9 Y80.243
X-278.103 Y80.094
X-278.304 Y79.92
X-278.526 Y79.694
X-278.745 Y79.432
X-278.979 Y79.103
X-279.216 Y78.703
X-279.438 Y78.25
X-279.66 Y77.687
X-279.847 Y77.072
X-279.989 Y76.446
X-280.093 Y75.812
X-280.164 Y75.174
X-280.205 Y74.533
X-280.218 Y73.891
X-280.205 Y73.249
X-280.161 Y72.608
X-280.087 Y72.039
X-280.008 Y71.67
X-279.929 Y71.409
X-279.905 Y71.346
X-279.811 Y71.176
X-279.677 Y71.037
X-279.512 Y70.937
X-279.326 Y70.883
X-278.069 Y70.692
G3 X-277.718 Y70.966 I0.037 J0.315
G1 X-277.68 Y71.255
X-276.527 Y80
X-276.493 Y80.256
G3 X-276.794 Y80.614 I-0.315 J0.041
G1 X-278.042 Y80.623
X-278.192 Y80.617
X-278.34 Y80.592
X-278.484 Y80.553
X-278.634 Y80.499
X-278.807 Y80.421
X-278.978 Y80.327
X-279.177 Y80.195
X-279.371 Y80.043
X-279.594 Y79.838
X-279.804 Y79.61
X-280.046 Y79.301
X-280.269 Y78.965
X-280.506 Y78.535
X-280.74 Y78.015
X-280.957 Y77.41
X-281.125 Y76.791
X-281.252 Y76.161
X-281.343 Y75.525
X-281.403 Y74.886
X-281.434 Y74.245
X-281.437 Y73.602
X-281.409 Y72.961
X-281.347 Y72.348
X-281.277 Y71.96
X-281.2 Y71.672
X-281.158 Y71.555
X-281.066 Y71.377
X-280.93 Y71.231
X-280.759 Y71.126
X-280.567 Y71.07
X-280.296 Y71.03
X-279.326 Y70.883
G3 X-278.975 Y71.155 I0.037 J0.315
G1 X-278.935 Y71.445
X-277.775 Y80.009
X-277.74 Y80.263
G3 X-278.042 Y80.623 I-0.315 J0.043
G1 X-279.209 Y80.629
X-279.359 Y80.623
X-279.507 Y80.601
X-279.653 Y80.565
X-279.809 Y80.513
X-279.967 Y80.444
X-280.15 Y80.347
X-280.329 Y80.233
X-280.538 Y80.075
X-280.739 Y79.895
X-280.972 Y79.651
X-281.191 Y79.382
X-281.439 Y79.02
X-281.668 Y78.62
X-281.901 Y78.126
X-282.127 Y77.525
X-282.305 Y76.908
X-282.441 Y76.28
X-282.541 Y75.646
X-282.609 Y75.007
X-282.648 Y74.366
X-282.658 Y73.724
X-282.637 Y73.082
X-282.579 Y72.506
X-282.51 Y72.127
X-282.438 Y71.856
X-282.394 Y71.732
X-282.301 Y71.553
X-282.164 Y71.406
X-281.993 Y71.301
X-281.799 Y71.246
X-280.734 Y71.095
X-280.567 Y71.07
G3 X-280.218 Y71.34 I0.035 J0.316
G1 X-280.175 Y71.635
X-278.944 Y80.016
X-278.908 Y80.266
G3 X-279.209 Y80.629 I-0.314 J0.046
G1 X-280.442 Y80.635
X-280.592 Y80.628
X-280.74 Y80.604
X-280.887 Y80.564
X-281.034 Y80.511
X-281.205 Y80.434
X-281.384 Y80.335
X-281.576 Y80.207
X-281.78 Y80.047
X-281.994 Y79.85
X-282.219 Y79.605
X-282.454 Y79.305
X-282.689 Y78.95
X-282.934 Y78.504
X-283.168 Y77.984
X-283.384 Y77.379
X-283.552 Y76.759
X-283.681 Y76.13
X-283.774 Y75.495
X-283.837 Y74.856
X-283.869 Y74.214
X-283.871 Y73.572
X-283.835 Y72.931
X-283.776 Y72.496
X-283.703 Y72.159
X-283.63 Y71.919
X-283.615 Y71.882
X-283.521 Y71.712
X-283.385 Y71.572
X-283.217 Y71.472
X-283.03 Y71.42
X-281.799 Y71.246
G3 X-281.452 Y71.515 I0.033 J0.316
G1 X-281.407 Y71.812
X-280.178 Y80.022
X-280.141 Y80.271
G3 X-280.442 Y80.635 I-0.314 J0.047
G1 X-281.609 Y80.639
X-281.759 Y80.632
X-281.908 Y80.611
X-282.053 Y80.575
X-282.21 Y80.523
X-282.367 Y80.455
X-282.551 Y80.358
X-282.732 Y80.243
X-282.94 Y80.086
X-283.147 Y79.902
X-283.379 Y79.66
X-283.603 Y79.385
X-283.854 Y79.02
X-284.083 Y78.623
X-284.32 Y78.122
X-284.548 Y77.522
X-284.727 Y76.905
X-284.866 Y76.278
X-284.969 Y75.644
X-285.04 Y75.006
X-285.081 Y74.365
X-285.089 Y73.723
X-285.057 Y73.103
X-284.998 Y72.66
X-284.927 Y72.33
X-284.856 Y72.094
X-284.842 Y72.057
X-284.747 Y71.886
X-284.612 Y71.746
X-284.444 Y71.646
X-284.256 Y71.593
X-283.03 Y71.42
G3 X-282.683 Y71.685 I0.033 J0.316
G1 X-282.635 Y71.985
X-281.347 Y80.027
X-281.308 Y80.272
G3 X-281.609 Y80.639 I-0.314 J0.05
G1 X-282.776 Y80.642
X-282.949 Y80.634
X-283.098 Y80.615
X-283.244 Y80.581
X-283.391 Y80.533
X-283.552 Y80.466
X-283.735 Y80.372
X-283.916 Y80.26
X-284.125 Y80.106
X-284.326 Y79.931
X-284.559 Y79.693
X-284.779 Y79.429
X-285.026 Y79.079
X-285.265 Y78.674
X-285.501 Y78.191
X-285.735 Y77.593
X-285.92 Y76.978
X-286.065 Y76.352
X-286.173 Y75.719
X-286.248 Y75.082
X-286.291 Y74.441
X-286.3 Y73.799
X-286.266 Y73.194
X-286.211 Y72.794
X-286.141 Y72.476
X-286.07 Y72.244
X-286.062 Y72.226
X-285.968 Y72.057
X-285.832 Y71.918
X-285.665 Y71.819
X-285.478 Y71.766
X-284.256 Y71.593
G3 X-283.909 Y71.856 I0.033 J0.316
G1 X-283.858 Y72.158
X-282.517 Y80.03
X-282.475 Y80.272
G3 X-282.776 Y80.642 I-0.313 J0.053
G1 X-284.024 Y80.644
X-284.174 Y80.637
X-284.322 Y80.616
X-284.468 Y80.58
X-284.612 Y80.532
X-284.781 Y80.46
X-284.956 Y80.369
X-285.146 Y80.248
X-285.349 Y80.096
X-285.561 Y79.908
X-285.786 Y79.674
X-286.02 Y79.389
X-286.258 Y79.045
X-286.509 Y78.613
X-286.744 Y78.12
X-286.973 Y77.52
X-287.154 Y76.903
X-287.294 Y76.277
X-287.397 Y75.643
X-287.468 Y75.005
X-287.504 Y74.363
X-287.501 Y73.721
X-287.459 Y73.193
X-287.403 Y72.846
X-287.335 Y72.568
X-287.291 Y72.438
X-287.2 Y72.254
X-287.063 Y72.103
X-286.889 Y71.995
X-286.692 Y71.938
X-285.478 Y71.766
G3 X-285.131 Y72.029 I0.033 J0.316
G1 X-285.08 Y72.331
X-283.763 Y80.033
X-283.722 Y80.274
G3 X-284.024 Y80.644 I-0.313 J0.053
G1 X-285.257 Y80.645
X-285.407 Y80.638
X-285.555 Y80.614
X-285.702 Y80.576
X-285.849 Y80.524
X-286.019 Y80.449
X-286.197 Y80.352
X-286.388 Y80.227
X-286.598 Y80.066
X-286.81 Y79.872
X-287.04 Y79.626
X-287.275 Y79.332
X-287.515 Y78.974
X-287.765 Y78.528
X-288.002 Y78.013
X-288.222 Y77.41
X-288.396 Y76.792
