(1001)
(Bearbeiten)
(  Hersteller: ChinaCnc)
(  model: 3040T)
(  description: Generic 3-axis)
(T16  D=6 CR=0 - ZMIN=-25 - Schaftfraser)
G90 G94
G17
G21
G28 G91 Z0
G90

(2D Adaptive16)
T16
S6000 M3
G54
G0 X-56.302 Y89.863
Z4
Z2.05
Z-16.8
G1 Z-17.4 F1000
X-56.304 Y89.856 Z-17.494
X-56.31 Y89.835 Z-17.585
X-56.319 Y89.8 Z-17.672
X-56.331 Y89.752 Z-17.753
X-56.346 Y89.693 Z-17.824
X-56.364 Y89.623 Z-17.885
X-56.384 Y89.546 Z-17.935
X-56.405 Y89.461 Z-17.971
X-56.428 Y89.373 Z-17.993
X-56.451 Y89.282 Z-18
G3 X-56.921 Y86.015 I14.839 J-3.801
G1 Y85.704
X-56.919 Y85.666
X-56.823 Y85.547
X-56.695 Y85.412
X-56.527 Y85.261
X-56.31 Y85.095
X-56.032 Y84.916
X-55.675 Y84.725
X-55.21 Y84.522
X-54.591 Y84.31
X-53.733 Y84.09
X-52.86 Y83.94
X-51.98 Y83.836
X-51.096 Y83.764
X-50.212 Y83.714
X-49.326 Y83.68
X-48.44 Y83.656
X-47.554 Y83.639
X-46.668 Y83.627
X-45.782 Y83.619
X-44.896 Y83.613
X-44.01 Y83.609
X-42.238 Y83.605
X-39.579 Y83.602
X-32.49 Y83.6
X-18.244
X-17.933 Y83.635
X-17.637 Y83.739
X-17.371 Y83.905
X-17.15 Y84.127
X-16.983 Y84.393
X-16.879 Y84.688
X-16.844 Y85
X-17.028 Y85.412
X-17.325 Y85.567
X-17.326
X-55.173 Y87.222
G3 X-56.59 Y86.619 I-0.166 J-1.574
G1 X-56.675 Y86.44
X-56.879 Y86.015
X-56.921 Y85.704
Y84.899
X-56.914 Y84.749
X-56.852 Y84.586
X-56.771 Y84.413
X-56.656 Y84.212
X-56.521 Y84.015
X-56.344 Y83.797
X-56.114 Y83.555
X-55.858 Y83.326
X-55.524 Y83.072
X-55.135 Y82.824
X-54.638 Y82.56
X-54.03 Y82.297
X-53.246 Y82.03
X-52.387 Y81.813
X-51.516 Y81.652
X-50.637 Y81.532
X-49.756 Y81.444
X-48.872 Y81.379
X-47.987 Y81.331
X-47.102 Y81.296
X-46.216 Y81.27
X-45.33 Y81.251
X-44.444 Y81.237
X-43.558 Y81.227
X-42.672 Y81.219
X-41.786 Y81.214
X-40.9 Y81.21
X-39.128 Y81.205
X-36.469 Y81.202
X-30.266 Y81.2
X-20.519
X-19.633 Y81.217
X-19.029 Y81.276
X-18.526 Y81.367
X-18.123 Y81.473
X-17.768 Y81.598
X-17.497 Y81.727
X-17.26 Y81.912
X-17.068 Y82.142
X-16.929 Y82.408
X-16.85 Y82.698
X-16.835 Y82.998
X-17.044 Y83.401
X-17.361 Y83.498
X-17.527 Y83.549
X-55.182 Y86.419
G3 X-56.59 Y85.814 I-0.158 J-1.575
G1 X-56.675 Y85.635
X-56.879 Y85.211
X-56.921 Y84.899
Y83.602
X-56.914 Y83.452
X-56.882 Y83.275
X-56.835 Y83.092
X-56.763 Y82.886
X-56.665 Y82.664
X-56.54 Y82.432
X-56.372 Y82.173
X-56.177 Y81.919
X-55.915 Y81.631
X-55.62 Y81.353
X-55.241 Y81.051
X-54.805 Y80.756
X-54.254 Y80.446
X-53.586 Y80.137
X-52.754 Y79.831
X-51.901 Y79.592
X-51.034 Y79.407
X-50.16 Y79.264
X-49.28 Y79.153
X-48.398 Y79.068
X-47.515 Y79.003
X-46.63 Y78.954
X-45.745 Y78.916
X-44.859 Y78.887
X-43.973 Y78.865
X-43.087 Y78.849
X-42.201 Y78.836
X-41.315 Y78.827
X-40.429 Y78.82
X-39.543 Y78.815
X-37.771 Y78.808
X-35.998 Y78.804
X-32.454 Y78.801
X-22.706 Y78.8
X-21.82 Y78.804
X-20.935 Y78.826
X-20.05 Y78.884
X-19.211 Y78.993
X-18.61 Y79.121
X-18.115 Y79.269
X-17.722 Y79.421
X-17.351 Y79.6
X-17.045 Y79.78
X-16.946 Y79.849
X-16.728 Y80.038
X-16.554 Y80.269
X-16.431 Y80.53
X-16.364 Y80.811
X-16.357 Y81.099
X-16.41 Y81.383
X-16.52 Y81.65
X-16.722 Y81.88
X-17.191 Y81.977
X-17.326 Y82.005
X-55.182 Y85.121
G3 X-56.921 Y83.602 I-0.158 J-1.575
G1 Y83.199
X-56.93 Y82.998
X-56.953 Y82.596
X-56.987 Y82.395
X-56.994 Y82.356
X-57.023 Y82.209
X-57.034 Y82.057
X-57.033 Y81.898
X-57.017 Y81.711
X-56.984 Y81.512
X-56.928 Y81.292
X-56.847 Y81.054
X-56.739 Y80.802
X-56.591 Y80.524
X-56.412 Y80.244
X-56.174 Y79.929
X-55.902 Y79.624
X-55.541 Y79.28
X-55.142 Y78.957
X-54.636 Y78.61
X-54.026 Y78.261
X-53.3 Y77.919
X-52.471 Y77.607
X-51.621 Y77.356
X-50.758 Y77.154
X-49.887 Y76.993
X-49.01 Y76.864
X-48.13 Y76.763
X-47.247 Y76.682
X-46.364 Y76.619
X-45.479 Y76.569
X-44.594 Y76.53
X-43.708 Y76.5
X-42.822 Y76.477
X-41.936 Y76.459
X-41.05 Y76.445
X-40.164 Y76.434
X-39.278 Y76.426
X-38.392 Y76.42
X-37.506 Y76.415
X-35.734 Y76.408
X-33.075 Y76.404
X-28.645 Y76.401
X-25.1 Y76.4
X-24.214 Y76.401
X-23.328 Y76.406
X-22.442 Y76.421
X-21.556 Y76.455
X-20.672 Y76.516
X-19.793 Y76.621
X-18.921 Y76.781
X-18.192 Y76.976
X-17.62 Y77.179
X-17.17 Y77.381
X-16.772 Y77.599
X-16.453 Y77.809
X-16.152 Y78.045
X-15.907 Y78.269
X-15.675 Y78.52
X-15.489 Y78.756
X-15.476 Y78.776
X-15.338 Y79.037
X-15.257 Y79.32
X-15.234 Y79.614
X-15.271 Y79.906
X-15.367 Y80.185
X-15.517 Y80.439
X-15.715 Y80.657
X-15.794 Y80.728
X-16.319 Y80.878
X-16.558 Y80.894
X-55.383 Y83.493
G3 X-56.982 Y82.395 I-0.092 J-1.58
G1 X-56.994 Y82.356
X-57.035 Y82.194
X-57.097 Y81.993
X-57.195 Y81.751
X-57.278 Y81.59
X-57.342 Y81.48
X-57.411 Y81.346
X-57.468 Y81.208
X-57.512 Y81.064
X-57.547 Y80.903
X-57.57 Y80.731
X-57.58 Y80.531
X-57.574 Y80.322
X-57.547 Y80.08
X-57.499 Y79.83
X-57.42 Y79.547
X-57.316 Y79.262
X-57.167 Y78.938
X-56.988 Y78.619
X-56.745 Y78.259
X-56.467 Y77.909
X-56.105 Y77.523
X-55.69 Y77.146
X-55.184 Y76.755
X-54.568 Y76.354
X-53.839 Y75.959
X-53.028 Y75.601
X-52.194 Y75.303
X-51.342 Y75.057
X-50.48 Y74.854
X-49.61 Y74.687
X-48.734 Y74.551
X-47.855 Y74.44
X-46.973 Y74.35
X-46.09 Y74.278
X-45.206 Y74.219
X-44.321 Y74.173
X-43.436 Y74.136
X-42.55 Y74.106
X-41.664 Y74.083
X-40.778 Y74.064
X-39.892 Y74.05
X-39.006 Y74.039
X-38.12 Y74.03
X-37.234 Y74.023
X-36.348 Y74.018
X-34.576 Y74.01
X-32.803 Y74.006
X-30.145 Y74.003
X-26.601 Y74.001
X-25.714 Y74.002
X-24.828 Y74.006
X-23.942 Y74.016
X-23.056 Y74.037
X-22.171 Y74.075
X-21.287 Y74.136
X-20.406 Y74.229
X-19.53 Y74.363
X-18.663 Y74.546
X-17.835 Y74.784
X-17.117 Y75.054
X-16.505 Y75.343
X-15.954 Y75.659
X-15.491 Y75.976
X-15.113 Y76.283
X-14.817 Y76.565
X-14.547 Y76.867
X-14.336 Y77.146
X-14.145 Y77.445
X-13.998 Y77.723
X-13.868 Y78.023
X-13.775 Y78.298
X-13.7 Y78.596
X-13.654 Y78.868
X-13.629 Y79.156
X-13.628 Y79.427
X-13.648 Y79.693
X-13.709 Y79.848
X-13.831 Y79.961
X-13.989 Y80.011
X-14.774 Y80.053
X-55.987 Y82.221
G3 X-57.342 Y81.48 I-0.015 J-1.583
G1 X-57.397 Y81.386
X-57.531 Y81.188
X-57.704 Y80.987
X-57.8 Y80.882
X-57.907 Y80.786
X-58.013 Y80.68
X-58.106 Y80.563
X-58.187 Y80.437
X-58.257 Y80.304
X-58.325 Y80.146
X-58.381 Y79.976
X-58.43 Y79.778
X-58.465 Y79.566
X-58.485 Y79.323
Y79.064
X-58.463 Y78.782
X-58.413 Y78.472
X-58.334 Y78.15
X-58.214 Y77.79
X-58.062 Y77.432
X-57.855 Y77.034
X-57.601 Y76.631
X-57.286 Y76.209
X-56.886 Y75.755
X-56.44 Y75.324
X-55.884 Y74.867
X-55.222 Y74.406
X-54.457 Y73.961
X-53.658 Y73.576
X-52.835 Y73.248
X-51.994 Y72.969
X-51.14 Y72.732
X-50.277 Y72.533
X-49.407 Y72.366
X-48.532 Y72.226
X-47.653 Y72.109
X-46.772 Y72.013
X-45.89 Y71.934
X-45.006 Y71.869
X-44.121 Y71.816
X-43.236 Y71.772
X-42.351 Y71.737
X-41.465 Y71.709
X-40.579 Y71.686
X-39.693 Y71.668
X-38.807 Y71.654
X-37.921 Y71.642
X-37.035 Y71.633
X-36.149 Y71.626
X-35.263 Y71.62
X-33.491 Y71.612
X-31.719 Y71.607
X-29.06 Y71.603
X-27.288
X-26.402 Y71.606
X-25.516 Y71.612
X-24.63 Y71.625
X-23.744 Y71.648
X-22.859 Y71.686
X-21.974 Y71.742
X-21.092 Y71.822
X-20.213 Y71.934
X-19.34 Y72.084
X-18.475 Y72.278
X-17.623 Y72.521
X-16.788 Y72.82
X-15.981 Y73.176
X-15.301 Y73.545
X-14.696 Y73.938
X-14.165 Y74.348
X-13.707 Y74.764
X-13.31 Y75.187
X-12.964 Y75.621
X-12.665 Y76.066
X-12.412 Y76.516
X-12.204 Y76.967
X-12.039 Y77.418
X-11.929 Y77.812
X-11.863 Y78.155
X-11.828 Y78.477
X-11.826 Y78.516
X-11.851 Y78.823
X-11.943 Y79.118
X-12.096 Y79.385
X-12.304 Y79.612
X-12.557 Y79.788
X-12.843 Y79.905
X-13.147 Y79.956
X-13.701 Y79.987
X-13.989 Y80.011
X-14.775 Y80.032
X-56.793 Y81.153
G3 X-57.195 Y81.126 I-0.097 J-1.58
G1 X-57.198 Y81.125
G3 X-57.598 Y80.988 I0.309 J-1.552
G1 X-57.907 Y80.786
X-58.001 Y80.701
X-58.15 Y80.585
X-58.202 Y80.548
X-58.404 Y80.415
X-58.459 Y80.384
X-58.605 Y80.31
X-58.739 Y80.242
X-58.861 Y80.155
X-58.974 Y80.056
X-59.077 Y79.947
X-59.177 Y79.822
X-59.276 Y79.675
X-59.368 Y79.511
X-59.457 Y79.317
X-59.533 Y79.11
X-59.601 Y78.868
X-59.65 Y78.612
X-59.683 Y78.322
X-59.692 Y78.007
X-59.676 Y77.674
X-59.627 Y77.299
X-59.546 Y76.92
X-59.42 Y76.499
X-59.247 Y76.054
X-59.03 Y75.607
X-58.742 Y75.118
X-58.392 Y74.618
X-57.976 Y74.117
X-57.457 Y73.584
X-56.845 Y73.05
X-56.147 Y72.534
X-55.395 Y72.065
X-54.611 Y71.653
X-53.802 Y71.291
X-52.974 Y70.975
X-52.132 Y70.701
X-51.278 Y70.464
X-50.416 Y70.26
X-49.547 Y70.085
X-48.673 Y69.936
X-47.796 Y69.809
X-46.917 Y69.703
X-46.035 Y69.613
X-45.152 Y69.538
X-44.268 Y69.476
X-43.383 Y69.424
X-42.498 Y69.382
X-41.613 Y69.347
X-40.727 Y69.318
X-39.841 Y69.295
X-38.956 Y69.276
X-38.07 Y69.26
X-37.184 Y69.248
X-36.297 Y69.238
X-35.411 Y69.23
X-34.525 Y69.224
X-33.639 Y69.219
X-31.867 Y69.212
X-30.095 Y69.207
X-29.209 Y69.206
X-28.322
X-27.436 Y69.208
X-26.55 Y69.214
X-25.664 Y69.225
X-24.778 Y69.245
X-23.893 Y69.275
X-23.008 Y69.32
X-22.124 Y69.384
X-21.242 Y69.471
X-20.363 Y69.585
X-19.489 Y69.73
X-18.622 Y69.91
X-17.763 Y70.129
X-16.917 Y70.392
X-16.087 Y70.703
X-15.278 Y71.066
X-14.496 Y71.483
X-13.747 Y71.955
X-13.076 Y72.456
X-12.476 Y72.985
X-11.94 Y73.539
X-11.466 Y74.116
X-11.054 Y74.708
X-10.712 Y75.296
X-10.443 Y75.857
X-10.26 Y76.333
X-10.127 Y76.786
X-10.045 Y77.178
X-9.997 Y77.56
X-9.981 Y77.902
X-9.993 Y78.247
X-10.028 Y78.55
X-10.064 Y78.729
X-10.156 Y79.022
X-10.31 Y79.288
X-10.518 Y79.514
X-10.771 Y79.688
X-11.055 Y79.804
X-11.358 Y79.855
X-13.147 Y79.956
X-13.932 Y79.963
X-57.831 Y80.378
X-58.369 Y80.384
X-58.605 Y80.31
X-58.806 Y80.22
X-58.895 Y80.182
X-59.008 Y80.147
X-59.209 Y80.088
X-59.41 Y80.046
X-59.557 Y80.015
X-59.698 Y79.963
X-59.832 Y79.895
X-59.959 Y79.816
X-60.082 Y79.724
X-60.214 Y79.608
X-60.343 Y79.476
X-60.472 Y79.318
X-60.6 Y79.136
X-60.718 Y78.933
X-60.833 Y78.695
X-60.931 Y78.441
X-61.017 Y78.148
X-61.084 Y77.829
X-61.128 Y77.485
X-61.146 Y77.098
X-61.133 Y76.698
X-61.083 Y76.26
X-60.988 Y75.779
X-60.852 Y75.296
X-60.659 Y74.776
X-60.397 Y74.212
X-60.081 Y73.655
X-59.686 Y73.073
X-59.195 Y72.461
X-58.614 Y71.846
X-57.956 Y71.252
X-57.252 Y70.713
X-56.512 Y70.226
X-55.742 Y69.789
X-54.947 Y69.396
X-54.133 Y69.047
X-53.303 Y68.736
X-52.46 Y68.462
X-51.608 Y68.22
X-50.747 Y68.009
X-49.88 Y67.825
X-49.009 Y67.666
X-48.133 Y67.528
X-47.255 Y67.41
X-46.375 Y67.309
X-45.493 Y67.223
X-44.61 Y67.15
X-43.726 Y67.089
X-42.841 Y67.038
X-41.956 Y66.995
X-41.07 Y66.959
X-40.185 Y66.929
X-39.299 Y66.905
X-38.413 Y66.885
X-37.527 Y66.869
X-36.641 Y66.855
X-35.755 Y66.844
X-34.869 Y66.835
X-33.983 Y66.828
X-33.097 Y66.823
X-32.211 Y66.818
X-31.325 Y66.814
X-30.438 Y66.812
X-29.552 Y66.811
X-28.666 Y66.812
X-27.78 Y66.816
X-26.894 Y66.824
X-26.008 Y66.838
X-25.122 Y66.861
X-24.237 Y66.895
X-23.352 Y66.942
X-22.468 Y67.007
X-21.586 Y67.091
X-20.706 Y67.198
X-19.83 Y67.332
X-18.959 Y67.493
X-18.094 Y67.686
X-17.238 Y67.916
X-16.394 Y68.185
X-15.564 Y68.495
X-14.751 Y68.848
X-13.958 Y69.244
X-13.19 Y69.686
X-12.452 Y70.175
X-11.748 Y70.714
X-11.084 Y71.301
X-10.465 Y71.934
X-9.894 Y72.612
X-9.404 Y73.297
X-9 Y73.969
X-8.675 Y74.623
X-8.423 Y75.255
X-8.239 Y75.85
X-8.111 Y76.422
X-8.039 Y76.936
X-8.011 Y77.414
X-8.019 Y77.818
X-8.059 Y78.203
X-8.121 Y78.543
X-8.167 Y78.712
X-8.271 Y78.984
X-8.43 Y79.229
X-8.636 Y79.435
X-8.88 Y79.595
X-9.152 Y79.7
X-9.44 Y79.747
X-11.358 Y79.855
X-11.688 Y79.765
X-12.022 Y79.473
X-13.974 Y77.769
G2 X-15.916 Y77.139 I-1.675 J1.856
G1 X-58.627 Y79.993
X-59.41 Y80.046
X-59.612 Y80.025
X-60.015 Y79.99
X-60.216 Y79.976
X-60.417 Y79.964
X-60.566 Y79.947
X-60.713 Y79.917
X-60.856 Y79.871
X-60.998 Y79.813
X-61.147 Y79.737
X-61.305 Y79.64
X-61.462 Y79.525
X-61.628 Y79.382
X-61.788 Y79.22
X-61.952 Y79.025
X-62.11 Y78.802
X-62.257 Y78.555
X-62.4 Y78.266
X-62.522 Y77.956
X-62.63 Y77.605
X-62.716 Y77.212
X-62.772 Y76.803
X-62.797 Y76.346
X-62.785 Y75.843
X-62.731 Y75.33
X-62.626 Y74.772
X-62.462 Y74.168
X-62.239 Y73.552
X-61.95 Y72.915
X-61.574 Y72.237
X-61.106 Y71.533
X-60.557 Y70.838
X-59.955 Y70.188
X-59.305 Y69.585
X-58.614 Y69.03
X-57.89 Y68.519
X-57.137 Y68.052
X-56.36 Y67.625
X-55.563 Y67.238
X-54.749 Y66.888
X-53.921 Y66.572
X-53.082 Y66.29
X-52.232 Y66.037
X-51.375 Y65.813
X-50.511 Y65.615
X-49.642 Y65.441
X-48.769 Y65.288
X-47.893 Y65.155
X-47.015 Y65.04
X-46.134 Y64.94
X-45.252 Y64.854
X-44.369 Y64.78
X-43.485 Y64.717
X-42.601 Y64.664
X-41.716 Y64.619
X-40.831 Y64.581
X-39.945 Y64.549
X-39.059 Y64.522
X-38.174 Y64.5
X-37.288 Y64.482
X-36.402 Y64.466
X-35.516 Y64.454
X-34.63 Y64.444
X-33.743 Y64.435
X-32.857 Y64.428
X-31.971 Y64.423
X-31.085 Y64.42
X-30.199 Y64.418
X-29.313 Y64.419
X-28.427 Y64.423
X-27.541 Y64.431
X-26.655 Y64.445
X-25.769 Y64.468
X-24.883 Y64.499
X-23.998 Y64.543
X-23.114 Y64.601
X-22.231 Y64.676
X-21.35 Y64.769
X-20.471 Y64.884
X-19.596 Y65.022
X-18.725 Y65.188
X-17.861 Y65.383
X-17.004 Y65.609
X-16.157 Y65.868
X-15.321 Y66.162
X-14.498 Y66.491
X-13.691 Y66.857
X-12.903 Y67.263
X-12.138 Y67.71
X-11.398 Y68.197
X-10.687 Y68.726
X-10.007 Y69.294
X-9.361 Y69.9
X-8.754 Y70.546
X-8.19 Y71.23
X-7.676 Y71.951
X-7.215 Y72.708
X-6.819 Y73.485
X-6.508 Y74.241
X-6.271 Y74.979
X-6.105 Y75.685
X-6.005 Y76.348
X-5.965 Y76.924
X-5.971 Y77.446
X-6.01 Y77.875
X-6.079 Y78.274
X-6.171 Y78.629
X-6.193 Y78.693
X-6.308 Y78.943
X-6.469 Y79.166
X-6.672 Y79.353
X-6.907 Y79.496
X-7.165 Y79.591
X-7.437 Y79.634
X-9.44 Y79.747
X-9.875 Y79.573
X-10.087 Y79.338
X-11.862 Y77.366
G2 X-13.903 Y76.589 I-1.821 J1.713
G1 X-59.634 Y79.907
X-60.417 Y79.964
X-61.827 Y79.878
X-61.976 Y79.861
X-62.123 Y79.829
X-62.274 Y79.783
X-62.443 Y79.717
X-62.611 Y79.635
X-62.797 Y79.525
X-62.979 Y79.396
X-63.172 Y79.236
X-63.363 Y79.048
X-63.55 Y78.832
X-63.74 Y78.574
X-63.914 Y78.293
X-64.082 Y77.964
X-64.235 Y77.597
X-64.362 Y77.203
X-64.469 Y76.752
X-64.545 Y76.261
X-64.582 Y75.744
X-64.577 Y75.167
X-64.521 Y74.542
X-64.413 Y73.908
X-64.24 Y73.226
X-63.988 Y72.49
X-63.651 Y71.717
X-63.243 Y70.951
X-62.764 Y70.205
X-62.229 Y69.499
X-61.645 Y68.832
X-61.018 Y68.206
X-60.354 Y67.619
X-59.658 Y67.071
X-58.933 Y66.562
X-58.182 Y66.09
X-57.411 Y65.655
X-56.619 Y65.256
X-55.812 Y64.89
X-54.991 Y64.557
X-54.158 Y64.254
X-53.316 Y63.98
X-52.465 Y63.733
X-51.607 Y63.512
X-50.743 Y63.314
X-49.875 Y63.137
X-49.002 Y62.981
X-48.127 Y62.843
X-47.249 Y62.722
X-46.369 Y62.616
X-45.488 Y62.524
X-44.606 Y62.444
X-43.722 Y62.375
X-42.838 Y62.315
X-41.953 Y62.264
X-41.068 Y62.221
X-40.183 Y62.184
X-39.297 Y62.153
X-38.412 Y62.126
X-37.526 Y62.104
X-36.64 Y62.086
X-35.754 Y62.07
X-34.868 Y62.058
X-33.982 Y62.047
X-33.096 Y62.039
X-32.21 Y62.033
X-31.324 Y62.028
X-30.437 Y62.027
X-29.551 Y62.028
X-28.665 Y62.033
X-27.779 Y62.044
X-26.893 Y62.061
X-26.007 Y62.085
X-25.122 Y62.119
X-24.237 Y62.165
X-23.353 Y62.224
X-22.47 Y62.298
X-21.588 Y62.389
X-20.709 Y62.499
X-19.833 Y62.63
X-18.96 Y62.785
X-18.092 Y62.964
X-17.23 Y63.169
X-16.376 Y63.403
X-15.529 Y63.666
X-14.694 Y63.961
X-13.87 Y64.288
X-13.061 Y64.648
X-12.267 Y65.042
X-11.492 Y65.472
X-10.737 Y65.935
X-10.004 Y66.434
X-9.296 Y66.967
X-8.617 Y67.536
X-7.969 Y68.14
X-7.354 Y68.778
X-6.775 Y69.449
X-6.235 Y70.151
X-5.737 Y70.885
X-5.287 Y71.648
X-4.89 Y72.44
X-4.548 Y73.258
X-4.267 Y74.098
X-4.061 Y74.916
X-3.933 Y75.679
X-3.871 Y76.4
X-3.868 Y77.018
X-3.907 Y77.544
X-3.975 Y77.979
X-4.069 Y78.368
X-4.13 Y78.555
X-4.242 Y78.81
X-4.404 Y79.038
X-4.607 Y79.23
X-4.844 Y79.377
X-5.106 Y79.474
X-5.382 Y79.518
X-7.437 Y79.634
X-7.862 Y79.47
X-8.075 Y79.217
X-9.674 Y77.317
G2 X-11.688 Y76.453 I-1.893 J1.633
G1 X-57.195 Y78.435
X-61.07 Y79.69
X-61.625 Y79.87
X-61.827 Y79.878
X-63.336 Y79.785
X-63.511 Y79.766
X-63.661 Y79.737
X-63.833 Y79.689
X-64.007 Y79.625
X-64.201 Y79.535
X-64.394 Y79.426
X-64.604 Y79.285
X-64.811 Y79.12
X-65.025 Y78.918
X-65.241 Y78.68
X-65.448 Y78.412
X-65.656 Y78.091
X-65.844 Y77.744
X-66.021 Y77.343
X-66.18 Y76.884
X-66.306 Y76.401
X-66.402 Y75.856
X-66.459 Y75.247
X-66.467 Y74.618
X-66.421 Y73.932
X-66.309 Y73.176
X-66.123 Y72.371
X-65.866 Y71.563
X-65.53 Y70.743
X-65.131 Y69.951
X-64.675 Y69.191
X-64.17 Y68.464
X-63.619 Y67.769
X-63.028 Y67.109
X-62.401 Y66.483
X-61.74 Y65.892
X-61.05 Y65.336
X-60.334 Y64.815
X-59.594 Y64.328
X-58.833 Y63.874
X-58.054 Y63.451
X-57.259 Y63.06
X-56.449 Y62.699
X-55.628 Y62.367
X-54.796 Y62.062
X-53.955 Y61.784
X-53.106 Y61.53
X-52.25 Y61.3
X-51.388 Y61.093
X-50.522 Y60.906
X-49.652 Y60.739
X-48.778 Y60.59
X-47.902 Y60.457
X-47.024 Y60.34
X-46.144 Y60.237
X-45.262 Y60.146
X-44.38 Y60.066
X-43.496 Y59.997
X-42.612 Y59.937
X-41.728 Y59.885
X-40.843 Y59.84
X-39.957 Y59.802
X-39.072 Y59.769
X-38.186 Y59.741
X-37.3 Y59.718
X-36.415 Y59.698
X-35.529 Y59.681
X-34.643 Y59.667
X-33.757 Y59.656
X-32.87 Y59.647
X-31.984 Y59.641
X-31.098 Y59.638
X-30.212 Y59.639
X-29.326 Y59.643
X-28.44 Y59.652
X-27.554 Y59.667
X-26.668 Y59.69
X-25.783 Y59.721
X-24.897 Y59.762
X-24.013 Y59.815
X-23.129 Y59.881
X-22.247 Y59.961
X-21.366 Y60.058
X-20.487 Y60.172
X-19.611 Y60.306
X-18.739 Y60.462
X-17.871 Y60.641
X-17.008 Y60.843
X-16.152 Y61.071
X-15.303 Y61.326
X-14.463 Y61.607
X-13.633 Y61.917
X-12.814 Y62.256
X-12.008 Y62.625
X-11.217 Y63.024
X-10.442 Y63.454
X-9.686 Y63.916
X-8.95 Y64.409
X-8.235 Y64.933
X-7.545 Y65.488
X-6.88 Y66.074
X-6.242 Y66.689
X-5.634 Y67.334
X-5.058 Y68.008
X-4.519 Y68.71
X-4.017 Y69.441
X-3.555 Y70.197
X-3.136 Y70.978
X-2.762 Y71.781
X-2.437 Y72.606
X-2.167 Y73.449
X-1.955 Y74.31
X-1.807 Y75.174
X-1.736 Y75.971
X-1.731 Y76.693
X-1.773 Y77.282
X-1.845 Y77.751
X-1.946 Y78.177
X-2.029 Y78.433
X-2.141 Y78.689
X-2.302 Y78.918
X-2.506 Y79.11
X-2.743 Y79.258
X-3.006 Y79.355
X-3.282 Y79.399
X-5.382 Y79.518
X-5.848 Y79.346
X-6.098 Y79.202
X-10.278 Y76.792
G2 X-11.486 Y76.479 I-1.211 J2.187
G1 X-57.397 Y75.428
G2 X-59.41 Y76.268 I-0.141 J2.496
G1 X-62.028 Y79.152
G3 X-63.336 Y79.785 I-1.266 J-0.949
G1 X-65.049 Y79.68
X-65.198 Y79.664
X-65.36 Y79.632
X-65.544 Y79.58
X-65.732 Y79.51
X-65.941 Y79.413
X-66.15 Y79.295
X-66.379 Y79.139
X-66.602 Y78.96
X-66.84 Y78.735
X-67.069 Y78.482
X-67.3 Y78.18
X-67.527 Y77.828
X-67.735 Y77.441
X-67.934 Y76.986
X-68.105 Y76.489
X-68.246 Y75.944
X-68.354 Y75.317
X-68.416 Y74.637
X-68.424 Y73.921
X-68.369 Y73.131
X-68.24 Y72.281
X-68.038 Y71.418
X-67.77 Y70.574
X-67.44 Y69.751
X-67.053 Y68.954
X-66.616 Y68.183
X-66.133 Y67.44
X-65.609 Y66.726
X-65.046 Y66.041
X-64.449 Y65.386
X-63.82 Y64.762
X-63.163 Y64.168
X-62.477 Y63.606
X-61.768 Y63.075
X-61.037 Y62.575
X-60.286 Y62.105
X-59.517 Y61.664
X-58.733 Y61.251
X-57.934 Y60.867
X-57.124 Y60.509
X-56.302 Y60.177
X-55.471 Y59.871
X-54.631 Y59.588
X-53.783 Y59.329
X-52.93 Y59.092
X-52.07 Y58.876
X-51.206 Y58.68
X-50.338 Y58.503
X-49.466 Y58.344
X-48.592 Y58.201
X-47.715 Y58.073
X-46.836 Y57.958
X-45.956 Y57.857
X-45.074 Y57.767
X-44.192 Y57.688
X-43.308 Y57.619
X-42.424 Y57.558
X-41.54 Y57.505
X-40.655 Y57.459
X-39.769 Y57.42
X-38.884 Y57.385
X-37.998 Y57.356
X-37.112 Y57.331
X-36.227 Y57.31
X-35.341 Y57.292
X-34.455 Y57.278
X-33.569 Y57.266
X-32.683 Y57.258
X-31.796 Y57.253
X-30.91 Y57.251
X-30.024 Y57.254
X-29.138 Y57.261
X-28.252 Y57.274
X-27.366 Y57.294
X-26.48 Y57.322
X-25.595 Y57.358
X-24.71 Y57.405
X-23.826 Y57.463
X-22.943 Y57.534
X-22.061 Y57.619
X-21.18 Y57.719
X-20.302 Y57.836
X-19.426 Y57.972
X-18.554 Y58.128
X-17.686 Y58.305
X-16.822 Y58.503
X-15.964 Y58.725
X-15.112 Y58.97
X-14.268 Y59.239
X-13.433 Y59.534
X-12.607 Y59.855
X-11.791 Y60.202
X-10.988 Y60.575
X-10.198 Y60.977
X-9.423 Y61.407
X-8.665 Y61.865
X-7.924 Y62.352
X-7.203 Y62.867
X-6.502 Y63.409
X-5.823 Y63.978
X-5.167 Y64.575
X-4.537 Y65.197
X-3.933 Y65.846
X-3.36 Y66.522
X-2.818 Y67.223
X-2.31 Y67.948
X-1.836 Y68.697
X-1.398 Y69.468
X-0.999 Y70.259
X-0.64 Y71.069
X-0.327 Y71.898
X-0.062 Y72.743
X0.152 Y73.603
X0.31 Y74.475
X0.408 Y75.356
X0.436 Y76.16
X0.404 Y76.849
X0.333 Y77.407
X0.235 Y77.877
X0.121 Y78.265
X0.08 Y78.37
X-0.066 Y78.65
X-0.27 Y78.89
X-0.523 Y79.078
X-0.811 Y79.205
X-1.121 Y79.264
X-1.619 Y79.302
X-2.224 Y79.339
X-3.282 Y79.399
X-4.016 Y79.119
X-10.278 Y76.726
X-11.486 Y76.479
X-59.813 Y76.661
G2 X-61.233 Y77.165 I0.088 J2.498
G1 X-64.243 Y79.484
X-64.287 Y79.495
X-65.007 Y79.681
X-65.049 Y79.68
X-66.055 Y79.617
X-66.861 Y79.554
X-67.011 Y79.535
X-67.189 Y79.497
X-67.378 Y79.441
X-67.585 Y79.361
X-67.8 Y79.257
X-68.03 Y79.122
X-68.267 Y78.956
X-68.511 Y78.754
X-68.763 Y78.509
X-69.007 Y78.231
X-69.262 Y77.888
X-69.494 Y77.516
X-69.725 Y77.069
X-69.936 Y76.567
X-70.115 Y76.023
X-70.268 Y75.389
X-70.379 Y74.686
X-70.435 Y73.951
X-70.432 Y73.128
X-70.357 Y72.245
X-70.213 Y71.371
X-70.005 Y70.509
X-69.738 Y69.664
X-69.416 Y68.839
X-69.043 Y68.035
X-68.624 Y67.254
X-68.163 Y66.497
X-67.663 Y65.766
X-67.127 Y65.06
X-66.559 Y64.38
X-65.96 Y63.727
X-65.333 Y63.101
X-64.679 Y62.503
X-64 Y61.934
X-63.298 Y61.392
X-62.576 Y60.879
X-61.835 Y60.392
X-61.078 Y59.933
X-60.305 Y59.5
X-59.518 Y59.092
X-58.718 Y58.71
X-57.908 Y58.352
X-57.087 Y58.019
X-56.257 Y57.708
X-55.419 Y57.42
X-54.574 Y57.154
X-53.722 Y56.909
X-52.865 Y56.684
X-52.003 Y56.479
X-51.137 Y56.291
X-50.267 Y56.12
X-49.395 Y55.966
X-48.52 Y55.826
X-47.643 Y55.7
X-46.764 Y55.587
X-45.883 Y55.487
X-45.002 Y55.397
X-44.119 Y55.317
X-43.236 Y55.247
X-42.352 Y55.185
X-41.467 Y55.13
X-40.583 Y55.083
X-39.697 Y55.041
X-38.812 Y55.005
X-37.927 Y54.974
X-37.041 Y54.948
X-36.155 Y54.925
X-35.269 Y54.906
X-34.383 Y54.891
X-33.497 Y54.879
X-32.611 Y54.871
X-31.725 Y54.867
X-30.839
X-29.953 Y54.871
X-29.066 Y54.881
X-28.181 Y54.897
X-27.295 Y54.92
X-26.409 Y54.951
X-25.524 Y54.991
X-24.639 Y55.041
X-23.755 Y55.102
X-22.872 Y55.175
X-21.99 Y55.261
X-21.11 Y55.363
X-20.232 Y55.481
X-19.356 Y55.615
X-18.483 Y55.768
X-17.614 Y55.94
X-16.749 Y56.132
X-15.888 Y56.345
X-15.034 Y56.579
X-14.185 Y56.835
X-13.344 Y57.114
X-12.511 Y57.416
X-11.687 Y57.741
X-10.873 Y58.091
X-10.07 Y58.466
X-9.279 Y58.866
X-8.503 Y59.293
X-7.74 Y59.745
X-6.994 Y60.222
X-6.264 Y60.725
X-5.553 Y61.253
X-4.86 Y61.806
X-4.187 Y62.382
X-3.536 Y62.983
X-2.908 Y63.609
X-2.306 Y64.258
X-1.73 Y64.932
X-1.182 Y65.628
X-0.663 Y66.347
X-0.175 Y67.086
X0.282 Y67.845
X0.706 Y68.623
X1.095 Y69.42
X1.447 Y70.233
X1.757 Y71.063
X2.024 Y71.908
X2.247 Y72.766
X2.422 Y73.634
X2.545 Y74.512
X2.61 Y75.396
X2.608 Y76.242
X2.554 Y76.894
X2.463 Y77.447
X2.355 Y77.886
X2.267 Y78.149
X2.127 Y78.445
X1.922 Y78.701
X1.664 Y78.902
X1.366 Y79.037
X1.045 Y79.1
X-1.121 Y79.264
X-1.619 Y79.08
X-1.838 Y78.95
X-5.169 Y76.964
G2 X-6.251 Y76.602 I-1.314 J2.127
G1 X-10.479 Y76.395
X-62.431 Y76.572
G2 X-64.318 Y77.366 I-0.059 J2.499
G1 X-66.127 Y79.316
X-66.184 Y79.378
X-66.809 Y79.556
X-66.861 Y79.554
X-68.673 Y79.412
X-68.878 Y79.385
X-69.064 Y79.346
X-69.257 Y79.288
X-69.472 Y79.205
X-69.695 Y79.097
X-69.936 Y78.956
X-70.182 Y78.784
X-70.443 Y78.568
X-70.697 Y78.32
X-70.97 Y78.01
X-71.222 Y77.669
X-71.485 Y77.248
X-71.725 Y76.785
X-71.947 Y76.258
X-72.151 Y75.635
X-72.31 Y74.977
X-72.428 Y74.234
X-72.491 Y73.403
X-72.488 Y72.517
X-72.415 Y71.634
X-72.279 Y70.758
X-72.083 Y69.894
X-71.832 Y69.044
X-71.53 Y68.211
X-71.183 Y67.396
X-70.792 Y66.6
X-70.362 Y65.826
X-69.896 Y65.072
X-69.395 Y64.341
X-68.862 Y63.633
X-68.299 Y62.949
X-67.707 Y62.29
X-67.088 Y61.655
X-66.445 Y61.046
X-65.778 Y60.462
X-65.091 Y59.903
X-64.383 Y59.37
X-63.658 Y58.861
X-62.916 Y58.377
X-62.158 Y57.917
X-61.386 Y57.481
X-60.602 Y57.069
X-59.805 Y56.681
X-58.998 Y56.316
X-58.181 Y55.973
X-57.355 Y55.653
X-56.521 Y55.353
X-55.68 Y55.075
X-54.832 Y54.816
X-53.979 Y54.576
X-53.121 Y54.355
X-52.258 Y54.152
X-51.392 Y53.965
X-50.522 Y53.795
X-49.65 Y53.639
X-48.775 Y53.497
X-47.899 Y53.369
X-47.02 Y53.253
X-46.14 Y53.149
X-45.259 Y53.056
X-44.377 Y52.972
X-43.494 Y52.898
X-42.61 Y52.832
X-41.726 Y52.773
X-40.841 Y52.722
X-39.956 Y52.677
X-39.071 Y52.638
X-38.186 Y52.603
X-37.3 Y52.574
X-36.414 Y52.549
X-35.528 Y52.528
X-34.642 Y52.511
X-33.756 Y52.497
X-32.87 Y52.488
X-31.984 Y52.483
X-31.098 Y52.482
X-30.212 Y52.487
X-29.326 Y52.497
X-28.44 Y52.513
X-27.554 Y52.536
X-26.668 Y52.567
X-25.783 Y52.606
X-24.898 Y52.655
X-24.014 Y52.714
X-23.131 Y52.785
X-22.249 Y52.869
X-21.368 Y52.966
X-20.489 Y53.078
X-19.612 Y53.205
X-18.738 Y53.348
X-17.866 Y53.509
X-16.998 Y53.688
X-16.134 Y53.885
X-15.275 Y54.102
X-14.421 Y54.338
X-13.573 Y54.595
X-12.732 Y54.873
X-11.898 Y55.173
X-11.072 Y55.495
X-10.256 Y55.839
X-9.45 Y56.207
X-8.654 Y56.598
X-7.871 Y57.012
X-7.1 Y57.449
X-6.343 Y57.91
X-5.601 Y58.393
X-4.873 Y58.9
X-4.163 Y59.429
X-3.469 Y59.981
X-2.795 Y60.556
X-2.141 Y61.153
X-1.508 Y61.773
X-0.897 Y62.415
X-0.31 Y63.079
X0.253 Y63.763
X0.791 Y64.468
X1.302 Y65.191
X1.787 Y65.933
X2.242 Y66.693
X2.666 Y67.471
X3.058 Y68.266
X3.415 Y69.077
X3.738 Y69.903
X4.023 Y70.742
X4.27 Y71.593
X4.476 Y72.454
X4.639 Y73.325
X4.752 Y74.204
X4.811 Y75.088
X4.81 Y75.956
X4.752 Y76.667
X4.658 Y77.238
X4.544 Y77.698
X4.449 Y77.983
X4.309 Y78.279
X4.105 Y78.535
X3.846 Y78.736
X3.548 Y78.872
X3.227 Y78.935
X1.045 Y79.1
G3 X0.448 Y78.679 I-0.024 J-0.6
G1 X0.193 Y78.267
G2 X-2.022 Y76.946 I-2.204 J1.179
G1 X-64.243 Y76.299
G2 X-66.458 Y77.458 I-0.103 J2.498
G1 X-67.264 Y78.672
G3 X-68.27 Y79.378 I-1.34 J-0.841
G1 X-68.604 Y79.413
X-68.673 Y79.412
X-70.687 Y79.253
X-70.836 Y79.234
X-71.031 Y79.188
X-71.238 Y79.122
X-71.462 Y79.03
X-71.699 Y78.909
X-71.949 Y78.756
X-72.209 Y78.566
X-72.479 Y78.334
X-72.753 Y78.056
X-73.035 Y77.72
X-73.302 Y77.346
X-73.577 Y76.884
X-73.823 Y76.386
X-74.056 Y75.798
X-74.266 Y75.112
X-74.425 Y74.391
X-74.537 Y73.572
X-74.587 Y72.687
X-74.568 Y71.801
X-74.486 Y70.919
X-74.346 Y70.044
X-74.154 Y69.179
X-73.912 Y68.326
X-73.623 Y67.488
X-73.291 Y66.667
X-72.92 Y65.862
X-72.511 Y65.076
X-72.068 Y64.309
X-71.593 Y63.561
X-71.087 Y62.833
X-70.552 Y62.127
X-69.989 Y61.442
X-69.4 Y60.78
X-68.787 Y60.141
X-68.15 Y59.524
X-67.492 Y58.931
X-66.814 Y58.36
X-66.118 Y57.813
X-65.403 Y57.288
X-64.673 Y56.786
X-63.928 Y56.307
X-63.169 Y55.85
X-62.397 Y55.415
X-61.613 Y55.002
X-60.817 Y54.611
X-60.012 Y54.241
X-59.197 Y53.893
X-58.374 Y53.565
X-57.543 Y53.258
X-56.705 Y52.97
X-55.861 Y52.701
X-55.011 Y52.45
X-54.156 Y52.218
X-53.296 Y52.002
X-52.433 Y51.802
X-51.566 Y51.618
X-50.696 Y51.449
X-49.824 Y51.294
X-48.949 Y51.153
X-48.072 Y51.024
X-47.194 Y50.906
X-46.314 Y50.8
X-45.433 Y50.705
X-44.551 Y50.619
X-43.669 Y50.542
X-42.785 Y50.473
X-41.901 Y50.412
X-41.017 Y50.357
X-40.132 Y50.309
X-39.247 Y50.267
X-38.361 Y50.231
X-37.476 Y50.199
X-36.59 Y50.172
X-35.704 Y50.149
X-34.818 Y50.13
X-33.932 Y50.116
X-33.046 Y50.106
X-32.16 Y50.101
X-31.274 Y50.1
X-30.388 Y50.104
X-29.502 Y50.114
X-28.616 Y50.131
X-27.73 Y50.154
X-26.844 Y50.185
X-25.959 Y50.225
X-25.074 Y50.273
X-24.19 Y50.332
X-23.307 Y50.402
X-22.425 Y50.483
X-21.543 Y50.577
X-20.664 Y50.685
X-19.786 Y50.807
X-18.911 Y50.944
X-18.038 Y51.096
X-17.168 Y51.265
X-16.302 Y51.451
X-15.439 Y51.655
X-14.581 Y51.876
X-13.728 Y52.117
X-12.881 Y52.376
X-12.04 Y52.655
X-11.206 Y52.954
X-10.38 Y53.275
X-9.562 Y53.616
X-8.753 Y53.979
X-7.955 Y54.363
X-7.167 Y54.768
X-6.39 Y55.195
X-5.626 Y55.644
X-4.874 Y56.113
X-4.137 Y56.604
X-3.413 Y57.115
X-2.705 Y57.648
X-2.013 Y58.202
X-1.339 Y58.776
X-0.683 Y59.372
X-0.047 Y59.989
X0.569 Y60.626
X1.164 Y61.283
X1.738 Y61.958
X2.288 Y62.653
X2.816 Y63.365
X3.319 Y64.094
X3.796 Y64.841
X4.247 Y65.604
X4.669 Y66.383
X5.062 Y67.177
X5.423 Y67.986
X5.753 Y68.809
X6.05 Y69.644
X6.313 Y70.49
X6.539 Y71.347
X6.728 Y72.212
X6.876 Y73.086
X6.978 Y73.966
X7.029 Y74.851
X7.022 Y75.737
X6.958 Y76.476
X6.859 Y77.064
X6.741 Y77.531
X6.643 Y77.823
X6.502 Y78.117
X6.298 Y78.371
X6.04 Y78.571
X5.743 Y78.706
X5.422 Y78.769
X3.227 Y78.935
X2.793 Y78.774
X2.569 Y78.542
X0.854 Y76.763
G2 X-1.015 Y76.006 I-1.794 J1.741
G1 X-66.861 Y77.472
X-69.379 Y78.685
X-69.479 Y78.771
G3 X-70.618 Y79.255 I-1.139 J-1.099
G1 X-70.687 Y79.253
X-72.096 Y79.142
X-72.61 Y79.094
X-72.806 Y79.066
X-72.994 Y79.023
X-73.211 Y78.955
X-73.434 Y78.865
X-73.68 Y78.741
X-73.932 Y78.589
X-74.203 Y78.393
X-74.476 Y78.161
X-74.765 Y77.87
X-75.048 Y77.538
X-75.344 Y77.127
X-75.612 Y76.682
X-75.884 Y76.139
X-76.131 Y75.524
X-76.342 Y74.848
X-76.519 Y74.065
X-76.644 Y73.188
X-76.699 Y72.304
X-76.689 Y71.418
X-76.621 Y70.534
X-76.498 Y69.657
X-76.324 Y68.788
X-76.104 Y67.93
X-75.84 Y67.084
X-75.535 Y66.252
X-75.194 Y65.434
X-74.816 Y64.632
X-74.406 Y63.847
X-73.964 Y63.079
X-73.493 Y62.328
X-72.992 Y61.597
X-72.465 Y60.885
X-71.911 Y60.193
X-71.333 Y59.522
X-70.732 Y58.87
X-70.11 Y58.24
X-69.466 Y57.63
X-68.804 Y57.042
X-68.124 Y56.474
X-67.426 Y55.927
X-66.713 Y55.402
X-65.984 Y54.897
X-65.242 Y54.413
X-64.486 Y53.951
X-63.718 Y53.509
X-62.938 Y53.088
X-62.148 Y52.688
X-61.347 Y52.307
X-60.538 Y51.947
X-59.72 Y51.606
X-58.895 Y51.284
X-58.062 Y50.981
X-57.223 Y50.695
X-56.378 Y50.428
X-55.528 Y50.178
X-54.673 Y49.944
X-53.814 Y49.727
X-52.952 Y49.524
X-52.085 Y49.337
X-51.216 Y49.164
X-50.345 Y49.005
X-49.471 Y48.858
X-48.595 Y48.724
X-47.717 Y48.601
X-46.838 Y48.49
X-45.958 Y48.389
X-45.076 Y48.297
X-44.194 Y48.214
X-43.311 Y48.14
X-42.428 Y48.074
X-41.543 Y48.014
X-40.659 Y47.961
X-39.774 Y47.915
X-38.889 Y47.873
X-38.003 Y47.838
X-37.118 Y47.807
X-36.232 Y47.78
X-35.346 Y47.759
X-34.46 Y47.742
X-33.574 Y47.729
X-32.688 Y47.721
X-31.802 Y47.718
X-30.916 Y47.721
X-30.03 Y47.728
X-29.144 Y47.742
X-28.258 Y47.763
X-27.372 Y47.791
X-26.487 Y47.827
X-25.602 Y47.872
X-24.717 Y47.925
X-23.834 Y47.989
X-22.951 Y48.064
X-22.069 Y48.15
X-21.188 Y48.249
X-20.309 Y48.36
X-19.432 Y48.485
X-18.557 Y48.624
X-17.684 Y48.778
X-16.814 Y48.948
X-15.948 Y49.133
X-15.085 Y49.335
X-14.226 Y49.555
X-13.372 Y49.791
X-12.524 Y50.046
X-11.681 Y50.319
X-10.844 Y50.611
X-10.015 Y50.923
X-9.192 Y51.253
X-8.378 Y51.603
X-7.573 Y51.973
X-6.777 Y52.363
X-5.991 Y52.772
X-5.216 Y53.201
X-4.452 Y53.65
X-3.7 Y54.119
X-2.961 Y54.607
X-2.235 Y55.116
X-1.524 Y55.644
X-0.827 Y56.192
X-0.147 Y56.76
X0.517 Y57.347
X1.163 Y57.953
X1.792 Y58.578
X2.401 Y59.221
X2.992 Y59.882
X3.562 Y60.56
X4.112 Y61.255
X4.64 Y61.967
X5.144 Y62.695
X5.625 Y63.439
X6.082 Y64.199
X6.512 Y64.973
X6.916 Y65.762
X7.293 Y66.564
X7.642 Y67.379
X7.961 Y68.205
X8.25 Y69.043
X8.508 Y69.891
X8.733 Y70.748
X8.921 Y71.614
X9.07 Y72.487
X9.179 Y73.367
X9.242 Y74.25
X9.254 Y75.137
X9.206 Y76.003
X9.116 Y76.666
X9.008 Y77.155
X8.87 Y77.609
X8.826 Y77.721
X8.679 Y77.997
X8.475 Y78.233
X8.223 Y78.419
X7.937 Y78.543
X7.629 Y78.602
X5.422 Y78.769
G3 X4.825 Y78.348 I-0.024 J-0.6
G1 X4.797 Y78.258 Z-17.993
X4.77 Y78.171 Z-17.971
X4.744 Y78.088 Z-17.935
X4.72 Y78.011 Z-17.885
X4.699 Y77.943 Z-17.824
X4.681 Y77.884 Z-17.753
X4.666 Y77.838 Z-17.672
X4.655 Y77.803 Z-17.585
X4.649 Y77.782 Z-17.494
X4.647 Y77.775 Z-17.4
G0 Z2.05
X-71.297 Y78.687
Z-16.8
G1 Z-17.4 F1000
X-71.303 Y78.69 Z-17.494
X-71.323 Y78.7 Z-17.585
X-71.356 Y78.715 Z-17.672
X-71.4 Y78.736 Z-17.753
X-71.456 Y78.763 Z-17.824
X-71.52 Y78.793 Z-17.885
X-71.593 Y78.828 Z-17.935
X-71.671 Y78.865 Z-17.971
X-71.754 Y78.904 Z-17.993
X-71.839 Y78.944 Z-18
G3 X-72.61 Y79.094 I-0.678 J-1.43
G1 X-73.506 Y79.008
X-74.714 Y78.891
X-74.862 Y78.869
X-75.056 Y78.822
X-75.281 Y78.748
X-75.507 Y78.653
X-75.763 Y78.52
X-76.02 Y78.359
X-76.301 Y78.15
X-76.581 Y77.904
X-76.882 Y77.595
X-77.167 Y77.25
X-77.472 Y76.812
X-77.749 Y76.34
X-78.028 Y75.761
X-78.284 Y75.099
X-78.497 Y74.379
X-78.674 Y73.544
X-78.787 Y72.665
X-78.834 Y71.781
X-78.821 Y70.894
X-78.755 Y70.011
X-78.638 Y69.132
X-78.474 Y68.262
X-78.267 Y67.4
X-78.018 Y66.55
X-77.731 Y65.711
X-77.409 Y64.886
X-77.053 Y64.074
X-76.665 Y63.277
X-76.248 Y62.496
X-75.802 Y61.73
X-75.328 Y60.981
X-74.829 Y60.249
X-74.304 Y59.535
X-73.755 Y58.839
X-73.184 Y58.162
X-72.59 Y57.504
X-71.977 Y56.865
X-71.344 Y56.245
X-70.692 Y55.644
X-70.023 Y55.063
X-69.338 Y54.501
X-68.638 Y53.958
X-67.922 Y53.435
X-67.193 Y52.932
X-66.451 Y52.448
X-65.696 Y51.983
X-64.93 Y51.538
X-64.153 Y51.113
X-63.365 Y50.706
X-62.568 Y50.319
X-61.762 Y49.951
X-60.948 Y49.601
X-60.127 Y49.269
X-59.298 Y48.954
X-58.463 Y48.658
X-57.623 Y48.378
X-56.776 Y48.114
X-55.926 Y47.867
X-55.07 Y47.635
X-54.211 Y47.418
X-53.348 Y47.216
X-52.482 Y47.028
X-51.614 Y46.854
X-50.742 Y46.692
X-49.869 Y46.543
X-48.993 Y46.406
X-48.116 Y46.28
X-47.238 Y46.165
X-46.358 Y46.06
X-45.477 Y45.964
X-44.595 Y45.877
X-43.712 Y45.799
X-42.829 Y45.728
X-41.945 Y45.665
X-41.061 Y45.608
X-40.176 Y45.557
X-39.291 Y45.513
X-38.406 Y45.474
X-37.52 Y45.44
X-36.635 Y45.411
X-35.749 Y45.387
X-34.863 Y45.367
X-33.977 Y45.352
X-33.091 Y45.343
X-32.205 Y45.338
X-31.319 Y45.339
X-30.433 Y45.345
X-29.547 Y45.357
X-28.661 Y45.376
X-27.775 Y45.402
X-26.89 Y45.436
X-26.004 Y45.477
X-25.12 Y45.528
X-24.236 Y45.588
X-23.352 Y45.658
X-22.47 Y45.739
X-21.588 Y45.831
X-20.708 Y45.935
X-19.83 Y46.051
X-18.953 Y46.181
X-18.079 Y46.324
X-17.207 Y46.481
X-16.338 Y46.653
X-15.472 Y46.84
X-14.609 Y47.043
X-13.75 Y47.262
X-12.896 Y47.498
X-12.047 Y47.75
X-11.203 Y48.021
X-10.365 Y48.308
X-9.533 Y48.614
X-8.708 Y48.938
X-7.891 Y49.28
X-7.081 Y49.64
X-6.28 Y50.018
X-5.488 Y50.415
X-4.705 Y50.831
X-3.932 Y51.265
X-3.17 Y51.717
X-2.42 Y52.188
X-1.681 Y52.677
X-0.955 Y53.185
X-0.242 Y53.712
X0.457 Y54.257
X1.141 Y54.82
X1.809 Y55.402
X2.462 Y56.001
X3.098 Y56.618
X3.718 Y57.251
X4.319 Y57.902
X4.903 Y58.569
X5.468 Y59.251
X6.013 Y59.95
X6.538 Y60.664
X7.042 Y61.393
X7.524 Y62.136
X7.983 Y62.894
X8.418 Y63.666
X8.828 Y64.452
X9.214 Y65.249
X9.574 Y66.059
X9.908 Y66.88
X10.215 Y67.711
X10.494 Y68.552
X10.742 Y69.403
X10.96 Y70.262
X11.144 Y71.129
X11.292 Y72.002
X11.401 Y72.882
X11.469 Y73.765
X11.491 Y74.651
X11.457 Y75.537
X11.376 Y76.26
X11.264 Y76.84
X11.136 Y77.296
X11.054 Y77.521
X10.91 Y77.806
X10.705 Y78.052
X10.451 Y78.244
X10.159 Y78.374
X9.845 Y78.434
X7.629 Y78.602
X7.241 Y78.479
X6.975 Y78.21
X5.144 Y76.361
G2 X3.415 Y75.644 I-1.752 J1.784
G1 X-69.892 Y75.959
X-70.083 Y75.982
G2 X-71.492 Y76.619 I0.274 J2.485
G1 X-73.442 Y78.372
G3 X-74.616 Y78.894 I-1.174 J-1.061
G1 X-74.714 Y78.891
X-76.728 Y78.696
X-76.888 Y78.672
X-77.09 Y78.625
X-77.305 Y78.557
X-77.545 Y78.459
X-77.788 Y78.336
X-78.063 Y78.168
X-78.332 Y77.972
X-78.633 Y77.714
X-78.921 Y77.424
X-79.232 Y77.055
X-79.526 Y76.644
X-79.826 Y76.143
X-80.115 Y75.56
X-80.371 Y74.918
X-80.605 Y74.16
X-80.798 Y73.295
X-80.92 Y72.417
X-80.98 Y71.533
X-80.983 Y70.647
X-80.933 Y69.762
X-80.834 Y68.881
X-80.69 Y68.007
X-80.505 Y67.141
X-80.28 Y66.283
X-80.019 Y65.437
X-79.724 Y64.601
X-79.397 Y63.778
X-79.039 Y62.967
X-78.652 Y62.17
X-78.237 Y61.387
X-77.796 Y60.618
X-77.329 Y59.865
X-76.836 Y59.128
X-76.321 Y58.408
X-75.782 Y57.704
X-75.222 Y57.017
X-74.642 Y56.348
X-74.042 Y55.696
X-73.424 Y55.061
X-72.788 Y54.444
X-72.135 Y53.845
X-71.466 Y53.264
X-70.782 Y52.701
X-70.083 Y52.156
X-69.37 Y51.629
X-68.644 Y51.121
X-67.906 Y50.631
X-67.155 Y50.16
X-66.394 Y49.706
X-65.622 Y49.272
X-64.84 Y48.855
X-64.049 Y48.456
X-63.249 Y48.075
X-62.441 Y47.711
X-61.625 Y47.365
X-60.803 Y47.035
X-59.974 Y46.722
X-59.139 Y46.425
X-58.298 Y46.145
X-57.452 Y45.88
X-56.602 Y45.63
X-55.748 Y45.395
X-54.89 Y45.174
X-54.028 Y44.968
X-53.163 Y44.775
X-52.295 Y44.595
X-51.425 Y44.428
X-50.553 Y44.274
X-49.678 Y44.13
X-48.802 Y43.998
X-47.924 Y43.876
X-47.045 Y43.765
X-46.165 Y43.663
X-45.284 Y43.569
X-44.402 Y43.485
X-43.519 Y43.408
X-42.635 Y43.338
X-41.752 Y43.275
X-40.867 Y43.219
X-39.982 Y43.169
X-39.097 Y43.125
X-38.212 Y43.086
X-37.327 Y43.053
X-36.441 Y43.025
X-35.555 Y43.001
X-34.669 Y42.983
X-33.783 Y42.969
X-32.897 Y42.961
X-32.011 Y42.958
X-31.125 Y42.961
X-30.239 Y42.969
X-29.353 Y42.984
X-28.467 Y43.006
X-27.581 Y43.034
X-26.696 Y43.07
X-25.811 Y43.115
X-24.926 Y43.168
X-24.042 Y43.23
X-23.159 Y43.303
X-22.277 Y43.385
X-21.396 Y43.479
X-20.516 Y43.583
X-19.638 Y43.7
X-18.761 Y43.829
X-17.886 Y43.971
X-17.014 Y44.127
X-16.144 Y44.297
X-15.277 Y44.481
X-14.414 Y44.68
X-13.554 Y44.894
X-12.698 Y45.124
X-11.847 Y45.369
X-11 Y45.631
X-10.159 Y45.909
X-9.323 Y46.204
X-8.494 Y46.516
X-7.671 Y46.845
X-6.855 Y47.191
X-6.047 Y47.553
X-5.246 Y47.934
X-4.454 Y48.331
X-3.671 Y48.745
X-2.897 Y49.178
X-2.134 Y49.627
X-1.381 Y50.095
X-0.639 Y50.579
X0.091 Y51.082
X0.808 Y51.601
X1.513 Y52.138
X2.205 Y52.692
X2.883 Y53.263
X3.546 Y53.851
X4.194 Y54.455
X4.827 Y55.075
X5.445 Y55.711
X6.046 Y56.362
X6.629 Y57.029
X7.196 Y57.71
X7.743 Y58.407
X8.272 Y59.118
X8.781 Y59.843
X9.27 Y60.582
X9.737 Y61.335
X10.183 Y62.101
X10.608 Y62.879
X11.009 Y63.669
X11.388 Y64.47
X11.743 Y65.282
X12.073 Y66.104
X12.378 Y66.936
X12.656 Y67.777
X12.907 Y68.627
X13.127 Y69.486
X13.317 Y70.351
X13.475 Y71.223
X13.598 Y72.101
X13.684 Y72.983
X13.73 Y73.867
X13.729 Y74.754
X13.67 Y75.638
X13.57 Y76.322
X13.454 Y76.829
X13.309 Y77.288
X13.278 Y77.364
X13.133 Y77.633
X12.934 Y77.864
X12.689 Y78.046
X12.41 Y78.171
X12.111 Y78.232
X10.462 Y78.385
X10.261 Y78.403
X9.845 Y78.434
X9.456 Y78.31
X9.176 Y78.058
X6.855 Y75.959
G2 X5.227 Y75.361 I-1.622 J1.902
G1 X-72.298 Y75.772
G2 X-74.11 Y76.621 I0.066 J2.499
G1 X-75.45 Y78.171
G3 X-76.63 Y78.699 I-1.18 J-1.055
G1 X-76.728 Y78.696
X-78.137 Y78.559
X-78.741 Y78.494
X-79.007 Y78.451
X-79.206 Y78.403
X-79.432 Y78.327
X-79.671 Y78.226
X-79.926 Y78.092
X-80.202 Y77.919
X-80.483 Y77.709
X-80.782 Y77.444
X-81.082 Y77.134
X-81.393 Y76.755
X-81.702 Y76.309
X-82.002 Y75.794
X-82.299 Y75.172
X-82.562 Y74.486
X-82.795 Y73.693
X-82.976 Y72.826
X-83.09 Y71.947
X-83.145 Y71.063
X-83.147 Y70.176
X-83.099 Y69.292
X-83.006 Y68.41
X-82.871 Y67.535
X-82.696 Y66.666
X-82.485 Y65.805
X-82.238 Y64.954
X-81.959 Y64.113
X-81.648 Y63.283
X-81.309 Y62.465
X-80.942 Y61.658
X-80.548 Y60.864
X-80.128 Y60.084
X-79.684 Y59.317
X-79.216 Y58.565
X-78.725 Y57.827
X-78.213 Y57.104
X-77.679 Y56.397
X-77.125 Y55.705
X-76.551 Y55.03
X-75.959 Y54.371
X-75.349 Y53.728
X-74.722 Y53.102
X-74.079 Y52.492
X-73.421 Y51.899
X-72.748 Y51.322
X-72.061 Y50.763
X-71.36 Y50.22
X-70.647 Y49.695
X-69.921 Y49.187
X-69.183 Y48.696
X-68.434 Y48.222
X-67.675 Y47.765
X-66.905 Y47.326
X-66.126 Y46.904
X-65.338 Y46.499
X-64.541 Y46.111
X-63.737 Y45.739
X-62.925 Y45.384
X-62.107 Y45.044
X-61.282 Y44.721
X-60.451 Y44.413
X-59.614 Y44.121
X-58.773 Y43.843
X-57.926 Y43.581
X-57.076 Y43.332
X-56.221 Y43.098
X-55.363 Y42.878
X-54.501 Y42.671
X-53.637 Y42.477
X-52.769 Y42.295
X-51.899 Y42.126
X-51.027 Y41.968
X-50.154 Y41.822
X-49.278 Y41.686
X-48.401 Y41.561
X-47.522 Y41.445
X-46.642 Y41.339
X-45.762 Y41.242
X-44.88 Y41.153
X-43.998 Y41.071
X-43.114 Y40.998
X-42.231 Y40.931
X-41.347 Y40.871
X-40.462 Y40.817
X-39.577 Y40.77
X-38.692 Y40.727
X-37.807 Y40.691
X-36.921 Y40.659
X-36.036 Y40.633
X-35.15 Y40.612
X-34.264 Y40.596
X-33.378 Y40.585
X-32.492 Y40.58
X-31.606
X-30.719 Y40.586
X-29.833 Y40.598
X-28.947 Y40.617
X-28.062 Y40.642
X-27.176 Y40.675
X-26.291 Y40.716
X-25.406 Y40.765
X-24.522 Y40.823
X-23.638 Y40.889
X-22.756 Y40.966
X-21.874 Y41.052
X-20.993 Y41.15
X-20.113 Y41.258
X-19.235 Y41.378
X-18.359 Y41.51
X-17.485 Y41.654
X-16.613 Y41.811
X-15.743 Y41.982
X-14.876 Y42.166
X-14.013 Y42.364
X-13.153 Y42.576
X-12.296 Y42.804
X-11.444 Y43.047
X-10.596 Y43.305
X-9.753 Y43.578
X-8.916 Y43.868
X-8.084 Y44.173
X-7.258 Y44.494
X-6.438 Y44.831
X-5.626 Y45.184
X-4.82 Y45.553
X-4.022 Y45.938
X-3.232 Y46.34
X-2.451 Y46.759
X-1.679 Y47.193
X-0.916 Y47.644
X-0.164 Y48.112
X0.579 Y48.596
X1.31 Y49.096
X2.029 Y49.613
X2.737 Y50.147
X3.432 Y50.696
X4.115 Y51.262
X4.784 Y51.843
X5.439 Y52.439
X6.08 Y53.051
X6.707 Y53.678
X7.318 Y54.319
X7.914 Y54.975
X8.494 Y55.645
X9.057 Y56.329
X9.603 Y57.027
X10.131 Y57.739
X10.641 Y58.463
X11.132 Y59.201
X11.603 Y59.952
X12.054 Y60.714
X12.485 Y61.489
X12.895 Y62.274
X13.283 Y63.071
X13.65 Y63.877
X13.994 Y64.694
X14.315 Y65.52
X14.612 Y66.355
X14.884 Y67.198
X15.13 Y68.049
X15.349 Y68.908
X15.538 Y69.774
X15.698 Y70.645
X15.825 Y71.522
X15.918 Y72.403
X15.973 Y73.288
X15.986 Y74.174
X15.949 Y75.059
X15.859 Y75.85
X15.743 Y76.448
X15.613 Y76.91
X15.538 Y77.114
X15.397 Y77.394
X15.197 Y77.637
X14.948 Y77.828
X14.662 Y77.959
X14.355 Y78.023
X12.111 Y78.232
X11.671 Y78.075
X11.479 Y77.821
X9.464 Y75.154
G2 X8.046 Y74.149 I-2.064 J1.411
G1 X6.838 Y74.076
X-74.513 Y75.59
G2 X-76.386 Y76.562 I0.108 J2.498
G1 X-77.294 Y77.769
G3 X-78.627 Y78.498 I-1.333 J-0.853
G1 X-78.741 Y78.494
X-78.943 Y78.472
X-80.956 Y78.238
X-81.132 Y78.209
X-81.34 Y78.157
X-81.561 Y78.082
X-81.81 Y77.974
X-82.06 Y77.842
X-82.346 Y77.659
X-82.624 Y77.449
X-82.936 Y77.171
X-83.232 Y76.861
X-83.558 Y76.46
X-83.859 Y76.021
X-84.171 Y75.477
X-84.47 Y74.845
X-84.735 Y74.141
X-84.974 Y73.311
X-85.15 Y72.443
X-85.263 Y71.564
X-85.32 Y70.679
X-85.326 Y69.793
X-85.285 Y68.908
X-85.201 Y68.026
X-85.077 Y67.149
X-84.914 Y66.277
X-84.716 Y65.414
X-84.485 Y64.558
X-84.222 Y63.712
X-83.93 Y62.875
X-83.61 Y62.049
X-83.263 Y61.234
X-82.89 Y60.43
X-82.493 Y59.638
X-82.071 Y58.858
X-81.627 Y58.092
X-81.161 Y57.338
X-80.674 Y56.598
X-80.165 Y55.872
X-79.637 Y55.161
X-79.089 Y54.464
X-78.523 Y53.782
X-77.94 Y53.116
X-77.339 Y52.464
X-76.722 Y51.828
X-76.09 Y51.207
X-75.443 Y50.601
X-74.782 Y50.012
X-74.106 Y49.438
X-73.418 Y48.88
X-72.717 Y48.338
X-72.004 Y47.812
X-71.279 Y47.302
X-70.543 Y46.808
X-69.797 Y46.331
X-69.04 Y45.87
X-68.273 Y45.426
X-67.498 Y44.997
X-66.713 Y44.585
X-65.921 Y44.189
X-65.12 Y43.808
X-64.313 Y43.443
X-63.499 Y43.093
X-62.678 Y42.759
X-61.852 Y42.439
X-61.02 Y42.135
X-60.182 Y41.844
X-59.34 Y41.568
X-58.494 Y41.307
X-57.643 Y41.058
X-56.789 Y40.824
X-55.931 Y40.602
X-55.07 Y40.393
X-54.206 Y40.197
X-53.339 Y40.012
X-52.47 Y39.84
X-51.598 Y39.678
X-50.725 Y39.528
X-49.85 Y39.388
X-48.973 Y39.258
X-48.096 Y39.138
X-47.216 Y39.027
X-46.336 Y38.925
X-45.455 Y38.831
X-44.573 Y38.746
X-43.69 Y38.667
X-42.807 Y38.596
X-41.923 Y38.532
X-41.039 Y38.473
X-40.155 Y38.421
X-39.27 Y38.375
X-38.384 Y38.335
X-37.499 Y38.3
X-36.613 Y38.27
X-35.728 Y38.245
X-34.842 Y38.226
X-33.956 Y38.212
X-33.07 Y38.204
X-32.183 Y38.201
X-31.297 Y38.203
X-30.411 Y38.212
X-29.525 Y38.227
X-28.639 Y38.249
X-27.754 Y38.278
X-26.868 Y38.314
X-25.983 Y38.358
X-25.099 Y38.41
X-24.215 Y38.471
X-23.331 Y38.541
X-22.449 Y38.62
X-21.567 Y38.709
X-20.687 Y38.809
X-19.807 Y38.919
X-18.93 Y39.04
X-18.053 Y39.173
X-17.179 Y39.317
X-16.307 Y39.474
X-15.437 Y39.644
X-14.57 Y39.827
X-13.706 Y40.023
X-12.845 Y40.233
X-11.988 Y40.457
X-11.135 Y40.696
X-10.285 Y40.949
X-9.441 Y41.216
X-8.601 Y41.498
X-7.766 Y41.796
X-6.937 Y42.108
X-6.113 Y42.435
X-5.296 Y42.778
X-4.485 Y43.136
X-3.681 Y43.509
X-2.885 Y43.897
X-2.096 Y44.301
X-1.316 Y44.721
X-0.544 Y45.156
X0.219 Y45.606
X0.973 Y46.072
X1.717 Y46.554
X2.45 Y47.052
X3.172 Y47.565
X3.883 Y48.093
X4.583 Y48.637
X5.271 Y49.196
X5.946 Y49.769
X6.609 Y50.358
X7.259 Y50.96
X7.895 Y51.577
X8.518 Y52.208
X9.126 Y52.852
X9.719 Y53.51
X10.297 Y54.182
X10.86 Y54.867
X11.406 Y55.564
X11.936 Y56.274
X12.448 Y56.998
X12.942 Y57.733
X13.419 Y58.48
X13.876 Y59.239
X14.315 Y60.009
X14.734 Y60.79
X15.134 Y61.58
X15.514 Y62.381
X15.873 Y63.191
X16.21 Y64.011
X16.526 Y64.839
X16.819 Y65.675
X17.088 Y66.519
X17.334 Y67.37
X17.553 Y68.229
X17.745 Y69.094
X17.909 Y69.965
X18.043 Y70.841
X18.146 Y71.721
X18.214 Y72.605
X18.245 Y73.49
X18.232 Y74.376
X18.164 Y75.26
X18.059 Y75.944
X17.94 Y76.448
X17.792 Y76.906
X17.641 Y77.271
X17.461 Y77.623
X17.405 Y77.688
X17.332 Y77.733
X17.249 Y77.754
X14.355 Y78.023
X14.071 Y77.97
X13.739 Y77.6
X12.266 Y75.959
X12.093 Y75.757
G2 X10.261 Y74.883 I-1.9 J1.625
G1 X-75.721 Y75.372
G2 X-77.13 Y75.883 I0.107 J2.498
G1 X-80.151 Y78.091
X-80.187 Y78.099
X-80.829 Y78.243
X-80.956 Y78.238
X-82.97 Y78.004
X-83.266 Y77.955
X-83.477 Y77.902
X-83.696 Y77.827
X-83.949 Y77.719
X-84.199 Y77.586
X-84.485 Y77.404
X-84.767 Y77.19
X-85.078 Y76.913
X-85.379 Y76.597
X-85.708 Y76.193
X-86.013 Y75.748
X-86.333 Y75.191
X-86.63 Y74.561
X-86.905 Y73.834
X-87.15 Y72.983
X-87.326 Y72.114
X-87.442 Y71.236
X-87.503 Y70.352
X-87.516 Y69.466
X-87.484 Y68.58
X-87.41 Y67.697
X-87.297 Y66.818
X-87.148 Y65.945
X-86.964 Y65.078
X-86.748 Y64.219
X-86.503 Y63.367
X-86.228 Y62.525
X-85.926 Y61.691
X-85.599 Y60.868
X-85.247 Y60.055
X-84.871 Y59.253
X-84.471 Y58.461
X-84.05 Y57.682
X-83.608 Y56.914
X-83.144 Y56.159
X-82.661 Y55.416
X-82.157 Y54.687
X-81.635 Y53.971
X-81.094 Y53.269
X-80.536 Y52.581
X-79.961 Y51.907
X-79.37 Y51.247
X-78.763 Y50.601
X-78.142 Y49.969
X-77.506 Y49.352
X-76.856 Y48.75
X-76.192 Y48.163
X-75.516 Y47.59
X-74.827 Y47.032
X-74.127 Y46.489
X-73.415 Y45.962
X-72.692 Y45.45
X-71.958 Y44.953
X-71.214 Y44.471
X-70.46 Y44.006
X-69.697 Y43.555
X-68.925 Y43.12
X-68.145 Y42.701
X-67.356 Y42.296
X-66.561 Y41.906
X-65.758 Y41.532
X-64.948 Y41.171
X-64.132 Y40.826
X-63.31 Y40.495
X-62.483 Y40.178
X-61.65 Y39.875
X-60.812 Y39.586
X-59.97 Y39.31
X-59.124 Y39.048
X-58.273 Y38.799
X-57.419 Y38.563
X-56.562 Y38.339
X-55.701 Y38.128
X-54.838 Y37.928
X-53.972 Y37.741
X-53.103 Y37.564
X-52.233 Y37.399
X-51.36 Y37.244
X-50.486 Y37.1
X-49.61 Y36.965
X-48.733 Y36.841
X-47.854 Y36.725
X-46.975 Y36.618
X-46.094 Y36.519
X-45.213 Y36.428
X-44.33 Y36.345
X-43.448 Y36.268
X-42.564 Y36.199
X-41.68 Y36.136
X-40.796 Y36.08
X-39.911 Y36.029
X-39.026 Y35.984
X-38.141 Y35.945
X-37.256 Y35.911
X-36.37 Y35.883
X-35.484 Y35.86
X-34.598 Y35.842
X-33.712 Y35.83
X-32.826 Y35.824
X-31.94 Y35.823
X-31.054 Y35.828
X-30.168 Y35.839
X-29.282 Y35.857
X-28.396 Y35.881
X-27.51 Y35.912
X-26.625 Y35.951
X-25.74 Y35.997
X-24.856 Y36.052
X-23.972 Y36.115
X-23.089 Y36.187
X-22.206 Y36.268
X-21.325 Y36.358
X-20.444 Y36.459
X-19.565 Y36.57
X-18.688 Y36.691
X-17.811 Y36.824
X-16.937 Y36.968
X-16.065 Y37.124
X-15.195 Y37.292
X-14.327 Y37.472
X-13.462 Y37.666
X-12.601 Y37.873
X-11.742 Y38.093
X-10.888 Y38.326
X-10.037 Y38.573
X-9.19 Y38.834
X-8.347 Y39.109
X-7.51 Y39.398
X-6.677 Y39.702
X-5.85 Y40.019
X-5.028 Y40.351
X-4.213 Y40.698
X-3.403 Y41.059
X-2.601 Y41.434
X-1.805 Y41.824
X-1.017 Y42.229
X-0.236 Y42.648
X0.536 Y43.082
X1.3 Y43.531
X2.055 Y43.995
X2.801 Y44.474
X3.537 Y44.968
X4.262 Y45.476
X4.978 Y45.999
X5.682 Y46.537
X6.376 Y47.088
X7.058 Y47.654
X7.728 Y48.234
X8.386 Y48.827
X9.032 Y49.434
X9.665 Y50.054
X10.285 Y50.687
X10.891 Y51.334
X11.483 Y51.993
X12.061 Y52.664
X12.624 Y53.349
X13.172 Y54.045
X13.704 Y54.754
X14.22 Y55.474
X14.719 Y56.207
X15.201 Y56.95
X15.665 Y57.705
X16.112 Y58.47
X16.542 Y59.245
X16.952 Y60.03
X17.345 Y60.825
X17.718 Y61.629
X18.071 Y62.441
X18.405 Y63.262
X18.717 Y64.091
X19.009 Y64.928
X19.278 Y65.772
X19.524 Y66.624
X19.746 Y67.481
X19.942 Y68.346
X20.112 Y69.215
X20.255 Y70.09
X20.369 Y70.969
X20.451 Y71.851
X20.5 Y72.736
X20.511 Y73.622
X20.474 Y74.507
X20.379 Y75.388
X20.233 Y76.163
X20.121 Y76.575
X20.02 Y76.838
X19.868 Y77.076
X19.671 Y77.278
X19.438 Y77.437
X19.177 Y77.546
X18.9 Y77.6
X17.249 Y77.754
X16.779 Y77.568
X16.582 Y77.37
X14.971 Y75.757
G2 X13.995 Y75.154 I-1.767 J1.768
G1 X12.677 Y74.782
X-77.734 Y75.265
G2 X-79.284 Y75.757 I-0.059 J2.499
G1 X-82.164 Y77.857
X-82.201 Y77.865
X-82.842 Y78.009
X-82.97 Y78.004
X-84.178 Y77.864
X-84.782 Y77.79
X-84.984 Y77.765
X-85.185 Y77.737
X-85.461 Y77.686
X-85.673 Y77.628
X-85.9 Y77.546
X-86.158 Y77.429
X-86.415 Y77.286
X-86.708 Y77.091
X-86.992 Y76.868
X-87.311 Y76.571
X-87.614 Y76.242
X-87.949 Y75.811
X-88.257 Y75.344
X-88.574 Y74.765
X-88.881 Y74.081
X-89.155 Y73.309
X-89.383 Y72.453
X-89.546 Y71.582
X-89.651 Y70.702
X-89.705 Y69.818
X-89.713 Y68.932
X-89.678 Y68.046
X-89.603 Y67.163
X-89.492 Y66.284
X-89.347 Y65.41
X-89.169 Y64.542
X-88.961 Y63.68
X-88.724 Y62.827
X-88.46 Y61.981
X-88.169 Y61.144
X-87.853 Y60.316
X-87.514 Y59.497
X-87.152 Y58.689
X-86.767 Y57.89
X-86.361 Y57.103
X-85.935 Y56.326
X-85.489 Y55.56
X-85.023 Y54.807
X-84.538 Y54.065
X-84.035 Y53.335
X-83.514 Y52.618
X-82.976 Y51.914
X-82.422 Y51.223
X-81.851 Y50.545
X-81.265 Y49.88
X-80.664 Y49.229
X-80.049 Y48.592
X-79.419 Y47.968
X-78.777 Y47.358
X-78.121 Y46.761
X-77.453 Y46.179
X-76.773 Y45.611
X-76.082 Y45.057
X-75.379 Y44.517
X-74.665 Y43.992
X-73.941 Y43.481
X-73.207 Y42.985
X-72.463 Y42.503
X-71.71 Y42.036
X-70.949 Y41.583
X-70.178 Y41.145
X-69.4 Y40.722
X-68.614 Y40.313
X-67.82 Y39.918
X-67.02 Y39.538
X-66.213 Y39.172
X-65.4 Y38.819
X-64.581 Y38.481
X-63.757 Y38.156
X-62.927 Y37.845
X-62.093 Y37.547
X-61.254 Y37.261
X-60.41 Y36.989
X-59.563 Y36.73
X-58.712 Y36.483
X-57.857 Y36.248
X-57 Y36.026
X-56.139 Y35.815
X-55.276 Y35.615
X-54.41 Y35.427
X-53.542 Y35.25
X-52.671 Y35.083
X-51.799 Y34.927
X-50.925 Y34.781
X-50.05 Y34.644
X-49.173 Y34.516
X-48.295 Y34.398
X-47.415 Y34.288
X-46.535 Y34.186
X-45.654 Y34.092
X-44.772 Y34.005
X-43.889 Y33.926
X-43.006 Y33.853
X-42.123 Y33.787
X-41.239 Y33.728
X-40.354 Y33.674
X-39.469 Y33.626
X-38.584 Y33.584
X-37.699 Y33.548
X-36.813 Y33.517
X-35.927 Y33.491
X-35.041 Y33.471
X-34.155 Y33.457
X-33.269 Y33.448
X-32.383 Y33.444
X-31.497 Y33.447
X-30.611 Y33.456
X-29.725 Y33.47
X-28.839 Y33.492
X-27.954 Y33.52
X-27.068 Y33.555
X-26.183 Y33.598
X-25.298 Y33.649
X-24.414 Y33.707
X-23.531 Y33.774
X-22.648 Y33.85
X-21.766 Y33.934
X-20.885 Y34.028
X-20.004 Y34.132
X-19.126 Y34.246
X-18.248 Y34.37
X-17.373 Y34.505
X-16.499 Y34.651
X-15.627 Y34.809
X-14.757 Y34.978
X-13.889 Y35.159
X-13.025 Y35.353
X-12.163 Y35.559
X-11.304 Y35.777
X-10.449 Y36.009
X-9.597 Y36.254
X-8.749 Y36.511
X-7.906 Y36.783
X-7.067 Y37.068
X-6.232 Y37.366
X-5.403 Y37.678
X-4.579 Y38.003
X-3.76 Y38.343
X-2.947 Y38.696
X-2.141 Y39.063
X-1.341 Y39.443
X-0.547 Y39.838
X0.239 Y40.247
X1.018 Y40.669
X1.789 Y41.106
X2.552 Y41.557
X3.306 Y42.022
X4.052 Y42.501
X4.788 Y42.994
X5.515 Y43.501
X6.232 Y44.021
X6.939 Y44.556
X7.635 Y45.104
X8.32 Y45.666
X8.995 Y46.241
X9.658 Y46.829
X10.309 Y47.429
X10.948 Y48.043
X11.575 Y48.669
X12.19 Y49.308
X12.791 Y49.959
X13.379 Y50.621
X13.954 Y51.296
X14.514 Y51.983
X15.059 Y52.681
X15.59 Y53.39
X16.106 Y54.111
X16.606 Y54.843
X17.09 Y55.585
X17.558 Y56.337
X18.009 Y57.1
X18.443 Y57.873
X18.86 Y58.655
X19.259 Y59.446
X19.64 Y60.246
X20.003 Y61.054
X20.348 Y61.87
X20.673 Y62.695
X20.978 Y63.527
X21.263 Y64.366
X21.527 Y65.212
X21.769 Y66.064
X21.988 Y66.922
X22.184 Y67.787
X22.355 Y68.656
X22.5 Y69.53
X22.617 Y70.409
X22.705 Y71.29
X22.761 Y72.175
X22.782 Y73.061
X22.761 Y73.947
X22.694 Y74.83
X22.592 Y75.511
X22.469 Y76.043
X22.332 Y76.471
X22.309 Y76.528
X22.163 Y76.796
X21.964 Y77.025
X21.719 Y77.206
X21.441 Y77.33
X21.143 Y77.391
X18.9 Y77.6
X18.517 Y77.489
X18.233 Y77.228
X16.417 Y75.556
G2 X14.691 Y74.921 I-1.666 J1.864
G1 X-80.151 Y74.937
G2 X-81.898 Y75.556 I-0.098 J2.498
G1 X-83.999 Y77.366
G3 X-85.026 Y77.745 I-1.027 J-1.204
G1 X-85.185 Y77.737
X-87.4 Y77.436
X-87.634 Y77.392
X-87.853 Y77.332
X-88.075 Y77.252
X-88.329 Y77.137
X-88.59 Y76.992
X-88.872 Y76.804
X-89.172 Y76.568
X-89.477 Y76.285
X-89.798 Y75.935
X-90.119 Y75.524
X-90.441 Y75.034
X-90.767 Y74.44
X-91.064 Y73.777
X-91.344 Y72.987
X-91.573 Y72.13
X-91.738 Y71.26
X-91.847 Y70.38
X-91.906 Y69.496
X-91.92 Y68.61
X-91.892 Y67.725
X-91.827 Y66.841
X-91.726 Y65.96
X-91.592 Y65.084
X-91.426 Y64.214
X-91.231 Y63.35
X-91.008 Y62.492
X-90.758 Y61.642
X-90.483 Y60.8
X-90.183 Y59.966
X-89.861 Y59.14
X-89.516 Y58.324
X-89.15 Y57.517
X-88.764 Y56.72
X-88.357 Y55.932
X-87.931 Y55.155
X-87.486 Y54.389
X-87.022 Y53.634
X-86.541 Y52.89
X-86.043 Y52.157
X-85.527 Y51.437
X-84.995 Y50.728
X-84.447 Y50.032
X-83.883 Y49.348
X-83.305 Y48.676
X-82.713 Y48.017
X-82.106 Y47.371
X-81.487 Y46.738
X-80.854 Y46.117
X-80.208 Y45.51
X-79.551 Y44.916
X-78.882 Y44.335
X-78.201 Y43.768
X-77.51 Y43.214
X-76.808 Y42.673
X-76.095 Y42.146
X-75.373 Y41.633
X-74.641 Y41.134
X-73.899 Y40.648
X-73.149 Y40.177
X-72.39 Y39.719
X-71.623 Y39.276
X-70.848 Y38.846
X-70.066 Y38.43
X-69.276 Y38.028
X-68.48 Y37.639
X-67.677 Y37.264
X-66.868 Y36.902
X-66.054 Y36.553
X-65.233 Y36.218
X-64.408 Y35.895
X-63.578 Y35.586
X-62.743 Y35.289
X-61.904 Y35.004
X-61.06 Y34.732
X-60.213 Y34.472
X-59.362 Y34.225
X-58.508 Y33.988
X-57.651 Y33.764
X-56.791 Y33.551
X-55.928 Y33.348
X-55.063 Y33.157
X-54.196 Y32.977
X-53.326 Y32.806
X-52.454 Y32.646
X-51.581 Y32.496
X-50.706 Y32.355
X-49.83 Y32.223
X-48.953 Y32.099
X-48.074 Y31.985
X-47.194 Y31.878
X-46.314 Y31.779
X-45.432 Y31.688
X-44.55 Y31.604
X-43.667 Y31.527
X-42.784 Y31.456
X-41.9 Y31.392
X-41.016 Y31.334
X-40.131 Y31.282
X-39.246 Y31.236
X-38.361 Y31.195
X-37.476 Y31.16
X-36.59 Y31.131
X-35.704 Y31.107
X-34.819 Y31.088
X-33.932 Y31.076
X-33.046 Y31.068
X-32.16 Y31.067
X-31.274 Y31.071
X-30.388 Y31.082
X-29.502 Y31.099
X-28.616 Y31.122
X-27.731 Y31.153
X-26.845 Y31.19
X-25.96 Y31.235
X-25.076 Y31.287
X-24.192 Y31.347
X-23.308 Y31.416
X-22.425 Y31.493
X-21.544 Y31.578
X-20.662 Y31.673
X-19.783 Y31.778
X-18.904 Y31.892
X-18.026 Y32.016
X-17.151 Y32.15
X-16.276 Y32.295
X-15.404 Y32.451
X-14.534 Y32.619
X-13.666 Y32.798
X-12.801 Y32.988
X-11.938 Y33.191
X-11.078 Y33.405
X-10.222 Y33.632
X-9.369 Y33.872
X-8.519 Y34.124
X-7.673 Y34.389
X-6.832 Y34.666
X-5.995 Y34.956
X-5.162 Y35.26
X-4.334 Y35.576
X-3.512 Y35.905
X-2.694 Y36.248
X-1.883 Y36.604
X-1.077 Y36.973
X-0.278 Y37.355
X0.515 Y37.75
X1.302 Y38.159
X2.081 Y38.581
X2.853 Y39.016
X3.617 Y39.465
X4.372 Y39.928
X5.12 Y40.404
X5.859 Y40.893
X6.588 Y41.396
X7.309 Y41.911
X8.02 Y42.44
X8.721 Y42.982
X9.412 Y43.537
X10.093 Y44.104
X10.763 Y44.684
X11.422 Y45.276
X12.07 Y45.881
X12.707 Y46.497
X13.331 Y47.126
X13.944 Y47.766
X14.545 Y48.417
X15.132 Y49.081
X15.707 Y49.755
X16.268 Y50.441
X16.816 Y51.137
X17.349 Y51.845
X17.868 Y52.563
X18.373 Y53.292
X18.862 Y54.031
X19.336 Y54.779
X19.794 Y55.538
X20.236 Y56.306
X20.662 Y57.083
X21.072 Y57.868
X21.465 Y58.662
X21.842 Y59.465
X22.2 Y60.275
X22.541 Y61.093
X22.864 Y61.918
X23.168 Y62.75
X23.453 Y63.59
X23.718 Y64.435
X23.962 Y65.287
X24.184 Y66.145
X24.384 Y67.008
X24.561 Y67.876
X24.713 Y68.749
X24.841 Y69.626
X24.941 Y70.507
X25.012 Y71.39
X25.052 Y72.275
X25.057 Y73.161
X25.019 Y74.047
X24.925 Y74.918
X24.807 Y75.54
X24.678 Y76.012
X24.592 Y76.25
X24.454 Y76.529
X24.257 Y76.77
X24.012 Y76.963
X23.731 Y77.096
X23.427 Y77.164
X22.544 Y77.26
X21.143 Y77.391
X21.073
X21.003 Y77.383
X20.934 Y77.366
X20.458 Y77.045
X16.503 Y74.376
G2 X15.094 Y73.911 I-1.451 J2.036
G1 X-80.755 Y74.978
X-83.775 Y75.935
X-86.106 Y76.964
G3 X-87.241 Y77.444 I-1.135 J-1.103
G1 X-87.4 Y77.436
X-89.615 Y77.134
X-89.807 Y77.098
X-90.028 Y77.038
X-90.25 Y76.958
X-90.504 Y76.842
X-90.77 Y76.695
X-91.052 Y76.507
X-91.352 Y76.27
X-91.657 Y75.988
X-91.982 Y75.634
X-92.303 Y75.223
X-92.628 Y74.729
X-92.957 Y74.129
X-93.259 Y73.455
X-93.544 Y72.651
X-93.772 Y71.795
X-93.939 Y70.925
X-94.05 Y70.046
X-94.114 Y69.162
X-94.133 Y68.276
X-94.112 Y67.39
X-94.054 Y66.506
X-93.962 Y65.624
X-93.838 Y64.747
X-93.683 Y63.874
X-93.499 Y63.008
X-93.287 Y62.147
X-93.05 Y61.293
X-92.789 Y60.447
X-92.504 Y59.607
X-92.197 Y58.776
X-91.868 Y57.953
X-91.519 Y57.139
X-91.149 Y56.334
X-90.76 Y55.538
X-90.352 Y54.751
X-89.926 Y53.974
X-89.482 Y53.207
X-89.02 Y52.451
X-88.542 Y51.705
X-88.047 Y50.97
X-87.536 Y50.246
X-87.009 Y49.534
X-86.466 Y48.833
X-85.91 Y48.144
X-85.338 Y47.466
X-84.753 Y46.801
X-84.155 Y46.147
X-83.544 Y45.505
X-82.92 Y44.876
X-82.284 Y44.259
X-81.636 Y43.655
X-80.977 Y43.063
X-80.306 Y42.483
X-79.625 Y41.916
X-78.933 Y41.362
X-78.232 Y40.821
X-77.52 Y40.293
X-76.799 Y39.778
X-76.069 Y39.276
X-75.33 Y38.788
X-74.582 Y38.312
X-73.825 Y37.851
X-73.061 Y37.402
X-72.29 Y36.966
X-71.511 Y36.544
X-70.725 Y36.135
X-69.932 Y35.739
X-69.133 Y35.356
X-68.328 Y34.985
X-67.517 Y34.628
X-66.701 Y34.282
X-65.88 Y33.95
X-65.053 Y33.63
X-64.222 Y33.322
X-63.387 Y33.026
X-62.548 Y32.743
X-61.704 Y32.471
X-60.857 Y32.211
X-60.007 Y31.962
X-59.153 Y31.725
X-58.296 Y31.499
X-57.436 Y31.283
X-56.574 Y31.079
X-55.71 Y30.885
X-54.843 Y30.701
X-53.974 Y30.528
X-53.103 Y30.364
X-52.23 Y30.21
X-51.356 Y30.065
X-50.481 Y29.929
X-49.604 Y29.801
X-48.726 Y29.682
X-47.846 Y29.571
X-46.966 Y29.468
X-46.085 Y29.372
X-45.204 Y29.284
X-44.321 Y29.202
X-43.438 Y29.127
X-42.555 Y29.059
X-41.671 Y28.996
X-40.763 Y28.939
X-40.669 Y28.938
X-40.575 Y28.945
X-40.482 Y28.96
X-39.878 Y29
X-26.186
X-25.301 Y29.044
X-24.415 Y29.057
X-23.529 Y29.092
X-22.645 Y29.145
X-21.761 Y29.212
X-20.879 Y29.293
X-19.997 Y29.386
X-19.117 Y29.491
X-18.239 Y29.606
X-17.362 Y29.733
X-16.487 Y29.87
X-15.613 Y30.019
X-14.741 Y30.178
X-13.872 Y30.349
X-13.004 Y30.531
X-12.14 Y30.724
X-11.278 Y30.929
X-10.418 Y31.145
X-9.562 Y31.374
X-8.709 Y31.614
X-7.86 Y31.866
X-7.014 Y32.131
X-6.172 Y32.408
X-5.335 Y32.697
X-4.501 Y32.998
X-3.673 Y33.312
X-2.849 Y33.639
X-2.03 Y33.978
X-1.217 Y34.33
X-0.41 Y34.695
X0.392 Y35.072
X1.188 Y35.462
X1.977 Y35.865
X2.76 Y36.28
X3.536 Y36.709
X4.304 Y37.15
X5.065 Y37.604
X5.818 Y38.071
X6.564 Y38.55
X7.3 Y39.042
X8.029 Y39.547
X8.748 Y40.065
X9.458 Y40.594
X10.159 Y41.136
X10.851 Y41.691
X11.532 Y42.257
X12.204 Y42.835
X12.865 Y43.425
X13.515 Y44.027
X14.155 Y44.64
X14.783 Y45.265
X15.4 Y45.902
X16.005 Y46.549
X16.598 Y47.207
X17.179 Y47.876
X17.747 Y48.556
X18.303 Y49.247
X18.845 Y49.947
X19.374 Y50.658
X19.889 Y51.379
X20.39 Y52.11
X20.877 Y52.851
X21.349 Y53.6
X21.807 Y54.359
X22.25 Y55.127
X22.677 Y55.903
X23.089 Y56.688
X23.485 Y57.481
X23.864 Y58.281
X24.227 Y59.09
X24.573 Y59.905
X24.902 Y60.728
X25.213 Y61.558
X25.506 Y62.394
X25.781 Y63.237
X26.036 Y64.085
X26.271 Y64.94
X26.486 Y65.799
X26.68 Y66.664
X26.851 Y67.533
X27 Y68.407
X27.125 Y69.284
X27.224 Y70.165
X27.294 Y71.048
X27.334 Y71.933
X27.338 Y72.819
X27.301 Y73.705
X27.212 Y74.586
X27.092 Y75.246
X26.962 Y75.738
X26.872 Y75.992
X26.735 Y76.274
X26.538 Y76.518
X26.293 Y76.713
X26.01 Y76.848
X25.704 Y76.916
X23.427 Y77.164
X23.148 Y77.118
X22.775 Y76.781
X-27.192 Y31.755
G3 X-26.186 Y29 I1.062 J-1.173
G1 X-11.889
X-11.004 Y29.044
X-10.121 Y29.118
X-9.244 Y29.248
X-8.375 Y29.419
X-7.513 Y29.623
X-6.657 Y29.853
X-5.807 Y30.104
X-4.963 Y30.373
X-4.124 Y30.659
X-3.291 Y30.96
X-2.462 Y31.275
X-1.64 Y31.604
X-0.822 Y31.946
X-0.01 Y32.301
X0.796 Y32.669
X1.597 Y33.049
X2.391 Y33.441
X3.179 Y33.846
X3.961 Y34.264
X4.736 Y34.693
X5.504 Y35.135
X6.265 Y35.589
X7.018 Y36.055
X7.764 Y36.534
X8.502 Y37.025
X9.232 Y37.527
X9.953 Y38.042
X10.666 Y38.569
X11.369 Y39.107
X12.064 Y39.658
X12.749 Y40.219
X13.425 Y40.793
X14.091 Y41.378
X14.746 Y41.974
X15.392 Y42.581
X16.027 Y43.199
X16.651 Y43.828
X17.264 Y44.467
X17.866 Y45.117
X18.457 Y45.778
X19.036 Y46.449
X19.603 Y47.13
X20.157 Y47.821
X20.699 Y48.522
X21.228 Y49.233
X21.745 Y49.953
X22.248 Y50.683
X22.737 Y51.422
X23.212 Y52.169
X23.674 Y52.926
X24.121 Y53.691
X24.554 Y54.464
X24.972 Y55.246
X25.375 Y56.035
X25.762 Y56.832
X26.134 Y57.636
X26.491 Y58.447
X26.831 Y59.265
X27.154 Y60.09
X27.461 Y60.922
X27.75 Y61.759
X28.022 Y62.603
X28.275 Y63.452
X28.51 Y64.306
X28.725 Y65.166
X28.92 Y66.03
X29.094 Y66.899
X29.246 Y67.772
X29.375 Y68.649
X29.48 Y69.529
X29.558 Y70.412
X29.607 Y71.296
X29.624 Y72.182
X29.605 Y73.068
X29.539 Y73.952
X29.43 Y74.716
X29.308 Y75.256
X29.159 Y75.732
X29.131 Y75.8
X28.989 Y76.066
X28.793 Y76.295
X28.553 Y76.477
X28.279 Y76.604
X27.984 Y76.668
X25.704 Y76.916
X25.257 Y76.763
X25.054 Y76.524
X-13.097 Y31.535
G3 X-11.889 Y29 I1.263 J-0.953
G1 X-4.438
X-3.553 Y29.044
X-2.752 Y29.142
X-1.884 Y29.319
X-1.029 Y29.553
X-0.187 Y29.829
X0.644 Y30.137
X1.465 Y30.471
X2.276 Y30.826
X3.08 Y31.2
X3.876 Y31.59
X4.664 Y31.995
X5.445 Y32.413
X6.218 Y32.846
X6.985 Y33.29
X7.058 Y33.334
X7.294 Y33.513
X7.487 Y33.738
X7.629 Y33.998
X7.765 Y34.323
X7.934 Y34.726
X8.046 Y34.949
X8.154 Y35.128
X8.247 Y35.268
X8.292 Y35.329
X8.851 Y36.058
X8.912 Y36.134
X9.254 Y36.552
X9.43 Y36.737
X9.456 Y36.762
X9.677 Y36.938
X10.06 Y37.239
X10.72 Y37.743
X10.865 Y37.844
X11.066 Y37.953
X11.268 Y38.059
X11.469 Y38.15
X12.275 Y38.484
X12.476 Y38.566
X12.677 Y38.645
X12.879 Y38.711
X13.029 Y38.748
X13.234 Y38.804
X13.742 Y38.989
X14.354 Y39.268
X15.111 Y39.69
X15.847 Y40.182
X16.553 Y40.718
X17.233 Y41.287
X17.891 Y41.88
X18.53 Y42.493
X19.154 Y43.123
X19.762 Y43.768
X20.356 Y44.425
X20.937 Y45.094
X21.505 Y45.775
X22.06 Y46.465
X22.602 Y47.166
X23.132 Y47.877
X23.649 Y48.596
X24.152 Y49.325
X24.643 Y50.063
X25.121 Y50.809
X25.585 Y51.564
X26.036 Y52.327
X26.472 Y53.098
X26.894 Y53.877
X27.302 Y54.664
X27.696 Y55.458
X28.075 Y56.259
X28.438 Y57.067
X28.787 Y57.882
X29.12 Y58.703
X29.437 Y59.53
X29.738 Y60.364
X30.023 Y61.203
X30.29 Y62.048
X30.54 Y62.898
X30.772 Y63.753
X30.986 Y64.613
X31.18 Y65.478
X31.355 Y66.346
X31.508 Y67.219
X31.639 Y68.096
X31.747 Y68.975
X31.829 Y69.857
X31.885 Y70.742
X31.91 Y71.628
X31.902 Y72.514
X31.851 Y73.398
X31.748 Y74.26
X31.622 Y74.878
X31.486 Y75.353
X31.422 Y75.522
X31.283 Y75.797
X31.086 Y76.034
X30.843 Y76.223
X30.564 Y76.353
X30.264 Y76.42
X27.984 Y76.668
X27.578 Y76.548
X27.4 Y76.233
X27.175 Y75.834
X11.302 Y40.961
G3 X12.879 Y38.728 I1.44 J-0.656
G1 X13.029 Y38.748
X13.08 Y38.759
X13.281 Y38.797
X13.886 Y38.879
X14.49 Y38.959
X15.094 Y38.998
X15.295 Y39
X15.698
X15.942 Y39.012
X16.269 Y39.055
X16.635 Y39.133
X17.069 Y39.264
X17.568 Y39.458
X18.156 Y39.743
X18.862 Y40.159
X19.587 Y40.668
X20.276 Y41.225
X20.936 Y41.816
X21.571 Y42.434
X22.185 Y43.074
X22.78 Y43.73
X23.358 Y44.402
X23.92 Y45.087
X24.468 Y45.783
X25.002 Y46.49
X25.523 Y47.207
X26.03 Y47.933
X26.525 Y48.669
X27.006 Y49.413
X27.474 Y50.166
X27.928 Y50.926
X28.369 Y51.695
X28.796 Y52.471
X29.21 Y53.255
X29.61 Y54.046
X29.995 Y54.844
X30.367 Y55.648
X30.724 Y56.459
X31.066 Y57.276
X31.394 Y58.1
X31.706 Y58.929
X31.919 Y59.53
X31.964 Y59.682
X31.991 Y59.839
X32 Y59.998
Y75.556
X31.995 Y75.757
X31.973 Y75.858
X31.955 Y75.908
X31.932 Y75.959
X31.88 Y76.041
X31.807 Y76.124
X31.767 Y76.16
X31.686 Y76.215
X31.605 Y76.254
X31.555 Y76.271
X31.505 Y76.283
X31.404 Y76.296
X30.264 Y76.42
X29.956 Y76.361
X29.724 Y76.16
X29.657 Y76.009
X14.288 Y41.181
G3 X15.698 Y39 I1.465 J-0.599
G1 X18.718
X19.062 Y39.017
X19.387 Y39.06
X19.756 Y39.139
X20.183 Y39.267
X20.67 Y39.456
X21.229 Y39.728
X21.889 Y40.116
X22.615 Y40.626
X23.3 Y41.187
X23.952 Y41.787
X24.577 Y42.416
X25.177 Y43.067
X25.757 Y43.738
X26.318 Y44.423
X26.862 Y45.123
X27.391 Y45.834
X27.905 Y46.555
X28.405 Y47.287
X28.891 Y48.028
X29.364 Y48.777
X29.823 Y49.535
X30.269 Y50.301
X30.701 Y51.075
X31.12 Y51.855
X31.526 Y52.643
X31.855 Y53.31
X31.935 Y53.508
X31.984 Y53.717
X32 Y53.93
Y59.998
G3 X30.891 Y60.294 I-0.6 J-0.021
G1 X18.23 Y39.916
G3 X18.718 Y39 I0.51 J-0.317
G1 X21.739
X22.136 Y39.02
X22.451 Y39.061
X22.808 Y39.137
X23.219 Y39.261
X23.683 Y39.441
X24.213 Y39.698
X24.832 Y40.063
X25.556 Y40.572
X26.238 Y41.138
X26.883 Y41.745
X27.498 Y42.383
X28.086 Y43.046
X28.652 Y43.728
X29.198 Y44.426
X29.726 Y45.138
X30.237 Y45.862
X30.732 Y46.596
X31.213 Y47.341
X31.68 Y48.094
X32.079 Y48.765
X32.208 Y49.052
X32.27 Y49.362
X32.261 Y49.677
X32.182 Y49.983
X32.171 Y50.012
X32.106 Y50.213
X32.061 Y50.414
X32.036 Y50.615
X32.006 Y51.018
X32 Y51.219
Y53.93
G3 X30.903 Y54.244 I-0.6 J-0.021
G1 X21.262 Y39.935
G3 X21.739 Y39 I0.498 J-0.335
G1 X24.759
X25.134 Y39.019
X25.436 Y39.058
X25.783 Y39.133
X26.179 Y39.251
X26.623 Y39.424
X27.128 Y39.669
X27.714 Y40.014
X28.39 Y40.489
X29.072 Y41.055
X29.713 Y41.666
X30.321 Y42.311
X30.9 Y42.982
X31.454 Y43.673
X31.987 Y44.381
X32.5 Y45.104
X32.996 Y45.838
X33.365 Y46.447
X33.58 Y46.876
X33.689 Y47.172
X33.729 Y47.484
X33.698 Y47.797
X33.599 Y48.096
X33.436 Y48.365
X33.216 Y48.591
X33.201 Y48.604
G3 X32.4 Y48.54 I-0.365 J-0.476
G1 X24.344 Y40.012
G3 X24.759 Y39 I0.436 J-0.412
G1 X27.78
X28.059 Y39.014
X28.348 Y39.052
X28.689 Y39.125
X29.07 Y39.239
X29.5 Y39.407
X29.983 Y39.641
X30.541 Y39.969
X31.179 Y40.417
X31.861 Y40.983
X32.499 Y41.598
X33.1 Y42.249
X33.67 Y42.927
X34.209 Y43.631
X34.657 Y44.294
X34.935 Y44.787
X35.135 Y45.217
X35.286 Y45.627
X35.388 Y45.99
X35.459 Y46.355
X35.48 Y46.543
X35.483 Y46.832
X35.426 Y47.116
X35.311 Y47.382
X35.145 Y47.619
X34.933 Y47.817
X34.685 Y47.966
X34.412 Y48.062
G3 X33.831 Y47.855 I-0.118 J-0.588
G1 X33.743 Y47.749
X27.338 Y39.981
G3 X27.78 Y39 I0.463 J-0.382
G1 X30.599
X30.93 Y39.017
X31.211 Y39.053
X31.547 Y39.125
X31.912 Y39.235
X32.33 Y39.398
X32.792 Y39.622
X33.326 Y39.936
X33.912 Y40.348
X34.534 Y40.864
X35.147 Y41.462
X35.68 Y42.073
X36.121 Y42.669
X36.486 Y43.255
X36.784 Y43.834
X36.997 Y44.344
X37.14 Y44.78
X37.241 Y45.203
X37.298 Y45.568
X37.326 Y45.94
X37.324 Y46.264
X37.295 Y46.599
X37.246 Y46.892
X37.234 Y46.942
X37.126 Y47.231
X36.957 Y47.489
X36.737 Y47.704
X36.474 Y47.866
X36.182 Y47.966
X35.876 Y48
X35.23 Y48.001
X34.626 Y48.025
X34.424 Y48.059
X34.412 Y48.062
G3 X33.75 Y47.727 I-0.118 J-0.588
G1 X30.076 Y39.853
G3 X30.599 Y39 I0.544 J-0.254
G1 X33.418
X33.725 Y39.015
X34.001 Y39.052
X34.329 Y39.122
X34.659 Y39.221
X35.046 Y39.371
X35.436 Y39.561
X35.876 Y39.819
X36.304 Y40.12
X36.749 Y40.49
X37.197 Y40.927
X37.62 Y41.412
X38 Y41.926
X38.333 Y42.461
X38.613 Y43.003
X38.842 Y43.551
X39.019 Y44.094
X39.149 Y44.632
X39.224 Y45.113
X39.257 Y45.565
X39.255 Y45.948
X39.222 Y46.331
X39.167 Y46.661
X39.084 Y46.989
X39.063 Y47.05
X38.943 Y47.313
X38.77 Y47.546
X38.553 Y47.738
X38.302 Y47.881
X38.026 Y47.97
X37.738 Y48
X35.876
G3 X35.325 Y47.581 I0.021 J-0.6
G1 X35.31 Y47.536
X32.866 Y39.78
G3 X33.418 Y39 I0.572 J-0.18
G1 X36.035
X36.322 Y39.014
X36.562 Y39.046
X36.835 Y39.104
X37.129 Y39.192
X37.444 Y39.315
X37.779 Y39.478
X38.138 Y39.689
X38.493 Y39.938
X38.87 Y40.251
X39.243 Y40.615
X39.596 Y41.02
X39.938 Y41.482
X40.257 Y41.995
X40.538 Y42.538
X40.774 Y43.103
X40.959 Y43.672
X41.096 Y44.243
X41.184 Y44.803
X41.223 Y45.323
X41.22 Y45.79
X41.186 Y46.185
X41.121 Y46.573
X41.038 Y46.902
X40.972 Y47.096
X40.838 Y47.381
X40.644 Y47.629
X40.399 Y47.827
X40.117 Y47.965
X39.81 Y48.037
X39.495 Y48.038
X39.257 Y48.013
X39.056 Y48.006
X38.624 Y48.001
X37.738 Y48
G3 X37.172 Y47.528 I0.021 J-0.6
G1 X35.47 Y39.728
G3 X36.035 Y39 I0.586 J-0.128
G1 X38.452
X38.646 Y39.01
X38.874 Y39.04
X39.111 Y39.09
X39.378 Y39.17
X39.657 Y39.279
X39.961 Y39.427
X40.038 Y39.472
X40.115 Y39.519
X40.429 Y39.72
X40.761 Y39.973
X41.104 Y40.28
X41.43 Y40.624
X41.76 Y41.032
X42.078 Y41.499
X42.368 Y42.006
X42.622 Y42.549
X42.838 Y43.125
X43.007 Y43.719
X43.125 Y44.308
X43.193 Y44.887
X43.212 Y45.419
X43.19 Y45.915
X43.14 Y46.32
X43.057 Y46.718
X42.96 Y47.05
X42.833 Y47.382
X42.768 Y47.518
X42.597 Y47.79
X42.369 Y48.016
X42.095 Y48.184
X41.791 Y48.285
X41.471 Y48.314
X41.153 Y48.27
X41.069 Y48.248
X40.667 Y48.178
X40.465 Y48.146
X39.751 Y48.066
X39.495 Y48.038
G3 X38.987 Y47.528 I0.085 J-0.594
G1 X38.985 Y47.516
X37.879 Y39.684
G3 X38.452 Y39 I0.594 J-0.084
G1 X43.284
X43.359 Y39.004
X43.797 Y39.774
X44.199 Y40.564
X44.553 Y41.376
X44.85 Y42.211
X45.072 Y43.035
X45.218 Y43.825
X45.293 Y44.552
X45.308 Y45.216
X45.272 Y45.845
X45.199 Y46.371
X45.095 Y46.837
X44.974 Y47.23
X44.831 Y47.59
X44.677 Y47.901
X44.497 Y48.201
X44.394 Y48.345
X44.186 Y48.577
X43.932 Y48.757
X43.644 Y48.876
X43.337 Y48.929
X43.026 Y48.913
X42.726 Y48.828
X42.479 Y48.727
X42.278 Y48.652
X41.271 Y48.3
X41.153 Y48.27
G3 X40.741 Y47.552 I0.171 J-0.575
G1 X42.721 Y39.465
X42.723 Y39.457
G3 X43.284 Y39 I0.583 J0.143
G1 X44.694
X44.731 Y39.002
X45.005 Y39.225
X45.316 Y39.523
X45.61 Y39.855
X45.933 Y40.283
X46.229 Y40.751
X46.521 Y41.304
X46.789 Y41.931
X47.015 Y42.605
X47.19 Y43.308
X47.309 Y44.028
X47.368 Y44.738
X47.37 Y45.417
X47.319 Y46.066
X47.222 Y46.678
X47.084 Y47.245
X46.924 Y47.728
X46.754 Y48.133
X46.564 Y48.498
X46.371 Y48.806
X46.159 Y49.09
X45.942 Y49.338
X45.83 Y49.446
X45.585 Y49.636
X45.304 Y49.767
X45.002 Y49.834
X44.692 Y49.832
X44.39 Y49.761
X44.111 Y49.627
X43.687 Y49.361
X43.187 Y49.055
X43.083 Y48.991
X42.882 Y48.891
X42.726 Y48.828
G3 X42.384 Y48.162 I0.246 J-0.547
G1 X44.127 Y39.482
G3 X44.694 Y39 I0.588 J0.118
G1 X45.902
X46.052 Y39.007
X46.28 Y39.101
X46.513 Y39.22
X46.767 Y39.376
X47.036 Y39.573
X47.311 Y39.81
X47.598 Y40.101
X47.886 Y40.444
X48.169 Y40.842
X48.454 Y41.319
X48.705 Y41.831
X48.936 Y42.412
X49.132 Y43.056
X49.283 Y43.743
X49.381 Y44.457
X49.421 Y45.183
X49.404 Y45.9
X49.331 Y46.588
X49.208 Y47.242
X49.041 Y47.855
X48.835 Y48.427
X48.609 Y48.926
X48.368 Y49.359
X48.138 Y49.704
X47.886 Y50.024
X47.648 Y50.281
X47.387 Y50.521
X47.136 Y50.717
X47.036 Y50.782
X46.752 Y50.926
X46.443 Y51.001
X46.125 Y51.005
X45.814 Y50.937
X45.526 Y50.8
X45.277 Y50.602
X44.895 Y50.221
G3 X44.735 Y49.777 I0.439 J-0.409
G1 X44.752 Y49.477
X45.324 Y39.565
G3 X45.902 Y39 I0.599 J0.035
G1 X47.312
X47.462 Y39.007
X47.654 Y39.039
X47.851 Y39.087
X48.076 Y39.162
X48.311 Y39.262
X48.565 Y39.395
X48.828 Y39.56
X49.107 Y39.769
X49.387 Y40.017
X49.684 Y40.325
X49.966 Y40.668
X50.259 Y41.091
X50.53 Y41.557
X50.783 Y42.086
X51.015 Y42.692
X51.21 Y43.357
X51.355 Y44.051
X51.446 Y44.783
X51.48 Y45.545
X51.452 Y46.318
X51.362 Y47.087
X51.214 Y47.83
X51.017 Y48.524
X50.781 Y49.156
X50.511 Y49.732
X50.209 Y50.263
X49.891 Y50.729
X49.583 Y51.111
X49.289 Y51.421
X48.992 Y51.687
X48.704 Y51.907
X48.416 Y52.092
X48.123 Y52.248
X48.027 Y52.29
X47.758 Y52.376
X47.478 Y52.406
X47.197 Y52.379
X46.927 Y52.297
X46.679 Y52.162
X46.464 Y51.981
X46.289 Y51.76
X46.2 Y51.621
X46.104 Y51.477
X46.055 Y51.42
X45.681 Y51.018
X45.491 Y50.816
X45.277 Y50.602
G3 X45.123 Y50.103 I0.439 J-0.409
G1 X45.159 Y49.861
X46.74 Y39.509
G3 X47.312 Y39 I0.593 J0.091
G1 X49.124
X49.319 Y39.01
X49.503 Y39.034
X49.713 Y39.079
X49.937 Y39.146
X50.179 Y39.24
X50.436 Y39.365
X50.707 Y39.524
X50.987 Y39.721
X51.283 Y39.967
X51.576 Y40.252
X51.886 Y40.608
X52.174 Y40.998
X52.466 Y41.467
X52.744 Y42.006
X52.984 Y42.58
X53.199 Y43.236
X53.373 Y43.963
X53.495 Y44.745
X53.556 Y45.556
X53.551 Y46.387
X53.478 Y47.23
X53.339 Y48.061
X53.136 Y48.865
X52.877 Y49.629
X52.573 Y50.334
X52.233 Y50.975
X51.862 Y51.555
X51.472 Y52.07
X51.071 Y52.519
X50.694 Y52.878
X50.322 Y53.18
X49.983 Y53.412
X49.653 Y53.602
X49.329 Y53.755
X49.018 Y53.872
X48.706 Y53.961
X48.691 Y53.964
X48.379 Y53.992
X48.069 Y53.949
X47.777 Y53.839
X47.516 Y53.666
X47.3 Y53.44
X47.139 Y53.172
X47.074 Y53.029
X46.909 Y52.744
X46.837 Y52.627
X46.457 Y52.023
X46.289 Y51.76
G3 X46.205 Y51.455 I0.517 J-0.305
G1 Y51.454
X46.208 Y51.396
X46.217 Y51.338
X46.284 Y50.996
X48.556 Y39.483
G3 X49.124 Y39 I0.589 J0.116
G1 X51.138
X51.287 Y39.007
X51.478 Y39.033
X51.697 Y39.08
X51.92 Y39.147
X52.176 Y39.248
X52.431 Y39.372
X52.719 Y39.543
X53.001 Y39.741
X53.309 Y39.998
X53.608 Y40.29
X53.918 Y40.648
X54.229 Y41.07
X54.52 Y41.539
X54.809 Y42.102
X55.07 Y42.73
X55.289 Y43.405
X55.47 Y44.166
X55.598 Y44.998
X55.663 Y45.881
X55.656 Y46.767
X55.58 Y47.65
X55.438 Y48.524
X55.229 Y49.385
X54.955 Y50.228
X54.617 Y51.047
X54.225 Y51.817
X53.799 Y52.51
X53.344 Y53.132
X52.871 Y53.681
X52.389 Y54.156
X51.912 Y54.557
X51.435 Y54.897
X51.022 Y55.143
X50.623 Y55.339
X50.261 Y55.483
X49.905 Y55.592
X49.578 Y55.663
X49.241 Y55.709
X49.106 Y55.717
X48.788 Y55.699
X48.483 Y55.609
X48.205 Y55.452
X47.971 Y55.237
X47.791 Y54.974
X47.675 Y54.677
X47.664 Y54.638
X47.598 Y54.437
X47.387 Y53.834
X47.244 Y53.431
X47.166 Y53.23
X47.139 Y53.172
G3 X47.113 Y52.792 I0.554 J-0.229
G1 X47.213 Y52.407
X50.574 Y39.465
X50.578 Y39.449
G3 X51.138 Y39 I0.581 J0.151
G1 X53.151
X53.301 Y39.007
X53.493 Y39.034
X53.719 Y39.084
X53.947 Y39.154
X54.208 Y39.258
X54.468 Y39.387
X54.762 Y39.563
X55.05 Y39.769
X55.37 Y40.038
X55.674 Y40.339
X55.999 Y40.718
X56.311 Y41.146
X56.616 Y41.644
X56.918 Y42.24
X57.179 Y42.879
X57.411 Y43.607
X57.601 Y44.425
X57.731 Y45.301
X57.792 Y46.186
X57.787 Y47.072
X57.718 Y47.955
X57.586 Y48.831
X57.395 Y49.697
X57.147 Y50.547
X56.843 Y51.38
X56.484 Y52.19
X56.069 Y52.973
X55.597 Y53.723
X55.07 Y54.435
X54.51 Y55.078
X53.937 Y55.637
X53.36 Y56.116
X52.803 Y56.507
X52.26 Y56.827
X51.719 Y57.09
X51.245 Y57.274
X50.805 Y57.406
X50.411 Y57.491
X50.035 Y57.54
X49.693 Y57.557
X49.349 Y57.547
X49.176 Y57.527
X48.87 Y57.458
X48.587 Y57.322
X48.341 Y57.127
X48.145 Y56.881
X48.009 Y56.599
X47.939 Y56.293
X47.889 Y55.845
X47.852 Y55.533
X47.85 Y55.459
X47.858 Y55.384
X47.874 Y55.312
X48.034 Y54.773
X52.586 Y39.464
X52.597 Y39.429
G3 X53.151 Y39 I0.575 J0.171
G1 X55.165
X55.315 Y39.007
X55.51 Y39.034
X55.732 Y39.082
X55.968 Y39.153
X56.224 Y39.253
X56.497 Y39.386
X56.784 Y39.557
X57.089 Y39.772
X57.404 Y40.034
X57.722 Y40.346
X58.058 Y40.733
X58.372 Y41.159
X58.699 Y41.687
X59.002 Y42.278
X59.279 Y42.944
X59.528 Y43.713
X59.732 Y44.571
X59.866 Y45.447
X59.935 Y46.331
X59.941 Y47.217
X59.887 Y48.101
X59.775 Y48.98
X59.61 Y49.851
X59.394 Y50.71
X59.127 Y51.555
X58.812 Y52.383
X58.446 Y53.19
X58.03 Y53.973
X57.565 Y54.727
X57.052 Y55.45
X56.492 Y56.136
X55.885 Y56.782
X55.232 Y57.381
X54.55 Y57.914
X53.874 Y58.36
X53.232 Y58.713
X52.612 Y58.992
X52.008 Y59.207
X51.435 Y59.361
X50.927 Y59.454
X50.491 Y59.498
X50.075 Y59.507
X49.713 Y59.485
X49.359 Y59.435
X49.038 Y59.363
X48.985 Y59.347
X48.714 Y59.23
X48.473 Y59.059
X48.273 Y58.84
X48.124 Y58.585
X48.031 Y58.304
X48 Y58.01
Y57.253
X47.997 Y57.052
X47.963 Y56.539
X47.957 Y56.448
X47.939 Y56.293
G3 X47.98 Y56.024 I0.598 J-0.046
G1 X48.17 Y55.549
X54.595 Y39.462
X54.629 Y39.377
G3 X55.165 Y39 I0.557 J0.223
G1 X57.178
X57.357 Y39.009
X57.554 Y39.035
X57.779 Y39.083
X58.017 Y39.154
X58.275 Y39.255
X58.555 Y39.39
X58.845 Y39.561
X59.156 Y39.78
X59.474 Y40.044
X59.801 Y40.363
X60.142 Y40.753
X60.468 Y41.194
X60.81 Y41.744
X61.118 Y42.341
X61.408 Y43.034
X61.668 Y43.831
X61.875 Y44.693
X62.014 Y45.568
X62.091 Y46.451
X62.108 Y47.337
X62.069 Y48.222
X61.978 Y49.104
X61.836 Y49.978
X61.647 Y50.844
X61.412 Y51.698
X61.132 Y52.539
X60.808 Y53.364
X60.439 Y54.169
X60.025 Y54.953
X59.568 Y55.712
X59.068 Y56.444
X58.528 Y57.146
X57.948 Y57.816
X57.328 Y58.449
X56.668 Y59.04
X55.969 Y59.585
X55.233 Y60.078
X54.462 Y60.515
X53.714 Y60.862
X52.993 Y61.129
X52.297 Y61.324
X51.645 Y61.452
X51.035 Y61.522
X50.524 Y61.539
X50.059 Y61.517
X49.655 Y61.465
X49.289 Y61.388
X48.949 Y61.287
X48.896 Y61.266
X48.646 Y61.14
X48.426 Y60.966
X48.245 Y60.752
X48.111 Y60.507
X48.028 Y60.239
X48 Y59.96
Y58.01
X48.008 Y57.93
X48.027 Y57.852
X48.056 Y57.777
X48.286 Y57.284
X56.603 Y39.46
X56.656 Y39.346
G3 X57.178 Y39 I0.544 J0.254
G1 X59.192
X59.425 Y39.012
X59.625 Y39.038
X59.851 Y39.086
X60.094 Y39.159
X60.354 Y39.26
X60.642 Y39.4
X60.933 Y39.572
X61.252 Y39.796
X61.572 Y40.061
X61.911 Y40.392
X62.254 Y40.784
X62.592 Y41.242
X62.943 Y41.806
X63.257 Y42.415
X63.558 Y43.133
X63.827 Y43.959
X64.034 Y44.821
X64.176 Y45.695
X64.26 Y46.577
X64.288 Y47.463
X64.263 Y48.349
X64.188 Y49.232
X64.066 Y50.11
X63.9 Y50.98
X63.691 Y51.841
X63.441 Y52.691
X63.15 Y53.528
X62.818 Y54.35
X62.447 Y55.154
X62.036 Y55.939
X61.585 Y56.703
X61.098 Y57.443
X60.574 Y58.157
X60.015 Y58.844
X59.42 Y59.501
X58.79 Y60.125
X58.125 Y60.711
X57.427 Y61.255
X56.696 Y61.757
X55.935 Y62.211
X55.145 Y62.612
X54.329 Y62.957
X53.489 Y63.239
X52.682 Y63.44
X51.94 Y63.563
X51.256 Y63.62
X50.622 Y63.622
X50.1 Y63.582
X49.67 Y63.513
X49.261 Y63.414
X48.916 Y63.3
X48.857 Y63.275
X48.572 Y63.114
X48.332 Y62.891
X48.151 Y62.618
X48.038 Y62.31
X48 Y61.985
Y59.96
G3 X48.067 Y59.704 I0.6 J0.021
G1 X48.307 Y59.245
X58.611 Y39.457
X58.681 Y39.323
G3 X59.192 Y39 I0.532 J0.277
G1 X61.316
X61.508 Y39.01
X61.713 Y39.036
X61.939 Y39.085
X62.189 Y39.16
X62.449 Y39.261
X62.744 Y39.404
X63.037 Y39.577
X63.365 Y39.807
X63.686 Y40.073
X64.036 Y40.415
X64.379 Y40.808
X64.731 Y41.284
X65.086 Y41.855
X65.409 Y42.48
X65.72 Y43.224
X65.995 Y44.066
X66.203 Y44.928
X66.349 Y45.801
X66.44 Y46.683
X66.478 Y47.568
X66.466 Y48.454
X66.407 Y49.338
X66.304 Y50.218
X66.158 Y51.093
X65.973 Y51.959
X65.749 Y52.816
X65.487 Y53.663
X65.188 Y54.497
X64.852 Y55.317
X64.48 Y56.122
X64.072 Y56.908
X63.63 Y57.676
X63.153 Y58.423
X62.643 Y59.148
X62.102 Y59.849
X61.528 Y60.525
X60.924 Y61.172
X60.288 Y61.79
X59.621 Y62.373
X58.925 Y62.921
X58.2 Y63.431
X57.448 Y63.9
X56.672 Y64.327
X55.872 Y64.709
X55.05 Y65.039
X54.207 Y65.314
X53.348 Y65.529
X52.488 Y65.678
X51.698 Y65.75
X50.956 Y65.758
X50.344 Y65.715
X49.817 Y65.635
X49.403 Y65.538
X49.001 Y65.409
X48.866 Y65.353
X48.624 Y65.224
X48.411 Y65.05
X48.237 Y64.838
X48.107 Y64.596
X48.027 Y64.333
X48 Y64.059
Y61.985
G3 X48.078 Y61.71 I0.6 J0.021
G1 X48.323 Y61.278
X60.73 Y39.454
X60.816 Y39.303
G3 X61.316 Y39 I0.522 J0.297
G1 X63.421
X63.613 Y39.01
X63.821 Y39.037
X64.047 Y39.085
X64.303 Y39.162
X64.563 Y39.263
X64.863 Y39.409
X65.158 Y39.582
X65.492 Y39.817
X65.815 Y40.085
X66.175 Y40.437
X66.518 Y40.83
X66.882 Y41.321
X67.241 Y41.898
X67.573 Y42.543
X67.894 Y43.311
X68.17 Y44.153
X68.38 Y45.014
X68.532 Y45.887
X68.63 Y46.767
X68.678 Y47.652
X68.679 Y48.538
X68.635 Y49.423
X68.548 Y50.305
X68.422 Y51.182
X68.257 Y52.053
X68.057 Y52.916
X67.82 Y53.77
X67.55 Y54.614
X67.245 Y55.446
X66.907 Y56.265
X66.536 Y57.07
X66.133 Y57.859
X65.697 Y58.63
X65.23 Y59.384
X64.734 Y60.118
X64.208 Y60.831
X63.653 Y61.522
X63.07 Y62.189
X62.458 Y62.83
X61.819 Y63.444
X61.152 Y64.028
X60.459 Y64.579
X59.74 Y65.098
X58.998 Y65.582
X58.233 Y66.029
X57.447 Y66.438
X56.64 Y66.805
X55.814 Y67.126
X54.971 Y67.398
X54.113 Y67.618
X53.242 Y67.783
X52.362 Y67.887
X51.512 Y67.924
X50.763 Y67.896
X50.145 Y67.823
X49.653 Y67.725
X49.212 Y67.599
X48.846 Y67.462
X48.805 Y67.443
X48.536 Y67.277
X48.311 Y67.055
X48.141 Y66.788
X48.036 Y66.49
X48 Y66.175
Y64.059
G3 X48.087 Y63.769 I0.6 J0.021
G1 X48.335 Y63.359
X62.83 Y39.452
X62.929 Y39.289
G3 X63.421 Y39 I0.513 J0.311
G1 X65.545
X65.733 Y39.009
X65.945 Y39.037
X66.17 Y39.085
X66.43 Y39.163
X66.692 Y39.265
X66.995 Y39.412
X67.293 Y39.588
X67.631 Y39.825
X67.958 Y40.097
X68.326 Y40.456
X68.672 Y40.852
X69.044 Y41.355
X69.407 Y41.938
X69.75 Y42.603
X70.081 Y43.394
X70.356 Y44.236
X70.568 Y45.096
X70.725 Y45.968
X70.83 Y46.848
X70.887 Y47.733
X70.899 Y48.619
X70.868 Y49.504
X70.797 Y50.387
X70.687 Y51.267
X70.542 Y52.141
X70.361 Y53.009
X70.148 Y53.868
X69.902 Y54.72
X69.624 Y55.561
X69.315 Y56.392
X68.976 Y57.21
X68.606 Y58.016
X68.206 Y58.806
X67.776 Y59.581
X67.319 Y60.34
X66.833 Y61.082
X66.321 Y61.804
X65.782 Y62.508
X65.217 Y63.19
X64.626 Y63.851
X64.01 Y64.488
X63.368 Y65.099
X62.702 Y65.683
X62.012 Y66.239
X61.3 Y66.766
X60.565 Y67.262
X59.81 Y67.726
X59.035 Y68.156
X58.242 Y68.55
X57.431 Y68.907
X56.603 Y69.222
X55.759 Y69.494
X54.902 Y69.72
X54.034 Y69.898
X53.157 Y70.026
X52.274 Y70.097
X51.391 Y70.104
X50.606 Y70.048
X50.013 Y69.957
X49.506 Y69.837
X49.089 Y69.702
X48.864 Y69.608
X48.581 Y69.451
X48.342 Y69.232
X48.16 Y68.965
X48.044 Y68.663
X48.001 Y68.342
X48 Y66.175
X48.326 Y65.499
X48.344 Y65.47
X64.251 Y39.754
G3 X65.545 Y39 I1.349 J0.828
G1 X67.649
X67.869 Y39.011
X68.083 Y39.039
X68.309 Y39.087
X68.572 Y39.166
X68.835 Y39.269
X69.139 Y39.416
X69.442 Y39.594
X69.782 Y39.833
X70.115 Y40.11
X70.487 Y40.473
X70.839 Y40.876
X71.218 Y41.389
X71.585 Y41.978
X71.937 Y42.661
X72.277 Y43.474
X72.552 Y44.316
X72.767 Y45.176
X72.928 Y46.047
X73.039 Y46.926
X73.104 Y47.81
X73.126 Y48.696
X73.107 Y49.582
X73.049 Y50.466
X72.955 Y51.347
X72.826 Y52.224
X72.664 Y53.095
X72.47 Y53.96
X72.246 Y54.817
X71.992 Y55.666
X71.708 Y56.505
X71.396 Y57.334
X71.055 Y58.152
X70.686 Y58.958
X70.29 Y59.751
X69.867 Y60.529
X69.417 Y61.293
X68.941 Y62.04
X68.44 Y62.771
X67.915 Y63.485
X67.365 Y64.18
X66.792 Y64.856
X66.196 Y65.511
X65.576 Y66.145
X64.934 Y66.755
X64.269 Y67.341
X63.582 Y67.901
X62.874 Y68.434
X62.349 Y68.799
X62.168 Y68.906
X61.973 Y68.984
X61.769 Y69.033
X50.735 Y70.779
X50.332 Y70.81
X50.131 Y70.825
X49.929 Y70.837
X49.829 Y70.836
X49.728 Y70.82
X49.527 Y70.776
X49.339 Y70.729
X49.325 Y70.724
X49.124 Y70.627
X48.93 Y70.528
X48.923 Y70.523
X48.721 Y70.359
X48.602 Y70.257
X48.52 Y70.173
X48.484 Y70.126
X48.319 Y69.892
X48.264 Y69.808
X48.226 Y69.723
X48.117 Y69.442
X48.095 Y69.382
X48.08 Y69.321
X48.054 Y69.12
X48.036 Y68.919
X48.004 Y68.516
X48.001 Y68.342
X48.171 Y67.913
X48.346 Y67.641
X66.356 Y39.754
G3 X67.649 Y39 I1.349 J0.828
G1 X69.864
X70.014 Y39.007
X70.232 Y39.036
X70.459 Y39.085
X70.724 Y39.165
X70.991 Y39.269
X71.296 Y39.417
X71.604 Y39.599
X71.945 Y39.839
X72.286 Y40.122
X72.66 Y40.488
X73.02 Y40.902
X73.406 Y41.425
X73.777 Y42.021
X74.138 Y42.724
X74.479 Y43.541
X74.755 Y44.384
X74.973 Y45.243
X75.138 Y46.113
X75.255 Y46.991
X75.328 Y47.875
X75.359 Y48.76
X75.351 Y49.646
X75.306 Y50.531
X75.226 Y51.414
X75.113 Y52.293
X74.968 Y53.167
X74.792 Y54.035
X74.587 Y54.897
X74.354 Y55.752
X74.093 Y56.599
X73.804 Y57.437
X73.489 Y58.265
X73.148 Y59.083
X72.781 Y59.89
X72.389 Y60.684
X71.97 Y61.465
X71.528 Y62.233
X71.061 Y62.986
X70.571 Y63.724
X70.058 Y64.447
X69.522 Y65.153
X68.965 Y65.841
X68.385 Y66.512
X67.785 Y67.163
X67.163 Y67.794
X66.992 Y67.956
X66.77 Y68.128
X66.519 Y68.252
X66.247 Y68.323
X61.769 Y69.033
G3 X61.108 Y68.315 I-0.073 J-0.596
G1 X68.395 Y40.156
G3 X69.864 Y39 I1.524 J0.425
G1 X71.878
X72.177 Y39.015
X72.397 Y39.044
X72.624 Y39.092
X72.89 Y39.172
X73.159 Y39.277
X73.463 Y39.424
X73.776 Y39.608
X74.115 Y39.847
X74.464 Y40.136
X74.836 Y40.499
X75.204 Y40.922
X75.596 Y41.452
X75.97 Y42.053
X76.34 Y42.769
X76.682 Y43.587
X76.96 Y44.428
X77.182 Y45.286
X77.352 Y46.156
X77.476 Y47.033
X77.557 Y47.916
X77.598 Y48.801
X77.601 Y49.687
X77.568 Y50.572
X77.502 Y51.456
X77.403 Y52.337
X77.273 Y53.213
X77.115 Y54.085
X76.928 Y54.951
X76.714 Y55.811
X76.474 Y56.664
X76.208 Y57.509
X75.916 Y58.346
X75.6 Y59.174
X75.259 Y59.992
X74.894 Y60.799
X74.505 Y61.595
X74.093 Y62.38
X73.657 Y63.151
X73.199 Y63.91
X72.719 Y64.654
X72.217 Y65.385
X71.694 Y66.1
X71.151 Y66.8
X70.78 Y67.25
X70.602 Y67.43
X70.394 Y67.575
X70.164 Y67.68
X69.919 Y67.742
X66.247 Y68.323
G3 X65.585 Y67.617 I-0.073 J-0.596
G1 X70.841 Y39.626
G3 X71.124 Y39.221 I0.59 J0.111
X71.878 Y39 I0.809 J1.36
G1 X74.093
X74.342 Y39.012
X74.565 Y39.042
X74.792 Y39.09
X75.059 Y39.17
X75.333 Y39.277
X75.637 Y39.425
X75.955 Y39.612
X76.296 Y39.851
X76.651 Y40.146
X77.024 Y40.51
X77.399 Y40.94
X77.797 Y41.477
X78.177 Y42.088
X78.554 Y42.82
X78.896 Y43.637
X79.176 Y44.478
X79.4 Y45.335
X79.575 Y46.204
X79.705 Y47.08
X79.793 Y47.962
X79.842 Y48.847
X79.855 Y49.733
X79.833 Y50.619
X79.778 Y51.503
X79.693 Y52.385
X79.577 Y53.264
X79.434 Y54.138
X79.263 Y55.008
X79.067 Y55.872
X78.845 Y56.73
X78.598 Y57.581
X78.327 Y58.425
X78.033 Y59.26
X77.715 Y60.088
X77.375 Y60.906
X77.012 Y61.714
X76.626 Y62.512
X76.218 Y63.298
X75.788 Y64.073
X75.337 Y64.836
X74.866 Y65.587
X74.374 Y66.324
X74.148 Y66.644
X73.965 Y66.855
X73.744 Y67.025
X73.493 Y67.148
X73.223 Y67.219
X69.919 Y67.742
G3 X69.253 Y67.055 I-0.073 J-0.596
G1 X73.521 Y39.508
G3 X74.093 Y39 I0.593 J0.092
G1 X76.308
X76.519 Y39.011
X76.744 Y39.04
X76.972 Y39.089
X77.24 Y39.169
X77.517 Y39.277
X77.822 Y39.425
X78.145 Y39.615
X78.485 Y39.854
X78.848 Y40.155
X79.221 Y40.519
X79.603 Y40.957
X80.005 Y41.501
X80.391 Y42.12
X80.776 Y42.866
X81.117 Y43.684
X81.399 Y44.524
X81.626 Y45.381
X81.805 Y46.249
X81.94 Y47.124
X82.034 Y48.005
X82.091 Y48.89
X82.113 Y49.776
X82.101 Y50.662
X82.057 Y51.547
X81.983 Y52.43
X81.881 Y53.31
X81.751 Y54.187
X81.596 Y55.059
X81.415 Y55.926
X81.21 Y56.788
X80.981 Y57.644
X80.728 Y58.494
X80.454 Y59.336
X80.157 Y60.171
X79.838 Y60.998
X79.498 Y61.816
X79.136 Y62.625
X78.753 Y63.424
X78.35 Y64.213
X77.926 Y64.991
X77.482 Y65.758
X77.28 Y66.084
X77.095 Y66.321
X76.864 Y66.513
X76.598 Y66.652
X76.308 Y66.73
X73.223 Y67.219
G3 X72.554 Y66.553 I-0.073 J-0.596
G1 X75.733 Y39.53
G3 X76.308 Y39 I0.596 J0.07
G1 X78.523
X78.707 Y39.009
X78.933 Y39.039
X79.163 Y39.088
X79.43 Y39.168
X79.711 Y39.278
X80.016 Y39.425
X80.344 Y39.619
X80.684 Y39.858
X81.053 Y40.164
X81.426 Y40.528
X81.814 Y40.973
X82.221 Y41.522
X82.612 Y42.15
X83.004 Y42.91
X83.346 Y43.728
X83.628 Y44.568
X83.858 Y45.423
X84.041 Y46.29
X84.181 Y47.165
X84.281 Y48.046
X84.345 Y48.93
X84.374 Y49.815
X84.372 Y50.701
X84.338 Y51.587
X84.276 Y52.471
X84.185 Y53.352
X84.068 Y54.231
X83.926 Y55.105
X83.759 Y55.976
X83.569 Y56.841
X83.356 Y57.701
X83.121 Y58.556
X82.864 Y59.404
X82.586 Y60.245
X82.287 Y61.079
X81.967 Y61.906
X81.627 Y62.724
X81.267 Y63.534
X80.887 Y64.334
X80.488 Y65.125
X80.25 Y65.557
X80.066 Y65.817
X79.828 Y66.028
X79.549 Y66.181
X79.242 Y66.266
X76.308 Y66.73
G3 X75.637 Y66.083 I-0.073 J-0.596
G1 X77.946 Y39.548
G3 X78.523 Y39 I0.598 J0.052
G1 X80.738
X80.904 Y39.008
X81.131 Y39.038
X81.362 Y39.088
X81.63 Y39.168
X81.914 Y39.279
X82.219 Y39.426
X82.552 Y39.622
X82.892 Y39.861
X83.267 Y40.172
X83.64 Y40.536
X84.033 Y40.987
X84.444 Y41.542
X84.84 Y42.179
X85.239 Y42.952
X85.58 Y43.769
X85.864 Y44.609
X86.097 Y45.464
X86.283 Y46.33
X86.427 Y47.204
X86.533 Y48.084
X86.603 Y48.967
X86.64 Y49.853
X86.646 Y50.739
X86.622 Y51.625
X86.569 Y52.509
X86.489 Y53.392
X86.384 Y54.272
X86.254 Y55.148
X86.101 Y56.021
X85.925 Y56.889
X85.727 Y57.753
X85.507 Y58.612
X85.266 Y59.464
X85.005 Y60.311
X84.724 Y61.151
X84.423 Y61.985
X84.103 Y62.811
X83.763 Y63.63
X83.404 Y64.44
X83.109 Y65.047
X82.969 Y65.277
X82.788 Y65.475
X82.572 Y65.635
X82.329 Y65.751
X82.069 Y65.818
X79.242 Y66.266
G3 X78.57 Y65.634 I-0.073 J-0.596
G1 X80.16 Y39.563
G3 X80.738 Y39 I0.599 J0.037
G1 X82.953
X83.109 Y39.008
X83.337 Y39.038
X83.57 Y39.088
X83.838 Y39.168
X84.125 Y39.28
X84.43 Y39.428
X84.767 Y39.626
X85.107 Y39.865
X85.488 Y40.181
X85.861 Y40.545
X86.259 Y41.001
X86.673 Y41.561
X87.074 Y42.205
X87.479 Y42.991
X87.821 Y43.808
X88.106 Y44.647
X88.341 Y45.502
X88.53 Y46.368
X88.678 Y47.241
X88.789 Y48.12
X88.865 Y49.003
X88.909 Y49.888
X88.923 Y50.774
X88.907 Y51.66
X88.864 Y52.545
X88.794 Y53.429
X88.7 Y54.31
X88.582 Y55.188
X88.44 Y56.063
X88.277 Y56.934
X88.092 Y57.8
X87.887 Y58.662
X87.661 Y59.519
X87.415 Y60.371
X87.151 Y61.216
X86.867 Y62.056
X86.564 Y62.889
X86.243 Y63.714
X85.895 Y64.53
X85.836 Y64.644
X85.695 Y64.865
X85.515 Y65.055
X85.302 Y65.208
X85.065 Y65.319
X84.812 Y65.384
X82.069 Y65.818
G3 X81.396 Y65.2 I-0.073 J-0.596
G1 X82.374 Y39.577
G3 X82.953 Y39 I0.6 J0.023
G1 X85.168
X85.323 Y39.008
X85.551 Y39.038
X85.786 Y39.088
X86.053 Y39.168
X86.344 Y39.281
X86.649 Y39.429
X86.989 Y39.63
X87.33 Y39.869
X87.715 Y40.189
X88.088 Y40.553
X88.491 Y41.015
X88.909 Y41.579
X89.314 Y42.231
X89.721 Y43.018
X90.063 Y43.835
X90.35 Y44.674
X90.587 Y45.527
X90.78 Y46.392
X90.933 Y47.265
X91.049 Y48.144
X91.131 Y49.026
X91.182 Y49.911
X91.202 Y50.796
X91.195 Y51.683
X91.161 Y52.568
X91.101 Y53.452
X91.017 Y54.334
X90.909 Y55.214
X90.78 Y56.09
X90.628 Y56.964
X90.456 Y57.833
X90.264 Y58.698
X90.052 Y59.558
X89.821 Y60.414
X89.572 Y61.264
X89.304 Y62.109
X89.017 Y62.947
X88.709 Y63.778
X88.545 Y64.147
X88.407 Y64.389
X88.224 Y64.598
X88.003 Y64.768
X87.754 Y64.89
X87.485 Y64.961
X84.812 Y65.384
G3 X84.139 Y64.778 I-0.073 J-0.596
G1 X84.589 Y39.589
G3 X85.168 Y39 I0.6 J0.011
G1 X87.383
X87.544 Y39.008
X87.772 Y39.038
X88.009 Y39.089
X88.276 Y39.169
X88.57 Y39.283
X88.874 Y39.431
X89.218 Y39.633
X89.559 Y39.873
X89.947 Y40.195
X90.322 Y40.561
X90.729 Y41.027
X91.15 Y41.595
X91.56 Y42.256
X91.967 Y43.043
X92.31 Y43.86
X92.599 Y44.698
X92.839 Y45.551
X93.035 Y46.415
X93.192 Y47.287
X93.313 Y48.165
X93.4 Y49.047
X93.457 Y49.931
X93.485 Y50.817
Y51.703
X93.459 Y52.588
X93.409 Y53.473
X93.334 Y54.356
X93.237 Y55.237
X93.117 Y56.115
X92.977 Y56.99
X92.817 Y57.861
X92.637 Y58.729
X92.438 Y59.593
X92.221 Y60.452
X91.985 Y61.306
X91.731 Y62.155
X91.456 Y62.997
X91.194 Y63.68
X91.153 Y63.767
X91.013 Y63.998
X90.831 Y64.199
X90.615 Y64.36
X90.371 Y64.477
X90.109 Y64.545
X87.485 Y64.961
G3 X86.811 Y64.365 I-0.073 J-0.596
G1 X86.804 Y39.6
G3 X87.383 Y39 I0.6 J0
G1 X89.598
X89.771 Y39.009
X90 Y39.039
X90.238 Y39.09
X90.505 Y39.17
X90.801 Y39.285
X91.106 Y39.433
X91.453 Y39.637
X91.794 Y39.877
X92.185 Y40.201
X92.562 Y40.569
X92.972 Y41.039
X93.396 Y41.612
X93.812 Y42.28
X94.218 Y43.067
X94.562 Y43.884
X94.853 Y44.721
X95.095 Y45.573
X95.294 Y46.437
X95.455 Y47.308
X95.581 Y48.185
X95.673 Y49.067
X95.736 Y49.951
X95.77 Y50.836
X95.777 Y51.722
X95.759 Y52.608
X95.717 Y53.493
X95.651 Y54.377
X95.563 Y55.259
X95.454 Y56.138
X95.324 Y57.015
X95.175 Y57.888
X95.006 Y58.758
X94.819 Y59.624
X94.614 Y60.486
X94.391 Y61.344
X94.146 Y62.195
X93.884 Y62.995
X93.758 Y63.296
X93.622 Y63.545
X93.439 Y63.762
X93.215 Y63.938
X92.961 Y64.064
X92.686 Y64.137
X90.109 Y64.545
G3 X89.436 Y63.96 I-0.073 J-0.596
G1 X89.019 Y39.61
G3 X89.598 Y39 I0.6 J-0.01
G1 X91.813
X92.005 Y39.01
X92.234 Y39.04
X92.473 Y39.091
X92.741 Y39.171
X93.039 Y39.287
X93.343 Y39.435
X93.693 Y39.641
X94.035 Y39.881
X94.428 Y40.207
X94.807 Y40.577
X95.22 Y41.05
X95.647 Y41.628
X96.068 Y42.303
X96.474 Y43.091
X96.819 Y43.907
X97.111 Y44.744
X97.356 Y45.595
X97.558 Y46.458
X97.722 Y47.329
X97.852 Y48.205
X97.95 Y49.086
X98.017 Y49.97
X98.057 Y50.855
X98.071 Y51.741
X98.06 Y52.627
X98.026 Y53.512
X97.968 Y54.397
X97.889 Y55.279
X97.789 Y56.16
X97.669 Y57.038
X97.53 Y57.913
X97.372 Y58.785
X97.196 Y59.653
X97.001 Y60.518
X96.787 Y61.377
X96.545 Y62.23
X96.327 Y62.84
X96.289 Y62.925
X96.151 Y63.165
X95.969 Y63.374
X95.748 Y63.542
X95.499 Y63.664
X95.231 Y63.734
X92.686 Y64.137
G3 X92.013 Y63.561 I-0.073 J-0.596
G1 X91.234 Y39.619
G3 X91.813 Y39 I0.6 J-0.02
G1 X94.028
X94.244 Y39.011
X94.473 Y39.041
X94.714 Y39.092
X94.981 Y39.173
X95.282 Y39.289
X95.586 Y39.437
X95.938 Y39.644
X96.281 Y39.885
X96.676 Y40.213
X97.057 Y40.585
X97.473 Y41.062
X97.904 Y41.644
X98.328 Y42.326
X98.735 Y43.114
X99.081 Y43.929
X99.374 Y44.765
X99.621 Y45.617
X99.826 Y46.479
X99.993 Y47.349
X100.127 Y48.225
X100.229 Y49.105
X100.302 Y49.988
X100.347 Y50.873
X100.367 Y51.759
X100.363 Y52.645
X100.335 Y53.531
X100.286 Y54.416
X100.215 Y55.299
X100.123 Y56.18
X100.012 Y57.059
X99.883 Y57.936
X99.734 Y58.81
X99.568 Y59.68
X99.381 Y60.546
X99.169 Y61.407
X98.951 Y62.139
X98.826 Y62.461
X98.693 Y62.72
X98.509 Y62.946
X98.282 Y63.129
X98.022 Y63.262
X97.74 Y63.337
X95.231 Y63.734
G3 X94.559 Y63.167 I-0.073 J-0.596
G1 X93.449 Y39.628
G3 X94.028 Y39 I0.599 J-0.028
G1 X96.243
X96.488 Y39.012
X96.717 Y39.042
X96.96 Y39.094
X97.227 Y39.174
X97.53 Y39.292
X97.835 Y39.44
X98.188 Y39.648
X98.533 Y39.89
X98.929 Y40.219
X99.312 Y40.593
X99.731 Y41.073
X100.164 Y41.659
X100.593 Y42.348
X101 Y43.135
X101.346 Y43.951
X101.641 Y44.787
X101.89 Y45.637
X102.097 Y46.499
X102.268 Y47.368
X102.405 Y48.244
X102.511 Y49.123
X102.589 Y50.006
X102.64 Y50.891
X102.665 Y51.776
X102.667 Y52.663
X102.646 Y53.548
X102.604 Y54.434
X102.541 Y55.317
X102.457 Y56.2
X102.355 Y57.08
X102.233 Y57.958
X102.094 Y58.833
X101.934 Y59.704
X101.751 Y60.571
X101.534 Y61.43
X101.34 Y62.011
X101.299 Y62.108
X101.163 Y62.356
X100.979 Y62.571
X100.756 Y62.745
X100.503 Y62.871
X100.23 Y62.943
X97.74 Y63.337
G3 X97.068 Y62.778 I-0.073 J-0.596
G1 X95.665 Y39.636
G3 X96.243 Y39 I0.599 J-0.036
G1 X98.458
X98.738 Y39.014
X98.967 Y39.044
X99.211 Y39.096
X99.478 Y39.176
X99.782 Y39.295
X100.088 Y39.443
X100.443 Y39.652
X100.789 Y39.895
X101.187 Y40.225
X101.571 Y40.601
X101.993 Y41.084
X102.429 Y41.674
X102.862 Y42.369
X103.268 Y43.157
X103.616 Y43.972
X103.912 Y44.807
X104.162 Y45.657
X104.373 Y46.518
X104.546 Y47.387
X104.687 Y48.262
X104.797 Y49.141
X104.879 Y50.023
X104.934 Y50.908
X104.965 Y51.793
X104.973 Y52.679
X104.958 Y53.565
X104.923 Y54.451
X104.866 Y55.335
X104.791 Y56.218
X104.696 Y57.099
X104.582 Y57.978
X104.448 Y58.854
X104.292 Y59.726
X104.107 Y60.593
X103.915 Y61.295
X103.787 Y61.647
X103.657 Y61.915
X103.472 Y62.149
X103.242 Y62.339
X102.978 Y62.476
X102.69 Y62.553
X100.23 Y62.943
G3 X99.558 Y62.391 I-0.073 J-0.596
G1 X97.88 Y39.644
G3 X98.458 Y39 I0.598 J-0.044
G1 X100.673
X100.992 Y39.016
X101.221 Y39.046
X101.467 Y39.099
X101.734 Y39.179
X102.04 Y39.298
X102.345 Y39.446
X102.702 Y39.656
X103.049 Y39.9
X103.448 Y40.231
X103.835 Y40.608
X104.259 Y41.095
X104.698 Y41.688
X105.135 Y42.39
X105.541 Y43.177
X105.889 Y43.992
X106.186 Y44.827
X106.439 Y45.676
X106.651 Y46.537
X106.827 Y47.405
X106.971 Y48.279
X107.085 Y49.158
X107.171 Y50.04
X107.231 Y50.924
X107.267 Y51.81
X107.28 Y52.696
X107.271 Y53.582
X107.242 Y54.467
X107.192 Y55.352
X107.123 Y56.236
X107.035 Y57.117
X106.927 Y57.997
X106.797 Y58.873
X106.64 Y59.745
X106.446 Y60.606
X106.269 Y61.174
X106.216 Y61.305
X106.082 Y61.56
X105.898 Y61.782
X105.672 Y61.962
X105.415 Y62.092
X105.136 Y62.166
X102.69 Y62.553
G3 X102.019 Y62.009 I-0.073 J-0.596
G1 X100.096 Y39.651
G3 X100.673 Y39 I0.598 J-0.051
G1 X103.089
X103.242 Y39.008
X103.47 Y39.038
X103.719 Y39.091
X103.987 Y39.171
X104.295 Y39.291
X104.601 Y39.44
X104.959 Y39.65
X105.31 Y39.897
X105.71 Y40.229
X106.1 Y40.609
X106.527 Y41.099
X106.969 Y41.696
X107.41 Y42.404
X107.816 Y43.192
X108.165 Y44.007
X108.463 Y44.841
X108.717 Y45.69
X108.932 Y46.55
X109.111 Y47.417
X109.258 Y48.291
X109.375 Y49.17
X109.465 Y50.051
X109.53 Y50.935
X109.57 Y51.82
X109.589 Y52.706
X109.586 Y53.592
X109.562 Y54.478
X109.519 Y55.363
X109.455 Y56.247
X109.372 Y57.129
X109.268 Y58.009
X109.138 Y58.886
X108.976 Y59.757
X108.802 Y60.45
X108.668 Y60.847
X108.54 Y61.123
X108.356 Y61.365
X108.123 Y61.561
X107.854 Y61.702
X107.561 Y61.782
X105.136 Y62.166
G3 X104.466 Y61.623 I-0.073 J-0.596
G1 X102.512 Y39.653
G3 X103.089 Y39 I0.598 J-0.053
G1 X105.304
X105.508 Y39.01
X105.737 Y39.04
X105.986 Y39.094
X106.253 Y39.174
X106.562 Y39.294
X106.869 Y39.443
X107.227 Y39.653
X107.579 Y39.901
X107.98 Y40.233
X108.371 Y40.616
X108.801 Y41.108
X109.245 Y41.708
X109.689 Y42.422
X110.095 Y43.21
X110.445 Y44.024
X110.744 Y44.858
X111 Y45.706
X111.217 Y46.566
X111.398 Y47.433
X111.548 Y48.306
X111.668 Y49.184
X111.762 Y50.065
X111.831 Y50.949
X111.876 Y51.834
X111.899 Y52.72
X111.901 Y53.606
X111.882 Y54.492
X111.844 Y55.377
X111.785 Y56.261
X111.705 Y57.144
X111.602 Y58.024
X111.468 Y58.9
X111.297 Y59.751
X111.135 Y60.318
X111.063 Y60.509
X110.931 Y60.773
X110.747 Y61.003
X110.518 Y61.189
X110.256 Y61.324
X109.971 Y61.4
X107.561 Y61.782
G3 X106.891 Y61.246 I-0.073 J-0.596
G1 X104.728 Y39.659
G3 X105.304 Y39 I0.597 J-0.06
G1 X107.519
X107.776 Y39.013
X108.005 Y39.043
X108.255 Y39.096
X108.523 Y39.176
X108.832 Y39.297
X109.14 Y39.446
X109.498 Y39.657
X109.852 Y39.906
X110.253 Y40.239
X110.647 Y40.623
X111.078 Y41.118
X111.524 Y41.721
X111.972 Y42.44
X112.378 Y43.227
X112.728 Y44.042
X113.029 Y44.875
X113.286 Y45.723
X113.504 Y46.582
X113.688 Y47.449
X113.841 Y48.322
X113.964 Y49.199
X114.061 Y50.08
X114.134 Y50.963
X114.183 Y51.848
X114.21 Y52.734
X114.217 Y53.62
X114.202 Y54.506
X114.168 Y55.391
X114.112 Y56.276
X114.034 Y57.158
X113.928 Y58.038
X113.786 Y58.913
X113.627 Y59.608
X113.463 Y60.127
X113.449 Y60.164
X113.314 Y60.418
X113.13 Y60.639
X112.905 Y60.817
X112.648 Y60.947
X112.37 Y61.02
X109.971 Y61.4
G3 X109.302 Y60.871 I-0.073 J-0.596
G1 X106.944 Y39.666
G3 X107.519 Y39 I0.596 J-0.066
G1 X109.734
X110.048 Y39.016
X110.277 Y39.046
X110.528 Y39.099
X110.795 Y39.18
X111.106 Y39.3
X111.414 Y39.45
X111.772 Y39.661
X112.129 Y39.911
X112.53 Y40.244
X112.926 Y40.631
X113.359 Y41.128
X113.807 Y41.733
X114.258 Y42.458
X114.665 Y43.245
X115.015 Y44.059
X115.316 Y44.893
X115.575 Y45.74
X115.795 Y46.598
X115.981 Y47.465
X116.136 Y48.337
X116.262 Y49.214
X116.363 Y50.095
X116.438 Y50.978
X116.491 Y51.862
X116.522 Y52.748
X116.533 Y53.634
X116.522 Y54.52
X116.49 Y55.406
X116.436 Y56.29
X116.355 Y57.172
X116.243 Y58.051
X116.092 Y58.897
X115.944 Y59.463
X115.852 Y59.724
X115.723 Y59.995
X115.538 Y60.233
X115.307 Y60.426
X115.04 Y60.565
X114.75 Y60.644
X112.37 Y61.02
G3 X111.702 Y60.498 I-0.073 J-0.596
G1 X109.159 Y39.672
G3 X109.734 Y39 I0.596 J-0.073
G1 X112.15
X112.313 Y39.008
X112.542 Y39.038
X112.796 Y39.092
X113.063 Y39.173
X113.376 Y39.294
X113.685 Y39.444
X114.044 Y39.655
X114.404 Y39.909
X114.805 Y40.241
X115.205 Y40.631
X115.641 Y41.131
X116.091 Y41.74
X116.546 Y42.47
X116.952 Y43.258
X117.303 Y44.071
X117.605 Y44.904
X117.865 Y45.752
X118.087 Y46.609
X118.275 Y47.475
X118.433 Y48.347
X118.562 Y49.224
X118.665 Y50.104
X118.744 Y50.987
X118.801 Y51.871
X118.835 Y52.756
X118.848 Y53.642
X118.84 Y54.529
X118.81 Y55.414
X118.754 Y56.299
X118.67 Y57.181
X118.547 Y58.058
X118.401 Y58.765
X118.248 Y59.288
X118.212 Y59.384
X118.079 Y59.646
X117.895 Y59.874
X117.667 Y60.059
X117.406 Y60.192
X117.123 Y60.268
X114.75 Y60.644
G3 X114.081 Y60.121 I-0.073 J-0.596
G1 X111.576 Y39.673
G3 X112.15 Y39 I0.596 J-0.073
G1 X114.365
X114.595 Y39.011
X114.823 Y39.041
X115.078 Y39.096
X115.345 Y39.176
X115.657 Y39.298
X115.967 Y39.448
X116.326 Y39.659
X116.688 Y39.913
X117.089 Y40.246
X117.49 Y40.637
X117.928 Y41.139
X118.38 Y41.751
X118.837 Y42.486
X119.244 Y43.273
X119.595 Y44.087
X119.898 Y44.919
X120.159 Y45.766
X120.383 Y46.623
X120.573 Y47.489
X120.732 Y48.361
X120.864 Y49.237
X120.97 Y50.117
X121.052 Y50.999
X121.111 Y51.883
X121.148 Y52.769
X121.163 Y53.655
X121.156 Y54.541
X121.125 Y55.426
X121.066 Y56.31
X120.973 Y57.192
X120.84 Y58.041
X120.7 Y58.621
X120.594 Y58.947
X120.467 Y59.226
X120.282 Y59.471
X120.049 Y59.67
X119.778 Y59.813
X119.482 Y59.894
X117.123 Y60.268
G3 X116.455 Y59.751 I-0.073 J-0.596
G1 X113.792 Y39.679
G3 X114.365 Y39 I0.595 J-0.079
G1 X116.58
X116.877 Y39.015
X117.106 Y39.045
X117.361 Y39.099
X117.628 Y39.179
X117.941 Y39.301
X118.252 Y39.452
X118.61 Y39.663
X118.974 Y39.919
X119.375 Y40.251
X119.778 Y40.645
X120.217 Y41.148
X120.672 Y41.762
X121.132 Y42.502
X121.538 Y43.289
X121.89 Y44.102
X121.915 Y44.172
X121.962 Y44.328
X121.99 Y44.489
X122 Y44.652
G3 X120.966 Y45.045 I-0.6 J-0.021
G1 X116.167 Y40.014
G3 X116.58 Y39 I0.434 J-0.414
G1 X118.997
X119.153 Y39.008
X119.382 Y39.038
X119.639 Y39.093
X119.907 Y39.173
X120.22 Y39.295
X120.533 Y39.447
X120.891 Y39.658
X121.259 Y39.916
X121.494 Y40.111
X121.707 Y40.332
X121.867 Y40.593
X121.966 Y40.884
X122 Y41.189
G3 X121.071 Y41.669 I-0.6 J-0.021
G1 X118.688 Y40.101
G3 X118.997 Y39 I0.33 J-0.501
G1 X121.121
X121.292 Y39.009
X121.517 Y39.072
X121.715 Y39.196
X121.869 Y39.372
X121.966 Y39.584
X122 Y39.815
G3 X121.76 Y40.397 I-0.901 J-0.031
X120.54 Y39.265 I-0.61 J-0.566
X121.121 Y39 I0.61 J0.566
G1 X121.413 Y39.001
X121.514 Y39.015
X121.564 Y39.029
X121.615 Y39.047
X121.698 Y39.091
X121.782 Y39.151
X121.816 Y39.181
X121.856 Y39.224
X121.889 Y39.266
X121.94 Y39.352
X121.961 Y39.402
X121.978 Y39.452
X121.997 Y39.553
X122 Y39.754
Y58.46
X121.983 Y58.789
X121.92 Y59.031
X121.796 Y59.249
X121.622 Y59.428
X121.408 Y59.557
X121.168 Y59.627
G3 X120.57 Y58.741 I-0.073 J-0.596
G1 X120.876 Y58.189
G3 X121.4 Y57.881 I0.525 J0.291
X122 Y58.46 I0 J0.6
G1 Y58.862
X121.993 Y59.063
X121.969 Y59.164
X121.95 Y59.214
X121.925 Y59.264
X121.879 Y59.335
X121.816 Y59.406
X121.743 Y59.465
X121.679 Y59.507
X121.615 Y59.539
X121.564 Y59.557
X121.514 Y59.571
X121.413 Y59.589
X119.482 Y59.894
X118.997 Y59.772
X118.735 Y59.66
X115.372 Y58.226
X40.465 Y46.103
X35.23 Y45.689
X14.892 Y44.508
G3 X13.684 Y44.14 I0.101 J-2.498
G1 X-5.244 Y31.91
G3 X-4.438 Y29 I0.861 J-1.328
G1 X1.401
X2.047 Y29.032
X2.678 Y29.115
X3.471 Y29.285
X4.32 Y29.539
X5.15 Y29.849
X5.964 Y30.2
X6.26 Y30.343
X6.505 Y30.495
X6.713 Y30.694
X6.877 Y30.931
X6.988 Y31.196
X7.043 Y31.478
G3 X6.231 Y32.072 I-0.599 J0.032
G1 X1.209 Y30.16
G3 X1.401 Y29 I0.213 J-0.561
G1 X5.831
X6.046 Y29.011
X6.301 Y29.076
X6.532 Y29.2
X6.728 Y29.375
X6.876 Y29.591
X6.969 Y29.837
X7 Y30.098
G3 X6.006 Y30.529 I-0.6 J-0.021
G1 X5.458 Y30.052
G3 X5.831 Y29 I0.394 J-0.453
G1 X6.234
X6.435 Y29.002
X6.536 Y29.018
X6.586 Y29.033
X6.636 Y29.053
X6.712 Y29.094
X6.775 Y29.14
X6.838 Y29.2
X6.878 Y29.248
X6.91 Y29.295
X6.938 Y29.345
X6.96 Y29.395
X6.977 Y29.446
X6.989 Y29.496
X7 Y29.597
Y30.904
X7.01 Y31.105
X7.046 Y31.507
X7.067 Y31.709
X7.147 Y32.312
X7.223 Y32.825
X7.237 Y32.915
X7.289 Y33.116
X7.355 Y33.318
X7.43 Y33.519
X7.629 Y33.998
X7.643 Y34.375
X7.393 Y34.697
X7.37 Y34.726
X-86.122 Y74.349
G2 X-87.386 Y75.355 I0.841 J2.354
G1 X-88.205 Y76.529
G3 X-89.456 Y77.142 I-1.251 J-0.97
G1 X-89.615 Y77.134
X-90.856 Y76.964
X-91.024 Y76.94
X-91.83 Y76.813
X-92.057 Y76.766
X-92.279 Y76.7
X-92.506 Y76.613
X-92.769 Y76.487
X-93.031 Y76.334
X-93.324 Y76.131
X-93.62 Y75.888
X-93.936 Y75.582
X-94.256 Y75.219
X-94.588 Y74.775
X-94.907 Y74.268
X-95.232 Y73.644
X-95.544 Y72.909
X-95.823 Y72.068
X-96.034 Y71.208
X-96.187 Y70.335
X-96.287 Y69.454
X-96.34 Y68.57
X-96.352 Y67.684
X-96.326 Y66.798
X-96.265 Y65.914
X-96.17 Y65.033
X-96.045 Y64.156
X-95.891 Y63.283
X-95.71 Y62.416
X-95.503 Y61.554
X-95.272 Y60.699
X-95.017 Y59.85
X-94.74 Y59.008
X-94.44 Y58.174
X-94.12 Y57.348
X-93.779 Y56.53
X-93.42 Y55.72
X-93.041 Y54.919
X-92.645 Y54.127
X-92.23 Y53.343
X-91.799 Y52.569
X-91.35 Y51.805
X-90.886 Y51.05
X-90.405 Y50.306
X-89.909 Y49.572
X-89.397 Y48.849
X-88.871 Y48.136
X-88.33 Y47.434
X-87.775 Y46.743
X-87.207 Y46.063
X-86.625 Y45.394
X-86.031 Y44.737
X-85.424 Y44.092
X-84.804 Y43.458
X-84.174 Y42.836
X-83.531 Y42.225
X-82.878 Y41.627
X-82.213 Y41.04
X-81.539 Y40.466
X-80.854 Y39.903
X-80.159 Y39.353
X-79.455 Y38.815
X-78.742 Y38.29
X-78.019 Y37.777
X-77.288 Y37.276
X-76.548 Y36.789
X-75.8 Y36.314
X-75.044 Y35.851
X-74.281 Y35.401
X-73.51 Y34.964
X-72.732 Y34.539
X-71.948 Y34.127
X-71.157 Y33.727
X-70.36 Y33.34
X-69.557 Y32.965
X-68.748 Y32.603
X-67.934 Y32.253
X-67.115 Y31.915
X-66.291 Y31.588
X-65.463 Y31.274
X-64.63 Y30.971
X-63.793 Y30.68
X-62.952 Y30.401
X-62.108 Y30.132
X-61.26 Y29.875
X-60.408 Y29.629
X-59.554 Y29.394
X-58.697 Y29.17
X-57.837 Y28.956
X-56.975 Y28.752
X-56.11 Y28.558
X-55.243 Y28.375
X-54.374 Y28.201
X-53.503 Y28.037
X-52.631 Y27.881
X-51.757 Y27.735
X-50.882 Y27.598
X-50.005 Y27.469
X-49.127 Y27.348
X-48.248 Y27.235
X-47.368 Y27.129
X-46.488 Y27.031
X-45.606 Y26.94
X-44.724 Y26.856
X-43.918 Y26.785
X-43.603 Y26.794
X-43.299 Y26.874
X-43.022 Y27.022
X-42.785 Y27.229
