(RumpfR_innen)
(Bearbeiten)
(  Hersteller: ChinaCnc)
(  model: 3040T)
(  description: Generic 3-axis)
(T5  D=3.175 CR=0 - ZMIN=-30.2 - Schaftfraser)
G90 G94
G17
G21
G28 G91 Z0
G90

(2D Adaptive17)
T5
S6000 M3
G54
G0 X-300.208 Y192.551
Z15
Z5
Z-5.365
G1 Z-5.682 F1000
X-300.209 Y192.543 Z-5.753
X-300.21 Y192.52 Z-5.82
X-300.212 Y192.482 Z-5.88
X-300.215 Y192.432 Z-5.931
X-300.219 Y192.371 Z-5.969
X-300.223 Y192.304 Z-5.992
X-300.227 Y192.234 Z-6
G3 X-299.892 Y190.52 I3.513 J-0.204
G1 X-299.793 Y190.329
X-299.718 Y190.2
X-299.593 Y190.116
X-299.46 Y190.045
X-299.292 Y189.971
X-299.078 Y189.898
X-298.804 Y189.827
X-298.439 Y189.765
X-297.928 Y189.718
X-297.286 Y189.712
X-296.644 Y189.747
X-296.604 Y189.75
X-296.391 Y189.802
X-296.202 Y189.915
X-296.054 Y190.077
X-295.961 Y190.276
X-295.93 Y190.493
X-295.964 Y190.71
G3 X-296.277 Y190.921 I-0.299 J-0.106
G1 X-296.657 Y190.905
X-299.361 Y190.79
X-299.52 Y190.783
G3 X-299.793 Y190.329 I0.014 J-0.317
G1 X-299.48 Y189.725
X-299.404 Y189.596
X-299.309 Y189.48
X-299.201 Y189.375
X-299.076 Y189.274
X-298.938 Y189.179
X-298.761 Y189.077
X-298.54 Y188.973
X-298.292 Y188.879
X-297.966 Y188.785
X-297.668 Y188.725
X-297.384 Y188.691
X-297.162 Y188.682
X-296.95 Y188.691
X-296.748 Y188.715
X-296.582 Y188.75
X-296.407 Y188.8
X-296.247 Y188.861
X-296.111 Y188.925
X-296.027 Y188.974
X-295.869 Y189.096
X-295.749 Y189.256
X-295.677 Y189.442
X-295.657 Y189.64
X-295.69 Y189.837
G3 X-295.977 Y190.049 I-0.299 J-0.106
G1 X-296.384 Y190.065
X-299.047 Y190.173
X-299.18 Y190.179
G3 X-299.48 Y189.725 I-0.013 J-0.317
G1 X-298.991 Y188.783
X-298.915 Y188.653
X-298.825 Y188.533
X-298.723 Y188.423
X-298.608 Y188.318
X-298.478 Y188.217
X-298.326 Y188.118
X-298.159 Y188.027
X-297.979 Y187.947
X-297.781 Y187.878
X-297.573 Y187.823
X-297.355 Y187.784
X-297.131 Y187.762
X-296.905 Y187.759
X-296.688 Y187.773
X-296.486 Y187.802
X-296.288 Y187.847
X-296.125 Y187.899
X-295.956 Y187.967
X-295.807 Y188.042
X-295.732 Y188.088
X-295.579 Y188.211
X-295.464 Y188.37
X-295.395 Y188.554
X-295.376 Y188.749
X-295.41 Y188.943
X-295.497 Y189.222
G3 X-295.818 Y189.434 I-0.299 J-0.106
G1 X-296.19 Y189.408
X-298.559 Y189.247
X-298.726 Y189.236
G3 X-298.991 Y188.783 I0.022 J-0.317
G1 X-298.497 Y187.83
X-298.421 Y187.7
X-298.334 Y187.578
X-298.234 Y187.466
X-298.123 Y187.365
X-298.004 Y187.274
X-297.874 Y187.192
X-297.725 Y187.113
X-297.558 Y187.041
X-297.381 Y186.982
X-297.191 Y186.934
X-296.989 Y186.901
X-296.778 Y186.883
X-296.561 Y186.882
X-296.354 Y186.898
X-296.158 Y186.929
X-295.968 Y186.974
X-295.81 Y187.026
X-295.645 Y187.096
X-295.501 Y187.17
X-295.446 Y187.205
X-295.296 Y187.329
X-295.183 Y187.487
X-295.116 Y187.669
X-295.098 Y187.863
X-295.131 Y188.055
X-295.41 Y188.943
G3 X-295.814 Y189.137 I-0.299 J-0.106
G1 X-296.085 Y189.042
X-298.076 Y188.349
X-298.314 Y188.266
G3 X-298.497 Y187.83 I0.104 J-0.3
G1 X-298.001 Y186.875
X-297.926 Y186.745
X-297.833 Y186.627
X-297.726 Y186.522
X-297.61 Y186.427
X-297.485 Y186.343
X-297.35 Y186.268
X-297.197 Y186.199
X-297.035 Y186.14
X-296.858 Y186.092
X-296.671 Y186.057
X-296.472 Y186.036
X-296.268 Y186.031
X-296.072 Y186.042
X-295.888 Y186.068
X-295.702 Y186.108
X-295.547 Y186.156
X-295.388 Y186.219
X-295.244 Y186.29
X-295.185 Y186.325
X-295.03 Y186.448
X-294.914 Y186.607
X-294.843 Y186.792
X-294.824 Y186.988
X-294.858 Y187.183
X-295.131 Y188.055
G3 X-295.551 Y188.243 I-0.299 J-0.106
G1 X-295.801 Y188.14
X-297.586 Y187.407
X-297.835 Y187.305
G3 X-298.001 Y186.875 I0.121 J-0.294
G1 X-297.547 Y186
X-297.472 Y185.87
X-297.377 Y185.754
X-297.268 Y185.65
X-297.15 Y185.558
X-297.023 Y185.478
X-296.888 Y185.407
X-296.743 Y185.346
X-296.584 Y185.294
X-296.413 Y185.252
X-296.231 Y185.223
X-296.042 Y185.208
X-295.855 Y185.209
X-295.682 Y185.223
X-295.499 Y185.254
X-295.343 Y185.292
X-295.193 Y185.343
X-295.042 Y185.407
X-294.91 Y185.477
X-294.898 Y185.484
X-294.75 Y185.609
X-294.64 Y185.767
X-294.574 Y185.948
X-294.557 Y186.14
X-294.59 Y186.33
X-294.858 Y187.183
G3 X-295.287 Y187.367 I-0.299 J-0.106
G1 X-295.525 Y187.261
X-297.135 Y186.54
X-297.39 Y186.426
G3 X-297.547 Y186 I0.13 J-0.29
G1 X-297.135 Y185.205
X-297.06 Y185.075
X-296.969 Y184.956
X-296.864 Y184.849
X-296.748 Y184.754
X-296.623 Y184.672
X-296.49 Y184.601
X-296.352 Y184.542
X-296.203 Y184.492
X-296.042 Y184.452
X-295.871 Y184.424
X-295.693 Y184.41
X-295.521 Y184.409
X-295.361 Y184.422
X-295.192 Y184.449
X-295.045 Y184.485
X-294.903 Y184.532
X-294.759 Y184.593
X-294.695 Y184.626
X-294.528 Y184.745
X-294.4 Y184.907
X-294.321 Y185.097
X-294.298 Y185.301
X-294.331 Y185.504
X-294.59 Y186.33
G3 X-295.02 Y186.514 I-0.299 J-0.106
G1 X-295.257 Y186.407
X-296.723 Y185.746
X-296.979 Y185.631
G3 X-297.135 Y185.205 I0.131 J-0.289
G1 X-296.716 Y184.396
X-296.64 Y184.266
X-296.549 Y184.147
X-296.443 Y184.041
X-296.325 Y183.948
X-296.199 Y183.867
X-296.065 Y183.799
X-295.926 Y183.743
X-295.78 Y183.698
X-295.626 Y183.664
X-295.465 Y183.642
X-295.312 Y183.633
X-295.148 Y183.637
X-294.991 Y183.653
X-294.844 Y183.68
X-294.698 Y183.721
X-294.557 Y183.772
X-294.421 Y183.835
X-294.415 Y183.839
X-294.257 Y183.961
X-294.138 Y184.121
X-294.066 Y184.306
X-294.046 Y184.505
X-294.079 Y184.701
X-294.331 Y185.504
G3 X-294.769 Y185.685 I-0.299 J-0.106
G1 X-294.995 Y185.576
X-296.307 Y184.943
X-296.567 Y184.818
G3 X-296.716 Y184.396 I0.138 J-0.286
G1 X-296.303 Y183.601
X-296.228 Y183.472
X-296.135 Y183.354
X-296.027 Y183.25
X-295.907 Y183.159
X-295.778 Y183.082
X-295.643 Y183.018
X-295.502 Y182.966
X-295.357 Y182.927
X-295.205 Y182.899
X-295.056 Y182.884
X-294.906 Y182.881
X-294.753 Y182.891
X-294.604 Y182.914
X-294.459 Y182.949
X-294.316 Y182.997
X-294.248 Y183.027
X-294.064 Y183.141
X-293.922 Y183.303
X-293.832 Y183.5
X-293.803 Y183.714
X-293.837 Y183.928
X-294.079 Y184.701
G3 X-294.526 Y184.877 I-0.299 J-0.106
G1 X-294.74 Y184.765
X-295.899 Y184.157
X-296.164 Y184.019
G3 X-296.303 Y183.601 I0.147 J-0.281
G1 X-295.905 Y182.833
X-295.829 Y182.703
X-295.734 Y182.587
X-295.624 Y182.485
X-295.503 Y182.397
X-295.372 Y182.323
X-295.235 Y182.263
X-295.092 Y182.216
X-294.946 Y182.182
X-294.798 Y182.162
X-294.648 Y182.155
X-294.498 Y182.16
X-294.349 Y182.18
X-294.203 Y182.213
X-294.06 Y182.259
X-294.016 Y182.279
X-293.831 Y182.393
X-293.688 Y182.555
X-293.598 Y182.752
X-293.568 Y182.966
X-293.602 Y183.18
X-293.837 Y183.928
G3 X-294.295 Y184.097 I-0.299 J-0.106
G1 X-294.492 Y183.983
X-295.506 Y183.4
X-295.777 Y183.244
G3 X-295.905 Y182.833 I0.158 J-0.275
G1 X-295.524 Y182.099
X-295.449 Y181.969
X-295.353 Y181.854
X-295.242 Y181.753
X-295.118 Y181.668
X-294.986 Y181.597
X-294.847 Y181.541
X-294.703 Y181.498
X-294.556 Y181.47
X-294.406 Y181.457
X-294.256 Y181.458
X-294.107 Y181.473
X-293.96 Y181.504
X-293.817 Y181.548
X-293.795 Y181.557
X-293.609 Y181.67
X-293.464 Y181.833
X-293.373 Y182.03
X-293.343 Y182.246
X-293.377 Y182.461
X-293.602 Y183.18
G3 X-294.071 Y183.344 I-0.299 J-0.106
G1 X-294.254 Y183.229
X-295.132 Y182.676
X-295.406 Y182.504
G3 X-295.524 Y182.099 I0.169 J-0.269
G1 X-295.169 Y181.414
X-295.093 Y181.284
X-295 Y181.167
X-294.889 Y181.066
X-294.766 Y180.98
X-294.633 Y180.91
X-294.494 Y180.855
X-294.349 Y180.816
X-294.201 Y180.793
X-294.051 Y180.786
X-293.901 Y180.794
X-293.753 Y180.818
X-293.608 Y180.857
X-293.6 Y180.861
X-293.407 Y180.971
X-293.256 Y181.134
X-293.16 Y181.334
X-293.127 Y181.554
X-293.161 Y181.773
X-293.377 Y182.461
G3 X-293.852 Y182.62 I-0.299 J-0.106
G1 X-294.025 Y182.504
X-294.782 Y181.999
X-295.059 Y181.814
G3 X-295.169 Y181.414 I0.176 J-0.264
G1 X-294.806 Y180.714
X-294.73 Y180.585
X-294.632 Y180.471
X-294.518 Y180.375
X-294.391 Y180.295
X-294.255 Y180.231
X-294.112 Y180.185
X-293.965 Y180.157
X-293.815 Y180.144
X-293.665 Y180.15
X-293.517 Y180.172
X-293.476 Y180.183
X-293.292 Y180.259
X-293.134 Y180.381
X-293.015 Y180.541
X-292.943 Y180.726
X-292.923 Y180.925
X-292.956 Y181.121
X-293.161 Y181.773
G3 X-293.654 Y181.919 I-0.299 J-0.106
G1 X-293.801 Y181.806
X-294.433 Y181.318
X-294.713 Y181.102
G3 X-294.837 Y180.851 I0.194 J-0.251
G1 Y180.85
X-294.829 Y180.781
X-294.806 Y180.714
X-294.467 Y180.06
X-294.391 Y179.93
X-294.29 Y179.819
X-294.173 Y179.726
X-294.043 Y179.651
X-293.904 Y179.595
X-293.758 Y179.557
X-293.61 Y179.539
X-293.46
X-293.311 Y179.557
X-293.294 Y179.561
X-293.107 Y179.635
X-292.946 Y179.756
X-292.824 Y179.917
X-292.75 Y180.104
X-292.729 Y180.304
X-292.762 Y180.503
X-292.956 Y181.121
G3 X-293.467 Y181.253 I-0.299 J-0.106
G1 X-293.589 Y181.145
X-294.109 Y180.683
X-294.391 Y180.434
G3 X-294.467 Y180.06 I0.211 J-0.238
G1 X-294.158 Y179.464
X-294.082 Y179.335
X-293.983 Y179.223
X-293.865 Y179.13
X-293.733 Y179.058
X-293.592 Y179.006
X-293.446 Y178.976
X-293.296 Y178.965
X-293.244 Y178.968
X-293.026 Y179.015
X-292.832 Y179.125
X-292.679 Y179.288
X-292.582 Y179.488
X-292.549 Y179.709
X-292.583 Y179.929
X-292.762 Y180.503
G3 X-293.285 Y180.623 I-0.299 J-0.106
G1 X-293.39 Y180.52
X-293.814 Y180.102
X-294.094 Y179.827
G3 X-294.158 Y179.464 I0.223 J-0.226
G1 X-293.867 Y178.903
X-293.791 Y178.773
X-293.691 Y178.661
X-293.571 Y178.572
X-293.437 Y178.505
X-293.293 Y178.461
X-293.145 Y178.439
X-293.119
X-292.893 Y178.476
X-292.688 Y178.581
X-292.525 Y178.743
X-292.42 Y178.948
X-292.383 Y179.174
X-292.417 Y179.402
X-292.583 Y179.929
G3 X-293.119 Y180.035 I-0.299 J-0.106
G1 X-293.203 Y179.94
X-293.542 Y179.559
X-293.817 Y179.25
G3 X-293.867 Y178.903 I0.237 J-0.211
G1 X-293.581 Y178.352
X-293.505 Y178.222
X-293.397 Y178.118
X-293.27 Y178.039
X-293.13 Y177.985
X-293.124 Y177.984
X-292.906 Y177.973
X-292.693 Y178.026
X-292.506 Y178.138
X-292.359 Y178.301
X-292.266 Y178.499
X-292.236 Y178.716
X-292.27 Y178.932
G3 X-292.703 Y179.114 I-0.299 J-0.106
G1 X-292.935 Y179.006
X-293.17 Y178.896
X-293.428 Y178.776
G3 X-293.581 Y178.352 I0.134 J-0.288
G1 X-293.333 Y177.874
X-293.257 Y177.744
X-293.143 Y177.647
X-292.945 Y177.578
X-292.736 Y177.569
X-292.534 Y177.622
X-292.355 Y177.731
X-292.216 Y177.887
X-292.128 Y178.077
X-292.099 Y178.285
X-292.132 Y178.491
G3 X-292.597 Y178.657 I-0.299 J-0.106
G1 X-292.784 Y178.542
X-292.939 Y178.448
X-293.212 Y178.281
G3 X-293.333 Y177.874 I0.166 J-0.271
G1 X-293.139 Y177.5
X-293.063 Y177.37
X-292.952 Y177.269
X-292.82 Y177.197
X-292.616 Y177.169
X-292.413 Y177.205
X-292.23 Y177.3
X-292.085 Y177.447
X-291.992 Y177.631
X-291.959 Y177.835
X-291.99 Y178.039
X-292.417 Y179.402
G3 X-293.033 Y179.322 I-0.299 J-0.106
G1 X-293.118 Y178.278
X-293.168 Y177.662
Y177.606
X-293.158 Y177.552
X-293.139 Y177.5
X-292.934 Y177.105
X-292.858 Y176.975
X-292.747 Y176.875
X-292.546 Y176.812
X-292.336 Y176.82
X-292.14 Y176.895
X-291.98 Y177.031
X-291.873 Y177.212
X-291.832 Y177.419
X-291.86 Y177.627
X-291.875 Y177.66
X-291.893 Y177.692
G3 X-292.934 Y177.105 I-0.5 J-0.33
G1 X-292.749 Y176.748
X-292.673 Y176.618
X-292.559 Y176.52
X-292.425 Y176.454
X-292.219 Y176.443
X-292.023 Y176.504
X-291.859 Y176.629
X-291.748 Y176.803
X-291.702 Y177.004
X-291.729 Y177.208
X-291.753 Y177.261
G3 X-292.749 Y176.748 I-0.489 J-0.273
G1 X-292.556 Y176.377
X-292.481 Y176.247
X-292.365 Y176.152
X-292.19 Y176.107
X-292.009 Y176.121
X-291.842 Y176.192
X-291.707 Y176.313
X-291.618 Y176.471
X-291.585 Y176.649
X-291.61 Y176.828
X-291.634 Y176.879
G3 X-292.556 Y176.377 I-0.447 J-0.277
G1 X-292.389 Y176.053
X-292.313 Y175.924
X-292.197 Y175.829
X-292.005 Y175.786
X-291.811 Y175.817
X-291.643 Y175.918
X-291.524 Y176.075
X-291.472 Y176.264
X-291.494 Y176.459
X-291.516 Y176.506
G3 X-292.389 Y176.053 I-0.429 J-0.242
G1 X-292.219 Y175.727
X-292.144 Y175.597
X-292.025 Y175.505
X-291.847 Y175.473
X-291.669 Y175.507
X-291.516 Y175.605
X-291.409 Y175.751
X-291.363 Y175.927
X-291.384 Y176.107
X-291.404 Y176.151
G3 X-292.219 Y175.727 I-0.4 J-0.227
G1 X-292.045 Y175.391
X-291.97 Y175.262
X-291.796 Y175.196
X-291.61 Y175.205
X-291.443 Y175.287
X-291.321 Y175.427
X-291.265 Y175.605
X-291.284 Y175.79
X-291.3 Y175.825
X-291.323 Y175.857
G3 X-292.045 Y175.391 I-0.331 J-0.28
G1 X-291.917 Y175.144
X-291.841 Y175.014
X-291.719 Y174.927
X-291.566 Y174.907
X-291.415 Y174.944
X-291.288 Y175.031
X-291.199 Y175.158
X-291.162 Y175.308
X-291.181 Y175.461
X-291.198 Y175.5
G3 X-291.917 Y175.144 I-0.357 J-0.184
G1 X-291.766 Y174.852
X-291.69 Y174.723
X-291.539 Y174.663
X-291.378 Y174.668
X-291.231 Y174.738
X-291.125 Y174.86
X-291.075 Y175.014
X-291.091 Y175.175
X-291.109 Y175.212
G3 X-291.766 Y174.852 I-0.318 J-0.199
G1 X-291.628 Y174.587
X-291.59 Y174.522
X-291.476 Y174.426
X-291.315 Y174.407
X-291.161 Y174.459
X-291.044 Y174.572
X-290.987 Y174.723
X-291 Y174.885
X-291.016 Y174.918
G3 X-291.628 Y174.587 I-0.297 J-0.181
G1 X-291.537 Y174.412
X-291.508 Y174.365
X-291.488 Y174.342
X-291.465 Y174.318
X-291.428 Y174.29
X-291.389 Y174.269
X-291.354 Y174.255
X-291.318 Y174.245
X-291.282 Y174.24
X-291.246 Y174.239
X-291.215 Y174.241
X-291.183 Y174.247
X-291.151 Y174.256
X-291.12 Y174.269
X-291.101 Y174.279
X-291.066 Y174.301
X-291.031 Y174.33
G3 X-290.964 Y174.629 I-0.238 J0.21
G1 X-291.094 Y175.077
X-291.275 Y175.702
X-291.493 Y176.456
X-291.99 Y178.039
G3 X-292.59 Y178.036 I-0.299 J-0.106
G1 X-292.612 Y177.969 Z-5.992
X-292.634 Y177.906 Z-5.969
X-292.653 Y177.849 Z-5.931
X-292.67 Y177.801 Z-5.88
X-292.682 Y177.765 Z-5.82
X-292.69 Y177.743 Z-5.753
X-292.692 Y177.735 Z-5.682
G0 Z15
X-286.455 Y165.758
Z5
Z-5.365
G1 Z-5.682 F1000
X-286.462 Y165.762 Z-5.753
X-286.482 Y165.774 Z-5.82
X-286.515 Y165.794 Z-5.88
X-286.558 Y165.819 Z-5.931
X-286.61 Y165.85 Z-5.969
X-286.667 Y165.884 Z-5.992
X-286.728 Y165.92 Z-6
G3 X-288.404 Y166.413 I-1.798 J-3.024
G1 X-288.55
X-288.587 Y166.411
X-288.704 Y166.317
X-288.807 Y166.208
X-288.897 Y166.088
X-288.993 Y165.938
X-289.094 Y165.746
X-289.202 Y165.495
X-289.315 Y165.161
X-289.432 Y164.693
X-289.472 Y164.45
X-289.476 Y164.236
X-289.42 Y164.03
X-289.307 Y163.849
X-289.146 Y163.708
X-288.953 Y163.618
X-288.741 Y163.587
G3 X-288.436 Y163.877 I-0.011 J0.317
G1 X-288.408 Y164.201
X-288.268 Y165.799
X-288.244 Y166.067
G3 X-288.55 Y166.413 I-0.316 J0.028
G1 X-288.987
X-289.137 Y166.405
X-289.274 Y166.344
X-289.402 Y166.266
X-289.523 Y166.177
X-289.646 Y166.068
X-289.774 Y165.934
X-289.9 Y165.779
X-290.009 Y165.62
X-290.11 Y165.445
X-290.188 Y165.28
X-290.245 Y165.13
X-290.294 Y164.96
X-290.326 Y164.804
X-290.344 Y164.655
X-290.35 Y164.495
X-290.343 Y164.346
X-290.324 Y164.197
X-290.318 Y164.169
X-290.25 Y163.981
X-290.133 Y163.819
X-289.977 Y163.694
X-289.793 Y163.615
X-289.595 Y163.587
G3 X-289.3 Y163.82 I-0.011 J0.317
G1 X-289.197 Y164.19
X-288.749 Y165.806
X-288.692 Y166.01
G3 X-288.987 Y166.413 I-0.306 J0.085
G1 X-289.651
X-289.801 Y166.405
X-289.948 Y166.375
X-290.09 Y166.326
X-290.225 Y166.262
X-290.353 Y166.184
X-290.473 Y166.094
X-290.585 Y165.994
X-290.691 Y165.883
X-290.792 Y165.759
X-290.887 Y165.619
X-290.974 Y165.468
X-291.05 Y165.306
X-291.112 Y165.142
X-291.155 Y164.989
X-291.19 Y164.819
X-291.208 Y164.665
X-291.214 Y164.515
X-291.207 Y164.356
X-291.188 Y164.207
X-291.177 Y164.155
X-291.106 Y163.96
X-290.983 Y163.793
X-290.82 Y163.667
X-290.628 Y163.59
X-290.422 Y163.569
X-290.184 Y163.578
X-289.928 Y163.586
X-289.863 Y163.587
X-289.595
G3 X-289.289 Y163.913 I-0.011 J0.317
G1 X-289.296 Y164.202
X-289.337 Y165.798
X-289.345 Y166.103
G3 X-289.651 Y166.413 I-0.317 J-0.008
G1 X-289.863
X-290.3 Y166.407
X-290.526 Y166.403
X-290.676 Y166.393
X-290.823 Y166.364
X-290.966 Y166.316
X-291.101 Y166.252
X-291.229 Y166.174
X-291.349 Y166.084
X-291.46 Y165.983
X-291.564 Y165.873
X-291.664 Y165.749
X-291.757 Y165.611
X-291.843 Y165.459
X-291.918 Y165.297
X-291.978 Y165.132
X-292.022 Y164.977
X-292.056 Y164.803
X-292.074 Y164.646
X-292.078 Y164.496
X-292.07 Y164.335
X-292.051 Y164.187
X-292.034 Y164.112
X-291.962 Y163.918
X-291.839 Y163.751
X-291.675 Y163.625
X-291.482 Y163.549
X-291.276 Y163.53
X-290.422 Y163.569
G3 X-290.129 Y163.898 I-0.024 J0.317
G1 X-290.14 Y164.197
X-290.203 Y165.794
X-290.215 Y166.098
G3 X-290.526 Y166.403 I-0.317 J-0.012
G1 X-290.884 Y166.396
X-291.322 Y166.385
X-291.467 Y166.377
X-291.616 Y166.36
X-291.762 Y166.323
X-291.901 Y166.267
X-292.033 Y166.196
X-292.157 Y166.112
X-292.273 Y166.017
X-292.38 Y165.911
X-292.483 Y165.792
X-292.579 Y165.661
X-292.667 Y165.519
X-292.746 Y165.364
X-292.815 Y165.197
X-292.868 Y165.031
X-292.907 Y164.866
X-292.934 Y164.693
X-292.944 Y164.542
X-292.943 Y164.388
X-292.928 Y164.23
X-292.903 Y164.083
X-292.863 Y163.933
X-292.769 Y163.752
X-292.628 Y163.603
X-292.453 Y163.499
X-292.256 Y163.446
X-292.052 Y163.449
X-291.905 Y163.472
X-291.759 Y163.491
X-291.322 Y163.528
X-291.276 Y163.53
G3 X-290.985 Y163.869 I-0.026 J0.316
G1 X-291.006 Y164.158
X-291.123 Y165.779
X-291.145 Y166.083
G3 X-291.467 Y166.377 I-0.317 J-0.023
G1 X-291.905 Y166.349
X-292.343 Y166.319
X-292.513 Y166.289
X-292.658 Y166.252
X-292.797 Y166.195
X-292.928 Y166.123
X-293.051 Y166.037
X-293.166 Y165.94
X-293.271 Y165.833
X-293.37 Y165.715
X-293.462 Y165.586
X-293.547 Y165.442
X-293.625 Y165.285
X-293.691 Y165.117
X-293.745 Y164.941
X-293.782 Y164.771
X-293.804 Y164.611
X-293.813 Y164.437
X-293.809 Y164.284
X-293.794 Y164.135
X-293.764 Y163.979
X-293.724 Y163.834
X-293.708 Y163.79
X-293.61 Y163.608
X-293.465 Y163.46
X-293.286 Y163.358
X-293.085 Y163.309
X-292.879 Y163.318
X-292.78 Y163.336
X-292.489 Y163.382
X-292.052 Y163.449
G3 X-291.795 Y163.792 I-0.059 J0.312
G1 X-291.826 Y164.106
X-291.986 Y165.727
X-292.016 Y166.033
G3 X-292.343 Y166.319 I-0.316 J-0.031
G1 X-292.78 Y166.264
X-292.926 Y166.242
X-293.218 Y166.194
X-293.364 Y166.169
X-293.509 Y166.131
X-293.651 Y166.081
X-293.784 Y166.013
X-293.91 Y165.931
X-294.026 Y165.836
X-294.133 Y165.73
X-294.23 Y165.616
X-294.321 Y165.49
X-294.406 Y165.35
X-294.483 Y165.197
X-294.548 Y165.035
X-294.602 Y164.863
X-294.642 Y164.685
X-294.666 Y164.522
X-294.677 Y164.344
X-294.674 Y164.18
X-294.659 Y164.031
X-294.63 Y163.872
X-294.591 Y163.727
X-294.541 Y163.586
X-294.514 Y163.527
X-294.399 Y163.349
X-294.237 Y163.211
X-294.043 Y163.124
X-293.832 Y163.096
X-293.622 Y163.129
X-293.218 Y163.255
X-292.879 Y163.318
G3 X-292.634 Y163.681 I-0.068 J0.31
G1 X-292.684 Y163.979
X-292.959 Y165.614
X-293.008 Y165.907
G3 X-293.364 Y166.169 I-0.313 J-0.053
G1 X-293.656 Y166.107
X-293.827 Y166.049
X-293.948 Y166.007
X-294.239 Y165.901
X-294.385 Y165.847
X-294.531 Y165.787
X-294.667 Y165.722
X-294.794 Y165.644
X-294.912 Y165.551
X-295.019 Y165.446
X-295.115 Y165.331
X-295.201 Y165.207
X-295.277 Y165.075
X-295.344 Y164.934
X-295.402 Y164.781
X-295.45 Y164.616
X-295.486 Y164.442
X-295.507 Y164.272
X-295.513 Y164.112
X-295.506 Y163.937
X-295.488 Y163.784
X-295.458 Y163.637
X-295.413 Y163.483
X-295.36 Y163.343
X-295.295 Y163.208
X-295.292 Y163.203
X-295.169 Y163.048
X-295.01 Y162.932
X-294.826 Y162.862
X-294.63 Y162.842
X-294.435 Y162.876
X-293.622 Y163.129
G3 X-293.425 Y163.53 I-0.105 J0.3
G1 X-293.518 Y163.806
X-294.031 Y165.329
X-294.119 Y165.591
G3 X-294.531 Y165.787 I-0.301 J-0.101
G1 X-294.823 Y165.666
X-294.937 Y165.612
X-295.51 Y165.321
X-295.64 Y165.247
X-295.759 Y165.156
X-295.867 Y165.051
X-295.962 Y164.935
X-296.045 Y164.81
X-296.117 Y164.679
X-296.176 Y164.541
X-296.226 Y164.393
X-296.265 Y164.237
X-296.292 Y164.075
X-296.307 Y163.906
X-296.308 Y163.755
X-296.295 Y163.593
X-296.272 Y163.442
X-296.237 Y163.296
X-296.188 Y163.152
X-296.129 Y163.014
X-296.113 Y162.984
X-295.993 Y162.818
X-295.832 Y162.692
X-295.643 Y162.614
X-295.44 Y162.591
X-295.239 Y162.625
X-294.435 Y162.876
G3 X-294.251 Y163.305 I-0.105 J0.3
G1 X-294.357 Y163.542
X-294.97 Y164.906
X-295.086 Y165.163
G3 X-295.51 Y165.321 I-0.29 J-0.13
G1 X-296.282 Y164.929
X-296.332 Y164.904
X-296.463 Y164.831
X-296.581 Y164.739
X-296.685 Y164.631
X-296.777 Y164.513
X-296.856 Y164.385
X-296.922 Y164.25
X-296.976 Y164.11
X-297.018 Y163.966
X-297.049 Y163.812
X-297.067 Y163.663
X-297.073 Y163.513
X-297.066 Y163.355
X-297.047 Y163.206
X-297.016 Y163.059
X-296.971 Y162.916
X-296.916 Y162.777
X-296.888 Y162.723
X-296.762 Y162.546
X-296.589 Y162.413
X-296.386 Y162.336
X-296.169 Y162.322
X-295.957 Y162.371
X-295.698 Y162.473
X-295.552 Y162.526
X-295.239 Y162.625
G3 X-295.061 Y163.068 I-0.105 J0.3
G1 X-295.171 Y163.286
X-295.782 Y164.49
X-295.918 Y164.759
G3 X-296.332 Y164.904 I-0.283 J-0.144
G1 X-296.72 Y164.718
X-296.984 Y164.593
X-297.092 Y164.543
X-297.224 Y164.472
X-297.343 Y164.381
X-297.448 Y164.274
X-297.54 Y164.155
X-297.618 Y164.027
X-297.683 Y163.892
X-297.734 Y163.751
X-297.774 Y163.606
X-297.801 Y163.459
X-297.816 Y163.309
X-297.817 Y163.159
X-297.807 Y163.009
X-297.784 Y162.861
X-297.747 Y162.715
X-297.698 Y162.574
X-297.637 Y162.436
X-297.615 Y162.398
X-297.485 Y162.23
X-297.313 Y162.106
X-297.112 Y162.036
X-296.9 Y162.025
X-296.694 Y162.076
X-295.99 Y162.358
X-295.957 Y162.371
G3 X-295.806 Y162.816 I-0.127 J0.291
G1 X-295.93 Y163.04
X-296.534 Y164.125
X-296.69 Y164.405
G3 X-297.092 Y164.543 I-0.277 J-0.154
G1 X-297.303 Y164.444
X-297.821 Y164.213
X-297.955 Y164.145
X-298.075 Y164.056
X-298.182 Y163.95
X-298.275 Y163.832
X-298.353 Y163.705
X-298.419 Y163.57
X-298.471 Y163.429
X-298.51 Y163.284
X-298.536 Y163.137
X-298.55 Y162.987
X-298.551 Y162.837
X-298.539 Y162.688
X-298.515 Y162.54
X-298.477 Y162.394
X-298.426 Y162.253
X-298.364 Y162.117
X-298.348 Y162.09
X-298.216 Y161.924
X-298.044 Y161.803
X-297.843 Y161.735
X-297.632 Y161.726
X-297.427 Y161.778
X-296.952 Y161.972
X-296.694 Y162.076
G3 X-296.546 Y162.522 I-0.129 J0.29
G1 X-296.673 Y162.745
X-297.264 Y163.79
X-297.426 Y164.075
G3 X-297.821 Y164.213 I-0.276 J-0.156
G1 X-298.178 Y164.055
X-298.551 Y163.895
X-298.685 Y163.829
X-298.806 Y163.74
X-298.913 Y163.635
X-299.006 Y163.517
X-299.085 Y163.39
X-299.15 Y163.255
X-299.202 Y163.114
X-299.241 Y162.969
X-299.267 Y162.821
X-299.281 Y162.672
Y162.522
X-299.269 Y162.373
X-299.244 Y162.225
X-299.205 Y162.08
X-299.153 Y161.939
X-299.089 Y161.803
X-299.078 Y161.784
X-298.946 Y161.62
X-298.773 Y161.501
X-298.574 Y161.434
X-298.364 Y161.426
X-298.16 Y161.477
X-297.427 Y161.778
G3 X-297.282 Y162.225 I-0.131 J0.289
G1 X-297.409 Y162.447
X-297.994 Y163.467
X-298.16 Y163.757
G3 X-298.551 Y163.895 I-0.275 J-0.158
G1 X-299.054 Y163.679
X-299.295 Y163.574
X-299.429 Y163.507
X-299.549 Y163.416
X-299.654 Y163.309
X-299.746 Y163.191
X-299.823 Y163.062
X-299.886 Y162.926
X-299.937 Y162.785
X-299.974 Y162.64
X-299.998 Y162.491
X-300.01 Y162.342
X-300.009 Y162.192
X-299.994 Y162.043
X-299.967 Y161.895
X-299.926 Y161.751
X-299.872 Y161.611
X-299.806 Y161.476
X-299.803 Y161.472
X-299.67 Y161.313
X-299.498 Y161.197
X-299.301 Y161.133
X-299.094 Y161.126
X-298.893 Y161.177
X-298.16 Y161.477
G3 X-298.017 Y161.927 I-0.131 J0.289
G1 X-298.145 Y162.145
X-298.734 Y163.15
X-298.904 Y163.439
G3 X-299.295 Y163.574 I-0.274 J-0.161
G1 X-300.023 Y163.254
X-300.157 Y163.187
X-300.277 Y163.097
X-300.382 Y162.99
X-300.473 Y162.871
X-300.55 Y162.742
X-300.614 Y162.606
X-300.664 Y162.465
X-300.7 Y162.32
X-300.724 Y162.171
X-300.735 Y162.022
X-300.733 Y161.872
X-300.717 Y161.723
X-300.689 Y161.575
X-300.646 Y161.432
X-300.591 Y161.292
X-300.56 Y161.231
X-300.432 Y161.051
X-300.257 Y160.917
X-300.05 Y160.84
X-299.83 Y160.827
X-299.615 Y160.881
X-299.054 Y161.111
X-298.893 Y161.177
G3 X-298.75 Y161.628 I-0.131 J0.289
G1 X-298.878 Y161.845
X-299.461 Y162.831
X-299.632 Y163.121
G3 X-300.023 Y163.254 I-0.273 J-0.162
G1 X-300.739 Y162.94
X-300.873 Y162.873
X-300.994 Y162.784
X-301.1 Y162.678
X-301.192 Y162.56
X-301.27 Y162.432
X-301.334 Y162.296
X-301.384 Y162.155
X-301.421 Y162.009
X-301.445 Y161.861
X-301.455 Y161.711
X-301.452 Y161.561
X-301.436 Y161.412
X-301.407 Y161.265
X-301.363 Y161.122
X-301.308 Y160.982
X-301.276 Y160.921
X-301.146 Y160.741
X-300.968 Y160.608
X-300.76 Y160.534
X-300.538 Y160.524
X-300.324 Y160.58
X-299.929 Y160.75
X-299.615 Y160.881
G3 X-299.474 Y161.331 I-0.132 J0.289
G1 X-299.603 Y161.549
X-300.177 Y162.518
X-300.348 Y162.807
G3 X-300.739 Y162.94 I-0.273 J-0.162
G1 X-301.242 Y162.719
X-301.468 Y162.61
X-301.6 Y162.538
X-301.72 Y162.449
X-301.826 Y162.342
X-301.917 Y162.223
X-301.993 Y162.093
X-302.055 Y161.957
X-302.104 Y161.815
X-302.139 Y161.669
X-302.16 Y161.521
X-302.168 Y161.371
X-302.162 Y161.221
X-302.144 Y161.072
X-302.112 Y160.926
X-302.065 Y160.783
X-302.007 Y160.645
X-301.981 Y160.598
X-301.85 Y160.424
X-301.673 Y160.296
X-301.467 Y160.225
X-301.249 Y160.217
X-301.038 Y160.273
X-300.324 Y160.58
G3 X-300.188 Y161.032 I-0.136 J0.287
G1 X-300.32 Y161.249
X-300.899 Y162.203
X-301.069 Y162.484
G3 X-301.468 Y162.61 I-0.271 J-0.165
G1 X-301.826 Y162.437
X-302.182 Y162.263
X-302.313 Y162.19
X-302.433 Y162.101
X-302.538 Y161.994
X-302.629 Y161.874
X-302.704 Y161.744
X-302.765 Y161.607
X-302.812 Y161.465
X-302.845 Y161.319
X-302.865 Y161.17
X-302.87 Y161.02
X-302.862 Y160.87
X-302.841 Y160.722
X-302.805 Y160.576
X-302.756 Y160.434
X-302.694 Y160.298
X-302.674 Y160.263
X-302.537 Y160.092
X-302.356 Y159.969
X-302.147 Y159.904
X-301.927 Y159.903
X-301.717 Y159.966
X-301.388 Y160.121
X-301.038 Y160.273
G3 X-300.904 Y160.727 I-0.136 J0.287
G1 X-301.036 Y160.94
X-301.608 Y161.86
X-301.783 Y162.141
G3 X-302.182 Y162.263 I-0.27 J-0.168
G1 X-302.927 Y161.898
X-303.059 Y161.826
X-303.174 Y161.73
X-303.274 Y161.618
X-303.359 Y161.494
X-303.428 Y161.362
X-303.484 Y161.222
X-303.525 Y161.078
X-303.552 Y160.93
X-303.566 Y160.781
Y160.631
X-303.552 Y160.482
X-303.524 Y160.334
X-303.482 Y160.19
X-303.426 Y160.051
X-303.359 Y159.917
X-303.346 Y159.898
X-303.205 Y159.736
X-303.023 Y159.622
X-302.816 Y159.565
X-302.602 Y159.569
X-302.398 Y159.635
X-301.826 Y159.915
X-301.717 Y159.966
G3 X-301.545 Y160.248 I-0.145 J0.282
G1 X-301.552 Y160.312
X-301.571 Y160.372
X-301.601 Y160.428
X-301.741 Y160.631
X-302.341 Y161.504
X-302.536 Y161.788
G3 X-302.927 Y161.898 I-0.262 J-0.18
G1 X-303.285 Y161.723
X-303.577 Y161.578
X-303.656 Y161.535
X-303.782 Y161.454
X-303.894 Y161.354
X-303.99 Y161.239
X-304.071 Y161.113
X-304.137 Y160.978
X-304.188 Y160.837
X-304.225 Y160.691
X-304.248 Y160.543
X-304.257 Y160.393
X-304.252 Y160.244
X-304.233 Y160.095
X-304.201 Y159.948
X-304.154 Y159.806
X-304.094 Y159.668
X-304.06 Y159.606
X-303.923 Y159.428
X-303.739 Y159.299
X-303.524 Y159.231
X-303.299
X-303.085 Y159.298
X-302.398 Y159.635
G3 X-302.29 Y160.101 I-0.15 J0.28
G1 X-302.433 Y160.299
X-303.058 Y161.165
X-303.254 Y161.437
G3 X-303.656 Y161.535 I-0.257 J-0.186
G1 X-304.373 Y161.129
X-304.499 Y161.048
X-304.607 Y160.944
X-304.699 Y160.825
X-304.775 Y160.696
X-304.835 Y160.559
X-304.881 Y160.416
X-304.912 Y160.269
X-304.929 Y160.12
X-304.931 Y159.97
X-304.919 Y159.82
X-304.894 Y159.673
X-304.853 Y159.528
X-304.8 Y159.388
X-304.733 Y159.254
X-304.702 Y159.204
X-304.554 Y159.035
X-304.362 Y158.917
X-304.144 Y158.863
X-303.919 Y158.877
X-303.709 Y158.957
X-303.285 Y159.199
X-303.085 Y159.298
G3 X-302.984 Y159.773 I-0.15 J0.28
G1 X-303.127 Y159.956
X-303.763 Y160.771
X-303.976 Y161.043
G3 X-304.373 Y161.129 I-0.25 J-0.195
G1 X-305.035 Y160.753
X-305.162 Y160.673
X-305.271 Y160.57
X-305.364 Y160.452
X-305.441 Y160.323
X-305.501 Y160.186
X-305.547 Y160.043
X-305.577 Y159.896
X-305.593 Y159.747
X-305.595 Y159.597
X-305.582 Y159.448
X-305.556 Y159.3
X-305.515 Y159.156
X-305.46 Y159.016
X-305.392 Y158.882
X-305.358 Y158.827
X-305.21 Y158.658
X-305.017 Y158.541
X-304.799 Y158.487
X-304.574 Y158.501
X-304.364 Y158.582
X-303.709 Y158.957
G3 X-303.63 Y159.428 I-0.167 J0.27
G1 X-303.785 Y159.618
X-304.421 Y160.4
X-304.642 Y160.672
G3 X-305.035 Y160.753 I-0.246 J-0.2
G1 X-305.473 Y160.505
X-305.709 Y160.37
X-305.835 Y160.288
X-305.943 Y160.184
X-306.034 Y160.065
X-306.109 Y159.935
X-306.168 Y159.797
X-306.211 Y159.653
X-306.24 Y159.506
X-306.254 Y159.357
Y159.207
X-306.239 Y159.057
X-306.211 Y158.91
X-306.169 Y158.766
X-306.113 Y158.627
X-306.044 Y158.494
X-306.008 Y158.438
X-305.855 Y158.268
X-305.657 Y158.153
X-305.434 Y158.103
X-305.207 Y158.123
X-304.996 Y158.212
X-304.89 Y158.279
X-304.803 Y158.331
X-304.364 Y158.582
G3 X-304.287 Y159.055 I-0.167 J0.27
G1 X-304.442 Y159.241
X-305.091 Y160.022
X-305.315 Y160.292
G3 X-305.709 Y160.37 I-0.244 J-0.203
G1 X-305.765 Y160.337
X-305.911 Y160.249
X-306.383 Y159.95
X-306.506 Y159.864
X-306.611 Y159.758
X-306.7 Y159.637
X-306.772 Y159.505
X-306.827 Y159.366
X-306.867 Y159.221
X-306.893 Y159.073
X-306.903 Y158.924
X-306.899 Y158.774
X-306.88 Y158.625
X-306.848 Y158.478
X-306.801 Y158.336
X-306.74 Y158.199
X-306.668 Y158.067
X-306.625 Y158.007
X-306.467 Y157.843
X-306.267 Y157.734
X-306.042 Y157.692
X-305.816 Y157.719
X-305.608 Y157.815
X-305.271 Y158.039
X-305.181 Y158.098
X-304.996 Y158.212
G3 X-304.934 Y158.685 I-0.177 J0.264
G1 X-305.096 Y158.87
X-305.755 Y159.624
X-305.984 Y159.885
G3 X-306.383 Y159.95 I-0.239 J-0.209
G1 X-307.012 Y159.553
X-307.135 Y159.467
X-307.243 Y159.363
X-307.334 Y159.244
X-307.408 Y159.113
X-307.465 Y158.974
X-307.506 Y158.83
X-307.532 Y158.682
X-307.543 Y158.533
X-307.54 Y158.383
X-307.522 Y158.234
X-307.491 Y158.087
X-307.446 Y157.944
X-307.386 Y157.806
X-307.315 Y157.675
X-307.231 Y157.55
X-307.217 Y157.534
X-307.056 Y157.392
X-306.861 Y157.301
X-306.648 Y157.271
X-306.435 Y157.303
X-306.241 Y157.395
X-305.608 Y157.815
G3 X-305.555 Y158.283 I-0.185 J0.258
G1 X-305.723 Y158.474
X-306.384 Y159.227
X-306.614 Y159.488
G3 X-307.012 Y159.553 I-0.239 J-0.21
G1 X-307.661 Y159.143
X-307.784 Y159.057
X-307.891 Y158.952
X-307.98 Y158.831
X-308.053 Y158.7
X-308.109 Y158.561
X-308.149 Y158.416
X-308.174 Y158.268
X-308.184 Y158.118
X-308.181 Y157.968
X-308.163 Y157.819
X-308.131 Y157.673
X-308.086 Y157.53
X-308.028 Y157.392
X-307.956 Y157.26
X-307.872 Y157.136
X-307.856 Y157.117
X-307.695 Y156.972
X-307.5 Y156.88
X-307.286 Y156.849
X-307.072 Y156.881
X-306.876 Y156.973
X-306.241 Y157.395
G3 X-306.188 Y157.863 I-0.185 J0.258
G1 X-306.356 Y158.054
X-307.032 Y158.818
X-307.264 Y159.079
G3 X-307.661 Y159.143 I-0.238 J-0.21
G1 X-308.024 Y158.913
X-308.328 Y158.718
X-308.45 Y158.63
X-308.553 Y158.522
X-308.639 Y158.399
X-308.708 Y158.265
X-308.76 Y158.125
X-308.798 Y157.98
X-308.82 Y157.831
X-308.828 Y157.682
X-308.823 Y157.532
X-308.803 Y157.383
X-308.769 Y157.237
X-308.722 Y157.094
X-308.662 Y156.957
X-308.589 Y156.826
X-308.504 Y156.702
X-308.49 Y156.686
X-308.329 Y156.544
X-308.134 Y156.455
X-307.921 Y156.425
X-307.709 Y156.457
X-307.515 Y156.548
X-306.876 Y156.973
G3 X-306.826 Y157.444 I-0.185 J0.258
G1 X-306.994 Y157.629
X-307.695 Y158.399
X-307.931 Y158.659
G3 X-308.328 Y158.718 I-0.235 J-0.214
G1 X-308.975 Y158.302
X-309.096 Y158.214
X-309.199 Y158.105
X-309.284 Y157.982
X-309.353 Y157.848
X-309.406 Y157.708
X-309.443 Y157.562
X-309.465 Y157.414
X-309.472 Y157.264
X-309.467 Y157.114
X-309.447 Y156.965
X-309.414 Y156.819
X-309.367 Y156.677
X-309.307 Y156.539
X-309.234 Y156.408
X-309.15 Y156.284
X-309.133 Y156.264
X-308.972 Y156.121
X-308.778 Y156.03
X-308.565 Y155.999
X-308.353 Y156.03
X-308.158 Y156.121
X-307.515 Y156.548
G3 X-307.465 Y157.02 I-0.185 J0.258
G1 X-307.633 Y157.205
X-308.341 Y157.983
X-308.577 Y158.242
G3 X-308.975 Y158.302 I-0.235 J-0.214
G1 X-309.608 Y157.894
X-309.73 Y157.806
X-309.835 Y157.699
X-309.922 Y157.577
X-309.992 Y157.444
X-310.046 Y157.304
X-310.085 Y157.159
X-310.108 Y157.011
X-310.117 Y156.861
X-310.114 Y156.711
X-310.096 Y156.562
X-310.064 Y156.416
X-310.019 Y156.273
X-309.961 Y156.134
X-309.89 Y156.002
X-309.807 Y155.877
X-309.784 Y155.849
X-309.624 Y155.702
X-309.428 Y155.609
X-309.213 Y155.575
X-308.998 Y155.606
X-308.802 Y155.697
X-308.158 Y156.121
G3 X-308.105 Y156.591 I-0.184 J0.259
G1 X-308.272 Y156.779
X-308.978 Y157.573
X-309.209 Y157.832
G3 X-309.608 Y157.894 I-0.237 J-0.211
G1 X-309.85 Y157.738
X-310.142 Y157.556
X-310.222 Y157.506
X-310.345 Y157.421
X-310.455 Y157.318
X-310.546 Y157.199
X-310.621 Y157.069
X-310.68 Y156.931
X-310.723 Y156.788
X-310.751 Y156.64
X-310.765 Y156.491
Y156.341
X-310.752 Y156.192
X-310.724 Y156.044
X-310.684 Y155.9
X-310.63 Y155.759
X-310.563 Y155.625
X-310.484 Y155.498
X-310.445 Y155.446
X-310.286 Y155.29
X-310.088 Y155.189
X-309.869 Y155.151
X-309.649 Y155.18
X-309.447 Y155.273
X-308.802 Y155.697
G3 X-308.743 Y156.162 I-0.184 J0.259
G1 X-308.911 Y156.36
X-309.599 Y157.173
X-309.822 Y157.436
G3 X-310.222 Y157.506 I-0.242 J-0.205
G1 X-310.301 Y157.457
X-310.433 Y157.377
X-310.871 Y157.122
X-310.997 Y157.04
X-311.106 Y156.937
X-311.198 Y156.818
X-311.274 Y156.689
X-311.334 Y156.552
X-311.379 Y156.408
X-311.408 Y156.261
X-311.424 Y156.112
X-311.427 Y155.962
X-311.416 Y155.813
X-311.39 Y155.665
X-311.353 Y155.519
X-311.303 Y155.378
X-311.239 Y155.242
X-311.164 Y155.113
X-311.136 Y155.074
X-310.986 Y154.918
X-310.798 Y154.812
X-310.588 Y154.765
X-310.373 Y154.78
X-310.171 Y154.857
X-309.558 Y155.2
X-309.447 Y155.273
G3 X-309.387 Y155.735 I-0.183 J0.259
G1 X-309.554 Y155.936
X-310.253 Y156.776
X-310.477 Y157.045
G3 X-310.871 Y157.122 I-0.244 J-0.203
G1 X-311.544 Y156.729
X-311.67 Y156.647
X-311.777 Y156.542
X-311.868 Y156.423
X-311.943 Y156.293
X-312.002 Y156.155
X-312.047 Y156.012
X-312.077 Y155.865
X-312.093 Y155.715
X-312.095 Y155.565
X-312.084 Y155.416
X-312.06 Y155.268
X-312.023 Y155.122
X-311.972 Y154.981
X-311.908 Y154.846
X-311.832 Y154.716
X-311.813 Y154.689
X-311.672 Y154.542
X-311.497 Y154.439
X-311.3 Y154.388
X-311.097 Y154.392
X-310.903 Y154.451
X-310.871 Y154.465
X-310.171 Y154.857
G3 X-310.088 Y155.327 I-0.165 J0.272
G1 X-310.241 Y155.518
X-310.931 Y156.379
X-311.146 Y156.648
G3 X-311.544 Y156.729 I-0.248 J-0.199
G1 X-312.184 Y156.355
X-312.31 Y156.273
X-312.421 Y156.173
X-312.517 Y156.057
X-312.595 Y155.93
X-312.659 Y155.793
X-312.707 Y155.651
X-312.74 Y155.505
X-312.759 Y155.356
X-312.765 Y155.206
X-312.757 Y155.057
X-312.735 Y154.908
X-312.701 Y154.762
X-312.653 Y154.62
X-312.591 Y154.484
X-312.579 Y154.462
X-312.449 Y154.294
X-312.277 Y154.169
X-312.076 Y154.099
X-311.863 Y154.089
X-311.657 Y154.139
X-311.163 Y154.338
X-311.016 Y154.398
X-310.903 Y154.451
G3 X-310.79 Y154.923 I-0.143 J0.284
G1 X-310.928 Y155.111
X-311.581 Y155.997
X-311.778 Y156.264
G3 X-312.184 Y156.355 I-0.256 J-0.188
G1 X-312.293 Y156.292
X-312.768 Y156.03
X-312.825 Y156
X-312.956 Y155.927
X-313.071 Y155.831
X-313.17 Y155.718
X-313.252 Y155.593
X-313.32 Y155.458
X-313.371 Y155.318
X-313.409 Y155.172
X-313.432 Y155.024
X-313.44 Y154.874
X-313.434 Y154.725
X-313.413 Y154.576
X-313.378 Y154.43
X-313.329 Y154.288
X-313.316 Y154.26
X-313.201 Y154.081
X-313.04 Y153.943
X-312.846 Y153.856
X-312.635 Y153.827
X-312.425 Y153.859
X-312.184 Y153.933
X-312.097 Y153.962
X-311.657 Y154.139
G3 X-311.526 Y154.613 I-0.129 J0.29
G1 X-311.656 Y154.795
X-312.234 Y155.612
X-312.435 Y155.895
G3 X-312.825 Y156 I-0.259 J-0.184
G1 X-313.497 Y155.666
X-313.628 Y155.593
X-313.743 Y155.497
X-313.843 Y155.385
X-313.926 Y155.26
X-313.993 Y155.126
X-314.046 Y154.985
X-314.083 Y154.84
X-314.104 Y154.691
X-314.11 Y154.542
X-314.101 Y154.392
X-314.076 Y154.244
X-314.066 Y154.209
X-313.975 Y154.004
X-313.827 Y153.835
X-313.635 Y153.719
X-313.417 Y153.666
X-313.192 Y153.68
G3 X-312.955 Y154.009 I-0.079 J0.308
G1 X-312.978 Y154.353
X-313.037 Y155.226
X-313.049 Y155.399
G3 X-313.497 Y155.666 I-0.317 J-0.022
G1 X-313.789 Y155.521
X-313.935 Y155.454
X-314.161 Y155.353
X-314.295 Y155.285
X-314.411 Y155.19
X-314.51 Y155.078
X-314.594 Y154.953
X-314.66 Y154.819
X-314.709 Y154.677
X-314.742 Y154.531
X-314.758 Y154.382
X-314.755 Y154.232
X-314.737 Y154.081
X-314.649 Y153.87
X-314.501 Y153.695
X-314.306 Y153.574
X-314.083 Y153.518
X-313.855 Y153.533
G3 X-313.619 Y153.868 I-0.08 J0.307
G1 X-313.648 Y154.207
X-313.709 Y154.895
X-313.726 Y155.087
G3 X-314.161 Y155.353 I-0.316 J-0.028
G1 X-314.227 Y155.324
X-314.757 Y155.099
X-314.892 Y155.033
X-315.014 Y154.947
X-315.12 Y154.84
X-315.208 Y154.719
X-315.277 Y154.586
X-315.328 Y154.445
X-315.36 Y154.298
X-315.365 Y154.241
X-315.352 Y154.03
X-315.279 Y153.832
X-315.154 Y153.662
X-314.985 Y153.534
X-314.788 Y153.459
X-314.73 Y153.454
G3 X-314.413 Y153.745 I0 J0.317
G1 X-314.392 Y153.999
X-314.339 Y154.633
X-314.326 Y154.776
G3 X-314.757 Y155.099 I-0.316 J0.027
G1 X-315.102 Y154.952
X-315.248 Y154.894
X-315.394 Y154.838
X-315.531 Y154.777
X-315.679 Y154.613
X-315.768 Y154.411
X-315.789 Y154.191
X-315.739 Y153.976
X-315.624 Y153.787
X-315.455 Y153.645
X-315.25 Y153.563
X-315.192 Y153.557
X-315.191
G3 X-314.877 Y153.922 I0 J0.317
G1 X-314.904 Y154.1
X-314.943 Y154.358
X-314.976 Y154.584
G3 X-315.394 Y154.838 I-0.314 J-0.047
G1 X-315.54 Y154.782
X-315.686 Y154.727
X-315.793 Y154.69
X-315.932 Y154.633
X-316.052 Y154.504
X-316.124 Y154.344
X-316.142 Y154.169
X-316.104 Y153.997
X-316.013 Y153.846
X-315.878 Y153.732
X-315.715 Y153.667
G3 X-315.458 Y153.687 I0.091 J0.484
X-315.793 Y154.69 I-0.179 J0.498
G1 X-316.172 Y154.558
X-316.311 Y154.501
X-316.403 Y154.374
X-316.445 Y154.222
X-316.431 Y154.065
X-316.362 Y153.923
X-316.247 Y153.815
X-316.102 Y153.753
X-316.034 Y153.747
X-315.966 Y153.753
X-315.9 Y153.771
G3 X-316.172 Y154.558 I-0.149 J0.389
G1 X-316.488 Y154.448
X-316.524 Y154.433
X-316.561 Y154.414
X-316.604 Y154.38
X-316.619 Y154.367
G3 X-316.612 Y154.076 I0.136 J-0.142
X-316.322 Y154.113 I0.128 J0.149
G1 X-316.314 Y154.125
G3 X-316.561 Y154.414 I-0.161 J0.112
G1 X-316.584 Y154.398
X-316.625 Y154.362
X-316.655 Y154.326
X-316.677 Y154.289
X-316.693 Y154.253
X-316.707 Y154.201
X-316.712 Y154.154
X-316.71 Y154.107
X-316.707 Y154.087
X-316.699 Y154.056
X-316.689 Y154.024
X-316.674 Y153.993
X-316.654 Y153.962
X-316.634 Y153.935
X-316.608 Y153.909
X-316.584 Y153.889
X-316.561 Y153.873
X-316.524 Y153.854
X-316.488 Y153.84
X-316.383 Y153.816
X-314.664 Y153.432
X-314.445 Y153.384
X-314.409 Y153.38
X-314.373
X-314.336 Y153.384
X-314.3 Y153.393
X-314.227 Y153.419
X-314.081 Y153.476
X-313.935 Y153.515
X-313.351 Y153.645
X-312.574 Y153.816
X-312.448 Y153.853
X-312.425 Y153.859
G3 X-312.424 Y154.459 I-0.103 J0.3
G1 X-312.491 Y154.483 Z-5.992
X-312.554 Y154.505 Z-5.969
X-312.611 Y154.525 Z-5.931
X-312.658 Y154.541 Z-5.88
X-312.694 Y154.554 Z-5.82
X-312.716 Y154.561 Z-5.753
X-312.724 Y154.564 Z-5.682
G0 Z15
X-59.325 Y160.85
Z5
Z-5.365
G1 Z-5.682 F1000
X-59.321 Y160.843 Z-5.753
X-59.31 Y160.823 Z-5.82
X-59.291 Y160.79 Z-5.88
X-59.266 Y160.746 Z-5.931
X-59.237 Y160.693 Z-5.969
X-59.204 Y160.635 Z-5.992
X-59.169 Y160.573 Z-6
G3 X-57.96 Y159.314 I3.063 J1.731
G1 X-57.632 Y159.126
X-57.486 Y159.045
X-56.756 Y158.654
X-56.565 Y158.564
X-56.273 Y158.453
X-55.873 Y158.338
X-55.286 Y158.219
X-54.649 Y158.142
X-54.008 Y158.097
X-53.367 Y158.071
X-52.725 Y158.056
X-52.082 Y158.047
X-51.44 Y158.042
X-50.798 Y158.039
X-49.514 Y158.036
X-46.303 Y158.035
X-42.698
X-42.469 Y158.071
X-42.262 Y158.176
X-42.098 Y158.34
X-41.993 Y158.546
X-41.957 Y158.775
G3 X-42.53 Y158.952 I-0.317 J-0.011
G1 X-42.572 Y158.895 Z-5.992
X-42.612 Y158.841 Z-5.969
X-42.647 Y158.792 Z-5.931
X-42.677 Y158.752 Z-5.88
X-42.699 Y158.721 Z-5.82
X-42.713 Y158.703 Z-5.753
X-42.718 Y158.696 Z-5.682
G0 Z5
X-57.48 Y159.477
Z-5.365
G1 Z-5.682 F1000
X-57.476 Y159.47 Z-5.753
X-57.464 Y159.45 Z-5.82
X-57.444 Y159.417 Z-5.88
X-57.418 Y159.374 Z-5.931
X-57.387 Y159.323 Z-5.969
X-57.353 Y159.265 Z-5.992
X-57.316 Y159.205 Z-6
G3 X-56.756 Y158.654 I1.355 J0.817
G1 X-54.714 Y157.561
X-54.568 Y157.49
X-54.276 Y157.358
X-53.939 Y157.224
X-53.544 Y157.103
X-52.982 Y156.98
X-52.345 Y156.893
X-51.705 Y156.841
X-51.064 Y156.811
X-50.422 Y156.792
X-49.78 Y156.781
X-49.138 Y156.774
X-48.496 Y156.77
X-47.211 Y156.767
X-44.642 Y156.765
X-44
X-43.446 Y156.772
X-43.136 Y156.801
X-42.859 Y156.85
X-42.652 Y156.904
X-42.438 Y156.978
X-42.392 Y156.998
X-42.205 Y157.117
X-42.061 Y157.285
X-41.974 Y157.489
X-41.95 Y157.709
G3 X-42.531 Y157.86 I-0.317 J-0.025
G1 X-42.57 Y157.802 Z-5.992
X-42.607 Y157.746 Z-5.969
X-42.641 Y157.696 Z-5.931
X-42.669 Y157.654 Z-5.88
X-42.69 Y157.622 Z-5.82
X-42.703 Y157.603 Z-5.753
X-42.707 Y157.596 Z-5.682
G0 Z5
X-55.052 Y158.132
Z-5.365
G1 Z-5.682 F1000
X-55.047 Y158.125 Z-5.753
X-55.034 Y158.106 Z-5.82
X-55.012 Y158.075 Z-5.88
X-54.983 Y158.034 Z-5.931
X-54.949 Y157.984 Z-5.969
X-54.911 Y157.929 Z-5.992
X-54.87 Y157.871 Z-6
G3 X-54.276 Y157.358 I1.299 J0.903
G1 X-52.227 Y156.425
X-51.796 Y156.233
X-51.65 Y156.17
X-51.212 Y156.003
X-50.769 Y155.858
X-50.258 Y155.737
X-49.623 Y155.638
X-48.983 Y155.58
X-48.342 Y155.546
X-47.7 Y155.525
X-47.058 Y155.513
X-46.416 Y155.506
X-45.774 Y155.501
X-45.132 Y155.498
X-44.49 Y155.499
X-43.848 Y155.518
X-43.345 Y155.57
X-43.007 Y155.633
X-42.71 Y155.714
X-42.498 Y155.79
X-42.285 Y155.886
X-42.22 Y155.922
X-42.067 Y156.035
X-41.948 Y156.182
X-41.87 Y156.355
X-41.838 Y156.542
X-41.855 Y156.731
X-41.884 Y156.863
X-41.906 Y157.008
X-41.929 Y157.3
X-41.939 Y157.445
X-41.95 Y157.709
G3 X-42.531 Y157.86 I-0.317 J-0.025
G1 X-42.57 Y157.802 Z-5.992
X-42.607 Y157.746 Z-5.969
X-42.641 Y157.696 Z-5.931
X-42.669 Y157.654 Z-5.88
X-42.69 Y157.622 Z-5.82
X-42.703 Y157.603 Z-5.753
X-42.707 Y157.596 Z-5.682
G0 Z5
X-52.035 Y156.727
Z-5.365
G1 Z-5.682 F1000
X-52.03 Y156.721 Z-5.753
X-52.015 Y156.702 Z-5.82
X-51.992 Y156.673 Z-5.88
X-51.96 Y156.633 Z-5.931
X-51.923 Y156.586 Z-5.969
X-51.881 Y156.533 Z-5.992
X-51.838 Y156.478 Z-6
G3 X-51.212 Y156.003 I1.241 J0.983
G1 X-49.024 Y155.168
X-48.878 Y155.113
X-48.732 Y155.06
X-47.51 Y154.677
X-46.888 Y154.516
X-46.257 Y154.396
X-45.619 Y154.326
X-44.978 Y154.29
X-44.336 Y154.288
X-43.739 Y154.323
X-43.258 Y154.391
X-42.868 Y154.479
X-42.564 Y154.573
X-42.337 Y154.664
X-42.124 Y154.77
X-41.953 Y154.873
X-41.791 Y154.99
X-41.662 Y155.132
X-41.573 Y155.302
X-41.532 Y155.489
X-41.54 Y155.681
X-41.596 Y155.864
X-41.653 Y155.988
X-41.702 Y156.134
X-41.784 Y156.425
X-41.82 Y156.571
X-41.855 Y156.731
G3 X-42.259 Y156.954 I-0.307 J-0.08
G1 X-42.515 Y156.872
X-47.501 Y155.279
G3 X-47.51 Y154.677 I0.097 J-0.302
G1 X-45.814 Y154.146
X-45.377 Y154.037
X-43.772 Y153.639
X-43.494 Y153.585
X-43.282 Y153.561
X-43.059 Y153.554
X-42.821 Y153.566
X-42.578 Y153.597
X-42.334 Y153.649
X-42.133 Y153.709
X-41.931 Y153.787
X-41.766 Y153.867
X-41.611 Y153.958
X-41.466 Y154.059
X-41.347 Y154.157
X-41.299 Y154.205
X-41.172 Y154.369
X-41.095 Y154.562
X-41.075 Y154.769
X-41.113 Y154.973
X-41.207 Y155.158
X-41.277 Y155.26
X-41.292 Y155.282
X-41.366 Y155.406
X-41.517 Y155.697
X-41.596 Y155.864
G3 X-42.103 Y155.948 I-0.284 J-0.142
G1 X-42.236 Y155.816
X-43.82 Y154.257
X-43.907 Y154.171
G3 X-43.772 Y153.639 I0.223 J-0.226
G1 X-42.896 Y153.423
X-42.75 Y153.393
X-42.459 Y153.336
X-42.313 Y153.309
X-42.087 Y153.268
X-41.938 Y153.249
X-41.788 Y153.245
X-41.638 Y153.256
X-41.491 Y153.283
X-41.347 Y153.324
X-41.207 Y153.379
X-41.074 Y153.449
X-40.949 Y153.531
X-40.896 Y153.574
X-40.754 Y153.723
X-40.657 Y153.905
X-40.613 Y154.106
X-40.624 Y154.312
X-40.69 Y154.507
X-40.805 Y154.677
G3 X-41.245 Y154.694 I-0.229 J-0.22
G1 X-41.468 Y154.496
X-42.166 Y153.873
X-42.231 Y153.815
G3 X-42.087 Y153.268 I0.211 J-0.237
G1 X-41.146 Y153.099
X-40.997 Y153.079
X-40.847 Y153.088
X-40.701 Y153.124
X-40.563 Y153.181
X-40.543 Y153.193
X-40.382 Y153.327
X-40.265 Y153.501
X-40.201 Y153.701
X-40.195 Y153.911
X-40.249 Y154.114
X-40.358 Y154.293
X-40.512 Y154.435
G3 X-40.964 Y154.314 I-0.17 J-0.268
G1 X-41.084 Y154.084
X-41.267 Y153.734
X-41.36 Y153.556
G3 X-41.146 Y153.099 I0.281 J-0.147
G1 X-40.562 Y152.993
X-40.413 Y152.974
X-40.264 Y152.989
X-40.079 Y153.09
X-39.936 Y153.243
X-39.847 Y153.433
X-39.822 Y153.642
X-39.863 Y153.848
X-39.967 Y154.031
X-40.122 Y154.172
X-40.185 Y154.205
X-40.251 Y154.229
X-40.32 Y154.246
G3 X-40.562 Y152.993 I-0.107 J-0.629
G1 X-40.08 Y152.907
X-39.931 Y152.887
X-39.785 Y152.92
X-39.625 Y153.043
X-39.516 Y153.213
X-39.472 Y153.41
X-39.499 Y153.61
X-39.593 Y153.788
X-39.742 Y153.924
X-39.793 Y153.95
X-39.848 Y153.968
X-39.905 Y153.978
G3 X-40.08 Y152.907 I-0.061 J-0.54
G1 X-39.978 Y152.888
X-39.833 Y152.865
X-39.687 Y152.844
X-39.537 Y152.829
X-39.378 Y152.905
X-39.254 Y153.03
X-39.182 Y153.191
X-39.17 Y153.367
X-39.219 Y153.537
X-39.324 Y153.678
X-39.472 Y153.775
X-39.515 Y153.788
X-39.559 Y153.795
G3 X-39.687 Y152.844 I-0.041 J-0.479
G1 X-39.541 Y152.822
X-39.395 Y152.802
X-39.32 Y152.794
X-39.17 Y152.785
X-39.029 Y152.869
X-38.925 Y152.997
X-38.872 Y153.152
X-38.876 Y153.317
X-38.937 Y153.47
X-39.047 Y153.592
X-39.192 Y153.669
X-39.249 Y153.677
G3 X-39.32 Y152.794 I-0.007 J-0.444
G1 X-38.987 Y152.758
X-38.837 Y152.749
X-38.694 Y152.85
X-38.601 Y153
X-38.576 Y153.174
X-38.62 Y153.345
X-38.728 Y153.484
X-38.881 Y153.57
X-38.913 Y153.576
X-38.946 Y153.577
G3 X-38.987 Y152.758 I0.018 J-0.412
G1 X-38.695 Y152.726
X-38.545 Y152.717
X-38.408 Y152.777
X-38.309 Y152.914
X-38.274 Y153.08
X-38.31 Y153.246
X-38.411 Y153.383
X-38.558 Y153.467
X-38.606 Y153.476
G3 X-38.695 Y152.726 I-0.035 J-0.376
G1 X-38.374 Y152.69
X-38.224 Y152.681
X-38.105 Y152.773
X-38.031 Y152.904
X-38.014 Y153.053
X-38.056 Y153.197
X-38.152 Y153.313
X-38.285 Y153.383
X-38.332 Y153.388
G3 X-38.374 Y152.69 I0.008 J-0.351
G1 X-38.111 Y152.662
X-37.962 Y152.653
X-37.827 Y152.719
X-37.748 Y152.851
X-37.731 Y153.005
X-37.781 Y153.151
X-37.887 Y153.263
X-38.03 Y153.321
X-38.039 Y153.322
G3 X-38.111 Y152.662 I-0.024 J-0.331
G1 X-37.936 Y152.642
X-37.899 Y152.639
X-37.863 Y152.64
X-37.827 Y152.644
X-37.79 Y152.654
X-37.754 Y152.668
X-37.717 Y152.687
X-37.681 Y152.714
X-37.644 Y152.748
X-37.614 Y152.783
X-37.591 Y152.82
X-37.574 Y152.856
X-37.562 Y152.893
X-37.554 Y152.929
X-37.552 Y152.965
X-37.553 Y153.002
X-37.558 Y153.038
X-37.568 Y153.075
X-37.581 Y153.105
X-37.597 Y153.136
X-37.617 Y153.166
X-37.644 Y153.196
X-37.671 Y153.22
X-37.701 Y153.242
X-37.73 Y153.258
X-37.76 Y153.271
X-37.79 Y153.28
X-38.082 Y153.329
X-38.228 Y153.366
X-38.374 Y153.408
X-39.103 Y153.64
G3 X-39.356 Y153.614 I-0.096 J-0.303
G1 X-39.643 Y153.473
G3 X-39.362 Y152.904 I0.14 J-0.285
X-39.219 Y153.333 I-0.14 J0.285
X-39.738 Y153.922 I-1.41 J-0.719
G1 X-39.833 Y153.983
X-40.227 Y154.24
X-40.314 Y154.3
X-40.652 Y154.532
X-40.805 Y154.677
X-40.854 Y154.732
X-41.101 Y155.024
X-41.176 Y155.114
X-41.207 Y155.158
G3 X-41.778 Y154.977 I-0.254 J-0.19
G1 X-41.78 Y154.906 Z-5.992
X-41.782 Y154.839 Z-5.969
X-41.784 Y154.779 Z-5.931
X-41.785 Y154.728 Z-5.88
X-41.786 Y154.691 Z-5.82
X-41.787 Y154.667 Z-5.753
Y154.659 Z-5.682
G0 Z15

(2D-Kontur20)
X-57.393 Y160.083
Z15
Z5
G1 Z-5.683 F333.3
X-57.397 Y160.076 Z-5.753 F1000
X-57.409 Y160.056 Z-5.82
X-57.428 Y160.023 Z-5.88
X-57.452 Y159.979 Z-5.931
X-57.482 Y159.927 Z-5.969
X-57.515 Y159.869 Z-5.992
X-57.55 Y159.807 Z-6
X-57.707 Y159.531
G3 X-57.587 Y159.098 I0.276 J-0.157
G1 X-56.849 Y158.68
X-56.122 Y158.284
X-55.395 Y157.902
X-54.667 Y157.534
X-53.937 Y157.182
X-53.206 Y156.842
X-52.474 Y156.516
X-51.74 Y156.203
X-51.005 Y155.903
X-50.268 Y155.615
X-49.529 Y155.341
X-48.787 Y155.077
X-48.045 Y154.826
X-47.299 Y154.586
X-46.55 Y154.358
X-45.799 Y154.141
X-45.046 Y153.936
X-44.288 Y153.742
X-43.527 Y153.56
X-42.764 Y153.389
X-41.996 Y153.232
X-41.224 Y153.085
X-40.447 Y152.952
X-39.666 Y152.831
X-38.879 Y152.724
X-38.087 Y152.629
X-37.289 Y152.549
X-36.485 Y152.482
X-35.674 Y152.43
X-34.857 Y152.393
X-34.032 Y152.37
X-33.192 Y152.363
X-25.037
X-24.89 Y152.356
X-24.804 Y152.348
G2 X-24.547 Y152.303 I-0.146 J-1.581
G1 X-24.463 Y152.281
G2 X-24.191 Y152.182 I-0.403 J-1.536
G1 X-24.112 Y152.145
G2 X-23.886 Y152.015 I-0.675 J-1.437
G1 X-23.815 Y151.966
G2 X-23.599 Y151.787 I-0.902 J-1.307
G1 X-23.538 Y151.726
G2 X-23.357 Y151.512 I-1.117 J-1.128
G1 X-23.307 Y151.441
G2 X-23.17 Y151.207 I-1.298 J-0.914
G1 X-23.133 Y151.129
G2 X-23.037 Y150.868 I-1.434 J-0.68
G1 X-23.014 Y150.784
G2 X-22.964 Y150.516 I-1.531 J-0.419
G1 X-22.956 Y150.43
G2 X-22.954 Y150.154 I-1.58 J-0.151
G1 X-22.961 Y150.068
G2 X-23.006 Y149.798 I-1.583 J0.125
G1 X-23.028 Y149.714
G2 X-23.119 Y149.454 I-1.537 J0.395
G1 X-23.155 Y149.375
G2 X-23.287 Y149.139 I-1.446 J0.655
G1 X-23.335 Y149.067
G2 X-23.513 Y148.849 I-1.314 J0.891
G1 X-23.574 Y148.787
G2 X-23.778 Y148.611 I-1.136 J1.109
G1 X-23.848 Y148.56
G2 X-24.1 Y148.411 I-0.932 J1.285
G1 X-24.178 Y148.374
G3 X-24.329 Y147.951 I0.136 J-0.287
G1 X-24.193 Y147.664
X-24.162 Y147.6 Z-5.992
X-24.134 Y147.539 Z-5.969
X-24.108 Y147.485 Z-5.931
X-24.086 Y147.44 Z-5.88
X-24.07 Y147.405 Z-5.82
X-24.06 Y147.384 Z-5.753
X-24.057 Y147.377 Z-5.683
G0 Z5
X-12.881 Y152.035
G1 Z-5.683 F333.3
G19 G3 Y152.352 Z-6 J0.317 K0 F1000
G1 Y152.67
G17 G3 X-13.199 Y152.988 I-0.318 J0
G1 X-33.199
X-33.205
X-33.747 Y152.99
X-33.761
X-34.323 Y152.997
X-34.341
X-34.918 Y153.011
X-34.939 Y153.012
X-35.527 Y153.034
X-35.564 Y153.035
X-36.157 Y153.071
X-36.2 Y153.075
X-36.79 Y153.127
X-36.857 Y153.134
X-37.438 Y153.21
X-37.497 Y153.219
X-37.78 Y153.267
X-37.835 Y153.277
X-38.112 Y153.334
X-38.164 Y153.346
X-38.434 Y153.411
X-38.505 Y153.43
X-38.767 Y153.506
X-38.843 Y153.53
X-39.094 Y153.617
X-39.175 Y153.647
X-39.415 Y153.745
X-39.516 Y153.79
X-39.744 Y153.902
X-39.849 Y153.959
X-40.063 Y154.085
X-40.181 Y154.161
X-40.38 Y154.303
X-40.497 Y154.395
X-40.679 Y154.553
X-40.739 Y154.608
X-40.796 Y154.665
X-40.961 Y154.84
X-41.018 Y154.904
X-41.071 Y154.972
X-41.217 Y155.165
X-41.27 Y155.238
X-41.318 Y155.315
X-41.443 Y155.528
X-41.486 Y155.606
X-41.525 Y155.687
X-41.63 Y155.921
X-41.662 Y155.999
X-41.69 Y156.079
X-41.772 Y156.333
X-41.795 Y156.41
X-41.814 Y156.488
X-41.873 Y156.764
X-41.898 Y156.908
X-41.934 Y157.206
X-41.944 Y157.337
X-41.956 Y157.658
G3 X-42.285 Y157.963 I-0.317 J-0.012
G1 X-42.602 Y157.951
X-42.673 Y157.949 Z-5.992
X-42.74 Y157.946 Z-5.969
X-42.8 Y157.944 Z-5.931
X-42.85 Y157.942 Z-5.88
X-42.888 Y157.941 Z-5.82
X-42.912 Y157.94 Z-5.753
X-42.919 Y157.939 Z-5.683
G0 Z5
X-298.659 Y190.212
G1 Z-5.683 F333.3
X-298.666 Y190.209 Z-5.753 F1000
X-298.687 Y190.198 Z-5.82
X-298.721 Y190.18 Z-5.88
X-298.766 Y190.157 Z-5.931
X-298.819 Y190.13 Z-5.969
X-298.879 Y190.099 Z-5.992
X-298.941 Y190.066 Z-6
X-299.223 Y189.92
G3 X-299.359 Y189.492 I0.146 J-0.282
G1 X-288.591 Y168.731
G2 X-289.996 Y166.413 I-1.409 J-0.731
G1 X-290.343 Y166.412
X-290.672 Y166.407
X-290.983 Y166.4
X-291.28 Y166.39
X-291.562 Y166.377
X-291.824 Y166.363
X-292.073 Y166.344
X-292.313 Y166.324
X-292.533 Y166.303
X-292.738 Y166.278
X-292.929 Y166.252
X-293.1 Y166.225
X-293.438 Y166.161
X-293.724 Y166.095
X-293.978 Y166.021
X-294.212 Y165.942
X-294.436 Y165.853
X-294.653 Y165.757
X-295.155 Y165.509
X-295.422 Y165.37
X-295.716 Y165.217
X-295.724 Y165.212
X-296.04 Y165.049
X-296.058 Y165.04
X-296.398 Y164.87
X-296.417 Y164.861
X-296.783 Y164.684
X-296.806 Y164.673
X-297.203 Y164.489
X-297.216 Y164.483
X-297.642 Y164.29
X-297.658 Y164.283
X-298.113 Y164.083
X-298.123 Y164.079
X-298.607 Y163.87
X-298.612 Y163.867
X-299.119 Y163.651
X-299.646 Y163.424
X-300.188 Y163.19
X-300.74 Y162.947
X-301.3 Y162.694
X-301.864 Y162.433
X-302.429 Y162.162
X-302.994 Y161.881
X-303.556 Y161.592
X-304.113 Y161.293
X-304.663 Y160.987
X-305.767 Y160.339
X-306.855 Y159.665
X-307.945 Y158.965
X-309.045 Y158.25
X-309.055 Y158.244
X-310.169 Y157.533
X-310.188 Y157.521
X-310.754 Y157.171
X-310.773 Y157.159
X-311.349 Y156.814
X-311.376 Y156.799
X-311.964 Y156.462
X-311.992 Y156.446
X-312.594 Y156.117
X-312.63 Y156.098
X-313.249 Y155.78
X-313.286 Y155.762
X-313.924 Y155.454
X-313.967 Y155.435
X-314.628 Y155.141
X-314.677 Y155.12
X-315.363 Y154.842
X-315.41 Y154.823
X-316.124 Y154.56
X-316.176 Y154.542
X-316.92 Y154.297
X-316.974 Y154.281
X-317.751 Y154.055
X-317.788 Y154.044
X-318.189 Y153.938
X-318.22 Y153.93
X-318.631 Y153.831
X-318.656 Y153.825
X-319.076 Y153.73
X-319.101 Y153.724
X-319.531 Y153.634
X-319.558 Y153.629
X-319.997 Y153.545
X-320.021 Y153.54
X-320.47 Y153.461
X-320.5 Y153.457
X-320.96 Y153.385
X-320.981 Y153.381
X-321.451 Y153.314
X-321.476 Y153.311
X-321.958 Y153.25
X-321.984 Y153.247
X-322.476 Y153.193
X-322.495 Y153.191
X-322.998 Y153.142
X-323.023 Y153.14
X-323.538 Y153.098
X-323.562 Y153.096
X-324.088 Y153.061
X-324.105 Y153.06
X-324.643 Y153.03
X-324.665 Y153.029
X-325.215 Y153.006
X-325.236 Y153.005
X-325.797 Y152.989
X-325.814
X-326.387 Y152.979
X-326.407
X-326.992 Y152.976
G3 X-327.308 Y152.656 I0.002 J-0.318
G1 X-327.306 Y152.339
Y152.268 Z-5.992
X-327.305 Y152.201 Z-5.969
Y152.141 Z-5.931
Y152.091 Z-5.88
Y152.053 Z-5.82
Y152.029 Z-5.753
X-327.304 Y152.021 Z-5.683
G0 Z5
X-314.298 Y149.11
G1 Z-5.683 F333.3
X-314.295 Y149.118 Z-5.753 F1000
X-314.286 Y149.139 Z-5.82
X-314.271 Y149.174 Z-5.88
X-314.251 Y149.22 Z-5.931
X-314.228 Y149.276 Z-5.969
X-314.202 Y149.338 Z-5.992
X-314.174 Y149.403 Z-6
X-314.051 Y149.695
G3 X-314.22 Y150.111 I-0.293 J0.123
G1 X-314.284 Y150.138
G2 X-314.731 Y150.423 I0.617 J1.463
G1 X-314.783 Y150.47
G2 X-315.125 Y150.911 I1.064 J1.178
G1 X-315.157 Y150.972
G2 X-315.325 Y151.504 I1.406 J0.737
G1 X-315.334 Y151.573
G2 X-315.31 Y152.12 I1.574 J0.205
G1 X-315.295 Y152.188
G2 X-315.09 Y152.689 I1.55 J-0.342
G1 X-315.053 Y152.748
G2 X-314.66 Y153.175 I1.345 J-0.843
G1 X-314.604 Y153.217
G2 X-314.133 Y153.46 I0.952 J-1.27
G1 X-314.067 Y153.481
G2 X-313.824 Y153.538 I0.481 J-1.513
G1 X-313.41 Y153.6
X-313.041 Y153.673
X-312.679 Y153.762
X-312.323 Y153.866
X-311.974 Y153.982
X-311.631 Y154.114
X-311.287 Y154.261
X-310.945 Y154.421
X-310.603 Y154.596
X-310.267 Y154.779
X-309.567 Y155.193
X-308.864 Y155.645
X-308.141 Y156.132
X-307.398 Y156.641
X-307.396 Y156.642
X-306.638 Y157.159
X-306.618 Y157.172
X-305.845 Y157.683
X-305.818 Y157.701
X-305.028 Y158.2
X-304.99 Y158.223
X-304.181 Y158.703
X-304.139 Y158.727
X-303.314 Y159.183
X-303.267 Y159.208
X-302.43 Y159.635
X-302.385 Y159.657
X-301.542 Y160.054
X-301.508 Y160.07
X-300.671 Y160.44
X-300.644 Y160.452
X-299.827 Y160.795
X-299.818 Y160.798
X-299.421 Y160.962
X-299.417 Y160.964
X-299.029 Y161.123
X-299.026 Y161.124
X-298.648 Y161.278
X-298.28 Y161.428
X-297.926 Y161.572
X-297.582 Y161.714
X-297.58
X-297.247 Y161.851
X-296.924 Y161.984
X-296.917 Y161.987
X-296.292 Y162.241
X-296.278 Y162.246
X-295.681 Y162.482
X-295.652 Y162.493
X-295.073 Y162.709
X-295.029 Y162.725
X-294.456 Y162.92
X-294.395 Y162.939
X-293.817 Y163.11
X-293.74 Y163.131
X-293.144 Y163.275
X-293.079 Y163.289
X-292.771 Y163.35
X-292.729 Y163.358
X-292.411 Y163.412
X-292.366 Y163.419
X-292.039 Y163.465
X-291.995 Y163.471
X-291.657 Y163.509
X-291.616 Y163.513
X-291.266 Y163.543
X-291.226 Y163.546
X-290.863 Y163.568
X-290.822 Y163.57
X-290.445 Y163.583
X-290.406
X-290.016 Y163.587
G3 X-289.702 Y163.908 I-0.003 J0.317
G1 X-289.705 Y164.226
X-289.706 Y164.296 Z-5.992
X-289.707 Y164.363 Z-5.969
Y164.424 Z-5.931
X-289.708 Y164.474 Z-5.88
Y164.512 Z-5.82
Y164.535 Z-5.753
X-289.709 Y164.543 Z-5.683
G0 Z15

(2D Adaptive18)
X-7.108 Y167.743
Z15
Z5
Z-4.365
G1 Z-4.682 F1000
X-7.116 Y167.745 Z-4.753
X-7.139 Y167.75 Z-4.82
X-7.175 Y167.76 Z-4.88
X-7.224 Y167.772 Z-4.931
X-7.283 Y167.787 Z-4.969
X-7.348 Y167.804 Z-4.992
X-7.416 Y167.821 Z-5
G3 X-9.144 Y168.07 I-2.011 J-7.852
G1 X-9.294
X-9.41 Y167.974
X-9.508 Y167.861
X-9.594 Y167.738
X-9.679 Y167.59
X-9.768 Y167.402
X-9.86 Y167.159
X-9.952 Y166.839
X-10.042 Y166.399
X-10.119 Y165.762
X-10.147 Y165.12
X-10.146 Y164.478
X-10.143 Y164.365
X-10.099 Y164.132
X-9.984 Y163.925
X-9.809 Y163.765
X-9.593 Y163.668
X-9.357 Y163.644
G3 X-9.216 Y164.227 I-0.03 J0.316
G1 X-9.275 Y164.266 Z-4.992
X-9.332 Y164.302 Z-4.969
X-9.382 Y164.334 Z-4.931
X-9.425 Y164.362 Z-4.88
X-9.456 Y164.382 Z-4.82
X-9.476 Y164.395 Z-4.753
X-9.483 Y164.399 Z-4.682
G0 Z5
X-7.565 Y174.645
Z-4.365
G1 Z-4.682 F1000
X-7.572 Y174.649 Z-4.753
X-7.593 Y174.659 Z-4.82
X-7.627 Y174.677 Z-4.88
X-7.672 Y174.7 Z-4.931
X-7.725 Y174.727 Z-4.969
X-7.785 Y174.758 Z-4.992
X-7.848 Y174.79 Z-5
G3 X-9.55 Y175.179 I-1.61 J-3.129
G1 X-9.732 Y175.168
X-9.769 Y175.164
X-9.878 Y175.061
X-9.973 Y174.945
X-10.055 Y174.819
X-10.141 Y174.661
X-10.231 Y174.458
X-10.323 Y174.195
X-10.415 Y173.845
X-10.503 Y173.353
X-10.565 Y172.714
X-10.584 Y172.072
X-10.578 Y171.43
X-10.559 Y170.788
X-10.531 Y170.146
X-10.561 Y169.505
X-10.703 Y168.879
X-10.874 Y168.26
X-11.036 Y167.638
X-11.168 Y167.01
X-11.266 Y166.375
X-11.329 Y165.736
X-11.353 Y165.245
X-11.343 Y164.939
X-11.312 Y164.666
X-11.268 Y164.436
X-11.216 Y164.25
X-11.143 Y164.052
X-11.123 Y164.009
X-11.001 Y163.824
X-10.83 Y163.683
X-10.625 Y163.6
X-10.405 Y163.58
G3 X-10.264 Y164.163 I-0.03 J0.316
G1 X-10.323 Y164.201 Z-4.992
X-10.379 Y164.238 Z-4.969
X-10.43 Y164.27 Z-4.931
X-10.472 Y164.297 Z-4.88
X-10.504 Y164.318 Z-4.82
X-10.524 Y164.331 Z-4.753
X-10.531 Y164.335 Z-4.682
G0 Z5
X-8.684 Y174.848
Z-4.365
G1 Z-4.682 F1000
X-8.691 Y174.852 Z-4.753
X-8.712 Y174.862 Z-4.82
X-8.745 Y174.88 Z-4.88
X-8.79 Y174.903 Z-4.931
X-8.844 Y174.93 Z-4.969
X-8.903 Y174.961 Z-4.992
X-8.966 Y174.993 Z-5
G3 X-9.732 Y175.168 I-0.724 J-1.407
G1 X-10.169 Y175.141
X-10.318 Y175.125
X-10.45 Y175.054
X-10.573 Y174.968
X-10.687 Y174.87
X-10.801 Y174.754
X-10.924 Y174.607
X-11.04 Y174.444
X-11.166 Y174.231
X-11.29 Y173.977
X-11.411 Y173.67
X-11.529 Y173.282
X-11.64 Y172.771
X-11.725 Y172.134
X-11.765 Y171.493
X-11.785 Y170.852
X-11.838 Y170.211
X-11.937 Y169.577
X-12.063 Y168.947
X-12.193 Y168.319
X-12.315 Y167.688
X-12.418 Y167.054
X-12.498 Y166.417
X-12.543 Y165.816
X-12.54 Y165.324
X-12.504 Y164.919
X-12.454 Y164.619
X-12.383 Y164.34
X-12.313 Y164.134
X-12.226 Y163.932
X-12.211 Y163.904
X-12.087 Y163.734
X-11.919 Y163.606
X-11.722 Y163.53
X-11.512 Y163.512
X-10.405 Y163.58
G3 X-10.108 Y163.871 I-0.019 J0.317
G1 X-10.081 Y164.202
X-9.232 Y174.659
G3 X-9.403 Y174.967 I-0.316 J0.026
X-10.169 Y175.141 I-0.724 J-1.407
G1 X-10.861 Y175.099
X-11.01 Y175.083
X-11.153 Y175.039
X-11.291 Y174.978
X-11.421 Y174.903
X-11.544 Y174.817
X-11.674 Y174.71
X-11.814 Y174.575
X-11.95 Y174.42
X-12.103 Y174.216
X-12.242 Y173.995
X-12.393 Y173.704
X-12.534 Y173.372
X-12.676 Y172.944
X-12.814 Y172.377
X-12.916 Y171.743
X-13.002 Y171.106
X-13.098 Y170.471
X-13.207 Y169.838
X-13.439 Y168.575
X-13.547 Y167.942
X-13.64 Y167.307
X-13.712 Y166.669
X-13.748 Y166.027
X-13.738 Y165.455
X-13.693 Y164.995
X-13.623 Y164.608
X-13.546 Y164.316
X-13.461 Y164.076
X-13.373 Y163.879
X-13.345 Y163.827
X-13.22 Y163.66
X-13.053 Y163.534
X-12.858 Y163.46
X-12.649 Y163.443
X-11.512 Y163.512
G3 X-11.226 Y163.809 I-0.03 J0.316
G1 X-11.204 Y164.145
X-10.552 Y174.504
X-10.536 Y174.762
G3 X-10.861 Y175.099 I-0.317 J0.02
G1 X-11.8 Y175.042
X-11.949 Y175.025
X-12.094 Y174.986
X-12.234 Y174.931
X-12.367 Y174.863
X-12.501 Y174.781
X-12.649 Y174.672
X-12.794 Y174.547
X-12.957 Y174.38
X-13.111 Y174.197
X-13.283 Y173.954
X-13.445 Y173.681
X-13.617 Y173.33
X-13.798 Y172.87
X-13.985 Y172.255
X-14.133 Y171.63
X-14.264 Y171.002
X-14.388 Y170.372
X-14.509 Y169.741
X-14.625 Y169.109
X-14.732 Y168.476
X-14.826 Y167.841
X-14.9 Y167.203
X-14.947 Y166.562
X-14.957 Y165.92
X-14.926 Y165.338
X-14.86 Y164.852
X-14.776 Y164.472
X-14.685 Y164.172
X-14.595 Y163.943
X-14.494 Y163.739
X-14.491 Y163.733
X-14.365 Y163.575
X-14.201 Y163.457
X-14.011 Y163.387
X-13.809 Y163.372
X-12.649 Y163.443
G3 X-12.363 Y163.733 I-0.03 J0.316
G1 X-12.336 Y164.075
X-11.496 Y174.447
X-11.476 Y174.699
G3 X-11.8 Y175.042 I-0.316 J0.026
G1 X-12.82 Y174.979
X-12.969 Y174.963
X-13.115 Y174.927
X-13.256 Y174.877
X-13.392 Y174.813
X-13.535 Y174.732
X-13.69 Y174.626
X-13.847 Y174.499
X-14.025 Y174.33
X-14.193 Y174.143
X-14.386 Y173.89
X-14.577 Y173.592
X-14.788 Y173.197
X-15.021 Y172.661
X-15.229 Y172.053
X-15.401 Y171.435
X-15.552 Y170.81
X-15.689 Y170.183
X-15.813 Y169.553
X-15.925 Y168.92
X-16.021 Y168.285
X-16.098 Y167.648
X-16.151 Y167.008
X-16.173 Y166.366
X-16.158 Y165.724
X-16.104 Y165.143
X-16.019 Y164.659
X-15.925 Y164.295
X-15.825 Y164.006
X-15.73 Y163.791
X-15.675 Y163.688
X-15.55 Y163.52
X-15.383 Y163.393
X-15.187 Y163.318
X-14.978 Y163.301
X-13.809 Y163.372
G3 X-13.523 Y163.659 I-0.03 J0.316
G1 X-13.491 Y164.004
X-12.519 Y174.385
X-12.495 Y174.632
G3 X-12.82 Y174.979 I-0.316 J0.03
G1 X-13.92 Y174.912
X-14.069 Y174.895
X-14.215 Y174.861
X-14.356 Y174.811
X-14.496 Y174.748
X-14.647 Y174.665
X-14.817 Y174.553
X-14.983 Y174.422
X-15.177 Y174.244
X-15.368 Y174.037
X-15.578 Y173.77
X-15.795 Y173.443
X-16.034 Y173.011
X-16.294 Y172.436
X-16.511 Y171.831
X-16.694 Y171.216
X-16.852 Y170.593
X-16.99 Y169.966
X-17.111 Y169.335
X-17.213 Y168.701
X-17.296 Y168.064
X-17.355 Y167.425
X-17.387 Y166.784
X-17.388 Y166.141
X-17.351 Y165.5
X-17.277 Y164.926
X-17.178 Y164.458
X-17.078 Y164.123
X-16.974 Y163.854
X-16.873 Y163.645
X-16.843 Y163.593
X-16.717 Y163.434
X-16.553 Y163.314
X-16.362 Y163.244
X-16.159 Y163.228
X-14.978 Y163.301
G3 X-14.692 Y163.585 I-0.03 J0.316
G1 X-14.658 Y163.932
X-13.62 Y174.318
X-13.595 Y174.563
G3 X-13.92 Y174.912 I-0.316 J0.032
G1 X-15.005 Y174.846
X-15.167 Y174.827
X-15.314 Y174.799
X-15.458 Y174.756
X-15.607 Y174.696
X-15.756 Y174.621
X-15.926 Y174.519
X-16.108 Y174.388
X-16.296 Y174.229
X-16.514 Y174.01
X-16.719 Y173.77
X-16.957 Y173.442
X-17.194 Y173.05
X-17.456 Y172.529
X-17.697 Y171.934
X-17.898 Y171.324
X-18.068 Y170.705
X-18.214 Y170.08
X-18.338 Y169.45
X-18.44 Y168.816
X-18.521 Y168.179
X-18.578 Y167.539
X-18.609 Y166.897
X-18.611 Y166.255
X-18.577 Y165.614
X-18.504 Y165.002
X-18.398 Y164.479
X-18.294 Y164.119
X-18.182 Y163.82
X-18.081 Y163.607
X-18.035 Y163.527
X-17.909 Y163.365
X-17.744 Y163.243
X-17.552 Y163.172
X-17.347 Y163.156
X-16.159 Y163.228
G3 X-15.874 Y163.51 I-0.03 J0.316
G1 X-15.836 Y163.86
X-14.707 Y174.251
X-14.681 Y174.494
G3 X-15.005 Y174.846 I-0.316 J0.034
G1 X-16.25 Y174.769
X-16.399 Y174.753
X-16.548 Y174.731
X-16.693 Y174.694
X-16.835 Y174.644
X-16.972 Y174.584
X-17.104 Y174.514
X-17.233 Y174.436
X-17.356 Y174.35
X-17.474 Y174.258
X-17.588 Y174.16
X-17.698 Y174.058
X-17.803 Y173.951
X-17.903 Y173.84
X-18 Y173.725
X-18.093 Y173.607
X-18.182 Y173.487
X-18.268 Y173.363
X-18.349 Y173.238
X-18.428 Y173.11
X-18.503 Y172.98
X-18.576 Y172.849
X-18.645 Y172.716
X-18.711 Y172.581
X-18.775 Y172.446
X-18.837 Y172.309
X-18.896 Y172.171
X-18.953 Y172.032
X-19.007 Y171.892
X-19.06 Y171.752
X-19.11 Y171.611
X-19.159 Y171.469
X-19.205 Y171.326
X-19.25 Y171.183
X-19.293 Y171.039
X-19.335 Y170.895
X-19.375 Y170.751
X-19.413 Y170.605
X-19.45 Y170.46
X-19.485 Y170.314
X-19.519 Y170.168
X-19.552 Y170.022
X-19.583 Y169.875
X-19.613 Y169.728
X-19.641 Y169.581
X-19.668 Y169.433
X-19.694 Y169.285
X-19.718 Y169.137
X-19.742 Y168.989
X-19.763 Y168.841
X-19.784 Y168.692
X-19.803 Y168.543
X-19.821 Y168.395
X-19.837 Y168.245
X-19.852 Y168.096
X-19.866 Y167.947
X-19.878 Y167.797
X-19.889 Y167.648
X-19.899 Y167.498
X-19.907 Y167.348
X-19.913 Y167.198
X-19.918 Y167.048
X-19.921 Y166.898
X-19.923 Y166.748
Y166.598
X-19.921 Y166.448
X-19.917 Y166.299
X-19.912 Y166.149
X-19.904 Y165.999
X-19.894 Y165.849
X-19.883 Y165.7
X-19.869 Y165.55
X-19.853 Y165.401
X-19.834 Y165.252
X-19.813 Y165.104
X-19.79 Y164.956
X-19.763 Y164.808
X-19.733 Y164.661
X-19.701 Y164.515
X-19.665 Y164.369
X-19.625 Y164.224
X-19.582 Y164.081
X-19.533 Y163.939
X-19.48 Y163.798
X-19.422 Y163.66
X-19.358 Y163.525
X-19.326 Y163.466
X-19.202 Y163.297
X-19.034 Y163.17
X-18.838 Y163.095
X-18.629 Y163.078
X-17.347 Y163.156
G3 X-17.062 Y163.439 I-0.03 J0.316
G1 X-17.026 Y163.787
X-15.951 Y174.175
X-15.926 Y174.419
G3 X-16.25 Y174.769 I-0.316 J0.033
G1 X-17.561 Y174.689
X-17.71 Y174.672
X-17.857 Y174.64
X-17.999 Y174.594
X-18.153 Y174.53
X-18.318 Y174.445
X-18.497 Y174.334
X-18.69 Y174.192
X-18.896 Y174.013
X-19.116 Y173.788
X-19.349 Y173.508
X-19.473 Y173.332
X-19.536 Y173.234
X-19.792 Y172.823
X-19.939 Y172.537
X-20.007 Y172.391
X-20.039 Y172.318
G3 X-19.521 Y171.974 I0.295 J-0.118
G1 X-17.349 Y174.127
X-17.329 Y174.146
G3 X-17.561 Y174.689 I-0.223 J0.226
G1 X-18.792 Y174.614
X-18.941 Y174.597
X-19.087 Y174.565
X-19.23 Y174.519
X-19.378 Y174.458
X-19.546 Y174.373
X-19.683 Y174.289
X-19.834 Y174.236
X-19.994 Y174.217
X-20.153 Y174.233
X-20.306 Y174.283
X-20.476 Y174.383
X-20.609 Y174.445
X-20.751 Y174.479
X-20.898 Y174.485
G3 X-20.848 Y173.852 I0.03 J-0.316
G1 X-18.764 Y173.979
G3 X-18.792 Y174.614 I-0.019 J0.317
G1 X-21.122 Y174.471
G3 X-21.409 Y174.178 I0.03 J-0.316
G1 X-21.433 Y173.839
X-22.187 Y163.474
X-22.205 Y163.219
G3 X-21.88 Y162.879 I0.317 J-0.023
G1 X-18.629 Y163.078
G3 X-18.487 Y163.661 I-0.03 J0.316
G1 X-18.547 Y163.699 Z-4.992
X-18.603 Y163.735 Z-4.969
X-18.654 Y163.768 Z-4.931
X-18.696 Y163.795 Z-4.88
X-18.728 Y163.815 Z-4.82
X-18.748 Y163.828 Z-4.753
X-18.754 Y163.832 Z-4.682
G0 Z15
X-35.87 Y160.273
Z5
Z-7.365
G1 Z-7.682 F1000
X-35.863 Y160.27 Z-7.753
X-35.842 Y160.259 Z-7.82
X-35.809 Y160.242 Z-7.88
X-35.764 Y160.219 Z-7.931
X-35.71 Y160.191 Z-7.969
X-35.651 Y160.16 Z-7.992
X-35.588 Y160.128 Z-8
G3 X-33.885 Y159.739 I1.61 J3.129
G1 X-33.704 Y159.75
X-33.666 Y159.754
X-33.558 Y159.858
X-33.464 Y159.975
X-33.383 Y160.102
X-33.296 Y160.263
X-33.206 Y160.469
X-33.114 Y160.736
X-33.022 Y161.092
X-32.935 Y161.595
X-32.876 Y162.234
X-32.859 Y162.876
X-32.865 Y163.518
X-32.885 Y164.16
X-32.913 Y164.802
X-32.946 Y165.443
X-32.981 Y166.084
X-33.056 Y167.367
X-33.211 Y169.931
X-33.544 Y175.374
X-33.594 Y175.6
X-33.712 Y175.8
X-33.886 Y175.953
X-34.098 Y176.046
X-34.329 Y176.068
G3 X-34.47 Y175.485 I0.03 J-0.316
G1 X-34.411 Y175.447 Z-7.992
X-34.354 Y175.41 Z-7.969
X-34.304 Y175.378 Z-7.931
X-34.262 Y175.351 Z-7.88
X-34.23 Y175.33 Z-7.82
X-34.21 Y175.317 Z-7.753
X-34.203 Y175.313 Z-7.682
G0 Z5
X-34.752 Y160.071
Z-7.365
G1 Z-7.682 F1000
X-34.745 Y160.067 Z-7.753
X-34.724 Y160.056 Z-7.82
X-34.69 Y160.039 Z-7.88
X-34.645 Y160.016 Z-7.931
X-34.592 Y159.988 Z-7.969
X-34.532 Y159.958 Z-7.992
X-34.469 Y159.925 Z-8
G3 X-33.704 Y159.75 I0.724 J1.407
G1 X-33.266 Y159.777
X-33.117 Y159.794
X-32.986 Y159.865
X-32.863 Y159.952
X-32.75 Y160.05
X-32.636 Y160.167
X-32.512 Y160.317
X-32.396 Y160.481
X-32.271 Y160.693
X-32.146 Y160.952
X-32.026 Y161.26
X-31.909 Y161.654
X-31.798 Y162.172
X-31.715 Y162.809
X-31.676 Y163.45
X-31.666 Y164.092
X-31.674 Y164.734
X-31.693 Y165.376
X-31.72 Y166.017
X-31.752 Y166.659
X-31.786 Y167.3
X-31.822 Y167.941
X-31.897 Y169.223
X-32.092 Y172.428
X-32.209 Y174.351
X-32.251 Y174.791
X-32.306 Y175.098
X-32.37 Y175.344
X-32.44 Y175.544
X-32.531 Y175.749
X-32.656 Y175.917
X-32.823 Y176.044
X-33.019 Y176.118
X-33.228 Y176.135
G3 X-33.369 Y175.552 I0.03 J-0.316
G1 X-33.31 Y175.514 Z-7.992
X-33.253 Y175.478 Z-7.969
X-33.203 Y175.445 Z-7.931
X-33.16 Y175.418 Z-7.88
X-33.129 Y175.397 Z-7.82
X-33.109 Y175.385 Z-7.753
X-33.102 Y175.38 Z-7.682
G0 Z5
X-34.314 Y160.097
Z-7.365
G1 Z-7.682 F1000
X-34.307 Y160.094 Z-7.753
X-34.286 Y160.083 Z-7.82
X-34.253 Y160.066 Z-7.88
X-34.208 Y160.043 Z-7.931
X-34.155 Y160.015 Z-7.969
X-34.095 Y159.984 Z-7.992
X-34.032 Y159.952 Z-8
G3 X-33.266 Y159.777 I0.724 J1.407
G1 X-32.574 Y159.819
X-32.425 Y159.836
X-32.282 Y159.881
X-32.145 Y159.942
X-32.015 Y160.017
X-31.891 Y160.105
X-31.761 Y160.212
X-31.62 Y160.35
X-31.484 Y160.505
X-31.332 Y160.711
X-31.192 Y160.935
X-31.042 Y161.227
X-30.901 Y161.564
X-30.76 Y161.995
X-30.633 Y162.524
X-30.534 Y163.158
X-30.48 Y163.798
X-30.456 Y164.44
X-30.452 Y165.082
X-30.463 Y165.724
X-30.484 Y166.366
X-30.511 Y167.008
X-30.542 Y167.649
X-30.576 Y168.29
X-30.612 Y168.932
X-30.686 Y170.214
X-30.841 Y172.778
X-30.88 Y173.419
X-30.927 Y174.059
X-31.001 Y174.645
X-31.09 Y175.07
X-31.179 Y175.373
X-31.271 Y175.612
X-31.369 Y175.815
X-31.383 Y175.84
X-31.509 Y176
X-31.674 Y176.12
X-31.865 Y176.19
X-32.068 Y176.206
X-33.228 Y176.135
G3 X-33.369 Y175.552 I0.03 J-0.316
G1 X-33.31 Y175.514 Z-7.992
X-33.253 Y175.478 Z-7.969
X-33.203 Y175.445 Z-7.931
X-33.16 Y175.418 Z-7.88
X-33.129 Y175.397 Z-7.82
X-33.109 Y175.385 Z-7.753
X-33.102 Y175.38 Z-7.682
G0 Z5
X-33.622 Y160.14
Z-7.365
G1 Z-7.682 F1000
X-33.615 Y160.136 Z-7.753
X-33.594 Y160.125 Z-7.82
X-33.56 Y160.108 Z-7.88
X-33.516 Y160.085 Z-7.931
X-33.462 Y160.057 Z-7.969
X-33.402 Y160.027 Z-7.992
X-33.34 Y159.994 Z-8
G3 X-32.574 Y159.819 I0.724 J1.407
G1 X-31.634 Y159.877
X-31.485 Y159.893
X-31.34 Y159.934
X-31.201 Y159.989
X-31.068 Y160.058
X-30.935 Y160.141
X-30.785 Y160.251
X-30.641 Y160.377
X-30.478 Y160.544
X-30.324 Y160.73
X-30.153 Y160.973
X-29.995 Y161.241
X-29.824 Y161.593
X-29.673 Y161.982
X-29.522 Y162.486
X-29.387 Y163.114
X-29.302 Y163.75
X-29.254 Y164.391
X-29.231 Y165.032
X-29.227 Y165.675
X-29.236 Y166.317
X-29.255 Y166.959
X-29.28 Y167.6
X-29.31 Y168.242
X-29.343 Y168.883
X-29.378 Y169.524
X-29.451 Y170.807
X-29.528 Y172.089
X-29.567 Y172.73
X-29.611 Y173.37
X-29.672 Y174.01
X-29.768 Y174.645
X-29.878 Y175.118
X-29.98 Y175.439
X-30.086 Y175.699
X-30.19 Y175.905
X-30.203 Y175.926
X-30.33 Y176.081
X-30.493 Y176.196
X-30.681 Y176.264
X-30.88 Y176.279
X-32.068 Y176.206
G3 X-32.21 Y175.623 I0.03 J-0.316
G1 X-32.15 Y175.585 Z-7.992
X-32.094 Y175.549 Z-7.969
X-32.043 Y175.516 Z-7.931
X-32.001 Y175.489 Z-7.88
X-31.969 Y175.468 Z-7.82
X-31.949 Y175.456 Z-7.753
X-31.943 Y175.451 Z-7.682
G0 Z5
X-32.682 Y160.197
Z-7.365
G1 Z-7.682 F1000
X-32.675 Y160.193 Z-7.753
X-32.654 Y160.183 Z-7.82
X-32.62 Y160.165 Z-7.88
X-32.576 Y160.142 Z-7.931
X-32.522 Y160.115 Z-7.969
X-32.462 Y160.084 Z-7.992
X-32.4 Y160.052 Z-8
G3 X-31.634 Y159.877 I0.724 J1.407
G1 X-30.614 Y159.939
X-30.465 Y159.956
X-30.319 Y159.992
X-30.178 Y160.044
X-30.043 Y160.108
X-29.9 Y160.19
X-29.745 Y160.297
X-29.588 Y160.425
X-29.418 Y160.588
X-29.252 Y160.775
X-29.069 Y161.017
X-28.898 Y161.286
X-28.713 Y161.638
X-28.544 Y162.033
X-28.379 Y162.523
X-28.224 Y163.145
X-28.119 Y163.779
X-28.052 Y164.418
X-28.014 Y165.059
X-27.998 Y165.701
X-27.997 Y166.343
X-28.008 Y166.985
X-28.026 Y167.627
X-28.052 Y168.269
X-28.081 Y168.91
X-28.113 Y169.552
X-28.148 Y170.193
X-28.184 Y170.834
X-28.221 Y171.475
X-28.26 Y172.116
X-28.303 Y172.757
X-28.356 Y173.397
X-28.428 Y174.035
X-28.534 Y174.668
X-28.661 Y175.184
X-28.772 Y175.516
X-28.888 Y175.788
X-28.996 Y175.995
X-29.005 Y176.008
X-29.132 Y176.16
X-29.294 Y176.272
X-29.48 Y176.338
X-29.677 Y176.353
X-30.88 Y176.279
G3 X-31.022 Y175.696 I0.03 J-0.316
G1 X-30.962 Y175.658 Z-7.992
X-30.906 Y175.621 Z-7.969
X-30.855 Y175.589 Z-7.931
X-30.813 Y175.561 Z-7.88
X-30.781 Y175.541 Z-7.82
X-30.762 Y175.528 Z-7.753
X-30.755 Y175.524 Z-7.682
G0 Z5
X-31.662 Y160.259
Z-7.365
G1 Z-7.682 F1000
X-31.655 Y160.256 Z-7.753
X-31.634 Y160.245 Z-7.82
X-31.6 Y160.228 Z-7.88
X-31.556 Y160.205 Z-7.931
X-31.502 Y160.177 Z-7.969
X-31.442 Y160.146 Z-7.992
X-31.38 Y160.114 Z-8
G3 X-30.614 Y159.939 I0.724 J1.407
G1 X-29.514 Y160.007
X-29.365 Y160.023
X-29.219 Y160.06
X-29.078 Y160.111
X-28.942 Y160.174
X-28.789 Y160.26
X-28.632 Y160.367
X-28.464 Y160.502
X-28.29 Y160.666
X-28.109 Y160.866
X-27.923 Y161.108
X-27.735 Y161.4
X-27.546 Y161.752
X-27.356 Y162.186
X-27.184 Y162.683
X-27.024 Y163.304
X-26.912 Y163.937
X-26.838 Y164.575
X-26.792 Y165.215
X-26.768 Y165.857
X-26.76 Y166.499
X-26.765 Y167.141
X-26.779 Y167.783
X-26.801 Y168.425
X-26.827 Y169.067
X-26.857 Y169.708
X-26.89 Y170.35
X-26.925 Y170.991
X-26.962 Y171.632
X-27.004 Y172.273
X-27.054 Y172.913
X-27.119 Y173.552
X-27.206 Y174.188
X-27.326 Y174.819
X-27.462 Y175.322
X-27.578 Y175.648
X-27.695 Y175.907
X-27.772 Y176.045
X-27.897 Y176.212
X-28.063 Y176.336
X-28.258 Y176.41
X-28.465 Y176.427
X-29.677 Y176.353
G3 X-29.818 Y175.77 I0.03 J-0.316
G1 X-29.759 Y175.731 Z-7.992
X-29.702 Y175.695 Z-7.969
X-29.652 Y175.662 Z-7.931
X-29.609 Y175.635 Z-7.88
X-29.577 Y175.615 Z-7.82
X-29.558 Y175.602 Z-7.753
X-29.551 Y175.598 Z-7.682
G0 Z5
X-30.562 Y160.327
Z-7.365
G1 Z-7.682 F1000
X-30.554 Y160.323 Z-7.753
X-30.534 Y160.312 Z-7.82
X-30.5 Y160.295 Z-7.88
X-30.455 Y160.272 Z-7.931
X-30.402 Y160.244 Z-7.969
X-30.342 Y160.214 Z-7.992
X-30.279 Y160.181 Z-8
G3 X-29.514 Y160.007 I0.724 J1.407
G1 X-28.428 Y160.073
X-28.279 Y160.09
X-28.132 Y160.121
X-27.99 Y160.168
X-27.849 Y160.228
X-27.701 Y160.305
X-27.535 Y160.411
X-27.373 Y160.533
X-27.186 Y160.699
X-27.009 Y160.883
X-26.808 Y161.13
X-26.623 Y161.397
X-26.415 Y161.756
X-26.228 Y162.151
X-26.039 Y162.647
X-25.86 Y163.264
X-25.731 Y163.893
X-25.64 Y164.528
X-25.58 Y165.168
X-25.543 Y165.809
X-25.525 Y166.451
X-25.521 Y167.093
X-25.528 Y167.735
X-25.544 Y168.377
X-25.566 Y169.019
X-25.592 Y169.661
X-25.622 Y170.302
X-25.656 Y170.943
X-25.694 Y171.585
X-25.738 Y172.225
X-25.791 Y172.865
X-25.859 Y173.504
X-25.948 Y174.14
X-26.068 Y174.771
X-26.211 Y175.314
X-26.339 Y175.68
X-26.457 Y175.945
X-26.577 Y176.167
X-26.704 Y176.314
X-26.865 Y176.424
X-27.049 Y176.488
X-27.243 Y176.501
X-28.465 Y176.427
G3 X-28.607 Y175.844 I0.03 J-0.316
G1 X-28.547 Y175.805 Z-7.992
X-28.491 Y175.769 Z-7.969
X-28.44 Y175.736 Z-7.931
X-28.398 Y175.709 Z-7.88
X-28.366 Y175.689 Z-7.82
X-28.347 Y175.676 Z-7.753
X-28.34 Y175.672 Z-7.682
G0 Z5
X-29.476 Y160.393
Z-7.365
G1 Z-7.682 F1000
X-29.469 Y160.39 Z-7.753
X-29.448 Y160.379 Z-7.82
X-29.414 Y160.361 Z-7.88
X-29.37 Y160.338 Z-7.931
X-29.316 Y160.311 Z-7.969
X-29.256 Y160.28 Z-7.992
X-29.194 Y160.248 Z-8
G3 X-28.428 Y160.073 I0.724 J1.407
G1 X-27.262 Y160.144
X-27.113 Y160.161
X-26.967 Y160.194
X-26.824 Y160.242
X-26.687 Y160.301
X-26.527 Y160.386
X-26.366 Y160.489
X-26.189 Y160.623
X-26.008 Y160.784
X-25.816 Y160.986
X-25.62 Y161.227
X-25.415 Y161.526
X-25.213 Y161.878
X-25.005 Y162.32
X-24.812 Y162.831
X-24.635 Y163.449
X-24.505 Y164.078
X-24.413 Y164.713
X-24.349 Y165.352
X-24.309 Y165.993
X-24.287 Y166.635
X-24.279 Y167.277
X-24.283 Y167.919
X-24.296 Y168.561
X-24.315 Y169.203
X-24.34 Y169.845
X-24.369 Y170.486
X-24.403 Y171.128
X-24.444 Y171.769
X-24.493 Y172.409
X-24.553 Y173.048
X-24.631 Y173.686
X-24.731 Y174.32
X-24.861 Y174.949
X-25.013 Y175.482
X-25.136 Y175.813
X-25.259 Y176.076
X-25.331 Y176.203
X-25.457 Y176.366
X-25.622 Y176.488
X-25.815 Y176.56
X-26.02 Y176.576
X-27.243 Y176.501
G3 X-27.384 Y175.918 I0.03 J-0.316
G1 X-27.325 Y175.88 Z-7.992
X-27.269 Y175.844 Z-7.969
X-27.218 Y175.811 Z-7.931
X-27.176 Y175.784 Z-7.88
X-27.144 Y175.764 Z-7.82
X-27.124 Y175.751 Z-7.753
X-27.117 Y175.747 Z-7.682
G0 Z5
X-28.31 Y160.465
Z-7.365
G1 Z-7.682 F1000
X-28.303 Y160.461 Z-7.753
X-28.282 Y160.45 Z-7.82
X-28.248 Y160.433 Z-7.88
X-28.204 Y160.41 Z-7.931
X-28.15 Y160.382 Z-7.969
X-28.091 Y160.352 Z-7.992
X-28.028 Y160.319 Z-8
G3 X-27.262 Y160.144 I0.724 J1.407
G1 X-26.096 Y160.216
X-25.947 Y160.232
X-25.801 Y160.265
X-25.658 Y160.312
X-25.517 Y160.373
X-25.359 Y160.456
X-25.191 Y160.562
X-25.017 Y160.693
X-24.823 Y160.865
X-24.634 Y161.062
X-24.425 Y161.318
X-24.224 Y161.609
X-24.01 Y161.978
X-23.799 Y162.423
X-23.601 Y162.943
X-23.421 Y163.56
X-23.288 Y164.188
X-23.19 Y164.823
X-23.122 Y165.461
X-23.077 Y166.102
X-23.05 Y166.744
X-23.037 Y167.386
Y168.028
X-23.046 Y168.67
X-23.062 Y169.312
X-23.085 Y169.954
X-23.114 Y170.595
X-23.149 Y171.236
X-23.192 Y171.877
X-23.245 Y172.517
X-23.311 Y173.156
X-23.393 Y173.793
X-23.498 Y174.426
X-23.634 Y175.054
X-23.786 Y175.57
X-23.92 Y175.919
X-24.036 Y176.161
X-24.107 Y176.285
X-24.233 Y176.445
X-24.398 Y176.565
X-24.59 Y176.636
X-24.793 Y176.651
X-26.02 Y176.576
G3 X-26.162 Y175.993 I0.03 J-0.316
G1 X-26.102 Y175.955 Z-7.992
X-26.046 Y175.919 Z-7.969
X-25.995 Y175.886 Z-7.931
X-25.953 Y175.859 Z-7.88
X-25.921 Y175.838 Z-7.82
X-25.902 Y175.826 Z-7.753
X-25.895 Y175.821 Z-7.682
G0 Z5
X-27.144 Y160.536
Z-7.365
G1 Z-7.682 F1000
X-27.137 Y160.532 Z-7.753
X-27.116 Y160.521 Z-7.82
X-27.083 Y160.504 Z-7.88
X-27.038 Y160.481 Z-7.931
X-26.984 Y160.454 Z-7.969
X-26.925 Y160.423 Z-7.992
X-26.862 Y160.391 Z-8
G3 X-26.096 Y160.216 I0.724 J1.407
G1 X-24.93 Y160.287
X-24.781 Y160.304
X-24.635 Y160.335
X-24.492 Y160.38
X-24.348 Y160.44
X-24.192 Y160.52
X-24.019 Y160.627
X-23.846 Y160.754
X-23.648 Y160.927
X-23.459 Y161.119
X-23.244 Y161.378
X-23.044 Y161.661
X-22.823 Y162.034
X-22.611 Y162.469
X-22.404 Y162.995
X-22.218 Y163.61
X-22.128 Y164.012
X-22.116 Y164.08
X-22.111 Y164.15
X-22.112 Y164.219
G3 X-22.688 Y164.371 I-0.316 J-0.03
G1 X-22.695 Y164.361
X-25.15 Y160.856
X-25.199 Y160.787
G3 X-24.93 Y160.287 I0.26 J-0.182
G1 X-23.765 Y160.358
X-23.613 Y160.375
X-23.466 Y160.404
X-23.322 Y160.447
X-23.179 Y160.504
X-23.024 Y160.581
X-22.851 Y160.685
X-22.679 Y160.807
X-22.48 Y160.974
X-22.291 Y161.162
X-22.145 Y161.332
X-22.041 Y161.49
X-21.98 Y161.67
X-21.968 Y161.86
G3 X-22.478 Y162.08 I-0.316 J-0.03
G1 X-22.563 Y162.014
X-23.967 Y160.927
G3 X-24.09 Y160.676 I0.194 J-0.251
X-23.765 Y160.358 I0.317 J0
G1 X-22.519 Y160.435
X-22.37 Y160.451
X-22.182 Y160.534
X-22.033 Y160.676
X-21.942 Y160.86
X-21.919 Y161.064
G3 X-22.455 Y161.262 I-0.316 J-0.03
G1 X-22.508 Y161.211
X-22.731 Y160.997
X-22.747 Y160.981
G3 X-22.519 Y160.435 I0.22 J-0.229
G1 X-22.307 Y160.448
X-22.162 Y160.461
X-22.117 Y160.475
X-22.072 Y160.498
X-22.044 Y160.516
X-22.016 Y160.54
X-21.971 Y160.592
X-21.953 Y160.617
X-21.938 Y160.643
X-21.922 Y160.68
X-21.911 Y160.716
X-21.905 Y160.752
X-21.903 Y160.789
X-21.947 Y161.516
X-22.783 Y175.198
X-22.83 Y175.618
X-22.874 Y175.843
X-22.933 Y176.056
X-22.996 Y176.228
X-23.024 Y176.287
X-23.145 Y176.472
X-23.316 Y176.612
X-23.521 Y176.696
X-23.741 Y176.716
G3 X-23.994 Y176.257 I0.03 J-0.316
G1 X-23.918 Y176.106
X-23.384 Y175.047
G3 X-22.783 Y175.198 I0.283 J0.143
G1 X-22.859 Y176.435
X-22.863 Y176.472
X-22.871 Y176.508
X-22.89 Y176.559
X-22.918 Y176.606
X-22.937 Y176.63
X-22.96 Y176.654
X-22.998 Y176.686
X-23.036 Y176.71
X-23.072 Y176.727
X-23.109 Y176.739
X-23.145 Y176.746
X-23.182 Y176.749
X-23.327 Y176.741
X-24.793 Y176.651
G3 X-24.934 Y176.068 I0.03 J-0.316
G1 X-24.875 Y176.03 Z-7.992
X-24.819 Y175.994 Z-7.969
X-24.768 Y175.961 Z-7.931
X-24.726 Y175.934 Z-7.88
X-24.694 Y175.914 Z-7.82
X-24.674 Y175.901 Z-7.753
X-24.667 Y175.897 Z-7.682
G0 Z15
X-314.992 Y193.776
Z5
Z2.5
S5000
G3 X-314.639 Y190.78 Z2.335 I0.176 J-1.498 F333.3
X-314.992 Y193.776 Z2.169 I-0.176 J1.498
X-314.639 Y190.78 Z2.004 I0.176 J-1.498
X-314.992 Y193.776 Z1.838 I-0.176 J1.498
X-314.639 Y190.78 Z1.673 I0.176 J-1.498
X-314.992 Y193.776 Z1.507 I-0.176 J1.498
X-314.639 Y190.78 Z1.342 I0.176 J-1.498
X-314.992 Y193.776 Z1.176 I-0.176 J1.498
X-314.639 Y190.78 Z1.011 I0.176 J-1.498
X-314.992 Y193.776 Z0.845 I-0.176 J1.498
X-314.639 Y190.78 Z0.68 I0.176 J-1.498
X-314.992 Y193.776 Z0.515 I-0.176 J1.498
X-314.639 Y190.78 Z0.349 I0.176 J-1.498
X-314.992 Y193.776 Z0.184 I-0.176 J1.498
X-314.639 Y190.78 Z0.018 I0.176 J-1.498
X-314.992 Y193.776 Z-0.147 I-0.176 J1.498
X-314.639 Y190.78 Z-0.313 I0.176 J-1.498
X-314.992 Y193.776 Z-0.478 I-0.176 J1.498
X-314.639 Y190.78 Z-0.644 I0.176 J-1.498
X-314.992 Y193.776 Z-0.809 I-0.176 J1.498
X-314.639 Y190.78 Z-0.974 I0.176 J-1.498
X-314.992 Y193.776 Z-1.14 I-0.176 J1.498
X-314.639 Y190.78 Z-1.305 I0.176 J-1.498
X-314.992 Y193.776 Z-1.471 I-0.176 J1.498
X-314.639 Y190.78 Z-1.636 I0.176 J-1.498
X-314.992 Y193.776 Z-1.802 I-0.176 J1.498
X-314.639 Y190.78 Z-1.967 I0.176 J-1.498
X-314.992 Y193.776 Z-2.133 I-0.176 J1.498
X-314.639 Y190.78 Z-2.298 I0.176 J-1.498
X-314.992 Y193.776 Z-2.464 I-0.176 J1.498
X-314.639 Y190.78 Z-2.629 I0.176 J-1.498
X-314.992 Y193.776 Z-2.794 I-0.176 J1.498
X-314.639 Y190.78 Z-2.96 I0.176 J-1.498
X-314.992 Y193.776 Z-3.125 I-0.176 J1.498
X-314.639 Y190.78 Z-3.291 I0.176 J-1.498
X-314.992 Y193.776 Z-3.456 I-0.176 J1.498
X-314.639 Y190.78 Z-3.622 I0.176 J-1.498
X-314.992 Y193.776 Z-3.787 I-0.176 J1.498
X-314.639 Y190.78 Z-3.953 I0.176 J-1.498
X-314.992 Y193.776 Z-4.118 I-0.176 J1.498
X-314.639 Y190.78 Z-4.284 I0.176 J-1.498
X-314.992 Y193.776 Z-4.449 I-0.176 J1.498
X-314.639 Y190.78 Z-4.614 I0.176 J-1.498
X-314.992 Y193.776 Z-4.78 I-0.176 J1.498
X-314.639 Y190.78 Z-4.945 I0.176 J-1.498
X-314.992 Y193.776 Z-5.111 I-0.176 J1.498
X-314.639 Y190.78 Z-5.276 I0.176 J-1.498
X-314.992 Y193.776 Z-5.442 I-0.176 J1.498
X-314.639 Y190.78 Z-5.607 I0.176 J-1.498
X-314.992 Y193.776 Z-5.773 I-0.176 J1.498
X-314.639 Y190.78 Z-5.938 I0.176 J-1.498
X-314.992 Y193.776 Z-6.103 I-0.176 J1.498
X-314.639 Y190.78 Z-6.269 I0.176 J-1.498
X-314.992 Y193.776 Z-6.434 I-0.176 J1.498
X-314.639 Y190.78 Z-6.6 I0.176 J-1.498
X-314.992 Y193.776 Z-6.765 I-0.176 J1.498
X-314.639 Y190.78 Z-6.931 I0.176 J-1.498
X-314.992 Y193.776 Z-7.096 I-0.176 J1.498
X-314.639 Y190.78 Z-7.262 I0.176 J-1.498
X-314.992 Y193.776 Z-7.427 I-0.176 J1.498
X-314.639 Y190.78 Z-7.593 I0.176 J-1.498
X-314.992 Y193.776 Z-7.758 I-0.176 J1.498
X-314.639 Y190.78 Z-7.923 I0.176 J-1.498
X-313.307 Y192.278 Z-8 I-0.176 J1.498
X-316.324 Y192.278 I-1.508 J0
X-313.307 Y192.278 I1.508 J0
S6000
G1 X-313.291 Y192.92 F1000
X-313.262 Y192.995
X-313.227 Y193.141
X-313.224 Y193.291
X-313.245 Y193.439
X-313.288 Y193.583
X-313.348 Y193.721
X-313.424 Y193.85
X-313.513 Y193.971
X-313.614 Y194.081
X-313.725 Y194.182
X-313.845 Y194.273
X-313.972 Y194.353
X-314.105 Y194.421
X-314.247 Y194.481
X-314.396 Y194.529
X-314.553 Y194.567
X-314.715 Y194.592
X-314.882 Y194.605
X-315.052 Y194.604
X-315.224 Y194.589
X-315.397 Y194.56
X-315.569 Y194.517
X-315.738 Y194.46
X-315.905 Y194.388
X-316.066 Y194.302
X-316.221 Y194.204
X-316.368 Y194.092
X-316.507 Y193.968
X-316.636 Y193.833
X-316.754 Y193.687
X-316.861 Y193.531
X-316.955 Y193.367
X-317.036 Y193.195
X-317.103 Y193.017
X-317.156 Y192.834
X-317.194 Y192.646
X-317.217 Y192.456
X-317.224 Y192.264
X-317.216 Y192.072
X-317.193 Y191.881
X-317.154 Y191.693
X-317.101 Y191.508
X-317.032 Y191.327
X-316.949 Y191.153
X-316.853 Y190.986
X-316.743 Y190.826
X-316.621 Y190.677
X-316.487 Y190.537
X-316.342 Y190.409
X-316.187 Y190.292
X-316.024 Y190.188
X-315.853 Y190.098
X-315.675 Y190.022
X-315.491 Y189.96
X-315.303 Y189.913
X-315.112 Y189.882
X-314.918 Y189.866
X-314.725 Y189.865
X-314.531 Y189.88
X-314.34 Y189.911
X-314.152 Y189.957
X-313.967 Y190.017
X-313.789 Y190.093
X-313.617 Y190.182
X-313.452 Y190.285
X-313.297 Y190.401
X-313.151 Y190.529
X-313.016 Y190.668
X-312.893 Y190.818
X-312.781 Y190.977
X-312.677 Y191.156
X-312.538 Y191.444
X-312.383 Y191.844
X-312.296 Y192.14
X-312.24 Y192.403
X-312.209 Y192.646
X-312.198 Y192.874
X-312.206 Y193.092
X-312.229 Y193.301
X-312.27 Y193.507
X-312.326 Y193.708
X-312.399 Y193.903
X-312.487 Y194.092
X-312.59 Y194.274
X-312.707 Y194.448
X-312.84 Y194.613
X-312.987 Y194.769
X-313.149 Y194.915
X-313.323 Y195.048
X-313.511 Y195.17
X-313.711 Y195.277
X-313.922 Y195.369
X-314.143 Y195.446
X-314.372 Y195.505
X-314.608 Y195.546
X-314.85 Y195.568
X-315.095 Y195.57
X-315.343 Y195.553
X-315.591 Y195.516
X-315.837 Y195.458
X-316.079 Y195.38
X-316.316 Y195.283
X-316.547 Y195.165
X-316.768 Y195.029
X-316.979 Y194.875
X-317.178 Y194.703
X-317.364 Y194.515
X-317.534 Y194.311
X-317.689 Y194.094
X-317.826 Y193.864
X-317.944 Y193.623
X-318.043 Y193.373
X-318.122 Y193.115
X-318.18 Y192.851
X-318.217 Y192.582
X-318.232 Y192.311
X-318.225 Y192.039
X-318.196 Y191.768
X-318.146 Y191.5
X-318.074 Y191.236
X-317.981 Y190.979
X-317.868 Y190.73
X-317.735 Y190.491
X-317.583 Y190.262
X-317.413 Y190.047
X-317.227 Y189.846
X-317.024 Y189.661
X-316.808 Y189.492
X-316.578 Y189.341
X-316.337 Y189.209
X-316.087 Y189.097
X-315.827 Y189.005
X-315.562 Y188.934
X-315.291 Y188.885
X-315.018 Y188.858
X-314.743 Y188.852
X-314.468 Y188.869
X-314.196 Y188.908
X-313.927 Y188.968
X-313.665 Y189.05
X-313.409 Y189.153
X-313.163 Y189.276
X-312.927 Y189.418
X-312.704 Y189.579
X-312.492 Y189.759
X-312.278 Y189.972
X-312.059 Y190.228
X-311.857 Y190.509
X-311.671 Y190.814
X-311.511 Y191.133
X-311.38 Y191.456
X-311.279 Y191.779
X-311.206 Y192.099
X-311.16 Y192.415
X-311.14 Y192.729
X-311.146 Y193.039
X-311.175 Y193.344
X-311.229 Y193.643
X-311.306 Y193.935
X-311.406 Y194.218
X-311.527 Y194.492
X-311.671 Y194.756
X-311.835 Y195.007
X-312.02 Y195.246
X-312.225 Y195.47
X-312.448 Y195.678
X-312.689 Y195.869
X-312.947 Y196.042
X-313.22 Y196.194
X-313.371 Y196.263
X-313.501 Y196.309
X-313.637 Y196.329
X-313.775 Y196.324
X-314.969 Y196.168
X-315.406 Y196.105
X-316.574 Y195.925
X-316.794 Y195.879
X-316.987 Y195.823
X-317.18 Y195.75
X-317.381 Y195.654
X-317.592 Y195.532
X-317.801 Y195.387
X-318.004 Y195.221
X-318.204 Y195.029
X-318.397 Y194.81
X-318.58 Y194.568
X-318.747 Y194.303
X-318.896 Y194.02
X-319.024 Y193.72
X-319.129 Y193.406
X-319.21 Y193.08
X-319.265 Y192.744
X-319.293 Y192.401
X-319.294 Y192.053
X-319.266 Y191.703
X-319.21 Y191.355
X-319.126 Y191.01
X-319.014 Y190.672
X-318.875 Y190.344
X-318.71 Y190.026
X-318.519 Y189.723
X-318.304 Y189.435
X-318.067 Y189.165
X-317.808 Y188.914
X-317.53 Y188.685
X-317.234 Y188.479
X-316.922 Y188.297
X-316.756 Y188.218
X-316.62 Y188.168
X-316.476 Y188.146
X-316.331 Y188.152
X-313.072 Y188.615
X-312.812 Y188.666
X-312.629 Y188.717
X-312.438 Y188.787
X-312.235 Y188.88
X-312.016 Y189.004
X-311.802 Y189.148
X-311.574 Y189.33
X-311.342 Y189.547
X-311.124 Y189.788
X-310.913 Y190.062
X-310.714 Y190.367
X-310.536 Y190.697
X-310.381 Y191.048
X-310.254 Y191.414
X-310.155 Y191.791
X-310.088 Y192.176
X-310.051 Y192.565
X-310.045 Y192.956
X-310.071 Y193.346
X-310.128 Y193.731
X-310.216 Y194.111
X-310.334 Y194.481
X-310.481 Y194.842
X-310.657 Y195.189
X-310.861 Y195.523
X-311.091 Y195.84
X-311.348 Y196.138
X-311.538 Y196.327
X-311.719 Y196.459
X-311.932 Y196.531
X-312.156 Y196.536
X-313.775 Y196.324
G3 X-313.993 Y196.193 I0.041 J-0.315
G1 X-314.033 Y196.146
X-314.081 Y196.109
X-314.136 Y196.081
X-314.195 Y196.064
X-314.468 Y196.014
X-315.619 Y195.803
X-315.679 Y195.798
X-315.738 Y195.804
X-315.795 Y195.821
G3 X-316.574 Y195.925 I-0.592 J-1.468
G1 X-318.179 Y195.677
X-318.325 Y195.647
X-318.468 Y195.598
X-318.616 Y195.533
X-318.763 Y195.454
X-318.927 Y195.348
X-319.088 Y195.223
X-319.256 Y195.071
X-319.428 Y194.888
X-319.59 Y194.685
X-319.751 Y194.447
X-319.904 Y194.174
X-320.04 Y193.881
X-320.157 Y193.563
X-320.254 Y193.216
X-320.326 Y192.845
X-320.37 Y192.454
X-320.382 Y192.05
X-320.362 Y191.637
X-320.308 Y191.219
X-320.219 Y190.802
X-320.095 Y190.389
X-319.938 Y189.984
X-319.747 Y189.589
X-319.523 Y189.208
X-319.268 Y188.845
X-318.984 Y188.502
X-318.672 Y188.182
X-318.571 Y188.093
X-318.393 Y187.978
X-318.191 Y187.918
X-317.979
X-316.331 Y188.152
G3 X-316.079 Y188.543 I-0.056 J0.313
G1 X-316.144 Y188.798
X-317.752 Y195.122
X-317.833 Y195.44
G3 X-318.179 Y195.677 I-0.308 J-0.078
G1 X-319.346 Y195.496
X-319.493 Y195.466
X-319.636 Y195.423
X-319.775 Y195.365
X-319.908 Y195.296
X-320.054 Y195.204
X-320.198 Y195.096
X-320.356 Y194.957
X-320.506 Y194.802
X-320.665 Y194.608
X-320.816 Y194.391
X-320.962 Y194.141
X-321.103 Y193.846
X-321.225 Y193.528
X-321.327 Y193.18
X-321.408 Y192.792
X-321.461 Y192.371
X-321.481 Y191.925
X-321.465 Y191.466
X-321.411 Y191
X-321.316 Y190.525
X-321.18 Y190.045
X-321.002 Y189.567
X-320.783 Y189.098
X-320.523 Y188.642
X-320.238 Y188.223
X-320.049 Y187.989
X-319.911 Y187.857
X-319.744 Y187.765
X-319.559 Y187.718
X-319.368 Y187.72
X-317.979 Y187.918
G3 X-317.723 Y188.288 I-0.056 J0.313
G1 X-317.774 Y188.568
X-318.941 Y194.937
X-318.996 Y195.238
G3 X-319.346 Y195.496 I-0.312 J-0.057
G1 X-319.843 Y195.419
X-320.367 Y195.33
X-320.513 Y195.304
X-320.66 Y195.27
X-320.803 Y195.225
X-320.94 Y195.165
X-321.076 Y195.091
X-321.209 Y195.003
X-321.358 Y194.887
X-321.501 Y194.756
X-321.657 Y194.587
X-321.802 Y194.402
X-321.954 Y194.173
X-322.097 Y193.916
X-322.229 Y193.624
X-322.353 Y193.279
X-322.454 Y192.907
X-322.53 Y192.504
X-322.577 Y192.056
X-322.588 Y191.572
X-322.56 Y191.06
X-322.487 Y190.531
X-322.369 Y189.998
X-322.205 Y189.461
X-321.99 Y188.919
X-321.737 Y188.407
X-321.526 Y188.052
X-321.36 Y187.82
X-321.337 Y187.793
X-321.2 Y187.666
X-321.035 Y187.577
X-320.853 Y187.533
X-320.666 Y187.536
X-319.368 Y187.72
G3 X-319.11 Y188.08 I-0.056 J0.313
G1 X-319.154 Y188.372
X-320.112 Y194.751
X-320.154 Y195.037
G3 X-320.513 Y195.304 I-0.314 J-0.047
G1 X-321.68 Y195.096
X-321.827 Y195.062
X-321.968 Y195.012
X-322.104 Y194.948
X-322.239 Y194.869
X-322.372 Y194.776
X-322.52 Y194.653
X-322.663 Y194.514
X-322.818 Y194.335
X-322.963 Y194.14
X-323.114 Y193.898
X-323.252 Y193.63
X-323.382 Y193.319
X-323.503 Y192.95
X-323.596 Y192.562
X-323.665 Y192.122
X-323.702 Y191.629
X-323.699 Y191.094
X-323.651 Y190.535
X-323.556 Y189.968
X-323.407 Y189.377
X-323.205 Y188.779
X-322.991 Y188.283
X-322.818 Y187.957
X-322.663 Y187.713
X-322.611 Y187.645
X-322.472 Y187.505
X-322.302 Y187.407
X-322.112 Y187.357
X-321.916 Y187.358
X-320.666 Y187.536
G3 X-320.407 Y187.89 I-0.056 J0.313
G1 X-320.446 Y188.188
X-321.284 Y194.542
X-321.321 Y194.823
G3 X-321.68 Y195.096 I-0.315 J-0.042
G1 X-322.782 Y194.9
X-322.928 Y194.866
X-323.07 Y194.818
X-323.206 Y194.755
X-323.336 Y194.68
X-323.477 Y194.582
X-323.614 Y194.47
X-323.767 Y194.322
X-323.912 Y194.159
X-324.066 Y193.952
X-324.211 Y193.723
X-324.354 Y193.449
X-324.492 Y193.126
X-324.608 Y192.778
X-324.711 Y192.36
X-324.787 Y191.888
X-324.827 Y191.4
Y190.853
X-324.779 Y190.258
X-324.677 Y189.627
X-324.525 Y189.007
X-324.342 Y188.456
X-324.166 Y188.041
X-324.007 Y187.738
X-323.874 Y187.526
X-323.836 Y187.474
X-323.697 Y187.333
X-323.526 Y187.234
X-323.336 Y187.183
X-323.138 Y187.185
X-321.916 Y187.358
G3 X-321.656 Y187.706 I-0.056 J0.313
G1 X-321.69 Y188.011
X-322.391 Y194.345
X-322.422 Y194.62
G3 X-322.782 Y194.9 I-0.316 J-0.035
G1 X-323.869 Y194.706
X-324.015 Y194.672
X-324.158 Y194.627
X-324.295 Y194.566
X-324.426 Y194.493
X-324.567 Y194.398
X-324.704 Y194.288
X-324.856 Y194.146
X-325 Y193.987
X-325.158 Y193.782
X-325.303 Y193.558
X-325.455 Y193.278
X-325.592 Y192.966
X-325.716 Y192.611
X-325.826 Y192.187
X-325.906 Y191.729
X-325.954 Y191.221
X-325.962 Y190.641
X-325.92 Y190.013
X-325.826 Y189.378
X-325.688 Y188.781
X-325.519 Y188.251
X-325.363 Y187.868
X-325.214 Y187.574
X-325.087 Y187.367
X-325.046 Y187.311
X-324.908 Y187.166
X-324.736 Y187.064
X-324.543 Y187.012
X-324.343 Y187.013
X-323.138 Y187.185
G3 X-322.878 Y187.526 I-0.056 J0.313
G1 X-322.906 Y187.838
X-323.484 Y194.151
X-323.508 Y194.421
G3 X-323.869 Y194.706 I-0.316 J-0.029
G1 X-324.599 Y194.576
X-324.771 Y194.544
X-325.036 Y194.492
X-325.182 Y194.456
X-325.323 Y194.405
X-325.458 Y194.339
X-325.593 Y194.258
X-325.729 Y194.161
X-325.876 Y194.037
X-326.023 Y193.89
X-326.178 Y193.71
X-326.33 Y193.501
X-326.486 Y193.244
X-326.628 Y192.965
X-326.769 Y192.618
X-326.889 Y192.24
X-326.99 Y191.801
X-327.067 Y191.281
X-327.104 Y190.721
X-327.095 Y190.129
X-327.035 Y189.496
X-326.923 Y188.865
X-326.78 Y188.317
X-326.623 Y187.869
X-326.485 Y187.555
X-326.352 Y187.31
X-326.263 Y187.173
X-326.125 Y187.015
X-325.948 Y186.902
X-325.747 Y186.844
X-325.538 Y186.843
X-324.343 Y187.013
G3 X-324.082 Y187.353 I-0.056 J0.313
G1 X-324.109 Y187.667
X-324.648 Y193.943
X-324.671 Y194.206
G3 X-325.036 Y194.492 I-0.316 J-0.027
G1 X-325.328 Y194.434
X-326.204 Y194.258
X-326.349 Y194.221
X-326.489 Y194.166
X-326.622 Y194.097
X-326.753 Y194.015
X-326.898 Y193.906
X-327.04 Y193.782
X-327.196 Y193.62
X-327.344 Y193.441
X-327.503 Y193.212
X-327.651 Y192.959
X-327.801 Y192.647
X-327.939 Y192.288
X-328.057 Y191.887
X-328.158 Y191.408
X-328.225 Y190.873
X-328.251 Y190.315
X-328.23 Y189.692
X-328.157 Y189.06
X-328.038 Y188.462
X-327.9 Y187.971
X-327.76 Y187.595
X-327.62 Y187.294
X-327.501 Y187.085
X-327.438 Y186.992
X-327.3 Y186.84
X-327.125 Y186.731
X-326.927 Y186.675
X-326.721
X-325.538 Y186.843
G3 X-325.277 Y187.182 I-0.056 J0.313
G1 X-325.303 Y187.498
X-325.814 Y193.711
X-325.836 Y193.971
G3 X-326.204 Y194.258 I-0.316 J-0.026
G1 X-327.305 Y194.036
X-327.451 Y193.999
X-327.592 Y193.948
X-327.726 Y193.882
X-327.857 Y193.803
X-327.995 Y193.704
X-328.143 Y193.579
X-328.291 Y193.432
X-328.448 Y193.249
X-328.601 Y193.038
X-328.758 Y192.781
X-328.908 Y192.482
X-329.048 Y192.139
X-329.18 Y191.722
X-329.281 Y191.282
X-329.357 Y190.769
X-329.395 Y190.186
X-329.386 Y189.565
X-329.327 Y188.951
X-329.226 Y188.382
X-329.091 Y187.868
X-328.956 Y187.48
X-328.821 Y187.176
X-328.702 Y186.957
X-328.624 Y186.837
X-328.486 Y186.679
X-328.31 Y186.567
X-328.109 Y186.508
X-327.899
X-326.721 Y186.675
G3 X-326.46 Y187.01 I-0.056 J0.313
G1 X-326.483 Y187.33
X-326.919 Y193.489
X-326.937 Y193.745
G3 X-327.305 Y194.036 I-0.317 J-0.022
G1 X-328.406 Y193.814
X-328.559 Y193.776
X-328.701 Y193.727
X-328.837 Y193.664
X-328.967 Y193.589
X-329.108 Y193.491
X-329.251 Y193.374
X-329.403 Y193.228
X-329.558 Y193.052
X-329.716 Y192.842
X-329.869 Y192.599
X-330.027 Y192.299
X-330.165 Y191.975
X-330.301 Y191.568
X-330.411 Y191.123
X-330.493 Y190.62
X-330.539 Y190.049
X-330.54 Y189.446
X-330.491 Y188.837
X-330.4 Y188.267
X-330.274 Y187.753
X-330.143 Y187.358
X-330.011 Y187.048
X-329.894 Y186.823
X-329.804 Y186.68
X-329.666 Y186.518
X-329.488 Y186.402
X-329.285 Y186.342
X-329.073 Y186.341
X-327.899 Y186.508
G3 X-327.638 Y186.839 I-0.056 J0.313
G1 X-327.657 Y187.162
X-328.023 Y193.267
X-328.038 Y193.52
G3 X-328.406 Y193.814 I-0.317 J-0.019
G1 X-329.56 Y193.582
X-329.715 Y193.54
X-329.856 Y193.49
X-329.992 Y193.425
X-330.121 Y193.349
X-330.265 Y193.247
X-330.405 Y193.131
X-330.564 Y192.976
X-330.713 Y192.804
X-330.878 Y192.581
X-331.028 Y192.34
X-331.185 Y192.034
X-331.327 Y191.696
X-331.457 Y191.297
X-331.57 Y190.82
X-331.649 Y190.317
X-331.69 Y189.761
X-331.686 Y189.164
X-331.633 Y188.56
X-331.538 Y187.996
X-331.418 Y187.521
X-331.292 Y187.149
X-331.16 Y186.845
X-331.048 Y186.633
X-330.968 Y186.509
X-330.831 Y186.35
X-330.653 Y186.235
X-330.451 Y186.175
X-330.24
X-329.073 Y186.341
G3 X-328.811 Y186.672 I-0.056 J0.313
G1 X-328.83 Y186.996
X-329.176 Y193.035
X-329.191 Y193.287
G3 X-329.56 Y193.582 I-0.317 J-0.018
G1 X-329.997 Y193.487
X-330.727 Y193.324
X-330.88 Y193.282
X-331.021 Y193.23
X-331.156 Y193.165
X-331.284 Y193.088
X-331.429 Y192.985
X-331.569 Y192.867
X-331.727 Y192.71
X-331.875 Y192.538
X-332.04 Y192.311
X-332.191 Y192.066
X-332.349 Y191.754
X-332.487 Y191.415
X-332.615 Y191.013
X-332.726 Y190.535
X-332.801 Y190.034
X-332.806 Y189.954
X-332.808 Y189.903
X-332.806 Y189.851
X-332.8 Y189.8
G3 X-332.213 Y189.697 I0.313 J0.056
G1 X-332.208 Y189.706
X-330.424 Y192.8
X-330.393 Y192.854
G3 X-330.727 Y193.324 I-0.275 J0.159
G1 X-331.894 Y193.063
X-332.039 Y193.023
X-332.18 Y192.971
X-332.314 Y192.905
X-332.443 Y192.827
X-332.588 Y192.723
X-332.727 Y192.604
X-332.884 Y192.448
X-332.918 Y192.408
X-333.03 Y192.232
X-333.088 Y192.032
Y191.823
G3 X-332.559 Y191.646 I0.313 J0.056
G1 X-332.482 Y191.718
X-331.62 Y192.518
G3 X-331.894 Y193.063 I-0.216 J0.233
G1 X-332.916 Y192.835
X-332.966 Y192.819
X-332.992 Y192.808
X-333.017 Y192.793
X-333.062 Y192.76
X-333.093 Y192.732
X-333.117 Y192.704
X-333.136 Y192.676
X-333.152 Y192.647
X-333.166 Y192.611
X-333.176 Y192.574
X-333.181 Y192.538
X-333.182 Y192.502
X-333.164 Y192.356
X-332.5 Y187.688
X-332.411 Y187.229
X-332.336 Y186.958
X-332.242 Y186.703
X-332.154 Y186.512
X-332.085 Y186.389
X-331.949 Y186.215
X-331.768 Y186.089
X-331.557 Y186.021
X-331.335 Y186.019
G3 X-331.115 Y186.489 I-0.056 J0.313
G1 X-331.203 Y186.644
X-331.909 Y187.879
G3 X-332.5 Y187.688 I-0.276 J-0.157
G1 X-332.293 Y186.229
X-332.286 Y186.192
X-332.276 Y186.156
X-332.26 Y186.119
X-332.238 Y186.083
X-332.215 Y186.053
X-332.186 Y186.024
X-332.15 Y185.993
X-332.113 Y185.971
X-332.077 Y185.954
X-332.04 Y185.943
X-332.013 Y185.937
X-331.964 Y185.933
X-331.915 Y185.937
X-330.24 Y186.175
G3 X-330.146 Y186.768 I-0.056 J0.313
G1 X-330.208 Y186.801 Z-7.992
X-330.267 Y186.833 Z-7.969
X-330.32 Y186.861 Z-7.931
X-330.364 Y186.885 Z-7.88
X-330.398 Y186.903 Z-7.82
X-330.419 Y186.914 Z-7.753
X-330.426 Y186.917 Z-7.682
G0 Z5
X-314.142 Y188.851
Z-7.365
G1 Z-7.682 F1000
X-314.135 Y188.848 Z-7.753
X-314.113 Y188.839 Z-7.82
X-314.078 Y188.824 Z-7.88
X-314.032 Y188.805 Z-7.931
X-313.976 Y188.781 Z-7.969
X-313.914 Y188.756 Z-7.992
X-313.849 Y188.728 Z-8
G3 X-313.072 Y188.615 I0.609 J1.461
G1 X-311.467 Y188.843
X-311.319 Y188.872
X-311.175 Y188.913
X-311.034 Y188.965
X-310.87 Y189.042
X-310.709 Y189.134
X-310.526 Y189.259
X-310.349 Y189.401
X-310.156 Y189.584
X-309.968 Y189.793
X-309.783 Y190.036
X-309.6 Y190.322
X-309.429 Y190.642
X-309.28 Y190.983
X-309.152 Y191.36
X-309.048 Y191.765
X-308.975 Y192.193
X-308.936 Y192.638
X-308.932 Y193.092
X-308.965 Y193.552
X-309.036 Y194.013
X-309.144 Y194.47
X-309.29 Y194.92
X-309.472 Y195.359
X-309.69 Y195.784
X-309.921 Y196.157
X-310.13 Y196.442
X-310.149 Y196.463
X-310.284 Y196.585
X-310.445 Y196.67
X-310.622 Y196.713
X-310.804 Y196.712
X-312.156 Y196.536
G3 X-312.42 Y196.195 I0.052 J-0.313
G1 X-312.394 Y195.885
X-311.84 Y189.411
X-311.817 Y189.132
G3 X-311.467 Y188.843 I0.316 J0.027
G1 X-310.153 Y189.03
X-310.006 Y189.059
X-309.863 Y189.103
X-309.724 Y189.16
X-309.581 Y189.233
X-309.422 Y189.331
X-309.264 Y189.446
X-309.092 Y189.595
X-308.923 Y189.767
X-308.749 Y189.975
X-308.572 Y190.224
X-308.411 Y190.495
X-308.252 Y190.818
X-308.106 Y191.188
X-307.987 Y191.577
X-307.894 Y192.005
X-307.831 Y192.47
X-307.804 Y192.964
X-307.817 Y193.477
X-307.873 Y194.002
X-307.973 Y194.532
X-308.117 Y195.061
X-308.302 Y195.572
X-308.514 Y196.038
X-308.687 Y196.349
X-308.84 Y196.577
X-308.846 Y196.585
X-308.979 Y196.716
X-309.14 Y196.809
X-309.32 Y196.859
X-309.506 Y196.863
X-310.008 Y196.809
X-310.299 Y196.775
X-310.591 Y196.74
X-310.804 Y196.712
G3 X-311.069 Y196.374 I0.052 J-0.313
G1 X-311.044 Y196.061
X-310.526 Y189.598
X-310.504 Y189.32
G3 X-310.153 Y189.03 I0.316 J0.025
G1 X-308.986 Y189.196
X-308.839 Y189.225
X-308.694 Y189.265
X-308.555 Y189.32
X-308.421 Y189.387
X-308.27 Y189.477
X-308.122 Y189.585
X-307.958 Y189.724
X-307.797 Y189.884
X-307.624 Y190.087
X-307.463 Y190.309
X-307.297 Y190.584
X-307.141 Y190.894
X-307.001 Y191.239
X-306.874 Y191.644
X-306.771 Y192.099
X-306.702 Y192.57
X-306.67 Y193.085
X-306.679 Y193.638
X-306.736 Y194.218
X-306.842 Y194.808
X-306.995 Y195.39
X-307.179 Y195.911
X-307.338 Y196.269
X-307.488 Y196.545
X-307.566 Y196.664
X-307.7 Y196.817
X-307.869 Y196.928
X-308.063 Y196.989
X-308.265 Y196.995
X-309.506 Y196.863
G3 X-309.778 Y196.528 I0.045 J-0.314
G1 X-309.759 Y196.217
X-309.354 Y189.764
X-309.337 Y189.492
G3 X-308.986 Y189.196 I0.317 J0.02
G1 X-307.819 Y189.362
X-307.672 Y189.39
X-307.527 Y189.432
X-307.388 Y189.488
X-307.254 Y189.556
X-307.108 Y189.646
X-306.96 Y189.754
X-306.801 Y189.892
X-306.643 Y190.052
X-306.476 Y190.251
X-306.312 Y190.482
X-306.151 Y190.753
X-305.99 Y191.079
X-305.853 Y191.425
X-305.728 Y191.834
X-305.625 Y192.307
X-305.556 Y192.813
X-305.526 Y193.353
X-305.541 Y193.946
X-305.608 Y194.572
X-305.725 Y195.197
X-305.878 Y195.758
X-306.03 Y196.177
X-306.175 Y196.497
X-306.298 Y196.718
X-306.352 Y196.8
X-306.486 Y196.951
X-306.654 Y197.06
X-306.847 Y197.12
X-307.048 Y197.126
X-308.265 Y196.995
G3 X-308.538 Y196.664 I0.045 J-0.314
G1 X-308.521 Y196.35
X-308.184 Y189.93
X-308.17 Y189.661
G3 X-307.819 Y189.362 I0.317 J0.017
G1 X-306.652 Y189.528
X-306.504 Y189.556
X-306.361 Y189.6
X-306.223 Y189.659
X-306.087 Y189.73
X-305.94 Y189.824
X-305.792 Y189.937
X-305.632 Y190.079
X-305.473 Y190.245
X-305.307 Y190.45
X-305.143 Y190.688
X-304.983 Y190.968
X-304.823 Y191.307
X-304.687 Y191.667
X-304.563 Y192.097
X-304.462 Y192.596
X-304.399 Y193.122
X-304.376 Y193.701
X-304.402 Y194.334
X-304.48 Y194.971
X-304.602 Y195.568
X-304.745 Y196.063
X-304.878 Y196.414
X-305.012 Y196.698
X-305.13 Y196.904
X-305.154 Y196.938
X-305.287 Y197.085
X-305.454 Y197.191
X-305.644 Y197.249
X-305.843 Y197.255
X-307.048 Y197.126
G3 X-307.32 Y196.797 I0.045 J-0.314
G1 X-307.306 Y196.48
X-307.015 Y190.096
X-307.002 Y189.829
G3 X-306.652 Y189.528 I0.317 J0.014
G1 X-305.484 Y189.694
X-305.337 Y189.722
X-305.195 Y189.769
X-305.057 Y189.83
X-304.923 Y189.904
X-304.772 Y190.004
X-304.624 Y190.12
X-304.46 Y190.271
X-304.303 Y190.44
X-304.133 Y190.657
X-303.973 Y190.899
X-303.807 Y191.197
X-303.651 Y191.542
X-303.514 Y191.923
X-303.39 Y192.382
X-303.294 Y192.901
X-303.237 Y193.445
X-303.223 Y194.06
X-303.259 Y194.702
X-303.346 Y195.329
X-303.467 Y195.879
X-303.603 Y196.325
X-303.727 Y196.636
X-303.85 Y196.886
X-303.923 Y197.009
X-304.053 Y197.17
X-304.221 Y197.288
X-304.416 Y197.356
X-304.622 Y197.367
X-305.234 Y197.316
X-305.63 Y197.277
X-305.843 Y197.255
G3 X-306.115 Y196.928 I0.045 J-0.314
G1 X-306.102 Y196.609
X-305.846 Y190.262
X-305.835 Y189.997
G3 X-305.484 Y189.694 I0.317 J0.013
G1 X-304.383 Y189.85
X-304.235 Y189.879
X-304.091 Y189.921
X-303.953 Y189.979
X-303.82 Y190.048
X-303.676 Y190.138
X-303.524 Y190.251
X-303.368 Y190.388
X-303.204 Y190.557
X-303.041 Y190.755
X-302.873 Y190.996
X-302.706 Y191.28
X-302.55 Y191.606
X-302.396 Y192.003
X-302.27 Y192.428
X-302.166 Y192.923
X-302.093 Y193.495
X-302.064 Y194.118
X-302.085 Y194.752
X-302.154 Y195.36
X-302.261 Y195.905
X-302.391 Y196.365
X-302.513 Y196.696
X-302.628 Y196.943
X-302.714 Y197.095
X-302.843 Y197.262
X-303.013 Y197.385
X-303.211 Y197.456
X-303.421 Y197.469
X-304.622 Y197.367
G3 X-304.901 Y197.044 I0.038 J-0.315
G1 X-304.894 Y196.728
X-304.74 Y190.419
X-304.734 Y190.158
G3 X-304.383 Y189.85 I0.317 J0.008
G1 X-303.231 Y190.014
X-303.084 Y190.043
X-302.94 Y190.086
X-302.802 Y190.145
X-302.669 Y190.214
X-302.519 Y190.31
X-302.373 Y190.42
X-302.207 Y190.567
X-302.049 Y190.732
X-301.874 Y190.946
X-301.714 Y191.179
X-301.542 Y191.475
X-301.386 Y191.804
X-301.237 Y192.197
X-301.1 Y192.671
X-300.998 Y193.166
X-300.928 Y193.734
X-300.903 Y194.351
X-300.927 Y194.979
X-301 Y195.584
X-301.107 Y196.115
X-301.223 Y196.519
X-301.345 Y196.843
X-301.451 Y197.068
X-301.526 Y197.199
X-301.655 Y197.364
X-301.825 Y197.487
X-302.022 Y197.557
