(1001)
(Bearbeiten)
(  Hersteller: ChinaCnc)
(  model: 3040T)
(  description: Generic 3-axis)
(T16  D=6 CR=0 - ZMIN=-30.2 - Schaftfraser)
G90 G94
G17
G21
(When using Fusion 360 for Personal Use, the feedrate of)
(rapid moves is reduced to match the feedrate of cutting)
(moves, which can increase machining time. Unrestricted rapid)
(moves are available with a Fusion 360 Subscription.)

(2D Adaptive25)
T16
S6000 M3
G54
G0 X-38.881 Y-25.138
Z5
G1 Z3 F1000
Z-16.8
Z-17.4
X-38.883 Y-25.146 Z-17.494
X-38.889 Y-25.167 Z-17.585
X-38.898 Y-25.202 Z-17.672
X-38.91 Y-25.249 Z-17.753
X-38.925 Y-25.309 Z-17.824
X-38.943 Y-25.378 Z-17.885
X-38.963 Y-25.456 Z-17.935
X-38.984 Y-25.54 Z-17.971
X-39.007 Y-25.629 Z-17.993
X-39.03 Y-25.72 Z-18
G3 X-39.5 Y-28.986 I14.839 J-3.801
G1 Y-29.298
X-39.498 Y-29.335
X-39.402 Y-29.455
X-39.273 Y-29.59
X-39.105 Y-29.741
X-38.887 Y-29.907
X-38.608 Y-30.086
X-38.249 Y-30.278
X-37.783 Y-30.481
X-37.162 Y-30.693
X-36.303 Y-30.912
X-35.43 Y-31.062
X-34.55 Y-31.165
X-33.666 Y-31.236
X-32.782 Y-31.286
X-31.896 Y-31.32
X-31.01 Y-31.345
X-30.124 Y-31.361
X-29.238 Y-31.373
X-28.352 Y-31.381
X-27.466 Y-31.387
X-26.906 Y-31.389
X-26.594 Y-31.355
X-26.297 Y-31.253
X-26.03 Y-31.086
X-25.807 Y-30.864
X-25.639 Y-30.598
X-25.535 Y-30.302
X-25.5 Y-29.989
G3 X-26.067 Y-29.411 I-0.6 J-0.021
G1 X-38.868 Y-28.72
G3 X-39.5 Y-29.298 I-0.032 J-0.599
G1 Y-30.102
X-39.493 Y-30.252
X-39.431 Y-30.416
X-39.349 Y-30.589
X-39.234 Y-30.79
X-39.099 Y-30.987
X-38.922 Y-31.205
X-38.692 Y-31.447
X-38.435 Y-31.676
X-38.1 Y-31.93
X-37.71 Y-32.179
X-37.213 Y-32.443
X-36.604 Y-32.706
X-35.817 Y-32.972
X-34.958 Y-33.189
X-34.086 Y-33.349
X-33.208 Y-33.469
X-32.327 Y-33.557
X-31.443 Y-33.622
X-30.558 Y-33.669
X-29.673 Y-33.705
X-28.787 Y-33.729
X-28.082 Y-33.712
X-27.562 Y-33.657
X-27.087 Y-33.568
X-26.702 Y-33.464
X-26.33 Y-33.33
X-26.322 Y-33.326
X-26.047 Y-33.162
X-25.817 Y-32.939
X-25.644 Y-32.67
X-25.537 Y-32.369
X-25.5 Y-32.051
G3 X-26.009 Y-31.479 I-0.6 J-0.021
G1 X-38.81 Y-29.53
G3 X-39.5 Y-30.102 I-0.09 J-0.593
G1 Y-31.4
X-39.493 Y-31.55
X-39.461 Y-31.726
X-39.413 Y-31.91
X-39.342 Y-32.116
X-39.244 Y-32.339
X-39.118 Y-32.57
X-38.95 Y-32.83
X-38.754 Y-33.083
X-38.493 Y-33.372
X-38.197 Y-33.649
X-37.818 Y-33.952
X-37.38 Y-34.246
X-36.829 Y-34.557
X-36.159 Y-34.866
X-35.327 Y-35.171
X-34.474 Y-35.409
X-33.607 Y-35.594
X-32.733 Y-35.737
X-31.853 Y-35.847
X-30.971 Y-35.932
X-30.087 Y-35.987
X-29.201 Y-36
X-28.329 Y-35.954
X-27.666 Y-35.866
X-27.123 Y-35.748
X-26.699 Y-35.621
X-26.306 Y-35.467
X-26.135 Y-35.383
X-25.868 Y-35.213
X-25.646 Y-34.987
X-25.48 Y-34.718
X-25.38 Y-34.417
X-25.349 Y-34.102
X-25.39 Y-33.789
X-25.433 Y-33.613
X-25.47 Y-33.411
X-25.49 Y-33.21
X-25.497 Y-33.009
X-25.5 Y-32.406
Y-32.051
G3 X-26.069 Y-31.473 I-0.6 J-0.021
G1 X-38.87 Y-30.822
G3 X-39.5 Y-31.4 I-0.03 J-0.599
G1 Y-32.406
X-39.503 Y-33.009
X-39.505 Y-33.07
X-39.503 Y-33.22
X-39.484 Y-33.405
X-39.449 Y-33.597
X-39.389 Y-33.821
X-39.309 Y-34.046
X-39.193 Y-34.305
X-39.048 Y-34.568
X-38.859 Y-34.856
X-38.624 Y-35.155
X-38.338 Y-35.467
X-37.98 Y-35.798
X-37.561 Y-36.127
X-37.055 Y-36.464
X-36.429 Y-36.81
X-35.668 Y-37.155
X-34.834 Y-37.455
X-33.981 Y-37.695
X-33.116 Y-37.888
X-32.243 Y-38.038
X-31.364 Y-38.148
X-30.48 Y-38.214
X-29.594 Y-38.233
X-28.709 Y-38.197
X-27.91 Y-38.105
X-27.267 Y-37.978
X-26.746 Y-37.83
X-26.314 Y-37.67
X-25.95 Y-37.5
X-25.615 Y-37.31
X-25.327 Y-37.114
X-25.067 Y-36.905
X-24.947 Y-36.792
X-24.751 Y-36.562
X-24.609 Y-36.294
X-24.528 Y-36.003
X-24.511 Y-35.7
X-24.56 Y-35.401
X-24.672 Y-35.12
X-24.842 Y-34.869
G3 X-25.191 Y-34.681 I-0.444 J-0.404
G1 X-25.567 Y-34.621
X-38.813 Y-32.519
G3 X-39.505 Y-33.07 I-0.094 J-0.593
G1 X-39.51 Y-33.21
X-39.53 Y-33.411
X-39.567 Y-33.613
X-39.617 Y-33.814
X-39.659 Y-33.96
X-39.679 Y-34.015
X-39.724 Y-34.125
X-39.773 Y-34.267
X-39.805 Y-34.414
X-39.825 Y-34.575
X-39.833 Y-34.751
X-39.826 Y-34.948
X-39.801 Y-35.168
X-39.755 Y-35.402
X-39.681 Y-35.664
X-39.58 Y-35.934
X-39.44 Y-36.235
X-39.267 Y-36.54
X-39.036 Y-36.879
X-38.766 Y-37.215
X-38.417 Y-37.583
X-38.013 Y-37.947
X-37.52 Y-38.324
X-36.917 Y-38.712
X-36.202 Y-39.095
X-35.389 Y-39.45
X-34.553 Y-39.742
X-33.699 Y-39.979
X-32.833 Y-40.166
X-31.958 Y-40.307
X-31.077 Y-40.401
X-30.192 Y-40.448
X-29.306 Y-40.443
X-28.422 Y-40.379
X-27.593 Y-40.256
X-26.881 Y-40.091
X-26.24 Y-39.887
X-25.665 Y-39.651
X-25.192 Y-39.411
X-24.811 Y-39.179
X-24.468 Y-38.929
X-24.193 Y-38.692
X-23.935 Y-38.431
X-23.727 Y-38.184
X-23.536 Y-37.917
X-23.38 Y-37.657
X-23.305 Y-37.503
X-23.198 Y-37.209
X-23.16 Y-36.899
X-23.191 Y-36.587
X-23.291 Y-36.291
X-23.454 Y-36.024
X-23.673 Y-35.8
X-23.936 Y-35.63
X-23.994 Y-35.609
X-24.054 Y-35.597
X-24.712 Y-35.524
X-39.034 Y-33.928
X-39.323 Y-33.896
G3 X-39.724 Y-34.125 I-0.043 J-0.389
G1 X-39.761 Y-34.216
X-39.861 Y-34.42
X-39.979 Y-34.618
X-40.062 Y-34.748
X-40.116 Y-34.819
X-40.161 Y-34.872
X-40.252 Y-34.99
X-40.331 Y-35.118
X-40.397 Y-35.252
X-40.454 Y-35.398
X-40.5 Y-35.558
X-40.54 Y-35.744
X-40.565 Y-35.945
X-40.575 Y-36.175
X-40.567 Y-36.415
X-40.535 Y-36.691
X-40.479 Y-36.973
X-40.388 Y-37.295
X-40.268 Y-37.616
X-40.099 Y-37.979
X-39.894 Y-38.341
X-39.625 Y-38.735
X-39.298 Y-39.142
X-38.907 Y-39.555
X-38.414 Y-39.998
X-37.866 Y-40.417
X-37.202 Y-40.844
X-36.42 Y-41.263
X-35.608 Y-41.618
X-34.774 Y-41.916
X-33.923 Y-42.161
X-33.059 Y-42.358
X-32.185 Y-42.508
X-31.305 Y-42.61
X-30.42 Y-42.664
X-29.534 Y-42.666
X-28.65 Y-42.616
X-27.77 Y-42.507
X-26.901 Y-42.335
X-26.089 Y-42.109
X-25.387 Y-41.851
X-24.757 Y-41.56
X-24.185 Y-41.238
X-23.681 Y-40.899
X-23.236 Y-40.544
X-22.865 Y-40.195
X-22.542 Y-39.839
X-22.301 Y-39.526
X-22.085 Y-39.194
X-21.925 Y-38.897
X-21.783 Y-38.575
X-21.682 Y-38.285
X-21.602 Y-37.978
X-21.551 Y-37.687
X-21.524 Y-37.406
X-21.522 Y-37.254
X-21.55 Y-36.977
X-21.638 Y-36.712
X-21.783 Y-36.474
X-21.976 Y-36.274
X-22.21 Y-36.121
X-22.471 Y-36.025
X-22.748 Y-35.988
X-22.859 Y-35.972
X-23.642 Y-35.912
X-39.431 Y-34.697
X-39.672 Y-34.679
G3 X-40.161 Y-34.872 I-0.046 J-0.598
G1 X-40.288 Y-35.021
X-40.465 Y-35.194
X-40.494 Y-35.222
X-40.666 Y-35.373
X-40.867 Y-35.513
X-40.991 Y-35.599
X-41.096 Y-35.706
X-41.19 Y-35.822
X-41.279 Y-35.955
X-41.361 Y-36.1
X-41.44 Y-36.274
X-41.509 Y-36.461
X-41.569 Y-36.679
X-41.614 Y-36.915
X-41.643 Y-37.176
X-41.651 Y-37.466
X-41.636 Y-37.77
X-41.59 Y-38.116
X-41.514 Y-38.465
X-41.397 Y-38.854
X-41.239 Y-39.259
X-41.032 Y-39.685
X-40.759 Y-40.147
X-40.441 Y-40.597
X-40.042 Y-41.077
X-39.547 Y-41.583
X-38.998 Y-42.06
X-38.336 Y-42.549
X-37.583 Y-43.016
X-36.797 Y-43.423
X-35.984 Y-43.776
X-35.15 Y-44.077
X-34.301 Y-44.33
X-33.439 Y-44.536
X-32.568 Y-44.695
X-31.689 Y-44.809
X-30.805 Y-44.876
X-29.919 Y-44.896
X-29.033 Y-44.869
X-28.151 Y-44.793
X-27.274 Y-44.664
X-26.407 Y-44.479
X-25.556 Y-44.234
X-24.724 Y-43.928
X-23.952 Y-43.571
X-23.249 Y-43.175
X-22.614 Y-42.746
X-22.061 Y-42.304
X-21.588 Y-41.86
X-21.176 Y-41.405
X-20.82 Y-40.943
X-20.515 Y-40.472
X-20.262 Y-40.004
X-20.067 Y-39.56
X-19.918 Y-39.133
X-19.822 Y-38.763
X-19.757 Y-38.391
X-19.726 Y-38.064
X-19.722 Y-37.733
X-19.742 Y-37.432
X-19.785 Y-37.142
X-19.799 Y-37.084
X-19.903 Y-36.789
X-20.07 Y-36.525
X-20.291 Y-36.304
X-20.556 Y-36.138
X-20.852 Y-36.035
X-21.162 Y-36
X-22.144
X-22.748 Y-35.988
X-23.533 Y-35.964
X-40.095 Y-35.454
X-40.561 Y-35.44
G3 X-40.867 Y-35.513 I-0.018 J-0.6
G1 X-41.069 Y-35.632
X-41.27 Y-35.732
X-41.471 Y-35.816
X-41.595 Y-35.856
X-41.735 Y-35.908
X-41.868 Y-35.979
X-41.992 Y-36.062
X-42.109 Y-36.157
X-42.226 Y-36.27
X-42.339 Y-36.398
X-42.455 Y-36.553
X-42.564 Y-36.727
X-42.667 Y-36.925
X-42.764 Y-37.152
X-42.845 Y-37.398
X-42.915 Y-37.682
X-42.963 Y-37.98
X-42.99 Y-38.317
Y-38.681
X-42.958 Y-39.066
X-42.889 Y-39.494
X-42.781 Y-39.932
X-42.624 Y-40.4
X-42.406 Y-40.914
X-42.14 Y-41.422
X-41.803 Y-41.954
X-41.379 Y-42.521
X-40.88 Y-43.085
X-40.305 Y-43.639
X-39.619 Y-44.201
X-38.891 Y-44.705
X-38.128 Y-45.157
X-37.338 Y-45.557
X-36.525 Y-45.91
X-35.693 Y-46.216
X-34.847 Y-46.477
X-33.987 Y-46.693
X-33.118 Y-46.865
X-32.716 Y-46.924
X-32.469 Y-46.939
X-32.223 Y-46.909
X-31.987 Y-46.837
X-31.766 Y-46.725
X-31.204 Y-46.371
X-30.6 Y-45.997
X-30.398 Y-45.901
X-30.197 Y-45.81
X-29.996 Y-45.728
X-29.287 Y-45.48
X-28.698 Y-45.279
X-28.586 Y-45.256
X-28.184 Y-45.179
X-27.982 Y-45.148
X-26.976 Y-45.035
X-26.774 Y-45.014
X-26.17 Y-45
X-24.358
X-23.864 Y-44.975
X-23.504 Y-44.928
X-23.081 Y-44.838
X-22.657 Y-44.711
X-22.191 Y-44.529
X-21.702 Y-44.292
X-21.222 Y-44.009
X-20.741 Y-43.671
X-20.266 Y-43.277
X-19.814 Y-42.836
X-19.396 Y-42.357
X-19.021 Y-41.85
X-18.697 Y-41.33
X-18.424 Y-40.801
X-18.205 Y-40.276
X-18.036 Y-39.759
X-17.915 Y-39.252
X-17.845 Y-38.807
X-17.812 Y-38.37
X-17.815 Y-38.004
X-17.847 Y-37.63
X-17.9 Y-37.313
X-17.983 Y-36.986
X-17.995 Y-36.95
X-18.115 Y-36.687
X-18.288 Y-36.454
X-18.505 Y-36.262
X-18.756 Y-36.119
X-19.032 Y-36.03
X-19.32 Y-36
X-21.162
G3 X-21.697 Y-36.372 I0.021 J-0.6
G1 X-21.733 Y-36.462
X-24.893 Y-44.173
G3 X-24.358 Y-45 I0.555 J-0.227
G1 X-22.949
X-22.748 Y-45.002
X-22.345 Y-45.013
X-22.144 Y-45.027
X-21.877 Y-45.078
X-21.608 Y-45.115
X-21.391 Y-45.128
X-21.147 Y-45.122
X-20.887 Y-45.095
X-20.585 Y-45.039
X-20.278 Y-44.956
X-19.927 Y-44.83
X-19.574 Y-44.67
X-19.193 Y-44.459
X-18.793 Y-44.194
X-18.405 Y-43.89
X-18.009 Y-43.523
X-17.62 Y-43.1
X-17.251 Y-42.629
X-16.914 Y-42.119
X-16.617 Y-41.58
X-16.366 Y-41.02
X-16.165 Y-40.456
X-16.014 Y-39.893
X-15.912 Y-39.339
X-15.857 Y-38.798
X-15.847 Y-38.336
X-15.872 Y-37.921
X-15.926 Y-37.536
X-16.002 Y-37.194
X-16.067 Y-36.986
X-16.183 Y-36.714
X-16.355 Y-36.473
X-16.573 Y-36.273
X-16.829 Y-36.124
X-17.11 Y-36.031
X-17.404 Y-36
X-19.32
G3 X-19.872 Y-36.422 I0.021 J-0.6
G1 X-19.886 Y-36.464
X-22.318 Y-44.315
G3 X-21.877 Y-45.078 I0.573 J-0.178
G1 X-21.741 Y-45.104
X-21.54 Y-45.162
X-21.339 Y-45.236
X-21.137 Y-45.331
X-20.936 Y-45.444
X-20.875 Y-45.48
X-20.833 Y-45.51
X-20.706 Y-45.591
X-20.57 Y-45.655
X-20.415 Y-45.712
X-20.242 Y-45.761
X-20.045 Y-45.8
X-19.823 Y-45.826
X-19.58 Y-45.834
X-19.312 Y-45.822
X-19.02 Y-45.785
X-18.706 Y-45.719
X-18.363 Y-45.618
X-18.013 Y-45.483
X-17.625 Y-45.297
X-17.242 Y-45.074
X-16.84 Y-44.794
X-16.425 Y-44.452
X-16.023 Y-44.064
X-15.637 Y-43.624
X-15.264 Y-43.126
X-14.919 Y-42.576
X-14.612 Y-41.987
X-14.349 Y-41.366
X-14.14 Y-40.736
X-13.987 Y-40.109
X-13.888 Y-39.492
X-13.842 Y-38.903
X-13.843 Y-38.382
X-13.879 Y-37.941
X-13.947 Y-37.526
X-14.033 Y-37.176
X-14.107 Y-36.956
X-14.227 Y-36.691
X-14.4 Y-36.457
X-14.617 Y-36.264
X-14.869 Y-36.119
X-15.146 Y-36.03
X-15.435 Y-36
X-17.404
G3 X-17.946 Y-36.393 I0.021 J-0.6
G1 X-17.972 Y-36.463
X-21.026 Y-44.806
X-21.034 Y-44.826
G3 X-20.833 Y-45.51 I0.563 J-0.206
G1 X-20.735 Y-45.58
X-20.597 Y-45.681
X-20.533 Y-45.735
X-20.332 Y-45.933
X-20.198 Y-46.084
X-20.131 Y-46.166
X-20.035 Y-46.281
X-19.923 Y-46.381
X-19.802 Y-46.471
X-19.662 Y-46.557
X-19.506 Y-46.637
X-19.324 Y-46.712
X-19.123 Y-46.777
X-18.894 Y-46.831
X-18.641 Y-46.87
X-18.367 Y-46.89
X-18.059 Y-46.887
X-17.741 Y-46.858
X-17.379 Y-46.796
X-17.011 Y-46.702
X-16.614 Y-46.566
X-16.189 Y-46.381
X-15.77 Y-46.156
X-15.326 Y-45.871
X-14.866 Y-45.52
X-14.422 Y-45.121
X-13.988 Y-44.662
X-13.563 Y-44.134
X-13.162 Y-43.546
X-12.799 Y-42.907
X-12.482 Y-42.23
X-12.221 Y-41.527
X-12.02 Y-40.819
X-11.883 Y-40.126
X-11.804 Y-39.452
X-11.782 Y-38.82
X-11.807 Y-38.272
X-11.864 Y-37.823
X-11.952 Y-37.4
X-12.056 Y-37.047
X-12.113 Y-36.898
X-12.239 Y-36.648
X-12.413 Y-36.427
X-12.627 Y-36.246
X-12.873 Y-36.111
X-13.141 Y-36.028
X-13.42 Y-36
X-15.435
G3 X-15.959 Y-36.35 I0.021 J-0.6
G1 X-16.01 Y-36.46
X-20.117 Y-45.425
X-20.184 Y-45.573
G3 X-20.131 Y-46.166 I0.545 J-0.25
G1 X-20.041 Y-46.285
X-19.929 Y-46.464
X-19.811 Y-46.687
X-19.728 Y-46.863
X-19.718 Y-46.888
X-19.659 Y-47.026
X-19.584 Y-47.156
X-19.496 Y-47.278
X-19.398 Y-47.391
X-19.279 Y-47.506
X-19.146 Y-47.615
X-18.983 Y-47.729
X-18.806 Y-47.832
X-18.595 Y-47.933
X-18.367 Y-48.021
X-18.108 Y-48.098
X-17.819 Y-48.159
X-17.51 Y-48.198
X-17.16 Y-48.214
X-16.799 Y-48.202
X-16.402 Y-48.157
X-15.969 Y-48.071
X-15.533 Y-47.948
X-15.06 Y-47.773
X-14.56 Y-47.54
X-14.068 Y-47.261
X-13.56 Y-46.916
X-13.038 Y-46.497
X-12.515 Y-46.003
X-12.019 Y-45.453
X-11.553 Y-44.843
X-11.114 Y-44.163
X-10.719 Y-43.427
X-10.38 Y-42.651
X-10.104 Y-41.85
X-9.897 Y-41.041
X-9.76 Y-40.253
X-9.694 Y-39.523
X-9.687 Y-38.845
X-9.727 Y-38.266
X-9.801 Y-37.782
X-9.902 Y-37.351
X-10.018 Y-36.991
X-10.069 Y-36.866
X-10.199 Y-36.624
X-10.373 Y-36.411
X-10.585 Y-36.236
X-10.827 Y-36.107
X-11.09 Y-36.027
X-11.363 Y-36
X-13.42
G3 X-13.92 Y-36.303 I0.021 J-0.6
G1 X-14.007 Y-36.454
X-19.53 Y-46.157
X-19.67 Y-46.403
G3 X-19.718 Y-46.888 I0.521 J-0.297
G1 X-19.644 Y-47.09
X-19.588 Y-47.291
X-19.547 Y-47.492
X-19.527 Y-47.609
X-19.519 Y-47.693
X-19.499 Y-47.842
X-19.464 Y-47.988
X-19.413 Y-48.129
X-19.349 Y-48.264
X-19.272 Y-48.395
X-19.173 Y-48.537
X-19.059 Y-48.676
X-18.916 Y-48.823
X-18.755 Y-48.965
X-18.566 Y-49.105
X-18.348 Y-49.242
X-18.109 Y-49.367
X-17.828 Y-49.485
X-17.529 Y-49.584
X-17.194 Y-49.666
X-16.818 Y-49.726
X-16.429 Y-49.756
X-15.992 Y-49.755
X-15.52 Y-49.717
X-15.041 Y-49.638
X-14.52 Y-49.509
X-13.96 Y-49.321
X-13.4 Y-49.082
X-12.821 Y-48.777
X-12.218 Y-48.396
X-11.608 Y-47.936
X-11.006 Y-47.403
X-10.436 Y-46.81
X-9.886 Y-46.136
X-9.382 Y-45.407
X-8.936 Y-44.641
X-8.549 Y-43.844
X-8.221 Y-43.021
X-7.953 Y-42.176
X-7.749 Y-41.314
X-7.616 Y-40.456
X-7.555 Y-39.645
X-7.56 Y-38.901
X-7.612 Y-38.291
X-7.7 Y-37.771
X-7.811 Y-37.332
X-7.936 Y-36.961
X-7.987 Y-36.845
X-8.149 Y-36.564
X-8.372 Y-36.327
X-8.644 Y-36.149
X-8.949 Y-36.038
X-9.272 Y-36
X-11.363
G3 X-11.838 Y-36.261 I0.021 J-0.6
G1 X-11.964 Y-36.446
X-19.19 Y-46.998
X-19.415 Y-47.326
G3 X-19.519 Y-47.693 I0.495 J-0.339
G1 X-19.503 Y-47.894
X-19.5 Y-48.699
Y-48.809
X-19.493 Y-48.959
X-19.469 Y-49.107
X-19.433 Y-49.253
X-19.381 Y-49.404
X-19.311 Y-49.564
X-19.224 Y-49.727
X-19.111 Y-49.903
X-18.979 Y-50.075
X-18.816 Y-50.257
X-18.63 Y-50.433
X-18.413 Y-50.607
X-18.159 Y-50.78
X-17.884 Y-50.936
X-17.562 Y-51.087
X-17.208 Y-51.218
X-16.827 Y-51.326
X-16.395 Y-51.412
X-15.929 Y-51.466
X-15.437 Y-51.483
X-14.895 Y-51.458
X-14.311 Y-51.384
X-13.721 Y-51.261
X-13.092 Y-51.075
X-12.421 Y-50.818
X-11.723 Y-50.483
X-11.035 Y-50.082
X-10.351 Y-49.606
X-9.667 Y-49.043
X-9.029 Y-48.427
X-8.439 Y-47.766
X-7.898 Y-47.065
X-7.404 Y-46.329
X-6.961 Y-45.561
X-6.571 Y-44.766
X-6.233 Y-43.947
X-5.948 Y-43.108
X-5.718 Y-42.252
X-5.545 Y-41.383
X-5.433 Y-40.504
X-5.39 Y-39.643
X-5.414 Y-38.858
X-5.483 Y-38.236
X-5.588 Y-37.694
X-5.705 Y-37.273
X-5.851 Y-36.875
X-5.879 Y-36.814
X-6.044 Y-36.542
X-6.266 Y-36.314
X-6.534 Y-36.143
X-6.834 Y-36.036
X-7.15 Y-36
X-9.272
G3 X-9.722 Y-36.228 I0.021 J-0.6
G1 X-9.886 Y-36.436
X-19.12 Y-48.14
X-19.371 Y-48.459
G3 X-19.5 Y-48.809 I0.471 J-0.372
G1 Y-50.217
X-19.493 Y-50.367
X-19.472 Y-50.516
X-19.437 Y-50.675
X-19.384 Y-50.844
X-19.313 Y-51.022
X-19.218 Y-51.214
X-19.102 Y-51.407
X-18.954 Y-51.614
X-18.785 Y-51.814
X-18.576 Y-52.024
X-18.338 Y-52.228
X-18.065 Y-52.426
X-17.744 Y-52.622
X-17.4 Y-52.796
X-17.004 Y-52.957
X-16.555 Y-53.1
X-16.084 Y-53.208
X-15.56 Y-53.285
X-14.977 Y-53.324
X-14.369 Y-53.315
X-13.726 Y-53.254
X-13.023 Y-53.129
X-12.276 Y-52.934
X-11.511 Y-52.667
X-10.75 Y-52.33
X-9.971 Y-51.908
X-9.228 Y-51.426
X-8.522 Y-50.89
X-7.855 Y-50.306
X-7.228 Y-49.68
X-6.642 Y-49.016
X-6.098 Y-48.316
X-5.598 Y-47.584
X-5.143 Y-46.823
X-4.733 Y-46.038
X-4.368 Y-45.231
X-4.049 Y-44.404
X-3.776 Y-43.561
X-3.553 Y-42.703
X-3.383 Y-41.834
X-3.269 Y-40.955
X-3.213 Y-40.071
X-3.221 Y-39.22
X-3.289 Y-38.468
X-3.389 Y-37.889
X-3.509 Y-37.42
X-3.654 Y-37
X-3.724 Y-36.84
X-3.887 Y-36.56
X-4.11 Y-36.325
X-4.381 Y-36.148
X-4.685 Y-36.037
X-5.007 Y-36
X-7.15
G3 X-7.584 Y-36.208 I0.021 J-0.6
G1 X-7.774 Y-36.428
X-19.107 Y-49.559
X-19.355 Y-49.846
G3 X-19.5 Y-50.217 I0.454 J-0.392
G1 Y-51.827
X-19.493 Y-51.976
X-19.469 Y-52.135
X-19.428 Y-52.313
X-19.368 Y-52.498
X-19.287 Y-52.698
X-19.18 Y-52.908
X-19.048 Y-53.124
X-18.88 Y-53.353
X-18.687 Y-53.577
X-18.448 Y-53.814
X-18.182 Y-54.038
X-17.868 Y-54.262
X-17.503 Y-54.48
X-17.108 Y-54.675
X-16.648 Y-54.858
X-16.137 Y-55.015
X-15.598 Y-55.134
X-14.986 Y-55.219
X-14.306 Y-55.258
X-13.606 Y-55.241
X-12.854 Y-55.163
X-12.048 Y-55.013
X-11.197 Y-54.782
X-10.363 Y-54.483
X-9.554 Y-54.121
X-8.774 Y-53.702
X-8.024 Y-53.229
X-7.307 Y-52.708
X-6.623 Y-52.144
X-5.974 Y-51.542
X-5.36 Y-50.903
X-4.782 Y-50.231
X-4.242 Y-49.529
X-3.74 Y-48.798
X-3.278 Y-48.042
X-2.856 Y-47.263
X-2.474 Y-46.463
X-2.132 Y-45.646
X-1.831 Y-44.812
X-1.574 Y-43.964
X-1.36 Y-43.104
X-1.195 Y-42.234
X-1.08 Y-41.355
X-1.019 Y-40.471
X-1.015 Y-39.585
X-1.072 Y-38.766
X-1.17 Y-38.113
X-1.297 Y-37.572
X-1.437 Y-37.136
X-1.548 Y-36.867
X-1.677 Y-36.624
X-1.852 Y-36.411
X-2.064 Y-36.237
X-2.306 Y-36.107
X-2.569 Y-36.027
X-2.843 Y-36
X-5.007
G3 X-5.429 Y-36.195 I0.021 J-0.6
G1 X-5.636 Y-36.422
X-19.099 Y-51.175
X-19.344 Y-51.443
G3 X-19.5 Y-51.827 I0.443 J-0.404
G1 Y-53.526
X-19.493 Y-53.676
X-19.467 Y-53.849
X-19.424 Y-54.034
X-19.36 Y-54.236
X-19.273 Y-54.449
X-19.16 Y-54.673
X-19.015 Y-54.91
X-18.84 Y-55.15
X-18.621 Y-55.405
X-18.374 Y-55.65
X-18.071 Y-55.906
X-17.733 Y-56.147
X-17.341 Y-56.382
X-16.88 Y-56.611
X-16.39 Y-56.806
X-15.827 Y-56.98
X-15.188 Y-57.122
X-14.52 Y-57.215
X-13.786 Y-57.258
X-12.972 Y-57.239
X-12.101 Y-57.15
X-11.23 Y-56.989
X-10.373 Y-56.762
X-9.536 Y-56.472
X-8.72 Y-56.126
X-7.929 Y-55.727
X-7.163 Y-55.281
X-6.425 Y-54.791
X-5.714 Y-54.262
X-5.033 Y-53.695
X-4.383 Y-53.093
X-3.764 Y-52.459
X-3.179 Y-51.793
X-2.627 Y-51.1
X-2.109 Y-50.381
X-1.625 Y-49.639
X-1.176 Y-48.875
X-0.761 Y-48.092
X-0.383 Y-47.291
X-0.041 Y-46.473
X0.262 Y-45.641
X0.526 Y-44.795
X0.75 Y-43.937
X0.931 Y-43.07
X1.069 Y-42.194
X1.163 Y-41.313
X1.206 Y-40.428
X1.193 Y-39.542
X1.117 Y-38.692
X1.001 Y-38.013
X0.872 Y-37.506
X0.721 Y-37.066
X0.623 Y-36.841
X0.46 Y-36.561
X0.237 Y-36.326
X-0.034 Y-36.148
X-0.339 Y-36.038
X-0.661 Y-36
X-2.843
G3 X-3.257 Y-36.187 I0.021 J-0.6
G1 X-3.477 Y-36.418
X-19.094 Y-52.88
X-19.336 Y-53.134
G3 X-19.5 Y-53.526 I0.435 J-0.413
G1 Y-55.246
X-19.491 Y-55.434
X-19.467 Y-55.615
X-19.427 Y-55.803
X-19.363 Y-56.015
X-19.279 Y-56.232
X-19.162 Y-56.473
X-19.019 Y-56.715
X-18.834 Y-56.979
X-18.621 Y-57.235
X-18.352 Y-57.511
X-18.051 Y-57.774
X-17.686 Y-58.044
X-17.265 Y-58.306
X-16.803 Y-58.544
X-16.257 Y-58.772
X-15.65 Y-58.971
X-14.995 Y-59.128
X-14.242 Y-59.245
X-13.412 Y-59.307
X-12.534 Y-59.302
X-11.651 Y-59.226
X-10.777 Y-59.082
X-9.915 Y-58.877
X-9.068 Y-58.615
X-8.239 Y-58.302
X-7.43 Y-57.941
X-6.642 Y-57.535
X-5.877 Y-57.089
X-5.135 Y-56.603
X-4.42 Y-56.08
X-3.731 Y-55.523
X-3.07 Y-54.933
X-2.436 Y-54.314
X-1.831 Y-53.666
X-1.256 Y-52.992
X-0.71 Y-52.294
X-0.194 Y-51.574
X0.291 Y-50.832
X0.744 Y-50.071
X1.165 Y-49.291
X1.553 Y-48.495
X1.908 Y-47.682
X2.229 Y-46.856
X2.515 Y-46.018
X2.765 Y-45.168
X2.98 Y-44.308
X3.156 Y-43.44
X3.292 Y-42.564
X3.385 Y-41.683
X3.431 Y-40.798
X3.427 Y-39.912
X3.366 Y-39.028
X3.258 Y-38.284
X3.12 Y-37.68
X2.977 Y-37.226
X2.81 Y-36.814
X2.788 Y-36.772
X2.62 Y-36.513
X2.399 Y-36.297
X2.136 Y-36.135
X1.844 Y-36.034
X1.537 Y-36
X-0.661
G3 X-1.069 Y-36.18 I0.021 J-0.6
G1 X-1.298 Y-36.415
X-19.09 Y-54.603
X-19.329 Y-54.848
G3 X-19.5 Y-55.246 I0.429 J-0.42
G1 Y-57.147
X-19.493 Y-57.297
X-19.467 Y-57.487
X-19.424 Y-57.683
X-19.357 Y-57.906
X-19.266 Y-58.135
X-19.143 Y-58.387
X-18.992 Y-58.641
X-18.795 Y-58.919
X-18.568 Y-59.19
X-18.279 Y-59.485
X-17.958 Y-59.762
X-17.567 Y-60.05
X-17.118 Y-60.326
X-16.614 Y-60.584
X-16.009 Y-60.834
X-15.358 Y-61.044
X-14.631 Y-61.216
X-13.813 Y-61.34
X-12.929 Y-61.403
X-12.043 Y-61.395
X-11.16 Y-61.323
X-10.284 Y-61.191
X-9.418 Y-61.001
X-8.566 Y-60.76
X-7.728 Y-60.471
X-6.907 Y-60.138
X-6.104 Y-59.763
X-5.32 Y-59.35
X-4.557 Y-58.899
X-3.816 Y-58.414
X-3.097 Y-57.895
X-2.403 Y-57.345
X-1.733 Y-56.765
X-1.088 Y-56.157
X-0.469 Y-55.523
X0.124 Y-54.864
X0.691 Y-54.183
X1.231 Y-53.481
X1.743 Y-52.758
X2.228 Y-52.016
X2.683 Y-51.256
X3.109 Y-50.479
X3.504 Y-49.686
X3.87 Y-48.878
X4.204 Y-48.058
X4.507 Y-47.225
X4.779 Y-46.382
X5.018 Y-45.528
X5.223 Y-44.666
X5.394 Y-43.797
X5.526 Y-42.921
X5.618 Y-42.039
X5.667 Y-41.154
X5.671 Y-40.268
X5.623 Y-39.383
X5.515 Y-38.51
X5.385 Y-37.875
X5.236 Y-37.363
X5.072 Y-36.932
X5.009 Y-36.799
X4.843 Y-36.532
X4.621 Y-36.308
X4.355 Y-36.14
X4.058 Y-36.035
X3.745 Y-36
X1.537
G3 X1.133 Y-36.177 I0.021 J-0.6
G1 X0.898 Y-36.413
X-19.088 Y-56.506
X-19.326 Y-56.745
G3 X-19.5 Y-57.147 I0.425 J-0.423
G1 Y-58.957
X-19.487 Y-59.213
X-19.463 Y-59.4
X-19.418 Y-59.61
X-19.352 Y-59.83
X-19.256 Y-60.076
X-19.135 Y-60.325
X-18.973 Y-60.601
X-18.78 Y-60.875
X-18.533 Y-61.173
X-18.245 Y-61.468
X-17.899 Y-61.77
X-17.485 Y-62.076
X-17.029 Y-62.36
X-16.471 Y-62.648
X-15.856 Y-62.905
X-15.166 Y-63.13
X-14.376 Y-63.32
X-13.5 Y-63.457
X-12.617 Y-63.523
X-11.73 Y-63.525
X-10.846 Y-63.466
X-9.968 Y-63.35
X-9.098 Y-63.182
X-8.238 Y-62.966
X-7.391 Y-62.706
X-6.558 Y-62.404
X-5.74 Y-62.063
X-4.939 Y-61.685
X-4.155 Y-61.272
X-3.39 Y-60.825
X-2.644 Y-60.345
X-1.92 Y-59.835
X-1.217 Y-59.295
X-0.536 Y-58.729
X0.122 Y-58.136
X0.758 Y-57.519
X1.371 Y-56.878
X1.96 Y-56.216
X2.525 Y-55.534
X3.066 Y-54.832
X3.581 Y-54.11
X4.069 Y-53.371
X4.531 Y-52.615
X4.966 Y-51.843
X5.374 Y-51.056
X5.754 Y-50.256
X6.107 Y-49.443
X6.431 Y-48.619
X6.727 Y-47.783
X6.994 Y-46.938
X7.23 Y-46.084
X7.435 Y-45.222
X7.606 Y-44.353
X7.742 Y-43.477
X7.842 Y-42.596
X7.903 Y-41.712
X7.924 Y-40.827
X7.901 Y-39.941
X7.824 Y-39.058
X7.694 Y-38.251
X7.546 Y-37.644
X7.395 Y-37.189
X7.218 Y-36.77
X7.209 Y-36.753
X7.04 Y-36.5
X6.82 Y-36.289
X6.559 Y-36.131
X6.271 Y-36.033
X5.968 Y-36
X3.745
G3 X3.181 Y-36.465 I0.021 J-0.6
G1 X3.16 Y-36.556 Z-17.993
X3.139 Y-36.645 Z-17.971
X3.12 Y-36.73 Z-17.935
X3.102 Y-36.808 Z-17.885
X3.085 Y-36.878 Z-17.824
X3.072 Y-36.938 Z-17.753
X3.061 Y-36.986 Z-17.672
X3.053 Y-37.021 Z-17.585
X3.048 Y-37.042 Z-17.494
X3.046 Y-37.049 Z-17.4
Z-16.8
X-18.972 Y-57.688
Z-17.4
X-18.976 Y-57.694 Z-17.494
X-18.987 Y-57.713 Z-17.585
X-19.005 Y-57.744 Z-17.672
X-19.031 Y-57.787 Z-17.753
X-19.062 Y-57.839 Z-17.824
X-19.098 Y-57.901 Z-17.885
X-19.139 Y-57.97 Z-17.935
X-19.184 Y-58.044 Z-17.971
X-19.231 Y-58.123 Z-17.993
X-19.279 Y-58.204 Z-18
G3 X-19.5 Y-58.957 I1.36 J-0.809
G1 Y-60.969
X-19.49 Y-61.175
X-19.465 Y-61.364
X-19.418 Y-61.585
X-19.351 Y-61.808
X-19.251 Y-62.064
X-19.128 Y-62.318
X-18.957 Y-62.607
X-18.759 Y-62.89
X-18.498 Y-63.204
X-18.206 Y-63.504
X-17.837 Y-63.825
X-17.418 Y-64.135
X-16.925 Y-64.442
X-16.331 Y-64.749
X-15.699 Y-65.013
X-14.958 Y-65.255
X-14.117 Y-65.456
X-13.241 Y-65.593
X-12.358 Y-65.664
X-11.472 Y-65.675
X-10.587 Y-65.63
X-9.707 Y-65.531
X-8.833 Y-65.384
X-7.968 Y-65.192
X-7.113 Y-64.958
X-6.27 Y-64.684
X-5.44 Y-64.374
X-4.624 Y-64.028
X-3.823 Y-63.649
X-3.039 Y-63.237
X-2.271 Y-62.794
X-1.522 Y-62.321
X-0.791 Y-61.82
X-0.08 Y-61.291
X0.612 Y-60.738
X1.283 Y-60.159
X1.934 Y-59.558
X2.564 Y-58.935
X3.173 Y-58.291
X3.76 Y-57.627
X4.325 Y-56.945
X4.867 Y-56.244
X5.385 Y-55.525
X5.879 Y-54.789
X6.349 Y-54.038
X6.794 Y-53.271
X7.214 Y-52.491
X7.609 Y-51.698
X7.979 Y-50.893
X8.323 Y-50.076
X8.641 Y-49.249
X8.932 Y-48.412
X9.197 Y-47.567
X9.432 Y-46.712
X9.638 Y-45.85
X9.813 Y-44.982
X9.955 Y-44.107
X10.065 Y-43.228
X10.14 Y-42.345
X10.179 Y-41.46
X10.178 Y-40.573
X10.132 Y-39.689
X10.031 Y-38.808
X9.886 Y-38.048
X9.729 Y-37.478
X9.569 Y-37.039
X9.389 Y-36.646
X9.234 Y-36.428
X9.037 Y-36.247
X8.806 Y-36.112
X8.552 Y-36.028
X8.286 Y-36
X5.968
G3 X5.404 Y-36.465 I0.021 J-0.6
G1 X5.383 Y-36.556 Z-17.993
X5.362 Y-36.645 Z-17.971
X5.343 Y-36.73 Z-17.935
X5.325 Y-36.808 Z-17.885
X5.309 Y-36.878 Z-17.824
X5.295 Y-36.938 Z-17.753
X5.284 Y-36.986 Z-17.672
X5.276 Y-37.021 Z-17.585
X5.271 Y-37.042 Z-17.494
X5.269 Y-37.049 Z-17.4
Z-16.8
X-18.972 Y-59.7
Z-17.4
X-18.976 Y-59.706 Z-17.494
X-18.987 Y-59.725 Z-17.585
X-19.005 Y-59.756 Z-17.672
X-19.031 Y-59.798 Z-17.753
X-19.062 Y-59.851 Z-17.824
X-19.098 Y-59.912 Z-17.885
X-19.139 Y-59.981 Z-17.935
X-19.184 Y-60.056 Z-17.971
X-19.231 Y-60.135 Z-17.993
X-19.279 Y-60.215 Z-18
G3 X-19.5 Y-60.969 I1.36 J-0.809
G1 Y-62.98
X-19.49 Y-63.182
X-19.465 Y-63.374
X-19.417 Y-63.598
X-19.348 Y-63.827
X-19.247 Y-64.087
X-19.119 Y-64.351
X-18.947 Y-64.643
X-18.738 Y-64.941
X-18.472 Y-65.261
X-18.168 Y-65.573
X-17.78 Y-65.911
X-17.356 Y-66.225
X-16.828 Y-66.554
X-16.227 Y-66.863
X-15.557 Y-67.144
X-14.773 Y-67.4
X-13.911 Y-67.606
X-13.036 Y-67.745
X-12.153 Y-67.823
X-11.267 Y-67.844
X-10.382 Y-67.812
X-9.5 Y-67.73
X-8.623 Y-67.603
X-7.753 Y-67.433
X-6.892 Y-67.223
X-6.041 Y-66.976
X-5.201 Y-66.694
X-4.373 Y-66.378
X-3.558 Y-66.03
X-2.757 Y-65.651
X-1.971 Y-65.242
X-1.201 Y-64.804
X-0.447 Y-64.338
X0.29 Y-63.846
X1.009 Y-63.329
X1.711 Y-62.787
X2.394 Y-62.223
X3.059 Y-61.637
X3.705 Y-61.031
X4.331 Y-60.404
X4.938 Y-59.758
X5.524 Y-59.094
X6.09 Y-58.412
X6.635 Y-57.713
X7.157 Y-56.997
X7.657 Y-56.266
X8.135 Y-55.519
X8.59 Y-54.759
X9.023 Y-53.986
X9.432 Y-53.2
X9.818 Y-52.402
X10.181 Y-51.594
X10.519 Y-50.775
X10.834 Y-49.946
X11.123 Y-49.109
X11.387 Y-48.263
X11.624 Y-47.409
X11.832 Y-46.548
X12.013 Y-45.68
X12.164 Y-44.807
X12.285 Y-43.929
X12.374 Y-43.047
X12.431 Y-42.163
X12.452 Y-41.277
X12.434 Y-40.391
X12.369 Y-39.508
X12.251 Y-38.629
X12.09 Y-37.879
X11.925 Y-37.328
X11.758 Y-36.898
X11.705 Y-36.789
X11.538 Y-36.525
X11.316 Y-36.304
X11.051 Y-36.138
X10.756 Y-36.035
X10.445 Y-36
X8.286
G3 X7.723 Y-36.465 I0.021 J-0.6
G1 X7.702 Y-36.556 Z-17.993
X7.681 Y-36.645 Z-17.971
X7.661 Y-36.73 Z-17.935
X7.643 Y-36.808 Z-17.885
X7.627 Y-36.878 Z-17.824
X7.613 Y-36.938 Z-17.753
X7.602 Y-36.986 Z-17.672
X7.594 Y-37.021 Z-17.585
X7.589 Y-37.042 Z-17.494
X7.588 Y-37.049 Z-17.4
Z-16.8
X-18.972 Y-61.711
Z-17.4
X-18.976 Y-61.717 Z-17.494
X-18.987 Y-61.736 Z-17.585
X-19.005 Y-61.767 Z-17.672
X-19.031 Y-61.81 Z-17.753
X-19.062 Y-61.862 Z-17.824
X-19.098 Y-61.924 Z-17.885
X-19.139 Y-61.993 Z-17.935
X-19.184 Y-62.067 Z-17.971
X-19.231 Y-62.146 Z-17.993
X-19.279 Y-62.227 Z-18
G3 X-19.5 Y-62.98 I1.36 J-0.809
G1 Y-64.992
X-19.488 Y-65.223
X-19.463 Y-65.419
X-19.414 Y-65.645
X-19.344 Y-65.88
X-19.243 Y-66.14
X-19.108 Y-66.418
X-18.936 Y-66.71
X-18.718 Y-67.021
X-18.452 Y-67.341
X-18.132 Y-67.669
X-17.739 Y-68.011
X-17.295 Y-68.34
X-16.741 Y-68.684
X-16.135 Y-68.997
X-15.427 Y-69.293
X-14.606 Y-69.561
X-13.744 Y-69.768
X-12.87 Y-69.911
X-11.988 Y-69.996
X-11.102 Y-70.027
X-10.216 Y-70.009
X-9.332 Y-69.943
X-8.453 Y-69.834
X-7.58 Y-69.685
X-6.713 Y-69.497
X-5.856 Y-69.275
X-5.008 Y-69.018
X-4.17 Y-68.729
X-3.343 Y-68.41
X-2.529 Y-68.06
X-1.727 Y-67.683
X-0.939 Y-67.277
X-0.166 Y-66.845
X0.592 Y-66.386
X1.335 Y-65.903
X2.062 Y-65.396
X2.772 Y-64.867
X3.467 Y-64.316
X4.144 Y-63.744
X4.803 Y-63.153
X5.446 Y-62.542
X6.07 Y-61.913
X6.676 Y-61.267
X7.263 Y-60.603
X7.83 Y-59.922
X8.378 Y-59.226
X8.905 Y-58.513
X9.411 Y-57.786
X9.897 Y-57.045
X10.362 Y-56.291
X10.806 Y-55.524
X11.229 Y-54.745
X11.63 Y-53.955
X12.01 Y-53.154
X12.367 Y-52.344
X12.703 Y-51.523
X13.015 Y-50.694
X13.304 Y-49.856
X13.568 Y-49.011
X13.807 Y-48.157
X14.021 Y-47.297
X14.208 Y-46.431
X14.368 Y-45.56
X14.5 Y-44.683
X14.604 Y-43.803
X14.677 Y-42.92
X14.719 Y-42.035
X14.726 Y-41.149
X14.693 Y-40.264
X14.615 Y-39.381
X14.484 Y-38.505
X14.329 Y-37.826
X14.17 Y-37.318
X13.99 Y-36.872
X13.939 Y-36.773
X13.771 Y-36.513
X13.55 Y-36.297
X13.287 Y-36.135
X12.995 Y-36.034
X12.688 Y-36
X10.445
G3 X9.882 Y-36.465 I0.021 J-0.6
G1 X9.86 Y-36.556 Z-17.993
X9.84 Y-36.645 Z-17.971
X9.82 Y-36.73 Z-17.935
X9.802 Y-36.808 Z-17.885
X9.786 Y-36.878 Z-17.824
X9.772 Y-36.938 Z-17.753
X9.761 Y-36.986 Z-17.672
X9.753 Y-37.021 Z-17.585
X9.748 Y-37.042 Z-17.494
X9.747 Y-37.049 Z-17.4
Z-16.8
X-18.972 Y-63.723
Z-17.4
X-18.976 Y-63.729 Z-17.494
X-18.987 Y-63.748 Z-17.585
X-19.005 Y-63.779 Z-17.672
X-19.031 Y-63.821 Z-17.753
X-19.062 Y-63.874 Z-17.824
X-19.098 Y-63.935 Z-17.885
X-19.139 Y-64.004 Z-17.935
X-19.184 Y-64.079 Z-17.971
X-19.231 Y-64.158 Z-17.993
X-19.279 Y-64.238 Z-18
G3 X-19.5 Y-64.992 I1.36 J-0.809
G1 Y-67.003
X-19.486 Y-67.291
X-19.459 Y-67.491
X-19.411 Y-67.717
X-19.338 Y-67.961
X-19.237 Y-68.221
X-19.096 Y-68.51
X-18.925 Y-68.802
X-18.698 Y-69.124
X-18.433 Y-69.444
X-18.098 Y-69.787
X-17.706 Y-70.13
X-17.239 Y-70.475
X-16.67 Y-70.829
X-16.049 Y-71.149
X-15.31 Y-71.458
X-14.468 Y-71.733
X-13.607 Y-71.941
X-12.733 Y-72.089
X-11.852 Y-72.181
X-10.966 Y-72.222
X-10.08 Y-72.217
X-9.196 Y-72.166
X-8.314 Y-72.074
X-7.438 Y-71.944
X-6.567 Y-71.777
X-5.704 Y-71.576
X-4.85 Y-71.343
X-4.004 Y-71.079
X-3.168 Y-70.785
X-2.342 Y-70.463
X-1.528 Y-70.114
X-0.725 Y-69.738
X0.065 Y-69.336
X0.841 Y-68.909
X1.603 Y-68.458
X2.352 Y-67.983
X3.086 Y-67.486
X3.804 Y-66.968
X4.508 Y-66.43
X5.196 Y-65.871
X5.868 Y-65.294
X6.525 Y-64.698
X7.164 Y-64.085
X7.787 Y-63.455
X8.393 Y-62.808
X8.981 Y-62.145
X9.55 Y-61.466
X10.101 Y-60.772
X10.633 Y-60.064
X11.146 Y-59.341
X11.64 Y-58.605
X12.115 Y-57.857
X12.569 Y-57.096
X13.005 Y-56.324
X13.42 Y-55.542
X13.815 Y-54.748
X14.189 Y-53.945
X14.543 Y-53.133
X14.876 Y-52.312
X15.188 Y-51.482
X15.477 Y-50.645
X15.743 Y-49.799
X15.986 Y-48.947
X16.204 Y-48.088
X16.398 Y-47.224
X16.567 Y-46.354
X16.711 Y-45.479
X16.827 Y-44.601
X16.917 Y-43.719
X16.977 Y-42.835
X17.007 Y-41.95
X17.002 Y-41.064
X16.958 Y-40.179
X16.87 Y-39.297
X16.728 Y-38.422
X16.567 Y-37.757
X16.403 Y-37.259
X16.217 Y-36.818
X16.185 Y-36.755
X16.016 Y-36.501
X15.795 Y-36.29
X15.535 Y-36.131
X15.246 Y-36.033
X14.942 Y-36
X12.688
G3 X12.124 Y-36.465 I0.021 J-0.6
G1 X12.103 Y-36.556 Z-17.993
X12.083 Y-36.645 Z-17.971
X12.063 Y-36.73 Z-17.935
X12.045 Y-36.808 Z-17.885
X12.029 Y-36.878 Z-17.824
X12.015 Y-36.938 Z-17.753
X12.004 Y-36.986 Z-17.672
X11.996 Y-37.021 Z-17.585
X11.991 Y-37.042 Z-17.494
X11.989 Y-37.049 Z-17.4
Z-16.8
X-18.972 Y-65.734
Z-17.4
X-18.976 Y-65.74 Z-17.494
X-18.987 Y-65.759 Z-17.585
X-19.005 Y-65.79 Z-17.672
X-19.031 Y-65.833 Z-17.753
X-19.062 Y-65.885 Z-17.824
X-19.098 Y-65.947 Z-17.885
X-19.139 Y-66.016 Z-17.935
X-19.184 Y-66.09 Z-17.971
X-19.231 Y-66.169 Z-17.993
X-19.279 Y-66.25 Z-18
G3 X-19.5 Y-67.003 I1.36 J-0.809
G1 Y-69.216
X-19.492 Y-69.374
X-19.465 Y-69.581
X-19.417 Y-69.806
X-19.341 Y-70.059
X-19.24 Y-70.319
X-19.095 Y-70.617
X-18.922 Y-70.911
X-18.689 Y-71.243
X-18.422 Y-71.565
X-18.074 Y-71.922
X-17.681 Y-72.264
X-17.194 Y-72.625
X-16.617 Y-72.984
X-15.974 Y-73.315
X-15.207 Y-73.636
X-14.364 Y-73.911
X-13.504 Y-74.122
X-12.631 Y-74.275
X-11.75 Y-74.376
X-10.866 Y-74.427
X-9.98 Y-74.434
X-9.094 Y-74.398
X-8.211 Y-74.322
X-7.332 Y-74.21
X-6.459 Y-74.062
X-5.591 Y-73.882
X-4.731 Y-73.67
X-3.878 Y-73.429
X-3.034 Y-73.16
X-2.199 Y-72.863
X-1.374 Y-72.54
X-0.559 Y-72.191
X0.245 Y-71.818
X1.036 Y-71.42
X1.816 Y-70.998
X2.582 Y-70.554
X3.336 Y-70.088
X4.076 Y-69.601
X4.803 Y-69.093
X5.515 Y-68.566
X6.213 Y-68.021
X6.897 Y-67.457
X7.565 Y-66.875
X8.219 Y-66.277
X8.857 Y-65.662
X9.479 Y-65.031
X10.085 Y-64.384
X10.675 Y-63.723
X11.247 Y-63.046
X11.802 Y-62.355
X12.339 Y-61.651
X12.859 Y-60.933
X13.36 Y-60.202
X13.843 Y-59.46
X14.309 Y-58.705
X14.756 Y-57.94
X15.184 Y-57.164
X15.593 Y-56.379
X15.984 Y-55.583
X16.355 Y-54.779
X16.707 Y-53.965
X17.039 Y-53.144
X17.35 Y-52.314
X17.641 Y-51.477
X17.909 Y-50.633
X18.156 Y-49.781
X18.38 Y-48.924
X18.582 Y-48.061
X18.76 Y-47.193
X18.914 Y-46.321
X19.044 Y-45.444
X19.149 Y-44.564
X19.227 Y-43.681
X19.277 Y-42.797
X19.297 Y-41.911
X19.283 Y-41.025
X19.23 Y-40.14
X19.134 Y-39.259
X18.985 Y-38.386
X18.821 Y-37.726
X18.653 Y-37.229
X18.465 Y-36.791
X18.442 Y-36.747
X18.272 Y-36.495
X18.052 Y-36.286
X17.792 Y-36.13
X17.505 Y-36.033
X17.204 Y-36
X14.942
G3 X14.379 Y-36.465 I0.021 J-0.6
G1 X14.357 Y-36.556 Z-17.993
X14.337 Y-36.645 Z-17.971
X14.317 Y-36.73 Z-17.935
X14.299 Y-36.808 Z-17.885
X14.283 Y-36.878 Z-17.824
X14.269 Y-36.938 Z-17.753
X14.258 Y-36.986 Z-17.672
X14.25 Y-37.021 Z-17.585
X14.245 Y-37.042 Z-17.494
X14.244 Y-37.049 Z-17.4
Z-16.8
X-18.972 Y-67.947
Z-17.4
X-18.976 Y-67.953 Z-17.494
X-18.987 Y-67.972 Z-17.585
X-19.005 Y-68.003 Z-17.672
X-19.031 Y-68.045 Z-17.753
X-19.062 Y-68.098 Z-17.824
X-19.098 Y-68.159 Z-17.885
X-19.139 Y-68.228 Z-17.935
X-19.184 Y-68.303 Z-17.971
X-19.231 Y-68.382 Z-17.993
X-19.279 Y-68.462 Z-18
G3 X-19.5 Y-69.216 I1.36 J-0.809
G1 Y-71.227
X-19.488 Y-71.482
X-19.461 Y-71.692
X-19.414 Y-71.916
X-19.338 Y-72.173
X-19.238 Y-72.433
X-19.094 Y-72.733
X-18.921 Y-73.03
X-18.686 Y-73.366
X-18.418 Y-73.691
X-18.064 Y-74.057
X-17.672 Y-74.402
X-17.625 Y-74.437
X-17.407 Y-74.57
X-17.168 Y-74.662
X-16.917 Y-74.708
G3 X-16.393 Y-73.763 I0.034 J0.599
G1 X-18.41 Y-70.905
G3 X-19.5 Y-71.227 I-0.49 J-0.346
G1 X-19.502 Y-71.831
X-19.514 Y-72.032
X-19.527 Y-72.174
X-19.574 Y-72.434
X-19.628 Y-72.635
X-19.668 Y-72.78
X-19.693 Y-72.929
X-19.708 Y-73.095
Y-73.163
X-19.679 Y-73.459
X-19.588 Y-73.741
X-19.44 Y-73.998
X-19.241 Y-74.218
X-19 Y-74.391
X-18.728 Y-74.509
X-18.437 Y-74.568
G3 X-17.886 Y-73.663 I0.034 J0.599
G1 X-18.551 Y-72.542
G3 X-19.628 Y-72.635 I-0.516 J-0.306
G1 X-19.696 Y-72.837
X-19.728 Y-72.917
X-19.78 Y-73.038
X-19.929 Y-73.317
X-20.001 Y-73.44
X-20.076 Y-73.57
X-20.104 Y-73.775
X-20.071 Y-73.98
X-19.981 Y-74.167
X-19.84 Y-74.319
X-19.661 Y-74.424
X-19.46 Y-74.473
G3 X-18.865 Y-74.132 I0.036 J0.627
X-20.001 Y-73.44 I-0.594 J0.303
G1 X-20.068 Y-73.541
X-20.094 Y-73.591
X-20.115 Y-73.641
X-20.131 Y-73.689
X-20.146 Y-73.766
X-20.151 Y-73.842
X-20.147 Y-73.923
X-20.131 Y-74.003
X-20.118 Y-74.044
X-20.098 Y-74.094
X-20.072 Y-74.144
X-20.04 Y-74.194
X-20 Y-74.245
X-19.929 Y-74.315
X-19.879 Y-74.355
X-19.829 Y-74.387
X-19.778 Y-74.412
X-19.728 Y-74.432
X-19.68 Y-74.446
X-19.527 Y-74.467
X-12.077 Y-75.155
X-11.675 Y-75.191
X-6.239 Y-75.605
X-5.353 Y-75.628
X-4.586 Y-75.596
X-3.706 Y-75.487
X-2.837 Y-75.314
X-1.98 Y-75.089
X-1.135 Y-74.821
X-0.303 Y-74.518
X0.517 Y-74.182
X1.325 Y-73.818
X2.121 Y-73.428
X2.904 Y-73.014
X3.675 Y-72.577
X4.433 Y-72.118
X5.178 Y-71.638
X5.909 Y-71.138
X6.628 Y-70.619
X7.333 Y-70.083
X8.024 Y-69.528
X8.702 Y-68.957
X9.365 Y-68.37
X10.014 Y-67.766
X10.648 Y-67.147
X11.267 Y-66.513
X11.871 Y-65.865
X12.459 Y-65.202
X13.032 Y-64.526
X13.588 Y-63.836
X14.128 Y-63.133
X14.65 Y-62.417
X15.156 Y-61.69
X15.645 Y-60.951
X16.117 Y-60.201
X16.571 Y-59.44
X17.008 Y-58.669
X17.428 Y-57.888
X17.829 Y-57.098
X18.213 Y-56.3
X18.578 Y-55.492
X18.925 Y-54.677
X19.252 Y-53.854
X19.561 Y-53.023
X19.849 Y-52.185
X20.117 Y-51.34
X20.365 Y-50.49
X20.592 Y-49.633
X20.797 Y-48.771
X20.98 Y-47.904
X21.141 Y-47.033
X21.279 Y-46.157
X21.393 Y-45.278
X21.482 Y-44.397
X21.546 Y-43.513
X21.581 Y-42.628
X21.587 Y-41.742
X21.559 Y-40.856
X21.495 Y-39.972
X21.385 Y-39.093
X21.221 Y-38.222
X21.051 Y-37.596
X20.882 Y-37.126
X20.743 Y-36.821
X20.579 Y-36.547
X20.356 Y-36.317
X20.087 Y-36.144
X19.786 Y-36.037
X19.468 Y-36
X17.204
G3 X16.64 Y-36.465 I0.021 J-0.6
G1 X16.619 Y-36.556 Z-17.993
X16.598 Y-36.645 Z-17.971
X16.579 Y-36.73 Z-17.935
X16.561 Y-36.808 Z-17.885
X16.545 Y-36.878 Z-17.824
X16.531 Y-36.938 Z-17.753
X16.52 Y-36.986 Z-17.672
X16.512 Y-37.021 Z-17.585
X16.507 Y-37.042 Z-17.494
X16.505 Y-37.049 Z-17.4
Z-16.8
X-7.464 Y-74.982
Z-17.4
X-7.458 Y-74.986 Z-17.494
X-7.44 Y-74.999 Z-17.585
X-7.411 Y-75.02 Z-17.672
X-7.371 Y-75.048 Z-17.753
X-7.321 Y-75.083 Z-17.824
X-7.262 Y-75.124 Z-17.885
X-7.196 Y-75.17 Z-17.935
X-7.125 Y-75.22 Z-17.971
X-7.05 Y-75.273 Z-17.993
X-6.974 Y-75.327 Z-18
G3 X-6.239 Y-75.605 I0.91 J1.295
G1 X-1.407 Y-75.973
X-0.803 Y-76.009
X-0.108 Y-76.015
X0.439 Y-75.976
X1.082 Y-75.878
X1.868 Y-75.692
X2.711 Y-75.42
X3.534 Y-75.089
X4.336 Y-74.714
X5.121 Y-74.301
X5.888 Y-73.859
X6.64 Y-73.39
X7.377 Y-72.898
X8.099 Y-72.385
X8.808 Y-71.852
X9.502 Y-71.302
X10.183 Y-70.734
X10.849 Y-70.15
X11.502 Y-69.551
X12.14 Y-68.936
X12.764 Y-68.306
X13.373 Y-67.663
X13.967 Y-67.006
X14.546 Y-66.335
X15.111 Y-65.652
X15.659 Y-64.956
X16.192 Y-64.248
X16.71 Y-63.529
X17.211 Y-62.798
X17.697 Y-62.057
X18.166 Y-61.305
X18.619 Y-60.544
X19.055 Y-59.773
X19.475 Y-58.992
X19.878 Y-58.203
X20.264 Y-57.405
X20.633 Y-56.599
X20.983 Y-55.786
X21.316 Y-54.964
X21.63 Y-54.136
X21.926 Y-53.3
X22.203 Y-52.459
X22.46 Y-51.611
X22.698 Y-50.757
X22.916 Y-49.898
X23.114 Y-49.035
X23.291 Y-48.166
X23.447 Y-47.294
X23.581 Y-46.418
X23.692 Y-45.539
X23.78 Y-44.657
X23.843 Y-43.773
X23.878 Y-42.888
X23.885 Y-42.002
X23.86 Y-41.116
X23.8 Y-40.232
X23.7 Y-39.352
X23.549 Y-38.478
X23.375 Y-37.771
X23.207 Y-37.268
X23.015 Y-36.818
X22.979 Y-36.75
X22.809 Y-36.497
X22.589 Y-36.288
X22.329 Y-36.13
X22.041 Y-36.033
X21.739 Y-36
X19.468
G3 X18.905 Y-36.465 I0.021 J-0.6
G1 X18.884 Y-36.556 Z-17.993
X18.863 Y-36.645 Z-17.971
X18.843 Y-36.73 Z-17.935
X18.825 Y-36.808 Z-17.885
X18.809 Y-36.878 Z-17.824
X18.796 Y-36.938 Z-17.753
X18.784 Y-36.986 Z-17.672
X18.776 Y-37.021 Z-17.585
X18.771 Y-37.042 Z-17.494
X18.77 Y-37.049 Z-17.4
Z-16.8
X-2.039 Y-75.406
Z-17.4
X-2.033 Y-75.41 Z-17.494
X-2.014 Y-75.423 Z-17.585
X-1.985 Y-75.443 Z-17.672
X-1.944 Y-75.471 Z-17.753
X-1.893 Y-75.505 Z-17.824
X-1.834 Y-75.545 Z-17.885
X-1.768 Y-75.59 Z-17.935
X-1.696 Y-75.639 Z-17.971
X-1.62 Y-75.69 Z-17.993
X-1.542 Y-75.743 Z-18
G3 X-0.803 Y-76.009 I0.888 J1.31
G1 X3.626 Y-76.268
X4.063 Y-76.272
X4.507 Y-76.24
X5.017 Y-76.162
X5.627 Y-76.017
X6.361 Y-75.779
X7.18 Y-75.44
X7.971 Y-75.041
X8.738 Y-74.597
X9.484 Y-74.118
X10.21 Y-73.61
X10.918 Y-73.077
X11.609 Y-72.523
X12.285 Y-71.95
X12.945 Y-71.359
X13.591 Y-70.752
X14.222 Y-70.13
X14.838 Y-69.493
X15.44 Y-68.842
X16.027 Y-68.179
X16.6 Y-67.503
X17.158 Y-66.815
X17.701 Y-66.115
X18.23 Y-65.403
X18.743 Y-64.681
X19.242 Y-63.949
X19.725 Y-63.206
X20.193 Y-62.454
X20.646 Y-61.692
X21.083 Y-60.921
X21.504 Y-60.141
X21.909 Y-59.353
X22.298 Y-58.557
X22.67 Y-57.752
X23.025 Y-56.941
X23.363 Y-56.121
X23.684 Y-55.295
X23.987 Y-54.463
X24.272 Y-53.624
X24.54 Y-52.779
X24.789 Y-51.929
X25.019 Y-51.073
X25.231 Y-50.213
X25.423 Y-49.348
X25.595 Y-48.478
X25.748 Y-47.605
X25.88 Y-46.729
X25.99 Y-45.85
X26.077 Y-44.968
X26.14 Y-44.084
X26.178 Y-43.199
X26.187 Y-42.313
X26.167 Y-41.427
X26.114 Y-40.542
X26.024 Y-39.661
X25.889 Y-38.785
X25.711 Y-37.985
X25.529 Y-37.397
X25.349 Y-36.945
X25.266 Y-36.779
X25.099 Y-36.517
X24.877 Y-36.3
X24.614 Y-36.136
X24.32 Y-36.034
X24.012 Y-36
X21.739
G3 X21.176 Y-36.465 I0.021 J-0.6
G1 X21.154 Y-36.556 Z-17.993
X21.134 Y-36.645 Z-17.971
X21.114 Y-36.73 Z-17.935
X21.096 Y-36.808 Z-17.885
X21.08 Y-36.878 Z-17.824
X21.066 Y-36.938 Z-17.753
X21.055 Y-36.986 Z-17.672
X21.047 Y-37.021 Z-17.585
X21.042 Y-37.042 Z-17.494
X21.041 Y-37.049 Z-17.4
Z-16.8
X2.39 Y-75.667
Z-17.4
X2.396 Y-75.671 Z-17.494
X2.414 Y-75.683 Z-17.585
X2.444 Y-75.704 Z-17.672
X2.485 Y-75.731 Z-17.753
X2.535 Y-75.765 Z-17.824
X2.595 Y-75.806 Z-17.885
X2.661 Y-75.851 Z-17.935
X2.733 Y-75.899 Z-17.971
X2.809 Y-75.951 Z-17.993
X2.887 Y-76.003 Z-18
G3 X3.626 Y-76.268 I0.887 J1.311
G1 X7.25 Y-76.48
X7.773 Y-76.485
X8.167 Y-76.456
X8.606 Y-76.389
X9.135 Y-76.264
X9.755 Y-76.063
X10.484 Y-75.761
X11.273 Y-75.356
X12.03 Y-74.897
X12.761 Y-74.396
X13.469 Y-73.862
X14.155 Y-73.302
X14.822 Y-72.718
X15.471 Y-72.115
X16.104 Y-71.495
X16.721 Y-70.859
X17.323 Y-70.209
X17.911 Y-69.546
X18.483 Y-68.869
X19.041 Y-68.181
X19.585 Y-67.482
X20.115 Y-66.771
X20.63 Y-66.05
X21.131 Y-65.319
X21.617 Y-64.578
X22.088 Y-63.828
X22.544 Y-63.068
X22.986 Y-62.3
X23.412 Y-61.523
X23.823 Y-60.738
X24.219 Y-59.945
X24.598 Y-59.144
X24.962 Y-58.336
X25.31 Y-57.521
X25.641 Y-56.699
X25.957 Y-55.871
X26.255 Y-55.037
X26.536 Y-54.197
X26.801 Y-53.351
X27.048 Y-52.5
X27.277 Y-51.644
X27.489 Y-50.783
X27.682 Y-49.919
X27.857 Y-49.05
X28.012 Y-48.177
X28.147 Y-47.302
X28.261 Y-46.423
X28.354 Y-45.542
X28.424 Y-44.658
X28.469 Y-43.773
X28.49 Y-42.887
X28.484 Y-42.001
X28.448 Y-41.116
X28.379 Y-40.233
X28.271 Y-39.353
X28.114 Y-38.481
X27.933 Y-37.766
X27.757 Y-37.251
X27.562 Y-36.8
X27.531 Y-36.742
X27.361 Y-36.492
X27.141 Y-36.284
X26.882 Y-36.129
X26.595 Y-36.033
X26.295 Y-36
X24.012
G3 X23.448 Y-36.465 I0.021 J-0.6
G1 X23.427 Y-36.556 Z-17.993
X23.406 Y-36.645 Z-17.971
X23.387 Y-36.73 Z-17.935
X23.369 Y-36.808 Z-17.885
X23.353 Y-36.878 Z-17.824
X23.339 Y-36.938 Z-17.753
X23.328 Y-36.986 Z-17.672
X23.32 Y-37.021 Z-17.585
X23.315 Y-37.042 Z-17.494
X23.313 Y-37.049 Z-17.4
Z-16.8
X6.014 Y-75.879
Z-17.4
X6.02 Y-75.883 Z-17.494
X6.038 Y-75.896 Z-17.585
X6.068 Y-75.916 Z-17.672
X6.109 Y-75.943 Z-17.753
X6.159 Y-75.978 Z-17.824
X6.219 Y-76.018 Z-17.885
X6.285 Y-76.063 Z-17.935
X6.357 Y-76.111 Z-17.971
X6.433 Y-76.163 Z-17.993
X6.511 Y-76.215 Z-18
G3 X7.25 Y-76.48 I0.887 J1.311
G1 X8.659 Y-76.563
X9.263 Y-76.594
X9.465 Y-76.603
X10.869 Y-76.658
X11.31 Y-76.654
X11.676 Y-76.62
X12.093 Y-76.548
X12.579 Y-76.423
X13.152 Y-76.226
X13.807 Y-75.939
X14.588 Y-75.52
X15.333 Y-75.04
X16.047 Y-74.516
X16.734 Y-73.956
X17.397 Y-73.368
X18.039 Y-72.758
X18.663 Y-72.128
X19.268 Y-71.481
X19.858 Y-70.82
X20.432 Y-70.144
X20.991 Y-69.457
X21.535 Y-68.757
X22.065 Y-68.047
X22.58 Y-67.326
X23.081 Y-66.596
X23.569 Y-65.856
X24.042 Y-65.106
X24.5 Y-64.348
X24.945 Y-63.581
X25.374 Y-62.806
X25.789 Y-62.023
X26.189 Y-61.233
X26.574 Y-60.434
X26.944 Y-59.629
X27.298 Y-58.817
X27.638 Y-57.999
X27.961 Y-57.174
X28.269 Y-56.343
X28.561 Y-55.506
X28.837 Y-54.664
X29.097 Y-53.817
X29.34 Y-52.965
X29.566 Y-52.108
X29.775 Y-51.247
X29.967 Y-50.382
X30.14 Y-49.513
X30.296 Y-48.64
X30.432 Y-47.765
X30.548 Y-46.886
X30.643 Y-46.005
X30.717 Y-45.122
X30.768 Y-44.237
X30.795 Y-43.352
X30.797 Y-42.466
X30.772 Y-41.58
X30.716 Y-40.696
X30.626 Y-39.814
X30.493 Y-38.938
X30.306 Y-38.072
X30.121 Y-37.46
X29.941 Y-37
X29.837 Y-36.786
X29.67 Y-36.523
X29.448 Y-36.303
X29.183 Y-36.137
X28.889 Y-36.035
X28.578 Y-36
X26.295
G3 X25.731 Y-36.465 I0.021 J-0.6
G1 X25.71 Y-36.556 Z-17.993
X25.69 Y-36.645 Z-17.971
X25.67 Y-36.73 Z-17.935
X25.652 Y-36.808 Z-17.885
X25.636 Y-36.878 Z-17.824
X25.622 Y-36.938 Z-17.753
X25.611 Y-36.986 Z-17.672
X25.603 Y-37.021 Z-17.585
X25.598 Y-37.042 Z-17.494
X25.596 Y-37.049 Z-17.4
Z-16.8
X9.622 Y-76.081
Z-17.4
X9.628 Y-76.085 Z-17.494
X9.646 Y-76.097 Z-17.585
X9.677 Y-76.116 Z-17.672
X9.718 Y-76.143 Z-17.753
X9.769 Y-76.177 Z-17.824
X9.829 Y-76.216 Z-17.885
X9.897 Y-76.259 Z-17.935
X9.97 Y-76.307 Z-17.971
X10.046 Y-76.357 Z-17.993
X10.125 Y-76.408 Z-18
G3 X10.869 Y-76.658 I0.862 J1.327
G1 X14.297 Y-76.794
X14.585 Y-76.791
X14.933 Y-76.759
X15.312 Y-76.694
X15.765 Y-76.577
X16.271 Y-76.402
X16.865 Y-76.143
X17.564 Y-75.768
X18.309 Y-75.287
X19.017 Y-74.755
X19.694 Y-74.183
X20.345 Y-73.581
X20.971 Y-72.955
X21.577 Y-72.308
X22.164 Y-71.645
X22.734 Y-70.966
X23.288 Y-70.274
X23.826 Y-69.57
X24.348 Y-68.854
X24.857 Y-68.129
X25.351 Y-67.393
X25.831 Y-66.648
X26.296 Y-65.894
X26.748 Y-65.132
X27.186 Y-64.361
X27.609 Y-63.583
X28.019 Y-62.797
X28.414 Y-62.004
X28.794 Y-61.204
X29.161 Y-60.397
X29.512 Y-59.583
X29.849 Y-58.764
X30.171 Y-57.938
X30.478 Y-57.107
X30.77 Y-56.27
X31.047 Y-55.429
X31.308 Y-54.582
X31.553 Y-53.73
X31.782 Y-52.874
X31.995 Y-52.014
X32.19 Y-51.15
X32.369 Y-50.282
X32.53 Y-49.41
X32.672 Y-48.536
X32.797 Y-47.658
X32.901 Y-46.779
X32.986 Y-45.896
X33.05 Y-45.013
X33.092 Y-44.128
X33.11 Y-43.242
X33.105 Y-42.355
X33.072 Y-41.47
X33.009 Y-40.586
X32.909 Y-39.706
X32.766 Y-38.831
X32.584 Y-38.025
X32.394 Y-37.417
X32.206 Y-36.949
X32.119 Y-36.775
X31.951 Y-36.515
X31.73 Y-36.298
X31.467 Y-36.135
X31.174 Y-36.034
X30.867 Y-36
X28.578
G3 X28.015 Y-36.465 I0.021 J-0.6
G1 X27.994 Y-36.556 Z-17.993
X27.973 Y-36.645 Z-17.971
X27.954 Y-36.73 Z-17.935
X27.935 Y-36.808 Z-17.885
X27.919 Y-36.878 Z-17.824
X27.906 Y-36.938 Z-17.753
X27.895 Y-36.986 Z-17.672
X27.886 Y-37.021 Z-17.585
X27.882 Y-37.042 Z-17.494
X27.88 Y-37.049 Z-17.4
Z-16.8
X13.049 Y-76.216
Z-17.4
X13.055 Y-76.22 Z-17.494
X13.074 Y-76.232 Z-17.585
X13.104 Y-76.252 Z-17.672
X13.145 Y-76.279 Z-17.753
X13.196 Y-76.312 Z-17.824
X13.257 Y-76.351 Z-17.885
X13.324 Y-76.395 Z-17.935
X13.397 Y-76.442 Z-17.971
X13.474 Y-76.492 Z-17.993
X13.552 Y-76.543 Z-18
G3 X14.297 Y-76.794 I0.862 J1.327
G1 X17.316 Y-76.913
X17.723 Y-76.909
X18.046 Y-76.879
X18.408 Y-76.817
X18.831 Y-76.708
X19.305 Y-76.544
X19.851 Y-76.306
X20.49 Y-75.963
X21.235 Y-75.482
X21.938 Y-74.944
X22.607 Y-74.362
X23.246 Y-73.748
X23.859 Y-73.109
X24.45 Y-72.448
X25.02 Y-71.769
X25.571 Y-71.076
X26.106 Y-70.369
X26.624 Y-69.65
X27.127 Y-68.921
X27.615 Y-68.181
X28.089 Y-67.433
X28.549 Y-66.675
X28.995 Y-65.91
X29.427 Y-65.136
X29.846 Y-64.355
X30.25 Y-63.566
X30.641 Y-62.771
X31.018 Y-61.969
X31.381 Y-61.161
X31.73 Y-60.346
X32.065 Y-59.526
X32.385 Y-58.7
X32.691 Y-57.868
X32.983 Y-57.032
X33.26 Y-56.19
X33.522 Y-55.343
X33.769 Y-54.492
X34.001 Y-53.637
X34.216 Y-52.777
X34.416 Y-51.914
X34.599 Y-51.047
X34.765 Y-50.177
X34.914 Y-49.303
X35.045 Y-48.427
X35.159 Y-47.548
X35.253 Y-46.667
X35.328 Y-45.784
X35.383 Y-44.9
X35.416 Y-44.014
X35.427 Y-43.128
X35.413 Y-42.242
X35.373 Y-41.357
X35.301 Y-40.474
X35.193 Y-39.594
X35.041 Y-38.721
X34.855 Y-37.94
X34.665 Y-37.355
X34.472 Y-36.892
X34.405 Y-36.76
X34.236 Y-36.505
X34.015 Y-36.292
X33.754 Y-36.132
X33.464 Y-36.034
X33.159 Y-36
X30.867
G3 X30.303 Y-36.465 I0.021 J-0.6
G1 X30.282 Y-36.556 Z-17.993
X30.261 Y-36.645 Z-17.971
X30.242 Y-36.73 Z-17.935
X30.224 Y-36.808 Z-17.885
X30.208 Y-36.878 Z-17.824
X30.194 Y-36.938 Z-17.753
X30.183 Y-36.986 Z-17.672
X30.175 Y-37.021 Z-17.585
X30.17 Y-37.042 Z-17.494
X30.168 Y-37.049 Z-17.4
Z-16.8
X16.069 Y-76.335
Z-17.4
X16.075 Y-76.339 Z-17.494
X16.094 Y-76.351 Z-17.585
X16.124 Y-76.371 Z-17.672
X16.165 Y-76.398 Z-17.753
X16.216 Y-76.431 Z-17.824
X16.276 Y-76.47 Z-17.885
X16.344 Y-76.514 Z-17.935
X16.417 Y-76.561 Z-17.971
X16.494 Y-76.611 Z-17.993
X16.572 Y-76.662 Z-18
G3 X17.316 Y-76.913 I0.862 J1.327
G1 X19.33 Y-76.992
X20.135 Y-77.018
X20.538 Y-77.03
X20.777 Y-77.025
X21.084 Y-76.994
X21.441 Y-76.929
X21.846 Y-76.82
X22.307 Y-76.656
X22.827 Y-76.423
X23.433 Y-76.089
X24.135 Y-75.626
X24.834 Y-75.081
X25.494 Y-74.489
X26.121 Y-73.864
X26.721 Y-73.211
X27.296 Y-72.537
X27.85 Y-71.846
X28.384 Y-71.139
X28.901 Y-70.418
X29.4 Y-69.687
X29.885 Y-68.945
X30.354 Y-68.193
X30.809 Y-67.433
X31.25 Y-66.664
X31.678 Y-65.888
X32.091 Y-65.105
X32.492 Y-64.314
X32.878 Y-63.517
X33.252 Y-62.713
X33.612 Y-61.903
X33.958 Y-61.088
X34.291 Y-60.266
X34.61 Y-59.44
X34.915 Y-58.608
X35.206 Y-57.771
X35.483 Y-56.929
X35.746 Y-56.083
X35.994 Y-55.232
X36.227 Y-54.377
X36.445 Y-53.518
X36.648 Y-52.656
X36.835 Y-51.789
X37.005 Y-50.92
X37.16 Y-50.047
X37.298 Y-49.172
X37.418 Y-48.294
X37.521 Y-47.414
X37.605 Y-46.532
X37.671 Y-45.648
X37.716 Y-44.763
X37.741 Y-43.877
X37.743 Y-42.991
X37.721 Y-42.106
X37.672 Y-41.221
X37.592 Y-40.338
X37.474 Y-39.46
X37.313 Y-38.589
X37.124 Y-37.84
X36.935 Y-37.284
X36.738 Y-36.827
X36.694 Y-36.744
X36.524 Y-36.493
X36.304 Y-36.285
X36.045 Y-36.129
X35.758 Y-36.033
X35.457 Y-36
X33.159
G3 X32.596 Y-36.465 I0.021 J-0.6
G1 X32.575 Y-36.556 Z-17.993
X32.554 Y-36.645 Z-17.971
X32.534 Y-36.73 Z-17.935
X32.516 Y-36.808 Z-17.885
X32.5 Y-36.878 Z-17.824
X32.487 Y-36.938 Z-17.753
X32.475 Y-36.986 Z-17.672
X32.467 Y-37.021 Z-17.585
X32.462 Y-37.042 Z-17.494
X32.461 Y-37.049 Z-17.4
Z-16.8
X19.285 Y-76.465
Z-17.4
X19.291 Y-76.469 Z-17.494
X19.309 Y-76.481 Z-17.585
X19.34 Y-76.5 Z-17.672
X19.381 Y-76.527 Z-17.753
X19.433 Y-76.559 Z-17.824
X19.493 Y-76.598 Z-17.885
X19.561 Y-76.641 Z-17.935
X19.634 Y-76.688 Z-17.971
X19.712 Y-76.737 Z-17.993
X19.791 Y-76.787 Z-18
G3 X20.538 Y-77.03 I0.848 J1.336
G1 X23.558 Y-77.119
X23.645 Y-77.117
X23.935 Y-77.095
X24.26 Y-77.044
X24.642 Y-76.951
X25.054 Y-76.816
X25.537 Y-76.613
X26.082 Y-76.331
X26.7 Y-75.945
X27.411 Y-75.416
X28.079 Y-74.834
X28.709 Y-74.211
X29.307 Y-73.557
X29.878 Y-72.88
X30.426 Y-72.183
X30.952 Y-71.47
X31.459 Y-70.743
X31.949 Y-70.005
X32.423 Y-69.256
X32.881 Y-68.497
X33.325 Y-67.73
X33.754 Y-66.955
X34.17 Y-66.173
X34.573 Y-65.384
X34.962 Y-64.587
X35.338 Y-63.785
X35.7 Y-62.976
X36.05 Y-62.162
X36.386 Y-61.342
X36.709 Y-60.517
X37.019 Y-59.687
X37.315 Y-58.852
X37.597 Y-58.012
X37.866 Y-57.167
X38.12 Y-56.319
X38.361 Y-55.466
X38.587 Y-54.609
X38.798 Y-53.748
X38.995 Y-52.884
X39.176 Y-52.017
X39.342 Y-51.146
X39.492 Y-50.273
X39.626 Y-49.397
X39.744 Y-48.519
X39.845 Y-47.639
X39.928 Y-46.756
X39.992 Y-45.873
X40.038 Y-44.988
X40.063 Y-44.102
X40.066 Y-43.216
X40.046 Y-42.33
X39.998 Y-41.445
X39.921 Y-40.562
X39.811 Y-39.683
X39.66 Y-38.81
X39.461 Y-37.97
X39.267 Y-37.369
X39.077 Y-36.91
X39.001 Y-36.762
X38.832 Y-36.506
X38.611 Y-36.293
X38.35 Y-36.133
X38.059 Y-36.034
X37.755 Y-36
X35.457
G3 X34.893 Y-36.465 I0.021 J-0.6
G1 X34.872 Y-36.556 Z-17.993
X34.852 Y-36.645 Z-17.971
X34.832 Y-36.73 Z-17.935
X34.814 Y-36.808 Z-17.885
X34.798 Y-36.878 Z-17.824
X34.784 Y-36.938 Z-17.753
X34.773 Y-36.986 Z-17.672
X34.765 Y-37.021 Z-17.585
X34.76 Y-37.042 Z-17.494
X34.758 Y-37.049 Z-17.4
Z-16.8
X22.304 Y-76.554
Z-17.4
X22.311 Y-76.558 Z-17.494
X22.329 Y-76.57 Z-17.585
X22.36 Y-76.589 Z-17.672
X22.401 Y-76.616 Z-17.753
X22.453 Y-76.648 Z-17.824
X22.513 Y-76.687 Z-17.885
X22.581 Y-76.73 Z-17.935
X22.654 Y-76.776 Z-17.971
X22.732 Y-76.825 Z-17.993
X22.811 Y-76.876 Z-18
G3 X23.558 Y-77.119 I0.848 J1.336
G1 X26.578 Y-77.208
X26.728 Y-77.205
X27.053 Y-77.158
X27.398 Y-77.08
X27.802 Y-76.954
X28.245 Y-76.774
X28.763 Y-76.515
X29.332 Y-76.171
X29.992 Y-75.695
X30.667 Y-75.12
X31.3 Y-74.5
X31.898 Y-73.846
X32.466 Y-73.166
X33.008 Y-72.465
X33.527 Y-71.747
X34.026 Y-71.014
X34.506 Y-70.27
X34.97 Y-69.514
X35.417 Y-68.75
X35.85 Y-67.977
X36.269 Y-67.196
X36.674 Y-66.407
X37.065 Y-65.612
X37.444 Y-64.811
X37.809 Y-64.004
X38.161 Y-63.191
X38.5 Y-62.372
X38.826 Y-61.548
X39.139 Y-60.719
X39.439 Y-59.885
X39.726 Y-59.047
X40 Y-58.204
X40.26 Y-57.357
X40.506 Y-56.506
X40.739 Y-55.651
X40.958 Y-54.792
X41.162 Y-53.93
X41.352 Y-53.064
X41.528 Y-52.196
X41.689 Y-51.324
X41.834 Y-50.45
X41.964 Y-49.574
X42.078 Y-48.695
X42.176 Y-47.814
X42.256 Y-46.932
X42.319 Y-46.048
X42.364 Y-45.163
X42.388 Y-44.277
X42.391 Y-43.391
X42.37 Y-42.505
X42.324 Y-41.62
X42.249 Y-40.737
X42.143 Y-39.857
X41.998 Y-38.983
X41.804 Y-38.119
X41.609 Y-37.48
X41.422 Y-37.006
X41.311 Y-36.782
X41.144 Y-36.52
X40.923 Y-36.301
X40.658 Y-36.137
X40.364 Y-36.035
X40.055 Y-36
X37.755
G3 X37.191 Y-36.465 I0.021 J-0.6
G1 X37.17 Y-36.556 Z-17.993
X37.149 Y-36.645 Z-17.971
X37.13 Y-36.73 Z-17.935
X37.112 Y-36.808 Z-17.885
X37.095 Y-36.878 Z-17.824
X37.082 Y-36.938 Z-17.753
X37.071 Y-36.986 Z-17.672
X37.063 Y-37.021 Z-17.585
X37.058 Y-37.042 Z-17.494
X37.056 Y-37.049 Z-17.4
Z-16.8
X25.324 Y-76.643
Z-17.4
X25.331 Y-76.647 Z-17.494
X25.349 Y-76.659 Z-17.585
X25.38 Y-76.678 Z-17.672
X25.421 Y-76.704 Z-17.753
X25.473 Y-76.737 Z-17.824
X25.533 Y-76.776 Z-17.885
X25.601 Y-76.819 Z-17.935
X25.674 Y-76.865 Z-17.971
X25.752 Y-76.914 Z-17.993
X25.831 Y-76.965 Z-18
G3 X26.578 Y-77.208 I0.848 J1.336
G1 X29.396 Y-77.291
X29.546 Y-77.288
X29.852 Y-77.244
X30.191 Y-77.167
X30.586 Y-77.044
X31.01 Y-76.873
X31.5 Y-76.628
X32.058 Y-76.29
X32.68 Y-75.842
X33.355 Y-75.268
X33.985 Y-74.646
X34.578 Y-73.987
X35.138 Y-73.301
X35.671 Y-72.593
X36.18 Y-71.867
X36.668 Y-71.127
X37.137 Y-70.375
X37.588 Y-69.613
X38.024 Y-68.841
X38.444 Y-68.061
X38.85 Y-67.273
X39.242 Y-66.479
X39.621 Y-65.678
X39.986 Y-64.87
X40.339 Y-64.058
X40.679 Y-63.239
X41.006 Y-62.416
X41.32 Y-61.587
X41.622 Y-60.754
X41.911 Y-59.916
X42.187 Y-59.074
X42.45 Y-58.228
X42.699 Y-57.378
X42.936 Y-56.524
X43.159 Y-55.666
X43.368 Y-54.805
X43.563 Y-53.941
X43.745 Y-53.073
X43.912 Y-52.203
X44.065 Y-51.33
X44.203 Y-50.455
X44.326 Y-49.577
X44.433 Y-48.698
X44.525 Y-47.817
X44.6 Y-46.934
X44.657 Y-46.049
X44.696 Y-45.164
X44.715 Y-44.278
X44.714 Y-43.392
X44.69 Y-42.506
X44.641 Y-41.621
X44.564 Y-40.739
X44.454 Y-39.859
X44.307 Y-38.986
X44.111 Y-38.121
X43.912 Y-37.474
X43.721 Y-36.995
X43.614 Y-36.779
X43.447 Y-36.518
X43.225 Y-36.3
X42.962 Y-36.136
X42.668 Y-36.034
X42.359 Y-36
X40.055
G3 X39.491 Y-36.465 I0.021 J-0.6
G1 X39.47 Y-36.556 Z-17.993
X39.45 Y-36.645 Z-17.971
X39.43 Y-36.73 Z-17.935
X39.412 Y-36.808 Z-17.885
X39.396 Y-36.878 Z-17.824
X39.382 Y-36.938 Z-17.753
X39.371 Y-36.986 Z-17.672
X39.363 Y-37.021 Z-17.585
X39.358 Y-37.042 Z-17.494
X39.357 Y-37.049 Z-17.4
Z-16.8
X28.143 Y-76.726
Z-17.4
X28.149 Y-76.73 Z-17.494
X28.168 Y-76.742 Z-17.585
X28.198 Y-76.761 Z-17.672
X28.24 Y-76.787 Z-17.753
X28.291 Y-76.82 Z-17.824
X28.352 Y-76.859 Z-17.885
X28.42 Y-76.902 Z-17.935
X28.493 Y-76.948 Z-17.971
X28.57 Y-76.997 Z-17.993
X28.649 Y-77.048 Z-18
G3 X29.396 Y-77.291 I0.848 J1.336
G1 X32.215 Y-77.374
X32.365 Y-77.371
X32.661 Y-77.323
X33.009 Y-77.238
X33.395 Y-77.111
X33.826 Y-76.928
X34.307 Y-76.678
X34.858 Y-76.331
X35.479 Y-75.868
X36.144 Y-75.283
X36.764 Y-74.65
X37.345 Y-73.98
X37.893 Y-73.284
X38.412 Y-72.566
X38.908 Y-71.831
X39.381 Y-71.082
X39.836 Y-70.322
X40.272 Y-69.551
X40.693 Y-68.771
X41.099 Y-67.983
X41.49 Y-67.188
X41.868 Y-66.386
X42.232 Y-65.579
X42.583 Y-64.765
X42.922 Y-63.946
X43.248 Y-63.122
X43.561 Y-62.293
X43.862 Y-61.46
X44.151 Y-60.622
X44.426 Y-59.78
X44.689 Y-58.934
X44.94 Y-58.084
X45.178 Y-57.23
X45.402 Y-56.373
X45.614 Y-55.512
X45.812 Y-54.649
X45.997 Y-53.782
X46.167 Y-52.912
X46.324 Y-52.04
X46.467 Y-51.166
X46.595 Y-50.289
X46.709 Y-49.41
X46.807 Y-48.53
X46.889 Y-47.647
X46.955 Y-46.764
X47.003 Y-45.879
X47.034 Y-44.993
X47.045 Y-44.107
X47.035 Y-43.221
X47.003 Y-42.335
X46.946 Y-41.451
X46.861 Y-40.569
X46.743 Y-39.691
X46.585 Y-38.819
X46.385 Y-37.987
X46.185 Y-37.376
X45.988 Y-36.904
X45.912 Y-36.757
X45.743 Y-36.503
X45.523 Y-36.291
X45.261 Y-36.132
X44.972 Y-36.033
X44.668 Y-36
X42.359
G3 X41.796 Y-36.465 I0.021 J-0.6
G1 X41.775 Y-36.556 Z-17.993
X41.754 Y-36.645 Z-17.971
X41.735 Y-36.73 Z-17.935
X41.716 Y-36.808 Z-17.885
X41.7 Y-36.878 Z-17.824
X41.687 Y-36.938 Z-17.753
X41.676 Y-36.986 Z-17.672
X41.667 Y-37.021 Z-17.585
X41.663 Y-37.042 Z-17.494
X41.661 Y-37.049 Z-17.4
Z-16.8
X30.962 Y-76.809
Z-17.4
X30.968 Y-76.813 Z-17.494
X30.986 Y-76.825 Z-17.585
X31.017 Y-76.844 Z-17.672
X31.058 Y-76.87 Z-17.753
X31.11 Y-76.903 Z-17.824
X31.17 Y-76.941 Z-17.885
X31.238 Y-76.984 Z-17.935
X31.312 Y-77.031 Z-17.971
X31.389 Y-77.08 Z-17.993
X31.468 Y-77.131 Z-18
G3 X32.215 Y-77.374 I0.848 J1.336
G1 X33.423 Y-77.409
X33.624 Y-77.413
X34.027 Y-77.416
X34.228
X35.235 Y-77.384
X35.384 Y-77.372
X35.711 Y-77.295
X36.091 Y-77.173
X36.493 Y-77.007
X36.96 Y-76.77
X37.478 Y-76.451
X38.056 Y-76.028
X38.722 Y-75.452
X39.344 Y-74.821
X39.924 Y-74.152
X40.469 Y-73.453
X40.985 Y-72.732
X41.474 Y-71.993
X41.941 Y-71.24
X42.387 Y-70.475
X42.816 Y-69.699
X43.227 Y-68.914
X43.624 Y-68.122
X44.005 Y-67.322
X44.373 Y-66.516
X44.728 Y-65.704
X45.07 Y-64.886
X45.399 Y-64.064
X45.715 Y-63.236
X46.019 Y-62.404
X46.311 Y-61.567
X46.591 Y-60.726
X46.858 Y-59.881
X47.112 Y-59.032
X47.354 Y-58.18
X47.584 Y-57.324
X47.801 Y-56.465
X48.005 Y-55.603
X48.196 Y-54.737
X48.374 Y-53.869
X48.539 Y-52.999
X48.69 Y-52.125
X48.827 Y-51.25
X48.95 Y-50.373
X49.059 Y-49.493
X49.153 Y-48.612
X49.231 Y-47.729
X49.293 Y-46.845
X49.339 Y-45.96
X49.366 Y-45.075
X49.375 Y-44.189
X49.364 Y-43.303
X49.331 Y-42.417
X49.273 Y-41.533
X49.187 Y-40.651
X49.069 Y-39.773
X48.914 Y-38.9
X48.71 Y-38.038
X48.508 Y-37.41
X48.315 Y-36.94
X48.225 Y-36.765
X48.057 Y-36.508
X47.836 Y-36.294
X47.574 Y-36.133
X47.283 Y-36.034
X46.978 Y-36
X44.668
G3 X44.105 Y-36.465 I0.021 J-0.6
G1 X44.083 Y-36.556 Z-17.993
X44.063 Y-36.645 Z-17.971
X44.043 Y-36.73 Z-17.935
X44.025 Y-36.808 Z-17.885
X44.009 Y-36.878 Z-17.824
X43.995 Y-36.938 Z-17.753
X43.984 Y-36.986 Z-17.672
X43.976 Y-37.021 Z-17.585
X43.971 Y-37.042 Z-17.494
X43.97 Y-37.049 Z-17.4
Z-16.8
X33.949 Y-76.896
Z-17.4
X33.956 Y-76.9 Z-17.494
X33.975 Y-76.911 Z-17.585
X34.007 Y-76.928 Z-17.672
X34.05 Y-76.952 Z-17.753
X34.103 Y-76.981 Z-17.824
X34.166 Y-77.016 Z-17.885
X34.236 Y-77.055 Z-17.935
X34.312 Y-77.097 Z-17.971
X34.392 Y-77.141 Z-17.993
X34.475 Y-77.187 Z-18
G3 X35.235 Y-77.384 I0.766 J1.385
G1 X38.053 Y-77.296
X38.203 Y-77.283
X38.529 Y-77.208
X38.868 Y-77.101
X39.266 Y-76.939
X39.695 Y-76.723
X40.191 Y-76.42
X40.736 Y-76.025
X41.357 Y-75.494
X41.982 Y-74.865
X42.561 Y-74.195
X43.103 Y-73.494
X43.613 Y-72.769
X44.095 Y-72.025
X44.553 Y-71.267
X44.991 Y-70.496
X45.409 Y-69.715
X45.81 Y-68.925
X46.196 Y-68.127
X46.567 Y-67.323
X46.924 Y-66.512
X47.268 Y-65.695
X47.599 Y-64.873
X47.917 Y-64.046
X48.223 Y-63.214
X48.516 Y-62.378
X48.797 Y-61.538
X49.067 Y-60.693
X49.324 Y-59.845
X49.569 Y-58.994
X49.801 Y-58.139
X50.021 Y-57.281
X50.229 Y-56.419
X50.424 Y-55.555
X50.607 Y-54.688
X50.777 Y-53.818
X50.934 Y-52.946
X51.077 Y-52.071
X51.207 Y-51.195
X51.323 Y-50.316
X51.425 Y-49.436
X51.512 Y-48.554
X51.584 Y-47.671
X51.64 Y-46.787
X51.68 Y-45.901
X51.702 Y-45.016
X51.706 Y-44.13
X51.69 Y-43.244
X51.652 Y-42.358
X51.59 Y-41.474
X51.5 Y-40.593
X51.378 Y-39.715
X51.217 Y-38.844
X51.01 Y-37.987
X50.807 Y-37.371
X50.609 Y-36.901
X50.533 Y-36.755
X50.364 Y-36.501
X50.144 Y-36.29
X49.883 Y-36.131
X49.594 Y-36.033
X49.291 Y-36
X46.978
G3 X46.414 Y-36.465 I0.021 J-0.6
G1 X46.393 Y-36.556 Z-17.993
X46.372 Y-36.645 Z-17.971
X46.353 Y-36.73 Z-17.935
X46.335 Y-36.808 Z-17.885
X46.319 Y-36.878 Z-17.824
X46.305 Y-36.938 Z-17.753
X46.294 Y-36.986 Z-17.672
X46.286 Y-37.021 Z-17.585
X46.281 Y-37.042 Z-17.494
X46.279 Y-37.049 Z-17.4
Z-16.8
X36.768 Y-76.808
Z-17.4
X36.775 Y-76.811 Z-17.494
X36.794 Y-76.822 Z-17.585
X36.825 Y-76.839 Z-17.672
X36.868 Y-76.863 Z-17.753
X36.922 Y-76.893 Z-17.824
X36.984 Y-76.927 Z-17.885
X37.055 Y-76.966 Z-17.935
X37.131 Y-77.008 Z-17.971
X37.211 Y-77.053 Z-17.993
X37.293 Y-77.098 Z-18
G3 X38.053 Y-77.296 I0.766 J1.385
G1 X40.671 Y-77.213
X40.82 Y-77.201
X41.117 Y-77.148
X41.427 Y-77.066
X41.784 Y-76.94
X42.179 Y-76.764
X42.621 Y-76.523
X43.107 Y-76.205
X43.663 Y-75.774
X44.29 Y-75.201
X44.894 Y-74.553
X45.454 Y-73.866
X45.976 Y-73.15
X46.467 Y-72.412
X46.931 Y-71.657
X47.371 Y-70.888
X47.79 Y-70.107
X48.19 Y-69.317
X48.574 Y-68.518
X48.942 Y-67.712
X49.296 Y-66.9
X49.636 Y-66.081
X49.962 Y-65.258
X50.276 Y-64.429
X50.578 Y-63.596
X50.867 Y-62.758
X51.144 Y-61.916
X51.409 Y-61.071
X51.663 Y-60.222
X51.904 Y-59.369
X52.134 Y-58.513
X52.351 Y-57.654
X52.556 Y-56.792
X52.749 Y-55.927
X52.93 Y-55.06
X53.099 Y-54.19
X53.254 Y-53.318
X53.397 Y-52.443
X53.527 Y-51.567
X53.643 Y-50.688
X53.746 Y-49.808
X53.834 Y-48.926
X53.908 Y-48.043
X53.966 Y-47.159
X54.009 Y-46.274
X54.034 Y-45.388
X54.042 Y-44.502
X54.03 Y-43.616
X53.997 Y-42.73
X53.942 Y-41.846
X53.861 Y-40.964
X53.752 Y-40.084
X53.609 Y-39.21
X53.422 Y-38.344
X53.218 Y-37.635
X53.028 Y-37.131
X52.873 Y-36.803
X52.707 Y-36.534
X52.485 Y-36.31
X52.218 Y-36.141
X51.92 Y-36.036
X51.607 Y-36
X49.291
G3 X48.727 Y-36.465 I0.021 J-0.6
G1 X48.706 Y-36.556 Z-17.993
X48.685 Y-36.645 Z-17.971
X48.666 Y-36.73 Z-17.935
X48.648 Y-36.808 Z-17.885
X48.632 Y-36.878 Z-17.824
X48.618 Y-36.938 Z-17.753
X48.607 Y-36.986 Z-17.672
X48.599 Y-37.021 Z-17.585
X48.594 Y-37.042 Z-17.494
X48.592 Y-37.049 Z-17.4
Z-16.8
X39.385 Y-76.725
Z-17.4
X39.392 Y-76.729 Z-17.494
X39.411 Y-76.74 Z-17.585
X39.443 Y-76.757 Z-17.672
X39.486 Y-76.781 Z-17.753
X39.539 Y-76.811 Z-17.824
X39.602 Y-76.845 Z-17.885
X39.672 Y-76.884 Z-17.935
X39.748 Y-76.926 Z-17.971
X39.828 Y-76.97 Z-17.993
X39.91 Y-77.016 Z-18
G3 X40.671 Y-77.213 I0.766 J1.385
G1 X43.288 Y-77.131
X43.394 Y-77.122
X43.644 Y-77.091
X43.937 Y-77.029
X44.271 Y-76.931
X44.623 Y-76.796
X45.035 Y-76.598
X45.471 Y-76.344
X45.969 Y-75.997
X46.53 Y-75.535
X47.161 Y-74.925
X47.746 Y-74.26
X48.288 Y-73.558
X48.792 Y-72.83
X49.266 Y-72.081
X49.712 Y-71.316
X50.136 Y-70.537
X50.538 Y-69.748
X50.922 Y-68.949
X51.29 Y-68.143
X51.642 Y-67.33
X51.98 Y-66.511
X52.304 Y-65.686
X52.615 Y-64.856
X52.914 Y-64.022
X53.2 Y-63.183
X53.475 Y-62.341
X53.737 Y-61.494
X53.988 Y-60.645
X54.227 Y-59.791
X54.454 Y-58.935
X54.67 Y-58.075
X54.873 Y-57.213
X55.065 Y-56.348
X55.245 Y-55.48
X55.413 Y-54.61
X55.568 Y-53.738
X55.711 Y-52.863
X55.842 Y-51.987
X55.959 Y-51.108
X56.063 Y-50.228
X56.153 Y-49.347
X56.229 Y-48.464
X56.29 Y-47.58
X56.336 Y-46.695
X56.365 Y-45.809
X56.377 Y-44.923
X56.371 Y-44.037
X56.345 Y-43.151
X56.298 Y-42.267
X56.227 Y-41.383
X56.13 Y-40.502
X56.003 Y-39.625
X55.838 Y-38.755
X55.622 Y-37.906
X55.425 Y-37.327
X55.218 Y-36.85
X55.161 Y-36.742
X54.991 Y-36.492
X54.771 Y-36.285
X54.512 Y-36.129
X54.226 Y-36.033
X53.925 Y-36
X51.607
G3 X51.043 Y-36.465 I0.021 J-0.6
G1 X51.022 Y-36.556 Z-17.993
X51.001 Y-36.645 Z-17.971
X50.982 Y-36.73 Z-17.935
X50.964 Y-36.808 Z-17.885
X50.948 Y-36.878 Z-17.824
X50.934 Y-36.938 Z-17.753
X50.923 Y-36.986 Z-17.672
X50.915 Y-37.021 Z-17.585
X50.91 Y-37.042 Z-17.494
X50.908 Y-37.049 Z-17.4
Z-16.8
X42.003 Y-76.643
Z-17.4
X42.009 Y-76.647 Z-17.494
X42.028 Y-76.657 Z-17.585
X42.06 Y-76.675 Z-17.672
X42.103 Y-76.699 Z-17.753
X42.156 Y-76.728 Z-17.824
X42.219 Y-76.763 Z-17.885
X42.289 Y-76.802 Z-17.935
X42.365 Y-76.844 Z-17.971
X42.446 Y-76.888 Z-17.993
X42.528 Y-76.933 Z-18
G3 X43.288 Y-77.131 I0.766 J1.385
G1 X45.905 Y-77.049
X46.183 Y-77.026
X46.458 Y-76.981
X46.753 Y-76.908
X47.102 Y-76.791
X47.463 Y-76.638
X47.887 Y-76.415
X48.332 Y-76.134
X48.843 Y-75.75
X49.416 Y-75.243
X50.031 Y-74.605
X50.595 Y-73.921
X51.116 Y-73.205
X51.602 Y-72.464
X52.057 Y-71.703
X52.486 Y-70.928
X52.892 Y-70.14
X53.277 Y-69.342
X53.645 Y-68.536
X53.997 Y-67.723
X54.333 Y-66.903
X54.655 Y-66.078
X54.964 Y-65.247
X55.26 Y-64.412
X55.544 Y-63.572
X55.815 Y-62.729
X56.075 Y-61.881
X56.323 Y-61.031
X56.559 Y-60.177
X56.784 Y-59.32
X56.998 Y-58.46
X57.199 Y-57.597
X57.39 Y-56.731
X57.568 Y-55.863
X57.735 Y-54.993
X57.89 Y-54.121
X58.032 Y-53.246
X58.163 Y-52.37
X58.281 Y-51.491
X58.385 Y-50.611
X58.477 Y-49.73
X58.554 Y-48.847
X58.617 Y-47.963
X58.665 Y-47.079
X58.697 Y-46.193
X58.713 Y-45.307
X58.711 Y-44.421
X58.691 Y-43.535
X58.65 Y-42.65
X58.588 Y-41.766
X58.501 Y-40.884
X58.386 Y-40.005
X58.237 Y-39.132
X58.043 Y-38.267
X57.838 Y-37.579
X57.647 Y-37.085
X57.505 Y-36.791
X57.338 Y-36.526
X57.116 Y-36.305
X56.851 Y-36.138
X56.555 Y-36.035
X56.244 Y-36
X53.925
G3 X53.362 Y-36.465 I0.021 J-0.6
G1 X53.34 Y-36.556 Z-17.993
X53.32 Y-36.645 Z-17.971
X53.3 Y-36.73 Z-17.935
X53.282 Y-36.808 Z-17.885
X53.266 Y-36.878 Z-17.824
X53.252 Y-36.938 Z-17.753
X53.241 Y-36.986 Z-17.672
X53.233 Y-37.021 Z-17.585
X53.228 Y-37.042 Z-17.494
X53.227 Y-37.049 Z-17.4
Z-16.8
X44.62 Y-76.561
Z-17.4
X44.626 Y-76.564 Z-17.494
X44.646 Y-76.575 Z-17.585
X44.677 Y-76.593 Z-17.672
X44.72 Y-76.616 Z-17.753
X44.774 Y-76.646 Z-17.824
X44.836 Y-76.681 Z-17.885
X44.907 Y-76.719 Z-17.935
X44.983 Y-76.761 Z-17.971
X45.063 Y-76.806 Z-17.993
X45.145 Y-76.851 Z-18
G3 X45.905 Y-77.049 I0.766 J1.385
G1 X47.113 Y-77.01
X47.717 Y-76.989
X48.522 Y-76.956
X48.878 Y-76.923
X49.159 Y-76.875
X49.459 Y-76.798
X49.79 Y-76.683
X50.169 Y-76.518
X50.57 Y-76.303
X51.025 Y-76.009
X51.533 Y-75.62
X52.084 Y-75.123
X52.693 Y-74.478
X53.25 Y-73.789
X53.763 Y-73.067
X54.24 Y-72.32
X54.686 Y-71.554
X55.105 Y-70.774
X55.501 Y-69.981
X55.877 Y-69.179
X56.235 Y-68.368
X56.576 Y-67.55
X56.902 Y-66.726
X57.214 Y-65.897
X57.512 Y-65.062
X57.798 Y-64.223
X58.071 Y-63.38
X58.332 Y-62.534
X58.582 Y-61.683
X58.82 Y-60.83
X59.046 Y-59.973
X59.261 Y-59.114
X59.465 Y-58.251
X59.658 Y-57.386
X59.839 Y-56.519
X60.008 Y-55.649
X60.166 Y-54.777
X60.312 Y-53.903
X60.446 Y-53.027
X60.568 Y-52.149
X60.677 Y-51.27
X60.773 Y-50.389
X60.856 Y-49.507
X60.925 Y-48.623
X60.98 Y-47.739
X61.02 Y-46.854
X61.045 Y-45.968
X61.053 Y-45.082
X61.043 Y-44.196
X61.015 Y-43.31
X60.968 Y-42.425
X60.898 Y-41.542
X60.803 Y-40.661
X60.678 Y-39.784
X60.516 Y-38.912
X60.308 Y-38.051
X60.099 Y-37.41
X59.897 Y-36.927
X59.81 Y-36.758
X59.641 Y-36.503
X59.421 Y-36.291
X59.159 Y-36.132
X58.87 Y-36.033
X58.566 Y-36
X56.244
G3 X55.68 Y-36.465 I0.021 J-0.6
G1 X55.659 Y-36.556 Z-17.993
X55.639 Y-36.645 Z-17.971
X55.619 Y-36.73 Z-17.935
X55.601 Y-36.808 Z-17.885
X55.585 Y-36.878 Z-17.824
X55.571 Y-36.938 Z-17.753
X55.56 Y-36.986 Z-17.672
X55.552 Y-37.021 Z-17.585
X55.547 Y-37.042 Z-17.494
X55.545 Y-37.049 Z-17.4
Z-16.8
X47.233 Y-76.48
Z-17.4
X47.239 Y-76.484 Z-17.494
X47.258 Y-76.494 Z-17.585
X47.29 Y-76.511 Z-17.672
X47.333 Y-76.535 Z-17.753
X47.387 Y-76.564 Z-17.824
X47.45 Y-76.598 Z-17.885
X47.521 Y-76.636 Z-17.935
X47.597 Y-76.677 Z-17.971
X47.678 Y-76.721 Z-17.993
X47.76 Y-76.765 Z-18
G3 X48.522 Y-76.956 I0.753 J1.392
G1 X51.341 Y-76.84
X51.52 Y-76.824
X51.795 Y-76.776
X52.097 Y-76.699
X52.419 Y-76.588
X52.797 Y-76.423
X53.186 Y-76.214
X53.636 Y-75.923
X54.124 Y-75.55
X54.665 Y-75.063
X55.273 Y-74.418
X55.828 Y-73.728
X56.338 Y-73.003
X56.811 Y-72.254
X57.252 Y-71.485
X57.665 Y-70.701
X58.054 Y-69.905
X58.423 Y-69.099
X58.773 Y-68.285
X59.106 Y-67.464
X59.424 Y-66.637
X59.728 Y-65.804
X60.018 Y-64.967
X60.295 Y-64.125
X60.559 Y-63.28
X60.812 Y-62.43
X61.054 Y-61.578
X61.283 Y-60.722
X61.502 Y-59.863
X61.709 Y-59.002
X61.905 Y-58.138
X62.09 Y-57.271
X62.263 Y-56.402
X62.425 Y-55.531
X62.576 Y-54.657
X62.714 Y-53.782
X62.841 Y-52.905
X62.956 Y-52.027
X63.058 Y-51.146
X63.148 Y-50.265
X63.224 Y-49.382
X63.287 Y-48.498
X63.336 Y-47.613
X63.37 Y-46.728
X63.389 Y-45.842
X63.392 Y-44.956
X63.377 Y-44.07
X63.345 Y-43.184
X63.292 Y-42.3
X63.218 Y-41.417
X63.116 Y-40.536
X62.984 Y-39.66
X62.814 Y-38.79
X62.599 Y-37.939
X62.391 Y-37.33
X62.188 Y-36.86
X62.125 Y-36.742
X61.956 Y-36.492
X61.736 Y-36.285
X61.477 Y-36.129
X61.19 Y-36.033
X60.889 Y-36
X58.566
G3 X58.002 Y-36.465 I0.021 J-0.6
G1 X57.981 Y-36.556 Z-17.993
X57.96 Y-36.645 Z-17.971
X57.941 Y-36.73 Z-17.935
X57.923 Y-36.808 Z-17.885
X57.907 Y-36.878 Z-17.824
X57.893 Y-36.938 Z-17.753
X57.882 Y-36.986 Z-17.672
X57.874 Y-37.021 Z-17.585
X57.869 Y-37.042 Z-17.494
X57.867 Y-37.049 Z-17.4
Z-16.8
X50.051 Y-76.365
Z-17.4
X50.058 Y-76.368 Z-17.494
X50.077 Y-76.379 Z-17.585
X50.109 Y-76.396 Z-17.672
X50.152 Y-76.419 Z-17.753
X50.206 Y-76.448 Z-17.824
X50.269 Y-76.482 Z-17.885
X50.339 Y-76.52 Z-17.935
X50.416 Y-76.562 Z-17.971
X50.496 Y-76.605 Z-17.993
X50.579 Y-76.65 Z-18
G3 X51.341 Y-76.84 I0.753 J1.392
G1 X53.958 Y-76.733
X54.145 Y-76.716
X54.42 Y-76.669
X54.713 Y-76.593
X55.034 Y-76.483
X55.404 Y-76.321
X55.788 Y-76.115
X56.23 Y-75.83
X56.709 Y-75.463
X57.236 Y-74.988
X57.83 Y-74.358
X58.385 Y-73.667
X58.893 Y-72.942
X59.363 Y-72.19
X59.799 Y-71.419
X60.207 Y-70.632
X60.591 Y-69.834
X60.953 Y-69.025
X61.297 Y-68.208
X61.623 Y-67.384
X61.933 Y-66.554
X62.229 Y-65.719
X62.511 Y-64.879
X62.781 Y-64.035
X63.038 Y-63.187
X63.283 Y-62.335
X63.517 Y-61.48
X63.739 Y-60.623
X63.95 Y-59.762
X64.149 Y-58.899
X64.338 Y-58.033
X64.515 Y-57.164
X64.681 Y-56.294
X64.836 Y-55.422
X64.979 Y-54.547
X65.111 Y-53.671
X65.232 Y-52.793
X65.34 Y-51.914
X65.436 Y-51.033
X65.519 Y-50.15
X65.59 Y-49.267
X65.647 Y-48.383
X65.69 Y-47.498
X65.719 Y-46.612
X65.733 Y-45.726
X65.731 Y-44.84
X65.712 Y-43.954
X65.675 Y-43.069
X65.618 Y-42.184
X65.537 Y-41.302
X65.43 Y-40.422
X65.292 Y-39.547
X65.115 Y-38.679
X64.9 Y-37.861
X64.694 Y-37.274
X64.489 Y-36.812
X64.445 Y-36.731
X64.274 Y-36.485
X64.055 Y-36.28
X63.797 Y-36.127
X63.513 Y-36.032
X63.215 Y-36
X60.889
G3 X60.326 Y-36.465 I0.021 J-0.6
G1 X60.305 Y-36.556 Z-17.993
X60.284 Y-36.645 Z-17.971
X60.265 Y-36.73 Z-17.935
X60.246 Y-36.808 Z-17.885
X60.23 Y-36.878 Z-17.824
X60.217 Y-36.938 Z-17.753
X60.206 Y-36.986 Z-17.672
X60.197 Y-37.021 Z-17.585
X60.193 Y-37.042 Z-17.494
X60.191 Y-37.049 Z-17.4
Z-16.8
X52.668 Y-76.258
Z-17.4
X52.675 Y-76.261 Z-17.494
X52.694 Y-76.272 Z-17.585
X52.726 Y-76.289 Z-17.672
X52.769 Y-76.312 Z-17.753
X52.823 Y-76.341 Z-17.824
X52.886 Y-76.375 Z-17.885
X52.957 Y-76.413 Z-17.935
X53.033 Y-76.455 Z-17.971
X53.114 Y-76.498 Z-17.993
X53.196 Y-76.543 Z-18
G3 X53.958 Y-76.733 I0.753 J1.392
G1 X54.965 Y-76.692
X55.77 Y-76.647
X56.576 Y-76.598
X56.84 Y-76.569
X57.12 Y-76.514
X57.404 Y-76.436
X57.738 Y-76.313
X58.097 Y-76.148
X58.495 Y-75.924
X58.929 Y-75.632
X59.418 Y-75.242
X59.946 Y-74.747
X60.538 Y-74.095
X61.079 Y-73.393
X61.574 Y-72.659
X62.031 Y-71.899
X62.455 Y-71.121
X62.851 Y-70.328
X63.222 Y-69.524
X63.573 Y-68.71
X63.904 Y-67.888
X64.219 Y-67.06
X64.518 Y-66.226
X64.803 Y-65.387
X65.074 Y-64.543
X65.332 Y-63.695
X65.579 Y-62.844
X65.813 Y-61.99
X66.036 Y-61.132
X66.247 Y-60.271
X66.448 Y-59.408
X66.637 Y-58.543
X66.816 Y-57.675
X66.983 Y-56.804
X67.139 Y-55.932
X67.284 Y-55.058
X67.418 Y-54.182
X67.541 Y-53.304
X67.651 Y-52.425
X67.75 Y-51.545
X67.837 Y-50.663
X67.911 Y-49.78
X67.972 Y-48.896
X68.019 Y-48.011
X68.053 Y-47.125
X68.073 Y-46.24
X68.077 Y-45.353
X68.066 Y-44.467
X68.037 Y-43.582
X67.988 Y-42.697
X67.919 Y-41.814
X67.826 Y-40.932
X67.706 Y-40.054
X67.553 Y-39.181
X67.357 Y-38.317
X67.147 Y-37.608
X66.952 Y-37.103
X66.802 Y-36.793
X66.636 Y-36.527
X66.414 Y-36.305
X66.149 Y-36.139
X65.853 Y-36.035
X65.541 Y-36
X63.215
G3 X62.651 Y-36.465 I0.021 J-0.6
G1 X62.63 Y-36.556 Z-17.993
X62.61 Y-36.645 Z-17.971
X62.59 Y-36.73 Z-17.935
X62.572 Y-36.808 Z-17.885
X62.556 Y-36.878 Z-17.824
X62.542 Y-36.938 Z-17.753
X62.531 Y-36.986 Z-17.672
X62.523 Y-37.021 Z-17.585
X62.518 Y-37.042 Z-17.494
X62.516 Y-37.049 Z-17.4
Z-16.8
X55.277 Y-76.148
Z-17.4
X55.283 Y-76.151 Z-17.494
X55.303 Y-76.161 Z-17.585
X55.335 Y-76.178 Z-17.672
X55.379 Y-76.2 Z-17.753
X55.433 Y-76.228 Z-17.824
X55.496 Y-76.261 Z-17.885
X55.568 Y-76.298 Z-17.935
X55.645 Y-76.338 Z-17.971
X55.727 Y-76.38 Z-17.993
X55.81 Y-76.423 Z-18
G3 X56.576 Y-76.598 I0.725 J1.407
G1 X59.193 Y-76.44
X59.459 Y-76.41
X59.733 Y-76.357
X60.024 Y-76.276
X60.342 Y-76.16
X60.708 Y-75.991
X61.087 Y-75.778
X61.522 Y-75.485
X61.991 Y-75.112
X62.505 Y-74.629
X63.083 Y-73.993
X63.624 Y-73.291
X64.118 Y-72.556
X64.571 Y-71.794
X64.991 Y-71.014
X65.383 Y-70.219
X65.749 Y-69.412
X66.093 Y-68.596
X66.419 Y-67.772
X66.727 Y-66.941
X67.019 Y-66.104
X67.296 Y-65.263
X67.56 Y-64.417
X67.811 Y-63.567
X68.05 Y-62.714
X68.277 Y-61.857
X68.493 Y-60.998
X68.697 Y-60.135
X68.891 Y-59.27
X69.073 Y-58.403
X69.244 Y-57.534
X69.404 Y-56.662
X69.554 Y-55.789
X69.692 Y-54.914
X69.819 Y-54.037
X69.935 Y-53.158
X70.039 Y-52.278
X70.132 Y-51.397
X70.212 Y-50.515
X70.28 Y-49.631
X70.336 Y-48.747
X70.378 Y-47.861
X70.406 Y-46.976
X70.421 Y-46.09
X70.42 Y-45.204
X70.403 Y-44.318
X70.368 Y-43.432
X70.314 Y-42.548
X70.24 Y-41.665
X70.142 Y-40.784
X70.015 Y-39.907
X69.853 Y-39.036
X69.648 Y-38.174
X69.434 Y-37.492
X69.234 Y-36.999
X69.12 Y-36.772
X68.951 Y-36.513
X68.73 Y-36.297
X68.468 Y-36.135
X68.175 Y-36.034
X67.868 Y-36
X65.541
G3 X64.977 Y-36.465 I0.021 J-0.6
G1 X64.956 Y-36.556 Z-17.993
X64.936 Y-36.645 Z-17.971
X64.916 Y-36.73 Z-17.935
X64.898 Y-36.808 Z-17.885
X64.882 Y-36.878 Z-17.824
X64.868 Y-36.938 Z-17.753
X64.857 Y-36.986 Z-17.672
X64.849 Y-37.021 Z-17.585
X64.844 Y-37.042 Z-17.494
X64.842 Y-37.049 Z-17.4
Z-16.8
X57.894 Y-75.989
Z-17.4
X57.9 Y-75.993 Z-17.494
X57.92 Y-76.003 Z-17.585
X57.952 Y-76.019 Z-17.672
X57.996 Y-76.042 Z-17.753
X58.05 Y-76.07 Z-17.824
X58.114 Y-76.103 Z-17.885
X58.185 Y-76.139 Z-17.935
X58.262 Y-76.179 Z-17.971
X58.344 Y-76.221 Z-17.993
X58.427 Y-76.264 Z-18
G3 X59.193 Y-76.44 I0.725 J1.407
G1 X61.81 Y-76.281
X62.053 Y-76.254
X62.327 Y-76.201
X62.608 Y-76.123
X62.926 Y-76.007
X63.285 Y-75.841
X63.662 Y-75.63
X64.089 Y-75.342
X64.552 Y-74.973
X65.055 Y-74.501
X65.62 Y-73.88
X66.161 Y-73.178
X66.653 Y-72.441
X67.104 Y-71.678
X67.52 Y-70.896
X67.907 Y-70.099
X68.268 Y-69.29
X68.607 Y-68.471
X68.927 Y-67.644
X69.228 Y-66.811
X69.514 Y-65.972
X69.785 Y-65.128
X70.042 Y-64.28
X70.286 Y-63.429
X70.518 Y-62.573
X70.738 Y-61.715
X70.947 Y-60.854
X71.144 Y-59.99
X71.33 Y-59.124
X71.505 Y-58.255
X71.67 Y-57.384
X71.823 Y-56.512
X71.966 Y-55.637
X72.098 Y-54.761
X72.218 Y-53.883
X72.328 Y-53.004
X72.426 Y-52.123
X72.512 Y-51.241
X72.587 Y-50.358
X72.649 Y-49.474
X72.699 Y-48.589
X72.736 Y-47.704
X72.759 Y-46.818
X72.768 Y-45.932
X72.761 Y-45.046
X72.739 Y-44.16
X72.699 Y-43.275
X72.641 Y-42.391
X72.561 Y-41.508
X72.456 Y-40.628
X72.321 Y-39.752
X72.151 Y-38.883
X71.936 Y-38.023
X71.723 Y-37.384
X71.519 Y-36.904
X71.438 Y-36.75
X71.269 Y-36.498
X71.049 Y-36.288
X70.788 Y-36.131
X70.5 Y-36.033
X70.198 Y-36
X67.868
G3 X67.305 Y-36.465 I0.021 J-0.6
G1 X67.284 Y-36.556 Z-17.993
X67.263 Y-36.645 Z-17.971
X67.243 Y-36.73 Z-17.935
X67.225 Y-36.808 Z-17.885
X67.209 Y-36.878 Z-17.824
X67.196 Y-36.938 Z-17.753
X67.185 Y-36.986 Z-17.672
X67.176 Y-37.021 Z-17.585
X67.171 Y-37.042 Z-17.494
X67.17 Y-37.049 Z-17.4
Z-16.8
X60.511 Y-75.831
Z-17.4
X60.518 Y-75.834 Z-17.494
X60.537 Y-75.844 Z-17.585
X60.569 Y-75.861 Z-17.672
X60.613 Y-75.883 Z-17.753
X60.667 Y-75.911 Z-17.824
X60.731 Y-75.944 Z-17.885
X60.802 Y-75.981 Z-17.935
X60.88 Y-76.021 Z-17.971
X60.961 Y-76.063 Z-17.993
X61.044 Y-76.106 Z-18
G3 X61.81 Y-76.281 I0.725 J1.407
G1 X62.414 Y-76.244
X63.018 Y-76.204
X64.427 Y-76.09
X64.727 Y-76.051
X64.999 Y-75.993
X65.279 Y-75.909
X65.611 Y-75.779
X65.958 Y-75.611
X66.35 Y-75.38
X66.768 Y-75.086
X67.24 Y-74.694
X67.747 Y-74.198
X68.31 Y-73.553
X68.836 Y-72.84
X69.315 Y-72.094
X69.753 Y-71.324
X70.157 Y-70.535
X70.531 Y-69.732
X70.881 Y-68.918
X71.208 Y-68.095
X71.516 Y-67.264
X71.807 Y-66.427
X72.082 Y-65.584
X72.342 Y-64.737
X72.588 Y-63.886
X72.822 Y-63.031
X73.044 Y-62.173
X73.254 Y-61.312
X73.452 Y-60.449
X73.639 Y-59.583
X73.816 Y-58.714
X73.981 Y-57.844
X74.136 Y-56.971
X74.28 Y-56.097
X74.413 Y-55.221
X74.536 Y-54.343
X74.647 Y-53.464
X74.748 Y-52.584
X74.836 Y-51.702
X74.914 Y-50.819
X74.979 Y-49.936
X75.032 Y-49.051
X75.073 Y-48.166
X75.1 Y-47.28
X75.113 Y-46.394
X75.112 Y-45.508
X75.096 Y-44.622
X75.063 Y-43.737
X75.012 Y-42.852
X74.941 Y-41.969
X74.848 Y-41.087
X74.728 Y-40.209
X74.579 Y-39.336
X74.389 Y-38.47
X74.17 Y-37.706
X73.971 Y-37.173
X73.757 Y-36.717
X73.751 Y-36.706
X73.579 Y-36.467
X73.361 Y-36.27
X73.107 Y-36.122
X72.827 Y-36.031
X72.535 Y-36
X70.198
G3 X69.634 Y-36.465 I0.021 J-0.6
G1 X69.613 Y-36.556 Z-17.993
X69.593 Y-36.645 Z-17.971
X69.573 Y-36.73 Z-17.935
X69.555 Y-36.808 Z-17.885
X69.539 Y-36.878 Z-17.824
X69.525 Y-36.938 Z-17.753
X69.514 Y-36.986 Z-17.672
X69.506 Y-37.021 Z-17.585
X69.501 Y-37.042 Z-17.494
X69.499 Y-37.049 Z-17.4
Z-16.8
X63.12 Y-75.667
Z-17.4
X63.126 Y-75.67 Z-17.494
X63.146 Y-75.68 Z-17.585
X63.178 Y-75.695 Z-17.672
X63.222 Y-75.717 Z-17.753
X63.277 Y-75.744 Z-17.824
X63.342 Y-75.775 Z-17.885
X63.414 Y-75.811 Z-17.935
X63.492 Y-75.849 Z-17.971
X63.574 Y-75.889 Z-17.993
X63.658 Y-75.931 Z-18
G3 X64.427 Y-76.09 I0.696 J1.421
G1 X67.045 Y-75.879
X67.32 Y-75.842
X67.592 Y-75.784
X67.873 Y-75.7
X68.189 Y-75.577
X68.545 Y-75.403
X68.917 Y-75.184
X69.339 Y-74.888
X69.794 Y-74.509
X70.288 Y-74.027
X70.84 Y-73.394
X71.367 Y-72.682
X71.844 Y-71.935
X72.279 Y-71.163
X72.679 Y-70.372
X73.049 Y-69.567
X73.394 Y-68.751
X73.716 Y-67.926
X74.018 Y-67.093
X74.303 Y-66.253
X74.571 Y-65.409
X74.825 Y-64.56
X75.065 Y-63.707
X75.292 Y-62.85
X75.507 Y-61.991
X75.71 Y-61.128
X75.901 Y-60.263
X76.082 Y-59.395
X76.252 Y-58.526
X76.41 Y-57.654
X76.559 Y-56.78
X76.696 Y-55.905
X76.823 Y-55.028
X76.939 Y-54.149
X77.044 Y-53.269
X77.138 Y-52.388
X77.22 Y-51.506
X77.292 Y-50.623
X77.351 Y-49.739
X77.398 Y-48.854
X77.433 Y-47.968
X77.455 Y-47.082
X77.462 Y-46.196
X77.456 Y-45.31
X77.434 Y-44.424
X77.395 Y-43.539
X77.338 Y-42.655
X77.261 Y-41.772
X77.162 Y-40.892
X77.035 Y-40.015
X76.874 Y-39.143
X76.673 Y-38.28
X76.462 Y-37.582
X76.264 Y-37.078
X76.122 Y-36.786
X75.955 Y-36.523
X75.733 Y-36.303
X75.469 Y-36.137
X75.174 Y-36.035
X74.864 Y-36
X72.535
G3 X71.971 Y-36.465 I0.021 J-0.6
G1 X71.95 Y-36.556 Z-17.993
X71.93 Y-36.645 Z-17.971
X71.91 Y-36.73 Z-17.935
X71.892 Y-36.808 Z-17.885
X71.876 Y-36.878 Z-17.824
X71.862 Y-36.938 Z-17.753
X71.851 Y-36.986 Z-17.672
X71.843 Y-37.021 Z-17.585
X71.838 Y-37.042 Z-17.494
X71.836 Y-37.049 Z-17.4
Z-16.8
X65.737 Y-75.455
Z-17.4
X65.743 Y-75.458 Z-17.494
X65.763 Y-75.468 Z-17.585
X65.796 Y-75.484 Z-17.672
X65.84 Y-75.505 Z-17.753
X65.895 Y-75.532 Z-17.824
X65.959 Y-75.564 Z-17.885
X66.031 Y-75.599 Z-17.935
X66.109 Y-75.637 Z-17.971
X66.191 Y-75.677 Z-17.993
X66.276 Y-75.719 Z-18
G3 X67.045 Y-75.879 I0.696 J1.421
G1 X69.662 Y-75.667
X69.891 Y-75.637
X70.162 Y-75.578
X70.436 Y-75.496
X70.752 Y-75.373
X71.102 Y-75.203
X71.472 Y-74.985
X71.887 Y-74.693
X72.337 Y-74.319
X72.822 Y-73.846
X73.362 Y-73.226
X73.889 Y-72.513
X74.365 Y-71.766
X74.798 Y-70.992
X75.195 Y-70.2
X75.561 Y-69.393
X75.901 Y-68.575
X76.218 Y-67.747
X76.514 Y-66.912
X76.793 Y-66.071
X77.055 Y-65.225
X77.303 Y-64.374
X77.536 Y-63.519
X77.757 Y-62.661
X77.965 Y-61.8
X78.162 Y-60.936
X78.347 Y-60.069
X78.521 Y-59.2
X78.684 Y-58.329
X78.836 Y-57.456
X78.978 Y-56.582
X79.109 Y-55.705
X79.229 Y-54.827
X79.339 Y-53.948
X79.438 Y-53.067
X79.526 Y-52.186
X79.603 Y-51.303
X79.668 Y-50.419
X79.722 Y-49.535
X79.763 Y-48.65
X79.792 Y-47.764
X79.808 Y-46.878
X79.81 Y-45.992
X79.798 Y-45.106
X79.77 Y-44.22
X79.726 Y-43.335
X79.663 Y-42.451
X79.58 Y-41.569
X79.473 Y-40.689
X79.337 Y-39.814
X79.168 Y-38.944
X78.954 Y-38.084
X78.737 Y-37.423
X78.532 Y-36.935
X78.44 Y-36.756
X78.271 Y-36.502
X78.05 Y-36.29
X77.789 Y-36.132
X77.5 Y-36.033
X77.197 Y-36
X74.864
G3 X74.3 Y-36.465 I0.021 J-0.6
G1 X74.279 Y-36.556 Z-17.993
X74.258 Y-36.645 Z-17.971
X74.239 Y-36.73 Z-17.935
X74.221 Y-36.808 Z-17.885
X74.205 Y-36.878 Z-17.824
X74.191 Y-36.938 Z-17.753
X74.18 Y-36.986 Z-17.672
X74.172 Y-37.021 Z-17.585
X74.167 Y-37.042 Z-17.494
X74.165 Y-37.049 Z-17.4
Z-16.8
X68.354 Y-75.243
Z-17.4
X68.361 Y-75.246 Z-17.494
X68.38 Y-75.256 Z-17.585
X68.413 Y-75.272 Z-17.672
X68.457 Y-75.293 Z-17.753
X68.512 Y-75.32 Z-17.824
X68.576 Y-75.352 Z-17.885
X68.648 Y-75.387 Z-17.935
X68.726 Y-75.425 Z-17.971
X68.809 Y-75.466 Z-17.993
X68.893 Y-75.507 Z-18
G3 X69.662 Y-75.667 I0.696 J1.421
G1 X70.266 Y-75.618
X70.467 Y-75.601
X71.272 Y-75.52
X72.279 Y-75.417
X72.551 Y-75.375
X72.815 Y-75.313
X73.094 Y-75.223
X73.424 Y-75.086
X73.761 Y-74.913
X74.146 Y-74.675
X74.552 Y-74.377
X75.01 Y-73.979
X75.5 Y-73.48
X76.039 Y-72.835
X76.55 Y-72.111
X77.012 Y-71.355
X77.431 Y-70.574
X77.815 Y-69.775
X78.169 Y-68.963
X78.497 Y-68.14
X78.803 Y-67.308
X79.089 Y-66.469
X79.356 Y-65.625
X79.608 Y-64.775
X79.845 Y-63.921
X80.069 Y-63.064
X80.279 Y-62.203
X80.478 Y-61.34
X80.664 Y-60.473
X80.84 Y-59.605
X81.004 Y-58.734
X81.158 Y-57.861
X81.301 Y-56.987
X81.433 Y-56.111
X81.555 Y-55.233
X81.666 Y-54.354
X81.767 Y-53.473
X81.857 Y-52.592
X81.936 Y-51.709
X82.003 Y-50.826
X82.059 Y-49.941
X82.104 Y-49.056
X82.136 Y-48.171
X82.155 Y-47.285
X82.161 Y-46.399
X82.154 Y-45.513
X82.131 Y-44.627
X82.092 Y-43.742
X82.036 Y-42.857
X81.96 Y-41.974
X81.863 Y-41.094
X81.74 Y-40.216
X81.588 Y-39.343
X81.396 Y-38.478
X81.173 Y-37.703
X80.973 Y-37.17
X80.757 Y-36.713
X80.752 Y-36.704
X80.58 Y-36.466
X80.362 Y-36.269
X80.108 Y-36.122
X79.829 Y-36.031
X79.537 Y-36
X77.197
G3 X76.633 Y-36.465 I0.021 J-0.6
G1 X76.612 Y-36.556 Z-17.993
X76.591 Y-36.645 Z-17.971
X76.572 Y-36.73 Z-17.935
X76.554 Y-36.808 Z-17.885
X76.538 Y-36.878 Z-17.824
X76.524 Y-36.938 Z-17.753
X76.513 Y-36.986 Z-17.672
X76.505 Y-37.021 Z-17.585
X76.5 Y-37.042 Z-17.494
X76.498 Y-37.049 Z-17.4
Z-16.8
X70.963 Y-75.021
Z-17.4
X70.969 Y-75.024 Z-17.494
X70.989 Y-75.033 Z-17.585
X71.022 Y-75.049 Z-17.672
X71.067 Y-75.069 Z-17.753
X71.122 Y-75.095 Z-17.824
X71.187 Y-75.125 Z-17.885
X71.26 Y-75.159 Z-17.935
X71.339 Y-75.196 Z-17.971
X71.422 Y-75.234 Z-17.993
X71.507 Y-75.274 Z-18
G3 X72.279 Y-75.417 I0.666 J1.436
G1 X74.896 Y-75.149
X75.123 Y-75.114
X75.394 Y-75.05
X75.668 Y-74.961
X75.981 Y-74.832
X76.33 Y-74.653
X76.696 Y-74.427
X77.106 Y-74.125
X77.55 Y-73.741
X78.027 Y-73.254
X78.556 Y-72.62
X79.068 Y-71.896
X79.528 Y-71.139
X79.945 Y-70.357
X80.326 Y-69.557
X80.676 Y-68.743
X80.999 Y-67.918
X81.3 Y-67.084
X81.58 Y-66.244
X81.842 Y-65.397
X82.088 Y-64.546
X82.319 Y-63.69
X82.536 Y-62.831
X82.74 Y-61.969
X82.932 Y-61.104
X83.113 Y-60.236
X83.282 Y-59.367
X83.44 Y-58.495
X83.587 Y-57.621
X83.723 Y-56.745
X83.849 Y-55.868
X83.965 Y-54.99
X84.07 Y-54.11
X84.164 Y-53.229
X84.248 Y-52.346
X84.321 Y-51.463
X84.382 Y-50.579
X84.432 Y-49.695
X84.471 Y-48.809
X84.497 Y-47.924
X84.51 Y-47.038
Y-46.151
X84.496 Y-45.265
X84.467 Y-44.38
X84.422 Y-43.495
X84.359 Y-42.611
X84.277 Y-41.729
X84.172 Y-40.849
X84.041 Y-39.972
X83.876 Y-39.102
X83.67 Y-38.24
X83.458 Y-37.551
X83.26 Y-37.052
X83.124 Y-36.779
X82.957 Y-36.518
X82.735 Y-36.3
X82.472 Y-36.136
X82.178 Y-36.034
X81.87 Y-36
X79.537
G3 X78.974 Y-36.465 I0.021 J-0.6
G1 X78.952 Y-36.556 Z-17.993
X78.932 Y-36.645 Z-17.971
X78.912 Y-36.73 Z-17.935
X78.894 Y-36.808 Z-17.885
X78.878 Y-36.878 Z-17.824
X78.864 Y-36.938 Z-17.753
X78.853 Y-36.986 Z-17.672
X78.845 Y-37.021 Z-17.585
X78.84 Y-37.042 Z-17.494
X78.839 Y-37.049 Z-17.4
Z-16.8
X73.58 Y-74.753
Z-17.4
X73.587 Y-74.756 Z-17.494
X73.607 Y-74.765 Z-17.585
X73.639 Y-74.781 Z-17.672
X73.684 Y-74.801 Z-17.753
X73.739 Y-74.827 Z-17.824
X73.804 Y-74.857 Z-17.885
X73.877 Y-74.891 Z-17.935
X73.956 Y-74.928 Z-17.971
X74.039 Y-74.966 Z-17.993
X74.124 Y-75.006 Z-18
G3 X74.896 Y-75.149 I0.666 J1.436
G1 X77.514 Y-74.881
X77.677 Y-74.856
X77.945 Y-74.793
X78.215 Y-74.705
X78.528 Y-74.576
X78.87 Y-74.4
X79.235 Y-74.175
X79.639 Y-73.878
X80.078 Y-73.497
X80.547 Y-73.019
X81.067 Y-72.396
X81.578 Y-71.673
X82.037 Y-70.915
X82.452 Y-70.132
X82.83 Y-69.33
X83.176 Y-68.514
X83.495 Y-67.688
X83.791 Y-66.852
X84.066 Y-66.01
X84.322 Y-65.162
X84.563 Y-64.309
X84.788 Y-63.452
X84.999 Y-62.591
X85.197 Y-61.728
X85.383 Y-60.861
X85.557 Y-59.992
X85.72 Y-59.121
X85.871 Y-58.248
X86.012 Y-57.373
X86.143 Y-56.497
X86.262 Y-55.619
X86.372 Y-54.74
X86.471 Y-53.859
X86.559 Y-52.977
X86.637 Y-52.095
X86.703 Y-51.211
X86.759 Y-50.327
X86.803 Y-49.442
X86.835 Y-48.556
X86.856 Y-47.67
X86.863 Y-46.784
X86.857 Y-45.898
X86.837 Y-45.012
X86.802 Y-44.127
X86.75 Y-43.242
X86.681 Y-42.359
X86.591 Y-41.477
X86.479 Y-40.598
X86.337 Y-39.723
X86.162 Y-38.855
X85.941 Y-37.997
X85.724 Y-37.361
X85.515 Y-36.878
X85.443 Y-36.742
X85.273 Y-36.492
X85.053 Y-36.285
X84.794 Y-36.129
X84.508 Y-36.033
X84.207 Y-36
X81.87
G3 X81.306 Y-36.465 I0.021 J-0.6
G1 X81.285 Y-36.556 Z-17.993
X81.264 Y-36.645 Z-17.971
X81.245 Y-36.73 Z-17.935
X81.227 Y-36.808 Z-17.885
X81.21 Y-36.878 Z-17.824
X81.197 Y-36.938 Z-17.753
X81.186 Y-36.986 Z-17.672
X81.178 Y-37.021 Z-17.585
X81.173 Y-37.042 Z-17.494
X81.171 Y-37.049 Z-17.4
Z-16.8
X76.197 Y-74.485
Z-17.4
X76.204 Y-74.488 Z-17.494
X76.224 Y-74.498 Z-17.585
X76.257 Y-74.513 Z-17.672
X76.301 Y-74.533 Z-17.753
X76.357 Y-74.559 Z-17.824
X76.422 Y-74.589 Z-17.885
X76.494 Y-74.623 Z-17.935
X76.573 Y-74.66 Z-17.971
X76.656 Y-74.698 Z-17.993
X76.741 Y-74.738 Z-18
G3 X77.514 Y-74.881 I0.666 J1.436
G1 X77.834 Y-74.848
X78.52 Y-74.77
X80.131 Y-74.569
X80.326 Y-74.535
X80.585 Y-74.468
X80.863 Y-74.371
X81.189 Y-74.227
X81.519 Y-74.049
X81.898 Y-73.803
X82.293 Y-73.499
X82.738 Y-73.095
X83.214 Y-72.589
X83.732 Y-71.94
X84.227 Y-71.205
X84.671 Y-70.438
X85.072 Y-69.648
X85.436 Y-68.84
X85.77 Y-68.019
X86.077 Y-67.188
X86.362 Y-66.349
X86.626 Y-65.503
X86.872 Y-64.652
X87.102 Y-63.796
X87.317 Y-62.936
X87.518 Y-62.073
X87.706 Y-61.207
X87.882 Y-60.339
X88.047 Y-59.468
X88.2 Y-58.595
X88.342 Y-57.721
X88.474 Y-56.845
X88.595 Y-55.967
X88.706 Y-55.088
X88.806 Y-54.207
X88.896 Y-53.326
X88.975 Y-52.443
X89.044 Y-51.56
X89.101 Y-50.675
X89.148 Y-49.79
X89.182 Y-48.905
X89.205 Y-48.019
X89.216 Y-47.133
X89.213 Y-46.247
X89.197 Y-45.361
X89.166 Y-44.475
X89.119 Y-43.591
X89.055 Y-42.707
X88.972 Y-41.825
X88.867 Y-40.945
X88.736 Y-40.068
X88.575 Y-39.197
X88.374 Y-38.334
X88.153 Y-37.604
X87.954 Y-37.095
X87.803 Y-36.786
X87.636 Y-36.523
X87.414 Y-36.303
X87.15 Y-36.137
X86.855 Y-36.035
X86.545 Y-36
X84.207
G3 X83.643 Y-36.465 I0.021 J-0.6
G1 X83.622 Y-36.556 Z-17.993
X83.602 Y-36.645 Z-17.971
X83.582 Y-36.73 Z-17.935
X83.564 Y-36.808 Z-17.885
X83.548 Y-36.878 Z-17.824
X83.534 Y-36.938 Z-17.753
X83.523 Y-36.986 Z-17.672
X83.515 Y-37.021 Z-17.585
X83.51 Y-37.042 Z-17.494
X83.508 Y-37.049 Z-17.4
Z-16.8
X78.806 Y-74.202
Z-17.4
X78.813 Y-74.205 Z-17.494
X78.833 Y-74.214 Z-17.585
X78.866 Y-74.229 Z-17.672
X78.911 Y-74.248 Z-17.753
X78.967 Y-74.273 Z-17.824
X79.033 Y-74.302 Z-17.885
X79.106 Y-74.334 Z-17.935
X79.186 Y-74.369 Z-17.971
X79.27 Y-74.405 Z-17.993
X79.356 Y-74.443 Z-18
G3 X80.131 Y-74.569 I0.634 J1.45
G1 X82.547 Y-74.268
X82.891 Y-74.208
X83.159 Y-74.138
X83.428 Y-74.044
X83.738 Y-73.908
X84.079 Y-73.724
X84.438 Y-73.49
X84.838 Y-73.183
X85.271 Y-72.791
X85.732 Y-72.3
X86.242 Y-71.661
X86.737 Y-70.926
X87.179 Y-70.158
X87.578 Y-69.367
X87.939 Y-68.558
X88.269 Y-67.735
X88.572 Y-66.902
X88.851 Y-66.061
X89.11 Y-65.214
X89.35 Y-64.361
X89.574 Y-63.504
X89.783 Y-62.643
X89.978 Y-61.778
X90.16 Y-60.911
X90.33 Y-60.041
X90.488 Y-59.169
X90.635 Y-58.296
X90.771 Y-57.42
X90.897 Y-56.543
X91.012 Y-55.664
X91.116 Y-54.784
X91.21 Y-53.903
X91.293 Y-53.021
X91.366 Y-52.138
X91.429 Y-51.254
X91.48 Y-50.369
X91.52 Y-49.484
X91.548 Y-48.598
X91.565 Y-47.712
X91.569 Y-46.826
X91.56 Y-45.94
X91.537 Y-45.054
X91.499 Y-44.169
X91.445 Y-43.285
X91.373 Y-42.401
X91.281 Y-41.52
X91.168 Y-40.641
X91.027 Y-39.766
X90.852 Y-38.898
X90.633 Y-38.039
X90.413 Y-37.388
X90.204 Y-36.9
X90.122 Y-36.746
X89.953 Y-36.495
X89.733 Y-36.286
X89.473 Y-36.13
X89.186 Y-36.033
X88.884 Y-36
X86.545
G3 X85.981 Y-36.465 I0.021 J-0.6
G1 X85.96 Y-36.556 Z-17.993
X85.94 Y-36.645 Z-17.971
X85.92 Y-36.73 Z-17.935
X85.902 Y-36.808 Z-17.885
X85.886 Y-36.878 Z-17.824
X85.872 Y-36.938 Z-17.753
X85.861 Y-36.986 Z-17.672
X85.853 Y-37.021 Z-17.585
X85.848 Y-37.042 Z-17.494
X85.846 Y-37.049 Z-17.4
Z-16.8
X81.222 Y-73.901
Z-17.4
X81.229 Y-73.904 Z-17.494
X81.249 Y-73.913 Z-17.585
X81.282 Y-73.928 Z-17.672
X81.327 Y-73.947 Z-17.753
X81.383 Y-73.972 Z-17.824
X81.449 Y-74 Z-17.885
X81.522 Y-74.033 Z-17.935
X81.602 Y-74.067 Z-17.971
X81.686 Y-74.104 Z-17.993
X81.772 Y-74.142 Z-18
G3 X82.547 Y-74.268 I0.634 J1.45
G1 X85.164 Y-73.942
X85.435 Y-73.894
X85.701 Y-73.824
X85.968 Y-73.73
X86.28 Y-73.592
X86.615 Y-73.41
X86.975 Y-73.175
X87.37 Y-72.869
X87.8 Y-72.477
X88.255 Y-71.991
X88.757 Y-71.358
X89.251 Y-70.622
X89.691 Y-69.853
X90.086 Y-69.06
X90.443 Y-68.249
X90.768 Y-67.425
X91.066 Y-66.59
X91.34 Y-65.747
X91.593 Y-64.898
X91.828 Y-64.044
X92.046 Y-63.185
X92.249 Y-62.322
X92.438 Y-61.457
X92.614 Y-60.588
X92.777 Y-59.717
X92.929 Y-58.844
X93.07 Y-57.969
X93.2 Y-57.093
X93.319 Y-56.215
X93.427 Y-55.335
X93.525 Y-54.454
X93.613 Y-53.573
X93.69 Y-52.69
X93.756 Y-51.806
X93.812 Y-50.922
X93.857 Y-50.037
X93.89 Y-49.151
X93.912 Y-48.266
X93.922 Y-47.38
X93.919 Y-46.493
X93.903 Y-45.607
X93.873 Y-44.722
X93.828 Y-43.837
X93.766 Y-42.953
X93.686 Y-42.07
X93.586 Y-41.19
X93.462 Y-40.313
X93.308 Y-39.44
X93.117 Y-38.575
X92.892 Y-37.775
X92.683 Y-37.21
X92.468 Y-36.747
X92.447 Y-36.71
X92.276 Y-36.47
X92.058 Y-36.272
X91.803 Y-36.123
X91.522 Y-36.031
X91.229 Y-36
X88.884
G3 X88.321 Y-36.465 I0.021 J-0.6
G1 X88.3 Y-36.556 Z-17.993
X88.279 Y-36.645 Z-17.971
X88.26 Y-36.73 Z-17.935
X88.241 Y-36.808 Z-17.885
X88.225 Y-36.878 Z-17.824
X88.212 Y-36.938 Z-17.753
X88.201 Y-36.986 Z-17.672
X88.192 Y-37.021 Z-17.585
X88.187 Y-37.042 Z-17.494
X88.186 Y-37.049 Z-17.4
Z-16.8
X83.839 Y-73.575
Z-17.4
X83.846 Y-73.578 Z-17.494
X83.866 Y-73.587 Z-17.585
X83.899 Y-73.601 Z-17.672
X83.944 Y-73.621 Z-17.753
X84 Y-73.645 Z-17.824
X84.066 Y-73.674 Z-17.885
X84.139 Y-73.706 Z-17.935
X84.219 Y-73.741 Z-17.971
X84.303 Y-73.778 Z-17.993
X84.389 Y-73.816 Z-18
G3 X85.164 Y-73.942 I0.634 J1.45
G1 X85.768 Y-73.865
X85.969 Y-73.837
X87.781 Y-73.569
X88.067 Y-73.512
X88.323 Y-73.439
X88.597 Y-73.337
X88.919 Y-73.186
X89.243 Y-73.001
X89.615 Y-72.748
X90.001 Y-72.436
X90.436 Y-72.024
X90.895 Y-71.512
X91.395 Y-70.855
X91.874 Y-70.11
X92.3 Y-69.332
X92.681 Y-68.533
X93.026 Y-67.716
X93.339 Y-66.888
X93.626 Y-66.049
X93.889 Y-65.203
X94.132 Y-64.351
X94.357 Y-63.494
X94.565 Y-62.632
X94.758 Y-61.767
X94.938 Y-60.9
X95.104 Y-60.029
X95.259 Y-59.157
X95.401 Y-58.282
X95.533 Y-57.406
X95.654 Y-56.528
X95.764 Y-55.649
X95.863 Y-54.768
X95.952 Y-53.887
X96.031 Y-53.004
X96.099 Y-52.121
X96.157 Y-51.236
X96.204 Y-50.351
X96.239 Y-49.466
X96.264 Y-48.58
X96.276 Y-47.694
Y-46.808
X96.263 Y-45.922
X96.236 Y-45.036
X96.195 Y-44.151
X96.138 Y-43.267
X96.063 Y-42.384
X95.969 Y-41.503
X95.852 Y-40.625
X95.708 Y-39.75
X95.532 Y-38.882
X95.31 Y-38.024
X95.096 Y-37.387
X94.894 Y-36.915
X94.806 Y-36.748
X94.637 Y-36.496
X94.417 Y-36.287
X94.157 Y-36.13
X93.869 Y-36.033
X93.567 Y-36
X91.229
G3 X90.665 Y-36.465 I0.021 J-0.6
G1 X90.644 Y-36.556 Z-17.993
X90.624 Y-36.645 Z-17.971
X90.604 Y-36.73 Z-17.935
X90.586 Y-36.808 Z-17.885
X90.57 Y-36.878 Z-17.824
X90.556 Y-36.938 Z-17.753
X90.545 Y-36.986 Z-17.672
X90.537 Y-37.021 Z-17.585
X90.532 Y-37.042 Z-17.494
X90.53 Y-37.049 Z-17.4
Z-16.8
X86.449 Y-73.233
Z-17.4
X86.455 Y-73.236 Z-17.494
X86.476 Y-73.244 Z-17.585
X86.509 Y-73.258 Z-17.672
X86.555 Y-73.276 Z-17.753
X86.611 Y-73.299 Z-17.824
X86.677 Y-73.327 Z-17.885
X86.752 Y-73.357 Z-17.935
X86.832 Y-73.39 Z-17.971
X86.917 Y-73.425 Z-17.993
X87.004 Y-73.461 Z-18
G3 X87.781 Y-73.569 I0.601 J1.464
G1 X90.399 Y-73.182
X90.608 Y-73.141
X90.874 Y-73.065
X91.141 Y-72.965
X91.447 Y-72.821
X91.783 Y-72.63
X92.137 Y-72.389
X92.529 Y-72.072
X92.951 Y-71.672
X93.399 Y-71.173
X93.892 Y-70.525
X94.37 Y-69.78
X94.795 Y-69.002
X95.174 Y-68.201
X95.516 Y-67.383
X95.826 Y-66.553
X96.108 Y-65.713
X96.367 Y-64.866
X96.604 Y-64.012
X96.824 Y-63.153
X97.026 Y-62.291
X97.214 Y-61.425
X97.388 Y-60.556
X97.548 Y-59.684
X97.697 Y-58.811
X97.833 Y-57.935
X97.959 Y-57.058
X98.073 Y-56.179
X98.177 Y-55.299
X98.271 Y-54.418
X98.354 Y-53.536
X98.426 Y-52.653
X98.488 Y-51.769
X98.539 Y-50.884
X98.58 Y-49.999
X98.609 Y-49.113
X98.626 Y-48.227
X98.632 Y-47.341
X98.625 Y-46.455
X98.606 Y-45.569
X98.572 Y-44.684
X98.523 Y-43.799
X98.458 Y-42.915
X98.374 Y-42.033
X98.27 Y-41.153
X98.144 Y-40.276
X97.987 Y-39.404
X97.794 Y-38.539
X97.567 Y-37.746
X97.36 Y-37.192
X97.143 Y-36.73
X97.13 Y-36.706
X96.958 Y-36.467
X96.74 Y-36.27
X96.486 Y-36.122
X96.206 Y-36.031
X95.914 Y-36
X93.567
G3 X93.004 Y-36.465 I0.021 J-0.6
G1 X92.983 Y-36.556 Z-17.993
X92.962 Y-36.645 Z-17.971
X92.942 Y-36.73 Z-17.935
X92.924 Y-36.808 Z-17.885
X92.908 Y-36.878 Z-17.824
X92.895 Y-36.938 Z-17.753
X92.883 Y-36.986 Z-17.672
X92.875 Y-37.021 Z-17.585
X92.87 Y-37.042 Z-17.494
X92.869 Y-37.049 Z-17.4
Z-16.8
X89.066 Y-72.846
Z-17.4
X89.073 Y-72.848 Z-17.494
X89.093 Y-72.857 Z-17.585
X89.126 Y-72.87 Z-17.672
X89.172 Y-72.889 Z-17.753
X89.228 Y-72.912 Z-17.824
X89.295 Y-72.94 Z-17.885
X89.369 Y-72.97 Z-17.935
X89.449 Y-73.003 Z-17.971
X89.534 Y-73.038 Z-17.993
X89.621 Y-73.074 Z-18
G3 X90.399 Y-73.182 I0.601 J1.464
G1 X92.815 Y-72.825
X93.143 Y-72.759
X93.405 Y-72.685
X93.668 Y-72.586
X93.975 Y-72.443
X94.304 Y-72.255
X94.656 Y-72.015
X95.042 Y-71.704
X95.46 Y-71.307
X95.9 Y-70.817
X96.384 Y-70.181
X96.862 Y-69.435
X97.286 Y-68.657
X97.663 Y-67.855
X98.002 Y-67.036
X98.308 Y-66.204
X98.586 Y-65.363
X98.84 Y-64.514
X99.073 Y-63.659
X99.287 Y-62.799
X99.484 Y-61.935
X99.666 Y-61.068
X99.834 Y-60.198
X99.989 Y-59.326
X100.131 Y-58.451
X100.262 Y-57.575
X100.382 Y-56.697
X100.49 Y-55.817
X100.588 Y-54.937
X100.675 Y-54.055
X100.752 Y-53.172
X100.818 Y-52.288
X100.874 Y-51.404
X100.918 Y-50.519
X100.952 Y-49.633
X100.975 Y-48.748
X100.986 Y-47.862
X100.985 Y-46.975
X100.972 Y-46.089
X100.945 Y-45.204
X100.903 Y-44.318
X100.847 Y-43.434
X100.773 Y-42.551
X100.681 Y-41.67
X100.567 Y-40.791
X100.428 Y-39.916
X100.258 Y-39.046
X100.045 Y-38.186
X99.828 Y-37.505
X99.627 Y-37.014
X99.503 Y-36.768
X99.334 Y-36.51
X99.114 Y-36.295
X98.851 Y-36.134
X98.56 Y-36.034
X98.254 Y-36
X95.914
G3 X95.35 Y-36.465 I0.021 J-0.6
G1 X95.329 Y-36.556 Z-17.993
X95.308 Y-36.645 Z-17.971
X95.289 Y-36.73 Z-17.935
X95.271 Y-36.808 Z-17.885
X95.255 Y-36.878 Z-17.824
X95.241 Y-36.938 Z-17.753
X95.23 Y-36.986 Z-17.672
X95.222 Y-37.021 Z-17.585
X95.217 Y-37.042 Z-17.494
X95.215 Y-37.049 Z-17.4
Z-16.8
X91.482 Y-72.488
Z-17.4
X91.489 Y-72.491 Z-17.494
X91.509 Y-72.499 Z-17.585
X91.542 Y-72.513 Z-17.672
X91.588 Y-72.532 Z-17.753
X91.644 Y-72.555 Z-17.824
X91.711 Y-72.582 Z-17.885
X91.785 Y-72.613 Z-17.935
X91.865 Y-72.646 Z-17.971
X91.95 Y-72.681 Z-17.993
X92.037 Y-72.716 Z-18
G3 X92.815 Y-72.825 I0.601 J1.464
G1 X93.217 Y-72.765
X93.821 Y-72.665
X95.432 Y-72.388
X95.774 Y-72.312
X96.023 Y-72.234
X96.297 Y-72.124
X96.616 Y-71.966
X96.933 Y-71.775
X97.301 Y-71.511
X97.676 Y-71.194
X98.098 Y-70.774
X98.547 Y-70.249
X99.028 Y-69.585
X99.489 Y-68.828
X99.896 Y-68.041
X100.258 Y-67.232
X100.583 Y-66.408
X100.876 Y-65.572
X101.142 Y-64.726
X101.384 Y-63.874
X101.606 Y-63.016
X101.809 Y-62.154
X101.996 Y-61.287
X102.168 Y-60.418
X102.326 Y-59.546
X102.471 Y-58.672
X102.603 Y-57.796
X102.725 Y-56.918
X102.834 Y-56.039
X102.934 Y-55.158
X103.022 Y-54.276
X103.1 Y-53.394
X103.167 Y-52.51
X103.224 Y-51.626
X103.27 Y-50.741
X103.305 Y-49.856
X103.329 Y-48.97
X103.342 Y-48.084
X103.343 Y-47.198
X103.331 Y-46.312
X103.306 Y-45.426
X103.267 Y-44.541
X103.213 Y-43.656
X103.143 Y-42.773
X103.054 Y-41.891
X102.944 Y-41.012
X102.81 Y-40.136
X102.647 Y-39.265
X102.446 Y-38.402
X102.218 Y-37.639
X102.017 Y-37.121
X101.857 Y-36.79
X101.69 Y-36.525
X101.468 Y-36.304
X101.203 Y-36.138
X100.907 Y-36.035
X100.596 Y-36
X98.254
G3 X97.69 Y-36.465 I0.021 J-0.6
G1 X97.669 Y-36.556 Z-17.993
X97.648 Y-36.645 Z-17.971
X97.629 Y-36.73 Z-17.935
X97.611 Y-36.808 Z-17.885
X97.595 Y-36.878 Z-17.824
X97.581 Y-36.938 Z-17.753
X97.57 Y-36.986 Z-17.672
X97.562 Y-37.021 Z-17.585
X97.557 Y-37.042 Z-17.494
X97.555 Y-37.049 Z-17.4
Z-16.8
X94.091 Y-72.083
Z-17.4
X94.098 Y-72.086 Z-17.494
X94.119 Y-72.094 Z-17.585
X94.153 Y-72.107 Z-17.672
X94.198 Y-72.124 Z-17.753
X94.256 Y-72.146 Z-17.824
X94.322 Y-72.172 Z-17.885
X94.397 Y-72.2 Z-17.935
X94.479 Y-72.232 Z-17.971
X94.564 Y-72.264 Z-17.993
X94.652 Y-72.298 Z-18
G3 X95.432 Y-72.388 I0.566 J1.478
G1 X98.049 Y-71.938
X98.299 Y-71.882
X98.563 Y-71.8
X98.827 Y-71.694
X99.13 Y-71.543
X99.461 Y-71.345
X99.808 Y-71.095
X100.192 Y-70.771
X100.603 Y-70.361
X101.038 Y-69.853
X101.514 Y-69.196
X101.975 Y-68.44
X102.381 Y-67.652
X102.741 Y-66.842
X103.062 Y-66.017
X103.352 Y-65.179
X103.613 Y-64.332
X103.851 Y-63.479
X104.068 Y-62.62
X104.266 Y-61.756
X104.447 Y-60.888
X104.614 Y-60.018
X104.766 Y-59.145
X104.905 Y-58.27
X105.032 Y-57.393
X105.147 Y-56.514
X105.251 Y-55.634
X105.344 Y-54.753
X105.426 Y-53.871
X105.497 Y-52.988
X105.558 Y-52.104
X105.608 Y-51.219
X105.648 Y-50.334
X105.676 Y-49.448
X105.694 Y-48.562
X105.699 Y-47.676
X105.693 Y-46.79
X105.674 Y-45.904
X105.642 Y-45.018
X105.595 Y-44.133
X105.532 Y-43.25
X105.453 Y-42.367
X105.354 Y-41.486
X105.233 Y-40.609
X105.087 Y-39.735
X104.907 Y-38.867
X104.683 Y-38.01
X104.462 Y-37.365
X104.249 Y-36.877
X104.175 Y-36.74
X104.005 Y-36.49
X103.786 Y-36.284
X103.527 Y-36.129
X103.241 Y-36.033
X102.941 Y-36
X100.596
G3 X100.033 Y-36.465 I0.021 J-0.6
G1 X100.012 Y-36.556 Z-17.993
X99.991 Y-36.645 Z-17.971
X99.971 Y-36.73 Z-17.935
X99.953 Y-36.808 Z-17.885
X99.937 Y-36.878 Z-17.824
X99.924 Y-36.938 Z-17.753
X99.912 Y-36.986 Z-17.672
X99.904 Y-37.021 Z-17.585
X99.899 Y-37.042 Z-17.494
X99.898 Y-37.049 Z-17.4
Z-16.8
X96.709 Y-71.633
Z-17.4
X96.716 Y-71.635 Z-17.494
X96.736 Y-71.643 Z-17.585
X96.77 Y-71.656 Z-17.672
X96.816 Y-71.674 Z-17.753
X96.873 Y-71.696 Z-17.824
X96.94 Y-71.721 Z-17.885
X97.015 Y-71.75 Z-17.935
X97.096 Y-71.781 Z-17.971
X97.181 Y-71.814 Z-17.993
X97.269 Y-71.848 Z-18
G3 X98.049 Y-71.938 I0.566 J1.478
G1 X100.666 Y-71.487
X100.853 Y-71.443
X101.115 Y-71.358
X101.381 Y-71.247
X101.692 Y-71.088
X102.015 Y-70.887
X102.371 Y-70.626
X102.749 Y-70.297
X103.167 Y-69.87
X103.598 Y-69.353
X104.071 Y-68.683
X104.522 Y-67.92
X104.919 Y-67.128
X105.27 Y-66.314
X105.583 Y-65.485
X105.864 Y-64.645
X106.072 Y-63.947
X106.105 Y-63.815
X106.124 Y-63.681
X106.131 Y-63.546
Y-52.722
X106.132 Y-52.521
X106.146 Y-52.118
X106.155 Y-51.917
X106.188 Y-51.716
X106.235 Y-51.515
X106.299 Y-51.314
X106.379 Y-51.113
X106.464 Y-50.911
X106.505 Y-50.834
X106.583 Y-50.71
X106.706 Y-50.522
X106.789 Y-50.397
X106.983 Y-50.032
X107.181 Y-49.571
X107.382 Y-48.98
X107.578 Y-48.202
X107.725 Y-47.328
X107.814 Y-46.447
X107.858 Y-45.562
X107.867 Y-44.675
X107.847 Y-43.79
X107.8 Y-42.905
X107.728 Y-42.021
X107.632 Y-41.141
X107.509 Y-40.263
X107.355 Y-39.39
X107.162 Y-38.526
X106.938 Y-37.741
X106.73 Y-37.187
X106.514 Y-36.727
X106.502 Y-36.705
X106.33 Y-36.467
X106.112 Y-36.27
X105.858 Y-36.122
X105.579 Y-36.031
X105.286 Y-36
X102.941
G3 X102.379 Y-36.741 I0.021 J-0.6
G1 X105.667 Y-50.274
G3 X106.706 Y-50.522 I0.583 J0.142
G1 X106.908 Y-50.269
X107.075 Y-50.107
X107.109 Y-50.076
X107.306 Y-49.906
X107.512 Y-49.762
X107.602 Y-49.704
X107.713 Y-49.645
X107.844 Y-49.571
X108.005 Y-49.458
X108.183 Y-49.309
X108.36 Y-49.137
X108.555 Y-48.912
X108.757 Y-48.638
X108.964 Y-48.306
X109.176 Y-47.893
X109.387 Y-47.387
X109.588 Y-46.767
X109.775 Y-45.983
X109.911 Y-45.107
X109.985 Y-44.224
X110.01 Y-43.339
X109.994 Y-42.453
X109.941 Y-41.568
X109.854 Y-40.686
X109.732 Y-39.809
X109.571 Y-38.937
X109.362 Y-38.076
X109.157 Y-37.439
X108.962 Y-36.968
X108.808 Y-36.666
X108.652 Y-36.425
X108.45 Y-36.221
X108.21 Y-36.062
X107.943 Y-35.956
X107.659 Y-35.906
X107.372 Y-35.916
X107.31 Y-35.924
X107.109 Y-35.949
X106.706 Y-35.985
X106.505 Y-36
X105.286
G3 X104.716 Y-36.702 I0.021 J-0.6
G1 X106.874 Y-49.2
G3 X107.713 Y-49.645 I0.591 J0.102
G1 X107.914 Y-49.545
X108.116 Y-49.461
X108.317 Y-49.399
X108.518 Y-49.35
X108.72 Y-49.318
X108.753 Y-49.316
X108.902 Y-49.299
X109.047 Y-49.262
X109.211 Y-49.205
X109.386 Y-49.128
X109.571 Y-49.028
X109.781 Y-48.892
X109.986 Y-48.734
X110.214 Y-48.527
X110.449 Y-48.278
X110.684 Y-47.984
X110.934 Y-47.613
X111.17 Y-47.195
X111.41 Y-46.677
X111.64 Y-46.052
X111.845 Y-45.319
X112.015 Y-44.449
X112.116 Y-43.568
X112.162 Y-42.683
X112.159 Y-41.797
X112.112 Y-40.913
X112.023 Y-40.031
X111.891 Y-39.155
X111.708 Y-38.288
X111.5 Y-37.559
X111.307 Y-37.045
X111.102 Y-36.608
X110.891 Y-36.239
X110.776 Y-36.071
X110.572 Y-35.834
X110.32 Y-35.648
X110.034 Y-35.523
X109.727 Y-35.465
X109.414 Y-35.476
X109.112 Y-35.556
X108.938 Y-35.624
X108.72 Y-35.698
X108.518 Y-35.748
X108.317 Y-35.782
X107.914 Y-35.841
X107.372 Y-35.916
G3 X106.877 Y-36.569 I0.102 J-0.591
G1 X108.139 Y-48.778
G3 X108.753 Y-49.316 I0.597 J0.062
G1 X109.122 Y-49.292
X109.324 Y-49.283
X110.129
X110.296 Y-49.275
X110.465 Y-49.252
X110.639 Y-49.215
X110.838 Y-49.155
X111.043 Y-49.076
X111.27 Y-48.966
X111.507 Y-48.826
X111.756 Y-48.651
X112.021 Y-48.431
X112.287 Y-48.171
X112.569 Y-47.849
X112.843 Y-47.478
X113.126 Y-47.023
X113.397 Y-46.498
X113.652 Y-45.887
X113.892 Y-45.153
X114.099 Y-44.291
X114.236 Y-43.416
X114.313 Y-42.533
X114.337 Y-41.647
X114.312 Y-40.761
X114.239 Y-39.878
X114.117 Y-39.001
X113.94 Y-38.132
X113.719 Y-37.35
X113.491 Y-36.736
X113.271 Y-36.264
X113.117 Y-35.992
X112.945 Y-35.752
X112.727 Y-35.554
X112.472 Y-35.406
X112.192 Y-35.314
X111.899 Y-35.283
X109.928
X109.827 Y-35.285
X109.726 Y-35.302
X109.525 Y-35.379
X109.112 Y-35.556
G3 X108.75 Y-36.145 I0.237 J-0.551
G1 X108.753 Y-36.194
X109.551 Y-48.721
G3 X110.129 Y-49.283 I0.599 J0.038
G1 X111.941
X112.096 Y-49.275
X112.284 Y-49.25
X112.479 Y-49.209
X112.7 Y-49.143
X112.932 Y-49.052
X113.183 Y-48.93
X113.448 Y-48.774
X113.725 Y-48.58
X114.015 Y-48.339
X114.313 Y-48.049
X114.617 Y-47.7
X114.927 Y-47.281
X115.228 Y-46.797
X115.532 Y-46.207
X115.806 Y-45.554
X116.058 Y-44.78
X116.265 Y-43.918
X116.405 Y-43.043
X116.487 Y-42.161
X116.515 Y-41.275
X116.493 Y-40.389
X116.421 Y-39.506
X116.296 Y-38.629
X116.114 Y-37.762
X115.898 Y-37.015
X115.684 Y-36.451
X115.469 Y-35.997
X115.462 Y-35.984
X115.29 Y-35.747
X115.072 Y-35.551
X114.819 Y-35.404
X114.54 Y-35.314
X114.249 Y-35.283
X111.899
G3 X111.32 Y-35.884 I0.021 J-0.6
G1 X111.362 Y-48.685
G3 X111.941 Y-49.283 I0.6 J0.002
G1 X113.864
X114.034 Y-49.274
X114.223 Y-49.25
X114.443 Y-49.203
X114.665 Y-49.136
X114.922 Y-49.036
X115.178 Y-48.912
X115.469 Y-48.74
X115.756 Y-48.539
X116.075 Y-48.274
X116.381 Y-47.976
X116.718 Y-47.589
X117.031 Y-47.166
X117.361 Y-46.635
X117.676 Y-46.026
X117.965 Y-45.335
X118.231 Y-44.519
X118.438 Y-43.657
X118.581 Y-42.782
X118.667 Y-41.9
X118.7 Y-41.015
X118.683 Y-40.129
X118.613 Y-39.246
X118.491 Y-38.368
X118.311 Y-37.5
X118.126 Y-36.858
X117.943 Y-36.372
X117.808 Y-36.086
X117.642 Y-35.817
X117.42 Y-35.593
X117.153 Y-35.423
X116.855 Y-35.318
X116.541 Y-35.283
X114.249
G3 X113.67 Y-35.864 I0.021 J-0.6
G1 X113.285 Y-48.665
G3 X113.864 Y-49.283 I0.6 J-0.018
G1 X115.766
X116.054 Y-49.269
X116.247 Y-49.243
X116.473 Y-49.195
X116.704 Y-49.125
X116.964 Y-49.024
X117.238 Y-48.891
X117.53 Y-48.719
X117.839 Y-48.503
X118.159 Y-48.237
X118.488 Y-47.916
X118.83 Y-47.523
X119.164 Y-47.073
X119.511 Y-46.514
X119.83 Y-45.897
X120.134 Y-45.169
