(Rumpf)
(Bearbeiten)
(  Hersteller: ChinaCnc)
(  model: 3040T)
(  description: Generic 3-axis)
(T16 D=6 CR=0 - ZMIN=-30.4 - Schaftfrser)
G90 G94
G17
G21
(-Attention- Property Safe Retracts is set to Clearance Height.)
(Ensure the clearance height will clear the part and or fixtures.)
(Raise the Z-axis to a safe height before starting the program.)
(When using Fusion 360 for Personal Use, the feedrate of)
(rapid moves is reduced to match the feedrate of cutting)
(moves, which can increase machining time. Unrestricted rapid)
(moves are available with a Fusion 360 Subscription.)

(Bohrfrsen3)
T16
S3000 M3
G17 G90 G94
G54
G0 X-171.655 Y-57.4
Z15
G1 Z2 F1000
Z0.6
G18 G3 X-172.255 Z0 I-0.6 K0
G1 X-172.555
G17 G3 X-173.155 Y-58 I0 J-0.6
X-168.955 Y-58 Z-0.357 I2.1 J0
X-173.155 Y-58 Z-0.713 I-2.1 J0
X-168.955 Y-58 Z-1.07 I2.1 J0
X-173.155 Y-58 Z-1.427 I-2.1 J0
X-168.955 Y-58 Z-1.783 I2.1 J0
X-173.155 Y-58 Z-2.14 I-2.1 J0
X-168.955 Y-58 Z-2.496 I2.1 J0
X-173.155 Y-58 Z-2.853 I-2.1 J0
X-168.955 Y-58 Z-3.21 I2.1 J0
X-173.155 Y-58 Z-3.566 I-2.1 J0
X-168.955 Y-58 Z-3.923 I2.1 J0
X-173.155 Y-58 Z-4.28 I-2.1 J0
X-168.955 Y-58 Z-4.636 I2.1 J0
X-173.155 Y-58 Z-4.993 I-2.1 J0
X-168.955 Y-58 Z-5.349 I2.1 J0
X-173.155 Y-58 Z-5.706 I-2.1 J0
X-168.955 Y-58 Z-6.063 I2.1 J0
X-173.155 Y-58 Z-6.419 I-2.1 J0
X-168.955 Y-58 Z-6.776 I2.1 J0
X-173.155 Y-58 Z-7.133 I-2.1 J0
X-168.955 Y-58 Z-7.489 I2.1 J0
X-173.155 Y-58 Z-7.846 I-2.1 J0
X-168.955 Y-58 Z-8.202 I2.1 J0
X-173.155 Y-58 Z-8.559 I-2.1 J0
X-168.955 Y-58 Z-8.916 I2.1 J0
X-173.155 Y-58 Z-9.272 I-2.1 J0
X-168.955 Y-58 Z-9.629 I2.1 J0
X-173.155 Y-58 Z-9.986 I-2.1 J0
X-168.955 Y-58 Z-10.342 I2.1 J0
X-173.155 Y-58 Z-10.699 I-2.1 J0
X-168.955 Y-58 Z-11.055 I2.1 J0
X-173.155 Y-58 Z-11.412 I-2.1 J0
X-168.955 Y-58 Z-11.769 I2.1 J0
X-173.155 Y-58 Z-12.125 I-2.1 J0
X-168.955 Y-58 Z-12.482 I2.1 J0
X-173.155 Y-58 Z-12.839 I-2.1 J0
X-168.955 Y-58 Z-13.195 I2.1 J0
X-173.155 Y-58 Z-13.552 I-2.1 J0
X-168.955 Y-58 Z-13.908 I2.1 J0
X-173.155 Y-58 Z-14.265 I-2.1 J0
X-168.955 Y-58 Z-14.622 I2.1 J0
X-173.155 Y-58 Z-14.978 I-2.1 J0
X-168.955 Y-58 Z-15.335 I2.1 J0
X-173.155 Y-58 Z-15.692 I-2.1 J0
X-168.955 Y-58 Z-16.048 I2.1 J0
X-173.155 Y-58 Z-16.405 I-2.1 J0
X-168.955 Y-58 Z-16.761 I2.1 J0
X-173.155 Y-58 Z-17.118 I-2.1 J0
X-168.955 Y-58 Z-17.475 I2.1 J0
X-173.155 Y-58 Z-17.831 I-2.1 J0
X-168.955 Y-58 Z-18.188 I2.1 J0
X-173.155 Y-58 Z-18.545 I-2.1 J0
X-168.955 Y-58 Z-18.901 I2.1 J0
X-173.155 Y-58 Z-19.258 I-2.1 J0
X-168.955 Y-58 Z-19.614 I2.1 J0
X-173.155 Y-58 Z-19.971 I-2.1 J0
X-168.955 Y-58 Z-20.328 I2.1 J0
X-173.155 Y-58 Z-20.684 I-2.1 J0
X-168.955 Y-58 Z-21.041 I2.1 J0
X-173.155 Y-58 Z-21.398 I-2.1 J0
X-168.955 Y-58 Z-21.754 I2.1 J0
X-173.155 Y-58 Z-22.111 I-2.1 J0
X-168.955 Y-58 Z-22.467 I2.1 J0
X-173.155 Y-58 Z-22.824 I-2.1 J0
X-168.955 Y-58 Z-23.181 I2.1 J0
X-173.155 Y-58 Z-23.537 I-2.1 J0
X-168.955 Y-58 Z-23.894 I2.1 J0
X-173.155 Y-58 Z-24.251 I-2.1 J0
X-168.955 Y-58 Z-24.607 I2.1 J0
X-173.155 Y-58 Z-24.964 I-2.1 J0
X-168.955 Y-58 Z-25.32 I2.1 J0
X-173.155 Y-58 Z-25.677 I-2.1 J0
X-168.955 Y-58 Z-26.034 I2.1 J0
X-173.155 Y-58 Z-26.39 I-2.1 J0
X-168.955 Y-58 Z-26.747 I2.1 J0
X-173.155 Y-58 Z-27.104 I-2.1 J0
X-168.955 Y-58 Z-27.46 I2.1 J0
X-173.155 Y-58 Z-27.817 I-2.1 J0
X-168.955 Y-58 Z-28.174 I2.1 J0
X-173.155 Y-58 Z-28.53 I-2.1 J0
X-168.955 Y-58 Z-28.887 I2.1 J0
X-173.155 Y-58 Z-29.243 I-2.1 J0
X-168.955 Y-58 Z-29.6 I2.1 J0
X-173.155 Y-58 Z-29.957 I-2.1 J0
X-168.955 Y-58 Z-30.313 I2.1 J0
X-169.539 Y-56.547 Z-30.4 I-2.1 J0
X-172.572 Y-59.453 I-1.516 J-1.453
X-169.539 Y-56.547 I1.516 J1.453
X-170.387 Y-56.529 I-0.433 J-0.415
G1 X-170.604 Y-56.737
X-170.672 Y-56.802 Z-30.393
X-170.738 Y-56.865 Z-30.371
X-170.8 Y-56.925 Z-30.335
X-170.858 Y-56.981 Z-30.285
X-170.91 Y-57.03 Z-30.224
X-170.954 Y-57.072 Z-30.153
X-170.99 Y-57.106 Z-30.072
X-171.016 Y-57.131 Z-29.985
X-171.032 Y-57.147 Z-29.894
X-171.037 Y-57.152 Z-29.8
Z5
X-135.655 Y-57.4
Z2
Z0.6
G18 G3 X-136.255 Z0 I-0.6 K0
G1 X-136.555
G17 G3 X-137.155 Y-58 I0 J-0.6
X-132.955 Y-58 Z-0.357 I2.1 J0
X-137.155 Y-58 Z-0.713 I-2.1 J0
X-132.955 Y-58 Z-1.07 I2.1 J0
X-137.155 Y-58 Z-1.427 I-2.1 J0
X-132.955 Y-58 Z-1.783 I2.1 J0
X-137.155 Y-58 Z-2.14 I-2.1 J0
X-132.955 Y-58 Z-2.496 I2.1 J0
X-137.155 Y-58 Z-2.853 I-2.1 J0
X-132.955 Y-58 Z-3.21 I2.1 J0
X-137.155 Y-58 Z-3.566 I-2.1 J0
X-132.955 Y-58 Z-3.923 I2.1 J0
X-137.155 Y-58 Z-4.28 I-2.1 J0
X-132.955 Y-58 Z-4.636 I2.1 J0
X-137.155 Y-58 Z-4.993 I-2.1 J0
X-132.955 Y-58 Z-5.349 I2.1 J0
X-137.155 Y-58 Z-5.706 I-2.1 J0
X-132.955 Y-58 Z-6.063 I2.1 J0
X-137.155 Y-58 Z-6.419 I-2.1 J0
X-132.955 Y-58 Z-6.776 I2.1 J0
X-137.155 Y-58 Z-7.133 I-2.1 J0
X-132.955 Y-58 Z-7.489 I2.1 J0
X-137.155 Y-58 Z-7.846 I-2.1 J0
X-132.955 Y-58 Z-8.202 I2.1 J0
X-137.155 Y-58 Z-8.559 I-2.1 J0
X-132.955 Y-58 Z-8.916 I2.1 J0
X-137.155 Y-58 Z-9.272 I-2.1 J0
X-132.955 Y-58 Z-9.629 I2.1 J0
X-137.155 Y-58 Z-9.986 I-2.1 J0
X-132.955 Y-58 Z-10.342 I2.1 J0
X-137.155 Y-58 Z-10.699 I-2.1 J0
X-132.955 Y-58 Z-11.055 I2.1 J0
X-137.155 Y-58 Z-11.412 I-2.1 J0
X-132.955 Y-58 Z-11.769 I2.1 J0
X-137.155 Y-58 Z-12.125 I-2.1 J0
X-132.955 Y-58 Z-12.482 I2.1 J0
X-137.155 Y-58 Z-12.839 I-2.1 J0
X-132.955 Y-58 Z-13.195 I2.1 J0
X-137.155 Y-58 Z-13.552 I-2.1 J0
X-132.955 Y-58 Z-13.908 I2.1 J0
X-137.155 Y-58 Z-14.265 I-2.1 J0
X-132.955 Y-58 Z-14.622 I2.1 J0
X-137.155 Y-58 Z-14.978 I-2.1 J0
X-132.955 Y-58 Z-15.335 I2.1 J0
X-137.155 Y-58 Z-15.692 I-2.1 J0
X-132.955 Y-58 Z-16.048 I2.1 J0
X-137.155 Y-58 Z-16.405 I-2.1 J0
X-132.955 Y-58 Z-16.761 I2.1 J0
X-137.155 Y-58 Z-17.118 I-2.1 J0
X-132.955 Y-58 Z-17.475 I2.1 J0
X-137.155 Y-58 Z-17.831 I-2.1 J0
X-132.955 Y-58 Z-18.188 I2.1 J0
X-137.155 Y-58 Z-18.545 I-2.1 J0
X-132.955 Y-58 Z-18.901 I2.1 J0
X-137.155 Y-58 Z-19.258 I-2.1 J0
X-132.955 Y-58 Z-19.614 I2.1 J0
X-137.155 Y-58 Z-19.971 I-2.1 J0
X-132.955 Y-58 Z-20.328 I2.1 J0
X-137.155 Y-58 Z-20.684 I-2.1 J0
X-132.955 Y-58 Z-21.041 I2.1 J0
X-137.155 Y-58 Z-21.398 I-2.1 J0
X-132.955 Y-58 Z-21.754 I2.1 J0
X-137.155 Y-58 Z-22.111 I-2.1 J0
X-132.955 Y-58 Z-22.467 I2.1 J0
X-137.155 Y-58 Z-22.824 I-2.1 J0
X-132.955 Y-58 Z-23.181 I2.1 J0
X-137.155 Y-58 Z-23.537 I-2.1 J0
X-132.955 Y-58 Z-23.894 I2.1 J0
X-137.155 Y-58 Z-24.251 I-2.1 J0
X-132.955 Y-58 Z-24.607 I2.1 J0
X-137.155 Y-58 Z-24.964 I-2.1 J0
X-132.955 Y-58 Z-25.32 I2.1 J0
X-137.155 Y-58 Z-25.677 I-2.1 J0
X-132.955 Y-58 Z-26.034 I2.1 J0
X-137.155 Y-58 Z-26.39 I-2.1 J0
X-132.955 Y-58 Z-26.747 I2.1 J0
X-137.155 Y-58 Z-27.104 I-2.1 J0
X-132.955 Y-58 Z-27.46 I2.1 J0
X-137.155 Y-58 Z-27.817 I-2.1 J0
X-132.955 Y-58 Z-28.174 I2.1 J0
X-137.155 Y-58 Z-28.53 I-2.1 J0
X-132.955 Y-58 Z-28.887 I2.1 J0
X-137.155 Y-58 Z-29.243 I-2.1 J0
X-132.955 Y-58 Z-29.6 I2.1 J0
X-137.155 Y-58 Z-29.957 I-2.1 J0
X-132.955 Y-58 Z-30.313 I2.1 J0
X-133.539 Y-56.547 Z-30.4 I-2.1 J0
X-136.572 Y-59.453 I-1.516 J-1.453
X-133.539 Y-56.547 I1.516 J1.453
X-134.387 Y-56.529 I-0.433 J-0.415
G1 X-134.604 Y-56.737
X-134.672 Y-56.802 Z-30.393
X-134.738 Y-56.865 Z-30.371
X-134.8 Y-56.925 Z-30.335
X-134.858 Y-56.981 Z-30.285
X-134.91 Y-57.03 Z-30.224
X-134.954 Y-57.072 Z-30.153
X-134.99 Y-57.106 Z-30.072
X-135.016 Y-57.131 Z-29.985
X-135.032 Y-57.147 Z-29.894
X-135.037 Y-57.152 Z-29.8
Z5
X-106.455 Y-58.6
Z2
Z0.6
G18 G2 X-105.855 Z0 I0.6 K0
G1 X-105.555
G17 G3 X-104.955 Y-58 I0 J0.6
X-109.155 Y-58 Z-0.357 I-2.1 J0
X-104.955 Y-58 Z-0.713 I2.1 J0
X-109.155 Y-58 Z-1.07 I-2.1 J0
X-104.955 Y-58 Z-1.427 I2.1 J0
X-109.155 Y-58 Z-1.783 I-2.1 J0
X-104.955 Y-58 Z-2.14 I2.1 J0
X-109.155 Y-58 Z-2.496 I-2.1 J0
X-104.955 Y-58 Z-2.853 I2.1 J0
X-109.155 Y-58 Z-3.21 I-2.1 J0
X-104.955 Y-58 Z-3.566 I2.1 J0
X-109.155 Y-58 Z-3.923 I-2.1 J0
X-104.955 Y-58 Z-4.28 I2.1 J0
X-109.155 Y-58 Z-4.636 I-2.1 J0
X-104.955 Y-58 Z-4.993 I2.1 J0
X-109.155 Y-58 Z-5.349 I-2.1 J0
X-104.955 Y-58 Z-5.706 I2.1 J0
X-109.155 Y-58 Z-6.063 I-2.1 J0
X-104.955 Y-58 Z-6.419 I2.1 J0
X-109.155 Y-58 Z-6.776 I-2.1 J0
X-104.955 Y-58 Z-7.133 I2.1 J0
X-109.155 Y-58 Z-7.489 I-2.1 J0
X-104.955 Y-58 Z-7.846 I2.1 J0
X-109.155 Y-58 Z-8.202 I-2.1 J0
X-104.955 Y-58 Z-8.559 I2.1 J0
X-109.155 Y-58 Z-8.916 I-2.1 J0
X-104.955 Y-58 Z-9.272 I2.1 J0
X-109.155 Y-58 Z-9.629 I-2.1 J0
X-104.955 Y-58 Z-9.986 I2.1 J0
X-109.155 Y-58 Z-10.342 I-2.1 J0
X-104.955 Y-58 Z-10.699 I2.1 J0
X-109.155 Y-58 Z-11.055 I-2.1 J0
X-104.955 Y-58 Z-11.412 I2.1 J0
X-109.155 Y-58 Z-11.769 I-2.1 J0
X-104.955 Y-58 Z-12.125 I2.1 J0
X-109.155 Y-58 Z-12.482 I-2.1 J0
X-104.955 Y-58 Z-12.839 I2.1 J0
X-109.155 Y-58 Z-13.195 I-2.1 J0
X-104.955 Y-58 Z-13.552 I2.1 J0
X-109.155 Y-58 Z-13.908 I-2.1 J0
X-104.955 Y-58 Z-14.265 I2.1 J0
X-109.155 Y-58 Z-14.622 I-2.1 J0
X-104.955 Y-58 Z-14.978 I2.1 J0
X-109.155 Y-58 Z-15.335 I-2.1 J0
X-104.955 Y-58 Z-15.692 I2.1 J0
X-109.155 Y-58 Z-16.048 I-2.1 J0
X-104.955 Y-58 Z-16.405 I2.1 J0
X-109.155 Y-58 Z-16.761 I-2.1 J0
X-104.955 Y-58 Z-17.118 I2.1 J0
X-109.155 Y-58 Z-17.475 I-2.1 J0
X-104.955 Y-58 Z-17.831 I2.1 J0
X-109.155 Y-58 Z-18.188 I-2.1 J0
X-104.955 Y-58 Z-18.545 I2.1 J0
X-109.155 Y-58 Z-18.901 I-2.1 J0
X-104.955 Y-58 Z-19.258 I2.1 J0
X-109.155 Y-58 Z-19.614 I-2.1 J0
X-104.955 Y-58 Z-19.971 I2.1 J0
X-109.155 Y-58 Z-20.328 I-2.1 J0
X-104.955 Y-58 Z-20.684 I2.1 J0
X-109.155 Y-58 Z-21.041 I-2.1 J0
X-104.955 Y-58 Z-21.398 I2.1 J0
X-109.155 Y-58 Z-21.754 I-2.1 J0
X-104.955 Y-58 Z-22.111 I2.1 J0
X-109.155 Y-58 Z-22.467 I-2.1 J0
X-104.955 Y-58 Z-22.824 I2.1 J0
X-109.155 Y-58 Z-23.181 I-2.1 J0
X-104.955 Y-58 Z-23.537 I2.1 J0
X-109.155 Y-58 Z-23.894 I-2.1 J0
X-104.955 Y-58 Z-24.251 I2.1 J0
X-109.155 Y-58 Z-24.607 I-2.1 J0
X-104.955 Y-58 Z-24.964 I2.1 J0
X-109.155 Y-58 Z-25.32 I-2.1 J0
X-104.955 Y-58 Z-25.677 I2.1 J0
X-109.155 Y-58 Z-26.034 I-2.1 J0
X-104.955 Y-58 Z-26.39 I2.1 J0
X-109.155 Y-58 Z-26.747 I-2.1 J0
X-104.955 Y-58 Z-27.104 I2.1 J0
X-109.155 Y-58 Z-27.46 I-2.1 J0
X-104.955 Y-58 Z-27.817 I2.1 J0
X-109.155 Y-58 Z-28.174 I-2.1 J0
X-104.955 Y-58 Z-28.53 I2.1 J0
X-109.155 Y-58 Z-28.887 I-2.1 J0
X-104.955 Y-58 Z-29.243 I2.1 J0
X-109.155 Y-58 Z-29.6 I-2.1 J0
X-104.955 Y-58 Z-29.957 I2.1 J0
X-109.155 Y-58 Z-30.313 I-2.1 J0
X-108.571 Y-59.453 Z-30.4 I2.1 J0
X-105.539 Y-56.547 I1.516 J1.453
X-108.571 Y-59.453 I-1.516 J-1.453
X-107.723 Y-59.471 I0.433 J0.415
G1 X-107.507 Y-59.263
X-107.439 Y-59.198 Z-30.393
X-107.373 Y-59.135 Z-30.371
X-107.31 Y-59.075 Z-30.335
X-107.252 Y-59.019 Z-30.285
X-107.2 Y-58.97 Z-30.224
X-107.156 Y-58.928 Z-30.153
X-107.121 Y-58.894 Z-30.072
X-107.094 Y-58.869 Z-29.985
X-107.079 Y-58.853 Z-29.894
X-107.073 Y-58.848 Z-29.8
Z5
X-70.455 Y-58.6
Z2
Z0.6
G18 G2 X-69.855 Z0 I0.6 K0
G1 X-69.555
G17 G3 X-68.955 Y-58 I0 J0.6
X-73.155 Y-58 Z-0.357 I-2.1 J0
X-68.955 Y-58 Z-0.713 I2.1 J0
X-73.155 Y-58 Z-1.07 I-2.1 J0
X-68.955 Y-58 Z-1.427 I2.1 J0
X-73.155 Y-58 Z-1.783 I-2.1 J0
X-68.955 Y-58 Z-2.14 I2.1 J0
X-73.155 Y-58 Z-2.496 I-2.1 J0
X-68.955 Y-58 Z-2.853 I2.1 J0
X-73.155 Y-58 Z-3.21 I-2.1 J0
X-68.955 Y-58 Z-3.566 I2.1 J0
X-73.155 Y-58 Z-3.923 I-2.1 J0
X-68.955 Y-58 Z-4.28 I2.1 J0
X-73.155 Y-58 Z-4.636 I-2.1 J0
X-68.955 Y-58 Z-4.993 I2.1 J0
X-73.155 Y-58 Z-5.349 I-2.1 J0
X-68.955 Y-58 Z-5.706 I2.1 J0
X-73.155 Y-58 Z-6.063 I-2.1 J0
X-68.955 Y-58 Z-6.419 I2.1 J0
X-73.155 Y-58 Z-6.776 I-2.1 J0
X-68.955 Y-58 Z-7.133 I2.1 J0
X-73.155 Y-58 Z-7.489 I-2.1 J0
X-68.955 Y-58 Z-7.846 I2.1 J0
X-73.155 Y-58 Z-8.202 I-2.1 J0
X-68.955 Y-58 Z-8.559 I2.1 J0
X-73.155 Y-58 Z-8.916 I-2.1 J0
X-68.955 Y-58 Z-9.272 I2.1 J0
X-73.155 Y-58 Z-9.629 I-2.1 J0
X-68.955 Y-58 Z-9.986 I2.1 J0
X-73.155 Y-58 Z-10.342 I-2.1 J0
X-68.955 Y-58 Z-10.699 I2.1 J0
X-73.155 Y-58 Z-11.055 I-2.1 J0
X-68.955 Y-58 Z-11.412 I2.1 J0
X-73.155 Y-58 Z-11.769 I-2.1 J0
X-68.955 Y-58 Z-12.125 I2.1 J0
X-73.155 Y-58 Z-12.482 I-2.1 J0
X-68.955 Y-58 Z-12.839 I2.1 J0
X-73.155 Y-58 Z-13.195 I-2.1 J0
X-68.955 Y-58 Z-13.552 I2.1 J0
X-73.155 Y-58 Z-13.908 I-2.1 J0
X-68.955 Y-58 Z-14.265 I2.1 J0
X-73.155 Y-58 Z-14.622 I-2.1 J0
X-68.955 Y-58 Z-14.978 I2.1 J0
X-73.155 Y-58 Z-15.335 I-2.1 J0
X-68.955 Y-58 Z-15.692 I2.1 J0
X-73.155 Y-58 Z-16.048 I-2.1 J0
X-68.955 Y-58 Z-16.405 I2.1 J0
X-73.155 Y-58 Z-16.761 I-2.1 J0
X-68.955 Y-58 Z-17.118 I2.1 J0
X-73.155 Y-58 Z-17.475 I-2.1 J0
X-68.955 Y-58 Z-17.831 I2.1 J0
X-73.155 Y-58 Z-18.188 I-2.1 J0
X-68.955 Y-58 Z-18.545 I2.1 J0
X-73.155 Y-58 Z-18.901 I-2.1 J0
X-68.955 Y-58 Z-19.258 I2.1 J0
X-73.155 Y-58 Z-19.614 I-2.1 J0
X-68.955 Y-58 Z-19.971 I2.1 J0
X-73.155 Y-58 Z-20.328 I-2.1 J0
X-68.955 Y-58 Z-20.684 I2.1 J0
X-73.155 Y-58 Z-21.041 I-2.1 J0
X-68.955 Y-58 Z-21.398 I2.1 J0
X-73.155 Y-58 Z-21.754 I-2.1 J0
X-68.955 Y-58 Z-22.111 I2.1 J0
X-73.155 Y-58 Z-22.467 I-2.1 J0
X-68.955 Y-58 Z-22.824 I2.1 J0
X-73.155 Y-58 Z-23.181 I-2.1 J0
X-68.955 Y-58 Z-23.537 I2.1 J0
X-73.155 Y-58 Z-23.894 I-2.1 J0
X-68.955 Y-58 Z-24.251 I2.1 J0
X-73.155 Y-58 Z-24.607 I-2.1 J0
X-68.955 Y-58 Z-24.964 I2.1 J0
X-73.155 Y-58 Z-25.32 I-2.1 J0
X-68.955 Y-58 Z-25.677 I2.1 J0
X-73.155 Y-58 Z-26.034 I-2.1 J0
X-68.955 Y-58 Z-26.39 I2.1 J0
X-73.155 Y-58 Z-26.747 I-2.1 J0
X-68.955 Y-58 Z-27.104 I2.1 J0
X-73.155 Y-58 Z-27.46 I-2.1 J0
X-68.955 Y-58 Z-27.817 I2.1 J0
X-73.155 Y-58 Z-28.174 I-2.1 J0
X-68.955 Y-58 Z-28.53 I2.1 J0
X-73.155 Y-58 Z-28.887 I-2.1 J0
X-68.955 Y-58 Z-29.243 I2.1 J0
X-73.155 Y-58 Z-29.6 I-2.1 J0
X-68.955 Y-58 Z-29.957 I2.1 J0
X-73.155 Y-58 Z-30.313 I-2.1 J0
X-72.571 Y-59.453 Z-30.4 I2.1 J0
X-69.539 Y-56.547 I1.516 J1.453
X-72.571 Y-59.453 I-1.516 J-1.453
X-71.723 Y-59.471 I0.433 J0.415
G1 X-71.507 Y-59.263
X-71.439 Y-59.198 Z-30.393
X-71.373 Y-59.135 Z-30.371
X-71.31 Y-59.075 Z-30.335
X-71.252 Y-59.019 Z-30.285
X-71.2 Y-58.97 Z-30.224
X-71.156 Y-58.928 Z-30.153
X-71.121 Y-58.894 Z-30.072
X-71.094 Y-58.869 Z-29.985
X-71.079 Y-58.853 Z-29.894
X-71.073 Y-58.848 Z-29.8
Z5
X-34.455 Y-58.6
Z2
Z0.6
G18 G2 X-33.855 Z0 I0.6 K0
G1 X-33.555
G17 G3 X-32.955 Y-58 I0 J0.6
X-37.155 Y-58 Z-0.357 I-2.1 J0
X-32.955 Y-58 Z-0.713 I2.1 J0
X-37.155 Y-58 Z-1.07 I-2.1 J0
X-32.955 Y-58 Z-1.427 I2.1 J0
X-37.155 Y-58 Z-1.783 I-2.1 J0
X-32.955 Y-58 Z-2.14 I2.1 J0
X-37.155 Y-58 Z-2.496 I-2.1 J0
X-32.955 Y-58 Z-2.853 I2.1 J0
X-37.155 Y-58 Z-3.21 I-2.1 J0
X-32.955 Y-58 Z-3.566 I2.1 J0
X-37.155 Y-58 Z-3.923 I-2.1 J0
X-32.955 Y-58 Z-4.28 I2.1 J0
X-37.155 Y-58 Z-4.636 I-2.1 J0
X-32.955 Y-58 Z-4.993 I2.1 J0
X-37.155 Y-58 Z-5.349 I-2.1 J0
X-32.955 Y-58 Z-5.706 I2.1 J0
X-37.155 Y-58 Z-6.063 I-2.1 J0
X-32.955 Y-58 Z-6.419 I2.1 J0
X-37.155 Y-58 Z-6.776 I-2.1 J0
X-32.955 Y-58 Z-7.133 I2.1 J0
X-37.155 Y-58 Z-7.489 I-2.1 J0
X-32.955 Y-58 Z-7.846 I2.1 J0
X-37.155 Y-58 Z-8.202 I-2.1 J0
X-32.955 Y-58 Z-8.559 I2.1 J0
X-37.155 Y-58 Z-8.916 I-2.1 J0
X-32.955 Y-58 Z-9.272 I2.1 J0
X-37.155 Y-58 Z-9.629 I-2.1 J0
X-32.955 Y-58 Z-9.986 I2.1 J0
X-37.155 Y-58 Z-10.342 I-2.1 J0
X-32.955 Y-58 Z-10.699 I2.1 J0
X-37.155 Y-58 Z-11.055 I-2.1 J0
X-32.955 Y-58 Z-11.412 I2.1 J0
X-37.155 Y-58 Z-11.769 I-2.1 J0
X-32.955 Y-58 Z-12.125 I2.1 J0
X-37.155 Y-58 Z-12.482 I-2.1 J0
X-32.955 Y-58 Z-12.839 I2.1 J0
X-37.155 Y-58 Z-13.195 I-2.1 J0
X-32.955 Y-58 Z-13.552 I2.1 J0
X-37.155 Y-58 Z-13.908 I-2.1 J0
X-32.955 Y-58 Z-14.265 I2.1 J0
X-37.155 Y-58 Z-14.622 I-2.1 J0
X-32.955 Y-58 Z-14.978 I2.1 J0
X-37.155 Y-58 Z-15.335 I-2.1 J0
X-32.955 Y-58 Z-15.692 I2.1 J0
X-37.155 Y-58 Z-16.048 I-2.1 J0
X-32.955 Y-58 Z-16.405 I2.1 J0
X-37.155 Y-58 Z-16.761 I-2.1 J0
X-32.955 Y-58 Z-17.118 I2.1 J0
X-37.155 Y-58 Z-17.475 I-2.1 J0
X-32.955 Y-58 Z-17.831 I2.1 J0
X-37.155 Y-58 Z-18.188 I-2.1 J0
X-32.955 Y-58 Z-18.545 I2.1 J0
X-37.155 Y-58 Z-18.901 I-2.1 J0
X-32.955 Y-58 Z-19.258 I2.1 J0
X-37.155 Y-58 Z-19.614 I-2.1 J0
X-32.955 Y-58 Z-19.971 I2.1 J0
X-37.155 Y-58 Z-20.328 I-2.1 J0
X-32.955 Y-58 Z-20.684 I2.1 J0
X-37.155 Y-58 Z-21.041 I-2.1 J0
X-32.955 Y-58 Z-21.398 I2.1 J0
X-37.155 Y-58 Z-21.754 I-2.1 J0
X-32.955 Y-58 Z-22.111 I2.1 J0
X-37.155 Y-58 Z-22.467 I-2.1 J0
X-32.955 Y-58 Z-22.824 I2.1 J0
X-37.155 Y-58 Z-23.181 I-2.1 J0
X-32.955 Y-58 Z-23.537 I2.1 J0
X-37.155 Y-58 Z-23.894 I-2.1 J0
X-32.955 Y-58 Z-24.251 I2.1 J0
X-37.155 Y-58 Z-24.607 I-2.1 J0
X-32.955 Y-58 Z-24.964 I2.1 J0
X-37.155 Y-58 Z-25.32 I-2.1 J0
X-32.955 Y-58 Z-25.677 I2.1 J0
X-37.155 Y-58 Z-26.034 I-2.1 J0
X-32.955 Y-58 Z-26.39 I2.1 J0
X-37.155 Y-58 Z-26.747 I-2.1 J0
X-32.955 Y-58 Z-27.104 I2.1 J0
X-37.155 Y-58 Z-27.46 I-2.1 J0
X-32.955 Y-58 Z-27.817 I2.1 J0
X-37.155 Y-58 Z-28.174 I-2.1 J0
X-32.955 Y-58 Z-28.53 I2.1 J0
X-37.155 Y-58 Z-28.887 I-2.1 J0
X-32.955 Y-58 Z-29.243 I2.1 J0
X-37.155 Y-58 Z-29.6 I-2.1 J0
X-32.955 Y-58 Z-29.957 I2.1 J0
X-37.155 Y-58 Z-30.313 I-2.1 J0
X-36.571 Y-59.453 Z-30.4 I2.1 J0
X-33.539 Y-56.547 I1.516 J1.453
X-36.571 Y-59.453 I-1.516 J-1.453
X-35.723 Y-59.471 I0.433 J0.415
G1 X-35.507 Y-59.263
X-35.439 Y-59.198 Z-30.393
X-35.373 Y-59.135 Z-30.371
X-35.31 Y-59.075 Z-30.335
X-35.252 Y-59.019 Z-30.285
X-35.2 Y-58.97 Z-30.224
X-35.156 Y-58.928 Z-30.153
X-35.121 Y-58.894 Z-30.072
X-35.094 Y-58.869 Z-29.985
X-35.079 Y-58.853 Z-29.894
X-35.073 Y-58.848 Z-29.8
Z5
X-33.455 Y-178.6
Z2
Z0.6
G18 G2 X-32.855 Z0 I0.6 K0
G1 X-32.555
G17 G3 X-31.955 Y-178 I0 J0.6
X-36.155 Y-178 Z-0.357 I-2.1 J0
X-31.955 Y-178 Z-0.713 I2.1 J0
X-36.155 Y-178 Z-1.07 I-2.1 J0
X-31.955 Y-178 Z-1.427 I2.1 J0
X-36.155 Y-178 Z-1.783 I-2.1 J0
X-31.955 Y-178 Z-2.14 I2.1 J0
X-36.155 Y-178 Z-2.496 I-2.1 J0
X-31.955 Y-178 Z-2.853 I2.1 J0
X-36.155 Y-178 Z-3.21 I-2.1 J0
X-31.955 Y-178 Z-3.566 I2.1 J0
X-36.155 Y-178 Z-3.923 I-2.1 J0
X-31.955 Y-178 Z-4.28 I2.1 J0
X-36.155 Y-178 Z-4.636 I-2.1 J0
X-31.955 Y-178 Z-4.993 I2.1 J0
X-36.155 Y-178 Z-5.349 I-2.1 J0
X-31.955 Y-178 Z-5.706 I2.1 J0
X-36.155 Y-178 Z-6.063 I-2.1 J0
X-31.955 Y-178 Z-6.419 I2.1 J0
X-36.155 Y-178 Z-6.776 I-2.1 J0
X-31.955 Y-178 Z-7.133 I2.1 J0
X-36.155 Y-178 Z-7.489 I-2.1 J0
X-31.955 Y-178 Z-7.846 I2.1 J0
X-36.155 Y-178 Z-8.202 I-2.1 J0
X-31.955 Y-178 Z-8.559 I2.1 J0
X-36.155 Y-178 Z-8.916 I-2.1 J0
X-31.955 Y-178 Z-9.272 I2.1 J0
X-36.155 Y-178 Z-9.629 I-2.1 J0
X-31.955 Y-178 Z-9.986 I2.1 J0
X-36.155 Y-178 Z-10.342 I-2.1 J0
X-31.955 Y-178 Z-10.699 I2.1 J0
X-36.155 Y-178 Z-11.055 I-2.1 J0
X-31.955 Y-178 Z-11.412 I2.1 J0
X-36.155 Y-178 Z-11.769 I-2.1 J0
X-31.955 Y-178 Z-12.125 I2.1 J0
X-36.155 Y-178 Z-12.482 I-2.1 J0
X-31.955 Y-178 Z-12.839 I2.1 J0
X-36.155 Y-178 Z-13.195 I-2.1 J0
X-31.955 Y-178 Z-13.552 I2.1 J0
X-36.155 Y-178 Z-13.908 I-2.1 J0
X-31.955 Y-178 Z-14.265 I2.1 J0
X-36.155 Y-178 Z-14.622 I-2.1 J0
X-31.955 Y-178 Z-14.978 I2.1 J0
X-36.155 Y-178 Z-15.335 I-2.1 J0
X-31.955 Y-178 Z-15.692 I2.1 J0
X-36.155 Y-178 Z-16.048 I-2.1 J0
X-31.955 Y-178 Z-16.405 I2.1 J0
X-36.155 Y-178 Z-16.761 I-2.1 J0
X-31.955 Y-178 Z-17.118 I2.1 J0
X-36.155 Y-178 Z-17.475 I-2.1 J0
X-31.955 Y-178 Z-17.831 I2.1 J0
X-36.155 Y-178 Z-18.188 I-2.1 J0
X-31.955 Y-178 Z-18.545 I2.1 J0
X-36.155 Y-178 Z-18.901 I-2.1 J0
X-31.955 Y-178 Z-19.258 I2.1 J0
X-36.155 Y-178 Z-19.614 I-2.1 J0
X-31.955 Y-178 Z-19.971 I2.1 J0
X-36.155 Y-178 Z-20.328 I-2.1 J0
X-31.955 Y-178 Z-20.684 I2.1 J0
X-36.155 Y-178 Z-21.041 I-2.1 J0
X-31.955 Y-178 Z-21.398 I2.1 J0
X-36.155 Y-178 Z-21.754 I-2.1 J0
X-31.955 Y-178 Z-22.111 I2.1 J0
X-36.155 Y-178 Z-22.467 I-2.1 J0
X-31.955 Y-178 Z-22.824 I2.1 J0
X-36.155 Y-178 Z-23.181 I-2.1 J0
X-31.955 Y-178 Z-23.537 I2.1 J0
X-36.155 Y-178 Z-23.894 I-2.1 J0
X-31.955 Y-178 Z-24.251 I2.1 J0
X-36.155 Y-178 Z-24.607 I-2.1 J0
X-31.955 Y-178 Z-24.964 I2.1 J0
X-36.155 Y-178 Z-25.32 I-2.1 J0
X-31.955 Y-178 Z-25.677 I2.1 J0
X-36.155 Y-178 Z-26.034 I-2.1 J0
X-31.955 Y-178 Z-26.39 I2.1 J0
X-36.155 Y-178 Z-26.747 I-2.1 J0
X-31.955 Y-178 Z-27.104 I2.1 J0
X-36.155 Y-178 Z-27.46 I-2.1 J0
X-31.955 Y-178 Z-27.817 I2.1 J0
X-36.155 Y-178 Z-28.174 I-2.1 J0
X-31.955 Y-178 Z-28.53 I2.1 J0
X-36.155 Y-178 Z-28.887 I-2.1 J0
X-31.955 Y-178 Z-29.243 I2.1 J0
X-36.155 Y-178 Z-29.6 I-2.1 J0
X-31.955 Y-178 Z-29.957 I2.1 J0
X-36.155 Y-178 Z-30.313 I-2.1 J0
X-35.571 Y-179.453 Z-30.4 I2.1 J0
X-32.539 Y-176.547 I1.516 J1.453
X-35.571 Y-179.453 I-1.516 J-1.453
X-34.723 Y-179.471 I0.433 J0.415
G1 X-34.507 Y-179.263
X-34.439 Y-179.198 Z-30.393
X-34.373 Y-179.135 Z-30.371
X-34.31 Y-179.075 Z-30.335
X-34.252 Y-179.019 Z-30.285
X-34.2 Y-178.97 Z-30.224
X-34.156 Y-178.928 Z-30.153
X-34.121 Y-178.894 Z-30.072
X-34.094 Y-178.869 Z-29.985
X-34.079 Y-178.853 Z-29.894
X-34.073 Y-178.848 Z-29.8
Z5
X-69.441 Y-177.415
Z2
Z0.6
X-69.44 Y-177.408 Z0.506
Y-177.386 Z0.415
X-69.439 Y-177.35 Z0.328
X-69.438 Y-177.3 Z0.247
X-69.436 Y-177.239 Z0.176
X-69.434 Y-177.168 Z0.115
X-69.432 Y-177.087 Z0.065
X-69.43 Y-177 Z0.029
X-69.428 Y-176.909 Z0.007
X-69.426 Y-176.815 Z0
X-69.418 Y-176.515
G3 X-70.003 Y-175.901 I-0.6 J0.015
X-70.107 Y-180.099 Z-0.357 I-0.052 J-2.099
X-70.003 Y-175.901 Z-0.713 I0.052 J2.099
X-70.107 Y-180.099 Z-1.07 I-0.052 J-2.099
X-70.003 Y-175.901 Z-1.427 I0.052 J2.099
X-70.107 Y-180.099 Z-1.783 I-0.052 J-2.099
X-70.003 Y-175.901 Z-2.14 I0.052 J2.099
X-70.107 Y-180.099 Z-2.496 I-0.052 J-2.099
X-70.003 Y-175.901 Z-2.853 I0.052 J2.099
X-70.107 Y-180.099 Z-3.21 I-0.052 J-2.099
X-70.003 Y-175.901 Z-3.566 I0.052 J2.099
X-70.107 Y-180.099 Z-3.923 I-0.052 J-2.099
X-70.003 Y-175.901 Z-4.28 I0.052 J2.099
X-70.107 Y-180.099 Z-4.636 I-0.052 J-2.099
X-70.003 Y-175.901 Z-4.993 I0.052 J2.099
X-70.107 Y-180.099 Z-5.349 I-0.052 J-2.099
X-70.003 Y-175.901 Z-5.706 I0.052 J2.099
X-70.107 Y-180.099 Z-6.063 I-0.052 J-2.099
X-70.003 Y-175.901 Z-6.419 I0.052 J2.099
X-70.107 Y-180.099 Z-6.776 I-0.052 J-2.099
X-70.003 Y-175.901 Z-7.133 I0.052 J2.099
X-70.107 Y-180.099 Z-7.489 I-0.052 J-2.099
X-70.003 Y-175.901 Z-7.846 I0.052 J2.099
X-70.107 Y-180.099 Z-8.202 I-0.052 J-2.099
X-70.003 Y-175.901 Z-8.559 I0.052 J2.099
X-70.107 Y-180.099 Z-8.916 I-0.052 J-2.099
X-70.003 Y-175.901 Z-9.272 I0.052 J2.099
X-70.107 Y-180.099 Z-9.629 I-0.052 J-2.099
X-70.003 Y-175.901 Z-9.986 I0.052 J2.099
X-70.107 Y-180.099 Z-10.342 I-0.052 J-2.099
X-70.003 Y-175.901 Z-10.699 I0.052 J2.099
X-70.107 Y-180.099 Z-11.055 I-0.052 J-2.099
X-70.003 Y-175.901 Z-11.412 I0.052 J2.099
X-70.107 Y-180.099 Z-11.769 I-0.052 J-2.099
X-70.003 Y-175.901 Z-12.125 I0.052 J2.099
X-70.107 Y-180.099 Z-12.482 I-0.052 J-2.099
X-70.003 Y-175.901 Z-12.839 I0.052 J2.099
X-70.107 Y-180.099 Z-13.195 I-0.052 J-2.099
X-70.003 Y-175.901 Z-13.552 I0.052 J2.099
X-70.107 Y-180.099 Z-13.908 I-0.052 J-2.099
X-70.003 Y-175.901 Z-14.265 I0.052 J2.099
X-70.107 Y-180.099 Z-14.622 I-0.052 J-2.099
X-70.003 Y-175.901 Z-14.978 I0.052 J2.099
X-70.107 Y-180.099 Z-15.335 I-0.052 J-2.099
X-70.003 Y-175.901 Z-15.692 I0.052 J2.099
X-70.107 Y-180.099 Z-16.048 I-0.052 J-2.099
X-70.003 Y-175.901 Z-16.405 I0.052 J2.099
X-70.107 Y-180.099 Z-16.761 I-0.052 J-2.099
X-70.003 Y-175.901 Z-17.118 I0.052 J2.099
X-70.107 Y-180.099 Z-17.475 I-0.052 J-2.099
X-70.003 Y-175.901 Z-17.831 I0.052 J2.099
X-70.107 Y-180.099 Z-18.188 I-0.052 J-2.099
X-70.003 Y-175.901 Z-18.545 I0.052 J2.099
X-70.107 Y-180.099 Z-18.901 I-0.052 J-2.099
X-70.003 Y-175.901 Z-19.258 I0.052 J2.099
X-70.107 Y-180.099 Z-19.614 I-0.052 J-2.099
X-70.003 Y-175.901 Z-19.971 I0.052 J2.099
X-70.107 Y-180.099 Z-20.328 I-0.052 J-2.099
X-70.003 Y-175.901 Z-20.684 I0.052 J2.099
X-70.107 Y-180.099 Z-21.041 I-0.052 J-2.099
X-70.003 Y-175.901 Z-21.398 I0.052 J2.099
X-70.107 Y-180.099 Z-21.754 I-0.052 J-2.099
X-70.003 Y-175.901 Z-22.111 I0.052 J2.099
X-70.107 Y-180.099 Z-22.467 I-0.052 J-2.099
X-70.003 Y-175.901 Z-22.824 I0.052 J2.099
X-70.107 Y-180.099 Z-23.181 I-0.052 J-2.099
X-70.003 Y-175.901 Z-23.537 I0.052 J2.099
X-70.107 Y-180.099 Z-23.894 I-0.052 J-2.099
X-70.003 Y-175.901 Z-24.251 I0.052 J2.099
X-70.107 Y-180.099 Z-24.607 I-0.052 J-2.099
X-70.003 Y-175.901 Z-24.964 I0.052 J2.099
X-70.107 Y-180.099 Z-25.32 I-0.052 J-2.099
X-70.003 Y-175.901 Z-25.677 I0.052 J2.099
X-70.107 Y-180.099 Z-26.034 I-0.052 J-2.099
X-70.003 Y-175.901 Z-26.39 I0.052 J2.099
X-70.107 Y-180.099 Z-26.747 I-0.052 J-2.099
X-70.003 Y-175.901 Z-27.104 I0.052 J2.099
X-70.107 Y-180.099 Z-27.46 I-0.052 J-2.099
X-70.003 Y-175.901 Z-27.817 I0.052 J2.099
X-70.107 Y-180.099 Z-28.174 I-0.052 J-2.099
X-70.003 Y-175.901 Z-28.53 I0.052 J2.099
X-70.107 Y-180.099 Z-28.887 I-0.052 J-2.099
X-70.003 Y-175.901 Z-29.243 I0.052 J2.099
X-70.107 Y-180.099 Z-29.6 I-0.052 J-2.099
X-70.003 Y-175.901 Z-29.957 I0.052 J2.099
X-70.107 Y-180.099 Z-30.313 I-0.052 J-2.099
X-68.64 Y-179.552 Z-30.4 I0.052 J2.099
X-71.47 Y-176.448 I-1.415 J1.552
X-68.64 Y-179.552 I1.415 J-1.552
X-68.601 Y-178.704 I-0.404 J0.443
G1 X-68.803 Y-178.482
X-68.866 Y-178.413 Z-30.393
X-68.928 Y-178.345 Z-30.371
X-68.987 Y-178.281 Z-30.335
X-69.041 Y-178.222 Z-30.285
X-69.089 Y-178.169 Z-30.224
X-69.13 Y-178.124 Z-30.153
X-69.163 Y-178.087 Z-30.072
X-69.188 Y-178.061 Z-29.985
X-69.203 Y-178.045 Z-29.894
X-69.207 Y-178.039 Z-29.8
Z5
X-106.655 Y-177.4
Z2
Z0.6
G18 G3 X-107.255 Z0 I-0.6 K0
G1 X-107.555
G17 G3 X-108.155 Y-178 I0 J-0.6
X-103.955 Y-178 Z-0.357 I2.1 J0
X-108.155 Y-178 Z-0.713 I-2.1 J0
X-103.955 Y-178 Z-1.07 I2.1 J0
X-108.155 Y-178 Z-1.427 I-2.1 J0
X-103.955 Y-178 Z-1.783 I2.1 J0
X-108.155 Y-178 Z-2.14 I-2.1 J0
X-103.955 Y-178 Z-2.496 I2.1 J0
X-108.155 Y-178 Z-2.853 I-2.1 J0
X-103.955 Y-178 Z-3.21 I2.1 J0
X-108.155 Y-178 Z-3.566 I-2.1 J0
X-103.955 Y-178 Z-3.923 I2.1 J0
X-108.155 Y-178 Z-4.28 I-2.1 J0
X-103.955 Y-178 Z-4.636 I2.1 J0
X-108.155 Y-178 Z-4.993 I-2.1 J0
X-103.955 Y-178 Z-5.349 I2.1 J0
X-108.155 Y-178 Z-5.706 I-2.1 J0
X-103.955 Y-178 Z-6.063 I2.1 J0
X-108.155 Y-178 Z-6.419 I-2.1 J0
X-103.955 Y-178 Z-6.776 I2.1 J0
X-108.155 Y-178 Z-7.133 I-2.1 J0
X-103.955 Y-178 Z-7.489 I2.1 J0
X-108.155 Y-178 Z-7.846 I-2.1 J0
X-103.955 Y-178 Z-8.202 I2.1 J0
X-108.155 Y-178 Z-8.559 I-2.1 J0
X-103.955 Y-178 Z-8.916 I2.1 J0
X-108.155 Y-178 Z-9.272 I-2.1 J0
X-103.955 Y-178 Z-9.629 I2.1 J0
X-108.155 Y-178 Z-9.986 I-2.1 J0
X-103.955 Y-178 Z-10.342 I2.1 J0
X-108.155 Y-178 Z-10.699 I-2.1 J0
X-103.955 Y-178 Z-11.055 I2.1 J0
X-108.155 Y-178 Z-11.412 I-2.1 J0
X-103.955 Y-178 Z-11.769 I2.1 J0
X-108.155 Y-178 Z-12.125 I-2.1 J0
X-103.955 Y-178 Z-12.482 I2.1 J0
X-108.155 Y-178 Z-12.839 I-2.1 J0
X-103.955 Y-178 Z-13.195 I2.1 J0
X-108.155 Y-178 Z-13.552 I-2.1 J0
X-103.955 Y-178 Z-13.908 I2.1 J0
X-108.155 Y-178 Z-14.265 I-2.1 J0
X-103.955 Y-178 Z-14.622 I2.1 J0
X-108.155 Y-178 Z-14.978 I-2.1 J0
X-103.955 Y-178 Z-15.335 I2.1 J0
X-108.155 Y-178 Z-15.692 I-2.1 J0
X-103.955 Y-178 Z-16.048 I2.1 J0
X-108.155 Y-178 Z-16.405 I-2.1 J0
X-103.955 Y-178 Z-16.761 I2.1 J0
X-108.155 Y-178 Z-17.118 I-2.1 J0
X-103.955 Y-178 Z-17.475 I2.1 J0
X-108.155 Y-178 Z-17.831 I-2.1 J0
X-103.955 Y-178 Z-18.188 I2.1 J0
X-108.155 Y-178 Z-18.545 I-2.1 J0
X-103.955 Y-178 Z-18.901 I2.1 J0
X-108.155 Y-178 Z-19.258 I-2.1 J0
X-103.955 Y-178 Z-19.614 I2.1 J0
X-108.155 Y-178 Z-19.971 I-2.1 J0
X-103.955 Y-178 Z-20.328 I2.1 J0
X-108.155 Y-178 Z-20.684 I-2.1 J0
X-103.955 Y-178 Z-21.041 I2.1 J0
X-108.155 Y-178 Z-21.398 I-2.1 J0
X-103.955 Y-178 Z-21.754 I2.1 J0
X-108.155 Y-178 Z-22.111 I-2.1 J0
X-103.955 Y-178 Z-22.467 I2.1 J0
X-108.155 Y-178 Z-22.824 I-2.1 J0
X-103.955 Y-178 Z-23.181 I2.1 J0
X-108.155 Y-178 Z-23.537 I-2.1 J0
X-103.955 Y-178 Z-23.894 I2.1 J0
X-108.155 Y-178 Z-24.251 I-2.1 J0
X-103.955 Y-178 Z-24.607 I2.1 J0
X-108.155 Y-178 Z-24.964 I-2.1 J0
X-103.955 Y-178 Z-25.32 I2.1 J0
X-108.155 Y-178 Z-25.677 I-2.1 J0
X-103.955 Y-178 Z-26.034 I2.1 J0
X-108.155 Y-178 Z-26.39 I-2.1 J0
X-103.955 Y-178 Z-26.747 I2.1 J0
X-108.155 Y-178 Z-27.104 I-2.1 J0
X-103.955 Y-178 Z-27.46 I2.1 J0
X-108.155 Y-178 Z-27.817 I-2.1 J0
X-103.955 Y-178 Z-28.174 I2.1 J0
X-108.155 Y-178 Z-28.53 I-2.1 J0
X-103.955 Y-178 Z-28.887 I2.1 J0
X-108.155 Y-178 Z-29.243 I-2.1 J0
X-103.955 Y-178 Z-29.6 I2.1 J0
X-108.155 Y-178 Z-29.957 I-2.1 J0
X-103.955 Y-178 Z-30.313 I2.1 J0
X-104.539 Y-176.547 Z-30.4 I-2.1 J0
X-107.571 Y-179.453 I-1.516 J-1.453
X-104.539 Y-176.547 I1.516 J1.453
X-105.387 Y-176.529 I-0.433 J-0.415
G1 X-105.604 Y-176.737
X-105.671 Y-176.802 Z-30.393
X-105.738 Y-176.865 Z-30.371
X-105.8 Y-176.925 Z-30.335
X-105.858 Y-176.981 Z-30.285
X-105.91 Y-177.03 Z-30.224
X-105.954 Y-177.072 Z-30.153
X-105.99 Y-177.106 Z-30.072
X-106.016 Y-177.131 Z-29.985
X-106.032 Y-177.147 Z-29.894
X-106.037 Y-177.152 Z-29.8
Z5
X-136.67 Y-178.585
Z2
Z0.6
Y-178.592 Z0.506
Y-178.614 Z0.415
X-136.671 Y-178.65 Z0.328
X-136.673 Y-178.7 Z0.247
X-136.674 Y-178.761 Z0.176
X-136.676 Y-178.832 Z0.115
X-136.678 Y-178.913 Z0.065
X-136.68 Y-179 Z0.029
X-136.682 Y-179.091 Z0.007
X-136.684 Y-179.185 Z0
X-136.692 Y-179.485
G3 X-136.107 Y-180.099 I0.6 J-0.015
X-136.003 Y-175.901 Z-0.357 I0.052 J2.099
X-136.107 Y-180.099 Z-0.713 I-0.052 J-2.099
X-136.003 Y-175.901 Z-1.07 I0.052 J2.099
X-136.107 Y-180.099 Z-1.427 I-0.052 J-2.099
X-136.003 Y-175.901 Z-1.783 I0.052 J2.099
X-136.107 Y-180.099 Z-2.14 I-0.052 J-2.099
X-136.003 Y-175.901 Z-2.496 I0.052 J2.099
X-136.107 Y-180.099 Z-2.853 I-0.052 J-2.099
X-136.003 Y-175.901 Z-3.21 I0.052 J2.099
X-136.107 Y-180.099 Z-3.566 I-0.052 J-2.099
X-136.003 Y-175.901 Z-3.923 I0.052 J2.099
X-136.107 Y-180.099 Z-4.28 I-0.052 J-2.099
X-136.003 Y-175.901 Z-4.636 I0.052 J2.099
X-136.107 Y-180.099 Z-4.993 I-0.052 J-2.099
X-136.003 Y-175.901 Z-5.349 I0.052 J2.099
X-136.107 Y-180.099 Z-5.706 I-0.052 J-2.099
X-136.003 Y-175.901 Z-6.063 I0.052 J2.099
X-136.107 Y-180.099 Z-6.419 I-0.052 J-2.099
X-136.003 Y-175.901 Z-6.776 I0.052 J2.099
X-136.107 Y-180.099 Z-7.133 I-0.052 J-2.099
X-136.003 Y-175.901 Z-7.489 I0.052 J2.099
X-136.107 Y-180.099 Z-7.846 I-0.052 J-2.099
X-136.003 Y-175.901 Z-8.202 I0.052 J2.099
X-136.107 Y-180.099 Z-8.559 I-0.052 J-2.099
X-136.003 Y-175.901 Z-8.916 I0.052 J2.099
X-136.107 Y-180.099 Z-9.272 I-0.052 J-2.099
X-136.003 Y-175.901 Z-9.629 I0.052 J2.099
X-136.107 Y-180.099 Z-9.986 I-0.052 J-2.099
X-136.003 Y-175.901 Z-10.342 I0.052 J2.099
X-136.107 Y-180.099 Z-10.699 I-0.052 J-2.099
X-136.003 Y-175.901 Z-11.055 I0.052 J2.099
X-136.107 Y-180.099 Z-11.412 I-0.052 J-2.099
X-136.003 Y-175.901 Z-11.769 I0.052 J2.099
X-136.107 Y-180.099 Z-12.125 I-0.052 J-2.099
X-136.003 Y-175.901 Z-12.482 I0.052 J2.099
X-136.107 Y-180.099 Z-12.839 I-0.052 J-2.099
X-136.003 Y-175.901 Z-13.195 I0.052 J2.099
X-136.107 Y-180.099 Z-13.552 I-0.052 J-2.099
X-136.003 Y-175.901 Z-13.908 I0.052 J2.099
X-136.107 Y-180.099 Z-14.265 I-0.052 J-2.099
X-136.003 Y-175.901 Z-14.622 I0.052 J2.099
X-136.107 Y-180.099 Z-14.978 I-0.052 J-2.099
X-136.003 Y-175.901 Z-15.335 I0.052 J2.099
X-136.107 Y-180.099 Z-15.692 I-0.052 J-2.099
X-136.003 Y-175.901 Z-16.048 I0.052 J2.099
X-136.107 Y-180.099 Z-16.405 I-0.052 J-2.099
X-136.003 Y-175.901 Z-16.761 I0.052 J2.099
X-136.107 Y-180.099 Z-17.118 I-0.052 J-2.099
X-136.003 Y-175.901 Z-17.475 I0.052 J2.099
X-136.107 Y-180.099 Z-17.831 I-0.052 J-2.099
X-136.003 Y-175.901 Z-18.188 I0.052 J2.099
X-136.107 Y-180.099 Z-18.545 I-0.052 J-2.099
X-136.003 Y-175.901 Z-18.901 I0.052 J2.099
X-136.107 Y-180.099 Z-19.258 I-0.052 J-2.099
X-136.003 Y-175.901 Z-19.614 I0.052 J2.099
X-136.107 Y-180.099 Z-19.971 I-0.052 J-2.099
X-136.003 Y-175.901 Z-20.328 I0.052 J2.099
X-136.107 Y-180.099 Z-20.684 I-0.052 J-2.099
X-136.003 Y-175.901 Z-21.041 I0.052 J2.099
X-136.107 Y-180.099 Z-21.398 I-0.052 J-2.099
X-136.003 Y-175.901 Z-21.754 I0.052 J2.099
X-136.107 Y-180.099 Z-22.111 I-0.052 J-2.099
X-136.003 Y-175.901 Z-22.467 I0.052 J2.099
X-136.107 Y-180.099 Z-22.824 I-0.052 J-2.099
X-136.003 Y-175.901 Z-23.181 I0.052 J2.099
X-136.107 Y-180.099 Z-23.537 I-0.052 J-2.099
X-136.003 Y-175.901 Z-23.894 I0.052 J2.099
X-136.107 Y-180.099 Z-24.251 I-0.052 J-2.099
X-136.003 Y-175.901 Z-24.607 I0.052 J2.099
X-136.107 Y-180.099 Z-24.964 I-0.052 J-2.099
X-136.003 Y-175.901 Z-25.32 I0.052 J2.099
X-136.107 Y-180.099 Z-25.677 I-0.052 J-2.099
X-136.003 Y-175.901 Z-26.034 I0.052 J2.099
X-136.107 Y-180.099 Z-26.39 I-0.052 J-2.099
X-136.003 Y-175.901 Z-26.747 I0.052 J2.099
X-136.107 Y-180.099 Z-27.104 I-0.052 J-2.099
X-136.003 Y-175.901 Z-27.46 I0.052 J2.099
X-136.107 Y-180.099 Z-27.817 I-0.052 J-2.099
X-136.003 Y-175.901 Z-28.174 I0.052 J2.099
X-136.107 Y-180.099 Z-28.53 I-0.052 J-2.099
X-136.003 Y-175.901 Z-28.887 I0.052 J2.099
X-136.107 Y-180.099 Z-29.243 I-0.052 J-2.099
X-136.003 Y-175.901 Z-29.6 I0.052 J2.099
X-136.107 Y-180.099 Z-29.957 I-0.052 J-2.099
X-136.003 Y-175.901 Z-30.313 I0.052 J2.099
X-137.47 Y-176.448 Z-30.4 I-0.052 J-2.099
X-134.64 Y-179.552 I1.415 J-1.552
X-137.47 Y-176.448 I-1.415 J1.552
X-137.509 Y-177.296 I0.404 J-0.443
G1 X-137.307 Y-177.518
X-137.244 Y-177.587 Z-30.393
X-137.182 Y-177.655 Z-30.371
X-137.124 Y-177.719 Z-30.335
X-137.069 Y-177.778 Z-30.285
X-137.021 Y-177.831 Z-30.224
X-136.98 Y-177.876 Z-30.153
X-136.947 Y-177.913 Z-30.072
X-136.923 Y-177.939 Z-29.985
X-136.908 Y-177.955 Z-29.894
X-136.903 Y-177.961 Z-29.8
Z5
X-172.655 Y-177.4
Z2
Z0.6
G18 G3 X-173.255 Z0 I-0.6 K0
G1 X-173.555
G17 G3 X-174.155 Y-178 I0 J-0.6
X-169.955 Y-178 Z-0.357 I2.1 J0
X-174.155 Y-178 Z-0.713 I-2.1 J0
X-169.955 Y-178 Z-1.07 I2.1 J0
X-174.155 Y-178 Z-1.427 I-2.1 J0
X-169.955 Y-178 Z-1.783 I2.1 J0
X-174.155 Y-178 Z-2.14 I-2.1 J0
X-169.955 Y-178 Z-2.496 I2.1 J0
X-174.155 Y-178 Z-2.853 I-2.1 J0
X-169.955 Y-178 Z-3.21 I2.1 J0
X-174.155 Y-178 Z-3.566 I-2.1 J0
X-169.955 Y-178 Z-3.923 I2.1 J0
X-174.155 Y-178 Z-4.28 I-2.1 J0
X-169.955 Y-178 Z-4.636 I2.1 J0
X-174.155 Y-178 Z-4.993 I-2.1 J0
X-169.955 Y-178 Z-5.349 I2.1 J0
X-174.155 Y-178 Z-5.706 I-2.1 J0
X-169.955 Y-178 Z-6.063 I2.1 J0
X-174.155 Y-178 Z-6.419 I-2.1 J0
X-169.955 Y-178 Z-6.776 I2.1 J0
X-174.155 Y-178 Z-7.133 I-2.1 J0
X-169.955 Y-178 Z-7.489 I2.1 J0
X-174.155 Y-178 Z-7.846 I-2.1 J0
X-169.955 Y-178 Z-8.202 I2.1 J0
X-174.155 Y-178 Z-8.559 I-2.1 J0
X-169.955 Y-178 Z-8.916 I2.1 J0
X-174.155 Y-178 Z-9.272 I-2.1 J0
X-169.955 Y-178 Z-9.629 I2.1 J0
X-174.155 Y-178 Z-9.986 I-2.1 J0
X-169.955 Y-178 Z-10.342 I2.1 J0
X-174.155 Y-178 Z-10.699 I-2.1 J0
X-169.955 Y-178 Z-11.055 I2.1 J0
X-174.155 Y-178 Z-11.412 I-2.1 J0
X-169.955 Y-178 Z-11.769 I2.1 J0
X-174.155 Y-178 Z-12.125 I-2.1 J0
X-169.955 Y-178 Z-12.482 I2.1 J0
X-174.155 Y-178 Z-12.839 I-2.1 J0
X-169.955 Y-178 Z-13.195 I2.1 J0
X-174.155 Y-178 Z-13.552 I-2.1 J0
X-169.955 Y-178 Z-13.908 I2.1 J0
X-174.155 Y-178 Z-14.265 I-2.1 J0
X-169.955 Y-178 Z-14.622 I2.1 J0
X-174.155 Y-178 Z-14.978 I-2.1 J0
X-169.955 Y-178 Z-15.335 I2.1 J0
X-174.155 Y-178 Z-15.692 I-2.1 J0
X-169.955 Y-178 Z-16.048 I2.1 J0
X-174.155 Y-178 Z-16.405 I-2.1 J0
X-169.955 Y-178 Z-16.761 I2.1 J0
X-174.155 Y-178 Z-17.118 I-2.1 J0
X-169.955 Y-178 Z-17.475 I2.1 J0
X-174.155 Y-178 Z-17.831 I-2.1 J0
X-169.955 Y-178 Z-18.188 I2.1 J0
X-174.155 Y-178 Z-18.545 I-2.1 J0
X-169.955 Y-178 Z-18.901 I2.1 J0
X-174.155 Y-178 Z-19.258 I-2.1 J0
X-169.955 Y-178 Z-19.614 I2.1 J0
X-174.155 Y-178 Z-19.971 I-2.1 J0
X-169.955 Y-178 Z-20.328 I2.1 J0
X-174.155 Y-178 Z-20.684 I-2.1 J0
X-169.955 Y-178 Z-21.041 I2.1 J0
X-174.155 Y-178 Z-21.398 I-2.1 J0
X-169.955 Y-178 Z-21.754 I2.1 J0
X-174.155 Y-178 Z-22.111 I-2.1 J0
X-169.955 Y-178 Z-22.467 I2.1 J0
X-174.155 Y-178 Z-22.824 I-2.1 J0
X-169.955 Y-178 Z-23.181 I2.1 J0
X-174.155 Y-178 Z-23.537 I-2.1 J0
X-169.955 Y-178 Z-23.894 I2.1 J0
X-174.155 Y-178 Z-24.251 I-2.1 J0
X-169.955 Y-178 Z-24.607 I2.1 J0
X-174.155 Y-178 Z-24.964 I-2.1 J0
X-169.955 Y-178 Z-25.32 I2.1 J0
X-174.155 Y-178 Z-25.677 I-2.1 J0
X-169.955 Y-178 Z-26.034 I2.1 J0
X-174.155 Y-178 Z-26.39 I-2.1 J0
X-169.955 Y-178 Z-26.747 I2.1 J0
X-174.155 Y-178 Z-27.104 I-2.1 J0
X-169.955 Y-178 Z-27.46 I2.1 J0
X-174.155 Y-178 Z-27.817 I-2.1 J0
X-169.955 Y-178 Z-28.174 I2.1 J0
X-174.155 Y-178 Z-28.53 I-2.1 J0
X-169.955 Y-178 Z-28.887 I2.1 J0
X-174.155 Y-178 Z-29.243 I-2.1 J0
X-169.955 Y-178 Z-29.6 I2.1 J0
X-174.155 Y-178 Z-29.957 I-2.1 J0
X-169.955 Y-178 Z-30.313 I2.1 J0
X-170.539 Y-176.547 Z-30.4 I-2.1 J0
X-173.572 Y-179.453 I-1.516 J-1.453
X-170.539 Y-176.547 I1.516 J1.453
X-171.387 Y-176.529 I-0.433 J-0.415
G1 X-171.604 Y-176.737
X-171.672 Y-176.802 Z-30.393
X-171.738 Y-176.865 Z-30.371
X-171.8 Y-176.925 Z-30.335
X-171.858 Y-176.981 Z-30.285
X-171.91 Y-177.03 Z-30.224
X-171.954 Y-177.072 Z-30.153
X-171.99 Y-177.106 Z-30.072
X-172.016 Y-177.131 Z-29.985
X-172.032 Y-177.147 Z-29.894
X-172.037 Y-177.152 Z-29.8
Z15
(When using Fusion 360 for Personal Use, the feedrate of)
(rapid moves is reduced to match the feedrate of cutting)
(moves, which can increase machining time. Unrestricted rapid)
(moves are available with a Fusion 360 Subscription.)

(2D-Kontur6)
G0 X-70.974 Y-164.302
G1 Z15 F1000
Z5
Z2.5 F333.3
X-70.936 Y-164.355 Z2.498
X-70.785 Y-164.534 Z2.49
X-70.644 Y-164.676 Z2.483
X-70.512 Y-164.788 Z2.477
X-70.398 Y-164.869 Z2.472
X-70.305 Y-164.923 Z2.468
X-70.225 Y-164.959 Z2.465
X-70.162 Y-164.98 Z2.462
X-70.114 Y-164.991 Z2.461
X-70.067 Y-164.996 Z2.459
X-70.017 Y-164.993 Z2.457
X-69.973 Y-164.986 Z2.456
X-69.922 Y-164.972 Z2.454
X-69.852 Y-164.945 Z2.451
X-69.765 Y-164.901 Z2.448
X-69.662 Y-164.835 Z2.444
X-69.542 Y-164.743 Z2.438
X-69.408 Y-164.621 Z2.432
X-69.263 Y-164.463 Z2.425
X-69.111 Y-164.272 Z2.416
X-68.955 Y-164.042 Z2.406
X-68.801 Y-163.776 Z2.396
X-68.651 Y-163.472 Z2.384
X-68.511 Y-163.131 Z2.371
X-68.382 Y-162.755 Z2.357
X-68.271 Y-162.347 Z2.342
X-68.18 Y-161.911 Z2.327
X-68.112 Y-161.452 Z2.311
X-68.07 Y-160.977 Z2.294
X-68.056 Y-160.492 Z2.277
X-68.071 Y-160.006 Z2.26
X-68.114 Y-159.527 Z2.243
X-68.184 Y-159.065 Z2.227
X-68.278 Y-158.624 Z2.211
X-68.393 Y-158.213 Z2.196
X-68.525 Y-157.832 Z2.182
X-68.669 Y-157.489 Z2.169
X-68.822 Y-157.185 Z2.157
X-68.979 Y-156.921 Z2.146
X-69.136 Y-156.694 Z2.137
X-69.291 Y-156.504 Z2.128
X-69.435 Y-156.353 Z2.121
X-69.566 Y-156.236 Z2.115
X-69.685 Y-156.149 Z2.11
X-69.785 Y-156.088 Z2.106
X-69.869 Y-156.048 Z2.102
X-69.936 Y-156.024 Z2.1
X-69.987 Y-156.011 Z2.098
X-70.027 Y-156.005 Z2.097
X-70.062 Y-156.004 Z2.095
X-70.101 Y-156.007 Z2.094
X-70.147 Y-156.016 Z2.092
X-70.205 Y-156.034 Z2.09
X-70.279 Y-156.064 Z2.088
X-70.366 Y-156.111 Z2.084
X-70.474 Y-156.183 Z2.08
X-70.6 Y-156.284 Z2.074
X-70.736 Y-156.414 Z2.067
X-70.883 Y-156.579 Z2.06
X-71.036 Y-156.779 Z2.051
X-71.191 Y-157.016 Z2.041
X-71.345 Y-157.293 Z2.03
X-71.494 Y-157.607 Z2.018
X-71.632 Y-157.955 Z2.005
X-71.756 Y-158.338 Z1.991
X-71.863 Y-158.754 Z1.976
X-71.949 Y-159.195 Z1.96
X-72.011 Y-159.659 Z1.944
X-72.046 Y-160.138 Z1.927
X-72.053 Y-160.624 Z1.91
X-72.031 Y-161.108 Z1.893
X-71.982 Y-161.583 Z1.876
X-71.906 Y-162.042 Z1.86
X-71.807 Y-162.477 Z1.844
X-71.688 Y-162.881 Z1.83
X-71.553 Y-163.252 Z1.816
X-71.406 Y-163.584 Z1.803
X-71.251 Y-163.881 Z1.792
X-71.093 Y-164.137 Z1.781
X-70.936 Y-164.355 Z1.772
X-70.785 Y-164.534 Z1.763
X-70.644 Y-164.676 Z1.756
X-70.512 Y-164.788 Z1.75
X-70.398 Y-164.869 Z1.746
X-70.305 Y-164.923 Z1.742
X-70.225 Y-164.959 Z1.739
X-70.162 Y-164.98 Z1.736
X-70.114 Y-164.991 Z1.735
X-70.067 Y-164.996 Z1.733
X-70.017 Y-164.993 Z1.731
X-69.973 Y-164.986 Z1.73
X-69.922 Y-164.972 Z1.728
X-69.852 Y-164.945 Z1.725
X-69.765 Y-164.901 Z1.722
X-69.662 Y-164.835 Z1.718
X-69.542 Y-164.743 Z1.712
X-69.408 Y-164.621 Z1.706
X-69.263 Y-164.463 Z1.698
X-69.111 Y-164.272 Z1.69
X-68.955 Y-164.042 Z1.68
X-68.801 Y-163.776 Z1.67
X-68.651 Y-163.472 Z1.658
X-68.511 Y-163.131 Z1.645
X-68.382 Y-162.755 Z1.631
X-68.271 Y-162.347 Z1.616
X-68.18 Y-161.911 Z1.601
X-68.112 Y-161.452 Z1.584
X-68.07 Y-160.977 Z1.568
X-68.056 Y-160.492 Z1.551
X-68.071 Y-160.006 Z1.534
X-68.114 Y-159.527 Z1.517
X-68.184 Y-159.065 Z1.501
X-68.278 Y-158.624 Z1.485
X-68.393 Y-158.213 Z1.47
X-68.525 Y-157.832 Z1.456
X-68.669 Y-157.489 Z1.443
X-68.822 Y-157.185 Z1.431
X-68.979 Y-156.921 Z1.42
X-69.136 Y-156.694 Z1.411
X-69.291 Y-156.504 Z1.402
X-69.435 Y-156.353 Z1.395
X-69.566 Y-156.236 Z1.389
X-69.685 Y-156.149 Z1.384
X-69.785 Y-156.088 Z1.38
X-69.869 Y-156.048 Z1.376
X-69.936 Y-156.024 Z1.374
X-69.987 Y-156.011 Z1.372
X-70.027 Y-156.005 Z1.371
X-70.062 Y-156.004 Z1.369
X-70.101 Y-156.007 Z1.368
X-70.147 Y-156.016 Z1.366
X-70.205 Y-156.034 Z1.364
X-70.279 Y-156.064 Z1.361
X-70.366 Y-156.111 Z1.358
X-70.474 Y-156.183 Z1.353
X-70.6 Y-156.284 Z1.348
X-70.736 Y-156.414 Z1.341
X-70.883 Y-156.579 Z1.333
X-71.036 Y-156.779 Z1.325
X-71.191 Y-157.016 Z1.315
X-71.345 Y-157.293 Z1.304
X-71.494 Y-157.607 Z1.292
X-71.632 Y-157.955 Z1.279
X-71.756 Y-158.338 Z1.264
X-71.863 Y-158.754 Z1.249
X-71.949 Y-159.195 Z1.234
X-72.011 Y-159.659 Z1.217
X-72.046 Y-160.138 Z1.201
X-72.053 Y-160.624 Z1.184
X-72.031 Y-161.108 Z1.167
X-71.982 Y-161.583 Z1.15
X-71.906 Y-162.042 Z1.134
X-71.807 Y-162.477 Z1.118
X-71.688 Y-162.881 Z1.104
X-71.553 Y-163.252 Z1.09
X-71.406 Y-163.584 Z1.077
X-71.251 Y-163.881 Z1.065
X-71.093 Y-164.137 Z1.055
X-70.936 Y-164.355 Z1.046
X-70.785 Y-164.534 Z1.037
X-70.644 Y-164.676 Z1.03
X-70.512 Y-164.788 Z1.024
X-70.398 Y-164.869 Z1.019
X-70.305 Y-164.923 Z1.016
X-70.225 Y-164.959 Z1.013
X-70.162 Y-164.98 Z1.01
X-70.114 Y-164.991 Z1.009
X-70.067 Y-164.996 Z1.007
X-70.017 Y-164.993 Z1.005
X-69.973 Y-164.986 Z1.004
X-69.922 Y-164.972 Z1.002
X-69.852 Y-164.945 Z0.999
X-69.765 Y-164.901 Z0.996
X-69.662 Y-164.835 Z0.991
X-69.542 Y-164.743 Z0.986
X-69.408 Y-164.621 Z0.98
X-69.263 Y-164.463 Z0.972
X-69.111 Y-164.272 Z0.964
X-68.955 Y-164.042 Z0.954
X-68.801 Y-163.776 Z0.943
X-68.651 Y-163.472 Z0.932
X-68.511 Y-163.131 Z0.919
X-68.382 Y-162.755 Z0.905
X-68.271 Y-162.347 Z0.89
X-68.18 Y-161.911 Z0.874
X-68.112 Y-161.452 Z0.858
X-68.07 Y-160.977 Z0.842
X-68.056 Y-160.492 Z0.825
X-68.071 Y-160.006 Z0.808
X-68.114 Y-159.527 Z0.791
X-68.184 Y-159.065 Z0.775
X-68.278 Y-158.624 Z0.759
X-68.393 Y-158.213 Z0.744
X-68.525 Y-157.832 Z0.73
X-68.669 Y-157.489 Z0.717
X-68.822 Y-157.185 Z0.705
X-68.979 Y-156.921 Z0.694
X-69.136 Y-156.694 Z0.685
X-69.291 Y-156.504 Z0.676
X-69.435 Y-156.353 Z0.669
X-69.566 Y-156.236 Z0.663
X-69.685 Y-156.149 Z0.658
X-69.785 Y-156.088 Z0.653
X-69.869 Y-156.048 Z0.65
X-69.936 Y-156.024 Z0.648
X-69.987 Y-156.011 Z0.646
X-70.027 Y-156.005 Z0.644
X-70.062 Y-156.004 Z0.643
X-70.101 Y-156.007 Z0.642
X-70.147 Y-156.016 Z0.64
X-70.205 Y-156.034 Z0.638
X-70.279 Y-156.064 Z0.635
X-70.366 Y-156.111 Z0.632
X-70.474 Y-156.183 Z0.627
X-70.6 Y-156.284 Z0.622
X-70.736 Y-156.414 Z0.615
X-70.883 Y-156.579 Z0.607
X-71.036 Y-156.779 Z0.599
X-71.191 Y-157.016 Z0.589
X-71.345 Y-157.293 Z0.578
X-71.494 Y-157.607 Z0.566
X-71.632 Y-157.955 Z0.552
X-71.756 Y-158.338 Z0.538
X-71.863 Y-158.754 Z0.523
X-71.949 Y-159.195 Z0.508
X-72.011 Y-159.659 Z0.491
X-72.046 Y-160.138 Z0.475
X-72.053 Y-160.624 Z0.458
X-72.031 Y-161.108 Z0.441
X-71.982 Y-161.583 Z0.424
X-71.906 Y-162.042 Z0.408
X-71.807 Y-162.477 Z0.392
X-71.688 Y-162.881 Z0.377
X-71.553 Y-163.252 Z0.364
X-71.406 Y-163.584 Z0.351
X-71.251 Y-163.881 Z0.339
X-71.093 Y-164.137 Z0.329
X-70.936 Y-164.355 Z0.319
X-70.785 Y-164.534 Z0.311
X-70.644 Y-164.676 Z0.304
X-70.512 Y-164.788 Z0.298
X-70.398 Y-164.869 Z0.293
X-70.305 Y-164.923 Z0.29
X-70.225 Y-164.959 Z0.286
X-70.162 Y-164.98 Z0.284
X-70.114 Y-164.991 Z0.282
X-70.067 Y-164.996 Z0.281
X-70.017 Y-164.993 Z0.279
X-69.973 Y-164.986 Z0.277
X-69.922 Y-164.972 Z0.276
X-69.852 Y-164.945 Z0.273
X-69.765 Y-164.901 Z0.27
X-69.662 Y-164.835 Z0.265
X-69.542 Y-164.743 Z0.26
X-69.408 Y-164.621 Z0.254
X-69.263 Y-164.463 Z0.246
X-69.111 Y-164.272 Z0.238
X-68.955 Y-164.042 Z0.228
X-68.801 Y-163.776 Z0.217
X-68.651 Y-163.472 Z0.205
X-68.511 Y-163.131 Z0.193
X-68.382 Y-162.755 Z0.179
X-68.271 Y-162.347 Z0.164
X-68.18 Y-161.911 Z0.148
X-68.112 Y-161.452 Z0.132
X-68.07 Y-160.977 Z0.116
X-68.056 Y-160.492 Z0.099
X-68.071 Y-160.006 Z0.082
X-68.114 Y-159.527 Z0.065
X-68.184 Y-159.065 Z0.048
X-68.278 Y-158.624 Z0.033
X-68.393 Y-158.213 Z0.018
X-68.525 Y-157.832 Z0.004
X-68.669 Y-157.489 Z-0.009
X-68.822 Y-157.185 Z-0.021
X-68.979 Y-156.921 Z-0.032
X-69.136 Y-156.694 Z-0.041
X-69.291 Y-156.504 Z-0.05
X-69.435 Y-156.353 Z-0.057
X-69.566 Y-156.236 Z-0.063
X-69.685 Y-156.149 Z-0.069
X-69.785 Y-156.088 Z-0.073
X-69.869 Y-156.048 Z-0.076
X-69.936 Y-156.024 Z-0.078
X-69.987 Y-156.011 Z-0.08
X-70.027 Y-156.005 Z-0.082
X-70.062 Y-156.004 Z-0.083
X-70.101 Y-156.007 Z-0.084
X-70.147 Y-156.016 Z-0.086
X-70.205 Y-156.034 Z-0.088
X-70.279 Y-156.064 Z-0.091
X-70.366 Y-156.111 Z-0.094
X-70.474 Y-156.183 Z-0.099
X-70.6 Y-156.284 Z-0.104
X-70.736 Y-156.414 Z-0.111
X-70.883 Y-156.579 Z-0.119
X-71.036 Y-156.779 Z-0.128
X-71.191 Y-157.016 Z-0.137
X-71.345 Y-157.293 Z-0.148
X-71.494 Y-157.607 Z-0.161
X-71.632 Y-157.955 Z-0.174
X-71.756 Y-158.338 Z-0.188
X-71.863 Y-158.754 Z-0.203
X-71.949 Y-159.195 Z-0.218
X-72.011 Y-159.659 Z-0.235
X-72.046 Y-160.138 Z-0.252
X-72.053 Y-160.624 Z-0.269
X-72.031 Y-161.108 Z-0.285
X-71.982 Y-161.583 Z-0.302
X-71.906 Y-162.042 Z-0.318
X-71.807 Y-162.477 Z-0.334
X-71.688 Y-162.881 Z-0.349
X-71.553 Y-163.252 Z-0.362
X-71.406 Y-163.584 Z-0.375
X-71.251 Y-163.881 Z-0.387
X-71.093 Y-164.137 Z-0.397
X-70.936 Y-164.355 Z-0.407
X-70.785 Y-164.534 Z-0.415
X-70.644 Y-164.676 Z-0.422
X-70.512 Y-164.788 Z-0.428
X-70.398 Y-164.869 Z-0.433
X-70.305 Y-164.923 Z-0.437
X-70.225 Y-164.959 Z-0.44
X-70.162 Y-164.98 Z-0.442
X-70.114 Y-164.991 Z-0.444
X-70.067 Y-164.996 Z-0.445
X-70.017 Y-164.993 Z-0.447
X-69.973 Y-164.986 Z-0.449
X-69.922 Y-164.972 Z-0.45
X-69.852 Y-164.945 Z-0.453
X-69.765 Y-164.901 Z-0.456
X-69.662 Y-164.835 Z-0.461
X-69.542 Y-164.743 Z-0.466
X-69.408 Y-164.621 Z-0.472
X-69.263 Y-164.463 Z-0.48
X-69.111 Y-164.272 Z-0.488
X-68.955 Y-164.042 Z-0.498
X-68.801 Y-163.776 Z-0.509
X-68.651 Y-163.472 Z-0.521
X-68.511 Y-163.131 Z-0.534
X-68.382 Y-162.755 Z-0.547
X-68.271 Y-162.347 Z-0.562
X-68.18 Y-161.911 Z-0.578
X-68.112 Y-161.452 Z-0.594
X-68.07 Y-160.977 Z-0.611
X-68.056 Y-160.492 Z-0.628
X-68.071 Y-160.006 Z-0.645
X-68.114 Y-159.527 Z-0.661
X-68.184 Y-159.065 Z-0.678
X-68.278 Y-158.624 Z-0.693
X-68.393 Y-158.213 Z-0.708
X-68.525 Y-157.832 Z-0.722
X-68.669 Y-157.489 Z-0.735
X-68.822 Y-157.185 Z-0.747
X-68.979 Y-156.921 Z-0.758
X-69.136 Y-156.694 Z-0.768
X-69.291 Y-156.504 Z-0.776
X-69.435 Y-156.353 Z-0.783
X-69.566 Y-156.236 Z-0.79
X-69.685 Y-156.149 Z-0.795
X-69.785 Y-156.088 Z-0.799
X-69.869 Y-156.048 Z-0.802
X-69.936 Y-156.024 Z-0.805
X-69.987 Y-156.011 Z-0.806
X-70.027 Y-156.005 Z-0.808
X-70.062 Y-156.004 Z-0.809
X-70.101 Y-156.007 Z-0.81
X-70.147 Y-156.016 Z-0.812
X-70.205 Y-156.034 Z-0.814
X-70.279 Y-156.064 Z-0.817
X-70.366 Y-156.111 Z-0.82
X-70.474 Y-156.183 Z-0.825
X-70.6 Y-156.284 Z-0.831
X-70.736 Y-156.414 Z-0.837
X-70.883 Y-156.579 Z-0.845
X-71.036 Y-156.779 Z-0.854
X-71.191 Y-157.016 Z-0.863
X-71.345 Y-157.293 Z-0.875
X-71.494 Y-157.607 Z-0.887
X-71.632 Y-157.955 Z-0.9
X-71.756 Y-158.338 Z-0.914
X-71.863 Y-158.754 Z-0.929
X-71.949 Y-159.195 Z-0.945
X-72.011 Y-159.659 Z-0.961
X-72.046 Y-160.138 Z-0.978
X-72.053 Y-160.624 Z-0.995
X-72.031 Y-161.108 Z-1.012
X-71.982 Y-161.583 Z-1.028
X-71.906 Y-162.042 Z-1.044
X-71.807 Y-162.477 Z-1.06
X-71.688 Y-162.881 Z-1.075
X-71.553 Y-163.252 Z-1.089
X-71.406 Y-163.584 Z-1.101
X-71.251 Y-163.881 Z-1.113
X-71.093 Y-164.137 Z-1.123
X-70.936 Y-164.355 Z-1.133
X-70.785 Y-164.534 Z-1.141
X-70.644 Y-164.676 Z-1.148
X-70.512 Y-164.788 Z-1.154
X-70.398 Y-164.869 Z-1.159
X-70.305 Y-164.923 Z-1.163
X-70.225 Y-164.959 Z-1.166
X-70.162 Y-164.98 Z-1.168
X-70.114 Y-164.991 Z-1.17
X-70.067 Y-164.996 Z-1.171
X-70.017 Y-164.993 Z-1.173
X-69.973 Y-164.986 Z-1.175
X-69.922 Y-164.972 Z-1.177
X-69.852 Y-164.945 Z-1.179
X-69.765 Y-164.901 Z-1.183
X-69.662 Y-164.835 Z-1.187
X-69.542 Y-164.743 Z-1.192
X-69.408 Y-164.621 Z-1.198
X-69.263 Y-164.463 Z-1.206
X-69.111 Y-164.272 Z-1.214
X-68.955 Y-164.042 Z-1.224
X-68.801 Y-163.776 Z-1.235
X-68.651 Y-163.472 Z-1.247
X-68.511 Y-163.131 Z-1.26
X-68.382 Y-162.755 Z-1.274
X-68.271 Y-162.347 Z-1.288
X-68.18 Y-161.911 Z-1.304
X-68.112 Y-161.452 Z-1.32
X-68.07 Y-160.977 Z-1.337
X-68.056 Y-160.492 Z-1.354
X-68.071 Y-160.006 Z-1.371
X-68.114 Y-159.527 Z-1.387
X-68.184 Y-159.065 Z-1.404
X-68.278 Y-158.624 Z-1.419
X-68.393 Y-158.213 Z-1.434
X-68.525 Y-157.832 Z-1.448
X-68.669 Y-157.489 Z-1.461
X-68.822 Y-157.185 Z-1.473
X-68.979 Y-156.921 Z-1.484
X-69.136 Y-156.694 Z-1.494
X-69.291 Y-156.504 Z-1.502
X-69.435 Y-156.353 Z-1.51
X-69.566 Y-156.236 Z-1.516
X-69.685 Y-156.149 Z-1.521
X-69.785 Y-156.088 Z-1.525
X-69.869 Y-156.048 Z-1.528
X-69.936 Y-156.024 Z-1.531
X-69.987 Y-156.011 Z-1.533
X-70.027 Y-156.005 Z-1.534
X-70.062 Y-156.004 Z-1.535
X-70.101 Y-156.007 Z-1.536
X-70.147 Y-156.016 Z-1.538
X-70.205 Y-156.034 Z-1.54
X-70.279 Y-156.064 Z-1.543
X-70.366 Y-156.111 Z-1.546
X-70.474 Y-156.183 Z-1.551
X-70.6 Y-156.284 Z-1.557
X-70.736 Y-156.414 Z-1.563
X-70.883 Y-156.579 Z-1.571
X-71.036 Y-156.779 Z-1.58
X-71.191 Y-157.016 Z-1.59
X-71.345 Y-157.293 Z-1.601
X-71.494 Y-157.607 Z-1.613
X-71.632 Y-157.955 Z-1.626
X-71.756 Y-158.338 Z-1.64
X-71.863 Y-158.754 Z-1.655
X-71.949 Y-159.195 Z-1.671
X-72.011 Y-159.659 Z-1.687
X-72.046 Y-160.138 Z-1.704
X-72.053 Y-160.624 Z-1.721
X-72.031 Y-161.108 Z-1.738
X-71.982 Y-161.583 Z-1.754
X-71.906 Y-162.042 Z-1.771
X-71.807 Y-162.477 Z-1.786
X-71.688 Y-162.881 Z-1.801
X-71.553 Y-163.252 Z-1.815
X-71.406 Y-163.584 Z-1.827
X-71.251 Y-163.881 Z-1.839
X-71.093 Y-164.137 Z-1.85
X-70.936 Y-164.355 Z-1.859
X-70.785 Y-164.534 Z-1.867
X-70.644 Y-164.676 Z-1.874
X-70.512 Y-164.788 Z-1.88
X-70.398 Y-164.869 Z-1.885
X-70.305 Y-164.923 Z-1.889
X-70.225 Y-164.959 Z-1.892
X-70.162 Y-164.98 Z-1.894
X-70.114 Y-164.991 Z-1.896
X-70.067 Y-164.996 Z-1.898
X-70.017 Y-164.993 Z-1.899
X-69.973 Y-164.986 Z-1.901
X-69.922 Y-164.972 Z-1.903
X-69.852 Y-164.945 Z-1.905
X-69.765 Y-164.901 Z-1.909
X-69.662 Y-164.835 Z-1.913
X-69.542 Y-164.743 Z-1.918
X-69.408 Y-164.621 Z-1.925
X-69.263 Y-164.463 Z-1.932
X-69.111 Y-164.272 Z-1.941
X-68.955 Y-164.042 Z-1.95
X-68.801 Y-163.776 Z-1.961
X-68.651 Y-163.472 Z-1.973
X-68.511 Y-163.131 Z-1.986
X-68.382 Y-162.755 Z-2
X-68.271 Y-162.347 Z-2.014
X-68.18 Y-161.911 Z-2.03
X-68.112 Y-161.452 Z-2.046
X-68.07 Y-160.977 Z-2.063
X-68.056 Y-160.492 Z-2.08
X-68.071 Y-160.006 Z-2.097
X-68.114 Y-159.527 Z-2.114
X-68.184 Y-159.065 Z-2.13
X-68.278 Y-158.624 Z-2.146
X-68.393 Y-158.213 Z-2.16
X-68.525 Y-157.832 Z-2.175
X-68.669 Y-157.489 Z-2.188
X-68.822 Y-157.185 Z-2.199
X-68.979 Y-156.921 Z-2.21
X-69.136 Y-156.694 Z-2.22
X-69.291 Y-156.504 Z-2.228
X-69.435 Y-156.353 Z-2.236
X-69.566 Y-156.236 Z-2.242
X-69.685 Y-156.149 Z-2.247
X-69.785 Y-156.088 Z-2.251
X-69.869 Y-156.048 Z-2.254
X-69.936 Y-156.024 Z-2.257
X-69.987 Y-156.011 Z-2.259
X-70.027 Y-156.005 Z-2.26
X-70.062 Y-156.004 Z-2.261
X-70.101 Y-156.007 Z-2.263
X-70.147 Y-156.016 Z-2.264
X-70.205 Y-156.034 Z-2.266
X-70.279 Y-156.064 Z-2.269
X-70.366 Y-156.111 Z-2.273
X-70.474 Y-156.183 Z-2.277
X-70.6 Y-156.284 Z-2.283
X-70.736 Y-156.414 Z-2.289
X-70.883 Y-156.579 Z-2.297
X-71.036 Y-156.779 Z-2.306
X-71.191 Y-157.016 Z-2.316
X-71.345 Y-157.293 Z-2.327
X-71.494 Y-157.607 Z-2.339
X-71.632 Y-157.955 Z-2.352
X-71.756 Y-158.338 Z-2.366
X-71.863 Y-158.754 Z-2.381
X-71.949 Y-159.195 Z-2.397
X-72.011 Y-159.659 Z-2.413
X-72.046 Y-160.138 Z-2.43
X-72.053 Y-160.624 Z-2.447
X-72.031 Y-161.108 Z-2.464
X-71.982 Y-161.583 Z-2.48
X-71.906 Y-162.042 Z-2.497
X-71.807 Y-162.477 Z-2.512
X-71.688 Y-162.881 Z-2.527
X-71.553 Y-163.252 Z-2.541
X-71.406 Y-163.584 Z-2.553
X-71.251 Y-163.881 Z-2.565
X-71.093 Y-164.137 Z-2.576
X-70.936 Y-164.355 Z-2.585
X-70.785 Y-164.534 Z-2.593
X-70.644 Y-164.676 Z-2.6
X-70.512 Y-164.788 Z-2.606
X-70.398 Y-164.869 Z-2.611
X-70.305 Y-164.923 Z-2.615
X-70.225 Y-164.959 Z-2.618
X-70.162 Y-164.98 Z-2.62
X-70.114 Y-164.991 Z-2.622
X-70.067 Y-164.996 Z-2.624
X-70.017 Y-164.993 Z-2.625
X-69.973 Y-164.986 Z-2.627
X-69.922 Y-164.972 Z-2.629
X-69.852 Y-164.945 Z-2.631
X-69.765 Y-164.901 Z-2.635
X-69.662 Y-164.835 Z-2.639
X-69.542 Y-164.743 Z-2.644
X-69.408 Y-164.621 Z-2.651
X-69.263 Y-164.463 Z-2.658
X-69.111 Y-164.272 Z-2.667
X-68.955 Y-164.042 Z-2.676
X-68.801 Y-163.776 Z-2.687
X-68.651 Y-163.472 Z-2.699
X-68.511 Y-163.131 Z-2.712
X-68.382 Y-162.755 Z-2.726
X-68.271 Y-162.347 Z-2.74
X-68.18 Y-161.911 Z-2.756
X-68.112 Y-161.452 Z-2.772
X-68.07 Y-160.977 Z-2.789
X-68.056 Y-160.492 Z-2.806
X-68.071 Y-160.006 Z-2.823
X-68.114 Y-159.527 Z-2.84
X-68.184 Y-159.065 Z-2.856
X-68.278 Y-158.624 Z-2.872
X-68.393 Y-158.213 Z-2.887
X-68.525 Y-157.832 Z-2.901
X-68.669 Y-157.489 Z-2.914
X-68.822 Y-157.185 Z-2.926
X-68.979 Y-156.921 Z-2.936
X-69.136 Y-156.694 Z-2.946
X-69.291 Y-156.504 Z-2.954
X-69.435 Y-156.353 Z-2.962
X-69.566 Y-156.236 Z-2.968
X-69.685 Y-156.149 Z-2.973
X-69.785 Y-156.088 Z-2.977
X-69.869 Y-156.048 Z-2.98
X-69.936 Y-156.024 Z-2.983
X-69.987 Y-156.011 Z-2.985
X-70.027 Y-156.005 Z-2.986
X-70.062 Y-156.004 Z-2.987
X-70.101 Y-156.007 Z-2.989
X-70.147 Y-156.016 Z-2.99
X-70.205 Y-156.034 Z-2.992
X-70.279 Y-156.064 Z-2.995
X-70.366 Y-156.111 Z-2.999
X-70.474 Y-156.183 Z-3.003
X-70.6 Y-156.284 Z-3.009
X-70.736 Y-156.414 Z-3.015
X-70.883 Y-156.579 Z-3.023
X-71.036 Y-156.779 Z-3.032
X-71.191 Y-157.016 Z-3.042
X-71.345 Y-157.293 Z-3.053
X-71.494 Y-157.607 Z-3.065
X-71.632 Y-157.955 Z-3.078
X-71.756 Y-158.338 Z-3.092
X-71.863 Y-158.754 Z-3.107
X-71.949 Y-159.195 Z-3.123
X-72.011 Y-159.659 Z-3.139
X-72.046 Y-160.138 Z-3.156
X-72.053 Y-160.624 Z-3.173
X-72.031 Y-161.108 Z-3.19
X-71.982 Y-161.583 Z-3.207
X-71.906 Y-162.042 Z-3.223
X-71.807 Y-162.477 Z-3.238
X-71.688 Y-162.881 Z-3.253
X-71.553 Y-163.252 Z-3.267
X-71.406 Y-163.584 Z-3.28
X-71.251 Y-163.881 Z-3.291
X-71.093 Y-164.137 Z-3.302
X-70.936 Y-164.355 Z-3.311
X-70.785 Y-164.534 Z-3.319
X-70.644 Y-164.676 Z-3.326
X-70.512 Y-164.788 Z-3.332
X-70.398 Y-164.869 Z-3.337
X-70.305 Y-164.923 Z-3.341
X-70.225 Y-164.959 Z-3.344
X-70.162 Y-164.98 Z-3.346
X-70.114 Y-164.991 Z-3.348
X-70.067 Y-164.996 Z-3.35
X-70.017 Y-164.993 Z-3.351
X-69.973 Y-164.986 Z-3.353
X-69.922 Y-164.972 Z-3.355
X-69.852 Y-164.945 Z-3.358
X-69.765 Y-164.901 Z-3.361
X-69.662 Y-164.835 Z-3.365
X-69.542 Y-164.743 Z-3.37
X-69.408 Y-164.621 Z-3.377
X-69.263 Y-164.463 Z-3.384
X-69.111 Y-164.272 Z-3.393
X-68.955 Y-164.042 Z-3.402
X-68.801 Y-163.776 Z-3.413
X-68.651 Y-163.472 Z-3.425
X-68.511 Y-163.131 Z-3.438
X-68.382 Y-162.755 Z-3.452
X-68.271 Y-162.347 Z-3.467
X-68.18 Y-161.911 Z-3.482
X-68.112 Y-161.452 Z-3.498
X-68.07 Y-160.977 Z-3.515
X-68.056 Y-160.492 Z-3.532
X-68.071 Y-160.006 Z-3.549
X-68.114 Y-159.527 Z-3.566
X-68.184 Y-159.065 Z-3.582
X-68.278 Y-158.624 Z-3.598
X-68.393 Y-158.213 Z-3.613
X-68.525 Y-157.832 Z-3.627
X-68.669 Y-157.489 Z-3.64
X-68.822 Y-157.185 Z-3.652
X-68.979 Y-156.921 Z-3.662
X-69.136 Y-156.694 Z-3.672
X-69.291 Y-156.504 Z-3.681
X-69.435 Y-156.353 Z-3.688
X-69.566 Y-156.236 Z-3.694
X-69.685 Y-156.149 Z-3.699
X-69.785 Y-156.088 Z-3.703
X-69.869 Y-156.048 Z-3.706
X-69.936 Y-156.024 Z-3.709
X-69.987 Y-156.011 Z-3.711
X-70.027 Y-156.005 Z-3.712
X-70.062 Y-156.004 Z-3.713
X-70.101 Y-156.007 Z-3.715
X-70.147 Y-156.016 Z-3.716
X-70.205 Y-156.034 Z-3.719
X-70.279 Y-156.064 Z-3.721
X-70.366 Y-156.111 Z-3.725
X-70.474 Y-156.183 Z-3.729
X-70.6 Y-156.284 Z-3.735
X-70.736 Y-156.414 Z-3.742
X-70.883 Y-156.579 Z-3.749
X-71.036 Y-156.779 Z-3.758
X-71.191 Y-157.016 Z-3.768
X-71.345 Y-157.293 Z-3.779
X-71.494 Y-157.607 Z-3.791
X-71.632 Y-157.955 Z-3.804
X-71.756 Y-158.338 Z-3.818
X-71.863 Y-158.754 Z-3.833
X-71.949 Y-159.195 Z-3.849
X-72.011 Y-159.659 Z-3.865
X-72.046 Y-160.138 Z-3.882
X-72.053 Y-160.624 Z-3.899
X-72.031 Y-161.108 Z-3.916
X-71.982 Y-161.583 Z-3.933
X-71.906 Y-162.042 Z-3.949
X-71.807 Y-162.477 Z-3.964
X-71.688 Y-162.881 Z-3.979
X-71.553 Y-163.252 Z-3.993
X-71.406 Y-163.584 Z-4.006
X-71.251 Y-163.881 Z-4.017
X-71.093 Y-164.137 Z-4.028
X-70.936 Y-164.355 Z-4.037
X-70.785 Y-164.534 Z-4.045
X-70.644 Y-164.676 Z-4.052
X-70.512 Y-164.788 Z-4.058
X-70.398 Y-164.869 Z-4.063
X-70.305 Y-164.923 Z-4.067
X-70.225 Y-164.959 Z-4.07
X-70.162 Y-164.98 Z-4.072
X-70.114 Y-164.991 Z-4.074
X-70.067 Y-164.996 Z-4.076
X-70.017 Y-164.993 Z-4.078
X-69.973 Y-164.986 Z-4.079
X-69.922 Y-164.972 Z-4.081
X-69.852 Y-164.945 Z-4.084
X-69.765 Y-164.901 Z-4.087
X-69.662 Y-164.835 Z-4.091
X-69.542 Y-164.743 Z-4.097
X-69.408 Y-164.621 Z-4.103
X-69.263 Y-164.463 Z-4.11
X-69.111 Y-164.272 Z-4.119
X-68.955 Y-164.042 Z-4.129
X-68.801 Y-163.776 Z-4.139
X-68.651 Y-163.472 Z-4.151
X-68.511 Y-163.131 Z-4.164
X-68.382 Y-162.755 Z-4.178
X-68.271 Y-162.347 Z-4.193
X-68.18 Y-161.911 Z-4.208
X-68.112 Y-161.452 Z-4.224
X-68.07 Y-160.977 Z-4.241
X-68.056 Y-160.492 Z-4.258
X-68.071 Y-160.006 Z-4.275
X-68.114 Y-159.527 Z-4.292
X-68.184 Y-159.065 Z-4.308
X-68.278 Y-158.624 Z-4.324
X-68.393 Y-158.213 Z-4.339
X-68.525 Y-157.832 Z-4.353
X-68.669 Y-157.489 Z-4.366
X-68.822 Y-157.185 Z-4.378
X-68.979 Y-156.921 Z-4.388
X-69.136 Y-156.694 Z-4.398
X-69.291 Y-156.504 Z-4.407
X-69.435 Y-156.353 Z-4.414
X-69.566 Y-156.236 Z-4.42
X-69.685 Y-156.149 Z-4.425
X-69.785 Y-156.088 Z-4.429
X-69.869 Y-156.048 Z-4.433
X-69.936 Y-156.024 Z-4.435
X-69.987 Y-156.011 Z-4.437
X-70.027 Y-156.005 Z-4.438
X-70.062 Y-156.004 Z-4.44
X-70.101 Y-156.007 Z-4.441
X-70.147 Y-156.016 Z-4.443
X-70.205 Y-156.034 Z-4.445
X-70.279 Y-156.064 Z-4.447
X-70.366 Y-156.111 Z-4.451
X-70.474 Y-156.183 Z-4.455
X-70.6 Y-156.284 Z-4.461
X-70.736 Y-156.414 Z-4.468
X-70.883 Y-156.579 Z-4.475
X-71.036 Y-156.779 Z-4.484
X-71.191 Y-157.016 Z-4.494
X-71.345 Y-157.293 Z-4.505
X-71.494 Y-157.607 Z-4.517
X-71.632 Y-157.955 Z-4.53
X-71.756 Y-158.338 Z-4.544
X-71.863 Y-158.754 Z-4.559
X-71.949 Y-159.195 Z-4.575
X-72.011 Y-159.659 Z-4.591
X-72.046 Y-160.138 Z-4.608
X-72.053 Y-160.624 Z-4.625
X-72.031 Y-161.108 Z-4.642
X-71.982 Y-161.583 Z-4.659
X-71.906 Y-162.042 Z-4.675
X-71.807 Y-162.477 Z-4.691
X-71.688 Y-162.881 Z-4.705
X-71.553 Y-163.252 Z-4.719
X-71.406 Y-163.584 Z-4.732
X-71.251 Y-163.881 Z-4.743
X-71.093 Y-164.137 Z-4.754
X-70.936 Y-164.355 Z-4.763
X-70.785 Y-164.534 Z-4.772
X-70.644 Y-164.676 Z-4.779
X-70.512 Y-164.788 Z-4.785
X-70.398 Y-164.869 Z-4.789
X-70.305 Y-164.923 Z-4.793
X-70.225 Y-164.959 Z-4.796
X-70.162 Y-164.98 Z-4.799
X-70.114 Y-164.991 Z-4.8
X-70.067 Y-164.996 Z-4.802
X-70.017 Y-164.993 Z-4.804
X-69.973 Y-164.986 Z-4.805
X-69.922 Y-164.972 Z-4.807
X-69.852 Y-164.945 Z-4.81
X-69.765 Y-164.901 Z-4.813
X-69.662 Y-164.835 Z-4.817
X-69.542 Y-164.743 Z-4.823
X-69.408 Y-164.621 Z-4.829
X-69.263 Y-164.463 Z-4.836
X-69.111 Y-164.272 Z-4.845
X-68.955 Y-164.042 Z-4.855
X-68.801 Y-163.776 Z-4.865
X-68.651 Y-163.472 Z-4.877
X-68.511 Y-163.131 Z-4.89
X-68.382 Y-162.755 Z-4.904
X-68.271 Y-162.347 Z-4.919
X-68.18 Y-161.911 Z-4.934
X-68.112 Y-161.452 Z-4.951
X-68.07 Y-160.977 Z-4.967
X-68.056 Y-160.492 Z-4.984
X-68.071 Y-160.006 Z-5.001
X-68.114 Y-159.527 Z-5.018
X-68.184 Y-159.065 Z-5.034
X-68.278 Y-158.624 Z-5.05
X-68.393 Y-158.213 Z-5.065
X-68.525 Y-157.832 Z-5.079
X-68.669 Y-157.489 Z-5.092
X-68.822 Y-157.185 Z-5.104
X-68.979 Y-156.921 Z-5.115
X-69.136 Y-156.694 Z-5.124
X-69.291 Y-156.504 Z-5.133
X-69.435 Y-156.353 Z-5.14
X-69.566 Y-156.236 Z-5.146
X-69.685 Y-156.149 Z-5.151
X-69.785 Y-156.088 Z-5.155
X-69.869 Y-156.048 Z-5.159
X-69.936 Y-156.024 Z-5.161
X-69.987 Y-156.011 Z-5.163
X-70.027 Y-156.005 Z-5.164
X-70.062 Y-156.004 Z-5.166
X-70.101 Y-156.007 Z-5.167
X-70.147 Y-156.016 Z-5.169
X-70.205 Y-156.034 Z-5.171
X-70.279 Y-156.064 Z-5.174
X-70.366 Y-156.111 Z-5.177
X-70.474 Y-156.183 Z-5.182
X-70.6 Y-156.284 Z-5.187
X-70.736 Y-156.414 Z-5.194
X-70.883 Y-156.579 Z-5.201
X-71.036 Y-156.779 Z-5.21
X-71.191 Y-157.016 Z-5.22
X-71.345 Y-157.293 Z-5.231
X-71.494 Y-157.607 Z-5.243
X-71.632 Y-157.955 Z-5.256
X-71.756 Y-158.338 Z-5.271
X-71.863 Y-158.754 Z-5.285
X-71.949 Y-159.195 Z-5.301
X-72.011 Y-159.659 Z-5.318
X-72.046 Y-160.138 Z-5.334
X-72.053 Y-160.624 Z-5.351
X-72.031 Y-161.108 Z-5.368
X-71.982 Y-161.583 Z-5.385
X-71.906 Y-162.042 Z-5.401
X-71.807 Y-162.477 Z-5.417
X-71.688 Y-162.881 Z-5.431
X-71.553 Y-163.252 Z-5.445
X-71.406 Y-163.584 Z-5.458
X-71.251 Y-163.881 Z-5.47
X-71.093 Y-164.137 Z-5.48
X-70.936 Y-164.355 Z-5.489
X-70.785 Y-164.534 Z-5.498
X-70.644 Y-164.676 Z-5.505
X-70.512 Y-164.788 Z-5.511
X-70.398 Y-164.869 Z-5.516
X-70.305 Y-164.923 Z-5.519
X-70.225 Y-164.959 Z-5.522
X-70.162 Y-164.98 Z-5.525
X-70.114 Y-164.991 Z-5.526
X-70.067 Y-164.996 Z-5.528
X-70.017 Y-164.993 Z-5.53
X-69.973 Y-164.986 Z-5.531
X-69.922 Y-164.972 Z-5.533
X-69.852 Y-164.945 Z-5.536
X-69.765 Y-164.901 Z-5.539
X-69.662 Y-164.835 Z-5.544
X-69.542 Y-164.743 Z-5.549
X-69.408 Y-164.621 Z-5.555
X-69.263 Y-164.463 Z-5.563
X-69.111 Y-164.272 Z-5.571
X-68.955 Y-164.042 Z-5.581
X-68.801 Y-163.776 Z-5.592
X-68.651 Y-163.472 Z-5.603
X-68.511 Y-163.131 Z-5.616
X-68.382 Y-162.755 Z-5.63
X-68.271 Y-162.347 Z-5.645
X-68.18 Y-161.911 Z-5.66
X-68.112 Y-161.452 Z-5.677
X-68.07 Y-160.977 Z-5.693
X-68.056 Y-160.492 Z-5.71
X-68.071 Y-160.006 Z-5.727
X-68.114 Y-159.527 Z-5.744
X-68.184 Y-159.065 Z-5.76
X-68.278 Y-158.624 Z-5.776
X-68.393 Y-158.213 Z-5.791
X-68.525 Y-157.832 Z-5.805
X-68.669 Y-157.489 Z-5.818
X-68.822 Y-157.185 Z-5.83
X-68.979 Y-156.921 Z-5.841
X-69.136 Y-156.694 Z-5.85
X-69.291 Y-156.504 Z-5.859
X-69.435 Y-156.353 Z-5.866
X-69.566 Y-156.236 Z-5.872
X-69.685 Y-156.149 Z-5.877
X-69.785 Y-156.088 Z-5.882
X-69.869 Y-156.048 Z-5.885
X-69.936 Y-156.024 Z-5.887
X-69.987 Y-156.011 Z-5.889
X-70.027 Y-156.005 Z-5.891
X-70.062 Y-156.004 Z-5.892
X-70.101 Y-156.007 Z-5.893
X-70.147 Y-156.016 Z-5.895
X-70.205 Y-156.034 Z-5.897
X-70.279 Y-156.064 Z-5.9
X-70.366 Y-156.111 Z-5.903
X-70.474 Y-156.183 Z-5.908
X-70.6 Y-156.284 Z-5.913
X-70.736 Y-156.414 Z-5.92
X-70.883 Y-156.579 Z-5.928
X-71.036 Y-156.779 Z-5.936
X-71.191 Y-157.016 Z-5.946
X-71.345 Y-157.293 Z-5.957
X-71.494 Y-157.607 Z-5.969
X-71.632 Y-157.955 Z-5.983
X-71.756 Y-158.338 Z-5.997
X-71.863 Y-158.754 Z-6.012
X-71.949 Y-159.195 Z-6.027
X-72.011 Y-159.659 Z-6.044
X-72.046 Y-160.138 Z-6.06
X-72.053 Y-160.624 Z-6.077
X-72.031 Y-161.108 Z-6.094
X-71.982 Y-161.583 Z-6.111
X-71.906 Y-162.042 Z-6.127
X-71.807 Y-162.477 Z-6.143
X-71.688 Y-162.881 Z-6.158
X-71.553 Y-163.252 Z-6.171
X-71.406 Y-163.584 Z-6.184
X-71.251 Y-163.881 Z-6.196
X-71.093 Y-164.137 Z-6.206
X-70.936 Y-164.355 Z-6.216
X-70.785 Y-164.534 Z-6.224
X-70.644 Y-164.676 Z-6.231
X-70.512 Y-164.788 Z-6.237
X-70.398 Y-164.869 Z-6.242
X-70.305 Y-164.923 Z-6.245
X-70.225 Y-164.959 Z-6.248
X-70.162 Y-164.98 Z-6.251
X-70.114 Y-164.991 Z-6.253
X-70.067 Y-164.996 Z-6.254
X-70.017 Y-164.993 Z-6.256
X-69.973 Y-164.986 Z-6.257
X-69.922 Y-164.972 Z-6.259
X-69.852 Y-164.945 Z-6.262
X-69.765 Y-164.901 Z-6.265
X-69.662 Y-164.835 Z-6.27
X-69.542 Y-164.743 Z-6.275
X-69.408 Y-164.621 Z-6.281
X-69.263 Y-164.463 Z-6.289
X-69.111 Y-164.272 Z-6.297
X-68.955 Y-164.042 Z-6.307
X-68.801 Y-163.776 Z-6.318
X-68.651 Y-163.472 Z-6.33
X-68.511 Y-163.131 Z-6.342
X-68.382 Y-162.755 Z-6.356
X-68.271 Y-162.347 Z-6.371
X-68.18 Y-161.911 Z-6.387
X-68.112 Y-161.452 Z-6.403
X-68.07 Y-160.977 Z-6.419
X-68.056 Y-160.492 Z-6.436
X-68.071 Y-160.006 Z-6.453
X-68.114 Y-159.527 Z-6.47
X-68.184 Y-159.065 Z-6.486
X-68.278 Y-158.624 Z-6.502
X-68.393 Y-158.213 Z-6.517
X-68.525 Y-157.832 Z-6.531
X-68.669 Y-157.489 Z-6.544
X-68.822 Y-157.185 Z-6.556
X-68.979 Y-156.921 Z-6.567
X-69.136 Y-156.694 Z-6.576
X-69.291 Y-156.504 Z-6.585
X-69.435 Y-156.353 Z-6.592
X-69.566 Y-156.236 Z-6.598
X-69.685 Y-156.149 Z-6.604
X-69.785 Y-156.088 Z-6.608
X-69.869 Y-156.048 Z-6.611
X-69.936 Y-156.024 Z-6.613
X-69.987 Y-156.011 Z-6.615
X-70.027 Y-156.005 Z-6.617
X-70.062 Y-156.004 Z-6.618
X-70.101 Y-156.007 Z-6.619
X-70.147 Y-156.016 Z-6.621
X-70.205 Y-156.034 Z-6.623
X-70.279 Y-156.064 Z-6.626
X-70.366 Y-156.111 Z-6.629
X-70.474 Y-156.183 Z-6.634
X-70.6 Y-156.284 Z-6.639
X-70.736 Y-156.414 Z-6.646
X-70.883 Y-156.579 Z-6.654
X-71.036 Y-156.779 Z-6.662
X-71.191 Y-157.016 Z-6.672
X-71.345 Y-157.293 Z-6.683
X-71.494 Y-157.607 Z-6.696
X-71.632 Y-157.955 Z-6.709
X-71.756 Y-158.338 Z-6.723
X-71.863 Y-158.754 Z-6.738
X-71.949 Y-159.195 Z-6.753
X-72.011 Y-159.659 Z-6.77
X-72.046 Y-160.138 Z-6.787
X-72.053 Y-160.624 Z-6.803
X-72.031 Y-161.108 Z-6.82
X-71.982 Y-161.583 Z-6.837
X-71.906 Y-162.042 Z-6.853
X-71.807 Y-162.477 Z-6.869
X-71.688 Y-162.881 Z-6.884
X-71.553 Y-163.252 Z-6.897
X-71.406 Y-163.584 Z-6.91
X-71.251 Y-163.881 Z-6.922
X-71.093 Y-164.137 Z-6.932
X-70.936 Y-164.355 Z-6.942
X-70.785 Y-164.534 Z-6.95
X-70.644 Y-164.676 Z-6.957
X-70.512 Y-164.788 Z-6.963
X-70.398 Y-164.869 Z-6.968
X-70.305 Y-164.923 Z-6.972
X-70.225 Y-164.959 Z-6.975
X-70.162 Y-164.98 Z-6.977
X-70.114 Y-164.991 Z-6.979
X-70.067 Y-164.996 Z-6.98
X-70.017 Y-164.993 Z-6.982
X-69.973 Y-164.986 Z-6.984
X-69.922 Y-164.972 Z-6.985
X-69.852 Y-164.945 Z-6.988
X-69.765 Y-164.901 Z-6.991
X-69.662 Y-164.835 Z-6.996
X-69.542 Y-164.743 Z-7.001
X-69.408 Y-164.621 Z-7.007
X-69.263 Y-164.463 Z-7.015
X-69.111 Y-164.272 Z-7.023
X-68.955 Y-164.042 Z-7.033
X-68.801 Y-163.776 Z-7.044
X-68.651 Y-163.472 Z-7.056
X-68.511 Y-163.131 Z-7.068
X-68.382 Y-162.755 Z-7.082
X-68.271 Y-162.347 Z-7.097
X-68.18 Y-161.911 Z-7.113
X-68.112 Y-161.452 Z-7.129
X-68.07 Y-160.977 Z-7.146
X-68.056 Y-160.492 Z-7.162
X-68.071 Y-160.006 Z-7.179
X-68.114 Y-159.527 Z-7.196
X-68.184 Y-159.065 Z-7.213
X-68.278 Y-158.624 Z-7.228
X-68.393 Y-158.213 Z-7.243
X-68.525 Y-157.832 Z-7.257
X-68.669 Y-157.489 Z-7.27
X-68.822 Y-157.185 Z-7.282
X-68.979 Y-156.921 Z-7.293
X-69.136 Y-156.694 Z-7.303
X-69.291 Y-156.504 Z-7.311
X-69.435 Y-156.353 Z-7.318
X-69.566 Y-156.236 Z-7.325
X-69.685 Y-156.149 Z-7.33
X-69.785 Y-156.088 Z-7.334
X-69.869 Y-156.048 Z-7.337
X-69.936 Y-156.024 Z-7.34
X-69.987 Y-156.011 Z-7.341
X-70.027 Y-156.005 Z-7.343
X-70.062 Y-156.004 Z-7.344
X-70.101 Y-156.007 Z-7.345
X-70.147 Y-156.016 Z-7.347
X-70.205 Y-156.034 Z-7.349
X-70.279 Y-156.064 Z-7.352
X-70.366 Y-156.111 Z-7.355
X-70.474 Y-156.183 Z-7.36
X-70.6 Y-156.284 Z-7.366
X-70.736 Y-156.414 Z-7.372
X-70.883 Y-156.579 Z-7.38
X-71.036 Y-156.779 Z-7.389
X-71.191 Y-157.016 Z-7.398
X-71.345 Y-157.293 Z-7.41
X-71.494 Y-157.607 Z-7.422
X-71.632 Y-157.955 Z-7.435
X-71.756 Y-158.338 Z-7.449
X-71.863 Y-158.754 Z-7.464
X-71.949 Y-159.195 Z-7.48
X-72.011 Y-159.659 Z-7.496
X-72.046 Y-160.138 Z-7.513
X-72.053 Y-160.624 Z-7.53
X-72.031 Y-161.108 Z-7.547
X-71.982 Y-161.583 Z-7.563
X-71.906 Y-162.042 Z-7.579
X-71.807 Y-162.477 Z-7.595
X-71.688 Y-162.881 Z-7.61
X-71.553 Y-163.252 Z-7.624
X-71.406 Y-163.584 Z-7.636
X-71.251 Y-163.881 Z-7.648
X-71.093 Y-164.137 Z-7.658
X-70.936 Y-164.355 Z-7.668
X-70.785 Y-164.534 Z-7.676
X-70.644 Y-164.676 Z-7.683
X-70.512 Y-164.788 Z-7.689
X-70.398 Y-164.869 Z-7.694
X-70.305 Y-164.923 Z-7.698
X-70.225 Y-164.959 Z-7.701
X-70.162 Y-164.98 Z-7.703
X-70.114 Y-164.991 Z-7.705
X-70.067 Y-164.996 Z-7.706
X-70.017 Y-164.993 Z-7.708
X-69.973 Y-164.986 Z-7.71
X-69.922 Y-164.972 Z-7.712
X-69.852 Y-164.945 Z-7.714
X-69.765 Y-164.901 Z-7.718
X-69.662 Y-164.835 Z-7.722
X-69.542 Y-164.743 Z-7.727
X-69.408 Y-164.621 Z-7.733
X-69.263 Y-164.463 Z-7.741
X-69.111 Y-164.272 Z-7.749
X-68.955 Y-164.042 Z-7.759
X-68.801 Y-163.776 Z-7.77
X-68.651 Y-163.472 Z-7.782
X-68.511 Y-163.131 Z-7.795
X-68.382 Y-162.755 Z-7.808
X-68.271 Y-162.347 Z-7.823
X-68.18 Y-161.911 Z-7.839
X-68.112 Y-161.452 Z-7.855
X-68.07 Y-160.977 Z-7.872
X-68.056 Y-160.492 Z-7.889
X-68.071 Y-160.006 Z-7.906
X-68.114 Y-159.527 Z-7.922
X-68.184 Y-159.065 Z-7.939
X-68.278 Y-158.624 Z-7.954
X-68.393 Y-158.213 Z-7.969
X-68.525 Y-157.832 Z-7.983
X-68.669 Y-157.489 Z-7.996
X-68.822 Y-157.185 Z-8.008
X-68.979 Y-156.921 Z-8.019
X-69.136 Y-156.694 Z-8.029
X-69.291 Y-156.504 Z-8.037
X-69.435 Y-156.353 Z-8.045
X-69.566 Y-156.236 Z-8.051
X-69.685 Y-156.149 Z-8.056
X-69.785 Y-156.088 Z-8.06
X-69.869 Y-156.048 Z-8.063
X-69.936 Y-156.024 Z-8.066
X-69.987 Y-156.011 Z-8.067
X-70.027 Y-156.005 Z-8.069
X-70.062 Y-156.004 Z-8.07
X-70.101 Y-156.007 Z-8.071
X-70.147 Y-156.016 Z-8.073
X-70.205 Y-156.034 Z-8.075
X-70.279 Y-156.064 Z-8.078
X-70.366 Y-156.111 Z-8.081
X-70.474 Y-156.183 Z-8.086
X-70.6 Y-156.284 Z-8.092
X-70.736 Y-156.414 Z-8.098
X-70.883 Y-156.579 Z-8.106
X-71.036 Y-156.779 Z-8.115
X-71.191 Y-157.016 Z-8.125
X-71.345 Y-157.293 Z-8.136
X-71.494 Y-157.607 Z-8.148
X-71.632 Y-157.955 Z-8.161
X-71.756 Y-158.338 Z-8.175
X-71.863 Y-158.754 Z-8.19
X-71.949 Y-159.195 Z-8.206
X-72.011 Y-159.659 Z-8.222
X-72.046 Y-160.138 Z-8.239
X-72.053 Y-160.624 Z-8.256
X-72.031 Y-161.108 Z-8.273
X-71.982 Y-161.583 Z-8.289
X-71.906 Y-162.042 Z-8.306
X-71.807 Y-162.477 Z-8.321
X-71.688 Y-162.881 Z-8.336
X-71.553 Y-163.252 Z-8.35
X-71.406 Y-163.584 Z-8.362
X-71.251 Y-163.881 Z-8.374
X-71.093 Y-164.137 Z-8.384
X-70.936 Y-164.355 Z-8.394
X-70.785 Y-164.534 Z-8.402
X-70.644 Y-164.676 Z-8.409
X-70.512 Y-164.788 Z-8.415
X-70.398 Y-164.869 Z-8.42
X-70.305 Y-164.923 Z-8.424
X-70.225 Y-164.959 Z-8.427
X-70.162 Y-164.98 Z-8.429
X-70.114 Y-164.991 Z-8.431
X-70.067 Y-164.996 Z-8.433
X-70.017 Y-164.993 Z-8.434
X-69.973 Y-164.986 Z-8.436
X-69.922 Y-164.972 Z-8.438
X-69.852 Y-164.945 Z-8.44
X-69.765 Y-164.901 Z-8.444
X-69.662 Y-164.835 Z-8.448
X-69.542 Y-164.743 Z-8.453
X-69.408 Y-164.621 Z-8.46
X-69.263 Y-164.463 Z-8.467
X-69.111 Y-164.272 Z-8.476
X-68.955 Y-164.042 Z-8.485
X-68.801 Y-163.776 Z-8.496
X-68.651 Y-163.472 Z-8.508
X-68.511 Y-163.131 Z-8.521
X-68.382 Y-162.755 Z-8.535
X-68.271 Y-162.347 Z-8.549
X-68.18 Y-161.911 Z-8.565
X-68.112 Y-161.452 Z-8.581
X-68.07 Y-160.977 Z-8.598
X-68.056 Y-160.492 Z-8.615
X-68.071 Y-160.006 Z-8.632
X-68.114 Y-159.527 Z-8.648
X-68.184 Y-159.065 Z-8.665
X-68.278 Y-158.624 Z-8.681
X-68.393 Y-158.213 Z-8.695
X-68.525 Y-157.832 Z-8.71
X-68.669 Y-157.489 Z-8.723
X-68.822 Y-157.185 Z-8.734
X-68.979 Y-156.921 Z-8.745
X-69.136 Y-156.694 Z-8.755
X-69.291 Y-156.504 Z-8.763
X-69.435 Y-156.353 Z-8.771
X-69.566 Y-156.236 Z-8.777
X-69.685 Y-156.149 Z-8.782
X-69.785 Y-156.088 Z-8.786
X-69.869 Y-156.048 Z-8.789
X-69.936 Y-156.024 Z-8.792
X-69.987 Y-156.011 Z-8.794
X-70.027 Y-156.005 Z-8.795
X-70.062 Y-156.004 Z-8.796
X-70.101 Y-156.007 Z-8.798
X-70.147 Y-156.016 Z-8.799
X-70.205 Y-156.034 Z-8.801
X-70.279 Y-156.064 Z-8.804
X-70.366 Y-156.111 Z-8.808
X-70.474 Y-156.183 Z-8.812
X-70.6 Y-156.284 Z-8.818
X-70.736 Y-156.414 Z-8.824
X-70.883 Y-156.579 Z-8.832
X-71.036 Y-156.779 Z-8.841
X-71.191 Y-157.016 Z-8.851
X-71.345 Y-157.293 Z-8.862
X-71.494 Y-157.607 Z-8.874
X-71.632 Y-157.955 Z-8.887
X-71.756 Y-158.338 Z-8.901
X-71.863 Y-158.754 Z-8.916
X-71.949 Y-159.195 Z-8.932
X-72.011 Y-159.659 Z-8.948
X-72.046 Y-160.138 Z-8.965
X-72.053 Y-160.624 Z-8.982
X-72.031 Y-161.108 Z-8.999
X-71.982 Y-161.583 Z-9.015
X-71.906 Y-162.042 Z-9.032
X-71.807 Y-162.477 Z-9.047
X-71.688 Y-162.881 Z-9.062
X-71.553 Y-163.252 Z-9.076
X-71.406 Y-163.584 Z-9.088
X-71.251 Y-163.881 Z-9.1
X-71.093 Y-164.137 Z-9.111
X-70.936 Y-164.355 Z-9.12
X-70.785 Y-164.534 Z-9.128
X-70.644 Y-164.676 Z-9.135
X-70.512 Y-164.788 Z-9.141
X-70.398 Y-164.869 Z-9.146
X-70.305 Y-164.923 Z-9.15
X-70.225 Y-164.959 Z-9.153
X-70.162 Y-164.98 Z-9.155
X-70.114 Y-164.991 Z-9.157
X-70.067 Y-164.996 Z-9.159
X-70.017 Y-164.993 Z-9.16
X-69.973 Y-164.986 Z-9.162
X-69.922 Y-164.972 Z-9.164
X-69.852 Y-164.945 Z-9.166
X-69.765 Y-164.901 Z-9.17
X-69.662 Y-164.835 Z-9.174
X-69.542 Y-164.743 Z-9.179
X-69.408 Y-164.621 Z-9.186
X-69.263 Y-164.463 Z-9.193
X-69.111 Y-164.272 Z-9.202
X-68.955 Y-164.042 Z-9.211
X-68.801 Y-163.776 Z-9.222
X-68.651 Y-163.472 Z-9.234
X-68.511 Y-163.131 Z-9.247
X-68.382 Y-162.755 Z-9.261
X-68.271 Y-162.347 Z-9.275
X-68.18 Y-161.911 Z-9.291
X-68.112 Y-161.452 Z-9.307
X-68.07 Y-160.977 Z-9.324
X-68.056 Y-160.492 Z-9.341
X-68.071 Y-160.006 Z-9.358
X-68.114 Y-159.527 Z-9.375
X-68.184 Y-159.065 Z-9.391
X-68.278 Y-158.624 Z-9.407
X-68.393 Y-158.213 Z-9.422
X-68.525 Y-157.832 Z-9.436
X-68.669 Y-157.489 Z-9.449
X-68.822 Y-157.185 Z-9.461
X-68.979 Y-156.921 Z-9.471
X-69.136 Y-156.694 Z-9.481
X-69.291 Y-156.504 Z-9.489
X-69.435 Y-156.353 Z-9.497
X-69.566 Y-156.236 Z-9.503
X-69.685 Y-156.149 Z-9.508
X-69.785 Y-156.088 Z-9.512
X-69.869 Y-156.048 Z-9.515
X-69.936 Y-156.024 Z-9.518
X-69.987 Y-156.011 Z-9.52
X-70.027 Y-156.005 Z-9.521
X-70.062 Y-156.004 Z-9.522
X-70.101 Y-156.007 Z-9.524
X-70.147 Y-156.016 Z-9.525
X-70.205 Y-156.034 Z-9.527
X-70.279 Y-156.064 Z-9.53
X-70.366 Y-156.111 Z-9.534
X-70.474 Y-156.183 Z-9.538
X-70.6 Y-156.284 Z-9.544
X-70.736 Y-156.414 Z-9.55
X-70.883 Y-156.579 Z-9.558
X-71.036 Y-156.779 Z-9.567
X-71.191 Y-157.016 Z-9.577
X-71.345 Y-157.293 Z-9.588
X-71.494 Y-157.607 Z-9.6
X-71.632 Y-157.955 Z-9.613
X-71.756 Y-158.338 Z-9.627
X-71.863 Y-158.754 Z-9.642
X-71.949 Y-159.195 Z-9.658
X-72.011 Y-159.659 Z-9.674
X-72.046 Y-160.138 Z-9.691
X-72.053 Y-160.624 Z-9.708
X-72.031 Y-161.108 Z-9.725
X-71.982 Y-161.583 Z-9.742
X-71.906 Y-162.042 Z-9.758
X-71.807 Y-162.477 Z-9.773
X-71.688 Y-162.881 Z-9.788
X-71.553 Y-163.252 Z-9.802
X-71.406 Y-163.584 Z-9.815
X-71.251 Y-163.881 Z-9.826
X-71.093 Y-164.137 Z-9.837
X-70.936 Y-164.355 Z-9.846
X-70.785 Y-164.534 Z-9.854
X-70.644 Y-164.676 Z-9.861
X-70.512 Y-164.788 Z-9.867
X-70.398 Y-164.869 Z-9.872
X-70.305 Y-164.923 Z-9.876
X-70.225 Y-164.959 Z-9.879
X-70.162 Y-164.98 Z-9.881
X-70.114 Y-164.991 Z-9.883
X-70.067 Y-164.996 Z-9.885
X-70.017 Y-164.993 Z-9.886
X-69.973 Y-164.986 Z-9.888
X-69.922 Y-164.972 Z-9.89
X-69.852 Y-164.945 Z-9.892
X-69.765 Y-164.901 Z-9.896
X-69.662 Y-164.835 Z-9.9
X-69.542 Y-164.743 Z-9.905
X-69.408 Y-164.621 Z-9.912
X-69.263 Y-164.463 Z-9.919
X-69.111 Y-164.272 Z-9.928
X-68.955 Y-164.042 Z-9.937
X-68.801 Y-163.776 Z-9.948
X-68.651 Y-163.472 Z-9.96
X-68.511 Y-163.131 Z-9.973
X-68.382 Y-162.755 Z-9.987
X-68.271 Y-162.347 Z-10.002
X-68.18 Y-161.911 Z-10.017
X-68.112 Y-161.452 Z-10.033
X-68.07 Y-160.977 Z-10.05
X-68.056 Y-160.492 Z-10.067
X-68.071 Y-160.006 Z-10.084
X-68.114 Y-159.527 Z-10.101
X-68.184 Y-159.065 Z-10.117
X-68.278 Y-158.624 Z-10.133
X-68.393 Y-158.213 Z-10.148
X-68.525 Y-157.832 Z-10.162
X-68.669 Y-157.489 Z-10.175
X-68.822 Y-157.185 Z-10.187
X-68.979 Y-156.921 Z-10.197
X-69.136 Y-156.694 Z-10.207
X-69.291 Y-156.504 Z-10.216
X-69.435 Y-156.353 Z-10.223
X-69.566 Y-156.236 Z-10.229
X-69.685 Y-156.149 Z-10.234
X-69.785 Y-156.088 Z-10.238
X-69.869 Y-156.048 Z-10.241
X-69.936 Y-156.024 Z-10.244
X-69.987 Y-156.011 Z-10.246
X-70.027 Y-156.005 Z-10.247
X-70.062 Y-156.004 Z-10.248
X-70.101 Y-156.007 Z-10.25
X-70.147 Y-156.016 Z-10.251
X-70.205 Y-156.034 Z-10.254
X-70.279 Y-156.064 Z-10.256
X-70.366 Y-156.111 Z-10.26
X-70.474 Y-156.183 Z-10.264
X-70.6 Y-156.284 Z-10.27
X-70.736 Y-156.414 Z-10.277
X-70.883 Y-156.579 Z-10.284
X-71.036 Y-156.779 Z-10.293
X-71.191 Y-157.016 Z-10.303
X-71.345 Y-157.293 Z-10.314
X-71.494 Y-157.607 Z-10.326
X-71.632 Y-157.955 Z-10.339
X-71.756 Y-158.338 Z-10.353
X-71.863 Y-158.754 Z-10.368
X-71.949 Y-159.195 Z-10.384
X-72.011 Y-159.659 Z-10.4
X-72.046 Y-160.138 Z-10.417
X-72.053 Y-160.624 Z-10.434
X-72.031 Y-161.108 Z-10.451
X-71.982 Y-161.583 Z-10.468
X-71.906 Y-162.042 Z-10.484
X-71.807 Y-162.477 Z-10.499
X-71.688 Y-162.881 Z-10.514
X-71.553 Y-163.252 Z-10.528
X-71.406 Y-163.584 Z-10.541
X-71.251 Y-163.881 Z-10.552
X-71.093 Y-164.137 Z-10.563
X-70.936 Y-164.355 Z-10.572
X-70.785 Y-164.534 Z-10.58
X-70.644 Y-164.676 Z-10.587
X-70.512 Y-164.788 Z-10.593
X-70.398 Y-164.869 Z-10.598
X-70.305 Y-164.923 Z-10.602
X-70.225 Y-164.959 Z-10.605
X-70.162 Y-164.98 Z-10.607
X-70.114 Y-164.991 Z-10.609
X-70.067 Y-164.996 Z-10.611
X-70.017 Y-164.993 Z-10.613
X-69.973 Y-164.986 Z-10.614
X-69.922 Y-164.972 Z-10.616
X-69.852 Y-164.945 Z-10.619
X-69.765 Y-164.901 Z-10.622
X-69.662 Y-164.835 Z-10.626
X-69.542 Y-164.743 Z-10.632
X-69.408 Y-164.621 Z-10.638
X-69.263 Y-164.463 Z-10.645
X-69.111 Y-164.272 Z-10.654
X-68.955 Y-164.042 Z-10.664
X-68.801 Y-163.776 Z-10.674
X-68.651 Y-163.472 Z-10.686
X-68.511 Y-163.131 Z-10.699
X-68.382 Y-162.755 Z-10.713
X-68.271 Y-162.347 Z-10.728
X-68.18 Y-161.911 Z-10.743
X-68.112 Y-161.452 Z-10.759
X-68.07 Y-160.977 Z-10.776
X-68.056 Y-160.492 Z-10.793
X-68.071 Y-160.006 Z-10.81
X-68.114 Y-159.527 Z-10.827
X-68.184 Y-159.065 Z-10.843
X-68.278 Y-158.624 Z-10.859
X-68.393 Y-158.213 Z-10.874
X-68.525 Y-157.832 Z-10.888
X-68.669 Y-157.489 Z-10.901
X-68.822 Y-157.185 Z-10.913
X-68.979 Y-156.921 Z-10.923
X-69.136 Y-156.694 Z-10.933
X-69.291 Y-156.504 Z-10.942
X-69.435 Y-156.353 Z-10.949
X-69.566 Y-156.236 Z-10.955
X-69.685 Y-156.149 Z-10.96
X-69.785 Y-156.088 Z-10.964
X-69.869 Y-156.048 Z-10.968
X-69.936 Y-156.024 Z-10.97
X-69.987 Y-156.011 Z-10.972
X-70.027 Y-156.005 Z-10.973
X-70.062 Y-156.004 Z-10.975
X-70.101 Y-156.007 Z-10.976
X-70.147 Y-156.016 Z-10.978
X-70.205 Y-156.034 Z-10.98
X-70.279 Y-156.064 Z-10.982
X-70.366 Y-156.111 Z-10.986
X-70.474 Y-156.183 Z-10.99
X-70.6 Y-156.284 Z-10.996
X-70.736 Y-156.414 Z-11.003
X-70.883 Y-156.579 Z-11.01
X-71.036 Y-156.779 Z-11.019
X-71.191 Y-157.016 Z-11.029
X-71.345 Y-157.293 Z-11.04
X-71.494 Y-157.607 Z-11.052
X-71.632 Y-157.955 Z-11.065
X-71.756 Y-158.338 Z-11.079
X-71.863 Y-158.754 Z-11.094
X-71.949 Y-159.195 Z-11.11
X-72.011 Y-159.659 Z-11.126
X-72.046 Y-160.138 Z-11.143
X-72.053 Y-160.624 Z-11.16
X-72.031 Y-161.108 Z-11.177
X-71.982 Y-161.583 Z-11.194
X-71.906 Y-162.042 Z-11.21
X-71.807 Y-162.477 Z-11.226
X-71.688 Y-162.881 Z-11.24
X-71.553 Y-163.252 Z-11.254
X-71.406 Y-163.584 Z-11.267
X-71.251 Y-163.881 Z-11.278
X-71.093 Y-164.137 Z-11.289
X-70.936 Y-164.355 Z-11.298
X-70.785 Y-164.534 Z-11.306
X-70.644 Y-164.676 Z-11.313
X-70.512 Y-164.788 Z-11.32
X-70.398 Y-164.869 Z-11.324
X-70.305 Y-164.923 Z-11.328
X-70.225 Y-164.959 Z-11.331
X-70.162 Y-164.98 Z-11.334
X-70.114 Y-164.991 Z-11.335
X-70.067 Y-164.996 Z-11.337
X-70.017 Y-164.993 Z-11.339
X-69.973 Y-164.986 Z-11.34
X-69.922 Y-164.972 Z-11.342
X-69.852 Y-164.945 Z-11.345
X-69.765 Y-164.901 Z-11.348
X-69.662 Y-164.835 Z-11.352
X-69.542 Y-164.743 Z-11.358
X-69.408 Y-164.621 Z-11.364
X-69.263 Y-164.463 Z-11.371
X-69.111 Y-164.272 Z-11.38
X-68.955 Y-164.042 Z-11.39
X-68.801 Y-163.776 Z-11.4
X-68.651 Y-163.472 Z-11.412
X-68.511 Y-163.131 Z-11.425
X-68.382 Y-162.755 Z-11.439
X-68.271 Y-162.347 Z-11.454
X-68.18 Y-161.911 Z-11.469
X-68.112 Y-161.452 Z-11.486
X-68.07 Y-160.977 Z-11.502
X-68.056 Y-160.492 Z-11.519
X-68.071 Y-160.006 Z-11.536
X-68.114 Y-159.527 Z-11.553
X-68.184 Y-159.065 Z-11.569
X-68.278 Y-158.624 Z-11.585
X-68.393 Y-158.213 Z-11.6
X-68.525 Y-157.832 Z-11.614
X-68.669 Y-157.489 Z-11.627
X-68.822 Y-157.185 Z-11.639
X-68.979 Y-156.921 Z-11.65
X-69.136 Y-156.694 Z-11.659
X-69.291 Y-156.504 Z-11.668
X-69.435 Y-156.353 Z-11.675
X-69.566 Y-156.236 Z-11.681
X-69.685 Y-156.149 Z-11.686
X-69.785 Y-156.088 Z-11.69
X-69.869 Y-156.048 Z-11.694
X-69.936 Y-156.024 Z-11.696
X-69.987 Y-156.011 Z-11.698
X-70.027 Y-156.005 Z-11.699
X-70.062 Y-156.004 Z-11.701
X-70.101 Y-156.007 Z-11.702
X-70.147 Y-156.016 Z-11.704
X-70.205 Y-156.034 Z-11.706
X-70.279 Y-156.064 Z-11.709
X-70.366 Y-156.111 Z-11.712
X-70.474 Y-156.183 Z-11.717
X-70.6 Y-156.284 Z-11.722
X-70.736 Y-156.414 Z-11.729
X-70.883 Y-156.579 Z-11.736
X-71.036 Y-156.779 Z-11.745
X-71.191 Y-157.016 Z-11.755
X-71.345 Y-157.293 Z-11.766
X-71.494 Y-157.607 Z-11.778
X-71.632 Y-157.955 Z-11.791
X-71.756 Y-158.338 Z-11.805
X-71.863 Y-158.754 Z-11.82
X-71.949 Y-159.195 Z-11.836
X-72.011 Y-159.659 Z-11.852
X-72.046 Y-160.138 Z-11.869
X-72.053 Y-160.624 Z-11.886
X-72.031 Y-161.108 Z-11.903
X-71.982 Y-161.583 Z-11.92
X-71.906 Y-162.042 Z-11.936
X-71.807 Y-162.477 Z-11.952
X-71.688 Y-162.881 Z-11.966
X-71.553 Y-163.252 Z-11.98
X-71.406 Y-163.584 Z-11.993
X-71.251 Y-163.881 Z-12.005
X-71.093 Y-164.137 Z-12.015
X-70.936 Y-164.355 Z-12.024
X-70.785 Y-164.534 Z-12.033
X-70.644 Y-164.676 Z-12.04
X-70.512 Y-164.788 Z-12.046
X-70.398 Y-164.869 Z-12.051
X-70.305 Y-164.923 Z-12.054
X-70.225 Y-164.959 Z-12.057
X-70.162 Y-164.98 Z-12.06
X-70.114 Y-164.991 Z-12.061
X-70.067 Y-164.996 Z-12.063
X-70.017 Y-164.993 Z-12.065
X-69.973 Y-164.986 Z-12.066
X-69.922 Y-164.972 Z-12.068
X-69.852 Y-164.945 Z-12.071
X-69.765 Y-164.901 Z-12.074
X-69.662 Y-164.835 Z-12.078
X-69.542 Y-164.743 Z-12.084
X-69.408 Y-164.621 Z-12.09
X-69.263 Y-164.463 Z-12.098
X-69.111 Y-164.272 Z-12.106
X-68.955 Y-164.042 Z-12.116
X-68.801 Y-163.776 Z-12.127
X-68.651 Y-163.472 Z-12.138
X-68.511 Y-163.131 Z-12.151
X-68.382 Y-162.755 Z-12.165
X-68.271 Y-162.347 Z-12.18
X-68.18 Y-161.911 Z-12.195
X-68.112 Y-161.452 Z-12.212
X-68.07 Y-160.977 Z-12.228
X-68.056 Y-160.492 Z-12.245
X-68.071 Y-160.006 Z-12.262
X-68.114 Y-159.527 Z-12.279
X-68.184 Y-159.065 Z-12.295
X-68.278 Y-158.624 Z-12.311
X-68.393 Y-158.213 Z-12.326
X-68.525 Y-157.832 Z-12.34
X-68.669 Y-157.489 Z-12.353
X-68.822 Y-157.185 Z-12.365
X-68.979 Y-156.921 Z-12.376
X-69.136 Y-156.694 Z-12.385
X-69.291 Y-156.504 Z-12.394
X-69.435 Y-156.353 Z-12.401
X-69.566 Y-156.236 Z-12.407
X-69.685 Y-156.149 Z-12.412
X-69.785 Y-156.088 Z-12.417
X-69.869 Y-156.048 Z-12.42
X-69.936 Y-156.024 Z-12.422
X-69.987 Y-156.011 Z-12.424
X-70.027 Y-156.005 Z-12.426
X-70.062 Y-156.004 Z-12.427
X-70.101 Y-156.007 Z-12.428
X-70.147 Y-156.016 Z-12.43
X-70.205 Y-156.034 Z-12.432
X-70.279 Y-156.064 Z-12.435
X-70.366 Y-156.111 Z-12.438
X-70.474 Y-156.183 Z-12.443
X-70.6 Y-156.284 Z-12.448
X-70.736 Y-156.414 Z-12.455
X-70.883 Y-156.579 Z-12.463
X-71.036 Y-156.779 Z-12.471
X-71.191 Y-157.016 Z-12.481
X-71.345 Y-157.293 Z-12.492
X-71.494 Y-157.607 Z-12.504
X-71.632 Y-157.955 Z-12.518
X-71.756 Y-158.338 Z-12.532
X-71.863 Y-158.754 Z-12.547
X-71.949 Y-159.195 Z-12.562
X-72.011 Y-159.659 Z-12.579
X-72.046 Y-160.138 Z-12.595
X-72.053 Y-160.624 Z-12.612
X-72.031 Y-161.108 Z-12.629
X-71.982 Y-161.583 Z-12.646
X-71.906 Y-162.042 Z-12.662
X-71.807 Y-162.477 Z-12.678
X-71.688 Y-162.881 Z-12.692
X-71.553 Y-163.252 Z-12.706
X-71.406 Y-163.584 Z-12.719
X-71.251 Y-163.881 Z-12.731
X-71.093 Y-164.137 Z-12.741
X-70.936 Y-164.355 Z-12.751
X-70.785 Y-164.534 Z-12.759
X-70.644 Y-164.676 Z-12.766
X-70.512 Y-164.788 Z-12.772
X-70.398 Y-164.869 Z-12.777
X-70.305 Y-164.923 Z-12.78
X-70.225 Y-164.959 Z-12.783
X-70.162 Y-164.98 Z-12.786
X-70.114 Y-164.991 Z-12.787
X-70.067 Y-164.996 Z-12.789
X-70.017 Y-164.993 Z-12.791
X-69.973 Y-164.986 Z-12.792
X-69.922 Y-164.972 Z-12.794
X-69.852 Y-164.945 Z-12.797
X-69.765 Y-164.901 Z-12.8
X-69.662 Y-164.835 Z-12.805
X-69.542 Y-164.743 Z-12.81
X-69.408 Y-164.621 Z-12.816
X-69.263 Y-164.463 Z-12.824
X-69.111 Y-164.272 Z-12.832
X-68.955 Y-164.042 Z-12.842
X-68.801 Y-163.776 Z-12.853
X-68.651 Y-163.472 Z-12.864
X-68.511 Y-163.131 Z-12.877
X-68.382 Y-162.755 Z-12.891
X-68.271 Y-162.347 Z-12.906
X-68.18 Y-161.911 Z-12.922
X-68.112 Y-161.452 Z-12.938
X-68.07 Y-160.977 Z-12.954
X-68.056 Y-160.492 Z-12.971
X-68.071 Y-160.006 Z-12.988
X-68.114 Y-159.527 Z-13.005
X-68.184 Y-159.065 Z-13.021
X-68.278 Y-158.624 Z-13.037
X-68.393 Y-158.213 Z-13.052
X-68.525 Y-157.832 Z-13.066
X-68.669 Y-157.489 Z-13.079
X-68.822 Y-157.185 Z-13.091
X-68.979 Y-156.921 Z-13.102
X-69.136 Y-156.694 Z-13.111
X-69.291 Y-156.504 Z-13.12
X-69.435 Y-156.353 Z-13.127
X-69.566 Y-156.236 Z-13.133
X-69.685 Y-156.149 Z-13.139
X-69.785 Y-156.088 Z-13.143
X-69.869 Y-156.048 Z-13.146
X-69.936 Y-156.024 Z-13.148
X-69.987 Y-156.011 Z-13.15
X-70.027 Y-156.005 Z-13.152
X-70.062 Y-156.004 Z-13.153
X-70.101 Y-156.007 Z-13.154
X-70.147 Y-156.016 Z-13.156
X-70.205 Y-156.034 Z-13.158
X-70.279 Y-156.064 Z-13.161
X-70.366 Y-156.111 Z-13.164
X-70.474 Y-156.183 Z-13.169
X-70.6 Y-156.284 Z-13.174
X-70.736 Y-156.414 Z-13.181
X-70.883 Y-156.579 Z-13.189
X-71.036 Y-156.779 Z-13.197
X-71.191 Y-157.016 Z-13.207
X-71.345 Y-157.293 Z-13.218
X-71.494 Y-157.607 Z-13.231
X-71.632 Y-157.955 Z-13.244
X-71.756 Y-158.338 Z-13.258
X-71.863 Y-158.754 Z-13.273
X-71.949 Y-159.195 Z-13.288
X-72.011 Y-159.659 Z-13.305
X-72.046 Y-160.138 Z-13.321
X-72.053 Y-160.624 Z-13.338
X-72.031 Y-161.108 Z-13.355
X-71.982 Y-161.583 Z-13.372
X-71.906 Y-162.042 Z-13.388
X-71.807 Y-162.477 Z-13.404
X-71.688 Y-162.881 Z-13.419
X-71.553 Y-163.252 Z-13.432
X-71.406 Y-163.584 Z-13.445
X-71.251 Y-163.881 Z-13.457
X-71.093 Y-164.137 Z-13.467
X-70.936 Y-164.355 Z-13.477
X-70.785 Y-164.534 Z-13.485
X-70.644 Y-164.676 Z-13.492
X-70.512 Y-164.788 Z-13.498
X-70.398 Y-164.869 Z-13.503
X-70.305 Y-164.923 Z-13.506
X-70.225 Y-164.959 Z-13.51
X-70.162 Y-164.98 Z-13.512
X-70.114 Y-164.991 Z-13.514
X-70.067 Y-164.996 Z-13.515
X-70.017 Y-164.993 Z-13.517
X-69.973 Y-164.986 Z-13.519
X-69.922 Y-164.972 Z-13.52
X-69.852 Y-164.945 Z-13.523
X-69.765 Y-164.901 Z-13.526
X-69.662 Y-164.835 Z-13.531
X-69.542 Y-164.743 Z-13.536
X-69.408 Y-164.621 Z-13.542
X-69.263 Y-164.463 Z-13.55
X-69.111 Y-164.272 Z-13.558
X-68.955 Y-164.042 Z-13.568
X-68.801 Y-163.776 Z-13.579
X-68.651 Y-163.472 Z-13.591
X-68.511 Y-163.131 Z-13.603
X-68.382 Y-162.755 Z-13.617
X-68.271 Y-162.347 Z-13.632
X-68.18 Y-161.911 Z-13.648
X-68.112 Y-161.452 Z-13.664
X-68.07 Y-160.977 Z-13.681
X-68.056 Y-160.492 Z-13.697
X-68.071 Y-160.006 Z-13.714
X-68.114 Y-159.527 Z-13.731
X-68.184 Y-159.065 Z-13.748
X-68.278 Y-158.624 Z-13.763
X-68.393 Y-158.213 Z-13.778
X-68.525 Y-157.832 Z-13.792
X-68.669 Y-157.489 Z-13.805
X-68.822 Y-157.185 Z-13.817
X-68.979 Y-156.921 Z-13.828
X-69.136 Y-156.694 Z-13.838
X-69.291 Y-156.504 Z-13.846
X-69.435 Y-156.353 Z-13.853
X-69.566 Y-156.236 Z-13.86
X-69.685 Y-156.149 Z-13.865
X-69.785 Y-156.088 Z-13.869
X-69.869 Y-156.048 Z-13.872
X-69.936 Y-156.024 Z-13.874
X-69.987 Y-156.011 Z-13.876
X-70.027 Y-156.005 Z-13.878
X-70.062 Y-156.004 Z-13.879
X-70.101 Y-156.007 Z-13.88
X-70.147 Y-156.016 Z-13.882
X-70.205 Y-156.034 Z-13.884
X-70.279 Y-156.064 Z-13.887
X-70.366 Y-156.111 Z-13.89
X-70.474 Y-156.183 Z-13.895
X-70.6 Y-156.284 Z-13.9
X-70.736 Y-156.414 Z-13.907
X-70.883 Y-156.579 Z-13.915
X-71.036 Y-156.779 Z-13.924
X-71.191 Y-157.016 Z-13.933
X-71.345 Y-157.293 Z-13.945
X-71.494 Y-157.607 Z-13.957
X-71.632 Y-157.955 Z-13.97
X-71.756 Y-158.338 Z-13.984
X-71.863 Y-158.754 Z-13.999
X-71.949 Y-159.195 Z-14.014
X-72.011 Y-159.659 Z-14.031
X-72.046 Y-160.138 Z-14.048
X-72.053 Y-160.624 Z-14.065
X-72.031 Y-161.108 Z-14.081
X-71.982 Y-161.583 Z-14.098
X-71.906 Y-162.042 Z-14.114
X-71.807 Y-162.477 Z-14.13
X-71.688 Y-162.881 Z-14.145
X-71.553 Y-163.252 Z-14.158
X-71.406 Y-163.584 Z-14.171
X-71.251 Y-163.881 Z-14.183
X-71.093 Y-164.137 Z-14.193
X-70.936 Y-164.355 Z-14.203
X-70.785 Y-164.534 Z-14.211
X-70.644 Y-164.676 Z-14.218
X-70.512 Y-164.788 Z-14.224
X-70.398 Y-164.869 Z-14.229
X-70.305 Y-164.923 Z-14.233
X-70.225 Y-164.959 Z-14.236
X-70.162 Y-164.98 Z-14.238
X-70.114 Y-164.991 Z-14.24
X-70.067 Y-164.996 Z-14.241
X-70.017 Y-164.993 Z-14.243
X-69.973 Y-164.986 Z-14.245
X-69.922 Y-164.972 Z-14.247
X-69.852 Y-164.945 Z-14.249
X-69.765 Y-164.901 Z-14.253
X-69.662 Y-164.835 Z-14.257
X-69.542 Y-164.743 Z-14.262
X-69.408 Y-164.621 Z-14.268
X-69.263 Y-164.463 Z-14.276
X-69.111 Y-164.272 Z-14.284
X-68.955 Y-164.042 Z-14.294
X-68.801 Y-163.776 Z-14.305
X-68.651 Y-163.472 Z-14.317
X-68.511 Y-163.131 Z-14.33
X-68.382 Y-162.755 Z-14.343
X-68.271 Y-162.347 Z-14.358
X-68.18 Y-161.911 Z-14.374
X-68.112 Y-161.452 Z-14.39
X-68.07 Y-160.977 Z-14.407
X-68.056 Y-160.492 Z-14.424
X-68.071 Y-160.006 Z-14.441
X-68.114 Y-159.527 Z-14.457
X-68.184 Y-159.065 Z-14.474
X-68.278 Y-158.624 Z-14.489
X-68.393 Y-158.213 Z-14.504
X-68.525 Y-157.832 Z-14.518
X-68.669 Y-157.489 Z-14.531
X-68.822 Y-157.185 Z-14.543
X-68.979 Y-156.921 Z-14.554
X-69.136 Y-156.694 Z-14.564
X-69.291 Y-156.504 Z-14.572
X-69.435 Y-156.353 Z-14.579
X-69.566 Y-156.236 Z-14.586
X-69.685 Y-156.149 Z-14.591
X-69.785 Y-156.088 Z-14.595
X-69.869 Y-156.048 Z-14.598
X-69.936 Y-156.024 Z-14.601
X-69.987 Y-156.011 Z-14.602
X-70.027 Y-156.005 Z-14.604
X-70.062 Y-156.004 Z-14.605
X-70.101 Y-156.007 Z-14.606
X-70.147 Y-156.016 Z-14.608
X-70.205 Y-156.034 Z-14.61
X-70.279 Y-156.064 Z-14.613
X-70.366 Y-156.111 Z-14.616
X-70.474 Y-156.183 Z-14.621
X-70.6 Y-156.284 Z-14.627
X-70.736 Y-156.414 Z-14.633
X-70.883 Y-156.579 Z-14.641
X-71.036 Y-156.779 Z-14.65
X-71.191 Y-157.016 Z-14.66
X-71.345 Y-157.293 Z-14.671
X-71.494 Y-157.607 Z-14.683
X-71.632 Y-157.955 Z-14.696
X-71.756 Y-158.338 Z-14.71
X-71.863 Y-158.754 Z-14.725
X-71.949 Y-159.195 Z-14.741
X-72.011 Y-159.659 Z-14.757
X-72.046 Y-160.138 Z-14.774
X-72.053 Y-160.624 Z-14.791
X-72.031 Y-161.108 Z-14.808
X-71.982 Y-161.583 Z-14.824
X-71.906 Y-162.042 Z-14.841
X-71.807 Y-162.477 Z-14.856
X-71.688 Y-162.881 Z-14.871
X-71.553 Y-163.252 Z-14.885
X-71.406 Y-163.584 Z-14.897
X-71.251 Y-163.881 Z-14.909
X-71.093 Y-164.137 Z-14.919
X-70.936 Y-164.355 Z-14.929
X-70.785 Y-164.534 Z-14.937
X-70.644 Y-164.676 Z-14.944
X-70.512 Y-164.788 Z-14.95
X-70.398 Y-164.869 Z-14.955
X-70.305 Y-164.923 Z-14.959
X-70.225 Y-164.959 Z-14.962
X-70.162 Y-164.98 Z-14.964
X-70.114 Y-164.991 Z-14.966
X-70.067 Y-164.996 Z-14.967
X-70.017 Y-164.993 Z-14.969
X-69.973 Y-164.986 Z-14.971
X-69.922 Y-164.972 Z-14.973
X-69.852 Y-164.945 Z-14.975
X-69.765 Y-164.901 Z-14.979
X-69.662 Y-164.835 Z-14.983
X-69.542 Y-164.743 Z-14.988
X-69.408 Y-164.621 Z-14.995
X-69.263 Y-164.463 Z-15.002
X-69.111 Y-164.272 Z-15.011
X-68.955 Y-164.042 Z-15.02
X-68.801 Y-163.776 Z-15.031
X-68.651 Y-163.472 Z-15.043
X-68.511 Y-163.131 Z-15.056
X-68.382 Y-162.755 Z-15.07
X-68.271 Y-162.347 Z-15.084
X-68.18 Y-161.911 Z-15.1
X-68.112 Y-161.452 Z-15.116
X-68.07 Y-160.977 Z-15.133
X-68.056 Y-160.492 Z-15.15
X-68.071 Y-160.006 Z-15.167
X-68.114 Y-159.527 Z-15.183
X-68.184 Y-159.065 Z-15.2
X-68.278 Y-158.624 Z-15.216
X-68.393 Y-158.213 Z-15.23
X-68.525 Y-157.832 Z-15.244
X-68.669 Y-157.489 Z-15.257
X-68.822 Y-157.185 Z-15.269
X-68.979 Y-156.921 Z-15.28
X-69.136 Y-156.694 Z-15.29
X-69.291 Y-156.504 Z-15.298
X-69.435 Y-156.353 Z-15.306
X-69.566 Y-156.236 Z-15.312
X-69.685 Y-156.149 Z-15.317
X-69.785 Y-156.088 Z-15.321
X-69.869 Y-156.048 Z-15.324
X-69.936 Y-156.024 Z-15.327
X-69.987 Y-156.011 Z-15.329
X-70.027 Y-156.005 Z-15.33
X-70.062 Y-156.004 Z-15.331
X-70.101 Y-156.007 Z-15.333
X-70.147 Y-156.016 Z-15.334
X-70.205 Y-156.034 Z-15.336
X-70.279 Y-156.064 Z-15.339
X-70.366 Y-156.111 Z-15.343
X-70.474 Y-156.183 Z-15.347
X-70.6 Y-156.284 Z-15.353
X-70.736 Y-156.414 Z-15.359
X-70.883 Y-156.579 Z-15.367
X-71.036 Y-156.779 Z-15.376
X-71.191 Y-157.016 Z-15.386
X-71.345 Y-157.293 Z-15.397
X-71.494 Y-157.607 Z-15.409
X-71.632 Y-157.955 Z-15.422
X-71.756 Y-158.338 Z-15.436
X-71.863 Y-158.754 Z-15.451
X-71.949 Y-159.195 Z-15.467
X-72.011 Y-159.659 Z-15.483
X-72.046 Y-160.138 Z-15.5
X-72.053 Y-160.624 Z-15.517
X-72.031 Y-161.108 Z-15.534
X-71.982 Y-161.583 Z-15.55
X-71.906 Y-162.042 Z-15.567
X-71.807 Y-162.477 Z-15.582
X-71.688 Y-162.881 Z-15.597
X-71.553 Y-163.252 Z-15.611
X-71.406 Y-163.584 Z-15.623
X-71.251 Y-163.881 Z-15.635
X-71.093 Y-164.137 Z-15.646
X-70.936 Y-164.355 Z-15.655
X-70.785 Y-164.534 Z-15.663
X-70.644 Y-164.676 Z-15.67
X-70.512 Y-164.788 Z-15.676
X-70.398 Y-164.869 Z-15.681
X-70.305 Y-164.923 Z-15.685
X-70.225 Y-164.959 Z-15.688
X-70.162 Y-164.98 Z-15.69
X-70.114 Y-164.991 Z-15.692
X-70.067 Y-164.996 Z-15.694
X-70.017 Y-164.993 Z-15.695
X-69.973 Y-164.986 Z-15.697
X-69.922 Y-164.972 Z-15.699
X-69.852 Y-164.945 Z-15.701
X-69.765 Y-164.901 Z-15.705
X-69.662 Y-164.835 Z-15.709
X-69.542 Y-164.743 Z-15.714
X-69.408 Y-164.621 Z-15.721
X-69.263 Y-164.463 Z-15.728
X-69.111 Y-164.272 Z-15.737
X-68.955 Y-164.042 Z-15.746
X-68.801 Y-163.776 Z-15.757
X-68.651 Y-163.472 Z-15.769
X-68.511 Y-163.131 Z-15.782
X-68.382 Y-162.755 Z-15.796
X-68.271 Y-162.347 Z-15.81
X-68.18 Y-161.911 Z-15.826
X-68.112 Y-161.452 Z-15.842
X-68.07 Y-160.977 Z-15.859
X-68.056 Y-160.492 Z-15.876
X-68.071 Y-160.006 Z-15.893
X-68.114 Y-159.527 Z-15.91
X-68.184 Y-159.065 Z-15.926
X-68.278 Y-158.624 Z-15.942
X-68.393 Y-158.213 Z-15.957
X-68.525 Y-157.832 Z-15.971
X-68.669 Y-157.489 Z-15.984
X-68.822 Y-157.185 Z-15.995
X-68.979 Y-156.921 Z-16.006
X-69.136 Y-156.694 Z-16.016
X-69.291 Y-156.504 Z-16.024
X-69.435 Y-156.353 Z-16.032
X-69.566 Y-156.236 Z-16.038
X-69.685 Y-156.149 Z-16.043
X-69.785 Y-156.088 Z-16.047
X-69.869 Y-156.048 Z-16.05
X-69.936 Y-156.024 Z-16.053
X-69.987 Y-156.011 Z-16.055
X-70.027 Y-156.005 Z-16.056
X-70.062 Y-156.004 Z-16.057
X-70.101 Y-156.007 Z-16.059
X-70.147 Y-156.016 Z-16.06
X-70.205 Y-156.034 Z-16.062
X-70.279 Y-156.064 Z-16.065
X-70.366 Y-156.111 Z-16.069
X-70.474 Y-156.183 Z-16.073
X-70.6 Y-156.284 Z-16.079
X-70.736 Y-156.414 Z-16.085
X-70.883 Y-156.579 Z-16.093
X-71.036 Y-156.779 Z-16.102
X-71.191 Y-157.016 Z-16.112
X-71.345 Y-157.293 Z-16.123
X-71.494 Y-157.607 Z-16.135
X-71.632 Y-157.955 Z-16.148
X-71.756 Y-158.338 Z-16.162
X-71.863 Y-158.754 Z-16.177
X-71.949 Y-159.195 Z-16.193
X-72.011 Y-159.659 Z-16.209
X-72.046 Y-160.138 Z-16.226
X-72.053 Y-160.624 Z-16.243
X-72.031 Y-161.108 Z-16.26
X-71.982 Y-161.583 Z-16.277
X-71.906 Y-162.042 Z-16.293
X-71.807 Y-162.477 Z-16.308
X-71.688 Y-162.881 Z-16.323
X-71.553 Y-163.252 Z-16.337
X-71.406 Y-163.584 Z-16.349
X-71.251 Y-163.881 Z-16.361
X-71.093 Y-164.137 Z-16.372
X-70.936 Y-164.355 Z-16.381
X-70.785 Y-164.534 Z-16.389
X-70.644 Y-164.676 Z-16.396
X-70.512 Y-164.788 Z-16.402
X-70.398 Y-164.869 Z-16.407
X-70.305 Y-164.923 Z-16.411
X-70.225 Y-164.959 Z-16.414
X-70.162 Y-164.98 Z-16.416
X-70.114 Y-164.991 Z-16.418
X-70.067 Y-164.996 Z-16.42
X-70.017 Y-164.993 Z-16.421
X-69.973 Y-164.986 Z-16.423
X-69.922 Y-164.972 Z-16.425
X-69.852 Y-164.945 Z-16.427
X-69.765 Y-164.901 Z-16.431
X-69.662 Y-164.835 Z-16.435
X-69.542 Y-164.743 Z-16.44
X-69.408 Y-164.621 Z-16.447
X-69.263 Y-164.463 Z-16.454
X-69.111 Y-164.272 Z-16.463
X-68.955 Y-164.042 Z-16.472
X-68.801 Y-163.776 Z-16.483
X-68.651 Y-163.472 Z-16.495
X-68.511 Y-163.131 Z-16.508
X-68.382 Y-162.755 Z-16.522
X-68.271 Y-162.347 Z-16.537
X-68.18 Y-161.911 Z-16.552
X-68.112 Y-161.452 Z-16.568
X-68.07 Y-160.977 Z-16.585
X-68.056 Y-160.492 Z-16.602
X-68.071 Y-160.006 Z-16.619
X-68.114 Y-159.527 Z-16.636
X-68.184 Y-159.065 Z-16.652
X-68.278 Y-158.624 Z-16.668
X-68.393 Y-158.213 Z-16.683
X-68.525 Y-157.832 Z-16.697
X-68.669 Y-157.489 Z-16.71
X-68.822 Y-157.185 Z-16.722
X-68.979 Y-156.921 Z-16.732
X-69.136 Y-156.694 Z-16.742
X-69.291 Y-156.504 Z-16.751
X-69.435 Y-156.353 Z-16.758
X-69.566 Y-156.236 Z-16.764
X-69.685 Y-156.149 Z-16.769
X-69.785 Y-156.088 Z-16.773
X-69.869 Y-156.048 Z-16.776
X-69.936 Y-156.024 Z-16.779
X-69.987 Y-156.011 Z-16.781
X-70.027 Y-156.005 Z-16.782
X-70.062 Y-156.004 Z-16.783
X-70.101 Y-156.007 Z-16.785
X-70.147 Y-156.016 Z-16.786
X-70.205 Y-156.034 Z-16.789
X-70.279 Y-156.064 Z-16.791
X-70.366 Y-156.111 Z-16.795
X-70.474 Y-156.183 Z-16.799
X-70.6 Y-156.284 Z-16.805
X-70.736 Y-156.414 Z-16.811
X-70.883 Y-156.579 Z-16.819
X-71.036 Y-156.779 Z-16.828
X-71.191 Y-157.016 Z-16.838
X-71.345 Y-157.293 Z-16.849
X-71.494 Y-157.607 Z-16.861
X-71.632 Y-157.955 Z-16.874
X-71.756 Y-158.338 Z-16.888
X-71.863 Y-158.754 Z-16.903
X-71.949 Y-159.195 Z-16.919
X-72.011 Y-159.659 Z-16.935
X-72.046 Y-160.138 Z-16.952
X-72.053 Y-160.624 Z-16.969
X-72.031 Y-161.108 Z-16.986
X-71.982 Y-161.583 Z-17.003
X-71.906 Y-162.042 Z-17.019
X-71.807 Y-162.477 Z-17.034
X-71.688 Y-162.881 Z-17.049
X-71.553 Y-163.252 Z-17.063
X-71.406 Y-163.584 Z-17.076
X-71.251 Y-163.881 Z-17.087
X-71.093 Y-164.137 Z-17.098
X-70.936 Y-164.355 Z-17.107
X-70.785 Y-164.534 Z-17.115
X-70.644 Y-164.676 Z-17.122
X-70.512 Y-164.788 Z-17.128
X-70.398 Y-164.869 Z-17.133
X-70.305 Y-164.923 Z-17.137
X-70.225 Y-164.959 Z-17.14
X-70.162 Y-164.98 Z-17.142
X-70.114 Y-164.991 Z-17.144
X-70.067 Y-164.996 Z-17.146
X-70.017 Y-164.993 Z-17.148
X-69.973 Y-164.986 Z-17.149
X-69.922 Y-164.972 Z-17.151
X-69.852 Y-164.945 Z-17.154
X-69.765 Y-164.901 Z-17.157
X-69.662 Y-164.835 Z-17.161
X-69.542 Y-164.743 Z-17.167
X-69.408 Y-164.621 Z-17.173
X-69.263 Y-164.463 Z-17.18
X-69.111 Y-164.272 Z-17.189
X-68.955 Y-164.042 Z-17.199
X-68.801 Y-163.776 Z-17.209
X-68.651 Y-163.472 Z-17.221
X-68.511 Y-163.131 Z-17.234
X-68.382 Y-162.755 Z-17.248
X-68.271 Y-162.347 Z-17.263
X-68.18 Y-161.911 Z-17.278
X-68.112 Y-161.452 Z-17.294
X-68.07 Y-160.977 Z-17.311
X-68.056 Y-160.492 Z-17.328
X-68.071 Y-160.006 Z-17.345
X-68.114 Y-159.527 Z-17.362
X-68.184 Y-159.065 Z-17.378
X-68.278 Y-158.624 Z-17.394
X-68.393 Y-158.213 Z-17.409
X-68.525 Y-157.832 Z-17.423
X-68.669 Y-157.489 Z-17.436
X-68.822 Y-157.185 Z-17.448
X-68.979 Y-156.921 Z-17.458
X-69.136 Y-156.694 Z-17.468
X-69.291 Y-156.504 Z-17.477
X-69.435 Y-156.353 Z-17.484
X-69.566 Y-156.236 Z-17.49
X-69.685 Y-156.149 Z-17.495
X-69.785 Y-156.088 Z-17.499
X-69.869 Y-156.048 Z-17.503
X-69.936 Y-156.024 Z-17.505
X-69.987 Y-156.011 Z-17.507
X-70.027 Y-156.005 Z-17.508
X-70.062 Y-156.004 Z-17.509
X-70.101 Y-156.007 Z-17.511
X-70.147 Y-156.016 Z-17.513
X-70.205 Y-156.034 Z-17.515
X-70.279 Y-156.064 Z-17.517
X-70.366 Y-156.111 Z-17.521
X-70.474 Y-156.183 Z-17.525
X-70.6 Y-156.284 Z-17.531
X-70.736 Y-156.414 Z-17.538
X-70.883 Y-156.579 Z-17.545
X-71.036 Y-156.779 Z-17.554
X-71.191 Y-157.016 Z-17.564
X-71.345 Y-157.293 Z-17.575
X-71.494 Y-157.607 Z-17.587
X-71.632 Y-157.955 Z-17.6
X-71.756 Y-158.338 Z-17.614
X-71.863 Y-158.754 Z-17.629
X-71.949 Y-159.195 Z-17.645
X-72.011 Y-159.659 Z-17.661
X-72.046 Y-160.138 Z-17.678
X-72.053 Y-160.624 Z-17.695
X-72.031 Y-161.108 Z-17.712
X-71.982 Y-161.583 Z-17.729
X-71.906 Y-162.042 Z-17.745
X-71.807 Y-162.477 Z-17.761
X-71.688 Y-162.881 Z-17.775
X-71.553 Y-163.252 Z-17.789
X-71.406 Y-163.584 Z-17.802
X-71.251 Y-163.881 Z-17.813
X-71.093 Y-164.137 Z-17.824
X-70.936 Y-164.355 Z-17.833
X-70.785 Y-164.534 Z-17.841
X-70.644 Y-164.676 Z-17.848
X-70.512 Y-164.788 Z-17.855
X-70.398 Y-164.869 Z-17.859
X-70.305 Y-164.923 Z-17.863
X-70.225 Y-164.959 Z-17.866
X-70.162 Y-164.98 Z-17.869
X-70.114 Y-164.991 Z-17.87
X-70.067 Y-164.996 Z-17.872
X-70.017 Y-164.993 Z-17.874
X-69.973 Y-164.986 Z-17.875
X-69.922 Y-164.972 Z-17.877
X-69.852 Y-164.945 Z-17.88
X-69.765 Y-164.901 Z-17.883
X-69.662 Y-164.835 Z-17.887
X-69.542 Y-164.743 Z-17.893
X-69.408 Y-164.621 Z-17.899
X-69.263 Y-164.463 Z-17.906
X-69.111 Y-164.272 Z-17.915
X-68.955 Y-164.042 Z-17.925
X-68.801 Y-163.776 Z-17.935
X-68.651 Y-163.472 Z-17.947
X-68.511 Y-163.131 Z-17.96
X-68.382 Y-162.755 Z-17.974
X-68.271 Y-162.347 Z-17.989
X-68.18 Y-161.911 Z-18.004
X-68.112 Y-161.452 Z-18.021
X-68.07 Y-160.977 Z-18.037
X-68.056 Y-160.492 Z-18.054
X-68.071 Y-160.006 Z-18.071
X-68.114 Y-159.527 Z-18.088
X-68.184 Y-159.065 Z-18.104
X-68.278 Y-158.624 Z-18.12
X-68.393 Y-158.213 Z-18.135
X-68.525 Y-157.832 Z-18.149
X-68.669 Y-157.489 Z-18.162
X-68.822 Y-157.185 Z-18.174
X-68.979 Y-156.921 Z-18.185
X-69.136 Y-156.694 Z-18.194
X-69.291 Y-156.504 Z-18.203
X-69.435 Y-156.353 Z-18.21
X-69.566 Y-156.236 Z-18.216
X-69.685 Y-156.149 Z-18.221
X-69.785 Y-156.088 Z-18.225
X-69.869 Y-156.048 Z-18.229
X-69.936 Y-156.024 Z-18.231
X-69.987 Y-156.011 Z-18.233
X-70.027 Y-156.005 Z-18.234
X-70.062 Y-156.004 Z-18.236
X-70.101 Y-156.007 Z-18.237
X-70.147 Y-156.016 Z-18.239
X-70.205 Y-156.034 Z-18.241
X-70.279 Y-156.064 Z-18.243
X-70.366 Y-156.111 Z-18.247
X-70.474 Y-156.183 Z-18.251
X-70.6 Y-156.284 Z-18.257
X-70.736 Y-156.414 Z-18.264
X-70.883 Y-156.579 Z-18.271
X-71.036 Y-156.779 Z-18.28
X-71.191 Y-157.016 Z-18.29
X-71.345 Y-157.293 Z-18.301
X-71.494 Y-157.607 Z-18.313
X-71.632 Y-157.955 Z-18.326
X-71.756 Y-158.338 Z-18.34
X-71.863 Y-158.754 Z-18.355
X-71.949 Y-159.195 Z-18.371
X-72.011 Y-159.659 Z-18.387
X-72.046 Y-160.138 Z-18.404
X-72.053 Y-160.624 Z-18.421
X-72.031 Y-161.108 Z-18.438
X-71.982 Y-161.583 Z-18.455
X-71.906 Y-162.042 Z-18.471
X-71.807 Y-162.477 Z-18.487
X-71.688 Y-162.881 Z-18.501
X-71.553 Y-163.252 Z-18.515
X-71.406 Y-163.584 Z-18.528
X-71.251 Y-163.881 Z-18.54
X-71.093 Y-164.137 Z-18.55
X-70.936 Y-164.355 Z-18.559
X-70.785 Y-164.534 Z-18.568
X-70.644 Y-164.676 Z-18.575
X-70.512 Y-164.788 Z-18.581
X-70.398 Y-164.869 Z-18.586
X-70.305 Y-164.923 Z-18.589
X-70.225 Y-164.959 Z-18.592
X-70.162 Y-164.98 Z-18.595
X-70.114 Y-164.991 Z-18.596
X-70.067 Y-164.996 Z-18.598
X-70.017 Y-164.993 Z-18.6
X-69.973 Y-164.986 Z-18.601
X-69.922 Y-164.972 Z-18.603
X-69.852 Y-164.945 Z-18.606
X-69.765 Y-164.901 Z-18.609
X-69.662 Y-164.835 Z-18.613
X-69.542 Y-164.743 Z-18.619
X-69.408 Y-164.621 Z-18.625
X-69.263 Y-164.463 Z-18.633
X-69.111 Y-164.272 Z-18.641
X-68.955 Y-164.042 Z-18.651
X-68.801 Y-163.776 Z-18.662
X-68.651 Y-163.472 Z-18.673
X-68.511 Y-163.131 Z-18.686
X-68.382 Y-162.755 Z-18.7
X-68.271 Y-162.347 Z-18.715
X-68.18 Y-161.911 Z-18.73
X-68.112 Y-161.452 Z-18.747
X-68.07 Y-160.977 Z-18.763
X-68.056 Y-160.492 Z-18.78
X-68.071 Y-160.006 Z-18.797
X-68.114 Y-159.527 Z-18.814
X-68.184 Y-159.065 Z-18.83
X-68.278 Y-158.624 Z-18.846
X-68.393 Y-158.213 Z-18.861
X-68.525 Y-157.832 Z-18.875
X-68.669 Y-157.489 Z-18.888
X-68.822 Y-157.185 Z-18.9
X-68.979 Y-156.921 Z-18.911
X-69.136 Y-156.694 Z-18.92
X-69.291 Y-156.504 Z-18.929
X-69.435 Y-156.353 Z-18.936
X-69.566 Y-156.236 Z-18.942
X-69.685 Y-156.149 Z-18.947
X-69.785 Y-156.088 Z-18.951
X-69.869 Y-156.048 Z-18.955
X-69.936 Y-156.024 Z-18.957
X-69.987 Y-156.011 Z-18.959
X-70.027 Y-156.005 Z-18.96
X-70.062 Y-156.004 Z-18.962
X-70.101 Y-156.007 Z-18.963
X-70.147 Y-156.016 Z-18.965
X-70.205 Y-156.034 Z-18.967
X-70.279 Y-156.064 Z-18.97
X-70.366 Y-156.111 Z-18.973
X-70.474 Y-156.183 Z-18.978
X-70.6 Y-156.284 Z-18.983
X-70.736 Y-156.414 Z-18.99
X-70.883 Y-156.579 Z-18.998
X-71.036 Y-156.779 Z-19.006
X-71.191 Y-157.016 Z-19.016
X-71.345 Y-157.293 Z-19.027
X-71.494 Y-157.607 Z-19.039
X-71.632 Y-157.955 Z-19.052
X-71.756 Y-158.338 Z-19.067
X-71.863 Y-158.754 Z-19.082
X-71.949 Y-159.195 Z-19.097
X-72.011 Y-159.659 Z-19.114
X-72.046 Y-160.138 Z-19.13
X-72.053 Y-160.624 Z-19.147
X-72.031 Y-161.108 Z-19.164
X-71.982 Y-161.583 Z-19.181
X-71.906 Y-162.042 Z-19.197
