(1001)
G90 G94
G17
G21
(When using Fusion 360 for Personal Use, the feedrate of)
(rapid moves is reduced to match the feedrate of cutting)
(moves, which can increase machining time. Unrestricted rapid)
(moves are available with a Fusion 360 Subscription.)

(2D Adaptive25)
S6000 M3
G54
G0 X38.881 Y25.138
Z5
G1 Z3 F1000
Z-16.8
Z-17.4
X38.883 Y25.146 Z-17.494
X38.889 Y25.167 Z-17.585
X38.898 Y25.202 Z-17.672
X38.91 Y25.249 Z-17.753
X38.925 Y25.309 Z-17.824
X38.943 Y25.378 Z-17.885
X38.963 Y25.456 Z-17.935
X38.984 Y25.54 Z-17.971
X39.007 Y25.629 Z-17.993
X39.03 Y25.72 Z-18
G3 X39.5 Y28.986 I-14.839 J3.801
G1 Y29.298
X39.498 Y29.335
X39.402 Y29.455
X39.273 Y29.59
X39.105 Y29.741
X38.887 Y29.907
X38.608 Y30.086
X38.249 Y30.278
X37.783 Y30.481
X37.162 Y30.693
X36.303 Y30.912
X35.43 Y31.062
X34.55 Y31.165
X33.666 Y31.236
X32.782 Y31.286
X31.896 Y31.32
X31.01 Y31.345
X30.124 Y31.361
X29.238 Y31.373
X28.352 Y31.381
X27.466 Y31.387
X26.906 Y31.389
X26.594 Y31.355
X26.297 Y31.253
X26.03 Y31.086
X25.807 Y30.864
X25.639 Y30.598
X25.535 Y30.302
X25.5 Y29.989
G3 X26.067 Y29.411 I0.6 J0.021
G1 X38.868 Y28.72
G3 X39.5 Y29.298 I0.032 J0.599
G1 Y30.102
X39.493 Y30.252
X39.431 Y30.416
X39.349 Y30.589
X39.234 Y30.79
X39.099 Y30.987
X38.922 Y31.205
X38.692 Y31.447
X38.435 Y31.676
X38.1 Y31.93
X37.71 Y32.179
X37.213 Y32.443
X36.604 Y32.706
X35.817 Y32.972
X34.958 Y33.189
X34.086 Y33.349
X33.208 Y33.469
X32.327 Y33.557
X31.443 Y33.622
X30.558 Y33.669
X29.673 Y33.705
X28.787 Y33.729
X28.082 Y33.712
X27.562 Y33.657
X27.087 Y33.568
X26.702 Y33.464
X26.33 Y33.33
X26.322 Y33.326
X26.047 Y33.162
X25.817 Y32.939
X25.644 Y32.67
X25.537 Y32.369
X25.5 Y32.051
G3 X26.009 Y31.479 I0.6 J0.021
G1 X38.81 Y29.53
G3 X39.5 Y30.102 I0.09 J0.593
G1 Y31.4
X39.493 Y31.55
X39.461 Y31.726
X39.413 Y31.91
X39.342 Y32.116
X39.244 Y32.339
X39.118 Y32.57
X38.95 Y32.83
X38.754 Y33.083
X38.493 Y33.372
X38.197 Y33.649
X37.818 Y33.952
X37.38 Y34.246
X36.829 Y34.557
X36.159 Y34.866
X35.327 Y35.171
X34.474 Y35.409
X33.607 Y35.594
X32.733 Y35.737
X31.853 Y35.847
X30.971 Y35.932
X30.087 Y35.987
X29.201 Y36
X28.329 Y35.954
X27.666 Y35.866
X27.123 Y35.748
X26.699 Y35.621
X26.306 Y35.467
X26.135 Y35.383
X25.868 Y35.213
X25.646 Y34.987
X25.48 Y34.718
X25.38 Y34.417
X25.349 Y34.102
X25.39 Y33.789
X25.433 Y33.613
X25.47 Y33.411
X25.49 Y33.21
X25.497 Y33.009
X25.5 Y32.406
Y32.051
G3 X26.069 Y31.473 I0.6 J0.021
G1 X38.87 Y30.822
G3 X39.5 Y31.4 I0.03 J0.599
G1 Y32.406
X39.503 Y33.009
X39.505 Y33.07
X39.503 Y33.22
X39.484 Y33.405
X39.449 Y33.597
X39.389 Y33.821
X39.309 Y34.046
X39.193 Y34.305
X39.048 Y34.568
X38.859 Y34.856
X38.624 Y35.155
X38.338 Y35.467
X37.98 Y35.798
X37.561 Y36.127
X37.055 Y36.464
X36.429 Y36.81
X35.668 Y37.155
X34.834 Y37.455
X33.981 Y37.695
X33.116 Y37.888
X32.243 Y38.038
X31.364 Y38.148
X30.48 Y38.214
X29.594 Y38.233
X28.709 Y38.197
X27.91 Y38.105
X27.267 Y37.978
X26.746 Y37.83
X26.314 Y37.67
X25.95 Y37.5
X25.615 Y37.31
X25.327 Y37.114
X25.067 Y36.905
X24.947 Y36.792
X24.751 Y36.562
X24.609 Y36.294
X24.528 Y36.003
X24.511 Y35.7
X24.56 Y35.401
X24.672 Y35.12
X24.842 Y34.869
G3 X25.191 Y34.681 I0.444 J0.404
G1 X25.567 Y34.621
X38.813 Y32.519
G3 X39.505 Y33.07 I0.094 J0.593
G1 X39.51 Y33.21
X39.53 Y33.411
X39.567 Y33.613
X39.617 Y33.814
X39.659 Y33.96
X39.679 Y34.015
X39.724 Y34.125
X39.773 Y34.267
X39.805 Y34.414
X39.825 Y34.575
X39.833 Y34.751
X39.826 Y34.948
X39.801 Y35.168
X39.755 Y35.402
X39.681 Y35.664
X39.58 Y35.934
X39.44 Y36.235
X39.267 Y36.54
X39.036 Y36.879
X38.766 Y37.215
X38.417 Y37.583
X38.013 Y37.947
X37.52 Y38.324
X36.917 Y38.712
X36.202 Y39.095
X35.389 Y39.45
X34.553 Y39.742
X33.699 Y39.979
X32.833 Y40.166
X31.958 Y40.307
X31.077 Y40.401
X30.192 Y40.448
X29.306 Y40.443
X28.422 Y40.379
X27.593 Y40.256
X26.881 Y40.091
X26.24 Y39.887
X25.665 Y39.651
X25.192 Y39.411
X24.811 Y39.179
X24.468 Y38.929
X24.193 Y38.692
X23.935 Y38.431
X23.727 Y38.184
X23.536 Y37.917
X23.38 Y37.657
X23.305 Y37.503
X23.198 Y37.209
X23.16 Y36.899
X23.191 Y36.587
X23.291 Y36.291
X23.454 Y36.024
X23.673 Y35.8
X23.936 Y35.63
X23.994 Y35.609
X24.054 Y35.597
X24.712 Y35.524
X39.034 Y33.928
X39.323 Y33.896
G3 X39.724 Y34.125 I0.043 J0.389
G1 X39.761 Y34.216
X39.861 Y34.42
X39.979 Y34.618
X40.062 Y34.748
X40.116 Y34.819
X40.161 Y34.872
X40.252 Y34.99
X40.331 Y35.118
X40.397 Y35.252
X40.454 Y35.398
X40.5 Y35.558
X40.54 Y35.744
X40.565 Y35.945
X40.575 Y36.175
X40.567 Y36.415
X40.535 Y36.691
X40.479 Y36.973
X40.388 Y37.295
X40.268 Y37.616
X40.099 Y37.979
X39.894 Y38.341
X39.625 Y38.735
X39.298 Y39.142
X38.907 Y39.555
X38.414 Y39.998
X37.866 Y40.417
X37.202 Y40.844
X36.42 Y41.263
X35.608 Y41.618
X34.774 Y41.916
X33.923 Y42.161
X33.059 Y42.358
X32.185 Y42.508
X31.305 Y42.61
X30.42 Y42.664
X29.534 Y42.666
X28.65 Y42.616
X27.77 Y42.507
X26.901 Y42.335
X26.089 Y42.109
X25.387 Y41.851
X24.757 Y41.56
X24.185 Y41.238
X23.681 Y40.899
X23.236 Y40.544
X22.865 Y40.195
X22.542 Y39.839
X22.301 Y39.526
X22.085 Y39.194
X21.925 Y38.897
X21.783 Y38.575
X21.682 Y38.285
X21.602 Y37.978
X21.551 Y37.687
X21.524 Y37.406
X21.522 Y37.254
X21.55 Y36.977
X21.638 Y36.712
X21.783 Y36.474
X21.976 Y36.274
X22.21 Y36.121
X22.471 Y36.025
X22.748 Y35.988
X22.859 Y35.972
X23.642 Y35.912
X39.431 Y34.697
X39.672 Y34.679
G3 X40.161 Y34.872 I0.046 J0.598
G1 X40.288 Y35.021
X40.465 Y35.194
X40.494 Y35.222
X40.666 Y35.373
X40.867 Y35.513
X40.991 Y35.599
X41.096 Y35.706
X41.19 Y35.822
X41.279 Y35.955
X41.361 Y36.1
X41.44 Y36.274
X41.509 Y36.461
X41.569 Y36.679
X41.614 Y36.915
X41.643 Y37.176
X41.651 Y37.466
X41.636 Y37.77
X41.59 Y38.116
X41.514 Y38.465
X41.397 Y38.854
X41.239 Y39.259
X41.032 Y39.685
X40.759 Y40.147
X40.441 Y40.597
X40.042 Y41.077
X39.547 Y41.583
X38.998 Y42.06
X38.336 Y42.549
X37.583 Y43.016
X36.797 Y43.423
X35.984 Y43.776
X35.15 Y44.077
X34.301 Y44.33
X33.439 Y44.536
X32.568 Y44.695
X31.689 Y44.809
X30.805 Y44.876
X29.919 Y44.896
X29.033 Y44.869
X28.151 Y44.793
X27.274 Y44.664
X26.407 Y44.479
X25.556 Y44.234
X24.724 Y43.928
X23.952 Y43.571
X23.249 Y43.175
X22.614 Y42.746
X22.061 Y42.304
X21.588 Y41.86
X21.176 Y41.405
X20.82 Y40.943
X20.515 Y40.472
X20.262 Y40.004
X20.067 Y39.56
X19.918 Y39.133
X19.822 Y38.763
X19.757 Y38.391
X19.726 Y38.064
X19.722 Y37.733
X19.742 Y37.432
X19.785 Y37.142
X19.799 Y37.084
X19.903 Y36.789
X20.07 Y36.525
X20.291 Y36.304
X20.556 Y36.138
X20.852 Y36.035
X21.162 Y36
X22.144
X22.748 Y35.988
X23.533 Y35.964
X40.095 Y35.454
X40.561 Y35.44
G3 X40.867 Y35.513 I0.018 J0.6
G1 X41.069 Y35.632
X41.27 Y35.732
X41.471 Y35.816
X41.595 Y35.856
X41.735 Y35.908
X41.868 Y35.979
X41.992 Y36.062
X42.109 Y36.157
X42.226 Y36.27
X42.339 Y36.398
X42.455 Y36.553
X42.564 Y36.727
X42.667 Y36.925
X42.764 Y37.152
X42.845 Y37.398
X42.915 Y37.682
X42.963 Y37.98
X42.99 Y38.317
Y38.681
X42.958 Y39.066
X42.889 Y39.494
X42.781 Y39.932
X42.624 Y40.4
X42.406 Y40.914
X42.14 Y41.422
X41.803 Y41.954
X41.379 Y42.521
X40.88 Y43.085
X40.305 Y43.639
X39.619 Y44.201
X38.891 Y44.705
X38.128 Y45.157
X37.338 Y45.557
X36.525 Y45.91
X35.693 Y46.216
X34.847 Y46.477
X33.987 Y46.693
X33.118 Y46.865
X32.716 Y46.924
X32.469 Y46.939
X32.223 Y46.909
X31.987 Y46.837
X31.766 Y46.725
X31.204 Y46.371
X30.6 Y45.997
X30.398 Y45.901
X30.197 Y45.81
X29.996 Y45.728
X29.287 Y45.48
X28.698 Y45.279
X28.586 Y45.256
X28.184 Y45.179
X27.982 Y45.148
X26.976 Y45.035
X26.774 Y45.014
X26.17 Y45
X24.358
X23.864 Y44.975
X23.504 Y44.928
X23.081 Y44.838
X22.657 Y44.711
X22.191 Y44.529
X21.702 Y44.292
X21.222 Y44.009
X20.741 Y43.671
X20.266 Y43.277
X19.814 Y42.836
X19.396 Y42.357
X19.021 Y41.85
X18.697 Y41.33
X18.424 Y40.801
X18.205 Y40.276
X18.036 Y39.759
X17.915 Y39.252
X17.845 Y38.807
X17.812 Y38.37
X17.815 Y38.004
X17.847 Y37.63
X17.9 Y37.313
X17.983 Y36.986
X17.995 Y36.95
X18.115 Y36.687
X18.288 Y36.454
X18.505 Y36.262
X18.756 Y36.119
X19.032 Y36.03
X19.32 Y36
X21.162
G3 X21.697 Y36.372 I-0.021 J0.6
G1 X21.733 Y36.462
X24.893 Y44.173
G3 X24.358 Y45 I-0.555 J0.227
G1 X22.949
X22.748 Y45.002
X22.345 Y45.013
X22.144 Y45.027
X21.877 Y45.078
X21.608 Y45.115
X21.391 Y45.128
X21.147 Y45.122
X20.887 Y45.095
X20.585 Y45.039
X20.278 Y44.956
X19.927 Y44.83
X19.574 Y44.67
X19.193 Y44.459
X18.793 Y44.194
X18.405 Y43.89
X18.009 Y43.523
X17.62 Y43.1
X17.251 Y42.629
X16.914 Y42.119
X16.617 Y41.58
X16.366 Y41.02
X16.165 Y40.456
X16.014 Y39.893
X15.912 Y39.339
X15.857 Y38.798
X15.847 Y38.336
X15.872 Y37.921
X15.926 Y37.536
X16.002 Y37.194
X16.067 Y36.986
X16.183 Y36.714
X16.355 Y36.473
X16.573 Y36.273
X16.829 Y36.124
X17.11 Y36.031
X17.404 Y36
X19.32
G3 X19.872 Y36.422 I-0.021 J0.6
G1 X19.886 Y36.464
X22.318 Y44.315
G3 X21.877 Y45.078 I-0.573 J0.178
G1 X21.741 Y45.104
X21.54 Y45.162
X21.339 Y45.236
X21.137 Y45.331
X20.936 Y45.444
X20.875 Y45.48
X20.833 Y45.51
X20.706 Y45.591
X20.57 Y45.655
X20.415 Y45.712
X20.242 Y45.761
X20.045 Y45.8
X19.823 Y45.826
X19.58 Y45.834
X19.312 Y45.822
X19.02 Y45.785
X18.706 Y45.719
X18.363 Y45.618
X18.013 Y45.483
X17.625 Y45.297
X17.242 Y45.074
X16.84 Y44.794
X16.425 Y44.452
X16.023 Y44.064
X15.637 Y43.624
X15.264 Y43.126
X14.919 Y42.576
X14.612 Y41.987
X14.349 Y41.366
X14.14 Y40.736
X13.987 Y40.109
X13.888 Y39.492
X13.842 Y38.903
X13.843 Y38.382
X13.879 Y37.941
X13.947 Y37.526
X14.033 Y37.176
X14.107 Y36.956
X14.227 Y36.691
X14.4 Y36.457
X14.617 Y36.264
X14.869 Y36.119
X15.146 Y36.03
X15.435 Y36
X17.404
G3 X17.946 Y36.393 I-0.021 J0.6
G1 X17.972 Y36.463
X21.026 Y44.806
X21.034 Y44.826
G3 X20.833 Y45.51 I-0.563 J0.206
G1 X20.735 Y45.58
X20.597 Y45.681
X20.533 Y45.735
X20.332 Y45.933
X20.198 Y46.084
X20.131 Y46.166
X20.035 Y46.281
X19.923 Y46.381
X19.802 Y46.471
X19.662 Y46.557
X19.506 Y46.637
X19.324 Y46.712
X19.123 Y46.777
X18.894 Y46.831
X18.641 Y46.87
X18.367 Y46.89
X18.059 Y46.887
X17.741 Y46.858
X17.379 Y46.796
X17.011 Y46.702
X16.614 Y46.566
X16.189 Y46.381
X15.77 Y46.156
X15.326 Y45.871
X14.866 Y45.52
X14.422 Y45.121
X13.988 Y44.662
X13.563 Y44.134
X13.162 Y43.546
X12.799 Y42.907
X12.482 Y42.23
X12.221 Y41.527
X12.02 Y40.819
X11.883 Y40.126
X11.804 Y39.452
X11.782 Y38.82
X11.807 Y38.272
X11.864 Y37.823
X11.952 Y37.4
X12.056 Y37.047
X12.113 Y36.898
X12.239 Y36.648
X12.413 Y36.427
X12.627 Y36.246
X12.873 Y36.111
X13.141 Y36.028
X13.42 Y36
X15.435
G3 X15.959 Y36.35 I-0.021 J0.6
G1 X16.01 Y36.46
X20.117 Y45.425
X20.184 Y45.573
G3 X20.131 Y46.166 I-0.545 J0.25
G1 X20.041 Y46.285
X19.929 Y46.464
X19.811 Y46.687
X19.728 Y46.863
X19.718 Y46.888
X19.659 Y47.026
X19.584 Y47.156
X19.496 Y47.278
X19.398 Y47.391
X19.279 Y47.506
X19.146 Y47.615
X18.983 Y47.729
X18.806 Y47.832
X18.595 Y47.933
X18.367 Y48.021
X18.108 Y48.098
X17.819 Y48.159
X17.51 Y48.198
X17.16 Y48.214
X16.799 Y48.202
X16.402 Y48.157
X15.969 Y48.071
X15.533 Y47.948
X15.06 Y47.773
X14.56 Y47.54
X14.068 Y47.261
X13.56 Y46.916
X13.038 Y46.497
X12.515 Y46.003
X12.019 Y45.453
X11.553 Y44.843
X11.114 Y44.163
X10.719 Y43.427
X10.38 Y42.651
X10.104 Y41.85
X9.897 Y41.041
X9.76 Y40.253
X9.694 Y39.523
X9.687 Y38.845
X9.727 Y38.266
X9.801 Y37.782
X9.902 Y37.351
X10.018 Y36.991
X10.069 Y36.866
X10.199 Y36.624
X10.373 Y36.411
X10.585 Y36.236
X10.827 Y36.107
X11.09 Y36.027
X11.363 Y36
X13.42
G3 X13.92 Y36.303 I-0.021 J0.6
G1 X14.007 Y36.454
X19.53 Y46.157
X19.67 Y46.403
G3 X19.718 Y46.888 I-0.521 J0.297
G1 X19.644 Y47.09
X19.588 Y47.291
X19.547 Y47.492
X19.527 Y47.609
X19.519 Y47.693
X19.499 Y47.842
X19.464 Y47.988
X19.413 Y48.129
X19.349 Y48.264
X19.272 Y48.395
X19.173 Y48.537
X19.059 Y48.676
X18.916 Y48.823
X18.755 Y48.965
X18.566 Y49.105
X18.348 Y49.242
X18.109 Y49.367
X17.828 Y49.485
X17.529 Y49.584
X17.194 Y49.666
X16.818 Y49.726
X16.429 Y49.756
X15.992 Y49.755
X15.52 Y49.717
X15.041 Y49.638
X14.52 Y49.509
X13.96 Y49.321
X13.4 Y49.082
X12.821 Y48.777
X12.218 Y48.396
X11.608 Y47.936
X11.006 Y47.403
X10.436 Y46.81
X9.886 Y46.136
X9.382 Y45.407
X8.936 Y44.641
X8.549 Y43.844
X8.221 Y43.021
X7.953 Y42.176
X7.749 Y41.314
X7.616 Y40.456
X7.555 Y39.645
X7.56 Y38.901
X7.612 Y38.291
X7.7 Y37.771
X7.811 Y37.332
X7.936 Y36.961
X7.987 Y36.845
X8.149 Y36.564
X8.372 Y36.327
X8.644 Y36.149
X8.949 Y36.038
X9.272 Y36
X11.363
G3 X11.838 Y36.261 I-0.021 J0.6
G1 X11.964 Y36.446
X19.19 Y46.998
X19.415 Y47.326
G3 X19.519 Y47.693 I-0.495 J0.339
G1 X19.503 Y47.894
X19.5 Y48.699
Y48.809
X19.493 Y48.959
X19.469 Y49.107
X19.433 Y49.253
X19.381 Y49.404
X19.311 Y49.564
X19.224 Y49.727
X19.111 Y49.903
X18.979 Y50.075
X18.816 Y50.257
X18.63 Y50.433
X18.413 Y50.607
X18.159 Y50.78
X17.884 Y50.936
X17.562 Y51.087
X17.208 Y51.218
X16.827 Y51.326
X16.395 Y51.412
X15.929 Y51.466
X15.437 Y51.483
X14.895 Y51.458
X14.311 Y51.384
X13.721 Y51.261
X13.092 Y51.075
X12.421 Y50.818
X11.723 Y50.483
X11.035 Y50.082
X10.351 Y49.606
X9.667 Y49.043
X9.029 Y48.427
X8.439 Y47.766
X7.898 Y47.065
X7.404 Y46.329
X6.961 Y45.561
X6.571 Y44.766
X6.233 Y43.947
X5.948 Y43.108
X5.718 Y42.252
X5.545 Y41.383
X5.433 Y40.504
X5.39 Y39.643
X5.414 Y38.858
X5.483 Y38.236
X5.588 Y37.694
X5.705 Y37.273
X5.851 Y36.875
X5.879 Y36.814
X6.044 Y36.542
X6.266 Y36.314
X6.534 Y36.143
X6.834 Y36.036
X7.15 Y36
X9.272
G3 X9.722 Y36.228 I-0.021 J0.6
G1 X9.886 Y36.436
X19.12 Y48.14
X19.371 Y48.459
G3 X19.5 Y48.809 I-0.471 J0.372
G1 Y50.217
X19.493 Y50.367
X19.472 Y50.516
X19.437 Y50.675
X19.384 Y50.844
X19.313 Y51.022
X19.218 Y51.214
X19.102 Y51.407
X18.954 Y51.614
X18.785 Y51.814
X18.576 Y52.024
X18.338 Y52.228
X18.065 Y52.426
X17.744 Y52.622
X17.4 Y52.796
X17.004 Y52.957
X16.555 Y53.1
X16.084 Y53.208
X15.56 Y53.285
X14.977 Y53.324
X14.369 Y53.315
X13.726 Y53.254
X13.023 Y53.129
X12.276 Y52.934
X11.511 Y52.667
X10.75 Y52.33
X9.971 Y51.908
X9.228 Y51.426
X8.522 Y50.89
X7.855 Y50.306
X7.228 Y49.68
X6.642 Y49.016
X6.098 Y48.316
X5.598 Y47.584
X5.143 Y46.823
X4.733 Y46.038
X4.368 Y45.231
X4.049 Y44.404
X3.776 Y43.561
X3.553 Y42.703
X3.383 Y41.834
X3.269 Y40.955
X3.213 Y40.071
X3.221 Y39.22
X3.289 Y38.468
X3.389 Y37.889
X3.509 Y37.42
X3.654 Y37
X3.724 Y36.84
X3.887 Y36.56
X4.11 Y36.325
X4.381 Y36.148
X4.685 Y36.037
X5.007 Y36
X7.15
G3 X7.584 Y36.208 I-0.021 J0.6
G1 X7.774 Y36.428
X19.107 Y49.559
X19.355 Y49.846
G3 X19.5 Y50.217 I-0.454 J0.392
G1 Y51.827
X19.493 Y51.976
X19.469 Y52.135
X19.428 Y52.313
X19.368 Y52.498
X19.287 Y52.698
X19.18 Y52.908
X19.048 Y53.124
X18.88 Y53.353
X18.687 Y53.577
X18.448 Y53.814
X18.182 Y54.038
X17.868 Y54.262
X17.503 Y54.48
X17.108 Y54.675
X16.648 Y54.858
X16.137 Y55.015
X15.598 Y55.134
X14.986 Y55.219
X14.306 Y55.258
X13.606 Y55.241
X12.854 Y55.163
X12.048 Y55.013
X11.197 Y54.782
X10.363 Y54.483
X9.554 Y54.121
X8.774 Y53.702
X8.024 Y53.229
X7.307 Y52.708
X6.623 Y52.144
X5.974 Y51.542
X5.36 Y50.903
X4.782 Y50.231
X4.242 Y49.529
X3.74 Y48.798
X3.278 Y48.042
X2.856 Y47.263
X2.474 Y46.463
X2.132 Y45.646
X1.831 Y44.812
X1.574 Y43.964
X1.36 Y43.104
X1.195 Y42.234
X1.08 Y41.355
X1.019 Y40.471
X1.015 Y39.585
X1.072 Y38.766
X1.17 Y38.113
X1.297 Y37.572
X1.437 Y37.136
X1.548 Y36.867
X1.677 Y36.624
X1.852 Y36.411
X2.064 Y36.237
X2.306 Y36.107
X2.569 Y36.027
X2.843 Y36
X5.007
G3 X5.429 Y36.195 I-0.021 J0.6
G1 X5.636 Y36.422
X19.099 Y51.175
X19.344 Y51.443
G3 X19.5 Y51.827 I-0.443 J0.404
G1 Y53.526
X19.493 Y53.676
X19.467 Y53.849
X19.424 Y54.034
X19.36 Y54.236
X19.273 Y54.449
X19.16 Y54.673
X19.015 Y54.91
X18.84 Y55.15
X18.621 Y55.405
X18.374 Y55.65
X18.071 Y55.906
X17.733 Y56.147
X17.341 Y56.382
X16.88 Y56.611
X16.39 Y56.806
X15.827 Y56.98
X15.188 Y57.122
X14.52 Y57.215
X13.786 Y57.258
X12.972 Y57.239
X12.101 Y57.15
X11.23 Y56.989
X10.373 Y56.762
X9.536 Y56.472
X8.72 Y56.126
X7.929 Y55.727
X7.163 Y55.281
X6.425 Y54.791
X5.714 Y54.262
X5.033 Y53.695
X4.383 Y53.093
X3.764 Y52.459
X3.179 Y51.793
X2.627 Y51.1
X2.109 Y50.381
X1.625 Y49.639
X1.176 Y48.875
X0.761 Y48.092
X0.383 Y47.291
X0.041 Y46.473
X-0.262 Y45.641
X-0.526 Y44.795
X-0.75 Y43.937
X-0.931 Y43.07
X-1.069 Y42.194
X-1.163 Y41.313
X-1.206 Y40.428
X-1.193 Y39.542
X-1.117 Y38.692
X-1.001 Y38.013
X-0.872 Y37.506
X-0.721 Y37.066
X-0.623 Y36.841
X-0.46 Y36.561
X-0.237 Y36.326
X0.034 Y36.148
X0.339 Y36.038
X0.661 Y36
X2.843
G3 X3.257 Y36.187 I-0.021 J0.6
G1 X3.477 Y36.418
X19.094 Y52.88
X19.336 Y53.134
G3 X19.5 Y53.526 I-0.435 J0.413
G1 Y55.246
X19.491 Y55.434
X19.467 Y55.615
X19.427 Y55.803
X19.363 Y56.015
X19.279 Y56.232
X19.162 Y56.473
X19.019 Y56.715
X18.834 Y56.979
X18.621 Y57.235
X18.352 Y57.511
X18.051 Y57.774
X17.686 Y58.044
X17.265 Y58.306
X16.803 Y58.544
X16.257 Y58.772
X15.65 Y58.971
X14.995 Y59.128
X14.242 Y59.245
X13.412 Y59.307
X12.534 Y59.302
X11.651 Y59.226
X10.777 Y59.082
X9.915 Y58.877
X9.068 Y58.615
X8.239 Y58.302
X7.43 Y57.941
X6.642 Y57.535
X5.877 Y57.089
X5.135 Y56.603
X4.42 Y56.08
X3.731 Y55.523
X3.07 Y54.933
X2.436 Y54.314
X1.831 Y53.666
X1.256 Y52.992
X0.71 Y52.294
X0.194 Y51.574
X-0.291 Y50.832
X-0.744 Y50.071
X-1.165 Y49.291
X-1.553 Y48.495
X-1.908 Y47.682
X-2.229 Y46.856
X-2.515 Y46.018
X-2.765 Y45.168
X-2.98 Y44.308
X-3.156 Y43.44
X-3.292 Y42.564
X-3.385 Y41.683
X-3.431 Y40.798
X-3.427 Y39.912
X-3.366 Y39.028
X-3.258 Y38.284
X-3.12 Y37.68
X-2.977 Y37.226
X-2.81 Y36.814
X-2.788 Y36.772
X-2.62 Y36.513
X-2.399 Y36.297
X-2.136 Y36.135
X-1.844 Y36.034
X-1.537 Y36
X0.661
G3 X1.069 Y36.18 I-0.021 J0.6
G1 X1.298 Y36.415
X19.09 Y54.603
X19.329 Y54.848
G3 X19.5 Y55.246 I-0.429 J0.42
G1 Y57.147
X19.493 Y57.297
X19.467 Y57.487
X19.424 Y57.683
X19.357 Y57.906
X19.266 Y58.135
X19.143 Y58.387
X18.992 Y58.641
X18.795 Y58.919
X18.568 Y59.19
X18.279 Y59.485
X17.958 Y59.762
X17.567 Y60.05
X17.118 Y60.326
X16.614 Y60.584
X16.009 Y60.834
X15.358 Y61.044
X14.631 Y61.216
X13.813 Y61.34
X12.929 Y61.403
X12.043 Y61.395
X11.16 Y61.323
X10.284 Y61.191
X9.418 Y61.001
X8.566 Y60.76
X7.728 Y60.471
X6.907 Y60.138
X6.104 Y59.763
X5.32 Y59.35
X4.557 Y58.899
X3.816 Y58.414
X3.097 Y57.895
X2.403 Y57.345
X1.733 Y56.765
X1.088 Y56.157
X0.469 Y55.523
X-0.124 Y54.864
X-0.691 Y54.183
X-1.231 Y53.481
X-1.743 Y52.758
X-2.228 Y52.016
X-2.683 Y51.256
X-3.109 Y50.479
X-3.504 Y49.686
X-3.87 Y48.878
X-4.204 Y48.058
X-4.507 Y47.225
X-4.779 Y46.382
X-5.018 Y45.528
X-5.223 Y44.666
X-5.394 Y43.797
X-5.526 Y42.921
X-5.618 Y42.039
X-5.667 Y41.154
X-5.671 Y40.268
X-5.623 Y39.383
X-5.515 Y38.51
X-5.385 Y37.875
X-5.236 Y37.363
X-5.072 Y36.932
X-5.009 Y36.799
X-4.843 Y36.532
X-4.621 Y36.308
X-4.355 Y36.14
X-4.058 Y36.035
X-3.745 Y36
X-1.537
G3 X-1.133 Y36.177 I-0.021 J0.6
G1 X-0.898 Y36.413
X19.088 Y56.506
X19.326 Y56.745
G3 X19.5 Y57.147 I-0.425 J0.423
G1 Y58.957
X19.487 Y59.213
X19.463 Y59.4
X19.418 Y59.61
X19.352 Y59.83
X19.256 Y60.076
X19.135 Y60.325
X18.973 Y60.601
X18.78 Y60.875
X18.533 Y61.173
X18.245 Y61.468
X17.899 Y61.77
X17.485 Y62.076
X17.029 Y62.36
X16.471 Y62.648
X15.856 Y62.905
X15.166 Y63.13
X14.376 Y63.32
X13.5 Y63.457
X12.617 Y63.523
X11.73 Y63.525
X10.846 Y63.466
X9.968 Y63.35
X9.098 Y63.182
X8.238 Y62.966
X7.391 Y62.706
X6.558 Y62.404
X5.74 Y62.063
X4.939 Y61.685
X4.155 Y61.272
X3.39 Y60.825
X2.644 Y60.345
X1.92 Y59.835
X1.217 Y59.295
X0.536 Y58.729
X-0.122 Y58.136
X-0.758 Y57.519
X-1.371 Y56.878
X-1.96 Y56.216
X-2.525 Y55.534
X-3.066 Y54.832
X-3.581 Y54.11
X-4.069 Y53.371
X-4.531 Y52.615
X-4.966 Y51.843
X-5.374 Y51.056
X-5.754 Y50.256
X-6.107 Y49.443
X-6.431 Y48.619
X-6.727 Y47.783
X-6.994 Y46.938
X-7.23 Y46.084
X-7.435 Y45.222
X-7.606 Y44.353
X-7.742 Y43.477
X-7.842 Y42.596
X-7.903 Y41.712
X-7.924 Y40.827
X-7.901 Y39.941
X-7.824 Y39.058
X-7.694 Y38.251
X-7.546 Y37.644
X-7.395 Y37.189
X-7.218 Y36.77
X-7.209 Y36.753
X-7.04 Y36.5
X-6.82 Y36.289
X-6.559 Y36.131
X-6.271 Y36.033
X-5.968 Y36
X-3.745
G3 X-3.181 Y36.465 I-0.021 J0.6
G1 X-3.16 Y36.556 Z-17.993
X-3.139 Y36.645 Z-17.971
X-3.12 Y36.73 Z-17.935
X-3.102 Y36.808 Z-17.885
X-3.085 Y36.878 Z-17.824
X-3.072 Y36.938 Z-17.753
X-3.061 Y36.986 Z-17.672
X-3.053 Y37.021 Z-17.585
X-3.048 Y37.042 Z-17.494
X-3.046 Y37.049 Z-17.4
Z-16.8
X18.972 Y57.688
Z-17.4
X18.976 Y57.694 Z-17.494
X18.987 Y57.713 Z-17.585
X19.005 Y57.744 Z-17.672
X19.031 Y57.787 Z-17.753
X19.062 Y57.839 Z-17.824
X19.098 Y57.901 Z-17.885
X19.139 Y57.97 Z-17.935
X19.184 Y58.044 Z-17.971
X19.231 Y58.123 Z-17.993
X19.279 Y58.204 Z-18
G3 X19.5 Y58.957 I-1.36 J0.809
G1 Y60.969
X19.49 Y61.175
X19.465 Y61.364
X19.418 Y61.585
X19.351 Y61.808
X19.251 Y62.064
X19.128 Y62.318
X18.957 Y62.607
X18.759 Y62.89
X18.498 Y63.204
X18.206 Y63.504
X17.837 Y63.825
X17.418 Y64.135
X16.925 Y64.442
X16.331 Y64.749
X15.699 Y65.013
X14.958 Y65.255
X14.117 Y65.456
X13.241 Y65.593
X12.358 Y65.664
X11.472 Y65.675
X10.587 Y65.63
X9.707 Y65.531
X8.833 Y65.384
X7.968 Y65.192
X7.113 Y64.958
X6.27 Y64.684
X5.44 Y64.374
X4.624 Y64.028
X3.823 Y63.649
X3.039 Y63.237
X2.271 Y62.794
X1.522 Y62.321
X0.791 Y61.82
X0.08 Y61.291
X-0.612 Y60.738
X-1.283 Y60.159
X-1.934 Y59.558
X-2.564 Y58.935
X-3.173 Y58.291
X-3.76 Y57.627
X-4.325 Y56.945
X-4.867 Y56.244
X-5.385 Y55.525
X-5.879 Y54.789
X-6.349 Y54.038
X-6.794 Y53.271
X-7.214 Y52.491
X-7.609 Y51.698
X-7.979 Y50.893
X-8.323 Y50.076
X-8.641 Y49.249
X-8.932 Y48.412
X-9.197 Y47.567
X-9.432 Y46.712
X-9.638 Y45.85
X-9.813 Y44.982
X-9.955 Y44.107
X-10.065 Y43.228
X-10.14 Y42.345
X-10.179 Y41.46
X-10.178 Y40.573
X-10.132 Y39.689
X-10.031 Y38.808
X-9.886 Y38.048
X-9.729 Y37.478
X-9.569 Y37.039
X-9.389 Y36.646
X-9.234 Y36.428
X-9.037 Y36.247
X-8.806 Y36.112
X-8.552 Y36.028
X-8.286 Y36
X-5.968
G3 X-5.404 Y36.465 I-0.021 J0.6
G1 X-5.383 Y36.556 Z-17.993
X-5.362 Y36.645 Z-17.971
X-5.343 Y36.73 Z-17.935
X-5.325 Y36.808 Z-17.885
X-5.309 Y36.878 Z-17.824
X-5.295 Y36.938 Z-17.753
X-5.284 Y36.986 Z-17.672
X-5.276 Y37.021 Z-17.585
X-5.271 Y37.042 Z-17.494
X-5.269 Y37.049 Z-17.4
Z-16.8
X18.972 Y59.7
Z-17.4
X18.976 Y59.706 Z-17.494
X18.987 Y59.725 Z-17.585
X19.005 Y59.756 Z-17.672
X19.031 Y59.798 Z-17.753
X19.062 Y59.851 Z-17.824
X19.098 Y59.912 Z-17.885
X19.139 Y59.981 Z-17.935
X19.184 Y60.056 Z-17.971
X19.231 Y60.135 Z-17.993
X19.279 Y60.215 Z-18
G3 X19.5 Y60.969 I-1.36 J0.809
G1 Y62.98
X19.49 Y63.182
X19.465 Y63.374
X19.417 Y63.598
X19.348 Y63.827
X19.247 Y64.087
X19.119 Y64.351
X18.947 Y64.643
X18.738 Y64.941
X18.472 Y65.261
X18.168 Y65.573
X17.78 Y65.911
X17.356 Y66.225
X16.828 Y66.554
X16.227 Y66.863
X15.557 Y67.144
X14.773 Y67.4
X13.911 Y67.606
X13.036 Y67.745
X12.153 Y67.823
X11.267 Y67.844
X10.382 Y67.812
X9.5 Y67.73
X8.623 Y67.603
X7.753 Y67.433
X6.892 Y67.223
X6.041 Y66.976
X5.201 Y66.694
X4.373 Y66.378
X3.558 Y66.03
X2.757 Y65.651
X1.971 Y65.242
X1.201 Y64.804
X0.447 Y64.338
X-0.29 Y63.846
X-1.009 Y63.329
X-1.711 Y62.787
X-2.394 Y62.223
X-3.059 Y61.637
X-3.705 Y61.031
X-4.331 Y60.404
X-4.938 Y59.758
X-5.524 Y59.094
X-6.09 Y58.412
X-6.635 Y57.713
X-7.157 Y56.997
X-7.657 Y56.266
X-8.135 Y55.519
X-8.59 Y54.759
X-9.023 Y53.986
X-9.432 Y53.2
X-9.818 Y52.402
X-10.181 Y51.594
X-10.519 Y50.775
X-10.834 Y49.946
X-11.123 Y49.109
X-11.387 Y48.263
X-11.624 Y47.409
X-11.832 Y46.548
X-12.013 Y45.68
X-12.164 Y44.807
X-12.285 Y43.929
X-12.374 Y43.047
X-12.431 Y42.163
X-12.452 Y41.277
X-12.434 Y40.391
X-12.369 Y39.508
X-12.251 Y38.629
X-12.09 Y37.879
X-11.925 Y37.328
X-11.758 Y36.898
X-11.705 Y36.789
X-11.538 Y36.525
X-11.316 Y36.304
X-11.051 Y36.138
X-10.756 Y36.035
X-10.445 Y36
X-8.286
G3 X-7.723 Y36.465 I-0.021 J0.6
G1 X-7.702 Y36.556 Z-17.993
X-7.681 Y36.645 Z-17.971
X-7.661 Y36.73 Z-17.935
X-7.643 Y36.808 Z-17.885
X-7.627 Y36.878 Z-17.824
X-7.613 Y36.938 Z-17.753
X-7.602 Y36.986 Z-17.672
X-7.594 Y37.021 Z-17.585
X-7.589 Y37.042 Z-17.494
X-7.588 Y37.049 Z-17.4
Z-16.8
X18.972 Y61.711
Z-17.4
X18.976 Y61.717 Z-17.494
X18.987 Y61.736 Z-17.585
X19.005 Y61.767 Z-17.672
X19.031 Y61.81 Z-17.753
X19.062 Y61.862 Z-17.824
X19.098 Y61.924 Z-17.885
X19.139 Y61.993 Z-17.935
X19.184 Y62.067 Z-17.971
X19.231 Y62.146 Z-17.993
X19.279 Y62.227 Z-18
G3 X19.5 Y62.98 I-1.36 J0.809
G1 Y64.992
X19.488 Y65.223
X19.463 Y65.419
X19.414 Y65.645
X19.344 Y65.88
X19.243 Y66.14
X19.108 Y66.418
X18.936 Y66.71
X18.718 Y67.021
X18.452 Y67.341
X18.132 Y67.669
X17.739 Y68.011
X17.295 Y68.34
X16.741 Y68.684
X16.135 Y68.997
X15.427 Y69.293
X14.606 Y69.561
X13.744 Y69.768
X12.87 Y69.911
X11.988 Y69.996
X11.102 Y70.027
X10.216 Y70.009
X9.332 Y69.943
X8.453 Y69.834
X7.58 Y69.685
X6.713 Y69.497
X5.856 Y69.275
X5.008 Y69.018
X4.17 Y68.729
X3.343 Y68.41
X2.529 Y68.06
X1.727 Y67.683
X0.939 Y67.277
X0.166 Y66.845
X-0.592 Y66.386
X-1.335 Y65.903
X-2.062 Y65.396
X-2.772 Y64.867
X-3.467 Y64.316
X-4.144 Y63.744
X-4.803 Y63.153
X-5.446 Y62.542
X-6.07 Y61.913
X-6.676 Y61.267
X-7.263 Y60.603
X-7.83 Y59.922
X-8.378 Y59.226
X-8.905 Y58.513
X-9.411 Y57.786
X-9.897 Y57.045
X-10.362 Y56.291
X-10.806 Y55.524
X-11.229 Y54.745
X-11.63 Y53.955
X-12.01 Y53.154
X-12.367 Y52.344
X-12.703 Y51.523
X-13.015 Y50.694
X-13.304 Y49.856
X-13.568 Y49.011
X-13.807 Y48.157
X-14.021 Y47.297
X-14.208 Y46.431
X-14.368 Y45.56
X-14.5 Y44.683
X-14.604 Y43.803
X-14.677 Y42.92
X-14.719 Y42.035
X-14.726 Y41.149
X-14.693 Y40.264
X-14.615 Y39.381
X-14.484 Y38.505
X-14.329 Y37.826
X-14.17 Y37.318
X-13.99 Y36.872
X-13.939 Y36.773
X-13.771 Y36.513
X-13.55 Y36.297
X-13.287 Y36.135
X-12.995 Y36.034
X-12.688 Y36
X-10.445
G3 X-9.882 Y36.465 I-0.021 J0.6
G1 X-9.86 Y36.556 Z-17.993
X-9.84 Y36.645 Z-17.971
X-9.82 Y36.73 Z-17.935
X-9.802 Y36.808 Z-17.885
X-9.786 Y36.878 Z-17.824
X-9.772 Y36.938 Z-17.753
X-9.761 Y36.986 Z-17.672
X-9.753 Y37.021 Z-17.585
X-9.748 Y37.042 Z-17.494
X-9.747 Y37.049 Z-17.4
Z-16.8
X18.972 Y63.723
Z-17.4
X18.976 Y63.729 Z-17.494
X18.987 Y63.748 Z-17.585
X19.005 Y63.779 Z-17.672
X19.031 Y63.821 Z-17.753
X19.062 Y63.874 Z-17.824
X19.098 Y63.935 Z-17.885
X19.139 Y64.004 Z-17.935
X19.184 Y64.079 Z-17.971
X19.231 Y64.158 Z-17.993
X19.279 Y64.238 Z-18
G3 X19.5 Y64.992 I-1.36 J0.809
G1 Y67.003
X19.486 Y67.291
X19.459 Y67.491
X19.411 Y67.717
X19.338 Y67.961
X19.237 Y68.221
X19.096 Y68.51
X18.925 Y68.802
X18.698 Y69.124
X18.433 Y69.444
X18.098 Y69.787
X17.706 Y70.13
X17.239 Y70.475
X16.67 Y70.829
X16.049 Y71.149
X15.31 Y71.458
X14.468 Y71.733
X13.607 Y71.941
X12.733 Y72.089
X11.852 Y72.181
X10.966 Y72.222
X10.08 Y72.217
X9.196 Y72.166
X8.314 Y72.074
X7.438 Y71.944
X6.567 Y71.777
X5.704 Y71.576
X4.85 Y71.343
X4.004 Y71.079
X3.168 Y70.785
X2.342 Y70.463
X1.528 Y70.114
X0.725 Y69.738
X-0.065 Y69.336
X-0.841 Y68.909
X-1.603 Y68.458
X-2.352 Y67.983
X-3.086 Y67.486
X-3.804 Y66.968
X-4.508 Y66.43
X-5.196 Y65.871
X-5.868 Y65.294
X-6.525 Y64.698
X-7.164 Y64.085
X-7.787 Y63.455
X-8.393 Y62.808
X-8.981 Y62.145
X-9.55 Y61.466
X-10.101 Y60.772
X-10.633 Y60.064
X-11.146 Y59.341
X-11.64 Y58.605
X-12.115 Y57.857
X-12.569 Y57.096
X-13.005 Y56.324
X-13.42 Y55.542
X-13.815 Y54.748
X-14.189 Y53.945
X-14.543 Y53.133
X-14.876 Y52.312
X-15.188 Y51.482
X-15.477 Y50.645
X-15.743 Y49.799
X-15.986 Y48.947
X-16.204 Y48.088
X-16.398 Y47.224
X-16.567 Y46.354
X-16.711 Y45.479
X-16.827 Y44.601
X-16.917 Y43.719
X-16.977 Y42.835
X-17.007 Y41.95
X-17.002 Y41.064
X-16.958 Y40.179
X-16.87 Y39.297
X-16.728 Y38.422
X-16.567 Y37.757
X-16.403 Y37.259
X-16.217 Y36.818
X-16.185 Y36.755
X-16.016 Y36.501
X-15.795 Y36.29
X-15.535 Y36.131
X-15.246 Y36.033
X-14.942 Y36
X-12.688
G3 X-12.124 Y36.465 I-0.021 J0.6
G1 X-12.103 Y36.556 Z-17.993
X-12.083 Y36.645 Z-17.971
X-12.063 Y36.73 Z-17.935
X-12.045 Y36.808 Z-17.885
X-12.029 Y36.878 Z-17.824
X-12.015 Y36.938 Z-17.753
X-12.004 Y36.986 Z-17.672
X-11.996 Y37.021 Z-17.585
X-11.991 Y37.042 Z-17.494
X-11.989 Y37.049 Z-17.4
Z-16.8
X18.972 Y65.734
Z-17.4
X18.976 Y65.74 Z-17.494
X18.987 Y65.759 Z-17.585
X19.005 Y65.79 Z-17.672
X19.031 Y65.833 Z-17.753
X19.062 Y65.885 Z-17.824
X19.098 Y65.947 Z-17.885
X19.139 Y66.016 Z-17.935
X19.184 Y66.09 Z-17.971
X19.231 Y66.169 Z-17.993
X19.279 Y66.25 Z-18
G3 X19.5 Y67.003 I-1.36 J0.809
G1 Y69.216
X19.492 Y69.374
X19.465 Y69.581
X19.417 Y69.806
X19.341 Y70.059
X19.24 Y70.319
X19.095 Y70.617
X18.922 Y70.911
X18.689 Y71.243
X18.422 Y71.565
X18.074 Y71.922
X17.681 Y72.264
X17.194 Y72.625
X16.617 Y72.984
X15.974 Y73.315
X15.207 Y73.636
X14.364 Y73.911
X13.504 Y74.122
X12.631 Y74.275
X11.75 Y74.376
X10.866 Y74.427
X9.98 Y74.434
X9.094 Y74.398
X8.211 Y74.322
X7.332 Y74.21
X6.459 Y74.062
X5.591 Y73.882
X4.731 Y73.67
X3.878 Y73.429
X3.034 Y73.16
X2.199 Y72.863
X1.374 Y72.54
X0.559 Y72.191
X-0.245 Y71.818
X-1.036 Y71.42
X-1.816 Y70.998
X-2.582 Y70.554
X-3.336 Y70.088
X-4.076 Y69.601
X-4.803 Y69.093
X-5.515 Y68.566
X-6.213 Y68.021
X-6.897 Y67.457
X-7.565 Y66.875
X-8.219 Y66.277
X-8.857 Y65.662
X-9.479 Y65.031
X-10.085 Y64.384
X-10.675 Y63.723
X-11.247 Y63.046
X-11.802 Y62.355
X-12.339 Y61.651
X-12.859 Y60.933
X-13.36 Y60.202
X-13.843 Y59.46
X-14.309 Y58.705
X-14.756 Y57.94
X-15.184 Y57.164
X-15.593 Y56.379
X-15.984 Y55.583
X-16.355 Y54.779
X-16.707 Y53.965
X-17.039 Y53.144
X-17.35 Y52.314
X-17.641 Y51.477
X-17.909 Y50.633
X-18.156 Y49.781
X-18.38 Y48.924
X-18.582 Y48.061
X-18.76 Y47.193
X-18.914 Y46.321
X-19.044 Y45.444
X-19.149 Y44.564
X-19.227 Y43.681
X-19.277 Y42.797
X-19.297 Y41.911
X-19.283 Y41.025
X-19.23 Y40.14
X-19.134 Y39.259
X-18.985 Y38.386
X-18.821 Y37.726
X-18.653 Y37.229
X-18.465 Y36.791
X-18.442 Y36.747
X-18.272 Y36.495
X-18.052 Y36.286
X-17.792 Y36.13
X-17.505 Y36.033
X-17.204 Y36
X-14.942
G3 X-14.379 Y36.465 I-0.021 J0.6
G1 X-14.357 Y36.556 Z-17.993
X-14.337 Y36.645 Z-17.971
X-14.317 Y36.73 Z-17.935
X-14.299 Y36.808 Z-17.885
X-14.283 Y36.878 Z-17.824
X-14.269 Y36.938 Z-17.753
X-14.258 Y36.986 Z-17.672
X-14.25 Y37.021 Z-17.585
X-14.245 Y37.042 Z-17.494
X-14.244 Y37.049 Z-17.4
Z-16.8
X18.972 Y67.947
Z-17.4
X18.976 Y67.953 Z-17.494
X18.987 Y67.972 Z-17.585
X19.005 Y68.003 Z-17.672
X19.031 Y68.045 Z-17.753
X19.062 Y68.098 Z-17.824
X19.098 Y68.159 Z-17.885
X19.139 Y68.228 Z-17.935
X19.184 Y68.303 Z-17.971
X19.231 Y68.382 Z-17.993
X19.279 Y68.462 Z-18
G3 X19.5 Y69.216 I-1.36 J0.809
G1 Y71.227
X19.488 Y71.482
X19.461 Y71.692
X19.414 Y71.916
X19.338 Y72.173
X19.238 Y72.433
X19.094 Y72.733
X18.921 Y73.03
X18.686 Y73.366
X18.418 Y73.691
X18.064 Y74.057
X17.672 Y74.402
X17.625 Y74.437
X17.407 Y74.57
X17.168 Y74.662
X16.917 Y74.708
G3 X16.393 Y73.763 I-0.034 J-0.599
G1 X18.41 Y70.905
G3 X19.5 Y71.227 I0.49 J0.346
G1 X19.502 Y71.831
X19.514 Y72.032
X19.527 Y72.174
X19.574 Y72.434
X19.628 Y72.635
X19.668 Y72.78
X19.693 Y72.929
X19.708 Y73.095
Y73.163
X19.679 Y73.459
X19.588 Y73.741
X19.44 Y73.998
X19.241 Y74.218
X19 Y74.391
X18.728 Y74.509
X18.437 Y74.568
G3 X17.886 Y73.663 I-0.034 J-0.599
G1 X18.551 Y72.542
G3 X19.628 Y72.635 I0.516 J0.306
G1 X19.696 Y72.837
X19.728 Y72.917
X19.78 Y73.038
X19.929 Y73.317
X20.001 Y73.44
X20.076 Y73.57
X20.104 Y73.775
X20.071 Y73.98
X19.981 Y74.167
X19.84 Y74.319
X19.661 Y74.424
X19.46 Y74.473
G3 X18.865 Y74.132 I-0.036 J-0.627
X20.001 Y73.44 I0.594 J-0.303
G1 X20.068 Y73.541
X20.094 Y73.591
X20.115 Y73.641
X20.131 Y73.689
X20.146 Y73.766
X20.151 Y73.842
X20.147 Y73.923
X20.131 Y74.003
X20.118 Y74.044
X20.098 Y74.094
X20.072 Y74.144
X20.04 Y74.194
X20 Y74.245
X19.929 Y74.315
X19.879 Y74.355
X19.829 Y74.387
X19.778 Y74.412
X19.728 Y74.432
X19.68 Y74.446
X19.527 Y74.467
X12.077 Y75.155
X11.675 Y75.191
X6.239 Y75.605
X5.353 Y75.628
X4.586 Y75.596
X3.706 Y75.487
X2.837 Y75.314
X1.98 Y75.089
X1.135 Y74.821
X0.303 Y74.518
X-0.517 Y74.182
X-1.325 Y73.818
X-2.121 Y73.428
X-2.904 Y73.014
X-3.675 Y72.577
X-4.433 Y72.118
X-5.178 Y71.638
X-5.909 Y71.138
X-6.628 Y70.619
X-7.333 Y70.083
X-8.024 Y69.528
X-8.702 Y68.957
X-9.365 Y68.37
X-10.014 Y67.766
X-10.648 Y67.147
X-11.267 Y66.513
X-11.871 Y65.865
X-12.459 Y65.202
X-13.032 Y64.526
X-13.588 Y63.836
X-14.128 Y63.133
X-14.65 Y62.417
X-15.156 Y61.69
X-15.645 Y60.951
X-16.117 Y60.201
X-16.571 Y59.44
X-17.008 Y58.669
X-17.428 Y57.888
X-17.829 Y57.098
X-18.213 Y56.3
X-18.578 Y55.492
X-18.925 Y54.677
X-19.252 Y53.854
X-19.561 Y53.023
X-19.849 Y52.185
X-20.117 Y51.34
X-20.365 Y50.49
X-20.592 Y49.633
X-20.797 Y48.771
X-20.98 Y47.904
X-21.141 Y47.033
X-21.279 Y46.157
X-21.393 Y45.278
X-21.482 Y44.397
X-21.546 Y43.513
X-21.581 Y42.628
X-21.587 Y41.742
X-21.559 Y40.856
X-21.495 Y39.972
X-21.385 Y39.093
X-21.221 Y38.222
X-21.051 Y37.596
X-20.882 Y37.126
X-20.743 Y36.821
X-20.579 Y36.547
X-20.356 Y36.317
X-20.087 Y36.144
X-19.786 Y36.037
X-19.468 Y36
X-17.204
G3 X-16.64 Y36.465 I-0.021 J0.6
G1 X-16.619 Y36.556 Z-17.993
X-16.598 Y36.645 Z-17.971
X-16.579 Y36.73 Z-17.935
X-16.561 Y36.808 Z-17.885
X-16.545 Y36.878 Z-17.824
X-16.531 Y36.938 Z-17.753
X-16.52 Y36.986 Z-17.672
X-16.512 Y37.021 Z-17.585
X-16.507 Y37.042 Z-17.494
X-16.505 Y37.049 Z-17.4
Z-16.8
X7.464 Y74.982
Z-17.4
X7.458 Y74.986 Z-17.494
X7.44 Y74.999 Z-17.585
X7.411 Y75.02 Z-17.672
X7.371 Y75.048 Z-17.753
X7.321 Y75.083 Z-17.824
X7.262 Y75.124 Z-17.885
X7.196 Y75.17 Z-17.935
X7.125 Y75.22 Z-17.971
X7.05 Y75.273 Z-17.993
X6.974 Y75.327 Z-18
G3 X6.239 Y75.605 I-0.91 J-1.295
G1 X1.407 Y75.973
X0.803 Y76.009
X0.108 Y76.015
X-0.439 Y75.976
X-1.082 Y75.878
X-1.868 Y75.692
X-2.711 Y75.42
X-3.534 Y75.089
X-4.336 Y74.714
X-5.121 Y74.301
X-5.888 Y73.859
X-6.64 Y73.39
X-7.377 Y72.898
X-8.099 Y72.385
X-8.808 Y71.852
X-9.502 Y71.302
X-10.183 Y70.734
X-10.849 Y70.15
X-11.502 Y69.551
X-12.14 Y68.936
X-12.764 Y68.306
X-13.373 Y67.663
X-13.967 Y67.006
X-14.546 Y66.335
X-15.111 Y65.652
X-15.659 Y64.956
X-16.192 Y64.248
X-16.71 Y63.529
X-17.211 Y62.798
X-17.697 Y62.057
X-18.166 Y61.305
X-18.619 Y60.544
X-19.055 Y59.773
X-19.475 Y58.992
X-19.878 Y58.203
X-20.264 Y57.405
X-20.633 Y56.599
X-20.983 Y55.786
X-21.316 Y54.964
X-21.63 Y54.136
X-21.926 Y53.3
X-22.203 Y52.459
X-22.46 Y51.611
X-22.698 Y50.757
X-22.916 Y49.898
X-23.114 Y49.035
X-23.291 Y48.166
X-23.447 Y47.294
X-23.581 Y46.418
X-23.692 Y45.539
X-23.78 Y44.657
X-23.843 Y43.773
X-23.878 Y42.888
X-23.885 Y42.002
X-23.86 Y41.116
X-23.8 Y40.232
X-23.7 Y39.352
X-23.549 Y38.478
X-23.375 Y37.771
X-23.207 Y37.268
X-23.015 Y36.818
X-22.979 Y36.75
X-22.809 Y36.497
X-22.589 Y36.288
X-22.329 Y36.13
X-22.041 Y36.033
X-21.739 Y36
X-19.468
G3 X-18.905 Y36.465 I-0.021 J0.6
G1 X-18.884 Y36.556 Z-17.993
X-18.863 Y36.645 Z-17.971
X-18.843 Y36.73 Z-17.935
X-18.825 Y36.808 Z-17.885
X-18.809 Y36.878 Z-17.824
X-18.796 Y36.938 Z-17.753
X-18.784 Y36.986 Z-17.672
X-18.776 Y37.021 Z-17.585
X-18.771 Y37.042 Z-17.494
X-18.77 Y37.049 Z-17.4
Z-16.8
X2.039 Y75.406
Z-17.4
X2.033 Y75.41 Z-17.494
X2.014 Y75.423 Z-17.585
X1.985 Y75.443 Z-17.672
X1.944 Y75.471 Z-17.753
X1.893 Y75.505 Z-17.824
X1.834 Y75.545 Z-17.885
X1.768 Y75.59 Z-17.935
X1.696 Y75.639 Z-17.971
X1.62 Y75.69 Z-17.993
X1.542 Y75.743 Z-18
G3 X0.803 Y76.009 I-0.888 J-1.31
G1 X-3.626 Y76.268
X-4.063 Y76.272
X-4.507 Y76.24
X-5.017 Y76.162
X-5.627 Y76.017
X-6.361 Y75.779
X-7.18 Y75.44
X-7.971 Y75.041
X-8.738 Y74.597
X-9.484 Y74.118
X-10.21 Y73.61
X-10.918 Y73.077
X-11.609 Y72.523
X-12.285 Y71.95
X-12.945 Y71.359
X-13.591 Y70.752
X-14.222 Y70.13
X-14.838 Y69.493
X-15.44 Y68.842
X-16.027 Y68.179
X-16.6 Y67.503
X-17.158 Y66.815
X-17.701 Y66.115
X-18.23 Y65.403
X-18.743 Y64.681
X-19.242 Y63.949
X-19.725 Y63.206
X-20.193 Y62.454
X-20.646 Y61.692
X-21.083 Y60.921
X-21.504 Y60.141
X-21.909 Y59.353
X-22.298 Y58.557
X-22.67 Y57.752
X-23.025 Y56.941
X-23.363 Y56.121
X-23.684 Y55.295
X-23.987 Y54.463
X-24.272 Y53.624
X-24.54 Y52.779
X-24.789 Y51.929
X-25.019 Y51.073
X-25.231 Y50.213
X-25.423 Y49.348
X-25.595 Y48.478
X-25.748 Y47.605
X-25.88 Y46.729
X-25.99 Y45.85
X-26.077 Y44.968
X-26.14 Y44.084
X-26.178 Y43.199
X-26.187 Y42.313
X-26.167 Y41.427
X-26.114 Y40.542
X-26.024 Y39.661
X-25.889 Y38.785
X-25.711 Y37.985
X-25.529 Y37.397
X-25.349 Y36.945
X-25.266 Y36.779
X-25.099 Y36.517
X-24.877 Y36.3
X-24.614 Y36.136
X-24.32 Y36.034
X-24.012 Y36
X-21.739
G3 X-21.176 Y36.465 I-0.021 J0.6
G1 X-21.154 Y36.556 Z-17.993
X-21.134 Y36.645 Z-17.971
X-21.114 Y36.73 Z-17.935
X-21.096 Y36.808 Z-17.885
X-21.08 Y36.878 Z-17.824
X-21.066 Y36.938 Z-17.753
X-21.055 Y36.986 Z-17.672
X-21.047 Y37.021 Z-17.585
X-21.042 Y37.042 Z-17.494
X-21.041 Y37.049 Z-17.4
Z-16.8
X-2.39 Y75.667
Z-17.4
X-2.396 Y75.671 Z-17.494
X-2.414 Y75.683 Z-17.585
X-2.444 Y75.704 Z-17.672
X-2.485 Y75.731 Z-17.753
X-2.535 Y75.765 Z-17.824
X-2.595 Y75.806 Z-17.885
X-2.661 Y75.851 Z-17.935
X-2.733 Y75.899 Z-17.971
X-2.809 Y75.951 Z-17.993
X-2.887 Y76.003 Z-18
G3 X-3.626 Y76.268 I-0.887 J-1.311
G1 X-7.25 Y76.48
X-7.773 Y76.485
X-8.167 Y76.456
X-8.606 Y76.389
X-9.135 Y76.264
X-9.755 Y76.063
X-10.484 Y75.761
X-11.273 Y75.356
X-12.03 Y74.897
X-12.761 Y74.396
X-13.469 Y73.862
X-14.155 Y73.302
X-14.822 Y72.718
X-15.471 Y72.115
X-16.104 Y71.495
X-16.721 Y70.859
X-17.323 Y70.209
X-17.911 Y69.546
X-18.483 Y68.869
X-19.041 Y68.181
X-19.585 Y67.482
X-20.115 Y66.771
X-20.63 Y66.05
X-21.131 Y65.319
X-21.617 Y64.578
X-22.088 Y63.828
X-22.544 Y63.068
X-22.986 Y62.3
X-23.412 Y61.523
X-23.823 Y60.738
X-24.219 Y59.945
X-24.598 Y59.144
X-24.962 Y58.336
X-25.31 Y57.521
X-25.641 Y56.699
X-25.957 Y55.871
X-26.255 Y55.037
X-26.536 Y54.197
X-26.801 Y53.351
X-27.048 Y52.5
X-27.277 Y51.644
X-27.489 Y50.783
X-27.682 Y49.919
X-27.857 Y49.05
X-28.012 Y48.177
X-28.147 Y47.302
X-28.261 Y46.423
X-28.354 Y45.542
X-28.424 Y44.658
X-28.469 Y43.773
X-28.49 Y42.887
X-28.484 Y42.001
X-28.448 Y41.116
X-28.379 Y40.233
X-28.271 Y39.353
X-28.114 Y38.481
X-27.933 Y37.766
X-27.757 Y37.251
X-27.562 Y36.8
X-27.531 Y36.742
X-27.361 Y36.492
X-27.141 Y36.284
X-26.882 Y36.129
X-26.595 Y36.033
X-26.295 Y36
X-24.012
G3 X-23.448 Y36.465 I-0.021 J0.6
G1 X-23.427 Y36.556 Z-17.993
X-23.406 Y36.645 Z-17.971
X-23.387 Y36.73 Z-17.935
X-23.369 Y36.808 Z-17.885
X-23.353 Y36.878 Z-17.824
X-23.339 Y36.938 Z-17.753
X-23.328 Y36.986 Z-17.672
X-23.32 Y37.021 Z-17.585
X-23.315 Y37.042 Z-17.494
X-23.313 Y37.049 Z-17.4
Z-16.8
X-6.014 Y75.879
Z-17.4
X-6.02 Y75.883 Z-17.494
X-6.038 Y75.896 Z-17.585
X-6.068 Y75.916 Z-17.672
X-6.109 Y75.943 Z-17.753
X-6.159 Y75.978 Z-17.824
X-6.219 Y76.018 Z-17.885
X-6.285 Y76.063 Z-17.935
X-6.357 Y76.111 Z-17.971
X-6.433 Y76.163 Z-17.993
X-6.511 Y76.215 Z-18
G3 X-7.25 Y76.48 I-0.887 J-1.311
G1 X-8.659 Y76.563
X-9.263 Y76.594
X-9.465 Y76.603
X-10.869 Y76.658
X-11.31 Y76.654
X-11.676 Y76.62
X-12.093 Y76.548
X-12.579 Y76.423
X-13.152 Y76.226
X-13.807 Y75.939
X-14.588 Y75.52
X-15.333 Y75.04
X-16.047 Y74.516
X-16.734 Y73.956
X-17.397 Y73.368
X-18.039 Y72.758
X-18.663 Y72.128
X-19.268 Y71.481
X-19.858 Y70.82
X-20.432 Y70.144
X-20.991 Y69.457
X-21.535 Y68.757
X-22.065 Y68.047
X-22.58 Y67.326
X-23.081 Y66.596
X-23.569 Y65.856
X-24.042 Y65.106
X-24.5 Y64.348
X-24.945 Y63.581
X-25.374 Y62.806
X-25.789 Y62.023
X-26.189 Y61.233
X-26.574 Y60.434
X-26.944 Y59.629
X-27.298 Y58.817
X-27.638 Y57.999
X-27.961 Y57.174
X-28.269 Y56.343
X-28.561 Y55.506
X-28.837 Y54.664
X-29.097 Y53.817
X-29.34 Y52.965
X-29.566 Y52.108
X-29.775 Y51.247
X-29.967 Y50.382
X-30.14 Y49.513
X-30.296 Y48.64
X-30.432 Y47.765
X-30.548 Y46.886
X-30.643 Y46.005
X-30.717 Y45.122
X-30.768 Y44.237
X-30.795 Y43.352
X-30.797 Y42.466
X-30.772 Y41.58
X-30.716 Y40.696
X-30.626 Y39.814
X-30.493 Y38.938
X-30.306 Y38.072
X-30.121 Y37.46
X-29.941 Y37
X-29.837 Y36.786
X-29.67 Y36.523
X-29.448 Y36.303
X-29.183 Y36.137
X-28.889 Y36.035
X-28.578 Y36
X-26.295
G3 X-25.731 Y36.465 I-0.021 J0.6
G1 X-25.71 Y36.556 Z-17.993
X-25.69 Y36.645 Z-17.971
X-25.67 Y36.73 Z-17.935
X-25.652 Y36.808 Z-17.885
X-25.636 Y36.878 Z-17.824
X-25.622 Y36.938 Z-17.753
X-25.611 Y36.986 Z-17.672
X-25.603 Y37.021 Z-17.585
X-25.598 Y37.042 Z-17.494
X-25.596 Y37.049 Z-17.4
Z-16.8
X-9.622 Y76.081
Z-17.4
X-9.628 Y76.085 Z-17.494
X-9.646 Y76.097 Z-17.585
X-9.677 Y76.116 Z-17.672
X-9.718 Y76.143 Z-17.753
X-9.769 Y76.177 Z-17.824
X-9.829 Y76.216 Z-17.885
X-9.897 Y76.259 Z-17.935
X-9.97 Y76.307 Z-17.971
X-10.046 Y76.357 Z-17.993
X-10.125 Y76.408 Z-18
G3 X-10.869 Y76.658 I-0.862 J-1.327
G1 X-14.297 Y76.794
X-14.585 Y76.791
X-14.933 Y76.759
X-15.312 Y76.694
X-15.765 Y76.577
X-16.271 Y76.402
X-16.865 Y76.143
X-17.564 Y75.768
X-18.309 Y75.287
X-19.017 Y74.755
X-19.694 Y74.183
X-20.345 Y73.581
X-20.971 Y72.955
X-21.577 Y72.308
X-22.164 Y71.645
X-22.734 Y70.966
X-23.288 Y70.274
X-23.826 Y69.57
X-24.348 Y68.854
X-24.857 Y68.129
X-25.351 Y67.393
X-25.831 Y66.648
X-26.296 Y65.894
X-26.748 Y65.132
X-27.186 Y64.361
X-27.609 Y63.583
X-28.019 Y62.797
X-28.414 Y62.004
X-28.794 Y61.204
X-29.161 Y60.397
X-29.512 Y59.583
X-29.849 Y58.764
X-30.171 Y57.938
X-30.478 Y57.107
X-30.77 Y56.27
X-31.047 Y55.429
X-31.308 Y54.582
X-31.553 Y53.73
X-31.782 Y52.874
X-31.995 Y52.014
X-32.19 Y51.15
X-32.369 Y50.282
X-32.53 Y49.41
X-32.672 Y48.536
X-32.797 Y47.658
X-32.901 Y46.779
X-32.986 Y45.896
X-33.05 Y45.013
X-33.092 Y44.128
X-33.11 Y43.242
X-33.105 Y42.355
X-33.072 Y41.47
X-33.009 Y40.586
X-32.909 Y39.706
X-32.766 Y38.831
X-32.584 Y38.025
X-32.394 Y37.417
X-32.206 Y36.949
X-32.119 Y36.775
X-31.951 Y36.515
X-31.73 Y36.298
X-31.467 Y36.135
X-31.174 Y36.034
X-30.867 Y36
X-28.578
G3 X-28.015 Y36.465 I-0.021 J0.6
G1 X-27.994 Y36.556 Z-17.993
X-27.973 Y36.645 Z-17.971
X-27.954 Y36.73 Z-17.935
X-27.935 Y36.808 Z-17.885
X-27.919 Y36.878 Z-17.824
X-27.906 Y36.938 Z-17.753
X-27.895 Y36.986 Z-17.672
X-27.886 Y37.021 Z-17.585
X-27.882 Y37.042 Z-17.494
X-27.88 Y37.049 Z-17.4
Z-16.8
X-13.049 Y76.216
Z-17.4
X-13.055 Y76.22 Z-17.494
X-13.074 Y76.232 Z-17.585
X-13.104 Y76.252 Z-17.672
X-13.145 Y76.279 Z-17.753
X-13.196 Y76.312 Z-17.824
X-13.257 Y76.351 Z-17.885
X-13.324 Y76.395 Z-17.935
X-13.397 Y76.442 Z-17.971
X-13.474 Y76.492 Z-17.993
X-13.552 Y76.543 Z-18
G3 X-14.297 Y76.794 I-0.862 J-1.327
G1 X-17.316 Y76.913
X-17.723 Y76.909
X-18.046 Y76.879
X-18.408 Y76.817
X-18.831 Y76.708
X-19.305 Y76.544
X-19.851 Y76.306
X-20.49 Y75.963
X-21.235 Y75.482
X-21.938 Y74.944
X-22.607 Y74.362
X-23.246 Y73.748
X-23.859 Y73.109
X-24.45 Y72.448
X-25.02 Y71.769
X-25.571 Y71.076
X-26.106 Y70.369
X-26.624 Y69.65
X-27.127 Y68.921
X-27.615 Y68.181
X-28.089 Y67.433
X-28.549 Y66.675
X-28.995 Y65.91
X-29.427 Y65.136
X-29.846 Y64.355
X-30.25 Y63.566
X-30.641 Y62.771
X-31.018 Y61.969
X-31.381 Y61.161
X-31.73 Y60.346
X-32.065 Y59.526
X-32.385 Y58.7
X-32.691 Y57.868
X-32.983 Y57.032
X-33.26 Y56.19
X-33.522 Y55.343
X-33.769 Y54.492
X-34.001 Y53.637
X-34.216 Y52.777
X-34.416 Y51.914
X-34.599 Y51.047
X-34.765 Y50.177
X-34.914 Y49.303
X-35.045 Y48.427
X-35.159 Y47.548
X-35.253 Y46.667
X-35.328 Y45.784
X-35.383 Y44.9
X-35.416 Y44.014
X-35.427 Y43.128
X-35.413 Y42.242
X-35.373 Y41.357
X-35.301 Y40.474
X-35.193 Y39.594
X-35.041 Y38.721
X-34.855 Y37.94
X-34.665 Y37.355
X-34.472 Y36.892
X-34.405 Y36.76
X-34.236 Y36.505
X-34.015 Y36.292
X-33.754 Y36.132
X-33.464 Y36.034
X-33.159 Y36
X-30.867
G3 X-30.303 Y36.465 I-0.021 J0.6
G1 X-30.282 Y36.556 Z-17.993
X-30.261 Y36.645 Z-17.971
X-30.242 Y36.73 Z-17.935
X-30.224 Y36.808 Z-17.885
X-30.208 Y36.878 Z-17.824
X-30.194 Y36.938 Z-17.753
X-30.183 Y36.986 Z-17.672
X-30.175 Y37.021 Z-17.585
X-30.17 Y37.042 Z-17.494
X-30.168 Y37.049 Z-17.4
Z-16.8
X-16.069 Y76.335
Z-17.4
X-16.075 Y76.339 Z-17.494
X-16.094 Y76.351 Z-17.585
X-16.124 Y76.371 Z-17.672
X-16.165 Y76.398 Z-17.753
X-16.216 Y76.431 Z-17.824
X-16.276 Y76.47 Z-17.885
X-16.344 Y76.514 Z-17.935
X-16.417 Y76.561 Z-17.971
X-16.494 Y76.611 Z-17.993
X-16.572 Y76.662 Z-18
G3 X-17.316 Y76.913 I-0.862 J-1.327
G1 X-19.33 Y76.992
X-20.135 Y77.018
X-20.538 Y77.03
X-20.777 Y77.025
X-21.084 Y76.994
X-21.441 Y76.929
X-21.846 Y76.82
X-22.307 Y76.656
X-22.827 Y76.423
X-23.433 Y76.089
X-24.135 Y75.626
X-24.834 Y75.081
X-25.494 Y74.489
X-26.121 Y73.864
X-26.721 Y73.211
X-27.296 Y72.537
X-27.85 Y71.846
X-28.384 Y71.139
X-28.901 Y70.418
X-29.4 Y69.687
X-29.885 Y68.945
X-30.354 Y68.193
X-30.809 Y67.433
X-31.25 Y66.664
X-31.678 Y65.888
X-32.091 Y65.105
X-32.492 Y64.314
X-32.878 Y63.517
X-33.252 Y62.713
X-33.612 Y61.903
X-33.958 Y61.088
X-34.291 Y60.266
X-34.61 Y59.44
X-34.915 Y58.608
X-35.206 Y57.771
X-35.483 Y56.929
X-35.746 Y56.083
X-35.994 Y55.232
X-36.227 Y54.377
X-36.445 Y53.518
X-36.648 Y52.656
X-36.835 Y51.789
X-37.005 Y50.92
X-37.16 Y50.047
X-37.298 Y49.172
X-37.418 Y48.294
X-37.521 Y47.414
X-37.605 Y46.532
X-37.671 Y45.648
X-37.716 Y44.763
X-37.741 Y43.877
X-37.743 Y42.991
X-37.721 Y42.106
X-37.672 Y41.221
X-37.592 Y40.338
X-37.474 Y39.46
X-37.313 Y38.589
X-37.124 Y37.84
X-36.935 Y37.284
X-36.738 Y36.827
X-36.694 Y36.744
X-36.524 Y36.493
X-36.304 Y36.285
X-36.045 Y36.129
X-35.758 Y36.033
X-35.457 Y36
X-33.159
G3 X-32.596 Y36.465 I-0.021 J0.6
G1 X-32.575 Y36.556 Z-17.993
X-32.554 Y36.645 Z-17.971
X-32.534 Y36.73 Z-17.935
X-32.516 Y36.808 Z-17.885
X-32.5 Y36.878 Z-17.824
X-32.487 Y36.938 Z-17.753
X-32.475 Y36.986 Z-17.672
X-32.467 Y37.021 Z-17.585
X-32.462 Y37.042 Z-17.494
X-32.461 Y37.049 Z-17.4
Z-16.8
X-19.285 Y76.465
Z-17.4
X-19.291 Y76.469 Z-17.494
X-19.309 Y76.481 Z-17.585
X-19.34 Y76.5 Z-17.672
X-19.381 Y76.527 Z-17.753
X-19.433 Y76.559 Z-17.824
X-19.493 Y76.598 Z-17.885
X-19.561 Y76.641 Z-17.935
X-19.634 Y76.688 Z-17.971
X-19.712 Y76.737 Z-17.993
X-19.791 Y76.787 Z-18
G3 X-20.538 Y77.03 I-0.848 J-1.336
G1 X-23.558 Y77.119
X-23.645 Y77.117
X-23.935 Y77.095
X-24.26 Y77.044
X-24.642 Y76.951
X-25.054 Y76.816
X-25.537 Y76.613
X-26.082 Y76.331
X-26.7 Y75.945
X-27.411 Y75.416
X-28.079 Y74.834
X-28.709 Y74.211
X-29.307 Y73.557
X-29.878 Y72.88
X-30.426 Y72.183
X-30.952 Y71.47
X-31.459 Y70.743
X-31.949 Y70.005
X-32.423 Y69.256
X-32.881 Y68.497
X-33.325 Y67.73
X-33.754 Y66.955
X-34.17 Y66.173
X-34.573 Y65.384
X-34.962 Y64.587
X-35.338 Y63.785
X-35.7 Y62.976
X-36.05 Y62.162
X-36.386 Y61.342
X-36.709 Y60.517
X-37.019 Y59.687
X-37.315 Y58.852
X-37.597 Y58.012
X-37.866 Y57.167
X-38.12 Y56.319
X-38.361 Y55.466
X-38.587 Y54.609
X-38.798 Y53.748
X-38.995 Y52.884
X-39.176 Y52.017
X-39.342 Y51.146
X-39.492 Y50.273
X-39.626 Y49.397
X-39.744 Y48.519
X-39.845 Y47.639
X-39.928 Y46.756
X-39.992 Y45.873
X-40.038 Y44.988
X-40.063 Y44.102
X-40.066 Y43.216
X-40.046 Y42.33
X-39.998 Y41.445
X-39.921 Y40.562
X-39.811 Y39.683
X-39.66 Y38.81
X-39.461 Y37.97
X-39.267 Y37.369
X-39.077 Y36.91
X-39.001 Y36.762
X-38.832 Y36.506
X-38.611 Y36.293
X-38.35 Y36.133
X-38.059 Y36.034
X-37.755 Y36
X-35.457
G3 X-34.893 Y36.465 I-0.021 J0.6
G1 X-34.872 Y36.556 Z-17.993
X-34.852 Y36.645 Z-17.971
X-34.832 Y36.73 Z-17.935
X-34.814 Y36.808 Z-17.885
X-34.798 Y36.878 Z-17.824
X-34.784 Y36.938 Z-17.753
X-34.773 Y36.986 Z-17.672
X-34.765 Y37.021 Z-17.585
X-34.76 Y37.042 Z-17.494
X-34.758 Y37.049 Z-17.4
Z-16.8
X-22.304 Y76.554
Z-17.4
X-22.311 Y76.558 Z-17.494
X-22.329 Y76.57 Z-17.585
X-22.36 Y76.589 Z-17.672
X-22.401 Y76.616 Z-17.753
X-22.453 Y76.648 Z-17.824
X-22.513 Y76.687 Z-17.885
X-22.581 Y76.73 Z-17.935
X-22.654 Y76.776 Z-17.971
X-22.732 Y76.825 Z-17.993
X-22.811 Y76.876 Z-18
G3 X-23.558 Y77.119 I-0.848 J-1.336
G1 X-26.578 Y77.208
X-26.728 Y77.205
X-27.053 Y77.158
X-27.398 Y77.08
X-27.802 Y76.954
X-28.245 Y76.774
X-28.763 Y76.515
X-29.332 Y76.171
X-29.992 Y75.695
X-30.667 Y75.12
X-31.3 Y74.5
X-31.898 Y73.846
X-32.466 Y73.166
X-33.008 Y72.465
X-33.527 Y71.747
X-34.026 Y71.014
X-34.506 Y70.27
X-34.97 Y69.514
X-35.417 Y68.75
X-35.85 Y67.977
X-36.269 Y67.196
X-36.674 Y66.407
X-37.065 Y65.612
X-37.444 Y64.811
X-37.809 Y64.004
X-38.161 Y63.191
X-38.5 Y62.372
X-38.826 Y61.548
X-39.139 Y60.719
X-39.439 Y59.885
X-39.726 Y59.047
X-40 Y58.204
X-40.26 Y57.357
X-40.506 Y56.506
X-40.739 Y55.651
X-40.958 Y54.792
X-41.162 Y53.93
X-41.352 Y53.064
X-41.528 Y52.196
X-41.689 Y51.324
X-41.834 Y50.45
X-41.964 Y49.574
X-42.078 Y48.695
X-42.176 Y47.814
X-42.256 Y46.932
X-42.319 Y46.048
X-42.364 Y45.163
X-42.388 Y44.277
X-42.391 Y43.391
X-42.37 Y42.505
X-42.324 Y41.62
X-42.249 Y40.737
X-42.143 Y39.857
X-41.998 Y38.983
X-41.804 Y38.119
X-41.609 Y37.48
X-41.422 Y37.006
X-41.311 Y36.782
X-41.144 Y36.52
X-40.923 Y36.301
X-40.658 Y36.137
X-40.364 Y36.035
X-40.055 Y36
X-37.755
G3 X-37.191 Y36.465 I-0.021 J0.6
G1 X-37.17 Y36.556 Z-17.993
X-37.149 Y36.645 Z-17.971
X-37.13 Y36.73 Z-17.935
X-37.112 Y36.808 Z-17.885
X-37.095 Y36.878 Z-17.824
X-37.082 Y36.938 Z-17.753
X-37.071 Y36.986 Z-17.672
X-37.063 Y37.021 Z-17.585
X-37.058 Y37.042 Z-17.494
X-37.056 Y37.049 Z-17.4
Z-16.8
X-25.324 Y76.643
Z-17.4
X-25.331 Y76.647 Z-17.494
X-25.349 Y76.659 Z-17.585
X-25.38 Y76.678 Z-17.672
X-25.421 Y76.704 Z-17.753
X-25.473 Y76.737 Z-17.824
X-25.533 Y76.776 Z-17.885
X-25.601 Y76.819 Z-17.935
X-25.674 Y76.865 Z-17.971
X-25.752 Y76.914 Z-17.993
X-25.831 Y76.965 Z-18
G3 X-26.578 Y77.208 I-0.848 J-1.336
G1 X-29.396 Y77.291
X-29.546 Y77.288
X-29.852 Y77.244
X-30.191 Y77.167
X-30.586 Y77.044
X-31.01 Y76.873
X-31.5 Y76.628
X-32.058 Y76.29
X-32.68 Y75.842
X-33.355 Y75.268
X-33.985 Y74.646
X-34.578 Y73.987
X-35.138 Y73.301
X-35.671 Y72.593
X-36.18 Y71.867
X-36.668 Y71.127
X-37.137 Y70.375
X-37.588 Y69.613
X-38.024 Y68.841
X-38.444 Y68.061
X-38.85 Y67.273
X-39.242 Y66.479
X-39.621 Y65.678
X-39.986 Y64.87
X-40.339 Y64.058
X-40.679 Y63.239
X-41.006 Y62.416
X-41.32 Y61.587
X-41.622 Y60.754
X-41.911 Y59.916
X-42.187 Y59.074
X-42.45 Y58.228
X-42.699 Y57.378
X-42.936 Y56.524
X-43.159 Y55.666
X-43.368 Y54.805
X-43.563 Y53.941
X-43.745 Y53.073
X-43.912 Y52.203
X-44.065 Y51.33
X-44.203 Y50.455
X-44.326 Y49.577
X-44.433 Y48.698
X-44.525 Y47.817
X-44.6 Y46.934
X-44.657 Y46.049
X-44.696 Y45.164
X-44.715 Y44.278
X-44.714 Y43.392
X-44.69 Y42.506
X-44.641 Y41.621
X-44.564 Y40.739
X-44.454 Y39.859
X-44.307 Y38.986
X-44.111 Y38.121
X-43.912 Y37.474
X-43.721 Y36.995
X-43.614 Y36.779
X-43.447 Y36.518
X-43.225 Y36.3
X-42.962 Y36.136
X-42.668 Y36.034
X-42.359 Y36
X-40.055
G3 X-39.491 Y36.465 I-0.021 J0.6
G1 X-39.47 Y36.556 Z-17.993
X-39.45 Y36.645 Z-17.971
X-39.43 Y36.73 Z-17.935
X-39.412 Y36.808 Z-17.885
X-39.396 Y36.878 Z-17.824
X-39.382 Y36.938 Z-17.753
X-39.371 Y36.986 Z-17.672
X-39.363 Y37.021 Z-17.585
X-39.358 Y37.042 Z-17.494
X-39.357 Y37.049 Z-17.4
Z-16.8
X-28.143 Y76.726
Z-17.4
X-28.149 Y76.73 Z-17.494
X-28.168 Y76.742 Z-17.585
X-28.198 Y76.761 Z-17.672
X-28.24 Y76.787 Z-17.753
X-28.291 Y76.82 Z-17.824
X-28.352 Y76.859 Z-17.885
X-28.42 Y76.902 Z-17.935
X-28.493 Y76.948 Z-17.971
X-28.57 Y76.997 Z-17.993
X-28.649 Y77.048 Z-18
G3 X-29.396 Y77.291 I-0.848 J-1.336
G1 X-32.215 Y77.374
X-32.365 Y77.371
X-32.661 Y77.323
X-33.009 Y77.238
X-33.395 Y77.111
X-33.826 Y76.928
X-34.307 Y76.678
X-34.858 Y76.331
X-35.479 Y75.868
X-36.144 Y75.283
X-36.764 Y74.65
X-37.345 Y73.98
X-37.893 Y73.284
X-38.412 Y72.566
X-38.908 Y71.831
X-39.381 Y71.082
X-39.836 Y70.322
X-40.272 Y69.551
X-40.693 Y68.771
X-41.099 Y67.983
X-41.49 Y67.188
X-41.868 Y66.386
X-42.232 Y65.579
X-42.583 Y64.765
X-42.922 Y63.946
X-43.248 Y63.122
X-43.561 Y62.293
X-43.862 Y61.46
X-44.151 Y60.622
X-44.426 Y59.78
X-44.689 Y58.934
X-44.94 Y58.084
X-45.178 Y57.23
X-45.402 Y56.373
X-45.614 Y55.512
X-45.812 Y54.649
X-45.997 Y53.782
X-46.167 Y52.912
X-46.324 Y52.04
X-46.467 Y51.166
X-46.595 Y50.289
X-46.709 Y49.41
X-46.807 Y48.53
X-46.889 Y47.647
X-46.955 Y46.764
X-47.003 Y45.879
X-47.034 Y44.993
X-47.045 Y44.107
X-47.035 Y43.221
X-47.003 Y42.335
X-46.946 Y41.451
X-46.861 Y40.569
X-46.743 Y39.691
X-46.585 Y38.819
X-46.385 Y37.987
X-46.185 Y37.376
X-45.988 Y36.904
X-45.912 Y36.757
X-45.743 Y36.503
X-45.523 Y36.291
X-45.261 Y36.132
X-44.972 Y36.033
X-44.668 Y36
X-42.359
G3 X-41.796 Y36.465 I-0.021 J0.6
G1 X-41.775 Y36.556 Z-17.993
X-41.754 Y36.645 Z-17.971
X-41.735 Y36.73 Z-17.935
X-41.716 Y36.808 Z-17.885
X-41.7 Y36.878 Z-17.824
X-41.687 Y36.938 Z-17.753
X-41.676 Y36.986 Z-17.672
X-41.667 Y37.021 Z-17.585
X-41.663 Y37.042 Z-17.494
X-41.661 Y37.049 Z-17.4
Z-16.8
X-30.962 Y76.809
Z-17.4
X-30.968 Y76.813 Z-17.494
X-30.986 Y76.825 Z-17.585
X-31.017 Y76.844 Z-17.672
X-31.058 Y76.87 Z-17.753
X-31.11 Y76.903 Z-17.824
X-31.17 Y76.941 Z-17.885
X-31.238 Y76.984 Z-17.935
X-31.312 Y77.031 Z-17.971
X-31.389 Y77.08 Z-17.993
X-31.468 Y77.131 Z-18
G3 X-32.215 Y77.374 I-0.848 J-1.336
G1 X-33.423 Y77.409
X-33.624 Y77.413
X-34.027 Y77.416
X-34.228
X-35.235 Y77.384
X-35.384 Y77.372
X-35.711 Y77.295
X-36.091 Y77.173
X-36.493 Y77.007
X-36.96 Y76.77
X-37.478 Y76.451
X-38.056 Y76.028
X-38.722 Y75.452
X-39.344 Y74.821
X-39.924 Y74.152
X-40.469 Y73.453
X-40.985 Y72.732
X-41.474 Y71.993
X-41.941 Y71.24
X-42.387 Y70.475
X-42.816 Y69.699
X-43.227 Y68.914
X-43.624 Y68.122
X-44.005 Y67.322
X-44.373 Y66.516
X-44.728 Y65.704
X-45.07 Y64.886
X-45.399 Y64.064
X-45.715 Y63.236
X-46.019 Y62.404
X-46.311 Y61.567
X-46.591 Y60.726
X-46.858 Y59.881
X-47.112 Y59.032
X-47.354 Y58.18
X-47.584 Y57.324
X-47.801 Y56.465
X-48.005 Y55.603
X-48.196 Y54.737
X-48.374 Y53.869
X-48.539 Y52.999
X-48.69 Y52.125
X-48.827 Y51.25
X-48.95 Y50.373
X-49.059 Y49.493
X-49.153 Y48.612
X-49.231 Y47.729
X-49.293 Y46.845
X-49.339 Y45.96
X-49.366 Y45.075
X-49.375 Y44.189
X-49.364 Y43.303
X-49.331 Y42.417
X-49.273 Y41.533
X-49.187 Y40.651
X-49.069 Y39.773
X-48.914 Y38.9
X-48.71 Y38.038
X-48.508 Y37.41
X-48.315 Y36.94
X-48.225 Y36.765
X-48.057 Y36.508
X-47.836 Y36.294
X-47.574 Y36.133
X-47.283 Y36.034
X-46.978 Y36
X-44.668
G3 X-44.105 Y36.465 I-0.021 J0.6
G1 X-44.083 Y36.556 Z-17.993
X-44.063 Y36.645 Z-17.971
X-44.043 Y36.73 Z-17.935
X-44.025 Y36.808 Z-17.885
X-44.009 Y36.878 Z-17.824
X-43.995 Y36.938 Z-17.753
X-43.984 Y36.986 Z-17.672
X-43.976 Y37.021 Z-17.585
X-43.971 Y37.042 Z-17.494
X-43.97 Y37.049 Z-17.4
Z-16.8
X-33.949 Y76.896
Z-17.4
X-33.956 Y76.9 Z-17.494
X-33.975 Y76.911 Z-17.585
X-34.007 Y76.928 Z-17.672
X-34.05 Y76.952 Z-17.753
X-34.103 Y76.981 Z-17.824
X-34.166 Y77.016 Z-17.885
X-34.236 Y77.055 Z-17.935
X-34.312 Y77.097 Z-17.971
X-34.392 Y77.141 Z-17.993
X-34.475 Y77.187 Z-18
G3 X-35.235 Y77.384 I-0.766 J-1.385
G1 X-38.053 Y77.296
X-38.203 Y77.283
X-38.529 Y77.208
X-38.868 Y77.101
X-39.266 Y76.939
X-39.695 Y76.723
X-40.191 Y76.42
X-40.736 Y76.025
X-41.357 Y75.494
X-41.982 Y74.865
X-42.561 Y74.195
X-43.103 Y73.494
X-43.613 Y72.769
X-44.095 Y72.025
X-44.553 Y71.267
X-44.991 Y70.496
X-45.409 Y69.715
X-45.81 Y68.925
X-46.196 Y68.127
X-46.567 Y67.323
X-46.924 Y66.512
X-47.268 Y65.695
X-47.599 Y64.873
X-47.917 Y64.046
X-48.223 Y63.214
X-48.516 Y62.378
X-48.797 Y61.538
X-49.067 Y60.693
X-49.324 Y59.845
X-49.569 Y58.994
X-49.801 Y58.139
X-50.021 Y57.281
X-50.229 Y56.419
X-50.424 Y55.555
X-50.607 Y54.688
X-50.777 Y53.818
X-50.934 Y52.946
X-51.077 Y52.071
X-51.207 Y51.195
X-51.323 Y50.316
X-51.425 Y49.436
X-51.512 Y48.554
X-51.584 Y47.671
X-51.64 Y46.787
X-51.68 Y45.901
X-51.702 Y45.016
X-51.706 Y44.13
X-51.69 Y43.244
X-51.652 Y42.358
X-51.59 Y41.474
X-51.5 Y40.593
X-51.378 Y39.715
X-51.217 Y38.844
X-51.01 Y37.987
X-50.807 Y37.371
X-50.609 Y36.901
X-50.533 Y36.755
X-50.364 Y36.501
X-50.144 Y36.29
X-49.883 Y36.131
X-49.594 Y36.033
X-49.291 Y36
X-46.978
G3 X-46.414 Y36.465 I-0.021 J0.6
G1 X-46.393 Y36.556 Z-17.993
X-46.372 Y36.645 Z-17.971
X-46.353 Y36.73 Z-17.935
X-46.335 Y36.808 Z-17.885
X-46.319 Y36.878 Z-17.824
X-46.305 Y36.938 Z-17.753
X-46.294 Y36.986 Z-17.672
X-46.286 Y37.021 Z-17.585
X-46.281 Y37.042 Z-17.494
X-46.279 Y37.049 Z-17.4
Z-16.8
X-36.768 Y76.808
Z-17.4
X-36.775 Y76.811 Z-17.494
X-36.794 Y76.822 Z-17.585
X-36.825 Y76.839 Z-17.672
X-36.868 Y76.863 Z-17.753
X-36.922 Y76.893 Z-17.824
X-36.984 Y76.927 Z-17.885
X-37.055 Y76.966 Z-17.935
X-37.131 Y77.008 Z-17.971
X-37.211 Y77.053 Z-17.993
X-37.293 Y77.098 Z-18
G3 X-38.053 Y77.296 I-0.766 J-1.385
G1 X-40.671 Y77.213
X-40.82 Y77.201
X-41.117 Y77.148
X-41.427 Y77.066
X-41.784 Y76.94
X-42.179 Y76.764
X-42.621 Y76.523
X-43.107 Y76.205
X-43.663 Y75.774
X-44.29 Y75.201
X-44.894 Y74.553
X-45.454 Y73.866
X-45.976 Y73.15
X-46.467 Y72.412
X-46.931 Y71.657
X-47.371 Y70.888
X-47.79 Y70.107
X-48.19 Y69.317
X-48.574 Y68.518
X-48.942 Y67.712
X-49.296 Y66.9
X-49.636 Y66.081
X-49.962 Y65.258
X-50.276 Y64.429
X-50.578 Y63.596
X-50.867 Y62.758
X-51.144 Y61.916
X-51.409 Y61.071
X-51.663 Y60.222
X-51.904 Y59.369
X-52.134 Y58.513
X-52.351 Y57.654
X-52.556 Y56.792
X-52.749 Y55.927
X-52.93 Y55.06
X-53.099 Y54.19
X-53.254 Y53.318
X-53.397 Y52.443
X-53.527 Y51.567
X-53.643 Y50.688
X-53.746 Y49.808
X-53.834 Y48.926
X-53.908 Y48.043
X-53.966 Y47.159
X-54.009 Y46.274
X-54.034 Y45.388
X-54.042 Y44.502
X-54.03 Y43.616
X-53.997 Y42.73
X-53.942 Y41.846
X-53.861 Y40.964
X-53.752 Y40.084
X-53.609 Y39.21
X-53.422 Y38.344
X-53.218 Y37.635
X-53.028 Y37.131
X-52.873 Y36.803
X-52.707 Y36.534
X-52.485 Y36.31
X-52.218 Y36.141
X-51.92 Y36.036
X-51.607 Y36
X-49.291
G3 X-48.727 Y36.465 I-0.021 J0.6
G1 X-48.706 Y36.556 Z-17.993
X-48.685 Y36.645 Z-17.971
X-48.666 Y36.73 Z-17.935
X-48.648 Y36.808 Z-17.885
X-48.632 Y36.878 Z-17.824
X-48.618 Y36.938 Z-17.753
X-48.607 Y36.986 Z-17.672
X-48.599 Y37.021 Z-17.585
X-48.594 Y37.042 Z-17.494
X-48.592 Y37.049 Z-17.4
Z-16.8
X-39.385 Y76.725
Z-17.4
X-39.392 Y76.729 Z-17.494
X-39.411 Y76.74 Z-17.585
X-39.443 Y76.757 Z-17.672
X-39.486 Y76.781 Z-17.753
X-39.539 Y76.811 Z-17.824
X-39.602 Y76.845 Z-17.885
X-39.672 Y76.884 Z-17.935
X-39.748 Y76.926 Z-17.971
X-39.828 Y76.97 Z-17.993
X-39.91 Y77.016 Z-18
G3 X-40.671 Y77.213 I-0.766 J-1.385
G1 X-43.288 Y77.131
X-43.394 Y77.122
X-43.644 Y77.091
X-43.937 Y77.029
X-44.271 Y76.931
X-44.623 Y76.796
X-45.035 Y76.598
X-45.471 Y76.344
X-45.969 Y75.997
X-46.53 Y75.535
X-47.161 Y74.925
X-47.746 Y74.26
X-48.288 Y73.558
X-48.792 Y72.83
X-49.266 Y72.081
X-49.712 Y71.316
X-50.136 Y70.537
X-50.538 Y69.748
X-50.922 Y68.949
X-51.29 Y68.143
X-51.642 Y67.33
X-51.98 Y66.511
X-52.304 Y65.686
X-52.615 Y64.856
X-52.914 Y64.022
X-53.2 Y63.183
X-53.475 Y62.341
X-53.737 Y61.494
X-53.988 Y60.645
X-54.227 Y59.791
X-54.454 Y58.935
X-54.67 Y58.075
X-54.873 Y57.213
X-55.065 Y56.348
X-55.245 Y55.48
X-55.413 Y54.61
X-55.568 Y53.738
X-55.711 Y52.863
X-55.842 Y51.987
X-55.959 Y51.108
X-56.063 Y50.228
X-56.153 Y49.347
X-56.229 Y48.464
X-56.29 Y47.58
X-56.336 Y46.695
X-56.365 Y45.809
X-56.377 Y44.923
X-56.371 Y44.037
X-56.345 Y43.151
X-56.298 Y42.267
X-56.227 Y41.383
X-56.13 Y40.502
X-56.003 Y39.625
X-55.838 Y38.755
X-55.622 Y37.906
X-55.425 Y37.327
X-55.218 Y36.85
X-55.161 Y36.742
X-54.991 Y36.492
X-54.771 Y36.285
X-54.512 Y36.129
X-54.226 Y36.033
X-53.925 Y36
X-51.607
G3 X-51.043 Y36.465 I-0.021 J0.6
G1 X-51.022 Y36.556 Z-17.993
X-51.001 Y36.645 Z-17.971
X-50.982 Y36.73 Z-17.935
X-50.964 Y36.808 Z-17.885
X-50.948 Y36.878 Z-17.824
X-50.934 Y36.938 Z-17.753
X-50.923 Y36.986 Z-17.672
X-50.915 Y37.021 Z-17.585
X-50.91 Y37.042 Z-17.494
X-50.908 Y37.049 Z-17.4
Z-16.8
X-42.003 Y76.643
Z-17.4
X-42.009 Y76.647 Z-17.494
X-42.028 Y76.657 Z-17.585
X-42.06 Y76.675 Z-17.672
X-42.103 Y76.699 Z-17.753
X-42.156 Y76.728 Z-17.824
X-42.219 Y76.763 Z-17.885
X-42.289 Y76.802 Z-17.935
X-42.365 Y76.844 Z-17.971
X-42.446 Y76.888 Z-17.993
X-42.528 Y76.933 Z-18
G3 X-43.288 Y77.131 I-0.766 J-1.385
G1 X-45.905 Y77.049
X-46.183 Y77.026
X-46.458 Y76.981
X-46.753 Y76.908
X-47.102 Y76.791
X-47.463 Y76.638
X-47.887 Y76.415
X-48.332 Y76.134
X-48.843 Y75.75
X-49.416 Y75.243
X-50.031 Y74.605
X-50.595 Y73.921
X-51.116 Y73.205
X-51.602 Y72.464
X-52.057 Y71.703
X-52.486 Y70.928
X-52.892 Y70.14
X-53.277 Y69.342
X-53.645 Y68.536
X-53.997 Y67.723
X-54.333 Y66.903
X-54.655 Y66.078
X-54.964 Y65.247
X-55.26 Y64.412
X-55.544 Y63.572
X-55.815 Y62.729
X-56.075 Y61.881
X-56.323 Y61.031
X-56.559 Y60.177
X-56.784 Y59.32
X-56.998 Y58.46
X-57.199 Y57.597
X-57.39 Y56.731
X-57.568 Y55.863
X-57.735 Y54.993
X-57.89 Y54.121
X-58.032 Y53.246
X-58.163 Y52.37
X-58.281 Y51.491
X-58.385 Y50.611
X-58.477 Y49.73
X-58.554 Y48.847
X-58.617 Y47.963
X-58.665 Y47.079
X-58.697 Y46.193
X-58.713 Y45.307
X-58.711 Y44.421
X-58.691 Y43.535
X-58.65 Y42.65
X-58.588 Y41.766
X-58.501 Y40.884
X-58.386 Y40.005
X-58.237 Y39.132
X-58.043 Y38.267
X-57.838 Y37.579
X-57.647 Y37.085
X-57.505 Y36.791
X-57.338 Y36.526
X-57.116 Y36.305
X-56.851 Y36.138
X-56.555 Y36.035
X-56.244 Y36
X-53.925
G3 X-53.362 Y36.465 I-0.021 J0.6
G1 X-53.34 Y36.556 Z-17.993
X-53.32 Y36.645 Z-17.971
X-53.3 Y36.73 Z-17.935
X-53.282 Y36.808 Z-17.885
X-53.266 Y36.878 Z-17.824
X-53.252 Y36.938 Z-17.753
X-53.241 Y36.986 Z-17.672
X-53.233 Y37.021 Z-17.585
X-53.228 Y37.042 Z-17.494
X-53.227 Y37.049 Z-17.4
Z-16.8
X-44.62 Y76.561
Z-17.4
X-44.626 Y76.564 Z-17.494
X-44.646 Y76.575 Z-17.585
X-44.677 Y76.593 Z-17.672
X-44.72 Y76.616 Z-17.753
X-44.774 Y76.646 Z-17.824
X-44.836 Y76.681 Z-17.885
X-44.907 Y76.719 Z-17.935
X-44.983 Y76.761 Z-17.971
X-45.063 Y76.806 Z-17.993
X-45.145 Y76.851 Z-18
G3 X-45.905 Y77.049 I-0.766 J-1.385
G1 X-47.113 Y77.01
X-47.717 Y76.989
X-48.522 Y76.956
X-48.878 Y76.923
X-49.159 Y76.875
X-49.459 Y76.798
X-49.79 Y76.683
X-50.169 Y76.518
X-50.57 Y76.303
X-51.025 Y76.009
X-51.533 Y75.62
X-52.084 Y75.123
X-52.693 Y74.478
X-53.25 Y73.789
X-53.763 Y73.067
X-54.24 Y72.32
X-54.686 Y71.554
X-55.105 Y70.774
X-55.501 Y69.981
X-55.877 Y69.179
X-56.235 Y68.368
X-56.576 Y67.55
X-56.902 Y66.726
X-57.214 Y65.897
X-57.512 Y65.062
X-57.798 Y64.223
X-58.071 Y63.38
X-58.332 Y62.534
X-58.582 Y61.683
X-58.82 Y60.83
X-59.046 Y59.973
X-59.261 Y59.114
X-59.465 Y58.251
X-59.658 Y57.386
X-59.839 Y56.519
X-60.008 Y55.649
X-60.166 Y54.777
X-60.312 Y53.903
X-60.446 Y53.027
X-60.568 Y52.149
X-60.677 Y51.27
X-60.773 Y50.389
X-60.856 Y49.507
X-60.925 Y48.623
X-60.98 Y47.739
X-61.02 Y46.854
X-61.045 Y45.968
X-61.053 Y45.082
X-61.043 Y44.196
X-61.015 Y43.31
X-60.968 Y42.425
X-60.898 Y41.542
X-60.803 Y40.661
X-60.678 Y39.784
X-60.516 Y38.912
X-60.308 Y38.051
X-60.099 Y37.41
X-59.897 Y36.927
X-59.81 Y36.758
X-59.641 Y36.503
X-59.421 Y36.291
X-59.159 Y36.132
X-58.87 Y36.033
X-58.566 Y36
X-56.244
G3 X-55.68 Y36.465 I-0.021 J0.6
G1 X-55.659 Y36.556 Z-17.993
X-55.639 Y36.645 Z-17.971
X-55.619 Y36.73 Z-17.935
X-55.601 Y36.808 Z-17.885
X-55.585 Y36.878 Z-17.824
X-55.571 Y36.938 Z-17.753
X-55.56 Y36.986 Z-17.672
X-55.552 Y37.021 Z-17.585
X-55.547 Y37.042 Z-17.494
X-55.545 Y37.049 Z-17.4
Z-16.8
X-47.233 Y76.48
Z-17.4
X-47.239 Y76.484 Z-17.494
X-47.258 Y76.494 Z-17.585
X-47.29 Y76.511 Z-17.672
X-47.333 Y76.535 Z-17.753
X-47.387 Y76.564 Z-17.824
X-47.45 Y76.598 Z-17.885
X-47.521 Y76.636 Z-17.935
X-47.597 Y76.677 Z-17.971
X-47.678 Y76.721 Z-17.993
X-47.76 Y76.765 Z-18
G3 X-48.522 Y76.956 I-0.753 J-1.392
G1 X-51.341 Y76.84
X-51.52 Y76.824
X-51.795 Y76.776
X-52.097 Y76.699
X-52.419 Y76.588
X-52.797 Y76.423
X-53.186 Y76.214
X-53.636 Y75.923
X-54.124 Y75.55
X-54.665 Y75.063
X-55.273 Y74.418
X-55.828 Y73.728
X-56.338 Y73.003
X-56.811 Y72.254
X-57.252 Y71.485
X-57.665 Y70.701
X-58.054 Y69.905
X-58.423 Y69.099
X-58.773 Y68.285
X-59.106 Y67.464
X-59.424 Y66.637
X-59.728 Y65.804
X-60.018 Y64.967
X-60.295 Y64.125
X-60.559 Y63.28
X-60.812 Y62.43
X-61.054 Y61.578
X-61.283 Y60.722
X-61.502 Y59.863
X-61.709 Y59.002
X-61.905 Y58.138
X-62.09 Y57.271
X-62.263 Y56.402
X-62.425 Y55.531
X-62.576 Y54.657
X-62.714 Y53.782
X-62.841 Y52.905
X-62.956 Y52.027
X-63.058 Y51.146
X-63.148 Y50.265
X-63.224 Y49.382
X-63.287 Y48.498
X-63.336 Y47.613
X-63.37 Y46.728
X-63.389 Y45.842
X-63.392 Y44.956
X-63.377 Y44.07
X-63.345 Y43.184
X-63.292 Y42.3
X-63.218 Y41.417
X-63.116 Y40.536
X-62.984 Y39.66
X-62.814 Y38.79
X-62.599 Y37.939
X-62.391 Y37.33
X-62.188 Y36.86
X-62.125 Y36.742
X-61.956 Y36.492
X-61.736 Y36.285
X-61.477 Y36.129
X-61.19 Y36.033
X-60.889 Y36
X-58.566
G3 X-58.002 Y36.465 I-0.021 J0.6
G1 X-57.981 Y36.556 Z-17.993
X-57.96 Y36.645 Z-17.971
X-57.941 Y36.73 Z-17.935
X-57.923 Y36.808 Z-17.885
X-57.907 Y36.878 Z-17.824
X-57.893 Y36.938 Z-17.753
X-57.882 Y36.986 Z-17.672
X-57.874 Y37.021 Z-17.585
X-57.869 Y37.042 Z-17.494
X-57.867 Y37.049 Z-17.4
Z-16.8
X-50.051 Y76.365
Z-17.4
X-50.058 Y76.368 Z-17.494
X-50.077 Y76.379 Z-17.585
X-50.109 Y76.396 Z-17.672
X-50.152 Y76.419 Z-17.753
X-50.206 Y76.448 Z-17.824
X-50.269 Y76.482 Z-17.885
X-50.339 Y76.52 Z-17.935
X-50.416 Y76.562 Z-17.971
X-50.496 Y76.605 Z-17.993
X-50.579 Y76.65 Z-18
G3 X-51.341 Y76.84 I-0.753 J-1.392
G1 X-53.958 Y76.733
X-54.145 Y76.716
X-54.42 Y76.669
X-54.713 Y76.593
X-55.034 Y76.483
X-55.404 Y76.321
X-55.788 Y76.115
X-56.23 Y75.83
X-56.709 Y75.463
X-57.236 Y74.988
X-57.83 Y74.358
X-58.385 Y73.667
X-58.893 Y72.942
X-59.363 Y72.19
X-59.799 Y71.419
X-60.207 Y70.632
X-60.591 Y69.834
X-60.953 Y69.025
X-61.297 Y68.208
X-61.623 Y67.384
X-61.933 Y66.554
X-62.229 Y65.719
X-62.511 Y64.879
X-62.781 Y64.035
X-63.038 Y63.187
X-63.283 Y62.335
X-63.517 Y61.48
X-63.739 Y60.623
X-63.95 Y59.762
X-64.149 Y58.899
X-64.338 Y58.033
X-64.515 Y57.164
X-64.681 Y56.294
X-64.836 Y55.422
X-64.979 Y54.547
X-65.111 Y53.671
X-65.232 Y52.793
X-65.34 Y51.914
X-65.436 Y51.033
X-65.519 Y50.15
X-65.59 Y49.267
X-65.647 Y48.383
X-65.69 Y47.498
X-65.719 Y46.612
X-65.733 Y45.726
X-65.731 Y44.84
X-65.712 Y43.954
X-65.675 Y43.069
X-65.618 Y42.184
X-65.537 Y41.302
X-65.43 Y40.422
X-65.292 Y39.547
X-65.115 Y38.679
X-64.9 Y37.861
X-64.694 Y37.274
X-64.489 Y36.812
X-64.445 Y36.731
X-64.274 Y36.485
X-64.055 Y36.28
X-63.797 Y36.127
X-63.513 Y36.032
X-63.215 Y36
X-60.889
G3 X-60.326 Y36.465 I-0.021 J0.6
G1 X-60.305 Y36.556 Z-17.993
X-60.284 Y36.645 Z-17.971
X-60.265 Y36.73 Z-17.935
X-60.246 Y36.808 Z-17.885
X-60.23 Y36.878 Z-17.824
X-60.217 Y36.938 Z-17.753
X-60.206 Y36.986 Z-17.672
X-60.197 Y37.021 Z-17.585
X-60.193 Y37.042 Z-17.494
X-60.191 Y37.049 Z-17.4
Z-16.8
X-52.668 Y76.258
Z-17.4
X-52.675 Y76.261 Z-17.494
X-52.694 Y76.272 Z-17.585
X-52.726 Y76.289 Z-17.672
X-52.769 Y76.312 Z-17.753
X-52.823 Y76.341 Z-17.824
X-52.886 Y76.375 Z-17.885
X-52.957 Y76.413 Z-17.935
X-53.033 Y76.455 Z-17.971
X-53.114 Y76.498 Z-17.993
X-53.196 Y76.543 Z-18
G3 X-53.958 Y76.733 I-0.753 J-1.392
G1 X-54.965 Y76.692
X-55.77 Y76.647
X-56.576 Y76.598
X-56.84 Y76.569
X-57.12 Y76.514
X-57.404 Y76.436
X-57.738 Y76.313
X-58.097 Y76.148
X-58.495 Y75.924
X-58.929 Y75.632
X-59.418 Y75.242
X-59.946 Y74.747
X-60.538 Y74.095
X-61.079 Y73.393
X-61.574 Y72.659
X-62.031 Y71.899
X-62.455 Y71.121
X-62.851 Y70.328
X-63.222 Y69.524
X-63.573 Y68.71
X-63.904 Y67.888
X-64.219 Y67.06
X-64.518 Y66.226
X-64.803 Y65.387
X-65.074 Y64.543
X-65.332 Y63.695
X-65.579 Y62.844
X-65.813 Y61.99
X-66.036 Y61.132
X-66.247 Y60.271
X-66.448 Y59.408
X-66.637 Y58.543
X-66.816 Y57.675
X-66.983 Y56.804
X-67.139 Y55.932
X-67.284 Y55.058
X-67.418 Y54.182
X-67.541 Y53.304
X-67.651 Y52.425
X-67.75 Y51.545
X-67.837 Y50.663
X-67.911 Y49.78
X-67.972 Y48.896
X-68.019 Y48.011
X-68.053 Y47.125
X-68.073 Y46.24
X-68.077 Y45.353
X-68.066 Y44.467
X-68.037 Y43.582
X-67.988 Y42.697
X-67.919 Y41.814
X-67.826 Y40.932
X-67.706 Y40.054
X-67.553 Y39.181
X-67.357 Y38.317
X-67.147 Y37.608
X-66.952 Y37.103
X-66.802 Y36.793
X-66.636 Y36.527
X-66.414 Y36.305
X-66.149 Y36.139
X-65.853 Y36.035
X-65.541 Y36
X-63.215
G3 X-62.651 Y36.465 I-0.021 J0.6
G1 X-62.63 Y36.556 Z-17.993
X-62.61 Y36.645 Z-17.971
X-62.59 Y36.73 Z-17.935
X-62.572 Y36.808 Z-17.885
X-62.556 Y36.878 Z-17.824
X-62.542 Y36.938 Z-17.753
X-62.531 Y36.986 Z-17.672
X-62.523 Y37.021 Z-17.585
X-62.518 Y37.042 Z-17.494
X-62.516 Y37.049 Z-17.4
Z-16.8
X-55.277 Y76.148
Z-17.4
X-55.283 Y76.151 Z-17.494
X-55.303 Y76.161 Z-17.585
X-55.335 Y76.178 Z-17.672
X-55.379 Y76.2 Z-17.753
X-55.433 Y76.228 Z-17.824
X-55.496 Y76.261 Z-17.885
X-55.568 Y76.298 Z-17.935
X-55.645 Y76.338 Z-17.971
X-55.727 Y76.38 Z-17.993
X-55.81 Y76.423 Z-18
G3 X-56.576 Y76.598 I-0.725 J-1.407
G1 X-59.193 Y76.44
X-59.459 Y76.41
X-59.733 Y76.357
X-60.024 Y76.276
X-60.342 Y76.16
X-60.708 Y75.991
X-61.087 Y75.778
X-61.522 Y75.485
X-61.991 Y75.112
X-62.505 Y74.629
X-63.083 Y73.993
X-63.624 Y73.291
X-64.118 Y72.556
X-64.571 Y71.794
X-64.991 Y71.014
X-65.383 Y70.219
X-65.749 Y69.412
X-66.093 Y68.596
X-66.419 Y67.772
X-66.727 Y66.941
X-67.019 Y66.104
X-67.296 Y65.263
X-67.56 Y64.417
X-67.811 Y63.567
X-68.05 Y62.714
X-68.277 Y61.857
X-68.493 Y60.998
X-68.697 Y60.135
X-68.891 Y59.27
X-69.073 Y58.403
X-69.244 Y57.534
X-69.404 Y56.662
X-69.554 Y55.789
X-69.692 Y54.914
X-69.819 Y54.037
X-69.935 Y53.158
X-70.039 Y52.278
X-70.132 Y51.397
X-70.212 Y50.515
X-70.28 Y49.631
X-70.336 Y48.747
X-70.378 Y47.861
X-70.406 Y46.976
X-70.421 Y46.09
X-70.42 Y45.204
X-70.403 Y44.318
X-70.368 Y43.432
X-70.314 Y42.548
X-70.24 Y41.665
X-70.142 Y40.784
X-70.015 Y39.907
X-69.853 Y39.036
X-69.648 Y38.174
X-69.434 Y37.492
X-69.234 Y36.999
X-69.12 Y36.772
X-68.951 Y36.513
X-68.73 Y36.297
X-68.468 Y36.135
X-68.175 Y36.034
X-67.868 Y36
X-65.541
G3 X-64.977 Y36.465 I-0.021 J0.6
G1 X-64.956 Y36.556 Z-17.993
X-64.936 Y36.645 Z-17.971
X-64.916 Y36.73 Z-17.935
X-64.898 Y36.808 Z-17.885
X-64.882 Y36.878 Z-17.824
X-64.868 Y36.938 Z-17.753
X-64.857 Y36.986 Z-17.672
X-64.849 Y37.021 Z-17.585
X-64.844 Y37.042 Z-17.494
X-64.842 Y37.049 Z-17.4
Z-16.8
X-57.894 Y75.989
Z-17.4
X-57.9 Y75.993 Z-17.494
X-57.92 Y76.003 Z-17.585
X-57.952 Y76.019 Z-17.672
X-57.996 Y76.042 Z-17.753
X-58.05 Y76.07 Z-17.824
X-58.114 Y76.103 Z-17.885
X-58.185 Y76.139 Z-17.935
X-58.262 Y76.179 Z-17.971
X-58.344 Y76.221 Z-17.993
X-58.427 Y76.264 Z-18
G3 X-59.193 Y76.44 I-0.725 J-1.407
G1 X-61.81 Y76.281
X-62.053 Y76.254
X-62.327 Y76.201
X-62.608 Y76.123
X-62.926 Y76.007
X-63.285 Y75.841
X-63.662 Y75.63
X-64.089 Y75.342
X-64.552 Y74.973
X-65.055 Y74.501
X-65.62 Y73.88
X-66.161 Y73.178
X-66.653 Y72.441
X-67.104 Y71.678
X-67.52 Y70.896
X-67.907 Y70.099
X-68.268 Y69.29
X-68.607 Y68.471
X-68.927 Y67.644
X-69.228 Y66.811
X-69.514 Y65.972
X-69.785 Y65.128
X-70.042 Y64.28
X-70.286 Y63.429
X-70.518 Y62.573
X-70.738 Y61.715
X-70.947 Y60.854
X-71.144 Y59.99
X-71.33 Y59.124
X-71.505 Y58.255
X-71.67 Y57.384
X-71.823 Y56.512
X-71.966 Y55.637
X-72.098 Y54.761
X-72.218 Y53.883
X-72.328 Y53.004
X-72.426 Y52.123
X-72.512 Y51.241
X-72.587 Y50.358
X-72.649 Y49.474
X-72.699 Y48.589
X-72.736 Y47.704
X-72.759 Y46.818
X-72.768 Y45.932
X-72.761 Y45.046
X-72.739 Y44.16
X-72.699 Y43.275
X-72.641 Y42.391
X-72.561 Y41.508
X-72.456 Y40.628
X-72.321 Y39.752
X-72.151 Y38.883
X-71.936 Y38.023
X-71.723 Y37.384
X-71.519 Y36.904
X-71.438 Y36.75
X-71.269 Y36.498
X-71.049 Y36.288
X-70.788 Y36.131
X-70.5 Y36.033
X-70.198 Y36
X-67.868
G3 X-67.305 Y36.465 I-0.021 J0.6
G1 X-67.284 Y36.556 Z-17.993
X-67.263 Y36.645 Z-17.971
X-67.243 Y36.73 Z-17.935
X-67.225 Y36.808 Z-17.885
X-67.209 Y36.878 Z-17.824
X-67.196 Y36.938 Z-17.753
X-67.185 Y36.986 Z-17.672
X-67.176 Y37.021 Z-17.585
X-67.171 Y37.042 Z-17.494
X-67.17 Y37.049 Z-17.4
Z-16.8
X-60.511 Y75.831
Z-17.4
X-60.518 Y75.834 Z-17.494
X-60.537 Y75.844 Z-17.585
X-60.569 Y75.861 Z-17.672
X-60.613 Y75.883 Z-17.753
X-60.667 Y75.911 Z-17.824
X-60.731 Y75.944 Z-17.885
X-60.802 Y75.981 Z-17.935
X-60.88 Y76.021 Z-17.971
X-60.961 Y76.063 Z-17.993
X-61.044 Y76.106 Z-18
G3 X-61.81 Y76.281 I-0.725 J-1.407
G1 X-62.414 Y76.244
X-63.018 Y76.204
X-64.427 Y76.09
X-64.727 Y76.051
X-64.999 Y75.993
X-65.279 Y75.909
X-65.611 Y75.779
X-65.958 Y75.611
X-66.35 Y75.38
X-66.768 Y75.086
X-67.24 Y74.694
X-67.747 Y74.198
X-68.31 Y73.553
X-68.836 Y72.84
X-69.315 Y72.094
X-69.753 Y71.324
X-70.157 Y70.535
X-70.531 Y69.732
X-70.881 Y68.918
X-71.208 Y68.095
X-71.516 Y67.264
X-71.807 Y66.427
X-72.082 Y65.584
X-72.342 Y64.737
X-72.588 Y63.886
X-72.822 Y63.031
X-73.044 Y62.173
X-73.254 Y61.312
X-73.452 Y60.449
X-73.639 Y59.583
X-73.816 Y58.714
X-73.981 Y57.844
X-74.136 Y56.971
X-74.28 Y56.097
X-74.413 Y55.221
X-74.536 Y54.343
X-74.647 Y53.464
X-74.748 Y52.584
X-74.836 Y51.702
X-74.914 Y50.819
X-74.979 Y49.936
X-75.032 Y49.051
X-75.073 Y48.166
X-75.1 Y47.28
X-75.113 Y46.394
X-75.112 Y45.508
X-75.096 Y44.622
X-75.063 Y43.737
X-75.012 Y42.852
X-74.941 Y41.969
X-74.848 Y41.087
X-74.728 Y40.209
X-74.579 Y39.336
X-74.389 Y38.47
X-74.17 Y37.706
X-73.971 Y37.173
X-73.757 Y36.717
X-73.751 Y36.706
X-73.579 Y36.467
X-73.361 Y36.27
X-73.107 Y36.122
X-72.827 Y36.031
X-72.535 Y36
X-70.198
G3 X-69.634 Y36.465 I-0.021 J0.6
G1 X-69.613 Y36.556 Z-17.993
X-69.593 Y36.645 Z-17.971
X-69.573 Y36.73 Z-17.935
X-69.555 Y36.808 Z-17.885
X-69.539 Y36.878 Z-17.824
X-69.525 Y36.938 Z-17.753
X-69.514 Y36.986 Z-17.672
X-69.506 Y37.021 Z-17.585
X-69.501 Y37.042 Z-17.494
X-69.499 Y37.049 Z-17.4
Z-16.8
X-63.12 Y75.667
Z-17.4
X-63.126 Y75.67 Z-17.494
X-63.146 Y75.68 Z-17.585
X-63.178 Y75.695 Z-17.672
X-63.222 Y75.717 Z-17.753
X-63.277 Y75.744 Z-17.824
X-63.342 Y75.775 Z-17.885
X-63.414 Y75.811 Z-17.935
X-63.492 Y75.849 Z-17.971
X-63.574 Y75.889 Z-17.993
X-63.658 Y75.931 Z-18
G3 X-64.427 Y76.09 I-0.696 J-1.421
G1 X-67.045 Y75.879
X-67.32 Y75.842
X-67.592 Y75.784
X-67.873 Y75.7
X-68.189 Y75.577
X-68.545 Y75.403
X-68.917 Y75.184
X-69.339 Y74.888
X-69.794 Y74.509
X-70.288 Y74.027
X-70.84 Y73.394
X-71.367 Y72.682
X-71.844 Y71.935
X-72.279 Y71.163
X-72.679 Y70.372
X-73.049 Y69.567
X-73.394 Y68.751
X-73.716 Y67.926
X-74.018 Y67.093
X-74.303 Y66.253
X-74.571 Y65.409
X-74.825 Y64.56
X-75.065 Y63.707
X-75.292 Y62.85
X-75.507 Y61.991
X-75.71 Y61.128
X-75.901 Y60.263
X-76.082 Y59.395
X-76.252 Y58.526
X-76.41 Y57.654
X-76.559 Y56.78
X-76.696 Y55.905
X-76.823 Y55.028
X-76.939 Y54.149
X-77.044 Y53.269
X-77.138 Y52.388
X-77.22 Y51.506
X-77.292 Y50.623
X-77.351 Y49.739
X-77.398 Y48.854
X-77.433 Y47.968
X-77.455 Y47.082
X-77.462 Y46.196
X-77.456 Y45.31
X-77.434 Y44.424
X-77.395 Y43.539
X-77.338 Y42.655
X-77.261 Y41.772
X-77.162 Y40.892
X-77.035 Y40.015
X-76.874 Y39.143
X-76.673 Y38.28
X-76.462 Y37.582
X-76.264 Y37.078
X-76.122 Y36.786
X-75.955 Y36.523
X-75.733 Y36.303
X-75.469 Y36.137
X-75.174 Y36.035
X-74.864 Y36
X-72.535
G3 X-71.971 Y36.465 I-0.021 J0.6
G1 X-71.95 Y36.556 Z-17.993
X-71.93 Y36.645 Z-17.971
X-71.91 Y36.73 Z-17.935
X-71.892 Y36.808 Z-17.885
X-71.876 Y36.878 Z-17.824
X-71.862 Y36.938 Z-17.753
X-71.851 Y36.986 Z-17.672
X-71.843 Y37.021 Z-17.585
X-71.838 Y37.042 Z-17.494
X-71.836 Y37.049 Z-17.4
Z-16.8
X-65.737 Y75.455
Z-17.4
X-65.743 Y75.458 Z-17.494
X-65.763 Y75.468 Z-17.585
X-65.796 Y75.484 Z-17.672
X-65.84 Y75.505 Z-17.753
X-65.895 Y75.532 Z-17.824
X-65.959 Y75.564 Z-17.885
X-66.031 Y75.599 Z-17.935
X-66.109 Y75.637 Z-17.971
X-66.191 Y75.677 Z-17.993
X-66.276 Y75.719 Z-18
G3 X-67.045 Y75.879 I-0.696 J-1.421
G1 X-69.662 Y75.667
X-69.891 Y75.637
X-70.162 Y75.578
X-70.436 Y75.496
X-70.752 Y75.373
X-71.102 Y75.203
X-71.472 Y74.985
X-71.887 Y74.693
X-72.337 Y74.319
X-72.822 Y73.846
X-73.362 Y73.226
X-73.889 Y72.513
X-74.365 Y71.766
X-74.798 Y70.992
X-75.195 Y70.2
X-75.561 Y69.393
X-75.901 Y68.575
X-76.218 Y67.747
X-76.514 Y66.912
X-76.793 Y66.071
X-77.055 Y65.225
X-77.303 Y64.374
X-77.536 Y63.519
X-77.757 Y62.661
X-77.965 Y61.8
X-78.162 Y60.936
X-78.347 Y60.069
X-78.521 Y59.2
X-78.684 Y58.329
X-78.836 Y57.456
X-78.978 Y56.582
X-79.109 Y55.705
X-79.229 Y54.827
X-79.339 Y53.948
X-79.438 Y53.067
X-79.526 Y52.186
X-79.603 Y51.303
X-79.668 Y50.419
X-79.722 Y49.535
X-79.763 Y48.65
X-79.792 Y47.764
X-79.808 Y46.878
X-79.81 Y45.992
X-79.798 Y45.106
X-79.77 Y44.22
X-79.726 Y43.335
X-79.663 Y42.451
X-79.58 Y41.569
X-79.473 Y40.689
X-79.337 Y39.814
X-79.168 Y38.944
X-78.954 Y38.084
X-78.737 Y37.423
X-78.532 Y36.935
X-78.44 Y36.756
X-78.271 Y36.502
X-78.05 Y36.29
X-77.789 Y36.132
X-77.5 Y36.033
X-77.197 Y36
X-74.864
G3 X-74.3 Y36.465 I-0.021 J0.6
G1 X-74.279 Y36.556 Z-17.993
X-74.258 Y36.645 Z-17.971
X-74.239 Y36.73 Z-17.935
X-74.221 Y36.808 Z-17.885
X-74.205 Y36.878 Z-17.824
X-74.191 Y36.938 Z-17.753
X-74.18 Y36.986 Z-17.672
X-74.172 Y37.021 Z-17.585
X-74.167 Y37.042 Z-17.494
X-74.165 Y37.049 Z-17.4
Z-16.8
X-68.354 Y75.243
Z-17.4
X-68.361 Y75.246 Z-17.494
X-68.38 Y75.256 Z-17.585
X-68.413 Y75.272 Z-17.672
X-68.457 Y75.293 Z-17.753
X-68.512 Y75.32 Z-17.824
X-68.576 Y75.352 Z-17.885
X-68.648 Y75.387 Z-17.935
X-68.726 Y75.425 Z-17.971
X-68.809 Y75.466 Z-17.993
X-68.893 Y75.507 Z-18
G3 X-69.662 Y75.667 I-0.696 J-1.421
G1 X-70.266 Y75.618
X-70.467 Y75.601
X-71.272 Y75.52
X-72.279 Y75.417
X-72.551 Y75.375
X-72.815 Y75.313
X-73.094 Y75.223
X-73.424 Y75.086
X-73.761 Y74.913
X-74.146 Y74.675
X-74.552 Y74.377
X-75.01 Y73.979
X-75.5 Y73.48
X-76.039 Y72.835
X-76.55 Y72.111
X-77.012 Y71.355
X-77.431 Y70.574
X-77.815 Y69.775
X-78.169 Y68.963
X-78.497 Y68.14
X-78.803 Y67.308
X-79.089 Y66.469
X-79.356 Y65.625
X-79.608 Y64.775
X-79.845 Y63.921
X-80.069 Y63.064
X-80.279 Y62.203
X-80.478 Y61.34
X-80.664 Y60.473
X-80.84 Y59.605
X-81.004 Y58.734
X-81.158 Y57.861
X-81.301 Y56.987
X-81.433 Y56.111
X-81.555 Y55.233
X-81.666 Y54.354
X-81.767 Y53.473
X-81.857 Y52.592
X-81.936 Y51.709
X-82.003 Y50.826
X-82.059 Y49.941
X-82.104 Y49.056
X-82.136 Y48.171
X-82.155 Y47.285
X-82.161 Y46.399
X-82.154 Y45.513
X-82.131 Y44.627
X-82.092 Y43.742
X-82.036 Y42.857
X-81.96 Y41.974
X-81.863 Y41.094
X-81.74 Y40.216
X-81.588 Y39.343
X-81.396 Y38.478
X-81.173 Y37.703
X-80.973 Y37.17
X-80.757 Y36.713
X-80.752 Y36.704
X-80.58 Y36.466
X-80.362 Y36.269
X-80.108 Y36.122
X-79.829 Y36.031
X-79.537 Y36
X-77.197
G3 X-76.633 Y36.465 I-0.021 J0.6
G1 X-76.612 Y36.556 Z-17.993
X-76.591 Y36.645 Z-17.971
X-76.572 Y36.73 Z-17.935
X-76.554 Y36.808 Z-17.885
X-76.538 Y36.878 Z-17.824
X-76.524 Y36.938 Z-17.753
X-76.513 Y36.986 Z-17.672
X-76.505 Y37.021 Z-17.585
X-76.5 Y37.042 Z-17.494
X-76.498 Y37.049 Z-17.4
Z-16.8
X-70.963 Y75.021
Z-17.4
X-70.969 Y75.024 Z-17.494
X-70.989 Y75.033 Z-17.585
X-71.022 Y75.049 Z-17.672
X-71.067 Y75.069 Z-17.753
X-71.122 Y75.095 Z-17.824
X-71.187 Y75.125 Z-17.885
X-71.26 Y75.159 Z-17.935
X-71.339 Y75.196 Z-17.971
X-71.422 Y75.234 Z-17.993
X-71.507 Y75.274 Z-18
G3 X-72.279 Y75.417 I-0.666 J-1.436
G1 X-74.896 Y75.149
X-75.123 Y75.114
X-75.394 Y75.05
X-75.668 Y74.961
X-75.981 Y74.832
X-76.33 Y74.653
X-76.696 Y74.427
X-77.106 Y74.125
X-77.55 Y73.741
X-78.027 Y73.254
X-78.556 Y72.62
X-79.068 Y71.896
X-79.528 Y71.139
X-79.945 Y70.357
X-80.326 Y69.557
X-80.676 Y68.743
X-80.999 Y67.918
X-81.3 Y67.084
X-81.58 Y66.244
X-81.842 Y65.397
X-82.088 Y64.546
X-82.319 Y63.69
X-82.536 Y62.831
X-82.74 Y61.969
X-82.932 Y61.104
X-83.113 Y60.236
X-83.282 Y59.367
X-83.44 Y58.495
X-83.587 Y57.621
X-83.723 Y56.745
X-83.849 Y55.868
X-83.965 Y54.99
X-84.07 Y54.11
X-84.164 Y53.229
X-84.248 Y52.346
X-84.321 Y51.463
X-84.382 Y50.579
X-84.432 Y49.695
X-84.471 Y48.809
X-84.497 Y47.924
X-84.51 Y47.038
Y46.151
X-84.496 Y45.265
X-84.467 Y44.38
X-84.422 Y43.495
X-84.359 Y42.611
X-84.277 Y41.729
X-84.172 Y40.849
X-84.041 Y39.972
X-83.876 Y39.102
X-83.67 Y38.24
X-83.458 Y37.551
X-83.26 Y37.052
X-83.124 Y36.779
X-82.957 Y36.518
X-82.735 Y36.3
X-82.472 Y36.136
X-82.178 Y36.034
X-81.87 Y36
X-79.537
G3 X-78.974 Y36.465 I-0.021 J0.6
G1 X-78.952 Y36.556 Z-17.993
X-78.932 Y36.645 Z-17.971
X-78.912 Y36.73 Z-17.935
X-78.894 Y36.808 Z-17.885
X-78.878 Y36.878 Z-17.824
X-78.864 Y36.938 Z-17.753
X-78.853 Y36.986 Z-17.672
X-78.845 Y37.021 Z-17.585
X-78.84 Y37.042 Z-17.494
X-78.839 Y37.049 Z-17.4
Z-16.8
X-73.58 Y74.753
Z-17.4
X-73.587 Y74.756 Z-17.494
X-73.607 Y74.765 Z-17.585
X-73.639 Y74.781 Z-17.672
X-73.684 Y74.801 Z-17.753
X-73.739 Y74.827 Z-17.824
X-73.804 Y74.857 Z-17.885
X-73.877 Y74.891 Z-17.935
X-73.956 Y74.928 Z-17.971
X-74.039 Y74.966 Z-17.993
X-74.124 Y75.006 Z-18
G3 X-74.896 Y75.149 I-0.666 J-1.436
G1 X-77.514 Y74.881
X-77.677 Y74.856
X-77.945 Y74.793
X-78.215 Y74.705
X-78.528 Y74.576
X-78.87 Y74.4
X-79.235 Y74.175
X-79.639 Y73.878
X-80.078 Y73.497
X-80.547 Y73.019
X-81.067 Y72.396
X-81.578 Y71.673
X-82.037 Y70.915
X-82.452 Y70.132
X-82.83 Y69.33
X-83.176 Y68.514
X-83.495 Y67.688
X-83.791 Y66.852
X-84.066 Y66.01
X-84.322 Y65.162
X-84.563 Y64.309
X-84.788 Y63.452
X-84.999 Y62.591
X-85.197 Y61.728
X-85.383 Y60.861
X-85.557 Y59.992
X-85.72 Y59.121
X-85.871 Y58.248
X-86.012 Y57.373
X-86.143 Y56.497
X-86.262 Y55.619
X-86.372 Y54.74
X-86.471 Y53.859
X-86.559 Y52.977
X-86.637 Y52.095
X-86.703 Y51.211
X-86.759 Y50.327
X-86.803 Y49.442
X-86.835 Y48.556
X-86.856 Y47.67
X-86.863 Y46.784
X-86.857 Y45.898
X-86.837 Y45.012
X-86.802 Y44.127
X-86.75 Y43.242
X-86.681 Y42.359
X-86.591 Y41.477
X-86.479 Y40.598
X-86.337 Y39.723
X-86.162 Y38.855
X-85.941 Y37.997
X-85.724 Y37.361
X-85.515 Y36.878
X-85.443 Y36.742
X-85.273 Y36.492
X-85.053 Y36.285
X-84.794 Y36.129
X-84.508 Y36.033
X-84.207 Y36
X-81.87
G3 X-81.306 Y36.465 I-0.021 J0.6
G1 X-81.285 Y36.556 Z-17.993
X-81.264 Y36.645 Z-17.971
X-81.245 Y36.73 Z-17.935
X-81.227 Y36.808 Z-17.885
X-81.21 Y36.878 Z-17.824
X-81.197 Y36.938 Z-17.753
X-81.186 Y36.986 Z-17.672
X-81.178 Y37.021 Z-17.585
X-81.173 Y37.042 Z-17.494
X-81.171 Y37.049 Z-17.4
Z-16.8
X-76.197 Y74.485
Z-17.4
X-76.204 Y74.488 Z-17.494
X-76.224 Y74.498 Z-17.585
X-76.257 Y74.513 Z-17.672
X-76.301 Y74.533 Z-17.753
X-76.357 Y74.559 Z-17.824
X-76.422 Y74.589 Z-17.885
X-76.494 Y74.623 Z-17.935
X-76.573 Y74.66 Z-17.971
X-76.656 Y74.698 Z-17.993
X-76.741 Y74.738 Z-18
G3 X-77.514 Y74.881 I-0.666 J-1.436
G1 X-77.834 Y74.848
X-78.52 Y74.77
X-80.131 Y74.569
X-80.326 Y74.535
X-80.585 Y74.468
X-80.863 Y74.371
X-81.189 Y74.227
X-81.519 Y74.049
X-81.898 Y73.803
X-82.293 Y73.499
X-82.738 Y73.095
X-83.214 Y72.589
X-83.732 Y71.94
X-84.227 Y71.205
X-84.671 Y70.438
X-85.072 Y69.648
X-85.436 Y68.84
X-85.77 Y68.019
X-86.077 Y67.188
X-86.362 Y66.349
X-86.626 Y65.503
X-86.872 Y64.652
X-87.102 Y63.796
X-87.317 Y62.936
X-87.518 Y62.073
X-87.706 Y61.207
X-87.882 Y60.339
X-88.047 Y59.468
X-88.2 Y58.595
X-88.342 Y57.721
X-88.474 Y56.845
X-88.595 Y55.967
X-88.706 Y55.088
X-88.806 Y54.207
X-88.896 Y53.326
X-88.975 Y52.443
X-89.044 Y51.56
X-89.101 Y50.675
X-89.148 Y49.79
X-89.182 Y48.905
X-89.205 Y48.019
X-89.216 Y47.133
X-89.213 Y46.247
X-89.197 Y45.361
X-89.166 Y44.475
X-89.119 Y43.591
X-89.055 Y42.707
X-88.972 Y41.825
X-88.867 Y40.945
X-88.736 Y40.068
X-88.575 Y39.197
X-88.374 Y38.334
X-88.153 Y37.604
X-87.954 Y37.095
X-87.803 Y36.786
X-87.636 Y36.523
X-87.414 Y36.303
X-87.15 Y36.137
X-86.855 Y36.035
X-86.545 Y36
X-84.207
G3 X-83.643 Y36.465 I-0.021 J0.6
G1 X-83.622 Y36.556 Z-17.993
X-83.602 Y36.645 Z-17.971
X-83.582 Y36.73 Z-17.935
X-83.564 Y36.808 Z-17.885
X-83.548 Y36.878 Z-17.824
X-83.534 Y36.938 Z-17.753
X-83.523 Y36.986 Z-17.672
X-83.515 Y37.021 Z-17.585
X-83.51 Y37.042 Z-17.494
X-83.508 Y37.049 Z-17.4
Z-16.8
X-78.806 Y74.202
Z-17.4
X-78.813 Y74.205 Z-17.494
X-78.833 Y74.214 Z-17.585
X-78.866 Y74.229 Z-17.672
X-78.911 Y74.248 Z-17.753
X-78.967 Y74.273 Z-17.824
X-79.033 Y74.302 Z-17.885
X-79.106 Y74.334 Z-17.935
X-79.186 Y74.369 Z-17.971
X-79.27 Y74.405 Z-17.993
X-79.356 Y74.443 Z-18
G3 X-80.131 Y74.569 I-0.634 J-1.45
G1 X-82.547 Y74.268
X-82.891 Y74.208
X-83.159 Y74.138
X-83.428 Y74.044
X-83.738 Y73.908
X-84.079 Y73.724
X-84.438 Y73.49
X-84.838 Y73.183
X-85.271 Y72.791
X-85.732 Y72.3
X-86.242 Y71.661
X-86.737 Y70.926
X-87.179 Y70.158
X-87.578 Y69.367
X-87.939 Y68.558
X-88.269 Y67.735
X-88.572 Y66.902
X-88.851 Y66.061
X-89.11 Y65.214
X-89.35 Y64.361
X-89.574 Y63.504
X-89.783 Y62.643
X-89.978 Y61.778
X-90.16 Y60.911
X-90.33 Y60.041
X-90.488 Y59.169
X-90.635 Y58.296
X-90.771 Y57.42
X-90.897 Y56.543
X-91.012 Y55.664
X-91.116 Y54.784
X-91.21 Y53.903
X-91.293 Y53.021
X-91.366 Y52.138
X-91.429 Y51.254
X-91.48 Y50.369
X-91.52 Y49.484
X-91.548 Y48.598
X-91.565 Y47.712
X-91.569 Y46.826
X-91.56 Y45.94
X-91.537 Y45.054
X-91.499 Y44.169
X-91.445 Y43.285
X-91.373 Y42.401
X-91.281 Y41.52
X-91.168 Y40.641
X-91.027 Y39.766
X-90.852 Y38.898
X-90.633 Y38.039
X-90.413 Y37.388
X-90.204 Y36.9
X-90.122 Y36.746
X-89.953 Y36.495
X-89.733 Y36.286
X-89.473 Y36.13
X-89.186 Y36.033
X-88.884 Y36
X-86.545
G3 X-85.981 Y36.465 I-0.021 J0.6
G1 X-85.96 Y36.556 Z-17.993
X-85.94 Y36.645 Z-17.971
X-85.92 Y36.73 Z-17.935
X-85.902 Y36.808 Z-17.885
X-85.886 Y36.878 Z-17.824
X-85.872 Y36.938 Z-17.753
X-85.861 Y36.986 Z-17.672
X-85.853 Y37.021 Z-17.585
X-85.848 Y37.042 Z-17.494
X-85.846 Y37.049 Z-17.4
Z-16.8
X-81.222 Y73.901
Z-17.4
X-81.229 Y73.904 Z-17.494
X-81.249 Y73.913 Z-17.585
X-81.282 Y73.928 Z-17.672
X-81.327 Y73.947 Z-17.753
X-81.383 Y73.972 Z-17.824
X-81.449 Y74 Z-17.885
X-81.522 Y74.033 Z-17.935
X-81.602 Y74.067 Z-17.971
X-81.686 Y74.104 Z-17.993
X-81.772 Y74.142 Z-18
G3 X-82.547 Y74.268 I-0.634 J-1.45
G1 X-85.164 Y73.942
X-85.435 Y73.894
X-85.701 Y73.824
X-85.968 Y73.73
X-86.28 Y73.592
X-86.615 Y73.41
X-86.975 Y73.175
X-87.37 Y72.869
X-87.8 Y72.477
X-88.255 Y71.991
X-88.757 Y71.358
X-89.251 Y70.622
X-89.691 Y69.853
X-90.086 Y69.06
X-90.443 Y68.249
X-90.768 Y67.425
X-91.066 Y66.59
X-91.34 Y65.747
X-91.593 Y64.898
X-91.828 Y64.044
X-92.046 Y63.185
X-92.249 Y62.322
X-92.438 Y61.457
X-92.614 Y60.588
X-92.777 Y59.717
X-92.929 Y58.844
X-93.07 Y57.969
X-93.2 Y57.093
X-93.319 Y56.215
X-93.427 Y55.335
X-93.525 Y54.454
X-93.613 Y53.573
X-93.69 Y52.69
X-93.756 Y51.806
X-93.812 Y50.922
X-93.857 Y50.037
X-93.89 Y49.151
X-93.912 Y48.266
X-93.922 Y47.38
X-93.919 Y46.493
X-93.903 Y45.607
X-93.873 Y44.722
X-93.828 Y43.837
X-93.766 Y42.953
X-93.686 Y42.07
X-93.586 Y41.19
X-93.462 Y40.313
X-93.308 Y39.44
X-93.117 Y38.575
X-92.892 Y37.775
X-92.683 Y37.21
X-92.468 Y36.747
X-92.447 Y36.71
X-92.276 Y36.47
X-92.058 Y36.272
X-91.803 Y36.123
X-91.522 Y36.031
X-91.229 Y36
X-88.884
G3 X-88.321 Y36.465 I-0.021 J0.6
G1 X-88.3 Y36.556 Z-17.993
X-88.279 Y36.645 Z-17.971
X-88.26 Y36.73 Z-17.935
X-88.241 Y36.808 Z-17.885
X-88.225 Y36.878 Z-17.824
X-88.212 Y36.938 Z-17.753
X-88.201 Y36.986 Z-17.672
X-88.192 Y37.021 Z-17.585
X-88.187 Y37.042 Z-17.494
X-88.186 Y37.049 Z-17.4
Z-16.8
X-83.839 Y73.575
Z-17.4
X-83.846 Y73.578 Z-17.494
X-83.866 Y73.587 Z-17.585
X-83.899 Y73.601 Z-17.672
X-83.944 Y73.621 Z-17.753
X-84 Y73.645 Z-17.824
X-84.066 Y73.674 Z-17.885
X-84.139 Y73.706 Z-17.935
X-84.219 Y73.741 Z-17.971
X-84.303 Y73.778 Z-17.993
X-84.389 Y73.816 Z-18
G3 X-85.164 Y73.942 I-0.634 J-1.45
G1 X-85.768 Y73.865
X-85.969 Y73.837
X-87.781 Y73.569
X-88.067 Y73.512
X-88.323 Y73.439
X-88.597 Y73.337
X-88.919 Y73.186
X-89.243 Y73.001
X-89.615 Y72.748
X-90.001 Y72.436
X-90.436 Y72.024
X-90.895 Y71.512
X-91.395 Y70.855
X-91.874 Y70.11
X-92.3 Y69.332
X-92.681 Y68.533
X-93.026 Y67.716
X-93.339 Y66.888
X-93.626 Y66.049
X-93.889 Y65.203
X-94.132 Y64.351
X-94.357 Y63.494
X-94.565 Y62.632
X-94.758 Y61.767
X-94.938 Y60.9
X-95.104 Y60.029
X-95.259 Y59.157
X-95.401 Y58.282
X-95.533 Y57.406
X-95.654 Y56.528
X-95.764 Y55.649
X-95.863 Y54.768
X-95.952 Y53.887
X-96.031 Y53.004
X-96.099 Y52.121
X-96.157 Y51.236
X-96.204 Y50.351
X-96.239 Y49.466
X-96.264 Y48.58
X-96.276 Y47.694
Y46.808
X-96.263 Y45.922
X-96.236 Y45.036
X-96.195 Y44.151
X-96.138 Y43.267
X-96.063 Y42.384
X-95.969 Y41.503
X-95.852 Y40.625
X-95.708 Y39.75
X-95.532 Y38.882
X-95.31 Y38.024
X-95.096 Y37.387
X-94.894 Y36.915
X-94.806 Y36.748
X-94.637 Y36.496
X-94.417 Y36.287
X-94.157 Y36.13
X-93.869 Y36.033
X-93.567 Y36
X-91.229
G3 X-90.665 Y36.465 I-0.021 J0.6
G1 X-90.644 Y36.556 Z-17.993
X-90.624 Y36.645 Z-17.971
X-90.604 Y36.73 Z-17.935
X-90.586 Y36.808 Z-17.885
X-90.57 Y36.878 Z-17.824
X-90.556 Y36.938 Z-17.753
X-90.545 Y36.986 Z-17.672
X-90.537 Y37.021 Z-17.585
X-90.532 Y37.042 Z-17.494
X-90.53 Y37.049 Z-17.4
Z-16.8
X-86.449 Y73.233
Z-17.4
X-86.455 Y73.236 Z-17.494
X-86.476 Y73.244 Z-17.585
X-86.509 Y73.258 Z-17.672
X-86.555 Y73.276 Z-17.753
X-86.611 Y73.299 Z-17.824
X-86.677 Y73.327 Z-17.885
X-86.752 Y73.357 Z-17.935
X-86.832 Y73.39 Z-17.971
X-86.917 Y73.425 Z-17.993
X-87.004 Y73.461 Z-18
G3 X-87.781 Y73.569 I-0.601 J-1.464
G1 X-90.399 Y73.182
X-90.608 Y73.141
X-90.874 Y73.065
X-91.141 Y72.965
X-91.447 Y72.821
X-91.783 Y72.63
X-92.137 Y72.389
X-92.529 Y72.072
X-92.951 Y71.672
X-93.399 Y71.173
X-93.892 Y70.525
X-94.37 Y69.78
X-94.795 Y69.002
X-95.174 Y68.201
X-95.516 Y67.383
X-95.826 Y66.553
X-96.108 Y65.713
X-96.367 Y64.866
X-96.604 Y64.012
X-96.824 Y63.153
X-97.026 Y62.291
X-97.214 Y61.425
X-97.388 Y60.556
X-97.548 Y59.684
X-97.697 Y58.811
X-97.833 Y57.935
X-97.959 Y57.058
X-98.073 Y56.179
X-98.177 Y55.299
X-98.271 Y54.418
X-98.354 Y53.536
X-98.426 Y52.653
X-98.488 Y51.769
X-98.539 Y50.884
X-98.58 Y49.999
X-98.609 Y49.113
X-98.626 Y48.227
X-98.632 Y47.341
X-98.625 Y46.455
X-98.606 Y45.569
X-98.572 Y44.684
X-98.523 Y43.799
X-98.458 Y42.915
X-98.374 Y42.033
X-98.27 Y41.153
X-98.144 Y40.276
X-97.987 Y39.404
X-97.794 Y38.539
X-97.567 Y37.746
X-97.36 Y37.192
X-97.143 Y36.73
X-97.13 Y36.706
X-96.958 Y36.467
X-96.74 Y36.27
X-96.486 Y36.122
X-96.206 Y36.031
X-95.914 Y36
X-93.567
G3 X-93.004 Y36.465 I-0.021 J0.6
G1 X-92.983 Y36.556 Z-17.993
X-92.962 Y36.645 Z-17.971
X-92.942 Y36.73 Z-17.935
X-92.924 Y36.808 Z-17.885
X-92.908 Y36.878 Z-17.824
X-92.895 Y36.938 Z-17.753
X-92.883 Y36.986 Z-17.672
X-92.875 Y37.021 Z-17.585
X-92.87 Y37.042 Z-17.494
X-92.869 Y37.049 Z-17.4
Z-16.8
X-89.066 Y72.846
Z-17.4
X-89.073 Y72.848 Z-17.494
X-89.093 Y72.857 Z-17.585
X-89.126 Y72.87 Z-17.672
X-89.172 Y72.889 Z-17.753
X-89.228 Y72.912 Z-17.824
X-89.295 Y72.94 Z-17.885
X-89.369 Y72.97 Z-17.935
X-89.449 Y73.003 Z-17.971
X-89.534 Y73.038 Z-17.993
X-89.621 Y73.074 Z-18
G3 X-90.399 Y73.182 I-0.601 J-1.464
G1 X-92.815 Y72.825
X-93.143 Y72.759
X-93.405 Y72.685
X-93.668 Y72.586
X-93.975 Y72.443
X-94.304 Y72.255
X-94.656 Y72.015
X-95.042 Y71.704
X-95.46 Y71.307
X-95.9 Y70.817
X-96.384 Y70.181
X-96.862 Y69.435
X-97.286 Y68.657
X-97.663 Y67.855
X-98.002 Y67.036
X-98.308 Y66.204
X-98.586 Y65.363
X-98.84 Y64.514
X-99.073 Y63.659
X-99.287 Y62.799
X-99.484 Y61.935
X-99.666 Y61.068
X-99.834 Y60.198
X-99.989 Y59.326
X-100.131 Y58.451
X-100.262 Y57.575
X-100.382 Y56.697
X-100.49 Y55.817
X-100.588 Y54.937
X-100.675 Y54.055
X-100.752 Y53.172
X-100.818 Y52.288
X-100.874 Y51.404
X-100.918 Y50.519
X-100.952 Y49.633
X-100.975 Y48.748
X-100.986 Y47.862
X-100.985 Y46.975
X-100.972 Y46.089
X-100.945 Y45.204
X-100.903 Y44.318
X-100.847 Y43.434
X-100.773 Y42.551
X-100.681 Y41.67
X-100.567 Y40.791
X-100.428 Y39.916
X-100.258 Y39.046
X-100.045 Y38.186
X-99.828 Y37.505
X-99.627 Y37.014
X-99.503 Y36.768
X-99.334 Y36.51
X-99.114 Y36.295
X-98.851 Y36.134
X-98.56 Y36.034
X-98.254 Y36
X-95.914
G3 X-95.35 Y36.465 I-0.021 J0.6
G1 X-95.329 Y36.556 Z-17.993
X-95.308 Y36.645 Z-17.971
X-95.289 Y36.73 Z-17.935
X-95.271 Y36.808 Z-17.885
X-95.255 Y36.878 Z-17.824
X-95.241 Y36.938 Z-17.753
X-95.23 Y36.986 Z-17.672
X-95.222 Y37.021 Z-17.585
X-95.217 Y37.042 Z-17.494
X-95.215 Y37.049 Z-17.4
Z-16.8
X-91.482 Y72.488
Z-17.4
X-91.489 Y72.491 Z-17.494
X-91.509 Y72.499 Z-17.585
X-91.542 Y72.513 Z-17.672
X-91.588 Y72.532 Z-17.753
X-91.644 Y72.555 Z-17.824
X-91.711 Y72.582 Z-17.885
X-91.785 Y72.613 Z-17.935
X-91.865 Y72.646 Z-17.971
X-91.95 Y72.681 Z-17.993
X-92.037 Y72.716 Z-18
G3 X-92.815 Y72.825 I-0.601 J-1.464
G1 X-93.217 Y72.765
X-93.821 Y72.665
X-95.432 Y72.388
X-95.774 Y72.312
X-96.023 Y72.234
X-96.297 Y72.124
X-96.616 Y71.966
X-96.933 Y71.775
X-97.301 Y71.511
X-97.676 Y71.194
X-98.098 Y70.774
X-98.547 Y70.249
X-99.028 Y69.585
X-99.489 Y68.828
X-99.896 Y68.041
X-100.258 Y67.232
X-100.583 Y66.408
X-100.876 Y65.572
X-101.142 Y64.726
X-101.384 Y63.874
X-101.606 Y63.016
X-101.809 Y62.154
X-101.996 Y61.287
X-102.168 Y60.418
X-102.326 Y59.546
X-102.471 Y58.672
X-102.603 Y57.796
X-102.725 Y56.918
X-102.834 Y56.039
X-102.934 Y55.158
X-103.022 Y54.276
X-103.1 Y53.394
X-103.167 Y52.51
X-103.224 Y51.626
X-103.27 Y50.741
X-103.305 Y49.856
X-103.329 Y48.97
X-103.342 Y48.084
X-103.343 Y47.198
X-103.331 Y46.312
X-103.306 Y45.426
X-103.267 Y44.541
X-103.213 Y43.656
X-103.143 Y42.773
X-103.054 Y41.891
X-102.944 Y41.012
X-102.81 Y40.136
X-102.647 Y39.265
X-102.446 Y38.402
X-102.218 Y37.639
X-102.017 Y37.121
X-101.857 Y36.79
X-101.69 Y36.525
X-101.468 Y36.304
X-101.203 Y36.138
X-100.907 Y36.035
X-100.596 Y36
X-98.254
G3 X-97.69 Y36.465 I-0.021 J0.6
G1 X-97.669 Y36.556 Z-17.993
X-97.648 Y36.645 Z-17.971
X-97.629 Y36.73 Z-17.935
X-97.611 Y36.808 Z-17.885
X-97.595 Y36.878 Z-17.824
X-97.581 Y36.938 Z-17.753
X-97.57 Y36.986 Z-17.672
X-97.562 Y37.021 Z-17.585
X-97.557 Y37.042 Z-17.494
X-97.555 Y37.049 Z-17.4
Z-16.8
X-94.091 Y72.083
Z-17.4
X-94.098 Y72.086 Z-17.494
X-94.119 Y72.094 Z-17.585
X-94.153 Y72.107 Z-17.672
X-94.198 Y72.124 Z-17.753
X-94.256 Y72.146 Z-17.824
X-94.322 Y72.172 Z-17.885
X-94.397 Y72.2 Z-17.935
X-94.479 Y72.232 Z-17.971
X-94.564 Y72.264 Z-17.993
X-94.652 Y72.298 Z-18
G3 X-95.432 Y72.388 I-0.566 J-1.478
G1 X-98.049 Y71.938
X-98.299 Y71.882
X-98.563 Y71.8
X-98.827 Y71.694
X-99.13 Y71.543
X-99.461 Y71.345
X-99.808 Y71.095
X-100.192 Y70.771
X-100.603 Y70.361
X-101.038 Y69.853
X-101.514 Y69.196
X-101.975 Y68.44
X-102.381 Y67.652
X-102.741 Y66.842
X-103.062 Y66.017
X-103.352 Y65.179
X-103.613 Y64.332
X-103.851 Y63.479
X-104.068 Y62.62
X-104.266 Y61.756
X-104.447 Y60.888
X-104.614 Y60.018
X-104.766 Y59.145
X-104.905 Y58.27
X-105.032 Y57.393
X-105.147 Y56.514
X-105.251 Y55.634
X-105.344 Y54.753
X-105.426 Y53.871
X-105.497 Y52.988
X-105.558 Y52.104
X-105.608 Y51.219
X-105.648 Y50.334
X-105.676 Y49.448
X-105.694 Y48.562
X-105.699 Y47.676
X-105.693 Y46.79
X-105.674 Y45.904
X-105.642 Y45.018
X-105.595 Y44.133
X-105.532 Y43.25
X-105.453 Y42.367
X-105.354 Y41.486
X-105.233 Y40.609
X-105.087 Y39.735
X-104.907 Y38.867
X-104.683 Y38.01
X-104.462 Y37.365
X-104.249 Y36.877
X-104.175 Y36.74
X-104.005 Y36.49
X-103.786 Y36.284
X-103.527 Y36.129
X-103.241 Y36.033
X-102.941 Y36
X-100.596
G3 X-100.033 Y36.465 I-0.021 J0.6
G1 X-100.012 Y36.556 Z-17.993
X-99.991 Y36.645 Z-17.971
X-99.971 Y36.73 Z-17.935
X-99.953 Y36.808 Z-17.885
X-99.937 Y36.878 Z-17.824
X-99.924 Y36.938 Z-17.753
X-99.912 Y36.986 Z-17.672
X-99.904 Y37.021 Z-17.585
X-99.899 Y37.042 Z-17.494
X-99.898 Y37.049 Z-17.4
Z-16.8
X-96.709 Y71.633
Z-17.4
X-96.716 Y71.635 Z-17.494
X-96.736 Y71.643 Z-17.585
X-96.77 Y71.656 Z-17.672
X-96.816 Y71.674 Z-17.753
X-96.873 Y71.696 Z-17.824
X-96.94 Y71.721 Z-17.885
X-97.015 Y71.75 Z-17.935
X-97.096 Y71.781 Z-17.971
X-97.181 Y71.814 Z-17.993
X-97.269 Y71.848 Z-18
G3 X-98.049 Y71.938 I-0.566 J-1.478
G1 X-100.666 Y71.487
X-100.853 Y71.443
X-101.115 Y71.358
X-101.381 Y71.247
X-101.692 Y71.088
X-102.015 Y70.887
X-102.371 Y70.626
X-102.749 Y70.297
X-103.167 Y69.87
X-103.598 Y69.353
X-104.071 Y68.683
X-104.522 Y67.92
X-104.919 Y67.128
X-105.27 Y66.314
X-105.583 Y65.485
X-105.864 Y64.645
X-106.072 Y63.947
X-106.105 Y63.815
X-106.124 Y63.681
X-106.131 Y63.546
Y52.722
X-106.132 Y52.521
X-106.146 Y52.118
X-106.155 Y51.917
X-106.188 Y51.716
X-106.235 Y51.515
X-106.299 Y51.314
X-106.379 Y51.113
X-106.464 Y50.911
X-106.505 Y50.834
X-106.583 Y50.71
X-106.706 Y50.522
X-106.789 Y50.397
X-106.983 Y50.032
X-107.181 Y49.571
X-107.382 Y48.98
X-107.578 Y48.202
X-107.725 Y47.328
X-107.814 Y46.447
X-107.858 Y45.562
X-107.867 Y44.675
X-107.847 Y43.79
X-107.8 Y42.905
X-107.728 Y42.021
X-107.632 Y41.141
X-107.509 Y40.263
X-107.355 Y39.39
X-107.162 Y38.526
X-106.938 Y37.741
X-106.73 Y37.187
X-106.514 Y36.727
X-106.502 Y36.705
X-106.33 Y36.467
X-106.112 Y36.27
X-105.858 Y36.122
X-105.579 Y36.031
X-105.286 Y36
X-102.941
G3 X-102.379 Y36.741 I-0.021 J0.6
G1 X-105.667 Y50.274
G3 X-106.706 Y50.522 I-0.583 J-0.142
G1 X-106.908 Y50.269
X-107.075 Y50.107
X-107.109 Y50.076
X-107.306 Y49.906
X-107.512 Y49.762
X-107.602 Y49.704
X-107.713 Y49.645
X-107.844 Y49.571
X-108.005 Y49.458
X-108.183 Y49.309
X-108.36 Y49.137
X-108.555 Y48.912
X-108.757 Y48.638
X-108.964 Y48.306
X-109.176 Y47.893
X-109.387 Y47.387
X-109.588 Y46.767
X-109.775 Y45.983
X-109.911 Y45.107
X-109.985 Y44.224
X-110.01 Y43.339
X-109.994 Y42.453
X-109.941 Y41.568
X-109.854 Y40.686
X-109.732 Y39.809
X-109.571 Y38.937
X-109.362 Y38.076
X-109.157 Y37.439
X-108.962 Y36.968
X-108.808 Y36.666
X-108.652 Y36.425
X-108.45 Y36.221
X-108.21 Y36.062
X-107.943 Y35.956
X-107.659 Y35.906
X-107.372 Y35.916
X-107.31 Y35.924
X-107.109 Y35.949
X-106.706 Y35.985
X-106.505 Y36
X-105.286
G3 X-104.716 Y36.702 I-0.021 J0.6
G1 X-106.874 Y49.2
G3 X-107.713 Y49.645 I-0.591 J-0.102
G1 X-107.914 Y49.545
X-108.116 Y49.461
X-108.317 Y49.399
X-108.518 Y49.35
X-108.72 Y49.318
X-108.753 Y49.316
X-108.902 Y49.299
X-109.047 Y49.262
X-109.211 Y49.205
X-109.386 Y49.128
X-109.571 Y49.028
X-109.781 Y48.892
X-109.986 Y48.734
X-110.214 Y48.527
X-110.449 Y48.278
X-110.684 Y47.984
X-110.934 Y47.613
X-111.17 Y47.195
X-111.41 Y46.677
X-111.64 Y46.052
X-111.845 Y45.319
X-112.015 Y44.449
X-112.116 Y43.568
X-112.162 Y42.683
X-112.159 Y41.797
X-112.112 Y40.913
X-112.023 Y40.031
X-111.891 Y39.155
X-111.708 Y38.288
X-111.5 Y37.559
X-111.307 Y37.045
X-111.102 Y36.608
X-110.891 Y36.239
X-110.776 Y36.071
X-110.572 Y35.834
X-110.32 Y35.648
X-110.034 Y35.523
X-109.727 Y35.465
X-109.414 Y35.476
X-109.112 Y35.556
X-108.938 Y35.624
X-108.72 Y35.698
X-108.518 Y35.748
X-108.317 Y35.782
X-107.914 Y35.841
X-107.372 Y35.916
G3 X-106.877 Y36.569 I-0.102 J0.591
G1 X-108.139 Y48.778
G3 X-108.753 Y49.316 I-0.597 J-0.062
G1 X-109.122 Y49.292
X-109.324 Y49.283
X-110.129
X-110.296 Y49.275
X-110.465 Y49.252
X-110.639 Y49.215
X-110.838 Y49.155
X-111.043 Y49.076
X-111.27 Y48.966
X-111.507 Y48.826
X-111.756 Y48.651
X-112.021 Y48.431
X-112.287 Y48.171
X-112.569 Y47.849
X-112.843 Y47.478
X-113.126 Y47.023
X-113.397 Y46.498
X-113.652 Y45.887
X-113.892 Y45.153
X-114.099 Y44.291
X-114.236 Y43.416
X-114.313 Y42.533
X-114.337 Y41.647
X-114.312 Y40.761
X-114.239 Y39.878
X-114.117 Y39.001
X-113.94 Y38.132
X-113.719 Y37.35
X-113.491 Y36.736
X-113.271 Y36.264
X-113.117 Y35.992
X-112.945 Y35.752
X-112.727 Y35.554
X-112.472 Y35.406
X-112.192 Y35.314
X-111.899 Y35.283
X-109.928
X-109.827 Y35.285
X-109.726 Y35.302
X-109.525 Y35.379
X-109.112 Y35.556
G3 X-108.75 Y36.145 I-0.237 J0.551
G1 X-108.753 Y36.194
X-109.551 Y48.721
G3 X-110.129 Y49.283 I-0.599 J-0.038
G1 X-111.941
X-112.096 Y49.275
X-112.284 Y49.25
X-112.479 Y49.209
X-112.7 Y49.143
X-112.932 Y49.052
X-113.183 Y48.93
X-113.448 Y48.774
X-113.725 Y48.58
X-114.015 Y48.339
X-114.313 Y48.049
X-114.617 Y47.7
X-114.927 Y47.281
X-115.228 Y46.797
X-115.532 Y46.207
X-115.806 Y45.554
X-116.058 Y44.78
X-116.265 Y43.918
X-116.405 Y43.043
X-116.487 Y42.161
X-116.515 Y41.275
X-116.493 Y40.389
X-116.421 Y39.506
X-116.296 Y38.629
X-116.114 Y37.762
X-115.898 Y37.015
X-115.684 Y36.451
X-115.469 Y35.997
X-115.462 Y35.984
X-115.29 Y35.747
X-115.072 Y35.551
X-114.819 Y35.404
X-114.54 Y35.314
X-114.249 Y35.283
X-111.899
G3 X-111.32 Y35.884 I-0.021 J0.6
G1 X-111.362 Y48.685
G3 X-111.941 Y49.283 I-0.6 J-0.002
G1 X-113.864
X-114.034 Y49.274
X-114.223 Y49.25
X-114.443 Y49.203
X-114.665 Y49.136
X-114.922 Y49.036
X-115.178 Y48.912
X-115.469 Y48.74
X-115.756 Y48.539
X-116.075 Y48.274
X-116.381 Y47.976
X-116.718 Y47.589
X-117.031 Y47.166
X-117.361 Y46.635
X-117.676 Y46.026
X-117.965 Y45.335
X-118.231 Y44.519
X-118.438 Y43.657
X-118.581 Y42.782
X-118.667 Y41.9
X-118.7 Y41.015
X-118.683 Y40.129
X-118.613 Y39.246
X-118.491 Y38.368
X-118.311 Y37.5
X-118.126 Y36.858
X-117.943 Y36.372
X-117.808 Y36.086
X-117.642 Y35.817
X-117.42 Y35.593
X-117.153 Y35.423
X-116.855 Y35.318
X-116.541 Y35.283
X-114.249
G3 X-113.67 Y35.864 I-0.021 J0.6
G1 X-113.285 Y48.665
G3 X-113.864 Y49.283 I-0.6 J0.018
G1 X-115.766
X-116.054 Y49.269
X-116.247 Y49.243
X-116.473 Y49.195
X-116.704 Y49.125
X-116.964 Y49.024
X-117.238 Y48.891
X-117.53 Y48.719
X-117.839 Y48.503
X-118.159 Y48.237
X-118.488 Y47.916
X-118.83 Y47.523
X-119.164 Y47.073
X-119.511 Y46.514
X-119.83 Y45.897
X-120.134 Y45.169
X-120.409 Y44.327
X-120.617 Y43.465
X-120.763 Y42.591
X-120.854 Y41.71
X-120.892 Y40.824
X-120.879 Y39.938
X-120.815 Y39.055
X-120.697 Y38.176
X-120.536 Y37.389
X-120.357 Y36.774
X-120.179 Y36.307
X-120.073 Y36.082
X-119.907 Y35.815
X-119.685 Y35.591
X-119.418 Y35.423
X-119.121 Y35.318
X-118.808 Y35.283
X-116.541
G3 X-115.964 Y35.846 I-0.021 J0.6
G1 X-115.188 Y48.647
G3 X-115.766 Y49.283 I-0.599 J0.036
G1 X-117.981
X-118.13 Y49.275
X-118.333 Y49.247
X-118.564 Y49.195
X-118.809 Y49.118
X-119.075 Y49.011
X-119.365 Y48.867
X-119.663 Y48.687
X-119.987 Y48.454
X-120.313 Y48.177
X-120.658 Y47.833
X-121.008 Y47.423
X-121.356 Y46.942
X-121.714 Y46.354
X-122.042 Y45.699
X-122.353 Y44.932
X-122.619 Y44.087
X-122.821 Y43.224
X-122.964 Y42.349
X-123.052 Y41.467
X-123.089 Y40.582
X-123.077 Y39.696
X-123.012 Y38.812
X-122.89 Y37.935
X-122.732 Y37.212
X-122.566 Y36.666
X-122.387 Y36.212
X-122.316 Y36.067
X-122.148 Y35.804
X-121.927 Y35.585
X-121.662 Y35.42
X-121.368 Y35.318
X-121.058 Y35.283
X-118.808
G3 X-118.23 Y35.844 I-0.021 J0.6
G1 X-117.403 Y48.645
G3 X-117.981 Y49.283 I-0.599 J0.039
G1 X-119.994
X-120.2 Y49.273
X-120.413 Y49.245
X-120.634 Y49.197
X-120.891 Y49.12
X-121.149 Y49.02
X-121.446 Y48.876
X-121.744 Y48.7
X-122.075 Y48.468
X-122.402 Y48.196
X-122.763 Y47.844
X-123.106 Y47.451
X-123.478 Y46.948
X-123.828 Y46.387
X-124.17 Y45.723
X-124.498 Y44.94
X-124.773 Y44.097
X-124.984 Y43.237
X-125.139 Y42.364
X-125.24 Y41.484
X-125.29 Y40.599
X-125.287 Y39.713
X-125.231 Y38.829
X-125.117 Y37.95
X-124.973 Y37.252
X-124.81 Y36.696
X-124.639 Y36.249
X-124.559 Y36.08
X-124.392 Y35.813
X-124.17 Y35.59
X-123.904 Y35.422
X-123.608 Y35.318
X-123.295 Y35.283
X-121.058
G3 X-120.481 Y35.833 I-0.021 J0.6
G1 X-119.417 Y48.634
G3 X-119.994 Y49.283 I-0.598 J0.05
G1 X-122.118
X-122.32 Y49.273
X-122.532 Y49.245
X-122.757 Y49.197
X-123.019 Y49.118
X-123.281 Y49.016
X-123.583 Y48.87
X-123.881 Y48.694
X-124.22 Y48.456
X-124.549 Y48.183
X-124.919 Y47.822
X-125.267 Y47.423
X-125.642 Y46.916
X-126.007 Y46.33
X-126.355 Y45.656
X-126.689 Y44.855
X-126.964 Y44.013
X-127.178 Y43.153
X-127.335 Y42.281
X-127.439 Y41.401
X-127.491 Y40.516
X-127.492 Y39.63
X-127.439 Y38.746
X-127.326 Y37.868
X-127.181 Y37.185
X-127.025 Y36.661
X-126.853 Y36.215
X-126.785 Y36.075
X-126.618 Y35.809
X-126.397 Y35.588
X-126.131 Y35.421
X-125.836 Y35.318
X-125.524 Y35.283
X-123.295
G3 X-122.718 Y35.828 I-0.021 J0.6
G1 X-121.541 Y48.628
G3 X-122.118 Y49.283 I-0.597 J0.055
G1 X-124.222
X-124.458 Y49.271
X-124.673 Y49.243
X-124.899 Y49.195
X-125.163 Y49.116
X-125.427 Y49.013
X-125.731 Y48.865
X-126.036 Y48.686
X-126.376 Y48.447
X-126.712 Y48.168
X-127.085 Y47.804
X-127.44 Y47.397
X-127.822 Y46.881
X-128.189 Y46.29
X-128.544 Y45.602
X-128.885 Y44.788
X-129.16 Y43.946
X-129.374 Y43.086
X-129.533 Y42.214
X-129.64 Y41.335
X-129.695 Y40.45
X-129.698 Y39.564
