(1001)
(Bearbeiten)
(  Hersteller: ChinaCnc)
(  model: 3040T)
(  description: Generic 3-axis)
(T16  D=6 CR=0 - ZMIN=-30 - Schaftfraser)
G90 G94
G17
G21
(When using Fusion 360 for Personal Use, the feedrate of)
(rapid moves is reduced to match the feedrate of cutting)
(moves, which can increase machining time. Unrestricted rapid)
(moves are available with a Fusion 360 Subscription.)

(2D Adaptive24)
T16
S6000 M3
G54
G0 X-16.622 Y-31.414
Z5
G1 Z3 F1000
Z2
Z-7 F333.3
X-16.621 Y-31.451 F1000
X-16.584 Y-31.443
X-16.568 Y-31.409
X-16.579 Y-31.373
X-16.61 Y-31.352
X-16.647 Y-31.353
X-16.681 Y-31.37
X-16.705 Y-31.399
X-16.718 Y-31.434
X-16.716 Y-31.471
X-16.701 Y-31.506
X-16.676 Y-31.534
X-16.644 Y-31.554
X-16.572 Y-31.574
X-16.499 Y-31.559
X-16.439 Y-31.514
X-16.399 Y-31.451
X-16.385 Y-31.377
X-16.394 Y-31.303
X-16.426 Y-31.235
X-16.527 Y-31.123
X-16.669 Y-31.076
X-16.818 Y-31.095
X-16.947 Y-31.171
X-17.04 Y-31.289
X-17.087 Y-31.431
X-17.086 Y-31.581
X-17.041 Y-31.725
X-16.957 Y-31.849
X-16.844 Y-31.947
X-16.709 Y-32.013
X-16.562 Y-32.043
X-16.412 Y-32.038
X-16.268 Y-31.998
X-16.136 Y-31.927
X-16.022 Y-31.829
X-15.931 Y-31.71
X-15.866 Y-31.575
X-15.826 Y-31.43
X-15.814 Y-31.28
X-15.83 Y-31.131
X-15.871 Y-30.987
X-15.936 Y-30.852
X-16.023 Y-30.73
X-16.128 Y-30.623
X-16.25 Y-30.535
X-16.383 Y-30.467
X-16.526 Y-30.419
X-16.674 Y-30.394
X-16.823 Y-30.39
X-16.972 Y-30.408
X-17.117 Y-30.447
X-17.256 Y-30.505
X-17.384 Y-30.582
X-17.502 Y-30.675
X-17.607 Y-30.783
X-17.697 Y-30.903
X-17.771 Y-31.033
X-17.829 Y-31.171
X-17.869 Y-31.316
X-17.892 Y-31.464
X-17.898 Y-31.614
X-17.886 Y-31.763
X-17.857 Y-31.911
X-17.812 Y-32.054
X-17.75 Y-32.191
X-17.675 Y-32.32
X-17.586 Y-32.441
X-17.485 Y-32.552
X-17.372 Y-32.651
X-17.25 Y-32.738
X-17.12 Y-32.812
X-16.982 Y-32.872
X-16.84 Y-32.919
X-16.693 Y-32.951
X-16.544 Y-32.969
X-16.394 Y-32.971
X-16.245 Y-32.96
X-16.097 Y-32.934
X-15.952 Y-32.895
X-15.812 Y-32.843
X-15.676 Y-32.777
X-15.548 Y-32.7
X-15.427 Y-32.612
X-15.314 Y-32.513
X-15.21 Y-32.405
X-15.116 Y-32.288
X-15.032 Y-32.164
X-14.959 Y-32.032
X-14.898 Y-31.895
X-14.848 Y-31.754
X-14.811 Y-31.609
X-14.785 Y-31.461
X-14.771 Y-31.308
X-14.769 Y-31.158
X-14.781 Y-31.004
X-14.803 Y-30.855
X-14.84 Y-30.703
X-14.887 Y-30.557
X-14.948 Y-30.409
X-15.019 Y-30.271
X-15.104 Y-30.133
X-15.197 Y-30.007
X-15.306 Y-29.881
X-15.42 Y-29.769
X-15.549 Y-29.662
X-15.683 Y-29.567
X-15.828 Y-29.481
X-15.98 Y-29.407
X-16.138 Y-29.345
X-16.303 Y-29.295
X-16.469 Y-29.259
X-16.645 Y-29.236
X-16.819 Y-29.226
X-16.996 Y-29.231
X-17.175 Y-29.251
X-17.35 Y-29.284
X-17.528 Y-29.333
X-17.698 Y-29.395
X-17.865 Y-29.471
X-18.03 Y-29.563
X-18.183 Y-29.667
X-18.331 Y-29.784
X-18.472 Y-29.915
X-18.6 Y-30.056
X-18.719 Y-30.209
X-18.827 Y-30.374
X-18.92 Y-30.545
X-19 Y-30.725
X-19.067 Y-30.915
X-19.118 Y-31.11
X-19.154 Y-31.307
X-19.173 Y-31.512
X-19.177 Y-31.719
X-19.164 Y-31.924
X-19.134 Y-32.129
X-19.087 Y-32.336
X-19.023 Y-32.539
X-18.943 Y-32.736
X-18.847 Y-32.926
X-18.734 Y-33.113
X-18.606 Y-33.29
X-18.464 Y-33.457
X-18.309 Y-33.612
X-18.139 Y-33.755
X-17.956 Y-33.887
X-17.762 Y-34.004
X-17.559 Y-34.105
X-17.348 Y-34.19
X-17.129 Y-34.258
X-16.903 Y-34.309
X-16.671 Y-34.342
X-16.436 Y-34.356
X-16.198 Y-34.352
X-15.961 Y-34.328
X-15.725 Y-34.285
X-15.493 Y-34.223
X-15.264 Y-34.142
X-15.041 Y-34.042
X-14.825 Y-33.923
X-14.617 Y-33.787
X-14.42 Y-33.633
X-14.234 Y-33.463
X-14.062 Y-33.277
X-13.904 Y-33.076
X-13.762 Y-32.862
X-13.636 Y-32.637
X-13.528 Y-32.4
X-13.44 Y-32.154
X-13.37 Y-31.899
X-13.322 Y-31.639
X-13.294 Y-31.374
X-13.287 Y-31.105
X-13.302 Y-30.836
X-13.339 Y-30.566
X-13.397 Y-30.3
X-13.478 Y-30.036
X-13.58 Y-29.779
X-13.703 Y-29.529
X-13.846 Y-29.289
X-14.009 Y-29.059
X-14.191 Y-28.842
X-14.391 Y-28.639
X-14.609 Y-28.452
X-14.842 Y-28.282
X-15.089 Y-28.129
X-15.35 Y-27.997
X-15.621 Y-27.885
X-15.903 Y-27.795
X-16.193 Y-27.727
X-16.488 Y-27.683
X-16.789 Y-27.662
X-17.092 Y-27.665
X-17.395 Y-27.693
X-17.697 Y-27.745
X-17.995 Y-27.822
X-18.288 Y-27.924
X-18.574 Y-28.049
X-18.85 Y-28.197
X-19.114 Y-28.368
X-19.366 Y-28.561
X-19.603 Y-28.775
X-19.823 Y-29.008
X-20.024 Y-29.259
X-20.206 Y-29.528
X-20.367 Y-29.811
X-20.505 Y-30.108
X-20.619 Y-30.417
X-20.709 Y-30.736
X-20.773 Y-31.063
X-20.811 Y-31.396
X-20.822 Y-31.732
X-20.806 Y-32.071
X-20.762 Y-32.408
X-20.692 Y-32.743
X-20.594 Y-33.073
X-20.469 Y-33.395
X-20.318 Y-33.708
X-20.142 Y-34.01
X-19.94 Y-34.298
X-19.715 Y-34.571
X-19.468 Y-34.826
X-19.2 Y-35.061
X-18.912 Y-35.275
X-18.607 Y-35.466
X-18.285 Y-35.634
X-17.949 Y-35.775
X-17.601 Y-35.89
X-17.243 Y-35.977
X-16.878 Y-36.035
X-16.507 Y-36.063
X-16.133 Y-36.062
X-15.759 Y-36.031
X-15.387 Y-35.969
X-15.018 Y-35.878
X-14.657 Y-35.756
X-14.305 Y-35.605
X-13.964 Y-35.426
X-13.637 Y-35.218
X-13.327 Y-34.984
X-13.034 Y-34.725
X-12.763 Y-34.441
X-12.513 Y-34.136
X-12.288 Y-33.809
X-12.089 Y-33.464
X-11.918 Y-33.103
X-11.775 Y-32.727
X-11.662 Y-32.339
X-11.581 Y-31.941
X-11.532 Y-31.536
X-11.515 Y-31.127
X-11.531 Y-30.716
X-11.58 Y-30.305
X-11.662 Y-29.898
X-11.778 Y-29.497
X-11.926 Y-29.105
X-12.105 Y-28.724
X-12.316 Y-28.357
X-12.557 Y-28.007
X-12.826 Y-27.675
X-13.122 Y-27.365
X-13.444 Y-27.078
X-13.789 Y-26.817
X-14.156 Y-26.583
X-14.542 Y-26.378
X-14.945 Y-26.205
X-15.362 Y-26.063
X-15.792 Y-25.955
X-16.231 Y-25.882
X-16.676 Y-25.844
X-17.125 Y-25.841
X-17.574 Y-25.875
X-18.022 Y-25.945
X-18.464 Y-26.051
X-18.898 Y-26.194
X-19.321 Y-26.371
X-19.73 Y-26.582
X-20.123 Y-26.827
X-20.496 Y-27.103
X-20.848 Y-27.41
X-21.175 Y-27.746
X-21.475 Y-28.108
X-21.746 Y-28.495
X-21.987 Y-28.904
X-22.195 Y-29.333
X-22.368 Y-29.779
X-22.506 Y-30.239
X-22.606 Y-30.711
X-22.669 Y-31.191
X-22.693 Y-31.676
X-22.678 Y-32.164
X-22.624 Y-32.652
X-22.53 Y-33.135
X-22.397 Y-33.611
X-22.226 Y-34.077
X-22.017 Y-34.529
X-21.771 Y-34.965
X-21.491 Y-35.382
X-21.176 Y-35.776
X-20.829 Y-36.145
X-20.453 Y-36.486
X-20.048 Y-36.798
X-19.618 Y-37.077
X-19.166 Y-37.321
X-18.693 Y-37.53
X-18.204 Y-37.7
X-17.7 Y-37.831
X-17.185 Y-37.922
X-16.663 Y-37.971
X-16.136 Y-37.978
X-15.608 Y-37.942
X-15.083 Y-37.865
X-14.564 Y-37.744
X-14.054 Y-37.582
X-13.556 Y-37.379
X-13.075 Y-37.135
X-12.614 Y-36.853
X-12.174 Y-36.533
X-11.761 Y-36.178
X-11.375 Y-35.789
X-11.021 Y-35.369
X-10.701 Y-34.92
X-10.416 Y-34.445
X-10.17 Y-33.947
X-9.964 Y-33.429
X-9.799 Y-32.894
X-9.677 Y-32.346
X-9.6 Y-31.788
X-9.567 Y-31.223
X-9.58 Y-30.656
X-9.639 Y-30.089
X-9.743 Y-29.527
X-9.893 Y-28.973
X-10.087 Y-28.43
X-10.325 Y-27.903
X-10.605 Y-27.396
X-10.927 Y-26.91
X-11.288 Y-26.45
X-11.686 Y-26.02
X-12.119 Y-25.621
X-12.584 Y-25.256
X-13.078 Y-24.929
X-13.599 Y-24.642
X-14.144 Y-24.397
X-14.708 Y-24.195
X-15.289 Y-24.039
X-15.882 Y-23.93
X-16.485 Y-23.868
X-17.092 Y-23.855
X-17.701 Y-23.891
X-18.307 Y-23.976
X-18.907 Y-24.109
X-19.495 Y-24.291
X-20.069 Y-24.521
X-20.625 Y-24.796
X-21.158 Y-25.117
X-21.666 Y-25.48
X-22.145 Y-25.884
X-22.591 Y-26.327
X-23.001 Y-26.806
X-23.373 Y-27.318
X-23.704 Y-27.86
X-23.991 Y-28.429
X-24.233 Y-29.02
X-24.426 Y-29.632
X-24.571 Y-30.258
X-24.665 Y-30.897
X-24.708 Y-31.543
X-24.698 Y-32.192
X-24.637 Y-32.841
X-24.523 Y-33.485
X-24.357 Y-34.12
X-24.14 Y-34.741
X-23.873 Y-35.345
X-23.558 Y-35.927
X-23.196 Y-36.484
X-22.788 Y-37.012
X-22.339 Y-37.506
X-21.849 Y-37.965
X-21.323 Y-38.385
X-20.763 Y-38.761
X-20.172 Y-39.093
X-19.555 Y-39.377
X-18.915 Y-39.612
X-18.256 Y-39.795
X-17.582 Y-39.925
X-16.898 Y-40.001
X-16.208 Y-40.021
X-15.517 Y-39.986
X-14.828 Y-39.896
X-14.147 Y-39.75
X-13.477 Y-39.549
X-12.824 Y-39.294
X-12.191 Y-38.987
X-11.584 Y-38.628
X-11.005 Y-38.221
X-10.459 Y-37.768
X-9.95 Y-37.271
X-9.481 Y-36.732
X-9.055 Y-36.157
X-8.676 Y-35.547
X-8.346 Y-34.906
X-8.067 Y-34.24
X-7.843 Y-33.551
X-7.674 Y-32.844
X-7.562 Y-32.124
X-7.507 Y-31.395
X-7.512 Y-30.662
X-7.576 Y-29.929
X-7.698 Y-29.202
X-7.879 Y-28.485
X-8.118 Y-27.783
X-8.413 Y-27.1
X-8.763 Y-26.441
X-9.166 Y-25.81
X-9.619 Y-25.212
X-10.121 Y-24.651
X-10.668 Y-24.13
X-11.256 Y-23.654
X-11.882 Y-23.225
X-12.543 Y-22.846
X-13.234 Y-22.521
X-13.952 Y-22.251
X-14.69 Y-22.04
X-15.445 Y-21.888
X-16.213 Y-21.796
X-16.987 Y-21.767
X-17.763 Y-21.8
X-18.537 Y-21.895
X-19.302 Y-22.052
X-20.054 Y-22.271
X-20.789 Y-22.551
X-21.5 Y-22.889
X-22.184 Y-23.285
X-22.836 Y-23.735
X-23.452 Y-24.238
X-24.026 Y-24.79
X-24.556 Y-25.388
X-25.038 Y-26.028
X-25.467 Y-26.707
X-25.842 Y-27.42
X-26.159 Y-28.163
X-26.417 Y-28.931
X-26.612 Y-29.719
X-26.744 Y-30.522
X-26.811 Y-31.336
X-26.813 Y-32.155
X-26.749 Y-32.973
X-26.619 Y-33.786
X-26.423 Y-34.587
X-26.164 Y-35.373
X-25.841 Y-36.137
X-25.457 Y-36.875
X-25.013 Y-37.582
X-24.513 Y-38.252
X-23.96 Y-38.882
X-23.356 Y-39.467
X-22.705 Y-40.002
X-22.012 Y-40.486
X-21.28 Y-40.913
X-20.514 Y-41.281
X-19.719 Y-41.587
X-18.9 Y-41.829
X-18.062 Y-42.005
X-17.983 Y-42.015
X-17.915 Y-42.022
X-17.847 Y-42.026
X-17.779
X-16.428 Y-42
X-16.227 Y-41.995
X-15.624 Y-41.974
X-14.74 Y-41.901
X-14.022 Y-41.802
X-13.277 Y-41.637
X-12.521 Y-41.405
X-11.765 Y-41.105
X-11.021 Y-40.738
X-10.297 Y-40.305
X-9.601 Y-39.81
X-8.941 Y-39.255
X-8.323 Y-38.643
X-7.752 Y-37.98
X-7.233 Y-37.269
X-6.771 Y-36.516
X-6.37 Y-35.726
X-6.033 Y-34.906
X-5.763 Y-34.062
X-5.561 Y-33.199
X-5.427 Y-32.323
X-5.363 Y-31.439
X-5.369 Y-30.553
X-5.444 Y-29.67
X-5.589 Y-28.796
X-5.801 Y-27.936
X-6.079 Y-27.095
X-6.423 Y-26.278
X-6.829 Y-25.49
X-7.295 Y-24.736
X-7.818 Y-24.021
X-8.394 Y-23.348
X-9.021 Y-22.721
X-9.693 Y-22.144
X-10.408 Y-21.621
X-11.161 Y-21.153
X-11.676 Y-20.884
X-11.891 Y-20.794
X-12.117 Y-20.741
X-12.349 Y-20.726
X-13.611 Y-20.75
X-14.819 Y-20.778
X-17.435 Y-20.843
X-17.837 Y-20.854
X-20.453 Y-20.935
X-20.946 Y-20.975
X-21.402 Y-21.049
X-21.903 Y-21.172
X-22.459 Y-21.357
X-23.012 Y-21.593
X-23.615 Y-21.908
X-24.244 Y-22.305
X-24.866 Y-22.772
X-25.466 Y-23.302
X-26.055 Y-23.912
X-26.616 Y-24.597
X-27.121 Y-25.325
X-27.568 Y-26.09
X-27.956 Y-26.887
X-28.283 Y-27.711
X-28.55 Y-28.556
X-28.754 Y-29.418
X-28.894 Y-30.293
X-28.97 Y-31.176
X-28.98 Y-32.062
X-28.927 Y-32.946
X-28.811 Y-33.825
X-28.633 Y-34.693
X-28.393 Y-35.546
X-28.095 Y-36.38
X-27.739 Y-37.192
X-27.326 Y-37.976
X-26.857 Y-38.728
X-26.335 Y-39.444
X-25.765 Y-40.122
X-25.149 Y-40.759
X-24.49 Y-41.351
X-23.878 Y-41.83
X-23.608 Y-41.995
X-23.308 Y-42.096
X-22.994 Y-42.127
X-21.861 Y-42.106
X-17.779 Y-42.026
G3 X-17.527 Y-41.965 I-0.012 J0.6
G1 X-17.453 Y-41.935
X-17.377 Y-41.915
X-17.018 Y-41.845
X-16.597 Y-41.764
G2 X-16.194 Y-41.827 I0.114 J-0.589
G3 X-15.624 Y-41.974 I0.572 J1.04
G1 X-10.794 Y-41.814
X-10.418 Y-41.782
X-10.061 Y-41.723
X-9.68 Y-41.629
X-9.257 Y-41.486
X-8.801 Y-41.291
X-8.3 Y-41.027
X-7.795 Y-40.707
X-7.24 Y-40.289
X-6.683 Y-39.794
X-6.144 Y-39.231
X-5.603 Y-38.568
X-5.1 Y-37.839
X-4.655 Y-37.072
X-4.267 Y-36.275
X-3.937 Y-35.453
X-3.667 Y-34.609
X-3.458 Y-33.748
X-3.307 Y-32.875
X-3.215 Y-31.994
X-3.18 Y-31.108
X-3.204 Y-30.222
X-3.287 Y-29.34
X-3.43 Y-28.465
X-3.63 Y-27.602
X-3.886 Y-26.754
X-4.196 Y-25.924
X-4.559 Y-25.115
X-4.974 Y-24.332
X-5.44 Y-23.579
X-5.955 Y-22.858
X-6.516 Y-22.172
X-7.119 Y-21.522
X-7.619 Y-21.048
X-7.832 Y-20.882
X-8.072 Y-20.76
X-8.332 Y-20.686
X-8.601 Y-20.664
X-10.19 Y-20.686
X-11.599 Y-20.712
X-12.349 Y-20.726
G3 X-12.602 Y-20.787 I0.011 J-0.6
G1 X-12.676 Y-20.817
X-12.753 Y-20.838
X-12.833 Y-20.847
X-13.116 Y-20.863
X-19.369 Y-21.207
G2 X-19.693 Y-21.133 I-0.033 J0.599
G3 X-20.453 Y-20.935 I-0.767 J-1.384
G1 X-21.057 Y-20.953
X-21.66 Y-20.974
X-24.075 Y-21.072
X-24.404 Y-21.101
X-24.71 Y-21.154
X-25.046 Y-21.24
X-25.432 Y-21.373
X-25.823 Y-21.544
X-26.277 Y-21.787
X-26.728 Y-22.077
X-27.222 Y-22.455
X-27.744 Y-22.925
X-28.245 Y-23.455
X-28.759 Y-24.094
X-29.256 Y-24.827
X-29.695 Y-25.597
X-30.075 Y-26.398
X-30.4 Y-27.222
X-30.668 Y-28.067
X-30.878 Y-28.928
X-31.031 Y-29.801
X-31.128 Y-30.681
X-31.171 Y-31.566
X-31.159 Y-32.452
X-31.094 Y-33.336
X-30.974 Y-34.214
X-30.799 Y-35.083
X-30.572 Y-35.939
X-30.294 Y-36.781
X-29.967 Y-37.604
X-29.59 Y-38.407
X-29.167 Y-39.185
X-28.695 Y-39.935
X-28.179 Y-40.655
X-27.621 Y-41.343
X-27.301 Y-41.692
X-27.082 Y-41.886
X-26.829 Y-42.03
X-26.55 Y-42.119
X-26.26 Y-42.147
X-23.027 Y-42.127
X-22.994
G3 X-22.741 Y-42.066 I-0.009 J0.6
G1 X-22.665 Y-42.036
X-22.586 Y-42.016
X-22.505 Y-42.007
X-22.227 Y-41.995
X-11.87 Y-41.544
G2 X-11.555 Y-41.618 I0.026 J-0.599
G3 X-10.794 Y-41.814 I0.763 J1.386
G1 X-9.587 Y-41.773
X-8.983 Y-41.748
X-7.776 Y-41.693
X-7.382 Y-41.655
X-7.099 Y-41.604
X-6.781 Y-41.521
X-6.452 Y-41.405
X-6.064 Y-41.234
X-5.683 Y-41.026
X-5.238 Y-40.736
X-4.804 Y-40.4
X-4.327 Y-39.966
X-3.829 Y-39.434
X-3.352 Y-38.833
X-2.875 Y-38.123
X-2.442 Y-37.35
X-2.069 Y-36.546
X-1.753 Y-35.718
X-1.491 Y-34.872
X-1.284 Y-34.01
X-1.13 Y-33.137
X-1.029 Y-32.257
X-0.982 Y-31.372
X-0.986 Y-30.486
X-1.041 Y-29.602
X-1.147 Y-28.722
X-1.301 Y-27.849
X-1.505 Y-26.987
X-1.759 Y-26.138
X-2.06 Y-25.305
X-2.408 Y-24.49
X-2.802 Y-23.696
X-3.238 Y-22.925
X-3.717 Y-22.179
X-4.236 Y-21.461
X-4.493 Y-21.147
X-4.715 Y-20.928
X-4.981 Y-20.765
X-5.276 Y-20.664
X-5.586 Y-20.631
X-6.367 Y-20.636
X-6.971 Y-20.642
X-8.601 Y-20.664
G3 X-9.159 Y-21.136 I0.029 J-0.599
G1 X-9.179 Y-21.228 Z-6.993
X-9.198 Y-21.317 Z-6.971
X-9.216 Y-21.402 Z-6.935
X-9.233 Y-21.481 Z-6.885
X-9.249 Y-21.551 Z-6.824
X-9.261 Y-21.61 Z-6.753
X-9.272 Y-21.659 Z-6.672
X-9.28 Y-21.694 Z-6.585
X-9.284 Y-21.715 Z-6.494
X-9.286 Y-21.722 Z-6.4
Z-5.8
X-22.785 Y-21.548
Z-6.4
X-22.792 Y-21.544 Z-6.494
X-22.811 Y-21.534 Z-6.585
X-22.843 Y-21.517 Z-6.672
X-22.886 Y-21.493 Z-6.753
X-22.94 Y-21.464 Z-6.824
X-23.003 Y-21.43 Z-6.885
X-23.074 Y-21.392 Z-6.935
X-23.15 Y-21.351 Z-6.971
X-23.231 Y-21.307 Z-6.993
X-23.313 Y-21.262 Z-7
G3 X-24.075 Y-21.072 I-0.753 J-1.392
G1 X-26.892 Y-21.185
X-27.165 Y-21.21
X-27.44 Y-21.257
X-27.724 Y-21.33
X-28.044 Y-21.44
X-28.397 Y-21.594
X-28.764 Y-21.791
X-29.177 Y-22.057
X-29.592 Y-22.375
X-30.04 Y-22.778
X-30.515 Y-23.28
X-30.974 Y-23.851
X-31.439 Y-24.537
X-31.877 Y-25.307
X-32.254 Y-26.109
X-32.573 Y-26.936
X-32.837 Y-27.782
X-33.049 Y-28.642
X-33.208 Y-29.514
X-33.316 Y-30.393
X-33.373 Y-31.278
X-33.382 Y-32.164
X-33.342 Y-33.049
X-33.255 Y-33.931
X-33.122 Y-34.807
X-32.942 Y-35.675
X-32.716 Y-36.531
X-32.444 Y-37.375
X-32.128 Y-38.203
X-31.769 Y-39.013
X-31.368 Y-39.803
X-30.926 Y-40.571
X-30.446 Y-41.316
X-30.238 Y-41.597
X-30.015 Y-41.834
X-29.744 Y-42.014
X-29.438 Y-42.126
X-29.115 Y-42.164
X-26.26 Y-42.147
G3 X-25.699 Y-41.679 I-0.025 J0.599
G1 X-25.678 Y-41.588 Z-6.993
X-25.658 Y-41.498 Z-6.971
X-25.639 Y-41.413 Z-6.935
X-25.622 Y-41.335 Z-6.885
X-25.606 Y-41.265 Z-6.824
X-25.592 Y-41.206 Z-6.753
X-25.582 Y-41.158 Z-6.672
X-25.574 Y-41.122 Z-6.585
X-25.569 Y-41.101 Z-6.494
X-25.567 Y-41.094 Z-6.4
Z-5.8
X-9.068 Y-41.223
Z-6.4
X-9.061 Y-41.227 Z-6.494
X-9.042 Y-41.237 Z-6.585
X-9.01 Y-41.254 Z-6.672
X-8.967 Y-41.277 Z-6.753
X-8.913 Y-41.306 Z-6.824
X-8.85 Y-41.34 Z-6.885
X-8.779 Y-41.378 Z-6.935
X-8.702 Y-41.419 Z-6.971
X-8.621 Y-41.462 Z-6.993
X-8.539 Y-41.506 Z-7
G3 X-7.776 Y-41.693 I0.745 J1.396
G1 X-4.959 Y-41.563
X-4.765 Y-41.544
X-4.501 Y-41.497
X-4.231 Y-41.426
X-3.912 Y-41.315
X-3.59 Y-41.172
X-3.225 Y-40.973
X-2.846 Y-40.726
X-2.433 Y-40.407
X-2.017 Y-40.028
X-1.564 Y-39.544
X-1.121 Y-38.985
X-0.676 Y-38.323
X-0.243 Y-37.55
X0.128 Y-36.745
X0.441 Y-35.916
X0.7 Y-35.069
X0.907 Y-34.207
X1.064 Y-33.335
X1.171 Y-32.455
X1.229 Y-31.571
X1.24 Y-30.685
X1.205 Y-29.8
X1.125 Y-28.917
X1.001 Y-28.04
X0.833 Y-27.17
X0.623 Y-26.309
X0.369 Y-25.46
X0.072 Y-24.625
X-0.267 Y-23.806
X-0.645 Y-23.005
X-1.061 Y-22.223
X-1.516 Y-21.462
X-1.687 Y-21.215
X-1.862 Y-21.009
X-2.074 Y-20.84
X-2.315 Y-20.715
X-2.575 Y-20.639
X-2.845 Y-20.614
X-5.586 Y-20.631
G3 X-6.161 Y-21.249 I0.025 J-0.599
G1 X-5.565 Y-40.981
G3 X-4.959 Y-41.563 I0.6 J0.018
G1 X-2.544 Y-41.452
X-2.291 Y-41.428
X-2.06 Y-41.386
X-1.79 Y-41.316
X-1.502 Y-41.215
X-1.193 Y-41.077
X-0.846 Y-40.889
X-0.498 Y-40.662
X-0.102 Y-40.356
X0.285 Y-40.003
X0.703 Y-39.555
X1.139 Y-39.007
X1.558 Y-38.382
X1.98 Y-37.629
X2.35 Y-36.823
X2.66 Y-35.993
X2.916 Y-35.145
X3.121 Y-34.283
X3.277 Y-33.41
X3.387 Y-32.531
X3.452 Y-31.647
X3.472 Y-30.762
X3.45 Y-29.876
X3.386 Y-28.992
X3.282 Y-28.112
X3.138 Y-27.238
X2.955 Y-26.371
X2.733 Y-25.513
X2.474 Y-24.665
X2.177 Y-23.83
X1.843 Y-23.01
X1.472 Y-22.205
X1.101 Y-21.496
X0.947 Y-21.252
X0.773 Y-21.029
X0.557 Y-20.846
X0.309 Y-20.71
X0.039 Y-20.626
X-0.243 Y-20.599
X-2.845 Y-20.614
G3 X-3.42 Y-21.222 I0.025 J-0.599
G1 X-3.15 Y-40.86
G3 X-2.544 Y-41.452 I0.6 J0.008
G1 X-2.343 Y-41.443
X-2.007 Y-41.424
X-0.129 Y-41.317
X0.125 Y-41.289
X0.358 Y-41.245
X0.626 Y-41.172
X0.896 Y-41.073
X1.212 Y-40.929
X1.528 Y-40.753
X1.884 Y-40.514
X2.247 Y-40.227
X2.642 Y-39.859
X3.032 Y-39.433
X3.449 Y-38.895
X3.869 Y-38.254
X4.273 Y-37.513
X4.634 Y-36.703
X4.934 Y-35.87
X5.18 Y-35.018
X5.375 Y-34.154
X5.524 Y-33.281
X5.628 Y-32.401
X5.69 Y-31.517
X5.711 Y-30.631
X5.693 Y-29.745
X5.636 Y-28.86
X5.54 Y-27.979
X5.408 Y-27.103
X5.24 Y-26.233
X5.037 Y-25.371
X4.799 Y-24.517
X4.526 Y-23.674
X4.22 Y-22.842
X3.879 Y-22.025
X3.588 Y-21.446
X3.483 Y-21.274
X3.31 Y-21.046
X3.095 Y-20.858
X2.846 Y-20.717
X2.574 Y-20.631
X2.29 Y-20.601
X0.475 Y-20.597
X-0.243 Y-20.599
G3 X-0.819 Y-21.201 I0.023 J-0.6
G1 X-0.743 Y-40.719
G3 X-0.129 Y-41.317 I0.6 J0.002
G1 X2.286 Y-41.178
X2.457 Y-41.16
X2.606 Y-41.142
X2.754 Y-41.117
X2.9 Y-41.084
X3.045 Y-41.044
X3.188 Y-40.997
X3.328 Y-40.945
X3.466 Y-40.886
X3.602 Y-40.823
X3.736 Y-40.755
X3.867 Y-40.682
X3.996 Y-40.605
X4.122 Y-40.524
X4.246 Y-40.439
X4.367 Y-40.351
X4.486 Y-40.26
X4.602 Y-40.165
X4.716 Y-40.067
X4.828 Y-39.967
X4.936 Y-39.864
X5.043 Y-39.758
X5.147 Y-39.65
X5.249 Y-39.541
X5.349 Y-39.428
X5.446 Y-39.314
X5.541 Y-39.198
X5.634 Y-39.08
X5.724 Y-38.96
X5.813 Y-38.839
X5.899 Y-38.716
X5.983 Y-38.592
X6.065 Y-38.467
X6.145 Y-38.34
X6.223 Y-38.211
X6.299 Y-38.082
X6.373 Y-37.952
X6.445 Y-37.82
X6.515 Y-37.688
X6.584 Y-37.554
X6.65 Y-37.42
X6.715 Y-37.284
X6.778 Y-37.148
X6.839 Y-37.011
X6.899 Y-36.874
X6.956 Y-36.735
X7.013 Y-36.596
X7.067 Y-36.456
X7.12 Y-36.316
X7.171 Y-36.175
X7.221 Y-36.034
X7.269 Y-35.892
X7.316 Y-35.749
X7.361 Y-35.606
X7.404 Y-35.462
X7.447 Y-35.318
X7.487 Y-35.174
X7.526 Y-35.029
X7.564 Y-34.884
X7.6 Y-34.739
X7.635 Y-34.593
X7.669 Y-34.446
X7.702 Y-34.3
X7.733 Y-34.153
X7.762 Y-34.006
X7.79 Y-33.859
X7.817 Y-33.711
X7.843 Y-33.564
X7.868 Y-33.416
X7.891 Y-33.267
X7.913 Y-33.119
X7.934 Y-32.97
X7.953 Y-32.822
X7.971 Y-32.673
X7.989 Y-32.523
X8.005 Y-32.374
X8.019 Y-32.225
X8.033 Y-32.076
X8.045 Y-31.926
X8.057 Y-31.773
X8.068 Y-31.612
X8.077 Y-31.462
X8.084 Y-31.312
X8.091 Y-31.162
X8.096 Y-31.013
X8.101 Y-30.856
X8.104 Y-30.69
X8.107 Y-30.529
X8.108 Y-30.379
X8.107 Y-30.229
X8.106 Y-30.077
X8.101 Y-29.832
X8.097 Y-29.657
X8.091 Y-29.501
X8.085 Y-29.351
X8.077 Y-29.2
X8.068 Y-29.041
X8.057 Y-28.872
X8.044 Y-28.693
X8.031 Y-28.529
X8.018 Y-28.379
X8.004 Y-28.225
X7.987 Y-28.062
X7.968 Y-27.889
X7.947 Y-27.705
X7.926 Y-27.54
X7.907 Y-27.39
X7.885 Y-27.233
X7.86 Y-27.066
X7.833 Y-26.888
X7.803 Y-26.699
X7.776 Y-26.54
X7.749 Y-26.388
X7.719 Y-26.226
X7.686 Y-26.055
X7.65 Y-25.873
X7.611 Y-25.684
X7.578 Y-25.532
X7.544 Y-25.377
X7.506 Y-25.212
X7.464 Y-25.037
X7.418 Y-24.85
X7.373 Y-24.672
X7.335 Y-24.525
X7.293 Y-24.37
X7.248 Y-24.207
X7.198 Y-24.033
X7.144 Y-23.847
X7.095 Y-23.685
X7.051 Y-23.542
X7.006 Y-23.399
X6.959 Y-23.256
X6.911 Y-23.114
X6.862 Y-22.97
X6.812 Y-22.828
X6.761 Y-22.687
X6.708 Y-22.547
X6.654 Y-22.407
X6.598 Y-22.268
X6.541 Y-22.129
X6.481 Y-21.992
X6.419 Y-21.855
X6.356 Y-21.719
X6.29 Y-21.584
X6.22 Y-21.451
X6.144 Y-21.312
X5.973 Y-21.074
X5.756 Y-20.877
X5.502 Y-20.729
X5.223 Y-20.638
X4.932 Y-20.606
X2.29 Y-20.601
G3 X1.709 Y-21.199 I0.02 J-0.6
G1 X1.672 Y-40.577
G3 X2.286 Y-41.178 I0.6 J-0.001
G1 X4.499 Y-41.051
X4.7 Y-41.039
X4.903 Y-41.016
X5.129 Y-40.973
X5.378 Y-40.903
X5.648 Y-40.804
X5.941 Y-40.669
X6.255 Y-40.493
X6.59 Y-40.267
X6.944 Y-39.985
X7.316 Y-39.636
X7.703 Y-39.21
X8.101 Y-38.694
X8.506 Y-38.071
X8.909 Y-37.327
X9.267 Y-36.516
X9.565 Y-35.682
X9.809 Y-34.83
X10.004 Y-33.965
X10.154 Y-33.092
X10.262 Y-32.213
X10.33 Y-31.329
X10.338 Y-31.108
X10.38 Y-30.89
X10.457 Y-30.682
X10.673 Y-30.296
X11.309 Y-29.679
X12.049 Y-29.192
X12.826 Y-28.766
X13.612 Y-28.356
X14.23 Y-27.99
X14.8 Y-27.587
X15.119 Y-27.32
X15.491 Y-26.955
X15.748 Y-26.659
X15.981 Y-26.341
X16.214 Y-25.964
X16.353 Y-25.692
X16.496 Y-25.347
X16.611 Y-24.99
X16.678 Y-24.707
X16.732 Y-24.356
X16.757 Y-24.013
X16.754 Y-23.736
X16.724 Y-23.401
X16.667 Y-23.07
X16.602 Y-22.815
X16.499 Y-22.512
X16.363 Y-22.202
X16.245 Y-21.98
X16.081 Y-21.725
X15.869 Y-21.447
X15.709 Y-21.269
X15.499 Y-21.07
X15.392 Y-20.984
X15.13 Y-20.817
X14.838 Y-20.712
X14.529 Y-20.675
X13.152 Y-20.661
X12.548 Y-20.656
X12.346 Y-20.664
X11.466 Y-20.773
X10.801 Y-20.66
X10.727 Y-20.65
X10.653 Y-20.643
X10.578 Y-20.64
G3 X9.994 Y-21.256 I0.016 J-0.6
X10.61 Y-21.84 I0.6 J0.016
X12.663 Y-20.95 I-0.081 J2.999
X12.548 Y-20.656 I-0.123 J0.121
G1 X7.115 Y-20.613
X6.31 Y-20.609
X4.932 Y-20.606
G3 X4.351 Y-21.198 I0.02 J-0.6
G1 X4.085 Y-40.431
G3 X4.7 Y-41.039 I0.6 J-0.008
G1 X5.103 Y-41.014
X6.914 Y-40.892
X7.214 Y-40.856
X7.445 Y-40.81
X7.692 Y-40.739
X7.958 Y-40.64
X8.262 Y-40.497
X8.562 Y-40.325
X8.911 Y-40.087
X9.25 Y-39.812
X9.634 Y-39.447
X10.004 Y-39.034
X10.402 Y-38.51
X10.807 Y-37.876
X11.199 Y-37.14
X11.551 Y-36.327
X11.843 Y-35.49
X12.081 Y-34.636
X12.29 Y-33.775
X12.699 Y-32.989
X13.241 Y-32.288
X13.858 Y-31.652
X14.511 Y-31.053
X15.176 Y-30.468
X15.83 Y-29.87
X16.456 Y-29.242
X16.987 Y-28.632
X17.423 Y-28.04
X17.768 Y-27.484
X18.048 Y-26.94
X18.275 Y-26.395
X18.448 Y-25.864
X18.574 Y-25.335
X18.654 Y-24.815
X18.692 Y-24.31
X18.688 Y-23.807
X18.646 Y-23.322
X18.566 Y-22.849
X18.447 Y-22.38
X18.296 Y-21.938
X18.112 Y-21.514
X18.074 Y-21.442
X17.906 Y-21.194
X17.689 Y-20.988
X17.433 Y-20.832
X17.15 Y-20.735
X16.853 Y-20.699
X14.529 Y-20.675
G3 X13.987 Y-21.051 I0.015 J-0.6
G1 X13.955 Y-21.131
X6.337 Y-40.068
G3 X6.914 Y-40.892 I0.557 J-0.224
G1 X9.328 Y-40.728
X9.492 Y-40.709
X9.64 Y-40.69
X9.788 Y-40.663
X9.934 Y-40.628
X10.078 Y-40.587
X10.22 Y-40.538
X10.36 Y-40.484
X10.497 Y-40.423
X10.632 Y-40.358
X10.765 Y-40.288
X10.895 Y-40.214
X11.022 Y-40.134
X11.147 Y-40.051
X11.269 Y-39.965
X11.389 Y-39.875
X11.507 Y-39.781
X11.621 Y-39.684
X11.733 Y-39.585
X11.843 Y-39.482
X11.95 Y-39.377
X12.055 Y-39.27
X12.158 Y-39.16
X12.257 Y-39.048
X12.355 Y-38.934
X12.45 Y-38.818
X12.543 Y-38.7
X12.633 Y-38.581
X12.722 Y-38.46
X12.808 Y-38.337
X12.892 Y-38.213
X12.974 Y-38.087
X13.053 Y-37.96
X13.131 Y-37.832
X13.207 Y-37.702
X13.281 Y-37.572
X13.353 Y-37.44
X13.423 Y-37.307
X13.827 Y-36.519
X14.267 Y-35.75
X14.768 Y-35.019
X15.32 Y-34.325
X15.904 Y-33.659
X16.506 Y-33.009
X16.923 Y-32.563
X17.139 Y-32.328
X17.282 Y-32.17
X17.435 Y-32
X17.599 Y-31.813
X17.724 Y-31.67
X17.821 Y-31.556
X17.918 Y-31.441
X18.017 Y-31.321
X18.121 Y-31.194
X18.222 Y-31.069
X18.315 Y-30.951
X18.407 Y-30.833
X18.498 Y-30.714
X18.588 Y-30.594
X18.677 Y-30.473
X18.764 Y-30.351
X18.851 Y-30.229
X18.936 Y-30.105
X19.02 Y-29.981
X19.103 Y-29.856
X19.184 Y-29.73
X19.264 Y-29.603
X19.342 Y-29.475
X19.419 Y-29.346
X19.494 Y-29.216
X19.568 Y-29.086
X19.641 Y-28.954
X19.711 Y-28.822
X19.78 Y-28.688
X19.847 Y-28.554
X19.912 Y-28.419
X19.976 Y-28.283
X20.037 Y-28.147
X20.097 Y-28.009
X20.155 Y-27.871
X20.211 Y-27.731
X20.265 Y-27.592
X20.317 Y-27.451
X20.367 Y-27.309
X20.414 Y-27.167
X20.46 Y-27.024
X20.504 Y-26.881
X20.545 Y-26.736
X20.584 Y-26.592
X20.621 Y-26.446
X20.656 Y-26.3
X20.688 Y-26.154
X20.718 Y-26.007
X20.745 Y-25.859
X20.771 Y-25.712
X20.794 Y-25.563
X20.814 Y-25.415
X20.832 Y-25.266
X20.847 Y-25.117
X20.861 Y-24.967
X20.871 Y-24.818
X20.879 Y-24.668
X20.884 Y-24.518
X20.888 Y-24.368
Y-24.218
X20.886 Y-24.068
X20.881 Y-23.918
X20.874 Y-23.768
X20.864 Y-23.618
X20.851 Y-23.469
X20.836 Y-23.32
X20.818 Y-23.171
X20.798 Y-23.022
X20.775 Y-22.874
X20.748 Y-22.726
X20.719 Y-22.579
X20.686 Y-22.433
X20.65 Y-22.287
X20.611 Y-22.142
X20.568 Y-21.999
X20.522 Y-21.856
X20.471 Y-21.715
X20.432 Y-21.615
X20.306 Y-21.368
X20.134 Y-21.151
X19.923 Y-20.972
X19.681 Y-20.838
X19.418 Y-20.754
X19.143 Y-20.724
X16.853 Y-20.699
G3 X16.311 Y-21.076 I0.015 J-0.6
G1 X16.279 Y-21.156
X8.752 Y-39.905
G3 X9.328 Y-40.728 I0.557 J-0.224
G1 X11.743 Y-40.564
X11.915 Y-40.543
X12.139 Y-40.497
X12.386 Y-40.425
X12.653 Y-40.323
X12.943 Y-40.185
X13.254 Y-40.005
X13.59 Y-39.773
X13.993 Y-39.443
X14.63 Y-38.831
X15.217 Y-38.168
X15.789 Y-37.491
X16.365 Y-36.817
X16.948 Y-36.15
X18.127 Y-34.827
X18.709 Y-34.16
X19.28 Y-33.481
X19.555 Y-33.134
X19.69 Y-32.958
X20.224 Y-32.251
X20.35 Y-32.069
X20.474 Y-31.886
X20.626 Y-31.724
X20.801 Y-31.588
X20.995 Y-31.482
X21.203 Y-31.407
X22.075 Y-31.245
X22.959 Y-31.292
X23.845 Y-31.325
X24.731 Y-31.347
X25.617 Y-31.363
X26.503 Y-31.374
X27.389 Y-31.382
X28.275 Y-31.387
X29.161 Y-31.391
X30.933 Y-31.396
X33.592 Y-31.399
X39.587 Y-31.4
X39.722 Y-31.336
X39.847 Y-31.252
X39.968 Y-31.153
X40.105 Y-31.021
X40.258 Y-30.847
X40.425 Y-30.624
X40.606 Y-30.338
X40.799 Y-29.969
X41.003 Y-29.489
X41.216 Y-28.848
X41.427 Y-27.987
X41.572 Y-27.113
X41.589 Y-26.966
X41.537 Y-26.825
X41.459 Y-26.697
X41.368 Y-26.578
X41.248 Y-26.446
X41.091 Y-26.299
X40.887 Y-26.137
X40.625 Y-25.961
X40.288 Y-25.772
X39.853 Y-25.572
X39.278 Y-25.362
X38.487 Y-25.143
X37.616 Y-24.976
X36.738 Y-24.861
X35.855 Y-24.782
X34.971 Y-24.727
X34.085 Y-24.688
X33.2 Y-24.662
X32.314 Y-24.643
X31.428 Y-24.63
X30.542 Y-24.621
X29.656 Y-24.615
X28.77 Y-24.61
X26.997 Y-24.605
X26.554 Y-24.604
X26.124 Y-24.497
X25.334 Y-24.097
X24.684 Y-23.494
X24.135 Y-22.799
X23.64 Y-22.064
X23.143 Y-21.33
X23.117 Y-21.296
X22.898 Y-21.072
X22.634 Y-20.902
X22.339 Y-20.795
X22.028 Y-20.756
X19.143 Y-20.724
G3 X18.6 Y-21.102 I0.015 J-0.6
G1 X18.568 Y-21.181
X11.166 Y-39.742
G3 X11.743 Y-40.564 I0.557 J-0.222
G1 X12.347 Y-40.519
X13.957 Y-40.394
X14.312 Y-40.348
X14.583 Y-40.291
X14.894 Y-40.198
X15.266 Y-40.055
X15.717 Y-39.837
X16.294 Y-39.499
X17.02 Y-38.992
X17.706 Y-38.431
X18.364 Y-37.838
X19 Y-37.221
X19.617 Y-36.585
X20.215 Y-35.931
X20.843 Y-35.306
X21.605 Y-34.853
X22.431 Y-34.531
X23.288 Y-34.305
X24.16 Y-34.147
X25.039 Y-34.038
X25.922 Y-33.963
X26.806 Y-33.911
X27.692 Y-33.876
X28.578 Y-33.851
X29.464 Y-33.835
X30.35 Y-33.824
X31.236 Y-33.816
X32.122 Y-33.811
X33.008 Y-33.807
X34.78 Y-33.803
X37.439 Y-33.801
X38.062 Y-33.777
X38.543 Y-33.72
X38.964 Y-33.635
X39.352 Y-33.524
X39.722 Y-33.384
X40.083 Y-33.215
X40.435 Y-33.013
X40.778 Y-32.778
X41.117 Y-32.503
X41.462 Y-32.174
X41.803 Y-31.793
X42.129 Y-31.362
X42.474 Y-30.822
X42.788 Y-30.23
X43.076 Y-29.564
X43.234 Y-29.099
X43.326 Y-28.732
X43.384 Y-28.39
X43.41 Y-28.082
X43.412 Y-27.784
X43.39 Y-27.493
X43.345 Y-27.203
X43.276 Y-26.912
X43.179 Y-26.617
X43.056 Y-26.321
X42.904 Y-26.027
X42.716 Y-25.725
X42.484 Y-25.412
X42.222 Y-25.111
X41.897 Y-24.794
X41.52 Y-24.481
X41.072 Y-24.166
X40.531 Y-23.847
X39.914 Y-23.548
X39.14 Y-23.246
X38.292 Y-22.992
X37.427 Y-22.796
X36.554 Y-22.647
X35.675 Y-22.533
X34.793 Y-22.448
X33.909 Y-22.384
X33.024 Y-22.336
X32.139 Y-22.3
X31.253 Y-22.274
X30.367 Y-22.254
X29.481 Y-22.239
X28.607 Y-22.097
X27.791 Y-21.752
X27.044 Y-21.274
X26.802 Y-21.089
X26.546 Y-20.933
X26.263 Y-20.835
X25.966 Y-20.8
X22.028 Y-20.756
G3 X21.493 Y-21.114 I0.014 J-0.6
G1 X21.45 Y-21.211
X13.382 Y-39.553
G3 X13.957 Y-40.394 I0.549 J-0.242
G1 X16.975 Y-40.158
X17.347 Y-40.11
X17.685 Y-40.039
X18.084 Y-39.92
X18.537 Y-39.745
X19.074 Y-39.487
X19.72 Y-39.108
X20.446 Y-38.601
X21.179 Y-38.103
X21.956 Y-37.677
X22.772 Y-37.33
X23.614 Y-37.055
X24.474 Y-36.841
X25.345 Y-36.677
X26.222 Y-36.553
X27.103 Y-36.46
X27.987 Y-36.39
X28.871 Y-36.339
X29.757 Y-36.301
X30.642 Y-36.273
X31.528 Y-36.253
X32.414 Y-36.238
X33.3 Y-36.227
X34.187 Y-36.22
X35.073 Y-36.214
X35.959 Y-36.204
X36.844 Y-36.172
X37.727 Y-36.093
X38.538 Y-35.961
X39.244 Y-35.787
X39.901 Y-35.567
X40.519 Y-35.304
X41.107 Y-34.996
X41.671 Y-34.64
X42.211 Y-34.235
X42.739 Y-33.768
X43.248 Y-33.239
X43.735 Y-32.644
X44.16 Y-32.031
X44.511 Y-31.426
X44.793 Y-30.834
X45.007 Y-30.274
X45.164 Y-29.738
X45.272 Y-29.213
X45.337 Y-28.696
X45.359 Y-28.187
X45.34 Y-27.684
X45.282 Y-27.188
X45.183 Y-26.697
X45.044 Y-26.208
X44.863 Y-25.724
X44.636 Y-25.24
X44.361 Y-24.759
X44.033 Y-24.279
X43.657 Y-23.814
X43.226 Y-23.36
X42.721 Y-22.908
X42.125 Y-22.455
X41.457 Y-22.027
X40.701 Y-21.624
X39.888 Y-21.272
X39.052 Y-20.979
X39.038 Y-20.975
X38.916 Y-20.946
X38.792 Y-20.928
X38.667 Y-20.922
X35.287 Y-20.894
X31.061 Y-20.854
X26.835 Y-20.809
X25.966 Y-20.8
G3 X25.443 Y-21.132 I0.014 J-0.6
G1 X25.383 Y-21.252
X16.412 Y-39.292
G3 X16.975 Y-40.158 I0.537 J-0.267
G1 X18.384 Y-40.048
X18.585 Y-40.032
X19.39 Y-39.961
X20.798 Y-39.836
X21.676 Y-39.713
X22.553 Y-39.585
X23.427 Y-39.439
X24.301 Y-39.295
X25.178 Y-39.165
X26.056 Y-39.052
X26.937 Y-38.957
X27.82 Y-38.879
X28.704 Y-38.817
X29.589 Y-38.767
X30.474 Y-38.728
X31.36 Y-38.697
X32.245 Y-38.674
X32.441 Y-38.67
X32.486 Y-38.668
X32.531 Y-38.665
X32.576 Y-38.66
X36.494 Y-38.199
X36.695 Y-38.174
X37.299 Y-38.096
X38.707 Y-37.907
X39.579 Y-37.745
X40.255 Y-37.575
X40.945 Y-37.342
X41.641 Y-37.043
X42.336 Y-36.675
X43.025 Y-36.236
X43.701 Y-35.725
X44.347 Y-35.149
X44.946 Y-34.522
X45.486 Y-33.858
X45.959 Y-33.17
X46.361 Y-32.47
X46.694 Y-31.764
X46.962 Y-31.056
X47.166 Y-30.348
X47.309 Y-29.644
X47.393 Y-28.946
X47.42 Y-28.252
X47.392 Y-27.563
X47.309 Y-26.879
X47.17 Y-26.199
X46.976 Y-25.527
X46.724 Y-24.864
X46.415 Y-24.21
X46.045 Y-23.568
X45.61 Y-22.936
X45.101 Y-22.312
X44.516 Y-21.701
X44.077 Y-21.311
X43.876 Y-21.162
X43.65 Y-21.051
X43.409 Y-20.982
X43.158 Y-20.957
X38.667 Y-20.922
G3 X38.083 Y-21.52 I0.016 J-0.6
G1 X38.048 Y-37.308
G3 X38.707 Y-37.907 I0.6 J-0.001
G1 X42.531 Y-37.392
X42.732 Y-37.364
X43.336 Y-37.274
X43.783 Y-37.184
X44.137 Y-37.083
X44.502 Y-36.945
X44.914 Y-36.752
X45.341 Y-36.507
X45.815 Y-36.183
X46.272 Y-35.813
X46.757 Y-35.351
X47.244 Y-34.807
X47.704 Y-34.201
X48.124 Y-33.544
X48.506 Y-32.826
X48.837 Y-32.061
X49.109 Y-31.261
X49.317 Y-30.437
X49.459 Y-29.596
X49.533 Y-28.744
X49.539 Y-27.886
X49.475 Y-27.027
X49.342 Y-26.171
X49.139 Y-25.32
X48.865 Y-24.479
X48.524 Y-23.661
X48.119 Y-22.872
X47.656 Y-22.117
X47.252 Y-21.557
X47.078 Y-21.359
X46.871 Y-21.197
X46.638 Y-21.076
X46.385 Y-21.002
X46.124 Y-20.976
X43.738 Y-20.962
X43.158 Y-20.957
G3 X42.575 Y-21.561 I0.016 J-0.6
G1 X42.668 Y-36.681
G3 X43.336 Y-37.274 I0.6 J0.004
G1 X46.354 Y-36.823
X46.722 Y-36.749
X46.99 Y-36.672
X47.295 Y-36.557
X47.602 Y-36.413
X47.957 Y-36.21
X48.304 Y-35.972
X48.697 Y-35.654
X49.075 Y-35.294
X49.476 Y-34.846
X49.883 Y-34.31
X50.255 Y-33.728
X50.616 Y-33.048
X50.947 Y-32.283
X51.231 Y-31.448
X51.448 Y-30.589
X51.598 Y-29.715
X51.681 Y-28.833
X51.698 Y-27.947
X51.651 Y-27.062
X51.543 Y-26.183
X51.375 Y-25.313
X51.149 Y-24.456
X50.866 Y-23.616
X50.525 Y-22.798
X50.131 Y-22.005
X49.931 Y-21.671
X49.759 Y-21.441
X49.544 Y-21.252
X49.295 Y-21.11
X49.022 Y-21.021
X48.737 Y-20.99
X46.124 Y-20.976
G3 X45.541 Y-21.581 I0.018 J-0.6
G1 X45.686 Y-36.232
G3 X46.354 Y-36.823 I0.6 J0.006
G1 X48.567 Y-36.491
X48.97 Y-36.428
X49.302 Y-36.358
X49.539 Y-36.288
X49.805 Y-36.185
X50.092 Y-36.047
X50.391 Y-35.872
X50.723 Y-35.641
X51.051 Y-35.37
X51.411 Y-35.021
X51.765 Y-34.618
X52.127 Y-34.132
X52.494 Y-33.546
X52.823 Y-32.913
X53.134 Y-32.176
X53.408 Y-31.345
X53.618 Y-30.484
X53.762 Y-29.61
X53.845 Y-28.727
X53.867 Y-27.841
X53.831 Y-26.956
X53.739 Y-26.075
X53.594 Y-25.201
X53.397 Y-24.337
X53.15 Y-23.486
X52.854 Y-22.65
X52.583 Y-22.035
X52.422 Y-21.738
X52.253 Y-21.492
X52.035 Y-21.287
X51.779 Y-21.133
X51.495 Y-21.038
X51.198 Y-21.004
X48.737 Y-20.99
G3 X48.155 Y-21.596 I0.018 J-0.6
G1 X48.296 Y-35.839
G3 X48.97 Y-36.428 I0.6 J0.006
G1 X51.385 Y-36.044
X51.684 Y-35.981
X51.906 Y-35.915
X52.166 Y-35.815
X52.424 Y-35.69
X52.717 Y-35.518
X53.014 Y-35.311
X53.336 Y-35.045
X53.661 Y-34.729
X54.006 Y-34.336
X54.339 Y-33.888
X54.687 Y-33.331
X55.006 Y-32.717
X55.306 Y-32.002
X55.578 Y-31.177
X55.786 Y-30.316
X55.93 Y-29.442
X56.015 Y-28.56
X56.043 Y-27.674
X56.017 Y-26.788
X55.938 Y-25.906
X55.81 Y-25.029
X55.635 Y-24.16
X55.412 Y-23.302
X55.163 Y-22.541
X54.946 Y-22.025
X54.815 Y-21.771
X54.646 Y-21.517
X54.427 Y-21.306
X54.167 Y-21.147
X53.879 Y-21.048
X53.576 Y-21.014
X52.189 Y-21.009
X51.198 Y-21.004
G3 X50.616 Y-21.608 I0.018 J-0.6
G1 X50.711 Y-35.453
G3 X51.385 Y-36.044 I0.6 J0.004
G1 X51.988 Y-35.947
X53.799 Y-35.651
X53.983 Y-35.611
X54.206 Y-35.544
X54.451 Y-35.448
X54.705 Y-35.325
X54.992 Y-35.155
X55.273 Y-34.957
X55.592 Y-34.691
X55.897 Y-34.392
X56.238 Y-34
X56.554 Y-33.571
X56.887 Y-33.034
X57.208 Y-32.411
X57.498 Y-31.713
X57.764 Y-30.892
X57.97 Y-30.03
X58.111 Y-29.155
X58.194 Y-28.273
X58.223 Y-27.388
X58.201 Y-26.502
X58.131 Y-25.618
X58.013 Y-24.74
X57.849 Y-23.869
X57.633 Y-23.01
X57.42 Y-22.377
X57.216 Y-21.902
X57.144 Y-21.767
X56.975 Y-21.517
X56.756 Y-21.308
X56.497 Y-21.152
X56.211 Y-21.055
X55.911 Y-21.021
X53.576 Y-21.014
G3 X52.995 Y-21.62 I0.019 J-0.6
G1 X53.123 Y-35.061
G3 X53.799 Y-35.651 I0.6 J0.006
G1 X55.007 Y-35.452
X56.013 Y-35.284
X56.243 Y-35.234
X56.466 Y-35.166
X56.7 Y-35.073
X56.952 Y-34.949
X57.231 Y-34.783
X57.509 Y-34.585
X57.821 Y-34.324
X58.121 Y-34.028
X58.454 Y-33.643
X58.765 Y-33.217
X59.089 Y-32.69
X59.407 Y-32.066
X59.693 Y-31.372
X59.956 Y-30.552
X60.158 Y-29.689
X60.297 Y-28.814
X60.379 Y-27.932
X60.408 Y-27.046
X60.389 Y-26.16
X60.323 Y-25.277
X60.211 Y-24.398
X60.047 Y-23.527
X59.857 Y-22.801
X59.668 Y-22.261
X59.469 Y-21.809
X59.443 Y-21.761
X59.273 Y-21.515
X59.054 Y-21.31
X58.797 Y-21.156
X58.514 Y-21.061
X58.216 Y-21.028
X55.911 Y-21.021
G3 X55.33 Y-21.621 I0.019 J-0.6
G1 X55.334 Y-34.69
G3 X56.013 Y-35.284 I0.6 J0
G1 X58.226 Y-34.913
X58.468 Y-34.86
X58.69 Y-34.792
X58.919 Y-34.701
X59.17 Y-34.577
X59.444 Y-34.413
X59.721 Y-34.216
X60.028 Y-33.957
X60.325 Y-33.663
X60.654 Y-33.282
X60.963 Y-32.858
X61.283 Y-32.335
X61.598 Y-31.714
X61.883 Y-31.021
X62.146 Y-30.197
X62.346 Y-29.334
X62.485 Y-28.459
X62.567 Y-27.577
X62.598 Y-26.691
X62.58 Y-25.805
X62.516 Y-24.921
X62.4 Y-24.043
X62.226 Y-23.176
X62.05 Y-22.56
X61.876 Y-22.097
X61.756 Y-21.84
X61.59 Y-21.571
X61.369 Y-21.347
X61.103 Y-21.177
X60.806 Y-21.071
X60.493 Y-21.035
X58.216 Y-21.028
G3 X57.635 Y-21.624 I0.019 J-0.6
G1 X57.547 Y-34.314
G3 X58.226 Y-34.913 I0.6 J-0.004
G1 X60.44 Y-34.537
X60.678 Y-34.484
X60.899 Y-34.416
X61.125 Y-34.326
X61.376 Y-34.202
X61.647 Y-34.04
X61.923 Y-33.842
X62.227 Y-33.586
X62.524 Y-33.292
X62.85 Y-32.913
X63.157 Y-32.49
X63.476 Y-31.969
X63.791 Y-31.347
X64.075 Y-30.652
X64.338 Y-29.825
X64.538 Y-28.961
X64.676 Y-28.086
X64.758 Y-27.204
X64.788 Y-26.318
X64.769 Y-25.432
X64.7 Y-24.549
X64.574 Y-23.672
X64.412 Y-22.943
X64.246 Y-22.405
X64.064 Y-21.949
X63.998 Y-21.816
X63.831 Y-21.555
X63.61 Y-21.337
X63.347 Y-21.174
X63.054 Y-21.072
X62.745 Y-21.037
X60.493 Y-21.035
G3 X59.912 Y-21.627 I0.019 J-0.6
G1 X59.76 Y-33.935
G3 X60.44 Y-34.537 I0.6 J-0.007
G1 X62.458 Y-34.193
X62.653 Y-34.16
X62.88 Y-34.109
X63.101 Y-34.04
X63.326 Y-33.95
X63.577 Y-33.826
X63.846 Y-33.664
X64.123 Y-33.466
X64.426 Y-33.209
X64.722 Y-32.915
X65.047 Y-32.535
X65.355 Y-32.111
X65.673 Y-31.589
X65.987 Y-30.966
X66.271 Y-30.268
X66.533 Y-29.44
X66.732 Y-28.576
X66.868 Y-27.7
X66.948 Y-26.818
X66.975 Y-25.932
X66.95 Y-25.046
X66.87 Y-24.164
X66.73 Y-23.322
X66.575 Y-22.7
X66.418 Y-22.233
X66.235 Y-21.806
X66.225 Y-21.786
X66.055 Y-21.534
X65.835 Y-21.325
X65.575 Y-21.169
X65.287 Y-21.072
X64.986 Y-21.039
X62.745 Y-21.037
G3 X62.166 Y-21.627 I0.02 J-0.6
G1 X61.972 Y-33.555
G3 X62.653 Y-34.16 I0.6 J-0.01
G1 X64.798 Y-33.791
X65.077 Y-33.729
X65.298 Y-33.661
X65.522 Y-33.571
X65.772 Y-33.447
X66.042 Y-33.285
X66.317 Y-33.087
X66.62 Y-32.831
X66.915 Y-32.538
X67.241 Y-32.158
X67.547 Y-31.736
X67.865 Y-31.214
X68.177 Y-30.593
X68.46 Y-29.899
X68.72 Y-29.076
X68.919 Y-28.213
X69.054 Y-27.337
X69.132 Y-26.454
X69.154 Y-25.568
X69.121 Y-24.683
X69.026 Y-23.802
X68.887 Y-23.068
X68.734 Y-22.508
X68.577 Y-22.074
X68.477 Y-21.857
X68.312 Y-21.583
X68.09 Y-21.354
X67.821 Y-21.182
X67.52 Y-21.074
X67.203 Y-21.038
X64.986 Y-21.039
G3 X64.407 Y-21.624 I0.021 J-0.6
G1 X64.118 Y-33.182
G3 X64.798 Y-33.791 I0.6 J-0.015
G1 X67.08 Y-33.399
X67.269 Y-33.356
X67.415 Y-33.322
X67.559 Y-33.28
X67.7 Y-33.231
X67.839 Y-33.174
X67.975 Y-33.11
X68.108 Y-33.041
X68.238 Y-32.966
X68.365 Y-32.886
X68.489 Y-32.802
X68.61 Y-32.713
X68.727 Y-32.62
X68.842 Y-32.523
X68.954 Y-32.423
X69.062 Y-32.319
X69.168 Y-32.212
X69.27 Y-32.103
X69.37 Y-31.991
X69.467 Y-31.876
X69.561 Y-31.759
X69.652 Y-31.64
X69.74 Y-31.519
X69.825 Y-31.395
X69.908 Y-31.27
X69.988 Y-31.144
X70.066 Y-31.015
X70.141 Y-30.886
X70.214 Y-30.754
X70.284 Y-30.622
X70.351 Y-30.488
X70.417 Y-30.353
X70.48 Y-30.217
X70.541 Y-30.079
X70.599 Y-29.941
X70.655 Y-29.802
X70.709 Y-29.662
X70.761 Y-29.521
X70.81 Y-29.38
X70.858 Y-29.238
X70.904 Y-29.095
X70.947 Y-28.951
X70.989 Y-28.807
X71.028 Y-28.662
X71.066 Y-28.517
X71.102 Y-28.372
X71.136 Y-28.226
X71.168 Y-28.079
X71.199 Y-27.932
X71.227 Y-27.785
X71.254 Y-27.637
X71.279 Y-27.489
X71.302 Y-27.341
X71.324 Y-27.193
X71.343 Y-27.044
X71.361 Y-26.895
X71.377 Y-26.746
X71.392 Y-26.597
X71.405 Y-26.447
X71.416 Y-26.298
X71.426 Y-26.148
X71.434 Y-25.998
X71.44 Y-25.848
X71.444 Y-25.698
X71.446 Y-25.548
X71.447 Y-25.398
X71.446 Y-25.248
X71.444 Y-25.098
X71.439 Y-24.948
X71.433 Y-24.799
X71.424 Y-24.649
X71.414 Y-24.499
X71.402 Y-24.35
X71.388 Y-24.2
X71.372 Y-24.051
X71.354 Y-23.902
X71.334 Y-23.754
X71.312 Y-23.605
X71.287 Y-23.457
X71.261 Y-23.31
X71.231 Y-23.163
X71.199 Y-23.016
X71.164 Y-22.87
X71.126 Y-22.725
X71.086 Y-22.581
X71.042 Y-22.437
X70.995 Y-22.295
X70.943 Y-22.154
X70.889 Y-22.014
X70.823 Y-21.859
X70.659 Y-21.584
X70.436 Y-21.353
X70.166 Y-21.179
X69.864 Y-21.071
X69.545 Y-21.035
X67.885 Y-21.038
X67.203
G3 X66.624 Y-21.626 I0.021 J-0.6
G1 X66.399 Y-32.792
G3 X67.08 Y-33.399 I0.6 J-0.012
G1 X69.294 Y-33.017
X69.597 Y-32.949
X69.81 Y-32.883
X70.039 Y-32.792
X70.285 Y-32.669
X70.549 Y-32.51
X70.828 Y-32.311
X71.119 Y-32.064
X71.422 Y-31.762
X71.733 Y-31.399
X72.048 Y-30.965
X72.36 Y-30.451
X72.56 Y-30.056
X72.856 Y-29.726
X73.583 Y-29.22
X74.407 Y-28.894
X75.264 Y-28.666
X76.128 Y-28.471
X76.555 Y-28.353
X77.115 Y-28.187
X77.736 Y-27.946
X78.128 Y-27.758
X78.6 Y-27.481
X78.885 Y-27.282
X79.201 Y-27.021
X79.5 Y-26.731
X79.71 Y-26.491
X79.942 Y-26.179
X80.126 Y-25.885
X80.265 Y-25.616
X80.409 Y-25.276
X80.508 Y-24.975
X80.575 Y-24.695
X80.63 Y-24.349
X80.654 Y-24.041
X80.653 Y-23.767
X80.625 Y-23.435
X80.574 Y-23.126
X80.511 Y-22.872
X80.41 Y-22.573
X80.281 Y-22.273
X80.165 Y-22.053
X80.004 Y-21.799
X79.798 Y-21.526
X79.749 Y-21.471
X79.529 Y-21.271
X79.272 Y-21.122
X78.99 Y-21.03
X78.694 Y-21.001
X75.129 Y-21.019
X71.708 Y-21.031
X69.545 Y-21.035
G3 X68.967 Y-21.615 I0.022 J-0.6
G1 X68.613 Y-32.403
G3 X69.294 Y-33.017 I0.6 J-0.02
G1 X71.507 Y-32.637
X71.774 Y-32.577
X71.994 Y-32.509
X72.816 Y-32.18
X73.638 Y-31.848
X74.474 Y-31.554
X75.317 Y-31.28
X76.16 Y-31.007
X76.996 Y-30.715
X77.818 Y-30.383
X78.569 Y-30.022
X79.231 Y-29.635
X79.791 Y-29.245
X80.281 Y-28.841
X80.709 Y-28.426
X81.094 Y-27.988
X81.429 Y-27.539
X81.713 Y-27.086
X81.956 Y-26.619
X82.153 Y-26.153
X82.31 Y-25.679
X82.426 Y-25.2
X82.502 Y-24.727
X82.539 Y-24.252
X82.538 Y-23.775
X82.5 Y-23.313
X82.425 Y-22.859
X82.314 Y-22.408
X82.184 Y-22.02
X82.105 Y-21.836
X81.973 Y-21.596
X81.798 Y-21.386
X81.585 Y-21.215
X81.342 Y-21.088
X81.08 Y-21.011
X80.808 Y-20.986
X78.694 Y-21.001
G3 X78.227 Y-21.257 I0.024 J-0.6
G1 X78.093 Y-21.448
X70.934 Y-31.699
G3 X71.507 Y-32.637 I0.492 J-0.344
G1 X73.922 Y-32.223
X77.141 Y-31.674
X78.877 Y-31.381
X79.401 Y-31.265
X79.81 Y-31.14
X80.234 Y-30.972
X80.687 Y-30.748
X81.145 Y-30.474
X81.591 Y-30.157
X82.03 Y-29.788
X82.454 Y-29.368
X82.853 Y-28.905
X83.219 Y-28.404
X83.548 Y-27.868
X83.833 Y-27.306
X84.073 Y-26.722
X84.266 Y-26.118
X84.409 Y-25.504
X84.502 Y-24.881
X84.545 Y-24.254
X84.537 Y-23.638
X84.487 Y-23.097
X84.407 Y-22.64
X84.3 Y-22.224
X84.179 Y-21.875
X84.149 Y-21.806
X83.984 Y-21.526
X83.759 Y-21.29
X83.485 Y-21.113
X83.178 Y-21.005
X82.855 Y-20.969
X80.965 Y-20.985
X80.808 Y-20.986
G3 X80.247 Y-21.456 I0.025 J-0.599
G1 X78.212 Y-30.657
G3 X78.877 Y-31.381 I0.586 J-0.13
G1 X81.262 Y-30.979
X82.172 Y-30.828
X82.421 Y-30.773
X82.687 Y-30.693
X82.96 Y-30.585
X83.262 Y-30.437
X83.569 Y-30.255
X83.904 Y-30.017
X84.228 Y-29.747
X84.571 Y-29.409
X84.909 Y-29.019
X85.226 Y-28.586
X85.535 Y-28.087
X85.82 Y-27.528
X86.072 Y-26.92
X86.278 Y-26.28
X86.436 Y-25.609
X86.54 Y-24.927
X86.587 Y-24.261
X86.581 Y-23.625
X86.534 Y-23.101
X86.451 Y-22.619
X86.351 Y-22.23
X86.222 Y-21.853
X86.195 Y-21.791
X86.03 Y-21.509
X85.805 Y-21.273
X85.53 Y-21.095
X85.222 Y-20.986
X84.897 Y-20.951
X82.855 Y-20.969
G3 X82.283 Y-21.515 I0.026 J-0.599
G1 X81.497 Y-30.179
G3 X82.172 Y-30.828 I0.598 J-0.054
G1 X84.587 Y-30.427
X84.835 Y-30.373
X85.056 Y-30.306
X85.301 Y-30.209
X85.552 Y-30.086
X85.832 Y-29.92
X86.109 Y-29.724
X86.411 Y-29.471
X86.708 Y-29.179
X87.011 Y-28.828
X87.318 Y-28.41
X87.598 Y-27.957
X87.869 Y-27.427
X88.114 Y-26.834
X88.319 Y-26.198
X88.474 Y-25.539
X88.576 Y-24.871
X88.622 Y-24.217
X88.616 Y-23.585
X88.57 Y-23.067
X88.488 Y-22.591
X88.389 Y-22.204
X88.26 Y-21.83
X88.234 Y-21.77
X88.069 Y-21.488
X87.843 Y-21.251
X87.569 Y-21.074
X87.261 Y-20.965
X86.935 Y-20.93
X84.897 Y-20.951
G3 X84.325 Y-21.52 I0.027 J-0.599
G1 X83.91 Y-29.802
G3 X84.587 Y-30.427 I0.599 J-0.03
G1 X85.593 Y-30.261
X86.8 Y-30.067
X87.026 Y-30.019
X87.242 Y-29.954
X87.46 Y-29.87
X87.708 Y-29.75
X87.958 Y-29.603
X88.232 Y-29.412
X88.505 Y-29.185
X88.799 Y-28.899
X89.079 Y-28.579
X89.372 Y-28.184
X89.644 Y-27.748
X89.9 Y-27.254
X90.135 Y-26.693
X90.336 Y-26.081
X90.489 Y-25.448
X90.59 Y-24.804
X90.638 Y-24.169
X90.636 Y-23.552
X90.592 Y-23.044
X90.514 Y-22.574
X90.418 Y-22.191
X90.292 Y-21.818
X90.265 Y-21.754
X90.132 Y-21.514
X89.956 Y-21.305
X89.742 Y-21.133
X89.499 Y-21.007
X89.235 Y-20.931
X88.963 Y-20.907
X86.935 Y-20.93
G3 X86.363 Y-21.512 I0.028 J-0.599
G1 X86.126 Y-29.454
G3 X86.8 Y-30.067 I0.6 J-0.018
G1 X89.014 Y-29.711
X89.16 Y-29.68
X89.366 Y-29.618
X89.583 Y-29.533
X89.824 Y-29.415
X90.066 Y-29.271
X90.334 Y-29.082
X90.597 Y-28.862
X90.879 Y-28.586
X91.154 Y-28.268
X91.427 Y-27.898
X91.699 Y-27.458
X91.941 Y-26.986
X92.161 Y-26.456
X92.351 Y-25.87
X92.495 Y-25.26
X92.591 Y-24.638
X92.635 Y-24.026
X92.63 Y-23.432
X92.585 Y-22.931
X92.513 Y-22.509
X92.411 Y-22.11
X92.296 Y-21.772
X92.276 Y-21.726
X92.111 Y-21.443
X91.885 Y-21.206
X91.61 Y-21.028
X91.301 Y-20.919
X90.976 Y-20.884
X88.963 Y-20.907
G3 X88.39 Y-21.502 I0.028 J-0.599
G1 X88.339 Y-29.112
G3 X89.014 Y-29.711 I0.6 J-0.004
G1 X91.026 Y-29.388
X91.236 Y-29.343
X91.435 Y-29.284
X91.649 Y-29.201
X91.881 Y-29.089
X92.119 Y-28.949
X92.376 Y-28.769
X92.634 Y-28.555
X92.903 Y-28.293
X93.174 Y-27.983
X93.435 Y-27.632
X93.697 Y-27.212
X93.934 Y-26.754
X94.145 Y-26.25
X94.329 Y-25.692
X94.47 Y-25.106
X94.563 Y-24.513
X94.608 Y-23.921
X94.606 Y-23.355
X94.566 Y-22.882
X94.495 Y-22.458
X94.401 Y-22.084
X94.283 Y-21.734
X94.272 Y-21.709
X94.14 Y-21.469
X93.963 Y-21.259
X93.749 Y-21.088
X93.506 Y-20.962
X93.243 Y-20.885
X92.97 Y-20.862
X90.976 Y-20.884
G3 X90.404 Y-21.479 I0.028 J-0.599
G1 X90.351 Y-28.788
G3 X91.026 Y-29.388 I0.6 J-0.004
G1 X93.038 Y-29.064
X93.287 Y-29.011
X93.476 Y-28.955
X93.692 Y-28.871
X93.912 Y-28.765
X94.153 Y-28.623
X94.397 Y-28.453
X94.657 Y-28.237
X94.912 Y-27.989
X95.182 Y-27.681
X95.432 Y-27.344
X95.68 Y-26.945
X95.916 Y-26.489
X96.12 Y-26.005
X96.294 Y-25.475
X96.428 Y-24.918
X96.517 Y-24.349
X96.561 Y-23.782
X96.558 Y-23.254
X96.519 Y-22.79
X96.454 Y-22.399
X96.359 Y-22.021
X96.249 Y-21.695
X96.245 Y-21.687
X96.113 Y-21.447
X95.936 Y-21.237
X95.722 Y-21.066
X95.479 Y-20.94
X95.216 Y-20.863
X94.943 Y-20.84
X92.97 Y-20.862
G3 X92.398 Y-21.458 I0.028 J-0.599
G1 X92.364 Y-28.466
G3 X93.038 Y-29.064 I0.6 J-0.003
G1 X94.044 Y-28.903
X94.246 Y-28.872
X95.05 Y-28.749
X95.277 Y-28.703
X95.462 Y-28.65
X95.674 Y-28.57
X95.89 Y-28.467
X96.127 Y-28.331
X96.365 Y-28.168
X96.621 Y-27.959
X96.869 Y-27.722
X97.131 Y-27.427
X97.377 Y-27.102
X97.618 Y-26.723
X97.849 Y-26.286
X98.05 Y-25.818
X98.219 Y-25.317
X98.352 Y-24.786
X98.442 Y-24.245
X98.488 Y-23.699
X98.49 Y-23.2
X98.456 Y-22.752
X98.396 Y-22.372
X98.306 Y-22.002
X98.199 Y-21.677
X98.068 Y-21.435
X97.892 Y-21.223
X97.678 Y-21.05
X97.434 Y-20.922
X97.17 Y-20.844
X96.896 Y-20.82
X95.855 Y-20.83
X94.943 Y-20.84
G3 X94.371 Y-21.44 I0.028 J-0.599
G1 X94.381 Y-28.154
G3 X95.05 Y-28.749 I0.6 J0.001
G1 X97.063 Y-28.443
X97.259 Y-28.404
X97.442 Y-28.35
X97.653 Y-28.271
X97.864 Y-28.171
X98.1 Y-28.035
X98.332 Y-27.876
X98.583 Y-27.671
X98.828 Y-27.437
X99.079 Y-27.155
X99.328 Y-26.825
X99.557 Y-26.465
X99.777 Y-26.049
X99.975 Y-25.589
X100.139 Y-25.101
X100.266 Y-24.596
X100.352 Y-24.079
X100.396 Y-23.558
X100.397 Y-23.104
X100.365 Y-22.674
X100.306 Y-22.304
X100.221 Y-21.951
X100.16 Y-21.766
X100.04 Y-21.498
X99.866 Y-21.261
X99.647 Y-21.066
X99.392 Y-20.92
X99.112 Y-20.831
X98.819 Y-20.803
X96.896 Y-20.82
G3 X96.322 Y-21.426 I0.026 J-0.599
G1 X96.393 Y-27.854
G3 X97.063 Y-28.443 I0.6 J0.007
G1 X99.075 Y-28.138
X99.222 Y-28.108
X99.406 Y-28.054
X99.612 Y-27.976
X99.821 Y-27.876
X100.052 Y-27.743
X100.283 Y-27.583
X100.526 Y-27.384
X100.772 Y-27.148
X101.012 Y-26.877
X101.256 Y-26.553
X101.48 Y-26.198
X101.69 Y-25.8
X101.877 Y-25.361
X102.035 Y-24.892
X102.155 Y-24.407
X102.236 Y-23.91
X102.275 Y-23.44
X102.276 Y-22.987
X102.246 Y-22.606
X102.186 Y-22.227
X102.107 Y-21.904
X102.056 Y-21.75
X101.935 Y-21.483
X101.762 Y-21.247
X101.543 Y-21.052
X101.289 Y-20.907
X101.01 Y-20.818
X100.718 Y-20.789
X98.819 Y-20.803
G3 X98.245 Y-21.418 I0.026 J-0.599
G1 X98.406 Y-27.557
G3 X99.075 Y-28.138 I0.6 J0.016
G1 X100.886 Y-27.862
X101.16 Y-27.807
X101.342 Y-27.754
X101.541 Y-27.678
X101.749 Y-27.58
X101.972 Y-27.452
X102.2 Y-27.295
X102.435 Y-27.104
X102.677 Y-26.872
X102.909 Y-26.612
X103.144 Y-26.301
X103.365 Y-25.953
X103.564 Y-25.576
X103.744 Y-25.158
X103.894 Y-24.714
X104.01 Y-24.25
X104.088 Y-23.777
X104.126 Y-23.336
X104.127 Y-22.906
X104.1 Y-22.541
X104.042 Y-22.177
X103.966 Y-21.864
X103.927 Y-21.743
X103.807 Y-21.476
X103.634 Y-21.239
X103.415 Y-21.044
X103.161 Y-20.898
X102.882 Y-20.809
X102.59 Y-20.78
X100.718 Y-20.789
G3 X100.143 Y-21.396 I0.025 J-0.599
G1 X100.217 Y-27.274
G3 X100.886 Y-27.862 I0.6 J0.008
G1 X102.846 Y-27.564
X103.066 Y-27.519
X103.25 Y-27.467
X103.442 Y-27.394
X103.65 Y-27.295
X103.864 Y-27.172
X104.093 Y-27.015
X104.317 Y-26.832
X104.555 Y-26.605
X104.781 Y-26.351
X105.005 Y-26.054
X105.221 Y-25.714
X105.416 Y-25.346
X105.586 Y-24.95
X105.728 Y-24.529
X105.839 Y-24.086
X105.914 Y-23.634
X105.949 Y-23.222
X105.951 Y-22.822
X105.924 Y-22.469
X105.869 Y-22.123
X105.795 Y-21.817
X105.769 Y-21.736
X105.649 Y-21.469
X105.476 Y-21.233
X105.258 Y-21.038
X105.004 Y-20.893
X104.726 Y-20.803
X104.435 Y-20.773
X103.301 Y-20.776
X102.59 Y-20.78
G3 X102.014 Y-21.397 I0.024 J-0.6
G1 X102.177 Y-26.986
G3 X102.846 Y-27.564 I0.6 J0.017
G1 X103.703 Y-27.441
X104.709 Y-27.298
X104.916 Y-27.258
X105.095 Y-27.209
X105.284 Y-27.139
X105.489 Y-27.045
X105.697 Y-26.928
X105.921 Y-26.777
X106.14 Y-26.603
X106.372 Y-26.386
X106.594 Y-26.141
X106.811 Y-25.859
X107.021 Y-25.537
X107.212 Y-25.184
X107.379 Y-24.807
X107.519 Y-24.407
X107.628 Y-23.986
X107.704 Y-23.558
X107.741 Y-23.167
X107.747 Y-22.788
X107.724 Y-22.446
X107.675 Y-22.113
X107.606 Y-21.814
X107.584 Y-21.745
X107.466 Y-21.476
X107.294 Y-21.236
X107.076 Y-21.038
X106.821 Y-20.89
X106.541 Y-20.799
X106.248 Y-20.769
X104.435 Y-20.773
G3 X103.858 Y-21.394 I0.023 J-0.6
G1 X104.046 Y-26.723
G3 X104.709 Y-27.298 I0.6 J0.021
G1 X106.52 Y-27.042
X106.763 Y-26.995
X106.943 Y-26.945
X107.125 Y-26.878
X107.329 Y-26.785
X107.531 Y-26.671
X107.749 Y-26.524
X107.967 Y-26.351
X108.186 Y-26.146
X108.409 Y-25.9
X108.618 Y-25.629
X108.816 Y-25.325
X109 Y-24.985
X109.162 Y-24.619
X109.297 Y-24.232
X109.402 Y-23.83
X109.47 Y-23.442
X109.506 Y-23.062
X109.511 Y-22.717
X109.489 Y-22.379
X109.443 Y-22.067
X109.375 Y-21.77
X109.367 Y-21.744
X109.249 Y-21.475
X109.077 Y-21.236
X108.859 Y-21.038
X108.604 Y-20.89
X108.324 Y-20.798
X108.031 Y-20.767
X106.248 Y-20.769
G3 X105.67 Y-21.39 I0.022 J-0.6
G1 X105.857 Y-26.467
G3 X106.52 Y-27.042 I0.6 J0.022
G1 X108.428 Y-26.772
X108.58 Y-26.743
X108.756 Y-26.694
X108.792 Y-26.681
X109.047 Y-26.556
X109.272 Y-26.383
X109.458 Y-26.168
X109.596 Y-25.92
X109.681 Y-25.649
X109.71 Y-25.366
G3 X108.674 Y-24.975 I-0.6 J-0.021
G1 X107.929 Y-25.763
G3 X108.428 Y-26.772 I0.436 J-0.412
G1 X109.136 Y-26.672
X109.237 Y-26.654
X109.287 Y-26.64
X109.337 Y-26.62
X109.39 Y-26.593
X109.442 Y-26.56
X109.491 Y-26.524
X109.539 Y-26.48
X109.591 Y-26.42
X109.63 Y-26.359
X109.656 Y-26.309
X109.676 Y-26.259
X109.702 Y-26.158
X109.71 Y-25.957
Y-21.538
X109.708 Y-21.337
X109.692 Y-21.237
X109.677 Y-21.187
X109.657 Y-21.136
X109.609 Y-21.05
X109.577 Y-21.006
X109.539 Y-20.963
X109.51 Y-20.935
X109.424 Y-20.866
X109.337 Y-20.819
X109.287 Y-20.799
X109.237 Y-20.784
X109.136 Y-20.769
X108.935 Y-20.767
X108.031
G3 X107.468 Y-21.232 I0.021 J-0.6
G1 X107.447 Y-21.324 Z-6.993
X107.426 Y-21.413 Z-6.971
X107.407 Y-21.498 Z-6.935
X107.389 Y-21.576 Z-6.885
X107.373 Y-21.646 Z-6.824
X107.359 Y-21.705 Z-6.753
X107.348 Y-21.753 Z-6.672
X107.34 Y-21.788 Z-6.585
X107.335 Y-21.81 Z-6.494
X107.333 Y-21.817 Z-6.4
Z-5.8
X19.487 Y-39.423
Z-6.4
X19.494 Y-39.426 Z-6.494
X19.514 Y-39.435 Z-6.585
X19.546 Y-39.451 Z-6.672
X19.59 Y-39.472 Z-6.753
X19.646 Y-39.499 Z-6.824
X19.71 Y-39.53 Z-6.885
X19.782 Y-39.564 Z-6.935
X19.861 Y-39.602 Z-6.971
X19.943 Y-39.642 Z-6.993
X20.028 Y-39.682 Z-7
G3 X20.798 Y-39.836 I0.685 J1.427
G1 X24.622 Y-39.494
X25.225 Y-39.438
X30.658 Y-38.881
X31.281 Y-38.813
X32.576 Y-38.66
G3 X33.082 Y-38.133 I-0.091 J0.593
G1 X33.092 Y-38.04 Z-6.993
X33.102 Y-37.949 Z-6.971
X33.111 Y-37.862 Z-6.935
X33.12 Y-37.782 Z-6.885
X33.128 Y-37.711 Z-6.824
X33.135 Y-37.65 Z-6.753
X33.14 Y-37.602 Z-6.672
X33.144 Y-37.566 Z-6.585
X33.146 Y-37.544 Z-6.494
X33.147 Y-37.537 Z-6.4
Z-5.8
X-25.603 Y-21.662
Z-6.4
X-25.609 Y-21.658 Z-6.494
X-25.628 Y-21.648 Z-6.585
X-25.66 Y-21.63 Z-6.672
X-25.703 Y-21.607 Z-6.753
X-25.757 Y-21.578 Z-6.824
X-25.82 Y-21.544 Z-6.885
X-25.891 Y-21.506 Z-6.935
X-25.967 Y-21.464 Z-6.971
X-26.048 Y-21.421 Z-6.993
X-26.13 Y-21.376 Z-7
G3 X-26.892 Y-21.185 I-0.753 J-1.392
G1 X-29.106 Y-21.275
X-29.508 Y-21.294
X-29.718 Y-21.314
X-29.96 Y-21.358
X-30.234 Y-21.43
X-30.539 Y-21.537
X-30.854 Y-21.677
X-31.218 Y-21.876
X-31.575 Y-22.109
X-31.987 Y-22.429
X-32.385 Y-22.793
X-32.819 Y-23.258
X-33.267 Y-23.825
X-33.699 Y-24.47
X-34.13 Y-25.241
X-34.498 Y-26.047
X-34.809 Y-26.877
X-35.064 Y-27.726
X-35.269 Y-28.588
X-35.424 Y-29.46
X-35.532 Y-30.34
X-35.594 Y-31.224
X-35.611 Y-32.11
X-35.582 Y-32.996
X-35.511 Y-33.879
X-35.397 Y-34.758
X-35.242 Y-35.63
X-35.046 Y-36.494
X-34.809 Y-37.348
X-34.534 Y-38.19
X-34.218 Y-39.018
X-33.864 Y-39.831
X-33.472 Y-40.625
X-33.061 Y-41.364
X-32.952 Y-41.528
X-32.779 Y-41.74
X-32.568 Y-41.914
X-32.327 Y-42.044
X-32.066 Y-42.124
X-31.794 Y-42.152
X-29.709 Y-42.163
X-29.115 Y-42.164
G3 X-28.535 Y-41.553 I-0.02 J0.6
G1 X-28.901 Y-21.883
G3 X-29.508 Y-21.294 I-0.6 J-0.011
G1 X-29.911 Y-21.314
X-31.923 Y-21.422
X-32.171 Y-21.448
X-32.402 Y-21.491
X-32.675 Y-21.565
X-32.952 Y-21.664
X-33.265 Y-21.806
X-33.598 Y-21.99
X-33.95 Y-22.224
X-34.333 Y-22.525
X-34.723 Y-22.885
X-35.128 Y-23.326
X-35.557 Y-23.875
X-35.974 Y-24.506
X-36.386 Y-25.256
X-36.75 Y-26.064
X-37.054 Y-26.897
X-37.303 Y-27.747
X-37.503 Y-28.61
X-37.655 Y-29.483
X-37.762 Y-30.363
X-37.825 Y-31.247
X-37.847 Y-32.133
X-37.827 Y-33.018
X-37.766 Y-33.903
X-37.667 Y-34.783
X-37.529 Y-35.658
X-37.354 Y-36.527
X-37.143 Y-37.388
X-36.895 Y-38.239
X-36.613 Y-39.078
X-36.295 Y-39.906
X-35.942 Y-40.718
X-35.629 Y-41.324
X-35.534 Y-41.478
X-35.362 Y-41.701
X-35.148 Y-41.885
X-34.902 Y-42.023
X-34.633 Y-42.109
X-34.352 Y-42.139
X-31.794 Y-42.152
G3 X-31.212 Y-41.549 I-0.018 J0.6
G1 X-31.311 Y-22.019
G3 X-31.923 Y-21.422 I-0.6 J-0.003
G1 X-34.337 Y-21.552
X-34.524 Y-21.571
X-34.751 Y-21.614
X-35.017 Y-21.686
X-35.284 Y-21.782
X-35.593 Y-21.921
X-35.91 Y-22.097
X-36.257 Y-22.327
X-36.622 Y-22.614
X-37.004 Y-22.968
X-37.395 Y-23.392
X-37.811 Y-23.924
X-38.217 Y-24.539
X-38.62 Y-25.273
X-38.984 Y-26.081
X-39.287 Y-26.913
X-39.535 Y-27.764
X-39.734 Y-28.628
X-39.886 Y-29.501
X-39.995 Y-30.38
X-40.063 Y-31.263
X-40.09 Y-32.149
X-40.078 Y-33.035
X-40.028 Y-33.92
X-39.942 Y-34.802
X-39.82 Y-35.68
X-39.663 Y-36.552
X-39.473 Y-37.417
X-39.25 Y-38.275
X-38.994 Y-39.123
X-38.706 Y-39.961
X-38.378 Y-40.784
X-38.113 Y-41.319
X-38.047 Y-41.429
X-37.877 Y-41.657
X-37.664 Y-41.846
X-37.418 Y-41.988
X-37.149 Y-42.077
X-36.866 Y-42.11
X-35.545 Y-42.129
X-35.142 Y-42.134
X-34.352 Y-42.139
G3 X-33.77 Y-41.54 I-0.018 J0.6
G1 X-33.726 Y-22.153
G3 X-34.337 Y-21.552 I-0.6 J0.001
G1 X-36.551 Y-21.671
X-36.841 Y-21.701
X-37.068 Y-21.743
X-37.326 Y-21.813
X-37.589 Y-21.908
X-37.896 Y-22.047
X-38.2 Y-22.215
X-38.547 Y-22.445
X-38.896 Y-22.72
X-39.279 Y-23.074
X-39.656 Y-23.484
X-40.063 Y-24.003
X-40.466 Y-24.615
X-40.862 Y-25.335
X-41.226 Y-26.143
X-41.528 Y-26.976
X-41.775 Y-27.827
X-41.974 Y-28.691
X-42.126 Y-29.564
X-42.236 Y-30.443
X-42.306 Y-31.326
X-42.338 Y-32.212
X-42.333 Y-33.098
X-42.292 Y-33.983
X-42.216 Y-34.866
X-42.106 Y-35.745
X-41.964 Y-36.62
X-41.791 Y-37.489
X-41.587 Y-38.351
X-41.351 Y-39.206
X-41.082 Y-40.05
X-40.805 Y-40.778
X-40.564 Y-41.284
X-40.511 Y-41.375
X-40.342 Y-41.608
X-40.128 Y-41.802
X-39.88 Y-41.948
X-39.606 Y-42.04
X-39.32 Y-42.074
X-36.866 Y-42.11
G3 X-36.279 Y-41.521 I-0.012 J0.6
G1 X-35.94 Y-22.281
G3 X-36.551 Y-21.671 I-0.6 J0.011
G1 X-37.155 Y-21.704
X-37.76 Y-21.739
X-38.966 Y-21.82
X-39.173 Y-21.844
X-39.407 Y-21.891
X-39.656 Y-21.962
X-39.925 Y-22.063
X-40.23 Y-22.206
X-40.534 Y-22.379
X-40.885 Y-22.619
X-41.224 Y-22.893
X-41.611 Y-23.261
X-41.981 Y-23.674
X-42.378 Y-24.196
X-42.785 Y-24.83
X-43.18 Y-25.573
X-43.533 Y-26.386
X-43.824 Y-27.222
X-44.062 Y-28.076
X-44.251 Y-28.942
X-44.396 Y-29.816
X-44.499 Y-30.696
X-44.564 Y-31.58
X-44.593 Y-32.465
X-44.586 Y-33.351
X-44.546 Y-34.237
X-44.474 Y-35.12
X-44.371 Y-36
X-44.236 Y-36.876
X-44.071 Y-37.746
X-43.876 Y-38.611
X-43.648 Y-39.467
X-43.38 Y-40.312
X-43.137 Y-40.92
X-42.972 Y-41.253
X-42.809 Y-41.509
X-42.594 Y-41.723
X-42.338 Y-41.886
X-42.053 Y-41.991
X-41.752 Y-42.031
X-41.179 Y-42.045
X-40.173 Y-42.061
X-39.32 Y-42.074
G3 X-38.732 Y-41.486 I-0.012 J0.6
G1 X-38.346 Y-22.432
G3 X-38.966 Y-21.82 I-0.6 J0.012
G1 X-41.179 Y-21.969
X-41.471 Y-22.003
X-41.697 Y-22.048
X-41.948 Y-22.12
X-42.209 Y-22.218
X-42.513 Y-22.36
X-42.813 Y-22.531
X-43.156 Y-22.766
X-43.498 Y-23.042
X-43.876 Y-23.401
X-44.245 Y-23.813
X-44.643 Y-24.336
X-45.039 Y-24.955
X-45.427 Y-25.683
X-45.78 Y-26.496
X-46.071 Y-27.332
X-46.309 Y-28.186
X-46.499 Y-29.052
X-46.645 Y-29.926
X-46.75 Y-30.805
X-46.818 Y-31.689
X-46.851 Y-32.574
X-46.85 Y-33.461
X-46.817 Y-34.346
X-46.753 Y-35.23
X-46.658 Y-36.111
X-46.534 Y-36.988
X-46.38 Y-37.861
X-46.195 Y-38.728
X-45.975 Y-39.586
X-45.717 Y-40.408
X-45.5 Y-40.944
X-45.372 Y-41.199
X-45.208 Y-41.453
X-44.994 Y-41.666
X-44.739 Y-41.828
X-44.455 Y-41.932
X-44.155 Y-41.972
X-41.752 Y-42.031
G3 X-41.159 Y-41.45 I-0.006 J0.6
G1 X-40.56 Y-22.587
G3 X-41.179 Y-21.969 I-0.6 J0.019
G1 X-43.594 Y-22.131
X-43.743 Y-22.149
X-43.97 Y-22.194
X-44.22 Y-22.266
X-44.482 Y-22.365
X-44.785 Y-22.507
X-45.083 Y-22.678
X-45.427 Y-22.914
X-45.764 Y-23.187
X-46.143 Y-23.548
X-46.508 Y-23.957
X-46.903 Y-24.477
X-47.301 Y-25.1
X-47.687 Y-25.828
X-48.038 Y-26.642
X-48.329 Y-27.479
X-48.566 Y-28.333
X-48.755 Y-29.199
X-48.901 Y-30.073
X-49.008 Y-30.952
X-49.078 Y-31.836
X-49.114 Y-32.721
X-49.117 Y-33.607
X-49.089 Y-34.493
X-49.031 Y-35.377
X-48.944 Y-36.259
X-48.827 Y-37.137
X-48.68 Y-38.011
X-48.5 Y-38.879
X-48.283 Y-39.738
X-48.054 Y-40.454
X-47.845 Y-40.961
X-47.75 Y-41.147
X-47.587 Y-41.398
X-47.374 Y-41.608
X-47.121 Y-41.768
X-46.84 Y-41.871
X-46.544 Y-41.912
X-46.21 Y-41.921
X-44.155 Y-41.972
G3 X-43.562 Y-41.39 I-0.006 J0.6
G1 X-42.975 Y-22.75
G3 X-43.594 Y-22.131 I-0.6 J0.019
G1 X-45.405 Y-22.253
X-45.807 Y-22.281
X-46.035 Y-22.31
X-46.265 Y-22.358
X-46.512 Y-22.431
X-46.777 Y-22.533
X-47.079 Y-22.678
X-47.378 Y-22.852
X-47.724 Y-23.093
X-48.058 Y-23.368
X-48.438 Y-23.735
X-48.801 Y-24.148
X-49.193 Y-24.672
X-49.592 Y-25.308
X-49.98 Y-26.051
X-50.326 Y-26.867
X-50.611 Y-27.706
X-50.843 Y-28.561
X-51.029 Y-29.427
X-51.172 Y-30.302
X-51.277 Y-31.182
X-51.346 Y-32.065
X-51.382 Y-32.95
X-51.386 Y-33.837
X-51.36 Y-34.722
X-51.305 Y-35.607
X-51.221 Y-36.489
X-51.107 Y-37.368
X-50.962 Y-38.242
X-50.782 Y-39.109
X-50.558 Y-39.967
X-50.344 Y-40.584
X-50.133 Y-41.063
X-50.122 Y-41.084
X-49.959 Y-41.323
X-49.751 Y-41.524
X-49.505 Y-41.677
X-49.234 Y-41.777
X-48.947 Y-41.819
X-47.216 Y-41.89
X-46.544 Y-41.912
G3 X-45.948 Y-41.337 I-0.003 J0.6
G1 X-45.187 Y-22.906
G3 X-45.807 Y-22.281 I-0.599 J0.025
G1 X-48.021 Y-22.452
X-48.321 Y-22.49
X-48.547 Y-22.538
X-48.795 Y-22.611
X-49.056 Y-22.712
X-49.357 Y-22.857
X-49.654 Y-23.03
X-49.996 Y-23.268
X-50.332 Y-23.546
X-50.708 Y-23.909
X-51.071 Y-24.323
X-51.464 Y-24.85
X-51.859 Y-25.48
X-52.244 Y-26.221
X-52.589 Y-27.037
X-52.874 Y-27.876
X-53.106 Y-28.731
X-53.292 Y-29.598
X-53.436 Y-30.472
X-53.542 Y-31.352
X-53.613 Y-32.235
X-53.651 Y-33.121
X-53.659 Y-34.007
X-53.636 Y-34.893
X-53.585 Y-35.777
X-53.505 Y-36.66
X-53.395 Y-37.539
X-53.251 Y-38.413
X-53.068 Y-39.28
X-52.857 Y-40.06
X-52.662 Y-40.602
X-52.527 Y-40.9
X-52.369 Y-41.166
X-52.157 Y-41.39
X-51.901 Y-41.563
X-51.614 Y-41.675
X-51.309 Y-41.721
X-48.947 Y-41.819
G3 X-48.344 Y-41.25 I0.004 J0.6
G1 X-47.396 Y-23.083
G3 X-48.021 Y-22.452 I-0.599 J0.031
G1 X-49.429 Y-22.561
X-50.033 Y-22.61
X-50.435 Y-22.643
X-50.604 Y-22.665
X-50.832 Y-22.715
X-51.08 Y-22.79
X-51.343 Y-22.893
X-51.645 Y-23.04
X-51.943 Y-23.216
X-52.287 Y-23.46
X-52.622 Y-23.738
X-52.999 Y-24.108
X-53.362 Y-24.526
X-53.753 Y-25.057
X-54.15 Y-25.7
X-54.538 Y-26.455
X-54.877 Y-27.273
X-55.158 Y-28.113
X-55.387 Y-28.969
X-55.57 Y-29.836
X-55.712 Y-30.711
X-55.817 Y-31.591
X-55.887 Y-32.474
X-55.925 Y-33.36
X-55.933 Y-34.246
X-55.911 Y-35.132
X-55.861 Y-36.016
X-55.781 Y-36.899
X-55.669 Y-37.778
X-55.521 Y-38.652
X-55.33 Y-39.517
X-55.129 Y-40.188
X-54.936 Y-40.686
X-54.878 Y-40.805
X-54.723 Y-41.055
X-54.52 Y-41.266
X-54.277 Y-41.43
X-54.005 Y-41.54
X-53.716 Y-41.592
X-53.235 Y-41.625
X-52.649 Y-41.663
X-52.448 Y-41.674
X-51.309 Y-41.721
G3 X-50.706 Y-41.152 I0.004 J0.6
G1 X-49.808 Y-23.272
G3 X-50.435 Y-22.643 I-0.599 J0.03
G1 X-52.649 Y-22.826
X-52.885 Y-22.858
X-53.11 Y-22.907
X-53.359 Y-22.982
X-53.619 Y-23.084
X-53.92 Y-23.231
X-54.217 Y-23.406
X-54.556 Y-23.646
X-54.894 Y-23.928
X-55.266 Y-24.293
X-55.631 Y-24.713
X-56.023 Y-25.245
X-56.417 Y-25.882
X-56.803 Y-26.635
X-57.143 Y-27.453
X-57.424 Y-28.293
X-57.654 Y-29.149
X-57.838 Y-30.016
X-57.981 Y-30.89
X-58.087 Y-31.77
X-58.159 Y-32.653
X-58.199 Y-33.539
X-58.209 Y-34.425
X-58.189 Y-35.311
X-58.141 Y-36.195
X-58.061 Y-37.078
X-57.948 Y-37.957
X-57.795 Y-38.83
X-57.605 Y-39.643
X-57.421 Y-40.217
X-57.279 Y-40.561
X-57.13 Y-40.833
X-56.924 Y-41.066
X-56.673 Y-41.247
X-56.388 Y-41.369
X-56.082 Y-41.425
X-53.716 Y-41.592
G3 X-53.096 Y-41.029 I0.021 J0.6
G1 X-52.021 Y-23.462
G3 X-52.649 Y-22.826 I-0.599 J0.037
G1 X-53.454 Y-22.894
X-54.862 Y-23.016
X-55.175 Y-23.06
X-55.403 Y-23.11
X-55.65 Y-23.186
X-55.912 Y-23.29
X-56.212 Y-23.438
X-56.508 Y-23.615
X-56.851 Y-23.859
X-57.185 Y-24.14
X-57.56 Y-24.511
X-57.922 Y-24.931
X-58.312 Y-25.466
X-58.709 Y-26.113
X-59.096 Y-26.877
X-59.433 Y-27.697
X-59.71 Y-28.538
X-59.937 Y-29.395
X-60.119 Y-30.262
X-60.261 Y-31.137
X-60.365 Y-32.017
X-60.437 Y-32.9
X-60.476 Y-33.785
X-60.485 Y-34.671
X-60.464 Y-35.557
X-60.413 Y-36.442
X-60.33 Y-37.324
X-60.21 Y-38.202
X-60.046 Y-39.073
X-59.864 Y-39.76
X-59.685 Y-40.267
X-59.611 Y-40.433
X-59.459 Y-40.695
X-59.255 Y-40.917
X-59.007 Y-41.09
X-58.728 Y-41.206
X-58.431 Y-41.26
X-56.082 Y-41.425
G3 X-55.463 Y-40.868 I0.021 J0.6
G1 X-54.233 Y-23.658
G3 X-54.862 Y-23.016 I-0.598 J0.043
G1 X-57.277 Y-23.228
X-57.451 Y-23.252
X-57.677 Y-23.303
X-57.927 Y-23.38
X-58.187 Y-23.484
X-58.49 Y-23.634
X-58.787 Y-23.812
X-59.127 Y-24.056
X-59.466 Y-24.343
X-59.838 Y-24.712
X-60.203 Y-25.138
X-60.595 Y-25.678
X-60.991 Y-26.326
X-61.378 Y-27.094
X-61.712 Y-27.914
X-61.989 Y-28.756
X-62.215 Y-29.613
X-62.396 Y-30.48
X-62.537 Y-31.355
X-62.642 Y-32.235
X-62.713 Y-33.118
X-62.752 Y-34.003
X-62.76 Y-34.89
X-62.738 Y-35.775
X-62.685 Y-36.66
X-62.597 Y-37.542
X-62.468 Y-38.418
X-62.301 Y-39.222
X-62.132 Y-39.796
X-62.019 Y-40.091
X-61.88 Y-40.361
X-61.686 Y-40.595
X-61.446 Y-40.782
X-61.171 Y-40.912
X-60.875 Y-40.98
X-58.686 Y-41.237
X-58.485 Y-41.256
X-58.431 Y-41.26
G3 X-57.811 Y-40.702 I0.021 J0.6
G1 X-56.647 Y-23.868
G3 X-57.277 Y-23.228 I-0.599 J0.041
G1 X-59.491 Y-23.426
X-59.732 Y-23.46
X-59.957 Y-23.51
X-60.208 Y-23.587
X-60.467 Y-23.691
X-60.768 Y-23.84
X-61.064 Y-24.019
X-61.403 Y-24.261
X-61.742 Y-24.548
X-62.112 Y-24.915
X-62.478 Y-25.342
X-62.87 Y-25.882
X-63.264 Y-26.528
X-63.652 Y-27.296
X-63.986 Y-28.116
X-64.263 Y-28.958
X-64.489 Y-29.815
X-64.671 Y-30.682
X-64.812 Y-31.557
X-64.917 Y-32.437
X-64.988 Y-33.32
X-65.027 Y-34.205
X-65.035 Y-35.091
X-65.011 Y-35.977
X-64.954 Y-36.861
X-64.859 Y-37.742
X-64.717 Y-38.617
X-64.558 Y-39.271
X-64.392 Y-39.775
X-64.359 Y-39.855
X-64.216 Y-40.114
X-64.023 Y-40.336
X-63.787 Y-40.514
X-63.519 Y-40.638
X-63.232 Y-40.703
X-60.875 Y-40.98
G3 X-60.228 Y-40.432 I0.049 J0.598
G1 X-58.86 Y-24.075
G3 X-59.491 Y-23.426 I-0.598 J0.05
G1 X-61.704 Y-23.625
X-62.012 Y-23.668
X-62.237 Y-23.719
X-62.487 Y-23.796
X-62.746 Y-23.9
X-63.047 Y-24.049
X-63.343 Y-24.228
X-63.682 Y-24.47
X-64.021 Y-24.757
X-64.391 Y-25.125
X-64.756 Y-25.552
X-65.148 Y-26.092
X-65.543 Y-26.74
X-65.93 Y-27.509
X-66.264 Y-28.33
X-66.541 Y-29.172
X-66.766 Y-30.029
X-66.947 Y-30.897
X-67.089 Y-31.771
X-67.193 Y-32.651
X-67.263 Y-33.535
X-67.301 Y-34.42
X-67.306 Y-35.306
X-67.278 Y-36.192
X-67.214 Y-37.076
X-67.106 Y-37.955
X-66.967 Y-38.693
X-66.823 Y-39.222
X-66.734 Y-39.466
X-66.604 Y-39.732
X-66.421 Y-39.965
X-66.193 Y-40.155
X-65.931 Y-40.292
X-65.645 Y-40.371
X-64.722 Y-40.522
X-64.521 Y-40.551
X-63.232 Y-40.703
G3 X-62.585 Y-40.162 I0.049 J0.598
G1 X-61.074 Y-24.281
G3 X-61.704 Y-23.625 I-0.597 J0.057
G1 X-63.515 Y-23.788
X-64.119 Y-23.844
X-64.287 Y-23.868
X-64.513 Y-23.919
X-64.764 Y-23.997
X-65.024 Y-24.102
X-65.326 Y-24.253
X-65.623 Y-24.433
X-65.963 Y-24.677
X-66.303 Y-24.966
X-66.674 Y-25.336
X-67.04 Y-25.766
X-67.432 Y-26.308
X-67.828 Y-26.962
X-68.216 Y-27.736
X-68.548 Y-28.557
X-68.823 Y-29.399
X-69.047 Y-30.257
X-69.227 Y-31.124
X-69.367 Y-31.999
X-69.469 Y-32.88
X-69.537 Y-33.763
X-69.572 Y-34.649
Y-35.535
X-69.538 Y-36.42
X-69.461 Y-37.303
X-69.339 Y-38.13
X-69.207 Y-38.7
X-69.108 Y-39.01
X-68.988 Y-39.283
X-68.812 Y-39.525
X-68.59 Y-39.723
X-68.33 Y-39.87
X-68.045 Y-39.959
X-67.942 Y-39.979
X-67.338 Y-40.092
X-65.645 Y-40.371
G3 X-64.971 Y-39.834 I0.077 J0.595
G1 X-63.487 Y-24.501
G3 X-64.119 Y-23.844 I-0.597 J0.058
G1 X-65.93 Y-24.011
X-66.332 Y-24.05
X-66.59 Y-24.089
X-66.818 Y-24.142
X-67.068 Y-24.222
X-67.33 Y-24.33
X-67.633 Y-24.483
X-67.931 Y-24.666
X-68.272 Y-24.915
X-68.611 Y-25.207
X-68.985 Y-25.585
X-69.349 Y-26.018
X-69.74 Y-26.567
X-70.136 Y-27.231
X-70.525 Y-28.02
X-70.852 Y-28.843
X-71.122 Y-29.687
X-71.342 Y-30.546
X-71.517 Y-31.414
X-71.652 Y-32.29
X-71.749 Y-33.171
X-71.812 Y-34.055
X-71.839 Y-34.941
X-71.829 Y-35.827
X-71.78 Y-36.711
X-71.679 Y-37.575
X-71.563 Y-38.16
X-71.469 Y-38.491
X-71.355 Y-38.773
X-71.183 Y-39.023
X-70.96 Y-39.231
X-70.699 Y-39.385
X-70.41 Y-39.479
X-69.954 Y-39.574
X-68.045 Y-39.959
G3 X-67.353 Y-39.434 I0.096 J0.592
G1 X-65.698 Y-24.716
G3 X-66.332 Y-24.05 I-0.596 J0.067
G1 X-67.137 Y-24.132
X-68.546 Y-24.276
X-68.747 Y-24.3
X-68.964 Y-24.339
X-69.204 Y-24.403
X-69.453 Y-24.491
X-69.727 Y-24.613
X-70.033 Y-24.78
X-70.339 Y-24.981
X-70.691 Y-25.254
X-71.028 Y-25.563
X-71.408 Y-25.971
X-71.776 Y-26.437
X-72.162 Y-27.015
X-72.556 Y-27.721
X-72.923 Y-28.527
X-73.229 Y-29.359
X-73.481 Y-30.208
X-73.684 Y-31.071
X-73.844 Y-31.942
X-73.964 Y-32.82
X-74.045 Y-33.703
X-74.089 Y-34.588
X-74.094 Y-35.474
X-74.056 Y-36.359
X-73.973 Y-37.148
X-73.87 Y-37.695
X-73.811 Y-37.915
X-73.702 Y-38.193
X-73.538 Y-38.441
X-73.324 Y-38.649
X-73.072 Y-38.807
X-72.792 Y-38.908
X-70.711 Y-39.416
X-70.41 Y-39.479
G3 X-69.711 Y-38.957 I0.102 J0.591
G1 X-68.101 Y-24.967
G3 X-68.747 Y-24.3 I-0.596 J0.069
G1 X-70.558 Y-24.535
X-70.673 Y-24.551
X-71.162 Y-24.632
X-71.423 Y-24.69
X-71.664 Y-24.764
X-71.921 Y-24.866
X-72.196 Y-25.001
X-72.508 Y-25.188
X-72.813 Y-25.405
X-73.166 Y-25.701
X-73.506 Y-26.037
X-73.884 Y-26.476
X-74.254 Y-26.983
X-74.637 Y-27.606
X-75.023 Y-28.366
X-75.36 Y-29.186
X-75.638 Y-30.028
X-75.863 Y-30.884
X-76.043 Y-31.752
X-76.179 Y-32.628
X-76.275 Y-33.509
X-76.33 Y-34.393
X-76.343 Y-35.279
X-76.306 Y-36.164
X-76.227 Y-36.812
X-76.152 Y-37.182
X-76.059 Y-37.471
X-75.907 Y-37.733
X-75.701 Y-37.957
X-75.452 Y-38.13
X-75.172 Y-38.246
X-73.918 Y-38.612
X-73.375 Y-38.765
X-72.792 Y-38.908
G3 X-72.074 Y-38.392 I0.122 J0.587
G1 X-70.488 Y-25.3
G3 X-71.162 Y-24.632 I-0.596 J0.072
G1 X-71.363 Y-24.666
X-72.57 Y-24.884
X-72.772 Y-24.925
X-73.375 Y-25.067
X-73.778 Y-25.168
X-74.085 Y-25.262
X-74.342 Y-25.364
X-74.597 Y-25.489
X-74.887 Y-25.662
X-75.195 Y-25.881
X-75.513 Y-26.148
X-75.859 Y-26.489
X-76.209 Y-26.894
X-76.571 Y-27.389
X-76.948 Y-28.002
X-77.322 Y-28.738
X-77.66 Y-29.557
X-77.935 Y-30.399
X-78.156 Y-31.258
X-78.327 Y-32.127
X-78.453 Y-33.004
X-78.534 Y-33.887
X-78.57 Y-34.772
X-78.551 Y-35.597
X-78.493 Y-36.162
X-78.444 Y-36.424
X-78.36 Y-36.707
X-78.219 Y-36.965
X-78.027 Y-37.189
X-77.792 Y-37.367
X-77.526 Y-37.492
X-76.796 Y-37.745
X-76.192 Y-37.948
X-75.172 Y-38.246
G3 X-74.428 Y-37.734 I0.148 J0.582
G1 X-73.056 Y-25.823
G3 X-73.778 Y-25.168 I-0.596 J0.069
G1 X-74.583 Y-25.371
X-74.784 Y-25.424
X-75.387 Y-25.626
X-75.991 Y-25.829
X-76.192 Y-25.898
X-76.595 Y-26.041
X-76.896 Y-26.165
X-77.154 Y-26.297
X-77.42 Y-26.461
X-77.704 Y-26.669
X-78.018 Y-26.941
X-78.327 Y-27.254
X-78.666 Y-27.659
X-79.003 Y-28.134
X-79.346 Y-28.712
X-79.693 Y-29.419
X-80.018 Y-30.243
X-80.278 Y-31.09
X-80.481 Y-31.953
X-80.631 Y-32.826
X-80.728 Y-33.707
X-80.764 Y-34.526
X-80.742 Y-35.148
X-80.701 Y-35.498
X-80.635 Y-35.788
X-80.51 Y-36.058
X-80.33 Y-36.295
X-80.104 Y-36.489
X-79.843 Y-36.631
X-79.412 Y-36.807
X-78.808 Y-37.047
X-77.526 Y-37.492
G3 X-76.752 Y-36.973 I0.177 J0.573
G1 X-75.816 Y-26.667
G3 X-76.595 Y-26.041 I-0.598 J0.054
G1 X-76.796 Y-26.112
X-78.003 Y-26.624
X-78.406 Y-26.794
X-78.607 Y-26.887
X-78.808 Y-26.985
X-79.157 Y-27.163
X-79.55 Y-27.363
X-79.885 Y-27.556
X-80.144 Y-27.735
X-80.405 Y-27.947
X-80.684 Y-28.215
X-80.979 Y-28.546
X-81.28 Y-28.945
X-81.586 Y-29.427
X-81.901 Y-30.023
X-82.194 Y-30.706
X-82.459 Y-31.491
X-82.671 Y-32.343
X-82.807 Y-33.162
X-82.863 Y-33.823
X-82.865 Y-34.33
X-82.851 Y-34.506
X-82.799 Y-34.792
X-82.69 Y-35.06
X-82.527 Y-35.3
X-82.319 Y-35.501
X-82.073 Y-35.655
X-81.625 Y-35.876
X-81.424 Y-35.969
X-80.821 Y-36.229
X-79.843 Y-36.631
G3 X-79.035 Y-36.093 I0.209 J0.563
G1 X-78.696 Y-27.932
G3 X-79.55 Y-27.363 I-0.599 J0.025
G1 X-80.217 Y-27.704
X-80.821 Y-28.04
X-81.039 Y-28.167
X-82.229 Y-28.88
X-82.367 Y-28.97
X-82.755 Y-29.258
X-82.984 Y-29.458
X-83.242 Y-29.723
X-83.491 Y-30.024
X-83.754 Y-30.398
X-84.001 Y-30.819
X-84.24 Y-31.313
X-84.445 Y-31.842
X-84.595 Y-32.344
X-84.697 Y-32.822
X-84.749 Y-33.225
X-84.754 Y-33.33
X-84.737 Y-33.63
X-84.655 Y-33.92
X-84.514 Y-34.185
X-84.319 Y-34.415
X-84.08 Y-34.597
G3 X-83.226 Y-34.284 I0.292 J0.524
G1 X-81.496 Y-29.696
G3 X-82.367 Y-28.97 I-0.561 J0.212
G1 X-82.969 Y-29.372
X-84.118 Y-30.176
X-84.241 Y-30.266
X-84.378 Y-30.376
X-85.046 Y-30.936
X-85.303 Y-31.174
X-85.472 Y-31.357
X-85.62 Y-31.547
X-85.765 Y-31.766
X-85.881 Y-31.977
X-85.903 Y-32.028
X-86 Y-32.33
X-86.026 Y-32.646
X-85.98 Y-32.961
X-85.864 Y-33.256
X-85.685 Y-33.518
X-85.451 Y-33.733
G3 X-84.531 Y-33.376 I0.336 J0.497
G1 X-84.094 Y-31.549
G3 X-85.046 Y-30.936 I-0.584 J0.14
G1 X-85.65 Y-31.441
X-85.798 Y-31.582
X-86.052 Y-31.836
X-86.199 Y-31.983
X-86.371 Y-32.184
X-86.419 Y-32.247
X-86.455 Y-32.309
X-86.487 Y-32.385
X-86.511 Y-32.486
X-86.519 Y-32.586
X-86.509 Y-32.687
X-86.481 Y-32.787
X-86.455 Y-32.848
X-86.413 Y-32.918
X-86.358 Y-32.988
X-86.254 Y-33.091
X-86.138 Y-33.189
X-85.646 Y-33.59
X-85.247 Y-33.88
X-85.046 Y-34.009
X-84.845 Y-34.135
X-83.638 Y-34.864
X-83.436 Y-34.973
X-83 Y-35.197
X-82.833 Y-35.282
X-82.073 Y-35.655
G3 X-81.362 Y-35.487 I0.246 J0.547
G1 X-81.303 Y-35.415 Z-6.993
X-81.245 Y-35.344 Z-6.971
X-81.19 Y-35.276 Z-6.935
X-81.139 Y-35.214 Z-6.885
X-81.094 Y-35.159 Z-6.824
X-81.056 Y-35.111 Z-6.753
X-81.024 Y-35.073 Z-6.672
X-81.002 Y-35.045 Z-6.585
X-80.988 Y-35.028 Z-6.494
X-80.983 Y-35.022 Z-6.4
Z5
X-16.656 Y31.415
Z3
Z2
Z-7 F333.3
Y31.377 F1000
X-16.62 Y31.384
X-16.602 Y31.417
X-16.611 Y31.453
X-16.641 Y31.476
X-16.678 Y31.477
X-16.712 Y31.461
X-16.738 Y31.434
X-16.752 Y31.399
X-16.753 Y31.362
X-16.739 Y31.327
X-16.716 Y31.297
X-16.685 Y31.276
X-16.614 Y31.252
X-16.54 Y31.263
X-16.478 Y31.305
X-16.435 Y31.367
X-16.417 Y31.439
X-16.423 Y31.514
X-16.451 Y31.583
X-16.546 Y31.7
X-16.686 Y31.754
X-16.835 Y31.743
X-16.968 Y31.674
X-17.067 Y31.56
X-17.121 Y31.421
X-17.127 Y31.271
X-17.09 Y31.125
X-17.013 Y30.997
X-16.905 Y30.893
X-16.773 Y30.821
X-16.628 Y30.783
X-16.478 Y30.781
X-16.332 Y30.813
X-16.196 Y30.878
X-16.077 Y30.969
X-15.98 Y31.084
X-15.909 Y31.215
X-15.862 Y31.358
X-15.842 Y31.507
X-15.85 Y31.656
X-15.884 Y31.803
X-15.942 Y31.941
X-16.023 Y32.067
X-16.123 Y32.179
X-16.239 Y32.273
X-16.369 Y32.348
X-16.509 Y32.403
X-16.655 Y32.435
X-16.805 Y32.447
X-16.955 Y32.436
X-17.101 Y32.405
X-17.242 Y32.354
X-17.375 Y32.284
X-17.497 Y32.197
X-17.607 Y32.095
X-17.703 Y31.98
X-17.784 Y31.854
X-17.849 Y31.718
X-17.897 Y31.576
X-17.927 Y31.429
X-17.94 Y31.28
X-17.936 Y31.13
X-17.914 Y30.981
X-17.876 Y30.836
X-17.822 Y30.696
X-17.754 Y30.563
X-17.671 Y30.438
X-17.575 Y30.322
X-17.468 Y30.217
X-17.35 Y30.124
X-17.224 Y30.043
X-17.09 Y29.976
X-16.95 Y29.922
X-16.805 Y29.883
X-16.657 Y29.858
X-16.508 Y29.847
X-16.358 Y29.851
X-16.209 Y29.869
X-16.062 Y29.901
X-15.919 Y29.946
X-15.781 Y30.005
X-15.649 Y30.075
X-15.523 Y30.157
X-15.405 Y30.25
X-15.296 Y30.353
X-15.196 Y30.465
X-15.106 Y30.585
X-15.027 Y30.712
X-14.959 Y30.846
X-14.902 Y30.985
X-14.857 Y31.128
X-14.823 Y31.274
X-14.802 Y31.426
X-14.793 Y31.575
X-14.796 Y31.73
X-14.811 Y31.88
X-14.84 Y32.034
X-14.879 Y32.182
X-14.933 Y32.333
X-14.996 Y32.474
X-15.075 Y32.616
X-15.161 Y32.747
X-15.264 Y32.878
X-15.372 Y32.996
X-15.495 Y33.11
X-15.624 Y33.211
X-15.765 Y33.304
X-15.913 Y33.386
X-16.067 Y33.456
X-16.23 Y33.514
X-16.394 Y33.559
X-16.568 Y33.591
X-16.741 Y33.609
X-16.919 Y33.613
X-17.099 Y33.603
X-17.274 Y33.579
X-17.454 Y33.539
X-17.628 Y33.485
X-17.798 Y33.418
X-17.967 Y33.334
X-18.126 Y33.239
X-18.28 Y33.129
X-18.428 Y33.005
X-18.563 Y32.871
X-18.689 Y32.725
X-18.805 Y32.565
X-18.907 Y32.399
X-18.996 Y32.223
X-19.072 Y32.037
X-19.133 Y31.845
X-19.179 Y31.65
X-19.209 Y31.447
X-19.223 Y31.24
X-19.22 Y31.034
X-19.201 Y30.828
X-19.164 Y30.619
X-19.111 Y30.413
X-19.041 Y30.212
X-18.955 Y30.017
X-18.852 Y29.825
X-18.733 Y29.642
X-18.599 Y29.468
X-18.452 Y29.305
X-18.29 Y29.154
X-18.114 Y29.013
X-17.926 Y28.886
X-17.729 Y28.774
X-17.522 Y28.679
X-17.307 Y28.6
X-17.084 Y28.537
X-16.854 Y28.493
X-16.619 Y28.466
X-16.382 Y28.459
X-16.144 Y28.471
X-15.906 Y28.502
X-15.671 Y28.552
X-15.438 Y28.621
X-15.21 Y28.709
X-14.989 Y28.817
X-14.774 Y28.943
X-14.57 Y29.086
X-14.376 Y29.247
X-14.194 Y29.424
X-14.026 Y29.616
X-13.873 Y29.822
X-13.736 Y30.041
X-13.616 Y30.273
X-13.515 Y30.514
X-13.433 Y30.764
X-13.371 Y31.022
X-13.33 Y31.285
X-13.309 Y31.553
X-13.311 Y31.823
X-13.334 Y32.094
X-13.379 Y32.363
X-13.446 Y32.63
X-13.534 Y32.892
X-13.644 Y33.148
X-13.775 Y33.396
X-13.927 Y33.633
X-14.098 Y33.859
X-14.287 Y34.072
X-14.495 Y34.27
X-14.719 Y34.452
X-14.958 Y34.617
X-15.211 Y34.762
X-15.477 Y34.888
X-15.754 Y34.992
X-16.039 Y35.075
X-16.333 Y35.134
X-16.632 Y35.17
X-16.934 Y35.182
X-17.238 Y35.17
X-17.543 Y35.133
X-17.845 Y35.071
X-18.142 Y34.985
X-18.434 Y34.875
X-18.717 Y34.74
X-18.99 Y34.583
X-19.251 Y34.403
X-19.499 Y34.202
X-19.73 Y33.98
X-19.944 Y33.739
X-20.139 Y33.481
X-20.314 Y33.205
X-20.467 Y32.916
X-20.597 Y32.613
X-20.703 Y32.299
X-20.783 Y31.976
X-20.838 Y31.645
X-20.866 Y31.31
X-20.867 Y30.971
X-20.841 Y30.632
X-20.788 Y30.294
X-20.707 Y29.96
X-20.599 Y29.631
X-20.464 Y29.311
X-20.303 Y29
X-20.117 Y28.702
X-19.906 Y28.419
X-19.672 Y28.152
X-19.416 Y27.903
X-19.14 Y27.675
X-18.844 Y27.468
X-18.531 Y27.285
X-18.203 Y27.126
X-17.861 Y26.994
X-17.508 Y26.889
X-17.146 Y26.813
X-16.777 Y26.765
X-16.404 Y26.747
X-16.029 Y26.759
X-15.654 Y26.802
X-15.281 Y26.875
X-14.914 Y26.978
X-14.555 Y27.111
X-14.205 Y27.273
X-13.868 Y27.463
X-13.546 Y27.681
X-13.241 Y27.925
X-12.955 Y28.195
X-12.691 Y28.487
X-12.45 Y28.802
X-12.233 Y29.136
X-12.043 Y29.489
X-11.882 Y29.857
X-11.75 Y30.239
X-11.648 Y30.632
X-11.578 Y31.033
X-11.541 Y31.441
X-11.536 Y31.853
X-11.564 Y32.265
X-11.626 Y32.676
X-11.72 Y33.082
X-11.848 Y33.481
X-12.008 Y33.871
X-12.2 Y34.248
X-12.422 Y34.61
X-12.674 Y34.955
X-12.954 Y35.28
X-13.261 Y35.583
X-13.593 Y35.862
X-13.947 Y36.114
X-14.322 Y36.338
X-14.716 Y36.532
X-15.126 Y36.694
X-15.549 Y36.824
X-15.984 Y36.92
X-16.426 Y36.98
X-16.874 Y37.005
X-17.325 Y36.994
X-17.775 Y36.947
X-18.222 Y36.864
X-18.663 Y36.744
X-19.095 Y36.588
X-19.514 Y36.398
X-19.919 Y36.174
X-20.306 Y35.916
X-20.672 Y35.628
X-21.016 Y35.309
X-21.334 Y34.963
X-21.625 Y34.59
X-21.886 Y34.194
X-22.115 Y33.776
X-22.311 Y33.34
X-22.472 Y32.887
X-22.597 Y32.421
X-22.684 Y31.945
X-22.732 Y31.461
X-22.742 Y30.973
X-22.713 Y30.484
X-22.644 Y29.996
X-22.535 Y29.514
X-22.388 Y29.04
X-22.202 Y28.578
X-21.979 Y28.13
X-21.72 Y27.7
X-21.426 Y27.29
X-21.098 Y26.904
X-20.74 Y26.543
X-20.352 Y26.212
X-19.936 Y25.911
X-19.497 Y25.644
X-19.036 Y25.412
X-18.555 Y25.217
X-18.059 Y25.06
X-17.549 Y24.944
X-17.03 Y24.868
X-16.504 Y24.834
X-15.975 Y24.843
X-15.447 Y24.894
X-14.922 Y24.988
X-14.405 Y25.124
X-13.898 Y25.301
X-13.405 Y25.52
X-12.929 Y25.779
X-12.474 Y26.076
X-12.043 Y26.41
X-11.639 Y26.778
X-11.264 Y27.18
X-10.921 Y27.612
X-10.613 Y28.072
X-10.341 Y28.556
X-10.109 Y29.063
X-9.917 Y29.589
X-9.768 Y30.13
X-9.662 Y30.684
X-9.601 Y31.246
X-9.585 Y31.814
X-9.614 Y32.383
X-9.69 Y32.949
X-9.811 Y33.51
X-9.977 Y34.062
X-10.188 Y34.6
X-10.443 Y35.121
X-10.739 Y35.623
X-11.076 Y36.1
X-11.452 Y36.551
X-11.864 Y36.971
X-12.31 Y37.359
X-12.787 Y37.71
X-13.293 Y38.024
X-13.824 Y38.296
X-14.377 Y38.526
X-14.949 Y38.712
X-15.536 Y38.851
X-16.135 Y38.943
X-16.741 Y38.987
X-17.351 Y38.983
X-17.961 Y38.929
X-18.566 Y38.826
X-19.163 Y38.674
X-19.748 Y38.474
X-20.317 Y38.227
X-20.866 Y37.934
X-21.392 Y37.597
X-21.89 Y37.218
X-22.358 Y36.798
X-22.793 Y36.341
X-23.19 Y35.848
X-23.548 Y35.324
X-23.864 Y34.771
X-24.135 Y34.192
X-24.36 Y33.591
X-24.536 Y32.973
X-24.662 Y32.34
X-24.738 Y31.697
X-24.761 Y31.048
X-24.733 Y30.397
X-24.652 Y29.748
X-24.518 Y29.106
X-24.333 Y28.474
X-24.098 Y27.858
X-23.812 Y27.26
X-23.479 Y26.685
X-23.099 Y26.138
X-22.675 Y25.621
X-22.209 Y25.137
X-21.705 Y24.692
X-21.165 Y24.287
X-20.592 Y23.926
X-19.99 Y23.61
X-19.363 Y23.344
X-18.714 Y23.127
X-18.048 Y22.963
X-17.369 Y22.853
X-16.681 Y22.797
X-15.988
X-15.296 Y22.852
X-14.608 Y22.964
X-13.929 Y23.13
X-13.263 Y23.351
X-12.616 Y23.626
X-11.991 Y23.953
X-11.392 Y24.33
X-10.824 Y24.755
X-10.29 Y25.226
X-9.794 Y25.74
X-9.34 Y26.293
X-8.93 Y26.883
X-8.568 Y27.506
X-8.256 Y28.157
X-7.997 Y28.834
X-7.792 Y29.531
X-7.643 Y30.245
X-7.552 Y30.97
X-7.519 Y31.702
X-7.546 Y32.437
X-7.631 Y33.169
X-7.775 Y33.895
X-7.978 Y34.608
X-8.238 Y35.305
X-8.554 Y35.981
X-8.924 Y36.632
X-9.347 Y37.252
X-9.819 Y37.838
X-10.339 Y38.386
X-10.902 Y38.892
X-11.506 Y39.352
X-12.147 Y39.764
X-12.82 Y40.124
X-13.523 Y40.429
X-14.25 Y40.678
X-14.996 Y40.869
X-15.758 Y40.999
X-16.53 Y41.068
X-17.307 Y41.074
X-18.084 Y41.018
X-18.856 Y40.9
X-19.619 Y40.72
X-20.366 Y40.478
X-21.094 Y40.176
X-21.798 Y39.816
X-22.472 Y39.399
X-23.112 Y38.928
X-23.714 Y38.406
X-24.273 Y37.836
X-24.787 Y37.221
X-25.25 Y36.565
X-25.661 Y35.872
X-26.016 Y35.147
X-26.312 Y34.393
X-26.547 Y33.616
X-26.72 Y32.82
X-26.828 Y32.011
X-26.871 Y31.193
X-26.849 Y30.373
X-26.76 Y29.554
X-26.606 Y28.744
X-26.386 Y27.946
X-26.103 Y27.166
X-25.757 Y26.41
X-25.35 Y25.682
X-24.885 Y24.987
X-24.364 Y24.33
X-23.791 Y23.715
X-23.168 Y23.146
X-22.5 Y22.628
X-21.791 Y22.165
X-21.045 Y21.758
X-20.267 Y21.412
X-19.461 Y21.128
X-18.633 Y20.91
X-18.525 Y20.891
X-18.457 Y20.88
X-18.389 Y20.873
X-18.321 Y20.869
X-17.636 Y20.849
X-16.227 Y20.813
X-15.341 Y20.836
X-14.611 Y20.899
X-13.853 Y21.026
X-13.081 Y21.22
X-12.308 Y21.482
X-11.543 Y21.812
X-10.797 Y22.208
X-10.076 Y22.668
X-9.387 Y23.189
X-8.738 Y23.769
X-8.133 Y24.402
X-7.579 Y25.086
X-7.078 Y25.815
X-6.638 Y26.584
X-6.26 Y27.386
X-5.947 Y28.215
X-5.7 Y29.066
X-5.522 Y29.934
X-5.413 Y30.813
X-5.374 Y31.698
X-5.404 Y32.584
X-5.503 Y33.465
X-5.671 Y34.335
X-5.906 Y35.189
X-6.207 Y36.022
X-6.573 Y36.83
X-6.999 Y37.606
X-7.485 Y38.347
X-8.026 Y39.049
X-8.62 Y39.707
X-9.262 Y40.317
X-9.949 Y40.877
X-10.677 Y41.383
X-11.14 Y41.655
X-11.349 Y41.756
X-11.572 Y41.82
X-11.803 Y41.847
X-16.227 Y41.995
X-16.428 Y42
X-19.849 Y42.067
X-20.466 Y42.048
X-20.926 Y41.996
X-21.429 Y41.899
X-21.993 Y41.742
X-22.556 Y41.536
X-23.17 Y41.252
X-23.816 Y40.889
X-24.462 Y40.453
X-25.086 Y39.955
X-25.704 Y39.376
X-26.297 Y38.722
X-26.838 Y38.02
X-27.323 Y37.278
X-27.75 Y36.501
X-28.118 Y35.695
X-28.426 Y34.864
X-28.673 Y34.013
X-28.857 Y33.147
X-28.977 Y32.269
X-29.032 Y31.384
X-29.023 Y30.498
X-28.95 Y29.615
X-28.815 Y28.739
X-28.619 Y27.875
X-28.363 Y27.027
X-28.048 Y26.199
X-27.674 Y25.395
X-27.243 Y24.621
X-26.758 Y23.879
X-26.222 Y23.173
X-25.639 Y22.507
X-25.01 Y21.882
X-24.444 Y21.392
X-24.185 Y21.215
X-23.894 Y21.099
X-23.584 Y21.052
X-21.66 Y20.974
X-21.057 Y20.953
X-18.321 Y20.869
G3 X-18.066 Y20.918 I0.018 J0.6
G1 X-17.997 Y20.942
X-17.926 Y20.958
X-17.553 Y21.02
X-17.205 Y21.077
G2 X-16.788 Y20.993 I0.097 J-0.592
G3 X-16.227 Y20.813 I0.632 J1.005
G1 X-14.014 Y20.759
X-13.611 Y20.75
X-11.398 Y20.708
X-11.022 Y20.72
X-10.663 Y20.76
X-10.274 Y20.836
X-9.844 Y20.955
X-9.374 Y21.129
X-8.862 Y21.365
X-8.336 Y21.661
X-7.756 Y22.052
X-7.177 Y22.515
X-6.605 Y23.053
X-6.028 Y23.689
X-5.488 Y24.391
X-5.003 Y25.133
X-4.574 Y25.909
X-4.201 Y26.713
X-3.888 Y27.541
X-3.633 Y28.39
X-3.437 Y29.254
X-3.298 Y30.129
X-3.217 Y31.012
X-3.194 Y31.898
X-3.231 Y32.783
X-3.327 Y33.664
X-3.482 Y34.536
X-3.693 Y35.397
X-3.959 Y36.242
X-4.278 Y37.069
X-4.651 Y37.872
X-5.078 Y38.649
X-5.554 Y39.396
X-6.078 Y40.111
X-6.646 Y40.792
X-7.099 Y41.27
X-7.301 Y41.446
X-7.533 Y41.58
X-7.786 Y41.667
X-8.051 Y41.705
X-8.983 Y41.748
X-9.587 Y41.773
X-11.803 Y41.847
G3 X-12.058 Y41.799 I-0.02 J-0.6
G1 X-12.134 Y41.773
X-12.212 Y41.757
X-12.292 Y41.751
X-12.575
X-18.782 Y41.74
G2 X-19.1 Y41.831 I-0.001 J0.6
G3 X-19.849 Y42.067 I-0.835 J-1.344
G1 X-22.666 Y42.121
X-23.069 Y42.128
X-23.471 Y42.13
X-23.914 Y42.111
X-24.225 Y42.072
X-24.568 Y42.001
X-24.962 Y41.885
X-25.364 Y41.731
X-25.831 Y41.509
X-26.3 Y41.236
X-26.813 Y40.881
X-27.361 Y40.431
X-27.89 Y39.921
X-28.434 Y39.306
X-28.966 Y38.596
X-29.439 Y37.848
X-29.857 Y37.066
X-30.22 Y36.258
X-30.528 Y35.427
X-30.779 Y34.577
X-30.973 Y33.712
X-31.112 Y32.837
X-31.197 Y31.955
X-31.227 Y31.07
X-31.204 Y30.184
X-31.126 Y29.301
X-30.993 Y28.425
X-30.807 Y27.558
X-30.569 Y26.705
X-30.281 Y25.867
X-29.944 Y25.048
X-29.558 Y24.25
X-29.123 Y23.478
X-28.642 Y22.734
X-28.116 Y22.02
X-27.839 Y21.686
X-27.629 Y21.482
X-27.382 Y21.326
X-27.108 Y21.224
X-26.819 Y21.182
X-23.584 Y21.052
G3 X-23.002 Y21.493 I0.003 J0.6
G1 X-22.977 Y21.584 Z-6.993
X-22.953 Y21.672 Z-6.971
X-22.93 Y21.756 Z-6.935
X-22.909 Y21.833 Z-6.885
X-22.89 Y21.903 Z-6.824
X-22.874 Y21.962 Z-6.753
X-22.861 Y22.009 Z-6.672
X-22.851 Y22.044 Z-6.585
X-22.846 Y22.065 Z-6.494
X-22.844 Y22.072 Z-6.4
Z-5.8
X-12.657 Y21.26
Z-6.4
X-12.651 Y21.256 Z-6.494
X-12.632 Y21.244 Z-6.585
X-12.601 Y21.225 Z-6.672
X-12.559 Y21.2 Z-6.753
X-12.508 Y21.167 Z-6.824
X-12.447 Y21.13 Z-6.885
X-12.378 Y21.087 Z-6.935
X-12.305 Y21.041 Z-6.971
X-12.227 Y20.993 Z-6.993
X-12.147 Y20.944 Z-7
G3 X-11.398 Y20.708 I0.834 J1.345
G1 X-10.19 Y20.686
X-8.379 Y20.661
X-8.014 Y20.674
X-7.733 Y20.707
X-7.408 Y20.772
X-7.077 Y20.867
X-6.683 Y21.014
X-6.289 Y21.198
X-5.831 Y21.46
X-5.381 Y21.767
X-4.877 Y22.174
X-4.359 Y22.667
X-3.848 Y23.237
X-3.329 Y23.918
X-2.851 Y24.664
X-2.43 Y25.444
X-2.066 Y26.252
X-1.755 Y27.081
X-1.497 Y27.929
X-1.293 Y28.792
X-1.142 Y29.665
X-1.043 Y30.545
X-0.995 Y31.43
X-0.999 Y32.316
X-1.052 Y33.201
X-1.155 Y34.081
X-1.31 Y34.953
X-1.514 Y35.816
X-1.766 Y36.665
X-2.066 Y37.499
X-2.412 Y38.315
X-2.803 Y39.11
X-3.237 Y39.883
X-3.715 Y40.629
X-3.974 Y40.988
X-4.186 Y41.221
X-4.443 Y41.4
X-4.735 Y41.517
X-5.045 Y41.567
X-8.051 Y41.705
G3 X-8.635 Y41.267 I-0.007 J-0.6
G1 X-8.661 Y41.177 Z-6.993
X-8.685 Y41.088 Z-6.971
X-8.709 Y41.005 Z-6.935
X-8.73 Y40.927 Z-6.885
X-8.75 Y40.858 Z-6.824
X-8.766 Y40.799 Z-6.753
X-8.779 Y40.752 Z-6.672
X-8.789 Y40.717 Z-6.585
X-8.795 Y40.696 Z-6.494
X-8.797 Y40.689 Z-6.4
Z-5.8
X-22.205 Y41.594
Z-6.4
X-22.212 Y41.598 Z-6.494
X-22.23 Y41.61 Z-6.585
X-22.261 Y41.628 Z-6.672
X-22.303 Y41.654 Z-6.753
X-22.356 Y41.685 Z-6.824
X-22.417 Y41.722 Z-6.885
X-22.486 Y41.764 Z-6.935
X-22.56 Y41.809 Z-6.971
X-22.639 Y41.856 Z-6.993
X-22.719 Y41.904 Z-7
G3 X-23.471 Y42.13 I-0.817 J-1.355
G1 X-26.49 Y42.149
X-26.68 Y42.14
X-26.957 Y42.106
X-27.249 Y42.045
X-27.574 Y41.95
X-27.939 Y41.81
X-28.314 Y41.631
X-28.744 Y41.382
X-29.174 Y41.084
X-29.644 Y40.698
X-30.143 Y40.217
X-30.63 Y39.665
X-31.131 Y38.997
X-31.604 Y38.247
X-32.018 Y37.464
X-32.376 Y36.653
X-32.68 Y35.821
X-32.933 Y34.972
X-33.133 Y34.109
X-33.283 Y33.235
X-33.383 Y32.355
X-33.434 Y31.47
X-33.437 Y30.584
X-33.392 Y29.699
X-33.301 Y28.818
X-33.163 Y27.942
X-32.978 Y27.076
X-32.747 Y26.22
X-32.471 Y25.378
X-32.151 Y24.552
X-31.789 Y23.743
X-31.385 Y22.954
X-30.94 Y22.188
X-30.762 Y21.921
X-30.597 Y21.718
X-30.397 Y21.55
X-30.17 Y21.422
X-29.923 Y21.338
X-29.665 Y21.301
X-29.106 Y21.275
X-26.819 Y21.182
G3 X-26.237 Y21.624 I0.003 J0.6
G1 X-26.212 Y21.714 Z-6.993
X-26.188 Y21.803 Z-6.971
X-26.165 Y21.887 Z-6.935
X-26.144 Y21.964 Z-6.885
X-26.125 Y22.033 Z-6.824
X-26.109 Y22.092 Z-6.753
X-26.096 Y22.139 Z-6.672
X-26.086 Y22.174 Z-6.585
X-26.08 Y22.195 Z-6.494
X-26.078 Y22.203 Z-6.4
Z-5.8
X-9.641 Y21.206
Z-6.4
X-9.635 Y21.202 Z-6.494
X-9.616 Y21.191 Z-6.585
X-9.586 Y21.172 Z-6.672
X-9.544 Y21.146 Z-6.753
X-9.492 Y21.114 Z-6.824
X-9.431 Y21.077 Z-6.885
X-9.362 Y21.035 Z-6.935
X-9.288 Y20.989 Z-6.971
X-9.21 Y20.941 Z-6.993
X-9.13 Y20.892 Z-7
G3 X-8.379 Y20.661 I0.827 J1.349
G1 X-6.971 Y20.642
X-6.166 Y20.635
X-5.562 Y20.631
X-5.371 Y20.639
X-5.109 Y20.672
X-4.831 Y20.73
X-4.503 Y20.826
X-4.176 Y20.951
X-3.793 Y21.134
X-3.406 Y21.359
X-2.968 Y21.662
X-2.536 Y22.017
X-2.059 Y22.476
X-1.574 Y23.025
X-1.096 Y23.663
X-0.623 Y24.413
X-0.211 Y25.197
X0.145 Y26.009
X0.448 Y26.842
X0.699 Y27.691
X0.901 Y28.554
X1.055 Y29.427
X1.161 Y30.306
X1.22 Y31.191
X1.232 Y32.077
X1.199 Y32.962
X1.121 Y33.845
X0.999 Y34.723
X0.834 Y35.593
X0.626 Y36.455
X0.375 Y37.304
X0.081 Y38.14
X-0.253 Y38.961
X-0.628 Y39.764
X-1.042 Y40.548
X-1.187 Y40.781
X-1.35 Y40.995
X-1.552 Y41.174
X-1.783 Y41.311
X-2.037 Y41.401
X-2.303 Y41.441
X-5.045 Y41.567
G3 X-5.651 Y40.982 I-0.007 J-0.6
G1 X-6.137 Y21.245
G3 X-5.562 Y20.631 I0.6 J-0.015
G1 X-3.148 Y20.616
X-2.888 Y20.628
X-2.655 Y20.657
X-2.382 Y20.713
X-2.085 Y20.8
X-1.769 Y20.921
X-1.41 Y21.093
X-1.051 Y21.301
X-0.637 Y21.588
X-0.231 Y21.921
X0.212 Y22.348
X0.676 Y22.873
X1.128 Y23.477
X1.59 Y24.209
X2.001 Y24.994
X2.355 Y25.807
X2.655 Y26.64
X2.905 Y27.49
X3.108 Y28.353
X3.265 Y29.225
X3.377 Y30.104
X3.445 Y30.988
X3.47 Y31.873
X3.453 Y32.759
X3.396 Y33.644
X3.299 Y34.525
X3.162 Y35.4
X2.987 Y36.269
X2.774 Y37.129
X2.522 Y37.978
X2.232 Y38.816
X1.906 Y39.639
X1.577 Y40.358
X1.454 Y40.577
X1.294 Y40.807
X1.09 Y41
X0.852 Y41.149
X0.59 Y41.247
X0.312 Y41.291
X-2.23 Y41.437
X-2.303 Y41.441
G3 X-2.913 Y40.865 I-0.01 J-0.6
G1 X-3.722 Y21.241
G3 X-3.148 Y20.616 I0.599 J-0.025
G1 X-0.733 Y20.602
X-0.515 Y20.611
X-0.286 Y20.64
X-0.014 Y20.696
X0.261 Y20.777
X0.577 Y20.898
X0.908 Y21.056
X1.268 Y21.265
X1.654 Y21.532
X2.057 Y21.863
X2.477 Y22.267
X2.927 Y22.777
X3.369 Y23.367
X3.817 Y24.077
X4.228 Y24.862
X4.58 Y25.675
X4.879 Y26.51
X5.128 Y27.36
X5.331 Y28.223
X5.489 Y29.095
X5.605 Y29.973
X5.68 Y30.856
X5.714 Y31.742
X5.71 Y32.628
X5.667 Y33.513
X5.588 Y34.395
X5.473 Y35.274
X5.322 Y36.147
X5.136 Y37.014
X4.916 Y37.872
X4.661 Y38.721
X4.37 Y39.558
X4.104 Y40.183
X3.991 Y40.399
X3.832 Y40.639
X3.627 Y40.841
X3.385 Y40.998
X3.116 Y41.101
X2.831 Y41.147
X0.312 Y41.291
G3 X-0.3 Y40.722 I-0.013 J-0.6
G1 X-1.307 Y21.232
G3 X-0.733 Y20.602 I0.599 J-0.031
G1 X-0.129 Y20.598
X0.475 Y20.597
X1.682 Y20.599
X1.838 Y20.608
X1.988 Y20.617
X2.137 Y20.634
X2.285 Y20.659
X2.432 Y20.69
X2.577 Y20.729
X2.72 Y20.773
X2.861 Y20.824
X3.001 Y20.879
X3.138 Y20.939
X3.273 Y21.005
X3.406 Y21.075
X3.536 Y21.148
X3.665 Y21.226
X3.791 Y21.307
X3.915 Y21.392
X4.036 Y21.48
X4.155 Y21.571
X4.272 Y21.665
X4.387 Y21.762
X4.499 Y21.861
X4.609 Y21.963
X4.717 Y22.067
X4.823 Y22.174
X4.926 Y22.282
X5.028 Y22.393
X5.127 Y22.505
X5.224 Y22.619
X5.319 Y22.735
X5.412 Y22.853
X5.503 Y22.972
X5.592 Y23.093
X5.679 Y23.215
X5.764 Y23.339
X5.848 Y23.464
X5.929 Y23.59
X6.008 Y23.717
X6.086 Y23.845
X6.162 Y23.975
X6.236 Y24.105
X6.308 Y24.237
X6.379 Y24.369
X6.448 Y24.502
X6.515 Y24.636
X6.58 Y24.771
X6.644 Y24.907
X6.707 Y25.043
X6.768 Y25.18
X6.827 Y25.318
X6.885 Y25.457
X6.941 Y25.596
X6.995 Y25.735
X7.048 Y25.876
X7.1 Y26.016
X7.151 Y26.158
X7.199 Y26.3
X7.247 Y26.442
X7.293 Y26.585
X7.337 Y26.728
X7.381 Y26.872
X7.423 Y27.016
X7.463 Y27.16
X7.503 Y27.305
X7.54 Y27.45
X7.577 Y27.595
X7.612 Y27.741
X7.647 Y27.887
X7.68 Y28.033
X7.711 Y28.18
X7.742 Y28.327
X7.771 Y28.474
X7.799 Y28.621
X7.826 Y28.771
X7.851 Y28.919
X7.876 Y29.067
X7.899 Y29.215
X7.921 Y29.363
X7.941 Y29.512
X7.962 Y29.667
X7.981 Y29.821
X7.998 Y29.97
X8.015 Y30.119
X8.03 Y30.269
X8.044 Y30.42
X8.057 Y30.58
X8.07 Y30.748
X8.081 Y30.898
X8.09 Y31.048
X8.098 Y31.198
X8.106 Y31.353
X8.112 Y31.518
X8.118 Y31.694
X8.122 Y31.848
X8.125 Y31.998
X8.126 Y32.149
X8.127 Y32.309
X8.126 Y32.479
X8.124 Y32.66
X8.12 Y32.822
X8.116 Y32.972
X8.111 Y33.128
X8.104 Y33.292
X8.096 Y33.467
X8.085 Y33.653
X8.075 Y33.816
X8.064 Y33.968
X8.052 Y34.127
X8.037 Y34.297
X8.021 Y34.476
X8.001 Y34.667
X7.984 Y34.825
X7.967 Y34.98
X7.946 Y35.144
X7.924 Y35.318
X7.898 Y35.503
X7.871 Y35.692
X7.848 Y35.845
X7.822 Y36.004
X7.794 Y36.172
X7.763 Y36.351
X7.728 Y36.542
X7.694 Y36.717
X7.665 Y36.868
X7.632 Y37.026
X7.596 Y37.194
X7.557 Y37.373
X7.513 Y37.563
X7.476 Y37.721
X7.44 Y37.867
X7.404 Y38.012
X7.366 Y38.157
X7.326 Y38.306
X7.284 Y38.456
X7.243 Y38.6
X7.2 Y38.744
X7.156 Y38.887
X7.111 Y39.03
X7.064 Y39.173
X7.015 Y39.315
X6.964 Y39.456
X6.911 Y39.596
X6.856 Y39.736
X6.799 Y39.874
X6.739 Y40.012
X6.676 Y40.148
X6.649 Y40.205
X6.493 Y40.454
X6.289 Y40.665
X6.046 Y40.829
X5.774 Y40.938
X5.484 Y40.989
X5.103 Y41.014
X4.298 Y41.063
X2.831 Y41.147
G3 X2.219 Y40.582 I-0.013 J-0.6
G1 X1.103 Y21.234
G3 X1.682 Y20.599 I0.599 J-0.035
G1 X4.097 Y20.605
X4.284 Y20.614
X4.513 Y20.645
X4.764 Y20.699
X5.039 Y20.782
X5.338 Y20.9
X5.736 Y21.094
X6.164 Y21.21
X7.05 Y21.245
X7.913 Y21.044
X8.744 Y20.738
X8.765 Y20.73
X8.937 Y20.674
X9.114 Y20.641
X9.295 Y20.63
G3 X9.266 Y21.83 I-0.026 J0.599
G1 X4.113 Y21.804
G3 X4.097 Y20.605 I0.003 J-0.6
G1 X6.511 Y20.61
X7.316 Y20.615
X13.353 Y20.663
X13.755 Y20.666
X13.905 Y20.675
X14.109 Y20.705
X14.352 Y20.761
X14.554 Y20.825
X14.736 Y20.899
X14.948 Y21.006
X15.193 Y21.155
X15.346 Y21.266
X15.517 Y21.413
X15.71 Y21.607
X15.877 Y21.805
X16.003 Y21.979
X16.137 Y22.202
X16.277 Y22.484
X16.353 Y22.674
X16.426 Y22.911
X16.492 Y23.203
X16.528 Y23.46
X16.542 Y23.695
X16.536 Y23.98
X16.505 Y24.283
X16.464 Y24.504
X16.394 Y24.766
X16.284 Y25.076
X16.19 Y25.283
X16.066 Y25.51
X15.894 Y25.771
X15.728 Y25.983
X15.561 Y26.164
X15.342 Y26.366
X15.103 Y26.555
X14.907 Y26.684
X14.66 Y26.821
X14.353 Y26.96
X14.143 Y27.036
X13.882 Y27.106
X13.447 Y27.187
X13.027 Y27.329
X12.302 Y27.838
X11.782 Y28.556
X11.416 Y29.363
X11.156 Y30.21
X10.965 Y31.075
X10.817 Y31.949
X10.69 Y32.826
X10.569 Y33.703
X10.444 Y34.581
X10.306 Y35.456
X10.152 Y36.329
X9.975 Y37.197
X9.772 Y38.06
X9.533 Y38.913
X9.296 Y39.596
X9.123 Y39.99
X8.97 Y40.253
X8.765 Y40.478
X8.516 Y40.652
X8.235 Y40.769
X7.936 Y40.823
X5.484 Y40.989
G3 X4.891 Y40.563 I-0.02 J-0.6
G1 X4.863 Y40.473 Z-6.993
X4.837 Y40.386 Z-6.971
X4.812 Y40.303 Z-6.935
X4.788 Y40.226 Z-6.885
X4.767 Y40.157 Z-6.824
X4.75 Y40.099 Z-6.753
X4.735 Y40.052 Z-6.672
X4.725 Y40.017 Z-6.585
X4.719 Y39.996 Z-6.494
X4.716 Y39.989 Z-6.4
Z-5.8
X12.67 Y21.129
Z-6.4
X12.676 Y21.125 Z-6.494
X12.695 Y21.114 Z-6.585
X12.727 Y21.096 Z-6.672
X12.769 Y21.071 Z-6.753
X12.822 Y21.04 Z-6.824
X12.884 Y21.004 Z-6.885
X12.953 Y20.964 Z-6.935
X13.028 Y20.92 Z-6.971
X13.108 Y20.874 Z-6.993
X13.189 Y20.827 Z-7
G3 X13.755 Y20.666 I0.597 J1.026
G1 X15.476 Y20.685
X15.627 Y20.694
X15.776 Y20.715
X15.929 Y20.75
X16.1 Y20.803
X16.273 Y20.872
X16.446 Y20.959
X16.625 Y21.067
X16.809 Y21.199
X16.987 Y21.35
X17.163 Y21.525
X17.332 Y21.723
X17.492 Y21.944
X17.638 Y22.185
X17.772 Y22.451
X17.887 Y22.734
X17.982 Y23.037
X18.056 Y23.36
X18.105 Y23.695
X18.126 Y24.036
X18.121 Y24.385
X18.086 Y24.746
X18.021 Y25.109
X17.926 Y25.469
X17.8 Y25.828
X17.641 Y26.185
X17.455 Y26.526
X17.24 Y26.855
X16.993 Y27.174
X16.722 Y27.472
X16.428 Y27.746
X15.734 Y28.296
X15.114 Y28.93
X14.603 Y29.653
X14.19 Y30.437
X13.856 Y31.258
X13.584 Y32.101
X13.354 Y32.957
X13.151 Y33.819
X12.962 Y34.685
X12.778 Y35.552
X12.589 Y36.418
X12.388 Y37.281
X12.167 Y38.139
X11.913 Y38.988
X11.692 Y39.578
X11.563 Y39.854
X11.408 Y40.108
X11.204 Y40.324
X10.958 Y40.492
X10.683 Y40.605
X10.39 Y40.656
X7.936 Y40.823
G3 X7.359 Y40 I-0.02 J-0.6
G1 X14.901 Y21.141
X14.933 Y21.062
G3 X15.476 Y20.685 I0.557 J0.223
G1 X16.975 Y20.701
X17.149 Y20.711
X17.299 Y20.722
X17.447 Y20.744
X17.593 Y20.779
X17.736 Y20.824
X17.875 Y20.879
X18.011 Y20.943
X18.143 Y21.014
X18.271 Y21.093
X18.394 Y21.179
X18.513 Y21.271
X18.626 Y21.368
X18.736 Y21.471
X18.84 Y21.579
X18.94 Y21.691
X19.034 Y21.807
X19.124 Y21.927
X19.209 Y22.051
X19.289 Y22.178
X19.364 Y22.308
X19.435 Y22.44
X19.5 Y22.575
X19.561 Y22.712
X19.617 Y22.851
X19.669 Y22.992
X19.715 Y23.135
X19.757 Y23.279
X19.795 Y23.424
X19.828 Y23.57
X19.856 Y23.717
X19.88 Y23.866
X19.9 Y24.014
X19.915 Y24.163
X19.926 Y24.313
X19.933 Y24.463
X19.936 Y24.613
X19.934 Y24.763
X19.929 Y24.913
X19.919 Y25.062
X19.905 Y25.212
X19.888 Y25.361
X19.866 Y25.509
X19.841 Y25.657
X19.812 Y25.804
X19.779 Y25.951
X19.743 Y26.096
X19.703 Y26.241
X19.659 Y26.384
X19.612 Y26.527
X19.562 Y26.668
X19.508 Y26.808
X19.451 Y26.947
X19.39 Y27.084
X19.326 Y27.22
X19.259 Y27.354
X19.189 Y27.486
X19.116 Y27.617
X19.04 Y27.747
X18.961 Y27.874
X18.881 Y28.001
X18.799 Y28.126
X18.55 Y28.5
X18.053 Y29.233
X17.585 Y29.986
X17.165 Y30.766
X16.797 Y31.572
X16.476 Y32.398
X16.193 Y33.238
X15.939 Y34.087
X15.704 Y34.941
X15.479 Y35.798
X15.368 Y36.227
X15.199 Y36.867
X15.117 Y37.167
X15.05 Y37.408
X14.974 Y37.672
X14.917 Y37.865
X14.874 Y38.008
X14.828 Y38.157
X14.782 Y38.3
X14.735 Y38.442
X14.687 Y38.584
X14.637 Y38.726
X14.586 Y38.867
X14.533 Y39.007
X14.478 Y39.147
X14.421 Y39.285
X14.361 Y39.423
X14.299 Y39.559
X14.246 Y39.67
X14.093 Y39.919
X13.892 Y40.131
X13.65 Y40.296
X13.38 Y40.408
X13.092 Y40.461
X11.944 Y40.55
X11.743 Y40.564
X10.39 Y40.656
G3 X9.804 Y39.857 I-0.02 J-0.6
G1 X16.403 Y21.158
X16.424 Y21.101
G3 X16.975 Y20.701 I0.566 J0.2
G1 X18.695 Y20.719
X18.845 Y20.728
X18.995 Y20.741
X19.143 Y20.766
X19.288 Y20.802
X19.431 Y20.848
X19.57 Y20.903
X19.707 Y20.967
X19.839 Y21.037
X19.967 Y21.115
X20.091 Y21.199
X20.211 Y21.289
X20.327 Y21.385
X20.438 Y21.485
X20.545 Y21.591
X20.647 Y21.7
X20.746 Y21.814
X20.839 Y21.931
X21.397 Y22.619
X22.125 Y23.124
X22.933 Y23.489
X23.779 Y23.751
X24.646 Y23.937
X25.522 Y24.069
X26.403 Y24.162
X27.287 Y24.228
X28.172 Y24.274
X29.057 Y24.307
X29.943 Y24.33
X30.829 Y24.346
X31.715 Y24.357
X32.601 Y24.365
X33.487 Y24.371
X34.374 Y24.375
X36.146 Y24.379
X39.247 Y24.383
X39.535
X39.679 Y24.424
X39.812 Y24.493
X39.937 Y24.576
X40.054 Y24.67
X40.164 Y24.772
X40.268 Y24.88
X40.366 Y24.994
X40.458 Y25.112
X40.545 Y25.234
X40.628 Y25.359
X40.706 Y25.487
X40.779 Y25.618
X40.849 Y25.751
X40.915 Y25.886
X40.977 Y26.022
X41.036 Y26.16
X41.092 Y26.299
X41.145 Y26.44
X41.195 Y26.581
X41.242 Y26.723
X41.287 Y26.867
X41.33 Y27.01
X41.37 Y27.155
X41.408 Y27.3
X41.445 Y27.445
X41.479 Y27.591
X41.511 Y27.738
X41.542 Y27.885
X41.572 Y28.032
X41.599 Y28.179
X41.626 Y28.327
X41.651 Y28.475
X41.674 Y28.623
X41.697 Y28.771
X41.729 Y28.998
X41.739 Y29.072
X41.688 Y29.213
X41.615 Y29.344
X41.528 Y29.467
X41.433 Y29.582
X41.329 Y29.691
X41.219 Y29.793
X41.104 Y29.89
X40.985 Y29.981
X40.862 Y30.066
X40.736 Y30.148
X40.607 Y30.224
X40.476 Y30.297
X40.343 Y30.366
X40.207 Y30.431
X40.07 Y30.492
X39.932 Y30.55
X39.793 Y30.605
X39.652 Y30.657
X39.51 Y30.707
X39.368 Y30.754
X39.225 Y30.798
X39.081 Y30.84
X38.936 Y30.88
X38.791 Y30.918
X38.645 Y30.953
X38.499 Y30.987
X38.353 Y31.019
X38.206 Y31.05
X38.058 Y31.079
X37.911 Y31.106
X37.763 Y31.132
X37.615 Y31.157
X37.467 Y31.18
X37.319 Y31.202
X37.169 Y31.224
X37.01 Y31.245
X36.842 Y31.266
X36.663 Y31.288
X36.472 Y31.309
X36.266 Y31.33
X36.045 Y31.352
X35.805 Y31.373
X35.543 Y31.395
X35.255 Y31.417
X34.935 Y31.438
X34.575 Y31.46
X34.164 Y31.481
X33.686 Y31.503
X33.115 Y31.525
X32.407 Y31.547
X31.521 Y31.567
X30.635 Y31.582
X29.749 Y31.592
X28.863 Y31.599
X27.977 Y31.604
X27.091 Y31.608
X25.47 Y31.612
X25.325 Y31.571
X25.191 Y31.503
X25.066 Y31.42
X24.949 Y31.327
X24.839 Y31.225
X24.735 Y31.117
X24.637 Y31.003
X24.544 Y30.885
X24.457 Y30.763
X24.374 Y30.638
X24.296 Y30.51
X24.223 Y30.379
X24.153 Y30.247
X24.087 Y30.112
X24.025 Y29.975
X23.937 Y29.772
X23.819 Y29.584
X23.673 Y29.418
X23.502 Y29.277
X23.311 Y29.165
X23.105 Y29.084
X22.889 Y29.036
X22.667 Y29.024
X22.447 Y29.046
X22.233 Y29.103
X22.03 Y29.193
X21.288 Y29.676
X20.747 Y30.378
X20.26 Y31.118
X19.77 Y31.857
X19.343 Y32.633
X18.97 Y33.437
X18.638 Y34.258
X18.338 Y35.092
X18.058 Y35.933
X17.788 Y36.777
X17.515 Y37.62
X17.226 Y38.458
X16.938 Y39.183
X16.788 Y39.486
X16.634 Y39.731
X16.433 Y39.939
X16.193 Y40.101
X15.926 Y40.21
X15.642 Y40.262
X13.092 Y40.461
G3 X12.493 Y39.687 I-0.026 J-0.599
G1 X18.126 Y21.178
X18.136 Y21.144
G3 X18.695 Y20.719 I0.574 J0.175
G1 X20.396 Y20.737
X20.789 Y20.762
X21.667 Y20.886
X22.536 Y21.06
X23.405 Y21.23
X24.278 Y21.383
X25.155 Y21.512
X26.035 Y21.618
X26.917 Y21.703
X27.8 Y21.77
X28.685 Y21.823
X29.57 Y21.863
X30.456 Y21.893
X31.341 Y21.916
X32.227 Y21.934
X33.113 Y21.947
X33.999 Y21.957
X34.886 Y21.964
X35.772 Y21.969
X37.544 Y21.976
X38.176 Y22.012
X38.669 Y22.08
X39.098 Y22.174
X39.498 Y22.297
X39.876 Y22.447
X40.243 Y22.627
X40.6 Y22.841
X40.951 Y23.091
X41.299 Y23.383
X41.641 Y23.721
X41.981 Y24.116
X42.318 Y24.577
X42.652 Y25.121
X42.982 Y25.771
X43.272 Y26.477
X43.425 Y26.954
X43.512 Y27.327
X43.564 Y27.678
X43.586 Y28
X43.583 Y28.31
X43.554 Y28.614
X43.502 Y28.915
X43.424 Y29.217
X43.32 Y29.518
X43.186 Y29.823
X43.021 Y30.128
X42.821 Y30.437
X42.582 Y30.749
X42.299 Y31.062
X41.963 Y31.379
X41.566 Y31.697
X41.094 Y32.016
X40.53 Y32.334
X39.846 Y32.652
X39.014 Y32.959
X38.162 Y33.2
X37.296 Y33.389
X36.422 Y33.536
X35.543 Y33.65
X34.662 Y33.738
X33.778 Y33.806
X32.893 Y33.858
X32.008 Y33.898
X31.123 Y33.928
X30.237 Y33.951
X29.351 Y33.968
X28.465 Y33.98
X27.579 Y33.99
X26.919 Y33.967
X26.423 Y33.91
X25.987 Y33.824
X25.59 Y33.712
X25.175 Y33.558
X24.737 Y33.491
X23.854 Y33.566
X23.049 Y33.937
X22.355 Y34.488
X21.764 Y35.148
X21.258 Y35.875
X20.815 Y36.643
X20.415 Y37.434
X20.037 Y38.235
X19.649 Y39.032
X19.473 Y39.344
X19.316 Y39.567
X19.118 Y39.756
X18.887 Y39.903
X18.633 Y40.002
X18.364 Y40.05
X15.642 Y40.262
G3 X15.035 Y39.511 I-0.026 J-0.599
G1 X19.827 Y21.196
X19.83 Y21.185
G3 X20.396 Y20.737 I0.58 J0.152
G1 X27.841 Y20.82
X32.469 Y20.867
X35.89 Y20.9
X39.512 Y20.928
X39.844 Y20.948
X40.182 Y20.995
X40.541 Y21.074
X40.928 Y21.194
X41.317 Y21.349
X41.719 Y21.548
X42.144 Y21.802
X42.57 Y22.107
X42.991 Y22.462
X43.431 Y22.898
X43.87 Y23.41
X44.272 Y23.961
X44.615 Y24.523
X44.897 Y25.08
X45.121 Y25.63
X45.294 Y26.172
X45.416 Y26.701
X45.493 Y27.219
X45.527 Y27.73
X45.52 Y28.236
X45.473 Y28.738
X45.385 Y29.237
X45.256 Y29.733
X45.084 Y30.225
X44.87 Y30.71
X44.612 Y31.188
X44.302 Y31.665
X43.936 Y32.141
X43.504 Y32.617
X43.008 Y33.082
X42.457 Y33.521
X41.798 Y33.966
X41.036 Y34.395
X40.231 Y34.766
X39.402 Y35.078
X38.555 Y35.339
X37.696 Y35.554
X36.827 Y35.73
X35.953 Y35.873
X35.074 Y35.988
X34.193 Y36.081
X33.31 Y36.155
X32.426 Y36.213
X31.541 Y36.259
X30.655 Y36.295
X29.77 Y36.323
X28.883 Y36.336
X27.998 Y36.316
X27.115 Y36.242
X26.229 Y36.269
X25.388 Y36.549
X24.632 Y37.01
X23.963 Y37.592
X23.367 Y38.248
X22.819 Y38.944
X22.6 Y39.227
X22.402 Y39.434
X22.165 Y39.597
X21.9 Y39.708
X21.619 Y39.763
X18.987 Y39.997
X18.585 Y40.032
X18.364 Y40.05
G3 X17.95 Y38.992 I-0.026 J-0.599
G1 X38.851 Y21.316
X39.141 Y21.07
G3 X39.512 Y20.928 I0.387 J0.458
G1 X42.329 Y20.951
X42.556 Y20.964
X42.798 Y20.998
X43.071 Y21.058
X43.37 Y21.15
X43.685 Y21.276
X44.03 Y21.447
X44.387 Y21.661
X44.755 Y21.924
X45.142 Y22.25
X45.513 Y22.618
X45.874 Y23.039
X46.221 Y23.515
X46.54 Y24.037
X46.823 Y24.597
X47.064 Y25.186
X47.259 Y25.798
X47.405 Y26.429
X47.5 Y27.074
X47.544 Y27.728
X47.535 Y28.39
X47.472 Y29.054
X47.355 Y29.717
X47.183 Y30.378
X46.956 Y31.032
X46.67 Y31.681
X46.32 Y32.326
X45.905 Y32.966
X45.423 Y33.592
X44.862 Y34.21
X44.216 Y34.816
X43.523 Y35.369
X42.79 Y35.867
X42.022 Y36.309
X41.227 Y36.699
X40.409 Y37.04
X39.573 Y37.336
X38.724 Y37.59
X37.865 Y37.806
X36.998 Y37.989
X36.125 Y38.143
X35.249 Y38.271
X34.369 Y38.377
X33.487 Y38.464
X32.604 Y38.535
X31.72 Y38.593
X30.834 Y38.636
X29.949 Y38.66
X29.063 Y38.656
X28.183 Y38.763
X27.344 Y39.047
X27.193 Y39.129
X27.026 Y39.205
X26.851 Y39.259
X26.67 Y39.29
X25.225 Y39.438
X24.42 Y39.512
X21.619 Y39.763
G3 X21.198 Y38.706 I-0.032 J-0.599
G1 X41.668 Y21.338
X41.957 Y21.093
G3 X42.329 Y20.951 I0.388 J0.458
G1 X44.14 Y20.965
X44.744 Y20.968
X44.896 Y20.976
X45.123 Y21.008
X45.367 Y21.061
X45.632 Y21.142
X45.918 Y21.255
X46.22 Y21.404
X46.536 Y21.593
X46.873 Y21.832
X47.203 Y22.109
X47.552 Y22.453
X47.89 Y22.845
X48.214 Y23.287
X48.528 Y23.798
X48.819 Y24.371
X49.073 Y24.988
X49.282 Y25.64
X49.445 Y26.338
X49.556 Y27.076
X49.609 Y27.844
X49.6 Y28.634
X49.526 Y29.439
X49.385 Y30.252
X49.174 Y31.071
X48.891 Y31.891
X48.535 Y32.702
X48.116 Y33.483
X47.637 Y34.229
X47.102 Y34.935
X46.518 Y35.601
X45.887 Y36.224
X45.217 Y36.804
X45.191 Y36.824
X44.994 Y36.948
X44.779 Y37.038
X44.553 Y37.092
X42.732 Y37.364
X42.422 Y37.407
X37.299 Y38.096
X36.695 Y38.174
X36.293 Y38.222
X31.262 Y38.815
X30.658 Y38.881
X26.67 Y39.29
G3 X26.218 Y38.255 I-0.04 J-0.599
G1 X44.096 Y21.371
X44.35 Y21.132
G3 X44.744 Y20.968 I0.412 J0.436
G1 X46.958 Y20.98
X47.107 Y20.989
X47.323 Y21.02
X47.553 Y21.072
X47.811 Y21.153
X48.074 Y21.26
X48.369 Y21.408
X48.665 Y21.588
X48.985 Y21.82
X49.309 Y22.096
X49.636 Y22.424
X49.976 Y22.825
X50.29 Y23.262
X50.6 Y23.775
X50.896 Y24.369
X51.156 Y25.014
X51.371 Y25.707
X51.544 Y26.474
X51.662 Y27.301
X51.715 Y28.176
X51.698 Y29.062
X51.612 Y29.944
X51.461 Y30.817
X51.244 Y31.676
X50.966 Y32.518
X50.63 Y33.338
X50.24 Y34.134
X49.799 Y34.902
X49.31 Y35.641
X49.021 Y36.022
X48.838 Y36.22
X48.62 Y36.379
X48.376 Y36.494
X48.114 Y36.559
X44.553 Y37.092
G3 X43.893 Y36.397 I-0.068 J-0.596
G1 X46.383 Y21.481
G3 X46.958 Y20.98 I0.592 J0.099
G1 X48.97 Y20.992
X49.206 Y21.005
X49.415 Y21.033
X49.637 Y21.082
X49.887 Y21.158
X50.142 Y21.259
X50.43 Y21.401
X50.715 Y21.571
X51.034 Y21.798
X51.345 Y22.059
X51.676 Y22.385
X52.008 Y22.77
X52.326 Y23.205
X52.65 Y23.733
X52.948 Y24.318
X53.216 Y24.97
X53.457 Y25.72
X53.651 Y26.552
X53.783 Y27.428
X53.846 Y28.312
X53.841 Y29.198
X53.772 Y30.082
