(1001)
(Bearbeiten)
(  Hersteller: ChinaCnc)
(  model: 3040T)
(  description: Generic 3-axis)
(T16  D=6 CR=0 - ZMIN=-30.2 - Schaftfraser)
G90 G94
G17
G21
(When using Fusion 360 for Personal Use, the feedrate of)
(rapid moves is reduced to match the feedrate of cutting)
(moves, which can increase machining time. Unrestricted rapid)
(moves are available with a Fusion 360 Subscription.)

(2D Adaptive24)
T16
S6000 M3
G54
G0 X-19.122 Y-35.414
Z5
G1 Z3 F1000
Z2
Z-7 F333.3
X-19.121 Y-35.451 F1000
X-19.084 Y-35.443
X-19.068 Y-35.409
X-19.079 Y-35.373
X-19.11 Y-35.352
X-19.147 Y-35.353
X-19.181 Y-35.37
X-19.205 Y-35.399
X-19.218 Y-35.434
X-19.216 Y-35.471
X-19.201 Y-35.506
X-19.176 Y-35.534
X-19.144 Y-35.554
X-19.072 Y-35.574
X-18.999 Y-35.559
X-18.939 Y-35.514
X-18.899 Y-35.451
X-18.885 Y-35.377
X-18.894 Y-35.303
X-18.926 Y-35.235
X-19.027 Y-35.123
X-19.169 Y-35.076
X-19.318 Y-35.095
X-19.447 Y-35.171
X-19.54 Y-35.289
X-19.587 Y-35.431
X-19.586 Y-35.581
X-19.541 Y-35.725
X-19.457 Y-35.849
X-19.344 Y-35.947
X-19.209 Y-36.013
X-19.062 Y-36.043
X-18.912 Y-36.038
X-18.768 Y-35.998
X-18.636 Y-35.927
X-18.522 Y-35.829
X-18.431 Y-35.71
X-18.366 Y-35.575
X-18.326 Y-35.43
X-18.314 Y-35.28
X-18.33 Y-35.131
X-18.371 Y-34.987
X-18.436 Y-34.852
X-18.523 Y-34.73
X-18.628 Y-34.623
X-18.75 Y-34.535
X-18.883 Y-34.467
X-19.026 Y-34.419
X-19.174 Y-34.394
X-19.323 Y-34.39
X-19.472 Y-34.408
X-19.617 Y-34.447
X-19.756 Y-34.505
X-19.884 Y-34.582
X-20.002 Y-34.675
X-20.107 Y-34.783
X-20.197 Y-34.903
X-20.271 Y-35.033
X-20.329 Y-35.171
X-20.369 Y-35.316
X-20.392 Y-35.464
X-20.398 Y-35.614
X-20.386 Y-35.763
X-20.357 Y-35.911
X-20.312 Y-36.054
X-20.25 Y-36.191
X-20.175 Y-36.32
X-20.086 Y-36.441
X-19.985 Y-36.552
X-19.872 Y-36.651
X-19.75 Y-36.738
X-19.62 Y-36.812
X-19.482 Y-36.872
X-19.34 Y-36.919
X-19.193 Y-36.951
X-19.044 Y-36.969
X-18.894 Y-36.971
X-18.745 Y-36.96
X-18.597 Y-36.934
X-18.452 Y-36.895
X-18.312 Y-36.843
X-18.176 Y-36.777
X-18.048 Y-36.7
X-17.927 Y-36.612
X-17.814 Y-36.513
X-17.71 Y-36.405
X-17.616 Y-36.288
X-17.532 Y-36.164
X-17.459 Y-36.032
X-17.398 Y-35.895
X-17.348 Y-35.754
X-17.311 Y-35.609
X-17.285 Y-35.461
X-17.271 Y-35.308
X-17.269 Y-35.158
X-17.281 Y-35.004
X-17.303 Y-34.855
X-17.34 Y-34.703
X-17.387 Y-34.557
X-17.448 Y-34.409
X-17.519 Y-34.271
X-17.604 Y-34.133
X-17.697 Y-34.007
X-17.806 Y-33.881
X-17.92 Y-33.769
X-18.049 Y-33.662
X-18.183 Y-33.567
X-18.328 Y-33.481
X-18.48 Y-33.407
X-18.638 Y-33.345
X-18.803 Y-33.295
X-18.969 Y-33.259
X-19.145 Y-33.236
X-19.319 Y-33.226
X-19.496 Y-33.231
X-19.675 Y-33.251
X-19.85 Y-33.284
X-20.028 Y-33.333
X-20.198 Y-33.395
X-20.365 Y-33.471
X-20.53 Y-33.563
X-20.683 Y-33.667
X-20.831 Y-33.784
X-20.972 Y-33.915
X-21.1 Y-34.056
X-21.219 Y-34.209
X-21.327 Y-34.374
X-21.42 Y-34.545
X-21.5 Y-34.725
X-21.567 Y-34.915
X-21.618 Y-35.11
X-21.654 Y-35.307
X-21.673 Y-35.512
X-21.677 Y-35.719
X-21.664 Y-35.924
X-21.634 Y-36.129
X-21.587 Y-36.336
X-21.523 Y-36.539
X-21.443 Y-36.736
X-21.347 Y-36.926
X-21.234 Y-37.113
X-21.106 Y-37.29
X-20.964 Y-37.457
X-20.809 Y-37.612
X-20.639 Y-37.755
X-20.456 Y-37.887
X-20.262 Y-38.004
X-20.059 Y-38.105
X-19.848 Y-38.19
X-19.629 Y-38.258
X-19.403 Y-38.309
X-19.171 Y-38.342
X-18.936 Y-38.356
X-18.698 Y-38.352
X-18.461 Y-38.328
X-18.225 Y-38.285
X-17.993 Y-38.223
X-17.764 Y-38.142
X-17.541 Y-38.042
X-17.325 Y-37.923
X-17.117 Y-37.787
X-16.92 Y-37.633
X-16.734 Y-37.463
X-16.562 Y-37.277
X-16.404 Y-37.076
X-16.262 Y-36.862
X-16.136 Y-36.637
X-16.028 Y-36.4
X-15.94 Y-36.154
X-15.87 Y-35.899
X-15.822 Y-35.639
X-15.794 Y-35.374
X-15.787 Y-35.105
X-15.802 Y-34.836
X-15.839 Y-34.566
X-15.897 Y-34.3
X-15.978 Y-34.036
X-16.08 Y-33.779
X-16.203 Y-33.529
X-16.346 Y-33.289
X-16.509 Y-33.059
X-16.691 Y-32.842
X-16.891 Y-32.639
X-17.109 Y-32.452
X-17.342 Y-32.282
X-17.589 Y-32.129
X-17.85 Y-31.997
X-18.121 Y-31.885
X-18.403 Y-31.795
X-18.693 Y-31.727
X-18.988 Y-31.683
X-19.289 Y-31.662
X-19.592 Y-31.665
X-19.895 Y-31.693
X-20.197 Y-31.745
X-20.495 Y-31.822
X-20.788 Y-31.924
X-21.074 Y-32.049
X-21.35 Y-32.197
X-21.614 Y-32.368
X-21.866 Y-32.561
X-22.103 Y-32.775
X-22.323 Y-33.008
X-22.524 Y-33.259
X-22.706 Y-33.528
X-22.867 Y-33.811
X-23.005 Y-34.108
X-23.119 Y-34.417
X-23.209 Y-34.736
X-23.273 Y-35.063
X-23.311 Y-35.396
X-23.322 Y-35.732
X-23.306 Y-36.071
X-23.262 Y-36.408
X-23.192 Y-36.743
X-23.094 Y-37.073
X-22.969 Y-37.395
X-22.818 Y-37.708
X-22.642 Y-38.01
X-22.44 Y-38.298
X-22.215 Y-38.571
X-21.968 Y-38.826
X-21.7 Y-39.061
X-21.412 Y-39.275
X-21.106 Y-39.466
X-20.785 Y-39.634
X-20.449 Y-39.775
X-20.101 Y-39.89
X-19.743 Y-39.977
X-19.378 Y-40.035
X-19.007 Y-40.063
X-18.633 Y-40.062
X-18.259 Y-40.031
X-17.887 Y-39.969
X-17.518 Y-39.878
X-17.157 Y-39.756
X-16.805 Y-39.605
X-16.464 Y-39.426
X-16.137 Y-39.218
X-15.827 Y-38.984
X-15.534 Y-38.725
X-15.263 Y-38.441
X-15.013 Y-38.136
X-14.788 Y-37.809
X-14.589 Y-37.464
X-14.418 Y-37.103
X-14.275 Y-36.727
X-14.162 Y-36.339
X-14.081 Y-35.941
X-14.032 Y-35.536
X-14.015 Y-35.127
X-14.031 Y-34.716
X-14.08 Y-34.305
X-14.162 Y-33.898
X-14.278 Y-33.497
X-14.426 Y-33.105
X-14.605 Y-32.724
X-14.816 Y-32.357
X-15.057 Y-32.007
X-15.326 Y-31.675
X-15.622 Y-31.365
X-15.944 Y-31.078
X-16.289 Y-30.817
X-16.656 Y-30.583
X-17.042 Y-30.378
X-17.445 Y-30.205
X-17.862 Y-30.063
X-18.292 Y-29.955
X-18.731 Y-29.882
X-19.176 Y-29.844
X-19.625 Y-29.841
X-20.074 Y-29.875
X-20.522 Y-29.945
X-20.964 Y-30.051
X-21.398 Y-30.194
X-21.821 Y-30.371
X-22.23 Y-30.582
X-22.623 Y-30.827
X-22.996 Y-31.103
X-23.348 Y-31.41
X-23.675 Y-31.746
X-23.975 Y-32.108
X-24.246 Y-32.495
X-24.487 Y-32.904
X-24.695 Y-33.333
X-24.868 Y-33.779
X-25.006 Y-34.239
X-25.106 Y-34.711
X-25.169 Y-35.191
X-25.193 Y-35.676
X-25.178 Y-36.164
X-25.124 Y-36.652
X-25.03 Y-37.135
X-24.897 Y-37.611
X-24.726 Y-38.077
X-24.517 Y-38.529
X-24.271 Y-38.965
X-23.991 Y-39.382
X-23.676 Y-39.776
X-23.329 Y-40.145
X-22.953 Y-40.486
X-22.548 Y-40.798
X-22.118 Y-41.077
X-21.666 Y-41.321
X-21.193 Y-41.53
X-20.704 Y-41.7
X-20.2 Y-41.831
X-19.685 Y-41.922
X-19.163 Y-41.971
X-18.636 Y-41.978
X-18.108 Y-41.942
X-17.583 Y-41.865
X-17.064 Y-41.744
X-16.554 Y-41.582
X-16.056 Y-41.379
X-15.575 Y-41.135
X-15.114 Y-40.853
X-14.674 Y-40.533
X-14.261 Y-40.178
X-13.875 Y-39.789
X-13.521 Y-39.369
X-13.201 Y-38.92
X-12.916 Y-38.445
X-12.67 Y-37.947
X-12.464 Y-37.429
X-12.299 Y-36.894
X-12.177 Y-36.346
X-12.1 Y-35.788
X-12.067 Y-35.223
X-12.08 Y-34.656
X-12.139 Y-34.089
X-12.243 Y-33.527
X-12.393 Y-32.973
X-12.587 Y-32.43
X-12.825 Y-31.903
X-13.105 Y-31.396
X-13.427 Y-30.91
X-13.788 Y-30.45
X-14.186 Y-30.02
X-14.619 Y-29.621
X-15.084 Y-29.256
X-15.578 Y-28.929
X-16.099 Y-28.642
X-16.644 Y-28.397
X-17.208 Y-28.195
X-17.789 Y-28.039
X-18.382 Y-27.93
X-18.985 Y-27.868
X-19.592 Y-27.855
X-20.201 Y-27.891
X-20.807 Y-27.976
X-21.407 Y-28.109
X-21.995 Y-28.291
X-22.569 Y-28.521
X-23.125 Y-28.796
X-23.658 Y-29.117
X-24.166 Y-29.48
X-24.645 Y-29.884
X-25.091 Y-30.327
X-25.501 Y-30.806
X-25.873 Y-31.318
X-26.204 Y-31.86
X-26.491 Y-32.429
X-26.733 Y-33.02
X-26.926 Y-33.632
X-27.071 Y-34.258
X-27.165 Y-34.897
X-27.208 Y-35.543
X-27.198 Y-36.192
X-27.137 Y-36.841
X-27.023 Y-37.485
X-26.857 Y-38.12
X-26.64 Y-38.741
X-26.373 Y-39.345
X-26.058 Y-39.927
X-25.696 Y-40.484
X-25.288 Y-41.012
X-24.839 Y-41.506
X-24.349 Y-41.965
X-23.823 Y-42.385
X-23.263 Y-42.761
X-22.672 Y-43.093
X-22.055 Y-43.377
X-21.415 Y-43.612
X-20.756 Y-43.795
X-20.082 Y-43.925
X-19.398 Y-44.001
X-18.708 Y-44.021
X-18.017 Y-43.986
X-17.328 Y-43.896
X-16.647 Y-43.75
X-15.977 Y-43.549
X-15.324 Y-43.294
X-14.691 Y-42.987
X-14.084 Y-42.628
X-13.505 Y-42.221
X-12.959 Y-41.768
X-12.45 Y-41.271
X-11.981 Y-40.732
X-11.555 Y-40.157
X-11.176 Y-39.547
X-10.846 Y-38.906
X-10.567 Y-38.24
X-10.343 Y-37.551
X-10.174 Y-36.844
X-10.062 Y-36.124
X-10.007 Y-35.395
X-10.012 Y-34.662
X-10.076 Y-33.929
X-10.198 Y-33.202
X-10.379 Y-32.485
X-10.618 Y-31.783
X-10.913 Y-31.1
X-11.263 Y-30.441
X-11.666 Y-29.81
X-12.119 Y-29.212
X-12.621 Y-28.651
X-13.168 Y-28.13
X-13.756 Y-27.654
X-14.383 Y-27.225
X-15.043 Y-26.846
X-15.734 Y-26.521
X-16.452 Y-26.251
X-17.19 Y-26.04
X-17.945 Y-25.888
X-18.713 Y-25.796
X-19.487 Y-25.767
X-20.263 Y-25.8
X-21.037 Y-25.895
X-21.802 Y-26.052
X-22.554 Y-26.271
X-23.289 Y-26.551
X-24 Y-26.889
X-24.684 Y-27.285
X-25.336 Y-27.735
X-25.952 Y-28.238
X-26.526 Y-28.79
X-27.056 Y-29.388
X-27.538 Y-30.028
X-27.967 Y-30.707
X-28.342 Y-31.42
X-28.659 Y-32.163
X-28.917 Y-32.931
X-29.112 Y-33.719
X-29.244 Y-34.522
X-29.311 Y-35.336
X-29.313 Y-36.155
X-29.249 Y-36.973
X-29.119 Y-37.786
X-28.923 Y-38.587
X-28.664 Y-39.373
X-28.341 Y-40.137
X-27.957 Y-40.875
X-27.513 Y-41.582
X-27.013 Y-42.252
X-26.46 Y-42.882
X-25.856 Y-43.467
X-25.205 Y-44.002
X-24.512 Y-44.486
X-23.78 Y-44.913
X-23.014 Y-45.281
X-22.219 Y-45.587
X-21.4 Y-45.829
X-20.562 Y-46.005
X-20.483 Y-46.015
X-20.415 Y-46.022
X-20.347 Y-46.026
X-20.279
X-18.928 Y-46
X-18.727 Y-45.995
X-18.124 Y-45.974
X-17.24 Y-45.901
X-16.522 Y-45.802
X-15.777 Y-45.637
X-15.021 Y-45.405
X-14.265 Y-45.105
X-13.521 Y-44.738
X-12.797 Y-44.305
X-12.101 Y-43.81
X-11.441 Y-43.255
X-10.823 Y-42.643
X-10.252 Y-41.98
X-9.733 Y-41.269
X-9.271 Y-40.516
X-8.87 Y-39.726
X-8.533 Y-38.906
X-8.263 Y-38.062
X-8.061 Y-37.199
X-7.927 Y-36.323
X-7.863 Y-35.439
X-7.869 Y-34.553
X-7.944 Y-33.67
X-8.089 Y-32.796
X-8.301 Y-31.936
X-8.579 Y-31.095
X-8.923 Y-30.278
X-9.329 Y-29.49
X-9.795 Y-28.736
X-10.318 Y-28.021
X-10.894 Y-27.348
X-11.521 Y-26.721
X-12.193 Y-26.144
X-12.908 Y-25.621
X-13.661 Y-25.153
X-14.176 Y-24.884
X-14.391 Y-24.794
X-14.617 Y-24.741
X-14.849 Y-24.726
X-16.111 Y-24.75
X-17.319 Y-24.778
X-19.935 Y-24.843
X-20.337 Y-24.854
X-22.953 Y-24.935
X-23.446 Y-24.975
X-23.902 Y-25.049
X-24.403 Y-25.172
X-24.959 Y-25.357
X-25.512 Y-25.593
X-26.115 Y-25.908
X-26.744 Y-26.305
X-27.366 Y-26.772
X-27.966 Y-27.302
X-28.555 Y-27.912
X-29.116 Y-28.597
X-29.621 Y-29.325
X-30.068 Y-30.09
X-30.456 Y-30.887
X-30.783 Y-31.711
X-31.05 Y-32.556
X-31.254 Y-33.418
X-31.394 Y-34.293
X-31.47 Y-35.176
X-31.48 Y-36.062
X-31.427 Y-36.946
X-31.311 Y-37.825
X-31.133 Y-38.693
X-30.893 Y-39.546
X-30.595 Y-40.38
X-30.239 Y-41.192
X-29.826 Y-41.976
X-29.357 Y-42.728
X-28.835 Y-43.444
X-28.265 Y-44.122
X-27.649 Y-44.759
X-26.99 Y-45.351
X-26.378 Y-45.83
X-26.108 Y-45.995
X-25.808 Y-46.096
X-25.494 Y-46.127
X-24.361 Y-46.106
X-20.279 Y-46.026
G3 X-20.027 Y-45.965 I-0.012 J0.6
G1 X-19.953 Y-45.935
X-19.877 Y-45.915
X-19.518 Y-45.845
X-19.097 Y-45.764
G2 X-18.694 Y-45.827 I0.114 J-0.589
G3 X-18.124 Y-45.974 I0.572 J1.04
G1 X-13.294 Y-45.814
X-12.918 Y-45.782
X-12.561 Y-45.723
X-12.18 Y-45.629
X-11.757 Y-45.486
X-11.301 Y-45.291
X-10.8 Y-45.027
X-10.295 Y-44.707
X-9.74 Y-44.289
X-9.183 Y-43.794
X-8.644 Y-43.231
X-8.103 Y-42.568
X-7.6 Y-41.839
X-7.155 Y-41.072
X-6.767 Y-40.275
X-6.437 Y-39.453
X-6.167 Y-38.609
X-5.958 Y-37.748
X-5.807 Y-36.875
X-5.715 Y-35.994
X-5.68 Y-35.108
X-5.704 Y-34.222
X-5.787 Y-33.34
X-5.93 Y-32.465
X-6.13 Y-31.602
X-6.386 Y-30.754
X-6.696 Y-29.924
X-7.059 Y-29.115
X-7.474 Y-28.332
X-7.94 Y-27.579
X-8.455 Y-26.858
X-9.016 Y-26.172
X-9.619 Y-25.522
X-10.119 Y-25.048
X-10.332 Y-24.882
X-10.572 Y-24.76
X-10.832 Y-24.686
X-11.101 Y-24.664
X-12.69 Y-24.686
X-14.099 Y-24.712
X-14.849 Y-24.726
G3 X-15.102 Y-24.787 I0.011 J-0.6
G1 X-15.176 Y-24.817
X-15.253 Y-24.838
X-15.333 Y-24.847
X-15.616 Y-24.863
X-21.869 Y-25.207
G2 X-22.193 Y-25.133 I-0.033 J0.599
G3 X-22.953 Y-24.935 I-0.767 J-1.384
G1 X-23.557 Y-24.953
X-24.16 Y-24.974
X-26.575 Y-25.072
X-26.904 Y-25.101
X-27.21 Y-25.154
X-27.546 Y-25.24
X-27.932 Y-25.373
X-28.323 Y-25.544
X-28.777 Y-25.787
X-29.228 Y-26.077
X-29.722 Y-26.455
X-30.244 Y-26.925
X-30.745 Y-27.455
X-31.259 Y-28.094
X-31.756 Y-28.827
X-32.195 Y-29.597
X-32.575 Y-30.398
X-32.9 Y-31.222
X-33.168 Y-32.067
X-33.378 Y-32.928
X-33.531 Y-33.801
X-33.628 Y-34.681
X-33.671 Y-35.566
X-33.659 Y-36.452
X-33.594 Y-37.336
X-33.474 Y-38.214
X-33.299 Y-39.083
X-33.072 Y-39.939
X-32.794 Y-40.781
X-32.467 Y-41.604
X-32.09 Y-42.407
X-31.667 Y-43.185
X-31.195 Y-43.935
X-30.679 Y-44.655
X-30.121 Y-45.343
X-29.801 Y-45.692
X-29.582 Y-45.886
X-29.329 Y-46.03
X-29.05 Y-46.119
X-28.76 Y-46.147
X-25.527 Y-46.127
X-25.494
G3 X-24.937 Y-45.653 I-0.03 J0.599
G1 X-24.917 Y-45.561 Z-6.993
X-24.898 Y-45.472 Z-6.971
X-24.88 Y-45.387 Z-6.935
X-24.863 Y-45.308 Z-6.885
X-24.848 Y-45.238 Z-6.824
X-24.835 Y-45.179 Z-6.753
X-24.825 Y-45.13 Z-6.672
X-24.817 Y-45.095 Z-6.585
X-24.813 Y-45.074 Z-6.494
X-24.811 Y-45.067 Z-6.4
Z-5.8
X-14.58 Y-45.328
Z-6.4
X-14.574 Y-45.332 Z-6.494
X-14.555 Y-45.342 Z-6.585
X-14.523 Y-45.36 Z-6.672
X-14.48 Y-45.383 Z-6.753
X-14.426 Y-45.413 Z-6.824
X-14.364 Y-45.447 Z-6.885
X-14.293 Y-45.486 Z-6.935
X-14.217 Y-45.528 Z-6.971
X-14.137 Y-45.572 Z-6.993
X-14.055 Y-45.618 Z-7
G3 X-13.294 Y-45.814 I0.763 J1.386
G1 X-12.087 Y-45.773
X-11.483 Y-45.748
X-10.276 Y-45.693
X-9.882 Y-45.655
X-9.599 Y-45.604
X-9.281 Y-45.521
X-8.952 Y-45.405
X-8.564 Y-45.234
X-8.183 Y-45.026
X-7.738 Y-44.736
X-7.304 Y-44.4
X-6.827 Y-43.966
X-6.329 Y-43.434
X-5.852 Y-42.833
X-5.375 Y-42.123
X-4.942 Y-41.35
X-4.569 Y-40.546
X-4.253 Y-39.718
X-3.991 Y-38.872
X-3.784 Y-38.01
X-3.63 Y-37.137
X-3.529 Y-36.257
X-3.482 Y-35.372
X-3.486 Y-34.486
X-3.541 Y-33.602
X-3.647 Y-32.722
X-3.801 Y-31.849
X-4.005 Y-30.987
X-4.259 Y-30.138
X-4.56 Y-29.305
X-4.908 Y-28.49
X-5.302 Y-27.696
X-5.738 Y-26.925
X-6.217 Y-26.179
X-6.736 Y-25.461
X-6.993 Y-25.147
X-7.215 Y-24.928
X-7.481 Y-24.765
X-7.776 Y-24.664
X-8.086 Y-24.631
X-8.867 Y-24.636
X-9.471 Y-24.642
X-11.101 Y-24.664
G3 X-11.659 Y-25.136 I0.029 J-0.599
G1 X-11.679 Y-25.228 Z-6.993
X-11.698 Y-25.317 Z-6.971
X-11.716 Y-25.402 Z-6.935
X-11.733 Y-25.481 Z-6.885
X-11.749 Y-25.551 Z-6.824
X-11.761 Y-25.61 Z-6.753
X-11.772 Y-25.659 Z-6.672
X-11.78 Y-25.694 Z-6.585
X-11.784 Y-25.715 Z-6.494
X-11.786 Y-25.722 Z-6.4
Z-5.8
X-25.285 Y-25.548
Z-6.4
X-25.292 Y-25.544 Z-6.494
X-25.311 Y-25.534 Z-6.585
X-25.343 Y-25.517 Z-6.672
X-25.386 Y-25.493 Z-6.753
X-25.44 Y-25.464 Z-6.824
X-25.503 Y-25.43 Z-6.885
X-25.574 Y-25.392 Z-6.935
X-25.65 Y-25.351 Z-6.971
X-25.731 Y-25.307 Z-6.993
X-25.813 Y-25.262 Z-7
G3 X-26.575 Y-25.072 I-0.753 J-1.392
G1 X-29.392 Y-25.185
X-29.665 Y-25.21
X-29.94 Y-25.257
X-30.224 Y-25.33
X-30.544 Y-25.44
X-30.897 Y-25.594
X-31.264 Y-25.791
X-31.677 Y-26.057
X-32.092 Y-26.375
X-32.54 Y-26.778
X-33.015 Y-27.28
X-33.474 Y-27.851
X-33.939 Y-28.537
X-34.377 Y-29.307
X-34.754 Y-30.109
X-35.073 Y-30.936
X-35.337 Y-31.782
X-35.549 Y-32.642
X-35.708 Y-33.514
X-35.816 Y-34.393
X-35.873 Y-35.278
X-35.882 Y-36.164
X-35.842 Y-37.049
X-35.755 Y-37.931
X-35.622 Y-38.807
X-35.442 Y-39.675
X-35.216 Y-40.531
X-34.944 Y-41.375
X-34.628 Y-42.203
X-34.269 Y-43.013
X-33.868 Y-43.803
X-33.426 Y-44.571
X-32.946 Y-45.316
X-32.738 Y-45.597
X-32.515 Y-45.834
X-32.244 Y-46.014
X-31.938 Y-46.126
X-31.615 Y-46.164
X-28.76 Y-46.147
G3 X-28.199 Y-45.679 I-0.025 J0.599
G1 X-28.178 Y-45.588 Z-6.993
X-28.158 Y-45.498 Z-6.971
X-28.139 Y-45.413 Z-6.935
X-28.122 Y-45.335 Z-6.885
X-28.106 Y-45.265 Z-6.824
X-28.092 Y-45.206 Z-6.753
X-28.082 Y-45.158 Z-6.672
X-28.074 Y-45.122 Z-6.585
X-28.069 Y-45.101 Z-6.494
X-28.067 Y-45.094 Z-6.4
Z-5.8
X-11.568 Y-45.223
Z-6.4
X-11.561 Y-45.227 Z-6.494
X-11.542 Y-45.237 Z-6.585
X-11.51 Y-45.254 Z-6.672
X-11.467 Y-45.277 Z-6.753
X-11.413 Y-45.306 Z-6.824
X-11.35 Y-45.34 Z-6.885
X-11.279 Y-45.378 Z-6.935
X-11.202 Y-45.419 Z-6.971
X-11.121 Y-45.462 Z-6.993
X-11.039 Y-45.506 Z-7
G3 X-10.276 Y-45.693 I0.745 J1.396
G1 X-7.459 Y-45.563
X-7.265 Y-45.544
X-7.001 Y-45.497
X-6.731 Y-45.426
X-6.412 Y-45.315
X-6.09 Y-45.172
X-5.725 Y-44.973
X-5.346 Y-44.726
X-4.933 Y-44.407
X-4.517 Y-44.028
X-4.064 Y-43.544
X-3.621 Y-42.985
X-3.176 Y-42.323
X-2.743 Y-41.55
X-2.372 Y-40.745
X-2.059 Y-39.916
X-1.8 Y-39.069
X-1.593 Y-38.207
X-1.436 Y-37.335
X-1.329 Y-36.455
X-1.271 Y-35.571
X-1.26 Y-34.685
X-1.295 Y-33.8
X-1.375 Y-32.917
X-1.499 Y-32.04
X-1.667 Y-31.17
X-1.877 Y-30.309
X-2.131 Y-29.46
X-2.428 Y-28.625
X-2.767 Y-27.806
X-3.145 Y-27.005
X-3.561 Y-26.223
X-4.016 Y-25.462
X-4.187 Y-25.215
X-4.362 Y-25.009
X-4.574 Y-24.84
X-4.815 Y-24.715
X-5.075 Y-24.639
X-5.345 Y-24.614
X-8.086 Y-24.631
G3 X-8.661 Y-25.249 I0.025 J-0.599
G1 X-8.065 Y-44.981
G3 X-7.459 Y-45.563 I0.6 J0.018
G1 X-5.044 Y-45.452
X-4.791 Y-45.428
X-4.56 Y-45.386
X-4.29 Y-45.316
X-4.002 Y-45.215
X-3.693 Y-45.077
X-3.346 Y-44.889
X-2.998 Y-44.662
X-2.602 Y-44.356
X-2.215 Y-44.003
X-1.797 Y-43.555
X-1.361 Y-43.007
X-0.942 Y-42.382
X-0.52 Y-41.629
X-0.15 Y-40.823
X0.16 Y-39.993
X0.416 Y-39.145
X0.621 Y-38.283
X0.777 Y-37.41
X0.887 Y-36.531
X0.952 Y-35.647
X0.972 Y-34.762
X0.95 Y-33.876
X0.886 Y-32.992
X0.782 Y-32.112
X0.638 Y-31.238
X0.455 Y-30.371
X0.233 Y-29.513
X-0.026 Y-28.665
X-0.323 Y-27.83
X-0.657 Y-27.01
X-1.028 Y-26.205
X-1.399 Y-25.496
X-1.553 Y-25.252
X-1.727 Y-25.029
X-1.943 Y-24.846
X-2.191 Y-24.71
X-2.461 Y-24.626
X-2.743 Y-24.599
X-5.345 Y-24.614
G3 X-5.92 Y-25.222 I0.025 J-0.599
G1 X-5.65 Y-44.86
G3 X-5.044 Y-45.452 I0.6 J0.008
G1 X-4.843 Y-45.443
X-4.507 Y-45.424
X-2.629 Y-45.317
X-2.375 Y-45.289
X-2.142 Y-45.245
X-1.874 Y-45.172
X-1.604 Y-45.073
X-1.288 Y-44.929
X-0.972 Y-44.753
X-0.616 Y-44.514
X-0.253 Y-44.227
X0.142 Y-43.859
X0.532 Y-43.433
X0.949 Y-42.895
X1.369 Y-42.254
X1.773 Y-41.513
X2.134 Y-40.703
X2.434 Y-39.87
X2.68 Y-39.018
X2.875 Y-38.154
X3.024 Y-37.281
X3.128 Y-36.401
X3.19 Y-35.517
X3.211 Y-34.631
X3.193 Y-33.745
X3.136 Y-32.86
X3.04 Y-31.979
X2.908 Y-31.103
X2.74 Y-30.233
X2.537 Y-29.371
X2.299 Y-28.517
X2.026 Y-27.674
X1.72 Y-26.842
X1.379 Y-26.025
X1.088 Y-25.446
X0.983 Y-25.274
X0.81 Y-25.046
X0.595 Y-24.858
X0.346 Y-24.717
X0.074 Y-24.631
X-0.21 Y-24.601
X-2.025 Y-24.597
X-2.743 Y-24.599
G3 X-3.319 Y-25.201 I0.023 J-0.6
G1 X-3.243 Y-44.719
G3 X-2.629 Y-45.317 I0.6 J0.002
G1 X-0.214 Y-45.178
X-0.043 Y-45.16
X0.106 Y-45.142
X0.254 Y-45.117
X0.4 Y-45.084
X0.545 Y-45.044
X0.688 Y-44.997
X0.828 Y-44.945
X0.966 Y-44.886
X1.102 Y-44.823
X1.236 Y-44.755
X1.367 Y-44.682
X1.496 Y-44.605
X1.622 Y-44.524
X1.746 Y-44.439
X1.867 Y-44.351
X1.986 Y-44.26
X2.102 Y-44.165
X2.216 Y-44.067
X2.328 Y-43.967
X2.436 Y-43.864
X2.543 Y-43.758
X2.647 Y-43.65
X2.749 Y-43.541
X2.849 Y-43.428
X2.946 Y-43.314
X3.041 Y-43.198
X3.134 Y-43.08
X3.224 Y-42.96
X3.313 Y-42.839
X3.399 Y-42.716
X3.483 Y-42.592
X3.565 Y-42.467
X3.645 Y-42.34
X3.723 Y-42.211
X3.799 Y-42.082
X3.873 Y-41.952
X3.945 Y-41.82
X4.015 Y-41.688
X4.084 Y-41.554
X4.15 Y-41.42
X4.215 Y-41.284
X4.278 Y-41.148
X4.339 Y-41.011
X4.399 Y-40.874
X4.456 Y-40.735
X4.513 Y-40.596
X4.567 Y-40.456
X4.62 Y-40.316
X4.671 Y-40.175
X4.721 Y-40.034
X4.769 Y-39.892
X4.816 Y-39.749
X4.861 Y-39.606
X4.904 Y-39.462
X4.947 Y-39.318
X4.987 Y-39.174
X5.026 Y-39.029
X5.064 Y-38.884
X5.1 Y-38.739
X5.135 Y-38.593
X5.169 Y-38.446
X5.202 Y-38.3
X5.233 Y-38.153
X5.262 Y-38.006
X5.29 Y-37.859
X5.317 Y-37.711
X5.343 Y-37.564
X5.368 Y-37.416
X5.391 Y-37.267
X5.413 Y-37.119
X5.434 Y-36.97
X5.453 Y-36.822
X5.471 Y-36.673
X5.489 Y-36.523
X5.505 Y-36.374
X5.519 Y-36.225
X5.533 Y-36.076
X5.545 Y-35.926
X5.557 Y-35.773
X5.568 Y-35.612
X5.577 Y-35.462
X5.584 Y-35.312
X5.591 Y-35.162
X5.596 Y-35.013
X5.601 Y-34.856
X5.604 Y-34.69
X5.607 Y-34.529
X5.608 Y-34.379
X5.607 Y-34.229
X5.606 Y-34.077
X5.601 Y-33.832
X5.597 Y-33.657
X5.591 Y-33.501
X5.585 Y-33.351
X5.577 Y-33.2
X5.568 Y-33.041
X5.557 Y-32.872
X5.544 Y-32.693
X5.531 Y-32.529
X5.518 Y-32.379
X5.504 Y-32.225
X5.487 Y-32.062
X5.468 Y-31.889
X5.447 Y-31.705
X5.426 Y-31.54
X5.407 Y-31.39
X5.385 Y-31.233
X5.36 Y-31.066
X5.333 Y-30.888
X5.303 Y-30.699
X5.276 Y-30.54
X5.249 Y-30.388
X5.219 Y-30.226
X5.186 Y-30.055
X5.15 Y-29.873
X5.111 Y-29.684
X5.078 Y-29.532
X5.044 Y-29.377
X5.006 Y-29.212
X4.964 Y-29.037
X4.918 Y-28.85
X4.873 Y-28.672
X4.835 Y-28.525
X4.793 Y-28.37
X4.748 Y-28.207
X4.698 Y-28.033
X4.644 Y-27.847
X4.595 Y-27.685
X4.551 Y-27.542
X4.506 Y-27.399
X4.459 Y-27.256
X4.411 Y-27.114
X4.362 Y-26.97
X4.312 Y-26.828
X4.261 Y-26.687
X4.208 Y-26.547
X4.154 Y-26.407
X4.098 Y-26.268
X4.041 Y-26.129
X3.981 Y-25.992
X3.919 Y-25.855
X3.856 Y-25.719
X3.79 Y-25.584
X3.72 Y-25.451
X3.644 Y-25.312
X3.473 Y-25.074
X3.256 Y-24.877
X3.002 Y-24.729
X2.723 Y-24.638
X2.432 Y-24.606
X-0.21 Y-24.601
G3 X-0.791 Y-25.199 I0.02 J-0.6
G1 X-0.828 Y-44.577
G3 X-0.214 Y-45.178 I0.6 J-0.001
G1 X1.999 Y-45.051
X2.2 Y-45.039
X2.403 Y-45.016
X2.629 Y-44.973
X2.878 Y-44.903
X3.148 Y-44.804
X3.441 Y-44.669
X3.755 Y-44.493
X4.09 Y-44.267
X4.444 Y-43.985
X4.816 Y-43.636
X5.203 Y-43.21
X5.601 Y-42.694
X6.006 Y-42.071
X6.409 Y-41.327
X6.767 Y-40.516
X7.065 Y-39.682
X7.309 Y-38.83
X7.504 Y-37.965
X7.654 Y-37.092
X7.762 Y-36.213
X7.83 Y-35.329
X7.838 Y-35.108
X7.88 Y-34.89
X7.957 Y-34.682
X8.173 Y-34.296
X8.809 Y-33.679
X9.549 Y-33.192
X10.326 Y-32.766
X11.112 Y-32.356
X11.73 Y-31.99
X12.3 Y-31.587
X12.619 Y-31.32
X12.991 Y-30.955
X13.248 Y-30.659
X13.481 Y-30.341
X13.714 Y-29.964
X13.853 Y-29.692
X13.996 Y-29.347
X14.111 Y-28.99
X14.178 Y-28.707
X14.232 Y-28.356
X14.257 Y-28.013
X14.254 Y-27.736
X14.224 Y-27.401
X14.167 Y-27.07
X14.102 Y-26.815
X13.999 Y-26.512
X13.863 Y-26.202
X13.745 Y-25.98
X13.581 Y-25.725
X13.369 Y-25.447
X13.209 Y-25.269
X12.999 Y-25.07
X12.892 Y-24.984
X12.63 Y-24.817
X12.338 Y-24.712
X12.029 Y-24.675
X10.652 Y-24.661
X10.048 Y-24.656
X9.846 Y-24.664
X8.966 Y-24.773
X8.301 Y-24.66
X8.227 Y-24.65
X8.153 Y-24.643
X8.078 Y-24.64
G3 X7.494 Y-25.256 I0.016 J-0.6
X8.11 Y-25.84 I0.6 J0.016
X10.163 Y-24.95 I-0.081 J2.999
X10.048 Y-24.656 I-0.123 J0.121
G1 X4.615 Y-24.613
X3.81 Y-24.609
X2.432 Y-24.606
G3 X1.851 Y-25.198 I0.02 J-0.6
G1 X1.585 Y-44.431
G3 X2.2 Y-45.039 I0.6 J-0.008
G1 X2.603 Y-45.014
X4.414 Y-44.892
X4.714 Y-44.856
X4.945 Y-44.81
X5.192 Y-44.739
X5.458 Y-44.64
X5.762 Y-44.497
X6.062 Y-44.325
X6.411 Y-44.087
X6.75 Y-43.812
X7.134 Y-43.447
X7.503 Y-43.034
X7.902 Y-42.51
X8.307 Y-41.876
X8.699 Y-41.14
X9.051 Y-40.327
X9.343 Y-39.49
X9.581 Y-38.636
X9.79 Y-37.775
X10.199 Y-36.989
X10.741 Y-36.288
X11.358 Y-35.652
X12.011 Y-35.053
X12.676 Y-34.468
X13.33 Y-33.87
X13.956 Y-33.242
X14.487 Y-32.632
X14.923 Y-32.04
X15.268 Y-31.484
X15.548 Y-30.94
X15.775 Y-30.395
X15.948 Y-29.864
X16.074 Y-29.335
X16.154 Y-28.815
X16.192 Y-28.31
X16.188 Y-27.807
X16.146 Y-27.322
X16.066 Y-26.849
X15.947 Y-26.38
X15.796 Y-25.938
X15.612 Y-25.514
X15.574 Y-25.442
X15.406 Y-25.194
X15.189 Y-24.988
X14.933 Y-24.832
X14.65 Y-24.735
X14.353 Y-24.699
X12.029 Y-24.675
G3 X11.487 Y-25.051 I0.015 J-0.6
G1 X11.455 Y-25.131
X3.837 Y-44.068
G3 X4.414 Y-44.892 I0.557 J-0.224
G1 X6.828 Y-44.728
X6.992 Y-44.709
X7.14 Y-44.69
X7.288 Y-44.663
X7.434 Y-44.628
X7.578 Y-44.587
X7.72 Y-44.538
X7.86 Y-44.484
X7.997 Y-44.423
X8.132 Y-44.358
X8.265 Y-44.288
X8.395 Y-44.214
X8.522 Y-44.134
X8.647 Y-44.051
X8.769 Y-43.965
X8.889 Y-43.875
X9.007 Y-43.781
X9.121 Y-43.684
X9.233 Y-43.585
X9.343 Y-43.482
X9.45 Y-43.377
X9.555 Y-43.27
X9.657 Y-43.16
X9.757 Y-43.048
X9.855 Y-42.934
X9.95 Y-42.818
X10.043 Y-42.7
X10.133 Y-42.581
X10.222 Y-42.46
X10.308 Y-42.337
X10.392 Y-42.213
X10.474 Y-42.087
X10.553 Y-41.96
X10.631 Y-41.832
X10.707 Y-41.702
X10.781 Y-41.572
X10.853 Y-41.44
X10.923 Y-41.307
X11.327 Y-40.519
X11.767 Y-39.75
X12.268 Y-39.019
X12.82 Y-38.325
X13.404 Y-37.659
X14.006 Y-37.009
X14.423 Y-36.563
X14.639 Y-36.328
X14.782 Y-36.17
X14.935 Y-36
X15.099 Y-35.813
X15.224 Y-35.67
X15.321 Y-35.556
X15.418 Y-35.441
X15.517 Y-35.321
X15.621 Y-35.194
X15.722 Y-35.069
X15.815 Y-34.951
X15.907 Y-34.833
X15.998 Y-34.714
X16.088 Y-34.594
X16.177 Y-34.473
X16.264 Y-34.351
X16.351 Y-34.229
X16.436 Y-34.105
X16.52 Y-33.981
X16.603 Y-33.856
X16.684 Y-33.73
X16.764 Y-33.603
X16.842 Y-33.475
X16.919 Y-33.346
X16.994 Y-33.216
X17.068 Y-33.086
X17.141 Y-32.954
X17.211 Y-32.822
X17.28 Y-32.688
X17.347 Y-32.554
X17.412 Y-32.419
X17.476 Y-32.283
X17.537 Y-32.147
X17.597 Y-32.009
X17.655 Y-31.871
X17.711 Y-31.731
X17.765 Y-31.592
X17.817 Y-31.451
X17.867 Y-31.309
X17.914 Y-31.167
X17.96 Y-31.024
X18.004 Y-30.881
X18.045 Y-30.736
X18.084 Y-30.592
X18.121 Y-30.446
X18.156 Y-30.3
X18.188 Y-30.154
X18.218 Y-30.007
X18.245 Y-29.859
X18.271 Y-29.712
X18.294 Y-29.563
X18.314 Y-29.415
X18.332 Y-29.266
X18.347 Y-29.117
X18.361 Y-28.967
X18.371 Y-28.818
X18.379 Y-28.668
X18.384 Y-28.518
X18.388 Y-28.368
Y-28.218
X18.386 Y-28.068
X18.381 Y-27.918
X18.374 Y-27.768
X18.364 Y-27.618
X18.351 Y-27.469
X18.336 Y-27.32
X18.318 Y-27.171
X18.298 Y-27.022
X18.275 Y-26.874
X18.248 Y-26.726
X18.219 Y-26.579
X18.186 Y-26.433
X18.15 Y-26.287
X18.111 Y-26.142
X18.068 Y-25.999
X18.022 Y-25.856
X17.971 Y-25.715
X17.932 Y-25.615
X17.806 Y-25.368
X17.634 Y-25.151
X17.423 Y-24.972
X17.181 Y-24.838
X16.918 Y-24.754
X16.643 Y-24.724
X14.353 Y-24.699
G3 X13.811 Y-25.076 I0.015 J-0.6
G1 X13.779 Y-25.156
X6.252 Y-43.905
G3 X6.828 Y-44.728 I0.557 J-0.224
G1 X9.243 Y-44.564
X9.415 Y-44.543
X9.639 Y-44.497
X9.886 Y-44.425
X10.153 Y-44.323
X10.443 Y-44.185
X10.754 Y-44.005
X11.09 Y-43.773
X11.493 Y-43.443
X12.13 Y-42.831
X12.717 Y-42.168
X13.289 Y-41.491
X13.865 Y-40.817
X14.448 Y-40.15
X15.627 Y-38.827
X16.209 Y-38.16
X16.78 Y-37.481
X17.055 Y-37.134
X17.19 Y-36.958
X17.724 Y-36.251
X17.85 Y-36.069
X17.974 Y-35.886
X18.125 Y-35.724
X18.301 Y-35.588
X18.495 Y-35.482
X18.703 Y-35.407
X19.575 Y-35.245
X20.459 Y-35.292
X21.345 Y-35.325
X22.231 Y-35.347
X23.117 Y-35.363
X24.003 Y-35.374
X24.889 Y-35.382
X25.775 Y-35.387
X26.661 Y-35.391
X28.433 Y-35.396
X31.092 Y-35.399
X37.087 Y-35.4
X37.222 Y-35.336
X37.347 Y-35.252
X37.468 Y-35.153
X37.605 Y-35.021
X37.758 Y-34.847
X37.925 Y-34.624
X38.106 Y-34.338
X38.299 Y-33.969
X38.503 Y-33.489
X38.716 Y-32.848
X38.927 Y-31.987
X39.072 Y-31.113
X39.089 Y-30.966
X39.037 Y-30.825
X38.959 Y-30.697
X38.868 Y-30.578
X38.748 Y-30.446
X38.591 Y-30.299
X38.387 Y-30.137
X38.125 Y-29.961
X37.788 Y-29.772
X37.353 Y-29.572
X36.778 Y-29.362
X35.987 Y-29.143
X35.116 Y-28.976
X34.238 Y-28.861
X33.355 Y-28.782
X32.471 Y-28.727
X31.586 Y-28.688
X30.7 Y-28.662
X29.814 Y-28.643
X28.928 Y-28.63
X28.042 Y-28.621
X27.156 Y-28.615
X26.27 Y-28.61
X24.497 Y-28.605
X24.054 Y-28.604
X23.624 Y-28.497
X22.834 Y-28.097
X22.184 Y-27.494
X21.635 Y-26.799
X21.14 Y-26.064
X20.643 Y-25.33
X20.617 Y-25.296
X20.398 Y-25.072
X20.134 Y-24.902
X19.839 Y-24.795
X19.528 Y-24.756
X16.643 Y-24.724
G3 X16.1 Y-25.102 I0.015 J-0.6
G1 X16.068 Y-25.181
X8.666 Y-43.742
G3 X9.243 Y-44.564 I0.557 J-0.222
G1 X9.847 Y-44.519
X11.457 Y-44.394
X11.812 Y-44.348
X12.083 Y-44.291
X12.394 Y-44.198
X12.766 Y-44.055
X13.217 Y-43.837
X13.794 Y-43.499
X14.52 Y-42.992
X15.206 Y-42.431
X15.864 Y-41.838
X16.5 Y-41.221
X17.117 Y-40.585
X17.715 Y-39.931
X18.343 Y-39.306
X19.105 Y-38.853
X19.931 Y-38.531
X20.788 Y-38.305
X21.66 Y-38.147
X22.539 Y-38.038
X23.422 Y-37.963
X24.306 Y-37.911
X25.192 Y-37.876
X26.078 Y-37.851
X26.964 Y-37.835
X27.85 Y-37.824
X28.736 Y-37.816
X29.622 Y-37.811
X30.508 Y-37.807
X32.28 Y-37.803
X34.939 Y-37.801
X35.562 Y-37.777
X36.043 Y-37.72
X36.464 Y-37.635
X36.852 Y-37.524
X37.222 Y-37.384
X37.583 Y-37.215
X37.935 Y-37.013
X38.278 Y-36.778
X38.617 Y-36.503
X38.962 Y-36.174
X39.303 Y-35.793
X39.629 Y-35.362
X39.974 Y-34.822
X40.288 Y-34.23
X40.576 Y-33.564
X40.734 Y-33.099
X40.826 Y-32.732
X40.884 Y-32.39
X40.91 Y-32.082
X40.912 Y-31.784
X40.89 Y-31.493
X40.845 Y-31.203
X40.776 Y-30.912
X40.679 Y-30.617
X40.556 Y-30.321
X40.404 Y-30.027
X40.216 Y-29.725
X39.984 Y-29.412
X39.722 Y-29.111
X39.397 Y-28.794
X39.02 Y-28.481
X38.572 Y-28.166
X38.031 Y-27.847
X37.414 Y-27.548
X36.64 Y-27.246
X35.792 Y-26.992
X34.927 Y-26.796
X34.054 Y-26.647
X33.175 Y-26.533
X32.293 Y-26.448
X31.409 Y-26.384
X30.524 Y-26.336
X29.639 Y-26.3
X28.753 Y-26.274
X27.867 Y-26.254
X26.981 Y-26.239
X26.107 Y-26.097
X25.291 Y-25.752
X24.544 Y-25.274
X24.302 Y-25.089
X24.046 Y-24.933
X23.763 Y-24.835
X23.466 Y-24.8
X19.528 Y-24.756
G3 X18.993 Y-25.114 I0.014 J-0.6
G1 X18.95 Y-25.211
X10.882 Y-43.553
G3 X11.457 Y-44.394 I0.549 J-0.242
G1 X14.475 Y-44.158
X14.847 Y-44.11
X15.185 Y-44.039
X15.584 Y-43.92
X16.037 Y-43.745
X16.574 Y-43.487
X17.22 Y-43.108
X17.946 Y-42.601
X18.679 Y-42.103
X19.456 Y-41.677
X20.272 Y-41.33
X21.114 Y-41.055
X21.974 Y-40.841
X22.845 Y-40.677
X23.722 Y-40.553
X24.603 Y-40.46
X25.487 Y-40.39
X26.371 Y-40.339
X27.257 Y-40.301
X28.142 Y-40.273
X29.028 Y-40.253
X29.914 Y-40.238
X30.8 Y-40.227
X31.687 Y-40.22
X32.573 Y-40.214
X33.459 Y-40.204
X34.344 Y-40.172
X35.227 Y-40.093
X36.038 Y-39.961
X36.744 Y-39.787
X37.401 Y-39.567
X38.019 Y-39.304
X38.607 Y-38.996
X39.171 Y-38.64
X39.711 Y-38.235
X40.239 Y-37.768
X40.748 Y-37.239
X41.235 Y-36.644
X41.66 Y-36.031
X42.011 Y-35.426
X42.293 Y-34.834
X42.507 Y-34.274
X42.664 Y-33.738
X42.772 Y-33.213
X42.837 Y-32.696
X42.859 Y-32.187
X42.84 Y-31.684
X42.782 Y-31.188
X42.683 Y-30.697
X42.544 Y-30.208
X42.363 Y-29.724
X42.136 Y-29.24
X41.861 Y-28.759
X41.533 Y-28.279
X41.157 Y-27.814
X40.726 Y-27.36
X40.221 Y-26.908
X39.625 Y-26.455
X38.957 Y-26.027
X38.201 Y-25.624
X37.388 Y-25.272
X36.552 Y-24.979
X36.538 Y-24.975
X36.416 Y-24.946
X36.292 Y-24.928
X36.167 Y-24.922
X32.787 Y-24.894
X28.561 Y-24.854
X24.335 Y-24.809
X23.466 Y-24.8
G3 X22.943 Y-25.132 I0.014 J-0.6
G1 X22.883 Y-25.252
X13.912 Y-43.292
G3 X14.475 Y-44.158 I0.537 J-0.267
G1 X15.884 Y-44.048
X16.085 Y-44.032
X16.89 Y-43.961
X18.298 Y-43.836
X19.176 Y-43.713
X20.053 Y-43.585
X20.927 Y-43.439
X21.801 Y-43.295
X22.678 Y-43.165
X23.556 Y-43.052
X24.437 Y-42.957
X25.32 Y-42.879
X26.204 Y-42.817
X27.089 Y-42.767
X27.974 Y-42.728
X28.86 Y-42.697
X29.745 Y-42.674
X29.941 Y-42.67
X29.986 Y-42.668
X30.031 Y-42.665
X30.076 Y-42.66
X33.994 Y-42.199
X34.195 Y-42.174
X34.799 Y-42.096
X36.207 Y-41.907
X37.079 Y-41.745
X37.755 Y-41.575
X38.445 Y-41.342
X39.141 Y-41.043
X39.836 Y-40.675
X40.525 Y-40.236
X41.201 Y-39.725
X41.847 Y-39.149
X42.446 Y-38.522
X42.986 Y-37.858
X43.459 Y-37.17
X43.861 Y-36.47
X44.194 Y-35.764
X44.462 Y-35.056
X44.666 Y-34.348
X44.809 Y-33.644
X44.893 Y-32.946
X44.92 Y-32.252
X44.892 Y-31.563
X44.809 Y-30.879
X44.67 Y-30.199
X44.476 Y-29.527
X44.224 Y-28.864
X43.915 Y-28.21
X43.545 Y-27.568
X43.11 Y-26.936
X42.601 Y-26.312
X42.016 Y-25.701
X41.577 Y-25.311
X41.376 Y-25.162
X41.15 Y-25.051
X40.908 Y-24.982
X40.658 Y-24.957
X36.167 Y-24.922
G3 X35.583 Y-25.52 I0.016 J-0.6
G1 X35.548 Y-41.308
G3 X36.207 Y-41.907 I0.6 J-0.001
G1 X40.031 Y-41.392
X40.232 Y-41.364
X40.836 Y-41.274
X41.283 Y-41.184
X41.637 Y-41.083
X42.002 Y-40.945
X42.414 Y-40.752
X42.841 Y-40.507
X43.315 Y-40.183
X43.772 Y-39.813
X44.257 Y-39.351
X44.744 Y-38.807
X45.204 Y-38.201
X45.624 Y-37.544
X46.006 Y-36.826
X46.337 Y-36.061
X46.609 Y-35.261
X46.817 Y-34.437
X46.959 Y-33.596
X47.033 Y-32.744
X47.039 Y-31.886
X46.975 Y-31.027
X46.842 Y-30.171
X46.639 Y-29.32
X46.365 Y-28.479
X46.024 Y-27.661
X45.619 Y-26.872
X45.156 Y-26.117
X44.752 Y-25.557
X44.578 Y-25.359
X44.371 Y-25.197
X44.138 Y-25.076
X43.885 Y-25.002
X43.624 Y-24.976
X41.238 Y-24.962
X40.658 Y-24.957
G3 X40.075 Y-25.561 I0.016 J-0.6
G1 X40.168 Y-40.681
G3 X40.836 Y-41.274 I0.6 J0.004
G1 X43.854 Y-40.823
X44.222 Y-40.749
X44.49 Y-40.672
X44.795 Y-40.557
X45.102 Y-40.413
X45.457 Y-40.21
X45.804 Y-39.972
X46.197 Y-39.654
X46.575 Y-39.294
X46.976 Y-38.846
X47.383 Y-38.31
X47.755 Y-37.728
X48.116 Y-37.048
X48.447 Y-36.283
X48.731 Y-35.448
X48.948 Y-34.589
X49.098 Y-33.715
X49.181 Y-32.833
X49.198 Y-31.947
X49.151 Y-31.062
X49.043 Y-30.183
X48.875 Y-29.313
X48.649 Y-28.456
X48.366 Y-27.616
X48.025 Y-26.798
X47.631 Y-26.005
X47.431 Y-25.671
X47.259 Y-25.441
X47.044 Y-25.252
X46.795 Y-25.11
X46.522 Y-25.021
X46.237 Y-24.99
X43.624 Y-24.976
G3 X43.041 Y-25.581 I0.018 J-0.6
G1 X43.186 Y-40.232
G3 X43.854 Y-40.823 I0.6 J0.006
G1 X46.067 Y-40.491
X46.47 Y-40.428
X46.802 Y-40.358
X47.039 Y-40.288
X47.305 Y-40.185
X47.592 Y-40.047
X47.891 Y-39.872
X48.223 Y-39.641
X48.551 Y-39.37
X48.911 Y-39.021
X49.265 Y-38.618
X49.627 Y-38.132
X49.994 Y-37.546
X50.323 Y-36.913
X50.634 Y-36.176
X50.908 Y-35.345
X51.118 Y-34.484
X51.262 Y-33.61
X51.345 Y-32.727
X51.367 Y-31.841
X51.331 Y-30.956
X51.239 Y-30.075
X51.094 Y-29.201
X50.897 Y-28.337
X50.65 Y-27.486
X50.354 Y-26.65
X50.083 Y-26.035
X49.922 Y-25.738
X49.753 Y-25.492
X49.535 Y-25.287
X49.279 Y-25.133
X48.995 Y-25.038
X48.698 Y-25.004
X46.237 Y-24.99
G3 X45.655 Y-25.596 I0.018 J-0.6
G1 X45.796 Y-39.839
G3 X46.47 Y-40.428 I0.6 J0.006
G1 X48.885 Y-40.044
X49.184 Y-39.981
X49.406 Y-39.915
X49.666 Y-39.815
X49.924 Y-39.69
X50.217 Y-39.518
X50.514 Y-39.311
X50.836 Y-39.045
X51.161 Y-38.729
X51.506 Y-38.336
X51.839 Y-37.888
X52.187 Y-37.331
X52.506 Y-36.717
X52.806 Y-36.002
X53.078 Y-35.177
X53.286 Y-34.316
X53.43 Y-33.442
X53.515 Y-32.56
X53.543 Y-31.674
X53.517 Y-30.788
X53.438 Y-29.906
X53.31 Y-29.029
X53.135 Y-28.16
X52.912 Y-27.302
X52.663 Y-26.541
X52.446 Y-26.025
X52.315 Y-25.771
X52.146 Y-25.517
X51.927 Y-25.306
X51.667 Y-25.147
X51.379 Y-25.048
X51.076 Y-25.014
X49.689 Y-25.009
X48.698 Y-25.004
G3 X48.116 Y-25.608 I0.018 J-0.6
G1 X48.211 Y-39.453
G3 X48.885 Y-40.044 I0.6 J0.004
G1 X49.488 Y-39.947
X51.299 Y-39.651
X51.483 Y-39.611
X51.706 Y-39.544
X51.951 Y-39.448
X52.205 Y-39.325
X52.492 Y-39.155
X52.773 Y-38.957
X53.092 Y-38.691
X53.397 Y-38.392
X53.738 Y-38
X54.054 Y-37.571
X54.387 Y-37.034
X54.708 Y-36.411
X54.998 Y-35.713
X55.264 Y-34.892
X55.47 Y-34.03
X55.611 Y-33.155
X55.694 Y-32.273
X55.723 Y-31.388
X55.701 Y-30.502
X55.631 Y-29.618
X55.513 Y-28.74
X55.349 Y-27.869
X55.133 Y-27.01
X54.92 Y-26.377
X54.716 Y-25.902
X54.644 Y-25.767
X54.475 Y-25.517
X54.256 Y-25.308
X53.997 Y-25.152
X53.711 Y-25.055
X53.411 Y-25.021
X51.076 Y-25.014
G3 X50.495 Y-25.62 I0.019 J-0.6
G1 X50.623 Y-39.061
G3 X51.299 Y-39.651 I0.6 J0.006
G1 X52.507 Y-39.452
X53.513 Y-39.284
X53.743 Y-39.234
X53.966 Y-39.166
X54.2 Y-39.073
X54.452 Y-38.949
X54.731 Y-38.783
X55.009 Y-38.585
X55.321 Y-38.324
X55.621 Y-38.028
X55.954 Y-37.643
X56.265 Y-37.217
X56.589 Y-36.69
X56.907 Y-36.066
X57.193 Y-35.372
X57.456 Y-34.552
X57.658 Y-33.689
X57.797 Y-32.814
X57.879 Y-31.932
X57.908 Y-31.046
X57.889 Y-30.16
X57.823 Y-29.277
X57.711 Y-28.398
X57.547 Y-27.527
X57.357 Y-26.801
X57.168 Y-26.261
X56.969 Y-25.809
X56.943 Y-25.761
X56.773 Y-25.515
X56.554 Y-25.31
X56.297 Y-25.156
X56.014 Y-25.061
X55.716 Y-25.028
X53.411 Y-25.021
G3 X52.83 Y-25.621 I0.019 J-0.6
G1 X52.834 Y-38.69
G3 X53.513 Y-39.284 I0.6 J0
G1 X55.726 Y-38.913
X55.968 Y-38.86
X56.19 Y-38.792
X56.419 Y-38.701
X56.67 Y-38.577
X56.944 Y-38.413
X57.221 Y-38.216
X57.528 Y-37.957
X57.825 Y-37.663
X58.154 Y-37.282
X58.463 Y-36.858
X58.783 Y-36.335
X59.098 Y-35.714
X59.383 Y-35.021
X59.646 Y-34.197
X59.846 Y-33.334
X59.985 Y-32.459
X60.067 Y-31.577
X60.098 Y-30.691
X60.08 Y-29.805
X60.016 Y-28.921
X59.9 Y-28.043
X59.726 Y-27.176
X59.55 Y-26.56
X59.376 Y-26.097
X59.256 Y-25.84
X59.09 Y-25.571
X58.869 Y-25.347
X58.603 Y-25.177
X58.306 Y-25.071
X57.993 Y-25.035
X55.716 Y-25.028
G3 X55.135 Y-25.624 I0.019 J-0.6
G1 X55.047 Y-38.314
G3 X55.726 Y-38.913 I0.6 J-0.004
G1 X57.94 Y-38.537
X58.178 Y-38.484
X58.399 Y-38.416
X58.625 Y-38.326
X58.876 Y-38.202
X59.147 Y-38.04
X59.423 Y-37.842
X59.727 Y-37.586
X60.024 Y-37.292
X60.35 Y-36.913
X60.657 Y-36.49
X60.976 Y-35.969
X61.291 Y-35.347
X61.575 Y-34.652
X61.838 Y-33.825
X62.038 Y-32.961
X62.176 Y-32.086
X62.258 Y-31.204
X62.288 Y-30.318
X62.269 Y-29.432
X62.2 Y-28.549
X62.074 Y-27.672
X61.912 Y-26.943
X61.746 Y-26.405
X61.564 Y-25.949
X61.498 Y-25.816
X61.331 Y-25.555
X61.11 Y-25.337
X60.847 Y-25.174
X60.553 Y-25.072
X60.245 Y-25.037
X57.993 Y-25.035
G3 X57.412 Y-25.627 I0.019 J-0.6
G1 X57.26 Y-37.935
G3 X57.94 Y-38.537 I0.6 J-0.007
G1 X59.958 Y-38.193
X60.153 Y-38.16
X60.38 Y-38.109
X60.601 Y-38.04
X60.826 Y-37.95
X61.077 Y-37.826
X61.346 Y-37.664
X61.623 Y-37.466
X61.926 Y-37.209
X62.222 Y-36.915
X62.547 Y-36.535
X62.855 Y-36.111
X63.173 Y-35.589
X63.487 Y-34.966
X63.771 Y-34.268
X64.033 Y-33.44
X64.232 Y-32.576
X64.368 Y-31.7
X64.448 Y-30.818
X64.475 Y-29.932
X64.45 Y-29.046
X64.37 Y-28.164
X64.23 Y-27.322
X64.075 Y-26.7
X63.918 Y-26.233
X63.735 Y-25.806
X63.725 Y-25.786
X63.555 Y-25.534
X63.335 Y-25.325
X63.075 Y-25.169
X62.787 Y-25.072
X62.486 Y-25.039
X60.245 Y-25.037
G3 X59.666 Y-25.627 I0.02 J-0.6
G1 X59.472 Y-37.555
G3 X60.153 Y-38.16 I0.6 J-0.01
G1 X62.298 Y-37.791
X62.577 Y-37.729
X62.798 Y-37.661
X63.022 Y-37.571
X63.272 Y-37.447
X63.542 Y-37.285
X63.817 Y-37.087
X64.12 Y-36.831
X64.415 Y-36.538
X64.741 Y-36.158
X65.047 Y-35.736
X65.365 Y-35.214
X65.677 Y-34.593
X65.96 Y-33.899
X66.22 Y-33.076
X66.419 Y-32.213
X66.554 Y-31.337
X66.632 Y-30.454
X66.654 Y-29.568
X66.621 Y-28.683
X66.526 Y-27.802
X66.387 Y-27.068
X66.234 Y-26.508
X66.077 Y-26.074
X65.977 Y-25.857
X65.812 Y-25.583
X65.59 Y-25.354
X65.321 Y-25.182
X65.02 Y-25.074
X64.703 Y-25.038
X62.486 Y-25.039
G3 X61.907 Y-25.624 I0.021 J-0.6
G1 X61.618 Y-37.182
G3 X62.298 Y-37.791 I0.6 J-0.015
G1 X64.58 Y-37.399
X64.769 Y-37.356
X64.915 Y-37.322
X65.059 Y-37.28
X65.2 Y-37.231
X65.339 Y-37.174
X65.475 Y-37.11
X65.608 Y-37.041
X65.738 Y-36.966
X65.865 Y-36.886
X65.989 Y-36.802
X66.11 Y-36.713
X66.227 Y-36.62
X66.342 Y-36.523
X66.454 Y-36.423
X66.562 Y-36.319
X66.668 Y-36.212
X66.77 Y-36.103
X66.87 Y-35.991
X66.967 Y-35.876
X67.061 Y-35.759
X67.152 Y-35.64
X67.24 Y-35.519
X67.325 Y-35.395
X67.408 Y-35.27
X67.488 Y-35.144
X67.566 Y-35.015
X67.641 Y-34.886
X67.714 Y-34.754
X67.784 Y-34.622
X67.851 Y-34.488
X67.917 Y-34.353
X67.98 Y-34.217
X68.041 Y-34.079
X68.099 Y-33.941
X68.155 Y-33.802
X68.209 Y-33.662
X68.261 Y-33.521
X68.31 Y-33.38
X68.358 Y-33.238
X68.404 Y-33.095
X68.447 Y-32.951
X68.489 Y-32.807
X68.528 Y-32.662
X68.566 Y-32.517
X68.602 Y-32.372
X68.636 Y-32.226
X68.668 Y-32.079
X68.699 Y-31.932
X68.727 Y-31.785
X68.754 Y-31.637
X68.779 Y-31.489
X68.802 Y-31.341
X68.824 Y-31.193
X68.843 Y-31.044
X68.861 Y-30.895
X68.877 Y-30.746
X68.892 Y-30.597
X68.905 Y-30.447
X68.916 Y-30.298
X68.926 Y-30.148
X68.934 Y-29.998
X68.94 Y-29.848
X68.944 Y-29.698
X68.946 Y-29.548
X68.947 Y-29.398
X68.946 Y-29.248
X68.944 Y-29.098
X68.939 Y-28.948
X68.933 Y-28.799
X68.924 Y-28.649
X68.914 Y-28.499
X68.902 Y-28.35
X68.888 Y-28.2
X68.872 Y-28.051
X68.854 Y-27.902
X68.834 Y-27.754
X68.812 Y-27.605
X68.787 Y-27.457
X68.761 Y-27.31
X68.731 Y-27.163
X68.699 Y-27.016
X68.664 Y-26.87
X68.626 Y-26.725
X68.586 Y-26.581
X68.542 Y-26.437
X68.495 Y-26.295
X68.443 Y-26.154
X68.389 Y-26.014
X68.323 Y-25.859
X68.159 Y-25.584
X67.936 Y-25.353
X67.666 Y-25.179
X67.364 Y-25.071
X67.045 Y-25.035
X65.385 Y-25.038
X64.703
G3 X64.124 Y-25.626 I0.021 J-0.6
G1 X63.899 Y-36.792
G3 X64.58 Y-37.399 I0.6 J-0.012
G1 X66.794 Y-37.017
X67.097 Y-36.949
X67.31 Y-36.883
X67.539 Y-36.792
X67.785 Y-36.669
X68.049 Y-36.51
X68.328 Y-36.311
X68.619 Y-36.064
X68.922 Y-35.762
X69.233 Y-35.399
X69.548 Y-34.965
X69.86 Y-34.451
X70.06 Y-34.056
X70.356 Y-33.726
X71.083 Y-33.22
X71.907 Y-32.894
X72.764 Y-32.666
X73.628 Y-32.471
X74.055 Y-32.353
X74.615 Y-32.187
X75.236 Y-31.946
X75.628 Y-31.758
X76.1 Y-31.481
X76.384 Y-31.282
X76.701 Y-31.021
X77 Y-30.731
X77.21 Y-30.491
X77.442 Y-30.179
X77.626 Y-29.885
X77.765 Y-29.616
X77.909 Y-29.276
X78.008 Y-28.975
X78.075 Y-28.695
X78.13 Y-28.349
X78.154 Y-28.041
X78.153 Y-27.767
X78.125 Y-27.435
X78.074 Y-27.126
X78.011 Y-26.872
X77.91 Y-26.573
X77.781 Y-26.273
X77.665 Y-26.053
X77.504 Y-25.799
X77.298 Y-25.526
X77.249 Y-25.471
X77.029 Y-25.271
X76.772 Y-25.122
X76.49 Y-25.03
X76.194 Y-25.001
X72.629 Y-25.019
X69.208 Y-25.031
X67.045 Y-25.035
G3 X66.467 Y-25.615 I0.022 J-0.6
G1 X66.113 Y-36.403
G3 X66.794 Y-37.017 I0.6 J-0.02
G1 X69.007 Y-36.637
X69.274 Y-36.577
X69.494 Y-36.509
X70.316 Y-36.18
X71.138 Y-35.848
X71.974 Y-35.554
X72.817 Y-35.28
X73.66 Y-35.007
X74.496 Y-34.715
X75.318 Y-34.383
X76.069 Y-34.022
X76.731 Y-33.635
X77.291 Y-33.245
X77.781 Y-32.841
X78.209 Y-32.426
X78.594 Y-31.988
X78.929 Y-31.539
X79.213 Y-31.086
X79.456 Y-30.619
X79.653 Y-30.153
X79.81 Y-29.679
X79.926 Y-29.2
X80.002 Y-28.727
X80.039 Y-28.252
X80.038 Y-27.775
X80 Y-27.313
X79.925 Y-26.859
X79.814 Y-26.408
X79.684 Y-26.02
X79.605 Y-25.836
X79.473 Y-25.596
X79.298 Y-25.386
X79.085 Y-25.215
X78.842 Y-25.088
X78.58 Y-25.011
X78.308 Y-24.986
X76.194 Y-25.001
G3 X75.727 Y-25.257 I0.024 J-0.6
G1 X75.593 Y-25.448
X68.434 Y-35.699
G3 X69.007 Y-36.637 I0.492 J-0.344
G1 X71.422 Y-36.223
X74.641 Y-35.674
X76.377 Y-35.381
X76.901 Y-35.265
X77.31 Y-35.14
X77.734 Y-34.972
X78.187 Y-34.748
X78.645 Y-34.474
X79.091 Y-34.157
X79.53 Y-33.788
X79.954 Y-33.368
X80.353 Y-32.905
X80.719 Y-32.404
X81.048 Y-31.868
X81.333 Y-31.306
X81.573 Y-30.722
X81.766 Y-30.118
X81.909 Y-29.504
X82.002 Y-28.881
X82.045 Y-28.254
X82.037 Y-27.638
X81.987 Y-27.097
X81.907 Y-26.64
X81.8 Y-26.224
X81.679 Y-25.875
X81.649 Y-25.806
X81.484 Y-25.526
X81.259 Y-25.29
X80.985 Y-25.113
X80.678 Y-25.005
X80.355 Y-24.969
X78.465 Y-24.985
X78.308 Y-24.986
G3 X77.747 Y-25.456 I0.025 J-0.599
G1 X75.712 Y-34.657
G3 X76.377 Y-35.381 I0.586 J-0.13
G1 X78.762 Y-34.979
X79.672 Y-34.828
X79.921 Y-34.773
X80.187 Y-34.693
X80.46 Y-34.585
X80.762 Y-34.437
X81.069 Y-34.255
X81.404 Y-34.017
X81.728 Y-33.747
X82.071 Y-33.409
X82.409 Y-33.019
X82.726 Y-32.586
X83.035 Y-32.087
X83.32 Y-31.528
X83.572 Y-30.92
X83.778 Y-30.28
X83.936 Y-29.609
X84.04 Y-28.927
X84.087 Y-28.261
X84.081 Y-27.625
X84.034 Y-27.101
X83.951 Y-26.619
X83.851 Y-26.23
X83.722 Y-25.853
X83.695 Y-25.791
X83.53 Y-25.509
X83.305 Y-25.273
X83.03 Y-25.095
X82.722 Y-24.986
X82.397 Y-24.951
X80.355 Y-24.969
G3 X79.783 Y-25.515 I0.026 J-0.599
G1 X78.997 Y-34.179
G3 X79.672 Y-34.828 I0.598 J-0.054
G1 X82.087 Y-34.427
X82.335 Y-34.373
X82.556 Y-34.306
X82.801 Y-34.209
X83.052 Y-34.086
X83.332 Y-33.92
X83.609 Y-33.724
X83.911 Y-33.471
X84.208 Y-33.179
X84.511 Y-32.828
X84.818 Y-32.41
X85.098 Y-31.957
X85.369 Y-31.427
X85.614 Y-30.834
X85.819 Y-30.198
X85.974 Y-29.539
X86.076 Y-28.871
X86.122 Y-28.217
X86.116 Y-27.585
X86.07 Y-27.067
X85.988 Y-26.591
X85.889 Y-26.204
X85.76 Y-25.83
X85.734 Y-25.77
X85.569 Y-25.488
X85.343 Y-25.251
X85.069 Y-25.074
X84.761 Y-24.965
X84.435 Y-24.93
X82.397 Y-24.951
G3 X81.825 Y-25.52 I0.027 J-0.599
G1 X81.41 Y-33.802
G3 X82.087 Y-34.427 I0.599 J-0.03
G1 X83.093 Y-34.261
X84.3 Y-34.067
X84.526 Y-34.019
X84.742 Y-33.954
X84.96 Y-33.87
X85.208 Y-33.75
X85.458 Y-33.603
X85.732 Y-33.412
X86.005 Y-33.185
X86.299 Y-32.899
X86.579 Y-32.579
X86.872 Y-32.184
X87.144 Y-31.748
X87.4 Y-31.254
X87.635 Y-30.693
X87.836 Y-30.081
X87.989 Y-29.448
X88.09 Y-28.804
X88.138 Y-28.169
X88.136 Y-27.552
X88.092 Y-27.044
X88.014 Y-26.574
X87.918 Y-26.191
X87.792 Y-25.818
X87.765 Y-25.754
X87.632 Y-25.514
X87.456 Y-25.305
X87.242 Y-25.133
X86.999 Y-25.007
X86.735 Y-24.931
X86.463 Y-24.907
X84.435 Y-24.93
G3 X83.863 Y-25.512 I0.028 J-0.599
G1 X83.626 Y-33.454
G3 X84.3 Y-34.067 I0.6 J-0.018
G1 X86.514 Y-33.711
X86.66 Y-33.68
X86.866 Y-33.618
X87.083 Y-33.533
X87.324 Y-33.415
X87.566 Y-33.271
X87.834 Y-33.082
X88.097 Y-32.862
X88.379 Y-32.586
X88.654 Y-32.268
X88.927 Y-31.898
X89.199 Y-31.458
X89.441 Y-30.986
X89.661 Y-30.456
X89.851 Y-29.87
X89.995 Y-29.26
X90.091 Y-28.638
X90.135 Y-28.026
X90.13 Y-27.432
X90.085 Y-26.931
X90.013 Y-26.509
X89.911 Y-26.11
X89.796 Y-25.772
X89.776 Y-25.726
X89.611 Y-25.443
X89.385 Y-25.206
X89.11 Y-25.028
X88.801 Y-24.919
X88.476 Y-24.884
X86.463 Y-24.907
G3 X85.89 Y-25.502 I0.028 J-0.599
G1 X85.839 Y-33.112
G3 X86.514 Y-33.711 I0.6 J-0.004
G1 X88.526 Y-33.388
X88.736 Y-33.343
X88.935 Y-33.284
X89.149 Y-33.201
X89.381 Y-33.089
X89.619 Y-32.949
X89.876 Y-32.769
X90.134 Y-32.555
X90.403 Y-32.293
X90.674 Y-31.983
X90.935 Y-31.632
X91.197 Y-31.212
X91.434 Y-30.754
X91.645 Y-30.25
X91.829 Y-29.692
X91.97 Y-29.106
X92.063 Y-28.513
X92.108 Y-27.921
X92.106 Y-27.355
X92.066 Y-26.882
X91.995 Y-26.458
X91.901 Y-26.084
X91.783 Y-25.734
X91.772 Y-25.709
X91.64 Y-25.469
X91.463 Y-25.259
X91.249 Y-25.088
X91.006 Y-24.962
X90.743 Y-24.885
X90.47 Y-24.862
X88.476 Y-24.884
G3 X87.904 Y-25.479 I0.028 J-0.599
G1 X87.851 Y-32.788
G3 X88.526 Y-33.388 I0.6 J-0.004
G1 X90.538 Y-33.064
X90.787 Y-33.011
X90.976 Y-32.955
X91.192 Y-32.871
X91.412 Y-32.765
X91.653 Y-32.623
X91.897 Y-32.453
X92.157 Y-32.237
X92.412 Y-31.989
X92.682 Y-31.681
X92.932 Y-31.344
X93.18 Y-30.945
X93.416 Y-30.489
X93.62 Y-30.005
X93.794 Y-29.475
X93.928 Y-28.918
X94.017 Y-28.349
X94.061 Y-27.782
X94.058 Y-27.254
X94.019 Y-26.79
X93.954 Y-26.399
X93.859 Y-26.021
X93.749 Y-25.695
X93.745 Y-25.687
X93.613 Y-25.447
X93.436 Y-25.237
X93.222 Y-25.066
X92.979 Y-24.94
X92.716 Y-24.863
X92.443 Y-24.84
X90.47 Y-24.862
G3 X89.898 Y-25.458 I0.028 J-0.599
G1 X89.864 Y-32.466
G3 X90.538 Y-33.064 I0.6 J-0.003
G1 X91.544 Y-32.903
X91.746 Y-32.872
X92.55 Y-32.749
X92.777 Y-32.703
X92.962 Y-32.65
X93.174 Y-32.57
X93.39 Y-32.467
X93.627 Y-32.331
X93.865 Y-32.168
X94.121 Y-31.959
X94.369 Y-31.722
X94.631 Y-31.427
X94.877 Y-31.102
X95.118 Y-30.723
X95.349 Y-30.286
X95.55 Y-29.818
X95.719 Y-29.317
X95.852 Y-28.786
X95.942 Y-28.245
X95.988 Y-27.699
X95.99 Y-27.2
X95.956 Y-26.752
X95.896 Y-26.372
X95.806 Y-26.002
X95.699 Y-25.677
X95.568 Y-25.435
X95.392 Y-25.223
X95.178 Y-25.05
X94.934 Y-24.922
X94.67 Y-24.844
X94.396 Y-24.82
X93.355 Y-24.83
X92.443 Y-24.84
G3 X91.871 Y-25.44 I0.028 J-0.599
G1 X91.881 Y-32.154
G3 X92.55 Y-32.749 I0.6 J0.001
G1 X94.563 Y-32.443
X94.759 Y-32.404
X94.942 Y-32.35
X95.153 Y-32.271
X95.364 Y-32.171
X95.6 Y-32.035
X95.832 Y-31.876
X96.083 Y-31.671
X96.328 Y-31.437
X96.579 Y-31.155
X96.828 Y-30.825
X97.057 Y-30.465
X97.277 Y-30.049
X97.475 Y-29.589
X97.639 Y-29.101
X97.766 Y-28.596
X97.852 Y-28.079
X97.896 Y-27.558
X97.897 Y-27.104
X97.865 Y-26.674
X97.806 Y-26.304
X97.721 Y-25.951
X97.66 Y-25.766
X97.54 Y-25.498
X97.366 Y-25.261
X97.147 Y-25.066
X96.892 Y-24.92
X96.612 Y-24.831
X96.319 Y-24.803
X94.396 Y-24.82
G3 X93.822 Y-25.426 I0.026 J-0.599
G1 X93.893 Y-31.854
G3 X94.563 Y-32.443 I0.6 J0.007
G1 X96.575 Y-32.138
X96.722 Y-32.108
X96.906 Y-32.054
X97.112 Y-31.976
X97.321 Y-31.876
X97.552 Y-31.743
X97.783 Y-31.583
X98.026 Y-31.384
X98.272 Y-31.148
X98.512 Y-30.877
X98.756 Y-30.553
X98.98 Y-30.198
X99.19 Y-29.8
X99.377 Y-29.361
X99.535 Y-28.892
X99.655 Y-28.407
X99.736 Y-27.91
X99.775 Y-27.44
X99.776 Y-26.987
X99.746 Y-26.606
X99.686 Y-26.227
X99.607 Y-25.904
X99.556 Y-25.75
X99.435 Y-25.483
X99.262 Y-25.247
X99.043 Y-25.052
X98.789 Y-24.907
X98.51 Y-24.818
X98.218 Y-24.789
X96.319 Y-24.803
G3 X95.745 Y-25.418 I0.026 J-0.599
G1 X95.906 Y-31.557
G3 X96.575 Y-32.138 I0.6 J0.016
G1 X98.386 Y-31.862
X98.66 Y-31.807
X98.842 Y-31.754
X99.041 Y-31.678
X99.249 Y-31.58
X99.472 Y-31.452
X99.7 Y-31.295
X99.935 Y-31.104
X100.177 Y-30.872
X100.409 Y-30.612
X100.644 Y-30.301
X100.865 Y-29.953
X101.064 Y-29.576
X101.244 Y-29.158
X101.394 Y-28.714
X101.51 Y-28.25
X101.588 Y-27.777
X101.626 Y-27.336
X101.627 Y-26.906
X101.6 Y-26.541
X101.542 Y-26.177
X101.466 Y-25.864
X101.427 Y-25.743
X101.307 Y-25.476
X101.134 Y-25.239
X100.915 Y-25.044
X100.661 Y-24.898
X100.382 Y-24.809
X100.09 Y-24.78
X98.218 Y-24.789
G3 X97.643 Y-25.396 I0.025 J-0.599
G1 X97.717 Y-31.274
G3 X98.386 Y-31.862 I0.6 J0.008
G1 X100.346 Y-31.564
X100.566 Y-31.519
X100.75 Y-31.467
X100.942 Y-31.394
X101.15 Y-31.295
X101.364 Y-31.172
X101.593 Y-31.015
X101.817 Y-30.832
X102.055 Y-30.605
X102.281 Y-30.351
X102.505 Y-30.054
X102.721 Y-29.714
X102.916 Y-29.346
X103.086 Y-28.95
X103.228 Y-28.529
X103.339 Y-28.086
X103.414 Y-27.634
X103.449 Y-27.222
X103.451 Y-26.822
X103.424 Y-26.469
X103.369 Y-26.123
X103.295 Y-25.817
X103.269 Y-25.736
X103.149 Y-25.469
X102.976 Y-25.233
X102.758 Y-25.038
X102.504 Y-24.893
X102.226 Y-24.803
X101.935 Y-24.773
X100.801 Y-24.776
X100.09 Y-24.78
G3 X99.514 Y-25.397 I0.024 J-0.6
G1 X99.677 Y-30.986
G3 X100.346 Y-31.564 I0.6 J0.017
G1 X101.203 Y-31.441
X102.209 Y-31.298
X102.416 Y-31.258
X102.595 Y-31.209
X102.784 Y-31.139
X102.989 Y-31.045
X103.197 Y-30.928
X103.421 Y-30.777
X103.64 Y-30.603
X103.872 Y-30.386
X104.094 Y-30.141
X104.311 Y-29.859
X104.521 Y-29.537
X104.712 Y-29.184
X104.879 Y-28.807
X105.019 Y-28.407
X105.128 Y-27.986
X105.204 Y-27.558
X105.241 Y-27.167
X105.247 Y-26.788
X105.224 Y-26.446
X105.175 Y-26.113
X105.106 Y-25.814
X105.084 Y-25.745
X104.966 Y-25.476
X104.794 Y-25.236
X104.576 Y-25.038
X104.321 Y-24.89
X104.041 Y-24.799
X103.748 Y-24.769
X101.935 Y-24.773
G3 X101.358 Y-25.394 I0.023 J-0.6
G1 X101.546 Y-30.723
G3 X102.209 Y-31.298 I0.6 J0.021
G1 X104.02 Y-31.042
X104.263 Y-30.995
X104.443 Y-30.945
X104.625 Y-30.878
X104.829 Y-30.785
X105.031 Y-30.671
X105.249 Y-30.524
X105.467 Y-30.351
X105.686 Y-30.146
X105.909 Y-29.9
X106.118 Y-29.629
X106.316 Y-29.325
X106.5 Y-28.985
X106.662 Y-28.619
X106.797 Y-28.232
X106.902 Y-27.83
X106.97 Y-27.442
X107.006 Y-27.062
X107.011 Y-26.717
X106.989 Y-26.379
X106.943 Y-26.067
X106.875 Y-25.77
X106.867 Y-25.744
X106.749 Y-25.475
X106.577 Y-25.236
X106.359 Y-25.038
X106.104 Y-24.89
X105.824 Y-24.798
X105.531 Y-24.767
X103.748 Y-24.769
G3 X103.17 Y-25.39 I0.022 J-0.6
G1 X103.357 Y-30.467
G3 X104.02 Y-31.042 I0.6 J0.022
G1 X105.928 Y-30.772
X106.08 Y-30.743
X106.256 Y-30.694
X106.292 Y-30.681
X106.547 Y-30.556
X106.772 Y-30.383
X106.958 Y-30.168
X107.096 Y-29.92
X107.181 Y-29.649
X107.21 Y-29.366
G3 X106.174 Y-28.975 I-0.6 J-0.021
G1 X105.429 Y-29.763
G3 X105.928 Y-30.772 I0.436 J-0.412
G1 X106.636 Y-30.672
X106.737 Y-30.654
X106.787 Y-30.64
X106.837 Y-30.62
X106.89 Y-30.593
X106.942 Y-30.56
X106.991 Y-30.524
X107.039 Y-30.48
X107.091 Y-30.42
X107.13 Y-30.359
X107.156 Y-30.309
X107.176 Y-30.259
X107.202 Y-30.158
X107.21 Y-29.957
Y-25.538
X107.208 Y-25.337
X107.192 Y-25.237
X107.177 Y-25.187
X107.157 Y-25.136
X107.109 Y-25.05
X107.077 Y-25.006
X107.039 Y-24.963
X107.01 Y-24.935
X106.924 Y-24.866
X106.837 Y-24.819
X106.787 Y-24.799
X106.737 Y-24.784
X106.636 Y-24.769
X106.435 Y-24.767
X105.531
G3 X104.968 Y-25.232 I0.021 J-0.6
G1 X104.947 Y-25.324 Z-6.993
X104.926 Y-25.413 Z-6.971
X104.907 Y-25.498 Z-6.935
X104.889 Y-25.576 Z-6.885
X104.873 Y-25.646 Z-6.824
X104.859 Y-25.705 Z-6.753
X104.848 Y-25.753 Z-6.672
X104.84 Y-25.788 Z-6.585
X104.835 Y-25.81 Z-6.494
X104.833 Y-25.817 Z-6.4
Z-5.8
X16.987 Y-43.423
Z-6.4
X16.994 Y-43.426 Z-6.494
X17.014 Y-43.435 Z-6.585
X17.046 Y-43.451 Z-6.672
X17.09 Y-43.472 Z-6.753
X17.146 Y-43.499 Z-6.824
X17.21 Y-43.53 Z-6.885
X17.282 Y-43.564 Z-6.935
X17.361 Y-43.602 Z-6.971
X17.443 Y-43.642 Z-6.993
X17.528 Y-43.682 Z-7
G3 X18.298 Y-43.836 I0.685 J1.427
G1 X22.122 Y-43.494
X22.725 Y-43.438
X28.158 Y-42.881
X28.781 Y-42.813
X30.076 Y-42.66
G3 X30.582 Y-42.133 I-0.091 J0.593
G1 X30.592 Y-42.04 Z-6.993
X30.602 Y-41.949 Z-6.971
X30.611 Y-41.862 Z-6.935
X30.62 Y-41.782 Z-6.885
X30.628 Y-41.711 Z-6.824
X30.635 Y-41.65 Z-6.753
X30.64 Y-41.602 Z-6.672
X30.644 Y-41.566 Z-6.585
X30.646 Y-41.544 Z-6.494
X30.647 Y-41.537 Z-6.4
Z-5.8
X-28.103 Y-25.662
Z-6.4
X-28.109 Y-25.658 Z-6.494
X-28.128 Y-25.648 Z-6.585
X-28.16 Y-25.63 Z-6.672
X-28.203 Y-25.607 Z-6.753
X-28.257 Y-25.578 Z-6.824
X-28.32 Y-25.544 Z-6.885
X-28.391 Y-25.506 Z-6.935
X-28.467 Y-25.464 Z-6.971
X-28.548 Y-25.421 Z-6.993
X-28.63 Y-25.376 Z-7
G3 X-29.392 Y-25.185 I-0.753 J-1.392
G1 X-31.606 Y-25.275
X-32.008 Y-25.294
X-32.218 Y-25.314
X-32.46 Y-25.358
X-32.734 Y-25.43
X-33.039 Y-25.537
X-33.354 Y-25.677
X-33.718 Y-25.876
X-34.075 Y-26.109
X-34.487 Y-26.429
X-34.885 Y-26.793
X-35.319 Y-27.258
X-35.767 Y-27.825
X-36.199 Y-28.47
X-36.63 Y-29.241
X-36.998 Y-30.047
X-37.309 Y-30.877
X-37.564 Y-31.726
X-37.769 Y-32.588
X-37.924 Y-33.46
X-38.032 Y-34.34
X-38.094 Y-35.224
X-38.111 Y-36.11
X-38.082 Y-36.996
X-38.011 Y-37.879
X-37.897 Y-38.758
X-37.742 Y-39.63
X-37.546 Y-40.494
X-37.309 Y-41.348
X-37.034 Y-42.19
X-36.718 Y-43.018
X-36.364 Y-43.831
X-35.972 Y-44.625
X-35.561 Y-45.364
X-35.452 Y-45.528
X-35.279 Y-45.74
X-35.068 Y-45.914
X-34.827 Y-46.044
X-34.566 Y-46.124
X-34.294 Y-46.152
X-32.209 Y-46.163
X-31.615 Y-46.164
G3 X-31.035 Y-45.553 I-0.02 J0.6
G1 X-31.401 Y-25.883
G3 X-32.008 Y-25.294 I-0.6 J-0.011
G1 X-32.411 Y-25.314
X-34.423 Y-25.422
X-34.671 Y-25.448
X-34.902 Y-25.491
X-35.175 Y-25.565
X-35.452 Y-25.664
X-35.765 Y-25.806
X-36.098 Y-25.99
X-36.45 Y-26.224
X-36.833 Y-26.525
X-37.223 Y-26.885
X-37.628 Y-27.326
X-38.057 Y-27.875
X-38.474 Y-28.506
X-38.886 Y-29.256
X-39.25 Y-30.064
X-39.554 Y-30.897
X-39.803 Y-31.747
X-40.003 Y-32.61
X-40.155 Y-33.483
X-40.262 Y-34.363
X-40.325 Y-35.247
X-40.347 Y-36.133
X-40.327 Y-37.018
X-40.266 Y-37.903
X-40.167 Y-38.783
X-40.029 Y-39.658
X-39.854 Y-40.527
X-39.643 Y-41.388
X-39.395 Y-42.239
X-39.113 Y-43.078
X-38.795 Y-43.906
X-38.442 Y-44.718
X-38.129 Y-45.324
X-38.034 Y-45.478
X-37.862 Y-45.701
X-37.648 Y-45.885
X-37.402 Y-46.023
X-37.133 Y-46.109
X-36.852 Y-46.139
X-34.294 Y-46.152
G3 X-33.712 Y-45.549 I-0.018 J0.6
G1 X-33.811 Y-26.019
G3 X-34.423 Y-25.422 I-0.6 J-0.003
G1 X-36.837 Y-25.552
X-37.024 Y-25.571
X-37.251 Y-25.614
X-37.517 Y-25.686
X-37.784 Y-25.782
X-38.093 Y-25.921
X-38.41 Y-26.097
X-38.757 Y-26.327
X-39.122 Y-26.614
X-39.504 Y-26.968
X-39.895 Y-27.392
X-40.311 Y-27.924
X-40.717 Y-28.539
X-41.12 Y-29.273
X-41.484 Y-30.081
X-41.787 Y-30.913
X-42.035 Y-31.764
X-42.234 Y-32.628
X-42.386 Y-33.501
X-42.495 Y-34.38
X-42.563 Y-35.263
X-42.59 Y-36.149
X-42.578 Y-37.035
X-42.528 Y-37.92
X-42.442 Y-38.802
X-42.32 Y-39.68
X-42.163 Y-40.552
X-41.973 Y-41.417
X-41.75 Y-42.275
X-41.494 Y-43.123
X-41.206 Y-43.961
X-40.878 Y-44.784
X-40.613 Y-45.319
X-40.547 Y-45.429
X-40.377 Y-45.657
X-40.164 Y-45.846
X-39.918 Y-45.988
X-39.649 Y-46.077
X-39.366 Y-46.11
X-38.045 Y-46.129
X-37.642 Y-46.134
X-36.852 Y-46.139
G3 X-36.27 Y-45.54 I-0.018 J0.6
G1 X-36.226 Y-26.153
G3 X-36.837 Y-25.552 I-0.6 J0.001
G1 X-39.051 Y-25.671
X-39.341 Y-25.701
X-39.568 Y-25.743
X-39.826 Y-25.813
X-40.089 Y-25.908
X-40.396 Y-26.047
X-40.7 Y-26.215
X-41.047 Y-26.445
X-41.396 Y-26.72
X-41.779 Y-27.074
X-42.156 Y-27.484
X-42.563 Y-28.003
X-42.966 Y-28.615
X-43.362 Y-29.335
X-43.726 Y-30.143
X-44.028 Y-30.976
X-44.275 Y-31.827
X-44.474 Y-32.691
X-44.626 Y-33.564
X-44.736 Y-34.443
X-44.806 Y-35.326
X-44.838 Y-36.212
X-44.833 Y-37.098
X-44.792 Y-37.983
X-44.716 Y-38.866
X-44.606 Y-39.745
X-44.464 Y-40.62
X-44.291 Y-41.489
X-44.087 Y-42.351
X-43.851 Y-43.206
X-43.582 Y-44.05
X-43.305 Y-44.778
X-43.064 Y-45.284
X-43.011 Y-45.375
X-42.842 Y-45.608
X-42.628 Y-45.802
X-42.38 Y-45.948
X-42.106 Y-46.04
X-41.82 Y-46.074
X-39.366 Y-46.11
G3 X-38.779 Y-45.521 I-0.012 J0.6
G1 X-38.44 Y-26.281
G3 X-39.051 Y-25.671 I-0.6 J0.011
G1 X-39.655 Y-25.704
X-40.26 Y-25.739
X-41.466 Y-25.82
X-41.673 Y-25.844
X-41.907 Y-25.891
X-42.156 Y-25.962
X-42.425 Y-26.063
X-42.73 Y-26.206
X-43.034 Y-26.379
X-43.385 Y-26.619
X-43.724 Y-26.893
X-44.111 Y-27.261
X-44.481 Y-27.674
X-44.878 Y-28.196
X-45.285 Y-28.83
X-45.68 Y-29.573
X-46.033 Y-30.386
X-46.324 Y-31.222
X-46.562 Y-32.076
X-46.751 Y-32.942
X-46.896 Y-33.816
X-46.999 Y-34.696
X-47.064 Y-35.58
X-47.093 Y-36.465
X-47.086 Y-37.351
X-47.046 Y-38.237
X-46.974 Y-39.12
X-46.871 Y-40
X-46.736 Y-40.876
X-46.571 Y-41.746
X-46.376 Y-42.611
X-46.148 Y-43.467
X-45.88 Y-44.312
X-45.637 Y-44.92
X-45.472 Y-45.253
X-45.309 Y-45.509
X-45.094 Y-45.723
X-44.838 Y-45.886
X-44.553 Y-45.991
X-44.252 Y-46.031
X-43.679 Y-46.045
X-42.673 Y-46.061
X-41.82 Y-46.074
G3 X-41.232 Y-45.486 I-0.012 J0.6
G1 X-40.846 Y-26.432
G3 X-41.466 Y-25.82 I-0.6 J0.012
G1 X-43.679 Y-25.969
X-43.971 Y-26.003
X-44.197 Y-26.048
X-44.448 Y-26.12
X-44.709 Y-26.218
X-45.013 Y-26.36
X-45.313 Y-26.531
X-45.656 Y-26.766
X-45.998 Y-27.042
X-46.376 Y-27.401
X-46.745 Y-27.813
X-47.143 Y-28.336
X-47.539 Y-28.955
X-47.927 Y-29.683
X-48.28 Y-30.496
X-48.571 Y-31.332
X-48.809 Y-32.186
X-48.999 Y-33.052
X-49.145 Y-33.926
X-49.25 Y-34.805
X-49.318 Y-35.689
X-49.351 Y-36.574
X-49.35 Y-37.461
X-49.317 Y-38.346
X-49.253 Y-39.23
X-49.158 Y-40.111
X-49.034 Y-40.988
X-48.88 Y-41.861
X-48.695 Y-42.728
X-48.475 Y-43.586
X-48.217 Y-44.408
X-48 Y-44.944
X-47.872 Y-45.199
X-47.708 Y-45.453
X-47.494 Y-45.666
X-47.239 Y-45.828
X-46.955 Y-45.932
X-46.655 Y-45.972
X-44.252 Y-46.031
G3 X-43.659 Y-45.45 I-0.006 J0.6
G1 X-43.06 Y-26.587
G3 X-43.679 Y-25.969 I-0.6 J0.019
G1 X-46.094 Y-26.131
X-46.243 Y-26.149
X-46.47 Y-26.194
X-46.72 Y-26.266
X-46.982 Y-26.365
X-47.285 Y-26.507
X-47.583 Y-26.678
X-47.927 Y-26.914
X-48.264 Y-27.187
X-48.643 Y-27.548
X-49.008 Y-27.957
X-49.403 Y-28.477
X-49.801 Y-29.1
X-50.187 Y-29.828
X-50.538 Y-30.642
X-50.829 Y-31.479
X-51.066 Y-32.333
X-51.255 Y-33.199
X-51.401 Y-34.073
X-51.508 Y-34.952
X-51.578 Y-35.836
X-51.614 Y-36.721
X-51.617 Y-37.607
X-51.589 Y-38.493
X-51.531 Y-39.377
X-51.444 Y-40.259
X-51.327 Y-41.137
X-51.18 Y-42.011
X-51 Y-42.879
X-50.783 Y-43.738
X-50.554 Y-44.454
X-50.345 Y-44.961
X-50.25 Y-45.147
X-50.087 Y-45.398
X-49.874 Y-45.608
X-49.621 Y-45.768
X-49.34 Y-45.871
X-49.044 Y-45.912
X-48.71 Y-45.921
X-46.655 Y-45.972
G3 X-46.062 Y-45.39 I-0.006 J0.6
G1 X-45.475 Y-26.75
G3 X-46.094 Y-26.131 I-0.6 J0.019
G1 X-47.905 Y-26.253
X-48.307 Y-26.281
X-48.535 Y-26.31
X-48.765 Y-26.358
X-49.012 Y-26.431
X-49.277 Y-26.533
X-49.579 Y-26.678
X-49.878 Y-26.852
X-50.224 Y-27.093
X-50.558 Y-27.368
X-50.938 Y-27.735
X-51.301 Y-28.148
X-51.693 Y-28.672
X-52.092 Y-29.308
X-52.48 Y-30.051
X-52.826 Y-30.867
X-53.111 Y-31.706
X-53.343 Y-32.561
X-53.529 Y-33.427
X-53.672 Y-34.302
X-53.777 Y-35.182
X-53.846 Y-36.065
X-53.882 Y-36.95
X-53.886 Y-37.837
X-53.86 Y-38.722
X-53.805 Y-39.607
X-53.721 Y-40.489
X-53.607 Y-41.368
X-53.462 Y-42.242
X-53.282 Y-43.109
X-53.058 Y-43.967
X-52.844 Y-44.584
X-52.633 Y-45.063
X-52.622 Y-45.084
X-52.459 Y-45.323
X-52.251 Y-45.524
X-52.005 Y-45.677
X-51.734 Y-45.777
X-51.447 Y-45.819
X-49.716 Y-45.89
X-49.044 Y-45.912
G3 X-48.448 Y-45.337 I-0.003 J0.6
G1 X-47.687 Y-26.906
G3 X-48.307 Y-26.281 I-0.599 J0.025
G1 X-50.521 Y-26.452
X-50.821 Y-26.49
X-51.047 Y-26.538
X-51.295 Y-26.611
X-51.556 Y-26.712
X-51.857 Y-26.857
X-52.154 Y-27.03
X-52.496 Y-27.268
X-52.832 Y-27.546
X-53.208 Y-27.909
X-53.571 Y-28.323
X-53.964 Y-28.85
X-54.359 Y-29.48
X-54.744 Y-30.221
X-55.089 Y-31.037
X-55.374 Y-31.876
X-55.606 Y-32.731
X-55.792 Y-33.598
X-55.936 Y-34.472
X-56.042 Y-35.352
X-56.113 Y-36.235
X-56.151 Y-37.121
X-56.159 Y-38.007
X-56.136 Y-38.893
X-56.085 Y-39.777
X-56.005 Y-40.66
X-55.895 Y-41.539
X-55.751 Y-42.413
X-55.568 Y-43.28
X-55.357 Y-44.06
X-55.162 Y-44.602
X-55.027 Y-44.9
X-54.869 Y-45.166
X-54.657 Y-45.39
X-54.401 Y-45.563
X-54.114 Y-45.675
X-53.809 Y-45.721
X-51.447 Y-45.819
G3 X-50.844 Y-45.25 I0.004 J0.6
G1 X-49.896 Y-27.083
G3 X-50.521 Y-26.452 I-0.599 J0.031
G1 X-51.929 Y-26.561
X-52.533 Y-26.61
X-52.935 Y-26.643
X-53.104 Y-26.665
X-53.332 Y-26.715
X-53.58 Y-26.79
X-53.843 Y-26.893
X-54.145 Y-27.04
X-54.443 Y-27.216
X-54.787 Y-27.46
X-55.122 Y-27.738
X-55.499 Y-28.108
X-55.862 Y-28.526
X-56.253 Y-29.057
X-56.65 Y-29.7
X-57.038 Y-30.455
X-57.377 Y-31.273
X-57.658 Y-32.113
X-57.887 Y-32.969
X-58.07 Y-33.836
X-58.212 Y-34.711
X-58.317 Y-35.591
X-58.387 Y-36.474
X-58.425 Y-37.36
X-58.433 Y-38.246
X-58.411 Y-39.132
X-58.361 Y-40.016
X-58.281 Y-40.899
X-58.169 Y-41.778
X-58.021 Y-42.652
X-57.83 Y-43.517
X-57.629 Y-44.188
X-57.436 Y-44.686
X-57.378 Y-44.805
X-57.223 Y-45.055
X-57.02 Y-45.266
X-56.777 Y-45.43
X-56.505 Y-45.54
X-56.216 Y-45.592
X-55.735 Y-45.625
X-55.149 Y-45.663
X-54.948 Y-45.674
X-53.809 Y-45.721
G3 X-53.206 Y-45.152 I0.004 J0.6
G1 X-52.308 Y-27.272
G3 X-52.935 Y-26.643 I-0.599 J0.03
G1 X-55.149 Y-26.826
X-55.385 Y-26.858
X-55.61 Y-26.907
X-55.859 Y-26.982
X-56.119 Y-27.084
X-56.42 Y-27.231
X-56.717 Y-27.406
X-57.056 Y-27.646
X-57.394 Y-27.928
X-57.766 Y-28.293
X-58.131 Y-28.713
X-58.523 Y-29.245
X-58.917 Y-29.882
X-59.303 Y-30.635
X-59.643 Y-31.453
X-59.924 Y-32.293
X-60.154 Y-33.149
X-60.338 Y-34.016
X-60.481 Y-34.89
X-60.587 Y-35.77
X-60.659 Y-36.653
X-60.699 Y-37.539
X-60.709 Y-38.425
X-60.689 Y-39.311
X-60.641 Y-40.195
X-60.561 Y-41.078
X-60.448 Y-41.957
X-60.295 Y-42.83
X-60.105 Y-43.643
X-59.921 Y-44.217
X-59.779 Y-44.561
X-59.63 Y-44.833
X-59.424 Y-45.066
X-59.173 Y-45.247
X-58.888 Y-45.369
X-58.582 Y-45.425
X-56.216 Y-45.592
G3 X-55.596 Y-45.029 I0.021 J0.6
G1 X-54.521 Y-27.462
G3 X-55.149 Y-26.826 I-0.599 J0.037
G1 X-55.954 Y-26.894
X-57.362 Y-27.016
X-57.675 Y-27.06
X-57.903 Y-27.11
X-58.15 Y-27.186
X-58.412 Y-27.29
X-58.712 Y-27.438
X-59.008 Y-27.615
X-59.351 Y-27.859
X-59.685 Y-28.14
X-60.06 Y-28.511
X-60.422 Y-28.931
X-60.812 Y-29.466
X-61.209 Y-30.113
X-61.596 Y-30.877
X-61.933 Y-31.697
X-62.21 Y-32.538
X-62.437 Y-33.395
X-62.619 Y-34.262
X-62.761 Y-35.137
X-62.865 Y-36.017
X-62.937 Y-36.9
X-62.976 Y-37.785
X-62.985 Y-38.671
X-62.964 Y-39.557
X-62.913 Y-40.442
X-62.83 Y-41.324
X-62.71 Y-42.202
X-62.546 Y-43.073
X-62.364 Y-43.76
X-62.185 Y-44.267
X-62.111 Y-44.433
X-61.959 Y-44.695
X-61.755 Y-44.917
X-61.507 Y-45.09
X-61.228 Y-45.206
X-60.931 Y-45.26
X-58.582 Y-45.425
G3 X-57.963 Y-44.868 I0.021 J0.6
G1 X-56.733 Y-27.658
G3 X-57.362 Y-27.016 I-0.598 J0.043
G1 X-59.777 Y-27.228
X-59.951 Y-27.252
X-60.177 Y-27.303
X-60.427 Y-27.38
X-60.687 Y-27.484
X-60.99 Y-27.634
X-61.287 Y-27.812
X-61.627 Y-28.056
X-61.966 Y-28.343
X-62.338 Y-28.712
X-62.703 Y-29.138
X-63.095 Y-29.678
X-63.491 Y-30.326
X-63.878 Y-31.094
X-64.212 Y-31.914
X-64.489 Y-32.756
X-64.715 Y-33.613
X-64.896 Y-34.48
X-65.037 Y-35.355
X-65.142 Y-36.235
X-65.213 Y-37.118
X-65.252 Y-38.003
X-65.26 Y-38.89
X-65.238 Y-39.775
X-65.185 Y-40.66
X-65.097 Y-41.542
X-64.968 Y-42.418
X-64.801 Y-43.222
X-64.632 Y-43.796
X-64.519 Y-44.091
X-64.38 Y-44.361
X-64.186 Y-44.595
X-63.946 Y-44.782
X-63.671 Y-44.912
X-63.375 Y-44.98
X-61.186 Y-45.237
X-60.985 Y-45.256
X-60.931 Y-45.26
G3 X-60.311 Y-44.702 I0.021 J0.6
G1 X-59.147 Y-27.868
G3 X-59.777 Y-27.228 I-0.599 J0.041
G1 X-61.991 Y-27.426
X-62.232 Y-27.46
X-62.457 Y-27.51
X-62.708 Y-27.587
X-62.967 Y-27.691
X-63.268 Y-27.84
X-63.564 Y-28.019
X-63.903 Y-28.261
X-64.242 Y-28.548
X-64.612 Y-28.915
X-64.978 Y-29.342
X-65.37 Y-29.882
X-65.764 Y-30.528
X-66.152 Y-31.296
X-66.486 Y-32.116
X-66.763 Y-32.958
X-66.989 Y-33.815
X-67.171 Y-34.682
X-67.312 Y-35.557
X-67.417 Y-36.437
X-67.488 Y-37.32
X-67.527 Y-38.205
X-67.535 Y-39.091
X-67.511 Y-39.977
X-67.454 Y-40.861
X-67.359 Y-41.742
X-67.217 Y-42.617
X-67.058 Y-43.271
X-66.892 Y-43.775
X-66.859 Y-43.855
X-66.716 Y-44.114
X-66.523 Y-44.336
X-66.287 Y-44.514
X-66.019 Y-44.638
X-65.732 Y-44.703
X-63.375 Y-44.98
G3 X-62.728 Y-44.432 I0.049 J0.598
G1 X-61.36 Y-28.075
G3 X-61.991 Y-27.426 I-0.598 J0.05
G1 X-64.204 Y-27.625
X-64.512 Y-27.668
X-64.737 Y-27.719
X-64.987 Y-27.796
X-65.246 Y-27.9
X-65.547 Y-28.049
X-65.843 Y-28.228
X-66.182 Y-28.47
X-66.521 Y-28.757
X-66.891 Y-29.125
X-67.256 Y-29.552
X-67.648 Y-30.092
X-68.043 Y-30.74
X-68.43 Y-31.509
X-68.764 Y-32.33
X-69.041 Y-33.172
X-69.266 Y-34.029
X-69.447 Y-34.897
X-69.589 Y-35.771
X-69.693 Y-36.651
X-69.763 Y-37.535
X-69.801 Y-38.42
X-69.806 Y-39.306
X-69.778 Y-40.192
X-69.714 Y-41.076
X-69.606 Y-41.955
X-69.467 Y-42.693
X-69.323 Y-43.222
X-69.234 Y-43.466
X-69.104 Y-43.732
X-68.921 Y-43.965
X-68.693 Y-44.155
X-68.431 Y-44.292
X-68.145 Y-44.371
X-67.222 Y-44.522
X-67.021 Y-44.551
X-65.732 Y-44.703
G3 X-65.085 Y-44.162 I0.049 J0.598
G1 X-63.574 Y-28.281
G3 X-64.204 Y-27.625 I-0.597 J0.057
G1 X-66.015 Y-27.788
X-66.619 Y-27.844
X-66.787 Y-27.868
X-67.013 Y-27.919
X-67.264 Y-27.997
X-67.524 Y-28.102
X-67.826 Y-28.253
X-68.123 Y-28.433
X-68.463 Y-28.677
X-68.803 Y-28.966
X-69.174 Y-29.336
X-69.54 Y-29.766
X-69.932 Y-30.308
X-70.328 Y-30.962
X-70.716 Y-31.736
X-71.048 Y-32.557
X-71.323 Y-33.399
X-71.547 Y-34.257
X-71.727 Y-35.124
X-71.867 Y-35.999
X-71.969 Y-36.88
X-72.037 Y-37.763
X-72.072 Y-38.649
Y-39.535
X-72.038 Y-40.42
X-71.961 Y-41.303
X-71.839 Y-42.13
X-71.707 Y-42.7
X-71.608 Y-43.01
X-71.488 Y-43.283
X-71.312 Y-43.525
X-71.09 Y-43.723
X-70.83 Y-43.87
X-70.545 Y-43.959
X-70.442 Y-43.979
X-69.838 Y-44.092
X-68.145 Y-44.371
G3 X-67.471 Y-43.834 I0.077 J0.595
G1 X-65.987 Y-28.501
G3 X-66.619 Y-27.844 I-0.597 J0.058
G1 X-68.43 Y-28.011
X-68.832 Y-28.05
X-69.09 Y-28.089
X-69.318 Y-28.142
X-69.568 Y-28.222
X-69.83 Y-28.33
X-70.133 Y-28.483
X-70.431 Y-28.666
X-70.772 Y-28.915
X-71.111 Y-29.207
X-71.485 Y-29.585
X-71.849 Y-30.018
X-72.24 Y-30.567
X-72.636 Y-31.231
X-73.025 Y-32.02
X-73.352 Y-32.843
X-73.622 Y-33.687
X-73.842 Y-34.546
X-74.017 Y-35.414
X-74.152 Y-36.29
X-74.249 Y-37.171
X-74.312 Y-38.055
X-74.339 Y-38.941
X-74.329 Y-39.827
X-74.28 Y-40.711
X-74.179 Y-41.575
X-74.063 Y-42.16
X-73.969 Y-42.491
X-73.855 Y-42.773
X-73.683 Y-43.023
X-73.46 Y-43.231
X-73.199 Y-43.385
X-72.91 Y-43.479
X-72.454 Y-43.574
X-70.545 Y-43.959
G3 X-69.853 Y-43.434 I0.096 J0.592
G1 X-68.198 Y-28.716
G3 X-68.832 Y-28.05 I-0.596 J0.067
G1 X-69.637 Y-28.132
X-71.046 Y-28.276
X-71.247 Y-28.3
X-71.464 Y-28.339
X-71.704 Y-28.403
X-71.953 Y-28.491
X-72.227 Y-28.613
X-72.533 Y-28.78
X-72.839 Y-28.981
X-73.191 Y-29.254
X-73.528 Y-29.563
X-73.908 Y-29.971
X-74.276 Y-30.437
X-74.662 Y-31.015
X-75.056 Y-31.721
X-75.423 Y-32.527
X-75.729 Y-33.359
X-75.981 Y-34.208
X-76.184 Y-35.071
X-76.344 Y-35.942
X-76.464 Y-36.82
X-76.545 Y-37.703
X-76.589 Y-38.588
X-76.594 Y-39.474
X-76.556 Y-40.359
X-76.473 Y-41.148
X-76.37 Y-41.695
X-76.311 Y-41.915
X-76.202 Y-42.193
X-76.038 Y-42.441
X-75.824 Y-42.649
X-75.572 Y-42.807
X-75.292 Y-42.908
X-73.211 Y-43.416
X-72.91 Y-43.479
G3 X-72.211 Y-42.957 I0.102 J0.591
G1 X-70.601 Y-28.967
G3 X-71.247 Y-28.3 I-0.596 J0.069
G1 X-73.058 Y-28.535
X-73.173 Y-28.551
X-73.662 Y-28.632
X-73.923 Y-28.69
X-74.164 Y-28.764
X-74.421 Y-28.866
X-74.696 Y-29.001
X-75.008 Y-29.188
X-75.313 Y-29.405
X-75.666 Y-29.701
X-76.006 Y-30.037
X-76.384 Y-30.476
X-76.754 Y-30.983
X-77.137 Y-31.606
X-77.523 Y-32.366
X-77.86 Y-33.186
X-78.138 Y-34.028
X-78.363 Y-34.884
X-78.543 Y-35.752
X-78.679 Y-36.628
X-78.775 Y-37.509
X-78.83 Y-38.393
X-78.843 Y-39.279
X-78.806 Y-40.164
X-78.727 Y-40.812
X-78.652 Y-41.182
X-78.559 Y-41.471
X-78.407 Y-41.733
X-78.201 Y-41.957
X-77.952 Y-42.13
X-77.672 Y-42.246
X-76.418 Y-42.612
X-75.875 Y-42.765
X-75.292 Y-42.908
G3 X-74.574 Y-42.392 I0.122 J0.587
G1 X-72.988 Y-29.3
G3 X-73.662 Y-28.632 I-0.596 J0.072
G1 X-73.863 Y-28.666
X-75.07 Y-28.884
X-75.272 Y-28.925
X-75.875 Y-29.067
X-76.278 Y-29.168
X-76.585 Y-29.262
X-76.842 Y-29.364
X-77.097 Y-29.489
X-77.387 Y-29.662
X-77.695 Y-29.881
X-78.013 Y-30.148
X-78.359 Y-30.489
X-78.709 Y-30.894
X-79.071 Y-31.389
X-79.448 Y-32.002
X-79.822 Y-32.738
X-80.16 Y-33.557
X-80.435 Y-34.399
X-80.656 Y-35.258
X-80.827 Y-36.127
X-80.953 Y-37.004
X-81.034 Y-37.887
X-81.07 Y-38.772
X-81.051 Y-39.597
X-80.993 Y-40.162
X-80.944 Y-40.424
X-80.86 Y-40.707
X-80.719 Y-40.965
X-80.527 Y-41.189
X-80.292 Y-41.367
X-80.026 Y-41.492
X-79.296 Y-41.745
X-78.692 Y-41.948
X-77.672 Y-42.246
G3 X-76.928 Y-41.734 I0.148 J0.582
G1 X-75.556 Y-29.823
G3 X-76.278 Y-29.168 I-0.596 J0.069
G1 X-77.083 Y-29.371
X-77.284 Y-29.424
X-77.887 Y-29.626
X-78.491 Y-29.829
X-78.692 Y-29.898
X-79.095 Y-30.041
X-79.396 Y-30.165
X-79.654 Y-30.297
X-79.92 Y-30.461
X-80.204 Y-30.669
X-80.518 Y-30.941
X-80.827 Y-31.254
X-81.166 Y-31.659
X-81.503 Y-32.134
X-81.846 Y-32.712
X-82.193 Y-33.419
X-82.518 Y-34.243
X-82.778 Y-35.09
X-82.981 Y-35.953
X-83.131 Y-36.826
X-83.228 Y-37.707
X-83.264 Y-38.526
X-83.242 Y-39.148
X-83.201 Y-39.498
X-83.135 Y-39.788
X-83.01 Y-40.058
X-82.83 Y-40.295
X-82.604 Y-40.489
X-82.343 Y-40.631
X-81.912 Y-40.807
X-81.308 Y-41.047
X-80.026 Y-41.492
G3 X-79.252 Y-40.973 I0.177 J0.573
G1 X-78.316 Y-30.667
G3 X-79.095 Y-30.041 I-0.598 J0.054
G1 X-79.296 Y-30.112
X-80.503 Y-30.624
X-80.906 Y-30.794
X-81.107 Y-30.887
X-81.308 Y-30.985
X-81.657 Y-31.163
X-82.05 Y-31.363
X-82.385 Y-31.556
X-82.644 Y-31.735
X-82.905 Y-31.947
X-83.184 Y-32.215
X-83.479 Y-32.546
X-83.78 Y-32.945
X-84.086 Y-33.427
X-84.401 Y-34.023
X-84.694 Y-34.706
X-84.959 Y-35.491
X-85.171 Y-36.343
X-85.307 Y-37.162
X-85.363 Y-37.823
X-85.365 Y-38.33
X-85.351 Y-38.506
X-85.299 Y-38.792
X-85.19 Y-39.06
X-85.027 Y-39.3
X-84.819 Y-39.501
X-84.573 Y-39.655
X-84.125 Y-39.876
X-83.924 Y-39.969
X-83.321 Y-40.229
X-82.343 Y-40.631
G3 X-81.535 Y-40.093 I0.209 J0.563
G1 X-81.196 Y-31.932
G3 X-82.05 Y-31.363 I-0.599 J0.025
G1 X-82.717 Y-31.704
X-83.321 Y-32.04
X-83.539 Y-32.167
X-84.729 Y-32.88
X-84.867 Y-32.97
X-85.255 Y-33.258
X-85.484 Y-33.458
X-85.742 Y-33.723
X-85.991 Y-34.024
X-86.254 Y-34.398
X-86.501 Y-34.819
X-86.74 Y-35.313
X-86.945 Y-35.842
X-87.095 Y-36.344
X-87.197 Y-36.822
X-87.249 Y-37.225
X-87.254 Y-37.33
X-87.237 Y-37.63
X-87.155 Y-37.92
X-87.014 Y-38.185
X-86.819 Y-38.415
X-86.58 Y-38.597
G3 X-85.726 Y-38.284 I0.292 J0.524
G1 X-83.996 Y-33.696
G3 X-84.867 Y-32.97 I-0.561 J0.212
G1 X-85.469 Y-33.372
X-86.618 Y-34.176
X-86.741 Y-34.266
X-86.878 Y-34.376
X-87.546 Y-34.936
X-87.803 Y-35.174
X-87.972 Y-35.357
X-88.12 Y-35.547
X-88.265 Y-35.766
X-88.381 Y-35.977
X-88.403 Y-36.028
X-88.5 Y-36.33
X-88.526 Y-36.646
X-88.48 Y-36.961
X-88.364 Y-37.256
X-88.185 Y-37.518
X-87.951 Y-37.733
G3 X-87.031 Y-37.376 I0.336 J0.497
G1 X-86.594 Y-35.549
G3 X-87.546 Y-34.936 I-0.584 J0.14
G1 X-88.15 Y-35.441
X-88.298 Y-35.582
X-88.552 Y-35.836
X-88.699 Y-35.983
X-88.871 Y-36.184
X-88.919 Y-36.247
X-88.955 Y-36.309
X-88.987 Y-36.385
X-89.011 Y-36.486
X-89.019 Y-36.586
X-89.009 Y-36.687
X-88.981 Y-36.787
X-88.955 Y-36.848
X-88.913 Y-36.918
X-88.858 Y-36.988
X-88.754 Y-37.091
X-88.638 Y-37.189
X-88.146 Y-37.59
X-87.747 Y-37.88
X-87.546 Y-38.009
X-87.345 Y-38.135
X-86.138 Y-38.864
X-85.936 Y-38.973
X-85.5 Y-39.197
X-85.333 Y-39.282
X-84.573 Y-39.655
G3 X-83.862 Y-39.487 I0.246 J0.547
G1 X-83.803 Y-39.415 Z-6.993
X-83.745 Y-39.344 Z-6.971
X-83.69 Y-39.276 Z-6.935
X-83.639 Y-39.214 Z-6.885
X-83.594 Y-39.159 Z-6.824
X-83.556 Y-39.111 Z-6.753
X-83.524 Y-39.073 Z-6.672
X-83.502 Y-39.045 Z-6.585
X-83.488 Y-39.028 Z-6.494
X-83.483 Y-39.022 Z-6.4
Z5
X-19.156 Y35.415
Z3
Z2
Z-7 F333.3
Y35.377 F1000
X-19.12 Y35.384
X-19.102 Y35.417
X-19.111 Y35.453
X-19.141 Y35.476
X-19.178 Y35.477
X-19.212 Y35.461
X-19.238 Y35.434
X-19.252 Y35.399
X-19.253 Y35.362
X-19.239 Y35.327
X-19.216 Y35.297
X-19.185 Y35.276
X-19.114 Y35.252
X-19.04 Y35.263
X-18.978 Y35.305
X-18.935 Y35.367
X-18.917 Y35.439
X-18.923 Y35.514
X-18.951 Y35.583
X-19.046 Y35.7
X-19.186 Y35.754
X-19.335 Y35.743
X-19.468 Y35.674
X-19.567 Y35.56
X-19.621 Y35.421
X-19.627 Y35.271
X-19.59 Y35.125
X-19.513 Y34.997
X-19.405 Y34.893
X-19.273 Y34.821
X-19.128 Y34.783
X-18.978 Y34.781
X-18.832 Y34.813
X-18.696 Y34.878
X-18.577 Y34.969
X-18.48 Y35.084
X-18.409 Y35.215
X-18.362 Y35.358
X-18.342 Y35.507
X-18.35 Y35.656
X-18.384 Y35.803
X-18.442 Y35.941
X-18.523 Y36.067
X-18.623 Y36.179
X-18.739 Y36.273
X-18.869 Y36.348
X-19.009 Y36.403
X-19.155 Y36.435
X-19.305 Y36.447
X-19.455 Y36.436
X-19.601 Y36.405
X-19.742 Y36.354
X-19.875 Y36.284
X-19.997 Y36.197
X-20.107 Y36.095
X-20.203 Y35.98
X-20.284 Y35.854
X-20.349 Y35.718
X-20.397 Y35.576
X-20.427 Y35.429
X-20.44 Y35.28
X-20.436 Y35.13
X-20.414 Y34.981
X-20.376 Y34.836
X-20.322 Y34.696
X-20.254 Y34.563
X-20.171 Y34.438
X-20.075 Y34.322
X-19.968 Y34.217
X-19.85 Y34.124
X-19.724 Y34.043
X-19.59 Y33.976
X-19.45 Y33.922
X-19.305 Y33.883
X-19.157 Y33.858
X-19.008 Y33.847
X-18.858 Y33.851
X-18.709 Y33.869
X-18.562 Y33.901
X-18.419 Y33.946
X-18.281 Y34.005
X-18.149 Y34.075
X-18.023 Y34.157
X-17.905 Y34.25
X-17.796 Y34.353
X-17.696 Y34.465
X-17.606 Y34.585
X-17.527 Y34.712
X-17.459 Y34.846
X-17.402 Y34.985
X-17.357 Y35.128
X-17.323 Y35.274
X-17.302 Y35.426
X-17.293 Y35.575
X-17.296 Y35.73
X-17.311 Y35.88
X-17.34 Y36.034
X-17.379 Y36.182
X-17.433 Y36.333
X-17.496 Y36.474
X-17.575 Y36.616
X-17.661 Y36.747
X-17.764 Y36.878
X-17.872 Y36.996
X-17.995 Y37.11
X-18.124 Y37.211
X-18.265 Y37.304
X-18.413 Y37.386
X-18.567 Y37.456
X-18.73 Y37.514
X-18.894 Y37.559
X-19.068 Y37.591
X-19.241 Y37.609
X-19.419 Y37.613
X-19.599 Y37.603
X-19.774 Y37.579
X-19.954 Y37.539
X-20.128 Y37.485
X-20.298 Y37.418
X-20.467 Y37.334
X-20.626 Y37.239
X-20.78 Y37.129
X-20.928 Y37.005
X-21.063 Y36.871
X-21.189 Y36.725
X-21.305 Y36.565
X-21.407 Y36.399
X-21.496 Y36.223
X-21.572 Y36.037
X-21.633 Y35.845
X-21.679 Y35.65
X-21.709 Y35.447
X-21.723 Y35.24
X-21.72 Y35.034
X-21.701 Y34.828
X-21.664 Y34.619
X-21.611 Y34.413
X-21.541 Y34.212
X-21.455 Y34.017
X-21.352 Y33.825
X-21.233 Y33.642
X-21.099 Y33.468
X-20.952 Y33.305
X-20.79 Y33.154
X-20.614 Y33.013
X-20.426 Y32.886
X-20.229 Y32.774
X-20.022 Y32.679
X-19.807 Y32.6
X-19.584 Y32.537
X-19.354 Y32.493
X-19.119 Y32.466
X-18.882 Y32.459
X-18.644 Y32.471
X-18.406 Y32.502
X-18.171 Y32.552
X-17.938 Y32.621
X-17.71 Y32.709
X-17.489 Y32.817
X-17.274 Y32.943
X-17.07 Y33.086
X-16.876 Y33.247
X-16.694 Y33.424
X-16.526 Y33.616
X-16.373 Y33.822
X-16.236 Y34.041
X-16.116 Y34.273
X-16.015 Y34.514
X-15.933 Y34.764
X-15.871 Y35.022
X-15.83 Y35.285
X-15.809 Y35.553
X-15.811 Y35.823
X-15.834 Y36.094
X-15.879 Y36.363
X-15.946 Y36.63
X-16.034 Y36.892
X-16.144 Y37.148
X-16.275 Y37.396
X-16.427 Y37.633
X-16.598 Y37.859
X-16.787 Y38.072
X-16.995 Y38.27
X-17.219 Y38.452
X-17.458 Y38.617
X-17.711 Y38.762
X-17.977 Y38.888
X-18.254 Y38.992
X-18.539 Y39.075
X-18.833 Y39.134
X-19.132 Y39.17
X-19.434 Y39.182
X-19.738 Y39.17
X-20.043 Y39.133
X-20.345 Y39.071
X-20.642 Y38.985
X-20.934 Y38.875
X-21.217 Y38.74
X-21.49 Y38.583
X-21.751 Y38.403
X-21.999 Y38.202
X-22.23 Y37.98
X-22.444 Y37.739
X-22.639 Y37.481
X-22.814 Y37.205
X-22.967 Y36.916
X-23.097 Y36.613
X-23.203 Y36.299
X-23.283 Y35.976
X-23.338 Y35.645
X-23.366 Y35.31
X-23.367 Y34.971
X-23.341 Y34.632
X-23.288 Y34.294
X-23.207 Y33.96
X-23.099 Y33.631
X-22.964 Y33.311
X-22.803 Y33
X-22.617 Y32.702
X-22.406 Y32.419
X-22.172 Y32.152
X-21.916 Y31.903
X-21.64 Y31.675
X-21.344 Y31.468
X-21.031 Y31.285
X-20.703 Y31.126
X-20.361 Y30.994
X-20.008 Y30.889
X-19.646 Y30.813
X-19.277 Y30.765
X-18.904 Y30.747
X-18.529 Y30.759
X-18.154 Y30.802
X-17.781 Y30.875
X-17.414 Y30.978
X-17.055 Y31.111
X-16.705 Y31.273
X-16.368 Y31.463
X-16.046 Y31.681
X-15.741 Y31.925
X-15.455 Y32.195
X-15.191 Y32.487
X-14.95 Y32.802
X-14.733 Y33.136
X-14.543 Y33.489
X-14.382 Y33.857
X-14.25 Y34.239
X-14.148 Y34.632
X-14.078 Y35.033
X-14.041 Y35.441
X-14.036 Y35.853
X-14.064 Y36.265
X-14.126 Y36.676
X-14.22 Y37.082
X-14.348 Y37.481
X-14.508 Y37.871
X-14.7 Y38.248
X-14.922 Y38.61
X-15.174 Y38.955
X-15.454 Y39.28
X-15.761 Y39.583
X-16.093 Y39.862
X-16.447 Y40.114
X-16.822 Y40.338
X-17.216 Y40.532
X-17.626 Y40.694
X-18.049 Y40.824
X-18.484 Y40.92
X-18.926 Y40.98
X-19.374 Y41.005
X-19.825 Y40.994
X-20.275 Y40.947
X-20.722 Y40.864
X-21.163 Y40.744
X-21.595 Y40.588
X-22.014 Y40.398
X-22.419 Y40.174
X-22.806 Y39.916
X-23.172 Y39.628
X-23.516 Y39.309
X-23.834 Y38.963
X-24.125 Y38.59
X-24.386 Y38.194
X-24.615 Y37.776
X-24.811 Y37.34
X-24.972 Y36.887
X-25.097 Y36.421
X-25.184 Y35.945
X-25.232 Y35.461
X-25.242 Y34.973
X-25.213 Y34.484
X-25.144 Y33.996
X-25.035 Y33.514
X-24.888 Y33.04
X-24.702 Y32.578
X-24.479 Y32.13
X-24.22 Y31.7
X-23.926 Y31.29
X-23.598 Y30.904
X-23.24 Y30.543
X-22.852 Y30.212
X-22.436 Y29.911
X-21.997 Y29.644
X-21.536 Y29.412
X-21.055 Y29.217
X-20.559 Y29.06
X-20.049 Y28.944
X-19.53 Y28.868
X-19.004 Y28.834
X-18.475 Y28.843
X-17.947 Y28.894
X-17.422 Y28.988
X-16.905 Y29.124
X-16.398 Y29.301
X-15.905 Y29.52
X-15.429 Y29.779
X-14.974 Y30.076
X-14.543 Y30.41
X-14.139 Y30.778
X-13.764 Y31.18
X-13.421 Y31.612
X-13.113 Y32.072
X-12.841 Y32.556
X-12.609 Y33.063
X-12.417 Y33.589
X-12.268 Y34.13
X-12.162 Y34.684
X-12.101 Y35.246
X-12.085 Y35.814
X-12.114 Y36.383
X-12.19 Y36.949
X-12.311 Y37.51
X-12.477 Y38.062
X-12.688 Y38.6
X-12.943 Y39.121
X-13.239 Y39.623
X-13.576 Y40.1
X-13.952 Y40.551
X-14.364 Y40.971
X-14.81 Y41.359
X-15.287 Y41.71
X-15.793 Y42.024
X-16.324 Y42.296
X-16.877 Y42.526
X-17.449 Y42.712
X-18.036 Y42.851
X-18.635 Y42.943
X-19.241 Y42.987
X-19.851 Y42.983
X-20.461 Y42.929
X-21.066 Y42.826
X-21.663 Y42.674
X-22.248 Y42.474
X-22.817 Y42.227
X-23.366 Y41.934
X-23.892 Y41.597
X-24.39 Y41.218
X-24.858 Y40.798
X-25.293 Y40.341
X-25.69 Y39.848
X-26.048 Y39.324
X-26.364 Y38.771
X-26.635 Y38.192
X-26.86 Y37.591
X-27.036 Y36.973
X-27.162 Y36.34
X-27.238 Y35.697
X-27.261 Y35.048
X-27.233 Y34.397
X-27.152 Y33.748
X-27.018 Y33.106
X-26.833 Y32.474
X-26.598 Y31.858
X-26.312 Y31.26
X-25.979 Y30.685
X-25.599 Y30.138
X-25.175 Y29.621
X-24.709 Y29.137
X-24.205 Y28.692
X-23.665 Y28.287
X-23.092 Y27.926
X-22.49 Y27.61
X-21.863 Y27.344
X-21.214 Y27.127
X-20.548 Y26.963
X-19.869 Y26.853
X-19.181 Y26.797
X-18.488
X-17.796 Y26.852
X-17.108 Y26.964
X-16.429 Y27.13
X-15.763 Y27.351
X-15.116 Y27.626
X-14.491 Y27.953
X-13.892 Y28.33
X-13.324 Y28.755
X-12.79 Y29.226
X-12.294 Y29.74
X-11.84 Y30.293
X-11.43 Y30.883
X-11.068 Y31.506
X-10.756 Y32.157
X-10.497 Y32.834
X-10.292 Y33.531
X-10.143 Y34.245
X-10.052 Y34.97
X-10.019 Y35.702
X-10.046 Y36.437
X-10.131 Y37.169
X-10.275 Y37.895
X-10.478 Y38.608
X-10.738 Y39.305
X-11.054 Y39.981
X-11.424 Y40.632
X-11.847 Y41.252
X-12.319 Y41.838
X-12.839 Y42.386
X-13.402 Y42.892
X-14.006 Y43.352
X-14.647 Y43.764
X-15.32 Y44.124
X-16.023 Y44.429
X-16.75 Y44.678
X-17.496 Y44.869
X-18.258 Y44.999
X-19.03 Y45.068
X-19.807 Y45.074
X-20.584 Y45.018
X-21.356 Y44.9
X-22.119 Y44.72
X-22.866 Y44.478
X-23.594 Y44.176
X-24.298 Y43.816
X-24.972 Y43.399
X-25.612 Y42.928
X-26.214 Y42.406
X-26.773 Y41.836
X-27.287 Y41.221
X-27.75 Y40.565
X-28.161 Y39.872
X-28.516 Y39.147
X-28.812 Y38.393
X-29.047 Y37.616
X-29.22 Y36.82
X-29.328 Y36.011
X-29.371 Y35.193
X-29.349 Y34.373
X-29.26 Y33.554
X-29.106 Y32.744
X-28.886 Y31.946
X-28.603 Y31.166
X-28.257 Y30.41
X-27.85 Y29.682
X-27.385 Y28.987
X-26.864 Y28.33
X-26.291 Y27.715
X-25.668 Y27.146
X-25 Y26.628
X-24.291 Y26.165
X-23.545 Y25.758
X-22.767 Y25.412
X-21.961 Y25.128
X-21.133 Y24.91
X-21.025 Y24.891
X-20.957 Y24.88
X-20.889 Y24.873
X-20.821 Y24.869
X-20.136 Y24.849
X-18.727 Y24.813
X-17.841 Y24.836
X-17.111 Y24.899
X-16.353 Y25.026
X-15.581 Y25.22
X-14.808 Y25.482
X-14.043 Y25.812
X-13.297 Y26.208
X-12.576 Y26.668
X-11.887 Y27.189
X-11.238 Y27.769
X-10.633 Y28.402
X-10.079 Y29.086
X-9.578 Y29.815
X-9.138 Y30.584
X-8.76 Y31.386
X-8.447 Y32.215
X-8.2 Y33.066
X-8.022 Y33.934
X-7.913 Y34.813
X-7.874 Y35.698
X-7.904 Y36.584
X-8.003 Y37.465
X-8.171 Y38.335
X-8.406 Y39.189
X-8.707 Y40.022
X-9.073 Y40.83
X-9.499 Y41.606
X-9.985 Y42.347
X-10.526 Y43.049
X-11.12 Y43.707
X-11.762 Y44.317
X-12.449 Y44.877
X-13.177 Y45.383
X-13.64 Y45.655
X-13.849 Y45.756
X-14.072 Y45.82
X-14.303 Y45.847
X-18.727 Y45.995
X-18.928 Y46
X-22.349 Y46.067
X-22.966 Y46.048
X-23.426 Y45.996
X-23.929 Y45.899
X-24.493 Y45.742
X-25.056 Y45.536
X-25.67 Y45.252
X-26.316 Y44.889
X-26.962 Y44.453
X-27.586 Y43.955
X-28.204 Y43.376
X-28.797 Y42.722
X-29.338 Y42.02
X-29.823 Y41.278
X-30.25 Y40.501
X-30.618 Y39.695
X-30.926 Y38.864
X-31.173 Y38.013
X-31.357 Y37.147
X-31.477 Y36.269
X-31.532 Y35.384
X-31.523 Y34.498
X-31.45 Y33.615
X-31.315 Y32.739
X-31.119 Y31.875
X-30.863 Y31.027
X-30.548 Y30.199
X-30.174 Y29.395
X-29.743 Y28.621
X-29.258 Y27.879
X-28.722 Y27.173
X-28.139 Y26.507
X-27.51 Y25.882
X-26.944 Y25.392
X-26.685 Y25.215
X-26.394 Y25.099
X-26.084 Y25.052
X-24.16 Y24.974
X-23.557 Y24.953
X-20.821 Y24.869
G3 X-20.566 Y24.918 I0.018 J0.6
G1 X-20.497 Y24.942
X-20.426 Y24.958
X-20.053 Y25.02
X-19.705 Y25.077
G2 X-19.288 Y24.993 I0.097 J-0.592
G3 X-18.727 Y24.813 I0.632 J1.005
G1 X-16.514 Y24.759
X-16.111 Y24.75
X-13.898 Y24.708
X-13.522 Y24.72
X-13.163 Y24.76
X-12.774 Y24.836
X-12.344 Y24.955
X-11.874 Y25.129
X-11.362 Y25.365
X-10.836 Y25.661
X-10.256 Y26.052
X-9.677 Y26.515
X-9.105 Y27.053
X-8.528 Y27.689
X-7.988 Y28.391
X-7.503 Y29.133
X-7.074 Y29.909
X-6.701 Y30.713
X-6.388 Y31.541
X-6.133 Y32.39
X-5.937 Y33.254
X-5.798 Y34.129
X-5.717 Y35.012
X-5.694 Y35.898
X-5.731 Y36.783
X-5.827 Y37.664
X-5.982 Y38.536
X-6.193 Y39.397
X-6.459 Y40.242
X-6.778 Y41.069
X-7.151 Y41.872
X-7.578 Y42.649
X-8.054 Y43.396
X-8.578 Y44.111
X-9.146 Y44.792
X-9.599 Y45.27
X-9.801 Y45.446
X-10.033 Y45.58
X-10.286 Y45.667
X-10.551 Y45.705
X-11.483 Y45.748
X-12.087 Y45.773
X-14.303 Y45.847
G3 X-14.558 Y45.799 I-0.02 J-0.6
G1 X-14.634 Y45.773
X-14.712 Y45.757
X-14.792 Y45.751
X-15.075
X-21.282 Y45.74
G2 X-21.6 Y45.831 I-0.001 J0.6
G3 X-22.349 Y46.067 I-0.835 J-1.344
G1 X-25.166 Y46.121
X-25.569 Y46.128
X-25.971 Y46.13
X-26.414 Y46.111
X-26.725 Y46.072
X-27.068 Y46.001
X-27.462 Y45.885
X-27.864 Y45.731
X-28.331 Y45.509
X-28.8 Y45.236
X-29.313 Y44.881
X-29.861 Y44.431
X-30.39 Y43.921
X-30.934 Y43.306
X-31.466 Y42.596
X-31.939 Y41.848
X-32.357 Y41.066
X-32.72 Y40.258
X-33.028 Y39.427
X-33.279 Y38.577
X-33.473 Y37.712
X-33.612 Y36.837
X-33.697 Y35.955
X-33.727 Y35.07
X-33.704 Y34.184
X-33.626 Y33.301
X-33.493 Y32.425
X-33.307 Y31.558
X-33.069 Y30.705
X-32.781 Y29.867
X-32.444 Y29.048
X-32.058 Y28.25
X-31.623 Y27.478
X-31.142 Y26.734
X-30.616 Y26.02
X-30.339 Y25.686
X-30.129 Y25.482
X-29.882 Y25.326
X-29.608 Y25.224
X-29.319 Y25.182
X-26.084 Y25.052
G3 X-25.502 Y25.493 I0.003 J0.6
G1 X-25.477 Y25.584 Z-6.993
X-25.453 Y25.672 Z-6.971
X-25.43 Y25.756 Z-6.935
X-25.409 Y25.833 Z-6.885
X-25.39 Y25.903 Z-6.824
X-25.374 Y25.962 Z-6.753
X-25.361 Y26.009 Z-6.672
X-25.351 Y26.044 Z-6.585
X-25.346 Y26.065 Z-6.494
X-25.344 Y26.072 Z-6.4
Z-5.8
X-15.157 Y25.26
Z-6.4
X-15.151 Y25.256 Z-6.494
X-15.132 Y25.244 Z-6.585
X-15.101 Y25.225 Z-6.672
X-15.059 Y25.2 Z-6.753
X-15.008 Y25.167 Z-6.824
X-14.947 Y25.13 Z-6.885
X-14.878 Y25.087 Z-6.935
X-14.805 Y25.041 Z-6.971
X-14.727 Y24.993 Z-6.993
X-14.647 Y24.944 Z-7
G3 X-13.898 Y24.708 I0.834 J1.345
G1 X-12.69 Y24.686
X-10.879 Y24.661
X-10.514 Y24.674
X-10.233 Y24.707
X-9.908 Y24.772
X-9.577 Y24.867
X-9.183 Y25.014
X-8.789 Y25.198
X-8.331 Y25.46
X-7.881 Y25.767
X-7.377 Y26.174
X-6.859 Y26.667
X-6.348 Y27.237
X-5.829 Y27.918
X-5.351 Y28.664
X-4.93 Y29.444
X-4.566 Y30.252
X-4.255 Y31.081
X-3.997 Y31.929
X-3.793 Y32.792
X-3.642 Y33.665
X-3.543 Y34.545
X-3.495 Y35.43
X-3.499 Y36.316
X-3.552 Y37.201
X-3.655 Y38.081
X-3.81 Y38.953
X-4.014 Y39.816
X-4.266 Y40.665
X-4.566 Y41.499
X-4.912 Y42.315
X-5.303 Y43.11
X-5.737 Y43.883
X-6.215 Y44.629
X-6.474 Y44.988
X-6.686 Y45.221
X-6.943 Y45.4
X-7.235 Y45.517
X-7.545 Y45.567
X-10.551 Y45.705
G3 X-11.135 Y45.267 I-0.007 J-0.6
G1 X-11.161 Y45.177 Z-6.993
X-11.185 Y45.088 Z-6.971
X-11.209 Y45.005 Z-6.935
X-11.23 Y44.927 Z-6.885
X-11.25 Y44.858 Z-6.824
X-11.266 Y44.799 Z-6.753
X-11.279 Y44.752 Z-6.672
X-11.289 Y44.717 Z-6.585
X-11.295 Y44.696 Z-6.494
X-11.297 Y44.689 Z-6.4
Z-5.8
X-24.705 Y45.594
Z-6.4
X-24.712 Y45.598 Z-6.494
X-24.73 Y45.61 Z-6.585
X-24.761 Y45.628 Z-6.672
X-24.803 Y45.654 Z-6.753
X-24.856 Y45.685 Z-6.824
X-24.917 Y45.722 Z-6.885
X-24.986 Y45.764 Z-6.935
X-25.06 Y45.809 Z-6.971
X-25.139 Y45.856 Z-6.993
X-25.219 Y45.904 Z-7
G3 X-25.971 Y46.13 I-0.817 J-1.355
G1 X-28.99 Y46.149
X-29.18 Y46.14
X-29.457 Y46.106
X-29.749 Y46.045
X-30.074 Y45.95
X-30.439 Y45.81
X-30.814 Y45.631
X-31.244 Y45.382
X-31.674 Y45.084
X-32.144 Y44.698
X-32.643 Y44.217
X-33.13 Y43.665
X-33.631 Y42.997
X-34.104 Y42.247
X-34.518 Y41.464
X-34.876 Y40.653
X-35.18 Y39.821
X-35.433 Y38.972
X-35.633 Y38.109
X-35.783 Y37.235
X-35.883 Y36.355
X-35.934 Y35.47
X-35.937 Y34.584
X-35.892 Y33.699
X-35.801 Y32.818
X-35.663 Y31.942
X-35.478 Y31.076
X-35.247 Y30.22
X-34.971 Y29.378
X-34.651 Y28.552
X-34.289 Y27.743
X-33.885 Y26.954
X-33.44 Y26.188
X-33.262 Y25.921
X-33.097 Y25.718
X-32.897 Y25.55
X-32.67 Y25.422
X-32.423 Y25.338
X-32.165 Y25.301
X-31.606 Y25.275
X-29.319 Y25.182
G3 X-28.737 Y25.624 I0.003 J0.6
G1 X-28.712 Y25.714 Z-6.993
X-28.688 Y25.803 Z-6.971
X-28.665 Y25.887 Z-6.935
X-28.644 Y25.964 Z-6.885
X-28.625 Y26.033 Z-6.824
X-28.609 Y26.092 Z-6.753
X-28.596 Y26.139 Z-6.672
X-28.586 Y26.174 Z-6.585
X-28.58 Y26.195 Z-6.494
X-28.578 Y26.203 Z-6.4
Z-5.8
X-12.141 Y25.206
Z-6.4
X-12.135 Y25.202 Z-6.494
X-12.116 Y25.191 Z-6.585
X-12.086 Y25.172 Z-6.672
X-12.044 Y25.146 Z-6.753
X-11.992 Y25.114 Z-6.824
X-11.931 Y25.077 Z-6.885
X-11.862 Y25.035 Z-6.935
X-11.788 Y24.989 Z-6.971
X-11.71 Y24.941 Z-6.993
X-11.63 Y24.892 Z-7
G3 X-10.879 Y24.661 I0.827 J1.349
G1 X-9.471 Y24.642
X-8.666 Y24.635
X-8.062 Y24.631
X-7.871 Y24.639
X-7.609 Y24.672
X-7.331 Y24.73
X-7.003 Y24.826
X-6.676 Y24.951
X-6.293 Y25.134
X-5.906 Y25.359
X-5.468 Y25.662
X-5.036 Y26.017
X-4.559 Y26.476
X-4.074 Y27.025
X-3.596 Y27.663
X-3.123 Y28.413
X-2.711 Y29.197
X-2.355 Y30.009
X-2.052 Y30.842
X-1.801 Y31.691
X-1.599 Y32.554
X-1.445 Y33.427
X-1.339 Y34.306
X-1.28 Y35.191
X-1.268 Y36.077
X-1.301 Y36.962
X-1.379 Y37.845
X-1.501 Y38.723
X-1.666 Y39.593
X-1.874 Y40.455
X-2.125 Y41.304
X-2.419 Y42.14
X-2.753 Y42.961
X-3.128 Y43.764
X-3.542 Y44.548
X-3.687 Y44.781
X-3.85 Y44.995
X-4.052 Y45.174
X-4.283 Y45.311
X-4.537 Y45.401
X-4.803 Y45.441
X-7.545 Y45.567
G3 X-8.151 Y44.982 I-0.007 J-0.6
G1 X-8.637 Y25.245
G3 X-8.062 Y24.631 I0.6 J-0.015
G1 X-5.648 Y24.616
X-5.388 Y24.628
X-5.155 Y24.657
X-4.882 Y24.713
X-4.585 Y24.8
X-4.269 Y24.921
X-3.91 Y25.093
X-3.551 Y25.301
X-3.137 Y25.588
X-2.731 Y25.921
X-2.288 Y26.348
X-1.824 Y26.873
X-1.372 Y27.477
X-0.91 Y28.209
X-0.499 Y28.994
X-0.145 Y29.807
X0.155 Y30.64
X0.405 Y31.49
X0.608 Y32.353
X0.765 Y33.225
X0.877 Y34.104
X0.945 Y34.988
X0.97 Y35.873
X0.953 Y36.759
X0.896 Y37.644
X0.799 Y38.525
X0.662 Y39.4
X0.487 Y40.269
X0.274 Y41.129
X0.022 Y41.978
X-0.268 Y42.816
X-0.594 Y43.639
X-0.923 Y44.358
X-1.046 Y44.577
X-1.206 Y44.807
X-1.41 Y45
X-1.648 Y45.149
X-1.91 Y45.247
X-2.188 Y45.291
X-4.73 Y45.437
X-4.803 Y45.441
G3 X-5.413 Y44.865 I-0.01 J-0.6
G1 X-6.222 Y25.241
G3 X-5.648 Y24.616 I0.599 J-0.025
G1 X-3.233 Y24.602
X-3.015 Y24.611
X-2.786 Y24.64
X-2.514 Y24.696
X-2.239 Y24.777
X-1.923 Y24.898
X-1.592 Y25.056
X-1.232 Y25.265
X-0.846 Y25.532
X-0.443 Y25.863
X-0.023 Y26.267
X0.427 Y26.777
X0.869 Y27.367
X1.317 Y28.077
X1.728 Y28.862
X2.08 Y29.675
X2.379 Y30.51
X2.628 Y31.36
X2.831 Y32.223
X2.989 Y33.095
X3.105 Y33.973
X3.18 Y34.856
X3.214 Y35.742
X3.21 Y36.628
X3.167 Y37.513
X3.088 Y38.395
X2.973 Y39.274
X2.822 Y40.147
X2.636 Y41.014
X2.416 Y41.872
X2.161 Y42.721
X1.87 Y43.558
X1.604 Y44.183
X1.491 Y44.399
X1.332 Y44.639
X1.127 Y44.841
X0.885 Y44.998
X0.616 Y45.101
X0.331 Y45.147
X-2.188 Y45.291
G3 X-2.8 Y44.722 I-0.013 J-0.6
G1 X-3.807 Y25.232
G3 X-3.233 Y24.602 I0.599 J-0.031
G1 X-2.629 Y24.598
X-2.025 Y24.597
X-0.818 Y24.599
X-0.662 Y24.608
X-0.512 Y24.617
X-0.363 Y24.634
X-0.215 Y24.659
X-0.068 Y24.69
X0.077 Y24.729
X0.22 Y24.773
X0.361 Y24.824
X0.501 Y24.879
X0.638 Y24.939
X0.773 Y25.005
X0.906 Y25.075
X1.036 Y25.148
X1.165 Y25.226
X1.291 Y25.307
X1.415 Y25.392
X1.536 Y25.48
X1.655 Y25.571
X1.772 Y25.665
X1.887 Y25.762
X1.999 Y25.861
X2.109 Y25.963
X2.217 Y26.067
X2.323 Y26.174
X2.426 Y26.282
X2.528 Y26.393
X2.627 Y26.505
X2.724 Y26.619
X2.819 Y26.735
X2.912 Y26.853
X3.003 Y26.972
X3.092 Y27.093
X3.179 Y27.215
X3.264 Y27.339
X3.348 Y27.464
X3.429 Y27.59
X3.508 Y27.717
X3.586 Y27.845
X3.662 Y27.975
X3.736 Y28.105
X3.808 Y28.237
X3.879 Y28.369
X3.948 Y28.502
X4.015 Y28.636
X4.08 Y28.771
X4.144 Y28.907
X4.207 Y29.043
X4.268 Y29.18
X4.327 Y29.318
X4.385 Y29.457
X4.441 Y29.596
X4.495 Y29.735
X4.548 Y29.876
X4.6 Y30.016
X4.651 Y30.158
X4.699 Y30.3
X4.747 Y30.442
X4.793 Y30.585
X4.837 Y30.728
X4.881 Y30.872
X4.923 Y31.016
X4.963 Y31.16
X5.003 Y31.305
X5.04 Y31.45
X5.077 Y31.595
X5.112 Y31.741
X5.147 Y31.887
X5.18 Y32.033
X5.211 Y32.18
X5.242 Y32.327
X5.271 Y32.474
X5.299 Y32.621
X5.326 Y32.771
X5.351 Y32.919
X5.376 Y33.067
X5.399 Y33.215
X5.421 Y33.363
X5.441 Y33.512
X5.462 Y33.667
X5.481 Y33.821
X5.498 Y33.97
X5.515 Y34.119
X5.53 Y34.269
X5.544 Y34.42
X5.557 Y34.58
X5.57 Y34.748
X5.581 Y34.898
X5.59 Y35.048
X5.598 Y35.198
X5.606 Y35.353
X5.612 Y35.518
X5.618 Y35.694
X5.622 Y35.848
X5.625 Y35.998
X5.626 Y36.149
X5.627 Y36.309
X5.626 Y36.479
X5.624 Y36.66
X5.62 Y36.822
X5.616 Y36.972
X5.611 Y37.128
X5.604 Y37.292
X5.596 Y37.467
X5.585 Y37.653
X5.575 Y37.816
X5.564 Y37.968
X5.552 Y38.127
X5.537 Y38.297
X5.521 Y38.476
X5.501 Y38.667
X5.484 Y38.825
X5.467 Y38.98
X5.446 Y39.144
X5.424 Y39.318
X5.398 Y39.503
X5.371 Y39.692
X5.348 Y39.845
X5.322 Y40.004
X5.294 Y40.172
X5.263 Y40.351
X5.228 Y40.542
X5.194 Y40.717
X5.165 Y40.868
X5.132 Y41.026
X5.096 Y41.194
X5.057 Y41.373
X5.013 Y41.563
X4.976 Y41.721
X4.94 Y41.867
X4.904 Y42.012
X4.866 Y42.157
X4.826 Y42.306
X4.784 Y42.456
X4.743 Y42.6
X4.7 Y42.744
X4.656 Y42.887
X4.611 Y43.03
X4.564 Y43.173
X4.515 Y43.315
X4.464 Y43.456
X4.411 Y43.596
X4.356 Y43.736
X4.299 Y43.874
X4.239 Y44.012
X4.176 Y44.148
X4.149 Y44.205
X3.993 Y44.454
X3.789 Y44.665
X3.546 Y44.829
X3.274 Y44.938
X2.984 Y44.989
X2.603 Y45.014
X1.798 Y45.063
X0.331 Y45.147
G3 X-0.281 Y44.582 I-0.013 J-0.6
G1 X-1.397 Y25.234
G3 X-0.818 Y24.599 I0.599 J-0.035
G1 X1.597 Y24.605
X1.784 Y24.614
X2.013 Y24.645
X2.264 Y24.699
X2.539 Y24.782
X2.838 Y24.9
X3.236 Y25.094
X3.664 Y25.21
X4.55 Y25.245
X5.413 Y25.044
X6.244 Y24.738
X6.265 Y24.73
X6.437 Y24.674
X6.614 Y24.641
X6.795 Y24.63
G3 X6.766 Y25.83 I-0.026 J0.599
G1 X1.613 Y25.804
G3 X1.597 Y24.605 I0.003 J-0.6
G1 X4.011 Y24.61
X4.816 Y24.615
X10.853 Y24.663
X11.255 Y24.666
X11.405 Y24.675
X11.609 Y24.705
X11.852 Y24.761
X12.054 Y24.825
X12.236 Y24.899
X12.448 Y25.006
X12.693 Y25.155
X12.846 Y25.266
X13.017 Y25.413
X13.21 Y25.607
X13.377 Y25.805
X13.503 Y25.979
X13.637 Y26.202
X13.777 Y26.484
X13.853 Y26.674
X13.926 Y26.911
X13.992 Y27.203
X14.028 Y27.46
X14.042 Y27.695
X14.036 Y27.98
X14.005 Y28.283
X13.964 Y28.504
X13.894 Y28.766
X13.784 Y29.076
X13.69 Y29.283
X13.566 Y29.51
X13.394 Y29.771
X13.228 Y29.983
X13.061 Y30.164
X12.842 Y30.366
X12.603 Y30.555
X12.407 Y30.684
X12.16 Y30.821
X11.853 Y30.96
X11.643 Y31.036
X11.382 Y31.106
X10.947 Y31.187
X10.527 Y31.329
X9.802 Y31.838
X9.282 Y32.556
X8.916 Y33.363
X8.656 Y34.21
X8.465 Y35.075
X8.317 Y35.949
X8.19 Y36.826
X8.069 Y37.703
X7.944 Y38.581
X7.806 Y39.456
X7.652 Y40.329
X7.475 Y41.197
X7.272 Y42.06
X7.033 Y42.913
X6.796 Y43.596
X6.623 Y43.99
X6.47 Y44.253
X6.265 Y44.478
X6.016 Y44.652
X5.735 Y44.769
X5.436 Y44.823
X2.984 Y44.989
G3 X2.391 Y44.563 I-0.02 J-0.6
G1 X2.363 Y44.473 Z-6.993
X2.337 Y44.386 Z-6.971
X2.312 Y44.303 Z-6.935
X2.288 Y44.226 Z-6.885
X2.267 Y44.157 Z-6.824
X2.25 Y44.099 Z-6.753
X2.235 Y44.052 Z-6.672
X2.225 Y44.017 Z-6.585
X2.219 Y43.996 Z-6.494
X2.216 Y43.989 Z-6.4
Z-5.8
X10.17 Y25.129
Z-6.4
X10.176 Y25.125 Z-6.494
X10.195 Y25.114 Z-6.585
X10.227 Y25.096 Z-6.672
X10.269 Y25.071 Z-6.753
X10.322 Y25.04 Z-6.824
X10.384 Y25.004 Z-6.885
X10.453 Y24.964 Z-6.935
X10.528 Y24.92 Z-6.971
X10.608 Y24.874 Z-6.993
X10.689 Y24.827 Z-7
G3 X11.255 Y24.666 I0.597 J1.026
G1 X12.976 Y24.685
X13.127 Y24.694
X13.276 Y24.715
X13.429 Y24.75
X13.6 Y24.803
X13.773 Y24.872
X13.946 Y24.959
X14.125 Y25.067
X14.309 Y25.199
X14.487 Y25.35
X14.663 Y25.525
X14.832 Y25.723
X14.992 Y25.944
X15.138 Y26.185
X15.272 Y26.451
X15.387 Y26.734
X15.482 Y27.037
X15.556 Y27.36
X15.605 Y27.695
X15.626 Y28.036
X15.621 Y28.385
X15.586 Y28.746
X15.521 Y29.109
X15.426 Y29.469
X15.3 Y29.828
X15.141 Y30.185
X14.955 Y30.526
X14.74 Y30.855
X14.493 Y31.174
X14.222 Y31.472
X13.928 Y31.746
X13.234 Y32.296
X12.614 Y32.93
X12.103 Y33.653
X11.69 Y34.437
X11.356 Y35.258
X11.084 Y36.101
X10.854 Y36.957
X10.651 Y37.819
X10.462 Y38.685
X10.278 Y39.552
X10.089 Y40.418
X9.888 Y41.281
X9.667 Y42.139
X9.413 Y42.988
X9.192 Y43.578
X9.063 Y43.854
X8.908 Y44.108
X8.704 Y44.324
X8.458 Y44.492
X8.183 Y44.605
X7.89 Y44.656
X5.436 Y44.823
G3 X4.859 Y44 I-0.02 J-0.6
G1 X12.401 Y25.141
X12.433 Y25.062
G3 X12.976 Y24.685 I0.557 J0.223
G1 X14.475 Y24.701
X14.649 Y24.711
X14.799 Y24.722
X14.947 Y24.744
X15.093 Y24.779
X15.236 Y24.824
X15.375 Y24.879
X15.511 Y24.943
X15.643 Y25.014
X15.771 Y25.093
X15.894 Y25.179
X16.013 Y25.271
X16.126 Y25.368
X16.236 Y25.471
X16.34 Y25.579
X16.44 Y25.691
X16.534 Y25.807
X16.624 Y25.927
X16.709 Y26.051
X16.789 Y26.178
X16.864 Y26.308
X16.935 Y26.44
X17 Y26.575
X17.061 Y26.712
X17.117 Y26.851
X17.169 Y26.992
X17.215 Y27.135
X17.257 Y27.279
X17.295 Y27.424
X17.328 Y27.57
X17.356 Y27.717
X17.38 Y27.866
X17.4 Y28.014
X17.415 Y28.163
X17.426 Y28.313
X17.433 Y28.463
X17.436 Y28.613
X17.434 Y28.763
X17.429 Y28.913
X17.419 Y29.062
X17.405 Y29.212
X17.388 Y29.361
X17.366 Y29.509
X17.341 Y29.657
X17.312 Y29.804
X17.279 Y29.951
X17.243 Y30.096
X17.203 Y30.241
X17.159 Y30.384
X17.112 Y30.527
X17.062 Y30.668
X17.008 Y30.808
X16.951 Y30.947
X16.89 Y31.084
X16.826 Y31.22
X16.759 Y31.354
X16.689 Y31.486
X16.616 Y31.617
X16.54 Y31.747
X16.461 Y31.874
X16.381 Y32.001
X16.299 Y32.126
X16.05 Y32.5
X15.553 Y33.233
X15.085 Y33.986
X14.665 Y34.766
X14.297 Y35.572
X13.976 Y36.398
X13.693 Y37.238
X13.439 Y38.087
X13.204 Y38.941
X12.979 Y39.798
X12.868 Y40.227
X12.699 Y40.867
X12.617 Y41.167
X12.55 Y41.408
X12.474 Y41.672
X12.417 Y41.865
X12.374 Y42.008
X12.328 Y42.157
X12.282 Y42.3
X12.235 Y42.442
X12.187 Y42.584
X12.137 Y42.726
X12.086 Y42.867
X12.033 Y43.007
X11.978 Y43.147
X11.921 Y43.285
X11.861 Y43.423
X11.799 Y43.559
X11.746 Y43.67
X11.593 Y43.919
X11.392 Y44.131
X11.15 Y44.296
X10.88 Y44.408
X10.592 Y44.461
X9.444 Y44.55
X9.243 Y44.564
X7.89 Y44.656
G3 X7.304 Y43.857 I-0.02 J-0.6
G1 X13.903 Y25.158
X13.924 Y25.101
G3 X14.475 Y24.701 I0.566 J0.2
G1 X16.195 Y24.719
X16.345 Y24.728
X16.495 Y24.741
X16.643 Y24.766
X16.788 Y24.802
X16.931 Y24.848
X17.07 Y24.903
X17.207 Y24.967
X17.339 Y25.037
X17.467 Y25.115
X17.591 Y25.199
X17.711 Y25.289
X17.827 Y25.385
X17.938 Y25.485
X18.045 Y25.591
X18.147 Y25.7
X18.246 Y25.814
X18.339 Y25.931
X18.897 Y26.619
X19.625 Y27.124
X20.433 Y27.489
X21.279 Y27.751
X22.146 Y27.937
X23.022 Y28.069
X23.903 Y28.162
X24.787 Y28.228
X25.672 Y28.274
X26.557 Y28.307
X27.443 Y28.33
X28.329 Y28.346
X29.215 Y28.357
X30.101 Y28.365
X30.987 Y28.371
X31.874 Y28.375
X33.646 Y28.379
X36.747 Y28.383
X37.035
X37.179 Y28.424
X37.312 Y28.493
X37.437 Y28.576
X37.554 Y28.67
X37.664 Y28.772
X37.768 Y28.88
X37.866 Y28.994
X37.958 Y29.112
X38.045 Y29.234
X38.128 Y29.359
X38.206 Y29.487
X38.279 Y29.618
X38.349 Y29.751
X38.415 Y29.886
X38.477 Y30.022
X38.536 Y30.16
X38.592 Y30.299
X38.645 Y30.44
X38.695 Y30.581
X38.742 Y30.723
X38.787 Y30.867
X38.83 Y31.01
X38.87 Y31.155
X38.908 Y31.3
X38.945 Y31.445
X38.979 Y31.591
X39.011 Y31.738
X39.042 Y31.885
X39.072 Y32.032
X39.099 Y32.179
X39.126 Y32.327
X39.151 Y32.475
X39.174 Y32.623
X39.197 Y32.771
X39.229 Y32.998
X39.239 Y33.072
X39.188 Y33.213
X39.115 Y33.344
X39.028 Y33.467
X38.933 Y33.582
X38.829 Y33.691
X38.719 Y33.793
X38.604 Y33.89
X38.485 Y33.981
X38.362 Y34.066
X38.236 Y34.148
X38.107 Y34.224
X37.976 Y34.297
X37.843 Y34.366
X37.707 Y34.431
X37.57 Y34.492
X37.432 Y34.55
X37.293 Y34.605
X37.152 Y34.657
X37.01 Y34.707
X36.868 Y34.754
X36.725 Y34.798
X36.581 Y34.84
X36.436 Y34.88
X36.291 Y34.918
X36.145 Y34.953
X35.999 Y34.987
X35.853 Y35.019
X35.706 Y35.05
X35.558 Y35.079
X35.411 Y35.106
X35.263 Y35.132
X35.115 Y35.157
X34.967 Y35.18
X34.819 Y35.202
X34.669 Y35.224
X34.51 Y35.245
X34.342 Y35.266
X34.163 Y35.288
X33.972 Y35.309
X33.766 Y35.33
X33.545 Y35.352
X33.305 Y35.373
X33.043 Y35.395
X32.755 Y35.417
X32.435 Y35.438
X32.075 Y35.46
X31.664 Y35.481
X31.186 Y35.503
X30.615 Y35.525
X29.907 Y35.547
X29.021 Y35.567
X28.135 Y35.582
X27.249 Y35.592
X26.363 Y35.599
X25.477 Y35.604
X24.591 Y35.608
X22.97 Y35.612
X22.825 Y35.571
X22.691 Y35.503
X22.566 Y35.42
X22.449 Y35.327
X22.339 Y35.225
X22.235 Y35.117
X22.137 Y35.004
X22.044 Y34.885
X21.957 Y34.763
X21.874 Y34.638
X21.796 Y34.51
X21.723 Y34.379
X21.653 Y34.247
X21.587 Y34.112
X21.525 Y33.975
X21.437 Y33.772
X21.319 Y33.584
X21.173 Y33.418
X21.002 Y33.277
X20.811 Y33.165
X20.605 Y33.084
X20.389 Y33.036
X20.167 Y33.024
X19.947 Y33.046
X19.733 Y33.103
X19.53 Y33.193
X18.788 Y33.676
X18.247 Y34.378
X17.76 Y35.118
X17.27 Y35.857
X16.843 Y36.633
X16.47 Y37.437
X16.138 Y38.258
X15.838 Y39.092
X15.558 Y39.933
X15.288 Y40.777
X15.015 Y41.62
X14.726 Y42.458
X14.438 Y43.183
X14.288 Y43.486
X14.134 Y43.731
X13.933 Y43.939
X13.693 Y44.101
X13.426 Y44.21
X13.142 Y44.262
X10.592 Y44.461
G3 X9.993 Y43.687 I-0.026 J-0.599
G1 X15.626 Y25.178
X15.636 Y25.144
G3 X16.195 Y24.719 I0.574 J0.175
G1 X17.896 Y24.737
X18.289 Y24.762
X19.167 Y24.886
X20.036 Y25.06
X20.905 Y25.23
X21.778 Y25.383
X22.655 Y25.512
X23.535 Y25.618
X24.417 Y25.703
X25.3 Y25.77
X26.185 Y25.823
X27.07 Y25.863
X27.956 Y25.893
X28.841 Y25.916
X29.727 Y25.934
X30.613 Y25.947
X31.499 Y25.957
X32.386 Y25.964
X33.272 Y25.969
X35.044 Y25.976
X35.676 Y26.012
X36.169 Y26.08
X36.598 Y26.174
X36.998 Y26.297
X37.376 Y26.447
X37.743 Y26.627
X38.1 Y26.841
X38.451 Y27.091
X38.799 Y27.383
X39.141 Y27.721
X39.481 Y28.116
X39.818 Y28.577
X40.152 Y29.121
X40.482 Y29.771
X40.772 Y30.477
X40.925 Y30.954
X41.012 Y31.327
X41.064 Y31.678
X41.086 Y32
X41.083 Y32.31
X41.054 Y32.614
X41.002 Y32.915
X40.924 Y33.217
X40.82 Y33.518
X40.686 Y33.823
X40.521 Y34.128
X40.321 Y34.437
X40.082 Y34.749
X39.799 Y35.062
X39.463 Y35.379
X39.066 Y35.697
X38.594 Y36.016
X38.03 Y36.334
X37.346 Y36.652
X36.514 Y36.959
X35.662 Y37.2
X34.796 Y37.389
X33.922 Y37.536
X33.043 Y37.65
X32.162 Y37.738
X31.278 Y37.806
X30.393 Y37.858
X29.508 Y37.898
X28.623 Y37.928
X27.737 Y37.951
X26.851 Y37.968
X25.965 Y37.98
X25.079 Y37.99
X24.419 Y37.967
X23.923 Y37.91
X23.487 Y37.824
X23.09 Y37.712
X22.675 Y37.558
X22.237 Y37.491
X21.354 Y37.566
X20.549 Y37.937
X19.855 Y38.488
X19.264 Y39.148
X18.758 Y39.875
X18.315 Y40.643
X17.915 Y41.434
X17.537 Y42.235
X17.149 Y43.032
X16.973 Y43.344
X16.816 Y43.567
X16.618 Y43.756
X16.387 Y43.903
X16.133 Y44.002
X15.864 Y44.05
X13.142 Y44.262
G3 X12.535 Y43.511 I-0.026 J-0.599
G1 X17.327 Y25.196
X17.33 Y25.185
G3 X17.896 Y24.737 I0.58 J0.152
G1 X25.341 Y24.82
X29.969 Y24.867
X33.39 Y24.9
X37.012 Y24.928
X37.344 Y24.948
X37.682 Y24.995
X38.041 Y25.074
X38.428 Y25.194
X38.817 Y25.349
X39.219 Y25.548
X39.644 Y25.802
X40.07 Y26.107
X40.491 Y26.462
X40.931 Y26.898
X41.37 Y27.41
X41.772 Y27.961
X42.115 Y28.523
X42.397 Y29.08
X42.621 Y29.63
X42.794 Y30.172
X42.916 Y30.701
X42.993 Y31.219
X43.027 Y31.73
X43.02 Y32.236
X42.973 Y32.738
X42.885 Y33.237
X42.756 Y33.733
X42.584 Y34.225
X42.37 Y34.71
X42.112 Y35.188
X41.802 Y35.665
X41.436 Y36.141
X41.004 Y36.617
X40.508 Y37.082
X39.957 Y37.521
X39.298 Y37.966
X38.536 Y38.395
X37.731 Y38.766
X36.902 Y39.078
X36.055 Y39.339
X35.196 Y39.554
X34.327 Y39.73
X33.453 Y39.873
X32.574 Y39.988
X31.693 Y40.081
X30.81 Y40.155
X29.926 Y40.213
X29.041 Y40.259
X28.155 Y40.295
X27.27 Y40.323
X26.383 Y40.336
X25.498 Y40.316
X24.615 Y40.242
X23.729 Y40.269
X22.888 Y40.549
X22.132 Y41.01
X21.463 Y41.592
X20.867 Y42.248
X20.319 Y42.944
X20.1 Y43.227
X19.902 Y43.434
X19.665 Y43.597
X19.4 Y43.708
X19.119 Y43.763
X16.487 Y43.997
X16.085 Y44.032
X15.864 Y44.05
G3 X15.45 Y42.992 I-0.026 J-0.599
G1 X36.351 Y25.316
X36.641 Y25.07
G3 X37.012 Y24.928 I0.387 J0.458
G1 X39.829 Y24.951
X40.056 Y24.964
X40.298 Y24.998
X40.571 Y25.058
X40.87 Y25.15
X41.185 Y25.276
X41.53 Y25.447
X41.887 Y25.661
X42.255 Y25.924
X42.642 Y26.25
X43.013 Y26.618
X43.374 Y27.039
X43.721 Y27.515
X44.04 Y28.037
X44.323 Y28.597
X44.564 Y29.186
X44.759 Y29.798
X44.905 Y30.429
X45 Y31.074
X45.044 Y31.728
X45.035 Y32.39
X44.972 Y33.054
X44.855 Y33.717
X44.683 Y34.378
X44.456 Y35.032
X44.17 Y35.681
X43.82 Y36.326
X43.405 Y36.966
X42.923 Y37.592
X42.362 Y38.21
X41.716 Y38.816
X41.023 Y39.369
X40.29 Y39.867
X39.522 Y40.309
X38.727 Y40.699
X37.909 Y41.04
X37.073 Y41.336
X36.224 Y41.59
X35.365 Y41.806
X34.498 Y41.989
X33.625 Y42.143
X32.749 Y42.271
X31.869 Y42.377
X30.987 Y42.464
X30.104 Y42.535
X29.22 Y42.593
X28.334 Y42.636
X27.449 Y42.66
X26.563 Y42.656
X25.683 Y42.763
X24.844 Y43.047
X24.693 Y43.129
X24.526 Y43.205
X24.351 Y43.259
X24.17 Y43.29
X22.725 Y43.438
X21.92 Y43.512
X19.119 Y43.763
G3 X18.698 Y42.706 I-0.032 J-0.599
G1 X39.168 Y25.338
X39.457 Y25.093
G3 X39.829 Y24.951 I0.388 J0.458
G1 X41.64 Y24.965
X42.244 Y24.968
X42.396 Y24.976
X42.623 Y25.008
X42.867 Y25.061
X43.132 Y25.142
X43.418 Y25.255
X43.72 Y25.404
X44.036 Y25.593
X44.373 Y25.832
X44.703 Y26.109
X45.052 Y26.453
X45.39 Y26.845
X45.714 Y27.287
X46.028 Y27.798
X46.319 Y28.371
X46.573 Y28.988
X46.782 Y29.64
X46.945 Y30.338
X47.056 Y31.076
X47.109 Y31.844
X47.1 Y32.634
X47.026 Y33.439
X46.885 Y34.252
X46.674 Y35.071
X46.391 Y35.891
X46.035 Y36.702
X45.616 Y37.483
X45.137 Y38.229
X44.602 Y38.935
X44.018 Y39.601
X43.387 Y40.224
X42.717 Y40.804
X42.691 Y40.824
X42.494 Y40.948
X42.279 Y41.038
X42.053 Y41.092
X40.232 Y41.364
X39.922 Y41.407
X34.799 Y42.096
X34.195 Y42.174
X33.793 Y42.222
X28.762 Y42.815
X28.158 Y42.881
X24.17 Y43.29
G3 X23.718 Y42.255 I-0.04 J-0.599
G1 X41.596 Y25.371
X41.85 Y25.132
G3 X42.244 Y24.968 I0.412 J0.436
G1 X44.458 Y24.98
X44.607 Y24.989
X44.823 Y25.02
X45.053 Y25.072
X45.311 Y25.153
X45.574 Y25.26
X45.869 Y25.408
X46.165 Y25.588
X46.485 Y25.82
X46.809 Y26.096
X47.136 Y26.424
X47.476 Y26.825
X47.79 Y27.262
X48.1 Y27.775
X48.396 Y28.369
X48.656 Y29.014
X48.871 Y29.707
X49.044 Y30.474
X49.162 Y31.301
X49.215 Y32.176
X49.198 Y33.062
X49.112 Y33.944
X48.961 Y34.817
X48.744 Y35.676
X48.466 Y36.518
X48.13 Y37.338
X47.74 Y38.134
X47.299 Y38.902
X46.81 Y39.641
