(1001)
(Bearbeiten)
(  Hersteller: ChinaCnc)
(  model: 3040T)
(  description: Generic 3-axis)
(T5  D=3.175 CR=0 - ZMIN=-30.2 - Schaftfraser)
G90 G94
G17
G21
(When using Fusion 360 for Personal Use, the feedrate of)
(rapid moves is reduced to match the feedrate of cutting)
(moves, which can increase machining time. Unrestricted rapid)
(moves are available with a Fusion 360 Subscription.)
G28 G91 Z0
G90

(2D Adaptive11)
T5
S6000 M3
G54
G0 X-297.072 Y-82.701
Z4
G1 Z2.51 F1000
Z-5.365
Z-5.682
X-297.066 Y-82.696 Z-5.753
X-297.048 Y-82.68 Z-5.82
X-297.02 Y-82.655 Z-5.88
X-296.983 Y-82.621 Z-5.931
X-296.938 Y-82.581 Z-5.969
X-296.888 Y-82.536 Z-5.992
X-296.835 Y-82.489 Z-6
G3 X-295.864 Y-81.038 I-2.347 J2.621
G1 X-295.818 Y-80.892
X-295.809 Y-80.856
X-295.887 Y-80.727
X-295.981 Y-80.611
X-296.087 Y-80.505
X-296.224 Y-80.389
X-296.404 Y-80.261
X-296.641 Y-80.118
X-296.962 Y-79.958
X-297.419 Y-79.775
X-298.033 Y-79.584
X-298.513 Y-79.47
X-298.708 Y-79.45
X-298.901 Y-79.483
X-299.079 Y-79.564
X-299.229 Y-79.689
X-299.342 Y-79.85
G3 X-299.138 Y-80.292 I0.287 J-0.136
G1 X-298.916 Y-80.353
X-296.5 Y-81.011
X-296.201 Y-81.093
G3 X-295.818 Y-80.892 I0.083 J0.306
G1 X-295.703 Y-80.524
X-295.665 Y-80.379
X-295.704 Y-80.234
X-295.759 Y-80.095
X-295.828 Y-79.962
X-295.91 Y-79.832
X-296.022 Y-79.682
X-296.154 Y-79.533
X-296.32 Y-79.374
X-296.54 Y-79.193
X-296.788 Y-79.021
X-297.089 Y-78.847
X-297.366 Y-78.715
X-297.588 Y-78.63
X-297.811 Y-78.565
X-298.007 Y-78.524
X-298.103 Y-78.512
X-298.327 Y-78.519
X-298.539 Y-78.592
X-298.72 Y-78.725
X-298.852 Y-78.906
X-299.342 Y-79.85
G3 X-299.099 Y-80.3 I0.287 J-0.136
G1 X-298.911 Y-80.327
X-296.393 Y-80.684
X-296.047 Y-80.733
G3 X-295.703 Y-80.524 I0.045 J0.314
G1 X-295.519 Y-79.937
X-295.481 Y-79.792
X-295.487 Y-79.642
X-295.511 Y-79.494
X-295.55 Y-79.349
X-295.603 Y-79.205
X-295.671 Y-79.06
X-295.764 Y-78.895
X-295.873 Y-78.734
X-296.011 Y-78.563
X-296.171 Y-78.393
X-296.35 Y-78.231
X-296.546 Y-78.081
X-296.756 Y-77.945
X-296.948 Y-77.843
X-297.158 Y-77.751
X-297.339 Y-77.688
X-297.507 Y-77.645
X-297.607 Y-77.628
X-297.84 Y-77.624
X-298.062 Y-77.694
X-298.252 Y-77.829
X-298.391 Y-78.016
X-298.852 Y-78.906
G3 X-298.653 Y-79.348 I0.287 J-0.136
G1 X-298.428 Y-79.412
X-296.199 Y-80.052
X-295.906 Y-80.137
G3 X-295.519 Y-79.937 I0.088 J0.305
G1 X-295.29 Y-79.208
X-295.252 Y-79.063
X-295.238 Y-78.913
X-295.244 Y-78.763
X-295.265 Y-78.615
X-295.299 Y-78.469
X-295.349 Y-78.318
X-295.413 Y-78.166
X-295.497 Y-78.005
X-295.601 Y-77.84
X-295.722 Y-77.678
X-295.863 Y-77.518
X-296.022 Y-77.364
X-296.197 Y-77.22
X-296.372 Y-77.098
X-296.547 Y-76.996
X-296.731 Y-76.908
X-296.89 Y-76.847
X-297.051 Y-76.799
X-297.14 Y-76.781
X-297.331 Y-76.766
X-297.52 Y-76.801
X-297.693 Y-76.883
X-297.839 Y-77.007
X-297.949 Y-77.165
X-298.391 Y-78.016
G3 X-298.216 Y-78.45 I0.287 J-0.136
G1 X-297.972 Y-78.542
X-295.963 Y-79.301
X-295.702 Y-79.399
G3 X-295.29 Y-79.208 I0.112 J0.297
G1 X-295.016 Y-78.333
X-294.978 Y-78.188
X-294.961 Y-78.039
X-294.963 Y-77.889
X-294.981 Y-77.74
X-295.012 Y-77.593
X-295.057 Y-77.447
X-295.119 Y-77.292
X-295.195 Y-77.138
X-295.289 Y-76.981
X-295.403 Y-76.82
X-295.534 Y-76.665
X-295.68 Y-76.518
X-295.836 Y-76.384
X-295.99 Y-76.271
X-296.16 Y-76.167
X-296.311 Y-76.091
X-296.471 Y-76.025
X-296.629 Y-75.974
X-296.696 Y-75.959
X-296.89 Y-75.94
X-297.082 Y-75.973
X-297.259 Y-76.055
X-297.409 Y-76.18
X-297.521 Y-76.34
X-297.949 Y-77.165
G3 X-297.779 Y-77.597 I0.287 J-0.136
G1 X-297.532 Y-77.694
X-295.687 Y-78.422
X-295.432 Y-78.523
G3 X-295.016 Y-78.333 I0.117 J0.295
G1 X-294.741 Y-77.458
X-294.703 Y-77.313
X-294.683 Y-77.164
X-294.681 Y-77.014
X-294.695 Y-76.865
X-294.725 Y-76.718
X-294.767 Y-76.574
X-294.823 Y-76.428
X-294.896 Y-76.275
X-294.984 Y-76.124
X-295.087 Y-75.975
X-295.208 Y-75.829
X-295.345 Y-75.687
X-295.484 Y-75.565
X-295.633 Y-75.453
X-295.783 Y-75.359
X-295.921 Y-75.287
X-296.077 Y-75.221
X-296.224 Y-75.172
X-296.272 Y-75.16
X-296.468 Y-75.139
X-296.662 Y-75.17
X-296.841 Y-75.252
X-296.993 Y-75.378
X-297.106 Y-75.539
X-297.521 Y-76.34
G3 X-297.352 Y-76.771 I0.287 J-0.136
G1 X-297.105 Y-76.87
X-295.412 Y-77.546
X-295.158 Y-77.647
G3 X-294.741 Y-77.458 I0.118 J0.295
G1 X-294.446 Y-76.518
X-294.409 Y-76.372
X-294.396 Y-76.223
X-294.401 Y-76.073
X-294.422 Y-75.924
X-294.457 Y-75.779
X-294.505 Y-75.636
X-294.567 Y-75.491
X-294.644 Y-75.347
X-294.734 Y-75.206
X-294.842 Y-75.064
X-294.964 Y-74.927
X-295.089 Y-74.808
X-295.224 Y-74.699
X-295.364 Y-74.603
X-295.494 Y-74.528
X-295.64 Y-74.46
X-295.782 Y-74.406
X-295.841 Y-74.39
X-296.041 Y-74.361
X-296.242 Y-74.388
X-296.428 Y-74.468
X-296.585 Y-74.595
X-296.702 Y-74.761
X-297.106 Y-75.539
G3 X-296.925 Y-75.974 I0.287 J-0.136
G1 X-296.686 Y-76.059
X-295.121 Y-76.615
X-294.852 Y-76.711
G3 X-294.446 Y-76.518 I0.106 J0.299
G1 X-294.172 Y-75.643
X-294.134 Y-75.497
X-294.122 Y-75.348
X-294.127 Y-75.198
X-294.15 Y-75.05
X-294.187 Y-74.904
X-294.237 Y-74.763
X-294.299 Y-74.626
X-294.375 Y-74.49
X-294.464 Y-74.355
X-294.57 Y-74.222
X-294.679 Y-74.104
X-294.799 Y-73.994
X-294.928 Y-73.894
X-295.053 Y-73.811
X-295.187 Y-73.739
X-295.324 Y-73.678
X-295.466 Y-73.628
X-295.472 Y-73.627
X-295.668 Y-73.605
X-295.864 Y-73.635
X-296.044 Y-73.716
X-296.196 Y-73.842
X-296.31 Y-74.004
X-296.702 Y-74.761
G3 X-296.515 Y-75.199 I0.287 J-0.136
G1 X-296.28 Y-75.276
X-294.849 Y-75.747
X-294.571 Y-75.839
G3 X-294.172 Y-75.643 I0.099 J0.302
G1 X-293.918 Y-74.833
X-293.88 Y-74.688
X-293.861 Y-74.539
X-293.863 Y-74.389
X-293.882 Y-74.241
X-293.917 Y-74.095
X-293.966 Y-73.953
X-294.027 Y-73.816
X-294.101 Y-73.685
X-294.186 Y-73.558
X-294.285 Y-73.433
X-294.388 Y-73.323
X-294.502 Y-73.221
X-294.621 Y-73.129
X-294.747 Y-73.048
X-294.88 Y-72.978
X-295.018 Y-72.92
X-295.047 Y-72.911
X-295.251 Y-72.876
X-295.457 Y-72.898
X-295.649 Y-72.977
X-295.811 Y-73.106
X-295.932 Y-73.275
X-296.31 Y-74.004
G3 X-296.121 Y-74.442 I0.287 J-0.136
G1 X-295.888 Y-74.518
X-294.596 Y-74.939
X-294.316 Y-75.03
G3 X-293.918 Y-74.833 I0.098 J0.302
G1 X-293.652 Y-73.985
X-293.614 Y-73.84
X-293.6 Y-73.691
X-293.607 Y-73.541
X-293.631 Y-73.393
X-293.671 Y-73.248
X-293.725 Y-73.108
X-293.792 Y-72.974
X-293.871 Y-72.846
X-293.96 Y-72.726
X-294.059 Y-72.613
X-294.168 Y-72.51
X-294.285 Y-72.416
X-294.41 Y-72.334
X-294.543 Y-72.263
X-294.684 Y-72.203
X-294.888 Y-72.169
X-295.093 Y-72.192
X-295.284 Y-72.271
X-295.446 Y-72.4
X-295.565 Y-72.568
X-295.932 Y-73.275
G3 X-295.73 Y-73.717 I0.287 J-0.136
G1 X-295.506 Y-73.779
X-294.334 Y-74.103
X-294.036 Y-74.186
G3 X-293.652 Y-73.985 I0.085 J0.306
G1 X-293.395 Y-73.164
X-293.357 Y-73.018
X-293.347 Y-72.869
X-293.359 Y-72.719
X-293.388 Y-72.572
X-293.434 Y-72.429
X-293.494 Y-72.292
X-293.567 Y-72.161
X-293.652 Y-72.037
X-293.748 Y-71.922
X-293.855 Y-71.816
X-293.97 Y-71.721
X-294.095 Y-71.638
X-294.227 Y-71.567
X-294.267 Y-71.55
X-294.481 Y-71.495
X-294.701 Y-71.505
X-294.908 Y-71.58
X-295.084 Y-71.712
X-295.214 Y-71.891
X-295.565 Y-72.568
G3 X-295.348 Y-73.015 I0.287 J-0.136
G1 X-295.137 Y-73.061
X-294.08 Y-73.297
X-293.763 Y-73.368
G3 X-293.395 Y-73.164 I0.069 J0.31
G1 X-293.166 Y-72.435
X-293.128 Y-72.289
X-293.112 Y-72.14
X-293.12 Y-71.99
X-293.146 Y-71.843
X-293.191 Y-71.699
X-293.25 Y-71.562
X-293.324 Y-71.431
X-293.412 Y-71.31
X-293.511 Y-71.197
X-293.621 Y-71.095
X-293.742 Y-71.006
X-293.87 Y-70.929
X-293.905 Y-70.912
X-294.122 Y-70.849
X-294.348 Y-70.854
X-294.562 Y-70.926
X-294.744 Y-71.06
X-294.877 Y-71.242
X-295.214 Y-71.891
G3 X-294.991 Y-72.338 I0.287 J-0.136
G1 X-294.785 Y-72.381
X-293.852 Y-72.573
X-293.53 Y-72.64
G3 X-293.166 Y-72.435 I0.064 J0.311
G1 X-292.937 Y-71.705
X-292.9 Y-71.56
X-292.883 Y-71.411
X-292.891 Y-71.261
X-292.92 Y-71.114
X-292.967 Y-70.972
X-293.031 Y-70.836
X-293.111 Y-70.709
X-293.203 Y-70.591
X-293.309 Y-70.484
X-293.426 Y-70.391
X-293.552 Y-70.309
X-293.569 Y-70.301
X-293.788 Y-70.232
X-294.017 Y-70.233
X-294.235 Y-70.304
X-294.421 Y-70.439
X-294.556 Y-70.623
X-294.877 Y-71.242
G3 X-294.642 Y-71.692 I0.287 J-0.136
G1 X-294.447 Y-71.724
X-293.626 Y-71.858
X-293.288 Y-71.913
G3 X-292.937 Y-71.705 I0.051 J0.313
G1 X-292.709 Y-70.976
X-292.671 Y-70.831
X-292.661 Y-70.682
X-292.676 Y-70.532
X-292.712 Y-70.387
X-292.767 Y-70.247
X-292.84 Y-70.116
X-292.929 Y-69.995
X-293.031 Y-69.886
X-293.147 Y-69.79
X-293.187 Y-69.763
X-293.373 Y-69.674
X-293.577 Y-69.64
X-293.782 Y-69.663
X-293.972 Y-69.742
X-294.134 Y-69.871
X-294.254 Y-70.039
X-294.556 Y-70.623
G3 X-294.298 Y-71.076 I0.287 J-0.136
G1 X-294.124 Y-71.091
X-293.401 Y-71.155
X-293.036 Y-71.187
G3 X-292.709 Y-70.976 I0.028 J0.316
G1 X-292.5 Y-70.311
X-292.462 Y-70.166
X-292.454 Y-70.016
X-292.471 Y-69.867
X-292.513 Y-69.723
X-292.574 Y-69.586
X-292.654 Y-69.459
X-292.75 Y-69.344
X-292.861 Y-69.243
X-292.883 Y-69.227
X-293.07 Y-69.131
X-293.277 Y-69.091
X-293.486 Y-69.111
X-293.681 Y-69.189
X-293.846 Y-69.319
X-293.969 Y-69.49
X-294.254 Y-70.039
G3 X-293.975 Y-70.493 I0.287 J-0.136
G1 X-293.821 Y-70.497
X-293.194 Y-70.513
X-292.808 Y-70.523
G3 X-292.5 Y-70.311 I0.008 J0.317
G1 X-292.297 Y-69.664
X-292.259 Y-69.519
X-292.257 Y-69.369
X-292.283 Y-69.221
X-292.333 Y-69.08
X-292.406 Y-68.948
X-292.496 Y-68.829
X-292.526 Y-68.799
X-292.713 Y-68.664
X-292.932 Y-68.593
X-293.163 Y-68.592
X-293.382 Y-68.663
X-293.569 Y-68.798
X-293.706 Y-68.983
X-293.969 Y-69.49
G3 X-293.662 Y-69.943 I0.287 J-0.136
G1 X-293.536 Y-69.935
X-292.99 Y-69.901
X-292.577 Y-69.875
G3 X-292.297 Y-69.664 I-0.02 J0.317
G1 X-292.114 Y-69.081
X-292.077 Y-68.936
X-292.079 Y-68.786
X-292.111 Y-68.639
X-292.171 Y-68.501
X-292.251 Y-68.375
X-292.257 Y-68.367
X-292.442 Y-68.218
X-292.665 Y-68.136
X-292.902 Y-68.127
X-293.13 Y-68.195
X-293.325 Y-68.331
X-293.466 Y-68.521
X-293.706 Y-68.983
G3 X-293.374 Y-69.434 I0.287 J-0.136
G1 X-293.274 Y-69.419
X-292.804 Y-69.352
X-292.369 Y-69.289
G3 X-292.114 Y-69.081 I-0.045 J0.314
G1 X-291.952 Y-68.563
X-291.914 Y-68.418
X-291.917 Y-68.268
X-292.004 Y-68.07
X-292.146 Y-67.906
X-292.329 Y-67.791
X-292.539 Y-67.736
X-292.755 Y-67.745
X-292.959 Y-67.818
X-293.132 Y-67.948
X-293.26 Y-68.123
X-293.466 Y-68.521
G3 X-293.113 Y-68.968 I0.287 J-0.136
G1 X-293.036 Y-68.951
X-292.636 Y-68.865
X-292.184 Y-68.768
G3 X-291.952 Y-68.563 I-0.067 J0.31
G1 X-291.815 Y-68.126
X-291.777 Y-67.98
X-291.785 Y-67.831
X-291.873 Y-67.649
X-292.01 Y-67.5
X-292.184 Y-67.398
X-292.38 Y-67.351
X-292.582 Y-67.363
X-292.771 Y-67.433
X-292.932 Y-67.555
X-293.05 Y-67.718
G3 X-292.842 Y-68.162 I0.287 J-0.136
G1 X-292.623 Y-68.218
X-292.498 Y-68.25
X-292.193 Y-68.328
G3 X-291.815 Y-68.126 I0.078 J0.308
G1 X-291.689 Y-67.724
X-291.651 Y-67.579
X-291.659 Y-67.429
X-291.758 Y-67.237
X-291.915 Y-67.089
X-292.112 Y-67
X-292.328 Y-66.982
X-292.537 Y-67.035
X-292.717 Y-67.155
X-292.847 Y-67.328
X-292.861 Y-67.363
X-292.871 Y-67.399
G3 X-291.689 Y-67.724 I0.603 J-0.121
G1 X-291.565 Y-67.331
X-291.528 Y-67.186
X-291.539 Y-67.036
X-291.587 Y-66.894
X-291.729 Y-66.736
X-291.916 Y-66.636
X-292.127 Y-66.607
X-292.335 Y-66.652
X-292.514 Y-66.766
X-292.643 Y-66.934
X-292.664 Y-66.991
G3 X-291.565 Y-67.331 I0.556 J-0.149
G1 X-291.438 Y-66.923
X-291.4 Y-66.778
X-291.415 Y-66.629
X-291.511 Y-66.468
X-291.653 Y-66.348
X-291.826 Y-66.279
X-292.012 Y-66.269
X-292.191 Y-66.319
X-292.345 Y-66.425
X-292.457 Y-66.574
X-292.469 Y-66.605
X-292.477 Y-66.637
G3 X-291.438 Y-66.923 I0.53 J-0.106
G1 X-291.3 Y-66.485
X-291.281 Y-66.412
X-291.302 Y-66.263
X-291.413 Y-66.095
X-291.579 Y-65.98
X-291.775 Y-65.934
X-291.975 Y-65.964
X-292.15 Y-66.065
X-292.275 Y-66.223
X-292.29 Y-66.264
X-292.298 Y-66.306
Y-66.349
G3 X-291.3 Y-66.485 I0.513 J0.035
G1 X-291.179 Y-66.098
X-291.16 Y-66.026
X-291.229 Y-65.863
X-291.349 Y-65.733
X-291.506 Y-65.653
X-291.681 Y-65.63
X-291.853 Y-65.669
X-292.002 Y-65.765
X-292.109 Y-65.905
X-292.127 Y-65.959
X-292.132 Y-66.016
X-292.123 Y-66.072
G3 X-291.179 Y-66.098 I0.476 J0.139
G1 X-291.062 Y-65.727
X-291.053 Y-65.691
X-291.139 Y-65.519
X-291.284 Y-65.394
X-291.467 Y-65.336
X-291.658 Y-65.353
X-291.827 Y-65.444
X-291.948 Y-65.593
X-291.964 Y-65.641
X-291.969 Y-65.692
X-291.962 Y-65.742
X-291.944 Y-65.79
G3 X-291.062 Y-65.727 I0.427 J0.223
G1 X-290.957 Y-65.391
X-290.948 Y-65.355
X-291.037 Y-65.201
X-291.177 Y-65.092
X-291.349 Y-65.045
X-291.525 Y-65.066
X-291.68 Y-65.153
X-291.791 Y-65.292
X-291.808 Y-65.342
X-291.811 Y-65.395
X-291.8 Y-65.446
X-291.777 Y-65.494
G3 X-290.957 Y-65.391 I0.384 J0.256
G1 X-290.854 Y-65.063
X-290.845 Y-65.027
X-290.936 Y-64.89
X-291.071 Y-64.796
X-291.231 Y-64.759
X-291.393 Y-64.783
X-291.535 Y-64.865
X-291.637 Y-64.994
X-291.653 Y-65.046
X-291.654 Y-65.1
X-291.64 Y-65.152
X-291.612 Y-65.198
G3 X-290.854 Y-65.063 I0.341 J0.281
G1 X-290.753 Y-64.74
X-290.744 Y-64.707
X-290.836 Y-64.586
X-290.964 Y-64.506
X-291.113 Y-64.477
X-291.262 Y-64.503
X-291.392 Y-64.581
X-291.485 Y-64.701
X-291.499 Y-64.742
X-291.502 Y-64.786
X-291.494 Y-64.829
X-291.476 Y-64.869
X-291.449 Y-64.903
G3 X-290.753 Y-64.74 I0.296 J0.303
G1 X-290.742 Y-64.706
X-290.722 Y-64.633
X-290.717 Y-64.597
Y-64.56
X-290.72 Y-64.527
X-290.727 Y-64.494
X-290.738 Y-64.461
X-290.753 Y-64.428
X-290.761 Y-64.415
X-290.79 Y-64.373
X-290.83 Y-64.331
X-290.864 Y-64.302
X-290.899 Y-64.279
X-290.919 Y-64.269
X-290.951 Y-64.256
X-290.982 Y-64.247
X-291.013 Y-64.242
X-291.044 Y-64.24
X-291.08 Y-64.241
X-291.115 Y-64.246
X-291.15 Y-64.255
X-291.19 Y-64.271
X-291.226 Y-64.291
X-291.263 Y-64.319
X-291.286 Y-64.342
X-291.306 Y-64.366
X-291.336 Y-64.415
X-293.26 Y-68.123
X-293.283 Y-68.189
X-293.29 Y-68.258
Y-68.259
G3 X-292.832 Y-68.544 I0.318 J0
G1 X-292.769 Y-68.512 Z-5.992
X-292.709 Y-68.483 Z-5.969
X-292.655 Y-68.456 Z-5.931
X-292.61 Y-68.434 Z-5.88
X-292.576 Y-68.417 Z-5.82
X-292.555 Y-68.406 Z-5.753
X-292.548 Y-68.403 Z-5.682
Z4
X-286.253 Y-54.242
Z2.51
Z-5.365
Z-5.682
X-286.259 Y-54.238 Z-5.753
X-286.28 Y-54.226 Z-5.82
X-286.312 Y-54.206 Z-5.88
X-286.355 Y-54.181 Z-5.931
X-286.407 Y-54.15 Z-5.969
X-286.465 Y-54.116 Z-5.992
X-286.525 Y-54.08 Z-6
G3 X-288.201 Y-53.588 I-1.798 J-3.024
G1 X-288.347
X-288.384 Y-53.589
X-288.502 Y-53.683
X-288.604 Y-53.792
X-288.695 Y-53.912
X-288.79 Y-54.061
X-288.892 Y-54.254
X-288.999 Y-54.504
X-289.112 Y-54.837
X-289.229 Y-55.305
X-289.27 Y-55.55
X-289.274 Y-55.763
X-289.218 Y-55.969
X-289.105 Y-56.151
X-288.944 Y-56.292
X-288.751 Y-56.382
X-288.539 Y-56.412
G3 X-288.234 Y-56.123 I-0.011 J0.317
G1 X-288.206 Y-55.799
X-288.065 Y-54.201
X-288.042 Y-53.933
G3 X-288.347 Y-53.588 I-0.316 J0.028
G1 X-288.785
X-288.934 Y-53.595
X-289.071 Y-53.656
X-289.2 Y-53.734
X-289.32 Y-53.823
X-289.443 Y-53.932
X-289.571 Y-54.066
X-289.697 Y-54.22
X-289.806 Y-54.379
X-289.908 Y-54.555
X-289.986 Y-54.719
X-290.043 Y-54.869
X-290.092 Y-55.039
X-290.124 Y-55.195
X-290.142 Y-55.344
X-290.148 Y-55.504
X-290.141 Y-55.654
X-290.122 Y-55.803
X-290.116 Y-55.83
X-290.047 Y-56.018
X-289.931 Y-56.181
X-289.775 Y-56.306
X-289.591 Y-56.385
X-289.393 Y-56.412
G3 X-289.098 Y-56.18 I-0.011 J0.317
G1 X-288.995 Y-55.81
X-288.546 Y-54.194
X-288.49 Y-53.99
G3 X-288.785 Y-53.588 I-0.306 J0.085
G1 X-289.448
X-289.598 Y-53.595
X-289.745 Y-53.625
X-289.887 Y-53.673
X-290.022 Y-53.738
X-290.151 Y-53.816
X-290.271 Y-53.906
X-290.383 Y-54.006
X-290.488 Y-54.116
X-290.589 Y-54.241
X-290.685 Y-54.38
X-290.772 Y-54.532
X-290.848 Y-54.694
X-290.909 Y-54.857
X-290.953 Y-55.01
X-290.988 Y-55.181
X-291.006 Y-55.335
X-291.012 Y-55.485
X-291.005 Y-55.643
X-290.986 Y-55.792
X-290.98 Y-55.818
X-290.913 Y-56.005
X-290.799 Y-56.167
X-290.646 Y-56.293
X-290.465 Y-56.374
X-290.269 Y-56.404
X-289.762 Y-56.411
X-289.58 Y-56.412
X-289.393
G3 X-289.086 Y-56.087 I-0.011 J0.317
G1 X-289.094 Y-55.798
X-289.134 Y-54.202
X-289.142 Y-53.897
G3 X-289.448 Y-53.588 I-0.317 J-0.008
G1 X-289.66
X-289.806 Y-53.584
X-290.118 Y-53.574
X-290.243 Y-53.569
X-290.393
X-290.542 Y-53.589
X-290.687 Y-53.629
X-290.825 Y-53.687
X-290.957 Y-53.759
X-291.081 Y-53.843
X-291.196 Y-53.939
X-291.306 Y-54.046
X-291.411 Y-54.167
X-291.509 Y-54.3
X-291.598 Y-54.444
X-291.679 Y-54.601
X-291.75 Y-54.77
X-291.801 Y-54.927
X-291.84 Y-55.094
X-291.866 Y-55.257
X-291.877 Y-55.406
X-291.875 Y-55.565
X-291.862 Y-55.714
X-291.852 Y-55.769
X-291.792 Y-55.959
X-291.684 Y-56.126
X-291.535 Y-56.258
X-291.356 Y-56.346
X-291.16 Y-56.383
X-291.119 Y-56.385
X-290.681 Y-56.397
X-290.269 Y-56.404
G3 X-289.957 Y-56.087 I-0.005 J0.317
G1 X-289.956 Y-55.794
X-289.952 Y-54.197
Y-53.885
G3 X-290.243 Y-53.569 I-0.318 J0
G1 X-291.119 Y-53.528
X-291.269 Y-53.523
X-291.417 Y-53.547
X-291.56 Y-53.591
X-291.698 Y-53.651
X-291.828 Y-53.725
X-291.951 Y-53.811
X-292.066 Y-53.907
X-292.175 Y-54.014
X-292.28 Y-54.137
X-292.38 Y-54.274
X-292.472 Y-54.424
X-292.554 Y-54.584
X-292.621 Y-54.749
X-292.672 Y-54.907
X-292.712 Y-55.081
X-292.736 Y-55.238
X-292.746 Y-55.387
X-292.744 Y-55.549
X-292.73 Y-55.699
X-292.727 Y-55.717
X-292.667 Y-55.904
X-292.56 Y-56.068
X-292.415 Y-56.199
X-292.24 Y-56.287
X-292.048 Y-56.326
X-291.557 Y-56.359
X-291.265 Y-56.378
X-291.16 Y-56.383
G3 X-290.837 Y-56.065 I0.005 J0.317
G1 X-290.838 Y-55.784
Y-54.167
Y-53.843
G3 X-291.119 Y-53.528 I-0.318 J0
G1 X-291.557 Y-53.492
X-291.702 Y-53.472
X-291.848 Y-53.45
X-291.997 Y-53.434
X-292.147 Y-53.443
X-292.294 Y-53.473
X-292.436 Y-53.521
X-292.572 Y-53.585
X-292.701 Y-53.661
X-292.823 Y-53.749
X-292.938 Y-53.847
X-293.05 Y-53.96
X-293.158 Y-54.088
X-293.26 Y-54.229
X-293.353 Y-54.384
X-293.435 Y-54.549
X-293.502 Y-54.717
X-293.55 Y-54.874
X-293.589 Y-55.047
X-293.611 Y-55.2
X-293.62 Y-55.352
X-293.616 Y-55.511
X-293.613 Y-55.541
X-293.569 Y-55.729
X-293.478 Y-55.898
X-293.346 Y-56.039
X-293.182 Y-56.141
X-292.998 Y-56.197
X-292.724 Y-56.243
X-292.578 Y-56.264
X-292.14 Y-56.319
X-292.048 Y-56.326
G3 X-291.721 Y-56.027 I0.011 J0.317
G1 X-291.704 Y-55.733
X-291.61 Y-54.107
X-291.591 Y-53.78
G3 X-291.848 Y-53.45 I-0.317 J0.018
G1 X-292.432 Y-53.359
X-292.578 Y-53.336
X-292.658 Y-53.321
X-292.807 Y-53.302
X-292.956 Y-53.31
X-293.104 Y-53.339
X-293.246 Y-53.385
X-293.384 Y-53.445
X-293.515 Y-53.519
X-293.638 Y-53.603
X-293.76 Y-53.702
X-293.879 Y-53.816
X-293.993 Y-53.943
X-294.099 Y-54.083
X-294.197 Y-54.237
X-294.285 Y-54.404
X-294.353 Y-54.561
X-294.41 Y-54.729
X-294.45 Y-54.891
X-294.475 Y-55.039
X-294.489 Y-55.202
Y-55.214
X-294.455 Y-55.438
X-294.356 Y-55.642
X-294.199 Y-55.805
X-294.001 Y-55.914
X-293.745 Y-56.007
X-293.599 Y-56.058
X-293.453 Y-56.107
X-293.161 Y-56.169
X-292.998 Y-56.197
G3 X-292.641 Y-55.915 I0.041 J0.315
G1 X-292.613 Y-55.638
X-292.443 Y-53.985
X-292.41 Y-53.664
G3 X-292.658 Y-53.321 I-0.316 J0.032
G1 X-293.015 Y-53.255
X-293.307 Y-53.164
X-293.453 Y-53.127
X-293.602 Y-53.113
X-293.752 Y-53.121
X-293.899 Y-53.148
X-294.043 Y-53.192
X-294.181 Y-53.249
X-294.314 Y-53.319
X-294.441 Y-53.401
X-294.57 Y-53.5
X-294.694 Y-53.611
X-294.813 Y-53.737
X-294.926 Y-53.877
X-295.031 Y-54.032
X-295.113 Y-54.175
X-295.185 Y-54.329
X-295.245 Y-54.49
X-295.286 Y-54.634
X-295.302 Y-54.718
X-295.315 Y-54.909
X-295.278 Y-55.097
X-295.194 Y-55.269
X-295.069 Y-55.414
X-294.911 Y-55.523
X-294.734 Y-55.613
X-294.62 Y-55.666
X-294.183 Y-55.847
X-294.001 Y-55.914
G3 X-293.593 Y-55.683 I0.098 J0.302
G1 X-293.536 Y-55.431
X-293.174 Y-53.849
X-293.102 Y-53.535
G3 X-293.307 Y-53.164 I-0.31 J0.071
G1 X-294.081 Y-52.923
X-294.226 Y-52.885
X-294.375 Y-52.871
X-294.525 Y-52.878
X-294.673 Y-52.902
X-294.818 Y-52.942
X-294.958 Y-52.996
X-295.093 Y-53.062
X-295.225 Y-53.141
X-295.358 Y-53.236
X-295.487 Y-53.344
X-295.61 Y-53.465
X-295.716 Y-53.589
X-295.819 Y-53.73
X-295.903 Y-53.867
X-295.971 Y-54.001
X-296.031 Y-54.149
X-296.077 Y-54.292
X-296.079 Y-54.302
X-296.096 Y-54.496
X-296.062 Y-54.689
X-295.979 Y-54.866
X-295.853 Y-55.015
X-295.691 Y-55.126
X-294.911 Y-55.523
G3 X-294.473 Y-55.324 I0.134 J0.288
G1 X-294.405 Y-55.095
X-293.967 Y-53.603
X-293.881 Y-53.312
G3 X-294.081 Y-52.923 I-0.305 J0.09
G1 X-294.912 Y-52.663
X-295.057 Y-52.626
X-295.207 Y-52.615
X-295.357 Y-52.624
X-295.504 Y-52.65
X-295.649 Y-52.692
X-295.788 Y-52.747
X-295.922 Y-52.813
X-296.051 Y-52.891
X-296.18 Y-52.984
X-296.306 Y-53.092
X-296.412 Y-53.198
X-296.514 Y-53.317
X-296.603 Y-53.442
X-296.681 Y-53.57
X-296.747 Y-53.705
X-296.802 Y-53.844
X-296.814 Y-53.884
X-296.844 Y-54.09
X-296.816 Y-54.297
X-296.732 Y-54.487
X-296.597 Y-54.647
X-296.424 Y-54.763
X-296.17 Y-54.884
X-296.079 Y-54.929
X-295.691 Y-55.126
G3 X-295.253 Y-54.926 I0.134 J0.288
G1 X-295.187 Y-54.698
X-294.797 Y-53.344
X-294.712 Y-53.051
G3 X-294.912 Y-52.663 I-0.305 J0.088
G1 X-295.35 Y-52.526
X-295.496 Y-52.473
X-295.642 Y-52.415
X-295.784 Y-52.367
X-295.932 Y-52.346
X-296.082
X-296.231 Y-52.364
X-296.377 Y-52.399
X-296.519 Y-52.447
X-296.656 Y-52.509
X-296.786 Y-52.582
X-296.913 Y-52.668
X-297.03 Y-52.762
X-297.139 Y-52.866
X-297.241 Y-52.981
X-297.331 Y-53.101
X-297.411 Y-53.228
X-297.478 Y-53.362
X-297.534 Y-53.501
X-297.545 Y-53.538
X-297.577 Y-53.749
X-297.546 Y-53.96
X-297.457 Y-54.153
X-297.317 Y-54.314
X-297.137 Y-54.427
X-297.092 Y-54.447
X-296.663 Y-54.648
X-296.424 Y-54.763
G3 X-295.992 Y-54.563 I0.127 J0.291
G1 X-295.921 Y-54.325
X-295.557 Y-53.108
X-295.464 Y-52.797
G3 X-295.642 Y-52.415 I-0.304 J0.091
G1 X-296.079 Y-52.241
X-296.371 Y-52.124
X-296.513 Y-52.075
X-296.661 Y-52.049
X-296.811 Y-52.045
X-296.96 Y-52.06
X-297.106 Y-52.092
X-297.249 Y-52.138
X-297.387 Y-52.198
X-297.518 Y-52.27
X-297.643 Y-52.353
X-297.761 Y-52.445
X-297.87 Y-52.548
X-297.97 Y-52.66
X-298.061 Y-52.78
X-298.14 Y-52.907
X-298.208 Y-53.041
X-298.264 Y-53.18
X-298.275 Y-53.219
X-298.305 Y-53.43
X-298.274 Y-53.64
X-298.184 Y-53.833
X-298.042 Y-53.993
X-297.862 Y-54.106
X-297.392 Y-54.314
X-297.137 Y-54.427
G3 X-296.714 Y-54.225 I0.119 J0.294
G1 X-296.64 Y-53.978
X-296.29 Y-52.818
X-296.196 Y-52.506
G3 X-296.371 Y-52.124 I-0.304 J0.092
G1 X-296.955 Y-51.888
X-297.101 Y-51.828
X-297.242 Y-51.778
X-297.389 Y-51.75
X-297.539 Y-51.743
X-297.689 Y-51.756
X-297.836 Y-51.786
X-297.979 Y-51.831
X-298.117 Y-51.89
X-298.249 Y-51.961
X-298.374 Y-52.043
X-298.492 Y-52.136
X-298.601 Y-52.239
X-298.701 Y-52.351
X-298.792 Y-52.47
X-298.87 Y-52.598
X-298.937 Y-52.732
X-298.992 Y-52.872
X-299.003 Y-52.909
X-299.032 Y-53.12
X-298.999 Y-53.331
X-298.908 Y-53.523
X-298.765 Y-53.682
X-298.584 Y-53.794
X-297.976 Y-54.056
X-297.862 Y-54.106
G3 X-297.441 Y-53.903 I0.117 J0.295
G1 X-297.365 Y-53.654
X-297.022 Y-52.523
X-296.927 Y-52.21
G3 X-297.101 Y-51.828 I-0.304 J0.092
G1 X-297.83 Y-51.529
X-297.971 Y-51.48
X-298.118 Y-51.449
X-298.268 Y-51.442
X-298.418 Y-51.453
X-298.565 Y-51.482
X-298.708 Y-51.527
X-298.846 Y-51.585
X-298.978 Y-51.656
X-299.104 Y-51.739
X-299.222 Y-51.831
X-299.331 Y-51.934
X-299.431 Y-52.046
X-299.521 Y-52.166
X-299.599 Y-52.294
X-299.666 Y-52.428
X-299.72 Y-52.568
X-299.728 Y-52.597
X-299.756 Y-52.807
X-299.724 Y-53.016
X-299.633 Y-53.207
X-299.492 Y-53.365
X-299.313 Y-53.477
X-298.851 Y-53.678
X-298.584 Y-53.794
G3 X-298.165 Y-53.59 I0.115 J0.296
G1 X-298.089 Y-53.339
X-297.751 Y-52.225
X-297.657 Y-51.911
G3 X-297.83 Y-51.529 I-0.304 J0.092
G1 X-298.604 Y-51.213
X-298.745 Y-51.163
X-298.893 Y-51.14
X-299.043 Y-51.138
X-299.192 Y-51.155
X-299.338 Y-51.189
X-299.48 Y-51.238
X-299.616 Y-51.301
X-299.747 Y-51.375
X-299.87 Y-51.461
X-299.985 Y-51.557
X-300.091 Y-51.663
X-300.187 Y-51.778
X-300.274 Y-51.901
X-300.348 Y-52.031
X-300.41 Y-52.167
X-300.435 Y-52.237
X-300.476 Y-52.454
X-300.452 Y-52.673
X-300.364 Y-52.876
X-300.22 Y-53.043
X-300.033 Y-53.161
X-299.313 Y-53.477
G3 X-298.889 Y-53.266 I0.117 J0.295
G1 X-298.823 Y-53.023
X-298.517 Y-51.91
X-298.428 Y-51.587
G3 X-298.604 Y-51.213 I-0.306 J0.084
G1 X-299.333 Y-50.914
X-299.474 Y-50.864
X-299.622 Y-50.84
X-299.772 Y-50.838
X-299.921 Y-50.855
X-300.068 Y-50.889
X-300.209 Y-50.937
X-300.346 Y-51
X-300.476 Y-51.075
X-300.598 Y-51.161
X-300.713 Y-51.258
X-300.818 Y-51.365
X-300.915 Y-51.48
X-301 Y-51.603
X-301.073 Y-51.734
X-301.134 Y-51.871
X-301.154 Y-51.931
X-301.193 Y-52.146
X-301.167 Y-52.364
X-301.079 Y-52.564
X-300.935 Y-52.73
X-300.75 Y-52.847
X-300.033 Y-53.161
G3 X-299.609 Y-52.949 I0.117 J0.295
G1 X-299.544 Y-52.707
X-299.247 Y-51.613
X-299.158 Y-51.286
G3 X-299.333 Y-50.914 I-0.306 J0.083
G1 X-299.727 Y-50.751
X-300.018 Y-50.625
X-300.159 Y-50.573
X-300.306 Y-50.542
X-300.456 Y-50.534
X-300.605 Y-50.546
X-300.752 Y-50.575
X-300.895 Y-50.62
X-301.033 Y-50.679
X-301.165 Y-50.752
X-301.289 Y-50.835
X-301.406 Y-50.929
X-301.513 Y-51.034
X-301.612 Y-51.147
X-301.7 Y-51.269
X-301.775 Y-51.398
X-301.839 Y-51.534
X-301.858 Y-51.587
X-301.901 Y-51.799
X-301.881 Y-52.014
X-301.8 Y-52.214
X-301.664 Y-52.382
X-301.486 Y-52.504
X-301.04 Y-52.719
X-300.75 Y-52.847
G3 X-300.328 Y-52.641 I0.117 J0.295
G1 X-300.256 Y-52.394
X-299.944 Y-51.325
X-299.849 Y-51.001
G3 X-300.018 Y-50.625 I-0.305 J0.089
G1 X-300.748 Y-50.311
X-300.888 Y-50.258
X-301.036 Y-50.231
X-301.186 Y-50.225
X-301.335 Y-50.239
X-301.482 Y-50.27
X-301.624 Y-50.316
X-301.762 Y-50.377
X-301.893 Y-50.45
X-302.017 Y-50.534
X-302.132 Y-50.63
X-302.239 Y-50.736
X-302.336 Y-50.85
X-302.421 Y-50.974
X-302.494 Y-51.104
X-302.556 Y-51.241
X-302.563 Y-51.262
X-302.601 Y-51.471
X-302.577 Y-51.682
X-302.495 Y-51.878
X-302.361 Y-52.042
X-302.185 Y-52.162
X-301.486 Y-52.504
G3 X-301.052 Y-52.303 I0.129 J0.29
G1 X-300.984 Y-52.069
X-300.674 Y-51.01
X-300.579 Y-50.687
G3 X-300.748 Y-50.311 I-0.305 J0.089
G1 X-301.186 Y-50.122
X-301.412 Y-50.015
X-301.55 Y-49.958
X-301.696 Y-49.922
X-301.845 Y-49.909
X-301.995 Y-49.917
X-302.143 Y-49.942
X-302.287 Y-49.984
X-302.426 Y-50.04
X-302.559 Y-50.109
X-302.686 Y-50.19
X-302.804 Y-50.282
X-302.913 Y-50.385
X-303.012 Y-50.498
X-303.101 Y-50.619
X-303.177 Y-50.748
X-303.241 Y-50.884
X-303.25 Y-50.909
X-303.292 Y-51.12
X-303.272 Y-51.335
X-303.19 Y-51.534
X-303.055 Y-51.702
X-302.877 Y-51.824
X-302.185 Y-52.162
G3 X-301.753 Y-51.968 I0.129 J0.29
G1 X-301.678 Y-51.729
X-301.357 Y-50.718
X-301.254 Y-50.393
G3 X-301.412 Y-50.015 I-0.303 J0.096
G1 X-301.623 Y-49.915
X-302.128 Y-49.668
X-302.265 Y-49.609
X-302.412 Y-49.579
X-302.562 Y-49.571
X-302.712 Y-49.583
X-302.859 Y-49.611
X-303.002 Y-49.655
X-303.141 Y-49.714
X-303.273 Y-49.785
X-303.398 Y-49.868
X-303.514 Y-49.962
X-303.622 Y-50.067
X-303.72 Y-50.18
X-303.806 Y-50.303
X-303.88 Y-50.433
X-303.91 Y-50.5
X-303.97 Y-50.711
X-303.966 Y-50.929
X-303.899 Y-51.137
X-303.773 Y-51.316
X-303.601 Y-51.451
X-303.453 Y-51.535
X-303.374 Y-51.578
X-302.904 Y-51.811
X-302.877 Y-51.824
G3 X-302.444 Y-51.624 I0.129 J0.29
G1 X-302.374 Y-51.389
X-302.073 Y-50.375
X-301.973 Y-50.039
G3 X-302.128 Y-49.668 I-0.304 J0.09
G1 X-302.775 Y-49.35
X-302.913 Y-49.291
X-303.058 Y-49.253
X-303.208 Y-49.238
X-303.357 Y-49.243
X-303.506 Y-49.266
X-303.65 Y-49.305
X-303.79 Y-49.359
X-303.924 Y-49.427
X-304.052 Y-49.506
X-304.17 Y-49.598
X-304.281 Y-49.699
X-304.381 Y-49.811
X-304.469 Y-49.932
X-304.547 Y-50.06
X-304.571 Y-50.11
X-304.635 Y-50.322
X-304.634 Y-50.544
X-304.567 Y-50.755
X-304.441 Y-50.937
X-304.267 Y-51.074
X-303.601 Y-51.451
G3 X-303.154 Y-51.273 I0.147 J0.282
G1 X-303.076 Y-51.046
X-302.735 Y-50.053
X-302.625 Y-49.733
G3 X-302.775 Y-49.35 I-0.3 J0.103
G1 X-303.082 Y-49.199
X-303.418 Y-49.008
X-303.552 Y-48.94
X-303.696 Y-48.898
X-303.845 Y-48.88
X-303.995 Y-48.881
X-304.144 Y-48.9
X-304.289 Y-48.937
X-304.43 Y-48.987
X-304.566 Y-49.051
X-304.695 Y-49.128
X-304.816 Y-49.217
X-304.928 Y-49.316
X-305.03 Y-49.426
X-305.121 Y-49.546
X-305.2 Y-49.673
X-305.227 Y-49.726
X-305.294 Y-49.939
X-305.295 Y-50.163
X-305.23 Y-50.377
X-305.103 Y-50.561
X-304.928 Y-50.7
X-304.267 Y-51.074
G3 X-303.821 Y-50.898 I0.147 J0.282
G1 X-303.74 Y-50.67
X-303.404 Y-49.718
X-303.286 Y-49.383
G3 X-303.418 Y-49.008 I-0.299 J0.106
G1 X-304.065 Y-48.638
X-304.198 Y-48.57
X-304.342 Y-48.527
X-304.491 Y-48.507
X-304.641
X-304.79 Y-48.525
X-304.936 Y-48.56
X-305.077 Y-48.609
X-305.214 Y-48.672
X-305.343 Y-48.747
X-305.465 Y-48.835
X-305.578 Y-48.933
X-305.681 Y-49.042
X-305.773 Y-49.161
X-305.854 Y-49.288
X-305.882 Y-49.343
X-305.951 Y-49.552
X-305.955 Y-49.773
X-305.895 Y-49.985
X-305.775 Y-50.169
X-305.606 Y-50.311
X-305.562 Y-50.337
X-305.253 Y-50.515
X-304.928 Y-50.7
G3 X-304.482 Y-50.526 I0.147 J0.282
G1 X-304.399 Y-50.296
X-304.054 Y-49.347
X-303.934 Y-49.016
G3 X-304.065 Y-48.638 I-0.298 J0.108
G1 X-304.6 Y-48.331
X-304.687 Y-48.279
X-304.818 Y-48.206
X-304.96 Y-48.158
X-305.108 Y-48.132
X-305.258 Y-48.127
X-305.407 Y-48.141
X-305.554 Y-48.172
X-305.697 Y-48.217
X-305.835 Y-48.276
X-305.967 Y-48.348
X-306.09 Y-48.433
X-306.206 Y-48.528
X-306.312 Y-48.634
X-306.407 Y-48.751
X-306.491 Y-48.875
X-306.516 Y-48.921
X-306.591 Y-49.13
X-306.601 Y-49.352
X-306.545 Y-49.566
X-306.428 Y-49.755
X-306.26 Y-49.9
X-305.708 Y-50.248
X-305.606 Y-50.311
G3 X-305.155 Y-50.15 I0.155 J0.277
G1 X-305.066 Y-49.924
X-304.698 Y-48.989
X-304.568 Y-48.659
G3 X-304.687 Y-48.279 I-0.295 J0.116
G1 X-304.979 Y-48.098
X-305.125 Y-48.002
X-305.271 Y-47.905
X-305.4 Y-47.828
X-305.539 Y-47.772
X-305.685 Y-47.739
X-305.835 Y-47.727
X-305.984 Y-47.734
X-306.133 Y-47.758
X-306.277 Y-47.797
X-306.418 Y-47.849
X-306.553 Y-47.915
X-306.68 Y-47.995
X-306.8 Y-48.085
X-306.91 Y-48.186
X-307.01 Y-48.298
X-307.099 Y-48.419
X-307.176 Y-48.548
X-307.18 Y-48.556
X-307.241 Y-48.76
Y-48.973
X-307.181 Y-49.177
X-307.065 Y-49.356
X-306.903 Y-49.494
X-306.26 Y-49.9
G3 X-305.809 Y-49.754 I0.16 J0.274
G1 X-305.708 Y-49.524
X-305.307 Y-48.613
X-305.165 Y-48.291
G3 X-305.271 Y-47.905 I-0.291 J0.128
G1 X-305.904 Y-47.484
X-306.033 Y-47.407
X-306.173 Y-47.354
X-306.32 Y-47.323
X-306.469 Y-47.312
X-306.619 Y-47.319
X-306.767 Y-47.343
X-306.912 Y-47.382
X-307.053 Y-47.435
X-307.188 Y-47.501
X-307.316 Y-47.579
X-307.435 Y-47.669
X-307.547 Y-47.77
X-307.648 Y-47.881
X-307.737 Y-48.001
X-307.815 Y-48.129
X-307.821 Y-48.142
X-307.884 Y-48.347
X-307.886 Y-48.561
X-307.827 Y-48.767
X-307.711 Y-48.948
X-307.548 Y-49.087
X-306.903 Y-49.494
G3 X-306.453 Y-49.348 I0.16 J0.274
G1 X-306.351 Y-49.119
X-305.941 Y-48.192
X-305.799 Y-47.871
G3 X-305.904 Y-47.484 I-0.29 J0.129
G1 X-306.518 Y-47.076
X-306.647 Y-47
X-306.786 Y-46.943
X-306.932 Y-46.909
X-307.081 Y-46.895
X-307.231 Y-46.899
X-307.38 Y-46.921
X-307.525 Y-46.957
X-307.666 Y-47.008
X-307.802 Y-47.071
X-307.932 Y-47.147
X-308.053 Y-47.235
X-308.167 Y-47.333
X-308.27 Y-47.442
X-308.362 Y-47.56
X-308.443 Y-47.687
X-308.456 Y-47.713
X-308.525 Y-47.919
X-308.532 Y-48.136
X-308.475 Y-48.345
X-308.36 Y-48.529
X-308.197 Y-48.672
X-307.751 Y-48.959
X-307.548 Y-49.087
G3 X-307.1 Y-48.946 I0.16 J0.274
G1 X-306.992 Y-48.714
X-306.56 Y-47.782
X-306.415 Y-47.468
G3 X-306.518 Y-47.076 I-0.288 J0.133
G1 X-307.167 Y-46.645
X-307.296 Y-46.568
X-307.436 Y-46.515
X-307.583 Y-46.484
X-307.733 Y-46.473
X-307.883 Y-46.479
X-308.031 Y-46.502
X-308.176 Y-46.54
X-308.317 Y-46.591
X-308.452 Y-46.655
X-308.581 Y-46.732
X-308.702 Y-46.821
X-308.815 Y-46.92
X-308.918 Y-47.029
X-309.009 Y-47.148
X-309.09 Y-47.275
X-309.103 Y-47.301
X-309.171 Y-47.506
X-309.176 Y-47.722
X-309.119 Y-47.931
X-309.005 Y-48.114
X-308.842 Y-48.256
X-308.197 Y-48.672
G3 X-307.746 Y-48.531 I0.162 J0.273
G1 X-307.641 Y-48.302
X-307.208 Y-47.351
X-307.063 Y-47.035
G3 X-307.167 Y-46.645 I-0.289 J0.132
G1 X-307.795 Y-46.228
X-307.924 Y-46.151
X-308.063 Y-46.096
X-308.21 Y-46.063
X-308.359 Y-46.05
X-308.509 Y-46.055
X-308.658 Y-46.077
X-308.803 Y-46.113
X-308.944 Y-46.164
X-309.081 Y-46.226
X-309.21 Y-46.302
X-309.332 Y-46.389
X-309.446 Y-46.487
X-309.55 Y-46.595
X-309.643 Y-46.713
X-309.725 Y-46.838
X-309.744 Y-46.875
X-309.815 Y-47.082
X-309.823 Y-47.3
X-309.767 Y-47.511
X-309.652 Y-47.696
X-309.488 Y-47.84
X-308.842 Y-48.256
G3 X-308.392 Y-48.118 I0.162 J0.273
G1 X-308.284 Y-47.887
X-307.838 Y-46.933
X-307.692 Y-46.62
G3 X-307.795 Y-46.228 I-0.288 J0.134
G1 X-308.426 Y-45.812
X-308.556 Y-45.735
X-308.694 Y-45.679
X-308.84 Y-45.644
X-308.99 Y-45.629
X-309.14 Y-45.633
X-309.288 Y-45.653
X-309.434 Y-45.688
X-309.576 Y-45.737
X-309.712 Y-45.799
X-309.843 Y-45.873
X-309.965 Y-45.96
X-310.08 Y-46.056
X-310.185 Y-46.163
X-310.279 Y-46.28
X-310.363 Y-46.405
X-310.392 Y-46.459
X-310.466 Y-46.67
X-310.474 Y-46.894
X-310.415 Y-47.111
X-310.294 Y-47.299
X-310.121 Y-47.443
X-309.793 Y-47.646
X-309.631 Y-47.748
X-309.488 Y-47.84
G3 X-309.039 Y-47.705 I0.162 J0.273
G1 X-308.928 Y-47.472
X-308.471 Y-46.515
X-308.324 Y-46.208
G3 X-308.426 Y-45.812 I-0.286 J0.137
G1 X-309.064 Y-45.392
X-309.193 Y-45.316
X-309.332 Y-45.258
X-309.477 Y-45.223
X-309.627 Y-45.208
X-309.777 Y-45.211
X-309.925 Y-45.23
X-310.071 Y-45.265
X-310.213 Y-45.313
X-310.35 Y-45.374
X-310.481 Y-45.448
X-310.604 Y-45.533
X-310.72 Y-45.629
X-310.826 Y-45.735
X-310.921 Y-45.851
X-311.006 Y-45.975
X-311.078 Y-46.106
X-311.087 Y-46.128
X-311.142 Y-46.334
X-311.135 Y-46.547
X-311.068 Y-46.749
X-310.946 Y-46.924
X-310.779 Y-47.057
X-310.231 Y-47.377
X-310.121 Y-47.443
G3 X-309.68 Y-47.302 I0.154 J0.277
G1 X-309.566 Y-47.061
X-309.107 Y-46.096
X-308.96 Y-45.788
G3 X-309.064 Y-45.392 I-0.287 J0.136
G1 X-309.356 Y-45.201
X-309.793 Y-44.955
X-309.928 Y-44.888
X-310.07 Y-44.84
X-310.217 Y-44.814
X-310.367 Y-44.807
X-310.517 Y-44.818
X-310.664 Y-44.846
X-310.808 Y-44.888
X-310.948 Y-44.943
X-311.082 Y-45.01
X-311.209 Y-45.09
X-311.328 Y-45.181
X-311.439 Y-45.282
X-311.541 Y-45.392
X-311.63 Y-45.512
X-311.709 Y-45.64
X-311.738 Y-45.698
X-311.806 Y-45.909
X-311.808 Y-46.131
X-311.744 Y-46.343
X-311.62 Y-46.528
X-311.448 Y-46.667
X-310.779 Y-47.057
G3 X-310.337 Y-46.903 I0.15 J0.28
G1 X-310.234 Y-46.665
X-309.798 Y-45.656
X-309.667 Y-45.352
G3 X-309.793 Y-44.955 I-0.291 J0.126
G1 X-310.523 Y-44.547
X-310.657 Y-44.48
X-310.802 Y-44.44
X-310.95 Y-44.421
X-311.1
X-311.249 Y-44.439
X-311.396 Y-44.472
X-311.538 Y-44.52
X-311.675 Y-44.58
X-311.806 Y-44.653
X-311.93 Y-44.738
X-312.046 Y-44.833
X-312.153 Y-44.938
X-312.249 Y-45.053
X-312.335 Y-45.176
X-312.408 Y-45.307
X-312.423 Y-45.339
X-312.48 Y-45.549
X-312.473 Y-45.766
X-312.404 Y-45.972
X-312.278 Y-46.15
X-312.106 Y-46.283
X-311.448 Y-46.667
G3 X-311.001 Y-46.502 I0.15 J0.28
G1 X-310.911 Y-46.271
X-310.515 Y-45.252
X-310.392 Y-44.933
G3 X-310.523 Y-44.547 I-0.296 J0.115
G1 X-310.669 Y-44.465
X-310.815 Y-44.398
X-310.96 Y-44.338
X-311.333 Y-44.188
X-311.474 Y-44.139
X-311.621 Y-44.107
X-311.771 Y-44.098
X-311.92 Y-44.109
X-312.068 Y-44.136
X-312.211 Y-44.18
X-312.35 Y-44.238
X-312.482 Y-44.309
X-312.607 Y-44.392
X-312.723 Y-44.487
X-312.83 Y-44.592
X-312.925 Y-44.708
X-313.009 Y-44.832
X-313.082 Y-44.963
X-313.093 Y-44.991
X-313.148 Y-45.207
X-313.136 Y-45.429
X-313.058 Y-45.638
X-312.922 Y-45.814
X-312.74 Y-45.942
X-312.565 Y-46.029
X-312.106 Y-46.283
G3 X-311.659 Y-46.099 I0.146 J0.282
G1 X-311.586 Y-45.875
X-311.259 Y-44.88
X-311.16 Y-44.577
G3 X-311.333 Y-44.188 I-0.302 J0.099
G1 X-311.893 Y-43.962
X-311.982 Y-43.933
X-312.208 Y-43.864
X-312.353 Y-43.827
X-312.503 Y-43.817
X-312.653 Y-43.827
X-312.8 Y-43.856
X-312.943 Y-43.902
X-313.08 Y-43.962
X-313.21 Y-44.037
X-313.332 Y-44.125
X-313.444 Y-44.224
X-313.546 Y-44.334
X-313.635 Y-44.455
X-313.713 Y-44.583
X-313.737 Y-44.635
X-313.802 Y-44.854
X-313.797 Y-45.083
X-313.722 Y-45.3
X-313.585 Y-45.483
X-313.398 Y-45.615
G3 X-313.021 Y-45.528 I0.131 J0.289
G1 X-312.786 Y-45.242
X-312.176 Y-44.5
X-312.066 Y-44.366
G3 X-312.208 Y-43.864 I-0.245 J0.202
G1 X-312.274 Y-43.844
X-312.37 Y-43.816
X-313.097 Y-43.656
X-313.245 Y-43.632
X-313.395 Y-43.638
X-313.542 Y-43.665
X-313.685 Y-43.712
X-313.82 Y-43.776
X-313.947 Y-43.856
X-314.065 Y-43.949
X-314.171 Y-44.055
X-314.264 Y-44.172
X-314.345 Y-44.299
X-314.362 Y-44.334
X-314.43 Y-44.561
X-314.424 Y-44.798
X-314.343 Y-45.02
X-314.196 Y-45.206
X-313.997 Y-45.336
G3 X-313.613 Y-45.215 I0.119 J0.294
G1 X-313.422 Y-44.923
X-313.01 Y-44.291
X-312.91 Y-44.137
G3 X-313.097 Y-43.656 I-0.266 J0.173
G1 X-313.587 Y-43.548
X-313.732 Y-43.515
X-313.777 Y-43.503
X-313.923 Y-43.472
X-314.073 Y-43.471
X-314.221 Y-43.495
X-314.364 Y-43.541
X-314.499 Y-43.607
X-314.625 Y-43.689
X-314.739 Y-43.786
X-314.839 Y-43.898
X-314.926 Y-44.02
X-314.942 Y-44.05
X-315.015 Y-44.242
X-315.032 Y-44.447
X-314.992 Y-44.648
X-314.898 Y-44.831
X-314.758 Y-44.981
X-314.582 Y-45.087
X-314.526 Y-45.103
X-314.469 Y-45.108
X-314.468
G3 X-314.197 Y-44.956 I0 J0.318
G1 X-314.018 Y-44.662
X-313.706 Y-44.149
X-313.598 Y-43.972
X-313.573 Y-43.92
X-313.557 Y-43.865
X-313.552 Y-43.807
G3 X-313.777 Y-43.503 I-0.317 J0
G1 X-313.878 Y-43.476
X-314.024 Y-43.419
X-314.097 Y-43.392
X-314.134 Y-43.384
X-314.176 Y-43.379
X-314.202
X-314.316 Y-43.399
X-314.881 Y-43.525
X-315.025 Y-43.565
X-315.162 Y-43.628
X-315.322 Y-43.784
X-315.427 Y-43.982
X-315.468 Y-44.202
X-315.442 Y-44.424
X-315.349 Y-44.628
X-315.2 Y-44.794
X-315.008 Y-44.909
G3 X-314.583 Y-44.642 I0.108 J0.299
G1 X-314.563 Y-44.435
X-314.526 Y-44.064
X-314.507 Y-43.868
G3 X-314.881 Y-43.525 I-0.316 J0.031
G1 X-315.418 Y-43.645
X-315.562 Y-43.685
X-315.69 Y-43.763
X-315.803 Y-43.921
X-315.858 Y-44.108
X-315.849 Y-44.303
X-315.776 Y-44.484
X-315.649 Y-44.631
X-315.48 Y-44.728
X-315.396 Y-44.749
X-315.31 Y-44.756
X-315.252 Y-44.753
X-315.195 Y-44.743
G3 X-315.418 Y-43.645 I-0.12 J0.548
G1 X-315.85 Y-43.742
X-315.995 Y-43.782
X-316.108 Y-43.904
X-316.17 Y-44.059
X-316.174 Y-44.225
X-316.12 Y-44.383
X-316.013 Y-44.511
X-315.868 Y-44.593
X-315.797 Y-44.608
X-315.725 Y-44.609
X-315.653 Y-44.597
G3 X-315.85 Y-43.742 I-0.116 J0.424
G1 X-316.16 Y-43.811
X-316.183 Y-43.816
X-316.213 Y-43.823
X-316.29 Y-43.845
X-316.313 Y-43.853
X-316.336 Y-43.862
X-316.359 Y-43.873
X-316.383 Y-43.899
X-316.395 Y-43.934
X-316.393 Y-43.97
X-316.376 Y-44.002
X-316.349 Y-44.025
X-316.314 Y-44.036
X-316.278 Y-44.032
X-316.169 Y-43.998
X-316.139 Y-43.982
X-316.117 Y-43.956
X-316.106 Y-43.924
X-316.108 Y-43.89
X-316.123 Y-43.859
X-316.147 Y-43.835
X-316.179 Y-43.823
X-316.213
X-316.286 Y-43.84
X-316.322 Y-43.854
X-316.359 Y-43.873
X-316.382 Y-43.889
X-316.406 Y-43.908
X-316.432 Y-43.935
X-316.453 Y-43.962
X-316.472 Y-43.992
X-316.486 Y-44.022
X-316.497 Y-44.052
X-316.504 Y-44.083
X-316.508 Y-44.107
X-316.51 Y-44.156
X-316.504 Y-44.205
X-316.491 Y-44.253
X-316.475 Y-44.289
X-316.453 Y-44.326
X-316.423 Y-44.362
X-316.382 Y-44.399
X-316.359 Y-44.414
X-316.322 Y-44.434
X-316.286 Y-44.448
X-315.483 Y-44.727
X-315.265 Y-44.809
X-315.046 Y-44.893
X-314.9 Y-44.952
X-314.024 Y-45.324
X-313.732 Y-45.454
X-313.587 Y-45.521
X-312.74 Y-45.942
G3 X-312.327 Y-45.507 I0.131 J0.289
G1 X-312.359 Y-45.444 Z-5.992
X-312.39 Y-45.385 Z-5.969
X-312.418 Y-45.331 Z-5.931
X-312.441 Y-45.287 Z-5.88
X-312.458 Y-45.253 Z-5.82
X-312.469 Y-45.232 Z-5.753
X-312.472 Y-45.225 Z-5.682
Z4
X-42.409 Y-51.287
Z2.51
Z-5.365
Z-5.682
X-42.405 Y-51.28 Z-5.753
X-42.393 Y-51.26 Z-5.82
X-42.373 Y-51.228 Z-5.88
X-42.348 Y-51.184 Z-5.931
X-42.317 Y-51.133 Z-5.969
X-42.283 Y-51.075 Z-5.992
X-42.247 Y-51.014 Z-6
G3 X-41.755 Y-49.339 I-3.024 J1.798
G1 Y-49.149
X-41.756 Y-49.112
X-41.853 Y-48.997
X-41.964 Y-48.896
X-42.085 Y-48.807
X-42.24 Y-48.711
X-42.439 Y-48.608
X-42.699 Y-48.5
X-43.048 Y-48.387
X-43.542 Y-48.269
X-44.176 Y-48.171
X-44.816 Y-48.114
X-45.457 Y-48.081
X-46.099 Y-48.062
X-46.741 Y-48.051
X-47.384 Y-48.044
X-48.026 Y-48.04
X-49.31 Y-48.036
X-51.879 Y-48.035
X-55.211
X-55.331 Y-48.045
X-55.449 Y-48.074
X-55.56 Y-48.122
X-57.288 Y-49.047
X-57.366 Y-49.091
G3 X-57.24 Y-49.677 I0.164 J-0.272
G1 X-57.17 Y-49.686 Z-5.992
X-57.104 Y-49.694 Z-5.969
X-57.044 Y-49.702 Z-5.931
X-56.994 Y-49.708 Z-5.88
X-56.957 Y-49.713 Z-5.82
X-56.933 Y-49.715 Z-5.753
X-56.925 Y-49.716 Z-5.682
Z2.51
X-42.138 Y-50.176
Z-5.365
Z-5.682
X-42.134 Y-50.169 Z-5.753
X-42.122 Y-50.148 Z-5.82
X-42.103 Y-50.116 Z-5.88
X-42.077 Y-50.073 Z-5.931
X-42.046 Y-50.021 Z-5.969
X-42.012 Y-49.963 Z-5.992
X-41.976 Y-49.903 Z-6
G3 X-41.755 Y-49.149 I-1.36 J0.809
G1 Y-48.712
X-41.762 Y-48.562
X-41.825 Y-48.426
X-41.904 Y-48.299
X-41.995 Y-48.179
X-42.104 Y-48.058
X-42.245 Y-47.925
X-42.402 Y-47.801
X-42.606 Y-47.662
X-42.855 Y-47.522
X-43.155 Y-47.383
X-43.539 Y-47.242
X-44.047 Y-47.1
X-44.677 Y-46.977
X-45.314 Y-46.899
X-45.955 Y-46.849
X-46.596 Y-46.818
X-47.238 Y-46.798
X-47.88 Y-46.785
X-48.522 Y-46.777
X-49.164 Y-46.773
X-49.807 Y-46.77
X-51.091 Y-46.766
X-52.61 Y-46.765
X-52.715 Y-46.773
X-52.818 Y-46.795
X-52.917 Y-46.832
X-54.365 Y-47.491
X-54.511 Y-47.561
X-55.56 Y-48.122
G3 X-55.408 Y-48.714 I0.16 J-0.275
G1 X-42.369 Y-49.012
X-42.079 Y-49.018
G3 X-41.755 Y-48.712 I0.007 J0.317
G1 Y-48.028
X-41.762 Y-47.878
X-41.796 Y-47.732
X-41.848 Y-47.591
X-41.914 Y-47.456
X-41.992 Y-47.327
X-42.089 Y-47.192
X-42.216 Y-47.043
X-42.36 Y-46.899
X-42.552 Y-46.736
X-42.765 Y-46.582
X-43.041 Y-46.415
X-43.365 Y-46.253
X-43.78 Y-46.086
X-44.284 Y-45.928
X-44.91 Y-45.786
X-45.545 Y-45.689
X-46.184 Y-45.624
X-46.825 Y-45.58
X-47.466 Y-45.551
X-48.108 Y-45.531
X-48.75 Y-45.518
X-49.392 Y-45.51
X-49.571 Y-45.508
X-49.663 Y-45.513
X-49.753 Y-45.53
X-49.841 Y-45.557
X-51.448 Y-46.17
X-51.593 Y-46.233
X-52.031 Y-46.429
X-52.917 Y-46.832
G3 X-52.802 Y-47.432 I0.141 J-0.284
G1 X-42.369 Y-48.31
X-42.098 Y-48.333
G3 X-41.755 Y-48.028 I0.027 J0.316
G1 Y-47.882
X-41.749 Y-47.736
X-41.736 Y-47.445
X-41.727 Y-47.299
X-41.72 Y-47.219
X-41.716 Y-47.069
X-41.732 Y-46.92
X-41.767 Y-46.774
X-41.816 Y-46.633
X-41.879 Y-46.496
X-41.958 Y-46.352
X-42.063 Y-46.196
X-42.187 Y-46.039
X-42.35 Y-45.863
X-42.533 Y-45.695
X-42.776 Y-45.506
X-43.041 Y-45.332
X-43.394 Y-45.139
X-43.792 Y-44.961
X-44.3 Y-44.782
X-44.92 Y-44.617
X-45.551 Y-44.499
X-46.188 Y-44.415
X-46.256 Y-44.408
X-46.354 Y-44.406
X-46.451 Y-44.416
X-46.546 Y-44.439
X-48.53 Y-45.061
X-48.676 Y-45.114
X-48.821 Y-45.168
X-49.841 Y-45.557
G3 X-49.772 Y-46.162 I0.123 J-0.293
G1 X-42.355 Y-47.45
X-42.09 Y-47.496
G3 X-41.72 Y-47.219 I0.054 J0.313
G1 X-41.703 Y-47.008
X-41.682 Y-46.862
X-41.617 Y-46.571
X-41.598 Y-46.491
X-41.569 Y-46.343
X-41.561 Y-46.194
X-41.572 Y-46.044
X-41.599 Y-45.896
X-41.64 Y-45.752
X-41.695 Y-45.609
X-41.771 Y-45.449
X-41.864 Y-45.287
X-41.99 Y-45.105
X-42.135 Y-44.927
X-42.324 Y-44.73
X-42.54 Y-44.538
X-42.814 Y-44.331
X-43.134 Y-44.129
X-43.524 Y-43.923
X-43.731 Y-43.834
X-43.884 Y-43.788
X-44.043 Y-43.775
X-44.201 Y-43.796
X-45.466 Y-44.109
X-45.612 Y-44.146
X-46.546 Y-44.439
G3 X-46.55 Y-45.037 I0.105 J-0.299
G1 X-46.543 Y-45.039
X-42.259 Y-46.612
X-42.013 Y-46.703
G3 X-41.598 Y-46.491 I0.109 J0.298
G1 X-41.582 Y-46.425
X-41.499 Y-46.134
X-41.451 Y-45.988
X-41.384 Y-45.842
X-41.328 Y-45.703
X-41.291 Y-45.558
X-41.274 Y-45.409
X-41.275 Y-45.259
X-41.292 Y-45.11
X-41.322 Y-44.963
X-41.368 Y-44.807
X-41.432 Y-44.639
X-41.517 Y-44.46
X-41.627 Y-44.269
X-41.763 Y-44.073
X-41.938 Y-43.859
X-42.138 Y-43.65
X-42.168 Y-43.623
X-42.315 Y-43.522
X-42.483 Y-43.459
X-42.66 Y-43.437
X-42.838 Y-43.459
X-44.201 Y-43.796
G3 X-44.287 Y-44.367 I0.087 J-0.305
G1 X-44.237 Y-44.4
X-42.051 Y-45.829
X-41.842 Y-45.966
G3 X-41.384 Y-45.842 I0.174 J0.266
G1 X-41.315 Y-45.697
X-41.164 Y-45.405
X-41.089 Y-45.282
X-41.044 Y-45.216
X-40.965 Y-45.088
X-40.909 Y-44.949
X-40.873 Y-44.803
X-40.855 Y-44.654
X-40.851 Y-44.505
X-40.862 Y-44.354
X-40.886 Y-44.197
X-40.927 Y-44.023
X-40.979 Y-43.865
X-41.044 Y-43.707
X-41.07 Y-43.656
X-41.21 Y-43.466
X-41.401 Y-43.329
X-41.626 Y-43.26
X-41.861 Y-43.264
X-42.11 Y-43.309
X-42.406 Y-43.366
X-42.548 Y-43.393
X-42.694 Y-43.423
X-42.838 Y-43.459
G3 X-42.959 Y-44.004 I0.087 J-0.305
G1 X-42.881 Y-44.071
X-41.705 Y-45.093
X-41.506 Y-45.265
G3 X-41.044 Y-45.216 I0.208 J0.24
G1 X-40.973 Y-45.114
X-40.797 Y-44.904
X-40.651 Y-44.732
X-40.603 Y-44.677
X-40.503 Y-44.565
X-40.43 Y-44.434
X-40.377 Y-44.293
X-40.341 Y-44.148
X-40.324 Y-43.999
X-40.323 Y-43.849
X-40.328 Y-43.797
X-40.376 Y-43.601
X-40.476 Y-43.424
X-40.62 Y-43.281
X-40.797 Y-43.183
X-40.994 Y-43.136
X-41.196 Y-43.144
X-41.861 Y-43.264
G3 X-42.004 Y-43.813 I0.067 J-0.31
G1 X-41.94 Y-43.869
X-41.267 Y-44.463
X-41.024 Y-44.678
G3 X-40.603 Y-44.677 I0.21 J0.238
G1 X-40.45 Y-44.531
X-40.17 Y-44.339
X-40.05 Y-44.248
X-39.957 Y-44.131
X-39.882 Y-43.909
X-39.88 Y-43.675
X-39.952 Y-43.452
X-40.09 Y-43.263
X-40.281 Y-43.127
X-40.505 Y-43.058
X-40.739 Y-43.062
G3 X-40.959 Y-43.508 I0.067 J-0.31
G1 X-40.867 Y-43.701
X-40.733 Y-43.984
X-40.627 Y-44.207
G3 X-40.17 Y-44.339 I0.287 J0.136
G1 X-40.024 Y-44.24
X-39.776 Y-44.078
X-39.655 Y-43.99
X-39.562 Y-43.872
X-39.506 Y-43.682
X-39.512 Y-43.483
X-39.579 Y-43.297
X-39.7 Y-43.139
X-39.863 Y-43.027
X-40.053 Y-42.97
X-40.252 Y-42.974
X-40.317 Y-42.993
X-40.379 Y-43.019
X-40.437 Y-43.054
G3 X-39.776 Y-44.078 I0.346 J-0.502
G1 X-39.577 Y-43.949
X-39.484 Y-43.89
X-39.409 Y-43.847
X-39.283 Y-43.765
X-39.195 Y-43.644
X-39.157 Y-43.452
X-39.188 Y-43.259
X-39.284 Y-43.089
X-39.433 Y-42.962
X-39.617 Y-42.894
X-39.812 Y-42.895
X-39.881 Y-42.917
X-39.945 Y-42.951
G3 X-39.409 Y-43.847 I0.29 J-0.434
G1 X-39.334 Y-43.803
X-39.192 Y-43.743
X-39.118 Y-43.714
X-38.98 Y-43.654
X-38.879 Y-43.544
X-38.831 Y-43.37
X-38.848 Y-43.192
X-38.926 Y-43.03
X-39.057 Y-42.907
X-39.223 Y-42.838
X-39.402 Y-42.832
X-39.436 Y-42.84
X-39.468 Y-42.853
G3 X-39.118 Y-43.714 I0.2 J-0.421
G1 X-39.047 Y-43.687
X-38.82 Y-43.615
X-38.68 Y-43.562
X-38.571 Y-43.46
X-38.519 Y-43.302
X-38.526 Y-43.137
X-38.592 Y-42.985
X-38.707 Y-42.866
X-38.857 Y-42.796
X-39.023 Y-42.784
X-39.077 Y-42.797
G3 X-38.82 Y-43.615 I0.14 J-0.405
G1 X-38.496 Y-43.511
X-38.355 Y-43.459
X-38.264 Y-43.315
X-38.238 Y-43.146
X-38.281 Y-42.981
X-38.385 Y-42.847
X-38.534 Y-42.765
X-38.704 Y-42.749
X-38.754 Y-42.762
G3 X-38.496 Y-43.511 I0.15 J-0.367
G1 X-38.201 Y-43.417
X-38.06 Y-43.365
X-37.963 Y-43.251
X-37.935 Y-43.092
X-37.973 Y-42.935
X-38.071 Y-42.806
X-38.212 Y-42.728
X-38.373 Y-42.712
X-38.418 Y-42.724
G3 X-38.201 Y-43.417 I0.119 J-0.344
G1 X-38.171 Y-43.408
X-38.024 Y-43.366
X-37.909 Y-43.337
X-37.837 Y-43.315
X-37.72 Y-43.221
X-37.672 Y-43.07
X-37.694 Y-42.913
X-37.781 Y-42.78
X-37.916 Y-42.697
X-38.073 Y-42.68
X-38.116 Y-42.692
G3 X-37.909 Y-43.337 I0.136 J-0.312
G1 X-37.879 Y-43.329
X-37.689 Y-43.297
X-37.659 Y-43.292
X-37.62 Y-43.285
X-37.575 Y-43.274
X-37.551 Y-43.267
X-37.528 Y-43.258
X-37.52 Y-43.24
X-37.525 Y-43.22
X-37.54 Y-43.208
X-37.559 Y-43.206
X-38.244 Y-43.376
X-38.414 Y-43.418
X-38.453 Y-43.421
X-38.492 Y-43.41
X-38.524 Y-43.387
X-38.548 Y-43.355
X-38.559 Y-43.317
X-38.556 Y-43.277
X-38.541 Y-43.24
X-38.514 Y-43.211
X-38.478 Y-43.192
X-38.439 Y-43.186
X-38.4 Y-43.194
G3 X-37.62 Y-43.285 I0.568 J1.477
G1 X-37.588 Y-43.28
X-37.558 Y-43.271
X-37.528 Y-43.258
X-37.498 Y-43.241
X-37.468 Y-43.22
X-37.442 Y-43.196
X-37.415 Y-43.166
X-37.394 Y-43.135
X-37.378 Y-43.105
X-37.366 Y-43.074
X-37.356 Y-43.038
X-37.35 Y-43.002
X-37.349 Y-42.965
X-37.352 Y-42.929
X-37.359 Y-42.892
X-37.371 Y-42.856
X-37.388 Y-42.819
X-37.412 Y-42.783
X-37.442 Y-42.748
X-37.478 Y-42.714
X-37.515 Y-42.687
X-37.551 Y-42.667
X-37.588 Y-42.653
X-37.624 Y-42.644
X-37.661 Y-42.639
X-37.697
X-37.734 Y-42.642
X-39.192 Y-42.802
X-39.338 Y-42.822
X-39.63 Y-42.865
X-39.776 Y-42.888
X-41.196 Y-43.144
G3 X-41.447 Y-43.454 I0.067 J-0.31
G1 Y-43.455
G3 X-41.269 Y-43.74 I0.318 J0
G1 X-41.205 Y-43.771 Z-5.992
X-41.145 Y-43.8 Z-5.969
X-41.091 Y-43.827 Z-5.931
X-41.046 Y-43.849 Z-5.88
X-41.012 Y-43.866 Z-5.82
X-40.99 Y-43.876 Z-5.753
X-40.983 Y-43.879 Z-5.682
Z4
(When using Fusion 360 for Personal Use, the feedrate of)
(rapid moves is reduced to match the feedrate of cutting)
(moves, which can increase machining time. Unrestricted rapid)
(moves are available with a Fusion 360 Subscription.)

(2D-Kontur16)
G0 Z5
X-289.509 Y-54.543
G1 Z2 F1000
Z1 F333.3
Z-5.683
X-289.508 Y-54.535 Z-5.753 F1000
Y-54.512 Z-5.82
Y-54.474 Z-5.88
X-289.507 Y-54.424 Z-5.931
Y-54.364 Z-5.969
X-289.506 Y-54.297 Z-5.992
X-289.505 Y-54.226 Z-6
X-289.502 Y-53.908
G3 X-289.815 Y-53.587 I-0.317 J0.004
G1 X-290.206 Y-53.583
X-290.242 Y-53.582
X-290.618 Y-53.569
X-290.658 Y-53.568
X-291.021 Y-53.546
X-291.062 Y-53.543
X-291.413 Y-53.513
X-291.456 Y-53.509
X-291.794 Y-53.471
X-291.838 Y-53.465
X-292.165 Y-53.419
X-292.209 Y-53.412
X-292.526 Y-53.358
X-292.569 Y-53.35
X-292.878 Y-53.289
X-292.942 Y-53.275
X-293.538 Y-53.131
X-293.615 Y-53.11
X-294.193 Y-52.939
X-294.255 Y-52.92
X-294.827 Y-52.725
X-294.87 Y-52.709
X-295.45 Y-52.493
X-295.48 Y-52.482
X-296.076 Y-52.245
X-296.089 Y-52.24
X-296.714 Y-51.986
X-296.717 Y-51.985
X-297.043 Y-51.852
X-297.045 Y-51.851
X-297.379 Y-51.714
X-297.724 Y-51.573
X-298.079 Y-51.427
X-298.446 Y-51.278
X-298.823 Y-51.124
X-298.825 Y-51.123
X-299.213 Y-50.965
X-299.216 Y-50.963
X-299.614 Y-50.8
X-299.626 Y-50.795
X-300.443 Y-50.451
X-300.468 Y-50.44
X-301.305 Y-50.071
X-301.342 Y-50.054
X-302.184 Y-49.656
X-302.227 Y-49.635
X-303.065 Y-49.208
X-303.111 Y-49.183
X-303.936 Y-48.728
X-303.98 Y-48.703
X-304.788 Y-48.223
X-304.824 Y-48.201
X-305.615 Y-47.702
X-305.644 Y-47.683
X-306.417 Y-47.171
X-306.435 Y-47.16
X-307.193 Y-46.643
X-307.196 Y-46.641
X-307.939 Y-46.132
X-308.661 Y-45.645
X-309.365 Y-45.194
X-310.066 Y-44.778
X-310.401 Y-44.595
X-310.742 Y-44.421
X-311.083 Y-44.261
X-311.427 Y-44.115
X-311.773 Y-43.982
X-312.122 Y-43.865
X-312.476 Y-43.762
X-312.837 Y-43.673
X-313.207 Y-43.6
X-313.622 Y-43.538
X-313.741 Y-43.515
X-313.859 Y-43.483
X-313.925 Y-43.462
G2 X-314.418 Y-43.206 I0.475 J1.515
G1 X-314.473 Y-43.163
G2 X-314.837 Y-42.769 I0.968 J1.258
G1 X-314.875 Y-42.71
G2 X-315.093 Y-42.188 I1.332 J0.864
G1 X-315.108 Y-42.12
G2 X-315.132 Y-41.573 I1.55 J0.342
G1 X-315.123 Y-41.504
G2 X-314.949 Y-40.961 I1.574 J-0.205
G1 X-314.916 Y-40.899
G2 X-314.591 Y-40.479 I1.4 J-0.749
G1 X-314.54 Y-40.432
G2 X-314.072 Y-40.134 I1.075 J-1.169
G1 X-314.008 Y-40.108
G3 X-313.836 Y-39.693 I-0.121 J0.293
G1 X-313.958 Y-39.399
X-313.985 Y-39.334 Z-5.992
X-314.011 Y-39.272 Z-5.969
X-314.034 Y-39.217 Z-5.931
X-314.053 Y-39.17 Z-5.88
X-314.067 Y-39.135 Z-5.82
X-314.076 Y-39.113 Z-5.753
X-314.079 Y-39.106 Z-5.683
Z3
X-327.102 Y-42.021
Z2
Z1 F333.3
Z-5.683
Y-42.029 Z-5.753 F1000
Y-42.053 Z-5.82
Y-42.091 Z-5.88
Y-42.141 Z-5.931
X-327.103 Y-42.201 Z-5.969
Y-42.268 Z-5.992
Y-42.339 Z-6
X-327.105 Y-42.656
G3 X-326.789 Y-42.976 I0.318 J-0.002
G1 X-326.204 Y-42.979
X-326.186
X-325.613 Y-42.989
X-325.594
X-325.032 Y-43.006
X-325.012
X-324.463 Y-43.029
X-324.443 Y-43.03
X-323.905 Y-43.059
X-323.884 Y-43.061
X-323.358 Y-43.096
X-323.336 Y-43.098
X-322.821 Y-43.14
X-322.798 Y-43.142
X-322.295 Y-43.191
X-322.273 Y-43.193
X-321.78 Y-43.247
X-321.755 Y-43.25
X-321.274 Y-43.311
X-321.25 Y-43.314
X-320.779 Y-43.381
X-320.755 Y-43.385
X-320.295 Y-43.457
X-320.269 Y-43.461
X-319.82 Y-43.54
X-319.795 Y-43.544
X-319.355 Y-43.629
X-319.328 Y-43.634
X-318.899 Y-43.724
X-318.873 Y-43.729
X-318.453 Y-43.824
X-318.427 Y-43.831
X-318.016 Y-43.931
X-317.99 Y-43.938
X-317.588 Y-44.043
X-317.547 Y-44.055
X-316.771 Y-44.281
X-316.719 Y-44.297
X-315.974 Y-44.542
X-315.922 Y-44.56
X-315.209 Y-44.823
X-315.159 Y-44.842
X-314.473 Y-45.121
X-314.427 Y-45.14
X-313.766 Y-45.434
X-313.723 Y-45.454
X-313.084 Y-45.761
X-313.045 Y-45.78
X-312.426 Y-46.099
X-312.391 Y-46.117
X-311.789 Y-46.445
X-311.759 Y-46.462
X-311.172 Y-46.8
X-311.148 Y-46.814
X-310.572 Y-47.158
X-310.553 Y-47.17
X-309.986 Y-47.52
X-309.966 Y-47.533
X-308.852 Y-48.244
X-308.841 Y-48.251
X-307.743 Y-48.964
X-306.653 Y-49.665
X-305.564 Y-50.34
X-304.461 Y-50.987
X-303.912 Y-51.292
X-303.354 Y-51.592
X-302.792 Y-51.882
X-302.227 Y-52.162
X-301.661 Y-52.433
X-301.097 Y-52.695
X-300.538 Y-52.947
X-299.986 Y-53.19
X-299.444 Y-53.424
X-298.917 Y-53.65
X-298.408 Y-53.868
X-298.403 Y-53.87
X-297.92 Y-54.079
X-297.912 Y-54.083
X-297.456 Y-54.283
X-297.441 Y-54.289
X-297.015 Y-54.482
X-296.997 Y-54.49
X-296.601 Y-54.674
X-296.582 Y-54.684
X-296.215 Y-54.861
X-296.194 Y-54.871
X-295.855 Y-55.041
X-295.84 Y-55.049
X-295.524 Y-55.211
X-295.515 Y-55.216
X-295.218 Y-55.371
X-294.952 Y-55.51
X-294.45 Y-55.758
X-294.234 Y-55.853
X-294.01 Y-55.941
X-293.776 Y-56.021
X-293.522 Y-56.094
X-293.235 Y-56.162
X-292.901 Y-56.225
X-292.728 Y-56.252
X-292.536 Y-56.278
X-292.328 Y-56.302
X-292.108 Y-56.325
X-291.873 Y-56.345
X-291.623 Y-56.362
X-291.359 Y-56.377
X-291.077 Y-56.39
X-290.782 Y-56.4
X-290.47 Y-56.407
X-290.141 Y-56.411
X-289.791 Y-56.413
G2 X-288.389 Y-58.731 I-0.007 J-1.587
G1 X-299.156 Y-79.492
G3 X-299.02 Y-79.92 I0.282 J-0.146
G1 X-298.738 Y-80.066
X-298.676 Y-80.098 Z-5.992
X-298.616 Y-80.129 Z-5.969
X-298.562 Y-80.157 Z-5.931
X-298.518 Y-80.18 Z-5.88
X-298.484 Y-80.197 Z-5.82
X-298.463 Y-80.208 Z-5.753
X-298.456 Y-80.212 Z-5.683
Z3
X-42.717 Y-47.939
Z2
Z1 F333.3
Z-5.683
X-42.709 Y-47.94 Z-5.753 F1000
X-42.686 Y-47.941 Z-5.82
X-42.648 Y-47.942 Z-5.88
X-42.598 Y-47.944 Z-5.931
X-42.537 Y-47.946 Z-5.969
X-42.47 Y-47.949 Z-5.992
X-42.4 Y-47.951 Z-6
X-42.083 Y-47.963
G3 X-41.753 Y-47.658 I0.012 J0.317
G1 X-41.741 Y-47.337
X-41.731 Y-47.207
X-41.695 Y-46.908
X-41.671 Y-46.765
X-41.612 Y-46.488
X-41.593 Y-46.41
X-41.57 Y-46.333
X-41.488 Y-46.079
X-41.459 Y-45.998
X-41.427 Y-45.919
X-41.322 Y-45.686
X-41.284 Y-45.606
X-41.241 Y-45.528
X-41.115 Y-45.315
X-41.068 Y-45.239
X-41.016 Y-45.167
X-40.871 Y-44.973
X-40.816 Y-44.905
X-40.759 Y-44.84
X-40.594 Y-44.665
X-40.536 Y-44.607
X-40.476 Y-44.552
X-40.293 Y-44.394
X-40.175 Y-44.301
X-39.976 Y-44.16
X-39.862 Y-44.086
X-39.648 Y-43.96
X-39.541 Y-43.902
X-39.313 Y-43.79
X-39.217 Y-43.747
X-38.977 Y-43.648
X-38.89 Y-43.616
X-38.639 Y-43.529
X-38.562 Y-43.505
X-38.301 Y-43.429
X-38.235 Y-43.412
X-37.965 Y-43.346
X-37.907 Y-43.333
X-37.629 Y-43.277
X-37.579 Y-43.267
X-37.296 Y-43.219
X-37.234 Y-43.21
X-36.654 Y-43.134
X-36.59 Y-43.127
X-35.999 Y-43.074
X-35.953 Y-43.071
X-35.36 Y-43.036
X-35.327 Y-43.034
X-34.739 Y-43.011
X-34.715
X-34.138 Y-42.997
X-34.121
X-33.559 Y-42.99
X-33.546
X-33.003 Y-42.987
X-32.996
X-12.997
G3 X-12.679 Y-42.67 I0 J0.318
G1 Y-42.352
G19 G3 Y-42.035 Z-5.683 J0 K0.318
G1 Z3
X-23.837 Y-37.383
Z2
Z1 F333.3
Z-5.683
X-23.84 Y-37.39 Z-5.753 F1000
X-23.85 Y-37.411 Z-5.82
X-23.867 Y-37.445 Z-5.88
X-23.889 Y-37.49 Z-5.931
X-23.915 Y-37.544 Z-5.969
X-23.944 Y-37.605 Z-5.992
X-23.975 Y-37.669 Z-6
X-24.113 Y-37.954
G17 G3 X-23.965 Y-38.378 I0.286 J-0.138
G1 X-23.887 Y-38.416
G2 X-23.649 Y-38.558 I-0.691 J-1.429
G1 X-23.578 Y-38.609
G2 X-23.372 Y-38.787 I-0.929 J-1.287
G1 X-23.311 Y-38.849
G2 X-23.136 Y-39.063 I-1.136 J-1.109
G1 X-23.087 Y-39.135
G2 X-22.952 Y-39.374 I-1.311 J-0.895
G1 X-22.917 Y-39.453
G2 X-22.825 Y-39.712 I-1.446 J-0.655
G1 X-22.804 Y-39.796
G2 X-22.758 Y-40.068 I-1.537 J-0.396
G1 X-22.752 Y-40.155
G2 X-22.754 Y-40.429 I-1.583 J-0.124
G1 X-22.762 Y-40.516
G2 X-22.812 Y-40.787 I-1.58 J0.15
G1 X-22.835 Y-40.87
G2 X-22.93 Y-41.128 I-1.531 J0.422
G1 X-22.968 Y-41.206
G2 X-23.106 Y-41.444 I-1.435 J0.679
G1 X-23.156 Y-41.514
G2 X-23.334 Y-41.724 I-1.296 J0.917
G1 X-23.395 Y-41.785
G2 X-23.607 Y-41.962 I-1.119 J1.126
G1 X-23.678 Y-42.011
G2 X-23.916 Y-42.148 I-0.907 J1.303
G1 X-23.995 Y-42.185
G2 X-24.254 Y-42.279 I-0.669 J1.44
G1 X-24.338 Y-42.301
G2 X-24.611 Y-42.349 I-0.409 J1.534
G1 X-24.697 Y-42.356
X-24.834 Y-42.362
X-32.989
X-33.829 Y-42.37
X-34.654 Y-42.393
X-35.472 Y-42.43
X-36.282 Y-42.482
X-37.087 Y-42.549
X-37.884 Y-42.629
X-38.677 Y-42.723
X-39.463 Y-42.831
X-40.245 Y-42.952
X-41.021 Y-43.085
X-41.793 Y-43.231
X-42.561 Y-43.39
X-43.325 Y-43.56
X-44.086 Y-43.742
X-44.843 Y-43.936
X-45.597 Y-44.141
X-46.348 Y-44.358
X-47.096 Y-44.586
X-47.842 Y-44.826
X-48.585 Y-45.077
X-49.326 Y-45.341
X-50.065 Y-45.616
X-50.803 Y-45.903
X-51.538 Y-46.203
X-52.271 Y-46.516
X-53.004 Y-46.842
X-53.734 Y-47.181
X-54.464 Y-47.535
X-55.193 Y-47.902
X-55.92 Y-48.284
X-56.647 Y-48.68
X-57.384 Y-49.098
G3 X-57.504 Y-49.531 I0.157 J-0.276
G1 X-57.347 Y-49.807
X-57.313 Y-49.869 Z-5.992
X-57.279 Y-49.927 Z-5.969
X-57.25 Y-49.979 Z-5.931
X-57.225 Y-50.023 Z-5.88
X-57.206 Y-50.056 Z-5.82
X-57.195 Y-50.076 Z-5.753
X-57.191 Y-50.083 Z-5.683
Z5
(When using Fusion 360 for Personal Use, the feedrate of)
(rapid moves is reduced to match the feedrate of cutting)
(moves, which can increase machining time. Unrestricted rapid)
(moves are available with a Fusion 360 Subscription.)

(2D Adaptive12)
G0 X-314.861 Y-80.77
G1 Z4 F1000
Z2.51
Z2.5
S5000
G3 X-314.508 Y-83.765 Z2.335 I0.176 J-1.498 F333.3
X-314.861 Y-80.77 Z2.169 I-0.176 J1.498
X-314.508 Y-83.765 Z2.004 I0.176 J-1.498
X-314.861 Y-80.77 Z1.838 I-0.176 J1.498
X-314.508 Y-83.765 Z1.673 I0.176 J-1.498
X-314.861 Y-80.77 Z1.507 I-0.176 J1.498
X-314.508 Y-83.765 Z1.342 I0.176 J-1.498
X-314.861 Y-80.77 Z1.176 I-0.176 J1.498
X-314.508 Y-83.765 Z1.011 I0.176 J-1.498
X-314.861 Y-80.77 Z0.845 I-0.176 J1.498
X-314.508 Y-83.765 Z0.68 I0.176 J-1.498
X-314.861 Y-80.77 Z0.515 I-0.176 J1.498
X-314.508 Y-83.765 Z0.349 I0.176 J-1.498
X-314.861 Y-80.77 Z0.184 I-0.176 J1.498
X-314.508 Y-83.765 Z0.018 I0.176 J-1.498
X-314.861 Y-80.77 Z-0.147 I-0.176 J1.498
X-314.508 Y-83.765 Z-0.313 I0.176 J-1.498
X-314.861 Y-80.77 Z-0.478 I-0.176 J1.498
X-314.508 Y-83.765 Z-0.644 I0.176 J-1.498
X-314.861 Y-80.77 Z-0.809 I-0.176 J1.498
X-314.508 Y-83.765 Z-0.974 I0.176 J-1.498
X-314.861 Y-80.77 Z-1.14 I-0.176 J1.498
X-314.508 Y-83.765 Z-1.305 I0.176 J-1.498
X-314.861 Y-80.77 Z-1.471 I-0.176 J1.498
X-314.508 Y-83.765 Z-1.636 I0.176 J-1.498
X-314.861 Y-80.77 Z-1.802 I-0.176 J1.498
X-314.508 Y-83.765 Z-1.967 I0.176 J-1.498
X-314.861 Y-80.77 Z-2.133 I-0.176 J1.498
X-314.508 Y-83.765 Z-2.298 I0.176 J-1.498
X-314.861 Y-80.77 Z-2.464 I-0.176 J1.498
X-314.508 Y-83.765 Z-2.629 I0.176 J-1.498
X-314.861 Y-80.77 Z-2.794 I-0.176 J1.498
X-314.508 Y-83.765 Z-2.96 I0.176 J-1.498
X-314.861 Y-80.77 Z-3.125 I-0.176 J1.498
X-314.508 Y-83.765 Z-3.291 I0.176 J-1.498
X-314.861 Y-80.77 Z-3.456 I-0.176 J1.498
X-314.508 Y-83.765 Z-3.622 I0.176 J-1.498
X-314.861 Y-80.77 Z-3.787 I-0.176 J1.498
X-314.508 Y-83.765 Z-3.953 I0.176 J-1.498
X-314.861 Y-80.77 Z-4.118 I-0.176 J1.498
X-314.508 Y-83.765 Z-4.284 I0.176 J-1.498
X-314.861 Y-80.77 Z-4.449 I-0.176 J1.498
X-314.508 Y-83.765 Z-4.614 I0.176 J-1.498
X-314.861 Y-80.77 Z-4.78 I-0.176 J1.498
X-314.508 Y-83.765 Z-4.945 I0.176 J-1.498
X-314.861 Y-80.77 Z-5.111 I-0.176 J1.498
X-314.508 Y-83.765 Z-5.276 I0.176 J-1.498
X-314.861 Y-80.77 Z-5.442 I-0.176 J1.498
X-314.508 Y-83.765 Z-5.607 I0.176 J-1.498
X-314.861 Y-80.77 Z-5.773 I-0.176 J1.498
X-314.508 Y-83.765 Z-5.938 I0.176 J-1.498
X-314.861 Y-80.77 Z-6.103 I-0.176 J1.498
X-314.508 Y-83.765 Z-6.269 I0.176 J-1.498
X-314.861 Y-80.77 Z-6.434 I-0.176 J1.498
X-314.508 Y-83.765 Z-6.6 I0.176 J-1.498
X-314.861 Y-80.77 Z-6.765 I-0.176 J1.498
X-314.508 Y-83.765 Z-6.931 I0.176 J-1.498
X-314.861 Y-80.77 Z-7.096 I-0.176 J1.498
X-314.508 Y-83.765 Z-7.262 I0.176 J-1.498
X-314.861 Y-80.77 Z-7.427 I-0.176 J1.498
X-314.508 Y-83.765 Z-7.593 I0.176 J-1.498
X-314.861 Y-80.77 Z-7.758 I-0.176 J1.498
X-314.508 Y-83.765 Z-7.923 I0.176 J-1.498
X-313.177 Y-82.268 Z-8 I-0.176 J1.498
X-316.193 Y-82.268 I-1.508 J0
X-313.177 Y-82.268 I1.508 J0
S6000
G1 X-313.16 Y-81.626 F1000
X-313.131 Y-81.551
X-313.097 Y-81.405
X-313.093 Y-81.255
X-313.115 Y-81.106
X-313.157 Y-80.962
X-313.217 Y-80.825
X-313.293 Y-80.696
X-313.383 Y-80.575
X-313.484 Y-80.464
X-313.595 Y-80.363
X-313.714 Y-80.273
X-313.841 Y-80.193
X-313.975 Y-80.124
X-314.116 Y-80.065
X-314.265 Y-80.016
X-314.422 Y-79.979
X-314.584 Y-79.953
X-314.751 Y-79.941
X-314.921 Y-79.942
X-315.093 Y-79.957
X-315.266 Y-79.985
X-315.438 Y-80.029
X-315.608 Y-80.086
X-315.774 Y-80.158
X-315.935 Y-80.243
X-316.09 Y-80.342
X-316.237 Y-80.454
X-316.376 Y-80.578
X-316.505 Y-80.713
X-316.624 Y-80.859
X-316.73 Y-81.015
X-316.825 Y-81.179
X-316.906 Y-81.351
X-316.973 Y-81.529
X-317.025 Y-81.712
X-317.063 Y-81.9
X-317.086 Y-82.09
X-317.094 Y-82.281
X-317.086 Y-82.473
X-317.062 Y-82.664
X-317.023 Y-82.853
X-316.97 Y-83.038
X-316.901 Y-83.219
X-316.818 Y-83.393
X-316.722 Y-83.56
X-316.612 Y-83.719
X-316.49 Y-83.869
X-316.356 Y-84.009
X-316.211 Y-84.137
X-316.057 Y-84.254
X-315.893 Y-84.357
X-315.722 Y-84.448
X-315.544 Y-84.524
X-315.36 Y-84.586
X-315.172 Y-84.632
X-314.981 Y-84.664
X-314.788 Y-84.68
X-314.594
X-314.401 Y-84.665
X-314.209 Y-84.635
X-314.021 Y-84.589
X-313.837 Y-84.528
X-313.658 Y-84.453
X-313.486 Y-84.364
X-313.322 Y-84.261
X-313.166 Y-84.145
X-313.02 Y-84.017
X-312.885 Y-83.878
X-312.762 Y-83.728
X-312.651 Y-83.569
X-312.546 Y-83.39
X-312.407 Y-83.101
X-312.253 Y-82.702
X-312.165 Y-82.405
X-312.109 Y-82.143
X-312.078 Y-81.899
X-312.068 Y-81.671
X-312.075 Y-81.454
X-312.099 Y-81.245
X-312.139 Y-81.039
X-312.196 Y-80.838
X-312.268 Y-80.643
X-312.356 Y-80.454
X-312.459 Y-80.272
X-312.577 Y-80.098
X-312.709 Y-79.933
X-312.857 Y-79.777
X-313.018 Y-79.631
X-313.193 Y-79.497
X-313.38 Y-79.376
X-313.58 Y-79.269
X-313.791 Y-79.176
X-314.012 Y-79.1
X-314.241 Y-79.041
X-314.477 Y-79
X-314.719 Y-78.978
X-314.965 Y-78.975
X-315.212 Y-78.992
X-315.46 Y-79.03
X-315.706 Y-79.087
X-315.948 Y-79.165
X-316.186 Y-79.263
X-316.416 Y-79.38
X-316.637 Y-79.516
X-316.848 Y-79.671
X-317.048 Y-79.843
X-317.233 Y-80.031
X-317.404 Y-80.234
X-317.558 Y-80.452
X-317.695 Y-80.681
X-317.813 Y-80.922
X-317.912 Y-81.173
X-317.991 Y-81.431
X-318.049 Y-81.695
X-318.086 Y-81.964
X-318.101 Y-82.235
X-318.094 Y-82.507
X-318.065 Y-82.778
X-318.015 Y-83.046
X-317.943 Y-83.31
X-317.85 Y-83.567
X-317.737 Y-83.816
X-317.604 Y-84.055
X-317.452 Y-84.283
X-317.282 Y-84.499
X-317.096 Y-84.7
X-316.894 Y-84.885
X-316.677 Y-85.054
X-316.447 Y-85.205
X-316.207 Y-85.337
X-315.956 Y-85.449
X-315.697 Y-85.541
X-315.431 Y-85.612
X-315.16 Y-85.661
X-314.887 Y-85.688
X-314.612 Y-85.693
X-314.337 Y-85.677
X-314.065 Y-85.638
X-313.796 Y-85.577
X-313.534 Y-85.495
X-313.279 Y-85.393
X-313.032 Y-85.27
X-312.797 Y-85.128
X-312.573 Y-84.967
X-312.361 Y-84.787
X-312.147 Y-84.574
X-311.929 Y-84.317
X-311.726 Y-84.037
X-311.54 Y-83.731
X-311.381 Y-83.413
X-311.25 Y-83.089
X-311.148 Y-82.767
X-311.075 Y-82.447
X-311.029 Y-82.131
X-311.01 Y-81.817
X-311.015 Y-81.507
X-311.044 Y-81.202
X-311.098 Y-80.903
X-311.175 Y-80.611
X-311.275 Y-80.328
X-311.397 Y-80.054
X-311.54 Y-79.79
X-311.705 Y-79.539
X-311.89 Y-79.3
X-312.094 Y-79.076
X-312.318 Y-78.868
X-312.428 Y-78.78
X-312.537 Y-78.708
X-312.657 Y-78.657
X-312.784 Y-78.627
X-315.235 Y-78.279
X-315.496 Y-78.255
X-315.7 Y-78.253
X-315.918 Y-78.268
X-316.141 Y-78.302
X-316.378 Y-78.357
X-316.626 Y-78.437
X-316.878 Y-78.541
X-317.127 Y-78.667
X-317.374 Y-78.819
X-317.617 Y-78.997
X-317.853 Y-79.201
X-318.078 Y-79.429
X-318.288 Y-79.68
X-318.481 Y-79.951
X-318.653 Y-80.241
X-318.804 Y-80.547
X-318.931 Y-80.867
X-319.032 Y-81.199
X-319.107 Y-81.541
X-319.154 Y-81.889
X-319.174 Y-82.241
X-319.165 Y-82.595
X-319.127 Y-82.949
X-319.061 Y-83.3
X-318.967 Y-83.644
X-318.845 Y-83.981
X-318.697 Y-84.308
X-318.522 Y-84.622
X-318.323 Y-84.921
X-318.1 Y-85.204
X-317.855 Y-85.468
X-317.722 Y-85.59
X-317.606 Y-85.677
X-317.475 Y-85.74
X-317.335 Y-85.776
X-314.977 Y-86.139
X-313.955 Y-86.274
X-313.733 Y-86.291
X-313.545
X-313.349 Y-86.276
X-313.131 Y-86.24
X-312.906 Y-86.185
X-312.676 Y-86.108
X-312.43 Y-86.003
X-312.172 Y-85.868
X-311.921 Y-85.71
X-311.662 Y-85.516
X-311.4 Y-85.284
X-311.144 Y-85.019
X-310.903 Y-84.725
X-310.682 Y-84.406
X-310.484 Y-84.064
X-310.311 Y-83.703
X-310.167 Y-83.327
X-310.054 Y-82.94
X-309.973 Y-82.547
X-309.923 Y-82.15
X-309.906 Y-81.753
X-309.92 Y-81.358
X-309.966 Y-80.967
X-310.043 Y-80.582
X-310.15 Y-80.206
X-310.287 Y-79.84
X-310.453 Y-79.486
X-310.6 Y-79.227
X-310.74 Y-79.052
X-310.925 Y-78.926
X-311.14 Y-78.861
X-312.784 Y-78.627
G3 X-313.131 Y-78.894 I-0.034 J-0.316
G1 X-313.178 Y-79.193
X-314.173 Y-85.625
X-314.217 Y-85.912
G3 X-313.955 Y-86.274 I0.314 J-0.049
G1 X-312.416 Y-86.475
X-312.266 Y-86.487
X-312.116 Y-86.485
X-311.961 Y-86.469
X-311.795 Y-86.438
X-311.612 Y-86.388
X-311.416 Y-86.318
X-311.202 Y-86.221
X-310.984 Y-86.101
X-310.745 Y-85.941
X-310.511 Y-85.758
X-310.27 Y-85.536
X-310.025 Y-85.269
X-309.788 Y-84.966
X-309.571 Y-84.637
X-309.369 Y-84.271
X-309.19 Y-83.872
X-309.038 Y-83.446
X-308.919 Y-83.001
X-308.834 Y-82.54
X-308.786 Y-82.07
X-308.776 Y-81.594
X-308.805 Y-81.118
X-308.871 Y-80.644
X-308.976 Y-80.176
X-309.103 Y-79.766
X-309.205 Y-79.511
X-309.3 Y-79.342
X-309.435 Y-79.204
X-309.602 Y-79.105
X-309.788 Y-79.053
X-311.14 Y-78.861
G3 X-311.385 Y-78.929 I-0.045 J-0.314
G1 X-311.438 Y-78.964
X-311.497 Y-78.988
X-311.559 Y-78.999
X-311.623 Y-78.998
X-311.89 Y-78.966
X-314.359 Y-78.672
X-314.417 Y-78.659
X-314.471 Y-78.637
X-314.52 Y-78.604
G3 X-315.235 Y-78.279 I-0.992 J-1.233
G1 X-316.874 Y-78.046
X-317.023 Y-78.032
X-317.173 Y-78.034
X-317.332 Y-78.051
X-317.494 Y-78.081
X-317.68 Y-78.132
X-317.867 Y-78.199
X-318.074 Y-78.293
X-318.286 Y-78.41
X-318.502 Y-78.554
X-318.729 Y-78.733
X-318.954 Y-78.941
X-319.168 Y-79.173
X-319.377 Y-79.442
X-319.576 Y-79.743
X-319.758 Y-80.075
X-319.918 Y-80.432
X-320.052 Y-80.809
X-320.158 Y-81.203
X-320.232 Y-81.611
X-320.275 Y-82.031
X-320.284 Y-82.459
X-320.258 Y-82.893
X-320.196 Y-83.326
X-320.1 Y-83.756
X-319.968 Y-84.18
X-319.803 Y-84.593
X-319.604 Y-84.993
X-319.495 Y-85.173
X-319.359 Y-85.339
X-319.18 Y-85.459
X-318.974 Y-85.522
X-317.335 Y-85.776
G3 X-317.089 Y-85.711 I0.048 J0.314
G1 X-317.036 Y-85.676
X-316.977 Y-85.653
X-316.915 Y-85.643
X-316.852 Y-85.644
X-316.583 Y-85.678
X-313.291 Y-86.092
X-313.235 Y-86.105
X-313.182 Y-86.127
X-313.134 Y-86.158
G3 X-312.416 Y-86.475 I0.978 J1.244
G1 X-311.183 Y-86.636
X-311.033 Y-86.648
X-310.883
X-310.734 Y-86.632
X-310.586 Y-86.604
X-310.413 Y-86.557
X-310.237 Y-86.494
X-310.037 Y-86.402
X-309.837 Y-86.291
X-309.612 Y-86.142
X-309.394 Y-85.97
X-309.163 Y-85.755
X-308.922 Y-85.493
X-308.699 Y-85.206
X-308.477 Y-84.869
X-308.265 Y-84.482
X-308.073 Y-84.052
X-307.909 Y-83.59
X-307.78 Y-83.106
X-307.687 Y-82.595
X-307.634 Y-82.062
X-307.623 Y-81.514
X-307.657 Y-80.959
X-307.733 Y-80.429
X-307.821 Y-80.039
X-307.906 Y-79.766
X-307.936 Y-79.69
X-308.031 Y-79.522
X-308.167 Y-79.384
X-308.333 Y-79.285
X-308.519 Y-79.233
X-309.788 Y-79.053
G3 X-310.134 Y-79.31 I-0.034 J-0.316
G1 X-310.192 Y-79.617
X-311.391 Y-85.989
X-311.443 Y-86.264
G3 X-311.183 Y-86.636 I0.312 J-0.059
G1 X-310.161 Y-86.769
X-309.935 Y-86.794
X-309.786 Y-86.803
X-309.636 Y-86.795
X-309.487 Y-86.774
X-309.327 Y-86.737
X-309.163 Y-86.684
X-308.977 Y-86.607
X-308.789 Y-86.511
X-308.578 Y-86.381
X-308.371 Y-86.229
X-308.14 Y-86.029
X-307.917 Y-85.803
X-307.685 Y-85.527
X-307.448 Y-85.192
X-307.232 Y-84.828
X-307.029 Y-84.415
X-306.844 Y-83.947
X-306.687 Y-83.43
X-306.565 Y-82.874
X-306.485 Y-82.286
X-306.453 Y-81.685
X-306.467 Y-81.11
X-306.521 Y-80.607
X-306.587 Y-80.255
X-306.66 Y-79.988
X-306.696 Y-79.89
X-306.789 Y-79.713
X-306.925 Y-79.567
X-307.096 Y-79.463
X-307.288 Y-79.408
X-308.519 Y-79.233
G3 X-308.865 Y-79.489 I-0.034 J-0.316
G1 X-308.924 Y-79.797
X-310.15 Y-86.153
X-310.202 Y-86.42
G3 X-309.935 Y-86.794 I0.312 J-0.06
G1 X-308.768 Y-86.92
X-308.618 Y-86.928
X-308.468 Y-86.922
X-308.32 Y-86.901
X-308.174 Y-86.867
X-308.005 Y-86.814
X-307.836 Y-86.744
X-307.641 Y-86.645
X-307.446 Y-86.526
X-307.227 Y-86.366
X-307.016 Y-86.185
X-306.784 Y-85.951
X-306.556 Y-85.68
X-306.33 Y-85.363
X-306.1 Y-84.978
X-305.884 Y-84.542
X-305.697 Y-84.071
X-305.53 Y-83.529
X-305.399 Y-82.934
X-305.312 Y-82.311
X-305.277 Y-81.692
X-305.29 Y-81.128
X-305.334 Y-80.71
X-305.395 Y-80.377
X-305.46 Y-80.139
X-305.487 Y-80.063
X-305.579 Y-79.886
X-305.716 Y-79.739
X-305.887 Y-79.635
X-306.08 Y-79.58
X-307.288 Y-79.408
G3 X-307.633 Y-79.661 I-0.034 J-0.316
G1 X-307.696 Y-79.971
X-308.981 Y-86.279
X-309.034 Y-86.542
G3 X-308.768 Y-86.92 I0.311 J-0.063
G1 X-307.601 Y-87.045
X-307.451 Y-87.053
X-307.301 Y-87.046
X-307.153 Y-87.024
X-307.007 Y-86.988
X-306.838 Y-86.934
X-306.67 Y-86.863
X-306.475 Y-86.762
X-306.284 Y-86.643
X-306.065 Y-86.481
X-305.852 Y-86.295
X-305.62 Y-86.057
X-305.386 Y-85.775
X-305.161 Y-85.454
X-304.928 Y-85.058
X-304.706 Y-84.6
X-304.515 Y-84.109
X-304.344 Y-83.539
X-304.212 Y-82.917
X-304.129 Y-82.281
X-304.099 Y-81.682
X-304.114 Y-81.169
X-304.155 Y-80.802
X-304.215 Y-80.495
X-304.278 Y-80.268
X-304.292 Y-80.228
X-304.385 Y-80.052
X-304.522 Y-79.908
X-304.692 Y-79.804
X-304.884 Y-79.75
X-306.08 Y-79.58
G3 X-306.424 Y-79.83 I-0.034 J-0.316
G1 X-306.49 Y-80.142
X-307.812 Y-86.405
X-307.867 Y-86.665
G3 X-307.601 Y-87.045 I0.311 J-0.066
G1 X-306.433 Y-87.17
X-306.284 Y-87.178
X-306.134 Y-87.169
X-305.986 Y-87.145
X-305.839 Y-87.108
X-305.668 Y-87.05
X-305.498 Y-86.976
X-305.301 Y-86.872
X-305.109 Y-86.749
X-304.887 Y-86.581
X-304.674 Y-86.391
X-304.437 Y-86.142
X-304.202 Y-85.854
X-303.972 Y-85.518
X-303.734 Y-85.102
X-303.513 Y-84.634
X-303.318 Y-84.116
X-303.147 Y-83.521
X-303.02 Y-82.892
X-302.945 Y-82.264
X-302.923 Y-81.698
X-302.942 Y-81.229
X-302.983 Y-80.895
X-303.04 Y-80.616
X-303.106 Y-80.39
X-303.2 Y-80.217
X-303.336 Y-80.074
X-303.504 Y-79.973
X-303.694 Y-79.919
X-304.884 Y-79.75
G3 X-305.228 Y-79.999 I-0.034 J-0.316
G1 X-305.296 Y-80.312
X-306.643 Y-86.53
X-306.699 Y-86.788
G3 X-306.433 Y-87.17 I0.31 J-0.067
G1 X-305.346 Y-87.286
X-305.266 Y-87.294
X-305.116 Y-87.301
X-304.967 Y-87.29
X-304.819 Y-87.264
X-304.672 Y-87.226
X-304.499 Y-87.166
X-304.327 Y-87.089
X-304.129 Y-86.982
X-303.933 Y-86.855
X-303.709 Y-86.682
X-303.493 Y-86.485
X-303.25 Y-86.226
X-303.02 Y-85.937
X-302.781 Y-85.582
X-302.537 Y-85.147
X-302.322 Y-84.68
X-302.123 Y-84.137
X-301.954 Y-83.529
X-301.833 Y-82.9
X-301.766 Y-82.289
X-301.75 Y-81.757
X-301.772 Y-81.317
X-301.813 Y-81.003
X-301.869 Y-80.744
X-301.91 Y-80.607
X-301.998 Y-80.417
X-302.136 Y-80.259
X-302.314 Y-80.146
X-302.515 Y-80.087
X-303.694 Y-79.919
G3 X-304.038 Y-80.166 I-0.034 J-0.316
G1 X-304.108 Y-80.481
X-305.478 Y-86.657
X-305.534 Y-86.91
G3 X-305.266 Y-87.294 I0.31 J-0.069
G1 X-305.2 Y-87.3
X-304.471 Y-87.363
X-304.099 Y-87.394
X-303.949 Y-87.399
X-303.799 Y-87.389
X-303.651 Y-87.364
X-303.505 Y-87.326
X-303.337 Y-87.268
X-303.164 Y-87.192
X-302.972 Y-87.089
X-302.772 Y-86.96
X-302.555 Y-86.794
X-302.332 Y-86.592
X-302.09 Y-86.335
X-301.862 Y-86.051
X-301.616 Y-85.688
X-301.377 Y-85.266
X-301.159 Y-84.796
X-300.955 Y-84.243
X-300.785 Y-83.638
X-300.664 Y-83.021
X-300.596 Y-82.428
X-300.579 Y-81.901
X-300.598 Y-81.497
X-300.641 Y-81.163
X-300.692 Y-80.922
X-300.735 Y-80.776
X-300.823 Y-80.585
X-300.962 Y-80.426
X-301.139 Y-80.313
X-301.341 Y-80.254
X-302.515 Y-80.087
G3 X-302.859 Y-80.332 I-0.034 J-0.316
G1 X-302.93 Y-80.648
X-304.315 Y-86.761
X-304.371 Y-87.009
G3 X-304.099 Y-87.394 I0.31 J-0.07
G1 X-302.931 Y-87.493
X-302.781 Y-87.498
X-302.632 Y-87.488
X-302.484 Y-87.463
X-302.339 Y-87.426
X-302.17 Y-87.368
X-301.999 Y-87.293
X-301.805 Y-87.189
X-301.606 Y-87.061
X-301.388 Y-86.894
X-301.167 Y-86.695
X-300.923 Y-86.438
X-300.696 Y-86.156
X-300.449 Y-85.792
X-300.208 Y-85.367
X-299.989 Y-84.898
X-299.785 Y-84.349
X-299.616 Y-83.752
X-299.496 Y-83.142
X-299.43 Y-82.566
X-299.412 Y-82.053
X-299.43 Y-81.657
X-299.472 Y-81.326
X-299.522 Y-81.088
X-299.564 Y-80.944
X-299.652 Y-80.752
X-299.791 Y-80.593
X-299.968 Y-80.479
X-300.171 Y-80.42
X-301.341 Y-80.254
G3 X-301.684 Y-80.498 I-0.034 J-0.316
G1 X-301.757 Y-80.815
X-303.147 Y-86.86
X-303.203 Y-87.106
G3 X-302.931 Y-87.493 I0.309 J-0.071
G1 X-301.764 Y-87.591
X-301.614 Y-87.596
X-301.464 Y-87.587
X-301.316 Y-87.562
X-301.171 Y-87.525
X-301.002 Y-87.467
X-300.832 Y-87.393
X-300.638 Y-87.29
X-300.439 Y-87.161
X-300.22 Y-86.995
X-299.999 Y-86.796
X-299.756 Y-86.54
X-299.528 Y-86.257
X-299.281 Y-85.894
X-299.039 Y-85.47
X-298.821 Y-85.004
X-298.618 Y-84.46
X-298.451 Y-83.872
X-298.332 Y-83.273
X-298.265 Y-82.707
X-298.247 Y-82.206
X-298.265 Y-81.817
X-298.306 Y-81.489
X-298.355 Y-81.253
X-298.397 Y-81.111
X-298.485 Y-80.919
X-298.623 Y-80.759
X-298.801 Y-80.645
X-299.003 Y-80.586
X-300.171 Y-80.42
G3 X-300.514 Y-80.664 I-0.034 J-0.316
G1 X-300.587 Y-80.981
X-301.979 Y-86.958
X-302.036 Y-87.204
G3 X-301.764 Y-87.591 I0.309 J-0.072
G1 X-300.597 Y-87.689
X-300.447 Y-87.694
X-300.297 Y-87.685
X-300.149 Y-87.661
X-300.004 Y-87.624
X-299.835 Y-87.566
X-299.665 Y-87.493
X-299.471 Y-87.39
X-299.272 Y-87.262
X-299.053 Y-87.096
X-298.832 Y-86.898
X-298.589 Y-86.643
X-298.361 Y-86.361
X-298.114 Y-86.001
X-297.872 Y-85.578
X-297.656 Y-85.117
X-297.454 Y-84.58
X-297.288 Y-84
X-297.17 Y-83.411
X-297.104 Y-82.853
X-297.086 Y-82.363
X-297.102 Y-81.979
X-297.142 Y-81.653
X-297.191 Y-81.419
X-297.232 Y-81.278
X-297.32 Y-81.085
X-297.458 Y-80.925
X-297.636 Y-80.811
X-297.839 Y-80.752
X-299.003 Y-80.586
G3 X-299.346 Y-80.829 I-0.034 J-0.316
G1 X-299.421 Y-81.147
X-300.811 Y-87.057
X-300.868 Y-87.301
G3 X-300.597 Y-87.689 I0.309 J-0.073
G1 X-300.385 Y-87.707
X-299.947 Y-87.738
X-299.364 Y-87.774
X-299.214 Y-87.776
X-299.064 Y-87.762
X-298.917 Y-87.733
X-298.765 Y-87.69
X-298.595 Y-87.627
X-298.421 Y-87.546
X-298.22 Y-87.432
X-298.023 Y-87.298
X-297.796 Y-87.115
X-297.577 Y-86.909
X-297.339 Y-86.644
X-297.099 Y-86.33
X-296.866 Y-85.969
X-296.628 Y-85.525
X-296.407 Y-85.019
X-296.224 Y-84.485
X-296.077 Y-83.913
X-295.979 Y-83.344
X-295.932 Y-82.829
X-295.927 Y-82.367
X-295.952 Y-82.02
X-295.996 Y-81.728
X-296.049 Y-81.504
X-296.075 Y-81.423
X-296.165 Y-81.238
X-296.303 Y-81.084
X-296.477 Y-80.974
X-296.676 Y-80.917
X-297.839 Y-80.752
G3 X-298.182 Y-80.997 I-0.034 J-0.316
G1 X-298.254 Y-81.313
X-299.588 Y-87.148
X-299.642 Y-87.388
G3 X-299.364 Y-87.774 I0.31 J-0.071
G1 X-298.196 Y-87.847
X-298.046 Y-87.849
X-297.897 Y-87.837
X-297.749 Y-87.811
X-297.602 Y-87.771
X-297.438 Y-87.712
X-297.259 Y-87.632
X-297.072 Y-87.529
X-296.868 Y-87.393
X-296.658 Y-87.229
X-296.623 Y-87.196
X-296.512 Y-87.068
X-296.434 Y-86.919
X-296.392 Y-86.756
G3 X-296.861 Y-86.445 I-0.316 J0.034
G1 X-296.942 Y-86.489
X-298.32 Y-87.253
G3 X-298.196 Y-87.847 I0.154 J-0.278
G1 X-297.029 Y-87.92
X-296.883 Y-87.929
X-296.81
X-296.774 Y-87.922
X-296.737 Y-87.912
X-296.725 Y-87.907
X-296.691 Y-87.891
X-296.658 Y-87.869
X-296.625 Y-87.841
X-296.591 Y-87.807
X-296.573 Y-87.784
X-296.559 Y-87.761
X-296.54 Y-87.724
X-296.527 Y-87.688
X-296.514 Y-87.615
X-295.642 Y-81.488
X-295.638 Y-81.444
X-295.656 Y-81.297
X-295.725 Y-81.166
X-295.837 Y-81.068
X-295.976 Y-81.017
G3 X-296.392 Y-81.482 I-0.051 J-0.373
X-295.638 Y-81.444 I0.374 J0.093
G1 X-295.626 Y-81.342
X-295.63 Y-81.306
X-295.637 Y-81.269
X-295.649 Y-81.233
X-295.667 Y-81.196
X-295.688 Y-81.164
X-295.716 Y-81.131
X-295.743 Y-81.105
X-295.771 Y-81.082
X-295.798 Y-81.065
X-295.826 Y-81.05
X-295.862 Y-81.037
X-296.008 Y-81.012
X-296.676 Y-80.917
G3 X-296.931 Y-81.46 I-0.034 J-0.316
G1 X-296.881 Y-81.509 Z-7.992
X-296.833 Y-81.556 Z-7.969
X-296.79 Y-81.598 Z-7.931
X-296.754 Y-81.633 Z-7.88
X-296.727 Y-81.66 Z-7.82
X-296.71 Y-81.676 Z-7.753
X-296.704 Y-81.682 Z-7.682
Z2.51
X-315.911 Y-78.57
Z-7.365
Z-7.682
X-315.917 Y-78.565 Z-7.753
X-315.936 Y-78.55 Z-7.82
X-315.965 Y-78.527 Z-7.88
X-316.004 Y-78.495 Z-7.931
X-316.051 Y-78.457 Z-7.969
X-316.104 Y-78.415 Z-7.992
X-316.159 Y-78.371 Z-8
G3 X-316.874 Y-78.046 I-0.992 J-1.233
G1 X-318.041 Y-77.88
X-318.213 Y-77.864
X-318.363 Y-77.863
X-318.513 Y-77.877
X-318.66 Y-77.903
X-318.827 Y-77.948
X-318.995 Y-78.008
X-319.185 Y-78.093
X-319.376 Y-78.198
X-319.581 Y-78.334
X-319.796 Y-78.502
X-320.005 Y-78.694
X-320.224 Y-78.931
X-320.44 Y-79.206
X-320.639 Y-79.506
X-320.828 Y-79.847
X-321.001 Y-80.229
X-321.15 Y-80.645
X-321.271 Y-81.09
X-321.358 Y-81.558
X-321.408 Y-82.04
X-321.42 Y-82.535
X-321.391 Y-83.039
X-321.321 Y-83.55
X-321.208 Y-84.06
X-321.06 Y-84.542
X-320.922 Y-84.889
X-320.789 Y-85.077
X-320.605 Y-85.215
X-320.388 Y-85.29
X-319.938 Y-85.37
X-319.792 Y-85.395
X-319.208 Y-85.486
X-318.974 Y-85.522
G3 X-318.621 Y-85.245 I0.037 J0.315
G1 X-318.587 Y-84.96
X-317.818 Y-78.533
X-317.781 Y-78.23
G3 X-318.041 Y-77.88 I-0.315 J0.038
G1 X-319.208 Y-77.714
X-319.358 Y-77.7
X-319.508 Y-77.699
X-319.657 Y-77.714
X-319.805 Y-77.742
X-319.959 Y-77.785
X-320.131 Y-77.848
X-320.309 Y-77.93
X-320.505 Y-78.04
X-320.699 Y-78.17
X-320.913 Y-78.341
X-321.12 Y-78.535
X-321.335 Y-78.772
X-321.556 Y-79.058
X-321.759 Y-79.369
X-321.954 Y-79.73
X-322.136 Y-80.142
X-322.295 Y-80.598
X-322.423 Y-81.088
X-322.513 Y-81.597
X-322.565 Y-82.134
X-322.573 Y-82.697
X-322.534 Y-83.278
X-322.449 Y-83.859
X-322.354 Y-84.271
X-322.253 Y-84.589
X-322.245 Y-84.609
X-322.154 Y-84.771
X-322.025 Y-84.905
X-321.867 Y-85.003
X-321.689 Y-85.058
X-320.388 Y-85.29
G3 X-320.029 Y-85.024 I0.045 J0.314
G1 X-319.984 Y-84.737
X-318.995 Y-78.366
X-318.95 Y-78.075
G3 X-319.208 Y-77.714 I-0.314 J0.049
G1 X-320.367 Y-77.549
X-320.516 Y-77.536
X-320.666 Y-77.54
X-320.815 Y-77.558
X-320.967 Y-77.592
X-321.12 Y-77.639
X-321.298 Y-77.71
X-321.475 Y-77.798
X-321.676 Y-77.918
X-321.871 Y-78.057
X-322.086 Y-78.239
X-322.3 Y-78.45
X-322.517 Y-78.702
X-322.743 Y-79.013
X-322.95 Y-79.351
X-323.148 Y-79.743
X-323.332 Y-80.193
X-323.492 Y-80.695
X-323.617 Y-81.237
X-323.701 Y-81.799
X-323.741 Y-82.403
X-323.733 Y-83.037
X-323.68 Y-83.6
X-323.614 Y-83.977
X-323.539 Y-84.266
X-323.51 Y-84.349
X-323.422 Y-84.524
X-323.291 Y-84.669
X-323.126 Y-84.776
X-322.94 Y-84.835
X-321.689 Y-85.058
G3 X-321.332 Y-84.799 I0.045 J0.314
G1 X-321.28 Y-84.506
X-320.16 Y-78.2
X-320.11 Y-77.918
G3 X-320.367 Y-77.549 I-0.313 J0.056
G1 X-321.477 Y-77.392
X-321.627 Y-77.378
X-321.777 Y-77.381
X-321.925 Y-77.401
X-322.072 Y-77.433
X-322.235 Y-77.483
X-322.401 Y-77.55
X-322.591 Y-77.643
X-322.78 Y-77.757
X-322.988 Y-77.905
X-323.199 Y-78.083
X-323.417 Y-78.299
X-323.648 Y-78.569
X-323.862 Y-78.863
X-324.084 Y-79.225
X-324.3 Y-79.654
X-324.487 Y-80.11
X-324.65 Y-80.623
X-324.783 Y-81.199
X-324.877 Y-81.829
X-324.919 Y-82.47
X-324.912 Y-83.059
X-324.87 Y-83.504
X-324.81 Y-83.843
X-324.748 Y-84.085
X-324.731 Y-84.131
X-324.643 Y-84.306
X-324.512 Y-84.452
X-324.348 Y-84.558
X-324.162 Y-84.618
X-322.94 Y-84.835
G3 X-322.584 Y-84.583 I0.045 J0.314
G1 X-322.524 Y-84.285
X-321.276 Y-78.041
X-321.221 Y-77.766
G3 X-321.477 Y-77.392 I-0.311 J0.062
G1 X-322.564 Y-77.237
X-322.714 Y-77.223
X-322.864 Y-77.224
X-323.013 Y-77.241
X-323.16 Y-77.271
X-323.324 Y-77.319
X-323.489 Y-77.382
X-323.678 Y-77.473
X-323.864 Y-77.581
X-324.078 Y-77.73
X-324.284 Y-77.899
X-324.514 Y-78.121
X-324.74 Y-78.378
X-324.966 Y-78.68
X-325.199 Y-79.051
X-325.414 Y-79.463
X-325.612 Y-79.93
X-325.795 Y-80.479
X-325.945 Y-81.09
X-326.047 Y-81.724
X-326.096 Y-82.335
Y-82.893
X-326.063 Y-83.301
X-326.011 Y-83.624
X-325.953 Y-83.858
X-325.943 Y-83.889
X-325.858 Y-84.064
X-325.731 Y-84.21
X-325.57 Y-84.319
X-325.386 Y-84.382
X-324.753 Y-84.509
X-324.162 Y-84.618
G3 X-323.807 Y-84.372 I0.045 J0.314
G1 X-323.739 Y-84.068
X-322.369 Y-77.885
X-322.31 Y-77.618
G3 X-322.564 Y-77.237 I-0.31 J0.069
G1 X-323.732 Y-77.071
X-323.881 Y-77.057
X-324.031 Y-77.065
X-324.179 Y-77.087
X-324.333 Y-77.124
X-324.496 Y-77.177
X-324.674 Y-77.252
X-324.863 Y-77.349
X-325.065 Y-77.475
X-325.277 Y-77.631
X-325.505 Y-77.83
X-325.726 Y-78.057
X-325.968 Y-78.348
X-326.197 Y-78.674
X-326.427 Y-79.065
X-326.657 Y-79.539
X-326.863 Y-80.066
X-327.033 Y-80.636
X-327.167 Y-81.26
X-327.25 Y-81.896
X-327.278 Y-82.455
X-327.264 Y-82.92
X-327.227 Y-83.251
X-327.177 Y-83.51
X-327.149 Y-83.613
X-327.068 Y-83.8
X-326.939 Y-83.957
X-326.773 Y-84.074
X-326.581 Y-84.141
X-325.386 Y-84.382
G3 X-325.025 Y-84.14 I0.052 J0.313
G1 X-324.956 Y-83.841
X-323.539 Y-77.719
X-323.478 Y-77.455
G3 X-323.732 Y-77.071 I-0.309 J0.072
G1 X-324.833 Y-76.914
X-324.983 Y-76.901
X-325.133 Y-76.906
X-325.281 Y-76.926
X-325.428 Y-76.958
X-325.592 Y-77.009
X-325.769 Y-77.08
X-325.958 Y-77.174
X-326.159 Y-77.294
X-326.373 Y-77.448
X-326.593 Y-77.634
X-326.833 Y-77.872
X-327.063 Y-78.141
X-327.314 Y-78.487
X-327.553 Y-78.879
X-327.777 Y-79.324
X-327.993 Y-79.853
X-328.181 Y-80.447
X-328.323 Y-81.064
X-328.412 Y-81.668
X-328.448 Y-82.219
X-328.441 Y-82.656
X-328.409 Y-82.993
X-328.365 Y-83.242
X-328.333 Y-83.364
X-328.254 Y-83.554
X-328.125 Y-83.715
X-327.957 Y-83.835
X-327.763 Y-83.903
X-326.581 Y-84.141
G3 X-326.221 Y-83.904 I0.052 J0.313
G1 X-326.146 Y-83.602
X-324.645 Y-77.561
X-324.581 Y-77.304
G3 X-324.833 Y-76.914 I-0.308 J0.077
G1 X-325.92 Y-76.76
X-326.07 Y-76.746
X-326.22
X-326.369 Y-76.762
X-326.516 Y-76.791
X-326.679 Y-76.837
X-326.85 Y-76.901
X-327.038 Y-76.989
X-327.24 Y-77.104
X-327.452 Y-77.248
X-327.676 Y-77.429
X-327.915 Y-77.655
X-328.147 Y-77.914
X-328.402 Y-78.248
X-328.642 Y-78.622
X-328.879 Y-79.066
X-329.107 Y-79.59
X-329.306 Y-80.169
X-329.46 Y-80.772
X-329.56 Y-81.358
X-329.609 Y-81.901
X-329.613 Y-82.351
X-329.588 Y-82.693
X-329.548 Y-82.952
X-329.511 Y-83.111
X-329.434 Y-83.307
X-329.305 Y-83.473
X-329.134 Y-83.596
X-328.936 Y-83.667
X-327.763 Y-83.903
G3 X-327.404 Y-83.671 I0.052 J0.313
G1 X-327.322 Y-83.365
X-325.736 Y-77.405
X-325.669 Y-77.154
G3 X-325.92 Y-76.76 I-0.307 J0.082
G1 X-327.088 Y-76.594
X-327.237 Y-76.58
X-327.387 Y-76.585
X-327.536 Y-76.604
X-327.686 Y-76.637
X-327.854 Y-76.688
X-328.029 Y-76.756
X-328.229 Y-76.854
X-328.428 Y-76.972
X-328.652 Y-77.131
X-328.876 Y-77.318
X-329.117 Y-77.555
X-329.367 Y-77.844
X-329.611 Y-78.177
X-329.868 Y-78.594
X-330.112 Y-79.07
X-330.324 Y-79.584
X-330.51 Y-80.159
X-330.651 Y-80.759
X-330.739 Y-81.338
X-330.774 Y-81.829
X-330.77 Y-82.219
X-330.741 Y-82.544
X-330.701 Y-82.778
X-330.676 Y-82.875
X-330.599 Y-83.063
X-330.474 Y-83.223
X-330.31 Y-83.343
X-330.12 Y-83.414
X-329.601 Y-83.53
X-328.985 Y-83.657
X-328.936 Y-83.667
G3 X-328.578 Y-83.436 I0.052 J0.313
G1 X-328.495 Y-83.129
X-326.904 Y-77.239
X-326.837 Y-76.989
G3 X-327.088 Y-76.594 I-0.307 J0.083
G1 X-328.255 Y-76.428
X-328.404 Y-76.414
X-328.554 Y-76.422
X-328.703 Y-76.443
X-328.852 Y-76.478
X-329.028 Y-76.534
X-329.204 Y-76.606
X-329.408 Y-76.709
X-329.61 Y-76.833
X-329.841 Y-77.002
X-330.067 Y-77.196
X-330.323 Y-77.455
X-330.566 Y-77.742
X-330.819 Y-78.097
X-331.078 Y-78.529
X-331.31 Y-78.998
X-331.521 Y-79.528
X-331.7 Y-80.11
X-331.83 Y-80.697
X-331.905 Y-81.24
X-331.932 Y-81.706
X-331.924 Y-82.057
X-331.893 Y-82.354
X-331.851 Y-82.582
X-331.84 Y-82.624
X-331.762 Y-82.809
X-331.637 Y-82.966
X-331.474 Y-83.084
X-331.286 Y-83.154
X-330.12 Y-83.414
X-330.063 Y-83.42
X-330.062
G3 X-329.756 Y-83.187 I0 J0.317
G1 X-329.672 Y-82.885
X-328.073 Y-77.073
X-328.004 Y-76.825
G3 X-328.255 Y-76.428 I-0.306 J0.084
G1 X-329.357 Y-76.271
X-329.506 Y-76.258
X-329.656 Y-76.26
X-329.805 Y-76.277
X-329.96 Y-76.309
X-330.121 Y-76.355
X-330.306 Y-76.426
X-330.492 Y-76.514
X-330.707 Y-76.638
X-330.918 Y-76.783
X-331.16 Y-76.98
X-331.396 Y-77.207
X-331.647 Y-77.49
X-331.91 Y-77.839
X-332.15 Y-78.218
X-332.394 Y-78.68
X-332.422 Y-78.746
X-332.445 Y-78.807
X-332.463 Y-78.869
X-332.475 Y-78.933
G3 X-331.951 Y-79.207 I0.316 J-0.034
G1 X-331.931 Y-79.19
X-329.258 Y-76.87
X-329.204 Y-76.824
G3 X-329.357 Y-76.271 I-0.208 J0.24
G1 X-330.524 Y-76.106
X-330.673 Y-76.092
X-330.823 Y-76.096
X-330.972 Y-76.115
X-331.12 Y-76.146
X-331.294 Y-76.198
X-331.468 Y-76.265
X-331.67 Y-76.363
X-331.875 Y-76.483
X-331.891 Y-76.494
X-332.039 Y-76.631
X-332.144 Y-76.803
X-332.199 Y-76.997
G3 X-331.749 Y-77.318 I0.316 J-0.034
G1 X-331.646 Y-77.27
X-330.445 Y-76.706
G3 X-330.524 Y-76.106 I-0.135 J0.287
G1 X-331.611 Y-75.951
X-331.655 Y-75.945
X-331.686 Y-75.941
X-331.741 Y-75.937
X-331.777
X-331.813 Y-75.939
X-331.848 Y-75.945
G3 X-332.082 Y-76.289 I0.125 J-0.336
X-331.394 Y-76.274 I0.344 J0.008
X-331.686 Y-75.941 I-0.344 J-0.008
G1 X-331.757 Y-75.933
X-331.803 Y-75.935
X-331.848 Y-75.945
X-331.876 Y-75.954
X-331.903 Y-75.966
X-331.938 Y-75.986
X-331.973 Y-76.012
X-332.013 Y-76.052
X-332.042 Y-76.091
X-332.049 Y-76.102
X-332.066 Y-76.135
X-332.078 Y-76.169
X-332.091 Y-76.236
X-332.859 Y-81.634
X-332.882 Y-81.892
X-332.885 Y-82.099
X-332.872 Y-82.274
X-332.866 Y-82.316
X-332.801 Y-82.527
X-332.676 Y-82.71
X-332.502 Y-82.848
X-332.295 Y-82.928
X-332.238 Y-82.933
X-332.237
G3 X-331.936 Y-82.515 I0 J0.317
G1 X-331.975 Y-82.396
X-332.245 Y-81.589
G3 X-332.859 Y-81.634 I-0.301 J-0.101
G1 X-332.962 Y-82.363
X-332.98 Y-82.509
X-332.977 Y-82.546
X-332.971 Y-82.582
X-332.96 Y-82.619
X-332.943 Y-82.655
X-332.924 Y-82.686
X-332.898 Y-82.722
X-332.864 Y-82.758
X-332.834 Y-82.782
X-332.804 Y-82.801
X-332.778 Y-82.814
X-332.742 Y-82.827
X-332.705 Y-82.836
X-331.286 Y-83.154
G3 X-330.923 Y-82.93 I0.058 J0.312
G1 X-330.917 Y-82.885 Z-7.997
X-330.91 Y-82.842 Z-7.987
X-330.925 Y-82.784 Z-7.963
X-330.938 Y-82.733 Z-7.927
X-330.949 Y-82.69 Z-7.881
X-330.966 Y-82.665 Z-7.837
X-330.978 Y-82.647 Z-7.788
X-330.986 Y-82.636 Z-7.736
X-330.989 Y-82.633 Z-7.683
Z2.51
X-313.524 Y-83.23
Z-5.5
S5000
G3 X-315.846 Y-81.305 Z-5.665 I-1.161 J0.962 F333.3
X-313.524 Y-83.23 Z-5.831 I1.161 J-0.962
X-315.846 Y-81.305 Z-5.996 I-1.161 J0.962
X-313.524 Y-83.23 Z-6.162 I1.161 J-0.962
X-315.846 Y-81.305 Z-6.327 I-1.161 J0.962
X-313.524 Y-83.23 Z-6.493 I1.161 J-0.962
X-315.846 Y-81.305 Z-6.658 I-1.161 J0.962
X-313.524 Y-83.23 Z-6.824 I1.161 J-0.962
X-315.846 Y-81.305 Z-6.989 I-1.161 J0.962
X-313.524 Y-83.23 Z-7.155 I1.161 J-0.962
X-315.846 Y-81.305 Z-7.32 I-1.161 J0.962
X-313.524 Y-83.23 Z-7.485 I1.161 J-0.962
X-315.846 Y-81.305 Z-7.651 I-1.161 J0.962
X-313.524 Y-83.23 Z-7.816 I1.161 J-0.962
X-315.846 Y-81.305 Z-7.982 I-1.161 J0.962
X-313.524 Y-83.23 Z-8.147 I1.161 J-0.962
X-315.846 Y-81.305 Z-8.313 I-1.161 J0.962
X-313.524 Y-83.23 Z-8.478 I1.161 J-0.962
X-315.846 Y-81.305 Z-8.644 I-1.161 J0.962
X-313.524 Y-83.23 Z-8.809 I1.161 J-0.962
X-315.846 Y-81.305 Z-8.974 I-1.161 J0.962
X-313.524 Y-83.23 Z-9.14 I1.161 J-0.962
X-315.846 Y-81.305 Z-9.305 I-1.161 J0.962
X-313.524 Y-83.23 Z-9.471 I1.161 J-0.962
X-315.846 Y-81.305 Z-9.636 I-1.161 J0.962
X-313.524 Y-83.23 Z-9.802 I1.161 J-0.962
X-315.846 Y-81.305 Z-9.967 I-1.161 J0.962
X-313.524 Y-83.23 Z-10.133 I1.161 J-0.962
X-315.846 Y-81.305 Z-10.298 I-1.161 J0.962
X-313.524 Y-83.23 Z-10.464 I1.161 J-0.962
X-313.177 Y-82.268 Z-10.5 I-1.161 J0.962
X-316.193 Y-82.268 I-1.508 J0
X-313.177 Y-82.268 I1.508 J0
S6000
G1 X-313.16 Y-81.626 F1000
X-313.131 Y-81.551
X-313.097 Y-81.405
X-313.093 Y-81.255
X-313.115 Y-81.106
X-313.157 Y-80.962
X-313.217 Y-80.825
X-313.293 Y-80.696
X-313.383 Y-80.575
X-313.484 Y-80.464
X-313.595 Y-80.363
X-313.714 Y-80.273
X-313.841 Y-80.193
X-313.975 Y-80.124
X-314.116 Y-80.065
X-314.265 Y-80.016
X-314.422 Y-79.979
X-314.584 Y-79.953
X-314.751 Y-79.941
X-314.921 Y-79.942
X-315.093 Y-79.957
X-315.266 Y-79.985
X-315.438 Y-80.029
X-315.608 Y-80.086
X-315.774 Y-80.158
X-315.935 Y-80.243
X-316.09 Y-80.342
X-316.237 Y-80.454
X-316.376 Y-80.578
X-316.505 Y-80.713
X-316.624 Y-80.859
X-316.73 Y-81.015
X-316.825 Y-81.179
X-316.906 Y-81.351
X-316.973 Y-81.529
X-317.025 Y-81.712
X-317.063 Y-81.9
X-317.086 Y-82.09
X-317.094 Y-82.281
X-317.086 Y-82.473
X-317.062 Y-82.664
X-317.023 Y-82.853
X-316.97 Y-83.038
X-316.901 Y-83.219
X-316.818 Y-83.393
X-316.722 Y-83.56
X-316.612 Y-83.719
X-316.49 Y-83.869
X-316.356 Y-84.009
X-316.211 Y-84.137
X-316.057 Y-84.254
X-315.893 Y-84.357
X-315.722 Y-84.448
X-315.544 Y-84.524
X-315.36 Y-84.586
X-315.172 Y-84.632
X-314.981 Y-84.664
X-314.788 Y-84.68
X-314.594
X-314.401 Y-84.665
X-314.209 Y-84.635
X-314.021 Y-84.589
X-313.837 Y-84.528
X-313.658 Y-84.453
X-313.486 Y-84.364
X-313.322 Y-84.261
X-313.166 Y-84.145
X-313.02 Y-84.017
X-312.885 Y-83.878
X-312.762 Y-83.728
X-312.651 Y-83.569
X-312.546 Y-83.39
X-312.407 Y-83.101
X-312.253 Y-82.702
X-312.165 Y-82.405
X-312.109 Y-82.143
X-312.078 Y-81.899
X-312.068 Y-81.671
X-312.075 Y-81.454
X-312.099 Y-81.245
X-312.139 Y-81.039
X-312.196 Y-80.838
X-312.268 Y-80.643
X-312.356 Y-80.454
X-312.459 Y-80.272
X-312.577 Y-80.098
X-312.709 Y-79.933
X-312.857 Y-79.777
X-313.018 Y-79.631
X-313.193 Y-79.497
X-313.38 Y-79.376
X-313.58 Y-79.269
X-313.791 Y-79.176
X-314.012 Y-79.1
X-314.241 Y-79.041
X-314.477 Y-79
X-314.719 Y-78.978
X-314.965 Y-78.975
X-315.212 Y-78.992
X-315.46 Y-79.03
X-315.706 Y-79.087
X-315.948 Y-79.165
X-316.186 Y-79.263
X-316.416 Y-79.38
X-316.637 Y-79.516
X-316.848 Y-79.671
X-317.048 Y-79.843
X-317.233 Y-80.031
X-317.404 Y-80.234
X-317.558 Y-80.452
X-317.695 Y-80.681
X-317.813 Y-80.922
X-317.912 Y-81.173
X-317.991 Y-81.431
X-318.049 Y-81.695
X-318.086 Y-81.964
X-318.101 Y-82.235
X-318.094 Y-82.507
X-318.065 Y-82.778
X-318.015 Y-83.046
X-317.943 Y-83.31
X-317.85 Y-83.567
X-317.737 Y-83.816
X-317.604 Y-84.055
X-317.452 Y-84.283
X-317.282 Y-84.499
X-317.096 Y-84.7
X-316.894 Y-84.885
X-316.677 Y-85.054
X-316.447 Y-85.205
X-316.207 Y-85.337
X-315.956 Y-85.449
X-315.697 Y-85.541
X-315.431 Y-85.612
X-315.16 Y-85.661
X-314.887 Y-85.688
X-314.612 Y-85.693
X-314.337 Y-85.677
X-314.065 Y-85.638
X-313.796 Y-85.577
X-313.534 Y-85.495
X-313.279 Y-85.393
X-313.032 Y-85.27
X-312.797 Y-85.128
X-312.573 Y-84.967
X-312.361 Y-84.787
X-312.147 Y-84.574
X-311.929 Y-84.317
X-311.726 Y-84.037
X-311.54 Y-83.731
X-311.381 Y-83.413
X-311.25 Y-83.089
X-311.148 Y-82.767
X-311.075 Y-82.447
X-311.029 Y-82.131
X-311.01 Y-81.817
X-311.015 Y-81.507
X-311.044 Y-81.202
X-311.098 Y-80.903
X-311.175 Y-80.611
X-311.275 Y-80.328
X-311.397 Y-80.054
X-311.54 Y-79.79
X-311.705 Y-79.539
X-311.89 Y-79.3
X-312.094 Y-79.076
X-312.318 Y-78.868
X-312.428 Y-78.78
X-312.537 Y-78.708
X-312.657 Y-78.657
X-312.784 Y-78.627
X-315.235 Y-78.279
X-315.496 Y-78.255
X-315.7 Y-78.253
X-315.918 Y-78.268
X-316.141 Y-78.302
X-316.378 Y-78.357
X-316.626 Y-78.437
X-316.878 Y-78.541
X-317.127 Y-78.667
X-317.374 Y-78.819
X-317.617 Y-78.997
X-317.853 Y-79.201
X-318.078 Y-79.429
X-318.288 Y-79.68
X-318.481 Y-79.951
X-318.653 Y-80.241
X-318.804 Y-80.547
X-318.931 Y-80.867
X-319.032 Y-81.199
X-319.107 Y-81.541
X-319.154 Y-81.889
X-319.174 Y-82.241
X-319.165 Y-82.595
X-319.127 Y-82.949
X-319.061 Y-83.3
X-318.967 Y-83.644
X-318.845 Y-83.981
X-318.697 Y-84.308
X-318.522 Y-84.622
X-318.323 Y-84.921
X-318.1 Y-85.204
X-317.855 Y-85.468
X-317.722 Y-85.59
X-317.606 Y-85.677
X-317.475 Y-85.74
X-317.335 Y-85.776
X-314.977 Y-86.139
X-313.955 Y-86.274
X-313.733 Y-86.291
X-313.545
X-313.349 Y-86.276
X-313.131 Y-86.24
X-312.906 Y-86.185
X-312.676 Y-86.108
X-312.43 Y-86.003
X-312.172 Y-85.868
X-311.921 Y-85.71
X-311.662 Y-85.516
X-311.4 Y-85.284
X-311.144 Y-85.019
X-310.903 Y-84.725
X-310.682 Y-84.406
X-310.484 Y-84.064
X-310.311 Y-83.703
X-310.167 Y-83.327
X-310.054 Y-82.94
X-309.973 Y-82.547
X-309.923 Y-82.15
X-309.906 Y-81.753
X-309.92 Y-81.358
X-309.966 Y-80.967
X-310.043 Y-80.582
X-310.15 Y-80.206
X-310.287 Y-79.84
X-310.453 Y-79.486
X-310.6 Y-79.227
X-310.74 Y-79.052
X-310.925 Y-78.926
X-311.14 Y-78.861
X-312.784 Y-78.627
G3 X-313.131 Y-78.894 I-0.034 J-0.316
G1 X-313.178 Y-79.193
X-314.173 Y-85.625
X-314.217 Y-85.912
G3 X-313.955 Y-86.274 I0.314 J-0.049
G1 X-312.416 Y-86.475
X-312.266 Y-86.487
X-312.116 Y-86.485
X-311.961 Y-86.469
X-311.795 Y-86.438
X-311.612 Y-86.388
X-311.416 Y-86.318
X-311.202 Y-86.221
X-310.984 Y-86.101
X-310.745 Y-85.941
X-310.511 Y-85.758
X-310.27 Y-85.536
X-310.025 Y-85.269
X-309.788 Y-84.966
X-309.571 Y-84.637
X-309.369 Y-84.271
X-309.19 Y-83.872
X-309.038 Y-83.446
X-308.919 Y-83.001
X-308.834 Y-82.54
X-308.786 Y-82.07
X-308.776 Y-81.594
X-308.805 Y-81.118
X-308.871 Y-80.644
X-308.976 Y-80.176
X-309.103 Y-79.766
X-309.205 Y-79.511
X-309.3 Y-79.342
X-309.435 Y-79.204
X-309.602 Y-79.105
X-309.788 Y-79.053
X-311.14 Y-78.861
G3 X-311.385 Y-78.929 I-0.045 J-0.314
G1 X-311.438 Y-78.964
X-311.497 Y-78.988
X-311.559 Y-78.999
X-311.623 Y-78.998
X-311.89 Y-78.966
X-314.359 Y-78.672
X-314.417 Y-78.659
X-314.471 Y-78.637
X-314.52 Y-78.604
G3 X-315.235 Y-78.279 I-0.992 J-1.233
G1 X-316.874 Y-78.046
X-317.023 Y-78.032
X-317.173 Y-78.034
X-317.332 Y-78.051
X-317.494 Y-78.081
X-317.68 Y-78.132
X-317.867 Y-78.199
X-318.074 Y-78.293
X-318.286 Y-78.41
X-318.502 Y-78.554
X-318.729 Y-78.733
X-318.954 Y-78.941
X-319.168 Y-79.173
X-319.377 Y-79.442
X-319.576 Y-79.743
X-319.758 Y-80.075
X-319.918 Y-80.432
X-320.052 Y-80.809
X-320.158 Y-81.203
X-320.232 Y-81.611
X-320.275 Y-82.031
X-320.284 Y-82.459
X-320.258 Y-82.893
X-320.196 Y-83.326
X-320.1 Y-83.756
X-319.968 Y-84.18
X-319.803 Y-84.593
X-319.604 Y-84.993
X-319.495 Y-85.173
X-319.359 Y-85.339
X-319.18 Y-85.459
X-318.974 Y-85.522
X-317.335 Y-85.776
G3 X-317.089 Y-85.711 I0.048 J0.314
G1 X-317.036 Y-85.676
X-316.977 Y-85.653
X-316.915 Y-85.643
X-316.852 Y-85.644
X-316.583 Y-85.678
X-313.291 Y-86.092
X-313.235 Y-86.105
X-313.182 Y-86.127
X-313.134 Y-86.158
G3 X-312.416 Y-86.475 I0.978 J1.244
G1 X-311.183 Y-86.636
X-311.033 Y-86.648
X-310.883
X-310.734 Y-86.632
X-310.586 Y-86.604
X-310.413 Y-86.557
X-310.237 Y-86.494
X-310.037 Y-86.402
X-309.837 Y-86.291
X-309.612 Y-86.142
X-309.394 Y-85.97
X-309.163 Y-85.755
X-308.922 Y-85.493
X-308.699 Y-85.206
X-308.477 Y-84.869
X-308.265 Y-84.482
X-308.073 Y-84.052
X-307.909 Y-83.59
X-307.78 Y-83.106
X-307.687 Y-82.595
X-307.634 Y-82.062
X-307.623 Y-81.514
X-307.657 Y-80.959
X-307.733 Y-80.429
X-307.821 Y-80.039
X-307.906 Y-79.766
X-307.936 Y-79.69
X-308.031 Y-79.522
X-308.167 Y-79.384
X-308.333 Y-79.285
X-308.519 Y-79.233
X-309.788 Y-79.053
G3 X-310.134 Y-79.31 I-0.034 J-0.316
G1 X-310.192 Y-79.617
X-311.391 Y-85.989
X-311.443 Y-86.264
G3 X-311.183 Y-86.636 I0.312 J-0.059
G1 X-310.161 Y-86.769
X-309.935 Y-86.794
X-309.786 Y-86.803
X-309.636 Y-86.795
X-309.487 Y-86.774
X-309.327 Y-86.737
X-309.163 Y-86.684
X-308.977 Y-86.607
X-308.789 Y-86.511
X-308.578 Y-86.381
X-308.371 Y-86.229
X-308.14 Y-86.029
X-307.917 Y-85.803
X-307.685 Y-85.527
X-307.448 Y-85.192
X-307.232 Y-84.828
X-307.029 Y-84.415
X-306.844 Y-83.947
X-306.687 Y-83.43
X-306.565 Y-82.874
X-306.485 Y-82.286
X-306.453 Y-81.685
X-306.467 Y-81.11
X-306.521 Y-80.607
X-306.587 Y-80.255
X-306.66 Y-79.988
X-306.696 Y-79.89
X-306.789 Y-79.713
X-306.925 Y-79.567
X-307.096 Y-79.463
X-307.288 Y-79.408
X-308.519 Y-79.233
G3 X-308.865 Y-79.489 I-0.034 J-0.316
G1 X-308.924 Y-79.797
X-310.15 Y-86.153
X-310.202 Y-86.42
G3 X-309.935 Y-86.794 I0.312 J-0.06
G1 X-308.768 Y-86.92
X-308.618 Y-86.928
X-308.468 Y-86.922
X-308.32 Y-86.901
X-308.174 Y-86.867
X-308.005 Y-86.814
X-307.836 Y-86.744
X-307.641 Y-86.645
X-307.446 Y-86.526
X-307.227 Y-86.366
X-307.016 Y-86.185
X-306.784 Y-85.951
X-306.556 Y-85.68
X-306.33 Y-85.363
X-306.1 Y-84.978
X-305.884 Y-84.542
X-305.697 Y-84.071
X-305.53 Y-83.529
X-305.399 Y-82.934
X-305.312 Y-82.311
X-305.277 Y-81.692
X-305.29 Y-81.128
X-305.334 Y-80.71
X-305.395 Y-80.377
X-305.46 Y-80.139
X-305.487 Y-80.063
X-305.579 Y-79.886
X-305.716 Y-79.739
X-305.887 Y-79.635
X-306.08 Y-79.58
X-307.288 Y-79.408
G3 X-307.633 Y-79.661 I-0.034 J-0.316
G1 X-307.696 Y-79.971
X-308.981 Y-86.279
X-309.034 Y-86.542
G3 X-308.768 Y-86.92 I0.311 J-0.063
G1 X-307.601 Y-87.045
X-307.451 Y-87.053
X-307.301 Y-87.046
X-307.153 Y-87.024
X-307.007 Y-86.988
X-306.838 Y-86.934
X-306.67 Y-86.863
X-306.475 Y-86.762
X-306.284 Y-86.643
X-306.065 Y-86.481
X-305.852 Y-86.295
X-305.62 Y-86.057
X-305.386 Y-85.775
X-305.161 Y-85.454
X-304.928 Y-85.058
X-304.706 Y-84.6
X-304.515 Y-84.109
X-304.344 Y-83.539
X-304.212 Y-82.917
X-304.129 Y-82.281
X-304.099 Y-81.682
X-304.114 Y-81.169
X-304.155 Y-80.802
X-304.215 Y-80.495
X-304.278 Y-80.268
X-304.292 Y-80.228
X-304.385 Y-80.052
X-304.522 Y-79.908
X-304.692 Y-79.804
X-304.884 Y-79.75
X-306.08 Y-79.58
G3 X-306.424 Y-79.83 I-0.034 J-0.316
G1 X-306.49 Y-80.142
X-307.812 Y-86.405
X-307.867 Y-86.665
G3 X-307.601 Y-87.045 I0.311 J-0.066
G1 X-306.433 Y-87.17
X-306.284 Y-87.178
X-306.134 Y-87.169
X-305.986 Y-87.145
X-305.839 Y-87.108
X-305.668 Y-87.05
X-305.498 Y-86.976
X-305.301 Y-86.872
X-305.109 Y-86.749
X-304.887 Y-86.581
X-304.674 Y-86.391
X-304.437 Y-86.142
X-304.202 Y-85.854
X-303.972 Y-85.518
X-303.734 Y-85.102
X-303.513 Y-84.634
X-303.318 Y-84.116
X-303.147 Y-83.521
X-303.02 Y-82.892
X-302.945 Y-82.264
X-302.923 Y-81.698
X-302.942 Y-81.229
X-302.983 Y-80.895
X-303.04 Y-80.616
X-303.106 Y-80.39
X-303.2 Y-80.217
X-303.336 Y-80.074
X-303.504 Y-79.973
X-303.694 Y-79.919
X-304.884 Y-79.75
G3 X-305.228 Y-79.999 I-0.034 J-0.316
G1 X-305.296 Y-80.312
X-306.643 Y-86.53
X-306.699 Y-86.788
G3 X-306.433 Y-87.17 I0.31 J-0.067
G1 X-305.346 Y-87.286
X-305.266 Y-87.294
X-305.116 Y-87.301
X-304.967 Y-87.29
X-304.819 Y-87.264
X-304.672 Y-87.226
X-304.499 Y-87.166
X-304.327 Y-87.089
X-304.129 Y-86.982
X-303.933 Y-86.855
X-303.709 Y-86.682
X-303.493 Y-86.485
X-303.25 Y-86.226
X-303.02 Y-85.937
X-302.781 Y-85.582
X-302.537 Y-85.147
X-302.322 Y-84.68
X-302.123 Y-84.137
X-301.954 Y-83.529
X-301.833 Y-82.9
X-301.766 Y-82.289
X-301.75 Y-81.757
X-301.772 Y-81.317
X-301.813 Y-81.003
X-301.869 Y-80.744
X-301.91 Y-80.607
X-301.998 Y-80.417
X-302.136 Y-80.259
X-302.314 Y-80.146
X-302.515 Y-80.087
X-303.694 Y-79.919
G3 X-304.038 Y-80.166 I-0.034 J-0.316
G1 X-304.108 Y-80.481
X-305.478 Y-86.657
X-305.534 Y-86.91
G3 X-305.266 Y-87.294 I0.31 J-0.069
G1 X-305.2 Y-87.3
X-304.471 Y-87.363
X-304.099 Y-87.394
X-303.949 Y-87.399
X-303.799 Y-87.389
X-303.651 Y-87.364
X-303.505 Y-87.326
X-303.337 Y-87.268
X-303.164 Y-87.192
X-302.972 Y-87.089
X-302.772 Y-86.96
X-302.555 Y-86.794
X-302.332 Y-86.592
X-302.09 Y-86.335
X-301.862 Y-86.051
X-301.616 Y-85.688
X-301.377 Y-85.266
X-301.159 Y-84.796
X-300.955 Y-84.243
X-300.785 Y-83.638
X-300.664 Y-83.021
X-300.596 Y-82.428
X-300.579 Y-81.901
X-300.598 Y-81.497
X-300.641 Y-81.163
X-300.692 Y-80.922
X-300.735 Y-80.776
X-300.823 Y-80.585
X-300.962 Y-80.426
X-301.139 Y-80.313
X-301.341 Y-80.254
X-302.515 Y-80.087
G3 X-302.859 Y-80.332 I-0.034 J-0.316
G1 X-302.93 Y-80.648
X-304.315 Y-86.761
X-304.371 Y-87.009
G3 X-304.099 Y-87.394 I0.31 J-0.07
G1 X-302.931 Y-87.493
X-302.781 Y-87.498
X-302.632 Y-87.488
X-302.484 Y-87.463
X-302.339 Y-87.426
X-302.17 Y-87.368
X-301.999 Y-87.293
X-301.805 Y-87.189
X-301.606 Y-87.061
X-301.388 Y-86.894
X-301.167 Y-86.695
X-300.923 Y-86.438
X-300.696 Y-86.156
X-300.449 Y-85.792
X-300.208 Y-85.367
X-299.989 Y-84.898
X-299.785 Y-84.349
X-299.616 Y-83.752
X-299.496 Y-83.142
X-299.43 Y-82.566
X-299.412 Y-82.053
X-299.43 Y-81.657
X-299.472 Y-81.326
X-299.522 Y-81.088
X-299.564 Y-80.944
X-299.652 Y-80.752
X-299.791 Y-80.593
X-299.968 Y-80.479
X-300.171 Y-80.42
X-301.341 Y-80.254
G3 X-301.684 Y-80.498 I-0.034 J-0.316
G1 X-301.757 Y-80.815
X-303.147 Y-86.86
X-303.203 Y-87.106
G3 X-302.931 Y-87.493 I0.309 J-0.071
G1 X-301.764 Y-87.591
X-301.614 Y-87.596
X-301.464 Y-87.587
X-301.316 Y-87.562
X-301.171 Y-87.525
X-301.002 Y-87.467
X-300.832 Y-87.393
X-300.638 Y-87.29
X-300.439 Y-87.161
X-300.22 Y-86.995
X-299.999 Y-86.796
X-299.756 Y-86.54
X-299.528 Y-86.257
X-299.281 Y-85.894
X-299.039 Y-85.47
X-298.821 Y-85.004
X-298.618 Y-84.46
X-298.451 Y-83.872
X-298.332 Y-83.273
X-298.265 Y-82.707
X-298.247 Y-82.206
X-298.265 Y-81.817
X-298.306 Y-81.489
X-298.355 Y-81.253
X-298.397 Y-81.111
X-298.485 Y-80.919
X-298.623 Y-80.759
X-298.801 Y-80.645
X-299.003 Y-80.586
X-300.171 Y-80.42
G3 X-300.514 Y-80.664 I-0.034 J-0.316
G1 X-300.587 Y-80.981
X-301.979 Y-86.958
X-302.036 Y-87.204
G3 X-301.764 Y-87.591 I0.309 J-0.072
G1 X-300.597 Y-87.689
X-300.447 Y-87.694
X-300.297 Y-87.685
X-300.149 Y-87.661
X-300.004 Y-87.624
X-299.835 Y-87.566
X-299.665 Y-87.493
X-299.471 Y-87.39
X-299.272 Y-87.262
X-299.053 Y-87.096
X-298.832 Y-86.898
X-298.589 Y-86.643
X-298.361 Y-86.361
X-298.114 Y-86.001
X-297.872 Y-85.578
X-297.656 Y-85.117
X-297.454 Y-84.58
X-297.288 Y-84
X-297.17 Y-83.411
X-297.104 Y-82.853
X-297.086 Y-82.363
X-297.102 Y-81.979
X-297.142 Y-81.653
X-297.191 Y-81.419
X-297.232 Y-81.278
X-297.32 Y-81.085
X-297.458 Y-80.925
X-297.636 Y-80.811
X-297.839 Y-80.752
X-299.003 Y-80.586
G3 X-299.346 Y-80.829 I-0.034 J-0.316
G1 X-299.421 Y-81.147
X-300.811 Y-87.057
X-300.868 Y-87.301
G3 X-300.597 Y-87.689 I0.309 J-0.073
G1 X-300.385 Y-87.707
X-299.947 Y-87.738
X-299.364 Y-87.774
X-299.214 Y-87.776
X-299.064 Y-87.762
X-298.917 Y-87.733
X-298.765 Y-87.69
X-298.595 Y-87.627
X-298.421 Y-87.546
X-298.22 Y-87.432
X-298.023 Y-87.298
X-297.796 Y-87.115
X-297.577 Y-86.909
X-297.339 Y-86.644
X-297.099 Y-86.33
X-296.866 Y-85.969
X-296.628 Y-85.525
X-296.407 Y-85.019
X-296.224 Y-84.485
X-296.077 Y-83.913
X-295.979 Y-83.344
X-295.932 Y-82.829
X-295.927 Y-82.367
X-295.952 Y-82.02
X-295.996 Y-81.728
X-296.049 Y-81.504
X-296.075 Y-81.423
X-296.165 Y-81.238
X-296.303 Y-81.084
X-296.477 Y-80.974
X-296.676 Y-80.917
X-297.839 Y-80.752
G3 X-298.182 Y-80.997 I-0.034 J-0.316
G1 X-298.254 Y-81.313
X-299.588 Y-87.148
X-299.642 Y-87.388
G3 X-299.364 Y-87.774 I0.31 J-0.071
G1 X-298.196 Y-87.847
X-298.046 Y-87.849
X-297.897 Y-87.837
X-297.749 Y-87.811
X-297.602 Y-87.771
X-297.438 Y-87.712
X-297.259 Y-87.632
X-297.072 Y-87.529
X-296.868 Y-87.393
X-296.658 Y-87.229
X-296.623 Y-87.196
X-296.512 Y-87.068
X-296.434 Y-86.919
X-296.392 Y-86.756
G3 X-296.861 Y-86.445 I-0.316 J0.034
G1 X-296.942 Y-86.489
X-298.32 Y-87.253
G3 X-298.196 Y-87.847 I0.154 J-0.278
G1 X-297.029 Y-87.92
X-296.883 Y-87.929
X-296.81
X-296.774 Y-87.922
X-296.737 Y-87.912
X-296.725 Y-87.907
X-296.691 Y-87.891
X-296.658 Y-87.869
X-296.625 Y-87.841
X-296.591 Y-87.807
X-296.573 Y-87.784
X-296.559 Y-87.761
X-296.54 Y-87.724
X-296.527 Y-87.688
X-296.514 Y-87.615
X-295.642 Y-81.488
X-295.638 Y-81.444
X-295.656 Y-81.297
X-295.725 Y-81.166
X-295.837 Y-81.068
X-295.976 Y-81.017
