(1001)
(Bearbeiten)
(  Hersteller: ChinaCnc)
(  model: 3040T)
(  description: Generic 3-axis)
(T16  D=6 CR=0 - ZMIN=-25 - Schaftfraser)
G90 G94
G17
G21
(When using Fusion 360 for Personal Use, the feedrate of)
(rapid moves is reduced to match the feedrate of cutting)
(moves, which can increase machining time. Unrestricted rapid)
(moves are available with a Fusion 360 Subscription.)

(2D Adaptive16)
T16
S6000 M3
G54
G0 X-39.625 Y86.86
Z4
G1 Z2.05 F1000
Z-16.8
Z-17.4
Y86.852 Z-17.494
X-39.624 Y86.83 Z-17.585
X-39.622 Y86.794 Z-17.672
X-39.62 Y86.745 Z-17.753
X-39.617 Y86.684 Z-17.824
X-39.613 Y86.613 Z-17.885
X-39.61 Y86.532 Z-17.935
X-39.605 Y86.445 Z-17.971
X-39.601 Y86.354 Z-17.993
X-39.597 Y86.26 Z-18
G3 X-39.086 Y83 I15.301 J0.727
G1 X-39.075 Y82.964
X-39.041 Y82.949
X-38.176 Y83.141
X-37.3 Y83.277
X-36.419 Y83.373
X-35.536 Y83.441
X-34.651 Y83.489
X-33.765 Y83.522
X-32.88 Y83.546
X-31.994 Y83.562
X-31.107 Y83.573
X-30.221 Y83.581
X-29.335 Y83.587
X-28.449 Y83.591
X-26.677 Y83.596
X-24.019 Y83.598
X-20.474 Y83.6
X-19.588 Y83.589
X-18.702 Y83.567
X-17.817 Y83.538
X-16.931 Y83.503
X-16.046 Y83.465
X-15.161 Y83.424
X-14.276 Y83.381
X-12.505 Y83.293
X-9.851 Y83.156
X-7.196 Y83.016
X-6.311 Y82.969
X-5.427 Y82.916
X-4.542 Y82.859
X-3.658 Y82.8
X-2.774 Y82.739
X-1.006 Y82.612
X1.645 Y82.419
X6.947 Y82.026
X7.831 Y81.958
X8.714 Y81.885
X9.597 Y81.81
X10.479 Y81.732
X11.362 Y81.653
X13.127 Y81.492
X15.774 Y81.247
X21.068 Y80.753
X21.95 Y80.667
X22.831 Y80.577
X23.713 Y80.486
X24.594 Y80.392
X26.356 Y80.202
X28.998 Y79.912
X32.521 Y79.523
X32.841 Y79.526
X33.15 Y79.605
X33.431 Y79.755
X33.669 Y79.968
X33.849 Y80.232
X33.962 Y80.53
X34 Y80.847
X33.829 Y81.246
X33.506 Y81.386
X29.399 Y83.163
X19.129 Y84.255
X-1.814 Y86.048
X-42.492 Y89.331
X-60.213 Y89.242
X-73.907 Y88.401
X-84.58 Y87.358
X-97.266 Y85.701
X-100.891 Y85.035
X-102.813 Y83.803
X-103.912 Y83.054
G3 X-105 Y81.077 I1.41 J-2.064
G1 Y80.725
X-104.998 Y80.688
X-104.882 Y80.588
X-104.731 Y80.477
X-104.538 Y80.359
X-104.286 Y80.231
X-103.963 Y80.099
X-103.553 Y79.968
X-103.026 Y79.846
X-102.328 Y79.742
X-101.444 Y79.682
X-100.557 Y79.686
X-99.673 Y79.734
X-98.79 Y79.811
X-97.909 Y79.906
X-97.029 Y80.01
X-96.15 Y80.12
X-95.271 Y80.235
X-94.393 Y80.353
X-93.515 Y80.473
X-92.637 Y80.595
X-91.759 Y80.715
X-90.881 Y80.832
X-90.002 Y80.946
X-89.123 Y81.058
X-87.365 Y81.28
X-86.485 Y81.39
X-85.606 Y81.496
X-84.725 Y81.598
X-83.845 Y81.697
X-82.964 Y81.794
X-81.202 Y81.985
X-80.321 Y82.079
X-79.439 Y82.169
X-78.557 Y82.255
X-77.675 Y82.338
X-76.793 Y82.42
X-75.028 Y82.579
X-74.145 Y82.658
X-73.262 Y82.73
X-72.378 Y82.796
X-71.495 Y82.86
X-70.611 Y82.921
X-69.726 Y82.98
X-67.958 Y83.095
X-65.305 Y83.264
X-62.652 Y83.431
X-61.767 Y83.481
X-60.882 Y83.517
X-59.996 Y83.542
X-59.11 Y83.559
X-58.224 Y83.572
X-57.338 Y83.58
X-56.452 Y83.586
X-55.566 Y83.59
X-54.68 Y83.593
X-52.907 Y83.597
X-49.363 Y83.599
X-44.932 Y83.6
X-44.493 Y83.543
X-43.66 Y83.24
X-42.911 Y82.767
X-42.193 Y82.248
X-41.679 Y81.909
X-41.305 Y81.704
X-40.99 Y81.563
X-40.668 Y81.448
X-40.241 Y81.335
X-39.581 Y81.214
X-38.7 Y81.125
X-37.814 Y81.091
X-36.928 Y81.086
X-36.042 Y81.093
X-35.156 Y81.107
X-33.384 Y81.137
X-32.498 Y81.15
X-31.612 Y81.16
X-30.726 Y81.169
X-29.84 Y81.176
X-28.954 Y81.182
X-28.068 Y81.186
X-26.295 Y81.192
X-23.637 Y81.197
X-22.751 Y81.198
X-21.865 Y81.196
X-20.979 Y81.188
X-20.093 Y81.175
X-19.207 Y81.155
X-18.321 Y81.13
X-17.435 Y81.101
X-16.55 Y81.067
X-15.664 Y81.03
X-14.779 Y80.991
X-13.894 Y80.95
X-13.009 Y80.908
X-11.239 Y80.82
X-9.469 Y80.73
X-8.584 Y80.684
X-7.699 Y80.636
X-6.814 Y80.586
X-5.93 Y80.533
X-5.046 Y80.477
X-4.161 Y80.419
X-3.277 Y80.36
X-2.393 Y80.299
X-0.625 Y80.174
X2.026 Y79.982
X4.677 Y79.787
X5.561 Y79.721
X6.444 Y79.653
X7.328 Y79.583
X8.211 Y79.51
X9.094 Y79.436
X9.977 Y79.36
X10.86 Y79.282
X12.625 Y79.124
X14.39 Y78.963
X17.919 Y78.636
X18.801 Y78.554
X19.683 Y78.47
X20.566 Y78.385
X21.447 Y78.298
X22.329 Y78.209
X23.21 Y78.118
X24.092 Y78.025
X25.854 Y77.838
X27.616 Y77.647
X30.258 Y77.357
X31.026 Y77.3
X31.586 Y77.304
X32.073 Y77.346
X32.47 Y77.413
X32.855 Y77.511
X33.051 Y77.577
X33.314 Y77.698
X33.546 Y77.871
X33.738 Y78.087
X33.882 Y78.339
X33.97 Y78.615
X34 Y78.903
X33.829 Y79.301
X33.508 Y79.445
X33.426 Y79.481
X4.227 Y83.16
X-47.124 Y86.897
X-61.824 Y86.797
X-75.115 Y85.875
X-103.71 Y82.225
G3 X-105 Y80.725 I0.292 J-1.555
G1 Y79.981
X-104.993 Y79.831
X-104.897 Y79.669
X-104.781 Y79.506
X-104.636 Y79.331
X-104.447 Y79.138
X-104.238 Y78.956
X-103.969 Y78.757
X-103.65 Y78.56
X-103.278 Y78.369
X-102.823 Y78.179
X-102.273 Y78
X-101.604 Y77.841
X-100.739 Y77.707
X-99.855 Y77.643
X-98.969 Y77.63
X-98.083 Y77.655
X-97.198 Y77.708
X-96.315 Y77.78
X-95.433 Y77.867
X-94.553 Y77.964
X-93.673 Y78.068
X-92.793 Y78.176
X-91.035 Y78.398
X-88.397 Y78.73
X-87.518 Y78.84
X-86.638 Y78.947
X-85.758 Y79.052
X-84.878 Y79.155
X-83.998 Y79.256
X-83.117 Y79.355
X-82.237 Y79.453
X-81.356 Y79.548
X-80.474 Y79.641
X-79.593 Y79.731
X-78.711 Y79.818
X-77.829 Y79.904
X-76.947 Y79.987
X-76.065 Y80.069
X-75.182 Y80.148
X-74.299 Y80.224
X-73.416 Y80.296
X-72.532 Y80.365
X-71.649 Y80.43
X-70.765 Y80.494
X-69.881 Y80.555
X-68.997 Y80.616
X-67.228 Y80.733
X-64.576 Y80.903
X-63.691 Y80.958
X-62.806 Y81.006
X-61.921 Y81.048
X-61.036 Y81.082
X-60.15 Y81.109
X-59.264 Y81.131
X-58.378 Y81.148
X-57.492 Y81.161
X-56.606 Y81.171
X-55.72 Y81.178
X-54.834 Y81.184
X-53.948 Y81.188
X-52.176 Y81.193
X-49.517 Y81.197
X-47.745 Y81.199
X-46.86 Y81.15
X-45.994 Y80.961
X-45.155 Y80.677
X-44.333 Y80.347
X-43.512 Y80.012
X-42.682 Y79.702
X-41.836 Y79.438
X-40.976 Y79.226
X-40.104 Y79.066
X-39.226 Y78.95
X-38.343 Y78.871
X-37.459 Y78.82
X-36.573 Y78.789
X-35.687 Y78.772
X-34.801 Y78.764
X-33.915 Y78.762
X-33.029 Y78.763
X-31.257 Y78.771
X-28.598 Y78.783
X-25.94 Y78.791
X-24.168 Y78.794
X-23.281 Y78.793
X-22.395 Y78.789
X-21.509 Y78.78
X-20.623 Y78.767
X-19.737 Y78.749
X-18.851 Y78.727
X-17.966 Y78.7
X-17.08 Y78.67
X-16.195 Y78.637
X-15.309 Y78.601
X-14.424 Y78.562
X-13.539 Y78.522
X-12.654 Y78.481
X-10.883 Y78.395
X-9.998 Y78.35
X-9.114 Y78.303
X-8.229 Y78.255
X-7.344 Y78.205
X-6.459 Y78.152
X-5.575 Y78.098
X-4.691 Y78.041
X-3.807 Y77.983
X-2.922 Y77.924
X-2.038 Y77.863
X-0.27 Y77.739
X1.497 Y77.612
X3.265 Y77.483
X4.148 Y77.417
X5.032 Y77.35
X5.916 Y77.281
X6.799 Y77.211
X7.682 Y77.139
X8.565 Y77.065
X9.448 Y76.99
X10.331 Y76.914
X12.096 Y76.758
X13.861 Y76.598
X16.508 Y76.355
X18.273 Y76.19
X19.155 Y76.106
X20.037 Y76.02
X20.919 Y75.933
X21.801 Y75.844
X22.682 Y75.754
X23.563 Y75.662
X25.326 Y75.476
X27.088 Y75.287
X27.969 Y75.191
X28.851 Y75.105
X29.735 Y75.045
X30.621 Y75.033
X31.384 Y75.076
X31.991 Y75.16
X32.47 Y75.267
X32.873 Y75.39
X33.118 Y75.488
X33.364 Y75.616
X33.581 Y75.789
X33.759 Y76.003
X33.891 Y76.247
X33.972 Y76.512
X34 Y76.789
Y78.903
X33.829 Y79.301
X33.508 Y79.445
X33.426 Y79.481
X-48.332 Y84.521
X-62.227 Y84.351
X-103.509 Y81.506
G3 X-105 Y79.981 I0.091 J-1.58
G1 Y78.976
X-104.993 Y78.826
X-104.954 Y78.665
X-104.901 Y78.5
X-104.824 Y78.314
X-104.723 Y78.119
X-104.596 Y77.913
X-104.432 Y77.692
X-104.24 Y77.47
X-103.992 Y77.228
X-103.717 Y76.999
X-103.359 Y76.746
X-102.97 Y76.516
X-102.475 Y76.275
X-101.92 Y76.057
X-101.23 Y75.849
X-100.373 Y75.665
X-99.495 Y75.548
X-98.611 Y75.487
X-97.725 Y75.469
X-96.839 Y75.485
X-95.954 Y75.526
X-95.07 Y75.587
X-94.187 Y75.663
X-93.305 Y75.75
X-92.424 Y75.843
X-91.543 Y75.942
X-90.663 Y76.045
X-89.783 Y76.15
X-87.144 Y76.468
X-86.264 Y76.572
X-85.384 Y76.675
X-84.504 Y76.777
X-83.623 Y76.877
X-82.743 Y76.976
X-81.862 Y77.072
X-80.981 Y77.166
X-80.099 Y77.258
X-79.218 Y77.347
X-78.336 Y77.435
X-77.454 Y77.52
X-76.572 Y77.603
X-75.689 Y77.683
X-74.807 Y77.761
X-73.924 Y77.835
X-73.04 Y77.906
X-72.157 Y77.975
X-71.273 Y78.041
X-70.389 Y78.105
X-69.505 Y78.168
X-68.621 Y78.229
X-66.853 Y78.347
X-65.969 Y78.405
X-65.085 Y78.461
X-64.2 Y78.513
X-63.315 Y78.561
X-62.43 Y78.603
X-61.545 Y78.64
X-60.659 Y78.671
X-59.773 Y78.697
X-58.887 Y78.718
X-58.002 Y78.736
X-57.115 Y78.75
X-56.229 Y78.761
X-55.343 Y78.77
X-54.457 Y78.777
X-53.571 Y78.782
X-51.799 Y78.79
X-50.027 Y78.794
X-49.141 Y78.775
X-48.259 Y78.688
X-47.387 Y78.53
X-46.527 Y78.318
X-45.674 Y78.077
X-44.824 Y77.825
X-43.973 Y77.578
X-43.118 Y77.348
X-42.256 Y77.141
X-41.388 Y76.963
X-40.514 Y76.815
X-39.636 Y76.697
X-38.755 Y76.605
X-37.871 Y76.535
X-36.987 Y76.483
X-36.101 Y76.447
X-35.216 Y76.421
X-34.33 Y76.405
X-33.444 Y76.394
X-32.558 Y76.388
X-31.671 Y76.385
X-30.785 Y76.384
X-29.013 Y76.386
X-26.355 Y76.391
X-25.469
X-24.582
X-23.696 Y76.388
X-22.81 Y76.382
X-21.924 Y76.373
X-21.038 Y76.36
X-20.152 Y76.342
X-19.266 Y76.322
X-18.38 Y76.297
X-17.495 Y76.269
X-16.609 Y76.238
X-15.724 Y76.204
X-14.838 Y76.168
X-13.953 Y76.13
X-13.068 Y76.09
X-12.183 Y76.049
X-11.298 Y76.006
X-10.413 Y75.962
X-9.528 Y75.916
X-8.643 Y75.867
X-7.758 Y75.817
X-6.874 Y75.765
X-5.989 Y75.711
X-5.105 Y75.656
X-4.22 Y75.599
X-3.336 Y75.54
X-2.452 Y75.48
X-0.684 Y75.358
X1.084 Y75.232
X2.851 Y75.103
X3.735 Y75.037
X4.618 Y74.97
X5.502 Y74.901
X6.385 Y74.831
X7.268 Y74.759
X8.152 Y74.686
X9.035 Y74.611
X9.917 Y74.536
X11.683 Y74.381
X13.448 Y74.223
X15.213 Y74.062
X16.978 Y73.898
X17.86 Y73.815
X18.742 Y73.73
X19.624 Y73.644
X20.506 Y73.557
X21.387 Y73.468
X22.269 Y73.379
X23.15 Y73.288
X24.913 Y73.103
X25.794 Y73.009
X26.676 Y72.918
X27.558 Y72.837
X28.442 Y72.776
X29.328 Y72.744
X30.214 Y72.752
X31.098 Y72.812
X31.827 Y72.92
X32.363 Y73.043
X32.829 Y73.191
X33.215 Y73.348
X33.231 Y73.357
X33.489 Y73.525
X33.704 Y73.746
X33.866 Y74.009
X33.966 Y74.3
X34 Y74.606
Y76.789
X33.829 Y77.187
X33.508 Y77.331
X33.426 Y77.367
X-49.943 Y82.076
X-56.186 Y81.957
X-103.509 Y80.5
G3 X-105 Y78.976 I0.091 J-1.58
G1 Y77.568
X-104.99 Y77.368
X-104.967 Y77.196
X-104.93 Y77.019
X-104.868 Y76.815
X-104.788 Y76.609
X-104.674 Y76.374
X-104.537 Y76.141
X-104.354 Y75.881
X-104.145 Y75.628
X-103.872 Y75.348
X-103.567 Y75.082
X-103.175 Y74.792
X-102.743 Y74.523
X-102.2 Y74.244
X-101.589 Y73.988
X-100.845 Y73.745
X-99.983 Y73.538
X-99.108 Y73.397
X-98.227 Y73.31
X-97.342 Y73.265
X-96.456 Y73.256
X-95.57 Y73.274
X-94.684 Y73.314
X-93.8 Y73.371
X-92.917 Y73.441
X-92.034 Y73.522
X-91.153 Y73.61
X-90.271 Y73.703
X-89.391 Y73.8
X-88.51 Y73.9
X-84.989 Y74.304
X-84.108 Y74.404
X-83.228 Y74.502
X-82.347 Y74.599
X-81.466 Y74.694
X-80.585 Y74.787
X-79.703 Y74.878
X-78.821 Y74.967
X-77.94 Y75.054
X-77.057 Y75.138
X-76.175 Y75.22
X-75.293 Y75.299
X-74.41 Y75.375
X-73.527 Y75.448
X-72.643 Y75.519
X-71.76 Y75.588
X-70.876 Y75.654
X-69.993 Y75.719
X-69.109 Y75.782
X-68.225 Y75.844
X-67.341 Y75.904
X-66.456 Y75.962
X-65.572 Y76.017
X-64.687 Y76.07
X-63.803 Y76.118
X-62.918 Y76.161
X-62.032 Y76.2
X-61.147 Y76.234
X-60.261 Y76.263
X-59.375 Y76.288
X-58.489 Y76.309
X-57.604 Y76.327
X-56.718 Y76.341
X-55.831 Y76.353
X-54.945 Y76.363
X-54.059 Y76.371
X-53.173 Y76.377
X-52.287 Y76.382
X-51.401 Y76.381
X-50.515 Y76.35
X-49.632 Y76.275
X-48.755 Y76.154
X-47.883 Y75.995
X-47.017 Y75.809
X-46.154 Y75.608
X-45.292 Y75.401
X-44.429 Y75.198
X-43.565 Y75.005
X-42.696 Y74.827
X-41.825 Y74.668
X-40.949 Y74.529
X-40.071 Y74.412
X-39.19 Y74.314
X-38.308 Y74.235
X-37.424 Y74.171
X-36.539 Y74.122
X-35.654 Y74.084
X-34.768 Y74.055
X-33.882 Y74.034
X-32.996 Y74.019
X-32.11 Y74.009
X-31.224 Y74.002
X-30.338 Y73.997
X-29.452 Y73.995
X-25.908 Y73.991
X-25.021 Y73.989
X-24.135 Y73.984
X-23.249 Y73.977
X-22.363 Y73.968
X-21.477 Y73.955
X-20.591 Y73.938
X-19.705 Y73.919
X-18.819 Y73.895
X-17.934 Y73.869
X-17.048 Y73.84
X-16.163 Y73.808
X-15.277 Y73.774
X-14.392 Y73.738
X-13.506 Y73.7
X-12.621 Y73.66
X-11.736 Y73.618
X-10.851 Y73.574
X-9.966 Y73.528
X-9.081 Y73.481
X-8.196 Y73.431
X-7.312 Y73.38
X-6.427 Y73.327
X-5.543 Y73.272
X-4.659 Y73.216
X-3.774 Y73.158
X-2.89 Y73.099
X-1.122 Y72.979
X0.646 Y72.854
X1.53 Y72.79
X2.413 Y72.725
X3.297 Y72.659
X4.181 Y72.592
X5.064 Y72.523
X5.947 Y72.453
X6.831 Y72.382
X7.714 Y72.309
X8.597 Y72.235
X9.48 Y72.16
X11.245 Y72.006
X13.011 Y71.849
X14.776 Y71.689
X15.658 Y71.608
X16.54 Y71.525
X17.422 Y71.442
X18.305 Y71.357
X19.186 Y71.271
X20.068 Y71.184
X20.95 Y71.096
X21.832 Y71.006
X24.476 Y70.733
X25.358 Y70.645
X26.24 Y70.566
X27.124 Y70.5
X28.009 Y70.454
X28.895 Y70.436
X29.781 Y70.452
X30.665 Y70.513
X31.543 Y70.63
X32.173 Y70.765
X32.673 Y70.915
X33.103 Y71.082
X33.211 Y71.135
X33.476 Y71.302
X33.696 Y71.523
X33.862 Y71.788
X33.965 Y72.084
X34 Y72.394
Y74.606
X33.829 Y75.005
X33.508 Y75.149
X33.426 Y75.185
X-51.353 Y79.65
X-103.509 Y79.092
G3 X-105 Y77.568 I0.091 J-1.58
G1 Y75.757
X-104.99 Y75.553
X-104.965 Y75.364
X-104.923 Y75.168
X-104.857 Y74.946
X-104.766 Y74.715
X-104.645 Y74.464
X-104.488 Y74.197
X-104.293 Y73.92
X-104.051 Y73.629
X-103.761 Y73.331
X-103.409 Y73.025
X-102.99 Y72.715
X-102.501 Y72.41
X-101.902 Y72.101
X-101.22 Y71.816
X-100.397 Y71.547
X-99.535 Y71.34
X-98.661 Y71.193
X-97.781 Y71.094
X-96.896 Y71.035
X-96.011 Y71.011
X-95.125 Y71.013
X-94.239 Y71.038
X-93.354 Y71.082
X-92.469 Y71.139
X-91.586 Y71.209
X-90.703 Y71.287
X-89.821 Y71.372
X-88.94 Y71.461
X-88.059 Y71.555
X-87.178 Y71.65
X-83.655 Y72.039
X-82.774 Y72.135
X-81.893 Y72.23
X-81.011 Y72.324
X-80.13 Y72.415
X-79.248 Y72.505
X-78.367 Y72.593
X-77.485 Y72.678
X-76.602 Y72.761
X-75.72 Y72.841
X-74.837 Y72.919
X-73.954 Y72.995
X-73.071 Y73.067
X-72.188 Y73.138
X-71.305 Y73.207
X-70.421 Y73.273
X-69.537 Y73.338
X-68.653 Y73.401
X-67.769 Y73.462
X-66.885 Y73.521
X-66.001 Y73.577
X-65.116 Y73.629
X-64.231 Y73.678
X-63.346 Y73.723
X-62.461 Y73.763
X-61.576 Y73.799
X-60.69 Y73.831
X-59.805 Y73.859
X-58.919 Y73.883
X-58.033 Y73.903
X-57.147 Y73.921
X-56.261 Y73.935
X-55.375 Y73.948
X-54.489 Y73.958
X-53.603 Y73.965
X-52.717 Y73.961
X-51.831 Y73.933
X-50.947 Y73.874
X-50.065 Y73.781
X-49.188 Y73.659
X-48.314 Y73.511
X-47.443 Y73.347
X-46.575 Y73.172
X-45.707 Y72.994
X-44.838 Y72.818
X-43.968 Y72.649
X-43.096 Y72.491
X-42.222 Y72.346
X-41.346 Y72.216
X-40.467 Y72.102
X-39.586 Y72.003
X-38.704 Y71.919
X-37.821 Y71.849
X-36.937 Y71.791
X-36.052 Y71.744
X-35.166 Y71.707
X-34.281 Y71.678
X-33.395 Y71.655
X-32.509 Y71.638
X-31.623 Y71.625
X-30.737 Y71.616
X-29.851 Y71.609
X-28.965 Y71.604
X-26.306 Y71.593
X-25.42 Y71.589
X-24.534 Y71.583
X-23.648 Y71.575
X-22.762 Y71.564
X-21.876 Y71.551
X-20.99 Y71.535
X-20.104 Y71.516
X-19.218 Y71.494
X-18.332 Y71.469
X-17.447 Y71.441
X-16.561 Y71.411
X-15.676 Y71.378
X-14.79 Y71.343
X-13.905 Y71.306
X-13.02 Y71.267
X-12.134 Y71.226
X-11.249 Y71.183
X-10.364 Y71.138
X-9.479 Y71.091
X-8.595 Y71.042
X-7.71 Y70.992
X-6.825 Y70.94
X-5.941 Y70.886
X-5.057 Y70.83
X-4.172 Y70.773
X-3.288 Y70.715
X-2.404 Y70.656
X-1.52 Y70.596
X-0.636 Y70.535
X0.248 Y70.472
X1.132 Y70.409
X2.016 Y70.344
X2.899 Y70.278
X3.783 Y70.211
X4.666 Y70.142
X5.55 Y70.072
X6.433 Y70.001
X7.316 Y69.929
X8.199 Y69.855
X9.082 Y69.78
X10.848 Y69.628
X12.613 Y69.471
X14.378 Y69.312
X15.261 Y69.23
X16.143 Y69.148
X17.025 Y69.064
X17.907 Y68.98
X18.789 Y68.894
X19.671 Y68.807
X21.434 Y68.63
X23.198 Y68.452
X24.08 Y68.366
X24.962 Y68.287
X25.846 Y68.217
X26.73 Y68.163
X27.615 Y68.129
X28.502 Y68.119
X29.387 Y68.141
X30.272 Y68.2
X31.151 Y68.307
X31.915 Y68.453
X32.502 Y68.616
X32.954 Y68.78
X33.184 Y68.886
X33.457 Y69.051
X33.685 Y69.274
X33.857 Y69.542
X33.964 Y69.842
X34 Y70.159
Y72.394
X33.829 Y72.793
X33.508 Y72.936
X33.426 Y72.973
X-52.964 Y77.242
X-103.509 Y77.282
G3 X-105 Y75.757 I0.091 J-1.58
G1 Y73.746
X-104.993 Y73.596
X-104.965 Y73.403
X-104.916 Y73.182
X-104.846 Y72.956
X-104.742 Y72.696
X-104.614 Y72.438
X-104.437 Y72.142
X-104.23 Y71.854
X-103.956 Y71.53
X-103.649 Y71.22
X-103.247 Y70.875
X-102.808 Y70.557
X-102.257 Y70.22
X-101.606 Y69.892
X-100.855 Y69.585
X-100.01 Y69.318
X-99.148 Y69.113
X-98.275 Y68.961
X-97.395 Y68.855
X-96.512 Y68.786
X-95.626 Y68.75
X-94.74 Y68.74
X-93.854 Y68.753
X-92.968 Y68.785
X-92.084 Y68.831
X-91.199 Y68.89
X-90.316 Y68.959
X-89.433 Y69.036
X-88.551 Y69.118
X-87.669 Y69.205
X-86.788 Y69.296
X-85.906 Y69.388
X-82.382 Y69.763
X-81.5 Y69.856
X-80.619 Y69.948
X-79.738 Y70.038
X-78.856 Y70.126
X-77.974 Y70.212
X-77.092 Y70.296
X-76.209 Y70.378
X-75.327 Y70.458
X-74.444 Y70.535
X-73.561 Y70.61
X-72.678 Y70.682
X-71.795 Y70.753
X-70.911 Y70.821
X-70.028 Y70.888
X-69.144 Y70.952
X-68.26 Y71.014
X-67.376 Y71.074
X-66.491 Y71.131
X-65.607 Y71.185
X-64.722 Y71.235
X-63.837 Y71.281
X-62.952 Y71.324
X-62.067 Y71.362
X-61.182 Y71.396
X-60.296 Y71.427
X-59.41 Y71.454
X-58.524 Y71.477
X-57.639 Y71.498
X-56.753 Y71.515
X-55.867 Y71.529
X-54.98 Y71.539
X-54.094
X-53.208 Y71.521
X-52.323 Y71.48
X-51.44 Y71.413
X-50.558 Y71.32
X-49.68 Y71.205
X-48.804 Y71.072
X-47.93 Y70.925
X-47.057 Y70.77
X-45.313 Y70.455
X-44.441 Y70.302
X-43.566 Y70.157
X-42.691 Y70.022
X-41.813 Y69.898
X-40.934 Y69.786
X-40.054 Y69.686
X-39.172 Y69.599
X-38.289 Y69.524
X-37.405 Y69.461
X-36.521 Y69.407
X-35.636 Y69.362
X-34.75 Y69.326
X-33.865 Y69.296
X-32.979 Y69.272
X-32.093 Y69.254
X-31.207 Y69.239
X-30.321 Y69.227
X-29.435 Y69.218
X-27.663 Y69.204
X-25.89 Y69.192
X-25.004 Y69.184
X-24.118 Y69.175
X-23.232 Y69.164
X-22.346 Y69.15
X-21.46 Y69.134
X-20.574 Y69.116
X-19.688 Y69.095
X-18.803 Y69.071
X-17.917 Y69.045
X-17.031 Y69.016
X-16.146 Y68.984
X-15.26 Y68.951
X-14.375 Y68.915
X-13.489 Y68.877
X-12.604 Y68.837
X-11.719 Y68.795
X-10.834 Y68.751
X-9.949 Y68.705
X-9.064 Y68.657
X-8.18 Y68.608
X-7.295 Y68.556
X-6.41 Y68.503
X-5.526 Y68.449
X-4.642 Y68.393
X-3.757 Y68.336
X-2.873 Y68.277
X-1.989 Y68.218
X-1.105 Y68.157
X-0.221 Y68.095
X0.663 Y68.032
X1.547 Y67.967
X2.43 Y67.902
X3.314 Y67.835
X4.197 Y67.766
X5.081 Y67.697
X5.964 Y67.626
X6.847 Y67.554
X7.73 Y67.481
X8.613 Y67.407
X9.496 Y67.332
X11.262 Y67.178
X13.027 Y67.021
X13.91 Y66.941
X14.792 Y66.86
X15.674 Y66.777
X16.557 Y66.694
X17.439 Y66.61
X18.321 Y66.524
X20.084 Y66.35
X21.848 Y66.175
X22.73 Y66.09
X23.612 Y66.01
X24.496 Y65.938
X25.38 Y65.876
X26.265 Y65.829
X27.15 Y65.801
X28.036 Y65.795
X28.922 Y65.816
X29.807 Y65.869
X30.688 Y65.963
X31.562 Y66.109
X32.244 Y66.274
X32.737 Y66.437
X33.182 Y66.625
X33.246 Y66.658
X33.5 Y66.828
X33.711 Y67.048
X33.869 Y67.309
X33.967 Y67.597
X34 Y67.901
Y70.159
X33.829 Y70.557
X33.508 Y70.701
X33.426 Y70.737
X-103.308 Y75.269
G3 X-105 Y73.746 I-0.111 J-1.579
G1 Y71.735
X-104.993 Y71.585
X-104.965 Y71.386
X-104.917 Y71.162
X-104.843 Y70.921
X-104.742 Y70.664
X-104.602 Y70.378
X-104.43 Y70.09
X-104.201 Y69.767
X-103.937 Y69.451
X-103.593 Y69.102
X-103.204 Y68.766
X-102.72 Y68.411
X-102.141 Y68.054
X-101.48 Y67.717
X-100.674 Y67.385
X-99.831 Y67.113
X-98.971 Y66.9
X-98.1 Y66.738
X-97.222 Y66.618
X-96.339 Y66.535
X-95.455 Y66.484
X-94.569 Y66.46
X-93.683 Y66.458
X-92.797 Y66.476
X-91.911 Y66.51
X-91.026 Y66.558
X-90.142 Y66.616
X-89.259 Y66.683
X-88.376 Y66.758
X-87.493 Y66.838
X-86.611 Y66.922
X-85.729 Y67.009
X-84.848 Y67.098
X-81.322 Y67.462
X-80.44 Y67.551
X-79.559 Y67.64
X-78.677 Y67.727
X-77.795 Y67.812
X-76.913 Y67.896
X-76.03 Y67.977
X-75.148 Y68.056
X-74.265 Y68.133
X-73.382 Y68.208
X-72.499 Y68.28
X-71.615 Y68.351
X-70.732 Y68.42
X-69.848 Y68.486
X-68.964 Y68.55
X-68.08 Y68.612
X-67.196 Y68.67
X-66.312 Y68.726
X-65.427 Y68.779
X-64.543 Y68.828
X-63.658 Y68.873
X-62.772 Y68.915
X-61.887 Y68.952
X-61.002 Y68.986
X-60.116 Y69.017
X-59.23 Y69.044
X-58.345 Y69.067
X-57.459 Y69.087
X-56.573 Y69.103
X-55.687 Y69.111
X-54.801 Y69.107
X-53.915 Y69.086
X-53.029 Y69.045
X-52.146 Y68.982
X-51.263 Y68.899
X-50.383 Y68.797
X-49.505 Y68.679
X-48.628 Y68.549
X-47.753 Y68.411
X-46.004 Y68.125
X-45.129 Y67.984
X-44.254 Y67.847
X-43.377 Y67.718
X-42.499 Y67.597
X-41.62 Y67.486
X-40.74 Y67.385
X-39.858 Y67.294
X-38.976 Y67.214
X-38.092 Y67.143
X-37.208 Y67.082
X-36.324 Y67.03
X-35.439 Y66.985
X-34.554 Y66.948
X-33.668 Y66.917
X-32.782 Y66.891
X-31.896 Y66.871
X-31.01 Y66.854
X-30.124 Y66.84
X-29.238 Y66.828
X-27.466 Y66.809
X-25.694 Y66.79
X-24.808 Y66.78
X-23.922 Y66.768
X-23.036 Y66.755
X-22.15 Y66.74
X-21.264 Y66.722
X-20.378 Y66.702
X-19.492 Y66.68
X-18.606 Y66.655
X-17.721 Y66.628
X-16.835 Y66.598
X-15.95 Y66.566
X-15.064 Y66.532
X-14.179 Y66.496
X-13.293 Y66.458
X-12.408 Y66.417
X-11.523 Y66.375
X-10.638 Y66.33
X-9.753 Y66.284
X-8.868 Y66.235
X-7.984 Y66.185
X-7.099 Y66.134
X-6.215 Y66.08
X-5.33 Y66.026
X-4.446 Y65.97
X-3.561 Y65.912
X-2.677 Y65.854
X-1.793 Y65.794
X-0.909 Y65.732
X-0.025 Y65.67
X0.859 Y65.606
X1.742 Y65.541
X2.626 Y65.475
X3.509 Y65.408
X4.393 Y65.339
X5.276 Y65.269
X6.16 Y65.198
X7.043 Y65.125
X7.926 Y65.052
X8.809 Y64.977
X9.692 Y64.902
X10.574 Y64.825
X11.457 Y64.748
X12.34 Y64.669
X13.222 Y64.589
X14.105 Y64.509
X14.987 Y64.427
X15.869 Y64.344
X16.752 Y64.26
X18.516 Y64.09
X20.279 Y63.917
X21.161 Y63.833
X22.044 Y63.752
X22.927 Y63.675
X23.81 Y63.607
X24.694 Y63.548
X25.579 Y63.503
X26.465 Y63.473
X27.351 Y63.463
X28.237 Y63.475
X29.122 Y63.515
X30.005 Y63.587
X30.884 Y63.701
X31.754 Y63.868
X32.392 Y64.042
X32.867 Y64.213
X33.179 Y64.355
X33.453 Y64.52
X33.683 Y64.742
X33.856 Y65.011
X33.964 Y65.312
X34 Y65.63
Y67.901
X33.813 Y68.315
X33.509 Y68.444
X33.426 Y68.479
X-103.308 Y73.258
G3 X-105 Y71.735 I-0.111 J-1.579
G1 Y69.723
X-104.99 Y69.521
X-104.963 Y69.315
X-104.915 Y69.092
X-104.839 Y68.837
X-104.739 Y68.58
X-104.594 Y68.282
X-104.421 Y67.988
X-104.186 Y67.654
X-103.918 Y67.331
X-103.561 Y66.965
X-103.166 Y66.62
X-102.661 Y66.246
X-102.072 Y65.88
X-101.379 Y65.522
X-100.561 Y65.18
X-99.72 Y64.903
X-98.862 Y64.681
X-97.993 Y64.507
X-97.117 Y64.375
X-96.236 Y64.279
X-95.352 Y64.214
X-94.467 Y64.175
X-93.581 Y64.16
X-92.695 Y64.165
X-91.809 Y64.187
X-90.923 Y64.223
X-90.038 Y64.271
X-89.154 Y64.329
X-88.271 Y64.395
X-87.387 Y64.468
X-86.505 Y64.546
X-85.622 Y64.627
X-84.74 Y64.712
X-83.858 Y64.798
X-80.331 Y65.15
X-79.45 Y65.237
X-78.568 Y65.323
X-77.685 Y65.407
X-76.803 Y65.489
X-75.921 Y65.57
X-75.038 Y65.649
X-74.155 Y65.726
X-73.272 Y65.801
X-72.389 Y65.873
X-71.506 Y65.944
X-70.622 Y66.013
X-69.739 Y66.079
X-68.855 Y66.143
X-67.971 Y66.204
X-67.087 Y66.262
X-66.202 Y66.317
X-65.318 Y66.369
X-64.433 Y66.417
X-63.548 Y66.462
X-62.663 Y66.503
X-61.777 Y66.54
X-60.892 Y66.574
X-60.006 Y66.605
X-59.121 Y66.632
X-58.235 Y66.654
X-57.349 Y66.671
X-56.463 Y66.678
X-55.577 Y66.674
X-54.691 Y66.655
X-53.805 Y66.618
X-52.921 Y66.564
X-52.038 Y66.491
X-51.156 Y66.401
X-50.276 Y66.297
X-49.398 Y66.182
X-48.52 Y66.058
X-47.644 Y65.929
X-45.891 Y65.667
X-45.014 Y65.539
X-44.137 Y65.415
X-43.258 Y65.297
X-42.379 Y65.187
X-41.499 Y65.085
X-40.618 Y64.991
X-39.736 Y64.906
X-38.853 Y64.83
X-37.969 Y64.763
X-37.085 Y64.703
X-36.201 Y64.652
X-35.316 Y64.607
X-34.43 Y64.569
X-33.545 Y64.537
X-32.659 Y64.51
X-31.773 Y64.487
X-30.887 Y64.468
X-30.001 Y64.451
X-29.115 Y64.437
X-27.343 Y64.413
X-25.571 Y64.389
X-24.685 Y64.377
X-23.799 Y64.363
X-22.913 Y64.348
X-22.027 Y64.331
X-21.141 Y64.312
X-20.255 Y64.29
X-19.369 Y64.267
X-18.484 Y64.241
X-17.598 Y64.214
X-16.712 Y64.183
X-15.827 Y64.151
X-14.941 Y64.117
X-14.056 Y64.08
X-13.171 Y64.041
X-12.286 Y64
X-11.401 Y63.957
X-10.516 Y63.913
X-9.631 Y63.866
X-8.746 Y63.817
X-7.861 Y63.767
X-6.977 Y63.715
X-6.092 Y63.662
X-5.208 Y63.607
X-4.323 Y63.551
X-3.439 Y63.493
X-2.555 Y63.434
X-1.671 Y63.374
X-0.787 Y63.313
X0.097 Y63.25
X0.981 Y63.186
X1.865 Y63.12
X2.748 Y63.054
X3.632 Y62.986
X4.515 Y62.917
X5.398 Y62.846
X6.282 Y62.775
X7.165 Y62.702
X8.048 Y62.629
X8.931 Y62.554
X9.814 Y62.478
X10.697 Y62.401
X11.579 Y62.323
X12.462 Y62.244
X13.344 Y62.164
X14.227 Y62.083
X15.109 Y62.001
X16.873 Y61.834
X19.52 Y61.58
X20.402 Y61.498
X21.285 Y61.419
X22.168 Y61.346
X23.051 Y61.279
X23.935 Y61.221
X24.82 Y61.175
X25.706 Y61.143
X26.592 Y61.127
X27.478 Y61.13
X28.364 Y61.157
X29.248 Y61.21
X30.13 Y61.298
X31.007 Y61.427
X31.854 Y61.603
X32.491 Y61.79
X32.97 Y61.974
X33.204 Y62.086
X33.47 Y62.252
X33.693 Y62.474
X33.861 Y62.74
X33.965 Y63.036
X34 Y63.349
Y65.63
X33.829 Y66.028
X33.508 Y66.172
X33.426 Y66.208
X-103.308 Y71.247
G3 X-105 Y69.723 I-0.111 J-1.579
G1 Y67.601
X-104.99 Y67.409
X-104.963 Y67.197
X-104.914 Y66.971
X-104.836 Y66.709
X-104.734 Y66.447
X-104.586 Y66.143
X-104.409 Y65.841
X-104.17 Y65.501
X-103.891 Y65.165
X-103.527 Y64.792
X-103.115 Y64.433
X-102.593 Y64.046
X-101.981 Y63.666
X-101.256 Y63.292
X-100.439 Y62.95
X-99.598 Y62.669
X-98.742 Y62.442
X-97.874 Y62.26
X-97 Y62.119
X-96.12 Y62.012
X-95.237 Y61.936
X-94.352 Y61.887
X-93.467 Y61.861
X-92.581 Y61.854
X-91.695 Y61.866
X-90.809 Y61.892
X-89.924 Y61.93
X-89.039 Y61.979
X-88.155 Y62.037
X-87.271 Y62.103
X-86.388 Y62.174
X-85.505 Y62.25
X-84.622 Y62.329
X-83.74 Y62.412
X-82.858 Y62.495
X-79.33 Y62.837
X-78.448 Y62.921
X-77.565 Y63.004
X-76.683 Y63.085
X-75.8 Y63.166
X-74.918 Y63.244
X-74.035 Y63.32
X-73.152 Y63.395
X-72.269 Y63.468
X-71.386 Y63.538
X-70.502 Y63.606
X-69.618 Y63.672
X-68.735 Y63.735
X-67.851 Y63.796
X-66.966 Y63.854
X-66.082 Y63.908
X-65.197 Y63.959
X-64.312 Y64.007
X-63.427 Y64.051
X-62.542 Y64.092
X-61.657 Y64.129
X-60.771 Y64.163
X-59.886 Y64.193
X-59 Y64.217
X-58.114 Y64.235
X-57.228 Y64.244
X-56.342 Y64.242
X-55.456 Y64.225
X-54.57 Y64.194
X-53.685 Y64.147
X-52.802 Y64.083
X-51.919 Y64.005
X-51.037 Y63.913
X-50.157 Y63.811
X-49.278 Y63.7
X-48.4 Y63.583
X-47.522 Y63.462
X-45.766 Y63.219
X-44.888 Y63.101
X-44.009 Y62.987
X-43.13 Y62.879
X-42.25 Y62.777
X-41.369 Y62.682
X-40.487 Y62.594
X-39.604 Y62.515
X-38.721 Y62.442
X-37.837 Y62.378
X-36.953 Y62.32
X-36.069 Y62.27
X-35.183 Y62.226
X-34.298 Y62.187
X-33.413 Y62.154
X-32.527 Y62.126
X-31.641 Y62.101
X-30.755 Y62.08
X-29.869 Y62.062
X-28.983 Y62.045
X-27.211 Y62.016
X-25.439 Y61.988
X-24.553 Y61.973
X-23.667 Y61.958
X-22.781 Y61.941
X-21.896 Y61.922
X-21.01 Y61.901
X-20.124 Y61.879
X-19.238 Y61.855
X-18.352 Y61.828
X-17.467 Y61.8
X-16.581 Y61.769
X-15.696 Y61.736
X-14.81 Y61.701
X-13.925 Y61.664
X-13.04 Y61.624
X-12.154 Y61.583
X-11.269 Y61.54
X-10.384 Y61.495
X-9.499 Y61.448
X-8.615 Y61.399
X-7.73 Y61.349
X-6.845 Y61.297
X-5.961 Y61.243
X-5.076 Y61.188
X-4.192 Y61.132
X-3.308 Y61.074
X-2.424 Y61.015
X-1.54 Y60.954
X-0.656 Y60.892
X0.228 Y60.829
X1.112 Y60.764
X1.996 Y60.699
X2.879 Y60.632
X3.763 Y60.563
X4.646 Y60.494
X5.529 Y60.423
X6.413 Y60.352
X7.296 Y60.279
X8.179 Y60.205
X9.062 Y60.13
X9.944 Y60.053
X10.827 Y59.976
X11.71 Y59.898
X12.592 Y59.818
X13.475 Y59.738
X15.24 Y59.574
X17.886 Y59.324
X18.768 Y59.242
X19.651 Y59.162
X20.534 Y59.085
X21.417 Y59.013
X22.301 Y58.948
X23.185 Y58.891
X24.07 Y58.844
X24.955 Y58.809
X25.841 Y58.788
X26.727 Y58.785
X27.613 Y58.801
X28.498 Y58.84
X29.382 Y58.907
X30.262 Y59.008
X31.137 Y59.151
X31.958 Y59.335
X32.571 Y59.526
X33.043 Y59.715
X33.224 Y59.805
X33.484 Y59.973
X33.701 Y60.194
X33.865 Y60.458
X33.966 Y60.751
X34 Y61.059
Y63.349
X33.829 Y63.747
X33.508 Y63.891
X33.426 Y63.927
X-103.308 Y69.125
G3 X-105 Y67.601 I-0.111 J-1.579
G1 Y65.499
X-104.988 Y65.264
X-104.96 Y65.045
X-104.911 Y64.819
X-104.831 Y64.553
X-104.727 Y64.285
X-104.579 Y63.98
X-104.395 Y63.667
X-104.156 Y63.327
X-103.863 Y62.974
X-103.499 Y62.601
X-103.07 Y62.227
X-102.532 Y61.828
X-101.904 Y61.438
X-101.151 Y61.049
X-100.333 Y60.707
X-99.493 Y60.424
X-98.638 Y60.192
X-97.772 Y60.004
X-96.899 Y59.854
X-96.02 Y59.739
X-95.138 Y59.654
X-94.254 Y59.594
X-93.369 Y59.558
X-92.483 Y59.542
X-91.597 Y59.543
X-90.711 Y59.56
X-89.825 Y59.59
X-88.94 Y59.631
X-88.055 Y59.681
X-87.171 Y59.739
X-86.287 Y59.804
X-85.404 Y59.874
X-84.521 Y59.949
X-83.638 Y60.026
X-82.756 Y60.106
X-80.991 Y60.271
X-78.344 Y60.519
X-77.462 Y60.601
X-76.58 Y60.681
X-75.697 Y60.761
X-74.814 Y60.838
X-73.931 Y60.914
X-73.048 Y60.989
X-72.165 Y61.061
X-71.282 Y61.131
X-70.398 Y61.199
X-69.515 Y61.264
X-68.631 Y61.327
X-67.747 Y61.387
X-66.862 Y61.444
X-65.978 Y61.498
X-65.093 Y61.549
X-64.208 Y61.596
X-63.323 Y61.64
X-62.438 Y61.681
X-61.553 Y61.717
X-60.667 Y61.75
X-59.782 Y61.776
X-58.896 Y61.796
X-58.01 Y61.808
X-57.123
X-56.237 Y61.797
X-55.352 Y61.771
X-54.466 Y61.731
X-53.582 Y61.677
X-52.698 Y61.609
X-51.816 Y61.529
X-50.935 Y61.438
X-50.054 Y61.338
X-49.174 Y61.232
X-48.295 Y61.121
X-46.538 Y60.894
X-45.659 Y60.782
X-44.779 Y60.672
X-43.899 Y60.566
X-43.019 Y60.465
X-42.138 Y60.37
X-41.256 Y60.281
X-40.374 Y60.198
X-39.491 Y60.123
X-38.608 Y60.054
X-37.724 Y59.991
X-36.84 Y59.936
X-35.955 Y59.886
X-35.07 Y59.842
X-34.185 Y59.803
X-33.299 Y59.769
X-32.413 Y59.74
X-31.528 Y59.714
X-30.642 Y59.691
X-29.756 Y59.671
X-28.87 Y59.652
X-27.098 Y59.619
X-24.44 Y59.57
X-23.554 Y59.553
X-22.668 Y59.534
X-21.782 Y59.514
X-20.897 Y59.492
X-20.011 Y59.469
X-19.125 Y59.443
X-18.239 Y59.416
X-17.354 Y59.386
X-16.468 Y59.355
X-15.583 Y59.321
X-14.697 Y59.286
X-13.812 Y59.248
X-12.927 Y59.209
X-12.042 Y59.167
X-11.156 Y59.123
X-10.272 Y59.078
X-9.387 Y59.031
X-8.502 Y58.982
X-7.617 Y58.931
X-6.733 Y58.879
X-5.848 Y58.825
X-4.964 Y58.77
X-4.079 Y58.713
X-3.195 Y58.655
X-2.311 Y58.596
X-1.427 Y58.535
X-0.543 Y58.473
X0.341 Y58.409
X1.224 Y58.344
X2.108 Y58.278
X2.992 Y58.211
X3.875 Y58.142
X4.759 Y58.073
X5.642 Y58.002
X6.525 Y57.93
X7.408 Y57.856
X8.291 Y57.782
X9.174 Y57.707
X10.057 Y57.63
X10.94 Y57.552
X11.822 Y57.474
X13.587 Y57.313
X17.116 Y56.986
X17.999 Y56.906
X18.882 Y56.827
X19.765 Y56.752
X20.648 Y56.681
X21.532 Y56.616
X22.416 Y56.559
X23.301 Y56.511
X24.186 Y56.473
X25.072 Y56.448
X25.958 Y56.438
X26.844 Y56.445
X27.73 Y56.472
X28.614 Y56.523
X29.497 Y56.601
X30.376 Y56.714
X31.248 Y56.868
X32.046 Y57.059
X32.639 Y57.252
X33.105 Y57.446
X33.241 Y57.516
X33.496 Y57.685
X33.708 Y57.905
X33.868 Y58.167
X33.967 Y58.456
X34 Y58.761
Y61.059
X33.809 Y61.477
X33.509 Y61.603
X33.426 Y61.637
X-103.308 Y67.023
G3 X-105 Y65.499 I-0.111 J-1.579
G1 Y63.287
X-104.991 Y63.099
X-104.961 Y62.875
X-104.912 Y62.647
X-104.832 Y62.38
X-104.725 Y62.104
X-104.577 Y61.799
X-104.386 Y61.474
X-104.147 Y61.134
X-103.842 Y60.767
X-103.478 Y60.394
X-103.034 Y60.006
X-102.482 Y59.598
X-101.841 Y59.199
X-101.061 Y58.797
X-100.243 Y58.455
X-99.404 Y58.169
X-98.55 Y57.933
X-97.686 Y57.739
X-96.813 Y57.583
X-95.936 Y57.46
X-95.055 Y57.366
X-94.171 Y57.298
X-93.286 Y57.253
X-92.4 Y57.228
X-91.514 Y57.22
X-90.628 Y57.228
X-89.742 Y57.25
X-88.857 Y57.283
X-87.972 Y57.326
X-87.087 Y57.377
X-86.203 Y57.436
X-85.319 Y57.5
X-84.436 Y57.57
X-83.553 Y57.643
X-82.67 Y57.719
X-81.787 Y57.797
X-80.022 Y57.957
X-77.375 Y58.198
X-76.492 Y58.277
X-75.61 Y58.356
X-74.727 Y58.432
X-73.844 Y58.508
X-72.961 Y58.581
X-72.078 Y58.653
X-71.194 Y58.723
X-70.311 Y58.79
X-69.427 Y58.855
X-68.543 Y58.918
X-67.659 Y58.977
X-66.775 Y59.034
X-65.89 Y59.087
X-65.005 Y59.138
X-64.12 Y59.185
X-63.235 Y59.228
X-62.35 Y59.268
X-61.465 Y59.303
X-60.579 Y59.332
X-59.693 Y59.355
X-58.807 Y59.37
X-57.921 Y59.374
X-57.035 Y59.367
X-56.149 Y59.348
X-55.264 Y59.316
X-54.379 Y59.27
X-53.494 Y59.212
X-52.611 Y59.142
X-51.729 Y59.062
X-50.847 Y58.973
X-49.966 Y58.876
X-49.086 Y58.775
X-48.206 Y58.67
X-46.447 Y58.457
X-45.567 Y58.352
X-44.687 Y58.249
X-43.806 Y58.15
X-42.925 Y58.055
X-42.043 Y57.965
X-41.161 Y57.881
X-40.279 Y57.803
X-39.395 Y57.73
X-38.512 Y57.664
X-37.628 Y57.604
X-36.743 Y57.549
X-35.859 Y57.5
X-34.974 Y57.457
X-34.088 Y57.418
X-33.203 Y57.383
X-32.317 Y57.353
X-31.431 Y57.325
X-30.546 Y57.301
X-29.66 Y57.279
X-28.774 Y57.259
X-27.002 Y57.222
X-24.344 Y57.167
X-23.458 Y57.148
X-22.572 Y57.128
X-21.687 Y57.107
X-20.801 Y57.084
X-19.915 Y57.059
X-19.029 Y57.033
X-18.144 Y57.004
X-17.258 Y56.974
X-16.372 Y56.942
X-15.487 Y56.908
X-14.602 Y56.872
X-13.716 Y56.834
X-12.831 Y56.794
X-11.946 Y56.752
X-11.061 Y56.708
X-10.176 Y56.662
X-9.291 Y56.615
X-8.406 Y56.566
X-7.522 Y56.515
X-6.637 Y56.462
X-5.753 Y56.408
X-4.868 Y56.353
X-3.984 Y56.296
X-3.1 Y56.238
X-2.216 Y56.178
X-1.332 Y56.117
X-0.448 Y56.054
X0.436 Y55.991
X1.32 Y55.925
X2.203 Y55.859
X3.087 Y55.791
X3.97 Y55.723
X4.854 Y55.653
X5.737 Y55.581
X6.62 Y55.509
X7.503 Y55.435
X8.386 Y55.361
X9.269 Y55.285
X10.152 Y55.208
X11.917 Y55.051
X13.682 Y54.891
X16.33 Y54.649
X17.212 Y54.57
X18.095 Y54.493
X18.978 Y54.419
X19.861 Y54.349
X20.745 Y54.284
X21.629 Y54.226
X22.514 Y54.177
X23.399 Y54.136
X24.285 Y54.108
X25.171 Y54.092
X26.057 Y54.091
X26.943 Y54.107
X27.828 Y54.144
X28.712 Y54.204
X29.594 Y54.293
X30.472 Y54.415
X31.343 Y54.578
X32.121 Y54.774
X32.696 Y54.968
X33.157 Y55.166
X33.255 Y55.219
X33.506 Y55.388
X33.714 Y55.608
X33.87 Y55.868
X33.967 Y56.155
X34 Y56.456
Y58.761
X33.829 Y59.159
X33.508 Y59.303
X33.426 Y59.339
X-103.308 Y64.81
G3 X-105 Y63.287 I-0.111 J-1.579
G1 Y61.074
X-104.992 Y60.911
X-104.962 Y60.685
X-104.913 Y60.454
X-104.833 Y60.186
X-104.722 Y59.902
X-104.574 Y59.598
X-104.378 Y59.264
X-104.138 Y58.923
X-103.824 Y58.544
X-103.46 Y58.171
X-103.004 Y57.773
X-102.441 Y57.357
X-101.787 Y56.95
X-101 Y56.544
X-100.183 Y56.201
X-99.345 Y55.912
X-98.492 Y55.671
X-97.629 Y55.472
X-96.758 Y55.309
X-95.881 Y55.178
X-95.001 Y55.076
X-94.118 Y55
X-93.234 Y54.946
X-92.348 Y54.913
X-91.462 Y54.897
X-90.576 Y54.896
X-89.69 Y54.91
X-88.804 Y54.935
X-87.919 Y54.971
X-87.034 Y55.016
X-86.149 Y55.068
X-85.265 Y55.127
X-84.381 Y55.191
X-83.498 Y55.259
X-82.615 Y55.331
X-81.732 Y55.405
X-80.849 Y55.481
X-79.083 Y55.637
X-76.435 Y55.872
X-75.553 Y55.949
X-74.67 Y56.025
X-73.787 Y56.1
X-72.904 Y56.173
X-72.02 Y56.244
X-71.137 Y56.313
X-70.253 Y56.38
X-69.37 Y56.444
X-68.486 Y56.506
X-67.602 Y56.565
X-66.717 Y56.622
X-65.833 Y56.675
X-64.948 Y56.725
X-64.063 Y56.772
X-63.178 Y56.814
X-62.293 Y56.852
X-61.407 Y56.885
X-60.521 Y56.911
X-59.635 Y56.929
X-58.749 Y56.938
X-57.863 Y56.937
X-56.977 Y56.924
X-56.091 Y56.9
X-55.206 Y56.863
X-54.321 Y56.814
X-53.437 Y56.754
X-52.554 Y56.684
X-51.671 Y56.605
X-50.789 Y56.518
X-49.908 Y56.426
X-49.027 Y56.329
X-48.147 Y56.229
X-46.386 Y56.028
X-45.505 Y55.929
X-44.625 Y55.832
X-43.743 Y55.739
X-42.862 Y55.649
X-41.98 Y55.564
X-41.097 Y55.484
X-40.214 Y55.409
X-39.331 Y55.339
X-38.447 Y55.275
X-37.563 Y55.216
X-36.679 Y55.163
X-35.794 Y55.115
X-34.909 Y55.071
X-34.023 Y55.032
X-33.138 Y54.997
X-32.252 Y54.965
X-31.367 Y54.937
X-30.481 Y54.911
X-29.595 Y54.887
X-28.709 Y54.865
X-26.938 Y54.824
X-24.28 Y54.765
X-22.508 Y54.723
X-21.622 Y54.7
X-20.737 Y54.676
X-19.851 Y54.651
X-18.965 Y54.623
X-18.079 Y54.594
X-17.194 Y54.563
X-16.308 Y54.531
X-15.423 Y54.496
X-14.538 Y54.459
X-13.652 Y54.421
X-12.767 Y54.38
X-11.882 Y54.338
X-10.997 Y54.294
X-10.112 Y54.248
X-9.227 Y54.201
X-8.342 Y54.151
X-7.458 Y54.1
X-6.573 Y54.048
X-5.689 Y53.994
X-4.804 Y53.938
X-3.92 Y53.881
X-3.036 Y53.822
X-2.152 Y53.762
X-1.268 Y53.701
X-0.384 Y53.638
X0.5 Y53.574
X1.384 Y53.509
X2.267 Y53.442
X3.151 Y53.374
X4.034 Y53.305
X4.918 Y53.235
X5.801 Y53.163
X6.684 Y53.091
X7.567 Y53.017
X8.45 Y52.942
X9.333 Y52.866
X11.098 Y52.711
X12.863 Y52.553
X15.511 Y52.314
X16.394 Y52.236
X17.277 Y52.16
X18.16 Y52.087
X19.043 Y52.017
X19.927 Y51.953
X20.811 Y51.894
X21.696 Y51.843
X22.581 Y51.8
X23.466 Y51.767
X24.352 Y51.746
X25.238 Y51.738
X26.124 Y51.745
X27.01 Y51.769
X27.895 Y51.813
X28.779 Y51.882
X29.659 Y51.978
X30.536 Y52.108
X31.406 Y52.279
X32.173 Y52.478
X32.737 Y52.674
X33.193 Y52.875
X33.269 Y52.916
X33.519 Y53.089
X33.727 Y53.312
X33.881 Y53.574
X33.974 Y53.864
X34.003 Y54.167
X34 Y54.437
Y56.456
X33.829 Y56.855
X33.508 Y56.998
X33.426 Y57.034
X-103.308 Y62.598
G3 X-105 Y61.074 I-0.111 J-1.579
G1 Y58.862
X-104.992 Y58.705
X-104.962 Y58.477
X-104.912 Y58.243
X-104.832 Y57.975
X-104.719 Y57.685
X-104.571 Y57.38
X-104.37 Y57.039
X-104.131 Y56.698
X-103.81 Y56.311
X-103.444 Y55.936
X-102.978 Y55.53
X-102.407 Y55.108
X-101.738 Y54.691
X-100.951 Y54.285
X-100.134 Y53.94
X-99.298 Y53.648
X-98.446 Y53.403
X-97.584 Y53.198
X-96.714 Y53.029
X-95.839 Y52.892
X-94.959 Y52.783
X-94.077 Y52.699
X-93.193 Y52.638
X-92.308 Y52.596
X-91.422 Y52.572
X-90.536 Y52.564
X-89.65 Y52.57
X-88.764 Y52.588
X-87.879 Y52.617
X-86.993 Y52.655
X-86.108 Y52.701
X-85.224 Y52.754
X-84.34 Y52.813
X-83.456 Y52.877
X-82.572 Y52.944
X-81.689 Y53.015
X-80.806 Y53.088
X-79.923 Y53.162
X-75.509 Y53.543
X-74.626 Y53.618
X-73.743 Y53.691
X-72.859 Y53.763
X-71.976 Y53.834
X-71.093 Y53.902
X-70.209 Y53.969
X-69.325 Y54.033
X-68.441 Y54.094
X-67.557 Y54.153
X-66.673 Y54.209
X-65.788 Y54.262
X-64.903 Y54.311
X-64.018 Y54.357
X-63.133 Y54.398
X-62.248 Y54.434
X-61.362 Y54.463
X-60.476 Y54.486
X-59.59 Y54.5
X-58.704 Y54.504
X-57.818 Y54.498
X-56.932 Y54.481
X-56.046 Y54.452
X-55.161 Y54.412
X-54.277 Y54.362
X-53.393 Y54.301
X-52.509 Y54.231
X-51.626 Y54.154
X-50.744 Y54.07
X-49.863 Y53.982
X-48.981 Y53.89
X-47.219 Y53.7
X-46.338 Y53.605
X-45.457 Y53.511
X-44.576 Y53.419
X-43.694 Y53.33
X-42.812 Y53.245
X-41.93 Y53.164
X-41.047 Y53.087
X-40.164 Y53.015
X-39.28 Y52.948
X-38.396 Y52.885
X-37.512 Y52.828
X-36.627 Y52.776
X-35.743 Y52.728
X-34.857 Y52.684
X-33.972 Y52.645
X-33.087 Y52.609
X-32.201 Y52.576
X-31.316 Y52.547
X-30.43 Y52.52
X-29.544 Y52.494
X-28.658 Y52.471
X-26.887 Y52.427
X-24.229 Y52.363
X-22.457 Y52.319
X-21.572 Y52.295
X-20.686 Y52.269
X-19.8 Y52.243
X-18.914 Y52.215
X-18.029 Y52.185
X-17.143 Y52.153
X-16.258 Y52.12
X-15.372 Y52.085
X-14.487 Y52.048
X-13.602 Y52.009
X-12.717 Y51.968
X-11.831 Y51.926
X-10.946 Y51.881
X-10.061 Y51.835
X-9.177 Y51.787
X-8.292 Y51.738
X-7.407 Y51.686
X-6.523 Y51.634
X-5.638 Y51.579
X-4.754 Y51.524
X-3.87 Y51.466
X-2.985 Y51.407
X-2.101 Y51.347
X-1.217 Y51.286
X-0.334 Y51.223
X0.55 Y51.158
X1.434 Y51.093
X2.318 Y51.026
X3.201 Y50.958
X4.084 Y50.889
X4.968 Y50.818
X5.851 Y50.746
X6.734 Y50.674
X7.617 Y50.6
X8.5 Y50.524
X10.266 Y50.371
X12.914 Y50.136
X14.679 Y49.98
X15.562 Y49.903
X16.445 Y49.828
X17.328 Y49.755
X18.211 Y49.686
X19.095 Y49.621
X19.979 Y49.562
X20.864 Y49.509
X21.749 Y49.463
X22.634 Y49.427
X23.52 Y49.401
X24.406 Y49.386
X25.292 Y49.385
X26.178 Y49.399
X27.063 Y49.43
X27.948 Y49.481
X28.831 Y49.557
X29.711 Y49.66
X30.587 Y49.796
X31.455 Y49.972
X32.215 Y50.175
X32.773 Y50.373
X33.225 Y50.576
X33.585 Y50.774
X33.812 Y50.923
X34.032 Y51.103
X34.212 Y51.323
X34.343 Y51.575
X34.42 Y51.849
X34.441 Y52.133
X34.404 Y52.415
X34.311 Y52.683
X34.031 Y52.954
X33.636 Y52.976
X-103.308 Y60.385
G3 X-105 Y58.862 I-0.111 J-1.579
G1 Y57.856
X-105.004 Y57.655
X-105.021 Y57.253
X-105.041 Y57.052
X-105.057 Y56.899
X-105.061 Y56.709
X-105.049 Y56.513
X-105.017 Y56.279
X-104.962 Y56.033
X-104.878 Y55.761
X-104.756 Y55.457
X-104.602 Y55.147
X-104.389 Y54.793
X-104.141 Y54.445
X-103.805 Y54.048
X-103.423 Y53.663
X-102.937 Y53.247
X-102.341 Y52.814
X-101.632 Y52.381
X-100.841 Y51.982
X-100.023 Y51.641
X-99.186 Y51.352
X-98.334 Y51.107
X-97.472 Y50.902
X-96.603 Y50.731
X-95.728 Y50.59
X-94.849 Y50.477
X-93.967 Y50.389
X-93.083 Y50.322
X-92.199 Y50.275
X-91.313 Y50.245
X-90.427 Y50.231
X-89.541
X-88.655 Y50.243
X-87.769 Y50.266
X-86.883 Y50.299
X-85.998 Y50.34
X-85.113 Y50.388
X-84.229 Y50.442
X-83.345 Y50.502
X-82.461 Y50.565
X-81.577 Y50.632
X-80.694 Y50.702
X-79.811 Y50.773
X-78.045 Y50.92
X-75.396 Y51.144
X-74.513 Y51.217
X-73.629 Y51.289
X-72.746 Y51.36
X-71.863 Y51.43
X-70.979 Y51.498
X-70.095 Y51.563
X-69.212 Y51.626
X-68.328 Y51.687
X-67.443 Y51.745
X-66.559 Y51.801
X-65.674 Y51.852
X-64.79 Y51.901
X-63.905 Y51.944
X-63.019 Y51.983
X-62.134 Y52.016
X-61.248 Y52.041
X-60.362 Y52.059
X-59.476 Y52.068
X-58.59
X-57.704 Y52.057
X-56.818 Y52.035
X-55.932 Y52.003
X-55.047 Y51.961
X-54.163 Y51.908
X-53.279 Y51.847
X-52.395 Y51.778
X-51.512 Y51.703
X-50.63 Y51.621
X-49.748 Y51.536
X-48.866 Y51.448
X-46.222 Y51.176
X-45.34 Y51.087
X-44.458 Y51
X-43.576 Y50.916
X-42.694 Y50.834
X-41.811 Y50.757
X-40.928 Y50.684
X-40.045 Y50.615
X-39.161 Y50.55
X-38.277 Y50.49
X-37.392 Y50.434
X-36.508 Y50.383
X-35.623 Y50.336
X-34.738 Y50.292
X-33.853 Y50.253
X-32.967 Y50.217
X-32.082 Y50.184
X-31.196 Y50.153
X-30.31 Y50.125
X-29.425 Y50.099
X-28.539 Y50.074
X-26.767 Y50.028
X-24.11 Y49.96
X-22.338 Y49.912
X-21.452 Y49.887
X-20.567 Y49.861
X-19.681 Y49.833
X-18.795 Y49.804
X-17.91 Y49.773
X-17.024 Y49.741
X-16.139 Y49.707
X-15.253 Y49.671
X-14.368 Y49.633
X-13.483 Y49.594
X-12.598 Y49.553
X-11.712 Y49.51
X-10.827 Y49.465
X-9.943 Y49.418
X-9.058 Y49.37
X-8.173 Y49.32
X-7.288 Y49.269
X-6.404 Y49.216
X-5.519 Y49.161
X-4.635 Y49.105
X-3.751 Y49.047
X-2.867 Y48.988
X-1.983 Y48.928
X-1.099 Y48.866
X-0.215 Y48.802
X0.669 Y48.738
X1.553 Y48.672
X2.436 Y48.605
X3.32 Y48.536
X4.203 Y48.467
X5.086 Y48.396
X5.969 Y48.324
X6.853 Y48.251
X7.736 Y48.176
X9.501 Y48.025
X13.915 Y47.639
X14.798 Y47.563
X15.681 Y47.488
X16.564 Y47.417
X17.448 Y47.348
X18.331 Y47.283
X19.215 Y47.223
X20.1 Y47.169
X20.985 Y47.123
X21.87 Y47.084
X22.756 Y47.054
X23.642 Y47.035
X24.528 Y47.028
X25.414 Y47.034
X26.3 Y47.056
X27.185 Y47.095
X28.069 Y47.154
X28.951 Y47.237
X29.83 Y47.348
X30.705 Y47.492
X31.571 Y47.678
X32.422 Y47.915
X33.099 Y48.165
X33.589 Y48.392
X34.011 Y48.63
X34.352 Y48.86
X34.653 Y49.1
X34.913 Y49.345
X35.139 Y49.595
X35.336 Y49.85
X35.348 Y49.87
X35.481 Y50.132
X35.557 Y50.416
X35.571 Y50.709
X35.524 Y50.999
X35.418 Y51.273
X35.256 Y51.519
X35.047 Y51.725
X34.635 Y51.846
X34.28 Y51.863
X-103.509 Y58.292
G3 X-105.041 Y57.052 I0.013 J-1.583
G1 X-105.078 Y56.851
X-105.133 Y56.649
X-105.204 Y56.448
X-105.289 Y56.247
X-105.39 Y56.046
X-105.457 Y55.912
X-105.508 Y55.771
X-105.549 Y55.621
X-105.583 Y55.44
X-105.604 Y55.251
X-105.609 Y55.023
X-105.597 Y54.788
X-105.559 Y54.515
X-105.498 Y54.235
X-105.401 Y53.915
X-105.272 Y53.588
X-105.09 Y53.219
X-104.87 Y52.848
X-104.572 Y52.429
X-104.233 Y52.023
X-103.789 Y51.573
X-103.273 Y51.127
X-102.653 Y50.672
X-101.898 Y50.208
X-101.109 Y49.805
X-100.295 Y49.456
X-99.461 Y49.156
X-98.613 Y48.898
X-97.754 Y48.679
X-96.888 Y48.494
X-96.015 Y48.339
X-95.138 Y48.212
X-94.258 Y48.109
X-93.376 Y48.029
X-92.492 Y47.969
X-91.607 Y47.927
X-90.721 Y47.902
X-89.835 Y47.891
X-88.949 Y47.892
X-88.063 Y47.906
X-87.177 Y47.929
X-86.291 Y47.962
X-85.406 Y48.002
X-84.521 Y48.049
X-83.637 Y48.102
X-82.752 Y48.16
X-81.868 Y48.221
X-80.985 Y48.287
X-80.101 Y48.354
X-79.218 Y48.424
X-77.451 Y48.567
X-74.802 Y48.785
X-73.919 Y48.856
X-73.035 Y48.927
X-72.152 Y48.996
X-71.268 Y49.063
X-70.385 Y49.129
X-69.501 Y49.192
X-68.617 Y49.254
X-67.733 Y49.312
X-66.848 Y49.368
X-65.964 Y49.42
X-65.079 Y49.468
X-64.194 Y49.512
X-63.309 Y49.551
X-62.423 Y49.583
X-61.537 Y49.609
X-60.651 Y49.626
X-59.765 Y49.635
X-58.879
X-57.993 Y49.624
X-57.107 Y49.604
X-56.222 Y49.573
X-55.336 Y49.533
X-54.452 Y49.484
X-53.567 Y49.426
X-52.684 Y49.361
X-51.8 Y49.29
X-50.918 Y49.213
X-50.035 Y49.133
X-49.153 Y49.049
X-47.389 Y48.877
X-45.625 Y48.704
X-44.743 Y48.62
X-43.861 Y48.539
X-42.978 Y48.46
X-42.095 Y48.384
X-41.212 Y48.312
X-40.329 Y48.243
X-39.445 Y48.179
X-38.561 Y48.119
X-37.676 Y48.063
X-36.792 Y48.011
X-35.907 Y47.963
X-35.022 Y47.918
X-34.137 Y47.877
X-33.251 Y47.84
X-32.366 Y47.805
X-31.48 Y47.773
X-30.595 Y47.743
X-29.709 Y47.715
X-28.823 Y47.688
X-27.052 Y47.638
X-23.509 Y47.543
X-21.737 Y47.492
X-20.851 Y47.465
X-19.966 Y47.437
X-19.08 Y47.407
X-18.195 Y47.377
X-17.309 Y47.344
X-16.424 Y47.31
X-15.538 Y47.274
X-14.653 Y47.237
X-13.768 Y47.198
X-12.882 Y47.157
X-11.997 Y47.114
X-11.112 Y47.069
X-10.227 Y47.023
X-9.343 Y46.975
X-8.458 Y46.926
X-7.573 Y46.875
X-6.689 Y46.822
X-5.804 Y46.768
X-4.92 Y46.712
X-4.036 Y46.655
X-3.151 Y46.596
X-2.267 Y46.536
X-1.383 Y46.474
X-0.499 Y46.411
X0.384 Y46.347
X1.268 Y46.281
X2.152 Y46.214
X3.035 Y46.146
X3.919 Y46.077
X4.802 Y46.006
X5.685 Y45.934
X6.568 Y45.862
X8.334 Y45.713
X10.1 Y45.561
X12.748 Y45.331
X13.631 Y45.256
X14.514 Y45.182
X15.397 Y45.109
X16.281 Y45.039
X17.164 Y44.973
X18.048 Y44.911
X18.933 Y44.853
X19.817 Y44.802
X20.702 Y44.757
X21.588 Y44.72
X22.473 Y44.692
X23.359 Y44.674
X24.245 Y44.669
X25.131 Y44.676
X26.017 Y44.698
X26.902 Y44.736
X27.787 Y44.794
X28.669 Y44.874
X29.549 Y44.98
X30.425 Y45.115
X31.295 Y45.284
X32.154 Y45.498
X32.999 Y45.768
X33.749 Y46.073
X34.379 Y46.389
X34.94 Y46.73
X35.402 Y47.065
X35.778 Y47.386
X36.068 Y47.677
X36.329 Y47.985
X36.532 Y48.268
X36.715 Y48.572
X36.854 Y48.851
X36.975 Y49.152
X37.061 Y49.427
X37.075 Y49.493
X37.109 Y49.79
X37.08 Y50.087
X36.987 Y50.372
X36.837 Y50.63
X36.635 Y50.85
X36.39 Y51.023
X36.115 Y51.139
X35.33 Y51.171
X-104.113 Y56.731
G3 X-105.39 Y56.046 I0.027 J-1.582
G1 X-105.523 Y55.838
X-105.667 Y55.644
X-105.724 Y55.575
X-105.843 Y55.443
X-105.926 Y55.361
X-105.966 Y55.325
X-106.072 Y55.219
X-106.163 Y55.1
X-106.243 Y54.973
X-106.318 Y54.827
X-106.384 Y54.668
X-106.446 Y54.477
X-106.494 Y54.275
X-106.53 Y54.038
X-106.549 Y53.789
X-106.547 Y53.501
X-106.52 Y53.2
X-106.464 Y52.867
X-106.373 Y52.51
X-106.244 Y52.13
X-106.063 Y51.713
X-105.841 Y51.297
X-105.542 Y50.83
X-105.193 Y50.371
X-104.754 Y49.881
X-104.215 Y49.368
X-103.59 Y48.863
X-102.858 Y48.363
X-102.09 Y47.922
X-101.293 Y47.534
X-100.475 Y47.194
X-99.64 Y46.897
X-98.792 Y46.639
X-97.934 Y46.416
X-97.069 Y46.226
X-96.198 Y46.064
X-95.322 Y45.929
X-94.443 Y45.818
X-93.561 Y45.729
X-92.678 Y45.66
X-91.793 Y45.608
X-90.908 Y45.574
X-90.022 Y45.553
X-89.136 Y45.547
X-88.25 Y45.552
X-87.364 Y45.567
X-86.478 Y45.592
X-85.592 Y45.626
X-84.707 Y45.667
X-83.822 Y45.713
X-82.938 Y45.766
X-82.053 Y45.823
X-81.169 Y45.883
X-80.286 Y45.947
X-79.402 Y46.014
X-78.518 Y46.082
X-76.752 Y46.222
X-74.102 Y46.433
X-73.218 Y46.503
X-72.335 Y46.571
X-71.451 Y46.638
X-70.568 Y46.703
X-69.684 Y46.767
X-68.8 Y46.828
X-67.916 Y46.886
X-67.031 Y46.941
X-66.147 Y46.993
X-65.262 Y47.041
X-64.377 Y47.085
X-63.491 Y47.122
X-62.606 Y47.154
X-61.72 Y47.178
X-60.834 Y47.195
X-59.948 Y47.203
X-59.062 Y47.202
X-58.176 Y47.191
X-57.29 Y47.171
X-56.404 Y47.141
X-55.519 Y47.102
X-54.634 Y47.055
X-53.75 Y47
X-52.866 Y46.938
X-51.982 Y46.87
X-51.099 Y46.797
X-50.216 Y46.72
X-49.334 Y46.64
X-48.452 Y46.558
X-45.805 Y46.311
X-44.922 Y46.23
X-44.04 Y46.151
X-43.157 Y46.074
X-42.274 Y46
X-41.391 Y45.93
X-40.507 Y45.863
X-39.623 Y45.8
X-38.739 Y45.74
X-37.855 Y45.684
X-36.97 Y45.632
X-36.085 Y45.583
X-35.2 Y45.538
X-34.315 Y45.496
X-33.43 Y45.458
X-32.544 Y45.422
X-31.659 Y45.388
X-30.773 Y45.357
X-29.888 Y45.327
X-29.002 Y45.3
X-27.231 Y45.247
X-23.688 Y45.146
X-21.916 Y45.094
X-21.03 Y45.066
X-20.145 Y45.038
X-19.259 Y45.008
X-18.374 Y44.976
X-17.488 Y44.944
X-16.603 Y44.909
X-15.717 Y44.874
X-14.832 Y44.836
X-13.947 Y44.797
X-13.061 Y44.756
X-12.176 Y44.713
X-11.291 Y44.669
X-10.406 Y44.623
X-9.522 Y44.575
X-8.637 Y44.526
X-7.752 Y44.475
X-6.868 Y44.422
X-5.983 Y44.368
X-5.099 Y44.312
X-4.214 Y44.255
X-3.33 Y44.197
X-2.446 Y44.137
X-1.562 Y44.075
X-0.678 Y44.012
X0.206 Y43.948
X1.089 Y43.883
X1.973 Y43.816
X2.856 Y43.748
X3.74 Y43.678
X4.623 Y43.608
X5.506 Y43.536
X7.272 Y43.39
X9.038 Y43.24
X12.57 Y42.939
X13.453 Y42.865
X14.336 Y42.793
X15.22 Y42.722
X16.103 Y42.655
X16.987 Y42.591
X17.871 Y42.532
X18.755 Y42.477
X19.64 Y42.428
X20.525 Y42.386
X21.411 Y42.352
X22.297 Y42.327
X23.183 Y42.312
X24.069 Y42.308
X24.955 Y42.317
X25.841 Y42.341
X26.726 Y42.381
X27.61 Y42.439
X28.493 Y42.519
X29.373 Y42.622
X30.249 Y42.752
X31.12 Y42.914
X31.984 Y43.111
X32.837 Y43.353
X33.674 Y43.644
X34.489 Y43.99
X35.249 Y44.383
X35.913 Y44.796
X36.478 Y45.215
X36.964 Y45.638
X37.388 Y46.074
X37.759 Y46.521
X38.05 Y46.935
X38.286 Y47.337
X38.457 Y47.689
X38.599 Y48.054
X38.696 Y48.377
X38.768 Y48.717
X38.808 Y49.021
X38.824 Y49.337
X38.815 Y49.628
X38.801 Y49.755
X38.738 Y50.04
X38.619 Y50.305
X38.447 Y50.54
X38.23 Y50.734
X37.978 Y50.88
X37.701 Y50.969
X37.411 Y51
X37.142 Y51.001
G3 X36.577 Y50.537 I0.019 J-0.6
G1 X36.555 Y50.446 Z-17.993
X36.535 Y50.357 Z-17.971
X36.515 Y50.272 Z-17.935
X36.497 Y50.194 Z-17.885
X36.48 Y50.124 Z-17.824
X36.466 Y50.065 Z-17.753
X36.455 Y50.017 Z-17.672
X36.447 Y49.982 Z-17.585
X36.442 Y49.96 Z-17.494
X36.44 Y49.953 Z-17.4
Z2.05
X-104.67 Y55.786
Z-16.8
Z-17.4
X-104.678 Y55.784 Z-17.494
X-104.699 Y55.78 Z-17.585
X-104.734 Y55.773 Z-17.672
X-104.783 Y55.763 Z-17.753
X-104.843 Y55.751 Z-17.824
X-104.913 Y55.737 Z-17.885
X-104.991 Y55.721 Z-17.935
X-105.077 Y55.704 Z-17.971
X-105.166 Y55.685 Z-17.993
X-105.258 Y55.667 Z-18
G3 X-105.966 Y55.325 I0.313 J-1.551
G1 X-106.058 Y55.241
X-106.127 Y55.186
X-106.328 Y55.037
X-106.53 Y54.909
X-106.67 Y54.839
X-106.802 Y54.767
X-106.924 Y54.681
X-107.037 Y54.582
X-107.141 Y54.473
X-107.247 Y54.343
X-107.345 Y54.198
X-107.445 Y54.023
X-107.534 Y53.834
X-107.618 Y53.611
X-107.687 Y53.369
X-107.741 Y53.097
X-107.777 Y52.795
X-107.789 Y52.475
X-107.773 Y52.109
X-107.726 Y51.736
X-107.64 Y51.318
X-107.511 Y50.878
X-107.336 Y50.419
X-107.093 Y49.909
X-106.8 Y49.404
X-106.429 Y48.869
X-105.96 Y48.296
X-105.421 Y47.736
X-104.782 Y47.171
X-104.073 Y46.639
X-103.327 Y46.161
X-102.551 Y45.732
X-101.752 Y45.349
X-100.935 Y45.008
X-100.101 Y44.706
X-99.256 Y44.439
X-98.401 Y44.206
X-97.539 Y44.004
X-96.67 Y43.829
X-95.796 Y43.681
X-94.919 Y43.556
X-94.039 Y43.453
X-93.157 Y43.371
X-92.273 Y43.306
X-91.388 Y43.258
X-90.502 Y43.226
X-89.617 Y43.207
X-88.73 Y43.2
X-87.844 Y43.205
X-86.958 Y43.22
X-86.073 Y43.244
X-85.187 Y43.276
X-84.302 Y43.315
X-83.417 Y43.36
X-82.532 Y43.41
X-81.648 Y43.465
X-80.763 Y43.524
X-79.879 Y43.585
X-78.996 Y43.65
X-78.112 Y43.716
X-76.345 Y43.852
X-73.695 Y44.058
X-72.811 Y44.125
X-71.928 Y44.192
X-71.044 Y44.257
X-70.16 Y44.321
X-69.276 Y44.382
X-68.392 Y44.441
X-67.507 Y44.497
X-66.623 Y44.55
X-65.738 Y44.599
X-64.853 Y44.643
X-63.968 Y44.682
X-63.082 Y44.715
X-62.197 Y44.741
X-61.311 Y44.759
X-60.425 Y44.769
X-59.538 Y44.771
X-58.652 Y44.763
X-57.766 Y44.747
X-56.881 Y44.721
X-55.995 Y44.687
X-55.11 Y44.644
X-54.225 Y44.594
X-53.341 Y44.537
X-52.457 Y44.474
X-51.574 Y44.405
X-50.691 Y44.333
X-49.808 Y44.258
X-48.925 Y44.18
X-46.277 Y43.942
X-45.395 Y43.864
X-44.512 Y43.787
X-43.629 Y43.712
X-42.746 Y43.639
X-41.862 Y43.569
X-40.979 Y43.502
X-40.095 Y43.439
X-39.211 Y43.379
X-38.327 Y43.322
X-37.442 Y43.268
X-36.557 Y43.218
X-35.672 Y43.172
X-34.787 Y43.128
X-33.902 Y43.088
X-33.017 Y43.05
X-32.131 Y43.014
X-31.246 Y42.981
X-30.36 Y42.95
X-29.475 Y42.92
X-28.589 Y42.892
X-26.818 Y42.838
X-23.275 Y42.733
X-21.503 Y42.678
X-20.618 Y42.649
X-19.732 Y42.619
X-18.847 Y42.587
X-17.961 Y42.555
X-17.076 Y42.521
X-16.19 Y42.485
X-15.305 Y42.448
X-14.419 Y42.409
X-13.534 Y42.369
X-12.649 Y42.327
X-11.764 Y42.283
X-10.879 Y42.238
X-9.994 Y42.191
X-9.11 Y42.142
X-8.225 Y42.092
X-7.34 Y42.04
X-6.456 Y41.986
X-5.571 Y41.931
X-4.687 Y41.875
X-3.803 Y41.817
X-2.919 Y41.758
X-2.035 Y41.697
X-1.151 Y41.634
X-0.267 Y41.571
X0.617 Y41.506
X1.501 Y41.44
X2.384 Y41.372
X3.268 Y41.303
X4.151 Y41.233
X5.034 Y41.162
X6.8 Y41.017
X8.567 Y40.869
X11.215 Y40.645
X12.098 Y40.571
X12.982 Y40.499
X13.865 Y40.427
X14.748 Y40.359
X15.632 Y40.292
X16.516 Y40.23
X17.4 Y40.171
X18.285 Y40.117
X19.169 Y40.069
X20.055 Y40.028
X20.94 Y39.994
X21.826 Y39.968
X22.712 Y39.952
X23.598 Y39.947
X24.484 Y39.954
X25.37 Y39.974
X26.255 Y40.01
X27.14 Y40.062
X28.023 Y40.133
X28.904 Y40.225
X29.783 Y40.341
X30.658 Y40.483
X31.527 Y40.655
X32.388 Y40.864
X33.239 Y41.111
X34.076 Y41.401
X34.897 Y41.735
X35.696 Y42.118
X36.468 Y42.554
X37.205 Y43.045
X37.883 Y43.577
X38.475 Y44.125
X38.971 Y44.662
X39.39 Y45.197
X39.743 Y45.732
X40.037 Y46.265
X40.271 Y46.785
X40.452 Y47.294
X40.577 Y47.759
X40.66 Y48.208
X40.699 Y48.593
X40.707 Y48.972
X40.687 Y49.309
X40.641 Y49.644
X40.574 Y49.941
X40.552 Y50.014
X40.435 Y50.286
X40.264 Y50.527
X40.045 Y50.727
X39.79 Y50.876
X39.509 Y50.969
X39.214 Y51
X37.411
G3 X36.847 Y50.536 I0.02 J-0.6
G1 X36.667 Y50.213
G2 X34.232 Y48.621 I-2.33 J0.906
G1 X-105.904 Y54.967
X-106.034 Y54.973
G3 X-106.67 Y54.839 I0 J-1.583
G1 X-106.731 Y54.81
X-106.932 Y54.724
X-107.134 Y54.652
X-107.335 Y54.601
X-107.446 Y54.58
X-107.592 Y54.545
X-107.734 Y54.498
X-107.871 Y54.436
X-108 Y54.361
X-108.128 Y54.272
X-108.261 Y54.162
X-108.392 Y54.035
X-108.528 Y53.879
X-108.657 Y53.707
X-108.786 Y53.501
X-108.903 Y53.275
X-109.011 Y53.017
X-109.107 Y52.725
X-109.183 Y52.414
X-109.24 Y52.056
X-109.269 Y51.682
X-109.267 Y51.266
X-109.229 Y50.808
X-109.152 Y50.343
X-109.024 Y49.829
X-108.837 Y49.273
X-108.599 Y48.719
X-108.284 Y48.121
X-107.881 Y47.486
X-107.408 Y46.859
X-106.846 Y46.226
X-106.206 Y45.612
X-105.522 Y45.049
X-104.801 Y44.533
X-104.051 Y44.063
X-103.275 Y43.635
X-102.478 Y43.247
X-101.663 Y42.898
X-100.835 Y42.584
X-99.994 Y42.304
X-99.143 Y42.055
X-98.285 Y41.836
X-97.42 Y41.645
X-96.549 Y41.478
X-95.675 Y41.336
X-94.797 Y41.215
X-93.917 Y41.114
X-93.034 Y41.032
X-92.151 Y40.966
X-91.266 Y40.917
X-90.38 Y40.882
X-89.494 Y40.861
X-88.608 Y40.851
X-87.722 Y40.853
X-86.836 Y40.864
X-85.95 Y40.885
X-85.065 Y40.913
X-84.179 Y40.949
X-83.294 Y40.99
X-82.409 Y41.037
X-81.525 Y41.089
X-80.64 Y41.144
X-79.756 Y41.203
X-78.872 Y41.265
X-77.988 Y41.328
X-77.105 Y41.394
X-72.686 Y41.727
X-71.803 Y41.792
X-70.919 Y41.856
X-70.035 Y41.918
X-69.151 Y41.978
X-68.267 Y42.035
X-67.382 Y42.09
X-66.498 Y42.141
X-65.613 Y42.187
X-64.727 Y42.229
X-63.842 Y42.265
X-62.956 Y42.295
X-62.071 Y42.317
X-61.185 Y42.332
X-60.299 Y42.339
X-59.412 Y42.337
X-58.526 Y42.327
X-57.64 Y42.308
X-56.755 Y42.281
X-55.869 Y42.245
X-54.984 Y42.202
X-54.1 Y42.151
X-53.215 Y42.095
X-52.331 Y42.033
X-51.448 Y41.967
X-50.564 Y41.896
X-49.681 Y41.824
X-48.798 Y41.749
X-46.15 Y41.52
X-45.267 Y41.445
X-44.384 Y41.371
X-43.501 Y41.299
X-42.617 Y41.229
X-41.734 Y41.161
X-40.85 Y41.097
X-39.966 Y41.035
X-39.082 Y40.977
X-38.197 Y40.922
X-37.313 Y40.869
X-36.428 Y40.821
X-35.543 Y40.775
X-34.658 Y40.731
X-33.773 Y40.691
X-32.887 Y40.653
X-32.002 Y40.617
X-31.117 Y40.584
X-30.231 Y40.552
X-29.345 Y40.522
X-27.574 Y40.464
X-23.146 Y40.327
X-21.374 Y40.27
X-20.489 Y40.24
X-19.603 Y40.209
X-18.718 Y40.177
X-17.832 Y40.143
X-16.947 Y40.109
X-16.061 Y40.072
X-15.176 Y40.034
X-14.291 Y39.995
X-13.406 Y39.954
X-12.52 Y39.911
X-11.635 Y39.867
X-10.75 Y39.821
X-9.866 Y39.774
X-8.981 Y39.725
X-8.096 Y39.674
X-7.212 Y39.622
X-6.327 Y39.568
X-5.443 Y39.512
X-4.558 Y39.456
X-3.674 Y39.397
X-2.79 Y39.337
X-1.906 Y39.276
X-1.022 Y39.214
X-0.138 Y39.15
X0.745 Y39.084
X1.629 Y39.018
X2.512 Y38.95
X3.396 Y38.881
X4.279 Y38.811
X6.046 Y38.668
X7.812 Y38.521
X10.461 Y38.3
X11.344 Y38.227
X12.227 Y38.155
X13.111 Y38.085
X13.994 Y38.016
X14.878 Y37.95
X15.762 Y37.887
X16.646 Y37.828
X17.53 Y37.774
X18.415 Y37.724
X19.3 Y37.681
X20.185 Y37.645
X21.071 Y37.616
X21.957 Y37.596
X22.843 Y37.586
X23.729
X24.615 Y37.599
X25.501 Y37.626
X26.386 Y37.667
X27.27 Y37.724
X28.153 Y37.8
X29.034 Y37.896
X29.912 Y38.015
X30.786 Y38.16
X31.655 Y38.333
X32.518 Y38.537
X33.372 Y38.774
X34.215 Y39.047
X35.045 Y39.356
X35.859 Y39.706
X36.653 Y40.1
X37.423 Y40.539
X38.165 Y41.024
X38.874 Y41.554
X39.546 Y42.133
X40.173 Y42.758
X40.743 Y43.422
X41.236 Y44.099
X41.647 Y44.772
X41.979 Y45.428
X42.24 Y46.067
X42.439 Y46.693
X42.579 Y47.298
X42.664 Y47.873
X42.697 Y48.37
X42.691 Y48.838
X42.654 Y49.229
X42.587 Y49.609
X42.501 Y49.938
X42.459 Y50.06
X42.337 Y50.321
X42.164 Y50.551
X41.948 Y50.741
X41.697 Y50.883
X41.423 Y50.97
X41.137 Y51
X39.214
G3 X38.651 Y50.535 I0.021 J-0.6
G1 X38.472 Y50.213
G2 X36.044 Y48.617 I-2.332 J0.902
G1 X-106.662 Y54.575
X-107.209 Y54.598
X-107.328 Y54.594
X-107.446 Y54.58
X-107.537 Y54.563
X-107.738 Y54.54
X-108.141 Y54.528
X-108.342 Y54.523
X-108.453
X-108.603 Y54.516
X-108.75 Y54.489
X-108.895 Y54.448
X-109.038 Y54.394
X-109.19 Y54.322
X-109.351 Y54.229
X-109.512 Y54.119
X-109.683 Y53.979
X-109.849 Y53.821
X-110.018 Y53.63
X-110.184 Y53.412
X-110.339 Y53.167
X-110.492 Y52.879
X-110.624 Y52.57
X-110.742 Y52.22
X-110.841 Y51.827
X-110.909 Y51.415
X-110.948 Y50.949
X-110.95 Y50.441
X-110.911 Y49.922
X-110.82 Y49.348
X-110.669 Y48.721
X-110.462 Y48.093
X-110.184 Y47.43
X-109.82 Y46.726
X-109.365 Y45.999
X-108.837 Y45.288
X-108.255 Y44.62
X-107.626 Y43.996
X-106.956 Y43.415
X-106.252 Y42.877
X-105.519 Y42.379
X-104.761 Y41.92
X-103.982 Y41.498
X-103.185 Y41.111
X-102.372 Y40.759
X-101.545 Y40.439
X-100.708 Y40.15
X-99.86 Y39.891
X-99.005 Y39.66
X-98.143 Y39.455
X-97.275 Y39.274
X-96.403 Y39.116
X-95.528 Y38.98
X-94.649 Y38.863
X-93.769 Y38.765
X-92.886 Y38.685
X-92.002 Y38.62
X-91.118 Y38.571
X-90.232 Y38.535
X-89.346 Y38.512
X-88.46 Y38.5
X-87.574 Y38.499
X-86.688 Y38.508
X-85.802 Y38.525
X-84.917 Y38.551
X-84.031 Y38.583
X-83.146 Y38.622
X-82.261 Y38.666
X-81.376 Y38.714
X-80.491 Y38.767
X-79.607 Y38.823
X-78.723 Y38.882
X-77.839 Y38.944
X-76.955 Y39.007
X-75.187 Y39.136
X-72.536 Y39.33
X-71.652 Y39.394
X-70.768 Y39.456
X-69.884 Y39.517
X-69 Y39.575
X-68.116 Y39.631
X-67.231 Y39.683
X-66.346 Y39.732
X-65.461 Y39.776
X-64.576 Y39.815
X-63.691 Y39.848
X-62.805 Y39.874
X-61.919 Y39.893
X-61.033 Y39.905
X-60.147 Y39.909
X-59.261 Y39.904
X-58.375 Y39.891
X-57.489 Y39.87
X-56.603 Y39.841
X-55.718 Y39.804
X-54.833 Y39.76
X-53.948 Y39.71
X-53.064 Y39.654
X-52.18 Y39.593
X-51.296 Y39.528
X-50.412 Y39.46
X-49.529 Y39.39
X-47.763 Y39.244
X-45.997 Y39.097
X-45.114 Y39.025
X-44.23 Y38.954
X-43.347 Y38.884
X-42.463 Y38.817
X-41.58 Y38.752
X-40.696 Y38.689
X-39.812 Y38.63
X-38.927 Y38.573
X-38.043 Y38.519
X-37.158 Y38.468
X-36.273 Y38.42
X-35.388 Y38.375
X-34.503 Y38.332
X-33.618 Y38.292
X-32.733 Y38.254
X-31.847 Y38.219
X-30.962 Y38.185
X-30.076 Y38.152
X-29.191 Y38.121
X-27.419 Y38.062
X-22.991 Y37.92
X-21.22 Y37.861
X-20.334 Y37.83
X-19.449 Y37.798
X-18.563 Y37.765
X-17.678 Y37.731
X-16.792 Y37.695
X-15.907 Y37.658
X-15.022 Y37.62
X-14.137 Y37.58
X-13.251 Y37.538
X-12.366 Y37.495
X-11.481 Y37.45
X-10.596 Y37.403
X-9.712 Y37.355
X-8.827 Y37.306
X-7.942 Y37.254
X-7.058 Y37.202
X-6.173 Y37.147
X-5.289 Y37.092
X-4.405 Y37.034
X-3.52 Y36.976
X-2.636 Y36.915
X-1.752 Y36.854
X-0.868 Y36.791
X0.015 Y36.726
X0.899 Y36.661
X1.783 Y36.594
X2.666 Y36.526
X3.55 Y36.457
X5.316 Y36.315
X7.082 Y36.171
X10.615 Y35.88
X11.498 Y35.809
X12.382 Y35.739
X13.265 Y35.671
X14.149 Y35.605
X15.033 Y35.542
X15.917 Y35.483
X16.801 Y35.428
X17.686 Y35.378
X18.571 Y35.333
X19.456 Y35.294
X20.342 Y35.263
X21.228 Y35.24
X22.114 Y35.225
X23 Y35.221
X23.886 Y35.228
X24.772 Y35.246
X25.657 Y35.278
X26.542 Y35.325
X27.426 Y35.387
X28.309 Y35.468
X29.189 Y35.568
X30.067 Y35.69
X30.941 Y35.836
X31.81 Y36.009
X32.673 Y36.208
X33.529 Y36.437
X34.377 Y36.696
X35.214 Y36.987
X36.038 Y37.313
X36.197 Y37.385
X36.284 Y37.428
X36.368 Y37.478
X36.447 Y37.534
X36.85 Y37.83
X36.947 Y37.896
X37.051 Y37.947
X37.253 Y38.042
X38.035 Y38.458
X38.812 Y38.883
X39.559 Y39.36
X40.272 Y39.886
X40.948 Y40.46
X41.583 Y41.077
X42.176 Y41.736
X42.721 Y42.434
X43.215 Y43.17
X43.652 Y43.941
X44.02 Y44.73
X44.313 Y45.515
X44.524 Y46.263
X44.663 Y46.961
X44.74 Y47.63
X44.762 Y48.25
X44.738 Y48.775
X44.683 Y49.21
X44.597 Y49.625
X44.495 Y49.971
X44.455 Y50.076
X44.323 Y50.336
X44.142 Y50.565
X43.919 Y50.752
X43.662 Y50.891
X43.383 Y50.976
X43.092 Y51.002
X42.891 Y51.001
X41.481 Y51
X41.137
G3 X40.591 Y50.599 I0.021 J-0.6
G1 X40.57 Y50.536
X36.45 Y38.792
G3 X37.253 Y38.042 I0.566 J-0.199
G1 X37.472 Y38.145
X37.655 Y38.227
X38.259 Y38.478
X38.662 Y38.631
X38.864 Y38.706
X39.468 Y38.824
X40.072 Y38.904
X40.676 Y38.98
X40.825 Y38.998
X41.119 Y39.067
X41.47 Y39.179
X41.832 Y39.328
X42.25 Y39.54
X42.68 Y39.804
X43.168 Y40.16
X43.643 Y40.57
X44.146 Y41.079
X44.657 Y41.687
X45.143 Y42.369
X45.581 Y43.104
X45.969 Y43.889
X46.292 Y44.704
X46.544 Y45.526
X46.72 Y46.325
X46.823 Y47.079
X46.864 Y47.798
X46.848 Y48.43
X46.792 Y48.966
X46.711 Y49.401
X46.601 Y49.807
X46.474 Y50.159
X46.326 Y50.484
X46.319 Y50.499
X46.156 Y50.732
X45.95 Y50.928
X45.708 Y51.078
X45.441 Y51.176
X45.16 Y51.218
X44.876 Y51.203
X44.703 Y51.175
X44.502 Y51.15
X43.358 Y51.022
X43.319 Y51.018
X43.092 Y51.002
G3 X42.569 Y50.54 I0.061 J-0.597
G1 X42.56 Y50.501
X40.079 Y39.714
G3 X40.676 Y38.98 I0.585 J-0.134
G1 X40.877 Y38.991
X41.28 Y38.998
X41.481 Y39
X42.891
X43.118 Y39.011
X43.377 Y39.045
X43.641 Y39.102
X43.951 Y39.195
X44.279 Y39.322
X44.635 Y39.495
X45.023 Y39.723
X45.427 Y40.007
X45.85 Y40.359
X46.303 Y40.8
X46.73 Y41.29
X47.171 Y41.886
X47.599 Y42.574
X47.987 Y43.326
X48.32 Y44.123
X48.592 Y44.957
X48.796 Y45.806
X48.924 Y46.627
X48.982 Y47.396
X48.978 Y48.123
X48.919 Y48.799
X48.828 Y49.344
X48.707 Y49.822
X48.572 Y50.22
X48.42 Y50.574
X48.249 Y50.896
X48.068 Y51.178
X48.025 Y51.235
X47.825 Y51.449
X47.584 Y51.616
X47.314 Y51.73
X47.025 Y51.785
X46.732 Y51.778
X46.447 Y51.711
X45.71 Y51.454
X45.308 Y51.314
X45.106 Y51.255
X44.964 Y51.219
X44.905 Y51.207
X44.876 Y51.203
G3 X44.4 Y50.725 I0.114 J-0.589
G1 X44.387 Y50.656
X42.322 Y39.711
G3 X42.891 Y39 I0.59 J-0.111
G1 X45.308
X45.545 Y39.012
X45.775 Y39.042
X46.046 Y39.1
X46.321 Y39.182
X46.637 Y39.305
X46.967 Y39.465
X47.325 Y39.676
X47.702 Y39.941
X48.103 Y40.274
X48.502 Y40.664
X48.931 Y41.155
X49.334 Y41.699
X49.728 Y42.332
X50.104 Y43.062
X50.438 Y43.861
X50.713 Y44.703
X50.92 Y45.564
X51.056 Y46.433
X51.118 Y47.27
X51.114 Y48.065
X51.051 Y48.804
X50.939 Y49.471
X50.786 Y50.078
X50.619 Y50.572
X50.435 Y50.998
X50.241 Y51.365
X50.041 Y51.677
X49.823 Y51.966
X49.604 Y52.21
X49.537 Y52.275
X49.291 Y52.462
X49.011 Y52.591
X48.709 Y52.655
X48.4 Y52.652
X48.1 Y52.581
X47.822 Y52.446
X47.47 Y52.224
X47.225 Y52.072
G3 X46.97 Y51.684 I0.335 J-0.498
G1 X46.914 Y51.381
X44.739 Y39.71
G3 X45.308 Y39 I0.59 J-0.11
G1 X47.724
X47.874 Y39.007
X48.106 Y39.039
X48.364 Y39.096
X48.634 Y39.179
X48.944 Y39.301
X49.254 Y39.453
X49.609 Y39.665
X49.955 Y39.911
X50.346 Y40.24
X50.724 Y40.612
X51.124 Y41.076
X51.53 Y41.631
X51.901 Y42.235
X52.262 Y42.944
X52.59 Y43.74
X52.86 Y44.584
X53.063 Y45.447
X53.2 Y46.322
X53.268 Y47.206
X53.266 Y48.078
X53.198 Y48.9
X53.072 Y49.666
X52.898 Y50.371
X52.688 Y50.997
X52.446 Y51.563
X52.206 Y52.02
X51.954 Y52.418
X51.709 Y52.743
X51.456 Y53.029
X51.205 Y53.27
X50.94 Y53.487
X50.848 Y53.551
X50.568 Y53.7
X50.261 Y53.783
X49.943 Y53.795
X49.631 Y53.734
X49.341 Y53.605
X49.087 Y53.414
X48.932 Y53.266
X48.53 Y52.907
X48.427 Y52.828
X47.822 Y52.446
G3 X47.561 Y51.97 I0.338 J-0.496
G1 X47.553 Y51.748
X47.145 Y39.62
G3 X47.724 Y39 I0.6 J-0.02
G1 X49.939
X50.127 Y39.009
X50.353 Y39.039
X50.598 Y39.091
X50.862 Y39.17
X51.161 Y39.287
X51.462 Y39.433
X51.803 Y39.634
X52.139 Y39.87
X52.514 Y40.182
X52.881 Y40.54
X53.269 Y40.984
X53.663 Y41.516
X54.027 Y42.101
X54.386 Y42.797
X54.716 Y43.586
X54.991 Y44.428
X55.2 Y45.289
X55.343 Y46.164
X55.42 Y47.047
X55.432 Y47.933
X55.38 Y48.817
X55.261 Y49.695
X55.078 Y50.536
X54.852 Y51.286
X54.586 Y51.964
X54.285 Y52.58
X53.959 Y53.13
X53.643 Y53.577
X53.321 Y53.964
X53.035 Y54.255
X52.726 Y54.523
X52.447 Y54.728
X52.143 Y54.916
X51.863 Y55.06
X51.851 Y55.065
X51.546 Y55.153
X51.229 Y55.169
X50.917 Y55.114
X50.625 Y54.99
X50.368 Y54.804
X50.16 Y54.564
X50.073 Y54.437
X49.899 Y54.236
X49.738 Y54.063
X49.106 Y53.431
X49.087 Y53.414
G3 X48.916 Y52.974 I0.428 J-0.42
G1 X48.926 Y52.674
X49.36 Y39.58
G3 X49.939 Y39 I0.6 J0.02
G1 X52.154
X52.35 Y39.01
X52.577 Y39.04
X52.81 Y39.089
X53.077 Y39.169
X53.361 Y39.28
X53.665 Y39.428
X53.99 Y39.619
X54.331 Y39.858
X54.689 Y40.155
X55.062 Y40.519
X55.434 Y40.946
X55.827 Y41.477
X56.189 Y42.059
X56.541 Y42.741
X56.869 Y43.524
X57.144 Y44.367
X57.353 Y45.228
X57.499 Y46.101
X57.584 Y46.984
X57.607 Y47.869
X57.57 Y48.755
X57.474 Y49.636
X57.317 Y50.508
X57.098 Y51.367
X56.815 Y52.206
X56.482 Y52.984
X56.118 Y53.674
X55.739 Y54.271
X55.342 Y54.799
X54.923 Y55.27
X54.541 Y55.637
X54.168 Y55.941
X53.842 Y56.165
X53.497 Y56.364
X53.189 Y56.51
X52.863 Y56.634
X52.68 Y56.687
X52.37 Y56.74
X52.055 Y56.723
X51.752 Y56.635
X51.477 Y56.482
X51.243 Y56.271
X51.061 Y56.013
X50.97 Y55.845
X50.946 Y55.804
X50.847 Y55.644
X50.342 Y54.839
X50.211 Y54.638
X50.16 Y54.564
G3 X50.069 Y54.18 I0.506 J-0.322
G1 X50.109 Y53.799
X51.578 Y39.538
G3 X52.154 Y39 I0.597 J0.062
G1 X54.369
X54.547 Y39.009
X54.773 Y39.038
X55.002 Y39.087
X55.269 Y39.168
X55.547 Y39.276
X55.851 Y39.424
X56.171 Y39.611
X56.511 Y39.85
X56.862 Y40.142
X57.235 Y40.506
X57.6 Y40.924
X57.989 Y41.45
X58.35 Y42.03
X58.701 Y42.711
X59.031 Y43.499
X59.306 Y44.341
X59.516 Y45.202
X59.666 Y46.076
X59.757 Y46.957
X59.79 Y47.843
X59.767 Y48.728
X59.689 Y49.611
X59.557 Y50.487
X59.372 Y51.354
X59.133 Y52.207
X58.836 Y53.042
X58.481 Y53.854
X58.066 Y54.637
X57.614 Y55.348
X57.136 Y55.981
X56.649 Y56.529
X56.167 Y56.99
X55.684 Y57.383
X55.235 Y57.692
X54.803 Y57.94
X54.43 Y58.117
X54.058 Y58.258
X53.723 Y58.355
X53.376 Y58.425
X53.07 Y58.462
X53.004 Y58.465
X52.704 Y58.445
X52.415 Y58.361
X52.151 Y58.218
X51.923 Y58.021
X51.743 Y57.78
X51.619 Y57.507
X51.534 Y57.253
X51.323 Y56.649
X51.198 Y56.338
X51.079 Y56.046
X51.061 Y56.013
G3 X51.007 Y55.642 I0.536 J-0.269
G1 X51.075 Y55.244
X53.799 Y39.497
G3 X54.369 Y39 I0.591 J0.102
G1 X56.585
X56.734 Y39.007
X56.958 Y39.037
X57.187 Y39.086
X57.454 Y39.167
X57.728 Y39.274
X58.034 Y39.423
X58.349 Y39.609
X58.69 Y39.85
X59.037 Y40.138
X59.411 Y40.505
X59.773 Y40.921
X60.16 Y41.446
X60.524 Y42.032
X60.876 Y42.716
X61.208 Y43.513
X61.481 Y44.356
X61.692 Y45.217
X61.844 Y46.09
X61.94 Y46.971
X61.981 Y47.856
X61.97 Y48.742
X61.908 Y49.626
X61.796 Y50.505
X61.636 Y51.377
X61.428 Y52.238
X61.171 Y53.086
X60.863 Y53.917
X60.503 Y54.726
X60.091 Y55.511
X59.627 Y56.266
X59.11 Y56.986
X58.541 Y57.665
X57.966 Y58.251
X57.4 Y58.74
X56.833 Y59.156
X56.273 Y59.502
X55.73 Y59.78
X55.258 Y59.975
X54.804 Y60.121
X54.416 Y60.213
X54.032 Y60.271
X53.689 Y60.295
X53.343 Y60.292
X53.176 Y60.277
X52.864 Y60.213
X52.575 Y60.079
X52.323 Y59.884
X52.122 Y59.636
X51.982 Y59.35
X51.911 Y59.039
X51.868 Y58.661
X51.843 Y58.46
X51.842 Y58.368
X51.855 Y58.276
X51.985 Y57.69
X56.02 Y39.47
G3 X56.585 Y39 I0.586 J0.13
G1 X58.709
X58.91 Y39.01
X59.132 Y39.039
X59.359 Y39.088
X59.626 Y39.168
X59.898 Y39.274
X60.202 Y39.421
X60.516 Y39.606
X60.855 Y39.844
X61.203 Y40.133
X61.574 Y40.495
X61.938 Y40.912
X62.326 Y41.437
X62.689 Y42.02
X63.045 Y42.71
X63.383 Y43.517
X63.658 Y44.359
X63.871 Y45.22
X64.027 Y46.092
X64.13 Y46.972
X64.181 Y47.857
X64.182 Y48.743
X64.135 Y49.628
X64.042 Y50.509
X63.904 Y51.384
X63.723 Y52.252
X63.497 Y53.108
X63.227 Y53.953
X62.912 Y54.781
X62.551 Y55.59
X62.144 Y56.377
X61.691 Y57.139
X61.195 Y57.873
X60.654 Y58.574
X60.066 Y59.238
X59.433 Y59.858
X58.755 Y60.428
X58.078 Y60.91
X57.408 Y61.31
X56.778 Y61.62
X56.175 Y61.86
X55.586 Y62.04
X55.074 Y62.153
X54.61 Y62.217
X54.199 Y62.24
X53.818 Y62.231
X53.471 Y62.194
X53.132 Y62.131
X53.033 Y62.104
X52.75 Y61.993
X52.498 Y61.823
X52.288 Y61.603
X52.131 Y61.343
X52.033 Y61.055
X52 Y60.753
Y60.471
X51.993 Y59.868
X51.979 Y59.666
X51.911 Y59.039
X51.91 Y58.962
X51.919 Y58.885
X51.938 Y58.81
X52.107 Y58.283
X58.143 Y39.464
X58.159 Y39.416
G3 X58.709 Y39 I0.571 J0.183
G1 X60.814
X61.085 Y39.014
X61.306 Y39.043
X61.533 Y39.091
X61.8 Y39.171
X62.072 Y39.277
X62.376 Y39.425
X62.689 Y39.609
X63.03 Y39.848
X63.376 Y40.136
X63.749 Y40.5
X64.114 Y40.918
X64.503 Y41.444
X64.87 Y42.034
X65.23 Y42.73
X65.572 Y43.548
X65.847 Y44.39
X66.062 Y45.25
X66.221 Y46.122
X66.329 Y47.001
X66.388 Y47.885
X66.399 Y48.771
X66.365 Y49.657
X66.288 Y50.54
X66.169 Y51.418
X66.009 Y52.289
X65.809 Y53.152
X65.568 Y54.005
X65.288 Y54.846
X64.967 Y55.672
X64.605 Y56.481
X64.202 Y57.27
X63.759 Y58.037
X63.277 Y58.781
X62.756 Y59.497
X62.196 Y60.184
X61.596 Y60.837
X60.956 Y61.45
X60.278 Y62.019
X59.562 Y62.542
X58.81 Y63.011
X58.041 Y63.412
X57.315 Y63.72
X56.617 Y63.952
X55.947 Y64.116
X55.318 Y64.217
X54.778 Y64.26
X54.279
X53.871 Y64.227
X53.474 Y64.162
X53.136 Y64.079
X52.957 Y64.019
X52.692 Y63.898
X52.458 Y63.726
X52.264 Y63.509
X52.12 Y63.257
X52.03 Y62.98
X52 Y62.691
Y60.753
X52.006 Y60.686
X52.02 Y60.62
X52.04 Y60.556
X52.252 Y60.012
X60.244 Y39.463
X60.275 Y39.382
G3 X60.814 Y39 I0.559 J0.217
G1 X63.029
X63.254 Y39.011
X63.476 Y39.04
X63.704 Y39.089
X63.971 Y39.169
X64.243 Y39.275
X64.548 Y39.423
X64.863 Y39.609
X65.204 Y39.848
X65.553 Y40.138
X65.927 Y40.502
X66.296 Y40.925
X66.687 Y41.455
X67.057 Y42.049
X67.422 Y42.755
X67.763 Y43.573
X68.04 Y44.415
X68.258 Y45.274
X68.421 Y46.145
X68.535 Y47.024
X68.602 Y47.907
X68.624 Y48.793
X68.602 Y49.679
X68.539 Y50.563
X68.437 Y51.443
X68.296 Y52.318
X68.118 Y53.186
X67.903 Y54.045
X67.652 Y54.895
X67.364 Y55.733
X67.039 Y56.558
X66.677 Y57.367
X66.279 Y58.158
X65.845 Y58.931
X65.376 Y59.682
X64.871 Y60.411
X64.333 Y61.115
X63.759 Y61.79
X63.151 Y62.435
X62.508 Y63.044
X61.831 Y63.616
X61.122 Y64.147
X60.382 Y64.635
X59.612 Y65.074
X58.814 Y65.459
X57.99 Y65.785
X57.171 Y66.037
X56.387 Y66.211
X55.674 Y66.31
X55.013 Y66.349
X54.439 Y66.336
X53.948 Y66.285
X53.517 Y66.205
X53.15 Y66.106
X52.928 Y66.027
X52.67 Y65.903
X52.443 Y65.73
X52.255 Y65.515
X52.115 Y65.265
X52.029 Y64.993
X52 Y64.709
Y62.691
X52.008 Y62.613
X52.026 Y62.537
X52.053 Y62.465
X52.28 Y61.962
X62.454 Y39.461
X62.503 Y39.352
G3 X63.029 Y39 I0.547 J0.247
G1 X65.244
X65.427 Y39.009
X65.651 Y39.038
X65.878 Y39.087
X66.146 Y39.167
X66.42 Y39.274
X66.725 Y39.422
X67.043 Y39.609
X67.383 Y39.848
X67.736 Y40.142
X68.109 Y40.505
X68.482 Y40.933
X68.877 Y41.467
X69.251 Y42.068
X69.621 Y42.785
X69.963 Y43.602
X70.241 Y44.444
X70.461 Y45.302
X70.629 Y46.172
X70.748 Y47.05
X70.822 Y47.933
X70.854 Y48.819
X70.843 Y49.705
X70.794 Y50.59
X70.706 Y51.471
X70.583 Y52.349
X70.424 Y53.221
X70.231 Y54.085
X70.004 Y54.942
X69.743 Y55.789
X69.449 Y56.625
X69.122 Y57.448
X68.761 Y58.258
X68.367 Y59.051
X67.941 Y59.828
X67.482 Y60.586
X66.992 Y61.325
X66.471 Y62.041
X65.918 Y62.734
X65.335 Y63.401
X64.722 Y64.041
X64.077 Y64.648
X63.402 Y65.223
X62.699 Y65.762
X61.968 Y66.264
X61.212 Y66.725
X60.431 Y67.143
X59.626 Y67.514
X58.798 Y67.831
X57.952 Y68.092
X57.088 Y68.293
X56.259 Y68.42
X55.488 Y68.475
X54.779 Y68.469
X54.188 Y68.416
X53.72 Y68.336
X53.286 Y68.226
X52.923 Y68.101
X52.842 Y68.066
X52.561 Y67.903
X52.326 Y67.68
X52.148 Y67.409
X52.038 Y67.104
X52 Y66.782
Y64.709
G3 X52.064 Y64.46 I0.6 J0.021
G1 X52.301 Y63.99
X64.664 Y39.458
X64.729 Y39.33
G3 X65.244 Y39 I0.536 J0.27
G1 X67.459
X67.609 Y39.007
X67.833 Y39.037
X68.062 Y39.086
X68.33 Y39.167
X68.606 Y39.275
X68.912 Y39.424
X69.232 Y39.613
X69.574 Y39.854
X69.931 Y40.151
X70.305 Y40.517
X70.682 Y40.95
X71.08 Y41.489
X71.459 Y42.101
X71.834 Y42.83
X72.175 Y43.648
X72.453 Y44.489
X72.675 Y45.347
X72.846 Y46.217
X72.97 Y47.094
X73.05 Y47.977
X73.089 Y48.862
Y49.748
X73.051 Y50.633
X72.976 Y51.516
X72.867 Y52.396
X72.725 Y53.27
X72.55 Y54.139
X72.344 Y55.001
X72.106 Y55.855
X71.838 Y56.699
X71.539 Y57.533
X71.209 Y58.356
X70.849 Y59.165
X70.458 Y59.961
X70.038 Y60.741
X69.588 Y61.504
X69.109 Y62.25
X68.602 Y62.976
X68.067 Y63.683
X67.504 Y64.367
X66.913 Y65.027
X66.295 Y65.662
X65.649 Y66.269
X64.977 Y66.846
X64.279 Y67.392
X63.556 Y67.905
X62.81 Y68.384
X62.776 Y68.403
X62.631 Y68.476
X62.478 Y68.531
X62.32 Y68.569
X54.974 Y69.855
X54.772 Y69.883
X54.4 Y69.924
X54.168 Y69.95
X53.967 Y69.96
X53.866 Y69.961
X53.765 Y69.948
X53.564 Y69.907
X53.363 Y69.86
X53.161 Y69.768
X53.07 Y69.723
X52.96 Y69.669
X52.865 Y69.602
X52.758 Y69.513
X52.557 Y69.337
X52.543 Y69.321
X52.394 Y69.12
X52.356 Y69.067
X52.259 Y68.919
X52.177 Y68.718
X52.1 Y68.516
X52.076 Y68.416
X52.013 Y67.913
X52.001 Y67.712
X52 Y66.782
X52.342 Y66.075
X52.356 Y66.048
X54.369 Y62.607
X66.061 Y39.955
G3 X67.459 Y39 I1.453 J0.626
G1 X69.583
X69.793 Y39.011
X70.018 Y39.04
X70.247 Y39.089
X70.514 Y39.169
X70.793 Y39.277
X71.096 Y39.425
X71.421 Y39.616
X71.76 Y39.854
X72.123 Y40.156
X72.495 Y40.518
X72.877 Y40.956
X73.279 Y41.499
X73.661 Y42.113
X74.042 Y42.852
X74.384 Y43.67
X74.664 Y44.51
X74.89 Y45.367
X75.065 Y46.236
X75.195 Y47.113
X75.282 Y47.994
X75.33 Y48.879
X75.339 Y49.765
X75.312 Y50.651
X75.251 Y51.535
X75.156 Y52.416
X75.03 Y53.293
X74.872 Y54.165
X74.685 Y55.031
X74.468 Y55.89
X74.223 Y56.742
X73.949 Y57.585
X73.647 Y58.418
X73.316 Y59.24
X72.958 Y60.05
X72.571 Y60.847
X72.156 Y61.631
X71.715 Y62.399
X71.247 Y63.151
X70.753 Y63.887
X70.233 Y64.605
X69.688 Y65.303
X69.117 Y65.981
X68.521 Y66.637
X67.901 Y67.27
X67.786 Y67.378
X67.571 Y67.544
X67.329 Y67.665
X67.068 Y67.737
X62.32 Y68.569
X61.98 Y68.516
X61.743 Y68.315
X61.711 Y68.188
X61.64 Y67.913
X68.114 Y40.156
G3 X69.583 Y39 I1.524 J0.425
G1 X71.688
X71.987 Y39.015
X72.212 Y39.045
X72.442 Y39.094
X72.709 Y39.174
X72.989 Y39.283
X73.294 Y39.431
X73.62 Y39.623
X73.96 Y39.862
X74.326 Y40.165
X74.699 Y40.529
X75.085 Y40.971
X75.489 Y41.518
X75.877 Y42.14
X76.263 Y42.89
X76.605 Y43.708
X76.887 Y44.548
X77.114 Y45.404
X77.293 Y46.272
X77.428 Y47.148
X77.521 Y48.029
X77.575 Y48.914
X77.593 Y49.8
X77.577 Y50.686
X77.526 Y51.57
X77.444 Y52.453
X77.331 Y53.332
X77.189 Y54.206
X77.018 Y55.076
X76.82 Y55.939
X76.594 Y56.796
X76.341 Y57.646
X76.062 Y58.486
X75.756 Y59.318
X75.425 Y60.14
X75.067 Y60.951
X74.683 Y61.75
X74.274 Y62.536
X73.84 Y63.308
X73.381 Y64.066
X72.897 Y64.809
X72.39 Y65.535
X71.86 Y66.245
X71.581 Y66.592
X71.406 Y66.774
X71.202 Y66.922
X70.974 Y67.03
X70.73 Y67.096
X67.068 Y67.737
G3 X66.394 Y67.042 I-0.083 J-0.594
G1 X71.117 Y39.498
G3 X71.688 Y39 I0.591 J0.101
G1 X73.903
X74.18 Y39.014
X74.407 Y39.044
X74.638 Y39.093
X74.905 Y39.173
X75.188 Y39.283
X75.493 Y39.431
X75.823 Y39.626
X76.164 Y39.865
X76.535 Y40.173
X76.908 Y40.537
X77.298 Y40.984
X77.706 Y41.535
X78.098 Y42.165
X78.491 Y42.926
X78.832 Y43.744
X79.115 Y44.584
X79.345 Y45.44
X79.527 Y46.307
X79.666 Y47.182
X79.765 Y48.063
X79.826 Y48.947
X79.852 Y49.832
X79.844 Y50.718
X79.804 Y51.604
X79.733 Y52.487
X79.633 Y53.367
X79.505 Y54.244
X79.349 Y55.116
X79.166 Y55.984
X78.958 Y56.845
X78.724 Y57.7
X78.465 Y58.547
X78.182 Y59.387
X77.874 Y60.217
X77.541 Y61.039
X77.185 Y61.85
X76.804 Y62.65
X76.4 Y63.439
X75.971 Y64.214
X75.52 Y64.977
X75.047 Y65.726
X74.909 Y65.93
X74.729 Y66.146
X74.51 Y66.321
X74.26 Y66.45
X73.99 Y66.526
X70.73 Y67.096
G3 X70.052 Y66.429 I-0.083 J-0.594
G1 X73.328 Y39.527
G3 X73.903 Y39 I0.596 J0.073
G1 X76.118
X76.382 Y39.013
X76.609 Y39.043
X76.841 Y39.093
X77.109 Y39.173
X77.395 Y39.284
X77.699 Y39.432
X78.033 Y39.629
X78.374 Y39.868
X78.75 Y40.18
X79.123 Y40.544
X79.517 Y40.996
X79.929 Y41.552
X80.325 Y42.188
X80.724 Y42.961
X81.065 Y43.779
X81.349 Y44.619
X81.581 Y45.474
X81.766 Y46.34
X81.909 Y47.215
X82.013 Y48.095
X82.081 Y48.978
X82.114 Y49.864
X82.115 Y50.75
X82.084 Y51.636
X82.024 Y52.52
X81.936 Y53.401
X81.82 Y54.28
X81.677 Y55.154
X81.51 Y56.025
X81.317 Y56.889
X81.1 Y57.749
X80.86 Y58.601
X80.595 Y59.447
X80.308 Y60.286
X79.998 Y61.116
X79.665 Y61.937
X79.31 Y62.749
X78.932 Y63.55
X78.531 Y64.341
X78.109 Y65.12
X77.985 Y65.329
X77.804 Y65.571
X77.576 Y65.768
X77.311 Y65.911
X77.022 Y65.995
X73.99 Y66.526
G3 X73.309 Y65.881 I-0.083 J-0.594
G1 X75.541 Y39.549
G3 X76.118 Y39 I0.598 J0.051
G1 X78.333
X78.59 Y39.013
X78.818 Y39.043
X79.052 Y39.093
X79.319 Y39.173
X79.608 Y39.285
X79.912 Y39.433
X80.25 Y39.632
X80.59 Y39.871
X80.971 Y40.187
X81.344 Y40.551
X81.743 Y41.008
X82.157 Y41.568
X82.558 Y42.211
X82.962 Y42.996
X83.304 Y43.813
X83.589 Y44.652
X83.823 Y45.507
X84.011 Y46.373
X84.158 Y47.247
X84.267 Y48.126
X84.34 Y49.009
X84.38 Y49.894
X84.389 Y50.781
X84.367 Y51.666
X84.317 Y52.551
X84.239 Y53.434
X84.134 Y54.314
X84.004 Y55.19
X83.85 Y56.063
X83.672 Y56.931
X83.47 Y57.794
X83.246 Y58.651
X82.999 Y59.502
X82.731 Y60.347
X82.44 Y61.184
X82.129 Y62.013
X81.795 Y62.834
X81.441 Y63.647
X81.065 Y64.449
X80.902 Y64.761
X80.723 Y65.025
X80.488 Y65.242
X80.21 Y65.4
X79.903 Y65.49
X77.022 Y65.995
G3 X76.34 Y65.368 I-0.083 J-0.594
G1 X77.755 Y39.567
G3 X78.333 Y39 I0.599 J0.033
G1 X80.548
X80.805 Y39.013
X81.034 Y39.043
X81.269 Y39.093
X81.536 Y39.173
X81.827 Y39.286
X82.132 Y39.434
X82.472 Y39.635
X82.813 Y39.874
X83.198 Y40.194
X83.571 Y40.558
X83.974 Y41.02
X84.391 Y41.583
X84.796 Y42.234
X85.202 Y43.021
X85.545 Y43.839
X85.831 Y44.677
X86.067 Y45.531
X86.259 Y46.396
X86.41 Y47.269
X86.524 Y48.148
X86.603 Y49.031
X86.649 Y49.916
X86.665 Y50.802
X86.652 Y51.688
X86.611 Y52.573
X86.543 Y53.456
X86.45 Y54.338
X86.331 Y55.216
X86.189 Y56.09
X86.025 Y56.961
X85.837 Y57.827
X85.628 Y58.688
X85.398 Y59.544
X85.146 Y60.394
X84.874 Y61.237
X84.581 Y62.073
X84.268 Y62.902
X83.934 Y63.723
X83.71 Y64.211
X83.574 Y64.444
X83.395 Y64.647
X83.181 Y64.812
X82.94 Y64.932
X82.679 Y65.004
X79.903 Y65.49
G3 X79.221 Y64.878 I-0.083 J-0.594
G1 X79.97 Y39.582
G3 X80.548 Y39 I0.6 J0.018
G1 X82.763
X83.027 Y39.013
X83.255 Y39.043
X83.492 Y39.094
X83.759 Y39.174
X84.052 Y39.288
X84.357 Y39.436
X84.701 Y39.638
X85.041 Y39.877
X85.43 Y40.2
X85.804 Y40.565
X86.21 Y41.031
X86.63 Y41.598
X87.04 Y42.256
X87.446 Y43.044
X87.789 Y43.861
X88.077 Y44.699
X88.316 Y45.552
X88.511 Y46.416
X88.666 Y47.289
X88.785 Y48.167
X88.869 Y49.049
X88.922 Y49.934
X88.945 Y50.82
X88.94 Y51.706
X88.907 Y52.591
X88.849 Y53.475
X88.765 Y54.358
X88.658 Y55.237
X88.527 Y56.114
X88.375 Y56.986
X88.201 Y57.855
X88.005 Y58.72
X87.79 Y59.579
X87.553 Y60.433
X87.297 Y61.282
X87.022 Y62.124
X86.726 Y62.959
X86.418 Y63.729
X86.395 Y63.775
X86.257 Y63.997
X86.08 Y64.19
X85.87 Y64.347
X85.635 Y64.462
X85.382 Y64.531
X82.679 Y65.004
G3 X81.997 Y64.406 I-0.083 J-0.594
G1 X82.184 Y39.595
G3 X82.763 Y39 I0.6 J0.005
G1 X84.979
X85.254 Y39.014
X85.483 Y39.044
X85.721 Y39.095
X85.988 Y39.175
X86.283 Y39.29
X86.588 Y39.438
X86.934 Y39.642
X87.275 Y39.881
X87.666 Y40.205
X88.042 Y40.572
X88.451 Y41.042
X88.875 Y41.613
X89.289 Y42.279
X89.695 Y43.066
X90.039 Y43.883
X90.329 Y44.72
X90.57 Y45.573
X90.768 Y46.437
X90.927 Y47.308
X91.05 Y48.186
X91.139 Y49.068
X91.198 Y49.952
X91.227 Y50.837
X91.229 Y51.723
X91.205 Y52.609
X91.155 Y53.494
X91.081 Y54.377
X90.984 Y55.258
X90.864 Y56.136
X90.723 Y57.011
X90.56 Y57.882
X90.378 Y58.749
X90.175 Y59.611
X89.953 Y60.469
X89.712 Y61.322
X89.451 Y62.169
X89.163 Y63.007
X89.058 Y63.249
X88.923 Y63.49
X88.744 Y63.7
X88.527 Y63.871
X88.281 Y63.996
X88.015 Y64.07
X85.382 Y64.531
G3 X84.7 Y63.944 I-0.083 J-0.594
G1 X84.4 Y39.607
G3 X84.979 Y39 I0.6 J-0.007
G1 X87.194
X87.486 Y39.015
X87.715 Y39.045
X87.955 Y39.096
X88.222 Y39.176
X88.519 Y39.292
X88.824 Y39.44
X89.173 Y39.645
X89.515 Y39.885
X89.907 Y40.211
X90.285 Y40.58
X90.698 Y41.052
X91.124 Y41.628
X91.542 Y42.301
X91.948 Y43.088
X92.293 Y43.904
X92.585 Y44.741
X92.828 Y45.593
X93.029 Y46.456
X93.191 Y47.328
X93.318 Y48.205
X93.413 Y49.086
X93.477 Y49.969
X93.512 Y50.855
X93.521 Y51.741
X93.504 Y52.627
X93.462 Y53.512
X93.397 Y54.396
X93.309 Y55.277
X93.199 Y56.157
X93.068 Y57.033
X92.917 Y57.906
X92.746 Y58.776
X92.556 Y59.641
X92.347 Y60.502
X92.118 Y61.358
X91.864 Y62.207
X91.635 Y62.827
X91.498 Y63.059
X91.32 Y63.261
X91.107 Y63.425
X90.866 Y63.545
X90.606 Y63.617
X88.015 Y64.07
G3 X87.333 Y63.494 I-0.083 J-0.594
G1 X86.615 Y39.618
G3 X87.194 Y39 I0.6 J-0.018
G1 X89.409
X89.724 Y39.016
X89.953 Y39.046
X90.194 Y39.097
X90.461 Y39.177
X90.761 Y39.294
X91.065 Y39.442
X91.417 Y39.649
X91.759 Y39.889
X92.154 Y40.217
X92.533 Y40.587
X92.949 Y41.063
X93.378 Y41.643
X93.8 Y42.322
X94.207 Y43.11
X94.552 Y43.926
X94.845 Y44.762
X95.09 Y45.613
X95.294 Y46.476
X95.459 Y47.346
X95.59 Y48.223
X95.689 Y49.103
X95.758 Y49.987
X95.8 Y50.872
X95.814 Y51.758
X95.804 Y52.644
X95.77 Y53.529
X95.713 Y54.414
X95.634 Y55.296
X95.533 Y56.177
X95.412 Y57.054
X95.271 Y57.929
X95.111 Y58.801
X94.932 Y59.669
X94.734 Y60.532
X94.511 Y61.39
X94.289 Y62.097
X94.2 Y62.318
X94.068 Y62.568
X93.888 Y62.787
X93.668 Y62.965
X93.416 Y63.096
X93.143 Y63.173
X90.606 Y63.617
G3 X89.924 Y63.05 I-0.083 J-0.594
G1 X88.83 Y39.628
G3 X89.409 Y39 I0.599 J-0.028
G1 X91.825
X91.975 Y39.007
X92.208 Y39.04
X92.451 Y39.094
X92.723 Y39.177
X93.025 Y39.297
X93.334 Y39.45
X93.689 Y39.662
X94.036 Y39.909
X94.434 Y40.244
X94.819 Y40.625
X95.236 Y41.111
X95.671 Y41.707
X96.102 Y42.41
X96.503 Y43.201
X96.844 Y44.018
X97.134 Y44.856
X97.377 Y45.708
X97.58 Y46.571
X97.745 Y47.441
X97.876 Y48.318
X97.977 Y49.198
X98.048 Y50.081
X98.092 Y50.966
X98.11 Y51.852
X98.104 Y52.738
X98.075 Y53.624
X98.024 Y54.509
X97.951 Y55.392
X97.858 Y56.273
X97.744 Y57.152
X97.611 Y58.028
X97.459 Y58.901
X97.287 Y59.77
X97.091 Y60.634
X96.874 Y61.434
X96.732 Y61.828
X96.604 Y62.093
X96.423 Y62.325
X96.198 Y62.514
X95.939 Y62.652
X95.656 Y62.733
X93.143 Y63.173
G3 X92.461 Y62.61 I-0.083 J-0.594
G1 X91.247 Y39.631
G3 X91.825 Y39 I0.599 J-0.032
G1 X94.04
X94.21 Y39.008
X94.435 Y39.038
X94.685 Y39.091
X94.948 Y39.17
X95.254 Y39.29
X95.558 Y39.437
X95.91 Y39.644
X96.261 Y39.891
X96.654 Y40.217
X97.042 Y40.595
X97.466 Y41.082
X97.894 Y41.659
X98.326 Y42.354
X98.732 Y43.141
X99.079 Y43.957
X99.375 Y44.792
X99.624 Y45.642
X99.833 Y46.503
X100.005 Y47.373
X100.143 Y48.248
X100.251 Y49.127
X100.329 Y50.01
X100.381 Y50.895
X100.408 Y51.78
X100.411 Y52.667
X100.39 Y53.552
X100.348 Y54.438
X100.284 Y55.321
X100.2 Y56.204
X100.097 Y57.084
X99.975 Y57.961
X99.832 Y58.836
X99.667 Y59.706
X99.472 Y60.571
X99.287 Y61.2
X99.203 Y61.42
X99.073 Y61.677
X98.892 Y61.902
X98.67 Y62.086
X98.414 Y62.22
X98.137 Y62.298
X95.656 Y62.733
G3 X94.975 Y62.179 I-0.083 J-0.594
G1 X93.463 Y39.64
G3 X94.04 Y39 I0.599 J-0.04
G1 X96.256
X96.462 Y39.01
X96.691 Y39.04
X96.937 Y39.093
X97.205 Y39.173
X97.509 Y39.292
X97.815 Y39.44
X98.17 Y39.649
X98.517 Y39.893
X98.915 Y40.224
X99.301 Y40.6
X99.725 Y41.085
X100.162 Y41.677
X100.597 Y42.376
X101.003 Y43.163
X101.351 Y43.978
X101.648 Y44.813
X101.899 Y45.663
X102.11 Y46.524
X102.284 Y47.392
X102.426 Y48.267
X102.537 Y49.146
X102.619 Y50.029
X102.676 Y50.913
X102.708 Y51.798
X102.716 Y52.685
X102.701 Y53.571
X102.666 Y54.456
X102.609 Y55.34
X102.533 Y56.223
X102.437 Y57.104
X102.321 Y57.982
X102.182 Y58.858
X102.016 Y59.728
X101.83 Y60.491
X101.686 Y60.928
X101.561 Y61.202
X101.381 Y61.443
X101.153 Y61.64
X100.888 Y61.784
X100.598 Y61.867
X98.137 Y62.298
G3 X97.456 Y61.752 I-0.083 J-0.594
G1 X95.678 Y39.648
G3 X96.256 Y39 I0.598 J-0.048
G1 X98.471
X98.719 Y39.012
X98.948 Y39.042
X99.195 Y39.095
X99.462 Y39.175
X99.769 Y39.295
X100.074 Y39.443
X100.431 Y39.653
X100.78 Y39.898
X101.179 Y40.229
X101.567 Y40.608
X101.993 Y41.096
X102.433 Y41.69
X102.871 Y42.395
X103.277 Y43.182
X103.626 Y43.997
X103.923 Y44.832
X104.176 Y45.681
X104.389 Y46.541
X104.566 Y47.409
X104.711 Y48.284
X104.825 Y49.162
X104.912 Y50.044
X104.973 Y50.928
X105.009 Y51.814
X105.022 Y52.7
X105.014 Y53.586
X104.984 Y54.471
X104.934 Y55.356
X104.864 Y56.239
X104.774 Y57.121
X104.662 Y58
X104.523 Y58.875
X104.349 Y59.744
X104.184 Y60.337
X104.108 Y60.544
X103.979 Y60.806
X103.799 Y61.036
X103.574 Y61.224
X103.316 Y61.361
X103.035 Y61.441
X100.598 Y61.867
G3 X99.918 Y61.329 I-0.083 J-0.594
G1 X97.894 Y39.655
G3 X98.471 Y39 I0.597 J-0.056
G1 X100.686
X100.98 Y39.015
X101.209 Y39.045
X101.457 Y39.098
X101.724 Y39.178
X102.032 Y39.298
X102.338 Y39.446
X102.696 Y39.657
X103.047 Y39.903
X103.447 Y40.235
X103.836 Y40.616
X104.264 Y41.106
X104.706 Y41.704
X105.148 Y42.413
X105.554 Y43.201
X105.903 Y44.015
X106.202 Y44.85
X106.456 Y45.698
X106.671 Y46.558
X106.851 Y47.426
X106.998 Y48.3
X107.116 Y49.178
X107.206 Y50.059
X107.271 Y50.943
X107.312 Y51.828
X107.331 Y52.714
X107.327 Y53.6
X107.304 Y54.486
X107.259 Y55.371
X107.194 Y56.255
X107.107 Y57.137
X106.995 Y58.016
X106.851 Y58.89
X106.688 Y59.613
X106.523 Y60.143
X106.516 Y60.16
X106.384 Y60.411
X106.204 Y60.631
X105.983 Y60.809
X105.732 Y60.94
X105.459 Y61.017
X103.035 Y61.441
G3 X102.355 Y60.91 I-0.083 J-0.594
G1 X100.11 Y39.663
G3 X100.686 Y39 I0.597 J-0.063
G1 X103.102
X103.252 Y39.007
X103.484 Y39.039
X103.735 Y39.095
X104.006 Y39.178
X104.317 Y39.301
X104.627 Y39.454
X104.988 Y39.67
X105.342 Y39.922
X105.746 Y40.262
X106.139 Y40.651
X106.57 Y41.15
X107.017 Y41.763
X107.467 Y42.496
X107.868 Y43.286
X108.213 Y44.102
X108.508 Y44.938
X108.76 Y45.787
X108.974 Y46.647
X109.153 Y47.515
X109.3 Y48.389
X109.419 Y49.267
X109.51 Y50.148
X109.577 Y51.032
X109.62 Y51.917
X109.641 Y52.803
Y53.689
X109.62 Y54.575
X109.578 Y55.46
X109.514 Y56.344
X109.426 Y57.226
X109.308 Y58.104
X109.154 Y58.936
X109.005 Y59.493
X108.935 Y59.688
X108.807 Y59.954
X108.627 Y60.187
X108.401 Y60.377
X108.141 Y60.515
X107.858 Y60.597
X105.459 Y61.017
G3 X104.779 Y60.487 I-0.083 J-0.594
G1 X102.527 Y39.664
G3 X103.102 Y39 I0.597 J-0.065
G1 X105.318
X105.51 Y39.01
X105.735 Y39.039
X105.991 Y39.094
X106.254 Y39.173
X106.564 Y39.293
X106.874 Y39.444
X107.226 Y39.651
X107.59 Y39.907
X107.984 Y40.234
X108.385 Y40.625
X108.82 Y41.124
X109.259 Y41.718
X109.709 Y42.44
X110.115 Y43.227
X110.465 Y44.041
X110.766 Y44.875
X111.024 Y45.723
X111.243 Y46.581
X111.427 Y47.448
X111.58 Y48.321
X111.704 Y49.198
X111.802 Y50.079
X111.875 Y50.962
X111.924 Y51.847
X111.951 Y52.733
X111.957 Y53.619
X111.942 Y54.505
X111.904 Y55.39
X111.843 Y56.274
X111.754 Y57.156
X111.629 Y58.033
X111.484 Y58.733
X111.33 Y59.255
X111.313 Y59.301
X111.182 Y59.558
X111.002 Y59.783
X110.78 Y59.966
X110.524 Y60.1
X110.247 Y60.178
X107.858 Y60.597
G3 X107.179 Y60.073 I-0.083 J-0.594
G1 X104.743 Y39.671
G3 X105.318 Y39 I0.596 J-0.071
G1 X107.533
X107.781 Y39.012
X108.01 Y39.042
X108.263 Y39.097
X108.53 Y39.177
X108.841 Y39.298
X109.149 Y39.447
X109.507 Y39.658
X109.864 Y39.909
X110.265 Y40.242
X110.662 Y40.629
X111.096 Y41.126
X111.545 Y41.733
X111.997 Y42.459
X112.403 Y43.247
X112.754 Y44.061
X113.055 Y44.894
X113.314 Y45.741
X113.535 Y46.6
X113.721 Y47.466
X113.876 Y48.338
X114.003 Y49.215
X114.103 Y50.096
X114.179 Y50.979
X114.232 Y51.863
X114.262 Y52.749
X114.271 Y53.635
X114.258 Y54.521
X114.221 Y55.406
X114.158 Y56.29
X114.062 Y57.171
X113.928 Y58.001
X113.791 Y58.564
X113.704 Y58.825
X113.579 Y59.099
X113.399 Y59.34
X113.171 Y59.536
X112.906 Y59.68
X112.617 Y59.763
X110.247 Y60.178
G3 X109.569 Y59.662 I-0.083 J-0.594
G1 X106.959 Y39.677
G3 X107.533 Y39 I0.595 J-0.078
G1 X109.748
X110.058 Y39.016
X110.286 Y39.046
X110.539 Y39.1
X110.806 Y39.18
X111.118 Y39.301
X111.427 Y39.451
X111.785 Y39.662
X112.145 Y39.915
X112.546 Y40.247
X112.945 Y40.637
X113.381 Y41.136
X113.832 Y41.746
X114.286 Y42.476
X114.693 Y43.264
X115.043 Y44.077
X115.346 Y44.91
X115.606 Y45.757
X115.828 Y46.615
X116.016 Y47.481
X116.174 Y48.353
X116.303 Y49.23
X116.406 Y50.11
X116.485 Y50.992
X116.54 Y51.877
X116.573 Y52.762
X116.584 Y53.648
X116.571 Y54.534
X116.533 Y55.42
X116.464 Y56.303
X116.356 Y57.183
X116.222 Y57.868
X116.077 Y58.387
X116.052 Y58.455
X115.923 Y58.717
X115.743 Y58.946
X115.519 Y59.133
X115.261 Y59.27
X114.98 Y59.35
X112.617 Y59.763
G3 X111.94 Y59.253 I-0.083 J-0.594
G1 X109.175 Y39.684
G3 X109.748 Y39 I0.594 J-0.084
G1 X112.164
X112.327 Y39.008
X112.556 Y39.038
X112.812 Y39.093
X113.079 Y39.173
X113.392 Y39.295
X113.703 Y39.446
X114.061 Y39.657
X114.424 Y39.912
X114.825 Y40.245
X115.228 Y40.637
X115.666 Y41.14
X116.119 Y41.752
X116.577 Y42.487
X116.983 Y43.275
X117.334 Y44.088
X117.638 Y44.921
X117.899 Y45.768
X118.123 Y46.625
X118.313 Y47.491
X118.473 Y48.362
X118.604 Y49.238
X118.71 Y50.118
X118.791 Y51.001
X118.849 Y51.885
X118.883 Y52.77
X118.894 Y53.656
X118.881 Y54.542
X118.838 Y55.428
X118.759 Y56.31
X118.642 Y57.119
X118.515 Y57.681
X118.421 Y57.979
X118.298 Y58.259
X118.118 Y58.505
X117.888 Y58.707
X117.62 Y58.854
X117.327 Y58.939
X114.98 Y59.35
G3 X114.303 Y58.84 I-0.083 J-0.594
G1 X111.591 Y39.684
G3 X112.164 Y39 I0.594 J-0.084
G1 X114.379
X114.613 Y39.012
X114.842 Y39.042
X115.097 Y39.096
X115.364 Y39.176
X115.677 Y39.298
X115.988 Y39.449
X116.347 Y39.66
X116.711 Y39.916
X117.112 Y40.249
X117.516 Y40.643
X117.956 Y41.147
X118.41 Y41.762
X118.871 Y42.502
X119.277 Y43.289
X119.629 Y44.103
X119.933 Y44.935
X120.196 Y45.781
X120.421 Y46.638
X120.612 Y47.503
X120.774 Y48.375
X120.907 Y49.251
X121.015 Y50.13
X121.097 Y51.013
X121.156 Y51.897
X121.191 Y52.782
X121.201 Y53.668
X121.184 Y54.554
X121.133 Y55.439
X121.04 Y56.32
X120.918 Y56.998
X120.781 Y57.517
X120.746 Y57.616
X120.618 Y57.883
X120.438 Y58.117
X120.212 Y58.308
X119.951 Y58.448
X119.667 Y58.529
X117.327 Y58.939
G3 X116.651 Y58.435 I-0.083 J-0.594
G1 X113.807 Y39.69
G3 X114.379 Y39 I0.593 J-0.09
G1 X116.595
X116.899 Y39.015
X117.128 Y39.045
X117.384 Y39.1
X117.651 Y39.18
X117.965 Y39.302
X118.276 Y39.453
X118.635 Y39.664
X119.001 Y39.922
X119.402 Y40.255
X119.807 Y40.65
X120.249 Y41.156
X120.705 Y41.772
X121.168 Y42.516
X121.574 Y43.304
X121.926 Y44.117
X122.231 Y44.949
X122.494 Y45.795
X122.721 Y46.652
X122.914 Y47.517
X123.076 Y48.388
X123.211 Y49.264
X123.32 Y50.143
X123.403 Y51.025
X123.462 Y51.909
X123.496 Y52.795
X123.503 Y53.681
X123.479 Y54.567
X123.416 Y55.451
X123.313 Y56.247
X123.194 Y56.809
X123.095 Y57.142
X122.974 Y57.427
X122.794 Y57.679
X122.562 Y57.885
X122.291 Y58.035
X121.994 Y58.122
X119.667 Y58.529
G3 X118.992 Y58.031 I-0.083 J-0.594
G1 X116.023 Y39.696
G3 X116.595 Y39 I0.592 J-0.096
G1 X119.011
X119.178 Y39.008
X119.407 Y39.038
X119.666 Y39.094
X119.933 Y39.174
X120.247 Y39.296
X120.561 Y39.448
X120.919 Y39.659
X121.289 Y39.919
X121.69 Y40.252
X122.098 Y40.65
X122.542 Y41.158
X122.999 Y41.777
X123.465 Y42.525
X123.871 Y43.313
X124.224 Y44.126
X124.529 Y44.958
X124.793 Y45.804
X125.021 Y46.66
X125.215 Y47.525
X125.379 Y48.395
X125.515 Y49.271
X125.624 Y50.15
X125.707 Y51.033
X125.765 Y51.917
X125.796 Y52.802
X125.798 Y53.689
X125.764 Y54.574
X125.685 Y55.457
X125.573 Y56.133
X125.444 Y56.65
X125.399 Y56.783
X125.274 Y57.056
X125.093 Y57.295
X124.866 Y57.49
X124.602 Y57.633
X124.314 Y57.716
X121.994 Y58.122
G3 X121.319 Y57.623 I-0.083 J-0.594
G1 X118.44 Y39.695
G3 X119.011 Y39 I0.592 J-0.095
G1 X121.226
X121.472 Y39.012
X121.701 Y39.042
X121.959 Y39.098
X122.227 Y39.178
X122.541 Y39.3
X122.855 Y39.452
X123.213 Y39.663
X123.584 Y39.924
X123.985 Y40.256
X124.394 Y40.656
X124.838 Y41.165
X125.297 Y41.786
X125.765 Y42.537
X126.171 Y43.324
X126.524 Y44.137
X126.83 Y44.969
X127.095 Y45.815
X127.323 Y46.671
X127.518 Y47.535
X127.682 Y48.406
X127.818 Y49.282
X127.926 Y50.161
X128.009 Y51.044
X128.064 Y51.928
X128.09 Y52.814
X128.084 Y53.7
X128.036 Y54.585
X127.946 Y55.377
X127.835 Y55.941
X127.73 Y56.312
X127.612 Y56.602
X127.432 Y56.859
X127.199 Y57.07
X126.925 Y57.223
X126.624 Y57.311
X124.314 Y57.716
G3 X123.64 Y57.222 I-0.083 J-0.594
G1 X120.656 Y39.7
G3 X121.226 Y39 I0.591 J-0.101
G1 X123.441
X123.767 Y39.016
X123.996 Y39.046
X124.254 Y39.102
X124.522 Y39.182
X124.836 Y39.304
X125.15 Y39.457
X125.509 Y39.668
X125.88 Y39.929
X126.281 Y40.262
X126.692 Y40.662
X127.137 Y41.172
X127.597 Y41.794
X128.065 Y42.547
X128.472 Y43.334
X128.825 Y44.147
X129.131 Y44.978
X129.396 Y45.824
X129.625 Y46.68
X129.82 Y47.545
X129.984 Y48.415
X130.119 Y49.291
X130.227 Y50.171
X130.307 Y51.053
X130.358 Y51.938
X130.377 Y52.824
X130.36 Y53.71
X130.294 Y54.593
X130.192 Y55.271
X130.071 Y55.788
X130.017 Y55.957
X129.893 Y56.235
X129.713 Y56.479
X129.484 Y56.678
X129.217 Y56.824
X128.925 Y56.908
X126.624 Y57.311
G3 X125.951 Y56.823 I-0.083 J-0.594
G1 X122.872 Y39.706
G3 X123.441 Y39 I0.591 J-0.106
G1 X125.858
X126.054 Y39.01
X126.282 Y39.04
X126.543 Y39.096
X126.81 Y39.176
X127.126 Y39.298
X127.442 Y39.452
X127.8 Y39.663
X128.174 Y39.926
X128.576 Y40.259
X128.988 Y40.661
X129.435 Y41.173
X129.896 Y41.797
X130.364 Y42.549
X130.771 Y43.336
X131.124 Y44.149
X131.431 Y44.98
X131.696 Y45.826
X131.925 Y46.682
X132.12 Y47.546
X132.284 Y48.417
X132.418 Y49.293
X132.523 Y50.173
X132.599 Y51.056
X132.645 Y51.941
X132.656 Y52.827
X132.623 Y53.712
X132.545 Y54.506
X132.441 Y55.075
X132.312 Y55.564
X132.301 Y55.594
X132.174 Y55.861
X131.993 Y56.095
X131.767 Y56.286
X131.507 Y56.425
X131.223 Y56.506
X128.925 Y56.908
G3 X128.252 Y56.419 I-0.083 J-0.594
G1 X125.288 Y39.704
G3 X125.858 Y39 I0.591 J-0.105
G1 X128.073
X128.354 Y39.014
X128.583 Y39.044
X128.843 Y39.1
X129.111 Y39.18
X129.426 Y39.303
X129.742 Y39.456
X130.1 Y39.667
X130.474 Y39.929
X130.875 Y40.263
X131.288 Y40.665
X131.735 Y41.178
X132.197 Y41.802
X132.665 Y42.554
X133.072 Y43.342
X133.425 Y44.154
X133.732 Y44.986
X133.997 Y45.831
X134.225 Y46.687
X134.42 Y47.552
X134.582 Y48.423
X134.714 Y49.299
X134.816 Y50.18
X134.887 Y51.063
X134.925 Y51.948
X134.923 Y52.834
X134.872 Y53.719
X134.785 Y54.386
X134.678 Y54.886
X134.605 Y55.129
X134.484 Y55.414
X134.304 Y55.665
X134.073 Y55.87
X133.802 Y56.02
X133.505 Y56.107
X131.223 Y56.506
G3 X130.55 Y56.022 I-0.083 J-0.594
G1 X127.504 Y39.71
G3 X128.073 Y39 I0.59 J-0.11
G1 X130.489
X130.645 Y39.008
X130.874 Y39.038
X131.136 Y39.094
X131.403 Y39.174
X131.719 Y39.297
X132.036 Y39.451
X132.394 Y39.662
X132.77 Y39.926
X133.172 Y40.259
X133.585 Y40.663
X134.034 Y41.176
X134.496 Y41.801
X134.964 Y42.553
X135.371 Y43.341
X135.724 Y44.153
X136.03 Y44.985
X136.295 Y45.83
X136.523 Y46.687
X136.716 Y47.551
X136.876 Y48.423
X137.005 Y49.3
X137.102 Y50.18
X137.167 Y51.064
X137.195 Y51.95
X137.179 Y52.836
X137.111 Y53.638
X137.016 Y54.213
X136.894 Y54.704
X136.87 Y54.775
X136.744 Y55.047
X136.564 Y55.287
X136.336 Y55.482
X136.073 Y55.625
X135.785 Y55.708
X133.505 Y56.107
G3 X132.832 Y55.62 I-0.083 J-0.594
G1 X129.92 Y39.708
G3 X130.489 Y39 I0.59 J-0.108
G1 X132.705
X132.949 Y39.012
X133.177 Y39.042
X133.438 Y39.098
X133.706 Y39.178
X134.021 Y39.301
X134.338 Y39.455
X134.696 Y39.666
X135.071 Y39.929
X135.473 Y40.262
X135.886 Y40.665
X136.334 Y41.179
X136.795 Y41.803
X137.263 Y42.555
X137.67 Y43.342
X138.023 Y44.155
X138.329 Y44.987
X138.593 Y45.833
X138.819 Y46.689
X139.01 Y47.555
X139.167 Y48.427
X139.292 Y49.304
X139.383 Y50.185
X139.439 Y51.07
X139.455 Y51.956
X139.418 Y52.841
X139.34 Y53.517
X139.241 Y54.021
X139.159 Y54.312
X139.04 Y54.602
X138.86 Y54.859
X138.627 Y55.069
X138.354 Y55.222
X138.053 Y55.311
X135.785 Y55.708
G3 X135.112 Y55.226 I-0.083 J-0.594
G1 X132.136 Y39.713
G3 X132.705 Y39 I0.589 J-0.113
G1 X135.031
X135.245 Y39.011
X135.474 Y39.041
X135.736 Y39.097
X136.003 Y39.177
X136.319 Y39.3
X136.636 Y39.453
X136.994 Y39.664
X137.369 Y39.928
X137.771 Y40.261
X138.184 Y40.664
X138.632 Y41.178
X139.092 Y41.8
X139.56 Y42.552
X139.967 Y43.34
X140.319 Y44.153
X140.624 Y44.985
X140.887 Y45.831
X141.111 Y46.688
X141.299 Y47.554
X141.453 Y48.427
X141.572 Y49.305
X141.656 Y50.187
X141.702 Y51.072
X141.701 Y51.958
X141.646 Y52.768
X141.559 Y53.352
X141.444 Y53.846
X141.407 Y53.964
X141.281 Y54.247
X141.096 Y54.494
X140.861 Y54.696
X140.588 Y54.84
X140.29 Y54.922
X140.156 Y54.943
X138.053 Y55.311
G3 X137.381 Y54.83 I-0.083 J-0.594
G1 X134.462 Y39.713
G3 X135.031 Y39 I0.589 J-0.114
G1 X137.336
X137.544 Y39.01
X137.773 Y39.04
X138.034 Y39.096
X138.302 Y39.176
X138.617 Y39.299
X138.934 Y39.453
X139.292 Y39.664
X139.667 Y39.927
X140.068 Y40.26
X140.481 Y40.663
X140.927 Y41.175
X141.386 Y41.795
X141.853 Y42.544
X142.259 Y43.332
X142.611 Y44.145
X142.915 Y44.977
X143.176 Y45.824
X143.398 Y46.682
X143.583 Y47.548
X143.732 Y48.422
X143.845 Y49.301
X143.92 Y50.184
X143.953 Y51.069
X143.932 Y51.955
X143.865 Y52.643
X143.773 Y53.155
X143.65 Y53.62
X143.58 Y53.82
X143.461 Y54.073
X143.295 Y54.297
X143.087 Y54.484
X142.846 Y54.626
X142.581 Y54.717
X142.304 Y54.754
X142.169 Y54.759
X141.968 Y54.768
X140.961 Y54.834
X140.76 Y54.848
X140.29 Y54.922
G3 X139.629 Y54.441 I-0.072 J-0.596
G1 X136.768 Y39.714
G3 X137.336 Y39 I0.589 J-0.114
G1 X139.551
X139.846 Y39.015
X140.075 Y39.045
X140.335 Y39.1
X140.603 Y39.181
X140.918 Y39.303
X141.233 Y39.456
X141.592 Y39.667
X141.965 Y39.929
X142.366 Y40.262
X142.776 Y40.663
X143.221 Y41.173
X143.678 Y41.791
X144.141 Y42.534
X144.547 Y43.322
X144.899 Y44.135
X145.202 Y44.968
X145.461 Y45.815
X145.68 Y46.674
X145.861 Y47.541
X146.004 Y48.416
X146.109 Y49.296
X146.174 Y50.179
X146.191 Y51.065
X146.147 Y51.95
X146.06 Y52.616
X145.953 Y53.121
X145.934 Y53.182
X145.825 Y53.446
X145.665 Y53.682
X145.459 Y53.881
X145.218 Y54.034
X143.78 Y54.752
X143.68 Y54.798
X143.579 Y54.826
X143.478 Y54.836
X143.378 Y54.83
X143.217 Y54.808
G3 X142.737 Y54.366 I0.101 J-0.591
G1 X142.713 Y54.274
X138.991 Y39.749
G3 X139.551 Y39 I0.581 J-0.149
G1 X141.968
X142.136 Y39.008
X142.365 Y39.038
X142.626 Y39.094
X142.893 Y39.174
X143.208 Y39.297
X143.524 Y39.45
X143.883 Y39.661
X144.255 Y39.923
X144.656 Y40.256
X145.066 Y40.655
X145.51 Y41.164
X145.964 Y41.779
X146.423 Y42.516
X146.829 Y43.304
X147.18 Y44.117
X147.482 Y44.951
X147.739 Y45.799
X147.954 Y46.658
X148.131 Y47.527
X148.268 Y48.402
X148.364 Y49.283
X148.417 Y50.167
X148.418 Y51.054
X148.369 Y51.761
X148.363 Y51.799
X148.298 Y52.058
X148.185 Y52.301
X148.027 Y52.518
X147.831 Y52.7
X147.604 Y52.842
X145.218 Y54.034
G3 X144.383 Y53.614 I-0.249 J-0.546
G1 X141.402 Y39.726
G3 X141.968 Y39 I0.587 J-0.126
G1 X144.183
X144.435 Y39.013
X144.664 Y39.043
X144.923 Y39.098
X145.191 Y39.178
X145.505 Y39.301
X145.819 Y39.453
X146.177 Y39.664
X146.546 Y39.923
X146.947 Y40.256
X147.354 Y40.652
X147.795 Y41.158
X148.247 Y41.769
X148.701 Y42.498
X148.844 Y42.776
X148.93 Y42.981
X148.982 Y43.197
X149 Y43.418
G3 X147.998 Y43.842 I-0.6 J-0.021
G1 X143.801 Y40.045
G3 X144.183 Y39 I0.403 J-0.445
G1 X146.6
X146.749 Y39.007
X146.984 Y39.041
X147.243 Y39.099
X147.517 Y39.185
X147.835 Y39.313
X148.15 Y39.47
X148.324 Y39.575
X148.553 Y39.748
X148.742 Y39.964
X148.883 Y40.215
X148.971 Y40.488
X149 Y40.774
G3 X148.074 Y41.256 I-0.6 J-0.021
G1 X146.294 Y40.103
G3 X146.6 Y39 I0.326 J-0.504
G1 X148.211
X148.412 Y39.001
X148.513 Y39.015
X148.563 Y39.029
X148.613 Y39.047
X148.697 Y39.091
X148.782 Y39.151
X148.815 Y39.18
X148.855 Y39.223
X148.889 Y39.266
X148.94 Y39.352
X148.961 Y39.402
X148.978 Y39.452
X148.997 Y39.553
X149 Y39.754
Y51.621
X148.997 Y51.822
X148.979 Y51.923
X148.963 Y51.973
X148.942 Y52.023
X148.891 Y52.111
X148.856 Y52.155
X148.815 Y52.2
X148.788 Y52.224
X148.7 Y52.291
X148.613 Y52.338
X147.604 Y52.842
X147.204 Y52.877
X146.863 Y52.701
X144.787 Y51.632
G2 X143.579 Y51.315 I-1.218 J2.183
G1 X42.69 Y47.873
X-107.668 Y54.489
X-108.453 Y54.523
X-109.752
X-109.908 Y54.515
X-110.057 Y54.496
X-110.213 Y54.461
X-110.373 Y54.412
X-110.549 Y54.342
X-110.728 Y54.254
X-110.919 Y54.14
X-111.114 Y54
X-111.31 Y53.834
X-111.514 Y53.633
X-111.707 Y53.409
X-111.902 Y53.14
X-112.087 Y52.838
X-112.258 Y52.501
X-112.417 Y52.112
X-112.549 Y51.696
X-112.656 Y51.235
X-112.734 Y50.711
X-112.771 Y50.162
X-112.763 Y49.574
X-112.702 Y48.927
X-112.579 Y48.228
X-112.397 Y47.525
X-112.135 Y46.773
X-111.785 Y45.978
X-111.364 Y45.199
X-110.885 Y44.453
X-110.354 Y43.744
X-109.776 Y43.072
X-109.157 Y42.439
X-108.5 Y41.843
X-107.813 Y41.284
X-107.097 Y40.762
X-106.357 Y40.274
X-105.596 Y39.821
X-104.815 Y39.401
X-104.019 Y39.012
X-103.208 Y38.655
X-102.385 Y38.327
X-101.55 Y38.029
X-100.707 Y37.758
X-99.855 Y37.514
X-98.996 Y37.294
X-98.132 Y37.098
X-97.264 Y36.924
X-96.391 Y36.771
X-95.515 Y36.637
X-94.636 Y36.522
X-93.755 Y36.425
X-92.873 Y36.344
X-91.989 Y36.278
X-91.105 Y36.226
X-90.219 Y36.188
X-89.334 Y36.162
X-88.448 Y36.147
X-87.561 Y36.143
X-86.675 Y36.148
X-85.789 Y36.162
X-84.903 Y36.183
X-84.018 Y36.212
X-83.132 Y36.247
X-82.247 Y36.287
X-81.362 Y36.332
X-80.477 Y36.382
X-79.593 Y36.435
X-78.709 Y36.491
X-77.824 Y36.55
X-76.94 Y36.611
X-75.173 Y36.735
X-72.521 Y36.925
X-71.637 Y36.987
X-70.753 Y37.048
X-69.869 Y37.107
X-68.985 Y37.164
X-68.1 Y37.218
X-67.215 Y37.269
X-66.33 Y37.316
X-65.445 Y37.358
X-64.56 Y37.395
X-63.674 Y37.426
X-62.789 Y37.45
X-61.903 Y37.467
X-61.017 Y37.477
X-60.13 Y37.479
X-59.244 Y37.473
X-58.358 Y37.459
X-57.473 Y37.437
X-56.587 Y37.407
X-55.701 Y37.371
X-54.816 Y37.328
X-53.932 Y37.279
X-53.047 Y37.224
X-52.163 Y37.165
X-51.279 Y37.103
X-50.395 Y37.037
X-49.512 Y36.969
X-47.745 Y36.828
X-45.979 Y36.687
X-45.095 Y36.617
X-44.212 Y36.548
X-43.328 Y36.481
X-42.445 Y36.415
X-41.561 Y36.352
X-40.677 Y36.291
X-39.793 Y36.233
X-38.908 Y36.177
X-38.024 Y36.125
X-37.139 Y36.074
X-36.254 Y36.027
X-35.369 Y35.982
X-34.484 Y35.939
X-33.599 Y35.899
X-32.713 Y35.861
X-31.828 Y35.824
X-30.943 Y35.79
X-30.057 Y35.757
X-29.172 Y35.725
X-27.4 Y35.664
X-24.743 Y35.576
X-22.087 Y35.488
X-20.315 Y35.425
X-19.43 Y35.393
X-18.544 Y35.359
X-17.659 Y35.324
X-16.774 Y35.288
X-15.888 Y35.25
X-15.003 Y35.211
X-14.118 Y35.17
X-13.233 Y35.128
X-12.348 Y35.085
X-11.463 Y35.039
X-10.578 Y34.993
X-9.693 Y34.944
X-8.808 Y34.894
X-7.924 Y34.843
X-7.039 Y34.79
X-6.155 Y34.735
X-5.27 Y34.679
X-4.386 Y34.622
X-3.502 Y34.563
X-2.618 Y34.503
X-1.734 Y34.441
X-0.85 Y34.378
X0.034 Y34.313
X0.917 Y34.247
X1.801 Y34.18
X2.685 Y34.112
X4.451 Y33.973
X6.218 Y33.831
X9.751 Y33.543
X10.634 Y33.473
X11.517 Y33.403
X12.401 Y33.335
X13.285 Y33.269
X14.168 Y33.206
X15.052 Y33.146
X15.937 Y33.09
X16.821 Y33.038
X17.706 Y32.991
X18.591 Y32.95
X19.477 Y32.915
X20.363 Y32.887
X21.248 Y32.868
X22.135 Y32.858
X23.021 Y32.857
X23.907 Y32.867
X24.793 Y32.889
X25.678 Y32.924
X26.563 Y32.973
X27.447 Y33.037
X28.329 Y33.119
X29.209 Y33.22
X30.087 Y33.341
X30.962 Y33.484
X31.832 Y33.651
X32.697 Y33.842
X32.986 Y33.914
X33.287 Y34.028
X33.553 Y34.207
X33.772 Y34.442
X33.931 Y34.721
X34.037 Y34.927
X34.156 Y35.128
X34.293 Y35.329
X34.446 Y35.53
X35.065 Y36.335
X35.239 Y36.542
X35.444 Y36.737
X35.673 Y36.938
X35.843 Y37.073
X36.246 Y37.382
X36.447 Y37.534
G3 X36.044 Y38.599 I-0.378 J0.466
G1 X-108.971 Y54.438
X-109.752 Y54.523
X-111.363
X-111.513 Y54.516
X-111.677 Y54.488
X-111.847 Y54.446
X-112.038 Y54.382
X-112.229 Y54.299
X-112.442 Y54.187
X-112.652 Y54.053
X-112.876 Y53.884
X-113.098 Y53.686
X-113.322 Y53.452
X-113.55 Y53.172
X-113.761 Y52.865
