(1001)
G90 G94
G17
G21
(When using Fusion 360 for Personal Use, the feedrate of)
(rapid moves is reduced to match the feedrate of cutting)
(moves, which can increase machining time. Unrestricted rapid)
(moves are available with a Fusion 360 Subscription.)

(2D-Kontur2)
S4000 M3
G54
G0 X114.631 Y47.244
Z5
G1 Z3 F1000
Z-5.4 F333.3
X114.624 Y47.242 Z-5.494 F1000
X114.603 Y47.236 Z-5.585
X114.569 Y47.225 Z-5.672
X114.522 Y47.21 Z-5.753
X114.463 Y47.192 Z-5.824
X114.395 Y47.17 Z-5.885
X114.318 Y47.146 Z-5.935
X114.235 Y47.12 Z-5.971
X114.148 Y47.093 Z-5.993
X114.058 Y47.065 Z-6
X113.486 Y46.885
G3 X113.093 Y46.133 I0.18 J-0.573
G1 X119.353 Y26.174
X120.066 Y23.901
G3 X120.819 Y23.508 I0.573 J0.18
G1 X121.391 Y23.687
X121.481 Y23.715 Z-5.993
X121.568 Y23.743 Z-5.971
X121.651 Y23.769 Z-5.935
X121.728 Y23.793 Z-5.885
X121.796 Y23.814 Z-5.824
X121.854 Y23.833 Z-5.753
X121.901 Y23.847 Z-5.672
X121.936 Y23.858 Z-5.585
X121.956 Y23.865 Z-5.494
X121.964 Y23.867 Z-5.4
Z3
X119.321 Y24.272
Z-5.4 F333.3
X119.328 Y24.274 Z-5.494 F1000
X119.349 Y24.281 Z-5.585
X119.384 Y24.292 Z-5.672
X119.431 Y24.306 Z-5.753
X119.489 Y24.325 Z-5.824
X119.557 Y24.346 Z-5.885
X119.634 Y24.37 Z-5.935
X119.717 Y24.396 Z-5.971
X119.804 Y24.424 Z-5.993
X119.894 Y24.452 Z-6
X120.466 Y24.631
G3 X120.859 Y25.383 I-0.18 J0.572
G1 X120.853 Y25.405
X114.599 Y45.344
G2 X116.609 Y49.118 I2.862 J0.898
G1 X116.845 Y49.188
X116.993 Y49.238
X117.372 Y49.39
X117.787 Y49.582
X118.014 Y49.694
X118.278 Y49.827
X118.566 Y49.973
X118.573 Y49.977
X118.882 Y50.132
X118.897 Y50.14
X119.226 Y50.303
X119.24 Y50.31
X119.589 Y50.481
X119.61 Y50.492
X119.982 Y50.671
X119.996 Y50.677
X120.39 Y50.864
X120.401 Y50.869
X120.816 Y51.064
X120.828 Y51.07
X121.265 Y51.273
X121.271 Y51.276
X121.728 Y51.486
X122.199 Y51.704
X122.683 Y51.928
X123.175 Y52.158
X123.675 Y52.394
X124.173 Y52.634
X125.195 Y53.139
X126.213 Y53.666
X127.225 Y54.215
X128.23 Y54.787
X129.227 Y55.378
X131.258 Y56.622
X132.28 Y57.25
X132.308 Y57.266
X133.343 Y57.887
X133.391 Y57.916
X134.445 Y58.521
X134.499 Y58.552
X135.038 Y58.847
X135.079 Y58.869
X135.626 Y59.158
X135.676 Y59.184
X136.235 Y59.465
X136.291 Y59.493
X136.863 Y59.766
X136.925 Y59.795
X137.512 Y60.059
X137.575 Y60.087
X138.177 Y60.341
X138.249 Y60.371
X138.87 Y60.615
X138.943 Y60.643
X139.584 Y60.875
X139.66 Y60.902
X140.322 Y61.122
X140.4 Y61.147
X141.085 Y61.355
X141.164 Y61.378
X141.874 Y61.572
X141.954 Y61.592
X142.691 Y61.772
X142.769 Y61.79
X143.533 Y61.955
X143.612 Y61.971
X144.406 Y62.12
X144.482 Y62.133
X145.307 Y62.267
X145.381 Y62.277
X146.237 Y62.394
X146.308 Y62.403
X147.197 Y62.502
X147.265 Y62.509
X148.188 Y62.591
X148.253 Y62.596
X149.211 Y62.66
X149.258 Y62.663
X149.751 Y62.688
X149.78 Y62.689
X150.281 Y62.71
X150.31 Y62.711
X150.82 Y62.727
X150.849 Y62.728
X151.368 Y62.739
X151.395 Y62.74
X151.924 Y62.747
X151.95
X152.487 Y62.749
G3 X153.085 Y63.352 I-0.003 J0.6
G1 X153.082 Y63.952
Y64.046 Z-5.993
X153.081 Y64.137 Z-5.971
Y64.224 Z-5.935
X153.08 Y64.304 Z-5.885
Y64.376 Z-5.824
Y64.437 Z-5.753
Y64.486 Z-5.672
Y64.522 Z-5.585
X153.079 Y64.544 Z-5.494
Y64.552 Z-5.4
Z3
X137.39 Y68.089
Z-5.4 F333.3
X137.387 Y68.082 Z-5.494 F1000
X137.379 Y68.062 Z-5.585
X137.365 Y68.028 Z-5.672
X137.346 Y67.983 Z-5.753
X137.323 Y67.926 Z-5.824
X137.295 Y67.86 Z-5.885
X137.264 Y67.786 Z-5.935
X137.231 Y67.706 Z-5.971
X137.196 Y67.621 Z-5.993
X137.16 Y67.535 Z-6
X136.93 Y66.981
G3 X137.253 Y66.196 I0.554 J-0.23
G1 X137.317 Y66.17
G2 X138.175 Y65.627 I-1.151 J-2.77
G1 X138.227 Y65.58
G2 X138.881 Y64.734 I-2.009 J-2.228
G1 X138.913 Y64.672
G2 X139.225 Y63.679 I-2.663 J-1.381
G1 X139.234 Y63.61
G2 X139.189 Y62.576 I-2.975 J-0.388
G1 X139.174 Y62.508
G2 X138.781 Y61.552 I-2.93 J0.646
G1 X138.744 Y61.494
G2 X138.015 Y60.701 I-2.537 J1.602
G1 X137.959 Y60.659
G2 X137.049 Y60.19 I-1.808 J2.394
G1 X136.983 Y60.17
G2 X136.531 Y60.065 I-0.898 J2.863
G1 X136.164 Y60.01
X135.868 Y59.953
X135.579 Y59.884
X135.296 Y59.804
X135.014 Y59.712
X134.73 Y59.607
X134.446 Y59.49
X134.159 Y59.361
X133.865 Y59.217
X133.579 Y59.068
X132.944 Y58.709
X132.294 Y58.312
X131.61 Y57.875
X130.893 Y57.408
X130.886 Y57.404
X130.148 Y56.927
X130.115 Y56.906
X129.36 Y56.432
X129.311 Y56.401
X128.538 Y55.936
X128.475 Y55.899
X127.683 Y55.448
X127.616 Y55.412
X126.809 Y54.979
X126.744 Y54.945
X125.927 Y54.533
X125.87 Y54.504
X125.05 Y54.112
X125.008 Y54.093
X124.195 Y53.719
X124.177 Y53.71
X123.383 Y53.352
X122.625 Y53.009
X121.905 Y52.68
X121.216 Y52.361
X120.552 Y52.052
X120.539 Y52.046
X119.896 Y51.75
X119.86 Y51.734
X119.234 Y51.455
X119.17 Y51.428
X118.552 Y51.17
X118.456 Y51.132
X117.837 Y50.899
X117.709 Y50.854
X117.078 Y50.648
X116.967 Y50.614
X116.645 Y50.523
X116.559 Y50.5
X116.229 Y50.417
X116.143 Y50.396
X115.806 Y50.322
X115.717 Y50.304
X115.371 Y50.238
X115.279 Y50.222
X114.923 Y50.166
X114.832 Y50.153
X114.465 Y50.107
X114.376 Y50.097
X113.997 Y50.061
X113.911 Y50.054
X113.52 Y50.028
X113.437 Y50.023
X113.034 Y50.008
X112.955 Y50.006
X112.538 Y50
G3 X111.946 Y49.393 I0.008 J-0.6
G1 X111.953 Y48.793
X111.955 Y48.699 Z-5.993
X111.956 Y48.607 Z-5.971
X111.957 Y48.52 Z-5.935
X111.958 Y48.44 Z-5.885
X111.959 Y48.368 Z-5.824
X111.96 Y48.307 Z-5.753
Y48.258 Z-5.672
X111.961 Y48.222 Z-5.585
Y48.2 Z-5.494
Y48.193 Z-5.4
Z3
X121.964 Y-23.867
Z-5.4 F333.3
X121.956 Y-23.865 Z-5.494 F1000
X121.936 Y-23.858 Z-5.585
X121.901 Y-23.847 Z-5.672
X121.854 Y-23.833 Z-5.753
X121.796 Y-23.814 Z-5.824
X121.728 Y-23.793 Z-5.885
X121.651 Y-23.769 Z-5.935
X121.568 Y-23.743 Z-5.971
X121.481 Y-23.715 Z-5.993
X121.391 Y-23.687 Z-6
X120.819 Y-23.508
G3 X120.066 Y-23.901 I-0.18 J-0.572
G1 X113.093 Y-46.133
G3 X113.486 Y-46.885 I0.573 J-0.18
G1 X114.058 Y-47.065
X114.148 Y-47.093 Z-5.993
X114.235 Y-47.12 Z-5.971
X114.318 Y-47.146 Z-5.935
X114.395 Y-47.17 Z-5.885
X114.463 Y-47.192 Z-5.824
X114.522 Y-47.21 Z-5.753
X114.569 Y-47.225 Z-5.672
X114.603 Y-47.236 Z-5.585
X114.624 Y-47.242 Z-5.494
X114.631 Y-47.244 Z-5.4
Z3
X111.961 Y-48.193
Z-5.4 F333.3
Y-48.2 Z-5.494 F1000
Y-48.222 Z-5.585
X111.96 Y-48.258 Z-5.672
Y-48.307 Z-5.753
X111.959 Y-48.368 Z-5.824
X111.958 Y-48.44 Z-5.885
X111.957 Y-48.52 Z-5.935
X111.956 Y-48.607 Z-5.971
X111.955 Y-48.699 Z-5.993
X111.953 Y-48.793 Z-6
X111.946 Y-49.393
G3 X112.538 Y-50 I0.6 J-0.008
G1 X112.955 Y-50.006
X113.034 Y-50.008
X113.437 Y-50.023
X113.52 Y-50.028
X113.911 Y-50.054
X113.997 Y-50.061
X114.376 Y-50.097
X114.465 Y-50.107
X114.832 Y-50.153
X114.923 Y-50.166
X115.279 Y-50.222
X115.371 Y-50.238
X115.717 Y-50.304
X115.806 Y-50.322
X116.143 Y-50.396
X116.229 Y-50.417
X116.559 Y-50.5
X116.645 Y-50.523
X116.967 Y-50.614
X117.078 Y-50.648
X117.709 Y-50.854
X117.837 Y-50.899
X118.456 Y-51.132
X118.552 Y-51.17
X119.17 Y-51.428
X119.234 Y-51.455
X119.86 Y-51.734
X119.896 Y-51.75
X120.539 Y-52.046
X120.552 Y-52.052
X121.216 Y-52.361
X121.905 Y-52.68
X122.625 Y-53.009
X123.383 Y-53.352
X124.177 Y-53.71
X124.195 Y-53.719
X125.008 Y-54.093
X125.05 Y-54.112
X125.87 Y-54.504
X125.927 Y-54.533
X126.744 Y-54.945
X126.809 Y-54.979
X127.616 Y-55.412
X127.683 Y-55.448
X128.475 Y-55.899
X128.538 Y-55.936
X129.311 Y-56.401
X129.36 Y-56.432
X130.115 Y-56.906
X130.148 Y-56.927
X130.886 Y-57.404
X130.893 Y-57.408
X131.61 Y-57.875
X132.294 Y-58.312
X132.944 Y-58.709
X133.579 Y-59.068
X133.865 Y-59.217
X134.159 Y-59.361
X134.446 Y-59.49
X134.73 Y-59.607
X135.014 Y-59.712
X135.296 Y-59.804
X135.579 Y-59.884
X135.868 Y-59.953
X136.164 Y-60.01
X136.531 Y-60.065
G2 X136.983 Y-60.17 I-0.446 J-2.967
G1 X137.049 Y-60.19
G2 X137.959 Y-60.659 I-0.898 J-2.863
G1 X138.015 Y-60.701
G2 X138.744 Y-61.494 I-1.808 J-2.394
G1 X138.781 Y-61.552
G2 X139.174 Y-62.508 I-2.537 J-1.602
G1 X139.189 Y-62.576
G2 X139.234 Y-63.61 I-2.93 J-0.646
G1 X139.225 Y-63.679
G2 X138.913 Y-64.672 I-2.975 J0.388
G1 X138.881 Y-64.734
G2 X138.227 Y-65.58 I-2.663 J1.381
G1 X138.175 Y-65.627
G2 X137.317 Y-66.17 I-2.009 J2.228
G1 X137.253 Y-66.196
G3 X136.93 Y-66.981 I0.23 J-0.554
G1 X137.16 Y-67.535
X137.196 Y-67.621 Z-5.993
X137.231 Y-67.706 Z-5.971
X137.264 Y-67.786 Z-5.935
X137.295 Y-67.86 Z-5.885
X137.323 Y-67.926 Z-5.824
X137.346 Y-67.983 Z-5.753
X137.365 Y-68.028 Z-5.672
X137.379 Y-68.062 Z-5.585
X137.387 Y-68.082 Z-5.494
X137.39 Y-68.089 Z-5.4
Z3
X153.079 Y-64.552
Z-5.4 F333.3
Y-64.544 Z-5.494 F1000
X153.08 Y-64.522 Z-5.585
Y-64.486 Z-5.672
Y-64.437 Z-5.753
Y-64.376 Z-5.824
Y-64.304 Z-5.885
X153.081 Y-64.224 Z-5.935
Y-64.137 Z-5.971
X153.082 Y-64.046 Z-5.993
Y-63.952 Z-6
X153.085 Y-63.352
G3 X152.487 Y-62.749 I-0.6 J0.003
G1 X151.95 Y-62.747
X151.924
X151.395 Y-62.74
X151.368 Y-62.739
X150.849 Y-62.728
X150.82 Y-62.727
X150.31 Y-62.711
X150.281 Y-62.71
X149.78 Y-62.689
X149.751 Y-62.688
X149.258 Y-62.663
X149.211 Y-62.66
X148.253 Y-62.596
X148.188 Y-62.591
X147.265 Y-62.509
X147.197 Y-62.502
X146.308 Y-62.403
X146.237 Y-62.394
X145.381 Y-62.277
X145.307 Y-62.267
X144.482 Y-62.133
X144.406 Y-62.12
X143.612 Y-61.971
X143.533 Y-61.955
X142.769 Y-61.79
X142.691 Y-61.772
X141.954 Y-61.592
X141.874 Y-61.572
X141.164 Y-61.378
X141.085 Y-61.355
X140.4 Y-61.147
X140.322 Y-61.122
X139.66 Y-60.902
X139.584 Y-60.875
X138.943 Y-60.643
X138.87 Y-60.615
X138.249 Y-60.371
X138.177 Y-60.341
X137.575 Y-60.087
X137.512 Y-60.059
X136.925 Y-59.795
X136.863 Y-59.766
X136.291 Y-59.493
X136.235 Y-59.465
X135.676 Y-59.184
X135.626 Y-59.158
X135.079 Y-58.869
X135.038 Y-58.847
X134.499 Y-58.552
X134.445 Y-58.521
X133.391 Y-57.916
X133.343 Y-57.887
X132.308 Y-57.266
X132.28 Y-57.25
X131.258 Y-56.622
X129.227 Y-55.378
X128.23 Y-54.787
X127.225 Y-54.215
X126.213 Y-53.666
X125.195 Y-53.139
X124.173 Y-52.634
X123.675 Y-52.394
X123.175 Y-52.158
X122.683 Y-51.928
X122.199 Y-51.704
X121.728 Y-51.486
X121.271 Y-51.276
X121.265 Y-51.273
X120.828 Y-51.07
X120.816 Y-51.064
X120.401 Y-50.869
X120.39 Y-50.864
X119.996 Y-50.677
X119.982 Y-50.671
X119.61 Y-50.492
X119.589 Y-50.481
X119.24 Y-50.31
X119.226 Y-50.303
X118.897 Y-50.14
X118.882 Y-50.132
X118.573 Y-49.977
X118.566 Y-49.973
X118.278 Y-49.827
X118.014 Y-49.694
X117.787 Y-49.582
X117.372 Y-49.39
X116.993 Y-49.238
X116.845 Y-49.188
X116.609 Y-49.118
G2 X114.599 Y-45.344 I0.852 J2.876
G1 X120.853 Y-25.405
X120.859 Y-25.383
G3 X120.466 Y-24.631 I-0.573 J0.18
G1 X119.894 Y-24.452
X119.804 Y-24.424 Z-5.993
X119.717 Y-24.396 Z-5.971
X119.634 Y-24.37 Z-5.935
X119.557 Y-24.346 Z-5.885
X119.489 Y-24.325 Z-5.824
X119.431 Y-24.306 Z-5.753
X119.384 Y-24.292 Z-5.672
X119.349 Y-24.281 Z-5.585
X119.328 Y-24.274 Z-5.494
X119.321 Y-24.272 Z-5.4
Z3
X-121.748 Y53.215
Z-5.4 F333.3
X-121.743 Y53.22 Z-5.494 F1000
X-121.729 Y53.237 Z-5.585
X-121.706 Y53.265 Z-5.672
X-121.675 Y53.303 Z-5.753
X-121.636 Y53.35 Z-5.824
X-121.59 Y53.404 Z-5.885
X-121.538 Y53.466 Z-5.935
X-121.482 Y53.533 Z-5.971
X-121.424 Y53.603 Z-5.993
X-121.363 Y53.675 Z-6
X-120.979 Y54.136
G3 X-121.055 Y54.981 I-0.46 J0.385
G1 X-121.475 Y55.332
X-121.885 Y55.67
X-122.288 Y55.999
X-122.684 Y56.318
X-123.075 Y56.629
X-123.46 Y56.932
X-123.837 Y57.224
X-124.202 Y57.504
X-124.932 Y58.048
X-125.634 Y58.556
X-126.313 Y59.03
X-126.974 Y59.473
X-127.616 Y59.886
X-128.241 Y60.27
X-128.854 Y60.626
X-129.454 Y60.957
X-130.048 Y61.264
X-130.636 Y61.549
X-131.221 Y61.813
X-131.809 Y62.058
X-132.4 Y62.285
X-133.001 Y62.494
X-133.616 Y62.689
X-134.246 Y62.868
X-134.897 Y63.033
X-135.573 Y63.184
X-136.275 Y63.321
X-137.01 Y63.445
X-137.778 Y63.556
X-138.582 Y63.652
X-139.434 Y63.735
X-139.864 Y63.77
X-140.311 Y63.802
X-140.77 Y63.831
X-141.241 Y63.856
X-141.722 Y63.877
X-142.215 Y63.894
X-142.718 Y63.908
X-143.235 Y63.917
X-143.762 Y63.923
X-144.307 Y63.925
X-145.061
G2 X-145.322 Y63.937 I0 J3
G1 X-145.411 Y63.944
G2 X-145.935 Y64.038 I0.262 J2.989
G1 X-146.019 Y64.06
G2 X-146.501 Y64.237 I0.786 J2.895
G1 X-146.581 Y64.274
G2 X-147.052 Y64.548 I1.268 J2.719
G1 X-147.123 Y64.599
G2 X-147.509 Y64.926 I1.739 J2.445
G1 X-147.571 Y64.988
G2 X-147.909 Y65.393 I2.125 J2.118
G1 X-147.959 Y65.465
G2 X-148.229 Y65.941 I2.463 J1.713
G1 X-148.265 Y66.021
G2 X-148.436 Y66.504 I2.733 J1.236
G1 X-148.458 Y66.589
G2 X-148.544 Y67.102 I2.904 J0.753
G1 X-148.551 Y67.189
G2 X-148.548 Y67.703 I2.99 J0.24
G1 X-148.54 Y67.79
G2 X-148.447 Y68.306 I2.987 J-0.274
G1 X-148.424 Y68.39
G2 X-148.234 Y68.9 I2.894 J-0.79
G1 X-148.196 Y68.979
G2 X-147.929 Y69.43 I2.704 J-1.299
G1 X-147.878 Y69.501
G2 X-147.533 Y69.901 I2.437 J-1.75
G1 X-147.47 Y69.962
G2 X-147.073 Y70.287 I2.092 J-2.15
G1 X-147.001 Y70.337
G2 X-146.534 Y70.598 I1.695 J-2.475
G1 X-146.454 Y70.634
G3 X-146.152 Y71.427 I-0.246 J0.547
G1 X-146.398 Y71.975
X-146.437 Y72.06 Z-5.993
X-146.474 Y72.144 Z-5.971
X-146.51 Y72.223 Z-5.935
X-146.543 Y72.297 Z-5.885
X-146.572 Y72.362 Z-5.824
X-146.597 Y72.418 Z-5.753
X-146.617 Y72.463 Z-5.672
X-146.632 Y72.495 Z-5.585
X-146.641 Y72.515 Z-5.494
X-146.644 Y72.522 Z-5.4
Z3
X-164.901 Y65.225
Z-5.4 F333.3
G19 G2 Y64.625 Z-6 J-0.6 K0 F1000
G1 Y64.025
G17 G3 X-164.301 Y63.425 I0.6 J0
G1 X-144.301
X-144.185 Y63.423
X-144.07 Y63.416
X-143.991 Y63.41
G2 X-143.675 Y63.369 I-0.231 J-2.991
G1 X-143.578 Y63.351
X-143.366 Y63.304
X-143.252 Y63.274
X-143.111 Y63.233
X-142.98 Y63.192
X-142.87 Y63.155
X-142.724 Y63.103
X-142.645 Y63.073
X-142.484 Y63.011
X-142.418 Y62.984
X-142.244 Y62.911
X-142.195 Y62.891
X-142.008 Y62.809
X-141.967 Y62.79
X-141.769 Y62.7
X-141.728 Y62.681
X-141.521 Y62.583
X-141.477 Y62.561
X-141.039 Y62.344
X-140.981 Y62.315
X-140.524 Y62.077
X-140.472 Y62.049
X-140.008 Y61.795
X-139.948 Y61.761
X-139.493 Y61.498
X-139.427 Y61.46
X-138.993 Y61.194
X-138.936 Y61.158
X-138.731 Y61.026
X-138.674 Y60.989
X-138.481 Y60.858
X-138.434 Y60.826
X-138.252 Y60.698
X-138.185 Y60.649
X-138.017 Y60.524
X-137.936 Y60.461
X-137.784 Y60.339
X-137.687 Y60.258
X-137.552 Y60.14
X-137.438 Y60.036
X-137.321 Y59.923
X-137.184 Y59.781
X-137.086 Y59.673
G2 X-136.909 Y59.458 I-2.223 J-2.015
G1 X-136.832 Y59.355
G2 X-136.634 Y59.056 I-2.4 J-1.8
G1 X-136.578 Y58.959
G2 X-136.366 Y58.509 I-2.598 J-1.5
G1 X-136.332 Y58.418
G2 X-136.167 Y57.754 I-2.81 J-1.05
G1 X-136.156 Y57.669
G3 X-135.484 Y57.151 I0.595 J0.077
G1 X-134.889 Y57.228
X-134.796 Y57.24 Z-5.993
X-134.705 Y57.252 Z-5.971
X-134.619 Y57.263 Z-5.935
X-134.539 Y57.274 Z-5.885
X-134.468 Y57.283 Z-5.824
X-134.407 Y57.291 Z-5.753
X-134.359 Y57.297 Z-5.672
X-134.323 Y57.302 Z-5.585
X-134.301 Y57.304 Z-5.494
X-134.294 Y57.305 Z-5.4
Z3
Y-57.305
Z-5.4 F333.3
X-134.301 Y-57.304 Z-5.494 F1000
X-134.323 Y-57.302 Z-5.585
X-134.359 Y-57.297 Z-5.672
X-134.407 Y-57.291 Z-5.753
X-134.468 Y-57.283 Z-5.824
X-134.539 Y-57.274 Z-5.885
X-134.619 Y-57.263 Z-5.935
X-134.705 Y-57.252 Z-5.971
X-134.796 Y-57.24 Z-5.993
X-134.889 Y-57.228 Z-6
X-135.484 Y-57.151
G3 X-136.156 Y-57.669 I-0.077 J-0.595
G1 X-136.167 Y-57.754
G2 X-136.332 Y-58.418 I-2.975 J0.386
G1 X-136.366 Y-58.509
G2 X-136.578 Y-58.959 I-2.81 J1.05
G1 X-136.634 Y-59.056
G2 X-136.832 Y-59.355 I-2.598 J1.5
G1 X-136.909 Y-59.458
G2 X-137.086 Y-59.673 I-2.4 J1.8
G1 X-137.184 Y-59.781
X-137.321 Y-59.923
X-137.438 Y-60.036
X-137.552 Y-60.14
X-137.687 Y-60.258
X-137.784 Y-60.339
X-137.936 Y-60.461
X-138.017 Y-60.524
X-138.185 Y-60.649
X-138.252 Y-60.698
X-138.434 Y-60.826
X-138.481 Y-60.858
X-138.674 Y-60.989
X-138.731 Y-61.026
X-138.936 Y-61.158
X-138.993 Y-61.194
X-139.427 Y-61.46
X-139.493 Y-61.498
X-139.948 Y-61.761
X-140.008 Y-61.795
X-140.472 Y-62.049
X-140.524 Y-62.077
X-140.981 Y-62.315
X-141.039 Y-62.344
X-141.477 Y-62.561
X-141.521 Y-62.583
X-141.728 Y-62.681
X-141.769 Y-62.7
X-141.967 Y-62.79
X-142.008 Y-62.809
X-142.195 Y-62.891
X-142.244 Y-62.911
X-142.418 Y-62.984
X-142.484 Y-63.011
X-142.645 Y-63.073
X-142.724 Y-63.103
X-142.87 Y-63.155
X-142.98 Y-63.192
X-143.111 Y-63.233
X-143.252 Y-63.274
X-143.366 Y-63.304
X-143.578 Y-63.351
X-143.675 Y-63.369
G2 X-143.991 Y-63.41 I-0.547 J2.95
G1 X-144.07 Y-63.416
X-144.185 Y-63.423
X-144.301 Y-63.425
X-164.301
G3 X-164.901 Y-64.025 I0 J-0.6
G1 Y-64.625
G19 G2 Y-65.225 Z-5.4 J0 K0.6
G1 Z3
X-146.644 Y-72.522
Z-5.4 F333.3
X-146.641 Y-72.515 Z-5.494 F1000
X-146.632 Y-72.495 Z-5.585
X-146.617 Y-72.463 Z-5.672
X-146.597 Y-72.418 Z-5.753
X-146.572 Y-72.362 Z-5.824
X-146.543 Y-72.297 Z-5.885
X-146.51 Y-72.223 Z-5.935
X-146.474 Y-72.144 Z-5.971
X-146.437 Y-72.06 Z-5.993
X-146.398 Y-71.975 Z-6
X-146.152 Y-71.427
G17 G3 X-146.454 Y-70.634 I-0.547 J0.246
G1 X-146.534 Y-70.598
G2 X-147.001 Y-70.337 I1.228 J2.737
G1 X-147.073 Y-70.287
G2 X-147.47 Y-69.962 I1.695 J2.475
G1 X-147.533 Y-69.901
G2 X-147.878 Y-69.501 I2.092 J2.15
G1 X-147.929 Y-69.43
G2 X-148.196 Y-68.979 I2.437 J1.75
G1 X-148.234 Y-68.9
G2 X-148.424 Y-68.39 I2.704 J1.299
G1 X-148.447 Y-68.306
G2 X-148.54 Y-67.79 I2.894 J0.79
G1 X-148.548 Y-67.703
G2 X-148.551 Y-67.189 I2.987 J0.274
G1 X-148.544 Y-67.102
G2 X-148.458 Y-66.589 I2.99 J-0.24
G1 X-148.436 Y-66.504
G2 X-148.265 Y-66.021 I2.904 J-0.753
G1 X-148.229 Y-65.941
G2 X-147.959 Y-65.465 I2.733 J-1.236
G1 X-147.909 Y-65.393
G2 X-147.571 Y-64.988 I2.463 J-1.713
G1 X-147.509 Y-64.926
G2 X-147.123 Y-64.599 I2.125 J-2.118
G1 X-147.052 Y-64.548
G2 X-146.581 Y-64.274 I1.739 J-2.445
G1 X-146.501 Y-64.237
G2 X-146.019 Y-64.06 I1.268 J-2.719
G1 X-145.935 Y-64.038
G2 X-145.411 Y-63.944 I0.786 J-2.895
G1 X-145.322 Y-63.937
G2 X-145.061 Y-63.925 I0.261 J-2.989
G1 X-144.307
X-143.762 Y-63.923
X-143.235 Y-63.917
X-142.718 Y-63.908
X-142.215 Y-63.894
X-141.722 Y-63.877
X-141.241 Y-63.856
X-140.77 Y-63.831
X-140.311 Y-63.802
X-139.864 Y-63.77
X-139.434 Y-63.735
X-138.582 Y-63.652
X-137.778 Y-63.556
X-137.01 Y-63.445
X-136.275 Y-63.321
X-135.573 Y-63.184
X-134.897 Y-63.033
X-134.246 Y-62.868
X-133.616 Y-62.689
X-133.001 Y-62.494
X-132.4 Y-62.285
X-131.809 Y-62.058
X-131.221 Y-61.813
X-130.636 Y-61.549
X-130.048 Y-61.264
X-129.454 Y-60.957
X-128.854 Y-60.626
X-128.241 Y-60.27
X-127.616 Y-59.886
X-126.974 Y-59.473
X-126.313 Y-59.03
X-125.634 Y-58.556
X-124.932 Y-58.048
X-124.202 Y-57.504
X-123.837 Y-57.224
X-123.46 Y-56.932
X-123.075 Y-56.629
X-122.684 Y-56.318
X-122.288 Y-55.999
X-121.885 Y-55.67
X-121.475 Y-55.332
X-121.055 Y-54.981
G3 X-120.979 Y-54.136 I-0.385 J0.46
G1 X-121.363 Y-53.675
X-121.424 Y-53.603 Z-5.993
X-121.482 Y-53.533 Z-5.971
X-121.538 Y-53.466 Z-5.935
X-121.59 Y-53.404 Z-5.885
X-121.636 Y-53.35 Z-5.824
X-121.675 Y-53.303 Z-5.753
X-121.706 Y-53.265 Z-5.672
X-121.729 Y-53.237 Z-5.585
X-121.743 Y-53.22 Z-5.494
X-121.748 Y-53.215 Z-5.4
Z3
Z5
(When using Fusion 360 for Personal Use, the feedrate of)
(rapid moves is reduced to match the feedrate of cutting)
(moves, which can increase machining time. Unrestricted rapid)
(moves are available with a Fusion 360 Subscription.)

(2D Adaptive3)
G0 X-149.727 Y44.452
G1 Z5 F1000
Z3
Z-3.8
Z-4.4
X-149.734 Y44.454 Z-4.494
X-149.756 Y44.46 Z-4.585
X-149.79 Y44.469 Z-4.672
X-149.838 Y44.481 Z-4.753
X-149.897 Y44.496 Z-4.824
X-149.967 Y44.514 Z-4.885
X-150.045 Y44.534 Z-4.935
X-150.129 Y44.555 Z-4.971
X-150.217 Y44.578 Z-4.993
X-150.308 Y44.601 Z-5
G3 X-153.575 Y45.071 I-3.801 J-14.839
G1 X-153.725
X-153.855 Y44.996
X-153.973 Y44.904
X-154.089 Y44.795
X-154.22 Y44.65
X-154.363 Y44.463
X-154.517 Y44.224
X-154.681 Y43.919
X-154.688 Y43.902
X-154.773 Y43.627
X-154.794 Y43.339
X-154.749 Y43.054
X-154.642 Y42.787
X-154.477 Y42.551
X-154.263 Y42.358
X-154.011 Y42.218
X-153.734 Y42.138
X-153.446 Y42.123
G3 X-152.921 Y42.512 I-0.037 J0.599
G1 X-152.888 Y42.6
X-150.221 Y49.739
G3 X-150.67 Y50.539 I-0.562 J0.21
X-153.959 Y50.808 I-2.888 J-15.043
G1 X-154.251 Y50.79
X-154.288 Y50.786
X-154.4 Y50.687
X-154.525 Y50.556
X-154.664 Y50.387
X-154.814 Y50.169
X-154.974 Y49.891
X-155.143 Y49.537
X-155.316 Y49.081
X-155.563 Y48.23
X-155.869 Y47.399
X-156.199 Y46.576
X-156.451 Y45.867
X-156.59 Y45.348
X-156.674 Y44.887
X-156.716 Y44.477
X-156.723 Y44.105
X-156.702 Y43.756
X-156.656 Y43.429
X-156.585 Y43.111
X-156.476 Y42.801
X-156.297 Y42.525
X-156.06 Y42.298
X-155.776 Y42.133
X-155.461 Y42.039
X-155.133 Y42.02
G3 X-154.58 Y42.508 I-0.037 J0.599
G1 X-153.17 Y49.97
G3 X-153.485 Y50.615 I-0.59 J0.111
X-154.251 Y50.79 I-0.724 J-1.407
G1 X-155.055 Y50.741
X-155.205 Y50.724
X-155.358 Y50.657
X-155.529 Y50.566
X-155.73 Y50.436
X-155.997 Y50.232
X-156.316 Y49.945
X-156.702 Y49.537
X-157.105 Y49.035
X-157.494 Y48.463
X-157.836 Y47.86
X-158.121 Y47.248
X-158.344 Y46.648
X-158.509 Y46.064
X-158.622 Y45.493
X-158.684 Y44.948
X-158.702 Y44.438
X-158.683 Y44.029
X-158.631 Y43.62
X-158.56 Y43.282
X-158.459 Y42.938
X-158.405 Y42.8
X-158.271 Y42.537
X-158.085 Y42.309
X-157.856 Y42.125
X-157.593 Y41.992
X-157.308 Y41.918
X-157.013 Y41.905
X-156.464 Y41.939
G3 X-155.932 Y42.421 I-0.058 J0.597
G1 X-155.929 Y42.437
X-154.451 Y50.027
G3 X-155.055 Y50.741 I-0.589 J0.115
G1 X-156.464 Y50.655
X-156.624 Y50.637
X-156.82 Y50.599
X-157.052 Y50.534
X-157.286 Y50.448
X-157.552 Y50.325
X-157.831 Y50.168
X-158.127 Y49.969
X-158.432 Y49.725
X-158.752 Y49.425
X-159.058 Y49.088
X-159.367 Y48.686
X-159.664 Y48.229
X-159.93 Y47.737
X-160.165 Y47.206
X-160.362 Y46.639
X-160.511 Y46.065
X-160.613 Y45.487
X-160.666 Y44.923
X-160.673 Y44.404
X-160.641 Y43.924
X-160.582 Y43.526
X-160.492 Y43.137
X-160.388 Y42.811
X-160.324 Y42.654
X-160.187 Y42.399
X-160.001 Y42.177
X-159.773 Y41.999
X-159.513 Y41.871
X-159.232 Y41.799
X-158.943 Y41.787
X-157.013 Y41.905
G3 X-156.473 Y42.453 I-0.057 J0.597
G1 X-155.85 Y50.006
G3 X-156.464 Y50.655 I-0.598 J0.049
G1 X-158.476 Y50.532
X-158.732 Y50.503
X-158.934 Y50.464
X-159.157 Y50.402
X-159.399 Y50.313
X-159.653 Y50.196
X-159.925 Y50.043
X-160.205 Y49.853
X-160.494 Y49.623
X-160.796 Y49.34
X-161.083 Y49.023
X-161.376 Y48.643
X-161.657 Y48.21
X-161.909 Y47.744
X-162.137 Y47.227
X-162.33 Y46.672
X-162.481 Y46.093
X-162.583 Y45.511
X-162.638 Y44.93
X-162.646 Y44.37
X-162.613 Y43.877
X-162.55 Y43.453
X-162.458 Y43.056
X-162.35 Y42.718
X-162.275 Y42.535
X-162.139 Y42.28
X-161.952 Y42.058
X-161.724 Y41.879
X-161.464 Y41.752
X-161.184 Y41.68
X-160.894 Y41.668
X-158.943 Y41.787
G3 X-158.402 Y42.341 I-0.057 J0.597
G1 X-157.861 Y49.889
G3 X-158.476 Y50.532 I-0.598 J0.043
G1 X-160.598 Y50.402
X-160.801 Y50.379
X-160.95 Y50.362
X-161.097 Y50.334
X-161.243 Y50.298
X-161.387 Y50.254
X-161.528 Y50.203
X-161.666 Y50.145
X-161.802 Y50.081
X-161.934 Y50.012
X-162.064 Y49.936
X-162.191 Y49.856
X-162.314 Y49.771
X-162.435 Y49.682
X-162.552 Y49.588
X-162.666 Y49.491
X-162.777 Y49.39
X-162.885 Y49.285
X-162.99 Y49.178
X-163.091 Y49.067
X-163.189 Y48.954
X-163.284 Y48.838
X-163.376 Y48.719
X-163.465 Y48.598
X-163.55 Y48.475
X-163.633 Y48.35
X-163.713 Y48.223
X-163.789 Y48.094
X-163.863 Y47.963
X-163.933 Y47.831
X-164 Y47.697
X-164.065 Y47.561
X-164.126 Y47.424
X-164.185 Y47.286
X-164.24 Y47.147
X-164.293 Y47.006
X-164.343 Y46.865
X-164.39 Y46.723
X-164.434 Y46.579
X-164.475 Y46.435
X-164.513 Y46.29
X-164.548 Y46.144
X-164.58 Y45.997
X-164.61 Y45.85
X-164.636 Y45.703
X-164.66 Y45.555
X-164.68 Y45.406
X-164.698 Y45.257
X-164.712 Y45.108
X-164.724 Y44.958
X-164.732 Y44.808
X-164.738 Y44.659
X-164.74 Y44.509
X-164.739 Y44.359
X-164.735 Y44.209
X-164.727 Y44.059
X-164.716 Y43.909
X-164.702 Y43.76
X-164.684 Y43.611
X-164.662 Y43.463
X-164.636 Y43.315
X-164.606 Y43.168
X-164.571 Y43.022
X-164.533 Y42.877
X-164.49 Y42.733
X-164.443 Y42.591
X-164.391 Y42.45
X-164.372 Y42.406
X-164.235 Y42.151
X-164.049 Y41.929
X-163.821 Y41.751
X-163.561 Y41.623
X-163.281 Y41.552
X-162.991 Y41.539
X-160.894 Y41.668
G3 X-160.352 Y42.236 I-0.057 J0.597
G1 X-159.983 Y49.773
G3 X-160.598 Y50.402 I-0.599 J0.029
G1 X-162.7 Y50.273
X-162.953 Y50.245
X-163.102 Y50.228
X-163.25 Y50.2
X-163.395 Y50.164
X-163.539 Y50.12
X-163.679 Y50.068
X-163.818 Y50.01
X-163.953 Y49.945
X-164.085 Y49.874
X-164.214 Y49.798
X-164.416 Y49.707
X-164.63 Y49.649
X-164.85 Y49.625
X-165.071 Y49.636
X-165.288 Y49.682
X-165.495 Y49.761
X-165.661 Y49.858
X-165.91 Y49.971
X-166.176 Y50.034
X-166.449 Y50.044
G3 X-166.355 Y48.848 I0.058 J-0.597
G1 X-162.648 Y49.075
G3 X-162.7 Y50.273 I-0.037 J0.599
G1 X-166.925 Y50.015
G3 X-167.443 Y49.587 I0.058 J-0.597
G1 X-167.464 Y49.518
X-169.696 Y41.935
G3 X-169.105 Y41.166 I0.576 J-0.169
G1 X-162.991 Y41.539
G3 X-162.457 Y42.038 I-0.058 J0.597
G1 X-162.442 Y42.13 Z-4.993
X-162.427 Y42.221 Z-4.971
X-162.412 Y42.306 Z-4.935
X-162.399 Y42.385 Z-4.885
X-162.387 Y42.456 Z-4.824
X-162.377 Y42.516 Z-4.753
X-162.369 Y42.565 Z-4.672
X-162.363 Y42.6 Z-4.585
X-162.359 Y42.622 Z-4.494
X-162.358 Y42.629 Z-4.4
Z5
X-149.727 Y-45.8
Z3
Z-3.8
Z-4.4
X-149.734 Y-45.799 Z-4.494
X-149.756 Y-45.793 Z-4.585
X-149.79 Y-45.784 Z-4.672
X-149.838 Y-45.772 Z-4.753
X-149.897 Y-45.757 Z-4.824
X-149.967 Y-45.739 Z-4.885
X-150.045 Y-45.719 Z-4.935
X-150.129 Y-45.698 Z-4.971
X-150.217 Y-45.675 Z-4.993
X-150.308 Y-45.652 Z-5
G3 X-153.575 Y-45.182 I-3.801 J-14.839
G1 X-153.725
X-153.863 Y-45.239
X-153.993 Y-45.315
X-154.12 Y-45.409
X-154.267 Y-45.534
X-154.43 Y-45.7
X-154.612 Y-45.916
X-154.811 Y-46.195
X-155.027 Y-46.556
X-155.26 Y-47.03
X-155.514 Y-47.668
X-155.773 Y-48.515
X-155.905 Y-49.097
X-155.939 Y-49.391
X-155.909 Y-49.685
X-155.816 Y-49.966
X-155.665 Y-50.221
X-155.463 Y-50.437
X-155.219 Y-50.604
X-154.945 Y-50.716
X-154.653 Y-50.766
G3 X-154.108 Y-50.485 I0.037 J0.599
G1 X-154.033 Y-50.365
X-149.849 Y-43.684
G3 X-150.174 Y-42.794 I-0.509 J0.318
X-153.405 Y-42.126 I-4.7 J-14.579
G1 X-153.708 Y-42.107
X-153.746
X-153.87 Y-42.191
X-154.561 Y-42.746
X-155.184 Y-43.316
X-155.707 Y-43.878
X-156.18 Y-44.476
X-156.614 Y-45.125
X-157.035 Y-45.881
X-157.364 Y-46.6
X-157.556 Y-47.131
X-157.688 Y-47.613
X-157.765 Y-48.017
X-157.807 Y-48.413
X-157.817 Y-48.763
X-157.798 Y-49.112
X-157.756 Y-49.419
X-157.726 Y-49.557
X-157.631 Y-49.843
X-157.476 Y-50.102
X-157.27 Y-50.322
X-157.021 Y-50.492
X-156.741 Y-50.605
X-156.444 Y-50.656
G3 X-155.864 Y-50.261 I0.016 J0.6
G1 X-155.852 Y-50.227
X-153.201 Y-42.909
G3 X-153.708 Y-42.107 I-0.564 J0.204
G1 X-154.854 Y-42.037
X-155.004 Y-42.035
X-155.23 Y-42.075
X-155.496 Y-42.143
X-155.783 Y-42.242
X-156.088 Y-42.376
X-156.432 Y-42.561
X-156.776 Y-42.782
X-157.167 Y-43.082
X-157.546 Y-43.424
X-157.945 Y-43.847
X-158.326 Y-44.322
X-158.673 Y-44.834
X-158.974 Y-45.365
X-159.226 Y-45.908
X-159.428 Y-46.453
X-159.581 Y-46.998
X-159.684 Y-47.52
X-159.738 Y-47.991
X-159.751 Y-48.407
X-159.733 Y-48.8
X-159.688 Y-49.149
X-159.617 Y-49.488
X-159.601 Y-49.54
X-159.493 Y-49.803
X-159.334 Y-50.039
X-159.13 Y-50.238
X-158.891 Y-50.392
X-158.625 Y-50.494
X-158.344 Y-50.54
X-156.444 Y-50.656
G3 X-155.84 Y-50.176 I0.016 J0.6
G1 X-154.324 Y-42.754
G3 X-154.854 Y-42.037 I-0.588 J0.12
G1 X-156.665 Y-41.926
X-156.908 Y-41.924
X-157.127 Y-41.939
X-157.358 Y-41.974
X-157.616 Y-42.034
X-157.896 Y-42.124
X-158.193 Y-42.246
X-158.511 Y-42.408
X-158.846 Y-42.614
X-159.182 Y-42.86
X-159.538 Y-43.167
X-159.881 Y-43.515
X-160.214 Y-43.912
X-160.537 Y-44.367
X-160.836 Y-44.868
X-161.097 Y-45.4
X-161.314 Y-45.947
X-161.484 Y-46.504
X-161.606 Y-47.059
X-161.68 Y-47.603
X-161.706 Y-48.073
X-161.696 Y-48.49
X-161.654 Y-48.882
X-161.59 Y-49.225
X-161.544 Y-49.392
X-161.44 Y-49.662
X-161.282 Y-49.905
X-161.077 Y-50.11
X-160.835 Y-50.269
X-160.565 Y-50.374
X-160.279 Y-50.422
X-158.344 Y-50.54
G3 X-157.742 Y-50.067 I0.016 J0.6
G1 X-156.136 Y-42.651
G3 X-156.665 Y-41.926 I-0.586 J0.127
G1 X-158.878 Y-41.791
X-159.029 Y-41.789
X-159.235 Y-41.804
X-159.463 Y-41.838
X-159.712 Y-41.896
X-159.977 Y-41.981
X-160.263 Y-42.099
X-160.564 Y-42.253
X-160.876 Y-42.444
X-161.209 Y-42.688
X-161.531 Y-42.965
X-161.864 Y-43.304
X-162.195 Y-43.698
X-162.501 Y-44.128
X-162.788 Y-44.609
X-163.048 Y-45.139
X-163.268 Y-45.696
X-163.442 Y-46.264
X-163.567 Y-46.836
X-163.643 Y-47.394
X-163.671 Y-47.89
X-163.66 Y-48.322
X-163.617 Y-48.729
X-163.551 Y-49.078
X-163.498 Y-49.273
X-163.394 Y-49.543
X-163.236 Y-49.786
X-163.031 Y-49.991
X-162.789 Y-50.149
X-162.519 Y-50.255
X-162.233 Y-50.302
X-160.279 Y-50.422
G3 X-159.673 Y-49.927 I0.016 J0.6
G1 X-158.345 Y-42.494
G3 X-158.878 Y-41.791 I-0.591 J0.106
G1 X-160.89 Y-41.668
X-161.096 Y-41.666
X-161.246 Y-41.665
X-161.396 Y-41.674
X-161.545 Y-41.693
X-161.693 Y-41.719
X-161.839 Y-41.752
X-161.983 Y-41.793
X-162.126 Y-41.84
X-162.266 Y-41.894
X-162.404 Y-41.953
X-162.539 Y-42.017
X-162.672 Y-42.087
X-162.802 Y-42.161
X-162.93 Y-42.24
X-163.055 Y-42.323
X-163.177 Y-42.41
X-163.297 Y-42.501
X-163.413 Y-42.595
X-163.527 Y-42.693
X-163.638 Y-42.794
X-163.746 Y-42.897
X-163.852 Y-43.004
X-163.954 Y-43.114
X-164.054 Y-43.226
X-164.151 Y-43.34
X-164.245 Y-43.457
X-164.337 Y-43.576
X-164.425 Y-43.697
X-164.511 Y-43.82
X-164.593 Y-43.945
X-164.674 Y-44.072
X-164.751 Y-44.2
X-164.826 Y-44.331
X-164.897 Y-44.462
X-164.966 Y-44.595
X-165.033 Y-44.73
X-165.096 Y-44.866
X-165.157 Y-45.003
X-165.215 Y-45.141
X-165.27 Y-45.281
X-165.323 Y-45.421
X-165.372 Y-45.563
X-165.419 Y-45.706
X-165.463 Y-45.849
X-165.504 Y-45.993
X-165.542 Y-46.138
X-165.577 Y-46.284
X-165.609 Y-46.431
X-165.639 Y-46.578
X-165.665 Y-46.725
X-165.688 Y-46.874
X-165.708 Y-47.022
X-165.725 Y-47.171
X-165.739 Y-47.321
X-165.75 Y-47.47
X-165.756 Y-47.62
X-165.76 Y-47.77
Y-47.92
X-165.756 Y-48.07
X-165.748 Y-48.22
X-165.735 Y-48.369
X-165.719 Y-48.518
X-165.698 Y-48.667
X-165.673 Y-48.815
X-165.643 Y-48.962
X-165.607 Y-49.108
X-165.596 Y-49.148
X-165.491 Y-49.418
X-165.333 Y-49.659
X-165.128 Y-49.864
X-164.886 Y-50.022
X-164.617 Y-50.126
X-164.332 Y-50.174
X-162.233 Y-50.302
G3 X-161.626 Y-49.803 I0.016 J0.6
G1 X-160.356 Y-42.366
G3 X-160.89 Y-41.668 I-0.591 J0.101
G1 X-163.103 Y-41.533
X-166.322 Y-41.336
G3 X-166.901 Y-41.73 I-0.016 J-0.6
G1 X-166.914 Y-41.765
X-169.584 Y-49.081
G3 X-169.077 Y-49.883 I0.564 J-0.206
G1 X-164.332 Y-50.174
G3 X-163.741 Y-49.744 I0.016 J0.6
G1 X-163.714 Y-49.654 Z-4.993
X-163.688 Y-49.567 Z-4.971
X-163.664 Y-49.483 Z-4.935
X-163.641 Y-49.406 Z-4.885
X-163.62 Y-49.337 Z-4.824
X-163.603 Y-49.279 Z-4.753
X-163.589 Y-49.232 Z-4.672
X-163.579 Y-49.197 Z-4.585
X-163.573 Y-49.176 Z-4.494
X-163.571 Y-49.169 Z-4.4
Z5
X-137.492 Y-41.314
Z3
Z-6.8
Z-7.4
X-137.499 Y-41.312 Z-7.494
X-137.52 Y-41.305 Z-7.585
X-137.554 Y-41.294 Z-7.672
X-137.601 Y-41.279 Z-7.753
X-137.659 Y-41.26 Z-7.824
X-137.727 Y-41.238 Z-7.885
X-137.803 Y-41.214 Z-7.935
X-137.886 Y-41.187 Z-7.971
X-137.973 Y-41.159 Z-7.993
X-138.063 Y-41.13 Z-8
G3 X-141.294 Y-40.462 I-4.7 J-14.579
G1 X-141.606 Y-40.443
X-141.643
X-141.766 Y-40.528
X-141.908 Y-40.645
X-142.067 Y-40.8
X-142.244 Y-41.001
X-142.438 Y-41.262
X-142.65 Y-41.6
X-142.879 Y-42.04
X-143.126 Y-42.628
X-143.397 Y-43.449
X-143.606 Y-44.31
X-143.767 Y-45.182
X-143.896 Y-46.058
X-144.001 Y-46.938
X-144.091 Y-47.82
X-144.17 Y-48.702
X-144.242 Y-49.586
X-144.308 Y-50.469
X-144.37 Y-51.353
X-144.44 Y-52.386
X-144.425 Y-52.7
X-144.341 Y-53.003
X-144.191 Y-53.279
X-143.983 Y-53.515
X-143.728 Y-53.699
X-143.438 Y-53.821
X-143.129 Y-53.875
G3 X-142.517 Y-53.346 I0.016 J0.6
G1 X-141.067 Y-41.111
G3 X-141.606 Y-40.443 I-0.596 J0.071
G1 X-142.41 Y-40.394
X-142.56 Y-40.392
X-142.722 Y-40.441
X-142.902 Y-40.512
X-143.108 Y-40.612
X-143.311 Y-40.733
X-143.542 Y-40.896
X-143.792 Y-41.105
X-144.038 Y-41.345
X-144.313 Y-41.663
X-144.583 Y-42.029
X-144.875 Y-42.502
X-145.176 Y-43.089
X-145.489 Y-43.843
X-145.762 Y-44.686
X-145.979 Y-45.545
X-146.153 Y-46.414
X-146.297 Y-47.288
X-146.417 Y-48.166
X-146.52 Y-49.046
X-146.61 Y-49.928
X-146.673 Y-50.788
X-146.669 Y-51.393
X-146.626 Y-51.885
X-146.556 Y-52.295
X-146.456 Y-52.689
X-146.417 Y-52.804
X-146.303 Y-53.054
X-146.142 Y-53.278
X-145.941 Y-53.465
X-145.707 Y-53.61
X-145.449 Y-53.706
X-145.177 Y-53.75
G3 X-144.576 Y-53.28 I0.016 J0.6
G1 X-141.881 Y-41.121
G3 X-142.41 Y-40.394 I-0.586 J0.13
G1 X-143.706 Y-40.315
X-143.856 Y-40.313
X-144.034 Y-40.333
X-144.219 Y-40.368
X-144.429 Y-40.427
X-144.655 Y-40.509
X-144.895 Y-40.62
X-145.162 Y-40.77
X-145.428 Y-40.949
X-145.733 Y-41.191
X-146.025 Y-41.466
X-146.353 Y-41.826
X-146.671 Y-42.238
X-147.014 Y-42.765
X-147.364 Y-43.412
X-147.721 Y-44.219
X-148.013 Y-45.055
X-148.252 Y-45.909
X-148.45 Y-46.772
X-148.615 Y-47.643
X-148.75 Y-48.519
X-148.847 Y-49.4
X-148.892 Y-50.285
X-148.871 Y-51.05
X-148.807 Y-51.645
X-148.717 Y-52.12
X-148.605 Y-52.527
X-148.542 Y-52.7
X-148.396 Y-52.99
X-148.188 Y-53.239
X-147.928 Y-53.433
X-147.631 Y-53.562
X-147.312 Y-53.619
X-145.177 Y-53.75
G3 X-144.566 Y-53.218 I0.016 J0.6
G1 X-143.167 Y-40.98
G3 X-143.706 Y-40.315 I-0.596 J0.068
G1 X-145.424 Y-40.209
X-145.603 Y-40.207
X-145.787 Y-40.22
X-145.995 Y-40.252
X-146.222 Y-40.305
X-146.463 Y-40.382
X-146.737 Y-40.495
X-147.01 Y-40.634
X-147.326 Y-40.828
X-147.632 Y-41.052
X-147.983 Y-41.355
X-148.321 Y-41.698
X-148.694 Y-42.143
X-149.057 Y-42.653
X-149.439 Y-43.294
X-149.83 Y-44.089
X-150.157 Y-44.913
X-150.429 Y-45.756
X-150.656 Y-46.613
X-150.839 Y-47.48
X-150.978 Y-48.355
X-151.066 Y-49.237
X-151.095 Y-50.123
X-151.059 Y-50.918
X-150.982 Y-51.534
X-150.883 Y-52.007
X-150.753 Y-52.449
X-150.699 Y-52.591
X-150.551 Y-52.874
X-150.343 Y-53.116
X-150.085 Y-53.305
X-149.792 Y-53.431
X-149.477 Y-53.487
X-147.312 Y-53.619
G3 X-146.702 Y-53.108 I0.016 J0.6
G1 X-144.888 Y-40.895
G3 X-145.424 Y-40.209 I-0.593 J0.088
G1 X-147.323 Y-40.093
X-147.581 Y-40.09
X-147.773 Y-40.104
X-148.002 Y-40.138
X-148.239 Y-40.194
X-148.505 Y-40.279
X-148.789 Y-40.396
X-149.09 Y-40.55
X-149.421 Y-40.753
X-149.757 Y-40.999
X-150.132 Y-41.322
X-150.498 Y-41.694
X-150.89 Y-42.161
X-151.301 Y-42.738
X-151.706 Y-43.419
X-152.097 Y-44.214
X-152.426 Y-45.037
X-152.699 Y-45.88
X-152.92 Y-46.738
X-153.091 Y-47.607
X-153.212 Y-48.485
X-153.277 Y-49.369
X-153.279 Y-50.254
X-153.222 Y-50.992
X-153.128 Y-51.583
X-153.019 Y-52.034
X-152.879 Y-52.456
X-152.861 Y-52.5
X-152.71 Y-52.771
X-152.502 Y-53.001
X-152.249 Y-53.181
X-151.962 Y-53.3
X-151.656 Y-53.353
X-149.477 Y-53.487
G3 X-148.87 Y-52.988 I0.016 J0.6
G1 X-146.789 Y-40.791
G3 X-147.323 Y-40.093 I-0.591 J0.101
G1 X-149.442 Y-39.964
X-149.64 Y-39.961
X-149.847 Y-39.976
X-150.075 Y-40.01
X-150.335 Y-40.071
X-150.601 Y-40.156
X-150.911 Y-40.284
X-151.218 Y-40.441
X-151.572 Y-40.658
X-151.921 Y-40.913
X-152.315 Y-41.253
X-152.696 Y-41.639
X-153.111 Y-42.135
X-153.244 Y-42.321
X-153.374 Y-42.546
X-153.46 Y-42.79
X-153.5 Y-43.047
G3 X-152.901 Y-43.662 I0.6 J-0.016
G1 X-152.9
G3 X-152.545 Y-43.546 I0 J0.6
G1 X-149.144 Y-41.044
G3 X-149.442 Y-39.964 I-0.356 J0.483
G1 X-151.542 Y-39.835
X-151.764 Y-39.833
X-151.982 Y-39.848
X-152.211 Y-39.882
X-152.308 Y-39.905
X-152.589 Y-40.003
X-152.843 Y-40.159
X-153.058 Y-40.365
X-153.225 Y-40.612
X-153.336 Y-40.889
X-153.386 Y-41.183
G3 X-152.787 Y-41.798 I0.6 J-0.016
G1 X-152.786
G3 X-152.461 Y-41.702 I0 J0.6
G1 X-151.274 Y-40.936
G3 X-151.542 Y-39.835 I-0.325 J0.504
G1 X-152.547 Y-39.774
X-152.748 Y-39.765
X-152.848 Y-39.779
X-152.899 Y-39.792
X-152.949 Y-39.811
X-153.002 Y-39.836
X-153.055 Y-39.868
X-153.15 Y-39.945
X-153.206 Y-40.007
X-153.249 Y-40.069
X-153.276 Y-40.119
X-153.298 Y-40.169
X-153.325 Y-40.269
X-153.342 Y-40.47
X-154.054 Y-52.107
X-154.057 Y-52.308
X-154.01 Y-52.55
X-153.907 Y-52.775
X-153.754 Y-52.969
X-153.559 Y-53.12
X-153.334 Y-53.221
X-153.091 Y-53.266
G3 X-152.475 Y-52.666 I0.016 J0.6
X-152.598 Y-52.302 I-0.6 J0
G1 X-152.98 Y-51.801
G3 X-154.054 Y-52.107 I-0.477 J-0.364
G1 X-154.085 Y-52.609
X-154.079 Y-52.709
X-154.055 Y-52.809
X-154.036 Y-52.859
X-154.012 Y-52.91
X-153.986 Y-52.954
X-153.953 Y-52.998
X-153.903 Y-53.054
X-153.842 Y-53.11
X-153.797 Y-53.143
X-153.753 Y-53.17
X-153.702 Y-53.194
X-153.652 Y-53.212
X-153.552 Y-53.236
X-153.351 Y-53.25
X-151.656 Y-53.353
G3 X-151.065 Y-52.924 I0.016 J0.6
G1 X-151.039 Y-52.834 Z-7.993
X-151.013 Y-52.746 Z-7.971
X-150.988 Y-52.663 Z-7.935
X-150.965 Y-52.586 Z-7.885
X-150.945 Y-52.517 Z-7.824
X-150.928 Y-52.459 Z-7.753
X-150.914 Y-52.411 Z-7.672
X-150.903 Y-52.377 Z-7.585
X-150.897 Y-52.356 Z-7.494
X-150.895 Y-52.349 Z-7.4
Z5
X-138.253 Y53.553
Z3
Z-6.8
Z-7.4
X-138.261 Y53.555 Z-7.494
X-138.282 Y53.559 Z-7.585
X-138.318 Y53.566 Z-7.672
X-138.366 Y53.575 Z-7.753
X-138.426 Y53.587 Z-7.824
X-138.496 Y53.6 Z-7.885
X-138.575 Y53.615 Z-7.935
X-138.66 Y53.632 Z-7.971
X-138.75 Y53.649 Z-7.993
X-138.843 Y53.667 Z-8
G3 X-142.132 Y53.936 I-2.888 J-15.043
G1 X-142.41 Y53.919
X-142.447 Y53.915
X-142.56 Y53.816
X-142.684 Y53.689
X-142.821 Y53.522
X-142.971 Y53.309
X-143.13 Y53.036
X-143.298 Y52.689
X-143.471 Y52.241
X-143.646 Y51.654
X-143.816 Y50.85
X-143.929 Y49.971
X-143.99 Y49.087
X-144.016 Y48.201
X-144.017 Y47.315
X-144.001 Y46.429
X-143.973 Y45.543
X-143.938 Y44.658
X-143.897 Y43.773
X-143.852 Y42.888
X-143.788 Y41.719
X-143.735 Y41.409
X-143.614 Y41.119
X-143.432 Y40.862
X-143.197 Y40.654
X-142.921 Y40.502
X-142.619 Y40.416
X-142.305 Y40.4
G3 X-141.762 Y40.999 I-0.058 J0.597
G1 X-141.794 Y53.321
G3 X-142.41 Y53.919 I-0.6 J-0.002
G1 X-143.213 Y53.87
X-143.362 Y53.853
X-143.514 Y53.788
X-143.686 Y53.697
X-143.873 Y53.578
X-144.061 Y53.436
X-144.273 Y53.246
X-144.487 Y53.022
X-144.705 Y52.754
X-144.938 Y52.414
X-145.163 Y52.024
X-145.395 Y51.532
X-145.625 Y50.923
X-145.844 Y50.162
X-146.02 Y49.293
X-146.137 Y48.415
X-146.209 Y47.532
X-146.248 Y46.647
X-146.263 Y45.761
X-146.26 Y44.874
X-146.243 Y43.988
X-146.204 Y43.103
X-146.129 Y42.483
X-146.03 Y41.997
X-145.911 Y41.587
X-145.768 Y41.209
X-145.703 Y41.073
X-145.561 Y40.836
X-145.374 Y40.631
X-145.15 Y40.467
X-144.899 Y40.35
X-144.63 Y40.285
X-144.353 Y40.275
G3 X-143.813 Y40.814 I-0.058 J0.597
G1 X-142.6 Y53.212
G3 X-143.213 Y53.87 I-0.597 J0.058
G1 X-144.509 Y53.791
X-144.658 Y53.774
X-144.833 Y53.734
X-145.009 Y53.678
X-145.213 Y53.596
X-145.422 Y53.491
X-145.648 Y53.353
X-145.891 Y53.177
X-146.136 Y52.968
X-146.408 Y52.696
X-146.664 Y52.394
X-146.947 Y51.999
X-147.212 Y51.56
X-147.488 Y51.006
X-147.758 Y50.332
X-148.016 Y49.505
X-148.21 Y48.64
X-148.349 Y47.765
X-148.444 Y46.884
X-148.504 Y46
X-148.535 Y45.114
X-148.528 Y44.228
X-148.471 Y43.344
X-148.36 Y42.567
X-148.226 Y41.972
X-148.081 Y41.506
X-147.92 Y41.107
X-147.825 Y40.917
X-147.646 Y40.643
X-147.409 Y40.419
X-147.126 Y40.256
X-146.813 Y40.163
X-146.487 Y40.144
X-144.353 Y40.275
G3 X-143.81 Y40.876 I-0.058 J0.597
G1 X-143.894 Y53.195
G3 X-144.509 Y53.791 I-0.6 J-0.004
G1 X-146.227 Y53.685
X-146.423 Y53.664
X-146.602 Y53.629
X-146.808 Y53.572
X-147.023 Y53.493
X-147.257 Y53.385
X-147.51 Y53.242
X-147.769 Y53.067
X-148.056 Y52.838
X-148.335 Y52.577
X-148.648 Y52.231
X-148.939 Y51.853
X-149.254 Y51.368
X-149.557 Y50.808
X-149.856 Y50.129
X-150.148 Y49.292
X-150.371 Y48.434
X-150.539 Y47.564
X-150.659 Y46.686
X-150.735 Y45.804
X-150.765 Y44.918
X-150.746 Y44.032
X-150.667 Y43.149
X-150.535 Y42.368
X-150.382 Y41.764
X-150.227 Y41.309
X-150.044 Y40.886
X-149.973 Y40.752
X-149.792 Y40.489
X-149.556 Y40.274
X-149.277 Y40.118
X-148.971 Y40.029
X-148.652 Y40.012
X-146.487 Y40.144
G3 X-145.945 Y40.725 I-0.058 J0.597
G1 X-145.612 Y53.069
G3 X-146.227 Y53.685 I-0.6 J0.016
G1 X-148.126 Y53.569
X-148.401 Y53.539
X-148.59 Y53.502
X-148.812 Y53.44
X-149.041 Y53.356
X-149.294 Y53.239
X-149.563 Y53.088
X-149.844 Y52.899
X-150.148 Y52.656
X-150.451 Y52.371
X-150.784 Y52.004
X-151.102 Y51.591
X-151.435 Y51.079
X-151.772 Y50.455
X-152.091 Y49.731
X-152.382 Y48.894
X-152.608 Y48.037
X-152.776 Y47.167
X-152.891 Y46.289
X-152.955 Y45.405
X-152.967 Y44.519
X-152.924 Y43.634
X-152.819 Y42.755
X-152.672 Y42.03
X-152.507 Y41.455
X-152.343 Y41.021
X-152.154 Y40.62
X-152.13 Y40.579
X-151.947 Y40.329
X-151.713 Y40.125
X-151.44 Y39.978
X-151.141 Y39.894
X-150.831 Y39.879
X-148.652 Y40.012
G3 X-148.11 Y40.58 I-0.058 J0.597
G1 X-147.511 Y52.941
G3 X-148.126 Y53.569 I-0.599 J0.029
G1 X-150.337 Y53.434
X-150.486 Y53.417
X-150.69 Y53.375
X-150.918 Y53.309
X-151.168 Y53.214
X-151.427 Y53.091
X-151.722 Y52.92
X-152.011 Y52.721
X-152.34 Y52.451
X-152.655 Y52.149
X-153.008 Y51.751
X-153.338 Y51.311
X-153.687 Y50.76
X-153.76 Y50.621
X-153.857 Y50.387
X-153.911 Y50.138
X-153.918 Y49.884
G3 X-152.905 Y49.51 I0.597 J0.058
G1 X-149.904 Y52.402
G3 X-150.337 Y53.434 I-0.416 J0.432
G1 X-152.346 Y53.311
X-152.586 Y53.284
X-152.804 Y53.242
X-153.025 Y53.181
X-153.118 Y53.146
X-153.385 Y53.014
X-153.618 Y52.829
X-153.807 Y52.598
X-153.942 Y52.333
X-154.019 Y52.045
X-154.032 Y51.747
G3 X-153.054 Y51.341 I0.597 J0.058
G1 X-151.95 Y52.248
G3 X-152.346 Y53.311 I-0.381 J0.464
G1 X-153.351 Y53.25
X-153.552 Y53.236
X-153.652 Y53.212
X-153.702 Y53.194
X-153.753 Y53.17
X-153.797 Y53.143
X-153.842 Y53.11
X-153.903 Y53.054
X-153.953 Y52.998
X-153.986 Y52.954
X-154.012 Y52.91
X-154.036 Y52.859
X-154.055 Y52.809
X-154.079 Y52.709
X-154.085 Y52.609
X-153.367 Y40.871
X-153.339 Y40.623
X-153.263 Y40.388
X-153.134 Y40.178
X-152.959 Y40.005
X-152.747 Y39.878
X-152.511 Y39.806
X-152.265 Y39.791
G3 X-151.875 Y40.787 I-0.058 J0.597
G1 X-152.319 Y41.286
G3 X-153.367 Y40.871 I-0.448 J-0.399
G1 X-153.342 Y40.47
X-153.325 Y40.269
X-153.298 Y40.169
X-153.276 Y40.119
X-153.249 Y40.069
X-153.206 Y40.007
X-153.15 Y39.945
X-153.055 Y39.868
X-153.002 Y39.836
X-152.949 Y39.811
X-152.899 Y39.792
X-152.848 Y39.779
X-152.748 Y39.765
X-152.547 Y39.774
X-150.831 Y39.879
G3 X-150.297 Y40.377 I-0.058 J0.597
G1 X-150.281 Y40.469 Z-7.993
X-150.266 Y40.56 Z-7.971
X-150.252 Y40.646 Z-7.935
X-150.238 Y40.725 Z-7.885
X-150.227 Y40.795 Z-7.824
X-150.216 Y40.856 Z-7.753
X-150.208 Y40.904 Z-7.672
X-150.202 Y40.94 Z-7.585
X-150.199 Y40.961 Z-7.494
X-150.197 Y40.969 Z-7.4
Z5
(When using Fusion 360 for Personal Use, the feedrate of)
(rapid moves is reduced to match the feedrate of cutting)
(moves, which can increase machining time. Unrestricted rapid)
(moves are available with a Fusion 360 Subscription.)

(2D-Kontur3)
G0 X37.7 Y-33.6
G1 Z5 F1000
Z3
Z-9.4 F333.3
G18 G2 X38.3 Z-10 I0.6 K0 F1000
G1 X38.9
G17 G3 X39.5 Y-33 I0 J0.6
G1 Y-32
X25.5
Y-34
X39.5
Y-33
G3 X38.9 Y-32.4 I-0.6 J0
G1 X38.3
G18 G3 X37.7 Z-9.4 I0 K0.6
G1 Z3
Y-33.6
Z-7 F333.3
Z-17.4
G2 X38.3 Z-18 I0.6 K0 F1000
G1 X38.9
G17 G3 X39.5 Y-33 I0 J0.6
G1 Y-32
X25.5
Y-34
X39.5
Y-33
G3 X38.9 Y-32.4 I-0.6 J0
G1 X38.3
G18 G3 X37.7 Z-17.4 I0 K0.6
G1 Z3
X25.9 Y33.8
Z-9.4 F333.3
G19 G2 Y33.2 Z-10 J-0.6 K0 F1000
G1 Y32.6
G17 G3 X26.5 Y32 I0.6 J0
G1 X39.5
Y34
X25.5
Y32
X26.5
G3 X27.1 Y32.6 I0 J0.6
G1 Y33.2
G19 G3 Y33.8 Z-9.4 J0 K0.6
G1 Z3
X25.9
Z-7 F333.3
Z-17.4
G2 Y33.2 Z-18 J-0.6 K0 F1000
G1 Y32.6
G17 G3 X26.5 Y32 I0.6 J0
G1 X39.5
Y34
X25.5
Y32
X26.5
G3 X27.1 Y32.6 I0 J0.6
G1 Y33.2
G19 G3 Y33.8 Z-17.4 J0 K0.6
G1 Z5
G17
(When using Fusion 360 for Personal Use, the feedrate of)
(rapid moves is reduced to match the feedrate of cutting)
(moves, which can increase machining time. Unrestricted rapid)
(moves are available with a Fusion 360 Subscription.)

(Bohrfrasen1)
G0 X13.597 Y-29.294
G1 Z5 F1000
Z2
Z0.6
G18 G2 X14.197 Z0 I0.6 K0
G1 X14.497
G17 G3 X15.097 Y-28.694 I0 J0.6
X11.097 Y-28.694 Z-0.5 I-2 J0
X15.097 Y-28.694 Z-1 I2 J0
X11.097 Y-28.694 Z-1.5 I-2 J0
X15.097 Y-28.694 Z-2 I2 J0
X11.097 Y-28.694 Z-2.5 I-2 J0
X15.097 Y-28.694 Z-3 I2 J0
X11.097 Y-28.694 Z-3.5 I-2 J0
X15.097 Y-28.694 Z-4 I2 J0
X11.097 Y-28.694 Z-4.5 I-2 J0
X15.097 Y-28.694 Z-5 I2 J0
X11.097 Y-28.694 Z-5.5 I-2 J0
X15.097 Y-28.694 Z-6 I2 J0
X11.097 Y-28.694 Z-6.5 I-2 J0
X15.097 Y-28.694 Z-7 I2 J0
X11.097 Y-28.694 Z-7.5 I-2 J0
X15.097 Y-28.694 Z-8 I2 J0
X11.097 Y-28.694 Z-8.5 I-2 J0
X15.097 Y-28.694 Z-9 I2 J0
X11.097 Y-28.694 Z-9.5 I-2 J0
X15.097 Y-28.694 Z-10 I2 J0
X11.097 Y-28.694 Z-10.5 I-2 J0
X15.097 Y-28.694 Z-11 I2 J0
X11.097 Y-28.694 Z-11.5 I-2 J0
X15.097 Y-28.694 Z-12 I2 J0
X11.097 Y-28.694 Z-12.5 I-2 J0
X15.097 Y-28.694 Z-13 I2 J0
X11.097 Y-28.694 Z-13.5 I-2 J0
X15.097 Y-28.694 Z-14 I2 J0
X11.097 Y-28.694 Z-14.5 I-2 J0
X15.097 Y-28.694 Z-15 I2 J0
X11.097 Y-28.694 Z-15.5 I-2 J0
X15.097 Y-28.694 Z-16 I2 J0
X11.097 Y-28.694 Z-16.5 I-2 J0
X15.097 Y-28.694 Z-17 I2 J0
X11.097 Y-28.694 Z-17.5 I-2 J0
X15.097 Y-28.694 Z-18 I2 J0
X11.097 Y-28.694 I-2 J0
X15.097 Y-28.694 I2 J0
X14.497 Y-28.094 I-0.6 J0
G1 X14.197
G18 G3 X13.597 Z-17.4 I0 K0.6
G1 Z3
Y28.094
Z2
Z0.6
G2 X14.197 Z0 I0.6 K0
G1 X14.497
G17 G3 X15.097 Y28.694 I0 J0.6
X11.097 Y28.694 Z-0.5 I-2 J0
X15.097 Y28.694 Z-1 I2 J0
X11.097 Y28.694 Z-1.5 I-2 J0
X15.097 Y28.694 Z-2 I2 J0
X11.097 Y28.694 Z-2.5 I-2 J0
X15.097 Y28.694 Z-3 I2 J0
X11.097 Y28.694 Z-3.5 I-2 J0
X15.097 Y28.694 Z-4 I2 J0
X11.097 Y28.694 Z-4.5 I-2 J0
X15.097 Y28.694 Z-5 I2 J0
X11.097 Y28.694 Z-5.5 I-2 J0
X15.097 Y28.694 Z-6 I2 J0
X11.097 Y28.694 Z-6.5 I-2 J0
X15.097 Y28.694 Z-7 I2 J0
X11.097 Y28.694 Z-7.5 I-2 J0
X15.097 Y28.694 Z-8 I2 J0
X11.097 Y28.694 Z-8.5 I-2 J0
X15.097 Y28.694 Z-9 I2 J0
X11.097 Y28.694 Z-9.5 I-2 J0
X15.097 Y28.694 Z-10 I2 J0
X11.097 Y28.694 Z-10.5 I-2 J0
X15.097 Y28.694 Z-11 I2 J0
X11.097 Y28.694 Z-11.5 I-2 J0
X15.097 Y28.694 Z-12 I2 J0
X11.097 Y28.694 Z-12.5 I-2 J0
X15.097 Y28.694 Z-13 I2 J0
X11.097 Y28.694 Z-13.5 I-2 J0
X15.097 Y28.694 Z-14 I2 J0
X11.097 Y28.694 Z-14.5 I-2 J0
X15.097 Y28.694 Z-15 I2 J0
X11.097 Y28.694 Z-15.5 I-2 J0
X15.097 Y28.694 Z-16 I2 J0
X11.097 Y28.694 Z-16.5 I-2 J0
X15.097 Y28.694 Z-17 I2 J0
X11.097 Y28.694 Z-17.5 I-2 J0
X15.097 Y28.694 Z-18 I2 J0
X11.097 Y28.694 I-2 J0
X15.097 Y28.694 I2 J0
X14.497 Y29.294 I-0.6 J0
G1 X14.197
G18 G3 X13.597 Z-17.4 I0 K0.6
G1 Z3
X77.542 Y28.165
Z2
Z0.6
X77.549 Z0.506
X77.571 Z0.415
X77.607 Z0.328
X77.656 Z0.247
X77.717 Z0.176
X77.789 Z0.115
X77.869 Z0.065
X77.956 Z0.029
X78.048 Z0.007
X78.142 Z0
X78.442 Y28.166
G17 G3 X79.041 Y28.766 I-0.001 J0.6
X75.041 Y28.762 Z-0.5 I-2 J-0.002
X79.041 Y28.766 Z-1 I2 J0.002
X75.041 Y28.762 Z-1.5 I-2 J-0.002
X79.041 Y28.766 Z-2 I2 J0.002
X75.041 Y28.762 Z-2.5 I-2 J-0.002
X79.041 Y28.766 Z-3 I2 J0.002
X75.041 Y28.762 Z-3.5 I-2 J-0.002
X79.041 Y28.766 Z-4 I2 J0.002
X75.041 Y28.762 Z-4.5 I-2 J-0.002
X79.041 Y28.766 Z-5 I2 J0.002
X75.041 Y28.762 Z-5.5 I-2 J-0.002
X79.041 Y28.766 Z-6 I2 J0.002
X75.041 Y28.762 Z-6.5 I-2 J-0.002
X79.041 Y28.766 Z-7 I2 J0.002
X75.041 Y28.762 Z-7.5 I-2 J-0.002
X79.041 Y28.766 Z-8 I2 J0.002
X75.041 Y28.762 Z-8.5 I-2 J-0.002
X79.041 Y28.766 Z-9 I2 J0.002
X75.041 Y28.762 Z-9.5 I-2 J-0.002
X79.041 Y28.766 Z-10 I2 J0.002
X75.041 Y28.762 Z-10.5 I-2 J-0.002
X79.041 Y28.766 Z-11 I2 J0.002
X75.041 Y28.762 Z-11.5 I-2 J-0.002
X79.041 Y28.766 Z-12 I2 J0.002
X75.041 Y28.762 Z-12.5 I-2 J-0.002
X79.041 Y28.766 Z-13 I2 J0.002
X75.041 Y28.762 Z-13.5 I-2 J-0.002
X79.041 Y28.766 Z-14 I2 J0.002
X75.041 Y28.762 Z-14.5 I-2 J-0.002
X79.041 Y28.766 Z-15 I2 J0.002
X75.041 Y28.762 Z-15.5 I-2 J-0.002
X79.041 Y28.766 Z-16 I2 J0.002
X75.041 Y28.762 Z-16.5 I-2 J-0.002
X79.041 Y28.766 Z-17 I2 J0.002
X75.041 Y28.762 Z-17.5 I-2 J-0.002
X79.041 Y28.766 Z-18 I2 J0.002
X75.041 Y28.762 I-2 J-0.002
X79.041 Y28.766 I2 J0.002
X78.44 Y29.366 I-0.6 J-0.001
G1 X78.14 Y29.365
X78.046 Z-17.993
X77.955 Z-17.971
X77.868 Z-17.935
X77.788 Z-17.885
X77.716 Z-17.824
X77.655 Z-17.753
X77.606 Z-17.672
X77.57 Z-17.585
X77.548 Z-17.494
X77.54 Z-17.4
Z3
Y-29.365
Z2
Z0.6
X77.548 Z0.506
X77.57 Z0.415
X77.606 Z0.328
X77.655 Z0.247
X77.716 Z0.176
X77.788 Z0.115
X77.868 Z0.065
X77.955 Z0.029
X78.046 Z0.007
X78.14 Z0
X78.44 Y-29.366
G3 X79.041 Y-28.766 I0.001 J0.6
X75.041 Y-28.762 Z-0.5 I-2 J0.002
X79.041 Y-28.766 Z-1 I2 J-0.002
X75.041 Y-28.762 Z-1.5 I-2 J0.002
X79.041 Y-28.766 Z-2 I2 J-0.002
X75.041 Y-28.762 Z-2.5 I-2 J0.002
X79.041 Y-28.766 Z-3 I2 J-0.002
X75.041 Y-28.762 Z-3.5 I-2 J0.002
X79.041 Y-28.766 Z-4 I2 J-0.002
X75.041 Y-28.762 Z-4.5 I-2 J0.002
X79.041 Y-28.766 Z-5 I2 J-0.002
X75.041 Y-28.762 Z-5.5 I-2 J0.002
X79.041 Y-28.766 Z-6 I2 J-0.002
X75.041 Y-28.762 Z-6.5 I-2 J0.002
X79.041 Y-28.766 Z-7 I2 J-0.002
X75.041 Y-28.762 Z-7.5 I-2 J0.002
X79.041 Y-28.766 Z-8 I2 J-0.002
X75.041 Y-28.762 Z-8.5 I-2 J0.002
X79.041 Y-28.766 Z-9 I2 J-0.002
X75.041 Y-28.762 Z-9.5 I-2 J0.002
X79.041 Y-28.766 Z-10 I2 J-0.002
X75.041 Y-28.762 Z-10.5 I-2 J0.002
X79.041 Y-28.766 Z-11 I2 J-0.002
X75.041 Y-28.762 Z-11.5 I-2 J0.002
X79.041 Y-28.766 Z-12 I2 J-0.002
X75.041 Y-28.762 Z-12.5 I-2 J0.002
X79.041 Y-28.766 Z-13 I2 J-0.002
X75.041 Y-28.762 Z-13.5 I-2 J0.002
X79.041 Y-28.766 Z-14 I2 J-0.002
X75.041 Y-28.762 Z-14.5 I-2 J0.002
X79.041 Y-28.766 Z-15 I2 J-0.002
X75.041 Y-28.762 Z-15.5 I-2 J0.002
X79.041 Y-28.766 Z-16 I2 J-0.002
X75.041 Y-28.762 Z-16.5 I-2 J0.002
X79.041 Y-28.766 Z-17 I2 J-0.002
X75.041 Y-28.762 Z-17.5 I-2 J0.002
X79.041 Y-28.766 Z-18 I2 J-0.002
X75.041 Y-28.762 I-2 J0.002
X79.041 Y-28.766 I2 J-0.002
X78.442 Y-28.166 I-0.6 J0.001
G1 X78.142 Y-28.165
X78.048 Z-17.993
X77.956 Z-17.971
X77.869 Z-17.935
X77.789 Z-17.885
X77.717 Z-17.824
X77.656 Z-17.753
X77.607 Z-17.672
X77.571 Z-17.585
X77.549 Z-17.494
X77.542 Z-17.4
Z5
(When using Fusion 360 for Personal Use, the feedrate of)
(rapid moves is reduced to match the feedrate of cutting)
(moves, which can increase machining time. Unrestricted rapid)
(moves are available with a Fusion 360 Subscription.)

(2D-Kontur5)
G0 X136.623 Y21.951
G1 Z5 F1000
Z3
Z2 F333.3
Z-4.65
X136.624 Y21.943 Z-4.744 F1000
X136.627 Y21.922 Z-4.835
X136.633 Y21.886 Z-4.922
X136.64 Y21.837 Z-5.003
X136.649 Y21.777 Z-5.074
X136.659 Y21.706 Z-5.135
X136.671 Y21.627 Z-5.185
X136.684 Y21.541 Z-5.221
X136.697 Y21.45 Z-5.243
X136.711 Y21.357 Z-5.25
X136.799 Y20.764
G3 X137.481 Y20.258 I0.593 J0.088
G1 X139.867 Y20.613
X142.265 Y20.998
X144.665 Y21.411
X147.069 Y21.854
X149.484 Y22.326
X151.91 Y22.829
X154.141 Y23.316
X153.545 Y27.513
X119.883 Y22.728
X120.48 Y18.53
X122.812 Y18.687
X125.303 Y18.883
X127.77 Y19.105
X130.216 Y19.352
X132.645 Y19.627
X135.06 Y19.928
X137.467 Y20.256
X137.481 Y20.258
G3 X137.986 Y20.94 I-0.088 J0.593
G1 X137.898 Y21.534
X137.884 Y21.626 Z-5.243
X137.871 Y21.717 Z-5.221
X137.858 Y21.803 Z-5.185
X137.846 Y21.882 Z-5.135
X137.836 Y21.953 Z-5.074
X137.827 Y22.014 Z-5.003
X137.82 Y22.062 Z-4.922
X137.814 Y22.098 Z-4.835
X137.811 Y22.12 Z-4.744
X137.81 Y22.127 Z-4.65
Z3
X136.623 Y21.951
Z-3.25 F333.3
Z-9.9
X136.624 Y21.943 Z-9.994 F1000
X136.627 Y21.922 Z-10.085
X136.633 Y21.886 Z-10.172
X136.64 Y21.837 Z-10.253
X136.649 Y21.777 Z-10.324
X136.659 Y21.706 Z-10.385
X136.671 Y21.627 Z-10.435
X136.684 Y21.541 Z-10.471
X136.697 Y21.45 Z-10.493
X136.711 Y21.357 Z-10.5
X136.799 Y20.764
G3 X137.481 Y20.258 I0.593 J0.088
G1 X139.867 Y20.613
X142.265 Y20.998
X144.665 Y21.411
X147.069 Y21.854
X149.484 Y22.326
X151.91 Y22.829
X154.141 Y23.316
X153.545 Y27.513
X119.883 Y22.728
X120.48 Y18.53
X122.812 Y18.687
X125.303 Y18.883
X127.77 Y19.105
X130.216 Y19.352
X132.645 Y19.627
X135.06 Y19.928
X137.467 Y20.256
X137.481 Y20.258
G3 X137.986 Y20.94 I-0.088 J0.593
G1 X137.898 Y21.534
X137.884 Y21.626 Z-10.493
X137.871 Y21.717 Z-10.471
X137.858 Y21.803 Z-10.435
X137.846 Y21.882 Z-10.385
X137.836 Y21.953 Z-10.324
X137.827 Y22.014 Z-10.253
X137.82 Y22.062 Z-10.172
X137.814 Y22.098 Z-10.085
X137.811 Y22.12 Z-9.994
X137.81 Y22.127 Z-9.9
Z3
Y-22.127
Z2 F333.3
Z-4.65
X137.811 Y-22.12 Z-4.744 F1000
X137.814 Y-22.098 Z-4.835
X137.82 Y-22.062 Z-4.922
X137.827 Y-22.014 Z-5.003
X137.836 Y-21.953 Z-5.074
X137.846 Y-21.882 Z-5.135
X137.858 Y-21.803 Z-5.185
X137.871 Y-21.717 Z-5.221
X137.884 Y-21.626 Z-5.243
X137.898 Y-21.534 Z-5.25
X137.986 Y-20.94
G3 X137.481 Y-20.258 I-0.593 J0.088
G1 X137.467 Y-20.256
X135.06 Y-19.928
X132.645 Y-19.627
X130.216 Y-19.352
X127.77 Y-19.105
X125.303 Y-18.883
X122.812 Y-18.687
X120.48 Y-18.53
X119.883 Y-22.728
X153.545 Y-27.513
X154.141 Y-23.316
X151.91 Y-22.829
X149.484 Y-22.326
X147.069 Y-21.854
X144.665 Y-21.411
X142.265 Y-20.998
X139.867 Y-20.613
X137.481 Y-20.258
G3 X136.799 Y-20.764 I-0.088 J-0.593
G1 X136.711 Y-21.357
X136.697 Y-21.45 Z-5.243
X136.684 Y-21.541 Z-5.221
X136.671 Y-21.627 Z-5.185
X136.659 Y-21.706 Z-5.135
X136.649 Y-21.777 Z-5.074
X136.64 Y-21.837 Z-5.003
X136.633 Y-21.886 Z-4.922
X136.627 Y-21.922 Z-4.835
X136.624 Y-21.943 Z-4.744
X136.623 Y-21.951 Z-4.65
Z3
X137.81 Y-22.127
Z-3.25 F333.3
Z-9.9
X137.811 Y-22.12 Z-9.994 F1000
X137.814 Y-22.098 Z-10.085
X137.82 Y-22.062 Z-10.172
X137.827 Y-22.014 Z-10.253
X137.836 Y-21.953 Z-10.324
X137.846 Y-21.882 Z-10.385
X137.858 Y-21.803 Z-10.435
X137.871 Y-21.717 Z-10.471
X137.884 Y-21.626 Z-10.493
X137.898 Y-21.534 Z-10.5
X137.986 Y-20.94
G3 X137.481 Y-20.258 I-0.593 J0.088
G1 X137.467 Y-20.256
X135.06 Y-19.928
X132.645 Y-19.627
X130.216 Y-19.352
X127.77 Y-19.105
X125.303 Y-18.883
X122.812 Y-18.687
X120.48 Y-18.53
X119.883 Y-22.728
X153.545 Y-27.513
X154.141 Y-23.316
X151.91 Y-22.829
X149.484 Y-22.326
X147.069 Y-21.854
X144.665 Y-21.411
X142.265 Y-20.998
X139.867 Y-20.613
X137.481 Y-20.258
G3 X136.799 Y-20.764 I-0.088 J-0.593
G1 X136.711 Y-21.357
X136.697 Y-21.45 Z-10.493
X136.684 Y-21.541 Z-10.471
X136.671 Y-21.627 Z-10.435
X136.659 Y-21.706 Z-10.385
X136.649 Y-21.777 Z-10.324
X136.64 Y-21.837 Z-10.253
X136.633 Y-21.886 Z-10.172
X136.627 Y-21.922 Z-10.085
X136.624 Y-21.943 Z-9.994
X136.623 Y-21.951 Z-9.9
Z5
(When using Fusion 360 for Personal Use, the feedrate of)
(rapid moves is reduced to match the feedrate of cutting)
(moves, which can increase machining time. Unrestricted rapid)
(moves are available with a Fusion 360 Subscription.)

(2D Adaptive8)
G0 X-105.512 Y80.805
G1 Z5 F1000
Z3
Z-8.8
Z-9.4
X-105.514 Y80.798 Z-9.494
X-105.52 Y80.777 Z-9.585
X-105.529 Y80.742 Z-9.672
X-105.541 Y80.694 Z-9.753
X-105.556 Y80.635 Z-9.824
X-105.574 Y80.566 Z-9.885
X-105.594 Y80.488 Z-9.935
X-105.615 Y80.404 Z-9.971
X-105.638 Y80.315 Z-9.993
X-105.661 Y80.224 Z-10
G3 X-106.131 Y76.958 I14.839 J-3.801
G1 Y76.666
X-106.129 Y76.628
X-106.034 Y76.512
X-105.907 Y76.382
X-105.741 Y76.236
X-105.527 Y76.077
X-105.254 Y75.905
X-104.903 Y75.722
X-104.449 Y75.531
X-103.848 Y75.332
X-103.017 Y75.13
X-102.142 Y74.99
X-101.261 Y74.899
X-100.376 Y74.843
X-99.491 Y74.809
X-98.605 Y74.792
X-97.719 Y74.785
X-96.833 Y74.786
X-95.947 Y74.793
X-95.061 Y74.803
X-94.175 Y74.816
X-93.289 Y74.83
X-91.517 Y74.863
X-88.859 Y74.916
X-81.771 Y75.066
X-56.08 Y75.612
X-47.663 Y75.791
X-47.237 Y75.67
X-46.472 Y75.224
X-45.891 Y74.554
X-45.464 Y73.778
X-45.155 Y72.947
X-44.925 Y72.091
X-44.734 Y71.226
X-44.549 Y70.36
X-44.33 Y69.501
X-44.056 Y68.658
X-43.887 Y68.249
X-43.622 Y67.686
X-43.251 Y67.039
X-42.963 Y66.618
X-42.549 Y66.107
X-42.175 Y65.714
X-41.775 Y65.357
X-41.257 Y64.964
X-40.882 Y64.724
X-40.384 Y64.46
X-39.863 Y64.235
X-39.421 Y64.085
X-38.845 Y63.939
X-38.359 Y63.857
X-37.871 Y63.815
X-37.243 Y63.811
X-36.823 Y63.843
X-36.315 Y63.922
X-35.735 Y64.06
X-35.327 Y64.193
X-34.828 Y64.402
X-34.338 Y64.654
X-33.956 Y64.892
X-33.499 Y65.23
X-33.12 Y65.56
X-32.791 Y65.897
X-32.408 Y66.358
X-32.149 Y66.726
X-31.899 Y67.151
X-31.627 Y67.71
X-31.419 Y68.243
X-31.203 Y68.965
X-31.017 Y69.831
X-30.889 Y70.708
X-30.801 Y71.59
X-30.74 Y72.474
X-30.719 Y72.917
X-30.598 Y73.343
X-30.158 Y74.112
X-29.496 Y74.701
X-28.727 Y75.141
X-27.902 Y75.464
X-27.048 Y75.702
X-26.179 Y75.877
X-25.303 Y76.006
X-24.422 Y76.102
X-23.539 Y76.176
X-22.655 Y76.233
X-21.77 Y76.279
X-20.884 Y76.317
X-19.999 Y76.349
X-19.113 Y76.377
X-18.227 Y76.402
X-17.341 Y76.425
X-15.57 Y76.468
X-12.912 Y76.528
X-6.711 Y76.662
X18.13 Y77.19
X18.436 Y77.231
X18.727 Y77.338
X18.986 Y77.506
X19.202 Y77.727
X19.365 Y77.99
X19.466 Y78.283
X19.5 Y78.59
G3 X19.035 Y79.154 I-0.6 J-0.021
G1 X18.944 Y79.175 Z-9.993
X18.855 Y79.195 Z-9.971
X18.77 Y79.215 Z-9.935
X18.692 Y79.233 Z-9.885
X18.622 Y79.249 Z-9.824
X18.562 Y79.263 Z-9.753
X18.514 Y79.274 Z-9.672
X18.479 Y79.282 Z-9.585
X18.458 Y79.287 Z-9.494
X18.451 Y79.289 Z-9.4
Z3
X-105.603 Y77.935
Z-8.8
Z-9.4
X-105.607 Y77.929 Z-9.494
X-105.618 Y77.91 Z-9.585
X-105.636 Y77.879 Z-9.672
X-105.662 Y77.836 Z-9.753
X-105.693 Y77.784 Z-9.824
X-105.729 Y77.722 Z-9.885
X-105.77 Y77.653 Z-9.935
X-105.815 Y77.579 Z-9.971
X-105.862 Y77.5 Z-9.993
X-105.91 Y77.419 Z-10
G3 X-106.131 Y76.666 I1.36 J-0.809
G1 Y75.861
X-106.123 Y75.711
X-106.06 Y75.552
X-105.974 Y75.376
X-105.855 Y75.179
X-105.717 Y74.985
X-105.532 Y74.766
X-105.303 Y74.534
X-105.04 Y74.308
X-104.697 Y74.058
X-104.306 Y73.819
X-103.807 Y73.566
X-103.189 Y73.313
X-102.405 Y73.063
X-101.541 Y72.863
X-100.667 Y72.719
X-99.787 Y72.617
X-98.903 Y72.547
X-98.019 Y72.5
X-97.133 Y72.47
X-96.247 Y72.454
X-95.361 Y72.446
X-94.475
X-93.589 Y72.451
X-92.703 Y72.46
X-91.817 Y72.471
X-90.931 Y72.484
X-90.045 Y72.499
X-88.273 Y72.532
X-85.615 Y72.585
X-79.413 Y72.715
X-57.265 Y73.186
X-51.064 Y73.318
X-50.622 Y73.282
X-49.772 Y73.031
X-49.049 Y72.519
X-48.456 Y71.861
X-47.963 Y71.125
X-47.538 Y70.347
X-47.152 Y69.549
X-46.775 Y68.747
X-46.386 Y67.951
X-45.971 Y67.168
X-45.516 Y66.408
X-45.014 Y65.677
X-44.465 Y64.993
X-43.909 Y64.403
X-43.321 Y63.874
X-42.704 Y63.401
X-42.081 Y62.999
X-41.424 Y62.646
X-40.76 Y62.356
X-40.092 Y62.125
X-39.386 Y61.944
X-38.703 Y61.826
X-38.016 Y61.763
X-37.311 Y61.755
X-36.632 Y61.803
X-35.954 Y61.905
X-35.283 Y62.063
X-34.638 Y62.27
X-34.003 Y62.532
X-33.397 Y62.84
X-32.822 Y63.194
X-32.265 Y63.602
X-31.756 Y64.042
X-31.281 Y64.523
X-30.833 Y65.058
X-30.423 Y65.635
X-30.034 Y66.288
X-29.664 Y67.042
X-29.338 Y67.866
X-29.076 Y68.713
X-28.869 Y69.574
X-28.673 Y70.438
X-28.232 Y71.207
X-27.616 Y71.843
X-26.89 Y72.351
X-26.097 Y72.747
X-25.265 Y73.052
X-24.41 Y73.286
X-23.542 Y73.465
X-22.667 Y73.602
X-21.787 Y73.708
X-20.905 Y73.79
X-20.021 Y73.856
X-19.136 Y73.909
X-18.251 Y73.952
X-17.366 Y73.989
X-16.48 Y74.02
X-15.595 Y74.049
X-14.709 Y74.074
X-13.823 Y74.098
X-12.052 Y74.141
X-9.394 Y74.202
X-4.078 Y74.317
X15.412 Y74.732
X16.298 Y74.752
X17.04 Y74.802
X17.572 Y74.881
X18.045 Y74.99
X18.44 Y75.116
X18.63 Y75.193
X18.873 Y75.322
X19.087 Y75.496
X19.262 Y75.708
X19.393 Y75.951
X19.473 Y76.215
X19.5 Y76.489
Y76.666
G3 X19.035 Y77.229 I-0.6 J-0.021
G1 X18.944 Y77.25 Z-9.993
X18.855 Y77.271 Z-9.971
X18.77 Y77.291 Z-9.935
X18.692 Y77.309 Z-9.885
X18.622 Y77.325 Z-9.824
X18.562 Y77.339 Z-9.753
X18.514 Y77.35 Z-9.672
X18.479 Y77.358 Z-9.585
X18.458 Y77.363 Z-9.494
X18.451 Y77.364 Z-9.4
Z3
X-105.603 Y77.13
Z-8.8
Z-9.4
X-105.607 Y77.124 Z-9.494
X-105.618 Y77.105 Z-9.585
X-105.636 Y77.074 Z-9.672
X-105.662 Y77.031 Z-9.753
X-105.693 Y76.979 Z-9.824
X-105.729 Y76.917 Z-9.885
X-105.77 Y76.848 Z-9.935
X-105.815 Y76.774 Z-9.971
X-105.862 Y76.695 Z-9.993
X-105.91 Y76.614 Z-10
G3 X-106.131 Y75.861 I1.36 J-0.809
G1 Y74.653
X-106.123 Y74.503
X-106.099 Y74.343
X-106.056 Y74.158
X-105.995 Y73.97
X-105.905 Y73.751
X-105.793 Y73.532
X-105.642 Y73.287
X-105.457 Y73.035
X-105.228 Y72.77
X-104.938 Y72.485
X-104.608 Y72.208
X-104.188 Y71.911
X-103.7 Y71.62
X-103.101 Y71.327
X-102.355 Y71.032
X-101.507 Y70.774
X-100.643 Y70.577
X-99.77 Y70.429
X-98.89 Y70.318
X-98.008 Y70.237
X-97.124 Y70.179
X-96.239 Y70.139
X-95.353 Y70.113
X-94.467 Y70.098
X-93.581 Y70.091
X-92.695 Y70.09
X-91.809 Y70.095
X-90.922 Y70.102
X-90.036 Y70.113
X-89.15 Y70.126
X-88.264 Y70.14
X-86.492 Y70.171
X-83.835 Y70.224
X-79.405 Y70.315
X-57.257 Y70.786
X-53.713 Y70.861
X-52.83 Y70.787
X-52.004 Y70.466
X-51.268 Y69.973
X-50.618 Y69.37
X-50.037 Y68.702
X-49.503 Y67.995
X-48.996 Y67.268
X-48.499 Y66.534
X-47.998 Y65.803
X-47.48 Y65.084
X-46.934 Y64.386
X-46.355 Y63.716
X-45.739 Y63.078
X-45.085 Y62.48
X-44.393 Y61.927
X-43.664 Y61.423
X-42.901 Y60.974
X-42.105 Y60.583
X-41.282 Y60.254
X-40.436 Y59.991
X-39.572 Y59.796
X-38.703 Y59.673
X-37.832 Y59.619
X-36.963 Y59.636
X-36.105 Y59.721
X-35.257 Y59.875
X-34.427 Y60.096
X-33.621 Y60.382
X-32.839 Y60.732
X-32.091 Y61.142
X-31.379 Y61.609
X-30.704 Y62.135
X-30.069 Y62.718
X-29.469 Y63.364
X-28.92 Y64.06
X-28.426 Y64.796
X-27.988 Y65.565
X-27.604 Y66.364
X-27.274 Y67.187
X-26.917 Y67.997
X-26.406 Y68.721
X-25.766 Y69.335
X-25.037 Y69.839
X-24.248 Y70.242
X-23.422 Y70.561
X-22.572 Y70.812
X-21.708 Y71.008
X-20.835 Y71.161
X-19.957 Y71.282
X-19.076 Y71.377
X-18.193 Y71.453
X-17.309 Y71.514
X-16.424 Y71.565
X-15.539 Y71.607
X-14.654 Y71.643
X-13.768 Y71.675
X-12.883 Y71.703
X-11.997 Y71.729
X-11.111 Y71.753
X-10.225 Y71.776
X-8.454 Y71.818
X-5.796 Y71.878
X0.406 Y72.012
X13.694 Y72.295
X14.58 Y72.317
X15.466 Y72.355
X16.349 Y72.429
X17.171 Y72.548
X17.78 Y72.686
X18.268 Y72.839
X18.663 Y72.999
X18.727 Y73.031
X18.987 Y73.199
X19.203 Y73.42
X19.365 Y73.683
X19.466 Y73.975
X19.5 Y74.283
Y76.489
G3 X19.035 Y77.053 I-0.6 J-0.021
G1 X18.944 Y77.074 Z-9.993
X18.855 Y77.094 Z-9.971
X18.77 Y77.114 Z-9.935
X18.692 Y77.132 Z-9.885
X18.622 Y77.148 Z-9.824
X18.562 Y77.162 Z-9.753
X18.514 Y77.173 Z-9.672
X18.479 Y77.181 Z-9.585
X18.458 Y77.186 Z-9.494
X18.451 Y77.188 Z-9.4
Z3
X-105.603 Y75.922
Z-8.8
Z-9.4
X-105.607 Y75.916 Z-9.494
X-105.618 Y75.897 Z-9.585
X-105.636 Y75.866 Z-9.672
X-105.662 Y75.824 Z-9.753
X-105.693 Y75.771 Z-9.824
X-105.729 Y75.71 Z-9.885
X-105.77 Y75.641 Z-9.935
X-105.815 Y75.566 Z-9.971
X-105.862 Y75.487 Z-9.993
X-105.91 Y75.407 Z-10
G3 X-106.131 Y74.653 I1.36 J-0.809
G1 Y72.932
X-106.122 Y72.747
X-106.098 Y72.567
X-106.054 Y72.359
X-105.99 Y72.147
X-105.894 Y71.901
X-105.776 Y71.657
X-105.612 Y71.379
X-105.418 Y71.102
X-105.166 Y70.798
X-104.866 Y70.491
X-104.495 Y70.168
X-104.059 Y69.845
X-103.515 Y69.506
X-102.884 Y69.181
X-102.099 Y68.853
X-101.257 Y68.578
X-100.398 Y68.36
X-99.528 Y68.19
X-98.652 Y68.057
X-97.772 Y67.956
X-96.889 Y67.88
X-96.005 Y67.823
X-95.119 Y67.783
X-94.234 Y67.756
X-93.348 Y67.739
X-92.462 Y67.729
X-91.576 Y67.727
X-90.69 Y67.729
X-89.803 Y67.735
X-88.917 Y67.743
X-88.031 Y67.755
X-87.145 Y67.768
X-86.259 Y67.782
X-84.487 Y67.814
X-81.829 Y67.866
X-77.4 Y67.958
X-57.909 Y68.371
X-56.138 Y68.409
X-55.252 Y68.369
X-54.396 Y68.142
X-53.597 Y67.759
X-52.863 Y67.262
X-52.189 Y66.687
X-51.56 Y66.062
X-50.964 Y65.407
X-50.384 Y64.737
X-49.809 Y64.063
X-49.228 Y63.393
X-48.635 Y62.736
X-48.021 Y62.096
X-47.383 Y61.481
X-46.717 Y60.897
X-46.022 Y60.347
X-45.299 Y59.834
X-44.549 Y59.363
X-43.773 Y58.935
X-42.971 Y58.558
X-42.147 Y58.233
X-41.303 Y57.961
X-40.444 Y57.744
X-39.573 Y57.584
X-38.693 Y57.481
X-37.807 Y57.437
X-36.922 Y57.456
X-36.039 Y57.535
X-35.164 Y57.674
X-34.3 Y57.873
X-33.452 Y58.129
X-32.623 Y58.441
X-31.817 Y58.811
X-31.04 Y59.237
X-30.295 Y59.716
X-29.584 Y60.245
X-28.911 Y60.821
X-28.277 Y61.441
X-27.686 Y62.1
X-27.139 Y62.798
X-26.639 Y63.53
X-26.186 Y64.291
X-25.759 Y65.068
X-25.265 Y65.803
X-24.667 Y66.458
X-23.981 Y67.017
X-23.227 Y67.484
X-22.427 Y67.865
X-21.595 Y68.171
X-20.744 Y68.416
X-19.879 Y68.611
X-19.007 Y68.766
X-18.129 Y68.889
X-17.249 Y68.988
X-16.366 Y69.068
X-15.483 Y69.133
X-14.598 Y69.187
X-13.713 Y69.232
X-12.828 Y69.271
X-11.942 Y69.305
X-11.057 Y69.335
X-10.171 Y69.362
X-9.285 Y69.387
X-8.4 Y69.411
X-6.628 Y69.455
X-3.97 Y69.516
X0.459 Y69.612
X11.976 Y69.858
X12.862 Y69.88
X13.748 Y69.908
X14.633 Y69.951
X15.516 Y70.02
X16.396 Y70.126
X17.268 Y70.284
X17.891 Y70.448
X18.357 Y70.612
X18.67 Y70.751
X18.946 Y70.915
X19.179 Y71.138
X19.354 Y71.408
X19.463 Y71.711
X19.5 Y72.03
Y74.283
G3 X19.035 Y74.846 I-0.6 J-0.021
G1 X18.944 Y74.867 Z-9.993
X18.855 Y74.888 Z-9.971
X18.77 Y74.908 Z-9.935
X18.692 Y74.926 Z-9.885
X18.622 Y74.942 Z-9.824
X18.562 Y74.955 Z-9.753
X18.514 Y74.967 Z-9.672
X18.479 Y74.975 Z-9.585
X18.458 Y74.98 Z-9.494
X18.451 Y74.981 Z-9.4
Z3
X-105.603 Y74.202
Z-8.8
Z-9.4
X-105.607 Y74.195 Z-9.494
X-105.618 Y74.176 Z-9.585
X-105.636 Y74.145 Z-9.672
X-105.662 Y74.103 Z-9.753
X-105.693 Y74.051 Z-9.824
X-105.729 Y73.989 Z-9.885
X-105.77 Y73.92 Z-9.935
X-105.815 Y73.845 Z-9.971
X-105.862 Y73.767 Z-9.993
X-105.91 Y73.686 Z-10
G3 X-106.131 Y72.932 I1.36 J-0.809
G1 Y71.03
X-106.119 Y70.788
X-106.094 Y70.598
X-106.046 Y70.374
X-105.978 Y70.146
X-105.877 Y69.886
X-105.746 Y69.616
X-105.574 Y69.324
X-105.357 Y69.016
X-105.092 Y68.696
X-104.759 Y68.355
X-104.366 Y68.013
X-103.89 Y67.66
X-103.304 Y67.295
X-102.61 Y66.938
X-101.793 Y66.596
X-100.951 Y66.318
X-100.094 Y66.093
X-99.227 Y65.913
X-98.352 Y65.769
X-97.473 Y65.656
X-96.592 Y65.567
X-95.708 Y65.5
X-94.823 Y65.449
X-93.938 Y65.412
X-93.052 Y65.387
X-92.166 Y65.37
X-91.28 Y65.361
X-90.394 Y65.358
X-89.508 Y65.359
X-88.622 Y65.365
X-87.736 Y65.373
X-86.85 Y65.383
X-85.964 Y65.396
X-85.078 Y65.41
X-83.306 Y65.44
X-80.648 Y65.492
X-77.104 Y65.564
X-67.359 Y65.77
X-58.5 Y65.958
X-57.614 Y65.955
X-56.737 Y65.829
X-55.892 Y65.562
X-55.094 Y65.177
X-54.345 Y64.702
X-53.64 Y64.165
X-52.97 Y63.586
X-52.323 Y62.98
X-51.69 Y62.36
X-51.061 Y61.736
X-50.429 Y61.115
X-49.787 Y60.505
X-49.128 Y59.911
X-48.452 Y59.339
X-47.755 Y58.792
X-47.036 Y58.273
X-46.296 Y57.786
X-45.535 Y57.333
X-44.751 Y56.919
X-43.947 Y56.547
X-43.124 Y56.219
X-42.284 Y55.936
X-41.431 Y55.698
X-40.565 Y55.506
X-39.691 Y55.363
X-38.81 Y55.27
X-37.924 Y55.229
X-37.038 Y55.24
X-36.155 Y55.303
X-35.276 Y55.416
X-34.405 Y55.578
X-33.544 Y55.79
X-32.698 Y56.053
X-31.869 Y56.366
X-31.06 Y56.728
X-30.274 Y57.138
X-29.513 Y57.592
X-28.78 Y58.089
X-28.076 Y58.627
X-27.405 Y59.206
X-26.769 Y59.823
X-26.169 Y60.475
X-25.607 Y61.16
X-25.081 Y61.873
X-24.573 Y62.599
X-24.023 Y63.294
X-23.402 Y63.926
X-22.709 Y64.479
X-21.958 Y64.949
X-21.164 Y65.341
X-20.338 Y65.662
X-19.491 Y65.924
X-18.631 Y66.136
X-17.761 Y66.307
X-16.886 Y66.445
X-16.007 Y66.556
X-15.125 Y66.647
X-14.242 Y66.721
X-13.358 Y66.782
X-12.474 Y66.834
X-11.589 Y66.878
X-10.703 Y66.915
X-9.818 Y66.949
X-8.932 Y66.979
X-8.047 Y67.006
X-7.161 Y67.031
X-6.275 Y67.055
X-4.503 Y67.099
X-1.846 Y67.16
X2.584 Y67.257
X10.557 Y67.428
X11.443 Y67.449
X12.329 Y67.475
X13.214 Y67.511
X14.099 Y67.561
X14.982 Y67.632
X15.863 Y67.732
X16.737 Y67.873
X17.547 Y68.058
X18.107 Y68.234
X18.581 Y68.426
X18.728 Y68.5
X18.987 Y68.669
X19.203 Y68.89
X19.365 Y69.152
X19.466 Y69.445
X19.5 Y69.752
Y72.03
G3 X19.035 Y72.594 I-0.6 J-0.021
G1 X18.944 Y72.615 Z-9.993
X18.855 Y72.636 Z-9.971
X18.77 Y72.655 Z-9.935
X18.692 Y72.673 Z-9.885
X18.622 Y72.689 Z-9.824
X18.562 Y72.703 Z-9.753
X18.514 Y72.714 Z-9.672
X18.479 Y72.722 Z-9.585
X18.458 Y72.727 Z-9.494
X18.451 Y72.729 Z-9.4
Z3
X-105.603 Y72.3
Z-8.8
Z-9.4
X-105.607 Y72.293 Z-9.494
X-105.618 Y72.274 Z-9.585
X-105.636 Y72.243 Z-9.672
X-105.662 Y72.201 Z-9.753
X-105.693 Y72.149 Z-9.824
X-105.729 Y72.087 Z-9.885
X-105.77 Y72.018 Z-9.935
X-105.815 Y71.943 Z-9.971
X-105.862 Y71.865 Z-9.993
X-105.91 Y71.784 Z-10
G3 X-106.131 Y71.03 I1.36 J-0.809
G1 Y69.018
X-106.117 Y68.737
X-106.091 Y68.536
X-106.042 Y68.31
X-105.968 Y68.06
X-105.866 Y67.801
X-105.722 Y67.503
X-105.549 Y67.21
X-105.312 Y66.872
X-105.042 Y66.547
X-104.681 Y66.177
X-104.278 Y65.826
X-103.765 Y65.446
X-103.147 Y65.061
X-102.415 Y64.683
X-101.597 Y64.341
X-100.757 Y64.059
X-99.902 Y63.826
X-99.036 Y63.636
X-98.164 Y63.482
X-97.287 Y63.357
X-96.406 Y63.257
X-95.524 Y63.179
X-94.639 Y63.118
X-93.755 Y63.072
X-92.869 Y63.038
X-91.983 Y63.014
X-91.097 Y62.998
X-90.211 Y62.989
X-89.325 Y62.986
X-88.439 Y62.987
X-87.553 Y62.992
X-86.667 Y62.999
X-85.781 Y63.009
X-84.895 Y63.021
X-84.009 Y63.035
X-82.237 Y63.065
X-80.465 Y63.098
X-77.807 Y63.15
X-72.491 Y63.261
X-60.974 Y63.505
X-60.088 Y63.521
X-59.203 Y63.49
X-58.327 Y63.354
X-57.477 Y63.103
X-56.664 Y62.753
X-55.889 Y62.322
X-55.15 Y61.833
X-54.441 Y61.301
X-53.754 Y60.742
X-53.079 Y60.168
X-52.41 Y59.587
X-51.74 Y59.007
X-51.064 Y58.434
X-50.377 Y57.874
X-49.678 Y57.33
X-48.963 Y56.806
X-48.232 Y56.305
X-47.484 Y55.831
X-46.716 Y55.387
X-45.931 Y54.977
X-45.128 Y54.601
X-44.31 Y54.262
X-43.477 Y53.96
X-42.631 Y53.696
X-41.774 Y53.472
X-40.907 Y53.289
X-40.032 Y53.149
X-39.15 Y53.055
X-38.266 Y53.004
X-37.38 Y52.998
X-36.494 Y53.036
X-35.612 Y53.117
X-34.735 Y53.242
X-33.865 Y53.41
X-33.005 Y53.624
X-32.157 Y53.883
X-31.324 Y54.185
X-30.508 Y54.529
X-29.709 Y54.914
X-28.931 Y55.338
X-28.176 Y55.8
X-27.444 Y56.301
X-26.74 Y56.838
X-26.064 Y57.411
X-25.418 Y58.018
X-24.802 Y58.655
X-24.216 Y59.32
X-23.646 Y59.998
X-23.06 Y60.662
X-22.428 Y61.284
X-21.739 Y61.841
X-20.998 Y62.327
X-20.215 Y62.742
X-19.4 Y63.09
X-18.562 Y63.378
X-17.708 Y63.615
X-16.843 Y63.808
X-15.971 Y63.966
X-15.095 Y64.095
X-14.215 Y64.2
X-13.333 Y64.287
X-12.45 Y64.358
X-11.566 Y64.418
X-10.681 Y64.469
X-9.796 Y64.513
X-8.91 Y64.55
X-8.025 Y64.584
X-7.139 Y64.614
X-6.254 Y64.641
X-5.368 Y64.667
X-4.482 Y64.691
X-2.71 Y64.735
X-0.053 Y64.797
X3.491 Y64.875
X8.806 Y64.99
X9.692 Y65.01
X10.578 Y65.033
X11.464 Y65.06
X12.349 Y65.095
X13.234 Y65.142
X14.118 Y65.205
X15 Y65.291
X15.878 Y65.408
X16.751 Y65.563
X17.552 Y65.755
X18.144 Y65.947
X18.608 Y66.141
X18.741 Y66.21
X18.996 Y66.379
X19.209 Y66.599
X19.368 Y66.861
X19.467 Y67.15
X19.5 Y67.454
Y69.752
G3 X19.035 Y70.315 I-0.6 J-0.021
G1 X18.944 Y70.336 Z-9.993
X18.855 Y70.357 Z-9.971
X18.77 Y70.376 Z-9.935
X18.692 Y70.395 Z-9.885
X18.622 Y70.411 Z-9.824
X18.562 Y70.424 Z-9.753
X18.514 Y70.435 Z-9.672
X18.479 Y70.444 Z-9.585
X18.458 Y70.448 Z-9.494
X18.451 Y70.45 Z-9.4
Z3
X-105.603 Y70.287
Z-8.8
Z-9.4
X-105.607 Y70.281 Z-9.494
X-105.618 Y70.262 Z-9.585
X-105.636 Y70.231 Z-9.672
X-105.662 Y70.189 Z-9.753
X-105.693 Y70.136 Z-9.824
X-105.729 Y70.074 Z-9.885
X-105.77 Y70.005 Z-9.935
X-105.815 Y69.931 Z-9.971
X-105.862 Y69.852 Z-9.993
X-105.91 Y69.771 Z-10
G3 X-106.131 Y69.018 I1.36 J-0.809
G1 Y66.804
X-106.122 Y66.631
X-106.094 Y66.416
X-106.046 Y66.191
X-105.967 Y65.927
X-105.864 Y65.662
X-105.716 Y65.358
X-105.534 Y65.048
X-105.295 Y64.708
X-105.005 Y64.359
X-104.641 Y63.986
X-104.212 Y63.612
X-103.673 Y63.213
X-103.033 Y62.814
X-102.259 Y62.415
X-101.441 Y62.073
X-100.602 Y61.787
X-99.749 Y61.549
X-98.885 Y61.351
X-98.014 Y61.187
X-97.138 Y61.053
X-96.259 Y60.944
X-95.377 Y60.856
X-94.494 Y60.787
X-93.609 Y60.732
X-92.724 Y60.69
X-91.839 Y60.659
X-90.953 Y60.637
X-90.067 Y60.623
X-89.181 Y60.615
X-88.295 Y60.611
X-87.409 Y60.612
X-86.522 Y60.617
X-85.636 Y60.624
X-84.75 Y60.634
X-83.864 Y60.645
X-82.978 Y60.658
X-81.206 Y60.688
X-79.434 Y60.72
X-76.776 Y60.772
X-72.347 Y60.864
X-62.602 Y61.07
X-61.715 Y61.08
X-60.83 Y61.046
X-59.952 Y60.928
X-59.093 Y60.71
X-58.262 Y60.403
X-57.462 Y60.021
X-56.693 Y59.581
X-55.95 Y59.098
X-55.227 Y58.586
X-54.518 Y58.054
X-53.817 Y57.512
X-53.118 Y56.968
X-52.417 Y56.426
X-51.71 Y55.892
X-50.993 Y55.37
X-50.266 Y54.864
X-49.526 Y54.377
X-48.771 Y53.913
X-48.001 Y53.474
X-47.216 Y53.063
X-46.416 Y52.682
X-45.602 Y52.331
X-44.776 Y52.011
X-43.937 Y51.725
X-43.088 Y51.472
X-42.229 Y51.255
X-41.361 Y51.076
X-40.486 Y50.935
X-39.606 Y50.833
X-38.722 Y50.769
X-37.836 Y50.744
X-36.95 Y50.758
X-36.066 Y50.81
X-35.184 Y50.901
X-34.308 Y51.03
X-33.438 Y51.2
X-32.577 Y51.41
X-31.727 Y51.659
X-30.889 Y51.947
X-30.064 Y52.271
X-29.255 Y52.632
X-28.462 Y53.028
X-27.688 Y53.459
X-26.933 Y53.924
X-26.202 Y54.424
X-25.493 Y54.957
X-24.81 Y55.52
X-24.152 Y56.114
X-23.517 Y56.732
X-22.899 Y57.367
X-22.28 Y58.001
X-21.634 Y58.607
X-20.947 Y59.168
X-20.217 Y59.669
X-19.446 Y60.106
X-18.643 Y60.481
X-17.815 Y60.797
X-16.969 Y61.062
X-16.111 Y61.281
X-15.243 Y61.462
X-14.37 Y61.611
X-13.492 Y61.734
X-12.612 Y61.835
X-11.73 Y61.919
X-10.846 Y61.99
X-9.962 Y62.049
X-9.078 Y62.099
X-8.193 Y62.143
X-7.307 Y62.181
X-6.422 Y62.215
X-5.536 Y62.245
X-4.65 Y62.273
X-3.765 Y62.299
X-2.879 Y62.323
X-1.107 Y62.368
X0.664 Y62.41
X3.322 Y62.469
X7.752 Y62.566
X8.638 Y62.587
X9.523 Y62.61
X10.409 Y62.636
X11.295 Y62.669
X12.18 Y62.71
X13.064 Y62.765
X13.948 Y62.836
X14.829 Y62.929
X15.707 Y63.05
X16.579 Y63.205
X17.442 Y63.408
X18.074 Y63.609
X18.545 Y63.802
X18.732 Y63.896
X18.99 Y64.065
X19.205 Y64.286
X19.366 Y64.548
X19.466 Y64.839
X19.5 Y65.146
Y67.454
G3 X19.035 Y68.018 I-0.6 J-0.021
G1 X18.944 Y68.039 Z-9.993
X18.855 Y68.06 Z-9.971
X18.77 Y68.079 Z-9.935
X18.692 Y68.097 Z-9.885
X18.622 Y68.114 Z-9.824
X18.562 Y68.127 Z-9.753
X18.514 Y68.138 Z-9.672
X18.479 Y68.146 Z-9.585
X18.458 Y68.151 Z-9.494
X18.451 Y68.153 Z-9.4
Z3
X-105.603 Y68.073
Z-8.8
Z-9.4
X-105.607 Y68.067 Z-9.494
X-105.618 Y68.048 Z-9.585
X-105.636 Y68.017 Z-9.672
X-105.662 Y67.975 Z-9.753
X-105.693 Y67.922 Z-9.824
X-105.729 Y67.861 Z-9.885
X-105.77 Y67.792 Z-9.935
X-105.815 Y67.717 Z-9.971
X-105.862 Y67.638 Z-9.993
X-105.91 Y67.557 Z-10
G3 X-106.131 Y66.804 I1.36 J-0.809
G1 Y64.681
X-106.121 Y64.473
X-106.091 Y64.251
X-106.043 Y64.023
X-105.963 Y63.756
X-105.856 Y63.482
X-105.708 Y63.177
X-105.517 Y62.852
X-105.277 Y62.511
X-104.97 Y62.141
X-104.606 Y61.768
X-104.157 Y61.376
X-103.599 Y60.963
X-102.941 Y60.554
X-102.153 Y60.147
X-101.336 Y59.804
X-100.499 Y59.514
X-99.647 Y59.269
X-98.785 Y59.064
X-97.916 Y58.892
X-97.042 Y58.749
X-96.163 Y58.631
X-95.282 Y58.535
X-94.4 Y58.456
X-93.516 Y58.394
X-92.631 Y58.345
X-91.746 Y58.307
X-90.86 Y58.278
X-89.974 Y58.258
X-89.088 Y58.245
X-88.202 Y58.237
X-87.316 Y58.235
X-86.43 Y58.236
X-85.544 Y58.24
X-84.658 Y58.247
X-83.772 Y58.257
X-82.886 Y58.268
X-82 Y58.281
X-80.228 Y58.31
X-78.456 Y58.342
X-75.798 Y58.393
X-71.368 Y58.484
X-65.167 Y58.615
X-64.281 Y58.633
X-63.395 Y58.642
X-62.509 Y58.619
X-61.627 Y58.527
X-60.758 Y58.354
X-59.91 Y58.098
X-59.087 Y57.769
X-58.29 Y57.382
X-57.517 Y56.949
X-56.764 Y56.482
X-56.025 Y55.992
X-55.297 Y55.488
X-54.574 Y54.975
X-53.852 Y54.462
X-53.127 Y53.951
X-52.398 Y53.449
X-51.66 Y52.958
X-50.912 Y52.483
X-50.152 Y52.026
X-49.38 Y51.591
X-48.596 Y51.179
X-47.8 Y50.791
X-46.991 Y50.428
X-46.17 Y50.093
X-45.339 Y49.786
X-44.498 Y49.509
X-43.646 Y49.262
X-42.787 Y49.048
X-41.919 Y48.867
X-41.045 Y48.721
X-40.166 Y48.609
X-39.284 Y48.531
X-38.398 Y48.487
X-37.512 Y48.478
X-36.627 Y48.503
X-35.743 Y48.562
X-34.861 Y48.657
X-33.985 Y48.787
X-33.115 Y48.954
X-32.252 Y49.156
X-31.398 Y49.393
X-30.554 Y49.664
X-29.722 Y49.969
X-28.903 Y50.306
X-28.098 Y50.676
X-27.308 Y51.077
X-26.534 Y51.51
X-25.78 Y51.974
X-25.045 Y52.469
X-24.33 Y52.994
X-23.637 Y53.546
X-22.964 Y54.122
X-22.307 Y54.717
X-21.656 Y55.318
X-20.994 Y55.907
X-20.305 Y56.464
X-19.583 Y56.977
X-18.824 Y57.436
X-18.034 Y57.836
X-17.218 Y58.182
X-16.382 Y58.475
X-15.531 Y58.722
X-14.669 Y58.929
X-13.8 Y59.101
X-12.925 Y59.244
X-12.047 Y59.363
X-11.167 Y59.462
X-10.284 Y59.545
X-9.401 Y59.615
X-8.517 Y59.674
X-7.632 Y59.724
X-6.747 Y59.768
X-5.862 Y59.807
X-4.977 Y59.841
X-4.091 Y59.872
X-3.205 Y59.9
X-2.32 Y59.926
X-1.434 Y59.951
X0.338 Y59.997
X2.11 Y60.039
X6.539 Y60.139
X7.425 Y60.16
X8.311 Y60.182
X9.197 Y60.207
X10.082 Y60.237
X10.968 Y60.273
X11.853 Y60.319
X12.737 Y60.377
X13.62 Y60.45
X14.501 Y60.543
X15.379 Y60.661
X16.253 Y60.808
X17.119 Y60.998
X17.847 Y61.207
X18.356 Y61.398
X18.696 Y61.558
X18.965 Y61.724
X19.19 Y61.946
X19.359 Y62.213
X19.464 Y62.511
X19.5 Y62.825
Y65.146
G3 X19.035 Y65.709 I-0.6 J-0.021
G1 X18.944 Y65.73 Z-9.993
X18.855 Y65.751 Z-9.971
X18.77 Y65.771 Z-9.935
X18.692 Y65.789 Z-9.885
X18.622 Y65.805 Z-9.824
X18.562 Y65.818 Z-9.753
X18.514 Y65.83 Z-9.672
X18.479 Y65.838 Z-9.585
X18.458 Y65.843 Z-9.494
X18.451 Y65.844 Z-9.4
Z3
X-105.603 Y65.95
Z-8.8
Z-9.4
X-105.607 Y65.944 Z-9.494
X-105.618 Y65.925 Z-9.585
X-105.636 Y65.894 Z-9.672
X-105.662 Y65.851 Z-9.753
X-105.693 Y65.799 Z-9.824
X-105.729 Y65.737 Z-9.885
X-105.77 Y65.668 Z-9.935
X-105.815 Y65.594 Z-9.971
X-105.862 Y65.515 Z-9.993
X-105.91 Y65.434 Z-10
G3 X-106.131 Y64.681 I1.36 J-0.809
G1 Y62.577
X-106.116 Y62.282
X-106.087 Y62.056
X-106.037 Y61.824
X-105.957 Y61.557
X-105.846 Y61.272
X-105.698 Y60.967
X-105.499 Y60.63
X-105.26 Y60.289
X-104.942 Y59.906
X-104.575 Y59.53
X-104.112 Y59.126
X-103.54 Y58.702
X-102.862 Y58.281
X-102.074 Y57.874
X-101.258 Y57.528
X-100.423 Y57.234
X-99.573 Y56.984
X-98.712 Y56.772
X-97.844 Y56.593
X-96.971 Y56.442
X-96.094 Y56.316
X-95.214 Y56.212
X-94.332 Y56.126
X-93.449 Y56.056
X-92.564 Y56
X-91.679 Y55.955
X-90.794 Y55.921
X-89.908 Y55.895
X-89.022 Y55.877
X-88.136 Y55.865
X-87.25 Y55.858
X-86.364 Y55.856
X-85.478 Y55.858
X-84.592 Y55.862
X-83.706 Y55.869
X-82.82 Y55.879
X-81.933 Y55.89
X-81.047 Y55.902
X-79.275 Y55.931
X-77.503 Y55.962
X-74.846 Y56.014
X-71.302 Y56.086
X-66.872 Y56.179
X-65.986 Y56.196
X-65.1 Y56.207
X-64.214 Y56.195
X-63.33 Y56.133
X-62.454 Y56.003
X-61.591 Y55.8
X-60.748 Y55.527
X-59.927 Y55.195
X-59.127 Y54.813
X-58.347 Y54.393
X-57.582 Y53.945
X-56.829 Y53.477
X-56.085 Y52.997
X-55.344 Y52.511
X-54.604 Y52.024
X-53.861 Y51.54
X-53.113 Y51.065
X-52.358 Y50.602
X-51.594 Y50.153
X-50.82 Y49.72
X-50.037 Y49.307
X-49.243 Y48.913
X-48.438 Y48.542
X-47.623 Y48.194
X-46.798 Y47.87
X-45.964 Y47.572
X-45.12 Y47.301
X-44.268 Y47.057
X-43.408 Y46.844
X-42.541 Y46.66
X-41.669 Y46.506
X-40.791 Y46.384
X-39.91 Y46.292
X-39.026 Y46.231
X-38.14 Y46.201
X-37.254
X-36.368 Y46.233
X-35.485 Y46.297
X-34.604 Y46.393
X-33.727 Y46.521
X-32.856 Y46.682
X-31.991 Y46.876
X-31.134 Y47.1
X-30.285 Y47.356
X-29.446 Y47.642
X-28.619 Y47.958
X-27.803 Y48.303
X-27 Y48.678
X-26.211 Y49.081
X-25.437 Y49.514
X-24.681 Y49.975
X-23.941 Y50.464
X-23.22 Y50.979
X-22.516 Y51.517
X-21.827 Y52.074
X-21.148 Y52.643
X-20.467 Y53.21
X-19.771 Y53.758
X-19.05 Y54.274
X-18.301 Y54.747
X-17.523 Y55.171
X-16.718 Y55.543
X-15.893 Y55.864
X-15.05 Y56.139
X-14.195 Y56.373
X-13.331 Y56.569
X-12.461 Y56.734
X-11.586 Y56.873
X-10.707 Y56.988
X-9.826 Y57.086
X-8.944 Y57.168
X-8.06 Y57.237
X-7.176 Y57.296
X-6.292 Y57.347
X-5.407 Y57.391
X-4.521 Y57.43
X-3.636 Y57.465
X-2.75 Y57.497
X-1.865 Y57.525
X-0.979 Y57.552
X-0.093 Y57.577
X0.793 Y57.601
X2.564 Y57.645
X6.108 Y57.729
X6.994 Y57.751
X7.879 Y57.775
X8.765 Y57.802
X9.651 Y57.834
X10.536 Y57.872
X11.421 Y57.92
X12.305 Y57.978
X13.188 Y58.051
X14.07 Y58.141
X14.949 Y58.252
X15.824 Y58.389
X16.694 Y58.561
X17.552 Y58.781
X18.155 Y58.987
X18.639 Y59.197
X18.759 Y59.261
X19.008 Y59.431
X19.216 Y59.65
X19.371 Y59.909
X19.467 Y60.196
X19.5 Y60.496
Y62.825
G3 X19.035 Y63.389 I-0.6 J-0.021
G1 X18.944 Y63.41 Z-9.993
X18.855 Y63.43 Z-9.971
X18.77 Y63.45 Z-9.935
X18.692 Y63.468 Z-9.885
X18.622 Y63.484 Z-9.824
X18.562 Y63.498 Z-9.753
X18.514 Y63.509 Z-9.672
X18.479 Y63.517 Z-9.585
X18.458 Y63.522 Z-9.494
X18.451 Y63.523 Z-9.4
Z3
X-105.603 Y63.847
Z-8.8
Z-9.4
X-105.607 Y63.84 Z-9.494
X-105.618 Y63.822 Z-9.585
X-105.636 Y63.791 Z-9.672
X-105.662 Y63.748 Z-9.753
X-105.693 Y63.696 Z-9.824
X-105.729 Y63.634 Z-9.885
X-105.77 Y63.565 Z-9.935
X-105.815 Y63.49 Z-9.971
X-105.862 Y63.412 Z-9.993
X-105.91 Y63.331 Z-10
G3 X-106.131 Y62.577 I1.36 J-0.809
G1 Y60.364
X-106.116 Y60.071
X-106.086 Y59.843
X-106.036 Y59.607
X-105.956 Y59.339
X-105.841 Y59.045
X-105.693 Y58.74
X-105.488 Y58.392
X-105.249 Y58.051
X-104.923 Y57.659
X-104.553 Y57.279
X-104.078 Y56.865
X-103.493 Y56.432
X-102.796 Y55.998
X-102.009 Y55.592
X-101.194 Y55.244
X-100.359 Y54.946
X-99.51 Y54.692
X-98.651 Y54.474
X-97.785 Y54.289
X-96.913 Y54.131
X-96.037 Y53.999
X-95.158 Y53.887
X-94.276 Y53.794
X-93.394 Y53.718
X-92.51 Y53.655
X-91.625 Y53.605
X-90.74 Y53.565
X-89.854 Y53.534
X-88.968 Y53.511
X-88.082 Y53.494
X-87.196 Y53.484
X-86.31 Y53.478
X-85.424 Y53.476
X-84.538 Y53.478
X-83.652 Y53.483
X-82.766 Y53.49
X-81.88 Y53.5
X-80.994 Y53.511
X-80.108 Y53.523
X-78.336 Y53.551
X-76.564 Y53.583
X-73.906 Y53.634
X-70.362 Y53.706
X-68.59 Y53.742
X-67.704 Y53.76
X-66.818 Y53.772
X-65.932 Y53.77
X-65.047 Y53.735
X-64.165 Y53.644
X-63.292 Y53.491
X-62.433 Y53.273
X-61.592 Y52.996
X-60.769 Y52.667
X-59.964 Y52.295
X-59.176 Y51.891
X-58.401 Y51.461
X-57.636 Y51.014
X-56.877 Y50.557
X-55.366 Y49.631
X-54.608 Y49.172
X-53.846 Y48.72
X-53.077 Y48.279
X-52.301 Y47.851
X-51.517 Y47.438
X-50.725 Y47.042
X-49.923 Y46.664
X-49.113 Y46.306
X-48.293 Y45.969
X-47.465 Y45.654
X-46.628 Y45.362
X-45.783 Y45.095
X-44.931 Y44.853
X-44.071 Y44.638
X-43.205 Y44.451
X-42.333 Y44.29
X-41.457 Y44.158
X-40.577 Y44.053
X-39.695 Y43.976
X-38.81 Y43.928
X-37.924 Y43.907
X-37.038 Y43.916
X-36.152 Y43.952
X-35.269 Y44.018
X-34.388 Y44.113
X-33.511 Y44.239
X-32.638 Y44.394
X-31.771 Y44.578
X-30.911 Y44.791
X-30.058 Y45.032
X-29.214 Y45.301
X-28.379 Y45.598
X-27.554 Y45.922
X-26.741 Y46.273
X-25.939 Y46.65
X-25.151 Y47.055
X-24.376 Y47.485
X-23.617 Y47.942
X-22.873 Y48.423
X-22.144 Y48.927
X-21.429 Y49.451
X-20.724 Y49.988
X-20.023 Y50.529
X-19.315 Y51.063
X-18.592 Y51.576
X-17.848 Y52.056
X-17.078 Y52.495
X-16.285 Y52.89
X-15.47 Y53.237
X-14.636 Y53.539
X-13.789 Y53.798
X-12.931 Y54.019
X-12.065 Y54.207
X-11.193 Y54.366
X-10.317 Y54.5
X-9.438 Y54.613
X-8.558 Y54.708
X-7.675 Y54.789
X-6.792 Y54.858
X-5.908 Y54.917
X-5.023 Y54.968
X-4.138 Y55.013
X-3.253 Y55.053
X-2.367 Y55.088
X-1.482 Y55.12
X-0.596 Y55.149
X0.29 Y55.176
X1.175 Y55.201
X2.947 Y55.248
X5.605 Y55.316
X6.49 Y55.339
X7.376 Y55.365
X8.262 Y55.394
X9.147 Y55.427
X10.033 Y55.467
X10.917 Y55.514
X11.802 Y55.572
X12.685 Y55.642
X13.567 Y55.728
X14.447 Y55.831
X15.324 Y55.957
X16.197 Y56.113
X17.061 Y56.307
X17.818 Y56.527
X18.347 Y56.728
X18.7 Y56.895
X18.968 Y57.062
X19.192 Y57.284
X19.36 Y57.55
X19.465 Y57.847
X19.5 Y58.16
Y60.496
G3 X19.035 Y61.06 I-0.6 J-0.021
G1 X18.944 Y61.081 Z-9.993
X18.855 Y61.102 Z-9.971
X18.77 Y61.121 Z-9.935
X18.692 Y61.139 Z-9.885
X18.622 Y61.155 Z-9.824
X18.562 Y61.169 Z-9.753
X18.514 Y61.18 Z-9.672
X18.479 Y61.188 Z-9.585
X18.458 Y61.193 Z-9.494
X18.451 Y61.195 Z-9.4
Z3
X-105.603 Y61.633
Z-8.8
Z-9.4
X-105.607 Y61.627 Z-9.494
X-105.618 Y61.608 Z-9.585
X-105.636 Y61.577 Z-9.672
X-105.662 Y61.534 Z-9.753
X-105.693 Y61.482 Z-9.824
X-105.729 Y61.42 Z-9.885
X-105.77 Y61.351 Z-9.935
X-105.815 Y61.277 Z-9.971
X-105.862 Y61.198 Z-9.993
X-105.91 Y61.117 Z-10
G3 X-106.131 Y60.364 I1.36 J-0.809
G1 Y58.15
X-106.115 Y57.839
X-106.085 Y57.611
X-106.034 Y57.369
X-105.954 Y57.102
X-105.837 Y56.801
X-105.689 Y56.496
X-105.48 Y56.142
X-105.238 Y55.797
X-104.908 Y55.4
X-104.532 Y55.015
X-104.048 Y54.592
X-103.453 Y54.152
X-102.74 Y53.708
X-101.952 Y53.302
X-101.138 Y52.952
X-100.304 Y52.652
X-99.457 Y52.393
X-98.599 Y52.17
X-97.734 Y51.98
X-96.863 Y51.817
X-95.988 Y51.678
X-95.109 Y51.56
X-94.229 Y51.461
X-93.347 Y51.379
X-92.463 Y51.31
X-91.579 Y51.254
X-90.694 Y51.209
X-89.808 Y51.173
X-88.923 Y51.145
X-88.037 Y51.125
X-87.151 Y51.11
X-86.265 Y51.101
X-85.379 Y51.097
X-84.492 Y51.096
X-83.606 Y51.098
X-82.72 Y51.103
X-81.834 Y51.111
X-80.948 Y51.12
X-80.062 Y51.131
X-79.176 Y51.143
X-77.404 Y51.172
X-75.632 Y51.203
X-72.974 Y51.254
X-69.43 Y51.324
X-68.544 Y51.338
X-67.658 Y51.343
X-66.772 Y51.326
X-65.888 Y51.271
X-65.008 Y51.162
X-64.138 Y50.996
X-63.28 Y50.773
X-62.438 Y50.497
X-61.613 Y50.175
X-60.803 Y49.816
X-60.006 Y49.427
X-59.222 Y49.016
X-58.445 Y48.589
X-57.674 Y48.152
X-56.137 Y47.269
X-55.367 Y46.831
X-54.593 Y46.4
X-53.814 Y45.978
X-53.029 Y45.567
X-52.236 Y45.17
X-51.437 Y44.788
X-50.629 Y44.423
X-49.814 Y44.076
X-48.991 Y43.748
X-48.16 Y43.44
X-47.322 Y43.153
X-46.476 Y42.889
X-45.623 Y42.648
X-44.764 Y42.431
X-43.899 Y42.24
X-43.028 Y42.073
X-42.154 Y41.931
X-41.275 Y41.815
X-40.394 Y41.725
X-39.51 Y41.66
X-38.625 Y41.621
X-37.739 Y41.608
X-36.853 Y41.621
X-35.967 Y41.661
X-35.084 Y41.728
X-34.203 Y41.822
X-33.325 Y41.943
X-32.451 Y42.092
X-31.583 Y42.267
X-30.72 Y42.469
X-29.864 Y42.698
X-29.015 Y42.952
X-28.174 Y43.231
X-27.342 Y43.536
X-26.519 Y43.866
X-25.707 Y44.22
X-24.907 Y44.6
X-24.118 Y45.003
X-23.342 Y45.431
X-22.579 Y45.883
X-21.83 Y46.356
X-21.093 Y46.848
X-20.367 Y47.355
X-18.925 Y48.387
X-18.196 Y48.89
X-17.451 Y49.37
X-16.687 Y49.819
X-15.902 Y50.23
X-15.096 Y50.599
X-14.272 Y50.924
X-13.433 Y51.208
X-12.581 Y51.454
X-11.721 Y51.664
X-10.853 Y51.844
X-9.98 Y51.997
X-9.104 Y52.127
X-8.224 Y52.237
X-7.343 Y52.331
X-6.461 Y52.41
X-5.577 Y52.479
X-4.693 Y52.538
X-3.808 Y52.589
X-2.923 Y52.634
X-2.038 Y52.674
X-1.153 Y52.71
X-0.267 Y52.742
X0.618 Y52.772
X1.504 Y52.799
X2.39 Y52.825
X5.047 Y52.899
X5.933 Y52.924
X6.819 Y52.952
X7.704 Y52.982
X8.59 Y53.016
X9.475 Y53.056
X10.36 Y53.103
X11.244 Y53.159
X12.128 Y53.227
X13.01 Y53.307
X13.891 Y53.403
X14.77 Y53.519
X15.644 Y53.659
X16.514 Y53.832
X17.373 Y54.047
X18.053 Y54.269
X18.55 Y54.477
X18.743 Y54.577
X18.997 Y54.746
X19.209 Y54.966
X19.368 Y55.227
X19.467 Y55.517
X19.5 Y55.821
Y58.16
G3 X19.035 Y58.724 I-0.6 J-0.021
G1 X18.944 Y58.745 Z-9.993
X18.855 Y58.766 Z-9.971
X18.77 Y58.785 Z-9.935
X18.692 Y58.803 Z-9.885
X18.622 Y58.819 Z-9.824
X18.562 Y58.833 Z-9.753
X18.514 Y58.844 Z-9.672
X18.479 Y58.852 Z-9.585
X18.458 Y58.857 Z-9.494
X18.451 Y58.859 Z-9.4
Z3
X-105.603 Y59.419
Z-8.8
Z-9.4
X-105.607 Y59.413 Z-9.494
X-105.618 Y59.394 Z-9.585
X-105.636 Y59.363 Z-9.672
X-105.662 Y59.321 Z-9.753
X-105.693 Y59.268 Z-9.824
X-105.729 Y59.206 Z-9.885
X-105.77 Y59.137 Z-9.935
X-105.815 Y59.063 Z-9.971
X-105.862 Y58.984 Z-9.993
X-105.91 Y58.903 Z-10
G3 X-106.131 Y58.15 I1.36 J-0.809
G1 Y57.546
X-106.138 Y57.345
X-106.155 Y56.942
X-106.184 Y56.741
X-106.228 Y56.54
X-106.238 Y56.506
X-106.273 Y56.36
X-106.294 Y56.195
X-106.303 Y56.014
X-106.297 Y55.799
X-106.272 Y55.579
X-106.222 Y55.317
X-106.147 Y55.047
X-106.035 Y54.744
X-105.884 Y54.416
X-105.691 Y54.072
X-105.435 Y53.692
X-105.128 Y53.307
X-104.738 Y52.892
X-104.256 Y52.454
X-103.69 Y52.017
X-102.98 Y51.556
X-102.201 Y51.135
X-101.394 Y50.769
X-100.566 Y50.452
X-99.724 Y50.177
X-98.87 Y49.939
X-98.009 Y49.733
X-97.14 Y49.556
X-96.267 Y49.404
X-95.391 Y49.273
X-94.512 Y49.162
X-93.631 Y49.068
X-92.748 Y48.989
X-91.864 Y48.924
X-90.98 Y48.87
X-90.095 Y48.826
X-89.209 Y48.791
X-88.324 Y48.764
X-87.438 Y48.744
X-86.552 Y48.729
X-85.666 Y48.72
X-84.78 Y48.715
X-83.894 Y48.713
X-83.007 Y48.715
X-82.121 Y48.72
X-81.235 Y48.727
X-80.349 Y48.736
X-79.463 Y48.746
X-78.577 Y48.759
X-76.805 Y48.786
X-75.033 Y48.817
X-72.375 Y48.867
X-70.603 Y48.9
X-69.717 Y48.913
X-68.831 Y48.915
X-67.945 Y48.896
X-67.061 Y48.841
X-66.18 Y48.741
X-65.307 Y48.59
X-64.445 Y48.384
X-63.596 Y48.13
X-62.762 Y47.832
X-61.941 Y47.497
X-61.133 Y47.133
X-60.336 Y46.747
X-59.547 Y46.344
X-58.764 Y45.929
X-57.984 Y45.509
X-57.205 Y45.086
X-56.425 Y44.666
X-55.643 Y44.249
X-54.857 Y43.84
X-54.066 Y43.44
X-53.269 Y43.052
X-52.467 Y42.677
X-51.657 Y42.316
X-50.841 Y41.971
X-50.017 Y41.644
X-49.187 Y41.335
X-48.44 Y41.077
X-48.29 Y41.034
X-48.137 Y41.009
X-47.982 Y41
X-30
X-29.115 Y41.044
X-28.29 Y41.141
X-27.421 Y41.315
X-26.566 Y41.547
X-25.725 Y41.827
X-24.898 Y42.146
X-24.086 Y42.498
X-23.286 Y42.881
X-22.501 Y43.291
X-21.728 Y43.725
X-20.968 Y44.181
X-20.219 Y44.654
X-19.478 Y45.14
X-18.742 Y45.633
X-18.004 Y46.124
X-17.258 Y46.603
X-16.499 Y47.06
X-15.723 Y47.487
X-14.928 Y47.878
X-14.115 Y48.232
X-13.287 Y48.547
X-12.445 Y48.823
X-11.592 Y49.063
X-10.731 Y49.27
X-9.862 Y49.448
X-8.989 Y49.6
X-8.113 Y49.73
X-7.234 Y49.841
X-6.353 Y49.936
X-5.47 Y50.017
X-4.587 Y50.087
X-3.703 Y50.147
X-2.818 Y50.2
X-1.933 Y50.246
X-1.048 Y50.287
X-0.163 Y50.324
X0.723 Y50.358
X1.608 Y50.388
X2.494 Y50.417
X5.151 Y50.5
X6.037 Y50.528
X6.922 Y50.559
X7.808 Y50.594
X8.693 Y50.633
X9.578 Y50.677
X10.462 Y50.73
X11.346 Y50.791
X12.23 Y50.864
X13.112 Y50.95
X13.992 Y51.053
X14.869 Y51.176
X15.743 Y51.325
X16.61 Y51.506
X17.468 Y51.729
X18.12 Y51.951
X18.602 Y52.159
X18.756 Y52.24
X19.008 Y52.411
X19.217 Y52.632
X19.373 Y52.893
X19.469 Y53.182
X19.5 Y53.484
Y55.821
G3 X19.035 Y56.384 I-0.6 J-0.021
G1 X18.944 Y56.405 Z-9.993
X18.855 Y56.426 Z-9.971
X18.77 Y56.446 Z-9.935
X18.692 Y56.464 Z-9.885
X18.622 Y56.48 Z-9.824
X18.562 Y56.493 Z-9.753
X18.514 Y56.505 Z-9.672
X18.479 Y56.513 Z-9.585
X18.458 Y56.518 Z-9.494
X18.451 Y56.519 Z-9.4
Z3
X-31.269 Y41.528
Z-8.8
Z-9.4
X-31.263 Y41.524 Z-9.494
X-31.244 Y41.513 Z-9.585
X-31.213 Y41.495 Z-9.672
X-31.171 Y41.469 Z-9.753
X-31.118 Y41.438 Z-9.824
X-31.057 Y41.402 Z-9.885
X-30.988 Y41.361 Z-9.935
X-30.913 Y41.316 Z-9.971
X-30.834 Y41.269 Z-9.993
X-30.754 Y41.221 Z-10
G3 X-30 Y41 I0.809 J1.36
G1 X-24.363
X-23.773 Y41.03
X-23.224 Y41.101
X-22.58 Y41.239
X-21.782 Y41.478
X-20.956 Y41.8
X-20.153 Y42.174
X-19.368 Y42.585
X-18.597 Y43.022
X-17.834 Y43.472
X-17.073 Y43.925
X-16.306 Y44.369
X-15.528 Y44.795
X-14.738 Y45.195
X-13.932 Y45.563
X-13.111 Y45.898
X-12.277 Y46.197
X-11.432 Y46.462
X-10.576 Y46.693
X-9.713 Y46.894
X-8.844 Y47.067
X-7.97 Y47.216
X-7.094 Y47.344
X-6.214 Y47.454
X-5.333 Y47.548
X-4.451 Y47.629
X-3.568 Y47.7
X-2.684 Y47.761
X-1.799 Y47.814
X-0.914 Y47.861
X-0.029 Y47.903
X0.856 Y47.941
X1.742 Y47.976
X2.627 Y48.008
X5.284 Y48.101
X6.17 Y48.134
X7.055 Y48.169
X7.94 Y48.208
X8.825 Y48.252
X9.71 Y48.302
X10.594 Y48.359
X11.478 Y48.426
X12.36 Y48.505
X13.242 Y48.597
X14.121 Y48.706
X14.998 Y48.837
X15.87 Y48.994
X16.735 Y49.184
X17.59 Y49.417
X18.21 Y49.638
X18.682 Y49.85
X19.058 Y50.057
X19.188 Y50.143
X19.437 Y50.352
X19.632 Y50.611
X19.764 Y50.908
X19.825 Y51.227
X19.813 Y51.551
X19.728 Y51.864
G3 X19.088 Y52.216 I-0.549 J-0.241
G1 X18.995 Y52.202 Z-9.993
X18.904 Y52.188 Z-9.971
X18.818 Y52.175 Z-9.935
X18.739 Y52.163 Z-9.885
X18.668 Y52.152 Z-9.824
X18.608 Y52.142 Z-9.753
X18.559 Y52.135 Z-9.672
X18.524 Y52.129 Z-9.585
X18.502 Y52.126 Z-9.494
X18.495 Y52.125 Z-9.4
Z3
X-25.632 Y41.528
Z-8.8
Z-9.4
X-25.626 Y41.524 Z-9.494
X-25.607 Y41.513 Z-9.585
X-25.576 Y41.495 Z-9.672
X-25.534 Y41.469 Z-9.753
X-25.481 Y41.438 Z-9.824
X-25.42 Y41.402 Z-9.885
X-25.351 Y41.361 Z-9.935
X-25.276 Y41.316 Z-9.971
X-25.197 Y41.269 Z-9.993
X-25.117 Y41.221 Z-10
G3 X-24.363 Y41 I0.809 J1.36
G1 X-19.934
X-19.431 Y41.025
X-18.92 Y41.092
X-18.258 Y41.234
X-17.409 Y41.488
X-16.58 Y41.801
X-15.763 Y42.145
X-14.951 Y42.499
X-14.136 Y42.848
X-13.315 Y43.181
X-12.485 Y43.49
X-11.645 Y43.774
X-10.797 Y44.029
X-9.94 Y44.256
X-9.077 Y44.456
X-8.208 Y44.63
X-7.335 Y44.783
X-6.459 Y44.915
X-5.58 Y45.029
X-4.7 Y45.127
X-3.818 Y45.213
X-2.935 Y45.287
X-2.051 Y45.352
X-1.166 Y45.408
X-0.282 Y45.459
X0.603 Y45.504
X1.488 Y45.544
X2.374 Y45.582
X4.145 Y45.653
X5.03 Y45.688
X5.915 Y45.724
X6.801 Y45.762
X7.686 Y45.803
X8.571 Y45.849
X9.455 Y45.901
X10.34 Y45.96
X11.223 Y46.028
X12.106 Y46.108
X12.987 Y46.2
X13.866 Y46.309
X14.743 Y46.437
X15.616 Y46.589
X16.484 Y46.768
X17.342 Y46.989
X18.158 Y47.255
X18.751 Y47.502
X19.186 Y47.726
X19.576 Y47.968
X19.89 Y48.201
X20.179 Y48.452
X20.413 Y48.692
X20.636 Y48.96
X20.649 Y48.978
X20.787 Y49.224
X20.873 Y49.493
X20.904 Y49.773
X20.878 Y50.054
X20.795 Y50.324
X20.661 Y50.572
X20.479 Y50.788
G3 X19.751 Y50.847 I-0.403 J-0.445
G1 X19.673 Y50.797 Z-9.993
X19.596 Y50.747 Z-9.971
X19.522 Y50.7 Z-9.935
X19.455 Y50.656 Z-9.885
X19.395 Y50.617 Z-9.824
X19.343 Y50.584 Z-9.753
X19.302 Y50.558 Z-9.672
X19.272 Y50.538 Z-9.585
X19.253 Y50.526 Z-9.494
X19.247 Y50.522 Z-9.4
Z3
X-21.203 Y41.528
Z-8.8
Z-9.4
X-21.197 Y41.524 Z-9.494
X-21.178 Y41.513 Z-9.585
X-21.147 Y41.495 Z-9.672
X-21.105 Y41.469 Z-9.753
X-21.052 Y41.438 Z-9.824
X-20.99 Y41.402 Z-9.885
X-20.921 Y41.361 Z-9.935
X-20.847 Y41.316 Z-9.971
X-20.768 Y41.269 Z-9.993
X-20.687 Y41.221 Z-10
G3 X-19.934 Y41 I0.809 J1.36
G1 X-15.102
X-14.217 Y41.044
X-13.335 Y41.135
X-12.462 Y41.283
X-11.593 Y41.459
X-10.727 Y41.644
X-9.86 Y41.828
X-8.991 Y42.003
X-8.12 Y42.165
X-7.246 Y42.312
X-6.37 Y42.444
X-5.492 Y42.562
X-4.612 Y42.666
X-3.73 Y42.757
X-2.848 Y42.838
X-1.965 Y42.909
X-1.081 Y42.972
X-0.196 Y43.028
X0.688 Y43.078
X1.573 Y43.124
X2.458 Y43.167
X3.344 Y43.207
X5.114 Y43.285
X5.999 Y43.326
X6.884 Y43.368
X7.769 Y43.414
X8.654 Y43.464
X9.538 Y43.521
X10.422 Y43.584
X11.305 Y43.657
X12.187 Y43.741
X13.068 Y43.839
X13.947 Y43.953
X14.823 Y44.085
X15.695 Y44.242
X16.561 Y44.429
X17.419 Y44.652
X18.263 Y44.922
X19.028 Y45.228
X19.693 Y45.558
X20.273 Y45.907
X20.72 Y46.226
X21.094 Y46.542
X21.393 Y46.839
X21.641 Y47.129
X21.857 Y47.426
X22.029 Y47.709
X22.179 Y48.004
X22.294 Y48.286
X22.343 Y48.443
X22.403 Y48.741
X22.397 Y49.046
X22.325 Y49.342
X22.191 Y49.616
X22.001 Y49.854
X21.764 Y50.045
X21.491 Y50.18
G3 X20.801 Y49.938 I-0.187 J-0.57
G1 X20.75 Y49.859 Z-9.993
X20.7 Y49.783 Z-9.971
X20.653 Y49.71 Z-9.935
X20.609 Y49.642 Z-9.885
X20.57 Y49.583 Z-9.824
X20.536 Y49.531 Z-9.753
X20.509 Y49.49 Z-9.672
X20.49 Y49.46 Z-9.585
X20.478 Y49.442 Z-9.494
X20.473 Y49.435 Z-9.4
Z3
X-16.371 Y41.528
Z-8.8
Z-9.4
X-16.365 Y41.524 Z-9.494
X-16.346 Y41.513 Z-9.585
X-16.315 Y41.495 Z-9.672
X-16.273 Y41.469 Z-9.753
X-16.22 Y41.438 Z-9.824
X-16.159 Y41.402 Z-9.885
X-16.09 Y41.361 Z-9.935
X-16.015 Y41.316 Z-9.971
X-15.936 Y41.269 Z-9.993
X-15.855 Y41.221 Z-10
G3 X-15.102 Y41 I0.809 J1.36
G1 X4.83
X5.715 Y41.044
X6.601 Y41.049
X7.487 Y41.069
X8.372 Y41.102
X9.257 Y41.146
X10.142 Y41.202
X11.025 Y41.269
X11.908 Y41.348
X12.789 Y41.442
X13.668 Y41.551
X14.545 Y41.679
X15.418 Y41.829
X16.287 Y42.004
X17.149 Y42.21
X18.001 Y42.453
X18.839 Y42.743
X19.657 Y43.082
X20.441 Y43.472
X21.122 Y43.882
X21.712 Y44.305
X22.21 Y44.727
X22.643 Y45.158
X23.019 Y45.597
X23.313 Y46.004
X23.545 Y46.384
X23.728 Y46.747
X23.866 Y47.086
X23.972 Y47.422
X24.046 Y47.744
X24.091 Y48.052
X24.111 Y48.364
X24.106 Y48.646
X24.098 Y48.737
X24.041 Y49.02
X23.926 Y49.285
X23.76 Y49.521
X23.549 Y49.719
X23.302 Y49.868
X23.03 Y49.964
X22.743 Y50.002
X22.684 Y50.004
X22.603 Y49.998
X22.524 Y49.981
X22.447 Y49.953
X21.951 Y49.736
X4.61 Y42.149
G3 X4.83 Y41 I0.24 J-0.55
G1 X18.117
X18.86 Y41.037
X19.372 Y41.104
X19.958 Y41.23
X20.58 Y41.416
X21.198 Y41.657
X21.825 Y41.961
X22.443 Y42.325
X23.034 Y42.74
X23.58 Y43.193
X24.067 Y43.668
X24.487 Y44.15
X24.848 Y44.638
X25.157 Y45.133
X25.413 Y45.631
X25.622 Y46.131
X25.773 Y46.593
X25.879 Y47.032
X25.938 Y47.414
X25.967 Y47.797
X25.965 Y48.131
X25.935 Y48.473
X25.885 Y48.772
X25.842 Y48.942
X25.735 Y49.231
X25.566 Y49.489
X25.345 Y49.704
X25.083 Y49.866
X24.791 Y49.966
X24.485 Y50
X22.916
X22.743 Y50.002
G3 X22.231 Y49.707 I0.004 J-0.6
G1 X22.146 Y49.563
X17.622 Y41.905
G3 X17.538 Y41.601 I0.517 J-0.305
G1 Y41.6
G3 X18.117 Y41 I0.6 J0
G1 X22.144
X22.329 Y41.005
X22.639 Y41.04
X22.957 Y41.102
X23.326 Y41.205
X23.698 Y41.342
X24.106 Y41.53
X24.533 Y41.77
X24.95 Y42.052
X25.378 Y42.393
X25.801 Y42.79
X26.206 Y43.237
X26.579 Y43.722
X26.912 Y44.235
X27.197 Y44.763
X27.434 Y45.301
X27.621 Y45.838
X27.761 Y46.376
X27.853 Y46.901
X27.897 Y47.372
X27.903 Y47.805
X27.877 Y48.192
X27.824 Y48.553
X27.748 Y48.88
X27.7 Y49.029
X27.58 Y49.303
X27.404 Y49.545
X27.18 Y49.744
X26.92 Y49.89
X26.634 Y49.979
X26.336 Y50.004
X26.17 Y50
X24.485
G3 X23.931 Y49.572 I0.021 J-0.6
G1 X23.92 Y49.536
X21.601 Y41.77
G3 X22.144 Y41 I0.575 J-0.172
G1 X22.748 Y40.988
X23.151 Y40.921
X23.352 Y40.874
X23.553 Y40.807
X23.587 Y40.792
X23.727 Y40.74
X23.893 Y40.697
X24.07 Y40.667
X24.278 Y40.648
X24.507 Y40.646
X24.76 Y40.663
X25.042 Y40.706
X25.341 Y40.776
X25.67 Y40.882
X26.015 Y41.025
X26.377 Y41.21
X26.766 Y41.45
X27.144 Y41.727
X27.534 Y42.064
X27.926 Y42.461
X28.3 Y42.908
X28.645 Y43.395
X28.96 Y43.925
X29.24 Y44.495
X29.473 Y45.085
X29.654 Y45.683
X29.783 Y46.272
X29.861 Y46.845
X29.889 Y47.36
X29.876 Y47.845
X29.834 Y48.243
X29.76 Y48.633
X29.67 Y48.964
X29.55 Y49.294
X29.523 Y49.353
X29.369 Y49.613
X29.163 Y49.833
X28.915 Y50.005
X28.635 Y50.118
X28.338 Y50.17
X28.036 Y50.156
X27.982 Y50.148
X26.915 Y50.029
X26.774 Y50.014
X26.336 Y50.004
G3 X25.797 Y49.584 I0.034 J-0.599
G1 X25.78 Y49.528
X23.27 Y41.514
G3 X23.587 Y40.792 I0.573 J-0.179
G1 X23.755 Y40.72
X23.919 Y40.64
X23.956 Y40.619
X24.157 Y40.497
X24.358 Y40.354
X24.491 Y40.238
X24.604 Y40.14
X24.727 Y40.053
X24.857 Y39.978
X24.992 Y39.914
X25.132 Y39.859
X25.275 Y39.814
X25.421 Y39.779
X25.568 Y39.751
X25.717 Y39.731
X25.866 Y39.719
X26.016 Y39.715
X26.166 Y39.716
X26.316 Y39.725
X26.465 Y39.74
X26.614 Y39.76
X26.762 Y39.786
X26.908 Y39.818
X27.054 Y39.855
X27.198 Y39.897
X27.341 Y39.943
X27.482 Y39.993
X27.621 Y40.049
X27.759 Y40.108
X27.895 Y40.171
X28.029 Y40.237
X28.162 Y40.308
X28.292 Y40.382
X28.421 Y40.459
X28.548 Y40.54
X28.672 Y40.623
X28.795 Y40.71
X28.915 Y40.799
X29.033 Y40.892
X29.15 Y40.986
X29.264 Y41.084
X29.376 Y41.183
X29.485 Y41.286
X29.593 Y41.39
X29.699 Y41.497
X29.802 Y41.605
X29.903 Y41.716
X30.002 Y41.829
X30.099 Y41.944
X30.193 Y42.06
X30.286 Y42.178
X30.376 Y42.298
X30.463 Y42.42
X30.549 Y42.543
X30.632 Y42.668
X30.713 Y42.794
X30.792 Y42.922
X30.869 Y43.051
X30.943 Y43.181
X31.015 Y43.313
X31.085 Y43.445
X31.152 Y43.579
X31.217 Y43.715
X31.28 Y43.851
X31.34 Y43.988
X31.398 Y44.126
X31.454 Y44.266
X31.507 Y44.406
X31.558 Y44.547
X31.607 Y44.689
X31.653 Y44.832
X31.697 Y44.975
X31.738 Y45.119
X31.776 Y45.264
X31.813 Y45.41
X31.846 Y45.556
X31.877 Y45.703
X31.906 Y45.85
X31.931 Y45.998
X31.954 Y46.146
X31.975 Y46.295
X31.992 Y46.444
X32.007 Y46.593
X32.019 Y46.743
X32.028 Y46.892
X32.034 Y47.042
X32.038 Y47.192
Y47.342
X32.035 Y47.492
X32.029 Y47.642
X32.02 Y47.792
X32.008 Y47.941
X31.992 Y48.09
X31.972 Y48.239
X31.949 Y48.387
X31.922 Y48.535
X31.891 Y48.682
X31.855 Y48.827
X31.815 Y48.972
X31.771 Y49.115
X31.723 Y49.257
X31.67 Y49.398
X31.613 Y49.536
X31.55 Y49.673
X31.483 Y49.807
X31.412 Y49.939
X31.369 Y50.013
X31.176 Y50.268
X30.93 Y50.474
X30.644 Y50.618
X30.332 Y50.693
X30.012 Y50.695
X29.699 Y50.624
X29.349 Y50.502
X28.989 Y50.379
G3 X28.659 Y50.072 I0.214 J-0.561
G1 X28.522 Y49.779
X24.399 Y40.964
X24.375 Y40.912
G3 X24.491 Y40.238 I0.543 J-0.254
G1 X24.701 Y40.036
X24.869 Y39.835
X24.962 Y39.712
X25.009 Y39.634
X25.234 Y39.231
X25.314 Y39.03
X25.365 Y38.877
X25.379 Y38.829
X25.431 Y38.628
X25.468 Y38.426
X25.488 Y38.225
X25.497 Y38.024
X25.5 Y37.42
Y37.017
Y36.705
X25.527 Y36.712
X25.549 Y36.73
X25.604 Y36.806 Z-9.993
X25.658 Y36.88 Z-9.971
X25.709 Y36.951 Z-9.935
X25.756 Y37.016 Z-9.885
X25.798 Y37.073 Z-9.824
X25.834 Y37.123 Z-9.753
X25.863 Y37.163 Z-9.672
X25.884 Y37.192 Z-9.585
X25.897 Y37.21 Z-9.494
X25.901 Y37.216 Z-9.4
Z3
X38.881 Y30.151
Z-8.8
Z-9.4
X38.883 Y30.158 Z-9.494
X38.889 Y30.179 Z-9.585
X38.898 Y30.214 Z-9.672
X38.91 Y30.262 Z-9.753
X38.925 Y30.321 Z-9.824
X38.943 Y30.39 Z-9.885
X38.963 Y30.468 Z-9.935
X38.984 Y30.553 Z-9.971
X39.007 Y30.641 Z-9.993
X39.03 Y30.732 Z-10
G3 X39.5 Y33.999 I-14.839 J3.801
G1 Y34.261
X39.498 Y34.298
X39.407 Y34.417
X39.289 Y34.548
X39.133 Y34.695
X38.931 Y34.856
X38.672 Y35.032
X38.339 Y35.22
X37.908 Y35.419
X37.34 Y35.629
X36.56 Y35.848
X35.69 Y36.018
X34.812 Y36.134
X33.929 Y36.215
X33.045 Y36.271
X31.938 Y36.317
X31.385 Y36.332
X31.274 Y36.341
G3 X31.002 Y35.194 I-0.025 J-0.599
G1 X37.445 Y32.806
G3 X39.5 Y34.261 I0.474 J1.51
G1 Y35.116
X39.493 Y35.265
X39.448 Y35.409
X39.393 Y35.548
X39.33 Y35.684
X39.259 Y35.816
X39.18 Y35.944
X39.095 Y36.068
X39.005 Y36.187
X38.909 Y36.303
X38.809 Y36.415
X38.704 Y36.522
X38.596 Y36.626
X38.484 Y36.725
X38.369 Y36.822
X38.251 Y36.914
X38.13 Y37.003
X38.007 Y37.089
X37.881 Y37.171
X37.754 Y37.25
X37.624 Y37.326
X37.493 Y37.399
X37.361 Y37.469
X37.226 Y37.536
X37.091 Y37.6
X36.954 Y37.662
X36.816 Y37.721
X36.677 Y37.777
X36.538 Y37.832
X36.397 Y37.884
X36.256 Y37.934
X36.113 Y37.981
X35.97 Y38.027
X35.827 Y38.071
X35.683 Y38.113
X35.539 Y38.153
X35.394 Y38.192
X35.248 Y38.228
X35.102 Y38.264
X34.956 Y38.297
X34.81 Y38.329
X34.663 Y38.36
X34.446 Y38.404
X34.238 Y38.481
X34.045 Y38.59
X33.872 Y38.728
X33.723 Y38.892
X33.601 Y39.077
X33.51 Y39.279
X33.452 Y39.493
X33.359 Y40.374
X33.518 Y41.246
X33.715 Y42.11
X33.838 Y42.627
X33.907 Y42.928
X33.96 Y43.164
X34.004 Y43.371
X34.043 Y43.558
X34.077 Y43.729
X34.108 Y43.89
X34.136 Y44.04
X34.162 Y44.188
X34.187 Y44.336
X34.21 Y44.484
X34.233 Y44.632
X34.254 Y44.78
X34.274 Y44.929
X34.293 Y45.078
X34.31 Y45.227
X34.325 Y45.376
X34.339 Y45.526
X34.352 Y45.675
X34.363 Y45.825
X34.372 Y45.974
X34.379 Y46.124
X34.384 Y46.274
X34.388 Y46.424
X34.39 Y46.574
X34.389 Y46.724
X34.387 Y46.874
X34.382 Y47.024
X34.376 Y47.174
X34.367 Y47.324
X34.356 Y47.473
X34.342 Y47.622
X34.326 Y47.772
X34.308 Y47.921
X34.288 Y48.069
X34.264 Y48.217
X34.239 Y48.365
X34.21 Y48.512
X34.179 Y48.659
X34.146 Y48.805
X34.109 Y48.951
X34.069 Y49.095
X34.026 Y49.239
X33.98 Y49.382
X33.931 Y49.524
X33.878 Y49.664
X33.821 Y49.803
X33.761 Y49.94
X33.696 Y50.076
X33.629 Y50.209
X33.557 Y50.341
X33.481 Y50.47
X33.4 Y50.597
X33.316 Y50.721
X33.228 Y50.842
X33.135 Y50.96
X33.039 Y51.075
X32.991 Y51.128
X32.747 Y51.342
X32.459 Y51.494
X32.144 Y51.575
X31.819 Y51.582
X31.502 Y51.514
X31.208 Y51.374
X30.6 Y50.997
X30.398 Y50.904
X29.996 Y50.729
X29.699 Y50.624
X29.365 Y50.301
X29.36 Y49.981
X29.354 Y49.697
X30.46 Y39.231
X31.002 Y37.929
X31.808 Y36.828
G3 X32.009 Y36.615 I1.914 J1.608
G1 X33.016 Y35.981
X37.132 Y33.797
G3 X39.458 Y34.804 I0.786 J1.373
G1 X39.5 Y35.116
Y36.414
X39.492 Y36.57
X39.471 Y36.733
X39.432 Y36.913
X39.373 Y37.11
X39.29 Y37.323
X39.18 Y37.551
X39.037 Y37.794
X38.855 Y38.052
X38.631 Y38.322
X38.012 Y38.957
X37.47 Y39.658
X37.133 Y40.477
X36.941 Y41.342
X36.846 Y42.223
X36.808 Y43.109
X36.799 Y43.995
X36.795 Y44.881
X36.777 Y45.767
X36.73 Y46.652
X36.641 Y47.533
X36.497 Y48.408
X36.307 Y49.191
X36.08 Y49.878
X35.833 Y50.464
X35.582 Y50.946
X35.348 Y51.318
X35.092 Y51.663
X34.853 Y51.935
X34.59 Y52.19
X34.336 Y52.399
X34.259 Y52.453
X33.977 Y52.605
X33.668 Y52.689
X33.347 Y52.7
X33.033 Y52.638
X32.74 Y52.506
X32.486 Y52.311
X32.412 Y52.24
X32.21 Y52.055
X32.036 Y51.911
X31.808 Y51.751
X31.208 Y51.374
X30.99 Y51.106
X30.971 Y50.703
X30.984 Y50.669
X36.438 Y35.909
G3 X39.48 Y36.212 I1.48 J0.56
G1 X39.5 Y36.414
Y37.42
X39.503 Y38.024
X39.512 Y38.225
X39.52 Y38.387
X39.49 Y39.272
X39.421 Y40.156
X39.358 Y41.04
X39.31 Y41.925
X39.276 Y42.81
X39.246 Y43.696
X39.213 Y44.581
X39.165 Y45.466
X39.095 Y46.349
X38.995 Y47.23
X38.855 Y48.105
X38.667 Y48.971
X38.423 Y49.823
X38.133 Y50.61
X37.825 Y51.273
X37.492 Y51.863
X37.15 Y52.368
X36.828 Y52.771
X36.53 Y53.087
X36.223 Y53.365
X35.935 Y53.585
X35.637 Y53.778
X35.413 Y53.899
X35.106 Y54.02
X34.779 Y54.067
X34.45 Y54.037
X34.137 Y53.932
X33.857 Y53.756
